hehonglu123/Motion-Primitive-Planning/simulation/robotstudio_sim/scripts/fitting_output/curve_1/100L/curve_exe_v500_z10.csv
timestamp, cmd_num, J1, J2, J3, J4, J5, J6
0, -1, 11.3784, 13.6124, 17.34, -145.519, -97.9231, 142.516
0.002, -1, 11.3784, 13.6124, 17.34, -145.519, -97.9231, 142.516
0.006, -1, 11.3784, 13.6124, 17.34, -145.519, -97.9231, 142.516
0.008, -1, 11.3784, 13.6124, 17.34, -145.519, -97.9231, 142.516
0.011, -1, 11.3784, 13.6124, 17.34, -145.519, -97.9231, 142.516
0.016, -1, 11.3784, 13.6124, 17.34, -145.519, -97.9231, 142.516
0.02, -1, 11.3784, 13.6124, 17.34, -145.519, -97.9231, 142.516
0.024, -1, 11.3784, 13.6124, 17.34, -145.519, -97.9231, 142.516
0.028, -1, 11.3784, 13.6124, 17.34, -145.519, -97.9231, 142.516
0.032, -1, 11.3783, 13.6124, 17.34, -145.519, -97.9231, 142.516
0.036, -1, 11.3783, 13.6124, 17.34, -145.519, -97.9231, 142.516
0.04, -1, 11.378, 13.6124, 17.34, -145.519, -97.9231, 142.516
0.044, -1, 11.3773, 13.6123, 17.3399, -145.519, -97.9231, 142.516
0.048, -1, 11.376, 13.6121, 17.3397, -145.519, -97.9231, 142.516
0.052, -1, 11.3739, 13.6118, 17.3395, -145.519, -97.9231, 142.515
0.056, -1, 11.3709, 13.6113, 17.3392, -145.519, -97.9231, 142.515
0.06, -1, 11.3669, 13.6105, 17.3388, -145.519, -97.923, 142.514
0.064, -1, 11.3616, 13.6095, 17.3382, -145.52, -97.9229, 142.511
0.068, -1, 11.355, 13.6081, 17.3376, -145.52, -97.9228, 142.508
0.072, -1, 11.3469, 13.6063, 17.3369, -145.521, -97.9225, 142.503
0.076, -1, 11.3368, 13.604, 17.3361, -145.523, -97.9221, 142.496
0.08, -1, 11.3245, 13.6011, 17.3353, -145.524, -97.9216, 142.485
0.084, -1, 11.3095, 13.5974, 17.3345, -145.527, -97.9208, 142.471
0.088, -1, 11.2916, 13.593, 17.3339, -145.53, -97.9197, 142.452
0.092, -1, 11.2709, 13.5878, 17.3334, -145.534, -97.9183, 142.428
0.096, -1, 11.2473, 13.5817, 17.3333, -145.54, -97.9165, 142.397
0.1, -1, 11.2208, 13.5749, 17.3336, -145.546, -97.9143, 142.359
0.104, -1, 11.1915, 13.5672, 17.3345, -145.554, -97.9116, 142.313
0.108, -1, 11.1592, 13.5585, 17.336, -145.563, -97.9083, 142.259
0.112, -1, 11.1237, 13.549, 17.3382, -145.574, -97.9045, 142.197
0.116, -1, 11.085, 13.5386, 17.341, -145.586, -97.9002, 142.125
0.12, -1, 11.0431, 13.5271, 17.3444, -145.6, -97.8953, 142.045
0.124, -1, 10.9978, 13.5148, 17.3483, -145.615, -97.8899, 141.956
0.128, -1, 10.9493, 13.5015, 17.3528, -145.632, -97.884, 141.86
0.131, -1, 10.8979, 13.4874, 17.3577, -145.65, -97.8777, 141.756
0.136, -1, 10.8436, 13.4725, 17.3631, -145.669, -97.8709, 141.645
0.139, -1, 10.7865, 13.4568, 17.3687, -145.689, -97.8638, 141.529
0.144, -1, 10.7267, 13.4404, 17.3745, -145.709, -97.8564, 141.407
0.148, -1, 10.6642, 13.4232, 17.3803, -145.731, -97.8487, 141.281
0.152, -1, 10.5993, 13.4055, 17.3861, -145.753, -97.8408, 141.152
0.156, -1, 10.5321, 13.3871, 17.3919, -145.776, -97.8328, 141.02
0.16, -1, 10.4629, 13.3682, 17.3975, -145.799, -97.8246, 140.886
0.164, -1, 10.3921, 13.3489, 17.4031, -145.822, -97.8164, 140.751
0.168, -1, 10.32, 13.3293, 17.4085, -145.845, -97.8081, 140.614
0.172, -1, 10.2468, 13.3094, 17.4139, -145.869, -97.7998, 140.477
0.176, -1, 10.1727, 13.2894, 17.4192, -145.893, -97.7914, 140.339
0.18, -1, 10.0979, 13.2691, 17.4245, -145.916, -97.783, 140.2
0.184, -1, 10.0225, 13.2488, 17.4297, -145.94, -97.7746, 140.062
0.188, -1, 9.94654, 13.2284, 17.4348, -145.964, -97.7661, 139.922
0.192, -1, 9.87027, 13.2079, 17.44, -145.988, -97.7577, 139.783
0.196, -1, 9.79375, 13.1874, 17.4451, -146.012, -97.7492, 139.644
0.2, -1, 9.71706, 13.1669, 17.4502, -146.036, -97.7408, 139.504
0.204, -1, 9.64025, 13.1463, 17.4553, -146.06, -97.7324, 139.365
0.208, -1, 9.56336, 13.1258, 17.4604, -146.084, -97.7239, 139.225
0.212, -1, 9.48641, 13.1052, 17.4655, -146.108, -97.7155, 139.086
0.216, -1, 9.40942, 13.0846, 17.4706, -146.131, -97.707, 138.946
0.22, -1, 9.3324, 13.064, 17.4757, -146.155, -97.6985, 138.807
0.224, -1, 9.25536, 13.0434, 17.4808, -146.179, -97.6901, 138.667
0.228, -1, 9.1783, 13.0228, 17.4859, -146.203, -97.6816, 138.527
0.232, -1, 9.10122, 13.0022, 17.491, -146.227, -97.6732, 138.388
0.236, -1, 9.02413, 12.9815, 17.4961, -146.251, -97.6647, 138.248
0.24, -1, 8.94703, 12.9609, 17.5012, -146.275, -97.6563, 138.108
0.244, -1, 8.86993, 12.9403, 17.5063, -146.299, -97.6478, 137.969
0.248, -1, 8.79281, 12.9197, 17.5114, -146.323, -97.6393, 137.829
0.252, -1, 8.71568, 12.8991, 17.5165, -146.347, -97.6309, 137.689
0.256, -1, 8.63855, 12.8785, 17.5216, -146.371, -97.6224, 137.55
0.26, -1, 8.56141, 12.8578, 17.5267, -146.395, -97.614, 137.41
0.264, -1, 8.48426, 12.8372, 17.5318, -146.419, -97.6055, 137.27
0.268, -1, 8.40711, 12.8166, 17.5369, -146.443, -97.597, 137.13
0.272, -1, 8.32994, 12.7959, 17.542, -146.467, -97.5886, 136.99
0.276, -1, 8.25277, 12.7753, 17.5471, -146.491, -97.5801, 136.851
0.28, -1, 8.1756, 12.7547, 17.5522, -146.515, -97.5716, 136.711
0.284, -1, 8.09841, 12.734, 17.5573, -146.539, -97.5632, 136.571
0.288, -1, 8.02122, 12.7134, 17.5624, -146.563, -97.5547, 136.431
0.292, -1, 7.94402, 12.6928, 17.5675, -146.587, -97.5462, 136.291
0.296, -1, 7.86681, 12.6721, 17.5726, -146.611, -97.5378, 136.151
0.3, -1, 7.7896, 12.6515, 17.5777, -146.635, -97.5293, 136.012
0.304, -1, 7.71238, 12.6308, 17.5828, -146.659, -97.5208, 135.872
0.308, -1, 7.63515, 12.6102, 17.5879, -146.683, -97.5123, 135.732
0.312, -1, 7.55791, 12.5895, 17.593, -146.707, -97.5039, 135.592
0.316, -1, 7.48067, 12.5689, 17.5981, -146.731, -97.4954, 135.452
0.32, -1, 7.40342, 12.5482, 17.6032, -146.755, -97.4869, 135.312
0.324, -1, 7.32616, 12.5276, 17.6083, -146.779, -97.4784, 135.172
0.328, -1, 7.24889, 12.5069, 17.6134, -146.803, -97.47, 135.032
0.332, -1, 7.17162, 12.4862, 17.6185, -146.827, -97.4615, 134.892
0.336, -1, 7.09434, 12.4656, 17.6236, -146.851, -97.453, 134.752
0.34, -1, 7.01705, 12.4449, 17.6287, -146.875, -97.4445, 134.612
0.344, -1, 6.93976, 12.4242, 17.6339, -146.899, -97.436, 134.472
0.348, -1, 6.86246, 12.4036, 17.639, -146.923, -97.4276, 134.332
0.352, -1, 6.78515, 12.3829, 17.6441, -146.947, -97.4191, 134.192
0.356, -1, 6.70783, 12.3622, 17.6492, -146.971, -97.4106, 134.052
0.36, -1, 6.63051, 12.3416, 17.6543, -146.995, -97.4021, 133.912
0.364, -1, 6.55317, 12.3209, 17.6594, -147.019, -97.3936, 133.772
0.368, -1, 6.47583, 12.3002, 17.6645, -147.043, -97.3851, 133.631
0.372, -1, 6.39849, 12.2795, 17.6696, -147.067, -97.3767, 133.491
0.376, -1, 6.32113, 12.2588, 17.6747, -147.091, -97.3682, 133.351
0.38, -1, 6.24377, 12.2382, 17.6798, -147.115, -97.3597, 133.211
0.384, -1, 6.1664, 12.2175, 17.6849, -147.14, -97.3512, 133.071
0.388, -1, 6.08903, 12.1968, 17.6901, -147.164, -97.3427, 132.931
0.392, -1, 6.01164, 12.1761, 17.6952, -147.188, -97.3342, 132.79
0.396, -1, 5.93425, 12.1554, 17.7003, -147.212, -97.3257, 132.65
0.4, -1, 5.85685, 12.1347, 17.7054, -147.236, -97.3172, 132.51
0.404, -1, 5.77945, 12.114, 17.7105, -147.26, -97.3087, 132.37
0.408, -1, 5.70203, 12.0933, 17.7156, -147.284, -97.3003, 132.23
0.412, -1, 5.62461, 12.0726, 17.7207, -147.308, -97.2918, 132.089
0.416, -1, 5.54718, 12.0519, 17.7259, -147.332, -97.2833, 131.949
0.42, -1, 5.46975, 12.0312, 17.731, -147.356, -97.2748, 131.809
0.424, -1, 5.3923, 12.0105, 17.7361, -147.38, -97.2663, 131.668
0.428, -1, 5.31485, 11.9898, 17.7412, -147.404, -97.2578, 131.528
0.432, -1, 5.23739, 11.9691, 17.7463, -147.428, -97.2493, 131.388
0.436, -1, 5.15992, 11.9484, 17.7515, -147.452, -97.2408, 131.247
0.44, -1, 5.08245, 11.9277, 17.7566, -147.476, -97.2323, 131.107
0.444, -1, 5.00497, 11.9069, 17.7617, -147.501, -97.2238, 130.967
0.448, -1, 4.92748, 11.8862, 17.7668, -147.525, -97.2153, 130.826
0.452, -1, 4.84998, 11.8655, 17.7719, -147.549, -97.2068, 130.686
0.456, -1, 4.77248, 11.8448, 17.7771, -147.573, -97.1983, 130.545
0.46, -1, 4.69496, 11.8241, 17.7822, -147.597, -97.1898, 130.405
0.464, -1, 4.61744, 11.8033, 17.7873, -147.621, -97.1813, 130.265
0.468, -1, 4.53991, 11.7826, 17.7924, -147.645, -97.1728, 130.124
0.472, -1, 4.46238, 11.7619, 17.7975, -147.669, -97.1642, 129.984
0.476, -1, 4.38483, 11.7411, 17.8027, -147.693, -97.1557, 129.843
0.48, -1, 4.30728, 11.7204, 17.8078, -147.717, -97.1472, 129.703
0.484, -1, 4.22972, 11.6997, 17.8129, -147.741, -97.1387, 129.562
0.488, -1, 4.15216, 11.6789, 17.818, -147.766, -97.1302, 129.422
0.492, -1, 4.07458, 11.6582, 17.8232, -147.79, -97.1217, 129.281
0.496, -1, 3.997, 11.6374, 17.8283, -147.814, -97.1132, 129.141
0.5, -1, 3.91941, 11.6167, 17.8334, -147.838, -97.1047, 129
0.504, -1, 3.84181, 11.5959, 17.8385, -147.862, -97.0962, 128.859
0.508, -1, 3.7642, 11.5752, 17.8437, -147.886, -97.0877, 128.719
0.512, -1, 3.68659, 11.5544, 17.8488, -147.91, -97.0791, 128.578
0.516, -1, 3.60896, 11.5337, 17.8539, -147.934, -97.0706, 128.438
0.52, -1, 3.53133, 11.5129, 17.8591, -147.959, -97.0621, 128.297
0.524, -1, 3.4537, 11.4922, 17.8642, -147.983, -97.0536, 128.156
0.528, -1, 3.37605, 11.4714, 17.8693, -148.007, -97.0451, 128.016
0.532, -1, 3.2984, 11.4507, 17.8745, -148.031, -97.0366, 127.875
0.536, -1, 3.22074, 11.4299, 17.8796, -148.055, -97.028, 127.734
0.54, -1, 3.14307, 11.4091, 17.8847, -148.079, -97.0195, 127.594
0.544, -1, 3.06539, 11.3884, 17.8898, -148.103, -97.011, 127.453
0.548, -1, 2.9877, 11.3676, 17.895, -148.128, -97.0025, 127.312
0.552, -1, 2.91001, 11.3468, 17.9001, -148.152, -96.9939, 127.171
0.556, -1, 2.83231, 11.326, 17.9052, -148.176, -96.9854, 127.031
0.56, -1, 2.7546, 11.3053, 17.9104, -148.2, -96.9769, 126.89
0.564, -1, 2.67688, 11.2845, 17.9155, -148.224, -96.9684, 126.749
0.568, -1, 2.59916, 11.2637, 17.9207, -148.248, -96.9598, 126.608
0.572, -1, 2.52143, 11.2429, 17.9258, -148.272, -96.9513, 126.467
0.576, -1, 2.44369, 11.2221, 17.9309, -148.297, -96.9428, 126.326
0.58, -1, 2.36594, 11.2013, 17.9361, -148.321, -96.9343, 126.186
0.584, -1, 2.28818, 11.1805, 17.9412, -148.345, -96.9257, 126.045
0.588, -1, 2.21042, 11.1598, 17.9463, -148.369, -96.9172, 125.904
0.592, -1, 2.13264, 11.139, 17.9515, -148.393, -96.9087, 125.763
0.596, -1, 2.05486, 11.1182, 17.9566, -148.417, -96.9001, 125.622
0.6, -1, 1.97708, 11.0974, 17.9618, -148.442, -96.8916, 125.481
0.604, -1, 1.89928, 11.0766, 17.9669, -148.466, -96.883, 125.34
0.608, -1, 1.82147, 11.0558, 17.972, -148.49, -96.8745, 125.199
0.612, -1, 1.74366, 11.035, 17.9772, -148.514, -96.866, 125.058
0.616, -1, 1.66584, 11.0142, 17.9823, -148.538, -96.8574, 124.917
0.62, -1, 1.58801, 10.9933, 17.9875, -148.563, -96.8489, 124.776
0.624, -1, 1.51018, 10.9725, 17.9926, -148.587, -96.8404, 124.635
0.628, -1, 1.43233, 10.9517, 17.9977, -148.611, -96.8318, 124.494
0.632, -1, 1.35448, 10.9309, 18.0029, -148.635, -96.8233, 124.353
0.636, -1, 1.27662, 10.9101, 18.008, -148.659, -96.8147, 124.212
0.64, -1, 1.19875, 10.8893, 18.0132, -148.684, -96.8062, 124.071
0.644, -1, 1.12087, 10.8684, 18.0183, -148.708, -96.7977, 123.93
0.648, -1, 1.04299, 10.8476, 18.0235, -148.732, -96.7891, 123.789
0.652, -1, 0.965097, 10.8268, 18.0286, -148.756, -96.7806, 123.648
0.656, -1, 0.887196, 10.806, 18.0338, -148.78, -96.772, 123.507
0.66, -1, 0.809287, 10.7851, 18.0389, -148.805, -96.7635, 123.366
0.664, -1, 0.731371, 10.7643, 18.0441, -148.829, -96.7549, 123.224
0.668, -1, 0.653446, 10.7435, 18.0492, -148.853, -96.7464, 123.083
0.672, -1, 0.575513, 10.7226, 18.0544, -148.877, -96.7378, 122.942
0.676, -1, 0.497571, 10.7018, 18.0595, -148.902, -96.7293, 122.801
0.68, -1, 0.419622, 10.6809, 18.0647, -148.926, -96.7207, 122.66
0.684, -1, 0.341664, 10.6601, 18.0698, -148.95, -96.7122, 122.518
0.688, -1, 0.263699, 10.6393, 18.075, -148.974, -96.7036, 122.377
0.692, -1, 0.185725, 10.6184, 18.0801, -148.998, -96.6951, 122.236
0.696, -1, 0.107742, 10.5976, 18.0853, -149.023, -96.6865, 122.095
0.7, -1, 0.0297514, 10.5767, 18.0904, -149.047, -96.6779, 121.953
0.704, -1, -0.0482476, 10.5559, 18.0956, -149.071, -96.6694, 121.812
0.708, -1, -0.126255, 10.535, 18.1007, -149.095, -96.6608, 121.671
0.712, -1, -0.204271, 10.5141, 18.1059, -149.12, -96.6523, 121.529
0.716, -1, -0.282295, 10.4933, 18.111, -149.144, -96.6437, 121.388
0.72, -1, -0.360327, 10.4724, 18.1162, -149.168, -96.6352, 121.247
0.724, -1, -0.438368, 10.4515, 18.1214, -149.192, -96.6266, 121.105
0.728, -1, -0.516417, 10.4307, 18.1265, -149.217, -96.618, 120.964
0.732, -1, -0.594474, 10.4098, 18.1317, -149.241, -96.6095, 120.822
0.736, -1, -0.67254, 10.3889, 18.1368, -149.265, -96.6009, 120.681
0.74, -1, -0.750614, 10.3681, 18.142, -149.29, -96.5923, 120.54
0.744, -1, -0.828697, 10.3472, 18.1471, -149.314, -96.5838, 120.398
0.748, -1, -0.906788, 10.3263, 18.1523, -149.338, -96.5752, 120.257
0.752, -1, -0.984887, 10.3054, 18.1575, -149.362, -96.5666, 120.115
0.756, -1, -1.063, 10.2845, 18.1626, -149.387, -96.5581, 119.974
0.76, -1, -1.14111, 10.2637, 18.1678, -149.411, -96.5495, 119.832
0.764, -1, -1.21924, 10.2428, 18.173, -149.435, -96.5409, 119.691
0.768, -1, -1.29737, 10.2219, 18.1781, -149.459, -96.5323, 119.549
0.772, -1, -1.37551, 10.201, 18.1833, -149.484, -96.5238, 119.407
0.776, -1, -1.45366, 10.1801, 18.1884, -149.508, -96.5152, 119.266
0.78, -1, -1.53182, 10.1592, 18.1936, -149.532, -96.5066, 119.124
0.784, -1, -1.60999, 10.1383, 18.1988, -149.557, -96.4981, 118.983
0.788, -1, -1.68817, 10.1174, 18.2039, -149.581, -96.4895, 118.841
0.792, -1, -1.76635, 10.0965, 18.2091, -149.605, -96.4809, 118.699
0.796, -1, -1.84455, 10.0756, 18.2143, -149.63, -96.4723, 118.558
0.8, -1, -1.92275, 10.0547, 18.2194, -149.654, -96.4637, 118.416
0.804, -1, -2.00096, 10.0338, 18.2246, -149.678, -96.4552, 118.274
0.808, -1, -2.07918, 10.0128, 18.2298, -149.702, -96.4466, 118.133
0.812, -1, -2.15741, 9.99193, 18.2349, -149.727, -96.438, 117.991
0.816, -1, -2.23565, 9.97101, 18.2401, -149.751, -96.4294, 117.849
0.82, -1, -2.31389, 9.95009, 18.2453, -149.775, -96.4208, 117.707
0.824, -1, -2.39215, 9.92917, 18.2505, -149.8, -96.4122, 117.566
0.828, -1, -2.47041, 9.90824, 18.2556, -149.824, -96.4037, 117.424
0.832, -1, -2.54868, 9.88731, 18.2608, -149.848, -96.3951, 117.282
0.836, -1, -2.62697, 9.86638, 18.266, -149.873, -96.3865, 117.14
0.84, -1, -2.70526, 9.84545, 18.2711, -149.897, -96.3779, 116.998
0.844, -1, -2.78355, 9.82452, 18.2763, -149.921, -96.3693, 116.857
0.848, -1, -2.86186, 9.80358, 18.2815, -149.946, -96.3607, 116.715
0.852, -1, -2.94018, 9.78264, 18.2867, -149.97, -96.3521, 116.573
0.856, -1, -3.0185, 9.7617, 18.2918, -149.994, -96.3435, 116.431
0.86, -1, -3.09684, 9.74076, 18.297, -150.019, -96.3349, 116.289
0.864, -1, -3.17518, 9.71981, 18.3022, -150.043, -96.3263, 116.147
0.868, -1, -3.25353, 9.69886, 18.3074, -150.067, -96.3177, 116.005
0.872, -1, -3.33189, 9.67791, 18.3125, -150.092, -96.3091, 115.863
0.876, -1, -3.41026, 9.65695, 18.3177, -150.116, -96.3005, 115.721
0.88, -1, -3.48864, 9.636, 18.3229, -150.141, -96.2919, 115.579
0.884, -1, -3.56702, 9.61504, 18.3281, -150.165, -96.2833, 115.437
0.888, -1, -3.64542, 9.59408, 18.3333, -150.189, -96.2747, 115.295
0.892, -1, -3.72382, 9.57312, 18.3384, -150.214, -96.2662, 115.153
0.896, -1, -3.80223, 9.55215, 18.3436, -150.238, -96.2575, 115.011
0.9, -1, -3.88066, 9.53118, 18.3488, -150.262, -96.2489, 114.869
0.904, -1, -3.95909, 9.51021, 18.354, -150.287, -96.2403, 114.727
0.908, -1, -4.03753, 9.48924, 18.3592, -150.311, -96.2317, 114.585
0.912, -1, -4.11597, 9.46827, 18.3644, -150.336, -96.2231, 114.443
0.916, -1, -4.19443, 9.44729, 18.3695, -150.36, -96.2145, 114.3
0.92, -1, -4.2729, 9.42631, 18.3747, -150.384, -96.2059, 114.158
0.924, -1, -4.35137, 9.40533, 18.3799, -150.409, -96.1973, 114.016
0.928, -1, -4.42986, 9.38434, 18.3851, -150.433, -96.1887, 113.874
0.932, -1, -4.50835, 9.36336, 18.3903, -150.458, -96.1801, 113.732
0.936, -1, -4.58685, 9.34237, 18.3955, -150.482, -96.1715, 113.59
0.94, -1, -4.66536, 9.32138, 18.4007, -150.506, -96.1628, 113.447
0.944, -1, -4.74388, 9.30038, 18.4058, -150.531, -96.1542, 113.305
0.948, -1, -4.82241, 9.27939, 18.411, -150.555, -96.1456, 113.163
0.952, -1, -4.90095, 9.25839, 18.4162, -150.58, -96.137, 113.021
0.956, -1, -4.97949, 9.23739, 18.4214, -150.604, -96.1284, 112.878
0.96, -1, -5.05805, 9.21638, 18.4266, -150.628, -96.1198, 112.736
0.964, -1, -5.13661, 9.19538, 18.4318, -150.653, -96.1111, 112.594
0.968, -1, -5.21519, 9.17437, 18.437, -150.677, -96.1025, 112.451
0.972, -1, -5.29377, 9.15336, 18.4422, -150.702, -96.0939, 112.309
0.976, -1, -5.37236, 9.13235, 18.4474, -150.726, -96.0853, 112.166
0.98, -1, -5.45096, 9.11133, 18.4526, -150.751, -96.0767, 112.024
0.984, -1, -5.52957, 9.09031, 18.4578, -150.775, -96.068, 111.882
0.988, -1, -5.60819, 9.06929, 18.4629, -150.799, -96.0594, 111.739
0.992, -1, -5.68681, 9.04827, 18.4681, -150.824, -96.0508, 111.597
0.996, -1, -5.76545, 9.02725, 18.4733, -150.848, -96.0422, 111.454
1, -1, -5.8441, 9.00622, 18.4785, -150.873, -96.0335, 111.312
1.004, -1, -5.92275, 8.98519, 18.4837, -150.897, -96.0249, 111.169
1.008, -1, -6.00141, 8.96416, 18.4889, -150.922, -96.0163, 111.027
1.012, -1, -6.08009, 8.94312, 18.4941, -150.946, -96.0076, 110.884
1.016, -1, -6.15877, 8.92208, 18.4993, -150.971, -95.999, 110.742
1.02, -1, -6.23746, 8.90104, 18.5045, -150.995, -95.9904, 110.599
1.024, -1, -6.31616, 8.88, 18.5097, -151.019, -95.9817, 110.457
1.027, -1, -6.39487, 8.85896, 18.5149, -151.044, -95.9731, 110.314
1.032, -1, -6.47358, 8.83791, 18.5201, -151.068, -95.9645, 110.171
1.036, -1, -6.55231, 8.81686, 18.5253, -151.093, -95.9558, 110.029
1.04, -1, -6.63105, 8.79581, 18.5305, -151.117, -95.9472, 109.886
1.044, -1, -6.70979, 8.77476, 18.5357, -151.142, -95.9386, 109.743
1.048, -1, -6.78854, 8.7537, 18.5409, -151.166, -95.9299, 109.601
1.052, -1, -6.86731, 8.73264, 18.5461, -151.191, -95.9213, 109.458
1.055, -1, -6.94608, 8.71158, 18.5513, -151.215, -95.9126, 109.315
1.06, -1, -7.02486, 8.69052, 18.5566, -151.24, -95.904, 109.173
1.064, -1, -7.10365, 8.66945, 18.5618, -151.264, -95.8954, 109.03
1.068, -1, -7.18245, 8.64838, 18.567, -151.289, -95.8867, 108.887
1.072, -1, -7.26126, 8.62731, 18.5722, -151.313, -95.8781, 108.744
1.076, -1, -7.34008, 8.60624, 18.5774, -151.338, -95.8694, 108.602
1.08, -1, -7.41891, 8.58516, 18.5826, -151.362, -95.8608, 108.459
1.084, -1, -7.49775, 8.56408, 18.5878, -151.387, -95.8521, 108.316
1.088, -1, -7.5766, 8.543, 18.593, -151.411, -95.8435, 108.173
1.091, -1, -7.65545, 8.52192, 18.5982, -151.436, -95.8348, 108.03
1.096, -1, -7.73432, 8.50083, 18.6034, -151.46, -95.8261, 107.887
1.1, -1, -7.81319, 8.47974, 18.6086, -151.485, -95.8175, 107.744
1.104, -1, -7.89208, 8.45865, 18.6139, -151.509, -95.8088, 107.602
1.108, -1, -7.97097, 8.43756, 18.6191, -151.534, -95.8002, 107.459
1.112, -1, -8.04988, 8.41646, 18.6243, -151.558, -95.7915, 107.316
1.116, -1, -8.12879, 8.39536, 18.6295, -151.583, -95.7829, 107.173
1.119, -1, -8.20771, 8.37426, 18.6347, -151.607, -95.7742, 107.03
1.124, -1, -8.28665, 8.35315, 18.6399, -151.632, -95.7656, 106.887
1.128, -1, -8.36559, 8.33205, 18.6451, -151.656, -95.7569, 106.744
1.132, -1, -8.44454, 8.31094, 18.6504, -151.681, -95.7482, 106.601
1.136, -1, -8.5235, 8.28983, 18.6556, -151.706, -95.7396, 106.458
1.14, -1, -8.60247, 8.26871, 18.6608, -151.73, -95.7309, 106.315
1.144, -1, -8.68145, 8.24759, 18.666, -151.755, -95.7222, 106.172
1.147, -1, -8.76044, 8.22647, 18.6712, -151.779, -95.7136, 106.028
1.152, -1, -8.83944, 8.20535, 18.6765, -151.804, -95.7049, 105.885
1.156, -1, -8.91845, 8.18423, 18.6817, -151.828, -95.6963, 105.742
1.16, -1, -8.99747, 8.1631, 18.6869, -151.853, -95.6876, 105.599
1.164, -1, -9.0765, 8.14197, 18.6921, -151.877, -95.6789, 105.456
1.168, -1, -9.15554, 8.12084, 18.6973, -151.902, -95.6702, 105.313
1.172, -1, -9.23459, 8.0997, 18.7026, -151.927, -95.6616, 105.169
1.175, -1, -9.31365, 8.07856, 18.7078, -151.951, -95.6529, 105.026
1.18, -1, -9.39271, 8.05742, 18.713, -151.976, -95.6442, 104.883
1.184, -1, -9.47179, 8.03628, 18.7182, -152, -95.6355, 104.74
1.188, -1, -9.55088, 8.01513, 18.7235, -152.025, -95.6269, 104.596
1.192, -1, -9.62998, 7.99399, 18.7287, -152.049, -95.6182, 104.453
1.196, -1, -9.70908, 7.97284, 18.7339, -152.074, -95.6095, 104.31
1.2, -1, -9.7882, 7.95168, 18.7391, -152.099, -95.6008, 104.166
1.204, -1, -9.86733, 7.93052, 18.7444, -152.123, -95.5921, 104.023
1.208, -1, -9.94647, 7.90937, 18.7496, -152.148, -95.5835, 103.88
1.212, -1, -10.0256, 7.88821, 18.7548, -152.172, -95.5748, 103.736
1.216, -1, -10.1048, 7.86704, 18.7601, -152.197, -95.5661, 103.593
1.22, -1, -10.1839, 7.84587, 18.7653, -152.222, -95.5574, 103.449
1.224, -1, -10.2631, 7.8247, 18.7705, -152.246, -95.5487, 103.306
1.228, -1, -10.3423, 7.80353, 18.7758, -152.271, -95.54, 103.163
1.232, -1, -10.4215, 7.78236, 18.781, -152.295, -95.5313, 103.019
1.236, -1, -10.5007, 7.76118, 18.7862, -152.32, -95.5227, 102.876
1.24, -1, -10.5799, 7.74, 18.7915, -152.345, -95.514, 102.732
1.244, -1, -10.6591, 7.71882, 18.7967, -152.369, -95.5053, 102.589
1.248, -1, -10.7384, 7.69763, 18.8019, -152.394, -95.4966, 102.445
1.252, -1, -10.8176, 7.67644, 18.8072, -152.419, -95.4879, 102.301
1.256, -1, -10.8969, 7.65525, 18.8124, -152.443, -95.4792, 102.158
1.26, -1, -10.9761, 7.63406, 18.8176, -152.468, -95.4705, 102.014
1.264, -1, -11.0554, 7.61286, 18.8229, -152.493, -95.4618, 101.871
1.267, -1, -11.1347, 7.59167, 18.8281, -152.517, -95.4531, 101.727
1.272, -1, -11.214, 7.57047, 18.8333, -152.542, -95.4444, 101.583
1.276, -1, -11.2933, 7.54926, 18.8386, -152.566, -95.4357, 101.44
1.28, -1, -11.3726, 7.52805, 18.8438, -152.591, -95.427, 101.296
1.284, -1, -11.4519, 7.50685, 18.8491, -152.616, -95.4183, 101.152
1.288, -1, -11.5313, 7.48563, 18.8543, -152.64, -95.4096, 101.009
1.292, -1, -11.6106, 7.46442, 18.8596, -152.665, -95.4009, 100.865
1.295, -1, -11.69, 7.4432, 18.8648, -152.69, -95.3922, 100.721
1.3, -1, -11.7693, 7.42198, 18.87, -152.714, -95.3835, 100.577
1.304, -1, -11.8487, 7.40076, 18.8753, -152.739, -95.3748, 100.433
1.308, -1, -11.9281, 7.37953, 18.8805, -152.764, -95.3661, 100.29
1.312, -1, -12.0075, 7.35831, 18.8858, -152.788, -95.3573, 100.146
1.316, -1, -12.0869, 7.33708, 18.891, -152.813, -95.3486, 100.002
1.32, -1, -12.1663, 7.31584, 18.8963, -152.838, -95.3399, 99.8581
1.324, -1, -12.2457, 7.29461, 18.9015, -152.863, -95.3312, 99.7142
1.328, -1, -12.3252, 7.27337, 18.9068, -152.887, -95.3225, 99.5703
1.332, -1, -12.4046, 7.25213, 18.912, -152.912, -95.3138, 99.4263
1.336, -1, -12.4841, 7.23088, 18.9173, -152.937, -95.3051, 99.2824
1.34, -1, -12.5635, 7.20964, 18.9225, -152.961, -95.2963, 99.1384
1.344, -1, -12.643, 7.18839, 18.9278, -152.986, -95.2876, 98.9945
1.348, -1, -12.7225, 7.16713, 18.933, -153.011, -95.2789, 98.8505
1.352, -1, -12.802, 7.14588, 18.9383, -153.035, -95.2702, 98.7064
1.356, -1, -12.8815, 7.12462, 18.9435, -153.06, -95.2615, 98.5624
1.36, -1, -12.961, 7.10336, 18.9488, -153.085, -95.2527, 98.4183
1.364, -1, -13.0405, 7.0821, 18.954, -153.11, -95.244, 98.2743
1.368, -1, -13.1201, 7.06083, 18.9593, -153.134, -95.2353, 98.1302
1.372, -1, -13.1996, 7.03957, 18.9645, -153.159, -95.2266, 97.9861
1.376, -1, -13.2792, 7.01829, 18.9698, -153.184, -95.2178, 97.8419
1.38, -1, -13.3588, 6.99702, 18.9751, -153.208, -95.2091, 97.6978
1.384, -1, -13.4383, 6.97574, 18.9803, -153.233, -95.2004, 97.5536
1.388, -1, -13.5179, 6.95447, 18.9856, -153.258, -95.1916, 97.4094
1.392, -1, -13.5975, 6.93318, 18.9908, -153.283, -95.1829, 97.2652
1.396, -1, -13.6771, 6.9119, 18.9961, -153.307, -95.1742, 97.121
1.4, -1, -13.7567, 6.89061, 19.0014, -153.332, -95.1654, 96.9768
1.404, -1, -13.8364, 6.86932, 19.0066, -153.357, -95.1567, 96.8325
1.408, -1, -13.916, 6.84803, 19.0119, -153.382, -95.148, 96.6882
1.412, -1, -13.9956, 6.82673, 19.0171, -153.406, -95.1392, 96.5439
1.416, -1, -14.0753, 6.80544, 19.0224, -153.431, -95.1305, 96.3996
1.42, -1, -14.155, 6.78413, 19.0277, -153.456, -95.1217, 96.2553
1.424, -1, -14.2347, 6.76283, 19.0329, -153.481, -95.113, 96.1109
1.428, -1, -14.3143, 6.74152, 19.0382, -153.505, -95.1043, 95.9666
1.432, -1, -14.394, 6.72021, 19.0435, -153.53, -95.0955, 95.8222
1.436, -1, -14.4738, 6.6989, 19.0487, -153.555, -95.0868, 95.6778
1.44, -1, -14.5535, 6.67759, 19.054, -153.58, -95.078, 95.5334
1.444, -1, -14.6332, 6.65627, 19.0593, -153.605, -95.0693, 95.3889
1.448, -1, -14.7129, 6.63495, 19.0645, -153.629, -95.0605, 95.2444
1.452, -1, -14.7927, 6.61363, 19.0698, -153.654, -95.0518, 95.1
1.456, -1, -14.8725, 6.5923, 19.0751, -153.679, -95.043, 94.9555
1.46, -1, -14.9522, 6.57097, 19.0804, -153.704, -95.0343, 94.8109
1.464, -1, -15.032, 6.54964, 19.0856, -153.729, -95.0255, 94.6664
1.468, -1, -15.1118, 6.52831, 19.0909, -153.753, -95.0168, 94.5219
1.472, -1, -15.1916, 6.50697, 19.0962, -153.778, -95.008, 94.3773
1.476, -1, -15.2714, 6.48563, 19.1014, -153.803, -94.9993, 94.2327
1.48, -1, -15.3512, 6.46429, 19.1067, -153.828, -94.9905, 94.0881
1.484, -1, -15.4311, 6.44294, 19.112, -153.853, -94.9817, 93.9434
1.488, -1, -15.5109, 6.42159, 19.1173, -153.877, -94.973, 93.7988
1.492, -1, -15.5908, 6.40024, 19.1225, -153.902, -94.9642, 93.6541
1.496, -1, -15.6707, 6.37889, 19.1278, -153.927, -94.9555, 93.5094
1.5, -1, -15.7505, 6.35753, 19.1331, -153.952, -94.9467, 93.3647
1.504, -1, -15.8304, 6.33617, 19.1384, -153.977, -94.9379, 93.22
1.508, -1, -15.9103, 6.31481, 19.1437, -154.002, -94.9292, 93.0752
1.512, -1, -15.9902, 6.29344, 19.1489, -154.026, -94.9204, 92.9304
1.516, -1, -16.0702, 6.27207, 19.1542, -154.051, -94.9116, 92.7857
1.52, -1, -16.1501, 6.2507, 19.1595, -154.076, -94.9029, 92.6408
1.524, -1, -16.23, 6.22933, 19.1648, -154.101, -94.8941, 92.496
1.528, -1, -16.31, 6.20795, 19.1701, -154.126, -94.8853, 92.3512
1.532, -1, -16.3899, 6.18657, 19.1753, -154.151, -94.8766, 92.2063
1.536, -1, -16.4699, 6.16519, 19.1806, -154.176, -94.8678, 92.0614
1.54, -1, -16.5499, 6.1438, 19.1859, -154.2, -94.859, 91.9165
1.544, -1, -16.6299, 6.12241, 19.1912, -154.225, -94.8502, 91.7716
1.548, -1, -16.7099, 6.10102, 19.1965, -154.25, -94.8414, 91.6266
1.552, -1, -16.7899, 6.07963, 19.2018, -154.275, -94.8327, 91.4816
1.556, -1, -16.87, 6.05823, 19.2071, -154.3, -94.8239, 91.3367
1.56, -1, -16.95, 6.03683, 19.2124, -154.325, -94.8151, 91.1917
1.564, -1, -17.0301, 6.01542, 19.2176, -154.35, -94.8063, 91.0466
1.568, -1, -17.1101, 5.99402, 19.2229, -154.374, -94.7975, 90.9016
1.572, -1, -17.1902, 5.97261, 19.2282, -154.399, -94.7888, 90.7565
1.576, -1, -17.2703, 5.9512, 19.2335, -154.424, -94.78, 90.6114
1.58, -1, -17.3504, 5.92978, 19.2388, -154.449, -94.7712, 90.4663
1.584, -1, -17.4305, 5.90836, 19.2441, -154.474, -94.7624, 90.3212
1.588, -1, -17.5106, 5.88694, 19.2494, -154.499, -94.7536, 90.176
1.592, -1, -17.5907, 5.86552, 19.2547, -154.524, -94.7448, 90.0309
1.596, -1, -17.6709, 5.84409, 19.26, -154.549, -94.736, 89.8857
1.6, -1, -17.751, 5.82266, 19.2653, -154.574, -94.7272, 89.7405
1.604, -1, -17.8312, 5.80123, 19.2706, -154.599, -94.7184, 89.5953
1.608, -1, -17.9114, 5.77979, 19.2759, -154.624, -94.7096, 89.45
1.612, -1, -17.9915, 5.75835, 19.2812, -154.648, -94.7008, 89.3047
1.616, -1, -18.0717, 5.73691, 19.2865, -154.673, -94.692, 89.1595
1.62, -1, -18.1519, 5.71547, 19.2918, -154.698, -94.6832, 89.0142
1.624, -1, -18.2321, 5.69402, 19.2971, -154.723, -94.6744, 88.8688
1.628, -1, -18.3124, 5.67257, 19.3024, -154.748, -94.6656, 88.7235
1.632, -1, -18.3926, 5.65112, 19.3077, -154.773, -94.6568, 88.5781
1.636, -1, -18.4729, 5.62966, 19.313, -154.798, -94.648, 88.4327
1.64, -1, -18.5531, 5.6082, 19.3183, -154.823, -94.6392, 88.2873
1.644, -1, -18.6334, 5.58674, 19.3236, -154.848, -94.6304, 88.1419
1.648, -1, -18.7137, 5.56528, 19.3289, -154.873, -94.6216, 87.9965
1.652, -1, -18.794, 5.54381, 19.3342, -154.898, -94.6128, 87.851
1.656, -1, -18.8743, 5.52234, 19.3395, -154.923, -94.604, 87.7055
1.66, -1, -18.9546, 5.50086, 19.3448, -154.948, -94.5952, 87.56
1.664, -1, -19.0349, 5.47939, 19.3501, -154.973, -94.5864, 87.4145
1.668, -1, -19.1153, 5.45791, 19.3554, -154.998, -94.5776, 87.2689
1.672, -1, -19.1956, 5.43642, 19.3607, -155.023, -94.5687, 87.1234
1.676, -1, -19.276, 5.41494, 19.366, -155.048, -94.5599, 86.9778
1.68, -1, -19.3563, 5.39345, 19.3713, -155.073, -94.5511, 86.8322
1.684, -1, -19.4367, 5.37196, 19.3767, -155.098, -94.5423, 86.6866
1.688, -1, -19.5171, 5.35046, 19.382, -155.123, -94.5335, 86.5409
1.692, -1, -19.5975, 5.32896, 19.3873, -155.148, -94.5247, 86.3953
1.696, -1, -19.6779, 5.30746, 19.3926, -155.173, -94.5158, 86.2496
1.7, -1, -19.7583, 5.28596, 19.3979, -155.198, -94.507, 86.1039
1.704, -1, -19.8388, 5.26445, 19.4032, -155.223, -94.4982, 85.9581
1.708, -1, -19.9192, 5.24294, 19.4085, -155.248, -94.4893, 85.8124
1.712, -1, -19.9997, 5.22143, 19.4139, -155.273, -94.4805, 85.6666
1.716, -1, -20.0802, 5.19992, 19.4192, -155.298, -94.4717, 85.5208
1.72, -1, -20.1606, 5.1784, 19.4245, -155.323, -94.4629, 85.375
1.724, -1, -20.2411, 5.15688, 19.4298, -155.348, -94.454, 85.2292
1.728, -1, -20.3216, 5.13535, 19.4351, -155.373, -94.4452, 85.0834
1.732, -1, -20.4022, 5.11383, 19.4405, -155.398, -94.4364, 84.9375
1.736, -1, -20.4827, 5.0923, 19.4458, -155.423, -94.4275, 84.7916
1.74, -1, -20.5632, 5.07076, 19.4511, -155.448, -94.4187, 84.6457
1.744, -1, -20.6438, 5.04923, 19.4564, -155.473, -94.4099, 84.4998
1.748, -1, -20.7243, 5.02769, 19.4617, -155.498, -94.401, 84.3538
1.752, -1, -20.8049, 5.00615, 19.4671, -155.523, -94.3922, 84.2079
1.756, -1, -20.8855, 4.9846, 19.4724, -155.548, -94.3833, 84.0619
1.76, -1, -20.9661, 4.96305, 19.4777, -155.573, -94.3745, 83.9159
1.764, -1, -21.0467, 4.9415, 19.483, -155.598, -94.3657, 83.7698
1.768, -1, -21.1273, 4.91995, 19.4884, -155.623, -94.3568, 83.6238
1.772, -1, -21.2079, 4.89839, 19.4937, -155.648, -94.348, 83.4777
1.776, -1, -21.2886, 4.87683, 19.499, -155.673, -94.3391, 83.3316
1.78, -1, -21.3692, 4.85527, 19.5043, -155.698, -94.3303, 83.1855
1.784, -1, -21.4499, 4.8337, 19.5097, -155.723, -94.3214, 83.0394
1.788, -1, -21.5305, 4.81213, 19.515, -155.748, -94.3126, 82.8933
1.792, -1, -21.6112, 4.79056, 19.5203, -155.774, -94.3037, 82.7471
1.796, -1, -21.6919, 4.76898, 19.5257, -155.799, -94.2949, 82.6009
1.8, -1, -21.7726, 4.74741, 19.531, -155.824, -94.286, 82.4547
1.804, -1, -21.8533, 4.72582, 19.5363, -155.849, -94.2772, 82.3084
1.808, -1, -21.9341, 4.70424, 19.5417, -155.874, -94.2683, 82.1622
1.812, -1, -22.0148, 4.68265, 19.547, -155.899, -94.2595, 82.0159
1.816, -1, -22.0956, 4.66106, 19.5523, -155.924, -94.2506, 81.8696
1.82, -1, -22.1763, 4.63947, 19.5577, -155.949, -94.2417, 81.7233
1.824, -1, -22.2571, 4.61787, 19.563, -155.974, -94.2329, 81.577
1.828, -1, -22.3379, 4.59627, 19.5684, -155.999, -94.224, 81.4306
1.832, -1, -22.4187, 4.57467, 19.5737, -156.025, -94.2151, 81.2843
1.836, -1, -22.4995, 4.55306, 19.579, -156.05, -94.2063, 81.1379
1.84, -1, -22.5803, 4.53146, 19.5844, -156.075, -94.1974, 80.9914
1.844, -1, -22.6611, 4.50984, 19.5897, -156.1, -94.1885, 80.845
1.848, -1, -22.742, 4.48823, 19.5951, -156.125, -94.1797, 80.6985
1.852, -1, -22.8228, 4.46661, 19.6004, -156.15, -94.1708, 80.5521
1.856, -1, -22.9037, 4.44499, 19.6057, -156.175, -94.1619, 80.4055
1.86, -1, -22.9846, 4.42337, 19.6111, -156.2, -94.1531, 80.259
1.864, -1, -23.0655, 4.40174, 19.6164, -156.226, -94.1442, 80.1125
1.868, -1, -23.1464, 4.38011, 19.6218, -156.251, -94.1353, 79.9659
1.872, -1, -23.2273, 4.35847, 19.6271, -156.276, -94.1264, 79.8193
1.876, -1, -23.3082, 4.33684, 19.6325, -156.301, -94.1175, 79.6727
1.88, -1, -23.3891, 4.3152, 19.6378, -156.326, -94.1087, 79.5261
1.884, -1, -23.4701, 4.29355, 19.6432, -156.351, -94.0998, 79.3794
1.888, -1, -23.5511, 4.27191, 19.6485, -156.377, -94.0909, 79.2328
1.892, -1, -23.632, 4.25026, 19.6539, -156.402, -94.082, 79.0861
1.896, -1, -23.713, 4.2286, 19.6592, -156.427, -94.0731, 78.9393
1.9, -1, -23.794, 4.20695, 19.6646, -156.452, -94.0643, 78.7926
1.904, -1, -23.875, 4.18529, 19.6699, -156.477, -94.0554, 78.6458
1.908, -1, -23.956, 4.16363, 19.6753, -156.502, -94.0465, 78.4991
1.912, -1, -24.0371, 4.14196, 19.6806, -156.528, -94.0376, 78.3523
1.916, -1, -24.1181, 4.12029, 19.686, -156.553, -94.0287, 78.2054
1.92, -1, -24.1992, 4.09862, 19.6913, -156.578, -94.0198, 78.0586
1.924, -1, -24.2802, 4.07694, 19.6967, -156.603, -94.0109, 77.9117
1.928, -1, -24.3613, 4.05527, 19.702, -156.628, -94.002, 77.7648
1.932, -1, -24.4424, 4.03358, 19.7074, -156.654, -93.9931, 77.6179
1.936, -1, -24.5235, 4.0119, 19.7128, -156.679, -93.9842, 77.471
1.94, -1, -24.6046, 3.99021, 19.7181, -156.704, -93.9753, 77.324
1.944, -1, -24.6857, 3.96852, 19.7235, -156.729, -93.9664, 77.1771
1.948, -1, -24.7669, 3.94683, 19.7288, -156.754, -93.9575, 77.0301
1.952, -1, -24.848, 3.92513, 19.7342, -156.78, -93.9486, 76.883
1.956, -1, -24.9292, 3.90343, 19.7396, -156.805, -93.9397, 76.736
1.96, -1, -25.0104, 3.88173, 19.7449, -156.83, -93.9308, 76.5889
1.964, -1, -25.0916, 3.86002, 19.7503, -156.855, -93.9219, 76.4419
1.968, -1, -25.1728, 3.83831, 19.7557, -156.881, -93.913, 76.2948
1.972, -1, -25.254, 3.8166, 19.761, -156.906, -93.9041, 76.1476
1.976, -1, -25.3352, 3.79488, 19.7664, -156.931, -93.8952, 76.0005
1.98, -1, -25.4164, 3.77316, 19.7718, -156.956, -93.8863, 75.8533
1.984, -1, -25.4977, 3.75144, 19.7771, -156.982, -93.8773, 75.7061
1.988, -1, -25.5789, 3.72971, 19.7825, -157.007, -93.8684, 75.5589
1.992, -1, -25.6602, 3.70798, 19.7879, -157.032, -93.8595, 75.4117
1.996, -1, -25.7415, 3.68625, 19.7932, -157.057, -93.8506, 75.2644
1.999, -1, -25.8228, 3.66452, 19.7986, -157.083, -93.8417, 75.1171
2.004, -1, -25.9041, 3.64278, 19.804, -157.108, -93.8328, 74.9699
2.008, -1, -25.9854, 3.62104, 19.8094, -157.133, -93.8238, 74.8225
2.012, -1, -26.0667, 3.59929, 19.8147, -157.158, -93.8149, 74.6752
2.015, -1, -26.1481, 3.57754, 19.8201, -157.184, -93.806, 74.5278
2.019, -1, -26.2294, 3.55579, 19.8255, -157.209, -93.7971, 74.3804
2.024, -1, -26.3108, 3.53404, 19.8309, -157.234, -93.7881, 74.233
2.028, -1, -26.3922, 3.51228, 19.8362, -157.26, -93.7792, 74.0856
2.031, -1, -26.4735, 3.49052, 19.8416, -157.285, -93.7703, 73.9382
2.036, -1, -26.5549, 3.46875, 19.847, -157.31, -93.7614, 73.7907
2.04, -1, -26.6364, 3.44699, 19.8524, -157.335, -93.7524, 73.6432
2.044, -1, -26.7178, 3.42522, 19.8578, -157.361, -93.7435, 73.4957
2.048, -1, -26.7992, 3.40344, 19.8631, -157.386, -93.7346, 73.3482
2.051, -1, -26.8807, 3.38167, 19.8685, -157.411, -93.7256, 73.2006
2.055, -1, -26.9621, 3.35989, 19.8739, -157.437, -93.7167, 73.053
2.06, -1, -27.0436, 3.3381, 19.8793, -157.462, -93.7077, 72.9054
2.064, -1, -27.1251, 3.31632, 19.8847, -157.487, -93.6988, 72.7578
2.068, -1, -27.2066, 3.29453, 19.8901, -157.513, -93.6899, 72.6101
2.071, -1, -27.2881, 3.27273, 19.8954, -157.538, -93.6809, 72.4625
2.076, -1, -27.3696, 3.25094, 19.9008, -157.563, -93.672, 72.3148
2.08, -1, -27.4511, 3.22914, 19.9062, -157.589, -93.663, 72.1671
2.084, -1, -27.5327, 3.20734, 19.9116, -157.614, -93.6541, 72.0194
2.087, -1, -27.6142, 3.18553, 19.917, -157.639, -93.6451, 71.8716
2.092, -1, -27.6958, 3.16372, 19.9224, -157.665, -93.6362, 71.7238
2.096, -1, -27.7774, 3.14191, 19.9278, -157.69, -93.6272, 71.576
2.1, -1, -27.859, 3.12009, 19.9332, -157.716, -93.6183, 71.4282
2.104, -1, -27.9406, 3.09828, 19.9386, -157.741, -93.6093, 71.2804
2.107, -1, -28.0222, 3.07646, 19.9439, -157.766, -93.6004, 71.1325
2.111, -1, -28.1038, 3.05463, 19.9493, -157.792, -93.5914, 70.9846
2.116, -1, -28.1855, 3.0328, 19.9547, -157.817, -93.5825, 70.8367
2.12, -1, -28.2671, 3.01097, 19.9601, -157.842, -93.5735, 70.6888
2.124, -1, -28.3488, 2.98914, 19.9655, -157.868, -93.5646, 70.5409
2.127, -1, -28.4304, 2.9673, 19.9709, -157.893, -93.5556, 70.3929
2.132, -1, -28.5121, 2.94546, 19.9763, -157.919, -93.5466, 70.2449
2.136, -1, -28.5938, 2.92361, 19.9817, -157.944, -93.5377, 70.0969
2.14, -1, -28.6755, 2.90177, 19.9871, -157.969, -93.5287, 69.9489
2.143, -1, -28.7573, 2.87992, 19.9925, -157.995, -93.5197, 69.8008
2.148, -1, -28.839, 2.85806, 19.9979, -158.02, -93.5108, 69.6527
2.152, -1, -28.9208, 2.83621, 20.0033, -158.046, -93.5018, 69.5046
2.156, -1, -29.0025, 2.81435, 20.0087, -158.071, -93.4928, 69.3565
2.16, -1, -29.0843, 2.79248, 20.0141, -158.096, -93.4839, 69.2084
2.163, -1, -29.1661, 2.77062, 20.0195, -158.122, -93.4749, 69.0602
2.168, -1, -29.2479, 2.74875, 20.0249, -158.147, -93.4659, 68.912
2.172, -1, -29.3297, 2.72687, 20.0303, -158.173, -93.4569, 68.7638
2.176, -1, -29.4115, 2.705, 20.0357, -158.198, -93.448, 68.6156
2.179, -1, -29.4933, 2.68312, 20.0411, -158.224, -93.439, 68.4673
2.184, -1, -29.5752, 2.66124, 20.0466, -158.249, -93.43, 68.319
2.188, -1, -29.657, 2.63935, 20.052, -158.274, -93.421, 68.1708
2.192, -1, -29.7389, 2.61746, 20.0574, -158.3, -93.412, 68.0224
2.196, -1, -29.8208, 2.59557, 20.0628, -158.325, -93.4031, 67.8741
2.199, -1, -29.9027, 2.57367, 20.0682, -158.351, -93.3941, 67.7257
2.204, -1, -29.9846, 2.55177, 20.0736, -158.376, -93.3851, 67.5773
2.208, -1, -30.0665, 2.52987, 20.079, -158.402, -93.3761, 67.4289
2.212, -1, -30.1484, 2.50797, 20.0844, -158.427, -93.3671, 67.2805
2.216, -1, -30.2304, 2.48606, 20.0898, -158.453, -93.3581, 67.1321
2.219, -1, -30.3123, 2.46414, 20.0953, -158.478, -93.3491, 66.9836
2.224, -1, -30.3943, 2.44223, 20.1007, -158.504, -93.3401, 66.8351
2.228, -1, -30.4763, 2.42031, 20.1061, -158.529, -93.3311, 66.6866
2.232, -1, -30.5583, 2.39839, 20.1115, -158.555, -93.3222, 66.538
2.235, -1, -30.6403, 2.37646, 20.1169, -158.58, -93.3132, 66.3895
2.24, -1, -30.7223, 2.35453, 20.1224, -158.606, -93.3041, 66.2409
2.244, -1, -30.8043, 2.3326, 20.1278, -158.631, -93.2952, 66.0922
2.248, -1, -30.8864, 2.31066, 20.1332, -158.657, -93.2861, 65.9436
2.252, -1, -30.9684, 2.28873, 20.1386, -158.682, -93.2771, 65.795
2.255, -1, -31.0505, 2.26678, 20.144, -158.708, -93.2681, 65.6463
2.259, -1, -31.1326, 2.24484, 20.1495, -158.733, -93.2591, 65.4976
2.264, -1, -31.2146, 2.22289, 20.1549, -158.759, -93.2501, 65.3489
2.268, -1, -31.2968, 2.20094, 20.1603, -158.784, -93.2411, 65.2001
2.272, -1, -31.3789, 2.17898, 20.1657, -158.81, -93.2321, 65.0513
2.275, -1, -31.461, 2.15702, 20.1712, -158.835, -93.2231, 64.9025
2.28, -1, -31.5431, 2.13506, 20.1766, -158.861, -93.2141, 64.7537
2.284, -1, -31.6253, 2.11309, 20.182, -158.886, -93.2051, 64.6049
2.288, -1, -31.7075, 2.09112, 20.1874, -158.912, -93.1961, 64.456
2.291, -1, -31.7896, 2.06915, 20.1929, -158.937, -93.187, 64.3072
2.296, -1, -31.8718, 2.04718, 20.1983, -158.963, -93.178, 64.1582
2.3, -1, -31.954, 2.0252, 20.2037, -158.988, -93.169, 64.0093
2.304, -1, -32.0363, 2.00322, 20.2092, -159.014, -93.16, 63.8604
2.308, -1, -32.1185, 1.98123, 20.2146, -159.04, -93.151, 63.7114
2.311, -1, -32.2007, 1.95924, 20.22, -159.065, -93.142, 63.5624
2.316, -1, -32.283, 1.93725, 20.2255, -159.091, -93.1329, 63.4134
2.32, -1, -32.3652, 1.91525, 20.2309, -159.116, -93.1239, 63.2644
2.324, -1, -32.4475, 1.89325, 20.2363, -159.142, -93.1149, 63.1153
2.328, -1, -32.5298, 1.87125, 20.2418, -159.167, -93.1059, 62.9662
2.331, -1, -32.6121, 1.84925, 20.2472, -159.193, -93.0968, 62.8171
2.336, -1, -32.6944, 1.82724, 20.2527, -159.219, -93.0878, 62.668
2.34, -1, -32.7768, 1.80523, 20.2581, -159.244, -93.0788, 62.5188
2.344, -1, -32.8591, 1.78321, 20.2635, -159.27, -93.0697, 62.3696
2.347, -1, -32.9415, 1.76119, 20.269, -159.295, -93.0607, 62.2204
2.352, -1, -33.0238, 1.73917, 20.2744, -159.321, -93.0517, 62.0712
2.356, -1, -33.1062, 1.71714, 20.2799, -159.347, -93.0426, 61.922
2.36, -1, -33.1886, 1.69512, 20.2853, -159.372, -93.0336, 61.7727
2.364, -1, -33.271, 1.67308, 20.2908, -159.398, -93.0245, 61.6234
2.367, -1, -33.3534, 1.65105, 20.2962, -159.423, -93.0155, 61.4741
2.372, -1, -33.4358, 1.62901, 20.3016, -159.449, -93.0064, 61.3248
2.376, -1, -33.5183, 1.60697, 20.3071, -159.475, -92.9974, 61.1754
2.38, -1, -33.6007, 1.58492, 20.3125, -159.5, -92.9884, 61.0261
2.383, -1, -33.6832, 1.56287, 20.318, -159.526, -92.9793, 60.8767
2.388, -1, -33.7657, 1.54082, 20.3234, -159.551, -92.9703, 60.7272
2.392, -1, -33.8482, 1.51877, 20.3289, -159.577, -92.9612, 60.5778
2.396, -1, -33.9307, 1.49671, 20.3343, -159.603, -92.9522, 60.4283
2.4, -1, -34.0132, 1.47465, 20.3398, -159.628, -92.9431, 60.2788
2.403, -1, -34.0957, 1.45258, 20.3452, -159.654, -92.9341, 60.1293
2.408, -1, -34.1782, 1.43051, 20.3507, -159.68, -92.925, 59.9798
2.412, -1, -34.2608, 1.40844, 20.3562, -159.705, -92.9159, 59.8302
2.416, -1, -34.3434, 1.38636, 20.3616, -159.731, -92.9069, 59.6807
2.42, -1, -34.4259, 1.36429, 20.3671, -159.757, -92.8978, 59.5311
2.423, -1, -34.5085, 1.3422, 20.3725, -159.782, -92.8888, 59.3814
2.428, -1, -34.5911, 1.32012, 20.378, -159.808, -92.8797, 59.2318
2.432, -1, -34.6737, 1.29803, 20.3834, -159.834, -92.8706, 59.0821
2.436, -1, -34.7564, 1.27594, 20.3889, -159.859, -92.8616, 58.9324
2.439, -1, -34.839, 1.25384, 20.3944, -159.885, -92.8525, 58.7827
2.444, -1, -34.9217, 1.23174, 20.3998, -159.911, -92.8434, 58.633
2.448, -1, -35.0043, 1.20964, 20.4053, -159.937, -92.8344, 58.4832
2.452, -1, -35.087, 1.18754, 20.4107, -159.962, -92.8253, 58.3334
2.456, -1, -35.1697, 1.16543, 20.4162, -159.988, -92.8162, 58.1836
2.459, -1, -35.2524, 1.14332, 20.4217, -160.014, -92.8071, 58.0338
2.464, -1, -35.3351, 1.12121, 20.4271, -160.039, -92.7981, 57.8839
2.468, -1, -35.4176, 1.09912, 20.4326, -160.065, -92.789, 57.7341
2.472, -1, -35.4998, 1.07708, 20.4381, -160.091, -92.7799, 57.5842
2.476, -1, -35.5816, 1.05512, 20.4437, -160.116, -92.7708, 57.4344
2.479, -1, -35.6629, 1.03329, 20.4493, -160.142, -92.7618, 57.2847
2.484, -1, -35.7434, 1.01162, 20.455, -160.168, -92.7527, 57.1353
2.488, -1, -35.8231, 0.990161, 20.4608, -160.193, -92.7437, 56.9863
2.492, -1, -35.9018, 0.968944, 20.4666, -160.219, -92.7347, 56.8381
2.495, -1, -35.9795, 0.948033, 20.4725, -160.244, -92.7257, 56.691
2.5, -1, -36.056, 0.927506, 20.4784, -160.269, -92.7169, 56.5453
2.504, -1, -36.1308, 0.907455, 20.4844, -160.293, -92.7082, 56.4017
2.508, -1, -36.2037, 0.887968, 20.4903, -160.318, -92.6996, 56.2606
2.512, -1, -36.2743, 0.869122, 20.4963, -160.341, -92.6912, 56.1228
2.515, -1, -36.3425, 0.850977, 20.5022, -160.364, -92.683, 55.989
2.52, -1, -36.408, 0.833575, 20.5079, -160.386, -92.6751, 55.8601
2.524, -1, -36.4706, 0.81695, 20.5133, -160.407, -92.6676, 55.7367
2.528, -1, -36.5302, 0.801134, 20.5185, -160.427, -92.6605, 55.6198
2.531, -1, -36.5866, 0.786178, 20.5232, -160.446, -92.6538, 55.5101
2.536, -1, -36.6395, 0.772138, 20.5276, -160.463, -92.6476, 55.4081
2.54, -1, -36.6888, 0.759062, 20.5314, -160.48, -92.6419, 55.3144
2.544, -1, -36.7343, 0.746971, 20.5348, -160.494, -92.6367, 55.2294
2.548, -1, -36.7761, 0.735856, 20.5376, -160.507, -92.6321, 55.1531
2.551, -1, -36.8143, 0.725689, 20.5398, -160.519, -92.628, 55.0858
2.556, -1, -36.8489, 0.716444, 20.5415, -160.529, -92.6245, 55.0272
2.56, -1, -36.8801, 0.708102, 20.5427, -160.537, -92.6215, 54.9771
2.564, -1, -36.9079, 0.700657, 20.5434, -160.545, -92.619, 54.9348
2.568, -1, -36.9323, 0.694098, 20.5438, -160.551, -92.6169, 54.8999
2.571, -1, -36.9535, 0.688406, 20.5438, -160.556, -92.6152, 54.8714
2.576, -1, -36.9717, 0.683543, 20.5436, -160.56, -92.6139, 54.8487
2.58, -1, -36.9872, 0.679445, 20.5433, -160.563, -92.6129, 54.8309
2.584, -1, -37.0002, 0.676034, 20.5429, -160.565, -92.6121, 54.8173
2.587, -1, -37.0112, 0.67323, 20.5424, -160.567, -92.6115, 54.8072
2.592, -1, -37.0203, 0.670965, 20.5419, -160.568, -92.6111, 54.7997
2.596, -1, -37.0277, 0.669174, 20.5414, -160.569, -92.6108, 54.7944
2.6, -1, -37.0336, 0.667799, 20.541, -160.57, -92.6106, 54.7907
2.604, 2, -37.038, 0.666779, 20.5407, -160.57, -92.6105, 54.7881
2.607, 2, -37.0413, 0.66605, 20.5404, -160.571, -92.6104, 54.7864
2.612, 2, -37.0436, 0.665546, 20.5402, -160.571, -92.6103, 54.7852
2.616, 2, -37.0451, 0.665202, 20.5401, -160.571, -92.6103, 54.7844
2.62, 2, -37.0462, 0.664969, 20.54, -160.571, -92.6102, 54.7839
2.624, 2, -37.0469, 0.664811, 20.54, -160.571, -92.6102, 54.7835
2.627, 2, -37.0474, 0.664704, 20.5399, -160.571, -92.6102, 54.7832
2.632, 2, -37.0477, 0.664632, 20.5399, -160.571, -92.6102, 54.7831
2.636, 2, -37.048, 0.664583, 20.5399, -160.571, -92.6102, 54.783
2.64, 2, -37.0481, 0.66455, 20.5399, -160.571, -92.6102, 54.7829
2.643, 2, -37.0482, 0.664527, 20.5399, -160.571, -92.6102, 54.7828
2.648, 2, -37.0483, 0.664512, 20.5399, -160.571, -92.6102, 54.7828
2.652, 2, -37.0483, 0.664502, 20.5399, -160.571, -92.6102, 54.7828
2.656, 2, -37.0484, 0.664495, 20.5399, -160.571, -92.6102, 54.7827
2.66, 2, -37.0484, 0.66449, 20.5399, -160.571, -92.6102, 54.7827
2.663, 2, -37.0484, 0.664487, 20.5399, -160.571, -92.6102, 54.7827
2.668, 2, -37.0484, 0.664485, 20.5399, -160.571, -92.6102, 54.7827
2.672, 2, -37.0484, 0.664483, 20.5399, -160.571, -92.6102, 54.7827
2.676, 2, -37.0484, 0.664482, 20.5399, -160.571, -92.6102, 54.7827
2.679, 2, -37.0484, 0.664481, 20.5399, -160.571, -92.6102, 54.7827
2.684, 2, -37.0484, 0.664481, 20.5399, -160.571, -92.6102, 54.7827
2.688, 2, -37.0484, 0.664481, 20.5399, -160.571, -92.6102, 54.7827
2.692, 2, -37.0484, 0.66448, 20.5399, -160.571, -92.6102, 54.7827
2.696, 2, -37.0484, 0.66448, 20.5399, -160.571, -92.6102, 54.7827
2.699, 2, -37.0484, 0.66448, 20.5399, -160.571, -92.6102, 54.7827
2.704, 2, -37.0484, 0.66448, 20.5399, -160.571, -92.6102, 54.7827
2.708, 2, -37.0484, 0.66448, 20.5399, -160.571, -92.6102, 54.7827
2.712, 2, -37.0484, 0.66448, 20.5399, -160.571, -92.6102, 54.7827
2.716, 2, -37.0484, 0.66448, 20.5399, -160.571, -92.6102, 54.7827
2.719, 2, -37.0484, 0.66448, 20.5399, -160.571, -92.6102, 54.7827
2.724, 2, -37.0484, 0.66448, 20.5399, -160.571, -92.6102, 54.7827
2.728, 2, -37.0484, 0.66448, 20.5399, -160.571, -92.6102, 54.7827
2.732, 2, -37.0484, 0.66448, 20.5399, -160.571, -92.6102, 54.7827
2.735, 2, -37.0484, 0.66448, 20.5399, -160.571, -92.6102, 54.7827
2.74, 2, -37.0484, 0.66448, 20.5399, -160.571, -92.6102, 54.7827
2.744, 2, -37.0484, 0.66448, 20.5399, -160.571, -92.6102, 54.7827
2.748, 2, -37.0484, 0.66448, 20.5399, -160.571, -92.6102, 54.7827
2.752, 2, -37.0484, 0.66448, 20.5399, -160.571, -92.6102, 54.7827
2.755, 2, -37.0484, 0.66448, 20.5399, -160.571, -92.6102, 54.7827
2.76, 2, -37.0484, 0.66448, 20.5399, -160.571, -92.6102, 54.7827
2.764, 2, -37.0484, 0.66448, 20.5399, -160.571, -92.6102, 54.7827
2.768, 2, -37.0484, 0.66448, 20.5399, -160.571, -92.6102, 54.7827
2.772, 2, -37.0484, 0.66448, 20.5399, -160.571, -92.6102, 54.7827
2.775, 2, -37.0484, 0.66448, 20.5399, -160.571, -92.6102, 54.7827
2.78, 2, -37.0484, 0.66448, 20.5399, -160.571, -92.6102, 54.7827
2.784, 2, -37.0484, 0.66448, 20.5399, -160.571, -92.6102, 54.7827
2.788, 2, -37.0484, 0.66448, 20.5399, -160.571, -92.6102, 54.7827
2.791, 2, -37.0484, 0.66448, 20.5399, -160.571, -92.6102, 54.7827
2.796, 2, -37.0484, 0.66448, 20.5399, -160.571, -92.6102, 54.7827
2.8, 2, -37.0484, 0.66448, 20.5399, -160.571, -92.6102, 54.7827
2.804, 2, -37.0484, 0.66448, 20.5399, -160.571, -92.6102, 54.7827
2.808, 2, -37.0484, 0.66448, 20.5399, -160.571, -92.6102, 54.7827
2.811, 2, -37.0484, 0.66448, 20.5399, -160.571, -92.6102, 54.7827
2.816, 2, -37.0484, 0.66448, 20.5399, -160.571, -92.6102, 54.7827
2.82, 2, -37.0484, 0.66448, 20.5399, -160.571, -92.6102, 54.7827
2.824, 2, -37.0484, 0.66448, 20.5399, -160.571, -92.6102, 54.7827
2.828, 2, -37.0484, 0.66448, 20.5399, -160.571, -92.6102, 54.7827
2.831, 2, -37.0484, 0.66448, 20.5399, -160.571, -92.6102, 54.7827
2.836, 2, -37.0484, 0.66448, 20.5399, -160.571, -92.6102, 54.7827
2.84, 2, -37.0484, 0.66448, 20.5399, -160.571, -92.6102, 54.7827
2.844, 2, -37.0484, 0.66448, 20.5399, -160.571, -92.6102, 54.7827
2.847, 2, -37.0484, 0.66448, 20.5399, -160.571, -92.6102, 54.7827
2.852, 2, -37.0484, 0.66448, 20.5399, -160.571, -92.6102, 54.7827
2.856, 2, -37.0484, 0.66448, 20.5399, -160.571, -92.6102, 54.7827
2.86, 2, -37.0484, 0.66448, 20.5399, -160.571, -92.6102, 54.7827
2.864, 2, -37.0484, 0.66448, 20.5399, -160.571, -92.6102, 54.7827
2.867, 2, -37.0484, 0.66448, 20.5399, -160.571, -92.6102, 54.7827
2.872, 2, -37.0484, 0.66448, 20.5399, -160.571, -92.6102, 54.7827
2.876, 2, -37.0484, 0.66448, 20.5399, -160.571, -92.6102, 54.7827
2.88, 2, -37.0484, 0.66448, 20.5399, -160.571, -92.6102, 54.7827
2.883, 2, -37.0484, 0.66448, 20.5399, -160.571, -92.6102, 54.7827
2.888, 2, -37.0484, 0.66448, 20.5399, -160.571, -92.6102, 54.7827
2.892, 2, -37.0484, 0.66448, 20.5399, -160.571, -92.6102, 54.7827
2.896, 2, -37.0484, 0.66448, 20.5399, -160.571, -92.6102, 54.7827
2.9, 2, -37.0484, 0.66448, 20.5399, -160.571, -92.6102, 54.7827
2.903, 2, -37.0484, 0.66448, 20.5399, -160.571, -92.6102, 54.7827
2.908, 2, -37.0484, 0.66448, 20.5399, -160.571, -92.6102, 54.7827
2.912, 2, -37.0484, 0.66448, 20.5399, -160.571, -92.6102, 54.7827
2.916, 2, -37.0484, 0.66448, 20.5399, -160.571, -92.6102, 54.7827
2.92, 2, -37.0484, 0.66448, 20.5399, -160.571, -92.6102, 54.7827
2.923, 2, -37.0484, 0.66448, 20.5399, -160.571, -92.6102, 54.7827
2.928, 2, -37.0484, 0.66448, 20.5399, -160.571, -92.6102, 54.7827
2.932, 2, -37.0484, 0.66448, 20.5399, -160.571, -92.6102, 54.7827
2.936, 2, -37.0484, 0.66448, 20.5399, -160.571, -92.6102, 54.7827
2.939, 2, -37.0484, 0.66448, 20.5399, -160.571, -92.6102, 54.7827
2.944, 2, -37.0484, 0.66448, 20.5399, -160.571, -92.6102, 54.7827
2.948, 2, -37.0484, 0.66448, 20.5399, -160.571, -92.6102, 54.7827
2.952, 2, -37.0484, 0.66448, 20.5399, -160.571, -92.6102, 54.7827
2.956, 2, -37.0484, 0.66448, 20.5399, -160.571, -92.6102, 54.7827
2.959, 2, -37.0484, 0.66448, 20.5399, -160.571, -92.6102, 54.7827
2.964, 2, -37.0484, 0.66448, 20.5399, -160.571, -92.6102, 54.7827
2.968, 2, -37.0484, 0.66448, 20.5399, -160.571, -92.6102, 54.7827
2.972, 2, -37.0484, 0.66448, 20.5399, -160.571, -92.6102, 54.7827
2.976, 2, -37.0484, 0.66448, 20.5399, -160.571, -92.6102, 54.7827
2.98, 2, -37.0484, 0.66448, 20.5399, -160.571, -92.6102, 54.7827
2.984, 2, -37.0484, 0.66448, 20.5399, -160.571, -92.6102, 54.7827
2.988, 2, -37.0484, 0.66448, 20.5399, -160.571, -92.6102, 54.7827
2.992, 2, -37.0484, 0.66448, 20.5399, -160.571, -92.6102, 54.7827
2.995, 2, -37.0484, 0.66448, 20.5399, -160.571, -92.6102, 54.7827
3, 2, -37.0484, 0.66448, 20.5399, -160.571, -92.6102, 54.7827
3.004, 2, -37.0484, 0.66448, 20.5399, -160.571, -92.6102, 54.7827
3.008, 2, -37.0484, 0.66448, 20.5399, -160.571, -92.6102, 54.7827
3.012, 2, -37.0484, 0.66448, 20.5399, -160.571, -92.6102, 54.7827
3.015, 2, -37.0484, 0.66448, 20.5399, -160.571, -92.6102, 54.7827
3.02, 2, -37.0484, 0.66448, 20.5399, -160.571, -92.6102, 54.7827
3.024, 2, -37.0484, 0.66448, 20.5399, -160.571, -92.6102, 54.7827
3.028, 2, -37.0484, 0.66448, 20.5399, -160.571, -92.6102, 54.7827
3.031, 2, -37.0484, 0.66448, 20.5399, -160.571, -92.6102, 54.7827
3.036, 2, -37.0484, 0.66448, 20.5399, -160.571, -92.6102, 54.7827
3.04, 2, -37.0484, 0.66448, 20.5399, -160.571, -92.6102, 54.7827
3.044, 2, -37.0484, 0.66448, 20.5399, -160.571, -92.6102, 54.7827
3.048, 2, -37.0484, 0.66448, 20.5399, -160.571, -92.6102, 54.7827
3.051, 2, -37.0484, 0.66448, 20.5399, -160.571, -92.6102, 54.7827
3.056, 2, -37.0484, 0.66448, 20.5399, -160.571, -92.6102, 54.7827
3.06, 2, -37.0484, 0.66448, 20.5399, -160.571, -92.6102, 54.7827
3.064, 2, -37.0484, 0.66448, 20.5399, -160.571, -92.6102, 54.7827
3.068, 2, -37.0484, 0.66448, 20.5399, -160.571, -92.6102, 54.7827
3.071, 2, -37.0484, 0.66448, 20.5399, -160.571, -92.6102, 54.7827
3.076, 2, -37.0484, 0.66448, 20.5399, -160.571, -92.6102, 54.7827
3.08, 2, -37.0484, 0.66448, 20.5399, -160.571, -92.6102, 54.7827
3.084, 2, -37.0484, 0.66448, 20.5399, -160.571, -92.6102, 54.7827
3.087, 2, -37.0484, 0.66448, 20.5399, -160.571, -92.6102, 54.7827
3.092, 2, -37.0484, 0.66448, 20.5399, -160.571, -92.6102, 54.7827
3.096, 2, -37.0484, 0.66448, 20.5399, -160.571, -92.6102, 54.7827
3.1, 2, -37.0484, 0.66448, 20.5399, -160.571, -92.6102, 54.7827
3.104, 2, -37.0484, 0.66448, 20.5399, -160.571, -92.6102, 54.7827
3.107, 2, -37.0484, 0.66448, 20.5399, -160.571, -92.6102, 54.7827
3.112, 2, -37.0484, 0.66448, 20.5399, -160.571, -92.6102, 54.7827
3.116, 2, -37.0484, 0.66448, 20.5399, -160.571, -92.6102, 54.7827
3.12, 2, -37.0484, 0.66448, 20.5399, -160.571, -92.6102, 54.7827
3.124, 2, -37.0484, 0.66448, 20.5399, -160.571, -92.6102, 54.7827
3.128, 2, -37.0484, 0.66448, 20.5399, -160.571, -92.6102, 54.7827
3.132, 2, -37.0484, 0.66448, 20.5399, -160.571, -92.6102, 54.7827
3.136, 2, -37.0484, 0.66448, 20.5399, -160.571, -92.6102, 54.7827
3.14, 2, -37.0484, 0.66448, 20.5399, -160.571, -92.6102, 54.7827
3.143, 2, -37.0484, 0.66448, 20.5399, -160.571, -92.6102, 54.7827
3.148, 2, -37.0484, 0.66448, 20.5399, -160.571, -92.6102, 54.7827
3.152, 2, -37.0484, 0.66448, 20.5399, -160.571, -92.6102, 54.7827
3.156, 2, -37.0484, 0.66448, 20.5399, -160.571, -92.6102, 54.7827
3.16, 2, -37.0484, 0.66448, 20.5399, -160.571, -92.6102, 54.7827
3.163, 2, -37.0484, 0.66448, 20.5399, -160.571, -92.6102, 54.7827
3.168, 2, -37.0484, 0.66448, 20.5399, -160.571, -92.6102, 54.7827
3.172, 2, -37.0484, 0.66448, 20.5399, -160.571, -92.6102, 54.7827
3.176, 2, -37.0484, 0.66448, 20.5399, -160.571, -92.6102, 54.7827
3.179, 2, -37.0484, 0.66448, 20.5399, -160.571, -92.6102, 54.7827
3.184, 2, -37.0484, 0.66448, 20.5399, -160.571, -92.6102, 54.7827
3.188, 2, -37.0484, 0.66448, 20.5399, -160.571, -92.6102, 54.7827
3.192, 2, -37.0484, 0.66448, 20.5399, -160.571, -92.6102, 54.7827
3.196, 2, -37.0484, 0.66448, 20.5399, -160.571, -92.6102, 54.7827
3.199, 2, -37.0484, 0.66448, 20.5399, -160.571, -92.6102, 54.7827
3.204, 2, -37.0484, 0.66448, 20.5399, -160.571, -92.6102, 54.7827
3.208, 2, -37.0484, 0.66448, 20.5399, -160.571, -92.6102, 54.7827
3.212, 2, -37.0484, 0.66448, 20.5399, -160.571, -92.6102, 54.7827
3.216, 2, -37.0484, 0.66448, 20.5399, -160.571, -92.6102, 54.7827
3.22, 2, -37.0484, 0.66448, 20.5399, -160.571, -92.6102, 54.7827
3.224, 2, -37.0484, 0.66448, 20.5399, -160.571, -92.6102, 54.7827
3.228, 2, -37.0484, 0.66448, 20.5399, -160.571, -92.6102, 54.7827
3.232, 2, -37.0484, 0.66448, 20.5399, -160.571, -92.6102, 54.7827
3.235, 2, -37.0484, 0.66448, 20.5399, -160.571, -92.6102, 54.7827
3.24, 2, -37.0484, 0.66448, 20.5399, -160.571, -92.6102, 54.7827
3.244, 2, -37.0484, 0.66448, 20.5399, -160.571, -92.6102, 54.7827
3.248, 2, -37.0484, 0.66448, 20.5399, -160.571, -92.6102, 54.7827
3.252, 2, -37.0484, 0.66448, 20.5399, -160.571, -92.6102, 54.7827
3.255, 2, -37.0484, 0.66448, 20.5399, -160.571, -92.6102, 54.7827
3.26, 2, -37.0484, 0.66448, 20.5399, -160.571, -92.6102, 54.7827
3.264, 2, -37.0484, 0.66448, 20.5399, -160.571, -92.6102, 54.7827
3.268, 2, -37.0484, 0.66448, 20.5399, -160.571, -92.6102, 54.7827
3.272, 2, -37.0484, 0.66448, 20.5399, -160.571, -92.6102, 54.7827
3.276, 2, -37.0484, 0.66448, 20.5399, -160.571, -92.6102, 54.7827
3.28, 2, -37.0484, 0.66448, 20.5399, -160.571, -92.6102, 54.7827
3.284, 2, -37.0484, 0.66448, 20.5399, -160.571, -92.6102, 54.7827
3.288, 2, -37.0484, 0.66448, 20.5399, -160.571, -92.6102, 54.7827
3.291, 2, -37.0484, 0.66448, 20.5399, -160.571, -92.6102, 54.7827
3.296, 2, -37.0484, 0.66448, 20.5399, -160.571, -92.6102, 54.7827
3.3, 2, -37.0484, 0.66448, 20.5399, -160.571, -92.6102, 54.7827
3.304, 2, -37.0484, 0.66448, 20.5399, -160.571, -92.6102, 54.7827
3.308, 2, -37.0484, 0.66448, 20.5399, -160.571, -92.6102, 54.7827
3.312, 2, -37.0484, 0.66448, 20.5399, -160.571, -92.6102, 54.7827
3.316, 2, -37.0484, 0.66448, 20.5399, -160.571, -92.6102, 54.7827
3.32, 2, -37.0484, 0.66448, 20.5399, -160.571, -92.6102, 54.7827
3.324, 2, -37.0484, 0.66448, 20.5399, -160.571, -92.6102, 54.7827
3.328, 2, -37.0484, 0.66448, 20.5399, -160.571, -92.6102, 54.7827
3.332, 2, -37.0484, 0.66448, 20.5399, -160.571, -92.6102, 54.7827
3.336, 2, -37.0484, 0.66448, 20.5399, -160.571, -92.6102, 54.7827
3.34, 2, -37.0484, 0.66448, 20.5399, -160.571, -92.6102, 54.7827
3.344, 2, -37.0484, 0.66448, 20.5399, -160.571, -92.6102, 54.7827
3.347, 2, -37.0484, 0.66448, 20.5399, -160.571, -92.6102, 54.7827
3.352, 2, -37.0484, 0.66448, 20.5399, -160.571, -92.6102, 54.7827
3.356, 2, -37.0484, 0.66448, 20.5399, -160.571, -92.6102, 54.7827
3.36, 2, -37.0484, 0.66448, 20.5399, -160.571, -92.6102, 54.7827
3.364, 2, -37.0484, 0.66448, 20.5399, -160.571, -92.6102, 54.7827
3.368, 2, -37.0484, 0.66448, 20.5399, -160.571, -92.6102, 54.7827
3.372, 2, -37.0484, 0.66448, 20.5399, -160.571, -92.6102, 54.7827
3.376, 2, -37.0484, 0.66448, 20.5399, -160.571, -92.6102, 54.7827
3.38, 2, -37.0484, 0.66448, 20.5399, -160.571, -92.6102, 54.7827
3.383, 2, -37.0484, 0.66448, 20.5399, -160.571, -92.6102, 54.7827
3.388, 2, -37.0484, 0.66448, 20.5399, -160.571, -92.6102, 54.7827
3.392, 2, -37.0484, 0.66448, 20.5399, -160.571, -92.6102, 54.7827
3.396, 2, -37.0484, 0.66448, 20.5399, -160.571, -92.6102, 54.7827
3.4, 2, -37.0484, 0.66448, 20.5399, -160.571, -92.6102, 54.7827
3.403, 2, -37.0484, 0.66448, 20.5399, -160.571, -92.6102, 54.7827
3.408, 2, -37.0484, 0.66448, 20.5399, -160.571, -92.6102, 54.7827
3.412, 2, -37.0484, 0.66448, 20.5399, -160.571, -92.6102, 54.7827
3.416, 2, -37.0484, 0.66448, 20.5399, -160.571, -92.6102, 54.7827
3.42, 2, -37.0484, 0.66448, 20.5399, -160.571, -92.6102, 54.7827
3.424, 2, -37.0484, 0.66448, 20.5399, -160.571, -92.6102, 54.7827
3.428, 2, -37.0484, 0.66448, 20.5399, -160.571, -92.6102, 54.7827
3.432, 2, -37.0484, 0.66448, 20.5399, -160.571, -92.6102, 54.7827
3.436, 2, -37.0484, 0.66448, 20.5399, -160.571, -92.6102, 54.7827
3.439, 2, -37.0484, 0.66448, 20.5399, -160.571, -92.6102, 54.7827
3.444, 2, -37.0484, 0.66448, 20.5399, -160.571, -92.6102, 54.7827
3.448, 2, -37.0484, 0.66448, 20.5399, -160.571, -92.6102, 54.7827
3.452, 2, -37.0484, 0.66448, 20.5399, -160.571, -92.6102, 54.7827
3.456, 2, -37.0484, 0.66448, 20.5399, -160.571, -92.6102, 54.7827
3.46, 2, -37.0484, 0.66448, 20.5399, -160.571, -92.6102, 54.7827
3.464, 2, -37.0484, 0.66448, 20.5399, -160.571, -92.6102, 54.7827
3.468, 2, -37.0484, 0.66448, 20.5399, -160.571, -92.6102, 54.7827
3.472, 2, -37.0484, 0.66448, 20.5399, -160.571, -92.6102, 54.7827
3.476, 2, -37.0484, 0.66448, 20.5399, -160.571, -92.6102, 54.7827
3.48, 2, -37.0484, 0.66448, 20.5399, -160.571, -92.6102, 54.7827
3.484, 2, -37.0484, 0.66448, 20.5399, -160.571, -92.6102, 54.7827
3.488, 2, -37.0484, 0.66448, 20.5399, -160.571, -92.6102, 54.7827
3.492, 2, -37.0484, 0.66448, 20.5399, -160.571, -92.6102, 54.7827
3.495, 2, -37.0484, 0.66448, 20.5399, -160.571, -92.6102, 54.7827
3.5, 2, -37.0484, 0.66448, 20.5399, -160.571, -92.6102, 54.7827
3.504, 2, -37.0484, 0.66448, 20.5399, -160.571, -92.6102, 54.7827
3.508, 2, -37.0484, 0.66448, 20.5399, -160.571, -92.6102, 54.7827
3.512, 2, -37.0484, 0.66448, 20.5399, -160.571, -92.6102, 54.7827
3.516, 2, -37.0484, 0.66448, 20.5399, -160.571, -92.6102, 54.7827
3.52, 2, -37.0484, 0.66448, 20.5399, -160.571, -92.6102, 54.7827
3.524, 2, -37.0484, 0.66448, 20.5399, -160.571, -92.6102, 54.7827
3.528, 2, -37.0484, 0.66448, 20.5399, -160.571, -92.6102, 54.7827
3.531, 2, -37.0484, 0.66448, 20.5399, -160.571, -92.6102, 54.7827
3.536, 2, -37.0484, 0.66448, 20.5399, -160.571, -92.6102, 54.7827
3.54, 2, -37.0484, 0.66448, 20.5399, -160.571, -92.6102, 54.7827
3.544, 2, -37.0484, 0.66448, 20.5399, -160.571, -92.6102, 54.7827
3.548, 2, -37.0484, 0.66448, 20.5399, -160.571, -92.6102, 54.7827
3.552, 2, -37.0484, 0.66448, 20.5399, -160.571, -92.6102, 54.7827
3.556, 2, -37.0484, 0.66448, 20.5399, -160.571, -92.6102, 54.7827
3.56, 2, -37.0484, 0.66448, 20.5399, -160.571, -92.6102, 54.7827
3.564, 2, -37.0484, 0.66448, 20.5399, -160.571, -92.6102, 54.7827
3.568, 2, -37.0484, 0.66448, 20.5399, -160.571, -92.6102, 54.7827
3.572, 2, -37.0484, 0.66448, 20.5399, -160.571, -92.6102, 54.7827
3.576, 2, -37.0484, 0.66448, 20.5399, -160.571, -92.6102, 54.7827
3.58, 2, -37.0484, 0.66448, 20.5399, -160.571, -92.6102, 54.7827
3.584, 2, -37.0484, 0.66448, 20.5399, -160.571, -92.6102, 54.7827
3.587, 2, -37.0484, 0.66448, 20.5399, -160.571, -92.6102, 54.7827
3.592, 2, -37.0484, 0.66448, 20.5399, -160.571, -92.6102, 54.7827
3.596, 2, -37.0484, 0.66448, 20.5399, -160.571, -92.6102, 54.7827
3.6, 2, -37.0484, 0.66448, 20.5399, -160.571, -92.6102, 54.7827
3.604, 2, -37.0484, 0.66448, 20.5399, -160.571, -92.6102, 54.7827
3.608, 2, -37.0484, 0.66448, 20.5399, -160.571, -92.6102, 54.7827
3.612, 2, -37.0484, 0.66448, 20.5399, -160.571, -92.6102, 54.7827
3.616, 2, -37.0484, 0.66448, 20.5399, -160.571, -92.6102, 54.7827
3.62, 2, -37.0484, 0.66448, 20.5399, -160.571, -92.6102, 54.7827
3.624, 2, -37.0484, 0.66448, 20.5399, -160.571, -92.6102, 54.7827
3.628, 2, -37.0484, 0.66448, 20.5399, -160.571, -92.6102, 54.7827
3.632, 2, -37.0484, 0.66448, 20.5399, -160.571, -92.6102, 54.7827
3.636, 2, -37.0484, 0.66448, 20.5399, -160.571, -92.6102, 54.7827
3.64, 2, -37.0484, 0.66448, 20.5399, -160.571, -92.6102, 54.7827
3.644, 2, -37.0484, 0.66448, 20.5399, -160.571, -92.6102, 54.7827
3.648, 2, -37.0484, 0.66448, 20.5399, -160.571, -92.6102, 54.7827
3.652, 2, -37.0484, 0.66448, 20.5399, -160.571, -92.6102, 54.7827
3.656, 2, -37.0484, 0.66448, 20.5399, -160.571, -92.6102, 54.7827
3.66, 2, -37.0484, 0.66448, 20.5399, -160.571, -92.6102, 54.7827
3.664, 2, -37.0484, 0.66448, 20.5399, -160.571, -92.6102, 54.7827
3.668, 2, -37.0484, 0.66448, 20.5399, -160.571, -92.6102, 54.7827
3.672, 2, -37.0484, 0.66448, 20.5399, -160.571, -92.6102, 54.7827
3.676, 4, -37.0484, 0.66448, 20.5399, -160.571, -92.6102, 54.7827
3.679, 4, -37.0484, 0.66448, 20.5399, -160.571, -92.6102, 54.7827
3.684, 4, -37.0484, 0.66448, 20.5399, -160.571, -92.6102, 54.7827
3.688, 4, -37.0484, 0.66448, 20.5399, -160.571, -92.6102, 54.7827
3.692, 4, -37.0484, 0.66448, 20.5399, -160.571, -92.6102, 54.7827
3.696, 4, -37.0484, 0.66448, 20.5399, -160.571, -92.6102, 54.7827
3.7, 4, -37.0484, 0.66448, 20.5399, -160.571, -92.6102, 54.7827
3.704, 4, -37.0484, 0.66448, 20.5399, -160.571, -92.6102, 54.7827
3.708, 4, -37.0484, 0.66448, 20.5399, -160.571, -92.6102, 54.7827
3.712, 4, -37.0484, 0.66448, 20.5399, -160.571, -92.6102, 54.7827
3.716, 4, -37.0484, 0.66448, 20.5399, -160.571, -92.6102, 54.7827
3.72, 4, -37.0484, 0.66448, 20.5399, -160.571, -92.6102, 54.7827
3.724, 4, -37.0484, 0.66448, 20.5399, -160.571, -92.6102, 54.7827
3.728, 4, -37.0484, 0.66448, 20.5399, -160.571, -92.6102, 54.7827
3.732, 4, -37.0484, 0.66448, 20.5399, -160.571, -92.6102, 54.7827
3.735, 4, -37.0484, 0.66448, 20.5399, -160.571, -92.6102, 54.7827
3.74, 4, -37.0484, 0.66448, 20.5399, -160.571, -92.6102, 54.7827
3.744, 4, -37.0484, 0.66448, 20.5399, -160.571, -92.6102, 54.7827
3.748, 4, -37.0484, 0.66448, 20.5399, -160.571, -92.6102, 54.7827
3.752, 4, -37.0484, 0.66448, 20.5399, -160.571, -92.6102, 54.7827
3.756, 4, -37.0484, 0.66448, 20.5399, -160.571, -92.6102, 54.7827
3.76, 4, -37.0484, 0.66448, 20.5399, -160.571, -92.6102, 54.7827
3.764, 4, -37.0484, 0.66448, 20.5399, -160.571, -92.6102, 54.7827
3.768, 4, -37.0484, 0.66448, 20.5399, -160.571, -92.6102, 54.7827
3.772, 4, -37.0484, 0.66448, 20.5399, -160.571, -92.6102, 54.7827
3.776, 4, -37.0484, 0.66448, 20.5399, -160.571, -92.6102, 54.7827
3.782, 4, -37.0484, 0.66448, 20.5399, -160.571, -92.6102, 54.7827
3.786, 4, -37.0484, 0.66448, 20.5399, -160.571, -92.6102, 54.7827
3.79, 4, -37.0484, 0.66448, 20.5399, -160.571, -92.6102, 54.7827
3.794, 4, -37.0484, 0.66448, 20.5399, -160.571, -92.6102, 54.7827
3.798, 4, -37.0484, 0.66448, 20.5399, -160.571, -92.6102, 54.7827
3.802, 4, -37.0484, 0.66448, 20.5399, -160.571, -92.6102, 54.7827
3.806, 4, -37.0484, 0.66448, 20.5399, -160.571, -92.6102, 54.7827
3.81, 4, -37.0484, 0.66448, 20.5399, -160.571, -92.6102, 54.7827
3.814, 4, -37.0484, 0.66448, 20.5399, -160.571, -92.6102, 54.7827
3.818, 4, -37.0484, 0.66448, 20.5399, -160.571, -92.6102, 54.7827
3.822, 4, -37.0484, 0.664476, 20.5399, -160.571, -92.6102, 54.7827
3.826, 4, -37.0483, 0.664449, 20.5399, -160.571, -92.6102, 54.7827
3.83, 4, -37.0481, 0.664342, 20.5399, -160.571, -92.6102, 54.7827
3.833, 4, -37.0481, 0.664342, 20.5399, -160.571, -92.6102, 54.7827
3.838, 4, -37.0463, 0.663476, 20.5403, -160.571, -92.6102, 54.7827
3.842, 4, -37.0444, 0.662467, 20.5407, -160.571, -92.6103, 54.7827
3.846, 4, -37.0416, 0.660899, 20.5414, -160.571, -92.6103, 54.7827
3.85, 4, -37.0378, 0.65863, 20.5426, -160.571, -92.6104, 54.7827
3.854, 4, -37.0329, 0.6555, 20.5443, -160.571, -92.6104, 54.7826
3.858, 4, -37.0265, 0.65132, 20.5467, -160.571, -92.6105, 54.7826
3.862, 4, -37.0187, 0.645868, 20.5501, -160.57, -92.6106, 54.7825
3.866, 4, -37.0089, 0.638891, 20.5547, -160.569, -92.6106, 54.7824
3.87, 5, -36.997, 0.630111, 20.5608, -160.568, -92.6107, 54.7823
3.874, 5, -36.9826, 0.619283, 20.5687, -160.567, -92.6107, 54.7821
3.878, 5, -36.9654, 0.606266, 20.5788, -160.565, -92.6107, 54.7818
3.882, 5, -36.9456, 0.59104, 20.5912, -160.563, -92.6106, 54.7815
3.884, 5, -36.9456, 0.59104, 20.5912, -160.563, -92.6106, 54.7815
3.89, 5, -36.8982, 0.554129, 20.6242, -160.557, -92.6102, 54.7806
3.894, 5, -36.8707, 0.532466, 20.6451, -160.553, -92.6098, 54.7801
3.898, 5, -36.8405, 0.508619, 20.6691, -160.548, -92.6092, 54.7794
3.9, 5, -36.8405, 0.508619, 20.6691, -160.548, -92.6092, 54.7794
3.904, 5, -36.8077, 0.482511, 20.6964, -160.542, -92.6085, 54.7787
3.908, 5, -36.7719, 0.454055, 20.727, -160.536, -92.6076, 54.7779
3.912, 5, -36.7332, 0.423194, 20.7608, -160.529, -92.6066, 54.7771
3.916, 5, -36.6915, 0.389954, 20.7977, -160.521, -92.6055, 54.7762
3.92, 5, -36.6469, 0.354453, 20.8375, -160.512, -92.6042, 54.7752
3.924, 5, -36.5998, 0.316845, 20.8799, -160.503, -92.6028, 54.7743
3.928, 5, -36.5502, 0.277253, 20.9248, -160.493, -92.6014, 54.7733
3.932, 5, -36.4983, 0.235742, 20.9716, -160.483, -92.5999, 54.7724
3.936, 5, -36.4439, 0.192356, 21.0203, -160.472, -92.5983, 54.7715
3.94, 5, -36.3871, 0.147172, 21.0706, -160.461, -92.5967, 54.7706
3.944, 5, -36.328, 0.100319, 21.122, -160.45, -92.5952, 54.7699
3.948, 5, -36.2668, 0.0519756, 21.1744, -160.438, -92.5936, 54.7691
3.952, 5, -36.2035, 0.00237808, 21.2276, -160.426, -92.5921, 54.7685
3.956, 5, -36.1386, -0.0481947, 21.2813, -160.414, -92.5905, 54.7679
3.96, 5, -36.0724, -0.099463, 21.3353, -160.402, -92.589, 54.7675
3.964, 5, -36.0053, -0.151194, 21.3896, -160.39, -92.5875, 54.7671
3.968, 5, -35.9375, -0.203218, 21.4439, -160.378, -92.586, 54.7668
3.972, 5, -35.8692, -0.255419, 21.4982, -160.366, -92.5844, 54.7667
3.976, 5, -35.8004, -0.307713, 21.5525, -160.354, -92.5829, 54.7666
3.98, 5, -35.7314, -0.360043, 21.6068, -160.341, -92.5814, 54.7666
3.984, 5, -35.6621, -0.412368, 21.6609, -160.329, -92.5799, 54.7668
3.988, 5, -35.5926, -0.464657, 21.7149, -160.316, -92.5784, 54.767
3.992, 5, -35.5229, -0.516892, 21.7689, -160.304, -92.5769, 54.7673
3.996, 5, -35.4531, -0.569058, 21.8227, -160.291, -92.5754, 54.7678
3.999, 5, -35.3831, -0.621146, 21.8763, -160.279, -92.5739, 54.7683
4.004, 5, -35.313, -0.67315, 21.9298, -160.266, -92.5724, 54.769
4.008, 5, -35.2428, -0.725066, 21.9832, -160.254, -92.5709, 54.7697
4.012, 5, -35.1725, -0.776889, 22.0365, -160.241, -92.5693, 54.7705
4.018, 5, -35.0315, -0.880253, 22.1426, -160.215, -92.5663, 54.7725
4.019, 5, -35.0315, -0.880253, 22.1426, -160.215, -92.5663, 54.7725
4.024, 5, -34.9609, -0.93179, 22.1954, -160.203, -92.5647, 54.7737
4.028, 5, -34.8901, -0.98323, 22.2481, -160.19, -92.5632, 54.7749
4.032, 5, -34.8192, -1.03457, 22.3006, -160.177, -92.5616, 54.7763
4.036, 5, -34.7483, -1.08581, 22.353, -160.164, -92.5601, 54.7777
4.04, 5, -34.6772, -1.13696, 22.4053, -160.151, -92.5585, 54.7793
4.044, 5, -34.606, -1.188, 22.4574, -160.138, -92.557, 54.7809
4.048, 5, -34.5347, -1.23895, 22.5094, -160.125, -92.5554, 54.7827
4.052, 5, -34.4634, -1.28979, 22.5612, -160.112, -92.5538, 54.7846
4.056, 5, -34.3919, -1.34053, 22.6129, -160.098, -92.5522, 54.7865
4.06, 5, -34.3203, -1.39118, 22.6645, -160.085, -92.5506, 54.7886
4.064, 5, -34.2486, -1.44173, 22.7159, -160.072, -92.549, 54.7907
4.068, 5, -34.1768, -1.4922, 22.7672, -160.059, -92.5474, 54.793
4.072, 5, -34.1049, -1.54265, 22.8183, -160.045, -92.5458, 54.7953
4.076, 5, -34.0331, -1.59312, 22.8693, -160.032, -92.5441, 54.7978
4.08, 5, -33.9612, -1.64368, 22.9202, -160.018, -92.5424, 54.8003
4.084, 5, -33.8895, -1.69439, 22.971, -160.005, -92.5407, 54.8028
4.088, 5, -33.8177, -1.74529, 23.0217, -159.991, -92.5389, 54.8053
4.092, 6, -33.7461, -1.79646, 23.0725, -159.977, -92.5369, 54.8077
4.096, 6, -33.6746, -1.84793, 23.1233, -159.963, -92.5347, 54.8099
4.1, 6, -33.6032, -1.89976, 23.1742, -159.949, -92.5321, 54.8119
4.104, 6, -33.5318, -1.952, 23.2253, -159.935, -92.5292, 54.8134
4.108, 6, -33.4606, -2.00471, 23.2767, -159.92, -92.5258, 54.8144
4.112, 6, -33.3895, -2.058, 23.3284, -159.904, -92.5218, 54.8147
4.116, 7, -33.3186, -2.11194, 23.3806, -159.888, -92.517, 54.8142
4.12, 7, -33.2479, -2.16658, 23.4334, -159.871, -92.5114, 54.8128
4.124, 7, -33.1775, -2.22199, 23.4867, -159.854, -92.505, 54.8104
4.128, 7, -33.1074, -2.27822, 23.5408, -159.836, -92.4974, 54.8067
4.132, 7, -33.0377, -2.33532, 23.5956, -159.817, -92.4888, 54.8018
4.138, 8, -32.8994, -2.45241, 23.7078, -159.777, -92.468, 54.7877
4.14, 8, -32.8994, -2.45241, 23.7078, -159.777, -92.468, 54.7877
4.144, 8, -32.8309, -2.51253, 23.7653, -159.755, -92.4556, 54.7784
4.148, 8, -32.7629, -2.57381, 23.8237, -159.732, -92.442, 54.7676
4.152, 8, -32.6953, -2.6363, 23.883, -159.709, -92.427, 54.7553
4.156, 9, -32.6283, -2.70006, 23.9433, -159.684, -92.4106, 54.7413
4.16, 9, -32.5619, -2.76512, 24.0047, -159.659, -92.3929, 54.7258
4.164, 9, -32.496, -2.8315, 24.067, -159.632, -92.3738, 54.7087
4.168, 9, -32.4306, -2.89923, 24.1303, -159.605, -92.3534, 54.69
4.172, 9, -32.3658, -2.9683, 24.1946, -159.576, -92.3315, 54.6696
4.176, 10, -32.3015, -3.03875, 24.2599, -159.547, -92.3083, 54.6477
4.18, 10, -32.2378, -3.11056, 24.3262, -159.517, -92.2837, 54.6242
4.184, 10, -32.1746, -3.18376, 24.3935, -159.485, -92.2577, 54.5992
4.188, 10, -32.112, -3.25834, 24.4618, -159.453, -92.2303, 54.5725
4.192, 10, -32.0499, -3.33431, 24.5311, -159.42, -92.2016, 54.5442
4.196, 11, -31.9884, -3.41167, 24.6015, -159.385, -92.1714, 54.5144
4.2, 11, -31.9274, -3.49044, 24.6728, -159.35, -92.1399, 54.4829
4.204, 11, -31.8669, -3.5706, 24.7451, -159.314, -92.107, 54.4499
4.208, 11, -31.8071, -3.65217, 24.8185, -159.277, -92.0726, 54.4154
4.212, 11, -31.7477, -3.73515, 24.8928, -159.239, -92.0369, 54.3792
4.216, 12, -31.6889, -3.81954, 24.9682, -159.2, -91.9999, 54.3415
4.22, 12, -31.6306, -3.90535, 25.0446, -159.16, -91.9614, 54.3022
4.224, 12, -31.5729, -3.99258, 25.1219, -159.119, -91.9216, 54.2614
4.228, 12, -31.5157, -4.08122, 25.2003, -159.078, -91.8803, 54.219
4.232, 12, -31.459, -4.1713, 25.2797, -159.035, -91.8377, 54.1751
4.236, 13, -31.4029, -4.26279, 25.3602, -158.991, -91.7937, 54.1296
4.24, 13, -31.3473, -4.35572, 25.4416, -158.947, -91.7484, 54.0825
4.244, 13, -31.2922, -4.45008, 25.5241, -158.901, -91.7016, 54.034
4.248, 13, -31.2377, -4.54588, 25.6075, -158.855, -91.6535, 53.9838
4.252, 13, -31.1837, -4.6431, 25.692, -158.808, -91.604, 53.9322
4.256, 14, -31.1302, -4.74177, 25.7776, -158.76, -91.5531, 53.879
4.26, 14, -31.0772, -4.84187, 25.8641, -158.71, -91.5008, 53.8243
4.264, 14, -31.0248, -4.94342, 25.9517, -158.66, -91.4472, 53.768
4.268, 14, -30.9729, -5.04641, 26.0402, -158.609, -91.3923, 53.7103
4.272, 14, -30.9215, -5.15085, 26.1298, -158.557, -91.3359, 53.651
4.276, 15, -30.8706, -5.25673, 26.2205, -158.505, -91.2782, 53.5903
4.282, 15, -30.7704, -5.47283, 26.4048, -158.396, -91.1587, 53.4642
4.284, 15, -30.7704, -5.47283, 26.4048, -158.396, -91.1587, 53.4642
4.288, 15, -30.7211, -5.58306, 26.4985, -158.341, -91.0969, 53.399
4.292, 15, -30.6723, -5.69473, 26.5932, -158.284, -91.0338, 53.3323
4.296, 16, -30.624, -5.80786, 26.689, -158.227, -90.9693, 53.2641
4.3, 16, -30.5762, -5.92244, 26.7858, -158.169, -90.9035, 53.1944
4.304, 16, -30.529, -6.03846, 26.8836, -158.11, -90.8363, 53.1233
4.308, 16, -30.4822, -6.15594, 26.9825, -158.05, -90.7679, 53.0507
4.312, 16, -30.4359, -6.27486, 27.0823, -157.989, -90.698, 52.9766
4.316, 17, -30.3902, -6.39523, 27.1832, -157.927, -90.6269, 52.9012
4.32, 17, -30.345, -6.51705, 27.2852, -157.864, -90.5544, 52.8243
4.324, 17, -30.3002, -6.64032, 27.3881, -157.8, -90.4807, 52.7459
4.328, 17, -30.256, -6.76503, 27.4921, -157.736, -90.4056, 52.6662
4.332, 17, -30.2122, -6.89118, 27.5971, -157.67, -90.3292, 52.5851
4.336, 17, -30.169, -7.01877, 27.7032, -157.604, -90.2515, 52.5026
4.34, 18, -30.1262, -7.1478, 27.8102, -157.537, -90.1725, 52.4186
4.344, 18, -30.084, -7.27827, 27.9183, -157.468, -90.0922, 52.3334
4.348, 18, -30.0422, -7.41016, 28.0274, -157.399, -90.0107, 52.2467
4.352, 18, -30.001, -7.54349, 28.1376, -157.329, -89.9279, 52.1588
4.356, 18, -29.9602, -7.67824, 28.2487, -157.258, -89.8438, 52.0695
4.36, 19, -29.9199, -7.81441, 28.3609, -157.187, -89.7585, 51.9789
4.364, 19, -29.8801, -7.952, 28.4741, -157.114, -89.6719, 51.8869
4.368, 19, -29.8407, -8.09099, 28.5883, -157.04, -89.5841, 51.7937
4.372, 19, -29.8018, -8.2314, 28.7035, -156.966, -89.4951, 51.6992
4.376, 19, -29.7635, -8.3732, 28.8197, -156.891, -89.4048, 51.6035
4.38, 20, -29.7255, -8.5164, 28.937, -156.814, -89.3133, 51.5065
4.384, 20, -29.6881, -8.66098, 29.0552, -156.737, -89.2207, 51.4083
4.388, 20, -29.6511, -8.80695, 29.1744, -156.659, -89.1268, 51.3088
4.392, 20, -29.6146, -8.95429, 29.2947, -156.58, -89.0318, 51.2082
4.396, 20, -29.5785, -9.103, 29.4159, -156.5, -88.9356, 51.1065
4.4, 21, -29.5429, -9.25307, 29.5381, -156.42, -88.8382, 51.0035
4.404, 21, -29.5077, -9.40448, 29.6613, -156.338, -88.7397, 50.8995
4.408, 21, -29.473, -9.55724, 29.7854, -156.256, -88.6401, 50.7943
4.412, 21, -29.4387, -9.71133, 29.9106, -156.172, -88.5394, 50.688
4.416, 21, -29.4049, -9.86674, 30.0366, -156.088, -88.4375, 50.5807
4.42, 22, -29.3715, -10.0235, 30.1637, -156.003, -88.3346, 50.4724
4.426, 22, -29.306, -10.3408, 30.4206, -155.83, -88.1255, 50.2527
4.427, 22, -29.306, -10.3408, 30.4206, -155.83, -88.1255, 50.2527
4.432, 22, -29.2738, -10.5014, 30.5505, -155.742, -88.0194, 50.1413
4.436, 22, -29.2421, -10.6633, 30.6813, -155.653, -87.9122, 50.0291
4.44, 23, -29.2108, -10.8264, 30.8131, -155.564, -87.804, 49.9159
4.444, 23, -29.1799, -10.9907, 30.9457, -155.473, -87.6949, 49.8019
4.448, 23, -29.1494, -11.1563, 31.0793, -155.382, -87.5847, 49.687
4.452, 23, -29.1193, -11.3231, 31.2137, -155.29, -87.4736, 49.5713
4.456, 23, -29.0895, -11.4911, 31.3491, -155.197, -87.3615, 49.4548
4.46, 24, -29.0602, -11.6603, 31.4853, -155.103, -87.2484, 49.3376
4.464, 24, -29.0312, -11.8306, 31.6224, -155.009, -87.1345, 49.2197
4.468, 24, -29.0026, -12.0021, 31.7603, -154.913, -87.0197, 49.1011
4.472, 24, -28.9743, -12.1747, 31.8991, -154.817, -86.9039, 48.9818
4.476, 24, -28.9464, -12.3485, 32.0387, -154.719, -86.7874, 48.8619
4.48, 25, -28.9188, -12.5233, 32.1791, -154.621, -86.6699, 48.7415
4.484, 25, -28.8916, -12.6992, 32.3204, -154.523, -86.5517, 48.6206
4.488, 25, -28.8647, -12.8762, 32.4624, -154.423, -86.4326, 48.4991
4.492, 25, -28.8381, -13.0543, 32.6052, -154.322, -86.3128, 48.3772
4.496, 25, -28.8118, -13.2333, 32.7488, -154.221, -86.1922, 48.2549
4.5, 26, -28.7859, -13.4134, 32.8931, -154.119, -86.0708, 48.1323
4.504, 26, -28.7602, -13.5945, 33.0382, -154.016, -85.9488, 48.0093
4.508, 26, -28.7348, -13.7765, 33.184, -153.912, -85.826, 47.8861
4.512, 26, -28.7097, -13.9594, 33.3305, -153.808, -85.7025, 47.7627
4.516, 26, -28.6848, -14.1433, 33.4777, -153.702, -85.5784, 47.6391
4.52, 27, -28.6602, -14.3281, 33.6256, -153.596, -85.4537, 47.5154
4.524, 27, -28.6359, -14.5138, 33.7742, -153.49, -85.3283, 47.3916
4.528, 27, -28.6118, -14.7003, 33.9233, -153.382, -85.2023, 47.2678
4.532, 27, -28.5879, -14.8876, 34.0732, -153.274, -85.0758, 47.1441
4.536, 27, -28.5642, -15.0758, 34.2236, -153.165, -84.9487, 47.0204
4.54, 27, -28.5407, -15.2647, 34.3746, -153.055, -84.8211, 46.8969
4.546, 28, -28.4943, -15.6448, 34.6783, -152.833, -84.5644, 46.6506
4.548, 28, -28.4943, -15.6448, 34.6783, -152.833, -84.5644, 46.6506
4.552, 28, -28.4713, -15.836, 34.831, -152.721, -84.4353, 46.5279
4.556, 28, -28.4485, -16.0278, 34.9841, -152.608, -84.3058, 46.4057
4.56, 28, -28.4258, -16.2203, 35.1378, -152.495, -84.1759, 46.2838
4.564, 29, -28.4033, -16.4134, 35.292, -152.381, -84.0456, 46.1625
4.568, 29, -28.3809, -16.6071, 35.4466, -152.266, -83.915, 46.0418
4.572, 29, -28.3585, -16.8013, 35.6016, -152.151, -83.784, 45.9217
4.576, 29, -28.3363, -16.9962, 35.757, -152.035, -83.6526, 45.8024
4.58, 29, -28.3141, -17.1915, 35.9128, -151.918, -83.521, 45.6838
4.584, 30, -28.2921, -17.3873, 36.069, -151.801, -83.3891, 45.5662
4.588, 30, -28.27, -17.5836, 36.2256, -151.683, -83.2569, 45.4494
4.592, 30, -28.2481, -17.7804, 36.3824, -151.565, -83.1245, 45.3336
4.596, 30, -28.2261, -17.9775, 36.5396, -151.446, -82.9919, 45.219
4.6, 30, -28.2042, -18.175, 36.697, -151.326, -82.8591, 45.1055
4.604, 31, -28.1822, -18.3729, 36.8546, -151.206, -82.7262, 44.9932
4.608, 31, -28.1603, -18.5711, 37.0125, -151.085, -82.5931, 44.8822
4.612, 31, -28.1383, -18.7696, 37.1706, -150.964, -82.4599, 44.7726
4.616, 31, -28.1163, -18.9683, 37.3289, -150.842, -82.3266, 44.6645
4.62, 31, -28.0942, -19.1673, 37.4873, -150.72, -82.1932, 44.5579
4.624, 32, -28.0721, -19.3665, 37.6459, -150.597, -82.0597, 44.453
4.628, 32, -28.0498, -19.5658, 37.8045, -150.474, -81.9262, 44.3498
4.632, 32, -28.0275, -19.7653, 37.9633, -150.35, -81.7927, 44.2483
4.636, 32, -28.0051, -19.9649, 38.1221, -150.226, -81.6592, 44.1488
4.64, 32, -27.9825, -20.1646, 38.2809, -150.101, -81.5257, 44.0513
4.644, 33, -27.9597, -20.3643, 38.4397, -149.976, -81.3922, 43.9558
4.648, 33, -27.9368, -20.564, 38.5985, -149.851, -81.2588, 43.8624
4.652, 33, -27.9137, -20.7638, 38.7572, -149.725, -81.1255, 43.7713
4.656, 33, -27.8904, -20.9635, 38.9159, -149.599, -80.9923, 43.6825
4.66, 33, -27.8669, -21.1631, 39.0745, -149.472, -80.8591, 43.5962
4.664, 34, -27.8432, -21.3626, 39.2329, -149.345, -80.7261, 43.5123
4.668, 34, -27.8192, -21.562, 39.3912, -149.218, -80.5933, 43.4311
4.672, 34, -27.795, -21.7612, 39.5493, -149.091, -80.4606, 43.3526
4.676, 34, -27.7704, -21.9602, 39.7072, -148.963, -80.3281, 43.2768
4.68, 34, -27.7456, -22.159, 39.8648, -148.835, -80.1958, 43.204
4.684, 35, -27.7205, -22.3575, 40.0222, -148.706, -80.0636, 43.1341
4.688, 35, -27.695, -22.5557, 40.1793, -148.578, -79.9317, 43.0674
4.692, 35, -27.6693, -22.7537, 40.3361, -148.449, -79.8001, 43.0038
4.696, 35, -27.6431, -22.9512, 40.4925, -148.32, -79.6686, 42.9435
4.7, 35, -27.6165, -23.1484, 40.6486, -148.191, -79.5375, 42.8866
4.704, 36, -27.5896, -23.3452, 40.8043, -148.061, -79.4066, 42.8332
4.708, 36, -27.5622, -23.5415, 40.9595, -147.932, -79.2759, 42.7834
4.714, 36, -27.5061, -23.9327, 41.2686, -147.673, -79.0156, 42.6949
4.715, 36, -27.5061, -23.9327, 41.2686, -147.673, -79.0156, 42.6949
4.72, 36, -27.4774, -24.1275, 41.4223, -147.543, -78.8858, 42.6565
4.724, 37, -27.4481, -24.3217, 41.5756, -147.413, -78.7564, 42.6221
4.728, 37, -27.4183, -24.5154, 41.7282, -147.283, -78.6273, 42.5917
4.732, 37, -27.3879, -24.7084, 41.8803, -147.153, -78.4986, 42.5656
4.738, 37, -27.3255, -25.0923, 42.1825, -146.894, -78.2421, 42.5264
4.74, 37, -27.3255, -25.0923, 42.1825, -146.894, -78.2421, 42.5264
4.744, 37, -27.2934, -25.2832, 42.3325, -146.764, -78.1144, 42.5135
4.748, 38, -27.2607, -25.4733, 42.4819, -146.634, -77.9871, 42.5052
4.752, 38, -27.2273, -25.6627, 42.6305, -146.505, -77.8601, 42.5017
4.756, 38, -27.1932, -25.8512, 42.7783, -146.375, -77.7334, 42.503
4.762, 38, -27.1229, -26.2256, 43.0715, -146.117, -77.4813, 42.5206
4.764, 38, -27.1229, -26.2256, 43.0715, -146.117, -77.4813, 42.5206
4.768, 39, -27.0866, -26.4114, 43.2168, -145.989, -77.3558, 42.5371
4.772, 39, -27.0496, -26.5963, 43.3612, -145.86, -77.2307, 42.5589
4.776, 39, -27.0118, -26.7802, 43.5046, -145.732, -77.106, 42.586
4.78, 39, -26.9731, -26.963, 43.647, -145.605, -76.9817, 42.6186
4.786, 40, -26.8933, -27.3254, 43.9289, -145.351, -76.7342, 42.7006
4.788, 40, -26.8933, -27.3254, 43.9289, -145.351, -76.7342, 42.7006
4.792, 40, -26.852, -27.5049, 44.0682, -145.224, -76.611, 42.7503
4.796, 40, -26.8098, -27.6832, 44.2064, -145.098, -76.4882, 42.8058
4.8, 40, -26.7666, -27.8603, 44.3434, -144.973, -76.3659, 42.8674
4.804, 40, -26.7225, -28.0362, 44.4792, -144.848, -76.2439, 42.935
4.809, 41, -26.6773, -28.2107, 44.6138, -144.724, -76.1223, 43.0089
4.814, 41, -26.5837, -28.5558, 44.8792, -144.479, -75.8803, 43.1756
4.818, 41, -26.5353, -28.7262, 45.0098, -144.357, -75.7599, 43.2687
4.822, 41, -26.4857, -28.8951, 45.1391, -144.236, -75.6399, 43.3684
4.826, 42, -26.4349, -29.0625, 45.2669, -144.116, -75.5202, 43.4749
4.829, 42, -26.4349, -29.0625, 45.2669, -144.116, -75.5202, 43.4749
4.834, 42, -26.3297, -29.3925, 45.5179, -143.879, -75.2822, 43.7082
4.838, 42, -26.2752, -29.5551, 45.6411, -143.763, -75.1638, 43.8353
4.841, 42, -26.2752, -29.5551, 45.6411, -143.763, -75.1638, 43.8353
4.846, 43, -26.1621, -29.875, 45.8826, -143.533, -74.9282, 44.1108
4.849, 43, -26.1621, -29.875, 45.8826, -143.533, -74.9282, 44.1108
4.854, 43, -26.0435, -30.1877, 46.1171, -143.309, -74.6943, 44.4154
4.858, 43, -25.9819, -30.3411, 46.2316, -143.199, -74.5779, 44.5788
4.861, 43, -25.9819, -30.3411, 46.2316, -143.199, -74.5779, 44.5788
4.866, 43, -25.8543, -30.6419, 46.4549, -142.984, -74.3465, 44.9281
4.869, 44, -25.8543, -30.6419, 46.4549, -142.984, -74.3465, 44.9281
4.874, 44, -25.7203, -30.9343, 46.6701, -142.776, -74.1169, 45.3082
4.878, 44, -25.6508, -31.0771, 46.7745, -142.675, -74.0028, 45.5099
4.88, 44, -25.6508, -31.0771, 46.7745, -142.675, -74.0028, 45.5099
4.886, 44, -25.5065, -31.3557, 46.9767, -142.48, -73.776, 45.9369
4.888, 45, -25.5065, -31.3557, 46.9767, -142.48, -73.776, 45.9369
4.894, 45, -25.355, -31.6244, 47.1696, -142.293, -73.5513, 46.396
4.898, 45, -25.2764, -31.7548, 47.2624, -142.203, -73.4397, 46.6376
4.902, 45, -25.1959, -31.8825, 47.3526, -142.116, -73.3288, 46.8874
4.904, 45, -25.1959, -31.8825, 47.3526, -142.116, -73.3288, 46.8874
4.908, 46, -25.1134, -32.0074, 47.4402, -142.032, -73.2184, 47.1455
4.912, 46, -25.0288, -32.1294, 47.5251, -141.95, -73.1087, 47.4117
4.916, 46, -24.9422, -32.2484, 47.6072, -141.872, -72.9996, 47.6862
4.92, 46, -24.8535, -32.3643, 47.6865, -141.796, -72.8913, 47.969
4.924, 46, -24.7626, -32.477, 47.7628, -141.724, -72.7837, 48.2602
4.928, 47, -24.6694, -32.5865, 47.8362, -141.655, -72.6768, 48.5597
4.932, 47, -24.5741, -32.6925, 47.9064, -141.589, -72.5708, 48.8675
4.936, 47, -24.4764, -32.7951, 47.9734, -141.527, -72.4657, 49.1836
4.94, 47, -24.3764, -32.8941, 48.0372, -141.469, -72.3616, 49.5081
4.944, 47, -24.274, -32.9893, 48.0976, -141.415, -72.2584, 49.841
4.948, 48, -24.1692, -33.0808, 48.1546, -141.364, -72.1563, 50.1821
4.952, 48, -24.0619, -33.1682, 48.208, -141.318, -72.0553, 50.5316
4.956, 48, -23.9522, -33.2516, 48.2578, -141.276, -71.9555, 50.8895
4.96, 48, -23.8399, -33.3308, 48.3039, -141.238, -71.8569, 51.2556
4.964, 48, -23.7251, -33.4057, 48.3462, -141.204, -71.7597, 51.63
4.968, 48, -23.6076, -33.4762, 48.3846, -141.176, -71.6639, 52.0127
4.972, 49, -23.4875, -33.542, 48.419, -141.152, -71.5697, 52.4036
4.976, 49, -23.3648, -33.6031, 48.4492, -141.133, -71.477, 52.8027
4.98, 49, -23.2393, -33.6592, 48.4753, -141.118, -71.386, 53.2099
4.984, 49, -23.1112, -33.7104, 48.4972, -141.109, -71.2969, 53.6253
4.988, 49, -22.9803, -33.7563, 48.5146, -141.105, -71.2096, 54.0487
4.992, 50, -22.8466, -33.7967, 48.5276, -141.107, -71.1244, 54.48
4.996, 50, -22.7102, -33.8316, 48.5359, -141.114, -71.0414, 54.9193
5, 50, -22.5709, -33.8608, 48.5397, -141.126, -70.9606, 55.3664
5.004, 50, -22.4289, -33.884, 48.5386, -141.144, -70.8823, 55.8212
5.008, 50, -22.2841, -33.9013, 48.5327, -141.168, -70.8065, 56.2837
5.012, 51, -22.1365, -33.9125, 48.5219, -141.197, -70.7334, 56.7536
5.016, 51, -21.9861, -33.9175, 48.506, -141.233, -70.6632, 57.231
5.02, 51, -21.833, -33.9163, 48.4849, -141.274, -70.596, 57.7156
5.024, 51, -21.6771, -33.9088, 48.4587, -141.322, -70.532, 58.2072
5.028, 51, -21.5185, -33.8949, 48.4272, -141.375, -70.4713, 58.7058
5.032, 52, -21.3573, -33.8745, 48.3904, -141.434, -70.4142, 59.2109
5.036, 52, -21.1936, -33.8473, 48.3481, -141.5, -70.3607, 59.7225
5.04, 52, -21.0274, -33.8134, 48.3004, -141.572, -70.3111, 60.2401
5.044, 52, -20.8587, -33.7726, 48.2472, -141.649, -70.2656, 60.7634
5.048, 52, -20.6878, -33.7247, 48.1885, -141.733, -70.2243, 61.2921
5.052, 53, -20.5147, -33.6698, 48.1242, -141.823, -70.1874, 61.8258
5.056, 53, -20.3394, -33.6077, 48.0545, -141.918, -70.1551, 62.3641
5.06, 53, -20.1622, -33.5383, 47.9792, -142.019, -70.1275, 62.9065
5.064, 53, -19.9832, -33.4616, 47.8984, -142.126, -70.1049, 63.4526
5.068, 53, -19.8024, -33.3775, 47.8121, -142.238, -70.0872, 64.0019
5.072, 54, -19.62, -33.2861, 47.7203, -142.356, -70.0748, 64.5542
5.076, 54, -19.4362, -33.1871, 47.6232, -142.478, -70.0676, 65.109
5.08, 54, -19.251, -33.0807, 47.5206, -142.606, -70.066, 65.6659
5.084, 54, -19.0646, -32.9668, 47.4127, -142.739, -70.0698, 66.2247
5.088, 54, -18.877, -32.8454, 47.2995, -142.876, -70.0794, 66.785
5.092, 54, -18.6885, -32.7165, 47.1811, -143.018, -70.0948, 67.3466
5.096, 55, -18.499, -32.58, 47.0575, -143.164, -70.116, 67.9093
5.1, 55, -18.3086, -32.436, 46.9287, -143.314, -70.1432, 68.4728
5.104, 55, -18.1175, -32.2845, 46.7948, -143.468, -70.1766, 69.037
5.108, 55, -17.9258, -32.1255, 46.6558, -143.626, -70.216, 69.6018
5.112, 55, -17.7334, -31.9589, 46.5118, -143.788, -70.2618, 70.1671
5.116, 56, -17.5404, -31.7849, 46.3627, -143.953, -70.3138, 70.7326
5.12, 56, -17.347, -31.6033, 46.2088, -144.122, -70.3724, 71.2983
5.124, 56, -17.1531, -31.4142, 46.0499, -144.293, -70.4374, 71.8641
5.128, 56, -16.9589, -31.2177, 45.8861, -144.468, -70.509, 72.4299
5.132, 56, -16.7644, -31.0136, 45.7175, -144.645, -70.5872, 72.9956
5.136, 56, -16.5696, -30.8021, 45.544, -144.825, -70.6722, 73.5611
5.14, 57, -16.3746, -30.5831, 45.3658, -145.008, -70.7641, 74.1263
5.144, 57, -16.1794, -30.3567, 45.1829, -145.192, -70.8628, 74.6911
5.148, 57, -15.9841, -30.1228, 44.9953, -145.379, -70.9684, 75.2554
5.152, 57, -15.7888, -29.8814, 44.803, -145.568, -71.0811, 75.8191
5.156, 57, -15.5934, -29.6326, 44.6062, -145.758, -71.2008, 76.3821
5.16, 57, -15.3981, -29.3765, 44.4048, -145.95, -71.3277, 76.9444
5.164, 58, -15.2029, -29.1131, 44.1989, -146.144, -71.4618, 77.5059
5.168, 58, -15.0079, -28.8425, 43.9886, -146.338, -71.6031, 78.0663
5.172, 58, -14.8131, -28.5649, 43.7739, -146.534, -71.7517, 78.6257
5.176, 58, -14.6187, -28.2804, 43.555, -146.73, -71.9075, 79.1837
5.18, 58, -14.4248, -27.9892, 43.3319, -146.927, -72.0706, 79.7402
5.184, 59, -14.2315, -27.6916, 43.1048, -147.124, -72.2409, 80.295
5.188, 59, -14.0389, -27.3878, 42.8738, -147.321, -72.4184, 80.8477
5.192, 59, -13.8473, -27.0782, 42.6393, -147.518, -72.6028, 81.3979
5.196, 59, -13.6569, -26.7634, 42.4013, -147.715, -72.7942, 81.9453
5.2, 59, -13.4676, -26.4435, 42.1601, -147.91, -72.9923, 82.4894
5.204, 59, -13.2798, -26.1189, 41.9162, -148.105, -73.1968, 83.0297
5.208, 60, -13.0935, -25.7898, 41.6696, -148.298, -73.4075, 83.5656
5.212, 60, -12.9087, -25.4564, 41.4209, -148.489, -73.6241, 84.0965
5.216, 60, -12.7257, -25.1189, 41.1704, -148.678, -73.8461, 84.6219
5.22, 60, -12.5446, -24.7774, 40.9185, -148.864, -74.0733, 85.1412
5.224, 60, -12.3656, -24.4324, 40.6654, -149.048, -74.3052, 85.6538
5.228, 60, -12.1887, -24.0841, 40.4116, -149.229, -74.5415, 86.1593
5.232, 61, -12.0143, -23.7332, 40.1574, -149.406, -74.7817, 86.6572
5.236, 61, -11.8424, -23.3798, 39.9031, -149.58, -75.0257, 87.1474
5.24, 61, -11.6731, -23.0244, 39.6489, -149.75, -75.2729, 87.6294
5.244, 61, -11.5065, -22.6673, 39.3952, -149.917, -75.5232, 88.1031
5.248, 61, -11.3426, -22.3087, 39.142, -150.08, -75.7763, 88.5685
5.252, 61, -11.1814, -21.9488, 38.8896, -150.238, -76.0318, 89.0254
5.256, 61, -11.0229, -21.588, 38.6381, -150.393, -76.2898, 89.4739
5.26, 62, -10.8671, -21.2264, 38.3876, -150.544, -76.5499, 89.9142
5.264, 62, -10.7139, -20.8644, 38.138, -150.691, -76.8122, 90.3464
5.268, 62, -10.5633, -20.5019, 37.8896, -150.835, -77.0764, 90.7706
5.272, 62, -10.4152, -20.1393, 37.6422, -150.974, -77.3424, 91.1869
5.276, 62, -10.2695, -19.7765, 37.396, -151.109, -77.6103, 91.5956
5.282, 62, -9.98505, -19.0506, 36.9069, -151.369, -78.1512, 92.3908
5.284, 63, -9.98505, -19.0506, 36.9069, -151.369, -78.1512, 92.3908
5.288, 63, -9.84615, -18.6876, 36.664, -151.494, -78.424, 92.7775
5.292, 63, -9.70935, -18.3246, 36.4223, -151.614, -78.6985, 93.1572
5.296, 63, -9.5746, -17.9616, 36.1817, -151.731, -78.9744, 93.5299
5.3, 63, -9.44181, -17.5985, 35.9423, -151.845, -79.2518, 93.8957
5.304, 63, -9.31093, -17.2355, 35.7039, -151.955, -79.5307, 94.2548
5.308, 63, -9.18188, -16.8725, 35.4667, -152.062, -79.8109, 94.6072
5.312, 64, -9.05462, -16.5096, 35.2307, -152.165, -80.0924, 94.9529
5.316, 64, -8.92911, -16.1468, 34.9958, -152.265, -80.3753, 95.292
5.32, 64, -8.80532, -15.7844, 34.762, -152.361, -80.6594, 95.6244
5.324, 64, -8.68321, -15.4224, 34.5295, -152.454, -80.9448, 95.9503
5.328, 64, -8.56275, -15.0608, 34.2982, -152.544, -81.2312, 96.2694
5.332, 64, -8.44394, -14.6999, 34.0682, -152.63, -81.5187, 96.5818
5.336, 64, -8.32674, -14.3397, 33.8395, -152.713, -81.8071, 96.8874
5.34, 65, -8.21115, -13.9803, 33.6123, -152.793, -82.0962, 97.1859
5.344, 65, -8.09718, -13.6218, 33.3867, -152.869, -82.386, 97.4773
5.348, 65, -7.98482, -13.2645, 33.1627, -152.941, -82.6762, 97.7613
5.352, 65, -7.87408, -12.9085, 32.9405, -153.011, -82.9667, 98.0379
5.356, 65, -7.76499, -12.5541, 32.7202, -153.077, -83.2572, 98.3068
5.36, 65, -7.65756, -12.2012, 32.5019, -153.139, -83.5475, 98.5677
5.364, 66, -7.5518, -11.8502, 32.2859, -153.198, -83.8375, 98.8205
5.368, 66, -7.44774, -11.5012, 32.0722, -153.254, -84.1268, 99.065
5.372, 66, -7.34538, -11.1541, 31.8609, -153.306, -84.4153, 99.3009
5.376, 66, -7.24474, -10.8093, 31.6523, -153.355, -84.7028, 99.5281
5.38, 66, -7.14582, -10.4668, 31.4463, -153.401, -84.989, 99.7465
5.384, 66, -7.04861, -10.1269, 31.2432, -153.443, -85.2739, 99.9558
5.388, 66, -6.95313, -9.78963, 31.0429, -153.482, -85.5572, 100.156
5.392, 67, -6.85937, -9.45528, 30.8455, -153.517, -85.8389, 100.347
5.396, 67, -6.76731, -9.12392, 30.6511, -153.55, -86.1188, 100.529
5.4, 67, -6.67695, -8.79566, 30.4598, -153.579, -86.3969, 100.701
5.404, 67, -6.58825, -8.47055, 30.2715, -153.605, -86.6731, 100.864
5.408, 67, -6.50118, -8.14865, 30.0862, -153.628, -86.9473, 101.017
5.412, 67, -6.41571, -7.83003, 29.904, -153.648, -87.2195, 101.16
5.416, 67, -6.3318, -7.51478, 29.7248, -153.665, -87.4896, 101.294
5.42, 68, -6.24942, -7.20296, 29.5487, -153.679, -87.7578, 101.419
5.424, 68, -6.16855, -6.89463, 29.3755, -153.69, -88.0239, 101.534
5.428, 68, -6.08914, -6.58978, 29.2054, -153.699, -88.2879, 101.639
5.432, 68, -6.01116, -6.28841, 29.0382, -153.704, -88.5499, 101.734
5.436, 68, -5.93456, -5.99049, 28.8739, -153.708, -88.8099, 101.82
5.44, 68, -5.8593, -5.69602, 28.7125, -153.708, -89.0678, 101.896
5.444, 68, -5.78534, -5.40501, 28.554, -153.706, -89.3237, 101.962
5.448, 69, -5.71265, -5.11748, 28.3983, -153.702, -89.5777, 102.019
5.452, 69, -5.6412, -4.83344, 28.2455, -153.695, -89.8296, 102.065
5.456, 69, -5.57096, -4.55288, 28.0954, -153.686, -90.0796, 102.102
5.46, 69, -5.5019, -4.27579, 27.948, -153.675, -90.3275, 102.129
5.464, 69, -5.43397, -4.00211, 27.8034, -153.661, -90.5736, 102.146
5.468, 69, -5.36715, -3.73182, 27.6615, -153.645, -90.8176, 102.153
5.472, 69, -5.30139, -3.46494, 27.5222, -153.628, -91.0598, 102.15
5.476, 69, -5.23666, -3.20147, 27.3855, -153.608, -91.3, 102.138
5.48, 70, -5.17295, -2.94147, 27.2514, -153.586, -91.5383, 102.115
5.484, 70, -5.11021, -2.68495, 27.1199, -153.562, -91.7747, 102.083
5.488, 70, -5.04841, -2.43191, 26.991, -153.537, -92.0091, 102.041
5.492, 70, -4.98754, -2.18233, 26.8645, -153.509, -92.2417, 101.989
5.496, 70, -4.92755, -1.9362, 26.7406, -153.48, -92.4723, 101.927
5.5, 70, -4.86842, -1.69351, 26.6191, -153.45, -92.701, 101.855
5.504, 70, -4.81012, -1.45428, 26.5001, -153.418, -92.9277, 101.774
5.508, 71, -4.75263, -1.21855, 26.3836, -153.384, -93.1525, 101.683
5.512, 71, -4.69593, -0.986345, 26.2694, -153.349, -93.3752, 101.583
5.516, 71, -4.63998, -0.757655, 26.1577, -153.313, -93.5959, 101.473
5.52, 71, -4.58476, -0.53246, 26.0483, -153.276, -93.8146, 101.354
5.524, 71, -4.53023, -0.310725, 25.9413, -153.237, -94.0312, 101.225
5.528, 71, -4.47636, -0.0924156, 25.8366, -153.198, -94.2457, 101.087
5.532, 71, -4.4231, 0.122482, 25.7342, -153.157, -94.4581, 100.941
5.536, 71, -4.37044, 0.33397, 25.6341, -153.116, -94.6684, 100.785
5.54, 72, -4.31832, 0.54206, 25.5362, -153.074, -94.8766, 100.621
5.544, 72, -4.26669, 0.746804, 25.4406, -153.031, -95.0827, 100.448
5.548, 72, -4.21545, 0.948294, 25.347, -152.987, -95.2868, 100.267
5.552, 72, -4.16451, 1.14664, 25.2556, -152.943, -95.4888, 100.077
5.556, 72, -4.11376, 1.34195, 25.1662, -152.898, -95.6889, 99.8784
5.56, 72, -4.06314, 1.53431, 25.0788, -152.853, -95.8872, 99.6716
5.564, 72, -4.01258, 1.72377, 24.9932, -152.807, -96.0837, 99.4564
5.568, 72, -3.96209, 1.91032, 24.9095, -152.761, -96.2786, 99.2326
5.572, 73, -3.91165, 2.09396, 24.8274, -152.715, -96.4721, 99.0001
5.576, 73, -3.86128, 2.27464, 24.747, -152.668, -96.6643, 98.7587
5.58, 73, -3.81095, 2.45238, 24.668, -152.621, -96.8553, 98.5083
5.584, 73, -3.76062, 2.62717, 24.5906, -152.574, -97.0453, 98.2488
5.588, 73, -3.71026, 2.79903, 24.5145, -152.526, -97.2343, 97.98
5.592, 73, -3.65979, 2.96796, 24.4398, -152.479, -97.4224, 97.7018
5.596, 73, -3.6092, 3.13389, 24.3665, -152.431, -97.6096, 97.4142
5.6, 74, -3.55845, 3.29676, 24.2944, -152.383, -97.7958, 97.1172
5.604, 74, -3.50752, 3.4565, 24.2237, -152.336, -97.981, 96.811
5.608, 74, -3.45643, 3.613, 24.1543, -152.288, -98.1651, 96.4957
5.612, 74, -3.40516, 3.76616, 24.0863, -152.241, -98.3477, 96.1716
5.616, 74, -3.35375, 3.91589, 24.0197, -152.194, -98.5288, 95.8391
5.62, 74, -3.30221, 4.06212, 23.9546, -152.148, -98.708, 95.4986
5.624, 74, -3.25057, 4.20479, 23.8911, -152.102, -98.8851, 95.1507
5.628, 74, -3.19884, 4.34381, 23.8293, -152.057, -99.0598, 94.7961
5.632, 75, -3.14704, 4.47907, 23.7692, -152.013, -99.2316, 94.4354
5.636, 75, -3.09514, 4.61046, 23.711, -151.97, -99.4004, 94.0693
5.64, 75, -3.04312, 4.73784, 23.6546, -151.928, -99.5658, 93.6985
5.644, 75, -2.99097, 4.86104, 23.6002, -151.888, -99.7276, 93.3237
5.648, 75, -2.93866, 4.97991, 23.5477, -151.848, -99.8855, 92.9456
5.652, 75, -2.88622, 5.09431, 23.4973, -151.81, -100.039, 92.5649
5.656, 75, -2.83367, 5.2041, 23.449, -151.774, -100.189, 92.1821
5.66, 75, -2.78105, 5.30919, 23.4027, -151.739, -100.334, 91.7979
5.664, 76, -2.7284, 5.40951, 23.3585, -151.706, -100.475, 91.4127
5.668, 76, -2.67574, 5.505, 23.3164, -151.674, -100.611, 91.0272
5.672, 76, -2.62306, 5.59564, 23.2764, -151.643, -100.742, 90.6417
5.676, 76, -2.57034, 5.68141, 23.2384, -151.615, -100.869, 90.2567
5.68, 76, -2.51755, 5.76228, 23.2024, -151.588, -100.99, 89.8723
5.684, 76, -2.46468, 5.83824, 23.1685, -151.562, -101.107, 89.4888
5.688, 76, -2.41178, 5.90926, 23.1366, -151.538, -101.22, 89.1064
5.692, 76, -2.35891, 5.97531, 23.1067, -151.516, -101.327, 88.7252
5.696, 76, -2.30615, 6.03641, 23.0786, -151.495, -101.43, 88.3452
5.7, 77, -2.25357, 6.09256, 23.0525, -151.476, -101.527, 87.9665
5.704, 77, -2.2012, 6.14382, 23.0282, -151.459, -101.621, 87.5893
5.708, 77, -2.14901, 6.19025, 23.0058, -151.442, -101.709, 87.2137
5.712, 77, -2.0969, 6.23192, 22.9852, -151.428, -101.793, 86.8399
5.716, 77, -2.04481, 6.26889, 22.9664, -151.414, -101.872, 86.468
5.72, 77, -1.99268, 6.30117, 22.9495, -151.402, -101.946, 86.0984
5.724, 77, -1.94049, 6.32876, 22.9345, -151.391, -102.016, 85.731
5.728, 77, -1.88827, 6.35164, 22.9212, -151.382, -102.081, 85.3661
5.732, 77, -1.83604, 6.3698, 22.9098, -151.374, -102.141, 85.0037
5.736, 77, -1.78383, 6.38323, 22.9002, -151.367, -102.196, 84.6439
5.74, 78, -1.73161, 6.39197, 22.8924, -151.362, -102.247, 84.2866
5.744, 78, -1.67933, 6.39604, 22.8864, -151.357, -102.293, 83.932
5.748, 78, -1.62693, 6.39547, 22.8823, -151.354, -102.334, 83.58
5.752, 78, -1.57439, 6.39027, 22.8801, -151.352, -102.37, 83.2305
5.756, 78, -1.52171, 6.38045, 22.8797, -151.351, -102.401, 82.8833
5.76, 78, -1.46898, 6.36597, 22.8812, -151.352, -102.428, 82.5383
5.764, 78, -1.41627, 6.34682, 22.8846, -151.353, -102.45, 82.1954
5.768, 78, -1.36366, 6.32297, 22.8899, -151.355, -102.467, 81.8543
5.772, 78, -1.31116, 6.29439, 22.897, -151.358, -102.479, 81.5151
5.776, 79, -1.25877, 6.26106, 22.9061, -151.363, -102.486, 81.1776
5.78, 79, -1.20643, 6.22298, 22.9172, -151.368, -102.488, 80.8419
5.784, 79, -1.15407, 6.18012, 22.9303, -151.374, -102.486, 80.5082
5.788, 79, -1.10163, 6.13248, 22.9454, -151.381, -102.478, 80.1764
5.792, 79, -1.04908, 6.08001, 22.9625, -151.389, -102.465, 79.8468
5.796, 79, -0.996394, 6.02268, 22.9818, -151.398, -102.447, 79.5195
5.8, 79, -0.943587, 5.96045, 23.0032, -151.407, -102.423, 79.1944
5.804, 79, -0.890671, 5.89326, 23.0268, -151.418, -102.395, 78.8718
5.808, 79, -0.837667, 5.82108, 23.0526, -151.429, -102.361, 78.5517
5.812, 80, -0.784595, 5.74386, 23.0806, -151.441, -102.322, 78.234
5.816, 80, -0.731479, 5.66158, 23.1109, -151.453, -102.277, 77.9189
5.82, 80, -0.678339, 5.57424, 23.1435, -151.466, -102.227, 77.6063
5.824, 80, -0.625193, 5.48186, 23.1785, -151.48, -102.171, 77.2963
5.828, 80, -0.572056, 5.38444, 23.2159, -151.495, -102.11, 76.9888
5.832, 80, -0.518944, 5.28199, 23.2557, -151.51, -102.043, 76.6839
5.836, 80, -0.465871, 5.17449, 23.2979, -151.525, -101.971, 76.3817
5.84, 80, -0.41285, 5.06195, 23.3427, -151.542, -101.893, 76.0821
5.844, 80, -0.359892, 4.94434, 23.3899, -151.558, -101.809, 75.7853
