hehonglu123/Motion-Primitive-Planning/simulation/robotstudio_sim/scripts/fitting_output/curve_1/100L/curve_exe_v250_z10.csv
timestamp, cmd_num, J1, J2, J3, J4, J5, J6
0, -1, 11.3784, 13.6124, 17.34, -145.519, -97.9231, 142.516
0.002, -1, 11.3784, 13.6124, 17.34, -145.519, -97.9231, 142.516
0.006, -1, 11.3784, 13.6124, 17.34, -145.519, -97.9231, 142.516
0.008, -1, 11.3784, 13.6124, 17.34, -145.519, -97.9231, 142.516
0.011, -1, 11.3784, 13.6124, 17.34, -145.519, -97.9231, 142.516
0.016, -1, 11.3784, 13.6124, 17.34, -145.519, -97.9231, 142.516
0.02, -1, 11.3784, 13.6124, 17.34, -145.519, -97.9231, 142.516
0.024, -1, 11.3784, 13.6124, 17.34, -145.519, -97.9231, 142.516
0.028, -1, 11.3784, 13.6124, 17.34, -145.519, -97.9231, 142.516
0.032, -1, 11.3784, 13.6124, 17.34, -145.519, -97.9231, 142.516
0.036, -1, 11.3783, 13.6124, 17.34, -145.519, -97.9231, 142.516
0.04, -1, 11.3783, 13.6124, 17.34, -145.519, -97.9231, 142.516
0.044, -1, 11.378, 13.6124, 17.34, -145.519, -97.9231, 142.516
0.048, -1, 11.3773, 13.6123, 17.3399, -145.519, -97.9231, 142.516
0.052, -1, 11.376, 13.6121, 17.3397, -145.519, -97.9231, 142.516
0.056, -1, 11.3739, 13.6118, 17.3395, -145.519, -97.9231, 142.515
0.06, -1, 11.3709, 13.6113, 17.3392, -145.519, -97.9231, 142.515
0.064, -1, 11.3669, 13.6105, 17.3388, -145.519, -97.923, 142.514
0.068, -1, 11.3616, 13.6095, 17.3382, -145.52, -97.9229, 142.511
0.072, -1, 11.355, 13.6081, 17.3376, -145.52, -97.9228, 142.508
0.076, -1, 11.3469, 13.6063, 17.3369, -145.521, -97.9225, 142.503
0.08, -1, 11.3368, 13.604, 17.3361, -145.523, -97.9221, 142.496
0.084, -1, 11.3245, 13.6011, 17.3353, -145.524, -97.9216, 142.485
0.088, -1, 11.3095, 13.5974, 17.3345, -145.527, -97.9208, 142.471
0.092, -1, 11.2916, 13.593, 17.3339, -145.53, -97.9197, 142.452
0.096, -1, 11.2709, 13.5878, 17.3334, -145.534, -97.9183, 142.428
0.1, -1, 11.2473, 13.5817, 17.3333, -145.54, -97.9165, 142.397
0.104, -1, 11.2208, 13.5749, 17.3336, -145.546, -97.9143, 142.359
0.108, -1, 11.1915, 13.5672, 17.3345, -145.554, -97.9116, 142.313
0.112, -1, 11.1592, 13.5585, 17.336, -145.563, -97.9083, 142.259
0.116, -1, 11.1237, 13.549, 17.3382, -145.574, -97.9045, 142.197
0.12, -1, 11.085, 13.5386, 17.341, -145.586, -97.9002, 142.125
0.124, -1, 11.0431, 13.5271, 17.3444, -145.6, -97.8953, 142.045
0.128, -1, 10.9978, 13.5148, 17.3483, -145.615, -97.8899, 141.956
0.131, -1, 10.9493, 13.5015, 17.3528, -145.632, -97.884, 141.86
0.136, -1, 10.8979, 13.4874, 17.3577, -145.65, -97.8777, 141.756
0.139, -1, 10.8436, 13.4725, 17.3631, -145.669, -97.8709, 141.645
0.144, -1, 10.7865, 13.4568, 17.3687, -145.689, -97.8638, 141.529
0.148, -1, 10.7267, 13.4404, 17.3745, -145.709, -97.8564, 141.407
0.152, -1, 10.6642, 13.4232, 17.3803, -145.731, -97.8487, 141.281
0.156, -1, 10.5993, 13.4055, 17.3861, -145.753, -97.8408, 141.152
0.16, -1, 10.5321, 13.3871, 17.3919, -145.776, -97.8328, 141.02
0.164, -1, 10.4629, 13.3682, 17.3975, -145.799, -97.8246, 140.886
0.168, -1, 10.3921, 13.3489, 17.4031, -145.822, -97.8164, 140.751
0.172, -1, 10.32, 13.3293, 17.4085, -145.845, -97.8081, 140.614
0.176, -1, 10.2468, 13.3094, 17.4139, -145.869, -97.7998, 140.477
0.18, -1, 10.1727, 13.2894, 17.4192, -145.893, -97.7914, 140.339
0.184, -1, 10.0979, 13.2691, 17.4245, -145.916, -97.783, 140.2
0.188, -1, 10.0225, 13.2488, 17.4297, -145.94, -97.7746, 140.062
0.192, -1, 9.94654, 13.2284, 17.4348, -145.964, -97.7661, 139.922
0.196, -1, 9.87027, 13.2079, 17.44, -145.988, -97.7577, 139.783
0.2, -1, 9.79375, 13.1874, 17.4451, -146.012, -97.7492, 139.644
0.204, -1, 9.71706, 13.1669, 17.4502, -146.036, -97.7408, 139.504
0.208, -1, 9.64025, 13.1463, 17.4553, -146.06, -97.7324, 139.365
0.212, -1, 9.56336, 13.1258, 17.4604, -146.084, -97.7239, 139.225
0.216, -1, 9.48641, 13.1052, 17.4655, -146.108, -97.7155, 139.086
0.22, -1, 9.40942, 13.0846, 17.4706, -146.131, -97.707, 138.946
0.224, -1, 9.3324, 13.064, 17.4757, -146.155, -97.6985, 138.807
0.228, -1, 9.25536, 13.0434, 17.4808, -146.179, -97.6901, 138.667
0.232, -1, 9.1783, 13.0228, 17.4859, -146.203, -97.6816, 138.527
0.236, -1, 9.10122, 13.0022, 17.491, -146.227, -97.6732, 138.388
0.24, -1, 9.02413, 12.9815, 17.4961, -146.251, -97.6647, 138.248
0.244, -1, 8.94703, 12.9609, 17.5012, -146.275, -97.6563, 138.108
0.248, -1, 8.86993, 12.9403, 17.5063, -146.299, -97.6478, 137.969
0.252, -1, 8.79281, 12.9197, 17.5114, -146.323, -97.6393, 137.829
0.256, -1, 8.71568, 12.8991, 17.5165, -146.347, -97.6309, 137.689
0.26, -1, 8.63855, 12.8785, 17.5216, -146.371, -97.6224, 137.55
0.264, -1, 8.56141, 12.8578, 17.5267, -146.395, -97.614, 137.41
0.268, -1, 8.48426, 12.8372, 17.5318, -146.419, -97.6055, 137.27
0.272, -1, 8.40711, 12.8166, 17.5369, -146.443, -97.597, 137.13
0.276, -1, 8.32994, 12.7959, 17.542, -146.467, -97.5886, 136.99
0.28, -1, 8.25277, 12.7753, 17.5471, -146.491, -97.5801, 136.851
0.284, -1, 8.1756, 12.7547, 17.5522, -146.515, -97.5716, 136.711
0.288, -1, 8.09841, 12.734, 17.5573, -146.539, -97.5632, 136.571
0.292, -1, 8.02122, 12.7134, 17.5624, -146.563, -97.5547, 136.431
0.296, -1, 7.94402, 12.6928, 17.5675, -146.587, -97.5462, 136.291
0.3, -1, 7.86681, 12.6721, 17.5726, -146.611, -97.5378, 136.151
0.304, -1, 7.7896, 12.6515, 17.5777, -146.635, -97.5293, 136.012
0.308, -1, 7.71238, 12.6308, 17.5828, -146.659, -97.5208, 135.872
0.312, -1, 7.63515, 12.6102, 17.5879, -146.683, -97.5123, 135.732
0.316, -1, 7.55791, 12.5895, 17.593, -146.707, -97.5039, 135.592
0.32, -1, 7.48067, 12.5689, 17.5981, -146.731, -97.4954, 135.452
0.324, -1, 7.40342, 12.5482, 17.6032, -146.755, -97.4869, 135.312
0.328, -1, 7.32616, 12.5276, 17.6083, -146.779, -97.4784, 135.172
0.332, -1, 7.24889, 12.5069, 17.6134, -146.803, -97.47, 135.032
0.336, -1, 7.17162, 12.4862, 17.6185, -146.827, -97.4615, 134.892
0.34, -1, 7.09434, 12.4656, 17.6236, -146.851, -97.453, 134.752
0.344, -1, 7.01705, 12.4449, 17.6287, -146.875, -97.4445, 134.612
0.348, -1, 6.93976, 12.4242, 17.6339, -146.899, -97.436, 134.472
0.352, -1, 6.86246, 12.4036, 17.639, -146.923, -97.4276, 134.332
0.356, -1, 6.78515, 12.3829, 17.6441, -146.947, -97.4191, 134.192
0.36, -1, 6.70783, 12.3622, 17.6492, -146.971, -97.4106, 134.052
0.364, -1, 6.63051, 12.3416, 17.6543, -146.995, -97.4021, 133.912
0.368, -1, 6.55317, 12.3209, 17.6594, -147.019, -97.3936, 133.772
0.372, -1, 6.47583, 12.3002, 17.6645, -147.043, -97.3851, 133.631
0.376, -1, 6.39849, 12.2795, 17.6696, -147.067, -97.3767, 133.491
0.38, -1, 6.32113, 12.2588, 17.6747, -147.091, -97.3682, 133.351
0.384, -1, 6.24377, 12.2382, 17.6798, -147.115, -97.3597, 133.211
0.388, -1, 6.1664, 12.2175, 17.6849, -147.14, -97.3512, 133.071
0.392, -1, 6.08903, 12.1968, 17.6901, -147.164, -97.3427, 132.931
0.396, -1, 6.01164, 12.1761, 17.6952, -147.188, -97.3342, 132.79
0.4, -1, 5.93425, 12.1554, 17.7003, -147.212, -97.3257, 132.65
0.404, -1, 5.85685, 12.1347, 17.7054, -147.236, -97.3172, 132.51
0.408, -1, 5.77945, 12.114, 17.7105, -147.26, -97.3087, 132.37
0.412, -1, 5.70203, 12.0933, 17.7156, -147.284, -97.3003, 132.23
0.416, -1, 5.62461, 12.0726, 17.7207, -147.308, -97.2918, 132.089
0.42, -1, 5.54718, 12.0519, 17.7259, -147.332, -97.2833, 131.949
0.424, -1, 5.46975, 12.0312, 17.731, -147.356, -97.2748, 131.809
0.428, -1, 5.3923, 12.0105, 17.7361, -147.38, -97.2663, 131.668
0.432, -1, 5.31485, 11.9898, 17.7412, -147.404, -97.2578, 131.528
0.436, -1, 5.23739, 11.9691, 17.7463, -147.428, -97.2493, 131.388
0.44, -1, 5.15992, 11.9484, 17.7515, -147.452, -97.2408, 131.247
0.444, -1, 5.08245, 11.9277, 17.7566, -147.476, -97.2323, 131.107
0.448, -1, 5.00497, 11.9069, 17.7617, -147.501, -97.2238, 130.967
0.452, -1, 4.92748, 11.8862, 17.7668, -147.525, -97.2153, 130.826
0.456, -1, 4.84998, 11.8655, 17.7719, -147.549, -97.2068, 130.686
0.46, -1, 4.77248, 11.8448, 17.7771, -147.573, -97.1983, 130.545
0.464, -1, 4.69496, 11.8241, 17.7822, -147.597, -97.1898, 130.405
0.468, -1, 4.61744, 11.8033, 17.7873, -147.621, -97.1813, 130.265
0.472, -1, 4.53991, 11.7826, 17.7924, -147.645, -97.1728, 130.124
0.476, -1, 4.46238, 11.7619, 17.7975, -147.669, -97.1642, 129.984
0.48, -1, 4.38483, 11.7411, 17.8027, -147.693, -97.1557, 129.843
0.484, -1, 4.30728, 11.7204, 17.8078, -147.717, -97.1472, 129.703
0.488, -1, 4.22972, 11.6997, 17.8129, -147.741, -97.1387, 129.562
0.492, -1, 4.15216, 11.6789, 17.818, -147.766, -97.1302, 129.422
0.496, -1, 4.07458, 11.6582, 17.8232, -147.79, -97.1217, 129.281
0.5, -1, 3.997, 11.6374, 17.8283, -147.814, -97.1132, 129.141
0.504, -1, 3.91941, 11.6167, 17.8334, -147.838, -97.1047, 129
0.508, -1, 3.84181, 11.5959, 17.8385, -147.862, -97.0962, 128.859
0.512, -1, 3.7642, 11.5752, 17.8437, -147.886, -97.0877, 128.719
0.516, -1, 3.68659, 11.5544, 17.8488, -147.91, -97.0791, 128.578
0.52, -1, 3.60896, 11.5337, 17.8539, -147.934, -97.0706, 128.438
0.524, -1, 3.53133, 11.5129, 17.8591, -147.959, -97.0621, 128.297
0.528, -1, 3.4537, 11.4922, 17.8642, -147.983, -97.0536, 128.156
0.532, -1, 3.37605, 11.4714, 17.8693, -148.007, -97.0451, 128.016
0.536, -1, 3.2984, 11.4507, 17.8745, -148.031, -97.0366, 127.875
0.54, -1, 3.22074, 11.4299, 17.8796, -148.055, -97.028, 127.734
0.544, -1, 3.14307, 11.4091, 17.8847, -148.079, -97.0195, 127.594
0.548, -1, 3.06539, 11.3884, 17.8898, -148.103, -97.011, 127.453
0.552, -1, 2.9877, 11.3676, 17.895, -148.128, -97.0025, 127.312
0.556, -1, 2.91001, 11.3468, 17.9001, -148.152, -96.9939, 127.171
0.56, -1, 2.83231, 11.326, 17.9052, -148.176, -96.9854, 127.031
0.564, -1, 2.7546, 11.3053, 17.9104, -148.2, -96.9769, 126.89
0.568, -1, 2.67688, 11.2845, 17.9155, -148.224, -96.9684, 126.749
0.572, -1, 2.59916, 11.2637, 17.9207, -148.248, -96.9598, 126.608
0.576, -1, 2.52143, 11.2429, 17.9258, -148.272, -96.9513, 126.467
0.58, -1, 2.44369, 11.2221, 17.9309, -148.297, -96.9428, 126.326
0.584, -1, 2.36594, 11.2013, 17.9361, -148.321, -96.9343, 126.186
0.588, -1, 2.28818, 11.1805, 17.9412, -148.345, -96.9257, 126.045
0.592, -1, 2.21042, 11.1598, 17.9463, -148.369, -96.9172, 125.904
0.596, -1, 2.13264, 11.139, 17.9515, -148.393, -96.9087, 125.763
0.6, -1, 2.05486, 11.1182, 17.9566, -148.417, -96.9001, 125.622
0.604, -1, 1.97708, 11.0974, 17.9618, -148.442, -96.8916, 125.481
0.608, -1, 1.89928, 11.0766, 17.9669, -148.466, -96.883, 125.34
0.612, -1, 1.82147, 11.0558, 17.972, -148.49, -96.8745, 125.199
0.616, -1, 1.74366, 11.035, 17.9772, -148.514, -96.866, 125.058
0.62, -1, 1.66584, 11.0142, 17.9823, -148.538, -96.8574, 124.917
0.624, -1, 1.58801, 10.9933, 17.9875, -148.563, -96.8489, 124.776
0.628, -1, 1.51018, 10.9725, 17.9926, -148.587, -96.8404, 124.635
0.632, -1, 1.43233, 10.9517, 17.9977, -148.611, -96.8318, 124.494
0.636, -1, 1.35448, 10.9309, 18.0029, -148.635, -96.8233, 124.353
0.64, -1, 1.27662, 10.9101, 18.008, -148.659, -96.8147, 124.212
0.644, -1, 1.19875, 10.8893, 18.0132, -148.684, -96.8062, 124.071
0.648, -1, 1.12087, 10.8684, 18.0183, -148.708, -96.7977, 123.93
0.652, -1, 1.04299, 10.8476, 18.0235, -148.732, -96.7891, 123.789
0.656, -1, 0.965097, 10.8268, 18.0286, -148.756, -96.7806, 123.648
0.66, -1, 0.887196, 10.806, 18.0338, -148.78, -96.772, 123.507
0.664, -1, 0.809287, 10.7851, 18.0389, -148.805, -96.7635, 123.366
0.668, -1, 0.731371, 10.7643, 18.0441, -148.829, -96.7549, 123.224
0.672, -1, 0.653446, 10.7435, 18.0492, -148.853, -96.7464, 123.083
0.676, -1, 0.575513, 10.7226, 18.0544, -148.877, -96.7378, 122.942
0.68, -1, 0.497571, 10.7018, 18.0595, -148.902, -96.7293, 122.801
0.684, -1, 0.419622, 10.6809, 18.0647, -148.926, -96.7207, 122.66
0.688, -1, 0.341664, 10.6601, 18.0698, -148.95, -96.7122, 122.518
0.692, -1, 0.263699, 10.6393, 18.075, -148.974, -96.7036, 122.377
0.696, -1, 0.185725, 10.6184, 18.0801, -148.998, -96.6951, 122.236
0.7, -1, 0.107742, 10.5976, 18.0853, -149.023, -96.6865, 122.095
0.704, -1, 0.0297514, 10.5767, 18.0904, -149.047, -96.6779, 121.953
0.708, -1, -0.0482476, 10.5559, 18.0956, -149.071, -96.6694, 121.812
0.712, -1, -0.126255, 10.535, 18.1007, -149.095, -96.6608, 121.671
0.716, -1, -0.204271, 10.5141, 18.1059, -149.12, -96.6523, 121.529
0.72, -1, -0.282295, 10.4933, 18.111, -149.144, -96.6437, 121.388
0.724, -1, -0.360327, 10.4724, 18.1162, -149.168, -96.6352, 121.247
0.728, -1, -0.438368, 10.4515, 18.1214, -149.192, -96.6266, 121.105
0.732, -1, -0.516417, 10.4307, 18.1265, -149.217, -96.618, 120.964
0.736, -1, -0.594474, 10.4098, 18.1317, -149.241, -96.6095, 120.822
0.74, -1, -0.67254, 10.3889, 18.1368, -149.265, -96.6009, 120.681
0.744, -1, -0.750614, 10.3681, 18.142, -149.29, -96.5923, 120.54
0.748, -1, -0.828697, 10.3472, 18.1471, -149.314, -96.5838, 120.398
0.752, -1, -0.906788, 10.3263, 18.1523, -149.338, -96.5752, 120.257
0.756, -1, -0.984887, 10.3054, 18.1575, -149.362, -96.5666, 120.115
0.76, -1, -1.063, 10.2845, 18.1626, -149.387, -96.5581, 119.974
0.764, -1, -1.14111, 10.2637, 18.1678, -149.411, -96.5495, 119.832
0.768, -1, -1.21924, 10.2428, 18.173, -149.435, -96.5409, 119.691
0.772, -1, -1.29737, 10.2219, 18.1781, -149.459, -96.5323, 119.549
0.776, -1, -1.37551, 10.201, 18.1833, -149.484, -96.5238, 119.407
0.78, -1, -1.45366, 10.1801, 18.1884, -149.508, -96.5152, 119.266
0.784, -1, -1.53182, 10.1592, 18.1936, -149.532, -96.5066, 119.124
0.788, -1, -1.60999, 10.1383, 18.1988, -149.557, -96.4981, 118.983
0.792, -1, -1.68817, 10.1174, 18.2039, -149.581, -96.4895, 118.841
0.796, -1, -1.76635, 10.0965, 18.2091, -149.605, -96.4809, 118.699
0.8, -1, -1.84455, 10.0756, 18.2143, -149.63, -96.4723, 118.558
0.804, -1, -1.92275, 10.0547, 18.2194, -149.654, -96.4637, 118.416
0.808, -1, -2.00096, 10.0338, 18.2246, -149.678, -96.4552, 118.274
0.812, -1, -2.07918, 10.0128, 18.2298, -149.702, -96.4466, 118.133
0.816, -1, -2.15741, 9.99193, 18.2349, -149.727, -96.438, 117.991
0.82, -1, -2.23565, 9.97101, 18.2401, -149.751, -96.4294, 117.849
0.824, -1, -2.31389, 9.95009, 18.2453, -149.775, -96.4208, 117.707
0.828, -1, -2.39215, 9.92917, 18.2505, -149.8, -96.4122, 117.566
0.832, -1, -2.47041, 9.90824, 18.2556, -149.824, -96.4037, 117.424
0.836, -1, -2.54868, 9.88731, 18.2608, -149.848, -96.3951, 117.282
0.84, -1, -2.62697, 9.86638, 18.266, -149.873, -96.3865, 117.14
0.844, -1, -2.70526, 9.84545, 18.2711, -149.897, -96.3779, 116.998
0.848, -1, -2.78355, 9.82452, 18.2763, -149.921, -96.3693, 116.857
0.852, -1, -2.86186, 9.80358, 18.2815, -149.946, -96.3607, 116.715
0.856, -1, -2.94018, 9.78264, 18.2867, -149.97, -96.3521, 116.573
0.86, -1, -3.0185, 9.7617, 18.2918, -149.994, -96.3435, 116.431
0.864, -1, -3.09684, 9.74076, 18.297, -150.019, -96.3349, 116.289
0.868, -1, -3.17518, 9.71981, 18.3022, -150.043, -96.3263, 116.147
0.872, -1, -3.25353, 9.69886, 18.3074, -150.067, -96.3177, 116.005
0.876, -1, -3.33189, 9.67791, 18.3125, -150.092, -96.3091, 115.863
0.88, -1, -3.41026, 9.65695, 18.3177, -150.116, -96.3005, 115.721
0.884, -1, -3.48864, 9.636, 18.3229, -150.141, -96.2919, 115.579
0.888, -1, -3.56702, 9.61504, 18.3281, -150.165, -96.2833, 115.437
0.892, -1, -3.64542, 9.59408, 18.3333, -150.189, -96.2747, 115.295
0.896, -1, -3.72382, 9.57312, 18.3384, -150.214, -96.2662, 115.153
0.9, -1, -3.80223, 9.55215, 18.3436, -150.238, -96.2575, 115.011
0.904, -1, -3.88066, 9.53118, 18.3488, -150.262, -96.2489, 114.869
0.908, -1, -3.95909, 9.51021, 18.354, -150.287, -96.2403, 114.727
0.912, -1, -4.03753, 9.48924, 18.3592, -150.311, -96.2317, 114.585
0.916, -1, -4.11597, 9.46827, 18.3644, -150.336, -96.2231, 114.443
0.92, -1, -4.19443, 9.44729, 18.3695, -150.36, -96.2145, 114.3
0.924, -1, -4.2729, 9.42631, 18.3747, -150.384, -96.2059, 114.158
0.928, -1, -4.35137, 9.40533, 18.3799, -150.409, -96.1973, 114.016
0.932, -1, -4.42986, 9.38434, 18.3851, -150.433, -96.1887, 113.874
0.936, -1, -4.50835, 9.36336, 18.3903, -150.458, -96.1801, 113.732
0.94, -1, -4.58685, 9.34237, 18.3955, -150.482, -96.1715, 113.59
0.944, -1, -4.66536, 9.32138, 18.4007, -150.506, -96.1628, 113.447
0.948, -1, -4.74388, 9.30038, 18.4058, -150.531, -96.1542, 113.305
0.952, -1, -4.82241, 9.27939, 18.411, -150.555, -96.1456, 113.163
0.956, -1, -4.90095, 9.25839, 18.4162, -150.58, -96.137, 113.021
0.96, -1, -4.97949, 9.23739, 18.4214, -150.604, -96.1284, 112.878
0.964, -1, -5.05805, 9.21638, 18.4266, -150.628, -96.1198, 112.736
0.968, -1, -5.13661, 9.19538, 18.4318, -150.653, -96.1111, 112.594
0.972, -1, -5.21519, 9.17437, 18.437, -150.677, -96.1025, 112.451
0.976, -1, -5.29377, 9.15336, 18.4422, -150.702, -96.0939, 112.309
0.98, -1, -5.37236, 9.13235, 18.4474, -150.726, -96.0853, 112.166
0.984, -1, -5.45096, 9.11133, 18.4526, -150.751, -96.0767, 112.024
0.988, -1, -5.52957, 9.09031, 18.4578, -150.775, -96.068, 111.882
0.992, -1, -5.60819, 9.06929, 18.4629, -150.799, -96.0594, 111.739
0.996, -1, -5.68681, 9.04827, 18.4681, -150.824, -96.0508, 111.597
1, -1, -5.76545, 9.02725, 18.4733, -150.848, -96.0422, 111.454
1.004, -1, -5.8441, 9.00622, 18.4785, -150.873, -96.0335, 111.312
1.008, -1, -5.92275, 8.98519, 18.4837, -150.897, -96.0249, 111.169
1.012, -1, -6.00141, 8.96416, 18.4889, -150.922, -96.0163, 111.027
1.016, -1, -6.08009, 8.94312, 18.4941, -150.946, -96.0076, 110.884
1.02, -1, -6.15877, 8.92208, 18.4993, -150.971, -95.999, 110.742
1.024, -1, -6.23746, 8.90104, 18.5045, -150.995, -95.9904, 110.599
1.027, -1, -6.31616, 8.88, 18.5097, -151.019, -95.9817, 110.457
1.032, -1, -6.39487, 8.85896, 18.5149, -151.044, -95.9731, 110.314
1.036, -1, -6.47358, 8.83791, 18.5201, -151.068, -95.9645, 110.171
1.04, -1, -6.55231, 8.81686, 18.5253, -151.093, -95.9558, 110.029
1.044, -1, -6.63105, 8.79581, 18.5305, -151.117, -95.9472, 109.886
1.048, -1, -6.70979, 8.77476, 18.5357, -151.142, -95.9386, 109.743
1.052, -1, -6.78854, 8.7537, 18.5409, -151.166, -95.9299, 109.601
1.055, -1, -6.86731, 8.73264, 18.5461, -151.191, -95.9213, 109.458
1.06, -1, -6.94608, 8.71158, 18.5513, -151.215, -95.9126, 109.315
1.064, -1, -7.02486, 8.69052, 18.5566, -151.24, -95.904, 109.173
1.068, -1, -7.10365, 8.66945, 18.5618, -151.264, -95.8954, 109.03
1.072, -1, -7.18245, 8.64838, 18.567, -151.289, -95.8867, 108.887
1.076, -1, -7.26126, 8.62731, 18.5722, -151.313, -95.8781, 108.744
1.08, -1, -7.34008, 8.60624, 18.5774, -151.338, -95.8694, 108.602
1.084, -1, -7.41891, 8.58516, 18.5826, -151.362, -95.8608, 108.459
1.088, -1, -7.49775, 8.56408, 18.5878, -151.387, -95.8521, 108.316
1.091, -1, -7.5766, 8.543, 18.593, -151.411, -95.8435, 108.173
1.096, -1, -7.65545, 8.52192, 18.5982, -151.436, -95.8348, 108.03
1.1, -1, -7.73432, 8.50083, 18.6034, -151.46, -95.8261, 107.887
1.104, -1, -7.81319, 8.47974, 18.6086, -151.485, -95.8175, 107.744
1.108, -1, -7.89208, 8.45865, 18.6139, -151.509, -95.8088, 107.602
1.112, -1, -7.97097, 8.43756, 18.6191, -151.534, -95.8002, 107.459
1.116, -1, -8.04988, 8.41646, 18.6243, -151.558, -95.7915, 107.316
1.119, -1, -8.12879, 8.39536, 18.6295, -151.583, -95.7829, 107.173
1.124, -1, -8.20771, 8.37426, 18.6347, -151.607, -95.7742, 107.03
1.128, -1, -8.28665, 8.35315, 18.6399, -151.632, -95.7656, 106.887
1.132, -1, -8.36559, 8.33205, 18.6451, -151.656, -95.7569, 106.744
1.136, -1, -8.44454, 8.31094, 18.6504, -151.681, -95.7482, 106.601
1.14, -1, -8.5235, 8.28983, 18.6556, -151.706, -95.7396, 106.458
1.144, -1, -8.60247, 8.26871, 18.6608, -151.73, -95.7309, 106.315
1.147, -1, -8.68145, 8.24759, 18.666, -151.755, -95.7222, 106.172
1.152, -1, -8.76044, 8.22647, 18.6712, -151.779, -95.7136, 106.028
1.156, -1, -8.83944, 8.20535, 18.6765, -151.804, -95.7049, 105.885
1.16, -1, -8.91845, 8.18423, 18.6817, -151.828, -95.6963, 105.742
1.164, -1, -8.99747, 8.1631, 18.6869, -151.853, -95.6876, 105.599
1.168, -1, -9.0765, 8.14197, 18.6921, -151.877, -95.6789, 105.456
1.172, -1, -9.15554, 8.12084, 18.6973, -151.902, -95.6702, 105.313
1.175, -1, -9.23459, 8.0997, 18.7026, -151.927, -95.6616, 105.169
1.18, -1, -9.31365, 8.07856, 18.7078, -151.951, -95.6529, 105.026
1.184, -1, -9.39271, 8.05742, 18.713, -151.976, -95.6442, 104.883
1.188, -1, -9.47179, 8.03628, 18.7182, -152, -95.6355, 104.74
1.192, -1, -9.55088, 8.01513, 18.7235, -152.025, -95.6269, 104.596
1.196, -1, -9.62998, 7.99399, 18.7287, -152.049, -95.6182, 104.453
1.2, -1, -9.70908, 7.97284, 18.7339, -152.074, -95.6095, 104.31
1.204, -1, -9.7882, 7.95168, 18.7391, -152.099, -95.6008, 104.166
1.208, -1, -9.86733, 7.93052, 18.7444, -152.123, -95.5921, 104.023
1.212, -1, -9.94647, 7.90937, 18.7496, -152.148, -95.5835, 103.88
1.216, -1, -10.0256, 7.88821, 18.7548, -152.172, -95.5748, 103.736
1.22, -1, -10.1048, 7.86704, 18.7601, -152.197, -95.5661, 103.593
1.224, -1, -10.1839, 7.84587, 18.7653, -152.222, -95.5574, 103.449
1.228, -1, -10.2631, 7.8247, 18.7705, -152.246, -95.5487, 103.306
1.232, -1, -10.3423, 7.80353, 18.7758, -152.271, -95.54, 103.163
1.236, -1, -10.4215, 7.78236, 18.781, -152.295, -95.5313, 103.019
1.24, -1, -10.5007, 7.76118, 18.7862, -152.32, -95.5227, 102.876
1.244, -1, -10.5799, 7.74, 18.7915, -152.345, -95.514, 102.732
1.248, -1, -10.6591, 7.71882, 18.7967, -152.369, -95.5053, 102.589
1.252, -1, -10.7384, 7.69763, 18.8019, -152.394, -95.4966, 102.445
1.256, -1, -10.8176, 7.67644, 18.8072, -152.419, -95.4879, 102.301
1.26, -1, -10.8969, 7.65525, 18.8124, -152.443, -95.4792, 102.158
1.264, -1, -10.9761, 7.63406, 18.8176, -152.468, -95.4705, 102.014
1.267, -1, -11.0554, 7.61286, 18.8229, -152.493, -95.4618, 101.871
1.272, -1, -11.1347, 7.59167, 18.8281, -152.517, -95.4531, 101.727
1.276, -1, -11.214, 7.57047, 18.8333, -152.542, -95.4444, 101.583
1.28, -1, -11.2933, 7.54926, 18.8386, -152.566, -95.4357, 101.44
1.284, -1, -11.3726, 7.52805, 18.8438, -152.591, -95.427, 101.296
1.288, -1, -11.4519, 7.50685, 18.8491, -152.616, -95.4183, 101.152
1.292, -1, -11.5313, 7.48563, 18.8543, -152.64, -95.4096, 101.009
1.295, -1, -11.6106, 7.46442, 18.8596, -152.665, -95.4009, 100.865
1.3, -1, -11.69, 7.4432, 18.8648, -152.69, -95.3922, 100.721
1.304, -1, -11.7693, 7.42198, 18.87, -152.714, -95.3835, 100.577
1.308, -1, -11.8487, 7.40076, 18.8753, -152.739, -95.3748, 100.433
1.312, -1, -11.9281, 7.37953, 18.8805, -152.764, -95.3661, 100.29
1.316, -1, -12.0075, 7.35831, 18.8858, -152.788, -95.3573, 100.146
1.32, -1, -12.0869, 7.33708, 18.891, -152.813, -95.3486, 100.002
1.324, -1, -12.1663, 7.31584, 18.8963, -152.838, -95.3399, 99.8581
1.328, -1, -12.2457, 7.29461, 18.9015, -152.863, -95.3312, 99.7142
1.332, -1, -12.3252, 7.27337, 18.9068, -152.887, -95.3225, 99.5703
1.336, -1, -12.4046, 7.25213, 18.912, -152.912, -95.3138, 99.4263
1.34, -1, -12.4841, 7.23088, 18.9173, -152.937, -95.3051, 99.2824
1.344, -1, -12.5635, 7.20964, 18.9225, -152.961, -95.2963, 99.1384
1.348, -1, -12.643, 7.18839, 18.9278, -152.986, -95.2876, 98.9945
1.352, -1, -12.7225, 7.16713, 18.933, -153.011, -95.2789, 98.8505
1.356, -1, -12.802, 7.14588, 18.9383, -153.035, -95.2702, 98.7064
1.36, -1, -12.8815, 7.12462, 18.9435, -153.06, -95.2615, 98.5624
1.364, -1, -12.961, 7.10336, 18.9488, -153.085, -95.2527, 98.4183
1.368, -1, -13.0405, 7.0821, 18.954, -153.11, -95.244, 98.2743
1.372, -1, -13.1201, 7.06083, 18.9593, -153.134, -95.2353, 98.1302
1.376, -1, -13.1996, 7.03957, 18.9645, -153.159, -95.2266, 97.9861
1.38, -1, -13.2792, 7.01829, 18.9698, -153.184, -95.2178, 97.8419
1.384, -1, -13.3588, 6.99702, 18.9751, -153.208, -95.2091, 97.6978
1.388, -1, -13.4383, 6.97574, 18.9803, -153.233, -95.2004, 97.5536
1.392, -1, -13.5179, 6.95447, 18.9856, -153.258, -95.1916, 97.4094
1.396, -1, -13.5975, 6.93318, 18.9908, -153.283, -95.1829, 97.2652
1.4, -1, -13.6771, 6.9119, 18.9961, -153.307, -95.1742, 97.121
1.404, -1, -13.7567, 6.89061, 19.0014, -153.332, -95.1654, 96.9768
1.408, -1, -13.8364, 6.86932, 19.0066, -153.357, -95.1567, 96.8325
1.412, -1, -13.916, 6.84803, 19.0119, -153.382, -95.148, 96.6882
1.416, -1, -13.9956, 6.82673, 19.0171, -153.406, -95.1392, 96.5439
1.42, -1, -14.0753, 6.80544, 19.0224, -153.431, -95.1305, 96.3996
1.424, -1, -14.155, 6.78413, 19.0277, -153.456, -95.1217, 96.2553
1.428, -1, -14.2347, 6.76283, 19.0329, -153.481, -95.113, 96.1109
1.432, -1, -14.3143, 6.74152, 19.0382, -153.505, -95.1043, 95.9666
1.436, -1, -14.394, 6.72021, 19.0435, -153.53, -95.0955, 95.8222
1.44, -1, -14.4738, 6.6989, 19.0487, -153.555, -95.0868, 95.6778
1.444, -1, -14.5535, 6.67759, 19.054, -153.58, -95.078, 95.5334
1.448, -1, -14.6332, 6.65627, 19.0593, -153.605, -95.0693, 95.3889
1.452, -1, -14.7129, 6.63495, 19.0645, -153.629, -95.0605, 95.2444
1.456, -1, -14.7927, 6.61363, 19.0698, -153.654, -95.0518, 95.1
1.46, -1, -14.8725, 6.5923, 19.0751, -153.679, -95.043, 94.9555
1.464, -1, -14.9522, 6.57097, 19.0804, -153.704, -95.0343, 94.8109
1.468, -1, -15.032, 6.54964, 19.0856, -153.729, -95.0255, 94.6664
1.472, -1, -15.1118, 6.52831, 19.0909, -153.753, -95.0168, 94.5219
1.476, -1, -15.1916, 6.50697, 19.0962, -153.778, -95.008, 94.3773
1.48, -1, -15.2714, 6.48563, 19.1014, -153.803, -94.9993, 94.2327
1.484, -1, -15.3512, 6.46429, 19.1067, -153.828, -94.9905, 94.0881
1.488, -1, -15.4311, 6.44294, 19.112, -153.853, -94.9817, 93.9434
1.492, -1, -15.5109, 6.42159, 19.1173, -153.877, -94.973, 93.7988
1.496, -1, -15.5908, 6.40024, 19.1225, -153.902, -94.9642, 93.6541
1.5, -1, -15.6707, 6.37889, 19.1278, -153.927, -94.9555, 93.5094
1.504, -1, -15.7505, 6.35753, 19.1331, -153.952, -94.9467, 93.3647
1.508, -1, -15.8304, 6.33617, 19.1384, -153.977, -94.9379, 93.22
1.512, -1, -15.9103, 6.31481, 19.1437, -154.002, -94.9292, 93.0752
1.516, -1, -15.9902, 6.29344, 19.1489, -154.026, -94.9204, 92.9304
1.52, -1, -16.0702, 6.27207, 19.1542, -154.051, -94.9116, 92.7857
1.524, -1, -16.1501, 6.2507, 19.1595, -154.076, -94.9029, 92.6408
1.528, -1, -16.23, 6.22933, 19.1648, -154.101, -94.8941, 92.496
1.532, -1, -16.31, 6.20795, 19.1701, -154.126, -94.8853, 92.3512
1.536, -1, -16.3899, 6.18657, 19.1753, -154.151, -94.8766, 92.2063
1.54, -1, -16.4699, 6.16519, 19.1806, -154.176, -94.8678, 92.0614
1.544, -1, -16.5499, 6.1438, 19.1859, -154.2, -94.859, 91.9165
1.548, -1, -16.6299, 6.12241, 19.1912, -154.225, -94.8502, 91.7716
1.552, -1, -16.7099, 6.10102, 19.1965, -154.25, -94.8414, 91.6266
1.556, -1, -16.7899, 6.07963, 19.2018, -154.275, -94.8327, 91.4816
1.56, -1, -16.87, 6.05823, 19.2071, -154.3, -94.8239, 91.3367
1.564, -1, -16.95, 6.03683, 19.2124, -154.325, -94.8151, 91.1917
1.568, -1, -17.0301, 6.01542, 19.2176, -154.35, -94.8063, 91.0466
1.572, -1, -17.1101, 5.99402, 19.2229, -154.374, -94.7975, 90.9016
1.576, -1, -17.1902, 5.97261, 19.2282, -154.399, -94.7888, 90.7565
1.58, -1, -17.2703, 5.9512, 19.2335, -154.424, -94.78, 90.6114
1.584, -1, -17.3504, 5.92978, 19.2388, -154.449, -94.7712, 90.4663
1.588, -1, -17.4305, 5.90836, 19.2441, -154.474, -94.7624, 90.3212
1.592, -1, -17.5106, 5.88694, 19.2494, -154.499, -94.7536, 90.176
1.596, -1, -17.5907, 5.86552, 19.2547, -154.524, -94.7448, 90.0309
1.6, -1, -17.6709, 5.84409, 19.26, -154.549, -94.736, 89.8857
1.604, -1, -17.751, 5.82266, 19.2653, -154.574, -94.7272, 89.7405
1.608, -1, -17.8312, 5.80123, 19.2706, -154.599, -94.7184, 89.5953
1.612, -1, -17.9114, 5.77979, 19.2759, -154.624, -94.7096, 89.45
1.616, -1, -17.9915, 5.75835, 19.2812, -154.648, -94.7008, 89.3047
1.62, -1, -18.0717, 5.73691, 19.2865, -154.673, -94.692, 89.1595
1.624, -1, -18.1519, 5.71547, 19.2918, -154.698, -94.6832, 89.0142
1.628, -1, -18.2321, 5.69402, 19.2971, -154.723, -94.6744, 88.8688
1.632, -1, -18.3124, 5.67257, 19.3024, -154.748, -94.6656, 88.7235
1.636, -1, -18.3926, 5.65112, 19.3077, -154.773, -94.6568, 88.5781
1.64, -1, -18.4729, 5.62966, 19.313, -154.798, -94.648, 88.4327
1.644, -1, -18.5531, 5.6082, 19.3183, -154.823, -94.6392, 88.2873
1.648, -1, -18.6334, 5.58674, 19.3236, -154.848, -94.6304, 88.1419
1.652, -1, -18.7137, 5.56528, 19.3289, -154.873, -94.6216, 87.9965
1.656, -1, -18.794, 5.54381, 19.3342, -154.898, -94.6128, 87.851
1.66, -1, -18.8743, 5.52234, 19.3395, -154.923, -94.604, 87.7055
1.664, -1, -18.9546, 5.50086, 19.3448, -154.948, -94.5952, 87.56
1.668, -1, -19.0349, 5.47939, 19.3501, -154.973, -94.5864, 87.4145
1.672, -1, -19.1153, 5.45791, 19.3554, -154.998, -94.5776, 87.2689
1.676, -1, -19.1956, 5.43642, 19.3607, -155.023, -94.5687, 87.1234
1.68, -1, -19.276, 5.41494, 19.366, -155.048, -94.5599, 86.9778
1.684, -1, -19.3563, 5.39345, 19.3713, -155.073, -94.5511, 86.8322
1.688, -1, -19.4367, 5.37196, 19.3767, -155.098, -94.5423, 86.6866
1.692, -1, -19.5171, 5.35046, 19.382, -155.123, -94.5335, 86.5409
1.696, -1, -19.5975, 5.32896, 19.3873, -155.148, -94.5247, 86.3953
1.7, -1, -19.6779, 5.30746, 19.3926, -155.173, -94.5158, 86.2496
1.704, -1, -19.7583, 5.28596, 19.3979, -155.198, -94.507, 86.1039
1.708, -1, -19.8388, 5.26445, 19.4032, -155.223, -94.4982, 85.9581
1.712, -1, -19.9192, 5.24294, 19.4085, -155.248, -94.4893, 85.8124
1.716, -1, -19.9997, 5.22143, 19.4139, -155.273, -94.4805, 85.6666
1.72, -1, -20.0802, 5.19992, 19.4192, -155.298, -94.4717, 85.5208
1.724, -1, -20.1606, 5.1784, 19.4245, -155.323, -94.4629, 85.375
1.728, -1, -20.2411, 5.15688, 19.4298, -155.348, -94.454, 85.2292
1.732, -1, -20.3216, 5.13535, 19.4351, -155.373, -94.4452, 85.0834
1.736, -1, -20.4022, 5.11383, 19.4405, -155.398, -94.4364, 84.9375
1.74, -1, -20.4827, 5.0923, 19.4458, -155.423, -94.4275, 84.7916
1.744, -1, -20.5632, 5.07076, 19.4511, -155.448, -94.4187, 84.6457
1.748, -1, -20.6438, 5.04923, 19.4564, -155.473, -94.4099, 84.4998
1.752, -1, -20.7243, 5.02769, 19.4617, -155.498, -94.401, 84.3538
1.756, -1, -20.8049, 5.00615, 19.4671, -155.523, -94.3922, 84.2079
1.76, -1, -20.8855, 4.9846, 19.4724, -155.548, -94.3833, 84.0619
1.764, -1, -20.9661, 4.96305, 19.4777, -155.573, -94.3745, 83.9159
1.768, -1, -21.0467, 4.9415, 19.483, -155.598, -94.3657, 83.7698
1.772, -1, -21.1273, 4.91995, 19.4884, -155.623, -94.3568, 83.6238
1.776, -1, -21.2079, 4.89839, 19.4937, -155.648, -94.348, 83.4777
1.78, -1, -21.2886, 4.87683, 19.499, -155.673, -94.3391, 83.3316
1.784, -1, -21.3692, 4.85527, 19.5043, -155.698, -94.3303, 83.1855
1.788, -1, -21.4499, 4.8337, 19.5097, -155.723, -94.3214, 83.0394
1.792, -1, -21.5305, 4.81213, 19.515, -155.748, -94.3126, 82.8933
1.796, -1, -21.6112, 4.79056, 19.5203, -155.774, -94.3037, 82.7471
1.8, -1, -21.6919, 4.76898, 19.5257, -155.799, -94.2949, 82.6009
1.804, -1, -21.7726, 4.74741, 19.531, -155.824, -94.286, 82.4547
1.808, -1, -21.8533, 4.72582, 19.5363, -155.849, -94.2772, 82.3084
1.812, -1, -21.9341, 4.70424, 19.5417, -155.874, -94.2683, 82.1622
1.816, -1, -22.0148, 4.68265, 19.547, -155.899, -94.2595, 82.0159
1.82, -1, -22.0956, 4.66106, 19.5523, -155.924, -94.2506, 81.8696
1.824, -1, -22.1763, 4.63947, 19.5577, -155.949, -94.2417, 81.7233
1.828, -1, -22.2571, 4.61787, 19.563, -155.974, -94.2329, 81.577
1.832, -1, -22.3379, 4.59627, 19.5684, -155.999, -94.224, 81.4306
1.836, -1, -22.4187, 4.57467, 19.5737, -156.025, -94.2151, 81.2843
1.84, -1, -22.4995, 4.55306, 19.579, -156.05, -94.2063, 81.1379
1.844, -1, -22.5803, 4.53146, 19.5844, -156.075, -94.1974, 80.9914
1.848, -1, -22.6611, 4.50984, 19.5897, -156.1, -94.1885, 80.845
1.852, -1, -22.742, 4.48823, 19.5951, -156.125, -94.1797, 80.6985
1.856, -1, -22.8228, 4.46661, 19.6004, -156.15, -94.1708, 80.5521
1.86, -1, -22.9037, 4.44499, 19.6057, -156.175, -94.1619, 80.4055
1.864, -1, -22.9846, 4.42337, 19.6111, -156.2, -94.1531, 80.259
1.868, -1, -23.0655, 4.40174, 19.6164, -156.226, -94.1442, 80.1125
1.872, -1, -23.1464, 4.38011, 19.6218, -156.251, -94.1353, 79.9659
1.876, -1, -23.2273, 4.35847, 19.6271, -156.276, -94.1264, 79.8193
1.88, -1, -23.3082, 4.33684, 19.6325, -156.301, -94.1175, 79.6727
1.884, -1, -23.3891, 4.3152, 19.6378, -156.326, -94.1087, 79.5261
1.888, -1, -23.4701, 4.29355, 19.6432, -156.351, -94.0998, 79.3794
1.892, -1, -23.5511, 4.27191, 19.6485, -156.377, -94.0909, 79.2328
1.896, -1, -23.632, 4.25026, 19.6539, -156.402, -94.082, 79.0861
1.9, -1, -23.713, 4.2286, 19.6592, -156.427, -94.0731, 78.9393
1.904, -1, -23.794, 4.20695, 19.6646, -156.452, -94.0643, 78.7926
1.908, -1, -23.875, 4.18529, 19.6699, -156.477, -94.0554, 78.6458
1.912, -1, -23.956, 4.16363, 19.6753, -156.502, -94.0465, 78.4991
1.916, -1, -24.0371, 4.14196, 19.6806, -156.528, -94.0376, 78.3523
1.92, -1, -24.1181, 4.12029, 19.686, -156.553, -94.0287, 78.2054
1.924, -1, -24.1992, 4.09862, 19.6913, -156.578, -94.0198, 78.0586
1.928, -1, -24.2802, 4.07694, 19.6967, -156.603, -94.0109, 77.9117
1.932, -1, -24.3613, 4.05527, 19.702, -156.628, -94.002, 77.7648
1.936, -1, -24.4424, 4.03358, 19.7074, -156.654, -93.9931, 77.6179
1.94, -1, -24.5235, 4.0119, 19.7128, -156.679, -93.9842, 77.471
1.944, -1, -24.6046, 3.99021, 19.7181, -156.704, -93.9753, 77.324
1.948, -1, -24.6857, 3.96852, 19.7235, -156.729, -93.9664, 77.1771
1.952, -1, -24.7669, 3.94683, 19.7288, -156.754, -93.9575, 77.0301
1.956, -1, -24.848, 3.92513, 19.7342, -156.78, -93.9486, 76.883
1.96, -1, -24.9292, 3.90343, 19.7396, -156.805, -93.9397, 76.736
1.964, -1, -25.0104, 3.88173, 19.7449, -156.83, -93.9308, 76.5889
1.968, -1, -25.0916, 3.86002, 19.7503, -156.855, -93.9219, 76.4419
1.972, -1, -25.1728, 3.83831, 19.7557, -156.881, -93.913, 76.2948
1.976, -1, -25.254, 3.8166, 19.761, -156.906, -93.9041, 76.1476
1.98, -1, -25.3352, 3.79488, 19.7664, -156.931, -93.8952, 76.0005
1.984, -1, -25.4164, 3.77316, 19.7718, -156.956, -93.8863, 75.8533
1.988, -1, -25.4977, 3.75144, 19.7771, -156.982, -93.8773, 75.7061
1.992, -1, -25.5789, 3.72971, 19.7825, -157.007, -93.8684, 75.5589
1.996, -1, -25.6602, 3.70798, 19.7879, -157.032, -93.8595, 75.4117
1.999, -1, -25.7415, 3.68625, 19.7932, -157.057, -93.8506, 75.2644
2.004, -1, -25.8228, 3.66452, 19.7986, -157.083, -93.8417, 75.1171
2.008, -1, -25.9041, 3.64278, 19.804, -157.108, -93.8328, 74.9699
2.012, -1, -25.9854, 3.62104, 19.8094, -157.133, -93.8238, 74.8225
2.015, -1, -26.0667, 3.59929, 19.8147, -157.158, -93.8149, 74.6752
2.019, -1, -26.1481, 3.57754, 19.8201, -157.184, -93.806, 74.5278
2.024, -1, -26.2294, 3.55579, 19.8255, -157.209, -93.7971, 74.3804
2.028, -1, -26.3108, 3.53404, 19.8309, -157.234, -93.7881, 74.233
2.031, -1, -26.3922, 3.51228, 19.8362, -157.26, -93.7792, 74.0856
2.036, -1, -26.4735, 3.49052, 19.8416, -157.285, -93.7703, 73.9382
2.04, -1, -26.5549, 3.46875, 19.847, -157.31, -93.7614, 73.7907
2.044, -1, -26.6364, 3.44699, 19.8524, -157.335, -93.7524, 73.6432
2.048, -1, -26.7178, 3.42522, 19.8578, -157.361, -93.7435, 73.4957
2.051, -1, -26.7992, 3.40344, 19.8631, -157.386, -93.7346, 73.3482
2.055, -1, -26.8807, 3.38167, 19.8685, -157.411, -93.7256, 73.2006
2.06, -1, -26.9621, 3.35989, 19.8739, -157.437, -93.7167, 73.053
2.064, -1, -27.0436, 3.3381, 19.8793, -157.462, -93.7077, 72.9054
2.068, -1, -27.1251, 3.31632, 19.8847, -157.487, -93.6988, 72.7578
2.071, -1, -27.2066, 3.29453, 19.8901, -157.513, -93.6899, 72.6101
2.076, -1, -27.2881, 3.27273, 19.8954, -157.538, -93.6809, 72.4625
2.08, -1, -27.3696, 3.25094, 19.9008, -157.563, -93.672, 72.3148
2.084, -1, -27.4511, 3.22914, 19.9062, -157.589, -93.663, 72.1671
2.087, -1, -27.5327, 3.20734, 19.9116, -157.614, -93.6541, 72.0194
2.092, -1, -27.6142, 3.18553, 19.917, -157.639, -93.6451, 71.8716
2.096, -1, -27.6958, 3.16372, 19.9224, -157.665, -93.6362, 71.7238
2.1, -1, -27.7774, 3.14191, 19.9278, -157.69, -93.6272, 71.576
2.104, -1, -27.859, 3.12009, 19.9332, -157.716, -93.6183, 71.4282
2.107, -1, -27.9406, 3.09828, 19.9386, -157.741, -93.6093, 71.2804
2.111, -1, -28.0222, 3.07646, 19.9439, -157.766, -93.6004, 71.1325
2.116, -1, -28.1038, 3.05463, 19.9493, -157.792, -93.5914, 70.9846
2.12, -1, -28.1855, 3.0328, 19.9547, -157.817, -93.5825, 70.8367
2.124, -1, -28.2671, 3.01097, 19.9601, -157.842, -93.5735, 70.6888
2.127, -1, -28.3488, 2.98914, 19.9655, -157.868, -93.5646, 70.5409
2.132, -1, -28.4304, 2.9673, 19.9709, -157.893, -93.5556, 70.3929
2.136, -1, -28.5121, 2.94546, 19.9763, -157.919, -93.5466, 70.2449
2.14, -1, -28.5938, 2.92361, 19.9817, -157.944, -93.5377, 70.0969
2.143, -1, -28.6755, 2.90177, 19.9871, -157.969, -93.5287, 69.9489
2.148, -1, -28.7573, 2.87992, 19.9925, -157.995, -93.5197, 69.8008
2.152, -1, -28.839, 2.85806, 19.9979, -158.02, -93.5108, 69.6527
2.156, -1, -28.9208, 2.83621, 20.0033, -158.046, -93.5018, 69.5046
2.16, -1, -29.0025, 2.81435, 20.0087, -158.071, -93.4928, 69.3565
2.163, -1, -29.0843, 2.79248, 20.0141, -158.096, -93.4839, 69.2084
2.168, -1, -29.1661, 2.77062, 20.0195, -158.122, -93.4749, 69.0602
2.172, -1, -29.2479, 2.74875, 20.0249, -158.147, -93.4659, 68.912
2.176, -1, -29.3297, 2.72687, 20.0303, -158.173, -93.4569, 68.7638
2.179, -1, -29.4115, 2.705, 20.0357, -158.198, -93.448, 68.6156
2.184, -1, -29.4933, 2.68312, 20.0411, -158.224, -93.439, 68.4673
2.188, -1, -29.5752, 2.66124, 20.0466, -158.249, -93.43, 68.319
2.192, -1, -29.657, 2.63935, 20.052, -158.274, -93.421, 68.1708
2.196, -1, -29.7389, 2.61746, 20.0574, -158.3, -93.412, 68.0224
2.199, -1, -29.8208, 2.59557, 20.0628, -158.325, -93.4031, 67.8741
2.204, -1, -29.9027, 2.57367, 20.0682, -158.351, -93.3941, 67.7257
2.208, -1, -29.9846, 2.55177, 20.0736, -158.376, -93.3851, 67.5773
2.212, -1, -30.0665, 2.52987, 20.079, -158.402, -93.3761, 67.4289
2.216, -1, -30.1484, 2.50797, 20.0844, -158.427, -93.3671, 67.2805
2.219, -1, -30.2304, 2.48606, 20.0898, -158.453, -93.3581, 67.1321
2.224, -1, -30.3123, 2.46414, 20.0953, -158.478, -93.3491, 66.9836
2.228, -1, -30.3943, 2.44223, 20.1007, -158.504, -93.3401, 66.8351
2.232, -1, -30.4763, 2.42031, 20.1061, -158.529, -93.3311, 66.6866
2.235, -1, -30.5583, 2.39839, 20.1115, -158.555, -93.3222, 66.538
2.24, -1, -30.6403, 2.37646, 20.1169, -158.58, -93.3132, 66.3895
2.244, -1, -30.7223, 2.35453, 20.1224, -158.606, -93.3041, 66.2409
2.248, -1, -30.8043, 2.3326, 20.1278, -158.631, -93.2952, 66.0922
2.252, -1, -30.8864, 2.31066, 20.1332, -158.657, -93.2861, 65.9436
2.255, -1, -30.9684, 2.28873, 20.1386, -158.682, -93.2771, 65.795
2.259, -1, -31.0505, 2.26678, 20.144, -158.708, -93.2681, 65.6463
2.264, -1, -31.1326, 2.24484, 20.1495, -158.733, -93.2591, 65.4976
2.268, -1, -31.2146, 2.22289, 20.1549, -158.759, -93.2501, 65.3489
2.272, -1, -31.2968, 2.20094, 20.1603, -158.784, -93.2411, 65.2001
2.275, -1, -31.3789, 2.17898, 20.1657, -158.81, -93.2321, 65.0513
2.28, -1, -31.461, 2.15702, 20.1712, -158.835, -93.2231, 64.9025
2.284, -1, -31.5431, 2.13506, 20.1766, -158.861, -93.2141, 64.7537
2.288, -1, -31.6253, 2.11309, 20.182, -158.886, -93.2051, 64.6049
2.291, -1, -31.7075, 2.09112, 20.1874, -158.912, -93.1961, 64.456
2.296, -1, -31.7896, 2.06915, 20.1929, -158.937, -93.187, 64.3072
2.3, -1, -31.8718, 2.04718, 20.1983, -158.963, -93.178, 64.1582
2.304, -1, -31.954, 2.0252, 20.2037, -158.988, -93.169, 64.0093
2.308, -1, -32.0363, 2.00322, 20.2092, -159.014, -93.16, 63.8604
2.311, -1, -32.1185, 1.98123, 20.2146, -159.04, -93.151, 63.7114
2.316, -1, -32.2007, 1.95924, 20.22, -159.065, -93.142, 63.5624
2.32, -1, -32.283, 1.93725, 20.2255, -159.091, -93.1329, 63.4134
2.324, -1, -32.3652, 1.91525, 20.2309, -159.116, -93.1239, 63.2644
2.328, -1, -32.4475, 1.89325, 20.2363, -159.142, -93.1149, 63.1153
2.331, -1, -32.5298, 1.87125, 20.2418, -159.167, -93.1059, 62.9662
2.336, -1, -32.6121, 1.84925, 20.2472, -159.193, -93.0968, 62.8171
2.34, -1, -32.6944, 1.82724, 20.2527, -159.219, -93.0878, 62.668
2.344, -1, -32.7768, 1.80523, 20.2581, -159.244, -93.0788, 62.5188
2.347, -1, -32.8591, 1.78321, 20.2635, -159.27, -93.0697, 62.3696
2.352, -1, -32.9415, 1.76119, 20.269, -159.295, -93.0607, 62.2204
2.356, -1, -33.0238, 1.73917, 20.2744, -159.321, -93.0517, 62.0712
2.36, -1, -33.1062, 1.71714, 20.2799, -159.347, -93.0426, 61.922
2.364, -1, -33.1886, 1.69512, 20.2853, -159.372, -93.0336, 61.7727
2.367, -1, -33.271, 1.67308, 20.2908, -159.398, -93.0245, 61.6234
2.372, -1, -33.3534, 1.65105, 20.2962, -159.423, -93.0155, 61.4741
2.376, -1, -33.4358, 1.62901, 20.3016, -159.449, -93.0064, 61.3248
2.38, -1, -33.5183, 1.60697, 20.3071, -159.475, -92.9974, 61.1754
2.383, -1, -33.6007, 1.58492, 20.3125, -159.5, -92.9884, 61.0261
2.388, -1, -33.6832, 1.56287, 20.318, -159.526, -92.9793, 60.8767
2.392, -1, -33.7657, 1.54082, 20.3234, -159.551, -92.9703, 60.7272
2.396, -1, -33.8482, 1.51877, 20.3289, -159.577, -92.9612, 60.5778
2.4, -1, -33.9307, 1.49671, 20.3343, -159.603, -92.9522, 60.4283
2.403, -1, -34.0132, 1.47465, 20.3398, -159.628, -92.9431, 60.2788
2.408, -1, -34.0957, 1.45258, 20.3452, -159.654, -92.9341, 60.1293
2.412, -1, -34.1782, 1.43051, 20.3507, -159.68, -92.925, 59.9798
2.416, -1, -34.2608, 1.40844, 20.3562, -159.705, -92.9159, 59.8302
2.42, -1, -34.3434, 1.38636, 20.3616, -159.731, -92.9069, 59.6807
2.423, -1, -34.4259, 1.36429, 20.3671, -159.757, -92.8978, 59.5311
2.428, -1, -34.5085, 1.3422, 20.3725, -159.782, -92.8888, 59.3814
2.432, -1, -34.5911, 1.32012, 20.378, -159.808, -92.8797, 59.2318
2.436, -1, -34.6737, 1.29803, 20.3834, -159.834, -92.8706, 59.0821
2.439, -1, -34.7564, 1.27594, 20.3889, -159.859, -92.8616, 58.9324
2.444, -1, -34.839, 1.25384, 20.3944, -159.885, -92.8525, 58.7827
2.448, -1, -34.9217, 1.23174, 20.3998, -159.911, -92.8434, 58.633
2.452, -1, -35.0043, 1.20964, 20.4053, -159.937, -92.8344, 58.4832
2.456, -1, -35.087, 1.18754, 20.4107, -159.962, -92.8253, 58.3334
2.459, -1, -35.1697, 1.16543, 20.4162, -159.988, -92.8162, 58.1836
2.464, -1, -35.2524, 1.14332, 20.4217, -160.014, -92.8071, 58.0338
2.468, -1, -35.3351, 1.12121, 20.4271, -160.039, -92.7981, 57.8839
2.472, -1, -35.4176, 1.09912, 20.4326, -160.065, -92.789, 57.7341
2.476, -1, -35.4998, 1.07708, 20.4381, -160.091, -92.7799, 57.5842
2.479, -1, -35.5816, 1.05512, 20.4437, -160.116, -92.7708, 57.4344
2.484, -1, -35.6629, 1.03329, 20.4493, -160.142, -92.7618, 57.2847
2.488, -1, -35.7434, 1.01162, 20.455, -160.168, -92.7527, 57.1353
2.492, -1, -35.8231, 0.99016, 20.4608, -160.193, -92.7437, 56.9863
2.495, -1, -35.9018, 0.968943, 20.4666, -160.219, -92.7347, 56.8381
2.5, -1, -35.9795, 0.948033, 20.4725, -160.244, -92.7257, 56.691
2.504, -1, -36.056, 0.927506, 20.4784, -160.269, -92.7169, 56.5453
2.508, -1, -36.1308, 0.907455, 20.4844, -160.293, -92.7082, 56.4017
2.512, -1, -36.2037, 0.887967, 20.4903, -160.318, -92.6996, 56.2606
2.515, -1, -36.2743, 0.86912, 20.4963, -160.341, -92.6912, 56.1228
2.52, -1, -36.3425, 0.850975, 20.5022, -160.364, -92.683, 55.989
2.524, -1, -36.408, 0.833573, 20.5079, -160.386, -92.6751, 55.8601
2.528, -1, -36.4706, 0.816948, 20.5133, -160.407, -92.6676, 55.7367
2.531, -1, -36.5302, 0.801133, 20.5185, -160.427, -92.6605, 55.6198
2.536, -1, -36.5866, 0.786178, 20.5232, -160.446, -92.6538, 55.5101
2.54, -1, -36.6395, 0.772139, 20.5276, -160.463, -92.6476, 55.4081
2.544, -1, -36.6888, 0.759062, 20.5314, -160.48, -92.6419, 55.3144
2.548, -1, -36.7343, 0.74697, 20.5348, -160.494, -92.6367, 55.2294
2.551, -1, -36.7761, 0.735855, 20.5376, -160.507, -92.6321, 55.1531
2.556, -1, -36.8143, 0.725688, 20.5398, -160.519, -92.628, 55.0858
2.56, -1, -36.8489, 0.716443, 20.5415, -160.529, -92.6245, 55.0272
2.564, -1, -36.8801, 0.708103, 20.5427, -160.537, -92.6215, 54.9771
2.568, -1, -36.9079, 0.700658, 20.5434, -160.545, -92.619, 54.9348
2.571, -1, -36.9323, 0.694099, 20.5438, -160.551, -92.6169, 54.8999
2.576, -1, -36.9535, 0.688407, 20.5438, -160.556, -92.6152, 54.8714
2.58, -1, -36.9717, 0.683543, 20.5436, -160.56, -92.6139, 54.8487
2.584, -1, -36.9872, 0.679445, 20.5433, -160.563, -92.6129, 54.8309
2.587, -1, -37.0002, 0.676034, 20.5429, -160.565, -92.6121, 54.8173
2.592, -1, -37.0112, 0.67323, 20.5424, -160.567, -92.6115, 54.8072
2.596, -1, -37.0203, 0.670965, 20.5419, -160.568, -92.6111, 54.7997
2.6, -1, -37.0277, 0.669174, 20.5414, -160.569, -92.6108, 54.7944
2.604, -1, -37.0336, 0.667799, 20.541, -160.57, -92.6106, 54.7907
2.607, 2, -37.038, 0.666779, 20.5407, -160.57, -92.6105, 54.7881
2.612, 2, -37.0413, 0.66605, 20.5404, -160.571, -92.6104, 54.7864
2.616, 2, -37.0436, 0.665546, 20.5402, -160.571, -92.6103, 54.7852
2.62, 2, -37.0451, 0.665202, 20.5401, -160.571, -92.6103, 54.7844
2.624, 2, -37.0462, 0.664969, 20.54, -160.571, -92.6102, 54.7839
2.627, 2, -37.0469, 0.664811, 20.54, -160.571, -92.6102, 54.7835
2.632, 2, -37.0474, 0.664704, 20.5399, -160.571, -92.6102, 54.7832
2.636, 2, -37.0477, 0.664632, 20.5399, -160.571, -92.6102, 54.7831
2.64, 2, -37.048, 0.664583, 20.5399, -160.571, -92.6102, 54.783
2.643, 2, -37.0481, 0.66455, 20.5399, -160.571, -92.6102, 54.7829
2.648, 2, -37.0482, 0.664527, 20.5399, -160.571, -92.6102, 54.7828
2.652, 2, -37.0483, 0.664512, 20.5399, -160.571, -92.6102, 54.7828
2.656, 2, -37.0483, 0.664502, 20.5399, -160.571, -92.6102, 54.7828
2.66, 2, -37.0484, 0.664495, 20.5399, -160.571, -92.6102, 54.7827
2.663, 2, -37.0484, 0.66449, 20.5399, -160.571, -92.6102, 54.7827
2.668, 2, -37.0484, 0.664487, 20.5399, -160.571, -92.6102, 54.7827
2.672, 2, -37.0484, 0.664485, 20.5399, -160.571, -92.6102, 54.7827
2.676, 2, -37.0484, 0.664483, 20.5399, -160.571, -92.6102, 54.7827
2.679, 2, -37.0484, 0.664482, 20.5399, -160.571, -92.6102, 54.7827
2.684, 2, -37.0484, 0.664481, 20.5399, -160.571, -92.6102, 54.7827
2.688, 2, -37.0484, 0.664481, 20.5399, -160.571, -92.6102, 54.7827
2.692, 2, -37.0484, 0.664481, 20.5399, -160.571, -92.6102, 54.7827
2.696, 2, -37.0484, 0.66448, 20.5399, -160.571, -92.6102, 54.7827
2.699, 2, -37.0484, 0.66448, 20.5399, -160.571, -92.6102, 54.7827
2.704, 2, -37.0484, 0.66448, 20.5399, -160.571, -92.6102, 54.7827
2.708, 2, -37.0484, 0.66448, 20.5399, -160.571, -92.6102, 54.7827
2.712, 2, -37.0484, 0.66448, 20.5399, -160.571, -92.6102, 54.7827
2.716, 2, -37.0484, 0.66448, 20.5399, -160.571, -92.6102, 54.7827
2.719, 2, -37.0484, 0.66448, 20.5399, -160.571, -92.6102, 54.7827
2.724, 2, -37.0484, 0.66448, 20.5399, -160.571, -92.6102, 54.7827
2.728, 2, -37.0484, 0.66448, 20.5399, -160.571, -92.6102, 54.7827
2.732, 2, -37.0484, 0.66448, 20.5399, -160.571, -92.6102, 54.7827
2.735, 2, -37.0484, 0.66448, 20.5399, -160.571, -92.6102, 54.7827
2.74, 2, -37.0484, 0.66448, 20.5399, -160.571, -92.6102, 54.7827
2.744, 2, -37.0484, 0.66448, 20.5399, -160.571, -92.6102, 54.7827
2.748, 2, -37.0484, 0.66448, 20.5399, -160.571, -92.6102, 54.7827
2.752, 2, -37.0484, 0.66448, 20.5399, -160.571, -92.6102, 54.7827
2.755, 2, -37.0484, 0.66448, 20.5399, -160.571, -92.6102, 54.7827
2.76, 2, -37.0484, 0.66448, 20.5399, -160.571, -92.6102, 54.7827
2.764, 2, -37.0484, 0.66448, 20.5399, -160.571, -92.6102, 54.7827
2.768, 2, -37.0484, 0.66448, 20.5399, -160.571, -92.6102, 54.7827
2.772, 2, -37.0484, 0.66448, 20.5399, -160.571, -92.6102, 54.7827
2.775, 2, -37.0484, 0.66448, 20.5399, -160.571, -92.6102, 54.7827
2.78, 2, -37.0484, 0.66448, 20.5399, -160.571, -92.6102, 54.7827
2.784, 2, -37.0484, 0.66448, 20.5399, -160.571, -92.6102, 54.7827
2.788, 2, -37.0484, 0.66448, 20.5399, -160.571, -92.6102, 54.7827
2.791, 2, -37.0484, 0.66448, 20.5399, -160.571, -92.6102, 54.7827
2.796, 2, -37.0484, 0.66448, 20.5399, -160.571, -92.6102, 54.7827
2.8, 2, -37.0484, 0.66448, 20.5399, -160.571, -92.6102, 54.7827
2.804, 2, -37.0484, 0.66448, 20.5399, -160.571, -92.6102, 54.7827
2.808, 2, -37.0484, 0.66448, 20.5399, -160.571, -92.6102, 54.7827
2.811, 2, -37.0484, 0.66448, 20.5399, -160.571, -92.6102, 54.7827
2.816, 2, -37.0484, 0.66448, 20.5399, -160.571, -92.6102, 54.7827
2.82, 2, -37.0484, 0.66448, 20.5399, -160.571, -92.6102, 54.7827
2.824, 2, -37.0484, 0.66448, 20.5399, -160.571, -92.6102, 54.7827
2.828, 2, -37.0484, 0.66448, 20.5399, -160.571, -92.6102, 54.7827
2.831, 2, -37.0484, 0.66448, 20.5399, -160.571, -92.6102, 54.7827
2.836, 2, -37.0484, 0.66448, 20.5399, -160.571, -92.6102, 54.7827
2.84, 2, -37.0484, 0.66448, 20.5399, -160.571, -92.6102, 54.7827
2.844, 2, -37.0484, 0.66448, 20.5399, -160.571, -92.6102, 54.7827
2.847, 2, -37.0484, 0.66448, 20.5399, -160.571, -92.6102, 54.7827
2.852, 2, -37.0484, 0.66448, 20.5399, -160.571, -92.6102, 54.7827
2.856, 2, -37.0484, 0.66448, 20.5399, -160.571, -92.6102, 54.7827
2.86, 2, -37.0484, 0.66448, 20.5399, -160.571, -92.6102, 54.7827
2.864, 2, -37.0484, 0.66448, 20.5399, -160.571, -92.6102, 54.7827
2.867, 2, -37.0484, 0.66448, 20.5399, -160.571, -92.6102, 54.7827
2.872, 2, -37.0484, 0.66448, 20.5399, -160.571, -92.6102, 54.7827
2.876, 2, -37.0484, 0.66448, 20.5399, -160.571, -92.6102, 54.7827
2.88, 2, -37.0484, 0.66448, 20.5399, -160.571, -92.6102, 54.7827
2.883, 2, -37.0484, 0.66448, 20.5399, -160.571, -92.6102, 54.7827
2.888, 2, -37.0484, 0.66448, 20.5399, -160.571, -92.6102, 54.7827
2.892, 2, -37.0484, 0.66448, 20.5399, -160.571, -92.6102, 54.7827
2.896, 2, -37.0484, 0.66448, 20.5399, -160.571, -92.6102, 54.7827
2.9, 2, -37.0484, 0.66448, 20.5399, -160.571, -92.6102, 54.7827
2.903, 2, -37.0484, 0.66448, 20.5399, -160.571, -92.6102, 54.7827
2.908, 2, -37.0484, 0.66448, 20.5399, -160.571, -92.6102, 54.7827
2.912, 2, -37.0484, 0.66448, 20.5399, -160.571, -92.6102, 54.7827
2.916, 2, -37.0484, 0.66448, 20.5399, -160.571, -92.6102, 54.7827
2.92, 2, -37.0484, 0.66448, 20.5399, -160.571, -92.6102, 54.7827
2.923, 2, -37.0484, 0.66448, 20.5399, -160.571, -92.6102, 54.7827
2.928, 2, -37.0484, 0.66448, 20.5399, -160.571, -92.6102, 54.7827
2.932, 2, -37.0484, 0.66448, 20.5399, -160.571, -92.6102, 54.7827
2.936, 2, -37.0484, 0.66448, 20.5399, -160.571, -92.6102, 54.7827
2.939, 2, -37.0484, 0.66448, 20.5399, -160.571, -92.6102, 54.7827
2.944, 2, -37.0484, 0.66448, 20.5399, -160.571, -92.6102, 54.7827
2.948, 2, -37.0484, 0.66448, 20.5399, -160.571, -92.6102, 54.7827
2.952, 2, -37.0484, 0.66448, 20.5399, -160.571, -92.6102, 54.7827
2.956, 2, -37.0484, 0.66448, 20.5399, -160.571, -92.6102, 54.7827
2.959, 2, -37.0484, 0.66448, 20.5399, -160.571, -92.6102, 54.7827
2.964, 2, -37.0484, 0.66448, 20.5399, -160.571, -92.6102, 54.7827
2.968, 2, -37.0484, 0.66448, 20.5399, -160.571, -92.6102, 54.7827
2.972, 2, -37.0484, 0.66448, 20.5399, -160.571, -92.6102, 54.7827
2.976, 2, -37.0484, 0.66448, 20.5399, -160.571, -92.6102, 54.7827
2.98, 2, -37.0484, 0.66448, 20.5399, -160.571, -92.6102, 54.7827
2.984, 2, -37.0484, 0.66448, 20.5399, -160.571, -92.6102, 54.7827
2.988, 2, -37.0484, 0.66448, 20.5399, -160.571, -92.6102, 54.7827
2.992, 2, -37.0484, 0.66448, 20.5399, -160.571, -92.6102, 54.7827
2.995, 2, -37.0484, 0.66448, 20.5399, -160.571, -92.6102, 54.7827
3, 2, -37.0484, 0.66448, 20.5399, -160.571, -92.6102, 54.7827
3.004, 2, -37.0484, 0.66448, 20.5399, -160.571, -92.6102, 54.7827
3.008, 2, -37.0484, 0.66448, 20.5399, -160.571, -92.6102, 54.7827
3.012, 2, -37.0484, 0.66448, 20.5399, -160.571, -92.6102, 54.7827
3.015, 2, -37.0484, 0.66448, 20.5399, -160.571, -92.6102, 54.7827
3.02, 2, -37.0484, 0.66448, 20.5399, -160.571, -92.6102, 54.7827
3.024, 2, -37.0484, 0.66448, 20.5399, -160.571, -92.6102, 54.7827
3.028, 2, -37.0484, 0.66448, 20.5399, -160.571, -92.6102, 54.7827
3.031, 2, -37.0484, 0.66448, 20.5399, -160.571, -92.6102, 54.7827
3.036, 2, -37.0484, 0.66448, 20.5399, -160.571, -92.6102, 54.7827
3.04, 2, -37.0484, 0.66448, 20.5399, -160.571, -92.6102, 54.7827
3.044, 2, -37.0484, 0.66448, 20.5399, -160.571, -92.6102, 54.7827
3.048, 2, -37.0484, 0.66448, 20.5399, -160.571, -92.6102, 54.7827
3.051, 2, -37.0484, 0.66448, 20.5399, -160.571, -92.6102, 54.7827
3.056, 2, -37.0484, 0.66448, 20.5399, -160.571, -92.6102, 54.7827
3.06, 2, -37.0484, 0.66448, 20.5399, -160.571, -92.6102, 54.7827
3.064, 2, -37.0484, 0.66448, 20.5399, -160.571, -92.6102, 54.7827
3.068, 2, -37.0484, 0.66448, 20.5399, -160.571, -92.6102, 54.7827
3.071, 2, -37.0484, 0.66448, 20.5399, -160.571, -92.6102, 54.7827
3.076, 2, -37.0484, 0.66448, 20.5399, -160.571, -92.6102, 54.7827
3.08, 2, -37.0484, 0.66448, 20.5399, -160.571, -92.6102, 54.7827
3.084, 2, -37.0484, 0.66448, 20.5399, -160.571, -92.6102, 54.7827
3.087, 2, -37.0484, 0.66448, 20.5399, -160.571, -92.6102, 54.7827
3.092, 2, -37.0484, 0.66448, 20.5399, -160.571, -92.6102, 54.7827
3.096, 2, -37.0484, 0.66448, 20.5399, -160.571, -92.6102, 54.7827
3.1, 2, -37.0484, 0.66448, 20.5399, -160.571, -92.6102, 54.7827
3.104, 2, -37.0484, 0.66448, 20.5399, -160.571, -92.6102, 54.7827
3.107, 2, -37.0484, 0.66448, 20.5399, -160.571, -92.6102, 54.7827
3.112, 2, -37.0484, 0.66448, 20.5399, -160.571, -92.6102, 54.7827
3.116, 2, -37.0484, 0.66448, 20.5399, -160.571, -92.6102, 54.7827
3.12, 2, -37.0484, 0.66448, 20.5399, -160.571, -92.6102, 54.7827
3.124, 2, -37.0484, 0.66448, 20.5399, -160.571, -92.6102, 54.7827
3.128, 2, -37.0484, 0.66448, 20.5399, -160.571, -92.6102, 54.7827
3.132, 2, -37.0484, 0.66448, 20.5399, -160.571, -92.6102, 54.7827
3.136, 2, -37.0484, 0.66448, 20.5399, -160.571, -92.6102, 54.7827
3.14, 2, -37.0484, 0.66448, 20.5399, -160.571, -92.6102, 54.7827
3.143, 2, -37.0484, 0.66448, 20.5399, -160.571, -92.6102, 54.7827
3.148, 2, -37.0484, 0.66448, 20.5399, -160.571, -92.6102, 54.7827
3.152, 2, -37.0484, 0.66448, 20.5399, -160.571, -92.6102, 54.7827
3.156, 2, -37.0484, 0.66448, 20.5399, -160.571, -92.6102, 54.7827
3.16, 2, -37.0484, 0.66448, 20.5399, -160.571, -92.6102, 54.7827
3.163, 2, -37.0484, 0.66448, 20.5399, -160.571, -92.6102, 54.7827
3.168, 2, -37.0484, 0.66448, 20.5399, -160.571, -92.6102, 54.7827
3.172, 2, -37.0484, 0.66448, 20.5399, -160.571, -92.6102, 54.7827
3.176, 2, -37.0484, 0.66448, 20.5399, -160.571, -92.6102, 54.7827
3.179, 2, -37.0484, 0.66448, 20.5399, -160.571, -92.6102, 54.7827
3.184, 2, -37.0484, 0.66448, 20.5399, -160.571, -92.6102, 54.7827
3.188, 2, -37.0484, 0.66448, 20.5399, -160.571, -92.6102, 54.7827
3.192, 2, -37.0484, 0.66448, 20.5399, -160.571, -92.6102, 54.7827
3.196, 2, -37.0484, 0.66448, 20.5399, -160.571, -92.6102, 54.7827
3.199, 2, -37.0484, 0.66448, 20.5399, -160.571, -92.6102, 54.7827
3.204, 2, -37.0484, 0.66448, 20.5399, -160.571, -92.6102, 54.7827
3.208, 2, -37.0484, 0.66448, 20.5399, -160.571, -92.6102, 54.7827
3.212, 2, -37.0484, 0.66448, 20.5399, -160.571, -92.6102, 54.7827
3.216, 2, -37.0484, 0.66448, 20.5399, -160.571, -92.6102, 54.7827
3.22, 2, -37.0484, 0.66448, 20.5399, -160.571, -92.6102, 54.7827
3.224, 2, -37.0484, 0.66448, 20.5399, -160.571, -92.6102, 54.7827
3.228, 2, -37.0484, 0.66448, 20.5399, -160.571, -92.6102, 54.7827
3.232, 2, -37.0484, 0.66448, 20.5399, -160.571, -92.6102, 54.7827
3.235, 2, -37.0484, 0.66448, 20.5399, -160.571, -92.6102, 54.7827
3.24, 2, -37.0484, 0.66448, 20.5399, -160.571, -92.6102, 54.7827
3.244, 2, -37.0484, 0.66448, 20.5399, -160.571, -92.6102, 54.7827
3.248, 2, -37.0484, 0.66448, 20.5399, -160.571, -92.6102, 54.7827
3.252, 2, -37.0484, 0.66448, 20.5399, -160.571, -92.6102, 54.7827
3.255, 2, -37.0484, 0.66448, 20.5399, -160.571, -92.6102, 54.7827
3.26, 2, -37.0484, 0.66448, 20.5399, -160.571, -92.6102, 54.7827
3.264, 2, -37.0484, 0.66448, 20.5399, -160.571, -92.6102, 54.7827
3.268, 2, -37.0484, 0.66448, 20.5399, -160.571, -92.6102, 54.7827
3.272, 2, -37.0484, 0.66448, 20.5399, -160.571, -92.6102, 54.7827
3.276, 2, -37.0484, 0.66448, 20.5399, -160.571, -92.6102, 54.7827
3.28, 2, -37.0484, 0.66448, 20.5399, -160.571, -92.6102, 54.7827
3.284, 2, -37.0484, 0.66448, 20.5399, -160.571, -92.6102, 54.7827
3.288, 2, -37.0484, 0.66448, 20.5399, -160.571, -92.6102, 54.7827
3.291, 2, -37.0484, 0.66448, 20.5399, -160.571, -92.6102, 54.7827
3.296, 2, -37.0484, 0.66448, 20.5399, -160.571, -92.6102, 54.7827
3.3, 2, -37.0484, 0.66448, 20.5399, -160.571, -92.6102, 54.7827
3.304, 2, -37.0484, 0.66448, 20.5399, -160.571, -92.6102, 54.7827
3.308, 2, -37.0484, 0.66448, 20.5399, -160.571, -92.6102, 54.7827
3.312, 2, -37.0484, 0.66448, 20.5399, -160.571, -92.6102, 54.7827
3.316, 2, -37.0484, 0.66448, 20.5399, -160.571, -92.6102, 54.7827
3.32, 2, -37.0484, 0.66448, 20.5399, -160.571, -92.6102, 54.7827
3.324, 2, -37.0484, 0.66448, 20.5399, -160.571, -92.6102, 54.7827
3.328, 2, -37.0484, 0.66448, 20.5399, -160.571, -92.6102, 54.7827
3.332, 2, -37.0484, 0.66448, 20.5399, -160.571, -92.6102, 54.7827
3.336, 2, -37.0484, 0.66448, 20.5399, -160.571, -92.6102, 54.7827
3.34, 2, -37.0484, 0.66448, 20.5399, -160.571, -92.6102, 54.7827
3.344, 2, -37.0484, 0.66448, 20.5399, -160.571, -92.6102, 54.7827
3.347, 2, -37.0484, 0.66448, 20.5399, -160.571, -92.6102, 54.7827
3.352, 2, -37.0484, 0.66448, 20.5399, -160.571, -92.6102, 54.7827
3.356, 2, -37.0484, 0.66448, 20.5399, -160.571, -92.6102, 54.7827
3.36, 2, -37.0484, 0.66448, 20.5399, -160.571, -92.6102, 54.7827
3.364, 2, -37.0484, 0.66448, 20.5399, -160.571, -92.6102, 54.7827
3.368, 2, -37.0484, 0.66448, 20.5399, -160.571, -92.6102, 54.7827
3.372, 2, -37.0484, 0.66448, 20.5399, -160.571, -92.6102, 54.7827
3.376, 2, -37.0484, 0.66448, 20.5399, -160.571, -92.6102, 54.7827
3.38, 2, -37.0484, 0.66448, 20.5399, -160.571, -92.6102, 54.7827
3.383, 2, -37.0484, 0.66448, 20.5399, -160.571, -92.6102, 54.7827
3.388, 2, -37.0484, 0.66448, 20.5399, -160.571, -92.6102, 54.7827
3.392, 2, -37.0484, 0.66448, 20.5399, -160.571, -92.6102, 54.7827
3.396, 2, -37.0484, 0.66448, 20.5399, -160.571, -92.6102, 54.7827
3.4, 2, -37.0484, 0.66448, 20.5399, -160.571, -92.6102, 54.7827
3.403, 2, -37.0484, 0.66448, 20.5399, -160.571, -92.6102, 54.7827
3.408, 2, -37.0484, 0.66448, 20.5399, -160.571, -92.6102, 54.7827
3.412, 2, -37.0484, 0.66448, 20.5399, -160.571, -92.6102, 54.7827
3.416, 2, -37.0484, 0.66448, 20.5399, -160.571, -92.6102, 54.7827
3.42, 2, -37.0484, 0.66448, 20.5399, -160.571, -92.6102, 54.7827
3.424, 2, -37.0484, 0.66448, 20.5399, -160.571, -92.6102, 54.7827
3.428, 2, -37.0484, 0.66448, 20.5399, -160.571, -92.6102, 54.7827
3.432, 2, -37.0484, 0.66448, 20.5399, -160.571, -92.6102, 54.7827
3.436, 2, -37.0484, 0.66448, 20.5399, -160.571, -92.6102, 54.7827
3.439, 2, -37.0484, 0.66448, 20.5399, -160.571, -92.6102, 54.7827
3.444, 2, -37.0484, 0.66448, 20.5399, -160.571, -92.6102, 54.7827
3.448, 2, -37.0484, 0.66448, 20.5399, -160.571, -92.6102, 54.7827
3.452, 2, -37.0484, 0.66448, 20.5399, -160.571, -92.6102, 54.7827
3.456, 2, -37.0484, 0.66448, 20.5399, -160.571, -92.6102, 54.7827
3.46, 2, -37.0484, 0.66448, 20.5399, -160.571, -92.6102, 54.7827
3.464, 2, -37.0484, 0.66448, 20.5399, -160.571, -92.6102, 54.7827
3.468, 2, -37.0484, 0.66448, 20.5399, -160.571, -92.6102, 54.7827
3.472, 2, -37.0484, 0.66448, 20.5399, -160.571, -92.6102, 54.7827
3.476, 2, -37.0484, 0.66448, 20.5399, -160.571, -92.6102, 54.7827
3.48, 2, -37.0484, 0.66448, 20.5399, -160.571, -92.6102, 54.7827
3.484, 2, -37.0484, 0.66448, 20.5399, -160.571, -92.6102, 54.7827
3.488, 2, -37.0484, 0.66448, 20.5399, -160.571, -92.6102, 54.7827
3.492, 2, -37.0484, 0.66448, 20.5399, -160.571, -92.6102, 54.7827
3.495, 2, -37.0484, 0.66448, 20.5399, -160.571, -92.6102, 54.7827
3.5, 2, -37.0484, 0.66448, 20.5399, -160.571, -92.6102, 54.7827
3.504, 2, -37.0484, 0.66448, 20.5399, -160.571, -92.6102, 54.7827
3.508, 2, -37.0484, 0.66448, 20.5399, -160.571, -92.6102, 54.7827
3.512, 2, -37.0484, 0.66448, 20.5399, -160.571, -92.6102, 54.7827
3.516, 2, -37.0484, 0.66448, 20.5399, -160.571, -92.6102, 54.7827
3.52, 2, -37.0484, 0.66448, 20.5399, -160.571, -92.6102, 54.7827
3.524, 2, -37.0484, 0.66448, 20.5399, -160.571, -92.6102, 54.7827
3.528, 2, -37.0484, 0.66448, 20.5399, -160.571, -92.6102, 54.7827
3.531, 2, -37.0484, 0.66448, 20.5399, -160.571, -92.6102, 54.7827
3.536, 2, -37.0484, 0.66448, 20.5399, -160.571, -92.6102, 54.7827
3.54, 2, -37.0484, 0.66448, 20.5399, -160.571, -92.6102, 54.7827
3.544, 2, -37.0484, 0.66448, 20.5399, -160.571, -92.6102, 54.7827
3.548, 2, -37.0484, 0.66448, 20.5399, -160.571, -92.6102, 54.7827
3.552, 2, -37.0484, 0.66448, 20.5399, -160.571, -92.6102, 54.7827
3.556, 2, -37.0484, 0.66448, 20.5399, -160.571, -92.6102, 54.7827
3.56, 2, -37.0484, 0.66448, 20.5399, -160.571, -92.6102, 54.7827
3.564, 2, -37.0484, 0.66448, 20.5399, -160.571, -92.6102, 54.7827
3.568, 2, -37.0484, 0.66448, 20.5399, -160.571, -92.6102, 54.7827
3.572, 2, -37.0484, 0.66448, 20.5399, -160.571, -92.6102, 54.7827
3.576, 2, -37.0484, 0.66448, 20.5399, -160.571, -92.6102, 54.7827
3.58, 2, -37.0484, 0.66448, 20.5399, -160.571, -92.6102, 54.7827
3.584, 2, -37.0484, 0.66448, 20.5399, -160.571, -92.6102, 54.7827
3.587, 2, -37.0484, 0.66448, 20.5399, -160.571, -92.6102, 54.7827
3.592, 2, -37.0484, 0.66448, 20.5399, -160.571, -92.6102, 54.7827
3.596, 2, -37.0484, 0.66448, 20.5399, -160.571, -92.6102, 54.7827
3.6, 2, -37.0484, 0.66448, 20.5399, -160.571, -92.6102, 54.7827
3.604, 2, -37.0484, 0.66448, 20.5399, -160.571, -92.6102, 54.7827
3.608, 2, -37.0484, 0.66448, 20.5399, -160.571, -92.6102, 54.7827
3.612, 2, -37.0484, 0.66448, 20.5399, -160.571, -92.6102, 54.7827
3.616, 2, -37.0484, 0.66448, 20.5399, -160.571, -92.6102, 54.7827
3.62, 2, -37.0484, 0.66448, 20.5399, -160.571, -92.6102, 54.7827
3.624, 2, -37.0484, 0.66448, 20.5399, -160.571, -92.6102, 54.7827
3.628, 2, -37.0484, 0.66448, 20.5399, -160.571, -92.6102, 54.7827
3.632, 2, -37.0484, 0.66448, 20.5399, -160.571, -92.6102, 54.7827
3.636, 2, -37.0484, 0.66448, 20.5399, -160.571, -92.6102, 54.7827
3.64, 2, -37.0484, 0.66448, 20.5399, -160.571, -92.6102, 54.7827
3.644, 2, -37.0484, 0.66448, 20.5399, -160.571, -92.6102, 54.7827
3.648, 2, -37.0484, 0.66448, 20.5399, -160.571, -92.6102, 54.7827
3.652, 2, -37.0484, 0.66448, 20.5399, -160.571, -92.6102, 54.7827
3.656, 2, -37.0484, 0.66448, 20.5399, -160.571, -92.6102, 54.7827
3.66, 2, -37.0484, 0.66448, 20.5399, -160.571, -92.6102, 54.7827
3.664, 2, -37.0484, 0.66448, 20.5399, -160.571, -92.6102, 54.7827
3.668, 2, -37.0484, 0.66448, 20.5399, -160.571, -92.6102, 54.7827
3.672, 2, -37.0484, 0.66448, 20.5399, -160.571, -92.6102, 54.7827
3.676, 2, -37.0484, 0.66448, 20.5399, -160.571, -92.6102, 54.7827
3.679, 4, -37.0484, 0.66448, 20.5399, -160.571, -92.6102, 54.7827
3.684, 4, -37.0484, 0.66448, 20.5399, -160.571, -92.6102, 54.7827
3.688, 4, -37.0484, 0.66448, 20.5399, -160.571, -92.6102, 54.7827
3.692, 4, -37.0484, 0.66448, 20.5399, -160.571, -92.6102, 54.7827
3.696, 4, -37.0484, 0.66448, 20.5399, -160.571, -92.6102, 54.7827
3.7, 4, -37.0484, 0.66448, 20.5399, -160.571, -92.6102, 54.7827
3.704, 4, -37.0484, 0.66448, 20.5399, -160.571, -92.6102, 54.7827
3.708, 4, -37.0484, 0.66448, 20.5399, -160.571, -92.6102, 54.7827
3.712, 4, -37.0484, 0.66448, 20.5399, -160.571, -92.6102, 54.7827
3.716, 4, -37.0484, 0.66448, 20.5399, -160.571, -92.6102, 54.7827
3.72, 4, -37.0484, 0.66448, 20.5399, -160.571, -92.6102, 54.7827
3.724, 4, -37.0484, 0.66448, 20.5399, -160.571, -92.6102, 54.7827
3.728, 4, -37.0484, 0.66448, 20.5399, -160.571, -92.6102, 54.7827
3.732, 4, -37.0484, 0.66448, 20.5399, -160.571, -92.6102, 54.7827
3.735, 4, -37.0484, 0.66448, 20.5399, -160.571, -92.6102, 54.7827
3.74, 4, -37.0484, 0.66448, 20.5399, -160.571, -92.6102, 54.7827
3.744, 4, -37.0484, 0.66448, 20.5399, -160.571, -92.6102, 54.7827
3.748, 4, -37.0484, 0.66448, 20.5399, -160.571, -92.6102, 54.7827
3.752, 4, -37.0484, 0.66448, 20.5399, -160.571, -92.6102, 54.7827
3.756, 4, -37.0484, 0.66448, 20.5399, -160.571, -92.6102, 54.7827
3.76, 4, -37.0484, 0.66448, 20.5399, -160.571, -92.6102, 54.7827
3.764, 4, -37.0484, 0.66448, 20.5399, -160.571, -92.6102, 54.7827
3.768, 4, -37.0484, 0.66448, 20.5399, -160.571, -92.6102, 54.7827
3.772, 4, -37.0484, 0.66448, 20.5399, -160.571, -92.6102, 54.7827
3.776, 4, -37.0484, 0.66448, 20.5399, -160.571, -92.6102, 54.7827
3.78, 4, -37.0484, 0.66448, 20.5399, -160.571, -92.6102, 54.7827
3.786, 4, -37.0484, 0.66448, 20.5399, -160.571, -92.6102, 54.7827
3.788, 4, -37.0484, 0.66448, 20.5399, -160.571, -92.6102, 54.7827
3.792, 4, -37.0484, 0.66448, 20.5399, -160.571, -92.6102, 54.7827
3.796, 4, -37.0484, 0.66448, 20.5399, -160.571, -92.6102, 54.7827
3.8, 4, -37.0484, 0.66448, 20.5399, -160.571, -92.6102, 54.7827
3.804, 4, -37.0484, 0.66448, 20.5399, -160.571, -92.6102, 54.7827
3.808, 4, -37.0484, 0.664476, 20.5399, -160.571, -92.6102, 54.7827
3.812, 4, -37.0483, 0.664449, 20.5399, -160.571, -92.6102, 54.7827
3.816, 4, -37.0481, 0.664342, 20.5399, -160.571, -92.6102, 54.7827
3.82, 4, -37.0475, 0.664058, 20.54, -160.571, -92.6102, 54.7827
3.824, 4, -37.0463, 0.663476, 20.5403, -160.571, -92.6102, 54.7827
3.828, 4, -37.0444, 0.662467, 20.5407, -160.571, -92.6103, 54.7827
3.832, 4, -37.0417, 0.660904, 20.5414, -160.571, -92.6103, 54.7827
3.836, 4, -37.0379, 0.658675, 20.5426, -160.571, -92.6104, 54.7827
3.84, 4, -37.0331, 0.6557, 20.5442, -160.571, -92.6104, 54.7826
3.844, 4, -37.0274, 0.651929, 20.5465, -160.571, -92.6105, 54.7826
3.848, 4, -37.0207, 0.647318, 20.5495, -160.57, -92.6105, 54.7825
3.852, 5, -37.0129, 0.641799, 20.5535, -160.57, -92.6105, 54.7824
3.856, 5, -37.0041, 0.635278, 20.5585, -160.569, -92.6105, 54.7823
3.86, 5, -36.9939, 0.627661, 20.5649, -160.568, -92.6105, 54.7821
3.864, 5, -36.9825, 0.618889, 20.5726, -160.566, -92.6104, 54.7819
3.868, 5, -36.9697, 0.608943, 20.5818, -160.564, -92.6102, 54.7816
3.872, 5, -36.9556, 0.597836, 20.5926, -160.562, -92.61, 54.7813
3.876, 5, -36.9401, 0.585592, 20.605, -160.56, -92.6097, 54.781
3.88, 5, -36.9234, 0.57224, 20.6192, -160.557, -92.6093, 54.7805
3.884, 5, -36.9055, 0.557797, 20.6349, -160.553, -92.6089, 54.7801
3.888, 5, -36.8863, 0.542246, 20.6522, -160.55, -92.6083, 54.7796
3.892, 5, -36.8657, 0.525538, 20.6711, -160.546, -92.6077, 54.779
3.896, 5, -36.8437, 0.507632, 20.6915, -160.541, -92.6071, 54.7784
3.9, 5, -36.8203, 0.488531, 20.7131, -160.537, -92.6064, 54.7778
3.904, 5, -36.7955, 0.468289, 20.736, -160.532, -92.6056, 54.7772
3.908, 5, -36.7694, 0.446991, 20.7599, -160.527, -92.6049, 54.7765
3.912, 5, -36.7422, 0.424734, 20.7847, -160.522, -92.6041, 54.7759
3.916, 5, -36.7139, 0.401618, 20.8103, -160.516, -92.6033, 54.7752
3.92, 5, -36.6846, 0.377747, 20.8364, -160.51, -92.6026, 54.7746
3.924, 5, -36.6544, 0.353222, 20.863, -160.505, -92.6018, 54.774
3.928, 5, -36.6233, 0.328135, 20.89, -160.499, -92.601, 54.7734
3.932, 5, -36.5915, 0.302581, 20.9173, -160.493, -92.6002, 54.7728
3.936, 5, -36.559, 0.276658, 20.9448, -160.487, -92.5995, 54.7722
3.94, 5, -36.5259, 0.250465, 20.9724, -160.482, -92.5987, 54.7716
3.944, 5, -36.4925, 0.224089, 21.0001, -160.476, -92.5979, 54.7711
3.948, 5, -36.4588, 0.197594, 21.0279, -160.47, -92.5972, 54.7706
3.952, 5, -36.4249, 0.171028, 21.0557, -160.464, -92.5964, 54.7701
3.956, 5, -36.3909, 0.14442, 21.0834, -160.458, -92.5957, 54.7696
3.96, 5, -36.3568, 0.117791, 21.1112, -160.452, -92.5949, 54.7692
3.964, 5, -36.3226, 0.0911557, 21.139, -160.446, -92.5942, 54.7688
3.968, 5, -36.2883, 0.0645235, 21.1667, -160.44, -92.5934, 54.7684
3.972, 5, -36.254, 0.037901, 21.1944, -160.434, -92.5927, 54.7681
3.976, 5, -36.2196, 0.0112925, 21.222, -160.428, -92.5919, 54.7677
3.98, 5, -36.1852, -0.0152988, 21.2497, -160.422, -92.5912, 54.7674
3.984, 5, -36.1508, -0.0418711, 21.2773, -160.416, -92.5905, 54.7671
3.988, 5, -36.1163, -0.0684227, 21.3049, -160.41, -92.5897, 54.7669
3.992, 5, -36.0818, -0.0949528, 21.3324, -160.403, -92.589, 54.7667
3.996, 5, -36.0473, -0.121461, 21.3599, -160.397, -92.5882, 54.7665
3.999, 5, -36.0127, -0.147946, 21.3874, -160.391, -92.5875, 54.7663
4.004, 5, -35.9782, -0.174408, 21.4148, -160.385, -92.5867, 54.7661
4.008, 5, -35.9436, -0.200847, 21.4422, -160.379, -92.586, 54.766
4.012, 5, -35.9089, -0.227263, 21.4696, -160.373, -92.5852, 54.7659
4.016, 5, -35.8743, -0.253655, 21.4969, -160.367, -92.5845, 54.7658
4.02, 5, -35.8396, -0.280023, 21.5242, -160.361, -92.5837, 54.7658
4.024, 5, -35.8049, -0.306367, 21.5514, -160.354, -92.583, 54.7657
4.028, 5, -35.7702, -0.332688, 21.5786, -160.348, -92.5822, 54.7657
4.032, 5, -35.7354, -0.358985, 21.6058, -160.342, -92.5815, 54.7658
4.036, 5, -35.7006, -0.385258, 21.633, -160.336, -92.5807, 54.7658
4.04, 5, -35.6658, -0.411506, 21.6601, -160.33, -92.58, 54.7659
4.044, 5, -35.631, -0.437731, 21.6872, -160.324, -92.5792, 54.766
4.048, 5, -35.5961, -0.463932, 21.7142, -160.317, -92.5785, 54.7661
4.052, 5, -35.5612, -0.490109, 21.7412, -160.311, -92.5778, 54.7663
4.056, 5, -35.5263, -0.516261, 21.7682, -160.305, -92.577, 54.7664
4.06, 5, -35.4913, -0.542389, 21.7951, -160.299, -92.5762, 54.7666
4.064, 5, -35.4564, -0.568493, 21.822, -160.292, -92.5755, 54.7669
4.068, 5, -35.4214, -0.594573, 21.8489, -160.286, -92.5747, 54.7671
4.072, 5, -35.3863, -0.620629, 21.8757, -160.28, -92.574, 54.7674
4.076, 5, -35.3513, -0.64666, 21.9025, -160.273, -92.5732, 54.7677
4.08, 5, -35.3162, -0.672667, 21.9293, -160.267, -92.5725, 54.768
4.084, 5, -35.2811, -0.698649, 21.956, -160.261, -92.5717, 54.7684
4.088, 5, -35.246, -0.724607, 21.9827, -160.254, -92.571, 54.7688
4.092, 5, -35.2108, -0.750541, 22.0093, -160.248, -92.5702, 54.7692
4.096, 5, -35.1756, -0.77645, 22.0359, -160.242, -92.5694, 54.7696
4.1, 5, -35.1404, -0.802335, 22.0625, -160.235, -92.5687, 54.7701
4.104, 5, -35.1052, -0.828195, 22.089, -160.229, -92.5679, 54.7706
4.108, 5, -35.0699, -0.854031, 22.1156, -160.223, -92.5671, 54.7711
4.112, 5, -35.0347, -0.879842, 22.142, -160.216, -92.5664, 54.7716
4.116, 5, -34.9994, -0.905629, 22.1685, -160.21, -92.5656, 54.7722
4.12, 5, -34.964, -0.931391, 22.1949, -160.203, -92.5648, 54.7728
4.124, 5, -34.9286, -0.957128, 22.2212, -160.197, -92.5641, 54.7734
4.128, 5, -34.8933, -0.98284, 22.2476, -160.191, -92.5633, 54.774
4.132, 5, -34.8578, -1.00853, 22.2738, -160.184, -92.5625, 54.7747
4.136, 5, -34.8224, -1.03419, 22.3001, -160.178, -92.5618, 54.7754
4.14, 5, -34.7869, -1.05983, 22.3263, -160.171, -92.561, 54.7761
4.144, 5, -34.7514, -1.08544, 22.3525, -160.165, -92.5602, 54.7768
4.148, 5, -34.7159, -1.11103, 22.3787, -160.158, -92.5594, 54.7776
4.152, 5, -34.6804, -1.13659, 22.4048, -160.152, -92.5586, 54.7784
4.156, 5, -34.6448, -1.16213, 22.4309, -160.145, -92.5579, 54.7792
4.16, 5, -34.6092, -1.18765, 22.4569, -160.139, -92.5571, 54.78
4.164, 5, -34.5736, -1.21314, 22.4829, -160.132, -92.5563, 54.7809
4.168, 5, -34.5379, -1.2386, 22.5089, -160.126, -92.5555, 54.7818
4.172, 5, -34.5022, -1.26404, 22.5348, -160.119, -92.5547, 54.7827
4.176, 5, -34.4665, -1.28945, 22.5607, -160.112, -92.5539, 54.7836
4.18, 5, -34.4308, -1.31484, 22.5866, -160.106, -92.5531, 54.7846
4.184, 5, -34.395, -1.3402, 22.6124, -160.099, -92.5523, 54.7856
4.188, 5, -34.3593, -1.36554, 22.6382, -160.093, -92.5515, 54.7866
4.192, 5, -34.3234, -1.39085, 22.664, -160.086, -92.5507, 54.7876
4.196, 5, -34.2876, -1.41614, 22.6897, -160.079, -92.5499, 54.7887
4.2, 5, -34.2517, -1.4414, 22.7154, -160.073, -92.5491, 54.7898
4.204, 5, -34.2159, -1.46664, 22.7411, -160.066, -92.5483, 54.7909
4.208, 5, -34.1799, -1.49185, 22.7667, -160.06, -92.5475, 54.792
4.212, 5, -34.144, -1.51703, 22.7923, -160.053, -92.5467, 54.7932
4.216, 5, -34.108, -1.54219, 22.8178, -160.046, -92.5459, 54.7944
4.22, 5, -34.072, -1.56733, 22.8433, -160.039, -92.5451, 54.7956
4.224, 5, -34.036, -1.59244, 22.8688, -160.033, -92.5443, 54.7968
4.228, 5, -34, -1.61752, 22.8942, -160.026, -92.5435, 54.7981
4.232, 5, -33.9639, -1.64258, 22.9196, -160.019, -92.5426, 54.7994
4.236, 5, -33.9278, -1.66761, 22.945, -160.013, -92.5418, 54.8007
4.24, 5, -33.8917, -1.69262, 22.9703, -160.006, -92.541, 54.8021
4.244, 5, -33.8555, -1.7176, 22.9956, -159.999, -92.5402, 54.8034
4.248, 5, -33.8194, -1.74256, 23.0209, -159.992, -92.5393, 54.8048
4.252, 5, -33.7832, -1.76749, 23.0461, -159.986, -92.5385, 54.8062
4.256, 5, -33.747, -1.79242, 23.0713, -159.979, -92.5377, 54.8077
4.26, 5, -33.7107, -1.81736, 23.0965, -159.972, -92.5368, 54.8091
4.264, 5, -33.6745, -1.84231, 23.1216, -159.965, -92.536, 54.8106
4.268, 5, -33.6383, -1.8673, 23.1467, -159.958, -92.5351, 54.8121
4.272, 5, -33.6022, -1.89234, 23.1718, -159.952, -92.5342, 54.8136
4.276, 5, -33.566, -1.91745, 23.1969, -159.945, -92.5333, 54.815
4.28, 5, -33.5299, -1.94263, 23.222, -159.938, -92.5323, 54.8164
4.284, 5, -33.4939, -1.96789, 23.2471, -159.931, -92.5312, 54.8178
4.288, 6, -33.4579, -1.99326, 23.2723, -159.924, -92.5301, 54.819
4.292, 6, -33.4219, -2.01874, 23.2976, -159.916, -92.5288, 54.8201
4.296, 6, -33.386, -2.04436, 23.3229, -159.909, -92.5274, 54.821
4.3, 6, -33.3502, -2.07014, 23.3483, -159.902, -92.5257, 54.8218
4.304, 6, -33.3144, -2.0961, 23.3739, -159.894, -92.5239, 54.8223
4.308, 6, -33.2786, -2.12225, 23.3997, -159.886, -92.5219, 54.8225
4.312, 6, -33.243, -2.1486, 23.4256, -159.878, -92.5196, 54.8224
4.316, 6, -33.2074, -2.17516, 23.4517, -159.87, -92.517, 54.822
4.32, 6, -33.1719, -2.20195, 23.478, -159.862, -92.5142, 54.8213
4.324, 6, -33.1365, -2.22899, 23.5045, -159.853, -92.511, 54.8202
4.328, 7, -33.1012, -2.2563, 23.5313, -159.844, -92.5075, 54.8187
4.332, 7, -33.066, -2.28388, 23.5583, -159.835, -92.5037, 54.8169
4.336, 7, -33.0309, -2.31177, 23.5855, -159.826, -92.4995, 54.8146
4.34, 7, -32.9959, -2.33996, 23.613, -159.816, -92.495, 54.8119
4.344, 7, -32.961, -2.36848, 23.6407, -159.806, -92.4902, 54.8089
4.348, 7, -32.9263, -2.39732, 23.6686, -159.796, -92.485, 54.8054
4.352, 7, -32.8918, -2.42649, 23.6969, -159.786, -92.4795, 54.8015
4.356, 7, -32.8573, -2.45599, 23.7253, -159.775, -92.4736, 54.7972
4.36, 7, -32.8231, -2.48583, 23.754, -159.764, -92.4674, 54.7926
4.364, 7, -32.7889, -2.516, 23.783, -159.753, -92.4609, 54.7875
4.368, 8, -32.7549, -2.5465, 23.8122, -159.742, -92.454, 54.782
4.372, 8, -32.721, -2.57735, 23.8417, -159.73, -92.4468, 54.7761
4.376, 8, -32.6873, -2.60853, 23.8714, -159.718, -92.4392, 54.7698
4.38, 8, -32.6537, -2.64006, 23.9013, -159.706, -92.4313, 54.7631
4.384, 8, -32.6203, -2.67192, 23.9316, -159.694, -92.423, 54.756
4.388, 8, -32.587, -2.70413, 23.962, -159.681, -92.4144, 54.7485
4.392, 8, -32.5538, -2.73668, 23.9927, -159.669, -92.4054, 54.7405
4.396, 8, -32.5208, -2.76957, 24.0237, -159.655, -92.3961, 54.7322
4.4, 8, -32.4879, -2.8028, 24.0549, -159.642, -92.3864, 54.7235
4.404, 8, -32.4551, -2.83637, 24.0864, -159.629, -92.3764, 54.7144
4.408, 8, -32.4225, -2.87029, 24.1181, -159.615, -92.3661, 54.7049
4.412, 9, -32.3901, -2.90456, 24.1501, -159.601, -92.3554, 54.695
4.416, 9, -32.3577, -2.93916, 24.1823, -159.586, -92.3443, 54.6847
4.42, 9, -32.3255, -2.97412, 24.2148, -159.572, -92.3329, 54.6739
4.424, 9, -32.2935, -3.00942, 24.2475, -159.557, -92.3212, 54.6628
4.428, 9, -32.2616, -3.04506, 24.2805, -159.542, -92.3091, 54.6513
4.432, 9, -32.2298, -3.08105, 24.3137, -159.527, -92.2967, 54.6394
4.436, 9, -32.1982, -3.11739, 24.3472, -159.511, -92.2839, 54.6271
4.44, 9, -32.1667, -3.15408, 24.3809, -159.495, -92.2708, 54.6144
4.444, 9, -32.1353, -3.19111, 24.4149, -159.479, -92.2573, 54.6013
4.448, 9, -32.1041, -3.22849, 24.4491, -159.463, -92.2435, 54.5878
4.452, 10, -32.073, -3.26622, 24.4836, -159.446, -92.2293, 54.5739
4.456, 10, -32.042, -3.3043, 24.5183, -159.43, -92.2148, 54.5596
4.46, 10, -32.0112, -3.34273, 24.5533, -159.413, -92.1999, 54.5449
4.464, 10, -31.9805, -3.38151, 24.5885, -159.396, -92.1847, 54.5298
4.468, 10, -31.95, -3.42064, 24.624, -159.378, -92.1692, 54.5143
4.472, 10, -31.9196, -3.46012, 24.6598, -159.36, -92.1533, 54.4985
4.476, 10, -31.8893, -3.49996, 24.6958, -159.343, -92.137, 54.4822
4.48, 10, -31.8592, -3.54014, 24.732, -159.324, -92.1204, 54.4655
4.484, 10, -31.8292, -3.58068, 24.7685, -159.306, -92.1035, 54.4485
4.488, 10, -31.7993, -3.62156, 24.8052, -159.287, -92.0862, 54.431
4.492, 11, -31.7696, -3.6628, 24.8422, -159.268, -92.0686, 54.4132
4.496, 11, -31.74, -3.7044, 24.8795, -159.249, -92.0506, 54.3949
4.5, 11, -31.7105, -3.74635, 24.917, -159.23, -92.0323, 54.3763
4.504, 11, -31.6812, -3.78865, 24.9548, -159.21, -92.0136, 54.3573
4.508, 11, -31.652, -3.83131, 24.9928, -159.191, -91.9946, 54.3379
4.512, 11, -31.6229, -3.87432, 25.031, -159.171, -91.9752, 54.3181
4.516, 11, -31.594, -3.91768, 25.0695, -159.15, -91.9555, 54.2979
4.52, 11, -31.5652, -3.96141, 25.1083, -159.13, -91.9355, 54.2773
4.524, 11, -31.5365, -4.00549, 25.1473, -159.109, -91.915, 54.2564
4.528, 11, -31.508, -4.04992, 25.1866, -159.088, -91.8943, 54.235
4.532, 12, -31.4796, -4.09471, 25.2261, -159.067, -91.8732, 54.2133
4.536, 12, -31.4514, -4.13986, 25.2659, -159.045, -91.8518, 54.1911
4.54, 12, -31.4232, -4.18536, 25.306, -159.024, -91.83, 54.1686
4.544, 12, -31.3953, -4.23123, 25.3463, -159.002, -91.8079, 54.1457
4.548, 12, -31.3674, -4.27745, 25.3868, -158.98, -91.7854, 54.1224
4.552, 12, -31.3397, -4.32403, 25.4276, -158.957, -91.7626, 54.0987
4.556, 12, -31.3121, -4.37097, 25.4686, -158.935, -91.7394, 54.0746
4.56, 12, -31.2846, -4.41826, 25.51, -158.912, -91.7159, 54.0502
4.564, 12, -31.2573, -4.46592, 25.5515, -158.889, -91.692, 54.0253
4.568, 12, -31.2301, -4.51394, 25.5933, -158.866, -91.6678, 54.0001
4.572, 13, -31.203, -4.56231, 25.6354, -158.842, -91.6433, 53.9745
4.576, 13, -31.1761, -4.61105, 25.6777, -158.818, -91.6184, 53.9485
4.58, 13, -31.1493, -4.66014, 25.7203, -158.794, -91.5932, 53.9222
4.584, 13, -31.1226, -4.7096, 25.7631, -158.77, -91.5676, 53.8954
4.588, 13, -31.0961, -4.75942, 25.8062, -158.746, -91.5417, 53.8683
4.592, 13, -31.0696, -4.8096, 25.8496, -158.721, -91.5154, 53.8407
4.596, 13, -31.0434, -4.86014, 25.8932, -158.696, -91.4888, 53.8129
4.6, 13, -31.0172, -4.91104, 25.937, -158.671, -91.4619, 53.7846
4.604, 13, -30.9912, -4.9623, 25.9812, -158.646, -91.4346, 53.7559
4.608, 13, -30.9653, -5.01393, 26.0255, -158.62, -91.407, 53.7269
4.612, 13, -30.9395, -5.06592, 26.0701, -158.594, -91.379, 53.6975
4.616, 14, -30.9139, -5.11827, 26.115, -158.568, -91.3507, 53.6677
4.62, 14, -30.8884, -5.17098, 26.1602, -158.542, -91.322, 53.6375
4.624, 14, -30.8631, -5.22405, 26.2056, -158.516, -91.293, 53.6069
4.628, 14, -30.8378, -5.27749, 26.2512, -158.489, -91.2637, 53.576
4.632, 14, -30.8127, -5.33129, 26.2971, -158.462, -91.234, 53.5447
4.636, 14, -30.7877, -5.38546, 26.3433, -158.435, -91.204, 53.5131
4.64, 14, -30.7629, -5.43999, 26.3897, -158.407, -91.1737, 53.481
4.644, 14, -30.7382, -5.49488, 26.4364, -158.38, -91.143, 53.4486
4.648, 14, -30.7136, -5.55013, 26.4833, -158.352, -91.1119, 53.4158
4.652, 14, -30.6891, -5.60575, 26.5305, -158.324, -91.0806, 53.3826
4.656, 15, -30.6648, -5.66173, 26.5779, -158.296, -91.0489, 53.3491
4.66, 15, -30.6406, -5.71807, 26.6256, -158.267, -91.0168, 53.3152
4.664, 15, -30.6165, -5.77478, 26.6736, -158.238, -90.9844, 53.2809
4.668, 15, -30.5925, -5.83185, 26.7218, -158.209, -90.9517, 53.2463
4.672, 15, -30.5687, -5.88929, 26.7703, -158.18, -90.9187, 53.2113
4.676, 15, -30.545, -5.94709, 26.819, -158.151, -90.8853, 53.1759
4.68, 15, -30.5214, -6.00525, 26.868, -158.121, -90.8516, 53.1402
4.684, 15, -30.498, -6.06378, 26.9173, -158.091, -90.8175, 53.1041
4.688, 15, -30.4747, -6.12267, 26.9668, -158.061, -90.7831, 53.0676
4.692, 15, -30.4515, -6.18192, 27.0165, -158.031, -90.7484, 53.0308
4.696, 16, -30.4284, -6.24154, 27.0666, -158, -90.7134, 52.9936
4.7, 16, -30.4055, -6.30152, 27.1168, -157.969, -90.678, 52.9561
4.704, 16, -30.3827, -6.36187, 27.1674, -157.938, -90.6423, 52.9182
4.708, 16, -30.36, -6.42257, 27.2182, -157.907, -90.6062, 52.8799
4.712, 16, -30.3375, -6.48364, 27.2692, -157.876, -90.5698, 52.8413
4.716, 16, -30.315, -6.54508, 27.3205, -157.844, -90.5331, 52.8023
4.72, 16, -30.2927, -6.60687, 27.3721, -157.812, -90.4961, 52.763
4.724, 16, -30.2706, -6.66903, 27.4239, -157.78, -90.4587, 52.7233
4.728, 16, -30.2485, -6.73155, 27.476, -157.747, -90.421, 52.6832
4.732, 16, -30.2266, -6.79444, 27.5283, -157.715, -90.383, 52.6428
4.736, 17, -30.2048, -6.85768, 27.5809, -157.682, -90.3447, 52.6021
4.74, 17, -30.1831, -6.92129, 27.6337, -157.649, -90.306, 52.561
4.744, 17, -30.1616, -6.98525, 27.6869, -157.616, -90.267, 52.5196
4.748, 17, -30.1401, -7.04958, 27.7402, -157.582, -90.2277, 52.4778
4.752, 17, -30.1188, -7.11427, 27.7938, -157.548, -90.1881, 52.4357
4.756, 17, -30.0976, -7.17932, 27.8477, -157.514, -90.1481, 52.3932
4.76, 17, -30.0766, -7.24473, 27.9018, -157.48, -90.1078, 52.3504
4.764, 17, -30.0556, -7.3105, 27.9562, -157.446, -90.0672, 52.3072
4.768, 17, -30.0348, -7.37663, 28.0109, -157.411, -90.0263, 52.2637
4.772, 17, -30.0142, -7.44312, 28.0658, -157.376, -89.9851, 52.2199
4.776, 18, -29.9936, -7.50996, 28.1209, -157.341, -89.9435, 52.1757
4.78, 18, -29.9731, -7.57717, 28.1763, -157.306, -89.9016, 52.1312
4.784, 18, -29.9528, -7.64473, 28.232, -157.27, -89.8595, 52.0864
4.788, 18, -29.9326, -7.71264, 28.2879, -157.235, -89.8169, 52.0412
4.792, 18, -29.9125, -7.78092, 28.3441, -157.199, -89.7741, 51.9958
4.796, 18, -29.8926, -7.84955, 28.4005, -157.163, -89.731, 51.9499
4.8, 18, -29.8727, -7.91853, 28.4572, -157.126, -89.6876, 51.9038
4.804, 18, -29.853, -7.98787, 28.5142, -157.089, -89.6438, 51.8573
4.808, 18, -29.8334, -8.05757, 28.5714, -157.053, -89.5998, 51.8105
4.812, 18, -29.8139, -8.12761, 28.6288, -157.016, -89.5554, 51.7634
4.816, 18, -29.7946, -8.19801, 28.6865, -156.978, -89.5107, 51.716
4.82, 19, -29.7753, -8.26877, 28.7445, -156.941, -89.4657, 51.6682
4.824, 19, -29.7562, -8.33987, 28.8027, -156.903, -89.4205, 51.6202
4.828, 19, -29.7372, -8.41132, 28.8611, -156.865, -89.3749, 51.5718
4.832, 19, -29.7183, -8.48313, 28.9198, -156.827, -89.329, 51.5231
4.836, 19, -29.6996, -8.55528, 28.9788, -156.788, -89.2828, 51.4741
4.84, 19, -29.6809, -8.62778, 29.038, -156.75, -89.2363, 51.4248
4.844, 19, -29.6624, -8.70063, 29.0975, -156.711, -89.1895, 51.3752
4.848, 19, -29.644, -8.77382, 29.1572, -156.672, -89.1425, 51.3253
4.852, 19, -29.6257, -8.84736, 29.2171, -156.632, -89.0951, 51.2751
4.856, 19, -29.6075, -8.92125, 29.2773, -156.593, -89.0474, 51.2246
4.86, 20, -29.5894, -8.99548, 29.3378, -156.553, -88.9994, 51.1738
4.864, 20, -29.5714, -9.07005, 29.3985, -156.513, -88.9512, 51.1227
4.868, 20, -29.5536, -9.14496, 29.4595, -156.473, -88.9026, 51.0714
4.872, 20, -29.5359, -9.22022, 29.5207, -156.432, -88.8538, 51.0197
4.876, 20, -29.5183, -9.29581, 29.5821, -156.392, -88.8047, 50.9678
4.88, 20, -29.5008, -9.37174, 29.6438, -156.351, -88.7553, 50.9155
4.884, 20, -29.4834, -9.44801, 29.7057, -156.31, -88.7056, 50.863
4.888, 20, -29.4661, -9.52462, 29.7679, -156.268, -88.6556, 50.8103
4.892, 20, -29.4489, -9.60156, 29.8303, -156.227, -88.6054, 50.7572
4.896, 20, -29.4319, -9.67883, 29.893, -156.185, -88.5549, 50.7039
4.9, 21, -29.4149, -9.75644, 29.9559, -156.143, -88.504, 50.6503
4.904, 21, -29.3981, -9.83438, 30.019, -156.101, -88.453, 50.5964
4.908, 21, -29.3813, -9.91265, 30.0824, -156.058, -88.4016, 50.5423
4.912, 21, -29.3647, -9.99125, 30.1461, -156.016, -88.35, 50.4879
4.916, 21, -29.3482, -10.0702, 30.2099, -155.973, -88.2981, 50.4333
4.92, 21, -29.3318, -10.1494, 30.274, -155.93, -88.2459, 50.3784
4.924, 21, -29.3155, -10.229, 30.3384, -155.886, -88.1935, 50.3233
4.928, 21, -29.2993, -10.3089, 30.403, -155.843, -88.1408, 50.2679
4.932, 21, -29.2832, -10.3891, 30.4678, -155.799, -88.0878, 50.2123
4.936, 21, -29.2672, -10.4697, 30.5328, -155.755, -88.0346, 50.1564
4.94, 22, -29.2514, -10.5505, 30.5981, -155.711, -87.9811, 50.1003
4.944, 22, -29.2356, -10.6317, 30.6636, -155.666, -87.9274, 50.044
4.948, 22, -29.2199, -10.7132, 30.7294, -155.622, -87.8734, 49.9874
4.952, 22, -29.2043, -10.795, 30.7953, -155.577, -87.8191, 49.9306
4.956, 22, -29.1889, -10.8771, 30.8615, -155.532, -87.7646, 49.8736
4.96, 22, -29.1735, -10.9596, 30.928, -155.486, -87.7099, 49.8164
4.964, 22, -29.1582, -11.0423, 30.9946, -155.441, -87.6549, 49.7589
4.968, 22, -29.1431, -11.1254, 31.0615, -155.395, -87.5996, 49.7013
4.972, 22, -29.128, -11.2087, 31.1286, -155.349, -87.5442, 49.6434
4.976, 22, -29.113, -11.2924, 31.196, -155.303, -87.4884, 49.5854
4.98, 23, -29.0981, -11.3763, 31.2635, -155.257, -87.4325, 49.5271
4.984, 23, -29.0834, -11.4606, 31.3313, -155.21, -87.3763, 49.4687
4.988, 23, -29.0687, -11.5451, 31.3993, -155.163, -87.3198, 49.41
4.992, 23, -29.0541, -11.63, 31.4676, -155.116, -87.2632, 49.3512
4.996, 23, -29.0396, -11.7152, 31.536, -155.069, -87.2063, 49.2922
5, 23, -29.0252, -11.8006, 31.6046, -155.022, -87.1491, 49.233
5.004, 23, -29.0109, -11.8863, 31.6735, -154.974, -87.0918, 49.1736
5.008, 23, -28.9967, -11.9723, 31.7426, -154.926, -87.0342, 49.1141
5.012, 23, -28.9825, -12.0586, 31.8119, -154.878, -86.9764, 49.0544
5.016, 23, -28.9685, -12.1452, 31.8814, -154.83, -86.9184, 48.9946
5.02, 23, -28.9545, -12.2321, 31.9511, -154.781, -86.8601, 48.9346
5.024, 24, -28.9407, -12.3193, 32.0211, -154.733, -86.8017, 48.8744
5.028, 24, -28.9269, -12.4067, 32.0912, -154.684, -86.743, 48.8141
5.032, 24, -28.9132, -12.4944, 32.1615, -154.635, -86.6842, 48.7537
5.036, 24, -28.8996, -12.5824, 32.2321, -154.585, -86.6251, 48.6931
5.04, 24, -28.8861, -12.6706, 32.3028, -154.536, -86.5658, 48.6324
5.044, 24, -28.8727, -12.7591, 32.3737, -154.486, -86.5063, 48.5716
5.048, 24, -28.8593, -12.8479, 32.4449, -154.436, -86.4466, 48.5106
5.052, 24, -28.846, -12.937, 32.5162, -154.386, -86.3867, 48.4496
5.056, 24, -28.8328, -13.0263, 32.5878, -154.336, -86.3267, 48.3884
5.06, 24, -28.8197, -13.1158, 32.6595, -154.285, -86.2664, 48.3271
5.064, 25, -28.8067, -13.2057, 32.7314, -154.234, -86.2059, 48.2658
5.068, 25, -28.7937, -13.2957, 32.8035, -154.183, -86.1453, 48.2043
5.072, 25, -28.7808, -13.3861, 32.8758, -154.132, -86.0845, 48.1427
5.076, 25, -28.768, -13.4767, 32.9483, -154.081, -86.0235, 48.0811
5.08, 25, -28.7553, -13.5675, 33.0209, -154.029, -85.9623, 48.0194
5.084, 25, -28.7426, -13.6585, 33.0938, -153.977, -85.9009, 47.9576
5.088, 25, -28.73, -13.7498, 33.1668, -153.925, -85.8394, 47.8958
5.092, 25, -28.7175, -13.8414, 33.24, -153.873, -85.7776, 47.8339
5.096, 25, -28.705, -13.9332, 33.3134, -153.821, -85.7158, 47.772
5.1, 25, -28.6926, -14.0252, 33.387, -153.768, -85.6537, 47.71
5.104, 26, -28.6803, -14.1174, 33.4607, -153.716, -85.5915, 47.6479
5.108, 26, -28.668, -14.2099, 33.5346, -153.663, -85.5291, 47.5859
5.112, 26, -28.6558, -14.3026, 33.6087, -153.61, -85.4666, 47.5238
5.116, 26, -28.6437, -14.3955, 33.6829, -153.556, -85.4039, 47.4617
5.12, 26, -28.6316, -14.4886, 33.7573, -153.503, -85.3411, 47.3996
5.124, 26, -28.6196, -14.582, 33.8319, -153.449, -85.2781, 47.3374
5.128, 26, -28.6076, -14.6756, 33.9066, -153.395, -85.215, 47.2753
5.132, 26, -28.5957, -14.7693, 33.9815, -153.341, -85.1517, 47.2132
5.136, 26, -28.5839, -14.8633, 34.0565, -153.287, -85.0883, 47.1511
5.14, 26, -28.5721, -14.9575, 34.1317, -153.232, -85.0248, 47.089
5.144, 27, -28.5604, -15.0519, 34.2071, -153.178, -84.9611, 47.0269
5.148, 27, -28.5487, -15.1465, 34.2826, -153.123, -84.8973, 46.9649
5.152, 27, -28.5371, -15.2412, 34.3582, -153.068, -84.8333, 46.9029
5.156, 27, -28.5255, -15.3362, 34.434, -153.013, -84.7692, 46.841
5.16, 27, -28.5139, -15.4313, 34.5099, -152.957, -84.705, 46.7791
5.164, 27, -28.5024, -15.5267, 34.586, -152.902, -84.6407, 46.7173
5.168, 27, -28.491, -15.6222, 34.6622, -152.846, -84.5763, 46.6556
5.172, 27, -28.4796, -15.7179, 34.7385, -152.79, -84.5117, 46.5939
5.176, 27, -28.4682, -15.8138, 34.815, -152.734, -84.4471, 46.5323
5.18, 27, -28.4569, -15.9098, 34.8916, -152.678, -84.3823, 46.4709
5.184, 28, -28.4456, -16.006, 34.9683, -152.621, -84.3174, 46.4095
5.188, 28, -28.4344, -16.1024, 35.0452, -152.565, -84.2524, 46.3482
5.192, 28, -28.4232, -16.199, 35.1221, -152.508, -84.1873, 46.2871
5.196, 28, -28.412, -16.2957, 35.1992, -152.451, -84.1221, 46.2261
5.2, 28, -28.4009, -16.3925, 35.2764, -152.394, -84.0569, 46.1652
5.204, 28, -28.3898, -16.4895, 35.3537, -152.337, -83.9915, 46.1045
5.208, 28, -28.3787, -16.5867, 35.4312, -152.279, -83.926, 46.0439
5.212, 28, -28.3676, -16.684, 35.5087, -152.221, -83.8605, 45.9834
5.216, 28, -28.3566, -16.7815, 35.5864, -152.164, -83.7949, 45.9232
5.22, 28, -28.3456, -16.879, 35.6641, -152.106, -83.7291, 45.8631
5.224, 28, -28.3346, -16.9768, 35.742, -152.048, -83.6634, 45.8032
5.228, 29, -28.3237, -17.0746, 35.8199, -151.989, -83.5975, 45.7435
5.232, 29, -28.3127, -17.1726, 35.898, -151.931, -83.5316, 45.684
5.236, 29, -28.3018, -17.2707, 35.9761, -151.872, -83.4656, 45.6247
5.24, 29, -28.2909, -17.3689, 36.0543, -151.814, -83.3995, 45.5656
5.244, 29, -28.28, -17.4673, 36.1327, -151.755, -83.3334, 45.5068
5.248, 29, -28.2692, -17.5657, 36.2111, -151.696, -83.2672, 45.4482
5.252, 29, -28.2583, -17.6643, 36.2895, -151.637, -83.2009, 45.3898
5.256, 29, -28.2474, -17.7629, 36.3681, -151.577, -83.1346, 45.3317
5.26, 29, -28.2366, -17.8617, 36.4467, -151.518, -83.0682, 45.2739
5.264, 29, -28.2258, -17.9606, 36.5254, -151.458, -83.0018, 45.2163
5.268, 30, -28.2149, -18.0596, 36.6042, -151.398, -82.9354, 45.159
5.272, 30, -28.2041, -18.1586, 36.6831, -151.338, -82.8689, 45.1021
5.276, 30, -28.1933, -18.2578, 36.762, -151.278, -82.8023, 45.0454
5.28, 30, -28.1824, -18.357, 36.8409, -151.218, -82.7357, 44.989
5.284, 30, -28.1716, -18.4563, 36.92, -151.158, -82.6691, 44.933
5.288, 30, -28.1608, -18.5557, 36.999, -151.097, -82.6025, 44.8773
5.292, 30, -28.1499, -18.6552, 37.0782, -151.037, -82.5358, 44.8219
5.296, 30, -28.1391, -18.7547, 37.1574, -150.976, -82.4691, 44.7669
5.3, 30, -28.1282, -18.8543, 37.2366, -150.915, -82.4024, 44.7123
5.304, 30, -28.1173, -18.954, 37.3158, -150.854, -82.3356, 44.658
5.308, 31, -28.1064, -19.0537, 37.3952, -150.793, -82.2688, 44.6041
5.312, 31, -28.0955, -19.1535, 37.4745, -150.732, -82.202, 44.5506
5.316, 31, -28.0846, -19.2533, 37.5539, -150.671, -82.1352, 44.4976
5.32, 31, -28.0737, -19.3532, 37.6333, -150.609, -82.0684, 44.4449
5.324, 31, -28.0627, -19.4531, 37.7127, -150.547, -82.0016, 44.3926
5.328, 31, -28.0517, -19.553, 37.7922, -150.486, -81.9348, 44.3408
5.332, 31, -28.0407, -19.653, 37.8717, -150.424, -81.8679, 44.2895
5.336, 31, -28.0296, -19.753, 37.9512, -150.362, -81.8011, 44.2385
5.34, 31, -28.0186, -19.8531, 38.0307, -150.3, -81.7342, 44.1881
5.344, 31, -28.0075, -19.9532, 38.1102, -150.238, -81.6674, 44.1381
5.348, 32, -27.9963, -20.0533, 38.1897, -150.175, -81.6006, 44.0887
5.352, 32, -27.9852, -20.1534, 38.2692, -150.113, -81.5338, 44.0397
5.356, 32, -27.974, -20.2535, 38.3488, -150.05, -81.467, 43.9913
5.36, 32, -27.9627, -20.3536, 38.4283, -149.988, -81.4002, 43.9433
5.364, 32, -27.9514, -20.4538, 38.5078, -149.925, -81.3334, 43.8959
5.368, 32, -27.9401, -20.5539, 38.5874, -149.862, -81.2666, 43.8491
5.372, 32, -27.9287, -20.654, 38.6669, -149.799, -81.1999, 43.8028
5.376, 32, -27.9173, -20.7542, 38.7464, -149.736, -81.1331, 43.757
5.38, 32, -27.9058, -20.8543, 38.8258, -149.673, -81.0664, 43.7119
5.384, 32, -27.8943, -20.9544, 38.9053, -149.61, -80.9998, 43.6673
5.388, 33, -27.8827, -21.0545, 38.9847, -149.547, -80.9331, 43.6233
5.392, 33, -27.8711, -21.1545, 39.0641, -149.483, -80.8665, 43.58
5.396, 33, -27.8594, -21.2546, 39.1435, -149.42, -80.7999, 43.5373
5.4, 33, -27.8477, -21.3546, 39.2228, -149.356, -80.7334, 43.4952
5.404, 33, -27.8358, -21.4546, 39.3021, -149.293, -80.6669, 43.4538
5.408, 33, -27.824, -21.5545, 39.3814, -149.229, -80.6004, 43.413
5.412, 33, -27.812, -21.6544, 39.4606, -149.165, -80.534, 43.3729
5.416, 33, -27.8, -21.7542, 39.5397, -149.101, -80.4676, 43.3335
5.42, 33, -27.7879, -21.854, 39.6188, -149.037, -80.4013, 43.2947
5.424, 33, -27.7758, -21.9538, 39.6979, -148.973, -80.335, 43.2567
5.428, 34, -27.7635, -22.0535, 39.7769, -148.909, -80.2687, 43.2194
5.432, 34, -27.7512, -22.1531, 39.8558, -148.845, -80.2025, 43.1829
5.436, 34, -27.7389, -22.2527, 39.9347, -148.781, -80.1364, 43.147
5.44, 34, -27.7264, -22.3522, 40.0135, -148.717, -80.0703, 43.112
5.444, 34, -27.7138, -22.4516, 40.0922, -148.652, -80.0043, 43.0777
5.448, 34, -27.7012, -22.5509, 40.1709, -148.588, -79.9383, 43.0442
5.452, 34, -27.6885, -22.6502, 40.2494, -148.523, -79.8724, 43.0115
5.456, 34, -27.6757, -22.7494, 40.3279, -148.459, -79.8065, 42.9795
5.46, 34, -27.6628, -22.8485, 40.4063, -148.394, -79.7407, 42.9484
5.464, 34, -27.6498, -22.9475, 40.4847, -148.33, -79.675, 42.9182
5.468, 34, -27.6367, -23.0464, 40.5629, -148.265, -79.6093, 42.8888
5.472, 35, -27.6235, -23.1452, 40.641, -148.2, -79.5437, 42.8602
5.476, 35, -27.6102, -23.2439, 40.719, -148.136, -79.4782, 42.8325
5.48, 35, -27.5968, -23.3425, 40.797, -148.071, -79.4127, 42.8057
5.484, 35, -27.5833, -23.4409, 40.8748, -148.006, -79.3474, 42.7798
5.488, 35, -27.5696, -23.5393, 40.9525, -147.941, -79.282, 42.7548
5.492, 35, -27.5559, -23.6376, 41.0301, -147.876, -79.2168, 42.7307
5.496, 35, -27.542, -23.7357, 41.1076, -147.812, -79.1516, 42.7075
5.5, 35, -27.5281, -23.8337, 41.1849, -147.747, -79.0865, 42.6853
5.504, 35, -27.514, -23.9315, 41.2621, -147.682, -79.0215, 42.664
5.508, 35, -27.4998, -24.0293, 41.3393, -147.617, -78.9566, 42.6437
5.512, 36, -27.4855, -24.1268, 41.4162, -147.552, -78.8917, 42.6244
5.516, 36, -27.471, -24.2243, 41.4931, -147.487, -78.827, 42.6061
5.52, 36, -27.4565, -24.3216, 41.5698, -147.422, -78.7623, 42.5888
5.524, 36, -27.4417, -24.4187, 41.6463, -147.357, -78.6977, 42.5726
5.528, 36, -27.4269, -24.5157, 41.7227, -147.292, -78.6331, 42.5573
5.532, 36, -27.4119, -24.6126, 41.799, -147.227, -78.5687, 42.5431
5.536, 36, -27.3968, -24.7092, 41.8751, -147.162, -78.5043, 42.53
5.54, 36, -27.3815, -24.8057, 41.951, -147.097, -78.4401, 42.518
5.544, 36, -27.3661, -24.9021, 42.0268, -147.032, -78.3759, 42.507
5.548, 36, -27.3506, -24.9982, 42.1025, -146.967, -78.3118, 42.4971
5.552, 37, -27.3349, -25.0942, 42.1779, -146.902, -78.2478, 42.4884
5.556, 37, -27.319, -25.19, 42.2532, -146.837, -78.1839, 42.4808
5.56, 37, -27.303, -25.2856, 42.3283, -146.772, -78.1201, 42.4743
5.564, 37, -27.2869, -25.3811, 42.4032, -146.707, -78.0564, 42.469
5.568, 37, -27.2706, -25.4763, 42.478, -146.642, -77.9927, 42.4648
5.572, 37, -27.2541, -25.5713, 42.5525, -146.577, -77.9292, 42.4618
5.576, 37, -27.2374, -25.6662, 42.6269, -146.512, -77.8657, 42.46
5.58, 37, -27.2206, -25.7608, 42.7011, -146.448, -77.8024, 42.4594
5.584, 37, -27.2036, -25.8552, 42.7751, -146.383, -77.7391, 42.4601
5.588, 37, -27.1865, -25.9494, 42.8488, -146.318, -77.6759, 42.462
5.592, 38, -27.1691, -26.0433, 42.9224, -146.253, -77.6129, 42.4651
5.596, 38, -27.1516, -26.1371, 42.9958, -146.189, -77.5499, 42.4695
5.6, 38, -27.1339, -26.2306, 43.0689, -146.124, -77.487, 42.4751
5.604, 38, -27.116, -26.3239, 43.1418, -146.06, -77.4242, 42.4821
5.608, 38, -27.0979, -26.417, 43.2145, -145.995, -77.3615, 42.4903
5.612, 38, -27.0797, -26.5098, 43.287, -145.931, -77.299, 42.4998
5.616, 38, -27.0612, -26.6024, 43.3593, -145.867, -77.2365, 42.5107
5.62, 38, -27.0425, -26.6947, 43.4313, -145.803, -77.1741, 42.5229
5.624, 38, -27.0237, -26.7868, 43.503, -145.739, -77.1118, 42.5365
5.628, 38, -27.0046, -26.8786, 43.5746, -145.674, -77.0496, 42.5514
5.632, 39, -26.9853, -26.9701, 43.6458, -145.611, -76.9875, 42.5678
5.636, 39, -26.9659, -27.0614, 43.7169, -145.547, -76.9255, 42.5855
5.64, 39, -26.9462, -27.1524, 43.7876, -145.483, -76.8636, 42.6046
5.644, 39, -26.9262, -27.2432, 43.8582, -145.419, -76.8018, 42.6251
5.648, 39, -26.9061, -27.3336, 43.9284, -145.356, -76.7401, 42.6471
5.652, 39, -26.8857, -27.4238, 43.9984, -145.292, -76.6785, 42.6705
5.656, 39, -26.8652, -27.5137, 44.0681, -145.229, -76.617, 42.6954
5.66, 39, -26.8443, -27.6033, 44.1375, -145.166, -76.5556, 42.7217
5.664, 39, -26.8233, -27.6926, 44.2067, -145.103, -76.4943, 42.7495
5.668, 39, -26.802, -27.7816, 44.2755, -145.04, -76.4331, 42.7788
5.672, 39, -26.7804, -27.8703, 44.3441, -144.977, -76.3719, 42.8097
5.676, 40, -26.7587, -27.9587, 44.4124, -144.915, -76.3109, 42.842
5.68, 40, -26.7366, -28.0467, 44.4803, -144.852, -76.25, 42.8759
5.684, 40, -26.7144, -28.1345, 44.548, -144.79, -76.1892, 42.9113
5.688, 40, -26.6918, -28.2219, 44.6153, -144.728, -76.1285, 42.9483
5.692, 40, -26.669, -28.309, 44.6824, -144.666, -76.0679, 42.9869
5.696, 40, -26.646, -28.3957, 44.7491, -144.604, -76.0074, 43.027
5.7, 40, -26.6226, -28.4821, 44.8155, -144.543, -75.947, 43.0688
5.704, 40, -26.599, -28.5682, 44.8815, -144.481, -75.8867, 43.1122
5.708, 40, -26.5751, -28.6539, 44.9473, -144.42, -75.8265, 43.1571
5.712, 40, -26.551, -28.7392, 45.0126, -144.359, -75.7664, 43.2038
5.716, 41, -26.5265, -28.8242, 45.0777, -144.298, -75.7064, 43.2521
5.72, 41, -26.5018, -28.9088, 45.1424, -144.238, -75.6464, 43.302
5.724, 41, -26.4768, -28.9931, 45.2067, -144.178, -75.5866, 43.3536
5.728, 41, -26.4515, -29.0769, 45.2706, -144.118, -75.5269, 43.4069
5.732, 41, -26.4259, -29.1604, 45.3342, -144.058, -75.4673, 43.4619
5.736, 41, -26.3999, -29.2435, 45.3975, -143.998, -75.4078, 43.5186
5.74, 41, -26.3737, -29.3262, 45.4603, -143.939, -75.3484, 43.577
5.744, 41, -26.3472, -29.4085, 45.5228, -143.88, -75.2891, 43.6372
5.748, 41, -26.3203, -29.4903, 45.5848, -143.821, -75.2299, 43.6991
5.752, 41, -26.2931, -29.5718, 45.6465, -143.763, -75.1707, 43.7627
5.756, 42, -26.2656, -29.6528, 45.7077, -143.704, -75.1117, 43.8282
5.76, 42, -26.2377, -29.7335, 45.7686, -143.646, -75.0528, 43.8954
5.764, 42, -26.2096, -29.8136, 45.829, -143.589, -74.994, 43.9644
5.768, 42, -26.181, -29.8934, 45.889, -143.532, -74.9353, 44.0352
5.772, 42, -26.1522, -29.9727, 45.9486, -143.475, -74.8767, 44.1078
5.776, 42, -26.1229, -30.0515, 46.0078, -143.418, -74.8182, 44.1822
5.78, 42, -26.0934, -30.1299, 46.0665, -143.362, -74.7598, 44.2585
5.784, 42, -26.0634, -30.2078, 46.1247, -143.306, -74.7015, 44.3366
5.788, 42, -26.0331, -30.2852, 46.1826, -143.251, -74.6433, 44.4166
5.792, 42, -26.0025, -30.3622, 46.2399, -143.195, -74.5852, 44.4984
5.796, 43, -25.9714, -30.4387, 46.2968, -143.141, -74.5272, 44.5821
5.8, 43, -25.94, -30.5147, 46.3532, -143.086, -74.4693, 44.6677
5.804, 43, -25.9082, -30.5901, 46.4091, -143.033, -74.4115, 44.7552
5.808, 43, -25.876, -30.6651, 46.4645, -142.979, -74.3539, 44.8446
5.812, 43, -25.8434, -30.7395, 46.5195, -142.926, -74.2963, 44.9359
5.816, 43, -25.8104, -30.8134, 46.5739, -142.873, -74.2389, 45.0292
5.82, 43, -25.777, -30.8868, 46.6278, -142.821, -74.1815, 45.1244
5.824, 43, -25.7432, -30.9597, 46.6812, -142.769, -74.1243, 45.2215
5.828, 43, -25.7089, -31.0319, 46.7341, -142.718, -74.0672, 45.3206
5.832, 43, -25.6743, -31.1037, 46.7864, -142.668, -74.0102, 45.4216
5.836, 44, -25.6392, -31.1748, 46.8382, -142.617, -73.9533, 45.5246
5.84, 44, -25.6036, -31.2454, 46.8895, -142.568, -73.8965, 45.6296
5.844, 44, -25.5677, -31.3154, 46.9401, -142.518, -73.8399, 45.7366
5.848, 44, -25.5313, -31.3848, 46.9903, -142.47, -73.7833, 45.8455
5.852, 44, -25.4944, -31.4536, 47.0398, -142.422, -73.7269, 45.9565
