hehonglu123/Motion-Primitive-Planning/simulation/robotstudio_sim/scripts/fitting_output/curve_1/100L/curve_exe_v350_z10.csv
timestamp, cmd_num, J1, J2, J3, J4, J5, J6
0, -1, 11.3784, 13.6124, 17.34, -145.519, -97.9231, 142.516
0.002, -1, 11.3784, 13.6124, 17.34, -145.519, -97.9231, 142.516
0.006, -1, 11.3784, 13.6124, 17.34, -145.519, -97.9231, 142.516
0.008, -1, 11.3784, 13.6124, 17.34, -145.519, -97.9231, 142.516
0.011, -1, 11.3784, 13.6124, 17.34, -145.519, -97.9231, 142.516
0.016, -1, 11.3784, 13.6124, 17.34, -145.519, -97.9231, 142.516
0.02, -1, 11.3784, 13.6124, 17.34, -145.519, -97.9231, 142.516
0.024, -1, 11.3784, 13.6124, 17.34, -145.519, -97.9231, 142.516
0.028, -1, 11.3784, 13.6124, 17.34, -145.519, -97.9231, 142.516
0.032, -1, 11.3783, 13.6124, 17.34, -145.519, -97.9231, 142.516
0.036, -1, 11.3783, 13.6124, 17.34, -145.519, -97.9231, 142.516
0.04, -1, 11.378, 13.6124, 17.34, -145.519, -97.9231, 142.516
0.044, -1, 11.3773, 13.6123, 17.3399, -145.519, -97.9231, 142.516
0.048, -1, 11.376, 13.6121, 17.3397, -145.519, -97.9231, 142.516
0.052, -1, 11.3739, 13.6118, 17.3395, -145.519, -97.9231, 142.515
0.056, -1, 11.3709, 13.6113, 17.3392, -145.519, -97.9231, 142.515
0.06, -1, 11.3669, 13.6105, 17.3388, -145.519, -97.923, 142.514
0.064, -1, 11.3616, 13.6095, 17.3382, -145.52, -97.9229, 142.511
0.068, -1, 11.355, 13.6081, 17.3376, -145.52, -97.9228, 142.508
0.072, -1, 11.3469, 13.6063, 17.3369, -145.521, -97.9225, 142.503
0.076, -1, 11.3368, 13.604, 17.3361, -145.523, -97.9221, 142.496
0.08, -1, 11.3245, 13.6011, 17.3353, -145.524, -97.9216, 142.485
0.084, -1, 11.3095, 13.5974, 17.3345, -145.527, -97.9208, 142.471
0.088, -1, 11.2916, 13.593, 17.3339, -145.53, -97.9197, 142.452
0.092, -1, 11.2709, 13.5878, 17.3334, -145.534, -97.9183, 142.428
0.096, -1, 11.2473, 13.5817, 17.3333, -145.54, -97.9165, 142.397
0.1, -1, 11.2208, 13.5749, 17.3336, -145.546, -97.9143, 142.359
0.104, -1, 11.1915, 13.5672, 17.3345, -145.554, -97.9116, 142.313
0.108, -1, 11.1592, 13.5585, 17.336, -145.563, -97.9083, 142.259
0.112, -1, 11.1237, 13.549, 17.3382, -145.574, -97.9045, 142.197
0.116, -1, 11.085, 13.5386, 17.341, -145.586, -97.9002, 142.125
0.12, -1, 11.0431, 13.5271, 17.3444, -145.6, -97.8953, 142.045
0.124, -1, 10.9978, 13.5148, 17.3483, -145.615, -97.8899, 141.956
0.128, -1, 10.9493, 13.5015, 17.3528, -145.632, -97.884, 141.86
0.131, -1, 10.8979, 13.4874, 17.3577, -145.65, -97.8777, 141.756
0.136, -1, 10.8436, 13.4725, 17.3631, -145.669, -97.8709, 141.645
0.139, -1, 10.7865, 13.4568, 17.3687, -145.689, -97.8638, 141.529
0.144, -1, 10.7267, 13.4404, 17.3745, -145.709, -97.8564, 141.407
0.148, -1, 10.6642, 13.4232, 17.3803, -145.731, -97.8487, 141.281
0.152, -1, 10.5993, 13.4055, 17.3861, -145.753, -97.8408, 141.152
0.156, -1, 10.5321, 13.3871, 17.3919, -145.776, -97.8328, 141.02
0.16, -1, 10.4629, 13.3682, 17.3975, -145.799, -97.8246, 140.886
0.164, -1, 10.3921, 13.3489, 17.4031, -145.822, -97.8164, 140.751
0.168, -1, 10.32, 13.3293, 17.4085, -145.845, -97.8081, 140.614
0.172, -1, 10.2468, 13.3094, 17.4139, -145.869, -97.7998, 140.477
0.176, -1, 10.1727, 13.2894, 17.4192, -145.893, -97.7914, 140.339
0.18, -1, 10.0979, 13.2691, 17.4245, -145.916, -97.783, 140.2
0.184, -1, 10.0225, 13.2488, 17.4297, -145.94, -97.7746, 140.062
0.188, -1, 9.94654, 13.2284, 17.4348, -145.964, -97.7661, 139.922
0.192, -1, 9.87027, 13.2079, 17.44, -145.988, -97.7577, 139.783
0.196, -1, 9.79375, 13.1874, 17.4451, -146.012, -97.7492, 139.644
0.2, -1, 9.71706, 13.1669, 17.4502, -146.036, -97.7408, 139.504
0.204, -1, 9.64025, 13.1463, 17.4553, -146.06, -97.7324, 139.365
0.208, -1, 9.56336, 13.1258, 17.4604, -146.084, -97.7239, 139.225
0.212, -1, 9.48641, 13.1052, 17.4655, -146.108, -97.7155, 139.086
0.216, -1, 9.40942, 13.0846, 17.4706, -146.131, -97.707, 138.946
0.22, -1, 9.3324, 13.064, 17.4757, -146.155, -97.6985, 138.807
0.224, -1, 9.25536, 13.0434, 17.4808, -146.179, -97.6901, 138.667
0.228, -1, 9.1783, 13.0228, 17.4859, -146.203, -97.6816, 138.527
0.232, -1, 9.10122, 13.0022, 17.491, -146.227, -97.6732, 138.388
0.236, -1, 9.02413, 12.9815, 17.4961, -146.251, -97.6647, 138.248
0.24, -1, 8.94703, 12.9609, 17.5012, -146.275, -97.6563, 138.108
0.244, -1, 8.86993, 12.9403, 17.5063, -146.299, -97.6478, 137.969
0.248, -1, 8.79281, 12.9197, 17.5114, -146.323, -97.6393, 137.829
0.252, -1, 8.71568, 12.8991, 17.5165, -146.347, -97.6309, 137.689
0.256, -1, 8.63855, 12.8785, 17.5216, -146.371, -97.6224, 137.55
0.26, -1, 8.56141, 12.8578, 17.5267, -146.395, -97.614, 137.41
0.264, -1, 8.48426, 12.8372, 17.5318, -146.419, -97.6055, 137.27
0.268, -1, 8.40711, 12.8166, 17.5369, -146.443, -97.597, 137.13
0.272, -1, 8.32994, 12.7959, 17.542, -146.467, -97.5886, 136.99
0.276, -1, 8.25277, 12.7753, 17.5471, -146.491, -97.5801, 136.851
0.28, -1, 8.1756, 12.7547, 17.5522, -146.515, -97.5716, 136.711
0.284, -1, 8.09841, 12.734, 17.5573, -146.539, -97.5632, 136.571
0.288, -1, 8.02122, 12.7134, 17.5624, -146.563, -97.5547, 136.431
0.292, -1, 7.94402, 12.6928, 17.5675, -146.587, -97.5462, 136.291
0.296, -1, 7.86681, 12.6721, 17.5726, -146.611, -97.5378, 136.151
0.3, -1, 7.7896, 12.6515, 17.5777, -146.635, -97.5293, 136.012
0.304, -1, 7.71238, 12.6308, 17.5828, -146.659, -97.5208, 135.872
0.308, -1, 7.63515, 12.6102, 17.5879, -146.683, -97.5123, 135.732
0.312, -1, 7.55791, 12.5895, 17.593, -146.707, -97.5039, 135.592
0.316, -1, 7.48067, 12.5689, 17.5981, -146.731, -97.4954, 135.452
0.32, -1, 7.40342, 12.5482, 17.6032, -146.755, -97.4869, 135.312
0.324, -1, 7.32616, 12.5276, 17.6083, -146.779, -97.4784, 135.172
0.328, -1, 7.24889, 12.5069, 17.6134, -146.803, -97.47, 135.032
0.332, -1, 7.17162, 12.4862, 17.6185, -146.827, -97.4615, 134.892
0.336, -1, 7.09434, 12.4656, 17.6236, -146.851, -97.453, 134.752
0.34, -1, 7.01705, 12.4449, 17.6287, -146.875, -97.4445, 134.612
0.344, -1, 6.93976, 12.4242, 17.6339, -146.899, -97.436, 134.472
0.348, -1, 6.86246, 12.4036, 17.639, -146.923, -97.4276, 134.332
0.352, -1, 6.78515, 12.3829, 17.6441, -146.947, -97.4191, 134.192
0.356, -1, 6.70783, 12.3622, 17.6492, -146.971, -97.4106, 134.052
0.36, -1, 6.63051, 12.3416, 17.6543, -146.995, -97.4021, 133.912
0.364, -1, 6.55317, 12.3209, 17.6594, -147.019, -97.3936, 133.772
0.368, -1, 6.47583, 12.3002, 17.6645, -147.043, -97.3851, 133.631
0.372, -1, 6.39849, 12.2795, 17.6696, -147.067, -97.3767, 133.491
0.376, -1, 6.32113, 12.2588, 17.6747, -147.091, -97.3682, 133.351
0.38, -1, 6.24377, 12.2382, 17.6798, -147.115, -97.3597, 133.211
0.384, -1, 6.1664, 12.2175, 17.6849, -147.14, -97.3512, 133.071
0.388, -1, 6.08903, 12.1968, 17.6901, -147.164, -97.3427, 132.931
0.392, -1, 6.01164, 12.1761, 17.6952, -147.188, -97.3342, 132.79
0.396, -1, 5.93425, 12.1554, 17.7003, -147.212, -97.3257, 132.65
0.4, -1, 5.85685, 12.1347, 17.7054, -147.236, -97.3172, 132.51
0.404, -1, 5.77945, 12.114, 17.7105, -147.26, -97.3087, 132.37
0.408, -1, 5.70203, 12.0933, 17.7156, -147.284, -97.3003, 132.23
0.412, -1, 5.62461, 12.0726, 17.7207, -147.308, -97.2918, 132.089
0.416, -1, 5.54718, 12.0519, 17.7259, -147.332, -97.2833, 131.949
0.42, -1, 5.46975, 12.0312, 17.731, -147.356, -97.2748, 131.809
0.424, -1, 5.3923, 12.0105, 17.7361, -147.38, -97.2663, 131.668
0.428, -1, 5.31485, 11.9898, 17.7412, -147.404, -97.2578, 131.528
0.432, -1, 5.23739, 11.9691, 17.7463, -147.428, -97.2493, 131.388
0.436, -1, 5.15992, 11.9484, 17.7515, -147.452, -97.2408, 131.247
0.44, -1, 5.08245, 11.9277, 17.7566, -147.476, -97.2323, 131.107
0.444, -1, 5.00497, 11.9069, 17.7617, -147.501, -97.2238, 130.967
0.448, -1, 4.92748, 11.8862, 17.7668, -147.525, -97.2153, 130.826
0.452, -1, 4.84998, 11.8655, 17.7719, -147.549, -97.2068, 130.686
0.456, -1, 4.77248, 11.8448, 17.7771, -147.573, -97.1983, 130.545
0.46, -1, 4.69496, 11.8241, 17.7822, -147.597, -97.1898, 130.405
0.464, -1, 4.61744, 11.8033, 17.7873, -147.621, -97.1813, 130.265
0.468, -1, 4.53991, 11.7826, 17.7924, -147.645, -97.1728, 130.124
0.472, -1, 4.46238, 11.7619, 17.7975, -147.669, -97.1642, 129.984
0.476, -1, 4.38483, 11.7411, 17.8027, -147.693, -97.1557, 129.843
0.48, -1, 4.30728, 11.7204, 17.8078, -147.717, -97.1472, 129.703
0.484, -1, 4.22972, 11.6997, 17.8129, -147.741, -97.1387, 129.562
0.488, -1, 4.15216, 11.6789, 17.818, -147.766, -97.1302, 129.422
0.492, -1, 4.07458, 11.6582, 17.8232, -147.79, -97.1217, 129.281
0.496, -1, 3.997, 11.6374, 17.8283, -147.814, -97.1132, 129.141
0.5, -1, 3.91941, 11.6167, 17.8334, -147.838, -97.1047, 129
0.504, -1, 3.84181, 11.5959, 17.8385, -147.862, -97.0962, 128.859
0.508, -1, 3.7642, 11.5752, 17.8437, -147.886, -97.0877, 128.719
0.512, -1, 3.68659, 11.5544, 17.8488, -147.91, -97.0791, 128.578
0.516, -1, 3.60896, 11.5337, 17.8539, -147.934, -97.0706, 128.438
0.52, -1, 3.53133, 11.5129, 17.8591, -147.959, -97.0621, 128.297
0.524, -1, 3.4537, 11.4922, 17.8642, -147.983, -97.0536, 128.156
0.528, -1, 3.37605, 11.4714, 17.8693, -148.007, -97.0451, 128.016
0.532, -1, 3.2984, 11.4507, 17.8745, -148.031, -97.0366, 127.875
0.536, -1, 3.22074, 11.4299, 17.8796, -148.055, -97.028, 127.734
0.54, -1, 3.14307, 11.4091, 17.8847, -148.079, -97.0195, 127.594
0.544, -1, 3.06539, 11.3884, 17.8898, -148.103, -97.011, 127.453
0.548, -1, 2.9877, 11.3676, 17.895, -148.128, -97.0025, 127.312
0.552, -1, 2.91001, 11.3468, 17.9001, -148.152, -96.9939, 127.171
0.556, -1, 2.83231, 11.326, 17.9052, -148.176, -96.9854, 127.031
0.56, -1, 2.7546, 11.3053, 17.9104, -148.2, -96.9769, 126.89
0.564, -1, 2.67688, 11.2845, 17.9155, -148.224, -96.9684, 126.749
0.568, -1, 2.59916, 11.2637, 17.9207, -148.248, -96.9598, 126.608
0.572, -1, 2.52143, 11.2429, 17.9258, -148.272, -96.9513, 126.467
0.576, -1, 2.44369, 11.2221, 17.9309, -148.297, -96.9428, 126.326
0.58, -1, 2.36594, 11.2013, 17.9361, -148.321, -96.9343, 126.186
0.584, -1, 2.28818, 11.1805, 17.9412, -148.345, -96.9257, 126.045
0.588, -1, 2.21042, 11.1598, 17.9463, -148.369, -96.9172, 125.904
0.592, -1, 2.13264, 11.139, 17.9515, -148.393, -96.9087, 125.763
0.596, -1, 2.05486, 11.1182, 17.9566, -148.417, -96.9001, 125.622
0.6, -1, 1.97708, 11.0974, 17.9618, -148.442, -96.8916, 125.481
0.604, -1, 1.89928, 11.0766, 17.9669, -148.466, -96.883, 125.34
0.608, -1, 1.82147, 11.0558, 17.972, -148.49, -96.8745, 125.199
0.612, -1, 1.74366, 11.035, 17.9772, -148.514, -96.866, 125.058
0.616, -1, 1.66584, 11.0142, 17.9823, -148.538, -96.8574, 124.917
0.62, -1, 1.58801, 10.9933, 17.9875, -148.563, -96.8489, 124.776
0.624, -1, 1.51018, 10.9725, 17.9926, -148.587, -96.8404, 124.635
0.628, -1, 1.43233, 10.9517, 17.9977, -148.611, -96.8318, 124.494
0.632, -1, 1.35448, 10.9309, 18.0029, -148.635, -96.8233, 124.353
0.636, -1, 1.27662, 10.9101, 18.008, -148.659, -96.8147, 124.212
0.64, -1, 1.19875, 10.8893, 18.0132, -148.684, -96.8062, 124.071
0.644, -1, 1.12087, 10.8684, 18.0183, -148.708, -96.7977, 123.93
0.648, -1, 1.04299, 10.8476, 18.0235, -148.732, -96.7891, 123.789
0.652, -1, 0.965097, 10.8268, 18.0286, -148.756, -96.7806, 123.648
0.656, -1, 0.887196, 10.806, 18.0338, -148.78, -96.772, 123.507
0.66, -1, 0.809287, 10.7851, 18.0389, -148.805, -96.7635, 123.366
0.664, -1, 0.731371, 10.7643, 18.0441, -148.829, -96.7549, 123.224
0.668, -1, 0.653446, 10.7435, 18.0492, -148.853, -96.7464, 123.083
0.672, -1, 0.575513, 10.7226, 18.0544, -148.877, -96.7378, 122.942
0.676, -1, 0.497571, 10.7018, 18.0595, -148.902, -96.7293, 122.801
0.68, -1, 0.419622, 10.6809, 18.0647, -148.926, -96.7207, 122.66
0.684, -1, 0.341664, 10.6601, 18.0698, -148.95, -96.7122, 122.518
0.688, -1, 0.263699, 10.6393, 18.075, -148.974, -96.7036, 122.377
0.692, -1, 0.185725, 10.6184, 18.0801, -148.998, -96.6951, 122.236
0.696, -1, 0.107742, 10.5976, 18.0853, -149.023, -96.6865, 122.095
0.7, -1, 0.0297514, 10.5767, 18.0904, -149.047, -96.6779, 121.953
0.704, -1, -0.0482476, 10.5559, 18.0956, -149.071, -96.6694, 121.812
0.708, -1, -0.126255, 10.535, 18.1007, -149.095, -96.6608, 121.671
0.712, -1, -0.204271, 10.5141, 18.1059, -149.12, -96.6523, 121.529
0.716, -1, -0.282295, 10.4933, 18.111, -149.144, -96.6437, 121.388
0.72, -1, -0.360327, 10.4724, 18.1162, -149.168, -96.6352, 121.247
0.724, -1, -0.438368, 10.4515, 18.1214, -149.192, -96.6266, 121.105
0.728, -1, -0.516417, 10.4307, 18.1265, -149.217, -96.618, 120.964
0.732, -1, -0.594474, 10.4098, 18.1317, -149.241, -96.6095, 120.822
0.736, -1, -0.67254, 10.3889, 18.1368, -149.265, -96.6009, 120.681
0.74, -1, -0.750614, 10.3681, 18.142, -149.29, -96.5923, 120.54
0.744, -1, -0.828697, 10.3472, 18.1471, -149.314, -96.5838, 120.398
0.748, -1, -0.906788, 10.3263, 18.1523, -149.338, -96.5752, 120.257
0.752, -1, -0.984887, 10.3054, 18.1575, -149.362, -96.5666, 120.115
0.756, -1, -1.063, 10.2845, 18.1626, -149.387, -96.5581, 119.974
0.76, -1, -1.14111, 10.2637, 18.1678, -149.411, -96.5495, 119.832
0.764, -1, -1.21924, 10.2428, 18.173, -149.435, -96.5409, 119.691
0.768, -1, -1.29737, 10.2219, 18.1781, -149.459, -96.5323, 119.549
0.772, -1, -1.37551, 10.201, 18.1833, -149.484, -96.5238, 119.407
0.776, -1, -1.45366, 10.1801, 18.1884, -149.508, -96.5152, 119.266
0.78, -1, -1.53182, 10.1592, 18.1936, -149.532, -96.5066, 119.124
0.784, -1, -1.60999, 10.1383, 18.1988, -149.557, -96.4981, 118.983
0.788, -1, -1.68817, 10.1174, 18.2039, -149.581, -96.4895, 118.841
0.792, -1, -1.76635, 10.0965, 18.2091, -149.605, -96.4809, 118.699
0.796, -1, -1.84455, 10.0756, 18.2143, -149.63, -96.4723, 118.558
0.8, -1, -1.92275, 10.0547, 18.2194, -149.654, -96.4637, 118.416
0.804, -1, -2.00096, 10.0338, 18.2246, -149.678, -96.4552, 118.274
0.808, -1, -2.07918, 10.0128, 18.2298, -149.702, -96.4466, 118.133
0.812, -1, -2.15741, 9.99193, 18.2349, -149.727, -96.438, 117.991
0.816, -1, -2.23565, 9.97101, 18.2401, -149.751, -96.4294, 117.849
0.82, -1, -2.31389, 9.95009, 18.2453, -149.775, -96.4208, 117.707
0.824, -1, -2.39215, 9.92917, 18.2505, -149.8, -96.4122, 117.566
0.828, -1, -2.47041, 9.90824, 18.2556, -149.824, -96.4037, 117.424
0.832, -1, -2.54868, 9.88731, 18.2608, -149.848, -96.3951, 117.282
0.836, -1, -2.62697, 9.86638, 18.266, -149.873, -96.3865, 117.14
0.84, -1, -2.70526, 9.84545, 18.2711, -149.897, -96.3779, 116.998
0.844, -1, -2.78355, 9.82452, 18.2763, -149.921, -96.3693, 116.857
0.848, -1, -2.86186, 9.80358, 18.2815, -149.946, -96.3607, 116.715
0.852, -1, -2.94018, 9.78264, 18.2867, -149.97, -96.3521, 116.573
0.856, -1, -3.0185, 9.7617, 18.2918, -149.994, -96.3435, 116.431
0.86, -1, -3.09684, 9.74076, 18.297, -150.019, -96.3349, 116.289
0.864, -1, -3.17518, 9.71981, 18.3022, -150.043, -96.3263, 116.147
0.868, -1, -3.25353, 9.69886, 18.3074, -150.067, -96.3177, 116.005
0.872, -1, -3.33189, 9.67791, 18.3125, -150.092, -96.3091, 115.863
0.876, -1, -3.41026, 9.65695, 18.3177, -150.116, -96.3005, 115.721
0.88, -1, -3.48864, 9.636, 18.3229, -150.141, -96.2919, 115.579
0.884, -1, -3.56702, 9.61504, 18.3281, -150.165, -96.2833, 115.437
0.888, -1, -3.64542, 9.59408, 18.3333, -150.189, -96.2747, 115.295
0.892, -1, -3.72382, 9.57312, 18.3384, -150.214, -96.2662, 115.153
0.896, -1, -3.80223, 9.55215, 18.3436, -150.238, -96.2575, 115.011
0.9, -1, -3.88066, 9.53118, 18.3488, -150.262, -96.2489, 114.869
0.904, -1, -3.95909, 9.51021, 18.354, -150.287, -96.2403, 114.727
0.908, -1, -4.03753, 9.48924, 18.3592, -150.311, -96.2317, 114.585
0.912, -1, -4.11597, 9.46827, 18.3644, -150.336, -96.2231, 114.443
0.916, -1, -4.19443, 9.44729, 18.3695, -150.36, -96.2145, 114.3
0.92, -1, -4.2729, 9.42631, 18.3747, -150.384, -96.2059, 114.158
0.924, -1, -4.35137, 9.40533, 18.3799, -150.409, -96.1973, 114.016
0.928, -1, -4.42986, 9.38434, 18.3851, -150.433, -96.1887, 113.874
0.932, -1, -4.50835, 9.36336, 18.3903, -150.458, -96.1801, 113.732
0.936, -1, -4.58685, 9.34237, 18.3955, -150.482, -96.1715, 113.59
0.94, -1, -4.66536, 9.32138, 18.4007, -150.506, -96.1628, 113.447
0.944, -1, -4.74388, 9.30038, 18.4058, -150.531, -96.1542, 113.305
0.948, -1, -4.82241, 9.27939, 18.411, -150.555, -96.1456, 113.163
0.952, -1, -4.90095, 9.25839, 18.4162, -150.58, -96.137, 113.021
0.956, -1, -4.97949, 9.23739, 18.4214, -150.604, -96.1284, 112.878
0.96, -1, -5.05805, 9.21638, 18.4266, -150.628, -96.1198, 112.736
0.964, -1, -5.13661, 9.19538, 18.4318, -150.653, -96.1111, 112.594
0.968, -1, -5.21519, 9.17437, 18.437, -150.677, -96.1025, 112.451
0.972, -1, -5.29377, 9.15336, 18.4422, -150.702, -96.0939, 112.309
0.976, -1, -5.37236, 9.13235, 18.4474, -150.726, -96.0853, 112.166
0.98, -1, -5.45096, 9.11133, 18.4526, -150.751, -96.0767, 112.024
0.984, -1, -5.52957, 9.09031, 18.4578, -150.775, -96.068, 111.882
0.988, -1, -5.60819, 9.06929, 18.4629, -150.799, -96.0594, 111.739
0.992, -1, -5.68681, 9.04827, 18.4681, -150.824, -96.0508, 111.597
0.996, -1, -5.76545, 9.02725, 18.4733, -150.848, -96.0422, 111.454
1, -1, -5.8441, 9.00622, 18.4785, -150.873, -96.0335, 111.312
1.004, -1, -5.92275, 8.98519, 18.4837, -150.897, -96.0249, 111.169
1.008, -1, -6.00141, 8.96416, 18.4889, -150.922, -96.0163, 111.027
1.012, -1, -6.08009, 8.94312, 18.4941, -150.946, -96.0076, 110.884
1.016, -1, -6.15877, 8.92208, 18.4993, -150.971, -95.999, 110.742
1.02, -1, -6.23746, 8.90104, 18.5045, -150.995, -95.9904, 110.599
1.024, -1, -6.31616, 8.88, 18.5097, -151.019, -95.9817, 110.457
1.027, -1, -6.39487, 8.85896, 18.5149, -151.044, -95.9731, 110.314
1.032, -1, -6.47358, 8.83791, 18.5201, -151.068, -95.9645, 110.171
1.036, -1, -6.55231, 8.81686, 18.5253, -151.093, -95.9558, 110.029
1.04, -1, -6.63105, 8.79581, 18.5305, -151.117, -95.9472, 109.886
1.044, -1, -6.70979, 8.77476, 18.5357, -151.142, -95.9386, 109.743
1.048, -1, -6.78854, 8.7537, 18.5409, -151.166, -95.9299, 109.601
1.052, -1, -6.86731, 8.73264, 18.5461, -151.191, -95.9213, 109.458
1.055, -1, -6.94608, 8.71158, 18.5513, -151.215, -95.9126, 109.315
1.06, -1, -7.02486, 8.69052, 18.5566, -151.24, -95.904, 109.173
1.064, -1, -7.10365, 8.66945, 18.5618, -151.264, -95.8954, 109.03
1.068, -1, -7.18245, 8.64838, 18.567, -151.289, -95.8867, 108.887
1.072, -1, -7.26126, 8.62731, 18.5722, -151.313, -95.8781, 108.744
1.076, -1, -7.34008, 8.60624, 18.5774, -151.338, -95.8694, 108.602
1.08, -1, -7.41891, 8.58516, 18.5826, -151.362, -95.8608, 108.459
1.084, -1, -7.49775, 8.56408, 18.5878, -151.387, -95.8521, 108.316
1.088, -1, -7.5766, 8.543, 18.593, -151.411, -95.8435, 108.173
1.091, -1, -7.65545, 8.52192, 18.5982, -151.436, -95.8348, 108.03
1.096, -1, -7.73432, 8.50083, 18.6034, -151.46, -95.8261, 107.887
1.1, -1, -7.81319, 8.47974, 18.6086, -151.485, -95.8175, 107.744
1.104, -1, -7.89208, 8.45865, 18.6139, -151.509, -95.8088, 107.602
1.108, -1, -7.97097, 8.43756, 18.6191, -151.534, -95.8002, 107.459
1.112, -1, -8.04988, 8.41646, 18.6243, -151.558, -95.7915, 107.316
1.116, -1, -8.12879, 8.39536, 18.6295, -151.583, -95.7829, 107.173
1.119, -1, -8.20771, 8.37426, 18.6347, -151.607, -95.7742, 107.03
1.124, -1, -8.28665, 8.35315, 18.6399, -151.632, -95.7656, 106.887
1.128, -1, -8.36559, 8.33205, 18.6451, -151.656, -95.7569, 106.744
1.132, -1, -8.44454, 8.31094, 18.6504, -151.681, -95.7482, 106.601
1.136, -1, -8.5235, 8.28983, 18.6556, -151.706, -95.7396, 106.458
1.14, -1, -8.60247, 8.26871, 18.6608, -151.73, -95.7309, 106.315
1.144, -1, -8.68145, 8.24759, 18.666, -151.755, -95.7222, 106.172
1.147, -1, -8.76044, 8.22647, 18.6712, -151.779, -95.7136, 106.028
1.152, -1, -8.83944, 8.20535, 18.6765, -151.804, -95.7049, 105.885
1.156, -1, -8.91845, 8.18423, 18.6817, -151.828, -95.6963, 105.742
1.16, -1, -8.99747, 8.1631, 18.6869, -151.853, -95.6876, 105.599
1.164, -1, -9.0765, 8.14197, 18.6921, -151.877, -95.6789, 105.456
1.168, -1, -9.15554, 8.12084, 18.6973, -151.902, -95.6702, 105.313
1.172, -1, -9.23459, 8.0997, 18.7026, -151.927, -95.6616, 105.169
1.175, -1, -9.31365, 8.07856, 18.7078, -151.951, -95.6529, 105.026
1.18, -1, -9.39271, 8.05742, 18.713, -151.976, -95.6442, 104.883
1.184, -1, -9.47179, 8.03628, 18.7182, -152, -95.6355, 104.74
1.188, -1, -9.55088, 8.01513, 18.7235, -152.025, -95.6269, 104.596
1.192, -1, -9.62998, 7.99399, 18.7287, -152.049, -95.6182, 104.453
1.196, -1, -9.70908, 7.97284, 18.7339, -152.074, -95.6095, 104.31
1.2, -1, -9.7882, 7.95168, 18.7391, -152.099, -95.6008, 104.166
1.204, -1, -9.86733, 7.93052, 18.7444, -152.123, -95.5921, 104.023
1.208, -1, -9.94647, 7.90937, 18.7496, -152.148, -95.5835, 103.88
1.212, -1, -10.0256, 7.88821, 18.7548, -152.172, -95.5748, 103.736
1.216, -1, -10.1048, 7.86704, 18.7601, -152.197, -95.5661, 103.593
1.22, -1, -10.1839, 7.84587, 18.7653, -152.222, -95.5574, 103.449
1.224, -1, -10.2631, 7.8247, 18.7705, -152.246, -95.5487, 103.306
1.228, -1, -10.3423, 7.80353, 18.7758, -152.271, -95.54, 103.163
1.232, -1, -10.4215, 7.78236, 18.781, -152.295, -95.5313, 103.019
1.236, -1, -10.5007, 7.76118, 18.7862, -152.32, -95.5227, 102.876
1.24, -1, -10.5799, 7.74, 18.7915, -152.345, -95.514, 102.732
1.244, -1, -10.6591, 7.71882, 18.7967, -152.369, -95.5053, 102.589
1.248, -1, -10.7384, 7.69763, 18.8019, -152.394, -95.4966, 102.445
1.252, -1, -10.8176, 7.67644, 18.8072, -152.419, -95.4879, 102.301
1.256, -1, -10.8969, 7.65525, 18.8124, -152.443, -95.4792, 102.158
1.26, -1, -10.9761, 7.63406, 18.8176, -152.468, -95.4705, 102.014
1.264, -1, -11.0554, 7.61286, 18.8229, -152.493, -95.4618, 101.871
1.267, -1, -11.1347, 7.59167, 18.8281, -152.517, -95.4531, 101.727
1.272, -1, -11.214, 7.57047, 18.8333, -152.542, -95.4444, 101.583
1.276, -1, -11.2933, 7.54926, 18.8386, -152.566, -95.4357, 101.44
1.28, -1, -11.3726, 7.52805, 18.8438, -152.591, -95.427, 101.296
1.284, -1, -11.4519, 7.50685, 18.8491, -152.616, -95.4183, 101.152
1.288, -1, -11.5313, 7.48563, 18.8543, -152.64, -95.4096, 101.009
1.292, -1, -11.6106, 7.46442, 18.8596, -152.665, -95.4009, 100.865
1.295, -1, -11.69, 7.4432, 18.8648, -152.69, -95.3922, 100.721
1.3, -1, -11.7693, 7.42198, 18.87, -152.714, -95.3835, 100.577
1.304, -1, -11.8487, 7.40076, 18.8753, -152.739, -95.3748, 100.433
1.308, -1, -11.9281, 7.37953, 18.8805, -152.764, -95.3661, 100.29
1.312, -1, -12.0075, 7.35831, 18.8858, -152.788, -95.3573, 100.146
1.316, -1, -12.0869, 7.33708, 18.891, -152.813, -95.3486, 100.002
1.32, -1, -12.1663, 7.31584, 18.8963, -152.838, -95.3399, 99.8581
1.324, -1, -12.2457, 7.29461, 18.9015, -152.863, -95.3312, 99.7142
1.328, -1, -12.3252, 7.27337, 18.9068, -152.887, -95.3225, 99.5703
1.332, -1, -12.4046, 7.25213, 18.912, -152.912, -95.3138, 99.4263
1.336, -1, -12.4841, 7.23088, 18.9173, -152.937, -95.3051, 99.2824
1.34, -1, -12.5635, 7.20964, 18.9225, -152.961, -95.2963, 99.1384
1.344, -1, -12.643, 7.18839, 18.9278, -152.986, -95.2876, 98.9945
1.348, -1, -12.7225, 7.16713, 18.933, -153.011, -95.2789, 98.8505
1.352, -1, -12.802, 7.14588, 18.9383, -153.035, -95.2702, 98.7064
1.356, -1, -12.8815, 7.12462, 18.9435, -153.06, -95.2615, 98.5624
1.36, -1, -12.961, 7.10336, 18.9488, -153.085, -95.2527, 98.4183
1.364, -1, -13.0405, 7.0821, 18.954, -153.11, -95.244, 98.2743
1.368, -1, -13.1201, 7.06083, 18.9593, -153.134, -95.2353, 98.1302
1.372, -1, -13.1996, 7.03957, 18.9645, -153.159, -95.2266, 97.9861
1.376, -1, -13.2792, 7.01829, 18.9698, -153.184, -95.2178, 97.8419
1.38, -1, -13.3588, 6.99702, 18.9751, -153.208, -95.2091, 97.6978
1.384, -1, -13.4383, 6.97574, 18.9803, -153.233, -95.2004, 97.5536
1.388, -1, -13.5179, 6.95447, 18.9856, -153.258, -95.1916, 97.4094
1.392, -1, -13.5975, 6.93318, 18.9908, -153.283, -95.1829, 97.2652
1.396, -1, -13.6771, 6.9119, 18.9961, -153.307, -95.1742, 97.121
1.4, -1, -13.7567, 6.89061, 19.0014, -153.332, -95.1654, 96.9768
1.404, -1, -13.8364, 6.86932, 19.0066, -153.357, -95.1567, 96.8325
1.408, -1, -13.916, 6.84803, 19.0119, -153.382, -95.148, 96.6882
1.412, -1, -13.9956, 6.82673, 19.0171, -153.406, -95.1392, 96.5439
1.416, -1, -14.0753, 6.80544, 19.0224, -153.431, -95.1305, 96.3996
1.42, -1, -14.155, 6.78413, 19.0277, -153.456, -95.1217, 96.2553
1.424, -1, -14.2347, 6.76283, 19.0329, -153.481, -95.113, 96.1109
1.428, -1, -14.3143, 6.74152, 19.0382, -153.505, -95.1043, 95.9666
1.432, -1, -14.394, 6.72021, 19.0435, -153.53, -95.0955, 95.8222
1.436, -1, -14.4738, 6.6989, 19.0487, -153.555, -95.0868, 95.6778
1.44, -1, -14.5535, 6.67759, 19.054, -153.58, -95.078, 95.5334
1.444, -1, -14.6332, 6.65627, 19.0593, -153.605, -95.0693, 95.3889
1.448, -1, -14.7129, 6.63495, 19.0645, -153.629, -95.0605, 95.2444
1.452, -1, -14.7927, 6.61363, 19.0698, -153.654, -95.0518, 95.1
1.456, -1, -14.8725, 6.5923, 19.0751, -153.679, -95.043, 94.9555
1.46, -1, -14.9522, 6.57097, 19.0804, -153.704, -95.0343, 94.8109
1.464, -1, -15.032, 6.54964, 19.0856, -153.729, -95.0255, 94.6664
1.468, -1, -15.1118, 6.52831, 19.0909, -153.753, -95.0168, 94.5219
1.472, -1, -15.1916, 6.50697, 19.0962, -153.778, -95.008, 94.3773
1.476, -1, -15.2714, 6.48563, 19.1014, -153.803, -94.9993, 94.2327
1.48, -1, -15.3512, 6.46429, 19.1067, -153.828, -94.9905, 94.0881
1.484, -1, -15.4311, 6.44294, 19.112, -153.853, -94.9817, 93.9434
1.488, -1, -15.5109, 6.42159, 19.1173, -153.877, -94.973, 93.7988
1.492, -1, -15.5908, 6.40024, 19.1225, -153.902, -94.9642, 93.6541
1.496, -1, -15.6707, 6.37889, 19.1278, -153.927, -94.9555, 93.5094
1.5, -1, -15.7505, 6.35753, 19.1331, -153.952, -94.9467, 93.3647
1.504, -1, -15.8304, 6.33617, 19.1384, -153.977, -94.9379, 93.22
1.508, -1, -15.9103, 6.31481, 19.1437, -154.002, -94.9292, 93.0752
1.512, -1, -15.9902, 6.29344, 19.1489, -154.026, -94.9204, 92.9304
1.516, -1, -16.0702, 6.27207, 19.1542, -154.051, -94.9116, 92.7857
1.52, -1, -16.1501, 6.2507, 19.1595, -154.076, -94.9029, 92.6408
1.524, -1, -16.23, 6.22933, 19.1648, -154.101, -94.8941, 92.496
1.528, -1, -16.31, 6.20795, 19.1701, -154.126, -94.8853, 92.3512
1.532, -1, -16.3899, 6.18657, 19.1753, -154.151, -94.8766, 92.2063
1.536, -1, -16.4699, 6.16519, 19.1806, -154.176, -94.8678, 92.0614
1.54, -1, -16.5499, 6.1438, 19.1859, -154.2, -94.859, 91.9165
1.544, -1, -16.6299, 6.12241, 19.1912, -154.225, -94.8502, 91.7716
1.548, -1, -16.7099, 6.10102, 19.1965, -154.25, -94.8414, 91.6266
1.552, -1, -16.7899, 6.07963, 19.2018, -154.275, -94.8327, 91.4816
1.556, -1, -16.87, 6.05823, 19.2071, -154.3, -94.8239, 91.3367
1.56, -1, -16.95, 6.03683, 19.2124, -154.325, -94.8151, 91.1917
1.564, -1, -17.0301, 6.01542, 19.2176, -154.35, -94.8063, 91.0466
1.568, -1, -17.1101, 5.99402, 19.2229, -154.374, -94.7975, 90.9016
1.572, -1, -17.1902, 5.97261, 19.2282, -154.399, -94.7888, 90.7565
1.576, -1, -17.2703, 5.9512, 19.2335, -154.424, -94.78, 90.6114
1.58, -1, -17.3504, 5.92978, 19.2388, -154.449, -94.7712, 90.4663
1.584, -1, -17.4305, 5.90836, 19.2441, -154.474, -94.7624, 90.3212
1.588, -1, -17.5106, 5.88694, 19.2494, -154.499, -94.7536, 90.176
1.592, -1, -17.5907, 5.86552, 19.2547, -154.524, -94.7448, 90.0309
1.596, -1, -17.6709, 5.84409, 19.26, -154.549, -94.736, 89.8857
1.6, -1, -17.751, 5.82266, 19.2653, -154.574, -94.7272, 89.7405
1.604, -1, -17.8312, 5.80123, 19.2706, -154.599, -94.7184, 89.5953
1.608, -1, -17.9114, 5.77979, 19.2759, -154.624, -94.7096, 89.45
1.612, -1, -17.9915, 5.75835, 19.2812, -154.648, -94.7008, 89.3047
1.616, -1, -18.0717, 5.73691, 19.2865, -154.673, -94.692, 89.1595
1.62, -1, -18.1519, 5.71547, 19.2918, -154.698, -94.6832, 89.0142
1.624, -1, -18.2321, 5.69402, 19.2971, -154.723, -94.6744, 88.8688
1.628, -1, -18.3124, 5.67257, 19.3024, -154.748, -94.6656, 88.7235
1.632, -1, -18.3926, 5.65112, 19.3077, -154.773, -94.6568, 88.5781
1.636, -1, -18.4729, 5.62966, 19.313, -154.798, -94.648, 88.4327
1.64, -1, -18.5531, 5.6082, 19.3183, -154.823, -94.6392, 88.2873
1.644, -1, -18.6334, 5.58674, 19.3236, -154.848, -94.6304, 88.1419
1.648, -1, -18.7137, 5.56528, 19.3289, -154.873, -94.6216, 87.9965
1.652, -1, -18.794, 5.54381, 19.3342, -154.898, -94.6128, 87.851
1.656, -1, -18.8743, 5.52234, 19.3395, -154.923, -94.604, 87.7055
1.66, -1, -18.9546, 5.50086, 19.3448, -154.948, -94.5952, 87.56
1.664, -1, -19.0349, 5.47939, 19.3501, -154.973, -94.5864, 87.4145
1.668, -1, -19.1153, 5.45791, 19.3554, -154.998, -94.5776, 87.2689
1.672, -1, -19.1956, 5.43642, 19.3607, -155.023, -94.5687, 87.1234
1.676, -1, -19.276, 5.41494, 19.366, -155.048, -94.5599, 86.9778
1.68, -1, -19.3563, 5.39345, 19.3713, -155.073, -94.5511, 86.8322
1.684, -1, -19.4367, 5.37196, 19.3767, -155.098, -94.5423, 86.6866
1.688, -1, -19.5171, 5.35046, 19.382, -155.123, -94.5335, 86.5409
1.692, -1, -19.5975, 5.32896, 19.3873, -155.148, -94.5247, 86.3953
1.696, -1, -19.6779, 5.30746, 19.3926, -155.173, -94.5158, 86.2496
1.7, -1, -19.7583, 5.28596, 19.3979, -155.198, -94.507, 86.1039
1.704, -1, -19.8388, 5.26445, 19.4032, -155.223, -94.4982, 85.9581
1.708, -1, -19.9192, 5.24294, 19.4085, -155.248, -94.4893, 85.8124
1.712, -1, -19.9997, 5.22143, 19.4139, -155.273, -94.4805, 85.6666
1.716, -1, -20.0802, 5.19992, 19.4192, -155.298, -94.4717, 85.5208
1.72, -1, -20.1606, 5.1784, 19.4245, -155.323, -94.4629, 85.375
1.724, -1, -20.2411, 5.15688, 19.4298, -155.348, -94.454, 85.2292
1.728, -1, -20.3216, 5.13535, 19.4351, -155.373, -94.4452, 85.0834
1.732, -1, -20.4022, 5.11383, 19.4405, -155.398, -94.4364, 84.9375
1.736, -1, -20.4827, 5.0923, 19.4458, -155.423, -94.4275, 84.7916
1.74, -1, -20.5632, 5.07076, 19.4511, -155.448, -94.4187, 84.6457
1.744, -1, -20.6438, 5.04923, 19.4564, -155.473, -94.4099, 84.4998
1.748, -1, -20.7243, 5.02769, 19.4617, -155.498, -94.401, 84.3538
1.752, -1, -20.8049, 5.00615, 19.4671, -155.523, -94.3922, 84.2079
1.756, -1, -20.8855, 4.9846, 19.4724, -155.548, -94.3833, 84.0619
1.76, -1, -20.9661, 4.96305, 19.4777, -155.573, -94.3745, 83.9159
1.764, -1, -21.0467, 4.9415, 19.483, -155.598, -94.3657, 83.7698
1.768, -1, -21.1273, 4.91995, 19.4884, -155.623, -94.3568, 83.6238
1.772, -1, -21.2079, 4.89839, 19.4937, -155.648, -94.348, 83.4777
1.776, -1, -21.2886, 4.87683, 19.499, -155.673, -94.3391, 83.3316
1.78, -1, -21.3692, 4.85527, 19.5043, -155.698, -94.3303, 83.1855
1.784, -1, -21.4499, 4.8337, 19.5097, -155.723, -94.3214, 83.0394
1.788, -1, -21.5305, 4.81213, 19.515, -155.748, -94.3126, 82.8933
1.792, -1, -21.6112, 4.79056, 19.5203, -155.774, -94.3037, 82.7471
1.796, -1, -21.6919, 4.76898, 19.5257, -155.799, -94.2949, 82.6009
1.8, -1, -21.7726, 4.74741, 19.531, -155.824, -94.286, 82.4547
1.804, -1, -21.8533, 4.72582, 19.5363, -155.849, -94.2772, 82.3084
1.808, -1, -21.9341, 4.70424, 19.5417, -155.874, -94.2683, 82.1622
1.812, -1, -22.0148, 4.68265, 19.547, -155.899, -94.2595, 82.0159
1.816, -1, -22.0956, 4.66106, 19.5523, -155.924, -94.2506, 81.8696
1.82, -1, -22.1763, 4.63947, 19.5577, -155.949, -94.2417, 81.7233
1.824, -1, -22.2571, 4.61787, 19.563, -155.974, -94.2329, 81.577
1.828, -1, -22.3379, 4.59627, 19.5684, -155.999, -94.224, 81.4306
1.832, -1, -22.4187, 4.57467, 19.5737, -156.025, -94.2151, 81.2843
1.836, -1, -22.4995, 4.55306, 19.579, -156.05, -94.2063, 81.1379
1.84, -1, -22.5803, 4.53146, 19.5844, -156.075, -94.1974, 80.9914
1.844, -1, -22.6611, 4.50984, 19.5897, -156.1, -94.1885, 80.845
1.848, -1, -22.742, 4.48823, 19.5951, -156.125, -94.1797, 80.6985
1.852, -1, -22.8228, 4.46661, 19.6004, -156.15, -94.1708, 80.5521
1.856, -1, -22.9037, 4.44499, 19.6057, -156.175, -94.1619, 80.4055
1.86, -1, -22.9846, 4.42337, 19.6111, -156.2, -94.1531, 80.259
1.864, -1, -23.0655, 4.40174, 19.6164, -156.226, -94.1442, 80.1125
1.868, -1, -23.1464, 4.38011, 19.6218, -156.251, -94.1353, 79.9659
1.872, -1, -23.2273, 4.35847, 19.6271, -156.276, -94.1264, 79.8193
1.876, -1, -23.3082, 4.33684, 19.6325, -156.301, -94.1175, 79.6727
1.88, -1, -23.3891, 4.3152, 19.6378, -156.326, -94.1087, 79.5261
1.884, -1, -23.4701, 4.29355, 19.6432, -156.351, -94.0998, 79.3794
1.888, -1, -23.5511, 4.27191, 19.6485, -156.377, -94.0909, 79.2328
1.892, -1, -23.632, 4.25026, 19.6539, -156.402, -94.082, 79.0861
1.896, -1, -23.713, 4.2286, 19.6592, -156.427, -94.0731, 78.9393
1.9, -1, -23.794, 4.20695, 19.6646, -156.452, -94.0643, 78.7926
1.904, -1, -23.875, 4.18529, 19.6699, -156.477, -94.0554, 78.6458
1.908, -1, -23.956, 4.16363, 19.6753, -156.502, -94.0465, 78.4991
1.912, -1, -24.0371, 4.14196, 19.6806, -156.528, -94.0376, 78.3523
1.916, -1, -24.1181, 4.12029, 19.686, -156.553, -94.0287, 78.2054
1.92, -1, -24.1992, 4.09862, 19.6913, -156.578, -94.0198, 78.0586
1.924, -1, -24.2802, 4.07694, 19.6967, -156.603, -94.0109, 77.9117
1.928, -1, -24.3613, 4.05527, 19.702, -156.628, -94.002, 77.7648
1.932, -1, -24.4424, 4.03358, 19.7074, -156.654, -93.9931, 77.6179
1.936, -1, -24.5235, 4.0119, 19.7128, -156.679, -93.9842, 77.471
1.94, -1, -24.6046, 3.99021, 19.7181, -156.704, -93.9753, 77.324
1.944, -1, -24.6857, 3.96852, 19.7235, -156.729, -93.9664, 77.1771
1.948, -1, -24.7669, 3.94683, 19.7288, -156.754, -93.9575, 77.0301
1.952, -1, -24.848, 3.92513, 19.7342, -156.78, -93.9486, 76.883
1.956, -1, -24.9292, 3.90343, 19.7396, -156.805, -93.9397, 76.736
1.96, -1, -25.0104, 3.88173, 19.7449, -156.83, -93.9308, 76.5889
1.964, -1, -25.0916, 3.86002, 19.7503, -156.855, -93.9219, 76.4419
1.968, -1, -25.1728, 3.83831, 19.7557, -156.881, -93.913, 76.2948
1.972, -1, -25.254, 3.8166, 19.761, -156.906, -93.9041, 76.1476
1.976, -1, -25.3352, 3.79488, 19.7664, -156.931, -93.8952, 76.0005
1.98, -1, -25.4164, 3.77316, 19.7718, -156.956, -93.8863, 75.8533
1.984, -1, -25.4977, 3.75144, 19.7771, -156.982, -93.8773, 75.7061
1.988, -1, -25.5789, 3.72971, 19.7825, -157.007, -93.8684, 75.5589
1.992, -1, -25.6602, 3.70798, 19.7879, -157.032, -93.8595, 75.4117
1.996, -1, -25.7415, 3.68625, 19.7932, -157.057, -93.8506, 75.2644
1.999, -1, -25.8228, 3.66452, 19.7986, -157.083, -93.8417, 75.1171
2.004, -1, -25.9041, 3.64278, 19.804, -157.108, -93.8328, 74.9699
2.008, -1, -25.9854, 3.62104, 19.8094, -157.133, -93.8238, 74.8225
2.012, -1, -26.0667, 3.59929, 19.8147, -157.158, -93.8149, 74.6752
2.015, -1, -26.1481, 3.57754, 19.8201, -157.184, -93.806, 74.5278
2.019, -1, -26.2294, 3.55579, 19.8255, -157.209, -93.7971, 74.3804
2.024, -1, -26.3108, 3.53404, 19.8309, -157.234, -93.7881, 74.233
2.028, -1, -26.3922, 3.51228, 19.8362, -157.26, -93.7792, 74.0856
2.031, -1, -26.4735, 3.49052, 19.8416, -157.285, -93.7703, 73.9382
2.036, -1, -26.5549, 3.46875, 19.847, -157.31, -93.7614, 73.7907
2.04, -1, -26.6364, 3.44699, 19.8524, -157.335, -93.7524, 73.6432
2.044, -1, -26.7178, 3.42522, 19.8578, -157.361, -93.7435, 73.4957
2.048, -1, -26.7992, 3.40344, 19.8631, -157.386, -93.7346, 73.3482
2.051, -1, -26.8807, 3.38167, 19.8685, -157.411, -93.7256, 73.2006
2.055, -1, -26.9621, 3.35989, 19.8739, -157.437, -93.7167, 73.053
2.06, -1, -27.0436, 3.3381, 19.8793, -157.462, -93.7077, 72.9054
2.064, -1, -27.1251, 3.31632, 19.8847, -157.487, -93.6988, 72.7578
2.068, -1, -27.2066, 3.29453, 19.8901, -157.513, -93.6899, 72.6101
2.071, -1, -27.2881, 3.27273, 19.8954, -157.538, -93.6809, 72.4625
2.076, -1, -27.3696, 3.25094, 19.9008, -157.563, -93.672, 72.3148
2.08, -1, -27.4511, 3.22914, 19.9062, -157.589, -93.663, 72.1671
2.084, -1, -27.5327, 3.20734, 19.9116, -157.614, -93.6541, 72.0194
2.087, -1, -27.6142, 3.18553, 19.917, -157.639, -93.6451, 71.8716
2.092, -1, -27.6958, 3.16372, 19.9224, -157.665, -93.6362, 71.7238
2.096, -1, -27.7774, 3.14191, 19.9278, -157.69, -93.6272, 71.576
2.1, -1, -27.859, 3.12009, 19.9332, -157.716, -93.6183, 71.4282
2.104, -1, -27.9406, 3.09828, 19.9386, -157.741, -93.6093, 71.2804
2.107, -1, -28.0222, 3.07646, 19.9439, -157.766, -93.6004, 71.1325
2.111, -1, -28.1038, 3.05463, 19.9493, -157.792, -93.5914, 70.9846
2.116, -1, -28.1855, 3.0328, 19.9547, -157.817, -93.5825, 70.8367
2.12, -1, -28.2671, 3.01097, 19.9601, -157.842, -93.5735, 70.6888
2.124, -1, -28.3488, 2.98914, 19.9655, -157.868, -93.5646, 70.5409
2.127, -1, -28.4304, 2.9673, 19.9709, -157.893, -93.5556, 70.3929
2.132, -1, -28.5121, 2.94546, 19.9763, -157.919, -93.5466, 70.2449
2.136, -1, -28.5938, 2.92361, 19.9817, -157.944, -93.5377, 70.0969
2.14, -1, -28.6755, 2.90177, 19.9871, -157.969, -93.5287, 69.9489
2.143, -1, -28.7573, 2.87992, 19.9925, -157.995, -93.5197, 69.8008
2.148, -1, -28.839, 2.85806, 19.9979, -158.02, -93.5108, 69.6527
2.152, -1, -28.9208, 2.83621, 20.0033, -158.046, -93.5018, 69.5046
2.156, -1, -29.0025, 2.81435, 20.0087, -158.071, -93.4928, 69.3565
2.16, -1, -29.0843, 2.79248, 20.0141, -158.096, -93.4839, 69.2084
2.163, -1, -29.1661, 2.77062, 20.0195, -158.122, -93.4749, 69.0602
2.168, -1, -29.2479, 2.74875, 20.0249, -158.147, -93.4659, 68.912
2.172, -1, -29.3297, 2.72687, 20.0303, -158.173, -93.4569, 68.7638
2.176, -1, -29.4115, 2.705, 20.0357, -158.198, -93.448, 68.6156
2.179, -1, -29.4933, 2.68312, 20.0411, -158.224, -93.439, 68.4673
2.184, -1, -29.5752, 2.66124, 20.0466, -158.249, -93.43, 68.319
2.188, -1, -29.657, 2.63935, 20.052, -158.274, -93.421, 68.1708
2.192, -1, -29.7389, 2.61746, 20.0574, -158.3, -93.412, 68.0224
2.196, -1, -29.8208, 2.59557, 20.0628, -158.325, -93.4031, 67.8741
2.199, -1, -29.9027, 2.57367, 20.0682, -158.351, -93.3941, 67.7257
2.204, -1, -29.9846, 2.55177, 20.0736, -158.376, -93.3851, 67.5773
2.208, -1, -30.0665, 2.52987, 20.079, -158.402, -93.3761, 67.4289
2.212, -1, -30.1484, 2.50797, 20.0844, -158.427, -93.3671, 67.2805
2.216, -1, -30.2304, 2.48606, 20.0898, -158.453, -93.3581, 67.1321
2.219, -1, -30.3123, 2.46414, 20.0953, -158.478, -93.3491, 66.9836
2.224, -1, -30.3943, 2.44223, 20.1007, -158.504, -93.3401, 66.8351
2.228, -1, -30.4763, 2.42031, 20.1061, -158.529, -93.3311, 66.6866
2.232, -1, -30.5583, 2.39839, 20.1115, -158.555, -93.3222, 66.538
2.235, -1, -30.6403, 2.37646, 20.1169, -158.58, -93.3132, 66.3895
2.24, -1, -30.7223, 2.35453, 20.1224, -158.606, -93.3041, 66.2409
2.244, -1, -30.8043, 2.3326, 20.1278, -158.631, -93.2952, 66.0922
2.248, -1, -30.8864, 2.31066, 20.1332, -158.657, -93.2861, 65.9436
2.252, -1, -30.9684, 2.28873, 20.1386, -158.682, -93.2771, 65.795
2.255, -1, -31.0505, 2.26678, 20.144, -158.708, -93.2681, 65.6463
2.259, -1, -31.1326, 2.24484, 20.1495, -158.733, -93.2591, 65.4976
2.264, -1, -31.2146, 2.22289, 20.1549, -158.759, -93.2501, 65.3489
2.268, -1, -31.2968, 2.20094, 20.1603, -158.784, -93.2411, 65.2001
2.272, -1, -31.3789, 2.17898, 20.1657, -158.81, -93.2321, 65.0513
2.275, -1, -31.461, 2.15702, 20.1712, -158.835, -93.2231, 64.9025
2.28, -1, -31.5431, 2.13506, 20.1766, -158.861, -93.2141, 64.7537
2.284, -1, -31.6253, 2.11309, 20.182, -158.886, -93.2051, 64.6049
2.288, -1, -31.7075, 2.09112, 20.1874, -158.912, -93.1961, 64.456
2.291, -1, -31.7896, 2.06915, 20.1929, -158.937, -93.187, 64.3072
2.296, -1, -31.8718, 2.04718, 20.1983, -158.963, -93.178, 64.1582
2.3, -1, -31.954, 2.0252, 20.2037, -158.988, -93.169, 64.0093
2.304, -1, -32.0363, 2.00322, 20.2092, -159.014, -93.16, 63.8604
2.308, -1, -32.1185, 1.98123, 20.2146, -159.04, -93.151, 63.7114
2.311, -1, -32.2007, 1.95924, 20.22, -159.065, -93.142, 63.5624
2.316, -1, -32.283, 1.93725, 20.2255, -159.091, -93.1329, 63.4134
2.32, -1, -32.3652, 1.91525, 20.2309, -159.116, -93.1239, 63.2644
2.324, -1, -32.4475, 1.89325, 20.2363, -159.142, -93.1149, 63.1153
2.328, -1, -32.5298, 1.87125, 20.2418, -159.167, -93.1059, 62.9662
2.331, -1, -32.6121, 1.84925, 20.2472, -159.193, -93.0968, 62.8171
2.336, -1, -32.6944, 1.82724, 20.2527, -159.219, -93.0878, 62.668
2.34, -1, -32.7768, 1.80523, 20.2581, -159.244, -93.0788, 62.5188
2.344, -1, -32.8591, 1.78321, 20.2635, -159.27, -93.0697, 62.3696
2.347, -1, -32.9415, 1.76119, 20.269, -159.295, -93.0607, 62.2204
2.352, -1, -33.0238, 1.73917, 20.2744, -159.321, -93.0517, 62.0712
2.356, -1, -33.1062, 1.71714, 20.2799, -159.347, -93.0426, 61.922
2.36, -1, -33.1886, 1.69512, 20.2853, -159.372, -93.0336, 61.7727
2.364, -1, -33.271, 1.67308, 20.2908, -159.398, -93.0245, 61.6234
2.367, -1, -33.3534, 1.65105, 20.2962, -159.423, -93.0155, 61.4741
2.372, -1, -33.4358, 1.62901, 20.3016, -159.449, -93.0064, 61.3248
2.376, -1, -33.5183, 1.60697, 20.3071, -159.475, -92.9974, 61.1754
2.38, -1, -33.6007, 1.58492, 20.3125, -159.5, -92.9884, 61.0261
2.383, -1, -33.6832, 1.56287, 20.318, -159.526, -92.9793, 60.8767
2.388, -1, -33.7657, 1.54082, 20.3234, -159.551, -92.9703, 60.7272
2.392, -1, -33.8482, 1.51877, 20.3289, -159.577, -92.9612, 60.5778
2.396, -1, -33.9307, 1.49671, 20.3343, -159.603, -92.9522, 60.4283
2.4, -1, -34.0132, 1.47465, 20.3398, -159.628, -92.9431, 60.2788
2.403, -1, -34.0957, 1.45258, 20.3452, -159.654, -92.9341, 60.1293
2.408, -1, -34.1782, 1.43051, 20.3507, -159.68, -92.925, 59.9798
2.412, -1, -34.2608, 1.40844, 20.3562, -159.705, -92.9159, 59.8302
2.416, -1, -34.3434, 1.38636, 20.3616, -159.731, -92.9069, 59.6807
2.42, -1, -34.4259, 1.36429, 20.3671, -159.757, -92.8978, 59.5311
2.423, -1, -34.5085, 1.3422, 20.3725, -159.782, -92.8888, 59.3814
2.428, -1, -34.5911, 1.32012, 20.378, -159.808, -92.8797, 59.2318
2.432, -1, -34.6737, 1.29803, 20.3834, -159.834, -92.8706, 59.0821
2.436, -1, -34.7564, 1.27594, 20.3889, -159.859, -92.8616, 58.9324
2.439, -1, -34.839, 1.25384, 20.3944, -159.885, -92.8525, 58.7827
2.444, -1, -34.9217, 1.23174, 20.3998, -159.911, -92.8434, 58.633
2.448, -1, -35.0043, 1.20964, 20.4053, -159.937, -92.8344, 58.4832
2.452, -1, -35.087, 1.18754, 20.4107, -159.962, -92.8253, 58.3334
2.456, -1, -35.1697, 1.16543, 20.4162, -159.988, -92.8162, 58.1836
2.459, -1, -35.2524, 1.14332, 20.4217, -160.014, -92.8071, 58.0338
2.464, -1, -35.3351, 1.12121, 20.4271, -160.039, -92.7981, 57.8839
2.468, -1, -35.4176, 1.09912, 20.4326, -160.065, -92.789, 57.7341
2.472, -1, -35.4998, 1.07708, 20.4381, -160.091, -92.7799, 57.5842
2.476, -1, -35.5816, 1.05512, 20.4437, -160.116, -92.7708, 57.4344
2.479, -1, -35.6629, 1.03329, 20.4493, -160.142, -92.7618, 57.2847
2.484, -1, -35.7434, 1.01162, 20.455, -160.168, -92.7527, 57.1353
2.488, -1, -35.8231, 0.99016, 20.4608, -160.193, -92.7437, 56.9863
2.492, -1, -35.9018, 0.968944, 20.4666, -160.219, -92.7347, 56.8381
2.495, -1, -35.9795, 0.948033, 20.4725, -160.244, -92.7257, 56.691
2.5, -1, -36.056, 0.927506, 20.4784, -160.269, -92.7169, 56.5453
2.504, -1, -36.1308, 0.907455, 20.4844, -160.293, -92.7082, 56.4017
2.508, -1, -36.2037, 0.887968, 20.4903, -160.318, -92.6996, 56.2606
2.512, -1, -36.2743, 0.869122, 20.4963, -160.341, -92.6912, 56.1228
2.515, -1, -36.3425, 0.850976, 20.5022, -160.364, -92.683, 55.989
2.52, -1, -36.408, 0.833574, 20.5079, -160.386, -92.6751, 55.8601
2.524, -1, -36.4706, 0.816949, 20.5133, -160.407, -92.6676, 55.7367
2.528, -1, -36.5302, 0.801133, 20.5185, -160.427, -92.6605, 55.6198
2.531, -1, -36.5866, 0.786178, 20.5232, -160.446, -92.6538, 55.5101
2.536, -1, -36.6395, 0.772138, 20.5276, -160.463, -92.6476, 55.4081
2.54, -1, -36.6888, 0.759062, 20.5314, -160.48, -92.6419, 55.3144
2.544, -1, -36.7343, 0.746971, 20.5348, -160.494, -92.6367, 55.2294
2.548, -1, -36.7761, 0.735855, 20.5376, -160.507, -92.6321, 55.1531
2.551, -1, -36.8143, 0.725688, 20.5398, -160.519, -92.628, 55.0858
2.556, -1, -36.8489, 0.716443, 20.5415, -160.529, -92.6245, 55.0272
2.56, -1, -36.8801, 0.708102, 20.5427, -160.537, -92.6215, 54.9771
2.564, -1, -36.9079, 0.700657, 20.5434, -160.545, -92.619, 54.9348
2.568, -1, -36.9323, 0.694098, 20.5438, -160.551, -92.6169, 54.8999
2.571, -1, -36.9535, 0.688406, 20.5438, -160.556, -92.6152, 54.8714
2.576, -1, -36.9717, 0.683543, 20.5436, -160.56, -92.6139, 54.8487
2.58, -1, -36.9872, 0.679445, 20.5433, -160.563, -92.6129, 54.8309
2.584, -1, -37.0002, 0.676034, 20.5429, -160.565, -92.6121, 54.8173
2.587, -1, -37.0112, 0.67323, 20.5424, -160.567, -92.6115, 54.8072
2.592, -1, -37.0203, 0.670965, 20.5419, -160.568, -92.6111, 54.7997
2.596, -1, -37.0277, 0.669174, 20.5414, -160.569, -92.6108, 54.7944
2.6, -1, -37.0336, 0.667799, 20.541, -160.57, -92.6106, 54.7907
2.604, 2, -37.038, 0.666779, 20.5407, -160.57, -92.6105, 54.7881
2.607, 2, -37.0413, 0.66605, 20.5404, -160.571, -92.6104, 54.7864
2.612, 2, -37.0436, 0.665546, 20.5402, -160.571, -92.6103, 54.7852
2.616, 2, -37.0451, 0.665202, 20.5401, -160.571, -92.6103, 54.7844
2.62, 2, -37.0462, 0.664969, 20.54, -160.571, -92.6102, 54.7839
2.624, 2, -37.0469, 0.664811, 20.54, -160.571, -92.6102, 54.7835
2.627, 2, -37.0474, 0.664704, 20.5399, -160.571, -92.6102, 54.7832
2.632, 2, -37.0477, 0.664632, 20.5399, -160.571, -92.6102, 54.7831
2.636, 2, -37.048, 0.664583, 20.5399, -160.571, -92.6102, 54.783
2.64, 2, -37.0481, 0.66455, 20.5399, -160.571, -92.6102, 54.7829
2.643, 2, -37.0482, 0.664527, 20.5399, -160.571, -92.6102, 54.7828
2.648, 2, -37.0483, 0.664512, 20.5399, -160.571, -92.6102, 54.7828
2.652, 2, -37.0483, 0.664502, 20.5399, -160.571, -92.6102, 54.7828
2.656, 2, -37.0484, 0.664495, 20.5399, -160.571, -92.6102, 54.7827
2.66, 2, -37.0484, 0.66449, 20.5399, -160.571, -92.6102, 54.7827
2.663, 2, -37.0484, 0.664487, 20.5399, -160.571, -92.6102, 54.7827
2.668, 2, -37.0484, 0.664485, 20.5399, -160.571, -92.6102, 54.7827
2.672, 2, -37.0484, 0.664483, 20.5399, -160.571, -92.6102, 54.7827
2.676, 2, -37.0484, 0.664482, 20.5399, -160.571, -92.6102, 54.7827
2.679, 2, -37.0484, 0.664481, 20.5399, -160.571, -92.6102, 54.7827
2.684, 2, -37.0484, 0.664481, 20.5399, -160.571, -92.6102, 54.7827
2.688, 2, -37.0484, 0.664481, 20.5399, -160.571, -92.6102, 54.7827
2.692, 2, -37.0484, 0.66448, 20.5399, -160.571, -92.6102, 54.7827
2.696, 2, -37.0484, 0.66448, 20.5399, -160.571, -92.6102, 54.7827
2.699, 2, -37.0484, 0.66448, 20.5399, -160.571, -92.6102, 54.7827
2.704, 2, -37.0484, 0.66448, 20.5399, -160.571, -92.6102, 54.7827
2.708, 2, -37.0484, 0.66448, 20.5399, -160.571, -92.6102, 54.7827
2.712, 2, -37.0484, 0.66448, 20.5399, -160.571, -92.6102, 54.7827
2.716, 2, -37.0484, 0.66448, 20.5399, -160.571, -92.6102, 54.7827
2.719, 2, -37.0484, 0.66448, 20.5399, -160.571, -92.6102, 54.7827
2.724, 2, -37.0484, 0.66448, 20.5399, -160.571, -92.6102, 54.7827
2.728, 2, -37.0484, 0.66448, 20.5399, -160.571, -92.6102, 54.7827
2.732, 2, -37.0484, 0.66448, 20.5399, -160.571, -92.6102, 54.7827
2.735, 2, -37.0484, 0.66448, 20.5399, -160.571, -92.6102, 54.7827
2.74, 2, -37.0484, 0.66448, 20.5399, -160.571, -92.6102, 54.7827
2.744, 2, -37.0484, 0.66448, 20.5399, -160.571, -92.6102, 54.7827
2.748, 2, -37.0484, 0.66448, 20.5399, -160.571, -92.6102, 54.7827
2.752, 2, -37.0484, 0.66448, 20.5399, -160.571, -92.6102, 54.7827
2.755, 2, -37.0484, 0.66448, 20.5399, -160.571, -92.6102, 54.7827
2.76, 2, -37.0484, 0.66448, 20.5399, -160.571, -92.6102, 54.7827
2.764, 2, -37.0484, 0.66448, 20.5399, -160.571, -92.6102, 54.7827
2.768, 2, -37.0484, 0.66448, 20.5399, -160.571, -92.6102, 54.7827
2.772, 2, -37.0484, 0.66448, 20.5399, -160.571, -92.6102, 54.7827
2.775, 2, -37.0484, 0.66448, 20.5399, -160.571, -92.6102, 54.7827
2.78, 2, -37.0484, 0.66448, 20.5399, -160.571, -92.6102, 54.7827
2.784, 2, -37.0484, 0.66448, 20.5399, -160.571, -92.6102, 54.7827
2.788, 2, -37.0484, 0.66448, 20.5399, -160.571, -92.6102, 54.7827
2.791, 2, -37.0484, 0.66448, 20.5399, -160.571, -92.6102, 54.7827
2.796, 2, -37.0484, 0.66448, 20.5399, -160.571, -92.6102, 54.7827
2.8, 2, -37.0484, 0.66448, 20.5399, -160.571, -92.6102, 54.7827
2.804, 2, -37.0484, 0.66448, 20.5399, -160.571, -92.6102, 54.7827
2.808, 2, -37.0484, 0.66448, 20.5399, -160.571, -92.6102, 54.7827
2.811, 2, -37.0484, 0.66448, 20.5399, -160.571, -92.6102, 54.7827
2.816, 2, -37.0484, 0.66448, 20.5399, -160.571, -92.6102, 54.7827
2.82, 2, -37.0484, 0.66448, 20.5399, -160.571, -92.6102, 54.7827
2.824, 2, -37.0484, 0.66448, 20.5399, -160.571, -92.6102, 54.7827
2.828, 2, -37.0484, 0.66448, 20.5399, -160.571, -92.6102, 54.7827
2.831, 2, -37.0484, 0.66448, 20.5399, -160.571, -92.6102, 54.7827
2.836, 2, -37.0484, 0.66448, 20.5399, -160.571, -92.6102, 54.7827
2.84, 2, -37.0484, 0.66448, 20.5399, -160.571, -92.6102, 54.7827
2.844, 2, -37.0484, 0.66448, 20.5399, -160.571, -92.6102, 54.7827
2.847, 2, -37.0484, 0.66448, 20.5399, -160.571, -92.6102, 54.7827
2.852, 2, -37.0484, 0.66448, 20.5399, -160.571, -92.6102, 54.7827
2.856, 2, -37.0484, 0.66448, 20.5399, -160.571, -92.6102, 54.7827
2.86, 2, -37.0484, 0.66448, 20.5399, -160.571, -92.6102, 54.7827
2.864, 2, -37.0484, 0.66448, 20.5399, -160.571, -92.6102, 54.7827
2.867, 2, -37.0484, 0.66448, 20.5399, -160.571, -92.6102, 54.7827
2.872, 2, -37.0484, 0.66448, 20.5399, -160.571, -92.6102, 54.7827
2.876, 2, -37.0484, 0.66448, 20.5399, -160.571, -92.6102, 54.7827
2.88, 2, -37.0484, 0.66448, 20.5399, -160.571, -92.6102, 54.7827
2.883, 2, -37.0484, 0.66448, 20.5399, -160.571, -92.6102, 54.7827
2.888, 2, -37.0484, 0.66448, 20.5399, -160.571, -92.6102, 54.7827
2.892, 2, -37.0484, 0.66448, 20.5399, -160.571, -92.6102, 54.7827
2.896, 2, -37.0484, 0.66448, 20.5399, -160.571, -92.6102, 54.7827
2.9, 2, -37.0484, 0.66448, 20.5399, -160.571, -92.6102, 54.7827
2.903, 2, -37.0484, 0.66448, 20.5399, -160.571, -92.6102, 54.7827
2.908, 2, -37.0484, 0.66448, 20.5399, -160.571, -92.6102, 54.7827
2.912, 2, -37.0484, 0.66448, 20.5399, -160.571, -92.6102, 54.7827
2.916, 2, -37.0484, 0.66448, 20.5399, -160.571, -92.6102, 54.7827
2.92, 2, -37.0484, 0.66448, 20.5399, -160.571, -92.6102, 54.7827
2.923, 2, -37.0484, 0.66448, 20.5399, -160.571, -92.6102, 54.7827
2.928, 2, -37.0484, 0.66448, 20.5399, -160.571, -92.6102, 54.7827
2.932, 2, -37.0484, 0.66448, 20.5399, -160.571, -92.6102, 54.7827
2.936, 2, -37.0484, 0.66448, 20.5399, -160.571, -92.6102, 54.7827
2.939, 2, -37.0484, 0.66448, 20.5399, -160.571, -92.6102, 54.7827
2.944, 2, -37.0484, 0.66448, 20.5399, -160.571, -92.6102, 54.7827
2.948, 2, -37.0484, 0.66448, 20.5399, -160.571, -92.6102, 54.7827
2.952, 2, -37.0484, 0.66448, 20.5399, -160.571, -92.6102, 54.7827
2.956, 2, -37.0484, 0.66448, 20.5399, -160.571, -92.6102, 54.7827
2.959, 2, -37.0484, 0.66448, 20.5399, -160.571, -92.6102, 54.7827
2.964, 2, -37.0484, 0.66448, 20.5399, -160.571, -92.6102, 54.7827
2.968, 2, -37.0484, 0.66448, 20.5399, -160.571, -92.6102, 54.7827
2.972, 2, -37.0484, 0.66448, 20.5399, -160.571, -92.6102, 54.7827
2.976, 2, -37.0484, 0.66448, 20.5399, -160.571, -92.6102, 54.7827
2.98, 2, -37.0484, 0.66448, 20.5399, -160.571, -92.6102, 54.7827
2.984, 2, -37.0484, 0.66448, 20.5399, -160.571, -92.6102, 54.7827
2.988, 2, -37.0484, 0.66448, 20.5399, -160.571, -92.6102, 54.7827
2.992, 2, -37.0484, 0.66448, 20.5399, -160.571, -92.6102, 54.7827
2.995, 2, -37.0484, 0.66448, 20.5399, -160.571, -92.6102, 54.7827
3, 2, -37.0484, 0.66448, 20.5399, -160.571, -92.6102, 54.7827
3.004, 2, -37.0484, 0.66448, 20.5399, -160.571, -92.6102, 54.7827
3.008, 2, -37.0484, 0.66448, 20.5399, -160.571, -92.6102, 54.7827
3.012, 2, -37.0484, 0.66448, 20.5399, -160.571, -92.6102, 54.7827
3.015, 2, -37.0484, 0.66448, 20.5399, -160.571, -92.6102, 54.7827
3.02, 2, -37.0484, 0.66448, 20.5399, -160.571, -92.6102, 54.7827
3.024, 2, -37.0484, 0.66448, 20.5399, -160.571, -92.6102, 54.7827
3.028, 2, -37.0484, 0.66448, 20.5399, -160.571, -92.6102, 54.7827
3.031, 2, -37.0484, 0.66448, 20.5399, -160.571, -92.6102, 54.7827
3.036, 2, -37.0484, 0.66448, 20.5399, -160.571, -92.6102, 54.7827
3.04, 2, -37.0484, 0.66448, 20.5399, -160.571, -92.6102, 54.7827
3.044, 2, -37.0484, 0.66448, 20.5399, -160.571, -92.6102, 54.7827
3.048, 2, -37.0484, 0.66448, 20.5399, -160.571, -92.6102, 54.7827
3.051, 2, -37.0484, 0.66448, 20.5399, -160.571, -92.6102, 54.7827
3.056, 2, -37.0484, 0.66448, 20.5399, -160.571, -92.6102, 54.7827
3.06, 2, -37.0484, 0.66448, 20.5399, -160.571, -92.6102, 54.7827
3.064, 2, -37.0484, 0.66448, 20.5399, -160.571, -92.6102, 54.7827
3.068, 2, -37.0484, 0.66448, 20.5399, -160.571, -92.6102, 54.7827
3.071, 2, -37.0484, 0.66448, 20.5399, -160.571, -92.6102, 54.7827
3.076, 2, -37.0484, 0.66448, 20.5399, -160.571, -92.6102, 54.7827
3.08, 2, -37.0484, 0.66448, 20.5399, -160.571, -92.6102, 54.7827
3.084, 2, -37.0484, 0.66448, 20.5399, -160.571, -92.6102, 54.7827
3.087, 2, -37.0484, 0.66448, 20.5399, -160.571, -92.6102, 54.7827
3.092, 2, -37.0484, 0.66448, 20.5399, -160.571, -92.6102, 54.7827
3.096, 2, -37.0484, 0.66448, 20.5399, -160.571, -92.6102, 54.7827
3.1, 2, -37.0484, 0.66448, 20.5399, -160.571, -92.6102, 54.7827
3.104, 2, -37.0484, 0.66448, 20.5399, -160.571, -92.6102, 54.7827
3.107, 2, -37.0484, 0.66448, 20.5399, -160.571, -92.6102, 54.7827
3.112, 2, -37.0484, 0.66448, 20.5399, -160.571, -92.6102, 54.7827
3.116, 2, -37.0484, 0.66448, 20.5399, -160.571, -92.6102, 54.7827
3.12, 2, -37.0484, 0.66448, 20.5399, -160.571, -92.6102, 54.7827
3.124, 2, -37.0484, 0.66448, 20.5399, -160.571, -92.6102, 54.7827
3.128, 2, -37.0484, 0.66448, 20.5399, -160.571, -92.6102, 54.7827
3.132, 2, -37.0484, 0.66448, 20.5399, -160.571, -92.6102, 54.7827
3.136, 2, -37.0484, 0.66448, 20.5399, -160.571, -92.6102, 54.7827
3.14, 2, -37.0484, 0.66448, 20.5399, -160.571, -92.6102, 54.7827
3.143, 2, -37.0484, 0.66448, 20.5399, -160.571, -92.6102, 54.7827
3.148, 2, -37.0484, 0.66448, 20.5399, -160.571, -92.6102, 54.7827
3.152, 2, -37.0484, 0.66448, 20.5399, -160.571, -92.6102, 54.7827
3.156, 2, -37.0484, 0.66448, 20.5399, -160.571, -92.6102, 54.7827
3.16, 2, -37.0484, 0.66448, 20.5399, -160.571, -92.6102, 54.7827
3.163, 2, -37.0484, 0.66448, 20.5399, -160.571, -92.6102, 54.7827
3.168, 2, -37.0484, 0.66448, 20.5399, -160.571, -92.6102, 54.7827
3.172, 2, -37.0484, 0.66448, 20.5399, -160.571, -92.6102, 54.7827
3.176, 2, -37.0484, 0.66448, 20.5399, -160.571, -92.6102, 54.7827
3.179, 2, -37.0484, 0.66448, 20.5399, -160.571, -92.6102, 54.7827
3.184, 2, -37.0484, 0.66448, 20.5399, -160.571, -92.6102, 54.7827
3.188, 2, -37.0484, 0.66448, 20.5399, -160.571, -92.6102, 54.7827
3.192, 2, -37.0484, 0.66448, 20.5399, -160.571, -92.6102, 54.7827
3.196, 2, -37.0484, 0.66448, 20.5399, -160.571, -92.6102, 54.7827
3.199, 2, -37.0484, 0.66448, 20.5399, -160.571, -92.6102, 54.7827
3.204, 2, -37.0484, 0.66448, 20.5399, -160.571, -92.6102, 54.7827
3.208, 2, -37.0484, 0.66448, 20.5399, -160.571, -92.6102, 54.7827
3.212, 2, -37.0484, 0.66448, 20.5399, -160.571, -92.6102, 54.7827
3.216, 2, -37.0484, 0.66448, 20.5399, -160.571, -92.6102, 54.7827
3.22, 2, -37.0484, 0.66448, 20.5399, -160.571, -92.6102, 54.7827
3.224, 2, -37.0484, 0.66448, 20.5399, -160.571, -92.6102, 54.7827
3.228, 2, -37.0484, 0.66448, 20.5399, -160.571, -92.6102, 54.7827
3.232, 2, -37.0484, 0.66448, 20.5399, -160.571, -92.6102, 54.7827
3.235, 2, -37.0484, 0.66448, 20.5399, -160.571, -92.6102, 54.7827
3.24, 2, -37.0484, 0.66448, 20.5399, -160.571, -92.6102, 54.7827
3.244, 2, -37.0484, 0.66448, 20.5399, -160.571, -92.6102, 54.7827
3.248, 2, -37.0484, 0.66448, 20.5399, -160.571, -92.6102, 54.7827
3.252, 2, -37.0484, 0.66448, 20.5399, -160.571, -92.6102, 54.7827
3.255, 2, -37.0484, 0.66448, 20.5399, -160.571, -92.6102, 54.7827
3.26, 2, -37.0484, 0.66448, 20.5399, -160.571, -92.6102, 54.7827
3.264, 2, -37.0484, 0.66448, 20.5399, -160.571, -92.6102, 54.7827
3.268, 2, -37.0484, 0.66448, 20.5399, -160.571, -92.6102, 54.7827
3.272, 2, -37.0484, 0.66448, 20.5399, -160.571, -92.6102, 54.7827
3.276, 2, -37.0484, 0.66448, 20.5399, -160.571, -92.6102, 54.7827
3.28, 2, -37.0484, 0.66448, 20.5399, -160.571, -92.6102, 54.7827
3.284, 2, -37.0484, 0.66448, 20.5399, -160.571, -92.6102, 54.7827
3.288, 2, -37.0484, 0.66448, 20.5399, -160.571, -92.6102, 54.7827
3.291, 2, -37.0484, 0.66448, 20.5399, -160.571, -92.6102, 54.7827
3.296, 2, -37.0484, 0.66448, 20.5399, -160.571, -92.6102, 54.7827
3.3, 2, -37.0484, 0.66448, 20.5399, -160.571, -92.6102, 54.7827
3.304, 2, -37.0484, 0.66448, 20.5399, -160.571, -92.6102, 54.7827
3.308, 2, -37.0484, 0.66448, 20.5399, -160.571, -92.6102, 54.7827
3.312, 2, -37.0484, 0.66448, 20.5399, -160.571, -92.6102, 54.7827
3.316, 2, -37.0484, 0.66448, 20.5399, -160.571, -92.6102, 54.7827
3.32, 2, -37.0484, 0.66448, 20.5399, -160.571, -92.6102, 54.7827
3.324, 2, -37.0484, 0.66448, 20.5399, -160.571, -92.6102, 54.7827
3.328, 2, -37.0484, 0.66448, 20.5399, -160.571, -92.6102, 54.7827
3.332, 2, -37.0484, 0.66448, 20.5399, -160.571, -92.6102, 54.7827
3.336, 2, -37.0484, 0.66448, 20.5399, -160.571, -92.6102, 54.7827
3.34, 2, -37.0484, 0.66448, 20.5399, -160.571, -92.6102, 54.7827
3.344, 2, -37.0484, 0.66448, 20.5399, -160.571, -92.6102, 54.7827
3.347, 2, -37.0484, 0.66448, 20.5399, -160.571, -92.6102, 54.7827
3.352, 2, -37.0484, 0.66448, 20.5399, -160.571, -92.6102, 54.7827
3.356, 2, -37.0484, 0.66448, 20.5399, -160.571, -92.6102, 54.7827
3.36, 2, -37.0484, 0.66448, 20.5399, -160.571, -92.6102, 54.7827
3.364, 2, -37.0484, 0.66448, 20.5399, -160.571, -92.6102, 54.7827
3.368, 2, -37.0484, 0.66448, 20.5399, -160.571, -92.6102, 54.7827
3.372, 2, -37.0484, 0.66448, 20.5399, -160.571, -92.6102, 54.7827
3.376, 2, -37.0484, 0.66448, 20.5399, -160.571, -92.6102, 54.7827
3.38, 2, -37.0484, 0.66448, 20.5399, -160.571, -92.6102, 54.7827
3.383, 2, -37.0484, 0.66448, 20.5399, -160.571, -92.6102, 54.7827
3.388, 2, -37.0484, 0.66448, 20.5399, -160.571, -92.6102, 54.7827
3.392, 2, -37.0484, 0.66448, 20.5399, -160.571, -92.6102, 54.7827
3.396, 2, -37.0484, 0.66448, 20.5399, -160.571, -92.6102, 54.7827
3.4, 2, -37.0484, 0.66448, 20.5399, -160.571, -92.6102, 54.7827
3.403, 2, -37.0484, 0.66448, 20.5399, -160.571, -92.6102, 54.7827
3.408, 2, -37.0484, 0.66448, 20.5399, -160.571, -92.6102, 54.7827
3.412, 2, -37.0484, 0.66448, 20.5399, -160.571, -92.6102, 54.7827
3.416, 2, -37.0484, 0.66448, 20.5399, -160.571, -92.6102, 54.7827
3.42, 2, -37.0484, 0.66448, 20.5399, -160.571, -92.6102, 54.7827
3.424, 2, -37.0484, 0.66448, 20.5399, -160.571, -92.6102, 54.7827
3.428, 2, -37.0484, 0.66448, 20.5399, -160.571, -92.6102, 54.7827
3.432, 2, -37.0484, 0.66448, 20.5399, -160.571, -92.6102, 54.7827
3.436, 2, -37.0484, 0.66448, 20.5399, -160.571, -92.6102, 54.7827
3.439, 2, -37.0484, 0.66448, 20.5399, -160.571, -92.6102, 54.7827
3.444, 2, -37.0484, 0.66448, 20.5399, -160.571, -92.6102, 54.7827
3.448, 2, -37.0484, 0.66448, 20.5399, -160.571, -92.6102, 54.7827
3.452, 2, -37.0484, 0.66448, 20.5399, -160.571, -92.6102, 54.7827
3.456, 2, -37.0484, 0.66448, 20.5399, -160.571, -92.6102, 54.7827
3.46, 2, -37.0484, 0.66448, 20.5399, -160.571, -92.6102, 54.7827
3.464, 2, -37.0484, 0.66448, 20.5399, -160.571, -92.6102, 54.7827
3.468, 2, -37.0484, 0.66448, 20.5399, -160.571, -92.6102, 54.7827
3.472, 2, -37.0484, 0.66448, 20.5399, -160.571, -92.6102, 54.7827
3.476, 2, -37.0484, 0.66448, 20.5399, -160.571, -92.6102, 54.7827
3.48, 2, -37.0484, 0.66448, 20.5399, -160.571, -92.6102, 54.7827
3.484, 2, -37.0484, 0.66448, 20.5399, -160.571, -92.6102, 54.7827
3.488, 2, -37.0484, 0.66448, 20.5399, -160.571, -92.6102, 54.7827
3.492, 2, -37.0484, 0.66448, 20.5399, -160.571, -92.6102, 54.7827
3.495, 2, -37.0484, 0.66448, 20.5399, -160.571, -92.6102, 54.7827
3.5, 2, -37.0484, 0.66448, 20.5399, -160.571, -92.6102, 54.7827
3.504, 2, -37.0484, 0.66448, 20.5399, -160.571, -92.6102, 54.7827
3.508, 2, -37.0484, 0.66448, 20.5399, -160.571, -92.6102, 54.7827
3.512, 2, -37.0484, 0.66448, 20.5399, -160.571, -92.6102, 54.7827
3.516, 2, -37.0484, 0.66448, 20.5399, -160.571, -92.6102, 54.7827
3.52, 2, -37.0484, 0.66448, 20.5399, -160.571, -92.6102, 54.7827
3.524, 2, -37.0484, 0.66448, 20.5399, -160.571, -92.6102, 54.7827
3.528, 2, -37.0484, 0.66448, 20.5399, -160.571, -92.6102, 54.7827
3.531, 2, -37.0484, 0.66448, 20.5399, -160.571, -92.6102, 54.7827
3.536, 2, -37.0484, 0.66448, 20.5399, -160.571, -92.6102, 54.7827
3.54, 2, -37.0484, 0.66448, 20.5399, -160.571, -92.6102, 54.7827
3.544, 2, -37.0484, 0.66448, 20.5399, -160.571, -92.6102, 54.7827
3.548, 2, -37.0484, 0.66448, 20.5399, -160.571, -92.6102, 54.7827
3.552, 2, -37.0484, 0.66448, 20.5399, -160.571, -92.6102, 54.7827
3.556, 2, -37.0484, 0.66448, 20.5399, -160.571, -92.6102, 54.7827
3.56, 2, -37.0484, 0.66448, 20.5399, -160.571, -92.6102, 54.7827
3.564, 2, -37.0484, 0.66448, 20.5399, -160.571, -92.6102, 54.7827
3.568, 2, -37.0484, 0.66448, 20.5399, -160.571, -92.6102, 54.7827
3.572, 2, -37.0484, 0.66448, 20.5399, -160.571, -92.6102, 54.7827
3.576, 2, -37.0484, 0.66448, 20.5399, -160.571, -92.6102, 54.7827
3.58, 2, -37.0484, 0.66448, 20.5399, -160.571, -92.6102, 54.7827
3.584, 2, -37.0484, 0.66448, 20.5399, -160.571, -92.6102, 54.7827
3.587, 2, -37.0484, 0.66448, 20.5399, -160.571, -92.6102, 54.7827
3.592, 2, -37.0484, 0.66448, 20.5399, -160.571, -92.6102, 54.7827
3.596, 2, -37.0484, 0.66448, 20.5399, -160.571, -92.6102, 54.7827
3.6, 2, -37.0484, 0.66448, 20.5399, -160.571, -92.6102, 54.7827
3.604, 2, -37.0484, 0.66448, 20.5399, -160.571, -92.6102, 54.7827
3.608, 2, -37.0484, 0.66448, 20.5399, -160.571, -92.6102, 54.7827
3.612, 2, -37.0484, 0.66448, 20.5399, -160.571, -92.6102, 54.7827
3.616, 2, -37.0484, 0.66448, 20.5399, -160.571, -92.6102, 54.7827
3.62, 2, -37.0484, 0.66448, 20.5399, -160.571, -92.6102, 54.7827
3.624, 2, -37.0484, 0.66448, 20.5399, -160.571, -92.6102, 54.7827
3.628, 2, -37.0484, 0.66448, 20.5399, -160.571, -92.6102, 54.7827
3.632, 2, -37.0484, 0.66448, 20.5399, -160.571, -92.6102, 54.7827
3.636, 2, -37.0484, 0.66448, 20.5399, -160.571, -92.6102, 54.7827
3.64, 2, -37.0484, 0.66448, 20.5399, -160.571, -92.6102, 54.7827
3.644, 2, -37.0484, 0.66448, 20.5399, -160.571, -92.6102, 54.7827
3.648, 2, -37.0484, 0.66448, 20.5399, -160.571, -92.6102, 54.7827
3.652, 2, -37.0484, 0.66448, 20.5399, -160.571, -92.6102, 54.7827
3.656, 2, -37.0484, 0.66448, 20.5399, -160.571, -92.6102, 54.7827
3.66, 2, -37.0484, 0.66448, 20.5399, -160.571, -92.6102, 54.7827
3.664, 2, -37.0484, 0.66448, 20.5399, -160.571, -92.6102, 54.7827
3.668, 2, -37.0484, 0.66448, 20.5399, -160.571, -92.6102, 54.7827
3.672, 2, -37.0484, 0.66448, 20.5399, -160.571, -92.6102, 54.7827
3.676, 4, -37.0484, 0.66448, 20.5399, -160.571, -92.6102, 54.7827
3.679, 4, -37.0484, 0.66448, 20.5399, -160.571, -92.6102, 54.7827
3.684, 4, -37.0484, 0.66448, 20.5399, -160.571, -92.6102, 54.7827
3.688, 4, -37.0484, 0.66448, 20.5399, -160.571, -92.6102, 54.7827
3.692, 4, -37.0484, 0.66448, 20.5399, -160.571, -92.6102, 54.7827
3.696, 4, -37.0484, 0.66448, 20.5399, -160.571, -92.6102, 54.7827
3.7, 4, -37.0484, 0.66448, 20.5399, -160.571, -92.6102, 54.7827
3.704, 4, -37.0484, 0.66448, 20.5399, -160.571, -92.6102, 54.7827
3.708, 4, -37.0484, 0.66448, 20.5399, -160.571, -92.6102, 54.7827
3.712, 4, -37.0484, 0.66448, 20.5399, -160.571, -92.6102, 54.7827
3.716, 4, -37.0484, 0.66448, 20.5399, -160.571, -92.6102, 54.7827
3.72, 4, -37.0484, 0.66448, 20.5399, -160.571, -92.6102, 54.7827
3.724, 4, -37.0484, 0.66448, 20.5399, -160.571, -92.6102, 54.7827
3.728, 4, -37.0484, 0.66448, 20.5399, -160.571, -92.6102, 54.7827
3.732, 4, -37.0484, 0.66448, 20.5399, -160.571, -92.6102, 54.7827
3.735, 4, -37.0484, 0.66448, 20.5399, -160.571, -92.6102, 54.7827
3.74, 4, -37.0484, 0.66448, 20.5399, -160.571, -92.6102, 54.7827
3.744, 4, -37.0484, 0.66448, 20.5399, -160.571, -92.6102, 54.7827
3.748, 4, -37.0484, 0.66448, 20.5399, -160.571, -92.6102, 54.7827
3.752, 4, -37.0484, 0.66448, 20.5399, -160.571, -92.6102, 54.7827
3.756, 4, -37.0484, 0.66448, 20.5399, -160.571, -92.6102, 54.7827
3.76, 4, -37.0484, 0.66448, 20.5399, -160.571, -92.6102, 54.7827
3.764, 4, -37.0484, 0.66448, 20.5399, -160.571, -92.6102, 54.7827
3.768, 4, -37.0484, 0.66448, 20.5399, -160.571, -92.6102, 54.7827
3.772, 4, -37.0484, 0.66448, 20.5399, -160.571, -92.6102, 54.7827
3.776, 4, -37.0484, 0.66448, 20.5399, -160.571, -92.6102, 54.7827
3.782, 4, -37.0484, 0.66448, 20.5399, -160.571, -92.6102, 54.7827
3.786, 4, -37.0484, 0.66448, 20.5399, -160.571, -92.6102, 54.7827
3.79, 4, -37.0484, 0.66448, 20.5399, -160.571, -92.6102, 54.7827
3.794, 4, -37.0484, 0.66448, 20.5399, -160.571, -92.6102, 54.7827
3.798, 4, -37.0484, 0.66448, 20.5399, -160.571, -92.6102, 54.7827
3.802, 4, -37.0484, 0.664476, 20.5399, -160.571, -92.6102, 54.7827
3.806, 4, -37.0483, 0.664449, 20.5399, -160.571, -92.6102, 54.7827
3.81, 4, -37.0481, 0.664342, 20.5399, -160.571, -92.6102, 54.7827
3.814, 4, -37.0475, 0.664058, 20.54, -160.571, -92.6102, 54.7827
3.818, 4, -37.0463, 0.663476, 20.5403, -160.571, -92.6102, 54.7827
3.822, 4, -37.0444, 0.662467, 20.5407, -160.571, -92.6103, 54.7827
3.824, 4, -37.0444, 0.662467, 20.5407, -160.571, -92.6103, 54.7827
3.828, 4, -37.0417, 0.660901, 20.5414, -160.571, -92.6103, 54.7827
3.832, 4, -37.0379, 0.658654, 20.5426, -160.571, -92.6104, 54.7827
3.836, 4, -37.033, 0.655608, 20.5442, -160.571, -92.6104, 54.7826
3.84, 4, -37.027, 0.651647, 20.5466, -160.571, -92.6105, 54.7826
3.844, 4, -37.0197, 0.646647, 20.5498, -160.57, -92.6105, 54.7825
3.848, 5, -37.0111, 0.640454, 20.554, -160.569, -92.6106, 54.7824
3.852, 5, -37.0008, 0.632895, 20.5596, -160.569, -92.6106, 54.7823
3.856, 5, -36.9887, 0.623821, 20.5666, -160.567, -92.6106, 54.7821
3.86, 5, -36.9747, 0.613153, 20.5754, -160.566, -92.6105, 54.7819
3.864, 5, -36.9589, 0.600889, 20.5861, -160.564, -92.6104, 54.7816
3.868, 5, -36.9411, 0.587064, 20.5987, -160.561, -92.6102, 54.7812
3.872, 5, -36.9216, 0.571707, 20.6136, -160.558, -92.6099, 54.7808
3.876, 5, -36.9003, 0.554829, 20.6307, -160.555, -92.6095, 54.7803
3.88, 5, -36.8772, 0.536415, 20.65, -160.551, -92.609, 54.7798
3.884, 5, -36.8522, 0.516413, 20.6716, -160.546, -92.6084, 54.7792
3.888, 5, -36.8252, 0.494755, 20.6956, -160.541, -92.6076, 54.7785
3.892, 5, -36.7961, 0.471401, 20.7216, -160.536, -92.6068, 54.7778
3.896, 5, -36.765, 0.446381, 20.7498, -160.53, -92.6059, 54.777
3.9, 5, -36.7321, 0.419786, 20.7798, -160.523, -92.605, 54.7763
3.904, 5, -36.6974, 0.391728, 20.8115, -160.517, -92.604, 54.7755
3.908, 5, -36.661, 0.362304, 20.8447, -160.509, -92.6029, 54.7747
3.912, 5, -36.6232, 0.33159, 20.8791, -160.502, -92.6018, 54.7739
3.918, 5, -36.5427, 0.266599, 20.9509, -160.486, -92.5996, 54.7723
3.92, 5, -36.5427, 0.266599, 20.9509, -160.486, -92.5996, 54.7723
3.924, 5, -36.5003, 0.232526, 20.988, -160.478, -92.5985, 54.7716
3.928, 5, -36.4564, 0.197578, 21.0256, -160.47, -92.5974, 54.7709
3.932, 5, -36.4114, 0.161924, 21.0636, -160.462, -92.5963, 54.7702
3.936, 5, -36.3655, 0.125747, 21.1018, -160.454, -92.5953, 54.7696
3.94, 5, -36.3188, 0.0892153, 21.1402, -160.445, -92.5942, 54.7691
3.944, 5, -36.2716, 0.0524551, 21.1787, -160.437, -92.5932, 54.7685
3.948, 5, -36.2241, 0.0155549, 21.2173, -160.429, -92.5921, 54.7681
3.952, 5, -36.1764, -0.0214252, 21.2558, -160.42, -92.591, 54.7676
3.956, 5, -36.1284, -0.0584446, 21.2944, -160.412, -92.59, 54.7673
3.96, 5, -36.0803, -0.0954758, 21.3329, -160.403, -92.589, 54.7669
3.964, 5, -36.0321, -0.1325, 21.3713, -160.395, -92.5879, 54.7667
3.968, 5, -35.9838, -0.169504, 21.4097, -160.386, -92.5869, 54.7664
3.972, 5, -35.9354, -0.20648, 21.448, -160.378, -92.5858, 54.7662
3.976, 5, -35.8869, -0.243421, 21.4863, -160.369, -92.5848, 54.7661
3.98, 5, -35.8384, -0.280325, 21.5245, -160.36, -92.5837, 54.766
3.984, 5, -35.7898, -0.317187, 21.5626, -160.352, -92.5827, 54.766
3.988, 5, -35.7412, -0.354006, 21.6007, -160.343, -92.5816, 54.766
3.992, 5, -35.6925, -0.390781, 21.6387, -160.334, -92.5806, 54.7661
3.996, 5, -35.6437, -0.42751, 21.6766, -160.326, -92.5795, 54.7662
3.999, 5, -35.5949, -0.464193, 21.7145, -160.317, -92.5785, 54.7664
4.004, 5, -35.5461, -0.500831, 21.7523, -160.308, -92.5774, 54.7666
4.008, 5, -35.4972, -0.537421, 21.79, -160.3, -92.5764, 54.7669
4.012, 5, -35.4482, -0.573964, 21.8277, -160.291, -92.5753, 54.7672
4.016, 5, -35.3992, -0.61046, 21.8653, -160.282, -92.5742, 54.7676
4.02, 5, -35.3501, -0.646908, 21.9028, -160.273, -92.5732, 54.768
4.024, 5, -35.301, -0.683309, 21.9402, -160.264, -92.5721, 54.7685
4.028, 5, -35.2519, -0.719663, 21.9776, -160.255, -92.5711, 54.769
4.032, 5, -35.2026, -0.755968, 22.0149, -160.247, -92.57, 54.7696
4.036, 5, -35.1534, -0.792225, 22.0522, -160.238, -92.5689, 54.7702
4.04, 5, -35.1041, -0.828435, 22.0893, -160.229, -92.5679, 54.7709
4.044, 5, -35.0547, -0.864596, 22.1264, -160.22, -92.5668, 54.7716
4.048, 5, -35.0053, -0.900709, 22.1635, -160.211, -92.5657, 54.7724
4.052, 5, -34.9558, -0.936774, 22.2004, -160.202, -92.5646, 54.7732
4.056, 5, -34.9063, -0.972791, 22.2373, -160.193, -92.5636, 54.7741
4.06, 5, -34.8567, -1.00876, 22.2741, -160.184, -92.5625, 54.775
4.064, 5, -34.8071, -1.04468, 22.3109, -160.175, -92.5614, 54.7759
4.068, 5, -34.7574, -1.08055, 22.3476, -160.166, -92.5603, 54.777
4.072, 5, -34.7076, -1.11637, 22.3842, -160.157, -92.5592, 54.778
4.076, 5, -34.6579, -1.15214, 22.4207, -160.147, -92.5581, 54.7791
4.08, 5, -34.608, -1.18787, 22.4572, -160.138, -92.557, 54.7803
4.084, 5, -34.5581, -1.22354, 22.4936, -160.129, -92.5559, 54.7815
4.088, 5, -34.5082, -1.25917, 22.5299, -160.12, -92.5548, 54.7828
4.092, 5, -34.4582, -1.29475, 22.5662, -160.111, -92.5537, 54.7841
4.096, 5, -34.4082, -1.33027, 22.6024, -160.102, -92.5526, 54.7855
4.1, 5, -34.3581, -1.36575, 22.6385, -160.092, -92.5515, 54.7869
4.104, 5, -34.3079, -1.40118, 22.6745, -160.083, -92.5504, 54.7884
4.108, 5, -34.2578, -1.43656, 22.7105, -160.074, -92.5492, 54.7899
4.112, 5, -34.2075, -1.47189, 22.7464, -160.065, -92.5481, 54.7914
4.116, 5, -34.1572, -1.50717, 22.7823, -160.055, -92.547, 54.793
4.12, 5, -34.1069, -1.5424, 22.8181, -160.046, -92.5459, 54.7947
4.124, 5, -34.0565, -1.57758, 22.8538, -160.037, -92.5447, 54.7964
4.128, 5, -34.006, -1.61271, 22.8894, -160.027, -92.5436, 54.7982
4.132, 5, -33.9555, -1.6478, 22.925, -160.018, -92.5424, 54.8
4.136, 5, -33.905, -1.68287, 22.9605, -160.008, -92.5413, 54.8018
4.14, 5, -33.8544, -1.71794, 22.9959, -159.999, -92.5401, 54.8037
4.144, 5, -33.8039, -1.75305, 23.0313, -159.989, -92.5389, 54.8057
4.148, 5, -33.7534, -1.78822, 23.0666, -159.98, -92.5377, 54.8076
4.152, 5, -33.7029, -1.82348, 23.1019, -159.97, -92.5365, 54.8096
4.156, 5, -33.6525, -1.85887, 23.1372, -159.961, -92.5352, 54.8115
4.16, 5, -33.6021, -1.89439, 23.1725, -159.951, -92.5338, 54.8133
4.164, 6, -33.5519, -1.93008, 23.2078, -159.941, -92.5322, 54.815
4.168, 6, -33.5017, -1.96596, 23.2433, -159.931, -92.5305, 54.8165
4.172, 6, -33.4515, -2.00207, 23.2788, -159.921, -92.5285, 54.8178
4.176, 6, -33.4014, -2.03844, 23.3146, -159.91, -92.5263, 54.8188
4.18, 6, -33.3515, -2.07512, 23.3505, -159.9, -92.5237, 54.8194
4.184, 6, -33.3016, -2.11213, 23.3867, -159.889, -92.5207, 54.8196
4.188, 6, -33.2518, -2.14952, 23.4232, -159.878, -92.5173, 54.8192
4.192, 7, -33.2022, -2.18729, 23.46, -159.866, -92.5134, 54.8183
4.196, 7, -33.1527, -2.22548, 23.4972, -159.854, -92.509, 54.8168
4.2, 7, -33.1034, -2.26412, 23.5348, -159.841, -92.504, 54.8146
4.204, 7, -33.0542, -2.30323, 23.5728, -159.828, -92.4984, 54.8117
4.208, 7, -33.0053, -2.34286, 23.6112, -159.815, -92.4922, 54.8081
4.212, 7, -32.9566, -2.38304, 23.6501, -159.801, -92.4854, 54.8037
4.216, 7, -32.9081, -2.42381, 23.6895, -159.787, -92.4779, 54.7985
4.22, 8, -32.8599, -2.46519, 23.7294, -159.772, -92.4697, 54.7926
4.224, 8, -32.8119, -2.50719, 23.7697, -159.757, -92.4609, 54.7859
4.228, 8, -32.7642, -2.54983, 23.8105, -159.741, -92.4514, 54.7783
4.232, 8, -32.7168, -2.59311, 23.8519, -159.725, -92.4412, 54.7701
4.236, 8, -32.6696, -2.63705, 23.8937, -159.708, -92.4304, 54.761
4.24, 8, -32.6227, -2.68165, 23.9359, -159.691, -92.4188, 54.7511
4.244, 8, -32.5761, -2.72692, 23.9787, -159.673, -92.4066, 54.7404
4.248, 8, -32.5298, -2.77285, 24.022, -159.655, -92.3938, 54.729
4.252, 9, -32.4837, -2.81945, 24.0657, -159.636, -92.3802, 54.7168
4.256, 9, -32.4379, -2.86672, 24.11, -159.617, -92.366, 54.7037
4.26, 9, -32.3924, -2.91466, 24.1547, -159.597, -92.351, 54.6899
4.264, 9, -32.3471, -2.96328, 24.1999, -159.577, -92.3354, 54.6754
4.268, 9, -32.3022, -3.01257, 24.2457, -159.556, -92.3192, 54.66
4.272, 9, -32.2574, -3.06254, 24.2919, -159.535, -92.3022, 54.6438
4.276, 9, -32.213, -3.11319, 24.3386, -159.514, -92.2846, 54.6269
4.28, 10, -32.1689, -3.16452, 24.3858, -159.492, -92.2663, 54.6092
4.284, 10, -32.125, -3.21653, 24.4335, -159.469, -92.2473, 54.5907
4.288, 10, -32.0813, -3.26922, 24.4817, -159.446, -92.2276, 54.5714
4.292, 10, -32.038, -3.3226, 24.5303, -159.423, -92.2072, 54.5514
4.296, 10, -31.9949, -3.37666, 24.5795, -159.399, -92.1862, 54.5305
4.3, 10, -31.9521, -3.4314, 24.6291, -159.374, -92.1645, 54.509
4.304, 10, -31.9096, -3.48684, 24.6793, -159.35, -92.1421, 54.4866
4.308, 11, -31.8673, -3.54296, 24.7299, -159.324, -92.119, 54.4634
4.312, 11, -31.8253, -3.59978, 24.7811, -159.298, -92.0952, 54.4395
4.316, 11, -31.7835, -3.65728, 24.8327, -159.272, -92.0708, 54.4148
4.32, 11, -31.742, -3.71547, 24.8848, -159.246, -92.0457, 54.3894
4.324, 11, -31.7008, -3.77435, 24.9375, -159.218, -92.0199, 54.3632
4.328, 11, -31.6599, -3.83393, 24.9906, -159.191, -91.9934, 54.3362
4.332, 11, -31.6192, -3.89421, 25.0442, -159.163, -91.9663, 54.3084
4.336, 12, -31.5787, -3.95518, 25.0983, -159.134, -91.9385, 54.2799
4.34, 12, -31.5386, -4.01685, 25.1529, -159.105, -91.91, 54.2506
4.344, 12, -31.4987, -4.07921, 25.208, -159.076, -91.8808, 54.2206
4.348, 12, -31.459, -4.14227, 25.2636, -159.046, -91.8509, 54.1898
4.352, 12, -31.4197, -4.20603, 25.3197, -159.015, -91.8204, 54.1582
4.356, 12, -31.3805, -4.2705, 25.3763, -158.985, -91.7892, 54.1259
4.36, 12, -31.3417, -4.33566, 25.4334, -158.953, -91.7573, 54.0928
4.364, 12, -31.3031, -4.40153, 25.491, -158.922, -91.7247, 54.0589
4.368, 13, -31.2647, -4.4681, 25.549, -158.889, -91.6915, 54.0243
4.372, 13, -31.2267, -4.53538, 25.6076, -158.857, -91.6576, 53.989
4.376, 13, -31.1888, -4.60335, 25.6667, -158.824, -91.623, 53.9529
4.38, 13, -31.1513, -4.67204, 25.7263, -158.79, -91.5877, 53.916
4.384, 13, -31.114, -4.74143, 25.7864, -158.756, -91.5518, 53.8784
4.388, 13, -31.0769, -4.81152, 25.847, -158.722, -91.5152, 53.8401
4.392, 13, -31.0401, -4.88233, 25.908, -158.687, -91.4779, 53.801
4.396, 14, -31.0036, -4.95385, 25.9696, -158.652, -91.4399, 53.7612
4.4, 14, -30.9673, -5.02607, 26.0317, -158.616, -91.4013, 53.7206
4.404, 14, -30.9313, -5.099, 26.0943, -158.58, -91.362, 53.6793
4.408, 14, -30.8955, -5.17264, 26.1574, -158.543, -91.3221, 53.6372
4.412, 14, -30.86, -5.24699, 26.221, -158.506, -91.2814, 53.5944
4.416, 14, -30.8248, -5.32205, 26.2851, -158.468, -91.2402, 53.5509
4.42, 14, -30.7898, -5.39782, 26.3497, -158.43, -91.1982, 53.5066
4.424, 15, -30.755, -5.4743, 26.4148, -158.392, -91.1556, 53.4616
4.428, 15, -30.7205, -5.5515, 26.4804, -158.353, -91.1123, 53.4159
4.432, 15, -30.6863, -5.62941, 26.5465, -158.314, -91.0684, 53.3694
4.436, 15, -30.6523, -5.70802, 26.6131, -158.274, -91.0238, 53.3223
4.44, 15, -30.6185, -5.78735, 26.6802, -158.234, -90.9785, 53.2743
4.444, 15, -30.585, -5.86739, 26.7478, -158.193, -90.9325, 53.2257
4.448, 15, -30.5518, -5.94815, 26.8159, -158.152, -90.886, 53.1764
4.452, 15, -30.5188, -6.02961, 26.8846, -158.11, -90.8387, 53.1263
4.456, 16, -30.486, -6.11179, 26.9537, -158.068, -90.7908, 53.0756
4.46, 16, -30.4536, -6.19468, 27.0233, -158.026, -90.7423, 53.0241
4.464, 16, -30.4213, -6.27828, 27.0934, -157.983, -90.6931, 52.9719
4.468, 16, -30.3893, -6.36259, 27.1641, -157.94, -90.6432, 52.919
4.472, 16, -30.3576, -6.44761, 27.2352, -157.896, -90.5928, 52.8654
4.476, 16, -30.3261, -6.53335, 27.3069, -157.852, -90.5416, 52.8111
4.48, 16, -30.2948, -6.61979, 27.379, -157.807, -90.4898, 52.7561
4.484, 17, -30.2638, -6.70695, 27.4517, -157.762, -90.4374, 52.7004
4.488, 17, -30.233, -6.79481, 27.5249, -157.716, -90.3843, 52.6441
4.492, 17, -30.2025, -6.88338, 27.5985, -157.67, -90.3306, 52.587
4.496, 17, -30.1722, -6.97266, 27.6727, -157.624, -90.2763, 52.5293
4.5, 17, -30.1422, -7.06264, 27.7474, -157.577, -90.2213, 52.4708
4.504, 17, -30.1124, -7.15333, 27.8225, -157.53, -90.1657, 52.4117
4.508, 17, -30.0829, -7.24473, 27.8982, -157.482, -90.1095, 52.352
4.512, 18, -30.0536, -7.33683, 27.9744, -157.434, -90.0526, 52.2916
4.516, 18, -30.0245, -7.42963, 28.0511, -157.385, -89.9951, 52.2305
4.52, 18, -29.9957, -7.52314, 28.1283, -157.336, -89.937, 52.1687
4.524, 18, -29.9671, -7.61734, 28.2059, -157.287, -89.8783, 52.1063
4.528, 18, -29.9388, -7.71224, 28.2841, -157.237, -89.8189, 52.0432
4.532, 18, -29.9106, -7.80785, 28.3628, -157.186, -89.7589, 51.9795
4.536, 18, -29.8828, -7.90414, 28.442, -157.136, -89.6984, 51.9152
4.54, 19, -29.8551, -8.00113, 28.5217, -157.084, -89.6372, 51.8502
4.544, 19, -29.8277, -8.09882, 28.6018, -157.033, -89.5754, 51.7846
4.548, 19, -29.8006, -8.19719, 28.6825, -156.98, -89.513, 51.7184
4.552, 19, -29.7736, -8.29626, 28.7637, -156.928, -89.4501, 51.6515
4.556, 19, -29.7469, -8.39601, 28.8453, -156.875, -89.3865, 51.5841
4.56, 19, -29.7204, -8.49644, 28.9275, -156.821, -89.3223, 51.516
4.564, 19, -29.6942, -8.59756, 29.0101, -156.767, -89.2575, 51.4473
4.568, 19, -29.6682, -8.69936, 29.0933, -156.713, -89.1922, 51.378
4.572, 20, -29.6424, -8.80183, 29.1769, -156.658, -89.1263, 51.3082
4.576, 20, -29.6168, -8.90499, 29.261, -156.603, -89.0597, 51.2377
4.58, 20, -29.5915, -9.00881, 29.3456, -156.547, -88.9927, 51.1667
4.584, 20, -29.5664, -9.11331, 29.4307, -156.491, -88.925, 51.0951
4.588, 20, -29.5415, -9.21847, 29.5162, -156.435, -88.8568, 51.023
4.592, 20, -29.5168, -9.3243, 29.6023, -156.378, -88.788, 50.9502
4.596, 20, -29.4924, -9.43079, 29.6888, -156.32, -88.7187, 50.877
4.6, 21, -29.4682, -9.53794, 29.7758, -156.263, -88.6488, 50.8032
4.604, 21, -29.4442, -9.64574, 29.8633, -156.204, -88.5784, 50.7288
4.608, 21, -29.4204, -9.7542, 29.9513, -156.146, -88.5074, 50.654
4.612, 21, -29.3968, -9.86331, 30.0397, -156.086, -88.4359, 50.5786
4.616, 21, -29.3734, -9.97306, 30.1286, -156.027, -88.3638, 50.5027
4.62, 21, -29.3503, -10.0834, 30.218, -155.967, -88.2912, 50.4263
4.624, 21, -29.3273, -10.1945, 30.3078, -155.906, -88.2181, 50.3494
4.628, 22, -29.3046, -10.3061, 30.3981, -155.846, -88.1445, 50.272
4.632, 22, -29.2821, -10.4184, 30.4889, -155.784, -88.0703, 50.1942
4.636, 22, -29.2597, -10.5314, 30.5801, -155.723, -87.9957, 50.1158
4.64, 22, -29.2376, -10.6449, 30.6717, -155.66, -87.9205, 50.0371
4.644, 22, -29.2157, -10.759, 30.7639, -155.598, -87.8448, 49.9579
4.648, 22, -29.194, -10.8738, 30.8565, -155.535, -87.7687, 49.8782
4.652, 22, -29.1724, -10.9892, 30.9495, -155.471, -87.692, 49.7981
4.656, 22, -29.1511, -11.1052, 31.043, -155.408, -87.6149, 49.7176
4.66, 23, -29.13, -11.2218, 31.1369, -155.343, -87.5373, 49.6367
4.664, 23, -29.109, -11.3389, 31.2312, -155.279, -87.4592, 49.5554
4.668, 23, -29.0883, -11.4567, 31.326, -155.214, -87.3807, 49.4737
4.672, 23, -29.0677, -11.575, 31.4212, -155.148, -87.3017, 49.3917
4.676, 23, -29.0473, -11.694, 31.5169, -155.082, -87.2222, 49.3092
4.68, 23, -29.0271, -11.8135, 31.6129, -155.016, -87.1423, 49.2265
4.684, 23, -29.007, -11.9335, 31.7094, -154.949, -87.0619, 49.1434
4.688, 24, -28.9872, -12.0542, 31.8063, -154.882, -86.9811, 49.06
4.692, 24, -28.9675, -12.1753, 31.9036, -154.814, -86.8999, 48.9762
4.696, 24, -28.948, -12.2971, 32.0014, -154.746, -86.8183, 48.8922
4.7, 24, -28.9286, -12.4194, 32.0995, -154.678, -86.7362, 48.8079
4.704, 24, -28.9095, -12.5422, 32.198, -154.609, -86.6537, 48.7233
4.708, 24, -28.8905, -12.6655, 32.297, -154.54, -86.5709, 48.6384
4.712, 24, -28.8716, -12.7894, 32.3963, -154.47, -86.4876, 48.5533
4.716, 25, -28.8529, -12.9138, 32.496, -154.4, -86.404, 48.468
4.72, 25, -28.8344, -13.0387, 32.5961, -154.329, -86.3199, 48.3825
4.724, 25, -28.816, -13.1641, 32.6966, -154.259, -86.2355, 48.2967
4.728, 25, -28.7978, -13.29, 32.7974, -154.187, -86.1507, 48.2108
4.732, 25, -28.7797, -13.4164, 32.8986, -154.116, -86.0656, 48.1247
4.736, 25, -28.7618, -13.5433, 33.0002, -154.044, -85.9801, 48.0385
4.74, 25, -28.744, -13.6706, 33.1021, -153.971, -85.8942, 47.9521
4.744, 26, -28.7263, -13.7985, 33.2044, -153.898, -85.808, 47.8656
4.748, 26, -28.7088, -13.9268, 33.307, -153.825, -85.7215, 47.779
4.752, 26, -28.6914, -14.0555, 33.41, -153.752, -85.6347, 47.6923
4.756, 26, -28.6741, -14.1847, 33.5133, -153.678, -85.5475, 47.6055
4.76, 26, -28.657, -14.3144, 33.617, -153.603, -85.4601, 47.5187
4.764, 26, -28.64, -14.4444, 33.7209, -153.529, -85.3723, 47.4318
4.768, 26, -28.6231, -14.5749, 33.8252, -153.453, -85.2842, 47.345
4.772, 26, -28.6063, -14.7058, 33.9298, -153.378, -85.1959, 47.2581
4.776, 27, -28.5896, -14.8372, 34.0347, -153.302, -85.1072, 47.1712
4.78, 27, -28.573, -14.9689, 34.1399, -153.226, -85.0183, 47.0844
4.784, 27, -28.5566, -15.101, 34.2454, -153.149, -84.9291, 46.9977
4.788, 27, -28.5402, -15.2335, 34.3512, -153.073, -84.8397, 46.911
4.792, 27, -28.5239, -15.3663, 34.4573, -152.995, -84.75, 46.8244
4.796, 27, -28.5078, -15.4996, 34.5637, -152.918, -84.6601, 46.7379
4.8, 27, -28.4917, -15.6332, 34.6703, -152.84, -84.57, 46.6516
4.804, 28, -28.4757, -15.7671, 34.7772, -152.761, -84.4796, 46.5654
4.808, 28, -28.4597, -15.9014, 34.8843, -152.683, -84.389, 46.4794
4.812, 28, -28.4439, -16.036, 34.9917, -152.604, -84.2982, 46.3937
4.816, 28, -28.4281, -16.171, 35.0994, -152.524, -84.2072, 46.3081
4.82, 28, -28.4124, -16.3062, 35.2072, -152.445, -84.116, 46.2228
4.824, 28, -28.3968, -16.4418, 35.3153, -152.365, -84.0246, 46.1377
4.828, 28, -28.3812, -16.5776, 35.4236, -152.284, -83.933, 46.0529
4.832, 29, -28.3657, -16.7137, 35.5322, -152.204, -83.8413, 45.9685
4.836, 29, -28.3502, -16.8501, 35.6409, -152.123, -83.7494, 45.8844
4.84, 29, -28.3348, -16.9868, 35.7498, -152.041, -83.6574, 45.8006
4.844, 29, -28.3194, -17.1237, 35.859, -151.96, -83.5652, 45.7172
4.848, 29, -28.304, -17.2609, 35.9683, -151.878, -83.4728, 45.6343
4.852, 29, -28.2887, -17.3983, 36.0778, -151.796, -83.3804, 45.5517
4.856, 29, -28.2734, -17.536, 36.1874, -151.713, -83.2878, 45.4696
4.86, 29, -28.2581, -17.6738, 36.2972, -151.63, -83.1951, 45.388
4.864, 30, -28.2429, -17.8119, 36.4072, -151.547, -83.1022, 45.3069
4.868, 30, -28.2276, -17.9501, 36.5173, -151.464, -83.0093, 45.2264
4.872, 30, -28.2124, -18.0886, 36.6276, -151.38, -82.9163, 45.1464
4.876, 30, -28.1972, -18.2272, 36.7379, -151.296, -82.8232, 45.067
4.88, 30, -28.182, -18.366, 36.8484, -151.212, -82.7301, 44.9881
4.884, 30, -28.1667, -18.505, 36.959, -151.127, -82.6368, 44.91
4.888, 30, -28.1515, -18.6441, 37.0698, -151.043, -82.5435, 44.8325
4.892, 31, -28.1362, -18.7833, 37.1806, -150.958, -82.4502, 44.7557
4.896, 31, -28.1209, -18.9227, 37.2915, -150.872, -82.3568, 44.6796
4.9, 31, -28.1056, -19.0622, 37.4024, -150.787, -82.2633, 44.6042
4.904, 31, -28.0903, -19.2018, 37.5135, -150.701, -82.1698, 44.5296
4.908, 31, -28.0749, -19.3414, 37.6246, -150.615, -82.0763, 44.4559
4.912, 31, -28.0595, -19.4812, 37.7358, -150.529, -81.9828, 44.3829
4.916, 31, -28.044, -19.6211, 37.847, -150.442, -81.8893, 44.3109
4.92, 32, -28.0285, -19.761, 37.9582, -150.356, -81.7957, 44.2397
4.924, 32, -28.0129, -19.9009, 38.0695, -150.269, -81.7022, 44.1694
4.928, 32, -27.9973, -20.0409, 38.1808, -150.182, -81.6087, 44.1001
4.932, 32, -27.9816, -20.181, 38.2921, -150.094, -81.5152, 44.0318
4.936, 32, -27.9658, -20.3211, 38.4034, -150.007, -81.4216, 43.9644
4.94, 32, -27.95, -20.4611, 38.5146, -149.919, -81.3282, 43.8982
4.944, 32, -27.934, -20.6012, 38.6259, -149.831, -81.2347, 43.833
4.948, 33, -27.918, -20.7413, 38.7372, -149.743, -81.1413, 43.7688
4.952, 33, -27.9019, -20.8813, 38.8484, -149.654, -81.048, 43.7059
4.956, 33, -27.8856, -21.0214, 38.9595, -149.566, -80.9547, 43.6441
4.96, 33, -27.8693, -21.1613, 39.0707, -149.477, -80.8615, 43.5834
4.964, 33, -27.8528, -21.3013, 39.1817, -149.388, -80.7683, 43.5241
4.968, 33, -27.8363, -21.4411, 39.2927, -149.299, -80.6752, 43.4659
4.972, 33, -27.8196, -21.5809, 39.4036, -149.21, -80.5821, 43.4091
4.976, 33, -27.8027, -21.7207, 39.5144, -149.121, -80.4892, 43.3536
4.98, 34, -27.7858, -21.8603, 39.6251, -149.031, -80.3963, 43.2994
4.984, 34, -27.7686, -21.9998, 39.7357, -148.942, -80.3035, 43.2467
4.988, 34, -27.7514, -22.1392, 39.8462, -148.852, -80.2109, 43.1954
4.992, 34, -27.734, -22.2785, 39.9566, -148.762, -80.1183, 43.1455
4.996, 34, -27.7164, -22.4176, 40.0668, -148.672, -80.0258, 43.0971
5, 34, -27.6987, -22.5566, 40.1769, -148.582, -79.9334, 43.0502
5.004, 34, -27.6807, -22.6955, 40.2868, -148.492, -79.8412, 43.0049
5.008, 35, -27.6626, -22.8341, 40.3965, -148.401, -79.7491, 42.9612
5.012, 35, -27.6444, -22.9726, 40.5061, -148.311, -79.6571, 42.9192
5.016, 35, -27.6259, -23.1109, 40.6155, -148.22, -79.5652, 42.8787
5.02, 35, -27.6072, -23.249, 40.7248, -148.13, -79.4734, 42.84
5.024, 35, -27.5883, -23.3869, 40.8338, -148.039, -79.3818, 42.803
5.028, 35, -27.5692, -23.5246, 40.9426, -147.948, -79.2903, 42.7678
5.032, 35, -27.5499, -23.662, 41.0511, -147.858, -79.199, 42.7344
5.036, 36, -27.5304, -23.7992, 41.1595, -147.767, -79.1078, 42.7028
5.04, 36, -27.5106, -23.9362, 41.2676, -147.676, -79.0168, 42.673
5.044, 36, -27.4906, -24.0728, 41.3754, -147.585, -78.9259, 42.6452
5.048, 36, -27.4704, -24.2093, 41.483, -147.494, -78.8352, 42.6194
5.052, 36, -27.4499, -24.3454, 41.5903, -147.403, -78.7446, 42.5955
5.056, 36, -27.4291, -24.4812, 41.6974, -147.312, -78.6542, 42.5736
5.06, 36, -27.4081, -24.6167, 41.8041, -147.221, -78.564, 42.5538
5.064, 36, -27.3868, -24.7519, 41.9106, -147.13, -78.4739, 42.536
5.068, 37, -27.3652, -24.8868, 42.0167, -147.039, -78.384, 42.5204
5.072, 37, -27.3434, -25.0213, 42.1225, -146.948, -78.2942, 42.5069
5.076, 37, -27.3212, -25.1555, 42.228, -146.857, -78.2047, 42.4956
5.08, 37, -27.2988, -25.2893, 42.3332, -146.766, -78.1153, 42.4866
5.084, 37, -27.276, -25.4228, 42.438, -146.675, -78.0261, 42.4798
5.088, 37, -27.2529, -25.5558, 42.5424, -146.585, -77.937, 42.4753
5.092, 37, -27.2295, -25.6885, 42.6465, -146.494, -77.8482, 42.4732
5.096, 38, -27.2058, -25.8208, 42.7501, -146.403, -77.7595, 42.4734
5.1, 38, -27.1817, -25.9526, 42.8534, -146.313, -77.6711, 42.4761
5.104, 38, -27.1573, -26.084, 42.9563, -146.222, -77.5828, 42.4812
5.108, 38, -27.1325, -26.215, 43.0588, -146.132, -77.4946, 42.4888
5.112, 38, -27.1074, -26.3455, 43.1608, -146.042, -77.4067, 42.4989
5.116, 38, -27.0819, -26.4756, 43.2624, -145.951, -77.319, 42.5115
5.12, 38, -27.056, -26.6052, 43.3636, -145.861, -77.2314, 42.5268
5.124, 39, -27.0297, -26.7343, 43.4643, -145.772, -77.1441, 42.5447
5.128, 39, -27.0031, -26.8629, 43.5645, -145.682, -77.0569, 42.5652
5.132, 39, -26.976, -26.9909, 43.6642, -145.593, -76.9699, 42.5885
5.136, 39, -26.9485, -27.1185, 43.7635, -145.503, -76.8831, 42.6145
5.14, 39, -26.9206, -27.2455, 43.8622, -145.414, -76.7965, 42.6432
5.144, 39, -26.8922, -27.372, 43.9604, -145.325, -76.7101, 42.6748
5.148, 39, -26.8634, -27.498, 44.0581, -145.237, -76.6239, 42.7092
5.152, 40, -26.8342, -27.6233, 44.1552, -145.148, -76.5379, 42.7466
5.156, 40, -26.8044, -27.7481, 44.2518, -145.06, -76.4521, 42.7868
5.16, 40, -26.7743, -27.8722, 44.3478, -144.972, -76.3665, 42.83
5.164, 40, -26.7436, -27.9958, 44.4433, -144.885, -76.281, 42.8762
5.168, 40, -26.7124, -28.1187, 44.5381, -144.798, -76.1958, 42.9254
5.172, 40, -26.6808, -28.241, 44.6323, -144.711, -76.1107, 42.9777
5.176, 40, -26.6486, -28.3626, 44.7259, -144.624, -76.0259, 43.0331
5.18, 40, -26.6159, -28.4836, 44.8189, -144.538, -75.9412, 43.0916
5.184, 41, -26.5826, -28.6039, 44.9112, -144.452, -75.8568, 43.1532
5.188, 41, -26.5488, -28.7234, 45.0029, -144.367, -75.7725, 43.2181
5.192, 41, -26.5145, -28.8423, 45.0938, -144.282, -75.6884, 43.2862
5.196, 41, -26.4795, -28.9605, 45.1841, -144.197, -75.6045, 43.3576
5.2, 41, -26.444, -29.0779, 45.2737, -144.113, -75.5208, 43.4323
5.204, 41, -26.4079, -29.1945, 45.3625, -144.03, -75.4373, 43.5103
5.208, 41, -26.3712, -29.3104, 45.4506, -143.946, -75.354, 43.5917
5.212, 42, -26.3339, -29.4254, 45.538, -143.864, -75.2709, 43.6765
5.216, 42, -26.296, -29.5397, 45.6245, -143.782, -75.188, 43.7647
5.22, 42, -26.2574, -29.6531, 45.7103, -143.7, -75.1053, 43.8564
5.224, 42, -26.2181, -29.7657, 45.7953, -143.62, -75.0228, 43.9516
5.228, 42, -26.1782, -29.8775, 45.8794, -143.539, -74.9404, 44.0503
5.232, 42, -26.1376, -29.9883, 45.9627, -143.46, -74.8583, 44.1526
5.236, 42, -26.0963, -30.0983, 46.0452, -143.381, -74.7764, 44.2585
5.24, 43, -26.0543, -30.2073, 46.1267, -143.303, -74.6947, 44.368
5.244, 43, -26.0116, -30.3154, 46.2074, -143.225, -74.6132, 44.4811
5.248, 43, -25.9681, -30.4226, 46.2872, -143.149, -74.5319, 44.5979
5.252, 43, -25.9239, -30.5287, 46.366, -143.073, -74.4508, 44.7184
5.256, 43, -25.879, -30.6339, 46.4439, -142.998, -74.3699, 44.8426
5.262, 43, -25.7867, -30.8411, 46.5966, -142.85, -74.2088, 45.1023
5.264, 43, -25.7867, -30.8411, 46.5966, -142.85, -74.2088, 45.1023
5.268, 44, -25.7393, -30.9432, 46.6715, -142.778, -74.1285, 45.2379
5.272, 44, -25.6912, -31.0441, 46.7454, -142.706, -74.0485, 45.3773
5.276, 44, -25.6422, -31.144, 46.8181, -142.636, -73.9687, 45.5206
5.28, 44, -25.5923, -31.2427, 46.8899, -142.566, -73.8892, 45.6677
5.286, 44, -25.49, -31.4365, 47.0299, -142.43, -73.7308, 45.9737
5.288, 44, -25.49, -31.4365, 47.0299, -142.43, -73.7308, 45.9737
5.292, 44, -25.4375, -31.5317, 47.0982, -142.364, -73.652, 46.1326
5.296, 44, -25.3841, -31.6256, 47.1654, -142.299, -73.5734, 46.2954
5.3, 45, -25.3298, -31.7182, 47.2313, -142.235, -73.4951, 46.4622
5.304, 45, -25.2745, -31.8095, 47.2961, -142.173, -73.4171, 46.633
5.31, 45, -25.1611, -31.9882, 47.4217, -142.051, -73.2618, 46.9867
5.312, 45, -25.1611, -31.9882, 47.4217, -142.051, -73.2618, 46.9867
5.316, 45, -25.1029, -32.0755, 47.4827, -141.992, -73.1847, 47.1696
5.32, 45, -25.0437, -32.1613, 47.5422, -141.935, -73.1078, 47.3566
5.324, 45, -24.9835, -32.2458, 47.6005, -141.879, -73.0312, 47.5476
5.328, 46, -24.9222, -32.3287, 47.6573, -141.825, -72.955, 47.7427
5.332, 46, -24.8599, -32.4101, 47.7128, -141.772, -72.8791, 47.9419
5.336, 46, -24.7965, -32.49, 47.7668, -141.721, -72.8036, 48.1452
5.34, 46, -24.732, -32.5683, 47.8193, -141.671, -72.7285, 48.3526
5.344, 46, -24.6665, -32.645, 47.8704, -141.623, -72.6537, 48.5641
5.348, 46, -24.5998, -32.72, 47.9199, -141.577, -72.5793, 48.7797
5.352, 46, -24.532, -32.7934, 47.9679, -141.532, -72.5053, 48.9995
5.356, 47, -24.463, -32.865, 48.0143, -141.489, -72.4318, 49.2234
5.36, 47, -24.3929, -32.9349, 48.0591, -141.448, -72.3587, 49.4514
5.364, 47, -24.3216, -33.003, 48.1023, -141.409, -72.2861, 49.6836
5.368, 47, -24.2491, -33.0692, 48.1438, -141.372, -72.214, 49.9199
5.372, 47, -24.1754, -33.1336, 48.1836, -141.336, -72.1423, 50.1603
5.376, 47, -24.1005, -33.196, 48.2216, -141.303, -72.0713, 50.4049
5.382, 47, -23.947, -33.3149, 48.2924, -141.243, -71.9308, 50.9063
5.384, 47, -23.947, -33.3149, 48.2924, -141.243, -71.9308, 50.9063
5.388, 48, -23.8683, -33.3714, 48.3251, -141.216, -71.8615, 51.1632
5.392, 48, -23.7884, -33.4257, 48.3559, -141.191, -71.7928, 51.4242
5.396, 48, -23.7073, -33.4779, 48.3848, -141.169, -71.7247, 51.6893
5.4, 48, -23.6248, -33.5279, 48.4118, -141.149, -71.6574, 51.9585
5.406, 48, -23.4559, -33.6211, 48.4599, -141.115, -71.5249, 52.509
5.41, 48, -23.3695, -33.6643, 48.4809, -141.102, -71.4598, 52.7903
5.416, 49, -23.2817, -33.7051, 48.4998, -141.091, -71.3956, 53.0757
5.418, 49, -23.1927, -33.7435, 48.5167, -141.083, -71.3322, 53.365
5.421, 49, -23.1927, -33.7435, 48.5167, -141.083, -71.3322, 53.365
5.424, 49, -23.1022, -33.7794, 48.5314, -141.078, -71.2697, 53.6583
5.43, 49, -22.9173, -33.8436, 48.5543, -141.074, -71.1476, 54.2567
5.433, 49, -22.9173, -33.8436, 48.5543, -141.074, -71.1476, 54.2567
5.438, 49, -22.7269, -33.8972, 48.5684, -141.081, -71.0295, 54.8707
5.441, 49, -22.7269, -33.8972, 48.5684, -141.081, -71.0295, 54.8707
5.446, 50, -22.531, -33.94, 48.5732, -141.099, -70.9159, 55.5001
5.45, 50, -22.431, -33.9572, 48.5721, -141.112, -70.8609, 55.8205
5.453, 50, -22.431, -33.9572, 48.5721, -141.112, -70.8609, 55.8205
5.458, 50, -22.2268, -33.9828, 48.5626, -141.147, -70.7547, 56.4724
5.461, 50, -22.2268, -33.9828, 48.5626, -141.147, -70.7547, 56.4724
5.466, 50, -22.017, -33.9965, 48.5434, -141.194, -70.6538, 57.1391
5.47, 50, -21.9101, -33.9987, 48.5299, -141.221, -70.6056, 57.4778
5.474, 51, -21.8018, -33.9977, 48.514, -141.252, -70.5588, 57.8201
5.476, 51, -21.8018, -33.9977, 48.514, -141.252, -70.5588, 57.8201
5.48, 51, -21.6921, -33.9935, 48.4954, -141.286, -70.5137, 58.166
5.484, 51, -21.581, -33.9861, 48.4743, -141.322, -70.4701, 58.5152
5.488, 51, -21.4686, -33.9754, 48.4504, -141.362, -70.4282, 58.8679
5.492, 51, -21.3548, -33.9613, 48.4239, -141.405, -70.3881, 59.224
5.496, 51, -21.2396, -33.9437, 48.3947, -141.45, -70.3498, 59.5834
5.5, 51, -21.1231, -33.9227, 48.3628, -141.499, -70.3134, 59.946
5.504, 52, -21.0053, -33.8982, 48.3281, -141.551, -70.2789, 60.3119
5.508, 52, -20.8862, -33.8701, 48.2906, -141.606, -70.2464, 60.6809
5.512, 52, -20.7658, -33.8383, 48.2503, -141.664, -70.2159, 61.053
5.516, 52, -20.644, -33.8029, 48.2071, -141.725, -70.1876, 61.4282
5.52, 52, -20.521, -33.7637, 48.1611, -141.789, -70.1615, 61.8063
5.524, 52, -20.3968, -33.7207, 48.1122, -141.857, -70.1377, 62.1874
5.528, 52, -20.2713, -33.6739, 48.0604, -141.927, -70.1161, 62.5714
5.532, 53, -20.1445, -33.6232, 48.0056, -142, -70.097, 62.9581
5.536, 53, -20.0166, -33.5686, 47.9479, -142.077, -70.0804, 63.3476
5.54, 53, -19.8874, -33.51, 47.8873, -142.156, -70.0663, 63.7397
5.544, 53, -19.7571, -33.4474, 47.8236, -142.239, -70.0548, 64.1344
5.548, 53, -19.6257, -33.3807, 47.7569, -142.324, -70.046, 64.5317
5.552, 53, -19.4931, -33.3099, 47.6872, -142.412, -70.04, 64.9314
5.556, 53, -19.3595, -33.235, 47.6144, -142.504, -70.0367, 65.3335
5.56, 54, -19.2248, -33.1558, 47.5386, -142.598, -70.0364, 65.7379
5.564, 54, -19.089, -33.0724, 47.4597, -142.695, -70.039, 66.1445
5.568, 54, -18.9523, -32.9847, 47.3778, -142.795, -70.0447, 66.5533
5.572, 54, -18.8145, -32.8928, 47.2927, -142.898, -70.0535, 66.9641
5.576, 54, -18.6758, -32.7965, 47.2046, -143.003, -70.0654, 67.3769
5.58, 54, -18.5361, -32.6957, 47.1133, -143.111, -70.0806, 67.7917
5.584, 54, -18.3956, -32.5906, 47.0189, -143.222, -70.0991, 68.2083
5.588, 54, -18.2542, -32.4811, 46.9215, -143.335, -70.121, 68.6266
5.592, 55, -18.112, -32.367, 46.8209, -143.451, -70.1463, 69.0465
5.596, 55, -17.969, -32.2485, 46.7171, -143.569, -70.1752, 69.4681
5.6, 55, -17.8252, -32.1255, 46.6103, -143.69, -70.2076, 69.8911
5.604, 55, -17.6807, -31.9979, 46.5004, -143.813, -70.2436, 70.3156
5.608, 55, -17.5355, -31.8658, 46.3873, -143.939, -70.2834, 70.7413
5.612, 55, -17.3897, -31.7291, 46.2711, -144.066, -70.3269, 71.1682
5.616, 55, -17.2433, -31.5878, 46.1519, -144.196, -70.3742, 71.5963
5.62, 56, -17.0963, -31.4419, 46.0296, -144.328, -70.4254, 72.0254
5.624, 56, -16.9488, -31.2914, 45.9041, -144.461, -70.4805, 72.4554
5.628, 56, -16.8007, -31.1363, 45.7757, -144.597, -70.5396, 72.8863
5.632, 56, -16.6523, -30.9765, 45.6442, -144.734, -70.6027, 73.3179
5.636, 56, -16.5034, -30.8122, 45.5097, -144.873, -70.6698, 73.7501
5.64, 56, -16.3542, -30.6433, 45.3721, -145.014, -70.7411, 74.1829
5.644, 56, -16.2046, -30.4697, 45.2316, -145.156, -70.8166, 74.6161
5.648, 57, -16.0548, -30.2916, 45.0881, -145.3, -70.8962, 75.0497
5.652, 57, -15.9048, -30.1089, 44.9417, -145.445, -70.9801, 75.4835
5.656, 57, -15.7545, -29.9216, 44.7924, -145.591, -71.0682, 75.9174
5.66, 57, -15.6041, -29.7297, 44.6402, -145.739, -71.1606, 76.3514
5.664, 57, -15.4536, -29.5334, 44.4852, -145.887, -71.2573, 76.7853
5.668, 57, -15.303, -29.3325, 44.3274, -146.037, -71.3584, 77.2191
5.672, 57, -15.1524, -29.1271, 44.1669, -146.187, -71.4638, 77.6526
5.676, 58, -15.0018, -28.9173, 44.0036, -146.338, -71.5736, 78.0857
5.68, 58, -14.8513, -28.7031, 43.8376, -146.49, -71.6878, 78.5183
5.684, 58, -14.7009, -28.4845, 43.669, -146.642, -71.8064, 78.9503
5.688, 58, -14.5506, -28.2616, 43.4978, -146.795, -71.9293, 79.3816
5.692, 58, -14.4006, -28.0343, 43.3241, -146.948, -72.0567, 79.8121
5.696, 58, -14.2508, -27.8029, 43.1479, -147.101, -72.1884, 80.2418
5.7, 58, -14.1012, -27.5672, 42.9693, -147.254, -72.3245, 80.6704
5.704, 58, -13.952, -27.3274, 42.7883, -147.408, -72.465, 81.0978
5.708, 59, -13.8032, -27.0835, 42.6049, -147.561, -72.6098, 81.5241
5.712, 59, -13.6548, -26.8356, 42.4193, -147.714, -72.759, 81.949
5.716, 59, -13.5068, -26.5837, 42.2316, -147.867, -72.9124, 82.3725
5.72, 59, -13.3594, -26.328, 42.0417, -148.019, -73.0701, 82.7944
5.724, 59, -13.2124, -26.0684, 41.8497, -148.171, -73.2321, 83.2146
5.728, 59, -13.0661, -25.8051, 41.6557, -148.322, -73.3983, 83.6331
5.732, 59, -12.9204, -25.5381, 41.4598, -148.472, -73.5686, 84.0497
5.736, 60, -12.7753, -25.2676, 41.2621, -148.622, -73.743, 84.4643
5.74, 60, -12.631, -24.9935, 41.0626, -148.77, -73.9214, 84.8768
5.744, 60, -12.4873, -24.716, 40.8614, -148.918, -74.1039, 85.2872
5.748, 60, -12.3444, -24.4352, 40.6586, -149.064, -74.2903, 85.6952
5.752, 60, -12.2023, -24.1511, 40.4542, -149.21, -74.4805, 86.1008
5.756, 60, -12.061, -23.864, 40.2484, -149.354, -74.6746, 86.5038
5.76, 60, -11.9206, -23.5738, 40.0412, -149.496, -74.8724, 86.9043
5.764, 61, -11.7811, -23.2807, 39.8327, -149.637, -75.0738, 87.3019
5.768, 61, -11.6426, -22.9847, 39.6231, -149.777, -75.2788, 87.6968
5.772, 61, -11.5049, -22.6861, 39.4123, -149.915, -75.4873, 88.0887
5.776, 61, -11.3682, -22.3848, 39.2005, -150.051, -75.6992, 88.4775
5.78, 61, -11.2326, -22.081, 38.9878, -150.185, -75.9144, 88.8631
5.784, 61, -11.0979, -21.7749, 38.7743, -150.318, -76.1328, 89.2455
5.788, 61, -10.9643, -21.4665, 38.56, -150.448, -76.3543, 89.6245
5.792, 62, -10.8318, -21.156, 38.345, -150.577, -76.5788, 90
5.796, 62, -10.7004, -20.8434, 38.1295, -150.703, -76.8063, 90.3718
5.8, 62, -10.5702, -20.5289, 37.9136, -150.827, -77.0365, 90.74
5.804, 62, -10.441, -20.2126, 37.6972, -150.95, -77.2695, 91.1044
5.808, 62, -10.3131, -19.8947, 37.4806, -151.069, -77.505, 91.4648
5.812, 62, -10.1863, -19.5752, 37.2638, -151.187, -77.743, 91.8213
5.816, 62, -10.0607, -19.2543, 37.0468, -151.302, -77.9834, 92.1736
5.82, 62, -9.93634, -18.9321, 36.8299, -151.414, -78.2261, 92.5216
5.824, 63, -9.8132, -18.6087, 36.6131, -151.525, -78.4708, 92.8654
5.83, 63, -9.57065, -17.9589, 36.1801, -151.737, -78.9664, 93.5394
5.832, 63, -9.57065, -17.9589, 36.1801, -151.737, -78.9664, 93.5394
5.836, 63, -9.45124, -17.6327, 35.9641, -151.84, -79.2169, 93.8695
5.84, 63, -9.33311, -17.3059, 35.7485, -151.94, -79.4691, 94.1948
5.844, 63, -9.21625, -16.9784, 35.5334, -152.037, -79.7228, 94.5153
5.848, 63, -9.10069, -16.6506, 35.319, -152.132, -79.978, 94.8307
