hehonglu123/Motion-Primitive-Planning/ILC/recorded_data/realrobot/wood/iteration_21/run_2.csv
timestamp, cmd_num, J1, J2, J3, J4, J5, J6
0.000396, -1, 11.3762, 13.6154, 17.3341, -145.52, -97.9264, 142.516
0.004284, -1, 11.3762, 13.6154, 17.3341, -145.52, -97.9263, 142.516
0.007629, -1, 11.3762, 13.6154, 17.3341, -145.52, -97.9263, 142.516
0.029664, -1, 11.3762, 13.6154, 17.3342, -145.52, -97.9262, 142.516
0.031677, -1, 11.3762, 13.6154, 17.3342, -145.52, -97.9262, 142.516
0.034916, -1, 11.3762, 13.6154, 17.3342, -145.52, -97.9262, 142.516
0.039476, -1, 11.3761, 13.6154, 17.3342, -145.52, -97.9262, 142.516
0.047545, -1, 11.376, 13.6154, 17.3341, -145.52, -97.9262, 142.517
0.055537, -1, 11.3746, 13.6153, 17.3341, -145.52, -97.9262, 142.517
0.063836, -1, 11.3701, 13.6149, 17.334, -145.52, -97.9262, 142.516
0.071467, -1, 11.3614, 13.6138, 17.3337, -145.52, -97.9262, 142.516
0.20597, -1, 9.80996, 13.1995, 17.4361, -146.01, -97.7575, 139.681
0.207298, -1, 9.80996, 13.1995, 17.4361, -146.01, -97.7575, 139.681
0.209365, -1, 9.73219, 13.1788, 17.4411, -146.034, -97.7489, 139.541
0.21059, -1, 9.73219, 13.1788, 17.4411, -146.034, -97.7489, 139.541
0.212445, -1, 9.65439, 13.1581, 17.4461, -146.057, -97.7403, 139.401
0.213793, -1, 9.65439, 13.1581, 17.4461, -146.057, -97.7403, 139.401
0.214983, -1, 9.65439, 13.1581, 17.4461, -146.057, -97.7403, 139.401
0.218498, -1, 9.57672, 13.1374, 17.4512, -146.081, -97.7318, 139.262
0.221215, -1, 9.57672, 13.1374, 17.4562, -146.105, -97.7233, 139.122
0.222485, -1, 9.4992, 13.1168, 17.4562, -146.105, -97.7233, 139.122
0.223677, -1, 9.4992, 13.1168, 17.4562, -146.105, -97.7233, 139.122
0.226521, -1, 9.4218, 13.0962, 17.4611, -146.129, -97.7148, 138.982
0.228483, -1, 9.4218, 13.0962, 17.4611, -146.129, -97.7064, 138.842
0.229885, -1, 9.34449, 13.0756, 17.4661, -146.154, -97.7064, 138.842
0.231291, -1, 9.34449, 13.0756, 17.4661, -146.154, -97.7064, 138.842
0.235297, -1, 9.26725, 13.0551, 17.471, -146.177, -97.698, 138.703
0.237485, -1, 9.19008, 13.0345, 17.4761, -146.201, -97.6897, 138.563
0.238708, -1, 9.19008, 13.0345, 17.4761, -146.201, -97.6897, 138.563
0.240745, -1, 9.11306, 13.0139, 17.4811, -146.225, -97.6814, 138.423
0.242124, -1, 9.11306, 13.0139, 17.4811, -146.225, -97.6814, 138.423
0.243383, -1, 9.11306, 13.0139, 17.4811, -146.225, -97.6814, 138.423
0.24741, -1, 9.03616, 12.9934, 17.4861, -146.249, -97.673, 138.283
0.258358, -1, 8.80554, 12.9318, 17.5013, -146.321, -97.6476, 137.863
0.263355, -1, 8.72877, 12.9112, 17.5064, -146.345, -97.639, 137.723
0.27299, -1, 8.49935, 12.8494, 17.5215, -146.417, -97.6127, 137.303
0.281153, -1, 8.34654, 12.8082, 17.5318, -146.465, -97.5953, 137.022
0.287438, -1, 8.27002, 12.7875, 17.5369, -146.489, -97.5867, 136.882
0.297009, -1, 8.03974, 12.7251, 17.5522, -146.561, -97.5612, 136.462
0.303351, -1, 7.96271, 12.7043, 17.5573, -146.585, -97.5528, 136.322
0.312354, -1, 7.80819, 12.6626, 17.5674, -146.633, -97.5362, 136.041
0.321046, -1, 7.65332, 12.6208, 17.5775, -146.681, -97.5195, 135.761
0.327355, -1, 7.49836, 12.5792, 17.5878, -146.729, -97.5027, 135.481
0.335467, -1, 7.34335, 12.5376, 17.5979, -146.777, -97.4855, 135.201
0.343351, -1, 7.18842, 12.4961, 17.6082, -146.825, -97.4682, 134.92
0.351364, -1, 7.03339, 12.4546, 17.6185, -146.873, -97.4509, 134.64
0.359349, -1, 6.87824, 12.4133, 17.6287, -146.921, -97.4338, 134.36
0.367349, -1, 6.7233, 12.372, 17.6391, -146.969, -97.4169, 134.079
0.375515, -1, 6.56863, 12.3307, 17.6495, -147.018, -97.4002, 133.799
0.38344, -1, 6.41407, 12.2893, 17.6599, -147.065, -97.3835, 133.518
0.391351, -1, 6.25978, 12.248, 17.6703, -147.113, -97.3666, 133.238
0.39942, -1, 6.10553, 12.2065, 17.6806, -147.162, -97.3495, 132.957
0.407353, -1, 5.9511, 12.1651, 17.6908, -147.21, -97.3321, 132.676
0.415453, -1, 5.7965, 12.1235, 17.7012, -147.257, -97.3145, 132.396
0.423423, -1, 5.64166, 12.0817, 17.7114, -147.306, -97.297, 132.115
0.431345, -1, 5.48659, 12.0401, 17.7217, -147.354, -97.2799, 131.834
0.439365, -1, 5.33139, 11.9984, 17.732, -147.402, -97.263, 131.553
0.447424, -1, 5.17588, 11.9567, 17.7423, -147.45, -97.2462, 131.272
0.455437, -1, 5.02011, 11.915, 17.7527, -147.498, -97.2295, 130.991
0.46335, -1, 4.86434, 11.8734, 17.7632, -147.546, -97.2125, 130.71
0.471424, -1, 4.70869, 11.8318, 17.7736, -147.595, -97.1953, 130.429
0.479353, -1, 4.55297, 11.7903, 17.7841, -147.643, -97.1777, 130.148
0.487413, -1, 4.39737, 11.7488, 17.7944, -147.691, -97.1603, 129.867
0.495422, -1, 4.24194, 11.7073, 17.8049, -147.74, -97.1432, 129.586
0.503411, -1, 4.08678, 11.6658, 17.8153, -147.788, -97.1261, 129.305
0.511482, -1, 3.93213, 11.6244, 17.8257, -147.836, -97.1092, 129.024
0.519437, -1, 3.77777, 11.5829, 17.836, -147.884, -97.0925, 128.742
0.527449, -1, 3.62338, 11.5412, 17.8463, -147.933, -97.0755, 128.461
0.535572, -1, 3.46885, 11.4996, 17.8566, -147.981, -97.0583, 128.179
0.543493, -1, 3.31403, 11.4579, 17.8671, -148.03, -97.0409, 127.898
0.551456, -1, 3.15889, 11.4162, 17.8775, -148.077, -97.0233, 127.616
0.559516, -1, 3.00358, 11.3744, 17.8879, -148.126, -97.0059, 127.335
0.567376, -1, 2.84821, 11.3326, 17.8983, -148.174, -96.9887, 127.053
0.575446, -1, 2.69252, 11.2909, 17.9086, -148.222, -96.9718, 126.771
0.583514, -1, 2.53657, 11.2491, 17.919, -148.27, -96.955, 126.49
0.591492, -1, 2.38035, 11.2074, 17.9294, -148.319, -96.9383, 126.208
0.599539, -1, 2.22381, 11.1657, 17.9398, -148.367, -96.9213, 125.926
0.60769, -1, 2.06711, 11.124, 17.9503, -148.415, -96.9041, 125.644
0.615729, -1, 1.91042, 11.0823, 17.9606, -148.464, -96.8866, 125.363
0.62383, -1, 1.75395, 11.0406, 17.971, -148.512, -96.8691, 125.081
0.63259, -1, 1.59761, 10.9989, 17.9815, -148.561, -96.8519, 124.799
0.639892, -1, 1.44159, 10.9572, 17.992, -148.609, -96.8349, 124.517
0.647916, -1, 1.28572, 10.9155, 18.0024, -148.658, -96.818, 124.235
0.656767, -1, 1.13011, 10.8737, 18.0128, -148.706, -96.8012, 123.952
0.79022, -1, -1.44669, 10.1834, 18.1846, -149.506, -96.5185, 119.286
0.791462, -1, -1.44669, 10.1834, 18.1846, -149.506, -96.5185, 119.286
0.793516, -1, -1.52508, 10.1625, 18.1898, -149.53, -96.5101, 119.145
0.794767, -1, -1.52508, 10.1625, 18.1898, -149.53, -96.5101, 119.145
0.796944, -1, -1.6033, 10.1416, 18.1951, -149.555, -96.5017, 119.003
0.798399, -1, -1.6033, 10.1416, 18.1951, -149.555, -96.5017, 119.003
0.799602, -1, -1.6033, 10.1416, 18.1951, -149.555, -96.5017, 119.003
0.803487, -1, -1.6814, 10.1207, 18.2004, -149.579, -96.4932, 118.862
0.805576, -1, -1.75939, 10.0997, 18.2056, -149.604, -96.4847, 118.72
0.807699, -1, -1.75939, 10.0997, 18.2056, -149.604, -96.4847, 118.72
0.809746, -1, -1.83726, 10.0788, 18.2108, -149.628, -96.476, 118.578
0.811054, -1, -1.83726, 10.0788, 18.2108, -149.628, -96.476, 118.578
0.812292, -1, -1.83726, 10.0788, 18.2108, -149.628, -96.476, 118.578
0.814499, -1, -1.91505, 10.0578, 18.216, -149.652, -96.4673, 118.437
0.815809, -1, -1.91505, 10.0578, 18.216, -149.652, -96.4673, 118.437
0.81922, -1, -1.99276, 10.0369, 18.2212, -149.676, -96.4585, 118.295
0.820987, -1, -1.99276, 10.0369, 18.2212, -149.676, -96.4585, 118.153
0.822486, -1, -2.07037, 10.0159, 18.2265, -149.701, -96.4496, 118.153
0.823682, -1, -2.07037, 10.0159, 18.2265, -149.701, -96.4496, 118.153
0.826387, -1, -2.14794, 9.99499, 18.2317, -149.725, -96.4408, 118.011
0.827639, -1, -2.14794, 9.99499, 18.2317, -149.725, -96.4408, 118.011
0.831427, -1, -2.22551, 9.97406, 18.2369, -149.75, -96.432, 117.869
0.839352, -1, -2.38075, 9.93216, 18.2473, -149.798, -96.4147, 117.586
0.847337, -1, -2.5363, 9.89016, 18.2578, -149.846, -96.3977, 117.302
0.855449, -1, -2.69209, 9.84821, 18.2681, -149.895, -96.3808, 117.018
0.863348, -1, -2.84833, 9.80626, 18.2785, -149.944, -96.3641, 116.735
0.871347, -1, -3.0049, 9.76429, 18.2889, -149.992, -96.3472, 116.451
0.879382, -1, -3.16193, 9.72236, 18.2993, -150.041, -96.3299, 116.167
0.887346, -1, -3.31932, 9.68039, 18.3098, -150.09, -96.3124, 115.883
0.895447, -1, -3.47712, 9.63835, 18.3203, -150.138, -96.2948, 115.6
0.903343, -1, -3.63488, 9.59644, 18.3307, -150.187, -96.2774, 115.316
0.911349, -1, -3.79286, 9.55455, 18.3411, -150.236, -96.2602, 115.031
0.919424, -1, -3.95088, 9.51249, 18.3515, -150.284, -96.2432, 114.747
0.927346, -1, -4.10877, 9.47056, 18.3619, -150.334, -96.2262, 114.463
0.935417, -1, -4.2666, 9.4286, 18.3723, -150.382, -96.2092, 114.178
0.943404, -1, -4.42421, 9.38654, 18.3826, -150.431, -96.192, 113.894
0.951339, -1, -4.58143, 9.34453, 18.393, -150.48, -96.1744, 113.609
0.959365, -1, -4.7382, 9.30247, 18.4034, -150.529, -96.1566, 113.324
0.967386, -1, -4.89458, 9.26038, 18.4138, -150.577, -96.139, 113.04
0.975397, -1, -5.05078, 9.2183, 18.4243, -150.627, -96.1216, 112.755
0.983346, -1, -5.20668, 9.17623, 18.4349, -150.675, -96.1045, 112.47
0.991387, -1, -5.36254, 9.13413, 18.4454, -150.724, -96.0875, 112.185
0.999373, -1, -5.51857, 9.09198, 18.4559, -150.773, -96.0706, 111.901
1.00743, -1, -5.67488, 9.04988, 18.4663, -150.821, -96.0537, 111.616
1.01546, -1, -5.83161, 9.00771, 18.4768, -150.87, -96.0364, 111.331
1.02435, -1, -5.9888, 8.96551, 18.4872, -150.919, -96.0188, 111.046
1.03145, -1, -6.14654, 8.92338, 18.4975, -150.968, -96.0011, 110.761
1.03944, -1, -6.30473, 8.88123, 18.5079, -151.017, -95.9837, 110.475
1.04828, -1, -6.46309, 8.83913, 18.5182, -151.066, -95.9665, 110.19
1.0555, -1, -6.62153, 8.79703, 18.5287, -151.115, -95.9495, 109.905
1.06334, -1, -6.78019, 8.75481, 18.5393, -151.164, -95.9325, 109.62
1.07226, -1, -6.93884, 8.71267, 18.5498, -151.213, -95.9155, 109.334
1.07937, -1, -7.09736, 8.67054, 18.5603, -151.262, -95.8982, 109.049
1.08745, -1, -7.25581, 8.62836, 18.5707, -151.311, -95.8806, 108.763
1.09636, -1, -7.41402, 8.58611, 18.5811, -151.36, -95.8629, 108.477
1.10362, -1, -7.57181, 8.54378, 18.5916, -151.409, -95.8452, 108.191
1.11171, -1, -7.72922, 8.50145, 18.6021, -151.458, -95.8279, 107.906
1.12054, -1, -7.88634, 8.45919, 18.6125, -151.507, -95.8108, 107.62
1.12771, -1, -8.04313, 8.41686, 18.6229, -151.556, -95.7937, 107.334
1.13591, -1, -8.1997, 8.37451, 18.6333, -151.605, -95.7768, 107.048
1.14577, -1, -8.35635, 8.33218, 18.6439, -151.654, -95.7597, 106.762
1.1523, -1, -8.5132, 8.28976, 18.6544, -151.703, -95.7424, 106.476
1.15991, -1, -8.67035, 8.24747, 18.665, -151.752, -95.7247, 106.19
1.1685, -1, -8.8278, 8.20518, 18.6754, -151.801, -95.7071, 105.903
1.17599, -1, -8.98568, 8.1628, 18.6858, -151.85, -95.6897, 105.617
1.18394, -1, -9.06479, 8.14164, 18.691, -151.875, -95.681, 105.331
1.19132, -1, -9.22337, 8.09939, 18.7015, -151.924, -95.6637, 105.187
1.20041, -1, -9.46176, 8.03584, 18.7171, -151.998, -95.6381, 104.757
1.20734, -1, -9.54133, 8.01469, 18.7224, -152.023, -95.6296, 104.614
1.21546, -1, -9.70048, 7.97246, 18.7329, -152.072, -95.6123, 104.327
1.22446, -1, -9.93948, 7.90903, 18.7487, -152.146, -95.5858, 103.897
1.23133, -1, -10.0191, 7.88784, 18.7541, -152.17, -95.5769, 103.753
1.23932, -1, -10.1784, 7.84541, 18.7647, -152.22, -95.5591, 103.466
1.24878, -1, -10.417, 7.78162, 18.7806, -152.294, -95.5328, 103.036
1.2554, -1, -10.4964, 7.76036, 18.7858, -152.318, -95.5242, 102.893
1.26334, -1, -10.6549, 7.71792, 18.7963, -152.368, -95.5072, 102.606
1.27287, -1, -10.892, 7.65412, 18.812, -152.441, -95.4817, 102.175
1.28096, -1, -11.0497, 7.61154, 18.8225, -152.491, -95.4644, 101.888
1.28888, -1, -11.2071, 7.56908, 18.8329, -152.54, -95.4469, 101.6
1.29545, -1, -11.2858, 7.54784, 18.8382, -152.564, -95.438, 101.457
1.30334, -1, -11.4432, 7.50538, 18.8487, -152.614, -95.4202, 101.17
1.31286, -1, -11.6008, 7.46289, 18.8592, -152.663, -95.4025, 100.882
1.31938, -1, -11.7587, 7.42049, 18.8699, -152.712, -95.3851, 100.594
1.32838, -1, -11.9171, 7.37807, 18.8804, -152.762, -95.3679, 100.306
1.33536, -1, -12.0759, 7.33567, 18.8911, -152.811, -95.3507, 100.019
1.34347, -1, -12.2351, 7.29328, 18.9016, -152.861, -95.3335, 99.7308
1.35133, -1, -12.3946, 7.25083, 18.912, -152.91, -95.316, 99.4426
1.35932, -1, -12.5544, 7.20839, 18.9226, -152.96, -95.2983, 99.1545
1.36732, -1, -12.7143, 7.16591, 18.9331, -153.009, -95.2803, 98.8667
1.37536, -1, -12.8745, 7.12343, 18.9437, -153.059, -95.2625, 98.5787
1.38345, -1, -13.0345, 7.08086, 18.9543, -153.108, -95.2449, 98.2906
1.39132, -1, -13.1945, 7.03826, 18.9648, -153.157, -95.2275, 98.0025
1.39932, -1, -13.3543, 6.99564, 18.9754, -153.207, -95.2104, 97.7143
1.40739, -1, -13.5138, 6.95291, 18.986, -153.256, -95.1933, 97.4258
1.41536, -1, -13.673, 6.91017, 18.9966, -153.306, -95.176, 97.1372
1.42336, -1, -13.8321, 6.86745, 19.0072, -153.355, -95.1584, 96.8487
1.4314, -1, -13.9906, 6.82475, 19.0176, -153.404, -95.1406, 96.5603
1.43932, -1, -14.1489, 6.78207, 19.0281, -153.454, -95.1228, 96.2715
1.44733, -1, -14.307, 6.73944, 19.0387, -153.504, -95.1052, 95.9823
1.45544, -1, -14.4652, 6.69673, 19.0492, -153.553, -95.0879, 95.6935
1.46332, -1, -14.6236, 6.6541, 19.0598, -153.602, -95.0706, 95.4045
1.47138, -1, -14.7825, 6.61158, 19.0703, -153.652, -95.0535, 95.1152
1.4794, -1, -14.9417, 6.56896, 19.0809, -153.701, -95.0362, 94.8258
1.48732, -1, -15.1012, 6.52627, 19.0918, -153.751, -95.0186, 94.5368
1.49542, -1, -15.2611, 6.4837, 19.1024, -153.801, -95.0007, 94.2478
1.50343, -1, -15.4214, 6.44105, 19.1131, -153.85, -94.9826, 93.9585
1.51135, -1, -15.582, 6.39832, 19.1238, -153.9, -94.9648, 93.6692
1.51947, -1, -15.7427, 6.35559, 19.1343, -153.95, -94.9474, 93.38
1.52762, -1, -15.9035, 6.31275, 19.145, -153.999, -94.9302, 93.0907
1.53545, -1, -16.0644, 6.26981, 19.1556, -154.049, -94.9129, 92.8009
1.54349, -1, -16.2252, 6.22697, 19.1662, -154.099, -94.8958, 92.5113
1.55185, -1, -16.3858, 6.18396, 19.1767, -154.148, -94.8784, 92.2218
1.56031, -1, -16.5463, 6.14096, 19.1872, -154.198, -94.8608, 91.932
1.56748, -1, -16.7064, 6.09803, 19.1978, -154.248, -94.8429, 91.6416
1.57617, -1, -16.866, 6.05501, 19.2085, -154.297, -94.8251, 91.3515
1.58337, -1, -17.0254, 6.01206, 19.2192, -154.347, -94.8075, 91.0614
1.59146, -1, -17.1846, 5.96909, 19.2298, -154.397, -94.7901, 90.7711
1.60037, -1, -17.3436, 5.9262, 19.2404, -154.446, -94.7727, 90.4805
1.60761, -1, -17.5028, 5.88341, 19.2511, -154.497, -94.7554, 90.1902
1.61561, -1, -17.6622, 5.84059, 19.2618, -154.546, -94.738, 89.9001
1.6244, -1, -17.8215, 5.7978, 19.2725, -154.596, -94.7202, 89.6097
1.63183, -1, -17.9813, 5.75502, 19.2831, -154.646, -94.7021, 89.3191
1.64042, -1, -18.1416, 5.71222, 19.2937, -154.696, -94.684, 89.0287
1.64857, -1, -18.3023, 5.66941, 19.3044, -154.746, -94.6663, 88.7381
1.65614, -1, -18.4635, 5.62656, 19.3151, -154.796, -94.6488, 88.4471
1.66389, -1, -18.625, 5.58361, 19.3258, -154.846, -94.6315, 88.1561
1.67274, -1, -18.7866, 5.54061, 19.3365, -154.896, -94.6142, 87.8653
1.68042, -1, -18.9483, 5.4976, 19.3471, -154.946, -94.5969, 87.5745
1.68782, -1, -19.0291, 5.47608, 19.3523, -154.971, -94.588, 87.4289
1.69717, -1, -19.2715, 5.41135, 19.3683, -155.045, -94.5611, 86.9916
1.70336, -1, -19.3522, 5.38977, 19.3736, -155.071, -94.5521, 86.8461
1.71131, -1, -19.5135, 5.34663, 19.3842, -155.12, -94.5341, 86.5546
1.71935, -1, -19.6744, 5.3034, 19.3949, -155.17, -94.5164, 86.2629
1.72731, -1, -19.8351, 5.26027, 19.4055, -155.22, -94.4988, 85.9712
1.73536, -1, -19.9955, 5.2171, 19.4162, -155.27, -94.4814, 85.6796
1.74335, -1, -20.1555, 5.17392, 19.427, -155.32, -94.464, 85.3882
1.75278, -1, -20.3952, 5.10948, 19.4432, -155.395, -94.4376, 84.9504
1.75934, -1, -20.4752, 5.08793, 19.4486, -155.42, -94.4286, 84.8045
1.76878, -1, -20.7154, 5.02336, 19.4648, -155.496, -94.4015, 84.3668
1.77537, -1, -20.7956, 5.00189, 19.4701, -155.521, -94.3925, 84.2209
1.78333, -1, -20.9563, 4.9589, 19.4808, -155.571, -94.3748, 83.9286
1.79289, -1, -21.198, 4.89425, 19.4968, -155.646, -94.3486, 83.4906
1.80095, -1, -21.2788, 4.85112, 19.5075, -155.696, -94.3314, 83.1986
1.80737, -1, -21.4408, 4.82949, 19.5128, -155.721, -94.3228, 83.0524
1.81695, -1, -21.6029, 4.78622, 19.5235, -155.772, -94.3054, 82.6135
1.82436, -1, -21.7652, 4.74301, 19.5343, -155.822, -94.2877, 82.4672
1.83137, -1, -21.9276, 4.69964, 19.545, -155.872, -94.2698, 82.1746
1.83932, -1, -22.0901, 4.65626, 19.5558, -155.922, -94.2518, 81.8818
1.84732, -1, -22.2526, 4.61293, 19.5665, -155.972, -94.2339, 81.5889
1.85541, -1, -22.415, 4.56951, 19.5772, -156.023, -94.2163, 81.2962
1.8633, -1, -22.5771, 4.5261, 19.588, -156.073, -94.1989, 81.0035
1.87174, -1, -22.7388, 4.48269, 19.5986, -156.123, -94.1814, 80.7107
1.88036, -1, -22.9001, 4.43927, 19.6093, -156.173, -94.1638, 80.4175
1.88832, -1, -23.0613, 4.39595, 19.6201, -156.224, -94.146, 80.1246
1.89632, -1, -23.2223, 4.35262, 19.6307, -156.274, -94.1278, 79.8316
1.90437, -1, -23.3832, 4.30929, 19.6416, -156.324, -94.1096, 79.5381
1.9123, -1, -23.544, 4.26604, 19.6524, -156.375, -94.0915, 79.2446
1.92033, -1, -23.7051, 4.22276, 19.6632, -156.425, -94.0737, 78.9514
1.92836, -1, -23.8662, 4.1795, 19.674, -156.475, -94.0561, 78.6578
1.9363, -1, -24.0277, 4.13618, 19.6847, -156.526, -94.0387, 78.364
1.94431, -1, -24.1896, 4.0928, 19.6954, -156.576, -94.0213, 78.0701
1.95237, -1, -24.3521, 4.04938, 19.7062, -156.627, -94.0035, 77.7762
1.9593, -1, -24.5149, 4.00593, 19.7168, -156.677, -93.9855, 77.4821
1.96851, -1, -24.678, 3.96239, 19.7275, -156.727, -93.9673, 77.1878
1.97636, -1, -24.8413, 3.91885, 19.7382, -156.778, -93.9494, 76.8938
1.98337, -1, -25.0048, 3.8753, 19.749, -156.828, -93.9317, 76.5998
1.99133, -1, -25.1681, 3.83171, 19.7599, -156.878, -93.9141, 76.3056
1.99934, -1, -25.3312, 3.78815, 19.7708, -156.929, -93.8966, 76.011
2.00737, -1, -25.4942, 3.74452, 19.7816, -156.98, -93.8791, 75.7168
2.01552, -1, -25.657, 3.70081, 19.7923, -157.03, -93.8613, 75.4224
2.02339, -1, -25.8196, 3.65727, 19.8031, -157.08, -93.8432, 75.1277
2.03147, -1, -25.982, 3.61378, 19.8139, -157.131, -93.8248, 74.8329
2.03972, -1, -26.144, 3.57024, 19.8247, -157.181, -93.8066, 74.5384
2.04741, -1, -26.3056, 3.52684, 19.8355, -157.232, -93.7886, 74.2438
2.05555, -1, -26.4671, 3.48343, 19.8462, -157.282, -93.7709, 73.9487
2.06386, -1, -26.6288, 3.43988, 19.8569, -157.333, -93.7533, 73.6535
2.07238, -1, -26.7909, 3.39639, 19.8679, -157.384, -93.7356, 73.3584
2.07933, -1, -26.9534, 3.35284, 19.8787, -157.434, -93.7178, 73.063
2.08812, -1, -27.1161, 3.30922, 19.8895, -157.485, -93.6997, 72.7674
2.09545, -1, -27.2791, 3.26565, 19.9003, -157.536, -93.6814, 72.4722
2.10342, -1, -27.4426, 3.22192, 19.911, -157.586, -93.6632, 72.1769
2.11231, -1, -27.6064, 3.17811, 19.9218, -157.637, -93.6452, 71.8815
2.11983, -1, -27.7703, 3.13443, 19.9326, -157.688, -93.6274, 71.5858
2.1283, -1, -27.9345, 3.09071, 19.9434, -157.738, -93.6097, 71.2904
2.13658, -1, -28.0987, 3.04693, 19.9542, -157.789, -93.592, 70.9949
2.14373, -1, -28.263, 3.00321, 19.9649, -157.84, -93.5741, 70.699
2.15188, -1, -28.4272, 2.95945, 19.9758, -157.89, -93.5559, 70.4029
2.16078, -1, -28.5911, 2.91574, 19.9868, -157.941, -93.5374, 70.107
2.168, -1, -28.7547, 2.87208, 19.9976, -157.992, -93.5191, 69.8112
2.17605, -1, -28.918, 2.82835, 20.0084, -158.043, -93.501, 69.5148
2.18478, -1, -28.9995, 2.80651, 20.0137, -158.094, -93.4831, 69.2182
2.1923, -1, -29.2436, 2.74107, 20.0299, -158.145, -93.4654, 68.9217
2.19935, -1, -29.3249, 2.71922, 20.0353, -158.17, -93.4567, 68.7733
2.2091, -1, -29.569, 2.65369, 20.0516, -158.247, -93.43, 68.3279
2.2153, -1, -29.6504, 2.6318, 20.057, -158.272, -93.4209, 68.1794
2.22337, -1, -29.8134, 2.58801, 20.0678, -158.323, -93.4026, 67.8828
2.23129, -1, -29.9766, 2.54428, 20.0787, -158.374, -93.3842, 67.586
2.23929, -1, -30.1399, 2.50039, 20.0897, -158.425, -93.366, 67.2889
2.24858, -1, -30.3857, 2.43446, 20.1062, -158.501, -93.3391, 66.8433
2.2553, -1, -30.4679, 2.41251, 20.1116, -158.527, -93.3302, 66.6949
2.26336, -1, -30.6326, 2.3685, 20.1225, -158.577, -93.3125, 66.3977
2.27129, -1, -30.7977, 2.32455, 20.1333, -158.628, -93.2947, 66.1001
2.28177, -1, -31.0453, 2.25858, 20.1496, -158.705, -93.2674, 65.6542
2.28886, -1, -31.2104, 2.21456, 20.1605, -158.756, -93.2489, 65.3569
2.2969, -1, -31.3754, 2.17071, 20.1713, -158.807, -93.2305, 65.0593
2.30572, -1, -31.4578, 2.12677, 20.1821, -158.858, -93.2123, 64.7613
2.31136, -1, -31.6225, 2.10476, 20.1875, -158.884, -93.2033, 64.6125
2.3209, -1, -31.7871, 2.06081, 20.1985, -158.935, -93.1855, 64.1656
2.32831, -1, -31.9514, 2.0169, 20.2095, -158.986, -93.168, 64.0165
2.33536, -1, -32.1153, 1.97292, 20.2205, -159.037, -93.1503, 63.7184
2.34339, -1, -32.279, 1.92894, 20.2314, -159.089, -93.1325, 63.4207
2.35253, -1, -32.4424, 1.88495, 20.2423, -159.14, -93.1143, 63.1228
2.36029, -1, -32.6061, 1.8408, 20.2532, -159.191, -93.0959, 62.8246
2.3673, -1, -32.7699, 1.79671, 20.2642, -159.243, -93.0776, 62.5264
2.37533, -1, -32.9339, 1.75261, 20.2751, -159.294, -93.0596, 62.2282
2.3833, -1, -33.0982, 1.70835, 20.286, -159.345, -93.0417, 61.9298
2.39133, -1, -33.2629, 1.66415, 20.2969, -159.396, -93.024, 61.6308
2.39935, -1, -33.4278, 1.61996, 20.3078, -159.447, -93.0061, 61.3322
2.40733, -1, -33.5933, 1.57566, 20.3188, -159.498, -92.988, 61.0336
2.4153, -1, -33.759, 1.53143, 20.3298, -159.55, -92.9695, 60.7346
2.42335, -1, -33.9249, 1.4872, 20.3407, -159.601, -92.9508, 60.4353
2.43131, -1, -34.0908, 1.44299, 20.3516, -159.652, -92.9323, 60.1361
2.43929, -1, -34.2568, 1.39883, 20.3625, -159.704, -92.9142, 59.8368
2.44736, -1, -34.423, 1.35458, 20.3735, -159.755, -92.8962, 59.5371
2.4553, -1, -34.5889, 1.31035, 20.3844, -159.807, -92.8784, 59.2374
2.46329, -1, -34.7544, 1.26615, 20.3953, -159.858, -92.8606, 58.9383
2.47139, -1, -34.9196, 1.22187, 20.4063, -159.909, -92.8426, 58.6389
2.47939, -1, -35.0845, 1.1776, 20.4173, -159.961, -92.8242, 58.3391
2.48729, -1, -35.2491, 1.13328, 20.4284, -160.012, -92.8056, 58.0393
2.49537, -1, -35.4134, 1.08902, 20.4395, -160.063, -92.7872, 57.7396
2.50329, -1, -35.5767, 1.04503, 20.4507, -160.115, -92.769, 57.4396
2.51132, -1, -35.7376, 1.00143, 20.462, -160.166, -92.751, 57.1401
2.5194, -1, -35.8953, 0.958677, 20.4737, -160.217, -92.7332, 56.843
2.52738, -1, -36.0485, 0.91734, 20.4856, -160.267, -92.7155, 56.5504
2.53539, -1, -36.1953, 0.877865, 20.4976, -160.315, -92.6982, 56.2656
2.54344, -1, -36.3335, 0.840992, 20.5094, -160.362, -92.6813, 55.9941
2.5514, -1, -36.4611, 0.80718, 20.5206, -160.405, -92.6654, 55.7422
2.55943, -1, -36.5769, 0.776519, 20.5306, -160.443, -92.6511, 55.5158
2.56747, -1, -36.679, 0.74954, 20.5389, -160.476, -92.639, 55.3204
2.57529, -1, -36.7663, 0.726343, 20.5451, -160.503, -92.6291, 55.1596
2.58332, -1, -36.8393, 0.707005, 20.5491, -160.525, -92.6215, 55.0336
2.59143, -1, -36.899, 0.691313, 20.5511, -160.541, -92.6161, 54.9421
2.59947, -1, -36.9458, 0.678886, 20.5519, -160.552, -92.6124, 54.8784
2.60777, -1, -36.9805, 0.66958, 20.552, -160.559, -92.6102, 54.8378
2.61558, -1, -37.0053, 0.663198, 20.5516, -160.563, -92.609, 54.8138
2.62363, -1, -37.0215, 0.659225, 20.5512, -160.566, -92.6083, 54.8011
2.6316, -1, -37.0307, 0.657012, 20.5509, -160.567, -92.608, 54.7948
2.64031, 2, -37.0349, 0.655918, 20.5508, -160.567, -92.6078, 54.7919
2.64779, 2, -37.0356, 0.655445, 20.5508, -160.568, -92.6078, 54.7905
2.65638, 2, -37.035, 0.655253, 20.5508, -160.568, -92.6078, 54.7899
2.66401, 2, -37.0345, 0.655178, 20.5507, -160.568, -92.6077, 54.7897
2.67188, 2, -37.0346, 0.65512, 20.5507, -160.568, -92.6078, 54.7895
2.68039, 2, -37.0353, 0.655067, 20.5507, -160.568, -92.6078, 54.7895
2.68793, 2, -37.0359, 0.655006, 20.5506, -160.568, -92.6078, 54.7895
2.69648, 2, -37.0377, 0.654833, 20.5504, -160.568, -92.6078, 54.7895
2.70419, 2, -37.0393, 0.654587, 20.5502, -160.568, -92.6078, 54.7896
2.71133, 2, -37.0399, 0.654454, 20.5501, -160.568, -92.6079, 54.7897
2.72042, 2, -37.0417, 0.654044, 20.5499, -160.568, -92.608, 54.7898
2.72732, 2, -37.0422, 0.653936, 20.5498, -160.568, -92.608, 54.7898
2.73533, 2, -37.0426, 0.653814, 20.5495, -160.568, -92.608, 54.7899
2.74327, 2, -37.0426, 0.653765, 20.5494, -160.568, -92.608, 54.79
2.75129, 2, -37.0421, 0.65376, 20.5492, -160.568, -92.6081, 54.7902
2.75933, 2, -37.0413, 0.653794, 20.5492, -160.568, -92.6081, 54.7903
2.76887, 2, -37.0394, 0.653864, 20.5491, -160.568, -92.6082, 54.7906
2.77685, 2, -37.0378, 0.653957, 20.549, -160.568, -92.6082, 54.7908
2.78332, 2, -37.0372, 0.653987, 20.5489, -160.568, -92.6083, 54.7908
2.7913, 2, -37.0361, 0.654032, 20.5489, -160.568, -92.6083, 54.791
2.80089, 2, -37.0353, 0.654013, 20.5488, -160.568, -92.6083, 54.791
2.80886, 2, -37.0352, 0.653996, 20.5488, -160.568, -92.6083, 54.791
2.81694, 2, -37.0353, 0.653958, 20.5488, -160.568, -92.6083, 54.7911
2.82327, 2, -37.0356, 0.653879, 20.5488, -160.568, -92.6084, 54.7911
2.8323, 2, -37.0358, 0.653823, 20.5488, -160.568, -92.6084, 54.7912
2.84032, 2, -37.0363, 0.653794, 20.5487, -160.568, -92.6084, 54.7912
2.84827, 2, -37.037, 0.653773, 20.5487, -160.568, -92.6084, 54.7912
2.85534, 2, -37.0378, 0.653764, 20.5487, -160.568, -92.6084, 54.7913
2.86327, 2, -37.0385, 0.65377, 20.5487, -160.568, -92.6084, 54.7914
2.87128, 2, -37.0389, 0.653781, 20.5487, -160.568, -92.6084, 54.7914
2.87933, 2, -37.039, 0.653804, 20.5487, -160.568, -92.6084, 54.7914
2.88728, 2, -37.039, 0.653822, 20.5487, -160.568, -92.6084, 54.7915
2.8953, 2, -37.039, 0.653828, 20.5487, -160.568, -92.6084, 54.7915
2.90334, 2, -37.0385, 0.653838, 20.5487, -160.568, -92.6084, 54.7916
2.91128, 2, -37.0381, 0.65385, 20.5487, -160.568, -92.6084, 54.7916
2.91928, 2, -37.0379, 0.653841, 20.5487, -160.568, -92.6084, 54.7917
2.92734, 2, -37.0377, 0.653831, 20.5487, -160.568, -92.6084, 54.7917
2.93529, 2, -37.0377, 0.653798, 20.5487, -160.568, -92.6085, 54.7917
2.94327, 2, -37.0376, 0.653775, 20.5487, -160.568, -92.6085, 54.7918
2.95135, 2, -37.0376, 0.653765, 20.5486, -160.568, -92.6084, 54.7918
2.95929, 2, -37.0377, 0.65376, 20.5486, -160.568, -92.6084, 54.7919
2.96727, 2, -37.0377, 0.653758, 20.5486, -160.568, -92.6084, 54.7919
2.97536, 2, -37.0378, 0.653775, 20.5486, -160.568, -92.6085, 54.792
2.98327, 2, -37.038, 0.653801, 20.5486, -160.568, -92.6085, 54.7921
2.99129, 2, -37.0382, 0.653807, 20.5486, -160.568, -92.6085, 54.7921
2.99938, 2, -37.0383, 0.653816, 20.5486, -160.568, -92.6085, 54.7921
3.00728, 2, -37.0383, 0.653832, 20.5486, -160.568, -92.6085, 54.7922
3.0153, 2, -37.0383, 0.653833, 20.5486, -160.568, -92.6085, 54.7922
3.02339, 2, -37.0383, 0.653828, 20.5486, -160.568, -92.6085, 54.7923
3.03137, 2, -37.0383, 0.653826, 20.5486, -160.568, -92.6085, 54.7924
3.03949, 2, -37.0383, 0.653825, 20.5485, -160.568, -92.6085, 54.7924
3.04744, 2, -37.0382, 0.653806, 20.5485, -160.568, -92.6085, 54.7924
3.05537, 2, -37.0382, 0.653797, 20.5485, -160.568, -92.6085, 54.7925
3.06342, 2, -37.0382, 0.653782, 20.5485, -160.568, -92.6085, 54.7925
3.07145, 2, -37.0382, 0.653768, 20.5485, -160.568, -92.6085, 54.7926
3.07928, 2, -37.0382, 0.653791, 20.5485, -160.568, -92.6085, 54.7927
3.08758, 2, -37.0382, 0.653808, 20.5485, -160.568, -92.6085, 54.7927
3.09537, 2, -37.0381, 0.653817, 20.5484, -160.567, -92.6086, 54.7928
3.10336, 2, -37.0382, 0.653833, 20.5484, -160.567, -92.6085, 54.7928
3.11176, 2, -37.0382, 0.653835, 20.5484, -160.567, -92.6086, 54.7929
3.11956, 2, -37.0382, 0.653834, 20.5484, -160.567, -92.6086, 54.7929
3.12757, 2, -37.0382, 0.653836, 20.5484, -160.568, -92.6085, 54.7929
3.13609, 2, -37.0382, 0.653834, 20.5484, -160.567, -92.6086, 54.7929
3.14375, 2, -37.0381, 0.653828, 20.5484, -160.567, -92.6086, 54.793
3.15175, 2, -37.0382, 0.653833, 20.5484, -160.567, -92.6085, 54.793
3.16037, 2, -37.0382, 0.653804, 20.5484, -160.567, -92.6086, 54.7931
3.16803, 2, -37.0381, 0.653796, 20.5484, -160.567, -92.6086, 54.7931
3.17584, 2, -37.0381, 0.653804, 20.5483, -160.567, -92.6086, 54.7932
3.18437, 2, -37.0381, 0.653814, 20.5483, -160.567, -92.6086, 54.7932
3.1919, 2, -37.0381, 0.653832, 20.5483, -160.567, -92.6087, 54.7933
3.2004, 2, -37.0381, 0.653835, 20.5483, -160.567, -92.6087, 54.7933
3.20813, 2, -37.0381, 0.653834, 20.5483, -160.567, -92.6087, 54.7933
3.21531, 2, -37.0381, 0.653838, 20.5483, -160.567, -92.6087, 54.7933
3.22437, 2, -37.0381, 0.653852, 20.5483, -160.567, -92.6087, 54.7933
3.23238, 2, -37.038, 0.65385, 20.5483, -160.567, -92.6087, 54.7934
3.23931, 2, -37.038, 0.653859, 20.5483, -160.567, -92.6087, 54.7934
3.24861, 2, -37.038, 0.653843, 20.5483, -160.567, -92.6087, 54.7934
3.25526, 2, -37.038, 0.653837, 20.5483, -160.567, -92.6087, 54.7934
3.26331, 2, -37.038, 0.65383, 20.5483, -160.567, -92.6087, 54.7935
3.27278, 2, -37.038, 0.653833, 20.5482, -160.567, -92.6087, 54.7935
3.28129, 2, -37.0379, 0.653833, 20.5482, -160.567, -92.6087, 54.7936
3.28732, 2, -37.038, 0.65383, 20.5482, -160.567, -92.6087, 54.7936
3.29684, 2, -37.038, 0.653833, 20.5482, -160.567, -92.6087, 54.7936
3.30514, 2, -37.0379, 0.653852, 20.5482, -160.567, -92.6088, 54.7936
3.31135, 2, -37.0379, 0.653858, 20.5482, -160.567, -92.6088, 54.7937
3.32087, 2, -37.0379, 0.653856, 20.5482, -160.567, -92.6087, 54.7937
3.32928, 2, -37.0379, 0.653862, 20.5482, -160.567, -92.6087, 54.7938
3.33534, 2, -37.0379, 0.653864, 20.5482, -160.567, -92.6087, 54.7938
3.34431, 2, -37.0379, 0.653859, 20.5481, -160.567, -92.6087, 54.7938
3.35249, 2, -37.0379, 0.653847, 20.5481, -160.567, -92.6088, 54.7938
3.35932, 2, -37.0379, 0.653847, 20.5481, -160.567, -92.6087, 54.7938
3.36726, 2, -37.0378, 0.653847, 20.5481, -160.567, -92.6088, 54.7939
3.37526, 2, -37.0378, 0.653839, 20.5481, -160.567, -92.6088, 54.7939
3.38333, 2, -37.0378, 0.653831, 20.5481, -160.567, -92.6088, 54.794
3.39127, 2, -37.0378, 0.653846, 20.5481, -160.567, -92.6088, 54.794
3.39928, 2, -37.0378, 0.653846, 20.5481, -160.567, -92.6088, 54.794
3.40733, 2, -37.0378, 0.653839, 20.5481, -160.567, -92.6088, 54.794
3.41526, 2, -37.0378, 0.65385, 20.5481, -160.567, -92.6088, 54.794
3.42326, 2, -37.0378, 0.653879, 20.5481, -160.567, -92.6088, 54.794
3.43134, 2, -37.0378, 0.653873, 20.548, -160.567, -92.6088, 54.7941
3.43928, 2, -37.0377, 0.653871, 20.548, -160.567, -92.6087, 54.7941
3.44726, 2, -37.0377, 0.65387, 20.548, -160.567, -92.6088, 54.7941
3.45532, 2, -37.0377, 0.653869, 20.548, -160.567, -92.6088, 54.7941
3.46327, 2, -37.0377, 0.653862, 20.548, -160.567, -92.6088, 54.7941
3.47127, 2, -37.0377, 0.653861, 20.548, -160.567, -92.6088, 54.7942
3.47934, 2, -37.0377, 0.653846, 20.548, -160.567, -92.6088, 54.7942
3.48726, 2, -37.0376, 0.653846, 20.548, -160.567, -92.6088, 54.7942
3.49526, 2, -37.0376, 0.653853, 20.548, -160.567, -92.6088, 54.7942
3.50334, 2, -37.0376, 0.653854, 20.548, -160.567, -92.6088, 54.7942
3.51127, 2, -37.0376, 0.653876, 20.548, -160.567, -92.6088, 54.7942
3.51929, 2, -37.0376, 0.653872, 20.5479, -160.567, -92.6088, 54.7942
3.52738, 2, -37.0376, 0.65387, 20.548, -160.567, -92.6088, 54.7942
3.53534, 2, -37.0376, 0.65387, 20.5479, -160.567, -92.6088, 54.7942
3.54335, 2, -37.0376, 0.653869, 20.5479, -160.567, -92.6088, 54.7943
3.55143, 2, -37.0375, 0.653868, 20.5479, -160.567, -92.6088, 54.7943
3.55937, 2, -37.0376, 0.653876, 20.5479, -160.567, -92.6088, 54.7943
3.5674, 2, -37.0376, 0.653871, 20.5479, -160.567, -92.6089, 54.7943
3.57542, 2, -37.0376, 0.653877, 20.5479, -160.567, -92.6089, 54.7943
3.58328, 2, -37.0376, 0.653873, 20.5479, -160.567, -92.6089, 54.7943
3.5913, 2, -37.0375, 0.653871, 20.5479, -160.567, -92.6089, 54.7943
3.59938, 2, -37.0375, 0.65387, 20.5479, -160.567, -92.6088, 54.7943
3.60737, 2, -37.0375, 0.653869, 20.5479, -160.567, -92.6088, 54.7943
3.61544, 2, -37.0375, 0.653887, 20.5479, -160.567, -92.6088, 54.7943
3.62362, 2, -37.0375, 0.653896, 20.5479, -160.567, -92.6088, 54.7943
3.63159, 2, -37.0375, 0.653892, 20.5479, -160.567, -92.6089, 54.7943
3.63996, 2, -37.0375, 0.653898, 20.5478, -160.567, -92.6089, 54.7944
3.64829, 2, -37.0375, 0.653901, 20.5478, -160.567, -92.6089, 54.7944
3.65576, 2, -37.0375, 0.653909, 20.5478, -160.567, -92.6089, 54.7943
3.66435, 2, -37.0375, 0.653898, 20.5478, -160.567, -92.6089, 54.7943
3.67198, 2, -37.0375, 0.653901, 20.5478, -160.567, -92.6089, 54.7943
3.68056, 2, -37.0374, 0.653891, 20.5478, -160.567, -92.6089, 54.7943
3.68836, 2, -37.0374, 0.65389, 20.5478, -160.567, -92.6089, 54.7944
3.69587, 2, -37.0374, 0.653876, 20.5478, -160.567, -92.6089, 54.7943
3.7045, 4, -37.0374, 0.653871, 20.5478, -160.567, -92.6089, 54.7944
3.71126, 4, -37.0374, 0.65387, 20.5478, -160.567, -92.6089, 54.7944
3.72029, 4, -37.0374, 0.653882, 20.5478, -160.567, -92.6089, 54.7944
3.72725, 4, -37.0374, 0.653878, 20.5478, -160.567, -92.6089, 54.7944
3.73644, 4, -37.0374, 0.653902, 20.5478, -160.567, -92.6089, 54.7943
3.74329, 4, -37.0374, 0.653903, 20.5477, -160.567, -92.6089, 54.7943
3.75126, 4, -37.0374, 0.653921, 20.5477, -160.567, -92.6089, 54.7943
3.75925, 4, -37.0374, 0.65393, 20.5477, -160.567, -92.6089, 54.7943
3.7689, 4, -37.0374, 0.653924, 20.5477, -160.567, -92.6089, 54.7944
3.77678, 4, -37.0373, 0.653912, 20.5477, -160.567, -92.6089, 54.7944
3.78477, 4, -37.0373, 0.653918, 20.5477, -160.567, -92.6089, 54.7944
3.79308, 4, -37.0373, 0.653928, 20.5477, -160.566, -92.6089, 54.7944
3.79925, 4, -37.0373, 0.653931, 20.5477, -160.566, -92.6089, 54.7944
3.80932, 4, -37.0373, 0.653924, 20.5477, -160.567, -92.6089, 54.7944
3.83397, 4, -37.0372, 0.653905, 20.5477, -160.566, -92.6089, 54.7944
3.83578, 4, -37.0372, 0.653905, 20.5477, -160.566, -92.6089, 54.7944
3.83852, 4, -37.0372, 0.653904, 20.5476, -160.566, -92.6089, 54.7944
3.84116, 4, -37.0372, 0.653904, 20.5476, -160.566, -92.6089, 54.7944
3.84738, 4, -37.0372, 0.653922, 20.5476, -160.566, -92.6089, 54.7944
3.86046, 4, -37.0364, 0.65376, 20.5476, -160.566, -92.6089, 54.7944
3.86361, 4, -37.0354, 0.653463, 20.5477, -160.566, -92.6089, 54.7944
3.87233, 4, -37.0314, 0.651753, 20.5481, -160.566, -92.6089, 54.7944
3.88035, 4, -37.0237, 0.647517, 20.5496, -160.566, -92.6089, 54.7944
3.89042, 4, -37.005, 0.634584, 20.5567, -160.565, -92.609, 54.7944
3.89532, 4, -36.9965, 0.628303, 20.5609, -160.565, -92.609, 54.7944
3.90339, 5, -36.9756, 0.612265, 20.5734, -160.562, -92.6089, 54.7944
3.91125, 5, -36.9489, 0.591789, 20.5921, -160.559, -92.6088, 54.7943
3.91924, 5, -36.9173, 0.566822, 20.6174, -160.553, -92.6085, 54.7943
3.92996, 5, -36.861, 0.521064, 20.6683, -160.542, -92.6076, 54.7943
3.9354, 5, -36.8398, 0.503441, 20.6883, -160.538, -92.607, 54.7943
3.94724, 5, -36.7682, 0.443632, 20.7562, -160.523, -92.6049, 54.7942
3.95125, 5, -36.7417, 0.421593, 20.7809, -160.517, -92.6042, 54.7943
3.96039, 5, -36.6855, 0.374818, 20.8325, -160.505, -92.6024, 54.7942
3.96824, 5, -36.6251, 0.3253, 20.8862, -160.493, -92.6006, 54.7941
3.97523, 5, -36.5609, 0.273641, 20.9412, -160.481, -92.5988, 54.7942
3.98326, 5, -36.4942, 0.220629, 20.9966, -160.469, -92.5969, 54.7942
3.99133, 5, -36.4264, 0.166991, 21.0522, -160.457, -92.595, 54.7942
3.99928, 5, -36.3579, 0.113072, 21.1078, -160.445, -92.5931, 54.7942
4.0074, 5, -36.2892, 0.0590963, 21.1633, -160.433, -92.5911, 54.7942
4.01874, 5, -36.1858, -0.0216251, 21.2467, -160.415, -92.5882, 54.7943
4.0243, 5, -36.1514, -0.0484318, 21.2744, -160.409, -92.5872, 54.7943
4.03148, 5, -36.0828, -0.10184, 21.3299, -160.396, -92.5851, 54.7944
4.0404, 5, -36.0142, -0.155029, 21.3852, -160.384, -92.583, 54.7944
4.04734, 5, -35.9456, -0.208067, 21.4406, -160.371, -92.581, 54.7946
4.05534, 5, -35.8771, -0.260907, 21.4957, -160.358, -92.5789, 54.7949
4.06379, 5, -35.8084, -0.313557, 21.5508, -160.345, -92.5768, 54.7953
4.07138, 5, -35.7394, -0.366255, 21.6059, -160.333, -92.5747, 54.796
4.08024, 5, -35.6702, -0.418935, 21.6608, -160.32, -92.5727, 54.7968
4.09279, 5, -35.6007, -0.4981, 21.7427, -160.301, -92.5695, 54.7985
4.09528, 5, -35.5309, -0.524501, 21.7699, -160.295, -92.5685, 54.7992
4.10623, 5, -35.4609, -0.577288, 21.8243, -160.282, -92.5664, 54.8005
4.11243, 5, -35.3907, -0.630071, 21.8784, -160.27, -92.5642, 54.802
4.1203, 5, -35.3202, -0.682832, 21.9324, -160.257, -92.5621, 54.8037
4.12746, 5, -35.2497, -0.735529, 21.9865, -160.244, -92.5599, 54.8055
4.13727, 5, -35.1792, -0.787924, 22.0403, -160.23, -92.5577, 54.8074
4.14425, 5, -35.1085, -0.840187, 22.094, -160.217, -92.5556, 54.8095
4.15201, 5, -35.0379, -0.892375, 22.1476, -160.204, -92.5534, 54.8117
4.16605, 5, -34.9321, -0.969984, 22.2278, -160.184, -92.55, 54.8152
4.16829, 5, -34.8969, -0.995795, 22.2545, -160.178, -92.549, 54.8164
4.17585, 5, -34.8264, -1.04726, 22.3078, -160.165, -92.5466, 54.819
4.18501, 5, -34.7559, -1.09869, 22.3608, -160.152, -92.5443, 54.8216
4.19182, 5, -34.7206, -1.12443, 22.3873, -160.139, -92.5421, 54.8244
4.20025, 5, -34.6144, -1.20142, 22.4665, -160.126, -92.5398, 54.8273
4.20723, 5, -34.5789, -1.2271, 22.4927, -160.12, -92.5387, 54.8287
4.21523, 5, -34.5078, -1.27851, 22.5452, -160.106, -92.5363, 54.8318
4.22328, 5, -34.4365, -1.32987, 22.5976, -160.093, -92.534, 54.835
4.23346, 5, -34.3292, -1.40691, 22.6758, -160.072, -92.5305, 54.84
4.24302, 5, -34.2576, -1.45815, 22.7277, -160.058, -92.5281, 54.8434
4.24718, 5, -34.2217, -1.48372, 22.7536, -160.052, -92.5269, 54.8451
4.25524, 5, -34.1497, -1.53469, 22.8055, -160.038, -92.5246, 54.8488
4.26457, 5, -34.0416, -1.6108, 22.8829, -160.018, -92.521, 54.8545
4.27123, 5, -34.0056, -1.63608, 22.9087, -160.011, -92.5199, 54.8565
4.2811, 5, -33.8973, -1.71151, 22.9859, -159.991, -92.5163, 54.8624
4.28738, 5, -33.8612, -1.73656, 23.0115, -159.984, -92.5151, 54.8644
4.2952, 5, -33.7891, -1.78659, 23.0626, -159.97, -92.5127, 54.8686
4.30672, 5, -33.6807, -1.86149, 23.139, -159.949, -92.5092, 54.875
4.3138, 5, -33.6083, -1.91135, 23.1897, -159.935, -92.5069, 54.8793
4.32072, 5, -33.572, -1.93636, 23.215, -159.928, -92.5058, 54.8815
4.32823, 5, -33.4993, -1.98658, 23.2656, -159.913, -92.5034, 54.8856
4.33628, 5, -33.4265, -2.03708, 23.3161, -159.899, -92.5012, 54.8892
4.34425, 5, -33.3537, -2.08792, 23.3664, -159.885, -92.4988, 54.8915
4.35129, 6, -33.2811, -2.13917, 23.4168, -159.871, -92.4965, 54.8925
4.35937, 6, -33.2089, -2.19115, 23.4674, -159.857, -92.4938, 54.8918
4.3682, 6, -33.137, -2.24402, 23.5183, -159.842, -92.4908, 54.8888
4.37528, 6, -33.0656, -2.29773, 23.5699, -159.826, -92.487, 54.8812
4.38322, 7, -32.9946, -2.35258, 23.6225, -159.808, -92.482, 54.8686
4.39123, 7, -32.9241, -2.40853, 23.6762, -159.789, -92.4754, 54.853
4.39923, 7, -32.8541, -2.46588, 23.7313, -159.769, -92.4669, 54.8355
4.40744, 7, -32.7847, -2.52473, 23.7879, -159.748, -92.4565, 54.8178
4.4162, 7, -32.716, -2.5852, 23.846, -159.726, -92.4439, 54.8005
4.42322, 8, -32.6479, -2.64728, 23.9054, -159.702, -92.4294, 54.7836
4.43265, 8, -32.5806, -2.71108, 23.9662, -159.677, -92.4129, 54.7669
4.44276, 8, -32.514, -2.77665, 24.028, -159.651, -92.3945, 54.7493
4.448, 8, -32.4481, -2.84383, 24.0909, -159.623, -92.3744, 54.7307
4.45706, 8, -32.3828, -2.91251, 24.1548, -159.596, -92.353, 54.7106
4.46322, 9, -32.3182, -2.98254, 24.2197, -159.567, -92.3305, 54.6887
4.4713, 9, -32.2542, -3.05389, 24.2855, -159.537, -92.3068, 54.665
4.47923, 9, -32.1906, -3.12658, 24.3524, -159.506, -92.282, 54.6397
4.48845, 9, -32.1277, -3.20051, 24.4203, -159.474, -92.2553, 54.6131
4.49622, 9, -32.0654, -3.27578, 24.4892, -159.441, -92.2268, 54.5853
4.50329, 10, -32.0035, -3.35232, 24.559, -159.408, -92.1971, 54.5559
4.51153, 10, -31.9424, -3.43021, 24.6299, -159.373, -92.1664, 54.5246
4.51923, 10, -31.8818, -3.50956, 24.7019, -159.336, -92.1343, 54.4912
4.52743, 10, -31.8216, -3.5903, 24.7749, -159.3, -92.1003, 54.4562
4.53546, 10, -31.7621, -3.67249, 24.849, -159.263, -92.0647, 54.4201
4.54431, 11, -31.7031, -3.7561, 24.924, -159.224, -92.0284, 54.3828
4.55167, 11, -31.6447, -3.84129, 25, -159.185, -91.9911, 54.3436
4.56014, 11, -31.5869, -3.9279, 25.0768, -159.145, -91.9516, 54.3025
4.56857, 11, -31.5295, -4.01596, 25.1546, -159.103, -91.9106, 54.2599
4.57539, 11, -31.4728, -4.10553, 25.2335, -159.06, -91.869, 54.2163
4.58408, 12, -31.4165, -4.19657, 25.3134, -159.018, -91.8256, 54.1712
4.59233, 12, -31.3606, -4.28901, 25.3944, -158.974, -91.7802, 54.1238
4.59926, 12, -31.3053, -4.38284, 25.4765, -158.928, -91.7343, 54.0749
4.61133, 12, -31.2234, -4.52602, 25.6016, -158.859, -91.6626, 53.9996
4.61646, 12, -31.1963, -4.57448, 25.6438, -158.836, -91.6377, 53.9737
4.62618, 13, -31.1426, -4.67246, 25.7288, -158.787, -91.5877, 53.9201
4.63238, 13, -31.0893, -4.77183, 25.8148, -158.738, -91.5362, 53.8655
4.64002, 13, -31.0365, -4.87264, 25.9018, -158.689, -91.4826, 53.8098
4.6486, 13, -30.9843, -4.97503, 25.9899, -158.638, -91.4287, 53.7521
4.65569, 13, -30.9327, -5.07887, 26.0791, -158.587, -91.3729, 53.693
4.66383, 13, -30.8815, -5.18403, 26.1693, -158.535, -91.3156, 53.6329
4.67265, 14, -30.831, -5.29073, 26.2607, -158.481, -91.2578, 53.5707
4.67985, 14, -30.7809, -5.3989, 26.353, -158.427, -91.1976, 53.5072
4.68858, 14, -30.7314, -5.50852, 26.4461, -158.372, -91.1372, 53.4431
4.69667, 14, -30.6824, -5.61973, 26.5402, -158.315, -91.0745, 53.3764
4.70422, 14, -30.634, -5.7324, 26.6354, -158.259, -91.0106, 53.3087
4.71121, 15, -30.6099, -5.78926, 26.6834, -158.23, -90.9785, 53.2746
4.72029, 15, -30.5385, -5.96169, 26.8293, -158.142, -90.8787, 53.169
4.72726, 15, -30.5149, -6.01984, 26.8785, -158.113, -90.8454, 53.1332
4.73665, 15, -30.445, -6.1966, 27.0273, -158.022, -90.742, 53.0237
4.74481, 15, -30.4219, -6.25618, 27.1276, -157.96, -90.6718, 52.9483
4.75247, 16, -30.3536, -6.43726, 27.2289, -157.897, -90.5995, 52.8722
4.76209, 16, -30.3088, -6.55993, 27.3314, -157.834, -90.5267, 52.7934
4.76743, 16, -30.2864, -6.62174, 27.3831, -157.802, -90.4896, 52.7539
4.77519, 16, -30.2423, -6.74648, 27.4873, -157.737, -90.4145, 52.6741
4.78476, 16, -30.1769, -6.93647, 27.6455, -157.639, -90.2992, 52.551
4.79127, 17, -30.1552, -7.00058, 27.6987, -157.605, -90.2603, 52.5097
4.80092, 17, -30.0913, -7.19531, 27.8595, -157.504, -90.1411, 52.3828
4.80878, 17, -30.0493, -7.32693, 27.9679, -157.435, -90.0599, 52.2971
4.81711, 17, -30.0078, -7.45977, 28.0775, -157.366, -89.9776, 52.2092
4.82322, 17, -29.9872, -7.52672, 28.1328, -157.33, -89.9359, 52.1651
4.83219, 18, -29.9464, -7.66175, 28.2443, -157.26, -89.8515, 52.0756
4.84026, 18, -29.9063, -7.79814, 28.3567, -157.188, -89.7656, 51.9849
4.84723, 18, -29.8665, -7.93605, 28.4698, -157.115, -89.679, 51.8925
4.85528, 18, -29.8272, -8.07519, 28.5839, -157.041, -89.5908, 51.7991
4.86343, 18, -29.7884, -8.21554, 28.699, -156.966, -89.5014, 51.7039
4.87118, 19, -29.75, -8.35727, 28.8154, -156.891, -89.4107, 51.6079
4.87921, 19, -29.7122, -8.50056, 28.933, -156.814, -89.319, 51.5103
4.88738, 19, -29.6748, -8.64542, 29.0515, -156.737, -89.2259, 51.4121
4.8975, 19, -29.6195, -8.86532, 29.2306, -156.62, -89.0839, 51.2623
4.90321, 19, -29.6013, -8.93919, 29.2908, -156.58, -89.0361, 51.2122
4.91146, 20, -29.5654, -9.08808, 29.4119, -156.5, -88.9396, 51.11
4.91929, 20, -29.5299, -9.23847, 29.5342, -156.419, -88.8419, 51.0073
4.92721, 20, -29.4947, -9.39045, 29.6577, -156.338, -88.7433, 50.903
4.93645, 20, -29.4601, -9.54359, 29.7819, -156.255, -88.6435, 50.7977
4.94335, 20, -29.426, -9.69783, 29.907, -156.172, -88.5427, 50.691
4.95129, 20, -29.3923, -9.85339, 30.0331, -156.087, -88.4408, 50.5832
4.96, 21, -29.359, -10.0104, 30.1601, -156.002, -88.3376, 50.4745
4.96824, 21, -29.3261, -10.169, 30.2883, -155.916, -88.2335, 50.3644
4.97621, 21, -29.2936, -10.3287, 30.4175, -155.829, -88.1285, 50.2536
4.98658, 21, -29.2458, -10.5701, 30.6127, -155.697, -87.9687, 50.0859
4.99235, 21, -29.2301, -10.6512, 30.6782, -155.653, -87.915, 50.0294
5.0012, 22, -29.199, -10.8145, 30.81, -155.563, -87.8068, 49.9162
5.00721, 22, -29.1681, -10.9793, 30.9429, -155.473, -87.6975, 49.802
5.01541, 22, -29.1378, -11.1448, 31.0765, -155.381, -87.5874, 49.6869
5.0233, 22, -29.1078, -11.3113, 31.2111, -155.289, -87.476, 49.5708
5.03126, 22, -29.0781, -11.4794, 31.3467, -155.196, -87.364, 49.4538
5.03936, 23, -29.0488, -11.6491, 31.4831, -155.102, -87.2509, 49.3362
5.04737, 23, -29.0199, -11.82, 31.6202, -155.007, -87.1368, 49.2178
5.05531, 23, -28.9913, -11.9915, 31.7582, -154.912, -87.0221, 49.0989
5.06348, 23, -28.9632, -12.1642, 31.897, -154.815, -86.9064, 48.9795
5.07219, 23, -28.9355, -12.3385, 32.0368, -154.718, -86.7896, 48.8593
5.07948, 24, -28.9081, -12.514, 32.1776, -154.62, -86.672, 48.7387
5.08801, 24, -28.881, -12.6899, 32.319, -154.521, -86.5535, 48.6177
5.1005, 24, -28.8542, -12.9555, 32.5323, -154.371, -86.3743, 48.4346
5.10326, 24, -28.8279, -13.0448, 32.6039, -154.32, -86.3139, 48.3732
5.11214, 24, -28.8018, -13.2245, 32.7479, -154.219, -86.1932, 48.2503
5.1197, 25, -28.776, -13.4047, 32.8925, -154.116, -86.0715, 48.127
5.12821, 25, -28.7506, -13.5855, 33.0378, -154.013, -85.949, 48.0035
5.13766, 25, -28.7254, -13.7676, 33.1836, -153.91, -85.8263, 47.8802
5.14463, 25, -28.7003, -13.9511, 33.3301, -153.805, -85.7022, 47.7563
5.15163, 25, -28.6755, -14.1353, 33.4776, -153.699, -85.5779, 47.6323
5.15994, 26, -28.6511, -14.3199, 33.6259, -153.593, -85.4529, 47.5086
5.16868, 26, -28.627, -14.5056, 33.7744, -153.486, -85.3273, 47.3841
5.17574, 26, -28.6031, -14.6929, 33.9236, -153.378, -85.2013, 47.2596
5.18465, 26, -28.5794, -14.8807, 34.0738, -153.27, -85.0743, 47.1354
5.19202, 26, -28.5558, -15.0687, 34.2246, -153.161, -84.9472, 47.0112
5.19982, 27, -28.5441, -15.1629, 34.3757, -153.05, -84.8192, 46.8873
5.20887, 27, -28.5094, -15.4472, 34.5274, -152.94, -84.691, 46.7641
5.21664, 27, -28.4865, -15.6374, 34.6797, -152.828, -84.562, 46.6406
5.22532, 27, -28.4638, -15.8277, 34.8328, -152.716, -84.4327, 46.5176
5.23124, 27, -28.4526, -15.9233, 34.9096, -152.66, -84.3679, 46.4562
5.24069, 28, -28.4192, -16.2124, 35.1399, -152.49, -84.173, 46.2723
5.24724, 28, -28.408, -16.3091, 35.2169, -152.433, -84.1078, 46.2113
5.25523, 28, -28.3857, -16.5028, 35.3715, -152.319, -83.977, 46.0895
5.26574, 28, -28.3526, -16.7948, 35.6046, -152.146, -83.7806, 45.908
5.27346, 28, -28.3305, -16.9906, 35.76, -152.03, -83.649, 45.788
5.27925, 28, -28.3195, -17.0885, 35.8379, -151.971, -83.5832, 45.7284
5.28963, 29, -28.2867, -17.3821, 36.0724, -151.796, -83.3853, 45.5506
5.29526, 29, -28.2758, -17.4804, 36.1509, -151.737, -83.3191, 45.492
5.30553, 29, -28.2431, -17.7764, 36.3865, -151.559, -83.1203, 45.3171
5.3138, 29, -28.2214, -17.9737, 36.5435, -151.44, -82.9874, 45.2015
5.31949, 29, -28.2107, -18.0724, 36.6223, -151.38, -82.921, 45.1443
5.32719, 30, -28.1894, -18.2706, 36.7806, -151.26, -82.7877, 45.0303
5.33619, 30, -28.168, -18.4695, 36.9391, -151.139, -82.6545, 44.9177
5.34582, 30, -28.1466, -18.6686, 37.0975, -151.017, -82.454, 44.7507
5.35119, 30, -28.1254, -18.868, 37.2561, -150.895, -82.3872, 44.6957
5.35932, 30, -28.1041, -19.0685, 37.4153, -150.772, -82.2531, 44.5869
5.36719, 31, -28.0827, -19.2696, 37.575, -150.649, -82.1189, 44.4795
5.37521, 31, -28.0613, -19.4707, 37.7344, -150.525, -81.9848, 44.3739
5.38327, 31, -28.0401, -19.6717, 37.8937, -150.4, -81.8503, 44.2696
5.39119, 31, -28.0188, -19.8732, 38.0538, -150.275, -81.7162, 44.1674
5.39932, 31, -27.9973, -20.0747, 38.2143, -150.149, -81.5816, 44.0663
5.40719, 32, -27.9758, -20.2755, 38.3743, -150.023, -81.4474, 43.9676
5.41541, 32, -27.954, -20.4767, 38.5339, -149.897, -81.3131, 43.8707
5.42558, 32, -27.9319, -20.6785, 38.6938, -149.77, -81.1121, 43.7297
5.43119, 32, -27.9095, -20.8799, 38.854, -149.642, -81.045, 43.684
5.43941, 32, -27.8869, -21.0807, 39.0136, -149.515, -80.9114, 43.5948
5.44817, 33, -27.864, -21.2817, 39.1725, -149.388, -80.7782, 43.5082
5.45523, 33, -27.8409, -21.4826, 39.3314, -149.26, -80.6455, 43.4251
5.46444, 33, -27.8172, -21.6824, 39.4903, -149.132, -80.5132, 43.3444
5.47133, 33, -27.7931, -21.8815, 39.6485, -149.005, -80.3812, 43.2676
5.47931, 33, -27.7684, -22.0808, 39.8058, -148.877, -80.2497, 43.1934
5.48819, 34, -27.7433, -22.2793, 39.9626, -148.75, -80.1185, 43.123
5.49534, 34, -27.7178, -22.4768, 40.1193, -148.622, -79.9878, 43.056
5.5032, 34, -27.6917, -22.6737, 40.2757, -148.494, -79.857, 42.9913
5.51452, 34, -27.6519, -22.9689, 40.5086, -148.303, -79.6612, 42.9017
5.5204, 34, -27.6384, -23.0669, 40.5862, -148.239, -79.5957, 42.8734
5.52723, 34, -27.6109, -23.2624, 40.7414, -148.111, -79.4651, 42.8187
5.53547, 35, -27.5832, -23.458, 40.8965, -147.982, -79.3343, 42.7677
5.54342, 35, -27.5554, -23.6539, 41.0509, -147.853, -79.204, 42.7204
5.55219, 35, -27.5272, -23.8493, 41.2049, -147.724, -79.0737, 42.6765
5.55935, 35, -27.4989, -24.0441, 41.3591, -147.594, -78.9435, 42.6355
5.5673, 35, -27.4701, -24.2389, 41.5133, -147.464, -78.8138, 42.598
5.57584, 36, -27.441, -24.4336, 41.6669, -147.334, -78.6838, 42.5647
5.58427, 36, -27.4115, -24.6272, 41.8198, -147.203, -78.5549, 42.5358
5.59155, 36, -27.3817, -24.8203, 41.9724, -147.072, -78.4258, 42.5111
5.60027, 36, -27.3512, -25.0134, 42.1247, -146.941, -78.2974, 42.4906
5.60726, 36, -27.3199, -25.2061, 42.2761, -146.81, -78.1695, 42.4747
5.61538, 37, -27.2878, -25.3974, 42.4262, -146.68, -78.0419, 42.4633
5.62345, 37, -27.255, -25.5876, 42.5755, -146.55, -77.915, 42.4567
5.63139, 37, -27.2214, -25.7775, 42.7239, -146.42, -77.7883, 42.4538
5.63973, 37, -27.1869, -25.9661, 42.8713, -146.291, -77.6622, 42.454
5.64861, 37, -27.1515, -26.1531, 43.0175, -146.163, -77.5363, 42.4601
5.65561, 38, -27.1152, -26.3387, 43.1624, -146.036, -77.4113, 42.4724
5.66506, 38, -27.0782, -26.5238, 43.3066, -145.908, -77.2867, 42.4897
5.67208, 38, -27.0404, -26.7076, 43.45, -145.781, -77.1625, 42.5127
5.68038, 38, -27.0018, -26.89, 43.5926, -145.654, -77.0388, 42.541
5.68783, 38, -26.9624, -27.0714, 43.7341, -145.527, -76.9154, 42.5753
5.69629, 39, -26.9222, -27.2526, 43.8748, -145.401, -76.7927, 42.6158
5.70385, 39, -26.9019, -27.3428, 44.0146, -145.275, -76.6699, 42.6621
5.71448, 39, -26.8395, -27.6115, 44.1535, -145.149, -76.5475, 42.7138
5.7201, 39, -26.8182, -27.7005, 44.2226, -145.086, -76.4863, 42.7716
5.72716, 39, -26.7752, -27.8783, 44.3599, -144.96, -76.364, 42.8033
5.73627, 40, -26.7089, -28.1437, 44.5637, -144.773, -76.1808, 42.9064
5.74319, 40, -26.6863, -28.2313, 44.6311, -144.71, -76.1197, 42.9439
5.75122, 40, -26.6404, -28.4054, 44.7651, -144.586, -75.9982, 43.0246
5.76064, 40, -26.5697, -28.6646, 44.9638, -144.402, -75.8161, 43.1561
5.76731, 40, -26.5456, -28.7505, 45.0293, -144.341, -75.7558, 43.2038
5.77515, 41, -26.4967, -28.9208, 45.1593, -144.219, -75.6356, 43.3032
5.78474, 41, -26.4213, -29.1731, 45.3522, -144.038, -75.4555, 43.4655
5.79277, 41, -26.3695, -29.3398, 45.479, -143.918, -75.3363, 43.582
5.80154, 41, -26.3165, -29.5053, 45.6045, -143.8, -75.2171, 43.7057
5.80718, 41, -26.2895, -29.5873, 45.6666, -143.741, -75.1578, 43.7703
5.81708, 42, -26.2066, -29.83, 45.8502, -143.566, -74.9808, 43.9749
5.8234, 42, -26.1781, -29.9101, 45.9105, -143.509, -74.9219, 44.0468
5.83121, 42, -26.1202, -30.0688, 46.0295, -143.395, -74.8048, 44.1958
5.84019, 42, -26.0605, -30.2257, 46.1463, -143.282, -74.6882, 44.3518
5.84718, 42, -25.9991, -30.38, 46.261, -143.172, -74.572, 44.5151
5.85714, 43, -25.9361, -30.532, 46.3735, -143.011, -74.3989, 44.7733
5.86418, 43, -25.8714, -30.6816, 46.4837, -142.958, -74.3414, 44.8633
5.87376, 43, -25.8049, -30.9021, 46.645, -142.802, -74.1696, 45.1446
5.87919, 43, -25.7368, -30.9744, 46.6978, -142.751, -74.1125, 45.2423
5.89067, 43, -25.6318, -31.1879, 46.8533, -142.601, -73.9417, 45.5466
5.89642, 43, -25.596, -31.258, 46.9042, -142.551, -73.8852, 45.6519
5.90418, 44, -25.5232, -31.3968, 47.0045, -142.454, -73.7723, 45.8684
5.91119, 44, -25.4486, -31.5334, 47.1024, -142.36, -73.6604, 46.0929
5.91944, 44, -25.3722, -31.668, 47.1978, -142.267, -73.5488, 46.3255
5.92976, 44, -25.2545, -31.8648, 47.3364, -142.133, -73.3826, 46.6898
5.93624, 44, -25.2143, -31.9291, 47.3815, -142.089, -73.3277, 46.8152
5.94325, 45, -25.1325, -32.0556, 47.4697, -142.005, -73.2181, 47.0726
5.95118, 45, -25.0488, -32.1794, 47.5555, -141.923, -73.1088, 47.3386
5.9592, 45, -24.9628, -32.3003, 47.6385, -141.844, -73.0004, 47.6126
5.96819, 45, -24.8748, -32.4181, 47.7184, -141.768, -72.892, 47.8949
5.97599, 45, -24.7844, -32.5328, 47.7954, -141.694, -72.7844, 48.1855
5.98417, 46, -24.6916, -32.6441, 47.8693, -141.624, -72.6774, 48.4849
5.99331, 46, -24.5965, -32.752, 47.9404, -141.558, -72.5708, 48.7923
5.99939, 46, -24.4989, -32.8565, 48.0084, -141.494, -72.4654, 49.108
6.00888, 46, -24.399, -32.9573, 48.0733, -141.436, -72.3607, 49.4322
6.01518, 46, -24.2968, -33.0545, 48.1348, -141.38, -72.2568, 49.7649
6.0242, 47, -24.1923, -33.1479, 48.1928, -141.329, -72.1545, 50.1052
6.03141, 47, -24.0855, -33.2373, 48.2473, -141.282, -72.053, 50.454
6.03925, 47, -23.9761, -33.3228, 48.2982, -141.238, -71.9527, 50.8112
6.04817, 47, -23.864, -33.4041, 48.3454, -141.199, -71.8537, 51.1767
6.05527, 47, -23.7493, -33.4814, 48.3887, -141.166, -71.7557, 51.5511
6.06331, 48, -23.6317, -33.5543, 48.4281, -141.136, -71.659, 51.9342
6.07497, 48, -23.5115, -33.6229, 48.4633, -141.111, -71.564, 52.5253
6.07924, 48, -23.3887, -33.6868, 48.4944, -141.09, -71.4705, 52.7272
6.08797, 48, -23.2634, -33.7459, 48.5214, -141.075, -71.3785, 53.1382
6.09553, 48, -23.1355, -33.7999, 48.5441, -141.065, -71.2888, 53.5578
6.10425, 49, -23.0046, -33.8488, 48.5623, -141.06, -71.2009, 53.9868
6.11204, 49, -22.8708, -33.8925, 48.5761, -141.059, -71.1146, 54.4232
6.11936, 49, -22.7341, -33.9306, 48.5851, -141.063, -71.0309, 54.8674
6.12812, 49, -22.5944, -33.963, 48.5895, -141.074, -70.949, 55.3194
6.1356, 49, -22.4519, -33.9898, 48.5896, -141.092, -70.8697, 55.7783
6.14411, 49, -22.3066, -34.0106, 48.5848, -141.115, -70.7926, 56.2451
6.15638, 50, -22.0837, -34.03, 48.5679, -141.161, -70.6826, 56.9581
6.15968, 50, -22.008, -34.0334, 48.5597, -141.18, -70.6474, 57.1999
6.16843, 50, -21.8545, -34.0357, 48.5395, -141.221, -70.5796, 57.689
6.17576, 50, -21.698, -34.032, 48.5136, -141.269, -70.5145, 58.1856
6.18434, 50, -21.5384, -34.0215, 48.4822, -141.323, -70.4538, 58.689
6.19278, 51, -21.376, -34.0042, 48.4455, -141.384, -70.3959, 59.1986
6.20065, 51, -21.2108, -33.98, 48.4032, -141.45, -70.342, 59.7147
6.20862, 51, -21.1272, -33.9652, 48.3799, -141.486, -70.3167, 60.2364
6.22004, 51, -20.8728, -33.9103, 48.2728, -141.644, -70.2236, 61.0302
6.22396, 51, -20.7867, -33.8883, 48.2728, -141.644, -70.2236, 61.2974
6.23305, 52, -20.6125, -33.8385, 48.2105, -141.733, -70.1659, 61.8371
6.23918, 52, -20.4356, -33.7808, 48.1422, -141.828, -70.1489, 62.1095
6.24871, 52, -20.1649, -33.6792, 48.0285, -141.982, -70.1045, 62.9365
6.25641, 52, -19.9811, -33.6012, 47.9448, -142.093, -70.0811, 63.4951
6.26323, 52, -19.8883, -33.5591, 47.9007, -142.151, -70.0714, 63.7769
6.27261, 53, -19.6065, -33.42, 47.7589, -142.334, -70.0507, 64.6307
6.27917, 53, -19.5116, -33.3694, 47.7085, -142.398, -70.0465, 64.918
6.28724, 53, -19.3202, -33.2622, 47.6034, -142.531, -70.042, 65.4952
6.29751, 53, -19.0296, -33.0861, 47.4348, -142.74, -70.0444, 66.3674
6.30566, 53, -18.8338, -32.9583, 47.315, -142.886, -70.0537, 66.9529
6.31118, 54, -18.7352, -32.8913, 47.2529, -142.96, -70.0606, 67.246
6.32309, 54, -18.4368, -32.6778, 47.0579, -143.191, -70.0911, 68.1267
6.32913, 54, -18.2354, -32.5253, 46.921, -143.351, -70.1199, 68.7156
6.33737, 54, -18.0326, -32.3645, 46.7785, -143.515, -70.1548, 69.3061
6.34324, 54, -17.9307, -32.2808, 46.7051, -143.599, -70.1745, 69.602
6.353, 55, -17.7263, -32.1065, 46.5535, -143.769, -70.2455, 70.4927
6.36421, 55, -17.4174, -31.8274, 46.3142, -144.034, -70.3026, 71.0919
6.36813, 55, -17.3138, -31.7298, 46.2312, -144.125, -70.3338, 71.393
6.37768, 55, -17.0003, -31.422, 45.9711, -144.405, -70.4418, 72.3031
6.38324, 55, -16.8949, -31.314, 45.8805, -144.501, -70.4818, 72.609
6.39118, 55, -16.6828, -31.0899, 45.6941, -144.697, -70.5694, 73.2246
6.39931, 56, -16.4693, -30.8557, 45.5011, -144.897, -70.6659, 73.8447
6.40815, 56, -16.2545, -30.6105, 45.3004, -145.101, -70.7715, 74.4678
6.41616, 56, -16.0393, -30.3542, 45.092, -145.31, -70.8869, 75.094
6.42437, 56, -15.8244, -30.0877, 44.8778, -145.522, -71.0114, 75.723
6.43249, 57, -15.609, -29.8102, 44.657, -145.737, -71.1456, 76.3536
6.44025, 57, -15.3923, -29.5224, 44.4288, -145.955, -71.2891, 76.9848
6.44817, 57, -15.1747, -29.2244, 44.1949, -146.175, -71.4425, 77.6173
6.45616, 57, -14.9564, -28.9164, 43.9546, -146.398, -71.6054, 78.2505
6.46425, 57, -14.7383, -28.6002, 43.7084, -146.621, -71.7779, 78.8816
6.47249, 58, -14.5208, -28.2755, 43.4581, -146.846, -71.9593, 79.5109
6.48105, 58, -14.3043, -27.9435, 43.2032, -147.07, -72.1486, 80.1367
6.48817, 58, -14.089, -27.6036, 42.9449, -147.292, -72.3453, 80.757
6.49516, 58, -13.8754, -27.2568, 42.6839, -147.513, -72.5492, 81.3701
6.50417, 58, -13.6632, -26.903, 42.4195, -147.732, -72.7598, 81.9768
6.51123, 58, -13.4522, -26.543, 42.1529, -147.949, -72.9771, 82.5773
6.51917, 59, -13.2427, -26.1757, 41.8825, -148.163, -73.2016, 83.1715
6.52718, 59, -13.0351, -25.8017, 41.6085, -148.376, -73.4337, 83.7606
6.53526, 59, -12.8291, -25.4208, 41.3308, -148.587, -73.6741, 84.3461
6.5433, 59, -12.6243, -25.0333, 41.049, -148.797, -73.9229, 84.9286
6.55146, 59, -12.4203, -24.6378, 40.7633, -149.005, -74.1808, 85.5073
6.56417, 60, -12.1163, -24.0301, 40.3258, -149.314, -74.5847, 86.3696
6.56726, 60, -12.0157, -23.824, 40.1784, -149.416, -74.7238, 86.6555
6.5755, 60, -11.8155, -23.4072, 39.8805, -149.619, -75.0086, 87.2251
6.58424, 60, -11.6169, -22.9839, 39.5804, -149.819, -75.3017, 87.7894
6.5912, 60, -11.4205, -22.5555, 39.2781, -150.016, -75.602, 88.3486
6.59927, 61, -11.2266, -22.1232, 38.9747, -150.209, -75.9087, 88.9015
6.60804, 61, -11.035, -21.6869, 38.6705, -150.398, -76.2205, 89.4463
6.6162, 61, -10.8457, -21.2472, 38.3659, -150.581, -76.5365, 89.9811
6.62428, 61, -10.6587, -20.8044, 38.0619, -150.759, -76.8566, 90.5063
6.63232, 61, -10.474, -20.3581, 37.7579, -150.932, -77.1804, 91.0222
6.63975, 62, -10.2918, -19.9085, 37.4544, -151.1, -77.5082, 91.5289
6.64825, 62, -10.1126, -19.4559, 37.1504, -151.263, -77.8406, 92.0269
6.65564, 62, -9.93606, -19.0012, 36.8464, -151.421, -78.1779, 92.5171
6.66449, 62, -9.76215, -18.5438, 36.541, -151.575, -78.5207, 93.0004
6.67261, 62, -9.59074, -18.0844, 36.2353, -151.724, -78.8686, 93.4762
6.68052, 63, -9.42144, -17.6235, 35.9294, -151.869, -79.2213, 93.9443
6.6886, 63, -9.25427, -17.1608, 35.6244, -152.009, -79.5783, 94.4029
6.69573, 63, -9.08939, -16.6964, 35.3204, -152.144, -79.9386, 94.8521
6.70478, 63, -8.92711, -16.2302, 35.0176, -152.273, -80.3019, 95.2915
6.71217, 63, -8.76739, -15.762, 34.7164, -152.397, -80.6676, 95.72
6.71973, 63, -8.68851, -15.5273, 34.5661, -152.457, -80.8515, 95.9307
6.72929, 64, -8.45565, -14.821, 34.119, -152.628, -81.4064, 96.5464
6.73625, 64, -8.30352, -14.3489, 33.822, -152.736, -81.7799, 96.9434
6.74326, 64, -8.22835, -14.1128, 33.674, -152.788, -81.9678, 97.1383
6.75265, 64, -8.0064, -13.4047, 33.2314, -152.937, -82.5359, 97.7068
6.76134, 64, -7.86146, -12.9333, 32.9383, -153.029, -82.9182, 98.0717
6.7693, 65, -7.71919, -12.4635, 32.6473, -153.116, -83.3022, 98.4247
6.77516, 65, -7.64901, -12.229, 32.5028, -153.157, -83.4947, 98.5964
6.78544, 65, -7.4433, -11.5275, 32.0747, -153.272, -84.0731, 99.0909
6.79115, 65, -7.37614, -11.294, 31.9336, -153.308, -84.2659, 99.2489
6.80109, 65, -7.17909, -10.5961, 31.5164, -153.405, -84.8441, 99.7016
6.80729, 66, -7.11472, -10.3647, 31.3792, -153.435, -85.0363, 99.8451
6.81517, 66, -6.9875, -9.90425, 31.1071, -153.49, -85.4203, 100.12
6.82528, 66, -6.80077, -9.22255, 30.7074, -153.562, -85.9946, 100.504
6.83115, 66, -6.73964, -8.99817, 30.5759, -153.583, -86.185, 100.624
6.84067, 66, -6.61904, -8.55417, 30.3164, -153.621, -86.5641, 100.851
6.84982, 67, -6.44289, -7.89996, 29.9377, -153.667, -87.1253, 101.159
6.85538, 67, -6.38565, -7.68511, 29.8144, -153.68, -87.3102, 101.252
6.86316, 67, -6.27343, -7.26031, 29.5734, -153.7, -87.6755, 101.427
6.87115, 67, -6.16385, -6.84105, 29.3395, -153.715, -88.035, 101.583
6.87932, 67, -6.05677, -6.42838, 29.1118, -153.725, -88.3887, 101.722
6.88718, 68, -5.9521, -6.02209, 28.8908, -153.73, -88.7376, 101.844
6.89517, 68, -5.84928, -5.62212, 28.6751, -153.731, -89.0827, 101.948
6.90315, 68, -5.74824, -5.2275, 28.463, -153.727, -89.4251, 102.035
6.91114, 68, -5.6489, -4.83859, 28.2548, -153.718, -89.7662, 102.105
6.91921, 68, -5.55113, -4.4547, 28.0499, -153.705, -90.1067, 102.156
6.92734, 69, -5.45506, -4.0752, 27.8476, -153.688, -90.4464, 102.189
6.93562, 69, -5.36073, -3.69889, 27.649, -153.666, -90.786, 102.204
6.94315, 69, -5.26804, -3.32629, 27.4548, -153.64, -91.125, 102.202
6.954, 69, -5.13253, -2.77421, 27.1693, -153.592, -91.6324, 102.158
6.95931, 69, -5.08817, -2.59181, 27.0759, -153.574, -91.8009, 102.133
6.97214, 70, -4.9572, -2.0494, 26.8023, -153.516, -92.3048, 102.024
6.97876, 70, -4.87155, -1.69311, 26.6241, -153.472, -92.6387, 101.924
6.98421, 70, -4.82918, -1.51699, 26.5363, -153.448, -92.8051, 101.865
6.99214, 70, -4.74515, -1.16892, 26.364, -153.399, -93.1364, 101.732
6.99925, 70, -4.66225, -0.825928, 26.1963, -153.347, -93.4653, 101.576
7.00733, 70, -4.58037, -0.489476, 26.0324, -153.291, -93.7914, 101.399
7.01522, 71, -4.49952, -0.159272, 25.8725, -153.233, -94.1144, 101.201
7.02315, 71, -4.41973, 0.163884, 25.7178, -153.172, -94.4339, 100.982
7.03124, 71, -4.34084, 0.480606, 25.5687, -153.108, -94.7493, 100.743
7.0392, 71, -4.26279, 0.791256, 25.4244, -153.043, -95.061, 100.483
7.0473, 71, -4.18558, 1.09481, 25.2848, -152.976, -95.3687, 100.204
7.05539, 72, -4.10891, 1.39179, 25.1496, -152.907, -95.6728, 99.9043
7.06412, 72, -4.03253, 1.68162, 25.0183, -152.836, -95.9737, 99.5846
7.07131, 72, -3.95642, 1.96523, 24.8904, -152.764, -96.2721, 99.2444
7.07958, 72, -3.88042, 2.24296, 24.7658, -152.692, -96.5677, 98.8837
7.08839, 72, -3.80448, 2.51405, 24.6442, -152.619, -96.8611, 98.5015
7.09519, 73, -3.72863, 2.77949, 24.5256, -152.545, -97.1519, 98.0972
7.10531, 73, -3.65259, 3.03869, 24.4105, -152.471, -97.4402, 97.671
7.11216, 73, -3.57624, 3.2911, 24.299, -152.398, -97.7258, 97.222
7.11928, 73, -3.49954, 3.53746, 24.1912, -152.325, -98.0082, 96.7522
7.12735, 73, -3.42251, 3.77681, 24.0875, -152.253, -98.2869, 96.2619
7.13577, 74, -3.34479, 4.00773, 23.9878, -152.182, -98.5616, 95.7523
7.14421, 74, -3.26638, 4.23057, 23.8919, -152.112, -98.831, 95.2256
7.15179, 74, -3.18738, 4.44501, 23.8002, -152.045, -99.0948, 94.6842
7.16448, 74, -3.06765, 4.74854, 23.6704, -151.947, -99.4781, 93.8488
7.16761, 74, -3.02736, 4.84498, 23.6293, -151.915, -99.6024, 93.5645
7.17624, 75, -2.94611, 5.03091, 23.5504, -151.854, -99.8445, 92.9889
7.18447, 75, -2.86388, 5.20675, 23.4754, -151.797, -100.078, 92.4045
7.19311, 75, -2.78065, 5.37162, 23.4043, -151.741, -100.304, 91.8124
7.20029, 75, -2.69652, 5.52583, 23.337, -151.689, -100.52, 91.2121
7.2078, 75, -2.6115, 5.66937, 23.2735, -151.641, -100.726, 90.6044
7.2163, 76, -2.52548, 5.80171, 23.2142, -151.595, -100.924, 89.9893
7.22318, 76, -2.48211, 5.86362, 23.1862, -151.574, -101.019, 89.6786
7.23431, 76, -2.35066, 6.03187, 23.1087, -151.517, -101.292, 88.7326
7.24107, 76, -2.2621, 6.12888, 23.0625, -151.483, -101.461, 88.0919
7.24838, 76, -2.17268, 6.21334, 23.0211, -151.453, -101.62, 87.4452
7.25538, 77, -2.12765, 6.25067, 23.0023, -151.439, -101.696, 87.1198
7.26333, 77, -2.03697, 6.3155, 22.9686, -151.415, -101.837, 86.4666
7.27119, 77, -1.94538, 6.36706, 22.9404, -151.396, -101.966, 85.814
7.28135, 77, -1.80627, 6.41807, 22.9089, -151.374, -102.132, 84.84
7.28896, 77, -1.71248, 6.43438, 22.8952, -151.364, -102.224, 84.195
7.29511, 77, -1.66527, 6.43715, 22.8905, -151.36, -102.265, 83.8742
7.30553, 78, -1.52253, 6.42295, 22.8848, -151.354, -102.364, 82.919
7.31117, 78, -1.47464, 6.41055, 22.8857, -151.354, -102.389, 82.6022
7.32147, 78, -1.3304, 6.35018, 22.8972, -151.356, -102.441, 81.6583
7.32713, 78, -1.28217, 6.32206, 22.9041, -151.359, -102.45, 81.3462
7.33697, 78, -1.1371, 6.21344, 22.9345, -151.373, -102.455, 80.418
7.34906, 79, -1.04023, 6.12086, 22.9806, -151.393, -102.42, 79.5046
7.35215, 79, -0.991678, 6.06853, 22.9806, -151.393, -102.42, 79.5046
7.36015, 79, -0.894625, 5.95174, 23.0205, -151.411, -102.375, 78.9073
7.36715, 79, -0.797687, 5.81868, 23.068, -151.431, -102.313, 78.3191
7.37514, 79, -0.700716, 5.66896, 23.1231, -151.454, -102.232, 77.7405
7.38321, 80, -0.603651, 5.50279, 23.1856, -151.479, -102.133, 77.1727
7.39116, 80, -0.506569, 5.32004, 23.2558, -151.506, -102.016, 76.6157
7.39913, 80, -0.409528, 5.12078, 23.334, -151.534, -101.88, 76.0685
7.41121, 80, -0.264212, 4.78946, 23.4667, -151.58, -101.641, 75.2656
7.41635, 80, -0.215844, 4.66979, 23.5151, -151.596, -101.552, 75.0025
7.42717, 81, -0.0709287, 4.28501, 23.6736, -151.647, -101.256, 74.2288
7.43116, 81, -0.022709, 4.14841, 23.7309, -151.664, -101.148, 73.9752
7.43927, 81, 0.0735339, 3.86226, 23.8524, -151.699, -100.917, 73.4751
7.44719, 81, 0.169591, 3.55978, 23.9835, -151.735, -100.666, 72.9845
7.45513, 81, 0.265468, 3.23978, 24.1244, -151.773, -100.397, 72.5033
7.46326, 82, 0.361079, 2.90263, 24.2753, -151.81, -100.108, 72.0321
7.47162, 82, 0.456488, 2.54893, 24.4355, -151.847, -99.8001, 71.57
7.47913, 82, 0.551672, 2.17926, 24.6051, -151.885, -99.4732, 71.1177
7.48722, 82, 0.646619, 1.7935, 24.7843, -151.922, -99.1285, 70.6749
7.49513, 82, 0.741412, 1.39134, 24.9729, -151.959, -98.7661, 70.2424
7.5031, 83, 0.836158, 0.972956, 25.1706, -151.994, -98.3866, 69.8205
7.51733, 83, 0.978133, 0.318313, 25.4856, -152.047, -97.7873, 69.2064
7.5201, 83, 1.02551, 0.0928123, 25.5958, -152.064, -97.5797, 69.0071
7.52749, 83, 1.12032, -0.369314, 25.8225, -152.097, -97.153, 68.6159
7.53616, 83, 1.21521, -0.845521, 26.0581, -152.128, -96.7109, 68.2344
7.54327, 83, 1.31024, -1.33593, 26.3036, -152.158, -96.2539, 67.8627
7.55123, 84, 1.40556, -1.83997, 26.5588, -152.187, -95.7813, 67.4996
7.55925, 84, 1.50104, -2.35708, 26.8245, -152.215, -95.2938, 67.1441
7.56765, 84, 1.59688, -2.88782, 27.1004, -152.24, -94.7905, 66.7961
7.57542, 84, 1.69306, -3.43193, 27.3866, -152.264, -94.2721, 66.455
7.58324, 84, 1.78967, -3.98952, 27.6835, -152.287, -93.7387, 66.1207
7.59293, 85, 1.88653, -4.55975, 27.9902, -152.308, -93.1903, 65.794
7.60195, 85, 1.98374, -5.14122, 28.3072, -152.327, -92.6268, 65.4751
7.60807, 85, 2.08131, -5.73333, 28.6333, -152.343, -92.0513, 65.164
7.61518, 85, 2.1793, -6.33459, 28.9686, -152.358, -91.4656, 64.8612
7.62429, 85, 2.27792, -6.94354, 29.3122, -152.369, -90.8694, 64.568
7.63238, 86, 2.3772, -7.55992, 29.6638, -152.378, -90.2634, 64.2846
7.63937, 86, 2.47746, -8.18257, 30.0224, -152.383, -89.6485, 64.0113
7.64753, 86, 2.57873, -8.8115, 30.3875, -152.386, -89.0256, 63.7488
7.65552, 86, 2.68067, -9.44568, 30.7579, -152.387, -88.3982, 63.498
7.66354, 86, 2.78378, -10.084, 31.1337, -152.385, -87.7665, 63.2586
7.67213, 87, 2.88796, -10.7263, 31.5152, -152.378, -87.129, 63.031
7.6823, 87, 2.99276, -11.3716, 31.9012, -152.368, -86.4862, 62.8155
7.68772, 87, 3.09873, -12.0198, 32.2919, -152.355, -85.8385, 62.6123
7.69687, 87, 3.2055, -12.6704, 32.6872, -152.337, -85.1866, 62.4221
7.70466, 87, 3.31298, -13.3237, 33.0877, -152.316, -84.5311, 62.2443
7.71224, 88, 3.42124, -13.9805, 33.4937, -152.29, -83.8695, 62.0794
7.71912, 88, 3.47561, -14.31, 33.6985, -152.276, -83.5365, 62.0019
7.72808, 88, 3.58469, -15.3018, 34.3211, -152.228, -82.5294, 61.7893
7.73592, 88, 3.69429, -15.633, 34.5313, -152.209, -82.1907, 61.6652
7.74317, 88, 3.80423, -16.2959, 34.9555, -152.168, -81.5107, 61.6089
7.75239, 89, 3.96976, -17.2888, 35.5996, -152.098, -80.486, 61.4639
7.75913, 89, 4.025, -17.6188, 35.8156, -152.072, -80.1435, 61.4244
7.76837, 89, 4.19124, -18.6044, 36.4657, -151.986, -79.1134, 61.3332
7.77909, 89, 4.30228, -19.2566, 36.8995, -151.923, -78.4272, 61.2969
7.78327, 89, 4.35789, -19.5808, 37.1159, -151.889, -78.0859, 61.2862
7.79133, 90, 4.46904, -20.2244, 37.5476, -151.817, -77.4073, 61.2788
7.79913, 90, 4.5806, -20.8619, 37.9769, -151.741, -76.7327, 61.2948
7.8087, 90, 4.74909, -21.8071, 38.617, -151.615, -75.7285, 61.3638
7.81518, 90, 4.80529, -22.1193, 38.8292, -151.571, -75.3961, 61.3986
7.82479, 90, 4.97394, -23.0476, 39.4626, -151.429, -74.4078, 61.5412
7.83747, 91, 5.14219, -23.9659, 40.0934, -151.274, -73.425, 61.743
7.83977, 91, 5.14219, -23.9659, 40.0934, -151.274, -73.425, 61.743
7.84726, 91, 5.25389, -24.5716, 40.5138, -151.162, -72.7698, 61.9127
7.85617, 91, 5.36475, -25.1719, 40.9347, -151.043, -72.1136, 62.111
7.86313, 91, 5.47469, -25.7665, 41.3555, -150.918, -71.455, 62.3392
7.8712, 91, 5.58398, -26.3542, 41.7759, -150.786, -70.7968, 62.5979
7.88172, 92, 5.74774, -27.2232, 42.4041, -150.577, -69.8112, 63.0453
7.88813, 92, 5.80253, -27.5092, 42.612, -150.504, -69.4836, 63.2101
7.89616, 92, 5.9126, -28.0751, 43.0242, -150.355, -68.8305, 63.5627
7.90313, 92, 6.02326, -28.6323, 43.4314, -150.201, -68.1808, 63.9471
7.91388, 92, 6.19141, -29.4485, 44.0308, -149.964, -67.2176, 64.582
7.92011, 93, 6.24818, -29.7152, 44.2274, -149.884, -66.8995, 64.8097
7.92828, 93, 6.36316, -30.2409, 44.6156, -149.721, -66.2665, 65.289
7.93621, 93, 6.48038, -30.7566, 44.998, -149.557, -65.6372, 65.7998
7.9442, 93, 6.59979, -31.2643, 45.375, -149.393, -65.0105, 66.3452
7.95111, 93, 6.72138, -31.766, 45.7474, -149.228, -64.3846, 66.9275
7.95921, 93, 6.84533, -32.2625, 46.1166, -149.061, -63.7581, 67.552
7.96717, 94, 6.97153, -32.7541, 46.483, -148.895, -63.1265, 68.2228
7.97514, 94, 7.09974, -33.2401, 46.848, -148.727, -62.4883, 68.9464
7.98319, 94, 7.23003, -33.7186, 47.2109, -148.561, -61.8439, 69.7225
7.99112, 94, 7.36337, -34.1897, 47.5707, -148.399, -61.1932, 70.5505
7.99916, 95, 7.50069, -34.6527, 47.9239, -148.242, -60.5408, 71.4331
8.00723, 95, 7.64305, -35.1053, 48.269, -148.094, -59.891, 72.3622
8.01514, 95, 7.79135, -35.5469, 48.6028, -147.958, -59.2465, 73.3318
8.02328, 95, 7.94607, -35.975, 48.9243, -147.836, -58.6092, 74.341
8.03112, 95, 8.10764, -36.3854, 49.2306, -147.731, -57.9803, 75.3838
8.03943, 95, 8.27602, -36.7758, 49.5215, -147.645, -57.3619, 76.46
8.04723, 96, 8.4512, -37.145, 49.7953, -147.577, -56.7583, 77.5657
8.05521, 96, 8.63233, -37.491, 50.0524, -147.531, -56.1686, 78.7004
8.0633, 96, 8.81858, -37.8121, 50.2922, -147.504, -55.594, 79.8568
8.07122, 96, 9.00955, -38.1074, 50.5126, -147.498, -55.0369, 81.0298
8.07957, 96, 9.20388, -38.3779, 50.7135, -147.513, -54.4999, 82.214
8.08734, 97, 9.39975, -38.623, 50.895, -147.55, -53.9857, 83.4082
8.09513, 97, 9.59603, -38.8427, 51.056, -147.608, -53.4965, 84.6068
8.10316, 97, 9.79158, -39.038, 51.1966, -147.686, -53.0339, 85.7994
8.11121, 97, 9.98563, -39.2084, 51.3176, -147.781, -52.6003, 86.9787
8.11955, 97, 10.1772, -39.3529, 51.419, -147.892, -52.1965, 88.1378
8.1273, 97, 10.3651, -39.4721, 51.5013, -148.015, -51.8234, 89.2705
8.13532, 97, 10.5493, -39.5661, 51.5652, -148.148, -51.4812, 90.3687
8.14346, 98, 10.7311, -39.6359, 51.6113, -148.292, -51.169, 91.4343
8.15138, 98, 10.9111, -39.683, 51.6399, -148.445, -50.8849, 92.475
8.1595, 98, 11.0895, -39.7069, 51.6513, -148.609, -50.6251, 93.5047
8.16798, 98, 11.2659, -39.7075, 51.646, -148.786, -50.3863, 94.5373
8.17626, 98, 11.441, -39.6847, 51.6234, -148.976, -50.1662, 95.5843
8.18398, 98, 11.6164, -39.638, 51.5831, -149.179, -49.9651, 96.6525
8.19228, 99, 11.7916, -39.568, 51.525, -149.395, -49.7844, 97.7417
8.19966, 99, 11.9653, -39.4755, 51.4485, -149.623, -49.6269, 98.8477
8.20856, 99, 12.1362, -39.3602, 51.3536, -149.86, -49.4957, 99.9587
8.21592, 99, 12.2204, -39.2942, 51.2993, -149.981, -49.3938, 101.066
8.22412, 99, 12.4655, -39.0629, 51.1101, -150.346, -49.323, 102.156
8.23268, 99, 12.6201, -38.8809, 50.9637, -150.589, -49.2828, 103.221
8.23908, 100, 12.6942, -38.781, 50.8847, -150.71, -49.2746, 103.742
8.24726, 100, 12.8359, -38.5627, 50.7145, -150.947, -49.2816, 104.763
8.25631, 100, 13.0317, -38.1918, 50.4273, -151.293, -49.3521, 106.24
8.26311, 100, 13.0925, -38.057, 50.3233, -151.405, -49.391, 106.72
8.27322, 100, 13.263, -37.6211, 49.9854, -151.734, -49.5552, 108.123
8.2791, 100, 13.3157, -37.4647, 49.8634, -151.84, -49.6254, 108.58
8.28737, 101, 13.415, -37.1341, 49.6071, -152.047, -49.7884, 109.478
8.29512, 101, 13.5063, -36.7794, 49.3339, -152.245, -49.9814, 110.353
8.3046, 101, 13.6285, -36.1992, 48.892, -152.527, -50.3265, 111.622
8.31371, 101, 13.6999, -35.7809, 48.5753, -152.703, -50.594, 112.438
8.32067, 101, 13.7631, -35.3395, 48.2412, -152.869, -50.8925, 113.232
8.34081, 102, 13.8632, -34.3891, 47.521, -153.235, -51.7798, 115.12
8.34228, 102, 13.8824, -34.1372, 47.3302, -153.235, -51.7798, 115.12
8.34356, 102, 13.8824, -34.1372, 47.3302, -153.235, -51.7798, 115.12
8.35119, 102, 13.9138, -33.6152, 46.9366, -153.36, -52.1915, 115.834
8.36016, 102, 13.9358, -33.0698, 46.5275, -153.471, -52.6357, 116.522
8.3681, 102, 13.9492, -32.5028, 46.1046, -153.569, -53.111, 117.184
8.37615, 102, 13.9547, -31.9145, 45.6679, -153.653, -53.6144, 117.821
8.3831, 103, 13.953, -31.3061, 45.2177, -153.723, -54.1439, 118.431
8.39111, 103, 13.9446, -30.6794, 44.7557, -153.781, -54.6971, 119.014
8.40012, 103, 13.9302, -30.0366, 44.283, -153.825, -55.2708, 119.573
8.40815, 103, 13.9101, -29.3789, 43.8009, -153.856, -55.8628, 120.106
8.41612, 103, 13.8848, -28.7074, 43.3112, -153.876, -56.4717, 120.613
8.42409, 104, 13.855, -28.0242, 42.8154, -153.886, -57.0949, 121.095
8.43215, 104, 13.8212, -27.3312, 42.3149, -153.886, -57.7306, 121.553
8.44016, 104, 13.7834, -26.6298, 41.8107, -153.874, -58.3807, 121.989
8.4481, 104, 13.7421, -25.9214, 41.3037, -153.854, -59.0444, 122.404
8.45619, 104, 13.6983, -25.2086, 40.7951, -153.826, -59.72, 122.802
8.4641, 104, 13.6527, -24.493, 40.2857, -153.789, -60.4046, 123.185
8.4721, 104, 13.6053, -23.7744, 39.7759, -153.745, -61.0954, 123.555
8.4802, 104, 13.5562, -23.0534, 39.2668, -153.696, -61.7921, 123.917
8.4881, 104, 13.5059, -22.3311, 38.7586, -153.642, -62.4928, 124.273
8.49518, 104, 13.4548, -21.6078, 38.252, -153.582, -63.1957, 124.625
8.50311, 104, 13.4031, -20.8845, 37.7466, -153.519, -63.8998, 124.975
8.5111, 104, 13.3509, -20.1615, 37.2427, -153.451, -64.6037, 125.324
8.52011, 104, 13.2986, -19.4382, 36.7408, -153.379, -65.3093, 125.67
8.52729, 104, 13.246, -18.7145, 36.241, -153.303, -66.0164, 126.016
8.53511, 104, 13.1936, -17.9908, 35.7433, -153.223, -66.7242, 126.361
8.54412, 104, 13.1415, -17.2667, 35.2481, -153.139, -67.4326, 126.706
8.5514, 104, 13.0896, -16.5422, 34.7547, -153.051, -68.14, 127.05
8.5592, 104, 13.0381, -15.8178, 34.2633, -152.96, -68.8488, 127.394
8.56733, 104, 12.987, -15.0932, 33.7741, -152.864, -69.5595, 127.737
8.5752, 104, 12.936, -14.3682, 33.2873, -152.764, -70.2708, 128.08
8.58321, 104, 12.8854, -13.6431, 32.8033, -152.661, -70.9813, 128.424
8.59128, 104, 12.8352, -12.9176, 32.3219, -152.554, -71.6916, 128.768
8.59911, 104, 12.7853, -12.192, 31.843, -152.443, -72.4039, 129.112
8.60727, 104, 12.7357, -11.467, 31.3667, -152.328, -73.1166, 129.456
8.6152, 104, 12.6867, -10.7419, 30.8928, -152.21, -73.8296, 129.802
8.62317, 104, 12.6379, -10.0164, 30.4219, -152.087, -74.5427, 130.147
8.6313, 104, 12.5894, -9.29081, 29.9539, -151.96, -75.2556, 130.494
8.63933, 104, 12.5414, -8.56484, 29.4891, -151.829, -75.9698, 130.842
8.64744, 104, 12.494, -7.83856, 29.0276, -151.695, -76.6845, 131.191
8.65627, 104, 12.4469, -7.11292, 28.5693, -151.556, -77.4001, 131.54
8.6635, 104, 12.4006, -6.38752, 28.1142, -151.412, -78.1155, 131.892
8.67258, 104, 12.3548, -5.66284, 27.6627, -151.265, -78.8291, 132.244
8.67957, 104, 12.3094, -4.93871, 27.2148, -151.114, -79.5441, 132.597
8.68775, 104, 12.265, -4.21568, 26.771, -150.958, -80.2599, 132.952
8.69627, 104, 12.2217, -3.49542, 26.3324, -150.799, -80.9746, 133.307
8.70367, 104, 12.1794, -2.77993, 25.8986, -150.635, -81.6859, 133.664
8.71225, 104, 12.1384, -2.07035, 25.4705, -150.468, -82.3934, 134.021
8.71966, 104, 12.1184, -1.71824, 25.2591, -150.383, -82.7459, 134.376
8.72811, 104, 12.0598, -0.674306, 24.6378, -150.125, -83.7938, 134.73
8.73515, 104, 12.0408, -0.331132, 24.4353, -150.038, -84.1385, 134.906
8.74421, 104, 11.9852, 0.68226, 23.8437, -149.775, -85.1539, 135.427
8.75109, 104, 11.9672, 1.01418, 23.6526, -149.687, -85.4853, 135.599
8.75914, 104, 11.9321, 1.66811, 23.2797, -149.511, -86.1373, 135.937
8.76899, 104, 11.8817, 2.62255, 22.7438, -149.247, -87.0878, 136.434
8.77635, 104, 11.8492, 3.23865, 22.4021, -149.072, -87.7011, 136.757
8.78313, 104, 11.8335, 3.54058, 22.2365, -148.985, -88.0018, 136.916
8.79261, 104, 11.7885, 4.4211, 21.7583, -148.725, -88.8775, 137.383
8.7991, 104, 11.774, 4.70636, 21.6053, -148.639, -89.1607, 137.535
8.8093, 104, 11.7329, 5.5366, 21.1629, -148.385, -89.9864, 137.981
8.8151, 104, 11.7196, 5.80469, 21.0214, -148.3, -90.2539, 138.126
8.82467, 104, 11.6818, 6.58368, 20.6148, -148.052, -91.0312, 138.55
8.83272, 104, 11.6581, 7.0818, 20.3583, -147.889, -91.5288, 138.824
8.84077, 104, 11.6356, 7.56295, 20.1134, -147.729, -92.009, 139.09
8.84941, 104, 11.6247, 7.79749, 19.9949, -147.65, -92.2428, 139.22
8.85518, 104, 11.6039, 8.25403, 19.7659, -147.494, -92.6981, 139.475
8.86413, 104, 11.5842, 8.6937, 19.5484, -147.342, -93.1366, 139.722
8.87109, 104, 11.5656, 9.11552, 19.3413, -147.193, -93.5587, 139.962
8.88014, 104, 11.5482, 9.52035, 19.1442, -147.048, -93.9635, 140.192
8.88815, 104, 11.5319, 9.90725, 18.9578, -146.908, -94.3515, 140.414
8.89609, 104, 11.5166, 10.276, 18.7823, -146.772, -94.7212, 140.627
8.9041, 104, 11.5023, 10.6253, 18.6169, -146.641, -95.0728, 140.83
8.91215, 104, 11.4892, 10.9555, 18.462, -146.516, -95.4049, 141.023
8.9201, 104, 11.4769, 11.2658, 18.3182, -146.397, -95.7171, 141.205
8.92809, 104, 11.4657, 11.5553, 18.185, -146.285, -96.0089, 141.376
8.93614, 104, 11.4556, 11.8243, 18.0621, -146.18, -96.2794, 141.535
8.94414, 104, 11.4465, 12.0717, 17.95, -146.083, -96.5285, 141.682
8.95209, 104, 11.438, 12.2981, 17.8485, -145.993, -96.7557, 141.817
8.96017, 104, 11.4302, 12.5036, 17.7573, -145.911, -96.9608, 141.938
8.96809, 104, 11.4233, 12.688, 17.6765, -145.838, -97.1439, 142.048
8.97609, 104, 11.4171, 12.8512, 17.6058, -145.773, -97.305, 142.144
8.98417, 104, 11.4115, 12.9944, 17.545, -145.717, -97.4441, 142.227
8.99209, 104, 11.4065, 13.1182, 17.4936, -145.669, -97.5619, 142.298
9.0001, 104, 11.4018, 13.2235, 17.4513, -145.63, -97.6592, 142.355
9.00721, 104, 11.3977, 13.3111, 17.4171, -145.598, -97.7375, 142.402
9.01509, 104, 11.3938, 13.3831, 17.3904, -145.573, -97.798, 142.439
9.02409, 104, 11.3903, 13.4413, 17.3707, -145.554, -97.8429, 142.467
9.03217, 104, 11.3872, 13.4874, 17.3563, -145.54, -97.8751, 142.486
9.03909, 104, 11.3847, 13.5224, 17.3466, -145.531, -97.8974, 142.499
9.04809, 104, 11.3827, 13.5485, 17.3404, -145.525, -97.9121, 142.507
9.05517, 104, 11.3811, 13.5677, 17.3366, -145.522, -97.9206, 142.512
9.06317, 104, 11.3799, 13.581, 17.3345, -145.52, -97.9253, 142.514
9.07127, 104, 11.3789, 13.59, 17.3334, -145.519, -97.9276, 142.515
9.07915, 105, 11.3783, 13.5961, 17.3329, -145.518, -97.9286, 142.516
9.08725, 105, 11.3778, 13.6, 17.3326, -145.518, -97.9291, 142.516
9.09526, 105, 11.3774, 13.6028, 17.3325, -145.518, -97.9294, 142.516
9.10309, 105, 11.3771, 13.6049, 17.3324, -145.518, -97.9295, 142.516
9.11111, 105, 11.3769, 13.6068, 17.3324, -145.518, -97.9295, 142.516
9.11924, 105, 11.3768, 13.6084, 17.3324, -145.518, -97.9295, 142.516
9.12719, 105, 11.3767, 13.6098, 17.3324, -145.518, -97.9295, 142.516
9.13536, 105, 11.3766, 13.611, 17.3324, -145.518, -97.9294, 142.516
9.14364, 105, 11.3765, 13.6121, 17.3324, -145.518, -97.9292, 142.516
9.15135, 105, 11.3764, 13.6129, 17.3324, -145.518, -97.9291, 142.516
9.15939, 105, 11.3764, 13.6135, 17.3325, -145.518, -97.929, 142.516
9.16791, 105, 11.3763, 13.614, 17.3325, -145.518, -97.9289, 142.516
9.17622, 105, 11.3763, 13.6143, 17.3325, -145.518, -97.9287, 142.516
9.18369, 105, 11.3763, 13.6145, 17.3326, -145.518, -97.9286, 142.516
9.19219, 105, 11.3763, 13.6146, 17.3326, -145.518, -97.9284, 142.516
9.20023, 105, 11.3763, 13.6146, 17.3326, -145.518, -97.9282, 142.516
