hehonglu123/Motion-Primitive-Planning/ILC/recorded_data/realrobot/wood/iteration_21/run_3.csv
timestamp, cmd_num, J1, J2, J3, J4, J5, J6
0.000389, -1, 11.3762, 13.6154, 17.3342, -145.52, -97.9262, 142.517
0.003055, -1, 11.3762, 13.6154, 17.3342, -145.52, -97.9262, 142.516
0.00771, -1, 11.3762, 13.6154, 17.3342, -145.52, -97.9263, 142.516
0.028694, -1, 11.3762, 13.6154, 17.3342, -145.52, -97.9262, 142.517
0.03142, -1, 11.3762, 13.6154, 17.3342, -145.52, -97.9262, 142.517
0.032652, -1, 11.3762, 13.6154, 17.3342, -145.52, -97.9262, 142.517
0.039578, -1, 11.3762, 13.6154, 17.3342, -145.52, -97.9262, 142.516
0.047587, -1, 11.3762, 13.6154, 17.3342, -145.52, -97.9262, 142.516
0.055666, -1, 11.3757, 13.6154, 17.3342, -145.52, -97.9262, 142.517
0.063593, -1, 11.3729, 13.6152, 17.3342, -145.52, -97.9262, 142.516
0.198395, -1, 10.0413, 13.2616, 17.421, -145.938, -97.7832, 140.1
0.2012, -1, 9.96474, 13.241, 17.426, -145.961, -97.7747, 139.96
0.202425, -1, 9.96474, 13.241, 17.426, -145.961, -97.7747, 139.96
0.204548, -1, 9.8876, 13.2203, 17.431, -145.986, -97.766, 139.821
0.20578, -1, 9.8876, 13.2203, 17.431, -145.986, -97.766, 139.821
0.207831, -1, 9.81004, 13.1996, 17.436, -146.01, -97.7574, 139.681
0.209062, -1, 9.81004, 13.1996, 17.436, -146.01, -97.7574, 139.681
0.211758, -1, 9.73225, 13.1788, 17.4411, -146.034, -97.7487, 139.541
0.213074, -1, 9.73225, 13.1788, 17.4411, -146.034, -97.7487, 139.541
0.214368, -1, 9.73225, 13.1788, 17.4411, -146.034, -97.7487, 139.541
0.216439, -1, 9.65444, 13.1581, 17.4461, -146.057, -97.7402, 139.401
0.217692, -1, 9.65444, 13.1581, 17.4461, -146.057, -97.7402, 139.401
0.219648, -1, 9.57675, 13.1375, 17.4512, -146.081, -97.7316, 139.262
0.220994, -1, 9.57675, 13.1375, 17.4512, -146.081, -97.7316, 139.262
0.224652, -1, 9.49922, 13.1169, 17.4561, -146.105, -97.7231, 139.122
0.226303, -1, 9.49922, 13.1169, 17.4561, -146.105, -97.7231, 139.122
0.228559, -1, 9.42182, 13.0963, 17.4611, -146.129, -97.7147, 138.982
0.229756, -1, 9.42182, 13.0963, 17.4611, -146.129, -97.7147, 138.982
0.231649, -1, 9.34449, 13.0757, 17.466, -146.154, -97.7063, 138.842
0.232995, -1, 9.34449, 13.0757, 17.466, -146.154, -97.7063, 138.842
0.234299, -1, 9.34449, 13.0757, 17.466, -146.154, -97.7063, 138.842
0.240098, -1, 9.1901, 13.0346, 17.476, -146.201, -97.6896, 138.563
0.246595, -1, 9.11307, 13.014, 17.4811, -146.225, -97.6812, 138.423
0.255883, -1, 8.88246, 12.9524, 17.4962, -146.298, -97.656, 138.003
0.263979, -1, 8.72884, 12.9114, 17.5064, -146.345, -97.6388, 137.723
0.272754, -1, 8.57578, 12.8703, 17.5164, -146.393, -97.6213, 137.443
0.280063, -1, 8.42301, 12.8291, 17.5266, -146.441, -97.6039, 137.162
0.288068, -1, 8.27001, 12.7877, 17.5368, -146.489, -97.5865, 136.882
0.29676, -1, 8.11661, 12.7461, 17.5469, -146.537, -97.5695, 136.602
0.304153, -1, 7.9627, 12.7045, 17.5572, -146.585, -97.5527, 136.322
0.312142, -1, 7.80819, 12.6628, 17.5673, -146.633, -97.536, 136.041
0.321103, -1, 7.65332, 12.621, 17.5774, -146.681, -97.5194, 135.761
0.3283, -1, 7.49834, 12.5794, 17.5876, -146.729, -97.5025, 135.481
0.335572, -1, 7.42079, 12.5586, 17.5927, -146.753, -97.494, 135.341
0.344611, -1, 7.18836, 12.4963, 17.608, -146.825, -97.468, 134.92
0.351566, -1, 7.11086, 12.4755, 17.6132, -146.849, -97.4594, 134.78
0.359625, -1, 6.95571, 12.4341, 17.6235, -146.897, -97.4422, 134.5
0.36908, -1, 6.72316, 12.3722, 17.6389, -146.969, -97.4168, 134.079
0.375565, -1, 6.64579, 12.3515, 17.6442, -146.993, -97.4084, 133.939
0.38358, -1, 6.49119, 12.3102, 17.6546, -147.042, -97.3917, 133.658
0.391587, -1, 6.33683, 12.2689, 17.665, -147.089, -97.3749, 133.378
0.399619, -1, 6.18261, 12.2275, 17.6753, -147.138, -97.3579, 133.097
0.407571, -1, 6.02831, 12.1861, 17.6855, -147.186, -97.3407, 132.817
0.415584, -1, 5.87377, 12.1446, 17.6959, -147.233, -97.3231, 132.536
0.425285, -1, 5.6416, 12.082, 17.7113, -147.306, -97.2969, 132.115
0.431595, -1, 5.56409, 12.0611, 17.7164, -147.33, -97.2883, 131.974
0.439751, -1, 5.40899, 12.0195, 17.7267, -147.378, -97.2713, 131.693
0.44757, -1, 5.25361, 11.9778, 17.7369, -147.426, -97.2545, 131.412
0.455581, -1, 5.09797, 11.936, 17.7473, -147.474, -97.2378, 131.131
0.464575, -1, 4.94218, 11.8944, 17.7578, -147.522, -97.2209, 130.85
0.472625, -1, 4.78648, 11.8528, 17.7683, -147.57, -97.2039, 130.569
0.479604, -1, 4.63079, 11.8112, 17.7787, -147.619, -97.1865, 130.288
0.487635, -1, 4.47509, 11.7697, 17.7891, -147.667, -97.169, 130.007
0.495564, -1, 4.31954, 11.7283, 17.7995, -147.715, -97.1516, 129.726
0.503586, -1, 4.16425, 11.6868, 17.81, -147.764, -97.1345, 129.445
0.511632, -1, 4.00943, 11.6454, 17.8203, -147.812, -97.1176, 129.164
0.65214, -1, 1.28566, 10.9155, 18.0023, -148.658, -96.8179, 124.235
0.653373, -1, 1.28566, 10.9155, 18.0023, -148.658, -96.8179, 124.235
0.655345, -1, 1.20781, 10.8947, 18.0075, -148.682, -96.8095, 124.093
0.656721, -1, 1.20781, 10.8947, 18.0075, -148.682, -96.8095, 124.093
0.658059, -1, 1.20781, 10.8947, 18.0075, -148.682, -96.8095, 124.093
0.661598, -1, 1.13005, 10.8738, 18.0127, -148.706, -96.8011, 123.952
0.663831, -1, 1.0524, 10.8529, 18.0178, -148.73, -96.7926, 123.811
0.667747, -1, 0.97484, 10.832, 18.023, -148.755, -96.7841, 123.67
0.669022, -1, 0.97484, 10.832, 18.023, -148.755, -96.7841, 123.67
0.670923, -1, 0.97484, 10.832, 18.023, -148.779, -96.7756, 123.528
0.672382, -1, 0.89734, 10.8111, 18.0282, -148.779, -96.7756, 123.528
0.673587, -1, 0.89734, 10.8111, 18.0282, -148.779, -96.7756, 123.528
0.675656, -1, 0.819889, 10.7902, 18.0334, -148.803, -96.7669, 123.387
0.676876, -1, 0.819889, 10.7902, 18.0334, -148.803, -96.7669, 123.387
0.678128, -1, 0.819889, 10.7902, 18.0334, -148.803, -96.7669, 123.387
0.681411, -1, 0.742488, 10.7693, 18.0386, -148.827, -96.7582, 123.246
0.684144, -1, 0.665141, 10.7484, 18.0438, -148.852, -96.7494, 123.105
0.687009, -1, 0.665141, 10.7484, 18.0438, -148.852, -96.7494, 122.964
0.688511, -1, 0.587816, 10.7275, 18.049, -148.876, -96.7405, 122.964
0.689759, -1, 0.587816, 10.7275, 18.049, -148.876, -96.7405, 122.964
0.691803, -1, 0.510478, 10.7066, 18.0542, -148.9, -96.7317, 122.822
0.693012, -1, 0.510478, 10.7066, 18.0542, -148.9, -96.7317, 122.822
0.699144, -1, 0.433071, 10.6857, 18.0594, -148.948, -96.7143, 122.539
0.703667, -1, 0.277978, 10.6439, 18.0698, -148.972, -96.7057, 122.398
0.711746, -1, 0.122394, 10.602, 18.0802, -149.021, -96.6886, 122.116
0.719726, -1, -0.0336089, 10.5601, 18.0908, -149.07, -96.6718, 121.833
0.72761, -1, -0.189915, 10.5183, 18.1013, -149.118, -96.6552, 121.55
0.735721, -1, -0.346554, 10.4765, 18.1118, -149.167, -96.6384, 121.267
0.743686, -1, -0.503572, 10.4345, 18.1222, -149.215, -96.6213, 120.985
0.751745, -1, -0.660766, 10.3927, 18.1326, -149.263, -96.6039, 120.702
0.760172, -1, -0.818111, 10.3508, 18.1431, -149.312, -96.5864, 120.419
0.767905, -1, -0.975478, 10.309, 18.1535, -149.36, -96.5691, 120.136
0.775913, -1, -1.13274, 10.2672, 18.1638, -149.409, -96.5521, 119.853
0.784039, -1, -1.28978, 10.2254, 18.1742, -149.458, -96.5352, 119.57
0.792162, -1, -1.44664, 10.1835, 18.1845, -149.506, -96.5185, 119.286
0.800138, -1, -1.60325, 10.1417, 18.195, -149.555, -96.5016, 119.003
0.808514, -1, -1.75938, 10.0998, 18.2055, -149.604, -96.4846, 118.72
0.816141, -1, -1.91502, 10.0579, 18.216, -149.652, -96.4672, 118.437
0.824176, -1, -2.07039, 10.016, 18.2264, -149.701, -96.4496, 118.153
0.832164, -1, -2.14796, 9.99508, 18.2317, -149.725, -96.432, 117.869
0.839546, -1, -2.30314, 9.95319, 18.242, -149.774, -96.4233, 117.728
0.847601, -1, -2.45855, 9.91124, 18.2525, -149.822, -96.4061, 117.444
0.855569, -1, -2.61422, 9.86924, 18.2629, -149.871, -96.3891, 117.16
0.863555, -1, -2.77025, 9.8273, 18.2732, -149.92, -96.3723, 116.876
0.871606, -1, -2.92662, 9.78533, 18.2836, -149.968, -96.3555, 116.593
0.879548, -1, -3.08341, 9.74338, 18.294, -150.017, -96.3385, 116.309
0.887554, -1, -3.24059, 9.70146, 18.3044, -150.066, -96.3211, 116.025
0.895655, -1, -3.3982, 9.65943, 18.315, -150.114, -96.3035, 115.742
0.903559, -1, -3.55602, 9.61741, 18.3255, -150.163, -96.286, 115.458
0.911563, -1, -3.71382, 9.57556, 18.3359, -150.211, -96.2687, 115.173
0.919618, -1, -3.87184, 9.5336, 18.3463, -150.26, -96.2516, 114.889
0.927558, -1, -4.02981, 9.4916, 18.3567, -150.309, -96.2346, 114.605
0.935637, -1, -4.1876, 9.44968, 18.3671, -150.358, -96.2176, 114.321
0.943548, -1, -4.34535, 9.40772, 18.3774, -150.406, -96.2005, 114.036
0.951589, -1, -4.50287, 9.36573, 18.3878, -150.455, -96.1832, 113.751
0.959631, -1, -4.65979, 9.3237, 18.3982, -150.504, -96.1655, 113.467
0.968598, -1, -4.81636, 9.28165, 18.4086, -150.553, -96.1477, 113.182
0.975553, -1, -4.97265, 9.23956, 18.4191, -150.602, -96.1302, 112.897
0.983639, -1, -5.12869, 9.19755, 18.4297, -150.651, -96.113, 112.612
0.991565, -1, -5.28447, 9.15545, 18.4402, -150.699, -96.0959, 112.328
0.999555, -1, -5.44045, 9.1133, 18.4508, -150.748, -96.079, 112.043
1.00761, -1, -5.59661, 9.07123, 18.4612, -150.797, -96.0621, 111.758
1.01557, -1, -5.75313, 9.02915, 18.4717, -150.846, -96.0449, 111.473
1.02384, -1, -5.91012, 8.98696, 18.4821, -150.895, -96.0275, 111.188
1.03156, -1, -6.06755, 8.94481, 18.4925, -150.944, -96.0099, 110.903
1.03955, -1, -6.22554, 8.90268, 18.5029, -150.992, -95.9923, 110.618
1.04834, -1, -6.38382, 8.86054, 18.5132, -151.042, -95.975, 110.333
1.05555, -1, -6.54223, 8.81847, 18.5236, -151.09, -95.958, 110.048
1.06358, -1, -6.70075, 8.77635, 18.5341, -151.139, -95.9409, 109.763
1.07235, -1, -6.85937, 8.7342, 18.5447, -151.189, -95.924, 109.477
1.07955, -1, -7.01796, 8.69212, 18.5552, -151.237, -95.9069, 109.191
1.08758, -1, -7.17649, 8.64997, 18.5657, -151.286, -95.8894, 108.906
1.09637, -1, -7.33482, 8.60779, 18.576, -151.336, -95.8717, 108.62
1.10357, -1, -7.49284, 8.56552, 18.5865, -151.385, -95.8539, 108.334
1.11157, -1, -7.65052, 8.52322, 18.597, -151.434, -95.8363, 108.049
1.12033, -1, -7.80778, 8.48095, 18.6075, -151.483, -95.8192, 107.763
1.12756, -1, -7.96474, 8.43866, 18.6179, -151.532, -95.8022, 107.477
1.13559, -1, -8.12143, 8.3963, 18.6283, -151.581, -95.7852, 107.191
1.14491, -1, -8.27799, 8.35397, 18.6387, -151.63, -95.7683, 106.906
1.15159, -1, -8.4347, 8.31159, 18.6493, -151.679, -95.751, 106.62
1.15982, -1, -8.59171, 8.26921, 18.6598, -151.728, -95.7335, 106.333
1.16762, -1, -8.74903, 8.22695, 18.6703, -151.777, -95.7158, 106.047
1.17564, -1, -8.90672, 8.18461, 18.6807, -151.826, -95.6983, 105.76
1.18395, -1, -9.06483, 8.14224, 18.6911, -151.875, -95.6809, 105.474
1.19166, -1, -9.22334, 8.09998, 18.7016, -151.924, -95.6637, 105.187
1.19969, -1, -9.38221, 8.05764, 18.712, -151.973, -95.6466, 104.901
1.20816, -1, -9.5413, 8.01527, 18.7225, -152.023, -95.6295, 104.614
1.21555, -1, -9.70046, 7.97304, 18.733, -152.072, -95.6122, 104.327
1.22358, -1, -9.85973, 7.93079, 18.7435, -152.121, -95.5947, 104.04
1.23243, -1, -10.0191, 7.88838, 18.7542, -152.17, -95.5768, 103.753
1.23965, -1, -10.1784, 7.84593, 18.7648, -152.22, -95.559, 103.466
1.24767, -1, -10.3374, 7.80339, 18.7754, -152.269, -95.5415, 103.179
1.25661, -1, -10.4964, 7.76086, 18.786, -152.318, -95.5242, 102.893
1.26382, -1, -10.6549, 7.71837, 18.7964, -152.368, -95.5071, 102.605
1.27191, -1, -10.813, 7.67581, 18.8069, -152.417, -95.4901, 102.318
1.28082, -1, -10.9709, 7.63322, 18.8174, -152.466, -95.473, 102.031
1.28802, -1, -11.1284, 7.59073, 18.8278, -152.515, -95.4556, 101.744
1.29611, -1, -11.2858, 7.54824, 18.8384, -152.564, -95.438, 101.457
1.30489, -1, -11.4433, 7.50572, 18.8489, -152.614, -95.4201, 101.169
1.31212, -1, -11.6009, 7.46319, 18.8593, -152.663, -95.4025, 100.882
1.31856, -1, -11.6798, 7.44197, 18.8646, -152.688, -95.3937, 100.738
1.32909, -1, -11.8379, 7.39956, 18.8806, -152.762, -95.3679, 100.306
1.33611, -1, -11.9964, 7.35711, 18.8858, -152.787, -95.3593, 100.162
1.34416, -1, -12.1553, 7.31472, 18.8964, -152.836, -95.3421, 99.7306
1.35155, -1, -12.3147, 7.2723, 18.9069, -152.885, -95.3247, 99.5865
1.35953, -1, -12.4744, 7.22983, 18.9174, -152.935, -95.3072, 99.2984
1.36758, -1, -12.6342, 7.18741, 18.928, -152.984, -95.2892, 99.0106
1.37553, -1, -12.7942, 7.14492, 18.9385, -153.034, -95.2713, 98.7228
1.38354, -1, -12.9544, 7.10238, 18.9491, -153.083, -95.2535, 98.4347
1.3916, -1, -13.1144, 7.0598, 18.9596, -153.133, -95.236, 98.1464
1.39955, -1, -13.2743, 7.01717, 18.9702, -153.182, -95.2188, 97.8584
1.40754, -1, -13.4339, 6.97449, 18.9808, -153.232, -95.2017, 97.5701
1.41558, -1, -13.5933, 6.93168, 18.9914, -153.281, -95.1845, 97.2814
1.42355, -1, -13.7525, 6.88892, 19.002, -153.33, -95.1672, 96.9928
1.43155, -1, -13.9114, 6.84622, 19.0125, -153.38, -95.1495, 96.7043
1.43955, -1, -14.0698, 6.80349, 19.023, -153.429, -95.1317, 96.4158
1.44753, -1, -14.2279, 6.76087, 19.0336, -153.479, -95.1139, 96.1269
1.45792, -1, -14.386, 6.71821, 19.0493, -153.553, -95.0879, 95.6935
1.46364, -1, -14.5443, 6.67551, 19.0546, -153.577, -95.0793, 95.549
1.47156, -1, -14.703, 6.63294, 19.0652, -153.627, -95.062, 95.2597
1.4796, -1, -14.862, 6.5904, 19.0757, -153.677, -95.0448, 94.9703
1.4886, -1, -15.0214, 6.54769, 19.0865, -153.726, -95.0274, 94.6813
1.49553, -1, -15.1811, 6.50509, 19.0972, -153.776, -95.0097, 94.3923
1.5036, -1, -15.3412, 6.46246, 19.1079, -153.826, -94.9917, 94.1032
1.51155, -1, -15.5016, 6.41974, 19.1186, -153.875, -94.9737, 93.8136
1.51953, -1, -15.6623, 6.37704, 19.1292, -153.925, -94.9561, 93.5244
1.52767, -1, -15.8231, 6.33424, 19.1397, -153.975, -94.9387, 93.2352
1.53553, -1, -15.9839, 6.29135, 19.1504, -154.024, -94.9215, 92.9457
1.5436, -1, -16.1447, 6.24851, 19.161, -154.074, -94.9043, 92.6558
1.55155, -1, -16.3055, 6.2056, 19.1716, -154.123, -94.8871, 92.3664
1.55953, -1, -16.466, 6.16259, 19.1821, -154.173, -94.8696, 92.0769
1.56761, -1, -16.6263, 6.11965, 19.1926, -154.223, -94.8518, 91.7867
1.57553, -1, -16.7862, 6.0767, 19.2033, -154.272, -94.8339, 91.4965
1.58353, -1, -16.9456, 6.0337, 19.214, -154.322, -94.8162, 91.2065
1.59163, -1, -17.1049, 5.99074, 19.2246, -154.372, -94.7987, 90.9162
1.59953, -1, -17.264, 5.94779, 19.2352, -154.421, -94.7813, 90.6258
1.60755, -1, -17.4231, 5.90494, 19.2458, -154.471, -94.7641, 90.3354
1.6156, -1, -17.5824, 5.86212, 19.2566, -154.521, -94.7467, 90.0453
1.62353, -1, -17.7418, 5.81928, 19.2673, -154.571, -94.729, 89.755
1.63157, -1, -17.9014, 5.77647, 19.278, -154.621, -94.7111, 89.4644
1.63959, -1, -18.0614, 5.73365, 19.2885, -154.671, -94.693, 89.1739
1.64753, -1, -18.2219, 5.69084, 19.2991, -154.72, -94.6751, 88.8835
1.65556, -1, -18.3828, 5.64804, 19.3099, -154.771, -94.6575, 88.5927
1.66363, -1, -18.5442, 5.60509, 19.3206, -154.821, -94.6401, 88.3016
1.67163, -1, -18.7057, 5.56212, 19.3313, -154.87, -94.6228, 88.0108
1.67969, -1, -18.8674, 5.51914, 19.342, -154.921, -94.6056, 87.7199
1.68763, -1, -19.0291, 5.47608, 19.3525, -154.971, -94.588, 87.4288
1.69563, -1, -19.1906, 5.43291, 19.3631, -155.02, -94.5702, 87.1374
1.70371, -1, -19.3521, 5.38977, 19.3738, -155.071, -94.552, 86.8461
1.71161, -1, -19.5134, 5.3466, 19.3844, -155.12, -94.534, 86.5547
1.71954, -1, -19.6743, 5.30338, 19.395, -155.17, -94.5163, 86.263
1.72764, -1, -19.835, 5.26022, 19.4057, -155.22, -94.4988, 85.9712
1.73558, -1, -19.9955, 5.21706, 19.4164, -155.27, -94.4814, 85.6798
1.74365, -1, -20.1555, 5.17389, 19.4272, -155.32, -94.4639, 85.3882
1.75254, -1, -20.3152, 5.13093, 19.4381, -155.37, -94.4464, 85.0964
1.75974, -1, -20.4751, 5.0879, 19.4489, -155.42, -94.4285, 84.8045
1.76782, -1, -20.6352, 5.04482, 19.4596, -155.47, -94.4104, 84.5128
1.77686, -1, -20.7955, 5.00189, 19.4703, -155.521, -94.3924, 84.2208
1.78394, -1, -20.9562, 4.95889, 19.481, -155.571, -94.3747, 83.9286
1.79206, -1, -21.1173, 4.91575, 19.4917, -155.621, -94.3572, 83.6364
1.80095, -1, -21.2788, 4.87266, 19.5023, -155.671, -94.34, 83.3446
1.80805, -1, -21.4408, 4.82942, 19.5129, -155.721, -94.3227, 83.0523
1.8161, -1, -21.6029, 4.78614, 19.5237, -155.772, -94.3054, 82.7598
1.82505, -1, -21.7652, 4.74298, 19.5345, -155.822, -94.2877, 82.4671
1.83213, -1, -21.8463, 4.72131, 19.5452, -155.872, -94.2697, 82.1746
1.8401, -1, -22.0088, 4.67789, 19.5506, -155.897, -94.2517, 81.8819
1.84753, -1, -22.1714, 4.63455, 19.5614, -155.947, -94.2428, 81.7354
1.85548, -1, -22.3338, 4.59117, 19.572, -155.997, -94.225, 81.4426
1.86357, -1, -22.496, 4.54775, 19.5827, -156.048, -94.2075, 81.1499
1.87154, -1, -22.6579, 4.50433, 19.5934, -156.098, -94.1901, 80.8572
1.87958, -1, -22.8194, 4.46088, 19.6041, -156.148, -94.1726, 80.5642
1.88752, -1, -22.9805, 4.41753, 19.6148, -156.198, -94.1549, 80.2711
1.89553, -1, -23.1417, 4.37423, 19.6255, -156.249, -94.1369, 79.9782
1.90358, -1, -23.3026, 4.33088, 19.6362, -156.299, -94.1187, 79.685
1.91153, -1, -23.4635, 4.28761, 19.6471, -156.35, -94.1004, 79.3913
1.91953, -1, -23.6245, 4.24434, 19.6579, -156.4, -94.0825, 79.0981
1.9276, -1, -23.7856, 4.20105, 19.6687, -156.45, -94.0649, 78.8048
1.93552, -1, -23.9469, 4.15776, 19.6794, -156.501, -94.0474, 78.5111
1.94355, -1, -24.1086, 4.11436, 19.6901, -156.551, -94.03, 78.2171
1.95159, -1, -24.2707, 4.07096, 19.7009, -156.601, -94.0124, 77.9233
1.95952, -1, -24.4334, 4.02753, 19.7115, -156.652, -93.9946, 77.6293
1.96853, -1, -24.5963, 3.98405, 19.7222, -156.702, -93.9765, 77.3351
1.97559, -1, -24.7595, 3.94047, 19.7328, -156.752, -93.9584, 77.0407
1.98458, -1, -24.9229, 3.89694, 19.7436, -156.803, -93.9405, 76.7468
1.99178, -1, -25.0864, 3.85339, 19.7545, -156.853, -93.9229, 76.4527
2.0017, -1, -25.3312, 3.78802, 19.7709, -156.929, -93.8967, 76.0111
2.00753, -1, -25.4127, 3.76622, 19.7763, -156.954, -93.8879, 75.864
2.01631, -1, -25.5755, 3.72253, 19.787, -157.004, -93.8702, 75.5697
2.02353, -1, -25.7382, 3.67889, 19.7977, -157.055, -93.8522, 75.2751
2.03152, -1, -25.9007, 3.63541, 19.8085, -157.106, -93.8339, 74.9803
2.04043, -1, -26.0629, 3.59185, 19.8193, -157.156, -93.8156, 74.6857
2.04752, -1, -26.2247, 3.54836, 19.8301, -157.207, -93.7975, 74.3912
2.05552, -1, -26.3863, 3.50498, 19.8409, -157.257, -93.7796, 74.0963
2.06432, -1, -26.548, 3.46147, 19.8516, -157.308, -93.762, 73.801
2.07261, -1, -26.7098, 3.41798, 19.8625, -157.359, -93.7444, 73.506
2.07951, -1, -26.8721, 3.37445, 19.8733, -157.409, -93.7267, 73.2108
2.09118, -1, -27.1161, 3.30902, 19.8896, -157.485, -93.6997, 72.7675
2.09556, -1, -27.1975, 3.28724, 19.895, -157.511, -93.6905, 72.6198
2.10353, -1, -27.3607, 3.24362, 19.9057, -157.561, -93.6722, 72.3246
2.11158, -1, -27.5244, 3.19982, 19.9165, -157.611, -93.6542, 72.0293
2.11953, -1, -27.6883, 3.15609, 19.9274, -157.662, -93.6362, 71.7338
2.12754, -1, -27.8524, 3.11243, 19.9381, -157.713, -93.6185, 71.4381
2.13556, -1, -28.0166, 3.06868, 19.9489, -157.764, -93.6009, 71.1427
2.14353, -1, -28.1808, 3.02496, 19.9597, -157.815, -93.5831, 70.8468
2.15158, -1, -28.3451, 2.98125, 19.9705, -157.865, -93.5651, 70.5507
2.15957, -1, -28.5092, 2.93749, 19.9815, -157.916, -93.5467, 70.2547
2.16758, -1, -28.673, 2.89381, 19.9923, -157.967, -93.5282, 69.9588
2.17678, -1, -28.8365, 2.85008, 20.0031, -158.017, -93.51, 69.6626
2.18367, -1, -28.9995, 2.80631, 20.0139, -158.068, -93.4921, 69.3661
2.19164, -1, -29.1622, 2.76263, 20.0246, -158.119, -93.4744, 69.0698
2.19968, -1, -29.3249, 2.71893, 20.0355, -158.17, -93.4567, 68.7731
2.20762, -1, -29.4876, 2.6752, 20.0463, -158.221, -93.439, 68.4762
2.21564, -1, -29.6503, 2.63144, 20.0572, -158.272, -93.421, 68.1792
2.22373, -1, -29.8134, 2.58762, 20.068, -158.323, -93.4027, 67.8826
2.23154, -1, -29.9765, 2.54386, 20.0789, -158.374, -93.3843, 67.586
2.23961, -1, -30.1398, 2.49993, 20.0899, -158.425, -93.366, 67.2889
2.24765, -1, -30.3036, 2.45592, 20.1009, -158.475, -93.348, 66.9918
2.2557, -1, -30.4679, 2.41199, 20.1118, -158.527, -93.3302, 66.6949
2.2639, -1, -30.6326, 2.36794, 20.1226, -158.577, -93.3125, 66.3976
2.27178, -1, -30.7976, 2.32393, 20.1334, -158.628, -93.2947, 66.1001
2.27991, -1, -30.9626, 2.27997, 20.1443, -158.68, -93.2766, 65.8028
2.2881, -1, -31.1277, 2.23586, 20.1552, -158.73, -93.2582, 65.5056
2.296, -1, -31.2929, 2.19191, 20.166, -158.782, -93.2397, 65.2082
2.30407, -1, -31.4578, 2.14803, 20.1769, -158.833, -93.2214, 64.9103
2.31212, -1, -31.6224, 2.10396, 20.1877, -158.884, -93.2034, 64.6126
2.32007, -1, -31.787, 2.05998, 20.1986, -158.935, -93.1856, 64.3148
2.32813, -1, -31.9513, 2.01606, 20.2096, -158.986, -93.168, 64.0168
2.33626, -1, -32.1153, 1.97203, 20.2206, -159.037, -93.1504, 63.7186
2.3435, -1, -32.1971, 1.95002, 20.2261, -159.063, -93.1414, 63.5697
2.3515, -1, -32.3606, 1.90601, 20.2369, -159.114, -93.1234, 63.272
2.35956, -1, -32.5241, 1.86195, 20.2479, -159.165, -93.105, 62.974
2.3675, -1, -32.6879, 1.81782, 20.2588, -159.217, -93.0867, 62.6755
2.37551, -1, -32.8517, 1.77377, 20.2697, -159.268, -93.0686, 62.3775
2.38355, -1, -33.0159, 1.7296, 20.2807, -159.319, -93.0507, 62.0793
2.3915, -1, -33.1804, 1.68537, 20.2915, -159.37, -93.0328, 61.7805
2.39956, -1, -33.3451, 1.64122, 20.3024, -159.422, -93.015, 61.4818
2.40752, -1, -33.5104, 1.59696, 20.3134, -159.473, -92.9971, 61.1832
2.41552, -1, -33.6761, 1.5527, 20.3244, -159.524, -92.9788, 60.8845
2.42355, -1, -33.8419, 1.5085, 20.3353, -159.575, -92.9602, 60.5854
2.43152, -1, -34.0078, 1.46428, 20.3462, -159.626, -92.9416, 60.286
2.43951, -1, -34.1738, 1.4201, 20.3571, -159.678, -92.9232, 59.9869
2.44759, -1, -34.3399, 1.37593, 20.3681, -159.729, -92.9052, 59.6873
2.45551, -1, -34.506, 1.33172, 20.379, -159.781, -92.8873, 59.3875
2.4635, -1, -34.6717, 1.28753, 20.3899, -159.832, -92.8695, 59.0881
2.47252, -1, -34.837, 1.24333, 20.4008, -159.883, -92.8516, 58.7889
2.4796, -1, -35.002, 1.19912, 20.4118, -159.935, -92.8334, 58.4893
2.48855, -1, -35.1667, 1.15483, 20.4229, -159.986, -92.8149, 58.1894
2.49559, -1, -35.3312, 1.11052, 20.434, -160.037, -92.7963, 57.8896
2.5035, -1, -35.4951, 1.06636, 20.4451, -160.089, -92.778, 57.5898
2.5115, -1, -35.6574, 1.02255, 20.4563, -160.14, -92.7599, 57.2899
2.51957, -1, -35.8169, 0.979313, 20.4679, -160.191, -92.742, 56.9913
2.5275, -1, -35.9724, 0.937241, 20.4797, -160.242, -92.7243, 56.6961
2.53552, -1, -36.1228, 0.896797, 20.4916, -160.291, -92.7068, 56.4069
2.54358, -1, -36.2655, 0.858581, 20.5036, -160.339, -92.6897, 56.128
2.5515, -1, -36.3987, 0.823309, 20.5152, -160.384, -92.6733, 55.8653
2.5595, -1, -36.5206, 0.791058, 20.5258, -160.424, -92.6581, 55.6256
2.56757, -1, -36.6298, 0.762236, 20.5351, -160.46, -92.6448, 55.4141
2.57553, -1, -36.7245, 0.737194, 20.5424, -160.49, -92.6338, 55.2356
2.5835, -1, -36.8046, 0.715979, 20.5474, -160.514, -92.6251, 55.0923
2.59157, -1, -36.8708, 0.698507, 20.5504, -160.533, -92.6186, 54.984
2.59952, -1, -36.924, 0.684518, 20.5517, -160.547, -92.6141, 54.9074
2.60756, -1, -36.9645, 0.673678, 20.5521, -160.556, -92.6112, 54.8557
2.61557, -1, -36.994, 0.665902, 20.5518, -160.561, -92.6095, 54.8243
2.6235, -1, -37.0143, 0.660817, 20.5514, -160.565, -92.6086, 54.8064
2.6315, -1, -37.0267, 0.657806, 20.551, -160.566, -92.6081, 54.7973
2.63956, 2, -37.0333, 0.656201, 20.5509, -160.567, -92.6079, 54.7931
2.64751, 2, -37.0355, 0.655497, 20.5508, -160.568, -92.6078, 54.7911
2.65551, 2, -37.0354, 0.655216, 20.5507, -160.568, -92.6078, 54.7903
2.66362, 2, -37.0347, 0.655081, 20.5507, -160.568, -92.6077, 54.7899
2.67156, 2, -37.0345, 0.65505, 20.5507, -160.568, -92.6077, 54.7897
2.67959, 2, -37.0349, 0.655005, 20.5507, -160.568, -92.6077, 54.7896
2.68766, 2, -37.0359, 0.654946, 20.5506, -160.568, -92.6078, 54.7896
2.69561, 2, -37.037, 0.654836, 20.5505, -160.568, -92.6078, 54.7896
2.7036, 2, -37.0385, 0.654607, 20.5503, -160.568, -92.6079, 54.7897
2.71167, 2, -37.0399, 0.654333, 20.5501, -160.568, -92.608, 54.7897
2.7195, 2, -37.0411, 0.654056, 20.5499, -160.568, -92.608, 54.7898
2.72753, 2, -37.0421, 0.653833, 20.5497, -160.568, -92.608, 54.7898
2.73561, 2, -37.0425, 0.653713, 20.5495, -160.568, -92.608, 54.79
2.74368, 2, -37.0425, 0.653675, 20.5493, -160.568, -92.6081, 54.79
2.75161, 2, -37.042, 0.653694, 20.5492, -160.568, -92.6081, 54.7901
2.75972, 2, -37.0412, 0.653757, 20.5491, -160.568, -92.6082, 54.7902
2.76773, 2, -37.0402, 0.653823, 20.5491, -160.568, -92.6082, 54.7904
2.77605, 2, -37.0386, 0.653926, 20.549, -160.568, -92.6083, 54.7906
2.78391, 2, -37.0372, 0.654011, 20.5489, -160.568, -92.6083, 54.7908
2.79263, 2, -37.0361, 0.65404, 20.5489, -160.568, -92.6083, 54.7909
2.80033, 2, -37.0355, 0.654045, 20.5488, -160.568, -92.6083, 54.791
2.80808, 2, -37.0353, 0.654018, 20.5488, -160.568, -92.6083, 54.791
2.81603, 2, -37.0354, 0.653991, 20.5488, -160.568, -92.6083, 54.791
2.82431, 2, -37.0356, 0.653913, 20.5488, -160.568, -92.6083, 54.7911
2.83213, 2, -37.0358, 0.653846, 20.5488, -160.568, -92.6083, 54.7911
2.84038, 2, -37.036, 0.653821, 20.5487, -160.568, -92.6083, 54.7911
2.84833, 2, -37.0371, 0.653752, 20.5487, -160.568, -92.6083, 54.7911
2.85552, 2, -37.0375, 0.653746, 20.5487, -160.568, -92.6084, 54.7912
2.86349, 2, -37.0382, 0.653734, 20.5487, -160.568, -92.6084, 54.7912
2.87227, 2, -37.0387, 0.653757, 20.5487, -160.568, -92.6083, 54.7913
2.87954, 2, -37.039, 0.653793, 20.5487, -160.568, -92.6084, 54.7913
2.88749, 2, -37.039, 0.653817, 20.5487, -160.568, -92.6083, 54.7913
2.89549, 2, -37.0391, 0.653833, 20.5487, -160.568, -92.6084, 54.7914
2.90354, 2, -37.0389, 0.65384, 20.5487, -160.568, -92.6084, 54.7915
2.9115, 2, -37.0384, 0.653836, 20.5487, -160.568, -92.6084, 54.7915
2.91953, 2, -37.0381, 0.653842, 20.5487, -160.568, -92.6084, 54.7916
2.92754, 2, -37.0379, 0.653832, 20.5487, -160.568, -92.6084, 54.7916
2.93551, 2, -37.0378, 0.653798, 20.5487, -160.568, -92.6084, 54.7916
2.94349, 2, -37.0377, 0.653804, 20.5487, -160.568, -92.6085, 54.7917
2.95157, 2, -37.0377, 0.653786, 20.5486, -160.568, -92.6084, 54.7917
2.95949, 2, -37.0377, 0.653769, 20.5486, -160.568, -92.6085, 54.7917
2.96749, 2, -37.0378, 0.65375, 20.5486, -160.568, -92.6084, 54.7918
2.97558, 2, -37.0378, 0.653764, 20.5486, -160.568, -92.6084, 54.7918
2.98537, 2, -37.0379, 0.653796, 20.5486, -160.568, -92.6085, 54.7919
2.99149, 2, -37.0382, 0.653811, 20.5486, -160.568, -92.6085, 54.792
3.00051, 2, -37.0383, 0.653818, 20.5486, -160.568, -92.6085, 54.792
3.00749, 2, -37.0384, 0.653833, 20.5486, -160.568, -92.6085, 54.792
3.0155, 2, -37.0384, 0.65384, 20.5486, -160.568, -92.6085, 54.7921
3.02356, 2, -37.0384, 0.653831, 20.5486, -160.568, -92.6085, 54.7922
3.03149, 2, -37.0384, 0.653827, 20.5486, -160.568, -92.6085, 54.7922
3.03949, 2, -37.0383, 0.653825, 20.5485, -160.568, -92.6085, 54.7922
3.0476, 2, -37.0383, 0.653813, 20.5485, -160.568, -92.6085, 54.7923
3.05551, 2, -37.0383, 0.653801, 20.5485, -160.568, -92.6085, 54.7924
3.06349, 2, -37.0383, 0.653795, 20.5485, -160.568, -92.6085, 54.7924
3.07155, 2, -37.0383, 0.653785, 20.5485, -160.568, -92.6085, 54.7925
3.07951, 2, -37.0383, 0.653806, 20.5485, -160.568, -92.6085, 54.7926
3.08749, 2, -37.0383, 0.653815, 20.5485, -160.568, -92.6085, 54.7926
3.09557, 2, -37.0383, 0.65382, 20.5485, -160.568, -92.6085, 54.7927
3.10351, 2, -37.0383, 0.653822, 20.5485, -160.568, -92.6086, 54.7927
3.1115, 2, -37.0382, 0.653835, 20.5485, -160.567, -92.6086, 54.7927
3.11958, 2, -37.0382, 0.653841, 20.5485, -160.567, -92.6086, 54.7928
3.12749, 2, -37.0382, 0.653862, 20.5484, -160.567, -92.6085, 54.7928
3.1355, 2, -37.0382, 0.653849, 20.5484, -160.567, -92.6085, 54.7928
3.14363, 2, -37.0382, 0.65384, 20.5484, -160.567, -92.6086, 54.7929
3.15149, 2, -37.0382, 0.653831, 20.5484, -160.567, -92.6086, 54.7929
3.15949, 2, -37.0382, 0.653827, 20.5484, -160.567, -92.6086, 54.793
3.16761, 2, -37.0382, 0.653825, 20.5483, -160.567, -92.6086, 54.793
3.17557, 2, -37.0382, 0.653824, 20.5483, -160.567, -92.6086, 54.7931
3.18358, 2, -37.0382, 0.653824, 20.5483, -160.567, -92.6086, 54.7931
3.19165, 2, -37.0381, 0.653824, 20.5483, -160.567, -92.6086, 54.7932
3.19959, 2, -37.0381, 0.653824, 20.5483, -160.567, -92.6087, 54.7932
3.2076, 2, -37.0381, 0.653824, 20.5483, -160.567, -92.6087, 54.7932
3.21568, 2, -37.0381, 0.653836, 20.5483, -160.567, -92.6087, 54.7933
3.22349, 2, -37.0381, 0.653837, 20.5483, -160.567, -92.6087, 54.7933
3.23151, 2, -37.0381, 0.653834, 20.5483, -160.567, -92.6087, 54.7933
3.23961, 2, -37.0381, 0.653836, 20.5483, -160.567, -92.6087, 54.7933
3.24757, 2, -37.0381, 0.653834, 20.5483, -160.567, -92.6087, 54.7934
3.25558, 2, -37.0381, 0.653828, 20.5483, -160.567, -92.6088, 54.7934
3.26381, 2, -37.038, 0.653826, 20.5483, -160.567, -92.6087, 54.7935
3.27176, 2, -37.038, 0.653825, 20.5482, -160.567, -92.6087, 54.7935
3.27976, 2, -37.038, 0.653824, 20.5482, -160.567, -92.6087, 54.7936
3.28799, 2, -37.038, 0.653824, 20.5482, -160.567, -92.6087, 54.7936
3.29661, 2, -37.038, 0.653831, 20.5482, -160.567, -92.6087, 54.7936
3.30401, 2, -37.038, 0.653832, 20.5482, -160.567, -92.6088, 54.7935
3.31222, 2, -37.038, 0.653827, 20.5482, -160.567, -92.6087, 54.7935
3.32006, 2, -37.038, 0.653833, 20.5482, -160.567, -92.6088, 54.7936
3.32804, 2, -37.0379, 0.653852, 20.5482, -160.567, -92.6088, 54.7936
3.33621, 2, -37.0379, 0.653854, 20.5482, -160.567, -92.6087, 54.7937
3.3441, 2, -37.0379, 0.653844, 20.5482, -160.567, -92.6087, 54.7937
3.35148, 2, -37.0379, 0.653853, 20.5482, -160.567, -92.6087, 54.7937
3.35953, 2, -37.0379, 0.653842, 20.5482, -160.567, -92.6087, 54.7938
3.36748, 2, -37.0379, 0.653832, 20.5481, -160.567, -92.6088, 54.7938
3.37549, 2, -37.0378, 0.65384, 20.5481, -160.567, -92.6088, 54.7938
3.38353, 2, -37.0378, 0.653831, 20.5481, -160.567, -92.6088, 54.7939
3.39148, 2, -37.0378, 0.653839, 20.5481, -160.567, -92.6088, 54.7938
3.39948, 2, -37.0378, 0.653831, 20.5481, -160.567, -92.6088, 54.7939
3.40754, 2, -37.0378, 0.653827, 20.5481, -160.567, -92.6087, 54.7939
3.4155, 2, -37.0377, 0.653837, 20.5481, -160.567, -92.6087, 54.7939
3.42348, 2, -37.0377, 0.653837, 20.5481, -160.567, -92.6087, 54.794
3.43154, 2, -37.0377, 0.653854, 20.5481, -160.567, -92.6087, 54.794
3.43949, 2, -37.0377, 0.653862, 20.5481, -160.567, -92.6088, 54.794
3.44748, 2, -37.0377, 0.653858, 20.548, -160.567, -92.6088, 54.794
3.45556, 2, -37.0377, 0.653859, 20.548, -160.567, -92.6088, 54.794
3.46347, 2, -37.0377, 0.653864, 20.548, -160.567, -92.6088, 54.794
3.47147, 2, -37.0377, 0.653867, 20.548, -160.567, -92.6088, 54.7941
3.47956, 2, -37.0376, 0.653856, 20.548, -160.567, -92.6088, 54.7941
3.48853, 2, -37.0377, 0.653851, 20.548, -160.567, -92.6088, 54.7942
3.49549, 2, -37.0376, 0.653841, 20.548, -160.567, -92.6088, 54.7942
3.50357, 2, -37.0376, 0.653833, 20.548, -160.567, -92.6089, 54.7942
3.51253, 2, -37.0376, 0.653833, 20.548, -160.567, -92.6088, 54.7942
3.51948, 2, -37.0376, 0.65384, 20.548, -160.567, -92.6089, 54.7942
3.52755, 2, -37.0376, 0.653851, 20.5479, -160.567, -92.6088, 54.7942
3.53549, 2, -37.0376, 0.653871, 20.5479, -160.567, -92.6088, 54.7942
3.54348, 2, -37.0376, 0.653877, 20.5479, -160.567, -92.6088, 54.7942
3.55154, 2, -37.0375, 0.653861, 20.5479, -160.567, -92.6088, 54.7942
3.55948, 2, -37.0376, 0.653865, 20.5479, -160.567, -92.6088, 54.7942
3.56748, 2, -37.0376, 0.653885, 20.5479, -160.567, -92.6088, 54.7943
3.57556, 2, -37.0376, 0.653876, 20.5479, -160.567, -92.6088, 54.7943
3.5835, 2, -37.0376, 0.65386, 20.5479, -160.567, -92.6088, 54.7943
3.59148, 2, -37.0375, 0.653865, 20.5479, -160.567, -92.6088, 54.7943
3.59955, 2, -37.0375, 0.65386, 20.5479, -160.567, -92.6088, 54.7943
3.6075, 2, -37.0376, 0.65384, 20.5478, -160.567, -92.6088, 54.7943
3.61549, 2, -37.0376, 0.653851, 20.5478, -160.567, -92.6088, 54.7943
3.62357, 2, -37.0376, 0.653848, 20.5478, -160.567, -92.6088, 54.7943
3.63148, 2, -37.0375, 0.653859, 20.5478, -160.567, -92.6088, 54.7943
3.63962, 2, -37.0375, 0.653865, 20.5478, -160.567, -92.6088, 54.7944
3.64756, 2, -37.0375, 0.653885, 20.5478, -160.567, -92.6088, 54.7944
3.65549, 2, -37.0375, 0.653895, 20.5478, -160.567, -92.6089, 54.7944
3.66348, 2, -37.0375, 0.65391, 20.5478, -160.567, -92.6089, 54.7944
3.67161, 2, -37.0375, 0.653925, 20.5478, -160.567, -92.6089, 54.7943
3.67967, 2, -37.0375, 0.653902, 20.5478, -160.567, -92.6089, 54.7944
3.68757, 2, -37.0375, 0.653884, 20.5478, -160.567, -92.6088, 54.7943
3.69564, 2, -37.0375, 0.653868, 20.5478, -160.567, -92.6089, 54.7943
3.70354, 4, -37.0374, 0.653852, 20.5478, -160.567, -92.6089, 54.7943
3.71158, 4, -37.0374, 0.653872, 20.5478, -160.567, -92.6089, 54.7943
3.71965, 4, -37.0374, 0.653878, 20.5477, -160.567, -92.6089, 54.7943
3.72748, 4, -37.0374, 0.653902, 20.5477, -160.567, -92.6088, 54.7943
3.73552, 4, -37.0374, 0.653921, 20.5477, -160.567, -92.6089, 54.7943
3.74358, 4, -37.0373, 0.653919, 20.5477, -160.567, -92.6089, 54.7943
3.75155, 4, -37.0373, 0.653903, 20.5477, -160.567, -92.6089, 54.7943
3.75971, 4, -37.0373, 0.653898, 20.5477, -160.567, -92.6089, 54.7944
3.76805, 4, -37.0373, 0.653911, 20.5477, -160.566, -92.6089, 54.7944
3.77573, 4, -37.0373, 0.653925, 20.5477, -160.567, -92.6089, 54.7943
3.78376, 4, -37.0373, 0.65392, 20.5477, -160.567, -92.6089, 54.7944
3.79224, 4, -37.0373, 0.653893, 20.5477, -160.567, -92.6089, 54.7944
3.7999, 4, -37.0373, 0.653909, 20.5477, -160.566, -92.6089, 54.7944
3.82664, 4, -37.0373, 0.653891, 20.5476, -160.566, -92.6089, 54.7944
3.83346, 4, -37.0372, 0.653916, 20.5476, -160.566, -92.6089, 54.7944
3.83588, 4, -37.0372, 0.653916, 20.5476, -160.566, -92.6089, 54.7944
3.83794, 4, -37.0372, 0.653923, 20.5476, -160.566, -92.6089, 54.7944
3.84235, 4, -37.0372, 0.653927, 20.5476, -160.566, -92.6089, 54.7944
3.85239, 4, -37.0369, 0.653886, 20.5476, -160.566, -92.6089, 54.7944
3.85741, 4, -37.0369, 0.653886, 20.5476, -160.566, -92.6089, 54.7944
3.86348, 4, -37.0355, 0.653463, 20.5477, -160.566, -92.6089, 54.7944
3.87149, 4, -37.0314, 0.65173, 20.5481, -160.566, -92.6089, 54.7943
3.87967, 4, -37.0237, 0.647469, 20.5496, -160.566, -92.6089, 54.7943
3.88744, 4, -37.0122, 0.639787, 20.5535, -160.566, -92.6089, 54.7944
3.89548, 4, -36.9965, 0.628301, 20.5609, -160.565, -92.6089, 54.7944
3.90362, 5, -36.9755, 0.61229, 20.5734, -160.562, -92.6089, 54.7944
3.91148, 5, -36.9488, 0.591825, 20.592, -160.559, -92.6087, 54.7943
3.91948, 5, -36.9172, 0.566832, 20.6174, -160.553, -92.6084, 54.7943
3.92771, 5, -36.8809, 0.537368, 20.6497, -160.546, -92.608, 54.7943
3.93681, 5, -36.8397, 0.503348, 20.7097, -160.533, -92.6064, 54.7942
3.94348, 5, -36.7933, 0.464551, 20.7324, -160.528, -92.6057, 54.7942
3.95167, 5, -36.7416, 0.421494, 20.7809, -160.517, -92.6042, 54.7942
3.95971, 5, -36.6853, 0.374742, 20.8325, -160.505, -92.6024, 54.7942
3.96749, 5, -36.625, 0.325206, 20.8863, -160.493, -92.6006, 54.7942
3.97547, 5, -36.5608, 0.273591, 20.9412, -160.481, -92.5988, 54.7942
3.98354, 5, -36.4942, 0.220565, 20.9967, -160.469, -92.5969, 54.7942
3.99253, 5, -36.4264, 0.16695, 21.0522, -160.457, -92.595, 54.7942
4.00059, 5, -36.3578, 0.113073, 21.1079, -160.445, -92.5931, 54.7942
4.00957, 5, -36.2547, 0.0321747, 21.1911, -160.427, -92.5902, 54.7942
4.01547, 5, -36.2202, 0.00530323, 21.2189, -160.421, -92.5892, 54.7942
4.02773, 5, -36.117, -0.0750256, 21.3022, -160.403, -92.5861, 54.7943
4.0316, 5, -36.0827, -0.101706, 21.3299, -160.396, -92.5851, 54.7943
4.04044, 5, -36.0141, -0.154873, 21.3852, -160.384, -92.583, 54.7944
4.04753, 5, -35.9456, -0.207879, 21.4406, -160.371, -92.581, 54.7945
4.05546, 5, -35.8771, -0.260726, 21.4957, -160.358, -92.5789, 54.7949
4.06348, 5, -35.8083, -0.313413, 21.5508, -160.345, -92.5768, 54.7953
4.07153, 5, -35.7393, -0.366135, 21.6059, -160.333, -92.5747, 54.7959
4.07962, 5, -35.6702, -0.418812, 21.6607, -160.32, -92.5726, 54.7968
4.08756, 5, -35.6006, -0.471569, 21.7153, -160.308, -92.5706, 54.7978
4.09547, 5, -35.5309, -0.524405, 21.7698, -160.295, -92.5685, 54.7991
4.10362, 5, -35.4609, -0.577218, 21.8241, -160.282, -92.5663, 54.8005
4.11607, 5, -35.3554, -0.656406, 21.9052, -160.263, -92.5632, 54.8028
4.11951, 5, -35.3202, -0.682775, 21.9322, -160.257, -92.5621, 54.8036
4.12767, 5, -35.2496, -0.735493, 21.9862, -160.244, -92.5599, 54.8053
4.13644, 5, -35.1791, -0.787907, 22.0399, -160.23, -92.5578, 54.8072
4.14347, 5, -35.1084, -0.840147, 22.0937, -160.217, -92.5556, 54.8093
4.15295, 5, -35.0378, -0.8923, 22.1473, -160.204, -92.5534, 54.8116
4.15981, 5, -34.9673, -0.944109, 22.2007, -160.19, -92.5512, 54.8138
4.16746, 5, -34.8968, -0.995747, 22.2541, -160.178, -92.5489, 54.8163
4.17553, 5, -34.8263, -1.0472, 22.3074, -160.165, -92.5466, 54.8188
4.18401, 5, -34.7558, -1.0986, 22.3604, -160.152, -92.5443, 54.8215
4.19155, 5, -34.6851, -1.15005, 22.4133, -160.139, -92.5421, 54.8243
4.19958, 5, -34.6143, -1.20133, 22.466, -160.126, -92.5398, 54.8271
4.20795, 5, -34.5433, -1.25271, 22.5184, -160.113, -92.5375, 54.8302
4.21557, 5, -34.4721, -1.30409, 22.5709, -160.1, -92.5352, 54.8334
4.22352, 5, -34.4007, -1.35545, 22.6231, -160.086, -92.5329, 54.8366
4.23254, 5, -34.3292, -1.4068, 22.6753, -160.072, -92.5305, 54.8399
4.24222, 5, -34.2575, -1.45805, 22.7271, -160.058, -92.5282, 54.8434
4.24752, 5, -34.1856, -1.50912, 22.7791, -160.045, -92.5258, 54.847
4.25658, 5, -34.1136, -1.55997, 22.8308, -160.031, -92.5235, 54.8506
4.26362, 5, -34.0416, -1.61068, 22.8824, -160.018, -92.521, 54.8545
4.27172, 5, -33.9695, -1.66115, 22.934, -160.004, -92.5187, 54.8584
4.28007, 5, -33.8973, -1.71137, 22.9854, -159.991, -92.5163, 54.8624
4.28822, 5, -33.8251, -1.76146, 23.0367, -159.977, -92.5139, 54.8666
4.29657, 5, -33.753, -1.81145, 23.0878, -159.964, -92.5116, 54.8707
4.30498, 5, -33.6806, -1.86137, 23.1387, -159.949, -92.5092, 54.8749
4.31367, 5, -33.6083, -1.91121, 23.1894, -159.935, -92.5069, 54.8791
4.32004, 5, -33.5356, -1.9613, 23.2401, -159.921, -92.5046, 54.8834
4.32801, 5, -33.4629, -2.01164, 23.2906, -159.906, -92.5023, 54.8873
4.33689, 5, -33.39, -2.06227, 23.341, -159.892, -92.5001, 54.8904
4.34409, 5, -33.3174, -2.1133, 23.3914, -159.878, -92.4977, 54.892
4.35197, 6, -33.2811, -2.139, 23.4166, -159.871, -92.4965, 54.8924
4.3615, 6, -33.1729, -2.21726, 23.4926, -159.849, -92.4924, 54.8907
4.36996, 6, -33.1012, -2.27054, 23.5439, -159.834, -92.489, 54.8857
4.37542, 6, -33.0655, -2.29751, 23.5698, -159.826, -92.487, 54.8812
4.38549, 7, -32.9592, -2.38015, 23.6492, -159.799, -92.4789, 54.8612
4.39146, 7, -32.9241, -2.40828, 23.6762, -159.789, -92.4753, 54.8532
4.39947, 7, -32.8541, -2.46561, 23.7313, -159.769, -92.4669, 54.8357
4.4076, 7, -32.7847, -2.52447, 23.788, -159.748, -92.4564, 54.818
4.41548, 7, -32.716, -2.58491, 23.846, -159.726, -92.4438, 54.8007
4.42347, 8, -32.6479, -2.647, 23.9055, -159.702, -92.4293, 54.7839
4.43159, 8, -32.5806, -2.71083, 23.9663, -159.677, -92.4128, 54.767
4.43943, 8, -32.5139, -2.7764, 24.0281, -159.651, -92.3945, 54.7495
4.44752, 8, -32.4481, -2.84357, 24.091, -159.624, -92.3743, 54.7308
4.45546, 8, -32.3829, -2.91223, 24.155, -159.596, -92.3529, 54.7107
4.46347, 9, -32.3182, -2.98226, 24.2198, -159.567, -92.3304, 54.6888
4.47152, 9, -32.2542, -3.05357, 24.2857, -159.537, -92.3068, 54.6651
4.48135, 9, -32.1907, -3.12629, 24.3864, -159.49, -92.2689, 54.6266
4.49134, 9, -32.0966, -3.23762, 24.4548, -159.458, -92.2411, 54.5994
4.49545, 9, -32.0654, -3.2754, 24.4893, -159.441, -92.2266, 54.5853
4.50346, 10, -32.0036, -3.35193, 24.5592, -159.408, -92.197, 54.5559
4.51155, 10, -31.9424, -3.42981, 24.6301, -159.372, -92.1663, 54.5247
4.51945, 10, -31.8818, -3.50916, 24.702, -159.336, -92.1343, 54.4914
4.52987, 10, -31.7918, -3.63082, 24.812, -159.282, -92.0826, 54.4384
4.53561, 10, -31.7622, -3.67212, 24.8491, -159.263, -92.0647, 54.4202
4.54445, 11, -31.7033, -3.75578, 24.9241, -159.224, -92.0284, 54.383
4.55145, 11, -31.6448, -3.84094, 25, -159.185, -91.9911, 54.3438
4.5596, 11, -31.587, -3.92756, 25.0768, -159.145, -91.9516, 54.3028
4.57004, 11, -31.5011, -4.0602, 25.1939, -159.082, -91.8899, 54.2384
4.57551, 11, -31.4728, -4.10514, 25.2335, -159.06, -91.869, 54.2164
4.58342, 12, -31.4166, -4.19613, 25.3134, -159.018, -91.8256, 54.1714
4.59149, 12, -31.3607, -4.28854, 25.3944, -158.974, -91.7802, 54.1242
4.59951, 12, -31.3054, -4.38237, 25.4765, -158.928, -91.7343, 54.0754
4.60761, 12, -31.2506, -4.47752, 25.5597, -158.882, -91.6871, 54.0256
4.61575, 12, -31.1963, -4.57406, 25.6438, -158.836, -91.6377, 53.9741
4.62344, 13, -31.1425, -4.67204, 25.7288, -158.787, -91.5877, 53.9205
4.63158, 13, -31.0893, -4.77142, 25.8148, -158.738, -91.5362, 53.8658
4.63945, 13, -31.0366, -4.87224, 25.9018, -158.689, -91.4825, 53.81
4.64754, 13, -30.9843, -4.97465, 25.9899, -158.638, -91.4287, 53.752
4.65561, 13, -30.9327, -5.07847, 26.0791, -158.587, -91.3728, 53.6928
4.6644, 14, -30.8815, -5.1837, 26.1694, -158.535, -91.3156, 53.6326
4.67165, 14, -30.831, -5.29044, 26.2608, -158.481, -91.2578, 53.5704
4.68036, 14, -30.781, -5.39861, 26.353, -158.427, -91.1976, 53.5069
4.68838, 14, -30.7315, -5.50826, 26.4461, -158.372, -91.1372, 53.4427
4.69554, 14, -30.6826, -5.61949, 26.5402, -158.315, -91.0745, 53.3761
4.70452, 15, -30.634, -5.73214, 26.6354, -158.259, -91.0107, 53.3084
4.71156, 15, -30.586, -5.8462, 26.7317, -158.201, -90.9457, 53.2398
4.71955, 15, -30.5385, -5.96149, 26.8292, -158.142, -90.8788, 53.1688
4.7297, 15, -30.4916, -6.07821, 26.9278, -158.082, -90.8115, 53.0973
4.73577, 15, -30.4451, -6.19641, 27.0273, -158.022, -90.7419, 53.0237
4.74451, 15, -30.3991, -6.31593, 27.1276, -157.96, -90.6718, 52.9483
4.75149, 16, -30.3537, -6.43711, 27.2288, -157.897, -90.5994, 52.8721
4.7597, 16, -30.3087, -6.55974, 27.3312, -157.834, -90.5268, 52.7933
4.76758, 16, -30.2643, -6.68372, 27.4349, -157.77, -90.4521, 52.7142
4.77598, 16, -30.2203, -6.8092, 27.5396, -157.705, -90.3766, 52.6332
4.78406, 16, -30.1768, -6.93624, 27.6453, -157.639, -90.2992, 52.551
4.7918, 17, -30.1338, -7.06492, 27.7519, -157.572, -90.2209, 52.4678
4.79996, 17, -30.0912, -7.19511, 27.8593, -157.504, -90.1411, 52.3829
4.80868, 17, -30.0492, -7.32676, 27.9677, -157.435, -90.0599, 52.2971
4.81598, 17, -30.0078, -7.45966, 28.0773, -157.366, -89.9776, 52.2092
4.82417, 17, -29.9669, -7.59395, 28.1882, -157.295, -89.8938, 52.1207
4.83204, 18, -29.9264, -7.72967, 28.3001, -157.224, -89.8088, 52.0304
4.84004, 18, -29.8864, -7.86684, 28.4129, -157.151, -89.7223, 51.9392
4.84805, 18, -29.8666, -8.00539, 28.5265, -157.078, -89.6351, 51.846
4.85632, 18, -29.8078, -8.1451, 28.6411, -157.004, -89.5463, 51.752
4.86503, 18, -29.7885, -8.28618, 28.7569, -156.929, -89.4561, 51.6562
4.87261, 19, -29.7311, -8.42864, 28.8739, -156.853, -89.3651, 51.5597
4.88136, 19, -29.6935, -8.57274, 28.9921, -156.776, -89.2726, 51.4616
4.89056, 19, -29.6562, -8.71837, 29.1109, -156.698, -89.1786, 51.3628
4.89541, 19, -29.6378, -8.7917, 29.1706, -156.659, -89.1313, 51.3127
4.90343, 19, -29.6013, -8.93913, 29.2906, -156.58, -89.0361, 51.2126
4.91146, 20, -29.5654, -9.088, 29.4117, -156.5, -88.9395, 51.1104
4.91942, 20, -29.5298, -9.23844, 29.5341, -156.419, -88.8418, 51.0077
4.92746, 20, -29.4947, -9.39035, 29.6576, -156.338, -88.7434, 50.9033
4.93917, 20, -29.4429, -9.62052, 29.8443, -156.213, -88.5932, 50.7447
4.94345, 20, -29.4259, -9.69779, 29.9069, -156.172, -88.5427, 50.6913
4.95307, 21, -29.3757, -9.93163, 30.0964, -156.045, -88.3894, 50.529
4.95945, 21, -29.3591, -10.0103, 30.1601, -156.002, -88.3376, 50.4746
4.96753, 21, -29.3262, -10.1689, 30.2882, -155.916, -88.2335, 50.3646
4.97543, 21, -29.2937, -10.3287, 30.4174, -155.829, -88.1284, 50.2539
4.98527, 21, -29.2617, -10.4893, 30.6128, -155.697, -87.9686, 50.0862
4.99183, 22, -29.2302, -10.6511, 30.6784, -155.653, -87.915, 50.0297
4.99946, 22, -29.199, -10.8145, 30.8102, -155.563, -87.8068, 49.9165
5.00758, 22, -29.1681, -10.9791, 30.943, -155.473, -87.6975, 49.8022
5.01628, 22, -29.1377, -11.1446, 31.0767, -155.381, -87.5875, 49.687
5.02357, 22, -29.1077, -11.3112, 31.2113, -155.289, -87.476, 49.5709
5.03144, 22, -29.0781, -11.4793, 31.3469, -155.196, -87.3639, 49.4538
5.03949, 23, -29.0488, -11.649, 31.4833, -155.102, -87.2509, 49.3363
5.04744, 23, -29.0198, -11.8199, 31.6205, -155.007, -87.1368, 49.2179
5.05664, 23, -28.9914, -11.9914, 31.7584, -154.912, -87.0222, 49.0989
5.0636, 23, -28.9633, -12.1641, 31.8973, -154.815, -86.9064, 48.9796
5.07143, 23, -28.9356, -12.3384, 32.0371, -154.718, -86.7897, 48.8593
5.08018, 24, -28.9083, -12.5139, 32.1778, -154.62, -86.6721, 48.7388
5.08862, 24, -28.8811, -12.6899, 32.3193, -154.521, -86.5535, 48.6179
5.09546, 24, -28.8543, -12.8665, 32.4612, -154.421, -86.4343, 48.4959
5.10691, 24, -28.8148, -13.1343, 32.676, -154.269, -86.2535, 48.3118
5.11158, 24, -28.8018, -13.2242, 32.7481, -154.219, -86.1931, 48.2503
5.11945, 25, -28.7761, -13.4045, 32.8928, -154.116, -86.0715, 48.127
5.1275, 25, -28.7507, -13.5852, 33.038, -154.013, -85.949, 48.0035
5.13565, 25, -28.7253, -13.7673, 33.1839, -153.91, -85.8262, 47.8801
5.14362, 25, -28.7002, -13.9508, 33.3305, -153.805, -85.7022, 47.7563
5.15144, 25, -28.6755, -14.135, 33.478, -153.699, -85.5779, 47.6324
5.15948, 26, -28.6511, -14.3194, 33.6261, -153.593, -85.4529, 47.5086
5.16762, 26, -28.627, -14.5051, 33.7747, -153.486, -85.3272, 47.3842
5.17546, 26, -28.6031, -14.6923, 33.9239, -153.378, -85.2013, 47.2598
5.18378, 26, -28.5794, -14.8801, 34.0741, -153.27, -85.0744, 47.1357
5.19151, 26, -28.5557, -15.0681, 34.2249, -153.161, -84.9471, 47.0114
5.19953, 27, -28.5324, -15.2568, 34.376, -153.05, -84.8191, 46.8874
5.20827, 27, -28.5095, -15.4466, 34.5276, -152.94, -84.6909, 46.7642
5.21816, 27, -28.4865, -15.6368, 34.68, -152.828, -84.562, 46.6407
5.22395, 27, -28.4639, -15.8272, 34.8332, -152.716, -84.4327, 46.5175
5.23183, 27, -28.4415, -16.0187, 34.9866, -152.604, -84.3031, 46.3948
5.24032, 28, -28.4192, -16.2117, 35.1401, -152.49, -84.173, 46.2723
5.24826, 28, -28.3968, -16.4053, 35.2943, -152.376, -84.0425, 46.1502
5.25769, 28, -28.3746, -16.5992, 35.4493, -152.261, -83.9115, 46.0287
5.26463, 28, -28.3526, -16.7941, 35.6047, -152.146, -83.7805, 45.9078
5.2716, 28, -28.3305, -16.9899, 35.7602, -152.03, -83.649, 45.7879
5.27974, 28, -28.3086, -17.1857, 35.9161, -151.913, -83.5174, 45.6688
5.28867, 29, -28.2867, -17.3816, 36.0726, -151.796, -83.3853, 45.5506
5.29577, 29, -28.265, -17.5783, 36.2296, -151.678, -83.253, 45.4333
5.30828, 29, -28.2323, -17.8745, 36.465, -151.5, -83.0539, 45.2591
5.31228, 29, -28.2215, -17.9732, 36.5435, -151.44, -82.9875, 45.2014
5.32, 29, -28.2001, -18.171, 36.7014, -151.32, -82.8544, 45.0872
5.3289, 30, -28.1788, -18.3697, 36.8599, -151.199, -82.7211, 44.9738
5.33623, 30, -28.1574, -18.5689, 37.0184, -151.078, -82.5878, 44.8616
5.34488, 30, -28.1467, -18.768, 37.1767, -150.956, -82.454, 44.7508
5.35207, 30, -28.1255, -18.8678, 37.3355, -150.834, -82.3204, 44.6413
5.36008, 30, -28.1042, -19.0683, 37.4151, -150.772, -82.1859, 44.5333
5.36742, 31, -28.0828, -19.2696, 37.5748, -150.649, -82.1189, 44.4797
5.37542, 31, -28.0614, -19.4707, 37.7342, -150.525, -81.9848, 44.374
5.38343, 31, -28.0402, -19.6718, 37.8936, -150.4, -81.8504, 44.2697
5.39145, 31, -28.0189, -19.8734, 38.0538, -150.275, -81.7162, 44.1675
5.39944, 31, -27.9974, -20.0748, 38.2143, -150.149, -81.5817, 44.0665
5.40757, 32, -27.9759, -20.2756, 38.3743, -150.023, -81.4474, 43.9676
5.41686, 32, -27.9541, -20.5778, 38.6138, -149.833, -81.2461, 43.8232
5.42343, 32, -27.932, -20.6787, 38.6938, -149.77, -81.1792, 43.7762
5.43323, 32, -27.8983, -20.9805, 38.9339, -149.579, -80.9781, 43.639
5.44086, 32, -27.887, -21.0809, 39.0136, -149.451, -80.8449, 43.5509
5.44742, 33, -27.8641, -21.2819, 39.1726, -149.388, -80.7782, 43.508
5.45826, 33, -27.829, -21.5828, 39.4109, -149.196, -80.5793, 43.3841
5.46374, 33, -27.8172, -21.6825, 39.4903, -149.132, -80.5131, 43.3442
5.47314, 33, -27.7931, -21.9813, 39.7273, -148.941, -80.3155, 43.2299
5.47943, 33, -27.7683, -22.0809, 39.8059, -148.877, -80.2498, 43.1932
5.48839, 34, -27.7432, -22.2795, 39.9627, -148.75, -80.1186, 43.1228
5.49544, 34, -27.7176, -22.4769, 40.1194, -148.622, -79.9879, 43.0559
5.50442, 34, -27.6916, -22.6738, 40.2758, -148.494, -79.8571, 42.9912
5.51156, 34, -27.6652, -22.8706, 40.4312, -148.367, -79.7265, 42.9305
5.51946, 34, -27.6383, -23.0669, 40.5862, -148.239, -79.5957, 42.8733
5.5277, 35, -27.6108, -23.2624, 40.7415, -148.111, -79.4651, 42.8186
5.53542, 35, -27.5832, -23.458, 40.8966, -147.982, -79.3343, 42.7676
5.54348, 35, -27.5553, -23.654, 41.051, -147.853, -79.2039, 42.7203
5.55142, 35, -27.5272, -23.8493, 41.205, -147.724, -79.0737, 42.6763
5.55962, 35, -27.4988, -24.044, 41.359, -147.594, -78.9435, 42.6353
5.56844, 36, -27.47, -24.2389, 41.5132, -147.464, -78.8137, 42.5978
5.57644, 36, -27.4408, -24.4335, 41.6668, -147.334, -78.6838, 42.5646
5.58352, 36, -27.4114, -24.6273, 41.8196, -147.203, -78.5548, 42.5357
5.59149, 36, -27.3815, -24.8203, 41.9722, -147.072, -78.4258, 42.511
5.59944, 36, -27.3511, -25.0135, 42.1245, -146.941, -78.2974, 42.4905
5.60764, 37, -27.3198, -25.2061, 42.2758, -146.81, -78.1694, 42.4746
5.61549, 37, -27.2877, -25.3975, 42.426, -146.68, -78.0419, 42.4632
5.62342, 37, -27.2548, -25.5878, 42.5752, -146.55, -77.915, 42.4566
5.63276, 37, -27.2212, -25.7776, 42.7238, -146.42, -77.7882, 42.4538
5.6396, 37, -27.1867, -25.9663, 42.8712, -146.291, -77.6622, 42.4539
5.64748, 37, -27.1512, -26.1532, 43.0174, -146.163, -77.5363, 42.4598
5.65543, 38, -27.115, -26.3388, 43.1623, -146.036, -77.4113, 42.472
5.66343, 38, -27.078, -26.5239, 43.3065, -145.908, -77.2867, 42.4894
5.67148, 38, -27.0402, -26.7078, 43.45, -145.781, -77.1625, 42.5123
5.67945, 38, -27.0016, -26.8902, 43.5925, -145.654, -77.0388, 42.5407
5.68857, 38, -26.9622, -27.0716, 43.7341, -145.527, -76.9155, 42.5749
5.6964, 39, -26.9221, -27.2528, 43.8748, -145.401, -76.7927, 42.6154
5.70352, 39, -26.8812, -27.433, 44.0146, -145.275, -76.6699, 42.6618
5.71168, 39, -26.8394, -27.6117, 44.1535, -145.149, -76.5475, 42.7135
5.72127, 39, -26.7967, -27.7896, 44.2914, -145.023, -76.4251, 42.7714
5.72759, 39, -26.7533, -27.9673, 44.4281, -144.897, -76.3029, 42.8362
5.73543, 40, -26.7088, -28.1439, 44.5637, -144.773, -76.1808, 42.9062
5.74358, 40, -26.6634, -28.3187, 44.6983, -144.648, -76.0588, 42.9833
5.75151, 40, -26.617, -28.4922, 44.8317, -144.525, -75.9375, 43.0667
5.75978, 40, -26.5696, -28.6647, 44.9637, -144.402, -75.8161, 43.1561
5.76856, 40, -26.5212, -28.836, 45.0945, -144.28, -75.6956, 43.2527
5.7756, 41, -26.4717, -29.0055, 45.2239, -144.159, -75.5755, 43.3555
5.78502, 41, -26.4212, -29.1732, 45.3521, -144.038, -75.4555, 43.4654
5.79247, 41, -26.3695, -29.3399, 45.479, -143.918, -75.3363, 43.5819
5.80057, 41, -26.3165, -29.5054, 45.6045, -143.8, -75.2171, 43.7055
5.80785, 41, -26.2622, -29.6687, 45.7283, -143.682, -75.0988, 43.8364
5.81629, 42, -26.2066, -29.8301, 45.8502, -143.566, -74.9808, 43.9747
5.82481, 42, -26.1494, -29.9897, 45.9703, -143.451, -74.8632, 44.1203
5.83196, 42, -26.0906, -30.1475, 46.0882, -143.338, -74.7465, 44.2728
5.84105, 42, -26.03, -30.3031, 46.204, -143.227, -74.6299, 44.4326
5.84858, 42, -25.9679, -30.4561, 46.3176, -143.118, -74.5142, 44.5992
5.85605, 42, -25.9362, -30.6069, 46.4289, -143.011, -74.3989, 44.7732
5.86501, 43, -25.8714, -30.7554, 46.5381, -142.906, -74.284, 44.955
5.87141, 43, -25.8049, -30.8289, 46.5918, -142.854, -74.2267, 45.0488
5.87941, 43, -25.7368, -30.9742, 46.6979, -142.751, -74.1125, 45.2422
5.88755, 43, -25.6671, -31.1171, 46.802, -142.65, -73.9984, 45.4431
5.89545, 43, -25.5959, -31.2578, 46.9044, -142.551, -73.8852, 45.6519
5.90344, 44, -25.5231, -31.3966, 47.0047, -142.455, -73.7723, 45.8684
5.91155, 44, -25.4486, -31.5331, 47.1026, -142.36, -73.6603, 46.0928
5.91938, 44, -25.3721, -31.6677, 47.198, -142.267, -73.5488, 46.3255
5.92746, 44, -25.2941, -31.7996, 47.291, -142.177, -73.4377, 46.5663
5.93734, 44, -25.1735, -31.9924, 47.4261, -142.047, -73.2728, 46.9428
5.9434, 45, -25.1324, -32.0553, 47.4699, -142.005, -73.218, 47.0726
5.95147, 45, -25.0487, -32.1791, 47.5558, -141.923, -73.1088, 47.3385
5.96132, 45, -24.9189, -32.3593, 47.6792, -141.805, -72.9461, 47.7526
5.96821, 45, -24.8747, -32.4178, 47.7188, -141.767, -72.892, 47.8947
5.97543, 45, -24.7842, -32.5325, 47.7958, -141.694, -72.7844, 48.1852
5.98527, 46, -24.6914, -32.6438, 47.8698, -141.591, -72.624, 48.6373
5.99143, 46, -24.5964, -32.7517, 47.9409, -141.558, -72.5708, 48.7921
6.00041, 46, -24.4987, -32.8562, 48.0089, -141.494, -72.4654, 49.1078
6.0097, 46, -24.3481, -33.0061, 48.105, -141.408, -72.3085, 49.5975
6.01554, 46, -24.2968, -33.0542, 48.1353, -141.38, -72.2568, 49.7648
6.02441, 47, -24.1923, -33.1477, 48.1934, -141.329, -72.1544, 50.1053
6.03142, 47, -24.0855, -33.2371, 48.2478, -141.282, -72.053, 50.4539
6.0394, 47, -23.976, -33.3226, 48.2987, -141.238, -71.9527, 50.8113
6.04741, 47, -23.864, -33.404, 48.3459, -141.199, -71.8536, 51.1768
6.05547, 47, -23.7493, -33.4813, 48.3892, -141.166, -71.7557, 51.5512
6.06354, 48, -23.6317, -33.5543, 48.4286, -141.136, -71.659, 51.9345
6.07246, 48, -23.5115, -33.6228, 48.4638, -141.111, -71.564, 52.3262
6.07947, 48, -23.3886, -33.6867, 48.4949, -141.09, -71.4704, 52.7275
6.08745, 48, -23.2633, -33.7458, 48.5219, -141.075, -71.3785, 53.1383
6.09543, 48, -23.1354, -33.7999, 48.5445, -141.065, -71.2888, 53.5581
6.1034, 49, -23.0045, -33.8488, 48.5627, -141.06, -71.2008, 53.9868
6.11162, 49, -22.8708, -33.8924, 48.5764, -141.059, -71.1146, 54.4234
6.12282, 49, -22.6645, -33.9475, 48.5882, -141.068, -70.9897, 55.0926
6.1274, 49, -22.5943, -33.963, 48.5899, -141.074, -70.949, 55.3194
6.13554, 49, -22.4518, -33.9898, 48.5899, -141.092, -70.8697, 55.7785
6.14435, 50, -22.3066, -34.0105, 48.585, -141.115, -70.7927, 56.2453
6.1515, 50, -22.1587, -34.0251, 48.575, -141.145, -70.7188, 56.7187
6.15994, 50, -22.008, -34.0335, 48.5599, -141.18, -70.6475, 57.1999
6.16748, 50, -21.8546, -34.0358, 48.5395, -141.221, -70.5797, 57.6892
6.1754, 50, -21.6981, -34.032, 48.5136, -141.269, -70.5146, 58.1857
6.18448, 51, -21.5384, -34.0215, 48.4821, -141.323, -70.4538, 58.6893
6.19475, 51, -21.376, -34.0042, 48.4454, -141.384, -70.3958, 59.1987
6.19949, 51, -21.2108, -33.9801, 48.4031, -141.45, -70.3421, 59.7148
6.21313, 51, -20.9582, -33.9305, 48.3292, -141.562, -70.2682, 60.4999
6.21654, 51, -20.8728, -33.9104, 48.3017, -141.602, -70.2454, 60.7645
6.22365, 51, -20.6999, -33.8646, 48.2423, -141.688, -70.2031, 61.2975
6.23241, 52, -20.5243, -33.8108, 48.177, -141.78, -70.1659, 61.8372
6.23978, 52, -20.3461, -33.7492, 48.1057, -141.878, -70.133, 62.3835
6.24846, 52, -20.165, -33.6795, 48.0283, -141.982, -70.1044, 62.9364
6.25548, 52, -19.9811, -33.6015, 47.9447, -142.093, -70.081, 63.495
6.2635, 52, -19.7948, -33.5151, 47.8547, -142.211, -70.0631, 64.06
6.27162, 53, -19.6064, -33.4202, 47.7587, -142.334, -70.0506, 64.6307
6.27967, 53, -19.4161, -33.317, 47.6566, -142.464, -70.0436, 65.2061
6.288, 53, -19.2237, -33.2057, 47.5485, -142.599, -70.0415, 65.7849
6.29672, 53, -19.0296, -33.0862, 47.4347, -142.74, -70.0445, 66.3673
6.30376, 53, -18.8338, -32.9584, 47.3149, -142.886, -70.0537, 66.9527
6.31387, 54, -18.6362, -32.8223, 47.1893, -143.036, -70.069, 67.5393
6.32031, 54, -18.4368, -32.678, 47.0579, -143.191, -70.0911, 68.1267
6.32861, 54, -18.2354, -32.5254, 46.921, -143.351, -70.1199, 68.7157
6.33597, 54, -18.0326, -32.3646, 46.7785, -143.515, -70.1548, 69.3061
6.34818, 54, -17.7262, -32.1067, 46.5534, -143.769, -70.2196, 70.195
6.35262, 55, -17.6236, -32.016, 46.4752, -143.856, -70.2455, 70.4927
6.36001, 55, -17.5207, -31.9231, 46.3955, -143.945, -70.2732, 71.0917
6.36741, 55, -17.3138, -31.7302, 46.2313, -144.125, -70.3338, 71.3931
6.37545, 55, -17.1052, -31.5277, 46.0598, -144.311, -70.4037, 71.9987
6.38345, 55, -16.8949, -31.3144, 45.8806, -144.501, -70.4818, 72.609
6.39154, 56, -16.6829, -31.0904, 45.6942, -144.697, -70.5695, 73.2245
6.40159, 56, -16.362, -30.7349, 45.4017, -144.999, -70.7176, 74.1558
6.40745, 56, -16.2545, -30.6109, 45.3002, -145.101, -70.7716, 74.4676
6.41693, 56, -15.9317, -30.2227, 44.9854, -145.415, -70.9481, 75.4081
6.42486, 56, -15.8243, -29.9507, 44.7682, -145.629, -71.0773, 76.0381
6.43298, 57, -15.5008, -29.6679, 44.5436, -145.846, -71.2162, 76.6689
6.43947, 57, -15.3924, -29.5228, 44.4287, -145.955, -71.2891, 76.9847
6.44738, 57, -15.1748, -29.2248, 44.1948, -146.175, -71.4425, 77.6173
6.45778, 57, -14.8473, -28.7596, 43.8318, -146.51, -71.6905, 78.5664
6.46629, 57, -14.6295, -28.439, 43.5835, -146.733, -71.8675, 79.1965
6.47161, 58, -14.5208, -28.2757, 43.4578, -146.846, -71.9593, 79.511
6.48199, 58, -14.1964, -27.7748, 43.074, -147.181, -72.246, 80.4477
6.48897, 58, -14.0889, -27.6038, 42.9446, -147.292, -72.3453, 80.757
6.49546, 58, -13.8754, -27.2569, 42.6836, -147.513, -72.5492, 81.37
6.50443, 58, -13.6632, -26.9031, 42.4192, -147.732, -72.7599, 81.9768
6.51139, 58, -13.4523, -26.5431, 42.1526, -147.949, -72.9771, 82.5772
6.51945, 59, -13.2429, -26.1759, 41.8822, -148.163, -73.2016, 83.1715
6.52738, 59, -13.0352, -25.8019, 41.6082, -148.376, -73.4338, 83.7607
6.53539, 59, -12.8291, -25.421, 41.3305, -148.587, -73.6741, 84.3462
6.54357, 59, -12.6242, -25.0334, 41.0487, -148.797, -73.9228, 84.9285
6.55235, 59, -12.4203, -24.6379, 40.763, -149.005, -74.1808, 85.5073
6.55939, 60, -12.2173, -24.2347, 40.4722, -149.212, -74.4478, 86.0828
6.56755, 60, -12.0157, -23.8242, 40.1781, -149.416, -74.7239, 86.6555
6.57544, 60, -11.8156, -23.4074, 39.8802, -149.619, -75.0086, 87.2252
6.5834, 60, -11.6169, -22.9841, 39.5801, -149.819, -75.3017, 87.7895
6.59144, 60, -11.4206, -22.5557, 39.2778, -150.016, -75.602, 88.3487
6.59945, 61, -11.2268, -22.1233, 38.9743, -150.209, -75.9087, 88.9016
6.60741, 61, -11.0352, -21.6871, 38.6702, -150.397, -76.2205, 89.4462
6.61663, 61, -10.8457, -21.2476, 38.3656, -150.581, -76.5365, 89.9811
6.62355, 61, -10.6587, -20.8046, 38.0616, -150.759, -76.8567, 90.5064
6.63143, 61, -10.4741, -20.3582, 37.7575, -150.932, -77.1805, 91.0222
6.64014, 62, -10.2919, -19.9086, 37.4541, -151.1, -77.5082, 91.5288
6.64752, 62, -10.1128, -19.4561, 37.1502, -151.263, -77.8406, 92.0268
6.65543, 62, -9.93623, -19.0014, 36.846, -151.421, -78.178, 92.5168
6.66675, 62, -9.67632, -18.3144, 36.3877, -151.65, -78.694, 93.239
6.67161, 62, -9.59087, -18.0844, 36.235, -151.724, -78.8686, 93.476
6.67936, 63, -9.4215, -17.6235, 35.9292, -151.869, -79.2212, 93.9441
6.68762, 63, -9.25425, -17.1607, 35.624, -152.009, -79.5783, 94.4029
6.69547, 63, -9.08939, -16.6964, 35.3201, -152.144, -79.9387, 94.8519
6.70373, 63, -8.92707, -16.2303, 35.0173, -152.273, -80.302, 95.2914
6.71149, 63, -8.76734, -15.762, 34.716, -152.397, -80.6677, 95.7201
6.71966, 63, -8.61023, -15.292, 34.4162, -152.515, -81.0358, 96.1388
6.72839, 64, -8.45565, -14.8209, 34.1187, -152.628, -81.4064, 96.5464
6.73545, 64, -8.30348, -14.3489, 33.8217, -152.736, -81.7798, 96.9435
6.74408, 64, -8.15374, -13.8768, 33.5261, -152.839, -82.1564, 97.3307
6.75247, 64, -8.0064, -13.4048, 33.2312, -152.937, -82.5359, 97.707
6.75963, 64, -7.86147, -12.9335, 32.9381, -153.029, -82.9182, 98.0717
6.76856, 65, -7.71924, -12.4637, 32.6472, -153.116, -83.3021, 98.4248
6.77585, 65, -7.57978, -11.995, 32.3589, -153.197, -83.6876, 98.7649
6.78444, 65, -7.44338, -11.5276, 32.0744, -153.272, -84.0731, 99.0911
6.79256, 65, -7.30975, -11.0611, 31.7931, -153.342, -84.4588, 99.4035
6.80171, 66, -7.17914, -10.5962, 31.5161, -153.405, -84.8441, 99.7018
6.80869, 66, -7.05086, -10.1342, 31.2423, -153.463, -85.2284, 99.9849
6.8182, 66, -6.92474, -9.67572, 30.9725, -153.515, -85.6121, 100.252
6.82397, 66, -6.80075, -9.22259, 30.7071, -153.562, -85.9946, 100.504
6.83254, 66, -6.67903, -8.77551, 30.4452, -153.603, -86.375, 100.739
6.83993, 66, -6.55969, -8.33442, 30.1886, -153.638, -86.7522, 100.958
6.84952, 67, -6.44296, -7.90009, 29.9375, -153.667, -87.1254, 101.158
6.85621, 67, -6.38571, -7.68521, 29.6927, -153.691, -87.4936, 101.342
6.86392, 67, -6.27351, -7.26043, 29.5732, -153.701, -87.6755, 101.507
6.87345, 67, -6.11005, -6.63417, 29.2246, -153.721, -88.2126, 101.655
6.87937, 67, -6.05683, -6.42868, 29.1115, -153.725, -88.3888, 101.722
6.8874, 68, -5.95214, -6.02232, 28.8906, -153.73, -88.7376, 101.844
6.89549, 68, -5.84935, -5.6224, 28.6749, -153.731, -89.0827, 101.948
6.90336, 68, -5.7483, -5.22773, 28.4628, -153.727, -89.4252, 102.035
6.9114, 68, -5.64892, -4.83862, 28.2546, -153.718, -89.7663, 102.105
6.91951, 68, -5.55117, -4.45477, 28.0497, -153.705, -90.1067, 102.156
6.9274, 69, -5.45512, -4.07529, 27.8473, -153.688, -90.4464, 102.189
6.93689, 69, -5.31425, -3.51223, 27.5513, -153.654, -90.9556, 102.206
6.94489, 69, -5.22241, -3.14123, 27.3588, -153.625, -91.2944, 102.193
6.95332, 69, -5.13252, -2.77418, 27.1692, -153.592, -91.6324, 102.158
6.9594, 69, -5.08818, -2.59174, 27.0758, -153.574, -91.801, 102.133
6.96921, 70, -4.95729, -2.04946, 26.8022, -153.516, -92.3048, 102.024
6.97617, 70, -4.9143, -1.87082, 26.7128, -153.494, -92.472, 101.977
6.98339, 70, -4.82924, -1.51713, 26.5363, -153.448, -92.8052, 101.866
6.99238, 70, -4.7452, -1.16904, 26.3639, -153.399, -93.1364, 101.732
7.00043, 70, -4.66224, -0.826003, 26.1963, -153.347, -93.4654, 101.577
7.00736, 71, -4.58033, -0.489479, 26.0323, -153.291, -93.7914, 101.399
7.01635, 71, -4.49949, -0.159296, 25.8724, -153.233, -94.1144, 101.201
7.02353, 71, -4.41975, 0.163743, 25.7178, -153.172, -94.434, 100.982
7.0324, 71, -4.34084, 0.480561, 25.5686, -153.108, -94.7494, 100.743
7.04279, 71, -4.22406, 0.943871, 25.354, -153.009, -95.2153, 100.346
7.04863, 72, -4.18555, 1.09482, 25.2847, -152.975, -95.3687, 100.204
7.05537, 72, -4.10884, 1.39184, 25.1495, -152.907, -95.6728, 99.9043
7.06337, 72, -4.03245, 1.68175, 25.0182, -152.836, -95.9737, 99.5847
7.07137, 72, -3.95638, 1.96531, 24.8904, -152.764, -96.2721, 99.2445
7.07938, 72, -3.88041, 2.24299, 24.7657, -152.692, -96.5678, 98.8839
7.08737, 72, -3.80447, 2.51413, 24.6441, -152.619, -96.8611, 98.5016
7.09577, 73, -3.72869, 2.77949, 24.5256, -152.545, -97.1519, 98.0973
7.10441, 73, -3.65261, 3.03864, 24.4104, -152.471, -97.4402, 97.6711
7.11238, 73, -3.57624, 3.29118, 24.2989, -152.398, -97.7257, 97.2223
7.11964, 73, -3.49953, 3.53751, 24.1911, -152.325, -98.0081, 96.7525
7.12929, 73, -3.42244, 3.77685, 24.0874, -152.253, -98.2869, 96.262
7.13537, 74, -3.34471, 4.00779, 23.9877, -152.182, -98.5616, 95.7524
7.14451, 74, -3.26642, 4.23063, 23.8918, -152.112, -98.831, 95.2257
7.15139, 74, -3.18739, 4.44502, 23.8001, -152.045, -99.0948, 94.6843
7.15946, 74, -3.10769, 4.64984, 23.7125, -151.979, -99.3522, 94.1304
7.16737, 74, -3.02733, 4.84505, 23.6293, -151.915, -99.6023, 93.5647
7.17652, 75, -2.94613, 5.03099, 23.5503, -151.854, -99.8446, 92.9889
7.18356, 75, -2.86387, 5.20683, 23.4754, -151.797, -100.078, 92.4046
7.19741, 75, -2.73868, 5.45016, 23.3701, -151.715, -100.413, 91.5131
7.20023, 75, -2.69649, 5.52599, 23.3369, -151.689, -100.52, 91.2121
7.2076, 75, -2.61145, 5.66958, 23.2735, -151.641, -100.726, 90.6044
7.21552, 76, -2.52549, 5.80197, 23.2142, -151.595, -100.924, 89.9893
7.22361, 76, -2.43854, 5.92293, 23.1593, -151.554, -101.112, 89.3656
7.23147, 76, -2.35068, 6.0322, 23.1087, -151.517, -101.292, 88.7325
7.23993, 76, -2.26208, 6.12923, 23.0625, -151.483, -101.461, 88.0919
7.24844, 76, -2.17264, 6.21367, 23.0211, -151.453, -101.62, 87.4452
7.25849, 77, -2.08237, 6.28508, 22.9848, -151.427, -101.768, 86.7933
7.26436, 77, -1.99126, 6.34331, 22.9538, -151.405, -101.903, 86.14
7.27341, 77, -1.8992, 6.38796, 22.9285, -151.388, -102.025, 85.4888
7.28036, 77, -1.80628, 6.41839, 22.9088, -151.374, -102.132, 84.84
7.2876, 77, -1.7125, 6.43475, 22.8951, -151.364, -102.224, 84.1949
7.29602, 78, -1.61787, 6.43654, 22.8873, -151.358, -102.302, 83.5546
7.30476, 78, -1.52258, 6.42319, 22.8848, -151.354, -102.364, 82.9189
7.31178, 78, -1.42669, 6.39452, 22.888, -151.354, -102.41, 82.2862
7.32391, 78, -1.28215, 6.32213, 22.904, -151.359, -102.45, 81.3461
7.32829, 78, -1.23386, 6.28993, 22.9125, -151.363, -102.456, 81.0354
7.33852, 79, -1.13711, 6.21344, 22.9345, -151.373, -102.455, 80.4179
7.34476, 79, -1.04025, 6.12081, 22.9633, -151.385, -102.436, 79.8071
7.35198, 79, -0.943193, 6.01209, 22.9996, -151.401, -102.4, 79.2046
7.36095, 79, -0.846219, 5.88719, 23.0433, -151.42, -102.346, 78.6119
7.36852, 79, -0.74929, 5.74574, 23.0946, -151.442, -102.274, 78.0285
7.37607, 79, -0.700782, 5.66881, 23.1231, -151.454, -102.185, 77.4552
7.38336, 80, -0.603671, 5.50259, 23.1856, -151.479, -102.133, 77.1726
7.3924, 80, -0.457995, 5.22218, 23.2939, -151.52, -101.95, 76.3409
7.39948, 80, -0.409494, 5.12046, 23.3341, -151.534, -101.88, 76.0685
7.4112, 80, -0.264237, 4.78914, 23.4667, -151.58, -101.641, 75.2655
7.41539, 80, -0.215852, 4.66945, 23.5151, -151.596, -101.552, 75.0024
7.42349, 81, -0.119215, 4.41705, 23.6186, -151.63, -101.359, 74.4844
7.4328, 81, -0.0227097, 4.1481, 23.7905, -151.681, -101.035, 73.7239
7.43936, 81, 0.0735243, 3.86192, 23.8524, -151.699, -100.917, 73.4751
7.44982, 81, 0.217574, 3.40158, 24.0527, -151.754, -100.534, 72.7425
7.45576, 81, 0.265484, 3.23932, 24.1245, -151.773, -100.397, 72.5033
7.46575, 82, 0.408861, 2.72731, 24.3544, -151.828, -99.9565, 71.7999
7.47137, 82, 0.45654, 2.54831, 24.4356, -151.847, -99.8001, 71.57
7.48148, 82, 0.59913, 1.98796, 24.6933, -151.904, -99.303, 70.8951
7.48738, 82, 0.646567, 1.79298, 24.7841, -151.922, -99.1284, 70.6749
7.49548, 82, 0.741347, 1.39078, 24.9728, -151.959, -98.7661, 70.2425
7.50522, 83, 0.836079, 0.972351, 25.1705, -151.994, -98.3867, 69.6131
7.51143, 83, 0.930826, 0.539565, 25.378, -152.03, -97.9912, 69.4084
7.51936, 83, 1.02551, 0.0921523, 25.5959, -152.064, -97.5798, 69.0071
7.53117, 83, 1.16778, -0.606009, 25.939, -152.113, -96.9339, 68.4237
7.53662, 83, 1.21528, -0.845803, 26.058, -152.128, -96.7109, 68.2342
7.54409, 84, 1.31034, -1.33635, 26.3036, -152.158, -96.2538, 67.8626
7.55236, 84, 1.40559, -1.84041, 26.5588, -152.187, -95.7813, 67.4995
7.55936, 84, 1.50105, -2.3573, 26.8245, -152.215, -95.2939, 67.144
7.56736, 84, 1.5969, -2.88794, 27.1005, -152.241, -94.7905, 66.7961
7.57547, 84, 1.6931, -3.43211, 27.3867, -152.264, -94.2721, 66.4551
7.58355, 84, 1.78973, -3.98973, 27.6836, -152.287, -93.7387, 66.1207
7.59243, 85, 1.88657, -4.56013, 27.9903, -152.308, -93.19, 65.7938
7.60042, 85, 1.9837, -5.14164, 28.3073, -152.327, -92.6268, 65.4751
7.61146, 85, 2.13013, -6.03316, 28.7999, -152.351, -91.7599, 65.0114
7.61558, 85, 2.1792, -6.3349, 28.9686, -152.358, -91.4655, 64.8612
7.62454, 86, 2.27785, -6.94393, 29.3122, -152.369, -90.8694, 64.5679
7.63143, 86, 2.37711, -7.56027, 29.6638, -152.378, -90.2636, 64.2845
7.63936, 86, 2.47735, -8.18274, 30.0224, -152.383, -89.6486, 64.0112
7.64735, 86, 2.57865, -8.81135, 30.3874, -152.386, -89.0256, 63.7487
7.65549, 86, 2.68063, -9.44561, 30.758, -152.387, -88.398, 63.498
7.66353, 86, 2.78376, -10.0841, 31.1339, -152.385, -87.7663, 63.2588
7.67233, 87, 2.88796, -10.7265, 31.5155, -152.378, -87.1289, 63.0311
7.67944, 87, 2.99278, -11.3717, 31.9015, -152.368, -86.4862, 62.8156
7.68783, 87, 3.09876, -12.0198, 32.292, -152.355, -85.8386, 62.6125
7.69634, 87, 3.20559, -12.6704, 32.6872, -152.337, -85.1867, 62.422
7.70351, 87, 3.31306, -13.3241, 33.0878, -152.316, -84.5309, 62.2444
7.71146, 88, 3.42132, -13.9809, 33.4938, -152.29, -83.8695, 62.0795
7.71946, 88, 3.53011, -14.6405, 33.9047, -152.261, -83.2023, 61.9279
7.72752, 88, 3.63944, -15.302, 34.3212, -152.228, -82.5294, 61.7895
7.7382, 88, 3.74921, -15.9645, 34.743, -152.189, -81.8511, 61.6653
7.74368, 88, 3.85935, -16.6274, 35.1694, -152.146, -81.1697, 61.5565
7.75245, 89, 3.9698, -17.289, 35.5997, -152.098, -80.4858, 61.4641
7.75939, 89, 4.08033, -17.9485, 36.0323, -152.045, -79.8004, 61.3895
7.76971, 89, 4.19119, -18.6047, 36.466, -151.986, -79.1136, 61.3333
7.77599, 89, 4.30228, -19.257, 36.8998, -151.923, -78.4271, 61.297
7.78357, 89, 4.41342, -19.9037, 37.3323, -151.853, -77.746, 61.2801
7.79158, 90, 4.52467, -20.5439, 37.7624, -151.78, -77.0697, 61.2837
7.79975, 90, 4.6367, -21.1785, 38.1906, -151.7, -76.3969, 61.3118
7.80768, 90, 4.7491, -21.8072, 38.6168, -151.615, -75.7284, 61.3636
7.81587, 90, 4.86153, -22.43, 39.0405, -151.525, -75.0652, 61.4393
7.83051, 90, 5.03002, -23.3548, 39.6732, -151.379, -74.0799, 61.6015
7.8335, 91, 5.08614, -23.6609, 39.8836, -151.327, -73.7524, 61.6688
7.83994, 91, 5.19813, -24.2697, 40.304, -151.219, -73.0974, 61.8243
7.84849, 91, 5.30941, -24.8725, 40.7246, -151.104, -72.4421, 62.0081
7.85686, 91, 5.36474, -25.4701, 41.1452, -150.982, -71.7845, 62.2213
7.86396, 91, 5.4747, -25.7665, 41.5658, -150.853, -71.1257, 62.4645
7.8737, 92, 5.63855, -26.646, 41.9858, -150.718, -70.468, 62.7391
7.8794, 92, 5.69309, -26.9358, 42.1953, -150.648, -70.1395, 62.8883
7.88847, 92, 5.85747, -27.7934, 42.8188, -150.43, -69.1568, 63.3825
7.89535, 92, 5.91255, -28.0752, 43.0242, -150.355, -68.8307, 63.5626
7.90511, 92, 6.07898, -28.9069, 43.6328, -150.123, -67.8579, 64.151
7.91258, 92, 6.1914, -29.4485, 44.0309, -149.964, -67.2174, 64.582
7.91934, 93, 6.24814, -29.7152, 44.2274, -149.884, -66.8995, 64.8096
7.92909, 93, 6.42143, -30.4996, 44.8075, -149.639, -65.9515, 65.5404
7.93678, 93, 6.53982, -31.0111, 45.1871, -149.475, -65.3235, 66.0682
7.94544, 93, 6.66028, -31.516, 45.562, -149.31, -64.6975, 66.6315
7.95353, 93, 6.78306, -32.0149, 45.9323, -149.145, -64.0719, 67.2344
7.95939, 94, 6.8453, -32.2625, 46.1165, -149.061, -63.7582, 67.552
7.96909, 94, 7.03536, -32.9983, 46.6657, -148.811, -62.8082, 68.5777
7.97534, 94, 7.09969, -33.2404, 46.848, -148.727, -62.4884, 68.9462
7.98335, 94, 7.22999, -33.7188, 47.2109, -148.561, -61.8439, 69.7225
7.99287, 94, 7.3633, -34.1898, 47.5706, -148.399, -61.1933, 70.5504
7.99939, 95, 7.50061, -34.6527, 47.9239, -148.242, -60.5408, 71.433
8.0084, 95, 7.64294, -35.1052, 48.2689, -148.094, -59.8911, 72.3618
8.01639, 95, 7.79131, -35.5469, 48.6028, -147.958, -59.2464, 73.3317
8.02347, 95, 7.94604, -35.9751, 48.9244, -147.836, -58.6091, 74.3411
8.03233, 95, 8.1076, -36.3854, 49.2307, -147.731, -57.9804, 75.3835
8.03938, 96, 8.27604, -36.7758, 49.5215, -147.645, -57.3621, 76.4599
8.04735, 96, 8.45119, -37.1449, 49.7953, -147.577, -56.7584, 77.5656
8.05534, 96, 8.63229, -37.4909, 50.0523, -147.53, -56.1687, 78.7001
8.0634, 96, 8.81857, -37.812, 50.292, -147.504, -55.5939, 79.8569
8.07134, 96, 9.00954, -38.1074, 50.5124, -147.498, -55.0367, 81.0299
8.07941, 96, 9.20387, -38.378, 50.7133, -147.513, -54.4998, 82.2141
8.08734, 97, 9.39986, -38.6231, 50.8949, -147.55, -53.9857, 83.4084
8.09535, 97, 9.59619, -38.8428, 51.0558, -147.608, -53.4965, 84.6066
8.10346, 97, 9.79172, -39.038, 51.1964, -147.686, -53.0339, 85.799
8.11134, 97, 9.98581, -39.2084, 51.3174, -147.781, -52.6003, 86.9788
8.11936, 97, 10.1773, -39.3529, 51.4188, -147.892, -52.1965, 88.1379
8.12734, 97, 10.3651, -39.4721, 51.5011, -148.015, -51.8235, 89.2702
8.13531, 98, 10.5493, -39.5661, 51.5652, -148.149, -51.4812, 90.3686
8.14342, 98, 10.731, -39.6359, 51.6113, -148.292, -51.1691, 91.4345
8.15134, 98, 10.911, -39.683, 51.6399, -148.445, -50.8849, 92.4747
8.15943, 98, 11.0895, -39.7069, 51.6512, -148.609, -50.6252, 93.5045
8.16735, 98, 11.2659, -39.7075, 51.6459, -148.786, -50.3864, 94.5375
8.17548, 98, 11.4411, -39.6847, 51.6233, -148.975, -50.1662, 95.584
8.18334, 98, 11.6166, -39.638, 51.5831, -149.179, -49.9651, 96.6524
8.19144, 99, 11.7918, -39.568, 51.525, -149.395, -49.7844, 97.7416
8.20042, 99, 11.9655, -39.4755, 51.4485, -149.623, -49.6268, 98.8475
8.20764, 99, 12.1363, -39.3602, 51.3535, -149.86, -49.4956, 99.9589
8.21544, 99, 12.3036, -39.2226, 51.2405, -150.102, -49.3938, 101.066
8.22345, 99, 12.4655, -39.0629, 51.1101, -150.346, -49.323, 102.156
8.2315, 99, 12.6201, -38.8809, 50.9637, -150.589, -49.2828, 103.221
8.2398, 100, 12.7662, -38.6749, 50.8017, -150.829, -49.2742, 104.256
8.24932, 100, 12.9034, -38.4447, 50.6231, -151.064, -49.2975, 105.262
8.2564, 100, 13.0316, -38.1919, 50.4273, -151.293, -49.3523, 106.24
8.26338, 100, 13.1513, -37.9169, 50.2152, -151.516, -49.4383, 107.194
8.27386, 100, 13.263, -37.6211, 49.9853, -151.734, -49.5555, 108.123
8.27961, 100, 13.3664, -37.3024, 49.7372, -151.944, -49.7034, 109.032
8.28754, 101, 13.4616, -36.9598, 49.4726, -152.147, -49.8815, 109.919
8.29558, 101, 13.549, -36.5923, 49.1906, -152.342, -50.0892, 110.781
8.30371, 101, 13.6286, -36.1992, 48.8919, -152.527, -50.3267, 111.622
8.31256, 101, 13.7, -35.7809, 48.5754, -152.703, -50.594, 112.438
8.31977, 101, 13.7631, -35.3394, 48.2412, -152.869, -50.8925, 113.232
8.33295, 101, 13.8415, -34.6351, 47.7073, -153.097, -51.4002, 114.383
8.33657, 102, 13.8632, -34.389, 47.5209, -153.168, -51.586, 114.754
8.34392, 102, 13.8993, -33.879, 47.1352, -153.299, -51.9816, 115.48
8.35272, 102, 13.926, -33.3452, 46.7337, -153.417, -52.4096, 116.182
8.35994, 102, 13.9436, -32.7888, 46.3177, -153.522, -52.8697, 116.856
8.36851, 102, 13.953, -32.211, 45.8878, -153.613, -53.3594, 117.506
8.37533, 102, 13.9548, -31.9142, 45.6677, -153.653, -53.6144, 117.821
8.38338, 103, 13.9531, -31.3059, 45.2176, -153.723, -54.1438, 118.431
8.39246, 103, 13.9381, -30.3598, 44.5205, -153.804, -54.9815, 119.296
8.39934, 103, 13.9302, -30.0364, 44.2829, -153.825, -55.2708, 119.573
8.40738, 103, 13.9102, -29.3787, 43.8007, -153.856, -55.8626, 120.106
8.41668, 103, 13.8705, -28.3668, 43.0637, -153.882, -56.7816, 120.857
8.4233, 104, 13.8551, -28.024, 42.815, -153.886, -57.0947, 121.095
8.43266, 104, 13.8028, -26.9814, 42.0629, -153.881, -58.0534, 121.773
8.43939, 104, 13.7834, -26.6297, 41.8105, -153.874, -58.3804, 121.989
8.44733, 104, 13.7421, -25.9213, 41.3035, -153.854, -59.0442, 122.404
8.45684, 104, 13.6757, -24.8509, 40.5403, -153.808, -60.0613, 122.995
8.46503, 104, 13.6292, -24.1337, 40.0304, -153.768, -60.7492, 123.371
8.47133, 104, 13.6053, -23.774, 39.7756, -153.745, -61.0953, 123.555
8.48091, 104, 13.5311, -22.6921, 39.0123, -153.67, -62.142, 124.095
8.48895, 104, 13.5059, -21.9694, 38.5049, -153.612, -62.8438, 124.449
8.49715, 104, 13.4548, -21.6077, 38.2518, -153.551, -63.5476, 124.8
8.5034, 104, 13.4031, -20.8844, 37.7466, -153.519, -63.8996, 124.975
8.51237, 104, 13.3509, -20.1613, 37.2426, -153.451, -64.6036, 125.324
8.52033, 104, 13.2986, -19.438, 36.7408, -153.379, -65.3092, 125.67
8.52744, 104, 13.246, -18.7142, 36.2408, -153.303, -66.0162, 126.016
8.53533, 104, 13.1936, -17.9907, 35.7432, -153.223, -66.7239, 126.361
8.54333, 104, 13.1415, -17.2668, 35.248, -153.139, -67.4324, 126.706
8.5514, 104, 13.0896, -16.5424, 34.7547, -153.051, -68.14, 127.05
8.55932, 104, 13.0381, -15.8182, 34.2635, -152.96, -68.8486, 127.394
8.56733, 104, 12.9869, -15.0935, 33.7742, -152.864, -69.5595, 127.737
8.57541, 104, 12.9359, -14.3684, 33.2872, -152.764, -70.2709, 128.08
8.58334, 104, 12.8854, -13.6431, 32.8031, -152.661, -70.9812, 128.424
8.59133, 104, 12.8352, -12.9175, 32.3217, -152.554, -71.6915, 128.768
8.5994, 104, 12.7852, -12.192, 31.8428, -152.443, -72.4038, 129.112
8.60738, 104, 12.7357, -11.4669, 31.3666, -152.328, -73.1166, 129.457
8.61534, 104, 12.6866, -10.7416, 30.8929, -152.21, -73.8295, 129.802
8.62341, 104, 12.6377, -10.0159, 30.4219, -152.087, -74.5426, 130.148
8.63132, 104, 12.5893, -9.29033, 29.954, -151.96, -75.2554, 130.494
8.63932, 104, 12.5414, -8.56463, 29.4892, -151.829, -75.9697, 130.842
8.64739, 104, 12.4939, -7.83832, 29.0277, -151.695, -76.6845, 131.191
8.65535, 104, 12.4468, -7.11269, 28.5694, -151.556, -77.4001, 131.54
8.66335, 104, 12.4005, -6.38761, 28.1144, -151.412, -78.1152, 131.892
8.67156, 104, 12.3547, -5.66288, 27.6628, -151.265, -78.8292, 132.244
8.67933, 104, 12.3094, -4.93867, 27.2147, -151.114, -79.5441, 132.597
8.68733, 104, 12.265, -4.21594, 26.7711, -150.958, -80.2596, 132.952
8.69543, 104, 12.2216, -3.49563, 26.3324, -150.799, -80.9747, 133.307
8.70341, 104, 12.1793, -2.7801, 25.8985, -150.635, -81.686, 133.664
8.71149, 104, 12.1383, -2.07047, 25.4706, -150.468, -82.3933, 134.021
8.71951, 104, 12.0986, -1.3681, 25.05, -150.298, -83.0972, 134.376
8.72742, 104, 12.0598, -0.674316, 24.6378, -150.125, -83.7938, 134.73
8.73549, 104, 12.022, 0.00932165, 24.2354, -149.95, -84.4803, 135.081
8.74343, 104, 11.9852, 0.682195, 23.8438, -149.775, -85.1538, 135.427
8.75136, 104, 11.9494, 1.34281, 23.4647, -149.599, -85.813, 135.769
8.75957, 104, 11.9149, 1.99022, 23.098, -149.422, -86.4581, 136.105
8.76789, 104, 11.8816, 2.62249, 22.7439, -149.247, -87.0876, 136.434
8.77637, 104, 11.8491, 3.23852, 22.4021, -149.072, -87.7011, 136.757
8.78359, 104, 11.8182, 3.83825, 22.0738, -148.898, -88.2983, 137.073
8.79166, 104, 11.7884, 4.42099, 21.7581, -148.725, -88.8776, 137.383
8.79964, 104, 11.7599, 4.98724, 21.4548, -148.554, -89.4396, 137.685
8.80839, 104, 11.7328, 5.53641, 21.1627, -148.384, -89.9865, 137.981
8.81568, 104, 11.7067, 6.06826, 20.883, -148.217, -90.5171, 138.269
8.82382, 104, 11.6818, 6.58346, 20.6148, -148.052, -91.0312, 138.55
8.83247, 104, 11.6581, 7.08168, 20.3582, -147.889, -91.5289, 138.824
8.84013, 104, 11.6355, 7.56294, 20.1133, -147.729, -92.0091, 139.09
8.84866, 104, 11.6142, 8.0278, 19.879, -147.572, -92.4724, 139.349
8.8559, 104, 11.5939, 8.4759, 19.6558, -147.418, -92.9195, 139.6
8.86452, 104, 11.5842, 8.69355, 19.4436, -147.267, -93.3498, 139.843
8.87194, 104, 11.5657, 9.11547, 19.2415, -147.12, -93.7632, 140.078
8.88039, 104, 11.5399, 9.716, 19.0497, -146.978, -94.1597, 140.304
8.88731, 104, 11.5319, 9.90709, 18.9579, -146.908, -94.3515, 140.414
8.89536, 104, 11.5166, 10.2757, 18.7824, -146.772, -94.7213, 140.626
8.90332, 104, 11.5024, 10.625, 18.6169, -146.641, -95.0727, 140.83
8.91133, 104, 11.4892, 10.9553, 18.462, -146.516, -95.4049, 141.023
8.91943, 104, 11.477, 11.2654, 18.3183, -146.397, -95.7171, 141.205
8.92731, 104, 11.4658, 11.5549, 18.185, -146.285, -96.0088, 141.376
8.93532, 104, 11.4557, 11.8238, 18.0621, -146.18, -96.2794, 141.535
8.94337, 104, 11.4466, 12.0712, 17.95, -146.083, -96.5285, 141.682
8.95133, 104, 11.438, 12.2976, 17.8485, -145.993, -96.7556, 141.817
8.95938, 104, 11.4303, 12.5031, 17.7573, -145.911, -96.9608, 141.939
8.96888, 104, 11.4202, 12.7717, 17.6399, -145.804, -97.2272, 142.098
8.97697, 104, 11.4143, 12.9247, 17.5742, -145.744, -97.3773, 142.187
8.98516, 104, 11.409, 13.0582, 17.5181, -145.692, -97.5056, 142.264
8.99139, 104, 11.4065, 13.1178, 17.4936, -145.669, -97.562, 142.298
9.00096, 104, 11.4019, 13.2231, 17.4513, -145.613, -97.7005, 142.38
9.00736, 104, 11.3977, 13.3107, 17.4171, -145.598, -97.7375, 142.402
9.01634, 104, 11.3939, 13.3827, 17.3904, -145.573, -97.798, 142.44
9.02442, 104, 11.3903, 13.441, 17.3707, -145.554, -97.8429, 142.467
9.03132, 104, 11.3873, 13.4871, 17.3564, -145.54, -97.8752, 142.486
9.03944, 104, 11.3848, 13.5221, 17.3466, -145.531, -97.8975, 142.499
9.04731, 104, 11.3827, 13.5482, 17.3405, -145.525, -97.9121, 142.507
9.05532, 104, 11.3811, 13.5675, 17.3366, -145.522, -97.9206, 142.512
9.06337, 104, 11.3799, 13.5808, 17.3345, -145.52, -97.9253, 142.514
9.07132, 104, 11.3789, 13.5899, 17.3334, -145.519, -97.9276, 142.515
9.07934, 105, 11.3783, 13.596, 17.3328, -145.518, -97.9286, 142.516
9.08739, 105, 11.3778, 13.6, 17.3326, -145.518, -97.9291, 142.516
9.09532, 105, 11.3774, 13.6027, 17.3324, -145.518, -97.9293, 142.516
9.10347, 105, 11.3771, 13.6049, 17.3324, -145.518, -97.9294, 142.516
9.11139, 105, 11.3769, 13.6067, 17.3324, -145.518, -97.9294, 142.516
9.11937, 105, 11.3768, 13.6083, 17.3324, -145.518, -97.9295, 142.516
9.12733, 105, 11.3767, 13.6098, 17.3324, -145.518, -97.9295, 142.516
9.13538, 105, 11.3765, 13.611, 17.3324, -145.518, -97.9294, 142.516
9.14331, 105, 11.3765, 13.612, 17.3324, -145.518, -97.9292, 142.516
9.15132, 105, 11.3764, 13.6129, 17.3324, -145.518, -97.9291, 142.516
9.15942, 105, 11.3764, 13.6135, 17.3324, -145.518, -97.9289, 142.517
9.16734, 105, 11.3764, 13.614, 17.3325, -145.518, -97.9288, 142.516
9.17536, 105, 11.3764, 13.6143, 17.3325, -145.518, -97.9287, 142.516
9.18338, 105, 11.3764, 13.6145, 17.3325, -145.518, -97.9286, 142.516
9.19132, 105, 11.3764, 13.6146, 17.3326, -145.518, -97.9285, 142.517
