hehonglu123/Motion-Primitive-Planning/simulation/robotstudio_sim/multimove/wood/qp3_30L/curve_exe_v300_z10.csv
timestamp, cmd_num, J1, J2, J3, J4, J5, J6, J1_2, J2_2, J3_2, J4_2, J5_2, J6_2
0.002, -1, -28.4308, -12.4981, 30.5532, -164.547, -107.839, 56.8864, 56.8615, -16.4311, 26.5147, -20.5567, -98.604, -57.6973
0.006, -1, -28.4308, -12.4981, 30.5532, -164.547, -107.839, 56.8864, 56.8615, -16.4311, 26.5147, -20.5567, -98.604, -57.6973
0.01, -1, -28.4308, -12.4981, 30.5532, -164.547, -107.839, 56.8864, 56.8615, -16.4311, 26.5147, -20.5567, -98.604, -57.6973
0.011, -1, -28.4308, -12.4981, 30.5532, -164.547, -107.839, 56.8864, 56.8615, -16.4311, 26.5147, -20.5567, -98.604, -57.6973
0.013, -1, -28.4308, -12.4981, 30.5532, -164.547, -107.839, 56.8864, 56.8615, -16.4311, 26.5147, -20.5567, -98.604, -57.6973
0.016, -1, -28.4308, -12.4981, 30.5532, -164.547, -107.839, 56.8864, 56.8615, -16.4311, 26.5147, -20.5567, -98.604, -57.6973
0.02, -1, -28.4308, -12.4981, 30.5532, -164.547, -107.839, 56.8864, 56.8615, -16.4311, 26.5147, -20.5567, -98.604, -57.6973
0.024, -1, -28.4308, -12.4981, 30.5532, -164.547, -107.839, 56.8864, 56.8615, -16.4311, 26.5147, -20.5567, -98.604, -57.6973
0.028, -1, -28.4308, -12.4981, 30.5532, -164.547, -107.839, 56.8864, 56.8615, -16.4311, 26.5147, -20.5567, -98.604, -57.6973
0.032, -1, -28.4308, -12.4981, 30.5532, -164.547, -107.839, 56.8864, 56.8615, -16.4311, 26.5147, -20.5567, -98.604, -57.6973
0.036, -1, -28.4308, -12.4981, 30.5532, -164.547, -107.839, 56.8864, 56.8615, -16.4311, 26.5147, -20.5567, -98.604, -57.6973
0.04, -1, -28.4308, -12.4981, 30.5531, -164.547, -107.839, 56.8864, 56.8615, -16.4311, 26.5147, -20.5567, -98.604, -57.6973
0.044, -1, -28.4311, -12.4979, 30.5531, -164.547, -107.839, 56.8864, 56.8615, -16.4311, 26.5147, -20.5567, -98.604, -57.6973
0.048, -1, -28.4319, -12.4974, 30.553, -164.547, -107.839, 56.8864, 56.8615, -16.4311, 26.5147, -20.5567, -98.604, -57.6973
0.052, -1, -28.4337, -12.4963, 30.5526, -164.547, -107.839, 56.8864, 56.8614, -16.4311, 26.5147, -20.5567, -98.604, -57.6973
0.056, -1, -28.4365, -12.4944, 30.552, -164.547, -107.838, 56.8863, 56.8611, -16.431, 26.5147, -20.5567, -98.604, -57.6973
0.06, -1, -28.4404, -12.4915, 30.5509, -164.547, -107.837, 56.8863, 56.8599, -16.4307, 26.5144, -20.5565, -98.6039, -57.6975
0.064, -1, -28.4457, -12.4875, 30.5493, -164.547, -107.836, 56.8862, 56.857, -16.43, 26.5138, -20.556, -98.6038, -57.6979
0.068, -1, -28.4521, -12.4823, 30.5469, -164.546, -107.834, 56.886, 56.8515, -16.4286, 26.5125, -20.5547, -98.6037, -57.6991
0.072, -1, -28.4597, -12.4761, 30.5437, -164.546, -107.83, 56.8857, 56.8419, -16.4263, 26.5101, -20.5523, -98.6034, -57.7016
0.076, -1, -28.4682, -12.4688, 30.5394, -164.546, -107.825, 56.8852, 56.8265, -16.4226, 26.5059, -20.548, -98.603, -57.7063
0.08, -1, -28.4778, -12.4605, 30.5339, -164.545, -107.818, 56.8846, 56.8038, -16.4172, 26.4993, -20.5411, -98.6024, -57.7143
0.084, -1, -28.4887, -12.4509, 30.527, -164.545, -107.809, 56.8838, 56.7723, -16.4098, 26.4896, -20.5306, -98.6015, -57.7269
0.088, -1, -28.5012, -12.44, 30.5185, -164.544, -107.797, 56.8828, 56.7309, -16.4001, 26.4762, -20.5158, -98.6003, -57.7451
0.092, -1, -28.5153, -12.4276, 30.5083, -164.543, -107.783, 56.8816, 56.6786, -16.3879, 26.4587, -20.4961, -98.5989, -57.7699
0.096, -1, -28.5311, -12.4137, 30.4964, -164.542, -107.765, 56.8801, 56.6145, -16.373, 26.4366, -20.4711, -98.5971, -57.8016
0.1, -1, -28.5485, -12.3985, 30.4826, -164.54, -107.745, 56.8783, 56.5385, -16.3554, 26.41, -20.4408, -98.5949, -57.8404
0.104, -1, -28.5673, -12.3819, 30.4672, -164.539, -107.723, 56.8763, 56.451, -16.3352, 26.379, -20.4054, -98.5925, -57.886
0.108, -1, -28.5876, -12.3641, 30.45, -164.537, -107.697, 56.8741, 56.3524, -16.3125, 26.344, -20.3653, -98.5897, -57.9376
0.112, -1, -28.6091, -12.3452, 30.4313, -164.535, -107.669, 56.8716, 56.2437, -16.2873, 26.3053, -20.3211, -98.5867, -57.9944
0.116, -1, -28.6318, -12.3252, 30.4111, -164.533, -107.638, 56.8689, 56.126, -16.2601, 26.2636, -20.2735, -98.5834, -58.0556
0.12, -1, -28.6559, -12.3038, 30.3896, -164.531, -107.605, 56.8661, 56.001, -16.2312, 26.2195, -20.2232, -98.5799, -58.1203
0.124, -1, -28.6817, -12.281, 30.3669, -164.528, -107.571, 56.8631, 55.8701, -16.2009, 26.1733, -20.1706, -98.5762, -58.1877
0.128, -1, -28.7089, -12.2568, 30.3432, -164.526, -107.536, 56.8599, 55.7347, -16.1694, 26.1257, -20.1164, -98.5724, -58.257
0.131, -1, -28.7375, -12.2314, 30.3187, -164.523, -107.499, 56.8567, 55.5957, -16.1372, 26.077, -20.0611, -98.5685, -58.3279
0.136, -1, -28.7671, -12.2049, 30.2936, -164.521, -107.462, 56.8535, 55.4543, -16.1044, 26.0275, -20.0048, -98.5645, -58.3997
0.139, -1, -28.7977, -12.1775, 30.268, -164.518, -107.424, 56.8501, 55.3112, -16.0711, 25.9775, -19.9481, -98.5604, -58.4722
0.144, -1, -28.829, -12.1494, 30.242, -164.515, -107.385, 56.8468, 55.1669, -16.0376, 25.9272, -19.891, -98.5564, -58.545
0.148, -1, -28.8609, -12.1209, 30.2157, -164.513, -107.347, 56.8434, 55.0219, -16.0039, 25.8767, -19.8338, -98.5523, -58.618
0.152, -1, -28.8934, -12.092, 30.1893, -164.51, -107.308, 56.84, 54.8765, -15.9701, 25.8261, -19.7765, -98.5482, -58.691
0.156, -1, -28.9262, -12.0627, 30.1628, -164.507, -107.269, 56.8366, 54.7309, -15.9362, 25.7755, -19.7192, -98.5441, -58.764
0.16, -1, -28.9594, -12.0333, 30.1362, -164.504, -107.23, 56.8332, 54.5853, -15.9024, 25.725, -19.6619, -98.54, -58.8369
0.164, -1, -28.993, -12.0037, 30.1095, -164.502, -107.191, 56.8298, 54.4398, -15.8685, 25.6744, -19.6046, -98.5359, -58.9098
0.168, -1, -29.0267, -11.974, 30.0829, -164.499, -107.152, 56.8264, 54.2944, -15.8347, 25.6239, -19.5474, -98.5318, -58.9827
0.172, -1, -29.0604, -11.9443, 30.0562, -164.496, -107.113, 56.823, 54.149, -15.8009, 25.5734, -19.4902, -98.5277, -59.0555
0.176, -1, -29.0941, -11.9146, 30.0296, -164.494, -107.074, 56.8196, 54.0038, -15.7671, 25.523, -19.4331, -98.5236, -59.1283
0.18, -1, -29.1279, -11.8849, 30.003, -164.491, -107.035, 56.8162, 53.8586, -15.7334, 25.4725, -19.376, -98.5195, -59.201
0.184, -1, -29.1616, -11.8553, 29.9764, -164.488, -106.996, 56.8128, 53.7135, -15.6997, 25.4222, -19.3189, -98.5154, -59.2737
0.188, -1, -29.1952, -11.8256, 29.9498, -164.486, -106.958, 56.8094, 53.5686, -15.6659, 25.3718, -19.2619, -98.5113, -59.3464
0.192, -1, -29.2289, -11.796, 29.9232, -164.483, -106.919, 56.8061, 53.4236, -15.6322, 25.3215, -19.2049, -98.5072, -59.419
0.196, -1, -29.2625, -11.7664, 29.8967, -164.48, -106.88, 56.8027, 53.2788, -15.5986, 25.2712, -19.1479, -98.5031, -59.4915
0.2, -1, -29.2961, -11.7368, 29.8701, -164.478, -106.841, 56.7993, 53.1341, -15.5649, 25.2209, -19.091, -98.4991, -59.564
0.204, -1, -29.3297, -11.7073, 29.8436, -164.475, -106.803, 56.7959, 52.9895, -15.5313, 25.1707, -19.034, -98.495, -59.6365
0.208, -1, -29.3633, -11.6777, 29.8171, -164.472, -106.764, 56.7925, 52.8449, -15.4977, 25.1204, -18.9772, -98.4909, -59.7089
0.212, -1, -29.3968, -11.6482, 29.7906, -164.47, -106.725, 56.7892, 52.7004, -15.4641, 25.0703, -18.9203, -98.4868, -59.7813
0.216, -1, -29.4303, -11.6187, 29.7641, -164.467, -106.687, 56.7858, 52.5561, -15.4305, 25.0201, -18.8635, -98.4828, -59.8537
0.22, -1, -29.4639, -11.5892, 29.7377, -164.464, -106.648, 56.7824, 52.4118, -15.3969, 24.97, -18.8068, -98.4787, -59.926
0.224, -1, -29.4973, -11.5597, 29.7112, -164.461, -106.609, 56.779, 52.2676, -15.3634, 24.9199, -18.75, -98.4746, -59.9982
0.228, -1, -29.5308, -11.5302, 29.6848, -164.459, -106.571, 56.7757, 52.1234, -15.3299, 24.8699, -18.6933, -98.4706, -60.0704
0.232, -1, -29.5643, -11.5008, 29.6584, -164.456, -106.532, 56.7723, 51.9794, -15.2964, 24.8198, -18.6367, -98.4665, -60.1426
0.236, -1, -29.5977, -11.4714, 29.632, -164.453, -106.494, 56.7689, 51.8354, -15.2629, 24.7698, -18.58, -98.4625, -60.2147
0.24, -1, -29.6311, -11.442, 29.6056, -164.451, -106.455, 56.7656, 51.6916, -15.2295, 24.7199, -18.5234, -98.4584, -60.2868
0.244, -1, -29.6645, -11.4126, 29.5793, -164.448, -106.417, 56.7622, 51.5478, -15.196, 24.6699, -18.4669, -98.4544, -60.3588
0.248, -1, -29.6979, -11.3832, 29.5529, -164.445, -106.378, 56.7589, 51.4041, -15.1626, 24.62, -18.4103, -98.4503, -60.4308
0.252, -1, -29.7312, -11.3538, 29.5266, -164.443, -106.34, 56.7555, 51.2605, -15.1292, 24.5701, -18.3538, -98.4463, -60.5028
0.256, -1, -29.7645, -11.3245, 29.5003, -164.44, -106.301, 56.7521, 51.117, -15.0959, 24.5203, -18.2974, -98.4422, -60.5747
0.26, -1, -29.7978, -11.2952, 29.474, -164.437, -106.263, 56.7488, 50.9735, -15.0625, 24.4705, -18.2409, -98.4382, -60.6466
0.264, -1, -29.8311, -11.2659, 29.4477, -164.435, -106.224, 56.7454, 50.8302, -15.0292, 24.4207, -18.1845, -98.4341, -60.7184
0.268, -1, -29.8644, -11.2366, 29.4214, -164.432, -106.186, 56.7421, 50.6869, -14.9959, 24.3709, -18.1282, -98.4301, -60.7902
0.272, -1, -29.8976, -11.2073, 29.3952, -164.429, -106.148, 56.7387, 50.5438, -14.9626, 24.3212, -18.0718, -98.4261, -60.8619
0.276, -1, -29.9309, -11.1781, 29.3689, -164.427, -106.109, 56.7354, 50.4007, -14.9293, 24.2715, -18.0155, -98.422, -60.9336
0.28, -1, -29.9641, -11.1488, 29.3427, -164.424, -106.071, 56.7321, 50.2577, -14.896, 24.2218, -17.9593, -98.418, -61.0053
0.284, -1, -29.9973, -11.1196, 29.3165, -164.422, -106.033, 56.7287, 50.1147, -14.8628, 24.1722, -17.9031, -98.414, -61.0769
0.288, -1, -30.0304, -11.0904, 29.2903, -164.419, -105.995, 56.7254, 49.9719, -14.8296, 24.1226, -17.8469, -98.4099, -61.1484
0.292, -1, -30.0636, -11.0612, 29.2641, -164.416, -105.956, 56.722, 49.8292, -14.7964, 24.073, -17.7907, -98.4059, -61.22
0.296, -1, -30.0967, -11.0321, 29.238, -164.414, -105.918, 56.7187, 49.6865, -14.7632, 24.0234, -17.7346, -98.4019, -61.2914
0.3, -1, -30.1298, -11.0029, 29.2118, -164.411, -105.88, 56.7154, 49.5439, -14.7301, 23.9739, -17.6785, -98.3979, -61.3629
0.304, -1, -30.1629, -10.9738, 29.1857, -164.408, -105.842, 56.712, 49.4014, -14.6969, 23.9244, -17.6224, -98.3939, -61.4343
0.308, -1, -30.196, -10.9447, 29.1596, -164.406, -105.804, 56.7087, 49.259, -14.6638, 23.8749, -17.5664, -98.3898, -61.5056
0.312, -1, -30.229, -10.9156, 29.1335, -164.403, -105.766, 56.7054, 49.1167, -14.6307, 23.8255, -17.5104, -98.3858, -61.5769
0.316, -1, -30.2621, -10.8865, 29.1074, -164.4, -105.728, 56.7021, 48.9745, -14.5976, 23.7761, -17.4545, -98.3818, -61.6482
0.32, -1, -30.2951, -10.8575, 29.0813, -164.398, -105.69, 56.6987, 48.8323, -14.5646, 23.7267, -17.3985, -98.3778, -61.7194
0.324, -1, -30.3281, -10.8284, 29.0553, -164.395, -105.651, 56.6954, 48.6903, -14.5316, 23.6774, -17.3426, -98.3738, -61.7906
0.328, -1, -30.361, -10.7994, 29.0293, -164.392, -105.613, 56.6921, 48.5483, -14.4985, 23.6281, -17.2868, -98.3698, -61.8617
0.332, -1, -30.394, -10.7704, 29.0032, -164.39, -105.575, 56.6888, 48.4064, -14.4655, 23.5788, -17.231, -98.3658, -61.9328
0.336, -1, -30.4269, -10.7414, 28.9772, -164.387, -105.538, 56.6855, 48.2646, -14.4326, 23.5295, -17.1752, -98.3618, -62.0039
0.34, -1, -30.4598, -10.7125, 28.9513, -164.385, -105.5, 56.6821, 48.1229, -14.3996, 23.4803, -17.1194, -98.3578, -62.0749
0.344, -1, -30.4927, -10.6835, 28.9253, -164.382, -105.462, 56.6788, 47.9813, -14.3667, 23.4311, -17.0637, -98.3538, -62.1458
0.348, -1, -30.5256, -10.6546, 28.8993, -164.379, -105.424, 56.6755, 47.8397, -14.3338, 23.382, -17.008, -98.3498, -62.2168
0.352, -1, -30.5584, -10.6256, 28.8734, -164.377, -105.386, 56.6722, 47.6982, -14.3009, 23.3328, -16.9523, -98.3459, -62.2876
0.356, -1, -30.5913, -10.5967, 28.8475, -164.374, -105.348, 56.6689, 47.5569, -14.268, 23.2837, -16.8967, -98.3419, -62.3585
0.36, -1, -30.6241, -10.5679, 28.8216, -164.371, -105.31, 56.6656, 47.4155, -14.2351, 23.2346, -16.8411, -98.3379, -62.4293
0.364, -1, -30.6569, -10.539, 28.7957, -164.369, -105.272, 56.6623, 47.2743, -14.2023, 23.1856, -16.7856, -98.3339, -62.5
0.368, -1, -30.6897, -10.5101, 28.7698, -164.366, -105.235, 56.659, 47.1332, -14.1695, 23.1366, -16.73, -98.3299, -62.5707
0.372, -1, -30.7224, -10.4813, 28.7439, -164.364, -105.197, 56.6557, 46.9921, -14.1367, 23.0876, -16.6746, -98.326, -62.6414
0.376, -1, -30.7552, -10.4525, 28.7181, -164.361, -105.159, 56.6524, 46.8512, -14.1039, 23.0386, -16.6191, -98.322, -62.712
0.38, -1, -30.7879, -10.4237, 28.6922, -164.358, -105.121, 56.6491, 46.7103, -14.0711, 22.9897, -16.5637, -98.318, -62.7826
0.384, -1, -30.8206, -10.3949, 28.6664, -164.356, -105.084, 56.6458, 46.5695, -14.0384, 22.9408, -16.5083, -98.314, -62.8532
0.388, -1, -30.8533, -10.3661, 28.6406, -164.353, -105.046, 56.6425, 46.4287, -14.0057, 22.8919, -16.4529, -98.3101, -62.9237
0.392, -1, -30.8859, -10.3374, 28.6148, -164.35, -105.008, 56.6393, 46.2881, -13.973, 22.843, -16.3976, -98.3061, -62.9942
0.396, -1, -30.9186, -10.3086, 28.589, -164.348, -104.971, 56.636, 46.1475, -13.9403, 22.7942, -16.3423, -98.3022, -63.0646
0.4, -1, -30.9512, -10.2799, 28.5633, -164.345, -104.933, 56.6327, 46.007, -13.9076, 22.7454, -16.287, -98.2982, -63.135
0.404, -1, -30.9838, -10.2512, 28.5375, -164.343, -104.895, 56.6294, 45.8666, -13.8749, 22.6966, -16.2317, -98.2942, -63.2053
0.408, -1, -31.0164, -10.2225, 28.5118, -164.34, -104.858, 56.6261, 45.7263, -13.8423, 22.6479, -16.1765, -98.2903, -63.2757
0.412, -1, -31.049, -10.1939, 28.4861, -164.337, -104.82, 56.6228, 45.586, -13.8097, 22.5992, -16.1214, -98.2863, -63.3459
0.416, -1, -31.0815, -10.1652, 28.4604, -164.335, -104.783, 56.6196, 45.4459, -13.7771, 22.5505, -16.0662, -98.2824, -63.4161
0.42, -1, -31.114, -10.1366, 28.4347, -164.332, -104.745, 56.6163, 45.3058, -13.7445, 22.5018, -16.0111, -98.2784, -63.4863
0.424, -1, -31.1465, -10.108, 28.409, -164.33, -104.708, 56.613, 45.1658, -13.712, 22.4532, -15.956, -98.2745, -63.5565
0.428, -1, -31.179, -10.0794, 28.3834, -164.327, -104.67, 56.6098, 45.0259, -13.6794, 22.4046, -15.901, -98.2705, -63.6266
0.432, -1, -31.2115, -10.0508, 28.3577, -164.324, -104.633, 56.6065, 44.886, -13.6469, 22.356, -15.846, -98.2666, -63.6967
0.436, -1, -31.244, -10.0222, 28.3321, -164.322, -104.595, 56.6032, 44.7463, -13.6144, 22.3075, -15.791, -98.2627, -63.7667
0.44, -1, -31.2764, -9.99364, 28.3065, -164.319, -104.558, 56.6, 44.6066, -13.5819, 22.259, -15.736, -98.2587, -63.8367
0.444, -1, -31.3088, -9.96511, 28.2809, -164.317, -104.521, 56.5967, 44.467, -13.5495, 22.2105, -15.6811, -98.2548, -63.9066
0.448, -1, -31.3412, -9.93658, 28.2553, -164.314, -104.483, 56.5934, 44.3274, -13.517, 22.162, -15.6262, -98.2509, -63.9765
0.452, -1, -31.3736, -9.90808, 28.2297, -164.311, -104.446, 56.5902, 44.188, -13.4846, 22.1136, -15.5713, -98.2469, -64.0464
0.456, -1, -31.406, -9.87959, 28.2042, -164.309, -104.409, 56.5869, 44.0486, -13.4522, 22.0652, -15.5165, -98.243, -64.1162
0.46, -1, -31.4383, -9.85112, 28.1786, -164.306, -104.371, 56.5837, 43.9094, -13.4198, 22.0168, -15.4617, -98.2391, -64.186
0.464, -1, -31.4706, -9.82266, 28.1531, -164.304, -104.334, 56.5804, 43.7701, -13.3874, 21.9685, -15.4069, -98.2351, -64.2558
0.468, -1, -31.503, -9.79422, 28.1276, -164.301, -104.297, 56.5771, 43.631, -13.3551, 21.9201, -15.3522, -98.2312, -64.3255
0.472, -1, -31.5352, -9.7658, 28.1021, -164.299, -104.26, 56.5739, 43.492, -13.3228, 21.8718, -15.2975, -98.2273, -64.3951
0.476, -1, -31.5675, -9.7374, 28.0766, -164.296, -104.222, 56.5706, 43.353, -13.2904, 21.8236, -15.2428, -98.2234, -64.4647
0.48, -1, -31.5998, -9.70901, 28.0512, -164.293, -104.185, 56.5674, 43.2141, -13.2582, 21.7753, -15.1882, -98.2195, -64.5343
0.484, -1, -31.632, -9.68063, 28.0257, -164.291, -104.148, 56.5642, 43.0753, -13.2259, 21.7271, -15.1336, -98.2156, -64.6039
0.488, -1, -31.6642, -9.65227, 28.0003, -164.288, -104.111, 56.5609, 42.9366, -13.1936, 21.6789, -15.079, -98.2117, -64.6734
0.492, -1, -31.6964, -9.62393, 27.9749, -164.286, -104.074, 56.5577, 42.798, -13.1614, 21.6308, -15.0245, -98.2077, -64.7429
0.496, -1, -31.7286, -9.59561, 27.9495, -164.283, -104.037, 56.5544, 42.6594, -13.1292, 21.5827, -14.97, -98.2038, -64.8123
0.5, -1, -31.7607, -9.5673, 27.9241, -164.281, -104, 56.5512, 42.5209, -13.097, 21.5346, -14.9155, -98.1999, -64.8817
0.504, -1, -31.7929, -9.53901, 27.8987, -164.278, -103.963, 56.548, 42.3825, -13.0648, 21.4865, -14.861, -98.196, -64.951
0.508, -1, -31.825, -9.51073, 27.8733, -164.275, -103.926, 56.5447, 42.2442, -13.0326, 21.4384, -14.8066, -98.1921, -65.0203
0.512, -1, -31.8571, -9.48247, 27.848, -164.273, -103.889, 56.5415, 42.1059, -13.0005, 21.3904, -14.7522, -98.1882, -65.0896
0.516, -1, -31.8892, -9.45423, 27.8226, -164.27, -103.852, 56.5383, 41.9678, -12.9683, 21.3424, -14.6979, -98.1843, -65.1588
0.52, -1, -31.9213, -9.426, 27.7973, -164.268, -103.815, 56.535, 41.8297, -12.9362, 21.2945, -14.6435, -98.1805, -65.228
0.524, -1, -31.9533, -9.39779, 27.772, -164.265, -103.778, 56.5318, 41.6917, -12.9041, 21.2465, -14.5892, -98.1766, -65.2971
0.528, -1, -31.9853, -9.36959, 27.7467, -164.263, -103.741, 56.5286, 41.5537, -12.872, 21.1986, -14.535, -98.1727, -65.3663
0.532, -1, -32.0174, -9.34141, 27.7214, -164.26, -103.704, 56.5254, 41.4159, -12.84, 21.1507, -14.4807, -98.1688, -65.4353
0.536, -1, -32.0493, -9.31325, 27.6962, -164.258, -103.667, 56.5221, 41.2781, -12.808, 21.1029, -14.4265, -98.1649, -65.5043
0.54, -1, -32.0813, -9.28511, 27.6709, -164.255, -103.63, 56.5189, 41.1404, -12.7759, 21.0551, -14.3724, -98.161, -65.5733
0.544, -1, -32.1133, -9.25698, 27.6457, -164.252, -103.593, 56.5157, 41.0028, -12.7439, 21.0073, -14.3182, -98.1572, -65.6423
0.548, -1, -32.1452, -9.22886, 27.6205, -164.25, -103.556, 56.5125, 40.8653, -12.712, 20.9595, -14.2641, -98.1533, -65.7112
0.552, -1, -32.1771, -9.20076, 27.5953, -164.247, -103.52, 56.5093, 40.7278, -12.68, 20.9118, -14.21, -98.1494, -65.7801
0.556, -1, -32.209, -9.17268, 27.5701, -164.245, -103.483, 56.5061, 40.5905, -12.6481, 20.864, -14.156, -98.1455, -65.8489
0.56, -1, -32.2409, -9.14462, 27.5449, -164.242, -103.446, 56.5029, 40.4532, -12.6161, 20.8164, -14.102, -98.1417, -65.9177
0.564, -1, -32.2728, -9.11657, 27.5198, -164.24, -103.409, 56.4997, 40.3159, -12.5842, 20.7687, -14.048, -98.1378, -65.9864
0.568, -1, -32.3046, -9.08853, 27.4946, -164.237, -103.373, 56.4964, 40.1788, -12.5523, 20.7211, -13.994, -98.1339, -66.0552
0.572, -1, -32.3365, -9.06052, 27.4695, -164.235, -103.336, 56.4932, 40.0418, -12.5205, 20.6735, -13.9401, -98.1301, -66.1238
0.576, -1, -32.3683, -9.03251, 27.4444, -164.232, -103.299, 56.49, 39.9048, -12.4886, 20.6259, -13.8862, -98.1262, -66.1925
0.58, -1, -32.4001, -9.00453, 27.4193, -164.229, -103.263, 56.4868, 39.7679, -12.4568, 20.5783, -13.8324, -98.1223, -66.261
0.584, -1, -32.4318, -8.97656, 27.3942, -164.227, -103.226, 56.4836, 39.6311, -12.4249, 20.5308, -13.7785, -98.1185, -66.3296
0.588, -1, -32.4636, -8.94861, 27.3691, -164.224, -103.189, 56.4804, 39.4943, -12.3932, 20.4833, -13.7247, -98.1146, -66.3981
0.592, -1, -32.4953, -8.92067, 27.344, -164.222, -103.153, 56.4773, 39.3576, -12.3614, 20.4358, -13.671, -98.1108, -66.4666
0.596, -1, -32.527, -8.89275, 27.319, -164.219, -103.116, 56.4741, 39.2211, -12.3296, 20.3884, -13.6172, -98.1069, -66.535
0.6, -1, -32.5587, -8.86484, 27.294, -164.217, -103.08, 56.4709, 39.0845, -12.2979, 20.341, -13.5635, -98.1031, -66.6034
0.604, -1, -32.5904, -8.83695, 27.2689, -164.214, -103.043, 56.4677, 38.9481, -12.2661, 20.2936, -13.5098, -98.0992, -66.6718
0.608, -1, -32.6221, -8.80908, 27.2439, -164.212, -103.007, 56.4645, 38.8118, -12.2344, 20.2462, -13.4562, -98.0954, -66.7401
0.612, -1, -32.6537, -8.78122, 27.2189, -164.209, -102.97, 56.4613, 38.6755, -12.2027, 20.1989, -13.4026, -98.0916, -66.8084
0.616, -1, -32.6854, -8.75338, 27.194, -164.207, -102.934, 56.4581, 38.5393, -12.1711, 20.1516, -13.349, -98.0877, -66.8766
0.62, -1, -32.717, -8.72555, 27.169, -164.204, -102.897, 56.4549, 38.4032, -12.1394, 20.1043, -13.2955, -98.0839, -66.9448
0.624, -1, -32.7486, -8.69774, 27.1441, -164.202, -102.861, 56.4518, 38.2671, -12.1078, 20.0571, -13.2419, -98.08, -67.013
0.628, -1, -32.7802, -8.66994, 27.1191, -164.199, -102.824, 56.4486, 38.1311, -12.0762, 20.0098, -13.1884, -98.0762, -67.0811
0.632, -1, -32.8117, -8.64216, 27.0942, -164.197, -102.788, 56.4454, 37.9952, -12.0446, 19.9626, -13.135, -98.0724, -67.1492
0.636, -1, -32.8433, -8.6144, 27.0693, -164.194, -102.752, 56.4422, 37.8594, -12.013, 19.9155, -13.0815, -98.0686, -67.2172
0.64, -1, -32.8748, -8.58665, 27.0444, -164.192, -102.715, 56.4391, 37.7237, -11.9814, 19.8683, -13.0281, -98.0647, -67.2853
0.644, -1, -32.9063, -8.55891, 27.0195, -164.189, -102.679, 56.4359, 37.588, -11.9499, 19.8212, -12.9748, -98.0609, -67.3532
0.648, -1, -32.9378, -8.53119, 26.9947, -164.186, -102.643, 56.4327, 37.4524, -11.9183, 19.7741, -12.9214, -98.0571, -67.4212
0.652, -1, -32.9693, -8.50349, 26.9698, -164.184, -102.606, 56.4296, 37.3169, -11.8868, 19.727, -12.8681, -98.0533, -67.4891
0.656, -1, -33.0007, -8.4758, 26.945, -164.181, -102.57, 56.4264, 37.1814, -11.8553, 19.68, -12.8148, -98.0494, -67.5569
0.66, -1, -33.0321, -8.44813, 26.9202, -164.179, -102.534, 56.4232, 37.046, -11.8238, 19.633, -12.7615, -98.0456, -67.6248
0.664, -1, -33.0636, -8.42047, 26.8954, -164.176, -102.498, 56.4201, 36.9107, -11.7924, 19.586, -12.7083, -98.0418, -67.6926
0.668, -1, -33.095, -8.39282, 26.8706, -164.174, -102.461, 56.4169, 36.7755, -11.7609, 19.539, -12.6551, -98.038, -67.7603
0.672, -1, -33.1264, -8.36519, 26.8458, -164.171, -102.425, 56.4137, 36.6404, -11.7295, 19.492, -12.6019, -98.0342, -67.828
0.676, -1, -33.1577, -8.33758, 26.821, -164.169, -102.389, 56.4106, 36.5053, -11.6981, 19.4451, -12.5488, -98.0304, -67.8957
0.68, -1, -33.1891, -8.30998, 26.7963, -164.166, -102.353, 56.4074, 36.3702, -11.6667, 19.3982, -12.4957, -98.0266, -67.9634
0.684, -1, -33.2204, -8.28239, 26.7715, -164.164, -102.317, 56.4043, 36.2353, -11.6353, 19.3514, -12.4426, -98.0228, -68.031
0.688, -1, -33.2517, -8.25482, 26.7468, -164.161, -102.281, 56.4011, 36.1004, -11.604, 19.3045, -12.3895, -98.019, -68.0986
0.692, -1, -33.283, -8.22727, 26.7221, -164.159, -102.244, 56.398, 35.9656, -11.5726, 19.2577, -12.3365, -98.0152, -68.1661
0.696, -1, -33.3143, -8.19973, 26.6974, -164.156, -102.208, 56.3948, 35.8309, -11.5413, 19.2109, -12.2835, -98.0114, -68.2336
0.7, -1, -33.3456, -8.1722, 26.6727, -164.154, -102.172, 56.3917, 35.6963, -11.51, 19.1641, -12.2305, -98.0076, -68.3011
0.704, -1, -33.3769, -8.14469, 26.648, -164.151, -102.136, 56.3885, 35.5617, -11.4787, 19.1174, -12.1776, -98.0038, -68.3685
0.708, -1, -33.4081, -8.1172, 26.6233, -164.149, -102.1, 56.3854, 35.4272, -11.4474, 19.0707, -12.1246, -98, -68.4359
0.712, -1, -33.4393, -8.08972, 26.5987, -164.146, -102.064, 56.3822, 35.2927, -11.4161, 19.024, -12.0717, -97.9962, -68.5033
0.716, -1, -33.4705, -8.06225, 26.574, -164.144, -102.028, 56.3791, 35.1584, -11.3849, 18.9773, -12.0189, -97.9924, -68.5706
0.72, -1, -33.5017, -8.0348, 26.5494, -164.141, -101.992, 56.376, 35.0241, -11.3537, 18.9307, -11.966, -97.9886, -68.6379
0.724, -1, -33.5329, -8.00736, 26.5248, -164.139, -101.956, 56.3728, 34.8899, -11.3225, 18.884, -11.9132, -97.9849, -68.7051
0.728, -1, -33.564, -7.97994, 26.5002, -164.136, -101.921, 56.3697, 34.7557, -11.2913, 18.8374, -11.8605, -97.9811, -68.7723
0.732, -1, -33.5951, -7.95253, 26.4756, -164.134, -101.885, 56.3666, 34.6217, -11.2601, 18.7909, -11.8077, -97.9773, -68.8395
0.736, -1, -33.6263, -7.92514, 26.451, -164.131, -101.849, 56.3634, 34.4877, -11.2289, 18.7443, -11.755, -97.9735, -68.9066
0.74, -1, -33.6574, -7.89776, 26.4265, -164.129, -101.813, 56.3603, 34.3537, -11.1978, 18.6978, -11.7023, -97.9697, -68.9737
0.744, -1, -33.6884, -7.8704, 26.4019, -164.126, -101.777, 56.3572, 34.2199, -11.1666, 18.6513, -11.6496, -97.966, -69.0408
0.748, -1, -33.7195, -7.84305, 26.3774, -164.124, -101.741, 56.354, 34.0861, -11.1355, 18.6048, -11.597, -97.9622, -69.1078
0.752, -1, -33.7506, -7.81572, 26.3529, -164.122, -101.705, 56.3509, 33.9524, -11.1044, 18.5584, -11.5444, -97.9584, -69.1748
0.756, -1, -33.7816, -7.7884, 26.3284, -164.119, -101.67, 56.3478, 33.8187, -11.0734, 18.512, -11.4918, -97.9547, -69.2418
0.76, -1, -33.8126, -7.76109, 26.3039, -164.117, -101.634, 56.3447, 33.6852, -11.0423, 18.4656, -11.4393, -97.9509, -69.3087
0.764, -1, -33.8436, -7.7338, 26.2794, -164.114, -101.598, 56.3415, 33.5517, -11.0113, 18.4192, -11.3868, -97.9471, -69.3756
0.768, -1, -33.8746, -7.70653, 26.255, -164.112, -101.562, 56.3384, 33.4182, -10.9802, 18.3729, -11.3343, -97.9434, -69.4425
0.772, -1, -33.9056, -7.67927, 26.2305, -164.109, -101.527, 56.3353, 33.2849, -10.9492, 18.3266, -11.2818, -97.9396, -69.5093
0.776, -1, -33.9365, -7.65202, 26.2061, -164.107, -101.491, 56.3322, 33.1516, -10.9182, 18.2803, -11.2294, -97.9359, -69.5761
0.78, -1, -33.9675, -7.62479, 26.1816, -164.104, -101.455, 56.3291, 33.0184, -10.8873, 18.234, -11.177, -97.9321, -69.6428
0.784, -1, -33.9984, -7.59758, 26.1572, -164.102, -101.42, 56.326, 32.8853, -10.8563, 18.1877, -11.1246, -97.9284, -69.7095
0.788, -1, -34.0293, -7.57037, 26.1328, -164.099, -101.384, 56.3228, 32.7522, -10.8254, 18.1415, -11.0722, -97.9246, -69.7762
0.792, -1, -34.0602, -7.54319, 26.1084, -164.097, -101.348, 56.3197, 32.6192, -10.7944, 18.0953, -11.0199, -97.9209, -69.8428
0.796, -1, -34.091, -7.51601, 26.0841, -164.094, -101.313, 56.3166, 32.4863, -10.7635, 18.0492, -10.9676, -97.9171, -69.9094
0.8, -1, -34.1219, -7.48886, 26.0597, -164.092, -101.277, 56.3135, 32.3534, -10.7326, 18.003, -10.9153, -97.9134, -69.976
0.804, -1, -34.1527, -7.46171, 26.0354, -164.089, -101.242, 56.3104, 32.2206, -10.7017, 17.9569, -10.8631, -97.9096, -70.0425
0.808, -1, -34.1835, -7.43458, 26.011, -164.087, -101.206, 56.3073, 32.0879, -10.6709, 17.9108, -10.8109, -97.9059, -70.109
0.812, -1, -34.2143, -7.40747, 25.9867, -164.084, -101.171, 56.3042, 31.9553, -10.64, 17.8647, -10.7587, -97.9021, -70.1755
0.816, -1, -34.2451, -7.38037, 25.9624, -164.082, -101.135, 56.3011, 31.8227, -10.6092, 17.8187, -10.7065, -97.8984, -70.2419
0.82, -1, -34.2759, -7.35328, 25.9381, -164.08, -101.1, 56.298, 31.6902, -10.5784, 17.7727, -10.6544, -97.8947, -70.3083
0.824, -1, -34.3067, -7.32621, 25.9138, -164.077, -101.064, 56.2949, 31.5578, -10.5476, 17.7267, -10.6023, -97.8909, -70.3746
0.828, -1, -34.3374, -7.29916, 25.8895, -164.075, -101.029, 56.2918, 31.4254, -10.5168, 17.6807, -10.5502, -97.8872, -70.441
0.832, -1, -34.3681, -7.27211, 25.8653, -164.072, -100.993, 56.2887, 31.2931, -10.4861, 17.6347, -10.4982, -97.8835, -70.5072
0.836, -1, -34.3988, -7.24509, 25.841, -164.07, -100.958, 56.2856, 31.1609, -10.4553, 17.5888, -10.4462, -97.8798, -70.5735
0.84, -1, -34.4295, -7.21807, 25.8168, -164.067, -100.923, 56.2826, 31.0288, -10.4246, 17.5429, -10.3942, -97.876, -70.6397
0.844, -1, -34.4602, -7.19108, 25.7926, -164.065, -100.887, 56.2795, 30.8967, -10.3939, 17.497, -10.3422, -97.8723, -70.7059
0.848, -1, -34.4908, -7.16409, 25.7684, -164.062, -100.852, 56.2764, 30.7647, -10.3632, 17.4512, -10.2903, -97.8686, -70.772
0.852, -1, -34.5215, -7.13712, 25.7442, -164.06, -100.817, 56.2733, 30.6328, -10.3325, 17.4054, -10.2384, -97.8649, -70.8381
0.856, -1, -34.5521, -7.11017, 25.72, -164.057, -100.781, 56.2702, 30.5009, -10.3018, 17.3596, -10.1865, -97.8612, -70.9042
0.86, -1, -34.5827, -7.08323, 25.6959, -164.055, -100.746, 56.2671, 30.3691, -10.2712, 17.3138, -10.1346, -97.8574, -70.9702
0.864, -1, -34.6133, -7.0563, 25.6717, -164.053, -100.711, 56.2641, 30.2374, -10.2406, 17.268, -10.0828, -97.8537, -71.0362
0.868, -1, -34.6438, -7.02939, 25.6476, -164.05, -100.675, 56.261, 30.1057, -10.2099, 17.2223, -10.031, -97.85, -71.1022
0.872, -1, -34.6744, -7.00249, 25.6234, -164.048, -100.64, 56.2579, 29.9742, -10.1794, 17.1766, -9.97926, -97.8463, -71.1681
0.876, -1, -34.7049, -6.97561, 25.5993, -164.045, -100.605, 56.2548, 29.8427, -10.1488, 17.1309, -9.92752, -97.8426, -71.234
0.88, -1, -34.7355, -6.94874, 25.5752, -164.043, -100.57, 56.2518, 29.7112, -10.1182, 17.0853, -9.87581, -97.8389, -71.2999
0.884, -1, -34.766, -6.92188, 25.5511, -164.04, -100.535, 56.2487, 29.5798, -10.0877, 17.0396, -9.82413, -97.8352, -71.3657
0.888, -1, -34.7965, -6.89504, 25.5271, -164.038, -100.5, 56.2456, 29.4485, -10.0571, 16.994, -9.77247, -97.8315, -71.4315
0.892, -1, -34.8269, -6.86822, 25.503, -164.035, -100.464, 56.2426, 29.3173, -10.0266, 16.9485, -9.72084, -97.8278, -71.4972
0.896, -1, -34.8574, -6.8414, 25.4789, -164.033, -100.429, 56.2395, 29.1861, -9.9961, 16.9029, -9.66924, -97.8241, -71.5629
0.9, -1, -34.8878, -6.81461, 25.4549, -164.031, -100.394, 56.2364, 29.0551, -9.96562, 16.8574, -9.61767, -97.8204, -71.6286
0.904, -1, -34.9183, -6.78782, 25.4309, -164.028, -100.359, 56.2334, 28.924, -9.93515, 16.8119, -9.56612, -97.8167, -71.6943
0.908, -1, -34.9487, -6.76106, 25.4069, -164.026, -100.324, 56.2303, 28.7931, -9.9047, 16.7664, -9.5146, -97.813, -71.7599
0.912, -1, -34.9791, -6.7343, 25.3829, -164.023, -100.289, 56.2272, 28.6622, -9.87427, 16.7209, -9.46311, -97.8093, -71.8254
0.916, -1, -35.0094, -6.70756, 25.3589, -164.021, -100.254, 56.2242, 28.5314, -9.84385, 16.6755, -9.41164, -97.8056, -71.891
0.92, -1, -35.0398, -6.68083, 25.3349, -164.018, -100.219, 56.2211, 28.4007, -9.81345, 16.6301, -9.36021, -97.802, -71.9565
0.924, -1, -35.0702, -6.65412, 25.3109, -164.016, -100.184, 56.2181, 28.27, -9.78306, 16.5847, -9.3088, -97.7983, -72.022
0.928, -1, -35.1005, -6.62743, 25.287, -164.014, -100.149, 56.215, 28.1394, -9.7527, 16.5393, -9.25742, -97.7946, -72.0874
0.932, -1, -35.1308, -6.60074, 25.2631, -164.011, -100.114, 56.212, 28.0089, -9.72234, 16.494, -9.20606, -97.7909, -72.1528
0.936, -1, -35.1611, -6.57407, 25.2391, -164.009, -100.079, 56.2089, 27.8784, -9.692, 16.4487, -9.15473, -97.7872, -72.2182
0.94, -1, -35.1914, -6.54742, 25.2152, -164.006, -100.044, 56.2059, 27.748, -9.66168, 16.4034, -9.10343, -97.7836, -72.2835
0.944, -1, -35.2216, -6.52078, 25.1913, -164.004, -100.009, 56.2028, 27.6177, -9.63138, 16.3581, -9.05216, -97.7799, -72.3488
0.948, -1, -35.2519, -6.49415, 25.1675, -164.002, -99.9744, 56.1998, 27.4874, -9.60109, 16.3129, -9.00092, -97.7762, -72.4141
0.952, -1, -35.2821, -6.46754, 25.1436, -163.999, -99.9396, 56.1967, 27.3573, -9.57082, 16.2677, -8.9497, -97.7725, -72.4793
0.956, -1, -35.3123, -6.44094, 25.1197, -163.997, -99.9047, 56.1937, 27.2271, -9.54056, 16.2225, -8.89851, -97.7689, -72.5445
0.96, -1, -35.3425, -6.41435, 25.0959, -163.994, -99.8699, 56.1907, 27.0971, -9.51032, 16.1773, -8.84734, -97.7652, -72.6096
0.964, -1, -35.3727, -6.38778, 25.072, -163.992, -99.8351, 56.1876, 26.9671, -9.48009, 16.1322, -8.79621, -97.7616, -72.6748
0.968, -1, -35.4029, -6.36122, 25.0482, -163.989, -99.8003, 56.1846, 26.8372, -9.44988, 16.087, -8.7451, -97.7579, -72.7399
0.972, -1, -35.4331, -6.33468, 25.0244, -163.987, -99.7656, 56.1815, 26.7074, -9.41969, 16.0419, -8.69401, -97.7542, -72.8049
0.976, -1, -35.4632, -6.30815, 25.0006, -163.985, -99.7308, 56.1785, 26.5776, -9.38951, 15.9969, -8.64296, -97.7506, -72.8699
0.98, -1, -35.4933, -6.28163, 24.9768, -163.982, -99.6961, 56.1755, 26.4479, -9.35935, 15.9518, -8.59192, -97.7469, -72.9349
0.984, -1, -35.5234, -6.25513, 24.9531, -163.98, -99.6614, 56.1725, 26.3182, -9.3292, 15.9068, -8.54092, -97.7433, -72.9999
0.988, -1, -35.5535, -6.22864, 24.9293, -163.977, -99.6267, 56.1694, 26.1886, -9.29907, 15.8618, -8.48994, -97.7396, -73.0648
0.992, -1, -35.5836, -6.20216, 24.9056, -163.975, -99.592, 56.1664, 26.0591, -9.26895, 15.8168, -8.43898, -97.736, -73.1297
0.996, -1, -35.6137, -6.1757, 24.8818, -163.973, -99.5573, 56.1634, 25.9297, -9.23884, 15.7718, -8.38805, -97.7323, -73.1946
1, -1, -35.6437, -6.14925, 24.8581, -163.97, -99.5227, 56.1603, 25.8003, -9.20876, 15.7269, -8.33715, -97.7287, -73.2594
1.004, -1, -35.6737, -6.12281, 24.8344, -163.968, -99.4881, 56.1573, 25.6709, -9.17869, 15.6819, -8.28627, -97.725, -73.3242
1.008, -1, -35.7038, -6.09639, 24.8107, -163.965, -99.4535, 56.1543, 25.5417, -9.14863, 15.6371, -8.23542, -97.7214, -73.389
1.012, -1, -35.7338, -6.06998, 24.787, -163.963, -99.4189, 56.1513, 25.4125, -9.11858, 15.5922, -8.18459, -97.7177, -73.4537
1.016, -1, -35.7637, -6.04358, 24.7633, -163.961, -99.3843, 56.1483, 25.2834, -9.08856, 15.5473, -8.13378, -97.7141, -73.5184
1.02, -1, -35.7937, -6.0172, 24.7396, -163.958, -99.3497, 56.1452, 25.1543, -9.05854, 15.5025, -8.083, -97.7105, -73.5831
1.024, -1, -35.8237, -5.99083, 24.716, -163.956, -99.3152, 56.1422, 25.0253, -9.02854, 15.4577, -8.03225, -97.7068, -73.6477
1.027, -1, -35.8536, -5.96447, 24.6923, -163.953, -99.2807, 56.1392, 24.8963, -8.99856, 15.4129, -7.98152, -97.7032, -73.7123
1.032, -1, -35.8836, -5.93812, 24.6687, -163.951, -99.2461, 56.1362, 24.7675, -8.96859, 15.3681, -7.93082, -97.6996, -73.7769
1.036, -1, -35.9135, -5.91179, 24.6451, -163.949, -99.2117, 56.1332, 24.6387, -8.93864, 15.3234, -7.88014, -97.6959, -73.8414
1.04, -1, -35.9434, -5.88547, 24.6215, -163.946, -99.1772, 56.1302, 24.5099, -8.9087, 15.2787, -7.82948, -97.6923, -73.9059
1.044, -1, -35.9733, -5.85917, 24.5979, -163.944, -99.1427, 56.1272, 24.3812, -8.87877, 15.234, -7.77886, -97.6887, -73.9704
1.048, -1, -36.0031, -5.83287, 24.5743, -163.941, -99.1083, 56.1242, 24.2526, -8.84886, 15.1893, -7.72825, -97.685, -74.0348
1.052, -1, -36.033, -5.80659, 24.5507, -163.939, -99.0739, 56.1212, 24.124, -8.81897, 15.1446, -7.67767, -97.6814, -74.0993
1.055, -1, -36.0628, -5.78032, 24.5272, -163.937, -99.0395, 56.1182, 23.9955, -8.78909, 15.1, -7.62712, -97.6778, -74.1636
1.06, -1, -36.0926, -5.75407, 24.5036, -163.934, -99.0051, 56.1152, 23.8671, -8.75922, 15.0554, -7.57659, -97.6742, -74.228
1.064, -1, -36.1224, -5.72783, 24.4801, -163.932, -98.9707, 56.1121, 23.7387, -8.72937, 15.0108, -7.52609, -97.6706, -74.2923
1.068, -1, -36.1522, -5.7016, 24.4565, -163.93, -98.9363, 56.1091, 23.6104, -8.69953, 14.9663, -7.47561, -97.6669, -74.3566
1.072, -1, -36.182, -5.67538, 24.433, -163.927, -98.902, 56.1062, 23.4822, -8.66971, 14.9217, -7.42515, -97.6633, -74.4209
1.076, -1, -36.2118, -5.64918, 24.4095, -163.925, -98.8677, 56.1032, 23.354, -8.6399, 14.8772, -7.37472, -97.6597, -74.4851
1.08, -1, -36.2415, -5.62299, 24.386, -163.922, -98.8334, 56.1002, 23.2259, -8.61011, 14.8327, -7.32432, -97.6561, -74.5493
1.084, -1, -36.2713, -5.59682, 24.3626, -163.92, -98.7991, 56.0972, 23.0978, -8.58033, 14.7882, -7.27394, -97.6525, -74.6134
1.088, -1, -36.301, -5.57065, 24.3391, -163.918, -98.7648, 56.0942, 22.9698, -8.55057, 14.7438, -7.22358, -97.6489, -74.6776
1.091, -1, -36.3307, -5.5445, 24.3156, -163.915, -98.7306, 56.0912, 22.8419, -8.52082, 14.6993, -7.17325, -97.6453, -74.7417
1.096, -1, -36.3604, -5.51836, 24.2922, -163.913, -98.6963, 56.0882, 22.714, -8.49109, 14.6549, -7.12294, -97.6417, -74.8057
1.1, -1, -36.3901, -5.49224, 24.2687, -163.911, -98.6621, 56.0852, 22.5862, -8.46137, 14.6105, -7.07266, -97.6381, -74.8698
1.104, -1, -36.4198, -5.46612, 24.2453, -163.908, -98.6279, 56.0822, 22.4585, -8.43167, 14.5661, -7.02241, -97.6345, -74.9338
1.108, -1, -36.4494, -5.44002, 24.2219, -163.906, -98.5937, 56.0792, 22.3308, -8.40197, 14.5218, -6.97218, -97.6309, -74.9977
1.112, -1, -36.479, -5.41394, 24.1985, -163.903, -98.5596, 56.0763, 22.2032, -8.3723, 14.4775, -6.92197, -97.6273, -75.0617
1.116, -1, -36.5087, -5.38786, 24.1751, -163.901, -98.5254, 56.0733, 22.0757, -8.34264, 14.4332, -6.87179, -97.6237, -75.1256
1.119, -1, -36.5383, -5.3618, 24.1517, -163.899, -98.4913, 56.0703, 21.9482, -8.31299, 14.3889, -6.82163, -97.6201, -75.1895
1.124, -1, -36.5679, -5.33575, 24.1284, -163.896, -98.4572, 56.0673, 21.8207, -8.28336, 14.3446, -6.77149, -97.6165, -75.2533
1.128, -1, -36.5974, -5.30972, 24.105, -163.894, -98.4231, 56.0643, 21.6934, -8.25374, 14.3004, -6.72139, -97.6129, -75.3171
1.132, -1, -36.627, -5.28369, 24.0817, -163.892, -98.389, 56.0614, 21.5661, -8.22414, 14.2562, -6.6713, -97.6093, -75.3809
1.136, -1, -36.6565, -5.25768, 24.0584, -163.889, -98.3549, 56.0584, 21.4388, -8.19455, 14.212, -6.62124, -97.6057, -75.4447
1.14, -1, -36.6861, -5.23168, 24.035, -163.887, -98.3209, 56.0554, 21.3116, -8.16498, 14.1678, -6.57121, -97.6022, -75.5084
1.144, -1, -36.7156, -5.2057, 24.0117, -163.885, -98.2868, 56.0524, 21.1845, -8.13542, 14.1236, -6.52119, -97.5986, -75.5721
1.147, -1, -36.7451, -5.17973, 23.9884, -163.882, -98.2528, 56.0495, 21.0575, -8.10587, 14.0795, -6.47121, -97.595, -75.6357
1.152, -1, -36.7746, -5.15377, 23.9651, -163.88, -98.2188, 56.0465, 20.9305, -8.07634, 14.0354, -6.42125, -97.5914, -75.6994
1.156, -1, -36.8041, -5.12782, 23.9419, -163.877, -98.1848, 56.0435, 20.8036, -8.04683, 13.9913, -6.37131, -97.5878, -75.763
1.16, -1, -36.8335, -5.10189, 23.9186, -163.875, -98.1508, 56.0406, 20.6767, -8.01732, 13.9473, -6.3214, -97.5843, -75.8265
1.164, -1, -36.863, -5.07596, 23.8954, -163.873, -98.1169, 56.0376, 20.5499, -7.98784, 13.9032, -6.27151, -97.5807, -75.8901
1.168, -1, -36.8924, -5.05005, 23.8721, -163.87, -98.083, 56.0346, 20.4231, -7.95836, 13.8592, -6.22164, -97.5771, -75.9536
1.172, -1, -36.9218, -5.02416, 23.8489, -163.868, -98.049, 56.0317, 20.2965, -7.92891, 13.8152, -6.1718, -97.5735, -76.017
1.175, -1, -36.9512, -4.99827, 23.8257, -163.866, -98.0151, 56.0287, 20.1698, -7.89946, 13.7712, -6.12199, -97.57, -76.0805
1.18, -1, -36.9806, -4.9724, 23.8025, -163.863, -97.9812, 56.0258, 20.0433, -7.87003, 13.7272, -6.0722, -97.5664, -76.1439
1.184, -1, -37.01, -4.94655, 23.7793, -163.861, -97.9474, 56.0228, 19.9168, -7.84062, 13.6833, -6.02243, -97.5628, -76.2073
1.188, -1, -37.0394, -4.9207, 23.7561, -163.859, -97.9135, 56.0199, 19.7903, -7.81121, 13.6394, -5.97268, -97.5593, -76.2706
1.192, -1, -37.0687, -4.89487, 23.7329, -163.856, -97.8797, 56.0169, 19.664, -7.78183, 13.5955, -5.92297, -97.5557, -76.3339
1.196, -1, -37.098, -4.86905, 23.7097, -163.854, -97.8459, 56.0139, 19.5377, -7.75246, 13.5516, -5.87327, -97.5521, -76.3972
1.2, -1, -37.1274, -4.84324, 23.6866, -163.852, -97.8121, 56.011, 19.4114, -7.7231, 13.5078, -5.8236, -97.5486, -76.4605
1.204, -1, -37.1567, -4.81744, 23.6635, -163.849, -97.7783, 56.008, 19.2852, -7.69375, 13.4639, -5.77396, -97.545, -76.5237
1.208, -1, -37.186, -4.79166, 23.6403, -163.847, -97.7445, 56.0051, 19.1591, -7.66442, 13.4201, -5.72433, -97.5415, -76.5869
1.212, -1, -37.2152, -4.76589, 23.6172, -163.845, -97.7107, 56.0022, 19.033, -7.63511, 13.3764, -5.67474, -97.5379, -76.6501
1.216, -1, -37.2445, -4.74013, 23.5941, -163.842, -97.677, 55.9992, 18.907, -7.60581, 13.3326, -5.62516, -97.5344, -76.7132
1.22, -1, -37.2737, -4.71439, 23.571, -163.84, -97.6433, 55.9963, 18.7811, -7.57652, 13.2888, -5.57561, -97.5308, -76.7763
1.224, -1, -37.303, -4.68865, 23.5479, -163.838, -97.6096, 55.9933, 18.6552, -7.54725, 13.2451, -5.52609, -97.5273, -76.8394
1.228, -1, -37.3322, -4.66293, 23.5249, -163.835, -97.5759, 55.9904, 18.5294, -7.51799, 13.2014, -5.47659, -97.5237, -76.9024
1.232, -1, -37.3614, -4.63723, 23.5018, -163.833, -97.5422, 55.9874, 18.4036, -7.48875, 13.1577, -5.42711, -97.5202, -76.9654
1.236, -1, -37.3906, -4.61153, 23.4788, -163.831, -97.5086, 55.9845, 18.2779, -7.45952, 13.1141, -5.37766, -97.5166, -77.0284
1.24, -1, -37.4198, -4.58585, 23.4557, -163.828, -97.4749, 55.9816, 18.1523, -7.4303, 13.0704, -5.32823, -97.5131, -77.0914
1.244, -1, -37.4489, -4.56018, 23.4327, -163.826, -97.4413, 55.9786, 18.0267, -7.4011, 13.0268, -5.27882, -97.5096, -77.1543
1.248, -1, -37.4781, -4.53452, 23.4097, -163.824, -97.4077, 55.9757, 17.9012, -7.37191, 12.9832, -5.22944, -97.506, -77.2172
1.252, -1, -37.5072, -4.50887, 23.3867, -163.821, -97.3741, 55.9728, 17.7757, -7.34274, 12.9396, -5.18008, -97.5025, -77.28
1.256, -1, -37.5363, -4.48324, 23.3637, -163.819, -97.3405, 55.9698, 17.6503, -7.31358, 12.8961, -5.13075, -97.499, -77.3429
1.26, -1, -37.5654, -4.45762, 23.3407, -163.817, -97.307, 55.9669, 17.525, -7.28443, 12.8526, -5.08144, -97.4954, -77.4057
1.264, -1, -37.5945, -4.43201, 23.3177, -163.814, -97.2734, 55.964, 17.3997, -7.2553, 12.809, -5.03215, -97.4919, -77.4684
1.267, -1, -37.6236, -4.40642, 23.2948, -163.812, -97.2399, 55.961, 17.2745, -7.22619, 12.7656, -4.98289, -97.4884, -77.5312
1.272, -1, -37.6527, -4.38083, 23.2718, -163.81, -97.2064, 55.9581, 17.1494, -7.19708, 12.7221, -4.93365, -97.4848, -77.5939
1.276, -1, -37.6817, -4.35526, 23.2489, -163.807, -97.1729, 55.9552, 17.0243, -7.16799, 12.6786, -4.88444, -97.4813, -77.6565
1.28, -1, -37.7107, -4.3297, 23.226, -163.805, -97.1394, 55.9523, 16.8992, -7.13892, 12.6352, -4.83525, -97.4778, -77.7192
1.284, -1, -37.7398, -4.30416, 23.203, -163.803, -97.106, 55.9494, 16.7743, -7.10986, 12.5918, -4.78608, -97.4743, -77.7818
1.288, -1, -37.7688, -4.27862, 23.1801, -163.8, -97.0725, 55.9464, 16.6494, -7.08081, 12.5484, -4.73694, -97.4707, -77.8444
1.292, -1, -37.7978, -4.2531, 23.1572, -163.798, -97.0391, 55.9435, 16.5245, -7.05178, 12.5051, -4.68782, -97.4672, -77.9069
1.295, -1, -37.8267, -4.22759, 23.1344, -163.796, -97.0057, 55.9406, 16.3997, -7.02276, 12.4617, -4.63873, -97.4637, -77.9695
1.3, -1, -37.8557, -4.20209, 23.1115, -163.793, -96.9723, 55.9377, 16.275, -6.99376, 12.4184, -4.58966, -97.4602, -78.032
1.304, -1, -37.8847, -4.17661, 23.0886, -163.791, -96.9389, 55.9348, 16.1503, -6.96477, 12.3751, -4.54061, -97.4567, -78.0944
1.308, -1, -37.9136, -4.15114, 23.0658, -163.789, -96.9055, 55.9319, 16.0257, -6.93579, 12.3318, -4.49158, -97.4532, -78.1569
1.312, -1, -37.9425, -4.12568, 23.0429, -163.786, -96.8722, 55.9289, 15.9012, -6.90683, 12.2885, -4.44258, -97.4497, -78.2193
1.316, -1, -37.9714, -4.10023, 23.0201, -163.784, -96.8389, 55.926, 15.7767, -6.87788, 12.2453, -4.39361, -97.4462, -78.2816
1.32, -1, -38.0003, -4.07479, 22.9973, -163.782, -96.8055, 55.9231, 15.6523, -6.84895, 12.2021, -4.34465, -97.4426, -78.344
1.324, -1, -38.0292, -4.04937, 22.9745, -163.78, -96.7722, 55.9202, 15.5279, -6.82003, 12.1589, -4.29572, -97.4391, -78.4063
1.328, -1, -38.0581, -4.02395, 22.9517, -163.777, -96.739, 55.9173, 15.4036, -6.79112, 12.1157, -4.24682, -97.4356, -78.4686
1.332, -1, -38.0869, -3.99855, 22.9289, -163.775, -96.7057, 55.9144, 15.2793, -6.76223, 12.0726, -4.19793, -97.4321, -78.5308
1.336, -1, -38.1158, -3.97316, 22.9061, -163.773, -96.6724, 55.9115, 15.1551, -6.73335, 12.0294, -4.14907, -97.4286, -78.5931
1.34, -1, -38.1446, -3.94779, 22.8834, -163.77, -96.6392, 55.9086, 15.031, -6.70448, 11.9863, -4.10023, -97.4251, -78.6553
1.344, -1, -38.1734, -3.92242, 22.8606, -163.768, -96.606, 55.9057, 14.9069, -6.67563, 11.9432, -4.05142, -97.4216, -78.7174
1.348, -1, -38.2022, -3.89707, 22.8379, -163.766, -96.5728, 55.9028, 14.7829, -6.64679, 11.9001, -4.00263, -97.4181, -78.7796
1.352, -1, -38.231, -3.87173, 22.8152, -163.763, -96.5396, 55.8999, 14.6589, -6.61796, 11.8571, -3.95386, -97.4146, -78.8417
1.356, -1, -38.2598, -3.8464, 22.7924, -163.761, -96.5064, 55.897, 14.535, -6.58915, 11.814, -3.90511, -97.4112, -78.9038
1.36, -1, -38.2886, -3.82108, 22.7697, -163.759, -96.4732, 55.8941, 14.4112, -6.56035, 11.771, -3.85638, -97.4077, -78.9658
1.364, -1, -38.3173, -3.79577, 22.747, -163.757, -96.4401, 55.8912, 14.2874, -6.53156, 11.728, -3.80768, -97.4042, -79.0278
1.368, -1, -38.346, -3.77048, 22.7243, -163.754, -96.407, 55.8883, 14.1636, -6.50278, 11.685, -3.75899, -97.4007, -79.0898
1.372, -1, -38.3748, -3.74519, 22.7017, -163.752, -96.3738, 55.8854, 14.0399, -6.47402, 11.6421, -3.71033, -97.3972, -79.1518
1.376, -1, -38.4035, -3.71992, 22.679, -163.75, -96.3407, 55.8825, 13.9163, -6.44527, 11.5991, -3.66169, -97.3937, -79.2138
1.38, -1, -38.4322, -3.69466, 22.6563, -163.747, -96.3077, 55.8797, 13.7927, -6.41653, 11.5562, -3.61307, -97.3902, -79.2757
1.384, -1, -38.4609, -3.66941, 22.6337, -163.745, -96.2746, 55.8768, 13.6692, -6.38781, 11.5133, -3.56448, -97.3867, -79.3376
1.388, -1, -38.4895, -3.64417, 22.611, -163.743, -96.2415, 55.8739, 13.5457, -6.3591, 11.4704, -3.5159, -97.3833, -79.3994
1.392, -1, -38.5182, -3.61894, 22.5884, -163.74, -96.2085, 55.871, 13.4223, -6.3304, 11.4276, -3.46735, -97.3798, -79.4613
1.396, -1, -38.5468, -3.59372, 22.5658, -163.738, -96.1755, 55.8681, 13.299, -6.30172, 11.3847, -3.41882, -97.3763, -79.5231
1.4, -1, -38.5755, -3.56852, 22.5432, -163.736, -96.1424, 55.8652, 13.1757, -6.27305, 11.3419, -3.37031, -97.3728, -79.5848
1.404, -1, -38.6041, -3.54332, 22.5206, -163.734, -96.1094, 55.8624, 13.0524, -6.24439, 11.2991, -3.32182, -97.3694, -79.6466
1.408, -1, -38.6327, -3.51814, 22.498, -163.731, -96.0765, 55.8595, 12.9292, -6.21574, 11.2563, -3.27335, -97.3659, -79.7083
1.412, -1, -38.6613, -3.49297, 22.4754, -163.729, -96.0435, 55.8566, 12.8061, -6.1871, 11.2135, -3.22491, -97.3624, -79.77
1.416, -1, -38.6899, -3.46781, 22.4528, -163.727, -96.0105, 55.8537, 12.683, -6.15848, 11.1708, -3.17648, -97.359, -79.8317
1.42, -1, -38.7184, -3.44266, 22.4303, -163.724, -95.9776, 55.8508, 12.56, -6.12988, 11.128, -3.12808, -97.3555, -79.8933
1.424, -1, -38.747, -3.41752, 22.4077, -163.722, -95.9447, 55.848, 12.437, -6.10128, 11.0853, -3.0797, -97.352, -79.9549
1.428, -1, -38.7755, -3.3924, 22.3852, -163.72, -95.9118, 55.8451, 12.3141, -6.0727, 11.0426, -3.03134, -97.3486, -80.0165
1.432, -1, -38.8041, -3.36728, 22.3627, -163.718, -95.8789, 55.8422, 12.1912, -6.04413, 11, -2.983, -97.3451, -80.0781
1.436, -1, -38.8326, -3.34218, 22.3402, -163.715, -95.846, 55.8393, 12.0684, -6.01557, 10.9573, -2.93469, -97.3416, -80.1396
1.44, -1, -38.8611, -3.31708, 22.3176, -163.713, -95.8131, 55.8365, 11.9457, -5.98702, 10.9147, -2.88639, -97.3382, -80.2011
1.444, -1, -38.8896, -3.292, 22.2951, -163.711, -95.7803, 55.8336, 11.823, -5.95849, 10.872, -2.83812, -97.3347, -80.2626
1.448, -1, -38.9181, -3.26693, 22.2727, -163.708, -95.7474, 55.8307, 11.7003, -5.92997, 10.8294, -2.78987, -97.3313, -80.3241
1.452, -1, -38.9465, -3.24187, 22.2502, -163.706, -95.7146, 55.8279, 11.5777, -5.90146, 10.7869, -2.74164, -97.3278, -80.3855
1.456, -1, -38.975, -3.21682, 22.2277, -163.704, -95.6818, 55.825, 11.4552, -5.87297, 10.7443, -2.69343, -97.3243, -80.4469
1.46, -1, -39.0034, -3.19178, 22.2053, -163.702, -95.649, 55.8222, 11.3327, -5.84449, 10.7018, -2.64524, -97.3209, -80.5082
1.464, -1, -39.0319, -3.16676, 22.1828, -163.699, -95.6162, 55.8193, 11.2103, -5.81602, 10.6592, -2.59708, -97.3174, -80.5696
1.468, -1, -39.0603, -3.14174, 22.1604, -163.697, -95.5834, 55.8164, 11.0879, -5.78756, 10.6167, -2.54893, -97.314, -80.6309
1.472, -1, -39.0887, -3.11674, 22.1379, -163.695, -95.5507, 55.8136, 10.9656, -5.75912, 10.5742, -2.50081, -97.3106, -80.6922
1.476, -1, -39.1171, -3.09174, 22.1155, -163.693, -95.518, 55.8107, 10.8433, -5.73068, 10.5318, -2.4527, -97.3071, -80.7534
1.48, -1, -39.1455, -3.06676, 22.0931, -163.69, -95.4852, 55.8079, 10.7211, -5.70227, 10.4893, -2.40462, -97.3037, -80.8147
1.484, -1, -39.1738, -3.04179, 22.0707, -163.688, -95.4525, 55.805, 10.5989, -5.67386, 10.4469, -2.35656, -97.3002, -80.8759
1.488, -1, -39.2022, -3.01683, 22.0483, -163.686, -95.4198, 55.8021, 10.4768, -5.64547, 10.4045, -2.30852, -97.2968, -80.9371
1.492, -1, -39.2305, -2.99188, 22.0259, -163.684, -95.3872, 55.7993, 10.3548, -5.61708, 10.3621, -2.26051, -97.2933, -80.9982
1.496, -1, -39.2589, -2.96694, 22.0036, -163.681, -95.3545, 55.7964, 10.2328, -5.58872, 10.3197, -2.21251, -97.2899, -81.0593
1.5, -1, -39.2872, -2.94201, 21.9812, -163.679, -95.3218, 55.7936, 10.1109, -5.56036, 10.2774, -2.16454, -97.2865, -81.1204
1.504, -1, -39.3155, -2.9171, 21.9589, -163.677, -95.2892, 55.7907, 9.98897, -5.53201, 10.235, -2.11658, -97.283, -81.1815
1.508, -1, -39.3438, -2.89219, 21.9365, -163.674, -95.2566, 55.7879, 9.86713, -5.50368, 10.1927, -2.06865, -97.2796, -81.2426
1.512, -1, -39.3721, -2.8673, 21.9142, -163.672, -95.224, 55.785, 9.74535, -5.47536, 10.1504, -2.02074, -97.2762, -81.3036
1.516, -1, -39.4003, -2.84241, 21.8919, -163.67, -95.1914, 55.7822, 9.62362, -5.44706, 10.1081, -1.97285, -97.2727, -81.3646
1.52, -1, -39.4286, -2.81754, 21.8696, -163.668, -95.1588, 55.7794, 9.50195, -5.41876, 10.0659, -1.92498, -97.2693, -81.4255
1.524, -1, -39.4568, -2.79268, 21.8473, -163.665, -95.1262, 55.7765, 9.38033, -5.39048, 10.0236, -1.87713, -97.2659, -81.4865
1.528, -1, -39.4851, -2.76783, 21.825, -163.663, -95.0937, 55.7737, 9.25876, -5.36221, 9.9814, -1.8293, -97.2624, -81.5474
1.532, -1, -39.5133, -2.74299, 21.8027, -163.661, -95.0611, 55.7708, 9.13725, -5.33396, 9.9392, -1.78149, -97.259, -81.6083
1.536, -1, -39.5415, -2.71816, 21.7804, -163.659, -95.0286, 55.768, 9.01579, -5.30571, 9.89701, -1.73371, -97.2556, -81.6691
1.54, -1, -39.5697, -2.69334, 21.7582, -163.656, -94.9961, 55.7652, 8.89438, -5.27748, 9.85484, -1.68594, -97.2522, -81.7299
1.544, -1, -39.5979, -2.66854, 21.7359, -163.654, -94.9636, 55.7623, 8.77303, -5.24926, 9.81269, -1.6382, -97.2488, -81.7907
1.548, -1, -39.626, -2.64374, 21.7137, -163.652, -94.9312, 55.7595, 8.65173, -5.22106, 9.77056, -1.59048, -97.2453, -81.8515
1.552, -1, -39.6542, -2.61895, 21.6914, -163.65, -94.8987, 55.7566, 8.53048, -5.19286, 9.72844, -1.54278, -97.2419, -81.9123
1.556, -1, -39.6823, -2.59418, 21.6692, -163.647, -94.8662, 55.7538, 8.40929, -5.16468, 9.68635, -1.4951, -97.2385, -81.973
1.56, -1, -39.7105, -2.56942, 21.647, -163.645, -94.8338, 55.751, 8.28815, -5.13651, 9.64427, -1.44744, -97.2351, -82.0337
1.564, -1, -39.7386, -2.54466, 21.6248, -163.643, -94.8014, 55.7481, 8.16706, -5.10835, 9.60221, -1.3998, -97.2317, -82.0944
1.568, -1, -39.7667, -2.51992, 21.6026, -163.641, -94.769, 55.7453, 8.04603, -5.08021, 9.56017, -1.35218, -97.2283, -82.155
1.572, -1, -39.7948, -2.49519, 21.5804, -163.638, -94.7366, 55.7425, 7.92504, -5.05207, 9.51815, -1.30458, -97.2249, -82.2156
1.576, -1, -39.8229, -2.47047, 21.5582, -163.636, -94.7042, 55.7397, 7.80412, -5.02395, 9.47615, -1.25701, -97.2214, -82.2762
1.58, -1, -39.8509, -2.44576, 21.5361, -163.634, -94.6718, 55.7368, 7.68324, -4.99584, 9.43416, -1.20945, -97.218, -82.3368
1.584, -1, -39.879, -2.42106, 21.5139, -163.632, -94.6395, 55.734, 7.56242, -4.96775, 9.3922, -1.16192, -97.2146, -82.3973
1.588, -1, -39.907, -2.39638, 21.4918, -163.629, -94.6072, 55.7312, 7.44165, -4.93966, 9.35025, -1.1144, -97.2112, -82.4578
1.592, -1, -39.9351, -2.3717, 21.4696, -163.627, -94.5748, 55.7284, 7.32093, -4.91159, 9.30832, -1.06691, -97.2078, -82.5183
1.596, -1, -39.9631, -2.34703, 21.4475, -163.625, -94.5425, 55.7256, 7.20027, -4.88353, 9.26641, -1.01944, -97.2044, -82.5788
1.6, -1, -39.9911, -2.32238, 21.4254, -163.623, -94.5102, 55.7227, 7.07965, -4.85549, 9.22452, -0.971986, -97.201, -82.6392
1.604, -1, -40.0191, -2.29773, 21.4033, -163.62, -94.478, 55.7199, 6.9591, -4.82745, 9.18264, -0.924555, -97.1976, -82.6996
1.608, -1, -40.0471, -2.2731, 21.3812, -163.618, -94.4457, 55.7171, 6.83859, -4.79943, 9.14079, -0.877145, -97.1942, -82.76
1.612, -1, -40.0751, -2.24848, 21.3591, -163.616, -94.4134, 55.7143, 6.71814, -4.77142, 9.09895, -0.829756, -97.1908, -82.8203
1.616, -1, -40.103, -2.22386, 21.337, -163.614, -94.3812, 55.7115, 6.59773, -4.74342, 9.05713, -0.782387, -97.1874, -82.8807
1.62, -1, -40.131, -2.19926, 21.315, -163.612, -94.349, 55.7087, 6.47739, -4.71544, 9.01533, -0.735039, -97.1841, -82.941
1.624, -1, -40.1589, -2.17467, 21.2929, -163.609, -94.3168, 55.7058, 6.35709, -4.68746, 8.97354, -0.687711, -97.1807, -83.0012
1.628, -1, -40.1868, -2.15009, 21.2709, -163.607, -94.2846, 55.703, 6.23684, -4.6595, 8.93178, -0.640404, -97.1773, -83.0615
1.632, -1, -40.2147, -2.12552, 21.2488, -163.605, -94.2524, 55.7002, 6.11665, -4.63155, 8.89003, -0.593118, -97.1739, -83.1217
1.636, -1, -40.2426, -2.10096, 21.2268, -163.603, -94.2202, 55.6974, 5.99651, -4.60361, 8.8483, -0.545852, -97.1705, -83.1819
1.64, -1, -40.2705, -2.07642, 21.2048, -163.6, -94.1881, 55.6946, 5.87643, -4.57569, 8.80659, -0.498607, -97.1671, -83.2421
1.644, -1, -40.2984, -2.05188, 21.1828, -163.598, -94.1559, 55.6918, 5.75639, -4.54778, 8.7649, -0.451382, -97.1637, -83.3022
1.648, -1, -40.3263, -2.02735, 21.1608, -163.596, -94.1238, 55.689, 5.63641, -4.51988, 8.72323, -0.404178, -97.1603, -83.3623
1.652, -1, -40.3541, -2.00284, 21.1388, -163.594, -94.0917, 55.6862, 5.51648, -4.49199, 8.68157, -0.356994, -97.157, -83.4224
1.656, -1, -40.382, -1.97833, 21.1168, -163.592, -94.0596, 55.6834, 5.3966, -4.46411, 8.63993, -0.309831, -97.1536, -83.4825
1.66, -1, -40.4098, -1.95383, 21.0948, -163.589, -94.0275, 55.6806, 5.27677, -4.43625, 8.59831, -0.262689, -97.1502, -83.5425
1.664, -1, -40.4376, -1.92935, 21.0729, -163.587, -93.9954, 55.6778, 5.157, -4.40839, 8.55671, -0.215566, -97.1468, -83.6025
1.668, -1, -40.4654, -1.90488, 21.0509, -163.585, -93.9634, 55.675, 5.03728, -4.38055, 8.51513, -0.168465, -97.1435, -83.6625
1.672, -1, -40.4932, -1.88041, 21.029, -163.583, -93.9314, 55.6722, 4.91761, -4.35273, 8.47356, -0.121383, -97.1401, -83.7225
1.676, -1, -40.521, -1.85596, 21.007, -163.58, -93.8993, 55.6694, 4.79799, -4.32491, 8.43201, -0.0743223, -97.1367, -83.7824
1.68, -1, -40.5487, -1.83152, 20.9851, -163.578, -93.8673, 55.6666, 4.67842, -4.29711, 8.39048, -0.0272817, -97.1334, -83.8423
1.684, -1, -40.5765, -1.80709, 20.9632, -163.576, -93.8353, 55.6638, 4.5589, -4.26931, 8.34897, 0.0197385, -97.13, -83.9022
1.688, -1, -40.6042, -1.78267, 20.9413, -163.574, -93.8033, 55.661, 4.43944, -4.24153, 8.30748, 0.0667383, -97.1266, -83.9621
1.692, -1, -40.632, -1.75826, 20.9194, -163.572, -93.7713, 55.6582, 4.32003, -4.21377, 8.266, 0.113718, -97.1232, -84.0219
1.696, -1, -40.6597, -1.73386, 20.8975, -163.569, -93.7394, 55.6554, 4.20067, -4.18601, 8.22455, 0.160677, -97.1199, -84.0817
1.7, -1, -40.6874, -1.70947, 20.8756, -163.567, -93.7074, 55.6526, 4.08136, -4.15827, 8.1831, 0.207616, -97.1165, -84.1415
1.704, -1, -40.7151, -1.68509, 20.8538, -163.565, -93.6755, 55.6499, 3.9621, -4.13053, 8.14168, 0.254535, -97.1132, -84.2012
1.708, -1, -40.7428, -1.66072, 20.8319, -163.563, -93.6436, 55.6471, 3.84289, -4.10281, 8.10028, 0.301434, -97.1098, -84.2609
1.712, -1, -40.7704, -1.63636, 20.81, -163.56, -93.6117, 55.6443, 3.72374, -4.07511, 8.05889, 0.348312, -97.1064, -84.3206
1.716, -1, -40.7981, -1.61201, 20.7882, -163.558, -93.5798, 55.6415, 3.60463, -4.04741, 8.01752, 0.395171, -97.1031, -84.3803
1.72, -1, -40.8257, -1.58768, 20.7664, -163.556, -93.5479, 55.6387, 3.48557, -4.01972, 7.97617, 0.44201, -97.0997, -84.44
1.724, -1, -40.8534, -1.56335, 20.7446, -163.554, -93.5161, 55.6359, 3.36656, -3.99205, 7.93484, 0.48883, -97.0964, -84.4996
1.728, -1, -40.881, -1.53903, 20.7227, -163.552, -93.4842, 55.6332, 3.24761, -3.96439, 7.89352, 0.53563, -97.093, -84.5592
1.732, -1, -40.9086, -1.51472, 20.7009, -163.549, -93.4524, 55.6304, 3.1287, -3.93674, 7.85222, 0.582412, -97.0897, -84.6188
1.736, -1, -40.9362, -1.49042, 20.6791, -163.547, -93.4205, 55.6276, 3.00984, -3.9091, 7.81093, 0.629174, -97.0863, -84.6783
1.74, -1, -40.9638, -1.46614, 20.6574, -163.545, -93.3887, 55.6248, 2.89103, -3.88147, 7.76967, 0.675917, -97.083, -84.7379
1.744, -1, -40.9914, -1.44186, 20.6356, -163.543, -93.3569, 55.622, 2.77227, -3.85385, 7.72842, 0.722641, -97.0796, -84.7974
1.748, -1, -41.019, -1.41759, 20.6138, -163.541, -93.3251, 55.6193, 2.65355, -3.82625, 7.68718, 0.769346, -97.0763, -84.8568
1.752, -1, -41.0465, -1.39333, 20.5921, -163.538, -93.2934, 55.6165, 2.53488, -3.79865, 7.64597, 0.816032, -97.0729, -84.9163
1.756, -1, -41.0741, -1.36909, 20.5703, -163.536, -93.2616, 55.6137, 2.41627, -3.77107, 7.60477, 0.862699, -97.0696, -84.9757
1.76, -1, -41.1016, -1.34485, 20.5486, -163.534, -93.2299, 55.611, 2.2977, -3.7435, 7.56358, 0.909347, -97.0663, -85.0351
1.764, -1, -41.1291, -1.32062, 20.5268, -163.532, -93.1981, 55.6082, 2.17917, -3.71594, 7.52242, 0.955977, -97.0629, -85.0945
1.768, -1, -41.1566, -1.2964, 20.5051, -163.53, -93.1664, 55.6054, 2.0607, -3.68839, 7.48127, 1.00259, -97.0596, -85.1539
1.772, -1, -41.1841, -1.27219, 20.4834, -163.527, -93.1347, 55.6026, 1.94227, -3.66085, 7.44013, 1.04918, -97.0562, -85.2132
1.776, -1, -41.2116, -1.24799, 20.4617, -163.525, -93.103, 55.5999, 1.82389, -3.63332, 7.39902, 1.09575, -97.0529, -85.2725
1.78, -1, -41.2391, -1.22381, 20.44, -163.523, -93.0713, 55.5971, 1.70556, -3.6058, 7.35792, 1.14231, -97.0496, -85.3318
1.784, -1, -41.2666, -1.19963, 20.4183, -163.521, -93.0397, 55.5943, 1.58728, -3.5783, 7.31683, 1.18884, -97.0462, -85.3911
1.788, -1, -41.294, -1.17546, 20.3966, -163.519, -93.008, 55.5916, 1.46905, -3.5508, 7.27576, 1.23536, -97.0429, -85.4503
1.792, -1, -41.3215, -1.1513, 20.3749, -163.516, -92.9764, 55.5888, 1.35086, -3.52332, 7.23471, 1.28186, -97.0396, -85.5095
1.796, -1, -41.3489, -1.12715, 20.3533, -163.514, -92.9447, 55.5861, 1.23272, -3.49585, 7.19368, 1.32834, -97.0362, -85.5687
1.8, -1, -41.3763, -1.10301, 20.3316, -163.512, -92.9131, 55.5833, 1.11462, -3.46839, 7.15266, 1.3748, -97.0329, -85.6279
1.804, -1, -41.4038, -1.07888, 20.31, -163.51, -92.8815, 55.5805, 0.99658, -3.44094, 7.11166, 1.42124, -97.0296, -85.687
1.808, -1, -41.4312, -1.05475, 20.2883, -163.508, -92.8499, 55.5778, 0.878582, -3.4135, 7.07068, 1.46766, -97.0263, -85.7462
1.812, -1, -41.4585, -1.03064, 20.2667, -163.505, -92.8183, 55.575, 0.760633, -3.38607, 7.02971, 1.51407, -97.0229, -85.8053
1.816, -1, -41.4859, -1.00654, 20.2451, -163.503, -92.7868, 55.5723, 0.64273, -3.35865, 6.98876, 1.56045, -97.0196, -85.8643
1.82, -1, -41.5133, -0.98245, 20.2235, -163.501, -92.7552, 55.5695, 0.524875, -3.33125, 6.94782, 1.60682, -97.0163, -85.9234
1.824, -1, -41.5406, -0.958368, 20.2019, -163.499, -92.7237, 55.5668, 0.407067, -3.30385, 6.9069, 1.65317, -97.013, -85.9824
1.828, -1, -41.568, -0.934296, 20.1803, -163.497, -92.6921, 55.564, 0.289306, -3.27647, 6.866, 1.6995, -97.0096, -86.0414
1.832, -1, -41.5953, -0.910233, 20.1587, -163.495, -92.6606, 55.5612, 0.171593, -3.2491, 6.82512, 1.74581, -97.0063, -86.1004
1.836, -1, -41.6227, -0.88618, 20.1371, -163.492, -92.6291, 55.5585, 0.0539272, -3.22173, 6.78425, 1.7921, -97.003, -86.1594
1.84, -1, -41.65, -0.862136, 20.1156, -163.49, -92.5976, 55.5558, -0.0636916, -3.19438, 6.74339, 1.83837, -96.9997, -86.2183
1.844, -1, -41.6773, -0.838103, 20.094, -163.488, -92.5661, 55.553, -0.181263, -3.16704, 6.70256, 1.88463, -96.9964, -86.2772
1.848, -1, -41.7046, -0.814078, 20.0725, -163.486, -92.5347, 55.5503, -0.298788, -3.13971, 6.66174, 1.93087, -96.9931, -86.3361
1.852, -1, -41.7318, -0.790064, 20.0509, -163.484, -92.5032, 55.5475, -0.416265, -3.1124, 6.62093, 1.97708, -96.9898, -86.3949
1.856, -1, -41.7591, -0.766059, 20.0294, -163.481, -92.4718, 55.5448, -0.533696, -3.08509, 6.58015, 2.02328, -96.9865, -86.4538
1.86, -1, -41.7864, -0.742063, 20.0079, -163.479, -92.4403, 55.542, -0.651079, -3.05779, 6.53937, 2.06947, -96.9831, -86.5126
1.864, -1, -41.8136, -0.718078, 19.9863, -163.477, -92.4089, 55.5393, -0.768416, -3.03051, 6.49862, 2.11563, -96.9798, -86.5714
1.868, -1, -41.8409, -0.694101, 19.9648, -163.475, -92.3775, 55.5365, -0.885705, -3.00323, 6.45788, 2.16177, -96.9765, -86.6301
1.872, -1, -41.8681, -0.670135, 19.9433, -163.473, -92.3461, 55.5338, -1.00295, -2.97597, 6.41716, 2.2079, -96.9732, -86.6889
1.876, -1, -41.8953, -0.646178, 19.9219, -163.471, -92.3148, 55.5311, -1.12014, -2.94872, 6.37645, 2.25401, -96.9699, -86.7476
1.88, -1, -41.9225, -0.62223, 19.9004, -163.468, -92.2834, 55.5283, -1.23729, -2.92147, 6.33576, 2.3001, -96.9666, -86.8063
1.884, -1, -41.9497, -0.598292, 19.8789, -163.466, -92.252, 55.5256, -1.3544, -2.89424, 6.29509, 2.34617, -96.9633, -86.865
1.888, -1, -41.9769, -0.574364, 19.8574, -163.464, -92.2207, 55.5228, -1.47145, -2.86702, 6.25443, 2.39222, -96.96, -86.9236
1.892, -1, -42.0041, -0.550445, 19.836, -163.462, -92.1894, 55.5201, -1.58846, -2.83981, 6.21379, 2.43825, -96.9567, -86.9823
1.896, -1, -42.0312, -0.526536, 19.8145, -163.46, -92.158, 55.5174, -1.70542, -2.81262, 6.17316, 2.48427, -96.9534, -87.0409
1.9, -1, -42.0584, -0.502636, 19.7931, -163.458, -92.1267, 55.5146, -1.82234, -2.78543, 6.13255, 2.53027, -96.9501, -87.0994
1.904, -1, -42.0855, -0.478746, 19.7717, -163.455, -92.0954, 55.5119, -1.93921, -2.75825, 6.09196, 2.57625, -96.9468, -87.158
1.908, -1, -42.1126, -0.454865, 19.7502, -163.453, -92.0642, 55.5092, -2.05603, -2.73109, 6.05138, 2.62221, -96.9435, -87.2165
1.912, -1, -42.1398, -0.430994, 19.7288, -163.451, -92.0329, 55.5064, -2.17281, -2.70393, 6.01082, 2.66815, -96.9402, -87.275
1.916, -1, -42.1669, -0.407132, 19.7074, -163.449, -92.0016, 55.5037, -2.28954, -2.67679, 5.97028, 2.71407, -96.937, -87.3335
1.92, -1, -42.194, -0.38328, 19.686, -163.447, -91.9704, 55.501, -2.40622, -2.64965, 5.92975, 2.75998, -96.9337, -87.392
1.924, -1, -42.221, -0.359437, 19.6646, -163.445, -91.9392, 55.4983, -2.52286, -2.62253, 5.88924, 2.80587, -96.9304, -87.4504
1.928, -1, -42.2481, -0.335604, 19.6433, -163.442, -91.908, 55.4955, -2.63945, -2.59542, 5.84874, 2.85174, -96.9271, -87.5088
1.932, -1, -42.2752, -0.31178, 19.6219, -163.44, -91.8767, 55.4928, -2.75599, -2.56832, 5.80826, 2.89759, -96.9238, -87.5672
1.936, -1, -42.3022, -0.287966, 19.6005, -163.438, -91.8456, 55.4901, -2.87249, -2.54123, 5.7678, 2.94342, -96.9205, -87.6256
1.94, -1, -42.3293, -0.26416, 19.5792, -163.436, -91.8144, 55.4874, -2.98894, -2.51415, 5.72735, 2.98924, -96.9172, -87.684
1.944, -1, -42.3563, -0.240364, 19.5578, -163.434, -91.7832, 55.4846, -3.10535, -2.48708, 5.68692, 3.03503, -96.914, -87.7423
1.948, -1, -42.3833, -0.216578, 19.5365, -163.432, -91.7521, 55.4819, -3.22171, -2.46002, 5.6465, 3.08081, -96.9107, -87.8006
1.952, -1, -42.4104, -0.1928, 19.5152, -163.429, -91.7209, 55.4792, -3.33802, -2.43297, 5.6061, 3.12657, -96.9074, -87.8589
1.956, -1, -42.4374, -0.169032, 19.4939, -163.427, -91.6898, 55.4765, -3.45429, -2.40594, 5.56572, 3.17232, -96.9041, -87.9171
1.96, -1, -42.4643, -0.145273, 19.4725, -163.425, -91.6587, 55.4738, -3.57052, -2.37891, 5.52535, 3.21804, -96.9009, -87.9753
1.964, -1, -42.4913, -0.121524, 19.4512, -163.423, -91.6276, 55.4711, -3.6867, -2.35189, 5.485, 3.26375, -96.8976, -88.0336
1.968, -1, -42.5183, -0.0977831, 19.4299, -163.421, -91.5965, 55.4683, -3.80283, -2.32489, 5.44466, 3.30944, -96.8943, -88.0917
1.972, -1, -42.5453, -0.0740516, 19.4087, -163.419, -91.5654, 55.4656, -3.91892, -2.29789, 5.40434, 3.35511, -96.891, -88.1499
1.976, -1, -42.5722, -0.0503293, 19.3874, -163.416, -91.5343, 55.4629, -4.03497, -2.27091, 5.36403, 3.40077, -96.8878, -88.208
1.98, -1, -42.5991, -0.026616, 19.3661, -163.414, -91.5032, 55.4602, -4.15097, -2.24393, 5.32374, 3.4464, -96.8845, -88.2662
1.984, -1, -42.6261, -0.0029118, 19.3449, -163.412, -91.4722, 55.4575, -4.26693, -2.21697, 5.28346, 3.49202, -96.8812, -88.3243
1.988, -1, -42.653, 0.0207834, 19.3236, -163.41, -91.4412, 55.4548, -4.38285, -2.19001, 5.2432, 3.53763, -96.878, -88.3823
1.992, -1, -42.6799, 0.0444695, 19.3023, -163.408, -91.4101, 55.4521, -4.49872, -2.16307, 5.20295, 3.58321, -96.8747, -88.4404
1.996, -1, -42.7068, 0.0681466, 19.2811, -163.406, -91.3791, 55.4494, -4.61454, -2.13613, 5.16272, 3.62878, -96.8714, -88.4984
1.999, -1, -42.7337, 0.0918147, 19.2599, -163.404, -91.3481, 55.4467, -4.73033, -2.10921, 5.12251, 3.67434, -96.8682, -88.5564
2.004, -1, -42.7606, 0.115474, 19.2387, -163.401, -91.3171, 55.444, -4.84607, -2.0823, 5.08231, 3.71987, -96.8649, -88.6144
2.008, -1, -42.7874, 0.139105, 19.2174, -163.399, -91.2862, 55.4413, -4.96176, -2.05539, 5.04212, 3.76539, -96.8616, -88.6724
2.012, -1, -42.814, 0.162625, 19.1963, -163.397, -91.2552, 55.4386, -5.07741, -2.0285, 5.00195, 3.81089, -96.8584, -88.7304
2.015, -1, -42.84, 0.185871, 19.1752, -163.395, -91.2243, 55.4359, -5.19302, -2.00162, 4.9618, 3.85637, -96.8551, -88.7883
2.019, -1, -42.8653, 0.208651, 19.1543, -163.393, -91.1935, 55.4332, -5.30853, -1.97475, 4.92166, 3.90183, -96.8519, -88.8462
2.024, -1, -42.8896, 0.230807, 19.1336, -163.391, -91.1628, 55.4305, -5.42367, -1.94795, 4.88154, 3.94724, -96.8486, -88.904
2.028, -1, -42.9128, 0.252215, 19.1132, -163.389, -91.1325, 55.4278, -5.53783, -1.9213, 4.84149, 3.99253, -96.8454, -88.9618
2.031, -1, -42.935, 0.272762, 19.0933, -163.386, -91.1026, 55.4252, -5.65019, -1.89495, 4.80159, 4.03753, -96.8422, -89.0193
2.036, -1, -42.956, 0.292362, 19.074, -163.384, -91.0733, 55.4226, -5.75981, -1.86909, 4.76203, 4.08202, -96.839, -89.0764
2.04, -1, -42.9761, 0.310978, 19.0553, -163.382, -91.045, 55.4201, -5.86565, -1.84394, 4.72313, 4.12563, -96.8359, -89.1324
2.044, -1, -42.9952, 0.328602, 19.0375, -163.38, -91.0179, 55.4178, -5.96655, -1.81977, 4.68531, 4.16786, -96.833, -89.1869
2.048, -1, -43.0134, 0.345244, 19.0207, -163.379, -90.9923, 55.4155, -6.06139, -1.7969, 4.64915, 4.20812, -96.8302, -89.2389
2.051, -1, -43.0306, 0.36089, 19.005, -163.377, -90.9684, 55.4134, -6.14936, -1.77559, 4.61527, 4.24576, -96.8275, -89.2877
2.055, -1, -43.0468, 0.37551, 18.9905, -163.375, -90.9465, 55.4115, -6.22988, -1.75609, 4.58431, 4.28017, -96.8251, -89.3322
2.06, -1, -43.062, 0.389089, 18.9774, -163.374, -90.9267, 55.4098, -6.30249, -1.73861, 4.55685, 4.31077, -96.823, -89.3717
2.064, -1, -43.0761, 0.401674, 18.9656, -163.373, -90.9093, 55.4082, -6.36683, -1.72331, 4.5333, 4.33716, -96.8211, -89.4056
2.068, -1, -43.0894, 0.413329, 18.9552, -163.372, -90.8942, 55.4069, -6.42278, -1.71025, 4.51386, 4.35916, -96.8195, -89.4336
2.071, -1, -43.1017, 0.424039, 18.9463, -163.371, -90.8815, 55.4058, -6.47042, -1.69942, 4.49851, 4.3768, -96.8182, -89.4557
2.076, -1, -43.113, 0.433736, 18.9387, -163.37, -90.871, 55.4049, -6.51004, -1.69071, 4.48696, 4.39034, -96.8172, -89.4724
2.08, -1, -43.1232, 0.442392, 18.9324, -163.37, -90.8626, 55.4042, -6.54211, -1.68393, 4.47877, 4.40025, -96.8164, -89.4843
2.084, -1, -43.1324, 0.450034, 18.9273, -163.369, -90.8562, 55.4036, -6.56719, -1.67886, 4.47332, 4.40712, -96.8158, -89.4922
2.087, -1, -43.1407, 0.456692, 18.9233, -163.369, -90.8514, 55.4032, -6.58588, -1.67525, 4.46997, 4.41158, -96.8154, -89.4972
2.092, -1, -43.1481, 0.462371, 18.9202, -163.369, -90.848, 55.403, -6.599, -1.67283, 4.4681, 4.41429, -96.8152, -89.5
2.096, -1, -43.1545, 0.467066, 18.9179, -163.369, -90.8457, 55.4028, -6.60762, -1.67132, 4.46717, 4.41579, -96.815, -89.5014
2.1, -1, -43.16, 0.470787, 18.9163, -163.369, -90.8443, 55.4027, -6.61284, -1.67044, 4.46678, 4.41654, -96.8149, -89.502
2.104, -1, -43.1643, 0.473586, 18.9151, -163.368, -90.8434, 55.4026, -6.61559, -1.67, 4.46665, 4.41686, -96.8149, -89.5022
2.107, -1, -43.1675, 0.475564, 18.9144, -163.368, -90.843, 55.4026, -6.61674, -1.66982, 4.46662, 4.41698, -96.8149, -89.5023
2.111, 2, -43.1698, 0.476834, 18.914, -163.368, -90.8427, 55.4025, -6.61706, -1.66977, 4.46662, 4.41701, -96.8149, -89.5023
2.116, 2, -43.1711, 0.477527, 18.9138, -163.368, -90.8427, 55.4025, -6.61711, -1.66977, 4.46662, 4.41701, -96.8149, -89.5023
2.12, 2, -43.1717, 0.477816, 18.9137, -163.368, -90.8426, 55.4025, -6.61711, -1.66977, 4.46662, 4.41701, -96.8149, -89.5023
2.124, 2, -43.1718, 0.477895, 18.9137, -163.368, -90.8426, 55.4025, -6.61711, -1.66977, 4.46662, 4.41701, -96.8149, -89.5023
2.127, 2, -43.1719, 0.477905, 18.9137, -163.368, -90.8426, 55.4025, -6.61711, -1.66977, 4.46662, 4.41701, -96.8149, -89.5023
2.132, 2, -43.1719, 0.477905, 18.9137, -163.368, -90.8426, 55.4025, -6.61711, -1.66977, 4.46662, 4.41701, -96.8149, -89.5023
2.136, 2, -43.1719, 0.477905, 18.9137, -163.368, -90.8426, 55.4025, -6.61711, -1.66977, 4.46662, 4.41701, -96.8149, -89.5023
2.14, 2, -43.1719, 0.477905, 18.9137, -163.368, -90.8426, 55.4025, -6.61711, -1.66977, 4.46662, 4.41701, -96.8149, -89.5023
2.143, 2, -43.1719, 0.477905, 18.9137, -163.368, -90.8426, 55.4025, -6.61711, -1.66977, 4.46662, 4.41701, -96.8149, -89.5023
2.148, 2, -43.1719, 0.477905, 18.9137, -163.368, -90.8426, 55.4025, -6.61711, -1.66977, 4.46662, 4.41701, -96.8149, -89.5023
2.152, 2, -43.1719, 0.477905, 18.9137, -163.368, -90.8426, 55.4025, -6.61711, -1.66977, 4.46662, 4.41701, -96.8149, -89.5023
2.156, 2, -43.1719, 0.477905, 18.9137, -163.368, -90.8426, 55.4025, -6.61711, -1.66977, 4.46662, 4.41701, -96.8149, -89.5023
2.16, 2, -43.1719, 0.477905, 18.9137, -163.368, -90.8426, 55.4025, -6.61711, -1.66977, 4.46662, 4.41701, -96.8149, -89.5023
2.163, 2, -43.1719, 0.477905, 18.9137, -163.368, -90.8426, 55.4025, -6.61711, -1.66977, 4.46662, 4.41701, -96.8149, -89.5023
2.168, 2, -43.1719, 0.477905, 18.9137, -163.368, -90.8426, 55.4025, -6.61711, -1.66977, 4.46662, 4.41701, -96.8149, -89.5023
2.172, 2, -43.1719, 0.477905, 18.9137, -163.368, -90.8426, 55.4025, -6.61711, -1.66977, 4.46662, 4.41701, -96.8149, -89.5023
2.176, 2, -43.1719, 0.477905, 18.9137, -163.368, -90.8426, 55.4025, -6.61711, -1.66977, 4.46662, 4.41701, -96.8149, -89.5023
2.179, 2, -43.1719, 0.477905, 18.9137, -163.368, -90.8426, 55.4025, -6.61711, -1.66977, 4.46662, 4.41701, -96.8149, -89.5023
2.184, 2, -43.1719, 0.477905, 18.9137, -163.368, -90.8426, 55.4025, -6.61711, -1.66977, 4.46662, 4.41701, -96.8149, -89.5023
2.188, 2, -43.1719, 0.477905, 18.9137, -163.368, -90.8426, 55.4025, -6.61711, -1.66977, 4.46662, 4.41701, -96.8149, -89.5023
2.192, 2, -43.1719, 0.477905, 18.9137, -163.368, -90.8426, 55.4025, -6.61711, -1.66977, 4.46662, 4.41701, -96.8149, -89.5023
2.196, 2, -43.1719, 0.477905, 18.9137, -163.368, -90.8426, 55.4025, -6.61711, -1.66977, 4.46662, 4.41701, -96.8149, -89.5023
2.199, 2, -43.1719, 0.477905, 18.9137, -163.368, -90.8426, 55.4025, -6.61711, -1.66977, 4.46662, 4.41701, -96.8149, -89.5023
2.204, 2, -43.1719, 0.477905, 18.9137, -163.368, -90.8426, 55.4025, -6.61711, -1.66977, 4.46662, 4.41701, -96.8149, -89.5023
2.208, 2, -43.1719, 0.477905, 18.9137, -163.368, -90.8426, 55.4025, -6.61711, -1.66977, 4.46662, 4.41701, -96.8149, -89.5023
2.212, 2, -43.1719, 0.477905, 18.9137, -163.368, -90.8426, 55.4025, -6.61711, -1.66977, 4.46662, 4.41701, -96.8149, -89.5023
2.216, 2, -43.1719, 0.477905, 18.9137, -163.368, -90.8426, 55.4025, -6.61711, -1.66977, 4.46662, 4.41701, -96.8149, -89.5023
2.219, 2, -43.1719, 0.477905, 18.9137, -163.368, -90.8426, 55.4025, -6.61711, -1.66977, 4.46662, 4.41701, -96.8149, -89.5023
2.224, 2, -43.1719, 0.477905, 18.9137, -163.368, -90.8426, 55.4025, -6.61711, -1.66977, 4.46662, 4.41701, -96.8149, -89.5023
2.228, 2, -43.1719, 0.477905, 18.9137, -163.368, -90.8426, 55.4025, -6.61711, -1.66977, 4.46662, 4.41701, -96.8149, -89.5023
2.232, 2, -43.1719, 0.477905, 18.9137, -163.368, -90.8426, 55.4025, -6.61711, -1.66977, 4.46662, 4.41701, -96.8149, -89.5023
2.235, 2, -43.1719, 0.477905, 18.9137, -163.368, -90.8426, 55.4025, -6.61711, -1.66977, 4.46662, 4.41701, -96.8149, -89.5023
2.24, 2, -43.1719, 0.477905, 18.9137, -163.368, -90.8426, 55.4025, -6.61711, -1.66977, 4.46662, 4.41701, -96.8149, -89.5023
2.244, 2, -43.1719, 0.477905, 18.9137, -163.368, -90.8426, 55.4025, -6.61711, -1.66977, 4.46662, 4.41701, -96.8149, -89.5023
2.248, 2, -43.1719, 0.477905, 18.9137, -163.368, -90.8426, 55.4025, -6.61711, -1.66977, 4.46662, 4.41701, -96.8149, -89.5023
2.252, 2, -43.1719, 0.477905, 18.9137, -163.368, -90.8426, 55.4025, -6.61711, -1.66977, 4.46662, 4.41701, -96.8149, -89.5023
2.255, 2, -43.1719, 0.477905, 18.9137, -163.368, -90.8426, 55.4025, -6.61711, -1.66977, 4.46662, 4.41701, -96.8149, -89.5023
2.259, 2, -43.1719, 0.477905, 18.9137, -163.368, -90.8426, 55.4025, -6.61711, -1.66977, 4.46662, 4.41701, -96.8149, -89.5023
2.264, 2, -43.1719, 0.477905, 18.9137, -163.368, -90.8426, 55.4025, -6.61711, -1.66977, 4.46662, 4.41701, -96.8149, -89.5023
2.268, 2, -43.1719, 0.477905, 18.9137, -163.368, -90.8426, 55.4025, -6.61711, -1.66977, 4.46662, 4.41701, -96.8149, -89.5023
2.272, 2, -43.1719, 0.477905, 18.9137, -163.368, -90.8426, 55.4025, -6.61711, -1.66977, 4.46662, 4.41701, -96.8149, -89.5023
2.275, 2, -43.1719, 0.477905, 18.9137, -163.368, -90.8426, 55.4025, -6.61711, -1.66977, 4.46662, 4.41701, -96.8149, -89.5023
2.28, 2, -43.1719, 0.477905, 18.9137, -163.368, -90.8426, 55.4025, -6.61711, -1.66977, 4.46662, 4.41701, -96.8149, -89.5023
2.284, 2, -43.1719, 0.477905, 18.9137, -163.368, -90.8426, 55.4025, -6.61711, -1.66977, 4.46662, 4.41701, -96.8149, -89.5023
2.288, 2, -43.1719, 0.477905, 18.9137, -163.368, -90.8426, 55.4025, -6.61711, -1.66977, 4.46662, 4.41701, -96.8149, -89.5023
2.291, 2, -43.1719, 0.477905, 18.9137, -163.368, -90.8426, 55.4025, -6.61711, -1.66977, 4.46662, 4.41701, -96.8149, -89.5023
2.296, 2, -43.1719, 0.477905, 18.9137, -163.368, -90.8426, 55.4025, -6.61711, -1.66977, 4.46662, 4.41701, -96.8149, -89.5023
2.3, 2, -43.1719, 0.477905, 18.9137, -163.368, -90.8426, 55.4025, -6.61711, -1.66977, 4.46662, 4.41701, -96.8149, -89.5023
2.304, 2, -43.1719, 0.477905, 18.9137, -163.368, -90.8426, 55.4025, -6.61711, -1.66977, 4.46662, 4.41701, -96.8149, -89.5023
2.308, 2, -43.1719, 0.477905, 18.9137, -163.368, -90.8426, 55.4025, -6.61711, -1.66977, 4.46662, 4.41701, -96.8149, -89.5023
2.311, 2, -43.1719, 0.477905, 18.9137, -163.368, -90.8426, 55.4025, -6.61711, -1.66977, 4.46662, 4.41701, -96.8149, -89.5023
2.316, 2, -43.1719, 0.477905, 18.9137, -163.368, -90.8426, 55.4025, -6.61711, -1.66977, 4.46662, 4.41701, -96.8149, -89.5023
2.32, 2, -43.1719, 0.477905, 18.9137, -163.368, -90.8426, 55.4025, -6.61711, -1.66977, 4.46662, 4.41701, -96.8149, -89.5023
2.324, 2, -43.1719, 0.477905, 18.9137, -163.368, -90.8426, 55.4025, -6.61711, -1.66977, 4.46662, 4.41701, -96.8149, -89.5023
2.328, 2, -43.1719, 0.477905, 18.9137, -163.368, -90.8426, 55.4025, -6.61711, -1.66977, 4.46662, 4.41701, -96.8149, -89.5023
2.331, 2, -43.1719, 0.477905, 18.9137, -163.368, -90.8426, 55.4025, -6.61711, -1.66977, 4.46662, 4.41701, -96.8149, -89.5023
2.336, 2, -43.1719, 0.477905, 18.9137, -163.368, -90.8426, 55.4025, -6.61711, -1.66977, 4.46662, 4.41701, -96.8149, -89.5023
2.34, 2, -43.1719, 0.477905, 18.9137, -163.368, -90.8426, 55.4025, -6.61711, -1.66977, 4.46662, 4.41701, -96.8149, -89.5023
2.344, 2, -43.1719, 0.477905, 18.9137, -163.368, -90.8426, 55.4025, -6.61711, -1.66977, 4.46662, 4.41701, -96.8149, -89.5023
2.347, 2, -43.1719, 0.477905, 18.9137, -163.368, -90.8426, 55.4025, -6.61711, -1.66977, 4.46662, 4.41701, -96.8149, -89.5023
2.352, 2, -43.1719, 0.477905, 18.9137, -163.368, -90.8426, 55.4025, -6.61711, -1.66977, 4.46662, 4.41701, -96.8149, -89.5023
2.356, 2, -43.1719, 0.477905, 18.9137, -163.368, -90.8426, 55.4025, -6.61711, -1.66977, 4.46662, 4.41701, -96.8149, -89.5023
2.36, 2, -43.1719, 0.477905, 18.9137, -163.368, -90.8426, 55.4025, -6.61711, -1.66977, 4.46662, 4.41701, -96.8149, -89.5023
2.364, 2, -43.1719, 0.477905, 18.9137, -163.368, -90.8426, 55.4025, -6.61711, -1.66977, 4.46662, 4.41701, -96.8149, -89.5023
2.367, 2, -43.1719, 0.477905, 18.9137, -163.368, -90.8426, 55.4025, -6.61711, -1.66977, 4.46662, 4.41701, -96.8149, -89.5023
2.372, 2, -43.1719, 0.477905, 18.9137, -163.368, -90.8426, 55.4025, -6.61711, -1.66977, 4.46662, 4.41701, -96.8149, -89.5023
2.376, 2, -43.1719, 0.477905, 18.9137, -163.368, -90.8426, 55.4025, -6.61711, -1.66977, 4.46662, 4.41701, -96.8149, -89.5023
2.38, 2, -43.1719, 0.477905, 18.9137, -163.368, -90.8426, 55.4025, -6.61711, -1.66977, 4.46662, 4.41701, -96.8149, -89.5023
2.383, 2, -43.1719, 0.477905, 18.9137, -163.368, -90.8426, 55.4025, -6.61711, -1.66977, 4.46662, 4.41701, -96.8149, -89.5023
2.388, 2, -43.1719, 0.477905, 18.9137, -163.368, -90.8426, 55.4025, -6.61711, -1.66977, 4.46662, 4.41701, -96.8149, -89.5023
2.392, 2, -43.1719, 0.477905, 18.9137, -163.368, -90.8426, 55.4025, -6.61711, -1.66977, 4.46662, 4.41701, -96.8149, -89.5023
2.396, 2, -43.1719, 0.477905, 18.9137, -163.368, -90.8426, 55.4025, -6.61711, -1.66977, 4.46662, 4.41701, -96.8149, -89.5023
2.4, 2, -43.1719, 0.477905, 18.9137, -163.368, -90.8426, 55.4025, -6.61711, -1.66977, 4.46662, 4.41701, -96.8149, -89.5023
2.403, 2, -43.1719, 0.477905, 18.9137, -163.368, -90.8426, 55.4025, -6.61711, -1.66977, 4.46662, 4.41701, -96.8149, -89.5023
2.408, 2, -43.1719, 0.477905, 18.9137, -163.368, -90.8426, 55.4025, -6.61711, -1.66977, 4.46662, 4.41701, -96.8149, -89.5023
2.412, 2, -43.1719, 0.477905, 18.9137, -163.368, -90.8426, 55.4025, -6.61711, -1.66977, 4.46662, 4.41701, -96.8149, -89.5023
2.416, 2, -43.1719, 0.477905, 18.9137, -163.368, -90.8426, 55.4025, -6.61711, -1.66977, 4.46662, 4.41701, -96.8149, -89.5023
2.42, 2, -43.1719, 0.477905, 18.9137, -163.368, -90.8426, 55.4025, -6.61711, -1.66977, 4.46662, 4.41701, -96.8149, -89.5023
2.423, 2, -43.1719, 0.477905, 18.9137, -163.368, -90.8426, 55.4025, -6.61711, -1.66977, 4.46662, 4.41701, -96.8149, -89.5023
2.428, 2, -43.1719, 0.477905, 18.9137, -163.368, -90.8426, 55.4025, -6.61711, -1.66977, 4.46662, 4.41701, -96.8149, -89.5023
2.432, 2, -43.1719, 0.477905, 18.9137, -163.368, -90.8426, 55.4025, -6.61711, -1.66977, 4.46662, 4.41701, -96.8149, -89.5023
2.436, 2, -43.1719, 0.477905, 18.9137, -163.368, -90.8426, 55.4025, -6.61711, -1.66977, 4.46662, 4.41701, -96.8149, -89.5023
2.439, 2, -43.1719, 0.477905, 18.9137, -163.368, -90.8426, 55.4025, -6.61711, -1.66977, 4.46662, 4.41701, -96.8149, -89.5023
2.444, 2, -43.1719, 0.477905, 18.9137, -163.368, -90.8426, 55.4025, -6.61711, -1.66977, 4.46662, 4.41701, -96.8149, -89.5023
2.448, 2, -43.1719, 0.477905, 18.9137, -163.368, -90.8426, 55.4025, -6.61711, -1.66977, 4.46662, 4.41701, -96.8149, -89.5023
2.452, 2, -43.1719, 0.477905, 18.9137, -163.368, -90.8426, 55.4025, -6.61711, -1.66977, 4.46662, 4.41701, -96.8149, -89.5023
2.456, 2, -43.1719, 0.477905, 18.9137, -163.368, -90.8426, 55.4025, -6.61711, -1.66977, 4.46662, 4.41701, -96.8149, -89.5023
2.459, 2, -43.1719, 0.477905, 18.9137, -163.368, -90.8426, 55.4025, -6.61711, -1.66977, 4.46662, 4.41701, -96.8149, -89.5023
2.464, 2, -43.1719, 0.477905, 18.9137, -163.368, -90.8426, 55.4025, -6.61711, -1.66977, 4.46662, 4.41701, -96.8149, -89.5023
2.468, 2, -43.1719, 0.477905, 18.9137, -163.368, -90.8426, 55.4025, -6.61711, -1.66977, 4.46662, 4.41701, -96.8149, -89.5023
2.472, 2, -43.1719, 0.477905, 18.9137, -163.368, -90.8426, 55.4025, -6.61711, -1.66977, 4.46662, 4.41701, -96.8149, -89.5023
2.476, 2, -43.1719, 0.477905, 18.9137, -163.368, -90.8426, 55.4025, -6.61711, -1.66977, 4.46662, 4.41701, -96.8149, -89.5023
2.479, 2, -43.1719, 0.477905, 18.9137, -163.368, -90.8426, 55.4025, -6.61711, -1.66977, 4.46662, 4.41701, -96.8149, -89.5023
2.484, 2, -43.1719, 0.477905, 18.9137, -163.368, -90.8426, 55.4025, -6.61711, -1.66977, 4.46662, 4.41701, -96.8149, -89.5023
2.488, 2, -43.1719, 0.477905, 18.9137, -163.368, -90.8426, 55.4025, -6.61711, -1.66977, 4.46662, 4.41701, -96.8149, -89.5023
2.492, 2, -43.1719, 0.477905, 18.9137, -163.368, -90.8426, 55.4025, -6.61711, -1.66977, 4.46662, 4.41701, -96.8149, -89.5023
2.495, 2, -43.1719, 0.477905, 18.9137, -163.368, -90.8426, 55.4025, -6.61711, -1.66977, 4.46662, 4.41701, -96.8149, -89.5023
2.5, 2, -43.1719, 0.477905, 18.9137, -163.368, -90.8426, 55.4025, -6.61711, -1.66977, 4.46662, 4.41701, -96.8149, -89.5023
2.504, 2, -43.1719, 0.477905, 18.9137, -163.368, -90.8426, 55.4025, -6.61711, -1.66977, 4.46662, 4.41701, -96.8149, -89.5023
2.508, 2, -43.1719, 0.477905, 18.9137, -163.368, -90.8426, 55.4025, -6.61711, -1.66977, 4.46662, 4.41701, -96.8149, -89.5023
2.512, 2, -43.1719, 0.477905, 18.9137, -163.368, -90.8426, 55.4025, -6.61711, -1.66977, 4.46662, 4.41701, -96.8149, -89.5023
2.515, 2, -43.1719, 0.477905, 18.9137, -163.368, -90.8426, 55.4025, -6.61711, -1.66977, 4.46662, 4.41701, -96.8149, -89.5023
2.52, 2, -43.1719, 0.477905, 18.9137, -163.368, -90.8426, 55.4025, -6.61711, -1.66977, 4.46662, 4.41701, -96.8149, -89.5023
2.524, 2, -43.1719, 0.477905, 18.9137, -163.368, -90.8426, 55.4025, -6.61711, -1.66977, 4.46662, 4.41701, -96.8149, -89.5023
2.528, 2, -43.1719, 0.477905, 18.9137, -163.368, -90.8426, 55.4025, -6.61711, -1.66977, 4.46662, 4.41701, -96.8149, -89.5023
2.531, 2, -43.1719, 0.477905, 18.9137, -163.368, -90.8426, 55.4025, -6.61711, -1.66977, 4.46662, 4.41701, -96.8149, -89.5023
2.536, 2, -43.1719, 0.477905, 18.9137, -163.368, -90.8426, 55.4025, -6.61711, -1.66977, 4.46662, 4.41701, -96.8149, -89.5023
2.54, 2, -43.1719, 0.477905, 18.9137, -163.368, -90.8426, 55.4025, -6.61711, -1.66977, 4.46662, 4.41701, -96.8149, -89.5023
2.544, 2, -43.1719, 0.477905, 18.9137, -163.368, -90.8426, 55.4025, -6.61711, -1.66977, 4.46662, 4.41701, -96.8149, -89.5023
2.548, 2, -43.1719, 0.477905, 18.9137, -163.368, -90.8426, 55.4025, -6.61711, -1.66977, 4.46662, 4.41701, -96.8149, -89.5023
2.551, 2, -43.1719, 0.477905, 18.9137, -163.368, -90.8426, 55.4025, -6.61711, -1.66977, 4.46662, 4.41701, -96.8149, -89.5023
2.556, 2, -43.1719, 0.477905, 18.9137, -163.368, -90.8426, 55.4025, -6.61711, -1.66977, 4.46662, 4.41701, -96.8149, -89.5023
2.56, 2, -43.1719, 0.477905, 18.9137, -163.368, -90.8426, 55.4025, -6.61711, -1.66977, 4.46662, 4.41701, -96.8149, -89.5023
2.564, 2, -43.1719, 0.477905, 18.9137, -163.368, -90.8426, 55.4025, -6.61711, -1.66977, 4.46662, 4.41701, -96.8149, -89.5023
2.568, 2, -43.1719, 0.477905, 18.9137, -163.368, -90.8426, 55.4025, -6.61711, -1.66977, 4.46662, 4.41701, -96.8149, -89.5023
2.571, 2, -43.1719, 0.477905, 18.9137, -163.368, -90.8426, 55.4025, -6.61711, -1.66977, 4.46662, 4.41701, -96.8149, -89.5023
2.576, 2, -43.1719, 0.477905, 18.9137, -163.368, -90.8426, 55.4025, -6.61711, -1.66977, 4.46662, 4.41701, -96.8149, -89.5023
2.58, 2, -43.1719, 0.477905, 18.9137, -163.368, -90.8426, 55.4025, -6.61711, -1.66977, 4.46662, 4.41701, -96.8149, -89.5023
2.584, 2, -43.1719, 0.477905, 18.9137, -163.368, -90.8426, 55.4025, -6.61711, -1.66977, 4.46662, 4.41701, -96.8149, -89.5023
2.587, 2, -43.1719, 0.477905, 18.9137, -163.368, -90.8426, 55.4025, -6.61711, -1.66977, 4.46662, 4.41701, -96.8149, -89.5023
2.592, 2, -43.1719, 0.477905, 18.9137, -163.368, -90.8426, 55.4025, -6.61711, -1.66977, 4.46662, 4.41701, -96.8149, -89.5023
2.596, 2, -43.1719, 0.477905, 18.9137, -163.368, -90.8426, 55.4025, -6.61711, -1.66977, 4.46662, 4.41701, -96.8149, -89.5023
2.6, 2, -43.1719, 0.477905, 18.9137, -163.368, -90.8426, 55.4025, -6.61711, -1.66977, 4.46662, 4.41701, -96.8149, -89.5023
2.604, 2, -43.1719, 0.477905, 18.9137, -163.368, -90.8426, 55.4025, -6.61711, -1.66977, 4.46662, 4.41701, -96.8149, -89.5023
2.607, 2, -43.1719, 0.477905, 18.9137, -163.368, -90.8426, 55.4025, -6.61711, -1.66977, 4.46662, 4.41701, -96.8149, -89.5023
2.612, 2, -43.1719, 0.477905, 18.9137, -163.368, -90.8426, 55.4025, -6.61711, -1.66977, 4.46662, 4.41701, -96.8149, -89.5023
2.616, 2, -43.1719, 0.477905, 18.9137, -163.368, -90.8426, 55.4025, -6.61711, -1.66977, 4.46662, 4.41701, -96.8149, -89.5023
2.62, 2, -43.1719, 0.477905, 18.9137, -163.368, -90.8426, 55.4025, -6.61711, -1.66977, 4.46662, 4.41701, -96.8149, -89.5023
2.624, 2, -43.1719, 0.477905, 18.9137, -163.368, -90.8426, 55.4025, -6.61711, -1.66977, 4.46662, 4.41701, -96.8149, -89.5023
2.627, 2, -43.1719, 0.477905, 18.9137, -163.368, -90.8426, 55.4025, -6.61711, -1.66977, 4.46662, 4.41701, -96.8149, -89.5023
2.632, 2, -43.1719, 0.477905, 18.9137, -163.368, -90.8426, 55.4025, -6.61711, -1.66977, 4.46662, 4.41701, -96.8149, -89.5023
2.636, 2, -43.1719, 0.477905, 18.9137, -163.368, -90.8426, 55.4025, -6.61711, -1.66977, 4.46662, 4.41701, -96.8149, -89.5023
2.64, 2, -43.1719, 0.477905, 18.9137, -163.368, -90.8426, 55.4025, -6.61711, -1.66977, 4.46662, 4.41701, -96.8149, -89.5023
2.643, 2, -43.1719, 0.477905, 18.9137, -163.368, -90.8426, 55.4025, -6.61711, -1.66977, 4.46662, 4.41701, -96.8149, -89.5023
2.648, 2, -43.1719, 0.477905, 18.9137, -163.368, -90.8426, 55.4025, -6.61711, -1.66977, 4.46662, 4.41701, -96.8149, -89.5023
2.652, 2, -43.1719, 0.477905, 18.9137, -163.368, -90.8426, 55.4025, -6.61711, -1.66977, 4.46662, 4.41701, -96.8149, -89.5023
2.656, 2, -43.1719, 0.477905, 18.9137, -163.368, -90.8426, 55.4025, -6.61711, -1.66977, 4.46662, 4.41701, -96.8149, -89.5023
2.66, 2, -43.1719, 0.477905, 18.9137, -163.368, -90.8426, 55.4025, -6.61711, -1.66977, 4.46662, 4.41701, -96.8149, -89.5023
2.663, 2, -43.1719, 0.477905, 18.9137, -163.368, -90.8426, 55.4025, -6.61711, -1.66977, 4.46662, 4.41701, -96.8149, -89.5023
2.668, 2, -43.1719, 0.477905, 18.9137, -163.368, -90.8426, 55.4025, -6.61711, -1.66977, 4.46662, 4.41701, -96.8149, -89.5023
2.672, 2, -43.1719, 0.477905, 18.9137, -163.368, -90.8426, 55.4025, -6.61711, -1.66977, 4.46662, 4.41701, -96.8149, -89.5023
2.676, 2, -43.1719, 0.477905, 18.9137, -163.368, -90.8426, 55.4025, -6.61711, -1.66977, 4.46662, 4.41701, -96.8149, -89.5023
2.679, 2, -43.1719, 0.477905, 18.9137, -163.368, -90.8426, 55.4025, -6.61711, -1.66977, 4.46662, 4.41701, -96.8149, -89.5023
2.684, 2, -43.1719, 0.477905, 18.9137, -163.368, -90.8426, 55.4025, -6.61711, -1.66977, 4.46662, 4.41701, -96.8149, -89.5023
2.688, 2, -43.1719, 0.477905, 18.9137, -163.368, -90.8426, 55.4025, -6.61711, -1.66977, 4.46662, 4.41701, -96.8149, -89.5023
2.692, 2, -43.1719, 0.477905, 18.9137, -163.368, -90.8426, 55.4025, -6.61711, -1.66977, 4.46662, 4.41701, -96.8149, -89.5023
2.696, 2, -43.1719, 0.477905, 18.9137, -163.368, -90.8426, 55.4025, -6.61711, -1.66977, 4.46662, 4.41701, -96.8149, -89.5023
2.699, 2, -43.1719, 0.477905, 18.9137, -163.368, -90.8426, 55.4025, -6.61711, -1.66977, 4.46662, 4.41701, -96.8149, -89.5023
2.704, 2, -43.1719, 0.477905, 18.9137, -163.368, -90.8426, 55.4025, -6.61711, -1.66977, 4.46662, 4.41701, -96.8149, -89.5023
2.708, 2, -43.1719, 0.477905, 18.9137, -163.368, -90.8426, 55.4025, -6.61711, -1.66977, 4.46662, 4.41701, -96.8149, -89.5023
2.712, 2, -43.1719, 0.477905, 18.9137, -163.368, -90.8426, 55.4025, -6.61711, -1.66977, 4.46662, 4.41701, -96.8149, -89.5023
2.716, 2, -43.1719, 0.477905, 18.9137, -163.368, -90.8426, 55.4025, -6.61711, -1.66977, 4.46662, 4.41701, -96.8149, -89.5023
2.719, 2, -43.1719, 0.477905, 18.9137, -163.368, -90.8426, 55.4025, -6.61711, -1.66977, 4.46662, 4.41701, -96.8149, -89.5023
2.724, 2, -43.1719, 0.477905, 18.9137, -163.368, -90.8426, 55.4025, -6.61711, -1.66977, 4.46662, 4.41701, -96.8149, -89.5023
2.728, 2, -43.1719, 0.477905, 18.9137, -163.368, -90.8426, 55.4025, -6.61711, -1.66977, 4.46662, 4.41701, -96.8149, -89.5023
2.732, 2, -43.1719, 0.477905, 18.9137, -163.368, -90.8426, 55.4025, -6.61711, -1.66977, 4.46662, 4.41701, -96.8149, -89.5023
2.735, 2, -43.1719, 0.477905, 18.9137, -163.368, -90.8426, 55.4025, -6.61711, -1.66977, 4.46662, 4.41701, -96.8149, -89.5023
2.74, 2, -43.1719, 0.477905, 18.9137, -163.368, -90.8426, 55.4025, -6.61711, -1.66977, 4.46662, 4.41701, -96.8149, -89.5023
2.744, 2, -43.1719, 0.477905, 18.9137, -163.368, -90.8426, 55.4025, -6.61711, -1.66977, 4.46662, 4.41701, -96.8149, -89.5023
2.748, 2, -43.1719, 0.477905, 18.9137, -163.368, -90.8426, 55.4025, -6.61711, -1.66977, 4.46662, 4.41701, -96.8149, -89.5023
2.752, 2, -43.1719, 0.477905, 18.9137, -163.368, -90.8426, 55.4025, -6.61711, -1.66977, 4.46662, 4.41701, -96.8149, -89.5023
2.755, 2, -43.1719, 0.477905, 18.9137, -163.368, -90.8426, 55.4025, -6.61711, -1.66977, 4.46662, 4.41701, -96.8149, -89.5023
2.76, 2, -43.1719, 0.477905, 18.9137, -163.368, -90.8426, 55.4025, -6.61711, -1.66977, 4.46662, 4.41701, -96.8149, -89.5023
2.764, 2, -43.1719, 0.477905, 18.9137, -163.368, -90.8426, 55.4025, -6.61711, -1.66977, 4.46662, 4.41701, -96.8149, -89.5023
2.768, 2, -43.1719, 0.477905, 18.9137, -163.368, -90.8426, 55.4025, -6.61711, -1.66977, 4.46662, 4.41701, -96.8149, -89.5023
2.772, 2, -43.1719, 0.477905, 18.9137, -163.368, -90.8426, 55.4025, -6.61711, -1.66977, 4.46662, 4.41701, -96.8149, -89.5023
2.775, 2, -43.1719, 0.477905, 18.9137, -163.368, -90.8426, 55.4025, -6.61711, -1.66977, 4.46662, 4.41701, -96.8149, -89.5023
2.78, 2, -43.1719, 0.477905, 18.9137, -163.368, -90.8426, 55.4025, -6.61711, -1.66977, 4.46662, 4.41701, -96.8149, -89.5023
2.784, 2, -43.1719, 0.477905, 18.9137, -163.368, -90.8426, 55.4025, -6.61711, -1.66977, 4.46662, 4.41701, -96.8149, -89.5023
2.788, 2, -43.1719, 0.477905, 18.9137, -163.368, -90.8426, 55.4025, -6.61711, -1.66977, 4.46662, 4.41701, -96.8149, -89.5023
2.791, 2, -43.1719, 0.477905, 18.9137, -163.368, -90.8426, 55.4025, -6.61711, -1.66977, 4.46662, 4.41701, -96.8149, -89.5023
2.796, 2, -43.1719, 0.477905, 18.9137, -163.368, -90.8426, 55.4025, -6.61711, -1.66977, 4.46662, 4.41701, -96.8149, -89.5023
2.8, 2, -43.1719, 0.477905, 18.9137, -163.368, -90.8426, 55.4025, -6.61711, -1.66977, 4.46662, 4.41701, -96.8149, -89.5023
2.804, 2, -43.1719, 0.477905, 18.9137, -163.368, -90.8426, 55.4025, -6.61711, -1.66977, 4.46662, 4.41701, -96.8149, -89.5023
2.808, 2, -43.1719, 0.477905, 18.9137, -163.368, -90.8426, 55.4025, -6.61711, -1.66977, 4.46662, 4.41701, -96.8149, -89.5023
2.811, 2, -43.1719, 0.477905, 18.9137, -163.368, -90.8426, 55.4025, -6.61711, -1.66977, 4.46662, 4.41701, -96.8149, -89.5023
2.816, 2, -43.1719, 0.477905, 18.9137, -163.368, -90.8426, 55.4025, -6.61711, -1.66977, 4.46662, 4.41701, -96.8149, -89.5023
2.82, 2, -43.1719, 0.477905, 18.9137, -163.368, -90.8426, 55.4025, -6.61711, -1.66977, 4.46662, 4.41701, -96.8149, -89.5023
2.824, 2, -43.1719, 0.477905, 18.9137, -163.368, -90.8426, 55.4025, -6.61711, -1.66977, 4.46662, 4.41701, -96.8149, -89.5023
2.828, 2, -43.1719, 0.477905, 18.9137, -163.368, -90.8426, 55.4025, -6.61711, -1.66977, 4.46662, 4.41701, -96.8149, -89.5023
2.831, 2, -43.1719, 0.477905, 18.9137, -163.368, -90.8426, 55.4025, -6.61711, -1.66977, 4.46662, 4.41701, -96.8149, -89.5023
2.836, 2, -43.1719, 0.477905, 18.9137, -163.368, -90.8426, 55.4025, -6.61711, -1.66977, 4.46662, 4.41701, -96.8149, -89.5023
2.84, 2, -43.1719, 0.477905, 18.9137, -163.368, -90.8426, 55.4025, -6.61711, -1.66977, 4.46662, 4.41701, -96.8149, -89.5023
2.844, 2, -43.1719, 0.477905, 18.9137, -163.368, -90.8426, 55.4025, -6.61711, -1.66977, 4.46662, 4.41701, -96.8149, -89.5023
2.847, 2, -43.1719, 0.477905, 18.9137, -163.368, -90.8426, 55.4025, -6.61711, -1.66977, 4.46662, 4.41701, -96.8149, -89.5023
2.852, 2, -43.1719, 0.477905, 18.9137, -163.368, -90.8426, 55.4025, -6.61711, -1.66977, 4.46662, 4.41701, -96.8149, -89.5023
2.856, 2, -43.1719, 0.477905, 18.9137, -163.368, -90.8426, 55.4025, -6.61711, -1.66977, 4.46662, 4.41701, -96.8149, -89.5023
2.86, 2, -43.1719, 0.477905, 18.9137, -163.368, -90.8426, 55.4025, -6.61711, -1.66977, 4.46662, 4.41701, -96.8149, -89.5023
2.864, 2, -43.1719, 0.477905, 18.9137, -163.368, -90.8426, 55.4025, -6.61711, -1.66977, 4.46662, 4.41701, -96.8149, -89.5023
2.867, 2, -43.1719, 0.477905, 18.9137, -163.368, -90.8426, 55.4025, -6.61711, -1.66977, 4.46662, 4.41701, -96.8149, -89.5023
2.872, 2, -43.1719, 0.477905, 18.9137, -163.368, -90.8426, 55.4025, -6.61711, -1.66977, 4.46662, 4.41701, -96.8149, -89.5023
2.876, 2, -43.1719, 0.477905, 18.9137, -163.368, -90.8426, 55.4025, -6.61711, -1.66977, 4.46662, 4.41701, -96.8149, -89.5023
2.88, 2, -43.1719, 0.477905, 18.9137, -163.368, -90.8426, 55.4025, -6.61711, -1.66977, 4.46662, 4.41701, -96.8149, -89.5023
2.883, 2, -43.1719, 0.477905, 18.9137, -163.368, -90.8426, 55.4025, -6.61711, -1.66977, 4.46662, 4.41701, -96.8149, -89.5023
2.888, 2, -43.1719, 0.477905, 18.9137, -163.368, -90.8426, 55.4025, -6.61711, -1.66977, 4.46662, 4.41701, -96.8149, -89.5023
2.892, 2, -43.1719, 0.477905, 18.9137, -163.368, -90.8426, 55.4025, -6.61711, -1.66977, 4.46662, 4.41701, -96.8149, -89.5023
2.896, 2, -43.1719, 0.477905, 18.9137, -163.368, -90.8426, 55.4025, -6.61711, -1.66977, 4.46662, 4.41701, -96.8149, -89.5023
2.9, 2, -43.1719, 0.477905, 18.9137, -163.368, -90.8426, 55.4025, -6.61711, -1.66977, 4.46662, 4.41701, -96.8149, -89.5023
2.903, 2, -43.1719, 0.477905, 18.9137, -163.368, -90.8426, 55.4025, -6.61711, -1.66977, 4.46662, 4.41701, -96.8149, -89.5023
2.908, 2, -43.1719, 0.477905, 18.9137, -163.368, -90.8426, 55.4025, -6.61711, -1.66977, 4.46662, 4.41701, -96.8149, -89.5023
2.912, 2, -43.1719, 0.477905, 18.9137, -163.368, -90.8426, 55.4025, -6.61711, -1.66977, 4.46662, 4.41701, -96.8149, -89.5023
2.916, 2, -43.1719, 0.477905, 18.9137, -163.368, -90.8426, 55.4025, -6.61711, -1.66977, 4.46662, 4.41701, -96.8149, -89.5023
2.92, 2, -43.1719, 0.477905, 18.9137, -163.368, -90.8426, 55.4025, -6.61711, -1.66977, 4.46662, 4.41701, -96.8149, -89.5023
2.923, 2, -43.1719, 0.477905, 18.9137, -163.368, -90.8426, 55.4025, -6.61711, -1.66977, 4.46662, 4.41701, -96.8149, -89.5023
2.928, 2, -43.1719, 0.477905, 18.9137, -163.368, -90.8426, 55.4025, -6.61711, -1.66977, 4.46662, 4.41701, -96.8149, -89.5023
2.932, 2, -43.1719, 0.477905, 18.9137, -163.368, -90.8426, 55.4025, -6.61711, -1.66977, 4.46662, 4.41701, -96.8149, -89.5023
2.936, 2, -43.1719, 0.477905, 18.9137, -163.368, -90.8426, 55.4025, -6.61711, -1.66977, 4.46662, 4.41701, -96.8149, -89.5023
2.939, 2, -43.1719, 0.477905, 18.9137, -163.368, -90.8426, 55.4025, -6.61711, -1.66977, 4.46662, 4.41701, -96.8149, -89.5023
2.944, 2, -43.1719, 0.477905, 18.9137, -163.368, -90.8426, 55.4025, -6.61711, -1.66977, 4.46662, 4.41701, -96.8149, -89.5023
2.948, 2, -43.1719, 0.477905, 18.9137, -163.368, -90.8426, 55.4025, -6.61711, -1.66977, 4.46662, 4.41701, -96.8149, -89.5023
2.952, 2, -43.1719, 0.477905, 18.9137, -163.368, -90.8426, 55.4025, -6.61711, -1.66977, 4.46662, 4.41701, -96.8149, -89.5023
2.956, 2, -43.1719, 0.477905, 18.9137, -163.368, -90.8426, 55.4025, -6.61711, -1.66977, 4.46662, 4.41701, -96.8149, -89.5023
2.959, 2, -43.1719, 0.477905, 18.9137, -163.368, -90.8426, 55.4025, -6.61711, -1.66977, 4.46662, 4.41701, -96.8149, -89.5023
2.964, 2, -43.1719, 0.477905, 18.9137, -163.368, -90.8426, 55.4025, -6.61711, -1.66977, 4.46662, 4.41701, -96.8149, -89.5023
2.968, 2, -43.1719, 0.477905, 18.9137, -163.368, -90.8426, 55.4025, -6.61711, -1.66977, 4.46662, 4.41701, -96.8149, -89.5023
2.972, 2, -43.1719, 0.477905, 18.9137, -163.368, -90.8426, 55.4025, -6.61711, -1.66977, 4.46662, 4.41701, -96.8149, -89.5023
2.976, 2, -43.1719, 0.477905, 18.9137, -163.368, -90.8426, 55.4025, -6.61711, -1.66977, 4.46662, 4.41701, -96.8149, -89.5023
2.98, 2, -43.1719, 0.477905, 18.9137, -163.368, -90.8426, 55.4025, -6.61711, -1.66977, 4.46662, 4.41701, -96.8149, -89.5023
2.984, 2, -43.1719, 0.477905, 18.9137, -163.368, -90.8426, 55.4025, -6.61711, -1.66977, 4.46662, 4.41701, -96.8149, -89.5023
2.988, 2, -43.1719, 0.477905, 18.9137, -163.368, -90.8426, 55.4025, -6.61711, -1.66977, 4.46662, 4.41701, -96.8149, -89.5023
2.992, 2, -43.1719, 0.477905, 18.9137, -163.368, -90.8426, 55.4025, -6.61711, -1.66977, 4.46662, 4.41701, -96.8149, -89.5023
2.995, 2, -43.1719, 0.477905, 18.9137, -163.368, -90.8426, 55.4025, -6.61711, -1.66977, 4.46662, 4.41701, -96.8149, -89.5023
3, 2, -43.1719, 0.477905, 18.9137, -163.368, -90.8426, 55.4025, -6.61711, -1.66977, 4.46662, 4.41701, -96.8149, -89.5023
3.004, 2, -43.1719, 0.477905, 18.9137, -163.368, -90.8426, 55.4025, -6.61711, -1.66977, 4.46662, 4.41701, -96.8149, -89.5023
3.008, 2, -43.1719, 0.477905, 18.9137, -163.368, -90.8426, 55.4025, -6.61711, -1.66977, 4.46662, 4.41701, -96.8149, -89.5023
3.012, 2, -43.1719, 0.477905, 18.9137, -163.368, -90.8426, 55.4025, -6.61711, -1.66977, 4.46662, 4.41701, -96.8149, -89.5023
3.015, 2, -43.1719, 0.477905, 18.9137, -163.368, -90.8426, 55.4025, -6.61711, -1.66977, 4.46662, 4.41701, -96.8149, -89.5023
3.02, 2, -43.1719, 0.477905, 18.9137, -163.368, -90.8426, 55.4025, -6.61711, -1.66977, 4.46662, 4.41701, -96.8149, -89.5023
3.024, 2, -43.1719, 0.477905, 18.9137, -163.368, -90.8426, 55.4025, -6.61711, -1.66977, 4.46662, 4.41701, -96.8149, -89.5023
3.028, 2, -43.1719, 0.477905, 18.9137, -163.368, -90.8426, 55.4025, -6.61711, -1.66977, 4.46662, 4.41701, -96.8149, -89.5023
3.031, 2, -43.1719, 0.477905, 18.9137, -163.368, -90.8426, 55.4025, -6.61711, -1.66977, 4.46662, 4.41701, -96.8149, -89.5023
3.036, 2, -43.1719, 0.477905, 18.9137, -163.368, -90.8426, 55.4025, -6.61711, -1.66977, 4.46662, 4.41701, -96.8149, -89.5023
3.04, 2, -43.1719, 0.477905, 18.9137, -163.368, -90.8426, 55.4025, -6.61711, -1.66977, 4.46662, 4.41701, -96.8149, -89.5023
3.044, 2, -43.1719, 0.477905, 18.9137, -163.368, -90.8426, 55.4025, -6.61711, -1.66977, 4.46662, 4.41701, -96.8149, -89.5023
3.048, 2, -43.1719, 0.477905, 18.9137, -163.368, -90.8426, 55.4025, -6.61711, -1.66977, 4.46662, 4.41701, -96.8149, -89.5023
3.051, 2, -43.1719, 0.477905, 18.9137, -163.368, -90.8426, 55.4025, -6.61711, -1.66977, 4.46662, 4.41701, -96.8149, -89.5023
3.056, 2, -43.1719, 0.477905, 18.9137, -163.368, -90.8426, 55.4025, -6.61711, -1.66977, 4.46662, 4.41701, -96.8149, -89.5023
3.06, 2, -43.1719, 0.477905, 18.9137, -163.368, -90.8426, 55.4025, -6.61711, -1.66977, 4.46662, 4.41701, -96.8149, -89.5023
3.064, 2, -43.1719, 0.477905, 18.9137, -163.368, -90.8426, 55.4025, -6.61711, -1.66977, 4.46662, 4.41701, -96.8149, -89.5023
3.068, 2, -43.1719, 0.477905, 18.9137, -163.368, -90.8426, 55.4025, -6.61711, -1.66977, 4.46662, 4.41701, -96.8149, -89.5023
3.071, 2, -43.1719, 0.477905, 18.9137, -163.368, -90.8426, 55.4025, -6.61711, -1.66977, 4.46662, 4.41701, -96.8149, -89.5023
3.076, 2, -43.1719, 0.477905, 18.9137, -163.368, -90.8426, 55.4025, -6.61711, -1.66977, 4.46662, 4.41701, -96.8149, -89.5023
3.08, 2, -43.1719, 0.477905, 18.9137, -163.368, -90.8426, 55.4025, -6.61711, -1.66977, 4.46662, 4.41701, -96.8149, -89.5023
3.084, 2, -43.1719, 0.477905, 18.9137, -163.368, -90.8426, 55.4025, -6.61711, -1.66977, 4.46662, 4.41701, -96.8149, -89.5023
3.087, 2, -43.1719, 0.477905, 18.9137, -163.368, -90.8426, 55.4025, -6.61711, -1.66977, 4.46662, 4.41701, -96.8149, -89.5023
3.092, 2, -43.1719, 0.477905, 18.9137, -163.368, -90.8426, 55.4025, -6.61711, -1.66977, 4.46662, 4.41701, -96.8149, -89.5023
3.096, 2, -43.1719, 0.477905, 18.9137, -163.368, -90.8426, 55.4025, -6.61711, -1.66977, 4.46662, 4.41701, -96.8149, -89.5023
3.1, 2, -43.1719, 0.477905, 18.9137, -163.368, -90.8426, 55.4025, -6.61711, -1.66977, 4.46662, 4.41701, -96.8149, -89.5023
3.104, 2, -43.1719, 0.477905, 18.9137, -163.368, -90.8426, 55.4025, -6.61711, -1.66977, 4.46662, 4.41701, -96.8149, -89.5023
3.107, 2, -43.1719, 0.477905, 18.9137, -163.368, -90.8426, 55.4025, -6.61711, -1.66977, 4.46662, 4.41701, -96.8149, -89.5023
3.112, 2, -43.1719, 0.477905, 18.9137, -163.368, -90.8426, 55.4025, -6.61711, -1.66977, 4.46662, 4.41701, -96.8149, -89.5023
3.116, 2, -43.1719, 0.477905, 18.9137, -163.368, -90.8426, 55.4025, -6.61711, -1.66977, 4.46662, 4.41701, -96.8149, -89.5023
3.12, 2, -43.1719, 0.477905, 18.9137, -163.368, -90.8426, 55.4025, -6.61711, -1.66977, 4.46662, 4.41701, -96.8149, -89.5023
3.124, 2, -43.1719, 0.477905, 18.9137, -163.368, -90.8426, 55.4025, -6.61711, -1.66977, 4.46662, 4.41701, -96.8149, -89.5023
3.128, 2, -43.1719, 0.477905, 18.9137, -163.368, -90.8426, 55.4025, -6.61711, -1.66977, 4.46662, 4.41701, -96.8149, -89.5023
3.132, 2, -43.1719, 0.477905, 18.9137, -163.368, -90.8426, 55.4025, -6.61711, -1.66977, 4.46662, 4.41701, -96.8149, -89.5023
3.136, 2, -43.1719, 0.477905, 18.9137, -163.368, -90.8426, 55.4025, -6.61711, -1.66977, 4.46662, 4.41701, -96.8149, -89.5023
3.14, 2, -43.1719, 0.477905, 18.9137, -163.368, -90.8426, 55.4025, -6.61711, -1.66977, 4.46662, 4.41701, -96.8149, -89.5023
3.143, 2, -43.1719, 0.477905, 18.9137, -163.368, -90.8426, 55.4025, -6.61711, -1.66977, 4.46662, 4.41701, -96.8149, -89.5023
3.148, 2, -43.1719, 0.477905, 18.9137, -163.368, -90.8426, 55.4025, -6.61711, -1.66977, 4.46662, 4.41701, -96.8149, -89.5023
