hehonglu123/Motion-Primitive-Planning/ILC/recorded_data/realrobot/from_NX/iteration_18/run_2.csv
timestamp, cmd_num, J1, J2, J3, J4, J5, J6
0.000374, -1, 39.6302, 32.4471, 11.8318, 12.5453, 113.713, -48.8723
0.003079, -1, 39.6302, 32.4471, 11.8318, 12.5453, 113.713, -48.8723
0.007892, -1, 39.6302, 32.4471, 11.8319, 12.5453, 113.713, -48.8723
0.028185, -1, 39.6302, 32.447, 11.8319, 12.5453, 113.713, -48.8723
0.029473, -1, 39.6302, 32.447, 11.8319, 12.5453, 113.713, -48.8723
0.032331, -1, 39.6302, 32.447, 11.8319, 12.5453, 113.713, -48.8723
0.039823, -1, 39.6302, 32.447, 11.8319, 12.5453, 113.713, -48.8724
0.047762, -1, 39.6301, 32.447, 11.8318, 12.5453, 113.713, -48.8724
0.05586, -1, 39.6296, 32.447, 11.8318, 12.5453, 113.713, -48.8724
0.063755, -1, 39.6273, 32.4466, 11.8318, 12.5453, 113.713, -48.8723
0.194652, -1, 38.4253, 31.8341, 12.066, 12.5551, 113.089, -50.4676
0.197458, -1, 38.34, 31.7894, 12.0853, 12.5563, 113.04, -50.5908
0.198692, -1, 38.34, 31.7894, 12.0853, 12.5563, 113.04, -50.5908
0.201027, -1, 38.253, 31.7439, 12.1048, 12.5575, 112.991, -50.7157
0.202211, -1, 38.253, 31.7439, 12.1048, 12.5575, 112.991, -50.7157
0.204246, -1, 38.1644, 31.6976, 12.1244, 12.5586, 112.941, -50.8419
0.20555, -1, 38.1644, 31.6976, 12.1244, 12.5586, 112.941, -50.8419
0.207873, -1, 38.0745, 31.6507, 12.1439, 12.5599, 112.89, -50.969
0.209307, -1, 38.0745, 31.6507, 12.1439, 12.5599, 112.89, -50.969
0.210521, -1, 38.0745, 31.6507, 12.1439, 12.5599, 112.89, -50.969
0.213257, -1, 37.9833, 31.6033, 12.1634, 12.5611, 112.84, -51.0969
0.214549, -1, 37.9833, 31.6033, 12.1634, 12.5611, 112.84, -51.0969
0.216549, -1, 37.891, 31.5553, 12.1828, 12.5623, 112.789, -51.2256
0.21784, -1, 37.891, 31.5553, 12.1828, 12.5623, 112.789, -51.2256
0.219744, -1, 37.891, 31.5553, 12.1828, 12.5623, 112.789, -51.3546
0.222845, -1, 37.7976, 31.507, 12.2022, 12.5635, 112.738, -51.3546
0.224942, -1, 37.7034, 31.4584, 12.2216, 12.5647, 112.687, -51.484
0.226152, -1, 37.7034, 31.4584, 12.2216, 12.5647, 112.687, -51.484
0.228058, -1, 37.6085, 31.4097, 12.241, 12.566, 112.636, -51.6136
0.22945, -1, 37.6085, 31.4097, 12.241, 12.566, 112.636, -51.6136
0.231994, -1, 37.5132, 31.3608, 12.2604, 12.5672, 112.585, -51.7432
0.24019, -1, 37.3216, 31.2628, 12.2991, 12.5697, 112.482, -52.0026
0.246755, -1, 37.2256, 31.2139, 12.3186, 12.5708, 112.431, -52.1325
0.256128, -1, 36.9373, 31.0672, 12.3767, 12.5747, 112.276, -52.5224
0.262752, -1, 36.8412, 31.0183, 12.3961, 12.576, 112.225, -52.6525
0.272397, -1, 36.5535, 30.8718, 12.4544, 12.5798, 112.07, -53.0431
0.280283, -1, 36.3618, 30.774, 12.4933, 12.5824, 111.968, -53.3033
0.288392, -1, 36.1703, 30.6762, 12.5321, 12.585, 111.865, -53.5637
0.296581, -1, 35.9788, 30.5783, 12.571, 12.5876, 111.762, -53.8243
0.304332, -1, 35.883, 30.5293, 12.5905, 12.5902, 111.659, -54.085
0.312475, -1, 35.6913, 30.4313, 12.6294, 12.5927, 111.556, -54.3452
0.319752, -1, 35.4994, 30.3332, 12.6683, 12.594, 111.504, -54.4753
0.327756, -1, 35.3072, 30.2349, 12.707, 12.5967, 111.401, -54.7358
0.335823, -1, 35.1147, 30.1366, 12.7459, 12.5992, 111.298, -54.9965
0.343752, -1, 34.9224, 30.0382, 12.7848, 12.6018, 111.195, -55.2573
0.351747, -1, 34.7301, 29.9397, 12.8237, 12.6044, 111.092, -55.5178
0.359795, -1, 34.5378, 29.8412, 12.8625, 12.6069, 110.989, -55.7787
0.367762, -1, 34.3457, 29.7428, 12.9015, 12.6095, 110.886, -56.0396
0.375757, -1, 34.1536, 29.6444, 12.9404, 12.6121, 110.783, -56.3006
0.383792, -1, 33.9618, 29.5462, 12.9793, 12.6147, 110.68, -56.5613
0.391747, -1, 33.7701, 29.4479, 13.0183, 12.6174, 110.577, -56.822
0.399751, -1, 33.5782, 29.3495, 13.0571, 12.62, 110.473, -57.083
0.407806, -1, 33.386, 29.2512, 13.0961, 12.6226, 110.371, -57.3442
0.415757, -1, 33.1935, 29.1526, 13.135, 12.6252, 110.267, -57.6049
0.423749, -1, 33.0008, 29.0541, 13.1738, 12.6278, 110.164, -57.8659
0.431853, -1, 32.8077, 28.9555, 13.2127, 12.6305, 110.061, -58.127
0.43981, -1, 32.6143, 28.8568, 13.2516, 12.6333, 109.958, -58.3885
0.447754, -1, 32.4208, 28.7581, 13.2904, 12.636, 109.855, -58.6497
0.455821, -1, 32.2269, 28.6594, 13.3294, 12.6386, 109.752, -58.9107
0.463829, -1, 32.0328, 28.5607, 13.3682, 12.6413, 109.649, -59.1718
0.471814, -1, 31.8389, 28.4619, 13.4071, 12.644, 109.546, -59.4332
0.47979, -1, 31.6453, 28.3631, 13.4462, 12.6467, 109.443, -59.6946
0.487758, -1, 31.4518, 28.2645, 13.4851, 12.6495, 109.34, -59.9557
0.495824, -1, 31.2588, 28.166, 13.524, 12.6523, 109.237, -60.2171
0.503741, -1, 31.0662, 28.0675, 13.5631, 12.6551, 109.134, -60.4785
0.643727, -1, 27.6862, 26.3391, 14.2452, 12.7009, 107.326, -65.0568
0.644935, -1, 27.6862, 26.3391, 14.2452, 12.7009, 107.326, -65.0568
0.647041, -1, 27.6862, 26.3391, 14.2452, 12.7009, 107.326, -65.0568
0.648529, -1, 27.59, 26.2897, 14.2647, 12.7021, 107.275, -65.1876
0.649732, -1, 27.59, 26.2897, 14.2647, 12.7021, 107.275, -65.1876
0.65242, -1, 27.4939, 26.2402, 14.2841, 12.7033, 107.223, -65.3184
0.65362, -1, 27.4939, 26.2402, 14.2841, 12.7033, 107.223, -65.3184
0.659832, -1, 27.3018, 26.1412, 14.3232, 12.7057, 107.12, -65.5799
0.661262, -1, 27.3018, 26.1412, 14.3232, 12.7057, 107.12, -65.5799
0.663126, -1, 27.3018, 26.1412, 14.3232, 12.7057, 107.12, -65.7108
0.664612, -1, 27.2058, 26.0917, 14.3427, 12.7069, 107.068, -65.7108
0.66582, -1, 27.2058, 26.0917, 14.3427, 12.7069, 107.068, -65.7108
0.667883, -1, 27.1096, 26.0423, 14.3621, 12.708, 107.016, -65.8417
0.669137, -1, 27.1096, 26.0423, 14.3621, 12.708, 107.016, -65.8417
0.670434, -1, 27.1096, 26.0423, 14.3621, 12.708, 107.016, -65.8417
0.674376, -1, 27.0133, 25.9928, 14.3816, 12.7092, 106.964, -65.9725
0.677149, -1, 26.917, 25.9434, 14.401, 12.7103, 106.913, -66.1034
0.678356, -1, 26.917, 25.9434, 14.401, 12.7103, 106.913, -66.1034
0.681283, -1, 26.8207, 25.894, 14.4205, 12.7114, 106.861, -66.2345
0.682646, -1, 26.8207, 25.894, 14.4205, 12.7114, 106.861, -66.2345
0.684934, -1, 26.7242, 25.8445, 14.4401, 12.7125, 106.81, -66.3653
0.686149, -1, 26.7242, 25.8445, 14.4401, 12.7125, 106.81, -66.3653
0.689756, -1, 26.6276, 25.7951, 14.4595, 12.7137, 106.758, -66.496
0.696803, -1, 26.4341, 25.6963, 14.4983, 12.716, 106.655, -66.7577
0.703777, -1, 26.2402, 25.5974, 14.5373, 12.7182, 106.552, -67.0195
0.711843, -1, 26.0461, 25.4985, 14.5763, 12.7205, 106.448, -67.2813
0.719854, -1, 25.8518, 25.3996, 14.6152, 12.7228, 106.345, -67.5431
0.726886, -1, 25.7547, 25.3502, 14.6347, 12.724, 106.294, -67.6739
0.736056, -1, 25.4637, 25.2021, 14.6932, 12.7273, 106.139, -68.0662
0.742791, -1, 25.3667, 25.1528, 14.7127, 12.7284, 106.087, -68.1971
0.752231, -1, 25.0765, 25.0047, 14.7712, 12.732, 105.932, -68.59
0.758739, -1, 24.9798, 24.9552, 14.7908, 12.7332, 105.881, -68.7208
0.768301, -1, 24.6903, 24.807, 14.8491, 12.7368, 105.726, -69.1133
0.777291, -1, 24.4977, 24.7081, 14.8881, 12.7391, 105.623, -69.3751
0.782732, -1, 24.4015, 24.6586, 14.9076, 12.7403, 105.571, -69.5061
0.792343, -1, 24.1129, 24.5104, 14.9661, 12.7438, 105.416, -69.8983
0.80139, -1, 23.9201, 24.4116, 15.0051, 12.7461, 105.313, -70.1597
0.808275, -1, 23.8237, 24.3621, 15.0245, 12.7474, 105.209, -70.4215
0.816327, -1, 23.6307, 24.2633, 15.0634, 12.7498, 105.158, -70.5524
0.823779, -1, 23.4375, 24.1644, 15.1024, 12.7522, 105.054, -70.8141
0.830851, -1, 23.2438, 24.0655, 15.1413, 12.7546, 104.951, -71.0758
0.840844, -1, 22.953, 23.9171, 15.1996, 12.7583, 104.796, -71.4685
0.847777, -1, 22.856, 23.8677, 15.2191, 12.7595, 104.744, -71.5995
0.854745, -1, 22.662, 23.7689, 15.258, 12.7619, 104.641, -71.8613
0.863725, -1, 22.4682, 23.6703, 15.297, 12.7644, 104.537, -72.1227
0.871732, -1, 22.2748, 23.5716, 15.336, 12.767, 104.434, -72.384
0.879786, -1, 22.0817, 23.4729, 15.3749, 12.7696, 104.33, -72.6456
0.887721, -1, 21.8886, 23.3742, 15.4139, 12.7721, 104.227, -72.9071
0.895745, -1, 21.6961, 23.2755, 15.4529, 12.7747, 104.124, -73.1685
0.903774, -1, 21.5039, 23.1767, 15.4917, 12.7774, 104.021, -73.4299
0.911723, -1, 21.3117, 23.0779, 15.5307, 12.7801, 103.918, -73.6914
0.919771, -1, 21.1194, 22.9793, 15.5697, 12.7828, 103.815, -73.9531
0.927725, -1, 20.9269, 22.8807, 15.6086, 12.7855, 103.712, -74.2143
0.935806, -1, 20.7344, 22.7821, 15.6475, 12.7882, 103.608, -74.4754
0.945456, -1, 20.5417, 22.6835, 15.6864, 12.7909, 103.505, -74.8673
0.951723, -1, 20.3486, 22.5848, 15.7252, 12.7936, 103.402, -74.998
0.96079, -1, 20.155, 22.486, 15.7642, 12.7963, 103.299, -75.2592
0.967796, -1, 19.9613, 22.3873, 15.8031, 12.7991, 103.196, -75.5203
0.975733, -1, 19.7677, 22.2886, 15.8418, 12.8018, 103.093, -75.7815
0.983839, -1, 19.5741, 22.19, 15.8807, 12.8045, 102.99, -76.0428
0.991786, -1, 19.3807, 22.0914, 15.9196, 12.8073, 102.887, -76.304
0.999729, -1, 19.1877, 21.9927, 15.9584, 12.8099, 102.784, -76.5647
1.00772, -1, 18.9949, 21.8941, 15.9974, 12.8128, 102.681, -76.8255
1.0158, -1, 18.8024, 21.7954, 16.0362, 12.8155, 102.578, -77.0865
1.02372, -1, 18.6103, 21.6967, 16.0749, 12.8182, 102.475, -77.3475
1.03174, -1, 18.4185, 21.5981, 16.1139, 12.8208, 102.372, -77.6083
1.03979, -1, 18.2266, 21.4995, 16.1528, 12.8235, 102.27, -77.869
1.04773, -1, 18.0347, 21.4011, 16.1915, 12.826, 102.167, -78.1297
1.05572, -1, 17.8429, 21.3027, 16.2305, 12.8285, 102.064, -78.3908
1.06378, -1, 17.6508, 21.2043, 16.2694, 12.8311, 101.961, -78.6513
1.07173, -1, 17.4585, 21.1061, 16.3082, 12.8336, 101.858, -78.9116
1.07973, -1, 17.2656, 21.0077, 16.3471, 12.836, 101.755, -79.1722
1.08779, -1, 17.0725, 20.9094, 16.3858, 12.8384, 101.652, -79.4329
1.09572, -1, 16.8794, 20.8112, 16.4246, 12.8408, 101.549, -79.6935
1.10382, -1, 16.6864, 20.713, 16.4634, 12.8431, 101.446, -79.9538
1.1118, -1, 16.4933, 20.6148, 16.5021, 12.8455, 101.344, -80.2144
1.11973, -1, 16.3005, 20.5165, 16.5409, 12.8478, 101.241, -80.475
1.12779, -1, 16.1082, 20.4182, 16.5796, 12.8501, 101.138, -80.7355
1.13575, -1, 15.9162, 20.3198, 16.6183, 12.8524, 101.036, -80.9956
1.14379, -1, 15.7246, 20.2213, 16.657, 12.8547, 100.933, -81.2555
1.15189, -1, 15.5332, 20.1229, 16.6956, 12.8571, 100.83, -81.5157
1.15983, -1, 15.342, 20.0246, 16.7343, 12.8594, 100.728, -81.7759
1.16785, -1, 15.1509, 19.9264, 16.7731, 12.8617, 100.625, -82.0357
1.17589, -1, 14.9598, 19.8282, 16.8118, 12.8639, 100.523, -82.2955
1.18379, -1, 14.7684, 19.73, 16.8504, 12.8663, 100.42, -82.5554
1.19173, -1, 14.577, 19.6319, 16.8892, 12.8685, 100.318, -82.8155
1.19988, -1, 14.3851, 19.5338, 16.9278, 12.8708, 100.215, -83.0753
1.20776, -1, 14.1929, 19.4357, 16.9665, 12.8731, 100.113, -83.3348
1.21591, -1, 14.0005, 19.3378, 17.0053, 12.8753, 100.01, -83.5944
1.22392, -1, 13.8082, 19.2399, 17.0438, 12.8777, 99.9075, -83.8541
1.23196, -1, 13.6156, 19.1421, 17.0825, 12.88, 99.805, -84.1137
1.23872, -1, 13.5194, 19.0932, 17.1019, 12.8812, 99.7537, -84.2433
1.24806, -1, 13.2313, 18.9463, 17.1596, 12.8846, 99.6003, -84.6321
1.25476, -1, 13.1354, 18.8974, 17.1789, 12.8858, 99.5491, -84.7618
1.26441, -1, 12.8484, 18.7504, 17.2369, 12.8893, 99.3953, -85.1509
1.27231, -1, 12.6574, 18.6524, 17.2754, 12.8917, 99.2932, -85.4099
1.28029, -1, 12.4667, 18.5547, 17.314, 12.8942, 99.1908, -85.6687
1.2883, -1, 12.2765, 18.4569, 17.3525, 12.8965, 99.0885, -85.9277
1.29632, -1, 12.0863, 18.3592, 17.391, 12.899, 98.9866, -86.1867
1.30508, -1, 11.896, 18.2615, 17.4297, 12.9013, 98.8844, -86.4456
1.31249, -1, 11.8008, 18.2127, 17.449, 12.9026, 98.7825, -86.7041
1.32047, -1, 11.6102, 18.1151, 17.4875, 12.905, 98.7316, -86.9626
1.32772, -1, 11.4193, 18.0174, 17.526, 12.9074, 98.6297, -87.092
1.33556, -1, 11.2281, 17.9199, 17.5646, 12.9098, 98.5278, -87.3507
1.34272, -1, 11.0367, 17.8224, 17.6031, 12.9123, 98.426, -87.609
1.35171, -1, 10.8452, 17.725, 17.6415, 12.9148, 98.3239, -87.8671
1.35961, -1, 10.6536, 17.6275, 17.68, 12.9173, 98.2219, -88.1253
1.36778, -1, 10.4621, 17.5299, 17.7184, 12.9199, 98.1203, -88.3837
1.37571, -1, 10.2709, 17.4324, 17.7568, 12.9223, 98.0183, -88.6418
1.38354, -1, 10.0801, 17.3349, 17.7953, 12.925, 97.9164, -88.8999
1.39072, -1, 9.88972, 17.2373, 17.8336, 12.9276, 97.8147, -89.158
1.39971, -1, 9.69952, 17.1397, 17.8719, 12.9302, 97.7126, -89.4161
1.40751, -1, 9.50988, 17.0423, 17.9102, 12.9331, 97.6107, -89.6741
1.41571, -1, 9.32062, 16.945, 17.9485, 12.9358, 97.5089, -89.9318
1.42371, -1, 9.13132, 16.8476, 17.9869, 12.9384, 97.407, -90.1892
1.43159, -1, 8.9419, 16.7504, 18.0252, 12.9411, 97.3052, -90.4469
1.43978, -1, 8.75228, 16.6532, 18.0636, 12.9437, 97.2036, -90.7044
1.44772, -1, 8.56266, 16.5561, 18.102, 12.9464, 97.1018, -90.9615
1.45672, -1, 8.37292, 16.459, 18.1403, 12.9491, 97.0005, -91.2187
1.4637, -1, 8.18266, 16.362, 18.1786, 12.9517, 96.8989, -91.4759
1.47171, -1, 7.99218, 16.2652, 18.217, 12.9543, 96.7973, -91.7333
1.47981, -1, 7.80175, 16.1683, 18.2552, 12.957, 96.6959, -91.9901
1.48774, -1, 7.61117, 16.0714, 18.2935, 12.9597, 96.5943, -92.2468
1.4957, -1, 7.42076, 15.9745, 18.3319, 12.9623, 96.4929, -92.5035
1.50373, -1, 7.23068, 15.8775, 18.37, 12.9648, 96.3917, -92.7604
1.51172, -1, 7.04085, 15.7805, 18.4082, 12.9674, 96.2902, -93.0171
1.51977, -1, 6.85137, 15.6836, 18.4465, 12.9699, 96.189, -93.2735
1.52772, -1, 6.66247, 15.5867, 18.4846, 12.9724, 96.0884, -93.5298
1.5357, -1, 6.474, 15.4899, 18.5226, 12.975, 95.9872, -93.7863
1.54378, -1, 6.28572, 15.3931, 18.5609, 12.9774, 95.8861, -94.0426
1.55178, -1, 6.09766, 15.2964, 18.599, 12.9799, 95.7854, -94.2986
1.55971, -1, 5.90935, 15.1997, 18.6371, 12.9822, 95.6843, -94.5546
1.56778, -1, 5.72094, 15.103, 18.6753, 12.9845, 95.5834, -94.8104
1.57572, -1, 5.53243, 15.0064, 18.7133, 12.9869, 95.4828, -95.0664
1.58371, -1, 5.34362, 14.9099, 18.7515, 12.9892, 95.3819, -95.322
1.59177, -1, 5.15449, 14.8135, 18.7896, 12.9913, 95.2813, -95.5775
1.59972, -1, 4.96509, 14.7172, 18.8276, 12.9937, 95.1807, -95.833
1.60778, -1, 4.77571, 14.6208, 18.8657, 12.9959, 95.0798, -96.0885
1.61577, -1, 4.5863, 14.5244, 18.9038, 12.9981, 94.979, -96.3438
1.62448, -1, 4.3971, 14.4281, 18.9418, 13.0003, 94.8784, -96.5987
1.63171, -1, 4.20814, 14.3317, 18.9798, 13.0026, 94.7775, -96.8535
1.63975, -1, 4.01952, 14.2353, 19.0178, 13.0048, 94.6767, -97.1086
1.64857, -1, 3.83155, 14.1391, 19.0557, 13.0071, 94.5759, -97.3638
1.65584, -1, 3.64397, 14.0429, 19.0937, 13.0094, 94.4752, -97.6185
1.66411, -1, 3.4568, 13.9467, 19.1316, 13.0117, 94.3746, -97.8731
1.67233, -1, 3.26986, 13.8506, 19.1694, 13.014, 94.2739, -98.1278
1.67984, -1, 3.08283, 13.7546, 19.2073, 13.0163, 94.1731, -98.3826
1.68825, -1, 2.89586, 13.6586, 19.2452, 13.0185, 94.0726, -98.637
1.69471, -1, 2.80235, 13.6105, 19.2642, 13.0196, 94.0224, -98.764
1.7027, -1, 2.61519, 13.5145, 19.3021, 13.0219, 93.9218, -99.0182
1.71257, -1, 2.33404, 13.3706, 19.3588, 13.0253, 93.7712, -99.3995
1.72063, -1, 2.14619, 13.2749, 19.3966, 13.0276, 93.6709, -99.6535
1.72784, -1, 1.95803, 13.179, 19.4345, 13.0298, 93.5707, -99.9071
1.73671, -1, 1.76981, 13.0831, 19.4722, 13.0321, 93.4709, -100.161
1.74492, -1, 1.58156, 12.9873, 19.51, 13.0343, 93.3707, -100.414
1.75203, -1, 1.39351, 12.8915, 19.5478, 13.0366, 93.2706, -100.668
1.75871, -1, 1.29955, 12.8436, 19.5667, 13.0378, 93.2206, -100.795
1.76675, -1, 1.11189, 12.7477, 19.6044, 13.0401, 93.1206, -101.048
1.77633, -1, 0.831556, 12.6043, 19.661, 13.0436, 92.9706, -101.427
1.78515, -1, 0.645225, 12.5087, 19.6986, 13.046, 92.871, -101.68
1.79076, -1, 0.552214, 12.4609, 19.7174, 13.0472, 92.8211, -101.807
1.80035, -1, 0.273661, 12.3179, 19.7739, 13.0509, 92.6714, -102.186
1.80912, -1, 0.180904, 12.2702, 19.8114, 13.0533, 92.5721, -102.438
1.81478, -1, -0.00447764, 12.1748, 19.8302, 13.0545, 92.5222, -102.565
1.82433, -1, -0.189978, 12.0795, 19.8679, 13.057, 92.4226, -102.944
1.83169, -1, -0.375688, 11.9844, 19.9055, 13.0594, 92.3233, -103.07
1.83884, -1, -0.561782, 11.8892, 19.943, 13.062, 92.2238, -103.322
1.84877, -1, -0.841322, 11.7467, 19.9994, 13.0657, 92.0745, -103.7
1.8557, -1, -0.934627, 11.6992, 20.0181, 13.0669, 92.025, -103.826
1.86276, -1, -1.12138, 11.6042, 20.0555, 13.0694, 91.9256, -104.078
1.87175, -1, -1.30838, 11.5091, 20.0931, 13.0719, 91.8262, -104.329
1.8797, -1, -1.49523, 11.4139, 20.1306, 13.0744, 91.7272, -104.581
1.88671, -1, -1.68182, 11.3188, 20.1679, 13.077, 91.6279, -104.833
1.8957, -1, -1.86808, 11.2237, 20.2054, 13.0797, 91.5287, -105.084
1.90369, -1, -2.05389, 11.1288, 20.2428, 13.0823, 91.4297, -105.335
1.9107, -1, -2.23898, 11.0339, 20.2802, 13.0849, 91.3304, -105.586
1.91969, -1, -2.42381, 10.939, 20.3176, 13.0877, 91.2312, -105.837
1.9277, -1, -2.60824, 10.8443, 20.3549, 13.0903, 91.1323, -106.088
1.93469, -1, -2.79212, 10.7495, 20.3921, 13.093, 91.0331, -106.339
1.94377, -1, -2.97598, 10.6548, 20.4296, 13.0956, 90.9341, -106.59
1.95169, -1, -3.16004, 10.56, 20.4669, 13.0982, 90.8354, -106.84
1.95976, -1, -3.34431, 10.4655, 20.5041, 13.1007, 90.7363, -107.091
1.96874, -1, -3.52895, 10.371, 20.5414, 13.1033, 90.6374, -107.341
1.97571, -1, -3.71379, 10.2767, 20.5786, 13.1058, 90.5388, -107.592
1.98376, -1, -3.89891, 10.1824, 20.6159, 13.1082, 90.4398, -107.841
1.99171, -1, -4.08421, 10.088, 20.6531, 13.1107, 90.3411, -108.091
1.99969, -1, -4.26973, 9.99375, 20.6903, 13.1132, 90.2427, -108.341
2.00769, -1, -4.45532, 9.89942, 20.7274, 13.1155, 90.1439, -108.591
2.0157, -1, -4.64059, 9.80508, 20.7647, 13.1178, 90.0454, -108.841
2.02376, -1, -4.82552, 9.71088, 20.8019, 13.1202, 89.9472, -109.09
2.0317, -1, -5.0101, 9.61681, 20.8389, 13.1226, 89.8486, -109.339
2.03969, -1, -5.19393, 9.52276, 20.8761, 13.1249, 89.7501, -109.589
2.04776, -1, -5.37728, 9.42873, 20.9132, 13.1273, 89.6519, -109.838
2.05569, -1, -5.56021, 9.33483, 20.9502, 13.1296, 89.5534, -110.087
2.06369, -1, -5.74273, 9.24092, 20.9874, 13.1319, 89.4552, -110.335
2.07177, -1, -5.92508, 9.14702, 21.0244, 13.1342, 89.3572, -110.584
2.07968, -1, -6.10744, 9.05319, 21.0613, 13.1364, 89.2589, -110.833
2.08769, -1, -6.29018, 8.9594, 21.0984, 13.1386, 89.1609, -111.081
2.09576, -1, -6.47313, 8.86574, 21.1353, 13.1408, 89.0632, -111.329
2.10369, -1, -6.65623, 8.77208, 21.1721, 13.143, 88.9651, -111.578
2.11178, -1, -6.83981, 8.67843, 21.2091, 13.1451, 88.8671, -111.826
2.11976, -1, -7.02368, 8.58481, 21.246, 13.1472, 88.7694, -112.074
2.12769, -1, -7.20789, 8.49124, 21.2828, 13.1494, 88.6715, -112.321
2.13577, -1, -7.39209, 8.39762, 21.3198, 13.1515, 88.5736, -112.569
2.14373, -1, -7.57587, 8.30398, 21.3566, 13.1537, 88.4762, -112.817
2.15177, -1, -7.75942, 8.21054, 21.3933, 13.1558, 88.3785, -113.064
2.15987, -1, -7.94247, 8.11712, 21.4302, 13.1581, 88.2811, -113.311
2.16786, -1, -8.12507, 8.02372, 21.467, 13.1604, 88.1839, -113.558
2.17579, -1, -8.30686, 7.93048, 21.5037, 13.1626, 88.0864, -113.805
2.18387, -1, -8.48823, 7.83721, 21.5406, 13.1648, 87.989, -114.052
2.19174, -1, -8.66926, 7.74401, 21.5774, 13.1671, 87.8917, -114.299
2.1997, -1, -8.84995, 7.65085, 21.6141, 13.1693, 87.7942, -114.545
2.20796, -1, -9.03072, 7.55775, 21.6509, 13.1715, 87.6968, -114.792
2.21572, -1, -9.2118, 7.46474, 21.6876, 13.1739, 87.5997, -115.038
2.22379, -1, -9.39306, 7.37192, 21.7243, 13.176, 87.5026, -115.285
2.23214, -1, -9.57467, 7.2791, 21.761, 13.1782, 87.4054, -115.531
2.23869, -1, -9.66563, 7.23266, 21.7793, 13.1793, 87.357, -115.654
2.24811, -1, -9.93902, 7.09351, 21.8342, 13.1826, 87.2111, -116.023
2.25469, -1, -10.0303, 7.04714, 21.8524, 13.1838, 87.1625, -116.146
2.26405, -1, -10.3042, 6.90797, 21.9074, 13.1872, 87.0168, -116.515
2.27069, -1, -10.3955, 6.86158, 21.9257, 13.1882, 86.9681, -116.637
2.28061, -1, -10.6691, 6.72253, 21.9806, 13.1916, 86.8226, -117.006
2.28822, -1, -10.8509, 6.6299, 22.017, 13.194, 86.7258, -117.251
2.29632, -1, -11.0321, 6.53728, 22.0534, 13.1964, 86.6289, -117.496
2.30429, -1, -11.2125, 6.44478, 22.09, 13.1988, 86.5322, -117.741
2.31227, -1, -11.3025, 6.39854, 22.1083, 13.2012, 86.4357, -117.986
2.32033, -1, -11.4823, 6.30605, 22.1448, 13.2024, 86.3388, -118.231
2.32769, -1, -11.6617, 6.21364, 22.1812, 13.2048, 86.2905, -118.353
2.33568, -1, -11.841, 6.12128, 22.2177, 13.2073, 86.194, -118.598
2.34375, -1, -12.0202, 6.02901, 22.2541, 13.2098, 86.0972, -118.842
2.35168, -1, -12.1996, 5.93684, 22.2905, 13.2123, 86.0008, -119.086
2.35974, -1, -12.3792, 5.84483, 22.327, 13.2148, 85.9046, -119.33
2.36775, -1, -12.5593, 5.75275, 22.3632, 13.2172, 85.8082, -119.575
2.37568, -1, -12.7398, 5.66074, 22.3995, 13.2197, 85.7119, -119.818
2.38369, -1, -12.9206, 5.56884, 22.4359, 13.2221, 85.616, -120.062
2.3917, -1, -13.1018, 5.4769, 22.4721, 13.2246, 85.5199, -120.306
2.3997, -1, -13.2831, 5.38485, 22.5083, 13.227, 85.424, -120.55
2.40668, -1, -13.4641, 5.29293, 22.5446, 13.2295, 85.3283, -120.793
2.41568, -1, -13.6448, 5.20101, 22.5807, 13.2321, 85.2324, -121.036
2.42369, -1, -13.825, 5.10916, 22.6168, 13.2347, 85.1367, -121.279
2.43078, -1, -14.0046, 5.01733, 22.653, 13.2372, 85.041, -121.522
2.43969, -1, -14.1832, 4.92563, 22.6891, 13.2398, 84.9454, -121.765
2.44776, -1, -14.3615, 4.83391, 22.7251, 13.2423, 84.8498, -122.008
2.45668, -1, -14.5395, 4.74226, 22.7614, 13.2448, 84.7544, -122.25
2.46368, -1, -14.7171, 4.65067, 22.7976, 13.2474, 84.6586, -122.493
2.47169, -1, -14.8947, 4.55917, 22.8336, 13.2498, 84.5628, -122.735
2.47972, -1, -15.0724, 4.46772, 22.8698, 13.2523, 84.4672, -122.978
2.48768, -1, -15.2503, 4.37646, 22.9059, 13.2548, 84.3716, -123.219
2.49574, -1, -15.4288, 4.28511, 22.9419, 13.2571, 84.2759, -123.461
2.50368, -1, -15.6077, 4.19381, 22.978, 13.2595, 84.1804, -123.703
2.51168, -1, -15.7869, 4.10258, 23.0139, 13.2618, 84.0848, -123.945
2.51977, -1, -15.9661, 4.01138, 23.0498, 13.2641, 83.9894, -124.186
2.52768, -1, -16.1458, 3.92007, 23.0859, 13.2662, 83.894, -124.428
2.53568, -1, -16.3256, 3.82882, 23.1219, 13.2683, 83.7985, -124.669
2.54376, -1, -16.5049, 3.73762, 23.1578, 13.2705, 83.7031, -124.911
2.55168, -1, -16.6839, 3.64649, 23.1936, 13.2727, 83.6077, -125.152
2.55972, -1, -16.8623, 3.55544, 23.2295, 13.2751, 83.5123, -125.393
2.56819, -1, -17.0399, 3.46441, 23.2653, 13.2773, 83.417, -125.634
2.5747, -1, -17.2169, 3.37344, 23.3012, 13.2794, 83.3217, -125.874
2.58367, -1, -17.3934, 3.28262, 23.337, 13.2816, 83.2267, -126.115
2.59247, -1, -17.5697, 3.19178, 23.3728, 13.2837, 83.1315, -126.356
2.59969, -1, -17.7457, 3.10115, 23.4087, 13.286, 83.0368, -126.596
2.60768, -1, -17.9217, 3.01056, 23.4446, 13.288, 82.9421, -126.836
2.61655, -1, -18.0979, 2.92008, 23.4803, 13.2901, 82.8472, -127.076
2.62368, -1, -18.2744, 2.82974, 23.516, 13.2923, 82.7524, -127.316
2.63174, -1, -18.4514, 2.7393, 23.5518, 13.2943, 82.6578, -127.556
2.64051, -1, -18.6289, 2.64891, 23.5875, 13.2963, 82.5631, -127.796
2.64772, -1, -18.8065, 2.55862, 23.6231, 13.2984, 82.4685, -128.035
2.65583, -1, -18.9845, 2.46815, 23.6589, 13.3004, 82.3742, -128.275
2.6646, -1, -19.1628, 2.37763, 23.6945, 13.3024, 82.2797, -128.514
2.67178, -1, -19.341, 2.28727, 23.73, 13.3044, 82.1854, -128.753
2.67986, -1, -19.5187, 2.19689, 23.7657, 13.3065, 82.0916, -128.992
2.68858, -1, -19.6958, 2.10646, 23.8012, 13.3087, 81.9972, -129.231
2.69574, -1, -19.8723, 2.01619, 23.8365, 13.3109, 81.903, -129.47
2.70381, -1, -20.0481, 1.92594, 23.8722, 13.3129, 81.8091, -129.709
2.7126, -1, -20.2232, 1.83573, 23.9077, 13.3152, 81.7149, -129.948
2.71973, -1, -20.3981, 1.74561, 23.9431, 13.3174, 81.6209, -130.186
2.72783, -1, -20.5727, 1.65554, 23.9787, 13.3196, 81.5271, -130.424
2.73673, -1, -20.7471, 1.56558, 24.0142, 13.3217, 81.4331, -130.663
2.74401, -1, -20.9218, 1.47567, 24.0496, 13.324, 81.3393, -130.901
2.75068, -1, -21.0093, 1.43079, 24.0673, 13.3251, 81.2925, -131.02
2.76004, -1, -21.2722, 1.29618, 24.1206, 13.3284, 81.1519, -131.376
2.76667, -1, -21.3599, 1.25132, 24.1382, 13.3294, 81.105, -131.495
2.77611, -1, -21.6238, 1.11683, 24.1912, 13.3327, 80.9642, -131.852
2.78687, -1, -21.8, 1.02718, 24.2267, 13.3349, 80.8704, -132.089
2.79223, -1, -21.9765, 0.93755, 24.2621, 13.3371, 80.7765, -132.327
2.80024, -1, -22.153, 0.84803, 24.2974, 13.3392, 80.683, -132.564
2.80914, -1, -22.3295, 0.758504, 24.3328, 13.3413, 80.5893, -132.801
2.81468, -1, -22.4177, 0.713765, 24.3504, 13.3424, 80.5424, -132.92
2.82469, -1, -22.6812, 0.579498, 24.4032, 13.346, 80.4022, -133.275
2.83172, -1, -22.7688, 0.534789, 24.4208, 13.3472, 80.3555, -133.393
2.83869, -1, -22.9432, 0.445357, 24.4561, 13.3496, 80.2617, -133.63
2.84766, -1, -23.117, 0.355931, 24.4912, 13.352, 80.1682, -133.867
2.85572, -1, -23.2905, 0.266604, 24.5264, 13.3545, 80.0748, -134.104
2.86266, -1, -23.4636, 0.17732, 24.5616, 13.3569, 79.9812, -134.34
2.87173, -1, -23.6368, 0.0881732, 24.5968, 13.3593, 79.888, -134.576
2.87973, -1, -23.8102, -0.000899956, 24.6319, 13.3616, 79.7948, -134.812
2.88667, -1, -23.9836, -0.0898461, 24.6671, 13.3641, 79.7017, -135.048
2.89569, -1, -24.1572, -0.178806, 24.7021, 13.3666, 79.6086, -135.284
2.90371, -1, -24.3312, -0.267769, 24.7372, 13.369, 79.5156, -135.52
2.91167, -1, -24.5054, -0.356656, 24.7724, 13.3715, 79.4225, -135.755
2.91966, -1, -24.6801, -0.445539, 24.8075, 13.3739, 79.3295, -135.991
2.92773, -1, -24.855, -0.534433, 24.8425, 13.3763, 79.2364, -136.227
2.93466, -1, -25.0301, -0.623324, 24.8777, 13.3786, 79.1434, -136.462
2.94366, -1, -25.205, -0.712142, 24.9127, 13.381, 79.0504, -136.697
2.9518, -1, -25.3795, -0.800864, 24.9476, 13.3834, 78.9577, -136.932
2.95869, -1, -25.5536, -0.889701, 24.9827, 13.3858, 78.8652, -137.167
2.96766, -1, -25.7273, -0.978423, 25.0176, 13.3884, 78.7723, -137.402
2.97573, -1, -25.9001, -1.06711, 25.0524, 13.3907, 78.6797, -137.636
2.98366, -1, -26.0726, -1.15584, 25.0875, 13.3932, 78.5876, -137.871
2.99166, -1, -26.2446, -1.24447, 25.1224, 13.3956, 78.4947, -138.105
2.99974, -1, -26.4164, -1.33296, 25.1572, 13.398, 78.4022, -138.34
3.00766, -1, -26.5882, -1.42139, 25.1921, 13.4002, 78.3099, -138.574
3.01567, -1, -26.7602, -1.50969, 25.2271, 13.4025, 78.2173, -138.808
3.02373, -1, -26.9325, -1.59789, 25.2619, 13.4048, 78.1249, -139.042
3.03167, -1, -27.1049, -1.68605, 25.2967, 13.407, 78.0328, -139.276
3.03971, -1, -27.2775, -1.77428, 25.3316, 13.4091, 77.9406, -139.51
3.04768, -1, -27.4504, -1.8624, 25.3663, 13.4114, 77.8486, -139.744
3.05566, -1, -27.6235, -1.95047, 25.4011, 13.4134, 77.7567, -139.977
3.06375, -1, -27.7968, -2.03872, 25.436, 13.4156, 77.6645, -140.211
3.07167, -1, -27.9701, -2.12676, 25.4707, 13.4177, 77.5726, -140.444
3.07967, -1, -28.1434, -2.21479, 25.5054, 13.4197, 77.4805, -140.678
3.08772, -1, -28.3166, -2.30287, 25.5403, 13.4217, 77.3884, -140.911
3.09566, -1, -28.4893, -2.39093, 25.575, 13.4238, 77.2964, -141.143
3.10366, -1, -28.6617, -2.47888, 25.6096, 13.4259, 77.2043, -141.376
3.11174, -1, -28.8335, -2.5669, 25.6442, 13.428, 77.1124, -141.609
3.11974, -1, -29.0045, -2.65484, 25.6789, 13.4303, 77.0204, -141.842
3.12767, -1, -29.1751, -2.74271, 25.7134, 13.4324, 76.9285, -142.074
3.13573, -1, -29.3457, -2.83053, 25.7481, 13.4345, 76.8369, -142.307
3.14369, -1, -29.5164, -2.91822, 25.7827, 13.4365, 76.7449, -142.539
3.15172, -1, -29.6873, -3.00582, 25.8172, 13.4385, 76.6531, -142.772
3.15981, -1, -29.8583, -3.09335, 25.8518, 13.4406, 76.5614, -143.004
3.16776, -1, -30.0293, -3.1808, 25.8864, 13.4427, 76.4694, -143.236
3.17607, -1, -30.2002, -3.2683, 25.9209, 13.4447, 76.3777, -143.468
3.18382, -1, -30.3714, -3.35573, 25.9555, 13.4469, 76.2863, -143.7
3.19176, -1, -30.543, -3.44318, 25.9901, 13.4489, 76.1946, -143.932
3.20041, -1, -30.7148, -3.53073, 26.0245, 13.4509, 76.1032, -144.164
3.20774, -1, -30.8866, -3.61809, 26.059, 13.4529, 76.0119, -144.395
3.21569, -1, -31.0584, -3.70549, 26.0936, 13.4549, 75.9204, -144.626
3.22465, -1, -31.23, -3.7928, 26.1281, 13.457, 75.8291, -144.858
3.23176, -1, -31.4014, -3.88013, 26.1624, 13.459, 75.7378, -145.089
3.23981, -1, -31.5723, -3.96741, 26.197, 13.4612, 75.6466, -145.32
3.24895, -1, -31.7427, -4.05465, 26.2314, 13.4634, 75.5553, -145.551
3.25598, -1, -31.9127, -4.14191, 26.2657, 13.4655, 75.4641, -145.782
3.26406, -1, -32.0824, -4.2291, 26.3002, 13.4677, 75.3732, -146.013
3.27066, -1, -32.1671, -4.27263, 26.3174, 13.4688, 75.3275, -146.128
3.27871, -1, -32.3364, -4.3597, 26.3517, 13.4711, 75.2365, -146.359
3.28831, -1, -32.5909, -4.49017, 26.4032, 13.4743, 75.1004, -146.705
3.29719, -1, -32.7605, -4.57707, 26.4377, 13.4764, 75.0093, -146.935
3.30272, -1, -32.8453, -4.6205, 26.4548, 13.4775, 74.964, -147.05
3.31232, -1, -33.0998, -4.75085, 26.506, 13.4807, 74.8281, -147.396
3.3211, -1, -33.1847, -4.79428, 26.5232, 13.4818, 74.7373, -147.626
3.32765, -1, -33.3547, -4.88112, 26.5575, 13.4841, 74.692, -147.741
3.3357, -1, -33.5249, -4.96806, 26.5918, 13.4862, 74.6014, -147.971
3.34366, -1, -33.6952, -5.05494, 26.626, 13.4884, 74.5111, -148.201
3.35165, -1, -33.8655, -5.1417, 26.6602, 13.4907, 74.4203, -148.43
3.35969, -1, -34.0357, -5.2284, 26.6943, 13.4929, 74.3299, -148.66
3.36766, -1, -34.2059, -5.31518, 26.7284, 13.4952, 74.2395, -148.889
3.37468, -1, -34.376, -5.40183, 26.7627, 13.4974, 74.1488, -149.119
3.38366, -1, -34.5458, -5.48847, 26.7969, 13.4998, 74.0582, -149.348
3.39164, -1, -34.7151, -5.57517, 26.8309, 13.5021, 73.9677, -149.578
3.39972, -1, -34.8838, -5.6618, 26.8651, 13.5045, 73.8771, -149.807
3.40765, -1, -35.0522, -5.74833, 26.8992, 13.507, 73.7866, -150.036
3.41565, -1, -35.2204, -5.83483, 26.9332, 13.5095, 73.6963, -150.264
3.42265, -1, -35.3887, -5.9212, 26.9673, 13.5119, 73.606, -150.493
3.43164, -1, -35.5572, -6.0074, 27.0015, 13.5142, 73.5157, -150.722
3.43967, -1, -35.7257, -6.09368, 27.0354, 13.5166, 73.4253, -150.951
3.44665, -1, -35.8943, -6.17989, 27.0694, 13.519, 73.3351, -151.179
3.45572, -1, -36.0628, -6.26606, 27.1036, 13.5214, 73.2446, -151.408
3.46367, -1, -36.2313, -6.35219, 27.1375, 13.5238, 73.1542, -151.637
3.47178, -1, -36.4, -6.43844, 27.1714, 13.5262, 73.064, -151.865
3.4807, -1, -36.5689, -6.5247, 27.2054, 13.5286, 72.9735, -152.093
3.48766, -1, -36.7377, -6.61088, 27.2394, 13.5309, 72.8833, -152.321
3.49565, -1, -36.9067, -6.69708, 27.2732, 13.5332, 72.7933, -152.549
3.50366, -1, -37.0756, -6.78321, 27.3072, 13.5355, 72.7031, -152.777
3.5131, -1, -37.2444, -6.86936, 27.3411, 13.5377, 72.6131, -153.005
3.51965, -1, -37.413, -6.95538, 27.3749, 13.54, 72.5234, -153.233
3.52771, -1, -37.5811, -7.04145, 27.4089, 13.5422, 72.4335, -153.461
3.53565, -1, -37.7489, -7.12749, 27.4428, 13.5445, 72.3436, -153.688
3.54364, -1, -37.9166, -7.21348, 27.4767, 13.5467, 72.2538, -153.916
3.55171, -1, -38.084, -7.29941, 27.5105, 13.5489, 72.1641, -154.143
3.55965, -1, -38.2514, -7.38529, 27.5445, 13.551, 72.0742, -154.37
3.56767, -1, -38.4187, -7.47106, 27.5783, 13.5532, 71.9846, -154.598
3.57572, -1, -38.586, -7.55678, 27.6122, 13.5553, 71.8951, -154.825
3.58365, -1, -38.7532, -7.6425, 27.6461, 13.5574, 71.8053, -155.052
3.59164, -1, -38.9205, -7.72818, 27.6799, 13.5595, 71.7159, -155.279
3.59974, -1, -39.0878, -7.81382, 27.7136, 13.5616, 71.6269, -155.506
3.60764, -1, -39.2553, -7.89949, 27.7475, 13.5636, 71.5373, -155.733
3.61565, -1, -39.4228, -7.98521, 27.7813, 13.5655, 71.448, -155.959
3.6238, -1, -39.5904, -8.07078, 27.815, 13.5675, 71.3587, -156.186
3.63165, -1, -39.7582, -8.15631, 27.8487, 13.5695, 71.2693, -156.413
3.63966, -1, -39.9258, -8.24179, 27.8825, 13.5714, 71.18, -156.639
3.64785, -1, -40.0934, -8.32721, 27.9162, 13.5734, 71.0905, -156.865
3.65571, -1, -40.2609, -8.41257, 27.9498, 13.5754, 71.0014, -157.092
3.66373, -1, -40.4281, -8.49794, 27.9837, 13.5773, 70.912, -157.318
3.67205, -1, -40.5951, -8.5833, 28.0173, 13.5793, 70.8228, -157.544
3.67976, -1, -40.762, -8.66866, 28.0509, 13.5813, 70.7339, -157.77
3.68775, -1, -40.9286, -8.75401, 28.0846, 13.5833, 70.6446, -157.996
3.69629, -1, -41.095, -8.83932, 28.1183, 13.5854, 70.5555, -158.221
3.70364, -1, -41.2612, -8.92456, 28.1519, 13.5874, 70.4665, -158.447
3.71166, -1, -41.4274, -9.0097, 28.1855, 13.5894, 70.3772, -158.673
3.72048, -1, -41.5936, -9.09487, 28.2192, 13.5914, 70.288, -158.898
3.72772, -1, -41.7599, -9.17996, 28.2528, 13.5933, 70.199, -159.124
3.73577, -1, -41.9263, -9.26498, 28.2864, 13.5953, 70.1099, -159.349
3.74477, -1, -42.0927, -9.34999, 28.3201, 13.5974, 70.0209, -159.575
3.75195, -1, -42.2589, -9.43506, 28.3536, 13.5994, 69.9318, -159.8
3.76003, -1, -42.4252, -9.52006, 28.3871, 13.6014, 69.8431, -160.025
3.76663, -1, -42.5084, -9.56253, 28.4039, 13.6024, 69.7985, -160.138
3.77475, -1, -42.6748, -9.64749, 28.4375, 13.6045, 69.7096, -160.363
3.78418, -1, -42.9244, -9.77492, 28.4875, 13.6075, 69.5766, -160.701
3.79224, -1, -43.0909, -9.85986, 28.5211, 13.6096, 69.4876, -160.926
3.801, -1, -43.2571, -9.94481, 28.5546, 13.6116, 69.399, -161.151
3.80823, -1, -43.4232, -10.0297, 28.588, 13.6137, 69.3104, -161.375
3.81642, -1, -43.5062, -10.1147, 28.6215, 13.6157, 69.2218, -161.6
3.82502, -1, -43.672, -10.1572, 28.6383, 13.6168, 69.1774, -161.825
3.83221, -1, -43.838, -10.2421, 28.6717, 13.6189, 69.089, -162.05
3.83965, -1, -44.0037, -10.3269, 28.7051, 13.6211, 69.0007, -162.162
3.84764, -1, -44.1691, -10.4117, 28.7385, 13.6232, 68.9119, -162.386
3.85568, -1, -44.3343, -10.4963, 28.7721, 13.6254, 68.8233, -162.61
3.86363, -1, -44.4995, -10.5808, 28.8054, 13.6277, 68.7348, -162.835
3.87163, -1, -44.6646, -10.6654, 28.8388, 13.6298, 68.6461, -163.059
3.8797, -1, -44.8299, -10.7498, 28.8723, 13.632, 68.5575, -163.283
3.88765, -1, -44.9953, -10.8343, 28.9057, 13.6343, 68.4691, -163.507
3.89565, -1, -45.1607, -10.9188, 28.9391, 13.6364, 68.3808, -163.731
3.9037, -1, -45.3259, -11.0034, 28.9725, 13.6386, 68.2922, -163.955
3.91163, -1, -45.4912, -11.0878, 29.0058, 13.641, 68.2039, -164.179
3.91963, -1, -45.6565, -11.1723, 29.039, 13.6432, 68.116, -164.403
3.92769, -1, -45.8217, -11.2568, 29.0723, 13.6455, 68.0273, -164.626
3.93564, -1, -45.9859, -11.3407, 29.1058, 13.6478, 67.939, -164.85
3.94363, -1, -46.1473, -11.423, 29.1392, 13.6501, 67.851, -165.073
3.95171, -1, -46.3043, -11.5024, 29.1728, 13.6525, 67.7635, -165.294
3.95971, -1, -46.4546, -11.5775, 29.2064, 13.6548, 67.6783, -165.51
3.96763, -1, -46.5958, -11.6473, 29.2386, 13.6571, 67.5968, -165.715
3.97571, -1, -46.7255, -11.7107, 29.2685, 13.6593, 67.5222, -165.905
3.98363, -1, -46.8405, -11.7668, 29.2948, 13.6613, 67.4551, -166.074
3.99163, -1, -46.9394, -11.8159, 29.317, 13.663, 67.3993, -166.216
3.99971, -1, -47.0219, -11.8589, 29.3336, 13.6643, 67.3545, -166.329
4.00763, -1, -47.0892, -11.8956, 29.3448, 13.6652, 67.3209, -166.414
4.01565, -1, -47.1416, -11.9251, 29.352, 13.6655, 67.2975, -166.473
4.0237, -1, -47.1806, -11.9473, 29.3559, 13.6657, 67.2824, -166.51
4.03162, -1, -47.2082, -11.9627, 29.3577, 13.6659, 67.2736, -166.533
4.03963, -1, -47.2263, -11.9728, 29.3585, 13.6659, 67.2689, -166.545
4.04771, -1, -47.2372, -11.9786, 29.3589, 13.666, 67.2666, -166.551
4.05564, 2, -47.2428, -11.9815, 29.3591, 13.666, 67.2654, -166.553
4.06363, 2, -47.2449, -11.9828, 29.3592, 13.666, 67.2649, -166.554
4.07172, 2, -47.2448, -11.9833, 29.3593, 13.666, 67.2646, -166.555
4.07963, 2, -47.2446, -11.9835, 29.3594, 13.666, 67.2645, -166.555
4.08763, 2, -47.2446, -11.9836, 29.3594, 13.6661, 67.2645, -166.555
4.0957, 2, -47.245, -11.9837, 29.3594, 13.6661, 67.2645, -166.555
4.10362, 2, -47.2459, -11.9839, 29.3595, 13.6661, 67.2644, -166.555
4.11163, 2, -47.2472, -11.9844, 29.3595, 13.6661, 67.2645, -166.555
4.1197, 2, -47.249, -11.9852, 29.3595, 13.6661, 67.2644, -166.555
4.12771, 2, -47.2506, -11.9861, 29.3595, 13.6661, 67.2644, -166.555
4.13564, 2, -47.252, -11.987, 29.3595, 13.6661, 67.2644, -166.555
4.1437, 2, -47.2529, -11.9876, 29.3595, 13.666, 67.2644, -166.555
4.15166, 2, -47.2534, -11.988, 29.3595, 13.6661, 67.2644, -166.555
4.15971, 2, -47.2536, -11.9882, 29.3595, 13.6661, 67.2644, -166.556
4.16779, 2, -47.2536, -11.9883, 29.3595, 13.6661, 67.2644, -166.555
4.17574, 2, -47.2533, -11.9883, 29.3595, 13.666, 67.2644, -166.555
4.18373, 2, -47.2528, -11.9882, 29.3595, 13.6661, 67.2644, -166.555
4.19179, 2, -47.2523, -11.9882, 29.3595, 13.6661, 67.2644, -166.555
4.19973, 2, -47.252, -11.9882, 29.3595, 13.6661, 67.2645, -166.555
4.20763, 2, -47.2518, -11.9882, 29.3595, 13.666, 67.2645, -166.555
4.21604, 2, -47.2518, -11.9883, 29.3595, 13.666, 67.2645, -166.555
4.22368, 2, -47.2519, -11.9885, 29.3595, 13.666, 67.2645, -166.555
4.23166, 2, -47.2522, -11.9888, 29.3596, 13.6661, 67.2645, -166.555
4.23989, 2, -47.2528, -11.9891, 29.3595, 13.6661, 67.2645, -166.555
4.24779, 2, -47.2533, -11.9895, 29.3595, 13.666, 67.2645, -166.555
4.25587, 2, -47.2537, -11.9896, 29.3595, 13.666, 67.2644, -166.555
4.26443, 2, -47.2538, -11.9897, 29.3595, 13.666, 67.2644, -166.555
4.272, 2, -47.2539, -11.9898, 29.3595, 13.666, 67.2644, -166.555
4.27867, 2, -47.2538, -11.9898, 29.3596, 13.666, 67.2644, -166.555
4.28824, 2, -47.2536, -11.9897, 29.3596, 13.666, 67.2644, -166.555
4.29621, 2, -47.2531, -11.9896, 29.3596, 13.6661, 67.2645, -166.555
4.30417, 2, -47.2528, -11.9896, 29.3595, 13.6661, 67.2645, -166.555
4.31244, 2, -47.2525, -11.9896, 29.3595, 13.6661, 67.2645, -166.555
4.32018, 2, -47.2524, -11.9896, 29.3595, 13.6661, 67.2645, -166.555
4.32834, 2, -47.2523, -11.9896, 29.3595, 13.666, 67.2645, -166.555
4.33632, 2, -47.2522, -11.9896, 29.3595, 13.666, 67.2645, -166.555
4.34362, 2, -47.2522, -11.9897, 29.3595, 13.666, 67.2645, -166.555
4.35162, 2, -47.2522, -11.9898, 29.3595, 13.666, 67.2645, -166.555
4.35967, 2, -47.2521, -11.9898, 29.3595, 13.666, 67.2645, -166.555
4.36762, 2, -47.2522, -11.9898, 29.3595, 13.666, 67.2645, -166.555
4.37563, 2, -47.2522, -11.9898, 29.3595, 13.666, 67.2644, -166.555
4.38367, 2, -47.2521, -11.9898, 29.3595, 13.666, 67.2645, -166.555
4.39164, 2, -47.2521, -11.9897, 29.3595, 13.666, 67.2645, -166.555
4.39962, 2, -47.252, -11.9897, 29.3595, 13.666, 67.2645, -166.555
4.40769, 2, -47.2519, -11.9896, 29.3595, 13.666, 67.2645, -166.555
4.41563, 2, -47.2518, -11.9895, 29.3595, 13.666, 67.2645, -166.555
4.42362, 2, -47.2517, -11.9895, 29.3595, 13.6661, 67.2645, -166.555
4.43166, 2, -47.2516, -11.9895, 29.3595, 13.666, 67.2645, -166.555
4.43961, 2, -47.2515, -11.9895, 29.3595, 13.666, 67.2645, -166.555
4.44762, 2, -47.2515, -11.9896, 29.3595, 13.666, 67.2645, -166.555
4.45571, 2, -47.2514, -11.9896, 29.3595, 13.666, 67.2645, -166.555
4.46467, 2, -47.2514, -11.9896, 29.3595, 13.666, 67.2645, -166.555
4.47161, 2, -47.2513, -11.9896, 29.3595, 13.666, 67.2645, -166.555
4.47969, 2, -47.2513, -11.9896, 29.3595, 13.666, 67.2645, -166.555
4.48761, 2, -47.2512, -11.9895, 29.3595, 13.666, 67.2645, -166.555
4.49562, 2, -47.2512, -11.9895, 29.3595, 13.666, 67.2645, -166.555
4.50368, 2, -47.2511, -11.9894, 29.3595, 13.666, 67.2646, -166.555
4.51162, 2, -47.251, -11.9893, 29.3595, 13.666, 67.2646, -166.555
4.51963, 2, -47.2509, -11.9893, 29.3595, 13.666, 67.2647, -166.555
4.52769, 2, -47.2508, -11.9892, 29.3595, 13.666, 67.2646, -166.555
4.53562, 2, -47.2507, -11.9892, 29.3595, 13.666, 67.2646, -166.555
4.54361, 2, -47.2507, -11.9892, 29.3595, 13.666, 67.2646, -166.555
4.55169, 2, -47.2505, -11.9892, 29.3595, 13.666, 67.2646, -166.555
4.55961, 2, -47.2505, -11.9893, 29.3595, 13.6659, 67.2646, -166.555
4.56762, 2, -47.2503, -11.9893, 29.3595, 13.6659, 67.2646, -166.555
4.57572, 2, -47.2502, -11.9893, 29.3595, 13.6659, 67.2647, -166.555
4.58361, 2, -47.2501, -11.9892, 29.3595, 13.6659, 67.2647, -166.555
4.59161, 2, -47.25, -11.9892, 29.3595, 13.6659, 67.2647, -166.555
4.59968, 2, -47.2499, -11.9892, 29.3595, 13.6659, 67.2647, -166.555
4.60761, 2, -47.2498, -11.9891, 29.3595, 13.6659, 67.2647, -166.555
4.61562, 2, -47.2496, -11.989, 29.3595, 13.6659, 67.2647, -166.555
4.62369, 2, -47.2495, -11.9889, 29.3595, 13.6659, 67.2646, -166.555
4.63168, 2, -47.2494, -11.9889, 29.3595, 13.6659, 67.2647, -166.555
4.63962, 2, -47.2493, -11.9889, 29.3595, 13.6659, 67.2647, -166.555
4.64769, 2, -47.2492, -11.9889, 29.3595, 13.6658, 67.2647, -166.555
4.65567, 2, -47.2491, -11.9889, 29.3595, 13.6658, 67.2647, -166.555
4.66369, 2, -47.2491, -11.9889, 29.3595, 13.6659, 67.2647, -166.555
4.67177, 2, -47.249, -11.9889, 29.3595, 13.6658, 67.2647, -166.555
4.67971, 2, -47.249, -11.9889, 29.3595, 13.6658, 67.2647, -166.555
4.68771, 2, -47.2489, -11.9889, 29.3595, 13.6658, 67.2647, -166.555
4.6958, 2, -47.2488, -11.9888, 29.3595, 13.6658, 67.2647, -166.555
4.70367, 2, -47.2488, -11.9888, 29.3595, 13.6658, 67.2647, -166.555
4.71162, 2, -47.2487, -11.9887, 29.3595, 13.6658, 67.2647, -166.555
4.71971, 2, -47.2487, -11.9887, 29.3595, 13.6658, 67.2647, -166.555
4.72765, 2, -47.2486, -11.9886, 29.3595, 13.6658, 67.2647, -166.555
4.73603, 2, -47.2485, -11.9885, 29.3595, 13.6658, 67.2647, -166.555
4.74284, 2, -47.2485, -11.9885, 29.3595, 13.6658, 67.2647, -166.555
4.75181, 2, -47.2484, -11.9885, 29.3595, 13.6657, 67.2648, -166.555
4.75986, 2, -47.2484, -11.9885, 29.3595, 13.6657, 67.2647, -166.555
4.76839, 2, -47.2483, -11.9885, 29.3595, 13.6657, 67.2648, -166.555
4.77602, 2, -47.2483, -11.9885, 29.3595, 13.6658, 67.2648, -166.555
4.78266, 2, -47.2483, -11.9885, 29.3595, 13.6658, 67.2647, -166.555
4.79255, 2, -47.2482, -11.9885, 29.3595, 13.6658, 67.2648, -166.555
4.8002, 2, -47.2483, -11.9884, 29.3595, 13.6657, 67.2648, -166.555
4.80818, 2, -47.2482, -11.9884, 29.3595, 13.6656, 67.2647, -166.555
4.81649, 2, -47.2481, -11.9883, 29.3595, 13.6657, 67.2648, -166.555
4.82417, 2, -47.2481, -11.9883, 29.3595, 13.6657, 67.2648, -166.555
4.83224, 2, -47.248, -11.9882, 29.3595, 13.6657, 67.2648, -166.555
4.84051, 2, -47.2479, -11.9881, 29.3595, 13.6656, 67.2648, -166.554
4.8476, 2, -47.2479, -11.9881, 29.3595, 13.6656, 67.2648, -166.554
4.85561, 2, -47.2478, -11.9881, 29.3595, 13.6656, 67.2648, -166.554
4.86365, 2, -47.2477, -11.9881, 29.3595, 13.6656, 67.2648, -166.554
4.8716, 2, -47.2477, -11.9881, 29.3595, 13.6656, 67.2648, -166.554
4.8796, 2, -47.2477, -11.9881, 29.3595, 13.6656, 67.2648, -166.554
4.88765, 2, -47.2476, -11.9881, 29.3595, 13.6656, 67.2648, -166.554
4.89566, 2, -47.2476, -11.9881, 29.3595, 13.6656, 67.2648, -166.554
4.9036, 2, -47.2476, -11.9881, 29.3595, 13.6656, 67.2649, -166.554
4.91167, 2, -47.2475, -11.988, 29.3595, 13.6656, 67.2649, -166.554
4.9196, 2, -47.2475, -11.988, 29.3595, 13.6656, 67.265, -166.554
4.9276, 2, -47.2474, -11.9879, 29.3595, 13.6656, 67.265, -166.554
4.93568, 2, -47.2474, -11.9878, 29.3595, 13.6656, 67.265, -166.554
4.9436, 2, -47.2473, -11.9878, 29.3595, 13.6656, 67.265, -166.554
4.9516, 2, -47.2472, -11.9877, 29.3595, 13.6655, 67.265, -166.554
4.95967, 2, -47.2471, -11.9877, 29.3595, 13.6655, 67.2651, -166.554
4.96768, 2, -47.2471, -11.9877, 29.3595, 13.6654, 67.2651, -166.554
4.9766, 2, -47.2471, -11.9877, 29.3595, 13.6655, 67.2651, -166.554
4.98367, 2, -47.247, -11.9877, 29.3595, 13.6655, 67.2651, -166.554
4.9916, 2, -47.247, -11.9877, 29.3595, 13.6655, 67.2651, -166.554
4.9996, 2, -47.247, -11.9876, 29.3595, 13.6655, 67.2651, -166.554
5.00767, 2, -47.247, -11.9876, 29.3595, 13.6654, 67.2651, -166.554
5.01561, 2, -47.2469, -11.9876, 29.3595, 13.6654, 67.2651, -166.554
5.02361, 2, -47.2469, -11.9875, 29.3595, 13.6654, 67.2651, -166.554
5.03167, 2, -47.2468, -11.9875, 29.3595, 13.6654, 67.2651, -166.554
5.0396, 2, -47.2468, -11.9874, 29.3595, 13.6654, 67.2651, -166.554
5.0476, 2, -47.2467, -11.9874, 29.3595, 13.6654, 67.2651, -166.554
5.05704, 2, -47.2466, -11.9874, 29.3595, 13.6654, 67.2651, -166.554
5.0636, 2, -47.2466, -11.9874, 29.3595, 13.6653, 67.2651, -166.554
5.07167, 2, -47.2465, -11.9873, 29.3595, 13.6653, 67.2651, -166.554
5.07962, 2, -47.2465, -11.9873, 29.3595, 13.6653, 67.2651, -166.554
5.08765, 2, -47.2464, -11.9873, 29.3595, 13.6653, 67.2651, -166.554
5.09567, 2, -47.2464, -11.9873, 29.3595, 13.6652, 67.2651, -166.554
5.1036, 2, -47.2464, -11.9873, 29.3595, 13.6652, 67.2651, -166.554
5.11161, 2, -47.2464, -11.9873, 29.3595, 13.6652, 67.2651, -166.554
5.11967, 4, -47.2464, -11.9872, 29.3595, 13.6652, 67.2651, -166.554
5.1276, 4, -47.2463, -11.9872, 29.3595, 13.6652, 67.2651, -166.554
5.13569, 4, -47.2462, -11.9871, 29.3595, 13.6652, 67.2652, -166.554
5.14367, 4, -47.2462, -11.9871, 29.3595, 13.6652, 67.2651, -166.554
5.15162, 4, -47.2461, -11.9871, 29.3595, 13.6652, 67.2651, -166.554
5.15966, 4, -47.246, -11.987, 29.3595, 13.6651, 67.2652, -166.554
5.16775, 4, -47.246, -11.987, 29.3595, 13.6651, 67.2652, -166.554
5.17571, 4, -47.2459, -11.987, 29.3595, 13.6651, 67.2652, -166.554
5.18371, 4, -47.2459, -11.987, 29.3595, 13.6651, 67.2652, -166.554
5.19176, 4, -47.2459, -11.987, 29.3595, 13.6651, 67.2653, -166.554
5.1997, 4, -47.2458, -11.987, 29.3595, 13.6651, 67.2653, -166.554
5.20777, 4, -47.2458, -11.987, 29.3595, 13.665, 67.2653, -166.554
5.21598, 4, -47.2458, -11.9869, 29.3595, 13.665, 67.2653, -166.554
5.23175, 4, -47.2458, -11.9869, 29.3595, 13.665, 67.2653, -166.554
5.23375, 4, -47.2457, -11.9869, 29.3595, 13.665, 67.2653, -166.554
5.24006, 4, -47.2457, -11.9868, 29.3595, 13.665, 67.2653, -166.554
5.24854, 4, -47.2456, -11.9868, 29.3595, 13.665, 67.2653, -166.554
5.25619, 4, -47.2456, -11.9867, 29.3595, 13.665, 67.2653, -166.554
5.26418, 4, -47.2455, -11.9867, 29.3595, 13.665, 67.2653, -166.554
5.27657, 4, -47.2455, -11.9867, 29.3595, 13.665, 67.2653, -166.553
5.28061, 4, -47.2455, -11.9867, 29.3595, 13.665, 67.2653, -166.553
5.28869, 4, -47.2454, -11.9867, 29.3595, 13.665, 67.2653, -166.553
5.29649, 4, -47.2453, -11.9867, 29.3595, 13.665, 67.2653, -166.553
5.30539, 4, -47.2454, -11.9867, 29.3595, 13.6649, 67.2653, -166.553
5.31241, 4, -47.2453, -11.9866, 29.3595, 13.6649, 67.2653, -166.553
5.32181, 4, -47.2453, -11.9866, 29.3595, 13.665, 67.2653, -166.553
5.32674, 4, -47.2453, -11.9866, 29.3595, 13.6649, 67.2653, -166.553
5.33635, 4, -47.2453, -11.9866, 29.3595, 13.6649, 67.2654, -166.553
5.34711, 4, -47.2453, -11.9865, 29.3595, 13.6649, 67.2654, -166.553
5.35244, 4, -47.2452, -11.9865, 29.3595, 13.6649, 67.2654, -166.553
5.36256, 4, -47.2451, -11.9865, 29.3595, 13.6649, 67.2654, -166.553
5.36969, 4, -47.2451, -11.9865, 29.3595, 13.6649, 67.2653, -166.553
5.37687, 4, -47.2451, -11.9865, 29.3595, 13.6649, 67.2654, -166.553
5.38372, 4, -47.2455, -11.9867, 29.3596, 13.6649, 67.2654, -166.553
5.39181, 4, -47.247, -11.9877, 29.3605, 13.6654, 67.2656, -166.553
5.401, 4, -47.2526, -11.9934, 29.3672, 13.6765, 67.2683, -166.552
5.40772, 5, -47.2557, -11.9972, 29.3723, 13.6866, 67.2708, -166.55
5.41713, 5, -47.2713, -12.0176, 29.4044, 13.7503, 67.2883, -166.537
5.42569, 5, -47.2894, -12.0419, 29.447, 13.838, 67.3128, -166.517
5.43182, 5, -47.3016, -12.0582, 29.4769, 13.9004, 67.3305, -166.503
5.43985, 5, -47.3333, -12.0999, 29.5583, 14.072, 67.3784, -166.464
5.44775, 5, -47.3766, -12.1553, 29.6727, 14.3169, 67.4458, -166.407
5.4558, 5, -47.4325, -12.2255, 29.8235, 14.6437, 67.5353, -166.332
5.46372, 5, -47.5011, -12.3108, 30.0126, 15.0546, 67.646, -166.237
5.47194, 5, -47.5821, -12.4112, 30.2401, 15.5459, 67.7773, -166.125
5.47977, 5, -47.6745, -12.5255, 30.5019, 16.1063, 67.9251, -165.998
5.48775, 5, -47.7768, -12.6523, 30.7941, 16.7214, 68.0858, -165.86
5.49857, 5, -47.9448, -12.8614, 31.2758, 17.7153, 68.3392, -165.641
5.50406, 5, -48.0035, -12.9349, 31.4449, 18.0574, 68.425, -165.566
5.51456, 5, -48.184, -13.1621, 31.9661, 19.0974, 68.6808, -165.343
5.51981, 5, -48.2445, -13.2386, 32.1427, 19.4445, 68.7648, -165.27
5.52806, 5, -48.3639, -13.39, 32.4967, 20.1306, 68.9297, -165.122
5.5361, 5, -48.4781, -13.5372, 32.8489, 20.799, 69.0908, -164.97
5.54473, 6, -48.5825, -13.6768, 33.1923, 21.4385, 69.2503, -164.801
5.55174, 6, -48.6726, -13.8059, 33.5222, 22.0385, 69.4102, -164.604
5.56217, 7, -48.7719, -13.9821, 33.9824, 22.8515, 69.657, -164.222
5.57105, 7, -48.8108, -14.0898, 34.2642, 23.3328, 69.8299, -163.891
5.57944, 8, -48.8283, -14.1888, 34.5257, 23.7709, 70.0118, -163.49
5.58855, 8, -48.8261, -14.2778, 34.7707, 24.1744, 70.2041, -163.021
5.59201, 8, -48.8185, -14.3188, 34.8884, 24.3662, 70.3042, -162.762
5.60283, 9, -48.7743, -14.4314, 35.2259, 24.9162, 70.6198, -161.908
5.60784, 9, -48.7537, -14.4663, 35.3352, 25.0948, 70.7295, -161.604
5.61677, 10, -48.7049, -14.5335, 35.5519, 25.4496, 70.9548, -160.978
5.62482, 10, -48.6467, -14.5981, 35.7674, 25.8043, 71.1862, -160.338
5.63176, 11, -48.5805, -14.6609, 35.9821, 26.161, 71.4213, -159.693
5.64075, 11, -48.5081, -14.723, 36.1969, 26.5212, 71.6579, -159.05
5.64906, 12, -48.4312, -14.7854, 36.4101, 26.8865, 71.8955, -158.409
5.65772, 12, -48.3521, -14.8482, 36.6208, 27.2582, 72.134, -157.767
5.66584, 13, -48.2721, -14.9098, 36.8298, 27.6368, 72.3737, -157.123
5.67216, 13, -48.1912, -14.9691, 37.0368, 28.0227, 72.6153, -156.477
5.68156, 14, -48.1086, -15.0275, 37.2415, 28.4152, 72.8588, -155.826
5.6882, 14, -48.0231, -15.0867, 37.4452, 28.8133, 73.1044, -155.172
5.69584, 15, -47.9342, -15.1462, 37.6479, 29.2156, 73.3514, -154.518
5.70435, 15, -47.8414, -15.2053, 37.8484, 29.6198, 73.5985, -153.866
5.71252, 16, -47.7434, -15.2637, 38.0468, 30.0242, 73.8443, -153.216
5.72052, 16, -47.6386, -15.3228, 38.2436, 30.4272, 74.0876, -152.57
5.72974, 17, -47.5272, -15.3838, 38.4372, 30.8272, 74.3266, -151.929
5.73671, 17, -47.4106, -15.4465, 38.6277, 31.2233, 74.5601, -151.294
5.74401, 18, -47.2894, -15.5099, 38.816, 31.6144, 74.7869, -150.667
5.75603, 18, -47.0983, -15.6069, 39.0941, 32.1929, 75.115, -149.741
5.76016, 19, -47.0319, -15.6404, 39.1855, 32.3841, 75.2213, -149.436
5.77204, 19, -46.8247, -15.7453, 39.458, 32.9555, 75.5328, -148.532
5.77632, 20, -46.753, -15.7813, 39.5483, 33.1454, 75.6345, -148.234
5.78671, 20, -46.6056, -15.8549, 39.7269, 33.5246, 75.8348, -147.644
5.79249, 21, -46.4533, -15.9308, 39.9026, 33.9035, 76.0313, -147.059
5.80153, 21, -46.2961, -16.0093, 40.0761, 34.2815, 76.2239, -146.481
5.80857, 22, -46.1346, -16.0896, 40.2477, 34.6578, 76.4117, -145.908
5.81715, 22, -45.9687, -16.1709, 40.4161, 35.0313, 76.5946, -145.343
5.82668, 23, -45.7977, -16.2536, 40.5813, 35.4015, 76.7724, -144.784
5.83642, 23, -45.5287, -16.3812, 40.8244, 35.9487, 77.0287, -143.954
5.84039, 24, -45.5287, -16.3812, 40.8244, 36.1286, 77.1114, -143.681
5.84907, 24, -45.3407, -16.4688, 40.9819, 36.3071, 77.1926, -143.138
5.85891, 25, -45.0459, -16.6027, 41.2103, 36.8322, 77.4281, -142.599
5.86372, 25, -44.9443, -16.6479, 41.2844, 37.0037, 77.5038, -142.331
5.87351, 26, -44.6294, -16.7846, 41.4999, 37.5066, 77.7229, -141.533
5.87973, 26, -44.5209, -16.8306, 41.5693, 37.6703, 77.7934, -141.269
5.89284, 27, -44.1851, -17.0148, 41.8327, 38.3058, 78.0648, -140.217
5.89577, 27, -44.0699, -17.0148, 41.8327, 38.3058, 78.0648, -140.217
5.90582, 28, -43.7143, -17.1516, 42.0147, 38.7617, 78.2585, -139.431
5.91411, 28, -43.4685, -17.2417, 42.1277, 39.0553, 78.3833, -138.908
5.91978, 29, -43.343, -17.2862, 42.1817, 39.1991, 78.4447, -138.647
5.92773, 29, -43.087, -17.3738, 42.2846, 39.4808, 78.5655, -138.125
5.93567, 30, -42.8242, -17.4596, 42.3803, 39.7542, 78.6828, -137.603
5.9477, 30, -42.4152, -17.5843, 42.5103, 40.1483, 78.8539, -136.82
5.95477, 31, -42.1322, -17.6642, 42.588, 40.4005, 78.9641, -136.3
5.95973, 31, -41.9878, -17.7031, 42.6242, 40.5235, 79.0182, -136.04
5.9682, 32, -41.6935, -17.7794, 42.6915, 40.7629, 79.1249, -135.52
5.9758, 32, -41.3924, -17.8533, 42.7521, 40.9938, 79.2285, -135.001
5.9837, 33, -41.0849, -17.9244, 42.8055, 41.2167, 79.3298, -134.483
5.99492, 33, -40.6108, -18.0252, 42.8724, 41.5358, 79.477, -133.707
6.00181, 34, -40.2874, -18.0888, 42.9078, 41.7383, 79.5718, -133.192
6.00993, 34, -39.9592, -18.1498, 42.9359, 41.9328, 79.664, -132.677
6.01818, 35, -39.6257, -18.2077, 42.9569, 42.1196, 79.7539, -132.163
6.02705, 35, -39.2861, -18.2622, 42.9708, 42.299, 79.8411, -131.651
6.03177, 36, -39.1137, -18.2881, 42.9751, 42.3857, 79.8841, -131.395
6.04264, 36, -38.7633, -18.3375, 42.978, 42.6344, 80.0095, -130.63
6.0477, 37, -38.4063, -18.3836, 42.9756, 42.7135, 80.0501, -130.375
6.05815, 37, -37.8596, -18.4461, 42.9581, 42.9395, 80.1693, -129.615
6.06381, 38, -37.6748, -18.465, 42.9489, 43.0112, 80.2079, -129.362
6.07184, 38, -37.3016, -18.5004, 42.9255, 43.149, 80.2836, -128.858
6.07971, 39, -36.9238, -18.5325, 42.8954, 43.2793, 80.3571, -128.355
6.08781, 39, -36.5415, -18.561, 42.8586, 43.4023, 80.4285, -127.854
6.09856, 40, -35.958, -18.5967, 42.7909, 43.5731, 80.5323, -127.107
6.10377, 40, -35.7604, -18.6066, 42.7651, 43.6264, 80.5662, -126.858
6.11276, 41, -35.361, -18.6235, 42.7085, 43.7277, 80.6323, -126.363
6.11973, 41, -34.956, -18.6368, 42.6455, 43.8215, 80.6957, -125.87
6.12873, 42, -34.5467, -18.6465, 42.576, 43.9086, 80.7582, -125.379
6.13579, 42, -34.1342, -18.653, 42.5001, 43.9884, 80.8176, -124.891
6.14388, 43, -33.7186, -18.6564, 42.4181, 44.0611, 80.8763, -124.404
6.15208, 43, -33.2989, -18.6564, 42.3301, 44.1265, 80.9327, -123.92
6.15976, 44, -32.8733, -18.6526, 42.2363, 44.1852, 80.9873, -123.439
6.17117, 44, -32.223, -18.64, 42.0849, 44.2589, 81.0668, -122.721
6.17588, 45, -32.0031, -18.6339, 42.0314, 44.2801, 81.092, -122.483
6.18588, 45, -31.5598, -18.6189, 41.92, 44.3169, 81.1421, -122.009
6.19193, 46, -31.1134, -18.6006, 41.8027, 44.3459, 81.1907, -121.536
6.20209, 46, -30.6656, -18.5788, 41.6794, 44.367, 81.2365, -121.067
6.20789, 47, -30.2146, -18.5531, 41.5503, 44.3805, 81.2815, -120.599
6.21689, 47, -29.7588, -18.5229, 41.4153, 44.387, 81.326, -120.134
6.22788, 48, -29.0626, -18.4695, 41.2015, 44.383, 81.3894, -119.439
6.23549, 48, -28.8275, -18.4495, 41.1272, 44.3692, 81.4311, -118.978
6.23989, 49, -28.3535, -18.4063, 40.9741, 44.3592, 81.452, -118.748
6.24885, 49, -27.8768, -18.3586, 40.8152, 44.3322, 81.4934, -118.29
6.25613, 50, -27.3977, -18.3064, 40.6499, 44.2951, 81.5337, -117.832
6.26485, 50, -26.9149, -18.249, 40.4778, 44.2492, 81.5751, -117.376
6.2775, 51, -26.1778, -18.1523, 40.2079, 44.1625, 81.6387, -116.693
6.28097, 51, -25.9283, -18.1174, 40.1145, 44.1285, 81.6599, -116.466
6.28833, 52, -25.4243, -18.0432, 39.922, 44.0538, 81.7028, -116.012
6.29733, 52, -24.9168, -17.9639, 39.7225, 43.9681, 81.7473, -115.558
6.30445, 53, -24.4074, -17.8792, 39.5172, 43.8723, 81.792, -115.106
6.31321, 53, -23.8948, -17.7887, 39.3045, 43.7667, 81.8371, -114.653
6.32342, 54, -23.3761, -17.6919, 39.084, 43.6505, 81.8846, -114.202
6.32912, 54, -22.8494, -17.5889, 38.8571, 43.5237, 81.9339, -113.75
6.33791, 55, -22.315, -17.4797, 38.6228, 43.3855, 81.9846, -113.298
6.34452, 55, -22.046, -17.3644, 38.381, 43.2356, 82.0386, -112.846
6.35344, 56, -21.2353, -17.2432, 38.1331, 43.074, 82.0938, -112.395
6.36041, 56, -20.9636, -17.1805, 38.0065, 42.9888, 82.1218, -111.944
6.37103, 57, -20.1386, -16.984, 37.616, 42.7162, 82.21, -111.493
6.3757, 57, -19.8589, -16.9158, 37.4827, 42.6195, 82.2399, -111.268
6.38668, 58, -19.0077, -16.7018, 37.0721, 42.3108, 82.3332, -110.593
6.39372, 58, -18.4345, -16.551, 36.7907, 42.0891, 82.3976, -110.143
6.40171, 59, -17.8589, -16.3943, 36.5018, 41.8548, 82.4647, -109.693
6.40769, 59, -17.5696, -16.3141, 36.3548, 41.7327, 82.4995, -109.469
6.41761, 60, -16.9845, -16.1508, 35.9039, 41.3456, 82.6075, -108.794
6.42787, 60, -16.3886, -15.9824, 35.7504, 41.2098, 82.6828, -108.344
6.43461, 61, -15.4815, -15.7195, 35.2817, 40.7822, 82.7597, -107.895
6.44117, 61, -15.1775, -15.6295, 35.1225, 40.6333, 82.799, -107.446
6.45045, 62, -14.2611, -15.3542, 34.6376, 40.1685, 82.9196, -106.997
6.45578, 62, -13.9523, -15.2604, 34.4737, 40.0074, 82.9606, -106.772
6.4637, 63, -13.3269, -15.0683, 34.1435, 39.6761, 83.0439, -106.322
6.47175, 63, -12.6932, -14.8697, 33.8091, 39.3324, 83.1289, -105.873
6.47979, 64, -12.054, -14.6662, 33.4708, 38.9758, 83.2164, -105.423
6.49117, 64, -11.0872, -14.351, 32.953, 38.4159, 83.3538, -104.746
6.49676, 65, -10.7605, -14.2423, 32.7775, 38.2217, 83.4017, -104.52
6.50628, 65, -9.7635, -13.9048, 32.2415, 37.6134, 83.5543, -103.837
6.51176, 66, -9.42607, -13.7888, 32.0599, 37.4012, 83.6083, -103.609
6.52301, 66, -8.40348, -13.4303, 31.5054, 36.7373, 83.7813, -102.92
6.52978, 67, -8.0597, -13.3072, 31.3165, 36.5062, 83.9057, -102.458
6.53793, 67, -7.36493, -13.0553, 30.9329, 36.0308, 83.9709, -102.226
6.54377, 68, -6.66035, -12.7951, 30.5431, 35.5381, 84.107, -101.759
6.55172, 68, -5.94804, -12.5275, 30.1493, 35.0306, 84.2496, -101.29
6.56265, 69, -4.86927, -12.1138, 29.5511, 34.2453, 84.4749, -100.583
6.57084, 69, -4.14188, -11.8287, 29.1491, 33.7076, 84.6318, -100.109
6.57974, 70, -3.40568, -11.5362, 28.7472, 33.158, 84.7936, -99.6333
6.58379, 70, -3.03426, -11.3866, 28.5461, 32.8781, 84.8768, -99.3947
6.59176, 71, -2.28554, -11.0813, 28.1431, 32.3078, 85.0479, -98.9165
6.59979, 71, -1.52873, -10.7694, 27.7371, 31.7225, 85.2271, -98.4358
6.61066, 72, -0.379023, -10.2893, 27.1228, 30.8121, 85.5137, -97.7086
6.61577, 72, 0.00731623, -10.1263, 26.9169, 30.4998, 85.614, -97.4645
6.62364, 73, 0.783774, -9.79396, 26.5032, 29.8659, 85.8214, -96.9744
6.63182, 73, 1.56492, -9.45421, 26.089, 29.2199, 86.037, -96.4831
6.63983, 74, 2.34954, -9.10839, 25.6754, 28.5643, 86.2611, -95.9897
6.65087, 74, 3.1362, -8.75821, 25.2649, 27.5676, 86.6104, -95.2476
6.65579, 75, 3.92408, -8.40255, 24.8598, 27.2326, 86.7297, -94.9998
6.66857, 76, 5.10715, -7.85897, 24.2625, 26.2277, 87.0952, -94.2571
6.67177, 76, 5.50098, -7.67535, 24.0664, 25.8932, 87.2195, -94.0092
6.68215, 76, 6.28793, -7.30451, 23.6799, 25.2242, 87.4715, -93.5132
6.68964, 77, 7.07349, -6.92731, 23.3001, 24.5588, 87.7293, -93.0174
6.70455, 78, 8.64527, -6.15064, 22.5565, 23.2304, 88.2688, -92.0252
6.70634, 78, 8.64527, -6.15064, 22.5565, 23.2304, 88.2688, -92.0252
6.72573, 79, 10.6107, -5.13625, 21.653, 21.5533, 89.0032, -90.7714
6.72762, 79, 11.0045, -4.92664, 21.4749, 21.2152, 89.159, -90.5171
6.72904, 79, 11.0045, -4.92664, 21.4749, 21.2152, 89.159, -90.5171
6.73566, 80, 11.7901, -4.50009, 21.1209, 20.5366, 89.4795, -90.0044
6.74368, 80, 12.5707, -4.06405, 20.7706, 19.8562, 89.8115, -89.4847
6.75172, 81, 13.346, -3.61877, 20.4236, 19.1807, 90.1546, -88.9581
6.75982, 81, 14.1169, -3.16528, 20.0814, 18.5134, 90.5075, -88.4256
6.76873, 82, 14.8805, -2.70479, 19.7454, 17.8579, 90.8682, -87.889
6.77593, 82, 15.6351, -2.23666, 19.4182, 17.2164, 91.2353, -87.3493
6.78437, 83, 16.3791, -1.76107, 19.0999, 16.5923, 91.6068, -86.807
6.79201, 83, 17.112, -1.27828, 18.7921, 15.989, 91.9818, -86.2635
6.80007, 83, 17.8319, -0.78918, 18.494, 15.4052, 92.3605, -85.7206
6.80814, 84, 18.5362, -0.296299, 18.2061, 14.8419, 92.7444, -85.1793
6.81617, 84, 19.2239, 0.200098, 17.926, 14.2988, 93.1346, -84.6389
6.82417, 85, 19.8937, 0.701489, 17.6526, 13.7757, 93.5328, -84.1008
6.83218, 85, 20.5465, 1.2073, 17.3859, 13.2722, 93.9381, -83.5647
6.84006, 86, 20.8668, 1.46147, 17.2546, 13.0281, 94.1429, -83.2975
6.84755, 86, 21.4966, 1.97364, 16.9973, 12.5544, 94.5566, -82.7629
6.85557, 87, 22.113, 2.49294, 16.7468, 12.1012, 94.9761, -82.2267
6.86354, 87, 22.7167, 3.02224, 16.5012, 11.6671, 95.4016, -81.6866
6.87153, 87, 23.31, 3.56126, 16.2601, 11.2514, 95.834, -81.1417
6.8796, 88, 23.8939, 4.10818, 16.0224, 10.8514, 96.2732, -80.5891
6.88754, 88, 24.4675, 4.66353, 15.7877, 10.4672, 96.7191, -80.0269
6.89555, 89, 25.0304, 5.23028, 15.5578, 10.0974, 97.1726, -79.4538
6.90354, 89, 25.5855, 5.80909, 15.3316, 9.74263, 97.6331, -78.8689
6.91155, 90, 26.137, 6.39877, 15.1076, 9.40275, 98.1002, -78.2709
6.91955, 90, 26.6826, 6.99816, 14.8878, 9.07783, 98.5738, -77.6585
6.92757, 91, 27.2165, 7.60654, 14.673, 8.77008, 99.0542, -77.0326
6.93554, 91, 27.7368, 8.22536, 14.4626, 8.48058, 99.5408, -76.3947
6.94354, 92, 28.2468, 8.85531, 14.2562, 8.21181, 100.032, -75.7447
6.95161, 92, 28.7495, 9.49558, 14.0547, 7.96485, 100.528, -75.0852
6.95954, 93, 29.2436, 10.1442, 13.8584, 7.74019, 101.027, -74.419
6.96754, 93, 29.7256, 10.7991, 13.6691, 7.5388, 101.526, -73.7453
6.97561, 94, 30.1935, 11.4584, 13.4877, 7.36096, 102.024, -73.065
6.98521, 94, 30.6465, 12.1206, 13.3134, 7.20683, 102.52, -72.3798
6.99153, 95, 31.0855, 12.7851, 13.146, 7.07641, 103.013, -71.6899
6.99961, 95, 31.511, 13.451, 12.9866, 6.96987, 103.502, -70.9936
7.00754, 96, 31.9223, 14.1184, 12.8346, 6.8864, 103.988, -70.2924
7.01553, 96, 32.3178, 14.7865, 12.6889, 6.82762, 104.47, -69.5863
7.02361, 97, 32.6971, 15.4552, 12.5498, 6.79111, 104.948, -68.8737
7.03155, 97, 33.0606, 16.1226, 12.4183, 6.77566, 105.42, -68.1564
7.04055, 98, 33.4085, 16.7878, 12.295, 6.78245, 105.885, -67.437
7.0476, 98, 33.7419, 17.4487, 12.1805, 6.8106, 106.342, -66.7137
7.05554, 99, 34.0615, 18.1042, 12.0752, 6.85811, 106.788, -65.9897
7.06354, 99, 34.369, 18.7524, 11.9797, 6.92595, 107.223, -65.2684
7.07161, 100, 34.6654, 19.3921, 11.8935, 7.01104, 107.644, -64.5489
7.07954, 100, 34.9502, 20.0226, 11.8163, 7.11394, 108.051, -63.8335
7.08754, 101, 35.223, 20.6425, 11.7476, 7.23278, 108.442, -63.1262
7.09568, 101, 35.4833, 21.2514, 11.6871, 7.36652, 108.817, -62.4253
7.10353, 102, 35.7312, 21.8482, 11.6351, 7.51284, 109.175, -61.7335
7.11154, 102, 35.9654, 22.4318, 11.5912, 7.66985, 109.516, -61.0536
7.11958, 103, 36.1877, 23.0014, 11.5556, 7.83558, 109.842, -60.3851
7.12754, 103, 36.4021, 23.5559, 11.5283, 8.00888, 110.152, -59.7281
7.13555, 103, 36.6105, 24.095, 11.5097, 8.19, 110.446, -59.0843
7.1436, 104, 36.8124, 24.6187, 11.4998, 8.37942, 110.722, -58.4533
7.15162, 104, 37.008, 25.1266, 11.4967, 8.57794, 110.978, -57.8327
7.1597, 104, 37.1974, 25.6188, 11.5001, 8.78531, 111.215, -57.2237
7.16771, 104, 37.3784, 26.095, 11.5094, 9.0002, 111.432, -56.6273
7.17564, 104, 37.5489, 26.5549, 11.5225, 9.22104, 111.63, -56.0438
7.18369, 104, 37.7103, 26.999, 11.5385, 9.44539, 111.813, -55.4755
7.19188, 104, 37.8664, 27.4284, 11.5572, 9.66995, 111.982, -54.9256
7.19964, 104, 38.019, 27.8419, 11.5775, 9.89237, 112.14, -54.3976
7.20771, 104, 38.1676, 28.2386, 11.5982, 10.1107, 112.289, -53.892
7.21561, 104, 38.3106, 28.6189, 11.6184, 10.3237, 112.43, -53.4096
7.22354, 104, 38.4471, 28.9825, 11.6373, 10.5301, 112.563, -52.9515
7.23164, 104, 38.576, 29.3278, 11.6553, 10.7291, 112.687, -52.5179
7.24058, 104, 38.6966, 29.6545, 11.6722, 10.9198, 112.805, -52.1098
7.24761, 104, 38.8088, 29.9618, 11.6877, 11.1017, 112.915, -51.7262
7.25578, 104, 38.9128, 30.2509, 11.7023, 11.2737, 113.016, -51.3675
7.26397, 104, 39.0092, 30.5208, 11.7159, 11.4361, 113.111, -51.0346
7.27179, 104, 39.098, 30.7708, 11.7282, 11.5878, 113.198, -50.727
7.27997, 104, 39.1788, 31.0015, 11.7393, 11.7285, 113.277, -50.4443
7.28846, 104, 39.2516, 31.2123, 11.7494, 11.8577, 113.35, -50.1871
7.296, 104, 39.3163, 31.4032, 11.7589, 11.9754, 113.415, -49.955
7.30411, 104, 39.3733, 31.5748, 11.7673, 12.0813, 113.473, -49.7482
7.31229, 104, 39.4234, 31.7269, 11.7747, 12.1749, 113.524, -49.5665
7.32019, 104, 39.4673, 31.8601, 11.7814, 12.2567, 113.567, -49.4093
7.32815, 104, 39.5056, 31.9755, 11.7875, 12.3259, 113.604, -49.2763
7.33613, 104, 39.5224, 32.0742, 11.793, 12.3842, 113.634, -49.1666
7.34409, 104, 39.5514, 32.1173, 11.7954, 12.4086, 113.647, -49.0781
7.35217, 104, 39.5752, 32.1924, 11.7999, 12.4491, 113.677, -49.0095
7.35956, 104, 39.5942, 32.2539, 11.8041, 12.4804, 113.684, -48.9822
7.36753, 104, 39.6089, 32.3034, 11.8078, 12.5037, 113.696, -48.9393
7.37559, 104, 39.6203, 32.3423, 11.8112, 12.5202, 113.703, -48.9094
7.38353, 104, 39.629, 32.3715, 11.8143, 12.5314, 113.708, -48.8898
7.39152, 104, 39.6352, 32.3934, 11.817, 12.5385, 113.711, -48.878
7.39957, 104, 39.6392, 32.4095, 11.8192, 12.5425, 113.713, -48.8715
7.40752, 104, 39.6415, 32.4204, 11.8209, 12.5447, 113.713, -48.8684
7.41563, 105, 39.6427, 32.4273, 11.8222, 12.5458, 113.714, -48.8671
7.42357, 105, 39.6428, 32.4317, 11.8233, 12.5463, 113.714, -48.8665
7.43154, 105, 39.6419, 32.4347, 11.8242, 12.5465, 113.714, -48.8664
7.43952, 105, 39.6411, 32.4368, 11.8249, 12.5466, 113.714, -48.8665
7.44759, 105, 39.6401, 32.4383, 11.8256, 12.5466, 113.714, -48.8668
7.45553, 105, 39.6389, 32.4396, 11.8262, 12.5467, 113.714, -48.8672
7.46354, 105, 39.6378, 32.4409, 11.8267, 12.5467, 113.714, -48.8675
7.47167, 105, 39.6371, 32.442, 11.8273, 12.5467, 113.714, -48.8677
7.47952, 105, 39.6367, 32.4431, 11.8279, 12.5467, 113.714, -48.868
7.48762, 105, 39.6364, 32.4441, 11.8285, 12.5467, 113.714, -48.8683
7.49654, 105, 39.6362, 32.4451, 11.829, 12.5467, 113.714, -48.8686
7.50352, 105, 39.636, 32.4458, 11.8294, 12.5468, 113.714, -48.8689
7.51159, 105, 39.6357, 32.4464, 11.8297, 12.5467, 113.714, -48.8691
7.52056, 105, 39.6354, 32.4468, 11.83, 12.5467, 113.714, -48.8693
7.52751, 105, 39.6351, 32.447, 11.8302, 12.5467, 113.714, -48.8695
7.53555, 105, 39.6349, 32.4471, 11.8305, 12.5467, 113.714, -48.8697
