hehonglu123/Motion-Primitive-Planning/ILC/recorded_data/realrobot/from_NX/iteration_18/run_3.csv
timestamp, cmd_num, J1, J2, J3, J4, J5, J6
0.000398, -1, 39.6301, 32.4471, 11.8319, 12.5453, 113.712, -48.8723
0.004601, -1, 39.6301, 32.4471, 11.8319, 12.5453, 113.713, -48.8723
0.007888, -1, 39.6301, 32.4471, 11.8319, 12.5453, 113.713, -48.8724
0.029934, -1, 39.6301, 32.4471, 11.8319, 12.5453, 113.713, -48.8723
0.03198, -1, 39.6301, 32.4471, 11.8319, 12.5453, 113.713, -48.8723
0.035113, -1, 39.6301, 32.4471, 11.8319, 12.5453, 113.713, -48.8723
0.039736, -1, 39.6301, 32.4471, 11.8319, 12.5453, 113.713, -48.8723
0.047802, -1, 39.63, 32.4471, 11.8319, 12.5453, 113.713, -48.8723
0.055823, -1, 39.6287, 32.4469, 11.8319, 12.5453, 113.713, -48.8723
0.190646, -1, 38.4253, 31.8343, 12.0659, 12.555, 113.089, -50.4672
0.192762, -1, 38.34, 31.7897, 12.0853, 12.5562, 113.04, -50.5905
0.194031, -1, 38.34, 31.7897, 12.0853, 12.5562, 113.04, -50.5905
0.195322, -1, 38.34, 31.7897, 12.0853, 12.5562, 113.04, -50.5905
0.198137, -1, 38.253, 31.7441, 12.1047, 12.5574, 112.991, -50.7154
0.199431, -1, 38.253, 31.7441, 12.1047, 12.5574, 112.991, -50.7154
0.201511, -1, 38.1645, 31.6979, 12.1243, 12.5586, 112.941, -50.8416
0.204756, -1, 38.0745, 31.651, 12.1438, 12.5599, 112.891, -50.9687
0.206098, -1, 38.0745, 31.651, 12.1438, 12.5599, 112.891, -50.9687
0.207415, -1, 38.0745, 31.651, 12.1438, 12.5599, 112.891, -50.9687
0.210188, -1, 37.9834, 31.6035, 12.1633, 12.5611, 112.84, -51.0966
0.211686, -1, 37.9834, 31.6035, 12.1633, 12.5611, 112.84, -51.0966
0.213804, -1, 37.891, 31.5556, 12.1827, 12.5624, 112.789, -51.2253
0.215005, -1, 37.891, 31.5556, 12.1827, 12.5624, 112.789, -51.2253
0.21709, -1, 37.7976, 31.5073, 12.2021, 12.5635, 112.738, -51.3544
0.221132, -1, 37.7035, 31.4587, 12.2215, 12.5647, 112.687, -51.4837
0.223705, -1, 37.7035, 31.4587, 12.2215, 12.5647, 112.687, -51.4837
0.22578, -1, 37.6086, 31.41, 12.2409, 12.566, 112.636, -51.6134
0.227001, -1, 37.6086, 31.41, 12.2409, 12.566, 112.636, -51.6134
0.229107, -1, 37.5132, 31.3611, 12.2603, 12.5672, 112.585, -51.7432
0.230419, -1, 37.5132, 31.3611, 12.2603, 12.5672, 112.585, -51.7432
0.231798, -1, 37.5132, 31.3611, 12.2603, 12.5672, 112.585, -51.7432
0.240933, -1, 37.2256, 31.2142, 12.3185, 12.5708, 112.431, -52.1325
0.247631, -1, 37.1295, 31.1652, 12.3379, 12.572, 112.379, -52.2623
0.255671, -1, 36.9372, 31.0675, 12.3766, 12.5747, 112.276, -52.5224
0.262641, -1, 36.7451, 30.9697, 12.4154, 12.5773, 112.173, -52.7827
0.271637, -1, 36.5534, 30.872, 12.4543, 12.5798, 112.07, -53.0431
0.279679, -1, 36.3618, 30.7743, 12.4931, 12.5824, 111.967, -53.3034
0.287741, -1, 36.1702, 30.6765, 12.5319, 12.585, 111.865, -53.5637
0.29563, -1, 35.9787, 30.5785, 12.5708, 12.5876, 111.762, -53.8243
0.303685, -1, 35.7872, 30.4805, 12.6098, 12.5902, 111.659, -54.0849
0.311624, -1, 35.5954, 30.3825, 12.6487, 12.5927, 111.556, -54.3451
0.319637, -1, 35.4033, 30.2843, 12.6874, 12.5953, 111.453, -54.6054
0.32863, -1, 35.211, 30.186, 12.7262, 12.5979, 111.349, -54.8661
0.335619, -1, 35.0185, 30.0877, 12.7652, 12.6004, 111.247, -55.1269
0.34363, -1, 34.8263, 29.9892, 12.8041, 12.6031, 111.143, -55.3875
0.351725, -1, 34.634, 29.8906, 12.8429, 12.6056, 111.04, -55.6483
0.359707, -1, 34.4418, 29.7922, 12.8819, 12.6082, 110.937, -55.909
0.367642, -1, 34.2497, 29.6938, 12.9208, 12.6108, 110.834, -56.17
0.375618, -1, 34.0578, 29.5955, 12.9596, 12.6134, 110.731, -56.4308
0.383612, -1, 33.866, 29.4973, 12.9986, 12.6161, 110.628, -56.6915
0.391699, -1, 33.6743, 29.3989, 13.0374, 12.6187, 110.525, -56.9524
0.39962, -1, 33.4823, 29.3005, 13.0763, 12.6213, 110.422, -57.2136
0.40765, -1, 33.2899, 29.2021, 13.1154, 12.624, 110.319, -57.4747
0.415757, -1, 33.0972, 29.1034, 13.1542, 12.6266, 110.216, -57.7356
0.423617, -1, 32.9043, 29.0049, 13.193, 12.6292, 110.113, -57.9967
0.431615, -1, 32.7111, 28.9063, 13.232, 12.6318, 110.01, -58.2578
0.439697, -1, 32.5177, 28.8076, 13.2708, 12.6346, 109.907, -58.5193
0.447627, -1, 32.324, 28.7089, 13.3097, 12.6372, 109.804, -58.7802
0.455613, -1, 32.1298, 28.6102, 13.3486, 12.6399, 109.701, -59.0412
0.463695, -1, 31.9358, 28.5115, 13.3875, 12.6427, 109.597, -59.3024
0.47162, -1, 31.7421, 28.4127, 13.4264, 12.6453, 109.494, -59.564
0.479616, -1, 31.5485, 28.3139, 13.4655, 12.6482, 109.391, -59.8252
0.487754, -1, 31.3552, 28.2153, 13.5044, 12.6509, 109.288, -60.0864
0.49562, -1, 31.1625, 28.1168, 13.5434, 12.6537, 109.185, -60.3478
0.503736, -1, 30.9701, 28.0183, 13.5825, 12.6565, 109.082, -60.6093
0.512488, -1, 30.7779, 27.9198, 13.6215, 12.6593, 108.979, -60.8706
0.645606, -1, 27.5899, 26.2897, 14.2646, 12.702, 107.275, -65.1876
0.646804, -1, 27.5899, 26.2897, 14.2646, 12.702, 107.275, -65.1876
0.649505, -1, 27.4938, 26.2403, 14.284, 12.7033, 107.223, -65.3184
0.6507, -1, 27.4938, 26.2403, 14.284, 12.7033, 107.223, -65.3184
0.652775, -1, 27.3978, 26.1908, 14.3035, 12.7045, 107.171, -65.4492
0.654083, -1, 27.3978, 26.1908, 14.3035, 12.7045, 107.171, -65.4492
0.655922, -1, 27.3978, 26.1908, 14.3035, 12.7045, 107.12, -65.5799
0.658718, -1, 27.3018, 26.1413, 14.3231, 12.7057, 107.12, -65.5799
0.660861, -1, 27.2057, 26.0918, 14.3426, 12.7068, 107.068, -65.7108
0.662104, -1, 27.2057, 26.0918, 14.3426, 12.7068, 107.068, -65.7108
0.663939, -1, 27.2057, 26.0918, 14.3426, 12.7068, 107.068, -65.7108
0.665369, -1, 27.1095, 26.0423, 14.362, 12.7079, 107.016, -65.8416
0.666639, -1, 27.1095, 26.0423, 14.362, 12.7079, 107.016, -65.8416
0.668604, -1, 27.0133, 25.9929, 14.3814, 12.7091, 106.964, -65.9724
0.669905, -1, 27.0133, 25.9929, 14.3814, 12.7091, 106.964, -65.9724
0.671337, -1, 27.0133, 25.9929, 14.3814, 12.7091, 106.964, -65.9724
0.674209, -1, 26.917, 25.9435, 14.4009, 12.7103, 106.913, -66.1034
0.676219, -1, 26.917, 25.8941, 14.4204, 12.7114, 106.861, -66.2345
0.677676, -1, 26.8206, 25.8941, 14.4204, 12.7114, 106.861, -66.2345
0.678982, -1, 26.8206, 25.8941, 14.4204, 12.7114, 106.861, -66.2345
0.680985, -1, 26.7241, 25.8446, 14.44, 12.7126, 106.81, -66.3652
0.688317, -1, 26.6275, 25.7457, 14.4788, 12.7148, 106.706, -66.6269
0.697112, -1, 26.434, 25.6964, 14.4982, 12.716, 106.603, -66.8886
0.702685, -1, 26.2402, 25.5975, 14.5372, 12.7182, 106.552, -67.0194
0.71266, -1, 25.949, 25.4492, 14.5957, 12.7216, 106.397, -67.4124
0.719613, -1, 25.8518, 25.3998, 14.6151, 12.7228, 106.345, -67.5432
0.72766, -1, 25.6576, 25.301, 14.6542, 12.7251, 106.242, -67.8047
0.734619, -1, 25.4636, 25.2023, 14.6932, 12.7274, 106.139, -68.0662
0.743644, -1, 25.2698, 25.1035, 14.7321, 12.7297, 106.036, -68.3281
0.750731, -1, 25.0764, 25.0048, 14.7712, 12.732, 105.932, -68.5899
0.759622, -1, 24.8832, 24.9059, 14.8102, 12.7343, 105.829, -68.8515
0.767607, -1, 24.6902, 24.8071, 14.8491, 12.7367, 105.726, -69.1132
0.774628, -1, 24.4977, 24.7082, 14.8881, 12.7392, 105.623, -69.375
0.783608, -1, 24.3053, 24.6092, 14.9271, 12.7415, 105.519, -69.6368
0.791613, -1, 24.1128, 24.5104, 14.9661, 12.7438, 105.416, -69.8983
0.799715, -1, 23.92, 24.4116, 15.0051, 12.7462, 105.313, -70.1597
0.807604, -1, 23.7271, 24.3127, 15.044, 12.7487, 105.209, -70.4215
0.815612, -1, 23.534, 24.2139, 15.0829, 12.751, 105.106, -70.6833
0.826496, -1, 23.2437, 24.0656, 15.1413, 12.7547, 104.951, -71.0758
0.831609, -1, 23.1468, 24.0161, 15.1607, 12.7559, 104.899, -71.2066
0.840605, -1, 22.9529, 23.9172, 15.1996, 12.7583, 104.796, -71.4684
0.846613, -1, 22.7589, 23.8184, 15.2386, 12.7608, 104.692, -71.7304
0.855604, -1, 22.565, 23.7196, 15.2776, 12.7633, 104.589, -71.9919
0.863683, -1, 22.3714, 23.621, 15.3166, 12.7657, 104.486, -72.2533
0.871606, -1, 22.1782, 23.5223, 15.3555, 12.7683, 104.382, -72.5147
0.879623, -1, 21.985, 23.4235, 15.3944, 12.7708, 104.279, -72.7762
0.887673, -1, 21.7922, 23.3248, 15.4335, 12.7734, 104.176, -73.0379
0.895616, -1, 21.5999, 23.226, 15.4724, 12.7761, 104.072, -73.2991
0.903608, -1, 21.4077, 23.1273, 15.5113, 12.7788, 103.969, -73.5606
0.911698, -1, 21.2154, 23.0286, 15.5503, 12.7814, 103.866, -73.8222
0.919608, -1, 21.023, 22.93, 15.5892, 12.7841, 103.763, -74.0837
0.927605, -1, 20.8305, 22.8313, 15.6281, 12.7868, 103.66, -74.3449
0.935683, -1, 20.638, 22.7328, 15.6671, 12.7896, 103.557, -74.606
0.943605, -1, 20.4452, 22.6342, 15.7059, 12.7923, 103.454, -74.8673
0.951622, -1, 20.2518, 22.5355, 15.7448, 12.795, 103.351, -75.1288
0.95968, -1, 20.058, 22.4367, 15.7838, 12.7977, 103.248, -75.3897
0.967712, -1, 19.8645, 22.338, 15.8225, 12.8005, 103.145, -75.651
0.975629, -1, 19.6709, 22.2394, 15.8613, 12.8031, 103.042, -75.9121
0.983669, -1, 19.4773, 22.1408, 15.9003, 12.8059, 102.939, -76.1734
0.991613, -1, 19.2841, 22.0421, 15.9391, 12.8086, 102.836, -76.4344
0.999735, -1, 19.0911, 21.9434, 15.978, 12.8114, 102.733, -76.6952
1.00761, -1, 18.8985, 21.8448, 16.0169, 12.8142, 102.63, -76.956
1.01565, -1, 18.7062, 21.746, 16.0556, 12.8169, 102.527, -77.217
1.02404, -1, 18.5143, 21.6474, 16.0945, 12.8196, 102.424, -77.4779
1.03177, -1, 18.3225, 21.5488, 16.1334, 12.8222, 102.321, -77.7385
1.0397, -1, 18.1306, 21.4503, 16.1722, 12.8248, 102.218, -77.9994
1.04811, -1, 17.9387, 21.3519, 16.211, 12.8273, 102.115, -78.2602
1.05522, -1, 17.8428, 21.2536, 16.25, 12.8299, 102.012, -78.5211
1.06373, -1, 17.5547, 21.1552, 16.2887, 12.8324, 101.909, -78.7815
1.07233, -1, 17.3621, 21.0569, 16.3276, 12.8348, 101.806, -79.0419
1.07966, -1, 17.169, 20.9586, 16.3664, 12.8372, 101.703, -79.3025
1.08764, -1, 16.976, 20.8604, 16.4051, 12.8397, 101.601, -79.5632
1.09654, -1, 16.783, 20.7622, 16.444, 12.8419, 101.498, -79.8236
1.10375, -1, 16.5899, 20.664, 16.4827, 12.8442, 101.395, -80.0842
1.11178, -1, 16.3969, 20.5657, 16.5214, 12.8466, 101.293, -80.3447
1.1207, -1, 16.2043, 20.4674, 16.5601, 12.8489, 101.19, -80.6053
1.12801, -1, 16.0122, 20.369, 16.5989, 12.8513, 101.087, -80.8657
1.13461, -1, 15.9162, 20.3198, 16.6182, 12.8524, 101.036, -80.9957
1.14489, -1, 15.6288, 20.172, 16.6762, 12.8559, 100.882, -81.3858
1.15213, -1, 15.4376, 20.0737, 16.7148, 12.8583, 100.779, -81.646
1.16018, -1, 15.2463, 19.9754, 16.7536, 12.8606, 100.677, -81.9061
1.16896, -1, 15.0552, 19.8771, 16.7924, 12.8629, 100.574, -82.1658
1.17622, -1, 14.864, 19.779, 16.831, 12.8651, 100.472, -82.4257
1.18424, -1, 14.6725, 19.6808, 16.8697, 12.8674, 100.369, -82.6857
1.19311, -1, 14.5768, 19.5827, 16.9084, 12.8697, 100.266, -82.9456
1.19867, -1, 14.385, 19.5337, 16.9277, 12.8708, 100.215, -83.0754
1.20765, -1, 14.1928, 19.4357, 16.9664, 12.8731, 100.113, -83.3349
1.21561, -1, 14.0005, 19.3377, 17.0051, 12.8753, 100.01, -83.5945
1.22266, -1, 13.8081, 19.2399, 17.0437, 12.8777, 99.9075, -83.8541
1.23165, -1, 13.6156, 19.1421, 17.0824, 12.88, 99.805, -84.1137
1.23959, -1, 13.4232, 19.0443, 17.1211, 12.8823, 99.7024, -84.3729
1.2466, -1, 13.2312, 18.9463, 17.1596, 12.8846, 99.6003, -84.6322
1.25561, -1, 13.0397, 18.8484, 17.1982, 12.887, 99.4979, -84.8916
1.2636, -1, 12.8484, 18.7504, 17.2368, 12.8893, 99.3953, -85.151
1.27167, -1, 12.6573, 18.6524, 17.2754, 12.8917, 99.2932, -85.41
1.27959, -1, 12.4667, 18.5546, 17.3139, 12.8942, 99.1909, -85.6688
1.2876, -1, 12.2765, 18.4568, 17.3524, 12.8966, 99.0886, -85.9277
1.29567, -1, 12.0863, 18.3591, 17.3909, 12.899, 98.9866, -86.1868
1.3036, -1, 11.896, 18.2615, 17.4296, 12.9014, 98.8844, -86.4456
1.31204, -1, 11.7055, 18.1638, 17.4682, 12.9038, 98.7825, -86.704
1.3196, -1, 11.5146, 18.0662, 17.5066, 12.9063, 98.6807, -86.9626
1.3286, -1, 11.3237, 17.9686, 17.5452, 12.9087, 98.5788, -87.2213
1.33638, -1, 11.1324, 17.8711, 17.5838, 12.9111, 98.4768, -87.4799
1.34359, -1, 10.9409, 17.7736, 17.6223, 12.9136, 98.375, -87.738
1.35162, -1, 10.7493, 17.6762, 17.6607, 12.916, 98.2729, -87.9962
1.3604, -1, 10.5578, 17.5787, 17.6991, 12.9186, 98.171, -88.2546
1.3666, -1, 10.3665, 17.4812, 17.7376, 12.9212, 98.0692, -88.5129
1.3756, -1, 10.1754, 17.3837, 17.776, 12.9237, 97.9674, -88.7709
1.38438, -1, 9.98485, 17.2861, 17.8144, 12.9264, 97.8656, -89.0289
1.39171, -1, 9.79452, 17.1885, 17.8527, 12.9289, 97.7636, -89.287
1.3996, -1, 9.60455, 17.091, 17.891, 12.9316, 97.6617, -89.5452
1.40838, -1, 9.41513, 16.9936, 17.9293, 12.9344, 97.5599, -89.8028
1.4156, -1, 9.22581, 16.8962, 17.9676, 12.9371, 97.4579, -90.0604
1.42359, -1, 9.0365, 16.799, 18.006, 12.9397, 97.356, -90.3179
1.43238, -1, 8.84701, 16.7018, 18.0443, 12.9424, 97.2544, -90.5756
1.43958, -1, 8.65738, 16.6047, 18.0827, 12.945, 97.1526, -90.8331
1.4476, -1, 8.46775, 16.5076, 18.121, 12.9476, 97.0511, -91.0902
1.45639, -1, 8.27773, 16.4105, 18.1593, 12.9503, 96.9497, -91.3473
1.46359, -1, 8.08733, 16.3136, 18.1976, 12.9529, 96.848, -91.6045
1.47161, -1, 7.89688, 16.2168, 18.2359, 12.9556, 96.7465, -91.8617
1.48042, -1, 7.70638, 16.1199, 18.2741, 12.9582, 96.6452, -92.1184
1.48759, -1, 7.51589, 16.0229, 18.3124, 12.9608, 96.5436, -92.3751
1.4958, -1, 7.32561, 15.926, 18.3507, 12.9634, 96.4423, -92.6319
1.50451, -1, 7.13565, 15.829, 18.3888, 12.966, 96.3411, -92.8889
1.51162, -1, 6.94597, 15.732, 18.4271, 12.9686, 96.2397, -93.1453
1.51991, -1, 6.75671, 15.6351, 18.4653, 12.971, 96.1388, -93.4017
1.52847, -1, 6.56802, 15.5383, 18.5033, 12.9736, 96.0379, -93.6581
1.53576, -1, 6.37965, 15.4415, 18.5415, 12.9761, 95.9367, -93.9146
1.54416, -1, 6.1915, 15.3448, 18.5797, 12.9787, 95.8358, -94.1708
1.55115, -1, 6.00336, 15.2481, 18.6178, 12.9811, 95.7349, -94.4266
1.55922, -1, 5.81495, 15.1514, 18.656, 12.9834, 95.6339, -94.6825
1.56822, -1, 5.62654, 15.0547, 18.6941, 12.9858, 95.533, -94.9385
1.57649, -1, 5.43793, 14.9582, 18.7321, 12.9881, 95.4324, -95.1943
1.58362, -1, 5.24896, 14.8617, 18.7703, 12.9904, 95.3315, -95.4499
1.59255, -1, 5.05966, 14.7653, 18.8084, 12.9926, 95.231, -95.7053
1.60058, -1, 4.87031, 14.669, 18.8464, 12.9949, 95.1303, -95.9607
1.60771, -1, 4.68097, 14.5726, 18.8845, 12.9971, 95.0294, -96.2163
1.61663, -1, 4.49163, 14.4762, 18.9226, 12.9993, 94.9288, -96.4713
1.62513, -1, 4.30257, 14.3799, 18.9606, 13.0015, 94.8279, -96.7263
1.63074, -1, 4.20812, 14.3317, 18.9796, 13.0026, 94.7775, -96.8538
1.64108, -1, 3.92536, 14.1871, 19.0365, 13.0061, 94.6264, -97.2363
1.64664, -1, 3.83138, 14.139, 19.0555, 13.0071, 94.5759, -97.3639
1.65616, -1, 3.55028, 13.9948, 19.1125, 13.0106, 94.4248, -97.7458
1.66412, -1, 3.36328, 13.8987, 19.1503, 13.0129, 94.3243, -98.0005
1.67214, -1, 3.17626, 13.8026, 19.1881, 13.0152, 94.2235, -98.2553
1.67859, -1, 3.08279, 13.7546, 19.2071, 13.0163, 94.1732, -98.3826
1.68841, -1, 2.89582, 13.6586, 19.245, 13.0196, 94.0223, -98.7641
1.69613, -1, 2.70869, 13.5625, 19.2829, 13.0207, 93.9719, -99.0182
1.70259, -1, 2.52133, 13.4666, 19.3208, 13.023, 93.8714, -99.1452
1.7116, -1, 2.3339, 13.3707, 19.3586, 13.0253, 93.7711, -99.3995
1.71958, -1, 2.14606, 13.2749, 19.3964, 13.0276, 93.6708, -99.6534
1.72658, -1, 1.95794, 13.1791, 19.4343, 13.0297, 93.5706, -99.907
1.7356, -1, 1.76985, 13.0833, 19.4721, 13.032, 93.4708, -100.16
1.74358, -1, 1.58158, 12.9874, 19.5098, 13.0343, 93.3706, -100.414
1.75163, -1, 1.39348, 12.8916, 19.5477, 13.0365, 93.2706, -100.668
1.75969, -1, 1.20569, 12.7957, 19.5854, 13.0388, 93.1707, -100.921
1.76757, -1, 1.01826, 12.7, 19.6231, 13.0412, 93.0706, -101.174
1.77564, -1, 0.831528, 12.6044, 19.6609, 13.0436, 92.9706, -101.427
1.78358, -1, 0.645251, 12.5088, 19.6985, 13.046, 92.871, -101.68
1.79159, -1, 0.459352, 12.4133, 19.736, 13.0485, 92.7711, -101.933
1.79964, -1, 0.273684, 12.3179, 19.7738, 13.0509, 92.6714, -102.186
1.80758, -1, 0.0882075, 12.2225, 19.8113, 13.0534, 92.5722, -102.439
1.8156, -1, -0.0972272, 12.1272, 19.8489, 13.0558, 92.4725, -102.691
1.82458, -1, -0.282884, 12.0319, 19.8866, 13.0582, 92.3729, -102.944
1.8316, -1, -0.468766, 11.9368, 19.9242, 13.0607, 92.2737, -103.196
1.84058, -1, -0.655012, 11.8417, 19.9617, 13.0632, 92.174, -103.448
1.84764, -1, -0.841454, 11.7468, 19.9993, 13.0657, 92.0746, -103.7
1.85558, -1, -1.0281, 11.6517, 20.0367, 13.0682, 91.9754, -103.952
1.86358, -1, -1.21498, 11.5566, 20.0742, 13.0707, 91.8759, -104.204
1.87168, -1, -1.40195, 11.4616, 20.1118, 13.0732, 91.7766, -104.455
1.87959, -1, -1.58866, 11.3664, 20.1492, 13.0758, 91.6777, -104.707
1.88764, -1, -1.77504, 11.2713, 20.1866, 13.0783, 91.5783, -104.958
1.89557, -1, -1.96108, 11.1763, 20.2241, 13.081, 91.4792, -105.21
1.90358, -1, -2.14646, 11.0814, 20.2615, 13.0836, 91.38, -105.461
1.91165, -1, -2.33132, 10.9864, 20.2988, 13.0863, 91.2808, -105.712
1.91958, -1, -2.51605, 10.8916, 20.3362, 13.0889, 91.1817, -105.963
1.9276, -1, -2.70021, 10.7968, 20.3735, 13.0916, 91.0826, -106.214
1.93564, -1, -2.88411, 10.7021, 20.4108, 13.0942, 90.9837, -106.464
1.94357, -1, -3.0681, 10.6073, 20.4482, 13.0968, 90.8847, -106.715
1.95159, -1, -3.25227, 10.5127, 20.4855, 13.0995, 90.7858, -106.966
1.95965, -1, -3.43673, 10.4182, 20.5227, 13.102, 90.6868, -107.216
1.96758, -1, -3.62142, 10.3238, 20.56, 13.1045, 90.588, -107.467
1.9756, -1, -3.80633, 10.2295, 20.5972, 13.1071, 90.4892, -107.717
1.98365, -1, -3.99162, 10.1351, 20.6345, 13.1094, 90.3905, -107.966
1.99158, -1, -4.177, 10.0408, 20.6717, 13.112, 90.2919, -108.217
1.99968, -1, -4.36268, 9.94654, 20.7089, 13.1143, 90.1933, -108.466
2.00769, -1, -4.54812, 9.85216, 20.7461, 13.1167, 90.0947, -108.716
2.01567, -1, -4.73322, 9.75794, 20.7834, 13.1189, 89.9963, -108.965
2.02388, -1, -4.91798, 9.66373, 20.8204, 13.1214, 89.8978, -109.215
2.03172, -1, -5.10213, 9.56971, 20.8575, 13.1238, 89.7993, -109.464
2.0398, -1, -5.28563, 9.47561, 20.8947, 13.1261, 89.701, -109.714
2.04797, -1, -5.46877, 9.38167, 20.9317, 13.1284, 89.6026, -109.962
2.05568, -1, -5.65145, 9.28773, 20.9688, 13.1307, 89.5042, -110.211
2.06382, -1, -5.83386, 9.19379, 21.0059, 13.1331, 89.4062, -110.46
2.07221, -1, -6.0162, 9.09992, 21.0428, 13.1353, 89.308, -110.709
2.07961, -1, -6.19873, 9.00608, 21.0798, 13.1375, 89.2098, -110.957
2.08768, -1, -6.38156, 8.91237, 21.1169, 13.1398, 89.1121, -111.206
2.09641, -1, -6.56463, 8.81875, 21.1537, 13.1419, 89.0141, -111.454
2.10373, -1, -6.74795, 8.7251, 21.1906, 13.144, 88.9161, -111.702
2.11182, -1, -6.93172, 8.63152, 21.2275, 13.1462, 88.8183, -111.95
2.12063, -1, -7.11572, 8.53794, 21.2644, 13.1483, 88.7203, -112.198
2.12785, -1, -7.30001, 8.44437, 21.3013, 13.1504, 88.6225, -112.445
2.13602, -1, -7.48399, 8.35074, 21.3382, 13.1526, 88.525, -112.693
2.14258, -1, -7.57586, 8.30395, 21.3566, 13.1537, 88.4762, -112.817
2.15203, -1, -7.851, 8.16377, 21.4117, 13.1569, 88.3297, -113.188
2.15858, -1, -7.9425, 8.11709, 21.4302, 13.1581, 88.2811, -113.311
2.16895, -1, -8.21608, 7.97708, 21.4854, 13.1615, 88.1351, -113.682
2.17613, -1, -8.3977, 7.8838, 21.5221, 13.1637, 88.0377, -113.929
2.18422, -1, -8.57889, 7.79056, 21.559, 13.1659, 87.9404, -114.176
2.19299, -1, -8.66936, 7.74397, 21.5774, 13.167, 87.8429, -114.422
2.20011, -1, -8.85005, 7.65076, 21.6141, 13.1693, 87.7942, -114.545
2.20831, -1, -9.03079, 7.55766, 21.6509, 13.1727, 87.6483, -114.915
2.21556, -1, -9.21181, 7.46466, 21.6876, 13.1738, 87.5997, -115.038
2.22356, -1, -9.39306, 7.37184, 21.7242, 13.176, 87.5025, -115.285
2.23158, -1, -9.57475, 7.27903, 21.7609, 13.1782, 87.4053, -115.531
2.23957, -1, -9.75671, 7.18622, 21.7976, 13.1805, 87.3083, -115.777
2.2476, -1, -9.93901, 7.09352, 21.8341, 13.1827, 87.211, -116.023
2.25557, -1, -10.1215, 7.00081, 21.8707, 13.1849, 87.1138, -116.269
2.26357, -1, -10.3042, 6.90804, 21.9073, 13.1871, 87.0168, -116.515
2.27163, -1, -10.4869, 6.81528, 21.9439, 13.1893, 86.9196, -116.76
2.27957, -1, -10.6692, 6.72257, 21.9805, 13.1916, 86.8225, -117.006
2.28756, -1, -10.851, 6.62999, 22.0169, 13.194, 86.7257, -117.251
2.29564, -1, -11.0322, 6.53736, 22.0533, 13.1964, 86.6288, -117.496
2.30357, -1, -11.2126, 6.44485, 22.0899, 13.1988, 86.5322, -117.741
2.31157, -1, -11.3925, 6.35236, 22.1264, 13.2013, 86.4356, -117.986
2.31965, -1, -11.5721, 6.25988, 22.1628, 13.2036, 86.3388, -118.231
2.32757, -1, -11.7514, 6.16744, 22.1993, 13.2061, 86.2422, -118.476
2.33656, -1, -11.9306, 6.07514, 22.2358, 13.2085, 86.1457, -118.72
2.34363, -1, -12.1099, 5.98289, 22.2722, 13.211, 86.049, -118.964
2.35159, -1, -12.2893, 5.8908, 22.3087, 13.2135, 85.9526, -119.208
2.35957, -1, -12.4691, 5.79881, 22.3451, 13.216, 85.8564, -119.453
2.36762, -1, -12.6494, 5.70679, 22.3813, 13.2185, 85.7599, -119.697
2.37565, -1, -12.8301, 5.61483, 22.4177, 13.2209, 85.6638, -119.94
2.38356, -1, -13.0111, 5.52295, 22.454, 13.2234, 85.568, -120.184
2.39158, -1, -13.1924, 5.43095, 22.4902, 13.2258, 85.472, -120.428
2.40055, -1, -13.3736, 5.33894, 22.5265, 13.2282, 85.376, -120.671
2.40756, -1, -13.5545, 5.24702, 22.5628, 13.2307, 85.2804, -120.915
2.41556, -1, -13.7349, 5.15515, 22.5989, 13.2333, 85.1844, -121.158
2.42435, -1, -13.9149, 5.06327, 22.6351, 13.2359, 85.0886, -121.401
2.43157, -1, -14.094, 4.97151, 22.6713, 13.2385, 84.9933, -121.644
2.43956, -1, -14.2724, 4.8798, 22.7074, 13.2411, 84.8975, -121.887
2.44848, -1, -14.4506, 4.78814, 22.7435, 13.2436, 84.802, -122.129
2.45556, -1, -14.6283, 4.69649, 22.7798, 13.2461, 84.7065, -122.372
2.46356, -1, -14.806, 4.60496, 22.8159, 13.2486, 84.6107, -122.614
2.47235, -1, -14.9836, 4.51348, 22.8519, 13.2511, 84.5149, -122.857
2.47956, -1, -15.1614, 4.42215, 22.8882, 13.2535, 84.4195, -123.099
2.48758, -1, -15.3396, 4.33085, 22.9242, 13.2559, 84.3237, -123.34
2.49636, -1, -15.5183, 4.23953, 22.9602, 13.2583, 84.228, -123.582
2.50356, -1, -15.6973, 4.14828, 22.9963, 13.2606, 84.1326, -123.824
2.51161, -1, -15.8765, 4.05708, 23.0322, 13.2629, 84.0371, -124.066
2.52048, -1, -16.0558, 3.96583, 23.0682, 13.2651, 83.9416, -124.307
2.52762, -1, -16.2357, 3.87451, 23.1043, 13.2672, 83.8464, -124.549
2.53565, -1, -16.4153, 3.78329, 23.1402, 13.2694, 83.7507, -124.79
2.54537, -1, -16.5945, 3.69212, 23.1759, 13.2715, 83.6553, -125.031
2.55167, -1, -16.7732, 3.60098, 23.2118, 13.2738, 83.5601, -125.273
2.55974, -1, -16.9512, 3.50996, 23.2476, 13.2761, 83.4645, -125.513
2.56807, -1, -17.1284, 3.41893, 23.2834, 13.2783, 83.3692, -125.754
2.57557, -1, -17.3051, 3.32804, 23.3194, 13.2805, 83.2742, -125.995
2.58364, -1, -17.4816, 3.23719, 23.3551, 13.2826, 83.179, -126.235
2.5931, -1, -17.6577, 3.14644, 23.3909, 13.2848, 83.0842, -126.476
2.5986, -1, -17.7457, 3.10114, 23.4088, 13.2859, 83.0368, -126.596
2.60797, -1, -18.0098, 2.96526, 23.4626, 13.289, 82.8945, -126.956
2.61727, -1, -18.1862, 2.87487, 23.4983, 13.2912, 82.7997, -127.196
2.62376, -1, -18.3629, 2.78447, 23.5341, 13.2933, 82.7052, -127.436
2.63191, -1, -18.5401, 2.69406, 23.5698, 13.2953, 82.6104, -127.676
2.64153, -1, -18.7176, 2.60371, 23.6055, 13.2973, 82.5158, -127.915
2.64798, -1, -18.8955, 2.51331, 23.6412, 13.2994, 82.4214, -128.155
2.65637, -1, -19.0737, 2.42281, 23.6769, 13.3013, 82.3269, -128.394
2.66559, -1, -19.252, 2.33239, 23.7124, 13.3033, 82.2325, -128.634
2.67213, -1, -19.43, 2.24198, 23.7481, 13.3054, 82.1385, -128.873
2.68011, -1, -19.6073, 2.15161, 23.7837, 13.3076, 82.0444, -129.112
2.68967, -1, -19.6958, 2.06127, 23.819, 13.3097, 81.9501, -129.351
2.69616, -1, -19.8724, 2.01614, 23.8546, 13.3119, 81.856, -129.59
2.70441, -1, -20.0481, 1.92589, 23.8724, 13.313, 81.762, -129.829
2.71298, -1, -20.2233, 1.83564, 23.9079, 13.3152, 81.7148, -129.948
2.7196, -1, -20.3982, 1.74555, 23.9433, 13.3174, 81.6208, -130.186
2.72755, -1, -20.5728, 1.6555, 23.9789, 13.3196, 81.5271, -130.424
2.73555, -1, -20.7472, 1.56553, 24.0144, 13.3217, 81.4331, -130.663
2.7436, -1, -20.9218, 1.47564, 24.0497, 13.3239, 81.3394, -130.901
2.75156, -1, -21.0968, 1.38589, 24.0853, 13.3261, 81.2457, -131.139
2.75956, -1, -21.2722, 1.29613, 24.1207, 13.3283, 81.1518, -131.376
2.76762, -1, -21.4479, 1.20642, 24.1561, 13.3305, 81.0579, -131.614
2.77555, -1, -21.6239, 1.11681, 24.1914, 13.3327, 80.9642, -131.852
2.78355, -1, -21.8001, 1.02717, 24.2269, 13.3349, 80.8704, -132.089
2.79312, -1, -22.0648, 0.892746, 24.2799, 13.3381, 80.7296, -132.445
2.79955, -1, -22.1531, 0.847973, 24.2976, 13.3392, 80.6829, -132.564
2.80762, -1, -22.3296, 0.758417, 24.333, 13.3413, 80.5893, -132.801
2.81555, -1, -22.5057, 0.668921, 24.3681, 13.3436, 80.4957, -133.038
2.82356, -1, -22.6812, 0.579429, 24.4033, 13.346, 80.4021, -133.275
2.83164, -1, -22.8563, 0.490002, 24.4386, 13.3484, 80.3085, -133.512
2.8406, -1, -23.0303, 0.400591, 24.4737, 13.3508, 80.215, -133.748
2.84755, -1, -23.2038, 0.311285, 24.5088, 13.3533, 80.1215, -133.985
2.85562, -1, -23.3771, 0.221937, 24.544, 13.3556, 80.028, -134.222
2.86355, -1, -23.5502, 0.132744, 24.5792, 13.3581, 79.9346, -134.458
2.87156, -1, -23.7235, 0.0435982, 24.6144, 13.3605, 79.8412, -134.694
2.8797, -1, -23.8969, -0.0454857, 24.6496, 13.3629, 79.7483, -134.93
2.88755, -1, -24.0704, -0.13444, 24.6847, 13.3654, 79.655, -135.166
2.89555, -1, -24.2442, -0.223435, 24.7197, 13.3678, 79.562, -135.402
2.90362, -1, -24.4184, -0.312363, 24.7549, 13.3702, 79.4691, -135.637
2.91156, -1, -24.5928, -0.401206, 24.79, 13.3727, 79.376, -135.873
2.91954, -1, -24.7675, -0.490121, 24.825, 13.3751, 79.2829, -136.109
2.92763, -1, -24.9426, -0.578996, 24.8601, 13.3774, 79.1901, -136.344
2.93554, -1, -25.1177, -0.667831, 24.8952, 13.3798, 79.0969, -136.579
2.94355, -1, -25.2924, -0.756589, 24.9302, 13.3822, 79.004, -136.814
2.95162, -1, -25.4667, -0.845389, 24.9652, 13.3846, 78.9115, -137.049
2.95955, -1, -25.6406, -0.934187, 25.0002, 13.3871, 78.8186, -137.284
2.96756, -1, -25.8138, -1.02288, 25.035, 13.3895, 78.726, -137.519
2.97563, -1, -25.9864, -1.11158, 25.07, 13.392, 78.6337, -137.753
2.98355, -1, -26.1587, -1.20024, 25.105, 13.3944, 78.541, -137.988
2.99156, -1, -26.3305, -1.2888, 25.1398, 13.3968, 78.4485, -138.222
2.99963, -1, -26.5023, -1.37727, 25.1747, 13.3991, 78.356, -138.457
3.00756, -1, -26.6742, -1.46566, 25.2097, 13.4014, 78.2635, -138.691
3.01565, -1, -26.8463, -1.55394, 25.2446, 13.4036, 78.1711, -138.925
3.02371, -1, -27.0188, -1.64211, 25.2794, 13.4058, 78.0787, -139.159
3.03162, -1, -27.1913, -1.73034, 25.3143, 13.408, 77.9867, -139.393
3.0397, -1, -27.364, -1.81855, 25.3492, 13.4102, 77.8945, -139.627
3.04796, -1, -27.5371, -1.90659, 25.3839, 13.4124, 77.8025, -139.861
3.05565, -1, -27.7102, -1.99477, 25.4187, 13.4145, 77.7106, -140.094
3.06372, -1, -27.8835, -2.0829, 25.4536, 13.4166, 77.6185, -140.327
3.0721, -1, -28.0568, -2.1709, 25.4883, 13.4186, 77.5264, -140.561
3.07956, -1, -28.23, -2.25891, 25.5231, 13.4206, 77.4346, -140.794
3.08769, -1, -28.4031, -2.34699, 25.5579, 13.4227, 77.3423, -141.027
3.09637, -1, -28.5756, -2.43499, 25.5926, 13.4248, 77.2502, -141.26
3.10362, -1, -28.7477, -2.52293, 25.6272, 13.4269, 77.1584, -141.493
3.11178, -1, -28.919, -2.61095, 25.662, 13.4291, 77.0663, -141.726
3.1206, -1, -29.0898, -2.69886, 25.6966, 13.4313, 76.9744, -141.958
3.12786, -1, -29.2604, -2.7867, 25.7311, 13.4334, 76.8827, -142.191
3.13587, -1, -29.4311, -2.87447, 25.7659, 13.4355, 76.7907, -142.423
3.14472, -1, -29.6018, -2.96211, 25.8005, 13.4375, 76.6989, -142.656
3.15205, -1, -29.7728, -3.04968, 25.8349, 13.4395, 76.6072, -142.888
3.1601, -1, -29.9439, -3.13716, 25.8696, 13.4416, 76.5154, -143.12
3.16805, -1, -30.1148, -3.22464, 25.9041, 13.4437, 76.4236, -143.352
3.17611, -1, -30.2858, -3.31213, 25.9387, 13.4458, 76.3319, -143.584
3.18413, -1, -30.4572, -3.3995, 25.9732, 13.4479, 76.2405, -143.816
3.19216, -1, -30.6289, -3.48703, 26.0077, 13.4499, 76.1489, -144.048
3.20017, -1, -30.7148, -3.53077, 26.025, 13.452, 76.0575, -144.279
3.20814, -1, -30.8866, -3.61812, 26.0594, 13.453, 76.0119, -144.511
3.21561, -1, -31.0585, -3.70551, 26.094, 13.4549, 75.9205, -144.626
3.22355, -1, -31.2301, -3.79281, 26.1285, 13.457, 75.8292, -144.858
3.23158, -1, -31.4014, -3.88014, 26.1628, 13.4591, 75.7379, -145.089
3.23955, -1, -31.5722, -3.96743, 26.1973, 13.4612, 75.6466, -145.32
3.24755, -1, -31.7427, -4.05469, 26.2317, 13.4634, 75.5553, -145.551
3.25559, -1, -31.9127, -4.14196, 26.2661, 13.4656, 75.4641, -145.782
3.26354, -1, -32.0823, -4.22915, 26.3005, 13.4677, 75.3732, -146.013
3.27155, -1, -32.2517, -4.31625, 26.3349, 13.47, 75.282, -146.244
3.27971, -1, -32.4212, -4.40329, 26.3691, 13.4721, 75.1909, -146.475
3.28752, -1, -32.5909, -4.49026, 26.4035, 13.4743, 75.1004, -146.705
3.29556, -1, -32.7606, -4.5772, 26.4379, 13.4764, 75.0093, -146.935
3.3036, -1, -32.9303, -4.6641, 26.4721, 13.4786, 74.9185, -147.166
3.31153, -1, -33.0999, -4.75103, 26.5063, 13.4807, 74.8281, -147.396
3.31955, -1, -33.2698, -4.8379, 26.5406, 13.483, 74.7372, -147.626
3.32762, -1, -33.4398, -4.92476, 26.5749, 13.4852, 74.6467, -147.856
3.33722, -1, -33.6101, -5.01171, 26.609, 13.4874, 74.5562, -148.086
3.34394, -1, -33.7804, -5.09851, 26.6433, 13.4896, 74.4656, -148.316
3.35154, -1, -33.9506, -5.18523, 26.6775, 13.4918, 74.3751, -148.545
3.35954, -1, -34.1208, -5.27197, 26.7116, 13.4941, 74.2846, -148.775
3.36827, -1, -34.291, -5.35867, 26.7458, 13.4964, 74.1941, -149.004
3.37554, -1, -34.4609, -5.4453, 26.7801, 13.4987, 74.1035, -149.233
3.38361, -1, -34.6304, -5.53197, 26.8142, 13.5011, 74.0129, -149.463
3.39165, -1, -34.7994, -5.61862, 26.8483, 13.5034, 73.9225, -149.692
3.39964, -1, -34.9679, -5.70521, 26.8825, 13.5059, 73.8319, -149.921
3.40753, -1, -35.1363, -5.79172, 26.9165, 13.5083, 73.7414, -150.15
3.41671, -1, -35.3046, -5.87818, 26.9506, 13.5107, 73.6513, -150.379
3.42352, -1, -35.4731, -5.96445, 26.9847, 13.5131, 73.5607, -150.608
3.4316, -1, -35.6416, -6.05067, 27.0187, 13.5155, 73.4703, -150.837
3.43954, -1, -35.8101, -6.13694, 27.0527, 13.5179, 73.3803, -151.065
3.44753, -1, -35.9786, -6.22307, 27.0868, 13.5202, 73.2898, -151.294
3.45561, -1, -36.1471, -6.30919, 27.1208, 13.5227, 73.1995, -151.522
3.46358, -1, -36.3157, -6.39536, 27.1548, 13.5251, 73.1091, -151.751
3.47154, -1, -36.4845, -6.4816, 27.1887, 13.5275, 73.0187, -151.979
3.47959, -1, -36.6533, -6.56779, 27.2227, 13.5298, 72.9283, -152.207
3.48754, -1, -36.8222, -6.65398, 27.2567, 13.5321, 72.8381, -152.435
3.49556, -1, -36.9912, -6.7401, 27.2906, 13.5343, 72.7482, -152.663
3.5036, -1, -37.1601, -6.8263, 27.3245, 13.5366, 72.6581, -152.892
3.5116, -1, -37.3288, -6.9124, 27.3583, 13.5389, 72.5682, -153.119
3.51953, -1, -37.4971, -6.99843, 27.3922, 13.5411, 72.4785, -153.347
3.52764, -1, -37.6651, -7.08452, 27.4263, 13.5434, 72.3884, -153.574
3.53563, -1, -37.8328, -7.17055, 27.4601, 13.5457, 72.2986, -153.802
3.54362, -1, -38.0004, -7.25649, 27.4939, 13.5479, 72.209, -154.029
3.55176, -1, -38.1679, -7.3424, 27.5278, 13.55, 72.1191, -154.257
3.55995, -1, -38.3352, -7.42819, 27.5617, 13.5523, 72.0294, -154.484
3.56763, -1, -38.5024, -7.5139, 27.5955, 13.5544, 71.9399, -154.711
3.57571, -1, -38.6696, -7.5996, 27.6294, 13.5564, 71.8502, -154.938
3.58353, -1, -38.8369, -7.68527, 27.6632, 13.5585, 71.7606, -155.166
3.59157, -1, -39.0042, -7.77095, 27.6969, 13.5606, 71.6713, -155.393
3.59963, -1, -39.1717, -7.85656, 27.7307, 13.5626, 71.5821, -155.619
3.60756, -1, -39.3392, -7.94226, 27.7646, 13.5645, 71.4927, -155.846
3.61566, -1, -39.5067, -8.02789, 27.7983, 13.5666, 71.4032, -156.073
3.62404, -1, -39.6744, -8.11341, 27.8319, 13.5685, 71.3142, -156.299
3.63177, -1, -39.842, -8.1989, 27.8656, 13.5705, 71.2246, -156.526
3.63984, -1, -40.0095, -8.28438, 27.8994, 13.5724, 71.1353, -156.752
3.64805, -1, -40.1771, -8.36976, 27.933, 13.5744, 71.0462, -156.978
3.656, -1, -40.3445, -8.45514, 27.9667, 13.5764, 70.9567, -157.205
3.66404, -1, -40.5116, -8.54056, 28.0004, 13.5783, 70.8675, -157.431
3.67241, -1, -40.6786, -8.62594, 28.034, 13.5803, 70.7783, -157.657
3.68005, -1, -40.8454, -8.71129, 28.0676, 13.5823, 70.6892, -157.883
3.68809, -1, -41.0119, -8.79663, 28.1014, 13.5843, 70.6001, -158.109
3.69623, -1, -41.1782, -8.88191, 28.1349, 13.5864, 70.5109, -158.335
3.70406, -1, -41.2612, -8.92449, 28.1517, 13.5874, 70.4665, -158.56
3.71153, -1, -41.4274, -9.00965, 28.1852, 13.5894, 70.3772, -158.673
3.72043, -1, -41.5936, -9.09478, 28.2189, 13.5913, 70.2433, -159.011
3.72752, -1, -41.76, -9.17985, 28.2524, 13.5933, 70.1989, -159.124
3.73552, -1, -41.9263, -9.26487, 28.286, 13.5953, 70.1098, -159.349
3.74352, -1, -42.0927, -9.34988, 28.3197, 13.5973, 70.0208, -159.575
3.75153, -1, -42.259, -9.43497, 28.3532, 13.5994, 69.9318, -159.8
3.75957, -1, -42.4252, -9.51998, 28.3867, 13.6014, 69.8431, -160.025
3.76753, -1, -42.5915, -9.60492, 28.4202, 13.6034, 69.754, -160.251
3.77552, -1, -42.7579, -9.68988, 28.4538, 13.6054, 69.6651, -160.476
3.78364, -1, -42.9244, -9.77485, 28.4871, 13.6075, 69.5766, -160.701
3.79153, -1, -43.0909, -9.85978, 28.5206, 13.6095, 69.4876, -160.926
3.79953, -1, -43.2571, -9.94475, 28.5542, 13.6116, 69.3989, -161.151
3.80757, -1, -43.4232, -10.0297, 28.5876, 13.6136, 69.3104, -161.375
3.81559, -1, -43.5892, -10.1146, 28.6211, 13.6157, 69.2217, -161.6
3.82352, -1, -43.7551, -10.1996, 28.6546, 13.6178, 69.1332, -161.825
3.8325, -1, -43.9209, -10.2844, 28.688, 13.62, 69.0447, -162.049
3.83952, -1, -44.0864, -10.3692, 28.7214, 13.6222, 68.9563, -162.274
3.84851, -1, -44.2517, -10.4539, 28.7549, 13.6243, 68.8676, -162.498
3.85558, -1, -44.4169, -10.5385, 28.7884, 13.6266, 68.7789, -162.722
3.86352, -1, -44.582, -10.623, 28.8217, 13.6287, 68.6905, -162.947
3.87154, -1, -44.7472, -10.7075, 28.8551, 13.6309, 68.6018, -163.171
3.87958, -1, -44.9126, -10.7919, 28.8887, 13.6331, 68.5133, -163.395
3.88753, -1, -45.078, -10.8764, 28.922, 13.6353, 68.425, -163.619
3.89552, -1, -45.2433, -10.961, 28.9554, 13.6375, 68.3364, -163.843
3.90358, -1, -45.4086, -11.0455, 28.9889, 13.6398, 68.2481, -164.067
3.91152, -1, -45.5738, -11.1299, 29.0221, 13.6421, 68.1599, -164.291
3.91952, -1, -45.7391, -11.2144, 29.0553, 13.6444, 68.0716, -164.515
3.9276, -1, -45.9041, -11.2987, 29.0888, 13.6466, 67.9832, -164.738
3.93552, -1, -46.0671, -11.382, 29.1222, 13.6489, 67.8948, -164.962
3.94351, -1, -46.2265, -11.4631, 29.1557, 13.6513, 67.8072, -165.184
3.95165, -1, -46.3805, -11.5404, 29.1894, 13.6537, 67.7205, -165.403
3.95952, -1, -46.5265, -11.613, 29.2224, 13.656, 67.6369, -165.614
3.96757, -1, -46.6623, -11.6798, 29.2537, 13.6582, 67.5587, -165.813
3.97558, -1, -46.785, -11.7395, 29.2819, 13.6604, 67.4874, -165.993
3.98351, -1, -46.8921, -11.7921, 29.3063, 13.6622, 67.4258, -166.148
3.99152, -1, -46.9827, -11.838, 29.3258, 13.6637, 67.3755, -166.277
3.9996, -1, -47.0575, -11.878, 29.3396, 13.6648, 67.3363, -166.375
4.00752, -1, -47.1172, -11.9113, 29.3487, 13.6654, 67.308, -166.446
4.01552, -1, -47.1626, -11.937, 29.3542, 13.6657, 67.2891, -166.494
4.02359, -1, -47.1957, -11.9557, 29.3569, 13.6658, 67.2774, -166.523
4.03158, -1, -47.2183, -11.9683, 29.3581, 13.6659, 67.2709, -166.54
4.0396, -1, -47.2326, -11.9761, 29.3586, 13.6659, 67.2675, -166.548
4.0479, -1, -47.2406, -11.9803, 29.3589, 13.666, 67.2659, -166.552
4.05561, 2, -47.2443, -11.9823, 29.3591, 13.6661, 67.2651, -166.554
4.06362, 2, -47.245, -11.9831, 29.3592, 13.6661, 67.2648, -166.555
4.07169, 2, -47.2448, -11.9834, 29.3593, 13.6661, 67.2646, -166.555
4.07957, 2, -47.2446, -11.9835, 29.3593, 13.6661, 67.2645, -166.555
4.08753, 2, -47.2447, -11.9835, 29.3594, 13.6661, 67.2645, -166.555
4.09562, 2, -47.2454, -11.9837, 29.3594, 13.6661, 67.2645, -166.555
4.10355, 2, -47.2464, -11.9841, 29.3594, 13.6661, 67.2644, -166.556
4.11161, 2, -47.2481, -11.9848, 29.3594, 13.6661, 67.2644, -166.556
4.11979, 2, -47.2498, -11.9856, 29.3594, 13.6661, 67.2644, -166.556
4.12773, 2, -47.2513, -11.9865, 29.3594, 13.6661, 67.2644, -166.555
4.13602, 2, -47.2525, -11.9873, 29.3594, 13.6661, 67.2644, -166.555
4.14391, 2, -47.2531, -11.9878, 29.3594, 13.6661, 67.2644, -166.555
4.15191, 2, -47.2534, -11.9881, 29.3594, 13.6661, 67.2644, -166.555
4.16034, 2, -47.2536, -11.9882, 29.3594, 13.6661, 67.2644, -166.555
4.16811, 2, -47.2535, -11.9882, 29.3594, 13.6661, 67.2645, -166.555
4.17607, 2, -47.253, -11.9882, 29.3595, 13.6661, 67.2645, -166.555
4.18427, 2, -47.2525, -11.9881, 29.3595, 13.6662, 67.2645, -166.555
4.19214, 2, -47.2521, -11.9881, 29.3595, 13.6661, 67.2645, -166.555
4.20013, 2, -47.2519, -11.9881, 29.3595, 13.6661, 67.2645, -166.555
4.20828, 2, -47.2517, -11.9881, 29.3595, 13.6661, 67.2645, -166.555
4.21607, 2, -47.2518, -11.9882, 29.3595, 13.6661, 67.2645, -166.555
4.22351, 2, -47.2519, -11.9884, 29.3595, 13.6661, 67.2645, -166.555
4.23229, 2, -47.2521, -11.9887, 29.3595, 13.6662, 67.2645, -166.555
4.23955, 2, -47.2527, -11.989, 29.3595, 13.6661, 67.2645, -166.555
4.24752, 2, -47.2533, -11.9894, 29.3595, 13.6661, 67.2644, -166.555
4.2555, 2, -47.2536, -11.9896, 29.3595, 13.6661, 67.2644, -166.555
4.26355, 2, -47.2537, -11.9896, 29.3595, 13.6661, 67.2644, -166.555
4.27151, 2, -47.2538, -11.9897, 29.3595, 13.666, 67.2645, -166.555
4.2795, 2, -47.2537, -11.9896, 29.3595, 13.6661, 67.2645, -166.555
4.28764, 2, -47.2535, -11.9896, 29.3595, 13.6661, 67.2645, -166.555
4.2955, 2, -47.253, -11.9895, 29.3595, 13.6661, 67.2645, -166.555
4.3035, 2, -47.2527, -11.9894, 29.3595, 13.6661, 67.2645, -166.555
4.31156, 2, -47.2524, -11.9894, 29.3595, 13.6661, 67.2645, -166.555
4.3195, 2, -47.2523, -11.9894, 29.3595, 13.6661, 67.2645, -166.555
4.32752, 2, -47.2521, -11.9895, 29.3595, 13.6661, 67.2645, -166.555
4.33558, 2, -47.2521, -11.9895, 29.3595, 13.666, 67.2645, -166.555
4.34454, 2, -47.2521, -11.9896, 29.3595, 13.666, 67.2646, -166.555
4.35152, 2, -47.2521, -11.9897, 29.3595, 13.6661, 67.2646, -166.555
4.35957, 2, -47.2521, -11.9897, 29.3595, 13.6661, 67.2645, -166.555
4.36751, 2, -47.2521, -11.9897, 29.3595, 13.666, 67.2645, -166.555
4.3755, 2, -47.2521, -11.9897, 29.3595, 13.666, 67.2646, -166.555
4.38357, 2, -47.2521, -11.9897, 29.3595, 13.666, 67.2645, -166.555
4.3915, 2, -47.252, -11.9896, 29.3595, 13.666, 67.2646, -166.555
4.3995, 2, -47.2519, -11.9895, 29.3595, 13.666, 67.2645, -166.555
4.40758, 2, -47.2518, -11.9894, 29.3595, 13.6661, 67.2646, -166.555
4.4155, 2, -47.2517, -11.9894, 29.3595, 13.6661, 67.2645, -166.555
4.4235, 2, -47.2516, -11.9894, 29.3595, 13.666, 67.2646, -166.555
4.43157, 2, -47.2515, -11.9894, 29.3595, 13.666, 67.2646, -166.555
4.4395, 2, -47.2514, -11.9894, 29.3595, 13.666, 67.2646, -166.555
4.44751, 2, -47.2514, -11.9894, 29.3595, 13.666, 67.2646, -166.555
4.4557, 2, -47.2513, -11.9894, 29.3595, 13.666, 67.2646, -166.555
4.4635, 2, -47.2513, -11.9894, 29.3595, 13.666, 67.2646, -166.555
4.47152, 2, -47.2512, -11.9894, 29.3595, 13.666, 67.2646, -166.555
4.47957, 2, -47.2511, -11.9894, 29.3595, 13.666, 67.2646, -166.555
4.48751, 2, -47.2511, -11.9894, 29.3595, 13.666, 67.2646, -166.555
4.4955, 2, -47.251, -11.9893, 29.3595, 13.666, 67.2646, -166.555
4.50359, 2, -47.2509, -11.9893, 29.3595, 13.666, 67.2646, -166.555
4.5115, 2, -47.2509, -11.9892, 29.3595, 13.666, 67.2646, -166.555
4.5195, 2, -47.2508, -11.9891, 29.3595, 13.666, 67.2646, -166.555
4.52759, 2, -47.2507, -11.9891, 29.3595, 13.666, 67.2646, -166.555
4.53557, 2, -47.2506, -11.9891, 29.3595, 13.666, 67.2646, -166.555
4.54359, 2, -47.2505, -11.9891, 29.3595, 13.666, 67.2646, -166.555
4.55165, 2, -47.2504, -11.9891, 29.3595, 13.666, 67.2646, -166.555
4.5596, 2, -47.2503, -11.9891, 29.3595, 13.666, 67.2646, -166.555
4.56762, 2, -47.2502, -11.9891, 29.3595, 13.6659, 67.2647, -166.555
4.57567, 2, -47.2501, -11.9891, 29.3595, 13.6659, 67.2647, -166.555
4.5835, 2, -47.25, -11.9891, 29.3595, 13.6659, 67.2647, -166.555
4.59152, 2, -47.2499, -11.9891, 29.3595, 13.6659, 67.2647, -166.555
4.5996, 2, -47.2498, -11.989, 29.3595, 13.6659, 67.2647, -166.555
4.60754, 2, -47.2497, -11.9889, 29.3595, 13.6659, 67.2646, -166.555
4.61556, 2, -47.2496, -11.9889, 29.3595, 13.6659, 67.2647, -166.555
4.62394, 2, -47.2495, -11.9888, 29.3595, 13.6659, 67.2647, -166.555
4.63169, 2, -47.2494, -11.9888, 29.3595, 13.6659, 67.2647, -166.555
4.63989, 2, -47.2493, -11.9888, 29.3595, 13.6659, 67.2647, -166.555
4.64796, 2, -47.2493, -11.9888, 29.3595, 13.6659, 67.2647, -166.555
4.65588, 2, -47.2492, -11.9888, 29.3595, 13.6659, 67.2647, -166.555
4.66399, 2, -47.2491, -11.9888, 29.3595, 13.6659, 67.2647, -166.555
4.6726, 2, -47.2491, -11.9888, 29.3595, 13.6659, 67.2647, -166.555
4.68001, 2, -47.249, -11.9888, 29.3595, 13.6659, 67.2647, -166.555
4.6882, 2, -47.2489, -11.9888, 29.3595, 13.6659, 67.2647, -166.555
4.69615, 2, -47.2489, -11.9887, 29.3595, 13.6658, 67.2647, -166.555
4.70407, 2, -47.2489, -11.9887, 29.3595, 13.6659, 67.2647, -166.555
4.712, 2, -47.2488, -11.9886, 29.3595, 13.6659, 67.2647, -166.555
4.71954, 2, -47.2487, -11.9885, 29.3595, 13.6658, 67.2647, -166.555
4.72751, 2, -47.2486, -11.9885, 29.3595, 13.6658, 67.2647, -166.555
4.73548, 2, -47.2485, -11.9884, 29.3595, 13.6658, 67.2647, -166.555
4.74354, 2, -47.2485, -11.9884, 29.3595, 13.6658, 67.2647, -166.555
4.75149, 2, -47.2485, -11.9884, 29.3595, 13.6658, 67.2647, -166.555
4.75949, 2, -47.2484, -11.9884, 29.3594, 13.6657, 67.2647, -166.555
4.76756, 2, -47.2483, -11.9884, 29.3595, 13.6658, 67.2647, -166.555
4.77549, 2, -47.2483, -11.9884, 29.3595, 13.6658, 67.2647, -166.555
4.78349, 2, -47.2483, -11.9884, 29.3595, 13.6657, 67.2647, -166.555
4.79162, 2, -47.2483, -11.9884, 29.3595, 13.6657, 67.2647, -166.555
4.79949, 2, -47.2482, -11.9883, 29.3595, 13.6657, 67.2647, -166.555
4.8075, 2, -47.2482, -11.9883, 29.3595, 13.6657, 67.2647, -166.555
4.8171, 2, -47.2481, -11.9882, 29.3595, 13.6656, 67.2648, -166.555
4.82349, 2, -47.2481, -11.9882, 29.3595, 13.6656, 67.2648, -166.554
4.83149, 2, -47.248, -11.9881, 29.3595, 13.6656, 67.2648, -166.554
4.84048, 2, -47.2479, -11.9881, 29.3595, 13.6657, 67.2648, -166.554
4.84749, 2, -47.2479, -11.9881, 29.3595, 13.6656, 67.2648, -166.554
4.85648, 2, -47.2478, -11.9881, 29.3595, 13.6656, 67.2648, -166.554
4.86355, 2, -47.2477, -11.988, 29.3595, 13.6656, 67.2648, -166.554
4.87149, 2, -47.2477, -11.988, 29.3595, 13.6656, 67.2648, -166.554
4.87949, 2, -47.2477, -11.988, 29.3595, 13.6656, 67.2648, -166.554
4.88757, 2, -47.2477, -11.988, 29.3595, 13.6656, 67.2648, -166.554
4.89547, 2, -47.2477, -11.988, 29.3595, 13.6656, 67.2648, -166.554
4.90349, 2, -47.2476, -11.988, 29.3595, 13.6656, 67.2648, -166.554
4.91167, 2, -47.2476, -11.9879, 29.3595, 13.6656, 67.2648, -166.554
4.91949, 2, -47.2475, -11.9879, 29.3595, 13.6655, 67.2649, -166.554
4.9275, 2, -47.2474, -11.9878, 29.3595, 13.6655, 67.2649, -166.554
4.93555, 2, -47.2473, -11.9877, 29.3595, 13.6655, 67.2649, -166.554
4.94349, 2, -47.2473, -11.9877, 29.3595, 13.6655, 67.2649, -166.554
4.95149, 2, -47.2472, -11.9877, 29.3595, 13.6655, 67.2649, -166.554
4.95964, 2, -47.2471, -11.9877, 29.3595, 13.6655, 67.2649, -166.554
4.9675, 2, -47.2471, -11.9877, 29.3595, 13.6655, 67.265, -166.554
4.9755, 2, -47.2471, -11.9877, 29.3595, 13.6654, 67.265, -166.554
4.98355, 2, -47.247, -11.9877, 29.3595, 13.6654, 67.265, -166.554
4.99149, 2, -47.247, -11.9877, 29.3595, 13.6654, 67.265, -166.554
4.99949, 2, -47.247, -11.9876, 29.3595, 13.6654, 67.265, -166.554
5.00759, 2, -47.247, -11.9876, 29.3595, 13.6654, 67.265, -166.554
5.01548, 2, -47.2469, -11.9876, 29.3595, 13.6654, 67.265, -166.554
5.02349, 2, -47.2469, -11.9875, 29.3595, 13.6654, 67.265, -166.554
5.03158, 2, -47.2468, -11.9875, 29.3595, 13.6654, 67.265, -166.554
5.03954, 2, -47.2468, -11.9874, 29.3594, 13.6654, 67.265, -166.554
5.04758, 2, -47.2466, -11.9874, 29.3594, 13.6654, 67.2651, -166.554
5.05582, 2, -47.2465, -11.9874, 29.3595, 13.6653, 67.2651, -166.554
5.06763, 2, -47.2465, -11.9873, 29.3595, 13.6653, 67.2651, -166.554
5.07169, 2, -47.2465, -11.9873, 29.3595, 13.6653, 67.2651, -166.554
5.07962, 2, -47.2464, -11.9873, 29.3595, 13.6653, 67.2651, -166.554
5.0875, 2, -47.2464, -11.9873, 29.3594, 13.6652, 67.2651, -166.554
5.09562, 2, -47.2464, -11.9873, 29.3594, 13.6652, 67.2651, -166.554
5.10352, 2, -47.2463, -11.9873, 29.3595, 13.6652, 67.2651, -166.554
5.11194, 2, -47.2463, -11.9873, 29.3595, 13.6652, 67.2651, -166.554
5.11966, 2, -47.2463, -11.9872, 29.3595, 13.6652, 67.2651, -166.554
5.12772, 2, -47.2462, -11.9872, 29.3595, 13.6652, 67.2651, -166.554
5.13587, 4, -47.2462, -11.9871, 29.3595, 13.6652, 67.2651, -166.554
5.14383, 4, -47.2461, -11.9871, 29.3594, 13.6652, 67.2651, -166.554
5.15182, 4, -47.246, -11.9871, 29.3594, 13.6651, 67.2652, -166.554
5.15996, 4, -47.2459, -11.9871, 29.3594, 13.6651, 67.2652, -166.554
5.1681, 4, -47.2459, -11.987, 29.3594, 13.6651, 67.2652, -166.554
5.176, 4, -47.2458, -11.987, 29.3594, 13.6651, 67.2652, -166.554
5.18409, 4, -47.2458, -11.987, 29.3595, 13.6651, 67.2652, -166.554
5.19208, 4, -47.2459, -11.987, 29.3595, 13.665, 67.2652, -166.554
5.20003, 4, -47.2458, -11.987, 29.3595, 13.665, 67.2653, -166.554
5.20808, 4, -47.2458, -11.987, 29.3594, 13.665, 67.2653, -166.554
5.21609, 4, -47.2458, -11.987, 29.3594, 13.665, 67.2652, -166.554
5.22435, 4, -47.2457, -11.9869, 29.3595, 13.665, 67.2653, -166.554
5.23148, 4, -47.2457, -11.9869, 29.3595, 13.665, 67.2653, -166.554
5.24025, 4, -47.2456, -11.9869, 29.3595, 13.665, 67.2653, -166.554
5.25121, 4, -47.2456, -11.9868, 29.3595, 13.665, 67.2653, -166.554
5.2556, 4, -47.2455, -11.9868, 29.3595, 13.665, 67.2653, -166.554
5.26757, 4, -47.2455, -11.9868, 29.3595, 13.665, 67.2653, -166.554
5.2716, 4, -47.2455, -11.9868, 29.3595, 13.665, 67.2653, -166.554
5.2823, 4, -47.2454, -11.9868, 29.3595, 13.665, 67.2653, -166.554
5.28769, 4, -47.2454, -11.9868, 29.3594, 13.6649, 67.2653, -166.554
5.29752, 4, -47.2454, -11.9867, 29.3595, 13.6649, 67.2653, -166.554
5.30548, 4, -47.2453, -11.9867, 29.3595, 13.6649, 67.2653, -166.554
5.31354, 4, -47.2453, -11.9867, 29.3595, 13.6649, 67.2653, -166.553
5.3197, 4, -47.2453, -11.9867, 29.3595, 13.6649, 67.2653, -166.554
5.32927, 4, -47.2453, -11.9866, 29.3595, 13.6649, 67.2653, -166.553
5.34027, 4, -47.2452, -11.9866, 29.3595, 13.6649, 67.2652, -166.553
5.36702, 4, -47.245, -11.9865, 29.3595, 13.6648, 67.2653, -166.553
5.36968, 4, -47.245, -11.9865, 29.3595, 13.6648, 67.2654, -166.553
5.37166, 4, -47.245, -11.9865, 29.3595, 13.6648, 67.2654, -166.553
5.37654, 4, -47.245, -11.9865, 29.3595, 13.6648, 67.2654, -166.553
5.37923, 4, -47.245, -11.9865, 29.3595, 13.6648, 67.2653, -166.553
5.38446, 4, -47.245, -11.9865, 29.3595, 13.6648, 67.2653, -166.553
5.39161, 4, -47.245, -11.9865, 29.3595, 13.6648, 67.2653, -166.553
5.41289, 4, -47.2483, -11.9888, 29.3618, 13.6666, 67.266, -166.553
5.41567, 4, -47.2501, -11.9906, 29.3639, 13.67, 67.2668, -166.553
5.42069, 4, -47.2525, -11.9933, 29.3673, 13.6764, 67.2683, -166.552
5.42674, 4, -47.2596, -12.0022, 29.3799, 13.7013, 67.2747, -166.547
5.43268, 5, -47.2647, -12.0089, 29.3904, 13.722, 67.2803, -166.543
5.43991, 5, -47.2793, -12.0282, 29.4232, 13.7884, 67.2989, -166.528
5.45093, 5, -47.316, -12.0771, 29.5139, 13.9777, 67.3522, -166.485
5.45625, 5, -47.3332, -12.0996, 29.5585, 14.072, 67.3783, -166.463
5.46371, 5, -47.3764, -12.155, 29.6729, 14.3168, 67.4458, -166.407
5.47265, 5, -47.4324, -12.2252, 29.8236, 14.6435, 67.5353, -166.332
5.48309, 5, -47.54, -12.3589, 30.1217, 15.2907, 67.7094, -166.183
5.48762, 5, -47.582, -12.411, 30.2401, 15.5457, 67.7773, -166.125
5.49667, 5, -47.6745, -12.5254, 30.5019, 16.1062, 67.9252, -165.998
5.50882, 5, -47.8311, -12.7196, 30.9496, 17.0451, 68.1689, -165.788
5.5156, 5, -47.9447, -12.8612, 31.2756, 17.7151, 68.3392, -165.641
5.51964, 5, -48.0034, -12.9347, 31.4447, 18.0573, 68.425, -165.566
5.52796, 5, -48.1235, -13.0855, 31.7906, 18.7496, 68.5961, -165.417
5.5389, 5, -48.3046, -13.3145, 32.3196, 19.7891, 68.8476, -165.196
5.54396, 5, -48.3639, -13.3899, 32.4965, 20.1305, 68.9296, -165.122
5.55201, 5, -48.4781, -13.5371, 32.8486, 20.7989, 69.0908, -164.97
5.56031, 6, -48.5824, -13.6767, 33.1921, 21.4386, 69.2503, -164.801
5.56783, 6, -48.6724, -13.8058, 33.522, 22.0383, 69.4102, -164.604
5.57924, 7, -48.7717, -13.982, 33.9821, 22.8516, 69.6572, -164.222
5.58629, 7, -48.7939, -14.0369, 34.1256, 23.098, 69.7426, -164.065
5.59178, 7, -48.8219, -14.1405, 34.397, 23.5567, 69.9196, -163.699
5.60139, 8, -48.8294, -14.2344, 34.6496, 23.9763, 70.1067, -163.264
5.60862, 8, -48.8184, -14.3187, 34.888, 24.3663, 70.3042, -162.762
5.61657, 9, -48.7921, -14.3953, 35.1152, 24.7359, 70.5122, -162.204
5.62792, 9, -48.7304, -14.5004, 35.4433, 25.2724, 70.8412, -161.294
5.63205, 10, -48.7049, -14.5336, 35.5515, 25.4496, 70.9548, -160.978
5.64165, 10, -48.6466, -14.5982, 35.7669, 25.8042, 71.1863, -160.338
5.64968, 11, -48.5804, -14.661, 35.9816, 26.1609, 71.4213, -159.693
5.65784, 11, -48.5081, -14.723, 36.1965, 26.5211, 71.6579, -159.05
5.66429, 12, -48.4312, -14.7854, 36.4097, 26.8865, 71.8955, -158.409
5.67298, 12, -48.352, -14.8483, 36.6204, 27.2581, 72.1339, -157.767
5.68277, 13, -48.272, -14.9099, 36.8294, 27.6369, 72.3737, -157.123
5.68908, 13, -48.1911, -14.9692, 37.0364, 28.0226, 72.6153, -156.477
5.69623, 14, -48.1086, -15.0276, 37.241, 28.4152, 72.8588, -155.826
5.70528, 14, -48.0231, -15.0867, 37.4447, 28.8135, 73.1045, -155.172
5.71364, 15, -47.9342, -15.1464, 37.6476, 29.2155, 73.3515, -154.518
5.72431, 15, -47.8415, -15.2054, 37.848, 29.6197, 73.7217, -153.54
5.73089, 16, -47.7434, -15.2637, 38.0464, 30.0242, 73.8443, -153.216
5.7376, 16, -47.6385, -15.3229, 38.2432, 30.4272, 74.0875, -152.57
5.74558, 17, -47.5271, -15.3839, 38.4368, 30.8273, 74.3266, -151.929
5.75166, 17, -47.4695, -15.4151, 38.5323, 31.0259, 74.4441, -151.611
5.75959, 18, -47.3505, -15.4782, 38.7215, 31.4194, 74.6743, -150.979
5.7735, 18, -47.0982, -15.6069, 39.0937, 32.1928, 75.115, -149.741
5.7756, 19, -47.0982, -15.6069, 39.0937, 32.1928, 75.115, -149.741
5.78746, 19, -46.8951, -15.7096, 39.3671, 32.7653, 75.4301, -148.832
5.7917, 20, -46.8246, -15.7452, 39.4577, 32.9555, 75.5328, -148.532
5.80336, 20, -46.6056, -15.8549, 39.7265, 33.5246, 75.8348, -147.644
5.8095, 21, -46.5301, -15.9308, 39.9022, 33.9035, 76.0314, -147.059
5.81883, 21, -46.2962, -16.0092, 40.0758, 34.2813, 76.2238, -146.481
5.82359, 22, -46.216, -16.0492, 40.1619, 34.4699, 76.3183, -146.194
5.83167, 22, -46.0523, -16.13, 40.3321, 34.845, 76.5037, -145.625
5.84538, 23, -45.7977, -16.2535, 40.5811, 35.585, 76.859, -144.506
5.85017, 23, -45.7098, -16.2956, 40.7439, 35.7675, 76.9445, -144.229
5.85866, 24, -45.4356, -16.4248, 40.9035, 36.1286, 77.1114, -143.681
5.86401, 24, -45.3407, -16.4688, 40.9817, 36.3071, 77.1926, -143.409
5.87161, 25, -45.1458, -16.5578, 41.135, 36.6591, 77.351, -142.868
5.87969, 25, -44.9443, -16.6478, 41.2842, 37.0036, 77.5038, -142.331
5.88967, 26, -44.6293, -16.7845, 41.4998, 37.5067, 77.7229, -141.533
5.89662, 26, -44.5209, -16.8305, 41.5692, 37.6704, 77.7934, -141.269
5.90372, 27, -44.2987, -16.9227, 41.7038, 37.9921, 77.9314, -140.742
5.91633, 27, -43.953, -17.0605, 41.8948, 38.4597, 78.1301, -139.955
5.92299, 28, -43.7143, -17.1516, 42.0146, 38.7617, 78.2585, -139.431
5.92774, 28, -43.5923, -17.1968, 42.072, 38.9096, 78.3213, -139.169
5.93821, 29, -43.2157, -17.3302, 42.234, 39.3409, 78.5056, -138.386
5.94722, 29, -42.9565, -17.4169, 42.3333, 39.6184, 78.6245, -137.863
5.95328, 30, -42.8243, -17.4596, 42.3802, 39.7542, 78.6828, -137.603
5.95961, 30, -42.5538, -17.5433, 42.4687, 40.0191, 78.7977, -137.081
5.96773, 31, -42.2747, -17.6245, 42.55, 40.2755, 78.9093, -136.56
5.97969, 31, -41.8415, -17.7415, 42.6587, 40.6442, 79.0719, -135.78
5.98619, 32, -41.6935, -17.7794, 42.6915, 40.763, 79.1249, -135.52
5.99167, 32, -41.3924, -17.8533, 42.752, 40.9939, 79.2285, -135.001
6.00952, 33, -40.7706, -17.9924, 42.8519, 41.4315, 79.4288, -133.966
6.01284, 33, -40.6109, -18.0252, 42.8724, 41.5358, 79.477, -133.707
6.01662, 34, -40.4497, -18.0573, 42.891, 41.6381, 79.5248, -133.449
6.02669, 34, -40.1238, -18.1196, 42.9228, 41.8365, 79.664, -132.677
6.03346, 35, -39.7933, -18.1792, 42.9473, 42.027, 79.7093, -132.42
6.04156, 35, -39.4569, -18.2354, 42.9648, 42.2103, 79.7976, -131.907
6.04873, 36, -39.1138, -18.2881, 42.9752, 42.3857, 79.884, -131.395
6.05767, 36, -38.7633, -18.3375, 42.9788, 42.5534, 79.968, -130.885
6.06564, 37, -38.4061, -18.3836, 42.9757, 42.7136, 80.05, -130.375
6.0736, 37, -38.0433, -18.4262, 42.9657, 42.866, 80.1299, -129.868
6.07974, 38, -37.6748, -18.4651, 42.9489, 43.0112, 80.2079, -129.362
6.08844, 38, -37.3015, -18.5005, 42.9255, 43.149, 80.2836, -128.858
6.09576, 39, -36.9236, -18.5326, 42.8954, 43.2793, 80.3571, -128.355
6.10436, 39, -36.5413, -18.5611, 42.8586, 43.4024, 80.4286, -127.854
6.11188, 40, -36.1538, -18.5858, 42.815, 43.5179, 80.4983, -127.355
6.12225, 40, -35.7601, -18.6068, 42.7651, 43.6264, 80.5662, -126.858
6.12796, 41, -35.3607, -18.6236, 42.7085, 43.7277, 80.6323, -126.363
6.13675, 41, -34.9557, -18.6369, 42.6454, 43.8214, 80.6958, -125.87
6.14573, 42, -34.5464, -18.6466, 42.576, 43.9086, 80.7582, -125.379
6.15282, 42, -34.1339, -18.6531, 42.5001, 43.9884, 80.8176, -124.891
6.16145, 43, -33.7183, -18.6564, 42.418, 44.0611, 80.8763, -124.405
6.16909, 43, -33.2985, -18.6565, 42.33, 44.1265, 80.9326, -123.92
6.17634, 44, -32.873, -18.6527, 42.2362, 44.1852, 80.9872, -123.439
6.18852, 44, -32.2227, -18.6401, 42.0848, 44.2589, 81.0668, -122.721
6.19485, 45, -32.0028, -18.6339, 42.0313, 44.2801, 81.092, -122.483
6.20104, 45, -31.5595, -18.619, 41.92, 44.317, 81.1421, -122.009
6.21018, 46, -31.1132, -18.6006, 41.8026, 44.3459, 81.1907, -121.536
6.21759, 46, -30.6653, -18.5788, 41.6793, 44.367, 81.2365, -121.067
6.22654, 47, -30.2144, -18.5532, 41.5502, 44.3806, 81.2815, -120.599
6.23294, 47, -29.9872, -18.5387, 41.4835, 44.3846, 81.304, -120.366
6.24123, 48, -29.296, -18.4884, 41.2743, 44.3866, 81.3685, -119.67
6.24926, 48, -29.0624, -18.4695, 41.2015, 44.383, 81.3894, -119.208
6.25568, 49, -28.5908, -18.4285, 41.0513, 44.3693, 81.4311, -118.978
6.26368, 49, -28.1152, -18.383, 40.8954, 44.347, 81.4729, -118.519
6.27264, 50, -27.6373, -18.3331, 40.7333, 44.2951, 81.5338, -117.832
6.28527, 50, -26.6709, -18.2182, 40.3893, 44.223, 81.5963, -117.148
6.28962, 51, -26.4253, -18.186, 40.2994, 44.1941, 81.6176, -116.92
6.29918, 51, -25.9281, -18.1174, 40.1145, 44.1286, 81.6599, -116.466
6.30366, 52, -25.6767, -18.081, 40.0192, 44.0925, 81.6812, -116.239
6.31422, 52, -24.9168, -17.964, 39.7225, 43.9681, 81.7473, -115.558
6.32128, 53, -24.6623, -17.9223, 39.6206, 43.9215, 81.792, -115.106
6.32794, 53, -24.1516, -17.8348, 39.4117, 43.8208, 81.8143, -114.879
6.33734, 54, -23.376, -17.6919, 39.0839, 43.6505, 81.8846, -114.202
6.34426, 54, -23.1136, -17.6412, 38.9712, 43.5884, 81.9091, -113.976
6.35332, 55, -22.5825, -17.5351, 38.7409, 43.456, 81.9845, -113.298
6.35962, 55, -22.0455, -17.4229, 38.5026, 43.312, 82.0111, -113.072
6.37068, 56, -21.2348, -17.2433, 38.1331, 43.074, 82.0938, -112.394
6.37566, 56, -20.9631, -17.1806, 38.0064, 42.9889, 82.1218, -112.169
6.38359, 57, -20.4154, -17.051, 37.7475, 42.8099, 82.1802, -111.718
6.39168, 57, -19.8587, -16.9159, 37.4827, 42.6195, 82.2399, -111.268
6.40334, 58, -19.0076, -16.7018, 37.0722, 42.3108, 82.3331, -110.592
6.41264, 58, -18.4345, -16.5512, 36.7908, 42.0891, 82.3975, -110.143
6.41567, 59, -18.147, -16.4735, 36.6473, 41.9736, 82.4305, -109.918
6.42457, 59, -17.5695, -16.3142, 36.3548, 41.7327, 82.4995, -109.469
6.43409, 60, -16.6877, -16.0674, 35.9037, 41.3456, 82.6075, -108.794
6.4396, 60, -16.3885, -15.9825, 35.7503, 41.2098, 82.6451, -108.569
6.45028, 61, -15.7851, -15.8086, 35.4396, 40.9281, 82.7209, -108.119
6.45601, 61, -15.1779, -15.6297, 35.1226, 40.6333, 82.799, -107.67
6.46623, 62, -14.5681, -15.3542, 34.6375, 40.1685, 82.9196, -106.996
6.4717, 62, -13.9521, -15.2603, 34.4735, 40.0074, 82.9606, -106.772
6.48279, 63, -13.0107, -14.9697, 33.9765, 39.5058, 83.0862, -106.098
6.4894, 63, -12.6929, -14.8696, 33.8087, 39.3323, 83.1288, -105.873
6.4984, 64, -12.0538, -14.6662, 33.4704, 38.9758, 83.2164, -105.198
6.50369, 64, -11.4109, -14.4577, 33.1267, 38.6062, 83.3068, -104.972
6.51262, 65, -10.7602, -14.2422, 32.7773, 38.2217, 83.4017, -104.52
6.52365, 65, -9.76357, -13.9046, 32.2413, 37.6134, 83.5543, -103.837
6.52794, 66, -9.42627, -13.7887, 32.0597, 37.4013, 83.6084, -103.609
6.54045, 66, -8.40358, -13.4303, 31.5051, 36.7373, 83.7813, -102.921
6.54556, 67, -8.05964, -13.3071, 31.3162, 36.5063, 83.8425, -102.69
6.55329, 67, -7.36463, -13.0553, 30.9327, 36.0307, 83.9709, -102.226
6.56035, 68, -6.65981, -12.7951, 30.5428, 35.538, 84.107, -101.759
6.568, 68, -5.94755, -12.5276, 30.149, 35.0306, 84.2496, -101.29
6.57574, 69, -5.23002, -12.2538, 29.7512, 34.5102, 84.3985, -100.819
6.58738, 69, -4.14178, -11.8289, 29.149, 33.7075, 84.6317, -100.109
6.59177, 70, -3.77481, -11.6836, 28.9481, 33.4345, 84.712, -99.8716
6.60168, 70, -3.03407, -11.3866, 28.546, 32.8781, 84.8767, -99.3948
6.60867, 71, -2.28539, -11.0814, 28.143, 32.3079, 85.0478, -98.9165
6.61979, 71, -1.14679, -10.6108, 27.5329, 31.4235, 85.3203, -98.1942
6.62397, 72, -0.763448, -10.4507, 27.3281, 31.1202, 85.4159, -97.9517
6.63329, 72, 0.00771136, -10.1263, 26.9168, 30.4999, 85.6143, -97.4646
6.64001, 73, 0.783848, -9.79406, 26.5033, 29.866, 85.8215, -96.9745
6.64878, 73, 1.56498, -9.45418, 26.0889, 29.2199, 86.0371, -96.483
6.65883, 74, 2.34946, -9.10831, 25.6753, 28.5644, 86.2611, -95.9897
6.66559, 74, 3.13599, -8.7581, 25.2648, 27.9013, 86.4923, -95.4953
6.67482, 75, 3.92373, -8.40249, 24.8597, 27.2326, 86.7298, -94.9999
6.68145, 75, 4.71262, -8.0412, 24.4599, 26.5621, 86.9721, -94.5047
6.69224, 76, 5.89448, -7.49033, 23.8721, 25.5586, 87.3449, -93.7612
6.69699, 76, 6.28761, -7.3044, 23.6799, 25.2244, 87.4715, -93.5133
6.70589, 77, 7.07287, -6.92735, 23.3002, 24.5589, 87.7294, -93.0173
6.71297, 77, 7.85893, -6.54266, 22.926, 23.8948, 87.9946, -92.5213
6.72588, 78, 9.03759, -5.95172, 22.3736, 22.8969, 88.4098, -91.7762
6.72888, 78, 9.43016, -5.75122, 22.1921, 22.5626, 88.5537, -91.5264
6.74241, 79, 10.6101, -5.1361, 21.653, 21.5531, 89.0032, -90.7713
6.74948, 79, 11.3973, -4.71429, 21.2973, 20.8765, 89.3179, -90.2615
6.7516, 80, 11.3973, -4.71429, 21.2973, 20.8765, 89.3179, -90.2615
6.75943, 80, 12.1806, -4.28309, 20.9454, 20.1962, 89.6439, -89.7455
6.76763, 81, 12.9582, -3.84223, 20.5966, 19.5176, 89.9817, -89.222
6.77543, 81, 13.7316, -3.39266, 20.2519, 18.8456, 90.3298, -88.6925
6.78345, 82, 14.4992, -2.93577, 19.9123, 18.1842, 90.687, -88.1576
6.79143, 82, 15.2583, -2.47137, 19.5808, 17.5352, 91.0509, -87.6195
6.79944, 82, 16.0078, -1.99963, 19.2579, 16.9018, 91.4206, -87.0782
6.80746, 83, 16.7465, -1.52023, 18.9448, 16.2881, 91.7938, -86.5353
6.81545, 83, 17.4732, -1.03398, 18.6418, 15.6946, 92.1707, -85.9918
6.82349, 84, 18.1856, -0.542933, 18.3489, 15.121, 92.5516, -85.4499
6.83303, 84, 19.2233, 0.200216, 17.926, 14.2987, 93.1346, -84.6389
6.83943, 85, 19.5605, 0.45044, 17.7883, 14.0346, 93.3326, -84.3695
6.84904, 85, 20.2216, 0.954046, 17.5185, 13.5215, 93.7346, -83.5648
6.8554, 86, 20.866, 1.46159, 17.2547, 13.0281, 94.1429, -83.2975
6.86441, 86, 21.4958, 1.97378, 16.9973, 12.5544, 94.5566, -82.7631
6.87175, 87, 22.1122, 2.49313, 16.7468, 12.1011, 94.9762, -82.2268
6.87944, 87, 22.7162, 3.02255, 16.5011, 11.667, 95.4016, -81.6867
6.88742, 87, 23.3096, 3.56168, 16.2601, 11.2514, 95.834, -81.1417
6.8955, 88, 23.8936, 4.10855, 16.0224, 10.8514, 96.2732, -80.5892
6.90342, 88, 24.467, 4.66372, 15.7878, 10.4672, 96.719, -80.0269
6.91149, 89, 25.0299, 5.23045, 15.558, 10.0974, 97.1726, -79.4538
6.91944, 89, 25.5851, 5.80939, 15.3317, 9.74262, 97.6331, -78.869
6.92749, 90, 26.1367, 6.39914, 15.1077, 9.40275, 98.1001, -78.271
6.93544, 90, 26.6824, 6.9985, 14.8878, 9.07793, 98.5739, -77.6585
6.94348, 91, 27.2164, 7.60689, 14.6729, 8.77017, 99.0543, -77.0327
6.95143, 91, 27.7369, 8.22572, 14.4625, 8.48065, 99.5407, -76.3947
6.95942, 92, 28.2469, 8.85561, 14.2563, 8.21186, 100.032, -75.7447
6.96749, 92, 28.7495, 9.49575, 14.0548, 7.96484, 100.528, -75.0853
6.97546, 93, 29.2437, 10.1446, 13.8585, 7.74026, 101.027, -74.4188
6.98343, 93, 29.7257, 10.7996, 13.6692, 7.53888, 101.526, -73.7454
6.99149, 94, 30.1937, 11.4589, 13.4877, 7.36098, 102.024, -73.065
6.99943, 94, 30.6467, 12.121, 13.3133, 7.20688, 102.52, -72.3798
7.00742, 95, 31.0859, 12.7854, 13.146, 7.07642, 103.012, -71.6899
7.0155, 95, 31.5114, 13.4515, 12.9866, 6.96983, 103.502, -70.9936
7.02342, 96, 31.9226, 14.119, 12.8347, 6.88638, 103.988, -70.2925
7.03165, 96, 32.3181, 14.7871, 12.6889, 6.82758, 104.47, -69.5863
7.03949, 97, 32.6974, 15.4557, 12.5499, 6.79107, 104.948, -68.8738
7.04748, 97, 33.061, 16.123, 12.4183, 6.77564, 105.42, -68.1564
7.05642, 98, 33.4089, 16.7881, 12.295, 6.78246, 105.885, -67.4371
7.06352, 98, 33.7422, 17.449, 12.1805, 6.81064, 106.342, -66.7137
7.07154, 99, 34.0618, 18.1044, 12.0753, 6.85825, 106.788, -65.9898
7.0797, 99, 34.3693, 18.7526, 11.9798, 6.92607, 107.223, -65.2684
7.08823, 100, 34.6658, 19.3923, 11.8936, 7.01109, 107.644, -64.5489
7.09543, 100, 34.9507, 20.023, 11.8164, 7.11394, 108.051, -63.8337
7.1035, 101, 35.2234, 20.6427, 11.7476, 7.2328, 108.442, -63.1264
7.11208, 101, 35.4837, 21.2517, 11.6871, 7.36653, 108.817, -62.4253
7.11977, 102, 35.7316, 21.8486, 11.6352, 7.51279, 109.175, -61.7336
7.12759, 102, 35.9656, 22.4321, 11.5913, 7.66983, 109.516, -61.0537
7.13589, 103, 36.1879, 23.0017, 11.5556, 7.83563, 109.842, -60.385
7.14443, 103, 36.4024, 23.5564, 11.5283, 8.00887, 110.152, -59.728
7.1518, 103, 36.6108, 24.0955, 11.5098, 8.18998, 110.446, -59.0844
7.15975, 104, 36.8128, 24.6191, 11.4998, 8.37938, 110.722, -58.4534
7.16792, 104, 37.0083, 25.1269, 11.4968, 8.57788, 110.978, -57.8328
7.17655, 104, 37.1978, 25.6191, 11.5002, 8.78527, 111.215, -57.2237
7.18457, 104, 37.3788, 26.0953, 11.5095, 9.00014, 111.432, -56.6273
7.19215, 104, 37.5492, 26.5552, 11.5226, 9.22101, 111.63, -56.0438
7.2, 104, 37.7106, 26.9992, 11.5386, 9.44531, 111.813, -55.4755
7.20884, 104, 37.8667, 27.4285, 11.5573, 9.66996, 111.982, -54.9256
7.21604, 104, 37.9434, 27.6371, 11.5776, 9.89233, 112.14, -54.3976
7.22399, 104, 38.0943, 28.0425, 11.588, 10.0022, 112.216, -54.1419
7.23143, 104, 38.2402, 28.4309, 11.6085, 10.218, 112.36, -53.6476
7.24044, 104, 38.4473, 28.9823, 11.6374, 10.5301, 112.563, -52.9515
7.24741, 104, 38.5128, 29.1572, 11.6465, 10.6306, 112.626, -52.7315
7.25554, 104, 38.6376, 29.4933, 11.664, 10.8255, 112.747, -52.3107
7.26346, 104, 38.7539, 29.8102, 11.6802, 11.0118, 112.861, -51.9149
7.27142, 104, 38.8619, 30.1083, 11.6952, 11.1889, 112.966, -51.5436
7.27942, 104, 38.9621, 30.3879, 11.7093, 11.3562, 113.065, -51.1978
7.28748, 104, 39.0547, 30.6477, 11.7223, 11.5131, 113.155, -50.8777
7.29541, 104, 39.1394, 30.8879, 11.7339, 11.6594, 113.239, -50.5824
7.30341, 104, 39.2163, 31.1088, 11.7445, 11.7945, 113.314, -50.3125
7.3115, 104, 39.285, 31.3095, 11.7543, 11.9182, 113.383, -50.0678
7.31941, 104, 39.3458, 31.4907, 11.7633, 12.0299, 113.444, -49.8485
7.32743, 104, 39.3993, 31.6526, 11.7711, 12.1297, 113.499, -49.6542
7.33546, 104, 39.4462, 31.7952, 11.7781, 12.2173, 113.546, -49.4848
7.34513, 104, 39.4873, 31.975, 11.7875, 12.3258, 113.604, -49.2763
7.35144, 104, 39.5225, 32.0264, 11.7903, 12.3564, 113.62, -49.2186
7.36044, 104, 39.5516, 32.1168, 11.7954, 12.4086, 113.647, -49.1199
7.36742, 104, 39.5753, 32.192, 11.8, 12.449, 113.668, -49.0415
7.37643, 104, 39.5943, 32.2535, 11.8041, 12.4803, 113.684, -48.9823
7.38348, 104, 39.609, 32.3032, 11.8079, 12.5037, 113.696, -48.9393
7.39152, 104, 39.6204, 32.3421, 11.8113, 12.5202, 113.703, -48.9094
7.39941, 104, 39.6291, 32.3713, 11.8143, 12.5314, 113.708, -48.8897
7.40749, 104, 39.6353, 32.3932, 11.817, 12.5385, 113.711, -48.8778
7.41541, 104, 39.6393, 32.4093, 11.8193, 12.5425, 113.713, -48.8714
7.42343, 104, 39.6416, 32.4203, 11.821, 12.5447, 113.713, -48.8684
7.43145, 105, 39.6427, 32.4272, 11.8223, 12.5457, 113.714, -48.867
7.43941, 105, 39.6427, 32.4315, 11.8233, 12.5462, 113.714, -48.8665
7.44742, 105, 39.642, 32.4345, 11.8242, 12.5465, 113.714, -48.8664
7.45548, 105, 39.6411, 32.4366, 11.8249, 12.5466, 113.714, -48.8666
7.4634, 105, 39.6402, 32.4381, 11.8256, 12.5467, 113.714, -48.8668
7.47141, 105, 39.639, 32.4395, 11.8262, 12.5468, 113.714, -48.8671
7.47951, 105, 39.6378, 32.4408, 11.8267, 12.5468, 113.714, -48.8673
7.48748, 105, 39.6371, 32.4419, 11.8273, 12.5468, 113.714, -48.8677
7.49541, 105, 39.6367, 32.4431, 11.8279, 12.5468, 113.714, -48.868
7.50347, 105, 39.6364, 32.4441, 11.8285, 12.5468, 113.714, -48.8683
7.51141, 105, 39.6362, 32.4451, 11.829, 12.5468, 113.714, -48.8685
7.51942, 105, 39.6359, 32.4459, 11.8294, 12.5468, 113.714, -48.8688
7.52749, 105, 39.6357, 32.4464, 11.8297, 12.5468, 113.714, -48.8691
7.53541, 105, 39.6354, 32.4469, 11.83, 12.5468, 113.714, -48.8692
7.54349, 105, 39.6351, 32.4471, 11.8303, 12.5467, 113.714, -48.8694
