hehonglu123/Motion-Primitive-Planning/simulation/robotstudio_sim/multimove/curve_exe_v500_z10.csv
timestamp, cmd_num, J1, J2, J3, J4, J5, J6, J1_2, J2_2, J3_2, J4_2, J5_2, J6_2
0.002, -1, 21.0736, 7.46975, 5.84297, 59.17, -24.7511, -56.7253, 34.6768, 22.8067, 12.2971, -113.449, -119.359, 48.7862
0.006, -1, 21.0736, 7.46975, 5.84297, 59.17, -24.7511, -56.7253, 34.6768, 22.8067, 12.2971, -113.449, -119.359, 48.7862
0.011, -1, 21.0736, 7.46975, 5.84297, 59.17, -24.7511, -56.7253, 34.6768, 22.8067, 12.2971, -113.449, -119.359, 48.7862
0.011, -1, 21.0736, 7.46975, 5.84297, 59.17, -24.7511, -56.7253, 34.6768, 22.8067, 12.2971, -113.449, -119.359, 48.7862
0.013, -1, 21.0736, 7.46975, 5.84297, 59.17, -24.7511, -56.7253, 34.6768, 22.8067, 12.2971, -113.449, -119.359, 48.7862
0.016, -1, 21.0736, 7.46975, 5.84297, 59.17, -24.7511, -56.7253, 34.6768, 22.8067, 12.2971, -113.449, -119.359, 48.7862
0.02, -1, 21.0736, 7.46975, 5.84297, 59.17, -24.7511, -56.7253, 34.6768, 22.8067, 12.2971, -113.449, -119.359, 48.7862
0.024, -1, 21.0736, 7.46975, 5.84297, 59.17, -24.7511, -56.7253, 34.6768, 22.8067, 12.2971, -113.449, -119.359, 48.7862
0.028, -1, 21.0736, 7.46975, 5.84297, 59.17, -24.7511, -56.7253, 34.6768, 22.8067, 12.2971, -113.449, -119.359, 48.7862
0.032, -1, 21.0736, 7.46975, 5.84297, 59.17, -24.7511, -56.7253, 34.6768, 22.8067, 12.2971, -113.449, -119.359, 48.7862
0.036, -1, 21.0736, 7.46975, 5.84297, 59.17, -24.7511, -56.7253, 34.6768, 22.8067, 12.2971, -113.449, -119.359, 48.7862
0.04, -1, 21.0736, 7.46975, 5.84297, 59.17, -24.7511, -56.7253, 34.6768, 22.8067, 12.2971, -113.449, -119.359, 48.7862
0.044, -1, 21.0736, 7.46975, 5.84297, 59.17, -24.7511, -56.7253, 34.6767, 22.8068, 12.2971, -113.449, -119.359, 48.7862
0.048, -1, 21.0736, 7.46975, 5.84297, 59.17, -24.7511, -56.7253, 34.676, 22.8071, 12.2971, -113.449, -119.359, 48.7862
0.052, -1, 21.0736, 7.46975, 5.84297, 59.17, -24.7511, -56.7253, 34.6741, 22.808, 12.297, -113.449, -119.359, 48.7861
0.056, -1, 21.0736, 7.46975, 5.84297, 59.17, -24.7511, -56.7253, 34.6705, 22.8099, 12.2969, -113.448, -119.359, 48.7858
0.06, -1, 21.074, 7.46978, 5.84296, 59.17, -24.7511, -56.7253, 34.6648, 22.8134, 12.2968, -113.447, -119.358, 48.7852
0.064, -1, 21.075, 7.46985, 5.84294, 59.1699, -24.7512, -56.7253, 34.6568, 22.8188, 12.2968, -113.444, -119.357, 48.7838
0.068, -1, 21.0773, 7.47001, 5.84293, 59.1698, -24.7517, -56.7254, 34.6465, 22.8262, 12.297, -113.437, -119.355, 48.7812
0.072, -1, 21.0816, 7.47028, 5.843, 59.1694, -24.7528, -56.7255, 34.634, 22.8356, 12.2978, -113.427, -119.352, 48.7767
0.076, -1, 21.0885, 7.47067, 5.84327, 59.1687, -24.7555, -56.7256, 34.6195, 22.8465, 12.2994, -113.411, -119.347, 48.7697
0.08, -1, 21.0989, 7.47117, 5.84392, 59.1675, -24.7608, -56.726, 34.6032, 22.8587, 12.3021, -113.387, -119.339, 48.7592
0.084, -1, 21.1133, 7.47174, 5.8452, 59.1655, -24.77, -56.7265, 34.585, 22.8718, 12.3062, -113.353, -119.328, 48.7446
0.088, -1, 21.1321, 7.47232, 5.8474, 59.1626, -24.7845, -56.7274, 34.565, 22.8855, 12.312, -113.309, -119.314, 48.7251
0.092, -1, 21.1555, 7.47283, 5.85082, 59.1583, -24.806, -56.7288, 34.543, 22.8998, 12.3198, -113.252, -119.296, 48.7
0.096, -1, 21.1838, 7.47322, 5.85569, 59.1527, -24.8355, -56.7306, 34.5192, 22.9146, 12.3297, -113.181, -119.273, 48.6688
0.1, -1, 21.2171, 7.47346, 5.8622, 59.1454, -24.8741, -56.7329, 34.4937, 22.9299, 12.3419, -113.095, -119.246, 48.6311
0.104, -1, 21.2556, 7.47351, 5.87041, 59.1366, -24.922, -56.7358, 34.4668, 22.9457, 12.3566, -112.995, -119.214, 48.5868
0.108, -1, 21.2991, 7.47341, 5.88029, 59.1261, -24.9791, -56.7393, 34.4386, 22.9619, 12.3736, -112.879, -119.178, 48.536
0.112, -1, 21.3476, 7.47318, 5.89169, 59.1141, -25.0446, -56.7432, 34.4089, 22.9784, 12.3928, -112.749, -119.137, 48.4788
0.116, -1, 21.4008, 7.47288, 5.90441, 59.1008, -25.1175, -56.7476, 34.3775, 22.9952, 12.4142, -112.606, -119.091, 48.4158
0.12, -1, 21.4585, 7.47256, 5.91817, 59.0864, -25.1964, -56.7524, 34.3443, 23.0126, 12.4373, -112.452, -119.042, 48.3476
0.124, -1, 21.52, 7.47229, 5.9327, 59.0712, -25.2798, -56.7574, 34.3092, 23.0308, 12.462, -112.287, -118.99, 48.275
0.128, -1, 21.585, 7.47209, 5.94772, 59.0553, -25.3664, -56.7626, 34.2721, 23.0504, 12.4878, -112.114, -118.935, 48.1987
0.131, -1, 21.6529, 7.47201, 5.96303, 59.0391, -25.4549, -56.768, 34.2332, 23.0714, 12.5146, -111.934, -118.878, 48.1196
0.136, -1, 21.7229, 7.47203, 5.97846, 59.0225, -25.5445, -56.7734, 34.1925, 23.0943, 12.5419, -111.75, -118.82, 48.0384
0.139, -1, 21.7944, 7.47215, 5.99391, 59.0059, -25.6345, -56.7788, 34.1497, 23.1192, 12.5696, -111.563, -118.76, 47.9558
0.144, -1, 21.8669, 7.47234, 6.00932, 58.9892, -25.7244, -56.7843, 34.1049, 23.146, 12.5974, -111.374, -118.7, 47.8725
0.148, -1, 21.9397, 7.47258, 6.02467, 58.9726, -25.8142, -56.7897, 34.0581, 23.1742, 12.6252, -111.184, -118.64, 47.7887
0.152, -1, 22.0127, 7.47284, 6.03996, 58.9559, -25.9037, -56.7951, 34.0096, 23.2036, 12.6529, -110.993, -118.579, 47.7049
0.156, -1, 22.0855, 7.47311, 6.0552, 58.9394, -25.9929, -56.8005, 33.9596, 23.2337, 12.6806, -110.803, -118.519, 47.6211
0.16, -1, 22.1581, 7.47337, 6.07039, 58.9228, -26.0819, -56.8059, 33.9085, 23.2642, 12.7081, -110.613, -118.459, 47.5376
0.164, -1, 22.2305, 7.47364, 6.08554, 58.9063, -26.1706, -56.8113, 33.857, 23.2949, 12.7355, -110.424, -118.399, 47.4543
0.168, -1, 22.3027, 7.4739, 6.10064, 58.8899, -26.259, -56.8167, 33.8055, 23.3255, 12.7628, -110.235, -118.339, 47.3712
0.172, -1, 22.3746, 7.47416, 6.1157, 58.8735, -26.3472, -56.822, 33.7542, 23.356, 12.79, -110.047, -118.279, 47.2884
0.176, -1, 22.4464, 7.47442, 6.13071, 58.8572, -26.4351, -56.8273, 33.703, 23.3865, 12.8171, -109.86, -118.219, 47.2058
0.18, -1, 22.5179, 7.47469, 6.14568, 58.8409, -26.5227, -56.8326, 33.652, 23.4168, 12.8442, -109.673, -118.16, 47.1235
0.184, -1, 22.5892, 7.47494, 6.1606, 58.8247, -26.6101, -56.8379, 33.6011, 23.4471, 12.8712, -109.486, -118.101, 47.0414
0.188, -1, 22.6603, 7.4752, 6.17548, 58.8085, -26.6972, -56.8432, 33.5503, 23.4773, 12.8981, -109.3, -118.042, 46.9596
0.192, -1, 22.7312, 7.47546, 6.19032, 58.7924, -26.7841, -56.8485, 33.4997, 23.5074, 12.9249, -109.115, -117.983, 46.878
0.196, -1, 22.8019, 7.47572, 6.20511, 58.7763, -26.8708, -56.8537, 33.4493, 23.5374, 12.9517, -108.93, -117.924, 46.7966
0.2, -1, 22.8724, 7.47598, 6.21986, 58.7602, -26.9571, -56.8589, 33.399, 23.5673, 12.9783, -108.746, -117.866, 46.7155
0.204, -1, 22.9427, 7.47623, 6.23457, 58.7442, -27.0433, -56.8642, 33.3488, 23.5971, 13.0049, -108.562, -117.807, 46.6346
0.208, -1, 23.0128, 7.47649, 6.24924, 58.7283, -27.1291, -56.8694, 33.2988, 23.6268, 13.0314, -108.379, -117.749, 46.5539
0.212, -1, 23.0826, 7.47674, 6.26386, 58.7123, -27.2148, -56.8745, 33.2489, 23.6565, 13.0579, -108.196, -117.691, 46.4735
0.216, -1, 23.1523, 7.477, 6.27845, 58.6965, -27.3002, -56.8797, 33.1992, 23.6861, 13.0843, -108.014, -117.633, 46.3933
0.22, -1, 23.2218, 7.47725, 6.29299, 58.6807, -27.3853, -56.8849, 33.1496, 23.7155, 13.1105, -107.832, -117.576, 46.3133
0.224, -1, 23.2911, 7.4775, 6.30749, 58.6649, -27.4702, -56.89, 33.1001, 23.7449, 13.1368, -107.651, -117.518, 46.2336
0.228, -1, 23.3602, 7.47775, 6.32195, 58.6492, -27.5549, -56.8951, 33.0508, 23.7743, 13.1629, -107.471, -117.461, 46.1541
0.232, -1, 23.4291, 7.478, 6.33636, 58.6335, -27.6393, -56.9002, 33.0017, 23.8035, 13.189, -107.291, -117.403, 46.0748
0.236, -1, 23.4978, 7.47825, 6.35074, 58.6178, -27.7235, -56.9053, 32.9526, 23.8326, 13.215, -107.111, -117.346, 45.9957
0.24, -1, 23.5663, 7.4785, 6.36508, 58.6022, -27.8074, -56.9104, 32.9038, 23.8617, 13.2409, -106.932, -117.289, 45.9168
0.244, -1, 23.6346, 7.47875, 6.37938, 58.5867, -27.8912, -56.9155, 32.855, 23.8907, 13.2668, -106.753, -117.233, 45.8382
0.248, -1, 23.7028, 7.479, 6.39364, 58.5712, -27.9747, -56.9206, 32.8064, 23.9196, 13.2925, -106.575, -117.176, 45.7598
0.252, -1, 23.7707, 7.47925, 6.40786, 58.5557, -28.0579, -56.9256, 32.7579, 23.9485, 13.3182, -106.397, -117.12, 45.6816
0.256, -1, 23.8385, 7.4795, 6.42204, 58.5403, -28.141, -56.9306, 32.7095, 23.9772, 13.3439, -106.22, -117.064, 45.6036
0.26, -1, 23.906, 7.47975, 6.43618, 58.5249, -28.2238, -56.9356, 32.6613, 24.0059, 13.3695, -106.044, -117.007, 45.5258
0.264, -1, 23.9734, 7.47999, 6.45028, 58.5095, -28.3064, -56.9407, 32.6132, 24.0345, 13.395, -105.867, -116.951, 45.4482
0.268, -1, 24.0406, 7.48024, 6.46435, 58.4942, -28.3887, -56.9456, 32.5653, 24.063, 13.4204, -105.692, -116.896, 45.3709
0.272, -1, 24.1077, 7.48048, 6.47837, 58.479, -28.4708, -56.9506, 32.5174, 24.0914, 13.4458, -105.516, -116.84, 45.2937
0.276, -1, 24.1745, 7.48072, 6.49236, 58.4638, -28.5528, -56.9556, 32.4697, 24.1198, 13.471, -105.342, -116.785, 45.2168
0.28, -1, 24.2412, 7.48096, 6.50632, 58.4486, -28.6345, -56.9605, 32.4221, 24.1481, 13.4963, -105.167, -116.729, 45.1401
0.284, -1, 24.3077, 7.48121, 6.52023, 58.4334, -28.7159, -56.9655, 32.3747, 24.1763, 13.5214, -104.994, -116.674, 45.0635
0.288, -1, 24.374, 7.48145, 6.53411, 58.4183, -28.7972, -56.9704, 32.3274, 24.2044, 13.5465, -104.82, -116.619, 44.9872
0.292, -1, 24.4401, 7.48169, 6.54795, 58.4033, -28.8782, -56.9753, 32.2802, 24.2325, 13.5716, -104.647, -116.564, 44.9111
0.296, -1, 24.5061, 7.48193, 6.56175, 58.3883, -28.9591, -56.9802, 32.2331, 24.2605, 13.5965, -104.475, -116.509, 44.8352
0.3, -1, 24.5719, 7.48217, 6.57552, 58.3733, -29.0397, -56.9851, 32.1862, 24.2884, 13.6214, -104.303, -116.455, 44.7594
0.304, -1, 24.6375, 7.48241, 6.58925, 58.3584, -29.1201, -56.9899, 32.1393, 24.3162, 13.6462, -104.131, -116.4, 44.6839
0.308, -1, 24.7029, 7.48264, 6.60295, 58.3434, -29.2003, -56.9948, 32.0926, 24.344, 13.671, -103.96, -116.346, 44.6086
0.312, -1, 24.7682, 7.48288, 6.61661, 58.3286, -29.2803, -56.9996, 32.046, 24.3717, 13.6957, -103.79, -116.292, 44.5335
0.316, -1, 24.8333, 7.48312, 6.63024, 58.3138, -29.3601, -57.0045, 31.9996, 24.3993, 13.7203, -103.619, -116.238, 44.4585
0.32, -1, 24.8982, 7.48335, 6.64383, 58.299, -29.4396, -57.0093, 31.9532, 24.4269, 13.7449, -103.45, -116.184, 44.3838
0.324, -1, 24.963, 7.48359, 6.65738, 58.2842, -29.519, -57.0141, 31.907, 24.4544, 13.7694, -103.28, -116.13, 44.3092
0.328, -1, 25.0276, 7.48382, 6.6709, 58.2695, -29.5982, -57.0189, 31.8609, 24.4818, 13.7939, -103.111, -116.076, 44.2349
0.332, -1, 25.0921, 7.48406, 6.68439, 58.2549, -29.6771, -57.0237, 31.8149, 24.5091, 13.8183, -102.943, -116.023, 44.1607
0.336, -1, 25.1563, 7.48429, 6.69784, 58.2402, -29.7559, -57.0284, 31.769, 24.5364, 13.8426, -102.775, -115.969, 44.0867
0.34, -1, 25.2205, 7.48452, 6.71126, 58.2256, -29.8345, -57.0332, 31.7232, 24.5636, 13.8668, -102.607, -115.916, 44.0129
0.344, -1, 25.2844, 7.48476, 6.72465, 58.2111, -29.9129, -57.038, 31.6776, 24.5908, 13.891, -102.44, -115.863, 43.9393
0.348, -1, 25.3482, 7.48499, 6.738, 58.1965, -29.9911, -57.0427, 31.6321, 24.6178, 13.9152, -102.273, -115.81, 43.8659
0.352, -1, 25.4119, 7.48522, 6.75132, 58.182, -30.0691, -57.0474, 31.5867, 24.6448, 13.9393, -102.107, -115.757, 43.7926
0.356, -1, 25.4754, 7.48545, 6.76461, 58.1676, -30.1468, -57.0521, 31.5413, 24.6718, 13.9633, -101.941, -115.705, 43.7195
0.36, -1, 25.5387, 7.48568, 6.77786, 58.1532, -30.2245, -57.0568, 31.4962, 24.6987, 13.9873, -101.775, -115.652, 43.6466
0.364, -1, 25.6019, 7.48591, 6.79108, 58.1388, -30.3019, -57.0615, 31.4511, 24.7255, 14.0112, -101.61, -115.599, 43.5739
0.368, -1, 25.6649, 7.48614, 6.80427, 58.1244, -30.3791, -57.0662, 31.4061, 24.7522, 14.035, -101.445, -115.547, 43.5014
0.372, -1, 25.7278, 7.48637, 6.81743, 58.1101, -30.4561, -57.0709, 31.3612, 24.7789, 14.0588, -101.281, -115.495, 43.429
0.376, -1, 25.7905, 7.4866, 6.83055, 58.0958, -30.533, -57.0755, 31.3165, 24.8055, 14.0825, -101.117, -115.443, 43.3569
0.38, -1, 25.853, 7.48682, 6.84365, 58.0816, -30.6097, -57.0802, 31.2718, 24.832, 14.1062, -100.954, -115.391, 43.2848
0.384, -1, 25.9154, 7.48705, 6.85671, 58.0674, -30.6861, -57.0848, 31.2273, 24.8585, 14.1298, -100.79, -115.339, 43.213
0.388, -1, 25.9777, 7.48728, 6.86974, 58.0532, -30.7624, -57.0894, 31.1829, 24.8849, 14.1534, -100.628, -115.287, 43.1413
0.392, -1, 26.0398, 7.4875, 6.88274, 58.0391, -30.8386, -57.094, 31.1385, 24.9113, 14.1769, -100.465, -115.236, 43.0699
0.396, -1, 26.1018, 7.48773, 6.89571, 58.025, -30.9145, -57.0986, 31.0943, 24.9376, 14.2003, -100.303, -115.184, 42.9985
0.4, -1, 26.1636, 7.48795, 6.90865, 58.0109, -30.9903, -57.1032, 31.0502, 24.9638, 14.2237, -100.142, -115.133, 42.9274
0.404, -1, 26.2253, 7.48818, 6.92156, 57.9968, -31.0658, -57.1078, 31.0062, 24.99, 14.2471, -99.9803, -115.082, 42.8564
0.408, -1, 26.2868, 7.4884, 6.93443, 57.9828, -31.1412, -57.1124, 30.9623, 25.0161, 14.2703, -99.8194, -115.031, 42.7856
0.412, -1, 26.3482, 7.48862, 6.94728, 57.9689, -31.2165, -57.1169, 30.9185, 25.0421, 14.2936, -99.6589, -114.98, 42.7149
0.416, -1, 26.4095, 7.48884, 6.9601, 57.9549, -31.2915, -57.1215, 30.8748, 25.0681, 14.3168, -99.4988, -114.929, 42.6444
0.42, -1, 26.4706, 7.48907, 6.97289, 57.941, -31.3664, -57.126, 30.8312, 25.094, 14.3399, -99.3391, -114.878, 42.5741
0.424, -1, 26.5315, 7.48929, 6.98565, 57.9271, -31.4411, -57.1305, 30.7877, 25.1199, 14.3629, -99.1797, -114.828, 42.5039
0.428, -1, 26.5923, 7.48951, 6.99838, 57.9133, -31.5156, -57.135, 30.7443, 25.1457, 14.386, -99.0207, -114.777, 42.4339
0.432, -1, 26.653, 7.48973, 7.01108, 57.8995, -31.59, -57.1395, 30.701, 25.1715, 14.4089, -98.862, -114.727, 42.3641
0.436, -1, 26.7136, 7.48995, 7.02375, 57.8857, -31.6642, -57.144, 30.6578, 25.1971, 14.4318, -98.7038, -114.676, 42.2944
0.44, -1, 26.774, 7.49017, 7.03639, 57.8719, -31.7382, -57.1485, 30.6146, 25.2228, 14.4547, -98.5458, -114.626, 42.2249
0.444, -1, 26.8342, 7.49039, 7.049, 57.8582, -31.8121, -57.153, 30.5716, 25.2484, 14.4775, -98.3883, -114.576, 42.1555
0.448, -1, 26.8944, 7.49061, 7.06159, 57.8445, -31.8858, -57.1574, 30.5287, 25.2739, 14.5002, -98.2311, -114.526, 42.0863
0.452, -1, 26.9544, 7.49082, 7.07415, 57.8308, -31.9593, -57.1619, 30.4859, 25.2993, 14.523, -98.0742, -114.477, 42.0172
0.456, -1, 27.0142, 7.49104, 7.08668, 57.8172, -32.0327, -57.1663, 30.4432, 25.3247, 14.5456, -97.9177, -114.427, 41.9483
0.46, -1, 27.074, 7.49126, 7.09918, 57.8036, -32.1059, -57.1708, 30.4006, 25.3501, 14.5682, -97.7615, -114.377, 41.8796
0.464, -1, 27.1336, 7.49147, 7.11165, 57.79, -32.1789, -57.1752, 30.3581, 25.3753, 14.5908, -97.6057, -114.328, 41.811
0.468, -1, 27.193, 7.49169, 7.12409, 57.7765, -32.2518, -57.1796, 30.3156, 25.4006, 14.6133, -97.4503, -114.278, 41.7425
0.472, -1, 27.2524, 7.49191, 7.13651, 57.763, -32.3245, -57.184, 30.2733, 25.4258, 14.6357, -97.2951, -114.229, 41.6742
0.476, -1, 27.3116, 7.49212, 7.1489, 57.7495, -32.397, -57.1884, 30.231, 25.4509, 14.6581, -97.1404, -114.18, 41.6061
0.48, -1, 27.3707, 7.49234, 7.16127, 57.7361, -32.4694, -57.1928, 30.1889, 25.4759, 14.6805, -96.9859, -114.131, 41.5381
0.484, -1, 27.4296, 7.49255, 7.1736, 57.7227, -32.5417, -57.1972, 30.1468, 25.5009, 14.7028, -96.8318, -114.082, 41.4702
0.488, -1, 27.4884, 7.49276, 7.18591, 57.7093, -32.6137, -57.2015, 30.1049, 25.5259, 14.725, -96.678, -114.033, 41.4025
0.492, -1, 27.5471, 7.49298, 7.1982, 57.6959, -32.6857, -57.2059, 30.063, 25.5508, 14.7472, -96.5246, -113.984, 41.335
0.496, -1, 27.6057, 7.49319, 7.21045, 57.6826, -32.7574, -57.2102, 30.0212, 25.5756, 14.7694, -96.3715, -113.936, 41.2676
0.5, -1, 27.6641, 7.4934, 7.22268, 57.6693, -32.829, -57.2146, 29.9795, 25.6004, 14.7915, -96.2187, -113.887, 41.2003
0.504, -1, 27.7224, 7.49361, 7.23489, 57.656, -32.9005, -57.2189, 29.9379, 25.6252, 14.8136, -96.0663, -113.839, 41.1332
0.508, -1, 27.7806, 7.49382, 7.24707, 57.6427, -32.9718, -57.2232, 29.8964, 25.6499, 14.8356, -95.9142, -113.791, 41.0662
0.512, -1, 27.8387, 7.49403, 7.25922, 57.6295, -33.043, -57.2275, 29.8549, 25.6745, 14.8576, -95.7624, -113.742, 40.9994
0.516, -1, 27.8966, 7.49424, 7.27134, 57.6163, -33.114, -57.2318, 29.8136, 25.6991, 14.8795, -95.6109, -113.694, 40.9327
0.52, -1, 27.9544, 7.49445, 7.28344, 57.6032, -33.1848, -57.2361, 29.7723, 25.7236, 14.9014, -95.4597, -113.646, 40.8662
0.524, -1, 28.0121, 7.49466, 7.29552, 57.59, -33.2555, -57.2404, 29.7312, 25.7481, 14.9232, -95.3089, -113.598, 40.7998
0.528, -1, 28.0697, 7.49487, 7.30757, 57.5769, -33.3261, -57.2447, 29.6901, 25.7725, 14.945, -95.1584, -113.551, 40.7335
0.532, -1, 28.1272, 7.49508, 7.3196, 57.5638, -33.3965, -57.2489, 29.6491, 25.7969, 14.9667, -95.0082, -113.503, 40.6674
0.536, -1, 28.1845, 7.49529, 7.33159, 57.5508, -33.4667, -57.2532, 29.6082, 25.8212, 14.9884, -94.8583, -113.455, 40.6014
0.54, -1, 28.2417, 7.4955, 7.34357, 57.5378, -33.5369, -57.2574, 29.5673, 25.8455, 15.0101, -94.7087, -113.408, 40.5355
0.544, -1, 28.2988, 7.49571, 7.35552, 57.5247, -33.6068, -57.2617, 29.5266, 25.8697, 15.0317, -94.5594, -113.36, 40.4698
0.548, -1, 28.3558, 7.49591, 7.36745, 57.5118, -33.6767, -57.2659, 29.4859, 25.8939, 15.0533, -94.4104, -113.313, 40.4042
0.552, -1, 28.4127, 7.49612, 7.37935, 57.4988, -33.7464, -57.2701, 29.4453, 25.918, 15.0748, -94.2617, -113.266, 40.3388
0.556, -1, 28.4694, 7.49632, 7.39123, 57.4859, -33.8159, -57.2743, 29.4048, 25.9421, 15.0962, -94.1134, -113.219, 40.2734
0.56, -1, 28.5261, 7.49653, 7.40308, 57.473, -33.8853, -57.2785, 29.3644, 25.9661, 15.1177, -93.9653, -113.172, 40.2082
0.564, -1, 28.5826, 7.49673, 7.41491, 57.4601, -33.9546, -57.2827, 29.3241, 25.9901, 15.1391, -93.8175, -113.125, 40.1432
0.568, -1, 28.639, 7.49694, 7.42672, 57.4473, -34.0237, -57.2869, 29.2838, 26.0141, 15.1604, -93.67, -113.078, 40.0783
0.572, -1, 28.6953, 7.49714, 7.4385, 57.4345, -34.0927, -57.2911, 29.2437, 26.0379, 15.1817, -93.5229, -113.031, 40.0135
0.576, -1, 28.7515, 7.49735, 7.45026, 57.4217, -34.1616, -57.2953, 29.2036, 26.0618, 15.203, -93.376, -112.985, 39.9488
0.58, -1, 28.8076, 7.49755, 7.46199, 57.4089, -34.2303, -57.2994, 29.1636, 26.0856, 15.2242, -93.2294, -112.938, 39.8843
0.584, -1, 28.8635, 7.49776, 7.47371, 57.3962, -34.2989, -57.3036, 29.1236, 26.1093, 15.2454, -93.083, -112.892, 39.8198
0.588, -1, 28.9194, 7.49796, 7.4854, 57.3835, -34.3673, -57.3077, 29.0838, 26.133, 15.2665, -92.937, -112.845, 39.7556
0.592, -1, 28.9751, 7.49816, 7.49707, 57.3708, -34.4356, -57.3119, 29.044, 26.1567, 15.2876, -92.7913, -112.799, 39.6914
0.596, -1, 29.0308, 7.49836, 7.50871, 57.3581, -34.5038, -57.316, 29.0043, 26.1803, 15.3087, -92.6458, -112.753, 39.6273
0.6, -1, 29.0863, 7.49856, 7.52033, 57.3455, -34.5719, -57.3201, 28.9647, 26.2038, 15.3297, -92.5006, -112.707, 39.5634
0.604, -1, 29.1417, 7.49876, 7.53193, 57.3328, -34.6398, -57.3242, 28.9251, 26.2273, 15.3506, -92.3558, -112.661, 39.4996
0.608, -1, 29.197, 7.49896, 7.54351, 57.3202, -34.7076, -57.3284, 28.8857, 26.2508, 15.3716, -92.2112, -112.615, 39.436
0.612, -1, 29.2522, 7.49917, 7.55506, 57.3077, -34.7752, -57.3325, 28.8463, 26.2742, 15.3925, -92.0668, -112.569, 39.3724
0.616, -1, 29.3073, 7.49936, 7.5666, 57.2951, -34.8427, -57.3365, 28.807, 26.2976, 15.4133, -91.9227, -112.523, 39.309
0.62, -1, 29.3623, 7.49956, 7.57811, 57.2826, -34.9101, -57.3406, 28.7677, 26.3209, 15.4341, -91.779, -112.477, 39.2457
0.624, -1, 29.4172, 7.49976, 7.5896, 57.2701, -34.9774, -57.3447, 28.7285, 26.3442, 15.4549, -91.6354, -112.432, 39.1825
0.628, -1, 29.472, 7.49996, 7.60106, 57.2576, -35.0446, -57.3488, 28.6895, 26.3675, 15.4756, -91.4922, -112.386, 39.1195
0.632, -1, 29.5267, 7.50016, 7.61251, 57.2452, -35.1116, -57.3528, 28.6504, 26.3907, 15.4963, -91.3492, -112.341, 39.0565
0.636, -1, 29.5813, 7.50036, 7.62393, 57.2328, -35.1785, -57.3569, 28.6115, 26.4138, 15.517, -91.2065, -112.296, 38.9937
0.64, -1, 29.6358, 7.50056, 7.63534, 57.2204, -35.2452, -57.3609, 28.5726, 26.4369, 15.5376, -91.0641, -112.25, 38.931
0.644, -1, 29.6902, 7.50075, 7.64672, 57.208, -35.3119, -57.365, 28.5338, 26.46, 15.5582, -90.9219, -112.205, 38.8684
0.648, -1, 29.7444, 7.50095, 7.65808, 57.1956, -35.3784, -57.369, 28.4951, 26.483, 15.5787, -90.78, -112.16, 38.8059
0.652, -1, 29.7986, 7.50115, 7.66942, 57.1833, -35.4448, -57.373, 28.4564, 26.506, 15.5992, -90.6383, -112.115, 38.7435
0.656, -1, 29.8527, 7.50134, 7.68074, 57.171, -35.5111, -57.377, 28.4178, 26.529, 15.6197, -90.497, -112.07, 38.6813
0.66, -1, 29.9067, 7.50154, 7.69204, 57.1587, -35.5772, -57.381, 28.3793, 26.5519, 15.6401, -90.3558, -112.025, 38.6192
0.664, -1, 29.9606, 7.50174, 7.70331, 57.1464, -35.6433, -57.385, 28.3409, 26.5747, 15.6605, -90.215, -111.981, 38.5571
0.668, -1, 30.0144, 7.50193, 7.71457, 57.1342, -35.7092, -57.389, 28.3025, 26.5975, 15.6809, -90.0743, -111.936, 38.4952
0.672, -1, 30.068, 7.50212, 7.72581, 57.1219, -35.775, -57.393, 28.2642, 26.6203, 15.7012, -89.934, -111.891, 38.4334
0.676, -1, 30.1216, 7.50232, 7.73702, 57.1097, -35.8406, -57.397, 28.226, 26.643, 15.7215, -89.7939, -111.847, 38.3718
0.68, -1, 30.1751, 7.50251, 7.74822, 57.0975, -35.9062, -57.401, 28.1878, 26.6657, 15.7417, -89.654, -111.803, 38.3102
0.684, -1, 30.2285, 7.50271, 7.75939, 57.0854, -35.9716, -57.4049, 28.1497, 26.6884, 15.7619, -89.5144, -111.758, 38.2487
0.688, -1, 30.2818, 7.5029, 7.77055, 57.0733, -36.037, -57.4089, 28.1117, 26.711, 15.7821, -89.3751, -111.714, 38.1874
0.692, -1, 30.335, 7.50309, 7.78169, 57.0611, -36.1022, -57.4128, 28.0737, 26.7336, 15.8022, -89.236, -111.67, 38.1261
0.696, -1, 30.3881, 7.50329, 7.7928, 57.049, -36.1673, -57.4168, 28.0358, 26.7561, 15.8223, -89.0971, -111.626, 38.065
0.7, -1, 30.4412, 7.50348, 7.8039, 57.037, -36.2322, -57.4207, 27.998, 26.7786, 15.8424, -88.9585, -111.582, 38.004
0.704, -1, 30.4941, 7.50367, 7.81498, 57.0249, -36.2971, -57.4246, 27.9602, 26.8011, 15.8624, -88.8202, -111.538, 37.9431
0.708, -1, 30.5469, 7.50386, 7.82603, 57.0129, -36.3618, -57.4285, 27.9225, 26.8235, 15.8824, -88.682, -111.494, 37.8823
0.712, -1, 30.5997, 7.50405, 7.83707, 57.0009, -36.4265, -57.4325, 27.8849, 26.8458, 15.9024, -88.5442, -111.45, 37.8216
0.716, -1, 30.6523, 7.50424, 7.84809, 56.9889, -36.491, -57.4364, 27.8473, 26.8682, 15.9223, -88.4065, -111.406, 37.761
0.72, -1, 30.7049, 7.50443, 7.85909, 56.9769, -36.5554, -57.4403, 27.8098, 26.8905, 15.9422, -88.2691, -111.363, 37.7005
0.724, -1, 30.7573, 7.50462, 7.87007, 56.965, -36.6197, -57.4442, 27.7724, 26.9127, 15.962, -88.132, -111.319, 37.6401
0.728, -1, 30.8097, 7.50481, 7.88103, 56.9531, -36.6839, -57.4481, 27.735, 26.9349, 15.9818, -87.995, -111.276, 37.5798
0.732, -1, 30.862, 7.505, 7.89198, 56.9412, -36.7479, -57.4519, 27.6977, 26.9571, 16.0016, -87.8583, -111.232, 37.5196
0.736, -1, 30.9142, 7.50519, 7.9029, 56.9293, -36.8119, -57.4558, 27.6605, 26.9793, 16.0214, -87.7219, -111.189, 37.4596
0.74, -1, 30.9663, 7.50538, 7.9138, 56.9174, -36.8758, -57.4597, 27.6233, 27.0014, 16.0411, -87.5857, -111.146, 37.3996
0.744, -1, 31.0183, 7.50557, 7.92469, 56.9056, -36.9395, -57.4635, 27.5862, 27.0234, 16.0608, -87.4497, -111.103, 37.3397
0.748, -1, 31.0702, 7.50576, 7.93556, 56.8938, -37.0031, -57.4674, 27.5492, 27.0455, 16.0804, -87.3139, -111.059, 37.2799
0.752, -1, 31.1221, 7.50595, 7.94641, 56.8819, -37.0667, -57.4712, 27.5122, 27.0675, 16.1, -87.1784, -111.016, 37.2203
0.756, -1, 31.1738, 7.50613, 7.95724, 56.8702, -37.1301, -57.4751, 27.4753, 27.0894, 16.1196, -87.0431, -110.973, 37.1607
0.76, -1, 31.2255, 7.50632, 7.96805, 56.8584, -37.1934, -57.4789, 27.4384, 27.1113, 16.1392, -86.908, -110.931, 37.1012
0.764, -1, 31.2771, 7.50651, 7.97885, 56.8467, -37.2566, -57.4827, 27.4016, 27.1332, 16.1587, -86.7732, -110.888, 37.0419
0.768, -1, 31.3286, 7.5067, 7.98963, 56.8349, -37.3197, -57.4866, 27.3649, 27.155, 16.1782, -86.6385, -110.845, 36.9826
0.772, -1, 31.38, 7.50688, 8.00039, 56.8232, -37.3827, -57.4904, 27.3282, 27.1769, 16.1976, -86.5042, -110.802, 36.9235
0.776, -1, 31.4313, 7.50707, 8.01113, 56.8115, -37.4456, -57.4942, 27.2916, 27.1986, 16.217, -86.37, -110.76, 36.8644
0.78, -1, 31.4825, 7.50725, 8.02185, 56.7999, -37.5084, -57.498, 27.255, 27.2204, 16.2364, -86.236, -110.717, 36.8054
0.784, -1, 31.5337, 7.50744, 8.03256, 56.7882, -37.5711, -57.5018, 27.2185, 27.2421, 16.2558, -86.1023, -110.675, 36.7465
0.788, -1, 31.5847, 7.50762, 8.04324, 56.7766, -37.6337, -57.5056, 27.1821, 27.2637, 16.2751, -85.9688, -110.632, 36.6878
0.792, -1, 31.6357, 7.50781, 8.05392, 56.765, -37.6961, -57.5094, 27.1457, 27.2853, 16.2944, -85.8355, -110.59, 36.6291
0.796, -1, 31.6866, 7.50799, 8.06457, 56.7534, -37.7585, -57.5131, 27.1094, 27.3069, 16.3137, -85.7024, -110.548, 36.5705
0.8, -1, 31.7374, 7.50818, 8.0752, 56.7418, -37.8208, -57.5169, 27.0732, 27.3285, 16.3329, -85.5696, -110.505, 36.512
0.804, -1, 31.7882, 7.50836, 8.08582, 56.7303, -37.883, -57.5207, 27.037, 27.35, 16.3521, -85.4369, -110.463, 36.4536
0.808, -1, 31.8388, 7.50855, 8.09642, 56.7188, -37.945, -57.5244, 27.0008, 27.3715, 16.3713, -85.3045, -110.421, 36.3953
0.812, -1, 31.8894, 7.50873, 8.10701, 56.7072, -38.007, -57.5282, 26.9647, 27.393, 16.3904, -85.1723, -110.379, 36.3371
0.816, -1, 31.9399, 7.50891, 8.11758, 56.6957, -38.0689, -57.5319, 26.9287, 27.4144, 16.4095, -85.0403, -110.337, 36.279
0.82, -1, 31.9903, 7.50909, 8.12813, 56.6843, -38.1307, -57.5357, 26.8928, 27.4358, 16.4286, -84.9085, -110.296, 36.221
0.824, -1, 32.0406, 7.50928, 8.13866, 56.6728, -38.1923, -57.5394, 26.8569, 27.4571, 16.4476, -84.777, -110.254, 36.163
0.828, -1, 32.0909, 7.50946, 8.14918, 56.6614, -38.2539, -57.5431, 26.821, 27.4784, 16.4666, -84.6456, -110.212, 36.1052
0.832, -1, 32.141, 7.50964, 8.15968, 56.6499, -38.3154, -57.5469, 26.7852, 27.4997, 16.4856, -84.5144, -110.17, 36.0475
0.836, -1, 32.1911, 7.50982, 8.17016, 56.6385, -38.3768, -57.5506, 26.7495, 27.521, 16.5046, -84.3835, -110.129, 35.9898
0.84, -1, 32.2411, 7.51, 8.18063, 56.6272, -38.4381, -57.5543, 26.7138, 27.5422, 16.5235, -84.2527, -110.087, 35.9322
0.844, -1, 32.2911, 7.51018, 8.19108, 56.6158, -38.4993, -57.558, 26.6782, 27.5634, 16.5424, -84.1222, -110.046, 35.8748
0.848, -1, 32.3409, 7.51037, 8.20151, 56.6044, -38.5604, -57.5617, 26.6426, 27.5845, 16.5613, -83.9919, -110.004, 35.8174
0.852, -1, 32.3907, 7.51055, 8.21193, 56.5931, -38.6214, -57.5654, 26.6071, 27.6056, 16.5801, -83.8617, -109.963, 35.7601
0.856, -1, 32.4404, 7.51073, 8.22233, 56.5818, -38.6823, -57.5691, 26.5716, 27.6267, 16.5989, -83.7318, -109.922, 35.7029
0.86, -1, 32.49, 7.51091, 8.23272, 56.5705, -38.7431, -57.5728, 26.5362, 27.6477, 16.6177, -83.6021, -109.881, 35.6458
0.864, -1, 32.5396, 7.51109, 8.24309, 56.5592, -38.8038, -57.5764, 26.5009, 27.6688, 16.6364, -83.4725, -109.839, 35.5888
0.868, -1, 32.589, 7.51127, 8.25344, 56.5479, -38.8644, -57.5801, 26.4656, 27.6898, 16.6552, -83.3432, -109.798, 35.5318
0.872, -1, 32.6384, 7.51145, 8.26378, 56.5367, -38.9249, -57.5838, 26.4304, 27.7107, 16.6738, -83.2141, -109.757, 35.475
0.876, -1, 32.6877, 7.51162, 8.2741, 56.5255, -38.9854, -57.5874, 26.3952, 27.7316, 16.6925, -83.0851, -109.716, 35.4182
0.88, -1, 32.737, 7.5118, 8.28441, 56.5143, -39.0457, -57.5911, 26.36, 27.7525, 16.7111, -82.9564, -109.676, 35.3615
0.884, -1, 32.7862, 7.51198, 8.2947, 56.5031, -39.106, -57.5947, 26.325, 27.7734, 16.7297, -82.8279, -109.635, 35.3049
0.888, -1, 32.8353, 7.51216, 8.30497, 56.4919, -39.1661, -57.5984, 26.2899, 27.7942, 16.7483, -82.6995, -109.594, 35.2484
0.892, -1, 32.8843, 7.51234, 8.31523, 56.4807, -39.2262, -57.602, 26.2549, 27.815, 16.7669, -82.5713, -109.553, 35.192
0.896, -1, 32.9332, 7.51251, 8.32548, 56.4696, -39.2862, -57.6057, 26.22, 27.8358, 16.7854, -82.4434, -109.513, 35.1357
0.9, -1, 32.9821, 7.51269, 8.33571, 56.4584, -39.3461, -57.6093, 26.1852, 27.8565, 16.8039, -82.3156, -109.472, 35.0794
0.904, -1, 33.0309, 7.51287, 8.34592, 56.4473, -39.4059, -57.6129, 26.1503, 27.8772, 16.8224, -82.188, -109.432, 35.0232
0.908, -1, 33.0796, 7.51304, 8.35612, 56.4362, -39.4656, -57.6165, 26.1156, 27.8979, 16.8408, -82.0606, -109.391, 34.9671
0.912, -1, 33.1283, 7.51322, 8.36631, 56.4252, -39.5253, -57.6201, 26.0809, 27.9185, 16.8592, -81.9334, -109.351, 34.9111
0.916, -1, 33.1769, 7.5134, 8.37648, 56.4141, -39.5848, -57.6238, 26.0462, 27.9391, 16.8776, -81.8064, -109.31, 34.8552
0.92, -1, 33.2254, 7.51357, 8.38663, 56.403, -39.6443, -57.6273, 26.0116, 27.9597, 16.896, -81.6795, -109.27, 34.7994
0.924, -1, 33.2738, 7.51375, 8.39677, 56.392, -39.7036, -57.6309, 25.977, 27.9803, 16.9143, -81.5528, -109.23, 34.7436
0.928, -1, 33.3222, 7.51392, 8.4069, 56.381, -39.7629, -57.6345, 25.9425, 28.0008, 16.9326, -81.4264, -109.19, 34.6879
0.932, -1, 33.3705, 7.5141, 8.41701, 56.37, -39.8221, -57.6381, 25.908, 28.0213, 16.9509, -81.3001, -109.15, 34.6323
0.936, -1, 33.4188, 7.51427, 8.4271, 56.359, -39.8812, -57.6417, 25.8736, 28.0417, 16.9691, -81.174, -109.11, 34.5768
0.94, -1, 33.4669, 7.51445, 8.43719, 56.3481, -39.9403, -57.6453, 25.8393, 28.0622, 16.9874, -81.048, -109.07, 34.5214
0.944, -1, 33.515, 7.51462, 8.44725, 56.3371, -39.9992, -57.6488, 25.8049, 28.0826, 17.0056, -80.9223, -109.03, 34.466
0.948, -1, 33.5631, 7.5148, 8.45731, 56.3262, -40.0581, -57.6524, 25.7707, 28.1029, 17.0237, -80.7967, -108.99, 34.4107
0.952, -1, 33.611, 7.51497, 8.46734, 56.3152, -40.1169, -57.656, 25.7365, 28.1233, 17.0419, -80.6713, -108.95, 34.3555
0.956, -1, 33.6589, 7.51514, 8.47737, 56.3043, -40.1756, -57.6595, 25.7023, 28.1436, 17.06, -80.5461, -108.91, 34.3004
0.96, -1, 33.7068, 7.51532, 8.48738, 56.2935, -40.2342, -57.6631, 25.6682, 28.1639, 17.0781, -80.4211, -108.87, 34.2453
0.964, -1, 33.7545, 7.51549, 8.49738, 56.2826, -40.2927, -57.6666, 25.6341, 28.1842, 17.0962, -80.2962, -108.831, 34.1904
0.968, -1, 33.8022, 7.51566, 8.50736, 56.2717, -40.3512, -57.6702, 25.6001, 28.2044, 17.1142, -80.1715, -108.791, 34.1355
0.972, -1, 33.8498, 7.51584, 8.51733, 56.2609, -40.4095, -57.6737, 25.5661, 28.2246, 17.1323, -80.047, -108.752, 34.0807
0.976, -1, 33.8974, 7.51601, 8.52728, 56.25, -40.4678, -57.6772, 25.5322, 28.2448, 17.1503, -79.9227, -108.712, 34.0259
0.98, -1, 33.9449, 7.51618, 8.53722, 56.2392, -40.526, -57.6808, 25.4983, 28.2649, 17.1682, -79.7985, -108.673, 33.9712
0.984, -1, 33.9923, 7.51635, 8.54715, 56.2284, -40.5841, -57.6843, 25.4645, 28.285, 17.1862, -79.6745, -108.633, 33.9167
0.988, -1, 34.0397, 7.51652, 8.55706, 56.2177, -40.6422, -57.6878, 25.4307, 28.3051, 17.2041, -79.5507, -108.594, 33.8621
0.992, -1, 34.087, 7.5167, 8.56696, 56.2069, -40.7001, -57.6913, 25.3969, 28.3252, 17.222, -79.427, -108.555, 33.8077
0.996, -1, 34.1342, 7.51687, 8.57685, 56.1961, -40.758, -57.6948, 25.3632, 28.3452, 17.2399, -79.3035, -108.516, 33.7533
1, -1, 34.1814, 7.51704, 8.58672, 56.1854, -40.8158, -57.6983, 25.3296, 28.3652, 17.2577, -79.1802, -108.476, 33.699
1.004, -1, 34.2285, 7.51721, 8.59658, 56.1747, -40.8736, -57.7018, 25.296, 28.3852, 17.2755, -79.0571, -108.437, 33.6448
1.008, -1, 34.2755, 7.51738, 8.60642, 56.164, -40.9312, -57.7053, 25.2624, 28.4052, 17.2933, -78.9341, -108.398, 33.5907
1.012, -1, 34.3225, 7.51755, 8.61625, 56.1533, -40.9888, -57.7088, 25.2289, 28.4251, 17.3111, -78.8113, -108.359, 33.5366
1.016, -1, 34.3694, 7.51772, 8.62607, 56.1426, -41.0463, -57.7123, 25.1954, 28.445, 17.3289, -78.6886, -108.32, 33.4826
1.02, -1, 34.4163, 7.51789, 8.63588, 56.1319, -41.1037, -57.7157, 25.162, 28.4649, 17.3466, -78.5661, -108.281, 33.4287
1.024, -1, 34.463, 7.51806, 8.64567, 56.1213, -41.161, -57.7192, 25.1286, 28.4847, 17.3643, -78.4438, -108.243, 33.3748
1.027, -1, 34.5098, 7.51823, 8.65545, 56.1106, -41.2183, -57.7227, 25.0953, 28.5045, 17.382, -78.3217, -108.204, 33.3211
1.032, -1, 34.5564, 7.5184, 8.66522, 56.1, -41.2755, -57.7261, 25.062, 28.5243, 17.3996, -78.1997, -108.165, 33.2674
1.036, -1, 34.603, 7.51856, 8.67497, 56.0894, -41.3326, -57.7296, 25.0288, 28.5441, 17.4173, -78.0779, -108.126, 33.2137
1.04, -1, 34.6496, 7.51873, 8.68471, 56.0788, -41.3896, -57.7331, 24.9956, 28.5638, 17.4349, -77.9562, -108.088, 33.1602
1.044, -1, 34.696, 7.5189, 8.69444, 56.0682, -41.4466, -57.7365, 24.9624, 28.5835, 17.4525, -77.8347, -108.049, 33.1067
1.048, -1, 34.7425, 7.51907, 8.70415, 56.0576, -41.5034, -57.74, 24.9293, 28.6032, 17.47, -77.7133, -108.011, 33.0532
1.052, -1, 34.7888, 7.51924, 8.71386, 56.0471, -41.5602, -57.7434, 24.8962, 28.6229, 17.4876, -77.5922, -107.972, 32.9999
1.055, -1, 34.8351, 7.51941, 8.72355, 56.0365, -41.617, -57.7468, 24.8632, 28.6425, 17.5051, -77.4711, -107.934, 32.9466
1.06, -1, 34.8813, 7.51957, 8.73322, 56.026, -41.6736, -57.7503, 24.8302, 28.6621, 17.5226, -77.3503, -107.895, 32.8934
1.064, -1, 34.9275, 7.51974, 8.74289, 56.0155, -41.7302, -57.7537, 24.7973, 28.6817, 17.5401, -77.2295, -107.857, 32.8402
1.068, -1, 34.9736, 7.51991, 8.75254, 56.005, -41.7867, -57.7571, 24.7644, 28.7013, 17.5575, -77.109, -107.819, 32.7872
1.072, -1, 35.0197, 7.52007, 8.76218, 55.9945, -41.8432, -57.7605, 24.7315, 28.7208, 17.5749, -76.9886, -107.78, 32.7342
1.076, -1, 35.0657, 7.52024, 8.7718, 55.984, -41.8995, -57.7639, 24.6987, 28.7403, 17.5924, -76.8683, -107.742, 32.6812
1.08, -1, 35.1116, 7.52041, 8.78142, 55.9736, -41.9558, -57.7674, 24.666, 28.7598, 17.6097, -76.7482, -107.704, 32.6284
1.084, -1, 35.1575, 7.52057, 8.79102, 55.9631, -42.0121, -57.7708, 24.6332, 28.7793, 17.6271, -76.6283, -107.666, 32.5756
1.088, -1, 35.2033, 7.52074, 8.80061, 55.9527, -42.0682, -57.7742, 24.6006, 28.7987, 17.6444, -76.5085, -107.628, 32.5228
1.091, -1, 35.2491, 7.52091, 8.81019, 55.9423, -42.1243, -57.7776, 24.5679, 28.8181, 17.6618, -76.3889, -107.59, 32.4701
1.096, -1, 35.2948, 7.52107, 8.81975, 55.9319, -42.1803, -57.7809, 24.5353, 28.8375, 17.679, -76.2694, -107.552, 32.4175
1.1, -1, 35.3404, 7.52124, 8.82931, 55.9215, -42.2362, -57.7843, 24.5027, 28.8569, 17.6963, -76.1501, -107.514, 32.365
1.104, -1, 35.386, 7.5214, 8.83885, 55.9111, -42.2921, -57.7877, 24.4702, 28.8762, 17.7136, -76.0309, -107.476, 32.3125
1.108, -1, 35.4315, 7.52157, 8.84838, 55.9007, -42.3479, -57.7911, 24.4378, 28.8955, 17.7308, -75.9119, -107.438, 32.2601
1.112, -1, 35.477, 7.52173, 8.85789, 55.8904, -42.4036, -57.7945, 24.4053, 28.9148, 17.748, -75.793, -107.401, 32.2078
1.116, -1, 35.5224, 7.5219, 8.8674, 55.8801, -42.4593, -57.7978, 24.3729, 28.9341, 17.7652, -75.6743, -107.363, 32.1555
1.119, -1, 35.5678, 7.52206, 8.87689, 55.8697, -42.5149, -57.8012, 24.3406, 28.9533, 17.7824, -75.5557, -107.325, 32.1033
1.124, -1, 35.6131, 7.52222, 8.88637, 55.8594, -42.5704, -57.8046, 24.3082, 28.9725, 17.7995, -75.4373, -107.288, 32.0512
1.128, -1, 35.6583, 7.52239, 8.89584, 55.8491, -42.6258, -57.8079, 24.276, 28.9917, 17.8166, -75.319, -107.25, 31.9991
1.132, -1, 35.7035, 7.52255, 8.9053, 55.8388, -42.6812, -57.8113, 24.2437, 29.0109, 17.8337, -75.2008, -107.213, 31.9471
1.136, -1, 35.7486, 7.52272, 8.91475, 55.8285, -42.7365, -57.8146, 24.2115, 29.03, 17.8508, -75.0828, -107.175, 31.8952
1.14, -1, 35.7937, 7.52288, 8.92418, 55.8183, -42.7918, -57.818, 24.1794, 29.0491, 17.8679, -74.965, -107.138, 31.8433
1.144, -1, 35.8387, 7.52304, 8.93361, 55.808, -42.8469, -57.8213, 24.1473, 29.0682, 17.8849, -74.8473, -107.1, 31.7915
1.147, -1, 35.8837, 7.5232, 8.94302, 55.7978, -42.902, -57.8247, 24.1152, 29.0873, 17.9019, -74.7297, -107.063, 31.7397
1.152, -1, 35.9286, 7.52337, 8.95242, 55.7876, -42.9571, -57.828, 24.0831, 29.1064, 17.9189, -74.6123, -107.026, 31.688
1.156, -1, 35.9735, 7.52353, 8.96181, 55.7774, -43.012, -57.8313, 24.0511, 29.1254, 17.9359, -74.495, -106.988, 31.6364
1.16, -1, 36.0183, 7.52369, 8.97118, 55.7672, -43.067, -57.8346, 24.0192, 29.1444, 17.9528, -74.3779, -106.951, 31.5848
1.164, -1, 36.063, 7.52385, 8.98055, 55.757, -43.1218, -57.838, 23.9873, 29.1634, 17.9698, -74.2609, -106.914, 31.5333
1.168, -1, 36.1077, 7.52402, 8.9899, 55.7468, -43.1766, -57.8413, 23.9554, 29.1823, 17.9867, -74.1441, -106.877, 31.4819
1.172, -1, 36.1524, 7.52418, 8.99925, 55.7366, -43.2313, -57.8446, 23.9235, 29.2013, 18.0036, -74.0274, -106.84, 31.4305
1.175, -1, 36.1969, 7.52434, 9.00858, 55.7265, -43.2859, -57.8479, 23.8917, 29.2202, 18.0204, -73.9108, -106.803, 31.3792
1.18, -1, 36.2415, 7.5245, 9.0179, 55.7163, -43.3405, -57.8512, 23.86, 29.2391, 18.0373, -73.7944, -106.766, 31.3279
1.184, -1, 36.286, 7.52466, 9.02721, 55.7062, -43.395, -57.8545, 23.8282, 29.2579, 18.0541, -73.6781, -106.729, 31.2767
1.188, -1, 36.3304, 7.52482, 9.03651, 55.6961, -43.4495, -57.8578, 23.7965, 29.2768, 18.0709, -73.5619, -106.692, 31.2256
1.192, -1, 36.3748, 7.52498, 9.0458, 55.686, -43.5038, -57.8611, 23.7649, 29.2956, 18.0877, -73.4459, -106.655, 31.1745
1.196, -1, 36.4191, 7.52514, 9.05507, 55.6759, -43.5582, -57.8644, 23.7333, 29.3144, 18.1045, -73.33, -106.619, 31.1235
1.2, -1, 36.4634, 7.5253, 9.06434, 55.6658, -43.6124, -57.8677, 23.7017, 29.3332, 18.1213, -73.2143, -106.582, 31.0725
1.204, -1, 36.5076, 7.52546, 9.0736, 55.6557, -43.6666, -57.871, 23.6701, 29.3519, 18.138, -73.0987, -106.545, 31.0216
1.208, -1, 36.5517, 7.52562, 9.08284, 55.6457, -43.7207, -57.8742, 23.6386, 29.3707, 18.1547, -72.9832, -106.508, 30.9708
1.212, -1, 36.5959, 7.52578, 9.09207, 55.6356, -43.7748, -57.8775, 23.6072, 29.3894, 18.1714, -72.8679, -106.472, 30.92
1.216, -1, 36.6399, 7.52594, 9.1013, 55.6256, -43.8288, -57.8808, 23.5757, 29.4081, 18.1881, -72.7527, -106.435, 30.8693
1.22, -1, 36.6839, 7.5261, 9.11051, 55.6156, -43.8827, -57.8841, 23.5443, 29.4268, 18.2047, -72.6376, -106.399, 30.8186
1.224, -1, 36.7279, 7.52626, 9.11971, 55.6056, -43.9366, -57.8873, 23.513, 29.4454, 18.2214, -72.5227, -106.362, 30.768
1.228, -1, 36.7718, 7.52642, 9.1289, 55.5956, -43.9904, -57.8906, 23.4816, 29.464, 18.238, -72.4079, -106.326, 30.7175
1.232, -1, 36.8157, 7.52658, 9.13808, 55.5856, -44.0442, -57.8938, 23.4504, 29.4826, 18.2546, -72.2932, -106.289, 30.667
1.236, -1, 36.8595, 7.52674, 9.14725, 55.5756, -44.0979, -57.8971, 23.4191, 29.5012, 18.2712, -72.1787, -106.253, 30.6166
1.24, -1, 36.9032, 7.5269, 9.15641, 55.5657, -44.1515, -57.9003, 23.3879, 29.5198, 18.2877, -72.0643, -106.217, 30.5662
1.244, -1, 36.9469, 7.52706, 9.16556, 55.5557, -44.2051, -57.9036, 23.3567, 29.5383, 18.3043, -71.95, -106.18, 30.5159
1.248, -1, 36.9906, 7.52721, 9.1747, 55.5458, -44.2586, -57.9068, 23.3256, 29.5568, 18.3208, -71.8359, -106.144, 30.4657
1.252, -1, 37.0342, 7.52737, 9.18382, 55.5358, -44.312, -57.9101, 23.2944, 29.5753, 18.3373, -71.7218, -106.108, 30.4155
1.256, -1, 37.0778, 7.52753, 9.19294, 55.5259, -44.3654, -57.9133, 23.2634, 29.5938, 18.3538, -71.608, -106.072, 30.3653
1.26, -1, 37.1213, 7.52769, 9.20205, 55.516, -44.4187, -57.9165, 23.2323, 29.6123, 18.3702, -71.4942, -106.036, 30.3152
1.264, -1, 37.1648, 7.52784, 9.21114, 55.5061, -44.472, -57.9197, 23.2013, 29.6307, 18.3867, -71.3806, -105.999, 30.2652
1.267, -1, 37.2082, 7.528, 9.22023, 55.4962, -44.5252, -57.923, 23.1703, 29.6491, 18.4031, -71.2671, -105.963, 30.2152
1.272, -1, 37.2515, 7.52816, 9.22931, 55.4864, -44.5783, -57.9262, 23.1394, 29.6675, 18.4195, -71.1537, -105.927, 30.1653
1.276, -1, 37.2949, 7.52832, 9.23838, 55.4765, -44.6314, -57.9294, 23.1085, 29.6859, 18.4359, -71.0404, -105.891, 30.1155
1.28, -1, 37.3381, 7.52847, 9.24743, 55.4666, -44.6845, -57.9326, 23.0776, 29.7042, 18.4523, -70.9273, -105.855, 30.0657
1.284, -1, 37.3814, 7.52863, 9.25648, 55.4568, -44.7374, -57.9358, 23.0468, 29.7226, 18.4687, -70.8143, -105.82, 30.0159
1.288, -1, 37.4245, 7.52879, 9.26552, 55.447, -44.7903, -57.939, 23.016, 29.7409, 18.485, -70.7014, -105.784, 29.9662
1.292, -1, 37.4677, 7.52894, 9.27454, 55.4371, -44.8432, -57.9422, 22.9852, 29.7592, 18.5013, -70.5886, -105.748, 29.9166
1.295, -1, 37.5107, 7.5291, 9.28356, 55.4273, -44.896, -57.9454, 22.9545, 29.7775, 18.5176, -70.476, -105.712, 29.867
1.3, -1, 37.5538, 7.52925, 9.29257, 55.4175, -44.9487, -57.9486, 22.9238, 29.7957, 18.5339, -70.3635, -105.676, 29.8174
1.304, -1, 37.5968, 7.52941, 9.30157, 55.4077, -45.0014, -57.9518, 22.8931, 29.814, 18.5502, -70.2511, -105.641, 29.768
1.308, -1, 37.6397, 7.52956, 9.31056, 55.398, -45.0541, -57.955, 22.8625, 29.8322, 18.5664, -70.1388, -105.605, 29.7185
1.312, -1, 37.6826, 7.52972, 9.31954, 55.3882, -45.1066, -57.9582, 22.8319, 29.8504, 18.5827, -70.0267, -105.569, 29.6692
1.316, -1, 37.7255, 7.52988, 9.32851, 55.3784, -45.1591, -57.9614, 22.8013, 29.8685, 18.5989, -69.9146, -105.534, 29.6198
1.32, -1, 37.7683, 7.53003, 9.33746, 55.3687, -45.2116, -57.9645, 22.7708, 29.8867, 18.6151, -69.8027, -105.498, 29.5706
1.324, -1, 37.811, 7.53019, 9.34641, 55.359, -45.264, -57.9677, 22.7403, 29.9048, 18.6313, -69.6909, -105.463, 29.5213
1.328, -1, 37.8538, 7.53034, 9.35535, 55.3492, -45.3164, -57.9709, 22.7098, 29.923, 18.6474, -69.5793, -105.427, 29.4722
1.332, -1, 37.8964, 7.53049, 9.36429, 55.3395, -45.3687, -57.9741, 22.6794, 29.9411, 18.6636, -69.4677, -105.392, 29.4231
1.336, -1, 37.939, 7.53065, 9.37321, 55.3298, -45.4209, -57.9772, 22.649, 29.9591, 18.6797, -69.3563, -105.357, 29.374
1.34, -1, 37.9816, 7.5308, 9.38212, 55.3201, -45.4731, -57.9804, 22.6186, 29.9772, 18.6958, -69.2449, -105.321, 29.325
1.344, -1, 38.0242, 7.53096, 9.39102, 55.3104, -45.5252, -57.9835, 22.5883, 29.9952, 18.7119, -69.1338, -105.286, 29.276
1.348, -1, 38.0667, 7.53111, 9.39992, 55.3008, -45.5773, -57.9867, 22.5579, 30.0133, 18.728, -69.0227, -105.251, 29.2271
1.352, -1, 38.1091, 7.53126, 9.4088, 55.2911, -45.6293, -57.9898, 22.5277, 30.0313, 18.744, -68.9117, -105.215, 29.1783
1.356, -1, 38.1515, 7.53142, 9.41768, 55.2814, -45.6813, -57.993, 22.4974, 30.0493, 18.7601, -68.8008, -105.18, 29.1295
1.36, -1, 38.1939, 7.53157, 9.42654, 55.2718, -45.7332, -57.9961, 22.4672, 30.0672, 18.7761, -68.6901, -105.145, 29.0807
1.364, -1, 38.2362, 7.53172, 9.4354, 55.2622, -45.785, -57.9993, 22.437, 30.0852, 18.7921, -68.5795, -105.11, 29.032
1.368, -1, 38.2784, 7.53188, 9.44425, 55.2525, -45.8368, -58.0024, 22.4069, 30.1031, 18.8081, -68.4689, -105.075, 28.9834
1.372, -1, 38.3207, 7.53203, 9.45308, 55.2429, -45.8886, -58.0055, 22.3767, 30.121, 18.8241, -68.3586, -105.04, 28.9348
1.376, -1, 38.3629, 7.53218, 9.46191, 55.2333, -45.9403, -58.0087, 22.3467, 30.1389, 18.8401, -68.2483, -105.005, 28.8862
1.38, -1, 38.405, 7.53234, 9.47073, 55.2237, -45.9919, -58.0118, 22.3166, 30.1568, 18.856, -68.1381, -104.97, 28.8377
1.384, -1, 38.4471, 7.53249, 9.47954, 55.2141, -46.0435, -58.0149, 22.2866, 30.1746, 18.8719, -68.028, -104.935, 28.7892
1.388, -1, 38.4892, 7.53264, 9.48835, 55.2046, -46.0951, -58.0181, 22.2566, 30.1925, 18.8879, -67.9181, -104.9, 28.7408
1.392, -1, 38.5312, 7.53279, 9.49714, 55.195, -46.1465, -58.0212, 22.2266, 30.2103, 18.9038, -67.8083, -104.865, 28.6925
1.396, -1, 38.5731, 7.53294, 9.50593, 55.1854, -46.198, -58.0243, 22.1967, 30.2281, 18.9196, -67.6985, -104.83, 28.6442
1.4, -1, 38.6151, 7.5331, 9.5147, 55.1759, -46.2494, -58.0274, 22.1668, 30.2459, 18.9355, -67.5889, -104.795, 28.5959
1.404, -1, 38.6569, 7.53325, 9.52347, 55.1664, -46.3007, -58.0305, 22.1369, 30.2636, 18.9514, -67.4794, -104.761, 28.5477
1.408, -1, 38.6988, 7.5334, 9.53223, 55.1568, -46.352, -58.0336, 22.107, 30.2814, 18.9672, -67.37, -104.726, 28.4995
1.412, -1, 38.7406, 7.53355, 9.54098, 55.1473, -46.4032, -58.0367, 22.0772, 30.2991, 18.983, -67.2607, -104.691, 28.4514
1.416, -1, 38.7823, 7.5337, 9.54972, 55.1378, -46.4544, -58.0398, 22.0474, 30.3168, 18.9988, -67.1516, -104.656, 28.4034
1.42, -1, 38.8241, 7.53385, 9.55845, 55.1283, -46.5055, -58.0429, 22.0177, 30.3345, 19.0146, -67.0425, -104.622, 28.3554
1.424, -1, 38.8657, 7.534, 9.56717, 55.1188, -46.5566, -58.046, 21.9879, 30.3522, 19.0304, -66.9335, -104.587, 28.3074
1.428, -1, 38.9074, 7.53416, 9.57589, 55.1093, -46.6076, -58.0491, 21.9582, 30.3699, 19.0461, -66.8247, -104.553, 28.2595
1.432, -1, 38.949, 7.53431, 9.58459, 55.0999, -46.6586, -58.0522, 21.9286, 30.3875, 19.0619, -66.716, -104.518, 28.2116
1.436, -1, 38.9905, 7.53446, 9.59329, 55.0904, -46.7095, -58.0553, 21.8989, 30.4051, 19.0776, -66.6073, -104.484, 28.1638
1.44, -1, 39.032, 7.53461, 9.60198, 55.081, -46.7604, -58.0583, 21.8693, 30.4227, 19.0933, -66.4988, -104.449, 28.116
1.444, -1, 39.0735, 7.53476, 9.61066, 55.0715, -46.8112, -58.0614, 21.8397, 30.4403, 19.109, -66.3904, -104.415, 28.0682
1.448, -1, 39.1149, 7.53491, 9.61933, 55.0621, -46.862, -58.0645, 21.8102, 30.4579, 19.1247, -66.2821, -104.38, 28.0206
1.452, -1, 39.1563, 7.53506, 9.628, 55.0527, -46.9127, -58.0676, 21.7806, 30.4755, 19.1403, -66.1738, -104.346, 27.9729
1.456, -1, 39.1977, 7.53521, 9.63665, 55.0432, -46.9634, -58.0706, 21.7512, 30.493, 19.156, -66.0657, -104.312, 27.9253
1.46, -1, 39.239, 7.53536, 9.6453, 55.0338, -47.014, -58.0737, 21.7217, 30.5105, 19.1716, -65.9577, -104.277, 27.8778
1.464, -1, 39.2803, 7.53551, 9.65393, 55.0244, -47.0646, -58.0768, 21.6922, 30.528, 19.1872, -65.8498, -104.243, 27.8303
1.468, -1, 39.3215, 7.53565, 9.66256, 55.015, -47.1151, -58.0798, 21.6628, 30.5455, 19.2028, -65.7421, -104.209, 27.7828
1.472, -1, 39.3627, 7.5358, 9.67119, 55.0057, -47.1656, -58.0829, 21.6335, 30.563, 19.2184, -65.6344, -104.175, 27.7354
1.476, -1, 39.4038, 7.53595, 9.6798, 54.9963, -47.216, -58.0859, 21.6041, 30.5804, 19.234, -65.5268, -104.14, 27.688
1.48, -1, 39.4449, 7.5361, 9.6884, 54.9869, -47.2664, -58.089, 21.5748, 30.5979, 19.2496, -65.4193, -104.106, 27.6407
1.484, -1, 39.486, 7.53625, 9.697, 54.9776, -47.3167, -58.092, 21.5455, 30.6153, 19.2651, -65.3119, -104.072, 27.5935
1.488, -1, 39.5271, 7.5364, 9.70559, 54.9682, -47.367, -58.0951, 21.5162, 30.6327, 19.2806, -65.2046, -104.038, 27.5462
1.492, -1, 39.568, 7.53655, 9.71417, 54.9589, -47.4173, -58.0981, 21.487, 30.6501, 19.2961, -65.0975, -104.004, 27.499
1.496, -1, 39.609, 7.5367, 9.72274, 54.9496, -47.4675, -58.1012, 21.4577, 30.6675, 19.3116, -64.9904, -103.97, 27.4519
1.5, -1, 39.6499, 7.53684, 9.73131, 54.9403, -47.5176, -58.1042, 21.4286, 30.6848, 19.3271, -64.8834, -103.936, 27.4048
1.504, -1, 39.6908, 7.53699, 9.73986, 54.931, -47.5677, -58.1072, 21.3994, 30.7022, 19.3426, -64.7765, -103.902, 27.3578
1.508, -1, 39.7316, 7.53714, 9.74841, 54.9217, -47.6178, -58.1103, 21.3703, 30.7195, 19.358, -64.6698, -103.868, 27.3107
1.512, -1, 39.7724, 7.53729, 9.75695, 54.9124, -47.6678, -58.1133, 21.3412, 30.7368, 19.3735, -64.5631, -103.834, 27.2638
1.516, -1, 39.8132, 7.53744, 9.76548, 54.9031, -47.7177, -58.1163, 21.3121, 30.7541, 19.3889, -64.4565, -103.801, 27.2169
1.52, -1, 39.8539, 7.53758, 9.77401, 54.8938, -47.7676, -58.1194, 21.283, 30.7714, 19.4043, -64.35, -103.767, 27.17
1.524, -1, 39.8946, 7.53773, 9.78252, 54.8846, -47.8175, -58.1224, 21.254, 30.7886, 19.4197, -64.2437, -103.733, 27.1232
1.528, -1, 39.9353, 7.53788, 9.79103, 54.8753, -47.8673, -58.1254, 21.225, 30.8059, 19.4351, -64.1374, -103.699, 27.0764
1.532, -1, 39.9759, 7.53802, 9.79953, 54.8661, -47.9171, -58.1284, 21.196, 30.8231, 19.4505, -64.0312, -103.665, 27.0296
1.536, -1, 40.0165, 7.53817, 9.80802, 54.8568, -47.9668, -58.1314, 21.1671, 30.8403, 19.4658, -63.9251, -103.632, 26.9829
1.54, -1, 40.057, 7.53832, 9.81651, 54.8476, -48.0165, -58.1344, 21.1382, 30.8575, 19.4812, -63.8192, -103.598, 26.9363
1.544, -1, 40.0975, 7.53846, 9.82499, 54.8384, -48.0661, -58.1374, 21.1093, 30.8747, 19.4965, -63.7133, -103.565, 26.8896
1.548, -1, 40.138, 7.53861, 9.83346, 54.8291, -48.1157, -58.1404, 21.0804, 30.8918, 19.5118, -63.6075, -103.531, 26.8431
1.552, -1, 40.1784, 7.53876, 9.84192, 54.8199, -48.1653, -58.1434, 21.0516, 30.909, 19.5271, -63.5018, -103.497, 26.7965
1.556, -1, 40.2188, 7.5389, 9.85037, 54.8107, -48.2148, -58.1464, 21.0228, 30.9261, 19.5424, -63.3962, -103.464, 26.75
1.56, -1, 40.2591, 7.53905, 9.85882, 54.8016, -48.2642, -58.1494, 20.994, 30.9432, 19.5577, -63.2907, -103.43, 26.7036
1.564, -1, 40.2994, 7.5392, 9.86726, 54.7924, -48.3136, -58.1524, 20.9652, 30.9603, 19.5729, -63.1853, -103.397, 26.6572
1.568, -1, 40.3397, 7.53934, 9.87569, 54.7832, -48.363, -58.1554, 20.9365, 30.9774, 19.5882, -63.08, -103.363, 26.6108
1.572, -1, 40.38, 7.53949, 9.88411, 54.774, -48.4123, -58.1584, 20.9078, 30.9945, 19.6034, -62.9748, -103.33, 26.5645
1.576, -1, 40.4202, 7.53963, 9.89252, 54.7649, -48.4616, -58.1614, 20.8791, 31.0115, 19.6186, -62.8697, -103.297, 26.5182
1.58, -1, 40.4604, 7.53978, 9.90093, 54.7557, -48.5108, -58.1644, 20.8505, 31.0286, 19.6338, -62.7646, -103.263, 26.472
1.584, -1, 40.5005, 7.53992, 9.90933, 54.7466, -48.56, -58.1673, 20.8218, 31.0456, 19.649, -62.6597, -103.23, 26.4258
1.588, -1, 40.5406, 7.54007, 9.91773, 54.7375, -48.6091, -58.1703, 20.7932, 31.0626, 19.6642, -62.5549, -103.197, 26.3796
1.592, -1, 40.5807, 7.54021, 9.92611, 54.7283, -48.6582, -58.1733, 20.7647, 31.0796, 19.6793, -62.4501, -103.163, 26.3335
1.596, -1, 40.6207, 7.54036, 9.93449, 54.7192, -48.7073, -58.1763, 20.7361, 31.0966, 19.6945, -62.3455, -103.13, 26.2875
1.6, -1, 40.6607, 7.5405, 9.94286, 54.7101, -48.7563, -58.1792, 20.7076, 31.1135, 19.7096, -62.2409, -103.097, 26.2414
1.604, -1, 40.7006, 7.54065, 9.95123, 54.701, -48.8053, -58.1822, 20.6791, 31.1305, 19.7247, -62.1364, -103.064, 26.1954
1.608, -1, 40.7406, 7.54079, 9.95958, 54.6919, -48.8542, -58.1852, 20.6506, 31.1474, 19.7398, -62.0321, -103.031, 26.1495
1.612, -1, 40.7804, 7.54094, 9.96793, 54.6829, -48.9031, -58.1881, 20.6221, 31.1643, 19.7549, -61.9278, -102.997, 26.1036
1.616, -1, 40.8203, 7.54108, 9.97627, 54.6738, -48.9519, -58.1911, 20.5937, 31.1812, 19.77, -61.8236, -102.964, 26.0577
1.62, -1, 40.8601, 7.54122, 9.98461, 54.6647, -49.0007, -58.194, 20.5653, 31.1981, 19.7851, -61.7195, -102.931, 26.0119
1.624, -1, 40.8999, 7.54137, 9.99293, 54.6557, -49.0495, -58.197, 20.5369, 31.215, 19.8001, -61.6155, -102.898, 25.9661
1.628, -1, 40.9396, 7.54151, 10.0013, 54.6466, -49.0982, -58.1999, 20.5086, 31.2319, 19.8152, -61.5116, -102.865, 25.9203
1.632, -1, 40.9794, 7.54166, 10.0096, 54.6376, -49.1469, -58.2029, 20.4802, 31.2487, 19.8302, -61.4077, -102.832, 25.8746
1.636, -1, 41.019, 7.5418, 10.0179, 54.6285, -49.1955, -58.2058, 20.4519, 31.2655, 19.8452, -61.304, -102.799, 25.8289
1.64, -1, 41.0587, 7.54194, 10.0262, 54.6195, -49.2441, -58.2088, 20.4237, 31.2823, 19.8602, -61.2003, -102.766, 25.7833
1.644, -1, 41.0983, 7.54209, 10.0345, 54.6105, -49.2926, -58.2117, 20.3954, 31.2992, 19.8752, -61.0968, -102.734, 25.7377
1.648, -1, 41.1379, 7.54223, 10.0427, 54.6015, -49.3411, -58.2147, 20.3672, 31.3159, 19.8902, -60.9933, -102.701, 25.6922
1.652, -1, 41.1774, 7.54237, 10.051, 54.5925, -49.3896, -58.2176, 20.339, 31.3327, 19.9052, -60.8899, -102.668, 25.6467
1.656, -1, 41.2169, 7.54252, 10.0593, 54.5835, -49.438, -58.2205, 20.3108, 31.3495, 19.9201, -60.7866, -102.635, 25.6012
1.66, -1, 41.2564, 7.54266, 10.0676, 54.5745, -49.4864, -58.2234, 20.2826, 31.3662, 19.9351, -60.6834, -102.602, 25.5557
1.664, -1, 41.2958, 7.5428, 10.0758, 54.5655, -49.5347, -58.2264, 20.2545, 31.3829, 19.95, -60.5803, -102.57, 25.5103
1.668, -1, 41.3353, 7.54294, 10.0841, 54.5565, -49.583, -58.2293, 20.2264, 31.3997, 19.9649, -60.4773, -102.537, 25.465
1.672, -1, 41.3746, 7.54309, 10.0923, 54.5476, -49.6313, -58.2322, 20.1983, 31.4164, 19.9798, -60.3743, -102.504, 25.4197
1.676, -1, 41.414, 7.54323, 10.1005, 54.5386, -49.6795, -58.2351, 20.1702, 31.433, 19.9947, -60.2715, -102.471, 25.3744
1.68, -1, 41.4533, 7.54337, 10.1088, 54.5297, -49.7277, -58.2381, 20.1422, 31.4497, 20.0096, -60.1687, -102.439, 25.3291
1.684, -1, 41.4926, 7.54351, 10.117, 54.5207, -49.7758, -58.241, 20.1142, 31.4664, 20.0244, -60.066, -102.406, 25.2839
1.688, -1, 41.5318, 7.54366, 10.1252, 54.5118, -49.8239, -58.2439, 20.0862, 31.483, 20.0393, -59.9634, -102.374, 25.2388
1.692, -1, 41.571, 7.5438, 10.1334, 54.5028, -49.872, -58.2468, 20.0582, 31.4997, 20.0541, -59.8609, -102.341, 25.1936
1.696, -1, 41.6102, 7.54394, 10.1416, 54.4939, -49.92, -58.2497, 20.0302, 31.5163, 20.0689, -59.7585, -102.309, 25.1485
1.7, -1, 41.6494, 7.54408, 10.1498, 54.485, -49.968, -58.2526, 20.0023, 31.5329, 20.0838, -59.6561, -102.276, 25.1035
1.704, -1, 41.6885, 7.54422, 10.158, 54.4761, -50.0159, -58.2555, 19.9744, 31.5495, 20.0986, -59.5539, -102.244, 25.0584
1.708, -1, 41.7276, 7.54437, 10.1662, 54.4672, -50.0638, -58.2584, 19.9465, 31.5661, 20.1133, -59.4517, -102.211, 25.0135
1.712, -1, 41.7666, 7.54451, 10.1743, 54.4583, -50.1117, -58.2613, 19.9187, 31.5826, 20.1281, -59.3496, -102.179, 24.9685
1.716, -1, 41.8056, 7.54465, 10.1825, 54.4494, -50.1595, -58.2642, 19.8908, 31.5992, 20.1429, -59.2476, -102.146, 24.9236
1.72, -1, 41.8446, 7.54479, 10.1907, 54.4406, -50.2073, -58.2671, 19.863, 31.6157, 20.1576, -59.1456, -102.114, 24.8787
1.724, -1, 41.8836, 7.54493, 10.1988, 54.4317, -50.255, -58.27, 19.8352, 31.6322, 20.1724, -59.0438, -102.082, 24.8339
1.728, -1, 41.9225, 7.54507, 10.207, 54.4228, -50.3027, -58.2729, 19.8075, 31.6487, 20.1871, -58.942, -102.049, 24.7891
1.732, -1, 41.9614, 7.54521, 10.2151, 54.414, -50.3504, -58.2758, 19.7797, 31.6652, 20.2018, -58.8403, -102.017, 24.7443
1.736, -1, 42.0003, 7.54535, 10.2232, 54.4051, -50.398, -58.2787, 19.752, 31.6817, 20.2165, -58.7387, -101.985, 24.6996
1.74, -1, 42.0391, 7.54549, 10.2314, 54.3963, -50.4456, -58.2815, 19.7243, 31.6982, 20.2312, -58.6372, -101.952, 24.6549
1.744, -1, 42.0779, 7.54563, 10.2395, 54.3874, -50.4932, -58.2844, 19.6966, 31.7147, 20.2459, -58.5357, -101.92, 24.6102
1.748, -1, 42.1167, 7.54577, 10.2476, 54.3786, -50.5407, -58.2873, 19.669, 31.7311, 20.2606, -58.4344, -101.888, 24.5656
1.752, -1, 42.1554, 7.54591, 10.2557, 54.3698, -50.5882, -58.2902, 19.6413, 31.7475, 20.2753, -58.3331, -101.856, 24.521
1.756, -1, 42.1941, 7.54605, 10.2638, 54.361, -50.6356, -58.2931, 19.6137, 31.7639, 20.2899, -58.2319, -101.824, 24.4764
1.76, -1, 42.2328, 7.54619, 10.2719, 54.3522, -50.683, -58.2959, 19.5861, 31.7804, 20.3045, -58.1308, -101.792, 24.4319
1.764, -1, 42.2715, 7.54633, 10.28, 54.3434, -50.7304, -58.2988, 19.5586, 31.7967, 20.3192, -58.0297, -101.76, 24.3874
1.768, -1, 42.3101, 7.54647, 10.2881, 54.3346, -50.7777, -58.3017, 19.531, 31.8131, 20.3338, -57.9287, -101.728, 24.343
1.772, -1, 42.3487, 7.54661, 10.2962, 54.3258, -50.825, -58.3045, 19.5035, 31.8295, 20.3484, -57.8279, -101.695, 24.2986
1.776, -1, 42.3872, 7.54675, 10.3042, 54.317, -50.8722, -58.3074, 19.476, 31.8458, 20.363, -57.727, -101.663, 24.2542
1.78, -1, 42.4258, 7.54689, 10.3123, 54.3082, -50.9195, -58.3102, 19.4485, 31.8622, 20.3776, -57.6263, -101.631, 24.2098
1.784, -1, 42.4643, 7.54703, 10.3204, 54.2995, -50.9666, -58.3131, 19.421, 31.8785, 20.3921, -57.5257, -101.599, 24.1655
1.788, -1, 42.5027, 7.54717, 10.3284, 54.2907, -51.0138, -58.316, 19.3936, 31.8948, 20.4067, -57.4251, -101.568, 24.1212
1.792, -1, 42.5412, 7.54731, 10.3365, 54.282, -51.0609, -58.3188, 19.3662, 31.9111, 20.4212, -57.3246, -101.536, 24.077
1.796, -1, 42.5796, 7.54745, 10.3445, 54.2732, -51.108, -58.3217, 19.3388, 31.9274, 20.4358, -57.2242, -101.504, 24.0328
1.8, -1, 42.618, 7.54759, 10.3525, 54.2645, -51.155, -58.3245, 19.3114, 31.9437, 20.4503, -57.1238, -101.472, 23.9886
1.804, -1, 42.6563, 7.54773, 10.3606, 54.2557, -51.202, -58.3274, 19.2841, 31.96, 20.4648, -57.0236, -101.44, 23.9445
1.808, -1, 42.6946, 7.54787, 10.3686, 54.247, -51.249, -58.3302, 19.2567, 31.9762, 20.4793, -56.9234, -101.408, 23.9004
1.812, -1, 42.7329, 7.548, 10.3766, 54.2383, -51.2959, -58.333, 19.2294, 31.9925, 20.4938, -56.8233, -101.376, 23.8563
1.816, -1, 42.7712, 7.54814, 10.3846, 54.2296, -51.3428, -58.3359, 19.2021, 32.0087, 20.5083, -56.7232, -101.345, 23.8122
1.82, -1, 42.8094, 7.54828, 10.3926, 54.2209, -51.3897, -58.3387, 19.1748, 32.0249, 20.5228, -56.6233, -101.313, 23.7682
1.824, -1, 42.8476, 7.54842, 10.4006, 54.2122, -51.4365, -58.3416, 19.1476, 32.0411, 20.5372, -56.5234, -101.281, 23.7243
1.828, -1, 42.8858, 7.54856, 10.4086, 54.2035, -51.4833, -58.3444, 19.1204, 32.0573, 20.5517, -56.4236, -101.249, 23.6803
1.832, -1, 42.924, 7.5487, 10.4166, 54.1948, -51.53, -58.3472, 19.0931, 32.0735, 20.5661, -56.3238, -101.218, 23.6364
1.836, -1, 42.9621, 7.54883, 10.4246, 54.1861, -51.5767, -58.3501, 19.066, 32.0897, 20.5805, -56.2242, -101.186, 23.5925
1.84, -1, 43.0002, 7.54897, 10.4325, 54.1774, -51.6234, -58.3529, 19.0388, 32.1058, 20.5949, -56.1246, -101.155, 23.5487
1.844, -1, 43.0382, 7.54911, 10.4405, 54.1688, -51.6701, -58.3557, 19.0116, 32.122, 20.6093, -56.0251, -101.123, 23.5049
1.848, -1, 43.0763, 7.54925, 10.4485, 54.1601, -51.7167, -58.3585, 18.9845, 32.1381, 20.6237, -55.9256, -101.091, 23.4611
1.852, -1, 43.1143, 7.54939, 10.4564, 54.1515, -51.7633, -58.3614, 18.9574, 32.1542, 20.6381, -55.8263, -101.06, 23.4173
1.856, -1, 43.1523, 7.54952, 10.4644, 54.1428, -51.8098, -58.3642, 18.9303, 32.1703, 20.6525, -55.727, -101.028, 23.3736
1.86, -1, 43.1902, 7.54966, 10.4723, 54.1342, -51.8563, -58.367, 18.9032, 32.1864, 20.6668, -55.6278, -100.997, 23.33
1.864, -1, 43.2281, 7.5498, 10.4802, 54.1255, -51.9028, -58.3698, 18.8762, 32.2025, 20.6812, -55.5286, -100.965, 23.2863
1.868, -1, 43.266, 7.54993, 10.4882, 54.1169, -51.9492, -58.3726, 18.8491, 32.2186, 20.6955, -55.4295, -100.934, 23.2427
1.872, -1, 43.3039, 7.55007, 10.4961, 54.1083, -51.9956, -58.3754, 18.8221, 32.2346, 20.7099, -55.3305, -100.902, 23.1991
1.876, -1, 43.3417, 7.55021, 10.504, 54.0997, -52.042, -58.3782, 18.7951, 32.2507, 20.7242, -55.2316, -100.871, 23.1556
1.88, -1, 43.3795, 7.55034, 10.5119, 54.0911, -52.0884, -58.381, 18.7682, 32.2667, 20.7385, -55.1328, -100.84, 23.112
1.884, -1, 43.4173, 7.55048, 10.5198, 54.0825, -52.1347, -58.3839, 18.7412, 32.2828, 20.7528, -55.034, -100.808, 23.0685
1.888, -1, 43.4551, 7.55062, 10.5277, 54.0739, -52.1809, -58.3867, 18.7143, 32.2988, 20.7671, -54.9353, -100.777, 23.0251
1.892, -1, 43.4928, 7.55075, 10.5356, 54.0653, -52.2272, -58.3895, 18.6874, 32.3148, 20.7814, -54.8366, -100.746, 22.9817
1.896, -1, 43.5305, 7.55089, 10.5435, 54.0567, -52.2734, -58.3923, 18.6605, 32.3308, 20.7956, -54.7381, -100.714, 22.9383
1.9, -1, 43.5682, 7.55103, 10.5514, 54.0481, -52.3195, -58.395, 18.6336, 32.3467, 20.8099, -54.6396, -100.683, 22.8949
1.904, -1, 43.6058, 7.55116, 10.5593, 54.0395, -52.3657, -58.3978, 18.6068, 32.3627, 20.8241, -54.5411, -100.652, 22.8516
1.908, -1, 43.6435, 7.5513, 10.5672, 54.031, -52.4118, -58.4006, 18.5799, 32.3787, 20.8384, -54.4428, -100.62, 22.8083
1.912, -1, 43.6811, 7.55144, 10.575, 54.0224, -52.4579, -58.4034, 18.5531, 32.3946, 20.8526, -54.3445, -100.589, 22.765
1.916, -1, 43.7186, 7.55157, 10.5829, 54.0139, -52.5039, -58.4062, 18.5263, 32.4105, 20.8668, -54.2463, -100.558, 22.7218
1.92, -1, 43.7562, 7.55171, 10.5908, 54.0053, -52.5499, -58.409, 18.4995, 32.4265, 20.881, -54.1481, -100.527, 22.6785
1.924, -1, 43.7937, 7.55184, 10.5986, 53.9968, -52.5959, -58.4118, 18.4728, 32.4424, 20.8952, -54.0501, -100.496, 22.6354
1.928, -1, 43.8312, 7.55198, 10.6065, 53.9882, -52.6418, -58.4146, 18.446, 32.4583, 20.9094, -53.9521, -100.465, 22.5922
1.932, -1, 43.8686, 7.55211, 10.6143, 53.9797, -52.6877, -58.4173, 18.4193, 32.4742, 20.9236, -53.8541, -100.434, 22.5491
1.936, -1, 43.9061, 7.55225, 10.6221, 53.9712, -52.7336, -58.4201, 18.3926, 32.49, 20.9377, -53.7563, -100.402, 22.506
1.94, -1, 43.9435, 7.55239, 10.63, 53.9627, -52.7795, -58.4229, 18.3659, 32.5059, 20.9519, -53.6585, -100.371, 22.463
1.944, -1, 43.9809, 7.55252, 10.6378, 53.9542, -52.8253, -58.4257, 18.3393, 32.5218, 20.966, -53.5607, -100.34, 22.4199
1.948, -1, 44.0182, 7.55266, 10.6456, 53.9457, -52.8711, -58.4285, 18.3126, 32.5376, 20.9802, -53.4631, -100.309, 22.3769
1.952, -1, 44.0555, 7.55279, 10.6534, 53.9371, -52.9168, -58.4312, 18.286, 32.5534, 20.9943, -53.3655, -100.278, 22.334
1.956, -1, 44.0928, 7.55293, 10.6612, 53.9287, -52.9625, -58.434, 18.2594, 32.5693, 21.0084, -53.2679, -100.247, 22.291
1.96, -1, 44.1301, 7.55306, 10.669, 53.9202, -53.0082, -58.4368, 18.2328, 32.5851, 21.0225, -53.1705, -100.216, 22.2481
1.964, -1, 44.1674, 7.5532, 10.6768, 53.9117, -53.0539, -58.4395, 18.2062, 32.6009, 21.0366, -53.0731, -100.185, 22.2053
1.968, -1, 44.2046, 7.55333, 10.6846, 53.9032, -53.0995, -58.4423, 18.1797, 32.6167, 21.0507, -52.9758, -100.155, 22.1624
1.972, -1, 44.2418, 7.55347, 10.6924, 53.8947, -53.1451, -58.445, 18.1531, 32.6325, 21.0648, -52.8785, -100.124, 22.1196
1.976, -1, 44.279, 7.5536, 10.7002, 53.8863, -53.1906, -58.4478, 18.1266, 32.6482, 21.0789, -52.7813, -100.093, 22.0768
1.98, -1, 44.3161, 7.55373, 10.708, 53.8778, -53.2362, -58.4506, 18.1001, 32.664, 21.0929, -52.6842, -100.062, 22.034
1.984, -1, 44.3532, 7.55387, 10.7157, 53.8694, -53.2817, -58.4533, 18.0736, 32.6797, 21.107, -52.5872, -100.031, 21.9913
1.988, -1, 44.3903, 7.554, 10.7235, 53.8609, -53.3271, -58.4561, 18.0472, 32.6954, 21.121, -52.4902, -100, 21.9486
1.992, -1, 44.4274, 7.55414, 10.7313, 53.8525, -53.3726, -58.4588, 18.0207, 32.7112, 21.135, -52.3932, -99.9696, 21.9059
1.996, -1, 44.4645, 7.55427, 10.739, 53.844, -53.418, -58.4616, 17.9943, 32.7269, 21.1491, -52.2964, -99.9388, 21.8633
1.999, -1, 44.5015, 7.55441, 10.7468, 53.8356, -53.4633, -58.4643, 17.9679, 32.7426, 21.1631, -52.1996, -99.9081, 21.8207
2.004, -1, 44.5385, 7.55454, 10.7545, 53.8272, -53.5087, -58.4671, 17.9415, 32.7583, 21.1771, -52.1029, -99.8774, 21.7781
2.008, -1, 44.5755, 7.55467, 10.7622, 53.8188, -53.554, -58.4698, 17.9151, 32.774, 21.1911, -52.0062, -99.8467, 21.7355
2.012, -1, 44.6124, 7.55481, 10.77, 53.8104, -53.5993, -58.4726, 17.8888, 32.7896, 21.205, -51.9096, -99.816, 21.693
2.015, -1, 44.6493, 7.55494, 10.7777, 53.802, -53.6445, -58.4753, 17.8625, 32.8053, 21.219, -51.8131, -99.7853, 21.6505
2.019, -1, 44.6862, 7.55507, 10.7854, 53.7935, -53.6897, -58.478, 17.8361, 32.8209, 21.233, -51.7166, -99.7547, 21.6081
2.024, -1, 44.7231, 7.55521, 10.7931, 53.7852, -53.7349, -58.4808, 17.8098, 32.8366, 21.2469, -51.6202, -99.7241, 21.5656
2.028, -1, 44.7599, 7.55534, 10.8009, 53.7768, -53.7801, -58.4835, 17.7836, 32.8522, 21.2609, -51.5239, -99.6935, 21.5232
2.031, -1, 44.7968, 7.55547, 10.8086, 53.7684, -53.8252, -58.4862, 17.7573, 32.8678, 21.2748, -51.4276, -99.6629, 21.4808
2.036, -1, 44.8336, 7.55561, 10.8163, 53.76, -53.8703, -58.489, 17.731, 32.8834, 21.2887, -51.3314, -99.6324, 21.4385
2.04, -1, 44.8703, 7.55574, 10.824, 53.7516, -53.9154, -58.4917, 17.7048, 32.899, 21.3026, -51.2352, -99.6018, 21.3961
2.044, -1, 44.9071, 7.55587, 10.8317, 53.7433, -53.9604, -58.4944, 17.6786, 32.9146, 21.3166, -51.1392, -99.5713, 21.3538
2.048, -1, 44.9438, 7.55601, 10.8393, 53.7349, -54.0054, -58.4972, 17.6524, 32.9302, 21.3305, -51.0431, -99.5408, 21.3116
2.051, -1, 44.9805, 7.55614, 10.847, 53.7265, -54.0504, -58.4999, 17.6262, 32.9458, 21.3443, -50.9472, -99.5104, 21.2693
2.055, -1, 45.0172, 7.55627, 10.8547, 53.7182, -54.0954, -58.5026, 17.6001, 32.9613, 21.3582, -50.8513, -99.4799, 21.2271
2.06, -1, 45.0539, 7.5564, 10.8624, 53.7098, -54.1403, -58.5053, 17.5739, 32.9769, 21.3721, -50.7555, -99.4495, 21.1849
2.064, -1, 45.0905, 7.55654, 10.87, 53.7015, -54.1852, -58.508, 17.5478, 32.9924, 21.386, -50.6597, -99.4191, 21.1427
2.068, -1, 45.1271, 7.55667, 10.8777, 53.6932, -54.23, -58.5108, 17.5217, 33.0079, 21.3998, -50.564, -99.3887, 21.1006
2.071, -1, 45.1637, 7.5568, 10.8854, 53.6848, -54.2749, -58.5135, 17.4956, 33.0235, 21.4137, -50.4684, -99.3583, 21.0585
2.076, -1, 45.2002, 7.55693, 10.893, 53.6765, -54.3197, -58.5162, 17.4695, 33.039, 21.4275, -50.3728, -99.3279, 21.0164
2.08, -1, 45.2368, 7.55707, 10.9007, 53.6682, -54.3645, -58.5189, 17.4434, 33.0545, 21.4413, -50.2773, -99.2976, 20.9744
2.084, -1, 45.2733, 7.5572, 10.9083, 53.6599, -54.4092, -58.5216, 17.4174, 33.0699, 21.4551, -50.1818, -99.2673, 20.9323
2.087, -1, 45.3098, 7.55733, 10.9159, 53.6516, -54.4539, -58.5243, 17.3914, 33.0854, 21.4689, -50.0864, -99.237, 20.8903
2.092, -1, 45.3462, 7.55746, 10.9236, 53.6433, -54.4986, -58.527, 17.3654, 33.1009, 21.4827, -49.9911, -99.2067, 20.8484
2.096, -1, 45.3827, 7.55759, 10.9312, 53.635, -54.5433, -58.5297, 17.3394, 33.1163, 21.4965, -49.8958, -99.1765, 20.8064
2.1, -1, 45.4191, 7.55773, 10.9388, 53.6267, -54.5879, -58.5324, 17.3134, 33.1318, 21.5103, -49.8006, -99.1462, 20.7645
2.104, -1, 45.4555, 7.55786, 10.9464, 53.6184, -54.6325, -58.5351, 17.2874, 33.1472, 21.5241, -49.7054, -99.116, 20.7226
2.107, -1, 45.4919, 7.55799, 10.9541, 53.6101, -54.6771, -58.5378, 17.2615, 33.1627, 21.5379, -49.6104, -99.0858, 20.6808
2.111, -1, 45.5282, 7.55812, 10.9617, 53.6018, -54.7216, -58.5405, 17.2356, 33.1781, 21.5516, -49.5153, -99.0556, 20.6389
2.116, -1, 45.5645, 7.55825, 10.9693, 53.5936, -54.7661, -58.5432, 17.2096, 33.1935, 21.5654, -49.4203, -99.0255, 20.5971
2.12, -1, 45.6008, 7.55838, 10.9769, 53.5853, -54.8106, -58.5459, 17.1838, 33.2089, 21.5791, -49.3254, -98.9953, 20.5553
2.124, -1, 45.6371, 7.55851, 10.9845, 53.577, -54.8551, -58.5486, 17.1579, 33.2243, 21.5928, -49.2306, -98.9652, 20.5136
2.127, -1, 45.6734, 7.55865, 10.9921, 53.5688, -54.8995, -58.5513, 17.132, 33.2396, 21.6065, -49.1358, -98.9351, 20.4718
2.132, -1, 45.7096, 7.55878, 10.9996, 53.5605, -54.9439, -58.554, 17.1062, 33.255, 21.6203, -49.0411, -98.905, 20.4301
2.136, -1, 45.7458, 7.55891, 11.0072, 53.5523, -54.9883, -58.5567, 17.0803, 33.2704, 21.634, -48.9464, -98.875, 20.3885
2.14, -1, 45.782, 7.55904, 11.0148, 53.544, -55.0327, -58.5594, 17.0545, 33.2857, 21.6477, -48.8518, -98.8449, 20.3468
2.143, -1, 45.8182, 7.55917, 11.0224, 53.5358, -55.077, -58.5621, 17.0287, 33.3011, 21.6613, -48.7572, -98.8149, 20.3052
2.148, -1, 45.8543, 7.5593, 11.0299, 53.5276, -55.1213, -58.5647, 17.0029, 33.3164, 21.675, -48.6627, -98.7849, 20.2636
2.152, -1, 45.8904, 7.55943, 11.0375, 53.5194, -55.1656, -58.5674, 16.9772, 33.3317, 21.6887, -48.5683, -98.7549, 20.222
2.156, -1, 45.9266, 7.55956, 11.045, 53.5111, -55.2098, -58.5701, 16.9514, 33.347, 21.7023, -48.4739, -98.7249, 20.1804
2.16, -1, 45.9626, 7.55969, 11.0526, 53.5029, -55.254, -58.5728, 16.9257, 33.3623, 21.716, -48.3796, -98.695, 20.1389
2.163, -1, 45.9987, 7.55982, 11.0601, 53.4947, -55.2982, -58.5755, 16.9, 33.3776, 21.7296, -48.2853, -98.665, 20.0974
2.168, -1, 46.0347, 7.55995, 11.0677, 53.4865, -55.3424, -58.5781, 16.8743, 33.3929, 21.7433, -48.1911, -98.6351, 20.0559
2.172, -1, 46.0707, 7.56008, 11.0752, 53.4783, -55.3865, -58.5808, 16.8486, 33.4082, 21.7569, -48.097, -98.6052, 20.0145
2.176, -1, 46.1067, 7.56021, 11.0828, 53.4701, -55.4306, -58.5835, 16.8229, 33.4234, 21.7705, -48.0029, -98.5753, 19.9731
2.179, -1, 46.1427, 7.56034, 11.0903, 53.4619, -55.4747, -58.5861, 16.7972, 33.4387, 21.7841, -47.9088, -98.5455, 19.9317
2.184, -1, 46.1786, 7.56047, 11.0978, 53.4537, -55.5187, -58.5888, 16.7716, 33.4539, 21.7977, -47.8148, -98.5156, 19.8903
2.188, -1, 46.2146, 7.5606, 11.1053, 53.4456, -55.5628, -58.5915, 16.746, 33.4692, 21.8113, -47.7209, -98.4858, 19.8489
2.192, -1, 46.2505, 7.56073, 11.1128, 53.4374, -55.6068, -58.5941, 16.7204, 33.4844, 21.8249, -47.627, -98.456, 19.8076
2.196, -1, 46.2864, 7.56086, 11.1204, 53.4292, -55.6508, -58.5968, 16.6948, 33.4996, 21.8385, -47.5332, -98.4262, 19.7663
2.199, -1, 46.3222, 7.56099, 11.1279, 53.421, -55.6947, -58.5995, 16.6692, 33.5148, 21.8521, -47.4395, -98.3964, 19.725
2.204, -1, 46.3581, 7.56112, 11.1354, 53.4129, -55.7386, -58.6021, 16.6436, 33.53, 21.8656, -47.3458, -98.3666, 19.6838
2.208, -1, 46.3939, 7.56125, 11.1429, 53.4047, -55.7825, -58.6048, 16.6181, 33.5452, 21.8792, -47.2521, -98.3369, 19.6425
2.212, -1, 46.4297, 7.56138, 11.1504, 53.3966, -55.8264, -58.6074, 16.5925, 33.5604, 21.8927, -47.1585, -98.3072, 19.6013
2.216, -1, 46.4655, 7.56151, 11.1578, 53.3884, -55.8703, -58.6101, 16.567, 33.5756, 21.9063, -47.065, -98.2775, 19.5601
2.219, -1, 46.5012, 7.56164, 11.1653, 53.3803, -55.9141, -58.6128, 16.5415, 33.5908, 21.9198, -46.9715, -98.2478, 19.519
2.224, -1, 46.537, 7.56177, 11.1728, 53.3722, -55.9579, -58.6154, 16.516, 33.6059, 21.9333, -46.8781, -98.2181, 19.4778
2.228, -1, 46.5727, 7.5619, 11.1803, 53.364, -56.0017, -58.6181, 16.4905, 33.6211, 21.9469, -46.7847, -98.1885, 19.4367
2.232, -1, 46.6084, 7.56203, 11.1878, 53.3559, -56.0454, -58.6207, 16.4651, 33.6362, 21.9604, -46.6914, -98.1588, 19.3957
2.235, -1, 46.6441, 7.56216, 11.1952, 53.3478, -56.0891, -58.6234, 16.4396, 33.6513, 21.9739, -46.5981, -98.1292, 19.3546
2.24, -1, 46.6797, 7.56229, 11.2027, 53.3396, -56.1328, -58.626, 16.4142, 33.6665, 21.9874, -46.5049, -98.0996, 19.3136
2.244, -1, 46.7153, 7.56242, 11.2101, 53.3315, -56.1765, -58.6287, 16.3888, 33.6816, 22.0008, -46.4117, -98.07, 19.2725
2.248, -1, 46.751, 7.56255, 11.2176, 53.3234, -56.2201, -58.6313, 16.3634, 33.6967, 22.0143, -46.3186, -98.0405, 19.2315
2.252, -1, 46.7865, 7.56267, 11.225, 53.3153, -56.2638, -58.6339, 16.338, 33.7118, 22.0278, -46.2255, -98.0109, 19.1906
2.255, -1, 46.8221, 7.5628, 11.2325, 53.3072, -56.3074, -58.6366, 16.3126, 33.7269, 22.0413, -46.1325, -97.9814, 19.1496
2.259, -1, 46.8577, 7.56293, 11.2399, 53.2991, -56.3509, -58.6392, 16.2873, 33.742, 22.0547, -46.0396, -97.9518, 19.1087
2.264, -1, 46.8932, 7.56306, 11.2474, 53.291, -56.3945, -58.6418, 16.2619, 33.757, 22.0682, -45.9467, -97.9223, 19.0678
2.268, -1, 46.9287, 7.56319, 11.2548, 53.283, -56.438, -58.6445, 16.2366, 33.7721, 22.0816, -45.8539, -97.8929, 19.0269
2.272, -1, 46.9642, 7.56332, 11.2622, 53.2749, -56.4815, -58.6471, 16.2113, 33.7871, 22.095, -45.7611, -97.8634, 18.9861
2.275, -1, 46.9997, 7.56345, 11.2697, 53.2668, -56.525, -58.6498, 16.186, 33.8022, 22.1084, -45.6683, -97.8339, 18.9453
2.28, -1, 47.0351, 7.56357, 11.2771, 53.2587, -56.5684, -58.6524, 16.1607, 33.8172, 22.1219, -45.5756, -97.8045, 18.9045
2.284, -1, 47.0706, 7.5637, 11.2845, 53.2507, -56.6118, -58.655, 16.1354, 33.8322, 22.1353, -45.483, -97.7751, 18.8637
2.288, -1, 47.106, 7.56383, 11.2919, 53.2426, -56.6552, -58.6576, 16.1101, 33.8473, 22.1487, -45.3904, -97.7457, 18.8229
2.291, -1, 47.1414, 7.56396, 11.2993, 53.2345, -56.6986, -58.6603, 16.0849, 33.8623, 22.1621, -45.2979, -97.7163, 18.7822
2.296, -1, 47.1768, 7.56409, 11.3067, 53.2265, -56.742, -58.6629, 16.0597, 33.8773, 22.1755, -45.2054, -97.6869, 18.7415
2.3, -1, 47.2121, 7.56421, 11.3141, 53.2184, -56.7853, -58.6655, 16.0345, 33.8923, 22.1888, -45.113, -97.6576, 18.7008
2.304, -1, 47.2474, 7.56434, 11.3215, 53.2104, -56.8286, -58.6681, 16.0093, 33.9073, 22.2022, -45.0206, -97.6282, 18.6601
2.308, -1, 47.2827, 7.56447, 11.3289, 53.2023, -56.8719, -58.6708, 15.9841, 33.9222, 22.2156, -44.9283, -97.5989, 18.6195
2.311, -1, 47.318, 7.5646, 11.3363, 53.1943, -56.9151, -58.6734, 15.9589, 33.9372, 22.2289, -44.836, -97.5696, 18.5788
2.316, -1, 47.3533, 7.56472, 11.3437, 53.1863, -56.9584, -58.676, 15.9337, 33.9522, 22.2423, -44.7438, -97.5403, 18.5382
2.32, -1, 47.3886, 7.56485, 11.3511, 53.1782, -57.0016, -58.6786, 15.9086, 33.9671, 22.2556, -44.6516, -97.5111, 18.4977
2.324, -1, 47.4238, 7.56498, 11.3584, 53.1702, -57.0447, -58.6812, 15.8834, 33.9821, 22.2689, -44.5595, -97.4818, 18.4571
2.328, -1, 47.459, 7.56511, 11.3658, 53.1622, -57.0879, -58.6838, 15.8583, 33.997, 22.2823, -44.4674, -97.4526, 18.4166
2.331, -1, 47.4942, 7.56523, 11.3732, 53.1542, -57.131, -58.6865, 15.8332, 34.0119, 22.2956, -44.3754, -97.4233, 18.376
2.336, -1, 47.5294, 7.56536, 11.3805, 53.1462, -57.1742, -58.6891, 15.8081, 34.0269, 22.3089, -44.2834, -97.3941, 18.3356
2.34, -1, 47.5646, 7.56549, 11.3879, 53.1382, -57.2172, -58.6917, 15.7831, 34.0418, 22.3222, -44.1915, -97.3649, 18.2951
2.344, -1, 47.5997, 7.56562, 11.3952, 53.1302, -57.2603, -58.6943, 15.758, 34.0567, 22.3355, -44.0996, -97.3358, 18.2546
2.347, -1, 47.6348, 7.56574, 11.4026, 53.1222, -57.3034, -58.6969, 15.7329, 34.0716, 22.3488, -44.0078, -97.3066, 18.2142
2.352, -1, 47.6699, 7.56587, 11.4099, 53.1142, -57.3464, -58.6995, 15.7079, 34.0865, 22.3621, -43.916, -97.2775, 18.1738
2.356, -1, 47.705, 7.566, 11.4173, 53.1062, -57.3894, -58.7021, 15.6829, 34.1013, 22.3754, -43.8243, -97.2483, 18.1334
2.36, -1, 47.7401, 7.56612, 11.4246, 53.0982, -57.4323, -58.7047, 15.6579, 34.1162, 22.3886, -43.7326, -97.2192, 18.0931
2.364, -1, 47.7751, 7.56625, 11.432, 53.0902, -57.4753, -58.7073, 15.6329, 34.1311, 22.4019, -43.641, -97.1901, 18.0527
2.367, -1, 47.8102, 7.56638, 11.4393, 53.0823, -57.5182, -58.7099, 15.6079, 34.1459, 22.4152, -43.5494, -97.161, 18.0124
2.372, -1, 47.8452, 7.5665, 11.4466, 53.0743, -57.5611, -58.7125, 15.5829, 34.1608, 22.4284, -43.4579, -97.132, 17.9721
2.376, -1, 47.8802, 7.56663, 11.4539, 53.0663, -57.604, -58.7151, 15.558, 34.1756, 22.4416, -43.3664, -97.1029, 17.9318
2.38, -1, 47.9151, 7.56676, 11.4613, 53.0584, -57.6469, -58.7177, 15.533, 34.1905, 22.4549, -43.275, -97.0739, 17.8916
2.383, -1, 47.9501, 7.56688, 11.4686, 53.0504, -57.6897, -58.7203, 15.5081, 34.2053, 22.4681, -43.1836, -97.0449, 17.8514
2.388, -1, 47.985, 7.56701, 11.4759, 53.0424, -57.7325, -58.7229, 15.4832, 34.2201, 22.4813, -43.0923, -97.0159, 17.8112
2.392, -1, 48.0199, 7.56714, 11.4832, 53.0345, -57.7753, -58.7255, 15.4583, 34.2349, 22.4945, -43.001, -96.9869, 17.771
2.396, -1, 48.0548, 7.56726, 11.4905, 53.0265, -57.8181, -58.7281, 15.4334, 34.2497, 22.5077, -42.9098, -96.9579, 17.7308
2.4, -1, 48.0897, 7.56739, 11.4978, 53.0186, -57.8608, -58.7307, 15.4085, 34.2645, 22.5209, -42.8186, -96.9289, 17.6906
2.403, -1, 48.1246, 7.56751, 11.5051, 53.0107, -57.9035, -58.7332, 15.3836, 34.2793, 22.5341, -42.7274, -96.9, 17.6505
2.408, -1, 48.1594, 7.56764, 11.5124, 53.0027, -57.9463, -58.7358, 15.3588, 34.2941, 22.5473, -42.6363, -96.8711, 17.6104
2.412, -1, 48.1942, 7.56777, 11.5197, 52.9948, -57.9889, -58.7384, 15.3339, 34.3088, 22.5605, -42.5453, -96.8422, 17.5703
2.416, -1, 48.229, 7.56789, 11.527, 52.9869, -58.0316, -58.741, 15.3091, 34.3236, 22.5737, -42.4543, -96.8133, 17.5303
2.42, -1, 48.2638, 7.56802, 11.5343, 52.979, -58.0742, -58.7436, 15.2843, 34.3384, 22.5868, -42.3634, -96.7844, 17.4902
2.423, -1, 48.2986, 7.56814, 11.5415, 52.971, -58.1168, -58.7462, 15.2595, 34.3531, 22.6, -42.2724, -96.7555, 17.4502
2.428, -1, 48.3334, 7.56827, 11.5488, 52.9631, -58.1594, -58.7487, 15.2347, 34.3678, 22.6131, -42.1816, -96.7267, 17.4102
2.432, -1, 48.3681, 7.5684, 11.5561, 52.9552, -58.202, -58.7513, 15.2099, 34.3826, 22.6263, -42.0908, -96.6978, 17.3702
2.436, -1, 48.4028, 7.56852, 11.5633, 52.9473, -58.2445, -58.7539, 15.1852, 34.3973, 22.6394, -42, -96.669, 17.3303
2.439, -1, 48.4375, 7.56865, 11.5706, 52.9394, -58.2871, -58.7565, 15.1604, 34.412, 22.6526, -41.9093, -96.6402, 17.2903
2.444, -1, 48.4722, 7.56877, 11.5779, 52.9315, -58.3296, -58.7591, 15.1357, 34.4267, 22.6657, -41.8186, -96.6114, 17.2504
2.448, -1, 48.5069, 7.5689, 11.5851, 52.9236, -58.3721, -58.7616, 15.1109, 34.4414, 22.6788, -41.728, -96.5826, 17.2105
2.452, -1, 48.5415, 7.56902, 11.5924, 52.9157, -58.4145, -58.7642, 15.0862, 34.4561, 22.6919, -41.6374, -96.5538, 17.1706
2.456, -1, 48.5761, 7.56915, 11.5996, 52.9079, -58.457, -58.7668, 15.0615, 34.4708, 22.705, -41.5469, -96.5251, 17.1308
2.459, -1, 48.6107, 7.56927, 11.6069, 52.9, -58.4994, -58.7693, 15.0368, 34.4855, 22.7181, -41.4564, -96.4963, 17.0909
2.464, -1, 48.6453, 7.5694, 11.6141, 52.8921, -58.5418, -58.7719, 15.0122, 34.5002, 22.7312, -41.366, -96.4676, 17.0511
2.468, -1, 48.6799, 7.56952, 11.6213, 52.8842, -58.5842, -58.7745, 14.9875, 34.5148, 22.7443, -41.2756, -96.4389, 17.0113
2.472, -1, 48.7145, 7.56965, 11.6286, 52.8764, -58.6265, -58.777, 14.9629, 34.5295, 22.7574, -41.1852, -96.4102, 16.9715
2.476, -1, 48.749, 7.56977, 11.6358, 52.8685, -58.6688, -58.7796, 14.9382, 34.5441, 22.7704, -41.0949, -96.3816, 16.9318
2.479, -1, 48.7835, 7.5699, 11.643, 52.8606, -58.7111, -58.7822, 14.9136, 34.5588, 22.7835, -41.0046, -96.3529, 16.892
2.484, -1, 48.8181, 7.57002, 11.6503, 52.8528, -58.7534, -58.7847, 14.889, 34.5734, 22.7966, -40.9144, -96.3242, 16.8523
2.488, -1, 48.8525, 7.57015, 11.6575, 52.8449, -58.7957, -58.7873, 14.8644, 34.588, 22.8096, -40.8242, -96.2956, 16.8126
2.492, -1, 48.887, 7.57027, 11.6647, 52.8371, -58.838, -58.7898, 14.8398, 34.6027, 22.8227, -40.7341, -96.267, 16.773
2.495, -1, 48.9215, 7.5704, 11.6719, 52.8292, -58.8802, -58.7924, 14.8152, 34.6173, 22.8357, -40.644, -96.2384, 16.7333
2.5, -1, 48.9559, 7.57052, 11.6791, 52.8214, -58.9224, -58.795, 14.7906, 34.6319, 22.8487, -40.554, -96.2098, 16.6937
2.504, -1, 48.9903, 7.57065, 11.6863, 52.8135, -58.9646, -58.7975, 14.7661, 34.6465, 22.8618, -40.464, -96.1812, 16.654
2.508, -1, 49.0247, 7.57077, 11.6935, 52.8057, -59.0067, -58.8001, 14.7416, 34.6611, 22.8748, -40.3741, -96.1526, 16.6144
2.512, -1, 49.0591, 7.5709, 11.7007, 52.7979, -59.0489, -58.8026, 14.717, 34.6757, 22.8878, -40.2842, -96.1241, 16.5749
2.515, -1, 49.0935, 7.57102, 11.7079, 52.7901, -59.091, -58.8052, 14.6925, 34.6902, 22.9008, -40.1943, -96.0955, 16.5353
2.52, -1, 49.1278, 7.57114, 11.7151, 52.7822, -59.1331, -58.8077, 14.668, 34.7048, 22.9138, -40.1045, -96.067, 16.4958
2.524, -1, 49.1622, 7.57127, 11.7223, 52.7744, -59.1752, -58.8103, 14.6435, 34.7194, 22.9268, -40.0147, -96.0385, 16.4562
2.528, -1, 49.1965, 7.57139, 11.7295, 52.7666, -59.2173, -58.8128, 14.619, 34.7339, 22.9398, -39.925, -96.01, 16.4167
2.531, -1, 49.2308, 7.57152, 11.7367, 52.7588, -59.2593, -58.8154, 14.5946, 34.7485, 22.9528, -39.8353, -95.9815, 16.3772
2.536, -1, 49.2651, 7.57164, 11.7438, 52.751, -59.3013, -58.8179, 14.5701, 34.763, 22.9657, -39.7457, -95.9531, 16.3378
2.54, -1, 49.2994, 7.57176, 11.751, 52.7432, -59.3433, -58.8204, 14.5457, 34.7776, 22.9787, -39.6561, -95.9246, 16.2983
2.544, -1, 49.3336, 7.57189, 11.7582, 52.7354, -59.3853, -58.823, 14.5212, 34.7921, 22.9917, -39.5665, -95.8962, 16.2589
2.548, -1, 49.3679, 7.57201, 11.7653, 52.7276, -59.4273, -58.8255, 14.4968, 34.8066, 23.0046, -39.477, -95.8677, 16.2195
2.551, -1, 49.4021, 7.57214, 11.7725, 52.7198, -59.4692, -58.8281, 14.4724, 34.8211, 23.0176, -39.3875, -95.8393, 16.1801
2.556, -1, 49.4363, 7.57226, 11.7797, 52.712, -59.5111, -58.8306, 14.448, 34.8356, 23.0305, -39.2981, -95.8109, 16.1407
2.56, -1, 49.4705, 7.57238, 11.7868, 52.7042, -59.553, -58.8332, 14.4236, 34.8501, 23.0435, -39.2087, -95.7825, 16.1014
2.564, -1, 49.5047, 7.57251, 11.794, 52.6964, -59.5949, -58.8357, 14.3992, 34.8646, 23.0564, -39.1194, -95.7542, 16.062
2.568, -1, 49.5388, 7.57263, 11.8011, 52.6887, -59.6368, -58.8382, 14.3749, 34.8791, 23.0693, -39.0301, -95.7258, 16.0227
2.571, -1, 49.573, 7.57276, 11.8083, 52.6809, -59.6786, -58.8408, 14.3505, 34.8936, 23.0822, -38.9408, -95.6975, 15.9834
2.576, -1, 49.6071, 7.57288, 11.8154, 52.6731, -59.7204, -58.8433, 14.3262, 34.9081, 23.0952, -38.8516, -95.6691, 15.9442
2.58, -1, 49.6412, 7.573, 11.8225, 52.6653, -59.7622, -58.8458, 14.3019, 34.9225, 23.1081, -38.7624, -95.6408, 15.9049
2.584, -1, 49.6753, 7.57313, 11.8297, 52.6576, -59.804, -58.8484, 14.2775, 34.937, 23.121, -38.6733, -95.6125, 15.8657
2.587, -1, 49.7094, 7.57325, 11.8368, 52.6498, -59.8458, -58.8509, 14.2532, 34.9514, 23.1339, -38.5842, -95.5842, 15.8264
2.592, -1, 49.7434, 7.57337, 11.8439, 52.6421, -59.8875, -58.8534, 14.2289, 34.9659, 23.1467, -38.4951, -95.5559, 15.7872
2.596, -1, 49.7775, 7.57349, 11.8511, 52.6343, -59.9292, -58.8559, 14.2047, 34.9803, 23.1596, -38.4061, -95.5277, 15.748
2.6, -1, 49.8115, 7.57362, 11.8582, 52.6266, -59.9709, -58.8585, 14.1804, 34.9948, 23.1725, -38.3172, -95.4994, 15.7089
2.604, -1, 49.8455, 7.57374, 11.8653, 52.6188, -60.0126, -58.861, 14.1561, 35.0092, 23.1854, -38.2283, -95.4712, 15.6697
2.607, -1, 49.8795, 7.57386, 11.8724, 52.6111, -60.0543, -58.8635, 14.1319, 35.0236, 23.1982, -38.1394, -95.443, 15.6306
2.612, -1, 49.9135, 7.57399, 11.8795, 52.6033, -60.0959, -58.866, 14.1076, 35.038, 23.2111, -38.0505, -95.4147, 15.5915
2.616, -1, 49.9474, 7.57411, 11.8867, 52.5956, -60.1376, -58.8686, 14.0834, 35.0524, 23.224, -37.9617, -95.3865, 15.5524
2.62, -1, 49.9814, 7.57423, 11.8938, 52.5879, -60.1792, -58.8711, 14.0592, 35.0668, 23.2368, -37.873, -95.3584, 15.5133
2.624, -1, 50.0153, 7.57436, 11.9009, 52.5802, -60.2208, -58.8736, 14.035, 35.0812, 23.2497, -37.7843, -95.3302, 15.4743
2.627, -1, 50.0493, 7.57448, 11.908, 52.5724, -60.2623, -58.8761, 14.0108, 35.0956, 23.2625, -37.6956, -95.302, 15.4352
2.632, -1, 50.0832, 7.5746, 11.9151, 52.5647, -60.3039, -58.8786, 13.9866, 35.11, 23.2753, -37.6069, -95.2739, 15.3962
2.636, -1, 50.117, 7.57472, 11.9221, 52.557, -60.3454, -58.8811, 13.9624, 35.1244, 23.2881, -37.5183, -95.2457, 15.3572
2.64, -1, 50.1509, 7.57485, 11.9292, 52.5493, -60.3869, -58.8837, 13.9383, 35.1387, 23.301, -37.4298, -95.2176, 15.3182
2.643, -1, 50.1848, 7.57497, 11.9363, 52.5416, -60.4284, -58.8862, 13.9141, 35.1531, 23.3138, -37.3413, -95.1895, 15.2792
2.648, -1, 50.2186, 7.57509, 11.9434, 52.5339, -60.4699, -58.8887, 13.89, 35.1674, 23.3266, -37.2528, -95.1614, 15.2403
2.652, -1, 50.2524, 7.57521, 11.9505, 52.5262, -60.5113, -58.8912, 13.8659, 35.1818, 23.3394, -37.1644, -95.1333, 15.2013
2.656, -1, 50.2863, 7.57534, 11.9576, 52.5185, -60.5528, -58.8937, 13.8417, 35.1961, 23.3522, -37.076, -95.1052, 15.1624
2.66, -1, 50.3201, 7.57546, 11.9646, 52.5108, -60.5942, -58.8962, 13.8176, 35.2105, 23.365, -36.9876, -95.0772, 15.1235
2.663, -1, 50.3538, 7.57558, 11.9717, 52.5031, -60.6356, -58.8987, 13.7935, 35.2248, 23.3777, -36.8993, -95.0491, 15.0846
2.668, -1, 50.3876, 7.5757, 11.9788, 52.4954, -60.677, -58.9012, 13.7695, 35.2391, 23.3905, -36.811, -95.0211, 15.0458
2.672, -1, 50.4214, 7.57582, 11.9858, 52.4877, -60.7184, -58.9037, 13.7454, 35.2534, 23.4033, -36.7228, -94.9931, 15.0069
2.676, -1, 50.4551, 7.57595, 11.9929, 52.48, -60.7597, -58.9062, 13.7213, 35.2677, 23.4161, -36.6346, -94.9651, 14.9681
2.679, -1, 50.4888, 7.57607, 12, 52.4723, -60.801, -58.9087, 13.6973, 35.282, 23.4288, -36.5464, -94.9371, 14.9293
2.684, -1, 50.5225, 7.57619, 12.007, 52.4647, -60.8423, -58.9112, 13.6732, 35.2963, 23.4416, -36.4583, -94.9091, 14.8905
2.688, -1, 50.5562, 7.57631, 12.0141, 52.457, -60.8836, -58.9137, 13.6492, 35.3106, 23.4543, -36.3702, -94.8811, 14.8517
2.692, -1, 50.5899, 7.57643, 12.0211, 52.4493, -60.9249, -58.9162, 13.6252, 35.3249, 23.4671, -36.2821, -94.8531, 14.8129
2.696, -1, 50.6236, 7.57656, 12.0282, 52.4417, -60.9662, -58.9187, 13.6011, 35.3392, 23.4798, -36.1941, -94.8252, 14.7742
2.699, -1, 50.6572, 7.57668, 12.0352, 52.434, -61.0074, -58.9212, 13.5771, 35.3535, 23.4926, -36.1061, -94.7973, 14.7355
2.704, -1, 50.6908, 7.5768, 12.0423, 52.4263, -61.0486, -58.9237, 13.5532, 35.3677, 23.5053, -36.0182, -94.7693, 14.6967
2.708, -1, 50.7245, 7.57692, 12.0493, 52.4187, -61.0898, -58.9262, 13.5292, 35.382, 23.518, -35.9303, -94.7414, 14.658
2.712, -1, 50.7581, 7.57704, 12.0563, 52.411, -61.131, -58.9287, 13.5052, 35.3962, 23.5307, -35.8424, -94.7135, 14.6194
2.716, -1, 50.7917, 7.57716, 12.0634, 52.4034, -61.1722, -58.9312, 13.4812, 35.4105, 23.5434, -35.7546, -94.6856, 14.5807
2.719, -1, 50.8253, 7.57729, 12.0704, 52.3957, -61.2133, -58.9337, 13.4573, 35.4247, 23.5561, -35.6668, -94.6577, 14.542
2.724, -1, 50.8588, 7.57741, 12.0774, 52.3881, -61.2545, -58.9362, 13.4333, 35.439, 23.5688, -35.5791, -94.6299, 14.5034
2.728, -1, 50.8924, 7.57753, 12.0844, 52.3805, -61.2956, -58.9387, 13.4094, 35.4532, 23.5815, -35.4914, -94.602, 14.4648
2.732, -1, 50.9259, 7.57765, 12.0914, 52.3728, -61.3367, -58.9412, 13.3855, 35.4674, 23.5942, -35.4037, -94.5742, 14.4262
2.735, -1, 50.9594, 7.57777, 12.0985, 52.3652, -61.3778, -58.9437, 13.3616, 35.4816, 23.6069, -35.316, -94.5463, 14.3876
2.74, -1, 50.9929, 7.57789, 12.1055, 52.3576, -61.4188, -58.9462, 13.3377, 35.4958, 23.6196, -35.2284, -94.5185, 14.349
2.744, -1, 51.0264, 7.57801, 12.1125, 52.3499, -61.4599, -58.9486, 13.3138, 35.5101, 23.6323, -35.1409, -94.4907, 14.3105
2.748, -1, 51.0599, 7.57813, 12.1195, 52.3423, -61.5009, -58.9511, 13.2899, 35.5243, 23.6449, -35.0533, -94.4629, 14.272
2.752, -1, 51.0934, 7.57826, 12.1265, 52.3347, -61.5419, -58.9536, 13.266, 35.5385, 23.6576, -34.9658, -94.4351, 14.2334
2.755, -1, 51.1268, 7.57838, 12.1335, 52.3271, -61.5829, -58.9561, 13.2422, 35.5526, 23.6703, -34.8784, -94.4074, 14.1949
2.76, -1, 51.1603, 7.5785, 12.1405, 52.3195, -61.6239, -58.9586, 13.2183, 35.5668, 23.6829, -34.791, -94.3796, 14.1564
2.764, -1, 51.1937, 7.57862, 12.1475, 52.3118, -61.6649, -58.9611, 13.1945, 35.581, 23.6956, -34.7036, -94.3518, 14.118
2.768, -1, 51.2271, 7.57874, 12.1545, 52.3042, -61.7058, -58.9635, 13.1707, 35.5952, 23.7082, -34.6162, -94.3241, 14.0795
2.772, -1, 51.2605, 7.57886, 12.1615, 52.2966, -61.7468, -58.966, 13.1468, 35.6093, 23.7209, -34.5289, -94.2964, 14.0411
2.775, -1, 51.2939, 7.57898, 12.1685, 52.289, -61.7877, -58.9685, 13.123, 35.6235, 23.7335, -34.4416, -94.2687, 14.0026
2.78, -1, 51.3273, 7.5791, 12.1755, 52.2814, -61.8286, -58.971, 13.0992, 35.6376, 23.7461, -34.3544, -94.241, 13.9642
2.784, -1, 51.3606, 7.57922, 12.1824, 52.2738, -61.8695, -58.9735, 13.0754, 35.6518, 23.7587, -34.2672, -94.2133, 13.9258
2.788, -1, 51.394, 7.57934, 12.1894, 52.2662, -61.9103, -58.9759, 13.0517, 35.6659, 23.7714, -34.18, -94.1856, 13.8875
2.791, -1, 51.4273, 7.57946, 12.1964, 52.2587, -61.9512, -58.9784, 13.0279, 35.6801, 23.784, -34.0929, -94.1579, 13.8491
2.796, -1, 51.4606, 7.57958, 12.2034, 52.2511, -61.992, -58.9809, 13.0041, 35.6942, 23.7966, -34.0058, -94.1302, 13.8108
2.8, -1, 51.4939, 7.5797, 12.2103, 52.2435, -62.0328, -58.9833, 12.9804, 35.7083, 23.8092, -33.9187, -94.1026, 13.7724
2.804, -1, 51.5272, 7.57982, 12.2173, 52.2359, -62.0736, -58.9858, 12.9566, 35.7225, 23.8218, -33.8317, -94.075, 13.7341
2.808, -1, 51.5605, 7.57995, 12.2243, 52.2283, -62.1144, -58.9883, 12.9329, 35.7366, 23.8344, -33.7447, -94.0473, 13.6958
2.811, -1, 51.5937, 7.58007, 12.2312, 52.2208, -62.1552, -58.9908, 12.9092, 35.7507, 23.847, -33.6577, -94.0197, 13.6575
2.816, -1, 51.627, 7.58019, 12.2382, 52.2132, -62.1959, -58.9932, 12.8854, 35.7648, 23.8595, -33.5708, -93.9921, 13.6192
2.82, -1, 51.6602, 7.58031, 12.2451, 52.2056, -62.2366, -58.9957, 12.8617, 35.7789, 23.8721, -33.4839, -93.9645, 13.581
2.824, -1, 51.6935, 7.58043, 12.2521, 52.1981, -62.2774, -58.9982, 12.838, 35.793, 23.8847, -33.397, -93.9369, 13.5428
2.828, -1, 51.7267, 7.58055, 12.2591, 52.1905, -62.3181, -59.0006, 12.8143, 35.807, 23.8973, -33.3102, -93.9093, 13.5045
2.831, -1, 51.7599, 7.58067, 12.266, 52.1829, -62.3587, -59.0031, 12.7907, 35.8211, 23.9098, -33.2234, -93.8818, 13.4663
2.836, -1, 51.793, 7.58079, 12.2729, 52.1754, -62.3994, -59.0055, 12.767, 35.8352, 23.9224, -33.1367, -93.8542, 13.4281
2.84, -1, 51.8262, 7.58091, 12.2799, 52.1678, -62.4401, -59.008, 12.7433, 35.8493, 23.9349, -33.0499, -93.8267, 13.3899
2.844, -1, 51.8594, 7.58103, 12.2868, 52.1603, -62.4807, -59.0105, 12.7197, 35.8633, 23.9475, -32.9632, -93.7992, 13.3518
2.847, -1, 51.8925, 7.58115, 12.2938, 52.1527, -62.5213, -59.0129, 12.6961, 35.8774, 23.96, -32.8766, -93.7716, 13.3136
2.852, -1, 51.9256, 7.58127, 12.3007, 52.1452, -62.5619, -59.0154, 12.6724, 35.8914, 23.9726, -32.79, -93.7441, 13.2755
2.856, -1, 51.9588, 7.58139, 12.3076, 52.1376, -62.6025, -59.0178, 12.6488, 35.9055, 23.9851, -32.7034, -93.7166, 13.2374
2.86, -1, 51.9919, 7.58151, 12.3146, 52.1301, -62.6431, -59.0203, 12.6252, 35.9195, 23.9976, -32.6168, -93.6892, 13.1993
2.864, -1, 52.025, 7.58163, 12.3215, 52.1226, -62.6836, -59.0228, 12.6016, 35.9336, 24.0101, -32.5303, -93.6617, 13.1612
2.867, -1, 52.058, 7.58175, 12.3284, 52.115, -62.7242, -59.0252, 12.578, 35.9476, 24.0227, -32.4438, -93.6342, 13.1231
2.872, -1, 52.0911, 7.58187, 12.3353, 52.1075, -62.7647, -59.0277, 12.5544, 35.9616, 24.0352, -32.3574, -93.6068, 13.085
2.876, -1, 52.1242, 7.58198, 12.3423, 52.1, -62.8052, -59.0301, 12.5308, 35.9756, 24.0477, -32.271, -93.5793, 13.047
2.88, -1, 52.1572, 7.5821, 12.3492, 52.0925, -62.8457, -59.0326, 12.5073, 35.9897, 24.0602, -32.1846, -93.5519, 13.009
2.883, -1, 52.1902, 7.58222, 12.3561, 52.0849, -62.8862, -59.035, 12.4837, 36.0037, 24.0727, -32.0982, -93.5245, 12.9709
2.888, -1, 52.2233, 7.58234, 12.363, 52.0774, -62.9267, -59.0375, 12.4601, 36.0177, 24.0852, -32.0119, -93.497, 12.9329
2.892, -1, 52.2563, 7.58246, 12.3699, 52.0699, -62.9671, -59.0399, 12.4366, 36.0317, 24.0977, -31.9256, -93.4696, 12.895
2.896, -1, 52.2893, 7.58258, 12.3768, 52.0624, -63.0075, -59.0424, 12.4131, 36.0457, 24.1102, -31.8394, -93.4422, 12.857
2.9, -1, 52.3222, 7.5827, 12.3837, 52.0549, -63.048, -59.0448, 12.3895, 36.0596, 24.1226, -31.7531, -93.4149, 12.819
2.903, -1, 52.3552, 7.58282, 12.3906, 52.0474, -63.0884, -59.0473, 12.366, 36.0736, 24.1351, -31.6669, -93.3875, 12.7811
2.908, -1, 52.3882, 7.58294, 12.3975, 52.0399, -63.1287, -59.0497, 12.3425, 36.0876, 24.1476, -31.5808, -93.3601, 12.7431
2.912, -1, 52.4211, 7.58306, 12.4044, 52.0324, -63.1691, -59.0522, 12.319, 36.1016, 24.1601, -31.4947, -93.3328, 12.7052
2.916, -1, 52.454, 7.58318, 12.4113, 52.0249, -63.2095, -59.0546, 12.2955, 36.1155, 24.1725, -31.4086, -93.3054, 12.6673
2.92, -1, 52.4869, 7.5833, 12.4182, 52.0174, -63.2498, -59.0571, 12.2721, 36.1295, 24.185, -31.3225, -93.2781, 12.6294
2.923, -1, 52.5198, 7.58342, 12.4251, 52.0099, -63.2901, -59.0595, 12.2486, 36.1435, 24.1974, -31.2365, -93.2508, 12.5916
2.928, -1, 52.5527, 7.58354, 12.432, 52.0024, -63.3305, -59.0619, 12.2251, 36.1574, 24.2099, -31.1505, -93.2235, 12.5537
2.932, -1, 52.5856, 7.58365, 12.4388, 51.9949, -63.3708, -59.0644, 12.2017, 36.1714, 24.2223, -31.0645, -93.1962, 12.5159
2.936, -1, 52.6185, 7.58377, 12.4457, 51.9874, -63.411, -59.0668, 12.1782, 36.1853, 24.2348, -30.9786, -93.1689, 12.478
2.939, -1, 52.6514, 7.58389, 12.4526, 51.9799, -63.4513, -59.0693, 12.1548, 36.1992, 24.2472, -30.8927, -93.1416, 12.4402
2.944, -1, 52.6842, 7.58401, 12.4595, 51.9725, -63.4916, -59.0717, 12.1314, 36.2132, 24.2596, -30.8068, -93.1143, 12.4024
2.948, -1, 52.717, 7.58413, 12.4663, 51.965, -63.5318, -59.0741, 12.108, 36.2271, 24.272, -30.721, -93.0871, 12.3646
2.952, -1, 52.7498, 7.58425, 12.4732, 51.9575, -63.572, -59.0766, 12.0845, 36.241, 24.2845, -30.6352, -93.0598, 12.3268
2.956, -1, 52.7827, 7.58437, 12.4801, 51.9501, -63.6122, -59.079, 12.0611, 36.2549, 24.2969, -30.5494, -93.0326, 12.2891
2.959, -1, 52.8154, 7.58449, 12.4869, 51.9426, -63.6524, -59.0814, 12.0378, 36.2688, 24.3093, -30.4637, -93.0054, 12.2513
2.964, -1, 52.8482, 7.5846, 12.4938, 51.9351, -63.6926, -59.0839, 12.0144, 36.2827, 24.3217, -30.378, -92.9782, 12.2136
2.968, -1, 52.881, 7.58472, 12.5007, 51.9277, -63.7328, -59.0863, 11.991, 36.2966, 24.3341, -30.2923, -92.9509, 12.1759
2.972, -1, 52.9138, 7.58484, 12.5075, 51.9202, -63.7729, -59.0887, 11.9676, 36.3105, 24.3465, -30.2066, -92.9238, 12.1382
2.976, -1, 52.9465, 7.58496, 12.5144, 51.9127, -63.813, -59.0912, 11.9443, 36.3244, 24.3589, -30.121, -92.8966, 12.1005
2.98, -1, 52.9793, 7.58508, 12.5212, 51.9053, -63.8532, -59.0936, 11.9209, 36.3383, 24.3713, -30.0354, -92.8694, 12.0628
2.984, -1, 53.012, 7.5852, 12.5281, 51.8978, -63.8933, -59.096, 11.8976, 36.3522, 24.3837, -29.9499, -92.8422, 12.0251
2.988, -1, 53.0447, 7.58531, 12.5349, 51.8904, -63.9334, -59.0984, 11.8742, 36.3661, 24.396, -29.8643, -92.815, 11.9875
2.992, -1, 53.0774, 7.58543, 12.5418, 51.8829, -63.9734, -59.1009, 11.8509, 36.3799, 24.4084, -29.7789, -92.7879, 11.9498
2.995, -1, 53.1101, 7.58555, 12.5486, 51.8755, -64.0135, -59.1033, 11.8276, 36.3938, 24.4208, -29.6934, -92.7607, 11.9122
3, -1, 53.1428, 7.58567, 12.5555, 51.8681, -64.0536, -59.1057, 11.8043, 36.4077, 24.4332, -29.608, -92.7336, 11.8746
3.004, -1, 53.1754, 7.58579, 12.5623, 51.8606, -64.0936, -59.1082, 11.781, 36.4215, 24.4455, -29.5226, -92.7065, 11.837
3.008, -1, 53.2081, 7.58591, 12.5691, 51.8532, -64.1336, -59.1106, 11.7577, 36.4354, 24.4579, -29.4372, -92.6794, 11.7994
3.012, -1, 53.2407, 7.58602, 12.576, 51.8458, -64.1736, -59.113, 11.7344, 36.4492, 24.4702, -29.3518, -92.6523, 11.7618
3.015, -1, 53.2734, 7.58614, 12.5828, 51.8383, -64.2136, -59.1154, 11.7111, 36.463, 24.4826, -29.2665, -92.6252, 11.7243
3.02, -1, 53.306, 7.58626, 12.5896, 51.8309, -64.2536, -59.1178, 11.6879, 36.4769, 24.4949, -29.1812, -92.5981, 11.6867
3.024, -1, 53.3386, 7.58638, 12.5964, 51.8235, -64.2935, -59.1203, 11.6646, 36.4907, 24.5073, -29.096, -92.571, 11.6492
3.028, -1, 53.3712, 7.5865, 12.6033, 51.816, -64.3335, -59.1227, 11.6414, 36.5045, 24.5196, -29.0108, -92.544, 11.6117
3.031, -1, 53.4038, 7.58661, 12.6101, 51.8086, -64.3734, -59.1251, 11.6181, 36.5184, 24.5319, -28.9256, -92.5169, 11.5742
3.036, -1, 53.4363, 7.58673, 12.6169, 51.8012, -64.4134, -59.1275, 11.5949, 36.5322, 24.5443, -28.8404, -92.4899, 11.5367
3.04, -1, 53.4689, 7.58685, 12.6237, 51.7938, -64.4533, -59.1299, 11.5717, 36.546, 24.5566, -28.7553, -92.4628, 11.4992
3.044, -1, 53.5015, 7.58697, 12.6305, 51.7864, -64.4932, -59.1324, 11.5484, 36.5598, 24.5689, -28.6702, -92.4358, 11.4617
3.048, -1, 53.534, 7.58708, 12.6374, 51.779, -64.533, -59.1348, 11.5252, 36.5736, 24.5812, -28.5851, -92.4088, 11.4243
3.051, -1, 53.5665, 7.5872, 12.6442, 51.7716, -64.5729, -59.1372, 11.502, 36.5874, 24.5935, -28.5, -92.3818, 11.3868
3.056, -1, 53.5991, 7.58732, 12.651, 51.7642, -64.6127, -59.1396, 11.4788, 36.6012, 24.6058, -28.415, -92.3548, 11.3494
3.06, -1, 53.6316, 7.58744, 12.6578, 51.7568, -64.6526, -59.142, 11.4557, 36.615, 24.6181, -28.33, -92.3278, 11.312
3.064, -1, 53.6641, 7.58755, 12.6646, 51.7494, -64.6924, -59.1444, 11.4325, 36.6287, 24.6304, -28.2451, -92.3008, 11.2746
3.068, -1, 53.6965, 7.58767, 12.6714, 51.742, -64.7322, -59.1468, 11.4093, 36.6425, 24.6427, -28.1602, -92.2738, 11.2372
3.071, -1, 53.729, 7.58779, 12.6782, 51.7346, -64.772, -59.1492, 11.3861, 36.6563, 24.655, -28.0753, -92.2469, 11.1998
3.076, -1, 53.7615, 7.58791, 12.685, 51.7272, -64.8118, -59.1517, 11.363, 36.6701, 24.6673, -27.9904, -92.2199, 11.1625
3.08, -1, 53.7939, 7.58802, 12.6918, 51.7198, -64.8516, -59.1541, 11.3398, 36.6838, 24.6796, -27.9055, -92.193, 11.1251
3.084, -1, 53.8264, 7.58814, 12.6985, 51.7124, -64.8913, -59.1565, 11.3167, 36.6976, 24.6919, -27.8207, -92.166, 11.0878
3.087, -1, 53.8588, 7.58826, 12.7053, 51.705, -64.9311, -59.1589, 11.2936, 36.7113, 24.7041, -27.7359, -92.1391, 11.0504
3.092, -1, 53.8912, 7.58838, 12.7121, 51.6976, -64.9708, -59.1613, 11.2704, 36.7251, 24.7164, -27.6512, -92.1122, 11.0131
3.096, -1, 53.9236, 7.58849, 12.7189, 51.6903, -65.0105, -59.1637, 11.2473, 36.7388, 24.7287, -27.5665, -92.0853, 10.9758
3.1, -1, 53.956, 7.58861, 12.7257, 51.6829, -65.0502, -59.1661, 11.2242, 36.7526, 24.7409, -27.4818, -92.0584, 10.9385
3.104, -1, 53.9884, 7.58873, 12.7325, 51.6755, -65.0899, -59.1685, 11.2011, 36.7663, 24.7532, -27.3971, -92.0315, 10.9012
3.107, -1, 54.0208, 7.58884, 12.7392, 51.6681, -65.1296, -59.1709, 11.178, 36.78, 24.7654, -27.3124, -92.0046, 10.864
3.112, -1, 54.0532, 7.58896, 12.746, 51.6608, -65.1693, -59.1733, 11.1549, 36.7938, 24.7777, -27.2278, -91.9778, 10.8267
3.116, -1, 54.0855, 7.58908, 12.7528, 51.6534, -65.2089, -59.1757, 11.1319, 36.8075, 24.7899, -27.1432, -91.9509, 10.7895
3.12, -1, 54.1179, 7.5892, 12.7596, 51.646, -65.2486, -59.1781, 11.1088, 36.8212, 24.8022, -27.0587, -91.924, 10.7523
3.124, -1, 54.1502, 7.58931, 12.7663, 51.6387, -65.2882, -59.1805, 11.0857, 36.8349, 24.8144, -26.9741, -91.8972, 10.715
3.128, -1, 54.1825, 7.58943, 12.7731, 51.6313, -65.3278, -59.1829, 11.0627, 36.8486, 24.8266, -26.8896, -91.8704, 10.6778
3.132, -1, 54.2148, 7.58955, 12.7799, 51.624, -65.3674, -59.1853, 11.0396, 36.8623, 24.8389, -26.8052, -91.8435, 10.6407
3.136, -1, 54.2471, 7.58966, 12.7866, 51.6166, -65.407, -59.1877, 11.0166, 36.876, 24.8511, -26.7207, -91.8167, 10.6035
3.14, -1, 54.2794, 7.58978, 12.7934, 51.6093, -65.4466, -59.1901, 10.9936, 36.8897, 24.8633, -26.6363, -91.7899, 10.5663
3.143, -1, 54.3117, 7.5899, 12.8001, 51.6019, -65.4861, -59.1925, 10.9705, 36.9034, 24.8755, -26.5519, -91.7631, 10.5292
3.148, -1, 54.344, 7.59001, 12.8069, 51.5946, -65.5257, -59.1949, 10.9475, 36.9171, 24.8877, -26.4675, -91.7363, 10.492
3.152, -1, 54.3762, 7.59013, 12.8136, 51.5872, -65.5652, -59.1973, 10.9245, 36.9308, 24.8999, -26.3832, -91.7095, 10.4549
3.156, -1, 54.4085, 7.59025, 12.8204, 51.5799, -65.6047, -59.1997, 10.9015, 36.9445, 24.9121, -26.2989, -91.6827, 10.4178
3.16, -1, 54.4407, 7.59036, 12.8271, 51.5725, -65.6442, -59.2021, 10.8785, 36.9581, 24.9243, -26.2146, -91.656, 10.3807
3.163, -1, 54.4729, 7.59048, 12.8339, 51.5652, -65.6837, -59.2045, 10.8555, 36.9718, 24.9365, -26.1303, -91.6292, 10.3436
3.168, -1, 54.5052, 7.5906, 12.8406, 51.5578, -65.7232, -59.2069, 10.8325, 36.9855, 24.9487, -26.0461, -91.6025, 10.3065
3.172, -1, 54.5374, 7.59071, 12.8474, 51.5505, -65.7627, -59.2093, 10.8096, 36.9991, 24.9609, -25.9619, -91.5757, 10.2694
3.176, -1, 54.5696, 7.59083, 12.8541, 51.5432, -65.8022, -59.2116, 10.7866, 37.0128, 24.9731, -25.8777, -91.549, 10.2323
3.179, -1, 54.6018, 7.59095, 12.8608, 51.5359, -65.8416, -59.214, 10.7636, 37.0264, 24.9853, -25.7936, -91.5223, 10.1953
3.184, -1, 54.6339, 7.59106, 12.8676, 51.5285, -65.8811, -59.2164, 10.7407, 37.0401, 24.9975, -25.7094, -91.4956, 10.1583
3.188, -1, 54.6661, 7.59118, 12.8743, 51.5212, -65.9205, -59.2188, 10.7178, 37.0537, 25.0096, -25.6253, -91.4689, 10.1212
3.192, -1, 54.6983, 7.5913, 12.881, 51.5139, -65.9599, -59.2212, 10.6948, 37.0674, 25.0218, -25.5413, -91.4422, 10.0842
3.196, -1, 54.7304, 7.59141, 12.8878, 51.5066, -65.9993, -59.2236, 10.6719, 37.081, 25.034, -25.4572, -91.4155, 10.0472
3.199, -1, 54.7625, 7.59153, 12.8945, 51.4992, -66.0387, -59.226, 10.649, 37.0946, 25.0461, -25.3732, -91.3888, 10.0102
3.204, -1, 54.7947, 7.59164, 12.9012, 51.4919, -66.078, -59.2283, 10.626, 37.1083, 25.0583, -25.2892, -91.3621, 9.97325
3.208, -1, 54.8268, 7.59176, 12.9079, 51.4846, -66.1174, -59.2307, 10.6031, 37.1219, 25.0704, -25.2052, -91.3354, 9.93628
3.212, -1, 54.8589, 7.59188, 12.9147, 51.4773, -66.1567, -59.2331, 10.5802, 37.1355, 25.0826, -25.1213, -91.3088, 9.89932
3.216, -1, 54.891, 7.59199, 12.9214, 51.47, -66.1961, -59.2355, 10.5573, 37.1491, 25.0947, -25.0374, -91.2821, 9.86238
3.22, -1, 54.9231, 7.59211, 12.9281, 51.4627, -66.2354, -59.2379, 10.5345, 37.1627, 25.1069, -24.9535, -91.2555, 9.82545
3.224, -1, 54.9552, 7.59223, 12.9348, 51.4554, -66.2747, -59.2403, 10.5116, 37.1763, 25.119, -24.8696, -91.2289, 9.78852
3.228, -1, 54.9872, 7.59234, 12.9415, 51.4481, -66.314, -59.2426, 10.4887, 37.1899, 25.1312, -24.7858, -91.2022, 9.75161
3.232, -1, 55.0193, 7.59246, 12.9482, 51.4408, -66.3533, -59.245, 10.4658, 37.2035, 25.1433, -24.702, -91.1756, 9.71471
3.235, -1, 55.0513, 7.59257, 12.9549, 51.4335, -66.3926, -59.2474, 10.443, 37.2171, 25.1554, -24.6182, -91.149, 9.67782
3.24, -1, 55.0834, 7.59269, 12.9617, 51.4262, -66.4319, -59.2498, 10.4201, 37.2307, 25.1675, -24.5344, -91.1224, 9.64094
3.244, -1, 55.1154, 7.5928, 12.9684, 51.4189, -66.4711, -59.2522, 10.3973, 37.2443, 25.1797, -24.4507, -91.0958, 9.60407
3.248, -1, 55.1474, 7.59292, 12.9751, 51.4116, -66.5104, -59.2545, 10.3744, 37.2579, 25.1918, -24.3669, -91.0692, 9.56721
3.252, -1, 55.1795, 7.59304, 12.9818, 51.4043, -66.5496, -59.2569, 10.3516, 37.2715, 25.2039, -24.2833, -91.0426, 9.53037
3.255, -1, 55.2115, 7.59315, 12.9885, 51.397, -66.5888, -59.2593, 10.3288, 37.285, 25.216, -24.1996, -91.0161, 9.49353
3.26, -1, 55.2435, 7.59327, 12.9952, 51.3898, -66.628, -59.2617, 10.306, 37.2986, 25.2281, -24.1159, -90.9895, 9.45671
3.264, -1, 55.2754, 7.59338, 13.0018, 51.3825, -66.6672, -59.264, 10.2831, 37.3122, 25.2402, -24.0323, -90.963, 9.4199
3.268, -1, 55.3074, 7.5935, 13.0085, 51.3752, -66.7064, -59.2664, 10.2603, 37.3257, 25.2523, -23.9487, -90.9364, 9.38309
3.272, -1, 55.3394, 7.59362, 13.0152, 51.3679, -66.7456, -59.2688, 10.2375, 37.3393, 25.2644, -23.8652, -90.9099, 9.3463
3.276, -1, 55.3713, 7.59373, 13.0219, 51.3606, -66.7848, -59.2712, 10.2147, 37.3528, 25.2765, -23.7816, -90.8833, 9.30952
3.28, -1, 55.4033, 7.59385, 13.0286, 51.3534, -66.8239, -59.2735, 10.192, 37.3664, 25.2886, -23.6981, -90.8568, 9.27275
3.284, -1, 55.4352, 7.59396, 13.0353, 51.3461, -66.863, -59.2759, 10.1692, 37.3799, 25.3007, -23.6146, -90.8303, 9.23599
3.288, -1, 55.4671, 7.59408, 13.042, 51.3388, -66.9022, -59.2783, 10.1464, 37.3935, 25.3128, -23.5311, -90.8038, 9.19924
3.291, -1, 55.4991, 7.59419, 13.0487, 51.3316, -66.9413, -59.2806, 10.1236, 37.407, 25.3248, -23.4477, -90.7773, 9.1625
3.296, -1, 55.531, 7.59431, 13.0553, 51.3243, -66.9804, -59.283, 10.1009, 37.4205, 25.3369, -23.3642, -90.7508, 9.12577
3.3, -1, 55.5629, 7.59442, 13.062, 51.317, -67.0195, -59.2854, 10.0781, 37.4341, 25.349, -23.2808, -90.7243, 9.08906
3.304, -1, 55.5948, 7.59454, 13.0687, 51.3098, -67.0586, -59.2877, 10.0554, 37.4476, 25.3611, -23.1975, -90.6978, 9.05235
3.308, -1, 55.6266, 7.59465, 13.0754, 51.3025, -67.0977, -59.2901, 10.0326, 37.4611, 25.3731, -23.1141, -90.6714, 9.01565
