hehonglu123/Motion-Primitive-Planning/simulation/robotstudio_sim/multimove/curve_exe_v500_z10.csv
timestamp, cmd_num, J1, J2, J3, J4, J5, J6, J1_2, J2_2, J3_2, J4_2, J5_2, J6_2
0.002, -1, 50.7475, -0.094422, 14.8101, 53.2765, -77.9018, -64.2424, -25.0497, 26.5649, 25.1852, -13.5974, -94.0858, 7.05674
0.006, -1, 50.7475, -0.094422, 14.8101, 53.2765, -77.9018, -64.2424, -25.0497, 26.5649, 25.1852, -13.5974, -94.0858, 7.05674
0.01, -1, 50.7475, -0.094422, 14.8101, 53.2765, -77.9018, -64.2424, -25.0497, 26.5649, 25.1852, -13.5974, -94.0858, 7.05674
0.011, -1, 50.7475, -0.094422, 14.8101, 53.2765, -77.9018, -64.2424, -25.0497, 26.5649, 25.1852, -13.5974, -94.0858, 7.05674
0.013, -1, 50.7475, -0.094422, 14.8101, 53.2765, -77.9018, -64.2424, -25.0497, 26.5649, 25.1852, -13.5974, -94.0858, 7.05674
0.016, -1, 50.7475, -0.094422, 14.8101, 53.2765, -77.9018, -64.2424, -25.0497, 26.5649, 25.1852, -13.5974, -94.0858, 7.05674
0.02, -1, 50.7475, -0.094422, 14.8101, 53.2765, -77.9018, -64.2424, -25.0497, 26.5649, 25.1852, -13.5974, -94.0858, 7.05674
0.024, -1, 50.7475, -0.094422, 14.8101, 53.2765, -77.9018, -64.2424, -25.0497, 26.5649, 25.1852, -13.5974, -94.0858, 7.05674
0.028, -1, 50.7475, -0.094422, 14.8101, 53.2765, -77.9018, -64.2424, -25.0497, 26.5649, 25.1852, -13.5974, -94.0858, 7.05674
0.032, -1, 50.7475, -0.094422, 14.8101, 53.2765, -77.9018, -64.2424, -25.0497, 26.5649, 25.1852, -13.5974, -94.0858, 7.05674
0.036, -1, 50.7475, -0.094422, 14.8101, 53.2765, -77.9018, -64.2424, -25.0497, 26.5649, 25.1852, -13.5974, -94.0858, 7.05674
0.04, -1, 50.7475, -0.094422, 14.8101, 53.2765, -77.9018, -64.2424, -25.0497, 26.5649, 25.1852, -13.5974, -94.0858, 7.05674
0.044, -1, 50.7475, -0.094422, 14.8101, 53.2765, -77.9018, -64.2424, -25.0496, 26.5649, 25.1852, -13.5974, -94.0858, 7.05674
0.048, -1, 50.7475, -0.094422, 14.8101, 53.2765, -77.9018, -64.2424, -25.049, 26.565, 25.1853, -13.5975, -94.0858, 7.05674
0.052, -1, 50.7475, -0.094422, 14.8101, 53.2765, -77.9018, -64.2424, -25.0475, 26.5653, 25.1855, -13.5975, -94.0858, 7.05674
0.056, -1, 50.7475, -0.0944151, 14.8101, 53.2765, -77.9018, -64.2424, -25.0445, 26.566, 25.1858, -13.5976, -94.0857, 7.05674
0.06, -1, 50.7475, -0.0943701, 14.8101, 53.2765, -77.9017, -64.2424, -25.0399, 26.5673, 25.1865, -13.5977, -94.0856, 7.05674
0.064, -1, 50.7477, -0.0942215, 14.8101, 53.2765, -77.9017, -64.2424, -25.0335, 26.5692, 25.1874, -13.598, -94.0854, 7.05674
0.068, -1, 50.748, -0.0938808, 14.8101, 53.2765, -77.9016, -64.2424, -25.0252, 26.572, 25.1885, -13.5984, -94.0851, 7.05674
0.072, -1, 50.7486, -0.0932517, 14.81, 53.2764, -77.9014, -64.2423, -25.015, 26.5758, 25.1899, -13.5989, -94.0846, 7.05673
0.076, -1, 50.7496, -0.092228, 14.8098, 53.2763, -77.9009, -64.2421, -25.0032, 26.5806, 25.1914, -13.5997, -94.0839, 7.05673
0.08, -1, 50.751, -0.0906919, 14.8096, 53.276, -77.9, -64.2416, -24.9899, 26.5863, 25.1929, -13.6008, -94.0829, 7.05671
0.084, -1, 50.753, -0.0885456, 14.8093, 53.2756, -77.8986, -64.2409, -24.9748, 26.5926, 25.1944, -13.6023, -94.0815, 7.0567
0.088, -1, 50.7555, -0.0857328, 14.8089, 53.275, -77.8964, -64.2397, -24.9578, 26.5996, 25.1958, -13.6041, -94.0798, 7.05668
0.092, -1, 50.7587, -0.0822177, 14.8084, 53.2741, -77.8932, -64.238, -24.9387, 26.6071, 25.1971, -13.6064, -94.0776, 7.05665
0.096, -1, 50.7624, -0.0779599, 14.8077, 53.273, -77.889, -64.2356, -24.9176, 26.615, 25.1981, -13.6091, -94.0749, 7.05661
0.1, -1, 50.7668, -0.0729257, 14.8068, 53.2715, -77.8835, -64.2326, -24.8944, 26.6232, 25.199, -13.6123, -94.0718, 7.05656
0.104, -1, 50.7718, -0.0671101, 14.8057, 53.2696, -77.8768, -64.2289, -24.8693, 26.6316, 25.1995, -13.616, -94.0681, 7.05651
0.108, -1, 50.7774, -0.0605217, 14.8045, 53.2675, -77.8689, -64.2244, -24.8424, 26.6402, 25.1998, -13.6202, -94.0639, 7.05645
0.112, -1, 50.7837, -0.05317, 14.8032, 53.265, -77.86, -64.2194, -24.8136, 26.6492, 25.1998, -13.6248, -94.0592, 7.05638
0.116, -1, 50.7905, -0.0450863, 14.8017, 53.2623, -77.85, -64.2138, -24.7829, 26.6585, 25.1997, -13.6299, -94.0541, 7.0563
0.12, -1, 50.798, -0.0363335, 14.8, 53.2593, -77.8393, -64.2077, -24.7503, 26.6685, 25.1994, -13.6354, -94.0485, 7.05621
0.124, -1, 50.806, -0.0269912, 14.7983, 53.2562, -77.828, -64.2014, -24.7157, 26.6792, 25.1991, -13.6413, -94.0427, 7.05612
0.128, -1, 50.8144, -0.0171434, 14.7965, 53.253, -77.8162, -64.1948, -24.6792, 26.6908, 25.1988, -13.6474, -94.0365, 7.05603
0.131, -1, 50.8232, -0.00688567, 14.7946, 53.2497, -77.8042, -64.188, -24.6409, 26.7036, 25.1987, -13.6538, -94.03, 7.05593
0.136, -1, 50.8322, 0.00367717, 14.7927, 53.2463, -77.792, -64.1812, -24.6008, 26.7173, 25.1988, -13.6604, -94.0234, 7.05583
0.139, -1, 50.8415, 0.0144522, 14.7908, 53.2429, -77.7796, -64.1743, -24.5589, 26.732, 25.1991, -13.6671, -94.0167, 7.05573
0.144, -1, 50.8509, 0.0253656, 14.7889, 53.2395, -77.7673, -64.1674, -24.5154, 26.7473, 25.1997, -13.674, -94.0098, 7.05563
0.148, -1, 50.8604, 0.0363568, 14.7869, 53.2361, -77.7549, -64.1605, -24.4704, 26.7632, 25.2005, -13.6809, -94.0029, 7.05553
0.152, -1, 50.8699, 0.0473802, 14.7849, 53.2327, -77.7425, -64.1536, -24.4241, 26.7794, 25.2014, -13.6879, -93.9959, 7.05543
0.156, -1, 50.8794, 0.0584104, 14.783, 53.2293, -77.7301, -64.1467, -24.3769, 26.7958, 25.2025, -13.6949, -93.989, 7.05533
0.16, -1, 50.8889, 0.0694402, 14.781, 53.2259, -77.7177, -64.1398, -24.3288, 26.8125, 25.2037, -13.7019, -93.982, 7.05523
0.164, -1, 50.8985, 0.0804692, 14.7791, 53.2225, -77.7053, -64.1329, -24.2805, 26.8291, 25.2049, -13.7089, -93.975, 7.05513
0.168, -1, 50.908, 0.0914972, 14.7771, 53.2191, -77.693, -64.126, -24.232, 26.8458, 25.2061, -13.716, -93.968, 7.05502
0.172, -1, 50.9175, 0.102524, 14.7752, 53.2157, -77.6806, -64.119, -24.1835, 26.8625, 25.2074, -13.723, -93.961, 7.05492
0.176, -1, 50.927, 0.113551, 14.7732, 53.2123, -77.6682, -64.1121, -24.1351, 26.8792, 25.2086, -13.73, -93.954, 7.05482
0.18, -1, 50.9365, 0.124576, 14.7712, 53.2089, -77.6558, -64.1052, -24.0866, 26.8959, 25.2098, -13.737, -93.947, 7.05472
0.184, -1, 50.9461, 0.135601, 14.7693, 53.2055, -77.6434, -64.0983, -24.0382, 26.9126, 25.211, -13.7441, -93.94, 7.05462
0.188, -1, 50.9556, 0.146625, 14.7673, 53.2021, -77.631, -64.0914, -23.9897, 26.9292, 25.2123, -13.7511, -93.9331, 7.05451
0.192, -1, 50.9651, 0.157647, 14.7654, 53.1987, -77.6187, -64.0845, -23.9413, 26.9459, 25.2135, -13.7581, -93.9261, 7.05441
0.196, -1, 50.9746, 0.168669, 14.7634, 53.1953, -77.6063, -64.0776, -23.8928, 26.9626, 25.2147, -13.7652, -93.9191, 7.05431
0.2, -1, 50.9841, 0.17969, 14.7615, 53.1919, -77.5939, -64.0707, -23.8444, 26.9793, 25.2159, -13.7722, -93.9121, 7.05421
0.204, -1, 50.9936, 0.190711, 14.7595, 53.1885, -77.5815, -64.0638, -23.7959, 26.9959, 25.2172, -13.7792, -93.9051, 7.05411
0.208, -1, 51.0031, 0.20173, 14.7576, 53.1851, -77.5692, -64.0569, -23.7475, 27.0126, 25.2184, -13.7862, -93.8981, 7.05401
0.212, -1, 51.0127, 0.212749, 14.7556, 53.1817, -77.5568, -64.05, -23.6991, 27.0293, 25.2196, -13.7933, -93.8911, 7.0539
0.216, -1, 51.0222, 0.223766, 14.7536, 53.1783, -77.5444, -64.0431, -23.6507, 27.046, 25.2208, -13.8003, -93.8841, 7.0538
0.22, -1, 51.0317, 0.234783, 14.7517, 53.1749, -77.532, -64.0362, -23.6022, 27.0626, 25.2221, -13.8073, -93.8772, 7.0537
0.224, -1, 51.0412, 0.245799, 14.7497, 53.1715, -77.5197, -64.0293, -23.5538, 27.0793, 25.2233, -13.8143, -93.8702, 7.0536
0.228, -1, 51.0507, 0.256814, 14.7478, 53.1681, -77.5073, -64.0224, -23.5054, 27.096, 25.2245, -13.8213, -93.8632, 7.0535
0.232, -1, 51.0602, 0.267828, 14.7458, 53.1647, -77.4949, -64.0155, -23.457, 27.1126, 25.2257, -13.8284, -93.8562, 7.0534
0.236, -1, 51.0697, 0.278841, 14.7439, 53.1613, -77.4826, -64.0086, -23.4086, 27.1293, 25.227, -13.8354, -93.8492, 7.05329
0.24, -1, 51.0792, 0.289853, 14.7419, 53.1579, -77.4702, -64.0017, -23.3602, 27.146, 25.2282, -13.8424, -93.8423, 7.05319
0.244, -1, 51.0887, 0.300865, 14.74, 53.1545, -77.4578, -63.9948, -23.3118, 27.1626, 25.2294, -13.8494, -93.8353, 7.05309
0.248, -1, 51.0982, 0.311875, 14.738, 53.1511, -77.4454, -63.9879, -23.2634, 27.1793, 25.2306, -13.8564, -93.8283, 7.05299
0.252, -1, 51.1077, 0.322885, 14.7361, 53.1477, -77.4331, -63.981, -23.215, 27.1959, 25.2319, -13.8635, -93.8213, 7.05289
0.256, -1, 51.1172, 0.333894, 14.7341, 53.1443, -77.4207, -63.9741, -23.1666, 27.2126, 25.2331, -13.8705, -93.8143, 7.05279
0.26, -1, 51.1267, 0.344902, 14.7321, 53.1409, -77.4084, -63.9672, -23.1182, 27.2293, 25.2343, -13.8775, -93.8074, 7.05269
0.264, -1, 51.1362, 0.355909, 14.7302, 53.1375, -77.396, -63.9603, -23.0698, 27.2459, 25.2355, -13.8845, -93.8004, 7.05258
0.268, -1, 51.1457, 0.366915, 14.7282, 53.1341, -77.3836, -63.9534, -23.0215, 27.2626, 25.2367, -13.8915, -93.7934, 7.05248
0.272, -1, 51.1552, 0.37792, 14.7263, 53.1307, -77.3713, -63.9465, -22.9731, 27.2792, 25.238, -13.8986, -93.7864, 7.05238
0.276, -1, 51.1647, 0.388925, 14.7243, 53.1273, -77.3589, -63.9396, -22.9247, 27.2959, 25.2392, -13.9056, -93.7794, 7.05228
0.28, -1, 51.1742, 0.399928, 14.7224, 53.1239, -77.3466, -63.9327, -22.8764, 27.3125, 25.2404, -13.9126, -93.7725, 7.05218
0.284, -1, 51.1837, 0.410931, 14.7204, 53.1205, -77.3342, -63.9258, -22.828, 27.3292, 25.2416, -13.9196, -93.7655, 7.05208
0.288, -1, 51.1932, 0.421933, 14.7185, 53.1171, -77.3218, -63.9189, -22.7797, 27.3458, 25.2429, -13.9266, -93.7585, 7.05197
0.292, -1, 51.2027, 0.432934, 14.7165, 53.1137, -77.3095, -63.912, -22.7313, 27.3625, 25.2441, -13.9336, -93.7515, 7.05187
0.296, -1, 51.2122, 0.443934, 14.7146, 53.1103, -77.2971, -63.9051, -22.683, 27.3791, 25.2453, -13.9406, -93.7446, 7.05177
0.3, -1, 51.2217, 0.454933, 14.7126, 53.1069, -77.2848, -63.8983, -22.6346, 27.3958, 25.2465, -13.9476, -93.7376, 7.05167
0.304, -1, 51.2312, 0.465931, 14.7107, 53.1035, -77.2724, -63.8914, -22.5863, 27.4124, 25.2478, -13.9547, -93.7306, 7.05157
0.308, -1, 51.2407, 0.476928, 14.7087, 53.1001, -77.2601, -63.8845, -22.5379, 27.429, 25.249, -13.9617, -93.7236, 7.05147
0.312, -1, 51.2502, 0.487925, 14.7068, 53.0967, -77.2477, -63.8776, -22.4896, 27.4457, 25.2502, -13.9687, -93.7167, 7.05137
0.316, -1, 51.2597, 0.49892, 14.7048, 53.0933, -77.2354, -63.8707, -22.4413, 27.4623, 25.2514, -13.9757, -93.7097, 7.05126
0.32, -1, 51.2692, 0.509915, 14.7029, 53.0899, -77.223, -63.8638, -22.3929, 27.479, 25.2526, -13.9827, -93.7027, 7.05116
0.324, -1, 51.2787, 0.520909, 14.7009, 53.0865, -77.2107, -63.8569, -22.3446, 27.4956, 25.2539, -13.9897, -93.6958, 7.05106
0.328, -1, 51.2881, 0.531902, 14.699, 53.0832, -77.1983, -63.85, -22.2963, 27.5122, 25.2551, -13.9967, -93.6888, 7.05096
0.332, -1, 51.2976, 0.542894, 14.697, 53.0798, -77.186, -63.8431, -22.248, 27.5289, 25.2563, -14.0037, -93.6818, 7.05086
0.336, -1, 51.3071, 0.553885, 14.6951, 53.0764, -77.1737, -63.8363, -22.1997, 27.5455, 25.2575, -14.0107, -93.6749, 7.05076
0.34, -1, 51.3166, 0.564876, 14.6931, 53.073, -77.1613, -63.8294, -22.1514, 27.5621, 25.2588, -14.0177, -93.6679, 7.05066
0.344, -1, 51.3261, 0.575865, 14.6912, 53.0696, -77.149, -63.8225, -22.1031, 27.5787, 25.26, -14.0247, -93.6609, 7.05055
0.348, -1, 51.3356, 0.586854, 14.6892, 53.0662, -77.1366, -63.8156, -22.0548, 27.5954, 25.2612, -14.0317, -93.654, 7.05045
0.352, -1, 51.3451, 0.597842, 14.6873, 53.0628, -77.1243, -63.8087, -22.0065, 27.612, 25.2624, -14.0388, -93.647, 7.05035
0.356, -1, 51.3545, 0.608829, 14.6853, 53.0594, -77.1119, -63.8018, -21.9582, 27.6286, 25.2636, -14.0458, -93.64, 7.05025
0.36, -1, 51.364, 0.619816, 14.6834, 53.056, -77.0996, -63.795, -21.9099, 27.6453, 25.2649, -14.0528, -93.6331, 7.05015
0.364, -1, 51.3735, 0.630801, 14.6814, 53.0526, -77.0873, -63.7881, -21.8616, 27.6619, 25.2661, -14.0598, -93.6261, 7.05005
0.368, -1, 51.383, 0.641786, 14.6795, 53.0492, -77.0749, -63.7812, -21.8133, 27.6785, 25.2673, -14.0668, -93.6191, 7.04995
0.372, -1, 51.3925, 0.65277, 14.6775, 53.0458, -77.0626, -63.7743, -21.765, 27.6951, 25.2685, -14.0738, -93.6122, 7.04984
0.376, -1, 51.402, 0.663753, 14.6756, 53.0425, -77.0503, -63.7674, -21.7168, 27.7117, 25.2697, -14.0808, -93.6052, 7.04974
0.38, -1, 51.4114, 0.674736, 14.6736, 53.0391, -77.0379, -63.7605, -21.6685, 27.7284, 25.271, -14.0878, -93.5982, 7.04964
0.384, -1, 51.4209, 0.685717, 14.6717, 53.0357, -77.0256, -63.7537, -21.6202, 27.745, 25.2722, -14.0948, -93.5913, 7.04954
0.388, -1, 51.4304, 0.696698, 14.6697, 53.0323, -77.0133, -63.7468, -21.572, 27.7616, 25.2734, -14.1018, -93.5843, 7.04944
0.392, -1, 51.4399, 0.707678, 14.6678, 53.0289, -77.0009, -63.7399, -21.5237, 27.7782, 25.2746, -14.1088, -93.5774, 7.04934
0.396, -1, 51.4494, 0.718657, 14.6658, 53.0255, -76.9886, -63.733, -21.4754, 27.7948, 25.2758, -14.1158, -93.5704, 7.04924
0.4, -1, 51.4588, 0.729635, 14.6639, 53.0221, -76.9763, -63.7261, -21.4272, 27.8114, 25.2771, -14.1228, -93.5634, 7.04913
0.404, -1, 51.4683, 0.740613, 14.6619, 53.0187, -76.9639, -63.7193, -21.3789, 27.828, 25.2783, -14.1298, -93.5565, 7.04903
0.408, -1, 51.4778, 0.751589, 14.66, 53.0153, -76.9516, -63.7124, -21.3307, 27.8446, 25.2795, -14.1368, -93.5495, 7.04893
0.412, -1, 51.4873, 0.762565, 14.658, 53.012, -76.9393, -63.7055, -21.2825, 27.8613, 25.2807, -14.1438, -93.5426, 7.04883
0.416, -1, 51.4967, 0.77354, 14.6561, 53.0086, -76.927, -63.6986, -21.2342, 27.8779, 25.2819, -14.1508, -93.5356, 7.04873
0.42, -1, 51.5062, 0.784515, 14.6541, 53.0052, -76.9146, -63.6918, -21.186, 27.8945, 25.2832, -14.1578, -93.5286, 7.04863
0.424, -1, 51.5157, 0.795488, 14.6522, 53.0018, -76.9023, -63.6849, -21.1377, 27.9111, 25.2844, -14.1648, -93.5217, 7.04853
0.428, -1, 51.5251, 0.806461, 14.6502, 52.9984, -76.89, -63.678, -21.0895, 27.9277, 25.2856, -14.1717, -93.5147, 7.04843
0.432, -1, 51.5346, 0.817433, 14.6483, 52.995, -76.8777, -63.6711, -21.0413, 27.9443, 25.2868, -14.1787, -93.5078, 7.04833
0.436, -1, 51.5441, 0.828404, 14.6463, 52.9916, -76.8653, -63.6643, -20.9931, 27.9609, 25.288, -14.1857, -93.5008, 7.04822
0.44, -1, 51.5536, 0.839374, 14.6444, 52.9882, -76.853, -63.6574, -20.9449, 27.9775, 25.2893, -14.1927, -93.4939, 7.04812
0.444, -1, 51.563, 0.850344, 14.6425, 52.9849, -76.8407, -63.6505, -20.8966, 27.9941, 25.2905, -14.1997, -93.4869, 7.04802
0.448, -1, 51.5725, 0.861312, 14.6405, 52.9815, -76.8284, -63.6436, -20.8484, 28.0107, 25.2917, -14.2067, -93.48, 7.04792
0.452, -1, 51.582, 0.87228, 14.6386, 52.9781, -76.8161, -63.6368, -20.8002, 28.0273, 25.2929, -14.2137, -93.473, 7.04782
0.456, -1, 51.5914, 0.883247, 14.6366, 52.9747, -76.8037, -63.6299, -20.752, 28.0439, 25.2941, -14.2207, -93.466, 7.04772
0.46, -1, 51.6009, 0.894214, 14.6347, 52.9713, -76.7914, -63.623, -20.7038, 28.0605, 25.2954, -14.2277, -93.4591, 7.04762
0.464, -1, 51.6104, 0.905179, 14.6327, 52.9679, -76.7791, -63.6162, -20.6556, 28.0771, 25.2966, -14.2347, -93.4521, 7.04752
0.468, -1, 51.6198, 0.916144, 14.6308, 52.9645, -76.7668, -63.6093, -20.6074, 28.0936, 25.2978, -14.2417, -93.4452, 7.04741
0.472, -1, 51.6293, 0.927108, 14.6288, 52.9612, -76.7545, -63.6024, -20.5592, 28.1102, 25.299, -14.2487, -93.4382, 7.04731
0.476, -1, 51.6388, 0.938071, 14.6269, 52.9578, -76.7422, -63.5956, -20.5111, 28.1268, 25.3002, -14.2556, -93.4313, 7.04721
0.48, -1, 51.6482, 0.949033, 14.6249, 52.9544, -76.7299, -63.5887, -20.4629, 28.1434, 25.3014, -14.2626, -93.4243, 7.04711
0.484, -1, 51.6577, 0.959995, 14.623, 52.951, -76.7176, -63.5818, -20.4147, 28.16, 25.3027, -14.2696, -93.4174, 7.04701
0.488, -1, 51.6671, 0.970955, 14.621, 52.9476, -76.7052, -63.575, -20.3665, 28.1766, 25.3039, -14.2766, -93.4104, 7.04691
0.492, -1, 51.6766, 0.981915, 14.6191, 52.9442, -76.6929, -63.5681, -20.3183, 28.1932, 25.3051, -14.2836, -93.4035, 7.04681
0.496, -1, 51.6861, 0.992875, 14.6172, 52.9409, -76.6806, -63.5612, -20.2702, 28.2098, 25.3063, -14.2906, -93.3965, 7.04671
0.5, -1, 51.6955, 1.00383, 14.6152, 52.9375, -76.6683, -63.5544, -20.222, 28.2263, 25.3075, -14.2976, -93.3896, 7.0466
0.504, -1, 51.705, 1.01479, 14.6133, 52.9341, -76.656, -63.5475, -20.1738, 28.2429, 25.3088, -14.3046, -93.3827, 7.0465
0.508, -1, 51.7144, 1.02575, 14.6113, 52.9307, -76.6437, -63.5406, -20.1257, 28.2595, 25.31, -14.3115, -93.3757, 7.0464
0.512, -1, 51.7239, 1.0367, 14.6094, 52.9273, -76.6314, -63.5338, -20.0775, 28.2761, 25.3112, -14.3185, -93.3688, 7.0463
0.516, -1, 51.7334, 1.04766, 14.6074, 52.9239, -76.6191, -63.5269, -20.0294, 28.2926, 25.3124, -14.3255, -93.3618, 7.0462
0.52, -1, 51.7428, 1.05861, 14.6055, 52.9206, -76.6068, -63.52, -19.9812, 28.3092, 25.3136, -14.3325, -93.3549, 7.0461
0.524, -1, 51.7523, 1.06957, 14.6035, 52.9172, -76.5945, -63.5132, -19.9331, 28.3258, 25.3148, -14.3395, -93.3479, 7.046
0.528, -1, 51.7617, 1.08052, 14.6016, 52.9138, -76.5822, -63.5063, -19.8849, 28.3424, 25.3161, -14.3465, -93.341, 7.0459
0.532, -1, 51.7712, 1.09147, 14.5997, 52.9104, -76.5699, -63.4994, -19.8368, 28.3589, 25.3173, -14.3534, -93.334, 7.0458
0.536, -1, 51.7806, 1.10242, 14.5977, 52.907, -76.5576, -63.4926, -19.7887, 28.3755, 25.3185, -14.3604, -93.3271, 7.04569
0.54, -1, 51.7901, 1.11337, 14.5958, 52.9037, -76.5453, -63.4857, -19.7405, 28.3921, 25.3197, -14.3674, -93.3202, 7.04559
0.544, -1, 51.7995, 1.12432, 14.5938, 52.9003, -76.533, -63.4789, -19.6924, 28.4087, 25.3209, -14.3744, -93.3132, 7.04549
0.548, -1, 51.809, 1.13527, 14.5919, 52.8969, -76.5207, -63.472, -19.6443, 28.4252, 25.3221, -14.3814, -93.3063, 7.04539
0.552, -1, 51.8184, 1.14622, 14.5899, 52.8935, -76.5084, -63.4651, -19.5962, 28.4418, 25.3234, -14.3883, -93.2993, 7.04529
0.556, -1, 51.8279, 1.15717, 14.588, 52.8901, -76.4961, -63.4583, -19.548, 28.4584, 25.3246, -14.3953, -93.2924, 7.04519
0.56, -1, 51.8373, 1.16812, 14.5861, 52.8868, -76.4838, -63.4514, -19.4999, 28.4749, 25.3258, -14.4023, -93.2854, 7.04509
0.564, -1, 51.8468, 1.17906, 14.5841, 52.8834, -76.4715, -63.4446, -19.4518, 28.4915, 25.327, -14.4093, -93.2785, 7.04499
0.568, -1, 51.8562, 1.19001, 14.5822, 52.88, -76.4592, -63.4377, -19.4037, 28.508, 25.3282, -14.4163, -93.2716, 7.04489
0.572, -1, 51.8657, 1.20095, 14.5802, 52.8766, -76.4469, -63.4309, -19.3556, 28.5246, 25.3294, -14.4232, -93.2646, 7.04479
0.576, -1, 51.8751, 1.21189, 14.5783, 52.8732, -76.4346, -63.424, -19.3075, 28.5412, 25.3307, -14.4302, -93.2577, 7.04468
0.58, -1, 51.8846, 1.22284, 14.5763, 52.8699, -76.4224, -63.4171, -19.2594, 28.5577, 25.3319, -14.4372, -93.2508, 7.04458
0.584, -1, 51.894, 1.23378, 14.5744, 52.8665, -76.4101, -63.4103, -19.2113, 28.5743, 25.3331, -14.4442, -93.2438, 7.04448
0.588, -1, 51.9035, 1.24472, 14.5725, 52.8631, -76.3978, -63.4034, -19.1632, 28.5908, 25.3343, -14.4511, -93.2369, 7.04438
0.592, -1, 51.9129, 1.25566, 14.5705, 52.8597, -76.3855, -63.3966, -19.1151, 28.6074, 25.3355, -14.4581, -93.2299, 7.04428
0.596, -1, 51.9223, 1.2666, 14.5686, 52.8564, -76.3732, -63.3897, -19.0671, 28.6239, 25.3367, -14.4651, -93.223, 7.04418
0.6, -1, 51.9318, 1.27754, 14.5666, 52.853, -76.3609, -63.3829, -19.019, 28.6405, 25.338, -14.4721, -93.2161, 7.04408
0.604, -1, 51.9412, 1.28848, 14.5647, 52.8496, -76.3486, -63.376, -18.9709, 28.657, 25.3392, -14.479, -93.2091, 7.04398
0.608, -1, 51.9507, 1.29942, 14.5628, 52.8462, -76.3364, -63.3692, -18.9228, 28.6736, 25.3404, -14.486, -93.2022, 7.04388
0.612, -1, 51.9601, 1.31035, 14.5608, 52.8429, -76.3241, -63.3623, -18.8748, 28.6901, 25.3416, -14.493, -93.1953, 7.04378
0.616, -1, 51.9696, 1.32129, 14.5589, 52.8395, -76.3118, -63.3555, -18.8267, 28.7067, 25.3428, -14.5, -93.1883, 7.04368
0.62, -1, 51.979, 1.33222, 14.5569, 52.8361, -76.2995, -63.3486, -18.7786, 28.7232, 25.344, -14.5069, -93.1814, 7.04357
0.624, -1, 51.9884, 1.34316, 14.555, 52.8327, -76.2872, -63.3418, -18.7306, 28.7398, 25.3452, -14.5139, -93.1745, 7.04347
0.628, -1, 51.9979, 1.35409, 14.5531, 52.8293, -76.2749, -63.3349, -18.6825, 28.7563, 25.3465, -14.5209, -93.1675, 7.04337
0.632, -1, 52.0073, 1.36503, 14.5511, 52.826, -76.2627, -63.3281, -18.6345, 28.7729, 25.3477, -14.5278, -93.1606, 7.04327
0.636, -1, 52.0167, 1.37596, 14.5492, 52.8226, -76.2504, -63.3212, -18.5864, 28.7894, 25.3489, -14.5348, -93.1537, 7.04317
0.64, -1, 52.0262, 1.38689, 14.5472, 52.8192, -76.2381, -63.3144, -18.5384, 28.806, 25.3501, -14.5418, -93.1468, 7.04307
0.644, -1, 52.0356, 1.39782, 14.5453, 52.8159, -76.2258, -63.3075, -18.4903, 28.8225, 25.3513, -14.5487, -93.1398, 7.04297
0.648, -1, 52.045, 1.40875, 14.5434, 52.8125, -76.2136, -63.3007, -18.4423, 28.839, 25.3525, -14.5557, -93.1329, 7.04287
0.652, -1, 52.0545, 1.41968, 14.5414, 52.8091, -76.2013, -63.2938, -18.3942, 28.8556, 25.3538, -14.5627, -93.126, 7.04277
0.656, -1, 52.0639, 1.43061, 14.5395, 52.8057, -76.189, -63.287, -18.3462, 28.8721, 25.355, -14.5696, -93.119, 7.04267
0.66, -1, 52.0733, 1.44153, 14.5375, 52.8024, -76.1767, -63.2801, -18.2982, 28.8886, 25.3562, -14.5766, -93.1121, 7.04257
0.664, -1, 52.0828, 1.45246, 14.5356, 52.799, -76.1645, -63.2733, -18.2501, 28.9052, 25.3574, -14.5836, -93.1052, 7.04247
0.668, -1, 52.0922, 1.46339, 14.5337, 52.7956, -76.1522, -63.2664, -18.2021, 28.9217, 25.3586, -14.5905, -93.0983, 7.04236
0.672, -1, 52.1016, 1.47431, 14.5317, 52.7922, -76.1399, -63.2596, -18.1541, 28.9382, 25.3598, -14.5975, -93.0913, 7.04226
0.676, -1, 52.1111, 1.48524, 14.5298, 52.7889, -76.1277, -63.2527, -18.1061, 28.9548, 25.361, -14.6045, -93.0844, 7.04216
0.68, -1, 52.1205, 1.49616, 14.5278, 52.7855, -76.1154, -63.2459, -18.0581, 28.9713, 25.3622, -14.6114, -93.0775, 7.04206
0.684, -1, 52.1299, 1.50708, 14.5259, 52.7821, -76.1031, -63.239, -18.0101, 28.9878, 25.3635, -14.6184, -93.0705, 7.04196
0.688, -1, 52.1394, 1.51801, 14.524, 52.7788, -76.0909, -63.2322, -17.9621, 29.0044, 25.3647, -14.6254, -93.0636, 7.04186
0.692, -1, 52.1488, 1.52893, 14.522, 52.7754, -76.0786, -63.2254, -17.914, 29.0209, 25.3659, -14.6323, -93.0567, 7.04176
0.696, -1, 52.1582, 1.53985, 14.5201, 52.772, -76.0663, -63.2185, -17.866, 29.0374, 25.3671, -14.6393, -93.0498, 7.04166
0.7, -1, 52.1676, 1.55077, 14.5182, 52.7686, -76.0541, -63.2117, -17.818, 29.0539, 25.3683, -14.6462, -93.0429, 7.04156
0.704, -1, 52.1771, 1.56169, 14.5162, 52.7653, -76.0418, -63.2048, -17.7701, 29.0705, 25.3695, -14.6532, -93.0359, 7.04146
0.708, -1, 52.1865, 1.57261, 14.5143, 52.7619, -76.0295, -63.198, -17.7221, 29.087, 25.3707, -14.6602, -93.029, 7.04136
0.712, -1, 52.1959, 1.58353, 14.5123, 52.7585, -76.0173, -63.1912, -17.6741, 29.1035, 25.372, -14.6671, -93.0221, 7.04126
0.716, -1, 52.2053, 1.59444, 14.5104, 52.7552, -76.005, -63.1843, -17.6261, 29.12, 25.3732, -14.6741, -93.0152, 7.04115
0.72, -1, 52.2148, 1.60536, 14.5085, 52.7518, -75.9927, -63.1775, -17.5781, 29.1365, 25.3744, -14.681, -93.0082, 7.04105
0.724, -1, 52.2242, 1.61628, 14.5065, 52.7484, -75.9805, -63.1706, -17.5301, 29.1531, 25.3756, -14.688, -93.0013, 7.04095
0.728, -1, 52.2336, 1.62719, 14.5046, 52.745, -75.9682, -63.1638, -17.4822, 29.1696, 25.3768, -14.695, -92.9944, 7.04085
0.732, -1, 52.243, 1.6381, 14.5027, 52.7417, -75.956, -63.157, -17.4342, 29.1861, 25.378, -14.7019, -92.9875, 7.04075
0.736, -1, 52.2524, 1.64902, 14.5007, 52.7383, -75.9437, -63.1501, -17.3862, 29.2026, 25.3792, -14.7089, -92.9806, 7.04065
0.74, -1, 52.2619, 1.65993, 14.4988, 52.7349, -75.9315, -63.1433, -17.3383, 29.2191, 25.3804, -14.7158, -92.9736, 7.04055
0.744, -1, 52.2713, 1.67084, 14.4968, 52.7316, -75.9192, -63.1365, -17.2903, 29.2356, 25.3817, -14.7228, -92.9667, 7.04045
0.748, -1, 52.2807, 1.68175, 14.4949, 52.7282, -75.907, -63.1296, -17.2423, 29.2521, 25.3829, -14.7297, -92.9598, 7.04035
0.752, -1, 52.2901, 1.69266, 14.493, 52.7248, -75.8947, -63.1228, -17.1944, 29.2686, 25.3841, -14.7367, -92.9529, 7.04025
0.756, -1, 52.2995, 1.70357, 14.491, 52.7215, -75.8824, -63.1159, -17.1464, 29.2852, 25.3853, -14.7437, -92.946, 7.04015
0.76, -1, 52.309, 1.71448, 14.4891, 52.7181, -75.8702, -63.1091, -17.0985, 29.3017, 25.3865, -14.7506, -92.9391, 7.04005
0.764, -1, 52.3184, 1.72539, 14.4872, 52.7147, -75.8579, -63.1023, -17.0505, 29.3182, 25.3877, -14.7576, -92.9322, 7.03995
0.768, -1, 52.3278, 1.7363, 14.4852, 52.7114, -75.8457, -63.0954, -17.0026, 29.3347, 25.3889, -14.7645, -92.9252, 7.03985
0.772, -1, 52.3372, 1.74721, 14.4833, 52.708, -75.8334, -63.0886, -16.9546, 29.3512, 25.3902, -14.7715, -92.9183, 7.03975
0.776, -1, 52.3466, 1.75811, 14.4814, 52.7046, -75.8212, -63.0818, -16.9067, 29.3677, 25.3914, -14.7784, -92.9114, 7.03964
0.78, -1, 52.356, 1.76902, 14.4794, 52.7013, -75.8089, -63.0749, -16.8588, 29.3842, 25.3926, -14.7854, -92.9045, 7.03954
0.784, -1, 52.3654, 1.77992, 14.4775, 52.6979, -75.7967, -63.0681, -16.8109, 29.4007, 25.3938, -14.7923, -92.8976, 7.03944
0.788, -1, 52.3749, 1.79083, 14.4756, 52.6945, -75.7845, -63.0613, -16.7629, 29.4172, 25.395, -14.7993, -92.8907, 7.03934
0.792, -1, 52.3843, 1.80173, 14.4736, 52.6912, -75.7722, -63.0545, -16.715, 29.4337, 25.3962, -14.8062, -92.8838, 7.03924
0.796, -1, 52.3937, 1.81263, 14.4717, 52.6878, -75.76, -63.0476, -16.6671, 29.4502, 25.3974, -14.8132, -92.8768, 7.03914
0.8, -1, 52.4031, 1.82353, 14.4698, 52.6844, -75.7477, -63.0408, -16.6192, 29.4667, 25.3986, -14.8201, -92.8699, 7.03904
0.804, -1, 52.4125, 1.83443, 14.4678, 52.6811, -75.7355, -63.034, -16.5712, 29.4832, 25.3998, -14.8271, -92.863, 7.03894
0.808, -1, 52.4219, 1.84534, 14.4659, 52.6777, -75.7232, -63.0271, -16.5233, 29.4997, 25.4011, -14.834, -92.8561, 7.03884
0.812, -1, 52.4313, 1.85624, 14.4639, 52.6743, -75.711, -63.0203, -16.4754, 29.5162, 25.4023, -14.841, -92.8492, 7.03874
0.816, -1, 52.4407, 1.86713, 14.462, 52.671, -75.6987, -63.0135, -16.4275, 29.5326, 25.4035, -14.8479, -92.8423, 7.03864
0.82, -1, 52.4501, 1.87803, 14.4601, 52.6676, -75.6865, -63.0066, -16.3796, 29.5491, 25.4047, -14.8549, -92.8354, 7.03854
0.824, -1, 52.4595, 1.88893, 14.4581, 52.6642, -75.6743, -62.9998, -16.3317, 29.5656, 25.4059, -14.8618, -92.8285, 7.03844
0.828, -1, 52.4689, 1.89983, 14.4562, 52.6609, -75.662, -62.993, -16.2838, 29.5821, 25.4071, -14.8688, -92.8216, 7.03834
0.832, -1, 52.4784, 1.91072, 14.4543, 52.6575, -75.6498, -62.9862, -16.2359, 29.5986, 25.4083, -14.8757, -92.8147, 7.03824
0.836, -1, 52.4878, 1.92162, 14.4523, 52.6542, -75.6376, -62.9793, -16.1881, 29.6151, 25.4095, -14.8827, -92.8078, 7.03814
0.84, -1, 52.4972, 1.93251, 14.4504, 52.6508, -75.6253, -62.9725, -16.1402, 29.6316, 25.4107, -14.8896, -92.8008, 7.03804
0.844, -1, 52.5066, 1.94341, 14.4485, 52.6474, -75.6131, -62.9657, -16.0923, 29.6481, 25.412, -14.8966, -92.7939, 7.03793
0.848, -1, 52.516, 1.9543, 14.4465, 52.6441, -75.6009, -62.9589, -16.0444, 29.6645, 25.4132, -14.9035, -92.787, 7.03783
0.852, -1, 52.5254, 1.96519, 14.4446, 52.6407, -75.5886, -62.952, -15.9965, 29.681, 25.4144, -14.9104, -92.7801, 7.03773
0.856, -1, 52.5348, 1.97608, 14.4427, 52.6373, -75.5764, -62.9452, -15.9487, 29.6975, 25.4156, -14.9174, -92.7732, 7.03763
0.86, -1, 52.5442, 1.98697, 14.4407, 52.634, -75.5642, -62.9384, -15.9008, 29.714, 25.4168, -14.9243, -92.7663, 7.03753
0.864, -1, 52.5536, 1.99786, 14.4388, 52.6306, -75.5519, -62.9316, -15.8529, 29.7305, 25.418, -14.9313, -92.7594, 7.03743
0.868, -1, 52.563, 2.00875, 14.4369, 52.6273, -75.5397, -62.9247, -15.8051, 29.7469, 25.4192, -14.9382, -92.7525, 7.03733
0.872, -1, 52.5724, 2.01964, 14.435, 52.6239, -75.5275, -62.9179, -15.7572, 29.7634, 25.4204, -14.9452, -92.7456, 7.03723
0.876, -1, 52.5818, 2.03053, 14.433, 52.6205, -75.5152, -62.9111, -15.7093, 29.7799, 25.4216, -14.9521, -92.7387, 7.03713
0.88, -1, 52.5912, 2.04142, 14.4311, 52.6172, -75.503, -62.9043, -15.6615, 29.7964, 25.4228, -14.959, -92.7318, 7.03703
0.884, -1, 52.6006, 2.05231, 14.4292, 52.6138, -75.4908, -62.8975, -15.6136, 29.8128, 25.4241, -14.966, -92.7249, 7.03693
0.888, -1, 52.61, 2.06319, 14.4272, 52.6105, -75.4786, -62.8906, -15.5658, 29.8293, 25.4253, -14.9729, -92.718, 7.03683
0.892, -1, 52.6194, 2.07408, 14.4253, 52.6071, -75.4663, -62.8838, -15.5179, 29.8458, 25.4265, -14.9799, -92.7111, 7.03673
0.896, -1, 52.6288, 2.08496, 14.4234, 52.6037, -75.4541, -62.877, -15.4701, 29.8623, 25.4277, -14.9868, -92.7042, 7.03663
0.9, -1, 52.6382, 2.09585, 14.4214, 52.6004, -75.4419, -62.8702, -15.4223, 29.8787, 25.4289, -14.9937, -92.6973, 7.03653
0.904, -1, 52.6475, 2.10673, 14.4195, 52.597, -75.4297, -62.8634, -15.3744, 29.8952, 25.4301, -15.0007, -92.6904, 7.03643
0.908, -1, 52.6569, 2.11761, 14.4176, 52.5937, -75.4174, -62.8565, -15.3266, 29.9117, 25.4313, -15.0076, -92.6835, 7.03633
0.912, -1, 52.6663, 2.12849, 14.4156, 52.5903, -75.4052, -62.8497, -15.2788, 29.9281, 25.4325, -15.0145, -92.6766, 7.03623
0.916, -1, 52.6757, 2.13937, 14.4137, 52.5869, -75.393, -62.8429, -15.2309, 29.9446, 25.4337, -15.0215, -92.6697, 7.03613
0.92, -1, 52.6851, 2.15025, 14.4118, 52.5836, -75.3808, -62.8361, -15.1831, 29.9611, 25.4349, -15.0284, -92.6628, 7.03603
0.924, -1, 52.6945, 2.16113, 14.4098, 52.5802, -75.3686, -62.8293, -15.1353, 29.9775, 25.4362, -15.0354, -92.6559, 7.03593
0.928, -1, 52.7039, 2.17201, 14.4079, 52.5769, -75.3563, -62.8225, -15.0875, 29.994, 25.4374, -15.0423, -92.649, 7.03583
0.932, -1, 52.7133, 2.18289, 14.406, 52.5735, -75.3441, -62.8156, -15.0397, 30.0104, 25.4386, -15.0492, -92.6421, 7.03573
0.936, -1, 52.7227, 2.19377, 14.404, 52.5701, -75.3319, -62.8088, -14.9919, 30.0269, 25.4398, -15.0562, -92.6352, 7.03562
0.94, -1, 52.7321, 2.20465, 14.4021, 52.5668, -75.3197, -62.802, -14.9441, 30.0434, 25.441, -15.0631, -92.6283, 7.03552
0.944, -1, 52.7415, 2.21552, 14.4002, 52.5634, -75.3075, -62.7952, -14.8963, 30.0598, 25.4422, -15.07, -92.6214, 7.03542
0.948, -1, 52.7508, 2.2264, 14.3983, 52.5601, -75.2953, -62.7884, -14.8485, 30.0763, 25.4434, -15.077, -92.6145, 7.03532
0.952, -1, 52.7602, 2.23727, 14.3963, 52.5567, -75.2831, -62.7816, -14.8007, 30.0927, 25.4446, -15.0839, -92.6076, 7.03522
0.956, -1, 52.7696, 2.24815, 14.3944, 52.5534, -75.2708, -62.7748, -14.7529, 30.1092, 25.4458, -15.0908, -92.6007, 7.03512
0.96, -1, 52.779, 2.25902, 14.3925, 52.55, -75.2586, -62.7679, -14.7051, 30.1256, 25.447, -15.0978, -92.5938, 7.03502
0.964, -1, 52.7884, 2.26989, 14.3905, 52.5466, -75.2464, -62.7611, -14.6573, 30.1421, 25.4482, -15.1047, -92.587, 7.03492
0.968, -1, 52.7978, 2.28076, 14.3886, 52.5433, -75.2342, -62.7543, -14.6095, 30.1585, 25.4494, -15.1116, -92.5801, 7.03482
0.972, -1, 52.8072, 2.29164, 14.3867, 52.5399, -75.222, -62.7475, -14.5617, 30.175, 25.4507, -15.1185, -92.5732, 7.03472
0.976, -1, 52.8165, 2.30251, 14.3848, 52.5366, -75.2098, -62.7407, -14.5139, 30.1914, 25.4519, -15.1255, -92.5663, 7.03462
0.98, -1, 52.8259, 2.31338, 14.3828, 52.5332, -75.1976, -62.7339, -14.4661, 30.2079, 25.4531, -15.1324, -92.5594, 7.03452
0.984, -1, 52.8353, 2.32425, 14.3809, 52.5299, -75.1854, -62.7271, -14.4184, 30.2243, 25.4543, -15.1393, -92.5525, 7.03442
0.988, -1, 52.8447, 2.33511, 14.379, 52.5265, -75.1732, -62.7203, -14.3706, 30.2408, 25.4555, -15.1463, -92.5456, 7.03432
0.992, -1, 52.8541, 2.34598, 14.377, 52.5232, -75.161, -62.7135, -14.3228, 30.2572, 25.4567, -15.1532, -92.5387, 7.03422
0.996, -1, 52.8635, 2.35685, 14.3751, 52.5198, -75.1488, -62.7066, -14.2751, 30.2737, 25.4579, -15.1601, -92.5318, 7.03412
1, -1, 52.8728, 2.36772, 14.3732, 52.5164, -75.1366, -62.6998, -14.2273, 30.2901, 25.4591, -15.1671, -92.5249, 7.03402
1.004, -1, 52.8822, 2.37858, 14.3713, 52.5131, -75.1243, -62.693, -14.1795, 30.3065, 25.4603, -15.174, -92.518, 7.03392
1.008, -1, 52.8916, 2.38945, 14.3693, 52.5097, -75.1121, -62.6862, -14.1318, 30.323, 25.4615, -15.1809, -92.5112, 7.03382
1.012, -1, 52.901, 2.40031, 14.3674, 52.5064, -75.0999, -62.6794, -14.084, 30.3394, 25.4627, -15.1878, -92.5043, 7.03372
1.016, -1, 52.9103, 2.41118, 14.3655, 52.503, -75.0877, -62.6726, -14.0363, 30.3559, 25.4639, -15.1948, -92.4974, 7.03362
1.02, -1, 52.9197, 2.42204, 14.3635, 52.4997, -75.0755, -62.6658, -13.9885, 30.3723, 25.4651, -15.2017, -92.4905, 7.03352
1.024, -1, 52.9291, 2.4329, 14.3616, 52.4963, -75.0633, -62.659, -13.9408, 30.3887, 25.4664, -15.2086, -92.4836, 7.03342
1.027, -1, 52.9385, 2.44377, 14.3597, 52.493, -75.0511, -62.6522, -13.893, 30.4052, 25.4676, -15.2155, -92.4767, 7.03332
1.032, -1, 52.9479, 2.45463, 14.3578, 52.4896, -75.0389, -62.6454, -13.8453, 30.4216, 25.4688, -15.2225, -92.4698, 7.03322
1.036, -1, 52.9572, 2.46549, 14.3558, 52.4863, -75.0267, -62.6386, -13.7976, 30.438, 25.47, -15.2294, -92.463, 7.03312
1.04, -1, 52.9666, 2.47635, 14.3539, 52.4829, -75.0145, -62.6318, -13.7498, 30.4545, 25.4712, -15.2363, -92.4561, 7.03302
1.044, -1, 52.976, 2.48721, 14.352, 52.4796, -75.0023, -62.625, -13.7021, 30.4709, 25.4724, -15.2432, -92.4492, 7.03292
1.048, -1, 52.9854, 2.49807, 14.35, 52.4762, -74.9902, -62.6182, -13.6544, 30.4873, 25.4736, -15.2501, -92.4423, 7.03282
1.052, -1, 52.9947, 2.50893, 14.3481, 52.4729, -74.978, -62.6114, -13.6066, 30.5038, 25.4748, -15.2571, -92.4354, 7.03272
1.055, -1, 53.0041, 2.51978, 14.3462, 52.4695, -74.9658, -62.6046, -13.5589, 30.5202, 25.476, -15.264, -92.4285, 7.03262
1.06, -1, 53.0135, 2.53064, 14.3443, 52.4662, -74.9536, -62.5978, -13.5112, 30.5366, 25.4772, -15.2709, -92.4216, 7.03252
1.064, -1, 53.0228, 2.5415, 14.3423, 52.4628, -74.9414, -62.591, -13.4635, 30.5531, 25.4784, -15.2778, -92.4148, 7.03242
1.068, -1, 53.0322, 2.55235, 14.3404, 52.4595, -74.9292, -62.5842, -13.4158, 30.5695, 25.4796, -15.2848, -92.4079, 7.03232
1.072, -1, 53.0416, 2.56321, 14.3385, 52.4561, -74.917, -62.5774, -13.368, 30.5859, 25.4808, -15.2917, -92.401, 7.03222
1.076, -1, 53.051, 2.57406, 14.3366, 52.4527, -74.9048, -62.5706, -13.3203, 30.6023, 25.482, -15.2986, -92.3941, 7.03212
1.08, -1, 53.0603, 2.58492, 14.3346, 52.4494, -74.8926, -62.5638, -13.2726, 30.6188, 25.4832, -15.3055, -92.3872, 7.03202
1.084, -1, 53.0697, 2.59577, 14.3327, 52.446, -74.8804, -62.557, -13.2249, 30.6352, 25.4845, -15.3124, -92.3803, 7.03192
1.088, -1, 53.0791, 2.60663, 14.3308, 52.4427, -74.8682, -62.5502, -13.1772, 30.6516, 25.4857, -15.3194, -92.3735, 7.03181
1.091, -1, 53.0884, 2.61748, 14.3289, 52.4394, -74.856, -62.5434, -13.1295, 30.668, 25.4869, -15.3263, -92.3666, 7.03171
1.096, -1, 53.0978, 2.62833, 14.3269, 52.436, -74.8439, -62.5366, -13.0818, 30.6845, 25.4881, -15.3332, -92.3597, 7.03161
1.1, -1, 53.1072, 2.63918, 14.325, 52.4326, -74.8317, -62.5298, -13.0341, 30.7009, 25.4893, -15.3401, -92.3528, 7.03151
1.104, -1, 53.1165, 2.65003, 14.3231, 52.4293, -74.8195, -62.523, -12.9864, 30.7173, 25.4905, -15.347, -92.3459, 7.03141
1.108, -1, 53.1259, 2.66088, 14.3212, 52.4259, -74.8073, -62.5162, -12.9387, 30.7337, 25.4917, -15.3539, -92.3391, 7.03131
1.112, -1, 53.1353, 2.67173, 14.3192, 52.4226, -74.7951, -62.5094, -12.8911, 30.7501, 25.4929, -15.3609, -92.3322, 7.03121
1.116, -1, 53.1446, 2.68258, 14.3173, 52.4193, -74.7829, -62.5026, -12.8434, 30.7665, 25.4941, -15.3678, -92.3253, 7.03111
1.119, -1, 53.154, 2.69343, 14.3154, 52.4159, -74.7707, -62.4958, -12.7957, 30.783, 25.4953, -15.3747, -92.3184, 7.03101
1.124, -1, 53.1634, 2.70428, 14.3135, 52.4126, -74.7586, -62.489, -12.748, 30.7994, 25.4965, -15.3816, -92.3116, 7.03091
1.128, -1, 53.1727, 2.71512, 14.3115, 52.4092, -74.7464, -62.4822, -12.7003, 30.8158, 25.4977, -15.3885, -92.3047, 7.03081
1.132, -1, 53.1821, 2.72597, 14.3096, 52.4059, -74.7342, -62.4754, -12.6527, 30.8322, 25.4989, -15.3954, -92.2978, 7.03071
1.136, -1, 53.1914, 2.73681, 14.3077, 52.4025, -74.722, -62.4686, -12.605, 30.8486, 25.5001, -15.4024, -92.2909, 7.03061
1.14, -1, 53.2008, 2.74766, 14.3058, 52.3992, -74.7098, -62.4618, -12.5573, 30.865, 25.5013, -15.4093, -92.2841, 7.03051
1.144, -1, 53.2102, 2.7585, 14.3038, 52.3958, -74.6977, -62.455, -12.5097, 30.8814, 25.5025, -15.4162, -92.2772, 7.03041
1.147, -1, 53.2195, 2.76935, 14.3019, 52.3925, -74.6855, -62.4482, -12.462, 30.8978, 25.5037, -15.4231, -92.2703, 7.03031
1.152, -1, 53.2289, 2.78019, 14.3, 52.3891, -74.6733, -62.4414, -12.4143, 30.9142, 25.5049, -15.43, -92.2634, 7.03021
1.156, -1, 53.2382, 2.79103, 14.2981, 52.3858, -74.6611, -62.4346, -12.3667, 30.9306, 25.5062, -15.4369, -92.2566, 7.03011
1.16, -1, 53.2476, 2.80188, 14.2961, 52.3824, -74.6489, -62.4278, -12.319, 30.9471, 25.5074, -15.4438, -92.2497, 7.03001
1.164, -1, 53.257, 2.81272, 14.2942, 52.3791, -74.6368, -62.421, -12.2714, 30.9635, 25.5086, -15.4507, -92.2428, 7.02991
1.168, -1, 53.2663, 2.82356, 14.2923, 52.3757, -74.6246, -62.4142, -12.2237, 30.9799, 25.5098, -15.4576, -92.2359, 7.02981
1.172, -1, 53.2757, 2.8344, 14.2904, 52.3724, -74.6124, -62.4075, -12.1761, 30.9963, 25.511, -15.4646, -92.2291, 7.02971
1.175, -1, 53.285, 2.84524, 14.2884, 52.369, -74.6003, -62.4007, -12.1284, 31.0127, 25.5122, -15.4715, -92.2222, 7.02961
1.18, -1, 53.2944, 2.85608, 14.2865, 52.3657, -74.5881, -62.3939, -12.0808, 31.0291, 25.5134, -15.4784, -92.2153, 7.02951
1.184, -1, 53.3037, 2.86692, 14.2846, 52.3623, -74.5759, -62.3871, -12.0332, 31.0455, 25.5146, -15.4853, -92.2085, 7.02941
1.188, -1, 53.3131, 2.87775, 14.2827, 52.359, -74.5637, -62.3803, -11.9855, 31.0619, 25.5158, -15.4922, -92.2016, 7.02931
1.192, -1, 53.3225, 2.88859, 14.2807, 52.3557, -74.5516, -62.3735, -11.9379, 31.0783, 25.517, -15.4991, -92.1947, 7.02921
1.196, -1, 53.3318, 2.89943, 14.2788, 52.3523, -74.5394, -62.3667, -11.8903, 31.0947, 25.5182, -15.506, -92.1878, 7.02911
1.2, -1, 53.3412, 2.91026, 14.2769, 52.349, -74.5272, -62.3599, -11.8426, 31.1111, 25.5194, -15.5129, -92.181, 7.02901
1.204, -1, 53.3505, 2.9211, 14.275, 52.3456, -74.5151, -62.3531, -11.795, 31.1275, 25.5206, -15.5198, -92.1741, 7.02891
1.208, -1, 53.3599, 2.93194, 14.2731, 52.3423, -74.5029, -62.3463, -11.7474, 31.1439, 25.5218, -15.5267, -92.1672, 7.02881
1.212, -1, 53.3692, 2.94277, 14.2711, 52.3389, -74.4907, -62.3396, -11.6998, 31.1602, 25.523, -15.5336, -92.1604, 7.02871
1.216, -1, 53.3786, 2.9536, 14.2692, 52.3356, -74.4785, -62.3328, -11.6521, 31.1766, 25.5242, -15.5406, -92.1535, 7.02861
1.22, -1, 53.3879, 2.96444, 14.2673, 52.3322, -74.4664, -62.326, -11.6045, 31.193, 25.5254, -15.5475, -92.1466, 7.02851
1.224, -1, 53.3973, 2.97527, 14.2654, 52.3289, -74.4542, -62.3192, -11.5569, 31.2094, 25.5266, -15.5544, -92.1398, 7.02841
1.228, -1, 53.4066, 2.9861, 14.2634, 52.3256, -74.442, -62.3124, -11.5093, 31.2258, 25.5278, -15.5613, -92.1329, 7.02831
1.232, -1, 53.416, 2.99693, 14.2615, 52.3222, -74.4299, -62.3056, -11.4617, 31.2422, 25.529, -15.5682, -92.126, 7.02821
1.236, -1, 53.4253, 3.00776, 14.2596, 52.3189, -74.4177, -62.2988, -11.4141, 31.2586, 25.5302, -15.5751, -92.1192, 7.02811
1.24, -1, 53.4347, 3.01859, 14.2577, 52.3155, -74.4055, -62.292, -11.3665, 31.275, 25.5314, -15.582, -92.1123, 7.02801
1.244, -1, 53.444, 3.02942, 14.2558, 52.3122, -74.3934, -62.2853, -11.3189, 31.2914, 25.5326, -15.5889, -92.1054, 7.02791
1.248, -1, 53.4534, 3.04025, 14.2538, 52.3088, -74.3812, -62.2785, -11.2713, 31.3078, 25.5339, -15.5958, -92.0986, 7.02781
1.252, -1, 53.4627, 3.05108, 14.2519, 52.3055, -74.3691, -62.2717, -11.2237, 31.3241, 25.5351, -15.6027, -92.0917, 7.02771
1.256, -1, 53.4721, 3.06191, 14.25, 52.3022, -74.3569, -62.2649, -11.1761, 31.3405, 25.5363, -15.6096, -92.0848, 7.02761
1.26, -1, 53.4814, 3.07274, 14.2481, 52.2988, -74.3447, -62.2581, -11.1285, 31.3569, 25.5375, -15.6165, -92.078, 7.02751
1.264, -1, 53.4908, 3.08356, 14.2461, 52.2955, -74.3326, -62.2513, -11.0809, 31.3733, 25.5387, -15.6234, -92.0711, 7.02741
1.267, -1, 53.5001, 3.09439, 14.2442, 52.2921, -74.3204, -62.2446, -11.0333, 31.3897, 25.5399, -15.6303, -92.0642, 7.02731
1.272, -1, 53.5094, 3.10522, 14.2423, 52.2888, -74.3083, -62.2378, -10.9858, 31.4061, 25.5411, -15.6372, -92.0574, 7.02721
1.276, -1, 53.5188, 3.11604, 14.2404, 52.2854, -74.2961, -62.231, -10.9382, 31.4224, 25.5423, -15.6441, -92.0505, 7.02711
1.28, -1, 53.5281, 3.12687, 14.2385, 52.2821, -74.284, -62.2242, -10.8906, 31.4388, 25.5435, -15.651, -92.0436, 7.02701
1.284, -1, 53.5375, 3.13769, 14.2365, 52.2788, -74.2718, -62.2174, -10.843, 31.4552, 25.5447, -15.6579, -92.0368, 7.02691
1.288, -1, 53.5468, 3.14851, 14.2346, 52.2754, -74.2596, -62.2107, -10.7955, 31.4716, 25.5459, -15.6648, -92.0299, 7.02681
1.292, -1, 53.5562, 3.15934, 14.2327, 52.2721, -74.2475, -62.2039, -10.7479, 31.4879, 25.5471, -15.6717, -92.0231, 7.02671
1.295, -1, 53.5655, 3.17016, 14.2308, 52.2687, -74.2353, -62.1971, -10.7003, 31.5043, 25.5483, -15.6786, -92.0162, 7.02661
1.3, -1, 53.5748, 3.18098, 14.2289, 52.2654, -74.2232, -62.1903, -10.6528, 31.5207, 25.5495, -15.6855, -92.0093, 7.02652
1.304, -1, 53.5842, 3.1918, 14.2269, 52.2621, -74.211, -62.1835, -10.6052, 31.5371, 25.5507, -15.6924, -92.0025, 7.02641
1.308, -1, 53.5935, 3.20262, 14.225, 52.2587, -74.1989, -62.1768, -10.5576, 31.5534, 25.5519, -15.6993, -91.9956, 7.02632
1.312, -1, 53.6029, 3.21344, 14.2231, 52.2554, -74.1867, -62.17, -10.5101, 31.5698, 25.5531, -15.7062, -91.9888, 7.02622
1.316, -1, 53.6122, 3.22426, 14.2212, 52.252, -74.1746, -62.1632, -10.4625, 31.5862, 25.5543, -15.7131, -91.9819, 7.02612
1.32, -1, 53.6215, 3.23508, 14.2193, 52.2487, -74.1624, -62.1564, -10.415, 31.6026, 25.5555, -15.72, -91.975, 7.02602
1.324, -1, 53.6309, 3.2459, 14.2173, 52.2454, -74.1503, -62.1496, -10.3674, 31.6189, 25.5567, -15.7269, -91.9682, 7.02592
1.328, -1, 53.6402, 3.25672, 14.2154, 52.242, -74.1381, -62.1429, -10.3199, 31.6353, 25.5579, -15.7338, -91.9613, 7.02582
1.332, -1, 53.6496, 3.26753, 14.2135, 52.2387, -74.126, -62.1361, -10.2723, 31.6517, 25.5591, -15.7407, -91.9545, 7.02572
1.336, -1, 53.6589, 3.27835, 14.2116, 52.2353, -74.1138, -62.1293, -10.2248, 31.668, 25.5603, -15.7476, -91.9476, 7.02562
1.34, -1, 53.6682, 3.28917, 14.2097, 52.232, -74.1017, -62.1225, -10.1772, 31.6844, 25.5615, -15.7545, -91.9408, 7.02552
1.344, -1, 53.6776, 3.29998, 14.2077, 52.2287, -74.0895, -62.1158, -10.1297, 31.7008, 25.5627, -15.7614, -91.9339, 7.02542
1.348, -1, 53.6869, 3.3108, 14.2058, 52.2253, -74.0774, -62.109, -10.0822, 31.7171, 25.5639, -15.7683, -91.927, 7.02532
1.352, -1, 53.6962, 3.32161, 14.2039, 52.222, -74.0652, -62.1022, -10.0346, 31.7335, 25.5651, -15.7752, -91.9202, 7.02522
1.356, -1, 53.7056, 3.33242, 14.202, 52.2187, -74.0531, -62.0954, -9.98711, 31.7499, 25.5663, -15.7821, -91.9133, 7.02512
1.36, -1, 53.7149, 3.34324, 14.2001, 52.2153, -74.0409, -62.0887, -9.93958, 31.7662, 25.5675, -15.7889, -91.9065, 7.02502
1.364, -1, 53.7242, 3.35405, 14.1981, 52.212, -74.0288, -62.0819, -9.89206, 31.7826, 25.5687, -15.7958, -91.8996, 7.02492
1.368, -1, 53.7336, 3.36486, 14.1962, 52.2086, -74.0167, -62.0751, -9.84453, 31.7989, 25.5699, -15.8027, -91.8928, 7.02482
1.372, -1, 53.7429, 3.37567, 14.1943, 52.2053, -74.0045, -62.0683, -9.79702, 31.8153, 25.5711, -15.8096, -91.8859, 7.02472
1.376, -1, 53.7522, 3.38648, 14.1924, 52.202, -73.9924, -62.0616, -9.7495, 31.8317, 25.5723, -15.8165, -91.8791, 7.02462
1.38, -1, 53.7616, 3.39729, 14.1905, 52.1986, -73.9802, -62.0548, -9.70198, 31.848, 25.5735, -15.8234, -91.8722, 7.02452
1.384, -1, 53.7709, 3.4081, 14.1886, 52.1953, -73.9681, -62.048, -9.65447, 31.8644, 25.5747, -15.8303, -91.8653, 7.02442
1.388, -1, 53.7802, 3.41891, 14.1866, 52.192, -73.956, -62.0412, -9.60696, 31.8807, 25.5759, -15.8372, -91.8585, 7.02432
1.392, -1, 53.7896, 3.42972, 14.1847, 52.1886, -73.9438, -62.0345, -9.55945, 31.8971, 25.5771, -15.8441, -91.8516, 7.02422
1.396, -1, 53.7989, 3.44053, 14.1828, 52.1853, -73.9317, -62.0277, -9.51195, 31.9134, 25.5783, -15.851, -91.8448, 7.02412
1.4, -1, 53.8082, 3.45134, 14.1809, 52.1819, -73.9195, -62.0209, -9.46445, 31.9298, 25.5795, -15.8579, -91.8379, 7.02402
1.404, -1, 53.8176, 3.46214, 14.179, 52.1786, -73.9074, -62.0141, -9.41694, 31.9461, 25.5807, -15.8647, -91.8311, 7.02392
1.408, -1, 53.8269, 3.47295, 14.177, 52.1753, -73.8953, -62.0074, -9.36945, 31.9625, 25.5819, -15.8716, -91.8242, 7.02382
1.412, -1, 53.8362, 3.48376, 14.1751, 52.1719, -73.8831, -62.0006, -9.32195, 31.9788, 25.5831, -15.8785, -91.8174, 7.02372
1.416, -1, 53.8455, 3.49456, 14.1732, 52.1686, -73.871, -61.9938, -9.27446, 31.9952, 25.5843, -15.8854, -91.8105, 7.02362
1.42, -1, 53.8549, 3.50537, 14.1713, 52.1653, -73.8589, -61.9871, -9.22697, 32.0115, 25.5855, -15.8923, -91.8037, 7.02352
1.424, -1, 53.8642, 3.51617, 14.1694, 52.1619, -73.8467, -61.9803, -9.17948, 32.0279, 25.5867, -15.8992, -91.7968, 7.02342
1.428, -1, 53.8735, 3.52697, 14.1675, 52.1586, -73.8346, -61.9735, -9.13199, 32.0442, 25.5879, -15.9061, -91.79, 7.02332
1.432, -1, 53.8828, 3.53778, 14.1655, 52.1553, -73.8225, -61.9668, -9.08451, 32.0606, 25.5891, -15.913, -91.7831, 7.02322
1.436, -1, 53.8922, 3.54858, 14.1636, 52.1519, -73.8103, -61.96, -9.03703, 32.0769, 25.5903, -15.9199, -91.7763, 7.02312
1.44, -1, 53.9015, 3.55938, 14.1617, 52.1486, -73.7982, -61.9532, -8.98955, 32.0933, 25.5915, -15.9267, -91.7694, 7.02302
1.444, -1, 53.9108, 3.57018, 14.1598, 52.1453, -73.7861, -61.9465, -8.94207, 32.1096, 25.5927, -15.9336, -91.7626, 7.02292
1.448, -1, 53.9201, 3.58099, 14.1579, 52.1419, -73.7739, -61.9397, -8.8946, 32.126, 25.5939, -15.9405, -91.7558, 7.02282
1.452, -1, 53.9295, 3.59179, 14.156, 52.1386, -73.7618, -61.9329, -8.84713, 32.1423, 25.5951, -15.9474, -91.7489, 7.02272
1.456, -1, 53.9388, 3.60259, 14.154, 52.1353, -73.7497, -61.9262, -8.79966, 32.1586, 25.5963, -15.9543, -91.7421, 7.02262
1.46, -1, 53.9481, 3.61338, 14.1521, 52.1319, -73.7375, -61.9194, -8.75219, 32.175, 25.5975, -15.9612, -91.7352, 7.02252
1.464, -1, 53.9574, 3.62418, 14.1502, 52.1286, -73.7254, -61.9126, -8.70473, 32.1913, 25.5987, -15.9681, -91.7284, 7.02243
1.468, -1, 53.9667, 3.63498, 14.1483, 52.1253, -73.7133, -61.9059, -8.65727, 32.2077, 25.5999, -15.9749, -91.7215, 7.02233
1.472, -1, 53.9761, 3.64578, 14.1464, 52.1219, -73.7012, -61.8991, -8.60981, 32.224, 25.6011, -15.9818, -91.7147, 7.02223
1.476, -1, 53.9854, 3.65658, 14.1445, 52.1186, -73.689, -61.8923, -8.56235, 32.2403, 25.6023, -15.9887, -91.7078, 7.02213
1.48, -1, 53.9947, 3.66737, 14.1425, 52.1153, -73.6769, -61.8856, -8.5149, 32.2567, 25.6035, -15.9956, -91.701, 7.02203
1.484, -1, 54.004, 3.67817, 14.1406, 52.1119, -73.6648, -61.8788, -8.46744, 32.273, 25.6047, -16.0025, -91.6941, 7.02193
1.488, -1, 54.0133, 3.68897, 14.1387, 52.1086, -73.6527, -61.872, -8.41999, 32.2894, 25.6059, -16.0093, -91.6873, 7.02183
1.492, -1, 54.0227, 3.69976, 14.1368, 52.1053, -73.6405, -61.8653, -8.37255, 32.3057, 25.6071, -16.0162, -91.6805, 7.02173
1.496, -1, 54.032, 3.71055, 14.1349, 52.1019, -73.6284, -61.8585, -8.3251, 32.322, 25.6083, -16.0231, -91.6736, 7.02163
1.5, -1, 54.0413, 3.72135, 14.133, 52.0986, -73.6163, -61.8518, -8.27766, 32.3384, 25.6095, -16.03, -91.6668, 7.02153
1.504, -1, 54.0506, 3.73214, 14.1311, 52.0953, -73.6042, -61.845, -8.23022, 32.3547, 25.6107, -16.0369, -91.6599, 7.02143
1.508, -1, 54.0599, 3.74294, 14.1291, 52.0919, -73.592, -61.8382, -8.18278, 32.371, 25.6119, -16.0438, -91.6531, 7.02133
1.512, -1, 54.0692, 3.75373, 14.1272, 52.0886, -73.5799, -61.8315, -8.13534, 32.3874, 25.6131, -16.0506, -91.6462, 7.02123
1.516, -1, 54.0786, 3.76452, 14.1253, 52.0853, -73.5678, -61.8247, -8.08791, 32.4037, 25.6143, -16.0575, -91.6394, 7.02113
1.52, -1, 54.0879, 3.77531, 14.1234, 52.0819, -73.5557, -61.8179, -8.04048, 32.42, 25.6155, -16.0644, -91.6325, 7.02103
1.524, -1, 54.0972, 3.7861, 14.1215, 52.0786, -73.5436, -61.8112, -7.99305, 32.4363, 25.6167, -16.0713, -91.6257, 7.02093
1.528, -1, 54.1065, 3.79689, 14.1196, 52.0753, -73.5314, -61.8044, -7.94562, 32.4527, 25.6179, -16.0782, -91.6189, 7.02083
1.532, -1, 54.1158, 3.80768, 14.1176, 52.0719, -73.5193, -61.7977, -7.8982, 32.469, 25.6191, -16.085, -91.612, 7.02073
1.536, -1, 54.1251, 3.81847, 14.1157, 52.0686, -73.5072, -61.7909, -7.85078, 32.4853, 25.6203, -16.0919, -91.6052, 7.02063
1.54, -1, 54.1344, 3.82926, 14.1138, 52.0653, -73.4951, -61.7841, -7.80336, 32.5016, 25.6215, -16.0988, -91.5984, 7.02053
1.544, -1, 54.1438, 3.84005, 14.1119, 52.062, -73.483, -61.7774, -7.75594, 32.518, 25.6227, -16.1057, -91.5915, 7.02043
1.548, -1, 54.1531, 3.85083, 14.11, 52.0586, -73.4709, -61.7706, -7.70853, 32.5343, 25.6239, -16.1125, -91.5847, 7.02033
1.552, -1, 54.1624, 3.86162, 14.1081, 52.0553, -73.4588, -61.7639, -7.66111, 32.5506, 25.6251, -16.1194, -91.5778, 7.02023
1.556, -1, 54.1717, 3.87241, 14.1062, 52.052, -73.4466, -61.7571, -7.6137, 32.5669, 25.6263, -16.1263, -91.571, 7.02013
1.56, -1, 54.181, 3.88319, 14.1042, 52.0486, -73.4345, -61.7504, -7.5663, 32.5833, 25.6275, -16.1332, -91.5642, 7.02004
1.564, -1, 54.1903, 3.89398, 14.1023, 52.0453, -73.4224, -61.7436, -7.51889, 32.5996, 25.6287, -16.14, -91.5573, 7.01994
1.568, -1, 54.1996, 3.90476, 14.1004, 52.042, -73.4103, -61.7368, -7.47149, 32.6159, 25.6299, -16.1469, -91.5505, 7.01984
1.572, -1, 54.2089, 3.91555, 14.0985, 52.0386, -73.3982, -61.7301, -7.42409, 32.6322, 25.6311, -16.1538, -91.5436, 7.01974
1.576, -1, 54.2182, 3.92633, 14.0966, 52.0353, -73.3861, -61.7233, -7.37669, 32.6485, 25.6323, -16.1607, -91.5368, 7.01964
1.58, -1, 54.2276, 3.93712, 14.0947, 52.032, -73.374, -61.7166, -7.32929, 32.6648, 25.6335, -16.1675, -91.53, 7.01954
1.584, -1, 54.2369, 3.9479, 14.0928, 52.0287, -73.3619, -61.7098, -7.2819, 32.6812, 25.6347, -16.1744, -91.5231, 7.01944
1.588, -1, 54.2462, 3.95868, 14.0909, 52.0253, -73.3497, -61.7031, -7.2345, 32.6975, 25.6359, -16.1813, -91.5163, 7.01934
1.592, -1, 54.2555, 3.96946, 14.0889, 52.022, -73.3376, -61.6963, -7.18712, 32.7138, 25.6371, -16.1882, -91.5095, 7.01924
1.596, -1, 54.2648, 3.98024, 14.087, 52.0187, -73.3255, -61.6896, -7.13973, 32.7301, 25.6383, -16.195, -91.5026, 7.01914
1.6, -1, 54.2741, 3.99103, 14.0851, 52.0153, -73.3134, -61.6828, -7.09234, 32.7464, 25.6395, -16.2019, -91.4958, 7.01904
1.604, -1, 54.2834, 4.00181, 14.0832, 52.012, -73.3013, -61.676, -7.04496, 32.7627, 25.6407, -16.2088, -91.489, 7.01894
1.608, -1, 54.2927, 4.01259, 14.0813, 52.0087, -73.2892, -61.6693, -6.99758, 32.779, 25.6419, -16.2157, -91.4821, 7.01884
1.612, -1, 54.302, 4.02337, 14.0794, 52.0054, -73.2771, -61.6625, -6.9502, 32.7954, 25.6431, -16.2225, -91.4753, 7.01874
1.616, -1, 54.3113, 4.03414, 14.0775, 52.002, -73.265, -61.6558, -6.90283, 32.8117, 25.6443, -16.2294, -91.4685, 7.01864
1.62, -1, 54.3206, 4.04492, 14.0755, 51.9987, -73.2529, -61.649, -6.85545, 32.828, 25.6455, -16.2363, -91.4616, 7.01854
1.624, -1, 54.3299, 4.0557, 14.0736, 51.9954, -73.2408, -61.6423, -6.80808, 32.8443, 25.6467, -16.2431, -91.4548, 7.01844
1.628, -1, 54.3392, 4.06648, 14.0717, 51.9921, -73.2287, -61.6355, -6.76071, 32.8606, 25.6479, -16.25, -91.448, 7.01834
1.632, -1, 54.3485, 4.07725, 14.0698, 51.9887, -73.2166, -61.6288, -6.71334, 32.8769, 25.6491, -16.2569, -91.4411, 7.01824
1.636, -1, 54.3578, 4.08803, 14.0679, 51.9854, -73.2045, -61.622, -6.66598, 32.8932, 25.6503, -16.2638, -91.4343, 7.01815
1.64, -1, 54.3671, 4.0988, 14.066, 51.9821, -73.1924, -61.6153, -6.61862, 32.9095, 25.6515, -16.2706, -91.4275, 7.01805
1.644, -1, 54.3764, 4.10958, 14.0641, 51.9787, -73.1803, -61.6085, -6.57126, 32.9258, 25.6527, -16.2775, -91.4206, 7.01795
1.648, -1, 54.3857, 4.12035, 14.0622, 51.9754, -73.1682, -61.6018, -6.5239, 32.9421, 25.6539, -16.2844, -91.4138, 7.01785
1.652, -1, 54.395, 4.13113, 14.0603, 51.9721, -73.1561, -61.595, -6.47654, 32.9584, 25.6551, -16.2912, -91.407, 7.01775
1.656, -1, 54.4043, 4.1419, 14.0583, 51.9688, -73.144, -61.5883, -6.42919, 32.9747, 25.6563, -16.2981, -91.4001, 7.01765
1.66, -1, 54.4136, 4.15268, 14.0564, 51.9654, -73.1319, -61.5815, -6.38184, 32.991, 25.6575, -16.305, -91.3933, 7.01755
1.664, -1, 54.4229, 4.16345, 14.0545, 51.9621, -73.1198, -61.5748, -6.33449, 33.0073, 25.6587, -16.3118, -91.3865, 7.01745
1.668, -1, 54.4322, 4.17422, 14.0526, 51.9588, -73.1077, -61.568, -6.28714, 33.0236, 25.6599, -16.3187, -91.3797, 7.01735
1.672, -1, 54.4415, 4.18499, 14.0507, 51.9555, -73.0956, -61.5613, -6.2398, 33.0399, 25.6611, -16.3256, -91.3728, 7.01725
1.676, -1, 54.4508, 4.19576, 14.0488, 51.9521, -73.0835, -61.5545, -6.19246, 33.0562, 25.6623, -16.3324, -91.366, 7.01715
1.68, -1, 54.4601, 4.20653, 14.0469, 51.9488, -73.0714, -61.5478, -6.14512, 33.0725, 25.6635, -16.3393, -91.3592, 7.01705
1.684, -1, 54.4694, 4.2173, 14.045, 51.9455, -73.0593, -61.541, -6.09778, 33.0888, 25.6647, -16.3462, -91.3523, 7.01695
1.688, -1, 54.4787, 4.22807, 14.043, 51.9422, -73.0472, -61.5343, -6.05044, 33.1051, 25.6659, -16.353, -91.3455, 7.01685
1.692, -1, 54.488, 4.23884, 14.0411, 51.9388, -73.0351, -61.5275, -6.00311, 33.1214, 25.6671, -16.3599, -91.3387, 7.01675
1.696, -1, 54.4973, 4.24961, 14.0392, 51.9355, -73.023, -61.5208, -5.95578, 33.1377, 25.6683, -16.3668, -91.3319, 7.01665
1.7, -1, 54.5066, 4.26038, 14.0373, 51.9322, -73.0109, -61.514, -5.90845, 33.154, 25.6694, -16.3736, -91.325, 7.01655
1.704, -1, 54.5159, 4.27115, 14.0354, 51.9289, -72.9988, -61.5073, -5.86112, 33.1703, 25.6706, -16.3805, -91.3182, 7.01646
1.708, -1, 54.5252, 4.28191, 14.0335, 51.9255, -72.9867, -61.5005, -5.8138, 33.1866, 25.6718, -16.3874, -91.3114, 7.01636
1.712, -1, 54.5345, 4.29268, 14.0316, 51.9222, -72.9746, -61.4938, -5.76648, 33.2029, 25.673, -16.3942, -91.3046, 7.01626
1.716, -1, 54.5438, 4.30345, 14.0297, 51.9189, -72.9625, -61.4871, -5.71916, 33.2192, 25.6742, -16.4011, -91.2977, 7.01616
1.72, -1, 54.5531, 4.31421, 14.0278, 51.9156, -72.9505, -61.4803, -5.67184, 33.2354, 25.6754, -16.4079, -91.2909, 7.01606
1.724, -1, 54.5624, 4.32498, 14.0259, 51.9123, -72.9384, -61.4736, -5.62452, 33.2517, 25.6766, -16.4148, -91.2841, 7.01596
1.728, -1, 54.5716, 4.33574, 14.0239, 51.9089, -72.9263, -61.4668, -5.57721, 33.268, 25.6778, -16.4217, -91.2773, 7.01586
1.732, -1, 54.5809, 4.34651, 14.022, 51.9056, -72.9142, -61.4601, -5.5299, 33.2843, 25.679, -16.4285, -91.2704, 7.01576
1.736, -1, 54.5902, 4.35727, 14.0201, 51.9023, -72.9021, -61.4533, -5.48259, 33.3006, 25.6802, -16.4354, -91.2636, 7.01566
1.74, -1, 54.5995, 4.36803, 14.0182, 51.899, -72.89, -61.4466, -5.43528, 33.3169, 25.6814, -16.4423, -91.2568, 7.01556
1.744, -1, 54.6088, 4.37879, 14.0163, 51.8956, -72.8779, -61.4398, -5.38798, 33.3332, 25.6826, -16.4491, -91.25, 7.01546
1.748, -1, 54.6181, 4.38956, 14.0144, 51.8923, -72.8658, -61.4331, -5.34067, 33.3495, 25.6838, -16.456, -91.2431, 7.01536
1.752, -1, 54.6274, 4.40032, 14.0125, 51.889, -72.8537, -61.4264, -5.29337, 33.3657, 25.685, -16.4628, -91.2363, 7.01526
1.756, -1, 54.6367, 4.41108, 14.0106, 51.8857, -72.8417, -61.4196, -5.24607, 33.382, 25.6862, -16.4697, -91.2295, 7.01516
1.76, -1, 54.646, 4.42184, 14.0087, 51.8824, -72.8296, -61.4129, -5.19878, 33.3983, 25.6874, -16.4766, -91.2227, 7.01507
1.764, -1, 54.6553, 4.4326, 14.0068, 51.879, -72.8175, -61.4061, -5.15148, 33.4146, 25.6886, -16.4834, -91.2158, 7.01497
1.768, -1, 54.6645, 4.44336, 14.0048, 51.8757, -72.8054, -61.3994, -5.10419, 33.4309, 25.6898, -16.4903, -91.209, 7.01487
1.772, -1, 54.6738, 4.45412, 14.0029, 51.8724, -72.7933, -61.3927, -5.0569, 33.4471, 25.691, -16.4971, -91.2022, 7.01477
1.776, -1, 54.6831, 4.46488, 14.001, 51.8691, -72.7812, -61.3859, -5.00961, 33.4634, 25.6922, -16.504, -91.1954, 7.01467
1.78, -1, 54.6924, 4.47564, 13.9991, 51.8657, -72.7692, -61.3792, -4.96233, 33.4797, 25.6934, -16.5109, -91.1886, 7.01457
1.784, -1, 54.7017, 4.48639, 13.9972, 51.8624, -72.7571, -61.3724, -4.91504, 33.496, 25.6946, -16.5177, -91.1817, 7.01447
1.788, -1, 54.711, 4.49715, 13.9953, 51.8591, -72.745, -61.3657, -4.86776, 33.5123, 25.6958, -16.5246, -91.1749, 7.01437
1.792, -1, 54.7203, 4.50791, 13.9934, 51.8558, -72.7329, -61.359, -4.82048, 33.5285, 25.697, -16.5314, -91.1681, 7.01427
1.796, -1, 54.7295, 4.51866, 13.9915, 51.8525, -72.7208, -61.3522, -4.77321, 33.5448, 25.6982, -16.5383, -91.1613, 7.01417
1.8, -1, 54.7388, 4.52942, 13.9896, 51.8491, -72.7087, -61.3455, -4.72593, 33.5611, 25.6993, -16.5451, -91.1545, 7.01407
1.804, -1, 54.7481, 4.54017, 13.9877, 51.8458, -72.6967, -61.3387, -4.67866, 33.5774, 25.7005, -16.552, -91.1476, 7.01397
1.808, -1, 54.7574, 4.55093, 13.9858, 51.8425, -72.6846, -61.332, -4.63139, 33.5936, 25.7017, -16.5589, -91.1408, 7.01387
1.812, -1, 54.7667, 4.56168, 13.9838, 51.8392, -72.6725, -61.3253, -4.58412, 33.6099, 25.7029, -16.5657, -91.134, 7.01377
1.816, -1, 54.776, 4.57244, 13.9819, 51.8359, -72.6604, -61.3185, -4.53685, 33.6262, 25.7041, -16.5726, -91.1272, 7.01368
1.82, -1, 54.7852, 4.58319, 13.98, 51.8325, -72.6484, -61.3118, -4.48959, 33.6424, 25.7053, -16.5794, -91.1204, 7.01358
1.824, -1, 54.7945, 4.59394, 13.9781, 51.8292, -72.6363, -61.305, -4.44233, 33.6587, 25.7065, -16.5863, -91.1136, 7.01348
1.828, -1, 54.8038, 4.6047, 13.9762, 51.8259, -72.6242, -61.2983, -4.39507, 33.675, 25.7077, -16.5931, -91.1067, 7.01338
1.832, -1, 54.8131, 4.61545, 13.9743, 51.8226, -72.6121, -61.2916, -4.34781, 33.6913, 25.7089, -16.6, -91.0999, 7.01328
1.836, -1, 54.8224, 4.6262, 13.9724, 51.8193, -72.6001, -61.2848, -4.30055, 33.7075, 25.7101, -16.6068, -91.0931, 7.01318
1.84, -1, 54.8317, 4.63695, 13.9705, 51.8159, -72.588, -61.2781, -4.2533, 33.7238, 25.7113, -16.6137, -91.0863, 7.01308
1.844, -1, 54.8409, 4.6477, 13.9686, 51.8126, -72.5759, -61.2714, -4.20605, 33.7401, 25.7125, -16.6205, -91.0795, 7.01298
1.848, -1, 54.8502, 4.65845, 13.9667, 51.8093, -72.5638, -61.2646, -4.1588, 33.7563, 25.7137, -16.6274, -91.0727, 7.01288
1.852, -1, 54.8595, 4.6692, 13.9648, 51.806, -72.5518, -61.2579, -4.11155, 33.7726, 25.7149, -16.6343, -91.0658, 7.01278
1.856, -1, 54.8688, 4.67995, 13.9629, 51.8027, -72.5397, -61.2512, -4.0643, 33.7889, 25.7161, -16.6411, -91.059, 7.01268
1.86, -1, 54.878, 4.6907, 13.9609, 51.7994, -72.5276, -61.2444, -4.01706, 33.8051, 25.7173, -16.648, -91.0522, 7.01258
1.864, -1, 54.8873, 4.70145, 13.959, 51.796, -72.5155, -61.2377, -3.96982, 33.8214, 25.7185, -16.6548, -91.0454, 7.01249
1.868, -1, 54.8966, 4.71219, 13.9571, 51.7927, -72.5035, -61.231, -3.92258, 33.8377, 25.7197, -16.6617, -91.0386, 7.01239
1.872, -1, 54.9059, 4.72294, 13.9552, 51.7894, -72.4914, -61.2242, -3.87534, 33.8539, 25.7209, -16.6685, -91.0318, 7.01229
1.876, -1, 54.9152, 4.73369, 13.9533, 51.7861, -72.4793, -61.2175, -3.8281, 33.8702, 25.722, -16.6754, -91.025, 7.01219
1.88, -1, 54.9244, 4.74443, 13.9514, 51.7828, -72.4673, -61.2108, -3.78087, 33.8864, 25.7232, -16.6822, -91.0181, 7.01209
1.884, -1, 54.9337, 4.75518, 13.9495, 51.7795, -72.4552, -61.204, -3.73364, 33.9027, 25.7244, -16.6891, -91.0113, 7.01199
1.888, -1, 54.943, 4.76593, 13.9476, 51.7761, -72.4431, -61.1973, -3.68641, 33.919, 25.7256, -16.6959, -91.0045, 7.01189
1.892, -1, 54.9523, 4.77667, 13.9457, 51.7728, -72.4311, -61.1906, -3.63918, 33.9352, 25.7268, -16.7028, -90.9977, 7.01179
1.896, -1, 54.9615, 4.78742, 13.9438, 51.7695, -72.419, -61.1838, -3.59195, 33.9515, 25.728, -16.7096, -90.9909, 7.01169
1.9, -1, 54.9708, 4.79816, 13.9419, 51.7662, -72.4069, -61.1771, -3.54473, 33.9677, 25.7292, -16.7165, -90.9841, 7.01159
1.904, -1, 54.9801, 4.8089, 13.94, 51.7629, -72.3949, -61.1704, -3.4975, 33.984, 25.7304, -16.7233, -90.9773, 7.01149
1.908, -1, 54.9894, 4.81965, 13.9381, 51.7596, -72.3828, -61.1636, -3.45028, 34.0002, 25.7316, -16.7302, -90.9705, 7.01139
1.912, -1, 54.9986, 4.83039, 13.9362, 51.7562, -72.3707, -61.1569, -3.40306, 34.0165, 25.7328, -16.737, -90.9637, 7.0113
1.916, -1, 55.0079, 4.84113, 13.9343, 51.7529, -72.3587, -61.1502, -3.35585, 34.0327, 25.734, -16.7439, -90.9568, 7.0112
1.92, -1, 55.0172, 4.85187, 13.9323, 51.7496, -72.3466, -61.1435, -3.30863, 34.049, 25.7352, -16.7507, -90.95, 7.0111
1.924, -1, 55.0264, 4.86262, 13.9304, 51.7463, -72.3345, -61.1367, -3.26142, 34.0653, 25.7364, -16.7576, -90.9432, 7.011
1.928, -1, 55.0357, 4.87336, 13.9285, 51.743, -72.3225, -61.13, -3.21421, 34.0815, 25.7376, -16.7644, -90.9364, 7.0109
1.932, -1, 55.045, 4.8841, 13.9266, 51.7397, -72.3104, -61.1233, -3.167, 34.0978, 25.7388, -16.7712, -90.9296, 7.0108
1.936, -1, 55.0543, 4.89484, 13.9247, 51.7363, -72.2984, -61.1165, -3.11979, 34.114, 25.74, -16.7781, -90.9228, 7.0107
1.94, -1, 55.0635, 4.90558, 13.9228, 51.733, -72.2863, -61.1098, -3.07259, 34.1303, 25.7412, -16.7849, -90.916, 7.0106
1.944, -1, 55.0728, 4.91632, 13.9209, 51.7297, -72.2742, -61.1031, -3.02538, 34.1465, 25.7423, -16.7918, -90.9092, 7.0105
1.948, -1, 55.0821, 4.92706, 13.919, 51.7264, -72.2622, -61.0963, -2.97818, 34.1628, 25.7435, -16.7986, -90.9024, 7.0104
1.952, -1, 55.0913, 4.9378, 13.9171, 51.7231, -72.2501, -61.0896, -2.93098, 34.179, 25.7447, -16.8055, -90.8956, 7.0103
1.956, -1, 55.1006, 4.94853, 13.9152, 51.7198, -72.2381, -61.0829, -2.88378, 34.1953, 25.7459, -16.8123, -90.8888, 7.0102
1.96, -1, 55.1099, 4.95927, 13.9133, 51.7164, -72.226, -61.0762, -2.83658, 34.2115, 25.7471, -16.8192, -90.8819, 7.01011
1.964, -1, 55.1191, 4.97001, 13.9114, 51.7131, -72.2139, -61.0694, -2.78939, 34.2278, 25.7483, -16.826, -90.8751, 7.01001
1.968, -1, 55.1284, 4.98075, 13.9095, 51.7098, -72.2019, -61.0627, -2.74219, 34.244, 25.7495, -16.8329, -90.8683, 7.00991
1.972, -1, 55.1377, 4.99148, 13.9076, 51.7065, -72.1898, -61.056, -2.695, 34.2603, 25.7507, -16.8397, -90.8615, 7.00981
1.976, -1, 55.147, 5.00222, 13.9057, 51.7032, -72.1777, -61.0493, -2.64781, 34.2765, 25.7519, -16.8465, -90.8547, 7.00971
1.98, -1, 55.1562, 5.01296, 13.9038, 51.6999, -72.1657, -61.0425, -2.60062, 34.2927, 25.7531, -16.8534, -90.8479, 7.00961
1.984, -1, 55.1655, 5.02369, 13.9019, 51.6966, -72.1536, -61.0358, -2.55344, 34.309, 25.7543, -16.8602, -90.8411, 7.00951
1.988, -1, 55.1748, 5.03443, 13.9, 51.6932, -72.1416, -61.0291, -2.50625, 34.3252, 25.7555, -16.8671, -90.8343, 7.00941
1.992, -1, 55.184, 5.04516, 13.898, 51.6899, -72.1295, -61.0224, -2.45907, 34.3415, 25.7567, -16.8739, -90.8275, 7.00931
1.996, -1, 55.1933, 5.0559, 13.8961, 51.6866, -72.1175, -61.0156, -2.41189, 34.3577, 25.7579, -16.8808, -90.8207, 7.00921
1.999, -1, 55.2026, 5.06663, 13.8942, 51.6833, -72.1054, -61.0089, -2.36471, 34.374, 25.7591, -16.8876, -90.8139, 7.00912
2.004, -1, 55.2118, 5.07736, 13.8923, 51.68, -72.0934, -61.0022, -2.31753, 34.3902, 25.7602, -16.8945, -90.8071, 7.00902
2.008, -1, 55.2211, 5.0881, 13.8904, 51.6767, -72.0813, -60.9954, -2.27035, 34.4064, 25.7614, -16.9013, -90.8003, 7.00892
2.012, -1, 55.2303, 5.09883, 13.8885, 51.6734, -72.0692, -60.9887, -2.22318, 34.4227, 25.7626, -16.9081, -90.7935, 7.00882
2.015, -1, 55.2396, 5.10956, 13.8866, 51.6701, -72.0572, -60.982, -2.17601, 34.4389, 25.7638, -16.915, -90.7867, 7.00872
2.019, -1, 55.2489, 5.1203, 13.8847, 51.6667, -72.0451, -60.9753, -2.12884, 34.4552, 25.765, -16.9218, -90.7799, 7.00862
2.024, -1, 55.2581, 5.13103, 13.8828, 51.6634, -72.0331, -60.9686, -2.08167, 34.4714, 25.7662, -16.9287, -90.7731, 7.00852
2.028, -1, 55.2674, 5.14176, 13.8809, 51.6601, -72.021, -60.9618, -2.0345, 34.4876, 25.7674, -16.9355, -90.7663, 7.00842
2.031, -1, 55.2767, 5.15249, 13.879, 51.6568, -72.009, -60.9551, -1.98733, 34.5039, 25.7686, -16.9423, -90.7595, 7.00832
2.036, -1, 55.2859, 5.16322, 13.8771, 51.6535, -71.9969, -60.9484, -1.94017, 34.5201, 25.7698, -16.9492, -90.7526, 7.00822
2.04, -1, 55.2952, 5.17395, 13.8752, 51.6502, -71.9849, -60.9417, -1.893, 34.5364, 25.771, -16.956, -90.7458, 7.00812
2.044, -1, 55.3045, 5.18468, 13.8733, 51.6469, -71.9728, -60.9349, -1.84584, 34.5526, 25.7722, -16.9629, -90.739, 7.00803
2.048, -1, 55.3137, 5.19541, 13.8714, 51.6436, -71.9608, -60.9282, -1.79868, 34.5688, 25.7734, -16.9697, -90.7322, 7.00793
2.051, -1, 55.323, 5.20614, 13.8695, 51.6402, -71.9487, -60.9215, -1.75153, 34.5851, 25.7746, -16.9765, -90.7254, 7.00783
2.055, -1, 55.3322, 5.21687, 13.8676, 51.6369, -71.9367, -60.9148, -1.70437, 34.6013, 25.7757, -16.9834, -90.7186, 7.00773
2.06, -1, 55.3415, 5.2276, 13.8657, 51.6336, -71.9246, -60.9081, -1.65722, 34.6175, 25.7769, -16.9902, -90.7118, 7.00763
2.064, -1, 55.3508, 5.23832, 13.8638, 51.6303, -71.9126, -60.9013, -1.61006, 34.6338, 25.7781, -16.9971, -90.705, 7.00753
2.068, -1, 55.36, 5.24905, 13.8619, 51.627, -71.9005, -60.8946, -1.56291, 34.65, 25.7793, -17.0039, -90.6982, 7.00743
2.071, -1, 55.3693, 5.25978, 13.86, 51.6237, -71.8885, -60.8879, -1.51576, 34.6662, 25.7805, -17.0107, -90.6914, 7.00733
2.076, -1, 55.3785, 5.2705, 13.8581, 51.6204, -71.8764, -60.8812, -1.46862, 34.6824, 25.7817, -17.0176, -90.6846, 7.00723
2.08, -1, 55.3878, 5.28123, 13.8562, 51.6171, -71.8644, -60.8744, -1.42147, 34.6987, 25.7829, -17.0244, -90.6778, 7.00713
2.084, -1, 55.3971, 5.29196, 13.8543, 51.6138, -71.8523, -60.8677, -1.37432, 34.7149, 25.7841, -17.0313, -90.671, 7.00704
2.087, -1, 55.4063, 5.30268, 13.8523, 51.6104, -71.8403, -60.861, -1.32718, 34.7311, 25.7853, -17.0381, -90.6642, 7.00694
2.092, -1, 55.4156, 5.31341, 13.8504, 51.6071, -71.8283, -60.8543, -1.28004, 34.7474, 25.7865, -17.0449, -90.6574, 7.00684
2.096, -1, 55.4248, 5.32413, 13.8485, 51.6038, -71.8162, -60.8476, -1.2329, 34.7636, 25.7877, -17.0518, -90.6506, 7.00674
2.1, -1, 55.4341, 5.33486, 13.8466, 51.6005, -71.8042, -60.8408, -1.18576, 34.7798, 25.7889, -17.0586, -90.6438, 7.00664
2.104, -1, 55.4433, 5.34558, 13.8447, 51.5972, -71.7921, -60.8341, -1.13863, 34.7961, 25.7901, -17.0654, -90.637, 7.00654
2.107, -1, 55.4526, 5.35631, 13.8428, 51.5939, -71.7801, -60.8274, -1.09149, 34.8123, 25.7912, -17.0723, -90.6302, 7.00644
2.111, -1, 55.4619, 5.36703, 13.8409, 51.5906, -71.768, -60.8207, -1.04436, 34.8285, 25.7924, -17.0791, -90.6234, 7.00634
2.116, -1, 55.4711, 5.37775, 13.839, 51.5873, -71.756, -60.814, -0.997229, 34.8447, 25.7936, -17.086, -90.6166, 7.00624
2.12, -1, 55.4804, 5.38847, 13.8371, 51.584, -71.7439, -60.8073, -0.950099, 34.861, 25.7948, -17.0928, -90.6098, 7.00615
2.124, -1, 55.4896, 5.3992, 13.8352, 51.5806, -71.7319, -60.8005, -0.902971, 34.8772, 25.796, -17.0996, -90.6031, 7.00605
2.127, -1, 55.4989, 5.40992, 13.8333, 51.5773, -71.7199, -60.7938, -0.855845, 34.8934, 25.7972, -17.1065, -90.5962, 7.00595
2.132, -1, 55.5081, 5.42064, 13.8314, 51.574, -71.7078, -60.7871, -0.80872, 34.9096, 25.7984, -17.1133, -90.5894, 7.00585
2.136, -1, 55.5174, 5.43136, 13.8295, 51.5707, -71.6958, -60.7804, -0.761597, 34.9258, 25.7996, -17.1201, -90.5826, 7.00575
2.14, -1, 55.5266, 5.44208, 13.8276, 51.5674, -71.6837, -60.7737, -0.714475, 34.9421, 25.8008, -17.127, -90.5759, 7.00565
2.143, -1, 55.5359, 5.4528, 13.8257, 51.5641, -71.6717, -60.767, -0.667355, 34.9583, 25.802, -17.1338, -90.5691, 7.00555
2.148, -1, 55.5452, 5.46352, 13.8238, 51.5608, -71.6597, -60.7602, -0.620237, 34.9745, 25.8032, -17.1406, -90.5623, 7.00545
2.152, -1, 55.5544, 5.47424, 13.8219, 51.5575, -71.6476, -60.7535, -0.57312, 34.9907, 25.8044, -17.1475, -90.5555, 7.00535
2.156, -1, 55.5637, 5.48496, 13.82, 51.5542, -71.6356, -60.7468, -0.526005, 35.007, 25.8055, -17.1543, -90.5487, 7.00526
2.16, -1, 55.5729, 5.49568, 13.8181, 51.5509, -71.6235, -60.7401, -0.478892, 35.0232, 25.8067, -17.1611, -90.5419, 7.00516
2.163, -1, 55.5822, 5.5064, 13.8162, 51.5476, -71.6115, -60.7334, -0.43178, 35.0394, 25.8079, -17.168, -90.5351, 7.00506
2.168, -1, 55.5914, 5.51712, 13.8143, 51.5442, -71.5995, -60.7267, -0.384669, 35.0556, 25.8091, -17.1748, -90.5283, 7.00496
2.172, -1, 55.6007, 5.52784, 13.8124, 51.5409, -71.5874, -60.7199, -0.337561, 35.0718, 25.8103, -17.1816, -90.5215, 7.00486
2.176, -1, 55.6099, 5.53855, 13.8105, 51.5376, -71.5754, -60.7132, -0.290453, 35.088, 25.8115, -17.1885, -90.5147, 7.00476
2.179, -1, 55.6192, 5.54927, 13.8086, 51.5343, -71.5634, -60.7065, -0.243348, 35.1043, 25.8127, -17.1953, -90.5079, 7.00466
2.184, -1, 55.6284, 5.55999, 13.8067, 51.531, -71.5513, -60.6998, -0.196244, 35.1205, 25.8139, -17.2021, -90.5011, 7.00456
2.188, -1, 55.6377, 5.5707, 13.8048, 51.5277, -71.5393, -60.6931, -0.149141, 35.1367, 25.8151, -17.209, -90.4943, 7.00446
2.192, -1, 55.6469, 5.58142, 13.8029, 51.5244, -71.5273, -60.6864, -0.10204, 35.1529, 25.8163, -17.2158, -90.4875, 7.00436
2.196, -1, 55.6562, 5.59214, 13.801, 51.5211, -71.5152, -60.6797, -0.0549412, 35.1691, 25.8175, -17.2226, -90.4807, 7.00427
2.199, -1, 55.6654, 5.60285, 13.7991, 51.5178, -71.5032, -60.6729, -0.00784344, 35.1853, 25.8186, -17.2295, -90.4739, 7.00417
2.204, -1, 55.6747, 5.61357, 13.7972, 51.5145, -71.4911, -60.6662, 0.0392527, 35.2015, 25.8198, -17.2363, -90.4671, 7.00407
2.208, -1, 55.6839, 5.62428, 13.7953, 51.5112, -71.4791, -60.6595, 0.0863473, 35.2178, 25.821, -17.2431, -90.4603, 7.00397
2.212, -1, 55.6932, 5.635, 13.7934, 51.5079, -71.4671, -60.6528, 0.13344, 35.234, 25.8222, -17.2499, -90.4536, 7.00387
2.216, -1, 55.7024, 5.64571, 13.7915, 51.5046, -71.455, -60.6461, 0.180532, 35.2502, 25.8234, -17.2568, -90.4468, 7.00377
2.219, -1, 55.7117, 5.65642, 13.7896, 51.5012, -71.443, -60.6394, 0.227622, 35.2664, 25.8246, -17.2636, -90.44, 7.00367
2.224, -1, 55.7209, 5.66714, 13.7877, 51.4979, -71.431, -60.6327, 0.27471, 35.2826, 25.8258, -17.2704, -90.4332, 7.00357
2.228, -1, 55.7302, 5.67785, 13.7858, 51.4946, -71.419, -60.626, 0.321797, 35.2988, 25.827, -17.2773, -90.4264, 7.00348
2.232, -1, 55.7394, 5.68856, 13.7839, 51.4913, -71.4069, -60.6192, 0.368882, 35.315, 25.8282, -17.2841, -90.4196, 7.00338
2.235, -1, 55.7487, 5.69928, 13.782, 51.488, -71.3949, -60.6125, 0.415966, 35.3312, 25.8294, -17.2909, -90.4128, 7.00328
2.24, -1, 55.7579, 5.70999, 13.7801, 51.4847, -71.3829, -60.6058, 0.463048, 35.3474, 25.8306, -17.2978, -90.406, 7.00318
2.244, -1, 55.7672, 5.7207, 13.7782, 51.4814, -71.3708, -60.5991, 0.510129, 35.3637, 25.8317, -17.3046, -90.3992, 7.00308
2.248, -1, 55.7764, 5.73141, 13.7763, 51.4781, -71.3588, -60.5924, 0.557208, 35.3799, 25.8329, -17.3114, -90.3924, 7.00298
2.252, -1, 55.7856, 5.74212, 13.7744, 51.4748, -71.3468, -60.5857, 0.604286, 35.3961, 25.8341, -17.3182, -90.3856, 7.00288
2.255, -1, 55.7949, 5.75283, 13.7725, 51.4715, -71.3347, -60.579, 0.651362, 35.4123, 25.8353, -17.3251, -90.3788, 7.00278
2.259, -1, 55.8041, 5.76354, 13.7706, 51.4682, -71.3227, -60.5723, 0.698436, 35.4285, 25.8365, -17.3319, -90.3721, 7.00268
2.264, -1, 55.8134, 5.77425, 13.7687, 51.4649, -71.3107, -60.5656, 0.745509, 35.4447, 25.8377, -17.3387, -90.3653, 7.00259
2.268, -1, 55.8226, 5.78496, 13.7668, 51.4616, -71.2987, -60.5588, 0.792581, 35.4609, 25.8389, -17.3455, -90.3585, 7.00249
2.272, -1, 55.8319, 5.79567, 13.7649, 51.4583, -71.2866, -60.5521, 0.839651, 35.4771, 25.8401, -17.3524, -90.3517, 7.00239
2.275, -1, 55.8411, 5.80638, 13.763, 51.455, -71.2746, -60.5454, 0.886719, 35.4933, 25.8413, -17.3592, -90.3449, 7.00229
2.28, -1, 55.8504, 5.81709, 13.7611, 51.4516, -71.2626, -60.5387, 0.933786, 35.5095, 25.8425, -17.366, -90.3381, 7.00219
2.284, -1, 55.8596, 5.8278, 13.7592, 51.4483, -71.2506, -60.532, 0.980852, 35.5257, 25.8436, -17.3729, -90.3313, 7.00209
2.288, -1, 55.8688, 5.8385, 13.7573, 51.445, -71.2385, -60.5253, 1.02792, 35.5419, 25.8448, -17.3797, -90.3245, 7.00199
2.291, -1, 55.8781, 5.84921, 13.7554, 51.4417, -71.2265, -60.5186, 1.07498, 35.5581, 25.846, -17.3865, -90.3177, 7.00189
2.296, -1, 55.8873, 5.85992, 13.7535, 51.4384, -71.2145, -60.5119, 1.12204, 35.5743, 25.8472, -17.3933, -90.311, 7.0018
2.3, -1, 55.8966, 5.87062, 13.7516, 51.4351, -71.2024, -60.5052, 1.1691, 35.5905, 25.8484, -17.4002, -90.3042, 7.0017
2.304, -1, 55.9058, 5.88133, 13.7497, 51.4318, -71.1904, -60.4985, 1.21616, 35.6067, 25.8496, -17.407, -90.2974, 7.0016
2.308, -1, 55.9151, 5.89204, 13.7478, 51.4285, -71.1784, -60.4918, 1.26321, 35.6229, 25.8508, -17.4138, -90.2906, 7.0015
2.311, -1, 55.9243, 5.90274, 13.7459, 51.4252, -71.1664, -60.4851, 1.31027, 35.6391, 25.852, -17.4206, -90.2838, 7.0014
2.316, -1, 55.9335, 5.91345, 13.744, 51.4219, -71.1544, -60.4783, 1.35732, 35.6553, 25.8532, -17.4275, -90.277, 7.0013
2.32, -1, 55.9428, 5.92415, 13.7421, 51.4186, -71.1423, -60.4716, 1.40437, 35.6715, 25.8544, -17.4343, -90.2702, 7.0012
2.324, -1, 55.952, 5.93486, 13.7402, 51.4153, -71.1303, -60.4649, 1.45142, 35.6877, 25.8555, -17.4411, -90.2635, 7.0011
2.328, -1, 55.9613, 5.94556, 13.7383, 51.412, -71.1183, -60.4582, 1.49847, 35.7039, 25.8567, -17.4479, -90.2567, 7.001
2.331, -1, 55.9705, 5.95627, 13.7364, 51.4087, -71.1063, -60.4515, 1.54552, 35.7201, 25.8579, -17.4548, -90.2499, 7.00091
2.336, -1, 55.9797, 5.96697, 13.7345, 51.4054, -71.0942, -60.4448, 1.59257, 35.7363, 25.8591, -17.4616, -90.2431, 7.00081
2.34, -1, 55.989, 5.97767, 13.7326, 51.4021, -71.0822, -60.4381, 1.63961, 35.7525, 25.8603, -17.4684, -90.2363, 7.00071
2.344, -1, 55.9982, 5.98838, 13.7307, 51.3988, -71.0702, -60.4314, 1.68666, 35.7687, 25.8615, -17.4752, -90.2295, 7.00061
2.347, -1, 56.0075, 5.99908, 13.7288, 51.3955, -71.0582, -60.4247, 1.7337, 35.7849, 25.8627, -17.482, -90.2227, 7.00051
2.352, -1, 56.0167, 6.00978, 13.7269, 51.3922, -71.0462, -60.418, 1.78074, 35.8011, 25.8639, -17.4889, -90.216, 7.00041
2.356, -1, 56.0259, 6.02048, 13.725, 51.3889, -71.0341, -60.4113, 1.82778, 35.8173, 25.8651, -17.4957, -90.2092, 7.00031
2.36, -1, 56.0352, 6.03118, 13.7231, 51.3856, -71.0221, -60.4046, 1.87481, 35.8335, 25.8662, -17.5025, -90.2024, 7.00021
2.364, -1, 56.0444, 6.04189, 13.7212, 51.3823, -71.0101, -60.3979, 1.92185, 35.8497, 25.8674, -17.5093, -90.1956, 7.00012
2.367, -1, 56.0536, 6.05259, 13.7193, 51.379, -70.9981, -60.3912, 1.96888, 35.8658, 25.8686, -17.5162, -90.1888, 7.00002
2.372, -1, 56.0629, 6.06329, 13.7174, 51.3756, -70.9861, -60.3845, 2.01592, 35.882, 25.8698, -17.523, -90.182, 6.99992
2.376, -1, 56.0721, 6.07399, 13.7155, 51.3723, -70.9741, -60.3778, 2.06295, 35.8982, 25.871, -17.5298, -90.1752, 6.99982
2.38, -1, 56.0813, 6.08469, 13.7136, 51.369, -70.962, -60.3711, 2.10998, 35.9144, 25.8722, -17.5366, -90.1685, 6.99972
2.383, -1, 56.0906, 6.09539, 13.7117, 51.3657, -70.95, -60.3644, 2.15701, 35.9306, 25.8734, -17.5434, -90.1617, 6.99962
2.388, -1, 56.0998, 6.10609, 13.7098, 51.3624, -70.938, -60.3577, 2.20403, 35.9468, 25.8746, -17.5503, -90.1549, 6.99952
2.392, -1, 56.1091, 6.11679, 13.7079, 51.3591, -70.926, -60.351, 2.25106, 35.963, 25.8758, -17.5571, -90.1481, 6.99942
2.396, -1, 56.1183, 6.12749, 13.706, 51.3558, -70.914, -60.3442, 2.29808, 35.9792, 25.877, -17.5639, -90.1413, 6.99933
2.4, -1, 56.1275, 6.13818, 13.7041, 51.3525, -70.902, -60.3375, 2.34511, 35.9954, 25.8781, -17.5707, -90.1345, 6.99923
2.403, -1, 56.1368, 6.14888, 13.7022, 51.3492, -70.8899, -60.3308, 2.39213, 36.0116, 25.8793, -17.5776, -90.1278, 6.99913
2.408, -1, 56.146, 6.15958, 13.7003, 51.3459, -70.8779, -60.3241, 2.43915, 36.0277, 25.8805, -17.5844, -90.121, 6.99903
2.412, -1, 56.1552, 6.17028, 13.6984, 51.3426, -70.8659, -60.3174, 2.48617, 36.0439, 25.8817, -17.5912, -90.1142, 6.99893
2.416, -1, 56.1645, 6.18097, 13.6965, 51.3393, -70.8539, -60.3107, 2.53319, 36.0601, 25.8829, -17.598, -90.1074, 6.99883
2.42, -1, 56.1737, 6.19167, 13.6946, 51.336, -70.8419, -60.304, 2.5802, 36.0763, 25.8841, -17.6048, -90.1006, 6.99873
2.423, -1, 56.1829, 6.20237, 13.6927, 51.3327, -70.8299, -60.2973, 2.62722, 36.0925, 25.8853, -17.6116, -90.0939, 6.99863
2.428, -1, 56.1922, 6.21306, 13.6908, 51.3294, -70.8179, -60.2906, 2.67423, 36.1087, 25.8865, -17.6185, -90.0871, 6.99854
2.432, -1, 56.2014, 6.22376, 13.6889, 51.3261, -70.8058, -60.2839, 2.72124, 36.1249, 25.8876, -17.6253, -90.0803, 6.99844
2.436, -1, 56.2106, 6.23446, 13.687, 51.3228, -70.7938, -60.2772, 2.76825, 36.141, 25.8888, -17.6321, -90.0735, 6.99834
2.439, -1, 56.2199, 6.24515, 13.6851, 51.3195, -70.7818, -60.2705, 2.81526, 36.1572, 25.89, -17.6389, -90.0667, 6.99824
2.444, -1, 56.2291, 6.25585, 13.6832, 51.3162, -70.7698, -60.2638, 2.86227, 36.1734, 25.8912, -17.6457, -90.06, 6.99814
2.448, -1, 56.2383, 6.26654, 13.6813, 51.3129, -70.7578, -60.2571, 2.90927, 36.1896, 25.8924, -17.6526, -90.0532, 6.99804
2.452, -1, 56.2476, 6.27723, 13.6794, 51.3096, -70.7458, -60.2504, 2.95628, 36.2058, 25.8936, -17.6594, -90.0464, 6.99794
2.456, -1, 56.2568, 6.28793, 13.6775, 51.3063, -70.7338, -60.2437, 3.00328, 36.2219, 25.8948, -17.6662, -90.0396, 6.99785
2.459, -1, 56.266, 6.29862, 13.6756, 51.303, -70.7218, -60.237, 3.05029, 36.2381, 25.896, -17.673, -90.0328, 6.99775
2.464, -1, 56.2752, 6.30932, 13.6737, 51.2997, -70.7098, -60.2303, 3.09729, 36.2543, 25.8972, -17.6798, -90.0261, 6.99765
2.468, -1, 56.2845, 6.32001, 13.6718, 51.2964, -70.6978, -60.2236, 3.14429, 36.2705, 25.8983, -17.6866, -90.0193, 6.99755
2.472, -1, 56.2937, 6.3307, 13.6699, 51.2931, -70.6857, -60.2169, 3.19128, 36.2867, 25.8995, -17.6935, -90.0125, 6.99745
2.476, -1, 56.3029, 6.34139, 13.668, 51.2898, -70.6737, -60.2102, 3.23828, 36.3028, 25.9007, -17.7003, -90.0057, 6.99735
2.479, -1, 56.3122, 6.35209, 13.6661, 51.2865, -70.6617, -60.2035, 3.28527, 36.319, 25.9019, -17.7071, -89.9989, 6.99725
2.484, -1, 56.3214, 6.36278, 13.6642, 51.2832, -70.6497, -60.1968, 3.33227, 36.3352, 25.9031, -17.7139, -89.9922, 6.99715
2.488, -1, 56.3306, 6.37347, 13.6623, 51.2799, -70.6377, -60.1901, 3.37926, 36.3514, 25.9043, -17.7207, -89.9854, 6.99706
2.492, -1, 56.3399, 6.38416, 13.6604, 51.2766, -70.6257, -60.1834, 3.42625, 36.3675, 25.9055, -17.7275, -89.9786, 6.99696
2.495, -1, 56.3491, 6.39485, 13.6585, 51.2733, -70.6137, -60.1767, 3.47324, 36.3837, 25.9067, -17.7344, -89.9718, 6.99686
2.5, -1, 56.3583, 6.40554, 13.6566, 51.27, -70.6017, -60.17, 3.52023, 36.3999, 25.9079, -17.7412, -89.965, 6.99676
2.504, -1, 56.3675, 6.41623, 13.6547, 51.2667, -70.5897, -60.1633, 3.56722, 36.4161, 25.909, -17.748, -89.9583, 6.99666
2.508, -1, 56.3768, 6.42692, 13.6528, 51.2634, -70.5777, -60.1566, 3.6142, 36.4323, 25.9102, -17.7548, -89.9515, 6.99656
2.512, -1, 56.386, 6.43761, 13.6509, 51.2601, -70.5657, -60.1499, 3.66119, 36.4484, 25.9114, -17.7616, -89.9447, 6.99646
2.515, -1, 56.3952, 6.4483, 13.649, 51.2568, -70.5537, -60.1432, 3.70817, 36.4646, 25.9126, -17.7684, -89.9379, 6.99637
2.52, -1, 56.4044, 6.45899, 13.6472, 51.2535, -70.5417, -60.1366, 3.75515, 36.4808, 25.9138, -17.7752, -89.9312, 6.99627
2.524, -1, 56.4137, 6.46968, 13.6453, 51.2502, -70.5297, -60.1299, 3.80213, 36.4969, 25.915, -17.7821, -89.9244, 6.99617
2.528, -1, 56.4229, 6.48037, 13.6434, 51.2469, -70.5177, -60.1232, 3.84911, 36.5131, 25.9162, -17.7889, -89.9176, 6.99607
2.531, -1, 56.4321, 6.49106, 13.6415, 51.2436, -70.5056, -60.1165, 3.89609, 36.5293, 25.9174, -17.7957, -89.9108, 6.99597
2.536, -1, 56.4414, 6.50174, 13.6396, 51.2403, -70.4936, -60.1098, 3.94307, 36.5455, 25.9185, -17.8025, -89.9041, 6.99587
2.54, -1, 56.4506, 6.51243, 13.6377, 51.237, -70.4816, -60.1031, 3.99004, 36.5616, 25.9197, -17.8093, -89.8973, 6.99577
2.544, -1, 56.4598, 6.52312, 13.6358, 51.2337, -70.4696, -60.0964, 4.03701, 36.5778, 25.9209, -17.8161, -89.8905, 6.99568
2.548, -1, 56.469, 6.5338, 13.6339, 51.2304, -70.4576, -60.0897, 4.08399, 36.594, 25.9221, -17.8229, -89.8837, 6.99558
2.551, -1, 56.4783, 6.54449, 13.632, 51.2271, -70.4456, -60.083, 4.13096, 36.6101, 25.9233, -17.8298, -89.877, 6.99548
2.556, -1, 56.4875, 6.55518, 13.6301, 51.2238, -70.4336, -60.0763, 4.17793, 36.6263, 25.9245, -17.8366, -89.8702, 6.99538
2.56, -1, 56.4967, 6.56586, 13.6282, 51.2205, -70.4216, -60.0696, 4.2249, 36.6425, 25.9257, -17.8434, -89.8634, 6.99528
2.564, -1, 56.5059, 6.57655, 13.6263, 51.2172, -70.4096, -60.0629, 4.27186, 36.6587, 25.9269, -17.8502, -89.8566, 6.99518
2.568, -1, 56.5152, 6.58723, 13.6244, 51.2139, -70.3976, -60.0562, 4.31883, 36.6748, 25.928, -17.857, -89.8499, 6.99508
2.571, -1, 56.5244, 6.59792, 13.6225, 51.2106, -70.3856, -60.0495, 4.36579, 36.691, 25.9292, -17.8638, -89.8431, 6.99499
2.576, -1, 56.5336, 6.6086, 13.6206, 51.2073, -70.3736, -60.0428, 4.41276, 36.7072, 25.9304, -17.8706, -89.8363, 6.99489
2.58, -1, 56.5428, 6.61929, 13.6187, 51.204, -70.3616, -60.0361, 4.45972, 36.7233, 25.9316, -17.8774, -89.8295, 6.99479
2.584, -1, 56.552, 6.62997, 13.6168, 51.2007, -70.3496, -60.0294, 4.50668, 36.7395, 25.9328, -17.8842, -89.8228, 6.99469
2.587, -1, 56.5613, 6.64066, 13.6149, 51.1974, -70.3376, -60.0227, 4.55364, 36.7557, 25.934, -17.8911, -89.816, 6.99459
2.592, -1, 56.5705, 6.65134, 13.613, 51.1941, -70.3256, -60.016, 4.6006, 36.7718, 25.9352, -17.8979, -89.8092, 6.99449
2.596, -1, 56.5797, 6.66202, 13.6111, 51.1908, -70.3136, -60.0093, 4.64755, 36.788, 25.9364, -17.9047, -89.8024, 6.99439
2.6, -1, 56.5889, 6.67271, 13.6092, 51.1875, -70.3016, -60.0026, 4.69451, 36.8041, 25.9375, -17.9115, -89.7957, 6.99429
2.604, -1, 56.5982, 6.68339, 13.6073, 51.1842, -70.2896, -59.996, 4.74147, 36.8203, 25.9387, -17.9183, -89.7889, 6.9942
2.607, -1, 56.6074, 6.69407, 13.6054, 51.1809, -70.2776, -59.9893, 4.78842, 36.8365, 25.9399, -17.9251, -89.7821, 6.9941
2.612, -1, 56.6166, 6.70476, 13.6035, 51.1776, -70.2656, -59.9826, 4.83537, 36.8526, 25.9411, -17.9319, -89.7754, 6.994
2.616, -1, 56.6258, 6.71544, 13.6016, 51.1743, -70.2536, -59.9759, 4.88232, 36.8688, 25.9423, -17.9387, -89.7686, 6.9939
2.62, -1, 56.635, 6.72612, 13.5997, 51.171, -70.2416, -59.9692, 4.92927, 36.885, 25.9435, -17.9455, -89.7618, 6.9938
2.624, -1, 56.6443, 6.7368, 13.5979, 51.1677, -70.2297, -59.9625, 4.97622, 36.9011, 25.9447, -17.9523, -89.755, 6.9937
2.627, -1, 56.6535, 6.74748, 13.596, 51.1644, -70.2177, -59.9558, 5.02317, 36.9173, 25.9459, -17.9592, -89.7483, 6.99361
2.632, -1, 56.6627, 6.75816, 13.5941, 51.1611, -70.2057, -59.9491, 5.07012, 36.9335, 25.947, -17.966, -89.7415, 6.99351
2.636, -1, 56.6719, 6.76884, 13.5922, 51.1578, -70.1937, -59.9424, 5.11706, 36.9496, 25.9482, -17.9728, -89.7347, 6.99341
2.64, -1, 56.6811, 6.77952, 13.5903, 51.1545, -70.1817, -59.9357, 5.16401, 36.9658, 25.9494, -17.9796, -89.728, 6.99331
2.643, -1, 56.6904, 6.7902, 13.5884, 51.1513, -70.1697, -59.929, 5.21095, 36.9819, 25.9506, -17.9864, -89.7212, 6.99321
2.648, -1, 56.6996, 6.80088, 13.5865, 51.148, -70.1577, -59.9223, 5.25789, 36.9981, 25.9518, -17.9932, -89.7144, 6.99311
2.652, -1, 56.7088, 6.81156, 13.5846, 51.1447, -70.1457, -59.9156, 5.30484, 37.0143, 25.953, -18, -89.7076, 6.99301
2.656, -1, 56.718, 6.82224, 13.5827, 51.1414, -70.1337, -59.909, 5.35178, 37.0304, 25.9542, -18.0068, -89.7009, 6.99292
2.66, -1, 56.7272, 6.83292, 13.5808, 51.1381, -70.1217, -59.9023, 5.39872, 37.0466, 25.9553, -18.0136, -89.6941, 6.99282
2.663, -1, 56.7364, 6.8436, 13.5789, 51.1348, -70.1097, -59.8956, 5.44565, 37.0627, 25.9565, -18.0204, -89.6873, 6.99272
2.668, -1, 56.7457, 6.85428, 13.577, 51.1315, -70.0977, -59.8889, 5.49259, 37.0789, 25.9577, -18.0272, -89.6806, 6.99262
2.672, -1, 56.7549, 6.86496, 13.5751, 51.1282, -70.0857, -59.8822, 5.53953, 37.095, 25.9589, -18.034, -89.6738, 6.99252
2.676, -1, 56.7641, 6.87564, 13.5732, 51.1249, -70.0737, -59.8755, 5.58646, 37.1112, 25.9601, -18.0409, -89.667, 6.99242
2.679, -1, 56.7733, 6.88631, 13.5713, 51.1216, -70.0617, -59.8688, 5.63339, 37.1274, 25.9613, -18.0477, -89.6602, 6.99232
2.684, -1, 56.7825, 6.89699, 13.5694, 51.1183, -70.0497, -59.8621, 5.68033, 37.1435, 25.9625, -18.0545, -89.6535, 6.99223
2.688, -1, 56.7918, 6.90767, 13.5675, 51.115, -70.0378, -59.8554, 5.72726, 37.1597, 25.9637, -18.0613, -89.6467, 6.99213
2.692, -1, 56.801, 6.91835, 13.5656, 51.1117, -70.0258, -59.8487, 5.77419, 37.1758, 25.9648, -18.0681, -89.6399, 6.99203
2.696, -1, 56.8102, 6.92903, 13.5637, 51.1084, -70.0138, -59.8421, 5.82112, 37.192, 25.966, -18.0749, -89.6332, 6.99193
2.699, -1, 56.8194, 6.9397, 13.5618, 51.1051, -70.0018, -59.8354, 5.86805, 37.2081, 25.9672, -18.0817, -89.6264, 6.99183
2.704, -1, 56.8286, 6.95038, 13.56, 51.1018, -69.9898, -59.8287, 5.91498, 37.2243, 25.9684, -18.0885, -89.6196, 6.99173
2.708, -1, 56.8378, 6.96106, 13.5581, 51.0985, -69.9778, -59.822, 5.96191, 37.2405, 25.9696, -18.0953, -89.6129, 6.99163
2.712, -1, 56.847, 6.97173, 13.5562, 51.0952, -69.9658, -59.8153, 6.00883, 37.2566, 25.9708, -18.1021, -89.6061, 6.99154
2.716, -1, 56.8563, 6.98241, 13.5543, 51.0919, -69.9538, -59.8086, 6.05576, 37.2728, 25.972, -18.1089, -89.5993, 6.99144
2.719, -1, 56.8655, 6.99308, 13.5524, 51.0886, -69.9418, -59.8019, 6.10268, 37.2889, 25.9731, -18.1157, -89.5926, 6.99134
2.724, -1, 56.8747, 7.00376, 13.5505, 51.0853, -69.9298, -59.7952, 6.1496, 37.3051, 25.9743, -18.1225, -89.5858, 6.99124
2.728, -1, 56.8839, 7.01444, 13.5486, 51.082, -69.9178, -59.7885, 6.19653, 37.3212, 25.9755, -18.1293, -89.579, 6.99114
2.732, -1, 56.8931, 7.02511, 13.5467, 51.0787, -69.9059, -59.7819, 6.24345, 37.3374, 25.9767, -18.1361, -89.5723, 6.99104
2.735, -1, 56.9023, 7.03579, 13.5448, 51.0754, -69.8939, -59.7752, 6.29037, 37.3535, 25.9779, -18.143, -89.5655, 6.99094
2.74, -1, 56.9116, 7.04646, 13.5429, 51.0721, -69.8819, -59.7685, 6.33729, 37.3697, 25.9791, -18.1498, -89.5587, 6.99085
2.744, -1, 56.9208, 7.05714, 13.541, 51.0689, -69.8699, -59.7618, 6.38421, 37.3858, 25.9803, -18.1566, -89.5519, 6.99075
2.748, -1, 56.93, 7.06781, 13.5391, 51.0656, -69.8579, -59.7551, 6.43112, 37.402, 25.9815, -18.1634, -89.5452, 6.99065
2.752, -1, 56.9392, 7.07849, 13.5372, 51.0623, -69.8459, -59.7484, 6.47804, 37.4181, 25.9826, -18.1702, -89.5384, 6.99055
2.755, -1, 56.9484, 7.08916, 13.5353, 51.059, -69.8339, -59.7417, 6.52495, 37.4343, 25.9838, -18.177, -89.5317, 6.99045
2.76, -1, 56.9576, 7.09983, 13.5334, 51.0557, -69.8219, -59.735, 6.57187, 37.4504, 25.985, -18.1838, -89.5249, 6.99035
2.764, -1, 56.9668, 7.11051, 13.5315, 51.0524, -69.8099, -59.7284, 6.61878, 37.4666, 25.9862, -18.1906, -89.5181, 6.99026
2.768, -1, 56.9761, 7.12118, 13.5296, 51.0491, -69.798, -59.7217, 6.6657, 37.4827, 25.9874, -18.1974, -89.5114, 6.99016
2.772, -1, 56.9853, 7.13185, 13.5277, 51.0458, -69.786, -59.715, 6.71261, 37.4989, 25.9886, -18.2042, -89.5046, 6.99006
2.775, -1, 56.9945, 7.14253, 13.5259, 51.0425, -69.774, -59.7083, 6.75952, 37.515, 25.9898, -18.211, -89.4978, 6.98996
2.78, -1, 57.0037, 7.1532, 13.524, 51.0392, -69.762, -59.7016, 6.80643, 37.5312, 25.9909, -18.2178, -89.4911, 6.98986
2.784, -1, 57.0129, 7.16387, 13.5221, 51.0359, -69.75, -59.6949, 6.85334, 37.5473, 25.9921, -18.2246, -89.4843, 6.98976
2.788, -1, 57.0221, 7.17454, 13.5202, 51.0326, -69.738, -59.6882, 6.90024, 37.5635, 25.9933, -18.2314, -89.4775, 6.98966
2.791, -1, 57.0313, 7.18521, 13.5183, 51.0293, -69.726, -59.6816, 6.94715, 37.5796, 25.9945, -18.2382, -89.4707, 6.98957
2.796, -1, 57.0405, 7.19589, 13.5164, 51.026, -69.7141, -59.6749, 6.99406, 37.5958, 25.9957, -18.245, -89.464, 6.98947
2.8, -1, 57.0498, 7.20656, 13.5145, 51.0227, -69.7021, -59.6682, 7.04096, 37.6119, 25.9969, -18.2518, -89.4572, 6.98937
2.804, -1, 57.059, 7.21723, 13.5126, 51.0194, -69.6901, -59.6615, 7.08786, 37.6281, 25.9981, -18.2586, -89.4505, 6.98927
2.808, -1, 57.0682, 7.2279, 13.5107, 51.0161, -69.6781, -59.6548, 7.13477, 37.6442, 25.9992, -18.2654, -89.4437, 6.98917
2.811, -1, 57.0774, 7.23857, 13.5088, 51.0128, -69.6661, -59.6481, 7.18167, 37.6603, 26.0004, -18.2722, -89.4369, 6.98907
2.816, -1, 57.0866, 7.24924, 13.5069, 51.0096, -69.6541, -59.6414, 7.22857, 37.6765, 26.0016, -18.279, -89.4302, 6.98898
2.82, -1, 57.0958, 7.25991, 13.505, 51.0063, -69.6421, -59.6348, 7.27547, 37.6926, 26.0028, -18.2858, -89.4234, 6.98888
2.824, -1, 57.105, 7.27058, 13.5031, 51.003, -69.6302, -59.6281, 7.32237, 37.7088, 26.004, -18.2926, -89.4166, 6.98878
2.828, -1, 57.1142, 7.28125, 13.5012, 50.9997, -69.6182, -59.6214, 7.36927, 37.7249, 26.0052, -18.2994, -89.4099, 6.98868
2.831, -1, 57.1234, 7.29192, 13.4993, 50.9964, -69.6062, -59.6147, 7.41616, 37.741, 26.0064, -18.3062, -89.4031, 6.98858
2.836, -1, 57.1327, 7.30259, 13.4974, 50.9931, -69.5942, -59.608, 7.46306, 37.7572, 26.0075, -18.313, -89.3963, 6.98848
2.84, -1, 57.1419, 7.31326, 13.4956, 50.9898, -69.5822, -59.6013, 7.50995, 37.7733, 26.0087, -18.3198, -89.3896, 6.98838
2.844, -1, 57.1511, 7.32393, 13.4937, 50.9865, -69.5703, -59.5946, 7.55685, 37.7895, 26.0099, -18.3266, -89.3828, 6.98829
2.847, -1, 57.1603, 7.3346, 13.4918, 50.9832, -69.5583, -59.588, 7.60374, 37.8056, 26.0111, -18.3334, -89.376, 6.98819
2.852, -1, 57.1695, 7.34527, 13.4899, 50.9799, -69.5463, -59.5813, 7.65063, 37.8217, 26.0123, -18.3402, -89.3693, 6.98809
2.856, -1, 57.1787, 7.35594, 13.488, 50.9766, -69.5343, -59.5746, 7.69753, 37.8379, 26.0135, -18.347, -89.3625, 6.98799
2.86, -1, 57.1879, 7.3666, 13.4861, 50.9733, -69.5223, -59.5679, 7.74442, 37.854, 26.0147, -18.3539, -89.3558, 6.98789
2.864, -1, 57.1971, 7.37727, 13.4842, 50.97, -69.5103, -59.5612, 7.7913, 37.8702, 26.0158, -18.3607, -89.349, 6.98779
2.867, -1, 57.2063, 7.38794, 13.4823, 50.9667, -69.4984, -59.5545, 7.83819, 37.8863, 26.017, -18.3675, -89.3422, 6.9877
2.872, -1, 57.2155, 7.39861, 13.4804, 50.9634, -69.4864, -59.5479, 7.88508, 37.9024, 26.0182, -18.3743, -89.3355, 6.9876
2.876, -1, 57.2247, 7.40928, 13.4785, 50.9601, -69.4744, -59.5412, 7.93197, 37.9186, 26.0194, -18.3811, -89.3287, 6.9875
2.88, -1, 57.234, 7.41994, 13.4766, 50.9569, -69.4624, -59.5345, 7.97885, 37.9347, 26.0206, -18.3879, -89.3219, 6.9874
2.883, -1, 57.2432, 7.43061, 13.4747, 50.9536, -69.4504, -59.5278, 8.02573, 37.9509, 26.0218, -18.3947, -89.3152, 6.9873
2.888, -1, 57.2524, 7.44128, 13.4728, 50.9503, -69.4385, -59.5211, 8.07254, 37.967, 26.023, -18.4015, -89.3084, 6.9872
2.892, -1, 57.2616, 7.45194, 13.4709, 50.947, -69.4265, -59.5144, 8.11901, 37.983, 26.0241, -18.4082, -89.3017, 6.9871
2.896, -1, 57.2708, 7.46261, 13.4691, 50.9437, -69.4145, -59.5078, 8.16472, 37.9988, 26.0252, -18.415, -89.2949, 6.98701
2.9, -1, 57.28, 7.47327, 13.4672, 50.9404, -69.4025, -59.5011, 8.20928, 38.0142, 26.0261, -18.4218, -89.2882, 6.98691
2.903, -1, 57.2892, 7.48391, 13.4653, 50.9371, -69.3905, -59.4944, 8.25252, 38.0292, 26.0268, -18.4285, -89.2815, 6.98681
2.908, -1, 57.2983, 7.49448, 13.4634, 50.9338, -69.3786, -59.4877, 8.2943, 38.0437, 26.0272, -18.4351, -89.2749, 6.98671
2.912, -1, 57.3072, 7.50491, 13.4615, 50.9305, -69.3667, -59.4811, 8.33452, 38.0576, 26.0275, -18.4416, -89.2683, 6.98662
2.916, -1, 57.316, 7.51512, 13.4597, 50.9273, -69.3549, -59.4745, 8.37316, 38.071, 26.0275, -18.4479, -89.2619, 6.98652
2.92, -1, 57.3245, 7.52504, 13.4579, 50.9241, -69.3432, -59.4679, 8.41028, 38.0839, 26.0274, -18.4541, -89.2557, 6.98643
2.923, -1, 57.3326, 7.53457, 13.4562, 50.921, -69.3319, -59.4616, 8.44582, 38.0963, 26.0272, -18.46, -89.2497, 6.98634
2.928, -1, 57.3403, 7.54361, 13.4545, 50.918, -69.321, -59.4554, 8.47958, 38.1081, 26.0269, -18.4657, -89.244, 6.98625
2.932, -1, 57.3475, 7.55209, 13.453, 50.9152, -69.3106, -59.4496, 8.51138, 38.1193, 26.0265, -18.471, -89.2387, 6.98617
2.936, -1, 57.3541, 7.55995, 13.4516, 50.9125, -69.3011, -59.4442, 8.54114, 38.1298, 26.0263, -18.4759, -89.2337, 6.9861
2.939, -1, 57.3602, 7.56712, 13.4502, 50.9102, -69.2924, -59.4393, 8.56894, 38.1396, 26.0262, -18.4804, -89.2291, 6.98603
2.944, -1, 57.3657, 7.57355, 13.4491, 50.908, -69.2847, -59.435, 8.59489, 38.1487, 26.0264, -18.4845, -89.225, 6.98597
2.948, -1, 57.3705, 7.57923, 13.4481, 50.9062, -69.2782, -59.4314, 8.61914, 38.1571, 26.0268, -18.4881, -89.2214, 6.98591
2.952, -1, 57.3748, 7.58414, 13.4472, 50.9048, -69.2728, -59.4284, 8.64175, 38.1649, 26.0275, -18.4913, -89.2183, 6.98587
2.956, -1, 57.3784, 7.58831, 13.4465, 50.9036, -69.2685, -59.426, 8.66261, 38.1719, 26.0286, -18.494, -89.2156, 6.98583
2.959, -1, 57.3815, 7.59175, 13.4459, 50.9027, -69.2652, -59.4242, 8.68156, 38.1783, 26.0298, -18.4963, -89.2134, 6.9858
2.964, -1, 57.384, 7.59453, 13.4454, 50.902, -69.2628, -59.4229, 8.69849, 38.1839, 26.0311, -18.4981, -89.2117, 6.98578
2.968, -1, 57.3861, 7.59671, 13.4451, 50.9016, -69.2612, -59.4221, 8.71339, 38.1888, 26.0326, -18.4996, -89.2103, 6.98576
2.972, -1, 57.3876, 7.59834, 13.4449, 50.9013, -69.2602, -59.4215, 8.72639, 38.1931, 26.034, -18.5007, -89.2092, 6.98575
2.976, -1, 57.3887, 7.59948, 13.4447, 50.9011, -69.2596, -59.4213, 8.73773, 38.197, 26.0354, -18.5016, -89.2085, 6.98574
2.98, -1, 57.3895, 7.60024, 13.4446, 50.901, -69.2592, -59.4211, 8.74756, 38.2003, 26.0368, -18.5022, -89.2079, 6.98574
2.984, -1, 57.3899, 7.6007, 13.4445, 50.901, -69.2591, -59.421, 8.75582, 38.2031, 26.0379, -18.5027, -89.2076, 6.98573
2.988, -1, 57.3902, 7.60094, 13.4445, 50.901, -69.259, -59.421, 8.76244, 38.2054, 26.0388, -18.503, -89.2073, 6.98573
2.992, 2, 57.3903, 7.60104, 13.4445, 50.9009, -69.259, -59.421, 8.76747, 38.2071, 26.0395, -18.5031, -89.2072, 6.98573
2.995, 2, 57.3903, 7.60106, 13.4445, 50.9009, -69.259, -59.421, 8.77099, 38.2083, 26.04, -18.5032, -89.2071, 6.98573
3, 2, 57.3903, 7.60107, 13.4445, 50.9009, -69.259, -59.421, 8.77312, 38.209, 26.0403, -18.5033, -89.2071, 6.98573
3.004, 2, 57.3903, 7.60107, 13.4445, 50.9009, -69.259, -59.421, 8.77412, 38.2093, 26.0404, -18.5033, -89.2071, 6.98573
3.008, 2, 57.3903, 7.60107, 13.4445, 50.9009, -69.259, -59.421, 8.77443, 38.2094, 26.0404, -18.5033, -89.2071, 6.98573
3.012, 2, 57.3903, 7.60107, 13.4445, 50.9009, -69.259, -59.421, 8.77448, 38.2094, 26.0404, -18.5033, -89.2071, 6.98573
3.015, 2, 57.3903, 7.60107, 13.4445, 50.9009, -69.259, -59.421, 8.77448, 38.2094, 26.0404, -18.5033, -89.2071, 6.98573
3.02, 2, 57.3903, 7.60107, 13.4445, 50.9009, -69.259, -59.421, 8.77448, 38.2094, 26.0404, -18.5033, -89.2071, 6.98573
3.024, 2, 57.3903, 7.60107, 13.4445, 50.9009, -69.259, -59.421, 8.77448, 38.2094, 26.0404, -18.5033, -89.2071, 6.98573
3.028, 2, 57.3903, 7.60107, 13.4445, 50.9009, -69.259, -59.421, 8.77448, 38.2094, 26.0404, -18.5033, -89.2071, 6.98573
3.031, 2, 57.3903, 7.60107, 13.4445, 50.9009, -69.259, -59.421, 8.77448, 38.2094, 26.0404, -18.5033, -89.2071, 6.98573
3.036, 2, 57.3903, 7.60107, 13.4445, 50.9009, -69.259, -59.421, 8.77448, 38.2094, 26.0404, -18.5033, -89.2071, 6.98573
3.04, 2, 57.3903, 7.60107, 13.4445, 50.9009, -69.259, -59.421, 8.77448, 38.2094, 26.0404, -18.5033, -89.2071, 6.98573
3.044, 2, 57.3903, 7.60107, 13.4445, 50.9009, -69.259, -59.421, 8.77448, 38.2094, 26.0404, -18.5033, -89.2071, 6.98573
3.048, 2, 57.3903, 7.60107, 13.4445, 50.9009, -69.259, -59.421, 8.77448, 38.2094, 26.0404, -18.5033, -89.2071, 6.98573
3.051, 2, 57.3903, 7.60107, 13.4445, 50.9009, -69.259, -59.421, 8.77448, 38.2094, 26.0404, -18.5033, -89.2071, 6.98573
3.056, 2, 57.3903, 7.60107, 13.4445, 50.9009, -69.259, -59.421, 8.77448, 38.2094, 26.0404, -18.5033, -89.2071, 6.98573
3.06, 2, 57.3903, 7.60107, 13.4445, 50.9009, -69.259, -59.421, 8.77448, 38.2094, 26.0404, -18.5033, -89.2071, 6.98573
3.064, 2, 57.3903, 7.60107, 13.4445, 50.9009, -69.259, -59.421, 8.77448, 38.2094, 26.0404, -18.5033, -89.2071, 6.98573
3.068, 2, 57.3903, 7.60107, 13.4445, 50.9009, -69.259, -59.421, 8.77448, 38.2094, 26.0404, -18.5033, -89.2071, 6.98573
3.071, 2, 57.3903, 7.60107, 13.4445, 50.9009, -69.259, -59.421, 8.77448, 38.2094, 26.0404, -18.5033, -89.2071, 6.98573
3.076, 2, 57.3903, 7.60107, 13.4445, 50.9009, -69.259, -59.421, 8.77448, 38.2094, 26.0404, -18.5033, -89.2071, 6.98573
3.08, 2, 57.3903, 7.60107, 13.4445, 50.9009, -69.259, -59.421, 8.77448, 38.2094, 26.0404, -18.5033, -89.2071, 6.98573
3.084, 2, 57.3903, 7.60107, 13.4445, 50.9009, -69.259, -59.421, 8.77448, 38.2094, 26.0404, -18.5033, -89.2071, 6.98573
3.087, 2, 57.3903, 7.60107, 13.4445, 50.9009, -69.259, -59.421, 8.77448, 38.2094, 26.0404, -18.5033, -89.2071, 6.98573
3.092, 2, 57.3903, 7.60107, 13.4445, 50.9009, -69.259, -59.421, 8.77448, 38.2094, 26.0404, -18.5033, -89.2071, 6.98573
3.096, 2, 57.3903, 7.60107, 13.4445, 50.9009, -69.259, -59.421, 8.77448, 38.2094, 26.0404, -18.5033, -89.2071, 6.98573
3.1, 2, 57.3903, 7.60107, 13.4445, 50.9009, -69.259, -59.421, 8.77448, 38.2094, 26.0404, -18.5033, -89.2071, 6.98573
3.104, 2, 57.3903, 7.60107, 13.4445, 50.9009, -69.259, -59.421, 8.77448, 38.2094, 26.0404, -18.5033, -89.2071, 6.98573
3.107, 2, 57.3903, 7.60107, 13.4445, 50.9009, -69.259, -59.421, 8.77448, 38.2094, 26.0404, -18.5033, -89.2071, 6.98573
3.112, 2, 57.3903, 7.60107, 13.4445, 50.9009, -69.259, -59.421, 8.77448, 38.2094, 26.0404, -18.5033, -89.2071, 6.98573
3.116, 2, 57.3903, 7.60107, 13.4445, 50.9009, -69.259, -59.421, 8.77448, 38.2094, 26.0404, -18.5033, -89.2071, 6.98573
3.12, 2, 57.3903, 7.60107, 13.4445, 50.9009, -69.259, -59.421, 8.77448, 38.2094, 26.0404, -18.5033, -89.2071, 6.98573
3.124, 2, 57.3903, 7.60107, 13.4445, 50.9009, -69.259, -59.421, 8.77448, 38.2094, 26.0404, -18.5033, -89.2071, 6.98573
3.128, 2, 57.3903, 7.60107, 13.4445, 50.9009, -69.259, -59.421, 8.77448, 38.2094, 26.0404, -18.5033, -89.2071, 6.98573
3.132, 2, 57.3903, 7.60107, 13.4445, 50.9009, -69.259, -59.421, 8.77448, 38.2094, 26.0404, -18.5033, -89.2071, 6.98573
3.136, 2, 57.3903, 7.60107, 13.4445, 50.9009, -69.259, -59.421, 8.77448, 38.2094, 26.0404, -18.5033, -89.2071, 6.98573
3.14, 2, 57.3903, 7.60107, 13.4445, 50.9009, -69.259, -59.421, 8.77448, 38.2094, 26.0404, -18.5033, -89.2071, 6.98573
3.143, 2, 57.3903, 7.60107, 13.4445, 50.9009, -69.259, -59.421, 8.77448, 38.2094, 26.0404, -18.5033, -89.2071, 6.98573
3.148, 2, 57.3903, 7.60107, 13.4445, 50.9009, -69.259, -59.421, 8.77448, 38.2094, 26.0404, -18.5033, -89.2071, 6.98573
3.152, 2, 57.3903, 7.60107, 13.4445, 50.9009, -69.259, -59.421, 8.77448, 38.2094, 26.0404, -18.5033, -89.2071, 6.98573
3.156, 2, 57.3903, 7.60107, 13.4445, 50.9009, -69.259, -59.421, 8.77448, 38.2094, 26.0404, -18.5033, -89.2071, 6.98573
3.16, 2, 57.3903, 7.60107, 13.4445, 50.9009, -69.259, -59.421, 8.77448, 38.2094, 26.0404, -18.5033, -89.2071, 6.98573
3.163, 2, 57.3903, 7.60107, 13.4445, 50.9009, -69.259, -59.421, 8.77448, 38.2094, 26.0404, -18.5033, -89.2071, 6.98573
3.168, 2, 57.3903, 7.60107, 13.4445, 50.9009, -69.259, -59.421, 8.77448, 38.2094, 26.0404, -18.5033, -89.2071, 6.98573
3.172, 2, 57.3903, 7.60107, 13.4445, 50.9009, -69.259, -59.421, 8.77448, 38.2094, 26.0404, -18.5033, -89.2071, 6.98573
3.176, 2, 57.3903, 7.60107, 13.4445, 50.9009, -69.259, -59.421, 8.77448, 38.2094, 26.0404, -18.5033, -89.2071, 6.98573
3.179, 2, 57.3903, 7.60107, 13.4445, 50.9009, -69.259, -59.421, 8.77448, 38.2094, 26.0404, -18.5033, -89.2071, 6.98573
3.184, 2, 57.3903, 7.60107, 13.4445, 50.9009, -69.259, -59.421, 8.77448, 38.2094, 26.0404, -18.5033, -89.2071, 6.98573
3.188, 2, 57.3903, 7.60107, 13.4445, 50.9009, -69.259, -59.421, 8.77448, 38.2094, 26.0404, -18.5033, -89.2071, 6.98573
3.192, 2, 57.3903, 7.60107, 13.4445, 50.9009, -69.259, -59.421, 8.77448, 38.2094, 26.0404, -18.5033, -89.2071, 6.98573
3.196, 2, 57.3903, 7.60107, 13.4445, 50.9009, -69.259, -59.421, 8.77448, 38.2094, 26.0404, -18.5033, -89.2071, 6.98573
3.199, 2, 57.3903, 7.60107, 13.4445, 50.9009, -69.259, -59.421, 8.77448, 38.2094, 26.0404, -18.5033, -89.2071, 6.98573
3.204, 2, 57.3903, 7.60107, 13.4445, 50.9009, -69.259, -59.421, 8.77448, 38.2094, 26.0404, -18.5033, -89.2071, 6.98573
3.208, 2, 57.3903, 7.60107, 13.4445, 50.9009, -69.259, -59.421, 8.77448, 38.2094, 26.0404, -18.5033, -89.2071, 6.98573
3.212, 2, 57.3903, 7.60107, 13.4445, 50.9009, -69.259, -59.421, 8.77448, 38.2094, 26.0404, -18.5033, -89.2071, 6.98573
3.216, 2, 57.3903, 7.60107, 13.4445, 50.9009, -69.259, -59.421, 8.77448, 38.2094, 26.0404, -18.5033, -89.2071, 6.98573
3.22, 2, 57.3903, 7.60107, 13.4445, 50.9009, -69.259, -59.421, 8.77448, 38.2094, 26.0404, -18.5033, -89.2071, 6.98573
3.224, 2, 57.3903, 7.60107, 13.4445, 50.9009, -69.259, -59.421, 8.77448, 38.2094, 26.0404, -18.5033, -89.2071, 6.98573
3.228, 2, 57.3903, 7.60107, 13.4445, 50.9009, -69.259, -59.421, 8.77448, 38.2094, 26.0404, -18.5033, -89.2071, 6.98573
3.232, 2, 57.3903, 7.60107, 13.4445, 50.9009, -69.259, -59.421, 8.77448, 38.2094, 26.0404, -18.5033, -89.2071, 6.98573
3.235, 2, 57.3903, 7.60107, 13.4445, 50.9009, -69.259, -59.421, 8.77448, 38.2094, 26.0404, -18.5033, -89.2071, 6.98573
3.24, 2, 57.3903, 7.60107, 13.4445, 50.9009, -69.259, -59.421, 8.77448, 38.2094, 26.0404, -18.5033, -89.2071, 6.98573
3.244, 2, 57.3903, 7.60107, 13.4445, 50.9009, -69.259, -59.421, 8.77448, 38.2094, 26.0404, -18.5033, -89.2071, 6.98573
3.248, 2, 57.3903, 7.60107, 13.4445, 50.9009, -69.259, -59.421, 8.77448, 38.2094, 26.0404, -18.5033, -89.2071, 6.98573
3.252, 2, 57.3903, 7.60107, 13.4445, 50.9009, -69.259, -59.421, 8.77448, 38.2094, 26.0404, -18.5033, -89.2071, 6.98573
3.255, 2, 57.3903, 7.60107, 13.4445, 50.9009, -69.259, -59.421, 8.77448, 38.2094, 26.0404, -18.5033, -89.2071, 6.98573
3.26, 2, 57.3903, 7.60107, 13.4445, 50.9009, -69.259, -59.421, 8.77448, 38.2094, 26.0404, -18.5033, -89.2071, 6.98573
3.264, 2, 57.3903, 7.60107, 13.4445, 50.9009, -69.259, -59.421, 8.77448, 38.2094, 26.0404, -18.5033, -89.2071, 6.98573
3.268, 2, 57.3903, 7.60107, 13.4445, 50.9009, -69.259, -59.421, 8.77448, 38.2094, 26.0404, -18.5033, -89.2071, 6.98573
3.272, 2, 57.3903, 7.60107, 13.4445, 50.9009, -69.259, -59.421, 8.77448, 38.2094, 26.0404, -18.5033, -89.2071, 6.98573
3.276, 2, 57.3903, 7.60107, 13.4445, 50.9009, -69.259, -59.421, 8.77448, 38.2094, 26.0404, -18.5033, -89.2071, 6.98573
3.28, 2, 57.3903, 7.60107, 13.4445, 50.9009, -69.259, -59.421, 8.77448, 38.2094, 26.0404, -18.5033, -89.2071, 6.98573
3.284, 2, 57.3903, 7.60107, 13.4445, 50.9009, -69.259, -59.421, 8.77448, 38.2094, 26.0404, -18.5033, -89.2071, 6.98573
