hehonglu123/Motion-Primitive-Planning/simulation/robotstudio_sim/multimove/log.csv
timestamp, cmd_num, J1, J2, J3, J4, J5, J6, J1_2, J2_2, J3_2, J4_2, J5_2, J6_2
0.002, -1, 39.6311, 32.4445, 11.8317, 12.5471, 113.714, -48.8708, -7.16391, 67.1284, -147.106, 15.6021, -105.511, -81.4145
0.006, -1, 39.6311, 32.4445, 11.8317, 12.5471, 113.714, -48.8708, -7.16391, 67.1284, -147.106, 15.6021, -105.511, -81.4145
0.01, -1, 39.6311, 32.4445, 11.8317, 12.5471, 113.714, -48.8708, -7.16391, 67.1284, -147.106, 15.6021, -105.511, -81.4145
0.011, -1, 39.6311, 32.4445, 11.8317, 12.5471, 113.714, -48.8708, -7.16391, 67.1284, -147.106, 15.6021, -105.511, -81.4145
0.013, -1, 39.6311, 32.4445, 11.8317, 12.5471, 113.714, -48.8708, -7.16391, 67.1284, -147.106, 15.6021, -105.511, -81.4145
0.016, -1, 39.6311, 32.4445, 11.8317, 12.5471, 113.714, -48.8708, -7.16391, 67.1284, -147.106, 15.6021, -105.511, -81.4145
0.02, -1, 39.6311, 32.4445, 11.8317, 12.5471, 113.714, -48.8708, -7.16391, 67.1284, -147.106, 15.6021, -105.511, -81.4145
0.024, -1, 39.6311, 32.4445, 11.8317, 12.5471, 113.714, -48.8708, -7.16391, 67.1284, -147.106, 15.6021, -105.511, -81.4145
0.028, -1, 39.6311, 32.4445, 11.8317, 12.5471, 113.714, -48.8708, -7.16391, 67.1284, -147.106, 15.6021, -105.511, -81.4145
0.032, -1, 39.6311, 32.4445, 11.8317, 12.5471, 113.714, -48.8708, -7.16391, 67.1284, -147.106, 15.6021, -105.511, -81.4145
0.036, -1, 39.6311, 32.4445, 11.8317, 12.5471, 113.714, -48.8708, -7.16391, 67.1284, -147.106, 15.6021, -105.511, -81.4145
0.04, -1, 39.6311, 32.4445, 11.8317, 12.5471, 113.714, -48.8708, -7.16391, 67.1284, -147.106, 15.6021, -105.511, -81.4145
0.044, -1, 39.6307, 32.4445, 11.8316, 12.5471, 113.714, -48.8708, -7.16391, 67.1284, -147.106, 15.6021, -105.511, -81.4145
0.048, -1, 39.6298, 32.4443, 11.8316, 12.5471, 113.714, -48.8708, -7.16391, 67.1284, -147.106, 15.6021, -105.511, -81.4145
0.052, -1, 39.6281, 32.4438, 11.8314, 12.5471, 113.714, -48.8709, -7.16391, 67.1284, -147.106, 15.6021, -105.511, -81.4145
0.056, -1, 39.6255, 32.4431, 11.8312, 12.5471, 113.714, -48.8711, -7.16391, 67.1284, -147.106, 15.6021, -105.511, -81.4145
0.06, -1, 39.6219, 32.4421, 11.8309, 12.5471, 113.714, -48.8716, -7.16391, 67.1284, -147.106, 15.6021, -105.511, -81.4145
0.064, -1, 39.6174, 32.4406, 11.8305, 12.5471, 113.713, -48.8724, -7.16391, 67.1284, -147.106, 15.6021, -105.511, -81.4145
0.068, -1, 39.6119, 32.4386, 11.8302, 12.5472, 113.713, -48.874, -7.16391, 67.1284, -147.106, 15.6021, -105.511, -81.4145
0.072, -1, 39.6053, 32.4361, 11.8299, 12.5473, 113.712, -48.8764, -7.16391, 67.1284, -147.106, 15.6021, -105.511, -81.4145
0.076, -1, 39.5975, 32.4328, 11.8298, 12.5475, 113.711, -48.88, -7.16391, 67.1284, -147.106, 15.6021, -105.511, -81.4145
0.08, -1, 39.5881, 32.4286, 11.8298, 12.5479, 113.709, -48.8852, -7.16391, 67.1284, -147.106, 15.6021, -105.511, -81.4145
0.084, -1, 39.5767, 32.4234, 11.8301, 12.5483, 113.706, -48.8924, -7.16391, 67.1284, -147.106, 15.6021, -105.511, -81.4145
0.088, -1, 39.563, 32.417, 11.8307, 12.549, 113.703, -48.902, -7.16391, 67.1284, -147.106, 15.6021, -105.511, -81.4145
0.092, -1, 39.5467, 32.4093, 11.8318, 12.5499, 113.698, -48.9145, -7.16391, 67.1284, -147.106, 15.6021, -105.511, -81.4145
0.096, -1, 39.5281, 32.4003, 11.8336, 12.5511, 113.692, -48.9305, -7.16391, 67.1284, -147.106, 15.6021, -105.511, -81.4145
0.1, -1, 39.5072, 32.39, 11.8363, 12.5525, 113.684, -48.9505, -7.16391, 67.1284, -147.106, 15.6021, -105.511, -81.4145
0.104, -1, 39.4839, 32.3784, 11.8399, 12.5544, 113.675, -48.9748, -7.16391, 67.1284, -147.106, 15.6021, -105.511, -81.4145
0.108, -1, 39.4581, 32.3653, 11.8447, 12.5566, 113.664, -49.0039, -7.16391, 67.1284, -147.106, 15.6021, -105.511, -81.4145
0.112, -1, 39.4295, 32.3506, 11.8506, 12.5593, 113.651, -49.0381, -7.16391, 67.1284, -147.106, 15.6021, -105.511, -81.4145
0.116, -1, 39.3981, 32.3342, 11.8577, 12.5624, 113.636, -49.0776, -7.16391, 67.1284, -147.106, 15.6021, -105.511, -81.4145
0.12, -1, 39.3639, 32.3162, 11.866, 12.5659, 113.619, -49.1224, -7.16391, 67.1284, -147.106, 15.6021, -105.511, -81.4145
0.124, -1, 39.3269, 32.2966, 11.8756, 12.5699, 113.599, -49.1726, -7.16391, 67.1284, -147.106, 15.6021, -105.511, -81.4145
0.128, -1, 39.2872, 32.2755, 11.8864, 12.5743, 113.578, -49.2281, -7.16391, 67.1284, -147.106, 15.6021, -105.511, -81.4145
0.131, -1, 39.245, 32.2528, 11.8984, 12.5791, 113.555, -49.2887, -7.16391, 67.1284, -147.106, 15.6021, -105.511, -81.4145
0.136, -1, 39.2005, 32.2288, 11.9115, 12.5843, 113.53, -49.3542, -7.16391, 67.1284, -147.106, 15.6021, -105.511, -81.4145
0.139, -1, 39.1537, 32.2035, 11.9256, 12.5899, 113.503, -49.424, -7.16391, 67.1284, -147.106, 15.6021, -105.511, -81.4145
0.144, -1, 39.1043, 32.1767, 11.9405, 12.5958, 113.474, -49.4977, -7.16391, 67.1284, -147.106, 15.6021, -105.511, -81.4145
0.148, -1, 39.0523, 32.1487, 11.9561, 12.602, 113.445, -49.5748, -7.16391, 67.1284, -147.106, 15.6021, -105.511, -81.4145
0.152, -1, 38.9977, 32.1193, 11.9721, 12.6083, 113.414, -49.6548, -7.16391, 67.1284, -147.106, 15.6021, -105.511, -81.4145
0.156, -1, 38.9411, 32.0888, 11.9884, 12.6149, 113.382, -49.7371, -7.16391, 67.1284, -147.106, 15.6021, -105.511, -81.4145
0.16, -1, 38.8827, 32.0573, 12.005, 12.6216, 113.35, -49.8214, -7.16391, 67.1284, -147.106, 15.6021, -105.511, -81.4145
0.164, -1, 38.8229, 32.025, 12.0218, 12.6284, 113.317, -49.9072, -7.16391, 67.1284, -147.106, 15.6021, -105.511, -81.4145
0.168, -1, 38.762, 31.992, 12.0386, 12.6353, 113.283, -49.9942, -7.16391, 67.1284, -147.106, 15.6021, -105.511, -81.4145
0.172, -1, 38.6998, 31.9585, 12.0555, 12.6423, 113.25, -50.082, -7.16391, 67.1284, -147.106, 15.6021, -105.511, -81.4145
0.176, -1, 38.6366, 31.9244, 12.0724, 12.6493, 113.216, -50.1703, -7.16391, 67.1284, -147.106, 15.6021, -105.511, -81.4145
0.18, -1, 38.5721, 31.8898, 12.0891, 12.6563, 113.182, -50.2589, -7.16391, 67.1284, -147.106, 15.6021, -105.511, -81.4145
0.184, -1, 38.5066, 31.8549, 12.1058, 12.6633, 113.148, -50.3477, -7.16391, 67.1284, -147.106, 15.6021, -105.511, -81.4145
0.188, -1, 38.44, 31.8197, 12.1224, 12.6703, 113.114, -50.4366, -7.16391, 67.1284, -147.106, 15.6021, -105.511, -81.4145
0.192, -1, 38.3727, 31.7844, 12.1389, 12.6773, 113.08, -50.5256, -7.16391, 67.1284, -147.106, 15.6021, -105.511, -81.4145
0.196, -1, 38.3051, 31.7489, 12.1554, 12.6843, 113.045, -50.6146, -7.16391, 67.1284, -147.106, 15.6021, -105.511, -81.4145
0.2, -1, 38.2373, 31.7135, 12.1719, 12.6913, 113.011, -50.7036, -7.16391, 67.1284, -147.106, 15.6021, -105.511, -81.4145
0.204, -1, 38.1695, 31.678, 12.1884, 12.6983, 112.977, -50.7926, -7.16391, 67.1284, -147.106, 15.6021, -105.511, -81.4145
0.208, -1, 38.1017, 31.6426, 12.2049, 12.7053, 112.943, -50.8816, -7.16391, 67.1284, -147.106, 15.6021, -105.511, -81.4145
0.212, -1, 38.0339, 31.6071, 12.2214, 12.7123, 112.909, -50.9706, -7.16391, 67.1284, -147.106, 15.6021, -105.511, -81.4145
0.216, -1, 37.9661, 31.5716, 12.2379, 12.7193, 112.875, -51.0597, -7.16391, 67.1284, -147.106, 15.6021, -105.511, -81.4145
0.22, -1, 37.8983, 31.5362, 12.2544, 12.7263, 112.841, -51.1488, -7.16391, 67.1284, -147.106, 15.6021, -105.511, -81.4145
0.224, -1, 37.8305, 31.5007, 12.2709, 12.7333, 112.806, -51.2378, -7.16391, 67.1284, -147.106, 15.6021, -105.511, -81.4145
0.228, -1, 37.7626, 31.4652, 12.2874, 12.7403, 112.772, -51.3269, -7.16391, 67.1284, -147.106, 15.6021, -105.511, -81.4145
0.232, -1, 37.6948, 31.4297, 12.3039, 12.7473, 112.738, -51.4161, -7.16391, 67.1284, -147.106, 15.6021, -105.511, -81.4145
0.236, -1, 37.6269, 31.3942, 12.3204, 12.7543, 112.704, -51.5052, -7.16391, 67.1284, -147.106, 15.6021, -105.511, -81.4145
0.24, -1, 37.559, 31.3587, 12.3369, 12.7613, 112.67, -51.5943, -7.16391, 67.1284, -147.106, 15.6021, -105.511, -81.4145
0.244, -1, 37.4911, 31.3231, 12.3534, 12.7684, 112.636, -51.6835, -7.16391, 67.1284, -147.106, 15.6021, -105.511, -81.4145
0.248, -1, 37.4232, 31.2876, 12.37, 12.7754, 112.601, -51.7727, -7.16391, 67.1284, -147.106, 15.6021, -105.511, -81.4145
0.252, -1, 37.3553, 31.2521, 12.3865, 12.7824, 112.567, -51.8619, -7.16391, 67.1284, -147.106, 15.6021, -105.511, -81.4145
0.256, -1, 37.2873, 31.2165, 12.403, 12.7894, 112.533, -51.9511, -7.16391, 67.1284, -147.106, 15.6021, -105.511, -81.4145
0.26, -1, 37.2194, 31.181, 12.4195, 12.7964, 112.499, -52.0403, -7.16391, 67.1284, -147.106, 15.6021, -105.511, -81.4145
0.264, -1, 37.1514, 31.1455, 12.4361, 12.8035, 112.465, -52.1296, -7.16391, 67.1284, -147.106, 15.6021, -105.511, -81.4145
0.268, -1, 37.0835, 31.1099, 12.4526, 12.8105, 112.43, -52.2188, -7.16391, 67.1284, -147.106, 15.6021, -105.511, -81.4145
0.272, -1, 37.0155, 31.0743, 12.4691, 12.8175, 112.396, -52.3081, -7.16391, 67.1284, -147.106, 15.6021, -105.511, -81.4145
0.276, -1, 36.9475, 31.0388, 12.4857, 12.8245, 112.362, -52.3974, -7.16391, 67.1284, -147.106, 15.6021, -105.511, -81.4145
0.28, -1, 36.8795, 31.0032, 12.5022, 12.8315, 112.328, -52.4867, -7.16391, 67.1284, -147.106, 15.6021, -105.511, -81.4145
0.284, -1, 36.8115, 30.9676, 12.5188, 12.8386, 112.293, -52.576, -7.16391, 67.1284, -147.106, 15.6021, -105.511, -81.4145
0.288, -1, 36.7435, 30.932, 12.5353, 12.8456, 112.259, -52.6653, -7.16391, 67.1284, -147.106, 15.6021, -105.511, -81.4145
0.292, -1, 36.6754, 30.8964, 12.5519, 12.8526, 112.225, -52.7547, -7.16391, 67.1284, -147.106, 15.6021, -105.511, -81.4145
0.296, -1, 36.6074, 30.8608, 12.5685, 12.8597, 112.191, -52.844, -7.16391, 67.1284, -147.106, 15.6021, -105.511, -81.4145
0.3, -1, 36.5393, 30.8252, 12.585, 12.8667, 112.156, -52.9334, -7.16391, 67.1284, -147.106, 15.6021, -105.511, -81.4145
0.304, -1, 36.4712, 30.7896, 12.6016, 12.8737, 112.122, -53.0228, -7.16391, 67.1284, -147.106, 15.6021, -105.511, -81.4145
0.308, -1, 36.4031, 30.754, 12.6181, 12.8808, 112.088, -53.1122, -7.16391, 67.1284, -147.106, 15.6021, -105.511, -81.4145
0.312, -1, 36.335, 30.7184, 12.6347, 12.8878, 112.054, -53.2017, -7.16391, 67.1284, -147.106, 15.6021, -105.511, -81.4145
0.316, -1, 36.2669, 30.6827, 12.6513, 12.8948, 112.019, -53.2911, -7.16391, 67.1284, -147.106, 15.6021, -105.511, -81.4145
0.32, -1, 36.1988, 30.6471, 12.6679, 12.9019, 111.985, -53.3806, -7.16391, 67.1284, -147.106, 15.6021, -105.511, -81.4145
0.324, -1, 36.1307, 30.6115, 12.6844, 12.9089, 111.951, -53.4701, -7.16391, 67.1284, -147.106, 15.6021, -105.511, -81.4145
0.328, -1, 36.0625, 30.5758, 12.701, 12.9159, 111.916, -53.5596, -7.16391, 67.1284, -147.106, 15.6021, -105.511, -81.4145
0.332, -1, 35.9944, 30.5401, 12.7176, 12.923, 111.882, -53.6491, -7.16391, 67.1284, -147.106, 15.6021, -105.511, -81.4145
0.336, -1, 35.9262, 30.5045, 12.7342, 12.93, 111.848, -53.7386, -7.16391, 67.1284, -147.106, 15.6021, -105.511, -81.4145
0.34, -1, 35.858, 30.4688, 12.7508, 12.9371, 111.813, -53.8281, -7.16391, 67.1284, -147.106, 15.6021, -105.511, -81.4145
0.344, -1, 35.7898, 30.4331, 12.7674, 12.9441, 111.779, -53.9177, -7.16391, 67.1284, -147.106, 15.6021, -105.511, -81.4145
0.348, -1, 35.7216, 30.3975, 12.784, 12.9512, 111.745, -54.0073, -7.16391, 67.1284, -147.106, 15.6021, -105.511, -81.4145
0.352, -1, 35.6534, 30.3618, 12.8006, 12.9582, 111.71, -54.0968, -7.16391, 67.1284, -147.106, 15.6021, -105.511, -81.4145
0.356, -1, 35.5852, 30.3261, 12.8172, 12.9653, 111.676, -54.1864, -7.16391, 67.1284, -147.106, 15.6021, -105.511, -81.4145
0.36, -1, 35.5169, 30.2904, 12.8338, 12.9723, 111.642, -54.2761, -7.16391, 67.1284, -147.106, 15.6021, -105.511, -81.4145
0.364, -1, 35.4487, 30.2547, 12.8504, 12.9794, 111.607, -54.3657, -7.16391, 67.1284, -147.106, 15.6021, -105.511, -81.4145
0.368, -1, 35.3804, 30.2189, 12.867, 12.9864, 111.573, -54.4554, -7.16391, 67.1284, -147.106, 15.6021, -105.511, -81.4145
0.372, -1, 35.3121, 30.1832, 12.8836, 12.9935, 111.539, -54.545, -7.16391, 67.1284, -147.106, 15.6021, -105.511, -81.4145
0.376, -1, 35.2438, 30.1475, 12.9002, 13.0005, 111.504, -54.6347, -7.16391, 67.1284, -147.106, 15.6021, -105.511, -81.4145
0.38, -1, 35.1755, 30.1118, 12.9168, 13.0076, 111.47, -54.7244, -7.16391, 67.1284, -147.106, 15.6021, -105.511, -81.4145
0.384, -1, 35.1072, 30.076, 12.9335, 13.0146, 111.435, -54.8141, -7.16391, 67.1284, -147.106, 15.6021, -105.511, -81.4145
0.388, -1, 35.0389, 30.0403, 12.9501, 13.0217, 111.401, -54.9039, -7.16391, 67.1284, -147.106, 15.6021, -105.511, -81.4145
0.392, -1, 34.9705, 30.0045, 12.9667, 13.0288, 111.367, -54.9936, -7.16391, 67.1284, -147.106, 15.6021, -105.511, -81.4145
0.396, -1, 34.9022, 29.9688, 12.9833, 13.0358, 111.332, -55.0834, -7.16391, 67.1284, -147.106, 15.6021, -105.511, -81.4145
0.4, -1, 34.8338, 29.933, 13, 13.0429, 111.298, -55.1731, -7.16391, 67.1284, -147.106, 15.6021, -105.511, -81.4145
0.404, -1, 34.7654, 29.8972, 13.0166, 13.0499, 111.263, -55.2629, -7.16391, 67.1284, -147.106, 15.6021, -105.511, -81.4145
0.408, -1, 34.697, 29.8615, 13.0333, 13.057, 111.229, -55.3528, -7.16391, 67.1284, -147.106, 15.6021, -105.511, -81.4145
0.412, -1, 34.6286, 29.8257, 13.0499, 13.0641, 111.195, -55.4426, -7.16391, 67.1284, -147.106, 15.6021, -105.511, -81.4145
0.416, -1, 34.5602, 29.7899, 13.0665, 13.0711, 111.16, -55.5324, -7.16391, 67.1284, -147.106, 15.6021, -105.511, -81.4145
0.42, -1, 34.4918, 29.7541, 13.0832, 13.0782, 111.126, -55.6223, -7.16391, 67.1284, -147.106, 15.6021, -105.511, -81.4145
0.424, -1, 34.4233, 29.7183, 13.0998, 13.0853, 111.091, -55.7122, -7.16391, 67.1284, -147.106, 15.6021, -105.511, -81.4145
0.428, -1, 34.3549, 29.6825, 13.1165, 13.0924, 111.057, -55.8021, -7.16391, 67.1284, -147.106, 15.6021, -105.511, -81.4145
0.432, -1, 34.2864, 29.6467, 13.1332, 13.0994, 111.022, -55.892, -7.16391, 67.1284, -147.106, 15.6021, -105.511, -81.4145
0.436, -1, 34.218, 29.6108, 13.1498, 13.1065, 110.988, -55.9819, -7.16391, 67.1284, -147.106, 15.6021, -105.511, -81.4145
0.44, -1, 34.1495, 29.575, 13.1665, 13.1136, 110.953, -56.0718, -7.16391, 67.1284, -147.106, 15.6021, -105.511, -81.4145
0.444, -1, 34.081, 29.5392, 13.1831, 13.1207, 110.919, -56.1618, -7.16391, 67.1284, -147.106, 15.6021, -105.511, -81.4145
0.448, -1, 34.0125, 29.5033, 13.1998, 13.1277, 110.884, -56.2518, -7.16391, 67.1284, -147.106, 15.6021, -105.511, -81.4145
0.452, -1, 33.9439, 29.4675, 13.2165, 13.1348, 110.85, -56.3418, -7.16391, 67.1284, -147.106, 15.6021, -105.511, -81.4145
0.456, -1, 33.8754, 29.4316, 13.2332, 13.1419, 110.815, -56.4318, -7.16391, 67.1284, -147.106, 15.6021, -105.511, -81.4145
0.46, -1, 33.8068, 29.3958, 13.2498, 13.149, 110.781, -56.5218, -7.16391, 67.1284, -147.106, 15.6021, -105.511, -81.4145
0.464, -1, 33.7383, 29.3599, 13.2665, 13.1561, 110.746, -56.6118, -7.16391, 67.1284, -147.106, 15.6021, -105.511, -81.4145
0.468, -1, 33.6697, 29.324, 13.2832, 13.1631, 110.712, -56.7019, -7.16391, 67.1284, -147.106, 15.6021, -105.511, -81.4145
0.472, -1, 33.6011, 29.2881, 13.2999, 13.1702, 110.677, -56.7919, -7.16391, 67.1284, -147.106, 15.6021, -105.511, -81.4145
0.476, -1, 33.5325, 29.2523, 13.3166, 13.1773, 110.643, -56.882, -7.16391, 67.1284, -147.106, 15.6021, -105.511, -81.4145
0.48, -1, 33.4639, 29.2164, 13.3333, 13.1844, 110.608, -56.9721, -7.16391, 67.1284, -147.106, 15.6021, -105.511, -81.4145
0.484, -1, 33.3953, 29.1805, 13.35, 13.1915, 110.574, -57.0623, -7.16391, 67.1284, -147.106, 15.6021, -105.511, -81.4145
0.488, -1, 33.3266, 29.1446, 13.3667, 13.1986, 110.539, -57.1524, -7.16391, 67.1284, -147.106, 15.6021, -105.511, -81.4145
0.492, -1, 33.258, 29.1086, 13.3834, 13.2057, 110.504, -57.2425, -7.16391, 67.1284, -147.106, 15.6021, -105.511, -81.4145
0.496, -1, 33.1893, 29.0727, 13.4001, 13.2128, 110.47, -57.3327, -7.16391, 67.1284, -147.106, 15.6021, -105.511, -81.4145
0.5, -1, 33.1207, 29.0368, 13.4168, 13.2199, 110.435, -57.4229, -7.16391, 67.1284, -147.106, 15.6021, -105.511, -81.4145
0.504, -1, 33.052, 29.0009, 13.4335, 13.227, 110.401, -57.5131, -7.16391, 67.1284, -147.106, 15.6021, -105.511, -81.4145
0.508, -1, 32.9833, 28.9649, 13.4502, 13.234, 110.366, -57.6033, -7.16391, 67.1284, -147.106, 15.6021, -105.511, -81.4145
0.512, -1, 32.9146, 28.929, 13.4669, 13.2411, 110.332, -57.6936, -7.16391, 67.1284, -147.106, 15.6021, -105.511, -81.4145
0.516, -1, 32.8458, 28.893, 13.4837, 13.2482, 110.297, -57.7838, -7.16391, 67.1284, -147.106, 15.6021, -105.511, -81.4145
0.52, -1, 32.7771, 28.8571, 13.5004, 13.2553, 110.262, -57.8741, -7.16391, 67.1284, -147.106, 15.6021, -105.511, -81.4145
0.524, -1, 32.7083, 28.8211, 13.5171, 13.2625, 110.228, -57.9644, -7.16391, 67.1284, -147.106, 15.6021, -105.511, -81.4145
0.528, -1, 32.6396, 28.7851, 13.5338, 13.2696, 110.193, -58.0547, -7.16391, 67.1284, -147.106, 15.6021, -105.511, -81.4145
0.532, -1, 32.5708, 28.7492, 13.5506, 13.2767, 110.159, -58.145, -7.16391, 67.1284, -147.106, 15.6021, -105.511, -81.4145
0.536, -1, 32.502, 28.7132, 13.5673, 13.2838, 110.124, -58.2353, -7.16391, 67.1284, -147.106, 15.6021, -105.511, -81.4145
0.54, -1, 32.4332, 28.6772, 13.5841, 13.2909, 110.089, -58.3257, -7.16391, 67.1284, -147.106, 15.6021, -105.511, -81.4145
0.544, -1, 32.3644, 28.6412, 13.6008, 13.298, 110.055, -58.416, -7.16391, 67.1284, -147.106, 15.6021, -105.511, -81.4145
0.548, -1, 32.2956, 28.6052, 13.6175, 13.3051, 110.02, -58.5064, -7.16391, 67.1284, -147.106, 15.6021, -105.511, -81.4145
0.552, -1, 32.2267, 28.5692, 13.6343, 13.3122, 109.985, -58.5968, -7.16391, 67.1284, -147.106, 15.6021, -105.511, -81.4145
0.556, -1, 32.1579, 28.5331, 13.651, 13.3193, 109.951, -58.6872, -7.16391, 67.1284, -147.106, 15.6021, -105.511, -81.4145
0.56, -1, 32.089, 28.4971, 13.6678, 13.3264, 109.916, -58.7777, -7.16391, 67.1284, -147.106, 15.6021, -105.511, -81.4145
0.564, -1, 32.0201, 28.4611, 13.6846, 13.3335, 109.881, -58.8681, -7.16391, 67.1284, -147.106, 15.6021, -105.511, -81.4145
0.568, -1, 31.9512, 28.425, 13.7013, 13.3407, 109.847, -58.9586, -7.16391, 67.1284, -147.106, 15.6021, -105.511, -81.4145
0.572, -1, 31.8823, 28.389, 13.7181, 13.3478, 109.812, -59.0491, -7.16391, 67.1284, -147.106, 15.6021, -105.511, -81.4145
0.576, -1, 31.8134, 28.353, 13.7349, 13.3549, 109.777, -59.1396, -7.16391, 67.1284, -147.106, 15.6021, -105.511, -81.4145
0.58, -1, 31.7445, 28.3169, 13.7516, 13.362, 109.743, -59.2301, -7.16391, 67.1284, -147.106, 15.6021, -105.511, -81.4145
0.584, -1, 31.6756, 28.2808, 13.7684, 13.3691, 109.708, -59.3206, -7.16391, 67.1284, -147.106, 15.6021, -105.511, -81.4145
0.588, -1, 31.6066, 28.2448, 13.7852, 13.3763, 109.673, -59.4112, -7.16391, 67.1284, -147.106, 15.6021, -105.511, -81.4145
0.592, -1, 31.5376, 28.2087, 13.802, 13.3834, 109.638, -59.5018, -7.16391, 67.1284, -147.106, 15.6021, -105.511, -81.4145
0.596, -1, 31.4686, 28.1726, 13.8187, 13.3905, 109.604, -59.5924, -7.16391, 67.1284, -147.106, 15.6021, -105.511, -81.4145
0.6, -1, 31.3997, 28.1365, 13.8355, 13.3976, 109.569, -59.683, -7.16391, 67.1284, -147.106, 15.6021, -105.511, -81.4145
0.604, -1, 31.3306, 28.1004, 13.8523, 13.4048, 109.534, -59.7736, -7.16391, 67.1284, -147.106, 15.6021, -105.511, -81.4145
0.608, -1, 31.2616, 28.0643, 13.8691, 13.4119, 109.499, -59.8642, -7.16391, 67.1284, -147.106, 15.6021, -105.511, -81.4145
0.612, -1, 31.1926, 28.0282, 13.8859, 13.419, 109.465, -59.9549, -7.16391, 67.1284, -147.106, 15.6021, -105.511, -81.4145
0.616, -1, 31.1235, 27.9921, 13.9027, 13.4262, 109.43, -60.0455, -7.16391, 67.1284, -147.106, 15.6021, -105.511, -81.4145
0.62, -1, 31.0545, 27.9559, 13.9195, 13.4333, 109.395, -60.1362, -7.16391, 67.1284, -147.106, 15.6021, -105.511, -81.4145
0.624, -1, 30.9854, 27.9198, 13.9363, 13.4404, 109.36, -60.2269, -7.16391, 67.1284, -147.106, 15.6021, -105.511, -81.4145
0.628, -1, 30.9163, 27.8837, 13.9531, 13.4476, 109.326, -60.3177, -7.16391, 67.1284, -147.106, 15.6021, -105.511, -81.4145
0.632, -1, 30.8472, 27.8475, 13.9699, 13.4547, 109.291, -60.4084, -7.16391, 67.1284, -147.106, 15.6021, -105.511, -81.4145
0.636, -1, 30.7781, 27.8113, 13.9867, 13.4619, 109.256, -60.4992, -7.16391, 67.1284, -147.106, 15.6021, -105.511, -81.4145
0.64, -1, 30.709, 27.7752, 14.0036, 13.469, 109.221, -60.5899, -7.16391, 67.1284, -147.106, 15.6021, -105.511, -81.4145
0.644, -1, 30.6399, 27.739, 14.0204, 13.4761, 109.186, -60.6807, -7.16391, 67.1284, -147.106, 15.6021, -105.511, -81.4145
0.648, -1, 30.5707, 27.7028, 14.0372, 13.4833, 109.152, -60.7715, -7.16391, 67.1284, -147.106, 15.6021, -105.511, -81.4145
0.652, -1, 30.5016, 27.6667, 14.054, 13.4904, 109.117, -60.8624, -7.16391, 67.1284, -147.106, 15.6021, -105.511, -81.4145
0.656, -1, 30.4324, 27.6305, 14.0709, 13.4976, 109.082, -60.9532, -7.16391, 67.1284, -147.106, 15.6021, -105.511, -81.4145
0.66, -1, 30.3632, 27.5943, 14.0877, 13.5047, 109.047, -61.0441, -7.16391, 67.1284, -147.106, 15.6021, -105.511, -81.4145
0.664, -1, 30.294, 27.5581, 14.1045, 13.5119, 109.012, -61.1349, -7.16391, 67.1284, -147.106, 15.6021, -105.511, -81.4145
0.668, -1, 30.2248, 27.5219, 14.1214, 13.519, 108.977, -61.2258, -7.16391, 67.1284, -147.106, 15.6021, -105.511, -81.4145
0.672, -1, 30.1555, 27.4857, 14.1382, 13.5262, 108.943, -61.3168, -7.16391, 67.1284, -147.106, 15.6021, -105.511, -81.4145
0.676, -1, 30.0863, 27.4494, 14.1551, 13.5333, 108.908, -61.4077, -7.16391, 67.1284, -147.106, 15.6021, -105.511, -81.4145
0.68, -1, 30.017, 27.4132, 14.1719, 13.5405, 108.873, -61.4986, -7.16391, 67.1284, -147.106, 15.6021, -105.511, -81.4145
0.684, -1, 29.9478, 27.377, 14.1888, 13.5476, 108.838, -61.5896, -7.16391, 67.1284, -147.106, 15.6021, -105.511, -81.4145
0.688, -1, 29.8785, 27.3407, 14.2056, 13.5548, 108.803, -61.6806, -7.16391, 67.1284, -147.106, 15.6021, -105.511, -81.4145
0.692, -1, 29.8092, 27.3045, 14.2225, 13.5619, 108.768, -61.7716, -7.16391, 67.1284, -147.106, 15.6021, -105.511, -81.4145
0.696, -1, 29.7399, 27.2682, 14.2394, 13.5691, 108.733, -61.8626, -7.16391, 67.1284, -147.106, 15.6021, -105.511, -81.4145
0.7, -1, 29.6706, 27.232, 14.2562, 13.5763, 108.698, -61.9536, -7.16391, 67.1284, -147.106, 15.6021, -105.511, -81.4145
0.704, -1, 29.6012, 27.1957, 14.2731, 13.5834, 108.664, -62.0447, -7.16391, 67.1284, -147.106, 15.6021, -105.511, -81.4145
0.708, -1, 29.5319, 27.1594, 14.29, 13.5906, 108.629, -62.1357, -7.16391, 67.1284, -147.106, 15.6021, -105.511, -81.4145
0.712, -1, 29.4625, 27.1231, 14.3068, 13.5978, 108.594, -62.2268, -7.16391, 67.1284, -147.106, 15.6021, -105.511, -81.4145
0.716, -1, 29.3932, 27.0868, 14.3237, 13.6049, 108.559, -62.3179, -7.16391, 67.1284, -147.106, 15.6021, -105.511, -81.4145
0.72, -1, 29.3238, 27.0505, 14.3406, 13.6121, 108.524, -62.4091, -7.16391, 67.1284, -147.106, 15.6021, -105.511, -81.4145
0.724, -1, 29.2544, 27.0142, 14.3575, 13.6193, 108.489, -62.5002, -7.16391, 67.1284, -147.106, 15.6021, -105.511, -81.4145
0.728, -1, 29.185, 26.9779, 14.3744, 13.6264, 108.454, -62.5914, -7.16391, 67.1284, -147.106, 15.6021, -105.511, -81.4145
0.732, -1, 29.1155, 26.9416, 14.3913, 13.6336, 108.419, -62.6825, -7.16391, 67.1284, -147.106, 15.6021, -105.511, -81.4145
0.736, -1, 29.0461, 26.9053, 14.4082, 13.6408, 108.384, -62.7737, -7.16391, 67.1284, -147.106, 15.6021, -105.511, -81.4145
0.74, -1, 28.9766, 26.8689, 14.4251, 13.648, 108.349, -62.8649, -7.16391, 67.1284, -147.106, 15.6021, -105.511, -81.4145
0.744, -1, 28.9072, 26.8326, 14.442, 13.6551, 108.314, -62.9561, -7.16391, 67.1284, -147.106, 15.6021, -105.511, -81.4145
0.748, -1, 28.8377, 26.7962, 14.4589, 13.6623, 108.279, -63.0474, -7.16391, 67.1284, -147.106, 15.6021, -105.511, -81.4145
0.752, -1, 28.7682, 26.7599, 14.4758, 13.6695, 108.244, -63.1386, -7.16391, 67.1284, -147.106, 15.6021, -105.511, -81.4145
0.756, -1, 28.6987, 26.7235, 14.4927, 13.6767, 108.209, -63.2299, -7.16391, 67.1284, -147.106, 15.6021, -105.511, -81.4145
0.76, -1, 28.6292, 26.6872, 14.5096, 13.6839, 108.174, -63.3212, -7.16391, 67.1284, -147.106, 15.6021, -105.511, -81.4145
0.764, -1, 28.5596, 26.6508, 14.5265, 13.691, 108.139, -63.4125, -7.16391, 67.1284, -147.106, 15.6021, -105.511, -81.4145
0.768, -1, 28.4901, 26.6144, 14.5434, 13.6982, 108.104, -63.5039, -7.16391, 67.1284, -147.106, 15.6021, -105.511, -81.4145
0.772, -1, 28.4205, 26.578, 14.5604, 13.7054, 108.069, -63.5952, -7.16391, 67.1284, -147.106, 15.6021, -105.511, -81.4145
0.776, -1, 28.351, 26.5416, 14.5773, 13.7126, 108.034, -63.6866, -7.16391, 67.1284, -147.106, 15.6021, -105.511, -81.4145
0.78, -1, 28.2814, 26.5052, 14.5942, 13.7198, 107.999, -63.778, -7.16391, 67.1284, -147.106, 15.6021, -105.511, -81.4145
0.784, -1, 28.2118, 26.4688, 14.6112, 13.727, 107.964, -63.8694, -7.16391, 67.1284, -147.106, 15.6021, -105.511, -81.4145
0.788, -1, 28.1422, 26.4324, 14.6281, 13.7342, 107.929, -63.9608, -7.16391, 67.1284, -147.106, 15.6021, -105.511, -81.4145
0.792, -1, 28.0725, 26.396, 14.645, 13.7414, 107.894, -64.0522, -7.16391, 67.1284, -147.106, 15.6021, -105.511, -81.4145
0.796, -1, 28.0029, 26.3595, 14.662, 13.7485, 107.859, -64.1437, -7.16391, 67.1284, -147.106, 15.6021, -105.511, -81.4145
0.8, -1, 27.9333, 26.3231, 14.6789, 13.7557, 107.824, -64.2351, -7.16391, 67.1284, -147.106, 15.6021, -105.511, -81.4145
0.804, -1, 27.8636, 26.2867, 14.6959, 13.7629, 107.789, -64.3266, -7.16391, 67.1284, -147.106, 15.6021, -105.511, -81.4145
0.808, -1, 27.7939, 26.2502, 14.7128, 13.7701, 107.754, -64.4181, -7.16391, 67.1284, -147.106, 15.6021, -105.511, -81.4145
0.812, -1, 27.7242, 26.2137, 14.7298, 13.7773, 107.719, -64.5096, -7.16391, 67.1284, -147.106, 15.6021, -105.511, -81.4145
0.816, -1, 27.6545, 26.1773, 14.7467, 13.7845, 107.683, -64.6012, -7.16391, 67.1284, -147.106, 15.6021, -105.511, -81.4145
0.82, -1, 27.5848, 26.1408, 14.7637, 13.7917, 107.648, -64.6927, -7.16391, 67.1284, -147.106, 15.6021, -105.511, -81.4145
0.824, -1, 27.5151, 26.1043, 14.7807, 13.7989, 107.613, -64.7843, -7.16391, 67.1284, -147.106, 15.6021, -105.511, -81.4145
0.828, -1, 27.4453, 26.0678, 14.7976, 13.8062, 107.578, -64.8759, -7.16391, 67.1284, -147.106, 15.6021, -105.511, -81.4145
0.832, -1, 27.3755, 26.0313, 14.8146, 13.8134, 107.543, -64.9675, -7.16391, 67.1284, -147.106, 15.6021, -105.511, -81.4145
0.836, -1, 27.3058, 25.9948, 14.8316, 13.8206, 107.508, -65.0592, -7.16391, 67.1284, -147.106, 15.6021, -105.511, -81.4145
0.84, -1, 27.236, 25.9583, 14.8486, 13.8278, 107.473, -65.1508, -7.16391, 67.1284, -147.106, 15.6021, -105.511, -81.4145
0.844, -1, 27.1662, 25.9218, 14.8656, 13.835, 107.438, -65.2425, -7.16391, 67.1284, -147.106, 15.6021, -105.511, -81.4145
0.848, -1, 27.0964, 25.8853, 14.8825, 13.8422, 107.402, -65.3341, -7.16391, 67.1284, -147.106, 15.6021, -105.511, -81.4145
0.852, -1, 27.0265, 25.8488, 14.8995, 13.8494, 107.367, -65.4258, -7.16391, 67.1284, -147.106, 15.6021, -105.511, -81.4145
0.856, -1, 26.9567, 25.8122, 14.9165, 13.8566, 107.332, -65.5176, -7.16391, 67.1284, -147.106, 15.6021, -105.511, -81.4145
0.86, -1, 26.8868, 25.7757, 14.9335, 13.8638, 107.297, -65.6093, -7.16391, 67.1284, -147.106, 15.6021, -105.511, -81.4145
0.864, -1, 26.817, 25.7391, 14.9505, 13.8711, 107.262, -65.701, -7.16391, 67.1284, -147.106, 15.6021, -105.511, -81.4145
0.868, -1, 26.7471, 25.7026, 14.9675, 13.8783, 107.227, -65.7928, -7.16391, 67.1284, -147.106, 15.6021, -105.511, -81.4145
0.872, -1, 26.6772, 25.666, 14.9845, 13.8855, 107.191, -65.8846, -7.16391, 67.1284, -147.106, 15.6021, -105.511, -81.4145
0.876, -1, 26.6073, 25.6294, 15.0015, 13.8927, 107.156, -65.9764, -7.16391, 67.1284, -147.106, 15.6021, -105.511, -81.4145
0.88, -1, 26.5374, 25.5929, 15.0186, 13.8999, 107.121, -66.0683, -7.16391, 67.1284, -147.106, 15.6021, -105.511, -81.4145
0.884, -1, 26.4674, 25.5563, 15.0356, 13.9072, 107.086, -66.1601, -7.16391, 67.1284, -147.106, 15.6021, -105.511, -81.4145
0.888, -1, 26.3975, 25.5197, 15.0526, 13.9144, 107.051, -66.2519, -7.16391, 67.1284, -147.106, 15.6021, -105.511, -81.4145
0.892, -1, 26.3275, 25.4831, 15.0696, 13.9216, 107.015, -66.3438, -7.16391, 67.1284, -147.106, 15.6021, -105.511, -81.4145
0.896, -1, 26.2575, 25.4465, 15.0866, 13.9289, 106.98, -66.4357, -7.16391, 67.1284, -147.106, 15.6021, -105.511, -81.4145
0.9, -1, 26.1875, 25.4099, 15.1037, 13.9361, 106.945, -66.5276, -7.16391, 67.1284, -147.106, 15.6021, -105.511, -81.4145
0.904, -1, 26.1175, 25.3732, 15.1207, 13.9433, 106.91, -66.6196, -7.16391, 67.1284, -147.106, 15.6021, -105.511, -81.4145
0.908, -1, 26.0475, 25.3366, 15.1377, 13.9506, 106.874, -66.7115, -7.16391, 67.1284, -147.106, 15.6021, -105.511, -81.4145
0.912, -1, 25.9775, 25.3, 15.1548, 13.9578, 106.839, -66.8035, -7.16391, 67.1284, -147.106, 15.6021, -105.511, -81.4145
0.916, -1, 25.9074, 25.2633, 15.1718, 13.965, 106.804, -66.8955, -7.16391, 67.1284, -147.106, 15.6021, -105.511, -81.4145
0.92, -1, 25.8374, 25.2267, 15.1889, 13.9723, 106.769, -66.9875, -7.16391, 67.1284, -147.106, 15.6021, -105.511, -81.4145
0.924, -1, 25.7673, 25.19, 15.2059, 13.9795, 106.733, -67.0795, -7.16391, 67.1284, -147.106, 15.6021, -105.511, -81.4145
0.928, -1, 25.6972, 25.1533, 15.223, 13.9867, 106.698, -67.1716, -7.16391, 67.1284, -147.106, 15.6021, -105.511, -81.4145
0.932, -1, 25.6271, 25.1167, 15.24, 13.994, 106.663, -67.2636, -7.16391, 67.1284, -147.106, 15.6021, -105.511, -81.4145
0.936, -1, 25.557, 25.08, 15.2571, 14.0012, 106.627, -67.3557, -7.16391, 67.1284, -147.106, 15.6021, -105.511, -81.4145
0.94, -1, 25.4869, 25.0433, 15.2741, 14.0085, 106.592, -67.4478, -7.16391, 67.1284, -147.106, 15.6021, -105.511, -81.4145
0.944, -1, 25.4167, 25.0066, 15.2912, 14.0157, 106.557, -67.5399, -7.16391, 67.1284, -147.106, 15.6021, -105.511, -81.4145
0.948, -1, 25.3465, 24.9699, 15.3083, 14.023, 106.522, -67.632, -7.16391, 67.1284, -147.106, 15.6021, -105.511, -81.4145
0.952, -1, 25.2764, 24.9332, 15.3254, 14.0302, 106.486, -67.7242, -7.16391, 67.1284, -147.106, 15.6021, -105.511, -81.4145
0.956, -1, 25.2062, 24.8965, 15.3424, 14.0375, 106.451, -67.8164, -7.16391, 67.1284, -147.106, 15.6021, -105.511, -81.4145
0.96, -1, 25.136, 24.8598, 15.3595, 14.0447, 106.415, -67.9086, -7.16391, 67.1284, -147.106, 15.6021, -105.511, -81.4145
0.964, -1, 25.0658, 24.823, 15.3766, 14.052, 106.38, -68.0008, -7.16391, 67.1284, -147.106, 15.6021, -105.511, -81.4145
0.968, -1, 24.9955, 24.7863, 15.3937, 14.0592, 106.345, -68.093, -7.16391, 67.1284, -147.106, 15.6021, -105.511, -81.4145
0.972, -1, 24.9253, 24.7495, 15.4108, 14.0665, 106.309, -68.1852, -7.16391, 67.1284, -147.106, 15.6021, -105.511, -81.4145
0.976, -1, 24.855, 24.7128, 15.4279, 14.0737, 106.274, -68.2775, -7.16391, 67.1284, -147.106, 15.6021, -105.511, -81.4145
0.98, -1, 24.7848, 24.676, 15.445, 14.081, 106.239, -68.3698, -7.16391, 67.1284, -147.106, 15.6021, -105.511, -81.4145
0.984, -1, 24.7145, 24.6392, 15.4621, 14.0883, 106.203, -68.4621, -7.16391, 67.1284, -147.106, 15.6021, -105.511, -81.4145
0.988, -1, 24.6442, 24.6025, 15.4792, 14.0955, 106.168, -68.5544, -7.16391, 67.1284, -147.106, 15.6021, -105.511, -81.4145
0.992, -1, 24.5739, 24.5657, 15.4963, 14.1028, 106.132, -68.6468, -7.16391, 67.1284, -147.106, 15.6021, -105.511, -81.4145
0.996, -1, 24.5035, 24.5289, 15.5134, 14.1101, 106.097, -68.7391, -7.16391, 67.1284, -147.106, 15.6021, -105.511, -81.4145
1, -1, 24.4332, 24.4921, 15.5305, 14.1173, 106.062, -68.8315, -7.16391, 67.1284, -147.106, 15.6021, -105.511, -81.4145
1.004, -1, 24.3628, 24.4553, 15.5476, 14.1246, 106.026, -68.9239, -7.16391, 67.1284, -147.106, 15.6021, -105.511, -81.4145
1.008, -1, 24.2924, 24.4185, 15.5648, 14.1319, 105.991, -69.0163, -7.16391, 67.1284, -147.106, 15.6021, -105.511, -81.4145
1.012, -1, 24.2221, 24.3816, 15.5819, 14.1391, 105.955, -69.1087, -7.16391, 67.1284, -147.106, 15.6021, -105.511, -81.4145
1.016, -1, 24.1517, 24.3448, 15.599, 14.1464, 105.92, -69.2012, -7.16391, 67.1284, -147.106, 15.6021, -105.511, -81.4145
1.02, -1, 24.0812, 24.308, 15.6161, 14.1537, 105.884, -69.2937, -7.16391, 67.1284, -147.106, 15.6021, -105.511, -81.4145
1.024, -1, 24.0108, 24.2711, 15.6333, 14.161, 105.849, -69.3862, -7.16391, 67.1284, -147.106, 15.6021, -105.511, -81.4145
1.027, -1, 23.9404, 24.2343, 15.6504, 14.1682, 105.814, -69.4787, -7.16391, 67.1284, -147.106, 15.6021, -105.511, -81.4145
1.032, -1, 23.8699, 24.1974, 15.6676, 14.1755, 105.778, -69.5712, -7.16391, 67.1284, -147.106, 15.6021, -105.511, -81.4145
1.036, -1, 23.7994, 24.1605, 15.6847, 14.1828, 105.743, -69.6637, -7.16391, 67.1284, -147.106, 15.6021, -105.511, -81.4145
1.04, -1, 23.729, 24.1237, 15.7019, 14.1901, 105.707, -69.7563, -7.16391, 67.1284, -147.106, 15.6021, -105.511, -81.4145
1.044, -1, 23.6584, 24.0868, 15.719, 14.1974, 105.672, -69.8489, -7.16391, 67.1284, -147.106, 15.6021, -105.511, -81.4145
1.048, -1, 23.5879, 24.0499, 15.7362, 14.2046, 105.636, -69.9415, -7.16391, 67.1284, -147.106, 15.6021, -105.511, -81.4145
1.052, -1, 23.5174, 24.013, 15.7533, 14.2119, 105.601, -70.0341, -7.16391, 67.1284, -147.106, 15.6021, -105.511, -81.4145
1.055, -1, 23.4469, 23.9761, 15.7705, 14.2192, 105.565, -70.1268, -7.16391, 67.1284, -147.106, 15.6021, -105.511, -81.4145
1.06, -1, 23.3763, 23.9392, 15.7877, 14.2265, 105.53, -70.2194, -7.16391, 67.1284, -147.106, 15.6021, -105.511, -81.4145
1.064, -1, 23.3057, 23.9023, 15.8048, 14.2338, 105.494, -70.3121, -7.16391, 67.1284, -147.106, 15.6021, -105.511, -81.4145
1.068, -1, 23.2351, 23.8653, 15.822, 14.2411, 105.459, -70.4048, -7.16391, 67.1284, -147.106, 15.6021, -105.511, -81.4145
1.072, -1, 23.1645, 23.8284, 15.8392, 14.2484, 105.423, -70.4975, -7.16391, 67.1284, -147.106, 15.6021, -105.511, -81.4145
1.076, -1, 23.0939, 23.7915, 15.8564, 14.2557, 105.387, -70.5903, -7.16391, 67.1284, -147.106, 15.6021, -105.511, -81.4145
1.08, -1, 23.0233, 23.7545, 15.8736, 14.263, 105.352, -70.683, -7.16391, 67.1284, -147.106, 15.6021, -105.511, -81.4145
1.084, -1, 22.9526, 23.7175, 15.8907, 14.2703, 105.316, -70.7758, -7.16391, 67.1284, -147.106, 15.6021, -105.511, -81.4145
1.088, -1, 22.882, 23.6806, 15.9079, 14.2776, 105.281, -70.8686, -7.16391, 67.1284, -147.106, 15.6021, -105.511, -81.4145
1.091, -1, 22.8113, 23.6436, 15.9251, 14.2849, 105.245, -70.9614, -7.16391, 67.1284, -147.106, 15.6021, -105.511, -81.4145
1.096, -1, 22.7406, 23.6066, 15.9423, 14.2922, 105.21, -71.0542, -7.16391, 67.1284, -147.106, 15.6021, -105.511, -81.4145
1.1, -1, 22.6699, 23.5696, 15.9595, 14.2995, 105.174, -71.1471, -7.16391, 67.1284, -147.106, 15.6021, -105.511, -81.4145
1.104, -1, 22.5992, 23.5326, 15.9767, 14.3068, 105.138, -71.24, -7.16391, 67.1284, -147.106, 15.6021, -105.511, -81.4145
1.108, -1, 22.5284, 23.4956, 15.9939, 14.3141, 105.103, -71.3328, -7.16391, 67.1284, -147.106, 15.6021, -105.511, -81.4145
1.112, -1, 22.4577, 23.4586, 16.0112, 14.3214, 105.067, -71.4258, -7.16391, 67.1284, -147.106, 15.6021, -105.511, -81.4145
1.116, -1, 22.3869, 23.4216, 16.0284, 14.3287, 105.032, -71.5187, -7.16391, 67.1284, -147.106, 15.6021, -105.511, -81.4145
1.119, -1, 22.3162, 23.3846, 16.0456, 14.336, 104.996, -71.6116, -7.16391, 67.1284, -147.106, 15.6021, -105.511, -81.4145
1.124, -1, 22.2454, 23.3476, 16.0628, 14.3433, 104.96, -71.7046, -7.16391, 67.1284, -147.106, 15.6021, -105.511, -81.4145
1.128, -1, 22.1746, 23.3105, 16.0801, 14.3506, 104.925, -71.7976, -7.16391, 67.1284, -147.106, 15.6021, -105.511, -81.4145
1.132, -1, 22.1037, 23.2735, 16.0973, 14.358, 104.889, -71.8906, -7.16391, 67.1284, -147.106, 15.6021, -105.511, -81.4145
1.136, -1, 22.0329, 23.2364, 16.1145, 14.3653, 104.853, -71.9836, -7.16391, 67.1284, -147.106, 15.6021, -105.511, -81.4145
1.14, -1, 21.9621, 23.1993, 16.1318, 14.3726, 104.818, -72.0767, -7.16391, 67.1284, -147.106, 15.6021, -105.511, -81.4145
1.144, -1, 21.8912, 23.1623, 16.149, 14.3799, 104.782, -72.1697, -7.16391, 67.1284, -147.106, 15.6021, -105.511, -81.4145
1.147, -1, 21.8203, 23.1252, 16.1662, 14.3872, 104.746, -72.2628, -7.16391, 67.1284, -147.106, 15.6021, -105.511, -81.4145
1.152, -1, 21.7494, 23.0881, 16.1835, 14.3946, 104.711, -72.3559, -7.16391, 67.1284, -147.106, 15.6021, -105.511, -81.4145
1.156, -1, 21.6785, 23.051, 16.2007, 14.4019, 104.675, -72.449, -7.16391, 67.1284, -147.106, 15.6021, -105.511, -81.4145
1.16, -1, 21.6076, 23.0139, 16.218, 14.4092, 104.639, -72.5422, -7.16391, 67.1284, -147.106, 15.6021, -105.511, -81.4145
1.164, -1, 21.5366, 22.9768, 16.2353, 14.4165, 104.603, -72.6353, -7.16391, 67.1284, -147.106, 15.6021, -105.511, -81.4145
1.168, -1, 21.4657, 22.9397, 16.2525, 14.4239, 104.568, -72.7285, -7.16391, 67.1284, -147.106, 15.6021, -105.511, -81.4145
1.172, -1, 21.3947, 22.9025, 16.2698, 14.4312, 104.532, -72.8217, -7.16391, 67.1284, -147.106, 15.6021, -105.511, -81.4145
1.175, -1, 21.3237, 22.8654, 16.2871, 14.4385, 104.496, -72.9149, -7.16391, 67.1284, -147.106, 15.6021, -105.511, -81.4145
1.18, -1, 21.2527, 22.8283, 16.3043, 14.4459, 104.46, -73.0081, -7.16391, 67.1284, -147.106, 15.6021, -105.511, -81.4145
1.184, -1, 21.1817, 22.7911, 16.3216, 14.4532, 104.425, -73.1014, -7.16391, 67.1284, -147.106, 15.6021, -105.511, -81.4145
1.188, -1, 21.1107, 22.754, 16.3389, 14.4606, 104.389, -73.1947, -7.16391, 67.1284, -147.106, 15.6021, -105.511, -81.4145
1.192, -1, 21.0397, 22.7168, 16.3562, 14.4679, 104.353, -73.288, -7.16391, 67.1284, -147.106, 15.6021, -105.511, -81.4145
1.196, -1, 20.9686, 22.6796, 16.3735, 14.4752, 104.317, -73.3813, -7.16391, 67.1284, -147.106, 15.6021, -105.511, -81.4145
1.2, -1, 20.8975, 22.6424, 16.3908, 14.4826, 104.282, -73.4746, -7.16391, 67.1284, -147.106, 15.6021, -105.511, -81.4145
1.204, -1, 20.8264, 22.6053, 16.4081, 14.4899, 104.246, -73.568, -7.16391, 67.1284, -147.106, 15.6021, -105.511, -81.4145
1.208, -1, 20.7553, 22.5681, 16.4254, 14.4973, 104.21, -73.6613, -7.16391, 67.1284, -147.106, 15.6021, -105.511, -81.4145
1.212, -1, 20.6842, 22.5309, 16.4427, 14.5046, 104.174, -73.7547, -7.16391, 67.1284, -147.106, 15.6021, -105.511, -81.4145
1.216, -1, 20.6131, 22.4936, 16.46, 14.512, 104.138, -73.8481, -7.16391, 67.1284, -147.106, 15.6021, -105.511, -81.4145
1.22, -1, 20.5419, 22.4564, 16.4773, 14.5193, 104.103, -73.9416, -7.16391, 67.1284, -147.106, 15.6021, -105.511, -81.4145
1.224, -1, 20.4708, 22.4192, 16.4946, 14.5267, 104.067, -74.035, -7.16391, 67.1284, -147.106, 15.6021, -105.511, -81.4145
1.228, -1, 20.3996, 22.382, 16.5119, 14.534, 104.031, -74.1285, -7.16391, 67.1284, -147.106, 15.6021, -105.511, -81.4145
1.232, -1, 20.3284, 22.3447, 16.5292, 14.5414, 103.995, -74.222, -7.16391, 67.1284, -147.106, 15.6021, -105.511, -81.4145
1.236, -1, 20.2572, 22.3075, 16.5466, 14.5487, 103.959, -74.3155, -7.16391, 67.1284, -147.106, 15.6021, -105.511, -81.4145
1.24, -1, 20.186, 22.2702, 16.5639, 14.5561, 103.923, -74.409, -7.16391, 67.1284, -147.106, 15.6021, -105.511, -81.4145
1.244, -1, 20.1148, 22.233, 16.5812, 14.5634, 103.888, -74.5026, -7.16391, 67.1284, -147.106, 15.6021, -105.511, -81.4145
1.248, -1, 20.0435, 22.1957, 16.5986, 14.5708, 103.852, -74.5961, -7.16391, 67.1284, -147.106, 15.6021, -105.511, -81.4145
1.252, -1, 19.9722, 22.1584, 16.6159, 14.5782, 103.816, -74.6897, -7.16391, 67.1284, -147.106, 15.6021, -105.511, -81.4145
1.256, -1, 19.901, 22.1211, 16.6332, 14.5855, 103.78, -74.7833, -7.16391, 67.1284, -147.106, 15.6021, -105.511, -81.4145
1.26, -1, 19.8297, 22.0838, 16.6506, 14.5929, 103.744, -74.877, -7.16391, 67.1284, -147.106, 15.6021, -105.511, -81.4145
1.264, -1, 19.7584, 22.0465, 16.6679, 14.6003, 103.708, -74.9706, -7.16391, 67.1284, -147.106, 15.6021, -105.511, -81.4145
1.267, -1, 19.687, 22.0092, 16.6853, 14.6076, 103.672, -75.0643, -7.16391, 67.1284, -147.106, 15.6021, -105.511, -81.4145
1.272, -1, 19.6157, 21.9719, 16.7026, 14.615, 103.636, -75.158, -7.16391, 67.1284, -147.106, 15.6021, -105.511, -81.4145
1.276, -1, 19.5443, 21.9345, 16.72, 14.6224, 103.6, -75.2517, -7.16391, 67.1284, -147.106, 15.6021, -105.511, -81.4145
1.28, -1, 19.473, 21.8972, 16.7374, 14.6297, 103.564, -75.3454, -7.16391, 67.1284, -147.106, 15.6021, -105.511, -81.4145
1.284, -1, 19.4016, 21.8599, 16.7547, 14.6371, 103.529, -75.4391, -7.16391, 67.1284, -147.106, 15.6021, -105.511, -81.4145
1.288, -1, 19.3302, 21.8225, 16.7721, 14.6445, 103.493, -75.5329, -7.16391, 67.1284, -147.106, 15.6021, -105.511, -81.4145
1.292, -1, 19.2588, 21.7852, 16.7895, 14.6519, 103.457, -75.6267, -7.16391, 67.1284, -147.106, 15.6021, -105.511, -81.4145
1.295, -1, 19.1873, 21.7478, 16.8069, 14.6592, 103.421, -75.7205, -7.16391, 67.1284, -147.106, 15.6021, -105.511, -81.4145
1.3, -1, 19.1159, 21.7104, 16.8242, 14.6666, 103.385, -75.8143, -7.16391, 67.1284, -147.106, 15.6021, -105.511, -81.4145
1.304, -1, 19.0444, 21.673, 16.8416, 14.674, 103.349, -75.9081, -7.16391, 67.1284, -147.106, 15.6021, -105.511, -81.4145
1.308, -1, 18.973, 21.6356, 16.859, 14.6814, 103.313, -76.002, -7.16391, 67.1284, -147.106, 15.6021, -105.511, -81.4145
1.312, -1, 18.9015, 21.5982, 16.8764, 14.6888, 103.277, -76.0959, -7.16391, 67.1284, -147.106, 15.6021, -105.511, -81.4145
1.316, -1, 18.83, 21.5608, 16.8938, 14.6962, 103.241, -76.1898, -7.16391, 67.1284, -147.106, 15.6021, -105.511, -81.4145
1.32, -1, 18.7584, 21.5234, 16.9112, 14.7036, 103.205, -76.2837, -7.16391, 67.1284, -147.106, 15.6021, -105.511, -81.4145
1.324, -1, 18.6869, 21.486, 16.9286, 14.7109, 103.169, -76.3777, -7.16391, 67.1284, -147.106, 15.6021, -105.511, -81.4145
1.328, -1, 18.6154, 21.4486, 16.946, 14.7183, 103.133, -76.4716, -7.16391, 67.1284, -147.106, 15.6021, -105.511, -81.4145
1.332, -1, 18.5438, 21.4111, 16.9634, 14.7257, 103.097, -76.5656, -7.16391, 67.1284, -147.106, 15.6021, -105.511, -81.4145
1.336, -1, 18.4722, 21.3737, 16.9809, 14.7331, 103.061, -76.6596, -7.16391, 67.1284, -147.106, 15.6021, -105.511, -81.4145
1.34, -1, 18.4006, 21.3362, 16.9983, 14.7405, 103.025, -76.7536, -7.16391, 67.1284, -147.106, 15.6021, -105.511, -81.4145
1.344, -1, 18.329, 21.2988, 17.0157, 14.7479, 102.989, -76.8477, -7.16391, 67.1284, -147.106, 15.6021, -105.511, -81.4145
1.348, -1, 18.2574, 21.2613, 17.0331, 14.7553, 102.952, -76.9417, -7.16391, 67.1284, -147.106, 15.6021, -105.511, -81.4145
1.352, -1, 18.1857, 21.2238, 17.0506, 14.7627, 102.916, -77.0358, -7.16391, 67.1284, -147.106, 15.6021, -105.511, -81.4145
1.356, -1, 18.1141, 21.1863, 17.068, 14.7701, 102.88, -77.1299, -7.16391, 67.1284, -147.106, 15.6021, -105.511, -81.4145
1.36, -1, 18.0424, 21.1488, 17.0854, 14.7775, 102.844, -77.224, -7.16391, 67.1284, -147.106, 15.6021, -105.511, -81.4145
1.364, -1, 17.9707, 21.1113, 17.1029, 14.7849, 102.808, -77.3182, -7.16391, 67.1284, -147.106, 15.6021, -105.511, -81.4145
1.368, -1, 17.899, 21.0738, 17.1203, 14.7923, 102.772, -77.4123, -7.16391, 67.1284, -147.106, 15.6021, -105.511, -81.4145
1.372, -1, 17.8273, 21.0363, 17.1378, 14.7997, 102.736, -77.5065, -7.16391, 67.1284, -147.106, 15.6021, -105.511, -81.4145
1.376, -1, 17.7556, 20.9988, 17.1552, 14.8072, 102.7, -77.6007, -7.16391, 67.1284, -147.106, 15.6021, -105.511, -81.4145
1.38, -1, 17.6838, 20.9612, 17.1727, 14.8146, 102.664, -77.6949, -7.16391, 67.1284, -147.106, 15.6021, -105.511, -81.4145
1.384, -1, 17.612, 20.9237, 17.1901, 14.822, 102.628, -77.7892, -7.16391, 67.1284, -147.106, 15.6021, -105.511, -81.4145
1.388, -1, 17.5403, 20.8861, 17.2076, 14.8294, 102.591, -77.8835, -7.16391, 67.1284, -147.106, 15.6021, -105.511, -81.4145
1.392, -1, 17.4685, 20.8486, 17.2251, 14.8368, 102.555, -77.9777, -7.16391, 67.1284, -147.106, 15.6021, -105.511, -81.4145
1.396, -1, 17.3966, 20.811, 17.2425, 14.8442, 102.519, -78.072, -7.16391, 67.1284, -147.106, 15.6021, -105.511, -81.4145
1.4, -1, 17.3248, 20.7734, 17.26, 14.8517, 102.483, -78.1664, -7.16391, 67.1284, -147.106, 15.6021, -105.511, -81.4145
1.404, -1, 17.253, 20.7359, 17.2775, 14.8591, 102.447, -78.2607, -7.16391, 67.1284, -147.106, 15.6021, -105.511, -81.4145
1.408, -1, 17.1811, 20.6983, 17.295, 14.8665, 102.411, -78.3551, -7.16391, 67.1284, -147.106, 15.6021, -105.511, -81.4145
1.412, -1, 17.1092, 20.6607, 17.3125, 14.8739, 102.374, -78.4495, -7.16391, 67.1284, -147.106, 15.6021, -105.511, -81.4145
1.416, -1, 17.0373, 20.6231, 17.33, 14.8813, 102.338, -78.5439, -7.16391, 67.1284, -147.106, 15.6021, -105.511, -81.4145
1.42, -1, 16.9654, 20.5854, 17.3475, 14.8888, 102.302, -78.6383, -7.16391, 67.1284, -147.106, 15.6021, -105.511, -81.4145
1.424, -1, 16.8935, 20.5478, 17.365, 14.8962, 102.266, -78.7327, -7.16391, 67.1284, -147.106, 15.6021, -105.511, -81.4145
1.428, -1, 16.8216, 20.5102, 17.3825, 14.9036, 102.23, -78.8272, -7.16391, 67.1284, -147.106, 15.6021, -105.511, -81.4145
1.432, -1, 16.7496, 20.4725, 17.4, 14.9111, 102.193, -78.9217, -7.16391, 67.1284, -147.106, 15.6021, -105.511, -81.4145
1.436, -1, 16.6777, 20.4349, 17.4175, 14.9185, 102.157, -79.0162, -7.16391, 67.1284, -147.106, 15.6021, -105.511, -81.4145
1.44, -1, 16.6057, 20.3972, 17.435, 14.9259, 102.121, -79.1108, -7.16391, 67.1284, -147.106, 15.6021, -105.511, -81.4145
1.444, -1, 16.5337, 20.3596, 17.4525, 14.9334, 102.085, -79.2053, -7.16391, 67.1284, -147.106, 15.6021, -105.511, -81.4145
1.448, -1, 16.4616, 20.3219, 17.47, 14.9408, 102.048, -79.2999, -7.16391, 67.1284, -147.106, 15.6021, -105.511, -81.4145
1.452, -1, 16.3896, 20.2842, 17.4876, 14.9483, 102.012, -79.3945, -7.16391, 67.1284, -147.106, 15.6021, -105.511, -81.4145
1.456, -1, 16.3176, 20.2465, 17.5051, 14.9557, 101.976, -79.4891, -7.16391, 67.1284, -147.106, 15.6021, -105.511, -81.4145
1.46, -1, 16.2455, 20.2088, 17.5226, 14.9632, 101.94, -79.5837, -7.16391, 67.1284, -147.106, 15.6021, -105.511, -81.4145
1.464, -1, 16.1734, 20.1711, 17.5402, 14.9706, 101.903, -79.6784, -7.16391, 67.1284, -147.106, 15.6021, -105.511, -81.4145
1.468, -1, 16.1013, 20.1334, 17.5577, 14.978, 101.867, -79.7731, -7.16391, 67.1284, -147.106, 15.6021, -105.511, -81.4145
1.472, -1, 16.0292, 20.0957, 17.5752, 14.9855, 101.831, -79.8678, -7.16391, 67.1284, -147.106, 15.6021, -105.511, -81.4145
1.476, -1, 15.9571, 20.0579, 17.5928, 14.9929, 101.794, -79.9625, -7.16391, 67.1284, -147.106, 15.6021, -105.511, -81.4145
1.48, -1, 15.8849, 20.0202, 17.6104, 15.0004, 101.758, -80.0572, -7.16391, 67.1284, -147.106, 15.6021, -105.511, -81.4145
1.484, -1, 15.8128, 19.9824, 17.6279, 15.0079, 101.722, -80.152, -7.16391, 67.1284, -147.106, 15.6021, -105.511, -81.4145
1.488, -1, 15.7406, 19.9447, 17.6455, 15.0153, 101.685, -80.2468, -7.16391, 67.1284, -147.106, 15.6021, -105.511, -81.4145
1.492, -1, 15.6684, 19.9069, 17.663, 15.0228, 101.649, -80.3416, -7.16391, 67.1284, -147.106, 15.6021, -105.511, -81.4145
1.496, -1, 15.5962, 19.8691, 17.6806, 15.0302, 101.613, -80.4364, -7.16391, 67.1284, -147.106, 15.6021, -105.511, -81.4145
1.5, -1, 15.524, 19.8314, 17.6982, 15.0377, 101.576, -80.5313, -7.16391, 67.1284, -147.106, 15.6021, -105.511, -81.4145
1.504, -1, 15.4517, 19.7936, 17.7158, 15.0451, 101.54, -80.6261, -7.16391, 67.1284, -147.106, 15.6021, -105.511, -81.4145
1.508, -1, 15.3795, 19.7558, 17.7333, 15.0526, 101.504, -80.721, -7.16391, 67.1284, -147.106, 15.6021, -105.511, -81.4145
1.512, -1, 15.3072, 19.718, 17.7509, 15.0601, 101.467, -80.8159, -7.16391, 67.1284, -147.106, 15.6021, -105.511, -81.4145
1.516, -1, 15.2349, 19.6801, 17.7685, 15.0675, 101.431, -80.9109, -7.16391, 67.1284, -147.106, 15.6021, -105.511, -81.4145
1.52, -1, 15.1626, 19.6423, 17.7861, 15.075, 101.394, -81.0058, -7.16391, 67.1284, -147.106, 15.6021, -105.511, -81.4145
1.524, -1, 15.0903, 19.6045, 17.8037, 15.0825, 101.358, -81.1008, -7.16391, 67.1284, -147.106, 15.6021, -105.511, -81.4145
1.528, -1, 15.0179, 19.5666, 17.8213, 15.09, 101.322, -81.1958, -7.16391, 67.1284, -147.106, 15.6021, -105.511, -81.4145
1.532, -1, 14.9456, 19.5288, 17.8389, 15.0974, 101.285, -81.2908, -7.16391, 67.1284, -147.106, 15.6021, -105.511, -81.4145
1.536, -1, 14.8732, 19.4909, 17.8565, 15.1049, 101.249, -81.3858, -7.16391, 67.1284, -147.106, 15.6021, -105.511, -81.4145
1.54, -1, 14.8008, 19.4531, 17.8741, 15.1124, 101.212, -81.4809, -7.16391, 67.1284, -147.106, 15.6021, -105.511, -81.4145
1.544, -1, 14.7284, 19.4152, 17.8917, 15.1199, 101.176, -81.576, -7.16391, 67.1284, -147.106, 15.6021, -105.511, -81.4145
1.548, -1, 14.656, 19.3773, 17.9094, 15.1274, 101.139, -81.6711, -7.16391, 67.1284, -147.106, 15.6021, -105.511, -81.4145
1.552, -1, 14.5836, 19.3394, 17.927, 15.1348, 101.103, -81.7662, -7.16391, 67.1284, -147.106, 15.6021, -105.511, -81.4145
1.556, -1, 14.5111, 19.3015, 17.9446, 15.1423, 101.066, -81.8614, -7.16391, 67.1284, -147.106, 15.6021, -105.511, -81.4145
1.56, -1, 14.4386, 19.2636, 17.9622, 15.1498, 101.03, -81.9565, -7.16391, 67.1284, -147.106, 15.6021, -105.511, -81.4145
1.564, -1, 14.3662, 19.2257, 17.9799, 15.1573, 100.993, -82.0517, -7.16391, 67.1284, -147.106, 15.6021, -105.511, -81.4145
1.568, -1, 14.2937, 19.1877, 17.9975, 15.1648, 100.957, -82.1469, -7.16391, 67.1284, -147.106, 15.6021, -105.511, -81.4145
1.572, -1, 14.2211, 19.1498, 18.0152, 15.1723, 100.92, -82.2422, -7.16391, 67.1284, -147.106, 15.6021, -105.511, -81.4145
1.576, -1, 14.1486, 19.1119, 18.0328, 15.1798, 100.884, -82.3374, -7.16391, 67.1284, -147.106, 15.6021, -105.511, -81.4145
1.58, -1, 14.0761, 19.0739, 18.0505, 15.1873, 100.847, -82.4327, -7.16391, 67.1284, -147.106, 15.6021, -105.511, -81.4145
1.584, -1, 14.0035, 19.036, 18.0681, 15.1948, 100.811, -82.528, -7.16391, 67.1284, -147.106, 15.6021, -105.511, -81.4145
1.588, -1, 13.9309, 18.998, 18.0858, 15.2023, 100.774, -82.6233, -7.16391, 67.1284, -147.106, 15.6021, -105.511, -81.4145
1.592, -1, 13.8583, 18.96, 18.1034, 15.2098, 100.738, -82.7186, -7.16391, 67.1284, -147.106, 15.6021, -105.511, -81.4145
1.596, -1, 13.7857, 18.922, 18.1211, 15.2173, 100.701, -82.814, -7.16391, 67.1284, -147.106, 15.6021, -105.511, -81.4145
1.6, -1, 13.7131, 18.884, 18.1388, 15.2248, 100.665, -82.9094, -7.16391, 67.1284, -147.106, 15.6021, -105.511, -81.4145
1.604, -1, 13.6404, 18.846, 18.1565, 15.2323, 100.628, -83.0048, -7.16391, 67.1284, -147.106, 15.6021, -105.511, -81.4145
1.608, -1, 13.5678, 18.808, 18.1741, 15.2398, 100.592, -83.1002, -7.16391, 67.1284, -147.106, 15.6021, -105.511, -81.4145
1.612, -1, 13.4951, 18.77, 18.1918, 15.2473, 100.555, -83.1956, -7.16391, 67.1284, -147.106, 15.6021, -105.511, -81.4145
1.616, -1, 13.4224, 18.732, 18.2095, 15.2548, 100.518, -83.2911, -7.16391, 67.1284, -147.106, 15.6021, -105.511, -81.4145
1.62, -1, 13.3497, 18.6939, 18.2272, 15.2623, 100.482, -83.3866, -7.16391, 67.1284, -147.106, 15.6021, -105.511, -81.4145
1.624, -1, 13.2769, 18.6559, 18.2449, 15.2698, 100.445, -83.4821, -7.16391, 67.1284, -147.106, 15.6021, -105.511, -81.4145
1.628, -1, 13.2042, 18.6178, 18.2626, 15.2773, 100.409, -83.5776, -7.16391, 67.1284, -147.106, 15.6021, -105.511, -81.4145
1.632, -1, 13.1314, 18.5797, 18.2803, 15.2849, 100.372, -83.6732, -7.16391, 67.1284, -147.106, 15.6021, -105.511, -81.4145
1.636, -1, 13.0586, 18.5417, 18.298, 15.2924, 100.335, -83.7688, -7.16391, 67.1284, -147.106, 15.6021, -105.511, -81.4145
1.64, -1, 12.9859, 18.5036, 18.3157, 15.2999, 100.299, -83.8644, -7.16391, 67.1284, -147.106, 15.6021, -105.511, -81.4145
1.644, -1, 12.913, 18.4655, 18.3334, 15.3074, 100.262, -83.96, -7.16391, 67.1284, -147.106, 15.6021, -105.511, -81.4145
1.648, -1, 12.8402, 18.4274, 18.3511, 15.3149, 100.225, -84.0556, -7.16391, 67.1284, -147.106, 15.6021, -105.511, -81.4145
1.652, -1, 12.7674, 18.3893, 18.3689, 15.3225, 100.189, -84.1513, -7.16391, 67.1284, -147.106, 15.6021, -105.511, -81.4145
1.656, -1, 12.6945, 18.3512, 18.3866, 15.33, 100.152, -84.247, -7.16391, 67.1284, -147.106, 15.6021, -105.511, -81.4145
1.66, -1, 12.6216, 18.3131, 18.4043, 15.3375, 100.115, -84.3427, -7.16391, 67.1284, -147.106, 15.6021, -105.511, -81.4145
1.664, -1, 12.5487, 18.2749, 18.4221, 15.345, 100.079, -84.4384, -7.16391, 67.1284, -147.106, 15.6021, -105.511, -81.4145
1.668, -1, 12.4758, 18.2368, 18.4398, 15.3526, 100.042, -84.5342, -7.16391, 67.1284, -147.106, 15.6021, -105.511, -81.4145
1.672, -1, 12.4029, 18.1986, 18.4576, 15.3601, 100.005, -84.6299, -7.16391, 67.1284, -147.106, 15.6021, -105.511, -81.4145
1.676, -1, 12.3299, 18.1605, 18.4753, 15.3676, 99.9684, -84.7257, -7.16391, 67.1284, -147.106, 15.6021, -105.511, -81.4145
1.68, -1, 12.257, 18.1223, 18.493, 15.3752, 99.9316, -84.8215, -7.16391, 67.1284, -147.106, 15.6021, -105.511, -81.4145
1.684, -1, 12.184, 18.0841, 18.5108, 15.3827, 99.8949, -84.9174, -7.16391, 67.1284, -147.106, 15.6021, -105.511, -81.4145
1.688, -1, 12.111, 18.0459, 18.5286, 15.3903, 99.8582, -85.0132, -7.16391, 67.1284, -147.106, 15.6021, -105.511, -81.4145
1.692, -1, 12.038, 18.0077, 18.5463, 15.3978, 99.8214, -85.1091, -7.16391, 67.1284, -147.106, 15.6021, -105.511, -81.4145
1.696, -1, 11.965, 17.9695, 18.5641, 15.4053, 99.7846, -85.205, -7.16391, 67.1284, -147.106, 15.6021, -105.511, -81.4145
1.7, -1, 11.8919, 17.9313, 18.5819, 15.4129, 99.7479, -85.3009, -7.16391, 67.1284, -147.106, 15.6021, -105.511, -81.4145
1.704, -1, 11.8189, 17.8931, 18.5996, 15.4204, 99.7111, -85.3969, -7.16391, 67.1284, -147.106, 15.6021, -105.511, -81.4145
1.708, -1, 11.7458, 17.8549, 18.6174, 15.428, 99.6743, -85.4928, -7.16391, 67.1284, -147.106, 15.6021, -105.511, -81.4145
1.712, -1, 11.6727, 17.8166, 18.6352, 15.4355, 99.6375, -85.5888, -7.16391, 67.1284, -147.106, 15.6021, -105.511, -81.4145
1.716, -1, 11.5996, 17.7784, 18.653, 15.4431, 99.6007, -85.6848, -7.16391, 67.1284, -147.106, 15.6021, -105.511, -81.4145
1.72, -1, 11.5265, 17.7401, 18.6708, 15.4507, 99.5639, -85.7809, -7.16391, 67.1284, -147.106, 15.6021, -105.511, -81.4145
1.724, -1, 11.4533, 17.7019, 18.6886, 15.4582, 99.527, -85.8769, -7.16391, 67.1284, -147.106, 15.6021, -105.511, -81.4145
1.728, -1, 11.3802, 17.6636, 18.7064, 15.4658, 99.4902, -85.973, -7.16391, 67.1284, -147.106, 15.6021, -105.511, -81.4145
1.732, -1, 11.307, 17.6253, 18.7242, 15.4733, 99.4534, -86.0691, -7.16391, 67.1284, -147.106, 15.6021, -105.511, -81.4145
1.736, -1, 11.2338, 17.587, 18.742, 15.4809, 99.4165, -86.1652, -7.16391, 67.1284, -147.106, 15.6021, -105.511, -81.4145
1.74, -1, 11.1606, 17.5487, 18.7598, 15.4885, 99.3797, -86.2614, -7.16391, 67.1284, -147.106, 15.6021, -105.511, -81.4145
1.744, -1, 11.0873, 17.5104, 18.7776, 15.496, 99.3428, -86.3575, -7.16391, 67.1284, -147.106, 15.6021, -105.511, -81.4145
1.748, -1, 11.0141, 17.4721, 18.7955, 15.5036, 99.3059, -86.4537, -7.16391, 67.1284, -147.106, 15.6021, -105.511, -81.4145
1.752, -1, 10.9408, 17.4338, 18.8133, 15.5111, 99.269, -86.5499, -7.16391, 67.1284, -147.106, 15.6021, -105.511, -81.4145
1.756, -1, 10.8675, 17.3954, 18.8311, 15.5187, 99.2321, -86.6462, -7.16391, 67.1284, -147.106, 15.6021, -105.511, -81.4145
1.76, -1, 10.7943, 17.3571, 18.8489, 15.5263, 99.1952, -86.7424, -7.16391, 67.1284, -147.106, 15.6021, -105.511, -81.4145
1.764, -1, 10.7209, 17.3187, 18.8668, 15.5339, 99.1583, -86.8387, -7.16391, 67.1284, -147.106, 15.6021, -105.511, -81.4145
1.768, -1, 10.6476, 17.2804, 18.8846, 15.5414, 99.1214, -86.935, -7.16391, 67.1284, -147.106, 15.6021, -105.511, -81.4145
1.772, -1, 10.5743, 17.242, 18.9025, 15.549, 99.0845, -87.0313, -7.16391, 67.1284, -147.106, 15.6021, -105.511, -81.4145
1.776, -1, 10.5009, 17.2036, 18.9203, 15.5566, 99.0476, -87.1277, -7.16391, 67.1284, -147.106, 15.6021, -105.511, -81.4145
1.78, -1, 10.4275, 17.1652, 18.9382, 15.5642, 99.0106, -87.224, -7.16391, 67.1284, -147.106, 15.6021, -105.511, -81.4145
1.784, -1, 10.3541, 17.1268, 18.956, 15.5718, 98.9737, -87.3204, -7.16391, 67.1284, -147.106, 15.6021, -105.511, -81.4145
1.788, -1, 10.2807, 17.0884, 18.9739, 15.5793, 98.9367, -87.4168, -7.16391, 67.1284, -147.106, 15.6021, -105.511, -81.4145
1.792, -1, 10.2073, 17.05, 18.9918, 15.5869, 98.8997, -87.5133, -7.16391, 67.1284, -147.106, 15.6021, -105.511, -81.4145
1.796, -1, 10.1338, 17.0116, 19.0096, 15.5945, 98.8628, -87.6097, -7.16391, 67.1284, -147.106, 15.6021, -105.511, -81.4145
1.8, -1, 10.0604, 16.9732, 19.0275, 15.6021, 98.8258, -87.7062, -7.16391, 67.1284, -147.106, 15.6021, -105.511, -81.4145
1.804, -1, 9.98688, 16.9347, 19.0454, 15.6097, 98.7888, -87.8027, -7.16391, 67.1284, -147.106, 15.6021, -105.511, -81.4145
1.808, -1, 9.91338, 16.8963, 19.0633, 15.6173, 98.7518, -87.8992, -7.16391, 67.1284, -147.106, 15.6021, -105.511, -81.4145
1.812, -1, 9.83986, 16.8578, 19.0812, 15.6249, 98.7148, -87.9958, -7.16391, 67.1284, -147.106, 15.6021, -105.511, -81.4145
1.816, -1, 9.76633, 16.8194, 19.099, 15.6325, 98.6777, -88.0923, -7.16391, 67.1284, -147.106, 15.6021, -105.511, -81.4145
1.82, -1, 9.69278, 16.7809, 19.1169, 15.6401, 98.6407, -88.1889, -7.16391, 67.1284, -147.106, 15.6021, -105.511, -81.4145
1.824, -1, 9.61921, 16.7424, 19.1348, 15.6477, 98.6037, -88.2855, -7.16391, 67.1284, -147.106, 15.6021, -105.511, -81.4145
1.828, -1, 9.54562, 16.7039, 19.1527, 15.6553, 98.5666, -88.3821, -7.16391, 67.1284, -147.106, 15.6021, -105.511, -81.4145
1.832, -1, 9.47202, 16.6654, 19.1706, 15.6629, 98.5296, -88.4788, -7.16391, 67.1284, -147.106, 15.6021, -105.511, -81.4145
1.836, -1, 9.3984, 16.6269, 19.1886, 15.6705, 98.4925, -88.5755, -7.16391, 67.1284, -147.106, 15.6021, -105.511, -81.4145
1.84, -1, 9.32476, 16.5884, 19.2065, 15.6781, 98.4554, -88.6722, -7.16391, 67.1284, -147.106, 15.6021, -105.511, -81.4145
1.844, -1, 9.25111, 16.5498, 19.2244, 15.6857, 98.4184, -88.7689, -7.16391, 67.1284, -147.106, 15.6021, -105.511, -81.4145
1.848, -1, 9.17744, 16.5113, 19.2423, 15.6933, 98.3813, -88.8657, -7.16391, 67.1284, -147.106, 15.6021, -105.511, -81.4145
1.852, -1, 9.10375, 16.4727, 19.2603, 15.7009, 98.3442, -88.9624, -7.16391, 67.1284, -147.106, 15.6021, -105.511, -81.4145
1.856, -1, 9.03004, 16.4342, 19.2782, 15.7085, 98.3071, -89.0592, -7.16391, 67.1284, -147.106, 15.6021, -105.511, -81.4145
1.86, -1, 8.95631, 16.3956, 19.2961, 15.7162, 98.27, -89.156, -7.16391, 67.1284, -147.106, 15.6021, -105.511, -81.4145
1.864, -1, 8.88257, 16.357, 19.3141, 15.7238, 98.2328, -89.2529, -7.16391, 67.1284, -147.106, 15.6021, -105.511, -81.4145
1.868, -1, 8.80881, 16.3185, 19.332, 15.7314, 98.1957, -89.3497, -7.16391, 67.1284, -147.106, 15.6021, -105.511, -81.4145
1.872, -1, 8.73504, 16.2799, 19.35, 15.739, 98.1585, -89.4466, -7.16391, 67.1284, -147.106, 15.6021, -105.511, -81.4145
1.876, -1, 8.66124, 16.2413, 19.3679, 15.7466, 98.1214, -89.5435, -7.16391, 67.1284, -147.106, 15.6021, -105.511, -81.4145
1.88, -1, 8.58743, 16.2026, 19.3859, 15.7543, 98.0842, -89.6404, -7.16391, 67.1284, -147.106, 15.6021, -105.511, -81.4145
1.884, -1, 8.5136, 16.164, 19.4038, 15.7619, 98.0471, -89.7374, -7.16391, 67.1284, -147.106, 15.6021, -105.511, -81.4145
1.888, -1, 8.43975, 16.1254, 19.4218, 15.7695, 98.0099, -89.8344, -7.16391, 67.1284, -147.106, 15.6021, -105.511, -81.4145
1.892, -1, 8.36589, 16.0867, 19.4398, 15.7772, 97.9727, -89.9314, -7.16391, 67.1284, -147.106, 15.6021, -105.511, -81.4145
1.896, -1, 8.29201, 16.0481, 19.4577, 15.7848, 97.9355, -90.0284, -7.16391, 67.1284, -147.106, 15.6021, -105.511, -81.4145
1.9, -1, 8.21811, 16.0094, 19.4757, 15.7924, 97.8983, -90.1255, -7.16391, 67.1284, -147.106, 15.6021, -105.511, -81.4145
1.904, -1, 8.14419, 15.9708, 19.4937, 15.8001, 97.8611, -90.2225, -7.16391, 67.1284, -147.106, 15.6021, -105.511, -81.4145
1.908, -1, 8.07025, 15.9321, 19.5117, 15.8077, 97.8239, -90.3196, -7.16391, 67.1284, -147.106, 15.6021, -105.511, -81.4145
1.912, -1, 7.9963, 15.8934, 19.5297, 15.8153, 97.7866, -90.4167, -7.16391, 67.1284, -147.106, 15.6021, -105.511, -81.4145
1.916, -1, 7.92233, 15.8547, 19.5477, 15.823, 97.7494, -90.5139, -7.16391, 67.1284, -147.106, 15.6021, -105.511, -81.4145
1.92, -1, 7.84834, 15.816, 19.5657, 15.8306, 97.7122, -90.611, -7.16391, 67.1284, -147.106, 15.6021, -105.511, -81.4145
1.924, -1, 7.77433, 15.7773, 19.5837, 15.8383, 97.6749, -90.7082, -7.16391, 67.1284, -147.106, 15.6021, -105.511, -81.4145
1.928, -1, 7.70031, 15.7386, 19.6017, 15.8459, 97.6376, -90.8054, -7.16391, 67.1284, -147.106, 15.6021, -105.511, -81.4145
1.932, -1, 7.62627, 15.6998, 19.6197, 15.8536, 97.6003, -90.9027, -7.16391, 67.1284, -147.106, 15.6021, -105.511, -81.4145
1.936, -1, 7.55221, 15.6611, 19.6377, 15.8612, 97.5631, -90.9999, -7.16391, 67.1284, -147.106, 15.6021, -105.511, -81.4145
1.94, -1, 7.47813, 15.6223, 19.6558, 15.8689, 97.5258, -91.0972, -7.16391, 67.1284, -147.106, 15.6021, -105.511, -81.4145
1.944, -1, 7.40403, 15.5836, 19.6738, 15.8765, 97.4885, -91.1945, -7.16391, 67.1284, -147.106, 15.6021, -105.511, -81.4145
1.948, -1, 7.32992, 15.5448, 19.6918, 15.8842, 97.4511, -91.2918, -7.16391, 67.1284, -147.106, 15.6021, -105.511, -81.4145
1.952, -1, 7.25578, 15.506, 19.7099, 15.8918, 97.4138, -91.3892, -7.16391, 67.1284, -147.106, 15.6021, -105.511, -81.4145
1.956, -1, 7.18163, 15.4672, 19.7279, 15.8995, 97.3765, -91.4866, -7.16391, 67.1284, -147.106, 15.6021, -105.511, -81.4145
1.96, -1, 7.10746, 15.4284, 19.746, 15.9072, 97.3392, -91.584, -7.16391, 67.1284, -147.106, 15.6021, -105.511, -81.4145
1.964, -1, 7.03328, 15.3896, 19.764, 15.9148, 97.3018, -91.6814, -7.16391, 67.1284, -147.106, 15.6021, -105.511, -81.4145
1.968, -1, 6.95907, 15.3508, 19.7821, 15.9225, 97.2645, -91.7788, -7.16391, 67.1284, -147.106, 15.6021, -105.511, -81.4145
1.972, -1, 6.88485, 15.312, 19.8001, 15.9302, 97.2271, -91.8763, -7.16391, 67.1284, -147.106, 15.6021, -105.511, -81.4145
1.976, -1, 6.81061, 15.2731, 19.8182, 15.9378, 97.1897, -91.9738, -7.16391, 67.1284, -147.106, 15.6021, -105.511, -81.4145
1.98, -1, 6.73635, 15.2343, 19.8362, 15.9455, 97.1523, -92.0713, -7.16391, 67.1284, -147.106, 15.6021, -105.511, -81.4145
1.984, -1, 6.66208, 15.1954, 19.8543, 15.9532, 97.1149, -92.1689, -7.16391, 67.1284, -147.106, 15.6021, -105.511, -81.4145
1.988, -1, 6.58778, 15.1566, 19.8724, 15.9608, 97.0775, -92.2664, -7.16391, 67.1284, -147.106, 15.6021, -105.511, -81.4145
1.992, -1, 6.51347, 15.1177, 19.8905, 15.9685, 97.0401, -92.364, -7.16391, 67.1284, -147.106, 15.6021, -105.511, -81.4145
1.996, -1, 6.43914, 15.0788, 19.9086, 15.9762, 97.0027, -92.4616, -7.16391, 67.1284, -147.106, 15.6021, -105.511, -81.4145
1.999, -1, 6.36479, 15.0399, 19.9266, 15.9839, 96.9653, -92.5593, -7.16391, 67.1284, -147.106, 15.6021, -105.511, -81.4145
2.004, -1, 6.29042, 15.001, 19.9447, 15.9916, 96.9278, -92.6569, -7.16391, 67.1284, -147.106, 15.6021, -105.511, -81.4145
2.008, -1, 6.21604, 14.9621, 19.9628, 15.9992, 96.8904, -92.7546, -7.16391, 67.1284, -147.106, 15.6021, -105.511, -81.4145
2.012, -1, 6.14163, 14.9232, 19.9809, 16.0069, 96.8529, -92.8523, -7.16391, 67.1284, -147.106, 15.6021, -105.511, -81.4145
2.015, -1, 6.06721, 14.8842, 19.9991, 16.0146, 96.8155, -92.95, -7.16391, 67.1284, -147.106, 15.6021, -105.511, -81.4145
2.019, -1, 5.99277, 14.8453, 20.0172, 16.0223, 96.778, -93.0478, -7.16391, 67.1284, -147.106, 15.6021, -105.511, -81.4145
2.024, -1, 5.91831, 14.8063, 20.0353, 16.03, 96.7405, -93.1456, -7.16391, 67.1284, -147.106, 15.6021, -105.511, -81.4145
2.028, -1, 5.84384, 14.7674, 20.0534, 16.0377, 96.703, -93.2434, -7.16391, 67.1284, -147.106, 15.6021, -105.511, -81.4145
2.031, -1, 5.76934, 14.7284, 20.0715, 16.0454, 96.6655, -93.3412, -7.16391, 67.1284, -147.106, 15.6021, -105.511, -81.4145
2.036, -1, 5.69483, 14.6894, 20.0897, 16.0531, 96.628, -93.4391, -7.16391, 67.1284, -147.106, 15.6021, -105.511, -81.4145
2.04, -1, 5.6203, 14.6504, 20.1078, 16.0608, 96.5905, -93.5369, -7.16391, 67.1284, -147.106, 15.6021, -105.511, -81.4145
2.044, -1, 5.54575, 14.6114, 20.1259, 16.0685, 96.5529, -93.6348, -7.16391, 67.1284, -147.106, 15.6021, -105.511, -81.4145
2.048, -1, 5.47118, 14.5724, 20.1441, 16.0762, 96.5154, -93.7328, -7.16391, 67.1284, -147.106, 15.6021, -105.511, -81.4145
2.051, -1, 5.3966, 14.5334, 20.1622, 16.0839, 96.4778, -93.8307, -7.16391, 67.1284, -147.106, 15.6021, -105.511, -81.4145
2.055, -1, 5.32199, 14.4944, 20.1804, 16.0916, 96.4403, -93.9287, -7.16391, 67.1284, -147.106, 15.6021, -105.511, -81.4145
2.06, -1, 5.24737, 14.4554, 20.1985, 16.0993, 96.4027, -94.0267, -7.16391, 67.1284, -147.106, 15.6021, -105.511, -81.4145
2.064, -1, 5.17273, 14.4163, 20.2167, 16.107, 96.3651, -94.1247, -7.16391, 67.1284, -147.106, 15.6021, -105.511, -81.4145
2.068, -1, 5.09807, 14.3773, 20.2348, 16.1147, 96.3275, -94.2227, -7.16391, 67.1284, -147.106, 15.6021, -105.511, -81.4145
2.071, -1, 5.02339, 14.3382, 20.253, 16.1224, 96.29, -94.3208, -7.16391, 67.1284, -147.106, 15.6021, -105.511, -81.4145
2.076, -1, 4.9487, 14.2991, 20.2712, 16.1302, 96.2523, -94.4189, -7.16391, 67.1284, -147.106, 15.6021, -105.511, -81.4145
2.08, -1, 4.87398, 14.26, 20.2894, 16.1379, 96.2147, -94.517, -7.16391, 67.1284, -147.106, 15.6021, -105.511, -81.4145
2.084, -1, 4.79925, 14.2209, 20.3076, 16.1456, 96.1771, -94.6152, -7.16391, 67.1284, -147.106, 15.6021, -105.511, -81.4145
2.087, -1, 4.7245, 14.1818, 20.3257, 16.1533, 96.1395, -94.7133, -7.16391, 67.1284, -147.106, 15.6021, -105.511, -81.4145
2.092, -1, 4.64973, 14.1427, 20.3439, 16.1611, 96.1018, -94.8115, -7.16391, 67.1284, -147.106, 15.6021, -105.511, -81.4145
2.096, -1, 4.57494, 14.1036, 20.3621, 16.1688, 96.0642, -94.9097, -7.16391, 67.1284, -147.106, 15.6021, -105.511, -81.4145
2.1, -1, 4.50014, 14.0645, 20.3803, 16.1765, 96.0265, -95.008, -7.16391, 67.1284, -147.106, 15.6021, -105.511, -81.4145
2.104, -1, 4.42531, 14.0253, 20.3985, 16.1842, 95.9889, -95.1062, -7.16391, 67.1284, -147.106, 15.6021, -105.511, -81.4145
2.107, -1, 4.35047, 13.9862, 20.4167, 16.192, 95.9512, -95.2045, -7.16391, 67.1284, -147.106, 15.6021, -105.511, -81.4145
2.111, -1, 4.27561, 13.947, 20.435, 16.1997, 95.9135, -95.3028, -7.16391, 67.1284, -147.106, 15.6021, -105.511, -81.4145
2.116, -1, 4.20073, 13.9078, 20.4532, 16.2074, 95.8758, -95.4012, -7.16391, 67.1284, -147.106, 15.6021, -105.511, -81.4145
2.12, -1, 4.12583, 13.8686, 20.4714, 16.2152, 95.8381, -95.4995, -7.16391, 67.1284, -147.106, 15.6021, -105.511, -81.4145
2.124, -1, 4.05091, 13.8295, 20.4896, 16.2229, 95.8004, -95.5979, -7.16391, 67.1284, -147.106, 15.6021, -105.511, -81.4145
2.127, -1, 3.97597, 13.7902, 20.5079, 16.2307, 95.7626, -95.6963, -7.16391, 67.1284, -147.106, 15.6021, -105.511, -81.4145
2.132, -1, 3.90102, 13.751, 20.5261, 16.2384, 95.7249, -95.7947, -7.16391, 67.1284, -147.106, 15.6021, -105.511, -81.4145
2.136, -1, 3.82605, 13.7118, 20.5443, 16.2461, 95.6872, -95.8932, -7.16391, 67.1284, -147.106, 15.6021, -105.511, -81.4145
2.14, -1, 3.75105, 13.6726, 20.5626, 16.2539, 95.6494, -95.9917, -7.16391, 67.1284, -147.106, 15.6021, -105.511, -81.4145
2.143, -1, 3.67604, 13.6333, 20.5808, 16.2616, 95.6116, -96.0902, -7.16391, 67.1284, -147.106, 15.6021, -105.511, -81.4145
2.148, -1, 3.60101, 13.5941, 20.5991, 16.2694, 95.5739, -96.1887, -7.16391, 67.1284, -147.106, 15.6021, -105.511, -81.4145
2.152, -1, 3.52597, 13.5548, 20.6173, 16.2771, 95.5361, -96.2873, -7.16391, 67.1284, -147.106, 15.6021, -105.511, -81.4145
2.156, -1, 3.4509, 13.5156, 20.6356, 16.2849, 95.4983, -96.3858, -7.16391, 67.1284, -147.106, 15.6021, -105.511, -81.4145
2.16, -1, 3.37582, 13.4763, 20.6539, 16.2927, 95.4605, -96.4844, -7.16391, 67.1284, -147.106, 15.6021, -105.511, -81.4145
2.163, -1, 3.30071, 13.437, 20.6722, 16.3004, 95.4227, -96.5831, -7.16391, 67.1284, -147.106, 15.6021, -105.511, -81.4145
2.168, -1, 3.22559, 13.3977, 20.6904, 16.3082, 95.3849, -96.6817, -7.16391, 67.1284, -147.106, 15.6021, -105.511, -81.4145
2.172, -1, 3.15045, 13.3584, 20.7087, 16.3159, 95.347, -96.7804, -7.16391, 67.1284, -147.106, 15.6021, -105.511, -81.4145
2.176, -1, 3.07529, 13.3191, 20.727, 16.3237, 95.3092, -96.8791, -7.16391, 67.1284, -147.106, 15.6021, -105.511, -81.4145
2.179, -1, 3.00011, 13.2797, 20.7453, 16.3315, 95.2713, -96.9778, -7.16391, 67.1284, -147.106, 15.6021, -105.511, -81.4145
2.184, -1, 2.92491, 13.2404, 20.7636, 16.3392, 95.2335, -97.0766, -7.16391, 67.1284, -147.106, 15.6021, -105.511, -81.4145
2.188, -1, 2.8497, 13.2011, 20.7819, 16.347, 95.1956, -97.1753, -7.16391, 67.1284, -147.106, 15.6021, -105.511, -81.4145
2.192, -1, 2.77446, 13.1617, 20.8002, 16.3548, 95.1577, -97.2741, -7.16391, 67.1284, -147.106, 15.6021, -105.511, -81.4145
2.196, -1, 2.69921, 13.1223, 20.8185, 16.3626, 95.1199, -97.373, -7.16391, 67.1284, -147.106, 15.6021, -105.511, -81.4145
2.199, -1, 2.62394, 13.083, 20.8368, 16.3703, 95.082, -97.4718, -7.16391, 67.1284, -147.106, 15.6021, -105.511, -81.4145
2.204, -1, 2.54864, 13.0436, 20.8551, 16.3781, 95.0441, -97.5707, -7.16391, 67.1284, -147.106, 15.6021, -105.511, -81.4145
2.208, -1, 2.47333, 13.0042, 20.8735, 16.3859, 95.0061, -97.6696, -7.16391, 67.1284, -147.106, 15.6021, -105.511, -81.4145
2.212, -1, 2.398, 12.9648, 20.8918, 16.3937, 94.9682, -97.7685, -7.16391, 67.1284, -147.106, 15.6021, -105.511, -81.4145
2.216, -1, 2.32266, 12.9253, 20.9101, 16.4014, 94.9303, -97.8675, -7.16391, 67.1284, -147.106, 15.6021, -105.511, -81.4145
2.219, -1, 2.24729, 12.8859, 20.9285, 16.4092, 94.8923, -97.9664, -7.16391, 67.1284, -147.106, 15.6021, -105.511, -81.4145
2.224, -1, 2.1719, 12.8465, 20.9468, 16.417, 94.8544, -98.0654, -7.16391, 67.1284, -147.106, 15.6021, -105.511, -81.4145
2.228, -1, 2.0965, 12.807, 20.9651, 16.4248, 94.8164, -98.1645, -7.16391, 67.1284, -147.106, 15.6021, -105.511, -81.4145
2.232, -1, 2.02108, 12.7676, 20.9835, 16.4326, 94.7785, -98.2635, -7.16391, 67.1284, -147.106, 15.6021, -105.511, -81.4145
2.235, -1, 1.94563, 12.7281, 21.0019, 16.4404, 94.7405, -98.3626, -7.16391, 67.1284, -147.106, 15.6021, -105.511, -81.4145
2.24, -1, 1.87017, 12.6886, 21.0202, 16.4482, 94.7025, -98.4617, -7.16391, 67.1284, -147.106, 15.6021, -105.511, -81.4145
2.244, -1, 1.79469, 12.6492, 21.0386, 16.456, 94.6645, -98.5608, -7.16391, 67.1284, -147.106, 15.6021, -105.511, -81.4145
2.248, -1, 1.71919, 12.6097, 21.0569, 16.4638, 94.6265, -98.66, -7.16391, 67.1284, -147.106, 15.6021, -105.511, -81.4145
2.252, -1, 1.64367, 12.5702, 21.0753, 16.4716, 94.5884, -98.7591, -7.16391, 67.1284, -147.106, 15.6021, -105.511, -81.4145
2.255, -1, 1.56813, 12.5306, 21.0937, 16.4794, 94.5504, -98.8583, -7.16391, 67.1284, -147.106, 15.6021, -105.511, -81.4145
2.259, -1, 1.49258, 12.4911, 21.1121, 16.4872, 94.5124, -98.9575, -7.16391, 67.1284, -147.106, 15.6021, -105.511, -81.4145
2.264, -1, 1.417, 12.4516, 21.1305, 16.495, 94.4743, -99.0568, -7.16391, 67.1284, -147.106, 15.6021, -105.511, -81.4145
2.268, -1, 1.34141, 12.412, 21.1489, 16.5028, 94.4363, -99.1561, -7.16391, 67.1284, -147.106, 15.6021, -105.511, -81.4145
2.272, -1, 1.26579, 12.3725, 21.1673, 16.5106, 94.3982, -99.2554, -7.16391, 67.1284, -147.106, 15.6021, -105.511, -81.4145
2.275, -1, 1.19016, 12.3329, 21.1857, 16.5184, 94.3601, -99.3547, -7.16391, 67.1284, -147.106, 15.6021, -105.511, -81.4145
2.28, -1, 1.11451, 12.2933, 21.2041, 16.5263, 94.322, -99.454, -7.16391, 67.1284, -147.106, 15.6021, -105.511, -81.4145
2.284, -1, 1.03884, 12.2537, 21.2225, 16.5341, 94.284, -99.5534, -7.16391, 67.1284, -147.106, 15.6021, -105.511, -81.4145
2.288, -1, 0.963145, 12.2141, 21.2409, 16.5419, 94.2458, -99.6528, -7.16391, 67.1284, -147.106, 15.6021, -105.511, -81.4145
2.291, -1, 0.887434, 12.1745, 21.2593, 16.5497, 94.2077, -99.7522, -7.16391, 67.1284, -147.106, 15.6021, -105.511, -81.4145
2.296, -1, 0.811704, 12.1349, 21.2777, 16.5575, 94.1696, -99.8517, -7.16391, 67.1284, -147.106, 15.6021, -105.511, -81.4145
2.3, -1, 0.735954, 12.0953, 21.2962, 16.5654, 94.1315, -99.9511, -7.16391, 67.1284, -147.106, 15.6021, -105.511, -81.4145
2.304, -1, 0.660185, 12.0557, 21.3146, 16.5732, 94.0933, -100.051, -7.16391, 67.1284, -147.106, 15.6021, -105.511, -81.4145
2.308, -1, 0.584396, 12.016, 21.333, 16.581, 94.0552, -100.15, -7.16391, 67.1284, -147.106, 15.6021, -105.511, -81.4145
2.311, -1, 0.508588, 11.9764, 21.3515, 16.5889, 94.017, -100.25, -7.16391, 67.1284, -147.106, 15.6021, -105.511, -81.4145
2.316, -1, 0.43276, 11.9367, 21.3699, 16.5967, 93.9788, -100.349, -7.16391, 67.1284, -147.106, 15.6021, -105.511, -81.4145
2.32, -1, 0.356913, 11.897, 21.3884, 16.6045, 93.9406, -100.449, -7.16391, 67.1284, -147.106, 15.6021, -105.511, -81.4145
2.324, -1, 0.281046, 11.8573, 21.4068, 16.6124, 93.9025, -100.549, -7.16391, 67.1284, -147.106, 15.6021, -105.511, -81.4145
2.328, -1, 0.20516, 11.8176, 21.4253, 16.6202, 93.8643, -100.648, -7.16391, 67.1284, -147.106, 15.6021, -105.511, -81.4145
2.331, -1, 0.129254, 11.7779, 21.4438, 16.628, 93.826, -100.748, -7.16391, 67.1284, -147.106, 15.6021, -105.511, -81.4145
2.336, -1, 0.0533285, 11.7382, 21.4623, 16.6359, 93.7878, -100.848, -7.16391, 67.1284, -147.106, 15.6021, -105.511, -81.4145
2.34, -1, -0.0226166, 11.6985, 21.4807, 16.6437, 93.7496, -100.947, -7.16391, 67.1284, -147.106, 15.6021, -105.511, -81.4145
2.344, -1, -0.0985813, 11.6587, 21.4992, 16.6516, 93.7113, -101.047, -7.16391, 67.1284, -147.106, 15.6021, -105.511, -81.4145
2.347, -1, -0.174566, 11.619, 21.5177, 16.6594, 93.6731, -101.147, -7.16391, 67.1284, -147.106, 15.6021, -105.511, -81.4145
2.352, -1, -0.25057, 11.5792, 21.5362, 16.6673, 93.6348, -101.247, -7.16391, 67.1284, -147.106, 15.6021, -105.511, -81.4145
2.356, -1, -0.326595, 11.5395, 21.5547, 16.6751, 93.5965, -101.346, -7.16391, 67.1284, -147.106, 15.6021, -105.511, -81.4145
2.36, -1, -0.402639, 11.4997, 21.5732, 16.683, 93.5583, -101.446, -7.16391, 67.1284, -147.106, 15.6021, -105.511, -81.4145
2.364, -1, -0.478703, 11.4599, 21.5917, 16.6908, 93.52, -101.546, -7.16391, 67.1284, -147.106, 15.6021, -105.511, -81.4145
2.367, -1, -0.554787, 11.4201, 21.6102, 16.6987, 93.4817, -101.646, -7.16391, 67.1284, -147.106, 15.6021, -105.511, -81.4145
2.372, -1, -0.630891, 11.3803, 21.6287, 16.7066, 93.4433, -101.746, -7.16391, 67.1284, -147.106, 15.6021, -105.511, -81.4145
2.376, -1, -0.707015, 11.3404, 21.6472, 16.7144, 93.405, -101.846, -7.16391, 67.1284, -147.106, 15.6021, -105.511, -81.4145
2.38, -1, -0.783159, 11.3006, 21.6658, 16.7223, 93.3667, -101.946, -7.16391, 67.1284, -147.106, 15.6021, -105.511, -81.4145
2.383, -1, -0.859323, 11.2608, 21.6843, 16.7302, 93.3283, -102.046, -7.16391, 67.1284, -147.106, 15.6021, -105.511, -81.4145
2.388, -1, -0.935507, 11.2209, 21.7028, 16.738, 93.29, -102.146, -7.16391, 67.1284, -147.106, 15.6021, -105.511, -81.4145
2.392, -1, -1.01171, 11.1811, 21.7214, 16.7459, 93.2516, -102.246, -7.16391, 67.1284, -147.106, 15.6021, -105.511, -81.4145
2.396, -1, -1.08794, 11.1412, 21.7399, 16.7538, 93.2132, -102.346, -7.16391, 67.1284, -147.106, 15.6021, -105.511, -81.4145
2.4, -1, -1.16418, 11.1013, 21.7585, 16.7617, 93.1749, -102.446, -7.16391, 67.1284, -147.106, 15.6021, -105.511, -81.4145
2.403, -1, -1.24044, 11.0614, 21.777, 16.7695, 93.1365, -102.547, -7.16391, 67.1284, -147.106, 15.6021, -105.511, -81.4145
2.408, -1, -1.31673, 11.0215, 21.7956, 16.7774, 93.0981, -102.647, -7.16391, 67.1284, -147.106, 15.6021, -105.511, -81.4145
2.412, -1, -1.39303, 10.9816, 21.8142, 16.7853, 93.0597, -102.747, -7.16391, 67.1284, -147.106, 15.6021, -105.511, -81.4145
2.416, -1, -1.46936, 10.9416, 21.8327, 16.7932, 93.0212, -102.847, -7.16391, 67.1284, -147.106, 15.6021, -105.511, -81.4145
2.42, -1, -1.5457, 10.9017, 21.8513, 16.8011, 92.9828, -102.947, -7.16391, 67.1284, -147.106, 15.6021, -105.511, -81.4145
2.423, -1, -1.62207, 10.8618, 21.8699, 16.809, 92.9444, -103.048, -7.16391, 67.1284, -147.106, 15.6021, -105.511, -81.4145
2.428, -1, -1.69845, 10.8218, 21.8885, 16.8168, 92.9059, -103.148, -7.16391, 67.1284, -147.106, 15.6021, -105.511, -81.4145
2.432, -1, -1.77486, 10.7818, 21.9071, 16.8247, 92.8674, -103.248, -7.16391, 67.1284, -147.106, 15.6021, -105.511, -81.4145
2.436, -1, -1.85128, 10.7418, 21.9257, 16.8326, 92.8289, -103.349, -7.16391, 67.1284, -147.106, 15.6021, -105.511, -81.4145
2.439, -1, -1.92773, 10.7019, 21.9443, 16.8405, 92.7905, -103.449, -7.16391, 67.1284, -147.106, 15.6021, -105.511, -81.4145
2.444, -1, -2.00419, 10.6619, 21.9629, 16.8484, 92.752, -103.55, -7.16391, 67.1284, -147.106, 15.6021, -105.511, -81.4145
2.448, -1, -2.08068, 10.6218, 21.9815, 16.8563, 92.7135, -103.65, -7.16391, 67.1284, -147.106, 15.6021, -105.511, -81.4145
2.452, -1, -2.15719, 10.5818, 22.0001, 16.8642, 92.6749, -103.75, -7.16391, 67.1284, -147.106, 15.6021, -105.511, -81.4145
2.456, -1, -2.23371, 10.5418, 22.0187, 16.8721, 92.6364, -103.851, -7.16391, 67.1284, -147.106, 15.6021, -105.511, -81.4145
2.459, -1, -2.31026, 10.5017, 22.0373, 16.8801, 92.5979, -103.951, -7.16391, 67.1284, -147.106, 15.6021, -105.511, -81.4145
2.464, -1, -2.38683, 10.4617, 22.056, 16.888, 92.5593, -104.052, -7.16391, 67.1284, -147.106, 15.6021, -105.511, -81.4145
2.468, -1, -2.46342, 10.4216, 22.0746, 16.8959, 92.5208, -104.153, -7.16391, 67.1284, -147.106, 15.6021, -105.511, -81.4145
2.472, -1, -2.54002, 10.3815, 22.0932, 16.9038, 92.4822, -104.253, -7.16391, 67.1284, -147.106, 15.6021, -105.511, -81.4145
2.476, -1, -2.61665, 10.3415, 22.1119, 16.9117, 92.4436, -104.354, -7.16391, 67.1284, -147.106, 15.6021, -105.511, -81.4145
2.479, -1, -2.6933, 10.3014, 22.1305, 16.9196, 92.405, -104.454, -7.16391, 67.1284, -147.106, 15.6021, -105.511, -81.4145
2.484, -1, -2.76997, 10.2613, 22.1492, 16.9275, 92.3664, -104.555, -7.16391, 67.1284, -147.106, 15.6021, -105.511, -81.4145
2.488, -1, -2.84666, 10.2211, 22.1678, 16.9355, 92.3278, -104.656, -7.16391, 67.1284, -147.106, 15.6021, -105.511, -81.4145
2.492, -1, -2.92337, 10.181, 22.1865, 16.9434, 92.2892, -104.757, -7.16391, 67.1284, -147.106, 15.6021, -105.511, -81.4145
2.495, -1, -3.0001, 10.1409, 22.2052, 16.9513, 92.2506, -104.857, -7.16391, 67.1284, -147.106, 15.6021, -105.511, -81.4145
2.5, -1, -3.07685, 10.1007, 22.2238, 16.9592, 92.2119, -104.958, -7.16391, 67.1284, -147.106, 15.6021, -105.511, -81.4145
2.504, -1, -3.15362, 10.0606, 22.2425, 16.9672, 92.1733, -105.059, -7.16391, 67.1284, -147.106, 15.6021, -105.511, -81.4145
2.508, -1, -3.23042, 10.0204, 22.2612, 16.9751, 92.1346, -105.16, -7.16391, 67.1284, -147.106, 15.6021, -105.511, -81.4145
2.512, -1, -3.30723, 9.9802, 22.2799, 16.983, 92.096, -105.261, -7.16391, 67.1284, -147.106, 15.6021, -105.511, -81.4145
2.515, -1, -3.38406, 9.94001, 22.2986, 16.991, 92.0573, -105.362, -7.16391, 67.1284, -147.106, 15.6021, -105.511, -81.4145
2.52, -1, -3.46092, 9.89981, 22.3173, 16.9989, 92.0186, -105.463, -7.16391, 67.1284, -147.106, 15.6021, -105.511, -81.4145
2.524, -1, -3.53779, 9.85959, 22.336, 17.0069, 91.9799, -105.563, -7.16391, 67.1284, -147.106, 15.6021, -105.511, -81.4145
2.528, -1, -3.61468, 9.81937, 22.3547, 17.0148, 91.9412, -105.664, -7.16391, 67.1284, -147.106, 15.6021, -105.511, -81.4145
2.531, -1, -3.6916, 9.77913, 22.3734, 17.0227, 91.9025, -105.765, -7.16391, 67.1284, -147.106, 15.6021, -105.511, -81.4145
2.536, -1, -3.76854, 9.73888, 22.3921, 17.0307, 91.8637, -105.867, -7.16391, 67.1284, -147.106, 15.6021, -105.511, -81.4145
2.54, -1, -3.84549, 9.69862, 22.4109, 17.0386, 91.825, -105.968, -7.16391, 67.1284, -147.106, 15.6021, -105.511, -81.4145
2.544, -1, -3.92247, 9.65835, 22.4296, 17.0466, 91.7862, -106.069, -7.16391, 67.1284, -147.106, 15.6021, -105.511, -81.4145
2.548, -1, -3.99947, 9.61807, 22.4483, 17.0546, 91.7475, -106.17, -7.16391, 67.1284, -147.106, 15.6021, -105.511, -81.4145
2.551, -1, -4.07649, 9.57778, 22.4671, 17.0625, 91.7087, -106.271, -7.16391, 67.1284, -147.106, 15.6021, -105.511, -81.4145
2.556, -1, -4.15353, 9.53748, 22.4858, 17.0705, 91.6699, -106.372, -7.16391, 67.1284, -147.106, 15.6021, -105.511, -81.4145
2.56, -1, -4.23059, 9.49717, 22.5045, 17.0784, 91.6311, -106.473, -7.16391, 67.1284, -147.106, 15.6021, -105.511, -81.4145
2.564, -1, -4.30767, 9.45685, 22.5233, 17.0864, 91.5923, -106.574, -7.16391, 67.1284, -147.106, 15.6021, -105.511, -81.4145
2.568, -1, -4.38477, 9.41651, 22.5421, 17.0944, 91.5535, -106.676, -7.16391, 67.1284, -147.106, 15.6021, -105.511, -81.4145
2.571, -1, -4.46189, 9.37617, 22.5608, 17.1023, 91.5147, -106.777, -7.16391, 67.1284, -147.106, 15.6021, -105.511, -81.4145
2.576, -1, -4.53903, 9.33581, 22.5796, 17.1103, 91.4758, -106.878, -7.16391, 67.1284, -147.106, 15.6021, -105.511, -81.4145
2.58, -1, -4.6162, 9.29545, 22.5984, 17.1183, 91.437, -106.98, -7.16391, 67.1284, -147.106, 15.6021, -105.511, -81.4145
2.584, -1, -4.69338, 9.25507, 22.6171, 17.1262, 91.3981, -107.081, -7.16391, 67.1284, -147.106, 15.6021, -105.511, -81.4145
2.587, -1, -4.77059, 9.21468, 22.6359, 17.1342, 91.3593, -107.182, -7.16391, 67.1284, -147.106, 15.6021, -105.511, -81.4145
2.592, -1, -4.84781, 9.17428, 22.6547, 17.1422, 91.3204, -107.284, -7.16391, 67.1284, -147.106, 15.6021, -105.511, -81.4145
2.596, -1, -4.92506, 9.13387, 22.6735, 17.1502, 91.2815, -107.385, -7.16391, 67.1284, -147.106, 15.6021, -105.511, -81.4145
2.6, -1, -5.00233, 9.09345, 22.6923, 17.1582, 91.2426, -107.487, -7.16391, 67.1284, -147.106, 15.6021, -105.511, -81.4145
2.604, -1, -5.07962, 9.05302, 22.7111, 17.1661, 91.2037, -107.588, -7.16391, 67.1284, -147.106, 15.6021, -105.511, -81.4145
2.607, -1, -5.15693, 9.01258, 22.7299, 17.1741, 91.1648, -107.69, -7.16391, 67.1284, -147.106, 15.6021, -105.511, -81.4145
2.612, -1, -5.23426, 8.97212, 22.7487, 17.1821, 91.1258, -107.791, -7.16391, 67.1284, -147.106, 15.6021, -105.511, -81.4145
2.616, -1, -5.31161, 8.93166, 22.7676, 17.1901, 91.0869, -107.893, -7.16391, 67.1284, -147.106, 15.6021, -105.511, -81.4145
2.62, -1, -5.38898, 8.89118, 22.7864, 17.1981, 91.0479, -107.994, -7.16391, 67.1284, -147.106, 15.6021, -105.511, -81.4145
2.624, -1, -5.46637, 8.85069, 22.8052, 17.2061, 91.009, -108.096, -7.16391, 67.1284, -147.106, 15.6021, -105.511, -81.4145
2.627, -1, -5.54379, 8.8102, 22.8241, 17.2141, 90.97, -108.198, -7.16391, 67.1284, -147.106, 15.6021, -105.511, -81.4145
2.632, -1, -5.62122, 8.76969, 22.8429, 17.2221, 90.931, -108.299, -7.16391, 67.1284, -147.106, 15.6021, -105.511, -81.4145
2.636, -1, -5.69868, 8.72917, 22.8617, 17.2301, 90.892, -108.401, -7.16391, 67.1284, -147.106, 15.6021, -105.511, -81.4145
2.64, -1, -5.77616, 8.68864, 22.8806, 17.2381, 90.853, -108.503, -7.16391, 67.1284, -147.106, 15.6021, -105.511, -81.4145
2.643, -1, -5.85366, 8.6481, 22.8994, 17.2461, 90.814, -108.605, -7.16391, 67.1284, -147.106, 15.6021, -105.511, -81.4145
2.648, -1, -5.93118, 8.60754, 22.9183, 17.2541, 90.775, -108.707, -7.16391, 67.1284, -147.106, 15.6021, -105.511, -81.4145
2.652, -1, -6.00872, 8.56698, 22.9372, 17.2621, 90.7359, -108.808, -7.16391, 67.1284, -147.106, 15.6021, -105.511, -81.4145
2.656, -1, -6.08628, 8.52641, 22.956, 17.2701, 90.6969, -108.91, -7.16391, 67.1284, -147.106, 15.6021, -105.511, -81.4145
2.66, -1, -6.16386, 8.48582, 22.9749, 17.2781, 90.6578, -109.012, -7.16391, 67.1284, -147.106, 15.6021, -105.511, -81.4145
2.663, -1, -6.24147, 8.44522, 22.9938, 17.2862, 90.6188, -109.114, -7.16391, 67.1284, -147.106, 15.6021, -105.511, -81.4145
2.668, -1, -6.31909, 8.40462, 23.0127, 17.2942, 90.5797, -109.216, -7.16391, 67.1284, -147.106, 15.6021, -105.511, -81.4145
2.672, -1, -6.39674, 8.364, 23.0316, 17.3022, 90.5406, -109.318, -7.16391, 67.1284, -147.106, 15.6021, -105.511, -81.4145
2.676, -1, -6.47441, 8.32337, 23.0505, 17.3102, 90.5015, -109.42, -7.16391, 67.1284, -147.106, 15.6021, -105.511, -81.4145
2.679, -1, -6.5521, 8.28272, 23.0694, 17.3183, 90.4624, -109.522, -7.16391, 67.1284, -147.106, 15.6021, -105.511, -81.4145
2.684, -1, -6.62981, 8.24207, 23.0883, 17.3263, 90.4232, -109.624, -7.16391, 67.1284, -147.106, 15.6021, -105.511, -81.4145
2.688, -1, -6.70754, 8.20141, 23.1072, 17.3343, 90.3841, -109.726, -7.16391, 67.1284, -147.106, 15.6021, -105.511, -81.4145
2.692, -1, -6.78529, 8.16074, 23.1261, 17.3423, 90.345, -109.828, -7.16391, 67.1284, -147.106, 15.6021, -105.511, -81.4145
2.696, -1, -6.86306, 8.12005, 23.145, 17.3504, 90.3058, -109.93, -7.16391, 67.1284, -147.106, 15.6021, -105.511, -81.4145
2.699, -1, -6.94086, 8.07935, 23.164, 17.3584, 90.2666, -110.032, -7.16391, 67.1284, -147.106, 15.6021, -105.511, -81.4145
2.704, -1, -7.01868, 8.03864, 23.1829, 17.3665, 90.2275, -110.135, -7.16391, 67.1284, -147.106, 15.6021, -105.511, -81.4145
2.708, -1, -7.09651, 7.99792, 23.2018, 17.3745, 90.1883, -110.237, -7.16391, 67.1284, -147.106, 15.6021, -105.511, -81.4145
2.712, -1, -7.17437, 7.95719, 23.2208, 17.3825, 90.1491, -110.339, -7.16391, 67.1284, -147.106, 15.6021, -105.511, -81.4145
2.716, -1, -7.25225, 7.91645, 23.2397, 17.3906, 90.1099, -110.441, -7.16391, 67.1284, -147.106, 15.6021, -105.511, -81.4145
2.719, -1, -7.33015, 7.8757, 23.2587, 17.3986, 90.0707, -110.544, -7.16391, 67.1284, -147.106, 15.6021, -105.511, -81.4145
2.724, -1, -7.40808, 7.83493, 23.2776, 17.4067, 90.0314, -110.646, -7.16391, 67.1284, -147.106, 15.6021, -105.511, -81.4145
2.728, -1, -7.48602, 7.79416, 23.2966, 17.4147, 89.9922, -110.748, -7.16391, 67.1284, -147.106, 15.6021, -105.511, -81.4145
2.732, -1, -7.56399, 7.75337, 23.3156, 17.4228, 89.9529, -110.851, -7.16391, 67.1284, -147.106, 15.6021, -105.511, -81.4145
2.735, -1, -7.64198, 7.71258, 23.3346, 17.4308, 89.9137, -110.953, -7.16391, 67.1284, -147.106, 15.6021, -105.511, -81.4145
2.74, -1, -7.71999, 7.67177, 23.3535, 17.4389, 89.8744, -111.056, -7.16391, 67.1284, -147.106, 15.6021, -105.511, -81.4145
2.744, -1, -7.79802, 7.63095, 23.3725, 17.447, 89.8351, -111.158, -7.16391, 67.1284, -147.106, 15.6021, -105.511, -81.4145
2.748, -1, -7.87608, 7.59011, 23.3915, 17.455, 89.7958, -111.261, -7.16391, 67.1284, -147.106, 15.6021, -105.511, -81.4145
2.752, -1, -7.95415, 7.54927, 23.4105, 17.4631, 89.7565, -111.363, -7.16391, 67.1284, -147.106, 15.6021, -105.511, -81.4145
2.755, -1, -8.03225, 7.50842, 23.4295, 17.4712, 89.7172, -111.466, -7.16391, 67.1284, -147.106, 15.6021, -105.511, -81.4145
2.76, -1, -8.11037, 7.46755, 23.4485, 17.4792, 89.6779, -111.568, -7.16391, 67.1284, -147.106, 15.6021, -105.511, -81.4145
2.764, -1, -8.18851, 7.42667, 23.4675, 17.4873, 89.6385, -111.671, -7.16391, 67.1284, -147.106, 15.6021, -105.511, -81.4145
2.768, -1, -8.26668, 7.38578, 23.4865, 17.4954, 89.5992, -111.774, -7.16391, 67.1284, -147.106, 15.6021, -105.511, -81.4145
2.772, -1, -8.34486, 7.34488, 23.5056, 17.5035, 89.5598, -111.876, -7.16391, 67.1284, -147.106, 15.6021, -105.511, -81.4145
2.775, -1, -8.42307, 7.30397, 23.5246, 17.5115, 89.5204, -111.979, -7.16391, 67.1284, -147.106, 15.6021, -105.511, -81.4145
2.78, -1, -8.5013, 7.26305, 23.5436, 17.5196, 89.4811, -112.082, -7.16391, 67.1284, -147.106, 15.6021, -105.511, -81.4145
2.784, -1, -8.57955, 7.22211, 23.5627, 17.5277, 89.4417, -112.184, -7.16391, 67.1284, -147.106, 15.6021, -105.511, -81.4145
2.788, -1, -8.65782, 7.18117, 23.5817, 17.5358, 89.4023, -112.287, -7.16391, 67.1284, -147.106, 15.6021, -105.511, -81.4145
2.791, -1, -8.73612, 7.14021, 23.6008, 17.5439, 89.3628, -112.39, -7.16391, 67.1284, -147.106, 15.6021, -105.511, -81.4145
2.796, -1, -8.81444, 7.09924, 23.6198, 17.552, 89.3234, -112.493, -7.16391, 67.1284, -147.106, 15.6021, -105.511, -81.4145
2.8, -1, -8.89278, 7.05826, 23.6389, 17.5601, 89.284, -112.596, -7.16391, 67.1284, -147.106, 15.6021, -105.511, -81.4145
2.804, -1, -8.97114, 7.01726, 23.6579, 17.5681, 89.2445, -112.699, -7.16391, 67.1284, -147.106, 15.6021, -105.511, -81.4145
2.808, -1, -9.04952, 6.97626, 23.677, 17.5762, 89.2051, -112.802, -7.16391, 67.1284, -147.106, 15.6021, -105.511, -81.4145
2.811, -1, -9.12793, 6.93524, 23.6961, 17.5843, 89.1656, -112.905, -7.16391, 67.1284, -147.106, 15.6021, -105.511, -81.4145
2.816, -1, -9.20636, 6.89421, 23.7152, 17.5924, 89.1261, -113.008, -7.16391, 67.1284, -147.106, 15.6021, -105.511, -81.4145
2.82, -1, -9.28481, 6.85317, 23.7343, 17.6006, 89.0866, -113.111, -7.16391, 67.1284, -147.106, 15.6021, -105.511, -81.4145
2.824, -1, -9.36329, 6.81212, 23.7533, 17.6087, 89.0471, -113.214, -7.16391, 67.1284, -147.106, 15.6021, -105.511, -81.4145
2.828, -1, -9.44178, 6.77106, 23.7724, 17.6168, 89.0076, -113.317, -7.16391, 67.1284, -147.106, 15.6021, -105.511, -81.4145
2.831, -1, -9.5203, 6.72998, 23.7915, 17.6249, 88.9681, -113.42, -7.16391, 67.1284, -147.106, 15.6021, -105.511, -81.4145
2.836, -1, -9.59884, 6.6889, 23.8107, 17.633, 88.9285, -113.523, -7.16391, 67.1284, -147.106, 15.6021, -105.511, -81.4145
2.84, -1, -9.6774, 6.6478, 23.8298, 17.6411, 88.889, -113.626, -7.16391, 67.1284, -147.106, 15.6021, -105.511, -81.4145
2.844, -1, -9.75599, 6.60669, 23.8489, 17.6492, 88.8494, -113.729, -7.16391, 67.1284, -147.106, 15.6021, -105.511, -81.4145
2.847, -1, -9.8346, 6.56557, 23.868, 17.6573, 88.8098, -113.833, -7.16391, 67.1284, -147.106, 15.6021, -105.511, -81.4145
2.852, -1, -9.91323, 6.52443, 23.8872, 17.6655, 88.7702, -113.936, -7.16391, 67.1284, -147.106, 15.6021, -105.511, -81.4145
2.856, -1, -9.99188, 6.48329, 23.9063, 17.6736, 88.7306, -114.039, -7.16391, 67.1284, -147.106, 15.6021, -105.511, -81.4145
2.86, -1, -10.0706, 6.44213, 23.9254, 17.6817, 88.691, -114.142, -7.16391, 67.1284, -147.106, 15.6021, -105.511, -81.4145
2.864, -1, -10.1493, 6.40096, 23.9446, 17.6899, 88.6514, -114.246, -7.16391, 67.1284, -147.106, 15.6021, -105.511, -81.4145
2.867, -1, -10.228, 6.35978, 23.9637, 17.698, 88.6118, -114.349, -7.16391, 67.1284, -147.106, 15.6021, -105.511, -81.4145
2.872, -1, -10.3067, 6.31859, 23.9829, 17.7061, 88.5721, -114.453, -7.16391, 67.1284, -147.106, 15.6021, -105.511, -81.4145
2.876, -1, -10.3855, 6.27738, 24.0021, 17.7143, 88.5325, -114.556, -7.16391, 67.1284, -147.106, 15.6021, -105.511, -81.4145
2.88, -1, -10.4643, 6.23616, 24.0212, 17.7224, 88.4928, -114.659, -7.16391, 67.1284, -147.106, 15.6021, -105.511, -81.4145
2.883, -1, -10.5431, 6.19494, 24.0404, 17.7305, 88.4531, -114.763, -7.16391, 67.1284, -147.106, 15.6021, -105.511, -81.4145
2.888, -1, -10.6219, 6.1537, 24.0596, 17.7387, 88.4135, -114.866, -7.16391, 67.1284, -147.106, 15.6021, -105.511, -81.4145
2.892, -1, -10.7008, 6.11244, 24.0788, 17.7468, 88.3738, -114.97, -7.16391, 67.1284, -147.106, 15.6021, -105.511, -81.4145
2.896, -1, -10.7797, 6.07118, 24.098, 17.755, 88.334, -115.074, -7.16391, 67.1284, -147.106, 15.6021, -105.511, -81.4145
2.9, -1, -10.8586, 6.0299, 24.1172, 17.7631, 88.2943, -115.177, -7.16391, 67.1284, -147.106, 15.6021, -105.511, -81.4145
2.903, -1, -10.9375, 5.98862, 24.1364, 17.7713, 88.2546, -115.281, -7.16391, 67.1284, -147.106, 15.6021, -105.511, -81.4145
2.908, -1, -11.0164, 5.94732, 24.1556, 17.7794, 88.2148, -115.385, -7.16391, 67.1284, -147.106, 15.6021, -105.511, -81.4145
2.912, -1, -11.0954, 5.906, 24.1748, 17.7876, 88.1751, -115.488, -7.16391, 67.1284, -147.106, 15.6021, -105.511, -81.4145
2.916, -1, -11.1744, 5.86468, 24.194, 17.7958, 88.1353, -115.592, -7.16391, 67.1284, -147.106, 15.6021, -105.511, -81.4145
2.92, -1, -11.2534, 5.82335, 24.2132, 17.8039, 88.0955, -115.696, -7.16391, 67.1284, -147.106, 15.6021, -105.511, -81.4145
2.923, -1, -11.3325, 5.782, 24.2325, 17.8121, 88.0557, -115.8, -7.16391, 67.1284, -147.106, 15.6021, -105.511, -81.4145
2.928, -1, -11.4115, 5.74064, 24.2517, 17.8203, 88.0159, -115.903, -7.16391, 67.1284, -147.106, 15.6021, -105.511, -81.4145
2.932, -1, -11.4906, 5.69927, 24.2709, 17.8284, 87.9761, -116.007, -7.16391, 67.1284, -147.106, 15.6021, -105.511, -81.4145
2.936, -1, -11.5697, 5.65788, 24.2902, 17.8366, 87.9363, -116.111, -7.16391, 67.1284, -147.106, 15.6021, -105.511, -81.4145
2.939, -1, -11.6488, 5.61649, 24.3094, 17.8448, 87.8965, -116.215, -7.16391, 67.1284, -147.106, 15.6021, -105.511, -81.4145
2.944, -1, -11.728, 5.57508, 24.3287, 17.8529, 87.8566, -116.319, -7.16391, 67.1284, -147.106, 15.6021, -105.511, -81.4145
2.948, -1, -11.8072, 5.53366, 24.348, 17.8611, 87.8168, -116.423, -7.16391, 67.1284, -147.106, 15.6021, -105.511, -81.4145
2.952, -1, -11.8864, 5.49223, 24.3672, 17.8693, 87.7769, -116.527, -7.16391, 67.1284, -147.106, 15.6021, -105.511, -81.4145
2.956, -1, -11.9656, 5.45079, 24.3865, 17.8775, 87.737, -116.631, -7.16391, 67.1284, -147.106, 15.6021, -105.511, -81.4145
2.959, -1, -12.0448, 5.40933, 24.4058, 17.8857, 87.6971, -116.735, -7.16391, 67.1284, -147.106, 15.6021, -105.511, -81.4145
2.964, -1, -12.1241, 5.36787, 24.4251, 17.8939, 87.6572, -116.839, -7.16391, 67.1284, -147.106, 15.6021, -105.511, -81.4145
2.968, -1, -12.2034, 5.32639, 24.4444, 17.9021, 87.6173, -116.943, -7.16391, 67.1284, -147.106, 15.6021, -105.511, -81.4145
2.972, -1, -12.2827, 5.28489, 24.4637, 17.9102, 87.5773, -117.047, -7.16391, 67.1284, -147.106, 15.6021, -105.511, -81.4145
2.976, -1, -12.3621, 5.24339, 24.483, 17.9184, 87.5374, -117.152, -7.16391, 67.1284, -147.106, 15.6021, -105.511, -81.4145
2.98, -1, -12.4414, 5.20187, 24.5023, 17.9266, 87.4975, -117.256, -7.16391, 67.1284, -147.106, 15.6021, -105.511, -81.4145
2.984, -1, -12.5208, 5.16035, 24.5216, 17.9348, 87.4575, -117.36, -7.16391, 67.1284, -147.106, 15.6021, -105.511, -81.4145
2.988, -1, -12.6002, 5.11881, 24.5409, 17.943, 87.4175, -117.464, -7.16391, 67.1284, -147.106, 15.6021, -105.511, -81.4145
2.992, -1, -12.6796, 5.07726, 24.5602, 17.9513, 87.3775, -117.569, -7.16391, 67.1284, -147.106, 15.6021, -105.511, -81.4145
2.995, -1, -12.7591, 5.03569, 24.5796, 17.9595, 87.3375, -117.673, -7.16391, 67.1284, -147.106, 15.6021, -105.511, -81.4145
3, -1, -12.8386, 4.99411, 24.5989, 17.9677, 87.2975, -117.777, -7.16391, 67.1284, -147.106, 15.6021, -105.511, -81.4145
3.004, -1, -12.9181, 4.95253, 24.6182, 17.9759, 87.2575, -117.882, -7.16391, 67.1284, -147.106, 15.6021, -105.511, -81.4145
3.008, -1, -12.9976, 4.91093, 24.6376, 17.9841, 87.2174, -117.986, -7.16391, 67.1284, -147.106, 15.6021, -105.511, -81.4145
3.012, -1, -13.0771, 4.86931, 24.6569, 17.9923, 87.1774, -118.091, -7.16391, 67.1284, -147.106, 15.6021, -105.511, -81.4145
3.015, -1, -13.1567, 4.82769, 24.6763, 18.0005, 87.1373, -118.195, -7.16391, 67.1284, -147.106, 15.6021, -105.511, -81.4145
3.02, -1, -13.2363, 4.78605, 24.6957, 18.0088, 87.0973, -118.3, -7.16391, 67.1284, -147.106, 15.6021, -105.511, -81.4145
3.024, -1, -13.3159, 4.7444, 24.715, 18.017, 87.0572, -118.404, -7.16391, 67.1284, -147.106, 15.6021, -105.511, -81.4145
3.028, -1, -13.3956, 4.70274, 24.7344, 18.0252, 87.0171, -118.509, -7.16391, 67.1284, -147.106, 15.6021, -105.511, -81.4145
3.031, -1, -13.4752, 4.66107, 24.7538, 18.0334, 86.977, -118.613, -7.16391, 67.1284, -147.106, 15.6021, -105.511, -81.4145
3.036, -1, -13.5549, 4.61938, 24.7732, 18.0417, 86.9369, -118.718, -7.16391, 67.1284, -147.106, 15.6021, -105.511, -81.4145
3.04, -1, -13.6346, 4.57768, 24.7926, 18.0499, 86.8967, -118.823, -7.16391, 67.1284, -147.106, 15.6021, -105.511, -81.4145
3.044, -1, -13.7143, 4.53597, 24.812, 18.0581, 86.8566, -118.927, -7.16391, 67.1284, -147.106, 15.6021, -105.511, -81.4145
3.048, -1, -13.7941, 4.49425, 24.8314, 18.0664, 86.8165, -119.032, -7.16391, 67.1284, -147.106, 15.6021, -105.511, -81.4145
3.051, -1, -13.8739, 4.45252, 24.8508, 18.0746, 86.7763, -119.137, -7.16391, 67.1284, -147.106, 15.6021, -105.511, -81.4145
3.056, -1, -13.9537, 4.41077, 24.8702, 18.0829, 86.7361, -119.242, -7.16391, 67.1284, -147.106, 15.6021, -105.511, -81.4145
3.06, -1, -14.0335, 4.36901, 24.8896, 18.0911, 86.6959, -119.347, -7.16391, 67.1284, -147.106, 15.6021, -105.511, -81.4145
3.064, -1, -14.1134, 4.32724, 24.9091, 18.0994, 86.6557, -119.451, -7.16391, 67.1284, -147.106, 15.6021, -105.511, -81.4145
3.068, -1, -14.1932, 4.28545, 24.9285, 18.1076, 86.6155, -119.556, -7.16391, 67.1284, -147.106, 15.6021, -105.511, -81.4145
3.071, -1, -14.2731, 4.24366, 24.9479, 18.1159, 86.5753, -119.661, -7.16391, 67.1284, -147.106, 15.6021, -105.511, -81.4145
3.076, -1, -14.3531, 4.20185, 24.9674, 18.1241, 86.535, -119.766, -7.16391, 67.1284, -147.106, 15.6021, -105.511, -81.4145
3.08, -1, -14.433, 4.16003, 24.9868, 18.1324, 86.4948, -119.871, -7.16391, 67.1284, -147.106, 15.6021, -105.511, -81.4145
3.084, -1, -14.513, 4.11819, 25.0063, 18.1406, 86.4545, -119.976, -7.16391, 67.1284, -147.106, 15.6021, -105.511, -81.4145
3.087, -1, -14.593, 4.07635, 25.0257, 18.1489, 86.4143, -120.081, -7.16391, 67.1284, -147.106, 15.6021, -105.511, -81.4145
3.092, -1, -14.673, 4.03449, 25.0452, 18.1572, 86.374, -120.186, -7.16391, 67.1284, -147.106, 15.6021, -105.511, -81.4145
3.096, -1, -14.753, 3.99262, 25.0647, 18.1654, 86.3337, -120.291, -7.16391, 67.1284, -147.106, 15.6021, -105.511, -81.4145
3.1, -1, -14.8331, 3.95074, 25.0842, 18.1737, 86.2934, -120.397, -7.16391, 67.1284, -147.106, 15.6021, -105.511, -81.4145
3.104, -1, -14.9132, 3.90884, 25.1037, 18.182, 86.2531, -120.502, -7.16391, 67.1284, -147.106, 15.6021, -105.511, -81.4145
3.107, -1, -14.9933, 3.86693, 25.1231, 18.1903, 86.2127, -120.607, -7.16391, 67.1284, -147.106, 15.6021, -105.511, -81.4145
3.112, -1, -15.0734, 3.82501, 25.1426, 18.1985, 86.1724, -120.712, -7.16391, 67.1284, -147.106, 15.6021, -105.511, -81.4145
3.116, -1, -15.1536, 3.78308, 25.1621, 18.2068, 86.132, -120.817, -7.16391, 67.1284, -147.106, 15.6021, -105.511, -81.4145
3.12, -1, -15.2337, 3.74114, 25.1817, 18.2151, 86.0917, -120.923, -7.16391, 67.1284, -147.106, 15.6021, -105.511, -81.4145
3.124, -1, -15.314, 3.69918, 25.2012, 18.2234, 86.0513, -121.028, -7.16391, 67.1284, -147.106, 15.6021, -105.511, -81.4145
3.128, -1, -15.3942, 3.65721, 25.2207, 18.2317, 86.0109, -121.133, -7.16391, 67.1284, -147.106, 15.6021, -105.511, -81.4145
3.132, -1, -15.4744, 3.61523, 25.2402, 18.24, 85.9705, -121.239, -7.16391, 67.1284, -147.106, 15.6021, -105.511, -81.4145
3.136, -1, -15.5547, 3.57323, 25.2597, 18.2483, 85.9301, -121.344, -7.16391, 67.1284, -147.106, 15.6021, -105.511, -81.4145
3.14, -1, -15.635, 3.53122, 25.2793, 18.2566, 85.8897, -121.45, -7.16391, 67.1284, -147.106, 15.6021, -105.511, -81.4145
3.143, -1, -15.7153, 3.48921, 25.2988, 18.2649, 85.8492, -121.555, -7.16391, 67.1284, -147.106, 15.6021, -105.511, -81.4145
3.148, -1, -15.7957, 3.44717, 25.3184, 18.2732, 85.8088, -121.661, -7.16391, 67.1284, -147.106, 15.6021, -105.511, -81.4145
3.152, -1, -15.8761, 3.40513, 25.3379, 18.2815, 85.7683, -121.766, -7.16391, 67.1284, -147.106, 15.6021, -105.511, -81.4145
3.156, -1, -15.9565, 3.36307, 25.3575, 18.2898, 85.7278, -121.872, -7.16391, 67.1284, -147.106, 15.6021, -105.511, -81.4145
3.16, -1, -16.0369, 3.321, 25.3771, 18.2981, 85.6873, -121.977, -7.16391, 67.1284, -147.106, 15.6021, -105.511, -81.4145
3.163, -1, -16.1173, 3.27892, 25.3966, 18.3064, 85.6468, -122.083, -7.16391, 67.1284, -147.106, 15.6021, -105.511, -81.4145
3.168, -1, -16.1978, 3.23682, 25.4162, 18.3147, 85.6063, -122.189, -7.16391, 67.1284, -147.106, 15.6021, -105.511, -81.4145
3.172, -1, -16.2783, 3.19471, 25.4358, 18.323, 85.5658, -122.294, -7.16391, 67.1284, -147.106, 15.6021, -105.511, -81.4145
3.176, -1, -16.3588, 3.15259, 25.4554, 18.3313, 85.5253, -122.4, -7.16391, 67.1284, -147.106, 15.6021, -105.511, -81.4145
3.179, -1, -16.4393, 3.11046, 25.475, 18.3396, 85.4847, -122.506, -7.16391, 67.1284, -147.106, 15.6021, -105.511, -81.4145
3.184, -1, -16.5199, 3.06831, 25.4946, 18.348, 85.4442, -122.612, -7.16391, 67.1284, -147.106, 15.6021, -105.511, -81.4145
3.188, -1, -16.6005, 3.02615, 25.5142, 18.3563, 85.4036, -122.718, -7.16391, 67.1284, -147.106, 15.6021, -105.511, -81.4145
3.192, -1, -16.6811, 2.98398, 25.5338, 18.3646, 85.363, -122.823, -7.16391, 67.1284, -147.106, 15.6021, -105.511, -81.4145
3.196, -1, -16.7618, 2.9418, 25.5534, 18.373, 85.3224, -122.929, -7.16391, 67.1284, -147.106, 15.6021, -105.511, -81.4145
3.199, -1, -16.8424, 2.8996, 25.573, 18.3813, 85.2818, -123.035, -7.16391, 67.1284, -147.106, 15.6021, -105.511, -81.4145
3.204, -1, -16.9231, 2.85739, 25.5927, 18.3896, 85.2412, -123.141, -7.16391, 67.1284, -147.106, 15.6021, -105.511, -81.4145
3.208, -1, -17.0038, 2.81516, 25.6123, 18.398, 85.2005, -123.247, -7.16391, 67.1284, -147.106, 15.6021, -105.511, -81.4145
3.212, -1, -17.0846, 2.77293, 25.632, 18.4063, 85.1599, -123.353, -7.16391, 67.1284, -147.106, 15.6021, -105.511, -81.4145
3.216, -1, -17.1653, 2.73068, 25.6516, 18.4146, 85.1192, -123.459, -7.16391, 67.1284, -147.106, 15.6021, -105.511, -81.4145
3.22, -1, -17.2461, 2.68842, 25.6713, 18.423, 85.0786, -123.565, -7.16391, 67.1284, -147.106, 15.6021, -105.511, -81.4145
3.224, -1, -17.3269, 2.64614, 25.6909, 18.4313, 85.0379, -123.672, -7.16391, 67.1284, -147.106, 15.6021, -105.511, -81.4145
3.228, -1, -17.4078, 2.60385, 25.7106, 18.4397, 84.9972, -123.778, -7.16391, 67.1284, -147.106, 15.6021, -105.511, -81.4145
3.232, -1, -17.4886, 2.56155, 25.7303, 18.448, 84.9565, -123.884, -7.16391, 67.1284, -147.106, 15.6021, -105.511, -81.4145
3.235, -1, -17.5695, 2.51924, 25.75, 18.4564, 84.9158, -123.99, -7.16391, 67.1284, -147.106, 15.6021, -105.511, -81.4145
3.24, -1, -17.6504, 2.47691, 25.7696, 18.4648, 84.875, -124.096, -7.16391, 67.1284, -147.106, 15.6021, -105.511, -81.4145
3.244, -1, -17.7314, 2.43457, 25.7893, 18.4731, 84.8343, -124.203, -7.16391, 67.1284, -147.106, 15.6021, -105.511, -81.4145
3.248, -1, -17.8123, 2.39221, 25.809, 18.4815, 84.7935, -124.309, -7.16391, 67.1284, -147.106, 15.6021, -105.511, -81.4145
3.252, -1, -17.8933, 2.34985, 25.8287, 18.4899, 84.7527, -124.415, -7.16391, 67.1284, -147.106, 15.6021, -105.511, -81.4145
