hehonglu123/Motion-Primitive-Planning/simulation/robotstudio_sim/multimove/log.csv
timestamp, cmd_num, J1, J2, J3, J4, J5, J6, J1_2, J2_2, J3_2, J4_2, J5_2, J6_2
0.002, -1, -33.569, -1.91467, 23.1948, -159.946, -92.5335, 54.8148, -93.9614, 92.9471, 33.3244, 169.755, -113.846, 175.553
0.006, -1, -33.569, -1.91467, 23.1948, -159.946, -92.5335, 54.8148, -93.9614, 92.9471, 33.3244, 169.755, -113.846, 175.553
0.01, -1, -33.569, -1.91467, 23.1948, -159.946, -92.5335, 54.8148, -93.9614, 92.9471, 33.3244, 169.755, -113.846, 175.553
0.011, -1, -33.569, -1.91467, 23.1948, -159.946, -92.5335, 54.8148, -93.9614, 92.9471, 33.3244, 169.755, -113.846, 175.553
0.013, -1, -33.569, -1.91467, 23.1948, -159.946, -92.5335, 54.8148, -93.9614, 92.9471, 33.3244, 169.755, -113.846, 175.553
0.016, -1, -33.569, -1.91467, 23.1948, -159.946, -92.5335, 54.8148, -93.9614, 92.9471, 33.3244, 169.755, -113.846, 175.553
0.02, -1, -33.569, -1.91467, 23.1948, -159.946, -92.5335, 54.8148, -93.9614, 92.9471, 33.3244, 169.755, -113.846, 175.553
0.024, -1, -33.569, -1.91467, 23.1948, -159.946, -92.5335, 54.8148, -93.9614, 92.9471, 33.3244, 169.755, -113.846, 175.553
0.028, -1, -33.569, -1.91467, 23.1948, -159.946, -92.5335, 54.8148, -93.9614, 92.9471, 33.3244, 169.755, -113.846, 175.553
0.032, -1, -33.569, -1.91467, 23.1948, -159.946, -92.5335, 54.8148, -93.9614, 92.9471, 33.3244, 169.755, -113.846, 175.553
0.036, -1, -33.569, -1.91467, 23.1948, -159.946, -92.5335, 54.8148, -93.9614, 92.9471, 33.3244, 169.755, -113.846, 175.553
0.04, -1, -33.569, -1.91467, 23.1948, -159.946, -92.5335, 54.8148, -93.9614, 92.9471, 33.3244, 169.755, -113.846, 175.553
0.044, -1, -33.569, -1.91467, 23.1948, -159.946, -92.5335, 54.8148, -93.9614, 92.9471, 33.3244, 169.755, -113.846, 175.553
0.048, -1, -33.569, -1.91467, 23.1948, -159.946, -92.5335, 54.8148, -93.9614, 92.9471, 33.3244, 169.755, -113.846, 175.553
0.052, -1, -33.569, -1.91467, 23.1948, -159.946, -92.5335, 54.8148, -93.9613, 92.947, 33.3244, 169.755, -113.846, 175.553
0.056, -1, -33.569, -1.91467, 23.1948, -159.946, -92.5335, 54.8148, -93.9611, 92.9469, 33.3243, 169.755, -113.846, 175.553
0.06, -1, -33.569, -1.91467, 23.1948, -159.946, -92.5335, 54.8148, -93.9603, 92.9464, 33.3241, 169.755, -113.846, 175.553
0.064, -1, -33.569, -1.91467, 23.1948, -159.946, -92.5335, 54.8148, -93.9585, 92.945, 33.3234, 169.754, -113.846, 175.551
0.068, -1, -33.569, -1.91467, 23.1948, -159.946, -92.5335, 54.8148, -93.9549, 92.9423, 33.3222, 169.751, -113.846, 175.548
0.072, -1, -33.569, -1.91467, 23.1948, -159.946, -92.5335, 54.8148, -93.9488, 92.9375, 33.3202, 169.746, -113.845, 175.54
0.076, -1, -33.569, -1.91467, 23.1948, -159.946, -92.5335, 54.8148, -93.9392, 92.9295, 33.317, 169.736, -113.844, 175.525
0.08, -1, -33.569, -1.91467, 23.1948, -159.946, -92.5335, 54.8148, -93.9249, 92.9171, 33.3123, 169.719, -113.843, 175.499
0.084, -1, -33.569, -1.91467, 23.1948, -159.946, -92.5335, 54.8148, -93.9049, 92.8991, 33.3059, 169.693, -113.841, 175.458
0.088, -1, -33.569, -1.91467, 23.1948, -159.946, -92.5335, 54.8148, -93.8776, 92.874, 33.2971, 169.655, -113.837, 175.398
0.092, -1, -33.569, -1.91467, 23.1948, -159.946, -92.5335, 54.8148, -93.8418, 92.8402, 33.2857, 169.601, -113.832, 175.314
0.096, -1, -33.569, -1.91467, 23.1948, -159.946, -92.5335, 54.8148, -93.7958, 92.796, 33.2711, 169.528, -113.826, 175.201
0.1, -1, -33.569, -1.91467, 23.1948, -159.946, -92.5335, 54.8148, -93.738, 92.7399, 33.2529, 169.435, -113.818, 175.055
0.104, -1, -33.569, -1.91467, 23.1948, -159.946, -92.5335, 54.8148, -93.6672, 92.6705, 33.2306, 169.317, -113.807, 174.871
0.108, -1, -33.569, -1.91467, 23.1948, -159.946, -92.5335, 54.8148, -93.5825, 92.5868, 33.204, 169.173, -113.794, 174.646
0.112, -1, -33.569, -1.91467, 23.1948, -159.946, -92.5335, 54.8148, -93.4833, 92.4878, 33.1729, 169.001, -113.778, 174.376
0.116, -1, -33.569, -1.91467, 23.1948, -159.946, -92.5335, 54.8148, -93.3692, 92.373, 33.1372, 168.8, -113.76, 174.061
0.12, -1, -33.569, -1.91467, 23.1948, -159.946, -92.5335, 54.8148, -93.2402, 92.2425, 33.0969, 168.569, -113.739, 173.698
0.124, -1, -33.569, -1.91467, 23.1948, -159.946, -92.5335, 54.8148, -93.0965, 92.0964, 33.0521, 168.308, -113.715, 173.29
0.128, -1, -33.569, -1.91467, 23.1948, -159.946, -92.5335, 54.8148, -92.939, 91.9356, 33.0029, 168.021, -113.689, 172.838
0.131, -1, -33.569, -1.91467, 23.1948, -159.946, -92.5335, 54.8148, -92.7682, 91.7609, 32.9496, 167.708, -113.66, 172.347
0.136, -1, -33.569, -1.91467, 23.1948, -159.946, -92.5335, 54.8148, -92.5854, 91.5736, 32.8924, 167.372, -113.629, 171.819
0.139, -1, -33.569, -1.91467, 23.1948, -159.946, -92.5335, 54.8148, -92.3919, 91.3754, 32.8319, 167.016, -113.596, 171.261
0.144, -1, -33.569, -1.91467, 23.1948, -159.946, -92.5335, 54.8148, -92.1894, 91.1678, 32.7684, 166.644, -113.562, 170.677
0.148, -1, -33.569, -1.91467, 23.1948, -159.946, -92.5335, 54.8148, -91.9796, 90.9527, 32.7026, 166.259, -113.527, 170.072
0.152, -1, -33.569, -1.91467, 23.1948, -159.946, -92.5335, 54.8148, -91.7639, 90.7317, 32.6349, 165.863, -113.491, 169.451
0.156, -1, -33.569, -1.91467, 23.1948, -159.946, -92.5335, 54.8148, -91.5438, 90.5063, 32.5657, 165.46, -113.454, 168.819
0.16, -1, -33.569, -1.91467, 23.1948, -159.946, -92.5335, 54.8148, -91.3203, 90.2779, 32.4953, 165.053, -113.417, 168.181
0.164, -1, -33.569, -1.91467, 23.1948, -159.946, -92.5335, 54.8148, -91.0947, 90.0476, 32.4242, 164.644, -113.379, 167.538
0.168, -1, -33.569, -1.91467, 23.1948, -159.946, -92.5335, 54.8148, -90.8677, 89.8164, 32.3526, 164.234, -113.342, 166.896
0.172, -1, -33.569, -1.91467, 23.1948, -159.946, -92.5335, 54.8148, -90.6401, 89.585, 32.2808, 163.825, -113.304, 166.254
0.176, -1, -33.569, -1.91467, 23.1948, -159.946, -92.5335, 54.8148, -90.4125, 89.3539, 32.2089, 163.417, -113.267, 165.614
0.18, -1, -33.569, -1.91467, 23.1948, -159.946, -92.5335, 54.8148, -90.1854, 89.1235, 32.1372, 163.011, -113.23, 164.977
0.184, -1, -33.569, -1.91467, 23.1948, -159.946, -92.5335, 54.8148, -89.9591, 88.8939, 32.0657, 162.606, -113.193, 164.342
0.188, -1, -33.569, -1.91467, 23.1948, -159.946, -92.5335, 54.8148, -89.7338, 88.6654, 31.9946, 162.203, -113.156, 163.71
0.192, -1, -33.569, -1.91467, 23.1948, -159.946, -92.5335, 54.8148, -89.5094, 88.4377, 31.9237, 161.802, -113.119, 163.081
0.196, -1, -33.569, -1.91467, 23.1948, -159.946, -92.5335, 54.8148, -89.2859, 88.2111, 31.8531, 161.402, -113.083, 162.454
0.2, -1, -33.569, -1.91467, 23.1948, -159.946, -92.5335, 54.8148, -89.0634, 87.9853, 31.7829, 161.004, -113.046, 161.831
0.204, -1, -33.569, -1.91467, 23.1948, -159.946, -92.5335, 54.8148, -88.8418, 87.7606, 31.7129, 160.608, -113.01, 161.209
0.208, -1, -33.569, -1.91467, 23.1948, -159.946, -92.5335, 54.8148, -88.6211, 87.5367, 31.6432, 160.213, -112.974, 160.59
0.212, -1, -33.569, -1.91467, 23.1948, -159.946, -92.5335, 54.8148, -88.4013, 87.3138, 31.5738, 159.82, -112.938, 159.974
0.216, -1, -33.569, -1.91467, 23.1948, -159.946, -92.5335, 54.8148, -88.1824, 87.0918, 31.5047, 159.429, -112.903, 159.361
0.22, -1, -33.569, -1.91467, 23.1948, -159.946, -92.5335, 54.8148, -87.9644, 86.8708, 31.4359, 159.039, -112.867, 158.75
0.224, -1, -33.569, -1.91467, 23.1948, -159.946, -92.5335, 54.8148, -87.7473, 86.6506, 31.3673, 158.651, -112.832, 158.141
0.228, -1, -33.569, -1.91467, 23.1948, -159.946, -92.5335, 54.8148, -87.5311, 86.4313, 31.299, 158.265, -112.796, 157.535
0.232, -1, -33.569, -1.91467, 23.1948, -159.946, -92.5335, 54.8148, -87.3158, 86.2129, 31.231, 157.88, -112.761, 156.931
0.236, -1, -33.569, -1.91467, 23.1948, -159.946, -92.5335, 54.8148, -87.1013, 85.9954, 31.1633, 157.496, -112.726, 156.33
0.24, -1, -33.569, -1.91467, 23.1948, -159.946, -92.5335, 54.8148, -86.8877, 85.7788, 31.0959, 157.114, -112.691, 155.731
0.244, -1, -33.569, -1.91467, 23.1948, -159.946, -92.5335, 54.8148, -86.6749, 85.563, 31.0287, 156.734, -112.656, 155.135
0.248, -1, -33.569, -1.91467, 23.1948, -159.946, -92.5335, 54.8148, -86.463, 85.348, 30.9618, 156.355, -112.622, 154.54
0.252, -1, -33.569, -1.91467, 23.1948, -159.946, -92.5335, 54.8148, -86.2519, 85.134, 30.8951, 155.978, -112.587, 153.949
0.256, -1, -33.569, -1.91467, 23.1948, -159.946, -92.5335, 54.8148, -86.0417, 84.9207, 30.8287, 155.602, -112.553, 153.359
0.26, -1, -33.569, -1.91467, 23.1948, -159.946, -92.5335, 54.8148, -85.8322, 84.7083, 30.7626, 155.227, -112.519, 152.772
0.264, -1, -33.569, -1.91467, 23.1948, -159.946, -92.5335, 54.8148, -85.6236, 84.4967, 30.6967, 154.854, -112.485, 152.187
0.268, -1, -33.569, -1.91467, 23.1948, -159.946, -92.5335, 54.8148, -85.4158, 84.2859, 30.6311, 154.483, -112.451, 151.605
0.272, -1, -33.569, -1.91467, 23.1948, -159.946, -92.5335, 54.8148, -85.2087, 84.076, 30.5657, 154.113, -112.417, 151.024
0.276, -1, -33.569, -1.91467, 23.1948, -159.946, -92.5335, 54.8148, -85.0025, 83.8668, 30.5006, 153.744, -112.383, 150.446
0.28, -1, -33.569, -1.91467, 23.1948, -159.946, -92.5335, 54.8148, -84.797, 83.6585, 30.4357, 153.377, -112.35, 149.87
0.284, -1, -33.569, -1.91467, 23.1948, -159.946, -92.5335, 54.8148, -84.5924, 83.4509, 30.3711, 153.011, -112.316, 149.296
0.288, -1, -33.569, -1.91467, 23.1948, -159.946, -92.5335, 54.8148, -84.3885, 83.2441, 30.3067, 152.646, -112.283, 148.725
0.292, -1, -33.569, -1.91467, 23.1948, -159.946, -92.5335, 54.8148, -84.1853, 83.0381, 30.2426, 152.283, -112.25, 148.155
0.296, -1, -33.569, -1.91467, 23.1948, -159.946, -92.5335, 54.8148, -83.9829, 82.8329, 30.1787, 151.921, -112.217, 147.588
0.3, -1, -33.569, -1.91467, 23.1948, -159.946, -92.5335, 54.8148, -83.7813, 82.6284, 30.115, 151.561, -112.184, 147.023
0.304, -1, -33.569, -1.91467, 23.1948, -159.946, -92.5335, 54.8148, -83.5804, 82.4247, 30.0516, 151.202, -112.151, 146.46
0.308, -1, -33.569, -1.91467, 23.1948, -159.946, -92.5335, 54.8148, -83.3803, 82.2217, 29.9884, 150.844, -112.118, 145.899
0.312, -1, -33.569, -1.91467, 23.1948, -159.946, -92.5335, 54.8148, -83.1809, 82.0195, 29.9254, 150.487, -112.086, 145.34
0.316, -1, -33.569, -1.91467, 23.1948, -159.946, -92.5335, 54.8148, -82.9822, 81.818, 29.8627, 150.132, -112.053, 144.783
0.32, -1, -33.569, -1.91467, 23.1948, -159.946, -92.5335, 54.8148, -82.7842, 81.6173, 29.8002, 149.778, -112.021, 144.228
0.324, -1, -33.569, -1.91467, 23.1948, -159.946, -92.5335, 54.8148, -82.587, 81.4173, 29.7379, 149.426, -111.989, 143.675
0.328, -1, -33.569, -1.91467, 23.1948, -159.946, -92.5335, 54.8148, -82.3904, 81.218, 29.6759, 149.074, -111.957, 143.124
0.332, -1, -33.569, -1.91467, 23.1948, -159.946, -92.5335, 54.8148, -82.1946, 81.0194, 29.614, 148.724, -111.925, 142.575
0.336, -1, -33.569, -1.91467, 23.1948, -159.946, -92.5335, 54.8148, -81.9994, 80.8215, 29.5524, 148.375, -111.893, 142.028
0.34, -1, -33.569, -1.91467, 23.1948, -159.946, -92.5335, 54.8148, -81.805, 80.6243, 29.491, 148.028, -111.861, 141.483
0.344, -1, -33.569, -1.91467, 23.1948, -159.946, -92.5335, 54.8148, -81.6112, 80.4278, 29.4299, 147.681, -111.829, 140.94
0.348, -1, -33.569, -1.91467, 23.1948, -159.946, -92.5335, 54.8148, -81.4181, 80.2319, 29.3689, 147.336, -111.798, 140.398
0.352, -1, -33.569, -1.91467, 23.1948, -159.946, -92.5335, 54.8148, -81.2256, 80.0368, 29.3081, 146.992, -111.766, 139.859
0.356, -1, -33.569, -1.91467, 23.1948, -159.946, -92.5335, 54.8148, -81.0339, 79.8423, 29.2476, 146.649, -111.735, 139.321
0.36, -1, -33.569, -1.91467, 23.1948, -159.946, -92.5335, 54.8148, -80.8428, 79.6485, 29.1873, 146.308, -111.704, 138.785
0.364, -1, -33.569, -1.91467, 23.1948, -159.946, -92.5335, 54.8148, -80.6523, 79.4554, 29.1271, 145.967, -111.673, 138.252
0.368, -1, -33.569, -1.91467, 23.1948, -159.946, -92.5335, 54.8148, -80.4625, 79.2629, 29.0672, 145.628, -111.642, 137.72
0.372, -1, -33.569, -1.91467, 23.1948, -159.946, -92.5335, 54.8148, -80.2733, 79.0711, 29.0075, 145.29, -111.611, 137.189
0.376, -1, -33.569, -1.91467, 23.1948, -159.946, -92.5335, 54.8148, -80.0848, 78.8799, 28.948, 144.953, -111.58, 136.661
0.38, -1, -33.569, -1.91467, 23.1948, -159.946, -92.5335, 54.8148, -79.8969, 78.6894, 28.8886, 144.617, -111.549, 136.134
0.384, -1, -33.569, -1.91467, 23.1948, -159.946, -92.5335, 54.8148, -79.7096, 78.4995, 28.8295, 144.282, -111.519, 135.609
0.388, -1, -33.569, -1.91467, 23.1948, -159.946, -92.5335, 54.8148, -79.5229, 78.3102, 28.7706, 143.948, -111.488, 135.086
0.392, -1, -33.569, -1.91467, 23.1948, -159.946, -92.5335, 54.8148, -79.3369, 78.1215, 28.7118, 143.616, -111.458, 134.564
0.396, -1, -33.569, -1.91467, 23.1948, -159.946, -92.5335, 54.8148, -79.1515, 77.9335, 28.6533, 143.284, -111.428, 134.045
0.4, -1, -33.569, -1.91467, 23.1948, -159.946, -92.5335, 54.8148, -78.9666, 77.7461, 28.595, 142.954, -111.398, 133.527
0.404, -1, -33.569, -1.91467, 23.1948, -159.946, -92.5335, 54.8148, -78.7824, 77.5593, 28.5368, 142.625, -111.367, 133.01
0.408, -1, -33.569, -1.91467, 23.1948, -159.946, -92.5335, 54.8148, -78.5988, 77.3731, 28.4788, 142.296, -111.337, 132.496
0.412, -1, -33.569, -1.91467, 23.1948, -159.946, -92.5335, 54.8148, -78.4158, 77.1875, 28.421, 141.969, -111.308, 131.983
0.416, -1, -33.569, -1.91467, 23.1948, -159.946, -92.5335, 54.8148, -78.2333, 77.0025, 28.3634, 141.643, -111.278, 131.471
0.42, -1, -33.569, -1.91467, 23.1948, -159.946, -92.5335, 54.8148, -78.0514, 76.8181, 28.306, 141.318, -111.248, 130.961
0.424, -1, -33.569, -1.91467, 23.1948, -159.946, -92.5335, 54.8148, -77.8701, 76.6342, 28.2488, 140.994, -111.219, 130.453
0.428, -1, -33.569, -1.91467, 23.1948, -159.946, -92.5335, 54.8148, -77.6894, 76.451, 28.1917, 140.671, -111.189, 129.947
0.432, -1, -33.569, -1.91467, 23.1948, -159.946, -92.5335, 54.8148, -77.5092, 76.2683, 28.1348, 140.349, -111.16, 129.442
0.436, -1, -33.569, -1.91467, 23.1948, -159.946, -92.5335, 54.8148, -77.3296, 76.0862, 28.0781, 140.028, -111.13, 128.938
0.44, -1, -33.569, -1.91467, 23.1948, -159.946, -92.5335, 54.8148, -77.1506, 75.9046, 28.0216, 139.708, -111.101, 128.436
0.444, -1, -33.569, -1.91467, 23.1948, -159.946, -92.5335, 54.8148, -76.9721, 75.7236, 27.9653, 139.388, -111.072, 127.936
0.448, -1, -33.569, -1.91467, 23.1948, -159.946, -92.5335, 54.8148, -76.7941, 75.5431, 27.9091, 139.07, -111.043, 127.437
0.452, -1, -33.569, -1.91467, 23.1948, -159.946, -92.5335, 54.8148, -76.6167, 75.3632, 27.8531, 138.753, -111.014, 126.94
0.456, -1, -33.569, -1.91467, 23.1948, -159.946, -92.5335, 54.8148, -76.4398, 75.1839, 27.7972, 138.437, -110.985, 126.444
0.46, -1, -33.569, -1.91467, 23.1948, -159.946, -92.5335, 54.8148, -76.2634, 75.0051, 27.7416, 138.122, -110.956, 125.95
0.464, -1, -33.569, -1.91467, 23.1948, -159.946, -92.5335, 54.8148, -76.0876, 74.8268, 27.6861, 137.808, -110.927, 125.457
0.468, -1, -33.569, -1.91467, 23.1948, -159.946, -92.5335, 54.8148, -75.9123, 74.649, 27.6307, 137.494, -110.899, 124.965
0.472, -1, -33.569, -1.91467, 23.1948, -159.946, -92.5335, 54.8148, -75.7375, 74.4718, 27.5755, 137.182, -110.87, 124.476
0.476, -1, -33.569, -1.91467, 23.1948, -159.946, -92.5335, 54.8148, -75.5633, 74.2951, 27.5205, 136.87, -110.842, 123.987
0.48, -1, -33.569, -1.91467, 23.1948, -159.946, -92.5335, 54.8148, -75.3895, 74.1189, 27.4657, 136.56, -110.813, 123.5
0.484, -1, -33.569, -1.91467, 23.1948, -159.946, -92.5335, 54.8148, -75.2163, 73.9433, 27.411, 136.25, -110.785, 123.015
0.488, -1, -33.569, -1.91467, 23.1948, -159.946, -92.5335, 54.8148, -75.0436, 73.7681, 27.3565, 135.941, -110.757, 122.53
0.492, -1, -33.569, -1.91467, 23.1948, -159.946, -92.5335, 54.8148, -74.8713, 73.5935, 27.3021, 135.633, -110.729, 122.048
0.496, -1, -33.569, -1.91467, 23.1948, -159.946, -92.5335, 54.8148, -74.6996, 73.4194, 27.2479, 135.326, -110.701, 121.566
0.5, -1, -33.569, -1.91467, 23.1948, -159.946, -92.5335, 54.8148, -74.5283, 73.2457, 27.1938, 135.02, -110.673, 121.086
0.504, -1, -33.569, -1.91467, 23.1948, -159.946, -92.5335, 54.8148, -74.3576, 73.0726, 27.1399, 134.715, -110.645, 120.608
0.508, -1, -33.569, -1.91467, 23.1948, -159.946, -92.5335, 54.8148, -74.1873, 72.8999, 27.0862, 134.411, -110.617, 120.13
0.512, -1, -33.569, -1.91467, 23.1948, -159.946, -92.5335, 54.8148, -74.0175, 72.7277, 27.0325, 134.107, -110.589, 119.654
0.516, -1, -33.569, -1.91467, 23.1948, -159.946, -92.5335, 54.8148, -73.8482, 72.556, 26.9791, 133.804, -110.562, 119.18
0.52, -1, -33.569, -1.91467, 23.1948, -159.946, -92.5335, 54.8148, -73.6793, 72.3848, 26.9258, 133.503, -110.534, 118.707
0.524, -1, -33.569, -1.91467, 23.1948, -159.946, -92.5335, 54.8148, -73.5109, 72.2141, 26.8726, 133.202, -110.507, 118.235
0.528, -1, -33.569, -1.91467, 23.1948, -159.946, -92.5335, 54.8148, -73.343, 72.0438, 26.8196, 132.901, -110.479, 117.764
0.532, -1, -33.569, -1.91467, 23.1948, -159.946, -92.5335, 54.8148, -73.1755, 71.874, 26.7668, 132.602, -110.452, 117.295
0.536, -1, -33.569, -1.91467, 23.1948, -159.946, -92.5335, 54.8148, -73.0085, 71.7047, 26.714, 132.304, -110.425, 116.826
0.54, -1, -33.569, -1.91467, 23.1948, -159.946, -92.5335, 54.8148, -72.8419, 71.5358, 26.6615, 132.006, -110.397, 116.36
0.544, -1, -33.569, -1.91467, 23.1948, -159.946, -92.5335, 54.8148, -72.6758, 71.3674, 26.609, 131.709, -110.37, 115.894
0.548, -1, -33.569, -1.91467, 23.1948, -159.946, -92.5335, 54.8148, -72.5101, 71.1994, 26.5567, 131.413, -110.343, 115.43
0.552, -1, -33.569, -1.91467, 23.1948, -159.946, -92.5335, 54.8148, -72.3449, 71.0318, 26.5046, 131.117, -110.316, 114.966
0.556, -1, -33.569, -1.91467, 23.1948, -159.946, -92.5335, 54.8148, -72.1801, 70.8648, 26.4525, 130.823, -110.289, 114.505
0.56, -1, -33.569, -1.91467, 23.1948, -159.946, -92.5335, 54.8148, -72.0158, 70.6981, 26.4007, 130.529, -110.263, 114.044
0.564, -1, -33.569, -1.91467, 23.1948, -159.946, -92.5335, 54.8148, -71.8518, 70.5319, 26.3489, 130.236, -110.236, 113.584
0.568, -1, -33.569, -1.91467, 23.1948, -159.946, -92.5335, 54.8148, -71.6883, 70.3661, 26.2973, 129.944, -110.209, 113.126
0.572, -1, -33.569, -1.91467, 23.1948, -159.946, -92.5335, 54.8148, -71.5253, 70.2008, 26.2458, 129.652, -110.182, 112.669
0.576, -1, -33.569, -1.91467, 23.1948, -159.946, -92.5335, 54.8148, -71.3626, 70.0359, 26.1945, 129.362, -110.156, 112.213
0.58, -1, -33.569, -1.91467, 23.1948, -159.946, -92.5335, 54.8148, -71.2004, 69.8714, 26.1433, 129.072, -110.129, 111.758
0.584, -1, -33.569, -1.91467, 23.1948, -159.946, -92.5335, 54.8148, -71.0386, 69.7073, 26.0922, 128.782, -110.103, 111.305
0.588, -1, -33.569, -1.91467, 23.1948, -159.946, -92.5335, 54.8148, -70.8771, 69.5436, 26.0412, 128.494, -110.077, 110.853
0.592, -1, -33.569, -1.91467, 23.1948, -159.946, -92.5335, 54.8148, -70.7162, 69.3804, 25.9904, 128.206, -110.05, 110.401
0.596, -1, -33.569, -1.91467, 23.1948, -159.946, -92.5335, 54.8148, -70.5556, 69.2175, 25.9397, 127.919, -110.024, 109.951
0.6, -1, -33.569, -1.91467, 23.1948, -159.946, -92.5335, 54.8148, -70.3954, 69.0551, 25.8891, 127.633, -109.998, 109.502
0.604, -1, -33.569, -1.91467, 23.1948, -159.946, -92.5335, 54.8148, -70.2356, 68.8931, 25.8387, 127.347, -109.972, 109.054
0.608, -1, -33.569, -1.91467, 23.1948, -159.946, -92.5335, 54.8148, -70.0762, 68.7315, 25.7884, 127.062, -109.946, 108.608
0.612, -1, -33.569, -1.91467, 23.1948, -159.946, -92.5335, 54.8148, -69.9172, 68.5703, 25.7382, 126.778, -109.92, 108.162
0.616, -1, -33.569, -1.91467, 23.1948, -159.946, -92.5335, 54.8148, -69.7586, 68.4095, 25.6881, 126.494, -109.894, 107.717
0.62, -1, -33.569, -1.91467, 23.1948, -159.946, -92.5335, 54.8148, -69.6003, 68.249, 25.6382, 126.212, -109.868, 107.274
0.624, -1, -33.569, -1.91467, 23.1948, -159.946, -92.5335, 54.8148, -69.4425, 68.089, 25.5884, 125.93, -109.842, 106.831
0.628, -1, -33.569, -1.91467, 23.1948, -159.946, -92.5335, 54.8148, -69.285, 67.9293, 25.5386, 125.648, -109.817, 106.39
0.632, -1, -33.569, -1.91467, 23.1948, -159.946, -92.5335, 54.8148, -69.128, 67.7701, 25.4891, 125.367, -109.791, 105.95
0.636, -1, -33.569, -1.91467, 23.1948, -159.946, -92.5335, 54.8148, -68.9713, 67.6112, 25.4396, 125.087, -109.765, 105.511
0.64, -1, -33.569, -1.91467, 23.1948, -159.946, -92.5335, 54.8148, -68.8149, 67.4527, 25.3902, 124.808, -109.74, 105.072
0.644, -1, -33.569, -1.91467, 23.1948, -159.946, -92.5335, 54.8148, -68.659, 67.2945, 25.341, 124.529, -109.714, 104.635
0.648, -1, -33.569, -1.91467, 23.1948, -159.946, -92.5335, 54.8148, -68.5033, 67.1368, 25.2919, 124.251, -109.689, 104.199
0.652, -1, -33.569, -1.91467, 23.1948, -159.946, -92.5335, 54.8148, -68.3481, 66.9794, 25.2429, 123.973, -109.664, 103.764
0.656, -1, -33.569, -1.91467, 23.1948, -159.946, -92.5335, 54.8148, -68.1932, 66.8223, 25.194, 123.697, -109.638, 103.33
0.66, -1, -33.569, -1.91467, 23.1948, -159.946, -92.5335, 54.8148, -68.0387, 66.6656, 25.1452, 123.42, -109.613, 102.897
0.664, -1, -33.569, -1.91467, 23.1948, -159.946, -92.5335, 54.8148, -67.8845, 66.5093, 25.0966, 123.145, -109.588, 102.465
0.668, -1, -33.569, -1.91467, 23.1948, -159.946, -92.5335, 54.8148, -67.7307, 66.3534, 25.048, 122.87, -109.563, 102.034
0.672, -1, -33.569, -1.91467, 23.1948, -159.946, -92.5335, 54.8148, -67.5772, 66.1978, 24.9996, 122.596, -109.538, 101.603
0.676, -1, -33.569, -1.91467, 23.1948, -159.946, -92.5335, 54.8148, -67.4241, 66.0425, 24.9512, 122.322, -109.513, 101.174
0.68, -1, -33.569, -1.91467, 23.1948, -159.946, -92.5335, 54.8148, -67.2714, 65.8876, 24.903, 122.049, -109.488, 100.746
0.684, -1, -33.569, -1.91467, 23.1948, -159.946, -92.5335, 54.8148, -67.1189, 65.7331, 24.8549, 121.776, -109.463, 100.319
0.688, -1, -33.569, -1.91467, 23.1948, -159.946, -92.5335, 54.8148, -66.9669, 65.5789, 24.8069, 121.504, -109.438, 99.8926
0.692, -1, -33.569, -1.91467, 23.1948, -159.946, -92.5335, 54.8148, -66.8151, 65.425, 24.759, 121.233, -109.413, 99.4673
0.696, -1, -33.569, -1.91467, 23.1948, -159.946, -92.5335, 54.8148, -66.6637, 65.2715, 24.7112, 120.963, -109.389, 99.0429
0.7, -1, -33.569, -1.91467, 23.1948, -159.946, -92.5335, 54.8148, -66.5126, 65.1183, 24.6635, 120.693, -109.364, 98.6195
0.704, -1, -33.569, -1.91467, 23.1948, -159.946, -92.5335, 54.8148, -66.3618, 64.9655, 24.6159, 120.423, -109.339, 98.1969
0.708, -1, -33.569, -1.91467, 23.1948, -159.946, -92.5335, 54.8148, -66.2114, 64.813, 24.5684, 120.154, -109.315, 97.7753
0.712, -1, -33.569, -1.91467, 23.1948, -159.946, -92.5335, 54.8148, -66.0613, 64.6608, 24.521, 119.886, -109.29, 97.3547
0.716, -1, -33.569, -1.91467, 23.1948, -159.946, -92.5335, 54.8148, -65.9116, 64.5089, 24.4738, 119.618, -109.266, 96.9349
0.72, -1, -33.569, -1.91467, 23.1948, -159.946, -92.5335, 54.8148, -65.7621, 64.3574, 24.4266, 119.351, -109.241, 96.516
0.724, -1, -33.569, -1.91467, 23.1948, -159.946, -92.5335, 54.8148, -65.613, 64.2062, 24.3795, 119.084, -109.217, 96.098
0.728, -1, -33.569, -1.91467, 23.1948, -159.946, -92.5335, 54.8148, -65.4641, 64.0553, 24.3325, 118.818, -109.193, 95.6809
0.732, -1, -33.569, -1.91467, 23.1948, -159.946, -92.5335, 54.8148, -65.3156, 63.9047, 24.2857, 118.553, -109.169, 95.2646
0.736, -1, -33.569, -1.91467, 23.1948, -159.946, -92.5335, 54.8148, -65.1674, 63.7544, 24.2389, 118.288, -109.144, 94.8493
0.74, -1, -33.569, -1.91467, 23.1948, -159.946, -92.5335, 54.8148, -65.0195, 63.6045, 24.1922, 118.024, -109.12, 94.4348
0.744, -1, -33.569, -1.91467, 23.1948, -159.946, -92.5335, 54.8148, -64.872, 63.4549, 24.1456, 117.76, -109.096, 94.0211
0.748, -1, -33.569, -1.91467, 23.1948, -159.946, -92.5335, 54.8148, -64.7247, 63.3055, 24.0991, 117.497, -109.072, 93.6083
0.752, -1, -33.569, -1.91467, 23.1948, -159.946, -92.5335, 54.8148, -64.5777, 63.1565, 24.0527, 117.234, -109.048, 93.1964
0.756, -1, -33.569, -1.91467, 23.1948, -159.946, -92.5335, 54.8148, -64.431, 63.0078, 24.0064, 116.972, -109.024, 92.7852
0.76, -1, -33.569, -1.91467, 23.1948, -159.946, -92.5335, 54.8148, -64.2846, 62.8594, 23.9602, 116.71, -109, 92.3749
0.764, -1, -33.569, -1.91467, 23.1948, -159.946, -92.5335, 54.8148, -64.1385, 62.7112, 23.9141, 116.449, -108.976, 91.9655
0.768, -1, -33.569, -1.91467, 23.1948, -159.946, -92.5335, 54.8148, -63.9927, 62.5634, 23.8681, 116.188, -108.952, 91.5568
0.772, -1, -33.569, -1.91467, 23.1948, -159.946, -92.5335, 54.8148, -63.8472, 62.4159, 23.8222, 115.928, -108.929, 91.149
0.776, -1, -33.569, -1.91467, 23.1948, -159.946, -92.5335, 54.8148, -63.702, 62.2687, 23.7763, 115.669, -108.905, 90.742
0.78, -1, -33.569, -1.91467, 23.1948, -159.946, -92.5335, 54.8148, -63.5571, 62.1217, 23.7306, 115.41, -108.881, 90.3358
0.784, -1, -33.569, -1.91467, 23.1948, -159.946, -92.5335, 54.8148, -63.4124, 61.9751, 23.6849, 115.151, -108.858, 89.9304
0.788, -1, -33.569, -1.91467, 23.1948, -159.946, -92.5335, 54.8148, -63.2681, 61.8287, 23.6393, 114.893, -108.834, 89.5257
0.792, -1, -33.569, -1.91467, 23.1948, -159.946, -92.5335, 54.8148, -63.124, 61.6826, 23.5939, 114.636, -108.811, 89.1219
0.796, -1, -33.569, -1.91467, 23.1948, -159.946, -92.5335, 54.8148, -62.9802, 61.5368, 23.5485, 114.379, -108.787, 88.7189
0.8, -1, -33.569, -1.91467, 23.1948, -159.946, -92.5335, 54.8148, -62.8367, 61.3913, 23.5032, 114.122, -108.764, 88.3166
0.804, -1, -33.569, -1.91467, 23.1948, -159.946, -92.5335, 54.8148, -62.6934, 61.246, 23.458, 113.866, -108.74, 87.9151
0.808, -1, -33.569, -1.91467, 23.1948, -159.946, -92.5335, 54.8148, -62.5504, 61.1011, 23.4128, 113.61, -108.717, 87.5144
0.812, -1, -33.569, -1.91467, 23.1948, -159.946, -92.5335, 54.8148, -62.4077, 60.9564, 23.3678, 113.355, -108.694, 87.1144
0.816, -1, -33.569, -1.91467, 23.1948, -159.946, -92.5335, 54.8148, -62.2653, 60.812, 23.3228, 113.101, -108.67, 86.7152
0.82, -1, -33.569, -1.91467, 23.1948, -159.946, -92.5335, 54.8148, -62.1231, 60.6678, 23.2779, 112.847, -108.647, 86.3167
0.824, -1, -33.569, -1.91467, 23.1948, -159.946, -92.5335, 54.8148, -61.9812, 60.524, 23.2332, 112.593, -108.624, 85.919
0.828, -1, -33.569, -1.91467, 23.1948, -159.946, -92.5335, 54.8148, -61.8396, 60.3803, 23.1884, 112.34, -108.601, 85.522
0.832, -1, -33.569, -1.91467, 23.1948, -159.946, -92.5335, 54.8148, -61.6982, 60.237, 23.1438, 112.087, -108.578, 85.1258
0.836, -1, -33.569, -1.91467, 23.1948, -159.946, -92.5335, 54.8148, -61.5571, 60.0939, 23.0993, 111.835, -108.555, 84.7303
0.84, -1, -33.569, -1.91467, 23.1948, -159.946, -92.5335, 54.8148, -61.4162, 59.9511, 23.0548, 111.583, -108.532, 84.3355
0.844, -1, -33.569, -1.91467, 23.1948, -159.946, -92.5335, 54.8148, -61.2756, 59.8086, 23.0104, 111.332, -108.509, 83.9414
0.848, -1, -33.569, -1.91467, 23.1948, -159.946, -92.5335, 54.8148, -61.1353, 59.6663, 22.9661, 111.081, -108.486, 83.548
0.852, -1, -33.569, -1.91467, 23.1948, -159.946, -92.5335, 54.8148, -60.9952, 59.5242, 22.9219, 110.831, -108.463, 83.1554
0.856, -1, -33.569, -1.91467, 23.1948, -159.946, -92.5335, 54.8148, -60.8553, 59.3824, 22.8778, 110.581, -108.44, 82.7634
0.86, -1, -33.569, -1.91467, 23.1948, -159.946, -92.5335, 54.8148, -60.7157, 59.2409, 22.8337, 110.331, -108.417, 82.3721
0.864, -1, -33.569, -1.91467, 23.1948, -159.946, -92.5335, 54.8148, -60.5764, 59.0996, 22.7897, 110.082, -108.395, 81.9816
0.868, -1, -33.569, -1.91467, 23.1948, -159.946, -92.5335, 54.8148, -60.4373, 58.9586, 22.7458, 109.833, -108.372, 81.5917
0.872, -1, -33.569, -1.91467, 23.1948, -159.946, -92.5335, 54.8148, -60.2984, 58.8178, 22.702, 109.585, -108.349, 81.2025
0.876, -1, -33.569, -1.91467, 23.1948, -159.946, -92.5335, 54.8148, -60.1598, 58.6772, 22.6582, 109.337, -108.327, 80.8139
0.88, -1, -33.569, -1.91467, 23.1948, -159.946, -92.5335, 54.8148, -60.0214, 58.5369, 22.6145, 109.09, -108.304, 80.4261
0.884, -1, -33.569, -1.91467, 23.1948, -159.946, -92.5335, 54.8148, -59.8833, 58.3969, 22.5709, 108.843, -108.281, 80.0389
0.888, -1, -33.569, -1.91467, 23.1948, -159.946, -92.5335, 54.8148, -59.7454, 58.257, 22.5274, 108.597, -108.259, 79.6524
0.892, -1, -33.569, -1.91467, 23.1948, -159.946, -92.5335, 54.8148, -59.6077, 58.1175, 22.484, 108.351, -108.236, 79.2665
0.896, -1, -33.569, -1.91467, 23.1948, -159.946, -92.5335, 54.8148, -59.4702, 57.9781, 22.4406, 108.105, -108.214, 78.8813
0.9, -1, -33.569, -1.91467, 23.1948, -159.946, -92.5335, 54.8148, -59.333, 57.839, 22.3973, 107.86, -108.192, 78.4967
0.904, -1, -33.569, -1.91467, 23.1948, -159.946, -92.5335, 54.8148, -59.1961, 57.7001, 22.354, 107.615, -108.169, 78.1128
0.908, -1, -33.569, -1.91467, 23.1948, -159.946, -92.5335, 54.8148, -59.0593, 57.5615, 22.3109, 107.37, -108.147, 77.7296
0.912, -1, -33.569, -1.91467, 23.1948, -159.946, -92.5335, 54.8148, -58.9228, 57.423, 22.2678, 107.126, -108.125, 77.3469
0.916, -1, -33.569, -1.91467, 23.1948, -159.946, -92.5335, 54.8148, -58.7865, 57.2849, 22.2248, 106.883, -108.102, 76.9649
0.92, -1, -33.569, -1.91467, 23.1948, -159.946, -92.5335, 54.8148, -58.6504, 57.1469, 22.1818, 106.64, -108.08, 76.5835
0.924, -1, -33.569, -1.91467, 23.1948, -159.946, -92.5335, 54.8148, -58.5146, 57.0092, 22.1389, 106.397, -108.058, 76.2028
0.928, -1, -33.569, -1.91467, 23.1948, -159.946, -92.5335, 54.8148, -58.379, 56.8717, 22.0961, 106.154, -108.036, 75.8227
0.932, -1, -33.569, -1.91467, 23.1948, -159.946, -92.5335, 54.8148, -58.2435, 56.7344, 22.0534, 105.912, -108.014, 75.4432
0.936, -1, -33.569, -1.91467, 23.1948, -159.946, -92.5335, 54.8148, -58.1084, 56.5973, 22.0107, 105.671, -107.992, 75.0643
0.94, -1, -33.569, -1.91467, 23.1948, -159.946, -92.5335, 54.8148, -57.9734, 56.4605, 21.9681, 105.429, -107.97, 74.686
0.944, -1, -33.569, -1.91467, 23.1948, -159.946, -92.5335, 54.8148, -57.8386, 56.3238, 21.9256, 105.189, -107.948, 74.3083
0.948, -1, -33.569, -1.91467, 23.1948, -159.946, -92.5335, 54.8148, -57.7041, 56.1874, 21.8831, 104.948, -107.926, 73.9312
0.952, -1, -33.569, -1.91467, 23.1948, -159.946, -92.5335, 54.8148, -57.5698, 56.0512, 21.8407, 104.708, -107.904, 73.5547
0.956, -1, -33.569, -1.91467, 23.1948, -159.946, -92.5335, 54.8148, -57.4357, 55.9153, 21.7984, 104.468, -107.882, 73.1788
0.96, -1, -33.569, -1.91467, 23.1948, -159.946, -92.5335, 54.8148, -57.3018, 55.7795, 21.7561, 104.229, -107.86, 72.8035
0.964, -1, -33.569, -1.91467, 23.1948, -159.946, -92.5335, 54.8148, -57.1681, 55.6439, 21.7139, 103.99, -107.838, 72.4288
0.968, -1, -33.569, -1.91467, 23.1948, -159.946, -92.5335, 54.8148, -57.0346, 55.5086, 21.6718, 103.751, -107.816, 72.0547
0.972, -1, -33.569, -1.91467, 23.1948, -159.946, -92.5335, 54.8148, -56.9013, 55.3735, 21.6297, 103.513, -107.795, 71.6811
0.976, -1, -33.569, -1.91467, 23.1948, -159.946, -92.5335, 54.8148, -56.7682, 55.2385, 21.5877, 103.275, -107.773, 71.3081
0.98, -1, -33.569, -1.91467, 23.1948, -159.946, -92.5335, 54.8148, -56.6353, 55.1038, 21.5458, 103.038, -107.751, 70.9357
0.984, -1, -33.569, -1.91467, 23.1948, -159.946, -92.5335, 54.8148, -56.5026, 54.9693, 21.5039, 102.801, -107.729, 70.5638
0.988, -1, -33.569, -1.91467, 23.1948, -159.946, -92.5335, 54.8148, -56.3702, 54.835, 21.4621, 102.564, -107.708, 70.1925
0.992, -1, -33.569, -1.91467, 23.1948, -159.946, -92.5335, 54.8148, -56.2379, 54.7008, 21.4203, 102.327, -107.686, 69.8217
0.996, -1, -33.569, -1.91467, 23.1948, -159.946, -92.5335, 54.8148, -56.1058, 54.5669, 21.3786, 102.091, -107.665, 69.4515
1, -1, -33.569, -1.91467, 23.1948, -159.946, -92.5335, 54.8148, -55.9739, 54.4332, 21.337, 101.856, -107.643, 69.0819
1.004, -1, -33.569, -1.91467, 23.1948, -159.946, -92.5335, 54.8148, -55.8422, 54.2997, 21.2954, 101.62, -107.622, 68.7127
1.008, -1, -33.569, -1.91467, 23.1948, -159.946, -92.5335, 54.8148, -55.7107, 54.1663, 21.2539, 101.385, -107.6, 68.3441
1.012, -1, -33.569, -1.91467, 23.1948, -159.946, -92.5335, 54.8148, -55.5794, 54.0332, 21.2125, 101.15, -107.579, 67.9761
1.016, -1, -33.569, -1.91467, 23.1948, -159.946, -92.5335, 54.8148, -55.4483, 53.9003, 21.1711, 100.916, -107.557, 67.6086
1.02, -1, -33.569, -1.91467, 23.1948, -159.946, -92.5335, 54.8148, -55.3173, 53.7675, 21.1297, 100.682, -107.536, 67.2416
1.024, -1, -33.569, -1.91467, 23.1948, -159.946, -92.5335, 54.8148, -55.1866, 53.6349, 21.0885, 100.448, -107.515, 66.8751
1.027, -1, -33.569, -1.91467, 23.1948, -159.946, -92.5335, 54.8148, -55.056, 53.5026, 21.0473, 100.215, -107.493, 66.5092
1.032, -1, -33.569, -1.91467, 23.1948, -159.946, -92.5335, 54.8148, -54.9256, 53.3704, 21.0061, 99.9818, -107.472, 66.1438
1.036, -1, -33.569, -1.91467, 23.1948, -159.946, -92.5335, 54.8148, -54.7954, 53.2384, 20.965, 99.7491, -107.451, 65.7789
1.04, -1, -33.569, -1.91467, 23.1948, -159.946, -92.5335, 54.8148, -54.6654, 53.1066, 20.924, 99.5167, -107.43, 65.4145
1.044, -1, -33.569, -1.91467, 23.1948, -159.946, -92.5335, 54.8148, -54.5356, 52.9749, 20.883, 99.2847, -107.408, 65.0506
1.048, -1, -33.569, -1.91467, 23.1948, -159.946, -92.5335, 54.8148, -54.406, 52.8435, 20.8421, 99.0529, -107.387, 64.6873
1.052, -1, -33.569, -1.91467, 23.1948, -159.946, -92.5335, 54.8148, -54.2765, 52.7122, 20.8012, 98.8215, -107.366, 64.3244
1.055, -1, -33.569, -1.91467, 23.1948, -159.946, -92.5335, 54.8148, -54.1472, 52.5811, 20.7604, 98.5904, -107.345, 63.962
1.06, -1, -33.569, -1.91467, 23.1948, -159.946, -92.5335, 54.8148, -54.0181, 52.4502, 20.7197, 98.3597, -107.324, 63.6001
1.064, -1, -33.569, -1.91467, 23.1948, -159.946, -92.5335, 54.8148, -53.8892, 52.3195, 20.679, 98.1292, -107.303, 63.2388
1.068, -1, -33.569, -1.91467, 23.1948, -159.946, -92.5335, 54.8148, -53.7604, 52.189, 20.6383, 97.8991, -107.282, 62.8779
1.072, -1, -33.569, -1.91467, 23.1948, -159.946, -92.5335, 54.8148, -53.6318, 52.0586, 20.5977, 97.6692, -107.261, 62.5175
1.076, -1, -33.569, -1.91467, 23.1948, -159.946, -92.5335, 54.8148, -53.5034, 51.9284, 20.5572, 97.4397, -107.24, 62.1576
1.08, -1, -33.569, -1.91467, 23.1948, -159.946, -92.5335, 54.8148, -53.3751, 51.7984, 20.5167, 97.2105, -107.219, 61.7981
1.084, -1, -33.569, -1.91467, 23.1948, -159.946, -92.5335, 54.8148, -53.2471, 51.6685, 20.4763, 96.9816, -107.198, 61.4392
1.088, -1, -33.569, -1.91467, 23.1948, -159.946, -92.5335, 54.8148, -53.1192, 51.5388, 20.4359, 96.7529, -107.177, 61.0807
1.091, -1, -33.569, -1.91467, 23.1948, -159.946, -92.5335, 54.8148, -52.9914, 51.4093, 20.3956, 96.5246, -107.156, 60.7227
1.096, -1, -33.569, -1.91467, 23.1948, -159.946, -92.5335, 54.8148, -52.8639, 51.28, 20.3553, 96.2966, -107.135, 60.3651
1.1, -1, -33.569, -1.91467, 23.1948, -159.946, -92.5335, 54.8148, -52.7365, 51.1508, 20.3151, 96.0689, -107.115, 60.008
1.104, -1, -33.569, -1.91467, 23.1948, -159.946, -92.5335, 54.8148, -52.6092, 51.0218, 20.275, 95.8414, -107.094, 59.6514
1.108, -1, -33.569, -1.91467, 23.1948, -159.946, -92.5335, 54.8148, -52.4821, 50.893, 20.2348, 95.6143, -107.073, 59.2952
1.112, -1, -33.569, -1.91467, 23.1948, -159.946, -92.5335, 54.8148, -52.3552, 50.7643, 20.1948, 95.3874, -107.052, 58.9395
1.116, -1, -33.569, -1.91467, 23.1948, -159.946, -92.5335, 54.8148, -52.2285, 50.6358, 20.1548, 95.1609, -107.032, 58.5842
1.119, -1, -33.569, -1.91467, 23.1948, -159.946, -92.5335, 54.8148, -52.1019, 50.5074, 20.1148, 94.9346, -107.011, 58.2294
1.124, -1, -33.569, -1.91467, 23.1948, -159.946, -92.5335, 54.8148, -51.9754, 50.3792, 20.0749, 94.7086, -106.99, 57.875
1.128, -1, -33.569, -1.91467, 23.1948, -159.946, -92.5335, 54.8148, -51.8491, 50.2512, 20.0351, 94.4829, -106.97, 57.5211
1.132, -1, -33.569, -1.91467, 23.1948, -159.946, -92.5335, 54.8148, -51.723, 50.1233, 19.9952, 94.2574, -106.949, 57.1676
1.136, -1, -33.569, -1.91467, 23.1948, -159.946, -92.5335, 54.8148, -51.597, 49.9956, 19.9555, 94.0323, -106.928, 56.8145
1.14, -1, -33.569, -1.91467, 23.1948, -159.946, -92.5335, 54.8148, -51.4712, 49.868, 19.9158, 93.8074, -106.908, 56.4618
1.144, -1, -33.569, -1.91467, 23.1948, -159.946, -92.5335, 54.8148, -51.3455, 49.7406, 19.8761, 93.5827, -106.887, 56.1096
1.147, -1, -33.569, -1.91467, 23.1948, -159.946, -92.5335, 54.8148, -51.22, 49.6133, 19.8365, 93.3584, -106.867, 55.7578
1.152, -1, -33.569, -1.91467, 23.1948, -159.946, -92.5335, 54.8148, -51.0947, 49.4862, 19.7969, 93.1343, -106.846, 55.4065
1.156, -1, -33.569, -1.91467, 23.1948, -159.946, -92.5335, 54.8148, -50.9695, 49.3593, 19.7574, 92.9105, -106.826, 55.0555
1.16, -1, -33.569, -1.91467, 23.1948, -159.946, -92.5335, 54.8148, -50.8444, 49.2325, 19.7179, 92.687, -106.806, 54.705
1.164, -1, -33.569, -1.91467, 23.1948, -159.946, -92.5335, 54.8148, -50.7195, 49.1058, 19.6785, 92.4637, -106.785, 54.3549
1.168, -1, -33.569, -1.91467, 23.1948, -159.946, -92.5335, 54.8148, -50.5947, 48.9793, 19.6391, 92.2407, -106.765, 54.0052
1.172, -1, -33.569, -1.91467, 23.1948, -159.946, -92.5335, 54.8148, -50.4701, 48.853, 19.5998, 92.0179, -106.744, 53.6559
1.175, -1, -33.569, -1.91467, 23.1948, -159.946, -92.5335, 54.8148, -50.3456, 48.7268, 19.5605, 91.7955, -106.724, 53.307
1.18, -1, -33.569, -1.91467, 23.1948, -159.946, -92.5335, 54.8148, -50.2213, 48.6007, 19.5212, 91.5732, -106.704, 52.9586
1.184, -1, -33.569, -1.91467, 23.1948, -159.946, -92.5335, 54.8148, -50.0971, 48.4748, 19.482, 91.3512, -106.684, 52.6105
1.188, -1, -33.569, -1.91467, 23.1948, -159.946, -92.5335, 54.8148, -49.9731, 48.349, 19.4429, 91.1295, -106.663, 52.2628
1.192, -1, -33.569, -1.91467, 23.1948, -159.946, -92.5335, 54.8148, -49.8491, 48.2234, 19.4038, 90.9081, -106.643, 51.9155
1.196, -1, -33.569, -1.91467, 23.1948, -159.946, -92.5335, 54.8148, -49.7254, 48.0979, 19.3647, 90.6868, -106.623, 51.5687
1.2, -1, -33.569, -1.91467, 23.1948, -159.946, -92.5335, 54.8148, -49.6018, 47.9726, 19.3257, 90.4659, -106.603, 51.2222
1.204, -1, -33.569, -1.91467, 23.1948, -159.946, -92.5335, 54.8148, -49.4783, 47.8474, 19.2867, 90.2452, -106.583, 50.8761
1.208, -1, -33.569, -1.91467, 23.1948, -159.946, -92.5335, 54.8148, -49.3549, 47.7224, 19.2478, 90.0247, -106.562, 50.5304
1.212, -1, -33.569, -1.91467, 23.1948, -159.946, -92.5335, 54.8148, -49.2317, 47.5974, 19.2089, 89.8045, -106.542, 50.1851
1.216, -1, -33.569, -1.91467, 23.1948, -159.946, -92.5335, 54.8148, -49.1087, 47.4727, 19.1701, 89.5845, -106.522, 49.8401
1.22, -1, -33.569, -1.91467, 23.1948, -159.946, -92.5335, 54.8148, -48.9857, 47.348, 19.1313, 89.3648, -106.502, 49.4956
1.224, -1, -33.569, -1.91467, 23.1948, -159.946, -92.5335, 54.8148, -48.8629, 47.2235, 19.0925, 89.1453, -106.482, 49.1514
1.228, -1, -33.569, -1.91467, 23.1948, -159.946, -92.5335, 54.8148, -48.7403, 47.0991, 19.0538, 88.926, -106.462, 48.8076
1.232, -1, -33.569, -1.91467, 23.1948, -159.946, -92.5335, 54.8148, -48.6177, 46.9749, 19.0151, 88.707, -106.442, 48.4641
1.236, -1, -33.569, -1.91467, 23.1948, -159.946, -92.5335, 54.8148, -48.4953, 46.8508, 18.9765, 88.4882, -106.422, 48.1211
1.24, -1, -33.569, -1.91467, 23.1948, -159.946, -92.5335, 54.8148, -48.373, 46.7268, 18.9379, 88.2697, -106.402, 47.7783
1.244, -1, -33.569, -1.91467, 23.1948, -159.946, -92.5335, 54.8148, -48.2509, 46.603, 18.8993, 88.0513, -106.382, 47.436
1.248, -1, -33.569, -1.91467, 23.1948, -159.946, -92.5335, 54.8148, -48.1289, 46.4793, 18.8608, 87.8332, -106.362, 47.094
1.252, -1, -33.569, -1.91467, 23.1948, -159.946, -92.5335, 54.8148, -48.007, 46.3557, 18.8223, 87.6154, -106.342, 46.7524
1.256, -1, -33.569, -1.91467, 23.1948, -159.946, -92.5335, 54.8148, -47.8852, 46.2322, 18.7839, 87.3977, -106.322, 46.4111
1.26, -1, -33.569, -1.91467, 23.1948, -159.946, -92.5335, 54.8148, -47.7636, 46.1089, 18.7455, 87.1803, -106.303, 46.0702
1.264, -1, -33.569, -1.91467, 23.1948, -159.946, -92.5335, 54.8148, -47.6421, 45.9857, 18.7072, 86.9631, -106.283, 45.7296
1.267, -1, -33.569, -1.91467, 23.1948, -159.946, -92.5335, 54.8148, -47.5207, 45.8626, 18.6688, 86.7461, -106.263, 45.3894
1.272, -1, -33.569, -1.91467, 23.1948, -159.946, -92.5335, 54.8148, -47.3994, 45.7397, 18.6306, 86.5294, -106.243, 45.0495
1.276, -1, -33.569, -1.91467, 23.1948, -159.946, -92.5335, 54.8148, -47.2783, 45.6168, 18.5923, 86.3128, -106.223, 44.7099
1.28, -1, -33.569, -1.91467, 23.1948, -159.946, -92.5335, 54.8148, -47.1572, 45.4941, 18.5541, 86.0965, -106.204, 44.3707
1.284, -1, -33.569, -1.91467, 23.1948, -159.946, -92.5335, 54.8148, -47.0363, 45.3716, 18.516, 85.8804, -106.184, 44.0319
1.288, -1, -33.569, -1.91467, 23.1948, -159.946, -92.5335, 54.8148, -46.9155, 45.2491, 18.4778, 85.6645, -106.164, 43.6933
1.292, -1, -33.569, -1.91467, 23.1948, -159.946, -92.5335, 54.8148, -46.7949, 45.1268, 18.4398, 85.4488, -106.144, 43.3551
1.295, -1, -33.569, -1.91467, 23.1948, -159.946, -92.5335, 54.8148, -46.6743, 45.0045, 18.4017, 85.2334, -106.125, 43.0173
1.3, -1, -33.569, -1.91467, 23.1948, -159.946, -92.5335, 54.8148, -46.5539, 44.8824, 18.3637, 85.0181, -106.105, 42.6797
1.304, -1, -33.569, -1.91467, 23.1948, -159.946, -92.5335, 54.8148, -46.4336, 44.7605, 18.3257, 84.8031, -106.085, 42.3425
1.308, -1, -33.569, -1.91467, 23.1948, -159.946, -92.5335, 54.8148, -46.3134, 44.6386, 18.2878, 84.5882, -106.066, 42.0056
1.312, -1, -33.569, -1.91467, 23.1948, -159.946, -92.5335, 54.8148, -46.1933, 44.5168, 18.2499, 84.3736, -106.046, 41.6691
1.316, -1, -33.569, -1.91467, 23.1948, -159.946, -92.5335, 54.8148, -46.0734, 44.3952, 18.212, 84.1592, -106.027, 41.3328
1.32, -1, -33.569, -1.91467, 23.1948, -159.946, -92.5335, 54.8148, -45.9535, 44.2737, 18.1742, 83.9449, -106.007, 40.9969
1.324, -1, -33.569, -1.91467, 23.1948, -159.946, -92.5335, 54.8148, -45.8338, 44.1523, 18.1364, 83.7309, -105.987, 40.6613
1.328, -1, -33.569, -1.91467, 23.1948, -159.946, -92.5335, 54.8148, -45.7141, 44.031, 18.0986, 83.5171, -105.968, 40.326
1.332, -1, -33.569, -1.91467, 23.1948, -159.946, -92.5335, 54.8148, -45.5946, 43.9098, 18.0609, 83.3035, -105.948, 39.991
1.336, -1, -33.569, -1.91467, 23.1948, -159.946, -92.5335, 54.8148, -45.4752, 43.7888, 18.0232, 83.09, -105.929, 39.6564
1.34, -1, -33.569, -1.91467, 23.1948, -159.946, -92.5335, 54.8148, -45.3559, 43.6678, 17.9856, 82.8768, -105.909, 39.322
1.344, -1, -33.569, -1.91467, 23.1948, -159.946, -92.5335, 54.8148, -45.2367, 43.547, 17.948, 82.6638, -105.89, 38.988
1.348, -1, -33.569, -1.91467, 23.1948, -159.946, -92.5335, 54.8148, -45.1177, 43.4263, 17.9104, 82.4509, -105.871, 38.6542
1.352, -1, -33.569, -1.91467, 23.1948, -159.946, -92.5335, 54.8148, -44.9987, 43.3056, 17.8728, 82.2383, -105.851, 38.3208
1.356, -1, -33.569, -1.91467, 23.1948, -159.946, -92.5335, 54.8148, -44.8798, 43.1851, 17.8353, 82.0258, -105.832, 37.9877
1.36, -1, -33.569, -1.91467, 23.1948, -159.946, -92.5335, 54.8148, -44.7611, 43.0647, 17.7978, 81.8136, -105.812, 37.6548
1.364, -1, -33.569, -1.91467, 23.1948, -159.946, -92.5335, 54.8148, -44.6424, 42.9444, 17.7604, 81.6015, -105.793, 37.3223
1.368, -1, -33.569, -1.91467, 23.1948, -159.946, -92.5335, 54.8148, -44.5239, 42.8242, 17.723, 81.3896, -105.774, 36.99
1.372, -1, -33.569, -1.91467, 23.1948, -159.946, -92.5335, 54.8148, -44.4054, 42.7042, 17.6856, 81.1779, -105.754, 36.6581
1.376, -1, -33.569, -1.91467, 23.1948, -159.946, -92.5335, 54.8148, -44.2871, 42.5842, 17.6482, 80.9664, -105.735, 36.3264
1.38, -1, -33.569, -1.91467, 23.1948, -159.946, -92.5335, 54.8148, -44.1689, 42.4643, 17.6109, 80.7551, -105.716, 35.995
1.384, -1, -33.569, -1.91467, 23.1948, -159.946, -92.5335, 54.8148, -44.0507, 42.3445, 17.5736, 80.5439, -105.696, 35.6639
1.388, -1, -33.569, -1.91467, 23.1948, -159.946, -92.5335, 54.8148, -43.9327, 42.2249, 17.5364, 80.3329, -105.677, 35.3331
1.392, -1, -33.569, -1.91467, 23.1948, -159.946, -92.5335, 54.8148, -43.8148, 42.1053, 17.4991, 80.1221, -105.658, 35.0025
1.396, -1, -33.569, -1.91467, 23.1948, -159.946, -92.5335, 54.8148, -43.6969, 41.9858, 17.462, 79.9115, -105.639, 34.6723
1.4, -1, -33.569, -1.91467, 23.1948, -159.946, -92.5335, 54.8148, -43.5792, 41.8664, 17.4248, 79.7011, -105.619, 34.3423
1.404, -1, -33.569, -1.91467, 23.1948, -159.946, -92.5335, 54.8148, -43.4616, 41.7472, 17.3877, 79.4908, -105.6, 34.0125
1.408, -1, -33.569, -1.91467, 23.1948, -159.946, -92.5335, 54.8148, -43.344, 41.628, 17.3506, 79.2807, -105.581, 33.6831
1.412, -1, -33.569, -1.91467, 23.1948, -159.946, -92.5335, 54.8148, -43.2266, 41.5089, 17.3135, 79.0708, -105.562, 33.3539
1.416, -1, -33.569, -1.91467, 23.1948, -159.946, -92.5335, 54.8148, -43.1092, 41.3899, 17.2765, 78.861, -105.543, 33.025
1.42, -1, -33.569, -1.91467, 23.1948, -159.946, -92.5335, 54.8148, -42.992, 41.2711, 17.2394, 78.6514, -105.523, 32.6963
1.424, -1, -33.569, -1.91467, 23.1948, -159.946, -92.5335, 54.8148, -42.8748, 41.1523, 17.2025, 78.442, -105.504, 32.368
1.428, -1, -33.569, -1.91467, 23.1948, -159.946, -92.5335, 54.8148, -42.7577, 41.0336, 17.1655, 78.2328, -105.485, 32.0398
1.432, -1, -33.569, -1.91467, 23.1948, -159.946, -92.5335, 54.8148, -42.6407, 40.915, 17.1286, 78.0237, -105.466, 31.712
1.436, -1, -33.569, -1.91467, 23.1948, -159.946, -92.5335, 54.8148, -42.5239, 40.7965, 17.0917, 77.8148, -105.447, 31.3844
1.44, -1, -33.569, -1.91467, 23.1948, -159.946, -92.5335, 54.8148, -42.4071, 40.678, 17.0548, 77.606, -105.428, 31.057
1.444, -1, -33.569, -1.91467, 23.1948, -159.946, -92.5335, 54.8148, -42.2904, 40.5597, 17.018, 77.3974, -105.409, 30.7299
1.448, -1, -33.569, -1.91467, 23.1948, -159.946, -92.5335, 54.8148, -42.1738, 40.4415, 16.9812, 77.189, -105.39, 30.4031
1.452, -1, -33.569, -1.91467, 23.1948, -159.946, -92.5335, 54.8148, -42.0572, 40.3234, 16.9444, 76.9807, -105.371, 30.0765
1.456, -1, -33.569, -1.91467, 23.1948, -159.946, -92.5335, 54.8148, -41.9408, 40.2053, 16.9077, 76.7726, -105.352, 29.7502
1.46, -1, -33.569, -1.91467, 23.1948, -159.946, -92.5335, 54.8148, -41.8245, 40.0873, 16.8709, 76.5646, -105.333, 29.4241
1.464, -1, -33.569, -1.91467, 23.1948, -159.946, -92.5335, 54.8148, -41.7082, 39.9695, 16.8343, 76.3568, -105.314, 29.0982
1.468, -1, -33.569, -1.91467, 23.1948, -159.946, -92.5335, 54.8148, -41.592, 39.8517, 16.7976, 76.1492, -105.295, 28.7726
1.472, -1, -33.569, -1.91467, 23.1948, -159.946, -92.5335, 54.8148, -41.476, 39.734, 16.761, 75.9417, -105.276, 28.4473
1.476, -1, -33.569, -1.91467, 23.1948, -159.946, -92.5335, 54.8148, -41.36, 39.6164, 16.7243, 75.7344, -105.257, 28.1222
1.48, -1, -33.569, -1.91467, 23.1948, -159.946, -92.5335, 54.8148, -41.244, 39.4989, 16.6878, 75.5272, -105.238, 27.7973
1.484, -1, -33.569, -1.91467, 23.1948, -159.946, -92.5335, 54.8148, -41.1282, 39.3814, 16.6512, 75.3202, -105.219, 27.4727
1.488, -1, -33.569, -1.91467, 23.1948, -159.946, -92.5335, 54.8148, -41.0125, 39.2641, 16.6147, 75.1133, -105.2, 27.1483
1.492, -1, -33.569, -1.91467, 23.1948, -159.946, -92.5335, 54.8148, -40.8968, 39.1468, 16.5782, 74.9065, -105.181, 26.8241
1.496, -1, -33.569, -1.91467, 23.1948, -159.946, -92.5335, 54.8148, -40.7813, 39.0297, 16.5417, 74.7, -105.162, 26.5002
1.5, -1, -33.569, -1.91467, 23.1948, -159.946, -92.5335, 54.8148, -40.6658, 38.9126, 16.5052, 74.4935, -105.144, 26.1765
1.504, -1, -33.569, -1.91467, 23.1948, -159.946, -92.5335, 54.8148, -40.5504, 38.7956, 16.4688, 74.2872, -105.125, 25.853
1.508, -1, -33.569, -1.91467, 23.1948, -159.946, -92.5335, 54.8148, -40.435, 38.6786, 16.4324, 74.0811, -105.106, 25.5298
1.512, -1, -33.569, -1.91467, 23.1948, -159.946, -92.5335, 54.8148, -40.3198, 38.5618, 16.396, 73.8751, -105.087, 25.2068
1.516, -1, -33.569, -1.91467, 23.1948, -159.946, -92.5335, 54.8148, -40.2046, 38.445, 16.3597, 73.6693, -105.068, 24.884
1.52, -1, -33.569, -1.91467, 23.1948, -159.946, -92.5335, 54.8148, -40.0895, 38.3283, 16.3233, 73.4635, -105.05, 24.5614
1.524, -1, -33.569, -1.91467, 23.1948, -159.946, -92.5335, 54.8148, -39.9745, 38.2117, 16.287, 73.258, -105.031, 24.239
1.528, -1, -33.569, -1.91467, 23.1948, -159.946, -92.5335, 54.8148, -39.8596, 38.0952, 16.2508, 73.0525, -105.012, 23.9169
1.532, -1, -33.569, -1.91467, 23.1948, -159.946, -92.5335, 54.8148, -39.7447, 37.9787, 16.2145, 72.8472, -104.993, 23.595
1.536, -1, -33.569, -1.91467, 23.1948, -159.946, -92.5335, 54.8148, -39.6299, 37.8623, 16.1783, 72.6421, -104.974, 23.2733
1.54, -1, -33.569, -1.91467, 23.1948, -159.946, -92.5335, 54.8148, -39.5152, 37.746, 16.1421, 72.437, -104.956, 22.9518
1.544, -1, -33.569, -1.91467, 23.1948, -159.946, -92.5335, 54.8148, -39.4006, 37.6298, 16.1059, 72.2321, -104.937, 22.6305
1.548, -1, -33.569, -1.91467, 23.1948, -159.946, -92.5335, 54.8148, -39.286, 37.5137, 16.0697, 72.0274, -104.918, 22.3094
1.552, -1, -33.569, -1.91467, 23.1948, -159.946, -92.5335, 54.8148, -39.1715, 37.3976, 16.0336, 71.8227, -104.9, 21.9885
1.556, -1, -33.569, -1.91467, 23.1948, -159.946, -92.5335, 54.8148, -39.0571, 37.2816, 15.9975, 71.6182, -104.881, 21.6678
1.56, -1, -33.569, -1.91467, 23.1948, -159.946, -92.5335, 54.8148, -38.9428, 37.1657, 15.9614, 71.4139, -104.862, 21.3474
1.564, -1, -33.569, -1.91467, 23.1948, -159.946, -92.5335, 54.8148, -38.8285, 37.0498, 15.9253, 71.2096, -104.844, 21.0271
1.568, -1, -33.569, -1.91467, 23.1948, -159.946, -92.5335, 54.8148, -38.7143, 36.934, 15.8893, 71.0055, -104.825, 20.707
1.572, -1, -33.569, -1.91467, 23.1948, -159.946, -92.5335, 54.8148, -38.6002, 36.8183, 15.8533, 70.8015, -104.806, 20.3872
1.576, -1, -33.569, -1.91467, 23.1948, -159.946, -92.5335, 54.8148, -38.4861, 36.7027, 15.8173, 70.5977, -104.788, 20.0675
1.58, -1, -33.569, -1.91467, 23.1948, -159.946, -92.5335, 54.8148, -38.3722, 36.5871, 15.7813, 70.3939, -104.769, 19.748
1.584, -1, -33.569, -1.91467, 23.1948, -159.946, -92.5335, 54.8148, -38.2583, 36.4716, 15.7454, 70.1903, -104.751, 19.4287
1.588, -1, -33.569, -1.91467, 23.1948, -159.946, -92.5335, 54.8148, -38.1444, 36.3562, 15.7094, 69.9868, -104.732, 19.1096
1.592, -1, -33.569, -1.91467, 23.1948, -159.946, -92.5335, 54.8148, -38.0306, 36.2408, 15.6735, 69.7834, -104.713, 18.7907
1.596, -1, -33.569, -1.91467, 23.1948, -159.946, -92.5335, 54.8148, -37.9169, 36.1256, 15.6376, 69.5802, -104.695, 18.472
1.6, -1, -33.569, -1.91467, 23.1948, -159.946, -92.5335, 54.8148, -37.8033, 36.0103, 15.6017, 69.3771, -104.676, 18.1535
1.604, -1, -33.569, -1.91467, 23.1948, -159.946, -92.5335, 54.8148, -37.6897, 35.8952, 15.5659, 69.174, -104.658, 17.8352
1.608, -1, -33.569, -1.91467, 23.1948, -159.946, -92.5335, 54.8148, -37.5762, 35.7801, 15.5301, 68.9712, -104.639, 17.517
1.612, -1, -33.569, -1.91467, 23.1948, -159.946, -92.5335, 54.8148, -37.4627, 35.6651, 15.4943, 68.7684, -104.621, 17.1991
1.616, -1, -33.569, -1.91467, 23.1948, -159.946, -92.5335, 54.8148, -37.3494, 35.5501, 15.4585, 68.5657, -104.602, 16.8813
1.62, -1, -33.569, -1.91467, 23.1948, -159.946, -92.5335, 54.8148, -37.236, 35.4352, 15.4227, 68.3632, -104.584, 16.5637
1.624, -1, -33.569, -1.91467, 23.1948, -159.946, -92.5335, 54.8148, -37.1228, 35.3204, 15.387, 68.1607, -104.565, 16.2463
1.628, -1, -33.569, -1.91467, 23.1948, -159.946, -92.5335, 54.8148, -37.0096, 35.2056, 15.3512, 67.9584, -104.547, 15.929
1.632, -1, -33.569, -1.91467, 23.1948, -159.946, -92.5335, 54.8148, -36.8965, 35.091, 15.3155, 67.7562, -104.528, 15.612
1.636, -1, -33.569, -1.91467, 23.1948, -159.946, -92.5335, 54.8148, -36.7834, 34.9763, 15.2799, 67.5541, -104.51, 15.2951
1.64, -1, -33.569, -1.91467, 23.1948, -159.946, -92.5335, 54.8148, -36.6704, 34.8618, 15.2442, 67.3522, -104.491, 14.9783
1.644, -1, -33.569, -1.91467, 23.1948, -159.946, -92.5335, 54.8148, -36.5575, 34.7472, 15.2085, 67.1503, -104.473, 14.6618
1.648, -1, -33.569, -1.91467, 23.1948, -159.946, -92.5335, 54.8148, -36.4446, 34.6328, 15.1729, 66.9485, -104.454, 14.3454
1.652, -1, -33.569, -1.91467, 23.1948, -159.946, -92.5335, 54.8148, -36.3318, 34.5184, 15.1373, 66.7469, -104.436, 14.0292
1.656, -1, -33.569, -1.91467, 23.1948, -159.946, -92.5335, 54.8148, -36.219, 34.4041, 15.1017, 66.5453, -104.418, 13.7132
1.66, -1, -33.569, -1.91467, 23.1948, -159.946, -92.5335, 54.8148, -36.1063, 34.2898, 15.0661, 66.3439, -104.399, 13.3973
1.664, -1, -33.569, -1.91467, 23.1948, -159.946, -92.5335, 54.8148, -35.9937, 34.1756, 15.0306, 66.1426, -104.381, 13.0816
1.668, -1, -33.569, -1.91467, 23.1948, -159.946, -92.5335, 54.8148, -35.8811, 34.0615, 14.9951, 65.9413, -104.362, 12.7661
1.672, -1, -33.569, -1.91467, 23.1948, -159.946, -92.5335, 54.8148, -35.7686, 33.9474, 14.9595, 65.7402, -104.344, 12.4507
1.676, -1, -33.569, -1.91467, 23.1948, -159.946, -92.5335, 54.8148, -35.6561, 33.8334, 14.924, 65.5392, -104.326, 12.1355
1.68, -1, -33.569, -1.91467, 23.1948, -159.946, -92.5335, 54.8148, -35.5437, 33.7194, 14.8886, 65.3382, -104.307, 11.8204
1.684, -1, -33.569, -1.91467, 23.1948, -159.946, -92.5335, 54.8148, -35.4313, 33.6055, 14.8531, 65.1374, -104.289, 11.5055
1.688, -1, -33.569, -1.91467, 23.1948, -159.946, -92.5335, 54.8148, -35.319, 33.4916, 14.8177, 64.9367, -104.271, 11.1907
1.692, -1, -33.569, -1.91467, 23.1948, -159.946, -92.5335, 54.8148, -35.2068, 33.3778, 14.7822, 64.7361, -104.252, 10.8761
1.696, -1, -33.569, -1.91467, 23.1948, -159.946, -92.5335, 54.8148, -35.0946, 33.2641, 14.7468, 64.5355, -104.234, 10.5617
1.7, -1, -33.569, -1.91467, 23.1948, -159.946, -92.5335, 54.8148, -34.9825, 33.1504, 14.7114, 64.3351, -104.216, 10.2474
1.704, -1, -33.569, -1.91467, 23.1948, -159.946, -92.5335, 54.8148, -34.8704, 33.0367, 14.676, 64.1347, -104.197, 9.93319
1.708, -1, -33.569, -1.91467, 23.1948, -159.946, -92.5335, 54.8148, -34.7583, 32.9231, 14.6407, 63.9345, -104.179, 9.61918
1.712, -1, -33.569, -1.91467, 23.1948, -159.946, -92.5335, 54.8148, -34.6464, 32.8096, 14.6053, 63.7343, -104.161, 9.30531
1.716, -1, -33.569, -1.91467, 23.1948, -159.946, -92.5335, 54.8148, -34.5344, 32.6961, 14.57, 63.5342, -104.142, 8.99159
1.72, -1, -33.569, -1.91467, 23.1948, -159.946, -92.5335, 54.8148, -34.4226, 32.5827, 14.5347, 63.3343, -104.124, 8.67801
1.724, -1, -33.569, -1.91467, 23.1948, -159.946, -92.5335, 54.8148, -34.3107, 32.4693, 14.4994, 63.1344, -104.106, 8.36457
1.728, -1, -33.569, -1.91467, 23.1948, -159.946, -92.5335, 54.8148, -34.1989, 32.356, 14.4641, 62.9346, -104.088, 8.05127
1.732, -1, -33.569, -1.91467, 23.1948, -159.946, -92.5335, 54.8148, -34.0872, 32.2427, 14.4289, 62.7349, -104.069, 7.73811
1.736, -1, -33.569, -1.91467, 23.1948, -159.946, -92.5335, 54.8148, -33.9755, 32.1294, 14.3936, 62.5352, -104.051, 7.42508
1.74, -1, -33.569, -1.91467, 23.1948, -159.946, -92.5335, 54.8148, -33.8639, 32.0163, 14.3584, 62.3357, -104.033, 7.1122
1.744, -1, -33.569, -1.91467, 23.1948, -159.946, -92.5335, 54.8148, -33.7523, 31.9031, 14.3232, 62.1362, -104.015, 6.79944
1.748, -1, -33.569, -1.91467, 23.1948, -159.946, -92.5335, 54.8148, -33.6408, 31.79, 14.288, 61.9369, -103.997, 6.48683
1.752, -1, -33.569, -1.91467, 23.1948, -159.946, -92.5335, 54.8148, -33.5293, 31.677, 14.2528, 61.7376, -103.978, 6.17434
1.756, -1, -33.569, -1.91467, 23.1948, -159.946, -92.5335, 54.8148, -33.4178, 31.564, 14.2176, 61.5384, -103.96, 5.86199
1.76, -1, -33.569, -1.91467, 23.1948, -159.946, -92.5335, 54.8148, -33.3064, 31.4511, 14.1824, 61.3393, -103.942, 5.54977
1.764, -1, -33.569, -1.91467, 23.1948, -159.946, -92.5335, 54.8148, -33.1951, 31.3382, 14.1473, 61.1403, -103.924, 5.23767
1.768, -1, -33.569, -1.91467, 23.1948, -159.946, -92.5335, 54.8148, -33.0838, 31.2253, 14.1122, 60.9413, -103.906, 4.9257
1.772, -1, -33.569, -1.91467, 23.1948, -159.946, -92.5335, 54.8148, -32.9725, 31.1125, 14.077, 60.7424, -103.887, 4.61386
1.776, -1, -33.569, -1.91467, 23.1948, -159.946, -92.5335, 54.8148, -32.8613, 30.9998, 14.0419, 60.5437, -103.869, 4.30215
1.78, -1, -33.569, -1.91467, 23.1948, -159.946, -92.5335, 54.8148, -32.7501, 30.887, 14.0068, 60.3449, -103.851, 3.99056
1.784, -1, -33.569, -1.91467, 23.1948, -159.946, -92.5335, 54.8148, -32.639, 30.7744, 13.9718, 60.1463, -103.833, 3.67909
1.788, -1, -33.569, -1.91467, 23.1948, -159.946, -92.5335, 54.8148, -32.5279, 30.6617, 13.9367, 59.9478, -103.815, 3.36774
1.792, -1, -33.569, -1.91467, 23.1948, -159.946, -92.5335, 54.8148, -32.4169, 30.5492, 13.9017, 59.7493, -103.797, 3.05652
1.796, -1, -33.569, -1.91467, 23.1948, -159.946, -92.5335, 54.8148, -32.3059, 30.4366, 13.8666, 59.5509, -103.779, 2.74541
1.8, -1, -33.569, -1.91467, 23.1948, -159.946, -92.5335, 54.8148, -32.1949, 30.3241, 13.8316, 59.3525, -103.76, 2.43442
1.804, -1, -33.569, -1.91467, 23.1948, -159.946, -92.5335, 54.8148, -32.084, 30.2117, 13.7966, 59.1543, -103.742, 2.12354
1.808, -1, -33.569, -1.91467, 23.1948, -159.946, -92.5335, 54.8148, -31.9732, 30.0993, 13.7616, 58.9561, -103.724, 1.81278
1.812, -1, -33.569, -1.91467, 23.1948, -159.946, -92.5335, 54.8148, -31.8623, 29.9869, 13.7266, 58.758, -103.706, 1.50214
1.816, -1, -33.569, -1.91467, 23.1948, -159.946, -92.5335, 54.8148, -31.7515, 29.8745, 13.6917, 58.56, -103.688, 1.19161
1.82, -1, -33.569, -1.91467, 23.1948, -159.946, -92.5335, 54.8148, -31.6408, 29.7623, 13.6567, 58.362, -103.67, 0.881182
1.824, -1, -33.569, -1.91467, 23.1948, -159.946, -92.5335, 54.8148, -31.5301, 29.65, 13.6218, 58.1641, -103.652, 0.570867
1.828, -1, -33.569, -1.91467, 23.1948, -159.946, -92.5335, 54.8148, -31.4194, 29.5378, 13.5868, 57.9663, -103.634, 0.260658
1.832, -1, -33.569, -1.91467, 23.1948, -159.946, -92.5335, 54.8148, -31.3087, 29.4256, 13.5519, 57.7685, -103.616, -0.0494455
1.836, -1, -33.569, -1.91467, 23.1948, -159.946, -92.5335, 54.8148, -31.1981, 29.3135, 13.517, 57.5708, -103.598, -0.359446
1.84, -1, -33.569, -1.91467, 23.1948, -159.946, -92.5335, 54.8148, -31.0876, 29.2014, 13.4821, 57.3732, -103.58, -0.669345
1.844, -1, -33.569, -1.91467, 23.1948, -159.946, -92.5335, 54.8148, -30.977, 29.0893, 13.4472, 57.1756, -103.562, -0.979144
1.848, -1, -33.569, -1.91467, 23.1948, -159.946, -92.5335, 54.8148, -30.8666, 28.9773, 13.4123, 56.9781, -103.544, -1.28884
1.852, -1, -33.569, -1.91467, 23.1948, -159.946, -92.5335, 54.8148, -30.7561, 28.8653, 13.3775, 56.7807, -103.526, -1.59844
1.856, -1, -33.569, -1.91467, 23.1948, -159.946, -92.5335, 54.8148, -30.6457, 28.7533, 13.3426, 56.5833, -103.507, -1.90795
1.86, -1, -33.569, -1.91467, 23.1948, -159.946, -92.5335, 54.8148, -30.5353, 28.6414, 13.3078, 56.386, -103.489, -2.21736
1.864, -1, -33.569, -1.91467, 23.1948, -159.946, -92.5335, 54.8148, -30.4249, 28.5295, 13.2729, 56.1887, -103.471, -2.52667
1.868, -1, -33.569, -1.91467, 23.1948, -159.946, -92.5335, 54.8148, -30.3146, 28.4176, 13.2381, 55.9915, -103.453, -2.83589
1.872, -1, -33.569, -1.91467, 23.1948, -159.946, -92.5335, 54.8148, -30.2043, 28.3058, 13.2033, 55.7944, -103.435, -3.14502
1.876, -1, -33.569, -1.91467, 23.1948, -159.946, -92.5335, 54.8148, -30.094, 28.194, 13.1685, 55.5973, -103.417, -3.45405
1.88, -1, -33.569, -1.91467, 23.1948, -159.946, -92.5335, 54.8148, -29.9838, 28.0823, 13.1337, 55.4003, -103.399, -3.763
1.884, -1, -33.569, -1.91467, 23.1948, -159.946, -92.5335, 54.8148, -29.8736, 27.9705, 13.0989, 55.2033, -103.381, -4.07185
1.888, -1, -33.569, -1.91467, 23.1948, -159.946, -92.5335, 54.8148, -29.7635, 27.8589, 13.0642, 55.0064, -103.363, -4.38062
1.892, -1, -33.569, -1.91467, 23.1948, -159.946, -92.5335, 54.8148, -29.6533, 27.7472, 13.0294, 54.8096, -103.345, -4.6893
1.896, -1, -33.569, -1.91467, 23.1948, -159.946, -92.5335, 54.8148, -29.5432, 27.6356, 12.9947, 54.6128, -103.327, -4.99789
1.9, -1, -33.569, -1.91467, 23.1948, -159.946, -92.5335, 54.8148, -29.4332, 27.524, 12.9599, 54.416, -103.309, -5.3064
1.904, -1, -33.569, -1.91467, 23.1948, -159.946, -92.5335, 54.8148, -29.3231, 27.4124, 12.9252, 54.2193, -103.292, -5.61483
1.908, -1, -33.569, -1.91467, 23.1948, -159.946, -92.5335, 54.8148, -29.2131, 27.3009, 12.8905, 54.0227, -103.274, -5.92317
1.912, -1, -33.569, -1.91467, 23.1948, -159.946, -92.5335, 54.8148, -29.1031, 27.1893, 12.8557, 53.8261, -103.256, -6.23144
1.916, -1, -33.569, -1.91467, 23.1948, -159.946, -92.5335, 54.8148, -28.9932, 27.0779, 12.821, 53.6296, -103.238, -6.53962
1.92, -1, -33.569, -1.91467, 23.1948, -159.946, -92.5335, 54.8148, -28.8833, 26.9664, 12.7863, 53.4331, -103.22, -6.84772
1.924, -1, -33.569, -1.91467, 23.1948, -159.946, -92.5335, 54.8148, -28.7734, 26.855, 12.7517, 53.2366, -103.202, -7.15574
1.928, -1, -33.569, -1.91467, 23.1948, -159.946, -92.5335, 54.8148, -28.6635, 26.7436, 12.717, 53.0402, -103.184, -7.46369
1.932, -1, -33.569, -1.91467, 23.1948, -159.946, -92.5335, 54.8148, -28.5536, 26.6322, 12.6823, 52.8439, -103.166, -7.77156
1.936, -1, -33.569, -1.91467, 23.1948, -159.946, -92.5335, 54.8148, -28.4438, 26.5209, 12.6477, 52.6476, -103.148, -8.07936
1.94, -1, -33.569, -1.91467, 23.1948, -159.946, -92.5335, 54.8148, -28.334, 26.4096, 12.613, 52.4514, -103.13, -8.38708
1.944, -1, -33.569, -1.91467, 23.1948, -159.946, -92.5335, 54.8148, -28.2243, 26.2983, 12.5784, 52.2552, -103.112, -8.69473
1.948, -1, -33.569, -1.91467, 23.1948, -159.946, -92.5335, 54.8148, -28.1145, 26.187, 12.5437, 52.059, -103.094, -9.0023
1.952, -1, -33.569, -1.91467, 23.1948, -159.946, -92.5335, 54.8148, -28.0048, 26.0758, 12.5091, 51.8629, -103.076, -9.30981
1.956, -1, -33.569, -1.91467, 23.1948, -159.946, -92.5335, 54.8148, -27.8951, 25.9646, 12.4745, 51.6669, -103.058, -9.61724
1.96, -1, -33.569, -1.91467, 23.1948, -159.946, -92.5335, 54.8148, -27.7855, 25.8534, 12.4399, 51.4709, -103.04, -9.92461
1.964, -1, -33.569, -1.91467, 23.1948, -159.946, -92.5335, 54.8148, -27.6758, 25.7422, 12.4053, 51.2749, -103.023, -10.2319
1.968, -1, -33.569, -1.91467, 23.1948, -159.946, -92.5335, 54.8148, -27.5662, 25.6311, 12.3707, 51.0789, -103.005, -10.5392
1.972, -1, -33.569, -1.91467, 23.1948, -159.946, -92.5335, 54.8148, -27.4566, 25.52, 12.3361, 50.883, -102.987, -10.8463
1.976, -1, -33.569, -1.91467, 23.1948, -159.946, -92.5335, 54.8148, -27.3471, 25.4089, 12.3015, 50.6872, -102.969, -11.1534
1.98, -1, -33.569, -1.91467, 23.1948, -159.946, -92.5335, 54.8148, -27.2375, 25.2978, 12.2669, 50.4914, -102.951, -11.4605
1.984, -1, -33.569, -1.91467, 23.1948, -159.946, -92.5335, 54.8148, -27.128, 25.1867, 12.2323, 50.2956, -102.933, -11.7675
1.988, -1, -33.569, -1.91467, 23.1948, -159.946, -92.5335, 54.8148, -27.0185, 25.0757, 12.1978, 50.0999, -102.915, -12.0744
1.992, -1, -33.569, -1.91467, 23.1948, -159.946, -92.5335, 54.8148, -26.909, 24.9647, 12.1632, 49.9041, -102.897, -12.3813
1.996, -1, -33.569, -1.91467, 23.1948, -159.946, -92.5335, 54.8148, -26.7995, 24.8537, 12.1287, 49.7085, -102.879, -12.6881
1.999, -1, -33.569, -1.91467, 23.1948, -159.946, -92.5335, 54.8148, -26.6901, 24.7427, 12.0941, 49.5128, -102.862, -12.9949
2.004, -1, -33.569, -1.91467, 23.1948, -159.946, -92.5335, 54.8148, -26.5806, 24.6318, 12.0596, 49.3172, -102.844, -13.3016
2.008, -1, -33.569, -1.91467, 23.1948, -159.946, -92.5335, 54.8148, -26.4712, 24.5208, 12.025, 49.1217, -102.826, -13.6083
2.012, -1, -33.569, -1.91467, 23.1948, -159.946, -92.5335, 54.8148, -26.3618, 24.4099, 11.9905, 48.9261, -102.808, -13.9149
2.015, -1, -33.569, -1.91467, 23.1948, -159.946, -92.5335, 54.8148, -26.2524, 24.299, 11.956, 48.7306, -102.79, -14.2215
2.019, -1, -33.569, -1.91467, 23.1948, -159.946, -92.5335, 54.8148, -26.1431, 24.1882, 11.9215, 48.5351, -102.772, -14.528
2.024, -1, -33.569, -1.91467, 23.1948, -159.946, -92.5335, 54.8148, -26.0337, 24.0773, 11.887, 48.3397, -102.754, -14.8345
2.028, -1, -33.569, -1.91467, 23.1948, -159.946, -92.5335, 54.8148, -25.9244, 23.9664, 11.8525, 48.1443, -102.737, -15.1409
2.031, -1, -33.569, -1.91467, 23.1948, -159.946, -92.5335, 54.8148, -25.8151, 23.8556, 11.818, 47.9489, -102.719, -15.4473
2.036, -1, -33.569, -1.91467, 23.1948, -159.946, -92.5335, 54.8148, -25.7058, 23.7448, 11.7835, 47.7535, -102.701, -15.7536
2.04, -1, -33.569, -1.91467, 23.1948, -159.946, -92.5335, 54.8148, -25.5965, 23.634, 11.749, 47.5582, -102.683, -16.0599
2.044, -1, -33.569, -1.91467, 23.1948, -159.946, -92.5335, 54.8148, -25.4873, 23.5232, 11.7145, 47.3629, -102.665, -16.3662
2.048, -1, -33.569, -1.91467, 23.1948, -159.946, -92.5335, 54.8148, -25.378, 23.4124, 11.68, 47.1676, -102.647, -16.6724
2.051, -1, -33.569, -1.91467, 23.1948, -159.946, -92.5335, 54.8148, -25.2688, 23.3017, 11.6455, 46.9723, -102.63, -16.9786
2.055, -1, -33.569, -1.91467, 23.1948, -159.946, -92.5335, 54.8148, -25.1596, 23.191, 11.611, 46.7771, -102.612, -17.2847
2.06, -1, -33.569, -1.91467, 23.1948, -159.946, -92.5335, 54.8148, -25.0504, 23.0802, 11.5766, 46.5819, -102.594, -17.5908
2.064, -1, -33.569, -1.91467, 23.1948, -159.946, -92.5335, 54.8148, -24.9412, 22.9695, 11.5421, 46.3867, -102.576, -17.8968
2.068, -1, -33.569, -1.91467, 23.1948, -159.946, -92.5335, 54.8148, -24.832, 22.8588, 11.5076, 46.1916, -102.558, -18.2029
2.071, -1, -33.569, -1.91467, 23.1948, -159.946, -92.5335, 54.8148, -24.7228, 22.7481, 11.4732, 45.9964, -102.54, -18.5089
2.076, -1, -33.569, -1.91467, 23.1948, -159.946, -92.5335, 54.8148, -24.6137, 22.6375, 11.4387, 45.8013, -102.523, -18.8148
2.08, -1, -33.569, -1.91467, 23.1948, -159.946, -92.5335, 54.8148, -24.5045, 22.5268, 11.4043, 45.6062, -102.505, -19.1207
2.084, -1, -33.569, -1.91467, 23.1948, -159.946, -92.5335, 54.8148, -24.3954, 22.4161, 11.3698, 45.4112, -102.487, -19.4266
2.087, -1, -33.569, -1.91467, 23.1948, -159.946, -92.5335, 54.8148, -24.2863, 22.3055, 11.3354, 45.2161, -102.469, -19.7325
2.092, -1, -33.569, -1.91467, 23.1948, -159.946, -92.5335, 54.8148, -24.1772, 22.1949, 11.301, 45.0211, -102.451, -20.0383
2.096, -1, -33.569, -1.91467, 23.1948, -159.946, -92.5335, 54.8148, -24.0681, 22.0843, 11.2665, 44.8261, -102.433, -20.3441
2.1, -1, -33.569, -1.91467, 23.1948, -159.946, -92.5335, 54.8148, -23.959, 21.9737, 11.2321, 44.6311, -102.416, -20.6498
2.104, -1, -33.569, -1.91467, 23.1948, -159.946, -92.5335, 54.8148, -23.8499, 21.8631, 11.1977, 44.4361, -102.398, -20.9556
2.107, -1, -33.569, -1.91467, 23.1948, -159.946, -92.5335, 54.8148, -23.7408, 21.7525, 11.1632, 44.2411, -102.38, -21.2613
2.111, -1, -33.569, -1.91467, 23.1948, -159.946, -92.5335, 54.8148, -23.6318, 21.6419, 11.1288, 44.0462, -102.362, -21.567
2.116, -1, -33.569, -1.91467, 23.1948, -159.946, -92.5335, 54.8148, -23.5227, 21.5313, 11.0944, 43.8513, -102.344, -21.8726
2.12, -1, -33.569, -1.91467, 23.1948, -159.946, -92.5335, 54.8148, -23.4137, 21.4208, 11.06, 43.6564, -102.327, -22.1783
2.124, -1, -33.569, -1.91467, 23.1948, -159.946, -92.5335, 54.8148, -23.3046, 21.3102, 11.0256, 43.4615, -102.309, -22.4839
2.127, -1, -33.569, -1.91467, 23.1948, -159.946, -92.5335, 54.8148, -23.1956, 21.1997, 10.9912, 43.2666, -102.291, -22.7895
2.132, -1, -33.569, -1.91467, 23.1948, -159.946, -92.5335, 54.8148, -23.0866, 21.0891, 10.9567, 43.0717, -102.273, -23.0951
2.136, -1, -33.569, -1.91467, 23.1948, -159.946, -92.5335, 54.8148, -22.9775, 20.9786, 10.9223, 42.8768, -102.255, -23.4006
2.14, -1, -33.569, -1.91467, 23.1948, -159.946, -92.5335, 54.8148, -22.8685, 20.8681, 10.8879, 42.682, -102.238, -23.7062
2.143, -1, -33.569, -1.91467, 23.1948, -159.946, -92.5335, 54.8148, -22.7595, 20.7575, 10.8535, 42.4871, -102.22, -24.0117
2.148, -1, -33.569, -1.91467, 23.1948, -159.946, -92.5335, 54.8148, -22.6505, 20.647, 10.8191, 42.2923, -102.202, -24.3172
2.152, -1, -33.569, -1.91467, 23.1948, -159.946, -92.5335, 54.8148, -22.5415, 20.5365, 10.7847, 42.0974, -102.184, -24.6228
2.156, -1, -33.569, -1.91467, 23.1948, -159.946, -92.5335, 54.8148, -22.4325, 20.426, 10.7503, 41.9026, -102.166, -24.9283
2.16, -1, -33.569, -1.91467, 23.1948, -159.946, -92.5335, 54.8148, -22.3235, 20.3155, 10.7159, 41.7078, -102.149, -25.2338
2.163, -1, -33.569, -1.91467, 23.1948, -159.946, -92.5335, 54.8148, -22.2145, 20.205, 10.6815, 41.513, -102.131, -25.5392
2.168, -1, -33.569, -1.91467, 23.1948, -159.946, -92.5335, 54.8148, -22.1056, 20.0945, 10.6471, 41.3182, -102.113, -25.8447
2.172, -1, -33.569, -1.91467, 23.1948, -159.946, -92.5335, 54.8148, -21.9966, 19.984, 10.6127, 41.1234, -102.095, -26.1502
2.176, -1, -33.569, -1.91467, 23.1948, -159.946, -92.5335, 54.8148, -21.8876, 19.8735, 10.5783, 40.9285, -102.077, -26.4557
2.179, -1, -33.569, -1.91467, 23.1948, -159.946, -92.5335, 54.8148, -21.7786, 19.763, 10.5439, 40.7337, -102.06, -26.7611
2.184, -1, -33.569, -1.91467, 23.1948, -159.946, -92.5335, 54.8148, -21.6696, 19.6525, 10.5095, 40.5389, -102.042, -27.0666
2.188, -1, -33.569, -1.91467, 23.1948, -159.946, -92.5335, 54.8148, -21.5607, 19.542, 10.4751, 40.3441, -102.024, -27.372
2.192, -1, -33.569, -1.91467, 23.1948, -159.946, -92.5335, 54.8148, -21.4517, 19.4315, 10.4407, 40.1494, -102.006, -27.6775
2.196, -1, -33.569, -1.91467, 23.1948, -159.946, -92.5335, 54.8148, -21.3427, 19.321, 10.4063, 39.9546, -101.988, -27.9829
2.199, -1, -33.569, -1.91467, 23.1948, -159.946, -92.5335, 54.8148, -21.2337, 19.2105, 10.3719, 39.7598, -101.971, -28.2884
2.204, -1, -33.569, -1.91467, 23.1948, -159.946, -92.5335, 54.8148, -21.1247, 19.1, 10.3375, 39.565, -101.953, -28.5938
2.208, -1, -33.569, -1.91467, 23.1948, -159.946, -92.5335, 54.8148, -21.0158, 18.9895, 10.3031, 39.3702, -101.935, -28.8993
2.212, -1, -33.569, -1.91467, 23.1948, -159.946, -92.5335, 54.8148, -20.9068, 18.879, 10.2687, 39.1754, -101.917, -29.2048
2.216, -1, -33.569, -1.91467, 23.1948, -159.946, -92.5335, 54.8148, -20.7978, 18.7685, 10.2343, 38.9806, -101.899, -29.5102
2.219, -1, -33.569, -1.91467, 23.1948, -159.946, -92.5335, 54.8148, -20.6888, 18.658, 10.1999, 38.7858, -101.882, -29.8157
2.224, -1, -33.569, -1.91467, 23.1948, -159.946, -92.5335, 54.8148, -20.5798, 18.5475, 10.1655, 38.591, -101.864, -30.1212
2.228, -1, -33.569, -1.91467, 23.1948, -159.946, -92.5335, 54.8148, -20.4709, 18.437, 10.1311, 38.3961, -101.846, -30.4266
2.232, -1, -33.569, -1.91467, 23.1948, -159.946, -92.5335, 54.8148, -20.3619, 18.3265, 10.0967, 38.2013, -101.828, -30.7321
2.235, -1, -33.569, -1.91467, 23.1948, -159.946, -92.5335, 54.8148, -20.2529, 18.216, 10.0623, 38.0065, -101.81, -31.0376
2.24, -1, -33.569, -1.91467, 23.1948, -159.946, -92.5335, 54.8148, -20.1439, 18.1055, 10.0279, 37.8117, -101.793, -31.3431
2.244, -1, -33.569, -1.91467, 23.1948, -159.946, -92.5335, 54.8148, -20.0349, 17.995, 9.99353, 37.6168, -101.775, -31.6486
2.248, -1, -33.569, -1.91467, 23.1948, -159.946, -92.5335, 54.8148, -19.9259, 17.8844, 9.95913, 37.422, -101.757, -31.9542
2.252, -1, -33.569, -1.91467, 23.1948, -159.946, -92.5335, 54.8148, -19.8169, 17.7739, 9.92472, 37.2271, -101.739, -32.2597
2.255, -1, -33.569, -1.91467, 23.1948, -159.946, -92.5335, 54.8148, -19.7079, 17.6634, 9.89032, 37.0323, -101.721, -32.5653
2.259, -1, -33.569, -1.91467, 23.1948, -159.946, -92.5335, 54.8148, -19.5989, 17.5529, 9.8559, 36.8374, -101.704, -32.8708
2.264, -1, -33.569, -1.91467, 23.1948, -159.946, -92.5335, 54.8148, -19.4898, 17.4423, 9.82149, 36.6425, -101.686, -33.1764
2.268, -1, -33.569, -1.91467, 23.1948, -159.946, -92.5335, 54.8148, -19.3808, 17.3318, 9.78708, 36.4476, -101.668, -33.482
2.272, -1, -33.569, -1.91467, 23.1948, -159.946, -92.5335, 54.8148, -19.2718, 17.2212, 9.75267, 36.2528, -101.65, -33.7876
2.275, -1, -33.569, -1.91467, 23.1948, -159.946, -92.5335, 54.8148, -19.1627, 17.1107, 9.71825, 36.0578, -101.632, -34.0933
2.28, -1, -33.569, -1.91467, 23.1948, -159.946, -92.5335, 54.8148, -19.0537, 17.0001, 9.68383, 35.8629, -101.615, -34.3989
2.284, -1, -33.569, -1.91467, 23.1948, -159.946, -92.5335, 54.8148, -18.9446, 16.8895, 9.64941, 35.668, -101.597, -34.7046
2.288, -1, -33.569, -1.91467, 23.1948, -159.946, -92.5335, 54.8148, -18.8356, 16.7789, 9.61499, 35.473, -101.579, -35.0103
2.291, -1, -33.569, -1.91467, 23.1948, -159.946, -92.5335, 54.8148, -18.7265, 16.6683, 9.58056, 35.2781, -101.561, -35.316
2.296, -1, -33.569, -1.91467, 23.1948, -159.946, -92.5335, 54.8148, -18.6174, 16.5577, 9.54613, 35.0831, -101.543, -35.6217
2.3, -1, -33.569, -1.91467, 23.1948, -159.946, -92.5335, 54.8148, -18.5083, 16.4471, 9.5117, 34.8881, -101.526, -35.9275
2.304, -1, -33.569, -1.91467, 23.1948, -159.946, -92.5335, 54.8148, -18.3992, 16.3365, 9.47726, 34.6931, -101.508, -36.2333
2.308, -1, -33.569, -1.91467, 23.1948, -159.946, -92.5335, 54.8148, -18.2901, 16.2259, 9.44282, 34.498, -101.49, -36.5392
2.311, -1, -33.569, -1.91467, 23.1948, -159.946, -92.5335, 54.8148, -18.181, 16.1152, 9.40838, 34.303, -101.472, -36.845
2.316, -1, -33.569, -1.91467, 23.1948, -159.946, -92.5335, 54.8148, -18.0718, 16.0046, 9.37393, 34.1079, -101.454, -37.1509
2.32, -1, -33.569, -1.91467, 23.1948, -159.946, -92.5335, 54.8148, -17.9627, 15.8939, 9.33948, 33.9128, -101.436, -37.4569
2.324, -1, -33.569, -1.91467, 23.1948, -159.946, -92.5335, 54.8148, -17.8535, 15.7832, 9.30503, 33.7177, -101.419, -37.7628
2.328, -1, -33.569, -1.91467, 23.1948, -159.946, -92.5335, 54.8148, -17.7444, 15.6725, 9.27057, 33.5225, -101.401, -38.0688
2.331, -1, -33.569, -1.91467, 23.1948, -159.946, -92.5335, 54.8148, -17.6352, 15.5618, 9.23611, 33.3273, -101.383, -38.3749
2.336, -1, -33.569, -1.91467, 23.1948, -159.946, -92.5335, 54.8148, -17.526, 15.4511, 9.20164, 33.1322, -101.365, -38.6809
2.34, -1, -33.569, -1.91467, 23.1948, -159.946, -92.5335, 54.8148, -17.4168, 15.3404, 9.16717, 32.9369, -101.347, -38.987
2.344, -1, -33.569, -1.91467, 23.1948, -159.946, -92.5335, 54.8148, -17.3076, 15.2297, 9.1327, 32.7417, -101.33, -39.2932
2.347, -1, -33.569, -1.91467, 23.1948, -159.946, -92.5335, 54.8148, -17.1983, 15.1189, 9.09822, 32.5464, -101.312, -39.5994
2.352, -1, -33.569, -1.91467, 23.1948, -159.946, -92.5335, 54.8148, -17.0891, 15.0081, 9.06373, 32.3512, -101.294, -39.9056
2.356, -1, -33.569, -1.91467, 23.1948, -159.946, -92.5335, 54.8148, -16.9798, 14.8973, 9.02925, 32.1558, -101.276, -40.2118
2.36, -1, -33.569, -1.91467, 23.1948, -159.946, -92.5335, 54.8148, -16.8705, 14.7865, 8.99475, 31.9605, -101.258, -40.5181
2.364, -1, -33.569, -1.91467, 23.1948, -159.946, -92.5335, 54.8148, -16.7612, 14.6757, 8.96026, 31.7651, -101.24, -40.8245
2.367, -1, -33.569, -1.91467, 23.1948, -159.946, -92.5335, 54.8148, -16.6519, 14.5649, 8.92576, 31.5698, -101.222, -41.1309
2.372, -1, -33.569, -1.91467, 23.1948, -159.946, -92.5335, 54.8148, -16.5426, 14.454, 8.89125, 31.3743, -101.205, -41.4373
2.376, -1, -33.569, -1.91467, 23.1948, -159.946, -92.5335, 54.8148, -16.4333, 14.3432, 8.85674, 31.1789, -101.187, -41.7438
2.38, -1, -33.569, -1.91467, 23.1948, -159.946, -92.5335, 54.8148, -16.3239, 14.2323, 8.82222, 30.9834, -101.169, -42.0503
2.383, -1, -33.569, -1.91467, 23.1948, -159.946, -92.5335, 54.8148, -16.2145, 14.1214, 8.7877, 30.7879, -101.151, -42.3569
2.388, -1, -33.569, -1.91467, 23.1948, -159.946, -92.5335, 54.8148, -16.1051, 14.0105, 8.75317, 30.5924, -101.133, -42.6635
2.392, -1, -33.569, -1.91467, 23.1948, -159.946, -92.5335, 54.8148, -15.9957, 13.8996, 8.71864, 30.3968, -101.115, -42.9702
2.396, -1, -33.569, -1.91467, 23.1948, -159.946, -92.5335, 54.8148, -15.8863, 13.7886, 8.6841, 30.2012, -101.097, -43.2769
2.4, -1, -33.569, -1.91467, 23.1948, -159.946, -92.5335, 54.8148, -15.7769, 13.6776, 8.64955, 30.0056, -101.08, -43.5836
2.403, -1, -33.569, -1.91467, 23.1948, -159.946, -92.5335, 54.8148, -15.6674, 13.5667, 8.615, 29.8099, -101.062, -43.8904
2.408, -1, -33.569, -1.91467, 23.1948, -159.946, -92.5335, 54.8148, -15.5579, 13.4556, 8.58045, 29.6142, -101.044, -44.1973
2.412, -1, -33.569, -1.91467, 23.1948, -159.946, -92.5335, 54.8148, -15.4484, 13.3446, 8.54589, 29.4185, -101.026, -44.5042
2.416, -1, -33.569, -1.91467, 23.1948, -159.946, -92.5335, 54.8148, -15.3389, 13.2336, 8.51132, 29.2227, -101.008, -44.8112
2.42, -1, -33.569, -1.91467, 23.1948, -159.946, -92.5335, 54.8148, -15.2294, 13.1225, 8.47675, 29.0269, -100.99, -45.1182
2.423, -1, -33.569, -1.91467, 23.1948, -159.946, -92.5335, 54.8148, -15.1198, 13.0114, 8.44217, 28.8311, -100.972, -45.4253
2.428, -1, -33.569, -1.91467, 23.1948, -159.946, -92.5335, 54.8148, -15.0103, 12.9003, 8.40758, 28.6352, -100.954, -45.7325
2.432, -1, -33.569, -1.91467, 23.1948, -159.946, -92.5335, 54.8148, -14.9007, 12.7892, 8.37299, 28.4393, -100.936, -46.0396
2.436, -1, -33.569, -1.91467, 23.1948, -159.946, -92.5335, 54.8148, -14.791, 12.6781, 8.33839, 28.2433, -100.919, -46.3469
2.439, -1, -33.569, -1.91467, 23.1948, -159.946, -92.5335, 54.8148, -14.6814, 12.5669, 8.30378, 28.0474, -100.901, -46.6542
2.444, -1, -33.569, -1.91467, 23.1948, -159.946, -92.5335, 54.8148, -14.5717, 12.4557, 8.26917, 27.8513, -100.883, -46.9616
2.448, -1, -33.569, -1.91467, 23.1948, -159.946, -92.5335, 54.8148, -14.4621, 12.3445, 8.23455, 27.6553, -100.865, -47.2691
2.452, -1, -33.569, -1.91467, 23.1948, -159.946, -92.5335, 54.8148, -14.3523, 12.2332, 8.19992, 27.4592, -100.847, -47.5766
2.456, -1, -33.569, -1.91467, 23.1948, -159.946, -92.5335, 54.8148, -14.2426, 12.122, 8.16528, 27.263, -100.829, -47.8841
2.459, -1, -33.569, -1.91467, 23.1948, -159.946, -92.5335, 54.8148, -14.1329, 12.0107, 8.13064, 27.0668, -100.811, -48.1918
2.464, -1, -33.569, -1.91467, 23.1948, -159.946, -92.5335, 54.8148, -14.0231, 11.8994, 8.09599, 26.8706, -100.793, -48.4995
2.468, -1, -33.569, -1.91467, 23.1948, -159.946, -92.5335, 54.8148, -13.9133, 11.788, 8.06133, 26.6743, -100.775, -48.8073
2.472, -1, -33.569, -1.91467, 23.1948, -159.946, -92.5335, 54.8148, -13.8034, 11.6767, 8.02666, 26.478, -100.757, -49.1152
2.476, -1, -33.569, -1.91467, 23.1948, -159.946, -92.5335, 54.8148, -13.6936, 11.5653, 7.99198, 26.2816, -100.739, -49.4231
2.479, -1, -33.569, -1.91467, 23.1948, -159.946, -92.5335, 54.8148, -13.5837, 11.4539, 7.9573, 26.0852, -100.721, -49.7311
2.484, -1, -33.569, -1.91467, 23.1948, -159.946, -92.5335, 54.8148, -13.4738, 11.3424, 7.92261, 25.8887, -100.703, -50.0392
2.488, -1, -33.569, -1.91467, 23.1948, -159.946, -92.5335, 54.8148, -13.3639, 11.231, 7.88791, 25.6922, -100.686, -50.3473
2.492, -1, -33.569, -1.91467, 23.1948, -159.946, -92.5335, 54.8148, -13.2539, 11.1195, 7.8532, 25.4956, -100.668, -50.6555
2.495, -1, -33.569, -1.91467, 23.1948, -159.946, -92.5335, 54.8148, -13.1439, 11.0079, 7.81848, 25.299, -100.65, -50.9638
2.5, -1, -33.569, -1.91467, 23.1948, -159.946, -92.5335, 54.8148, -13.0339, 10.8964, 7.78376, 25.1023, -100.632, -51.2722
2.504, -1, -33.569, -1.91467, 23.1948, -159.946, -92.5335, 54.8148, -12.9239, 10.7848, 7.74902, 24.9056, -100.614, -51.5807
2.508, -1, -33.569, -1.91467, 23.1948, -159.946, -92.5335, 54.8148, -12.8138, 10.6732, 7.71428, 24.7089, -100.596, -51.8892
2.512, -1, -33.569, -1.91467, 23.1948, -159.946, -92.5335, 54.8148, -12.7037, 10.5616, 7.67953, 24.5121, -100.578, -52.1978
2.515, -1, -33.569, -1.91467, 23.1948, -159.946, -92.5335, 54.8148, -12.5936, 10.4499, 7.64477, 24.3152, -100.56, -52.5065
2.52, -1, -33.569, -1.91467, 23.1948, -159.946, -92.5335, 54.8148, -12.4834, 10.3382, 7.61, 24.1183, -100.542, -52.8153
2.524, -1, -33.569, -1.91467, 23.1948, -159.946, -92.5335, 54.8148, -12.3732, 10.2265, 7.57522, 23.9213, -100.524, -53.1242
2.528, -1, -33.569, -1.91467, 23.1948, -159.946, -92.5335, 54.8148, -12.263, 10.1147, 7.54043, 23.7243, -100.506, -53.4331
2.531, -1, -33.569, -1.91467, 23.1948, -159.946, -92.5335, 54.8148, -12.1528, 10.0029, 7.50563, 23.5272, -100.488, -53.7421
2.536, -1, -33.569, -1.91467, 23.1948, -159.946, -92.5335, 54.8148, -12.0425, 9.89112, 7.47082, 23.3301, -100.47, -54.0512
2.54, -1, -33.569, -1.91467, 23.1948, -159.946, -92.5335, 54.8148, -11.9322, 9.77927, 7.436, 23.1329, -100.452, -54.3604
2.544, -1, -33.569, -1.91467, 23.1948, -159.946, -92.5335, 54.8148, -11.8219, 9.6674, 7.40118, 22.9357, -100.434, -54.6697
2.548, -1, -33.569, -1.91467, 23.1948, -159.946, -92.5335, 54.8148, -11.7115, 9.55549, 7.36634, 22.7384, -100.416, -54.9791
2.551, -1, -33.569, -1.91467, 23.1948, -159.946, -92.5335, 54.8148, -11.6011, 9.44355, 7.33149, 22.541, -100.398, -55.2885
2.556, -1, -33.569, -1.91467, 23.1948, -159.946, -92.5335, 54.8148, -11.4907, 9.33158, 7.29663, 22.3436, -100.38, -55.598
2.56, -1, -33.569, -1.91467, 23.1948, -159.946, -92.5335, 54.8148, -11.3802, 9.21957, 7.26177, 22.1462, -100.362, -55.9077
2.564, -1, -33.569, -1.91467, 23.1948, -159.946, -92.5335, 54.8148, -11.2697, 9.10754, 7.22689, 21.9487, -100.344, -56.2174
2.568, -1, -33.569, -1.91467, 23.1948, -159.946, -92.5335, 54.8148, -11.1592, 8.99547, 7.192, 21.7511, -100.326, -56.5272
2.571, -1, -33.569, -1.91467, 23.1948, -159.946, -92.5335, 54.8148, -11.0486, 8.88336, 7.1571, 21.5535, -100.307, -56.8371
2.576, -1, -33.569, -1.91467, 23.1948, -159.946, -92.5335, 54.8148, -10.9381, 8.77122, 7.1222, 21.3558, -100.289, -57.1471
2.58, -1, -33.569, -1.91467, 23.1948, -159.946, -92.5335, 54.8148, -10.8274, 8.65905, 7.08728, 21.158, -100.271, -57.4572
2.584, -1, -33.569, -1.91467, 23.1948, -159.946, -92.5335, 54.8148, -10.7168, 8.54684, 7.05235, 20.9602, -100.253, -57.7674
2.587, -1, -33.569, -1.91467, 23.1948, -159.946, -92.5335, 54.8148, -10.6061, 8.4346, 7.01741, 20.7623, -100.235, -58.0777
2.592, -1, -33.569, -1.91467, 23.1948, -159.946, -92.5335, 54.8148, -10.4953, 8.32232, 6.98246, 20.5644, -100.217, -58.3881
2.596, -1, -33.569, -1.91467, 23.1948, -159.946, -92.5335, 54.8148, -10.3846, 8.21001, 6.94749, 20.3664, -100.199, -58.6986
2.6, -1, -33.569, -1.91467, 23.1948, -159.946, -92.5335, 54.8148, -10.2738, 8.09765, 6.91252, 20.1683, -100.181, -59.0091
2.604, -1, -33.569, -1.91467, 23.1948, -159.946, -92.5335, 54.8148, -10.1629, 7.98527, 6.87753, 19.9702, -100.163, -59.3198
2.607, -1, -33.569, -1.91467, 23.1948, -159.946, -92.5335, 54.8148, -10.0521, 7.87284, 6.84254, 19.772, -100.145, -59.6306
2.612, -1, -33.569, -1.91467, 23.1948, -159.946, -92.5335, 54.8148, -9.94116, 7.76038, 6.80753, 19.5737, -100.127, -59.9415
2.616, -1, -33.569, -1.91467, 23.1948, -159.946, -92.5335, 54.8148, -9.83021, 7.64787, 6.7725, 19.3753, -100.108, -60.2525
2.62, -1, -33.569, -1.91467, 23.1948, -159.946, -92.5335, 54.8148, -9.71922, 7.53533, 6.73747, 19.1769, -100.09, -60.5636
2.624, -1, -33.569, -1.91467, 23.1948, -159.946, -92.5335, 54.8148, -9.6082, 7.42275, 6.70242, 18.9785, -100.072, -60.8749
2.627, -1, -33.569, -1.91467, 23.1948, -159.946, -92.5335, 54.8148, -9.49713, 7.31013, 6.66736, 18.7799, -100.054, -61.1862
2.632, -1, -33.569, -1.91467, 23.1948, -159.946, -92.5335, 54.8148, -9.38603, 7.19747, 6.63229, 18.5813, -100.036, -61.4976
2.636, -1, -33.569, -1.91467, 23.1948, -159.946, -92.5335, 54.8148, -9.27489, 7.08477, 6.59721, 18.3826, -100.018, -61.8092
2.64, -1, -33.569, -1.91467, 23.1948, -159.946, -92.5335, 54.8148, -9.1637, 6.97203, 6.56212, 18.1839, -99.9996, -62.1209
2.643, -1, -33.569, -1.91467, 23.1948, -159.946, -92.5335, 54.8148, -9.05248, 6.85925, 6.52701, 17.985, -99.9815, -62.4326
2.648, -1, -33.569, -1.91467, 23.1948, -159.946, -92.5335, 54.8148, -8.94121, 6.74643, 6.49188, 17.7861, -99.9633, -62.7445
2.652, -1, -33.569, -1.91467, 23.1948, -159.946, -92.5335, 54.8148, -8.82991, 6.63356, 6.45675, 17.5872, -99.9451, -63.0565
2.656, -1, -33.569, -1.91467, 23.1948, -159.946, -92.5335, 54.8148, -8.71856, 6.52066, 6.4216, 17.3881, -99.9269, -63.3687
2.66, -1, -33.569, -1.91467, 23.1948, -159.946, -92.5335, 54.8148, -8.60718, 6.40771, 6.38644, 17.189, -99.9088, -63.6809
2.663, -1, -33.569, -1.91467, 23.1948, -159.946, -92.5335, 54.8148, -8.49575, 6.29472, 6.35127, 16.9898, -99.8906, -63.9933
2.668, -1, -33.569, -1.91467, 23.1948, -159.946, -92.5335, 54.8148, -8.38428, 6.18169, 6.31608, 16.7905, -99.8724, -64.3057
2.672, -1, -33.569, -1.91467, 23.1948, -159.946, -92.5335, 54.8148, -8.27277, 6.06862, 6.28088, 16.5912, -99.8541, -64.6183
2.676, -1, -33.569, -1.91467, 23.1948, -159.946, -92.5335, 54.8148, -8.16122, 5.9555, 6.24567, 16.3917, -99.8359, -64.931
2.679, -1, -33.569, -1.91467, 23.1948, -159.946, -92.5335, 54.8148, -8.04962, 5.84234, 6.21044, 16.1922, -99.8177, -65.2439
2.684, -1, -33.569, -1.91467, 23.1948, -159.946, -92.5335, 54.8148, -7.93799, 5.72913, 6.1752, 15.9927, -99.7995, -65.5568
2.688, -1, -33.569, -1.91467, 23.1948, -159.946, -92.5335, 54.8148, -7.8263, 5.61588, 6.13995, 15.793, -99.7812, -65.8699
2.692, -1, -33.569, -1.91467, 23.1948, -159.946, -92.5335, 54.8148, -7.71458, 5.50259, 6.10468, 15.5933, -99.763, -66.1831
2.696, -1, -33.569, -1.91467, 23.1948, -159.946, -92.5335, 54.8148, -7.60281, 5.38925, 6.0694, 15.3935, -99.7447, -66.4964
2.699, -1, -33.569, -1.91467, 23.1948, -159.946, -92.5335, 54.8148, -7.49099, 5.27587, 6.03411, 15.1936, -99.7265, -66.8098
2.704, -1, -33.569, -1.91467, 23.1948, -159.946, -92.5335, 54.8148, -7.37912, 5.16244, 5.9988, 14.9936, -99.7082, -67.1234
2.708, -1, -33.569, -1.91467, 23.1948, -159.946, -92.5335, 54.8148, -7.26722, 5.04896, 5.96347, 14.7936, -99.6899, -67.4371
2.712, -1, -33.569, -1.91467, 23.1948, -159.946, -92.5335, 54.8148, -7.15527, 4.93544, 5.92813, 14.5934, -99.6716, -67.7509
2.716, -1, -33.569, -1.91467, 23.1948, -159.946, -92.5335, 54.8148, -7.04328, 4.82188, 5.89278, 14.3932, -99.6534, -68.0648
2.719, -1, -33.569, -1.91467, 23.1948, -159.946, -92.5335, 54.8148, -6.93124, 4.70827, 5.85741, 14.1929, -99.6351, -68.3789
2.724, -1, -33.569, -1.91467, 23.1948, -159.946, -92.5335, 54.8148, -6.81916, 4.59461, 5.82203, 13.9926, -99.6168, -68.6931
2.728, -1, -33.569, -1.91467, 23.1948, -159.946, -92.5335, 54.8148, -6.70703, 4.4809, 5.78663, 13.7921, -99.5984, -69.0075
2.732, -1, -33.569, -1.91467, 23.1948, -159.946, -92.5335, 54.8148, -6.59485, 4.36715, 5.75122, 13.5915, -99.5801, -69.3219
2.735, -1, -33.569, -1.91467, 23.1948, -159.946, -92.5335, 54.8148, -6.48262, 4.25335, 5.7158, 13.3909, -99.5618, -69.6365
2.74, -1, -33.569, -1.91467, 23.1948, -159.946, -92.5335, 54.8148, -6.37034, 4.1395, 5.68035, 13.1902, -99.5435, -69.9513
2.744, -1, -33.569, -1.91467, 23.1948, -159.946, -92.5335, 54.8148, -6.25802, 4.0256, 5.6449, 12.9894, -99.5251, -70.2661
2.748, -1, -33.569, -1.91467, 23.1948, -159.946, -92.5335, 54.8148, -6.14565, 3.91165, 5.60943, 12.7885, -99.5068, -70.5811
2.752, -1, -33.569, -1.91467, 23.1948, -159.946, -92.5335, 54.8148, -6.03323, 3.79765, 5.57394, 12.5875, -99.4884, -70.8963
2.755, -1, -33.569, -1.91467, 23.1948, -159.946, -92.5335, 54.8148, -5.92076, 3.68359, 5.53843, 12.3865, -99.47, -71.2116
2.76, -1, -33.569, -1.91467, 23.1948, -159.946, -92.5335, 54.8148, -5.80824, 3.56949, 5.50292, 12.1853, -99.4517, -71.527
2.764, -1, -33.569, -1.91467, 23.1948, -159.946, -92.5335, 54.8148, -5.69566, 3.45534, 5.46738, 11.9841, -99.4333, -71.8426
2.768, -1, -33.569, -1.91467, 23.1948, -159.946, -92.5335, 54.8148, -5.58304, 3.34114, 5.43183, 11.7827, -99.4149, -72.1583
2.772, -1, -33.569, -1.91467, 23.1948, -159.946, -92.5335, 54.8148, -5.47037, 3.22688, 5.39626, 11.5813, -99.3965, -72.4741
2.775, -1, -33.569, -1.91467, 23.1948, -159.946, -92.5335, 54.8148, -5.35764, 3.11257, 5.36068, 11.3798, -99.3781, -72.7901
2.78, -1, -33.569, -1.91467, 23.1948, -159.946, -92.5335, 54.8148, -5.24487, 2.99821, 5.32508, 11.1782, -99.3596, -73.1063
2.784, -1, -33.569, -1.91467, 23.1948, -159.946, -92.5335, 54.8148, -5.13204, 2.88379, 5.28946, 10.9764, -99.3412, -73.4226
2.788, -1, -33.569, -1.91467, 23.1948, -159.946, -92.5335, 54.8148, -5.01916, 2.76932, 5.25383, 10.7746, -99.3228, -73.739
2.791, -1, -33.569, -1.91467, 23.1948, -159.946, -92.5335, 54.8148, -4.90622, 2.6548, 5.21817, 10.5727, -99.3043, -74.0556
2.796, -1, -33.569, -1.91467, 23.1948, -159.946, -92.5335, 54.8148, -4.79323, 2.54022, 5.18251, 10.3707, -99.2859, -74.3724
2.8, -1, -33.569, -1.91467, 23.1948, -159.946, -92.5335, 54.8148, -4.68019, 2.42559, 5.14682, 10.1687, -99.2674, -74.6893
2.804, -1, -33.569, -1.91467, 23.1948, -159.946, -92.5335, 54.8148, -4.5671, 2.31091, 5.11112, 9.96646, -99.249, -75.0063
2.808, -1, -33.569, -1.91467, 23.1948, -159.946, -92.5335, 54.8148, -4.45395, 2.19617, 5.0754, 9.76418, -99.2305, -75.3235
2.811, -1, -33.569, -1.91467, 23.1948, -159.946, -92.5335, 54.8148, -4.34074, 2.08137, 5.03967, 9.5618, -99.212, -75.6408
2.816, -1, -33.569, -1.91467, 23.1948, -159.946, -92.5335, 54.8148, -4.22749, 1.96652, 5.00391, 9.35932, -99.1935, -75.9584
2.82, -1, -33.569, -1.91467, 23.1948, -159.946, -92.5335, 54.8148, -4.11417, 1.85161, 4.96814, 9.15674, -99.175, -76.276
2.824, -1, -33.569, -1.91467, 23.1948, -159.946, -92.5335, 54.8148, -4.00081, 1.73665, 4.93236, 8.95406, -99.1565, -76.5938
2.828, -1, -33.569, -1.91467, 23.1948, -159.946, -92.5335, 54.8148, -3.88739, 1.62163, 4.89655, 8.75128, -99.138, -76.9118
2.831, -1, -33.569, -1.91467, 23.1948, -159.946, -92.5335, 54.8148, -3.77391, 1.50655, 4.86073, 8.54841, -99.1194, -77.2299
2.836, -1, -33.569, -1.91467, 23.1948, -159.946, -92.5335, 54.8148, -3.66038, 1.39142, 4.82489, 8.34543, -99.1009, -77.5482
2.84, -1, -33.569, -1.91467, 23.1948, -159.946, -92.5335, 54.8148, -3.54679, 1.27623, 4.78903, 8.14235, -99.0823, -77.8666
2.844, -1, -33.569, -1.91467, 23.1948, -159.946, -92.5335, 54.8148, -3.43315, 1.16098, 4.75315, 7.93918, -99.0638, -78.1852
2.847, -1, -33.569, -1.91467, 23.1948, -159.946, -92.5335, 54.8148, -3.31944, 1.04567, 4.71726, 7.73589, -99.0452, -78.504
2.852, -1, -33.569, -1.91467, 23.1948, -159.946, -92.5335, 54.8148, -3.20567, 0.930307, 4.68135, 7.53251, -99.0266, -78.8229
2.856, -1, -33.569, -1.91467, 23.1948, -159.946, -92.5335, 54.8148, -3.09184, 0.814882, 4.64542, 7.32902, -99.008, -79.142
2.86, -1, -33.569, -1.91467, 23.1948, -159.946, -92.5335, 54.8148, -2.97797, 0.6994, 4.60947, 7.12543, -98.9894, -79.4612
2.864, -1, -33.569, -1.91467, 23.1948, -159.946, -92.5335, 54.8148, -2.86403, 0.58386, 4.5735, 6.92174, -98.9708, -79.7806
2.867, -1, -33.569, -1.91467, 23.1948, -159.946, -92.5335, 54.8148, -2.75004, 0.468261, 4.53752, 6.71794, -98.9522, -80.1002
2.872, -1, -33.569, -1.91467, 23.1948, -159.946, -92.5335, 54.8148, -2.636, 0.352602, 4.50151, 6.51404, -98.9336, -80.4199
2.876, -1, -33.569, -1.91467, 23.1948, -159.946, -92.5335, 54.8148, -2.52189, 0.236884, 4.46549, 6.31003, -98.9149, -80.7399
2.88, -1, -33.569, -1.91467, 23.1948, -159.946, -92.5335, 54.8148, -2.40772, 0.121104, 4.42944, 6.10591, -98.8963, -81.0599
2.883, -1, -33.569, -1.91467, 23.1948, -159.946, -92.5335, 54.8148, -2.2935, 0.00526386, 4.39338, 5.90168, -98.8776, -81.3802
2.888, -1, -33.569, -1.91467, 23.1948, -159.946, -92.5335, 54.8148, -2.17921, -0.110638, 4.3573, 5.69735, -98.859, -81.7006
2.892, -1, -33.569, -1.91467, 23.1948, -159.946, -92.5335, 54.8148, -2.06486, -0.226602, 4.3212, 5.49291, -98.8403, -82.0211
2.896, -1, -33.569, -1.91467, 23.1948, -159.946, -92.5335, 54.8148, -1.95045, -0.342628, 4.28509, 5.28836, -98.8216, -82.3419
2.9, -1, -33.569, -1.91467, 23.1948, -159.946, -92.5335, 54.8148, -1.83598, -0.458717, 4.24895, 5.08371, -98.8029, -82.6628
2.903, -1, -33.569, -1.91467, 23.1948, -159.946, -92.5335, 54.8148, -1.72145, -0.574868, 4.21279, 4.87894, -98.7842, -82.9839
2.908, -1, -33.569, -1.91467, 23.1948, -159.946, -92.5335, 54.8148, -1.60685, -0.691083, 4.17661, 4.67405, -98.7655, -83.3052
2.912, -1, -33.569, -1.91467, 23.1948, -159.946, -92.5335, 54.8148, -1.49219, -0.807361, 4.14042, 4.46906, -98.7468, -83.6266
2.916, -1, -33.569, -1.91467, 23.1948, -159.946, -92.5335, 54.8148, -1.37747, -0.923703, 4.1042, 4.26395, -98.728, -83.9482
2.92, -1, -33.569, -1.91467, 23.1948, -159.946, -92.5335, 54.8148, -1.26269, -1.04011, 4.06796, 4.05873, -98.7093, -84.27
2.923, -1, -33.569, -1.91467, 23.1948, -159.946, -92.5335, 54.8148, -1.14784, -1.15658, 4.03171, 3.85339, -98.6905, -84.592
2.928, -1, -33.569, -1.91467, 23.1948, -159.946, -92.5335, 54.8148, -1.03293, -1.27312, 3.99543, 3.64794, -98.6718, -84.9142
2.932, -1, -33.569, -1.91467, 23.1948, -159.946, -92.5335, 54.8148, -0.917955, -1.38972, 3.95913, 3.44238, -98.653, -85.2365
2.936, -1, -33.569, -1.91467, 23.1948, -159.946, -92.5335, 54.8148, -0.802915, -1.50638, 3.92281, 3.23669, -98.6342, -85.559
2.939, -1, -33.569, -1.91467, 23.1948, -159.946, -92.5335, 54.8148, -0.68783, -1.62308, 3.88648, 3.0309, -98.6154, -85.8817
2.944, -1, -33.569, -1.91467, 23.1948, -159.946, -92.5335, 54.8148, -0.572753, -1.73973, 3.85014, 2.82501, -98.5966, -86.2046
2.948, -1, -33.569, -1.91467, 23.1948, -159.946, -92.5335, 54.8148, -0.457773, -1.85621, 3.81382, 2.61908, -98.5778, -86.5275
2.952, -1, -33.569, -1.91467, 23.1948, -159.946, -92.5335, 54.8148, -0.343014, -1.97234, 3.77754, 2.41322, -98.5589, -86.8503
2.956, -1, -33.569, -1.91467, 23.1948, -159.946, -92.5335, 54.8148, -0.228702, -2.08781, 3.74138, 2.20765, -98.5401, -87.1727
2.959, -1, -33.569, -1.91467, 23.1948, -159.946, -92.5335, 54.8148, -0.115293, -2.202, 3.70545, 2.00277, -98.5214, -87.494
2.964, -1, -33.569, -1.91467, 23.1948, -159.946, -92.5335, 54.8148, -0.00347048, -2.31401, 3.66993, 1.79926, -98.5027, -87.8132
2.968, -1, -33.569, -1.91467, 23.1948, -159.946, -92.5335, 54.8148, 0.105956, -2.42289, 3.63506, 1.59823, -98.4843, -88.1285
2.972, -1, -33.569, -1.91467, 23.1948, -159.946, -92.5335, 54.8148, 0.212072, -2.52775, 3.60112, 1.40128, -98.4662, -88.4375
2.976, -1, -33.569, -1.91467, 23.1948, -159.946, -92.5335, 54.8148, 0.313797, -2.62754, 3.56848, 1.2105, -98.4486, -88.7368
2.98, -1, -33.569, -1.91467, 23.1948, -159.946, -92.5335, 54.8148, 0.409941, -2.72121, 3.53754, 1.02846, -98.4318, -89.0225
2.984, -1, -33.569, -1.91467, 23.1948, -159.946, -92.5335, 54.8148, 0.49943, -2.80796, 3.50868, 0.857991, -98.4161, -89.29
2.988, -1, -33.569, -1.91467, 23.1948, -159.946, -92.5335, 54.8148, 0.581392, -2.88736, 3.48226, 0.701998, -98.4016, -89.5348
2.992, -1, -33.569, -1.91467, 23.1948, -159.946, -92.5335, 54.8148, 0.655133, -2.95918, 3.45859, 0.563076, -98.3888, -89.7528
2.995, -1, -33.569, -1.91467, 23.1948, -159.946, -92.5335, 54.8148, 0.720142, -3.02324, 3.43788, 0.443182, -98.3778, -89.9408
3, -1, -33.569, -1.91467, 23.1948, -159.946, -92.5335, 54.8148, 0.776178, -3.07951, 3.42024, 0.343365, -98.3687, -90.0974
3.004, -1, -33.569, -1.91467, 23.1948, -159.946, -92.5335, 54.8148, 0.82332, -3.12812, 3.40566, 0.26361, -98.3614, -90.2223
3.008, -1, -33.569, -1.91467, 23.1948, -159.946, -92.5335, 54.8148, 0.861955, -3.16935, 3.39398, 0.202818, -98.356, -90.3175
3.012, -1, -33.569, -1.91467, 23.1948, -159.946, -92.5335, 54.8148, 0.892735, -3.20356, 3.38495, 0.158919, -98.3521, -90.3862
3.015, -1, -33.569, -1.91467, 23.1948, -159.946, -92.5335, 54.8148, 0.916436, -3.2311, 3.37822, 0.129129, -98.3496, -90.4326
3.02, -1, -33.569, -1.91467, 23.1948, -159.946, -92.5335, 54.8148, 0.933892, -3.25224, 3.37345, 0.110317, -98.3481, -90.4619
3.024, -1, -33.569, -1.91467, 23.1948, -159.946, -92.5335, 54.8148, 0.946054, -3.26755, 3.37025, 0.0994112, -98.3472, -90.4788
3.028, -1, -33.569, -1.91467, 23.1948, -159.946, -92.5335, 54.8148, 0.954011, -3.27791, 3.36824, 0.0937237, -98.3468, -90.4876
3.031, -1, -33.569, -1.91467, 23.1948, -159.946, -92.5335, 54.8148, 0.958839, -3.28441, 3.36707, 0.0911372, -98.3467, -90.4916
3.036, -1, -33.569, -1.91467, 23.1948, -159.946, -92.5335, 54.8148, 0.96144, -3.28799, 3.36646, 0.0901573, -98.3466, -90.493
3.04, -1, -33.569, -1.91467, 23.1948, -159.946, -92.5335, 54.8148, 0.962586, -3.28958, 3.3662, 0.089868, -98.3466, -90.4934
3.044, 2, -33.569, -1.91467, 23.1948, -159.946, -92.5335, 54.8148, 0.962946, -3.29007, 3.36612, 0.089808, -98.3466, -90.4935
3.048, 2, -33.569, -1.91467, 23.1948, -159.946, -92.5335, 54.8148, 0.963009, -3.29016, 3.3661, 0.0898009, -98.3466, -90.4935
3.051, 2, -33.569, -1.91467, 23.1948, -159.946, -92.5335, 54.8148, 0.963012, -3.29016, 3.3661, 0.0898006, -98.3466, -90.4935
3.056, 2, -33.569, -1.91467, 23.1948, -159.946, -92.5335, 54.8148, 0.963012, -3.29016, 3.3661, 0.0898006, -98.3466, -90.4935
3.06, 2, -33.569, -1.91467, 23.1948, -159.946, -92.5335, 54.8148, 0.963012, -3.29016, 3.3661, 0.0898006, -98.3466, -90.4935
3.064, 2, -33.569, -1.91467, 23.1948, -159.946, -92.5335, 54.8148, 0.963012, -3.29016, 3.3661, 0.0898006, -98.3466, -90.4935
3.068, 2, -33.569, -1.91467, 23.1948, -159.946, -92.5335, 54.8148, 0.963012, -3.29016, 3.3661, 0.0898006, -98.3466, -90.4935
3.071, 2, -33.569, -1.91467, 23.1948, -159.946, -92.5335, 54.8148, 0.963012, -3.29016, 3.3661, 0.0898006, -98.3466, -90.4935
3.076, 2, -33.569, -1.91467, 23.1948, -159.946, -92.5335, 54.8148, 0.963012, -3.29016, 3.3661, 0.0898006, -98.3466, -90.4935
3.08, 2, -33.569, -1.91467, 23.1948, -159.946, -92.5335, 54.8148, 0.963012, -3.29016, 3.3661, 0.0898006, -98.3466, -90.4935
3.084, 2, -33.569, -1.91467, 23.1948, -159.946, -92.5335, 54.8148, 0.963012, -3.29016, 3.3661, 0.0898006, -98.3466, -90.4935
3.087, 2, -33.569, -1.91467, 23.1948, -159.946, -92.5335, 54.8148, 0.963012, -3.29016, 3.3661, 0.0898006, -98.3466, -90.4935
3.092, 2, -33.569, -1.91467, 23.1948, -159.946, -92.5335, 54.8148, 0.963012, -3.29016, 3.3661, 0.0898006, -98.3466, -90.4935
3.096, 2, -33.569, -1.91467, 23.1948, -159.946, -92.5335, 54.8148, 0.963012, -3.29016, 3.3661, 0.0898006, -98.3466, -90.4935
3.1, 2, -33.569, -1.91467, 23.1948, -159.946, -92.5335, 54.8148, 0.963012, -3.29016, 3.3661, 0.0898006, -98.3466, -90.4935
3.104, 2, -33.569, -1.91467, 23.1948, -159.946, -92.5335, 54.8148, 0.963012, -3.29016, 3.3661, 0.0898006, -98.3466, -90.4935
3.107, 2, -33.569, -1.91467, 23.1948, -159.946, -92.5335, 54.8148, 0.963012, -3.29016, 3.3661, 0.0898006, -98.3466, -90.4935
3.112, 2, -33.569, -1.91467, 23.1948, -159.946, -92.5335, 54.8148, 0.963012, -3.29016, 3.3661, 0.0898006, -98.3466, -90.4935
3.116, 2, -33.569, -1.91467, 23.1948, -159.946, -92.5335, 54.8148, 0.963012, -3.29016, 3.3661, 0.0898006, -98.3466, -90.4935
3.12, 2, -33.569, -1.91467, 23.1948, -159.946, -92.5335, 54.8148, 0.963012, -3.29016, 3.3661, 0.0898006, -98.3466, -90.4935
3.124, 2, -33.569, -1.91467, 23.1948, -159.946, -92.5335, 54.8148, 0.963012, -3.29016, 3.3661, 0.0898006, -98.3466, -90.4935
3.128, 2, -33.569, -1.91467, 23.1948, -159.946, -92.5335, 54.8148, 0.963012, -3.29016, 3.3661, 0.0898006, -98.3466, -90.4935
3.132, 2, -33.569, -1.91467, 23.1948, -159.946, -92.5335, 54.8148, 0.963012, -3.29016, 3.3661, 0.0898006, -98.3466, -90.4935
3.136, 2, -33.569, -1.91467, 23.1948, -159.946, -92.5335, 54.8148, 0.963012, -3.29016, 3.3661, 0.0898006, -98.3466, -90.4935
3.14, 2, -33.569, -1.91467, 23.1948, -159.946, -92.5335, 54.8148, 0.963012, -3.29016, 3.3661, 0.0898006, -98.3466, -90.4935
3.143, 2, -33.569, -1.91467, 23.1948, -159.946, -92.5335, 54.8148, 0.963012, -3.29016, 3.3661, 0.0898006, -98.3466, -90.4935
3.148, 2, -33.569, -1.91467, 23.1948, -159.946, -92.5335, 54.8148, 0.963012, -3.29016, 3.3661, 0.0898006, -98.3466, -90.4935
3.152, 2, -33.569, -1.91467, 23.1948, -159.946, -92.5335, 54.8148, 0.963012, -3.29016, 3.3661, 0.0898006, -98.3466, -90.4935
3.156, 2, -33.569, -1.91467, 23.1948, -159.946, -92.5335, 54.8148, 0.963012, -3.29016, 3.3661, 0.0898006, -98.3466, -90.4935
3.16, 2, -33.569, -1.91467, 23.1948, -159.946, -92.5335, 54.8148, 0.963012, -3.29016, 3.3661, 0.0898006, -98.3466, -90.4935
3.163, 2, -33.569, -1.91467, 23.1948, -159.946, -92.5335, 54.8148, 0.963012, -3.29016, 3.3661, 0.0898006, -98.3466, -90.4935
3.168, 2, -33.569, -1.91467, 23.1948, -159.946, -92.5335, 54.8148, 0.963012, -3.29016, 3.3661, 0.0898006, -98.3466, -90.4935
3.172, 2, -33.569, -1.91467, 23.1948, -159.946, -92.5335, 54.8148, 0.963012, -3.29016, 3.3661, 0.0898006, -98.3466, -90.4935
3.176, 2, -33.569, -1.91467, 23.1948, -159.946, -92.5335, 54.8148, 0.963012, -3.29016, 3.3661, 0.0898006, -98.3466, -90.4935
3.179, 2, -33.569, -1.91467, 23.1948, -159.946, -92.5335, 54.8148, 0.963012, -3.29016, 3.3661, 0.0898006, -98.3466, -90.4935
3.184, 2, -33.569, -1.91467, 23.1948, -159.946, -92.5335, 54.8148, 0.963012, -3.29016, 3.3661, 0.0898006, -98.3466, -90.4935
3.188, 2, -33.569, -1.91467, 23.1948, -159.946, -92.5335, 54.8148, 0.963012, -3.29016, 3.3661, 0.0898006, -98.3466, -90.4935
3.192, 2, -33.569, -1.91467, 23.1948, -159.946, -92.5335, 54.8148, 0.963012, -3.29016, 3.3661, 0.0898006, -98.3466, -90.4935
3.196, 2, -33.569, -1.91467, 23.1948, -159.946, -92.5335, 54.8148, 0.963012, -3.29016, 3.3661, 0.0898006, -98.3466, -90.4935
3.199, 2, -33.569, -1.91467, 23.1948, -159.946, -92.5335, 54.8148, 0.963012, -3.29016, 3.3661, 0.0898006, -98.3466, -90.4935
3.204, 2, -33.569, -1.91467, 23.1948, -159.946, -92.5335, 54.8148, 0.963012, -3.29016, 3.3661, 0.0898006, -98.3466, -90.4935
3.208, 2, -33.569, -1.91467, 23.1948, -159.946, -92.5335, 54.8148, 0.963012, -3.29016, 3.3661, 0.0898006, -98.3466, -90.4935
3.212, 2, -33.569, -1.91467, 23.1948, -159.946, -92.5335, 54.8148, 0.963012, -3.29016, 3.3661, 0.0898006, -98.3466, -90.4935
3.216, 2, -33.569, -1.91467, 23.1948, -159.946, -92.5335, 54.8148, 0.963012, -3.29016, 3.3661, 0.0898006, -98.3466, -90.4935
3.22, 2, -33.569, -1.91467, 23.1948, -159.946, -92.5335, 54.8148, 0.963012, -3.29016, 3.3661, 0.0898006, -98.3466, -90.4935
3.224, 2, -33.569, -1.91467, 23.1948, -159.946, -92.5335, 54.8148, 0.963012, -3.29016, 3.3661, 0.0898006, -98.3466, -90.4935
3.228, 2, -33.569, -1.91467, 23.1948, -159.946, -92.5335, 54.8148, 0.963012, -3.29016, 3.3661, 0.0898006, -98.3466, -90.4935
3.232, 2, -33.569, -1.91467, 23.1948, -159.946, -92.5335, 54.8148, 0.963012, -3.29016, 3.3661, 0.0898006, -98.3466, -90.4935
3.235, 2, -33.569, -1.91467, 23.1948, -159.946, -92.5335, 54.8148, 0.963012, -3.29016, 3.3661, 0.0898006, -98.3466, -90.4935
3.24, 2, -33.569, -1.91467, 23.1948, -159.946, -92.5335, 54.8148, 0.963012, -3.29016, 3.3661, 0.0898006, -98.3466, -90.4935
3.244, 2, -33.569, -1.91467, 23.1948, -159.946, -92.5335, 54.8148, 0.963012, -3.29016, 3.3661, 0.0898006, -98.3466, -90.4935
