hehonglu123/Motion-Primitive-Planning/simulation/robotstudio_sim/multimove/log.csv
timestamp, cmd_num, J1, J2, J3, J4, J5, J6, J1_2, J2_2, J3_2, J4_2, J5_2, J6_2
0.002, -1, -33.569, -1.91467, 23.1948, -159.946, -92.5335, 54.8148, 0.963012, -3.29016, 3.3661, 0.0898006, -98.3466, -90.4935
0.006, -1, -33.569, -1.91467, 23.1948, -159.946, -92.5335, 54.8148, 0.963012, -3.29016, 3.3661, 0.0898006, -98.3466, -90.4935
0.01, -1, -33.569, -1.91467, 23.1948, -159.946, -92.5335, 54.8148, 0.963012, -3.29016, 3.3661, 0.0898006, -98.3466, -90.4935
0.011, -1, -33.569, -1.91467, 23.1948, -159.946, -92.5335, 54.8148, 0.963012, -3.29016, 3.3661, 0.0898006, -98.3466, -90.4935
0.013, -1, -33.569, -1.91467, 23.1948, -159.946, -92.5335, 54.8148, 0.963012, -3.29016, 3.3661, 0.0898006, -98.3466, -90.4935
0.016, -1, -33.569, -1.91467, 23.1948, -159.946, -92.5335, 54.8148, 0.963012, -3.29016, 3.3661, 0.0898006, -98.3466, -90.4935
0.02, -1, -33.569, -1.91467, 23.1948, -159.946, -92.5335, 54.8148, 0.963012, -3.29016, 3.3661, 0.0898006, -98.3466, -90.4935
0.024, -1, -33.569, -1.91467, 23.1948, -159.946, -92.5335, 54.8148, 0.963012, -3.29016, 3.3661, 0.0898006, -98.3466, -90.4935
0.028, -1, -33.569, -1.91467, 23.1948, -159.946, -92.5335, 54.8148, 0.963012, -3.29016, 3.3661, 0.0898006, -98.3466, -90.4935
0.032, -1, -33.569, -1.91467, 23.1948, -159.946, -92.5335, 54.8148, 0.963012, -3.29016, 3.3661, 0.0898006, -98.3466, -90.4935
0.036, -1, -33.569, -1.91467, 23.1948, -159.946, -92.5335, 54.8148, 0.963012, -3.29016, 3.3661, 0.0898006, -98.3466, -90.4935
0.04, -1, -33.569, -1.91467, 23.1948, -159.946, -92.5335, 54.8148, 0.963012, -3.29016, 3.3661, 0.0898006, -98.3466, -90.4935
0.044, -1, -33.569, -1.91467, 23.1948, -159.946, -92.5335, 54.8148, 0.963012, -3.29016, 3.3661, 0.0898006, -98.3466, -90.4935
0.048, -1, -33.569, -1.91467, 23.1948, -159.946, -92.5335, 54.8148, 0.963012, -3.29016, 3.3661, 0.0898006, -98.3466, -90.4935
0.052, -1, -33.569, -1.91467, 23.1948, -159.946, -92.5335, 54.8148, 0.963011, -3.29014, 3.3661, 0.0898006, -98.3466, -90.4935
0.056, -1, -33.569, -1.91467, 23.1948, -159.946, -92.5335, 54.8148, 0.963009, -3.29004, 3.36607, 0.0898008, -98.3463, -90.4933
0.06, -1, -33.569, -1.91467, 23.1948, -159.946, -92.5335, 54.8148, 0.962995, -3.28969, 3.36595, 0.089801, -98.3449, -90.492
0.064, -1, -33.569, -1.91467, 23.1948, -159.946, -92.5335, 54.8148, 0.962947, -3.28889, 3.36566, 0.0897997, -98.3402, -90.4878
0.068, -1, -33.569, -1.91467, 23.1948, -159.946, -92.5335, 54.8148, 0.96282, -3.28742, 3.36501, 0.0897936, -98.3279, -90.4766
0.072, -1, -33.569, -1.91467, 23.1948, -159.946, -92.5335, 54.8148, 0.962547, -3.285, 3.36378, 0.0897766, -98.3012, -90.4523
0.076, -1, -33.569, -1.91467, 23.1948, -159.946, -92.5335, 54.8148, 0.962035, -3.28137, 3.36165, 0.0897399, -98.2507, -90.4061
0.08, -1, -33.569, -1.91467, 23.1948, -159.946, -92.5335, 54.8148, 0.961167, -3.27626, 3.35824, 0.0896722, -98.1646, -90.3272
0.084, -1, -33.569, -1.91467, 23.1948, -159.946, -92.5335, 54.8148, 0.959816, -3.2695, 3.35317, 0.08956, -98.0297, -90.2034
0.088, -1, -33.569, -1.91467, 23.1948, -159.946, -92.5335, 54.8148, 0.957855, -3.26096, 3.34604, 0.0893899, -97.8328, -90.0225
0.092, -1, -33.569, -1.91467, 23.1948, -159.946, -92.5335, 54.8148, 0.955178, -3.25047, 3.33651, 0.0891506, -97.5626, -89.7741
0.096, -1, -33.569, -1.91467, 23.1948, -159.946, -92.5335, 54.8148, 0.951704, -3.23783, 3.32432, 0.0888341, -97.2108, -89.4505
0.1, -1, -33.569, -1.91467, 23.1948, -159.946, -92.5335, 54.8148, 0.947383, -3.22285, 3.30928, 0.0884359, -96.7723, -89.047
0.104, -1, -33.569, -1.91467, 23.1948, -159.946, -92.5335, 54.8148, 0.942198, -3.20539, 3.29133, 0.0879549, -96.2455, -88.5622
0.108, -1, -33.569, -1.91467, 23.1948, -159.946, -92.5335, 54.8148, 0.936159, -3.18535, 3.27048, 0.087393, -95.6315, -87.9972
0.112, -1, -33.569, -1.91467, 23.1948, -159.946, -92.5335, 54.8148, 0.929299, -3.16265, 3.24679, 0.0867537, -94.9335, -87.3548
0.116, -1, -33.569, -1.91467, 23.1948, -159.946, -92.5335, 54.8148, 0.921656, -3.13735, 3.22038, 0.086041, -94.1555, -86.6389
0.12, -1, -33.569, -1.91467, 23.1948, -159.946, -92.5335, 54.8148, 0.913279, -3.10966, 3.19141, 0.0852591, -93.3024, -85.8538
0.124, -1, -33.569, -1.91467, 23.1948, -159.946, -92.5335, 54.8148, 0.904227, -3.07982, 3.16009, 0.0844128, -92.3798, -85.0046
0.128, -1, -33.569, -1.91467, 23.1948, -159.946, -92.5335, 54.8148, 0.894564, -3.04807, 3.12665, 0.0835077, -91.3941, -84.0975
0.131, -1, -33.569, -1.91467, 23.1948, -159.946, -92.5335, 54.8148, 0.884367, -3.01468, 3.09134, 0.0825509, -90.3531, -83.1394
0.136, -1, -33.569, -1.91467, 23.1948, -159.946, -92.5335, 54.8148, 0.873721, -2.97989, 3.05446, 0.0815507, -89.2655, -82.1385
0.139, -1, -33.569, -1.91467, 23.1948, -159.946, -92.5335, 54.8148, 0.862719, -2.94389, 3.01631, 0.0805164, -88.141, -81.1035
0.144, -1, -33.569, -1.91467, 23.1948, -159.946, -92.5335, 54.8148, 0.851452, -2.90682, 2.97718, 0.0794575, -86.989, -80.0432
0.148, -1, -33.569, -1.91467, 23.1948, -159.946, -92.5335, 54.8148, 0.840001, -2.86884, 2.93734, 0.0783827, -85.8181, -78.9657
0.152, -1, -33.569, -1.91467, 23.1948, -159.946, -92.5335, 54.8148, 0.828431, -2.83015, 2.89703, 0.0772985, -84.6353, -77.8772
0.156, -1, -33.569, -1.91467, 23.1948, -159.946, -92.5335, 54.8148, 0.816793, -2.79092, 2.85642, 0.0762095, -83.4457, -76.7825
0.16, -1, -33.569, -1.91467, 23.1948, -159.946, -92.5335, 54.8148, 0.805118, -2.7513, 2.81564, 0.0751187, -82.2527, -75.6848
0.164, -1, -33.569, -1.91467, 23.1948, -159.946, -92.5335, 54.8148, 0.793422, -2.71145, 2.77477, 0.0740273, -81.0581, -74.5855
0.168, -1, -33.569, -1.91467, 23.1948, -159.946, -92.5335, 54.8148, 0.781713, -2.67147, 2.73385, 0.0729354, -79.8625, -73.4854
0.172, -1, -33.569, -1.91467, 23.1948, -159.946, -92.5335, 54.8148, 0.769994, -2.63145, 2.6929, 0.0718428, -78.6661, -72.3845
0.176, -1, -33.569, -1.91467, 23.1948, -159.946, -92.5335, 54.8148, 0.758268, -2.59139, 2.65192, 0.0707496, -77.4688, -71.2828
0.18, -1, -33.569, -1.91467, 23.1948, -159.946, -92.5335, 54.8148, 0.746533, -2.5513, 2.61091, 0.0696555, -76.2707, -70.1804
0.184, -1, -33.569, -1.91467, 23.1948, -159.946, -92.5335, 54.8148, 0.73479, -2.51118, 2.56987, 0.0685606, -75.0716, -69.077
0.188, -1, -33.569, -1.91467, 23.1948, -159.946, -92.5335, 54.8148, 0.723036, -2.47103, 2.52879, 0.0674648, -73.8715, -67.9728
0.192, -1, -33.569, -1.91467, 23.1948, -159.946, -92.5335, 54.8148, 0.711272, -2.43084, 2.48768, 0.066368, -72.6703, -66.8675
0.196, -1, -33.569, -1.91467, 23.1948, -159.946, -92.5335, 54.8148, 0.699496, -2.39061, 2.44652, 0.0652701, -71.4679, -65.7612
0.2, -1, -33.569, -1.91467, 23.1948, -159.946, -92.5335, 54.8148, 0.687709, -2.35034, 2.40533, 0.064171, -70.2644, -64.6537
0.204, -1, -33.569, -1.91467, 23.1948, -159.946, -92.5335, 54.8148, 0.675908, -2.31003, 2.36408, 0.0630707, -69.0595, -63.5451
0.208, -1, -33.569, -1.91467, 23.1948, -159.946, -92.5335, 54.8148, 0.664093, -2.26968, 2.3228, 0.0619692, -67.8533, -62.4352
0.212, -1, -33.569, -1.91467, 23.1948, -159.946, -92.5335, 54.8148, 0.652265, -2.22928, 2.28146, 0.0608663, -66.6457, -61.324
0.216, -1, -33.569, -1.91467, 23.1948, -159.946, -92.5335, 54.8148, 0.640422, -2.18883, 2.24007, 0.059762, -65.4365, -60.2114
0.22, -1, -33.569, -1.91467, 23.1948, -159.946, -92.5335, 54.8148, 0.628564, -2.14832, 2.19863, 0.0586564, -64.2258, -59.0974
0.224, -1, -33.569, -1.91467, 23.1948, -159.946, -92.5335, 54.8148, 0.616691, -2.10776, 2.15713, 0.0575494, -63.0135, -57.9818
0.228, -1, -33.569, -1.91467, 23.1948, -159.946, -92.5335, 54.8148, 0.604801, -2.06714, 2.11558, 0.0564408, -61.7995, -56.8648
0.232, -1, -33.569, -1.91467, 23.1948, -159.946, -92.5335, 54.8148, 0.592893, -2.02646, 2.07397, 0.0553306, -60.5837, -55.7461
0.236, -1, -33.569, -1.91467, 23.1948, -159.946, -92.5335, 54.8148, 0.580968, -1.98572, 2.03229, 0.0542186, -59.3661, -54.6257
0.24, -1, -33.569, -1.91467, 23.1948, -159.946, -92.5335, 54.8148, 0.569024, -1.94492, 1.99054, 0.0531049, -58.1466, -53.5036
0.244, -1, -33.569, -1.91467, 23.1948, -159.946, -92.5335, 54.8148, 0.55706, -1.90406, 1.94873, 0.0519893, -56.9252, -52.3797
0.248, -1, -33.569, -1.91467, 23.1948, -159.946, -92.5335, 54.8148, 0.545076, -1.86313, 1.90685, 0.0508718, -55.7016, -51.2538
0.252, -1, -33.569, -1.91467, 23.1948, -159.946, -92.5335, 54.8148, 0.533072, -1.82212, 1.8649, 0.0497524, -54.476, -50.1261
0.256, -1, -33.569, -1.91467, 23.1948, -159.946, -92.5335, 54.8148, 0.521046, -1.78105, 1.82287, 0.0486311, -53.2481, -48.9963
0.26, -1, -33.569, -1.91467, 23.1948, -159.946, -92.5335, 54.8148, 0.508998, -1.73989, 1.78076, 0.0475078, -52.018, -47.8644
0.264, -1, -33.569, -1.91467, 23.1948, -159.946, -92.5335, 54.8148, 0.496928, -1.69865, 1.73858, 0.0463823, -50.7856, -46.7304
0.268, -1, -33.569, -1.91467, 23.1948, -159.946, -92.5335, 54.8148, 0.484834, -1.65734, 1.69631, 0.0452546, -49.5508, -45.5941
0.272, -1, -33.569, -1.91467, 23.1948, -159.946, -92.5335, 54.8148, 0.472716, -1.61594, 1.65396, 0.0441247, -48.3135, -44.4557
0.276, -1, -33.569, -1.91467, 23.1948, -159.946, -92.5335, 54.8148, 0.460572, -1.57446, 1.61152, 0.0429923, -47.0736, -43.3148
0.28, -1, -33.569, -1.91467, 23.1948, -159.946, -92.5335, 54.8148, 0.448403, -1.53289, 1.56898, 0.0418575, -45.8312, -42.1716
0.284, -1, -33.569, -1.91467, 23.1948, -159.946, -92.5335, 54.8148, 0.436207, -1.49124, 1.52636, 0.0407201, -44.586, -41.0258
0.288, -1, -33.569, -1.91467, 23.1948, -159.946, -92.5335, 54.8148, 0.423984, -1.44949, 1.48364, 0.0395803, -43.338, -39.8775
0.292, -1, -33.569, -1.91467, 23.1948, -159.946, -92.5335, 54.8148, 0.411733, -1.40764, 1.44082, 0.0384379, -42.0871, -38.7265
0.296, -1, -33.569, -1.91467, 23.1948, -159.946, -92.5335, 54.8148, 0.399453, -1.36569, 1.39791, 0.0372929, -40.8333, -37.5728
0.3, -1, -33.569, -1.91467, 23.1948, -159.946, -92.5335, 54.8148, 0.387144, -1.32364, 1.35489, 0.0361452, -39.5765, -36.4164
0.304, -1, -33.569, -1.91467, 23.1948, -159.946, -92.5335, 54.8148, 0.374804, -1.28148, 1.31176, 0.0349946, -38.3167, -35.2571
0.308, -1, -33.569, -1.91467, 23.1948, -159.946, -92.5335, 54.8148, 0.362434, -1.23922, 1.26852, 0.0338409, -37.0536, -34.0949
0.312, -1, -33.569, -1.91467, 23.1948, -159.946, -92.5335, 54.8148, 0.350031, -1.19686, 1.22517, 0.0326841, -35.7873, -32.9297
0.316, -1, -33.569, -1.91467, 23.1948, -159.946, -92.5335, 54.8148, 0.337596, -1.15438, 1.18171, 0.0315238, -34.5176, -31.7614
0.32, -1, -33.569, -1.91467, 23.1948, -159.946, -92.5335, 54.8148, 0.325127, -1.11179, 1.13813, 0.0303602, -33.2446, -30.59
0.324, -1, -33.569, -1.91467, 23.1948, -159.946, -92.5335, 54.8148, 0.312624, -1.06908, 1.09443, 0.0291933, -31.968, -29.4154
0.328, -1, -33.569, -1.91467, 23.1948, -159.946, -92.5335, 54.8148, 0.300085, -1.02625, 1.05061, 0.0280233, -30.6878, -28.2374
0.332, -1, -33.569, -1.91467, 23.1948, -159.946, -92.5335, 54.8148, 0.287511, -0.983296, 1.00666, 0.02685, -29.4039, -27.0561
0.336, -1, -33.569, -1.91467, 23.1948, -159.946, -92.5335, 54.8148, 0.2749, -0.940213, 0.962585, 0.0256736, -28.1163, -25.8713
0.34, -1, -33.569, -1.91467, 23.1948, -159.946, -92.5335, 54.8148, 0.262251, -0.897003, 0.918377, 0.024494, -26.8248, -24.6829
0.344, -1, -33.569, -1.91467, 23.1948, -159.946, -92.5335, 54.8148, 0.249564, -0.853663, 0.874033, 0.0233111, -25.5295, -23.491
0.348, -1, -33.569, -1.91467, 23.1948, -159.946, -92.5335, 54.8148, 0.236838, -0.81019, 0.829551, 0.0221246, -24.2301, -22.2954
0.352, -1, -33.569, -1.91467, 23.1948, -159.946, -92.5335, 54.8148, 0.224071, -0.766581, 0.784927, 0.0209344, -22.9266, -21.096
0.356, -1, -33.569, -1.91467, 23.1948, -159.946, -92.5335, 54.8148, 0.211264, -0.722836, 0.740159, 0.0197404, -21.6189, -19.8927
0.36, -1, -33.569, -1.91467, 23.1948, -159.946, -92.5335, 54.8148, 0.198417, -0.678977, 0.695251, 0.0185425, -20.307, -18.6855
0.364, -1, -33.569, -1.91467, 23.1948, -159.946, -92.5335, 54.8148, 0.185538, -0.635063, 0.650216, 0.0173409, -18.9911, -17.4747
0.368, -1, -33.569, -1.91467, 23.1948, -159.946, -92.5335, 54.8148, 0.172639, -0.591184, 0.605086, 0.0161362, -17.6719, -16.2608
0.372, -1, -33.569, -1.91467, 23.1948, -159.946, -92.5335, 54.8148, 0.159741, -0.547445, 0.559919, 0.0149298, -16.3511, -15.0454
0.376, -1, -33.569, -1.91467, 23.1948, -159.946, -92.5335, 54.8148, 0.146877, -0.50396, 0.51481, 0.013724, -15.0314, -13.8311
0.38, -1, -33.569, -1.91467, 23.1948, -159.946, -92.5335, 54.8148, 0.134087, -0.460858, 0.469894, 0.0125225, -13.717, -12.6215
0.384, -1, -33.569, -1.91467, 23.1948, -159.946, -92.5335, 54.8148, 0.121421, -0.418278, 0.425347, 0.0113302, -12.4131, -11.4215
0.388, -1, -33.569, -1.91467, 23.1948, -159.946, -92.5335, 54.8148, 0.108936, -0.376381, 0.381381, 0.0101529, -11.1259, -10.2369
0.392, -1, -33.569, -1.91467, 23.1948, -159.946, -92.5335, 54.8148, 0.0966993, -0.3354, 0.33824, 0.00899706, -9.86251, -9.0743
0.396, -1, -33.569, -1.91467, 23.1948, -159.946, -92.5335, 54.8148, 0.0847949, -0.295657, 0.296203, 0.00786996, -8.63095, -7.94089
0.4, -1, -33.569, -1.91467, 23.1948, -159.946, -92.5335, 54.8148, 0.073318, -0.257534, 0.255591, 0.00677992, -7.4403, -6.8451
0.404, -1, -33.569, -1.91467, 23.1948, -159.946, -92.5335, 54.8148, 0.0623759, -0.221429, 0.216772, 0.00573659, -6.3012, -5.79669
0.408, -1, -33.569, -1.91467, 23.1948, -159.946, -92.5335, 54.8148, 0.0520905, -0.187764, 0.180172, 0.0047512, -5.22604, -4.80708
0.412, -1, -33.569, -1.91467, 23.1948, -159.946, -92.5335, 54.8148, 0.0425931, -0.156926, 0.146262, 0.00383667, -4.22889, -3.88922
0.416, -1, -33.569, -1.91467, 23.1948, -159.946, -92.5335, 54.8148, 0.0340062, -0.129129, 0.115525, 0.00300718, -3.32474, -3.05694
0.42, -1, -33.569, -1.91467, 23.1948, -159.946, -92.5335, 54.8148, 0.0264258, -0.104386, 0.0884027, 0.00227633, -2.52769, -2.32328
0.424, -1, -33.569, -1.91467, 23.1948, -159.946, -92.5335, 54.8148, 0.0199149, -0.082641, 0.065227, 0.00165465, -1.84853, -1.69823
0.428, -1, -33.569, -1.91467, 23.1948, -159.946, -92.5335, 54.8148, 0.0144991, -0.0638476, 0.0461591, 0.00114725, -1.29249, -1.18661
0.432, -1, -33.569, -1.91467, 23.1948, -159.946, -92.5335, 54.8148, 0.0101555, -0.0479117, 0.0311419, 0.000752791, -0.857974, -0.78698
0.436, -1, -33.569, -1.91467, 23.1948, -159.946, -92.5335, 54.8148, 0.00680621, -0.0346428, 0.019888, 0.000463248, -0.536309, -0.491328
0.44, -1, -33.569, -1.91467, 23.1948, -159.946, -92.5335, 54.8148, 0.0043326, -0.0238693, 0.0119184, 0.000264423, -0.312573, -0.285886
0.444, -1, -33.569, -1.91467, 23.1948, -159.946, -92.5335, 54.8148, 0.00259608, -0.0154942, 0.00662993, 0.0001379, -0.167659, -0.153001
0.448, -1, -33.569, -1.91467, 23.1948, -159.946, -92.5335, 54.8148, 0.00144942, -0.00937434, 0.00337549, 6.42035E-5, -0.0812374, -0.0738974
0.452, -1, -33.569, -1.91467, 23.1948, -159.946, -92.5335, 54.8148, 0.000743588, -0.00519983, 0.00154144, 2.57856E-5, -0.0345928, -0.0313143
0.456, -1, -33.569, -1.91467, 23.1948, -159.946, -92.5335, 54.8148, 0.000341198, -0.00255041, 0.000611054, 8.54192E-6, -0.0124306, -0.011167
0.46, -1, -33.569, -1.91467, 23.1948, -159.946, -92.5335, 54.8148, 0.000132645, -0.00103438, 0.000198759, 2.22162E-6, -0.00354781, -0.00314929
0.464, -1, -33.569, -1.91467, 23.1948, -159.946, -92.5335, 54.8148, 3.94847E-5, -0.000310259, 4.76679E-5, 4.41722E-7, -0.0007296, -0.000635844
0.468, -1, -33.569, -1.91467, 23.1948, -159.946, -92.5335, 54.8148, 7.20311E-6, -5.50888E-5, 6.2624E-6, 6.47632E-8, -8.97521E-5, -7.62313E-5
0.472, -1, -33.569, -1.91467, 23.1948, -159.946, -92.5335, 54.8148, 2.24802E-7, -2.50625E-6, -4.90761E-7, 3.22084E-9, -3.95914E-6, -3.31154E-6
0.476, 2, -33.569, -1.91467, 23.1948, -159.946, -92.5335, 54.8148, -1.45376E-7, 3.21436E-7, -6.28116E-7, 2.00819E-17, -3.0339E-9, -2.79179E-9
0.48, 2, -33.569, -1.91467, 23.1948, -159.946, -92.5335, 54.8148, -1.06793E-8, 6.2637E-8, -3.4988E-7, 2.00819E-17, 1.6953E-14, -1.33339E-13
0.484, 2, -33.569, -1.91467, 23.1948, -159.946, -92.5335, 54.8148, -1.70415E-13, -7.07619E-8, -1.05108E-7, 2.00819E-17, 1.6953E-14, -1.33339E-13
0.488, 2, -33.569, -1.91467, 23.1948, -159.946, -92.5335, 54.8148, -1.02145E-14, -1.00432E-7, -6.48249E-9, 2.00819E-17, 1.6953E-14, -1.33339E-13
0.492, 2, -33.569, -1.91467, 23.1948, -159.946, -92.5335, 54.8148, 1.12159E-15, -7.59574E-9, 8.59825E-16, 2.00819E-17, 1.6953E-14, -1.33339E-13
0.496, 2, -33.569, -1.91467, 23.1948, -159.946, -92.5335, 54.8148, 1.12159E-15, -1.68574E-15, 8.59825E-16, 2.00819E-17, 1.6953E-14, -1.33339E-13
0.5, 2, -33.569, -1.91467, 23.1948, -159.946, -92.5335, 54.8148, 1.12159E-15, -1.68574E-15, 8.59825E-16, 2.00819E-17, 1.6953E-14, -1.33339E-13
0.504, 2, -33.569, -1.91467, 23.1948, -159.946, -92.5335, 54.8148, 1.12159E-15, -1.68574E-15, 8.59825E-16, 2.00819E-17, 1.6953E-14, -1.33339E-13
0.508, 2, -33.569, -1.91467, 23.1948, -159.946, -92.5335, 54.8148, 1.12159E-15, -1.68574E-15, 8.59825E-16, 2.00819E-17, 1.6953E-14, -1.33339E-13
0.512, 2, -33.569, -1.91467, 23.1948, -159.946, -92.5335, 54.8148, 1.12159E-15, -1.68574E-15, 8.59825E-16, 2.00819E-17, 1.6953E-14, -1.33339E-13
0.516, 2, -33.569, -1.91467, 23.1948, -159.946, -92.5335, 54.8148, 1.12159E-15, -1.68574E-15, 8.59825E-16, 2.00819E-17, 1.6953E-14, -1.33339E-13
0.52, 2, -33.569, -1.91467, 23.1948, -159.946, -92.5335, 54.8148, 1.12159E-15, -1.68574E-15, 8.59825E-16, 2.00819E-17, 1.6953E-14, -1.33339E-13
0.524, 2, -33.569, -1.91467, 23.1948, -159.946, -92.5335, 54.8148, 1.12159E-15, -1.68574E-15, 8.59825E-16, 2.00819E-17, 1.6953E-14, -1.33339E-13
0.528, 2, -33.569, -1.91467, 23.1948, -159.946, -92.5335, 54.8148, 1.12159E-15, -1.68574E-15, 8.59825E-16, 2.00819E-17, 1.6953E-14, -1.33339E-13
0.532, 2, -33.569, -1.91467, 23.1948, -159.946, -92.5335, 54.8148, 1.12159E-15, -1.68574E-15, 8.59825E-16, 2.00819E-17, 1.6953E-14, -1.33339E-13
0.536, 2, -33.569, -1.91467, 23.1948, -159.946, -92.5335, 54.8148, 1.12159E-15, -1.68574E-15, 8.59825E-16, 2.00819E-17, 1.6953E-14, -1.33339E-13
0.54, 2, -33.569, -1.91467, 23.1948, -159.946, -92.5335, 54.8148, 1.12159E-15, -1.68574E-15, 8.59825E-16, 2.00819E-17, 1.6953E-14, -1.33339E-13
0.544, 2, -33.569, -1.91467, 23.1948, -159.946, -92.5335, 54.8148, 1.12159E-15, -1.68574E-15, 8.59825E-16, 2.00819E-17, 1.6953E-14, -1.33339E-13
0.548, 2, -33.569, -1.91467, 23.1948, -159.946, -92.5335, 54.8148, 1.12159E-15, -1.68574E-15, 8.59825E-16, 2.00819E-17, 1.6953E-14, -1.33339E-13
0.552, 2, -33.569, -1.91467, 23.1948, -159.946, -92.5335, 54.8148, 1.12159E-15, -1.68574E-15, 8.59825E-16, 2.00819E-17, 1.6953E-14, -1.33339E-13
0.556, 2, -33.569, -1.91467, 23.1948, -159.946, -92.5335, 54.8148, 1.12159E-15, -1.68574E-15, 8.59825E-16, 2.00819E-17, 1.6953E-14, -1.33339E-13
0.56, 2, -33.569, -1.91467, 23.1948, -159.946, -92.5335, 54.8148, 1.12159E-15, -1.68574E-15, 8.59825E-16, 2.00819E-17, 1.6953E-14, -1.33339E-13
0.564, 2, -33.569, -1.91467, 23.1948, -159.946, -92.5335, 54.8148, 1.12159E-15, -1.68574E-15, 8.59825E-16, 2.00819E-17, 1.6953E-14, -1.33339E-13
0.568, 2, -33.569, -1.91467, 23.1948, -159.946, -92.5335, 54.8148, 1.12159E-15, -1.68574E-15, 8.59825E-16, 2.00819E-17, 1.6953E-14, -1.33339E-13
0.572, 2, -33.569, -1.91467, 23.1948, -159.946, -92.5335, 54.8148, 1.12159E-15, -1.68574E-15, 8.59825E-16, 2.00819E-17, 1.6953E-14, -1.33339E-13
0.576, 2, -33.569, -1.91467, 23.1948, -159.946, -92.5335, 54.8148, 1.12159E-15, -1.68574E-15, 8.59825E-16, 2.00819E-17, 1.6953E-14, -1.33339E-13
0.58, 2, -33.569, -1.91467, 23.1948, -159.946, -92.5335, 54.8148, 1.12159E-15, -1.68574E-15, 8.59825E-16, 2.00819E-17, 1.6953E-14, -1.33339E-13
0.584, 2, -33.569, -1.91467, 23.1948, -159.946, -92.5335, 54.8148, 1.12159E-15, -1.68574E-15, 8.59825E-16, 2.00819E-17, 1.6953E-14, -1.33339E-13
0.588, 2, -33.569, -1.91467, 23.1948, -159.946, -92.5335, 54.8148, 1.12159E-15, -1.68574E-15, 8.59825E-16, 2.00819E-17, 1.6953E-14, -1.33339E-13
0.592, 2, -33.569, -1.91467, 23.1948, -159.946, -92.5335, 54.8148, 1.12159E-15, -1.68574E-15, 8.59825E-16, 2.00819E-17, 1.6953E-14, -1.33339E-13
0.596, 2, -33.569, -1.91467, 23.1948, -159.946, -92.5335, 54.8148, 1.12159E-15, -1.68574E-15, 8.59825E-16, 2.00819E-17, 1.6953E-14, -1.33339E-13
0.6, 2, -33.569, -1.91467, 23.1948, -159.946, -92.5335, 54.8148, 1.12159E-15, -1.68574E-15, 8.59825E-16, 2.00819E-17, 1.6953E-14, -1.33339E-13
0.604, 2, -33.569, -1.91467, 23.1948, -159.946, -92.5335, 54.8148, 1.12159E-15, -1.68574E-15, 8.59825E-16, 2.00819E-17, 1.6953E-14, -1.33339E-13
0.608, 2, -33.569, -1.91467, 23.1948, -159.946, -92.5335, 54.8148, 1.12159E-15, -1.68574E-15, 8.59825E-16, 2.00819E-17, 1.6953E-14, -1.33339E-13
0.612, 2, -33.569, -1.91467, 23.1948, -159.946, -92.5335, 54.8148, 1.12159E-15, -1.68574E-15, 8.59825E-16, 2.00819E-17, 1.6953E-14, -1.33339E-13
0.616, 2, -33.569, -1.91467, 23.1948, -159.946, -92.5335, 54.8148, 1.12159E-15, -1.68574E-15, 8.59825E-16, 2.00819E-17, 1.6953E-14, -1.33339E-13
0.62, 2, -33.569, -1.91467, 23.1948, -159.946, -92.5335, 54.8148, 1.12159E-15, -1.68574E-15, 8.59825E-16, 2.00819E-17, 1.6953E-14, -1.33339E-13
0.624, 2, -33.569, -1.91467, 23.1948, -159.946, -92.5335, 54.8148, 1.12159E-15, -1.68574E-15, 8.59825E-16, 2.00819E-17, 1.6953E-14, -1.33339E-13
0.628, 2, -33.569, -1.91467, 23.1948, -159.946, -92.5335, 54.8148, 1.12159E-15, -1.68574E-15, 8.59825E-16, 2.00819E-17, 1.6953E-14, -1.33339E-13
0.632, 2, -33.569, -1.91467, 23.1948, -159.946, -92.5335, 54.8148, 1.12159E-15, -1.68574E-15, 8.59825E-16, 2.00819E-17, 1.6953E-14, -1.33339E-13
0.636, 2, -33.569, -1.91467, 23.1948, -159.946, -92.5335, 54.8148, 1.12159E-15, -1.68574E-15, 8.59825E-16, 2.00819E-17, 1.6953E-14, -1.33339E-13
0.64, 2, -33.569, -1.91467, 23.1948, -159.946, -92.5335, 54.8148, 1.12159E-15, -1.68574E-15, 8.59825E-16, 2.00819E-17, 1.6953E-14, -1.33339E-13
0.644, 2, -33.569, -1.91467, 23.1948, -159.946, -92.5335, 54.8148, 1.12159E-15, -1.68574E-15, 8.59825E-16, 2.00819E-17, 1.6953E-14, -1.33339E-13
0.648, 2, -33.569, -1.91467, 23.1948, -159.946, -92.5335, 54.8148, 1.12159E-15, -1.68574E-15, 8.59825E-16, 2.00819E-17, 1.6953E-14, -1.33339E-13
0.652, 2, -33.569, -1.91467, 23.1948, -159.946, -92.5335, 54.8148, 1.12159E-15, -1.68574E-15, 8.59825E-16, 2.00819E-17, 1.6953E-14, -1.33339E-13
0.656, 2, -33.569, -1.91467, 23.1948, -159.946, -92.5335, 54.8148, 1.12159E-15, -1.68574E-15, 8.59825E-16, 2.00819E-17, 1.6953E-14, -1.33339E-13
0.66, 2, -33.569, -1.91467, 23.1948, -159.946, -92.5335, 54.8148, 1.12159E-15, -1.68574E-15, 8.59825E-16, 2.00819E-17, 1.6953E-14, -1.33339E-13
0.664, 2, -33.569, -1.91467, 23.1948, -159.946, -92.5335, 54.8148, 1.12159E-15, -1.68574E-15, 8.59825E-16, 2.00819E-17, 1.6953E-14, -1.33339E-13
0.668, 2, -33.569, -1.91467, 23.1948, -159.946, -92.5335, 54.8148, 1.12159E-15, -1.68574E-15, 8.59825E-16, 2.00819E-17, 1.6953E-14, -1.33339E-13
0.672, 2, -33.569, -1.91467, 23.1948, -159.946, -92.5335, 54.8148, 1.12159E-15, -1.68574E-15, 8.59825E-16, 2.00819E-17, 1.6953E-14, -1.33339E-13
0.676, 2, -33.569, -1.91467, 23.1948, -159.946, -92.5335, 54.8148, 1.12159E-15, -1.68574E-15, 8.59825E-16, 2.00819E-17, 1.6953E-14, -1.33339E-13
0.68, 2, -33.569, -1.91467, 23.1948, -159.946, -92.5335, 54.8148, 1.12159E-15, -1.68574E-15, 8.59825E-16, 2.00819E-17, 1.6953E-14, -1.33339E-13
0.684, 2, -33.569, -1.91467, 23.1948, -159.946, -92.5335, 54.8148, 1.12159E-15, -1.68574E-15, 8.59825E-16, 2.00819E-17, 1.6953E-14, -1.33339E-13
0.688, 2, -33.569, -1.91467, 23.1948, -159.946, -92.5335, 54.8148, 1.12159E-15, -1.68574E-15, 8.59825E-16, 2.00819E-17, 1.6953E-14, -1.33339E-13
0.692, 2, -33.569, -1.91467, 23.1948, -159.946, -92.5335, 54.8148, 1.12159E-15, -1.68574E-15, 8.59825E-16, 2.00819E-17, 1.6953E-14, -1.33339E-13
0.696, 2, -33.569, -1.91467, 23.1948, -159.946, -92.5335, 54.8148, 1.12159E-15, -1.68574E-15, 8.59825E-16, 2.00819E-17, 1.6953E-14, -1.33339E-13
0.7, 2, -33.569, -1.91467, 23.1948, -159.946, -92.5335, 54.8148, 1.12159E-15, -1.68574E-15, 8.59825E-16, 2.00819E-17, 1.6953E-14, -1.33339E-13
0.704, 2, -33.569, -1.91467, 23.1948, -159.946, -92.5335, 54.8148, 1.12159E-15, -1.68574E-15, 8.59825E-16, 2.00819E-17, 1.6953E-14, -1.33339E-13
0.708, 2, -33.569, -1.91467, 23.1948, -159.946, -92.5335, 54.8148, 1.12159E-15, -1.68574E-15, 8.59825E-16, 2.00819E-17, 1.6953E-14, -1.33339E-13
0.712, 2, -33.569, -1.91467, 23.1948, -159.946, -92.5335, 54.8148, 1.12159E-15, -1.68574E-15, 8.59825E-16, 2.00819E-17, 1.6953E-14, -1.33339E-13
0.716, 2, -33.569, -1.91467, 23.1948, -159.946, -92.5335, 54.8148, 1.12159E-15, -1.68574E-15, 8.59825E-16, 2.00819E-17, 1.6953E-14, -1.33339E-13
0.72, 2, -33.569, -1.91467, 23.1948, -159.946, -92.5335, 54.8148, 1.12159E-15, -1.68574E-15, 8.59825E-16, 2.00819E-17, 1.6953E-14, -1.33339E-13
0.724, 2, -33.569, -1.91467, 23.1948, -159.946, -92.5335, 54.8148, 1.12159E-15, -1.68574E-15, 8.59825E-16, 2.00819E-17, 1.6953E-14, -1.33339E-13
0.728, 2, -33.569, -1.91467, 23.1948, -159.946, -92.5335, 54.8148, 1.12159E-15, -1.68574E-15, 8.59825E-16, 2.00819E-17, 1.6953E-14, -1.33339E-13
0.732, 2, -33.569, -1.91467, 23.1948, -159.946, -92.5335, 54.8148, 1.12159E-15, -1.68574E-15, 8.59825E-16, 2.00819E-17, 1.6953E-14, -1.33339E-13
0.736, 2, -33.569, -1.91467, 23.1948, -159.946, -92.5335, 54.8148, 1.12159E-15, -1.68574E-15, 8.59825E-16, 2.00819E-17, 1.6953E-14, -1.33339E-13
0.74, 2, -33.569, -1.91467, 23.1948, -159.946, -92.5335, 54.8148, 1.12159E-15, -1.68574E-15, 8.59825E-16, 2.00819E-17, 1.6953E-14, -1.33339E-13
0.744, 2, -33.569, -1.91467, 23.1948, -159.946, -92.5335, 54.8148, 1.12159E-15, -1.68574E-15, 8.59825E-16, 2.00819E-17, 1.6953E-14, -1.33339E-13
0.748, 2, -33.569, -1.91467, 23.1948, -159.946, -92.5335, 54.8148, 1.12159E-15, -1.68574E-15, 8.59825E-16, 2.00819E-17, 1.6953E-14, -1.33339E-13
0.752, 2, -33.569, -1.91467, 23.1948, -159.946, -92.5335, 54.8148, 1.12159E-15, -1.68574E-15, 8.59825E-16, 2.00819E-17, 1.6953E-14, -1.33339E-13
0.756, 2, -33.569, -1.91467, 23.1948, -159.946, -92.5335, 54.8148, 1.12159E-15, -1.68574E-15, 8.59825E-16, 2.00819E-17, 1.6953E-14, -1.33339E-13
0.76, 2, -33.569, -1.91467, 23.1948, -159.946, -92.5335, 54.8148, 1.12159E-15, -1.68574E-15, 8.59825E-16, 2.00819E-17, 1.6953E-14, -1.33339E-13
0.764, 2, -33.569, -1.91467, 23.1948, -159.946, -92.5335, 54.8148, 1.12159E-15, -1.68574E-15, 8.59825E-16, 2.00819E-17, 1.6953E-14, -1.33339E-13
0.768, 2, -33.569, -1.91467, 23.1948, -159.946, -92.5335, 54.8148, 1.12159E-15, -1.68574E-15, 8.59825E-16, 2.00819E-17, 1.6953E-14, -1.33339E-13
0.772, 2, -33.569, -1.91467, 23.1948, -159.946, -92.5335, 54.8148, 1.12159E-15, -1.68574E-15, 8.59825E-16, 2.00819E-17, 1.6953E-14, -1.33339E-13
0.776, 2, -33.569, -1.91467, 23.1948, -159.946, -92.5335, 54.8148, 1.12159E-15, -1.68574E-15, 8.59825E-16, 2.00819E-17, 1.6953E-14, -1.33339E-13
0.78, 2, -33.569, -1.91467, 23.1948, -159.946, -92.5335, 54.8148, 1.12159E-15, -1.68574E-15, 8.59825E-16, 2.00819E-17, 1.6953E-14, -1.33339E-13
0.784, 2, -33.569, -1.91467, 23.1948, -159.946, -92.5335, 54.8148, 1.12159E-15, -1.68574E-15, 8.59825E-16, 2.00819E-17, 1.6953E-14, -1.33339E-13
0.788, 2, -33.569, -1.91467, 23.1948, -159.946, -92.5335, 54.8148, 1.12159E-15, -1.68574E-15, 8.59825E-16, 2.00819E-17, 1.6953E-14, -1.33339E-13
0.792, 2, -33.569, -1.91467, 23.1948, -159.946, -92.5335, 54.8148, 1.12159E-15, -1.68574E-15, 8.59825E-16, 2.00819E-17, 1.6953E-14, -1.33339E-13
0.796, 2, -33.569, -1.91467, 23.1948, -159.946, -92.5335, 54.8148, 1.12159E-15, -1.68574E-15, 8.59825E-16, 2.00819E-17, 1.6953E-14, -1.33339E-13
0.8, 2, -33.569, -1.91467, 23.1948, -159.946, -92.5335, 54.8148, 1.12159E-15, -1.68574E-15, 8.59825E-16, 2.00819E-17, 1.6953E-14, -1.33339E-13
0.804, 2, -33.569, -1.91467, 23.1948, -159.946, -92.5335, 54.8148, 1.12159E-15, -1.68574E-15, 8.59825E-16, 2.00819E-17, 1.6953E-14, -1.33339E-13
0.808, 2, -33.569, -1.91467, 23.1948, -159.946, -92.5335, 54.8148, 1.12159E-15, -1.68574E-15, 8.59825E-16, 2.00819E-17, 1.6953E-14, -1.33339E-13
0.812, 2, -33.569, -1.91467, 23.1948, -159.946, -92.5335, 54.8148, 1.12159E-15, -1.68574E-15, 8.59825E-16, 2.00819E-17, 1.6953E-14, -1.33339E-13
0.816, 2, -33.569, -1.91467, 23.1948, -159.946, -92.5335, 54.8148, 1.12159E-15, -1.68574E-15, 8.59825E-16, 2.00819E-17, 1.6953E-14, -1.33339E-13
0.82, 2, -33.569, -1.91467, 23.1948, -159.946, -92.5335, 54.8148, 1.12159E-15, -1.68574E-15, 8.59825E-16, 2.00819E-17, 1.6953E-14, -1.33339E-13
0.824, 2, -33.569, -1.91467, 23.1948, -159.946, -92.5335, 54.8148, 1.12159E-15, -1.68574E-15, 8.59825E-16, 2.00819E-17, 1.6953E-14, -1.33339E-13
0.828, 2, -33.569, -1.91467, 23.1948, -159.946, -92.5335, 54.8148, 1.12159E-15, -1.68574E-15, 8.59825E-16, 2.00819E-17, 1.6953E-14, -1.33339E-13
0.832, 2, -33.569, -1.91467, 23.1948, -159.946, -92.5335, 54.8148, 1.12159E-15, -1.68574E-15, 8.59825E-16, 2.00819E-17, 1.6953E-14, -1.33339E-13
0.836, 2, -33.569, -1.91467, 23.1948, -159.946, -92.5335, 54.8148, 1.12159E-15, -1.68574E-15, 8.59825E-16, 2.00819E-17, 1.6953E-14, -1.33339E-13
0.84, 2, -33.569, -1.91467, 23.1948, -159.946, -92.5335, 54.8148, 1.12159E-15, -1.68574E-15, 8.59825E-16, 2.00819E-17, 1.6953E-14, -1.33339E-13
0.844, 2, -33.569, -1.91467, 23.1948, -159.946, -92.5335, 54.8148, 1.12159E-15, -1.68574E-15, 8.59825E-16, 2.00819E-17, 1.6953E-14, -1.33339E-13
0.848, 2, -33.569, -1.91467, 23.1948, -159.946, -92.5335, 54.8148, 1.12159E-15, -1.68574E-15, 8.59825E-16, 2.00819E-17, 1.6953E-14, -1.33339E-13
0.852, 2, -33.569, -1.91467, 23.1948, -159.946, -92.5335, 54.8148, 1.12159E-15, -1.68574E-15, 8.59825E-16, 2.00819E-17, 1.6953E-14, -1.33339E-13
0.856, 2, -33.569, -1.91467, 23.1948, -159.946, -92.5335, 54.8148, 1.12159E-15, -1.68574E-15, 8.59825E-16, 2.00819E-17, 1.6953E-14, -1.33339E-13
0.86, 2, -33.569, -1.91467, 23.1948, -159.946, -92.5335, 54.8148, 1.12159E-15, -1.68574E-15, 8.59825E-16, 2.00819E-17, 1.6953E-14, -1.33339E-13
0.864, 2, -33.569, -1.91467, 23.1948, -159.946, -92.5335, 54.8148, 1.12159E-15, -1.68574E-15, 8.59825E-16, 2.00819E-17, 1.6953E-14, -1.33339E-13
0.868, 2, -33.569, -1.91467, 23.1948, -159.946, -92.5335, 54.8148, 1.12159E-15, -1.68574E-15, 8.59825E-16, 2.00819E-17, 1.6953E-14, -1.33339E-13
0.872, 2, -33.569, -1.91467, 23.1948, -159.946, -92.5335, 54.8148, 1.12159E-15, -1.68574E-15, 8.59825E-16, 2.00819E-17, 1.6953E-14, -1.33339E-13
0.876, 2, -33.569, -1.91467, 23.1948, -159.946, -92.5335, 54.8148, 1.12159E-15, -1.68574E-15, 8.59825E-16, 2.00819E-17, 1.6953E-14, -1.33339E-13
0.88, 2, -33.569, -1.91467, 23.1948, -159.946, -92.5335, 54.8148, 1.12159E-15, -1.68574E-15, 8.59825E-16, 2.00819E-17, 1.6953E-14, -1.33339E-13
0.884, 2, -33.569, -1.91467, 23.1948, -159.946, -92.5335, 54.8148, 1.12159E-15, -1.68574E-15, 8.59825E-16, 2.00819E-17, 1.6953E-14, -1.33339E-13
0.888, 2, -33.569, -1.91467, 23.1948, -159.946, -92.5335, 54.8148, 1.12159E-15, -1.68574E-15, 8.59825E-16, 2.00819E-17, 1.6953E-14, -1.33339E-13
0.892, 2, -33.569, -1.91467, 23.1948, -159.946, -92.5335, 54.8148, 1.12159E-15, -1.68574E-15, 8.59825E-16, 2.00819E-17, 1.6953E-14, -1.33339E-13
0.896, 2, -33.569, -1.91467, 23.1948, -159.946, -92.5335, 54.8148, 1.12159E-15, -1.68574E-15, 8.59825E-16, 2.00819E-17, 1.6953E-14, -1.33339E-13
0.9, 2, -33.569, -1.91467, 23.1948, -159.946, -92.5335, 54.8148, 1.12159E-15, -1.68574E-15, 8.59825E-16, 2.00819E-17, 1.6953E-14, -1.33339E-13
0.904, 2, -33.569, -1.91467, 23.1948, -159.946, -92.5335, 54.8148, 1.12159E-15, -1.68574E-15, 8.59825E-16, 2.00819E-17, 1.6953E-14, -1.33339E-13
0.908, 2, -33.569, -1.91467, 23.1948, -159.946, -92.5335, 54.8148, 1.12159E-15, -1.68574E-15, 8.59825E-16, 2.00819E-17, 1.6953E-14, -1.33339E-13
0.912, 2, -33.569, -1.91467, 23.1948, -159.946, -92.5335, 54.8148, 1.12159E-15, -1.68574E-15, 8.59825E-16, 2.00819E-17, 1.6953E-14, -1.33339E-13
0.916, 2, -33.569, -1.91467, 23.1948, -159.946, -92.5335, 54.8148, 1.12159E-15, -1.68574E-15, 8.59825E-16, 2.00819E-17, 1.6953E-14, -1.33339E-13
0.92, 2, -33.569, -1.91467, 23.1948, -159.946, -92.5335, 54.8148, 1.12159E-15, -1.68574E-15, 8.59825E-16, 2.00819E-17, 1.6953E-14, -1.33339E-13
0.924, 2, -33.569, -1.91467, 23.1948, -159.946, -92.5335, 54.8148, 1.12159E-15, -1.68574E-15, 8.59825E-16, 2.00819E-17, 1.6953E-14, -1.33339E-13
0.928, 2, -33.569, -1.91467, 23.1948, -159.946, -92.5335, 54.8148, 1.12159E-15, -1.68574E-15, 8.59825E-16, 2.00819E-17, 1.6953E-14, -1.33339E-13
0.932, 2, -33.569, -1.91467, 23.1948, -159.946, -92.5335, 54.8148, 1.12159E-15, -1.68574E-15, 8.59825E-16, 2.00819E-17, 1.6953E-14, -1.33339E-13
0.936, 2, -33.569, -1.91467, 23.1948, -159.946, -92.5335, 54.8148, 1.12159E-15, -1.68574E-15, 8.59825E-16, 2.00819E-17, 1.6953E-14, -1.33339E-13
0.94, 2, -33.569, -1.91467, 23.1948, -159.946, -92.5335, 54.8148, 1.12159E-15, -1.68574E-15, 8.59825E-16, 2.00819E-17, 1.6953E-14, -1.33339E-13
0.944, 2, -33.569, -1.91467, 23.1948, -159.946, -92.5335, 54.8148, 1.12159E-15, -1.68574E-15, 8.59825E-16, 2.00819E-17, 1.6953E-14, -1.33339E-13
0.948, 2, -33.569, -1.91467, 23.1948, -159.946, -92.5335, 54.8148, 1.12159E-15, -1.68574E-15, 8.59825E-16, 2.00819E-17, 1.6953E-14, -1.33339E-13
0.952, 2, -33.569, -1.91467, 23.1948, -159.946, -92.5335, 54.8148, 1.12159E-15, -1.68574E-15, 8.59825E-16, 2.00819E-17, 1.6953E-14, -1.33339E-13
0.956, 2, -33.569, -1.91467, 23.1948, -159.946, -92.5335, 54.8148, 1.12159E-15, -1.68574E-15, 8.59825E-16, 2.00819E-17, 1.6953E-14, -1.33339E-13
0.96, 2, -33.569, -1.91467, 23.1948, -159.946, -92.5335, 54.8148, 1.12159E-15, -1.68574E-15, 8.59825E-16, 2.00819E-17, 1.6953E-14, -1.33339E-13
0.964, 2, -33.569, -1.91467, 23.1948, -159.946, -92.5335, 54.8148, 1.12159E-15, -1.68574E-15, 8.59825E-16, 2.00819E-17, 1.6953E-14, -1.33339E-13
0.968, 2, -33.569, -1.91467, 23.1948, -159.946, -92.5335, 54.8148, 1.12159E-15, -1.68574E-15, 8.59825E-16, 2.00819E-17, 1.6953E-14, -1.33339E-13
0.972, 2, -33.569, -1.91467, 23.1948, -159.946, -92.5335, 54.8148, 1.12159E-15, -1.68574E-15, 8.59825E-16, 2.00819E-17, 1.6953E-14, -1.33339E-13
0.976, 2, -33.569, -1.91467, 23.1948, -159.946, -92.5335, 54.8148, 1.12159E-15, -1.68574E-15, 8.59825E-16, 2.00819E-17, 1.6953E-14, -1.33339E-13
0.98, 2, -33.569, -1.91467, 23.1948, -159.946, -92.5335, 54.8148, 1.12159E-15, -1.68574E-15, 8.59825E-16, 2.00819E-17, 1.6953E-14, -1.33339E-13
0.984, 2, -33.569, -1.91467, 23.1948, -159.946, -92.5335, 54.8148, 1.12159E-15, -1.68574E-15, 8.59825E-16, 2.00819E-17, 1.6953E-14, -1.33339E-13
0.988, 2, -33.569, -1.91467, 23.1948, -159.946, -92.5335, 54.8148, 1.12159E-15, -1.68574E-15, 8.59825E-16, 2.00819E-17, 1.6953E-14, -1.33339E-13
0.992, 2, -33.569, -1.91467, 23.1948, -159.946, -92.5335, 54.8148, 1.12159E-15, -1.68574E-15, 8.59825E-16, 2.00819E-17, 1.6953E-14, -1.33339E-13
0.996, 2, -33.569, -1.91467, 23.1948, -159.946, -92.5335, 54.8148, 1.12159E-15, -1.68574E-15, 8.59825E-16, 2.00819E-17, 1.6953E-14, -1.33339E-13
1, 2, -33.569, -1.91467, 23.1948, -159.946, -92.5335, 54.8148, 1.12159E-15, -1.68574E-15, 8.59825E-16, 2.00819E-17, 1.6953E-14, -1.33339E-13
1.004, 2, -33.569, -1.91467, 23.1948, -159.946, -92.5335, 54.8148, 1.12159E-15, -1.68574E-15, 8.59825E-16, 2.00819E-17, 1.6953E-14, -1.33339E-13
1.008, 2, -33.569, -1.91467, 23.1948, -159.946, -92.5335, 54.8148, 1.12159E-15, -1.68574E-15, 8.59825E-16, 2.00819E-17, 1.6953E-14, -1.33339E-13
1.012, 2, -33.569, -1.91467, 23.1948, -159.946, -92.5335, 54.8148, 1.12159E-15, -1.68574E-15, 8.59825E-16, 2.00819E-17, 1.6953E-14, -1.33339E-13
1.016, 2, -33.569, -1.91467, 23.1948, -159.946, -92.5335, 54.8148, 1.12159E-15, -1.68574E-15, 8.59825E-16, 2.00819E-17, 1.6953E-14, -1.33339E-13
1.02, 2, -33.569, -1.91467, 23.1948, -159.946, -92.5335, 54.8148, 1.12159E-15, -1.68574E-15, 8.59825E-16, 2.00819E-17, 1.6953E-14, -1.33339E-13
1.024, 2, -33.569, -1.91467, 23.1948, -159.946, -92.5335, 54.8148, 1.12159E-15, -1.68574E-15, 8.59825E-16, 2.00819E-17, 1.6953E-14, -1.33339E-13
1.027, 2, -33.569, -1.91467, 23.1948, -159.946, -92.5335, 54.8148, 1.12159E-15, -1.68574E-15, 8.59825E-16, 2.00819E-17, 1.6953E-14, -1.33339E-13
1.032, 2, -33.569, -1.91467, 23.1948, -159.946, -92.5335, 54.8148, 1.12159E-15, -1.68574E-15, 8.59825E-16, 2.00819E-17, 1.6953E-14, -1.33339E-13
1.036, 2, -33.569, -1.91467, 23.1948, -159.946, -92.5335, 54.8148, 1.12159E-15, -1.68574E-15, 8.59825E-16, 2.00819E-17, 1.6953E-14, -1.33339E-13
1.04, 2, -33.569, -1.91467, 23.1948, -159.946, -92.5335, 54.8148, 1.12159E-15, -1.68574E-15, 8.59825E-16, 2.00819E-17, 1.6953E-14, -1.33339E-13
1.044, 2, -33.569, -1.91467, 23.1948, -159.946, -92.5335, 54.8148, 1.12159E-15, -1.68574E-15, 8.59825E-16, 2.00819E-17, 1.6953E-14, -1.33339E-13
1.048, 2, -33.569, -1.91467, 23.1948, -159.946, -92.5335, 54.8148, 1.12159E-15, -1.68574E-15, 8.59825E-16, 2.00819E-17, 1.6953E-14, -1.33339E-13
1.052, 2, -33.569, -1.91467, 23.1948, -159.946, -92.5335, 54.8148, 1.12159E-15, -1.68574E-15, 8.59825E-16, 2.00819E-17, 1.6953E-14, -1.33339E-13
1.055, 2, -33.569, -1.91467, 23.1948, -159.946, -92.5335, 54.8148, 1.12159E-15, -1.68574E-15, 8.59825E-16, 2.00819E-17, 1.6953E-14, -1.33339E-13
1.06, 2, -33.569, -1.91467, 23.1948, -159.946, -92.5335, 54.8148, 1.12159E-15, -1.68574E-15, 8.59825E-16, 2.00819E-17, 1.6953E-14, -1.33339E-13
1.064, 2, -33.569, -1.91467, 23.1948, -159.946, -92.5335, 54.8148, 1.12159E-15, -1.68574E-15, 8.59825E-16, 2.00819E-17, 1.6953E-14, -1.33339E-13
1.068, 2, -33.569, -1.91467, 23.1948, -159.946, -92.5335, 54.8148, 1.12159E-15, -1.68574E-15, 8.59825E-16, 2.00819E-17, 1.6953E-14, -1.33339E-13
1.072, 2, -33.569, -1.91467, 23.1948, -159.946, -92.5335, 54.8148, 1.12159E-15, -1.68574E-15, 8.59825E-16, 2.00819E-17, 1.6953E-14, -1.33339E-13
1.076, 2, -33.569, -1.91467, 23.1948, -159.946, -92.5335, 54.8148, 1.12159E-15, -1.68574E-15, 8.59825E-16, 2.00819E-17, 1.6953E-14, -1.33339E-13
1.08, 2, -33.569, -1.91467, 23.1948, -159.946, -92.5335, 54.8148, 1.12159E-15, -1.68574E-15, 8.59825E-16, 2.00819E-17, 1.6953E-14, -1.33339E-13
1.084, 2, -33.569, -1.91467, 23.1948, -159.946, -92.5335, 54.8148, 1.12159E-15, -1.68574E-15, 8.59825E-16, 2.00819E-17, 1.6953E-14, -1.33339E-13
1.088, 2, -33.569, -1.91467, 23.1948, -159.946, -92.5335, 54.8148, 1.12159E-15, -1.68574E-15, 8.59825E-16, 2.00819E-17, 1.6953E-14, -1.33339E-13
1.091, 2, -33.569, -1.91467, 23.1948, -159.946, -92.5335, 54.8148, 1.12159E-15, -1.68574E-15, 8.59825E-16, 2.00819E-17, 1.6953E-14, -1.33339E-13
1.096, 2, -33.569, -1.91467, 23.1948, -159.946, -92.5335, 54.8148, 1.12159E-15, -1.68574E-15, 8.59825E-16, 2.00819E-17, 1.6953E-14, -1.33339E-13
1.1, 2, -33.569, -1.91467, 23.1948, -159.946, -92.5335, 54.8148, 1.12159E-15, -1.68574E-15, 8.59825E-16, 2.00819E-17, 1.6953E-14, -1.33339E-13
1.104, 2, -33.569, -1.91467, 23.1948, -159.946, -92.5335, 54.8148, 1.12159E-15, -1.68574E-15, 8.59825E-16, 2.00819E-17, 1.6953E-14, -1.33339E-13
1.108, 2, -33.569, -1.91467, 23.1948, -159.946, -92.5335, 54.8148, 1.12159E-15, -1.68574E-15, 8.59825E-16, 2.00819E-17, 1.6953E-14, -1.33339E-13
1.112, 2, -33.569, -1.91467, 23.1948, -159.946, -92.5335, 54.8148, 1.12159E-15, -1.68574E-15, 8.59825E-16, 2.00819E-17, 1.6953E-14, -1.33339E-13
1.116, 2, -33.569, -1.91467, 23.1948, -159.946, -92.5335, 54.8148, 1.12159E-15, -1.68574E-15, 8.59825E-16, 2.00819E-17, 1.6953E-14, -1.33339E-13
1.119, 2, -33.569, -1.91467, 23.1948, -159.946, -92.5335, 54.8148, 1.12159E-15, -1.68574E-15, 8.59825E-16, 2.00819E-17, 1.6953E-14, -1.33339E-13
1.124, 2, -33.569, -1.91467, 23.1948, -159.946, -92.5335, 54.8148, 1.12159E-15, -1.68574E-15, 8.59825E-16, 2.00819E-17, 1.6953E-14, -1.33339E-13
1.128, 2, -33.569, -1.91467, 23.1948, -159.946, -92.5335, 54.8148, 1.12159E-15, -1.68574E-15, 8.59825E-16, 2.00819E-17, 1.6953E-14, -1.33339E-13
1.132, 2, -33.569, -1.91467, 23.1948, -159.946, -92.5335, 54.8148, 1.12159E-15, -1.68574E-15, 8.59825E-16, 2.00819E-17, 1.6953E-14, -1.33339E-13
1.136, 2, -33.569, -1.91467, 23.1948, -159.946, -92.5335, 54.8148, 1.12159E-15, -1.68574E-15, 8.59825E-16, 2.00819E-17, 1.6953E-14, -1.33339E-13
1.14, 2, -33.569, -1.91467, 23.1948, -159.946, -92.5335, 54.8148, 1.12159E-15, -1.68574E-15, 8.59825E-16, 2.00819E-17, 1.6953E-14, -1.33339E-13
1.144, 2, -33.569, -1.91467, 23.1948, -159.946, -92.5335, 54.8148, 1.12159E-15, -1.68574E-15, 8.59825E-16, 2.00819E-17, 1.6953E-14, -1.33339E-13
1.147, 2, -33.569, -1.91467, 23.1948, -159.946, -92.5335, 54.8148, 1.12159E-15, -1.68574E-15, 8.59825E-16, 2.00819E-17, 1.6953E-14, -1.33339E-13
1.152, 2, -33.569, -1.91467, 23.1948, -159.946, -92.5335, 54.8148, 1.12159E-15, -1.68574E-15, 8.59825E-16, 2.00819E-17, 1.6953E-14, -1.33339E-13
1.156, 2, -33.569, -1.91467, 23.1948, -159.946, -92.5335, 54.8148, 1.12159E-15, -1.68574E-15, 8.59825E-16, 2.00819E-17, 1.6953E-14, -1.33339E-13
1.16, 2, -33.569, -1.91467, 23.1948, -159.946, -92.5335, 54.8148, 1.12159E-15, -1.68574E-15, 8.59825E-16, 2.00819E-17, 1.6953E-14, -1.33339E-13
1.164, 2, -33.569, -1.91467, 23.1948, -159.946, -92.5335, 54.8148, 1.12159E-15, -1.68574E-15, 8.59825E-16, 2.00819E-17, 1.6953E-14, -1.33339E-13
1.168, 2, -33.569, -1.91467, 23.1948, -159.946, -92.5335, 54.8148, 1.12159E-15, -1.68574E-15, 8.59825E-16, 2.00819E-17, 1.6953E-14, -1.33339E-13
1.172, 2, -33.569, -1.91467, 23.1948, -159.946, -92.5335, 54.8148, 1.12159E-15, -1.68574E-15, 8.59825E-16, 2.00819E-17, 1.6953E-14, -1.33339E-13
1.175, 2, -33.569, -1.91467, 23.1948, -159.946, -92.5335, 54.8148, 1.12159E-15, -1.68574E-15, 8.59825E-16, 2.00819E-17, 1.6953E-14, -1.33339E-13
1.18, 2, -33.569, -1.91467, 23.1948, -159.946, -92.5335, 54.8148, 1.12159E-15, -1.68574E-15, 8.59825E-16, 2.00819E-17, 1.6953E-14, -1.33339E-13
1.184, 2, -33.569, -1.91467, 23.1948, -159.946, -92.5335, 54.8148, 1.12159E-15, -1.68574E-15, 8.59825E-16, 2.00819E-17, 1.6953E-14, -1.33339E-13
1.188, 2, -33.569, -1.91467, 23.1948, -159.946, -92.5335, 54.8148, 1.12159E-15, -1.68574E-15, 8.59825E-16, 2.00819E-17, 1.6953E-14, -1.33339E-13
1.192, 2, -33.569, -1.91467, 23.1948, -159.946, -92.5335, 54.8148, 1.12159E-15, -1.68574E-15, 8.59825E-16, 2.00819E-17, 1.6953E-14, -1.33339E-13
1.196, 2, -33.569, -1.91467, 23.1948, -159.946, -92.5335, 54.8148, 1.12159E-15, -1.68574E-15, 8.59825E-16, 2.00819E-17, 1.6953E-14, -1.33339E-13
1.2, 2, -33.569, -1.91467, 23.1948, -159.946, -92.5335, 54.8148, 1.12159E-15, -1.68574E-15, 8.59825E-16, 2.00819E-17, 1.6953E-14, -1.33339E-13
1.204, 2, -33.569, -1.91467, 23.1948, -159.946, -92.5335, 54.8148, 1.12159E-15, -1.68574E-15, 8.59825E-16, 2.00819E-17, 1.6953E-14, -1.33339E-13
1.208, 2, -33.569, -1.91467, 23.1948, -159.946, -92.5335, 54.8148, 1.12159E-15, -1.68574E-15, 8.59825E-16, 2.00819E-17, 1.6953E-14, -1.33339E-13
1.212, 2, -33.569, -1.91467, 23.1948, -159.946, -92.5335, 54.8148, 1.12159E-15, -1.68574E-15, 8.59825E-16, 2.00819E-17, 1.6953E-14, -1.33339E-13
1.216, 2, -33.569, -1.91467, 23.1948, -159.946, -92.5335, 54.8148, 1.12159E-15, -1.68574E-15, 8.59825E-16, 2.00819E-17, 1.6953E-14, -1.33339E-13
1.22, 2, -33.569, -1.91467, 23.1948, -159.946, -92.5335, 54.8148, 1.12159E-15, -1.68574E-15, 8.59825E-16, 2.00819E-17, 1.6953E-14, -1.33339E-13
1.224, 2, -33.569, -1.91467, 23.1948, -159.946, -92.5335, 54.8148, 1.12159E-15, -1.68574E-15, 8.59825E-16, 2.00819E-17, 1.6953E-14, -1.33339E-13
1.228, 2, -33.569, -1.91467, 23.1948, -159.946, -92.5335, 54.8148, 1.12159E-15, -1.68574E-15, 8.59825E-16, 2.00819E-17, 1.6953E-14, -1.33339E-13
1.232, 2, -33.569, -1.91467, 23.1948, -159.946, -92.5335, 54.8148, 1.12159E-15, -1.68574E-15, 8.59825E-16, 2.00819E-17, 1.6953E-14, -1.33339E-13
1.236, 2, -33.569, -1.91467, 23.1948, -159.946, -92.5335, 54.8148, 1.12159E-15, -1.68574E-15, 8.59825E-16, 2.00819E-17, 1.6953E-14, -1.33339E-13
1.24, 2, -33.569, -1.91467, 23.1948, -159.946, -92.5335, 54.8148, 1.12159E-15, -1.68574E-15, 8.59825E-16, 2.00819E-17, 1.6953E-14, -1.33339E-13
1.244, 2, -33.569, -1.91467, 23.1948, -159.946, -92.5335, 54.8148, 1.12159E-15, -1.68574E-15, 8.59825E-16, 2.00819E-17, 1.6953E-14, -1.33339E-13
1.248, 2, -33.569, -1.91467, 23.1948, -159.946, -92.5335, 54.8148, 1.12159E-15, -1.68574E-15, 8.59825E-16, 2.00819E-17, 1.6953E-14, -1.33339E-13
1.252, 2, -33.569, -1.91467, 23.1948, -159.946, -92.5335, 54.8148, 1.12159E-15, -1.68574E-15, 8.59825E-16, 2.00819E-17, 1.6953E-14, -1.33339E-13
1.256, 2, -33.569, -1.91467, 23.1948, -159.946, -92.5335, 54.8148, 1.12159E-15, -1.68574E-15, 8.59825E-16, 2.00819E-17, 1.6953E-14, -1.33339E-13
1.26, 2, -33.569, -1.91467, 23.1948, -159.946, -92.5335, 54.8148, 1.12159E-15, -1.68574E-15, 8.59825E-16, 2.00819E-17, 1.6953E-14, -1.33339E-13
1.264, 2, -33.569, -1.91467, 23.1948, -159.946, -92.5335, 54.8148, 1.12159E-15, -1.68574E-15, 8.59825E-16, 2.00819E-17, 1.6953E-14, -1.33339E-13
1.267, 2, -33.569, -1.91467, 23.1948, -159.946, -92.5335, 54.8148, 1.12159E-15, -1.68574E-15, 8.59825E-16, 2.00819E-17, 1.6953E-14, -1.33339E-13
1.272, 2, -33.569, -1.91467, 23.1948, -159.946, -92.5335, 54.8148, 1.12159E-15, -1.68574E-15, 8.59825E-16, 2.00819E-17, 1.6953E-14, -1.33339E-13
1.276, 2, -33.569, -1.91467, 23.1948, -159.946, -92.5335, 54.8148, 1.12159E-15, -1.68574E-15, 8.59825E-16, 2.00819E-17, 1.6953E-14, -1.33339E-13
1.28, 2, -33.569, -1.91467, 23.1948, -159.946, -92.5335, 54.8148, 1.12159E-15, -1.68574E-15, 8.59825E-16, 2.00819E-17, 1.6953E-14, -1.33339E-13
1.284, 2, -33.569, -1.91467, 23.1948, -159.946, -92.5335, 54.8148, 1.12159E-15, -1.68574E-15, 8.59825E-16, 2.00819E-17, 1.6953E-14, -1.33339E-13
1.288, 2, -33.569, -1.91467, 23.1948, -159.946, -92.5335, 54.8148, 1.12159E-15, -1.68574E-15, 8.59825E-16, 2.00819E-17, 1.6953E-14, -1.33339E-13
1.292, 2, -33.569, -1.91467, 23.1948, -159.946, -92.5335, 54.8148, 1.12159E-15, -1.68574E-15, 8.59825E-16, 2.00819E-17, 1.6953E-14, -1.33339E-13
1.295, 2, -33.569, -1.91467, 23.1948, -159.946, -92.5335, 54.8148, 1.12159E-15, -1.68574E-15, 8.59825E-16, 2.00819E-17, 1.6953E-14, -1.33339E-13
1.3, 2, -33.569, -1.91467, 23.1948, -159.946, -92.5335, 54.8148, 1.12159E-15, -1.68574E-15, 8.59825E-16, 2.00819E-17, 1.6953E-14, -1.33339E-13
1.304, 2, -33.569, -1.91467, 23.1948, -159.946, -92.5335, 54.8148, 1.12159E-15, -1.68574E-15, 8.59825E-16, 2.00819E-17, 1.6953E-14, -1.33339E-13
1.308, 2, -33.569, -1.91467, 23.1948, -159.946, -92.5335, 54.8148, 1.12159E-15, -1.68574E-15, 8.59825E-16, 2.00819E-17, 1.6953E-14, -1.33339E-13
1.312, 2, -33.569, -1.91467, 23.1948, -159.946, -92.5335, 54.8148, 1.12159E-15, -1.68574E-15, 8.59825E-16, 2.00819E-17, 1.6953E-14, -1.33339E-13
1.316, 2, -33.569, -1.91467, 23.1948, -159.946, -92.5335, 54.8148, 1.12159E-15, -1.68574E-15, 8.59825E-16, 2.00819E-17, 1.6953E-14, -1.33339E-13
1.32, 2, -33.569, -1.91467, 23.1948, -159.946, -92.5335, 54.8148, 1.12159E-15, -1.68574E-15, 8.59825E-16, 2.00819E-17, 1.6953E-14, -1.33339E-13
1.324, 2, -33.569, -1.91467, 23.1948, -159.946, -92.5335, 54.8148, 1.12159E-15, -1.68574E-15, 8.59825E-16, 2.00819E-17, 1.6953E-14, -1.33339E-13
1.328, 2, -33.569, -1.91467, 23.1948, -159.946, -92.5335, 54.8148, 1.12159E-15, -1.68574E-15, 8.59825E-16, 2.00819E-17, 1.6953E-14, -1.33339E-13
1.332, 2, -33.569, -1.91467, 23.1948, -159.946, -92.5335, 54.8148, 1.12159E-15, -1.68574E-15, 8.59825E-16, 2.00819E-17, 1.6953E-14, -1.33339E-13
1.336, 2, -33.569, -1.91467, 23.1948, -159.946, -92.5335, 54.8148, 1.12159E-15, -1.68574E-15, 8.59825E-16, 2.00819E-17, 1.6953E-14, -1.33339E-13
1.34, 2, -33.569, -1.91467, 23.1948, -159.946, -92.5335, 54.8148, 1.12159E-15, -1.68574E-15, 8.59825E-16, 2.00819E-17, 1.6953E-14, -1.33339E-13
1.344, 2, -33.569, -1.91467, 23.1948, -159.946, -92.5335, 54.8148, 1.12159E-15, -1.68574E-15, 8.59825E-16, 2.00819E-17, 1.6953E-14, -1.33339E-13
1.348, 2, -33.569, -1.91467, 23.1948, -159.946, -92.5335, 54.8148, 1.12159E-15, -1.68574E-15, 8.59825E-16, 2.00819E-17, 1.6953E-14, -1.33339E-13
1.352, 2, -33.569, -1.91467, 23.1948, -159.946, -92.5335, 54.8148, 1.12159E-15, -1.68574E-15, 8.59825E-16, 2.00819E-17, 1.6953E-14, -1.33339E-13
1.356, 2, -33.569, -1.91467, 23.1948, -159.946, -92.5335, 54.8148, 1.12159E-15, -1.68574E-15, 8.59825E-16, 2.00819E-17, 1.6953E-14, -1.33339E-13
1.36, 2, -33.569, -1.91467, 23.1948, -159.946, -92.5335, 54.8148, 1.12159E-15, -1.68574E-15, 8.59825E-16, 2.00819E-17, 1.6953E-14, -1.33339E-13
1.364, 2, -33.569, -1.91467, 23.1948, -159.946, -92.5335, 54.8148, 1.12159E-15, -1.68574E-15, 8.59825E-16, 2.00819E-17, 1.6953E-14, -1.33339E-13
1.368, 2, -33.569, -1.91467, 23.1948, -159.946, -92.5335, 54.8148, 1.12159E-15, -1.68574E-15, 8.59825E-16, 2.00819E-17, 1.6953E-14, -1.33339E-13
1.372, 2, -33.569, -1.91467, 23.1948, -159.946, -92.5335, 54.8148, 1.12159E-15, -1.68574E-15, 8.59825E-16, 2.00819E-17, 1.6953E-14, -1.33339E-13
1.376, 2, -33.569, -1.91467, 23.1948, -159.946, -92.5335, 54.8148, 1.12159E-15, -1.68574E-15, 8.59825E-16, 2.00819E-17, 1.6953E-14, -1.33339E-13
1.38, 2, -33.569, -1.91467, 23.1948, -159.946, -92.5335, 54.8148, 1.12159E-15, -1.68574E-15, 8.59825E-16, 2.00819E-17, 1.6953E-14, -1.33339E-13
1.384, 2, -33.569, -1.91467, 23.1948, -159.946, -92.5335, 54.8148, 1.12159E-15, -1.68574E-15, 8.59825E-16, 2.00819E-17, 1.6953E-14, -1.33339E-13
1.388, 2, -33.569, -1.91467, 23.1948, -159.946, -92.5335, 54.8148, 1.12159E-15, -1.68574E-15, 8.59825E-16, 2.00819E-17, 1.6953E-14, -1.33339E-13
1.392, 2, -33.569, -1.91467, 23.1948, -159.946, -92.5335, 54.8148, 1.12159E-15, -1.68574E-15, 8.59825E-16, 2.00819E-17, 1.6953E-14, -1.33339E-13
1.396, 2, -33.569, -1.91467, 23.1948, -159.946, -92.5335, 54.8148, 1.12159E-15, -1.68574E-15, 8.59825E-16, 2.00819E-17, 1.6953E-14, -1.33339E-13
1.4, 2, -33.569, -1.91467, 23.1948, -159.946, -92.5335, 54.8148, 1.12159E-15, -1.68574E-15, 8.59825E-16, 2.00819E-17, 1.6953E-14, -1.33339E-13
1.404, 2, -33.569, -1.91467, 23.1948, -159.946, -92.5335, 54.8148, 1.12159E-15, -1.68574E-15, 8.59825E-16, 2.00819E-17, 1.6953E-14, -1.33339E-13
1.408, 2, -33.569, -1.91467, 23.1948, -159.946, -92.5335, 54.8148, 1.12159E-15, -1.68574E-15, 8.59825E-16, 2.00819E-17, 1.6953E-14, -1.33339E-13
1.412, 2, -33.569, -1.91467, 23.1948, -159.946, -92.5335, 54.8148, 1.12159E-15, -1.68574E-15, 8.59825E-16, 2.00819E-17, 1.6953E-14, -1.33339E-13
1.416, 2, -33.569, -1.91467, 23.1948, -159.946, -92.5335, 54.8148, 1.12159E-15, -1.68574E-15, 8.59825E-16, 2.00819E-17, 1.6953E-14, -1.33339E-13
1.42, 2, -33.569, -1.91467, 23.1948, -159.946, -92.5335, 54.8148, 1.12159E-15, -1.68574E-15, 8.59825E-16, 2.00819E-17, 1.6953E-14, -1.33339E-13
1.424, 2, -33.569, -1.91467, 23.1948, -159.946, -92.5335, 54.8148, 1.12159E-15, -1.68574E-15, 8.59825E-16, 2.00819E-17, 1.6953E-14, -1.33339E-13
1.428, 2, -33.569, -1.91467, 23.1948, -159.946, -92.5335, 54.8148, 1.12159E-15, -1.68574E-15, 8.59825E-16, 2.00819E-17, 1.6953E-14, -1.33339E-13
1.432, 2, -33.569, -1.91467, 23.1948, -159.946, -92.5335, 54.8148, 1.12159E-15, -1.68574E-15, 8.59825E-16, 2.00819E-17, 1.6953E-14, -1.33339E-13
1.436, 2, -33.569, -1.91467, 23.1948, -159.946, -92.5335, 54.8148, 1.12159E-15, -1.68574E-15, 8.59825E-16, 2.00819E-17, 1.6953E-14, -1.33339E-13
1.44, 2, -33.569, -1.91467, 23.1948, -159.946, -92.5335, 54.8148, 1.12159E-15, -1.68574E-15, 8.59825E-16, 2.00819E-17, 1.6953E-14, -1.33339E-13
1.444, 2, -33.569, -1.91467, 23.1948, -159.946, -92.5335, 54.8148, 1.12159E-15, -1.68574E-15, 8.59825E-16, 2.00819E-17, 1.6953E-14, -1.33339E-13
1.448, 2, -33.569, -1.91467, 23.1948, -159.946, -92.5335, 54.8148, 1.12159E-15, -1.68574E-15, 8.59825E-16, 2.00819E-17, 1.6953E-14, -1.33339E-13
1.452, 2, -33.569, -1.91467, 23.1948, -159.946, -92.5335, 54.8148, 1.12159E-15, -1.68574E-15, 8.59825E-16, 2.00819E-17, 1.6953E-14, -1.33339E-13
1.456, 2, -33.569, -1.91467, 23.1948, -159.946, -92.5335, 54.8148, 1.12159E-15, -1.68574E-15, 8.59825E-16, 2.00819E-17, 1.6953E-14, -1.33339E-13
1.46, 2, -33.569, -1.91467, 23.1948, -159.946, -92.5335, 54.8148, 1.12159E-15, -1.68574E-15, 8.59825E-16, 2.00819E-17, 1.6953E-14, -1.33339E-13
1.464, 2, -33.569, -1.91467, 23.1948, -159.946, -92.5335, 54.8148, 1.12159E-15, -1.68574E-15, 8.59825E-16, 2.00819E-17, 1.6953E-14, -1.33339E-13
1.468, 2, -33.569, -1.91467, 23.1948, -159.946, -92.5335, 54.8148, 1.12159E-15, -1.68574E-15, 8.59825E-16, 2.00819E-17, 1.6953E-14, -1.33339E-13
1.472, 2, -33.569, -1.91467, 23.1948, -159.946, -92.5335, 54.8148, 1.12159E-15, -1.68574E-15, 8.59825E-16, 2.00819E-17, 1.6953E-14, -1.33339E-13
1.476, 2, -33.569, -1.91467, 23.1948, -159.946, -92.5335, 54.8148, 1.12159E-15, -1.68574E-15, 8.59825E-16, 2.00819E-17, 1.6953E-14, -1.33339E-13
1.48, 2, -33.569, -1.91467, 23.1948, -159.946, -92.5335, 54.8148, 1.12159E-15, -1.68574E-15, 8.59825E-16, 2.00819E-17, 1.6953E-14, -1.33339E-13
1.484, 2, -33.569, -1.91467, 23.1948, -159.946, -92.5335, 54.8148, 1.12159E-15, -1.68574E-15, 8.59825E-16, 2.00819E-17, 1.6953E-14, -1.33339E-13
1.488, 2, -33.569, -1.91467, 23.1948, -159.946, -92.5335, 54.8148, 1.12159E-15, -1.68574E-15, 8.59825E-16, 2.00819E-17, 1.6953E-14, -1.33339E-13
1.492, 2, -33.569, -1.91467, 23.1948, -159.946, -92.5335, 54.8148, 1.12159E-15, -1.68574E-15, 8.59825E-16, 2.00819E-17, 1.6953E-14, -1.33339E-13
1.496, 2, -33.569, -1.91467, 23.1948, -159.946, -92.5335, 54.8148, 1.12159E-15, -1.68574E-15, 8.59825E-16, 2.00819E-17, 1.6953E-14, -1.33339E-13
1.5, 2, -33.569, -1.91467, 23.1948, -159.946, -92.5335, 54.8148, 1.12159E-15, -1.68574E-15, 8.59825E-16, 2.00819E-17, 1.6953E-14, -1.33339E-13
1.504, 2, -33.569, -1.91467, 23.1948, -159.946, -92.5335, 54.8148, 1.12159E-15, -1.68574E-15, 8.59825E-16, 2.00819E-17, 1.6953E-14, -1.33339E-13
1.508, 2, -33.569, -1.91467, 23.1948, -159.946, -92.5335, 54.8148, 1.12159E-15, -1.68574E-15, 8.59825E-16, 2.00819E-17, 1.6953E-14, -1.33339E-13
1.512, 2, -33.569, -1.91467, 23.1948, -159.946, -92.5335, 54.8148, 1.12159E-15, -1.68574E-15, 8.59825E-16, 2.00819E-17, 1.6953E-14, -1.33339E-13
1.516, 2, -33.569, -1.91467, 23.1948, -159.946, -92.5335, 54.8148, 1.12159E-15, -1.68574E-15, 8.59825E-16, 2.00819E-17, 1.6953E-14, -1.33339E-13
1.52, 2, -33.569, -1.91467, 23.1948, -159.946, -92.5335, 54.8148, 1.12159E-15, -1.68574E-15, 8.59825E-16, 2.00819E-17, 1.6953E-14, -1.33339E-13
1.524, 2, -33.569, -1.91467, 23.1948, -159.946, -92.5335, 54.8148, 1.12159E-15, -1.68574E-15, 8.59825E-16, 2.00819E-17, 1.6953E-14, -1.33339E-13
1.528, 2, -33.569, -1.91467, 23.1948, -159.946, -92.5335, 54.8148, 1.12159E-15, -1.68574E-15, 8.59825E-16, 2.00819E-17, 1.6953E-14, -1.33339E-13
1.532, 2, -33.569, -1.91467, 23.1948, -159.946, -92.5335, 54.8148, 1.12159E-15, -1.68574E-15, 8.59825E-16, 2.00819E-17, 1.6953E-14, -1.33339E-13
1.536, 2, -33.569, -1.91467, 23.1948, -159.946, -92.5335, 54.8148, 1.12159E-15, -1.68574E-15, 8.59825E-16, 2.00819E-17, 1.6953E-14, -1.33339E-13
1.54, 2, -33.569, -1.91467, 23.1948, -159.946, -92.5335, 54.8148, 1.12159E-15, -1.68574E-15, 8.59825E-16, 2.00819E-17, 1.6953E-14, -1.33339E-13
1.544, 2, -33.569, -1.91467, 23.1948, -159.946, -92.5335, 54.8148, 1.12159E-15, -1.68574E-15, 8.59825E-16, 2.00819E-17, 1.6953E-14, -1.33339E-13
1.548, 2, -33.569, -1.91467, 23.1948, -159.946, -92.5335, 54.8148, 1.12159E-15, -1.68574E-15, 8.59825E-16, 2.00819E-17, 1.6953E-14, -1.33339E-13
