MODULE motion_program_exec_gen
    ! abb_motion_program_exec format version 10003.0
    ! abb_motion_program_exec timestamp 2022-10-16-13-50-46-7761
    PERS tooldata motion_program_tool := [TRUE,[[75.0, 0.0, 493.30126953125],[0.9659258127212524, 0.0, 0.258819043636322, 0.0]],[1.0,[0.0, 0.0, 0.0010000000474974513],[1.0, 0.0, 0.0, 0.0],0.0,0.0,0.0]];
    PROC main()
        ! cmd_num = 1.0
        MoveAbsJ [[-145.38148498535156, 7.210056781768799, -164.5016326904297, -102.12991333007812, -67.74495697021484, 108.7209701538086],[0.0, 0.0, 0.0, 0.0, 0.0, 0.0]], [500.0, 500.0, 5000.0, 1000.0], [TRUE, 0.0, 0.0, 0.0, 0.0, 0.0, 0.0], motion_program_tool;
        ! cmd_num = 2.0
        WaitTime 1.0;
        ! cmd_num = 3.0
        MoveAbsJ [[-145.38148498535156, 7.210056781768799, -164.5016326904297, -102.12991333007812, -67.74495697021484, 108.7209701538086],[0.0, 0.0, 0.0, 0.0, 0.0, 0.0]], [500.0, 500.0, 5000.0, 1000.0], [TRUE, 0.0, 0.0, 0.0, 0.0, 0.0, 0.0], motion_program_tool;
        ! cmd_num = 4.0
        WaitTime 0.10000000149011612;
        ! cmd_num = 5.0
        MoveL [[1059.3779296875, -21.858774185180664, 2343.456787109375],[0.10796869546175003, 0.2500789165496826, -0.33008190989494324, 0.9037970900535583],[-2.0, -2.0, 1.0, 7.0],[8999999488.0, 8999999488.0, 8999999488.0, 8999999488.0, 8999999488.0, 8999999488.0]], [10000.0, 500.0, 5000.0, 1000.0], [FALSE, 50.0, 75.0, 75.0, 7.5, 75.0, 7.5], motion_program_tool;
        ! cmd_num = 6.0
        MoveL [[1091.9671630859375, 4.632526874542236, 2299.179931640625],[0.10702784359455109, 0.26562559604644775, -0.3251664638519287, 0.9012518525123596],[-2.0, -2.0, 1.0, 7.0],[8999999488.0, 8999999488.0, 8999999488.0, 8999999488.0, 8999999488.0, 8999999488.0]], [10000.0, 500.0, 5000.0, 1000.0], [FALSE, 50.0, 75.0, 75.0, 7.5, 75.0, 7.5], motion_program_tool;
        ! cmd_num = 7.0
        MoveL [[1124.319580078125, 34.412925720214844, 2255.11279296875],[0.10516467690467834, 0.28130725026130676, -0.3186691105365753, 0.8990309238433838],[-2.0, -2.0, 1.0, 7.0],[8999999488.0, 8999999488.0, 8999999488.0, 8999999488.0, 8999999488.0, 8999999488.0]], [10000.0, 500.0, 5000.0, 1000.0], [FALSE, 5.0, 8.0, 8.0, 0.800000011920929, 8.0, 0.800000011920929], motion_program_tool;
        ! cmd_num = 8.0
        MoveL [[1156.3592529296875, 66.33473205566406, 2211.9599609375],[0.1029796227812767, 0.296519935131073, -0.31074148416519165, 0.8971682190895081],[-2.0, -2.0, 1.0, 7.0],[8999999488.0, 8999999488.0, 8999999488.0, 8999999488.0, 8999999488.0, 8999999488.0]], [10000.0, 500.0, 5000.0, 1000.0], [FALSE, 5.0, 8.0, 8.0, 0.800000011920929, 8.0, 0.800000011920929], motion_program_tool;
        ! cmd_num = 9.0
        MoveL [[1188.2142333984375, 99.37828826904297, 2170.592529296875],[0.10103709995746613, 0.3107024133205414, -0.3012715280056, 0.8958185911178589],[-2.0, -2.0, 1.0, 7.0],[8999999488.0, 8999999488.0, 8999999488.0, 8999999488.0, 8999999488.0, 8999999488.0]], [10000.0, 500.0, 5000.0, 1000.0], [FALSE, 5.0, 8.0, 8.0, 0.800000011920929, 8.0, 0.800000011920929], motion_program_tool;
        ! cmd_num = 10.0
        MoveL [[1219.7396240234375, 132.6571807861328, 2131.48876953125],[0.09942381829023361, 0.3236037492752075, -0.29062342643737793, 0.8949488997459412],[-2.0, -2.0, 1.0, 7.0],[8999999488.0, 8999999488.0, 8999999488.0, 8999999488.0, 8999999488.0, 8999999488.0]], [10000.0, 500.0, 5000.0, 1000.0], [FALSE, 5.0, 8.0, 8.0, 0.800000011920929, 8.0, 0.800000011920929], motion_program_tool;
        ! cmd_num = 11.0
        MoveL [[1250.4853515625, 165.79039001464844, 2094.46826171875],[0.09779255837202072, 0.33537936210632324, -0.27946797013282776, 0.8943461179733276],[-2.0, -2.0, 1.0, 7.0],[8999999488.0, 8999999488.0, 8999999488.0, 8999999488.0, 8999999488.0, 8999999488.0]], [10000.0, 500.0, 5000.0, 1000.0], [FALSE, 50.0, 75.0, 75.0, 7.5, 75.0, 7.5], motion_program_tool;
        ! cmd_num = 12.0
        MoveL [[1280.0836181640625, 198.742919921875, 2059.145263671875],[0.09585556387901306, 0.3462721109390259, -0.2682434618473053, 0.893841564655304],[-2.0, -2.0, 1.0, 7.0],[8999999488.0, 8999999488.0, 8999999488.0, 8999999488.0, 8999999488.0, 8999999488.0]], [10000.0, 500.0, 5000.0, 1000.0], [FALSE, 50.0, 75.0, 75.0, 7.5, 75.0, 7.5], motion_program_tool;
        ! cmd_num = 13.0
        MoveL [[1308.2772216796875, 231.44155883789062, 2025.3104248046875],[0.0935259461402893, 0.35641661286354065, -0.2571576237678528, 0.8933588266372681],[-2.0, -2.0, 1.0, 7.0],[8999999488.0, 8999999488.0, 8999999488.0, 8999999488.0, 8999999488.0, 8999999488.0]], [10000.0, 500.0, 5000.0, 1000.0], [FALSE, 50.0, 75.0, 75.0, 7.5, 75.0, 7.5], motion_program_tool;
        ! cmd_num = 14.0
        MoveL [[1334.89501953125, 263.8006591796875, 1992.766357421875],[0.09080105274915695, 0.3659146726131439, -0.24634335935115814, 0.89284747838974],[-2.0, -2.0, 1.0, 7.0],[8999999488.0, 8999999488.0, 8999999488.0, 8999999488.0, 8999999488.0, 8999999488.0]], [10000.0, 500.0, 5000.0, 1000.0], [FALSE, 50.0, 75.0, 75.0, 7.5, 75.0, 7.5], motion_program_tool;
        ! cmd_num = 15.0
        MoveL [[1359.8682861328125, 295.76483154296875, 1961.280517578125],[0.08771969377994537, 0.3748585879802704, -0.2358856201171875, 0.8922691345214844],[-2.0, -2.0, 1.0, 7.0],[8999999488.0, 8999999488.0, 8999999488.0, 8999999488.0, 8999999488.0, 8999999488.0]], [10000.0, 500.0, 5000.0, 1000.0], [FALSE, 50.0, 75.0, 75.0, 7.5, 75.0, 7.5], motion_program_tool;
        ! cmd_num = 16.0
        MoveL [[1383.1456298828125, 327.1650695800781, 1930.760009765625],[0.0843719094991684, 0.3832797408103943, -0.22585704922676086, 0.8916090130805969],[-2.0, -2.0, 1.0, 7.0],[8999999488.0, 8999999488.0, 8999999488.0, 8999999488.0, 8999999488.0, 8999999488.0]], [10000.0, 500.0, 5000.0, 1000.0], [FALSE, 50.0, 75.0, 75.0, 7.5, 75.0, 7.5], motion_program_tool;
        ! cmd_num = 17.0
        MoveL [[1404.6573486328125, 357.8309631347656, 1901.057861328125],[0.08083035051822662, 0.3912290632724762, -0.21638216078281403, 0.8908339142799377],[-2.0, -2.0, 1.0, 7.0],[8999999488.0, 8999999488.0, 8999999488.0, 8999999488.0, 8999999488.0, 8999999488.0]], [10000.0, 500.0, 5000.0, 1000.0], [FALSE, 50.0, 75.0, 75.0, 7.5, 75.0, 7.5], motion_program_tool;
        ! cmd_num = 18.0
        MoveL [[1424.265625, 387.6719970703125, 1871.7952880859375],[0.07711195200681686, 0.39883825182914734, -0.20768947899341583, 0.8898577690124512],[-2.0, -2.0, 1.0, 7.0],[8999999488.0, 8999999488.0, 8999999488.0, 8999999488.0, 8999999488.0, 8999999488.0]], [10000.0, 500.0, 5000.0, 1000.0], [FALSE, 50.0, 75.0, 75.0, 7.5, 75.0, 7.5], motion_program_tool;
        ! cmd_num = 19.0
        MoveL [[1441.778564453125, 416.461181640625, 1842.679443359375],[0.073272705078125, 0.4062046408653259, -0.2000572234392166, 0.8885977864265442],[-2.0, -2.0, 1.0, 7.0],[8999999488.0, 8999999488.0, 8999999488.0, 8999999488.0, 8999999488.0, 8999999488.0]], [10000.0, 500.0, 5000.0, 1000.0], [FALSE, 50.0, 75.0, 75.0, 7.5, 75.0, 7.5], motion_program_tool;
        ! cmd_num = 20.0
        MoveL [[1457.1417236328125, 443.80084228515625, 1813.745361328125],[0.06947457790374756, 0.41329801082611084, -0.19366377592086792, 0.8870469927787781],[-2.0, -2.0, 1.0, 7.0],[8999999488.0, 8999999488.0, 8999999488.0, 8999999488.0, 8999999488.0, 8999999488.0]], [10000.0, 500.0, 5000.0, 1000.0], [FALSE, 50.0, 75.0, 75.0, 7.5, 75.0, 7.5], motion_program_tool;
        ! cmd_num = 21.0
        MoveL [[1470.38427734375, 469.2476806640625, 1785.1619873046875],[0.06591566652059555, 0.42003577947616577, -0.18864336609840393, 0.8852337002754211],[-2.0, -2.0, 1.0, 7.0],[8999999488.0, 8999999488.0, 8999999488.0, 8999999488.0, 8999999488.0, 8999999488.0]], [10000.0, 500.0, 5000.0, 1000.0], [FALSE, 50.0, 75.0, 75.0, 7.5, 75.0, 7.5], motion_program_tool;
        ! cmd_num = 22.0
        MoveL [[1481.35546875, 492.3095703125, 1756.9552001953125],[0.06275893747806549, 0.42639580368995667, -0.18528573215007782, 0.8831291794776917],[-2.0, -2.0, 1.0, 7.0],[8999999488.0, 8999999488.0, 8999999488.0, 8999999488.0, 8999999488.0, 8999999488.0]], [10000.0, 500.0, 5000.0, 1000.0], [FALSE, 50.0, 75.0, 75.0, 7.5, 75.0, 7.5], motion_program_tool;
        ! cmd_num = 23.0
        MoveL [[1489.8126220703125, 512.4599609375, 1729.0341796875],[0.06017056852579117, 0.43239322304725647, -0.18395133316516876, 0.8806687593460083],[-2.0, -2.0, 1.0, 7.0],[8999999488.0, 8999999488.0, 8999999488.0, 8999999488.0, 8999999488.0, 8999999488.0]], [10000.0, 500.0, 5000.0, 1000.0], [FALSE, 50.0, 75.0, 75.0, 7.5, 75.0, 7.5], motion_program_tool;
        ! cmd_num = 24.0
        MoveL [[1495.7030029296875, 529.1892700195312, 1701.479736328125],[0.058380093425512314, 0.4379703104496002, -0.184785857796669, 0.8778541684150696],[-2.0, -2.0, 1.0, 7.0],[8999999488.0, 8999999488.0, 8999999488.0, 8999999488.0, 8999999488.0, 8999999488.0]], [10000.0, 500.0, 5000.0, 1000.0], [FALSE, 50.0, 75.0, 75.0, 7.5, 75.0, 7.5], motion_program_tool;
        ! cmd_num = 25.0
        MoveL [[1499.125, 542.13134765625, 1674.3851318359375],[0.05760946869850159, 0.44307005405426025, -0.18770430982112885, 0.8747211694717407],[-2.0, -2.0, 1.0, 7.0],[8999999488.0, 8999999488.0, 8999999488.0, 8999999488.0, 8999999488.0, 8999999488.0]], [10000.0, 500.0, 5000.0, 1000.0], [FALSE, 50.0, 75.0, 75.0, 7.5, 75.0, 7.5], motion_program_tool;
        ! cmd_num = 26.0
        MoveL [[1500.1273193359375, 551.2269287109375, 1647.2786865234375],[0.057973463088274, 0.4478251338005066, -0.19260725378990173, 0.8712027072906494],[-2.0, -2.0, 1.0, 7.0],[8999999488.0, 8999999488.0, 8999999488.0, 8999999488.0, 8999999488.0, 8999999488.0]], [10000.0, 500.0, 5000.0, 1000.0], [FALSE, 50.0, 75.0, 75.0, 7.5, 75.0, 7.5], motion_program_tool;
        ! cmd_num = 27.0
        MoveL [[1498.660888671875, 556.6561279296875, 1619.0654296875],[0.05950719863176346, 0.45255768299102783, -0.1994771659374237, 0.8670982122421265],[-2.0, -2.0, 1.0, 7.0],[8999999488.0, 8999999488.0, 8999999488.0, 8999999488.0, 8999999488.0, 8999999488.0]], [10000.0, 500.0, 5000.0, 1000.0], [FALSE, 50.0, 75.0, 75.0, 7.5, 75.0, 7.5], motion_program_tool;
        ! cmd_num = 28.0
        MoveL [[1494.482421875, 558.5771484375, 1588.2412109375],[0.06224634498357773, 0.45770078897476196, -0.2084878832101822, 0.8620720505714417],[-2.0, -2.0, 1.0, 7.0],[8999999488.0, 8999999488.0, 8999999488.0, 8999999488.0, 8999999488.0, 8999999488.0]], [10000.0, 500.0, 5000.0, 1000.0], [FALSE, 50.0, 75.0, 75.0, 7.5, 75.0, 7.5], motion_program_tool;
        ! cmd_num = 29.0
        MoveL [[1487.5704345703125, 557.2094116210938, 1553.4266357421875],[0.06630199402570724, 0.4636087417602539, -0.21957172453403473, 0.8558382987976074],[-2.0, -2.0, 1.0, 7.0],[8999999488.0, 8999999488.0, 8999999488.0, 8999999488.0, 8999999488.0, 8999999488.0]], [10000.0, 500.0, 5000.0, 1000.0], [FALSE, 50.0, 75.0, 75.0, 7.5, 75.0, 7.5], motion_program_tool;
        ! cmd_num = 30.0
        MoveL [[1478.8818359375, 553.355224609375, 1514.2698974609375],[0.07174338400363922, 0.4703272879123688, -0.23163048923015594, 0.8485236763954163],[-2.0, -2.0, 1.0, 7.0],[8999999488.0, 8999999488.0, 8999999488.0, 8999999488.0, 8999999488.0, 8999999488.0]], [10000.0, 500.0, 5000.0, 1000.0], [FALSE, 50.0, 75.0, 75.0, 7.5, 75.0, 7.5], motion_program_tool;
        ! cmd_num = 31.0
        MoveL [[1469.0103759765625, 547.4940795898438, 1470.108154296875],[0.07864511758089066, 0.47799059748649597, -0.2440001368522644, 0.840121328830719],[-2.0, -1.0, 1.0, 7.0],[8999999488.0, 8999999488.0, 8999999488.0, 8999999488.0, 8999999488.0, 8999999488.0]], [10000.0, 500.0, 5000.0, 1000.0], [FALSE, 50.0, 75.0, 75.0, 7.5, 75.0, 7.5], motion_program_tool;
        ! cmd_num = 32.0
        MoveL [[1458.7381591796875, 540.048583984375, 1420.300537109375],[0.08703599870204926, 0.4867457151412964, -0.25596359372138977, 0.830653965473175],[-2.0, -1.0, 1.0, 7.0],[8999999488.0, 8999999488.0, 8999999488.0, 8999999488.0, 8999999488.0, 8999999488.0]], [10000.0, 500.0, 5000.0, 1000.0], [FALSE, 50.0, 75.0, 75.0, 7.5, 75.0, 7.5], motion_program_tool;
        ! cmd_num = 33.0
        MoveL [[1449.4615478515625, 531.8460083007812, 1365.68896484375],[0.09660770744085312, 0.49643194675445557, -0.26635196805000305, 0.8205357193946838],[-2.0, -1.0, 1.0, 7.0],[8999999488.0, 8999999488.0, 8999999488.0, 8999999488.0, 8999999488.0, 8999999488.0]], [10000.0, 500.0, 5000.0, 1000.0], [FALSE, 50.0, 75.0, 75.0, 7.5, 75.0, 7.5], motion_program_tool;
        ! cmd_num = 34.0
        MoveL [[1443.713134765625, 525.3956909179688, 1309.3311767578125],[0.1060313805937767, 0.5066621899604797, -0.27317628264427185, 0.8108177781105042],[-2.0, -1.0, 1.0, 7.0],[8999999488.0, 8999999488.0, 8999999488.0, 8999999488.0, 8999999488.0, 8999999488.0]], [10000.0, 500.0, 5000.0, 1000.0], [FALSE, 50.0, 75.0, 75.0, 7.5, 75.0, 7.5], motion_program_tool;
        ! cmd_num = 35.0
        WaitTime 0.10000000149011612;
    ENDPROC
ENDMODULE

MODULE motion_program_exec_gen
    ! abb_motion_program_exec format version 10003.0
    ! abb_motion_program_exec timestamp 2022-10-16-13-50-46-7761
    PERS tooldata motion_program_tool := [TRUE,[[1000.0, -222.0, -555.0],[-5.551115123125783e-17, 0.0, 1.0, 0.0]],[1.0,[0.0, 0.0, 0.0010000000474974513],[1.0, 0.0, 0.0, 0.0],0.0,0.0,0.0]];
    PROC main()
        ! cmd_num = 1.0
        MoveAbsJ [[-99.40518188476562, 2.142066240310669, -36.55952835083008, -131.82061767578125, 59.38351821899414, 67.4521713256836],[0.0, 0.0, 0.0, 0.0, 0.0, 0.0]], [500.0, 500.0, 5000.0, 1000.0], [TRUE, 0.0, 0.0, 0.0, 0.0, 0.0, 0.0], motion_program_tool;
        ! cmd_num = 2.0
        WaitTime 1.0;
        ! cmd_num = 3.0
        MoveAbsJ [[-99.40518188476562, 2.142066240310669, -36.55952835083008, -131.82061767578125, 59.38351821899414, 67.4521713256836],[0.0, 0.0, 0.0, 0.0, 0.0, 0.0]], [500.0, 500.0, 5000.0, 1000.0], [TRUE, 0.0, 0.0, 0.0, 0.0, 0.0, 0.0], motion_program_tool;
        ! cmd_num = 4.0
        WaitTime 0.10000000149011612;
        ! cmd_num = 5.0
        MoveL [[-496.9608459472656, -34.82408142089844, 143.51498413085938],[-0.025473138317465782, 0.9373563528060913, -0.04907868057489395, 0.3439556658267975],[-2.0, -2.0, 0.0, 0.0],[8999999488.0, 8999999488.0, 8999999488.0, 8999999488.0, 8999999488.0, 8999999488.0]], [1174.912109375, 9999999.0, 9999999.0, 999999.0], [FALSE, 50.0, 75.0, 75.0, 7.5, 75.0, 7.5], motion_program_tool;
        ! cmd_num = 6.0
        MoveL [[-500.62957763671875, -4.848398208618164, 150.8955078125],[-0.04930511489510536, 0.9369534254074097, -0.05442998558282852, 0.3416498601436615],[-2.0, -2.0, 0.0, 0.0],[8999999488.0, 8999999488.0, 8999999488.0, 8999999488.0, 8999999488.0, 8999999488.0]], [1328.9376220703125, 9999999.0, 9999999.0, 999999.0], [FALSE, 50.0, 75.0, 75.0, 7.5, 75.0, 7.5], motion_program_tool;
        ! cmd_num = 7.0
        MoveL [[-507.42596435546875, 25.18669891357422, 162.3271484375],[-0.07192563265562057, 0.936745822429657, -0.06085642799735069, 0.33709120750427246],[-2.0, -2.0, 0.0, 0.0],[8999999488.0, 8999999488.0, 8999999488.0, 8999999488.0, 8999999488.0, 8999999488.0]], [1403.541748046875, 9999999.0, 9999999.0, 999999.0], [FALSE, 5.0, 8.0, 8.0, 0.800000011920929, 8.0, 0.800000011920929], motion_program_tool;
        ! cmd_num = 8.0
        MoveL [[-516.2617797851562, 53.12546157836914, 176.71261596679688],[-0.09356576204299927, 0.9366315603256226, -0.06721781939268112, 0.33083003759384155],[-2.0, -2.0, 0.0, 0.0],[8999999488.0, 8999999488.0, 8999999488.0, 8999999488.0, 8999999488.0, 8999999488.0]], [1395.5958251953125, 9999999.0, 9999999.0, 999999.0], [FALSE, 5.0, 8.0, 8.0, 0.800000011920929, 8.0, 0.800000011920929], motion_program_tool;
        ! cmd_num = 9.0
        MoveL [[-525.978271484375, 76.68669891357422, 192.5411376953125],[-0.11320733278989792, 0.9366372227668762, -0.07297629117965698, 0.32337167859077454],[-2.0, -2.0, 0.0, 0.0],[8999999488.0, 8999999488.0, 8999999488.0, 8999999488.0, 8999999488.0, 8999999488.0]], [1282.024169921875, 9999999.0, 9999999.0, 999999.0], [FALSE, 5.0, 8.0, 8.0, 0.800000011920929, 8.0, 0.800000011920929], motion_program_tool;
        ! cmd_num = 10.0
        MoveL [[-535.7986450195312, 94.71690368652344, 208.50119018554688],[-0.13104167580604553, 0.9367287755012512, -0.0772535502910614, 0.31527629494667053],[-2.0, -2.0, 0.0, 0.0],[8999999488.0, 8999999488.0, 8999999488.0, 8999999488.0, 8999999488.0, 8999999488.0]], [1111.535888671875, 9999999.0, 9999999.0, 999999.0], [FALSE, 5.0, 8.0, 8.0, 0.800000011920929, 8.0, 0.800000011920929], motion_program_tool;
        ! cmd_num = 11.0
        MoveL [[-545.62841796875, 107.48381805419922, 224.14002990722656],[-0.14831073582172394, 0.9367655515670776, -0.07924691587686539, 0.3069107234477997],[-2.0, -2.0, 0.0, 0.0],[8999999488.0, 8999999488.0, 8999999488.0, 8999999488.0, 8999999488.0, 8999999488.0]], [960.7152099609375, 9999999.0, 9999999.0, 999999.0], [FALSE, 50.0, 75.0, 75.0, 7.5, 75.0, 7.5], motion_program_tool;
        ! cmd_num = 12.0
        MoveL [[-555.5543823242188, 115.498046875, 239.34609985351562],[-0.16578392684459686, 0.9366241693496704, -0.07864504307508469, 0.2984389066696167],[-2.0, -2.0, 0.0, 0.0],[8999999488.0, 8999999488.0, 8999999488.0, 8999999488.0, 8999999488.0, 8999999488.0]], [849.1541137695312, 9999999.0, 9999999.0, 999999.0], [FALSE, 50.0, 75.0, 75.0, 7.5, 75.0, 7.5], motion_program_tool;
        ! cmd_num = 13.0
        MoveL [[-565.516845703125, 118.96063995361328, 253.8489532470703],[-0.1835157722234726, 0.9362382888793945, -0.07541903108358383, 0.28998589515686035],[-2.0, -2.0, 0.0, 0.0],[8999999488.0, 8999999488.0, 8999999488.0, 8999999488.0, 8999999488.0, 8999999488.0]], [767.6265869140625, 9999999.0, 9999999.0, 999999.0], [FALSE, 50.0, 75.0, 75.0, 7.5, 75.0, 7.5], motion_program_tool;
        ! cmd_num = 14.0
        MoveL [[-575.41552734375, 117.99314880371094, 267.3402099609375],[-0.20140710473060608, 0.9355544447898865, -0.06958239525556564, 0.2816581130027771],[-2.0, -2.0, 0.0, 0.0],[8999999488.0, 8999999488.0, 8999999488.0, 8999999488.0, 8999999488.0, 8999999488.0]], [718.2788696289062, 9999999.0, 9999999.0, 999999.0], [FALSE, 50.0, 75.0, 75.0, 7.5, 75.0, 7.5], motion_program_tool;
        ! cmd_num = 15.0
        MoveL [[-585.1300659179688, 112.63868713378906, 279.4919738769531],[-0.2193366438150406, 0.9345206022262573, -0.06110897287726402, 0.2735477387905121],[-1.0, -2.0, 0.0, 0.0],[8999999488.0, 8999999488.0, 8999999488.0, 8999999488.0, 8999999488.0, 8999999488.0]], [704.9692993164062, 9999999.0, 9999999.0, 999999.0], [FALSE, 50.0, 75.0, 75.0, 7.5, 75.0, 7.5], motion_program_tool;
        ! cmd_num = 16.0
        MoveL [[-594.4191284179688, 102.78997802734375, 289.8039855957031],[-0.23702695965766907, 0.9331002831459045, -0.04992951452732086, 0.26579907536506653],[-1.0, -2.0, 0.0, 0.0],[8999999488.0, 8999999488.0, 8999999488.0, 8999999488.0, 8999999488.0, 8999999488.0]], [729.30517578125, 9999999.0, 9999999.0, 999999.0], [FALSE, 50.0, 75.0, 75.0, 7.5, 75.0, 7.5], motion_program_tool;
        ! cmd_num = 17.0
        MoveL [[-603.0591430664062, 88.37471771240234, 297.8392639160156],[-0.25434860587120056, 0.9312201142311096, -0.03587851673364639, 0.25855109095573425],[-1.0, -2.0, 0.0, 0.0],[8999999488.0, 8999999488.0, 8999999488.0, 8999999488.0, 8999999488.0, 8999999488.0]], [798.174072265625, 9999999.0, 9999999.0, 999999.0], [FALSE, 50.0, 75.0, 75.0, 7.5, 75.0, 7.5], motion_program_tool;
        ! cmd_num = 18.0
        MoveL [[-610.964599609375, 69.40825653076172, 303.43414306640625],[-0.27154362201690674, 0.9286983013153076, -0.01864134520292282, 0.2518651485443115],[-1.0, -2.0, 0.0, 0.0],[8999999488.0, 8999999488.0, 8999999488.0, 8999999488.0, 8999999488.0, 8999999488.0]], [911.010986328125, 9999999.0, 9999999.0, 999999.0], [FALSE, 50.0, 75.0, 75.0, 7.5, 75.0, 7.5], motion_program_tool;
        ! cmd_num = 19.0
        MoveL [[-617.8989868164062, 45.74708557128906, 306.2997131347656],[-0.28874626755714417, 0.9253025650978088, 0.002166362013667822, 0.24583745002746582],[-1.0, -2.0, 0.0, 0.0],[8999999488.0, 8999999488.0, 8999999488.0, 8999999488.0, 8999999488.0, 8999999488.0]], [1061.452392578125, 9999999.0, 9999999.0, 999999.0], [FALSE, 50.0, 75.0, 75.0, 7.5, 75.0, 7.5], motion_program_tool;
        ! cmd_num = 20.0
        MoveL [[-623.100830078125, 16.839223861694336, 305.5431823730469],[-0.30549564957618713, 0.9208633899688721, 0.0269788708537817, 0.24073877930641174],[-1.0, -2.0, 0.0, 0.0],[8999999488.0, 8999999488.0, 8999999488.0, 8999999488.0, 8999999488.0, 8999999488.0]], [1257.267333984375, 9999999.0, 9999999.0, 999999.0], [FALSE, 50.0, 75.0, 75.0, 7.5, 75.0, 7.5], motion_program_tool;
        ! cmd_num = 21.0
        MoveL [[-625.3240966796875, -18.041889190673828, 299.94451904296875],[-0.32102060317993164, 0.9152164459228516, 0.05633551627397537, 0.23696185648441315],[-1.0, -2.0, 0.0, 0.0],[8999999488.0, 8999999488.0, 8999999488.0, 8999999488.0, 8999999488.0, 8999999488.0]], [1513.6959228515625, 9999999.0, 9999999.0, 999999.0], [FALSE, 50.0, 75.0, 75.0, 7.5, 75.0, 7.5], motion_program_tool;
        ! cmd_num = 22.0
        MoveL [[-623.1148071289062, -59.26890563964844, 288.67352294921875],[-0.33479613065719604, 0.9080311059951782, 0.0907885730266571, 0.23483717441558838],[-1.0, -2.0, 0.0, 0.0],[8999999488.0, 8999999488.0, 8999999488.0, 8999999488.0, 8999999488.0, 8999999488.0]], [1829.7225341796875, 9999999.0, 9999999.0, 999999.0], [FALSE, 50.0, 75.0, 75.0, 7.5, 75.0, 7.5], motion_program_tool;
        ! cmd_num = 23.0
        MoveL [[-614.699462890625, -106.82698059082031, 271.3699951171875],[-0.34640106558799744, 0.8988171219825745, 0.1307736486196518, 0.234589621424675],[-1.0, -2.0, 0.0, 0.0],[8999999488.0, 8999999488.0, 8999999488.0, 8999999488.0, 8999999488.0, 8999999488.0]], [2194.4169921875, 9999999.0, 9999999.0, 999999.0], [FALSE, 50.0, 75.0, 75.0, 7.5, 75.0, 7.5], motion_program_tool;
        ! cmd_num = 24.0
        MoveL [[-597.7207641601562, -160.2876739501953, 248.0138397216797],[-0.3549812436103821, 0.8871349096298218, 0.17632806301116943, 0.2364071160554886],[-1.0, -2.0, 0.0, 0.0],[8999999488.0, 8999999488.0, 8999999488.0, 8999999488.0, 8999999488.0, 8999999488.0]], [2597.501953125, 9999999.0, 9999999.0, 999999.0], [FALSE, 50.0, 75.0, 75.0, 7.5, 75.0, 7.5], motion_program_tool;
        ! cmd_num = 25.0
        MoveL [[-569.9960327148438, -218.09109497070312, 219.77218627929688],[-0.35973218083381653, 0.8726493716239929, 0.2266562134027481, 0.24021412432193756],[-1.0, -2.0, 0.0, 0.0],[8999999488.0, 8999999488.0, 8999999488.0, 8999999488.0, 8999999488.0, 8999999488.0]], [2995.280517578125, 9999999.0, 9999999.0, 999999.0], [FALSE, 50.0, 75.0, 75.0, 7.5, 75.0, 7.5], motion_program_tool;
        ! cmd_num = 26.0
        MoveL [[-530.8128662109375, -277.304443359375, 189.436767578125],[-0.3609374761581421, 0.8549802303314209, 0.2802125811576843, 0.24538514018058777],[-1.0, -2.0, 0.0, 0.0],[8999999488.0, 8999999488.0, 8999999488.0, 8999999488.0, 8999999488.0, 8999999488.0]], [3303.533935546875, 9999999.0, 9999999.0, 999999.0], [FALSE, 50.0, 75.0, 75.0, 7.5, 75.0, 7.5], motion_program_tool;
        ! cmd_num = 27.0
        MoveL [[-481.40533447265625, -334.18182373046875, 160.33401489257812],[-0.3600875735282898, 0.8337251543998718, 0.33511555194854736, 0.2508722245693207],[-1.0, -2.0, 0.0, 0.0],[8999999488.0, 8999999488.0, 8999999488.0, 8999999488.0, 8999999488.0, 8999999488.0]], [3452.525634765625, 9999999.0, 9999999.0, 999999.0], [FALSE, 50.0, 75.0, 75.0, 7.5, 75.0, 7.5], motion_program_tool;
        ! cmd_num = 28.0
        MoveL [[-424.772705078125, -384.7451171875, 134.92835998535156],[-0.3596385717391968, 0.8084895610809326, 0.3895263075828552, 0.25548774003982544],[-1.0, -2.0, 0.0, 0.0],[8999999488.0, 8999999488.0, 8999999488.0, 8999999488.0, 8999999488.0, 8999999488.0]], [3421.46337890625, 9999999.0, 9999999.0, 999999.0], [FALSE, 50.0, 75.0, 75.0, 7.5, 75.0, 7.5], motion_program_tool;
        ! cmd_num = 29.0
        MoveL [[-364.5210876464844, -425.7828674316406, 113.80023193359375],[-0.3618388772010803, 0.7791957855224609, 0.4417964220046997, 0.25834572315216064],[-1.0, -2.0, 0.0, 0.0],[8999999488.0, 8999999488.0, 8999999488.0, 8999999488.0, 8999999488.0, 8999999488.0]], [3246.3828125, 9999999.0, 9999999.0, 999999.0], [FALSE, 50.0, 75.0, 75.0, 7.5, 75.0, 7.5], motion_program_tool;
        ! cmd_num = 30.0
        MoveL [[-303.6817626953125, -455.90203857421875, 96.04417419433594],[-0.36713388562202454, 0.746757984161377, 0.49024274945259094, 0.25928229093551636],[-1.0, -2.0, 0.0, 0.0],[8999999488.0, 8999999488.0, 8999999488.0, 8999999488.0, 8999999488.0, 8999999488.0]], [3000.270751953125, 9999999.0, 9999999.0, 999999.0], [FALSE, 50.0, 75.0, 75.0, 7.5, 75.0, 7.5], motion_program_tool;
        ! cmd_num = 31.0
        MoveL [[-244.7281951904297, -474.56195068359375, 80.03911590576172],[-0.3762875199317932, 0.7116661071777344, 0.5340086221694946, 0.2584063708782196],[-1.0, -2.0, 0.0, 0.0],[8999999488.0, 8999999488.0, 8999999488.0, 8999999488.0, 8999999488.0, 8999999488.0]], [2731.675048828125, 9999999.0, 9999999.0, 999999.0], [FALSE, 50.0, 75.0, 75.0, 7.5, 75.0, 7.5], motion_program_tool;
        ! cmd_num = 32.0
        MoveL [[-189.70179748535156, -481.76531982421875, 64.01852416992188],[-0.3898559510707855, 0.6743935346603394, 0.572401762008667, 0.25605058670043945],[-1.0, -2.0, 0.0, 0.0],[8999999488.0, 8999999488.0, 8999999488.0, 8999999488.0, 8999999488.0, 8999999488.0]], [2472.59521484375, 9999999.0, 9999999.0, 999999.0], [FALSE, 50.0, 75.0, 75.0, 7.5, 75.0, 7.5], motion_program_tool;
        ! cmd_num = 33.0
        MoveL [[-139.3470916748047, -479.0513610839844, 47.04303741455078],[-0.4066413342952728, 0.6360732316970825, 0.6050462126731873, 0.2529282867908478],[-1.0, -2.0, 0.0, 0.0],[8999999488.0, 8999999488.0, 8999999488.0, 8999999488.0, 8999999488.0, 8999999488.0]], [2276.237060546875, 9999999.0, 9999999.0, 999999.0], [FALSE, 50.0, 75.0, 75.0, 7.5, 75.0, 7.5], motion_program_tool;
        ! cmd_num = 34.0
        MoveL [[-94.48230743408203, -469.78717041015625, 29.961566925048828],[-0.4235147535800934, 0.599724292755127, 0.6312257647514343, 0.2500401437282562],[-1.0, -2.0, 0.0, 0.0],[8999999488.0, 8999999488.0, 8999999488.0, 8999999488.0, 8999999488.0, 8999999488.0]], [2095.712890625, 9999999.0, 9999999.0, 999999.0], [FALSE, 50.0, 75.0, 75.0, 7.5, 75.0, 7.5], motion_program_tool;
        ! cmd_num = 35.0
        WaitTime 0.10000000149011612;
    ENDPROC
ENDMODULE