/JOB
//NAME AAA
//POS
///NPOS 56,0,0,0,0,0
///TOOL 11
///POSTYPE PULSE
///PULSE
C00000=46578,-9675,-19058,-33253,-83181,21765
C00001=46578,-9675,-19058,-33253,-83181,21765
C00002=42937,-8771,-17397,-25847,-86405,21908
C00003=42278,-9824,-17921,-24283,-86330,22110
C00004=41667,-11028,-18489,-22642,-86236,22330
C00005=41091,-12260,-19025,-20961,-86190,22550
C00006=40540,-13425,-19470,-19249,-86246,22757
C00007=40009,-14609,-19885,-17516,-86356,22959
C00008=39488,-15837,-20289,-15755,-86511,23160
C00009=38966,-17130,-20692,-13967,-86705,23361
C00010=38430,-18466,-21081,-12168,-86950,23557
C00011=37860,-19839,-21449,-10365,-87250,23746
C00012=37239,-21260,-21795,-8562,-87608,23927
C00013=36550,-22757,-22132,-6766,-88005,24103
C00014=35778,-24388,-22482,-4969,-88418,24280
C00015=34907,-26219,-22876,-3165,-88813,24467
C00016=33915,-28315,-23335,-1348,-89156,24670
C00017=32760,-30748,-23876,494,-89420,24899
C00018=31372,-33604,-24506,2367,-89570,25158
C00019=29626,-37006,-25231,4267,-89547,25458
C00020=27258,-41217,-26073,6187,-89234,25818
C00021=23582,-46766,-27038,8026,-88341,26269
C00022=19056,-52092,-27744,8861,-86872,26643
C00023=14393,-56323,-28157,8645,-85125,26887
C00024=9840,-59582,-28405,7681,-83299,27023
C00025=5263,-62106,-28518,6148,-81463,27062
C00026=635,-63971,-28491,4146,-79684,27002
C00027=-4015,-65211,-28316,1771,-78025,26843
C00028=-8629,-65861,-27995,-887,-76530,26590
C00029=-13174,-65956,-27526,-3758,-75226,26246
C00030=-17607,-65509,-26893,-6775,-74142,25818
C00031=-21869,-64523,-26073,-9857,-73311,25313
C00032=-25916,-62995,-25035,-12931,-72755,24742
C00033=-29692,-60948,-23764,-15921,-72485,24121
C00034=-33215,-58389,-22236,-18808,-72492,23458
C00035=-36476,-55345,-20451,-21569,-72763,22764
C00036=-39475,-51864,-18421,-24191,-73273,22054
C00037=-42219,-48002,-16174,-26673,-73989,21337
C00038=-44726,-43807,-13735,-29036,-74878,20620
C00039=-47026,-39308,-11126,-31311,-75911,19907
C00040=-49131,-34573,-8395,-33520,-77051,19204
C00041=-51072,-29627,-5572,-35710,-78269,18510
C00042=-52875,-24506,-2702,-37926,-79536,17824
C00043=-54555,-19255,166,-40204,-80821,17147
C00044=-56121,-13900,2994,-42569,-82100,16479
C00045=-57572,-8450,5765,-45033,-83358,15822
C00046=-58899,-2914,8471,-47591,-84579,15176
C00047=-60100,2699,11096,-50251,-85747,14543
C00048=-61186,8344,13575,-53052,-86829,13920
C00049=-62169,13969,15818,-56044,-87789,13300
C00050=-63037,19545,17787,-59227,-88604,12685
C00051=-63766,25081,19511,-62564,-89266,12077
C00052=-64352,30545,20955,-66064,-89769,11472
C00053=-64740,36073,22376,-69579,-90143,10886
C00054=-64963,41575,23632,-73204,-90368,10303
C00055=-63697,54543,33076,-74716,-88729,10233
//INST
///DATE 2023/04/26 18:31
///ATTR SC,RW
///GROUP1 RB1
NOP
MOVJ C00000 VJ=5.0
TIMER T=1.00
MOVJ C00001 VJ=1.0
TIMER T=0.10
MOVL C00002 V=380.0
MOVL C00003 V=380.0
MOVL C00004 V=380.0
MOVL C00005 V=380.0
MOVL C00006 V=380.0
MOVL C00007 V=380.0
MOVL C00008 V=380.0
MOVL C00009 V=380.0
MOVL C00010 V=380.0
MOVL C00011 V=380.0
MOVL C00012 V=380.0
MOVL C00013 V=380.0
MOVL C00014 V=380.0
MOVL C00015 V=380.0
MOVL C00016 V=380.0
MOVL C00017 V=380.0
MOVL C00018 V=380.0
MOVL C00019 V=380.0
MOVL C00020 V=380.0
MOVL C00021 V=380.0
MOVL C00022 V=380.0
MOVL C00023 V=380.0
MOVL C00024 V=380.0
MOVL C00025 V=380.0
MOVL C00026 V=380.0
MOVL C00027 V=380.0
MOVL C00028 V=380.0
MOVL C00029 V=380.0
MOVL C00030 V=380.0
MOVL C00031 V=380.0
MOVL C00032 V=380.0
MOVL C00033 V=380.0
MOVL C00034 V=380.0
MOVL C00035 V=380.0
MOVL C00036 V=380.0
MOVL C00037 V=380.0
MOVL C00038 V=380.0
MOVL C00039 V=380.0
MOVL C00040 V=380.0
MOVL C00041 V=380.0
MOVL C00042 V=380.0
MOVL C00043 V=380.0
MOVL C00044 V=380.0
MOVL C00045 V=380.0
MOVL C00046 V=380.0
MOVL C00047 V=380.0
MOVL C00048 V=380.0
MOVL C00049 V=380.0
MOVL C00050 V=380.0
MOVL C00051 V=380.0
MOVL C00052 V=380.0
MOVL C00053 V=380.0
MOVL C00054 V=380.0
MOVL C00055 V=380.0
END
