/JOB
//NAME AAA
//POS
///NPOS 104,0,0,0,0,0
///TOOL 11
///POSTYPE PULSE
///PULSE
C00000=16457,-100683,-72950,41021,-118051,-46552
C00001=16457,-100683,-72950,41021,-118051,-46552
C00002=1658,-87991,-66521,42847,-107394,-41804
C00003=765,-86740,-65954,42927,-106852,-41761
C00004=-64,-85427,-65389,43047,-106339,-41714
C00005=-828,-84059,-64828,43208,-105859,-41663
C00006=-1528,-82639,-64272,43412,-105411,-41609
C00007=-2165,-81168,-63721,43660,-104994,-41551
C00008=-2741,-79648,-63175,43953,-104609,-41489
C00009=-3258,-78081,-62634,44290,-104255,-41423
C00010=-3720,-76468,-62100,44672,-103933,-41353
C00011=-4129,-74810,-61571,45098,-103642,-41278
C00012=-4488,-73110,-61050,45569,-103381,-41199
C00013=-4800,-71368,-60535,46082,-103149,-41116
C00014=-5070,-69586,-60028,46638,-102948,-41028
C00015=-5302,-67765,-59527,47234,-102775,-40935
C00016=-5499,-65907,-59034,47870,-102629,-40839
C00017=-5667,-64014,-58549,48541,-102511,-40737
C00018=-5808,-62089,-58070,49247,-102418,-40632
C00019=-5928,-60133,-57598,49984,-102348,-40522
C00020=-6032,-58150,-57133,50749,-102302,-40408
C00021=-6123,-56143,-56672,51538,-102276,-40290
C00022=-6207,-54116,-56216,52348,-102268,-40169
C00023=-6287,-52074,-55763,53174,-102277,-40045
C00024=-6367,-50020,-55310,54012,-102300,-39919
C00025=-6452,-47961,-54858,54857,-102334,-39790
C00026=-6545,-45902,-54403,55704,-102376,-39660
C00027=-6649,-43847,-53942,56549,-102423,-39528
C00028=-6767,-41805,-53475,57387,-102473,-39396
C00029=-6901,-39781,-52997,58211,-102521,-39265
C00030=-7053,-37781,-52505,59018,-102566,-39135
C00031=-7225,-35812,-51998,59802,-102603,-39006
C00032=-7419,-33882,-51471,60559,-102629,-38880
C00033=-7635,-31996,-50921,61282,-102641,-38757
C00034=-7875,-30161,-50346,61968,-102636,-38638
C00035=-8138,-28385,-49741,62610,-102610,-38524
C00036=-8426,-26673,-49104,63205,-102560,-38416
C00037=-8739,-25033,-48430,63745,-102482,-38314
C00038=-9077,-23471,-47717,64226,-102373,-38219
C00039=-9442,-21994,-46962,64642,-102229,-38133
C00040=-9835,-20609,-46161,64986,-102047,-38056
C00041=-10256,-19322,-45311,65251,-101822,-37990
C00042=-10707,-18141,-44409,65429,-101551,-37934
C00043=-11192,-17071,-43453,65512,-101229,-37891
C00044=-11713,-16118,-42437,65491,-100852,-37861
C00045=-12274,-15289,-41361,65354,-100415,-37845
C00046=-12882,-14588,-40221,65090,-99914,-37845
C00047=-13542,-14020,-39015,64687,-99343,-37862
C00048=-14263,-13586,-37742,64130,-98700,-37896
C00049=-15055,-13288,-36398,63405,-97979,-37948
C00050=-15930,-13124,-34985,62495,-97179,-38019
C00051=-16903,-13088,-33500,61385,-96298,-38109
C00052=-17988,-13172,-31946,60056,-95335,-38217
C00053=-19202,-13360,-30326,58495,-94296,-38343
C00054=-20564,-13633,-28643,56687,-93187,-38485
C00055=-22087,-13963,-26906,54622,-92019,-38640
C00056=-23784,-14317,-25124,52298,-90811,-38804
C00057=-25658,-14656,-23311,49721,-89586,-38971
C00058=-27706,-14936,-21482,46910,-88372,-39134
C00059=-29909,-15115,-19655,43899,-87200,-39287
C00060=-32237,-15155,-17848,40734,-86102,-39421
C00061=-34645,-15026,-16078,37479,-85105,-39529
C00062=-37080,-14709,-14359,34204,-84231,-39607
C00063=-39485,-14200,-12702,30986,-83489,-39653
C00064=-41799,-13506,-11112,27901,-82882,-39664
C00065=-43968,-12644,-9592,25021,-82400,-39644
C00066=-45945,-11638,-8138,22408,-82030,-39595
C00067=-47690,-10513,-6744,20114,-81750,-39523
C00068=-49170,-9295,-5400,18183,-81542,-39430
C00069=-50361,-8012,-4101,16651,-81386,-39320
C00070=-51239,-6684,-2838,15553,-81264,-39198
C00071=-51789,-5331,-1609,14916,-81164,-39065
C00072=-51997,-3968,-417,14768,-81077,-38922
C00073=-51856,-2602,735,15131,-81002,-38770
C00074=-51362,-1232,1836,16022,-80941,-38606
C00075=-50522,150,2872,17450,-80906,-38429
C00076=-49348,1565,3825,19418,-80913,-38233
C00077=-47862,3041,4677,21916,-80984,-38012
C00078=-46097,4617,5409,24921,-81148,-37759
C00079=-44103,6335,6007,28390,-81431,-37466
C00080=-41942,8237,6460,32255,-81861,-37128
C00081=-39696,10356,6768,36419,-82454,-36740
C00082=-37460,12707,6943,40757,-83210,-36304
C00083=-35330,15277,7012,45128,-84114,-35828
C00084=-33390,18025,7016,49389,-85126,-35324
C00085=-31702,20889,7004,53415,-86196,-34810
C00086=-30298,23790,7030,57105,-87266,-34301
C00087=-29183,26651,7143,60390,-88282,-33814
C00088=-28343,29401,7391,63228,-89199,-33362
C00089=-27752,31984,7810,65595,-89979,-32954
C00090=-27383,34350,8434,67474,-90594,-32600
C00091=-27213,36457,9291,68847,-91021,-32305
C00092=-27225,38266,10402,69688,-91241,-32076
C00093=-27408,39742,11780,69966,-91241,-31918
C00094=-27761,40864,13427,69651,-91016,-31836
C00095=-28291,41629,15334,68722,-90574,-31830
C00096=-29013,42061,17487,67159,-89931,-31897
C00097=-29955,42204,19872,64949,-89114,-32029
C00098=-31153,42119,22471,62079,-88160,-32218
C00099=-32645,41885,25261,58546,-87115,-32451
C00100=-34464,41594,28205,54370,-86037,-32709
C00101=-36614,41355,31239,49627,-84998,-32970
C00102=-39066,41272,34293,44443,-84069,-33209
C00103=-35197,49780,-11468,120763,-87347,-26570
//INST
///DATE 2023/04/12 13:59
///ATTR SC,RW
///GROUP1 RB1
NOP
MOVJ C00000 VJ=5.0
TIMER T=1.00
MOVJ C00001 VJ=1.0
TIMER T=0.10
MOVL C00002 V=150.0
MOVL C00003 V=150.0
MOVL C00004 V=150.0
MOVL C00005 V=150.0
MOVL C00006 V=150.0
MOVL C00007 V=150.0
MOVL C00008 V=150.0
MOVL C00009 V=150.0
MOVL C00010 V=150.0
MOVL C00011 V=150.0
MOVL C00012 V=150.0
MOVL C00013 V=150.0
MOVL C00014 V=150.0
MOVL C00015 V=150.0
MOVL C00016 V=150.0
MOVL C00017 V=150.0
MOVL C00018 V=150.0
MOVL C00019 V=150.0
MOVL C00020 V=150.0
MOVL C00021 V=150.0
MOVL C00022 V=150.0
MOVL C00023 V=150.0
MOVL C00024 V=150.0
MOVL C00025 V=150.0
MOVL C00026 V=150.0
MOVL C00027 V=150.0
MOVL C00028 V=150.0
MOVL C00029 V=150.0
MOVL C00030 V=150.0
MOVL C00031 V=150.0
MOVL C00032 V=150.0
MOVL C00033 V=150.0
MOVL C00034 V=150.0
MOVL C00035 V=150.0
MOVL C00036 V=150.0
MOVL C00037 V=150.0
MOVL C00038 V=150.0
MOVL C00039 V=150.0
MOVL C00040 V=150.0
MOVL C00041 V=150.0
MOVL C00042 V=150.0
MOVL C00043 V=150.0
MOVL C00044 V=150.0
MOVL C00045 V=150.0
MOVL C00046 V=150.0
MOVL C00047 V=150.0
MOVL C00048 V=150.0
MOVL C00049 V=150.0
MOVL C00050 V=150.0
MOVL C00051 V=150.0
MOVL C00052 V=150.0
MOVL C00053 V=150.0
MOVL C00054 V=150.0
MOVL C00055 V=150.0
MOVL C00056 V=150.0
MOVL C00057 V=150.0
MOVL C00058 V=150.0
MOVL C00059 V=150.0
MOVL C00060 V=150.0
MOVL C00061 V=150.0
MOVL C00062 V=150.0
MOVL C00063 V=150.0
MOVL C00064 V=150.0
MOVL C00065 V=150.0
MOVL C00066 V=150.0
MOVL C00067 V=150.0
MOVL C00068 V=150.0
MOVL C00069 V=150.0
MOVL C00070 V=150.0
MOVL C00071 V=150.0
MOVL C00072 V=150.0
MOVL C00073 V=150.0
MOVL C00074 V=150.0
MOVL C00075 V=150.0
MOVL C00076 V=150.0
MOVL C00077 V=150.0
MOVL C00078 V=150.0
MOVL C00079 V=150.0
MOVL C00080 V=150.0
MOVL C00081 V=150.0
MOVL C00082 V=150.0
MOVL C00083 V=150.0
MOVL C00084 V=150.0
MOVL C00085 V=150.0
MOVL C00086 V=150.0
MOVL C00087 V=150.0
MOVL C00088 V=150.0
MOVL C00089 V=150.0
MOVL C00090 V=150.0
MOVL C00091 V=150.0
MOVL C00092 V=150.0
MOVL C00093 V=150.0
MOVL C00094 V=150.0
MOVL C00095 V=150.0
MOVL C00096 V=150.0
MOVL C00097 V=150.0
MOVL C00098 V=150.0
MOVL C00099 V=150.0
MOVL C00100 V=150.0
MOVL C00101 V=150.0
MOVL C00102 V=150.0
MOVL C00103 V=150.0
END
