/JOB
//NAME AAA
//POS
///NPOS 102,0,0,0,0,0
///TOOL 11
///POSTYPE PULSE
///PULSE
C00000=-28295,-32511,-77334,64529,-101308,13971
C00001=-28295,-32511,-77334,64529,-101308,13971
C00002=-27598,-32632,-75635,66046,-104362,13877
C00003=-27118,-33355,-75568,66915,-105315,13976
C00004=-26524,-34353,-75761,67922,-106212,14132
C00005=-25881,-35417,-76051,68981,-107107,14308
C00006=-25220,-36457,-76363,70049,-108024,14486
C00007=-24552,-37447,-76671,71113,-108966,14661
C00008=-23876,-38396,-76977,72170,-109931,14833
C00009=-23189,-39319,-77290,73225,-110912,15005
C00010=-22487,-40232,-77617,74282,-111903,15180
C00011=-21769,-41144,-77962,75344,-112901,15358
C00012=-21034,-42057,-78322,76409,-113903,15540
C00013=-20283,-42970,-78691,77473,-114906,15726
C00014=-19516,-43881,-79062,78534,-115910,15913
C00015=-18736,-44786,-79427,79587,-116912,16102
C00016=-17941,-45685,-79782,80632,-117911,16292
C00017=-17129,-46581,-80126,81668,-118904,16483
C00018=-16298,-47477,-80458,82697,-119889,16676
C00019=-15445,-48378,-80783,83725,-120862,16873
C00020=-14567,-49291,-81105,84756,-121820,17077
C00021=-13659,-50221,-81428,85795,-122761,17289
C00022=-12720,-51173,-81757,86850,-123681,17511
C00023=-11746,-52151,-82095,87924,-124579,17747
C00024=-10736,-53155,-82443,89022,-125451,17997
C00025=-9688,-54186,-82802,90148,-126297,18263
C00026=-8602,-55243,-83169,91303,-127114,18545
C00027=-7475,-56323,-83543,92488,-127902,18844
C00028=-6309,-57423,-83921,93704,-128659,19160
C00029=-5102,-58539,-84300,94952,-129383,19493
C00030=-3854,-59669,-84677,96232,-130074,19844
C00031=-2564,-60807,-85048,97542,-130731,20211
C00032=-1233,-61950,-85411,98881,-131351,20594
C00033=140,-63095,-85761,100249,-131935,20993
C00034=1640,-64525,-86345,101912,-132332,21176
C00035=3364,-66633,-87501,104240,-132332,20838
C00036=5075,-68628,-88544,106494,-132332,20612
C00037=6780,-70501,-89466,108662,-132332,20491
C00038=8484,-72248,-90263,110732,-132332,20465
C00039=10193,-73866,-90932,112701,-132332,20525
C00040=11915,-75352,-91474,114566,-132332,20660
C00041=13652,-76705,-91891,116327,-132332,20858
C00042=15409,-77925,-92186,117985,-132332,21109
C00043=17190,-79012,-92362,119544,-132332,21405
C00044=18995,-79968,-92421,121004,-132332,21738
C00045=20827,-80792,-92367,122369,-132332,22100
C00046=22688,-81500,-92214,123650,-132324,22477
C00047=24582,-82132,-91994,124881,-132283,22833
C00048=26509,-82686,-91707,126060,-132210,23164
C00049=28466,-83157,-91348,127181,-132106,23467
C00050=30449,-83536,-90910,128235,-131977,23740
C00051=32457,-83815,-90386,129217,-131827,23978
C00052=34482,-83983,-89769,130122,-131662,24180
C00053=36520,-84029,-89048,130943,-131487,24341
C00054=38564,-83943,-88216,131676,-131311,24460
C00055=40607,-83718,-87265,132318,-131137,24533
C00056=42643,-83346,-86188,132866,-130972,24561
C00057=44665,-82824,-84977,133320,-130819,24542
C00058=46668,-82149,-83627,133677,-130681,24477
C00059=48645,-81323,-82133,133939,-130562,24365
C00060=50593,-80348,-80490,134106,-130461,24209
C00061=52506,-79227,-78694,134177,-130380,24008
C00062=54378,-77963,-76740,134155,-130319,23764
C00063=56203,-76560,-74624,134041,-130277,23478
C00064=57975,-75024,-72340,133838,-130256,23152
C00065=59686,-73357,-69885,133550,-130253,22788
C00066=61329,-71567,-67257,133182,-130268,22387
C00067=62898,-69662,-64454,132740,-130298,21951
C00068=64387,-67650,-61477,132230,-130339,21484
C00069=65793,-65544,-58330,131661,-130386,20989
C00070=67114,-63357,-55018,131040,-130434,20470
C00071=68351,-61103,-51547,130376,-130475,19930
C00072=69504,-58796,-47928,129677,-130504,19373
C00073=70579,-56452,-44170,128952,-130512,18804
C00074=71579,-54084,-40285,128208,-130493,18225
C00075=72510,-51704,-36285,127452,-130441,17639
C00076=73380,-49325,-32183,126692,-130349,17051
C00077=74195,-46958,-27991,125933,-130212,16462
C00078=74966,-44612,-23721,125178,-130025,15874
C00079=75702,-42296,-19384,124429,-129782,15289
C00080=76412,-40018,-14991,123689,-129481,14708
C00081=77104,-37782,-10551,122959,-129119,14131
C00082=77782,-35592,-6073,122241,-128694,13561
C00083=78449,-33445,-1564,121538,-128209,12996
C00084=79101,-31338,2971,120857,-127664,12437
C00085=79735,-29264,7527,120201,-127064,11886
C00086=80347,-27217,12102,119577,-126412,11340
C00087=80937,-25190,16694,118985,-125712,10800
C00088=81510,-23181,21306,118424,-124963,10265
C00089=82071,-21188,25938,117889,-124164,9733
C00090=82628,-19211,30592,117375,-123314,9201
C00091=83180,-17245,35269,116882,-122415,8670
C00092=83724,-15280,39973,116414,-121469,8139
C00093=84249,-13300,44710,115976,-120480,7605
C00094=84750,-11288,49497,115572,-119454,7066
C00095=85228,-9225,54355,115198,-118389,6519
C00096=85679,-7090,59309,114857,-117289,5960
C00097=86079,-4841,64387,114570,-116159,5385
C00098=86382,-2402,69637,114376,-115015,4791
C00099=86589,292,75148,114281,-113852,4166
C00100=86819,3205,81017,114195,-112618,3482
C00101=86638,13795,99586,114948,-109048,1853
//INST
///DATE 2023/04/14 17:43
///ATTR SC,RW
///GROUP1 RB1
NOP
MOVJ C00000 VJ=5.0
TIMER T=1.00
MOVJ C00001 VJ=1.0
TIMER T=0.10
MOVL C00002 V=240.0
MOVL C00003 V=240.0
MOVL C00004 V=240.0
MOVL C00005 V=240.0
MOVL C00006 V=240.0
MOVL C00007 V=240.0
MOVL C00008 V=240.0
MOVL C00009 V=240.0
MOVL C00010 V=240.0
MOVL C00011 V=240.0
MOVL C00012 V=240.0
MOVL C00013 V=240.0
MOVL C00014 V=240.0
MOVL C00015 V=240.0
MOVL C00016 V=240.0
MOVL C00017 V=240.0
MOVL C00018 V=240.0
MOVL C00019 V=240.0
MOVL C00020 V=240.0
MOVL C00021 V=240.0
MOVL C00022 V=240.0
MOVL C00023 V=240.0
MOVL C00024 V=240.0
MOVL C00025 V=240.0
MOVL C00026 V=240.0
MOVL C00027 V=240.0
MOVL C00028 V=240.0
MOVL C00029 V=240.0
MOVL C00030 V=240.0
MOVL C00031 V=240.0
MOVL C00032 V=240.0
MOVL C00033 V=240.0
MOVL C00034 V=240.0
MOVL C00035 V=240.0
MOVL C00036 V=240.0
MOVL C00037 V=240.0
MOVL C00038 V=240.0
MOVL C00039 V=240.0
MOVL C00040 V=240.0
MOVL C00041 V=240.0
MOVL C00042 V=240.0
MOVL C00043 V=240.0
MOVL C00044 V=240.0
MOVL C00045 V=240.0
MOVL C00046 V=240.0
MOVL C00047 V=240.0
MOVL C00048 V=240.0
MOVL C00049 V=240.0
MOVL C00050 V=240.0
MOVL C00051 V=240.0
MOVL C00052 V=240.0
MOVL C00053 V=240.0
MOVL C00054 V=240.0
MOVL C00055 V=240.0
MOVL C00056 V=240.0
MOVL C00057 V=240.0
MOVL C00058 V=240.0
MOVL C00059 V=240.0
MOVL C00060 V=240.0
MOVL C00061 V=240.0
MOVL C00062 V=240.0
MOVL C00063 V=240.0
MOVL C00064 V=240.0
MOVL C00065 V=240.0
MOVL C00066 V=240.0
MOVL C00067 V=240.0
MOVL C00068 V=240.0
MOVL C00069 V=240.0
MOVL C00070 V=240.0
MOVL C00071 V=240.0
MOVL C00072 V=240.0
MOVL C00073 V=240.0
MOVL C00074 V=240.0
MOVL C00075 V=240.0
MOVL C00076 V=240.0
MOVL C00077 V=240.0
MOVL C00078 V=240.0
MOVL C00079 V=240.0
MOVL C00080 V=240.0
MOVL C00081 V=240.0
MOVL C00082 V=240.0
MOVL C00083 V=240.0
MOVL C00084 V=240.0
MOVL C00085 V=240.0
MOVL C00086 V=240.0
MOVL C00087 V=240.0
MOVL C00088 V=240.0
MOVL C00089 V=240.0
MOVL C00090 V=240.0
MOVL C00091 V=240.0
MOVL C00092 V=240.0
MOVL C00093 V=240.0
MOVL C00094 V=240.0
MOVL C00095 V=240.0
MOVL C00096 V=240.0
MOVL C00097 V=240.0
MOVL C00098 V=240.0
MOVL C00099 V=240.0
MOVL C00100 V=240.0
MOVL C00101 V=240.0
END
