/JOB
//NAME AAA
//POS
///NPOS 55,0,0,0,0,0
///TOOL 11
///POSTYPE PULSE
///PULSE
C00000=-69133,-22118,-32759,-10171,-64667,78149
C00001=-69133,-22118,-32759,-10171,-64667,78149
C00002=-69732,-31898,-44628,-20648,-70020,74020
C00003=-69254,-32947,-45932,-21354,-70885,72929
C00004=-68706,-33859,-47079,-22043,-71800,71800
C00005=-68126,-34704,-48142,-22784,-72731,70667
C00006=-67550,-35542,-49186,-23636,-73651,69569
C00007=-66930,-36353,-50179,-24532,-74567,68472
C00008=-66251,-37142,-51123,-25461,-75475,67377
C00009=-65500,-37918,-52020,-26412,-76369,66280
C00010=-64675,-38715,-52894,-27397,-77234,65191
C00011=-63767,-39567,-53767,-28423,-78057,64111
C00012=-62756,-40500,-54650,-29490,-78829,63036
C00013=-61613,-41513,-55529,-30581,-79549,61955
C00014=-60298,-42579,-56366,-31670,-80219,60854
C00015=-58768,-43647,-57111,-32726,-80849,59718
C00016=-56973,-44665,-57711,-33730,-81450,58530
C00017=-54840,-45591,-58118,-34676,-82030,57265
C00018=-52281,-46369,-58273,-35554,-82592,55903
C00019=-49150,-46922,-58084,-36350,-83138,54409
C00020=-45126,-47099,-57366,-37034,-83683,52696
C00021=-39494,-46556,-55696,-37510,-84242,50592
C00022=-33642,-45251,-53333,-37441,-84654,48707
C00023=-28419,-43456,-50758,-36954,-84998,47207
C00024=-23883,-41388,-48165,-36209,-85364,46015
C00025=-19743,-39176,-45580,-35289,-85757,45005
C00026=-15857,-36888,-43017,-34222,-86176,44122
C00027=-12152,-34561,-40487,-33028,-86621,43332
C00028=-8573,-32180,-37977,-31716,-87108,42613
C00029=-5086,-29732,-35479,-30296,-87651,41947
C00030=-1671,-27207,-32991,-28781,-88260,41322
C00031=1683,-24613,-30523,-27187,-88936,40731
C00032=4994,-21952,-28081,-25521,-89679,40168
C00033=8254,-19246,-25691,-23806,-90480,39631
C00034=11485,-16479,-23347,-22044,-91343,39112
C00035=14686,-13645,-21055,-20252,-92270,38608
C00036=17846,-10741,-18822,-18452,-93263,38115
C00037=20959,-7751,-16648,-16661,-94327,37628
C00038=24015,-4662,-14530,-14900,-95465,37143
C00039=27017,-1442,-12456,-13185,-96687,36652
C00040=29942,1916,-10427,-11543,-97996,36152
C00041=32789,5453,-8420,-9992,-99406,35634
C00042=35549,9207,-6419,-8554,-100930,35089
C00043=38204,13194,-4417,-7259,-102574,34510
C00044=40742,17426,-2413,-6129,-104336,33887
C00045=43152,21869,-430,-5190,-106191,33216
C00046=45430,26489,1503,-4455,-108113,32492
C00047=47577,31268,3369,-3943,-110082,31708
C00048=49579,36223,5173,-3685,-112105,30851
C00049=51423,41384,6921,-3721,-114190,29904
C00050=53102,46705,8571,-4085,-116302,28854
C00051=54633,52118,10066,-4795,-118389,27694
C00052=56012,57595,11374,-5876,-120428,26413
C00053=57296,62885,12365,-7276,-122246,25048
C00054=62623,87076,14993,-17825,-128664,17840
//INST
///DATE 2023/04/12 16:53
///ATTR SC,RW
///GROUP1 RB1
NOP
MOVJ C00000 VJ=5.0
TIMER T=1.00
MOVJ C00001 VJ=1.0
TIMER T=0.10
MOVL C00002 V=400.0
MOVL C00003 V=400.0
MOVL C00004 V=400.0
MOVL C00005 V=400.0
MOVL C00006 V=400.0
MOVL C00007 V=400.0
MOVL C00008 V=400.0
MOVL C00009 V=400.0
MOVL C00010 V=400.0
MOVL C00011 V=400.0
MOVL C00012 V=400.0
MOVL C00013 V=400.0
MOVL C00014 V=400.0
MOVL C00015 V=400.0
MOVL C00016 V=400.0
MOVL C00017 V=400.0
MOVL C00018 V=400.0
MOVL C00019 V=400.0
MOVL C00020 V=400.0
MOVL C00021 V=400.0
MOVL C00022 V=400.0
MOVL C00023 V=400.0
MOVL C00024 V=400.0
MOVL C00025 V=400.0
MOVL C00026 V=400.0
MOVL C00027 V=400.0
MOVL C00028 V=400.0
MOVL C00029 V=400.0
MOVL C00030 V=400.0
MOVL C00031 V=400.0
MOVL C00032 V=400.0
MOVL C00033 V=400.0
MOVL C00034 V=400.0
MOVL C00035 V=400.0
MOVL C00036 V=400.0
MOVL C00037 V=400.0
MOVL C00038 V=400.0
MOVL C00039 V=400.0
MOVL C00040 V=400.0
MOVL C00041 V=400.0
MOVL C00042 V=400.0
MOVL C00043 V=400.0
MOVL C00044 V=400.0
MOVL C00045 V=400.0
MOVL C00046 V=400.0
MOVL C00047 V=400.0
MOVL C00048 V=400.0
MOVL C00049 V=400.0
MOVL C00050 V=400.0
MOVL C00051 V=400.0
MOVL C00052 V=400.0
MOVL C00053 V=400.0
MOVL C00054 V=400.0
END
