/JOB
//NAME AAA
//POS
///NPOS 47,0,0,0,0,0
///TOOL 11
///POSTYPE PULSE
///PULSE
C00000=-98361,-122137,-98503,-126039,-122826,-486
C00001=-98361,-122137,-98503,-126039,-122826,-486
C00002=-94177,-108397,-86129,-123176,-119306,537
C00003=-93688,-103590,-80364,-121821,-117593,1007
C00004=-94258,-99630,-74102,-120091,-115634,1590
C00005=-95633,-96311,-67187,-117891,-113367,2293
C00006=-97483,-93196,-59132,-115076,-110631,3135
C00007=-99108,-89451,-49154,-111516,-107147,4135
C00008=-99081,-86471,-43017,-109555,-104999,4684
C00009=-98415,-83674,-38424,-108310,-103345,5037
C00010=-97314,-80905,-34969,-107667,-102140,5247
C00011=-95938,-78056,-32198,-107466,-101211,5357
C00012=-94267,-74974,-29941,-107717,-100546,5374
C00013=-92268,-71538,-28100,-108465,-100138,5292
C00014=-89823,-67565,-26638,-109839,-100041,5090
C00015=-86747,-62825,-25532,-112034,-100350,4734
C00016=-82861,-57164,-24749,-115231,-101193,4188
C00017=-78208,-50748,-24118,-119351,-102599,3465
C00018=-73024,-43911,-23299,-124083,-104428,2630
C00019=-67617,-36956,-21947,-129085,-106435,1752
C00020=-62535,-30381,-19891,-133841,-108259,939
C00021=-58748,-25206,-17495,-137442,-109447,355
C00022=-56312,-21471,-15170,-139816,-110021,-2
C00023=-54867,-18761,-13016,-141275,-110174,-189
C00024=-54121,-16715,-10969,-142079,-110024,-254
C00025=-53955,-15165,-8964,-142330,-109616,-212
C00026=-54335,-14032,-6934,-142041,-108947,-64
C00027=-55302,-13303,-4783,-141145,-107972,205
C00028=-56971,-13028,-2375,-139481,-106599,628
C00029=-59498,-13315,497,-136797,-104691,1253
C00030=-62858,-14236,4011,-132965,-102204,2100
C00031=-66614,-15582,8223,-128270,-99341,3107
C00032=-70206,-16925,13132,-123188,-96397,4180
C00033=-73227,-17828,18696,-118120,-93610,5244
C00034=-75335,-17909,24488,-113659,-91280,6184
C00035=-76438,-17164,29557,-110488,-89672,6865
C00036=-76890,-15954,33604,-108508,-88641,7306
C00037=-76978,-14485,36835,-107397,-87989,7575
C00038=-76839,-12822,39460,-106946,-87589,7715
C00039=-76519,-10965,41593,-107084,-87387,7745
C00040=-76009,-8871,43286,-107825,-87363,7665
C00041=-75244,-6442,44541,-109285,-87539,7458
C00042=-74081,-3520,45307,-111692,-87978,7087
C00043=-72274,105,45531,-115362,-88790,6496
C00044=-69662,4417,45335,-120274,-90022,5687
C00045=-66345,9197,45194,-125922,-91546,4751
C00046=-49295,27912,47519,-150891,-96729,198
//INST
///DATE 2023/04/13 12:01
///ATTR SC,RW
///GROUP1 RB1
NOP
MOVJ C00000 VJ=5.0
TIMER T=1.00
MOVJ C00001 VJ=1.0
TIMER T=0.10
MOVL C00002 V=240.0
MOVL C00003 V=240.0
MOVL C00004 V=240.0
MOVL C00005 V=240.0
MOVL C00006 V=240.0
MOVL C00007 V=240.0
MOVL C00008 V=240.0
MOVL C00009 V=240.0
MOVL C00010 V=240.0
MOVL C00011 V=240.0
MOVL C00012 V=240.0
MOVL C00013 V=240.0
MOVL C00014 V=240.0
MOVL C00015 V=240.0
MOVL C00016 V=240.0
MOVL C00017 V=240.0
MOVL C00018 V=240.0
MOVL C00019 V=240.0
MOVL C00020 V=240.0
MOVL C00021 V=240.0
MOVL C00022 V=240.0
MOVL C00023 V=240.0
MOVL C00024 V=240.0
MOVL C00025 V=240.0
MOVL C00026 V=240.0
MOVL C00027 V=240.0
MOVL C00028 V=240.0
MOVL C00029 V=240.0
MOVL C00030 V=240.0
MOVL C00031 V=240.0
MOVL C00032 V=240.0
MOVL C00033 V=240.0
MOVL C00034 V=240.0
MOVL C00035 V=240.0
MOVL C00036 V=240.0
MOVL C00037 V=240.0
MOVL C00038 V=240.0
MOVL C00039 V=240.0
MOVL C00040 V=240.0
MOVL C00041 V=240.0
MOVL C00042 V=240.0
MOVL C00043 V=240.0
MOVL C00044 V=240.0
MOVL C00045 V=240.0
MOVL C00046 V=240.0
END
