/JOB
//NAME AAA
//POS
///NPOS 102,0,0,0,0,0
///TOOL 11
///POSTYPE PULSE
///PULSE
C00000=64887,-87344,-36563,-34859,-113264,-14930
C00001=64887,-87344,-36563,-34859,-113264,-14930
C00002=62422,-88184,-38332,-33688,-114298,-15027
C00003=61608,-88363,-38915,-33273,-114663,-15050
C00004=60818,-88449,-39484,-32849,-115046,-15065
C00005=60057,-88440,-40039,-32413,-115448,-15072
C00006=59327,-88339,-40580,-31964,-115865,-15071
C00007=58631,-88145,-41109,-31500,-116295,-15061
C00008=57972,-87860,-41627,-31020,-116738,-15041
C00009=57353,-87486,-42133,-30522,-117190,-15012
C00010=56774,-87023,-42630,-30004,-117651,-14973
C00011=56239,-86474,-43119,-29465,-118119,-14923
C00012=55748,-85842,-43599,-28904,-118593,-14864
C00013=55303,-85128,-44073,-28320,-119070,-14794
C00014=54904,-84338,-44542,-27713,-119549,-14714
C00015=54551,-83473,-45007,-27080,-120028,-14624
C00016=54243,-82539,-45469,-26423,-120507,-14525
C00017=53980,-81540,-45929,-25740,-120982,-14416
C00018=53760,-80483,-46390,-25031,-121453,-14298
C00019=53581,-79373,-46852,-24298,-121917,-14172
C00020=53441,-78218,-47318,-23539,-122372,-14039
C00021=53335,-77023,-47787,-22756,-122817,-13898
C00022=53261,-75798,-48262,-21950,-123248,-13751
C00023=53215,-74550,-48743,-21121,-123664,-13599
C00024=53192,-73288,-49231,-20271,-124063,-13442
C00025=53188,-72020,-49727,-19403,-124441,-13282
C00026=53197,-70755,-50231,-18518,-124796,-13120
C00027=53213,-69503,-50744,-17619,-125127,-12956
C00028=53232,-68271,-51264,-16707,-125430,-12792
C00029=53247,-67069,-51791,-15788,-125703,-12629
C00030=53252,-65905,-52325,-14862,-125944,-12467
C00031=53241,-64787,-52864,-13935,-126152,-12309
C00032=53209,-63723,-53406,-13009,-126323,-12155
C00033=53148,-62721,-53949,-12089,-126457,-12007
C00034=53053,-61789,-54492,-11177,-126552,-11865
C00035=52917,-60933,-55031,-10279,-126607,-11732
C00036=52734,-60163,-55565,-9398,-126620,-11607
C00037=52497,-59485,-56090,-8538,-126591,-11493
C00038=52199,-58908,-56605,-7704,-126518,-11391
C00039=51834,-58439,-57106,-6899,-126401,-11302
C00040=51395,-58089,-57591,-6130,-126238,-11226
C00041=50874,-57866,-58059,-5399,-126028,-11167
C00042=50264,-57780,-58507,-4713,-125770,-11125
C00043=49555,-57844,-58935,-4076,-125463,-11102
C00044=48741,-58069,-59342,-3495,-125104,-11099
C00045=47813,-58468,-59730,-2974,-124693,-11118
C00046=46760,-59054,-60100,-2520,-124226,-11161
C00047=45575,-59843,-60455,-2140,-123703,-11230
C00048=44246,-60850,-60801,-1840,-123120,-11327
C00049=42763,-62088,-61146,-1626,-122475,-11454
C00050=41116,-63574,-61498,-1505,-121768,-11612
C00051=39294,-65318,-61870,-1481,-120999,-11805
C00052=37287,-67331,-62273,-1561,-120167,-12034
C00053=35086,-69614,-62725,-1746,-119278,-12300
C00054=32685,-72164,-63238,-2039,-118338,-12604
C00055=30084,-74962,-63829,-2438,-117357,-12947
C00056=27286,-77979,-64509,-2939,-116352,-13327
C00057=24306,-81169,-65283,-3534,-115340,-13742
C00058=21164,-84468,-66153,-4211,-114343,-14187
C00059=17893,-87803,-67111,-4954,-113384,-14656
C00060=14536,-91089,-68142,-5743,-112482,-15140
C00061=11144,-94244,-69226,-6555,-111655,-15630
C00062=7774,-97188,-70337,-7365,-110911,-16116
C00063=4487,-99849,-71447,-8147,-110254,-16585
C00064=1347,-102171,-72530,-8876,-109679,-17027
C00065=-1584,-104107,-73560,-9527,-109174,-17432
C00066=-4248,-105626,-74512,-10076,-108723,-17788
C00067=-6590,-106702,-75365,-10503,-108308,-18089
C00068=-8559,-107318,-76098,-10789,-107911,-18326
C00069=-10109,-107457,-76690,-10914,-107516,-18492
C00070=-11201,-107107,-77126,-10863,-107110,-18583
C00071=-11804,-106258,-77388,-10622,-106690,-18594
C00072=-11901,-104902,-77465,-10178,-106255,-18523
C00073=-11487,-103035,-77353,-9520,-105816,-18370
C00074=-10571,-100657,-77050,-8644,-105391,-18135
C00075=-9177,-97771,-76566,-7545,-105001,-17823
C00076=-7340,-94384,-75915,-6226,-104674,-17436
C00077=-5106,-90510,-75124,-4692,-104438,-16983
C00078=-2532,-86176,-74226,-2956,-104315,-16472
C00079=311,-81427,-73264,-1041,-104325,-15914
C00080=3337,-76338,-72293,1020,-104472,-15322
C00081=6448,-71014,-71372,3180,-104747,-14715
C00082=9539,-65587,-70557,5384,-105122,-14112
C00083=12505,-60206,-69892,7571,-105557,-13529
C00084=15257,-55013,-69401,9684,-106003,-12985
C00085=17720,-50133,-69083,11670,-106412,-12491
C00086=19845,-45656,-68917,13488,-106746,-12055
C00087=21600,-41643,-68869,15110,-106974,-11682
C00088=22965,-38134,-68894,16517,-107080,-11374
C00089=23925,-35156,-68952,17698,-107052,-11132
C00090=24466,-32736,-69004,18641,-106886,-10957
C00091=24571,-30909,-69018,19334,-106579,-10852
C00092=24222,-29714,-68976,19761,-106130,-10818
C00093=23411,-29181,-68872,19904,-105540,-10858
C00094=22135,-29326,-68718,19748,-104808,-10973
C00095=20400,-30146,-68544,19279,-103935,-11166
C00096=18209,-31622,-68390,18486,-102918,-11439
C00097=15562,-33725,-68311,17362,-101757,-11791
C00098=12464,-36403,-68365,15906,-100462,-12226
C00099=8933,-39576,-68610,14134,-99053,-12740
C00100=5018,-43110,-69090,12083,-97570,-13324
C00101=-7576,-54644,-72006,5199,-93082,-15047
//INST
///DATE 2023/04/18 14:46
///ATTR SC,RW
///GROUP1 RB1
NOP
MOVJ C00000 VJ=5.0
TIMER T=1.00
MOVJ C00001 VJ=1.0
TIMER T=0.10
MOVL C00002 V=580.0
MOVL C00003 V=580.0
MOVL C00004 V=580.0
MOVL C00005 V=580.0
MOVL C00006 V=580.0
MOVL C00007 V=580.0
MOVL C00008 V=580.0
MOVL C00009 V=580.0
MOVL C00010 V=580.0
MOVL C00011 V=580.0
MOVL C00012 V=580.0
MOVL C00013 V=580.0
MOVL C00014 V=580.0
MOVL C00015 V=580.0
MOVL C00016 V=580.0
MOVL C00017 V=580.0
MOVL C00018 V=580.0
MOVL C00019 V=580.0
MOVL C00020 V=580.0
MOVL C00021 V=580.0
MOVL C00022 V=580.0
MOVL C00023 V=580.0
MOVL C00024 V=580.0
MOVL C00025 V=580.0
MOVL C00026 V=580.0
MOVL C00027 V=580.0
MOVL C00028 V=580.0
MOVL C00029 V=580.0
MOVL C00030 V=580.0
MOVL C00031 V=580.0
MOVL C00032 V=580.0
MOVL C00033 V=580.0
MOVL C00034 V=580.0
MOVL C00035 V=580.0
MOVL C00036 V=580.0
MOVL C00037 V=580.0
MOVL C00038 V=580.0
MOVL C00039 V=580.0
MOVL C00040 V=580.0
MOVL C00041 V=580.0
MOVL C00042 V=580.0
MOVL C00043 V=580.0
MOVL C00044 V=580.0
MOVL C00045 V=580.0
MOVL C00046 V=580.0
MOVL C00047 V=580.0
MOVL C00048 V=580.0
MOVL C00049 V=580.0
MOVL C00050 V=580.0
MOVL C00051 V=580.0
MOVL C00052 V=580.0
MOVL C00053 V=580.0
MOVL C00054 V=580.0
MOVL C00055 V=580.0
MOVL C00056 V=580.0
MOVL C00057 V=580.0
MOVL C00058 V=580.0
MOVL C00059 V=580.0
MOVL C00060 V=580.0
MOVL C00061 V=580.0
MOVL C00062 V=580.0
MOVL C00063 V=580.0
MOVL C00064 V=580.0
MOVL C00065 V=580.0
MOVL C00066 V=580.0
MOVL C00067 V=580.0
MOVL C00068 V=580.0
MOVL C00069 V=580.0
MOVL C00070 V=580.0
MOVL C00071 V=580.0
MOVL C00072 V=580.0
MOVL C00073 V=580.0
MOVL C00074 V=580.0
MOVL C00075 V=580.0
MOVL C00076 V=580.0
MOVL C00077 V=580.0
MOVL C00078 V=580.0
MOVL C00079 V=580.0
MOVL C00080 V=580.0
MOVL C00081 V=580.0
MOVL C00082 V=580.0
MOVL C00083 V=580.0
MOVL C00084 V=580.0
MOVL C00085 V=580.0
MOVL C00086 V=580.0
MOVL C00087 V=580.0
MOVL C00088 V=580.0
MOVL C00089 V=580.0
MOVL C00090 V=580.0
MOVL C00091 V=580.0
MOVL C00092 V=580.0
MOVL C00093 V=580.0
MOVL C00094 V=580.0
MOVL C00095 V=580.0
MOVL C00096 V=580.0
MOVL C00097 V=580.0
MOVL C00098 V=580.0
MOVL C00099 V=580.0
MOVL C00100 V=580.0
MOVL C00101 V=580.0
END
