/JOB
//NAME AAA
//POS
///NPOS 26,0,0,0,0,0
///TOOL 11
///POSTYPE PULSE
///PULSE
C00000=44993,-7500,-17186,-30425,-85476,21571
C00001=44993,-7500,-17186,-30425,-85476,21571
C00002=42088,-9814,-17875,-23858,-86456,22134
C00003=40798,-13048,-19417,-20099,-86071,22682
C00004=39610,-15427,-20143,-16187,-86495,23106
C00005=38433,-18508,-21135,-12163,-86892,23569
C00006=37093,-21584,-21883,-8106,-87684,23979
C00007=35385,-25199,-22666,-4077,-88604,24377
C00008=33114,-29952,-23692,18,-89379,24839
C00009=29727,-36787,-25181,4267,-89586,25461
C00010=22581,-48099,-27219,8582,-88110,26434
C00011=14197,-56536,-28160,8681,-85066,26919
C00012=4175,-62687,-28533,5843,-81026,27110
C00013=-6237,-65730,-28244,565,-77233,26763
C00014=-16344,-65813,-27152,-5847,-74373,25967
C00015=-25738,-63253,-25197,-12774,-72686,24773
C00016=-33892,-57990,-22010,-19360,-72438,23313
C00017=-40717,-50373,-17562,-25291,-73487,21723
C00018=-46311,-40911,-12054,-30572,-75510,20117
C00019=-50916,-30129,-5842,-35499,-78134,18546
C00020=-54791,-18496,608,-40505,-81005,17023
C00021=-58105,-6331,6851,-45979,-83839,15544
C00022=-60798,6253,12732,-51955,-86457,14126
C00023=-62926,18858,17655,-58738,-88548,12748
C00024=-64420,31204,21180,-66457,-89853,11388
C00025=-65078,49489,25648,-78396,-90699,9420
//INST
///DATE 2023/05/04 11:46
///ATTR SC,RW
///GROUP1 RB1
NOP
MOVJ C00000 VJ=5.0
TIMER T=1.00
MOVJ C00001 VJ=1.0
TIMER T=0.10
MOVL C00002 V=300.0
MOVL C00003 V=300.0
MOVL C00004 V=300.0
MOVL C00005 V=300.0
MOVL C00006 V=300.0
MOVL C00007 V=300.0
MOVL C00008 V=300.0
MOVL C00009 V=300.0
MOVL C00010 V=300.0
MOVL C00011 V=300.0
MOVL C00012 V=300.0
MOVL C00013 V=300.0
MOVL C00014 V=300.0
MOVL C00015 V=300.0
MOVL C00016 V=300.0
MOVL C00017 V=300.0
MOVL C00018 V=300.0
MOVL C00019 V=300.0
MOVL C00020 V=300.0
MOVL C00021 V=300.0
MOVL C00022 V=300.0
MOVL C00023 V=300.0
MOVL C00024 V=300.0
MOVL C00025 V=300.0
END
