/JOB
//NAME AAA
//POS
///NPOS 102,0,0,0,0,0
///TOOL 11
///POSTYPE PULSE
///PULSE
C00000=44268,10554,-14542,-20610,-77571,39730
C00001=44268,10554,-14542,-20610,-77571,39730
C00002=41286,12115,-10846,-13832,-80999,38724
C00003=40883,11673,-10879,-12793,-81091,38746
C00004=40516,10906,-11168,-11713,-81025,38833
C00005=40178,10027,-11538,-10599,-80928,38938
C00006=39863,9130,-11910,-9460,-80858,39038
C00007=39567,8246,-12262,-8303,-80831,39129
C00008=39287,7370,-12598,-7134,-80845,39210
C00009=39021,6490,-12928,-5958,-80892,39284
C00010=38769,5594,-13265,-4778,-80963,39355
C00011=38526,4676,-13612,-3598,-81055,39424
C00012=38292,3736,-13970,-2423,-81166,39491
C00013=38062,2779,-14334,-1259,-81297,39555
C00014=37832,1810,-14701,-112,-81450,39615
C00015=37599,833,-15066,1012,-81624,39671
C00016=37359,-151,-15426,2109,-81820,39723
C00017=37110,-1142,-15782,3174,-82033,39771
C00018=36850,-2144,-16137,4206,-82260,39817
C00019=36578,-3165,-16493,5204,-82494,39862
C00020=36294,-4210,-16856,6170,-82730,39908
C00021=35999,-5286,-17229,7104,-82963,39956
C00022=35692,-6399,-17618,8008,-83186,40009
C00023=35374,-7553,-18024,8883,-83397,40067
C00024=35044,-8750,-18449,9732,-83591,40131
C00025=34703,-9992,-18892,10554,-83766,40201
C00026=34350,-11277,-19353,11350,-83921,40279
C00027=33983,-12606,-19829,12120,-84054,40363
C00028=33602,-13975,-20320,12862,-84165,40453
C00029=33205,-15383,-20821,13577,-84254,40550
C00030=32791,-16828,-21330,14264,-84319,40653
C00031=32357,-18308,-21846,14921,-84359,40763
C00032=31903,-19821,-22366,15547,-84375,40879
C00033=31427,-21364,-22888,16142,-84364,41000
C00034=30926,-22935,-23409,16703,-84326,41128
C00035=30398,-24532,-23927,17228,-84261,41262
C00036=29841,-26151,-24438,17715,-84168,41401
C00037=29252,-27789,-24940,18161,-84045,41547
C00038=28627,-29443,-25429,18563,-83894,41697
C00039=27964,-31107,-25902,18917,-83713,41854
C00040=27259,-32779,-26357,19221,-83502,42015
C00041=26508,-34455,-26790,19469,-83259,42182
C00042=25708,-36131,-27200,19657,-82984,42355
C00043=24854,-37807,-27585,19783,-82674,42534
C00044=23942,-39478,-27944,19839,-82328,42721
C00045=22968,-41144,-28279,19822,-81944,42914
C00046=21927,-42803,-28587,19725,-81518,43117
C00047=20812,-44451,-28869,19541,-81050,43329
C00048=19617,-46086,-29125,19261,-80538,43552
C00049=18335,-47702,-29351,18877,-79981,43787
C00050=16958,-49291,-29546,18377,-79380,44033
C00051=15478,-50844,-29705,17749,-78736,44292
C00052=13886,-52349,-29825,16982,-78054,44564
C00053=12174,-53793,-29900,16061,-77338,44848
C00054=10334,-55162,-29925,14975,-76595,45145
C00055=8360,-56441,-29896,13710,-75832,45454
C00056=6245,-57614,-29809,12254,-75059,45775
C00057=3986,-58665,-29659,10598,-74286,46107
C00058=1581,-59580,-29447,8731,-73525,46449
C00059=-971,-60343,-29170,6648,-72791,46799
C00060=-3664,-60939,-28826,4346,-72098,47155
C00061=-6491,-61351,-28415,1827,-71463,47512
C00062=-9439,-61561,-27934,-901,-70907,47864
C00063=-12490,-61552,-27379,-3821,-70450,48203
C00064=-15619,-61304,-26742,-6908,-70110,48521
C00065=-18795,-60800,-26017,-10128,-69907,48804
C00066=-21985,-60022,-25194,-13438,-69855,49042
C00067=-25151,-58960,-24261,-16791,-69963,49221
C00068=-28256,-57603,-23208,-20139,-70235,49332
C00069=-31265,-55952,-22026,-23436,-70667,49366
C00070=-34150,-54009,-20707,-26641,-71250,49320
C00071=-36887,-51783,-19246,-29725,-71972,49191
C00072=-39459,-49290,-17641,-32665,-72814,48982
C00073=-41857,-46547,-15893,-35451,-73760,48698
C00074=-44077,-43575,-14008,-38081,-74790,48346
C00075=-46119,-40399,-11993,-40558,-75888,47931
C00076=-47989,-37042,-9860,-42894,-77035,47464
C00077=-49695,-33530,-7624,-45106,-78216,46953
C00078=-51250,-29889,-5300,-47213,-79418,46405
C00079=-52665,-26142,-2909,-49238,-80628,45828
C00080=-53952,-22312,-469,-51202,-81836,45230
C00081=-55122,-18418,2003,-53124,-83032,44615
C00082=-56183,-14478,4491,-55018,-84210,43990
C00083=-57141,-10505,6986,-56892,-85363,43356
C00084=-58001,-6511,9484,-58749,-86486,42716
C00085=-58764,-2505,11983,-60588,-87573,42072
C00086=-59437,1504,14482,-62408,-88621,41426
C00087=-60023,5507,16976,-64216,-89626,40779
C00088=-60533,9495,19455,-66021,-90585,40133
C00089=-60973,13459,21904,-67838,-91494,39490
C00090=-61351,17389,24306,-69680,-92351,38853
C00091=-61671,21277,26653,-71550,-93153,38222
C00092=-61934,25116,28943,-73443,-93895,37598
C00093=-62140,28904,31185,-75349,-94577,36982
C00094=-62292,32641,33384,-77262,-95200,36372
C00095=-62393,36326,35538,-79188,-95763,35768
C00096=-62447,39959,37648,-81127,-96268,35171
C00097=-62451,43542,39743,-83049,-96713,34577
C00098=-62403,47084,41891,-84894,-97092,33985
C00099=-62311,50598,44099,-86676,-97413,33390
C00100=-62195,54055,46158,-88581,-97691,32801
C00101=-60841,76398,62463,-98973,-97730,28836
//INST
///DATE 2023/04/17 10:35
///ATTR SC,RW
///GROUP1 RB1
NOP
MOVJ C00000 VJ=5.0
TIMER T=1.00
MOVJ C00001 VJ=1.0
TIMER T=0.10
MOVL C00002 V=240.0
MOVL C00003 V=240.0
MOVL C00004 V=240.0
MOVL C00005 V=240.0
MOVL C00006 V=240.0
MOVL C00007 V=240.0
MOVL C00008 V=240.0
MOVL C00009 V=240.0
MOVL C00010 V=240.0
MOVL C00011 V=240.0
MOVL C00012 V=240.0
MOVL C00013 V=240.0
MOVL C00014 V=240.0
MOVL C00015 V=240.0
MOVL C00016 V=240.0
MOVL C00017 V=240.0
MOVL C00018 V=240.0
MOVL C00019 V=240.0
MOVL C00020 V=240.0
MOVL C00021 V=240.0
MOVL C00022 V=240.0
MOVL C00023 V=240.0
MOVL C00024 V=240.0
MOVL C00025 V=240.0
MOVL C00026 V=240.0
MOVL C00027 V=240.0
MOVL C00028 V=240.0
MOVL C00029 V=240.0
MOVL C00030 V=240.0
MOVL C00031 V=240.0
MOVL C00032 V=240.0
MOVL C00033 V=240.0
MOVL C00034 V=240.0
MOVL C00035 V=240.0
MOVL C00036 V=240.0
MOVL C00037 V=240.0
MOVL C00038 V=240.0
MOVL C00039 V=240.0
MOVL C00040 V=240.0
MOVL C00041 V=240.0
MOVL C00042 V=240.0
MOVL C00043 V=240.0
MOVL C00044 V=240.0
MOVL C00045 V=240.0
MOVL C00046 V=240.0
MOVL C00047 V=240.0
MOVL C00048 V=240.0
MOVL C00049 V=240.0
MOVL C00050 V=240.0
MOVL C00051 V=240.0
MOVL C00052 V=240.0
MOVL C00053 V=240.0
MOVL C00054 V=240.0
MOVL C00055 V=240.0
MOVL C00056 V=240.0
MOVL C00057 V=240.0
MOVL C00058 V=240.0
MOVL C00059 V=240.0
MOVL C00060 V=240.0
MOVL C00061 V=240.0
MOVL C00062 V=240.0
MOVL C00063 V=240.0
MOVL C00064 V=240.0
MOVL C00065 V=240.0
MOVL C00066 V=240.0
MOVL C00067 V=240.0
MOVL C00068 V=240.0
MOVL C00069 V=240.0
MOVL C00070 V=240.0
MOVL C00071 V=240.0
MOVL C00072 V=240.0
MOVL C00073 V=240.0
MOVL C00074 V=240.0
MOVL C00075 V=240.0
MOVL C00076 V=240.0
MOVL C00077 V=240.0
MOVL C00078 V=240.0
MOVL C00079 V=240.0
MOVL C00080 V=240.0
MOVL C00081 V=240.0
MOVL C00082 V=240.0
MOVL C00083 V=240.0
MOVL C00084 V=240.0
MOVL C00085 V=240.0
MOVL C00086 V=240.0
MOVL C00087 V=240.0
MOVL C00088 V=240.0
MOVL C00089 V=240.0
MOVL C00090 V=240.0
MOVL C00091 V=240.0
MOVL C00092 V=240.0
MOVL C00093 V=240.0
MOVL C00094 V=240.0
MOVL C00095 V=240.0
MOVL C00096 V=240.0
MOVL C00097 V=240.0
MOVL C00098 V=240.0
MOVL C00099 V=240.0
MOVL C00100 V=240.0
MOVL C00101 V=240.0
END
