/JOB
//NAME AAA
//POS
///NPOS 63,0,0,0,0,0
///TOOL 11
///POSTYPE PULSE
///PULSE
C00000=-74168,-25692,-38449,-17920,-61974,82081
C00001=-74168,-25692,-38449,-17920,-61974,82081
C00002=-70047,-30914,-43290,-19811,-69067,74951
C00003=-70047,-30914,-43290,-19811,-69067,74951
C00004=-68333,-34213,-47577,-22395,-72420,71144
C00005=-66250,-37466,-51418,-25713,-75456,67225
C00006=-66250,-37466,-51418,-25713,-75456,67225
C00007=-64910,-38581,-52709,-27119,-76950,65519
C00008=-63511,-39599,-53854,-28687,-78352,63794
C00009=-63511,-39599,-53854,-28687,-78352,63794
C00010=-62071,-41065,-55134,-30079,-79261,62418
C00011=-60579,-42434,-56270,-31561,-80094,61024
C00012=-60579,-42434,-56270,-31561,-80094,61024
C00013=-58848,-43576,-57044,-32611,-80799,59804
C00014=-57083,-44589,-57679,-33734,-81442,58574
C00015=-57083,-44589,-57679,-33734,-81442,58574
C00016=-55235,-45403,-58024,-34463,-81927,57513
C00017=-53369,-46089,-58254,-35242,-82369,56449
C00018=-53369,-46089,-58254,-35242,-82369,56449
C00019=-51751,-46473,-58242,-35669,-82689,55654
C00020=-50132,-46769,-58161,-36122,-82986,54863
C00021=-48333,-47001,-57963,-36485,-83261,54056
C00022=-48333,-47001,-57963,-36485,-83261,54056
C00023=-44508,-47072,-57170,-36976,-83745,52500
C00024=-40699,-46754,-56137,-37567,-84155,50971
C00025=-40699,-46754,-56137,-37567,-84155,50971
C00026=-37188,-46143,-54817,-37471,-84413,49841
C00027=-33706,-45270,-53356,-37424,-84659,48733
C00028=-33706,-45270,-53356,-37424,-84659,48733
C00029=-30837,-44364,-51988,-37158,-84842,47900
C00030=-27998,-43305,-50549,-36920,-85030,47085
C00031=-27998,-43305,-50549,-36920,-85030,47085
C00032=-25066,-41979,-48865,-36382,-85266,46326
C00033=-22172,-40520,-47133,-35874,-85523,45586
C00034=-22172,-40520,-47133,-35874,-85523,45586
C00035=-19483,-39050,-45418,-35185,-85784,44952
C00036=-16829,-37488,-43681,-34523,-86070,44333
C00037=-14594,-36121,-42168,-33809,-86320,43853
C00038=-14594,-36121,-42168,-33809,-86320,43853
C00039=-9844,-33065,-38875,-32103,-86926,42877
C00040=-5195,-29800,-35591,-30485,-87628,41950
C00041=-5195,-29800,-35591,-30485,-87628,41950
C00042=167,-25810,-31643,-27867,-88623,40994
C00043=5397,-21629,-27811,-25383,-89766,40107
C00044=5397,-21629,-27811,-25383,-89766,40107
C00045=11471,-16506,-23362,-21996,-91339,39104
C00046=17332,-11229,-19214,-18831,-93086,38216
C00047=17332,-11229,-19214,-18831,-93086,38216
C00048=27169,-998,-12183,-13100,-96883,36501
C00049=36156,9393,-6401,-8189,-100959,35214
C00050=36156,9393,-6401,-8189,-100959,35214
C00051=41234,18349,-2005,-5975,-104711,33718
C00052=45818,27246,1807,-4256,-108456,32418
C00053=45818,27246,1807,-4256,-108456,32418
C00054=49070,35095,4781,-3792,-111650,31009
C00055=52013,42818,7335,-3678,-114757,29689
C00056=52013,42818,7335,-3678,-114757,29689
C00057=54373,51217,9807,-4719,-118025,27851
C00058=56448,59344,11747,-6200,-121099,26040
C00059=56448,59344,11747,-6200,-121099,26040
C00060=57522,63880,12510,-7594,-122571,24771
C00061=58513,68306,13084,-9137,-123947,23504
C00062=62487,88572,15491,-18445,-129648,17409
//INST
///DATE 2023/04/04 22:29
///ATTR SC,RW
///GROUP1 RB1
NOP
MOVJ C00000 VJ=5.0
TIMER T=1.00
MOVJ C00001 VJ=1.0
TIMER T=0.10
MOVL C00002 V=200.0
MOVC C00003 V=200.0
MOVC C00004 V=200.0
MOVC C00005 V=200.0
MOVC C00006 V=200.0
MOVC C00007 V=200.0
MOVC C00008 V=200.0
MOVC C00009 V=200.0
MOVC C00010 V=200.0
MOVC C00011 V=200.0
MOVC C00012 V=200.0
MOVC C00013 V=200.0
MOVC C00014 V=200.0
MOVC C00015 V=200.0
MOVC C00016 V=200.0
MOVC C00017 V=200.0
MOVC C00018 V=200.0
MOVC C00019 V=200.0
MOVC C00020 V=200.0
MOVL C00021 V=200.0
MOVC C00022 V=200.0
MOVC C00023 V=200.0
MOVC C00024 V=200.0
MOVC C00025 V=200.0
MOVC C00026 V=200.0
MOVC C00027 V=200.0
MOVC C00028 V=200.0
MOVC C00029 V=200.0
MOVC C00030 V=200.0
MOVC C00031 V=200.0
MOVC C00032 V=200.0
MOVC C00033 V=200.0
MOVC C00034 V=200.0
MOVC C00035 V=200.0
MOVC C00036 V=200.0
MOVL C00037 V=200.0
MOVC C00038 V=200.0
MOVC C00039 V=200.0
MOVC C00040 V=200.0
MOVC C00041 V=200.0
MOVC C00042 V=200.0
MOVC C00043 V=200.0
MOVC C00044 V=200.0
MOVC C00045 V=200.0
MOVC C00046 V=200.0
MOVC C00047 V=200.0
MOVC C00048 V=200.0
MOVC C00049 V=200.0
MOVC C00050 V=200.0
MOVC C00051 V=200.0
MOVC C00052 V=200.0
MOVC C00053 V=200.0
MOVC C00054 V=200.0
MOVC C00055 V=200.0
MOVC C00056 V=200.0
MOVC C00057 V=200.0
MOVC C00058 V=200.0
MOVC C00059 V=200.0
MOVC C00060 V=200.0
MOVC C00061 V=200.0
MOVL C00062 V=200.0 PL=0
END
