/JOB
//NAME AAA
//POS
///NPOS 25,0,0,0,0,0
///TOOL 11
///POSTYPE PULSE
///PULSE
C00000=-96836,-120189,-97653,-125953,-122516,-510
C00001=-96836,-120189,-97653,-125953,-122516,-510
C00002=-93397,-103338,-80370,-121891,-117605,959
C00003=-95429,-96206,-67319,-118008,-113381,2261
C00004=-99309,-89297,-48418,-111214,-106789,4198
C00005=-98746,-84666,-39845,-108636,-103908,4943
C00006=-96670,-79354,-33122,-107366,-101475,5342
C00007=-93204,-73035,-28680,-107997,-100235,5360
C00008=-88279,-65061,-25829,-110839,-100073,4936
C00009=-80517,-53823,-24324,-117277,-101794,3830
C00010=-70351,-40520,-22817,-126599,-105382,2161
C00011=-60349,-27587,-18863,-135949,-109032,550
C00012=-55587,-20319,-14390,-140525,-110182,-101
C00013=-53850,-16014,-10283,-142377,-109982,-286
C00014=-54462,-13638,-6229,-141941,-108716,-11
C00015=-57531,-12918,-1519,-138919,-106115,767
C00016=-63836,-14532,5093,-131827,-101419,2336
C00017=-71036,-17387,14213,-121953,-95615,4413
C00018=-75790,-18125,25592,-112621,-90695,6383
C00019=-76961,-15849,34101,-108220,-88525,7366
C00020=-76868,-12729,39795,-106772,-87498,7749
C00021=-75993,-8676,43574,-107789,-87334,7676
C00022=-74030,-3296,45507,-111760,-87957,7078
C00023=-69629,4490,45356,-120339,-89977,5672
C00024=-52222,23812,44844,-147069,-95795,813
//INST
///DATE 2023/05/02 16:51
///ATTR SC,RW
///GROUP1 RB1
NOP
MOVJ C00000 VJ=5.0
TIMER T=1.00
MOVJ C00001 VJ=1.0
TIMER T=0.10
MOVL C00002 V=300.0
MOVL C00003 V=300.0
MOVL C00004 V=300.0
MOVL C00005 V=300.0
MOVL C00006 V=300.0
MOVL C00007 V=300.0
MOVL C00008 V=300.0
MOVL C00009 V=300.0
MOVL C00010 V=300.0
MOVL C00011 V=300.0
MOVL C00012 V=300.0
MOVL C00013 V=300.0
MOVL C00014 V=300.0
MOVL C00015 V=300.0
MOVL C00016 V=300.0
MOVL C00017 V=300.0
MOVL C00018 V=300.0
MOVL C00019 V=300.0
MOVL C00020 V=300.0
MOVL C00021 V=300.0
MOVL C00022 V=300.0
MOVL C00023 V=300.0
MOVL C00024 V=300.0
END
