/JOB
//NAME AAA
//POS
///NPOS 102,0,0,0,0,0
///TOOL 11
///POSTYPE PULSE
///PULSE
C00000=20266,51333,151904,-76260,-20185,43237
C00001=20266,51333,151904,-76260,-20185,43237
C00002=18867,54646,155711,-73486,-24331,43346
C00003=18526,55343,156689,-71281,-26272,43596
C00004=18392,55674,157356,-68680,-28192,43854
C00005=18413,55826,157857,-66057,-30064,44084
C00006=18553,55907,158280,-63580,-31880,44278
C00007=18789,55966,158666,-61292,-33638,44442
C00008=19108,56020,159030,-59178,-35343,44580
C00009=19505,56067,159374,-57206,-37001,44698
C00010=19976,56105,159696,-55345,-38616,44800
C00011=20517,56138,160001,-53575,-40191,44890
C00012=21121,56174,160298,-51890,-41727,44972
C00013=21782,56228,160604,-50287,-43228,45049
C00014=22491,56313,160933,-48767,-44693,45125
C00015=23240,56445,161300,-47328,-46126,45206
C00016=24025,56630,161719,-45964,-47528,45295
C00017=24845,56875,162193,-44665,-48901,45394
C00018=25698,57177,162726,-43415,-50247,45504
C00019=26588,57532,163315,-42197,-51567,45626
C00020=27518,57934,163953,-40993,-52863,45757
C00021=28493,58375,164634,-39788,-54137,45896
C00022=29516,58849,165352,-38567,-55388,46039
C00023=30591,59350,166100,-37319,-56618,46186
C00024=31720,59876,166875,-36038,-57828,46333
C00025=32903,60426,167675,-34718,-59017,46480
C00026=34140,60999,168500,-33358,-60186,46624
C00027=35430,61599,169349,-31957,-61336,46766
C00028=36773,62228,170224,-30514,-62466,46905
C00029=38165,62888,171127,-29032,-63578,47040
C00030=39605,63582,172058,-27512,-64670,47171
C00031=41091,64313,173019,-25953,-65742,47297
C00032=42621,65082,174009,-24359,-66795,47419
C00033=44191,65892,175031,-22729,-67828,47535
C00034=45800,66746,176083,-21065,-68841,47646
C00035=47444,67645,177168,-19370,-69833,47752
C00036=49120,68593,178285,-17645,-70803,47854
C00037=50824,69591,179437,-15893,-71750,47951
C00038=52552,70643,180624,-14116,-72674,48044
C00039=54300,71751,181848,-12318,-73573,48135
C00040=56064,72917,183109,-10499,-74447,48223
C00041=57841,74143,184407,-8660,-75294,48309
C00042=59629,75430,185741,-6802,-76112,48393
C00043=61425,76776,187108,-4924,-76901,48475
C00044=63227,78181,188505,-3024,-77659,48555
C00045=65034,79644,189927,-1100,-78384,48632
C00046=66844,81163,191371,851,-79076,48706
C00047=68655,82736,192831,2831,-79732,48776
C00048=70466,84365,194305,4841,-80351,48843
C00049=72274,86048,195790,6883,-80932,48907
C00050=74074,87789,197284,8956,-81473,48969
C00051=75864,89590,198789,11059,-81972,49031
C00052=77637,91455,200306,13189,-82428,49094
C00053=79389,93388,201837,15345,-82838,49161
C00054=81115,95393,203384,17524,-83200,49232
C00055=82811,97475,204949,19724,-83511,49310
C00056=84471,99636,206532,21944,-83770,49394
C00057=86093,101879,208132,24184,-83975,49487
C00058=87674,104204,209745,26446,-84123,49586
C00059=89209,106612,211366,28732,-84213,49693
C00060=90697,109101,212988,31043,-84244,49807
C00061=92134,111670,214605,33383,-84214,49925
C00062=93515,114317,216210,35751,-84125,50049
C00063=94838,117040,217795,38149,-83975,50176
C00064=96095,119838,219353,40576,-83766,50306
C00065=97283,122707,220878,43030,-83500,50439
C00066=98394,125643,222363,45508,-83178,50574
C00067=99424,128640,223800,48008,-82805,50709
C00068=100368,131691,225177,50529,-82384,50843
C00069=101222,134782,226482,53070,-81924,50972
C00070=101984,137901,227698,55631,-81432,51093
C00071=102651,141028,228807,58214,-80919,51202
C00072=103221,144144,229788,60820,-80399,51292
C00073=103695,147225,230620,63451,-79885,51358
C00074=104073,150246,231279,66108,-79396,51394
C00075=104356,153182,231742,68790,-78947,51392
C00076=104545,156003,231987,71498,-78560,51347
C00077=104642,158681,231990,74228,-78253,51250
C00078=104651,161186,231726,76975,-78048,51095
C00079=104575,163486,231172,79732,-77963,50875
C00080=104417,165553,230306,82488,-78019,50583
C00081=104180,167358,229112,85226,-78231,50213
C00082=103868,168880,227580,87925,-78608,49762
C00083=103485,170103,225710,90558,-79154,49229
C00084=103036,171021,223515,93097,-79864,48616
C00085=102525,171635,221013,95515,-80726,47925
C00086=101959,171947,218222,97791,-81726,47158
C00087=101344,171962,215153,99912,-82848,46314
C00088=100688,171673,211803,101870,-84080,45384
C00089=99995,171070,208157,103661,-85414,44358
C00090=99271,170142,204199,105282,-86835,43220
C00091=98523,168889,199927,106729,-88325,41954
C00092=97754,167325,195355,108002,-89853,40550
C00093=96972,165480,190514,109107,-91384,38996
C00094=96178,163379,185424,110061,-92884,37270
C00095=95376,161043,180088,110897,-94324,35338
C00096=94567,158505,174524,111654,-95672,33160
C00097=93753,155867,168844,112387,-96877,30723
C00098=92937,153295,163251,113156,-97890,28067
C00099=92109,150832,157752,114058,-98720,25142
C00100=91227,148243,151880,115319,-99449,21549
C00101=89398,139604,135130,117767,-101465,13614
//INST
///DATE 2023/04/17 23:14
///ATTR SC,RW
///GROUP1 RB1
NOP
MOVJ C00000 VJ=5.0
TIMER T=1.00
MOVJ C00001 VJ=1.0
TIMER T=0.10
MOVL C00002 V=580.0
MOVL C00003 V=580.0
MOVL C00004 V=580.0
MOVL C00005 V=580.0
MOVL C00006 V=580.0
MOVL C00007 V=580.0
MOVL C00008 V=580.0
MOVL C00009 V=580.0
MOVL C00010 V=580.0
MOVL C00011 V=580.0
MOVL C00012 V=580.0
MOVL C00013 V=580.0
MOVL C00014 V=580.0
MOVL C00015 V=580.0
MOVL C00016 V=580.0
MOVL C00017 V=580.0
MOVL C00018 V=580.0
MOVL C00019 V=580.0
MOVL C00020 V=580.0
MOVL C00021 V=580.0
MOVL C00022 V=580.0
MOVL C00023 V=580.0
MOVL C00024 V=580.0
MOVL C00025 V=580.0
MOVL C00026 V=580.0
MOVL C00027 V=580.0
MOVL C00028 V=580.0
MOVL C00029 V=580.0
MOVL C00030 V=580.0
MOVL C00031 V=580.0
MOVL C00032 V=580.0
MOVL C00033 V=580.0
MOVL C00034 V=580.0
MOVL C00035 V=580.0
MOVL C00036 V=580.0
MOVL C00037 V=580.0
MOVL C00038 V=580.0
MOVL C00039 V=580.0
MOVL C00040 V=580.0
MOVL C00041 V=580.0
MOVL C00042 V=580.0
MOVL C00043 V=580.0
MOVL C00044 V=580.0
MOVL C00045 V=580.0
MOVL C00046 V=580.0
MOVL C00047 V=580.0
MOVL C00048 V=580.0
MOVL C00049 V=580.0
MOVL C00050 V=580.0
MOVL C00051 V=580.0
MOVL C00052 V=580.0
MOVL C00053 V=580.0
MOVL C00054 V=580.0
MOVL C00055 V=580.0
MOVL C00056 V=580.0
MOVL C00057 V=580.0
MOVL C00058 V=580.0
MOVL C00059 V=580.0
MOVL C00060 V=580.0
MOVL C00061 V=580.0
MOVL C00062 V=580.0
MOVL C00063 V=580.0
MOVL C00064 V=580.0
MOVL C00065 V=580.0
MOVL C00066 V=580.0
MOVL C00067 V=580.0
MOVL C00068 V=580.0
MOVL C00069 V=580.0
MOVL C00070 V=580.0
MOVL C00071 V=580.0
MOVL C00072 V=580.0
MOVL C00073 V=580.0
MOVL C00074 V=580.0
MOVL C00075 V=580.0
MOVL C00076 V=580.0
MOVL C00077 V=580.0
MOVL C00078 V=580.0
MOVL C00079 V=580.0
MOVL C00080 V=580.0
MOVL C00081 V=580.0
MOVL C00082 V=580.0
MOVL C00083 V=580.0
MOVL C00084 V=580.0
MOVL C00085 V=580.0
MOVL C00086 V=580.0
MOVL C00087 V=580.0
MOVL C00088 V=580.0
MOVL C00089 V=580.0
MOVL C00090 V=580.0
MOVL C00091 V=580.0
MOVL C00092 V=580.0
MOVL C00093 V=580.0
MOVL C00094 V=580.0
MOVL C00095 V=580.0
MOVL C00096 V=580.0
MOVL C00097 V=580.0
MOVL C00098 V=580.0
MOVL C00099 V=580.0
MOVL C00100 V=580.0
MOVL C00101 V=580.0
END
