/JOB
//NAME AAA
//POS
///NPOS 68,0,0,0,0,0
///TOOL 11
///POSTYPE PULSE
///PULSE
C00000=-50166,16085,-3974,-10057,-101095,54467
C00001=-50166,16085,-3974,-10057,-101095,54467
C00002=-44622,-3397,-19917,-13616,-96922,55552
C00003=-44622,-3397,-19917,-13616,-96922,55552
C00004=-41788,-11542,-26115,-15231,-95217,55917
C00005=-38818,-19755,-32095,-16815,-93602,56233
C00006=-38453,-26612,-36825,-18455,-91339,56946
C00007=-38453,-26612,-36825,-18455,-91339,56946
C00008=-37285,-35574,-42919,-20426,-88765,57595
C00009=-36049,-44704,-49001,-22416,-86268,58234
C00010=-36049,-44704,-49001,-22416,-86268,58234
C00011=-35433,-52551,-54141,-24224,-83947,58539
C00012=-34720,-60538,-59284,-26025,-81659,58824
C00013=-33428,-67344,-63544,-27482,-79806,58316
C00014=-33428,-67344,-63544,-27482,-79806,58316
C00015=-32050,-73214,-67128,-28711,-78103,57359
C00016=-30418,-79082,-70605,-29776,-76297,56317
C00017=-30418,-79082,-70605,-29776,-76297,56317
C00018=-27561,-81948,-72056,-29883,-75015,53520
C00019=-24478,-84338,-73201,-29797,-73557,50657
C00020=-22251,-82217,-71689,-28731,-73678,48585
C00021=-20236,-80917,-70731,-27999,-73519,46808
C00022=-17810,-77210,-68311,-26727,-74075,44666
C00023=-15329,-72372,-65247,-25377,-75038,42555
C00024=-12775,-65529,-61020,-23906,-76789,40391
C00025=-10363,-57328,-56046,-22571,-79209,38369
C00026=-8185,-48070,-50527,-21499,-82247,36535
C00027=-6284,-38383,-44860,-20780,-85673,34947
C00028=-4624,-28579,-39254,-20430,-89341,33616
C00029=-3179,-19134,-34004,-20455,-93034,32618
C00030=-1966,-10779,-29517,-20817,-96429,32081
C00031=-1003,-4153,-26086,-21398,-99233,32064
C00032=-237,865,-23576,-22067,-101458,32472
C00033=405,4669,-21729,-22743,-103242,33193
C00034=982,7590,-20342,-23387,-104707,34147
C00035=1533,9817,-19299,-23973,-105918,35277
C00036=2081,11438,-18538,-24477,-106899,36533
C00037=2651,12493,-18029,-24885,-107652,37884
C00038=3258,12954,-17776,-25181,-108150,39298
C00039=3916,12737,-17815,-25352,-108334,40740
C00040=4630,11717,-18212,-25384,-108127,42164
C00041=5426,9685,-19077,-25271,-107415,43559
C00042=6328,6326,-20595,-24998,-106032,44892
C00043=7352,1349,-22965,-24563,-103823,46101
C00044=8501,-5295,-26298,-23991,-100757,47118
C00045=9771,-13292,-30505,-23330,-96998,47899
C00046=11177,-22228,-35409,-22617,-92760,48434
C00047=12752,-31767,-40834,-21865,-88212,48702
C00048=14508,-41538,-46561,-21080,-83521,48639
C00049=16408,-51043,-52276,-20287,-78891,48149
C00050=18267,-59397,-57409,-19565,-74706,47191
C00051=19956,-66246,-61692,-18948,-71121,45832
C00052=21455,-71714,-65162,-18405,-68078,44170
C00053=22810,-76073,-67961,-17874,-65454,42272
C00054=24087,-79550,-70221,-17289,-63138,40160
C00055=25319,-82217,-71978,-16605,-61099,37870
C00056=26527,-84074,-73230,-15795,-59339,35438
C00057=27701,-85050,-73931,-14873,-57902,32913
C00058=28790,-85024,-73998,-13912,-56868,30393
C00059=29743,-83849,-73336,-13015,-56315,27937
C00060=30476,-81279,-71775,-12338,-56372,25622
C00061=30868,-77031,-69120,-12091,-57212,23581
C00062=30807,-70846,-65186,-12461,-59018,21928
C00063=30256,-62754,-59992,-13506,-61868,20742
C00064=29332,-53312,-53925,-15056,-65578,19986
C00065=28237,-43222,-47485,-16857,-69815,19530
C00066=27682,-38182,-44303,-17790,-72008,19409
C00067=22042,70853,11064,-48503,-124135,8579
//INST
///DATE 2023/04/05 12:38
///ATTR SC,RW
///GROUP1 RB1
NOP
MOVJ C00000 VJ=5.0
TIMER T=1.00
MOVJ C00001 VJ=1.0
TIMER T=0.10
MOVL C00002 V=200.0
MOVC C00003 V=200.0
MOVC C00004 V=200.0
MOVC C00005 V=200.0 FPT
MOVL C00006 V=200.0
MOVC C00007 V=200.0
MOVC C00008 V=200.0
MOVC C00009 V=200.0 FPT
MOVC C00010 V=200.0
MOVC C00011 V=200.0
MOVC C00012 V=200.0 FPT
MOVL C00013 V=200.0
MOVC C00014 V=200.0
MOVC C00015 V=200.0
MOVC C00016 V=200.0 FPT
MOVC C00017 V=200.0
MOVC C00018 V=200.0
MOVC C00019 V=200.0 FPT
MOVL C00020 V=200.0
MOVL C00021 V=200.0
MOVL C00022 V=200.0
MOVL C00023 V=200.0
MOVL C00024 V=200.0
MOVL C00025 V=200.0
MOVL C00026 V=200.0
MOVL C00027 V=200.0
MOVL C00028 V=200.0
MOVL C00029 V=200.0
MOVL C00030 V=200.0
MOVL C00031 V=200.0
MOVL C00032 V=200.0
MOVL C00033 V=200.0
MOVL C00034 V=200.0
MOVL C00035 V=200.0
MOVL C00036 V=200.0
MOVL C00037 V=200.0
MOVL C00038 V=200.0
MOVL C00039 V=200.0
MOVL C00040 V=200.0
MOVL C00041 V=200.0
MOVL C00042 V=200.0
MOVL C00043 V=200.0
MOVL C00044 V=200.0
MOVL C00045 V=200.0
MOVL C00046 V=200.0
MOVL C00047 V=200.0
MOVL C00048 V=200.0
MOVL C00049 V=200.0
MOVL C00050 V=200.0
MOVL C00051 V=200.0
MOVL C00052 V=200.0
MOVL C00053 V=200.0
MOVL C00054 V=200.0
MOVL C00055 V=200.0
MOVL C00056 V=200.0
MOVL C00057 V=200.0
MOVL C00058 V=200.0
MOVL C00059 V=200.0
MOVL C00060 V=200.0
MOVL C00061 V=200.0
MOVL C00062 V=200.0
MOVL C00063 V=200.0
MOVL C00064 V=200.0
MOVL C00065 V=200.0
MOVL C00066 V=200.0
MOVL C00067 V=200.0 PL=0
END
