hehonglu123/Motion-Primitive-Planning/ILC/recorded_data/realrobot/from_NX/iteration_30/run_0.csv
timestamp, cmd_num, J1, J2, J3, J4, J5, J6
0.000462, -1, 39.6281, 32.4456, 11.8317, 12.5439, 113.713, -48.8734
0.004283, -1, 39.6281, 32.4456, 11.8317, 12.5439, 113.713, -48.8734
0.00771, -1, 39.6281, 32.4456, 11.8317, 12.5439, 113.713, -48.8734
0.028537, -1, 39.6281, 32.4456, 11.8317, 12.5439, 113.713, -48.8733
0.031349, -1, 39.6281, 32.4456, 11.8317, 12.5439, 113.713, -48.8734
0.034408, -1, 39.6281, 32.4456, 11.8317, 12.5439, 113.713, -48.8734
0.039625, -1, 39.6281, 32.4456, 11.8317, 12.5439, 113.713, -48.8734
0.047695, -1, 39.628, 32.4456, 11.8317, 12.5439, 113.713, -48.8734
0.056558, -1, 39.6276, 32.4456, 11.8317, 12.5438, 113.713, -48.8734
0.195363, -1, 38.3386, 31.7877, 12.082, 12.5564, 113.041, -50.5901
0.197522, -1, 38.3386, 31.7877, 12.082, 12.5564, 113.041, -50.5901
0.199609, -1, 38.2516, 31.7421, 12.1014, 12.5576, 112.992, -50.7152
0.200818, -1, 38.2516, 31.7421, 12.1014, 12.5576, 112.992, -50.7152
0.201999, -1, 38.2516, 31.7421, 12.1014, 12.5576, 112.992, -50.7152
0.204019, -1, 38.1631, 31.6957, 12.1209, 12.5588, 112.942, -50.8415
0.205294, -1, 38.1631, 31.6957, 12.1209, 12.5588, 112.942, -50.8415
0.20868, -1, 38.0732, 31.6488, 12.1404, 12.5601, 112.892, -50.9687
0.209971, -1, 38.0732, 31.6488, 12.1404, 12.5601, 112.892, -50.9687
0.21268, -1, 37.982, 31.6013, 12.1598, 12.5613, 112.841, -51.0967
0.213881, -1, 37.982, 31.6013, 12.1598, 12.5613, 112.841, -51.0967
0.215994, -1, 37.8897, 31.5533, 12.1792, 12.5625, 112.79, -51.2255
0.217194, -1, 37.8897, 31.5533, 12.1792, 12.5625, 112.79, -51.2255
0.219244, -1, 37.7963, 31.5049, 12.1986, 12.5637, 112.739, -51.3547
0.221848, -1, 37.7963, 31.5049, 12.1986, 12.5637, 112.739, -51.3547
0.224125, -1, 37.7021, 31.4563, 12.218, 12.5649, 112.688, -51.4841
0.225476, -1, 37.7021, 31.4563, 12.218, 12.5649, 112.688, -51.4841
0.227585, -1, 37.6072, 31.4075, 12.2374, 12.5661, 112.637, -51.6138
0.228808, -1, 37.6072, 31.4075, 12.2374, 12.5661, 112.637, -51.6138
0.22999, -1, 37.6072, 31.4075, 12.2374, 12.5661, 112.637, -51.6138
0.232095, -1, 37.5118, 31.3586, 12.2568, 12.5673, 112.586, -51.7436
0.233401, -1, 37.5118, 31.3586, 12.2568, 12.5673, 112.586, -51.7436
0.243194, -1, 37.2241, 31.2115, 12.315, 12.5711, 112.431, -52.1331
0.247677, -1, 37.128, 31.1626, 12.3344, 12.5723, 112.38, -52.263
0.255547, -1, 36.9358, 31.0648, 12.3731, 12.5749, 112.277, -52.5232
0.263686, -1, 36.7437, 30.967, 12.4119, 12.5774, 112.174, -52.7836
0.27163, -1, 36.552, 30.8691, 12.4508, 12.5799, 112.071, -53.0441
0.279583, -1, 36.3603, 30.7714, 12.4897, 12.5825, 111.968, -53.3043
0.287748, -1, 36.1688, 30.6735, 12.5285, 12.585, 111.865, -53.5647
0.295744, -1, 35.9772, 30.5755, 12.5674, 12.5875, 111.762, -53.8253
0.303789, -1, 35.7857, 30.4774, 12.6064, 12.5901, 111.659, -54.086
0.312076, -1, 35.5939, 30.3794, 12.6453, 12.5925, 111.556, -54.3463
0.318561, -1, 35.4979, 30.3303, 12.6648, 12.5938, 111.505, -54.4764
0.328255, -1, 35.2094, 30.1828, 12.723, 12.5976, 111.35, -54.8672
0.336051, -1, 35.017, 30.0844, 12.762, 12.6001, 111.247, -55.1281
0.344088, -1, 34.8247, 29.9859, 12.801, 12.6027, 111.144, -55.3886
0.35226, -1, 34.6323, 29.8874, 12.8398, 12.6051, 111.041, -55.6495
0.360142, -1, 34.4401, 29.789, 12.8788, 12.6077, 110.938, -55.9104
0.36816, -1, 34.248, 29.6906, 12.9178, 12.6102, 110.835, -56.1714
0.376294, -1, 34.056, 29.5924, 12.9568, 12.6128, 110.732, -56.4322
0.384089, -1, 33.9601, 29.5433, 12.9763, 12.6141, 110.68, -56.5626
0.391542, -1, 33.7683, 29.4449, 13.0153, 12.6167, 110.577, -56.8234
0.399603, -1, 33.5764, 29.3465, 13.0542, 12.6193, 110.474, -57.0843
0.407596, -1, 33.3842, 29.2482, 13.0932, 12.6218, 110.371, -57.3456
0.415538, -1, 33.1917, 29.1496, 13.1322, 12.6244, 110.268, -57.6064
0.423594, -1, 32.9989, 29.051, 13.1711, 12.627, 110.164, -57.8675
0.431531, -1, 32.8059, 28.9523, 13.2101, 12.6296, 110.062, -58.1286
0.43954, -1, 32.6126, 28.8538, 13.249, 12.6323, 109.959, -58.39
0.447551, -1, 32.419, 28.755, 13.2879, 12.635, 109.855, -58.6512
0.455533, -1, 32.2251, 28.6564, 13.3269, 12.6376, 109.753, -58.9121
0.463603, -1, 32.031, 28.5576, 13.3659, 12.6403, 109.649, -59.1731
0.471534, -1, 31.8371, 28.4589, 13.4048, 12.6429, 109.546, -59.4345
0.479527, -1, 31.6435, 28.3602, 13.4439, 12.6456, 109.443, -59.6959
0.487633, -1, 31.45, 28.2615, 13.483, 12.6485, 109.34, -59.9571
0.495538, -1, 31.257, 28.163, 13.5219, 12.6512, 109.237, -60.2184
0.503576, -1, 31.0644, 28.0646, 13.5611, 12.654, 109.134, -60.4798
0.511616, -1, 30.872, 27.9661, 13.6001, 12.6568, 109.031, -60.7414
0.647408, -1, 27.5879, 26.2872, 14.2634, 12.7009, 107.275, -65.1892
0.648622, -1, 27.5879, 26.2872, 14.2634, 12.7009, 107.275, -65.1892
0.65126, -1, 27.4918, 26.2377, 14.2828, 12.7021, 107.223, -65.32
0.652532, -1, 27.4918, 26.2377, 14.2828, 12.7021, 107.223, -65.32
0.654428, -1, 27.4918, 26.1882, 14.3024, 12.7033, 107.172, -65.4508
0.655775, -1, 27.3957, 26.1882, 14.3024, 12.7033, 107.172, -65.4508
0.658609, -1, 27.2996, 26.1387, 14.3219, 12.7045, 107.12, -65.5816
0.661592, -1, 27.2996, 26.1387, 14.3219, 12.7045, 107.12, -65.5816
0.663671, -1, 27.2035, 26.0892, 14.3415, 12.7056, 107.068, -65.7123
0.664854, -1, 27.2035, 26.0892, 14.3415, 12.7056, 107.068, -65.7123
0.666777, -1, 27.1073, 26.0398, 14.3609, 12.7067, 107.016, -65.8432
0.668136, -1, 27.1073, 26.0398, 14.3609, 12.7067, 107.016, -65.8432
0.669432, -1, 27.1073, 26.0398, 14.3609, 12.7067, 107.016, -65.8432
0.671689, -1, 27.011, 25.9904, 14.3803, 12.7079, 106.965, -65.9741
0.672917, -1, 27.011, 25.9904, 14.3803, 12.7079, 106.965, -65.9741
0.67636, -1, 26.9147, 25.941, 14.3998, 12.7091, 106.913, -66.105
0.677723, -1, 26.9147, 25.941, 14.3998, 12.7091, 106.913, -66.105
0.679887, -1, 26.8184, 25.8916, 14.4194, 12.7103, 106.862, -66.236
0.682677, -1, 26.7219, 25.8422, 14.4389, 12.7114, 106.81, -66.3668
0.684106, -1, 26.7219, 25.8422, 14.4389, 12.7114, 106.81, -66.3668
0.685334, -1, 26.7219, 25.8422, 14.4389, 12.7114, 106.81, -66.3668
0.687509, -1, 26.6253, 25.7927, 14.4584, 12.7125, 106.758, -66.4976
0.699759, -1, 26.3349, 25.6445, 14.5167, 12.716, 106.604, -66.8902
0.703542, -1, 26.238, 25.5951, 14.5362, 12.7171, 106.552, -67.0211
0.711655, -1, 26.0438, 25.4963, 14.5753, 12.7193, 106.449, -67.2832
0.719651, -1, 25.8495, 25.3974, 14.6142, 12.7216, 106.346, -67.5449
0.727639, -1, 25.6553, 25.2986, 14.6533, 12.7239, 106.243, -67.8064
0.735691, -1, 25.4613, 25.1998, 14.6922, 12.7262, 106.139, -68.068
0.743697, -1, 25.2675, 25.1012, 14.7312, 12.7285, 106.036, -68.3298
0.751642, -1, 25.0741, 25.0024, 14.7703, 12.7308, 105.933, -68.5917
0.75972, -1, 24.8809, 24.9036, 14.8093, 12.7331, 105.829, -68.8531
0.7676, -1, 24.688, 24.8048, 14.8482, 12.7355, 105.726, -69.1149
0.775572, -1, 24.4954, 24.706, 14.8872, 12.738, 105.623, -69.3766
0.783649, -1, 24.3031, 24.6071, 14.9263, 12.7403, 105.519, -69.6383
0.79162, -1, 24.1106, 24.5082, 14.9653, 12.7427, 105.416, -69.8998
0.799781, -1, 23.9178, 24.4095, 15.0043, 12.745, 105.313, -70.1613
0.807802, -1, 23.725, 24.3106, 15.0432, 12.7475, 105.209, -70.423
0.815933, -1, 23.5318, 24.2118, 15.0822, 12.7499, 105.106, -70.6849
0.822592, -1, 23.4351, 24.1623, 15.1017, 12.7511, 105.054, -70.8157
0.831924, -1, 23.1446, 24.014, 15.16, 12.7547, 104.899, -71.2083
0.840043, -1, 22.9506, 23.9151, 15.1989, 12.7571, 104.796, -71.4702
0.84814, -1, 22.7566, 23.8163, 15.2379, 12.7596, 104.692, -71.732
0.856061, -1, 22.5627, 23.7176, 15.2769, 12.7621, 104.589, -71.9937
0.864234, -1, 22.3691, 23.619, 15.3159, 12.7645, 104.486, -72.2551
0.872178, -1, 22.1759, 23.5202, 15.3549, 12.7671, 104.382, -72.5165
0.880128, -1, 22.0793, 23.4709, 15.3743, 12.7684, 104.279, -72.7781
0.888079, -1, 21.8862, 23.3722, 15.4133, 12.771, 104.227, -72.9089
0.895579, -1, 21.6936, 23.2735, 15.4523, 12.7736, 104.124, -73.1702
0.903516, -1, 21.5014, 23.1746, 15.4912, 12.7763, 104.021, -73.4315
0.911568, -1, 21.3092, 23.0759, 15.5302, 12.7789, 103.918, -73.6931
0.919589, -1, 21.1169, 22.9773, 15.5692, 12.7816, 103.815, -73.9548
0.927516, -1, 20.9244, 22.8787, 15.6081, 12.7842, 103.712, -74.216
0.935511, -1, 20.732, 22.7801, 15.6471, 12.7869, 103.609, -74.4771
0.94352, -1, 20.5394, 22.6815, 15.686, 12.7897, 103.505, -74.7383
0.951524, -1, 20.3463, 22.5828, 15.7248, 12.7924, 103.403, -74.9997
0.959586, -1, 20.1526, 22.4841, 15.7639, 12.7951, 103.299, -75.261
0.967514, -1, 19.9589, 22.3854, 15.8028, 12.7978, 103.196, -75.522
0.975515, -1, 19.7653, 22.2867, 15.8415, 12.8006, 103.094, -75.7833
0.983594, -1, 19.5717, 22.1881, 15.8804, 12.8033, 102.99, -76.0446
0.991517, -1, 19.3783, 22.0895, 15.9193, 12.806, 102.887, -76.3058
0.999524, -1, 19.1853, 21.9908, 15.9582, 12.8087, 102.784, -76.5667
1.00762, -1, 18.9924, 21.8922, 15.9971, 12.8115, 102.681, -76.8275
1.01551, -1, 18.7999, 21.7935, 16.0359, 12.8142, 102.578, -77.0885
1.02629, -1, 18.5118, 21.6455, 16.0942, 12.8183, 102.424, -77.4801
1.03159, -1, 18.416, 21.5962, 16.1137, 12.8197, 102.372, -77.6104
1.03952, -1, 18.2242, 21.4977, 16.1525, 12.8223, 102.27, -77.871
1.04751, -1, 18.0322, 21.3993, 16.1913, 12.8249, 102.167, -78.1317
1.05561, -1, 17.8403, 21.3009, 16.2303, 12.8274, 102.064, -78.3925
1.06351, -1, 17.6483, 21.2026, 16.2691, 12.83, 101.961, -78.6531
1.07163, -1, 17.4559, 21.1043, 16.308, 12.8325, 101.858, -78.9135
1.07958, -1, 17.263, 21.006, 16.3468, 12.8349, 101.755, -79.174
1.08751, -1, 17.0699, 20.9078, 16.3856, 12.8373, 101.652, -79.4347
1.09559, -1, 16.8769, 20.8095, 16.4245, 12.8397, 101.549, -79.6953
1.10351, -1, 16.6838, 20.7114, 16.4633, 12.842, 101.446, -79.9558
1.11153, -1, 16.4908, 20.6131, 16.502, 12.8444, 101.344, -80.2162
1.1196, -1, 16.2981, 20.5148, 16.5407, 12.8467, 101.241, -80.4769
1.12751, -1, 16.1058, 20.4164, 16.5795, 12.8491, 101.138, -80.7374
1.13556, -1, 15.9137, 20.318, 16.6182, 12.8514, 101.036, -80.9975
1.14359, -1, 15.722, 20.2195, 16.657, 12.8537, 100.933, -81.2575
1.15152, -1, 15.5307, 20.1211, 16.6956, 12.8561, 100.83, -81.5177
1.15952, -1, 15.3395, 20.0228, 16.7342, 12.8584, 100.728, -81.7779
1.16759, -1, 15.1484, 19.9246, 16.773, 12.8607, 100.625, -82.0377
1.17555, -1, 14.9571, 19.8264, 16.8117, 12.863, 100.523, -82.2976
1.18351, -1, 14.7658, 19.7283, 16.8504, 12.8653, 100.42, -82.5576
1.19159, -1, 14.5744, 19.6302, 16.8892, 12.8675, 100.318, -82.8177
1.19952, -1, 14.3826, 19.532, 16.9279, 12.8698, 100.215, -83.0774
1.20763, -1, 14.1903, 19.434, 16.9666, 12.8721, 100.112, -83.3369
1.21559, -1, 13.998, 19.3361, 17.0053, 12.8744, 100.01, -83.5965
1.22363, -1, 13.8056, 19.2382, 17.0438, 12.8767, 99.9075, -83.8561
1.23168, -1, 13.6131, 19.1404, 17.0825, 12.879, 99.8049, -84.1157
1.23968, -1, 13.4208, 19.0425, 17.1212, 12.8813, 99.7024, -84.375
1.24767, -1, 13.2287, 18.9446, 17.1597, 12.8836, 99.6002, -84.6343
1.2557, -1, 13.0371, 18.8467, 17.1983, 12.886, 99.4977, -84.8937
1.26351, -1, 12.846, 18.7487, 17.237, 12.8883, 99.3951, -85.1531
1.27152, -1, 12.655, 18.6507, 17.2755, 12.8907, 99.2931, -85.4121
1.27973, -1, 12.4643, 18.553, 17.314, 12.8931, 99.1907, -85.6709
1.28759, -1, 12.2741, 18.4552, 17.3526, 12.8955, 99.0884, -85.9298
1.29571, -1, 12.0839, 18.3575, 17.391, 12.8979, 98.9864, -86.1889
1.30452, -1, 11.8936, 18.2599, 17.4297, 12.9003, 98.8842, -86.4476
1.31179, -1, 11.703, 18.1623, 17.4683, 12.9027, 98.7823, -86.7061
1.31991, -1, 11.5122, 18.0646, 17.5068, 12.9052, 98.6806, -86.9647
1.32874, -1, 11.3212, 17.967, 17.5453, 12.9076, 98.5786, -87.2234
1.33596, -1, 11.1299, 17.8695, 17.5839, 12.91, 98.4767, -87.482
1.34426, -1, 10.9385, 17.772, 17.6224, 12.9125, 98.3748, -87.7401
1.35291, -1, 10.7468, 17.6746, 17.6609, 12.915, 98.2727, -87.9984
1.36011, -1, 10.5552, 17.5771, 17.6993, 12.9175, 98.1709, -88.2569
1.36814, -1, 10.364, 17.4796, 17.7377, 12.9201, 98.0691, -88.5151
1.37692, -1, 10.2685, 17.382, 17.7762, 12.9226, 97.9671, -88.7731
1.38413, -1, 10.0776, 17.3332, 17.7954, 12.9239, 97.8653, -89.0312
1.39222, -1, 9.88717, 17.2356, 17.8337, 12.9279, 97.7634, -89.2893
1.39955, -1, 9.69705, 17.1381, 17.872, 12.9292, 97.7124, -89.4184
1.40751, -1, 9.50735, 17.0407, 17.9104, 12.932, 97.6104, -89.6764
1.41561, -1, 9.31807, 16.9434, 17.9487, 12.9347, 97.5087, -89.9338
1.4235, -1, 9.12873, 16.8461, 17.9871, 12.9373, 97.4067, -90.1915
1.43153, -1, 8.93931, 16.7488, 18.0254, 12.94, 97.3049, -90.4492
1.43961, -1, 8.74977, 16.6517, 18.0638, 12.9427, 97.2033, -90.7067
1.4475, -1, 8.5602, 16.5545, 18.1023, 12.9453, 97.1016, -90.9639
1.45559, -1, 8.37039, 16.4575, 18.1406, 12.9481, 97.0002, -91.2211
1.46349, -1, 8.1801, 16.3604, 18.1788, 12.9506, 96.8986, -91.4784
1.4715, -1, 7.98958, 16.2636, 18.2172, 12.9533, 96.797, -91.7356
1.47964, -1, 7.7991, 16.1667, 18.2554, 12.956, 96.6956, -91.9925
1.4875, -1, 7.60848, 16.0698, 18.2937, 12.9586, 96.594, -92.2491
1.49551, -1, 7.41806, 15.9728, 18.332, 12.9612, 96.4926, -92.5058
1.50358, -1, 7.2279, 15.8759, 18.3701, 12.9637, 96.3914, -92.7627
1.51153, -1, 7.03808, 15.7789, 18.4083, 12.9664, 96.29, -93.0194
1.51956, -1, 6.8487, 15.682, 18.4466, 12.9689, 96.1888, -93.2758
1.52851, -1, 6.65977, 15.5851, 18.4847, 12.9714, 96.0881, -93.5323
1.5355, -1, 6.47127, 15.4883, 18.5227, 12.974, 95.9869, -93.7886
1.5435, -1, 6.28306, 15.3916, 18.5609, 12.9764, 95.8858, -94.0451
1.55158, -1, 6.09495, 15.2949, 18.5991, 12.979, 95.7852, -94.3011
1.55958, -1, 5.90665, 15.1982, 18.6372, 12.9813, 95.684, -94.557
1.5675, -1, 5.71823, 15.1015, 18.6754, 12.9837, 95.5831, -94.813
1.57563, -1, 5.52976, 15.0049, 18.7134, 12.986, 95.4826, -95.0689
1.58362, -1, 5.34091, 14.9083, 18.7515, 12.9883, 95.3816, -95.3246
1.5915, -1, 5.15177, 14.8119, 18.7897, 12.9906, 95.2809, -95.5799
1.59957, -1, 4.96242, 14.7156, 18.8277, 12.9928, 95.1804, -95.8354
1.60757, -1, 4.77306, 14.6192, 18.8657, 12.9951, 95.0795, -96.091
1.61551, -1, 4.5836, 14.5228, 18.9038, 12.9973, 94.9787, -96.3461
1.62383, -1, 4.39445, 14.4265, 18.9418, 12.9995, 94.8781, -96.6011
1.6315, -1, 4.20552, 14.3301, 18.9798, 13.0017, 94.7772, -96.856
1.63961, -1, 4.01684, 14.2337, 19.0178, 13.004, 94.6764, -97.1111
1.64828, -1, 3.82881, 14.1375, 19.0557, 13.0063, 94.5755, -97.3662
1.6555, -1, 3.64116, 14.0414, 19.0937, 13.0084, 94.4747, -97.6208
1.6635, -1, 3.45406, 13.9452, 19.1316, 13.0108, 94.3742, -97.8755
1.67229, -1, 3.26713, 13.8492, 19.1694, 13.0131, 94.2735, -98.1304
1.67959, -1, 3.0801, 13.7531, 19.2073, 13.0153, 94.1727, -98.3851
1.68769, -1, 2.89315, 13.6571, 19.2452, 13.0175, 94.0722, -98.6395
1.69632, -1, 2.70607, 13.561, 19.2831, 13.0199, 93.9716, -98.8937
1.7035, -1, 2.51876, 13.4651, 19.321, 13.0221, 93.871, -99.1478
1.71175, -1, 2.33129, 13.3692, 19.3587, 13.0244, 93.7709, -99.402
1.72043, -1, 2.14345, 13.2734, 19.3965, 13.0267, 93.6705, -99.656
1.72761, -1, 1.95529, 13.1776, 19.4344, 13.0289, 93.5703, -99.9095
1.73603, -1, 1.76714, 13.0817, 19.4722, 13.0312, 93.4705, -100.163
1.74441, -1, 1.57897, 12.9859, 19.5099, 13.0334, 93.3702, -100.417
1.75167, -1, 1.39091, 12.89, 19.5478, 13.0357, 93.2701, -100.671
1.76014, -1, 1.20311, 12.7942, 19.5855, 13.038, 93.1703, -100.924
1.76845, -1, 1.01569, 12.6985, 19.6232, 13.0404, 93.0702, -101.177
1.77553, -1, 0.828935, 12.6029, 19.661, 13.0427, 92.9702, -101.43
1.78448, -1, 0.642626, 12.5073, 19.6986, 13.0451, 92.8706, -101.683
1.79155, -1, 0.456746, 12.4118, 19.7361, 13.0476, 92.7707, -101.936
1.79965, -1, 0.271157, 12.3165, 19.7739, 13.05, 92.671, -102.188
1.80851, -1, 0.0855817, 12.2211, 19.8115, 13.0524, 92.5718, -102.441
1.81662, -1, -0.0998738, 12.1258, 19.849, 13.0549, 92.472, -102.694
1.82382, -1, -0.285484, 12.0305, 19.8867, 13.0573, 92.3723, -102.946
1.83288, -1, -0.471419, 11.9353, 19.9243, 13.0598, 92.2731, -103.198
1.83997, -1, -0.657688, 11.8403, 19.9618, 13.0623, 92.1735, -103.45
1.8481, -1, -0.844067, 11.7453, 19.9994, 13.0647, 92.074, -103.702
1.85688, -1, -1.03071, 11.6502, 20.0368, 13.0673, 91.9749, -103.955
1.86404, -1, -1.2176, 11.5551, 20.0743, 13.0698, 91.8754, -104.206
1.87209, -1, -1.40458, 11.4601, 20.1119, 13.0722, 91.7762, -104.458
1.88106, -1, -1.5913, 11.3649, 20.1493, 13.0749, 91.6771, -104.709
1.88806, -1, -1.68457, 11.3173, 20.168, 13.0762, 91.6274, -104.961
1.89614, -1, -1.87081, 11.2222, 20.2055, 13.0787, 91.4786, -105.212
1.90348, -1, -2.05656, 11.1272, 20.2429, 13.0815, 91.4291, -105.338
1.91148, -1, -2.24169, 11.0323, 20.2802, 13.0841, 91.3299, -105.589
1.91964, -1, -2.42645, 10.9374, 20.3177, 13.0867, 91.2307, -105.84
1.9275, -1, -2.61089, 10.8427, 20.355, 13.0894, 91.1318, -106.091
1.93753, -1, -2.88681, 10.7005, 20.4109, 13.0934, 90.9831, -106.467
1.94354, -1, -2.97879, 10.6532, 20.4296, 13.0947, 90.9335, -106.592
1.95149, -1, -3.16286, 10.5585, 20.467, 13.0973, 90.8348, -106.843
1.95961, -1, -3.34718, 10.4639, 20.5042, 13.0999, 90.7357, -107.093
1.96748, -1, -3.53182, 10.3695, 20.5415, 13.1024, 90.6367, -107.344
1.97549, -1, -3.71661, 10.2752, 20.5788, 13.105, 90.5382, -107.594
1.98355, -1, -3.90168, 10.1808, 20.6161, 13.1075, 90.4393, -107.844
1.99307, -1, -4.17964, 10.0393, 20.672, 13.1112, 90.2913, -108.219
1.99954, -1, -4.27249, 9.99219, 20.6905, 13.1124, 90.2421, -108.344
2.00755, -1, -4.45813, 9.89779, 20.7278, 13.1147, 90.1433, -108.594
2.01553, -1, -4.64338, 9.80344, 20.765, 13.1171, 90.0449, -108.843
2.02356, -1, -4.8283, 9.70923, 20.8022, 13.1195, 89.9466, -109.093
2.03353, -1, -5.10478, 9.56808, 20.8578, 13.123, 89.7987, -109.467
2.03954, -1, -5.19657, 9.52103, 20.8764, 13.1242, 89.7495, -109.592
2.04755, -1, -5.37989, 9.427, 20.9135, 13.1266, 89.6513, -109.84
2.05548, -1, -5.56287, 9.3331, 20.9506, 13.1289, 89.5527, -110.089
2.06352, -1, -5.74545, 9.23919, 20.9877, 13.1312, 89.4545, -110.338
2.07155, -1, -5.92774, 9.14532, 21.0247, 13.1335, 89.3566, -110.587
2.07954, -1, -6.11014, 9.05151, 21.0617, 13.1357, 89.2583, -110.836
2.08753, -1, -6.29286, 8.95772, 21.0988, 13.1379, 89.1602, -111.084
2.09555, -1, -6.47579, 8.8641, 21.1358, 13.1402, 89.0625, -111.332
2.10348, -1, -6.65894, 8.7705, 21.1725, 13.1423, 88.9644, -111.581
2.11151, -1, -6.84255, 8.67687, 21.2095, 13.1445, 88.8665, -111.829
2.11962, -1, -7.02645, 8.58326, 21.2465, 13.1466, 88.7687, -112.077
2.12748, -1, -7.21066, 8.48974, 21.2833, 13.1487, 88.6708, -112.324
2.13549, -1, -7.39486, 8.39608, 21.3202, 13.1508, 88.573, -112.572
2.14354, -1, -7.57867, 8.30242, 21.357, 13.153, 88.4755, -112.82
2.15148, -1, -7.76222, 8.20897, 21.3938, 13.1552, 88.3778, -113.067
2.15954, -1, -7.94523, 8.11558, 21.4307, 13.1575, 88.2804, -113.314
2.16755, -1, -8.12785, 8.02219, 21.4675, 13.1597, 88.1832, -113.561
2.17548, -1, -8.30968, 7.92893, 21.5042, 13.1619, 88.0857, -113.809
2.18359, -1, -8.49108, 7.83568, 21.5411, 13.1641, 87.9883, -114.056
2.19148, -1, -8.67212, 7.74249, 21.5779, 13.1664, 87.891, -114.302
2.19954, -1, -8.8528, 7.64931, 21.6146, 13.1687, 87.7935, -114.548
2.20755, -1, -9.03359, 7.55621, 21.6514, 13.1709, 87.6961, -114.795
2.21553, -1, -9.21462, 7.46319, 21.6881, 13.1731, 87.599, -115.041
2.22356, -1, -9.39587, 7.37035, 21.7247, 13.1754, 87.5018, -115.288
2.23167, -1, -9.57752, 7.2775, 21.7614, 13.1775, 87.4046, -115.534
2.23964, -1, -9.75948, 7.18464, 21.7981, 13.1799, 87.3076, -115.78
2.24758, -1, -9.9418, 7.0919, 21.8346, 13.182, 87.2104, -116.026
2.25572, -1, -10.1243, 6.99913, 21.8712, 13.1842, 87.1132, -116.272
2.26348, -1, -10.307, 6.90632, 21.9078, 13.1865, 87.0161, -116.518
2.27148, -1, -10.4896, 6.81356, 21.9443, 13.1887, 86.919, -116.763
2.27974, -1, -10.6719, 6.72084, 21.9809, 13.191, 86.8218, -117.009
2.28751, -1, -10.8537, 6.62824, 22.0173, 13.1933, 86.7251, -117.254
2.2956, -1, -11.035, 6.53569, 22.0537, 13.1958, 86.6281, -117.499
2.30371, -1, -11.2154, 6.44318, 22.0903, 13.1981, 86.5315, -117.744
2.31171, -1, -11.3954, 6.35069, 22.1268, 13.2006, 86.4349, -117.989
2.31987, -1, -11.575, 6.25826, 22.1632, 13.203, 86.3381, -118.234
2.32782, -1, -11.7542, 6.16583, 22.1997, 13.2055, 86.2415, -118.479
2.33594, -1, -11.9335, 6.07352, 22.2362, 13.208, 86.1449, -118.723
2.34403, -1, -12.1127, 5.98126, 22.2725, 13.2104, 86.0483, -118.967
2.35208, -1, -12.2922, 5.88917, 22.309, 13.2129, 85.9518, -119.212
2.36003, -1, -12.4722, 5.79712, 22.3454, 13.2153, 85.8556, -119.456
2.3681, -1, -12.6523, 5.70508, 22.3815, 13.2178, 85.7592, -119.7
2.37605, -1, -12.833, 5.61313, 22.4179, 13.2203, 85.6631, -119.943
2.38409, -1, -12.9234, 5.56718, 22.4361, 13.2228, 85.5672, -120.187
2.39218, -1, -13.1045, 5.47521, 22.4724, 13.2252, 85.4712, -120.431
2.39948, -1, -13.2859, 5.38319, 22.5086, 13.2264, 85.4231, -120.553
2.40747, -1, -13.4669, 5.29127, 22.5449, 13.2288, 85.3275, -120.796
2.41552, -1, -13.6475, 5.19937, 22.5811, 13.2314, 85.2316, -121.039
2.42352, -1, -13.8278, 5.10758, 22.6172, 13.234, 85.1358, -121.282
2.43148, -1, -14.0074, 5.01581, 22.6534, 13.2366, 85.0402, -121.525
2.43952, -1, -14.1861, 4.92406, 22.6896, 13.2392, 84.9446, -121.768
2.44747, -1, -14.3644, 4.83237, 22.7256, 13.2417, 84.8489, -122.011
2.45552, -1, -14.5423, 4.74074, 22.7619, 13.2442, 84.7535, -122.253
2.46349, -1, -14.72, 4.64911, 22.7981, 13.2468, 84.6577, -122.496
2.47148, -1, -14.8976, 4.5576, 22.8341, 13.2492, 84.562, -122.738
2.47952, -1, -15.0753, 4.46615, 22.8703, 13.2517, 84.4664, -122.981
2.48747, -1, -15.2533, 4.37488, 22.9064, 13.2542, 84.3707, -123.223
2.49547, -1, -15.4317, 4.28357, 22.9424, 13.2565, 84.275, -123.464
2.50354, -1, -15.6106, 4.1923, 22.9784, 13.2589, 84.1795, -123.706
2.51148, -1, -15.7898, 4.10105, 23.0145, 13.2612, 84.0839, -123.948
2.5195, -1, -15.969, 4.00985, 23.0504, 13.2635, 83.9885, -124.189
2.52927, -1, -16.1487, 3.9186, 23.0864, 13.2667, 83.8456, -124.552
2.53547, -1, -16.3285, 3.82737, 23.1224, 13.2678, 83.7977, -124.672
2.54448, -1, -16.5079, 3.73616, 23.1582, 13.27, 83.7022, -124.914
2.55154, -1, -16.6868, 3.64504, 23.194, 13.2722, 83.6068, -125.155
2.55947, -1, -16.8653, 3.55397, 23.2299, 13.2745, 83.5114, -125.396
2.56748, -1, -17.0428, 3.46295, 23.2657, 13.2767, 83.416, -125.637
2.57546, -1, -17.2197, 3.37196, 23.3016, 13.2789, 83.3207, -125.877
2.58347, -1, -17.3962, 3.28108, 23.3374, 13.2811, 83.2257, -126.118
2.59165, -1, -17.5725, 3.19025, 23.3731, 13.2832, 83.1306, -126.359
2.59947, -1, -17.7485, 3.09961, 23.409, 13.2854, 83.0359, -126.599
2.60746, -1, -17.9246, 3.00902, 23.4449, 13.2875, 82.9411, -126.839
2.61555, -1, -18.1008, 2.91855, 23.4806, 13.2896, 82.8462, -127.079
2.62347, -1, -18.2773, 2.82822, 23.5163, 13.2918, 82.7514, -127.32
2.63149, -1, -18.4542, 2.73778, 23.5521, 13.2939, 82.6569, -127.559
2.63954, -1, -18.6317, 2.64737, 23.5877, 13.2959, 82.5622, -127.799
2.64746, -1, -18.8093, 2.55708, 23.6234, 13.2979, 82.4676, -128.038
2.6555, -1, -18.9874, 2.46662, 23.6591, 13.2999, 82.3733, -128.278
2.66354, -1, -19.1657, 2.37612, 23.6947, 13.3019, 82.2787, -128.517
2.67147, -1, -19.3439, 2.28574, 23.7302, 13.3039, 82.1844, -128.757
2.67947, -1, -19.5215, 2.19537, 23.7659, 13.306, 82.0905, -128.996
2.68758, -1, -19.6986, 2.10494, 23.8013, 13.3082, 81.9962, -129.235
2.69547, -1, -19.8751, 2.01463, 23.8367, 13.3104, 81.902, -129.474
2.70349, -1, -20.0509, 1.92436, 23.8723, 13.3126, 81.8081, -129.713
2.71172, -1, -20.2261, 1.83417, 23.9079, 13.3148, 81.7139, -129.951
2.7195, -1, -20.401, 1.74403, 23.9433, 13.317, 81.6199, -130.189
2.72763, -1, -20.5756, 1.65395, 23.9789, 13.3192, 81.5261, -130.428
2.73641, -1, -20.7501, 1.56398, 24.0144, 13.3214, 81.4321, -130.666
2.74356, -1, -20.9247, 1.47413, 24.0498, 13.3236, 81.3383, -130.904
2.75165, -1, -21.0997, 1.38442, 24.0853, 13.3257, 81.2448, -131.142
2.75964, -1, -21.275, 1.29462, 24.1208, 13.3279, 81.1508, -131.38
2.76756, -1, -21.4508, 1.20489, 24.1561, 13.3301, 81.0569, -131.618
2.77553, -1, -21.6267, 1.11528, 24.1915, 13.3323, 80.9632, -131.855
2.78609, -1, -21.8029, 1.02562, 24.227, 13.3344, 80.8693, -132.093
2.79158, -1, -21.9793, 0.936009, 24.2624, 13.3366, 80.7756, -132.33
2.7997, -1, -22.1559, 0.846453, 24.2977, 13.3387, 80.682, -132.567
2.80835, -1, -22.3324, 0.756926, 24.3331, 13.3409, 80.5883, -132.804
2.81575, -1, -22.5085, 0.667449, 24.3683, 13.3432, 80.4947, -133.041
2.82373, -1, -22.6841, 0.577933, 24.4035, 13.3455, 80.4011, -133.278
2.83256, -1, -22.8591, 0.488521, 24.4388, 13.3479, 80.3074, -133.515
2.83991, -1, -23.0331, 0.399091, 24.474, 13.3503, 80.2139, -133.752
2.8486, -1, -23.2068, 0.309732, 24.5092, 13.3529, 80.1204, -133.989
2.85682, -1, -23.3801, 0.220408, 24.5444, 13.3552, 80.027, -134.225
2.86405, -1, -23.5532, 0.131186, 24.5796, 13.3577, 79.9336, -134.461
2.87203, -1, -23.7265, 0.042075, 24.6148, 13.36, 79.8403, -134.697
2.88087, -1, -23.8998, -0.0469597, 24.65, 13.3625, 79.7473, -134.934
2.88811, -1, -24.0732, -0.135878, 24.6851, 13.365, 79.654, -135.17
2.89545, -1, -24.1601, -0.18039, 24.7026, 13.3662, 79.6075, -135.288
2.90346, -1, -24.3341, -0.269352, 24.7377, 13.3686, 79.5145, -135.523
2.91155, -1, -24.5084, -0.358234, 24.7729, 13.371, 79.4214, -135.759
2.91945, -1, -24.683, -0.447114, 24.808, 13.3734, 79.3284, -135.994
2.92751, -1, -24.858, -0.53603, 24.843, 13.3758, 79.2353, -136.23
2.9355, -1, -25.0331, -0.624888, 24.8781, 13.3782, 79.1424, -136.465
2.94345, -1, -25.208, -0.713689, 24.9131, 13.3806, 79.0494, -136.7
2.95145, -1, -25.3824, -0.802429, 24.9481, 13.3831, 78.9567, -136.935
2.9595, -1, -25.5566, -0.89126, 24.9832, 13.3855, 78.864, -137.17
2.96747, -1, -25.7302, -0.980021, 25.0181, 13.388, 78.7711, -137.405
2.97545, -1, -25.9031, -1.06871, 25.0529, 13.3903, 78.6786, -137.64
2.98347, -1, -26.0756, -1.15744, 25.088, 13.3928, 78.5863, -137.874
2.99146, -1, -26.2477, -1.24609, 25.1229, 13.3952, 78.4936, -138.109
2.9995, -1, -26.4194, -1.33459, 25.1576, 13.3976, 78.401, -138.343
3.00746, -1, -26.5912, -1.42301, 25.1925, 13.3999, 78.3088, -138.578
3.01546, -1, -26.7632, -1.51133, 25.2275, 13.4022, 78.2162, -138.812
3.02356, -1, -26.9354, -1.59955, 25.2623, 13.4044, 78.1237, -139.046
3.03305, -1, -27.1079, -1.68767, 25.2972, 13.4067, 78.0317, -139.28
3.03945, -1, -27.2805, -1.77594, 25.3321, 13.4088, 77.9394, -139.514
3.04756, -1, -27.4534, -1.86401, 25.3668, 13.411, 77.8474, -139.747
3.05551, -1, -27.6265, -1.9521, 25.4016, 13.4132, 77.7554, -139.981
3.06346, -1, -27.7998, -2.0403, 25.4365, 13.4153, 77.6633, -140.214
3.07152, -1, -27.9731, -2.1283, 25.4713, 13.4173, 77.5714, -140.448
3.07946, -1, -28.1464, -2.21634, 25.5059, 13.4194, 77.4793, -140.681
3.08746, -1, -28.3195, -2.30438, 25.5408, 13.4215, 77.3873, -140.914
3.09556, -1, -28.4923, -2.39244, 25.5755, 13.4235, 77.2952, -141.147
3.10345, -1, -28.6647, -2.4804, 25.6101, 13.4256, 77.2031, -141.38
3.11151, -1, -28.8364, -2.5684, 25.6448, 13.4278, 77.1112, -141.613
3.11952, -1, -29.0075, -2.65638, 25.6795, 13.43, 77.0193, -141.846
3.12745, -1, -29.1781, -2.74425, 25.714, 13.4322, 76.9274, -142.078
3.13554, -1, -29.3487, -2.83205, 25.7487, 13.4342, 76.8357, -142.311
3.14345, -1, -29.5193, -2.91973, 25.7834, 13.4363, 76.7437, -142.543
3.15145, -1, -29.6902, -3.00729, 25.8179, 13.4383, 76.6518, -142.776
3.15953, -1, -29.8611, -3.09479, 25.8525, 13.4403, 76.5602, -143.008
3.16745, -1, -30.0322, -3.18226, 25.8871, 13.4425, 76.4682, -143.24
3.17546, -1, -30.2031, -3.26979, 25.9216, 13.4445, 76.3765, -143.472
3.18352, -1, -30.3743, -3.35719, 25.9562, 13.4466, 76.2851, -143.704
3.19148, -1, -30.5458, -3.4446, 25.9908, 13.4487, 76.1934, -143.936
3.19962, -1, -30.7176, -3.53213, 26.0252, 13.4507, 76.1021, -144.167
3.20745, -1, -30.8894, -3.61949, 26.0597, 13.4527, 76.0108, -144.399
3.21548, -1, -31.0613, -3.70689, 26.0943, 13.4547, 75.9193, -144.63
3.22375, -1, -31.2329, -3.79421, 26.1288, 13.4568, 75.828, -144.861
3.23153, -1, -31.4043, -3.88156, 26.1631, 13.4589, 75.7367, -145.093
3.23956, -1, -31.5752, -3.96885, 26.1976, 13.4611, 75.6454, -145.324
3.24791, -1, -31.7456, -4.05608, 26.232, 13.4632, 75.5541, -145.555
3.25555, -1, -31.9157, -4.14333, 26.2664, 13.4653, 75.463, -145.786
3.26361, -1, -32.0854, -4.23052, 26.3008, 13.4675, 75.372, -146.017
3.27217, -1, -32.2547, -4.31763, 26.3352, 13.4697, 75.2807, -146.248
3.27946, -1, -32.4241, -4.4047, 26.3694, 13.4719, 75.1897, -146.478
3.28748, -1, -32.5938, -4.49163, 26.4037, 13.474, 75.0991, -146.708
3.29637, -1, -32.7634, -4.57855, 26.4382, 13.4762, 75.008, -146.939
3.30358, -1, -32.9331, -4.66548, 26.4724, 13.4783, 74.9173, -147.169
3.31158, -1, -33.1028, -4.75243, 26.5065, 13.4805, 74.8268, -147.4
3.32061, -1, -33.2725, -4.83927, 26.5409, 13.4827, 74.7359, -147.629
3.32776, -1, -33.4426, -4.92614, 26.5752, 13.485, 74.6454, -147.859
3.33586, -1, -33.6129, -5.01309, 26.6093, 13.4872, 74.5548, -148.089
3.34471, -1, -33.7832, -5.09987, 26.6436, 13.4894, 74.4643, -148.319
3.35194, -1, -33.9535, -5.1866, 26.6778, 13.4917, 74.3738, -148.549
3.36008, -1, -34.1237, -5.27334, 26.7119, 13.4939, 74.2833, -148.778
3.369, -1, -34.2939, -5.36008, 26.7462, 13.4961, 74.1928, -149.008
3.37604, -1, -34.4639, -5.44673, 26.7804, 13.4985, 74.1021, -149.237
3.38406, -1, -34.6334, -5.53342, 26.8145, 13.5008, 74.0115, -149.467
3.39287, -1, -34.7179, -5.57677, 26.8315, 13.502, 73.9211, -149.696
3.39944, -1, -34.8866, -5.66341, 26.8657, 13.5045, 73.8757, -149.81
3.40749, -1, -35.0551, -5.74995, 26.8998, 13.5069, 73.7852, -150.039
3.41545, -1, -35.2233, -5.83646, 26.9339, 13.5093, 73.695, -150.268
3.42344, -1, -35.3916, -5.92283, 26.968, 13.5117, 73.6046, -150.497
3.43154, -1, -35.5601, -6.00903, 27.0021, 13.5141, 73.5143, -150.726
3.43945, -1, -35.7286, -6.09526, 27.036, 13.5164, 73.4239, -150.954
3.44748, -1, -35.8972, -6.18145, 27.0701, 13.5188, 73.3338, -151.183
3.45544, -1, -36.0657, -6.2676, 27.1042, 13.5213, 73.2432, -151.412
3.46345, -1, -36.2342, -6.3537, 27.1381, 13.5237, 73.1528, -151.64
3.4715, -1, -36.4029, -6.43992, 27.1721, 13.526, 73.0626, -151.869
3.47943, -1, -36.5718, -6.52613, 27.2061, 13.5284, 72.9721, -152.097
3.48745, -1, -36.7407, -6.61234, 27.24, 13.5307, 72.8819, -152.325
3.49552, -1, -36.9097, -6.69853, 27.2739, 13.533, 72.7919, -152.553
3.50343, -1, -37.0787, -6.78467, 27.3078, 13.5352, 72.7017, -152.781
3.51424, -1, -37.3317, -6.91384, 27.3586, 13.5386, 72.5668, -153.123
3.5195, -1, -37.4159, -6.95684, 27.3756, 13.5397, 72.522, -153.237
3.52902, -1, -37.5841, -7.04293, 27.4095, 13.542, 72.4321, -153.464
3.53545, -1, -37.7518, -7.12893, 27.4435, 13.5443, 72.3422, -153.692
3.54444, -1, -37.9195, -7.21494, 27.4773, 13.5466, 72.2524, -153.919
3.55154, -1, -38.0869, -7.30088, 27.5111, 13.5489, 72.1627, -154.147
3.5605, -1, -38.2543, -7.38677, 27.5451, 13.5511, 72.0729, -154.374
3.56849, -1, -38.4216, -7.47252, 27.5789, 13.5532, 71.9832, -154.601
3.57543, -1, -38.5889, -7.55821, 27.6127, 13.5553, 71.8938, -154.829
3.5835, -1, -38.7562, -7.64395, 27.6466, 13.5574, 71.804, -155.056
3.59143, -1, -38.9235, -7.72966, 27.6804, 13.5594, 71.7146, -155.283
3.59948, -1, -39.0908, -7.81524, 27.7141, 13.5616, 71.6255, -155.51
3.6075, -1, -39.2584, -7.90093, 27.748, 13.5635, 71.5359, -155.736
3.61544, -1, -39.4259, -7.98664, 27.7818, 13.5655, 71.4465, -155.963
3.62346, -1, -39.5935, -8.07219, 27.8154, 13.5675, 71.3573, -156.19
3.6315, -1, -39.7612, -8.15774, 27.8491, 13.5694, 71.2679, -156.417
3.63943, -1, -39.9288, -8.24324, 27.8829, 13.5714, 71.1786, -156.643
3.64744, -1, -40.0964, -8.32868, 27.9165, 13.5733, 71.0891, -156.869
3.6555, -1, -40.2638, -8.41403, 27.9502, 13.5753, 71.0001, -157.096
3.66344, -1, -40.431, -8.49942, 27.984, 13.5773, 70.9106, -157.322
3.67145, -1, -40.598, -8.58479, 28.0176, 13.5792, 70.8214, -157.548
3.67954, -1, -40.7649, -8.67018, 28.0512, 13.5812, 70.7325, -157.774
3.68742, -1, -40.9314, -8.75552, 28.0849, 13.5832, 70.6432, -158
3.69549, -1, -41.0979, -8.84085, 28.1187, 13.5852, 70.554, -158.226
3.70352, -1, -41.2641, -8.92608, 28.1522, 13.5873, 70.465, -158.451
3.71144, -1, -41.4303, -9.01124, 28.1858, 13.5893, 70.3757, -158.677
3.71979, -1, -41.5966, -9.09642, 28.2195, 13.5913, 70.2865, -158.902
3.7275, -1, -41.7629, -9.18151, 28.2531, 13.5933, 70.1975, -159.128
3.73552, -1, -41.9293, -9.26659, 28.2866, 13.5953, 70.1084, -159.353
3.74407, -1, -42.0958, -9.35165, 28.3203, 13.5973, 70.0193, -159.579
3.75154, -1, -42.262, -9.43672, 28.3539, 13.5993, 69.9304, -159.804
3.75954, -1, -42.4283, -9.52173, 28.3874, 13.6014, 69.8417, -160.029
3.76826, -1, -42.5947, -9.60671, 28.421, 13.6034, 69.7526, -160.254
3.77543, -1, -42.761, -9.69166, 28.4545, 13.6054, 69.6637, -160.48
3.78345, -1, -42.9274, -9.77661, 28.4879, 13.6075, 69.5751, -160.705
3.79153, -1, -43.0937, -9.86153, 28.5214, 13.6096, 69.4862, -160.93
3.80034, -1, -43.2599, -9.94648, 28.5549, 13.6116, 69.3975, -161.154
3.80756, -1, -43.4261, -10.0314, 28.5884, 13.6137, 69.3089, -161.379
3.81587, -1, -43.5921, -10.1164, 28.6218, 13.6158, 69.2202, -161.604
3.82452, -1, -43.758, -10.2013, 28.6553, 13.6178, 69.1318, -161.829
3.83172, -1, -43.9238, -10.2861, 28.6887, 13.6201, 69.0433, -162.053
3.83985, -1, -44.0894, -10.3709, 28.7221, 13.6222, 68.9548, -162.278
3.8485, -1, -44.2548, -10.4556, 28.7556, 13.6244, 68.8661, -162.502
3.85591, -1, -44.42, -10.5402, 28.789, 13.6266, 68.7775, -162.726
3.86442, -1, -44.5851, -10.6247, 28.8224, 13.6288, 68.689, -162.951
3.87271, -1, -44.7504, -10.7093, 28.8558, 13.6309, 68.6003, -163.175
3.88, -1, -44.9157, -10.7937, 28.8893, 13.6332, 68.5117, -163.398
3.88854, -1, -45.0811, -10.8781, 28.9227, 13.6353, 68.4235, -163.623
3.89607, -1, -45.1637, -10.9204, 28.9393, 13.6364, 68.3793, -163.847
3.90345, -1, -45.329, -11.0049, 28.9728, 13.6386, 68.2907, -163.959
3.91151, -1, -45.4941, -11.0894, 29.0061, 13.6409, 68.2023, -164.183
3.91947, -1, -45.6594, -11.1738, 29.0392, 13.6432, 68.1143, -164.407
3.9284, -1, -45.8246, -11.2583, 29.0893, 13.6466, 67.9817, -164.742
3.93553, -1, -45.9888, -11.3422, 29.106, 13.6478, 67.9374, -164.854
3.94342, -1, -46.1502, -11.4244, 29.1395, 13.6501, 67.8494, -165.077
3.95143, -1, -46.3072, -11.5038, 29.1731, 13.6525, 67.762, -165.298
3.95948, -1, -46.4573, -11.5788, 29.2066, 13.6548, 67.6769, -165.513
3.96742, -1, -46.5984, -11.6486, 29.2388, 13.6571, 67.5954, -165.719
3.97542, -1, -46.7278, -11.7118, 29.2686, 13.6594, 67.5209, -165.908
3.98347, -1, -46.8426, -11.7677, 29.295, 13.6613, 67.454, -166.077
3.99142, -1, -46.9411, -11.8168, 29.317, 13.6631, 67.3984, -166.218
3.99943, -1, -47.0234, -11.8596, 29.3335, 13.6643, 67.3537, -166.331
4.00749, -1, -47.0904, -11.8963, 29.3447, 13.6651, 67.3203, -166.415
4.01543, -1, -47.1425, -11.9256, 29.3518, 13.6655, 67.2971, -166.474
4.02579, -1, -47.1962, -11.956, 29.3568, 13.6657, 67.2772, -166.523
4.03243, -1, -47.2086, -11.9629, 29.3575, 13.6658, 67.2735, -166.533
4.03943, -1, -47.2266, -11.9728, 29.3583, 13.6659, 67.2688, -166.545
4.04845, -1, -47.2373, -11.9786, 29.3587, 13.6659, 67.2665, -166.55
4.05548, 2, -47.2429, -11.9815, 29.3589, 13.666, 67.2654, -166.553
4.0645, 2, -47.2449, -11.9828, 29.3591, 13.666, 67.2649, -166.554
4.07142, 2, -47.245, -11.9833, 29.3592, 13.6661, 67.2647, -166.555
4.07949, 2, -47.2447, -11.9835, 29.3592, 13.6661, 67.2646, -166.555
4.08741, 2, -47.2447, -11.9836, 29.3592, 13.6661, 67.2645, -166.555
4.09543, 2, -47.2451, -11.9837, 29.3593, 13.6661, 67.2645, -166.555
4.10353, 2, -47.246, -11.9839, 29.3593, 13.6661, 67.2645, -166.555
4.11148, 2, -47.2472, -11.9845, 29.3593, 13.666, 67.2645, -166.555
4.11943, 2, -47.249, -11.9852, 29.3593, 13.6661, 67.2645, -166.555
4.12749, 2, -47.2506, -11.9861, 29.3593, 13.6661, 67.2645, -166.555
4.13542, 2, -47.252, -11.9869, 29.3593, 13.6661, 67.2645, -166.555
4.14343, 2, -47.2529, -11.9875, 29.3593, 13.6661, 67.2645, -166.555
4.15149, 2, -47.2534, -11.9879, 29.3593, 13.666, 67.2645, -166.555
4.15942, 2, -47.2535, -11.9881, 29.3593, 13.6661, 67.2645, -166.555
4.16742, 2, -47.2536, -11.9882, 29.3593, 13.6661, 67.2645, -166.555
4.17549, 2, -47.2533, -11.9882, 29.3593, 13.6661, 67.2645, -166.555
4.18343, 2, -47.2529, -11.9882, 29.3593, 13.6661, 67.2645, -166.555
4.19142, 2, -47.2523, -11.9881, 29.3593, 13.6661, 67.2645, -166.555
4.19952, 2, -47.252, -11.9881, 29.3593, 13.6661, 67.2645, -166.555
4.20744, 2, -47.2518, -11.9881, 29.3593, 13.6661, 67.2645, -166.555
4.21543, 2, -47.2518, -11.9882, 29.3593, 13.6661, 67.2645, -166.555
4.22353, 2, -47.2519, -11.9884, 29.3593, 13.6661, 67.2645, -166.555
4.23149, 2, -47.2521, -11.9887, 29.3594, 13.666, 67.2645, -166.555
4.23951, 2, -47.2527, -11.989, 29.3594, 13.666, 67.2645, -166.555
4.24757, 2, -47.2533, -11.9893, 29.3594, 13.6661, 67.2645, -166.555
4.25552, 2, -47.2536, -11.9895, 29.3594, 13.6661, 67.2645, -166.555
4.26354, 2, -47.2538, -11.9896, 29.3594, 13.6661, 67.2645, -166.555
4.27164, 2, -47.2538, -11.9896, 29.3594, 13.6661, 67.2645, -166.555
4.27942, 2, -47.2537, -11.9896, 29.3594, 13.666, 67.2645, -166.555
4.28745, 2, -47.2535, -11.9896, 29.3594, 13.6661, 67.2645, -166.555
4.29552, 2, -47.253, -11.9895, 29.3594, 13.6661, 67.2645, -166.555
4.30346, 2, -47.2527, -11.9895, 29.3594, 13.6661, 67.2646, -166.555
4.31157, 2, -47.2524, -11.9895, 29.3594, 13.666, 67.2645, -166.555
4.31972, 2, -47.2522, -11.9895, 29.3594, 13.666, 67.2645, -166.555
4.32766, 2, -47.2521, -11.9895, 29.3594, 13.666, 67.2645, -166.555
4.3358, 2, -47.2521, -11.9896, 29.3594, 13.666, 67.2645, -166.555
4.34387, 2, -47.252, -11.9896, 29.3593, 13.666, 67.2646, -166.555
4.35184, 2, -47.2521, -11.9897, 29.3593, 13.666, 67.2645, -166.555
4.35997, 2, -47.252, -11.9897, 29.3594, 13.6659, 67.2645, -166.555
4.36858, 2, -47.2521, -11.9897, 29.3594, 13.666, 67.2645, -166.555
4.37597, 2, -47.2521, -11.9897, 29.3594, 13.666, 67.2645, -166.555
4.38405, 2, -47.2521, -11.9896, 29.3594, 13.666, 67.2645, -166.555
4.39206, 2, -47.252, -11.9896, 29.3594, 13.666, 67.2646, -166.555
4.39994, 2, -47.252, -11.9896, 29.3594, 13.666, 67.2646, -166.555
4.40741, 2, -47.2519, -11.9895, 29.3594, 13.666, 67.2646, -166.555
4.41546, 2, -47.2518, -11.9894, 29.3594, 13.6659, 67.2646, -166.555
4.42342, 2, -47.2516, -11.9894, 29.3594, 13.666, 67.2646, -166.555
4.4314, 2, -47.2515, -11.9894, 29.3594, 13.666, 67.2646, -166.555
4.4395, 2, -47.2514, -11.9895, 29.3594, 13.666, 67.2646, -166.555
4.44741, 2, -47.2514, -11.9895, 29.3594, 13.6659, 67.2646, -166.555
4.45541, 2, -47.2513, -11.9895, 29.3594, 13.6659, 67.2646, -166.555
4.46347, 2, -47.2513, -11.9895, 29.3594, 13.666, 67.2647, -166.555
4.47141, 2, -47.2513, -11.9895, 29.3593, 13.6659, 67.2646, -166.555
4.47941, 2, -47.2512, -11.9895, 29.3593, 13.666, 67.2645, -166.555
4.48745, 2, -47.2511, -11.9895, 29.3594, 13.666, 67.2646, -166.555
4.49697, 2, -47.2511, -11.9894, 29.3594, 13.6659, 67.2646, -166.555
4.50523, 2, -47.2509, -11.9893, 29.3594, 13.666, 67.2646, -166.555
4.51147, 2, -47.2509, -11.9893, 29.3594, 13.666, 67.2646, -166.555
4.52103, 2, -47.2508, -11.9892, 29.3594, 13.666, 67.2647, -166.555
4.52741, 2, -47.2507, -11.9892, 29.3594, 13.666, 67.2647, -166.555
4.53642, 2, -47.2506, -11.9892, 29.3594, 13.6659, 67.2647, -166.555
4.54343, 2, -47.2505, -11.9892, 29.3594, 13.6659, 67.2647, -166.555
4.55241, 2, -47.2504, -11.9892, 29.3593, 13.666, 67.2647, -166.555
4.55946, 2, -47.2504, -11.9892, 29.3594, 13.666, 67.2647, -166.555
4.5675, 2, -47.2502, -11.9892, 29.3594, 13.666, 67.2647, -166.555
4.57541, 2, -47.2501, -11.9893, 29.3594, 13.6659, 67.2647, -166.555
4.58348, 2, -47.25, -11.9892, 29.3594, 13.6659, 67.2647, -166.555
4.5914, 2, -47.2499, -11.9892, 29.3594, 13.6659, 67.2647, -166.555
4.5994, 2, -47.2498, -11.9892, 29.3594, 13.6659, 67.2647, -166.555
4.60751, 2, -47.2497, -11.9891, 29.3594, 13.666, 67.2647, -166.555
4.61541, 2, -47.2496, -11.989, 29.3593, 13.6659, 67.2647, -166.555
4.62342, 2, -47.2495, -11.989, 29.3594, 13.6659, 67.2647, -166.555
4.63147, 2, -47.2494, -11.9889, 29.3593, 13.6659, 67.2647, -166.555
4.6394, 2, -47.2493, -11.9889, 29.3594, 13.6659, 67.2647, -166.555
4.6474, 2, -47.2492, -11.9889, 29.3594, 13.6659, 67.2647, -166.555
4.65547, 2, -47.2492, -11.9889, 29.3593, 13.6659, 67.2647, -166.555
4.66341, 2, -47.2491, -11.9889, 29.3593, 13.6659, 67.2647, -166.555
4.67146, 2, -47.249, -11.9889, 29.3593, 13.6659, 67.2647, -166.555
4.67947, 2, -47.249, -11.9889, 29.3593, 13.6658, 67.2647, -166.555
4.6874, 2, -47.2489, -11.9889, 29.3593, 13.6658, 67.2648, -166.555
4.69544, 2, -47.2489, -11.9889, 29.3593, 13.6658, 67.2647, -166.555
4.70352, 2, -47.2488, -11.9888, 29.3594, 13.6658, 67.2647, -166.555
4.71142, 2, -47.2488, -11.9887, 29.3594, 13.6658, 67.2647, -166.555
4.71941, 2, -47.2487, -11.9887, 29.3594, 13.6658, 67.2647, -166.555
4.7275, 2, -47.2486, -11.9886, 29.3594, 13.6658, 67.2647, -166.555
4.73549, 2, -47.2485, -11.9886, 29.3594, 13.6658, 67.2647, -166.555
4.74352, 2, -47.2484, -11.9886, 29.3594, 13.6658, 67.2648, -166.555
4.75156, 2, -47.2484, -11.9886, 29.3593, 13.6658, 67.2648, -166.555
4.7595, 2, -47.2483, -11.9886, 29.3593, 13.6658, 67.2648, -166.555
4.76754, 2, -47.2483, -11.9885, 29.3594, 13.6658, 67.2647, -166.555
4.77563, 2, -47.2483, -11.9885, 29.3593, 13.6658, 67.2648, -166.555
4.78342, 2, -47.2482, -11.9885, 29.3593, 13.6657, 67.2648, -166.555
4.79143, 2, -47.2482, -11.9885, 29.3593, 13.6658, 67.2648, -166.554
4.7995, 2, -47.2482, -11.9885, 29.3593, 13.6658, 67.2648, -166.554
4.80744, 2, -47.2481, -11.9884, 29.3594, 13.6658, 67.2647, -166.554
4.81579, 2, -47.2481, -11.9884, 29.3594, 13.6658, 67.2648, -166.554
4.82369, 2, -47.248, -11.9883, 29.3594, 13.6657, 67.2648, -166.554
4.8318, 2, -47.2479, -11.9883, 29.3593, 13.6657, 67.2648, -166.554
4.83999, 2, -47.2478, -11.9882, 29.3594, 13.6657, 67.2648, -166.554
4.84845, 2, -47.2478, -11.9882, 29.3594, 13.6657, 67.2648, -166.554
4.85583, 2, -47.2477, -11.9882, 29.3593, 13.6657, 67.2648, -166.554
4.86451, 2, -47.2477, -11.9882, 29.3594, 13.6657, 67.2648, -166.554
4.87202, 2, -47.2476, -11.9882, 29.3594, 13.6657, 67.2649, -166.554
4.88046, 2, -47.2476, -11.9882, 29.3593, 13.6656, 67.2649, -166.554
4.8882, 2, -47.2476, -11.9882, 29.3593, 13.6656, 67.2649, -166.554
4.89602, 2, -47.2476, -11.9881, 29.3593, 13.6656, 67.265, -166.554
4.90394, 2, -47.2475, -11.9881, 29.3593, 13.6656, 67.2649, -166.554
4.91222, 2, -47.2475, -11.988, 29.3593, 13.6656, 67.2649, -166.554
4.91944, 2, -47.2474, -11.988, 29.3593, 13.6656, 67.2649, -166.554
4.92739, 2, -47.2474, -11.9879, 29.3593, 13.6656, 67.2649, -166.554
4.93561, 2, -47.2473, -11.9879, 29.3593, 13.6656, 67.265, -166.554
4.94354, 2, -47.2472, -11.9878, 29.3593, 13.6656, 67.2649, -166.554
4.9514, 2, -47.2472, -11.9878, 29.3593, 13.6656, 67.2649, -166.554
4.95938, 2, -47.2471, -11.9878, 29.3594, 13.6655, 67.2649, -166.554
4.96744, 2, -47.247, -11.9878, 29.3593, 13.6655, 67.265, -166.554
4.97539, 2, -47.247, -11.9878, 29.3593, 13.6655, 67.265, -166.554
4.9834, 2, -47.2469, -11.9878, 29.3594, 13.6655, 67.265, -166.554
4.99144, 2, -47.2469, -11.9878, 29.3594, 13.6655, 67.265, -166.554
5.00096, 2, -47.2469, -11.9877, 29.3593, 13.6655, 67.2651, -166.554
5.00739, 2, -47.2469, -11.9877, 29.3593, 13.6655, 67.265, -166.554
5.01546, 2, -47.2469, -11.9877, 29.3593, 13.6654, 67.265, -166.554
5.02516, 2, -47.2468, -11.9876, 29.3593, 13.6654, 67.265, -166.554
5.03139, 2, -47.2468, -11.9876, 29.3593, 13.6654, 67.2651, -166.554
5.03949, 2, -47.2467, -11.9875, 29.3593, 13.6654, 67.2651, -166.554
5.0485, 2, -47.2466, -11.9875, 29.3593, 13.6654, 67.2651, -166.554
5.05781, 2, -47.2465, -11.9875, 29.3593, 13.6653, 67.265, -166.554
5.06347, 2, -47.2465, -11.9875, 29.3593, 13.6653, 67.265, -166.554
5.0714, 2, -47.2464, -11.9874, 29.3593, 13.6653, 67.2651, -166.554
5.07939, 2, -47.2464, -11.9874, 29.3593, 13.6653, 67.2651, -166.554
5.08745, 2, -47.2464, -11.9874, 29.3593, 13.6653, 67.265, -166.554
5.09539, 2, -47.2463, -11.9874, 29.3593, 13.6653, 67.265, -166.554
5.1034, 2, -47.2463, -11.9874, 29.3593, 13.6653, 67.265, -166.554
5.11153, 2, -47.2463, -11.9874, 29.3593, 13.6653, 67.265, -166.554
5.11939, 4, -47.2463, -11.9873, 29.3593, 13.6653, 67.2651, -166.554
5.12739, 4, -47.2462, -11.9873, 29.3593, 13.6653, 67.2652, -166.554
5.13546, 4, -47.2462, -11.9873, 29.3593, 13.6652, 67.2651, -166.554
5.1434, 4, -47.2461, -11.9872, 29.3594, 13.6652, 67.2651, -166.554
5.15139, 4, -47.246, -11.9872, 29.3593, 13.6652, 67.2651, -166.554
5.15945, 4, -47.246, -11.9871, 29.3593, 13.6652, 67.2651, -166.554
5.16739, 4, -47.2459, -11.9871, 29.3593, 13.6652, 67.2652, -166.554
5.17538, 4, -47.2459, -11.9871, 29.3593, 13.6652, 67.2652, -166.554
5.18346, 4, -47.2459, -11.9871, 29.3593, 13.6652, 67.2652, -166.554
5.1914, 4, -47.2458, -11.9871, 29.3593, 13.6652, 67.2652, -166.554
5.19939, 4, -47.2458, -11.9871, 29.3593, 13.6651, 67.2652, -166.554
5.20749, 4, -47.2458, -11.9871, 29.3593, 13.6651, 67.2652, -166.554
5.21557, 4, -47.2457, -11.987, 29.3593, 13.6651, 67.2652, -166.554
5.2307, 4, -47.2457, -11.987, 29.3593, 13.6651, 67.2652, -166.554
5.23281, 4, -47.2456, -11.987, 29.3593, 13.6651, 67.2652, -166.554
5.24523, 4, -47.2455, -11.9869, 29.3593, 13.6651, 67.2653, -166.554
5.24798, 4, -47.2455, -11.9869, 29.3593, 13.6651, 67.2653, -166.554
5.25566, 4, -47.2455, -11.9868, 29.3593, 13.665, 67.2653, -166.554
5.26454, 4, -47.2454, -11.9868, 29.3593, 13.665, 67.2652, -166.554
5.27629, 4, -47.2454, -11.9868, 29.3593, 13.665, 67.2652, -166.553
5.28125, 4, -47.2453, -11.9868, 29.3593, 13.665, 67.2652, -166.553
5.2896, 4, -47.2453, -11.9868, 29.3593, 13.665, 67.2652, -166.553
5.29568, 4, -47.2453, -11.9868, 29.3593, 13.665, 67.2653, -166.553
5.30725, 4, -47.2453, -11.9868, 29.3593, 13.665, 67.2653, -166.553
5.31181, 4, -47.2453, -11.9867, 29.3593, 13.665, 67.2653, -166.553
5.31987, 4, -47.2452, -11.9867, 29.3593, 13.665, 67.2653, -166.553
5.32797, 4, -47.2452, -11.9867, 29.3593, 13.665, 67.2653, -166.553
5.33681, 4, -47.2451, -11.9866, 29.3593, 13.665, 67.2653, -166.553
5.34453, 4, -47.2451, -11.9866, 29.3593, 13.6649, 67.2653, -166.553
5.35419, 4, -47.2451, -11.9866, 29.3593, 13.6649, 67.2653, -166.553
5.36026, 4, -47.245, -11.9866, 29.3593, 13.6649, 67.2653, -166.553
5.3683, 4, -47.245, -11.9866, 29.3593, 13.6648, 67.2653, -166.553
5.38039, 4, -47.245, -11.9865, 29.3593, 13.6649, 67.2653, -166.553
5.38656, 4, -47.2451, -11.9866, 29.3594, 13.6649, 67.2653, -166.553
5.39615, 4, -47.246, -11.9871, 29.3604, 13.6654, 67.2656, -166.553
5.40166, 4, -47.2483, -11.9888, 29.3616, 13.6667, 67.2659, -166.553
5.41127, 4, -47.2525, -11.9934, 29.3672, 13.6764, 67.2683, -166.552
5.41675, 4, -47.2556, -11.9972, 29.3723, 13.7014, 67.2746, -166.547
5.4255, 4, -47.2713, -12.0175, 29.4045, 13.7503, 67.2882, -166.537
5.43333, 5, -47.2794, -12.0283, 29.4231, 13.8379, 67.3127, -166.517
5.44098, 5, -47.3161, -12.0773, 29.514, 13.9777, 67.3522, -166.485
5.44757, 5, -47.3333, -12.0997, 29.5585, 14.072, 67.3783, -166.464
5.45549, 5, -47.3765, -12.1551, 29.6731, 14.3168, 67.4457, -166.407
5.46359, 5, -47.4324, -12.2253, 29.8239, 14.6436, 67.5352, -166.332
5.47282, 5, -47.54, -12.359, 30.1222, 15.2907, 67.7092, -166.184
5.48355, 5, -47.6268, -12.4665, 30.3675, 15.8183, 67.8492, -166.064
5.48751, 5, -47.6744, -12.5254, 30.5024, 16.1063, 67.925, -165.998
5.49692, 5, -47.8311, -12.7196, 30.9505, 17.0453, 68.1688, -165.788
5.50534, 5, -47.8872, -12.7894, 31.1113, 17.3772, 68.3391, -165.641
5.51321, 5, -48.063, -13.0095, 31.6175, 18.4024, 68.5106, -165.492
5.52268, 5, -48.1838, -13.1615, 31.9664, 19.0968, 68.6806, -165.343
5.53159, 5, -48.3045, -13.3136, 32.3194, 19.7877, 68.8471, -165.197
5.53878, 5, -48.4223, -13.4623, 32.6719, 20.4643, 69.0096, -165.049
5.54523, 5, -48.4789, -13.5346, 32.8466, 21.1179, 69.169, -164.892
5.55458, 6, -48.6319, -13.7391, 33.3539, 21.7357, 69.3276, -164.714
5.55959, 6, -48.6755, -13.8022, 33.5156, 22.0287, 69.4073, -164.613
5.56798, 7, -48.7484, -13.9214, 33.825, 22.58, 69.5694, -164.378
5.57885, 7, -48.8174, -14.0851, 34.2523, 23.315, 69.8232, -163.918
5.58458, 7, -48.8295, -14.1356, 34.3848, 23.5373, 69.9116, -163.731
5.59448, 8, -48.8351, -14.2725, 34.7569, 24.1503, 70.192, -163.067
5.59959, 8, -48.8279, -14.3135, 34.8744, 24.3406, 70.2905, -162.812
5.60751, 9, -48.8022, -14.3898, 35.1013, 24.7076, 70.4953, -162.262
5.61557, 9, -48.764, -14.4606, 35.3207, 25.0642, 70.7099, -161.667
5.62453, 10, -48.7154, -14.5278, 35.537, 25.4174, 70.9332, -161.043
5.63152, 10, -48.6573, -14.5927, 35.752, 25.7711, 71.1635, -160.403
5.63957, 11, -48.5909, -14.6558, 35.9661, 26.1272, 71.3981, -159.756
5.65096, 11, -48.5181, -14.7179, 36.1802, 26.6691, 71.7539, -158.79
5.65553, 12, -48.4409, -14.7798, 36.393, 26.8524, 71.873, -158.469
5.66938, 12, -48.362, -14.8721, 36.7077, 27.4126, 72.2321, -157.504
5.67209, 13, -48.2823, -14.9021, 36.8119, 27.6031, 72.3527, -157.181
5.68392, 13, -48.1618, -14.9893, 37.1212, 28.186, 72.718, -156.208
5.68751, 14, -48.1206, -15.0182, 37.2232, 28.3839, 72.8409, -155.881
5.69684, 14, -48.036, -15.0772, 37.4269, 28.7839, 73.0887, -155.225
5.7036, 15, -47.948, -15.137, 37.63, 29.1876, 73.3375, -154.57
5.71256, 15, -47.8562, -15.1966, 37.8311, 29.5927, 73.5857, -153.917
5.72438, 16, -47.7078, -15.2847, 38.13, 30.1984, 73.953, -152.945
5.73148, 16, -47.6002, -15.3446, 38.3269, 30.5985, 74.1928, -152.304
5.73556, 17, -47.5439, -15.3754, 38.4239, 30.7971, 74.3107, -151.985
5.74465, 17, -47.4276, -15.4382, 38.6153, 31.1909, 74.5421, -151.353
5.75255, 18, -47.3063, -15.5021, 38.8041, 31.5802, 74.7674, -150.726
5.76007, 18, -47.1799, -15.5669, 38.99, 31.9656, 74.9869, -150.108
5.77092, 19, -47.0481, -15.6338, 39.1729, 32.3481, 75.2008, -149.496
5.77618, 19, -46.9106, -15.7038, 39.3541, 32.7293, 75.41, -148.89
5.78464, 20, -46.7676, -15.7761, 39.5344, 33.1094, 75.6149, -148.291
5.79222, 20, -46.6198, -15.85, 39.7127, 33.4887, 75.8156, -147.7
5.80138, 21, -46.4676, -15.9253, 39.8884, 33.8672, 76.0122, -147.115
5.80998, 21, -46.3116, -16.0024, 40.0623, 34.2449, 76.2048, -146.536
5.82171, 22, -46.1517, -16.0812, 40.3196, 34.8094, 76.4858, -145.679
5.82519, 22, -45.9877, -16.1613, 40.4038, 34.9966, 76.5774, -145.397
5.83194, 23, -45.8186, -16.2429, 40.5699, 35.3693, 76.7578, -144.836
5.84074, 23, -45.6432, -16.3267, 40.7334, 35.7387, 76.9332, -144.28
5.85013, 24, -45.4601, -16.4129, 40.8936, 36.1038, 77.1037, -143.729
5.85683, 24, -45.2694, -16.5013, 41.0493, 36.4624, 77.268, -143.184
5.86462, 25, -45.0715, -16.5912, 41.2008, 36.8128, 77.4256, -142.644
5.87294, 25, -44.8668, -16.6819, 41.3482, 37.1541, 77.5759, -142.109
5.88146, 26, -44.6554, -16.7731, 41.491, 37.4859, 77.7192, -141.578
5.88897, 26, -44.4371, -16.8653, 41.6289, 37.8089, 77.8566, -141.052
5.89645, 26, -44.2116, -16.9583, 41.7613, 38.1241, 77.9895, -140.528
5.90499, 27, -43.9793, -17.0515, 41.888, 38.4315, 78.1184, -140.005
5.91231, 27, -43.7404, -17.1442, 42.0084, 38.732, 78.2448, -139.483
5.92208, 28, -43.4941, -17.2354, 42.1221, 39.0252, 78.3684, -138.961
5.93144, 29, -43.2409, -17.325, 42.2288, 39.311, 78.4902, -138.439
5.93948, 29, -42.9812, -17.4125, 42.3284, 39.5893, 78.6094, -137.917
5.94355, 30, -42.849, -17.4554, 42.3754, 39.7254, 78.6679, -137.655
5.95344, 30, -42.4408, -17.5798, 42.5055, 40.1216, 78.8403, -136.872
5.96497, 31, -42.1587, -17.6593, 42.5833, 40.3752, 78.9514, -136.091
5.96983, 31, -41.869, -17.7364, 42.6541, 40.6202, 79.0602, -135.83
5.9755, 32, -41.7214, -17.7742, 42.687, 40.7396, 79.1137, -135.57
5.98652, 32, -41.2686, -17.8834, 42.7755, 41.0847, 79.2694, -134.791
5.99368, 33, -40.9584, -17.9526, 42.8258, 41.3045, 79.37, -134.273
6.00193, 33, -40.6413, -18.0188, 42.8691, 41.5161, 79.4678, -133.757
6.01078, 34, -40.3181, -18.0823, 42.9051, 41.7194, 79.5628, -133.241
6.01797, 34, -39.9902, -18.1435, 42.9339, 41.9146, 79.6552, -132.725
6.026, 35, -39.6571, -18.2017, 42.9555, 42.1022, 79.7454, -132.212
6.03158, 35, -39.4884, -18.2295, 42.9637, 42.1932, 79.7893, -131.956
6.03949, 36, -39.146, -18.2826, 42.9747, 42.3695, 79.876, -131.444
6.04801, 36, -38.7963, -18.3323, 42.9788, 42.5378, 79.9601, -130.933
6.05548, 37, -38.4398, -18.3787, 42.9764, 42.6988, 80.0424, -130.423
6.06366, 37, -38.0776, -18.4217, 42.9671, 42.8519, 80.1224, -129.916
6.0715, 38, -37.7097, -18.4609, 42.9509, 42.9978, 80.2007, -129.41
6.08314, 38, -37.149, -18.5132, 42.9142, 43.2027, 80.314, -128.654
6.0899, 39, -36.7693, -18.5438, 42.8814, 43.33, 80.3862, -128.151
6.0984, 39, -36.385, -18.5707, 42.8418, 43.45, 80.4572, -127.652
6.10362, 40, -36.1908, -18.5828, 42.8195, 43.5072, 80.4919, -127.403
6.11439, 40, -35.7976, -18.604, 42.743, 43.6684, 80.5935, -126.657
6.11956, 41, -35.3986, -18.6213, 42.7142, 43.7185, 80.6263, -126.41
6.1285, 41, -34.9939, -18.6348, 42.6517, 43.8128, 80.6898, -125.916
6.13859, 42, -34.3791, -18.6487, 42.5459, 43.9417, 80.7826, -125.181
6.14464, 42, -34.1727, -18.6517, 42.5075, 43.981, 80.812, -124.937
6.15411, 43, -33.7575, -18.6554, 42.383, 44.0883, 80.8996, -124.208
6.16079, 43, -33.3383, -18.6559, 42.3385, 44.1205, 80.9274, -123.966
6.16851, 44, -32.9135, -18.6527, 42.2453, 44.18, 80.982, -123.484
6.17565, 44, -32.4825, -18.6458, 42.1463, 44.2314, 81.036, -123.005
6.18813, 45, -32.0449, -18.6349, 42.0415, 44.2762, 81.1123, -122.291
6.1925, 45, -31.602, -18.6204, 41.9307, 44.3137, 81.1373, -122.053
6.20539, 46, -30.9318, -18.5923, 41.7532, 44.3554, 81.2095, -121.345
6.20876, 46, -30.7076, -18.5811, 41.6911, 44.3653, 81.2322, -121.111
6.21561, 47, -30.2569, -18.5559, 41.5627, 44.3796, 81.2772, -120.644
6.22455, 47, -29.8016, -18.5262, 41.4282, 44.3867, 81.3218, -120.178
6.23566, 48, -29.1064, -18.4735, 41.2152, 44.3838, 81.3854, -119.482
6.24292, 48, -28.6354, -18.4329, 41.0656, 44.3708, 81.4271, -119.022
6.25136, 49, -28.1601, -18.3879, 40.9102, 44.3494, 81.4689, -118.563
6.25598, 49, -27.9215, -18.3637, 40.8303, 44.3351, 81.4894, -118.333
6.26469, 50, -27.4426, -18.312, 40.6656, 44.2989, 81.5299, -117.876
6.27207, 50, -26.9604, -18.255, 40.4942, 44.2537, 81.571, -117.419
6.28371, 51, -26.2246, -18.1591, 40.2252, 44.1686, 81.6347, -116.736
6.28857, 51, -25.9754, -18.1244, 40.1322, 44.135, 81.6558, -116.509
6.29691, 52, -25.472, -18.0507, 39.9404, 44.0612, 81.6986, -116.055
6.30445, 52, -24.9644, -17.9717, 39.7414, 43.9764, 81.743, -115.601
6.31222, 53, -24.455, -17.8872, 39.5365, 43.8816, 81.7878, -115.148
6.32047, 53, -23.9428, -17.7967, 39.3243, 43.7767, 81.833, -114.696
6.3279, 54, -23.4247, -17.7001, 39.1039, 43.661, 81.8807, -114.244
6.33818, 54, -22.8984, -17.5973, 38.8767, 43.5345, 81.9305, -113.792
6.34549, 55, -22.3643, -17.4883, 38.6421, 43.3968, 81.9818, -113.34
6.35635, 55, -21.8257, -17.3729, 38.3998, 43.1683, 82.0643, -112.661
6.36012, 56, -21.2847, -17.2519, 38.1513, 43.0864, 82.0922, -112.436
6.37046, 56, -20.7405, -17.1254, 37.896, 42.9142, 82.1493, -111.985
6.37631, 57, -20.1895, -16.9935, 37.6343, 42.7308, 82.2087, -111.534
6.3857, 57, -19.629, -16.8556, 37.3665, 42.5359, 82.2685, -111.083
6.39265, 58, -19.0608, -16.7114, 37.0916, 42.3286, 82.3309, -110.633
6.40066, 58, -18.4881, -16.5611, 36.8106, 42.1085, 82.3948, -110.183
6.41227, 59, -17.6243, -16.3259, 36.3756, 41.7546, 82.4962, -109.509
6.41682, 59, -17.6243, -16.3259, 36.3756, 41.6299, 82.5312, -109.284
6.42613, 60, -16.745, -16.0806, 35.9254, 41.3709, 82.6034, -108.835
6.43529, 60, -16.1463, -15.9103, 35.618, 41.0991, 82.6777, -108.385
6.44087, 61, -15.5415, -15.7348, 35.3055, 40.814, 82.7533, -107.936
6.45087, 61, -14.9343, -15.5552, 34.9878, 40.5165, 82.8308, -107.487
6.45691, 62, -14.3233, -15.372, 34.6655, 40.2065, 82.9101, -107.038
6.46447, 62, -14.0151, -15.2788, 34.5026, 40.0467, 82.9503, -106.814
6.47742, 63, -13.0758, -14.9896, 34.0086, 39.5484, 83.0739, -106.141
6.48246, 63, -12.4393, -14.7886, 33.6733, 39.1997, 83.1593, -105.692
6.49094, 64, -11.7985, -14.5824, 33.3325, 38.8372, 83.2485, -105.242
6.49849, 64, -11.1527, -14.3698, 32.9849, 38.4598, 83.342, -104.79
6.50887, 65, -10.4968, -14.1497, 32.4501, 37.8626, 83.4933, -104.109
6.51148, 65, -10.1647, -14.037, 32.4501, 37.8626, 83.4933, -104.109
6.52271, 66, -9.15407, -13.6891, 31.9019, 37.2239, 83.6587, -103.424
6.52991, 66, -8.47233, -13.4482, 31.529, 36.7754, 83.7774, -102.965
6.53583, 67, -8.12973, -13.325, 31.3397, 36.5444, 83.839, -102.735
6.54776, 68, -7.08986, -12.9443, 30.7631, 35.8269, 84.0345, -102.041
6.5515, 68, -6.73886, -12.8134, 30.5684, 35.5799, 84.1029, -101.809
6.562, 68, -5.67631, -12.4121, 29.9799, 34.82, 84.3176, -101.11
6.57054, 69, -4.9629, -12.1377, 29.5838, 34.2988, 84.4678, -100.643
6.57548, 69, -4.60425, -11.9981, 29.3848, 34.0342, 84.5448, -100.409
6.5835, 70, -3.88121, -11.7144, 28.9869, 33.4988, 84.7019, -99.9393
6.59162, 70, -3.15008, -11.4229, 28.5899, 32.9521, 84.8633, -99.4683
6.5995, 71, -2.41217, -11.1228, 28.1933, 32.3938, 85.0295, -98.9963
6.6106, 71, -1.29268, -10.66, 27.5946, 31.5299, 85.2928, -98.2844
6.6165, 72, -0.916076, -10.5027, 27.3938, 31.234, 85.3851, -98.0458
6.62473, 72, -0.158295, -10.1846, 26.9902, 30.628, 85.577, -97.5668
6.63151, 73, 0.604664, -9.86026, 26.5841, 30.0077, 85.7784, -97.0852
6.63947, 73, 1.37205, -9.52864, 26.1768, 29.3755, 85.9878, -96.6024
6.65477, 74, 2.91892, -8.84731, 25.3651, 28.0835, 86.43, -95.6319
6.65914, 74, 3.30739, -8.67354, 25.1647, 27.7563, 86.5446, -95.3885
6.66353, 75, 3.69631, -8.49794, 24.9658, 27.4276, 86.6608, -95.1445
6.67297, 75, 4.47614, -8.14144, 24.5711, 26.7672, 86.8973, -94.6557
6.67949, 76, 5.25831, -7.77922, 24.1813, 26.1062, 87.1397, -94.1659
6.68844, 76, 6.04195, -7.41117, 23.7963, 25.4427, 87.3879, -93.6737
6.69561, 77, 6.82606, -7.03747, 23.4164, 24.7788, 87.643, -93.1797
6.71227, 78, 8.3997, -6.26392, 22.6659, 23.4471, 88.1795, -92.186
6.71466, 78, 8.79412, -6.06445, 22.4804, 23.1117, 88.3203, -91.9362
6.72963, 79, 9.97897, -5.45387, 21.9293, 22.0952, 88.7628, -91.1799
6.73168, 79, 10.3746, -5.24659, 21.7471, 21.7529, 88.9171, -90.9255
6.73543, 79, 10.7704, -5.0376, 21.5656, 21.4096, 89.0747, -90.6698
6.74444, 80, 11.561, -4.61244, 21.2049, 20.7213, 89.3991, -90.1541
6.75143, 80, 12.3485, -4.17646, 20.8492, 20.0316, 89.7338, -89.6326
6.75975, 80, 13.1301, -3.73023, 20.4983, 19.3481, 90.0779, -89.1041
6.76839, 81, 13.906, -3.27721, 20.1537, 18.6751, 90.4297, -88.5703
6.77568, 82, 14.6753, -2.81777, 19.8166, 18.0162, 90.7879, -88.032
6.78351, 82, 15.4372, -2.34992, 19.4896, 17.3725, 91.1508, -87.4912
6.79153, 82, 16.1895, -1.87432, 19.1719, 16.7459, 91.5183, -86.9476
6.79938, 83, 16.9299, -1.39224, 18.8639, 16.1385, 91.8903, -86.4026
6.80743, 83, 17.6572, -0.904598, 18.5648, 15.5495, 92.2671, -85.8567
6.81556, 84, 18.3693, -0.412645, 18.275, 14.9799, 92.6495, -85.3122
6.82347, 84, 19.0647, 0.0836137, 17.9931, 14.4303, 93.0388, -84.768
6.83169, 85, 19.7425, 0.585718, 17.7172, 13.9003, 93.4359, -84.2253
6.83958, 85, 20.402, 1.09293, 17.4478, 13.39, 93.841, -83.6845
6.84846, 86, 21.044, 1.60396, 17.1838, 12.8992, 94.2529, -83.1459
6.85579, 86, 21.6705, 2.11988, 16.9264, 12.428, 94.671, -82.6075
6.86484, 86, 22.2837, 2.64426, 16.6747, 11.9765, 95.096, -82.0676
6.87243, 87, 22.8857, 3.17927, 16.4274, 11.5439, 95.528, -81.5245
6.88069, 87, 23.4779, 3.72339, 16.1843, 11.1294, 95.9672, -80.9774
6.88793, 88, 24.0599, 4.27382, 15.9442, 10.7308, 96.4131, -80.4226
6.89684, 88, 24.6306, 4.83258, 15.7081, 10.3485, 96.8652, -79.8588
6.90389, 89, 24.9117, 5.11605, 15.5923, 9.98178, 97.3231, -79.2849
6.91281, 89, 25.4668, 5.6917, 15.3643, 9.80482, 97.5538, -78.9938
6.91934, 90, 26.0167, 6.27729, 15.1401, 9.46275, 98.0186, -78.4021
6.92915, 90, 26.8299, 7.17209, 14.8136, 8.9804, 98.7238, -77.4889
6.93529, 91, 27.0953, 7.47469, 14.7077, 8.82844, 98.9613, -77.1776
6.94527, 91, 27.8713, 8.39819, 14.3977, 8.40064, 99.6815, -76.2265
6.95131, 92, 28.1248, 8.7113, 14.2966, 8.26805, 99.9241, -75.9032
6.96144, 92, 28.8749, 9.66561, 13.9998, 7.90253, 100.659, -74.9187
6.96738, 93, 29.1212, 9.98801, 13.9031, 7.79136, 100.906, -74.5869
6.97533, 93, 29.605, 10.6377, 13.7142, 7.58603, 101.402, -73.9175
6.98481, 94, 30.3056, 11.6224, 13.4439, 7.32072, 102.146, -72.899
6.99132, 94, 30.5319, 11.9524, 13.357, 7.24383, 102.393, -72.5569
7.00093, 95, 31.1898, 12.9467, 13.1065, 7.04841, 103.131, -71.5226
7.00737, 95, 31.4024, 13.2794, 13.0268, 6.99515, 103.376, -71.1744
7.01694, 96, 32.0188, 14.2805, 12.7986, 6.86992, 104.104, -70.1227
7.02584, 96, 32.4093, 14.9487, 12.6541, 6.81669, 104.586, -69.4152
7.03137, 97, 32.5982, 15.2826, 12.5841, 6.79822, 104.825, -69.0591
7.04092, 97, 32.9639, 15.9487, 12.4496, 6.77677, 105.533, -67.985
7.04834, 98, 33.314, 16.6112, 12.3233, 6.77656, 105.765, -67.6268
7.05543, 98, 33.6497, 17.268, 12.2061, 6.79798, 106.223, -66.9087
7.06598, 99, 33.9707, 17.9171, 12.0986, 6.83873, 106.669, -66.1914
7.07233, 99, 34.2776, 18.5574, 12.0013, 6.89937, 107.101, -65.4795
7.07937, 100, 34.5725, 19.1877, 11.9142, 6.97803, 107.517, -64.7723
7.08733, 100, 34.856, 19.8083, 11.8368, 7.0736, 107.917, -64.0716
7.09553, 101, 35.1264, 20.4168, 11.7685, 7.18502, 108.3, -63.3812
7.10339, 101, 35.3831, 21.012, 11.7078, 7.31047, 108.667, -62.6999
7.11135, 101, 35.6266, 21.5932, 11.6551, 7.4477, 109.018, -62.0288
7.11939, 102, 35.8567, 22.1594, 11.6099, 7.59443, 109.353, -61.3708
7.12739, 102, 36.0739, 22.7111, 11.5719, 7.74859, 109.673, -60.7261
7.13534, 103, 36.281, 23.2479, 11.5409, 7.90844, 109.978, -60.0952
7.1434, 103, 36.4812, 23.7693, 11.5176, 8.07382, 110.268, -59.4779
7.15156, 104, 36.6761, 24.2771, 11.5026, 8.2454, 110.543, -58.875
7.15934, 104, 36.866, 24.7717, 11.4952, 8.42441, 110.8, -58.2836
7.1674, 104, 37.0512, 25.2533, 11.4942, 8.61244, 111.039, -57.7013
7.17533, 104, 37.2315, 25.7223, 11.4992, 8.80949, 111.259, -57.1271
7.18333, 104, 37.4028, 26.1775, 11.5093, 9.01518, 111.463, -56.5605
7.19139, 104, 37.5638, 26.6195, 11.523, 9.22874, 111.651, -56.0009
7.19933, 104, 37.717, 27.0484, 11.5394, 9.44705, 111.826, -55.4509
7.20733, 104, 37.8669, 27.465, 11.5581, 9.66778, 111.99, -54.9134
7.21541, 104, 38.0154, 27.868, 11.5781, 9.88792, 112.145, -54.3932
7.22337, 104, 38.1611, 28.2567, 11.5982, 10.105, 112.293, -53.8919
7.23133, 104, 38.3027, 28.6316, 11.618, 10.3178, 112.432, -53.4115
7.23943, 104, 38.4386, 28.9919, 11.6367, 10.5243, 112.565, -52.9542
7.24741, 104, 38.5674, 29.3356, 11.6546, 10.7236, 112.689, -52.5208
7.25588, 104, 38.6885, 29.6615, 11.6717, 10.9147, 112.807, -52.1126
7.26345, 104, 38.8017, 29.9684, 11.6874, 11.0969, 112.916, -51.7289
7.27142, 104, 38.907, 30.2572, 11.702, 11.2695, 113.018, -51.3701
7.27949, 104, 39.0047, 30.5269, 11.7156, 11.4322, 113.112, -51.0369
7.28745, 104, 39.0945, 30.7765, 11.7279, 11.5844, 113.199, -50.7291
7.29546, 104, 39.1761, 31.0069, 11.7391, 11.7256, 113.278, -50.4461
7.30341, 104, 39.2492, 31.2174, 11.7493, 11.8552, 113.351, -50.1887
7.31138, 104, 39.3141, 31.4078, 11.7588, 11.9733, 113.416, -49.9563
7.3194, 104, 39.3713, 31.5791, 11.7672, 12.0795, 113.474, -49.7493
7.3275, 104, 39.4215, 31.7308, 11.7746, 12.1733, 113.525, -49.5674
7.33557, 104, 39.4653, 31.8637, 11.7813, 12.2554, 113.568, -49.4101
7.34363, 104, 39.5033, 31.9789, 11.7874, 12.3246, 113.605, -49.2768
7.35206, 104, 39.5349, 32.0771, 11.7928, 12.3829, 113.635, -49.1673
7.3604, 104, 39.561, 32.1593, 11.7977, 12.4289, 113.659, -49.0787
7.36782, 104, 39.5822, 32.2271, 11.802, 12.4646, 113.678, -49.0102
7.37642, 104, 39.5992, 32.2822, 11.8059, 12.4918, 113.691, -48.9597
7.38389, 104, 39.6126, 32.3261, 11.8095, 12.5114, 113.701, -48.9239
7.39196, 104, 39.623, 32.3597, 11.8127, 12.525, 113.707, -48.8997
7.39997, 104, 39.6306, 32.3847, 11.8156, 12.534, 113.71, -48.8846
7.40798, 104, 39.6335, 32.3947, 11.8181, 12.5393, 113.713, -48.8759
7.41591, 104, 39.6375, 32.4105, 11.8191, 12.541, 113.713, -48.8716
7.42439, 104, 39.6407, 32.4249, 11.8215, 12.5436, 113.714, -48.8696
7.43129, 105, 39.6411, 32.4278, 11.8221, 12.5441, 113.714, -48.8691
7.43931, 105, 39.6414, 32.4321, 11.8231, 12.5445, 113.714, -48.8685
7.4485, 105, 39.6404, 32.436, 11.8243, 12.5449, 113.714, -48.8684
7.45544, 105, 39.6399, 32.4369, 11.8247, 12.5449, 113.714, -48.8684
7.46338, 105, 39.6387, 32.4384, 11.8254, 12.545, 113.714, -48.8686
7.47135, 105, 39.6373, 32.4397, 11.8259, 12.545, 113.714, -48.8688
7.47933, 105, 39.6361, 32.4408, 11.8264, 12.5451, 113.714, -48.8691
7.48731, 105, 39.6354, 32.442, 11.827, 12.5451, 113.714, -48.8694
7.4969, 105, 39.6348, 32.4437, 11.8279, 12.5451, 113.714, -48.8697
7.50496, 105, 39.6345, 32.4447, 11.8285, 12.5452, 113.714, -48.87
7.51131, 105, 39.6344, 32.4451, 11.8287, 12.5452, 113.714, -48.8701
7.52109, 105, 39.634, 32.4462, 11.8292, 12.5451, 113.714, -48.8705
7.52732, 105, 39.6339, 32.4465, 11.8294, 12.5451, 113.714, -48.8705
7.53532, 105, 39.6336, 32.4469, 11.8297, 12.5451, 113.714, -48.8708
7.54492, 105, 39.6334, 32.4471, 11.8299, 12.5452, 113.714, -48.871
7.55133, 105, 39.6331, 32.4472, 11.8301, 12.5451, 113.714, -48.8711
