hehonglu123/Motion-Primitive-Planning/ILC/recorded_data/realrobot/from_NX/iteration_30/run_4.csv
timestamp, cmd_num, J1, J2, J3, J4, J5, J6
0.000401, -1, 39.6292, 32.447, 11.8316, 12.5436, 113.713, -48.8735
0.007814, -1, 39.6292, 32.447, 11.8316, 12.5436, 113.713, -48.8735
0.010451, -1, 39.6292, 32.447, 11.8316, 12.5436, 113.713, -48.8735
0.033875, -1, 39.6292, 32.447, 11.8316, 12.5436, 113.713, -48.8735
0.035331, -1, 39.6292, 32.447, 11.8316, 12.5436, 113.713, -48.8735
0.037689, -1, 39.6292, 32.447, 11.8316, 12.5436, 113.713, -48.8735
0.039439, -1, 39.6292, 32.447, 11.8316, 12.5436, 113.713, -48.8735
0.047541, -1, 39.6292, 32.4471, 11.8316, 12.5436, 113.713, -48.8735
0.055472, -1, 39.6291, 32.447, 11.8316, 12.5436, 113.713, -48.8735
0.063476, -1, 39.6278, 32.4468, 11.8316, 12.5436, 113.713, -48.8735
0.202894, -1, 38.3382, 31.7896, 12.0849, 12.5547, 113.04, -50.7162
0.204539, -1, 38.2512, 31.744, 12.1044, 12.5559, 112.991, -50.7162
0.205724, -1, 38.2512, 31.744, 12.1044, 12.5559, 112.991, -50.7162
0.207871, -1, 38.1626, 31.6977, 12.1239, 12.5571, 112.941, -50.8424
0.209078, -1, 38.1626, 31.6977, 12.1239, 12.5571, 112.941, -50.8424
0.210356, -1, 38.1626, 31.6977, 12.1239, 12.5571, 112.941, -50.8424
0.212403, -1, 38.0727, 31.6508, 12.1434, 12.5584, 112.891, -50.9694
0.219224, -1, 37.9814, 31.6033, 12.1629, 12.5608, 112.789, -51.2261
0.220587, -1, 37.889, 31.5554, 12.1823, 12.5608, 112.789, -51.2261
0.221976, -1, 37.889, 31.5554, 12.1823, 12.5608, 112.789, -51.2261
0.223957, -1, 37.7957, 31.5071, 12.2017, 12.562, 112.738, -51.3551
0.226491, -1, 37.7957, 31.5071, 12.2017, 12.562, 112.738, -51.3551
0.228569, -1, 37.7015, 31.4585, 12.2211, 12.5632, 112.688, -51.4844
0.229785, -1, 37.7015, 31.4585, 12.2211, 12.5632, 112.688, -51.4844
0.231788, -1, 37.6066, 31.4097, 12.2405, 12.5645, 112.636, -51.6141
0.233092, -1, 37.6066, 31.4097, 12.2405, 12.5645, 112.636, -51.6141
0.234362, -1, 37.6066, 31.4097, 12.2405, 12.5645, 112.636, -51.6141
0.236365, -1, 37.5112, 31.3608, 12.2599, 12.5657, 112.585, -51.7439
0.237649, -1, 37.5112, 31.3608, 12.2599, 12.5657, 112.585, -51.7439
0.240402, -1, 37.4155, 31.3118, 12.2792, 12.567, 112.534, -51.8737
0.241723, -1, 37.4155, 31.3118, 12.2792, 12.567, 112.534, -51.8737
0.243774, -1, 37.3196, 31.2628, 12.2987, 12.5682, 112.482, -52.0035
0.250279, -1, 37.2235, 31.2138, 12.3181, 12.5693, 112.431, -52.1333
0.255658, -1, 37.0313, 31.116, 12.3569, 12.5719, 112.328, -52.3931
0.264506, -1, 36.839, 31.0182, 12.3956, 12.5745, 112.225, -52.6533
0.271728, -1, 36.6473, 30.9204, 12.4344, 12.5771, 112.122, -52.9139
0.279862, -1, 36.4556, 30.8227, 12.4733, 12.5797, 112.019, -53.1742
0.288604, -1, 36.264, 30.725, 12.5122, 12.5822, 111.916, -53.4346
0.296044, -1, 36.0724, 30.6271, 12.5511, 12.5848, 111.814, -53.695
0.304039, -1, 35.8809, 30.5292, 12.59, 12.5874, 111.711, -53.9557
0.312843, -1, 35.6892, 30.4311, 12.6289, 12.5899, 111.607, -54.216
0.320043, -1, 35.4973, 30.333, 12.6677, 12.5925, 111.505, -54.4763
0.32886, -1, 35.3051, 30.2347, 12.7065, 12.5951, 111.401, -54.7368
0.336047, -1, 35.2089, 30.1856, 12.7454, 12.5977, 111.298, -54.9976
0.344274, -1, 35.0164, 30.0872, 12.7649, 12.6003, 111.195, -55.2583
0.352893, -1, 34.8241, 29.9887, 12.8038, 12.6016, 111.144, -55.5188
0.360327, -1, 34.6318, 29.8902, 12.8426, 12.6041, 111.041, -55.7798
0.367464, -1, 34.4395, 29.7918, 12.8815, 12.6067, 110.938, -55.9101
0.375528, -1, 34.2475, 29.6934, 12.9205, 12.6093, 110.835, -56.1712
0.383468, -1, 34.0555, 29.5952, 12.9594, 12.6119, 110.732, -56.4321
0.391463, -1, 33.8638, 29.4969, 12.9984, 12.6145, 110.629, -56.6928
0.399511, -1, 33.6721, 29.3985, 13.0372, 12.6172, 110.525, -56.9536
0.407464, -1, 33.4801, 29.3002, 13.0761, 12.6198, 110.422, -57.2148
0.415466, -1, 33.2877, 29.2017, 13.1151, 12.6224, 110.319, -57.4759
0.425679, -1, 32.9986, 29.0538, 13.1733, 12.6262, 110.164, -57.8674
0.431482, -1, 32.9022, 29.0045, 13.1928, 12.6276, 110.113, -57.9979
0.439463, -1, 32.709, 28.9059, 13.2318, 12.6302, 110.01, -58.2592
0.449824, -1, 32.4189, 28.7579, 13.29, 12.6343, 109.855, -58.651
0.455455, -1, 32.322, 28.7085, 13.3095, 12.6356, 109.804, -58.7814
0.466162, -1, 32.1279, 28.5604, 13.3679, 12.6396, 109.649, -59.173
0.471627, -1, 31.9339, 28.511, 13.3873, 12.641, 109.598, -59.3037
0.481353, -1, 31.7402, 28.4122, 13.4263, 12.6436, 109.443, -59.6958
0.487461, -1, 31.5466, 28.3135, 13.4653, 12.6465, 109.392, -59.8264
0.498274, -1, 31.257, 28.1657, 13.5237, 12.6507, 109.237, -60.2183
0.503475, -1, 31.1607, 28.1165, 13.5433, 12.6521, 109.186, -60.349
0.51157, -1, 30.9682, 28.018, 13.5823, 12.6549, 109.082, -60.6105
0.519457, -1, 30.7761, 27.9194, 13.6213, 12.6577, 108.979, -60.8719
0.656586, -1, 27.4922, 26.24, 14.2838, 12.7019, 107.223, -65.3198
0.657902, -1, 27.4922, 26.24, 14.2838, 12.7019, 107.223, -65.3198
0.660049, -1, 27.3962, 26.1905, 14.3033, 12.7031, 107.172, -65.4505
0.662853, -1, 27.3001, 26.1409, 14.3228, 12.7043, 107.12, -65.5812
0.664315, -1, 27.3001, 26.1409, 14.3228, 12.7043, 107.12, -65.5812
0.665507, -1, 27.3001, 26.1409, 14.3228, 12.7043, 107.12, -65.5812
0.66753, -1, 27.204, 26.0914, 14.3423, 12.7055, 107.068, -65.7121
0.671195, -1, 27.1078, 26.042, 14.3618, 12.7066, 107.016, -65.843
0.672443, -1, 27.1078, 26.042, 14.3618, 12.7066, 107.016, -65.843
0.673733, -1, 27.1078, 26.042, 14.3618, 12.7066, 107.016, -65.843
0.675708, -1, 27.0115, 25.9925, 14.3812, 12.7078, 106.965, -65.9739
0.677, -1, 27.0115, 25.9925, 14.3812, 12.7078, 106.965, -65.9739
0.679884, -1, 26.9152, 25.9431, 14.4007, 12.709, 106.913, -66.1048
0.681164, -1, 26.9152, 25.9431, 14.4007, 12.709, 106.913, -66.1048
0.683386, -1, 26.8189, 25.8937, 14.4202, 12.7101, 106.862, -66.2359
0.689256, -1, 26.7224, 25.8443, 14.4397, 12.7113, 106.81, -66.3667
0.69111, -1, 26.6258, 25.7948, 14.4592, 12.7124, 106.758, -66.4975
0.692556, -1, 26.6258, 25.7948, 14.4592, 12.7124, 106.758, -66.4975
0.69375, -1, 26.6258, 25.7948, 14.4592, 12.7124, 106.758, -66.4975
0.695801, -1, 26.5291, 25.7454, 14.4786, 12.7135, 106.706, -66.6283
0.697009, -1, 26.5291, 25.7454, 14.4786, 12.7135, 106.706, -66.6283
0.698831, -1, 26.5291, 25.7454, 14.4786, 12.7135, 106.706, -66.7591
0.705457, -1, 26.3354, 25.6466, 14.5175, 12.7158, 106.603, -66.8899
0.711649, -1, 26.1414, 25.5478, 14.5565, 12.7181, 106.5, -67.1519
0.719533, -1, 25.9473, 25.4488, 14.5954, 12.7203, 106.397, -67.4138
0.728393, -1, 25.753, 25.35, 14.6344, 12.7226, 106.294, -67.6753
0.735498, -1, 25.559, 25.2513, 14.6735, 12.7249, 106.191, -67.9369
0.743497, -1, 25.3651, 25.1526, 14.7124, 12.7272, 106.087, -68.1986
0.752406, -1, 25.1715, 25.0539, 14.7514, 12.7295, 105.984, -68.4605
0.759732, -1, 24.9784, 24.9551, 14.7905, 12.7319, 105.881, -68.7221
0.767709, -1, 24.7852, 24.8562, 14.8295, 12.7342, 105.778, -68.9839
0.776588, -1, 24.5924, 24.7574, 14.8684, 12.7366, 105.675, -69.2455
0.783793, -1, 24.4, 24.6585, 14.9074, 12.739, 105.571, -69.5074
0.791906, -1, 24.2076, 24.5596, 14.9465, 12.7414, 105.468, -69.7688
0.800772, -1, 24.015, 24.4608, 14.9854, 12.7437, 105.365, -70.0302
0.807989, -1, 23.8222, 24.3619, 15.0244, 12.7461, 105.261, -70.2918
0.816065, -1, 23.6292, 24.263, 15.0633, 12.7486, 105.158, -70.5536
0.825004, -1, 23.436, 24.1642, 15.1023, 12.7509, 105.054, -70.8154
0.832036, -1, 23.2423, 24.0653, 15.1412, 12.7533, 104.951, -71.077
0.840061, -1, 23.1454, 23.9663, 15.1801, 12.7557, 104.848, -71.3388
0.848946, -1, 22.9515, 23.9169, 15.1995, 12.757, 104.744, -71.6007
0.855461, -1, 22.7575, 23.8181, 15.2385, 12.7594, 104.693, -71.7317
0.863498, -1, 22.5637, 23.7194, 15.2775, 12.7619, 104.589, -71.9934
0.871444, -1, 22.3701, 23.6208, 15.3165, 12.7643, 104.486, -72.2547
0.879485, -1, 22.1768, 23.522, 15.3553, 12.7669, 104.382, -72.516
0.887499, -1, 21.9837, 23.4233, 15.3943, 12.7695, 104.279, -72.7776
0.895455, -1, 21.7908, 23.3246, 15.4333, 12.7721, 104.176, -73.0392
0.903511, -1, 21.5985, 23.2258, 15.4723, 12.7747, 104.073, -73.3006
0.911439, -1, 21.4064, 23.1271, 15.5111, 12.7774, 103.97, -73.562
0.919443, -1, 21.2141, 23.0284, 15.5502, 12.78, 103.867, -73.8236
0.927521, -1, 21.0217, 22.9297, 15.5891, 12.7827, 103.763, -74.0851
0.935469, -1, 20.8292, 22.8311, 15.628, 12.7854, 103.66, -74.3463
0.943447, -1, 20.6367, 22.7325, 15.667, 12.7881, 103.557, -74.6074
0.951536, -1, 20.4439, 22.6339, 15.7058, 12.7908, 103.454, -74.8687
0.959451, -1, 20.2505, 22.5352, 15.7447, 12.7935, 103.351, -75.1302
0.967441, -1, 20.0568, 22.4364, 15.7837, 12.7962, 103.248, -75.3911
0.975523, -1, 19.8633, 22.3378, 15.8224, 12.799, 103.145, -75.6522
0.985169, -1, 19.6696, 22.2391, 15.8612, 12.8017, 103.042, -75.9135
0.991452, -1, 19.4761, 22.1405, 15.9002, 12.8044, 102.939, -76.1749
0.999525, -1, 19.2828, 22.0419, 15.939, 12.8071, 102.836, -76.4359
1.00744, -1, 19.0899, 21.9432, 15.978, 12.8099, 102.733, -76.6966
1.01549, -1, 18.8972, 21.8446, 16.0168, 12.8127, 102.63, -76.9574
1.02352, -1, 18.7049, 21.7459, 16.0556, 12.8154, 102.527, -77.2185
1.03146, -1, 18.5129, 21.6472, 16.0944, 12.8182, 102.424, -77.4794
1.03951, -1, 18.3211, 21.5487, 16.1334, 12.8208, 102.321, -77.74
1.04749, -1, 18.1292, 21.4502, 16.1721, 12.8235, 102.218, -78.0007
1.05545, -1, 17.9374, 21.3517, 16.211, 12.8261, 102.115, -78.2616
1.06351, -1, 17.7454, 21.2533, 16.2499, 12.8286, 102.012, -78.5223
1.07146, -1, 17.5532, 21.155, 16.2887, 12.8311, 101.91, -78.7827
1.07945, -1, 17.3607, 21.0567, 16.3276, 12.8336, 101.806, -79.0431
1.08751, -1, 17.1677, 20.9583, 16.3664, 12.8361, 101.703, -79.3038
1.09545, -1, 16.9746, 20.8601, 16.4051, 12.8385, 101.601, -79.5646
1.10347, -1, 16.7816, 20.7619, 16.444, 12.8408, 101.498, -79.825
1.11151, -1, 16.5885, 20.6637, 16.4827, 12.8431, 101.395, -80.0856
1.11945, -1, 16.3956, 20.5654, 16.5214, 12.8455, 101.293, -80.3462
1.12744, -1, 16.203, 20.4671, 16.5602, 12.8478, 101.19, -80.6069
1.13551, -1, 16.0109, 20.3688, 16.5989, 12.8502, 101.087, -80.8672
1.14363, -1, 15.819, 20.2703, 16.6377, 12.8525, 100.985, -81.1272
1.15156, -1, 15.6274, 20.1718, 16.6763, 12.8548, 100.882, -81.3872
1.15944, -1, 15.4362, 20.0734, 16.7149, 12.8571, 100.779, -81.6474
1.16818, -1, 15.245, 19.9751, 16.7536, 12.8595, 100.677, -81.9075
1.17575, -1, 15.0538, 19.8768, 16.7924, 12.8617, 100.574, -82.1673
1.18357, -1, 14.8625, 19.7786, 16.831, 12.864, 100.472, -82.4272
1.19227, -1, 14.6712, 19.6805, 16.8697, 12.8663, 100.369, -82.6873
1.19987, -1, 14.4796, 19.5824, 16.9084, 12.8686, 100.266, -82.9473
1.20755, -1, 14.2876, 19.4843, 16.9471, 12.8709, 100.164, -83.2068
1.21638, -1, 14.0953, 19.3863, 16.9858, 12.8731, 100.061, -83.4662
1.22406, -1, 13.9029, 19.2884, 17.0244, 12.8755, 99.9585, -83.7258
1.23251, -1, 13.7105, 19.1906, 17.063, 12.8778, 99.8563, -83.9856
1.24028, -1, 13.5181, 19.0928, 17.1017, 12.8801, 99.7536, -84.2449
1.24831, -1, 13.326, 18.9949, 17.1403, 12.8824, 99.6512, -84.5042
1.25553, -1, 13.1342, 18.897, 17.1788, 12.8847, 99.5491, -84.7635
1.2645, -1, 12.9428, 18.7991, 17.2175, 12.8871, 99.4466, -85.0231
1.27236, -1, 12.7517, 18.7011, 17.2561, 12.8894, 99.3442, -85.2822
1.27971, -1, 12.5607, 18.6032, 17.2946, 12.8919, 99.242, -85.5411
1.28792, -1, 12.3703, 18.5054, 17.3331, 12.8943, 99.1397, -85.7999
1.29664, -1, 12.1801, 18.4076, 17.3716, 12.8966, 99.0375, -86.0589
1.30389, -1, 11.9898, 18.3099, 17.4101, 12.899, 98.9355, -86.3179
1.31229, -1, 11.7994, 18.2123, 17.4488, 12.9014, 98.8334, -86.5764
1.31997, -1, 11.6087, 18.1146, 17.4873, 12.9039, 98.7316, -86.8349
1.32801, -1, 11.4178, 18.017, 17.5258, 12.9064, 98.6297, -87.0936
1.3361, -1, 11.2267, 17.9194, 17.5644, 12.9087, 98.5277, -87.3523
1.34397, -1, 11.131, 17.8707, 17.5837, 12.91, 98.4259, -87.6105
1.35203, -1, 10.9395, 17.7732, 17.6221, 12.9124, 98.3239, -87.8687
1.35948, -1, 10.748, 17.6758, 17.6606, 12.9149, 98.2729, -87.9978
1.36743, -1, 10.5564, 17.5783, 17.699, 12.9175, 98.171, -88.2561
1.37544, -1, 10.3651, 17.4808, 17.7374, 12.92, 98.0692, -88.5145
1.38352, -1, 10.1741, 17.3833, 17.7759, 12.9224, 97.9673, -88.7724
1.39144, -1, 9.98351, 17.2857, 17.8143, 12.9252, 97.8655, -89.0306
1.39943, -1, 9.79322, 17.1881, 17.8526, 12.9277, 97.7635, -89.2888
1.40743, -1, 9.60332, 17.0906, 17.891, 12.9304, 97.6615, -89.547
1.41544, -1, 9.41396, 16.9933, 17.9293, 12.9332, 97.5598, -89.8046
1.42485, -1, 9.12988, 16.8472, 17.9869, 12.9372, 97.4068, -90.1909
1.43145, -1, 9.0352, 16.7986, 18.006, 12.9385, 97.3559, -90.3197
1.43945, -1, 8.84576, 16.7014, 18.0443, 12.9412, 97.2544, -90.5773
1.44901, -1, 8.5613, 16.5556, 18.1019, 12.9452, 97.1018, -90.9633
1.45544, -1, 8.46648, 16.5071, 18.1211, 12.9465, 97.051, -91.0918
1.46343, -1, 8.2765, 16.4101, 18.1594, 12.9492, 96.9497, -91.3489
1.4715, -1, 8.086, 16.3132, 18.1977, 12.9518, 96.8479, -91.6062
1.48106, -1, 7.89552, 16.2163, 18.236, 12.9545, 96.7464, -91.8634
1.48743, -1, 7.70501, 16.1194, 18.2742, 12.9572, 96.6451, -92.1202
1.4955, -1, 7.51445, 16.0225, 18.3126, 12.9597, 96.5435, -92.3768
1.50343, -1, 7.32419, 15.9256, 18.3508, 12.9624, 96.4421, -92.6336
1.51143, -1, 7.13418, 15.8287, 18.3889, 12.9649, 96.341, -92.8905
1.5196, -1, 6.94454, 15.7317, 18.4272, 12.9675, 96.2395, -93.1469
1.52844, -1, 6.75538, 15.6348, 18.4654, 12.9701, 96.1386, -93.4034
1.53645, -1, 6.56671, 15.538, 18.5034, 12.9726, 96.0377, -93.6597
1.5445, -1, 6.37839, 15.4412, 18.5415, 12.9752, 95.9366, -93.9163
1.55247, -1, 6.19024, 15.3444, 18.5797, 12.9777, 95.8357, -94.1725
1.55949, -1, 6.00211, 15.2478, 18.6178, 12.9801, 95.7348, -94.4283
1.56742, -1, 5.81374, 15.1511, 18.6561, 12.9824, 95.6337, -94.6843
1.57544, -1, 5.62531, 15.0544, 18.6942, 12.9848, 95.5329, -94.9403
1.58353, -1, 5.43671, 14.9579, 18.7322, 12.9871, 95.4322, -95.196
1.59143, -1, 5.24778, 14.8614, 18.7704, 12.9894, 95.3314, -95.4515
1.59943, -1, 5.05839, 14.765, 18.8085, 12.9917, 95.2309, -95.707
1.60751, -1, 4.86907, 14.6687, 18.8465, 12.994, 95.1301, -95.9625
1.61545, -1, 4.6796, 14.5723, 18.8846, 12.9962, 95.0292, -96.218
1.62343, -1, 4.49023, 14.476, 18.9226, 12.9983, 94.9286, -96.473
1.6315, -1, 4.3012, 14.3796, 18.9606, 13.0006, 94.8278, -96.7278
1.63942, -1, 4.11231, 14.2832, 18.9986, 13.0028, 94.7269, -96.9829
1.64763, -1, 3.92392, 14.1869, 19.0366, 13.0051, 94.6263, -97.2379
1.65543, -1, 3.73618, 14.0907, 19.0745, 13.0073, 94.5253, -97.4928
1.66343, -1, 3.54882, 13.9945, 19.1125, 13.0097, 94.4246, -97.7476
1.67152, -1, 3.36183, 13.8984, 19.1503, 13.012, 94.3241, -98.0023
1.67949, -1, 3.17484, 13.8024, 19.1881, 13.0142, 94.2233, -98.2571
1.68757, -1, 2.98786, 13.7063, 19.2261, 13.0164, 94.1226, -98.5118
1.69559, -1, 2.80087, 13.6102, 19.264, 13.0187, 94.0222, -98.7659
1.70353, -1, 2.6137, 13.5142, 19.3019, 13.021, 93.9215, -99.02
1.71153, -1, 2.42634, 13.4183, 19.3398, 13.0233, 93.8211, -99.2741
1.7196, -1, 2.23867, 13.3225, 19.3775, 13.0255, 93.7209, -99.5284
1.72745, -1, 2.05058, 13.2267, 19.4154, 13.0277, 93.6205, -99.7822
1.73544, -1, 1.86256, 13.1308, 19.4533, 13.03, 93.5205, -100.036
1.74353, -1, 1.67434, 13.0349, 19.491, 13.0323, 93.4206, -100.289
1.7515, -1, 1.48615, 12.9391, 19.5288, 13.0345, 93.3204, -100.543
1.75952, -1, 1.29818, 12.8432, 19.5666, 13.0368, 93.2204, -100.797
1.76773, -1, 1.11056, 12.7474, 19.6042, 13.0391, 93.1204, -101.049
1.77581, -1, 0.923507, 12.6518, 19.642, 13.0416, 93.0204, -101.303
1.78375, -1, 0.736934, 12.5562, 19.6797, 13.0439, 92.9206, -101.556
1.79193, -1, 0.550843, 12.4606, 19.7172, 13.0463, 92.8208, -101.809
1.80053, -1, 0.365, 12.3652, 19.7549, 13.0487, 92.721, -102.061
1.8079, -1, 0.179437, 12.2697, 19.7926, 13.0512, 92.6216, -102.314
1.81607, -1, -0.00592161, 12.1744, 19.8301, 13.0537, 92.522, -102.567
1.82398, -1, -0.191506, 12.0791, 19.8678, 13.0561, 92.4224, -102.819
1.83202, -1, -0.377245, 11.9839, 19.9054, 13.0585, 92.323, -103.072
1.84008, -1, -0.563365, 11.8887, 19.9429, 13.061, 92.2235, -103.324
1.84797, -1, -0.656485, 11.8412, 19.9617, 13.0622, 92.124, -103.576
1.85601, -1, -0.842897, 11.7463, 19.9993, 13.0647, 92.0742, -103.828
1.86348, -1, -1.02952, 11.6512, 20.0367, 13.0672, 91.9751, -103.954
1.87142, -1, -1.21636, 11.5561, 20.0742, 13.0698, 91.8756, -104.205
1.87941, -1, -1.40331, 11.4611, 20.1118, 13.0722, 91.7763, -104.457
1.88747, -1, -1.59, 11.366, 20.1492, 13.0748, 91.6773, -104.708
1.8955, -1, -1.77642, 11.2709, 20.1866, 13.0774, 91.578, -104.96
1.90343, -1, -1.96252, 11.1759, 20.224, 13.08, 91.4789, -105.211
1.91142, -1, -2.14796, 11.081, 20.2614, 13.0826, 91.3798, -105.462
1.91944, -1, -2.33284, 10.986, 20.2987, 13.0853, 91.2806, -105.713
1.92886, -1, -2.60969, 10.8438, 20.3548, 13.0893, 91.132, -106.09
1.93542, -1, -2.70169, 10.7964, 20.3734, 13.0906, 91.0824, -106.216
1.94344, -1, -2.88554, 10.7016, 20.4107, 13.0933, 90.9833, -106.466
1.95299, -1, -3.16163, 10.5595, 20.4668, 13.0972, 90.835, -106.842
1.96116, -1, -3.34594, 10.465, 20.5039, 13.0998, 90.736, -107.093
1.96742, -1, -3.43821, 10.4177, 20.5225, 13.1011, 90.6866, -107.218
1.97549, -1, -3.62295, 10.3234, 20.5598, 13.1036, 90.5878, -107.468
1.98516, -1, -3.80786, 10.229, 20.5971, 13.1062, 90.4889, -107.843
1.99142, -1, -3.99302, 10.1347, 20.6344, 13.1086, 90.3901, -107.968
1.99949, -1, -4.17836, 10.0404, 20.6716, 13.1111, 90.2916, -108.218
2.00741, -1, -4.36404, 9.9461, 20.7087, 13.1135, 90.193, -108.468
2.01568, -1, -4.5495, 9.85174, 20.746, 13.1159, 90.0944, -108.718
2.02454, -1, -4.73458, 9.75746, 20.7832, 13.1182, 89.996, -108.967
2.03142, -1, -4.91932, 9.66327, 20.8203, 13.1206, 89.8975, -109.217
2.04023, -1, -5.10349, 9.56924, 20.8574, 13.123, 89.799, -109.466
2.04741, -1, -5.287, 9.47513, 20.8946, 13.1253, 89.7007, -109.715
2.05543, -1, -5.47018, 9.38113, 20.9316, 13.1277, 89.6022, -109.964
2.06422, -1, -5.65291, 9.2872, 20.9687, 13.1299, 89.5039, -110.213
2.07141, -1, -5.8354, 9.19324, 21.0058, 13.1322, 89.4058, -110.462
2.07942, -1, -6.01773, 9.09936, 21.0428, 13.1346, 89.3077, -110.711
2.08823, -1, -6.20022, 9.00552, 21.0798, 13.1368, 89.2096, -110.959
2.09541, -1, -6.38307, 8.9118, 21.1169, 13.1391, 89.1118, -111.207
2.10342, -1, -6.56608, 8.81816, 21.1538, 13.1412, 89.0138, -111.456
2.11222, -1, -6.74939, 8.72452, 21.1906, 13.1433, 88.9157, -111.704
2.11944, -1, -6.93316, 8.63098, 21.2276, 13.1455, 88.818, -111.952
2.12742, -1, -7.11713, 8.5374, 21.2645, 13.1476, 88.72, -112.2
2.13622, -1, -7.30145, 8.44385, 21.3014, 13.1497, 88.6222, -112.447
2.14341, -1, -7.48544, 8.35021, 21.3383, 13.1519, 88.5246, -112.695
2.15148, -1, -7.66913, 8.2567, 21.3751, 13.154, 88.4269, -112.943
2.16037, -1, -7.85241, 8.16325, 21.4119, 13.1562, 88.3294, -113.19
2.16741, -1, -8.03532, 8.06981, 21.4488, 13.1585, 88.2322, -113.437
2.1757, -1, -8.21755, 7.97648, 21.4855, 13.1607, 88.1347, -113.684
2.1843, -1, -8.39913, 7.8832, 21.5223, 13.163, 88.0373, -113.931
2.19155, -1, -8.58032, 7.78992, 21.5592, 13.1652, 87.94, -114.178
2.19982, -1, -8.76124, 7.69672, 21.596, 13.1675, 87.8425, -114.424
2.20831, -1, -8.94191, 7.60361, 21.6327, 13.1697, 87.745, -114.671
2.21552, -1, -9.12276, 7.51058, 21.6695, 13.172, 87.6479, -114.917
2.22405, -1, -9.30389, 7.41769, 21.7062, 13.1743, 87.5507, -115.164
2.23249, -1, -9.48543, 7.3249, 21.7429, 13.1764, 87.4534, -115.41
2.23942, -1, -9.66726, 7.23204, 21.7796, 13.1786, 87.3565, -115.656
2.24822, -1, -9.84931, 7.13934, 21.8162, 13.1809, 87.2592, -115.902
2.25637, -1, -10.0317, 7.04661, 21.8527, 13.183, 87.162, -116.148
2.26351, -1, -10.2144, 6.95381, 21.8893, 13.1853, 87.065, -116.394
2.2724, -1, -10.397, 6.86102, 21.9259, 13.1875, 86.9677, -116.639
2.28071, -1, -10.5794, 6.76828, 21.9625, 13.1897, 86.8706, -116.885
2.28786, -1, -10.7615, 6.67561, 21.9991, 13.192, 86.7738, -117.13
2.29663, -1, -10.9431, 6.58297, 22.0354, 13.1945, 86.6768, -117.376
2.30382, -1, -11.1241, 6.49035, 22.0719, 13.1969, 86.58, -117.621
2.31195, -1, -11.3042, 6.39785, 22.1085, 13.1993, 86.4836, -117.866
2.32078, -1, -11.4841, 6.30533, 22.1449, 13.2018, 86.3868, -118.11
2.32898, -1, -11.6635, 6.21289, 22.1813, 13.2042, 86.29, -118.355
2.33653, -1, -11.8427, 6.12051, 22.2179, 13.2067, 86.1935, -118.6
2.3448, -1, -11.9323, 6.07437, 22.2543, 13.2091, 86.0968, -118.844
2.35196, -1, -12.1115, 5.98216, 22.2725, 13.2103, 86.0486, -119.088
2.3601, -1, -12.291, 5.8901, 22.3089, 13.2141, 85.9041, -119.332
2.36739, -1, -12.4709, 5.79811, 22.3453, 13.2153, 85.8559, -119.455
2.37541, -1, -12.6511, 5.70608, 22.3815, 13.2177, 85.7595, -119.699
2.38345, -1, -12.8317, 5.61411, 22.4179, 13.2202, 85.6633, -119.942
2.39141, -1, -13.0127, 5.52223, 22.4543, 13.2227, 85.5676, -120.186
2.39945, -1, -13.1939, 5.4302, 22.4905, 13.2252, 85.4715, -120.43
2.4074, -1, -13.3751, 5.33818, 22.5268, 13.2276, 85.3756, -120.673
2.41541, -1, -13.556, 5.24627, 22.563, 13.2301, 85.28, -120.917
2.42625, -1, -13.8265, 5.10845, 22.6172, 13.2339, 85.1361, -121.281
2.43141, -1, -13.9164, 5.06252, 22.6353, 13.2352, 85.0882, -121.403
2.4394, -1, -14.0955, 4.97074, 22.6715, 13.2378, 84.9928, -121.646
2.44894, -1, -14.3631, 4.83318, 22.7256, 13.2417, 84.8492, -122.01
2.45544, -1, -14.4521, 4.78737, 22.7437, 13.2429, 84.8014, -122.131
2.4634, -1, -14.6299, 4.69575, 22.78, 13.2454, 84.706, -122.373
2.47416, -1, -14.8076, 4.60423, 22.8161, 13.2492, 84.5623, -122.737
2.4794, -1, -14.9852, 4.51275, 22.8522, 13.2505, 84.5145, -122.858
2.4884, -1, -15.1631, 4.4214, 22.8884, 13.2529, 84.4189, -123.1
2.49545, -1, -15.3413, 4.33013, 22.9245, 13.2553, 84.3232, -123.342
2.5034, -1, -15.52, 4.23881, 22.9605, 13.2577, 84.2276, -123.584
2.51141, -1, -15.699, 4.14756, 22.9966, 13.26, 84.1321, -123.826
2.51946, -1, -15.8782, 4.05633, 23.0325, 13.2623, 84.0366, -124.068
2.52745, -1, -16.0575, 3.96509, 23.0685, 13.2645, 83.9411, -124.309
2.53541, -1, -16.2373, 3.87378, 23.1045, 13.2666, 83.8459, -124.55
2.54346, -1, -16.4169, 3.78256, 23.1404, 13.2688, 83.7502, -124.792
2.55141, -1, -16.5961, 3.69137, 23.1762, 13.271, 83.6548, -125.033
2.55946, -1, -16.7749, 3.60026, 23.2121, 13.2733, 83.5596, -125.275
2.56739, -1, -16.9529, 3.50923, 23.248, 13.2756, 83.4641, -125.515
2.57541, -1, -17.1301, 3.41823, 23.2838, 13.2778, 83.3687, -125.756
2.58346, -1, -17.3068, 3.32732, 23.3197, 13.28, 83.2737, -125.997
2.59141, -1, -17.4832, 3.23648, 23.3554, 13.2821, 83.1785, -126.237
2.5994, -1, -17.6594, 3.14576, 23.3912, 13.2843, 83.0836, -126.478
2.60746, -1, -17.8354, 3.05515, 23.4272, 13.2865, 82.9889, -126.718
2.61541, -1, -18.0115, 2.96457, 23.463, 13.2885, 82.894, -126.958
2.62343, -1, -18.1878, 2.8742, 23.4986, 13.2907, 82.7992, -127.198
2.63153, -1, -18.3645, 2.78378, 23.5344, 13.2928, 82.7047, -127.438
2.63939, -1, -18.5417, 2.69337, 23.5701, 13.2948, 82.6099, -127.678
2.64742, -1, -18.7193, 2.60302, 23.6057, 13.2969, 82.5152, -127.917
2.65544, -1, -18.8971, 2.51268, 23.6415, 13.2989, 82.4209, -128.157
2.6634, -1, -19.0753, 2.42217, 23.6771, 13.3009, 82.3264, -128.397
2.67161, -1, -19.2535, 2.33177, 23.7127, 13.3029, 82.232, -128.636
2.67943, -1, -19.4316, 2.24138, 23.7483, 13.3049, 82.138, -128.875
2.68748, -1, -19.6089, 2.151, 23.7839, 13.3071, 82.0437, -129.114
2.69581, -1, -19.7857, 2.06066, 23.8193, 13.3093, 81.9495, -129.353
2.7035, -1, -19.9619, 1.97043, 23.8548, 13.3115, 81.8554, -129.592
2.71151, -1, -20.1373, 1.88021, 23.8904, 13.3136, 81.7615, -129.831
2.71997, -1, -20.3123, 1.79007, 23.9259, 13.3159, 81.6674, -130.069
2.7285, -1, -20.4871, 1.69997, 23.9614, 13.3181, 81.5734, -130.307
2.73541, -1, -20.6616, 1.60996, 23.997, 13.3203, 81.4796, -130.546
2.7441, -1, -20.8362, 1.52002, 24.0324, 13.3224, 81.3856, -130.784
2.75246, -1, -21.011, 1.43022, 24.0678, 13.3246, 81.2919, -131.022
2.7595, -1, -21.1862, 1.34046, 24.1034, 13.3268, 81.1982, -131.26
2.76833, -1, -21.3617, 1.25068, 24.1387, 13.329, 81.1043, -131.497
2.77559, -1, -21.5375, 1.16102, 24.174, 13.3311, 81.0104, -131.735
2.78369, -1, -21.7137, 1.07139, 24.2095, 13.3333, 80.9167, -131.973
2.7918, -1, -21.89, 0.981747, 24.2449, 13.3355, 80.8229, -132.21
2.79983, -1, -22.0665, 0.892143, 24.2803, 13.3377, 80.729, -132.447
2.80846, -1, -22.2431, 0.802572, 24.3157, 13.3399, 80.6356, -132.685
2.81594, -1, -22.4194, 0.713101, 24.351, 13.3421, 80.5418, -132.922
2.8239, -1, -22.5952, 0.623572, 24.3861, 13.3444, 80.4482, -133.159
2.83251, -1, -22.7706, 0.534131, 24.4214, 13.3467, 80.3548, -133.395
2.84001, -1, -22.9449, 0.444724, 24.4566, 13.3491, 80.2611, -133.632
2.84798, -1, -23.0318, 0.400009, 24.4917, 13.3516, 80.1675, -133.869
2.85641, -1, -23.2922, 0.265973, 24.5269, 13.354, 80.0743, -134.106
2.86398, -1, -23.3788, 0.221311, 24.5445, 13.3552, 80.0275, -134.224
2.87138, -1, -23.5519, 0.132116, 24.5796, 13.3576, 79.9341, -134.46
2.87944, -1, -23.7252, 0.0429892, 24.6147, 13.36, 79.8407, -134.696
2.8874, -1, -23.8986, -0.0460566, 24.6499, 13.3624, 79.7477, -134.932
2.89538, -1, -24.0721, -0.135002, 24.6849, 13.3649, 79.6544, -135.168
2.90344, -1, -24.2459, -0.223999, 24.7199, 13.3674, 79.5614, -135.404
2.9114, -1, -24.42, -0.312958, 24.755, 13.3698, 79.4685, -135.639
2.91938, -1, -24.5944, -0.401807, 24.7901, 13.3722, 79.3753, -135.875
2.92885, -1, -24.8567, -0.535173, 24.8425, 13.3757, 79.2358, -136.229
2.9354, -1, -24.9443, -0.57963, 24.8601, 13.3769, 79.1894, -136.346
2.94491, -1, -25.2067, -0.712827, 24.9127, 13.3805, 79.0498, -136.699
2.95294, -1, -25.3813, -0.801581, 24.9476, 13.3829, 78.9571, -136.934
2.96101, -1, -25.5554, -0.89038, 24.9827, 13.3854, 78.8645, -137.169
2.96745, -1, -25.6422, -0.934762, 25.0001, 13.3866, 78.818, -137.286
2.97538, -1, -25.8154, -1.02342, 25.0349, 13.3891, 78.7253, -137.521
2.98494, -1, -25.9881, -1.11217, 25.0698, 13.3916, 78.633, -137.756
2.99145, -1, -26.1603, -1.20084, 25.1049, 13.394, 78.5404, -137.99
3.00043, -1, -26.3322, -1.28943, 25.1397, 13.3964, 78.4478, -138.225
3.00739, -1, -26.504, -1.37791, 25.1745, 13.3987, 78.3553, -138.459
3.01545, -1, -26.6759, -1.46625, 25.2095, 13.4009, 78.2629, -138.694
3.02339, -1, -26.848, -1.55451, 25.2444, 13.4032, 78.1705, -138.928
3.03144, -1, -27.0204, -1.64268, 25.2792, 13.4055, 78.0781, -139.161
3.03944, -1, -27.1929, -1.73087, 25.3141, 13.4076, 77.9861, -139.395
3.04738, -1, -27.3656, -1.81906, 25.3489, 13.4099, 77.8938, -139.629
3.05559, -1, -27.5386, -1.90707, 25.3836, 13.412, 77.8018, -139.863
3.06338, -1, -27.7119, -1.99527, 25.4185, 13.4141, 77.71, -140.096
3.07138, -1, -27.8851, -2.08338, 25.4533, 13.4162, 77.6178, -140.33
3.08016, -1, -28.0584, -2.17139, 25.4881, 13.4183, 77.5257, -140.563
3.08738, -1, -28.2316, -2.25941, 25.5228, 13.4203, 77.4339, -140.796
3.09538, -1, -28.4046, -2.34753, 25.5576, 13.4224, 77.3417, -141.029
3.10419, -1, -28.5771, -2.43554, 25.5923, 13.4246, 77.2496, -141.262
3.11138, -1, -28.7493, -2.52351, 25.6269, 13.4267, 77.1577, -141.495
3.11941, -1, -28.9207, -2.61155, 25.6617, 13.4288, 77.0656, -141.728
3.12822, -1, -29.0915, -2.69948, 25.6963, 13.4311, 76.9737, -141.961
3.13539, -1, -29.2622, -2.78733, 25.7309, 13.4332, 76.8821, -142.193
3.14338, -1, -29.4328, -2.87512, 25.7656, 13.4352, 76.79, -142.426
3.15222, -1, -29.6036, -2.96278, 25.8002, 13.4373, 76.6982, -142.658
3.15939, -1, -29.7745, -3.05036, 25.8348, 13.4392, 76.6064, -142.891
3.16738, -1, -29.9455, -3.13788, 25.8694, 13.4414, 76.5146, -143.123
3.17548, -1, -30.1164, -3.22538, 25.904, 13.4435, 76.4229, -143.355
3.18342, -1, -30.2874, -3.3129, 25.9385, 13.4455, 76.3312, -143.586
3.19152, -1, -30.4588, -3.40029, 25.9731, 13.4476, 76.2398, -143.818
3.20029, -1, -30.6305, -3.48782, 26.0077, 13.4496, 76.1482, -144.05
3.20748, -1, -30.8023, -3.57524, 26.0421, 13.4518, 76.0568, -144.282
3.21555, -1, -30.9742, -3.66259, 26.0767, 13.4537, 75.9656, -144.513
3.22471, -1, -31.1459, -3.74995, 26.1113, 13.4557, 75.8741, -144.744
3.23144, -1, -31.3174, -3.83725, 26.1456, 13.4578, 75.7827, -144.976
3.23952, -1, -31.4885, -3.92459, 26.18, 13.4599, 75.6916, -145.207
3.24748, -1, -31.6592, -4.01183, 26.2146, 13.4621, 75.6002, -145.438
3.25543, -1, -31.8295, -4.09911, 26.2489, 13.4642, 75.5089, -145.669
3.26354, -1, -31.9993, -4.18635, 26.2833, 13.4664, 75.418, -145.9
3.27151, -1, -32.1688, -4.27349, 26.3178, 13.4686, 75.3268, -146.131
3.27967, -1, -32.3381, -4.36059, 26.3521, 13.4708, 75.2357, -146.361
3.28771, -1, -32.5077, -4.4476, 26.3863, 13.473, 75.145, -146.592
3.29586, -1, -32.6774, -4.53452, 26.4208, 13.4751, 75.054, -146.822
3.30389, -1, -32.847, -4.62144, 26.4552, 13.4773, 74.9632, -147.053
3.31252, -1, -33.0167, -4.70838, 26.4894, 13.4794, 74.8725, -147.283
3.31987, -1, -33.1865, -4.79532, 26.5237, 13.4816, 74.782, -147.513
3.328, -1, -33.3564, -4.88213, 26.558, 13.4839, 74.6913, -147.743
3.33594, -1, -33.5266, -4.96903, 26.5922, 13.486, 74.6006, -147.973
3.34497, -1, -33.6969, -5.05594, 26.6265, 13.4883, 74.5103, -148.203
3.35249, -1, -33.8671, -5.14268, 26.6607, 13.4905, 74.4195, -148.433
3.35987, -1, -33.9523, -5.18603, 26.6778, 13.4916, 74.3743, -148.548
3.36742, -1, -34.1225, -5.27277, 26.7119, 13.4938, 74.2838, -148.777
3.37547, -1, -34.2926, -5.3595, 26.7462, 13.4961, 74.1933, -149.006
3.38338, -1, -34.4626, -5.44612, 26.7804, 13.4984, 74.1026, -149.236
3.39137, -1, -34.6322, -5.53279, 26.8145, 13.5008, 74.012, -149.465
3.40063, -1, -34.8853, -5.66274, 26.8657, 13.5044, 73.8763, -149.809
3.40737, -1, -34.9696, -5.70603, 26.8828, 13.5056, 73.831, -149.923
3.41538, -1, -35.1379, -5.79252, 26.9169, 13.5081, 73.7405, -150.152
3.42484, -1, -35.3904, -5.92209, 26.968, 13.5117, 73.6052, -150.496
3.43138, -1, -35.4747, -5.96519, 26.9851, 13.5129, 73.56, -150.61
3.441, -1, -35.7275, -6.09451, 27.0361, 13.5164, 73.4245, -150.953
3.44737, -1, -35.8118, -6.13762, 27.0531, 13.5176, 73.3796, -151.067
3.4554, -1, -35.9804, -6.22374, 27.0873, 13.52, 73.289, -151.296
3.46495, -1, -36.233, -6.3529, 27.1383, 13.5236, 73.1533, -151.639
3.47309, -1, -36.4017, -6.43909, 27.1722, 13.526, 73.0632, -151.867
3.47937, -1, -36.4861, -6.4822, 27.1892, 13.5272, 73.0179, -151.981
3.48743, -1, -36.655, -6.56837, 27.2232, 13.5295, 72.9276, -152.21
3.49644, -1, -36.8238, -6.65456, 27.2572, 13.5318, 72.8373, -152.437
3.50338, -1, -36.9929, -6.74069, 27.2911, 13.5341, 72.7474, -152.666
3.51145, -1, -37.1617, -6.82686, 27.325, 13.5364, 72.6573, -152.894
3.51944, -1, -37.3304, -6.91291, 27.3589, 13.5386, 72.5674, -153.122
3.52737, -1, -37.4988, -6.99896, 27.3928, 13.5409, 72.4776, -153.349
3.53542, -1, -37.6667, -7.08502, 27.4269, 13.5432, 72.3876, -153.576
3.54345, -1, -37.8344, -7.17105, 27.4607, 13.5454, 72.2978, -153.804
3.55137, -1, -38.0019, -7.25697, 27.4945, 13.5477, 72.2082, -154.032
3.55936, -1, -38.1694, -7.34291, 27.5285, 13.5498, 72.1183, -154.259
3.56744, -1, -38.3368, -7.42874, 27.5623, 13.552, 72.0286, -154.486
3.57537, -1, -38.504, -7.51444, 27.5961, 13.5541, 71.9391, -154.713
3.58338, -1, -38.6713, -7.60021, 27.63, 13.5562, 71.8494, -154.941
3.59144, -1, -38.8386, -7.68594, 27.6639, 13.5583, 71.7599, -155.168
3.59936, -1, -39.0059, -7.7716, 27.6975, 13.5603, 71.6705, -155.395
3.60736, -1, -39.1733, -7.85722, 27.7313, 13.5625, 71.5813, -155.622
3.61543, -1, -39.3409, -7.94295, 27.7653, 13.5644, 71.4918, -155.848
3.62339, -1, -39.5084, -8.02861, 27.799, 13.5664, 71.4024, -156.075
3.63141, -1, -39.676, -8.11416, 27.8326, 13.5684, 71.3133, -156.302
3.63951, -1, -39.8437, -8.19966, 27.8664, 13.5703, 71.2238, -156.528
3.64736, -1, -40.0113, -8.28515, 27.9001, 13.5722, 71.1344, -156.755
3.65537, -1, -40.1788, -8.37054, 27.9337, 13.5742, 71.0452, -156.981
3.66344, -1, -40.3461, -8.4559, 27.9675, 13.5762, 70.9558, -157.207
3.67138, -1, -40.5133, -8.54131, 28.0012, 13.5782, 70.8666, -157.434
3.67938, -1, -40.6802, -8.62671, 28.0347, 13.5802, 70.7774, -157.659
3.68748, -1, -40.847, -8.7121, 28.0683, 13.5822, 70.6883, -157.885
3.69545, -1, -41.0135, -8.79742, 28.1021, 13.5842, 70.5992, -158.111
3.70352, -1, -41.1799, -8.88274, 28.1356, 13.5863, 70.51, -158.337
3.71162, -1, -41.3461, -8.96791, 28.1691, 13.5883, 70.421, -158.563
3.71947, -1, -41.5123, -9.05308, 28.2028, 13.5902, 70.3317, -158.788
3.72747, -1, -41.6786, -9.13823, 28.2364, 13.5922, 70.2425, -159.014
3.73554, -1, -41.8449, -9.22329, 28.2699, 13.5942, 70.1536, -159.239
3.74338, -1, -42.0113, -9.30829, 28.3035, 13.5963, 70.0644, -159.465
3.7514, -1, -42.1775, -9.39334, 28.3372, 13.5983, 69.9754, -159.69
3.75946, -1, -42.3437, -9.47841, 28.3706, 13.6004, 69.8867, -159.915
3.76751, -1, -42.51, -9.56338, 28.4041, 13.6024, 69.7976, -160.14
3.7756, -1, -42.6765, -9.64837, 28.4376, 13.6044, 69.7088, -160.366
3.78365, -1, -42.8429, -9.73334, 28.471, 13.6064, 69.62, -160.591
3.79167, -1, -43.0094, -9.81827, 28.5044, 13.6085, 69.5312, -160.816
3.79978, -1, -43.1757, -9.90323, 28.5379, 13.6105, 69.4425, -161.041
3.80786, -1, -43.3419, -9.98819, 28.5714, 13.6126, 69.3537, -161.265
3.81653, -1, -43.508, -10.0731, 28.6049, 13.6147, 69.2653, -161.49
3.8239, -1, -43.6739, -10.1581, 28.6384, 13.6167, 69.1765, -161.715
3.83247, -1, -43.8398, -10.243, 28.6718, 13.6189, 69.0881, -161.94
3.83993, -1, -44.0055, -10.3278, 28.7051, 13.621, 68.9997, -162.164
3.84799, -1, -44.0882, -10.4125, 28.7386, 13.6232, 68.911, -162.388
3.85649, -1, -44.336, -10.4971, 28.7721, 13.6254, 68.8224, -162.613
3.86335, -1, -44.4186, -10.5394, 28.7887, 13.6265, 68.778, -162.725
3.87141, -1, -44.5837, -10.6239, 28.8221, 13.6287, 68.6896, -162.949
3.8794, -1, -44.749, -10.7085, 28.8555, 13.6309, 68.6008, -163.173
3.88735, -1, -44.9143, -10.7929, 28.889, 13.6331, 68.5123, -163.397
3.89545, -1, -45.0797, -10.8774, 28.9224, 13.6353, 68.4241, -163.621
3.9034, -1, -45.245, -10.9619, 28.9557, 13.6375, 68.3356, -163.845
3.91136, -1, -45.4103, -11.0464, 28.9892, 13.6397, 68.2472, -164.069
3.91936, -1, -45.5755, -11.1308, 29.0224, 13.642, 68.159, -164.293
3.92741, -1, -45.7408, -11.2153, 29.0556, 13.6443, 68.0707, -164.517
3.93536, -1, -45.9058, -11.2995, 29.089, 13.6466, 67.9823, -164.74
3.94498, -1, -46.149, -11.4237, 29.1392, 13.65, 67.85, -165.075
3.9514, -1, -46.2282, -11.4638, 29.156, 13.6512, 67.8062, -165.186
3.96109, -1, -46.4562, -11.578, 29.2063, 13.6548, 67.6775, -165.512
3.9674, -1, -46.528, -11.6136, 29.2227, 13.656, 67.636, -165.616
3.97702, -1, -46.7268, -11.7111, 29.2684, 13.6593, 67.5214, -165.907
3.98335, -1, -46.7862, -11.74, 29.2821, 13.6603, 67.4866, -165.994
3.99293, -1, -46.893, -11.7925, 29.3064, 13.6623, 67.4252, -166.15
3.99941, -1, -46.9834, -11.8384, 29.3259, 13.6637, 67.3749, -166.278
4.0084, -1, -47.0581, -11.8783, 29.3396, 13.6647, 67.3359, -166.375
4.01536, -1, -47.1177, -11.9115, 29.3487, 13.6653, 67.3077, -166.447
4.02353, -1, -47.163, -11.9371, 29.3541, 13.6656, 67.2889, -166.494
4.03132, -1, -47.196, -11.9557, 29.3568, 13.6657, 67.2773, -166.523
4.03941, -1, -47.2185, -11.9682, 29.358, 13.6658, 67.2709, -166.54
4.0474, -1, -47.2326, -11.976, 29.3586, 13.6659, 67.2675, -166.548
4.05532, 2, -47.2405, -11.9802, 29.3589, 13.6659, 67.2659, -166.552
4.06335, 2, -47.2441, -11.9821, 29.359, 13.666, 67.2651, -166.554
4.07142, 2, -47.2449, -11.983, 29.3591, 13.666, 67.2648, -166.554
4.07934, 2, -47.2447, -11.9833, 29.3592, 13.666, 67.2646, -166.555
4.08736, 2, -47.2446, -11.9834, 29.3592, 13.6661, 67.2646, -166.555
4.09541, 2, -47.2447, -11.9835, 29.3593, 13.6661, 67.2645, -166.555
4.10335, 2, -47.2454, -11.9837, 29.3593, 13.6661, 67.2645, -166.555
4.11137, 2, -47.2464, -11.984, 29.3593, 13.6661, 67.2645, -166.555
4.11941, 2, -47.248, -11.9847, 29.3593, 13.6661, 67.2645, -166.555
4.12737, 2, -47.2497, -11.9855, 29.3593, 13.6661, 67.2644, -166.555
4.1354, 2, -47.2512, -11.9864, 29.3593, 13.6661, 67.2645, -166.555
4.14341, 2, -47.2524, -11.9871, 29.3593, 13.6661, 67.2645, -166.555
4.15135, 2, -47.2531, -11.9876, 29.3593, 13.6661, 67.2645, -166.555
4.15936, 2, -47.2534, -11.9879, 29.3593, 13.6661, 67.2645, -166.555
4.16742, 2, -47.2535, -11.988, 29.3593, 13.6661, 67.2645, -166.555
4.17536, 2, -47.2534, -11.9881, 29.3594, 13.6661, 67.2645, -166.555
4.18338, 2, -47.2529, -11.9881, 29.3594, 13.6661, 67.2645, -166.555
4.19148, 2, -47.2524, -11.988, 29.3594, 13.6661, 67.2645, -166.555
4.19944, 2, -47.252, -11.988, 29.3594, 13.6661, 67.2644, -166.555
4.20752, 2, -47.2517, -11.988, 29.3594, 13.6661, 67.2644, -166.555
4.21552, 2, -47.2516, -11.988, 29.3594, 13.6661, 67.2645, -166.555
4.22345, 2, -47.2517, -11.9881, 29.3594, 13.6661, 67.2645, -166.555
4.23148, 2, -47.2519, -11.9884, 29.3594, 13.6661, 67.2644, -166.555
4.23954, 2, -47.2523, -11.9887, 29.3594, 13.666, 67.2645, -166.555
4.24742, 2, -47.2529, -11.9891, 29.3594, 13.6661, 67.2645, -166.555
4.25539, 2, -47.2534, -11.9893, 29.3594, 13.6661, 67.2645, -166.555
4.26364, 2, -47.2536, -11.9894, 29.3594, 13.666, 67.2645, -166.555
4.2715, 2, -47.2537, -11.9895, 29.3594, 13.666, 67.2645, -166.555
4.27949, 2, -47.2537, -11.9895, 29.3594, 13.6661, 67.2645, -166.555
4.28796, 2, -47.2535, -11.9895, 29.3594, 13.666, 67.2645, -166.555
4.29643, 2, -47.2532, -11.9894, 29.3594, 13.666, 67.2645, -166.555
4.30373, 2, -47.2528, -11.9894, 29.3594, 13.6661, 67.2645, -166.555
4.31237, 2, -47.2525, -11.9893, 29.3594, 13.6661, 67.2645, -166.555
4.31981, 2, -47.2523, -11.9894, 29.3594, 13.6661, 67.2645, -166.555
4.32845, 2, -47.2521, -11.9894, 29.3594, 13.666, 67.2645, -166.555
4.3364, 2, -47.252, -11.9894, 29.3594, 13.666, 67.2645, -166.555
4.34389, 2, -47.252, -11.9895, 29.3594, 13.666, 67.2645, -166.555
4.35246, 2, -47.252, -11.9895, 29.3594, 13.6661, 67.2645, -166.555
4.3603, 2, -47.2519, -11.9896, 29.3594, 13.6661, 67.2645, -166.555
4.36734, 2, -47.2519, -11.9896, 29.3594, 13.666, 67.2645, -166.555
4.3764, 2, -47.252, -11.9896, 29.3594, 13.666, 67.2645, -166.555
4.38433, 2, -47.252, -11.9896, 29.3594, 13.666, 67.2645, -166.555
4.39135, 2, -47.252, -11.9895, 29.3594, 13.666, 67.2645, -166.555
4.39935, 2, -47.2519, -11.9895, 29.3594, 13.666, 67.2645, -166.555
4.40904, 2, -47.2518, -11.9894, 29.3594, 13.666, 67.2645, -166.555
4.41665, 2, -47.2517, -11.9894, 29.3594, 13.666, 67.2645, -166.555
4.42334, 2, -47.2517, -11.9893, 29.3594, 13.666, 67.2645, -166.555
4.43308, 2, -47.2515, -11.9893, 29.3594, 13.666, 67.2645, -166.555
4.44083, 2, -47.2514, -11.9893, 29.3594, 13.666, 67.2646, -166.555
4.44883, 2, -47.2514, -11.9894, 29.3594, 13.666, 67.2645, -166.555
4.45737, 2, -47.2513, -11.9894, 29.3594, 13.666, 67.2645, -166.555
4.46335, 2, -47.2513, -11.9894, 29.3594, 13.666, 67.2646, -166.555
4.47291, 2, -47.2512, -11.9894, 29.3594, 13.666, 67.2646, -166.555
4.48121, 2, -47.2511, -11.9894, 29.3594, 13.666, 67.2645, -166.555
4.48733, 2, -47.2511, -11.9894, 29.3594, 13.666, 67.2646, -166.555
4.49636, 2, -47.251, -11.9894, 29.3594, 13.666, 67.2646, -166.555
4.50534, 2, -47.2509, -11.9893, 29.3594, 13.666, 67.2646, -166.555
4.51134, 2, -47.2509, -11.9892, 29.3594, 13.666, 67.2646, -166.555
4.51934, 2, -47.2508, -11.9892, 29.3594, 13.666, 67.2646, -166.555
4.5274, 2, -47.2507, -11.9892, 29.3594, 13.666, 67.2646, -166.555
4.53534, 2, -47.2506, -11.9892, 29.3594, 13.666, 67.2646, -166.555
4.54339, 2, -47.2506, -11.9892, 29.3594, 13.6659, 67.2646, -166.555
4.5514, 2, -47.2505, -11.9892, 29.3594, 13.666, 67.2646, -166.555
4.55933, 2, -47.2504, -11.9892, 29.3594, 13.666, 67.2646, -166.555
4.56734, 2, -47.2503, -11.9892, 29.3594, 13.666, 67.2647, -166.555
4.57539, 2, -47.2502, -11.9892, 29.3594, 13.666, 67.2646, -166.555
4.58333, 2, -47.2501, -11.9891, 29.3594, 13.666, 67.2646, -166.555
4.59135, 2, -47.25, -11.9891, 29.3594, 13.666, 67.2647, -166.555
4.59939, 2, -47.2499, -11.9891, 29.3594, 13.6659, 67.2647, -166.555
4.60733, 2, -47.2498, -11.9891, 29.3594, 13.666, 67.2646, -166.555
4.61534, 2, -47.2496, -11.989, 29.3594, 13.6659, 67.2646, -166.555
4.62339, 2, -47.2495, -11.9889, 29.3594, 13.6659, 67.2647, -166.555
4.63136, 2, -47.2494, -11.9889, 29.3594, 13.6659, 67.2647, -166.555
4.63938, 2, -47.2494, -11.9889, 29.3594, 13.6659, 67.2647, -166.555
4.64739, 2, -47.2492, -11.9889, 29.3594, 13.6659, 67.2647, -166.555
4.65533, 2, -47.2491, -11.9889, 29.3594, 13.6659, 67.2647, -166.555
4.66334, 2, -47.2491, -11.9889, 29.3594, 13.6659, 67.2647, -166.555
4.67141, 2, -47.249, -11.9889, 29.3594, 13.6659, 67.2647, -166.555
4.67933, 2, -47.2489, -11.9889, 29.3594, 13.6659, 67.2647, -166.555
4.68737, 2, -47.2489, -11.9889, 29.3594, 13.6659, 67.2647, -166.555
4.69546, 2, -47.2488, -11.9889, 29.3594, 13.6659, 67.2647, -166.555
4.70342, 2, -47.2487, -11.9888, 29.3594, 13.6659, 67.2647, -166.555
4.71159, 2, -47.2487, -11.9888, 29.3594, 13.6659, 67.2647, -166.555
4.7195, 2, -47.2486, -11.9887, 29.3594, 13.6658, 67.2647, -166.555
4.72744, 2, -47.2485, -11.9886, 29.3594, 13.6658, 67.2647, -166.555
4.73545, 2, -47.2484, -11.9886, 29.3594, 13.6659, 67.2647, -166.555
4.74345, 2, -47.2483, -11.9886, 29.3594, 13.6658, 67.2647, -166.555
4.75137, 2, -47.2483, -11.9886, 29.3594, 13.6658, 67.2647, -166.555
4.75938, 2, -47.2482, -11.9886, 29.3594, 13.6658, 67.2647, -166.555
4.76746, 2, -47.2482, -11.9886, 29.3594, 13.6658, 67.2647, -166.555
4.77551, 2, -47.2482, -11.9886, 29.3594, 13.6658, 67.2647, -166.555
4.78353, 2, -47.2482, -11.9886, 29.3594, 13.6657, 67.2648, -166.555
4.79165, 2, -47.2482, -11.9885, 29.3594, 13.6658, 67.2648, -166.555
4.79972, 2, -47.2481, -11.9885, 29.3594, 13.6657, 67.2648, -166.554
4.80772, 2, -47.2481, -11.9885, 29.3594, 13.6658, 67.2648, -166.555
4.81585, 2, -47.2481, -11.9884, 29.3594, 13.6657, 67.2648, -166.554
4.8245, 2, -47.2481, -11.9884, 29.3594, 13.6657, 67.2648, -166.554
4.83186, 2, -47.248, -11.9883, 29.3594, 13.6657, 67.2648, -166.554
4.84045, 2, -47.2479, -11.9883, 29.3594, 13.6657, 67.2648, -166.554
4.84795, 2, -47.2478, -11.9882, 29.3594, 13.6657, 67.2648, -166.554
4.85592, 2, -47.2478, -11.9882, 29.3594, 13.6657, 67.2648, -166.554
4.86441, 2, -47.2477, -11.9882, 29.3594, 13.6656, 67.2648, -166.554
4.87134, 2, -47.2477, -11.9882, 29.3594, 13.6656, 67.2648, -166.554
4.87937, 2, -47.2476, -11.9882, 29.3594, 13.6656, 67.2648, -166.554
4.88837, 2, -47.2476, -11.9882, 29.3594, 13.6656, 67.2648, -166.554
4.89533, 2, -47.2476, -11.9882, 29.3594, 13.6656, 67.2648, -166.554
4.90338, 2, -47.2476, -11.9882, 29.3594, 13.6656, 67.2649, -166.554
4.91137, 2, -47.2475, -11.9882, 29.3594, 13.6656, 67.2649, -166.554
4.91933, 2, -47.2475, -11.9881, 29.3594, 13.6656, 67.2649, -166.554
4.92733, 2, -47.2475, -11.988, 29.3594, 13.6656, 67.265, -166.554
4.93677, 2, -47.2474, -11.9879, 29.3594, 13.6656, 67.2649, -166.554
4.94333, 2, -47.2473, -11.9879, 29.3594, 13.6655, 67.2649, -166.554
4.95284, 2, -47.2472, -11.9879, 29.3594, 13.6656, 67.265, -166.554
4.96088, 2, -47.2472, -11.9879, 29.3594, 13.6655, 67.265, -166.554
4.96902, 2, -47.2471, -11.9879, 29.3594, 13.6655, 67.265, -166.554
4.97693, 2, -47.2471, -11.9879, 29.3594, 13.6654, 67.265, -166.554
4.98337, 2, -47.247, -11.9878, 29.3594, 13.6655, 67.265, -166.554
4.99297, 2, -47.2471, -11.9878, 29.3594, 13.6655, 67.265, -166.554
5.00033, 2, -47.247, -11.9878, 29.3594, 13.6654, 67.265, -166.554
5.00833, 2, -47.247, -11.9878, 29.3594, 13.6654, 67.265, -166.554
5.01639, 2, -47.247, -11.9878, 29.3594, 13.6654, 67.265, -166.554
5.02332, 2, -47.247, -11.9877, 29.3594, 13.6654, 67.265, -166.554
5.03139, 2, -47.2469, -11.9877, 29.3594, 13.6653, 67.2651, -166.554
5.03933, 2, -47.2468, -11.9876, 29.3594, 13.6654, 67.2651, -166.554
5.04737, 2, -47.2467, -11.9876, 29.3594, 13.6654, 67.2651, -166.554
5.05559, 2, -47.2467, -11.9875, 29.3594, 13.6653, 67.2651, -166.554
5.06432, 2, -47.2466, -11.9875, 29.3594, 13.6653, 67.2651, -166.554
5.0714, 2, -47.2465, -11.9875, 29.3594, 13.6653, 67.2651, -166.554
5.07932, 2, -47.2465, -11.9875, 29.3594, 13.6653, 67.2651, -166.554
5.08737, 2, -47.2465, -11.9875, 29.3594, 13.6653, 67.2651, -166.554
5.09539, 2, -47.2464, -11.9875, 29.3594, 13.6653, 67.2651, -166.554
5.10332, 2, -47.2464, -11.9875, 29.3594, 13.6652, 67.2651, -166.554
5.11133, 2, -47.2464, -11.9875, 29.3594, 13.6652, 67.2651, -166.554
5.11939, 2, -47.2464, -11.9874, 29.3594, 13.6652, 67.2651, -166.554
5.12733, 4, -47.2464, -11.9874, 29.3594, 13.6652, 67.2652, -166.554
5.13534, 4, -47.2463, -11.9873, 29.3594, 13.6651, 67.2652, -166.554
5.14342, 4, -47.2463, -11.9873, 29.3594, 13.6652, 67.2653, -166.554
5.15133, 4, -47.2462, -11.9873, 29.3594, 13.6652, 67.2653, -166.554
5.15933, 4, -47.2461, -11.9872, 29.3594, 13.6652, 67.2652, -166.554
5.16739, 4, -47.246, -11.9872, 29.3594, 13.6651, 67.2652, -166.554
5.17533, 4, -47.246, -11.9872, 29.3594, 13.6651, 67.2652, -166.554
5.18333, 4, -47.246, -11.9872, 29.3594, 13.6651, 67.2653, -166.554
5.19143, 4, -47.2459, -11.9872, 29.3594, 13.6651, 67.2653, -166.554
5.1994, 4, -47.2459, -11.9872, 29.3594, 13.6651, 67.2653, -166.554
5.20741, 4, -47.2459, -11.9872, 29.3594, 13.6651, 67.2653, -166.554
5.21553, 4, -47.2459, -11.9871, 29.3594, 13.6651, 67.2653, -166.554
5.22355, 4, -47.2458, -11.9871, 29.3594, 13.665, 67.2653, -166.554
5.24014, 4, -47.2458, -11.987, 29.3594, 13.665, 67.2653, -166.554
5.24195, 4, -47.2458, -11.987, 29.3594, 13.665, 67.2653, -166.554
5.24935, 4, -47.2457, -11.987, 29.3594, 13.665, 67.2653, -166.554
5.25769, 4, -47.2456, -11.9869, 29.3594, 13.665, 67.2653, -166.554
5.26448, 4, -47.2455, -11.9869, 29.3594, 13.665, 67.2653, -166.554
5.27172, 4, -47.2455, -11.9869, 29.3594, 13.665, 67.2653, -166.554
5.28432, 4, -47.2454, -11.9869, 29.3594, 13.665, 67.2653, -166.554
5.2895, 4, -47.2454, -11.9869, 29.3593, 13.665, 67.2653, -166.554
5.29758, 4, -47.2454, -11.9869, 29.3593, 13.6649, 67.2653, -166.554
5.30431, 4, -47.2454, -11.9869, 29.3593, 13.665, 67.2653, -166.554
5.31388, 4, -47.2453, -11.9869, 29.3593, 13.6649, 67.2653, -166.553
5.32014, 4, -47.2453, -11.9868, 29.3593, 13.6649, 67.2653, -166.553
5.3286, 4, -47.2453, -11.9868, 29.3593, 13.6649, 67.2653, -166.553
5.33669, 4, -47.2453, -11.9868, 29.3594, 13.6649, 67.2652, -166.553
5.34427, 4, -47.2452, -11.9867, 29.3594, 13.6649, 67.2653, -166.553
5.35349, 4, -47.2452, -11.9867, 29.3594, 13.6649, 67.2653, -166.553
5.36011, 4, -47.2452, -11.9866, 29.3593, 13.6648, 67.2653, -166.553
5.36971, 4, -47.2451, -11.9866, 29.3593, 13.6648, 67.2653, -166.553
5.37676, 4, -47.245, -11.9866, 29.3594, 13.6648, 67.2653, -166.553
5.38511, 4, -47.245, -11.9866, 29.3594, 13.6648, 67.2653, -166.553
5.39144, 4, -47.2452, -11.9867, 29.3594, 13.6648, 67.2653, -166.553
5.40135, 4, -47.247, -11.9878, 29.3604, 13.6653, 67.2656, -166.553
5.41014, 4, -47.2501, -11.9907, 29.3638, 13.67, 67.2668, -166.553
5.41551, 4, -47.2525, -11.9934, 29.3672, 13.6764, 67.2683, -166.552
5.42545, 4, -47.2648, -12.009, 29.3903, 13.722, 67.2803, -166.543
5.43147, 4, -47.2713, -12.0175, 29.4045, 13.7503, 67.2882, -166.537
5.43954, 5, -47.2893, -12.0418, 29.4471, 13.8379, 67.3127, -166.518
5.44953, 5, -47.3332, -12.0997, 29.5585, 14.072, 67.3783, -166.464
5.45778, 5, -47.3764, -12.155, 29.673, 14.3169, 67.4458, -166.407
5.46346, 5, -47.4028, -12.1882, 29.7437, 14.4698, 67.4879, -166.372
5.47149, 5, -47.4651, -12.2659, 29.9135, 14.8387, 67.5878, -166.288
5.48116, 5, -47.5819, -12.4109, 30.2404, 15.546, 67.7773, -166.126
5.48749, 5, -47.6268, -12.4664, 30.3673, 15.8184, 67.8493, -166.064
5.49735, 5, -47.7245, -12.652, 30.7945, 16.7215, 68.0857, -165.861
5.50733, 5, -47.8872, -12.7892, 31.1108, 17.3773, 68.2535, -165.715
5.51146, 5, -47.9447, -12.861, 31.2761, 17.7153, 68.3391, -165.641
5.51955, 5, -48.063, -13.0094, 31.6171, 18.4025, 68.5106, -165.492
5.52745, 5, -48.1838, -13.1614, 31.9662, 19.0968, 68.6806, -165.344
5.53827, 5, -48.3641, -13.3884, 32.4956, 20.1283, 68.9289, -165.124
5.54571, 5, -48.4789, -13.5346, 32.8462, 20.7947, 69.0896, -164.972
5.55268, 5, -48.5331, -13.6052, 33.0184, 21.1178, 69.1691, -164.892
5.55948, 6, -48.632, -13.7391, 33.3534, 21.7357, 69.3276, -164.714
5.56845, 6, -48.7145, -13.8629, 33.6724, 22.3104, 69.4878, -164.502
5.57546, 7, -48.777, -13.978, 33.9719, 22.8371, 69.6523, -164.24
5.58746, 7, -48.8296, -14.1357, 34.3844, 23.5373, 69.9116, -163.731
5.59145, 8, -48.8363, -14.1838, 34.5122, 23.7498, 70.0026, -163.527
5.59946, 8, -48.8352, -14.2726, 34.7564, 24.1502, 70.192, -163.067
5.61083, 8, -48.8023, -14.3899, 35.1006, 24.7075, 70.4953, -162.262
5.61546, 9, -48.7846, -14.4258, 35.211, 24.8866, 70.6014, -161.969
5.62669, 10, -48.7154, -14.5278, 35.5365, 25.4173, 70.9332, -161.043
5.6365, 10, -48.6573, -14.5927, 35.7515, 25.7711, 71.1634, -160.403
5.63963, 10, -48.625, -14.6245, 35.8586, 25.9488, 71.2803, -160.08
5.64852, 11, -48.5551, -14.6869, 36.0726, 26.3067, 71.5164, -159.434
5.65546, 11, -48.4798, -14.7488, 36.2863, 26.6692, 71.7538, -158.79
5.66352, 12, -48.4015, -14.8107, 36.4978, 27.0374, 71.9923, -158.148
5.67346, 12, -48.3221, -14.8721, 36.7071, 27.4125, 72.2321, -157.504
5.67953, 13, -48.2423, -14.9314, 36.9149, 27.7955, 72.4738, -156.858
5.68848, 13, -48.1617, -14.9893, 37.1205, 28.186, 72.7179, -156.208
5.69923, 14, -48.0358, -15.0771, 37.4262, 28.7839, 73.0887, -155.225
5.711, 15, -47.9024, -15.1669, 37.7303, 29.3901, 73.4618, -154.244
5.71296, 15, -47.9024, -15.1669, 37.7303, 29.3901, 73.4618, -154.244
5.7204, 16, -47.8082, -15.226, 37.9306, 29.7952, 73.7089, -153.592
5.72757, 16, -47.7077, -15.2847, 38.1294, 30.1984, 73.953, -152.945
5.73662, 17, -47.6, -15.3446, 38.3262, 30.5986, 74.1927, -152.304
5.74785, 17, -47.4863, -15.4066, 38.5193, 30.9947, 74.4273, -151.353
5.7525, 17, -47.3674, -15.4701, 38.7093, 31.3861, 74.6555, -151.039
5.76409, 18, -47.2436, -15.5344, 38.8968, 31.7734, 74.8778, -150.107
5.7677, 18, -47.1145, -15.6001, 39.0812, 32.1571, 75.0944, -149.801
5.77848, 19, -46.9798, -15.6685, 39.2631, 32.5388, 75.306, -149.192
5.78386, 19, -46.8395, -15.7398, 39.4439, 32.9195, 75.513, -148.59
5.79314, 20, -46.694, -15.813, 39.6232, 33.2991, 75.7158, -147.995
5.79999, 20, -46.5439, -15.8875, 39.8002, 33.678, 75.9145, -147.407
5.8086, 21, -46.3898, -15.9637, 39.9749, 34.0561, 76.109, -146.825
5.81612, 21, -46.2319, -16.0417, 40.1481, 34.4335, 76.2995, -146.249
5.82426, 22, -46.07, -16.1212, 40.319, 34.8094, 76.4857, -145.679
5.83229, 22, -45.9036, -16.202, 40.4867, 35.1833, 76.6681, -145.116
5.84062, 23, -45.7315, -16.2847, 40.6515, 35.5545, 76.846, -144.557
5.85045, 24, -45.5523, -16.3697, 40.8135, 35.9219, 77.0191, -144.004
5.8585, 24, -45.3654, -16.4571, 40.9715, 36.284, 77.1866, -143.455
5.86647, 25, -45.1709, -16.5464, 41.1251, 36.6388, 77.3477, -142.913
5.87216, 25, -44.9696, -16.6368, 41.2745, 36.9845, 77.5017, -142.375
5.88094, 25, -44.7616, -16.7277, 41.4196, 37.3212, 77.6484, -141.843
5.88812, 26, -44.655, -16.7734, 41.4905, 37.486, 77.7885, -141.315
5.89548, 26, -44.4366, -16.8656, 41.6284, 37.809, 77.8566, -141.052
5.90727, 27, -44.0957, -17.0053, 41.825, 38.2787, 78.0542, -140.267
5.91142, 27, -43.9787, -17.0519, 41.8876, 38.4316, 78.1183, -140.005
5.92184, 28, -43.6176, -17.1903, 42.0657, 38.8795, 78.3068, -139.222
5.92742, 28, -43.4937, -17.2358, 42.1216, 39.0251, 78.3684, -138.961
5.9389, 29, -43.1115, -17.3694, 42.2791, 39.4511, 78.5502, -138.178
5.94535, 29, -42.9809, -17.4129, 42.375, 39.7255, 78.6679, -137.656
5.95345, 30, -42.5785, -17.5395, 42.4636, 39.9916, 78.7835, -137.133
5.95944, 30, -42.4404, -17.5803, 42.5052, 40.1216, 78.8403, -136.872
5.96934, 31, -42.1581, -17.6598, 42.5829, 40.4988, 79.0061, -136.091
5.9755, 31, -41.8683, -17.7369, 42.6537, 40.6202, 79.0601, -135.831
5.98355, 32, -41.5714, -17.8118, 42.7178, 40.8568, 79.1663, -135.31
5.99151, 32, -41.2678, -17.884, 42.7752, 41.0848, 79.2694, -134.791
6.00117, 33, -40.9577, -17.9532, 42.8255, 41.4114, 79.4193, -134.015
6.0094, 34, -40.4798, -18.0514, 42.8877, 41.6188, 79.5156, -133.498
6.01643, 34, -40.3176, -18.0829, 42.9048, 41.7195, 79.5629, -133.24
6.02357, 34, -39.9897, -18.144, 42.9335, 41.9146, 79.6553, -132.725
6.03143, 35, -39.6566, -18.2023, 42.9551, 42.1022, 79.7454, -132.212
6.04228, 36, -39.1455, -18.2832, 42.9743, 42.3694, 79.876, -131.444
6.04753, 36, -38.9716, -18.3085, 42.9772, 42.4546, 79.9183, -131.188
6.05776, 37, -38.4392, -18.3794, 42.976, 42.6987, 80.0424, -130.423
6.06349, 37, -38.2588, -18.4013, 42.9722, 42.7763, 80.0825, -130.169
6.07488, 37, -37.709, -18.4615, 42.9505, 42.9977, 80.2007, -129.41
6.07944, 38, -37.5232, -18.4797, 42.94, 43.068, 80.2388, -129.157
6.08857, 38, -37.1482, -18.5138, 42.914, 43.2026, 80.314, -128.654
6.09543, 39, -36.7685, -18.5444, 42.8812, 43.33, 80.3862, -128.151
6.10353, 39, -36.3842, -18.5712, 42.8416, 43.45, 80.4572, -127.652
6.1167, 40, -35.7969, -18.6045, 42.77, 43.6164, 80.5599, -126.905
6.12026, 40, -35.5981, -18.6136, 42.7429, 43.6683, 80.5934, -126.657
6.13109, 41, -34.9932, -18.6352, 42.6516, 43.8128, 80.6897, -125.916
6.13654, 41, -34.7892, -18.6407, 42.6179, 43.8577, 80.7213, -125.671
6.1435, 42, -34.3785, -18.6491, 42.5458, 43.9417, 80.7825, -125.181
6.15244, 42, -33.9648, -18.6543, 42.4674, 44.0188, 80.8414, -124.693
6.16118, 43, -33.5478, -18.6564, 42.3829, 44.0883, 80.8995, -124.208
6.1695, 44, -33.1259, -18.655, 42.2925, 44.1513, 80.9547, -123.725
6.17662, 44, -32.6979, -18.6498, 42.1964, 44.2067, 81.0093, -123.245
6.18417, 44, -32.2634, -18.6408, 42.0946, 44.2546, 81.0619, -122.766
6.19227, 45, -31.823, -18.6281, 41.9868, 44.2959, 81.1123, -122.291
6.20745, 46, -30.9309, -18.5921, 41.7531, 44.3554, 81.2095, -121.345
6.23543, 48, -29.3389, -18.4918, 41.2877, 44.3869, 81.3645, -119.714
6.23724, 48, -29.3389, -18.4918, 41.2877, 44.3869, 81.3645, -119.714
6.23986, 48, -29.1055, -18.4732, 41.2151, 44.3838, 81.3853, -119.482
6.24394, 49, -28.8706, -18.4534, 41.141, 44.3784, 81.4062, -119.252
6.27281, 50, -27.2012, -18.2839, 40.5806, 44.2774, 81.5503, -117.647
6.27608, 50, -26.9594, -18.2548, 40.494, 44.2538, 81.571, -117.419
6.27801, 50, -26.9594, -18.2548, 40.494, 44.2538, 81.571, -117.419
6.28129, 50, -26.7161, -18.2242, 40.4059, 44.228, 81.5922, -117.191
6.28388, 51, -26.4708, -18.1922, 40.3163, 44.1997, 81.6135, -116.963
6.28569, 51, -26.4708, -18.1922, 40.3163, 44.1997, 81.6135, -116.963
6.2885, 51, -26.2236, -18.1589, 40.225, 44.1686, 81.6347, -116.736
6.29993, 52, -25.4708, -18.0505, 39.9401, 44.0613, 81.6986, -116.055
6.30399, 52, -25.2174, -18.0116, 39.8414, 44.0202, 81.7205, -115.828
6.31254, 53, -24.709, -17.93, 39.6394, 43.9303, 81.7654, -115.375
6.32453, 53, -24.1985, -17.8425, 39.324, 43.7768, 81.833, -114.696
6.32828, 53, -23.6837, -17.749, 39.2147, 43.7203, 81.8565, -114.47
6.33806, 54, -23.1618, -17.6492, 38.9908, 43.5992, 81.9056, -114.018
6.34846, 55, -22.3634, -17.488, 38.6417, 43.3968, 81.9817, -113.34
6.35262, 55, -22.0944, -17.4311, 38.5214, 43.3236, 82.0086, -113.114
6.3606, 56, -21.5547, -17.3129, 38.2761, 43.1684, 82.0642, -112.661
6.37271, 56, -21.0126, -17.1892, 38.0244, 43.0017, 82.1493, -111.985
6.37657, 57, -20.4657, -17.06, 37.7657, 42.8239, 82.1789, -111.759
6.38646, 57, -19.9099, -16.9251, 37.5011, 42.6348, 82.2385, -111.308
6.39231, 57, -19.6285, -16.8554, 37.3663, 42.5359, 82.2685, -110.858
6.40225, 58, -18.7741, -16.6367, 36.9516, 42.2202, 82.3627, -110.408
6.40749, 58, -18.4875, -16.5609, 36.8104, 42.1085, 82.3948, -110.183
6.41556, 59, -17.9125, -16.4053, 36.522, 41.8759, 82.4615, -109.734
6.42351, 59, -17.3329, -16.2452, 36.2269, 41.63, 82.5312, -109.284
6.43274, 60, -16.446, -15.996, 35.7719, 41.2367, 82.6405, -108.61
6.43944, 60, -16.1456, -15.9101, 35.6177, 41.0992, 82.6777, -108.385
6.45288, 61, -14.9337, -15.555, 34.9874, 40.5165, 82.8307, -107.487
6.45547, 61, -14.9337, -15.555, 34.9874, 40.5165, 82.8307, -107.487
6.4669, 62, -14.0144, -15.2785, 34.5022, 40.0467, 82.9503, -106.814
6.47323, 63, -13.3905, -15.0874, 34.1741, 39.7178, 83.0321, -106.366
6.47987, 63, -13.075, -14.9893, 34.0083, 39.5484, 83.0739, -106.141
6.48747, 63, -12.4387, -14.7883, 33.673, 39.1997, 83.1593, -105.691
6.50149, 64, -11.1524, -14.3697, 32.9846, 38.4598, 83.342, -104.79
6.50351, 64, -11.1524, -14.3697, 32.9846, 38.4598, 83.342, -104.79
6.51144, 65, -10.4967, -14.1496, 32.6298, 38.0662, 83.4413, -104.336
6.51948, 65, -9.82992, -13.9224, 32.2684, 37.6543, 83.5468, -103.881
6.52744, 66, -9.15371, -13.6888, 31.9013, 37.2239, 83.6587, -103.424
6.53552, 66, -8.47189, -13.4479, 31.5285, 36.7754, 83.7774, -102.965
6.54343, 67, -7.78488, -13.1999, 31.1485, 36.3093, 83.9023, -102.504
6.55412, 68, -6.73826, -12.8133, 30.568, 35.5799, 84.1029, -101.809
6.55949, 68, -6.3855, -12.6808, 30.3727, 35.3296, 84.1728, -101.576
6.57026, 69, -5.31955, -12.2756, 29.7817, 34.5608, 84.3922, -100.877
6.58628, 69, -3.88068, -11.7141, 28.9865, 33.4988, 84.7019, -99.9393
6.58814, 70, -3.88068, -11.7141, 28.9865, 33.4988, 84.7019, -99.9393
6.59204, 70, -3.51606, -11.5695, 28.7879, 33.2269, 84.782, -99.704
6.60259, 71, -2.41158, -11.1224, 28.193, 32.3938, 85.0298, -98.9963
6.60843, 71, -2.04043, -10.9698, 27.9939, 32.1096, 85.1154, -98.7598
6.61546, 71, -1.2926, -10.6597, 27.5944, 31.5299, 85.293, -98.2845
6.62353, 72, -0.537782, -10.344, 27.192, 30.9332, 85.48, -97.8065
6.63245, 72, 0.222908, -10.0232, 26.787, 30.3194, 85.6765, -97.3262
6.63944, 73, 0.988148, -9.69508, 26.3801, 29.6931, 85.8821, -96.8439
6.64842, 73, 1.75785, -9.36029, 25.9725, 29.0553, 86.0956, -96.3604
6.65963, 74, 2.91944, -8.84709, 25.3648, 28.0835, 86.43, -95.6318
6.66442, 74, 3.30805, -8.67322, 25.1644, 27.7562, 86.5447, -95.3883
6.67321, 75, 4.0867, -8.31997, 24.7675, 27.0976, 86.7784, -94.9001
6.67962, 75, 4.86769, -7.96075, 24.3753, 26.437, 87.0177, -94.4111
6.68852, 76, 5.65043, -7.59555, 23.9879, 25.7748, 87.2631, -93.9202
6.70816, 76, 7.61203, -6.65506, 23.0394, 24.1145, 87.9062, -92.6838
6.71154, 77, 7.61203, -6.65506, 23.0394, 24.1145, 88.0416, -92.435
6.72149, 78, 8.79436, -6.06407, 22.4801, 23.1115, 88.3203, -91.936
6.72357, 78, 9.18918, -5.86256, 22.2957, 22.7744, 88.4644, -91.6851
6.72777, 78, 9.58428, -5.65904, 22.112, 22.4357, 88.6118, -91.4331
6.73543, 79, 10.3751, -5.24637, 21.7468, 21.753, 88.917, -90.9257
6.74338, 79, 11.1662, -4.82626, 21.3846, 21.0658, 89.2355, -90.4126
6.75137, 80, 11.9554, -4.39591, 21.0262, 20.3762, 89.5652, -89.8943
6.75933, 80, 12.7401, -3.95425, 20.6729, 19.6888, 89.9049, -89.369
6.76732, 81, 13.5186, -3.50443, 20.325, 19.0102, 90.2529, -88.8378
6.77539, 81, 14.2915, -3.0482, 19.9838, 18.3439, 90.6082, -88.3015
6.78422, 82, 15.0573, -2.58461, 19.6516, 17.6923, 90.9688, -87.7619
6.79154, 82, 15.8149, -2.11282, 19.3294, 17.0571, 91.3341, -87.2196
6.80035, 83, 16.5615, -1.63352, 19.0165, 16.4398, 91.7037, -86.6751
6.8076, 83, 17.2955, -1.14859, 18.713, 15.8419, 92.0781, -86.1294
6.81664, 84, 18.0153, -0.658737, 18.4186, 15.2622, 92.4575, -85.5843
6.82374, 84, 18.719, -0.164565, 18.1332, 14.7026, 92.8433, -85.0399
6.83261, 84, 19.4058, 0.33448, 17.8542, 14.1627, 93.2363, -84.4963
6.83979, 85, 20.0742, 0.839101, 17.5817, 13.6426, 93.6377, -83.9545
6.84837, 85, 20.7248, 1.34842, 17.315, 13.1421, 94.0462, -83.415
6.85585, 86, 21.3587, 1.86158, 17.0541, 12.6611, 94.4611, -82.8768
6.86443, 86, 21.9782, 2.3811, 16.7999, 12.1997, 94.8827, -82.3378
6.87193, 87, 22.2833, 2.64458, 16.6746, 11.7579, 95.3111, -81.7966
6.87927, 87, 22.8852, 3.1793, 16.4273, 11.5441, 95.528, -81.5246
6.88867, 88, 23.7696, 3.99773, 16.0638, 10.9281, 96.1895, -80.7011
6.89532, 88, 24.0593, 4.27382, 15.944, 10.7308, 96.4131, -80.4225
6.90327, 88, 24.6299, 4.83253, 15.708, 10.3486, 96.8651, -79.8589
6.91127, 89, 25.1896, 5.40245, 15.4777, 9.98183, 97.3231, -79.2847
6.91931, 89, 25.7415, 5.98314, 15.2514, 9.63197, 97.7857, -78.6996
6.92729, 90, 26.2893, 6.57329, 15.0295, 9.29769, 98.2526, -78.101
6.93528, 90, 26.8292, 7.17197, 14.8134, 8.98036, 98.7239, -77.4889
6.94331, 91, 27.3563, 7.77979, 14.6031, 8.68115, 99.2001, -76.8635
6.95314, 92, 28.124, 8.71138, 14.2966, 8.26815, 99.9241, -75.9032
6.95933, 92, 28.3756, 9.02705, 14.1966, 8.14104, 100.168, -75.5773
6.96923, 93, 29.1207, 9.9881, 13.903, 7.7914, 100.906, -74.5869
6.97535, 93, 29.3643, 10.3122, 13.8076, 7.68596, 101.154, -74.2534
6.98488, 94, 30.0755, 11.2932, 13.5322, 7.40342, 101.898, -73.24
6.99371, 94, 30.5317, 11.9526, 13.3569, 7.24386, 102.393, -72.5568
6.9995, 95, 30.7544, 12.2834, 13.2716, 7.17289, 102.64, -72.2137
7.00733, 95, 31.1897, 12.9469, 13.1064, 7.04838, 103.131, -71.5224
7.01717, 96, 31.6114, 13.9466, 12.8731, 6.90564, 103.862, -70.4744
7.02326, 96, 32.0186, 14.2806, 12.7986, 6.86987, 104.104, -70.1227
7.03133, 96, 32.4091, 14.9488, 12.6541, 6.81667, 104.586, -69.4152
7.03928, 97, 32.7828, 15.6161, 12.5159, 6.78491, 105.062, -68.7016
7.04728, 97, 33.1405, 16.2803, 12.3853, 6.77384, 105.533, -67.9851
7.05526, 98, 33.4833, 16.9404, 12.2635, 6.78465, 105.995, -67.2679
7.06328, 98, 33.8116, 17.5935, 12.1511, 6.81602, 106.447, -66.5497
7.07134, 99, 34.1252, 18.2383, 12.0486, 6.86641, 106.887, -65.8347
7.07926, 99, 34.4259, 18.8739, 11.9564, 6.93671, 107.311, -65.1252
7.08727, 100, 34.7153, 19.4995, 11.8743, 7.02365, 107.719, -64.4209
7.09533, 100, 34.9925, 20.1144, 11.8016, 7.12752, 108.111, -63.7248
7.10328, 101, 35.2561, 20.7163, 11.7371, 7.24609, 108.486, -63.0393
7.11128, 101, 35.5063, 21.3048, 11.6805, 7.37775, 108.844, -62.3628
7.11931, 102, 35.7432, 21.8786, 11.6317, 7.52004, 109.187, -61.698
7.12732, 102, 35.9666, 22.4374, 11.59, 7.67069, 109.514, -61.0468
7.13549, 103, 36.1783, 22.9817, 11.5555, 7.82783, 109.827, -60.409
7.14333, 103, 36.3817, 23.5108, 11.5282, 7.99031, 110.125, -59.7848
7.15129, 103, 36.5791, 24.025, 11.509, 8.15879, 110.407, -59.1748
7.1593, 104, 36.7715, 24.526, 11.498, 8.33386, 110.673, -58.5782
7.16735, 104, 36.959, 25.0141, 11.4939, 8.51714, 110.921, -57.9914
7.17526, 104, 37.1421, 25.4891, 11.4959, 8.70985, 111.151, -57.4132
7.18327, 104, 37.3183, 25.9514, 11.5037, 8.91129, 111.363, -56.8428
7.19134, 104, 37.4843, 26.3999, 11.5158, 9.12113, 111.559, -56.2798
7.19929, 104, 37.6409, 26.8351, 11.5309, 9.33751, 111.74, -55.7243
7.20735, 104, 37.792, 27.2582, 11.5486, 9.55724, 111.909, -55.1802
7.21542, 104, 37.9411, 27.6681, 11.5681, 9.77814, 112.069, -54.6508
7.22336, 104, 38.0885, 28.0642, 11.5882, 9.99687, 112.22, -54.14
7.23138, 104, 38.2324, 28.4459, 11.6083, 10.2121, 112.363, -53.6488
7.23943, 104, 38.3713, 28.8138, 11.6276, 10.4219, 112.5, -53.18
7.24758, 104, 38.5038, 29.1659, 11.6459, 10.625, 112.628, -52.7344
7.25527, 104, 38.6288, 29.501, 11.6634, 10.8202, 112.749, -52.3135
7.26351, 104, 38.746, 29.8174, 11.6798, 11.0069, 112.862, -51.9178
7.27131, 104, 38.8552, 30.115, 11.6949, 11.1845, 112.968, -51.5463
7.27939, 104, 38.9567, 30.3944, 11.7092, 11.3522, 113.066, -51.2002
7.28745, 104, 39.0505, 30.6539, 11.7221, 11.5096, 113.156, -50.8798
7.29549, 104, 39.1361, 30.8938, 11.7338, 11.6563, 113.24, -50.5843
7.30348, 104, 39.2135, 31.1143, 11.7445, 11.7918, 113.316, -50.3141
7.31196, 104, 39.2824, 31.3146, 11.7544, 11.9158, 113.384, -50.0693
7.32033, 104, 39.3434, 31.4954, 11.7634, 12.0278, 113.445, -49.8498
7.32774, 104, 39.397, 31.657, 11.7713, 12.1279, 113.5, -49.6552
7.33589, 104, 39.4439, 31.7992, 11.7783, 12.2159, 113.547, -49.4857
7.34451, 104, 39.4849, 31.923, 11.7847, 12.2914, 113.587, -49.3408
7.35181, 104, 39.5197, 32.0297, 11.7905, 12.3552, 113.621, -49.2192
7.36037, 104, 39.5484, 32.1198, 11.7956, 12.4074, 113.648, -49.1206
7.36784, 104, 39.5608, 32.1945, 11.8002, 12.4479, 113.669, -49.0421
7.37638, 104, 39.5911, 32.2558, 11.8042, 12.4792, 113.685, -48.9831
7.38415, 104, 39.6061, 32.3052, 11.808, 12.5024, 113.696, -48.9402
7.3913, 104, 39.6124, 32.3258, 11.8097, 12.5114, 113.701, -48.9239
7.40034, 104, 39.6269, 32.3729, 11.8145, 12.53, 113.709, -48.8913
7.40839, 104, 39.6303, 32.3845, 11.8159, 12.537, 113.712, -48.8796
7.41526, 104, 39.6355, 32.4031, 11.8184, 12.5393, 113.713, -48.8759
7.42447, 104, 39.6397, 32.4211, 11.821, 12.5431, 113.714, -48.8703
7.43132, 104, 39.6404, 32.4248, 11.8217, 12.5437, 113.714, -48.8695
7.43925, 105, 39.6412, 32.4301, 11.8228, 12.5444, 113.714, -48.8686
7.44863, 105, 39.6407, 32.4348, 11.8241, 12.5449, 113.714, -48.8683
7.45531, 105, 39.6402, 32.4358, 11.8245, 12.545, 113.714, -48.8683
7.4633, 105, 39.6392, 32.4376, 11.8252, 12.5451, 113.714, -48.8684
7.47278, 105, 39.6372, 32.4396, 11.826, 12.5452, 113.714, -48.8687
7.47934, 105, 39.6366, 32.4402, 11.8263, 12.5452, 113.714, -48.8688
7.48883, 105, 39.6354, 32.4419, 11.827, 12.5452, 113.714, -48.8692
7.49685, 105, 39.6352, 32.4425, 11.8273, 12.5451, 113.714, -48.8695
7.50501, 105, 39.6348, 32.4436, 11.8279, 12.5451, 113.714, -48.8697
7.51126, 105, 39.6345, 32.4446, 11.8285, 12.5451, 113.714, -48.87
7.51927, 105, 39.6343, 32.4455, 11.829, 12.5451, 113.714, -48.8702
7.52729, 105, 39.634, 32.4462, 11.8293, 12.5451, 113.714, -48.8704
7.53523, 105, 39.6337, 32.4467, 11.8296, 12.5451, 113.714, -48.8706
7.54328, 105, 39.6335, 32.4469, 11.8298, 12.5451, 113.714, -48.8708
7.5513, 105, 39.6332, 32.4471, 11.8301, 12.5451, 113.714, -48.871
