hehonglu123/Motion-Primitive-Planning/ILC/recorded_data/realrobot/from_NX/iteration_21/run_0.csv
timestamp, cmd_num, J1, J2, J3, J4, J5, J6
0.000362, -1, 39.6297, 32.4456, 11.832, 12.5456, 113.713, -48.8722
0.003671, -1, 39.6297, 32.4456, 11.832, 12.5456, 113.713, -48.8722
0.027364, -1, 39.6297, 32.4456, 11.832, 12.5456, 113.713, -48.8722
0.028734, -1, 39.6297, 32.4456, 11.832, 12.5456, 113.713, -48.8722
0.030021, -1, 39.6297, 32.4456, 11.832, 12.5456, 113.713, -48.8722
0.033428, -1, 39.6297, 32.4456, 11.832, 12.5456, 113.713, -48.8722
0.039509, -1, 39.6297, 32.4456, 11.832, 12.5455, 113.713, -48.8722
0.047623, -1, 39.6296, 32.4456, 11.832, 12.5455, 113.713, -48.8723
0.056278, -1, 39.6285, 32.4454, 11.832, 12.5455, 113.713, -48.8722
0.0644, -1, 39.6249, 32.4447, 11.832, 12.5456, 113.713, -48.8723
0.071679, -1, 39.618, 32.4427, 11.8318, 12.5455, 113.713, -48.8728
0.080258, -1, 39.6072, 32.4388, 11.8315, 12.5455, 113.712, -48.875
0.088464, -1, 39.6, 32.4359, 11.8314, 12.5455, 113.71, -48.8822
0.095721, -1, 39.5804, 32.4274, 11.8314, 12.5455, 113.705, -48.8975
0.104161, -1, 39.5339, 32.4069, 11.8323, 12.5455, 113.696, -48.9239
0.111094, -1, 39.5135, 32.3974, 11.8334, 12.5455, 113.689, -48.9425
0.120204, -1, 39.4348, 32.3594, 11.8414, 12.5456, 113.657, -49.0257
0.127082, -1, 39.4022, 32.3434, 11.8459, 12.5456, 113.642, -49.0643
0.137135, -1, 39.2841, 32.2837, 11.8665, 12.5461, 113.583, -49.2153
0.143143, -1, 39.2378, 32.2599, 11.8758, 12.5464, 113.559, -49.2784
0.152433, -1, 39.078, 32.1766, 11.9108, 12.5479, 113.469, -49.5056
0.159077, -1, 39.0178, 32.1448, 11.9246, 12.5486, 113.435, -49.5937
0.168508, -1, 38.8173, 32.039, 11.9715, 12.5514, 113.317, -49.8899
0.175083, -1, 38.7445, 32.0005, 11.9887, 12.5525, 113.275, -49.9981
0.185572, -1, 38.5091, 31.8764, 12.0434, 12.5558, 113.138, -50.3445
0.191205, -1, 38.4258, 31.8326, 12.0624, 12.557, 113.09, -50.4658
0.200736, -1, 38.1651, 31.6959, 12.1205, 12.5606, 112.942, -50.8402
0.207083, -1, 38.0752, 31.6489, 12.14, 12.5619, 112.891, -50.9673
0.215143, -1, 37.8917, 31.5534, 12.1788, 12.5643, 112.79, -51.2242
0.224661, -1, 37.7041, 31.4565, 12.2176, 12.5667, 112.688, -51.4826
0.23208, -1, 37.5138, 31.3587, 12.2563, 12.5691, 112.585, -51.7422
0.239078, -1, 37.3222, 31.2607, 12.295, 12.5716, 112.482, -52.0019
0.248076, -1, 37.1301, 31.1627, 12.3339, 12.574, 112.38, -52.2616
0.256099, -1, 36.9378, 31.0649, 12.3726, 12.5766, 112.277, -52.5217
0.263072, -1, 36.7458, 30.9671, 12.4113, 12.5791, 112.174, -52.7821
0.271093, -1, 36.5541, 30.8693, 12.4502, 12.5817, 112.071, -53.0425
0.28008, -1, 36.3626, 30.7715, 12.4891, 12.5842, 111.968, -53.3029
0.287104, -1, 36.171, 30.6736, 12.5279, 12.5867, 111.865, -53.5634
0.29508, -1, 35.9794, 30.5757, 12.5669, 12.5892, 111.762, -53.824
0.304182, -1, 35.7878, 30.4776, 12.6058, 12.5918, 111.659, -54.0847
0.312194, -1, 35.5959, 30.3796, 12.6448, 12.5942, 111.556, -54.345
0.320073, -1, 35.4039, 30.2813, 12.6836, 12.5968, 111.453, -54.6053
0.327155, -1, 35.2115, 30.183, 12.7224, 12.5993, 111.35, -54.8659
0.335075, -1, 35.0191, 30.0847, 12.7614, 12.6017, 111.247, -55.1268
0.343083, -1, 34.8268, 29.9862, 12.8004, 12.6043, 111.143, -55.3874
0.352085, -1, 34.6344, 29.8877, 12.8392, 12.6068, 111.04, -55.6483
0.487893, -1, 31.3554, 28.2125, 13.5021, 12.6515, 109.288, -60.0865
0.48916, -1, 31.3554, 28.2125, 13.5021, 12.6515, 109.288, -60.0865
0.491677, -1, 31.2589, 28.1632, 13.5216, 12.6528, 109.237, -60.2172
0.493057, -1, 31.2589, 28.1632, 13.5216, 12.6528, 109.237, -60.2172
0.495012, -1, 31.2589, 28.1632, 13.5412, 12.6542, 109.185, -60.3479
0.496378, -1, 31.1625, 28.114, 13.5412, 12.6542, 109.185, -60.3479
0.497589, -1, 31.1625, 28.114, 13.5412, 12.6542, 109.185, -60.3479
0.5012, -1, 31.0662, 28.0648, 13.5608, 12.6557, 109.134, -60.4787
0.503154, -1, 30.97, 28.0155, 13.5803, 12.6571, 109.082, -60.6096
0.504598, -1, 30.97, 28.0155, 13.5803, 12.6571, 109.082, -60.6096
0.505807, -1, 30.97, 28.0155, 13.5803, 12.6571, 109.082, -60.6096
0.50857, -1, 30.8739, 27.9662, 13.5999, 12.6585, 109.03, -60.7402
0.509834, -1, 30.8739, 27.9662, 13.5999, 12.6585, 109.03, -60.7402
0.511848, -1, 30.7779, 27.917, 13.6193, 12.6599, 108.979, -60.8709
0.513121, -1, 30.7779, 27.917, 13.6193, 12.6599, 108.979, -60.8709
0.516271, -1, 30.6819, 27.8677, 13.6389, 12.6613, 108.927, -61.0015
0.517539, -1, 30.6819, 27.8677, 13.6389, 12.6613, 108.927, -61.0015
0.519883, -1, 30.586, 27.8184, 13.6584, 12.6626, 108.876, -61.1321
0.52109, -1, 30.586, 27.8184, 13.6584, 12.6626, 108.876, -61.1321
0.522412, -1, 30.586, 27.8184, 13.6584, 12.6626, 108.876, -61.1321
0.524472, -1, 30.4901, 27.7691, 13.6779, 12.664, 108.824, -61.2627
0.5275, -1, 30.3941, 27.7198, 13.6974, 12.6654, 108.772, -61.3934
0.537068, -1, 30.2019, 27.621, 13.7364, 12.6681, 108.669, -61.655
0.543529, -1, 30.0095, 27.5223, 13.7755, 12.6708, 108.566, -61.9167
0.552136, -1, 29.8168, 27.4236, 13.8145, 12.6735, 108.463, -62.1782
0.559668, -1, 29.6235, 27.3249, 13.8534, 12.6761, 108.36, -62.4399
0.568245, -1, 29.4296, 27.2261, 13.8924, 12.6787, 108.256, -62.7016
0.575799, -1, 29.2356, 27.1273, 13.9315, 12.6812, 108.153, -62.9635
0.584244, -1, 29.0412, 27.0285, 13.9705, 12.6837, 108.05, -63.2249
0.591669, -1, 28.944, 26.979, 13.99, 12.6863, 107.946, -63.4864
0.600672, -1, 28.6527, 26.8307, 14.0485, 12.6888, 107.843, -63.748
0.608107, -1, 28.4586, 26.7319, 14.0876, 12.6913, 107.739, -64.0098
0.615115, -1, 28.3617, 26.6826, 14.1072, 12.6925, 107.688, -64.1406
0.625184, -1, 28.0718, 26.5345, 14.1657, 12.6961, 107.533, -64.5331
0.631138, -1, 27.9753, 26.4851, 14.1852, 12.6974, 107.481, -64.664
0.640309, -1, 27.6861, 26.3368, 14.2438, 12.701, 107.326, -65.0569
0.778725, -1, 24.4013, 24.6567, 14.9068, 12.7405, 105.571, -69.5062
0.780027, -1, 24.4013, 24.6567, 14.9068, 12.7405, 105.571, -69.5062
0.782175, -1, 24.3051, 24.6073, 14.9263, 12.7417, 105.519, -69.637
0.783399, -1, 24.3051, 24.6073, 14.9263, 12.7417, 105.519, -69.637
0.785302, -1, 24.3051, 24.6073, 14.9458, 12.7429, 105.468, -69.7677
0.78668, -1, 24.2088, 24.5579, 14.9458, 12.7429, 105.468, -69.7677
0.787951, -1, 24.2088, 24.5579, 14.9458, 12.7429, 105.468, -69.7677
0.791211, -1, 24.1126, 24.5084, 14.9653, 12.744, 105.416, -69.8984
0.79249, -1, 24.1126, 24.5084, 14.9653, 12.744, 105.416, -69.8984
0.795255, -1, 24.0162, 24.4591, 14.9848, 12.7452, 105.364, -70.0291
0.79645, -1, 24.0162, 24.4591, 14.9848, 12.7452, 105.364, -70.0291
0.79934, -1, 23.9198, 24.4097, 15.0043, 12.7463, 105.313, -70.1599
0.800637, -1, 23.9198, 24.4097, 15.0043, 12.7463, 105.313, -70.1599
0.802661, -1, 23.8233, 24.3602, 15.0238, 12.7476, 105.261, -70.2907
0.80395, -1, 23.8233, 24.3602, 15.0238, 12.7476, 105.261, -70.2907
0.806562, -1, 23.7269, 24.3108, 15.0432, 12.7488, 105.209, -70.4216
0.807765, -1, 23.7269, 24.3108, 15.0432, 12.7488, 105.209, -70.4216
0.809609, -1, 23.6304, 24.2614, 15.0627, 12.75, 105.157, -70.5525
0.810999, -1, 23.6304, 24.2614, 15.0627, 12.75, 105.157, -70.5525
0.812285, -1, 23.6304, 24.2614, 15.0627, 12.75, 105.157, -70.5525
0.814364, -1, 23.5337, 24.212, 15.0822, 12.7511, 105.106, -70.6835
0.815785, -1, 23.5337, 24.212, 15.0822, 12.7511, 105.106, -70.6835
0.82566, -1, 23.2434, 24.0637, 15.1406, 12.7548, 104.951, -71.0758
0.832066, -1, 23.1465, 24.0142, 15.1601, 12.756, 104.899, -71.2067
0.840071, -1, 22.9525, 23.9154, 15.199, 12.7585, 104.796, -71.4686
0.849607, -1, 22.7585, 23.8166, 15.238, 12.7609, 104.692, -71.7305
0.856106, -1, 22.5646, 23.7179, 15.277, 12.7634, 104.589, -71.9921
0.864065, -1, 22.371, 23.6193, 15.316, 12.7659, 104.485, -72.2534
0.872131, -1, 22.1778, 23.5206, 15.3549, 12.7685, 104.382, -72.5149
0.879056, -1, 21.9847, 23.4218, 15.3938, 12.7711, 104.279, -72.7765
0.888062, -1, 21.7919, 23.3231, 15.4329, 12.7736, 104.176, -73.0382
0.896151, -1, 21.5996, 23.2243, 15.4718, 12.7763, 104.072, -73.2994
0.90307, -1, 21.4074, 23.1255, 15.5108, 12.779, 103.969, -73.5609
0.912058, -1, 21.2151, 23.0269, 15.5498, 12.7816, 103.866, -73.8224
0.92008, -1, 21.0227, 22.9283, 15.5887, 12.7843, 103.763, -74.0839
0.928122, -1, 20.8302, 22.8296, 15.6276, 12.787, 103.66, -74.3451
0.935153, -1, 20.6376, 22.7311, 15.6666, 12.7898, 103.557, -74.6062
0.94396, -1, 20.4447, 22.6324, 15.7054, 12.7925, 103.454, -74.8675
0.952134, -1, 20.2513, 22.5338, 15.7443, 12.7952, 103.351, -75.1289
0.959179, -1, 20.0576, 22.435, 15.7834, 12.7978, 103.248, -75.3898
0.96795, -1, 19.8639, 22.3363, 15.8221, 12.8006, 103.145, -75.6511
0.976131, -1, 19.6702, 22.2377, 15.8609, 12.8033, 103.042, -75.9123
0.983067, -1, 19.4767, 22.1392, 15.8999, 12.8061, 102.939, -76.1736
0.991967, -1, 19.2836, 22.0406, 15.9387, 12.8088, 102.836, -76.4346
1.00015, -1, 19.0907, 21.9419, 15.9776, 12.8115, 102.733, -76.6954
1.0072, -1, 18.898, 21.8433, 16.0165, 12.8142, 102.629, -76.9562
1.0161, -1, 18.7058, 21.7445, 16.0553, 12.817, 102.527, -77.2173
1.02411, -1, 18.5139, 21.6458, 16.0942, 12.8197, 102.424, -77.4783
1.03143, -1, 18.3221, 21.5473, 16.1331, 12.8223, 102.321, -77.739
1.0404, -1, 18.1302, 21.4488, 16.1719, 12.8249, 102.218, -77.9998
1.04819, -1, 17.9383, 21.3504, 16.2108, 12.8275, 102.115, -78.2605
1.05561, -1, 17.7464, 21.2521, 16.2497, 12.83, 102.012, -78.5213
1.065, -1, 17.5541, 21.1537, 16.2885, 12.8325, 101.909, -78.7818
1.07239, -1, 17.3615, 21.0554, 16.3274, 12.8349, 101.806, -79.0421
1.07967, -1, 17.1685, 20.9572, 16.3662, 12.8373, 101.703, -79.3028
1.08895, -1, 16.9755, 20.8589, 16.405, 12.8398, 101.601, -79.5635
1.0966, -1, 16.7824, 20.7607, 16.4438, 12.8421, 101.498, -79.8238
1.10406, -1, 16.5893, 20.6625, 16.4826, 12.8444, 101.395, -80.0843
1.11106, -1, 16.4928, 20.6134, 16.5019, 12.8455, 101.344, -80.2146
1.12095, -1, 16.2037, 20.4659, 16.56, 12.849, 101.19, -80.6056
1.12818, -1, 16.0116, 20.3676, 16.5988, 12.8513, 101.087, -80.8658
1.13506, -1, 15.9157, 20.3184, 16.6182, 12.8525, 101.036, -80.9958
1.14306, -1, 15.724, 20.2198, 16.6569, 12.8548, 100.933, -81.2559
1.15109, -1, 15.5326, 20.1214, 16.6955, 12.8571, 100.83, -81.516
1.16123, -1, 15.246, 19.974, 16.7536, 12.8607, 100.677, -81.9062
1.1671, -1, 15.1504, 19.9249, 16.773, 12.8618, 100.625, -82.036
1.17506, -1, 14.9592, 19.8267, 16.8117, 12.864, 100.523, -82.2958
1.18455, -1, 14.6722, 19.6795, 16.8697, 12.8675, 100.369, -82.6858
1.19113, -1, 14.5764, 19.6305, 16.8891, 12.8686, 100.318, -82.8159
1.19904, -1, 14.3846, 19.5323, 16.9277, 12.871, 100.215, -83.0756
1.20864, -1, 14.0961, 19.3853, 16.9858, 12.8743, 100.061, -83.4648
1.21512, -1, 14, 19.3364, 17.0052, 12.8754, 100.01, -83.5946
1.22304, -1, 13.8075, 19.2386, 17.0437, 12.8778, 99.9073, -83.8543
1.23206, -1, 13.615, 19.1408, 17.0824, 12.88, 99.8049, -84.1137
1.24006, -1, 13.4227, 19.0429, 17.1211, 12.8824, 99.7023, -84.3731
1.24704, -1, 13.2307, 18.9449, 17.1596, 12.8846, 99.6002, -84.6323
1.25605, -1, 13.0391, 18.847, 17.1982, 12.8871, 99.4978, -84.8917
1.26311, -1, 12.8479, 18.749, 17.2369, 12.8894, 99.3952, -85.1511
1.27104, -1, 12.6569, 18.6511, 17.2754, 12.8917, 99.2931, -85.41
1.27904, -1, 12.4663, 18.5533, 17.314, 12.8942, 99.1906, -85.6689
1.2881, -1, 12.2761, 18.4556, 17.3525, 12.8966, 99.0884, -85.9278
1.29508, -1, 12.0859, 18.3579, 17.391, 12.899, 98.9865, -86.1868
1.30312, -1, 11.8956, 18.2603, 17.4297, 12.9014, 98.8843, -86.4456
1.31104, -1, 11.7051, 18.1626, 17.4683, 12.9038, 98.7824, -86.704
1.32006, -1, 11.5142, 18.065, 17.5068, 12.9063, 98.6807, -86.9627
1.32812, -1, 11.3232, 17.9674, 17.5454, 12.9088, 98.5786, -87.2215
1.33605, -1, 11.1319, 17.8699, 17.5839, 12.9111, 98.4767, -87.48
1.34406, -1, 10.9404, 17.7724, 17.6224, 12.9136, 98.3749, -87.7382
1.35359, -1, 10.7488, 17.675, 17.6609, 12.9162, 98.2728, -87.9964
1.3601, -1, 10.5571, 17.5774, 17.6993, 12.9187, 98.171, -88.2548
1.36805, -1, 10.3658, 17.4799, 17.7377, 12.9213, 98.0692, -88.513
1.37611, -1, 10.1748, 17.3824, 17.7762, 12.9238, 97.9672, -88.771
1.38305, -1, 9.98416, 17.2848, 17.8145, 12.9265, 97.8655, -89.0291
1.39205, -1, 9.7939, 17.1872, 17.8528, 12.929, 97.7634, -89.2873
1.40015, -1, 9.60399, 17.0898, 17.8912, 12.9317, 97.6615, -89.5456
1.40706, -1, 9.41459, 16.9924, 17.9295, 12.9345, 97.5597, -89.8033
1.41604, -1, 9.22527, 16.8951, 17.9678, 12.9372, 97.4577, -90.0609
1.42413, -1, 9.03598, 16.7978, 18.0062, 12.9398, 97.3559, -90.3184
1.4311, -1, 8.84658, 16.7007, 18.0444, 12.9425, 97.2543, -90.576
1.44005, -1, 8.65701, 16.6035, 18.0829, 12.9451, 97.1524, -90.8335
1.44812, -1, 8.46739, 16.5064, 18.1212, 12.9478, 97.051, -91.0906
1.45516, -1, 8.27737, 16.4093, 18.1594, 12.9506, 96.9496, -91.3478
1.46328, -1, 8.08689, 16.3124, 18.1977, 12.9532, 96.8478, -91.6052
1.47156, -1, 7.89639, 16.2155, 18.236, 12.9559, 96.7464, -91.8622
1.48006, -1, 7.70582, 16.1186, 18.2742, 12.9585, 96.645, -92.119
1.48715, -1, 7.51527, 16.0216, 18.3125, 12.961, 96.5435, -92.3757
1.49599, -1, 7.32493, 15.9247, 18.3507, 12.9637, 96.4421, -92.6324
1.50411, -1, 7.13495, 15.8278, 18.3887, 12.9662, 96.3409, -92.8892
1.51122, -1, 6.94529, 15.7308, 18.427, 12.9688, 96.2395, -93.1457
1.52002, -1, 6.75605, 15.6339, 18.4652, 12.9713, 96.1385, -93.4021
1.52809, -1, 6.5673, 15.5371, 18.5032, 12.9738, 96.0377, -93.6584
1.53611, -1, 6.37896, 15.4403, 18.5414, 12.9763, 95.9365, -93.9149
1.54435, -1, 6.19089, 15.3436, 18.5796, 12.9788, 95.8356, -94.1711
1.55155, -1, 6.00281, 15.2469, 18.6177, 12.9812, 95.7347, -94.4269
1.56021, -1, 5.81444, 15.1502, 18.6559, 12.9836, 95.6337, -94.6828
1.56833, -1, 5.62601, 15.0536, 18.694, 12.9859, 95.5329, -94.9389
1.57562, -1, 5.43737, 14.957, 18.732, 12.9882, 95.4322, -95.1947
1.58426, -1, 5.24852, 14.8605, 18.7703, 12.9904, 95.3314, -95.45
1.59256, -1, 5.05919, 14.7642, 18.8084, 12.9926, 95.2309, -95.7055
1.60017, -1, 4.86978, 14.6679, 18.8464, 12.9949, 95.1301, -95.9612
1.60703, -1, 4.7751, 14.6197, 18.8654, 12.9961, 95.0797, -96.0889
1.61666, -1, 4.49099, 14.4751, 18.9226, 12.9993, 94.9286, -96.4716
1.6242, -1, 4.30194, 14.3787, 18.9606, 13.0015, 94.8278, -96.7265
1.63106, -1, 4.20749, 14.3305, 18.9796, 13.0026, 94.7773, -96.854
1.64113, -1, 3.92468, 14.1859, 19.0365, 13.006, 94.6262, -97.2366
1.64703, -1, 3.83073, 14.1378, 19.0555, 13.0071, 94.5757, -97.3642
1.65629, -1, 3.54956, 13.9936, 19.1125, 13.0105, 94.4246, -97.7462
1.66303, -1, 3.45601, 13.9456, 19.1314, 13.0117, 94.3744, -97.8736
1.67245, -1, 3.17559, 13.8016, 19.1882, 13.0151, 94.2234, -98.2557
1.68048, -1, 2.98861, 13.7055, 19.2261, 13.0174, 94.1226, -98.5103
1.68703, -1, 2.8951, 13.6575, 19.2451, 13.0185, 94.0725, -98.6374
1.69688, -1, 2.61441, 13.5135, 19.302, 13.0218, 93.9215, -99.0185
1.70458, -1, 2.42703, 13.4175, 19.3398, 13.0241, 93.8211, -99.2727
1.71272, -1, 2.23948, 13.3217, 19.3776, 13.0264, 93.7209, -99.5269
1.72065, -1, 2.14552, 13.2738, 19.4155, 13.0287, 93.6205, -99.7806
1.72859, -1, 1.9574, 13.178, 19.4344, 13.0298, 93.5705, -100.034
1.73692, -1, 1.7693, 13.0822, 19.4722, 13.0321, 93.4206, -100.288
1.74404, -1, 1.58103, 12.9863, 19.5099, 13.0343, 93.3705, -100.415
1.75203, -1, 1.39294, 12.8905, 19.5478, 13.0366, 93.2704, -100.668
1.76014, -1, 1.20513, 12.7947, 19.5855, 13.0389, 93.1706, -100.922
1.76804, -1, 1.01771, 12.6989, 19.6232, 13.0413, 93.0704, -101.175
1.77604, -1, 0.830938, 12.6033, 19.661, 13.0436, 92.9705, -101.428
1.78403, -1, 0.644618, 12.5078, 19.6986, 13.046, 92.8708, -101.681
1.79204, -1, 0.458711, 12.4123, 19.7362, 13.0484, 92.771, -101.934
1.80011, -1, 0.273028, 12.317, 19.7739, 13.0509, 92.6713, -102.186
1.80804, -1, 0.0875583, 12.2216, 19.8115, 13.0534, 92.572, -102.439
1.81604, -1, -0.0979071, 12.1263, 19.8491, 13.0558, 92.4723, -102.692
1.82409, -1, -0.283624, 12.031, 19.8868, 13.0582, 92.3727, -102.944
1.83204, -1, -0.469484, 11.9359, 19.9244, 13.0608, 92.2735, -103.196
1.84004, -1, -0.655636, 11.8408, 19.9619, 13.0632, 92.1739, -103.448
1.8481, -1, -0.842048, 11.7458, 19.9995, 13.0657, 92.0743, -103.7
1.85604, -1, -1.02869, 11.6507, 20.0369, 13.0682, 91.9752, -103.952
1.86408, -1, -1.21552, 11.5556, 20.0744, 13.0708, 91.8757, -104.204
1.87211, -1, -1.40244, 11.4606, 20.112, 13.0733, 91.7765, -104.456
1.88004, -1, -1.58914, 11.3654, 20.1494, 13.0758, 91.6775, -104.707
1.8872, -1, -1.77556, 11.2703, 20.1868, 13.0784, 91.5781, -104.959
1.89503, -1, -1.96167, 11.1753, 20.2243, 13.081, 91.4789, -105.21
1.90406, -1, -2.14709, 11.0804, 20.2617, 13.0837, 91.3799, -105.461
1.91212, -1, -2.33194, 10.9855, 20.2991, 13.0863, 91.2806, -105.712
1.91903, -1, -2.51662, 10.8907, 20.3365, 13.089, 91.1816, -105.963
1.92805, -1, -2.70085, 10.796, 20.3737, 13.0917, 91.0825, -106.214
1.93612, -1, -2.88474, 10.7012, 20.411, 13.0943, 90.9835, -106.465
1.94312, -1, -3.06873, 10.6065, 20.4485, 13.0969, 90.8846, -106.715
1.95146, -1, -3.2529, 10.5119, 20.4858, 13.0995, 90.7857, -106.966
1.95993, -1, -3.43739, 10.4174, 20.523, 13.102, 90.6867, -107.217
1.96806, -1, -3.62214, 10.3229, 20.5602, 13.1046, 90.5879, -107.467
1.97563, -1, -3.80703, 10.2286, 20.5975, 13.1071, 90.489, -107.717
1.98451, -1, -3.99221, 10.1343, 20.6347, 13.1095, 90.3903, -107.967
1.99106, -1, -4.17758, 10.0399, 20.672, 13.112, 90.2917, -108.217
1.99988, -1, -4.36325, 9.94565, 20.7091, 13.1143, 90.1931, -108.467
2.00933, -1, -4.54867, 9.85128, 20.7463, 13.1167, 90.0945, -108.716
2.01603, -1, -4.73378, 9.75701, 20.7836, 13.1191, 89.9961, -108.966
2.02412, -1, -4.91854, 9.66283, 20.8206, 13.1215, 89.8976, -109.215
2.03131, -1, -5.10269, 9.56879, 20.8577, 13.1239, 89.7991, -109.465
2.03939, -1, -5.28618, 9.47469, 20.8949, 13.1262, 89.7009, -109.714
2.04833, -1, -5.46936, 9.38073, 20.9319, 13.1285, 89.6024, -109.963
2.05546, -1, -5.65209, 9.28685, 20.969, 13.1308, 89.5041, -110.211
2.06359, -1, -5.83453, 9.19295, 21.0061, 13.1331, 89.406, -110.46
2.07244, -1, -6.01693, 9.09908, 21.0431, 13.1353, 89.3078, -110.709
2.07958, -1, -6.19949, 9.0053, 21.0801, 13.1375, 89.2097, -110.958
2.08819, -1, -6.38231, 8.9116, 21.1172, 13.1398, 89.112, -111.206
2.09657, -1, -6.56537, 8.81798, 21.154, 13.1419, 89.0139, -111.454
2.10355, -1, -6.65698, 8.77116, 21.1724, 13.143, 88.9649, -111.702
2.11204, -1, -6.93243, 8.63073, 21.2279, 13.1462, 88.8181, -111.951
2.11902, -1, -7.02436, 8.58391, 21.2463, 13.1473, 88.7692, -112.074
2.12702, -1, -7.20849, 8.49034, 21.2831, 13.1495, 88.6712, -112.322
2.13616, -1, -7.48461, 8.34984, 21.3385, 13.1526, 88.5247, -112.693
2.14303, -1, -7.57646, 8.30305, 21.3569, 13.1537, 88.4759, -112.817
2.15112, -1, -7.75997, 8.20963, 21.3936, 13.1559, 88.3783, -113.065
2.15902, -1, -7.94311, 8.11621, 21.4306, 13.1581, 88.2809, -113.312
2.16929, -1, -8.21664, 7.97623, 21.4857, 13.1615, 88.1349, -113.683
2.17506, -1, -8.30747, 7.92959, 21.5041, 13.1626, 88.0862, -113.806
2.18456, -1, -8.57947, 7.78973, 21.5594, 13.1659, 87.9402, -114.176
2.1934, -1, -8.76036, 7.69658, 21.5961, 13.1683, 87.8428, -114.423
2.19911, -1, -8.85069, 7.65001, 21.6145, 13.1694, 87.794, -114.546
2.20919, -1, -9.1219, 7.51042, 21.6696, 13.1727, 87.6482, -114.916
2.21501, -1, -9.21243, 7.46396, 21.688, 13.1739, 87.5996, -115.039
2.2231, -1, -9.39372, 7.37118, 21.7245, 13.1761, 87.5023, -115.285
2.23267, -1, -9.57539, 7.27834, 21.7612, 13.1794, 87.3568, -115.654
2.24004, -1, -9.75735, 7.1855, 21.7979, 13.1805, 87.3081, -115.778
2.24802, -1, -9.93969, 7.09279, 21.8344, 13.1827, 87.2109, -116.024
2.25607, -1, -10.1222, 7.00004, 21.8709, 13.1849, 87.1137, -116.27
2.26403, -1, -10.3049, 6.90725, 21.9075, 13.1872, 87.0166, -116.515
2.27108, -1, -10.4874, 6.8145, 21.944, 13.1893, 86.9193, -116.761
2.28007, -1, -10.6697, 6.72176, 21.9806, 13.1916, 86.8223, -117.006
2.28806, -1, -10.8514, 6.62919, 22.0171, 13.194, 86.7255, -117.251
2.29607, -1, -11.0327, 6.53663, 22.0534, 13.1965, 86.6286, -117.497
2.30303, -1, -11.2132, 6.44413, 22.09, 13.1988, 86.5319, -117.742
2.31208, -1, -11.3931, 6.35169, 22.1265, 13.2013, 86.4355, -117.986
2.31901, -1, -11.5727, 6.2593, 22.1629, 13.2037, 86.3386, -118.231
2.32802, -1, -11.752, 6.16685, 22.1994, 13.2062, 86.242, -118.476
2.33602, -1, -11.9312, 6.07456, 22.2358, 13.2087, 86.1454, -118.72
2.34302, -1, -12.1105, 5.98234, 22.2722, 13.2111, 86.0488, -118.965
2.35202, -1, -12.2901, 5.89026, 22.3087, 13.2136, 85.9523, -119.209
2.36003, -1, -12.47, 5.79823, 22.345, 13.2161, 85.8561, -119.453
2.36901, -1, -12.6503, 5.70617, 22.3812, 13.2186, 85.7598, -119.697
2.37601, -1, -12.8309, 5.61422, 22.4176, 13.221, 85.6636, -119.941
2.38403, -1, -13.0118, 5.52234, 22.4539, 13.2234, 85.5678, -120.185
2.39209, -1, -13.193, 5.4303, 22.4901, 13.226, 85.4718, -120.428
2.40004, -1, -13.3742, 5.3383, 22.5264, 13.2283, 85.3758, -120.672
2.40807, -1, -13.5551, 5.24638, 22.5627, 13.2308, 85.2802, -120.915
2.41502, -1, -13.7355, 5.15453, 22.5988, 13.2334, 85.1843, -121.158
2.42403, -1, -13.9155, 5.06272, 22.635, 13.2359, 85.0885, -121.401
2.43208, -1, -14.0947, 4.97094, 22.6712, 13.2385, 84.9931, -121.644
2.44003, -1, -14.2731, 4.87927, 22.7073, 13.2411, 84.8973, -121.887
2.44803, -1, -14.4512, 4.78764, 22.7434, 13.2436, 84.8017, -122.13
2.45608, -1, -14.629, 4.69596, 22.7797, 13.2462, 84.7063, -122.372
2.46402, -1, -14.8066, 4.60444, 22.8158, 13.2486, 84.6105, -122.615
2.47158, -1, -14.9842, 4.51295, 22.8519, 13.2511, 84.5147, -122.857
2.4801, -1, -15.162, 4.42159, 22.8881, 13.2536, 84.4192, -123.099
2.48801, -1, -15.3403, 4.3303, 22.9242, 13.2559, 84.3234, -123.341
2.49603, -1, -15.5189, 4.23897, 22.9602, 13.2583, 84.2278, -123.583
2.50409, -1, -15.698, 4.14769, 22.9963, 13.2607, 84.1324, -123.824
2.51202, -1, -15.8772, 4.05644, 23.0322, 13.2629, 84.0368, -124.066
2.52003, -1, -16.0565, 3.9652, 23.0681, 13.2651, 83.9414, -124.308
2.52808, -1, -16.2363, 3.8739, 23.1042, 13.2672, 83.8461, -124.549
2.53606, -1, -16.4159, 3.7827, 23.1401, 13.2694, 83.7505, -124.79
2.54419, -1, -16.5951, 3.69155, 23.1759, 13.2716, 83.6551, -125.032
2.55137, -1, -16.7738, 3.60045, 23.2118, 13.2739, 83.5599, -125.273
2.55982, -1, -16.9519, 3.50942, 23.2477, 13.2761, 83.4644, -125.514
2.56835, -1, -17.129, 3.41844, 23.2835, 13.2783, 83.369, -125.754
2.57552, -1, -17.3057, 3.32752, 23.3194, 13.2806, 83.2741, -125.995
2.58411, -1, -17.4821, 3.2367, 23.3552, 13.2827, 83.1788, -126.236
2.5924, -1, -17.6583, 3.14594, 23.391, 13.2848, 83.0839, -126.476
2.59964, -1, -17.8343, 3.05532, 23.427, 13.2869, 82.9892, -126.716
2.60802, -1, -18.0105, 2.96476, 23.4628, 13.289, 82.8943, -126.957
2.61649, -1, -18.0986, 2.91958, 23.4806, 13.2901, 82.8469, -127.197
2.62301, -1, -18.2751, 2.82925, 23.5163, 13.2923, 82.7522, -127.317
2.63205, -1, -18.5407, 2.69355, 23.57, 13.2953, 82.6101, -127.677
2.63903, -1, -18.6295, 2.64835, 23.5878, 13.2964, 82.5628, -127.796
2.64701, -1, -18.8072, 2.55805, 23.6235, 13.2984, 82.4683, -128.036
2.65636, -1, -19.0744, 2.42228, 23.6771, 13.3014, 82.3266, -128.395
2.66296, -1, -19.1635, 2.37705, 23.6949, 13.3024, 82.2795, -128.515
2.67105, -1, -19.3417, 2.28672, 23.7304, 13.3044, 82.1852, -128.754
2.68052, -1, -19.6079, 2.1511, 23.7839, 13.3077, 82.0441, -129.112
2.68928, -1, -19.7847, 2.06076, 23.8192, 13.3098, 81.9499, -129.351
2.6951, -1, -19.8729, 2.01561, 23.8369, 13.3109, 81.9028, -129.471
2.70487, -1, -20.1364, 1.8802, 23.8903, 13.3141, 81.7618, -129.829
2.7134, -1, -20.3115, 1.79002, 23.9258, 13.3164, 81.6677, -130.067
2.71907, -1, -20.3988, 1.74498, 23.9435, 13.3175, 81.6207, -130.186
2.72864, -1, -20.5734, 1.60992, 23.9969, 13.3208, 81.48, -130.544
2.73601, -1, -20.7479, 1.56495, 24.0146, 13.3219, 81.4329, -130.663
2.74307, -1, -20.9225, 1.47507, 24.0499, 13.324, 81.3391, -130.901
2.75312, -1, -21.1851, 1.34047, 24.1033, 13.3273, 81.1986, -131.258
2.759, -1, -21.2729, 1.29556, 24.121, 13.3284, 81.1516, -131.377
2.76801, -1, -21.4485, 1.20586, 24.1563, 13.3306, 81.0577, -131.615
2.77606, -1, -21.6246, 1.11623, 24.1916, 13.3328, 80.964, -131.853
2.78404, -1, -21.8008, 1.02657, 24.2271, 13.3349, 80.8701, -132.09
2.79206, -1, -21.9771, 0.936947, 24.2624, 13.3371, 80.7763, -132.327
2.80002, -1, -22.1537, 0.847381, 24.2978, 13.3392, 80.6827, -132.564
2.80805, -1, -22.3302, 0.757844, 24.3331, 13.3414, 80.5891, -132.802
2.81606, -1, -22.5063, 0.668385, 24.3683, 13.3436, 80.4955, -133.039
2.824, -1, -22.6819, 0.578897, 24.4035, 13.346, 80.4019, -133.275
2.83202, -1, -22.8569, 0.489465, 24.4388, 13.3484, 80.3083, -133.512
2.84008, -1, -23.0309, 0.400028, 24.4739, 13.3508, 80.2147, -133.749
2.84805, -1, -23.2045, 0.310657, 24.509, 13.3533, 80.1212, -133.986
2.8558, -1, -23.3778, 0.221305, 24.5442, 13.3557, 80.0278, -134.222
2.86407, -1, -23.5509, 0.132094, 24.5794, 13.3582, 79.9344, -134.459
2.87305, -1, -23.7241, 0.0429739, 24.6145, 13.3605, 79.841, -134.695
2.88002, -1, -23.8975, -0.0461002, 24.6498, 13.3629, 79.7481, -134.931
2.88806, -1, -24.0711, -0.135022, 24.6848, 13.3654, 79.6548, -135.167
2.89601, -1, -24.2448, -0.22398, 24.7198, 13.3679, 79.5617, -135.402
2.90406, -1, -24.4189, -0.312912, 24.755, 13.3703, 79.4688, -135.638
2.91209, -1, -24.5934, -0.401753, 24.7901, 13.3728, 79.3756, -135.874
2.919, -1, -24.7682, -0.490665, 24.8251, 13.3751, 79.2826, -136.109
2.92802, -1, -24.9432, -0.579561, 24.8602, 13.3775, 79.1897, -136.345
2.93607, -1, -25.1183, -0.668396, 24.8953, 13.3799, 79.0965, -136.58
2.94401, -1, -25.293, -0.757159, 24.9302, 13.3822, 79.0037, -136.815
2.95213, -1, -25.4673, -0.845978, 24.9652, 13.3847, 78.9112, -137.05
2.95909, -1, -25.6413, -0.934752, 25.0002, 13.3872, 78.8184, -137.285
2.96804, -1, -25.8145, -1.02341, 25.035, 13.3896, 78.7257, -137.52
2.97688, -1, -25.9871, -1.11215, 25.07, 13.392, 78.6334, -137.754
2.984, -1, -26.1594, -1.20082, 25.105, 13.3945, 78.5408, -137.989
2.99202, -1, -26.3313, -1.28939, 25.1398, 13.3968, 78.4482, -138.223
3.00079, -1, -26.503, -1.37789, 25.1747, 13.3992, 78.3558, -138.458
3.008, -1, -26.6749, -1.46625, 25.2097, 13.4014, 78.2633, -138.692
3.016, -1, -26.847, -1.55453, 25.2446, 13.4037, 78.1708, -138.926
3.02481, -1, -27.0194, -1.64268, 25.2794, 13.406, 78.0784, -139.16
3.03206, -1, -27.1919, -1.73091, 25.3144, 13.4081, 77.9865, -139.394
3.03939, -1, -27.3645, -1.8191, 25.3492, 13.4103, 77.8942, -139.628
3.04888, -1, -27.5376, -1.90712, 25.3839, 13.4125, 77.8023, -139.861
3.05603, -1, -27.7108, -1.99532, 25.4188, 13.4145, 77.7104, -140.095
3.06406, -1, -27.8841, -2.08343, 25.4537, 13.4167, 77.6183, -140.328
3.07311, -1, -28.0575, -2.17142, 25.4884, 13.4187, 77.5262, -140.562
3.07956, -1, -28.2307, -2.25945, 25.5231, 13.4207, 77.4343, -140.795
3.08816, -1, -28.4037, -2.34749, 25.558, 13.4228, 77.3421, -141.028
3.09631, -1, -28.5763, -2.43551, 25.5927, 13.4248, 77.25, -141.261
3.10377, -1, -28.7484, -2.52346, 25.6273, 13.427, 77.1581, -141.493
3.11223, -1, -28.9198, -2.61147, 25.6621, 13.4292, 77.0661, -141.726
3.11899, -1, -29.0052, -2.65541, 25.6794, 13.4303, 77.0202, -141.843
3.12703, -1, -29.1758, -2.74327, 25.7139, 13.4325, 76.9282, -142.075
3.13612, -1, -29.4317, -2.87491, 25.766, 13.4355, 76.7905, -142.424
3.14303, -1, -29.517, -2.91872, 25.7833, 13.4366, 76.7446, -142.54
3.15103, -1, -29.6878, -3.00628, 25.8178, 13.4385, 76.6527, -142.773
3.16029, -1, -29.9444, -3.13756, 25.8697, 13.4417, 76.5151, -143.121
3.167, -1, -30.0299, -3.18128, 25.887, 13.4428, 76.4691, -143.237
3.17644, -1, -30.2864, -3.31253, 25.9388, 13.4458, 76.3316, -143.585
3.183, -1, -30.372, -3.35624, 25.956, 13.4469, 76.2859, -143.701
3.19247, -1, -30.6294, -3.48747, 26.0079, 13.4499, 76.1486, -144.049
3.19899, -1, -30.7153, -3.53123, 26.0251, 13.4509, 76.1029, -144.165
3.20862, -1, -30.9732, -3.66228, 26.0769, 13.454, 75.966, -144.511
3.21654, -1, -31.1449, -3.74965, 26.1114, 13.456, 75.8745, -144.743
3.22469, -1, -31.3163, -3.83694, 26.1458, 13.4581, 75.7831, -144.974
3.23261, -1, -31.4019, -3.88061, 26.163, 13.4591, 75.6921, -145.205
3.23999, -1, -31.5729, -3.96794, 26.1974, 13.4613, 75.6463, -145.321
3.24864, -1, -31.7434, -4.05519, 26.2319, 13.4635, 75.555, -145.552
3.25599, -1, -31.9133, -4.14244, 26.2662, 13.4656, 75.4639, -145.783
3.264, -1, -32.083, -4.22966, 26.3006, 13.4678, 75.3729, -146.014
3.27204, -1, -32.2524, -4.31678, 26.335, 13.47, 75.2817, -146.245
3.27999, -1, -32.4217, -4.40382, 26.3692, 13.4722, 75.1907, -146.475
3.288, -1, -32.5914, -4.49079, 26.4035, 13.4743, 75.1002, -146.705
3.29599, -1, -32.7612, -4.57771, 26.438, 13.4764, 75.0091, -146.936
3.304, -1, -32.9308, -4.66461, 26.4722, 13.4786, 74.9183, -147.166
3.31207, -1, -33.1005, -4.75155, 26.5064, 13.4808, 74.8279, -147.397
3.3216, -1, -33.3553, -4.8818, 26.5578, 13.4842, 74.6918, -147.741
3.32799, -1, -33.4403, -4.92525, 26.575, 13.4853, 74.6465, -147.856
3.33606, -1, -33.6106, -5.01224, 26.6091, 13.4874, 74.5559, -148.086
3.34402, -1, -33.781, -5.09902, 26.6434, 13.4896, 74.4654, -148.316
3.35205, -1, -33.9513, -5.18577, 26.6775, 13.4918, 74.3748, -148.546
3.36005, -1, -34.1215, -5.27248, 26.7116, 13.4941, 74.2843, -148.775
3.37001, -1, -34.3767, -5.40252, 26.7629, 13.4975, 74.1484, -149.119
3.37508, -1, -34.4616, -5.44584, 26.78, 13.4987, 74.1031, -149.234
3.38298, -1, -34.6311, -5.5325, 26.8141, 13.501, 74.0126, -149.464
3.39199, -1, -34.8, -5.61913, 26.8482, 13.5034, 73.9221, -149.693
3.39999, -1, -34.9686, -5.70572, 26.8824, 13.5059, 73.8315, -149.922
3.40805, -1, -35.1369, -5.79219, 26.9164, 13.5083, 73.7411, -150.151
3.41518, -1, -35.3051, -5.87863, 26.9504, 13.5107, 73.651, -150.38
3.42304, -1, -35.4736, -5.96492, 26.9846, 13.5132, 73.5605, -150.609
3.431, -1, -35.6422, -6.05112, 27.0186, 13.5155, 73.4702, -150.837
3.44001, -1, -35.8107, -6.13734, 27.0526, 13.5178, 73.3801, -151.066
3.44805, -1, -35.9792, -6.22352, 27.0867, 13.5202, 73.2894, -151.295
3.45599, -1, -36.1477, -6.30965, 27.1207, 13.5226, 73.1991, -151.523
3.46399, -1, -36.3163, -6.3958, 27.1546, 13.5251, 73.1088, -151.752
3.47205, -1, -36.4851, -6.48205, 27.1886, 13.5275, 73.0184, -151.98
3.48002, -1, -36.6539, -6.56822, 27.2226, 13.5298, 72.9281, -152.208
3.48763, -1, -36.8229, -6.65444, 27.2565, 13.532, 72.8379, -152.436
3.49605, -1, -36.9919, -6.74056, 27.2904, 13.5344, 72.748, -152.664
3.50399, -1, -37.1608, -6.82671, 27.3244, 13.5366, 72.6578, -152.892
3.512, -1, -37.3294, -6.91278, 27.3582, 13.5389, 72.5679, -153.12
3.52, -1, -37.4977, -6.99879, 27.3921, 13.5411, 72.4781, -153.348
3.52805, -1, -37.6657, -7.08485, 27.4262, 13.5434, 72.3881, -153.575
3.536, -1, -37.8333, -7.17088, 27.46, 13.5456, 72.2983, -153.803
3.54403, -1, -38.0009, -7.25683, 27.4938, 13.5479, 72.2087, -154.03
3.55205, -1, -38.1684, -7.34276, 27.5278, 13.5501, 72.1188, -154.258
3.56012, -1, -38.3358, -7.42859, 27.5617, 13.5522, 72.0291, -154.485
3.56752, -1, -38.503, -7.51428, 27.5955, 13.5544, 71.9396, -154.712
3.57615, -1, -38.6703, -7.60001, 27.6294, 13.5564, 71.8499, -154.939
3.58351, -1, -38.8376, -7.68571, 27.6633, 13.5585, 71.7604, -155.167
3.59209, -1, -39.0049, -7.77134, 27.697, 13.5605, 71.671, -155.393
3.60017, -1, -39.1723, -7.85691, 27.7308, 13.5626, 71.5819, -155.62
3.60762, -1, -39.2561, -7.89977, 27.7647, 13.5646, 71.4923, -155.847
3.61599, -1, -39.5074, -8.0283, 27.7984, 13.5666, 71.4029, -156.074
3.62424, -1, -39.6751, -8.11385, 27.8321, 13.5685, 71.3138, -156.3
3.63097, -1, -39.7589, -8.1566, 27.8489, 13.5695, 71.269, -156.413
3.64003, -1, -40.0102, -8.28481, 27.8996, 13.5724, 71.1349, -156.753
3.64699, -1, -40.094, -8.32752, 27.9164, 13.5734, 71.0902, -156.866
3.65617, -1, -40.3451, -8.45556, 27.967, 13.5764, 70.9564, -157.206
3.66312, -1, -40.4288, -8.49828, 27.9839, 13.5774, 70.9117, -157.319
3.67263, -1, -40.6792, -8.62633, 28.0342, 13.5803, 70.7781, -157.658
3.68035, -1, -40.846, -8.71165, 28.0679, 13.5823, 70.6889, -157.883
3.68701, -1, -40.9292, -8.7543, 28.0848, 13.5833, 70.6443, -157.996
3.69659, -1, -41.1787, -8.88225, 28.1352, 13.5864, 70.5106, -158.336
3.7045, -1, -41.3449, -8.96741, 28.1687, 13.5884, 70.4216, -158.561
3.71255, -1, -41.5112, -9.05255, 28.2024, 13.5903, 70.3323, -158.787
3.72094, -1, -41.6775, -9.13765, 28.236, 13.5923, 70.243, -159.012
3.72859, -1, -41.7606, -9.22275, 28.2695, 13.5943, 70.1542, -159.237
3.73652, -1, -41.927, -9.26526, 28.2863, 13.5953, 70.1096, -159.463
3.7446, -1, -42.0933, -9.35025, 28.32, 13.5974, 70.0206, -159.688
3.75197, -1, -42.2596, -9.43532, 28.3535, 13.5994, 69.9316, -159.801
3.75999, -1, -42.4259, -9.52031, 28.387, 13.6014, 69.8428, -160.026
3.76802, -1, -42.5922, -9.60526, 28.4205, 13.6034, 69.7537, -160.251
3.77599, -1, -42.7586, -9.69018, 28.454, 13.6054, 69.6648, -160.477
3.78397, -1, -42.925, -9.77511, 28.4874, 13.6075, 69.5762, -160.702
3.79203, -1, -43.0914, -9.86005, 28.5209, 13.6095, 69.4872, -160.927
3.79999, -1, -43.2576, -9.94498, 28.5544, 13.6116, 69.3986, -161.152
3.80798, -1, -43.4238, -10.0299, 28.5878, 13.6137, 69.31, -161.376
3.81608, -1, -43.5898, -10.1149, 28.6213, 13.6158, 69.2214, -161.601
3.82399, -1, -43.7557, -10.1998, 28.6548, 13.6179, 69.1329, -161.826
3.83198, -1, -43.9215, -10.2846, 28.6882, 13.62, 69.0444, -162.05
3.84004, -1, -44.0871, -10.3694, 28.7215, 13.6222, 68.9559, -162.275
3.84798, -1, -44.2523, -10.4541, 28.7551, 13.6243, 68.8673, -162.499
3.85605, -1, -44.4176, -10.5387, 28.7885, 13.6266, 68.7787, -162.723
3.86404, -1, -44.5827, -10.6233, 28.8218, 13.6288, 68.6902, -162.947
3.87301, -1, -44.7478, -10.7079, 28.8553, 13.6309, 68.6015, -163.171
3.88002, -1, -44.9132, -10.7923, 28.8888, 13.6331, 68.5129, -163.395
3.88896, -1, -45.0785, -10.8769, 28.9221, 13.6353, 68.4247, -163.619
3.89598, -1, -45.2439, -10.9615, 28.9555, 13.6375, 68.3361, -163.844
3.90398, -1, -45.4092, -11.046, 28.9889, 13.6398, 68.2477, -164.068
3.91204, -1, -45.5744, -11.1305, 29.0221, 13.6421, 68.1595, -164.292
3.92008, -1, -45.7397, -11.215, 29.0553, 13.6443, 68.0713, -164.515
3.92704, -1, -45.9047, -11.2993, 29.0888, 13.6466, 67.9829, -164.739
3.93506, -1, -46.0677, -11.3826, 29.1222, 13.6489, 67.8945, -164.962
3.94308, -1, -46.2272, -11.4636, 29.1557, 13.6512, 67.8068, -165.185
3.95197, -1, -46.3811, -11.541, 29.1894, 13.6537, 67.7202, -165.403
3.96005, -1, -46.5271, -11.6136, 29.2225, 13.6559, 67.6365, -165.615
3.96797, -1, -46.6628, -11.6804, 29.2537, 13.6583, 67.5584, -165.813
3.97598, -1, -46.7854, -11.7401, 29.2819, 13.6603, 67.4871, -165.993
3.98411, -1, -46.8923, -11.7926, 29.3063, 13.6623, 67.4256, -166.149
3.99097, -1, -46.9828, -11.8385, 29.3258, 13.6637, 67.3753, -166.277
3.99998, -1, -47.0575, -11.8785, 29.3396, 13.6648, 67.3362, -166.375
4.00804, -1, -47.1172, -11.9116, 29.3487, 13.6653, 67.3079, -166.447
4.01597, -1, -47.1627, -11.9373, 29.3542, 13.6656, 67.289, -166.494
4.02397, -1, -47.1957, -11.9559, 29.3569, 13.6658, 67.2774, -166.523
4.03206, -1, -47.2183, -11.9685, 29.3581, 13.6659, 67.2709, -166.54
4.03998, -1, -47.2325, -11.9763, 29.3586, 13.666, 67.2675, -166.548
4.04825, -1, -47.2405, -11.9805, 29.3589, 13.666, 67.2659, -166.552
4.05545, 2, -47.2442, -11.9824, 29.3591, 13.666, 67.2651, -166.554
4.06402, 2, -47.245, -11.9833, 29.3592, 13.666, 67.2647, -166.555
4.07206, 2, -47.2449, -11.9835, 29.3593, 13.6661, 67.2646, -166.555
4.08013, 2, -47.2447, -11.9836, 29.3593, 13.6661, 67.2645, -166.555
4.08747, 2, -47.2448, -11.9837, 29.3594, 13.6661, 67.2645, -166.555
4.09608, 2, -47.2455, -11.9839, 29.3594, 13.6661, 67.2645, -166.556
4.10417, 2, -47.2465, -11.9842, 29.3595, 13.6661, 67.2645, -166.556
4.1116, 2, -47.2472, -11.9845, 29.3595, 13.6661, 67.2645, -166.555
4.11999, 2, -47.2498, -11.9857, 29.3594, 13.6661, 67.2645, -166.556
4.12806, 2, -47.2513, -11.9866, 29.3594, 13.6661, 67.2645, -166.556
4.13503, 2, -47.252, -11.987, 29.3594, 13.6661, 67.2644, -166.555
4.14402, 2, -47.2532, -11.9879, 29.3594, 13.666, 67.2644, -166.555
4.15095, 2, -47.2534, -11.9881, 29.3594, 13.6661, 67.2644, -166.555
4.16049, 2, -47.2537, -11.9883, 29.3594, 13.666, 67.2645, -166.555
4.16821, 2, -47.2536, -11.9883, 29.3595, 13.6661, 67.2645, -166.555
4.17504, 2, -47.2534, -11.9883, 29.3595, 13.6661, 67.2645, -166.555
4.1846, 2, -47.2527, -11.9883, 29.3595, 13.666, 67.2645, -166.555
4.19242, 2, -47.2522, -11.9883, 29.3595, 13.6661, 67.2645, -166.555
4.19896, 2, -47.2521, -11.9883, 29.3595, 13.666, 67.2645, -166.555
4.20891, 2, -47.2519, -11.9883, 29.3595, 13.6661, 67.2645, -166.555
4.21657, 2, -47.2519, -11.9884, 29.3595, 13.6661, 67.2645, -166.555
4.2246, 2, -47.2521, -11.9886, 29.3595, 13.6661, 67.2645, -166.555
4.23283, 2, -47.2525, -11.989, 29.3595, 13.6661, 67.2645, -166.555
4.2406, 2, -47.2528, -11.9891, 29.3595, 13.6661, 67.2645, -166.555
4.24856, 2, -47.2534, -11.9894, 29.3595, 13.666, 67.2645, -166.555
4.25693, 2, -47.2537, -11.9897, 29.3595, 13.6661, 67.2645, -166.555
4.26396, 2, -47.2539, -11.9897, 29.3595, 13.6661, 67.2645, -166.555
4.272, 2, -47.254, -11.9897, 29.3595, 13.6661, 67.2645, -166.555
4.27997, 2, -47.2538, -11.9897, 29.3595, 13.6661, 67.2645, -166.555
4.28796, 2, -47.2537, -11.9897, 29.3595, 13.6661, 67.2645, -166.555
4.29602, 2, -47.2532, -11.9896, 29.3595, 13.6661, 67.2645, -166.555
4.30397, 2, -47.2529, -11.9895, 29.3595, 13.6661, 67.2645, -166.555
4.31196, 2, -47.2526, -11.9895, 29.3595, 13.6661, 67.2645, -166.555
4.32006, 2, -47.2524, -11.9895, 29.3595, 13.6661, 67.2645, -166.555
4.32796, 2, -47.2523, -11.9896, 29.3595, 13.6661, 67.2645, -166.555
4.33597, 2, -47.2523, -11.9896, 29.3595, 13.6661, 67.2645, -166.555
4.34402, 2, -47.2522, -11.9897, 29.3595, 13.666, 67.2645, -166.555
4.35205, 2, -47.2522, -11.9898, 29.3595, 13.666, 67.2646, -166.555
4.35902, 2, -47.2522, -11.9898, 29.3595, 13.666, 67.2646, -166.555
4.36803, 2, -47.2522, -11.9898, 29.3595, 13.6661, 67.2645, -166.555
4.37782, 2, -47.2522, -11.9898, 29.3595, 13.6661, 67.2646, -166.555
4.38401, 2, -47.2522, -11.9897, 29.3595, 13.666, 67.2646, -166.555
4.39202, 2, -47.2522, -11.9896, 29.3595, 13.666, 67.2646, -166.555
4.39997, 2, -47.2521, -11.9896, 29.3595, 13.666, 67.2646, -166.555
4.40796, 2, -47.252, -11.9895, 29.3595, 13.666, 67.2645, -166.555
4.41603, 2, -47.2519, -11.9895, 29.3595, 13.666, 67.2646, -166.555
4.42395, 2, -47.2517, -11.9895, 29.3595, 13.666, 67.2646, -166.555
4.43196, 2, -47.2517, -11.9895, 29.3595, 13.666, 67.2646, -166.555
4.44003, 2, -47.2516, -11.9895, 29.3595, 13.666, 67.2646, -166.555
4.44796, 2, -47.2515, -11.9895, 29.3595, 13.666, 67.2646, -166.555
4.45596, 2, -47.2514, -11.9896, 29.3595, 13.666, 67.2646, -166.555
4.46403, 2, -47.2514, -11.9896, 29.3595, 13.666, 67.2646, -166.555
4.47195, 2, -47.2513, -11.9895, 29.3595, 13.666, 67.2646, -166.555
4.47997, 2, -47.2512, -11.9895, 29.3595, 13.666, 67.2646, -166.555
4.48807, 2, -47.2512, -11.9895, 29.3595, 13.666, 67.2646, -166.555
4.49522, 2, -47.2511, -11.9895, 29.3595, 13.666, 67.2646, -166.555
4.50304, 2, -47.2511, -11.9894, 29.3595, 13.666, 67.2646, -166.555
4.51098, 2, -47.2509, -11.9893, 29.3595, 13.666, 67.2646, -166.555
4.51899, 2, -47.2509, -11.9892, 29.3595, 13.666, 67.2646, -166.555
4.52717, 2, -47.2508, -11.9892, 29.3595, 13.666, 67.2646, -166.555
4.53521, 2, -47.2507, -11.9892, 29.3595, 13.666, 67.2646, -166.555
4.5433, 2, -47.2506, -11.9892, 29.3595, 13.666, 67.2646, -166.555
4.55142, 2, -47.2505, -11.9892, 29.3595, 13.666, 67.2647, -166.555
4.56006, 2, -47.2505, -11.9892, 29.3595, 13.6659, 67.2647, -166.555
4.56799, 2, -47.2504, -11.9892, 29.3595, 13.6659, 67.2647, -166.555
4.57605, 2, -47.2503, -11.9892, 29.3595, 13.6659, 67.2647, -166.555
4.58411, 2, -47.2501, -11.9892, 29.3595, 13.6659, 67.2647, -166.555
4.59161, 2, -47.25, -11.9892, 29.3595, 13.6659, 67.2647, -166.555
4.60007, 2, -47.2499, -11.9891, 29.3595, 13.6659, 67.2647, -166.555
4.60813, 2, -47.2497, -11.989, 29.3595, 13.6659, 67.2647, -166.555
4.61564, 2, -47.2496, -11.989, 29.3595, 13.6659, 67.2647, -166.555
4.62397, 2, -47.2495, -11.9889, 29.3595, 13.6659, 67.2647, -166.555
4.63205, 2, -47.2494, -11.9889, 29.3595, 13.6659, 67.2647, -166.555
4.6401, 2, -47.2493, -11.9889, 29.3595, 13.6659, 67.2647, -166.555
4.64699, 2, -47.2493, -11.9889, 29.3595, 13.6659, 67.2647, -166.555
4.6562, 2, -47.2491, -11.9889, 29.3595, 13.6658, 67.2647, -166.555
4.66301, 2, -47.2491, -11.9889, 29.3595, 13.6658, 67.2647, -166.555
4.67225, 2, -47.249, -11.9889, 29.3595, 13.6659, 67.2647, -166.555
4.67894, 2, -47.249, -11.9889, 29.3595, 13.6659, 67.2647, -166.555
4.68849, 2, -47.2489, -11.9888, 29.3595, 13.6659, 67.2647, -166.555
4.69648, 2, -47.2489, -11.9888, 29.3595, 13.6658, 67.2647, -166.555
4.70452, 2, -47.2488, -11.9887, 29.3595, 13.6658, 67.2647, -166.555
4.71247, 2, -47.2488, -11.9887, 29.3595, 13.6658, 67.2647, -166.555
4.72063, 2, -47.2487, -11.9886, 29.3595, 13.6658, 67.2647, -166.555
4.72853, 2, -47.2486, -11.9885, 29.3595, 13.6658, 67.2647, -166.555
4.73682, 2, -47.2486, -11.9885, 29.3595, 13.6658, 67.2647, -166.555
4.74451, 2, -47.2485, -11.9885, 29.3595, 13.6658, 67.2647, -166.555
4.75254, 2, -47.2485, -11.9885, 29.3595, 13.6658, 67.2647, -166.555
4.75996, 2, -47.2484, -11.9885, 29.3595, 13.6658, 67.2647, -166.555
4.76794, 2, -47.2484, -11.9885, 29.3595, 13.6658, 67.2647, -166.555
4.776, 2, -47.2484, -11.9885, 29.3595, 13.6658, 67.2647, -166.555
4.78395, 2, -47.2483, -11.9885, 29.3595, 13.6658, 67.2647, -166.555
4.79195, 2, -47.2483, -11.9885, 29.3595, 13.6658, 67.2648, -166.554
4.80002, 2, -47.2483, -11.9884, 29.3595, 13.6658, 67.2648, -166.554
4.80794, 2, -47.2482, -11.9884, 29.3595, 13.6657, 67.2648, -166.554
4.81596, 2, -47.2482, -11.9883, 29.3595, 13.6657, 67.2648, -166.554
4.82404, 2, -47.2481, -11.9882, 29.3595, 13.6657, 67.2647, -166.554
4.83194, 2, -47.248, -11.9882, 29.3595, 13.6657, 67.2648, -166.554
4.83996, 2, -47.2479, -11.9881, 29.3595, 13.6657, 67.2648, -166.554
4.84801, 2, -47.2479, -11.9881, 29.3595, 13.6656, 67.2648, -166.554
4.85595, 2, -47.2478, -11.9881, 29.3595, 13.6656, 67.2648, -166.554
4.86396, 2, -47.2478, -11.9881, 29.3595, 13.6656, 67.2648, -166.554
4.87293, 2, -47.2478, -11.9881, 29.3595, 13.6656, 67.2648, -166.554
4.87995, 2, -47.2477, -11.9881, 29.3594, 13.6656, 67.2648, -166.554
4.88893, 2, -47.2477, -11.9881, 29.3595, 13.6656, 67.2648, -166.554
4.89601, 2, -47.2476, -11.9881, 29.3595, 13.6656, 67.2648, -166.554
4.90394, 2, -47.2476, -11.988, 29.3595, 13.6656, 67.2648, -166.554
4.91195, 2, -47.2475, -11.988, 29.3595, 13.6656, 67.2649, -166.554
4.92002, 2, -47.2475, -11.9879, 29.3595, 13.6656, 67.2649, -166.554
4.92795, 2, -47.2474, -11.9878, 29.3595, 13.6655, 67.2649, -166.554
4.93596, 2, -47.2473, -11.9878, 29.3595, 13.6656, 67.2649, -166.554
4.94402, 2, -47.2473, -11.9877, 29.3595, 13.6656, 67.265, -166.554
4.95194, 2, -47.2472, -11.9877, 29.3595, 13.6655, 67.265, -166.554
4.95996, 2, -47.2472, -11.9877, 29.3595, 13.6655, 67.265, -166.554
4.968, 2, -47.2471, -11.9877, 29.3595, 13.6655, 67.265, -166.554
4.97595, 2, -47.2471, -11.9877, 29.3595, 13.6654, 67.265, -166.554
4.98394, 2, -47.2471, -11.9877, 29.3595, 13.6654, 67.2651, -166.554
4.99206, 2, -47.247, -11.9877, 29.3595, 13.6654, 67.2651, -166.554
4.99894, 2, -47.247, -11.9877, 29.3595, 13.6654, 67.2651, -166.554
5.00794, 2, -47.2469, -11.9876, 29.3595, 13.6654, 67.265, -166.554
5.01601, 2, -47.247, -11.9876, 29.3595, 13.6654, 67.2651, -166.554
5.02395, 2, -47.2469, -11.9875, 29.3595, 13.6654, 67.2651, -166.554
5.03197, 2, -47.2469, -11.9874, 29.3595, 13.6654, 67.2651, -166.554
5.04002, 2, -47.2468, -11.9874, 29.3595, 13.6654, 67.2651, -166.554
5.04794, 2, -47.2467, -11.9874, 29.3595, 13.6654, 67.2651, -166.554
5.05746, 2, -47.2466, -11.9874, 29.3595, 13.6653, 67.2651, -166.554
5.06407, 2, -47.2465, -11.9873, 29.3595, 13.6653, 67.2651, -166.554
5.07203, 2, -47.2465, -11.9873, 29.3595, 13.6653, 67.2651, -166.554
5.08007, 2, -47.2465, -11.9873, 29.3595, 13.6653, 67.2651, -166.554
5.0881, 2, -47.2464, -11.9873, 29.3595, 13.6653, 67.2651, -166.554
5.09604, 2, -47.2464, -11.9873, 29.3595, 13.6652, 67.2651, -166.554
5.10354, 2, -47.2463, -11.9873, 29.3595, 13.6652, 67.2651, -166.554
5.11226, 2, -47.2463, -11.9873, 29.3595, 13.6652, 67.2651, -166.554
5.12002, 2, -47.2463, -11.9872, 29.3594, 13.6652, 67.2651, -166.554
5.1275, 2, -47.2463, -11.9872, 29.3594, 13.6652, 67.2651, -166.554
5.13625, 4, -47.2462, -11.9871, 29.3595, 13.6652, 67.2651, -166.554
5.14293, 4, -47.2462, -11.9871, 29.3595, 13.6652, 67.2651, -166.554
5.152, 4, -47.2461, -11.987, 29.3595, 13.6652, 67.2651, -166.554
5.16023, 4, -47.246, -11.987, 29.3595, 13.6651, 67.2652, -166.554
5.16692, 4, -47.2459, -11.987, 29.3595, 13.6651, 67.2652, -166.554
5.17653, 4, -47.2459, -11.987, 29.3595, 13.6651, 67.2653, -166.554
5.18436, 4, -47.2458, -11.987, 29.3595, 13.6651, 67.2652, -166.554
5.19092, 4, -47.2458, -11.987, 29.3595, 13.6651, 67.2652, -166.554
5.20073, 4, -47.2458, -11.987, 29.3595, 13.6651, 67.2653, -166.554
5.2085, 4, -47.2458, -11.9869, 29.3595, 13.6651, 67.2653, -166.554
5.2165, 4, -47.2458, -11.9869, 29.3595, 13.6651, 67.2652, -166.554
5.22477, 4, -47.2457, -11.9869, 29.3595, 13.6651, 67.2653, -166.554
5.23268, 4, -47.2457, -11.9868, 29.3595, 13.6651, 67.2653, -166.553
5.24091, 4, -47.2457, -11.9868, 29.3595, 13.6651, 67.2653, -166.553
5.25329, 4, -47.2456, -11.9868, 29.3594, 13.6651, 67.2653, -166.553
5.25672, 4, -47.2456, -11.9868, 29.3594, 13.665, 67.2653, -166.553
5.26802, 4, -47.2455, -11.9867, 29.3595, 13.665, 67.2653, -166.553
5.27106, 4, -47.2455, -11.9867, 29.3595, 13.665, 67.2653, -166.553
5.28375, 4, -47.2454, -11.9867, 29.3594, 13.665, 67.2654, -166.553
5.28819, 4, -47.2454, -11.9867, 29.3595, 13.665, 67.2654, -166.553
5.29884, 4, -47.2453, -11.9867, 29.3595, 13.665, 67.2654, -166.553
5.30541, 4, -47.2453, -11.9867, 29.3595, 13.665, 67.2653, -166.553
5.3142, 4, -47.2453, -11.9866, 29.3595, 13.665, 67.2654, -166.553
5.32014, 4, -47.2453, -11.9866, 29.3595, 13.6649, 67.2654, -166.553
5.32982, 4, -47.2453, -11.9866, 29.3594, 13.6649, 67.2653, -166.553
5.33522, 4, -47.2453, -11.9866, 29.3594, 13.6649, 67.2653, -166.553
5.34311, 4, -47.2452, -11.9865, 29.3594, 13.6649, 67.2653, -166.553
5.35487, 4, -47.2451, -11.9865, 29.3594, 13.6649, 67.2653, -166.553
5.35907, 4, -47.2451, -11.9865, 29.3594, 13.6649, 67.2653, -166.553
5.37025, 4, -47.245, -11.9865, 29.3595, 13.6649, 67.2653, -166.553
5.37825, 4, -47.245, -11.9864, 29.3595, 13.6648, 67.2653, -166.553
5.38495, 4, -47.245, -11.9864, 29.3594, 13.6648, 67.2653, -166.553
5.39212, 4, -47.245, -11.9864, 29.3594, 13.6648, 67.2653, -166.553
5.39953, 4, -47.2451, -11.9865, 29.3595, 13.6648, 67.2653, -166.553
5.41167, 4, -47.247, -11.9876, 29.3605, 13.6653, 67.2655, -166.553
5.41607, 4, -47.2483, -11.9887, 29.3617, 13.6667, 67.2659, -166.553
5.42613, 4, -47.2525, -11.9932, 29.3723, 13.6865, 67.2708, -166.55
5.43207, 5, -47.2596, -12.0022, 29.3798, 13.7013, 67.2747, -166.547
5.44318, 5, -47.2793, -12.0283, 29.4231, 13.7884, 67.2988, -166.528
5.44814, 5, -47.2892, -12.0417, 29.447, 13.8379, 67.3127, -166.517
5.45607, 5, -47.316, -12.0772, 29.5138, 13.9776, 67.3523, -166.485
5.46319, 5, -47.3533, -12.1255, 29.6112, 14.1845, 67.4092, -166.437
5.47554, 5, -47.4324, -12.2252, 29.8236, 14.6435, 67.5352, -166.332
5.48342, 5, -47.4652, -12.3106, 30.0126, 15.0546, 67.646, -166.237
5.48807, 5, -47.54, -12.359, 30.1217, 15.2907, 67.7093, -166.183
5.49672, 5, -47.6269, -12.4666, 30.367, 15.8182, 67.8493, -166.063
5.50409, 5, -47.7245, -12.5873, 30.6444, 16.4077, 68.0042, -165.93
5.516, 5, -47.8872, -12.7894, 31.1103, 17.377, 68.2536, -165.715
5.51921, 5, -47.9446, -12.8612, 31.2756, 17.715, 68.3392, -165.641
5.52807, 5, -48.0629, -13.0095, 31.6164, 18.4023, 68.5106, -165.492
5.53553, 5, -48.1836, -13.1615, 31.9654, 19.0967, 68.6806, -165.344
5.5442, 5, -48.3042, -13.3135, 32.3183, 19.7873, 68.8472, -165.197
5.55314, 5, -48.4219, -13.4622, 32.6707, 20.464, 69.0096, -165.049
5.56013, 5, -48.5324, -13.6047, 33.0174, 21.1174, 69.169, -164.892
5.56898, 6, -48.6314, -13.7374, 33.3519, 21.7351, 69.3274, -164.714
5.57588, 6, -48.7146, -13.859, 33.6695, 22.3097, 69.4876, -164.501
5.58815, 7, -48.8023, -14.0255, 34.107, 23.0801, 69.7366, -164.089
5.59166, 7, -48.8208, -14.0772, 34.242, 23.312, 69.8226, -163.921
5.60041, 7, -48.8416, -14.1739, 34.4959, 23.7419, 69.9997, -163.54
5.60832, 8, -48.8424, -14.2604, 34.7316, 24.1329, 70.1839, -163.098
5.61667, 8, -48.8262, -14.3382, 34.9541, 24.4949, 70.3751, -162.601
5.62601, 9, -48.796, -14.4091, 35.1666, 24.8383, 70.5737, -162.059
5.6328, 9, -48.7545, -14.4751, 35.3743, 25.1733, 70.7797, -161.483
5.63977, 10, -48.7301, -14.5068, 35.4778, 25.3402, 70.8857, -160.884
5.65093, 10, -48.6435, -14.6002, 35.7899, 25.8458, 71.2147, -160.268
5.65802, 11, -48.5765, -14.6623, 35.9994, 26.1908, 71.4418, -159.642
5.66708, 11, -48.504, -14.7245, 36.2107, 26.5441, 71.6733, -159.011
5.67305, 12, -48.4275, -14.7873, 36.4217, 26.9057, 71.9081, -158.376
5.68431, 12, -48.3093, -14.8813, 36.7356, 27.4639, 72.2646, -157.417
5.68925, 13, -48.2697, -14.9116, 36.8397, 27.654, 72.3845, -157.095
5.69739, 13, -48.19, -14.9702, 37.0463, 28.0402, 72.6263, -156.448
5.70491, 14, -48.1085, -15.0279, 37.2508, 28.4336, 72.8706, -155.797
5.715, 14, -48.0666, -15.0571, 37.3526, 28.8333, 73.1176, -155.142
5.71907, 15, -47.9796, -15.1161, 37.5557, 29.0349, 73.2419, -154.814
5.72944, 15, -47.8422, -15.2042, 37.8565, 29.6431, 73.6149, -153.833
5.73676, 16, -47.7439, -15.2623, 38.0546, 30.049, 73.8621, -153.182
5.74552, 16, -47.6922, -15.3213, 38.2512, 30.4524, 74.1059, -152.536
5.75283, 17, -47.5833, -15.3515, 38.4446, 30.8522, 74.3447, -151.896
5.76167, 17, -47.4097, -15.4449, 38.6349, 31.247, 74.5769, -151.262
5.76708, 18, -47.3495, -15.4764, 38.7293, 31.4423, 74.6903, -150.948
5.77517, 18, -47.2254, -15.5402, 38.9165, 31.8291, 74.912, -150.326
5.78565, 19, -47.0961, -15.6058, 39.1012, 32.2119, 75.1271, -149.713
5.79377, 19, -46.9611, -15.6745, 39.2838, 32.7824, 75.4401, -148.806
5.80163, 20, -46.7486, -15.7826, 39.5557, 33.1617, 75.6435, -148.209
5.81016, 20, -46.6007, -15.8568, 39.7342, 33.5406, 75.8434, -147.62
5.81606, 21, -46.525, -15.8945, 39.8223, 33.7299, 75.942, -147.327
5.8261, 21, -46.3702, -15.9716, 40.0832, 34.2974, 76.2322, -146.457
5.83215, 22, -46.2111, -16.0507, 40.1693, 34.4862, 76.3269, -146.17
5.84307, 22, -45.9641, -16.1721, 40.4229, 35.049, 76.6041, -145.319
5.85047, 23, -45.7933, -16.2542, 40.588, 35.4201, 76.7827, -144.759
5.85614, 23, -45.7056, -16.2959, 40.6697, 35.6041, 76.8699, -144.481
5.86403, 24, -45.5249, -16.3809, 40.8311, 35.9689, 77.0405, -143.929
5.87109, 24, -45.337, -16.4681, 40.9885, 36.328, 77.2053, -143.383
5.88009, 25, -45.1422, -16.5568, 41.1416, 36.6804, 77.3642, -142.842
5.88705, 25, -44.9409, -16.6462, 41.2908, 37.0253, 77.5172, -142.305
5.8961, 26, -44.7329, -16.7366, 41.4356, 37.3624, 77.6646, -141.772
5.90668, 26, -44.5175, -16.8287, 41.5754, 37.6914, 77.8762, -140.98
5.91212, 27, -44.2948, -16.9214, 41.7097, 38.0125, 77.9445, -140.717
5.92091, 27, -44.0654, -17.0139, 41.8383, 38.3254, 78.0774, -140.191
5.93038, 28, -43.7088, -17.1512, 42.0196, 38.7795, 78.2698, -139.406
5.93618, 28, -43.5862, -17.1967, 42.0768, 38.9267, 78.332, -139.145
5.94519, 29, -43.3358, -17.2865, 42.1861, 39.2147, 78.4541, -138.623
5.95285, 29, -43.0787, -17.3745, 42.2887, 39.4948, 78.5736, -138.102
5.96009, 30, -42.815, -17.4607, 42.384, 39.7669, 78.6897, -137.58
5.96814, 30, -42.5436, -17.5448, 42.4722, 40.0307, 78.8035, -137.059
5.97524, 31, -42.2638, -17.6265, 42.5532, 40.2863, 78.9145, -136.539
5.98411, 31, -41.9763, -17.7054, 42.6271, 40.5335, 79.0229, -136.019
5.99467, 32, -41.6815, -17.7819, 42.6941, 40.7726, 79.1293, -135.499
5.99985, 32, -41.3801, -17.8559, 42.7544, 41.0031, 79.2327, -134.98
6.00781, 33, -41.0723, -17.9271, 42.8076, 41.2255, 79.3339, -134.462
6.01613, 33, -40.7578, -17.9949, 42.8536, 41.4401, 79.4327, -133.945
6.02406, 34, -40.4367, -18.0598, 42.8924, 41.6462, 79.5286, -133.429
6.03314, 34, -40.1107, -18.1221, 42.9239, 41.8444, 79.6218, -132.913
6.03984, 35, -39.7799, -18.1815, 42.9481, 42.0346, 79.713, -132.399
6.04817, 35, -39.4433, -18.2375, 42.9653, 42.2175, 79.8011, -131.887
6.05614, 36, -39.0999, -18.2902, 42.9754, 42.3927, 79.8875, -131.375
6.06926, 36, -38.7491, -18.3394, 42.9787, 42.56, 79.9714, -130.609
6.07193, 37, -38.3918, -18.3854, 42.9754, 42.7198, 80.0533, -130.355
6.08352, 37, -37.8448, -18.4476, 42.9575, 42.9454, 80.1725, -129.595
6.08815, 38, -37.6597, -18.4665, 42.9481, 43.0169, 80.211, -129.342
6.09698, 38, -37.2862, -18.5018, 42.9245, 43.1544, 80.2866, -128.837
6.10511, 39, -36.9083, -18.5337, 42.894, 43.2843, 80.36, -128.335
6.11354, 39, -36.5259, -18.562, 42.8569, 43.4071, 80.4314, -127.834
6.12105, 40, -36.1383, -18.5866, 42.8132, 43.5224, 80.5011, -127.335
6.13071, 40, -35.7446, -18.6074, 42.7629, 43.6306, 80.5689, -126.838
6.1363, 41, -35.3451, -18.6241, 42.706, 43.7316, 80.6349, -126.343
6.14498, 41, -34.9398, -18.6372, 42.6427, 43.8251, 80.6983, -125.85
6.15169, 42, -34.7355, -18.6424, 42.6087, 43.8695, 80.7298, -125.604
6.1661, 43, -33.9099, -18.6552, 42.4564, 44.0287, 80.8493, -124.628
6.16888, 43, -33.7016, -18.6564, 42.4146, 44.0638, 80.8786, -124.385
6.17725, 43, -33.2817, -18.6563, 42.3263, 44.1291, 80.9348, -123.901
6.18627, 44, -32.856, -18.6524, 42.2323, 44.1874, 80.9894, -123.419
6.19103, 44, -32.6408, -18.6491, 42.1832, 44.2136, 81.0166, -123.18
6.20139, 45, -31.9856, -18.6333, 42.027, 44.2817, 81.094, -122.464
6.21019, 45, -31.5422, -18.6182, 41.9154, 44.3183, 81.144, -121.989
6.21687, 46, -31.0957, -18.5997, 41.7978, 44.3469, 81.1925, -121.517
6.22854, 46, -30.6476, -18.5778, 41.6743, 44.3676, 81.2607, -120.814
6.23292, 47, -30.1966, -18.5519, 41.5449, 44.3809, 81.2833, -120.58
6.24253, 47, -29.7404, -18.5216, 41.4097, 44.3872, 81.3277, -120.115
6.25114, 48, -29.2776, -18.4868, 41.2685, 44.3864, 81.3701, -119.651
6.25887, 48, -28.8086, -18.4478, 41.1211, 44.3766, 81.4118, -119.189
6.26477, 49, -28.572, -18.4267, 40.9679, 44.3583, 81.4537, -118.73
6.27192, 49, -28.0963, -18.381, 40.889, 44.3458, 81.4745, -118.501
6.28011, 50, -27.6183, -18.331, 40.7267, 44.3133, 81.5151, -118.043
6.29006, 50, -26.8954, -18.2465, 40.4708, 44.247, 81.5768, -117.357
6.29512, 51, -26.6515, -18.2156, 40.3823, 44.2207, 81.598, -117.129
6.303, 51, -26.158, -18.1495, 40.2004, 44.1598, 81.6404, -116.674
6.31621, 52, -25.4041, -18.0401, 39.9141, 44.0505, 81.7046, -115.993
6.32004, 52, -25.1505, -18.001, 39.815, 44.0087, 81.7267, -115.767
6.32814, 53, -24.642, -17.9188, 39.6123, 43.9175, 81.7715, -115.314
6.33578, 53, -24.1312, -17.831, 39.4032, 43.8165, 81.8162, -114.861
6.34411, 54, -23.6156, -17.7369, 39.1861, 43.7051, 81.8624, -114.409
6.35107, 54, -23.0927, -17.6364, 38.9619, 43.5831, 81.9113, -113.958
6.36272, 55, -22.293, -17.4736, 38.6123, 43.379, 81.9873, -113.28
6.36707, 55, -22.0238, -17.4162, 38.4917, 43.3049, 82.0143, -113.054
6.37884, 56, -21.2121, -17.2357, 38.1203, 43.0645, 82.0982, -112.376
6.38305, 56, -20.9401, -17.1727, 37.9931, 42.9786, 82.1268, -112.15
6.39209, 57, -20.3918, -17.0427, 37.7332, 42.7982, 82.1862, -111.699
6.40009, 57, -19.8344, -16.907, 37.4673, 42.6066, 82.2465, -111.248
6.41148, 58, -18.9823, -16.6917, 37.0557, 42.2967, 82.3402, -110.573
6.41604, 58, -18.696, -16.6169, 36.9157, 42.1872, 82.3723, -110.348
6.42464, 59, -18.1215, -16.4626, 36.6304, 41.9588, 82.4375, -109.898
6.43205, 59, -17.5436, -16.3032, 36.3378, 41.7174, 82.5063, -109.449
6.4424, 60, -16.6611, -16.0563, 35.8865, 41.3295, 82.6144, -108.774
6.44831, 60, -16.3617, -15.9715, 35.733, 41.1934, 82.6519, -108.549
6.45721, 61, -15.7579, -15.7978, 35.4221, 40.9113, 82.7276, -108.099
6.46353, 61, -15.1506, -15.6194, 35.1052, 40.6163, 82.8055, -107.65
6.47288, 62, -14.5408, -15.4369, 34.7835, 40.3097, 82.8849, -107.201
6.48004, 62, -13.9249, -15.2501, 34.4573, 39.9911, 82.966, -106.752
6.48755, 63, -13.2993, -15.0574, 34.1276, 39.6601, 83.0488, -106.303
6.49611, 63, -12.665, -14.858, 33.793, 39.3158, 83.1336, -105.853
6.50415, 64, -12.0252, -14.6539, 33.4538, 38.9579, 83.2218, -105.403
6.5136, 64, -11.3818, -14.4451, 33.1088, 38.586, 83.3134, -104.952
6.5193, 65, -10.7304, -14.2293, 32.7577, 38.1988, 83.4099, -104.499
6.52817, 65, -10.0676, -14.0055, 32.4001, 37.7954, 83.5115, -104.045
6.53605, 66, -9.39492, -13.775, 32.0375, 37.3741, 83.6187, -103.588
6.54716, 66, -8.7147, -13.5374, 31.4827, 36.7093, 83.7921, -102.9
6.55393, 67, -8.02865, -13.292, 31.2938, 36.4783, 83.8531, -102.669
6.56171, 67, -7.33345, -13.0389, 30.9106, 36.0033, 83.9813, -102.206
6.56809, 68, -6.6285, -12.7778, 30.521, 35.5107, 84.1172, -101.739
6.57649, 68, -5.91563, -12.5104, 30.1269, 35.0026, 84.2603, -101.27
6.58423, 69, -5.19717, -12.2367, 29.7282, 34.4807, 84.41, -100.799
6.59573, 69, -4.10704, -11.811, 29.1247, 33.6759, 84.6445, -100.089
6.59964, 70, -3.73952, -11.6652, 28.9234, 33.4021, 84.7251, -99.8509
6.60902, 70, -2.99816, -11.3673, 28.5207, 32.844, 84.8906, -99.3737
6.61563, 71, -2.24911, -11.0615, 28.117, 32.2721, 85.0624, -98.8949
6.62464, 71, -1.49181, -10.7491, 27.7106, 31.685, 85.2425, -98.4137
6.63389, 72, -0.726774, -10.4302, 27.3015, 31.0815, 85.4317, -97.9292
6.64077, 72, 0.044456, -10.1059, 26.8903, 30.4604, 85.6302, -97.4416
6.64825, 73, 0.820211, -9.7741, 26.4771, 29.8267, 85.8376, -96.9516
6.66132, 73, 1.60044, -9.43507, 26.0639, 29.1817, 86.0527, -96.4603
6.66708, 74, 2.38424, -9.08962, 25.6521, 28.5285, 86.2756, -95.9678
6.67103, 74, 2.77701, -8.91511, 25.4475, 28.1992, 86.3896, -95.7211
6.68252, 75, 3.95733, -8.38419, 24.8412, 27.2024, 86.7413, -94.9796
6.68926, 75, 4.74535, -8.02379, 24.4431, 26.5341, 86.9827, -94.485
6.69667, 76, 5.53278, -7.65873, 24.0506, 25.8662, 87.2297, -93.99
6.71678, 77, 7.49719, -6.71929, 23.0976, 24.2009, 87.8713, -92.7501
6.71865, 77, 7.49719, -6.71929, 23.0976, 24.2009, 87.8713, -92.7501
6.7298, 78, 8.67712, -6.12978, 22.5408, 23.2032, 88.2807, -92.0059
6.73296, 78, 9.07052, -5.92884, 22.3575, 22.8685, 88.4227, -91.7567
6.73669, 78, 9.46421, -5.72601, 22.175, 22.5322, 88.5681, -91.5065
6.74472, 79, 10.2532, -5.3148, 21.8117, 21.8552, 88.869, -91.0031
6.75262, 79, 11.0443, -4.89657, 21.4506, 21.1726, 89.1835, -90.4936
6.75991, 79, 11.4394, -4.68404, 21.2708, 20.83, 89.3455, -90.2368
6.76789, 80, 12.2266, -4.25096, 20.9143, 20.1422, 89.6776, -89.7179
6.77693, 81, 13.395, -3.58229, 20.3872, 19.1188, 90.1946, -88.9256
6.78288, 81, 13.7814, -3.35558, 20.2145, 18.7828, 90.371, -88.6586
6.79185, 82, 14.5494, -2.89737, 19.8747, 18.1211, 90.7287, -88.1208
6.79897, 82, 15.3095, -2.43116, 19.5453, 17.4745, 91.091, -87.5807
6.80688, 82, 16.0605, -1.9573, 19.2257, 16.8456, 91.4577, -87.0379
6.81594, 83, 16.8001, -1.47692, 18.9159, 16.2362, 91.8281, -86.494
6.82395, 83, 17.5271, -0.991168, 18.6157, 15.6466, 92.2031, -85.9499
6.83188, 84, 18.2399, -0.501304, 18.3251, 15.0755, 92.5833, -85.4076
6.83995, 84, 18.9364, -0.0077844, 18.0428, 14.5247, 92.9701, -84.8664
6.84797, 85, 19.6151, 0.490985, 17.7667, 13.9933, 93.3645, -84.3271
6.85589, 85, 20.2748, 0.994572, 17.4973, 13.4816, 93.7669, -83.7902
6.86393, 86, 20.9167, 1.50201, 17.2337, 12.9899, 94.1755, -83.2554
6.87194, 86, 21.5439, 2.0143, 16.9767, 12.5177, 94.5898, -82.721
6.87986, 87, 22.1579, 2.53407, 16.7264, 12.0659, 95.0101, -82.1848
6.88795, 87, 22.7603, 3.06412, 16.4806, 11.633, 95.4368, -81.6446
6.89694, 87, 23.3523, 3.60375, 16.239, 11.2182, 95.8705, -81.1001
6.90397, 88, 23.9344, 4.15038, 16.0006, 10.8189, 96.3111, -80.548
6.91194, 88, 24.5058, 4.70501, 15.7655, 10.4355, 96.7583, -79.9864
6.91995, 89, 25.0668, 5.27125, 15.536, 10.067, 97.2123, -79.4142
6.92788, 89, 25.6204, 5.84974, 15.3104, 9.71426, 97.6721, -78.8307
6.93594, 90, 26.1704, 6.43883, 15.088, 9.37675, 98.1374, -78.234
6.94394, 90, 26.7142, 7.03725, 14.8702, 9.05472, 98.6086, -77.6227
6.95194, 91, 27.246, 7.64477, 14.6577, 8.75011, 99.0861, -76.9979
6.9599, 91, 27.7649, 8.26304, 14.4492, 8.4634, 99.5699, -76.3608
6.968, 92, 28.2737, 8.89208, 14.2444, 8.19734, 100.059, -75.7114
6.97595, 92, 28.7754, 9.531, 14.044, 7.95244, 100.554, -75.0523
6.98389, 93, 29.2684, 10.1782, 13.8487, 7.72948, 101.051, -74.3861
6.99199, 93, 29.7492, 10.8322, 13.6602, 7.52955, 101.55, -73.7124
6.99989, 94, 30.216, 11.4911, 13.4792, 7.35294, 102.048, -73.0318
7.0079, 94, 30.6681, 12.1533, 13.305, 7.20002, 102.544, -72.3465
7.01601, 95, 31.1063, 12.8174, 13.138, 7.07076, 103.036, -71.6564
7.0239, 95, 31.5312, 13.4834, 12.9791, 6.96528, 103.525, -70.9598
7.03198, 96, 31.9419, 14.151, 12.8274, 6.88298, 104.011, -70.2584
7.03995, 96, 32.3368, 14.819, 12.682, 6.82535, 104.493, -69.5523
7.04788, 97, 32.7153, 15.4873, 12.5433, 6.78984, 104.971, -68.8393
7.05594, 97, 33.0776, 16.1535, 12.4119, 6.7754, 105.442, -68.1222
7.06491, 98, 33.4238, 16.8161, 12.2889, 6.78323, 105.907, -67.4033
7.07207, 98, 33.7551, 17.4731, 12.1747, 6.81206, 106.362, -66.6816
7.08035, 99, 34.0721, 18.1233, 12.0701, 6.85994, 106.807, -65.9608
7.08742, 99, 34.3763, 18.7651, 11.9752, 6.92759, 107.238, -65.2448
7.09636, 100, 34.6691, 19.3973, 11.8898, 7.01177, 107.655, -64.5331
7.1036, 100, 34.9501, 20.0194, 11.8136, 7.11297, 108.056, -63.8282
7.11195, 101, 35.2187, 20.6297, 11.7462, 7.22944, 108.44, -63.1337
7.12011, 101, 35.4751, 21.228, 11.6869, 7.35991, 108.807, -62.4475
7.12821, 102, 35.7182, 21.8129, 11.6359, 7.50219, 109.157, -61.7721
7.13562, 102, 35.8342, 22.3832, 11.5924, 7.65438, 109.491, -61.1092
7.14397, 102, 36.1622, 22.939, 11.5566, 7.81437, 109.809, -60.4585
7.15272, 103, 36.3696, 23.4794, 11.5283, 7.98064, 110.113, -59.8204
7.16002, 103, 36.5713, 24.0044, 11.5085, 8.15354, 110.401, -59.1956
7.16686, 104, 36.6702, 24.2618, 11.5018, 8.24258, 110.539, -58.8885
7.17616, 104, 36.9591, 25.0131, 11.4925, 8.52192, 110.927, -57.9828
7.18291, 104, 37.0532, 25.2563, 11.4926, 8.61967, 111.047, -57.6859
7.19284, 104, 37.3254, 25.9655, 11.5019, 8.92559, 111.378, -56.8094
7.20039, 104, 37.4942, 26.42, 11.5139, 9.13931, 111.577, -56.2369
7.20832, 104, 37.6527, 26.8601, 11.5289, 9.35848, 111.76, -55.6751
7.21488, 104, 37.7296, 27.0751, 11.5375, 9.46917, 111.847, -55.3991
7.22445, 104, 37.9564, 27.6994, 11.5667, 9.80203, 112.09, -54.5961
7.23307, 104, 38.1049, 28.0972, 11.5872, 10.0212, 112.24, -54.0855
7.23888, 104, 38.1777, 28.2902, 11.5975, 10.1293, 112.313, -53.8378
7.24849, 104, 38.3194, 28.6654, 11.6176, 10.4453, 112.518, -53.1291
7.25644, 104, 38.4549, 29.0249, 11.6365, 10.5473, 112.583, -52.9046
7.26445, 104, 38.583, 29.3672, 11.6546, 10.7456, 112.706, -52.474
7.27188, 104, 38.7029, 29.6912, 11.6716, 10.9356, 112.822, -52.0686
7.27987, 104, 38.8147, 29.9962, 11.6873, 11.1167, 112.931, -51.6877
7.28791, 104, 38.9187, 30.283, 11.7021, 11.2881, 113.031, -51.3319
7.29589, 104, 39.015, 30.5506, 11.7157, 11.4495, 113.124, -51.0016
7.30388, 104, 39.1036, 30.7983, 11.728, 11.6005, 113.211, -50.6965
7.31191, 104, 39.184, 31.0268, 11.7391, 11.7402, 113.289, -50.4165
7.31988, 104, 39.2561, 31.2353, 11.7493, 11.8685, 113.36, -50.1619
7.32787, 104, 39.3201, 31.4238, 11.7588, 11.9853, 113.424, -49.9325
7.33592, 104, 39.3765, 31.5932, 11.7672, 12.0901, 113.481, -49.7283
7.34389, 104, 39.4261, 31.7431, 11.7745, 12.1825, 113.531, -49.5492
7.35186, 104, 39.4696, 31.8743, 11.7813, 12.2631, 113.573, -49.3947
7.35993, 104, 39.5072, 31.9878, 11.7874, 12.3312, 113.609, -49.2639
7.36788, 104, 39.5385, 32.0845, 11.7928, 12.3883, 113.639, -49.1568
7.37588, 104, 39.5641, 32.1652, 11.7976, 12.4329, 113.662, -49.0705
7.38541, 104, 39.5849, 32.2317, 11.8019, 12.4677, 113.68, -49.0041
7.39188, 104, 39.6014, 32.2857, 11.8058, 12.494, 113.693, -48.9551
7.39987, 104, 39.6143, 32.3286, 11.8094, 12.513, 113.702, -48.9206
7.40886, 104, 39.6243, 32.3613, 11.8125, 12.526, 113.708, -48.8976
7.41589, 104, 39.6315, 32.3857, 11.8154, 12.5347, 113.711, -48.883
7.42388, 104, 39.6363, 32.4038, 11.8179, 12.5396, 113.713, -48.8749
7.43192, 104, 39.6392, 32.4165, 11.8198, 12.5424, 113.714, -48.8708
7.43988, 104, 39.6408, 32.4247, 11.8212, 12.5437, 113.715, -48.8689
7.44787, 105, 39.6413, 32.4297, 11.8223, 12.5444, 113.715, -48.8681
7.45593, 105, 39.6409, 32.4331, 11.8232, 12.5447, 113.715, -48.8679
7.46394, 105, 39.64, 32.4354, 11.8241, 12.5448, 113.715, -48.8679
7.47187, 105, 39.639, 32.4372, 11.8248, 12.545, 113.715, -48.8681
7.47992, 105, 39.6378, 32.4386, 11.8254, 12.5451, 113.715, -48.8683
7.48787, 105, 39.6364, 32.4398, 11.8259, 12.5451, 113.715, -48.8685
7.49588, 105, 39.6355, 32.441, 11.8264, 12.5451, 113.715, -48.8688
7.50393, 105, 39.635, 32.4422, 11.827, 12.5451, 113.715, -48.8691
7.51187, 105, 39.6347, 32.4433, 11.8277, 12.5451, 113.715, -48.8694
7.51987, 105, 39.6345, 32.4443, 11.8282, 12.5451, 113.715, -48.8698
7.52792, 105, 39.6343, 32.4451, 11.8286, 12.5451, 113.715, -48.87
7.53588, 105, 39.634, 32.4458, 11.829, 12.5451, 113.715, -48.8703
7.54386, 105, 39.6337, 32.4462, 11.8293, 12.5451, 113.715, -48.8705
7.55192, 105, 39.6335, 32.4465, 11.8295, 12.5451, 113.715, -48.8707
7.55988, 105, 39.6332, 32.4466, 11.8298, 12.5451, 113.715, -48.8708
