hehonglu123/Motion-Primitive-Planning/ILC/recorded_data/realrobot/from_NX/iteration_21/run_1.csv
timestamp, cmd_num, J1, J2, J3, J4, J5, J6
0.000358, -1, 39.6287, 32.4466, 11.8313, 12.5437, 113.714, -48.8734
0.003212, -1, 39.6287, 32.4466, 11.8313, 12.5437, 113.714, -48.8734
0.008124, -1, 39.6287, 32.4466, 11.8313, 12.5437, 113.714, -48.8734
0.028565, -1, 39.6287, 32.4466, 11.8313, 12.5437, 113.714, -48.8734
0.031279, -1, 39.6287, 32.4466, 11.8313, 12.5437, 113.714, -48.8734
0.032529, -1, 39.6287, 32.4466, 11.8313, 12.5437, 113.714, -48.8734
0.039139, -1, 39.6287, 32.4466, 11.8313, 12.5437, 113.714, -48.8734
0.047239, -1, 39.6286, 32.4466, 11.8313, 12.5437, 113.714, -48.8735
0.055031, -1, 39.6281, 32.4466, 11.8313, 12.5436, 113.714, -48.8735
0.063072, -1, 39.6258, 32.4461, 11.8313, 12.5436, 113.714, -48.8735
0.071554, -1, 39.6206, 32.4448, 11.8312, 12.5436, 113.714, -48.8738
0.079998, -1, 39.6118, 32.4418, 11.8312, 12.5436, 113.713, -48.8752
0.08792, -1, 39.5986, 32.4366, 11.8311, 12.5436, 113.712, -48.8796
0.095917, -1, 39.5789, 32.428, 11.8312, 12.5436, 113.708, -48.8906
0.104012, -1, 39.5503, 32.4154, 11.8317, 12.5436, 113.701, -48.911
0.111914, -1, 39.5119, 32.3979, 11.8337, 12.5436, 113.689, -48.9445
0.11992, -1, 39.4625, 32.3742, 11.8386, 12.5436, 113.67, -48.9948
0.128006, -1, 39.4004, 32.3438, 11.8469, 12.5436, 113.643, -49.0663
0.135915, -1, 39.3249, 32.306, 11.8597, 12.5437, 113.605, -49.1605
0.143962, -1, 39.2358, 32.2603, 11.8775, 12.5439, 113.559, -49.2803
0.152066, -1, 39.1328, 32.2068, 11.8999, 12.5445, 113.502, -49.4258
0.16008, -1, 39.0157, 32.1454, 11.9267, 12.5454, 113.435, -49.5957
0.167539, -1, 38.8852, 32.0766, 11.9573, 12.547, 113.359, -49.7881
0.176091, -1, 38.7424, 32.0013, 11.9913, 12.5488, 113.275, -50
0.184025, -1, 38.588, 31.92, 12.0275, 12.5509, 113.185, -50.2278
0.191611, -1, 38.4237, 31.8338, 12.0653, 12.5533, 113.09, -50.4677
0.200167, -1, 38.2515, 31.7436, 12.1041, 12.5557, 112.992, -50.716
0.206928, -1, 38.163, 31.6974, 12.1237, 12.5569, 112.942, -50.8422
0.21596, -1, 37.8896, 31.5551, 12.1821, 12.5606, 112.79, -51.2261
0.223985, -1, 37.702, 31.4583, 12.2209, 12.563, 112.689, -51.4845
0.23097, -1, 37.6072, 31.4095, 12.2403, 12.5642, 112.637, -51.6142
0.240256, -1, 37.3201, 31.2627, 12.2984, 12.5679, 112.483, -52.0036
0.246928, -1, 37.2241, 31.2137, 12.3179, 12.5691, 112.432, -52.1334
0.256225, -1, 36.9357, 31.067, 12.376, 12.5731, 112.278, -52.5234
0.262924, -1, 36.8396, 31.0182, 12.3954, 12.5743, 112.226, -52.6535
0.272377, -1, 36.5518, 30.8715, 12.4537, 12.5781, 112.072, -53.0442
0.280449, -1, 36.3602, 30.7738, 12.4925, 12.5807, 111.969, -53.3045
0.288539, -1, 36.1685, 30.676, 12.5314, 12.5833, 111.866, -53.5649
0.296788, -1, 35.977, 30.5781, 12.5703, 12.5859, 111.763, -53.8256
0.304478, -1, 35.7855, 30.4801, 12.6092, 12.5885, 111.66, -54.0862
0.312677, -1, 35.5936, 30.382, 12.6481, 12.591, 111.557, -54.3464
0.32051, -1, 35.4975, 30.333, 12.6676, 12.5923, 111.454, -54.6067
0.327915, -1, 35.3054, 30.2346, 12.7063, 12.595, 111.402, -54.7371
0.335976, -1, 35.1129, 30.1363, 12.7452, 12.5975, 111.299, -54.9978
0.343915, -1, 34.9206, 30.0379, 12.7841, 12.6001, 111.196, -55.2586
0.351936, -1, 34.7284, 29.9395, 12.8229, 12.6027, 111.093, -55.519
0.359968, -1, 34.5361, 29.841, 12.8618, 12.6052, 110.99, -55.7799
0.367919, -1, 34.3439, 29.7426, 12.9008, 12.6079, 110.887, -56.0408
0.37592, -1, 34.1519, 29.6442, 12.9397, 12.6104, 110.784, -56.3017
0.383961, -1, 33.9601, 29.546, 12.9787, 12.6131, 110.681, -56.5625
0.391906, -1, 33.7684, 29.4477, 13.0176, 12.6158, 110.578, -56.8232
0.400013, -1, 33.5766, 29.3493, 13.0564, 12.6184, 110.475, -57.0841
0.407969, -1, 33.3844, 29.2509, 13.0954, 12.6209, 110.372, -57.3453
0.415924, -1, 33.1918, 29.1523, 13.1343, 12.6235, 110.269, -57.6063
0.423908, -1, 32.9991, 29.0537, 13.1731, 12.6262, 110.165, -57.8674
0.431991, -1, 32.8061, 28.9551, 13.212, 12.6289, 110.063, -58.1285
0.43991, -1, 32.6127, 28.8565, 13.251, 12.6315, 109.959, -58.3899
0.447915, -1, 32.4191, 28.7578, 13.2898, 12.6342, 109.856, -58.651
0.456923, -1, 32.2252, 28.6591, 13.3287, 12.6369, 109.753, -58.912
0.463909, -1, 32.031, 28.5603, 13.3676, 12.6396, 109.65, -59.1731
0.472, -1, 31.8372, 28.4616, 13.4065, 12.6423, 109.547, -59.4345
0.480962, -1, 31.6435, 28.3628, 13.4455, 12.6451, 109.444, -59.696
0.487924, -1, 31.45, 28.2642, 13.4845, 12.6479, 109.341, -59.9572
0.495989, -1, 31.257, 28.1656, 13.5234, 12.6505, 109.238, -60.2185
0.503902, -1, 31.0644, 28.0672, 13.5625, 12.6534, 109.135, -60.48
0.640482, -1, 27.7809, 26.3882, 14.2252, 12.6982, 107.379, -64.9272
0.641718, -1, 27.7809, 26.3882, 14.2252, 12.6982, 107.379, -64.9272
0.643893, -1, 27.6845, 26.3387, 14.2447, 12.6994, 107.327, -65.0582
0.645272, -1, 27.6845, 26.3387, 14.2447, 12.6994, 107.327, -65.0582
0.647128, -1, 27.6845, 26.3387, 14.2447, 12.7006, 107.276, -65.189
0.648529, -1, 27.5883, 26.2893, 14.2641, 12.7006, 107.276, -65.189
0.649791, -1, 27.5883, 26.2893, 14.2641, 12.7006, 107.276, -65.189
0.655696, -1, 27.396, 26.1903, 14.3031, 12.7031, 107.172, -65.4506
0.657798, -1, 27.396, 26.1903, 14.3031, 12.7031, 107.172, -65.4506
0.659813, -1, 27.3, 26.1408, 14.3226, 12.7043, 107.121, -65.5813
0.661108, -1, 27.3, 26.1408, 14.3226, 12.7043, 107.121, -65.5813
0.662319, -1, 27.3, 26.1408, 14.3226, 12.7043, 107.121, -65.5813
0.664419, -1, 27.2039, 26.0913, 14.3421, 12.7055, 107.069, -65.7121
0.665626, -1, 27.2039, 26.0913, 14.3421, 12.7055, 107.069, -65.7121
0.66749, -1, 27.1077, 26.0418, 14.3616, 12.7066, 107.017, -65.843
0.671246, -1, 27.1077, 26.0418, 14.3616, 12.7066, 107.017, -65.9738
0.672851, -1, 27.0114, 25.9924, 14.381, 12.7077, 106.965, -65.9738
0.674097, -1, 27.0114, 25.9924, 14.381, 12.7077, 106.965, -65.9738
0.676843, -1, 26.9151, 25.943, 14.4004, 12.7089, 106.914, -66.1048
0.678064, -1, 26.9151, 25.943, 14.4004, 12.7089, 106.914, -66.1048
0.680164, -1, 26.8188, 25.8936, 14.4199, 12.7101, 106.862, -66.2358
0.682271, -1, 26.8188, 25.8936, 14.4199, 12.7101, 106.862, -66.2358
0.688911, -1, 26.6257, 25.7946, 14.459, 12.7124, 106.759, -66.4974
0.696009, -1, 26.4323, 25.6958, 14.4978, 12.7146, 106.656, -66.7591
0.703907, -1, 26.2384, 25.597, 14.5367, 12.7169, 106.553, -67.0209
0.711997, -1, 26.0443, 25.4981, 14.5757, 12.7192, 106.45, -67.2829
0.718964, -1, 25.9472, 25.4487, 14.5952, 12.7204, 106.398, -67.4138
0.728043, -1, 25.6559, 25.3005, 14.6537, 12.7238, 106.243, -67.8061
0.736191, -1, 25.4619, 25.2017, 14.6927, 12.726, 106.14, -68.0677
0.742969, -1, 25.365, 25.1524, 14.7121, 12.7272, 106.088, -68.1986
0.752285, -1, 25.0748, 25.0042, 14.7707, 12.7307, 105.933, -68.5914
0.758907, -1, 24.9782, 24.9548, 14.7902, 12.7319, 105.882, -68.7221
0.768285, -1, 24.6887, 24.8066, 14.8486, 12.7354, 105.727, -69.1146
0.774907, -1, 24.5924, 24.7572, 14.8681, 12.7366, 105.675, -69.2456
0.784503, -1, 24.3037, 24.6088, 14.9267, 12.7402, 105.52, -69.6382
0.792447, -1, 24.1111, 24.5099, 14.9657, 12.7426, 105.417, -69.8997
0.931695, -1, 20.8288, 22.8308, 15.6277, 12.7854, 103.661, -74.3465
0.933553, -1, 20.7326, 22.7815, 15.6472, 12.7868, 103.609, -74.4771
0.934937, -1, 20.7326, 22.7815, 15.6472, 12.7868, 103.609, -74.4771
0.936208, -1, 20.7326, 22.7815, 15.6472, 12.7868, 103.609, -74.4771
0.938203, -1, 20.6363, 22.7322, 15.6667, 12.7881, 103.558, -74.6076
0.939514, -1, 20.6363, 22.7322, 15.6667, 12.7881, 103.558, -74.6076
0.940712, -1, 20.6363, 22.7322, 15.6667, 12.7881, 103.558, -74.6076
0.94579, -1, 20.4434, 22.6336, 15.7055, 12.7909, 103.455, -74.8689
0.94833, -1, 20.4434, 22.6336, 15.7055, 12.7909, 103.455, -74.8689
0.950438, -1, 20.3468, 22.5843, 15.7249, 12.7922, 103.403, -74.9997
0.95178, -1, 20.3468, 22.5843, 15.7249, 12.7922, 103.403, -74.9997
0.954396, -1, 20.3468, 22.5843, 15.7444, 12.7935, 103.352, -75.1304
0.955668, -1, 20.25, 22.5349, 15.7444, 12.7935, 103.352, -75.1304
0.957515, -1, 20.25, 22.5349, 15.7444, 12.7935, 103.352, -75.2609
0.958953, -1, 20.1532, 22.4856, 15.7639, 12.7948, 103.3, -75.2609
0.961655, -1, 20.1532, 22.4856, 15.7639, 12.7948, 103.249, -75.3914
0.963212, -1, 20.0563, 22.4362, 15.7834, 12.7962, 103.249, -75.3914
0.964431, -1, 20.0563, 22.4362, 15.7834, 12.7962, 103.249, -75.3914
0.966458, -1, 19.9595, 22.3869, 15.8028, 12.7976, 103.197, -75.522
0.96779, -1, 19.9595, 22.3869, 15.8028, 12.7976, 103.197, -75.522
0.969712, -1, 19.9595, 22.3869, 15.8028, 12.799, 103.146, -75.6526
0.97196, -1, 19.8627, 22.3375, 15.8221, 12.799, 103.146, -75.6526
0.975886, -1, 19.7659, 22.2882, 15.8414, 12.8003, 103.094, -75.7832
0.983971, -1, 19.5722, 22.1896, 15.8804, 12.803, 102.991, -76.0445
0.991887, -1, 19.3789, 22.0909, 15.9193, 12.8058, 102.888, -76.3057
0.999885, -1, 19.1859, 21.9922, 15.9581, 12.8085, 102.785, -76.5666
1.00789, -1, 18.9931, 21.8936, 15.997, 12.8114, 102.682, -76.8274
1.01588, -1, 18.8006, 21.7949, 16.0358, 12.814, 102.579, -77.0884
1.02397, -1, 18.6085, 21.6961, 16.0746, 12.8168, 102.476, -77.3495
1.03189, -1, 18.4167, 21.5975, 16.1135, 12.8195, 102.373, -77.6102
1.03988, -1, 18.2247, 21.499, 16.1524, 12.8221, 102.27, -77.8708
1.048, -1, 18.0328, 21.4005, 16.1912, 12.8247, 102.168, -78.1317
1.05588, -1, 17.841, 21.3022, 16.2301, 12.8273, 102.065, -78.3925
1.06389, -1, 17.6489, 21.2038, 16.269, 12.8298, 101.962, -78.6531
1.07205, -1, 17.4566, 21.1055, 16.3078, 12.8323, 101.859, -78.9134
1.07988, -1, 17.2637, 21.0072, 16.3467, 12.8348, 101.756, -79.174
1.08788, -1, 17.0706, 20.9089, 16.3854, 12.8371, 101.653, -79.4346
1.09596, -1, 16.8776, 20.8107, 16.4243, 12.8396, 101.55, -79.6952
1.1039, -1, 16.6845, 20.7125, 16.4631, 12.8418, 101.447, -79.9556
1.11199, -1, 16.4915, 20.6143, 16.5018, 12.8443, 101.345, -80.216
1.11997, -1, 16.2987, 20.516, 16.5405, 12.8466, 101.242, -80.4767
1.1272, -1, 16.1064, 20.4176, 16.5793, 12.849, 101.139, -80.7373
1.13525, -1, 15.9145, 20.3192, 16.618, 12.8512, 101.037, -80.9973
1.14332, -1, 15.7228, 20.2207, 16.6567, 12.8535, 100.934, -81.2574
1.152, -1, 15.5314, 20.1222, 16.6953, 12.8559, 100.831, -81.5175
1.15998, -1, 15.3402, 20.0239, 16.734, 12.8583, 100.729, -81.7777
1.16798, -1, 15.1491, 19.9257, 16.7728, 12.8606, 100.626, -82.0376
1.17605, -1, 14.9579, 19.8275, 16.8115, 12.8629, 100.523, -82.2974
1.18352, -1, 14.7665, 19.7294, 16.8501, 12.8651, 100.421, -82.5574
1.19201, -1, 14.5751, 19.6312, 16.8888, 12.8674, 100.318, -82.8175
1.20008, -1, 14.3833, 19.5331, 16.9275, 12.8698, 100.216, -83.0772
1.20789, -1, 14.191, 19.4351, 16.9662, 12.872, 100.113, -83.3366
1.21494, -1, 14.0949, 19.3861, 16.9856, 12.8731, 100.062, -83.4664
1.22406, -1, 13.8062, 19.2393, 17.0434, 12.8766, 99.908, -83.8559
1.23089, -1, 13.7099, 19.1904, 17.0628, 12.8777, 99.8569, -83.9858
1.24014, -1, 13.4214, 19.0435, 17.1209, 12.8813, 99.703, -84.3747
1.24689, -1, 13.3253, 18.9946, 17.1401, 12.8824, 99.6519, -84.5043
1.25616, -1, 13.0378, 18.8477, 17.1979, 12.8859, 99.4984, -84.8934
1.26289, -1, 12.9422, 18.7987, 17.2173, 12.8871, 99.4472, -85.0231
1.27229, -1, 12.6556, 18.6518, 17.2751, 12.8906, 99.2938, -85.4118
1.27894, -1, 12.5602, 18.6028, 17.2944, 12.8918, 99.2426, -85.5412
1.28841, -1, 12.2747, 18.4562, 17.3522, 12.8954, 99.089, -85.9295
1.29649, -1, 12.0845, 18.3584, 17.3907, 12.8979, 98.9871, -86.1886
1.3054, -1, 11.8943, 18.2608, 17.4293, 12.9002, 98.8849, -86.4473
1.31127, -1, 11.7991, 18.212, 17.4486, 12.9014, 98.834, -86.5765
1.3189, -1, 11.6084, 18.1144, 17.4872, 12.9039, 98.7322, -86.8351
1.32929, -1, 11.4175, 18.0167, 17.5257, 12.9064, 98.6302, -87.0938
1.33581, -1, 11.2263, 17.9192, 17.5643, 12.9087, 98.5283, -87.3524
1.34453, -1, 11.0349, 17.8217, 17.6028, 12.9112, 98.4265, -87.6106
1.35193, -1, 10.8434, 17.7243, 17.6413, 12.9137, 98.3244, -87.8689
1.35968, -1, 10.6517, 17.6268, 17.6798, 12.9162, 98.2224, -88.1271
1.36792, -1, 10.4603, 17.5293, 17.7181, 12.9187, 98.1208, -88.3855
1.37587, -1, 10.2691, 17.4317, 17.7566, 12.9212, 98.0188, -88.6437
1.38375, -1, 10.0781, 17.3342, 17.7951, 12.9238, 97.9169, -88.9017
1.39188, -1, 9.88776, 17.2365, 17.8333, 12.9265, 97.8152, -89.1598
1.39987, -1, 9.69763, 17.139, 17.8717, 12.929, 97.7131, -89.418
1.40777, -1, 9.50794, 17.0416, 17.91, 12.9318, 97.6111, -89.676
1.41587, -1, 9.31866, 16.9442, 17.9484, 12.9346, 97.5093, -89.9336
1.42394, -1, 9.12936, 16.8469, 17.9868, 12.9372, 97.4073, -90.1911
1.43168, -1, 8.94001, 16.7497, 18.025, 12.9399, 97.3055, -90.4487
1.43986, -1, 8.7505, 16.6525, 18.0634, 12.9426, 97.2039, -90.7064
1.44791, -1, 8.56087, 16.5554, 18.1018, 12.9452, 97.1022, -90.9636
1.45596, -1, 8.37113, 16.4583, 18.1401, 12.9479, 97.0008, -91.2208
1.46493, -1, 8.18079, 16.3613, 18.1784, 12.9505, 96.8993, -91.4781
1.47187, -1, 7.99031, 16.2644, 18.2167, 12.9532, 96.7976, -91.7353
1.47995, -1, 7.79983, 16.1675, 18.2549, 12.9559, 96.6962, -91.9922
1.48789, -1, 7.60923, 16.0706, 18.2931, 12.9585, 96.5947, -92.2488
1.49587, -1, 7.4188, 15.9737, 18.3315, 12.9611, 96.4932, -92.5056
1.50404, -1, 7.22865, 15.8767, 18.3696, 12.9637, 96.3921, -92.7625
1.51197, -1, 7.03876, 15.7797, 18.4078, 12.9663, 96.2907, -93.0191
1.51896, -1, 6.84932, 15.6828, 18.4461, 12.9688, 96.1894, -93.2755
1.52788, -1, 6.66033, 15.5859, 18.4842, 12.9713, 96.0888, -93.5318
1.53587, -1, 6.47186, 15.4891, 18.5222, 12.9739, 95.9876, -93.7883
1.54401, -1, 6.2836, 15.3923, 18.5604, 12.9764, 95.8864, -94.0448
1.55188, -1, 6.09552, 15.2956, 18.5986, 12.9789, 95.7857, -94.3007
1.55987, -1, 5.90728, 15.1989, 18.6367, 12.9813, 95.6846, -94.5566
1.56793, -1, 5.71883, 15.1022, 18.6749, 12.9836, 95.5836, -94.8126
1.57598, -1, 5.53036, 15.0056, 18.7129, 12.9859, 95.4831, -95.0686
1.58393, -1, 5.34159, 14.9091, 18.7511, 12.9883, 95.3822, -95.3242
1.59195, -1, 5.15248, 14.8126, 18.7892, 12.9906, 95.2815, -95.5796
1.59988, -1, 4.96308, 14.7163, 18.8273, 12.9929, 95.1809, -95.8352
1.60787, -1, 4.77373, 14.6199, 18.8653, 12.9951, 95.0801, -96.0907
1.61593, -1, 4.5843, 14.5235, 18.9034, 12.9973, 94.9793, -96.346
1.62445, -1, 4.39507, 14.4272, 18.9414, 12.9995, 94.8787, -96.601
1.63187, -1, 4.20613, 14.3308, 18.9795, 13.0017, 94.7777, -96.8559
1.63993, -1, 4.01748, 14.2344, 19.0175, 13.004, 94.6769, -97.1109
1.64862, -1, 3.82944, 14.1382, 19.0553, 13.0063, 94.5761, -97.366
1.65598, -1, 3.64186, 14.042, 19.0933, 13.0085, 94.4754, -97.6207
1.66423, -1, 3.45471, 13.9459, 19.1313, 13.0108, 94.3748, -97.8754
1.67149, -1, 3.2677, 13.8498, 19.169, 13.0131, 94.2741, -98.1301
1.67941, -1, 3.08068, 13.7538, 19.2069, 13.0154, 94.1734, -98.3849
1.68841, -1, 2.89367, 13.6577, 19.2449, 13.0176, 94.0728, -98.6393
1.69668, -1, 2.70659, 13.5617, 19.2828, 13.0198, 93.9721, -98.8934
1.70423, -1, 2.51926, 13.4657, 19.3207, 13.0221, 93.8717, -99.1476
1.71224, -1, 2.4256, 13.4177, 19.3396, 13.0233, 93.8215, -99.2747
1.71893, -1, 2.23802, 13.3219, 19.3773, 13.0256, 93.7212, -99.5288
1.72687, -1, 2.04997, 13.2261, 19.4152, 13.0278, 93.6209, -99.7825
1.73678, -1, 1.76788, 13.0824, 19.4719, 13.0312, 93.471, -100.163
1.74503, -1, 1.57968, 12.9865, 19.5097, 13.0334, 93.3708, -100.417
1.75087, -1, 1.48563, 12.9386, 19.5286, 13.0345, 93.3207, -100.543
1.76096, -1, 1.20376, 12.7948, 19.5852, 13.038, 93.1708, -100.923
1.76821, -1, 1.01634, 12.6991, 19.6229, 13.0404, 93.0707, -101.176
1.77488, -1, 0.922884, 12.6513, 19.6418, 13.0416, 93.0208, -101.303
1.78523, -1, 0.643249, 12.508, 19.6983, 13.0452, 92.8712, -101.683
1.79099, -1, 0.550218, 12.4602, 19.7171, 13.0464, 92.8212, -101.809
1.80047, -1, 0.271618, 12.3171, 19.7736, 13.05, 92.6716, -102.188
1.80926, -1, 0.0861332, 12.2217, 19.8112, 13.0524, 92.5724, -102.441
1.81495, -1, -0.006554, 12.1741, 19.8299, 13.0536, 92.5224, -102.567
1.82449, -1, -0.192125, 12.0312, 19.8864, 13.0573, 92.373, -102.946
1.83327, -1, -0.377874, 11.9836, 19.9053, 13.0585, 92.3234, -103.072
1.83893, -1, -0.563966, 11.8884, 19.9427, 13.061, 92.2239, -103.324
1.849, -1, -0.843512, 11.746, 19.9991, 13.0647, 92.0746, -103.702
1.85488, -1, -0.936786, 11.6984, 20.0178, 13.0659, 92.0251, -103.828
1.86386, -1, -1.12345, 11.6034, 20.0552, 13.0685, 91.9257, -104.08
1.87191, -1, -1.31045, 11.5083, 20.0928, 13.071, 91.8264, -104.332
1.87987, -1, -1.49729, 11.4132, 20.1303, 13.0735, 91.7273, -104.583
1.88688, -1, -1.68386, 11.318, 20.1677, 13.0761, 91.628, -104.835
1.89597, -1, -1.87008, 11.223, 20.2051, 13.0787, 91.5288, -105.087
1.90386, -1, -2.05586, 11.128, 20.2426, 13.0814, 91.4297, -105.338
1.91087, -1, -2.24096, 11.0331, 20.2799, 13.084, 91.3305, -105.589
1.91986, -1, -2.42574, 10.9382, 20.3173, 13.0867, 91.2313, -105.839
1.92786, -1, -2.6102, 10.8434, 20.3547, 13.0894, 91.1324, -106.091
1.93486, -1, -2.79421, 10.7487, 20.3919, 13.092, 91.0332, -106.341
1.94386, -1, -2.9782, 10.6539, 20.4293, 13.0946, 90.9341, -106.592
1.95185, -1, -3.16232, 10.5592, 20.4667, 13.0972, 90.8354, -106.843
1.96141, -1, -3.34657, 10.4646, 20.5039, 13.0998, 90.7364, -107.093
1.96686, -1, -3.53121, 10.3702, 20.5412, 13.1024, 90.6374, -107.344
1.97587, -1, -3.71599, 10.2758, 20.5785, 13.1049, 90.5387, -107.594
1.98392, -1, -3.90096, 10.1814, 20.6157, 13.1074, 90.4398, -107.844
1.99185, -1, -4.08627, 10.0871, 20.6531, 13.1098, 90.3411, -108.094
1.99985, -1, -4.27179, 9.99279, 20.6902, 13.1123, 90.2427, -108.344
2.00788, -1, -4.45732, 9.89845, 20.7274, 13.1147, 90.1438, -108.594
2.01587, -1, -4.64263, 9.8041, 20.7647, 13.117, 90.0454, -108.843
2.02392, -1, -4.82751, 9.70989, 20.8019, 13.1194, 89.9471, -109.092
2.03187, -1, -5.01199, 9.61582, 20.8389, 13.1218, 89.8484, -109.342
2.03985, -1, -5.19578, 9.52178, 20.8761, 13.1242, 89.7501, -109.591
2.04792, -1, -5.3792, 9.42771, 20.9132, 13.1265, 89.6518, -109.84
2.05585, -1, -5.56219, 9.33383, 20.9502, 13.1288, 89.5533, -110.089
2.06385, -1, -5.7447, 9.23992, 20.9874, 13.1312, 89.4551, -110.338
2.07193, -1, -5.92708, 9.146, 21.0243, 13.1335, 89.3571, -110.587
2.07994, -1, -6.10953, 9.05212, 21.0613, 13.1357, 89.2588, -110.835
2.08785, -1, -6.29223, 8.95836, 21.0984, 13.1379, 89.1608, -111.084
2.09595, -1, -6.47513, 8.86471, 21.1353, 13.1401, 89.0631, -111.332
2.10385, -1, -6.65838, 8.77103, 21.1722, 13.1423, 88.965, -111.58
2.11186, -1, -6.84197, 8.67741, 21.2091, 13.1445, 88.867, -111.829
2.11992, -1, -7.0258, 8.58382, 21.246, 13.1466, 88.7693, -112.076
2.12785, -1, -7.20995, 8.49029, 21.2829, 13.1487, 88.6714, -112.324
2.13587, -1, -7.39423, 8.39666, 21.3199, 13.1509, 88.5735, -112.571
2.14391, -1, -7.57803, 8.30304, 21.3567, 13.153, 88.476, -112.819
2.15187, -1, -7.76149, 8.20962, 21.3934, 13.1551, 88.3783, -113.067
2.16004, -1, -7.94455, 8.11621, 21.4303, 13.1574, 88.281, -113.314
2.16801, -1, -8.12716, 8.02285, 21.4671, 13.1597, 88.1837, -113.561
2.17595, -1, -8.30901, 7.92958, 21.5039, 13.1619, 88.0862, -113.808
2.18403, -1, -8.49042, 7.83634, 21.5408, 13.1641, 87.9889, -114.055
2.19142, -1, -8.67143, 7.74314, 21.5776, 13.1664, 87.8915, -114.302
2.19996, -1, -8.85217, 7.64996, 21.6143, 13.1687, 87.794, -114.548
2.2081, -1, -9.03293, 7.55687, 21.651, 13.1708, 87.6966, -114.794
2.21486, -1, -9.12342, 7.51037, 21.6694, 13.172, 87.6481, -114.918
2.22388, -1, -9.39524, 7.37108, 21.7244, 13.1754, 87.5023, -115.287
2.2322, -1, -9.57689, 7.27822, 21.7611, 13.1775, 87.4052, -115.533
2.23885, -1, -9.66786, 7.23179, 21.7795, 13.1786, 87.3568, -115.657
2.24831, -1, -9.94124, 7.0927, 21.8343, 13.182, 87.2108, -116.026
2.25486, -1, -10.0325, 7.04633, 21.8525, 13.1831, 87.1622, -116.149
2.26412, -1, -10.3064, 6.90718, 21.9075, 13.1865, 87.0166, -116.517
2.27086, -1, -10.3977, 6.86078, 21.9258, 13.1876, 86.9679, -116.64
2.28041, -1, -10.6712, 6.72173, 21.9807, 13.191, 86.8223, -117.008
2.28834, -1, -10.853, 6.62913, 22.0172, 13.1933, 86.7256, -117.254
2.29646, -1, -11.0343, 6.53654, 22.0536, 13.1957, 86.6286, -117.499
2.30442, -1, -11.2148, 6.44403, 22.0902, 13.1981, 86.5319, -117.744
2.31242, -1, -11.3947, 6.35154, 22.1267, 13.2005, 86.4354, -117.989
2.32049, -1, -11.5743, 6.2591, 22.1631, 13.2029, 86.3386, -118.233
2.32877, -1, -11.6639, 6.21288, 22.1813, 13.2054, 86.2419, -118.478
2.33584, -1, -11.8432, 6.12052, 22.2179, 13.2067, 86.1937, -118.601
2.3439, -1, -12.0224, 6.02825, 22.2543, 13.2091, 86.097, -118.845
2.35185, -1, -12.2018, 5.93608, 22.2907, 13.2116, 86.0005, -119.089
2.35988, -1, -12.3816, 5.84409, 22.3272, 13.2141, 85.9043, -119.333
2.36789, -1, -12.5617, 5.75204, 22.3635, 13.2166, 85.8079, -119.577
2.37584, -1, -12.742, 5.66004, 22.3997, 13.219, 85.7116, -119.821
2.38385, -1, -12.9229, 5.56812, 22.4362, 13.2215, 85.6158, -120.065
2.39184, -1, -13.1039, 5.47614, 22.4724, 13.2239, 85.5196, -120.308
2.39986, -1, -13.2852, 5.38411, 22.5086, 13.2263, 85.4237, -120.552
2.40686, -1, -13.4662, 5.29217, 22.545, 13.2288, 85.328, -120.796
2.41593, -1, -13.6469, 5.20027, 22.5812, 13.2313, 85.2321, -121.039
2.42385, -1, -13.8271, 5.10844, 22.6173, 13.2339, 85.1363, -121.282
2.43191, -1, -14.0067, 5.01661, 22.6535, 13.2365, 85.0406, -121.525
2.43986, -1, -14.1855, 4.92492, 22.6896, 13.2391, 84.945, -121.768
2.44785, -1, -14.3638, 4.83324, 22.7257, 13.2417, 84.8494, -122.01
2.45738, -1, -14.5417, 4.74158, 22.7619, 13.2442, 84.7539, -122.374
2.46384, -1, -14.7194, 4.64997, 22.7981, 13.2467, 84.6582, -122.495
2.47286, -1, -14.897, 4.55847, 22.8341, 13.2492, 84.5624, -122.738
2.47992, -1, -15.0747, 4.46699, 22.8703, 13.2517, 84.4668, -122.98
2.48791, -1, -15.2527, 4.37569, 22.9064, 13.2541, 84.3712, -123.222
2.49684, -1, -15.4311, 4.28434, 22.9424, 13.2565, 84.2755, -123.464
2.50285, -1, -15.6099, 4.19302, 22.9785, 13.2588, 84.18, -123.706
2.51184, -1, -15.7891, 4.10179, 23.0145, 13.2611, 84.0844, -123.947
2.51987, -1, -15.9683, 4.01054, 23.0503, 13.2634, 83.989, -124.189
2.52784, -1, -16.148, 3.91926, 23.0864, 13.2656, 83.8936, -124.431
2.53584, -1, -16.3277, 3.828, 23.1224, 13.2677, 83.7981, -124.672
2.54392, -1, -16.5072, 3.73682, 23.1582, 13.2699, 83.7026, -124.913
2.55184, -1, -16.6862, 3.64572, 23.194, 13.2721, 83.6072, -125.155
2.55986, -1, -16.8646, 3.55465, 23.2298, 13.2744, 83.5119, -125.396
2.56835, -1, -17.0422, 3.46365, 23.2656, 13.2767, 83.4165, -125.636
2.57497, -1, -17.219, 3.37271, 23.3015, 13.2788, 83.3212, -125.877
2.58392, -1, -17.3955, 3.28183, 23.3373, 13.281, 83.2262, -126.118
2.59266, -1, -17.5719, 3.19097, 23.373, 13.2833, 83.1311, -126.358
2.59985, -1, -17.7479, 3.10033, 23.4089, 13.2855, 83.0363, -126.598
2.60784, -1, -17.9239, 3.00971, 23.4448, 13.2875, 82.9416, -126.839
2.61664, -1, -18.1002, 2.9192, 23.4805, 13.2896, 82.8466, -127.079
2.62384, -1, -18.2767, 2.82882, 23.5162, 13.2918, 82.7519, -127.319
2.63191, -1, -18.4536, 2.73836, 23.552, 13.2938, 82.6574, -127.559
2.64066, -1, -18.6311, 2.64794, 23.5876, 13.2958, 82.5626, -127.798
2.64784, -1, -18.8088, 2.55762, 23.6232, 13.2979, 82.468, -128.038
2.65592, -1, -18.9869, 2.46717, 23.659, 13.2999, 82.3737, -128.277
2.66478, -1, -19.1651, 2.37668, 23.6946, 13.3018, 82.2792, -128.517
2.67193, -1, -19.3433, 2.28631, 23.7301, 13.3038, 82.1849, -128.756
2.68002, -1, -19.5209, 2.19591, 23.7658, 13.306, 82.0911, -128.995
2.68884, -1, -19.6979, 2.10551, 23.8012, 13.3082, 81.9967, -129.234
2.69594, -1, -19.8745, 2.01524, 23.8366, 13.3104, 81.9025, -129.473
2.70402, -1, -20.0503, 1.92497, 23.8722, 13.3125, 81.8086, -129.712
2.71274, -1, -20.2255, 1.83474, 23.9077, 13.3148, 81.7144, -129.95
2.71987, -1, -20.4004, 1.74463, 23.9431, 13.317, 81.6203, -130.189
2.72793, -1, -20.5751, 1.65453, 23.9787, 13.3191, 81.5266, -130.427
2.73679, -1, -20.7495, 1.56453, 24.0142, 13.3213, 81.4325, -130.666
2.74396, -1, -20.9241, 1.47462, 24.0496, 13.3235, 81.3388, -130.903
2.75225, -1, -21.0991, 1.38488, 24.0851, 13.3257, 81.2452, -131.141
2.75884, -1, -21.1868, 1.33998, 24.1029, 13.3268, 81.1983, -131.26
2.76822, -1, -21.4502, 1.20536, 24.1559, 13.33, 81.0574, -131.617
2.77485, -1, -21.5381, 1.16056, 24.1735, 13.3311, 81.0104, -131.736
2.78686, -1, -21.8023, 1.02611, 24.2267, 13.3344, 80.8698, -132.092
2.79247, -1, -21.9787, 0.936487, 24.2621, 13.3366, 80.776, -132.329
2.80039, -1, -22.1553, 0.846935, 24.2974, 13.3387, 80.6824, -132.566
2.80917, -1, -22.3318, 0.757389, 24.3328, 13.3409, 80.5887, -132.804
2.81495, -1, -22.4199, 0.712674, 24.3505, 13.342, 80.5419, -132.922
2.8244, -1, -22.5957, 0.578458, 24.4032, 13.3456, 80.4015, -133.278
2.83325, -1, -22.7712, 0.533738, 24.4209, 13.348, 80.3079, -133.514
2.83884, -1, -22.9457, 0.444316, 24.4561, 13.3491, 80.2611, -133.633
2.84891, -1, -23.2062, 0.310238, 24.5088, 13.3528, 80.1208, -133.988
2.85488, -1, -23.2929, 0.265576, 24.5264, 13.354, 80.0742, -134.106
2.86386, -1, -23.466, 0.176297, 24.5616, 13.3564, 79.9806, -134.343
2.87182, -1, -23.6391, 0.0871148, 24.5968, 13.3588, 79.8874, -134.579
2.87986, -1, -23.8124, -0.00197586, 24.6319, 13.3612, 79.7943, -134.815
2.88788, -1, -23.9858, -0.0909435, 24.6671, 13.3636, 79.7009, -135.051
2.89582, -1, -24.1595, -0.179917, 24.7021, 13.3661, 79.6079, -135.287
2.90385, -1, -24.3335, -0.268896, 24.7372, 13.3685, 79.5149, -135.522
2.91185, -1, -24.5077, -0.357781, 24.7724, 13.371, 79.4219, -135.758
2.91992, -1, -24.6824, -0.446657, 24.8074, 13.3734, 79.3288, -135.994
2.92785, -1, -24.8574, -0.535571, 24.8424, 13.3758, 79.2357, -136.229
2.93484, -1, -25.0325, -0.62444, 24.8775, 13.3782, 79.1428, -136.465
2.94383, -1, -25.2073, -0.713212, 24.9125, 13.3805, 79.0498, -136.699
2.95086, -1, -25.3819, -0.801958, 24.9475, 13.3829, 78.9571, -136.935
2.95982, -1, -25.556, -0.89081, 24.9825, 13.3854, 78.8644, -137.17
2.96788, -1, -25.7296, -0.979539, 25.0174, 13.3879, 78.7716, -137.405
2.97683, -1, -25.9025, -1.0682, 25.0522, 13.3903, 78.679, -137.639
2.98292, -1, -26.075, -1.15694, 25.0873, 13.3928, 78.5868, -137.874
2.99182, -1, -26.2471, -1.24561, 25.1222, 13.3953, 78.494, -138.108
2.99989, -1, -26.4188, -1.33412, 25.1569, 13.3976, 78.4015, -138.343
3.00782, -1, -26.5906, -1.42257, 25.1919, 13.3999, 78.3092, -138.577
3.01584, -1, -26.7626, -1.51091, 25.2268, 13.4021, 78.2165, -138.811
3.02388, -1, -26.9349, -1.59912, 25.2617, 13.4044, 78.1242, -139.045
3.03184, -1, -27.1073, -1.68729, 25.2965, 13.4066, 78.0322, -139.279
3.03982, -1, -27.2799, -1.77556, 25.3314, 13.4088, 77.9399, -139.513
3.04789, -1, -27.4527, -1.86365, 25.3661, 13.411, 77.8479, -139.747
3.05582, -1, -27.6259, -1.95177, 25.4009, 13.4131, 77.7559, -139.98
3.06389, -1, -27.7991, -2.03998, 25.4358, 13.4153, 77.6638, -140.214
3.07184, -1, -27.9725, -2.12799, 25.4706, 13.4173, 77.5718, -140.447
3.07982, -1, -28.1458, -2.21603, 25.5053, 13.4193, 77.4798, -140.681
3.08798, -1, -28.3189, -2.30406, 25.5402, 13.4213, 77.3877, -140.914
3.09582, -1, -28.4916, -2.39209, 25.575, 13.4234, 77.2955, -141.147
3.10382, -1, -28.664, -2.48, 25.6096, 13.4256, 77.2035, -141.379
3.1119, -1, -28.8358, -2.56801, 25.6444, 13.4277, 77.1116, -141.612
3.11982, -1, -29.0068, -2.65598, 25.6791, 13.4299, 77.0196, -141.845
3.12782, -1, -29.1775, -2.74381, 25.7136, 13.4321, 76.9277, -142.078
3.13589, -1, -29.3481, -2.83162, 25.7483, 13.4341, 76.836, -142.31
3.14382, -1, -29.5188, -2.91935, 25.783, 13.4362, 76.744, -142.542
3.15188, -1, -29.6896, -3.00693, 25.8176, 13.4383, 76.6522, -142.775
3.15987, -1, -29.8606, -3.09449, 25.8522, 13.4403, 76.5605, -143.007
3.1679, -1, -30.0316, -3.18199, 25.8868, 13.4425, 76.4686, -143.239
3.17621, -1, -30.2025, -3.26948, 25.9213, 13.4445, 76.3769, -143.471
3.18336, -1, -30.3737, -3.35691, 25.9559, 13.4466, 76.2855, -143.703
3.19193, -1, -30.5452, -3.44433, 25.9905, 13.4486, 76.1937, -143.935
3.20052, -1, -30.717, -3.53185, 26.0249, 13.4506, 76.1023, -144.167
3.20795, -1, -30.8889, -3.6192, 26.0595, 13.4527, 76.0111, -144.398
3.21583, -1, -31.0607, -3.7066, 26.0941, 13.4546, 75.9197, -144.629
3.22456, -1, -31.2324, -3.79394, 26.1285, 13.4567, 75.8283, -144.861
3.23186, -1, -31.4037, -3.88128, 26.1629, 13.4588, 75.737, -145.092
3.23986, -1, -31.5746, -3.96857, 26.1974, 13.4609, 75.6458, -145.323
3.24893, -1, -31.745, -4.05578, 26.2318, 13.4631, 75.5545, -145.554
3.2561, -1, -31.915, -4.14307, 26.2661, 13.4653, 75.4633, -145.785
3.26282, -1, -31.9999, -4.1867, 26.2833, 13.4665, 75.418, -145.901
3.27296, -1, -32.2541, -4.31739, 26.335, 13.4697, 75.2812, -146.247
3.2802, -1, -32.4235, -4.40442, 26.3692, 13.4718, 75.1901, -146.477
3.28682, -1, -32.5083, -4.44792, 26.3864, 13.4729, 75.1449, -146.593
3.29731, -1, -32.7629, -4.57835, 26.438, 13.4761, 75.0085, -146.938
3.30435, -1, -32.9325, -4.66528, 26.4723, 13.4784, 74.9177, -147.169
3.31239, -1, -33.1022, -4.75224, 26.5065, 13.4805, 74.8273, -147.399
3.32122, -1, -33.272, -4.83905, 26.5408, 13.4827, 74.7365, -147.629
3.32689, -1, -33.357, -4.88247, 26.558, 13.4839, 74.6911, -147.744
3.33646, -1, -33.5272, -4.96943, 26.5922, 13.4872, 74.5553, -148.089
3.34383, -1, -33.6976, -5.05632, 26.6264, 13.4883, 74.5102, -148.204
3.35094, -1, -33.8679, -5.14306, 26.6608, 13.4905, 74.4194, -148.433
3.36094, -1, -34.1232, -5.27314, 26.7119, 13.4938, 74.2837, -148.778
3.36782, -1, -34.2083, -5.31651, 26.729, 13.495, 74.2386, -148.892
3.37489, -1, -34.3784, -5.40314, 26.7633, 13.4972, 74.1478, -149.122
3.38387, -1, -34.5481, -5.48979, 26.7975, 13.4996, 74.0572, -149.351
3.39181, -1, -34.7173, -5.57647, 26.8315, 13.502, 73.9668, -149.581
3.39883, -1, -34.886, -5.66308, 26.8657, 13.5044, 73.8761, -149.81
3.40781, -1, -35.0545, -5.74962, 26.8999, 13.5069, 73.7857, -150.039
3.41581, -1, -35.2228, -5.83611, 26.9339, 13.5093, 73.6954, -150.268
3.42282, -1, -35.3911, -5.92248, 26.968, 13.5118, 73.605, -150.496
3.43181, -1, -35.5597, -6.00869, 27.0022, 13.5141, 73.5147, -150.725
3.43982, -1, -35.7282, -6.09497, 27.0361, 13.5164, 73.4243, -150.954
3.44682, -1, -35.8967, -6.18115, 27.0701, 13.5188, 73.3342, -151.182
3.45581, -1, -36.0653, -6.26733, 27.1043, 13.5213, 73.2436, -151.411
3.46384, -1, -36.2337, -6.35347, 27.1382, 13.5237, 73.1532, -151.64
3.47339, -1, -36.4024, -6.4397, 27.1721, 13.5261, 73.063, -151.868
3.4798, -1, -36.5713, -6.52595, 27.2061, 13.5284, 72.9725, -152.096
3.48782, -1, -36.7401, -6.61213, 27.24, 13.5307, 72.8822, -152.324
3.49588, -1, -36.9091, -6.69831, 27.2739, 13.533, 72.7923, -152.552
3.50382, -1, -37.0781, -6.78445, 27.3079, 13.5353, 72.7021, -152.781
3.51464, -1, -37.2468, -6.87057, 27.3418, 13.5376, 72.5672, -153.123
3.51982, -1, -37.4154, -6.9566, 27.3756, 13.5398, 72.5223, -153.236
3.52787, -1, -37.5834, -7.04268, 27.4096, 13.5421, 72.4324, -153.464
3.53581, -1, -37.7512, -7.12871, 27.4435, 13.5443, 72.3425, -153.691
3.54381, -1, -37.9188, -7.2147, 27.4773, 13.5466, 72.2527, -153.919
3.55187, -1, -38.0863, -7.30061, 27.5111, 13.5488, 72.1631, -154.146
3.55982, -1, -38.2538, -7.38652, 27.5451, 13.551, 72.0732, -154.374
3.56781, -1, -38.4211, -7.47224, 27.5788, 13.5531, 71.9835, -154.601
3.57588, -1, -38.5883, -7.55792, 27.6126, 13.5552, 71.8941, -154.828
3.5838, -1, -38.7557, -7.64368, 27.6465, 13.5573, 71.8043, -155.055
3.59192, -1, -38.9229, -7.72936, 27.6803, 13.5594, 71.7148, -155.282
3.5999, -1, -39.0902, -7.815, 27.7139, 13.5615, 71.6258, -155.509
3.60781, -1, -39.2578, -7.90071, 27.7478, 13.5635, 71.5362, -155.736
3.6158, -1, -39.4253, -7.98642, 27.7816, 13.5654, 71.4469, -155.963
3.62389, -1, -39.5929, -8.07199, 27.8152, 13.5675, 71.3576, -156.189
3.6318, -1, -39.7606, -8.15754, 27.8489, 13.5694, 71.2682, -156.416
3.63982, -1, -39.9282, -8.24298, 27.8827, 13.5713, 71.1789, -156.642
3.64791, -1, -40.0957, -8.32841, 27.9164, 13.5733, 71.0895, -156.868
3.65581, -1, -40.2632, -8.41377, 27.95, 13.5753, 71.0004, -157.095
3.66384, -1, -40.4304, -8.49913, 27.9838, 13.5773, 70.9109, -157.321
3.67218, -1, -40.5975, -8.5845, 28.0174, 13.5792, 70.8217, -157.547
3.67944, -1, -40.7644, -8.66988, 28.051, 13.5812, 70.7328, -157.773
3.6879, -1, -40.9309, -8.75524, 28.0847, 13.5832, 70.6435, -157.999
3.69629, -1, -41.0973, -8.84055, 28.1184, 13.5853, 70.5543, -158.225
3.70342, -1, -41.1805, -8.88318, 28.152, 13.5873, 70.4653, -158.451
3.71196, -1, -41.4298, -9.01096, 28.1856, 13.5893, 70.376, -158.676
3.72052, -1, -41.5961, -9.09615, 28.2193, 13.5913, 70.2869, -158.902
3.72783, -1, -41.7623, -9.18123, 28.2528, 13.5933, 70.1978, -159.127
3.73584, -1, -41.9287, -9.26626, 28.2864, 13.5953, 70.1087, -159.352
3.74483, -1, -42.0951, -9.3513, 28.3201, 13.5973, 70.0197, -159.578
3.75202, -1, -42.2614, -9.43638, 28.3537, 13.5994, 69.9307, -159.803
3.75885, -1, -42.3445, -9.4789, 28.3704, 13.6004, 69.8865, -159.916
3.76889, -1, -42.594, -9.60634, 28.4208, 13.6034, 69.753, -160.254
3.77621, -1, -42.7604, -9.69131, 28.4543, 13.6054, 69.664, -160.479
3.7828, -1, -42.8436, -9.7338, 28.471, 13.6064, 69.6197, -160.592
3.79228, -1, -43.0932, -9.86118, 28.5212, 13.6095, 69.4864, -160.929
3.80116, -1, -43.2594, -9.94609, 28.5548, 13.6116, 69.3978, -161.154
3.80681, -1, -43.3425, -9.98856, 28.5715, 13.6126, 69.3534, -161.266
3.81639, -1, -43.5915, -10.116, 28.6218, 13.6157, 69.2205, -161.603
3.82517, -1, -43.7575, -10.2009, 28.6553, 13.6178, 69.132, -161.828
3.83082, -1, -43.8404, -10.2433, 28.672, 13.6189, 69.0877, -161.941
3.84035, -1, -44.0061, -10.3281, 28.7054, 13.6211, 68.9995, -162.165
3.8478, -1, -44.1716, -10.4129, 28.7389, 13.6232, 68.9107, -162.389
3.85481, -1, -44.3368, -10.4975, 28.7724, 13.6254, 68.8221, -162.613
3.865, -1, -44.5845, -10.6243, 28.8224, 13.6288, 68.6893, -162.95
3.87088, -1, -44.6671, -10.6666, 28.8391, 13.6298, 68.6448, -163.062
3.87987, -1, -44.8323, -10.7511, 28.8727, 13.632, 68.5563, -163.286
3.8878, -1, -44.9977, -10.8355, 28.9061, 13.6342, 68.4678, -163.51
3.89581, -1, -45.163, -10.9201, 28.9395, 13.6363, 68.3795, -163.734
3.90384, -1, -45.3283, -11.0046, 28.973, 13.6386, 68.291, -163.958
3.91185, -1, -45.4935, -11.0891, 29.0063, 13.6409, 68.2027, -164.182
3.91979, -1, -45.6588, -11.1735, 29.0395, 13.6432, 68.1147, -164.406
3.9279, -1, -45.8241, -11.2579, 29.0729, 13.6455, 68.0261, -164.629
3.93581, -1, -45.9882, -11.3418, 29.1063, 13.6477, 67.9377, -164.853
3.94385, -1, -46.1496, -11.4241, 29.1398, 13.6501, 67.8497, -165.076
3.95185, -1, -46.3066, -11.5034, 29.1734, 13.6525, 67.7622, -165.297
3.95979, -1, -46.4568, -11.5784, 29.2069, 13.6548, 67.6772, -165.513
3.96785, -1, -46.5979, -11.6483, 29.2391, 13.6571, 67.5957, -165.718
3.97778, -1, -46.7867, -11.7404, 29.2826, 13.6604, 67.4864, -165.995
3.98379, -1, -46.8421, -11.7675, 29.2953, 13.6614, 67.4542, -166.076
3.99195, -1, -46.9407, -11.8166, 29.3173, 13.663, 67.3985, -166.218
4.00177, -1, -47.023, -11.8594, 29.3338, 13.6643, 67.3539, -166.376
4.00779, -1, -47.09, -11.896, 29.345, 13.6651, 67.3204, -166.415
4.01586, -1, -47.1422, -11.9254, 29.3522, 13.6655, 67.2972, -166.474
4.0238, -1, -47.1809, -11.9474, 29.3561, 13.6657, 67.2823, -166.511
4.03185, -1, -47.2084, -11.9628, 29.3579, 13.6658, 67.2736, -166.533
4.03985, -1, -47.2264, -11.9727, 29.3587, 13.6658, 67.2689, -166.545
4.04781, -1, -47.2372, -11.9786, 29.3591, 13.666, 67.2665, -166.551
4.05581, 2, -47.2428, -11.9815, 29.3593, 13.666, 67.2654, -166.553
4.06385, 2, -47.2448, -11.9828, 29.3594, 13.666, 67.2649, -166.554
4.07186, 2, -47.2449, -11.9833, 29.3595, 13.6661, 67.2647, -166.555
4.07978, 2, -47.2447, -11.9835, 29.3595, 13.666, 67.2645, -166.555
4.08785, 2, -47.2447, -11.9836, 29.3595, 13.666, 67.2645, -166.555
4.09591, 2, -47.2451, -11.9837, 29.3596, 13.666, 67.2644, -166.555
4.10378, 2, -47.246, -11.9839, 29.3596, 13.6661, 67.2644, -166.555
4.1119, 2, -47.2473, -11.9844, 29.3596, 13.666, 67.2644, -166.555
4.1198, 2, -47.2491, -11.9852, 29.3596, 13.6661, 67.2644, -166.555
4.12779, 2, -47.2506, -11.9861, 29.3596, 13.6661, 67.2644, -166.555
4.13586, 2, -47.252, -11.9869, 29.3596, 13.6661, 67.2644, -166.555
4.14381, 2, -47.253, -11.9876, 29.3596, 13.666, 67.2644, -166.555
4.15185, 2, -47.2534, -11.9879, 29.3596, 13.6661, 67.2644, -166.555
4.15986, 2, -47.2536, -11.9881, 29.3596, 13.6661, 67.2644, -166.555
4.16784, 2, -47.2537, -11.9882, 29.3596, 13.666, 67.2644, -166.555
4.17589, 2, -47.2533, -11.9882, 29.3596, 13.6661, 67.2644, -166.555
4.18394, 2, -47.2529, -11.9882, 29.3596, 13.6661, 67.2644, -166.555
4.19195, 2, -47.2524, -11.9881, 29.3596, 13.6661, 67.2645, -166.555
4.19989, 2, -47.252, -11.9881, 29.3597, 13.6661, 67.2645, -166.555
4.20795, 2, -47.2519, -11.9881, 29.3597, 13.6661, 67.2644, -166.555
4.21592, 2, -47.2518, -11.9882, 29.3597, 13.6661, 67.2644, -166.555
4.2238, 2, -47.252, -11.9884, 29.3596, 13.6661, 67.2645, -166.555
4.23199, 2, -47.2522, -11.9887, 29.3596, 13.666, 67.2645, -166.555
4.23984, 2, -47.2528, -11.989, 29.3596, 13.6661, 67.2644, -166.555
4.24784, 2, -47.2533, -11.9894, 29.3596, 13.6661, 67.2644, -166.555
4.25598, 2, -47.2537, -11.9896, 29.3596, 13.6661, 67.2644, -166.555
4.2644, 2, -47.2538, -11.9896, 29.3597, 13.6661, 67.2644, -166.555
4.27212, 2, -47.2538, -11.9896, 29.3597, 13.6661, 67.2645, -166.555
4.27879, 2, -47.2538, -11.9896, 29.3597, 13.6661, 67.2645, -166.555
4.28826, 2, -47.2536, -11.9896, 29.3597, 13.6661, 67.2645, -166.555
4.29625, 2, -47.2531, -11.9895, 29.3596, 13.666, 67.2645, -166.555
4.30279, 2, -47.2529, -11.9895, 29.3596, 13.666, 67.2645, -166.555
4.31276, 2, -47.2524, -11.9895, 29.3597, 13.666, 67.2645, -166.555
4.32034, 2, -47.2523, -11.9895, 29.3597, 13.666, 67.2645, -166.555
4.32851, 2, -47.2522, -11.9895, 29.3597, 13.666, 67.2645, -166.555
4.33642, 2, -47.2522, -11.9895, 29.3596, 13.666, 67.2646, -166.555
4.3443, 2, -47.2521, -11.9896, 29.3596, 13.666, 67.2645, -166.555
4.35242, 2, -47.2521, -11.9897, 29.3596, 13.666, 67.2646, -166.555
4.35979, 2, -47.2521, -11.9897, 29.3596, 13.6661, 67.2646, -166.555
4.36778, 2, -47.2521, -11.9897, 29.3596, 13.666, 67.2645, -166.555
4.37584, 2, -47.2522, -11.9897, 29.3596, 13.666, 67.2646, -166.555
4.38379, 2, -47.2522, -11.9897, 29.3596, 13.666, 67.2645, -166.555
4.39184, 2, -47.2521, -11.9896, 29.3596, 13.666, 67.2645, -166.555
4.39989, 2, -47.2521, -11.9896, 29.3597, 13.6659, 67.2645, -166.555
4.40778, 2, -47.252, -11.9895, 29.3597, 13.666, 67.2645, -166.555
4.41579, 2, -47.2518, -11.9895, 29.3597, 13.666, 67.2645, -166.555
4.42382, 2, -47.2517, -11.9895, 29.3597, 13.666, 67.2646, -166.555
4.43194, 2, -47.2516, -11.9895, 29.3597, 13.666, 67.2646, -166.555
4.43978, 2, -47.2515, -11.9895, 29.3596, 13.6659, 67.2646, -166.555
4.44783, 2, -47.2514, -11.9895, 29.3596, 13.666, 67.2646, -166.555
4.4558, 2, -47.2514, -11.9895, 29.3596, 13.666, 67.2646, -166.555
4.46378, 2, -47.2514, -11.9895, 29.3596, 13.666, 67.2646, -166.555
4.47189, 2, -47.2513, -11.9895, 29.3596, 13.666, 67.2646, -166.555
4.48084, 2, -47.2513, -11.9895, 29.3596, 13.666, 67.2646, -166.555
4.48777, 2, -47.2512, -11.9895, 29.3597, 13.666, 67.2646, -166.555
4.49585, 2, -47.2512, -11.9895, 29.3596, 13.666, 67.2646, -166.555
4.50379, 2, -47.2511, -11.9894, 29.3596, 13.6659, 67.2646, -166.555
4.51184, 2, -47.251, -11.9893, 29.3597, 13.6659, 67.2646, -166.555
4.51983, 2, -47.2509, -11.9893, 29.3596, 13.666, 67.2646, -166.555
4.52779, 2, -47.2508, -11.9893, 29.3596, 13.6659, 67.2647, -166.555
4.53579, 2, -47.2507, -11.9893, 29.3596, 13.666, 67.2647, -166.555
4.54383, 2, -47.2506, -11.9892, 29.3597, 13.666, 67.2647, -166.555
4.55185, 2, -47.2505, -11.9893, 29.3596, 13.6659, 67.2647, -166.555
4.55978, 2, -47.2504, -11.9893, 29.3596, 13.6659, 67.2647, -166.555
4.56783, 2, -47.2503, -11.9893, 29.3596, 13.6659, 67.2647, -166.555
4.5758, 2, -47.2502, -11.9893, 29.3596, 13.6659, 67.2647, -166.555
4.58384, 2, -47.2501, -11.9893, 29.3596, 13.6659, 67.2647, -166.555
4.59191, 2, -47.25, -11.9892, 29.3596, 13.6659, 67.2647, -166.555
4.59988, 2, -47.2499, -11.9892, 29.3596, 13.6659, 67.2647, -166.555
4.60777, 2, -47.2498, -11.9891, 29.3596, 13.6659, 67.2647, -166.555
4.61584, 2, -47.2497, -11.989, 29.3596, 13.6659, 67.2647, -166.555
4.6238, 2, -47.2496, -11.989, 29.3596, 13.6659, 67.2647, -166.555
4.63183, 2, -47.2494, -11.989, 29.3596, 13.6659, 67.2647, -166.555
4.63983, 2, -47.2494, -11.9889, 29.3597, 13.6659, 67.2646, -166.555
4.6478, 2, -47.2492, -11.9889, 29.3597, 13.6659, 67.2647, -166.555
4.65579, 2, -47.2492, -11.9889, 29.3597, 13.6659, 67.2647, -166.555
4.66386, 2, -47.2491, -11.9889, 29.3596, 13.6659, 67.2647, -166.555
4.67192, 2, -47.249, -11.9889, 29.3596, 13.6658, 67.2647, -166.555
4.67986, 2, -47.249, -11.9889, 29.3596, 13.6658, 67.2647, -166.555
4.68792, 2, -47.2489, -11.9889, 29.3596, 13.6658, 67.2647, -166.555
4.6959, 2, -47.2489, -11.9889, 29.3596, 13.6658, 67.2647, -166.555
4.70388, 2, -47.2488, -11.9889, 29.3596, 13.6658, 67.2647, -166.555
4.71199, 2, -47.2488, -11.9888, 29.3596, 13.6658, 67.2647, -166.555
4.71979, 2, -47.2487, -11.9887, 29.3596, 13.6658, 67.2648, -166.555
4.72738, 2, -47.2487, -11.9887, 29.3596, 13.6658, 67.2648, -166.555
4.73587, 2, -47.2485, -11.9886, 29.3596, 13.6658, 67.2647, -166.555
4.74384, 2, -47.2484, -11.9886, 29.3596, 13.6658, 67.2647, -166.555
4.75189, 2, -47.2484, -11.9886, 29.3596, 13.6658, 67.2647, -166.555
4.75996, 2, -47.2483, -11.9886, 29.3596, 13.6658, 67.2647, -166.555
4.76853, 2, -47.2483, -11.9886, 29.3596, 13.6658, 67.2647, -166.555
4.77605, 2, -47.2483, -11.9886, 29.3596, 13.6658, 67.2647, -166.555
4.78277, 2, -47.2483, -11.9886, 29.3596, 13.6657, 67.2647, -166.555
4.79266, 2, -47.2482, -11.9886, 29.3596, 13.6657, 67.2647, -166.555
4.80029, 2, -47.2482, -11.9885, 29.3596, 13.6657, 67.2648, -166.554
4.80836, 2, -47.2482, -11.9885, 29.3596, 13.6657, 67.2648, -166.554
4.81676, 2, -47.2481, -11.9884, 29.3596, 13.6657, 67.2647, -166.554
4.82432, 2, -47.248, -11.9883, 29.3596, 13.6657, 67.2647, -166.554
4.83244, 2, -47.248, -11.9883, 29.3596, 13.6657, 67.2648, -166.554
4.84067, 2, -47.2479, -11.9882, 29.3596, 13.6657, 67.2648, -166.554
4.84776, 2, -47.2478, -11.9882, 29.3596, 13.6657, 67.2648, -166.554
4.85638, 2, -47.2478, -11.9882, 29.3596, 13.6657, 67.2648, -166.554
4.86377, 2, -47.2477, -11.9882, 29.3596, 13.6657, 67.2648, -166.554
4.87182, 2, -47.2477, -11.9882, 29.3596, 13.6656, 67.2648, -166.554
4.87981, 2, -47.2476, -11.9882, 29.3596, 13.6656, 67.2648, -166.554
4.88777, 2, -47.2476, -11.9882, 29.3596, 13.6656, 67.2648, -166.554
4.89579, 2, -47.2476, -11.9882, 29.3596, 13.6656, 67.2648, -166.554
4.9038, 2, -47.2476, -11.9882, 29.3596, 13.6656, 67.2649, -166.554
4.91183, 2, -47.2476, -11.9881, 29.3596, 13.6655, 67.2649, -166.554
4.91977, 2, -47.2475, -11.988, 29.3596, 13.6656, 67.2649, -166.554
4.9278, 2, -47.2475, -11.988, 29.3596, 13.6656, 67.2649, -166.554
4.93587, 2, -47.2474, -11.9879, 29.3596, 13.6655, 67.2649, -166.554
4.94376, 2, -47.2473, -11.9879, 29.3596, 13.6655, 67.2649, -166.554
4.95188, 2, -47.2472, -11.9879, 29.3596, 13.6655, 67.265, -166.554
4.95977, 2, -47.2472, -11.9878, 29.3596, 13.6656, 67.265, -166.554
4.96776, 2, -47.2471, -11.9878, 29.3596, 13.6655, 67.265, -166.554
4.97677, 2, -47.2471, -11.9878, 29.3596, 13.6655, 67.265, -166.554
4.98377, 2, -47.2471, -11.9878, 29.3596, 13.6655, 67.265, -166.554
4.99181, 2, -47.247, -11.9878, 29.3596, 13.6654, 67.265, -166.554
4.99982, 2, -47.247, -11.9878, 29.3596, 13.6654, 67.265, -166.554
5.00776, 2, -47.247, -11.9878, 29.3596, 13.6655, 67.265, -166.554
5.01578, 2, -47.247, -11.9878, 29.3596, 13.6654, 67.2651, -166.554
5.02382, 2, -47.2469, -11.9877, 29.3596, 13.6654, 67.265, -166.554
5.03182, 2, -47.2469, -11.9876, 29.3596, 13.6654, 67.265, -166.554
5.03976, 2, -47.2468, -11.9876, 29.3596, 13.6654, 67.265, -166.554
5.04783, 2, -47.2467, -11.9875, 29.3596, 13.6654, 67.265, -166.554
5.05709, 2, -47.2466, -11.9875, 29.3596, 13.6653, 67.265, -166.554
5.06376, 2, -47.2466, -11.9875, 29.3596, 13.6653, 67.265, -166.554
5.07089, 2, -47.2465, -11.9875, 29.3596, 13.6653, 67.2651, -166.554
5.07976, 2, -47.2465, -11.9875, 29.3596, 13.6653, 67.2651, -166.554
5.08776, 2, -47.2465, -11.9875, 29.3596, 13.6653, 67.2651, -166.554
5.09583, 2, -47.2464, -11.9875, 29.3596, 13.6653, 67.2651, -166.554
5.10385, 2, -47.2464, -11.9874, 29.3596, 13.6652, 67.2652, -166.554
5.11191, 2, -47.2464, -11.9874, 29.3596, 13.6653, 67.2651, -166.554
5.11982, 4, -47.2464, -11.9874, 29.3596, 13.6652, 67.2651, -166.554
5.12776, 4, -47.2463, -11.9873, 29.3596, 13.6652, 67.2651, -166.554
5.13576, 4, -47.2462, -11.9873, 29.3596, 13.6652, 67.2652, -166.554
5.14384, 4, -47.2462, -11.9872, 29.3596, 13.6652, 67.2652, -166.554
5.15181, 4, -47.2461, -11.9872, 29.3596, 13.6652, 67.2652, -166.554
5.15977, 4, -47.2461, -11.9872, 29.3596, 13.6652, 67.2653, -166.554
5.16786, 4, -47.246, -11.9872, 29.3596, 13.6651, 67.2653, -166.554
5.17581, 4, -47.246, -11.9872, 29.3596, 13.6651, 67.2652, -166.554
5.18387, 4, -47.2459, -11.9872, 29.3596, 13.6652, 67.2653, -166.554
5.19196, 4, -47.2459, -11.9871, 29.3596, 13.6651, 67.2653, -166.554
5.19986, 4, -47.2459, -11.9871, 29.3596, 13.6651, 67.2653, -166.554
5.20786, 4, -47.2459, -11.9871, 29.3596, 13.6651, 67.2652, -166.554
5.21614, 4, -47.2458, -11.9871, 29.3596, 13.665, 67.2652, -166.554
5.2303, 4, -47.2458, -11.987, 29.3596, 13.6651, 67.2653, -166.554
5.23351, 4, -47.2458, -11.987, 29.3596, 13.6651, 67.2653, -166.554
5.24581, 4, -47.2457, -11.9869, 29.3596, 13.6651, 67.2653, -166.554
5.24855, 4, -47.2457, -11.9869, 29.3596, 13.6651, 67.2653, -166.554
5.25888, 4, -47.2456, -11.9869, 29.3596, 13.665, 67.2653, -166.554
5.26662, 4, -47.2455, -11.9869, 29.3596, 13.665, 67.2653, -166.553
5.27257, 4, -47.2455, -11.9868, 29.3596, 13.665, 67.2653, -166.553
5.28251, 4, -47.2454, -11.9868, 29.3596, 13.665, 67.2653, -166.553
5.28854, 4, -47.2454, -11.9868, 29.3596, 13.665, 67.2653, -166.553
5.2965, 4, -47.2454, -11.9868, 29.3596, 13.665, 67.2653, -166.553
5.30292, 4, -47.2453, -11.9868, 29.3596, 13.665, 67.2653, -166.553
5.31453, 4, -47.2453, -11.9868, 29.3596, 13.665, 67.2653, -166.553
5.32054, 4, -47.2453, -11.9868, 29.3596, 13.665, 67.2653, -166.553
5.32918, 4, -47.2453, -11.9867, 29.3596, 13.665, 67.2653, -166.553
5.33795, 4, -47.2452, -11.9867, 29.3596, 13.665, 67.2653, -166.553
5.34471, 4, -47.2452, -11.9866, 29.3596, 13.6649, 67.2653, -166.553
5.35271, 4, -47.2452, -11.9866, 29.3596, 13.6649, 67.2653, -166.553
5.36106, 4, -47.2451, -11.9866, 29.3596, 13.6649, 67.2653, -166.553
5.3679, 4, -47.2451, -11.9866, 29.3596, 13.6649, 67.2653, -166.553
5.37588, 4, -47.245, -11.9866, 29.3596, 13.6649, 67.2653, -166.553
5.38582, 4, -47.245, -11.9866, 29.3596, 13.6648, 67.2653, -166.553
5.39315, 4, -47.2454, -11.9868, 29.3597, 13.6648, 67.2653, -166.553
5.4039, 4, -47.247, -11.9877, 29.3606, 13.6653, 67.2656, -166.553
5.40795, 4, -47.2484, -11.9888, 29.3618, 13.6667, 67.266, -166.553
5.418, 4, -47.2557, -11.9971, 29.3724, 13.6865, 67.2708, -166.55
5.42391, 4, -47.2597, -12.0023, 29.3798, 13.7013, 67.2747, -166.547
5.43203, 5, -47.2713, -12.0175, 29.4044, 13.7502, 67.2883, -166.537
5.44329, 5, -47.3014, -12.058, 29.4769, 13.9003, 67.3304, -166.503
5.44787, 5, -47.3161, -12.0772, 29.5138, 13.9777, 67.3522, -166.485
5.45593, 5, -47.3533, -12.1256, 29.6112, 14.1846, 67.4092, -166.437
5.46397, 5, -47.4028, -12.1882, 29.7435, 14.4696, 67.488, -166.372
5.47566, 5, -47.4652, -12.3106, 30.0125, 15.0545, 67.6459, -166.237
5.47996, 5, -47.54, -12.359, 30.1215, 15.2906, 67.7093, -166.183
5.48791, 5, -47.6269, -12.4665, 30.3668, 15.8182, 67.8493, -166.064
5.49922, 5, -47.7768, -12.6521, 30.7938, 16.7214, 68.0857, -165.86
5.50389, 5, -47.8311, -12.7196, 30.9494, 17.0451, 68.1689, -165.788
5.51388, 5, -47.9447, -12.8612, 31.2754, 18.0573, 68.425, -165.566
5.51998, 5, -48.063, -13.0094, 31.6162, 18.4023, 68.5106, -165.492
5.52789, 5, -48.1837, -13.1615, 31.9651, 19.0967, 68.6807, -165.344
5.53888, 5, -48.3638, -13.3884, 32.4944, 20.1279, 68.9289, -165.123
5.54318, 5, -48.422, -13.4622, 32.6703, 20.464, 69.0096, -165.049
5.55308, 5, -48.5326, -13.6047, 33.0169, 21.1173, 69.1689, -164.892
5.55938, 6, -48.6316, -13.7373, 33.3514, 21.7351, 69.3274, -164.714
5.56813, 6, -48.7149, -13.859, 33.6691, 22.3096, 69.4876, -164.501
5.57536, 7, -48.7786, -13.9718, 33.9661, 22.8359, 69.6522, -164.24
5.58397, 7, -48.8211, -14.0772, 34.2415, 23.312, 69.8226, -163.921
5.59173, 8, -48.8419, -14.1738, 34.4954, 23.7419, 69.9997, -163.54
5.60777, 8, -48.8263, -14.3381, 34.9537, 24.4949, 70.3751, -162.601
5.60967, 8, -48.8263, -14.3381, 34.9537, 24.4949, 70.3751, -162.601
5.61602, 9, -48.7961, -14.409, 35.1663, 24.8383, 70.5737, -162.059
5.62392, 9, -48.7546, -14.475, 35.374, 25.1732, 70.7797, -161.483
5.63111, 10, -48.7035, -14.538, 35.5813, 25.5074, 70.9935, -160.884
5.63997, 10, -48.6435, -14.6001, 35.7894, 25.8457, 71.2146, -160.268
5.64792, 11, -48.5764, -14.6622, 35.9988, 26.1908, 71.4418, -159.642
5.65947, 11, -48.4661, -14.7558, 36.3159, 26.7239, 71.7903, -158.694
5.66731, 12, -48.3882, -14.8189, 36.5263, 27.0898, 72.0264, -158.057
5.67275, 12, -48.3488, -14.8503, 36.6309, 27.2758, 72.1453, -157.737
5.68323, 13, -48.2697, -14.9412, 36.9428, 27.8461, 72.5051, -156.772
5.68835, 13, -48.19, -14.9702, 37.0458, 28.0401, 72.6264, -156.448
5.69922, 14, -48.1084, -15.028, 37.2503, 28.4337, 72.8706, -155.47
5.7044, 14, -48.0234, -15.0865, 37.4537, 28.8333, 73.1176, -155.142
5.71227, 15, -47.9347, -15.1457, 37.6561, 29.2372, 73.3662, -154.487
5.72054, 16, -47.8421, -15.2043, 37.8561, 29.6431, 73.6149, -153.833
5.7289, 16, -47.7437, -15.2623, 38.0543, 30.0489, 73.8621, -153.182
5.73777, 16, -47.6384, -15.3213, 38.2508, 30.4524, 74.1059, -152.536
5.76703, 18, -47.2253, -15.5403, 38.9162, 31.8291, 74.912, -150.326
5.77028, 18, -47.1613, -15.5728, 39.0089, 32.0209, 75.0204, -150.018
5.77294, 18, -47.0959, -15.6059, 39.1009, 32.2119, 75.1271, -149.713
5.77666, 19, -47.0959, -15.6059, 39.1923, 32.4023, 75.2327, -149.409
5.78968, 19, -46.8207, -15.7461, 39.4649, 32.9721, 75.5423, -148.507
5.79482, 20, -46.7485, -15.7826, 39.5552, 33.1617, 75.6436, -148.209
5.79771, 20, -46.6752, -15.8195, 39.6448, 33.3511, 75.7439, -147.914
5.80126, 20, -46.6006, -15.8568, 39.7336, 33.5405, 75.8433, -147.62
5.80988, 21, -46.4481, -15.9328, 39.9092, 33.9192, 76.0396, -147.035
5.81893, 21, -46.291, -16.0109, 40.0828, 34.2975, 76.2322, -146.457
5.82718, 22, -46.1296, -16.0909, 40.2542, 34.6744, 76.4204, -145.884
5.83337, 22, -45.9638, -16.172, 40.4224, 35.0489, 76.604, -145.319
5.84171, 23, -45.7931, -16.2542, 40.5876, 35.4201, 76.7828, -144.758
5.84929, 23, -45.6159, -16.3381, 40.7503, 35.7871, 76.9559, -144.204
5.85667, 24, -45.5247, -16.4242, 40.9099, 36.1492, 77.1236, -143.655
5.86737, 24, -45.2402, -16.5123, 41.0652, 36.5053, 77.2855, -143.112
5.87888, 25, -44.9407, -16.6462, 41.2905, 37.0254, 77.5173, -142.305
5.88226, 25, -44.8375, -16.6912, 41.3635, 37.1949, 77.5916, -142.038
5.88986, 26, -44.6258, -16.7824, 41.5058, 37.5279, 77.7363, -141.507
5.89586, 26, -44.5172, -16.8286, 41.5751, 37.6914, 77.8068, -141.243
5.90506, 27, -44.1806, -16.9676, 41.7744, 38.1699, 78.0114, -140.454
5.91195, 27, -44.0652, -17.0137, 41.8379, 38.3253, 78.0774, -140.191
5.9189, 28, -43.8293, -17.1054, 41.9605, 38.6301, 78.2066, -139.667
5.93179, 28, -43.4618, -17.2417, 42.132, 39.0717, 78.3934, -138.884
5.93592, 29, -43.3358, -17.2864, 42.1858, 39.2147, 78.4541, -138.623
5.94296, 29, -43.0787, -17.3744, 42.2883, 39.4948, 78.5735, -138.101
5.95356, 30, -42.6803, -17.5029, 42.4286, 39.8998, 78.7468, -137.32
5.96287, 30, -42.4047, -17.5859, 42.5132, 40.1595, 78.8594, -136.799
5.96794, 31, -42.2638, -17.6264, 42.5529, 40.2863, 78.9144, -136.539
5.97594, 31, -41.9761, -17.7053, 42.6268, 40.5336, 79.0229, -136.019
5.98395, 32, -41.6814, -17.7818, 42.6938, 40.7726, 79.1293, -135.499
5.99195, 32, -41.3798, -17.8558, 42.754, 41.0031, 79.2328, -134.979
6.0026, 33, -40.9155, -17.9612, 42.8311, 41.3338, 79.3836, -134.203
6.00959, 33, -40.7574, -17.9948, 42.8533, 41.44, 79.4327, -133.945
6.01586, 34, -40.4363, -18.0596, 42.8921, 41.6462, 79.5286, -133.428
6.02396, 34, -40.1103, -18.1219, 42.9235, 41.8444, 79.6219, -132.913
6.03298, 35, -39.7794, -18.1813, 42.9478, 42.0346, 79.713, -132.399
6.03991, 35, -39.4428, -18.2373, 42.965, 42.2175, 79.8011, -131.887
6.05008, 36, -39.0995, -18.2899, 42.9751, 42.3927, 79.9296, -131.119
6.05588, 36, -38.7486, -18.3392, 42.9784, 42.5601, 79.9714, -130.864
6.06511, 37, -38.3911, -18.3851, 42.9751, 42.7199, 80.0533, -130.355
6.07138, 37, -38.028, -18.4275, 42.9649, 42.8721, 80.1331, -129.848
6.07992, 38, -37.6593, -18.4662, 42.9479, 43.0169, 80.211, -129.342
6.0875, 38, -37.286, -18.5014, 42.9243, 43.1544, 80.2867, -128.837
6.09587, 39, -36.908, -18.5334, 42.8939, 43.2845, 80.3601, -128.334
6.10689, 39, -36.3325, -18.5744, 42.8357, 43.4657, 80.4666, -127.585
6.11109, 40, -36.138, -18.5863, 42.813, 43.5225, 80.5011, -127.335
6.12061, 40, -35.7442, -18.6071, 42.7628, 43.6306, 80.569, -126.838
6.12788, 41, -35.3445, -18.6238, 42.706, 43.7317, 80.6349, -126.343
6.1369, 41, -34.9393, -18.6369, 42.6427, 43.8252, 80.6984, -125.85
6.1477, 42, -34.3237, -18.6501, 42.5356, 43.9525, 80.7905, -125.115
6.15215, 42, -34.117, -18.6529, 42.4968, 43.9915, 80.8199, -124.871
6.15989, 43, -33.7013, -18.6561, 42.4145, 44.0638, 80.8786, -124.385
6.16814, 43, -33.2813, -18.656, 42.3262, 44.1291, 80.9348, -123.901
6.17609, 44, -32.8556, -18.6521, 42.2322, 44.1874, 80.9894, -123.419
6.18426, 44, -32.4236, -18.6445, 42.1326, 44.2379, 81.0431, -122.941
6.1962, 45, -31.764, -18.626, 41.9719, 44.3009, 81.1191, -122.226
6.20087, 45, -31.5418, -18.6181, 41.9154, 44.3182, 81.1441, -121.989
6.21226, 46, -30.8716, -18.5892, 41.7367, 44.3582, 81.2157, -121.282
6.21654, 46, -30.6473, -18.5778, 41.6742, 44.3676, 81.2383, -121.048
6.2241, 47, -30.1961, -18.5519, 41.5449, 44.3809, 81.2833, -120.58
6.23281, 47, -29.7399, -18.5216, 41.4097, 44.3871, 81.3277, -120.115
6.24241, 48, -29.2771, -18.4868, 41.2684, 44.3864, 81.3701, -119.651
6.24888, 48, -28.8081, -18.4478, 41.121, 44.3766, 81.4118, -119.189
6.25675, 49, -28.334, -18.4044, 40.9678, 44.3584, 81.4537, -118.73
6.26478, 49, -27.8571, -18.3566, 40.8086, 44.3309, 81.4949, -118.271
6.2728, 50, -27.3778, -18.3042, 40.6431, 44.2934, 81.5353, -117.814
6.28263, 50, -26.8949, -18.2465, 40.4708, 44.2471, 81.5768, -117.357
6.28845, 51, -26.4054, -18.1832, 40.2921, 44.1916, 81.6193, -116.901
6.29777, 51, -25.9078, -18.1144, 40.1069, 44.1256, 81.6615, -116.447
6.3045, 52, -25.4037, -18.0401, 39.9141, 44.0505, 81.7045, -115.993
6.31644, 52, -24.6415, -17.9189, 39.6123, 43.9175, 81.7715, -115.314
6.32047, 53, -24.3865, -17.8757, 39.5087, 43.8682, 81.7938, -115.087
6.33074, 53, -23.8737, -17.7848, 39.2957, 43.7622, 81.839, -114.635
6.33654, 54, -23.3548, -17.6875, 39.0748, 43.6454, 81.8867, -114.183
6.34502, 54, -22.8274, -17.5838, 38.8473, 43.518, 81.9361, -113.732
6.35255, 55, -22.5607, -17.5295, 38.6122, 43.379, 81.9873, -113.28
6.36051, 55, -22.0231, -17.4164, 38.4916, 43.2278, 82.042, -112.827
6.37091, 56, -21.2116, -17.2358, 38.1203, 43.0646, 82.0982, -112.376
6.37786, 56, -20.6664, -17.1086, 37.8639, 42.8899, 82.1562, -111.925
6.38498, 57, -20.1137, -16.9757, 37.6009, 42.7038, 82.2164, -111.473
6.39187, 57, -19.8336, -16.9071, 37.4671, 42.6066, 82.2465, -111.248
6.39887, 58, -19.2674, -16.7652, 37.1944, 42.4031, 82.3084, -110.798
6.40787, 58, -18.6956, -16.617, 36.9157, 42.1872, 82.3723, -110.348
6.41953, 59, -17.8329, -16.3835, 36.4849, 41.8398, 82.4716, -109.674
6.42385, 59, -17.5433, -16.3033, 36.3378, 41.7174, 82.5064, -109.449
6.43955, 60, -16.6605, -16.0565, 35.8865, 41.1935, 82.6519, -108.549
6.44234, 60, -16.06, -15.8855, 35.5784, 41.0541, 82.6895, -108.324
6.44788, 61, -15.7576, -15.798, 35.4222, 40.9113, 82.7276, -108.099
6.45982, 62, -14.846, -15.5289, 34.945, 40.4646, 82.8449, -107.426
6.46679, 62, -14.2338, -15.3445, 34.6208, 40.1518, 82.9254, -106.977
6.47384, 62, -13.6129, -15.1549, 34.2927, 39.8272, 83.0071, -106.528
6.48131, 63, -13.2987, -15.0576, 34.1273, 39.6601, 83.0488, -106.303
6.48786, 63, -12.6644, -14.8582, 33.7927, 39.3159, 83.1336, -105.853
6.49535, 64, -12.0247, -14.6542, 33.4536, 38.9579, 83.2218, -105.403
6.50775, 64, -11.0569, -14.3384, 32.9339, 38.3943, 83.3611, -104.726
6.51619, 65, -10.3999, -14.1184, 32.5794, 37.9992, 83.46, -104.272
6.51984, 65, -10.0672, -14.0056, 32.4, 37.7953, 83.5115, -104.045
6.53035, 66, -9.05522, -13.6573, 31.8541, 37.1569, 83.6749, -103.36
6.53588, 66, -8.71439, -13.5375, 31.6693, 36.9355, 83.7326, -103.13
6.54432, 67, -8.02837, -13.2921, 31.2937, 36.4784, 83.8531, -102.669
6.55186, 67, -7.33335, -13.039, 30.9106, 36.0034, 83.9813, -102.206
6.56026, 68, -6.62836, -12.7778, 30.5209, 35.5107, 84.1171, -101.74
6.57193, 69, -5.55679, -12.3744, 29.9279, 34.7432, 84.3345, -101.035
6.57588, 69, -5.1969, -12.2366, 29.7281, 34.4807, 84.41, -100.799
6.58634, 69, -4.47225, -11.9547, 29.3261, 33.9467, 84.5649, -100.089
6.59359, 70, -3.73957, -11.6652, 28.9235, 33.402, 84.725, -99.8509
6.59988, 70, -2.99806, -11.3672, 28.5207, 32.8438, 84.8906, -99.3735
6.60784, 71, -2.24868, -11.0612, 28.1169, 32.272, 85.0624, -98.8949
6.61567, 71, -1.49153, -10.7489, 27.7107, 31.685, 85.2425, -98.4138
6.62386, 72, -0.726563, -10.4302, 27.3016, 31.0814, 85.4318, -97.9292
6.63336, 72, 0.0447326, -10.1058, 26.8903, 30.4603, 85.6303, -97.4417
6.63987, 73, 0.820803, -9.77407, 26.477, 29.8265, 85.8376, -96.9516
6.64854, 73, 1.60104, -9.43507, 26.0639, 29.1817, 86.0527, -96.4604
6.65585, 74, 2.38488, -9.08963, 25.6521, 28.5283, 86.2756, -95.9678
6.66747, 75, 3.56423, -8.56284, 25.0419, 27.536, 86.6226, -95.2269
6.6719, 75, 3.95791, -8.38444, 24.8412, 27.2023, 86.7413, -94.9795
6.68048, 75, 4.74583, -8.02416, 24.4432, 26.5341, 86.9827, -94.485
6.68802, 76, 5.53304, -7.65908, 24.0508, 25.8662, 87.2298, -93.9899
6.70323, 77, 6.71219, -7.10091, 23.4745, 24.8649, 87.7396, -92.9981
6.70514, 77, 7.10488, -6.91123, 23.2853, 24.5328, 87.7396, -92.9981
6.71613, 77, 8.28447, -6.32901, 22.7254, 23.5364, 88.1417, -92.2543
6.71988, 78, 8.67774, -6.13012, 22.5408, 23.2032, 88.2807, -92.0059
6.72772, 78, 9.46469, -5.72638, 22.175, 22.5323, 88.5681, -91.5066
6.73571, 79, 10.2536, -5.31508, 21.8117, 21.8551, 88.869, -91.0031
6.74391, 79, 11.0444, -4.89684, 21.4507, 21.1727, 89.1835, -90.4938
6.75178, 80, 11.8338, -4.46897, 21.0919, 20.4861, 89.5102, -89.9783
6.75978, 80, 12.6181, -4.03025, 20.7373, 19.7991, 89.8477, -89.4554
6.76794, 81, 13.3954, -3.58239, 20.3871, 19.1188, 90.1946, -88.9257
6.77594, 81, 14.1667, -3.12731, 20.0435, 18.4501, 90.5492, -88.3902
6.78277, 82, 14.5497, -2.89744, 19.8748, 18.1211, 90.7287, -88.1209
6.79213, 82, 15.6865, -2.19515, 19.3844, 17.1579, 91.274, -87.3096
6.79893, 83, 16.0606, -1.95723, 19.2258, 16.8456, 91.4578, -87.038
6.80817, 83, 17.1649, -1.23479, 18.7649, 15.9391, 92.015, -86.2219
6.81471, 83, 17.5267, -0.991253, 18.6159, 15.6465, 92.2032, -85.9499
6.82431, 84, 18.5901, -0.254923, 18.1831, 14.7976, 92.7759, -85.1368
6.83227, 84, 19.2779, 0.240725, 17.904, 14.2565, 93.1662, -84.5966
6.84034, 85, 19.9468, 0.741997, 17.6313, 13.735, 93.5649, -84.0584
6.8485, 85, 20.5975, 1.24773, 17.3649, 13.2332, 93.9704, -83.5226
6.85568, 86, 20.9164, 1.50184, 17.2338, 12.9899, 94.1755, -83.2555
6.86375, 86, 21.5434, 2.0141, 16.9767, 12.5177, 94.5898, -82.721
6.87168, 87, 22.1576, 2.53398, 16.7263, 12.0659, 95.0101, -82.1847
6.8797, 87, 22.7598, 3.06397, 16.4805, 11.633, 95.4367, -81.6447
6.88776, 87, 23.3518, 3.60353, 16.239, 11.2181, 95.8705, -81.1
6.8957, 88, 23.934, 4.15018, 16.0006, 10.8188, 96.3112, -80.5479
6.9037, 88, 24.5054, 4.70482, 15.7655, 10.4355, 96.7583, -79.9863
6.91177, 89, 25.0666, 5.27121, 15.5359, 10.067, 97.2123, -79.4141
6.9197, 89, 25.62, 5.84958, 15.3104, 9.71412, 97.672, -78.8308
6.92772, 90, 26.1701, 6.43862, 15.088, 9.37659, 98.1375, -78.234
6.9357, 90, 26.7141, 7.03715, 14.8701, 9.05465, 98.6087, -77.6228
6.94371, 91, 27.246, 7.64476, 14.6575, 8.75005, 99.0861, -76.998
6.95175, 91, 27.7648, 8.2629, 14.4491, 8.46348, 99.5699, -76.361
6.9597, 92, 28.2734, 8.89165, 14.2445, 8.19738, 100.059, -75.7116
6.96771, 92, 28.775, 9.53041, 14.0442, 7.95247, 100.554, -75.0523
6.97574, 93, 29.268, 10.1778, 13.8488, 7.72955, 101.052, -74.3861
6.9853, 93, 29.749, 10.8319, 13.6601, 7.52943, 101.55, -73.7123
6.99172, 94, 30.2158, 11.4909, 13.479, 7.35292, 102.048, -73.0318
6.99975, 94, 30.668, 12.1529, 13.305, 7.20002, 102.544, -72.3464
7.0077, 95, 31.1064, 12.8172, 13.138, 7.07069, 103.036, -71.6562
7.0167, 95, 31.5312, 13.4832, 12.9791, 6.96531, 103.525, -70.9598
7.02376, 96, 31.9418, 14.1507, 12.8275, 6.8829, 104.011, -70.2583
7.0317, 96, 32.3365, 14.8189, 12.682, 6.82541, 104.493, -69.552
7.04071, 97, 32.7149, 15.487, 12.5433, 6.78992, 104.97, -68.8393
7.04774, 97, 33.0772, 16.1532, 12.4119, 6.77544, 105.442, -68.122
7.05575, 98, 33.4235, 16.8158, 12.289, 6.78324, 105.907, -67.4032
7.0637, 98, 33.7547, 17.4729, 12.1748, 6.81208, 106.362, -66.6814
7.07177, 99, 34.0716, 18.123, 12.0701, 6.85993, 106.807, -65.9607
7.0797, 99, 34.3758, 18.7649, 11.9752, 6.92758, 107.238, -65.2448
7.08771, 100, 34.6684, 19.397, 11.8898, 7.01174, 107.655, -64.5331
7.09577, 100, 34.9493, 20.0191, 11.8137, 7.11309, 108.056, -63.8281
7.10367, 101, 35.2181, 20.6296, 11.7462, 7.22951, 108.44, -63.1335
7.1117, 101, 35.4744, 21.2281, 11.687, 7.35997, 108.807, -62.4476
7.11985, 102, 35.7176, 21.813, 11.636, 7.50227, 109.157, -61.7721
7.1277, 102, 35.946, 22.3835, 11.5925, 7.65443, 109.491, -61.1092
7.13571, 102, 36.1617, 22.9394, 11.5566, 7.81437, 109.809, -60.4586
7.14378, 103, 36.3691, 23.4798, 11.5283, 7.98053, 110.113, -59.8204
7.1517, 103, 36.5707, 24.0049, 11.5085, 8.15349, 110.401, -59.1956
7.1597, 104, 36.7672, 24.5162, 11.497, 8.33348, 110.673, -58.5842
7.16777, 104, 36.9585, 25.0136, 11.4925, 8.52189, 110.927, -57.9829
7.17572, 104, 37.1453, 25.4966, 11.4942, 8.7196, 111.162, -57.3914
7.18378, 104, 37.3249, 25.9658, 11.5019, 8.92556, 111.379, -56.8093
7.19183, 104, 37.4938, 26.4203, 11.5139, 9.13929, 111.577, -56.2369
7.19979, 104, 37.6523, 26.8603, 11.5289, 9.35849, 111.76, -55.675
7.20782, 104, 37.8052, 27.287, 11.5468, 9.5802, 111.93, -55.1269
7.21587, 104, 37.9559, 27.6993, 11.5668, 9.802, 112.09, -54.5962
7.22406, 104, 38.1044, 28.0971, 11.5873, 10.0211, 112.24, -54.0854
7.23132, 104, 38.1772, 28.2902, 11.5976, 10.2361, 112.383, -53.5956
7.23975, 104, 38.3876, 28.8476, 11.6272, 10.4453, 112.518, -53.1291
7.24781, 104, 38.5196, 29.1985, 11.6457, 10.6476, 112.645, -52.6863
7.25577, 104, 38.6437, 29.5319, 11.6633, 10.8417, 112.765, -52.2681
7.2641, 104, 38.7595, 29.8464, 11.6797, 11.0273, 112.878, -51.8752
7.27071, 104, 38.8143, 29.9966, 11.6874, 11.1167, 112.931, -51.6879
7.27994, 104, 38.9674, 30.4197, 11.709, 11.3701, 113.079, -51.1635
7.28808, 104, 39.0598, 30.6772, 11.722, 11.5263, 113.168, -50.8461
7.29476, 104, 39.1031, 30.7987, 11.728, 11.6005, 113.21, -50.6967
7.30413, 104, 39.2206, 31.1338, 11.7443, 11.8058, 113.325, -50.2861
7.3108, 104, 39.2556, 31.2355, 11.7493, 11.8685, 113.36, -50.1619
7.32031, 104, 39.3486, 31.511, 11.7631, 12.0391, 113.453, -49.8272
7.32828, 104, 39.4014, 31.6707, 11.7709, 12.1377, 113.507, -49.6356
7.33661, 104, 39.4478, 31.811, 11.7779, 12.2243, 113.553, -49.4688
7.34427, 104, 39.4883, 31.9332, 11.7844, 12.2985, 113.592, -49.3265
7.35231, 104, 39.5063, 31.9878, 11.7901, 12.3612, 113.625, -49.2074
7.3608, 104, 39.551, 32.1267, 11.7952, 12.4121, 113.652, -49.1111
7.36769, 104, 39.5632, 32.1652, 11.7975, 12.433, 113.662, -49.0705
7.37571, 104, 39.584, 32.2317, 11.8018, 12.4677, 113.68, -49.0041
7.38373, 104, 39.6005, 32.2856, 11.8057, 12.494, 113.693, -48.9552
7.39169, 104, 39.6135, 32.3286, 11.8092, 12.513, 113.702, -48.9205
7.3997, 104, 39.6235, 32.3613, 11.8124, 12.526, 113.708, -48.8974
7.40773, 104, 39.6308, 32.3857, 11.8153, 12.5346, 113.711, -48.8828
7.41578, 104, 39.6357, 32.4038, 11.8178, 12.5397, 113.713, -48.8747
7.42369, 104, 39.6387, 32.4165, 11.8197, 12.5424, 113.714, -48.8707
7.43173, 104, 39.6404, 32.4247, 11.8211, 12.5438, 113.715, -48.8689
7.43968, 105, 39.641, 32.4298, 11.8222, 12.5444, 113.715, -48.8681
7.44769, 105, 39.6407, 32.4331, 11.8232, 12.5448, 113.715, -48.8679
7.45584, 105, 39.6399, 32.4355, 11.8241, 12.5449, 113.715, -48.8679
7.46368, 105, 39.639, 32.4372, 11.8247, 12.545, 113.715, -48.868
7.4717, 105, 39.6377, 32.4386, 11.8253, 12.5451, 113.715, -48.8682
7.47973, 105, 39.6364, 32.4399, 11.8259, 12.5451, 113.715, -48.8685
7.48872, 105, 39.6355, 32.441, 11.8264, 12.5452, 113.715, -48.8688
7.49571, 105, 39.6351, 32.4422, 11.827, 12.5452, 113.715, -48.8691
7.50373, 105, 39.6348, 32.4433, 11.8276, 12.5452, 113.715, -48.8694
7.51168, 105, 39.6346, 32.4443, 11.8282, 12.5452, 113.715, -48.8697
7.5198, 105, 39.6344, 32.4452, 11.8286, 12.5452, 113.715, -48.8699
7.5287, 105, 39.6341, 32.4458, 11.8289, 12.5452, 113.715, -48.8702
7.53569, 105, 39.6338, 32.4463, 11.8292, 12.5451, 113.715, -48.8704
7.5437, 105, 39.6336, 32.4466, 11.8295, 12.5451, 113.715, -48.8706
7.55173, 105, 39.6333, 32.4467, 11.8297, 12.5451, 113.715, -48.8708
