hehonglu123/Motion-Primitive-Planning/ILC/recorded_data/realrobot/from_NX/iteration_10/run_2.csv
timestamp, cmd_num, J1, J2, J3, J4, J5, J6
0.000372, -1, 39.6302, 32.4471, 11.8318, 12.5453, 113.713, -48.8723
0.003121, -1, 39.6302, 32.4471, 11.8318, 12.5453, 113.713, -48.8723
0.007966, -1, 39.6302, 32.4471, 11.8318, 12.5453, 113.713, -48.8723
0.028392, -1, 39.6302, 32.4471, 11.8319, 12.5453, 113.713, -48.8723
0.031156, -1, 39.6302, 32.4471, 11.8319, 12.5453, 113.713, -48.8723
0.03241, -1, 39.6302, 32.4471, 11.8319, 12.5453, 113.713, -48.8723
0.03987, -1, 39.6301, 32.4471, 11.8319, 12.5453, 113.713, -48.8723
0.047811, -1, 39.6301, 32.4471, 11.8319, 12.5453, 113.713, -48.8724
0.055869, -1, 39.6296, 32.447, 11.8319, 12.5453, 113.713, -48.8724
0.063823, -1, 39.6273, 32.4466, 11.8318, 12.5453, 113.713, -48.8723
0.071803, -1, 39.622, 32.4452, 11.8318, 12.5453, 113.713, -48.8725
0.079903, -1, 39.6132, 32.4423, 11.8317, 12.5453, 113.712, -48.8738
0.0878, -1, 39.6, 32.437, 11.8317, 12.5453, 113.711, -48.8788
0.095798, -1, 39.5803, 32.4284, 11.8318, 12.5453, 113.707, -48.8901
0.103879, -1, 39.5517, 32.4157, 11.8322, 12.5453, 113.7, -48.9108
0.111794, -1, 39.5133, 32.3981, 11.8342, 12.5453, 113.688, -48.9442
0.119797, -1, 39.4639, 32.3744, 11.8391, 12.5453, 113.669, -48.9946
0.127899, -1, 39.4018, 32.3439, 11.8474, 12.5453, 113.641, -49.0664
0.135797, -1, 39.3264, 32.3061, 11.8602, 12.5454, 113.604, -49.1608
0.143809, -1, 39.2374, 32.2605, 11.878, 12.5456, 113.558, -49.2807
0.151895, -1, 39.1343, 32.2069, 11.9005, 12.5462, 113.501, -49.426
0.159965, -1, 39.0171, 32.1455, 11.9272, 12.5471, 113.433, -49.5959
0.167898, -1, 38.8866, 32.0767, 11.9579, 12.5486, 113.357, -49.7883
0.17598, -1, 38.7438, 32.0014, 11.9919, 12.5505, 113.274, -50
0.183929, -1, 38.5894, 31.9202, 12.0281, 12.5527, 113.184, -50.2276
0.191944, -1, 38.4252, 31.834, 12.0659, 12.555, 113.089, -50.4674
0.200038, -1, 38.2529, 31.7439, 12.1047, 12.5573, 112.991, -50.7157
0.207808, -1, 38.0744, 31.6507, 12.1438, 12.5598, 112.89, -50.9689
0.215828, -1, 37.8909, 31.5553, 12.1827, 12.5623, 112.789, -51.2256
0.223839, -1, 37.7034, 31.4585, 12.2215, 12.5646, 112.687, -51.484
0.231899, -1, 37.5131, 31.3608, 12.2602, 12.5671, 112.585, -51.7434
0.240115, -1, 37.3215, 31.2628, 12.299, 12.5696, 112.482, -52.0028
0.24682, -1, 37.2255, 31.2139, 12.3185, 12.5708, 112.431, -52.1326
0.256054, -1, 36.9372, 31.0672, 12.3766, 12.5746, 112.276, -52.5225
0.262884, -1, 36.8412, 31.0183, 12.396, 12.5759, 112.225, -52.6526
0.272241, -1, 36.5536, 30.8717, 12.4542, 12.5797, 112.07, -53.0432
0.28023, -1, 36.362, 30.774, 12.4931, 12.5823, 111.967, -53.3034
0.288421, -1, 36.1705, 30.6763, 12.5319, 12.5849, 111.865, -53.5638
0.296704, -1, 35.979, 30.5783, 12.5709, 12.5875, 111.762, -53.8245
0.304362, -1, 35.7874, 30.4803, 12.6098, 12.5901, 111.659, -54.085
0.312492, -1, 35.5957, 30.3823, 12.6487, 12.5926, 111.556, -54.3452
0.320393, -1, 35.4997, 30.3332, 12.6681, 12.5953, 111.453, -54.6055
0.328362, -1, 35.3075, 30.2349, 12.7069, 12.5966, 111.401, -54.7358
0.336375, -1, 35.115, 30.1367, 12.7457, 12.5992, 111.298, -54.9966
0.343813, -1, 34.9227, 30.0382, 12.7847, 12.6017, 111.195, -55.2574
0.351803, -1, 34.7304, 29.9397, 12.8235, 12.6043, 111.092, -55.5178
0.359835, -1, 34.5381, 29.8413, 12.8623, 12.6068, 110.989, -55.7786
0.495761, -1, 31.2592, 28.1659, 13.5239, 12.6522, 109.237, -60.217
0.497033, -1, 31.2592, 28.1659, 13.5239, 12.6522, 109.237, -60.217
0.499127, -1, 31.1628, 28.1167, 13.5435, 12.6537, 109.185, -60.3476
0.500379, -1, 31.1628, 28.1167, 13.5435, 12.6537, 109.185, -60.3476
0.50252, -1, 31.0665, 28.0675, 13.5631, 12.6551, 109.134, -60.4784
0.503782, -1, 31.0665, 28.0675, 13.5631, 12.6551, 109.134, -60.4784
0.505013, -1, 31.0665, 28.0675, 13.5631, 12.6551, 109.134, -60.4784
0.508865, -1, 30.9704, 28.0182, 13.5826, 12.6565, 109.082, -60.6091
0.511744, -1, 30.8743, 27.9689, 13.602, 12.6579, 109.03, -60.7399
0.512954, -1, 30.8743, 27.9689, 13.602, 12.6579, 109.03, -60.7399
0.515005, -1, 30.7782, 27.9197, 13.6215, 12.6594, 108.979, -60.8705
0.516367, -1, 30.7782, 27.9197, 13.6215, 12.6594, 108.979, -60.8705
0.519045, -1, 30.6822, 27.8704, 13.641, 12.6608, 108.927, -61.0012
0.520393, -1, 30.6822, 27.8704, 13.641, 12.6608, 108.927, -61.0012
0.522365, -1, 30.5863, 27.8211, 13.6605, 12.6622, 108.876, -61.1318
0.527606, -1, 30.4903, 27.7718, 13.68, 12.6636, 108.824, -61.2625
0.528879, -1, 30.4903, 27.7718, 13.68, 12.6636, 108.824, -61.2625
0.530853, -1, 30.3943, 27.7225, 13.6995, 12.665, 108.772, -61.3932
0.532162, -1, 30.3943, 27.7225, 13.6995, 12.665, 108.772, -61.3932
0.533374, -1, 30.3943, 27.7225, 13.6995, 12.665, 108.772, -61.3932
0.536253, -1, 30.2983, 27.6731, 13.719, 12.6664, 108.721, -61.5239
0.538296, -1, 30.2983, 27.6731, 13.719, 12.6664, 108.721, -61.5239
0.546956, -1, 30.0098, 27.5249, 13.7775, 12.6704, 108.566, -61.9167
0.551774, -1, 29.9134, 27.4756, 13.797, 12.6718, 108.514, -62.0474
0.559794, -1, 29.7204, 27.3768, 13.8359, 12.6745, 108.411, -62.3091
0.567867, -1, 29.5268, 27.278, 13.8748, 12.6771, 108.308, -62.5707
0.575777, -1, 29.3328, 27.1792, 13.9137, 12.6797, 108.205, -62.8327
0.584407, -1, 29.1386, 27.0803, 13.9527, 12.6823, 108.101, -63.0942
0.591794, -1, 28.9441, 26.9815, 13.9917, 12.6848, 107.998, -63.3556
0.599783, -1, 28.7499, 26.8826, 14.0306, 12.6874, 107.895, -63.6172
0.60935, -1, 28.5558, 26.7837, 14.0696, 12.6899, 107.791, -63.8789
0.615782, -1, 28.3619, 26.685, 14.1087, 12.6924, 107.688, -64.1406
0.623858, -1, 28.1685, 26.5862, 14.1477, 12.6948, 107.584, -64.402
0.631805, -1, 27.9755, 26.4874, 14.1866, 12.6972, 107.481, -64.6638
0.639859, -1, 27.7827, 26.3886, 14.2257, 12.6997, 107.378, -64.9257
0.647819, -1, 27.5902, 26.2897, 14.2646, 12.702, 107.275, -65.1876
0.655827, -1, 27.3981, 26.1908, 14.3035, 12.7045, 107.171, -65.4491
0.663942, -1, 27.2059, 26.0917, 14.3426, 12.7068, 107.068, -65.7106
0.802834, -1, 23.9204, 24.4116, 15.005, 12.7461, 105.313, -70.1595
0.80481, -1, 23.8239, 24.3622, 15.0245, 12.7474, 105.261, -70.2903
0.806127, -1, 23.8239, 24.3622, 15.0245, 12.7474, 105.261, -70.2903
0.807318, -1, 23.8239, 24.3622, 15.0245, 12.7474, 105.261, -70.2903
0.809358, -1, 23.7275, 24.3127, 15.0439, 12.7486, 105.209, -70.4212
0.810566, -1, 23.7275, 24.3127, 15.0439, 12.7486, 105.209, -70.4212
0.812422, -1, 23.631, 24.2633, 15.0634, 12.7498, 105.158, -70.5522
0.816469, -1, 23.5344, 24.2139, 15.0828, 12.751, 105.106, -70.6831
0.818026, -1, 23.5344, 24.2139, 15.0828, 12.751, 105.106, -70.6831
0.819295, -1, 23.5344, 24.2139, 15.0828, 12.751, 105.106, -70.6831
0.822047, -1, 23.4377, 24.1644, 15.1023, 12.7522, 105.054, -70.8139
0.823277, -1, 23.4377, 24.1644, 15.1023, 12.7522, 105.054, -70.8139
0.826124, -1, 23.3409, 24.115, 15.1218, 12.7534, 105.002, -70.9447
0.82744, -1, 23.3409, 24.115, 15.1218, 12.7534, 105.002, -70.9447
0.829664, -1, 23.244, 24.0656, 15.1412, 12.7546, 104.951, -71.0756
0.833754, -1, 23.1471, 24.0161, 15.1606, 12.7558, 104.899, -71.2065
0.834989, -1, 23.1471, 24.0161, 15.1606, 12.7558, 104.899, -71.2065
0.837065, -1, 23.0502, 23.9666, 15.1801, 12.7571, 104.848, -71.3374
0.838286, -1, 23.0502, 23.9666, 15.1801, 12.7571, 104.848, -71.3374
0.839586, -1, 23.0502, 23.9666, 15.1801, 12.7571, 104.848, -71.3374
0.841702, -1, 22.9531, 23.9172, 15.1995, 12.7583, 104.796, -71.4684
0.842961, -1, 22.9531, 23.9172, 15.1995, 12.7583, 104.796, -71.4684
0.850872, -1, 22.7591, 23.8184, 15.2385, 12.7607, 104.692, -71.7303
0.854773, -1, 22.6621, 23.769, 15.258, 12.7619, 104.641, -71.8611
0.863763, -1, 22.4683, 23.6703, 15.297, 12.7644, 104.537, -72.1226
0.871799, -1, 22.2749, 23.5717, 15.336, 12.7669, 104.434, -72.3839
0.878767, -1, 22.0817, 23.473, 15.3749, 12.7695, 104.33, -72.6456
0.887778, -1, 21.8887, 23.3742, 15.4138, 12.7722, 104.227, -72.9072
0.895771, -1, 21.6962, 23.2755, 15.4528, 12.7748, 104.124, -73.1684
0.903801, -1, 21.504, 23.1767, 15.4917, 12.7775, 104.021, -73.4299
0.911793, -1, 21.3118, 23.078, 15.5307, 12.7801, 103.918, -73.6914
0.919811, -1, 21.1194, 22.9793, 15.5697, 12.7828, 103.815, -73.9531
0.927776, -1, 20.927, 22.8807, 15.6086, 12.7855, 103.712, -74.2144
0.935791, -1, 20.7346, 22.7821, 15.6476, 12.7882, 103.608, -74.4754
0.943816, -1, 20.5419, 22.6835, 15.6865, 12.7909, 103.505, -74.7367
0.951765, -1, 20.3488, 22.5849, 15.7253, 12.7937, 103.402, -74.998
0.961393, -1, 20.155, 22.4861, 15.7643, 12.7963, 103.299, -75.3899
0.967811, -1, 19.9614, 22.3874, 15.8032, 12.7991, 103.196, -75.5204
0.976784, -1, 19.7677, 22.2887, 15.8419, 12.8018, 103.094, -75.7815
0.982856, -1, 19.574, 22.1901, 15.8808, 12.8046, 102.99, -76.0428
0.991792, -1, 19.3807, 22.0914, 15.9197, 12.8073, 102.887, -76.304
0.999767, -1, 19.1877, 21.9928, 15.9585, 12.81, 102.784, -76.5649
1.00778, -1, 18.9948, 21.8941, 15.9975, 12.8128, 102.681, -76.8257
1.01581, -1, 18.8024, 21.7954, 16.0363, 12.8155, 102.578, -77.0867
1.02382, -1, 18.6103, 21.6967, 16.075, 12.8182, 102.475, -77.3477
1.03176, -1, 18.4185, 21.5981, 16.1139, 12.8209, 102.372, -77.6084
1.03979, -1, 18.2266, 21.4996, 16.1528, 12.8235, 102.27, -77.8691
1.0478, -1, 18.0346, 21.4011, 16.1916, 12.8261, 102.167, -78.1299
1.05577, -1, 17.8428, 21.3028, 16.2305, 12.8286, 102.064, -78.3908
1.0638, -1, 17.6508, 21.2044, 16.2694, 12.8311, 101.961, -78.6513
1.0718, -1, 17.4584, 21.1061, 16.3082, 12.8336, 101.858, -78.9115
1.07976, -1, 17.2655, 21.0078, 16.347, 12.8361, 101.755, -79.1721
1.08783, -1, 17.0725, 20.9095, 16.3858, 12.8385, 101.652, -79.4329
1.09581, -1, 16.8794, 20.8113, 16.4246, 12.8409, 101.549, -79.6934
1.10378, -1, 16.6864, 20.7131, 16.4634, 12.8432, 101.446, -79.954
1.11181, -1, 16.4933, 20.6149, 16.502, 12.8455, 101.344, -80.2145
1.1198, -1, 16.3005, 20.5166, 16.5408, 12.8478, 101.241, -80.4751
1.12781, -1, 16.1082, 20.4182, 16.5795, 12.8502, 101.138, -80.7357
1.13578, -1, 15.9163, 20.3198, 16.6182, 12.8525, 101.036, -80.9958
1.14381, -1, 15.7246, 20.2213, 16.6569, 12.8548, 100.933, -81.2558
1.15182, -1, 15.5333, 20.1229, 16.6955, 12.8571, 100.83, -81.5159
1.15988, -1, 15.3422, 20.0246, 16.7342, 12.8594, 100.728, -81.7761
1.16786, -1, 15.151, 19.9263, 16.773, 12.8617, 100.625, -82.0359
1.17589, -1, 14.9598, 19.8281, 16.8117, 12.8639, 100.523, -82.2958
1.18394, -1, 14.7685, 19.73, 16.8503, 12.8663, 100.42, -82.5557
1.19189, -1, 14.577, 19.6319, 16.8891, 12.8686, 100.318, -82.8158
1.19991, -1, 14.3851, 19.5337, 16.9278, 12.8708, 100.215, -83.0756
1.20785, -1, 14.1929, 19.4356, 16.9665, 12.8731, 100.113, -83.3349
1.21582, -1, 14.0005, 19.3377, 17.0053, 12.8754, 100.01, -83.5945
1.22385, -1, 13.8081, 19.2398, 17.0438, 12.8777, 99.9075, -83.8542
1.23184, -1, 13.6156, 19.142, 17.0825, 12.88, 99.805, -84.1137
1.23991, -1, 13.4232, 19.0441, 17.1212, 12.8823, 99.7023, -84.3729
1.24681, -1, 13.3272, 18.9952, 17.1405, 12.8834, 99.6512, -84.5026
1.25608, -1, 13.0397, 18.8484, 17.1983, 12.887, 99.4978, -84.8915
1.26277, -1, 12.944, 18.7994, 17.2177, 12.8881, 99.4466, -85.0213
1.27214, -1, 12.6575, 18.6524, 17.2755, 12.8917, 99.2932, -85.4098
1.27878, -1, 12.5621, 18.6035, 17.2948, 12.8929, 99.2421, -85.5393
1.28828, -1, 12.2766, 18.4569, 17.3527, 12.8966, 99.0885, -85.9277
1.29639, -1, 12.0865, 18.3591, 17.3911, 12.8989, 98.9866, -86.1868
1.30515, -1, 11.8961, 18.2615, 17.4298, 12.9013, 98.8844, -86.4455
1.31129, -1, 11.8009, 18.2127, 17.4491, 12.9025, 98.8335, -86.5747
1.3188, -1, 11.6103, 18.1151, 17.4876, 12.905, 98.7317, -86.8333
1.32918, -1, 11.4193, 18.0174, 17.5261, 12.9075, 98.5787, -87.2212
1.33554, -1, 11.2282, 17.9198, 17.5647, 12.9099, 98.5278, -87.3505
1.34276, -1, 11.0368, 17.8223, 17.6032, 12.9123, 98.426, -87.6088
1.3536, -1, 10.7493, 17.6762, 17.6609, 12.916, 98.2729, -87.996
1.35979, -1, 10.6535, 17.6274, 17.6801, 12.9173, 98.2219, -88.1252
1.3678, -1, 10.462, 17.5299, 17.7185, 12.9199, 98.1204, -88.3836
1.37581, -1, 10.2708, 17.4324, 17.757, 12.9223, 98.0184, -88.6417
1.38358, -1, 10.08, 17.3348, 17.7954, 12.925, 97.9164, -88.8997
1.39076, -1, 9.88959, 17.2372, 17.8337, 12.9276, 97.8147, -89.1579
1.39975, -1, 9.69944, 17.1397, 17.872, 12.9302, 97.7126, -89.416
1.40753, -1, 9.50983, 17.0423, 17.9104, 12.9329, 97.6107, -89.674
1.41477, -1, 9.32053, 16.9449, 17.9487, 12.9357, 97.5089, -89.9317
1.42381, -1, 9.13123, 16.8475, 17.9871, 12.9383, 97.407, -90.1892
1.43156, -1, 8.94184, 16.7503, 18.0253, 12.941, 97.3052, -90.4468
1.43975, -1, 8.75237, 16.6532, 18.0637, 12.9437, 97.2035, -90.7044
1.44775, -1, 8.56277, 16.556, 18.1021, 12.9463, 97.1018, -90.9616
1.45752, -1, 8.37296, 16.459, 18.1404, 12.949, 97.0004, -91.3475
1.46375, -1, 8.18272, 16.362, 18.1787, 12.9517, 96.8988, -91.4761
1.47275, -1, 7.99219, 16.2651, 18.2171, 12.9543, 96.7972, -91.7334
1.47955, -1, 7.8017, 16.1682, 18.2553, 12.957, 96.6959, -91.9902
1.48775, -1, 7.6111, 16.0713, 18.2935, 12.9597, 96.5943, -92.2469
1.49575, -1, 7.42069, 15.9743, 18.3319, 12.9622, 96.4928, -92.5037
1.50378, -1, 7.23056, 15.8774, 18.37, 12.9648, 96.3917, -92.7605
1.51176, -1, 7.04074, 15.7803, 18.4081, 12.9674, 96.2903, -93.0173
1.51986, -1, 6.85131, 15.6834, 18.4465, 12.97, 96.189, -93.2736
1.52779, -1, 6.66234, 15.5865, 18.4845, 12.9725, 96.0884, -93.5299
1.53574, -1, 6.47389, 15.4897, 18.5226, 12.975, 95.9872, -93.7863
1.54382, -1, 6.28573, 15.393, 18.5608, 12.9776, 95.8862, -94.0429
1.55176, -1, 6.09766, 15.2963, 18.5989, 12.98, 95.7855, -94.2988
1.55978, -1, 5.90936, 15.1996, 18.637, 12.9823, 95.6844, -94.5547
1.56782, -1, 5.72099, 15.1029, 18.6752, 12.9846, 95.5834, -94.8106
1.57576, -1, 5.53248, 15.0063, 18.7133, 12.9869, 95.4828, -95.0666
1.58377, -1, 5.34371, 14.9097, 18.7514, 12.9893, 95.3819, -95.3223
1.59185, -1, 5.15457, 14.8133, 18.7895, 12.9915, 95.2812, -95.5776
1.59976, -1, 4.96513, 14.717, 18.8275, 12.9938, 95.1807, -95.8332
1.60774, -1, 4.77574, 14.6206, 18.8656, 12.9961, 95.0798, -96.0886
1.61581, -1, 4.58626, 14.5243, 18.9037, 12.9982, 94.979, -96.3438
1.6243, -1, 4.39705, 14.428, 18.9416, 13.0005, 94.8783, -96.5988
1.63175, -1, 4.20809, 14.3316, 18.9796, 13.0026, 94.7774, -96.8537
1.63985, -1, 4.01935, 14.2352, 19.0176, 13.0049, 94.6767, -97.1088
1.6485, -1, 3.83132, 14.1389, 19.0555, 13.0072, 94.5759, -97.3638
1.65585, -1, 3.64385, 14.0428, 19.0935, 13.0094, 94.4752, -97.6184
1.66407, -1, 3.4567, 13.9466, 19.1314, 13.0117, 94.3745, -97.8731
1.67139, -1, 3.26969, 13.8506, 19.1691, 13.014, 94.2738, -98.1278
1.67928, -1, 3.08269, 13.7545, 19.207, 13.0162, 94.1731, -98.3826
1.68819, -1, 2.89579, 13.6585, 19.2449, 13.0185, 94.0725, -98.637
1.69632, -1, 2.7088, 13.5625, 19.2828, 13.0208, 93.9719, -98.8911
1.70399, -1, 2.52147, 13.4665, 19.3207, 13.023, 93.8715, -99.1452
1.71236, -1, 2.33399, 13.3706, 19.3585, 13.0253, 93.7711, -99.3995
1.72059, -1, 2.14618, 13.2749, 19.3963, 13.0276, 93.6708, -99.6535
1.72785, -1, 1.95811, 13.1791, 19.4342, 13.0298, 93.5706, -99.9071
1.73662, -1, 1.76992, 13.0832, 19.4719, 13.0321, 93.4708, -100.161
1.74482, -1, 1.5816, 12.9874, 19.5097, 13.0343, 93.3706, -100.414
1.75198, -1, 1.39353, 12.8916, 19.5475, 13.0365, 93.2706, -100.668
1.76085, -1, 1.20574, 12.7957, 19.5852, 13.0388, 93.1707, -100.921
1.76808, -1, 1.01832, 12.7, 19.6229, 13.0412, 93.0705, -101.174
1.77624, -1, 0.831586, 12.6044, 19.6607, 13.0436, 92.9706, -101.427
1.7851, -1, 0.645208, 12.5088, 19.6983, 13.046, 92.871, -101.68
1.79226, -1, 0.459271, 12.4133, 19.7359, 13.0484, 92.7711, -101.933
1.80034, -1, 0.273621, 12.318, 19.7736, 13.0508, 92.6714, -102.186
1.80915, -1, 0.0882016, 12.2226, 19.8112, 13.0533, 92.5722, -102.438
1.81482, -1, -0.00448605, 12.175, 19.8299, 13.0545, 92.5222, -102.565
1.82453, -1, -0.282881, 12.0321, 19.8865, 13.0581, 92.3728, -102.944
1.83315, -1, -0.375781, 11.9845, 19.9053, 13.0594, 92.3233, -103.196
1.8389, -1, -0.561854, 11.8894, 19.9428, 13.0619, 92.2238, -103.322
1.84779, -1, -0.74818, 11.7944, 19.9804, 13.0644, 92.1244, -103.574
1.85576, -1, -0.934684, 11.6994, 20.0179, 13.0669, 92.025, -103.826
1.8628, -1, -1.12141, 11.6043, 20.0553, 13.0694, 91.9256, -104.078
1.87179, -1, -1.30839, 11.5092, 20.0929, 13.0719, 91.8263, -104.329
1.87974, -1, -1.49523, 11.4141, 20.1304, 13.0745, 91.7272, -104.581
1.88678, -1, -1.68184, 11.319, 20.1678, 13.077, 91.628, -104.832
1.89574, -1, -1.86811, 11.2239, 20.2053, 13.0797, 91.5287, -105.084
1.90375, -1, -2.0539, 11.129, 20.2427, 13.0823, 91.4297, -105.335
1.91075, -1, -2.23896, 11.0341, 20.2801, 13.0849, 91.3304, -105.586
1.91974, -1, -2.42377, 10.9392, 20.3175, 13.0875, 91.2312, -105.837
1.92774, -1, -2.60823, 10.8444, 20.3548, 13.0902, 91.1323, -106.088
1.93473, -1, -2.7922, 10.7496, 20.3921, 13.0929, 91.0331, -106.339
1.94374, -1, -2.97606, 10.6549, 20.4295, 13.0955, 90.934, -106.59
1.95173, -1, -3.16011, 10.5602, 20.4669, 13.0981, 90.8353, -106.84
1.9614, -1, -3.34444, 10.4656, 20.5041, 13.1007, 90.7363, -107.216
1.96774, -1, -3.52907, 10.3711, 20.5414, 13.1033, 90.6373, -107.341
1.97673, -1, -3.71386, 10.2768, 20.5787, 13.1058, 90.5387, -107.592
1.98273, -1, -3.89889, 10.1824, 20.6159, 13.1083, 90.4398, -107.841
1.99177, -1, -4.08418, 10.088, 20.6532, 13.1108, 90.341, -108.091
1.99973, -1, -4.2698, 9.9937, 20.6904, 13.1132, 90.2426, -108.341
2.0078, -1, -4.45535, 9.89937, 20.7275, 13.1155, 90.1438, -108.591
2.01575, -1, -4.64062, 9.80503, 20.7649, 13.1179, 90.0453, -108.841
2.02382, -1, -4.82553, 9.71081, 20.802, 13.1202, 89.947, -109.09
2.03177, -1, -5.01009, 9.61674, 20.839, 13.1226, 89.8484, -109.34
2.03974, -1, -5.19389, 9.52267, 20.8762, 13.125, 89.75, -109.589
2.0478, -1, -5.37725, 9.42863, 20.9133, 13.1273, 89.6518, -109.838
2.05573, -1, -5.56025, 9.33472, 20.9504, 13.1296, 89.5533, -110.087
2.06374, -1, -5.7427, 9.24079, 20.9875, 13.1319, 89.4551, -110.335
2.07181, -1, -5.92501, 9.14687, 21.0245, 13.1342, 89.3571, -110.584
2.07973, -1, -6.10748, 9.05298, 21.0615, 13.1364, 89.2589, -110.833
2.08773, -1, -6.29015, 8.95921, 21.0986, 13.1387, 89.1609, -111.081
2.0958, -1, -6.47307, 8.86553, 21.1355, 13.1409, 89.0632, -111.33
2.1038, -1, -6.65623, 8.77186, 21.1723, 13.143, 88.9651, -111.578
2.11174, -1, -6.83981, 8.67827, 21.2093, 13.1451, 88.8671, -111.826
2.1198, -1, -7.02368, 8.58469, 21.2462, 13.1472, 88.7695, -112.074
2.12774, -1, -7.20787, 8.49115, 21.283, 13.1494, 88.6715, -112.322
2.13575, -1, -7.39207, 8.3975, 21.32, 13.1515, 88.5737, -112.569
2.14382, -1, -7.57588, 8.30393, 21.3568, 13.1537, 88.4763, -112.817
2.15174, -1, -7.75941, 8.2105, 21.3935, 13.1558, 88.3785, -113.064
2.15988, -1, -7.94244, 8.11713, 21.4304, 13.1581, 88.2811, -113.311
2.16789, -1, -8.12496, 8.02374, 21.4672, 13.1603, 88.1839, -113.558
2.17583, -1, -8.30684, 7.93045, 21.5039, 13.1625, 88.0864, -113.806
2.1839, -1, -8.48818, 7.8372, 21.5408, 13.1648, 87.989, -114.053
2.19185, -1, -8.66919, 7.74401, 21.5775, 13.167, 87.8918, -114.299
2.19991, -1, -8.84996, 7.65082, 21.6142, 13.1693, 87.7942, -114.545
2.20797, -1, -9.03075, 7.5577, 21.651, 13.1715, 87.6968, -114.792
2.21574, -1, -9.21177, 7.46468, 21.6877, 13.1738, 87.5997, -115.039
2.22377, -1, -9.393, 7.37188, 21.7243, 13.176, 87.5025, -115.285
2.23205, -1, -9.57467, 7.27904, 21.761, 13.1782, 87.4054, -115.531
2.23979, -1, -9.75669, 7.18622, 21.7977, 13.1805, 87.3084, -115.777
2.24797, -1, -9.93907, 7.09349, 21.8342, 13.1826, 87.2112, -116.023
2.25475, -1, -10.0303, 7.04714, 21.8524, 13.1838, 87.1625, -116.146
2.26395, -1, -10.3043, 6.90799, 21.9074, 13.1871, 87.0168, -116.515
2.27073, -1, -10.3956, 6.8616, 21.9257, 13.1882, 86.9681, -116.637
2.28027, -1, -10.6692, 6.72256, 21.9806, 13.1916, 86.8226, -117.006
2.28824, -1, -10.851, 6.62997, 22.017, 13.194, 86.7258, -117.251
2.29635, -1, -11.0322, 6.53736, 22.0534, 13.1964, 86.6288, -117.496
2.3043, -1, -11.2126, 6.44483, 22.0901, 13.1988, 86.5322, -117.741
2.3123, -1, -11.3925, 6.35234, 22.1266, 13.2013, 86.4357, -117.986
2.32036, -1, -11.5721, 6.25987, 22.163, 13.2036, 86.3388, -118.231
2.32875, -1, -11.7514, 6.16744, 22.1995, 13.2061, 86.2421, -118.476
2.33624, -1, -11.841, 6.12128, 22.2178, 13.2073, 86.1939, -118.598
2.34435, -1, -12.0202, 6.029, 22.2542, 13.2098, 86.0972, -118.842
2.35173, -1, -12.1996, 5.93683, 22.2905, 13.2123, 86.0007, -119.086
2.35974, -1, -12.3793, 5.84482, 22.327, 13.2147, 85.9045, -119.33
2.36782, -1, -12.5594, 5.75278, 22.3632, 13.2172, 85.8081, -119.575
2.37572, -1, -12.7398, 5.6608, 22.3995, 13.2197, 85.7118, -119.819
2.38374, -1, -12.9207, 5.56887, 22.4359, 13.2221, 85.6159, -120.062
2.39172, -1, -13.1018, 5.47692, 22.4722, 13.2246, 85.5199, -120.306
2.39974, -1, -13.2831, 5.38489, 22.5084, 13.227, 85.4239, -120.55
2.40671, -1, -13.4642, 5.29295, 22.5447, 13.2295, 85.3283, -120.793
2.41572, -1, -13.6448, 5.20103, 22.5809, 13.2321, 85.2324, -121.036
2.42372, -1, -13.825, 5.10918, 22.617, 13.2346, 85.1366, -121.279
2.43179, -1, -14.0046, 5.01732, 22.6533, 13.2372, 85.041, -121.522
2.43973, -1, -14.1833, 4.92559, 22.6894, 13.2397, 84.9454, -121.765
2.44773, -1, -14.3615, 4.83389, 22.7255, 13.2423, 84.8497, -122.008
2.45472, -1, -14.5394, 4.74223, 22.7617, 13.2449, 84.7543, -122.25
2.46372, -1, -14.7171, 4.65063, 22.7979, 13.2475, 84.6586, -122.493
2.47272, -1, -14.8946, 4.55914, 22.834, 13.2499, 84.5628, -122.735
2.47981, -1, -15.0723, 4.46769, 22.8702, 13.2524, 84.4672, -122.978
2.48881, -1, -15.2504, 4.37643, 22.9063, 13.2548, 84.3715, -123.219
2.49579, -1, -15.4288, 4.28511, 22.9423, 13.2572, 84.2758, -123.461
2.50379, -1, -15.6078, 4.19385, 22.9784, 13.2595, 84.1803, -123.703
2.51172, -1, -15.7869, 4.10262, 23.0144, 13.2618, 84.0848, -123.945
2.51973, -1, -15.9662, 4.01141, 23.0503, 13.264, 83.9894, -124.186
2.52774, -1, -16.1458, 3.9201, 23.0863, 13.2661, 83.894, -124.428
2.53573, -1, -16.3256, 3.82884, 23.1223, 13.2682, 83.7985, -124.669
2.5438, -1, -16.505, 3.73763, 23.1581, 13.2704, 83.7031, -124.91
2.55174, -1, -16.684, 3.6465, 23.1939, 13.2727, 83.6077, -125.152
2.55972, -1, -16.8624, 3.55541, 23.2298, 13.275, 83.5123, -125.393
2.56825, -1, -17.0399, 3.46439, 23.2656, 13.2772, 83.4169, -125.634
2.57483, -1, -17.2167, 3.37344, 23.3015, 13.2794, 83.3217, -125.874
2.58372, -1, -17.3933, 3.28259, 23.3373, 13.2815, 83.2267, -126.115
2.59251, -1, -17.5696, 3.19174, 23.373, 13.2837, 83.1316, -126.356
2.59974, -1, -17.7456, 3.10109, 23.4089, 13.2859, 83.0367, -126.596
2.60772, -1, -17.9216, 3.01048, 23.4448, 13.2879, 82.942, -126.836
2.61653, -1, -18.0979, 2.92002, 23.4805, 13.2901, 82.8471, -127.076
2.62373, -1, -18.2745, 2.82966, 23.5162, 13.2922, 82.7524, -127.316
2.63178, -1, -18.4515, 2.73921, 23.552, 13.2943, 82.6578, -127.556
2.64053, -1, -18.6289, 2.64881, 23.5876, 13.2964, 82.563, -127.796
2.64774, -1, -18.8066, 2.55847, 23.6233, 13.2984, 82.4685, -128.035
2.65579, -1, -18.9846, 2.468, 23.659, 13.3004, 82.3742, -128.275
2.6646, -1, -19.1628, 2.3775, 23.6946, 13.3024, 82.2797, -128.514
2.6718, -1, -19.341, 2.28712, 23.7301, 13.3043, 82.1854, -128.753
2.67988, -1, -19.5187, 2.19672, 23.7658, 13.3065, 82.0916, -128.992
2.68862, -1, -19.6957, 2.10631, 23.8013, 13.3087, 81.9972, -129.231
2.69584, -1, -19.8722, 2.01606, 23.8367, 13.3108, 81.903, -129.47
2.70389, -1, -20.048, 1.92585, 23.8723, 13.313, 81.8092, -129.709
2.71263, -1, -20.2232, 1.83559, 23.9078, 13.3153, 81.7149, -129.948
2.71972, -1, -20.3981, 1.74549, 23.9432, 13.3174, 81.621, -130.186
2.72793, -1, -20.5727, 1.65544, 23.9789, 13.3196, 81.5272, -130.424
2.73665, -1, -20.7471, 1.5655, 24.0144, 13.3218, 81.4331, -130.663
2.74384, -1, -20.9218, 1.47564, 24.0497, 13.324, 81.3393, -130.901
2.75194, -1, -21.0969, 1.3859, 24.0853, 13.3262, 81.2457, -131.139
2.75995, -1, -21.2722, 1.29614, 24.1208, 13.3284, 81.1519, -131.376
2.76671, -1, -21.36, 1.25127, 24.1384, 13.3295, 81.1049, -131.495
2.77604, -1, -21.624, 1.1168, 24.1915, 13.3327, 80.9643, -131.852
2.78277, -1, -21.712, 1.07198, 24.2092, 13.3338, 80.9174, -131.97
2.79224, -1, -21.9766, 0.937487, 24.2623, 13.3371, 80.7766, -132.326
2.80033, -1, -22.1531, 0.847942, 24.2976, 13.3392, 80.683, -132.564
2.80908, -1, -22.3296, 0.758402, 24.333, 13.3413, 80.5893, -132.801
2.81632, -1, -22.5056, 0.668909, 24.3682, 13.3436, 80.4958, -133.038
2.82429, -1, -22.6812, 0.579409, 24.4034, 13.346, 80.4022, -133.275
2.83318, -1, -22.7688, 0.534711, 24.421, 13.3484, 80.3086, -133.511
2.8403, -1, -22.9432, 0.445321, 24.4563, 13.3496, 80.2151, -133.748
2.84772, -1, -23.1169, 0.355934, 24.4914, 13.3521, 80.1683, -133.867
2.85572, -1, -23.2904, 0.266611, 24.5265, 13.3545, 80.0749, -134.103
2.86381, -1, -23.4636, 0.177324, 24.5617, 13.3569, 79.9813, -134.34
2.8717, -1, -23.6368, 0.088175, 24.5969, 13.3593, 79.888, -134.576
2.87973, -1, -23.8102, -0.00094302, 24.6321, 13.3617, 79.7948, -134.812
2.88775, -1, -23.9836, -0.0898978, 24.6672, 13.3642, 79.7016, -135.048
2.89575, -1, -24.1572, -0.17887, 24.7022, 13.3666, 79.6085, -135.284
2.90372, -1, -24.3312, -0.26788, 24.7373, 13.369, 79.5155, -135.52
2.91174, -1, -24.5055, -0.356756, 24.7724, 13.3714, 79.4225, -135.755
2.9197, -1, -24.6801, -0.445646, 24.8075, 13.3739, 79.3294, -135.991
2.92773, -1, -24.8551, -0.534557, 24.8424, 13.3762, 79.2364, -136.227
2.93572, -1, -25.0302, -0.623433, 24.8776, 13.3787, 79.1434, -136.462
2.94381, -1, -25.2051, -0.712235, 24.9126, 13.381, 79.0505, -136.697
2.95177, -1, -25.3796, -0.800986, 24.9475, 13.3834, 78.9577, -136.932
2.95878, -1, -25.5537, -0.889835, 24.9826, 13.3858, 78.8651, -137.167
2.96772, -1, -25.7272, -0.97855, 25.0174, 13.3884, 78.7723, -137.402
2.9767, -1, -25.9001, -1.06722, 25.0523, 13.3907, 78.6797, -137.637
2.98372, -1, -26.0726, -1.15593, 25.0874, 13.3933, 78.5875, -137.871
2.9917, -1, -26.2447, -1.24454, 25.1223, 13.3956, 78.4948, -138.106
2.99977, -1, -26.4164, -1.33304, 25.1571, 13.398, 78.4022, -138.34
3.00777, -1, -26.5883, -1.42146, 25.192, 13.4003, 78.31, -138.575
3.0157, -1, -26.7603, -1.50977, 25.2269, 13.4025, 78.2173, -138.809
3.02378, -1, -26.9326, -1.59796, 25.2617, 13.4047, 78.1249, -139.042
3.03172, -1, -27.1051, -1.68614, 25.2966, 13.4069, 78.0328, -139.276
3.03971, -1, -27.2776, -1.77439, 25.3315, 13.4091, 77.9406, -139.51
3.04777, -1, -27.4505, -1.86246, 25.3662, 13.4113, 77.8486, -139.744
3.0557, -1, -27.6237, -1.95057, 25.4009, 13.4134, 77.7566, -139.977
3.06391, -1, -27.797, -2.0388, 25.4359, 13.4156, 77.6646, -140.211
3.07171, -1, -27.9702, -2.12679, 25.4706, 13.4177, 77.5725, -140.444
3.0797, -1, -28.1434, -2.21486, 25.5053, 13.4196, 77.4805, -140.678
3.08778, -1, -28.3165, -2.3029, 25.5401, 13.4217, 77.3885, -140.911
3.0957, -1, -28.4893, -2.39094, 25.5749, 13.4238, 77.2963, -141.144
3.10373, -1, -28.6617, -2.47887, 25.6095, 13.4259, 77.2043, -141.376
3.11177, -1, -28.8335, -2.56685, 25.6442, 13.428, 77.1123, -141.609
3.11969, -1, -29.0045, -2.65481, 25.6789, 13.4302, 77.0204, -141.842
3.12771, -1, -29.175, -2.74268, 25.7134, 13.4324, 76.9284, -142.075
3.13577, -1, -29.3457, -2.83048, 25.7481, 13.4345, 76.8368, -142.307
3.1437, -1, -29.5164, -2.91821, 25.7828, 13.4366, 76.7448, -142.54
3.15173, -1, -29.6873, -3.00578, 25.8173, 13.4386, 76.653, -142.772
3.1598, -1, -29.8583, -3.09333, 25.8519, 13.4406, 76.5614, -143.004
3.16776, -1, -30.0293, -3.1808, 25.8865, 13.4427, 76.4694, -143.236
3.17606, -1, -30.2002, -3.26833, 25.921, 13.4447, 76.3777, -143.468
3.1838, -1, -30.3714, -3.35575, 25.9555, 13.4468, 76.2863, -143.7
3.1918, -1, -30.5429, -3.44319, 25.9901, 13.4489, 76.1946, -143.932
3.20041, -1, -30.7146, -3.5307, 26.0245, 13.4509, 76.1032, -144.164
3.20782, -1, -30.8865, -3.61807, 26.059, 13.453, 76.0119, -144.395
3.2157, -1, -31.0583, -3.70548, 26.0936, 13.4549, 75.9205, -144.626
3.22445, -1, -31.23, -3.79277, 26.128, 13.4571, 75.8291, -144.858
3.23179, -1, -31.4014, -3.88007, 26.1624, 13.4591, 75.7378, -145.089
3.23974, -1, -31.5722, -3.96734, 26.1969, 13.4612, 75.6466, -145.32
3.24875, -1, -31.7427, -4.05453, 26.2313, 13.4634, 75.5553, -145.551
3.25587, -1, -31.9127, -4.14179, 26.2657, 13.4656, 75.4641, -145.782
3.26407, -1, -32.0823, -4.22899, 26.3001, 13.4678, 75.3732, -146.013
3.27076, -1, -32.167, -4.27252, 26.3173, 13.4689, 75.3275, -146.128
3.27874, -1, -32.3364, -4.35962, 26.3516, 13.4711, 75.2364, -146.359
3.28816, -1, -32.5909, -4.49015, 26.4031, 13.4743, 75.1004, -146.705
3.29474, -1, -32.6758, -4.53359, 26.4203, 13.4754, 75.0548, -146.82
3.30421, -1, -32.9301, -4.66396, 26.4717, 13.4786, 74.9185, -147.165
3.31227, -1, -33.0999, -4.75091, 26.5059, 13.4808, 74.8282, -147.396
3.3211, -1, -33.2697, -4.83775, 26.5403, 13.483, 74.7373, -147.626
3.32841, -1, -33.4397, -4.92461, 26.5745, 13.4852, 74.6468, -147.856
3.33644, -1, -33.5249, -5.01157, 26.6087, 13.4874, 74.5562, -148.086
3.34522, -1, -33.6952, -5.055, 26.6259, 13.4885, 74.511, -148.201
3.35082, -1, -33.8655, -5.14175, 26.6601, 13.4907, 74.4203, -148.43
3.36073, -1, -34.1208, -5.27187, 26.7113, 13.4941, 74.2846, -148.775
3.36773, -1, -34.2059, -5.31526, 26.7284, 13.4953, 74.2395, -148.889
3.37476, -1, -34.376, -5.4019, 26.7627, 13.4975, 74.1488, -149.119
3.38374, -1, -34.5457, -5.48853, 26.7968, 13.4999, 74.0581, -149.348
3.39169, -1, -34.7149, -5.57522, 26.8309, 13.5022, 73.9677, -149.577
3.39979, -1, -34.8837, -5.66187, 26.8651, 13.5046, 73.877, -149.807
3.40769, -1, -35.0522, -5.74843, 26.8992, 13.5071, 73.7866, -150.035
3.41569, -1, -35.2204, -5.83491, 26.9333, 13.5095, 73.6963, -150.264
3.42269, -1, -35.3887, -5.9213, 26.9674, 13.5119, 73.6059, -150.493
3.43169, -1, -35.5573, -6.00752, 27.0016, 13.5143, 73.5156, -150.722
3.4397, -1, -35.7258, -6.09378, 27.0355, 13.5166, 73.4252, -150.951
3.44775, -1, -35.8944, -6.17993, 27.0696, 13.519, 73.3351, -151.179
3.45569, -1, -36.0629, -6.26608, 27.1037, 13.5214, 73.2446, -151.408
3.46372, -1, -36.2314, -6.35223, 27.1376, 13.5238, 73.1542, -151.637
3.47271, -1, -36.4001, -6.43842, 27.1716, 13.5262, 73.064, -151.865
3.47969, -1, -36.569, -6.52464, 27.2056, 13.5286, 72.9734, -152.093
3.4887, -1, -36.7378, -6.61084, 27.2395, 13.5308, 72.8833, -152.321
3.49575, -1, -36.9067, -6.697, 27.2734, 13.5332, 72.7932, -152.549
3.50373, -1, -37.0757, -6.78315, 27.3074, 13.5354, 72.703, -152.778
3.51459, -1, -37.3287, -6.91231, 27.3582, 13.5388, 72.5682, -153.119
3.51968, -1, -37.413, -6.9553, 27.3751, 13.54, 72.5233, -153.233
3.52777, -1, -37.581, -7.04139, 27.4091, 13.5422, 72.4334, -153.461
3.53571, -1, -37.7488, -7.12742, 27.4431, 13.5445, 72.3435, -153.688
3.5437, -1, -37.9164, -7.21342, 27.4769, 13.5467, 72.2537, -153.916
3.55175, -1, -38.0839, -7.29934, 27.5107, 13.5489, 72.164, -154.143
3.55969, -1, -38.2514, -7.38525, 27.5447, 13.5511, 72.0742, -154.37
3.56773, -1, -38.4187, -7.47097, 27.5785, 13.5533, 71.9846, -154.598
3.57576, -1, -38.5858, -7.55668, 27.6123, 13.5554, 71.8951, -154.825
3.58371, -1, -38.7533, -7.64242, 27.6462, 13.5575, 71.8054, -155.052
3.59169, -1, -38.9206, -7.7281, 27.68, 13.5595, 71.7159, -155.279
3.59977, -1, -39.0879, -7.81373, 27.7137, 13.5616, 71.6268, -155.506
3.60768, -1, -39.2555, -7.8994, 27.7476, 13.5637, 71.5373, -155.732
3.61568, -1, -39.423, -7.9851, 27.7814, 13.5656, 71.4479, -155.959
3.62378, -1, -39.5906, -8.07066, 27.815, 13.5675, 71.3587, -156.186
3.63169, -1, -39.7583, -8.1562, 27.8487, 13.5695, 71.2693, -156.413
3.6397, -1, -39.9258, -8.24169, 27.8825, 13.5714, 71.18, -156.639
3.64776, -1, -40.0934, -8.32708, 27.9162, 13.5734, 71.0906, -156.865
3.65571, -1, -40.2608, -8.41244, 27.9498, 13.5753, 71.0015, -157.092
3.66374, -1, -40.428, -8.49784, 27.9836, 13.5773, 70.912, -157.318
3.67204, -1, -40.595, -8.58321, 28.0173, 13.5793, 70.8228, -157.544
3.67978, -1, -40.7619, -8.66861, 28.0508, 13.5813, 70.7339, -157.77
3.68778, -1, -40.9284, -8.75398, 28.0845, 13.5833, 70.6446, -157.996
3.69615, -1, -41.0948, -8.83932, 28.1182, 13.5853, 70.5555, -158.221
3.70329, -1, -41.2612, -8.92455, 28.1518, 13.5873, 70.4665, -158.448
3.71185, -1, -41.4274, -9.00973, 28.1853, 13.5893, 70.3772, -158.673
3.72038, -1, -41.5937, -9.09488, 28.219, 13.5913, 70.288, -158.899
3.7277, -1, -41.76, -9.17997, 28.2526, 13.5933, 70.199, -159.124
3.73577, -1, -41.9264, -9.26502, 28.2862, 13.5953, 70.1099, -159.35
3.7447, -1, -42.0927, -9.35005, 28.3199, 13.5974, 70.0209, -159.575
3.75186, -1, -42.259, -9.43515, 28.3534, 13.5994, 69.9319, -159.8
3.7599, -1, -42.4253, -9.52015, 28.3869, 13.6014, 69.8432, -160.026
3.76875, -1, -42.5917, -9.60512, 28.4205, 13.6034, 69.7541, -160.251
3.77602, -1, -42.758, -9.69006, 28.454, 13.6055, 69.6652, -160.476
3.78268, -1, -42.8412, -9.73256, 28.4707, 13.6065, 69.6209, -160.588
3.79215, -1, -43.0908, -9.85996, 28.521, 13.6096, 69.4876, -160.926
3.80097, -1, -43.257, -9.94488, 28.5545, 13.6117, 69.3989, -161.151
3.80825, -1, -43.423, -10.0298, 28.588, 13.6137, 69.3104, -161.375
3.81628, -1, -43.589, -10.1147, 28.6215, 13.6158, 69.2217, -161.6
3.82507, -1, -43.755, -10.1997, 28.655, 13.6179, 69.1332, -161.825
3.83068, -1, -43.8379, -10.2421, 28.6717, 13.619, 69.0889, -161.937
3.84033, -1, -44.0037, -10.3269, 28.7051, 13.6222, 68.9563, -162.274
3.84767, -1, -44.1692, -10.4116, 28.7385, 13.6232, 68.9119, -162.386
3.85572, -1, -44.3343, -10.4962, 28.7721, 13.6254, 68.8233, -162.61
3.86369, -1, -44.4994, -10.5808, 28.8054, 13.6276, 68.7347, -162.835
3.87175, -1, -44.6646, -10.6653, 28.8388, 13.6299, 68.6461, -163.059
3.87973, -1, -44.8298, -10.7498, 28.8723, 13.632, 68.5575, -163.283
3.88768, -1, -44.9952, -10.8342, 28.9057, 13.6342, 68.469, -163.507
3.89567, -1, -45.1606, -10.9187, 28.9391, 13.6363, 68.3808, -163.731
3.90379, -1, -45.3259, -11.0033, 28.9725, 13.6386, 68.2922, -163.955
3.91172, -1, -45.4911, -11.0877, 29.0059, 13.6409, 68.2039, -164.179
3.91967, -1, -45.6564, -11.1721, 29.039, 13.6432, 68.1159, -164.403
3.92767, -1, -45.8216, -11.2566, 29.0724, 13.6455, 68.0273, -164.626
3.93567, -1, -45.9858, -11.3405, 29.1059, 13.6477, 67.939, -164.85
3.94374, -1, -46.1473, -11.4229, 29.1393, 13.65, 67.851, -165.073
3.95173, -1, -46.3043, -11.5023, 29.1729, 13.6525, 67.7635, -165.294
3.95967, -1, -46.4547, -11.5773, 29.2064, 13.6548, 67.6783, -165.51
3.96774, -1, -46.5959, -11.6472, 29.2387, 13.6571, 67.5969, -165.715
3.97567, -1, -46.7255, -11.7106, 29.2685, 13.6593, 67.5221, -165.905
3.9837, -1, -46.8406, -11.7667, 29.2949, 13.6613, 67.4551, -166.074
3.99181, -1, -46.9394, -11.8158, 29.317, 13.663, 67.3993, -166.216
4.00165, -1, -47.0219, -11.8588, 29.3336, 13.6642, 67.3363, -166.375
4.00769, -1, -47.0892, -11.8956, 29.3449, 13.6651, 67.3208, -166.414
4.01574, -1, -47.1416, -11.925, 29.3521, 13.6655, 67.2975, -166.473
4.02371, -1, -47.1805, -11.9472, 29.356, 13.6657, 67.2824, -166.51
4.0317, -1, -47.2082, -11.9626, 29.3578, 13.6658, 67.2737, -166.533
4.03976, -1, -47.2263, -11.9727, 29.3587, 13.6658, 67.2689, -166.545
4.04767, -1, -47.2372, -11.9786, 29.359, 13.6659, 67.2665, -166.551
4.05564, 2, -47.2429, -11.9815, 29.3593, 13.6659, 67.2654, -166.553
4.06376, 2, -47.2449, -11.9828, 29.3594, 13.666, 67.2649, -166.555
4.07177, 2, -47.245, -11.9833, 29.3594, 13.666, 67.2647, -166.555
4.07966, 2, -47.2448, -11.9835, 29.3595, 13.666, 67.2646, -166.555
4.08774, 2, -47.2447, -11.9836, 29.3595, 13.666, 67.2645, -166.556
4.09567, 2, -47.2451, -11.9837, 29.3595, 13.6661, 67.2645, -166.556
4.10368, 2, -47.2461, -11.984, 29.3596, 13.6661, 67.2645, -166.556
4.11179, 2, -47.2473, -11.9845, 29.3596, 13.6661, 67.2645, -166.556
4.11967, 2, -47.2491, -11.9852, 29.3596, 13.6661, 67.2644, -166.556
4.12767, 2, -47.2507, -11.9861, 29.3596, 13.666, 67.2645, -166.556
4.13574, 2, -47.2521, -11.9869, 29.3596, 13.6661, 67.2645, -166.556
4.1437, 2, -47.253, -11.9876, 29.3596, 13.6661, 67.2645, -166.556
4.15173, 2, -47.2535, -11.988, 29.3596, 13.6661, 67.2645, -166.556
4.15976, 2, -47.2537, -11.9882, 29.3596, 13.6661, 67.2645, -166.556
4.16771, 2, -47.2537, -11.9882, 29.3596, 13.6661, 67.2645, -166.556
4.17576, 2, -47.2534, -11.9882, 29.3596, 13.6661, 67.2645, -166.556
4.18384, 2, -47.253, -11.9882, 29.3596, 13.6661, 67.2645, -166.556
4.19181, 2, -47.2525, -11.9882, 29.3596, 13.6661, 67.2644, -166.556
4.19987, 2, -47.2522, -11.9882, 29.3596, 13.6661, 67.2644, -166.556
4.20786, 2, -47.252, -11.9882, 29.3596, 13.6661, 67.2645, -166.556
4.21577, 2, -47.252, -11.9883, 29.3596, 13.6661, 67.2645, -166.556
4.2237, 2, -47.2521, -11.9884, 29.3596, 13.6661, 67.2645, -166.556
4.23192, 2, -47.2523, -11.9888, 29.3596, 13.6661, 67.2645, -166.556
4.23975, 2, -47.2529, -11.9891, 29.3596, 13.6661, 67.2645, -166.556
4.2477, 2, -47.2534, -11.9894, 29.3596, 13.6661, 67.2645, -166.556
4.25583, 2, -47.2537, -11.9896, 29.3596, 13.6661, 67.2645, -166.556
4.26412, 2, -47.2539, -11.9897, 29.3596, 13.6661, 67.2645, -166.556
4.27194, 2, -47.2539, -11.9897, 29.3596, 13.6661, 67.2645, -166.556
4.28002, 2, -47.2538, -11.9896, 29.3596, 13.6661, 67.2646, -166.556
4.28668, 2, -47.2537, -11.9896, 29.3596, 13.666, 67.2646, -166.556
4.29608, 2, -47.2532, -11.9896, 29.3596, 13.6661, 67.2645, -166.556
4.3027, 2, -47.253, -11.9895, 29.3596, 13.6661, 67.2645, -166.556
4.31264, 2, -47.2526, -11.9895, 29.3596, 13.666, 67.2645, -166.556
4.3202, 2, -47.2524, -11.9896, 29.3596, 13.6661, 67.2645, -166.556
4.32828, 2, -47.2523, -11.9896, 29.3596, 13.6661, 67.2645, -166.556
4.3363, 2, -47.2523, -11.9896, 29.3596, 13.6661, 67.2646, -166.556
4.34429, 2, -47.2522, -11.9897, 29.3596, 13.6661, 67.2646, -166.555
4.3524, 2, -47.2522, -11.9897, 29.3596, 13.666, 67.2646, -166.555
4.35966, 2, -47.2522, -11.9898, 29.3596, 13.666, 67.2646, -166.555
4.36766, 2, -47.2522, -11.9898, 29.3596, 13.666, 67.2646, -166.555
4.37572, 2, -47.2522, -11.9898, 29.3596, 13.666, 67.2646, -166.555
4.38369, 2, -47.2522, -11.9898, 29.3596, 13.666, 67.2646, -166.555
4.39172, 2, -47.2521, -11.9897, 29.3596, 13.666, 67.2646, -166.555
4.3997, 2, -47.2521, -11.9896, 29.3596, 13.666, 67.2645, -166.555
4.4077, 2, -47.252, -11.9896, 29.3596, 13.666, 67.2645, -166.555
4.41566, 2, -47.2519, -11.9896, 29.3596, 13.666, 67.2645, -166.555
4.42373, 2, -47.2518, -11.9895, 29.3596, 13.666, 67.2645, -166.555
4.43172, 2, -47.2517, -11.9895, 29.3596, 13.666, 67.2646, -166.555
4.43966, 2, -47.2516, -11.9895, 29.3596, 13.6659, 67.2646, -166.555
4.44772, 2, -47.2516, -11.9896, 29.3596, 13.666, 67.2646, -166.555
4.45566, 2, -47.2515, -11.9896, 29.3596, 13.666, 67.2646, -166.555
4.46369, 2, -47.2514, -11.9896, 29.3596, 13.6659, 67.2646, -166.555
4.47322, 2, -47.2514, -11.9896, 29.3596, 13.666, 67.2646, -166.555
4.47965, 2, -47.2513, -11.9896, 29.3596, 13.666, 67.2646, -166.555
4.48866, 2, -47.2512, -11.9896, 29.3596, 13.666, 67.2646, -166.555
4.49574, 2, -47.2511, -11.9895, 29.3596, 13.666, 67.2646, -166.555
4.50367, 2, -47.251, -11.9895, 29.3596, 13.666, 67.2646, -166.555
4.51173, 2, -47.2509, -11.9894, 29.3596, 13.666, 67.2646, -166.555
4.51972, 2, -47.2508, -11.9893, 29.3596, 13.666, 67.2646, -166.555
4.52766, 2, -47.2507, -11.9893, 29.3596, 13.666, 67.2646, -166.555
4.53566, 2, -47.2506, -11.9893, 29.3596, 13.6659, 67.2646, -166.555
4.54376, 2, -47.2505, -11.9893, 29.3596, 13.666, 67.2646, -166.555
4.55177, 2, -47.2505, -11.9893, 29.3596, 13.666, 67.2646, -166.555
4.55966, 2, -47.2504, -11.9893, 29.3596, 13.666, 67.2646, -166.555
4.56772, 2, -47.2503, -11.9893, 29.3596, 13.6659, 67.2646, -166.555
4.5757, 2, -47.2502, -11.9893, 29.3596, 13.6659, 67.2646, -166.555
4.58367, 2, -47.2501, -11.9893, 29.3596, 13.666, 67.2646, -166.555
4.59178, 2, -47.25, -11.9893, 29.3596, 13.6659, 67.2647, -166.555
4.59966, 2, -47.25, -11.9893, 29.3596, 13.666, 67.2646, -166.555
4.60765, 2, -47.2499, -11.9892, 29.3596, 13.6659, 67.2646, -166.555
4.61574, 2, -47.2498, -11.9891, 29.3596, 13.6659, 67.2646, -166.555
4.62375, 2, -47.2497, -11.9891, 29.3596, 13.6659, 67.2646, -166.555
4.63171, 2, -47.2496, -11.989, 29.3596, 13.6659, 67.2646, -166.555
4.63973, 2, -47.2495, -11.989, 29.3596, 13.6659, 67.2646, -166.555
4.64766, 2, -47.2495, -11.989, 29.3596, 13.6659, 67.2646, -166.555
4.65566, 2, -47.2494, -11.989, 29.3596, 13.6659, 67.2647, -166.555
4.66376, 2, -47.2494, -11.989, 29.3596, 13.6659, 67.2647, -166.555
4.67176, 2, -47.2494, -11.989, 29.3596, 13.6659, 67.2647, -166.555
4.67976, 2, -47.2493, -11.989, 29.3596, 13.6659, 67.2647, -166.555
4.68781, 2, -47.2493, -11.989, 29.3596, 13.6659, 67.2647, -166.555
4.69576, 2, -47.2493, -11.989, 29.3596, 13.6659, 67.2647, -166.555
4.70378, 2, -47.2492, -11.9889, 29.3596, 13.6659, 67.2647, -166.555
4.71189, 2, -47.2491, -11.9889, 29.3596, 13.6659, 67.2647, -166.555
4.71972, 2, -47.2491, -11.9888, 29.3596, 13.6659, 67.2647, -166.555
4.72766, 2, -47.249, -11.9887, 29.3596, 13.6658, 67.2647, -166.555
4.73575, 2, -47.2488, -11.9886, 29.3596, 13.6658, 67.2647, -166.555
4.74377, 2, -47.2488, -11.9886, 29.3596, 13.6658, 67.2647, -166.555
4.75181, 2, -47.2488, -11.9886, 29.3596, 13.6658, 67.2647, -166.555
4.75984, 2, -47.2487, -11.9886, 29.3596, 13.6658, 67.2647, -166.555
4.76821, 2, -47.2486, -11.9886, 29.3596, 13.6658, 67.2647, -166.555
4.77589, 2, -47.2486, -11.9886, 29.3596, 13.6658, 67.2647, -166.555
4.78404, 2, -47.2486, -11.9886, 29.3596, 13.6659, 67.2647, -166.555
4.79065, 2, -47.2486, -11.9886, 29.3596, 13.6658, 67.2648, -166.555
4.80008, 2, -47.2486, -11.9886, 29.3596, 13.6658, 67.2648, -166.555
4.80669, 2, -47.2486, -11.9886, 29.3596, 13.6658, 67.2647, -166.555
4.81667, 2, -47.2485, -11.9885, 29.3596, 13.6658, 67.2648, -166.555
4.8242, 2, -47.2484, -11.9884, 29.3596, 13.6657, 67.2648, -166.555
4.8323, 2, -47.2483, -11.9883, 29.3596, 13.6657, 67.2648, -166.555
4.84053, 2, -47.2482, -11.9883, 29.3596, 13.6657, 67.2648, -166.555
4.84823, 2, -47.2482, -11.9883, 29.3596, 13.6657, 67.2648, -166.555
4.85569, 2, -47.2481, -11.9883, 29.3596, 13.6657, 67.2648, -166.555
4.86459, 2, -47.248, -11.9882, 29.3596, 13.6657, 67.2648, -166.555
4.8717, 2, -47.248, -11.9882, 29.3596, 13.6657, 67.2648, -166.555
4.87972, 2, -47.248, -11.9882, 29.3596, 13.6657, 67.2648, -166.554
4.88765, 2, -47.248, -11.9882, 29.3596, 13.6657, 67.2648, -166.554
4.89564, 2, -47.2479, -11.9882, 29.3596, 13.6657, 67.2648, -166.554
4.9037, 2, -47.2479, -11.9882, 29.3596, 13.6656, 67.2648, -166.554
4.91174, 2, -47.2479, -11.9882, 29.3596, 13.6656, 67.2649, -166.554
4.91965, 2, -47.2479, -11.9881, 29.3596, 13.6656, 67.2649, -166.554
4.92769, 2, -47.2478, -11.988, 29.3596, 13.6656, 67.2649, -166.554
4.93564, 2, -47.2476, -11.988, 29.3596, 13.6656, 67.2649, -166.554
4.94368, 2, -47.2475, -11.9879, 29.3596, 13.6655, 67.2649, -166.554
4.95175, 2, -47.2474, -11.9879, 29.3596, 13.6655, 67.2649, -166.554
4.95963, 2, -47.2474, -11.9879, 29.3596, 13.6655, 67.2649, -166.554
4.96766, 2, -47.2473, -11.9879, 29.3596, 13.6655, 67.2649, -166.554
4.97665, 2, -47.2473, -11.9879, 29.3596, 13.6655, 67.265, -166.554
4.98366, 2, -47.2472, -11.9878, 29.3596, 13.6655, 67.265, -166.554
4.99171, 2, -47.2472, -11.9878, 29.3596, 13.6655, 67.265, -166.554
4.99975, 2, -47.2472, -11.9878, 29.3596, 13.6655, 67.265, -166.554
5.00764, 2, -47.2472, -11.9878, 29.3596, 13.6655, 67.265, -166.554
5.01568, 2, -47.2472, -11.9877, 29.3596, 13.6655, 67.265, -166.554
5.02372, 2, -47.2471, -11.9877, 29.3596, 13.6655, 67.265, -166.554
5.03169, 2, -47.247, -11.9876, 29.3596, 13.6654, 67.265, -166.554
5.03966, 2, -47.2469, -11.9876, 29.3596, 13.6654, 67.265, -166.554
5.04771, 2, -47.2468, -11.9875, 29.3596, 13.6654, 67.265, -166.554
5.0558, 2, -47.2467, -11.9875, 29.3596, 13.6654, 67.265, -166.554
5.06387, 2, -47.2466, -11.9875, 29.3596, 13.6654, 67.265, -166.554
5.07172, 2, -47.2466, -11.9875, 29.3596, 13.6654, 67.2651, -166.554
5.07971, 2, -47.2466, -11.9875, 29.3596, 13.6654, 67.2651, -166.554
5.08803, 2, -47.2465, -11.9875, 29.3596, 13.6653, 67.2651, -166.554
5.09564, 2, -47.2465, -11.9875, 29.3596, 13.6653, 67.2651, -166.554
5.10366, 2, -47.2465, -11.9874, 29.3596, 13.6653, 67.2651, -166.554
5.11176, 2, -47.2464, -11.9874, 29.3596, 13.6653, 67.2651, -166.554
5.11964, 2, -47.2464, -11.9874, 29.3596, 13.6653, 67.2651, -166.554
5.12764, 2, -47.2463, -11.9873, 29.3596, 13.6653, 67.2651, -166.554
5.13572, 2, -47.2463, -11.9873, 29.3596, 13.6653, 67.2651, -166.554
5.14365, 4, -47.2462, -11.9872, 29.3596, 13.6653, 67.2651, -166.554
5.1517, 4, -47.2461, -11.9872, 29.3596, 13.6653, 67.2651, -166.554
5.15971, 4, -47.2461, -11.9872, 29.3596, 13.6652, 67.2652, -166.554
5.16768, 4, -47.246, -11.9872, 29.3596, 13.6652, 67.2652, -166.554
5.17568, 4, -47.2459, -11.9871, 29.3596, 13.6652, 67.2652, -166.554
5.18384, 4, -47.2459, -11.9871, 29.3596, 13.6652, 67.2652, -166.554
5.19178, 4, -47.2459, -11.9871, 29.3596, 13.6652, 67.2652, -166.554
5.19974, 4, -47.2459, -11.9871, 29.3596, 13.6652, 67.2653, -166.554
5.20781, 4, -47.2458, -11.9871, 29.3596, 13.6652, 67.2653, -166.554
5.21576, 4, -47.2458, -11.987, 29.3596, 13.6652, 67.2653, -166.554
5.22371, 4, -47.2458, -11.987, 29.3596, 13.6651, 67.2652, -166.554
5.23194, 4, -47.2458, -11.987, 29.3596, 13.6651, 67.2653, -166.554
5.23998, 4, -47.2457, -11.9869, 29.3596, 13.6651, 67.2653, -166.554
5.25456, 4, -47.2456, -11.9869, 29.3596, 13.6651, 67.2653, -166.554
5.25724, 4, -47.2456, -11.9868, 29.3596, 13.6651, 67.2653, -166.553
5.26413, 4, -47.2455, -11.9868, 29.3596, 13.6651, 67.2653, -166.553
5.27265, 4, -47.2454, -11.9868, 29.3596, 13.6651, 67.2653, -166.553
5.28061, 4, -47.2454, -11.9868, 29.3596, 13.6651, 67.2653, -166.553
5.28829, 4, -47.2454, -11.9868, 29.3596, 13.6651, 67.2653, -166.553
5.29643, 4, -47.2453, -11.9868, 29.3596, 13.665, 67.2653, -166.553
5.30498, 4, -47.2453, -11.9868, 29.3596, 13.665, 67.2653, -166.553
5.31257, 4, -47.2453, -11.9867, 29.3596, 13.665, 67.2654, -166.553
5.31877, 4, -47.2453, -11.9867, 29.3596, 13.665, 67.2654, -166.553
5.33213, 4, -47.2453, -11.9867, 29.3596, 13.665, 67.2654, -166.553
5.33641, 4, -47.2452, -11.9867, 29.3596, 13.665, 67.2654, -166.553
5.34456, 4, -47.2452, -11.9866, 29.3596, 13.6649, 67.2654, -166.553
5.35267, 4, -47.2452, -11.9866, 29.3596, 13.665, 67.2654, -166.553
5.36141, 4, -47.2451, -11.9866, 29.3596, 13.665, 67.2654, -166.553
5.36841, 4, -47.245, -11.9865, 29.3596, 13.665, 67.2654, -166.553
5.37577, 4, -47.245, -11.9865, 29.3596, 13.665, 67.2653, -166.553
5.38382, 4, -47.245, -11.9865, 29.3596, 13.6649, 67.2653, -166.553
5.39193, 4, -47.2449, -11.9865, 29.3596, 13.6649, 67.2653, -166.553
5.39986, 4, -47.2449, -11.9865, 29.3596, 13.6649, 67.2653, -166.553
5.41075, 4, -47.2451, -11.9865, 29.3596, 13.6649, 67.2654, -166.553
5.41582, 4, -47.2453, -11.9867, 29.3597, 13.6649, 67.2654, -166.553
5.42391, 4, -47.2469, -11.9876, 29.3605, 13.6654, 67.2656, -166.553
5.43562, 4, -47.2524, -11.9932, 29.3673, 13.6764, 67.2683, -166.552
5.43984, 4, -47.2555, -11.997, 29.3724, 13.6865, 67.2708, -166.55
5.44986, 4, -47.271, -12.0173, 29.4044, 13.7502, 67.2882, -166.536
5.45765, 5, -47.279, -12.0282, 29.4231, 13.7883, 67.2988, -166.517
5.46438, 5, -47.3011, -12.0579, 29.4769, 13.9002, 67.3304, -166.502
5.47184, 5, -47.3329, -12.0996, 29.5583, 14.0719, 67.3783, -166.463
5.47988, 5, -47.3762, -12.155, 29.6728, 14.3168, 67.4458, -166.406
5.48777, 5, -47.4321, -12.2252, 29.8234, 14.6435, 67.5352, -166.331
5.49578, 5, -47.5007, -12.3106, 30.0124, 15.0546, 67.646, -166.237
5.5046, 5, -47.5816, -12.4109, 30.2397, 15.5457, 67.7773, -166.125
5.51283, 5, -47.6741, -12.5252, 30.5014, 16.1061, 67.9252, -165.998
5.5209, 5, -47.7764, -12.6519, 30.7935, 16.7214, 68.0858, -165.859
5.52788, 5, -47.8869, -12.7892, 31.1098, 17.3771, 68.2535, -165.714
5.53578, 5, -48.0031, -12.9346, 31.4442, 18.0574, 68.425, -165.566
5.54378, 5, -48.1231, -13.0854, 31.7901, 18.7497, 68.5961, -165.416
5.55185, 5, -48.2438, -13.2388, 32.1426, 19.4452, 68.7649, -165.269
5.56219, 5, -48.4195, -13.4661, 32.6741, 20.4693, 69.0109, -165.045
5.56781, 5, -48.4748, -13.5398, 32.8501, 20.801, 69.0912, -164.968
5.57708, 6, -48.5771, -13.6817, 33.1949, 21.4408, 69.2501, -164.798
5.58384, 6, -48.6647, -13.8134, 33.5264, 22.0397, 69.4085, -164.6
5.59198, 7, -48.7337, -13.9346, 33.8397, 22.5923, 69.5692, -164.359
5.59981, 7, -48.7817, -14.0467, 34.1334, 23.0945, 69.7349, -164.062
5.60779, 7, -48.8085, -14.1499, 34.4061, 23.5502, 69.9084, -163.697
5.61768, 8, -48.8154, -14.2433, 34.6595, 23.9681, 70.0934, -163.262
5.62377, 8, -48.8041, -14.3271, 34.8981, 24.3582, 70.2912, -162.757
5.63383, 9, -48.7769, -14.4037, 35.1253, 24.7316, 70.5026, -162.194
5.64168, 9, -48.7364, -14.4754, 35.3459, 25.0982, 70.7269, -161.584
5.64907, 10, -48.6848, -14.5437, 35.5646, 25.4646, 70.9619, -160.942
5.65591, 10, -48.6239, -14.6088, 35.7834, 25.8342, 71.2049, -160.28
5.6641, 11, -48.5562, -14.6713, 36.0033, 26.2077, 71.4519, -159.608
5.67642, 12, -48.4451, -14.7644, 36.3352, 26.7759, 71.8238, -158.602
5.68182, 12, -48.406, -14.7959, 36.4451, 26.9675, 71.9475, -158.268
5.69156, 13, -48.2854, -14.8907, 36.7709, 27.5492, 72.3178, -157.268
5.69624, 13, -48.2444, -14.9219, 36.8782, 27.7451, 72.441, -156.937
5.70424, 13, -48.1608, -14.9834, 37.0898, 28.1398, 72.6872, -156.276
5.71194, 14, -48.0748, -15.0447, 37.2977, 28.538, 72.9335, -155.616
5.7204, 14, -47.9853, -15.1064, 37.5034, 28.9387, 73.18, -154.959
5.72797, 15, -47.8929, -15.1676, 37.7067, 29.3412, 73.4261, -154.305
5.7399, 16, -47.7476, -15.2568, 38.0066, 29.9453, 73.7928, -153.329
5.74399, 16, -47.6968, -15.2864, 38.1058, 30.1462, 73.9141, -153.006
5.75362, 16, -47.5906, -15.3463, 38.3026, 30.5471, 74.1547, -152.363
5.75998, 17, -47.4791, -15.4075, 38.4959, 30.9462, 74.392, -151.725
5.76855, 17, -47.3626, -15.4698, 38.686, 31.3424, 74.6247, -151.091
5.77776, 18, -47.2408, -15.5327, 38.8738, 31.7352, 74.8526, -150.464
5.78579, 18, -47.1132, -15.5967, 39.0585, 32.1246, 75.0747, -149.844
5.79244, 19, -46.9804, -15.6626, 39.2401, 32.5109, 75.2908, -149.232
5.80044, 19, -46.8425, -15.7309, 39.4201, 32.8949, 75.5012, -148.626
5.80968, 20, -46.6992, -15.8014, 39.5987, 33.2767, 75.7063, -148.028
5.81658, 20, -46.5506, -15.8745, 39.775, 33.6566, 75.9064, -147.438
5.82607, 21, -46.3974, -15.9506, 39.9492, 34.035, 76.1016, -146.855
5.83267, 21, -46.2397, -16.0297, 40.1223, 34.4115, 76.2917, -146.279
5.84146, 22, -46.0768, -16.111, 40.2938, 34.7855, 76.4763, -145.711
5.84962, 22, -45.9085, -16.1942, 40.4622, 35.1562, 76.6558, -145.149
5.85667, 23, -45.7342, -16.2792, 40.628, 35.5228, 76.8296, -144.594
5.86872, 25, -45.461, -16.4101, 40.8716, 36.0646, 77.0802, -143.771
5.89112, 25, -44.9733, -16.635, 41.2569, 36.9397, 77.4717, -142.423
5.89779, 25, -44.7668, -16.7265, 41.4034, 37.2785, 77.6201, -141.889
5.89975, 26, -44.7668, -16.7265, 41.4034, 37.2785, 77.6201, -141.889
5.90365, 26, -44.661, -16.7725, 41.4748, 37.4452, 77.6926, -141.624
5.92739, 27, -43.989, -17.0481, 41.8736, 38.4064, 78.1056, -140.042
5.93002, 27, -43.8711, -17.0935, 41.9348, 38.5596, 78.1711, -139.78
5.93192, 28, -43.8711, -17.0935, 41.9348, 38.5596, 78.1711, -139.78
5.93771, 28, -43.7515, -17.1837, 42.0525, 38.8599, 78.2993, -139.255
5.94357, 28, -43.5074, -17.2283, 42.1088, 39.0068, 78.3619, -138.994
5.9462, 28, -43.3828, -17.2726, 42.1634, 39.1516, 78.4239, -138.733
5.95178, 29, -43.2566, -17.3165, 42.2163, 39.2942, 78.4851, -138.472
5.95996, 29, -42.9994, -17.4031, 42.3168, 39.5733, 78.605, -137.949
5.96778, 30, -42.7348, -17.4879, 42.4101, 39.8441, 78.7215, -137.427
5.97789, 30, -42.3216, -17.6112, 42.5366, 40.234, 78.8912, -136.645
5.98673, 31, -42.0358, -17.6902, 42.612, 40.4833, 79.0006, -136.125
5.99182, 31, -41.89, -17.7288, 42.647, 40.6048, 79.0544, -135.865
6.00239, 32, -41.4424, -17.8411, 42.742, 40.9566, 79.2117, -135.086
6.00784, 32, -41.2899, -17.8773, 42.7703, 41.0697, 79.2628, -134.826
6.01862, 33, -40.8227, -17.9813, 42.8443, 41.3969, 79.4127, -134.051
6.02564, 33, -40.6636, -18.0143, 42.8654, 41.5019, 79.4613, -133.792
6.03262, 34, -40.341, -18.0783, 42.902, 41.7057, 79.5565, -133.276
6.03975, 34, -40.0139, -18.1398, 42.9314, 41.9015, 79.6491, -132.761
6.04876, 35, -39.6817, -18.1983, 42.9535, 42.0894, 79.7394, -132.248
6.05876, 35, -39.1716, -18.2795, 42.9735, 42.3575, 79.87, -131.479
6.06377, 36, -38.9978, -18.3049, 42.9767, 42.4429, 79.9124, -131.224
6.07489, 37, -38.4659, -18.376, 42.9763, 42.6877, 80.0368, -130.459
6.07982, 37, -38.2856, -18.3981, 42.9728, 42.7656, 80.0769, -130.205
6.09059, 37, -37.7362, -18.4587, 42.9518, 42.9879, 80.1953, -129.445
6.09827, 38, -37.5504, -18.4771, 42.9415, 43.0584, 80.2713, -128.94
6.10528, 38, -37.1755, -18.5114, 42.9159, 43.1936, 80.3088, -128.688
6.11174, 39, -36.7963, -18.5424, 42.8836, 43.3215, 80.3812, -128.186
6.11981, 39, -36.4124, -18.5696, 42.8445, 43.442, 80.4523, -127.686
6.12774, 40, -36.0232, -18.5932, 42.7989, 43.5552, 80.5212, -127.188
6.13575, 40, -35.6277, -18.6127, 42.7467, 43.6613, 80.5888, -126.692
6.14535, 41, -35.2264, -18.6283, 42.6879, 43.76, 80.6538, -126.197
6.15289, 41, -34.8198, -18.6404, 42.6228, 43.8516, 80.717, -125.705
6.15976, 42, -34.4092, -18.649, 42.5511, 43.9362, 80.7785, -125.215
6.16736, 42, -33.9957, -18.6545, 42.4732, 44.0137, 80.8374, -124.727
6.17749, 43, -33.5788, -18.6567, 42.3891, 44.0837, 80.8957, -124.242
6.18583, 44, -33.1571, -18.6555, 42.2991, 44.1471, 80.951, -123.758
6.19288, 44, -32.7294, -18.6505, 42.2035, 44.2031, 81.0056, -123.278
6.20086, 44, -32.2953, -18.6418, 42.102, 44.2516, 81.0584, -122.799
6.20862, 45, -31.8552, -18.6292, 41.9947, 44.2934, 81.1089, -122.323
6.22047, 46, -31.1877, -18.6039, 41.8223, 44.3417, 81.1829, -121.613
6.22512, 46, -30.9641, -18.5937, 41.7619, 44.3539, 81.2064, -121.378
6.2377, 47, -30.2898, -18.5576, 41.5719, 44.3789, 81.2742, -120.676
6.24059, 47, -30.063, -18.5435, 41.5057, 44.3835, 81.2966, -120.443
6.24806, 47, -29.6051, -18.5118, 41.3687, 44.3878, 81.3404, -119.978
6.25607, 48, -29.1405, -18.4758, 41.2257, 44.3845, 81.3825, -119.515
6.266, 48, -28.6697, -18.4355, 41.0765, 44.3721, 81.4242, -119.053
6.2722, 49, -28.1944, -18.3907, 40.9216, 44.3514, 81.4661, -118.594
6.28066, 49, -27.7168, -18.3416, 40.7605, 44.321, 81.5068, -118.136
6.28817, 50, -27.2365, -18.2878, 40.5929, 44.2807, 81.5474, -117.679
6.29781, 51, -26.7519, -18.2284, 40.4187, 44.2319, 81.5892, -117.223
6.30437, 51, -26.2599, -18.1635, 40.2383, 44.1732, 81.6318, -116.767
6.31269, 51, -25.7602, -18.0931, 40.0509, 44.1046, 81.6742, -116.313
6.32063, 52, -25.2549, -18.0173, 39.856, 44.0262, 81.7176, -115.859
6.33257, 53, -24.492, -17.8936, 39.5516, 43.8888, 81.7847, -115.18
6.33844, 53, -24.2367, -17.8496, 39.4469, 43.8381, 81.807, -114.954
6.3447, 53, -23.7224, -17.757, 39.2315, 43.7289, 81.8528, -114.502
6.35258, 54, -23.2011, -17.6581, 39.0088, 43.6091, 81.9011, -114.05
6.36056, 54, -22.6714, -17.5531, 38.7797, 43.4786, 81.9506, -113.598
6.3694, 55, -22.135, -17.4418, 38.5427, 43.3366, 82.0023, -113.146
6.3768, 55, -21.5953, -17.3245, 38.2988, 43.1826, 82.0571, -112.694
6.38538, 56, -21.0535, -17.2014, 38.0487, 43.0172, 82.1125, -112.243
6.39349, 56, -20.7811, -17.1377, 37.9207, 42.9301, 82.1411, -112.018
6.3998, 57, -20.2306, -17.0063, 37.6597, 42.7474, 82.2003, -111.567
6.40778, 57, -19.6705, -16.8693, 37.3926, 42.553, 82.2602, -111.116
6.41574, 58, -19.1022, -16.7262, 37.1182, 42.346, 82.3226, -110.666
6.42374, 58, -18.5298, -16.5771, 36.838, 42.1266, 82.3868, -110.216
6.43475, 59, -17.6667, -16.3436, 36.405, 41.7742, 82.4874, -109.543
6.44383, 60, -17.0839, -16.1823, 36.1088, 41.5234, 82.5569, -109.093
6.44775, 60, -16.7886, -16.0998, 35.9583, 41.3933, 82.5927, -108.869
6.45704, 60, -16.1907, -15.9306, 35.6535, 41.1235, 82.6657, -108.195
6.46374, 61, -15.5873, -15.7564, 35.3436, 40.8403, 82.7399, -107.971
6.47463, 62, -14.6762, -15.487, 34.8679, 40.392, 82.8554, -107.298
6.48164, 62, -14.0622, -15.3015, 34.5438, 40.0771, 82.9354, -106.85
6.4896, 63, -13.7513, -15.1099, 34.2152, 39.7485, 83.0178, -106.401
6.49577, 63, -13.1217, -15.0114, 34.0488, 39.5787, 83.0602, -106.176
6.50433, 63, -12.4841, -14.8102, 33.7117, 39.2275, 83.1475, -105.726
6.51422, 64, -11.842, -14.6043, 33.369, 38.8613, 83.2391, -105.05
6.52285, 65, -10.8688, -14.2833, 32.8431, 38.284, 83.3841, -104.597
6.52776, 65, -10.5393, -14.1725, 32.6646, 38.0841, 83.4348, -104.37
6.53852, 66, -9.53578, -13.8298, 32.1213, 37.4597, 83.5944, -103.685
6.54387, 66, -9.19714, -13.7123, 31.9377, 37.2435, 83.6505, -103.456
6.55176, 66, -8.51591, -13.4719, 31.5666, 36.7991, 83.7671, -102.997
6.55984, 67, -7.82836, -13.2242, 31.1884, 36.338, 83.8894, -102.536
6.57189, 68, -6.77875, -12.8395, 30.6104, 35.6159, 84.086, -101.839
6.57977, 68, -6.06854, -12.5752, 30.2202, 35.115, 84.2252, -101.371
6.58773, 69, -5.35263, -12.3045, 29.8263, 34.6007, 84.3708, -100.901
6.59173, 69, -4.9925, -12.1659, 29.6281, 34.3382, 84.4455, -100.666
6.59983, 69, -4.26674, -11.8824, 29.2295, 33.8042, 84.5993, -100.193
6.61146, 70, -3.16209, -11.4436, 28.6298, 32.9776, 84.8421, -99.4806
6.61574, 70, -2.78953, -11.293, 28.429, 32.6944, 84.9266, -99.242
6.62503, 71, -2.03812, -10.9858, 28.0247, 32.1162, 85.1016, -98.7635
6.63379, 72, -1.27789, -10.6712, 27.6163, 31.5211, 85.2863, -98.2815
6.64067, 72, -0.510461, -10.3509, 27.2042, 30.9082, 85.481, -97.7962
6.64883, 73, 0.262792, -10.0248, 26.7898, 30.2784, 85.6851, -97.3075
6.65586, 73, 1.04087, -9.6897, 26.3743, 29.6378, 85.897, -96.8167
6.66402, 73, 1.82286, -9.34712, 25.9594, 28.9878, 86.1161, -96.3247
6.67189, 74, 2.60701, -8.99949, 25.5473, 28.3313, 86.3419, -95.8312
6.6798, 74, 3.3928, -8.64852, 25.14, 27.6698, 86.5734, -95.3369
6.688, 75, 4.18041, -8.29139, 24.7393, 27.0053, 86.8096, -94.8424
6.69612, 75, 4.97085, -7.92856, 24.3445, 26.3408, 87.0504, -94.3478
6.70393, 76, 5.76317, -7.56023, 23.9561, 25.6758, 87.2963, -93.8518
6.72114, 77, 7.35024, -6.80368, 23.1974, 24.342, 87.807, -92.8535
6.72437, 77, 7.74814, -6.60904, 23.01, 24.0068, 87.9401, -92.6022
6.73734, 78, 8.9426, -6.01335, 22.4514, 22.9936, 88.3571, -91.8446
6.7386, 78, 8.9426, -6.01335, 22.4514, 22.9936, 88.3571, -91.8446
6.74471, 78, 9.73912, -5.60701, 22.0824, 22.3105, 88.6514, -91.334
6.75162, 79, 10.5353, -5.19092, 21.7152, 21.6229, 88.9587, -90.8192
6.76068, 79, 11.33, -4.765, 21.3504, 20.9341, 89.2788, -90.3
6.76771, 80, 12.121, -4.32981, 20.9895, 20.244, 89.6101, -89.7769
6.77663, 80, 12.9064, -3.88544, 20.6339, 19.5584, 89.9522, -89.2485
6.78395, 81, 13.686, -3.43268, 20.2846, 18.8821, 90.303, -88.716
6.79194, 81, 14.4593, -2.97243, 19.9428, 18.2187, 90.6607, -88.1796
6.79858, 82, 14.8429, -2.73934, 19.7755, 17.8922, 90.8415, -87.9108
6.80808, 82, 15.9799, -2.02845, 19.2895, 16.9363, 91.3916, -87.1006
6.81669, 83, 16.7247, -1.5456, 18.978, 16.3206, 91.7646, -86.5577
6.82421, 83, 17.4577, -1.05618, 18.6759, 15.7232, 92.1434, -86.0133
6.83305, 84, 18.1759, -0.56145, 18.3822, 15.1424, 92.5286, -85.4685
6.83858, 84, 18.5285, -0.312466, 18.2384, 14.8591, 92.7243, -85.1956
6.84904, 85, 19.2211, 0.18849, 17.9547, 14.0369, 93.3241, -84.3759
6.85629, 85, 19.8966, 0.949519, 17.5395, 13.5132, 93.7347, -83.8301
6.86518, 85, 20.555, 1.20576, 17.4039, 13.2592, 94.1512, -83.2859
6.87158, 86, 21.1969, 1.72154, 17.1369, 12.7676, 94.3613, -83.0142
6.87964, 86, 21.8242, 2.24384, 16.8769, 12.298, 94.7846, -82.4701
6.88663, 87, 22.4387, 2.77526, 16.6231, 11.8508, 95.2132, -81.9245
6.8956, 87, 23.0427, 3.31679, 16.3745, 11.424, 95.647, -81.3757
6.90256, 88, 23.6374, 3.86641, 16.1307, 11.0157, 96.0869, -80.8226
6.91158, 88, 24.2225, 4.42311, 15.8905, 10.6236, 96.5327, -80.2612
6.91855, 89, 24.7965, 4.98962, 15.6555, 10.2472, 96.9848, -79.6908
6.92764, 89, 25.3593, 5.56722, 15.4263, 9.88563, 97.4436, -79.1096
6.93574, 90, 25.9142, 6.15506, 15.2004, 9.53982, 97.9085, -78.5167
6.94359, 90, 26.4633, 6.75209, 14.9781, 9.2084, 98.3798, -77.9098
6.95166, 91, 27.0022, 7.35737, 14.761, 8.89344, 98.8576, -77.289
6.95958, 91, 27.5274, 7.972, 14.5487, 8.5963, 99.3418, -76.6558
6.96755, 92, 28.0401, 8.59703, 14.3406, 8.31874, 99.8315, -76.0106
6.9757, 92, 28.5446, 9.2328, 14.1369, 8.0628, 100.326, -75.3546
6.98354, 93, 29.0422, 9.87803, 13.9382, 7.82874, 100.823, -74.691
6.99258, 93, 29.5289, 10.5302, 13.7456, 7.61793, 101.322, -74.0205
6.99879, 94, 30.0026, 11.1877, 13.5609, 7.43056, 101.821, -73.3428
7.00758, 94, 30.4617, 11.8487, 13.3838, 7.26675, 102.318, -72.6594
7.01555, 95, 30.9068, 12.5123, 13.2134, 7.12671, 102.812, -71.9719
7.02371, 95, 31.3379, 13.1777, 13.0507, 7.01041, 103.303, -71.278
7.03157, 96, 31.7554, 13.8449, 12.8958, 6.91746, 103.79, -70.5786
7.03961, 96, 32.1579, 14.5131, 12.7477, 6.84861, 104.274, -69.8749
7.04763, 97, 32.5442, 15.182, 12.6058, 6.80341, 104.754, -69.165
7.05559, 97, 32.9145, 15.8503, 12.471, 6.77933, 105.228, -68.4492
7.06356, 98, 33.269, 16.5167, 12.3443, 6.77689, 105.696, -67.7305
7.07163, 98, 33.6084, 17.18, 12.2262, 6.79673, 106.157, -67.0087
7.07961, 99, 33.9336, 17.8384, 12.1171, 6.83638, 106.608, -66.2841
7.08758, 99, 34.2455, 18.4905, 12.0174, 6.89609, 107.048, -65.5614
7.0957, 100, 34.5459, 19.1344, 11.9269, 6.97415, 107.476, -64.8404
7.10365, 100, 34.8352, 19.7698, 11.8453, 7.06958, 107.891, -64.1217
7.11154, 101, 35.1127, 20.3951, 11.7725, 7.18169, 108.291, -63.4094
7.11958, 101, 35.3781, 21.0093, 11.7077, 7.30897, 108.676, -62.704
7.12765, 101, 35.6317, 21.6121, 11.6515, 7.45004, 109.045, -62.0056
7.13559, 102, 35.8722, 22.2022, 11.6037, 7.60287, 109.397, -61.3186
7.14357, 102, 36.0995, 22.7789, 11.5645, 7.76564, 109.731, -60.6435
7.15164, 103, 36.3172, 23.3404, 11.5339, 7.93672, 110.048, -59.9802
7.15963, 103, 36.5284, 23.8864, 11.5123, 8.11563, 110.347, -59.3298
7.16758, 104, 36.7329, 24.417, 11.4997, 8.30288, 110.627, -58.6935
7.17571, 104, 36.9305, 24.9318, 11.4947, 8.4989, 110.889, -58.0684
7.18362, 104, 37.1228, 25.4302, 11.4963, 8.70383, 111.131, -57.4549
7.19166, 104, 37.3083, 25.9131, 11.5042, 8.91662, 111.353, -56.8535
7.19977, 104, 37.4841, 26.3796, 11.5166, 9.1358, 111.557, -56.2649
7.20769, 104, 37.6495, 26.83, 11.5317, 9.35926, 111.745, -55.6905
7.21614, 104, 37.8077, 27.2653, 11.5496, 9.58414, 111.919, -55.1333
7.2232, 104, 37.962, 27.6846, 11.5696, 9.8077, 112.081, -54.5965
7.23201, 104, 38.1125, 28.0881, 11.5902, 10.0278, 112.233, -54.0824
7.23959, 104, 38.2577, 28.4746, 11.6106, 10.243, 112.377, -53.5908
7.24767, 104, 38.3966, 28.8448, 11.6301, 10.4522, 112.513, -53.1237
7.25562, 104, 38.5286, 29.1969, 11.6484, 10.6541, 112.641, -52.6804
7.26381, 104, 38.6524, 29.5311, 11.6657, 10.848, 112.761, -52.2623
7.27178, 104, 38.7678, 29.8459, 11.6817, 11.0332, 112.874, -51.8694
7.27984, 104, 38.8748, 30.142, 11.6966, 11.2091, 112.978, -51.5011
7.28788, 104, 38.9739, 30.4194, 11.7107, 11.3752, 113.076, -51.1583
7.296, 104, 39.0655, 30.677, 11.7235, 11.5309, 113.166, -50.8411
7.30397, 104, 39.1493, 30.9152, 11.735, 11.676, 113.248, -50.5488
7.31063, 104, 39.1882, 31.027, 11.7404, 11.7443, 113.286, -50.4121
7.3202, 104, 39.2929, 31.3321, 11.7553, 11.932, 113.391, -50.0401
7.3282, 104, 39.3529, 31.5111, 11.7641, 12.0424, 113.451, -49.8239
7.33614, 104, 39.4055, 31.6707, 11.7718, 12.1407, 113.505, -49.6324
7.34442, 104, 39.4516, 31.8109, 11.7788, 12.2269, 113.551, -49.4659
7.35221, 104, 39.492, 31.9331, 11.7851, 12.3007, 113.59, -49.324
7.36035, 104, 39.5101, 31.9877, 11.7881, 12.3333, 113.608, -49.2054
7.36852, 104, 39.5551, 32.1266, 11.7958, 12.4139, 113.65, -49.1093
7.37563, 104, 39.5673, 32.1651, 11.7981, 12.4348, 113.661, -49.0687
7.3836, 104, 39.5881, 32.2316, 11.8024, 12.4695, 113.679, -49.0025
7.39253, 104, 39.6043, 32.2856, 11.8063, 12.4956, 113.697, -48.9348
7.39958, 104, 39.6168, 32.3284, 11.8099, 12.5146, 113.701, -48.9191
7.40757, 104, 39.6264, 32.3611, 11.813, 12.5276, 113.707, -48.8959
7.41563, 104, 39.6336, 32.3855, 11.8159, 12.5362, 113.71, -48.8814
7.42357, 104, 39.6384, 32.4038, 11.8183, 12.5412, 113.712, -48.8731
7.43157, 104, 39.6413, 32.4167, 11.8203, 12.5441, 113.713, -48.8691
7.43962, 104, 39.6428, 32.425, 11.8217, 12.5454, 113.714, -48.8672
7.44756, 105, 39.6433, 32.4302, 11.8228, 12.5461, 113.714, -48.8665
7.45557, 105, 39.6427, 32.4337, 11.8238, 12.5464, 113.714, -48.8663
7.46364, 105, 39.6417, 32.436, 11.8246, 12.5466, 113.714, -48.8663
7.47156, 105, 39.6407, 32.4378, 11.8253, 12.5467, 113.714, -48.8665
7.47956, 105, 39.6397, 32.4392, 11.8259, 12.5467, 113.714, -48.8668
7.48858, 105, 39.6385, 32.4404, 11.8264, 12.5467, 113.714, -48.8671
7.49562, 105, 39.6376, 32.4416, 11.827, 12.5467, 113.714, -48.8675
7.50562, 105, 39.637, 32.4427, 11.8279, 12.5467, 113.714, -48.868
7.51163, 105, 39.6367, 32.4437, 11.8282, 12.5468, 113.714, -48.8681
7.51957, 105, 39.6364, 32.4447, 11.8287, 12.5468, 113.714, -48.8684
7.52757, 105, 39.6362, 32.4456, 11.8292, 12.5467, 113.714, -48.8686
7.53567, 105, 39.6359, 32.4463, 11.8295, 12.5467, 113.714, -48.8688
7.54358, 105, 39.6356, 32.4468, 11.8299, 12.5467, 113.714, -48.8691
7.55156, 105, 39.6354, 32.4471, 11.8301, 12.5467, 113.714, -48.8693
7.55963, 105, 39.6351, 32.4472, 11.8304, 12.5467, 113.714, -48.8695
