hehonglu123/Motion-Primitive-Planning/ILC/recorded_data/realrobot/from_NX/iteration_10/run_4.csv
timestamp, cmd_num, J1, J2, J3, J4, J5, J6
0.000377, -1, 39.6301, 32.4471, 11.8319, 12.5454, 113.713, -48.8724
0.005164, -1, 39.6301, 32.4471, 11.8319, 12.5454, 113.713, -48.8723
0.007877, -1, 39.6301, 32.4471, 11.8319, 12.5454, 113.713, -48.8723
0.029987, -1, 39.63, 32.4471, 11.8319, 12.5453, 113.713, -48.8724
0.0314, -1, 39.63, 32.4471, 11.8319, 12.5453, 113.713, -48.8724
0.034534, -1, 39.63, 32.4471, 11.8319, 12.5453, 113.713, -48.8724
0.039763, -1, 39.63, 32.4471, 11.8319, 12.5453, 113.713, -48.8724
0.048735, -1, 39.63, 32.447, 11.8319, 12.5453, 113.713, -48.8724
0.055761, -1, 39.6295, 32.447, 11.8319, 12.5453, 113.713, -48.8724
0.063778, -1, 39.6272, 32.4466, 11.8318, 12.5453, 113.713, -48.8724
0.072693, -1, 39.6219, 32.4452, 11.8318, 12.5453, 113.713, -48.8726
0.079715, -1, 39.6131, 32.4422, 11.8317, 12.5453, 113.712, -48.8738
0.087706, -1, 39.5999, 32.4369, 11.8317, 12.5453, 113.71, -48.8786
0.095692, -1, 39.5802, 32.4283, 11.8318, 12.5453, 113.707, -48.8898
0.103698, -1, 39.5517, 32.4157, 11.8322, 12.5453, 113.7, -48.9103
0.111777, -1, 39.5133, 32.3981, 11.8343, 12.5453, 113.688, -48.9438
0.119691, -1, 39.4639, 32.3744, 11.8392, 12.5453, 113.669, -48.9943
0.127742, -1, 39.4018, 32.344, 11.8475, 12.5454, 113.641, -49.0659
0.135757, -1, 39.3264, 32.3061, 11.8603, 12.5454, 113.604, -49.1603
0.143742, -1, 39.2374, 32.2605, 11.878, 12.5457, 113.557, -49.2803
0.151698, -1, 39.1343, 32.207, 11.9005, 12.5463, 113.5, -49.4256
0.15975, -1, 39.0172, 32.1456, 11.9272, 12.5472, 113.433, -49.5955
0.167708, -1, 38.8866, 32.0767, 11.9579, 12.5488, 113.357, -49.7878
0.1757, -1, 38.7437, 32.0014, 11.9918, 12.5506, 113.274, -49.9996
0.183757, -1, 38.5893, 31.9201, 12.0281, 12.5527, 113.183, -50.2272
0.191689, -1, 38.425, 31.8339, 12.0659, 12.555, 113.088, -50.4671
0.19982, -1, 38.2528, 31.7437, 12.1047, 12.5574, 112.991, -50.7152
0.207709, -1, 38.0744, 31.6506, 12.1437, 12.5598, 112.89, -50.9686
0.215693, -1, 37.8908, 31.5552, 12.1826, 12.5623, 112.789, -51.2252
0.224911, -1, 37.7032, 31.4584, 12.2214, 12.5647, 112.687, -51.4836
0.231714, -1, 37.513, 31.3607, 12.2602, 12.5671, 112.584, -51.743
0.23983, -1, 37.3214, 31.2627, 12.2989, 12.5696, 112.482, -52.0025
0.247818, -1, 37.1293, 31.1648, 12.3378, 12.572, 112.379, -52.2622
0.255788, -1, 36.9371, 31.0671, 12.3765, 12.5747, 112.276, -52.5222
0.263856, -1, 36.7451, 30.9694, 12.4153, 12.5772, 112.173, -52.7825
0.271788, -1, 36.5535, 30.8717, 12.4542, 12.5798, 112.07, -53.0429
0.279816, -1, 36.3619, 30.774, 12.493, 12.5824, 111.967, -53.3032
0.287874, -1, 36.1704, 30.6762, 12.5319, 12.585, 111.864, -53.5636
0.295768, -1, 35.9788, 30.5782, 12.5708, 12.5876, 111.762, -53.8242
0.303732, -1, 35.7873, 30.4802, 12.6097, 12.5902, 111.659, -54.0848
0.311874, -1, 35.5955, 30.3822, 12.6486, 12.5927, 111.556, -54.3451
0.318674, -1, 35.4995, 30.3331, 12.668, 12.594, 111.504, -54.4753
0.327907, -1, 35.2111, 30.1857, 12.7262, 12.598, 111.349, -54.866
0.336005, -1, 35.0187, 30.0874, 12.7652, 12.6005, 111.246, -55.1268
0.342707, -1, 34.9225, 30.0381, 12.7846, 12.6018, 111.195, -55.2572
0.352137, -1, 34.6341, 29.8904, 12.8429, 12.6057, 111.04, -55.6481
0.485962, -1, 31.4519, 28.2644, 13.485, 12.6496, 109.34, -59.9557
0.48715, -1, 31.4519, 28.2644, 13.485, 12.6496, 109.34, -59.9557
0.48913, -1, 31.3554, 28.2151, 13.5045, 12.651, 109.288, -60.0864
0.491406, -1, 31.3554, 28.2151, 13.5045, 12.651, 109.288, -60.0864
0.494025, -1, 31.259, 28.1659, 13.5239, 12.6523, 109.237, -60.2171
0.495278, -1, 31.259, 28.1659, 13.5239, 12.6523, 109.237, -60.2171
0.497165, -1, 31.1626, 28.1167, 13.5435, 12.6538, 109.185, -60.3478
0.499838, -1, 31.1626, 28.1167, 13.5435, 12.6538, 109.185, -60.3478
0.501899, -1, 31.0664, 28.0675, 13.5631, 12.6552, 109.134, -60.4786
0.503181, -1, 31.0664, 28.0675, 13.5631, 12.6552, 109.134, -60.4786
0.504954, -1, 31.0664, 28.0675, 13.5631, 12.6552, 109.134, -60.4786
0.506477, -1, 30.9702, 28.0182, 13.5826, 12.6566, 109.082, -60.6094
0.50768, -1, 30.9702, 28.0182, 13.5826, 12.6566, 109.082, -60.6094
0.509775, -1, 30.8741, 27.9689, 13.6021, 12.658, 109.03, -60.74
0.511015, -1, 30.8741, 27.9689, 13.6021, 12.658, 109.03, -60.74
0.512991, -1, 30.8741, 27.9689, 13.6021, 12.658, 109.03, -60.74
0.515312, -1, 30.778, 27.9196, 13.6215, 12.6595, 108.979, -60.8705
0.518028, -1, 30.778, 27.9196, 13.6215, 12.6595, 108.979, -61.0011
0.519301, -1, 30.6821, 27.8704, 13.641, 12.6608, 108.927, -61.0011
0.521249, -1, 30.6821, 27.8211, 13.6605, 12.6623, 108.876, -61.1317
0.522688, -1, 30.5861, 27.8211, 13.6605, 12.6623, 108.876, -61.1317
0.527689, -1, 30.4902, 27.7718, 13.6801, 12.6637, 108.824, -61.2625
0.535747, -1, 30.2981, 27.6731, 13.719, 12.6664, 108.721, -61.524
0.545688, -1, 30.0097, 27.5249, 13.7775, 12.6705, 108.566, -61.9166
0.551675, -1, 29.9133, 27.4756, 13.797, 12.6719, 108.514, -62.0474
0.559755, -1, 29.7203, 27.3768, 13.8359, 12.6746, 108.411, -62.309
0.567682, -1, 29.5267, 27.278, 13.8748, 12.6772, 108.308, -62.5707
0.576663, -1, 29.3327, 27.1792, 13.9138, 12.6798, 108.205, -62.8325
0.583763, -1, 29.1386, 27.0803, 13.9527, 12.6824, 108.101, -63.0941
0.591768, -1, 28.9441, 26.9814, 13.9917, 12.6848, 107.998, -63.3556
0.599746, -1, 28.7499, 26.8825, 14.0306, 12.6874, 107.894, -63.6171
0.607676, -1, 28.5558, 26.7837, 14.0696, 12.6899, 107.791, -63.8788
0.615708, -1, 28.3618, 26.6849, 14.1087, 12.6924, 107.688, -64.1407
0.623752, -1, 28.1685, 26.5862, 14.1477, 12.6948, 107.584, -64.4021
0.631694, -1, 27.9754, 26.4874, 14.1866, 12.6972, 107.481, -64.6639
0.639684, -1, 27.7827, 26.3886, 14.2257, 12.6997, 107.378, -64.9257
0.777485, -1, 24.4978, 24.7081, 14.888, 12.7392, 105.623, -69.3748
0.780327, -1, 24.4016, 24.6586, 14.9075, 12.7404, 105.571, -69.5058
0.781707, -1, 24.4016, 24.6586, 14.9075, 12.7404, 105.571, -69.5058
0.783705, -1, 24.3054, 24.6092, 14.927, 12.7416, 105.519, -69.6365
0.784983, -1, 24.3054, 24.6092, 14.927, 12.7416, 105.519, -69.6365
0.78617, -1, 24.3054, 24.6092, 14.927, 12.7416, 105.519, -69.6365
0.788178, -1, 24.2092, 24.5597, 14.9465, 12.7428, 105.468, -69.7672
0.791318, -1, 24.2092, 24.5597, 14.9465, 12.7428, 105.416, -69.898
0.792777, -1, 24.1129, 24.5103, 14.966, 12.7439, 105.416, -69.898
0.794024, -1, 24.1129, 24.5103, 14.966, 12.7439, 105.416, -69.898
0.796771, -1, 24.0166, 24.4609, 14.9855, 12.745, 105.364, -70.0287
0.798074, -1, 24.0166, 24.4609, 14.9855, 12.745, 105.364, -70.0287
0.800165, -1, 23.9202, 24.4115, 15.005, 12.7462, 105.313, -70.1595
0.801484, -1, 23.9202, 24.4115, 15.005, 12.7462, 105.313, -70.1595
0.80269, -1, 23.9202, 24.4115, 15.005, 12.7462, 105.313, -70.1595
0.808198, -1, 23.7273, 24.3127, 15.0439, 12.7488, 105.209, -70.4212
0.80942, -1, 23.7273, 24.3127, 15.0439, 12.7488, 105.209, -70.4212
0.810678, -1, 23.7273, 24.3127, 15.0439, 12.7488, 105.209, -70.4212
0.812663, -1, 23.6308, 24.2632, 15.0633, 12.7499, 105.157, -70.5522
0.81395, -1, 23.6308, 24.2632, 15.0633, 12.7499, 105.157, -70.5522
0.815835, -1, 23.5342, 24.2138, 15.0828, 12.7511, 105.106, -70.6832
0.817247, -1, 23.5342, 24.2138, 15.0828, 12.7511, 105.106, -70.6832
0.825755, -1, 23.3407, 24.1149, 15.1218, 12.7535, 105.002, -70.9447
0.831921, -1, 23.1469, 24.0161, 15.1606, 12.756, 104.899, -71.2065
0.83995, -1, 22.9529, 23.9172, 15.1996, 12.7584, 104.796, -71.4684
0.846678, -1, 22.8559, 23.8678, 15.2191, 12.7596, 104.744, -71.5994
0.856042, -1, 22.565, 23.7196, 15.2775, 12.7633, 104.589, -71.992
0.862713, -1, 22.4682, 23.6703, 15.297, 12.7645, 104.537, -72.1227
0.872288, -1, 22.1782, 23.5223, 15.3554, 12.7683, 104.382, -72.5147
0.880222, -1, 21.985, 23.4236, 15.3944, 12.7709, 104.279, -72.7764
0.888192, -1, 21.7922, 23.3249, 15.4334, 12.7735, 104.176, -73.0379
0.896438, -1, 21.6, 23.2261, 15.4723, 12.7763, 104.072, -73.2991
0.904268, -1, 21.5039, 23.1273, 15.5112, 12.7789, 103.969, -73.5607
0.912208, -1, 21.3116, 23.0779, 15.5308, 12.7802, 103.918, -73.8222
0.920458, -1, 21.1193, 22.9793, 15.5697, 12.7829, 103.763, -74.0838
0.927661, -1, 20.9268, 22.8806, 15.6086, 12.7856, 103.712, -74.2144
0.935661, -1, 20.7344, 22.782, 15.6476, 12.7883, 103.608, -74.4754
0.943736, -1, 20.5417, 22.6834, 15.6865, 12.791, 103.505, -74.7367
0.951688, -1, 20.3485, 22.5848, 15.7253, 12.7937, 103.402, -74.9981
0.958744, -1, 20.1549, 22.4861, 15.7643, 12.7964, 103.299, -75.2593
0.967714, -1, 19.9611, 22.3874, 15.8032, 12.7992, 103.196, -75.5204
0.975667, -1, 19.7675, 22.2887, 15.8419, 12.8019, 103.093, -75.7816
0.98267, -1, 19.5739, 22.1901, 15.8808, 12.8046, 102.99, -76.0428
0.991665, -1, 19.3804, 22.0914, 15.9197, 12.8074, 102.887, -76.3042
0.999662, -1, 19.1875, 21.9928, 15.9585, 12.8101, 102.784, -76.565
1.00665, -1, 18.9947, 21.8941, 15.9975, 12.8129, 102.681, -76.8258
1.01565, -1, 18.8022, 21.7954, 16.0363, 12.8156, 102.578, -77.0867
1.02369, -1, 18.6102, 21.6966, 16.075, 12.8182, 102.475, -77.3478
1.03064, -1, 18.4184, 21.598, 16.1139, 12.821, 102.372, -77.6085
1.03967, -1, 18.2265, 21.4995, 16.1527, 12.8236, 102.269, -77.8692
1.04866, -1, 18.0346, 21.4011, 16.1915, 12.8261, 102.167, -78.1299
1.05464, -1, 17.8427, 21.3027, 16.2305, 12.8287, 102.064, -78.3908
1.06367, -1, 17.6507, 21.2044, 16.2693, 12.8312, 101.961, -78.6513
1.07167, -1, 17.4583, 21.1061, 16.3082, 12.8337, 101.858, -78.9117
1.07973, -1, 17.2655, 21.0078, 16.347, 12.8362, 101.755, -79.1722
1.08767, -1, 17.0724, 20.9095, 16.3858, 12.8386, 101.652, -79.4329
1.09567, -1, 16.8793, 20.8112, 16.4246, 12.841, 101.549, -79.6935
1.10368, -1, 16.6862, 20.7131, 16.4634, 12.8433, 101.446, -79.9538
1.11166, -1, 16.4932, 20.6148, 16.5021, 12.8456, 101.344, -80.2144
1.11976, -1, 16.3003, 20.5165, 16.5408, 12.8479, 101.241, -80.4751
1.12766, -1, 16.1081, 20.4181, 16.5795, 12.8503, 101.138, -80.7357
1.13574, -1, 15.9162, 20.3197, 16.6182, 12.8526, 101.036, -80.9958
1.14374, -1, 15.7245, 20.2212, 16.657, 12.8549, 100.933, -81.2557
1.1517, -1, 15.5331, 20.1228, 16.6956, 12.8573, 100.83, -81.5159
1.15976, -1, 15.342, 20.0245, 16.7342, 12.8595, 100.728, -81.7762
1.16774, -1, 15.1509, 19.9263, 16.773, 12.8618, 100.625, -82.036
1.17566, -1, 14.9597, 19.8281, 16.8117, 12.8641, 100.523, -82.2958
1.18367, -1, 14.7684, 19.73, 16.8504, 12.8664, 100.42, -82.5556
1.19174, -1, 14.577, 19.6319, 16.8891, 12.8687, 100.317, -82.8156
1.19968, -1, 14.3851, 19.5337, 16.9278, 12.871, 100.215, -83.0754
1.20766, -1, 14.1928, 19.4357, 16.9665, 12.8733, 100.112, -83.3349
1.21593, -1, 14.0004, 19.3377, 17.0052, 12.8755, 100.01, -83.5945
1.22366, -1, 13.808, 19.2398, 17.0438, 12.8778, 99.9074, -83.8541
1.23173, -1, 13.6155, 19.142, 17.0824, 12.8801, 99.8049, -84.1136
1.24055, -1, 13.4231, 19.0441, 17.1211, 12.8824, 99.7023, -84.3728
1.24774, -1, 13.2312, 18.9462, 17.1596, 12.8847, 99.6002, -84.6321
1.25583, -1, 13.0396, 18.8483, 17.1982, 12.8871, 99.4977, -84.8916
1.26453, -1, 12.8483, 18.7503, 17.2368, 12.8894, 99.3952, -85.151
1.27176, -1, 12.6574, 18.6523, 17.2753, 12.8918, 99.2931, -85.4099
1.27988, -1, 12.4667, 18.5545, 17.3139, 12.8942, 99.1908, -85.6687
1.28897, -1, 12.2766, 18.4568, 17.3525, 12.8966, 99.0884, -85.9277
1.29566, -1, 12.0865, 18.3591, 17.3909, 12.8991, 98.9865, -86.1867
1.3045, -1, 11.8961, 18.2615, 17.4296, 12.9014, 98.8843, -86.4454
1.31178, -1, 11.7056, 18.1638, 17.4682, 12.9039, 98.7825, -86.704
1.31989, -1, 11.5148, 18.0662, 17.5066, 12.9063, 98.6807, -86.9626
1.32859, -1, 11.3238, 17.9686, 17.5452, 12.9087, 98.5786, -87.2214
1.33583, -1, 11.1324, 17.871, 17.5838, 12.9112, 98.4767, -87.4798
1.34397, -1, 10.9409, 17.7736, 17.6222, 12.9137, 98.3749, -87.7381
1.35277, -1, 10.7492, 17.6761, 17.6607, 12.9161, 98.2728, -87.9963
1.36047, -1, 10.5576, 17.5786, 17.6991, 12.9187, 98.1711, -88.2547
1.36819, -1, 10.3663, 17.4811, 17.7375, 12.9212, 98.0693, -88.513
1.37697, -1, 10.1753, 17.3835, 17.776, 12.9237, 97.9673, -88.771
1.3842, -1, 9.98463, 17.2859, 17.8143, 12.9264, 97.8656, -89.029
1.39222, -1, 9.79443, 17.1884, 17.8526, 12.929, 97.7635, -89.2871
1.40106, -1, 9.60449, 17.0909, 17.891, 12.9317, 97.6616, -89.5453
1.40836, -1, 9.50976, 17.0422, 17.9293, 12.9345, 97.5598, -89.8029
1.41621, -1, 9.32049, 16.9449, 17.9485, 12.9372, 97.4578, -90.0606
1.42512, -1, 9.13116, 16.8475, 17.9869, 12.9385, 97.4069, -90.1892
1.43072, -1, 8.94179, 16.7504, 18.0252, 12.9412, 97.3051, -90.4468
1.44068, -1, 8.65748, 16.6046, 18.0828, 12.9451, 97.1525, -90.8331
1.44764, -1, 8.56266, 16.5561, 18.102, 12.9464, 97.1017, -90.9616
1.45471, -1, 8.37292, 16.459, 18.1403, 12.9492, 97.0004, -91.2188
1.4637, -1, 8.18263, 16.362, 18.1786, 12.9518, 96.8988, -91.476
1.4717, -1, 7.99218, 16.2652, 18.217, 12.9544, 96.7971, -91.7333
1.47865, -1, 7.80161, 16.1682, 18.2553, 12.9572, 96.6958, -91.9903
1.48768, -1, 7.61096, 16.0714, 18.2935, 12.9597, 96.5942, -92.2469
1.49563, -1, 7.42053, 15.9744, 18.3319, 12.9623, 96.4928, -92.5036
1.50375, -1, 7.23036, 15.8775, 18.37, 12.9648, 96.3917, -92.7605
1.51163, -1, 7.04051, 15.7805, 18.4082, 12.9674, 96.2902, -93.0172
1.51971, -1, 6.85108, 15.6835, 18.4465, 12.97, 96.1889, -93.2736
1.52663, -1, 6.66214, 15.5867, 18.4846, 12.9724, 96.0883, -93.5299
1.53563, -1, 6.4737, 15.4899, 18.5227, 12.975, 95.9872, -93.7863
1.54363, -1, 6.28552, 15.3932, 18.5609, 12.9774, 95.8861, -94.0427
1.55263, -1, 6.09741, 15.2965, 18.599, 12.98, 95.7854, -94.2986
1.55971, -1, 5.90913, 15.1998, 18.6372, 12.9823, 95.6842, -94.5546
1.56863, -1, 5.72074, 15.1031, 18.6754, 12.9846, 95.5833, -94.8106
1.57465, -1, 5.53231, 15.0065, 18.7134, 12.987, 95.4828, -95.0666
1.58366, -1, 5.34352, 14.9099, 18.7515, 12.9893, 95.3819, -95.3221
1.59166, -1, 5.15438, 14.8135, 18.7897, 12.9915, 95.2812, -95.5774
1.59973, -1, 4.96501, 14.7172, 18.8277, 12.9938, 95.1806, -95.833
1.60763, -1, 4.77566, 14.6208, 18.8658, 12.996, 95.0797, -96.0885
1.6157, -1, 4.58623, 14.5244, 18.9039, 12.9982, 94.979, -96.3438
1.62366, -1, 4.39705, 14.4281, 18.9419, 13.0004, 94.8783, -96.5988
1.63163, -1, 4.20804, 14.3317, 18.9799, 13.0026, 94.7774, -96.8537
1.63978, -1, 4.01929, 14.2353, 19.0178, 13.0049, 94.6766, -97.1088
1.64763, -1, 3.83128, 14.1391, 19.0557, 13.0072, 94.5758, -97.3638
1.6557, -1, 3.64376, 14.0429, 19.0937, 13.0094, 94.475, -97.6184
1.66373, -1, 3.45655, 13.9467, 19.1317, 13.0118, 94.3745, -97.8731
1.67163, -1, 3.26959, 13.8507, 19.1694, 13.0141, 94.2738, -98.1279
1.67971, -1, 3.08265, 13.7547, 19.2073, 13.0163, 94.1731, -98.3827
1.68772, -1, 2.89569, 13.6587, 19.2453, 13.0185, 94.0725, -98.637
1.69563, -1, 2.70865, 13.5626, 19.2831, 13.0208, 93.9718, -98.8912
1.70363, -1, 2.52132, 13.4666, 19.321, 13.0231, 93.8714, -99.1453
1.71172, -1, 2.33386, 13.3707, 19.3588, 13.0254, 93.7711, -99.3995
1.71971, -1, 2.14602, 13.275, 19.3966, 13.0276, 93.6707, -99.6535
1.72763, -1, 1.95789, 13.1791, 19.4345, 13.0298, 93.5705, -99.9071
1.73584, -1, 1.76976, 13.0832, 19.4723, 13.0321, 93.4707, -100.161
1.74368, -1, 1.58151, 12.9874, 19.5099, 13.0343, 93.3705, -100.414
1.75173, -1, 1.39338, 12.8916, 19.5478, 13.0366, 93.2705, -100.668
1.76008, -1, 1.20554, 12.7957, 19.5855, 13.039, 93.1706, -100.921
1.76723, -1, 1.0181, 12.7, 19.6232, 13.0413, 93.0705, -101.174
1.77576, -1, 0.83141, 12.6045, 19.661, 13.0437, 92.9705, -101.427
1.78422, -1, 0.645151, 12.5089, 19.6986, 13.0461, 92.871, -101.68
1.79125, -1, 0.552099, 12.4611, 19.7173, 13.0473, 92.771, -101.933
1.79975, -1, 0.273555, 12.3181, 19.7739, 13.0509, 92.6713, -102.186
1.80843, -1, 0.0880874, 12.2227, 19.8114, 13.0534, 92.5721, -102.438
1.81569, -1, -0.0973475, 12.1273, 19.849, 13.0559, 92.4724, -102.691
1.82379, -1, -0.283006, 12.0321, 19.8867, 13.0583, 92.3728, -102.944
1.83258, -1, -0.468917, 11.9369, 19.9242, 13.0608, 92.2735, -103.196
1.83998, -1, -0.655198, 11.8418, 19.9617, 13.0633, 92.174, -103.448
1.84663, -1, -0.748369, 11.7943, 19.9805, 13.0645, 92.1242, -103.574
1.85679, -1, -1.02818, 11.6517, 20.0367, 13.0683, 91.9753, -103.952
1.86405, -1, -1.21496, 11.5566, 20.0742, 13.0708, 91.8759, -104.204
1.87063, -1, -1.30849, 11.5091, 20.093, 13.072, 91.8262, -104.329
1.88104, -1, -1.58874, 11.3664, 20.1492, 13.0758, 91.6776, -104.707
1.88821, -1, -1.77515, 11.2713, 20.1865, 13.0784, 91.5783, -104.958
1.89624, -1, -1.96118, 11.1763, 20.2241, 13.081, 91.4792, -105.21
1.90508, -1, -2.14654, 11.0814, 20.2614, 13.0837, 91.38, -105.461
1.91225, -1, -2.23902, 11.0339, 20.2801, 13.0863, 91.2808, -105.711
1.92023, -1, -2.42389, 10.9391, 20.3175, 13.0877, 91.1817, -105.962
1.92764, -1, -2.60831, 10.8443, 20.3548, 13.0903, 91.1323, -106.088
1.93469, -1, -2.79216, 10.7495, 20.3921, 13.093, 91.0331, -106.339
1.94473, -1, -3.06812, 10.6074, 20.4482, 13.0969, 90.8846, -106.715
1.95163, -1, -3.16017, 10.5601, 20.4668, 13.0982, 90.8353, -106.84
1.95865, -1, -3.34449, 10.4655, 20.504, 13.1008, 90.7363, -107.091
1.96762, -1, -3.52916, 10.371, 20.5413, 13.1033, 90.6373, -107.341
1.97562, -1, -3.71395, 10.2767, 20.5785, 13.1059, 90.5387, -107.592
1.98263, -1, -3.89901, 10.1823, 20.6158, 13.1084, 90.4397, -107.842
1.99168, -1, -4.08433, 10.088, 20.653, 13.1108, 90.341, -108.092
1.99967, -1, -4.26987, 9.9937, 20.6901, 13.1132, 90.2426, -108.342
2.00662, -1, -4.45547, 9.89938, 20.7273, 13.1155, 90.1439, -108.591
2.01582, -1, -4.64078, 9.80504, 20.7646, 13.1179, 90.0454, -108.841
2.02361, -1, -4.82564, 9.71084, 20.8018, 13.1202, 89.9471, -109.09
2.03069, -1, -5.01018, 9.61676, 20.8388, 13.1227, 89.8484, -109.34
2.04044, -1, -5.19398, 9.52267, 20.876, 13.125, 89.75, -109.589
2.0476, -1, -5.37729, 9.42863, 20.9131, 13.1273, 89.6517, -109.838
2.05662, -1, -5.56022, 9.33473, 20.9501, 13.1296, 89.5532, -110.087
2.06446, -1, -5.74278, 9.24078, 20.9873, 13.1319, 89.4551, -110.335
2.07062, -1, -5.92512, 9.14689, 21.0243, 13.1342, 89.3571, -110.584
2.07962, -1, -6.10749, 9.05304, 21.0612, 13.1364, 89.2589, -110.833
2.08857, -1, -6.29023, 8.95926, 21.0984, 13.1387, 89.1608, -111.081
2.09564, -1, -6.47315, 8.86563, 21.1353, 13.1409, 89.0631, -111.33
2.10365, -1, -6.65632, 8.77197, 21.1721, 13.143, 88.965, -111.578
2.11242, -1, -6.83987, 8.67836, 21.2091, 13.1451, 88.8671, -111.826
2.11961, -1, -7.02373, 8.58478, 21.246, 13.1473, 88.7693, -112.074
2.12764, -1, -7.20797, 8.49122, 21.2829, 13.1494, 88.6714, -112.321
2.13641, -1, -7.39215, 8.39759, 21.3199, 13.1515, 88.5736, -112.569
2.14363, -1, -7.57598, 8.30394, 21.3567, 13.1537, 88.4762, -112.817
2.15162, -1, -7.75952, 8.21052, 21.3934, 13.1559, 88.3785, -113.064
2.16046, -1, -7.94263, 8.1171, 21.4303, 13.1581, 88.2811, -113.311
2.16762, -1, -8.12516, 8.02374, 21.4671, 13.1604, 88.1839, -113.558
2.17562, -1, -8.30697, 7.93047, 21.5038, 13.1626, 88.0864, -113.806
2.18442, -1, -8.48838, 7.83719, 21.5407, 13.1648, 87.989, -114.053
2.19161, -1, -8.66926, 7.744, 21.5775, 13.1671, 87.8917, -114.299
2.19961, -1, -8.84999, 7.65081, 21.6142, 13.1695, 87.7942, -114.545
2.20848, -1, -9.03082, 7.55769, 21.651, 13.1716, 87.6968, -114.792
2.21562, -1, -9.21189, 7.46469, 21.6877, 13.1739, 87.5997, -115.038
2.22363, -1, -9.39313, 7.3719, 21.7243, 13.1761, 87.5025, -115.285
2.23244, -1, -9.57481, 7.27906, 21.7611, 13.1783, 87.4054, -115.531
2.23965, -1, -9.75681, 7.18624, 21.7977, 13.1806, 87.3083, -115.777
2.24767, -1, -9.93917, 7.09355, 21.8342, 13.1827, 87.211, -116.023
2.2565, -1, -10.1217, 7.0008, 21.8708, 13.185, 87.1139, -116.269
2.26379, -1, -10.3044, 6.90798, 21.9074, 13.1872, 87.0168, -116.515
2.27174, -1, -10.487, 6.81523, 21.944, 13.1894, 86.9196, -116.76
2.28059, -1, -10.6692, 6.72254, 21.9806, 13.1917, 86.8225, -117.006
2.28773, -1, -10.851, 6.62992, 22.017, 13.1941, 86.7257, -117.251
2.29571, -1, -11.0322, 6.53733, 22.0534, 13.1965, 86.6287, -117.496
2.30459, -1, -11.2126, 6.44481, 22.09, 13.1988, 86.5321, -117.741
2.31165, -1, -11.3925, 6.35232, 22.1265, 13.2013, 86.4355, -117.986
2.31971, -1, -11.5721, 6.2599, 22.1629, 13.2037, 86.3388, -118.231
2.32875, -1, -11.7514, 6.16747, 22.1994, 13.2061, 86.2421, -118.476
2.33576, -1, -11.9307, 6.07514, 22.2359, 13.2086, 86.1456, -118.72
2.34397, -1, -12.11, 5.98288, 22.2722, 13.2111, 86.049, -118.964
2.35191, -1, -12.2894, 5.89081, 22.3087, 13.2136, 85.9525, -119.208
2.36004, -1, -12.4694, 5.79879, 22.3451, 13.2161, 85.8563, -119.453
2.36661, -1, -12.5595, 5.75278, 22.3631, 13.2173, 85.8081, -119.575
2.37621, -1, -12.8303, 5.61482, 22.4176, 13.221, 85.6637, -119.941
2.38418, -1, -13.0114, 5.52293, 22.454, 13.2235, 85.568, -120.184
2.39225, -1, -13.1926, 5.43088, 22.4901, 13.2259, 85.4719, -120.428
2.40276, -1, -13.3738, 5.33888, 22.5264, 13.2283, 85.376, -120.672
2.40815, -1, -13.4643, 5.29291, 22.5446, 13.2308, 85.2804, -120.915
2.41625, -1, -13.6448, 5.20098, 22.5988, 13.2334, 85.1845, -121.158
2.4252, -1, -13.8251, 5.10912, 22.6349, 13.2359, 85.0886, -121.401
2.43061, -1, -14.0047, 5.01728, 22.6531, 13.2373, 85.0409, -121.522
2.44064, -1, -14.2724, 4.87973, 22.7073, 13.2411, 84.8974, -121.887
2.44766, -1, -14.3615, 4.83389, 22.7253, 13.2424, 84.8497, -122.008
2.4556, -1, -14.5394, 4.74225, 22.7616, 13.2449, 84.7542, -122.25
2.46368, -1, -14.7171, 4.65065, 22.7978, 13.2475, 84.6585, -122.493
2.47165, -1, -14.8947, 4.55916, 22.8338, 13.2499, 84.5627, -122.735
2.47963, -1, -15.0724, 4.46776, 22.87, 13.2524, 84.4671, -122.977
2.4876, -1, -15.2504, 4.37648, 22.9061, 13.2548, 84.3715, -123.219
2.49571, -1, -15.4289, 4.28517, 22.9421, 13.2571, 84.2758, -123.461
2.50365, -1, -15.6078, 4.19387, 22.9781, 13.2595, 84.1803, -123.703
2.5116, -1, -15.7871, 4.10263, 23.0141, 13.2618, 84.0848, -123.945
2.51968, -1, -15.9663, 4.01139, 23.05, 13.2641, 83.9893, -124.186
2.52663, -1, -16.1459, 3.92011, 23.0861, 13.2662, 83.894, -124.428
2.5356, -1, -16.3257, 3.82884, 23.1221, 13.2683, 83.7985, -124.669
2.5426, -1, -16.505, 3.73762, 23.1578, 13.2704, 83.703, -124.911
2.55161, -1, -16.684, 3.64648, 23.1937, 13.2727, 83.6077, -125.152
2.5597, -1, -16.8624, 3.5554, 23.2296, 13.275, 83.5123, -125.393
2.56867, -1, -17.0399, 3.46439, 23.2654, 13.2772, 83.4169, -125.634
2.57468, -1, -17.2167, 3.37343, 23.3012, 13.2794, 83.3216, -125.874
2.58378, -1, -17.3933, 3.28259, 23.3371, 13.2817, 83.2266, -126.115
2.5916, -1, -17.5696, 3.19177, 23.3728, 13.2838, 83.1315, -126.356
2.59964, -1, -17.7457, 3.10116, 23.4087, 13.286, 83.0367, -126.596
2.6077, -1, -17.9217, 3.01059, 23.4446, 13.288, 82.942, -126.836
2.6156, -1, -18.098, 2.92013, 23.4803, 13.2901, 82.8471, -127.076
2.62366, -1, -18.2745, 2.82975, 23.516, 13.2923, 82.7523, -127.317
2.6317, -1, -18.4515, 2.73931, 23.5518, 13.2943, 82.6578, -127.556
2.63962, -1, -18.629, 2.64891, 23.5874, 13.2964, 82.563, -127.796
2.6476, -1, -18.8066, 2.55856, 23.6231, 13.2984, 82.4684, -128.035
2.65566, -1, -18.9847, 2.46808, 23.6588, 13.3004, 82.3741, -128.275
2.66379, -1, -19.163, 2.37755, 23.6944, 13.3024, 82.2796, -128.514
2.67159, -1, -19.3411, 2.28718, 23.7299, 13.3044, 82.1853, -128.753
2.67969, -1, -19.5188, 2.19677, 23.7656, 13.3066, 82.0915, -128.992
2.6876, -1, -19.6958, 2.10638, 23.801, 13.3087, 81.9971, -129.231
2.6956, -1, -19.8723, 2.01612, 23.8364, 13.3109, 81.903, -129.471
2.70373, -1, -20.0481, 1.92589, 23.872, 13.313, 81.8091, -129.709
2.7116, -1, -20.2233, 1.83566, 23.9076, 13.3153, 81.7149, -129.948
2.71961, -1, -20.3981, 1.74556, 23.943, 13.3174, 81.6209, -130.186
2.72766, -1, -20.5727, 1.65551, 23.9786, 13.3197, 81.527, -130.424
2.73561, -1, -20.7472, 1.56554, 24.0141, 13.3218, 81.433, -130.663
2.74374, -1, -20.9219, 1.47564, 24.0494, 13.3241, 81.3392, -130.901
2.75173, -1, -21.0969, 1.38595, 24.085, 13.3262, 81.2457, -131.138
2.7597, -1, -21.2723, 1.29615, 24.1205, 13.3284, 81.1518, -131.376
2.76779, -1, -21.4481, 1.20642, 24.1558, 13.3306, 81.0579, -131.614
2.77574, -1, -21.6241, 1.11678, 24.1912, 13.3327, 80.9642, -131.852
2.78414, -1, -21.8002, 1.02712, 24.2267, 13.3349, 80.8703, -132.089
2.79123, -1, -21.8884, 0.982271, 24.262, 13.3371, 80.7765, -132.326
2.79969, -1, -22.1531, 0.847879, 24.2974, 13.3393, 80.6829, -132.564
2.8084, -1, -22.3297, 0.758351, 24.3328, 13.3414, 80.5892, -132.801
2.81564, -1, -22.5058, 0.668879, 24.368, 13.3437, 80.4956, -133.038
2.82368, -1, -22.6814, 0.579406, 24.4032, 13.346, 80.4021, -133.275
2.83261, -1, -22.8563, 0.490022, 24.4385, 13.3484, 80.3085, -133.511
2.8398, -1, -23.0302, 0.40063, 24.4737, 13.3508, 80.215, -133.748
2.84788, -1, -23.2038, 0.311272, 24.5088, 13.3533, 80.1214, -133.985
2.85676, -1, -23.3771, 0.22196, 24.544, 13.3557, 80.0281, -134.222
2.86403, -1, -23.5502, 0.132749, 24.5792, 13.3582, 79.9346, -134.458
2.8721, -1, -23.7235, 0.0435932, 24.6143, 13.3605, 79.8413, -134.694
2.88096, -1, -23.897, -0.0454805, 24.6495, 13.3629, 79.7483, -134.93
2.88814, -1, -24.0705, -0.134402, 24.6846, 13.3654, 79.6549, -135.166
2.8962, -1, -24.2443, -0.223417, 24.7197, 13.3678, 79.5619, -135.402
2.90509, -1, -24.4184, -0.312353, 24.7549, 13.3703, 79.4691, -135.637
2.91221, -1, -24.5929, -0.401196, 24.79, 13.3727, 79.3758, -135.873
2.92023, -1, -24.6802, -0.445659, 24.825, 13.3752, 79.2828, -136.109
2.92758, -1, -24.8552, -0.53455, 24.8425, 13.3764, 79.2364, -136.227
2.93562, -1, -25.0303, -0.623387, 24.8777, 13.3787, 79.1435, -136.462
2.94433, -1, -25.2051, -0.712164, 24.9127, 13.3811, 79.0505, -136.697
2.9516, -1, -25.3796, -0.8009, 24.9476, 13.3835, 78.9577, -136.932
2.95959, -1, -25.5538, -0.889705, 24.9827, 13.386, 78.8651, -137.167
2.96766, -1, -25.7273, -0.978418, 25.0175, 13.3884, 78.7722, -137.402
2.97559, -1, -25.9001, -1.06707, 25.0524, 13.3908, 78.6797, -137.637
2.98261, -1, -26.0726, -1.15577, 25.0875, 13.3933, 78.5875, -137.871
2.99159, -1, -26.2447, -1.2444, 25.1224, 13.3956, 78.4947, -138.106
2.99962, -1, -26.4165, -1.33292, 25.1572, 13.3981, 78.4021, -138.34
3.00662, -1, -26.5884, -1.42135, 25.1921, 13.4003, 78.3099, -138.575
3.01559, -1, -26.7605, -1.50969, 25.2271, 13.4025, 78.2173, -138.809
3.02364, -1, -26.9327, -1.59787, 25.262, 13.4048, 78.1249, -139.042
3.03065, -1, -27.1051, -1.68605, 25.2969, 13.407, 78.0329, -139.276
3.0396, -1, -27.2776, -1.77427, 25.3318, 13.4092, 77.9406, -139.51
3.04767, -1, -27.4505, -1.86233, 25.3665, 13.4114, 77.8486, -139.744
3.0546, -1, -27.6237, -1.95043, 25.4013, 13.4134, 77.7566, -139.977
3.06363, -1, -27.797, -2.03861, 25.4363, 13.4155, 77.6645, -140.211
3.07261, -1, -27.9702, -2.1266, 25.471, 13.4176, 77.5725, -140.444
3.07977, -1, -28.1435, -2.21466, 25.5057, 13.4196, 77.4805, -140.678
3.0887, -1, -28.3167, -2.30268, 25.5406, 13.4217, 77.3885, -140.911
3.09558, -1, -28.4894, -2.39076, 25.5753, 13.4238, 77.2963, -141.144
3.10369, -1, -28.6618, -2.47873, 25.61, 13.4259, 77.2042, -141.377
3.11167, -1, -28.8335, -2.56672, 25.6447, 13.428, 77.1123, -141.609
3.11958, -1, -29.0045, -2.65474, 25.6793, 13.4302, 77.0204, -141.842
3.12759, -1, -29.1752, -2.74262, 25.7138, 13.4324, 76.9285, -142.075
3.13567, -1, -29.3458, -2.83046, 25.7485, 13.4345, 76.8368, -142.307
3.14365, -1, -29.5164, -2.91818, 25.7832, 13.4366, 76.7448, -142.54
3.1516, -1, -29.6874, -3.00578, 25.8177, 13.4385, 76.653, -142.772
3.15965, -1, -29.8584, -3.09332, 25.8523, 13.4406, 76.5614, -143.004
3.16763, -1, -30.0293, -3.18082, 25.8869, 13.4428, 76.4694, -143.236
3.17593, -1, -30.2003, -3.26836, 25.9214, 13.4448, 76.3777, -143.468
3.18365, -1, -30.3714, -3.35581, 25.9559, 13.4469, 76.2863, -143.7
3.19158, -1, -30.543, -3.44326, 25.9906, 13.4489, 76.1945, -143.932
3.20077, -1, -30.7148, -3.53082, 26.025, 13.4509, 76.1031, -144.164
3.20863, -1, -30.8866, -3.61816, 26.0595, 13.453, 76.0119, -144.395
3.21565, -1, -31.0584, -3.70557, 26.0941, 13.4549, 75.9204, -144.626
3.22365, -1, -31.2301, -3.79291, 26.1285, 13.457, 75.829, -144.858
3.23159, -1, -31.4015, -3.88022, 26.1628, 13.4591, 75.7378, -145.089
3.23966, -1, -31.5723, -3.9675, 26.1973, 13.4612, 75.6465, -145.32
3.24788, -1, -31.7428, -4.05475, 26.2317, 13.4634, 75.5552, -145.551
3.25564, -1, -31.9127, -4.14202, 26.2661, 13.4656, 75.464, -145.782
3.2638, -1, -32.0824, -4.22922, 26.3005, 13.4678, 75.3731, -146.013
3.27197, -1, -32.2518, -4.31633, 26.3349, 13.47, 75.2819, -146.244
3.27971, -1, -32.4213, -4.4034, 26.369, 13.4721, 75.1908, -146.474
3.28776, -1, -32.591, -4.49035, 26.4034, 13.4743, 75.1003, -146.705
3.29704, -1, -32.7606, -4.57726, 26.4378, 13.4764, 75.0093, -146.935
3.30377, -1, -32.9303, -4.66418, 26.472, 13.4786, 74.9185, -147.165
3.31167, -1, -33.0999, -4.75114, 26.5062, 13.4807, 74.8281, -147.396
3.32115, -1, -33.2697, -4.83798, 26.5405, 13.483, 74.7373, -147.626
3.32761, -1, -33.4398, -4.92485, 26.5748, 13.4852, 74.6467, -147.856
3.3358, -1, -33.6101, -5.01183, 26.6089, 13.4874, 74.5562, -148.085
3.34621, -1, -33.7805, -5.09862, 26.6432, 13.4896, 74.4656, -148.315
3.35192, -1, -33.9507, -5.18537, 26.6774, 13.4919, 74.375, -148.545
3.35993, -1, -34.1209, -5.27211, 26.7115, 13.4941, 74.2846, -148.775
3.36665, -1, -34.206, -5.31551, 26.7286, 13.4952, 74.2394, -148.889
3.37606, -1, -34.461, -5.44545, 26.78, 13.4987, 74.1034, -149.233
3.38405, -1, -34.6305, -5.53211, 26.8141, 13.5011, 74.0128, -149.463
3.39308, -1, -34.7994, -5.61876, 26.8482, 13.5035, 73.9224, -149.692
3.40019, -1, -34.9679, -5.70533, 26.8824, 13.506, 73.8317, -149.921
3.40814, -1, -35.1362, -5.79181, 26.9164, 13.5084, 73.7413, -150.15
3.4169, -1, -35.2203, -5.83503, 26.9505, 13.5108, 73.6513, -150.379
3.42444, -1, -35.3888, -5.92138, 26.9676, 13.5132, 73.5608, -150.608
3.43158, -1, -35.5573, -6.00758, 27.0017, 13.5143, 73.5157, -150.722
3.43967, -1, -35.7259, -6.09378, 27.0357, 13.5166, 73.4253, -150.951
3.44759, -1, -35.8944, -6.17996, 27.0697, 13.5191, 73.3351, -151.18
3.45557, -1, -36.0629, -6.26609, 27.1038, 13.5214, 73.2446, -151.408
3.46362, -1, -36.2314, -6.35218, 27.1377, 13.5238, 73.1541, -151.637
3.47159, -1, -36.4001, -6.43841, 27.1716, 13.5262, 73.064, -151.865
3.47958, -1, -36.569, -6.52463, 27.2057, 13.5286, 72.9734, -152.093
3.48764, -1, -36.7379, -6.61081, 27.2396, 13.5309, 72.8832, -152.321
3.49857, -1, -36.9914, -6.74007, 27.2904, 13.5344, 72.7482, -152.663
3.50363, -1, -37.0758, -6.78318, 27.3074, 13.5355, 72.703, -152.778
3.51162, -1, -37.2446, -6.86931, 27.3413, 13.5378, 72.6131, -153.006
3.51958, -1, -37.4131, -6.95537, 27.3751, 13.54, 72.5232, -153.233
3.52757, -1, -37.5811, -7.04145, 27.4091, 13.5422, 72.4333, -153.461
3.5346, -1, -37.7488, -7.12744, 27.443, 13.5446, 72.3435, -153.688
3.54358, -1, -37.9164, -7.21342, 27.4768, 13.5467, 72.2537, -153.916
3.55157, -1, -38.084, -7.29934, 27.5107, 13.5489, 72.164, -154.143
3.56057, -1, -38.2514, -7.38521, 27.5446, 13.5511, 72.0742, -154.37
3.56757, -1, -38.4188, -7.47098, 27.5784, 13.5533, 71.9845, -154.597
3.57557, -1, -38.5859, -7.55666, 27.6122, 13.5553, 71.8951, -154.825
3.58365, -1, -38.7533, -7.6424, 27.6461, 13.5574, 71.8053, -155.052
3.59157, -1, -38.9206, -7.72808, 27.6799, 13.5595, 71.7159, -155.279
3.59959, -1, -39.088, -7.81371, 27.7135, 13.5616, 71.6268, -155.506
3.60766, -1, -39.2555, -7.89941, 27.7474, 13.5636, 71.5372, -155.732
3.61559, -1, -39.423, -7.98507, 27.7812, 13.5655, 71.4479, -155.959
3.62358, -1, -39.5907, -8.07063, 27.8148, 13.5675, 71.3587, -156.186
3.63164, -1, -39.7583, -8.15617, 27.8485, 13.5695, 71.2694, -156.413
3.63961, -1, -39.9259, -8.24162, 27.8822, 13.5715, 71.18, -156.639
3.64758, -1, -40.0935, -8.3271, 27.9159, 13.5734, 71.0906, -156.865
3.65563, -1, -40.2609, -8.41244, 27.9495, 13.5753, 71.0014, -157.092
3.66358, -1, -40.4281, -8.49782, 27.9834, 13.5773, 70.912, -157.318
3.67164, -1, -40.5951, -8.5832, 28.0169, 13.5793, 70.8228, -157.544
3.67964, -1, -40.7619, -8.6686, 28.0505, 13.5812, 70.7339, -157.77
3.68757, -1, -40.9285, -8.75393, 28.0842, 13.5833, 70.6446, -157.996
3.69564, -1, -41.095, -8.83924, 28.1179, 13.5853, 70.5555, -158.222
3.70364, -1, -41.2612, -8.92451, 28.1514, 13.5873, 70.4665, -158.448
3.71157, -1, -41.4274, -9.00968, 28.185, 13.5893, 70.3773, -158.673
3.71959, -1, -41.5937, -9.09485, 28.2187, 13.5913, 70.288, -158.899
3.72763, -1, -41.76, -9.17995, 28.2522, 13.5933, 70.1989, -159.124
3.73557, -1, -41.9264, -9.26501, 28.2858, 13.5953, 70.1099, -159.35
3.74391, -1, -42.0928, -9.35005, 28.3195, 13.5973, 70.0209, -159.575
3.7516, -1, -42.2591, -9.43515, 28.3531, 13.5994, 69.9319, -159.8
3.75966, -1, -42.4254, -9.52015, 28.3866, 13.6014, 69.8432, -160.026
3.76794, -1, -42.5918, -9.60512, 28.4201, 13.6034, 69.754, -160.251
3.77568, -1, -42.7581, -9.69008, 28.4537, 13.6055, 69.6651, -160.476
3.7837, -1, -42.9245, -9.77502, 28.4871, 13.6075, 69.5766, -160.701
3.79175, -1, -43.0908, -9.85995, 28.5206, 13.6096, 69.4876, -160.926
3.80015, -1, -43.2569, -9.94491, 28.5541, 13.6116, 69.399, -161.151
3.80759, -1, -43.423, -10.0298, 28.5876, 13.6137, 69.3103, -161.375
3.81567, -1, -43.589, -10.1147, 28.6211, 13.6158, 69.2217, -161.6
3.82454, -1, -43.755, -10.1997, 28.6547, 13.6179, 69.1332, -161.825
3.83163, -1, -43.9209, -10.2845, 28.6881, 13.62, 69.0447, -162.049
3.83983, -1, -44.0865, -10.3693, 28.7215, 13.6222, 68.9563, -162.274
3.84845, -1, -44.2518, -10.454, 28.7551, 13.6244, 68.8676, -162.498
3.85579, -1, -44.4169, -10.5386, 28.7886, 13.6266, 68.7789, -162.722
3.86397, -1, -44.5821, -10.6231, 28.8219, 13.6288, 68.6905, -162.947
3.87057, -1, -44.6647, -10.6654, 28.8386, 13.6298, 68.6461, -163.059
3.88004, -1, -44.9126, -10.7921, 28.8889, 13.6331, 68.5132, -163.395
3.88816, -1, -45.078, -10.8766, 28.9223, 13.6353, 68.4249, -163.619
3.89618, -1, -45.2434, -10.9612, 28.9557, 13.6375, 68.3364, -163.843
3.90417, -1, -45.4086, -11.0456, 28.9892, 13.6398, 68.2481, -164.067
3.9122, -1, -45.5738, -11.13, 29.0224, 13.6421, 68.1599, -164.291
3.92021, -1, -45.7391, -11.2144, 29.0556, 13.6444, 68.0716, -164.514
3.92847, -1, -45.9041, -11.2987, 29.0891, 13.6467, 67.9831, -164.738
3.93619, -1, -45.9859, -11.3405, 29.1059, 13.6478, 67.9389, -164.962
3.94361, -1, -46.1473, -11.4228, 29.1393, 13.6501, 67.8509, -165.073
3.95249, -1, -46.3044, -11.5404, 29.1898, 13.6536, 67.7205, -165.403
3.95962, -1, -46.4548, -11.5773, 29.2065, 13.6548, 67.6783, -165.51
3.96756, -1, -46.5959, -11.6472, 29.2387, 13.6571, 67.5968, -165.715
3.97558, -1, -46.7255, -11.7106, 29.2686, 13.6594, 67.5221, -165.905
3.98361, -1, -46.8405, -11.7667, 29.295, 13.6613, 67.4551, -166.074
3.99156, -1, -46.9393, -11.8158, 29.3171, 13.663, 67.3992, -166.216
3.99957, -1, -47.0219, -11.8588, 29.3337, 13.6643, 67.3544, -166.329
4.00765, -1, -47.0891, -11.8956, 29.3449, 13.6651, 67.3208, -166.414
4.01556, -1, -47.1416, -11.925, 29.3522, 13.6655, 67.2975, -166.473
4.02356, -1, -47.1806, -11.9471, 29.3561, 13.6657, 67.2825, -166.511
4.03159, -1, -47.2082, -11.9626, 29.3579, 13.6658, 67.2737, -166.533
4.03957, -1, -47.2263, -11.9726, 29.3587, 13.6659, 67.2689, -166.545
4.04756, -1, -47.2371, -11.9785, 29.3591, 13.6659, 67.2666, -166.551
4.05655, 2, -47.2428, -11.9814, 29.3593, 13.666, 67.2654, -166.553
4.06357, 2, -47.2449, -11.9828, 29.3594, 13.666, 67.2649, -166.555
4.07351, 2, -47.245, -11.9833, 29.3595, 13.666, 67.2646, -166.555
4.07963, 2, -47.2448, -11.9835, 29.3596, 13.666, 67.2645, -166.555
4.08756, 2, -47.2448, -11.9836, 29.3596, 13.6661, 67.2645, -166.556
4.09556, 2, -47.2452, -11.9837, 29.3596, 13.6661, 67.2645, -166.556
4.10362, 2, -47.2461, -11.984, 29.3596, 13.6661, 67.2645, -166.556
4.11157, 2, -47.2473, -11.9845, 29.3596, 13.6661, 67.2645, -166.556
4.11959, 2, -47.2492, -11.9852, 29.3596, 13.6661, 67.2645, -166.556
4.12762, 2, -47.2508, -11.9861, 29.3596, 13.666, 67.2645, -166.556
4.13555, 2, -47.2521, -11.9869, 29.3596, 13.666, 67.2645, -166.556
4.14359, 2, -47.253, -11.9876, 29.3597, 13.666, 67.2645, -166.556
4.15162, 2, -47.2535, -11.988, 29.3597, 13.666, 67.2645, -166.556
4.15957, 2, -47.2537, -11.9882, 29.3597, 13.666, 67.2645, -166.556
4.16755, 2, -47.2537, -11.9882, 29.3597, 13.666, 67.2645, -166.556
4.17566, 2, -47.2534, -11.9882, 29.3597, 13.6661, 67.2645, -166.556
4.18355, 2, -47.253, -11.9882, 29.3597, 13.6661, 67.2645, -166.556
4.19155, 2, -47.2526, -11.9882, 29.3597, 13.6661, 67.2645, -166.556
4.19963, 2, -47.2522, -11.9882, 29.3597, 13.6661, 67.2645, -166.556
4.20755, 2, -47.252, -11.9882, 29.3597, 13.666, 67.2645, -166.556
4.21556, 2, -47.2521, -11.9883, 29.3597, 13.666, 67.2645, -166.556
4.22363, 2, -47.2522, -11.9884, 29.3597, 13.6661, 67.2645, -166.556
4.23156, 2, -47.2523, -11.9887, 29.3597, 13.666, 67.2645, -166.556
4.23957, 2, -47.2529, -11.9891, 29.3597, 13.666, 67.2645, -166.556
4.24764, 2, -47.2535, -11.9894, 29.3597, 13.666, 67.2645, -166.556
4.25558, 2, -47.2538, -11.9896, 29.3597, 13.666, 67.2645, -166.556
4.26364, 2, -47.2539, -11.9897, 29.3597, 13.666, 67.2645, -166.556
4.27171, 2, -47.2539, -11.9897, 29.3597, 13.666, 67.2646, -166.556
4.27968, 2, -47.2539, -11.9897, 29.3597, 13.6661, 67.2646, -166.556
4.28767, 2, -47.2536, -11.9896, 29.3597, 13.666, 67.2645, -166.556
4.29573, 2, -47.2532, -11.9896, 29.3597, 13.666, 67.2645, -166.556
4.30362, 2, -47.2529, -11.9895, 29.3597, 13.666, 67.2645, -166.556
4.31168, 2, -47.2526, -11.9895, 29.3597, 13.666, 67.2645, -166.556
4.31966, 2, -47.2524, -11.9895, 29.3597, 13.6661, 67.2646, -166.556
4.32759, 2, -47.2523, -11.9896, 29.3597, 13.6661, 67.2646, -166.556
4.33569, 2, -47.2523, -11.9896, 29.3597, 13.666, 67.2646, -166.556
4.3438, 2, -47.2523, -11.9897, 29.3597, 13.666, 67.2646, -166.556
4.35175, 2, -47.2523, -11.9897, 29.3597, 13.666, 67.2646, -166.556
4.36017, 2, -47.2523, -11.9898, 29.3597, 13.666, 67.2646, -166.555
4.36802, 2, -47.2523, -11.9898, 29.3597, 13.666, 67.2646, -166.555
4.37458, 2, -47.2523, -11.9898, 29.3597, 13.666, 67.2646, -166.555
4.38406, 2, -47.2522, -11.9897, 29.3597, 13.666, 67.2646, -166.555
4.39211, 2, -47.2522, -11.9896, 29.3597, 13.666, 67.2646, -166.555
4.40007, 2, -47.2521, -11.9896, 29.3597, 13.666, 67.2645, -166.555
4.40834, 2, -47.252, -11.9895, 29.3597, 13.666, 67.2646, -166.555
4.41631, 2, -47.2519, -11.9895, 29.3597, 13.666, 67.2646, -166.555
4.42412, 2, -47.2518, -11.9895, 29.3597, 13.666, 67.2646, -166.555
4.43212, 2, -47.2517, -11.9895, 29.3597, 13.666, 67.2646, -166.555
4.44011, 2, -47.2516, -11.9895, 29.3597, 13.666, 67.2646, -166.555
4.44757, 2, -47.2516, -11.9895, 29.3597, 13.666, 67.2646, -166.555
4.45556, 2, -47.2515, -11.9896, 29.3597, 13.666, 67.2646, -166.555
4.4636, 2, -47.2514, -11.9896, 29.3597, 13.6659, 67.2646, -166.555
4.47154, 2, -47.2514, -11.9896, 29.3597, 13.666, 67.2646, -166.555
4.47959, 2, -47.2513, -11.9896, 29.3597, 13.666, 67.2646, -166.555
4.48761, 2, -47.2513, -11.9895, 29.3597, 13.666, 67.2646, -166.555
4.49554, 2, -47.2512, -11.9895, 29.3597, 13.666, 67.2645, -166.555
4.50361, 2, -47.2511, -11.9894, 29.3597, 13.666, 67.2646, -166.555
4.51163, 2, -47.251, -11.9894, 29.3597, 13.666, 67.2646, -166.555
4.51955, 2, -47.2509, -11.9893, 29.3597, 13.666, 67.2646, -166.555
4.52755, 2, -47.2508, -11.9893, 29.3597, 13.666, 67.2646, -166.555
4.5356, 2, -47.2507, -11.9893, 29.3597, 13.666, 67.2646, -166.555
4.54355, 2, -47.2506, -11.9893, 29.3597, 13.666, 67.2646, -166.555
4.55154, 2, -47.2505, -11.9893, 29.3597, 13.666, 67.2646, -166.555
4.56108, 2, -47.2504, -11.9893, 29.3597, 13.666, 67.2646, -166.555
4.56754, 2, -47.2503, -11.9893, 29.3597, 13.6659, 67.2646, -166.555
4.57555, 2, -47.2502, -11.9893, 29.3597, 13.6659, 67.2646, -166.555
4.5836, 2, -47.2501, -11.9893, 29.3597, 13.6659, 67.2646, -166.555
4.59259, 2, -47.25, -11.9893, 29.3597, 13.6659, 67.2646, -166.555
4.59956, 2, -47.2499, -11.9892, 29.3597, 13.6659, 67.2647, -166.555
4.6076, 2, -47.2498, -11.9892, 29.3597, 13.6659, 67.2647, -166.555
4.61556, 2, -47.2497, -11.9891, 29.3597, 13.6659, 67.2647, -166.555
4.62357, 2, -47.2496, -11.989, 29.3597, 13.6659, 67.2647, -166.555
4.63161, 2, -47.2495, -11.989, 29.3597, 13.6659, 67.2646, -166.555
4.63955, 2, -47.2494, -11.989, 29.3597, 13.6659, 67.2646, -166.555
4.64756, 2, -47.2493, -11.989, 29.3597, 13.6659, 67.2646, -166.555
4.65561, 2, -47.2492, -11.989, 29.3597, 13.6659, 67.2647, -166.555
4.66354, 2, -47.2492, -11.9889, 29.3597, 13.6659, 67.2647, -166.555
4.67154, 2, -47.2492, -11.9889, 29.3597, 13.6659, 67.2647, -166.555
4.67968, 2, -47.2491, -11.9889, 29.3597, 13.6659, 67.2646, -166.555
4.68754, 2, -47.2491, -11.9889, 29.3597, 13.6658, 67.2647, -166.555
4.69554, 2, -47.249, -11.9889, 29.3597, 13.6658, 67.2647, -166.555
4.70361, 2, -47.2489, -11.9889, 29.3597, 13.6658, 67.2647, -166.555
4.71153, 2, -47.2488, -11.9888, 29.3597, 13.6658, 67.2647, -166.555
4.71956, 2, -47.2488, -11.9887, 29.3597, 13.6659, 67.2647, -166.555
4.7276, 2, -47.2487, -11.9887, 29.3597, 13.6658, 67.2647, -166.555
4.73554, 2, -47.2486, -11.9886, 29.3597, 13.6658, 67.2647, -166.555
4.74355, 2, -47.2486, -11.9886, 29.3596, 13.6658, 67.2647, -166.555
4.75163, 2, -47.2485, -11.9886, 29.3597, 13.6658, 67.2647, -166.555
4.75958, 2, -47.2485, -11.9886, 29.3597, 13.6658, 67.2647, -166.555
4.76763, 2, -47.2485, -11.9886, 29.3597, 13.6658, 67.2647, -166.555
4.77569, 2, -47.2484, -11.9886, 29.3597, 13.6658, 67.2647, -166.555
4.78366, 2, -47.2484, -11.9886, 29.3597, 13.6657, 67.2647, -166.555
4.79166, 2, -47.2484, -11.9886, 29.3596, 13.6657, 67.2647, -166.555
4.79973, 2, -47.2483, -11.9885, 29.3596, 13.6657, 67.2647, -166.555
4.80754, 2, -47.2483, -11.9885, 29.3597, 13.6657, 67.2648, -166.555
4.81557, 2, -47.2482, -11.9884, 29.3597, 13.6657, 67.2648, -166.555
4.82363, 2, -47.2481, -11.9883, 29.3597, 13.6657, 67.2648, -166.555
4.83158, 2, -47.2481, -11.9883, 29.3597, 13.6657, 67.2648, -166.555
4.83968, 2, -47.248, -11.9882, 29.3596, 13.6657, 67.2648, -166.555
4.84781, 2, -47.2479, -11.9882, 29.3596, 13.6657, 67.2648, -166.554
4.85575, 2, -47.2479, -11.9882, 29.3597, 13.6656, 67.2648, -166.554
4.86417, 2, -47.2478, -11.9882, 29.3597, 13.6656, 67.2648, -166.554
4.87197, 2, -47.2478, -11.9882, 29.3597, 13.6656, 67.2648, -166.554
4.87997, 2, -47.2478, -11.9882, 29.3597, 13.6657, 67.2648, -166.554
4.88836, 2, -47.2477, -11.9882, 29.3597, 13.6656, 67.2648, -166.554
4.89611, 2, -47.2477, -11.9882, 29.3596, 13.6656, 67.2648, -166.554
4.90408, 2, -47.2477, -11.9881, 29.3596, 13.6656, 67.2648, -166.554
4.91235, 2, -47.2476, -11.9881, 29.3596, 13.6656, 67.2648, -166.554
4.92015, 2, -47.2476, -11.9881, 29.3596, 13.6656, 67.2648, -166.554
4.92811, 2, -47.2475, -11.988, 29.3596, 13.6656, 67.2649, -166.554
4.93637, 2, -47.2474, -11.9879, 29.3596, 13.6655, 67.2649, -166.554
4.94437, 2, -47.2474, -11.9879, 29.3596, 13.6655, 67.2649, -166.554
4.95155, 2, -47.2473, -11.9879, 29.3597, 13.6655, 67.2649, -166.554
4.95956, 2, -47.2472, -11.9879, 29.3596, 13.6656, 67.265, -166.554
4.96758, 2, -47.2472, -11.9879, 29.3596, 13.6655, 67.265, -166.554
4.97553, 2, -47.2471, -11.9878, 29.3597, 13.6655, 67.265, -166.554
4.98354, 2, -47.2471, -11.9878, 29.3597, 13.6655, 67.265, -166.554
4.99158, 2, -47.2471, -11.9878, 29.3597, 13.6655, 67.265, -166.554
4.99954, 2, -47.2471, -11.9878, 29.3596, 13.6655, 67.265, -166.554
5.00753, 2, -47.2471, -11.9878, 29.3596, 13.6655, 67.265, -166.554
5.01562, 2, -47.247, -11.9877, 29.3596, 13.6655, 67.265, -166.554
5.02353, 2, -47.247, -11.9877, 29.3596, 13.6654, 67.265, -166.554
5.03153, 2, -47.2469, -11.9876, 29.3596, 13.6654, 67.265, -166.554
5.03961, 2, -47.2469, -11.9876, 29.3596, 13.6654, 67.265, -166.554
5.04752, 2, -47.2468, -11.9875, 29.3596, 13.6654, 67.265, -166.554
5.05568, 2, -47.2467, -11.9875, 29.3596, 13.6654, 67.265, -166.554
5.06351, 2, -47.2466, -11.9875, 29.3596, 13.6654, 67.265, -166.554
5.07253, 2, -47.2465, -11.9875, 29.3596, 13.6654, 67.265, -166.554
5.07953, 2, -47.2465, -11.9875, 29.3596, 13.6654, 67.2651, -166.554
5.08753, 2, -47.2465, -11.9875, 29.3596, 13.6654, 67.2651, -166.554
5.09559, 2, -47.2464, -11.9874, 29.3596, 13.6653, 67.2651, -166.554
5.10353, 2, -47.2464, -11.9874, 29.3596, 13.6654, 67.2651, -166.554
5.11152, 2, -47.2464, -11.9874, 29.3596, 13.6653, 67.2651, -166.554
5.11962, 2, -47.2464, -11.9874, 29.3596, 13.6653, 67.2651, -166.554
5.12754, 2, -47.2463, -11.9873, 29.3597, 13.6653, 67.2651, -166.554
5.13555, 2, -47.2463, -11.9873, 29.3597, 13.6652, 67.2651, -166.554
5.14359, 4, -47.2462, -11.9872, 29.3596, 13.6653, 67.2651, -166.554
5.15154, 4, -47.2462, -11.9872, 29.3596, 13.6652, 67.2651, -166.554
5.15954, 4, -47.2461, -11.9872, 29.3596, 13.6652, 67.2651, -166.554
5.16758, 4, -47.246, -11.9871, 29.3596, 13.6652, 67.2651, -166.554
5.17552, 4, -47.2459, -11.9871, 29.3596, 13.6652, 67.2651, -166.554
5.18358, 4, -47.2459, -11.9871, 29.3596, 13.6652, 67.2651, -166.554
5.19159, 4, -47.2459, -11.9871, 29.3596, 13.6652, 67.2651, -166.554
5.19953, 4, -47.2459, -11.9871, 29.3596, 13.6651, 67.2652, -166.554
5.20752, 4, -47.2458, -11.9871, 29.3596, 13.6651, 67.2652, -166.554
5.21558, 4, -47.2458, -11.987, 29.3596, 13.6651, 67.2652, -166.554
5.22352, 4, -47.2458, -11.987, 29.3596, 13.6651, 67.2652, -166.554
5.23153, 4, -47.2458, -11.987, 29.3596, 13.6651, 67.2652, -166.554
5.23978, 4, -47.2457, -11.9869, 29.3596, 13.6651, 67.2652, -166.554
5.25343, 4, -47.2456, -11.9869, 29.3596, 13.6651, 67.2652, -166.553
5.2563, 4, -47.2456, -11.9869, 29.3596, 13.6651, 67.2653, -166.553
5.26377, 4, -47.2455, -11.9868, 29.3596, 13.6651, 67.2653, -166.553
5.27194, 4, -47.2455, -11.9868, 29.3596, 13.665, 67.2653, -166.553
5.27986, 4, -47.2454, -11.9868, 29.3596, 13.665, 67.2653, -166.553
5.2937, 4, -47.2454, -11.9868, 29.3596, 13.665, 67.2653, -166.553
5.29648, 4, -47.2453, -11.9868, 29.3596, 13.665, 67.2653, -166.553
5.30478, 4, -47.2453, -11.9868, 29.3596, 13.665, 67.2652, -166.553
5.31272, 4, -47.2453, -11.9868, 29.3596, 13.665, 67.2653, -166.553
5.32158, 4, -47.2453, -11.9867, 29.3596, 13.665, 67.2653, -166.553
5.32836, 4, -47.2453, -11.9867, 29.3596, 13.665, 67.2653, -166.553
5.33595, 4, -47.2452, -11.9867, 29.3596, 13.6649, 67.2653, -166.553
5.3464, 4, -47.2452, -11.9866, 29.3596, 13.665, 67.2652, -166.553
5.35216, 4, -47.2451, -11.9866, 29.3596, 13.665, 67.2653, -166.553
5.36169, 4, -47.2451, -11.9866, 29.3596, 13.665, 67.2653, -166.553
5.36873, 4, -47.245, -11.9866, 29.3596, 13.6649, 67.2654, -166.553
5.37839, 4, -47.245, -11.9866, 29.3596, 13.665, 67.2654, -166.553
5.38441, 4, -47.2449, -11.9865, 29.3596, 13.6649, 67.2654, -166.553
5.39244, 4, -47.2449, -11.9865, 29.3596, 13.6649, 67.2654, -166.553
5.404, 4, -47.2449, -11.9865, 29.3596, 13.6649, 67.2654, -166.553
5.40827, 4, -47.245, -11.9866, 29.3596, 13.6649, 67.2654, -166.553
5.41783, 4, -47.2459, -11.987, 29.36, 13.665, 67.2655, -166.553
5.42468, 4, -47.2482, -11.9887, 29.3618, 13.6667, 67.266, -166.553
5.43234, 4, -47.25, -11.9932, 29.3673, 13.6764, 67.2683, -166.552
5.44659, 4, -47.2646, -12.0088, 29.3903, 13.7219, 67.2803, -166.543
5.44924, 4, -47.271, -12.0173, 29.4044, 13.7502, 67.2882, -166.536
5.45638, 5, -47.2791, -12.0282, 29.4231, 13.7884, 67.2988, -166.528
5.46369, 5, -47.3012, -12.0579, 29.4769, 13.9003, 67.3304, -166.503
5.47483, 5, -47.353, -12.1255, 29.6111, 14.1846, 67.4092, -166.437
5.47966, 5, -47.3762, -12.155, 29.6727, 14.3168, 67.4457, -166.406
5.48904, 5, -47.4649, -12.2659, 29.9128, 14.8386, 67.5877, -166.287
5.49568, 5, -47.5008, -12.3105, 30.0121, 15.0546, 67.6458, -166.237
5.50366, 5, -47.5818, -12.4109, 30.2394, 15.5458, 67.7772, -166.125
5.51423, 5, -47.7243, -12.5871, 30.6437, 16.4079, 68.0042, -165.93
5.52148, 5, -47.831, -12.7193, 30.9488, 17.0451, 68.1689, -165.788
5.52775, 5, -47.8871, -12.7891, 31.1095, 17.3771, 68.2535, -165.714
5.53747, 5, -48.063, -13.0094, 31.6159, 18.4025, 68.5107, -165.491
5.54405, 5, -48.1233, -13.0854, 31.7898, 18.7496, 68.5961, -165.417
5.55166, 5, -48.244, -13.2387, 32.1422, 19.4451, 68.7649, -165.269
5.55965, 5, -48.3626, -13.391, 32.4967, 20.1319, 68.9299, -165.121
5.5677, 5, -48.4751, -13.5398, 32.8497, 20.8009, 69.0911, -164.968
5.57566, 6, -48.5773, -13.6816, 33.1945, 21.4407, 69.25, -164.798
5.58659, 6, -48.7019, -13.8752, 33.6852, 22.3222, 69.4884, -164.486
5.59176, 7, -48.7339, -13.9346, 33.8394, 22.5923, 69.5692, -164.359
5.60079, 7, -48.7819, -14.0466, 34.133, 23.0945, 69.7348, -164.062
5.60764, 7, -48.8087, -14.1499, 34.4056, 23.5501, 69.9084, -163.697
5.6188, 8, -48.8121, -14.2864, 34.7799, 24.166, 70.1906, -163.018
5.62368, 8, -48.8042, -14.3272, 34.8976, 24.3582, 70.2911, -162.757
5.63268, 9, -48.7771, -14.4037, 35.1249, 24.7315, 70.5026, -162.194
5.63964, 9, -48.7366, -14.4754, 35.3454, 25.0981, 70.7268, -161.584
5.64776, 10, -48.685, -14.5436, 35.5641, 25.4646, 70.9619, -160.942
5.65826, 10, -48.5909, -14.6402, 35.8926, 26.0205, 71.3282, -159.944
5.66375, 11, -48.5563, -14.6713, 36.0027, 26.2077, 71.4519, -159.608
5.67236, 11, -48.4834, -14.7332, 36.2241, 26.5853, 71.6998, -158.937
5.68072, 12, -48.4062, -14.7959, 36.4446, 26.9675, 71.9475, -158.268
5.69079, 13, -48.2856, -14.8907, 36.7703, 27.5491, 72.3178, -157.268
5.69665, 13, -48.2445, -14.9219, 36.8775, 27.745, 72.441, -156.937
5.70685, 14, -48.1183, -15.014, 37.1934, 28.3385, 72.8104, -155.946
5.71198, 14, -48.0749, -15.0448, 37.297, 28.5379, 72.9335, -155.616
5.72268, 14, -47.9396, -15.1372, 37.6049, 29.1399, 73.3032, -154.631
5.72776, 15, -47.893, -15.1676, 37.7062, 29.3412, 73.4261, -154.305
5.7367, 15, -47.7972, -15.2273, 37.9066, 29.744, 73.6709, -153.654
5.74832, 16, -47.6445, -15.3162, 38.2039, 30.3469, 74.0347, -152.684
5.75905, 17, -47.4792, -15.4075, 38.4951, 30.9461, 74.392, -151.725
5.76106, 17, -47.4792, -15.4075, 38.4951, 30.9461, 74.392, -151.725
5.76972, 18, -47.3627, -15.4698, 38.6852, 31.3423, 74.6248, -151.091
5.77579, 18, -47.2408, -15.5327, 38.8731, 31.7353, 74.8526, -150.464
5.78377, 18, -47.1133, -15.5967, 39.0578, 32.1245, 75.0747, -149.844
5.7927, 19, -46.9805, -15.6625, 39.2394, 32.5109, 75.2908, -149.232
5.80084, 19, -46.8425, -15.7308, 39.4193, 32.895, 75.5012, -148.626
5.80779, 20, -46.6992, -15.8013, 39.5979, 33.2767, 75.7063, -148.028
5.81673, 20, -46.5507, -15.8744, 39.7742, 33.6566, 75.9065, -147.438
5.82917, 21, -46.3192, -15.9899, 40.0353, 34.2236, 76.1974, -146.566
5.83398, 21, -46.2397, -16.0298, 40.1217, 34.4115, 76.2917, -146.279
5.83989, 22, -46.0768, -16.1111, 40.2932, 34.7855, 76.4764, -145.711
5.84825, 22, -45.9085, -16.1942, 40.4616, 35.1562, 76.6558, -145.15
5.85616, 23, -45.7342, -16.2793, 40.6274, 35.5229, 76.8297, -144.594
5.8641, 23, -45.5536, -16.3662, 40.7907, 35.8852, 76.998, -144.044
5.87394, 24, -45.3667, -16.4546, 40.9504, 36.2427, 77.161, -143.499
5.88031, 24, -45.1732, -16.5443, 41.1056, 36.5944, 77.3188, -142.959
5.88828, 25, -44.9733, -16.635, 41.2565, 36.9397, 77.4718, -142.423
5.89641, 25, -44.7668, -16.7265, 41.403, 37.2785, 77.6202, -141.889
5.90922, 26, -44.444, -16.8647, 41.6131, 37.7733, 77.8345, -141.095
5.91735, 27, -44.3328, -16.9108, 41.6804, 37.9346, 77.9039, -140.831
5.92032, 27, -44.1052, -17.0025, 41.8105, 38.2512, 78.0394, -140.305
5.92843, 27, -43.871, -17.0935, 41.9346, 38.5596, 78.1711, -139.78
5.93628, 28, -43.7515, -17.1837, 42.0522, 38.8598, 78.2992, -139.256
5.94612, 28, -43.3828, -17.2726, 42.1631, 39.1515, 78.4238, -138.733
5.95238, 29, -43.2566, -17.3165, 42.216, 39.4348, 78.5456, -138.21
5.96063, 29, -42.8679, -17.4458, 42.3642, 39.7097, 78.6636, -137.688
5.97125, 30, -42.5991, -17.5297, 42.4539, 39.9761, 78.7789, -137.166
5.97708, 30, -42.3212, -17.6113, 42.5364, 40.234, 78.8912, -136.645
5.98628, 31, -42.0354, -17.6903, 42.6117, 40.4833, 79.0005, -136.125
5.99387, 32, -41.7421, -17.7669, 42.6801, 40.7242, 79.1076, -135.605
6.00309, 32, -41.5928, -17.8044, 42.7118, 40.8415, 79.2117, -135.086
6.00928, 32, -41.1355, -17.9129, 42.7965, 41.1806, 79.3133, -134.567
6.01785, 33, -40.8226, -17.9814, 42.8441, 41.3969, 79.4128, -134.051
6.02367, 33, -40.6635, -18.0144, 42.8652, 41.5018, 79.4613, -133.792
6.03168, 34, -40.341, -18.0784, 42.9018, 41.7057, 79.5564, -133.276
6.03975, 34, -40.0138, -18.1399, 42.9311, 41.9015, 79.649, -132.761
6.04954, 35, -39.6816, -18.2262, 42.9617, 42.1808, 79.7832, -131.991
6.05894, 36, -39.1715, -18.2795, 42.9733, 42.3576, 79.87, -131.479
6.06387, 36, -38.9978, -18.3049, 42.9765, 42.443, 79.9124, -131.224
6.07345, 36, -38.6449, -18.3532, 42.9779, 42.608, 79.9959, -130.459
6.07971, 37, -38.2857, -18.3982, 42.9726, 42.7656, 80.0769, -130.205
6.09093, 38, -37.7362, -18.4588, 42.9516, 42.9879, 80.1954, -129.445
6.09564, 38, -37.5505, -18.4772, 42.9413, 43.0584, 80.2334, -129.192
6.10459, 38, -37.1756, -18.5115, 42.9158, 43.1936, 80.3088, -128.689
6.11165, 39, -36.7962, -18.5425, 42.8835, 43.3214, 80.3812, -128.186
6.11973, 39, -36.4122, -18.5697, 42.8444, 43.442, 80.4524, -127.686
6.13113, 40, -35.8259, -18.6034, 42.7736, 43.6091, 80.5551, -126.94
6.13569, 40, -35.6275, -18.6127, 42.7467, 43.6613, 80.5888, -126.692
6.14853, 41, -35.0235, -18.6347, 42.6561, 43.8066, 80.6854, -125.95
6.15213, 41, -34.8197, -18.6403, 42.6227, 43.8516, 80.717, -125.705
6.16326, 42, -34.2028, -18.6521, 42.5129, 43.9758, 80.8079, -124.971
6.16763, 42, -33.9956, -18.6544, 42.4732, 44.0137, 80.8373, -124.727
6.17638, 43, -33.5787, -18.6567, 42.3891, 44.0838, 80.8956, -124.242
6.18369, 43, -33.1571, -18.6555, 42.2991, 44.1471, 80.9509, -123.758
6.19265, 44, -32.7295, -18.6505, 42.2035, 44.2031, 81.0055, -123.278
6.19974, 44, -32.2954, -18.6418, 42.1021, 44.2516, 81.0584, -122.799
6.21174, 45, -31.6334, -18.6216, 41.9388, 44.3114, 81.1339, -122.086
6.21897, 46, -31.1876, -18.6039, 41.8224, 44.3417, 81.1829, -121.613
6.22416, 46, -30.964, -18.5937, 41.7619, 44.3539, 81.2063, -121.378
6.23511, 46, -30.2896, -18.5577, 41.5719, 44.3788, 81.2741, -120.676
6.23964, 47, -30.0629, -18.5435, 41.5057, 44.3835, 81.2966, -120.442
6.24864, 47, -29.605, -18.5118, 41.3687, 44.3878, 81.3404, -119.978
6.26068, 48, -28.9057, -18.4562, 41.1519, 44.3793, 81.4033, -119.284
6.26467, 48, -28.6697, -18.4355, 41.0765, 44.3721, 81.4242, -119.053
6.27321, 49, -28.1944, -18.3907, 40.9216, 44.3513, 81.466, -118.594
6.28069, 50, -27.7168, -18.3416, 40.7605, 44.3209, 81.5069, -118.136
6.28864, 50, -27.2365, -18.2877, 40.5929, 44.2807, 81.5474, -117.679
6.29579, 50, -26.7518, -18.2284, 40.4188, 44.2319, 81.5893, -117.223
6.30565, 51, -26.2599, -18.1635, 40.2383, 44.1732, 81.6318, -116.767
6.31176, 51, -25.7602, -18.0931, 40.051, 44.1046, 81.6741, -116.313
6.31993, 52, -25.2549, -18.0173, 39.856, 44.0262, 81.7175, -115.859
6.32783, 52, -24.7468, -17.9362, 39.6545, 43.9371, 81.7623, -115.406
6.33586, 53, -24.2366, -17.8496, 39.4469, 43.8381, 81.8069, -114.953
6.34642, 54, -23.7223, -17.757, 39.2315, 43.7289, 81.8527, -114.502
6.35198, 54, -23.201, -17.6581, 39.0087, 43.6091, 81.9011, -114.05
6.36063, 54, -22.6712, -17.553, 38.7796, 43.4786, 81.9507, -113.598
6.3683, 55, -22.135, -17.4418, 38.5427, 43.3365, 82.0024, -113.146
6.37731, 55, -21.5954, -17.3245, 38.2988, 43.1826, 82.0571, -112.694
6.38431, 56, -21.0534, -17.2014, 38.0486, 43.0171, 82.1127, -112.243
6.39492, 57, -20.5068, -17.0727, 37.7909, 42.8401, 82.1705, -111.792
6.40044, 57, -19.9516, -16.9386, 37.5269, 42.6516, 82.2302, -111.342
6.40995, 58, -19.387, -16.7985, 37.2561, 42.451, 82.2911, -110.891
6.41631, 58, -18.8161, -16.6525, 36.9788, 42.2379, 82.3547, -110.441
6.42437, 58, -18.2426, -16.5006, 36.6954, 42.0122, 82.4194, -109.992
6.43502, 59, -17.6666, -16.3437, 36.405, 41.7741, 82.4874, -109.542
6.44049, 60, -17.0838, -16.1825, 36.1087, 41.5234, 82.5569, -109.093
6.45099, 60, -16.4908, -16.0161, 35.8064, 41.26, 82.6291, -108.644
6.46097, 61, -15.5871, -15.7565, 35.3435, 40.8403, 82.7399, -107.971
6.4643, 61, -15.5871, -15.7565, 35.3435, 40.8403, 82.7399, -107.971
6.47376, 62, -14.6757, -15.4871, 34.8678, 40.392, 82.8554, -107.298
6.47969, 62, -14.3695, -15.395, 34.7064, 40.2362, 82.8951, -107.074
6.4876, 62, -13.7505, -15.2066, 34.3799, 39.9145, 82.9762, -106.625
6.49972, 63, -13.1211, -15.0115, 34.0487, 39.405, 83.1035, -105.951
6.50478, 63, -12.4836, -14.8102, 33.7117, 39.2275, 83.1929, -105.501
6.51381, 64, -11.5193, -14.4992, 33.1953, 38.6726, 83.2862, -105.05
6.51963, 64, -11.1953, -14.3923, 33.0201, 38.4803, 83.3345, -104.823
6.53061, 65, -10.2071, -14.0598, 32.4847, 37.8802, 83.4867, -104.142
6.53569, 65, -9.87242, -13.9456, 32.3036, 37.672, 83.5398, -103.914
6.54593, 66, -9.1968, -13.7123, 31.7528, 37.0234, 83.708, -103.227
6.55308, 66, -8.51548, -13.4719, 31.3784, 36.5706, 83.8273, -102.767
6.55961, 67, -7.82791, -13.2242, 31.1884, 36.338, 83.8894, -102.536
6.57077, 68, -6.77838, -12.8394, 30.6103, 35.6159, 84.0859, -101.839
6.57966, 68, -6.06833, -12.575, 30.2202, 35.1151, 84.2252, -101.371
6.58361, 68, -5.71097, -12.4406, 30.0236, 34.8596, 84.2973, -101.136
6.59264, 69, -4.992, -12.1658, 29.628, 34.3382, 84.4454, -100.666
6.60272, 70, -3.9, -11.738, 29.0298, 33.5324, 84.6786, -99.9565
6.60805, 70, -3.53174, -11.5918, 28.83, 33.2571, 84.7594, -99.7188
6.62057, 71, -2.41406, -11.1403, 28.2274, 32.4073, 85.013, -99.0029
6.62363, 71, -2.03736, -10.9857, 28.0246, 32.1161, 85.1015, -98.7635
6.63527, 72, -0.894461, -10.5115, 27.4105, 31.217, 85.3824, -98.0391
6.63965, 72, -0.509995, -10.3508, 27.2041, 30.9081, 85.481, -97.7961
6.64893, 73, 0.263054, -10.0247, 26.7897, 30.2785, 85.6853, -97.3076
6.65665, 73, 1.04077, -9.68978, 26.3742, 29.6378, 85.8972, -96.8167
6.66425, 74, 1.82279, -9.34725, 25.9593, 28.9876, 86.1162, -96.3248
6.67162, 74, 2.60694, -8.99968, 25.5473, 28.3312, 86.342, -95.8314
6.67978, 75, 3.39252, -8.64882, 25.14, 27.6698, 86.5735, -95.337
6.68765, 75, 4.18013, -8.29169, 24.7391, 27.005, 86.8096, -94.8423
6.69851, 76, 5.36659, -7.74533, 24.1494, 26.0087, 87.1727, -94.1001
6.70383, 76, 5.76285, -7.56051, 23.956, 25.6759, 87.2962, -93.8519
6.72031, 77, 7.35042, -6.80383, 23.1972, 24.3418, 87.8069, -92.8535
6.72347, 77, 7.74832, -6.60921, 23.0098, 24.0067, 87.9401, -92.6022
6.73647, 78, 8.94314, -6.01339, 22.4512, 22.9935, 88.357, -91.8442
6.73781, 78, 8.94314, -6.01339, 22.4512, 22.9935, 88.357, -91.8442
6.74357, 78, 9.73952, -5.60711, 22.0823, 22.3107, 88.6513, -91.3337
6.75149, 79, 10.5358, -5.19097, 21.7152, 21.6229, 88.9587, -90.819
6.7599, 79, 11.3305, -4.76492, 21.3503, 20.934, 89.2788, -90.3
6.76752, 80, 12.1215, -4.32963, 20.9895, 20.244, 89.6101, -89.7768
6.77582, 80, 12.907, -3.88519, 20.6338, 19.5585, 89.9523, -89.2484
6.78364, 81, 13.6868, -3.43244, 20.2844, 18.8823, 90.303, -88.7159
6.7916, 81, 14.4602, -2.97224, 19.9426, 18.2187, 90.6607, -88.1796
6.79964, 82, 15.2249, -2.50413, 19.6109, 17.5698, 91.0234, -87.6413
6.80764, 82, 15.9803, -2.02848, 19.2895, 16.9363, 91.3916, -87.1004
6.81554, 83, 16.7252, -1.54548, 18.9779, 16.3205, 91.7647, -86.5577
6.82354, 83, 17.4582, -1.05605, 18.6758, 15.7233, 92.1435, -86.0133
6.83237, 84, 18.1764, -0.5614, 18.382, 15.1425, 92.5287, -85.4685
6.83952, 84, 18.8775, -0.0625935, 18.0958, 14.5806, 92.9221, -84.9224
6.84846, 85, 19.5616, 0.440859, 17.8147, 14.0371, 93.3241, -84.3759
6.85567, 85, 20.2284, 0.949476, 17.5395, 13.5133, 93.7347, -83.8301
6.86471, 86, 20.8783, 1.4629, 17.2696, 13.0108, 94.1512, -83.2859
6.87186, 86, 21.5125, 1.98176, 17.0059, 12.5299, 94.5724, -82.7422
6.88069, 86, 22.1332, 2.50835, 16.7492, 12.0717, 94.9983, -82.1977
6.8879, 87, 22.7422, 3.04487, 16.4979, 11.6348, 95.4294, -81.6505
6.89682, 87, 23.3417, 3.5908, 16.2519, 11.2178, 95.8662, -81.1
6.904, 88, 23.9317, 4.14403, 16.0099, 10.8176, 96.3092, -80.5428
6.9128, 88, 24.5116, 4.70535, 15.772, 10.4336, 96.7579, -79.9772
6.92045, 89, 25.0798, 5.27734, 15.5403, 10.0645, 97.2135, -79.4016
6.92891, 89, 25.6379, 5.8601, 15.313, 9.71092, 97.6753, -78.8148
6.93636, 90, 26.1901, 6.45289, 15.0887, 9.37221, 98.1434, -78.2151
6.9449, 90, 26.4637, 6.75249, 14.9781, 9.20842, 98.3799, -77.9099
6.95234, 91, 27.0026, 7.66379, 14.6544, 8.74256, 99.0989, -76.9738
6.95956, 91, 27.5276, 7.97228, 14.5488, 8.59631, 99.3418, -76.6559
6.96743, 92, 28.0405, 8.59732, 14.3405, 8.31875, 99.8315, -76.0106
6.97546, 92, 28.5449, 9.23304, 14.1367, 8.06285, 100.326, -75.3546
6.98351, 93, 29.0424, 9.8782, 13.938, 7.82873, 100.823, -74.6908
6.99147, 93, 29.5291, 10.5305, 13.7454, 7.61794, 101.322, -74.0205
6.99948, 94, 30.0026, 11.1878, 13.5609, 7.43057, 101.821, -73.3429
7.00746, 94, 30.4616, 11.8487, 13.3838, 7.26675, 102.318, -72.6593
7.01548, 95, 30.9067, 12.5123, 13.2133, 7.1267, 102.812, -71.9717
7.02347, 95, 31.3378, 13.1778, 13.0507, 7.01043, 103.303, -71.2779
7.03157, 96, 31.7553, 13.8451, 12.8958, 6.91748, 103.79, -70.5785
7.03949, 96, 32.1578, 14.5134, 12.7476, 6.84864, 104.274, -69.8748
7.04745, 97, 32.5441, 15.1821, 12.6058, 6.80345, 104.754, -69.165
7.05553, 97, 32.9143, 15.8502, 12.4711, 6.77936, 105.228, -68.4491
7.06344, 98, 33.2686, 16.5165, 12.3443, 6.7769, 105.696, -67.7305
7.07246, 98, 33.608, 17.18, 12.2262, 6.7967, 106.157, -67.0086
7.07949, 99, 33.9332, 17.8385, 12.1171, 6.83637, 106.608, -66.2841
7.08853, 99, 34.2451, 18.4904, 12.0173, 6.89604, 107.048, -65.5614
7.09543, 100, 34.5456, 19.1343, 11.9268, 6.97415, 107.476, -64.8403
7.10354, 100, 34.8349, 19.7697, 11.8453, 7.0696, 107.891, -64.1218
7.11143, 101, 35.1122, 20.3949, 11.7724, 7.18164, 108.291, -63.4096
7.11946, 101, 35.3774, 21.0093, 11.7077, 7.30897, 108.676, -62.704
7.12771, 102, 35.631, 21.6122, 11.6515, 7.45004, 109.045, -62.0059
7.13546, 102, 35.8715, 22.2022, 11.6037, 7.60295, 109.397, -61.3187
7.14353, 102, 36.0989, 22.779, 11.5644, 7.76569, 109.731, -60.6436
7.15146, 103, 36.3166, 23.3405, 11.5339, 7.93677, 110.048, -59.9803
7.15945, 103, 36.5277, 23.8865, 11.5122, 8.11566, 110.347, -59.3298
7.16754, 104, 36.7323, 24.4172, 11.4997, 8.30295, 110.627, -58.6935
7.17547, 104, 36.9299, 24.9321, 11.4947, 8.49895, 110.889, -58.0686
7.18347, 104, 37.1222, 25.4304, 11.4963, 8.70385, 111.131, -57.455
7.19153, 104, 37.3077, 25.9133, 11.5042, 8.91663, 111.353, -56.8535
7.19952, 104, 37.4835, 26.3799, 11.5166, 9.13575, 111.557, -56.265
7.20749, 104, 37.6489, 26.8302, 11.5318, 9.35924, 111.745, -55.6905
7.21554, 104, 37.8072, 27.2654, 11.5496, 9.58405, 111.919, -55.1333
7.22346, 104, 37.9615, 27.6848, 11.5696, 9.8077, 112.081, -54.5965
7.23147, 104, 38.112, 28.0883, 11.5902, 10.0278, 112.233, -54.0824
7.23954, 104, 38.2572, 28.4749, 11.6107, 10.243, 112.377, -53.5908
7.24747, 104, 38.3961, 28.8451, 11.6301, 10.452, 112.513, -53.1236
7.25547, 104, 38.5281, 29.1972, 11.6484, 10.654, 112.641, -52.6805
7.26356, 104, 38.652, 29.5315, 11.6658, 10.8479, 112.761, -52.2624
7.27151, 104, 38.7674, 29.8463, 11.6818, 11.0332, 112.874, -51.8696
7.27961, 104, 38.8744, 30.1425, 11.6967, 11.2091, 112.978, -51.5011
7.28762, 104, 38.9736, 30.4199, 11.7108, 11.3752, 113.076, -51.1584
7.29558, 104, 39.0651, 30.6774, 11.7236, 11.5309, 113.165, -50.8412
7.30363, 104, 39.1489, 30.9155, 11.7351, 11.676, 113.248, -50.5488
7.31157, 104, 39.2248, 31.1341, 11.7456, 11.8097, 113.323, -50.282
7.31947, 104, 39.2926, 31.3325, 11.7553, 11.9319, 113.391, -50.0402
7.3277, 104, 39.3526, 31.5114, 11.7642, 12.0423, 113.451, -49.8238
7.33549, 104, 39.4052, 31.671, 11.7719, 12.1406, 113.505, -49.6324
7.34355, 104, 39.4513, 31.8112, 11.7789, 12.2269, 113.551, -49.466
7.35164, 104, 39.4917, 31.9334, 11.7852, 12.3007, 113.59, -49.324
7.35986, 104, 39.5263, 32.0384, 11.7909, 12.3632, 113.623, -49.2055
7.36787, 104, 39.5548, 32.1269, 11.7959, 12.4138, 113.65, -49.1093
7.37584, 104, 39.5781, 32.2002, 11.8004, 12.4533, 113.671, -49.0333
7.38383, 104, 39.5966, 32.2603, 11.8045, 12.4835, 113.686, -48.9761
7.39195, 104, 39.6108, 32.3085, 11.8082, 12.5059, 113.697, -48.9347
7.40056, 104, 39.6218, 32.3462, 11.8116, 12.5218, 113.704, -48.9062
7.40842, 104, 39.6302, 32.3743, 11.8146, 12.5324, 113.709, -48.8877
7.41624, 104, 39.6362, 32.3955, 11.8172, 12.5391, 113.711, -48.8766
7.42405, 104, 39.6399, 32.4109, 11.8194, 12.5429, 113.713, -48.8707
7.43206, 104, 39.6421, 32.4214, 11.8211, 12.5449, 113.713, -48.8679
7.44042, 105, 39.6431, 32.4279, 11.8223, 12.5458, 113.714, -48.8666
7.44817, 105, 39.6432, 32.4321, 11.8234, 12.5463, 113.714, -48.8661
7.45545, 105, 39.6426, 32.4336, 11.8238, 12.5464, 113.714, -48.8661
7.46347, 105, 39.6416, 32.436, 11.8246, 12.5466, 113.714, -48.8662
7.47153, 105, 39.6407, 32.4377, 11.8253, 12.5467, 113.714, -48.8665
7.47944, 105, 39.6397, 32.4391, 11.8259, 12.5467, 113.714, -48.8667
7.48752, 105, 39.6385, 32.4404, 11.8265, 12.5468, 113.714, -48.8671
7.4955, 105, 39.6375, 32.4416, 11.827, 12.5468, 113.714, -48.8674
7.50345, 105, 39.637, 32.4427, 11.8276, 12.5468, 113.714, -48.8677
7.51145, 105, 39.6367, 32.4437, 11.8282, 12.5468, 113.714, -48.8681
7.52087, 105, 39.6363, 32.4452, 11.829, 12.5468, 113.714, -48.8685
7.52752, 105, 39.6362, 32.4456, 11.8292, 12.5468, 113.714, -48.8686
7.53551, 105, 39.6359, 32.4463, 11.8296, 12.5468, 113.714, -48.8689
7.5435, 105, 39.6356, 32.4467, 11.8298, 12.5468, 113.714, -48.8691
7.55144, 105, 39.6353, 32.447, 11.8301, 12.5468, 113.714, -48.8693
7.55945, 105, 39.6351, 32.4472, 11.8303, 12.5468, 113.714, -48.8695
