hehonglu123/Motion-Primitive-Planning/ILC/recorded_data/realrobot/from_NX/iteration_10/run_0.csv
timestamp, cmd_num, J1, J2, J3, J4, J5, J6
0.00042, -1, 39.6297, 32.4456, 11.832, 12.5455, 113.713, -48.8722
0.00647, -1, 39.6297, 32.4456, 11.832, 12.5455, 113.713, -48.8722
0.009164, -1, 39.6297, 32.4456, 11.832, 12.5455, 113.713, -48.8722
0.030644, -1, 39.6297, 32.4456, 11.832, 12.5456, 113.713, -48.8722
0.03487, -1, 39.6297, 32.4456, 11.832, 12.5456, 113.713, -48.8722
0.036922, -1, 39.6297, 32.4456, 11.832, 12.5456, 113.713, -48.8722
0.040146, -1, 39.6297, 32.4456, 11.832, 12.5455, 113.713, -48.8722
0.047016, -1, 39.6297, 32.4456, 11.832, 12.5455, 113.713, -48.8722
0.056077, -1, 39.6293, 32.4455, 11.832, 12.5455, 113.713, -48.8722
0.063069, -1, 39.6285, 32.4454, 11.832, 12.5455, 113.713, -48.8722
0.073167, -1, 39.6218, 32.444, 11.8319, 12.5455, 113.713, -48.8724
0.080439, -1, 39.6131, 32.4411, 11.8317, 12.5455, 113.712, -48.8734
0.087011, -1, 39.6072, 32.4389, 11.8316, 12.5455, 113.712, -48.8748
0.096553, -1, 39.5802, 32.4275, 11.8314, 12.5455, 113.707, -48.8889
0.104576, -1, 39.5517, 32.4149, 11.8318, 12.5455, 113.701, -48.9092
0.112598, -1, 39.5133, 32.3974, 11.8335, 12.5455, 113.688, -48.9426
0.120789, -1, 39.4639, 32.3737, 11.838, 12.5455, 113.67, -48.9929
0.128634, -1, 39.4019, 32.3433, 11.846, 12.5456, 113.642, -49.0644
0.136665, -1, 39.3659, 32.3055, 11.8584, 12.5458, 113.605, -49.1586
0.144019, -1, 39.2837, 32.2837, 11.8665, 12.546, 113.583, -49.2152
0.152028, -1, 39.1877, 32.234, 11.8864, 12.5467, 113.531, -49.3478
0.160713, -1, 39.0776, 32.1765, 11.9108, 12.5479, 113.469, -49.5056
0.168067, -1, 38.9536, 32.1112, 11.9394, 12.5495, 113.397, -49.6872
0.176049, -1, 38.8168, 32.0389, 11.9715, 12.5514, 113.317, -49.8898
0.184069, -1, 38.6681, 31.9604, 12.0066, 12.5535, 113.23, -50.1102
0.192061, -1, 38.5086, 31.8763, 12.0435, 12.5558, 113.137, -50.3444
0.200097, -1, 38.3401, 31.7879, 12.0817, 12.5582, 113.041, -50.5888
0.208069, -1, 38.1646, 31.6959, 12.1206, 12.5606, 112.941, -50.8401
0.216018, -1, 37.9834, 31.6015, 12.1595, 12.563, 112.84, -51.0954
0.224249, -1, 37.7977, 31.5052, 12.1982, 12.5655, 112.739, -51.3533
0.232077, -1, 37.6086, 31.4077, 12.237, 12.5679, 112.636, -51.6124
0.2401, -1, 37.4176, 31.3097, 12.2757, 12.5703, 112.534, -51.8721
0.249393, -1, 37.2257, 31.2118, 12.3145, 12.5728, 112.431, -52.1317
0.256012, -1, 37.0335, 31.1139, 12.3532, 12.5753, 112.328, -52.3917
0.26402, -1, 36.8414, 31.0161, 12.392, 12.5779, 112.225, -52.6519
0.273026, -1, 36.6496, 30.9183, 12.4308, 12.5803, 112.122, -52.9124
0.280082, -1, 36.458, 30.8206, 12.4697, 12.5829, 112.019, -53.1727
0.288019, -1, 36.2664, 30.7227, 12.5085, 12.5855, 111.916, -53.4331
0.296812, -1, 36.0749, 30.6248, 12.5474, 12.5879, 111.813, -53.6936
0.303073, -1, 35.8835, 30.5268, 12.5863, 12.5904, 111.71, -53.9544
0.312024, -1, 35.6918, 30.4287, 12.6253, 12.593, 111.607, -54.2148
0.320888, -1, 35.4998, 30.3306, 12.6642, 12.5954, 111.504, -54.4752
0.328038, -1, 35.3076, 30.2322, 12.703, 12.598, 111.401, -54.7356
0.336082, -1, 35.1151, 30.1339, 12.7419, 12.6005, 111.298, -54.9964
0.34305, -1, 34.9227, 30.0355, 12.7809, 12.603, 111.195, -55.2572
0.352017, -1, 34.7304, 29.937, 12.8198, 12.6056, 111.092, -55.5177
0.360136, -1, 34.5382, 29.8385, 12.8587, 12.608, 110.989, -55.7786
0.503659, -1, 31.0664, 28.0649, 13.5608, 12.6557, 109.134, -60.4786
0.505225, -1, 31.0664, 28.0649, 13.5608, 12.6557, 109.134, -60.4786
0.506449, -1, 31.0664, 28.0649, 13.5608, 12.6557, 109.134, -60.4786
0.508528, -1, 30.9702, 28.0156, 13.5804, 12.6571, 109.082, -60.6094
0.509736, -1, 30.9702, 28.0156, 13.5804, 12.6571, 109.082, -60.6094
0.511597, -1, 30.9702, 28.0156, 13.5804, 12.6571, 109.03, -60.7401
0.51389, -1, 30.8741, 27.9663, 13.5999, 12.6584, 109.03, -60.7401
0.517189, -1, 30.778, 27.917, 13.6194, 12.6598, 108.979, -60.8707
0.518435, -1, 30.778, 27.917, 13.6194, 12.6598, 108.979, -60.8707
0.5212, -1, 30.6821, 27.8678, 13.6389, 12.6612, 108.927, -61.0013
0.522427, -1, 30.6821, 27.8678, 13.6389, 12.6612, 108.927, -61.0013
0.524506, -1, 30.5861, 27.8185, 13.6585, 12.6626, 108.876, -61.1319
0.525874, -1, 30.5861, 27.8185, 13.6585, 12.6626, 108.876, -61.1319
0.527665, -1, 30.5861, 27.8185, 13.6585, 12.6626, 108.876, -61.2626
0.529144, -1, 30.4901, 27.7692, 13.678, 12.664, 108.824, -61.2626
0.530711, -1, 30.4901, 27.7692, 13.678, 12.664, 108.824, -61.2626
0.532954, -1, 30.3941, 27.7198, 13.6975, 12.6654, 108.772, -61.3933
0.53421, -1, 30.3941, 27.7198, 13.6975, 12.6654, 108.772, -61.3933
0.537095, -1, 30.2981, 27.6704, 13.717, 12.6667, 108.721, -61.5241
0.538454, -1, 30.2981, 27.6704, 13.717, 12.6667, 108.721, -61.5241
0.540494, -1, 30.202, 27.621, 13.7365, 12.668, 108.669, -61.655
0.54183, -1, 30.202, 27.621, 13.7365, 12.668, 108.669, -61.655
0.548972, -1, 30.0096, 27.5223, 13.7756, 12.6708, 108.566, -61.9167
0.552162, -1, 29.9132, 27.473, 13.7951, 12.6721, 108.514, -62.0473
0.559076, -1, 29.8168, 27.4236, 13.8146, 12.6735, 108.463, -62.1781
0.567016, -1, 29.6235, 27.3249, 13.8535, 12.6761, 108.36, -62.4398
0.575029, -1, 29.4296, 27.2261, 13.8925, 12.6787, 108.256, -62.7017
0.58453, -1, 29.1382, 27.0779, 13.951, 12.6825, 108.101, -63.0943
0.593273, -1, 28.9438, 26.9791, 13.9901, 12.685, 107.998, -63.3557
0.599052, -1, 28.8467, 26.9296, 14.0096, 12.6863, 107.946, -63.4865
0.608664, -1, 28.5555, 26.7814, 14.0681, 12.69, 107.791, -63.8789
0.617189, -1, 28.3616, 26.6827, 14.1072, 12.6926, 107.688, -64.1408
0.623079, -1, 28.2648, 26.6333, 14.1267, 12.6938, 107.636, -64.2714
0.632857, -1, 27.9752, 26.4851, 14.1852, 12.6975, 107.481, -64.6639
0.640643, -1, 27.8788, 26.4357, 14.2243, 12.6999, 107.378, -64.9258
0.648013, -1, 27.6862, 26.3368, 14.2438, 12.7011, 107.326, -65.0568
0.656056, -1, 27.4939, 26.2379, 14.2827, 12.7036, 107.223, -65.3184
0.791796, -1, 24.2089, 24.5579, 14.9458, 12.7429, 105.468, -69.7674
0.793023, -1, 24.2089, 24.5579, 14.9458, 12.7429, 105.468, -69.7674
0.795224, -1, 24.1126, 24.5085, 14.9653, 12.744, 105.416, -69.8981
0.796437, -1, 24.1126, 24.5085, 14.9653, 12.744, 105.416, -69.8981
0.799316, -1, 24.0163, 24.4591, 14.9848, 12.7451, 105.364, -70.0288
0.800626, -1, 24.0163, 24.4591, 14.9848, 12.7451, 105.364, -70.0288
0.803405, -1, 23.9199, 24.4097, 15.0043, 12.7463, 105.313, -70.1596
0.808995, -1, 23.8235, 24.3603, 15.0238, 12.7476, 105.261, -70.2905
0.811106, -1, 23.727, 24.3109, 15.0432, 12.7488, 105.209, -70.4213
0.812321, -1, 23.727, 24.3109, 15.0432, 12.7488, 105.209, -70.4213
0.814224, -1, 23.6305, 24.2615, 15.0627, 12.75, 105.157, -70.5522
0.815581, -1, 23.6305, 24.2615, 15.0627, 12.75, 105.157, -70.5522
0.816859, -1, 23.6305, 24.2615, 15.0627, 12.75, 105.157, -70.5522
0.818849, -1, 23.5339, 24.2121, 15.0822, 12.7512, 105.106, -70.6832
0.820251, -1, 23.5339, 24.2121, 15.0822, 12.7512, 105.106, -70.6832
0.823106, -1, 23.4372, 24.1627, 15.1017, 12.7523, 105.054, -70.814
0.82437, -1, 23.4372, 24.1627, 15.1017, 12.7523, 105.054, -70.814
0.826389, -1, 23.4372, 24.1132, 15.1212, 12.7535, 105.002, -70.9448
0.828574, -1, 23.3404, 24.1132, 15.1212, 12.7535, 105.002, -70.9448
0.830478, -1, 23.2435, 24.0638, 15.1406, 12.7548, 104.951, -71.0757
0.831924, -1, 23.2435, 24.0638, 15.1406, 12.7548, 104.951, -71.0757
0.833144, -1, 23.2435, 24.0638, 15.1406, 12.7548, 104.951, -71.0757
0.842393, -1, 22.9526, 23.9155, 15.199, 12.7584, 104.796, -71.4685
0.847305, -1, 22.8556, 23.8661, 15.2185, 12.7597, 104.744, -71.5996
0.855086, -1, 22.6617, 23.7673, 15.2575, 12.7621, 104.641, -71.8614
0.863107, -1, 22.4678, 23.6687, 15.2965, 12.7646, 104.537, -72.1228
0.872005, -1, 22.2745, 23.57, 15.3355, 12.7671, 104.434, -72.3841
0.880118, -1, 22.0813, 23.4713, 15.3744, 12.7697, 104.33, -72.6457
0.8871, -1, 21.8883, 23.3726, 15.4134, 12.7722, 104.227, -72.9075
0.896002, -1, 21.6958, 23.2739, 15.4524, 12.7749, 104.124, -73.1687
0.904125, -1, 21.5037, 23.175, 15.4913, 12.7776, 104.021, -73.4301
0.911026, -1, 21.3114, 23.0763, 15.5303, 12.7803, 103.918, -73.6916
0.919779, -1, 21.119, 22.9776, 15.5693, 12.783, 103.815, -73.9532
0.928067, -1, 20.9266, 22.879, 15.6082, 12.7856, 103.712, -74.2145
0.93599, -1, 20.7341, 22.7804, 15.6472, 12.7883, 103.608, -74.4756
0.944082, -1, 20.5414, 22.6818, 15.6861, 12.7911, 103.505, -74.7368
0.951998, -1, 20.3483, 22.5832, 15.7249, 12.7938, 103.402, -74.9982
0.960051, -1, 20.1546, 22.4845, 15.7639, 12.7965, 103.299, -75.2596
0.968097, -1, 19.9609, 22.3858, 15.8028, 12.7992, 103.196, -75.5207
0.975515, -1, 19.7672, 22.2871, 15.8415, 12.802, 103.093, -75.7818
0.984091, -1, 19.5736, 22.1885, 15.8805, 12.8047, 102.99, -76.0431
0.992151, -1, 19.3802, 22.0899, 15.9194, 12.8074, 102.887, -76.3044
0.99959, -1, 19.1873, 21.9912, 15.9582, 12.8101, 102.784, -76.5652
1.0081, -1, 18.9944, 21.8926, 15.9972, 12.8129, 102.681, -76.826
1.01563, -1, 18.8981, 21.8433, 16.0166, 12.8155, 102.578, -77.0869
1.024, -1, 18.6098, 21.6952, 16.0747, 12.8183, 102.475, -77.3479
1.03104, -1, 18.5139, 21.6459, 16.0942, 12.8196, 102.424, -77.4784
1.04016, -1, 18.2262, 21.4981, 16.1525, 12.8236, 102.27, -77.8693
1.04699, -1, 18.1302, 21.4489, 16.1719, 12.8249, 102.218, -77.9996
1.05617, -1, 17.8423, 21.3013, 16.2303, 12.8287, 102.064, -78.391
1.06302, -1, 17.7463, 21.2521, 16.2497, 12.8299, 102.012, -78.5213
1.0723, -1, 17.4579, 21.1047, 16.3079, 12.8337, 101.858, -78.912
1.07899, -1, 17.3615, 21.0556, 16.3274, 12.8349, 101.806, -79.0422
1.08839, -1, 17.072, 20.9082, 16.3856, 12.8385, 101.652, -79.4331
1.09506, -1, 16.9754, 20.859, 16.405, 12.8397, 101.6, -79.5635
1.10459, -1, 16.6857, 20.7117, 16.4632, 12.8432, 101.446, -79.9541
1.11256, -1, 16.4927, 20.6135, 16.5019, 12.8456, 101.344, -80.2147
1.12056, -1, 16.2999, 20.5152, 16.5406, 12.8479, 101.241, -80.4753
1.12862, -1, 16.1076, 20.4169, 16.5794, 12.8502, 101.138, -80.7359
1.13664, -1, 16.0116, 20.3677, 16.6181, 12.8525, 101.036, -80.9959
1.14455, -1, 15.8198, 20.2692, 16.6375, 12.8536, 100.984, -81.2561
1.1526, -1, 15.6282, 20.1707, 16.6762, 12.856, 100.882, -81.3862
1.15998, -1, 15.4371, 20.0724, 16.7147, 12.8583, 100.779, -81.6463
1.168, -1, 15.246, 19.9741, 16.7535, 12.8606, 100.677, -81.9064
1.17605, -1, 15.0548, 19.8759, 16.7923, 12.8628, 100.574, -82.166
1.18399, -1, 14.8636, 19.7777, 16.8309, 12.8652, 100.472, -82.4259
1.19198, -1, 14.6722, 19.6796, 16.8697, 12.8675, 100.369, -82.6858
1.19999, -1, 14.4805, 19.5815, 16.9084, 12.8698, 100.266, -82.9459
1.20798, -1, 14.2884, 19.4834, 16.947, 12.8721, 100.164, -83.2056
1.21606, -1, 14.0961, 19.3854, 16.9858, 12.8743, 100.061, -83.465
1.22399, -1, 13.9037, 19.2875, 17.0244, 12.8766, 99.9585, -83.7246
1.23199, -1, 13.7112, 19.1896, 17.0629, 12.8789, 99.8562, -83.9843
1.24011, -1, 13.5187, 19.0918, 17.1017, 12.8812, 99.7536, -84.2436
1.248, -1, 13.3265, 18.9938, 17.1403, 12.8835, 99.6512, -84.5029
1.25598, -1, 13.1348, 18.896, 17.1788, 12.8859, 99.549, -84.7621
1.26405, -1, 12.9434, 18.798, 17.2175, 12.8882, 99.4464, -85.0216
1.27198, -1, 12.7522, 18.7, 17.2561, 12.8906, 99.344, -85.2807
1.28098, -1, 12.5614, 18.6021, 17.2945, 12.893, 99.2419, -85.5396
1.28805, -1, 12.371, 18.5044, 17.3331, 12.8955, 99.1396, -85.7985
1.29598, -1, 12.181, 18.4067, 17.3716, 12.8979, 99.0374, -86.0576
1.30398, -1, 11.9907, 18.309, 17.4102, 12.9002, 98.9354, -86.3165
1.31243, -1, 11.8003, 18.2114, 17.4488, 12.9026, 98.8333, -86.575
1.31998, -1, 11.6097, 18.1138, 17.4874, 12.9051, 98.7316, -86.8336
1.32798, -1, 11.4188, 18.0162, 17.5259, 12.9075, 98.6296, -87.0923
1.33681, -1, 11.2276, 17.9186, 17.5645, 12.9099, 98.5276, -87.351
1.34309, -1, 11.0362, 17.8211, 17.603, 12.9124, 98.4258, -87.6093
1.35205, -1, 10.8446, 17.7237, 17.6415, 12.9149, 98.3238, -87.8675
1.36077, -1, 10.6529, 17.6262, 17.6799, 12.9174, 98.2218, -88.1257
1.36798, -1, 10.4614, 17.5287, 17.7183, 12.9199, 98.1202, -88.3842
1.37604, -1, 10.2702, 17.4311, 17.7568, 12.9224, 98.0182, -88.6423
1.38477, -1, 10.0794, 17.3336, 17.7952, 12.925, 97.9162, -88.9003
1.39199, -1, 9.88903, 17.236, 17.8335, 12.9277, 97.8146, -89.1584
1.40004, -1, 9.69891, 17.1385, 17.8718, 12.9303, 97.7125, -89.4165
1.40884, -1, 9.50925, 17.041, 17.9102, 12.9331, 97.6105, -89.6746
1.416, -1, 9.31994, 16.9437, 17.9485, 12.9358, 97.5088, -89.9321
1.42404, -1, 9.13067, 16.8464, 17.987, 12.9385, 97.4068, -90.1897
1.43279, -1, 8.94133, 16.7493, 18.0253, 12.9411, 97.3049, -90.4473
1.43998, -1, 8.7518, 16.6521, 18.0636, 12.9438, 97.2034, -90.7049
1.44805, -1, 8.56223, 16.5549, 18.1021, 12.9464, 97.1017, -90.962
1.4567, -1, 8.37243, 16.4578, 18.1404, 12.9492, 97.0002, -91.2192
1.46415, -1, 8.1822, 16.3609, 18.1787, 12.9518, 96.8987, -91.4764
1.47146, -1, 7.99164, 16.264, 18.2171, 12.9544, 96.7971, -91.7337
1.48079, -1, 7.8011, 16.1672, 18.2554, 12.9571, 96.6957, -91.9906
1.48813, -1, 7.61048, 16.0702, 18.2936, 12.9597, 96.5941, -92.2472
1.49551, -1, 7.42, 15.9733, 18.332, 12.9622, 96.4927, -92.5039
1.50481, -1, 7.22985, 15.8764, 18.3701, 12.9648, 96.3916, -92.7608
1.51216, -1, 7.04002, 15.7793, 18.4083, 12.9674, 96.2902, -93.0175
1.51953, -1, 6.94525, 15.7308, 18.4275, 12.9687, 96.1889, -93.2739
1.52879, -1, 6.66162, 15.5855, 18.4847, 12.9724, 96.0882, -93.5302
1.53608, -1, 6.47318, 15.4888, 18.5228, 12.975, 95.9871, -93.7866
1.54298, -1, 6.37903, 15.4404, 18.5419, 12.9762, 95.9366, -93.9148
1.55304, -1, 6.09689, 15.2953, 18.5991, 12.9799, 95.7853, -94.299
1.55897, -1, 6.0028, 15.247, 18.6182, 12.9811, 95.7348, -94.4269
1.56816, -1, 5.72027, 15.102, 18.6755, 12.9846, 95.5833, -94.8107
1.57497, -1, 5.62605, 15.0536, 18.6945, 12.9858, 95.5329, -94.9388
1.58429, -1, 5.34302, 14.9088, 18.7516, 12.9893, 95.3818, -95.3224
1.59102, -1, 5.24847, 14.8606, 18.7708, 12.9904, 95.3314, -95.4501
1.6016, -1, 4.96441, 14.7161, 18.8278, 12.9938, 95.1805, -95.8333
1.60857, -1, 4.775, 14.6197, 18.8658, 12.9961, 95.0796, -96.0889
1.61663, -1, 4.5855, 14.5233, 18.9039, 12.9983, 94.9788, -96.3442
1.6246, -1, 4.39639, 14.427, 18.9419, 13.0005, 94.8782, -96.599
1.63254, -1, 4.20747, 14.3305, 18.9799, 13.0026, 94.7773, -96.8539
1.64057, -1, 4.11307, 14.2823, 18.9989, 13.0049, 94.6765, -97.1089
1.64879, -1, 3.9247, 14.186, 19.0368, 13.0072, 94.5757, -97.3641
1.65596, -1, 3.73694, 14.0898, 19.0747, 13.0083, 94.5253, -97.4914
1.66402, -1, 3.54963, 13.9936, 19.1127, 13.0106, 94.4246, -97.7461
1.67097, -1, 3.36264, 13.8975, 19.1506, 13.013, 94.3241, -98.0008
1.67997, -1, 3.1756, 13.8015, 19.1884, 13.0152, 94.2233, -98.2556
1.68797, -1, 2.98869, 13.7055, 19.2263, 13.0174, 94.1226, -98.5102
1.69496, -1, 2.80169, 13.6095, 19.2642, 13.0198, 94.0221, -98.7645
1.70398, -1, 2.61443, 13.5135, 19.3021, 13.022, 93.9215, -99.0186
1.71197, -1, 2.42709, 13.4176, 19.3399, 13.0243, 93.8211, -99.2728
1.71898, -1, 2.23952, 13.3218, 19.3777, 13.0265, 93.7209, -99.527
1.72796, -1, 2.05144, 13.226, 19.4156, 13.0287, 93.6206, -99.7807
1.73597, -1, 1.86328, 13.1301, 19.4534, 13.031, 93.5205, -100.034
1.74297, -1, 1.67508, 13.0343, 19.4911, 13.0333, 93.4206, -100.288
1.75097, -1, 1.48688, 12.9384, 19.5289, 13.0354, 93.3204, -100.542
1.75996, -1, 1.29892, 12.8426, 19.5667, 13.0378, 93.2204, -100.795
1.76697, -1, 1.1113, 12.7468, 19.6044, 13.0401, 93.1204, -101.048
1.77596, -1, 0.924241, 12.6511, 19.6421, 13.0426, 93.0204, -101.301
1.78397, -1, 0.737712, 12.5556, 19.6798, 13.0449, 92.9206, -101.554
1.79204, -1, 0.551573, 12.46, 19.7174, 13.0473, 92.8208, -101.807
1.79996, -1, 0.36585, 12.3647, 19.7551, 13.0497, 92.721, -102.06
1.80797, -1, 0.180332, 12.2693, 19.7928, 13.0522, 92.6217, -102.313
1.81603, -1, -0.00511469, 12.174, 19.8303, 13.0546, 92.5221, -102.565
1.82398, -1, -0.190645, 12.0787, 19.868, 13.0571, 92.4225, -102.818
1.83196, -1, -0.376374, 11.9835, 19.9056, 13.0595, 92.3231, -103.07
1.84, -1, -0.562438, 11.8883, 19.9431, 13.062, 92.2236, -103.322
1.84797, -1, -0.748833, 11.7933, 19.9807, 13.0645, 92.1241, -103.574
1.85602, -1, -0.935364, 11.6983, 20.0182, 13.0669, 92.0248, -103.826
1.86397, -1, -1.12215, 11.6032, 20.0556, 13.0694, 91.9254, -104.078
1.87197, -1, -1.30917, 11.5081, 20.0932, 13.072, 91.8261, -104.33
1.88004, -1, -1.49599, 11.413, 20.1307, 13.0745, 91.7271, -104.581
1.88796, -1, -1.68259, 11.3179, 20.1681, 13.0771, 91.6278, -104.833
1.89596, -1, -1.8688, 11.2228, 20.2055, 13.0797, 91.5285, -105.085
1.90403, -1, -2.05451, 11.1279, 20.243, 13.0824, 91.4295, -105.336
1.91203, -1, -2.23956, 11.033, 20.2804, 13.085, 91.3302, -105.586
1.91999, -1, -2.42435, 10.9381, 20.3178, 13.0877, 91.2311, -105.837
1.92803, -1, -2.6088, 10.8434, 20.3551, 13.0903, 91.1321, -106.088
1.93596, -1, -2.79272, 10.7486, 20.3923, 13.093, 91.033, -106.339
1.94396, -1, -2.97667, 10.6538, 20.4297, 13.0956, 90.9338, -106.59
1.95203, -1, -3.16073, 10.5592, 20.4671, 13.0982, 90.8351, -106.841
1.95998, -1, -3.34502, 10.4646, 20.5043, 13.1008, 90.7361, -107.091
1.96804, -1, -3.52966, 10.3701, 20.5416, 13.1033, 90.6372, -107.342
1.97601, -1, -3.71444, 10.2758, 20.5788, 13.1059, 90.5386, -107.592
1.98404, -1, -3.89956, 10.1814, 20.6161, 13.1084, 90.4396, -107.842
1.99212, -1, -4.08486, 10.087, 20.6533, 13.1108, 90.341, -108.092
1.9995, -1, -4.27042, 9.99277, 20.6905, 13.1133, 90.2425, -108.342
2.00809, -1, -4.45604, 9.89842, 20.7276, 13.1156, 90.1437, -108.592
2.01608, -1, -4.64135, 9.80406, 20.765, 13.118, 90.0452, -108.841
2.02363, -1, -4.73386, 9.75695, 20.7836, 13.1203, 89.9469, -109.091
2.03209, -1, -5.01079, 9.61579, 20.8392, 13.1227, 89.8483, -109.34
2.03898, -1, -5.10273, 9.56877, 20.8577, 13.1238, 89.799, -109.465
2.048, -1, -5.37788, 9.4277, 20.9135, 13.1273, 89.6516, -109.838
2.05617, -1, -5.56083, 9.33381, 20.9505, 13.1296, 89.5531, -110.087
2.06297, -1, -5.6521, 9.28686, 20.9691, 13.1308, 89.504, -110.212
2.07221, -1, -5.92559, 9.14599, 21.0247, 13.1342, 89.3569, -110.585
2.07894, -1, -6.01677, 9.09907, 21.0432, 13.1353, 89.3078, -110.709
2.08833, -1, -6.29074, 8.95836, 21.0988, 13.1387, 89.1607, -111.082
2.095, -1, -6.38216, 8.91152, 21.1173, 13.1398, 89.1119, -111.206
2.10457, -1, -6.65687, 8.77105, 21.1725, 13.1431, 88.9649, -111.578
2.1125, -1, -6.84046, 8.67744, 21.2095, 13.1452, 88.8669, -111.827
2.1205, -1, -7.02436, 8.58383, 21.2464, 13.1474, 88.7692, -112.074
2.12862, -1, -7.20849, 8.49025, 21.2832, 13.1494, 88.6713, -112.322
2.13655, -1, -7.39268, 8.39664, 21.3202, 13.1515, 88.5735, -112.57
2.14457, -1, -7.48459, 8.34979, 21.3387, 13.1537, 88.476, -112.817
2.15268, -1, -7.66834, 8.25625, 21.3754, 13.1559, 88.3783, -113.065
2.15996, -1, -7.85164, 8.16285, 21.4122, 13.157, 88.3296, -113.188
2.16795, -1, -8.03444, 8.06949, 21.4491, 13.1593, 88.2324, -113.435
2.17603, -1, -8.21661, 7.97623, 21.4858, 13.1615, 88.1349, -113.682
2.18396, -1, -8.3982, 7.88298, 21.5226, 13.1638, 88.0375, -113.93
2.19196, -1, -8.57937, 7.78971, 21.5594, 13.166, 87.9403, -114.176
2.19996, -1, -8.7602, 7.69657, 21.5962, 13.1683, 87.8428, -114.423
2.20797, -1, -8.94089, 7.60341, 21.6329, 13.1705, 87.7452, -114.669
2.216, -1, -9.12184, 7.51031, 21.6697, 13.1728, 87.6482, -114.916
2.22395, -1, -9.30296, 7.41743, 21.7063, 13.175, 87.5509, -115.162
2.23197, -1, -9.48443, 7.32462, 21.743, 13.1772, 87.4537, -115.408
2.24, -1, -9.66628, 7.23176, 21.7797, 13.1794, 87.3568, -115.654
2.24802, -1, -9.84844, 7.13901, 21.8162, 13.1817, 87.2595, -115.9
2.25599, -1, -10.0309, 7.0463, 21.8528, 13.1838, 87.1623, -116.146
2.26401, -1, -10.2136, 6.95355, 21.8894, 13.1861, 87.0653, -116.392
2.27196, -1, -10.3963, 6.86077, 21.926, 13.1883, 86.9679, -116.638
2.27995, -1, -10.5787, 6.76807, 21.9625, 13.1905, 86.8709, -116.883
2.28895, -1, -10.7607, 6.67542, 21.9991, 13.1928, 86.774, -117.129
2.29595, -1, -10.9423, 6.58282, 22.0354, 13.1953, 86.6769, -117.374
2.30395, -1, -11.123, 6.49028, 22.0719, 13.1977, 86.5802, -117.619
2.31202, -1, -11.3032, 6.3978, 22.1085, 13.2, 86.4837, -117.864
2.31995, -1, -11.483, 6.30533, 22.1449, 13.2025, 86.3869, -118.109
2.32797, -1, -11.6624, 6.21293, 22.1813, 13.2049, 86.2902, -118.354
2.33602, -1, -11.8417, 6.12056, 22.2178, 13.2075, 86.1937, -118.598
2.34397, -1, -12.0209, 6.02828, 22.2542, 13.2099, 86.097, -118.843
2.35203, -1, -12.2002, 5.93611, 22.2906, 13.2123, 86.0005, -119.087
2.35906, -1, -12.3799, 5.84408, 22.3271, 13.2149, 85.9043, -119.331
2.36796, -1, -12.56, 5.75201, 22.3633, 13.2173, 85.8079, -119.575
2.37601, -1, -12.7405, 5.65999, 22.3995, 13.2198, 85.7116, -119.819
2.38394, -1, -12.9213, 5.56809, 22.4359, 13.2222, 85.6157, -120.063
2.39195, -1, -13.1025, 5.47614, 22.4722, 13.2246, 85.5196, -120.307
2.40003, -1, -13.2837, 5.38412, 22.5083, 13.2271, 85.4237, -120.55
2.40796, -1, -13.4648, 5.29219, 22.5447, 13.2295, 85.328, -120.794
2.41601, -1, -13.6454, 5.2003, 22.5808, 13.2321, 85.2322, -121.037
2.42454, -1, -13.8256, 5.10847, 22.6169, 13.2346, 85.1364, -121.28
2.43106, -1, -14.0052, 5.01666, 22.6531, 13.2373, 85.0408, -121.523
2.43914, -1, -14.1838, 4.92496, 22.6893, 13.2398, 84.9452, -121.766
2.44715, -1, -14.3621, 4.83326, 22.7253, 13.2423, 84.8495, -122.008
2.45528, -1, -14.54, 4.7416, 22.7616, 13.2448, 84.7541, -122.251
2.46333, -1, -14.7177, 4.64999, 22.7978, 13.2474, 84.6584, -122.493
2.47146, -1, -14.8953, 4.55848, 22.8338, 13.2498, 84.5626, -122.736
2.47956, -1, -15.073, 4.46706, 22.87, 13.2523, 84.467, -122.978
2.48811, -1, -15.2511, 4.37578, 22.9061, 13.2548, 84.3713, -123.22
2.49685, -1, -15.4295, 4.28445, 22.9421, 13.2572, 84.2757, -123.462
2.50405, -1, -15.6084, 4.19319, 22.9782, 13.2595, 84.1801, -123.703
2.51213, -1, -15.7876, 4.10197, 23.0142, 13.2618, 84.0846, -123.945
2.52055, -1, -15.8772, 4.05637, 23.0501, 13.2641, 83.9891, -124.187
2.52797, -1, -16.1465, 3.91943, 23.0861, 13.2661, 83.8938, -124.428
2.53602, -1, -16.3263, 3.82819, 23.1221, 13.2682, 83.7983, -124.67
2.54301, -1, -16.416, 3.78259, 23.1401, 13.2694, 83.7506, -124.79
2.55099, -1, -16.5952, 3.69144, 23.1758, 13.2716, 83.6552, -125.032
2.56008, -1, -16.8631, 3.55479, 23.2297, 13.275, 83.5121, -125.394
2.56694, -1, -16.952, 3.50927, 23.2476, 13.2761, 83.4643, -125.514
2.575, -1, -17.1291, 3.41828, 23.2834, 13.2783, 83.369, -125.755
2.58432, -1, -17.3939, 3.2819, 23.3372, 13.2816, 83.2265, -126.116
2.59096, -1, -17.4821, 3.23647, 23.3551, 13.2827, 83.1788, -126.236
2.60047, -1, -17.7463, 3.10039, 23.4088, 13.2859, 83.0365, -126.596
2.60845, -1, -17.9223, 3.00978, 23.4447, 13.288, 82.9419, -126.837
2.6166, -1, -18.0986, 2.91931, 23.4804, 13.2901, 82.8469, -127.077
2.62456, -1, -18.2751, 2.82896, 23.5161, 13.2923, 82.7522, -127.317
2.6325, -1, -18.4521, 2.73854, 23.5519, 13.2944, 82.6576, -127.557
2.6405, -1, -18.5408, 2.64814, 23.5876, 13.2964, 82.5629, -127.796
2.64701, -1, -18.7184, 2.60296, 23.6054, 13.2974, 82.5155, -127.916
2.65594, -1, -18.8962, 2.51259, 23.6411, 13.2994, 82.4212, -128.156
2.66395, -1, -19.0744, 2.42211, 23.6768, 13.3014, 82.3266, -128.395
2.67199, -1, -19.2526, 2.33168, 23.7123, 13.3034, 82.2322, -128.634
2.67995, -1, -19.4306, 2.24127, 23.7479, 13.3055, 82.1383, -128.873
2.68795, -1, -19.608, 2.15089, 23.7835, 13.3077, 82.0442, -129.113
2.69599, -1, -19.7848, 2.06056, 23.8189, 13.3098, 81.95, -129.352
2.70394, -1, -19.9609, 1.9703, 23.8544, 13.312, 81.8558, -129.591
2.71194, -1, -20.1363, 1.88004, 23.89, 13.3141, 81.7618, -129.829
2.72003, -1, -20.3114, 1.78989, 23.9255, 13.3164, 81.6677, -130.067
2.72795, -1, -20.4861, 1.69978, 23.9609, 13.3186, 81.5737, -130.306
2.73598, -1, -20.6606, 1.60974, 23.9966, 13.3208, 81.4799, -130.544
2.74394, -1, -20.8351, 1.51979, 24.032, 13.3229, 81.3859, -130.782
2.752, -1, -21.01, 1.43001, 24.0674, 13.3252, 81.2923, -131.02
2.76002, -1, -21.1851, 1.34032, 24.103, 13.3273, 81.1987, -131.258
2.76795, -1, -21.3607, 1.25055, 24.1384, 13.3294, 81.1047, -131.496
2.77593, -1, -21.5366, 1.16089, 24.1737, 13.3316, 81.0108, -131.734
2.78495, -1, -21.7127, 1.07128, 24.2092, 13.3338, 80.9171, -131.971
2.7919, -1, -21.889, 0.981608, 24.2446, 13.336, 80.8232, -132.208
2.8, -1, -22.0655, 0.892011, 24.2799, 13.3381, 80.7294, -132.446
2.80794, -1, -22.2421, 0.802452, 24.3154, 13.3403, 80.636, -132.683
2.81594, -1, -22.4184, 0.712985, 24.3506, 13.3425, 80.5422, -132.92
2.82401, -1, -22.5942, 0.623433, 24.3858, 13.3449, 80.4486, -133.157
2.83193, -1, -22.7695, 0.533993, 24.4211, 13.3473, 80.3552, -133.394
2.83993, -1, -22.9439, 0.444599, 24.4564, 13.3496, 80.2614, -133.63
2.84803, -1, -23.1176, 0.355176, 24.4915, 13.3521, 80.168, -133.867
2.85593, -1, -23.2911, 0.265852, 24.5267, 13.3545, 80.0746, -134.104
2.86395, -1, -23.4642, 0.176573, 24.5619, 13.3569, 79.981, -134.34
2.872, -1, -23.6374, 0.0874128, 24.5971, 13.3593, 79.8877, -134.577
2.87993, -1, -23.8108, -0.00168841, 24.6322, 13.3617, 79.7945, -134.813
2.88793, -1, -23.9842, -0.0906158, 24.6674, 13.3641, 79.7013, -135.049
2.89599, -1, -24.1579, -0.179577, 24.7024, 13.3667, 79.6082, -135.285
2.90394, -1, -24.3318, -0.268531, 24.7375, 13.3691, 79.5153, -135.52
2.91193, -1, -24.5061, -0.357406, 24.7727, 13.3715, 79.4222, -135.756
2.92006, -1, -24.6808, -0.446289, 24.8077, 13.374, 79.3291, -135.992
2.92795, -1, -24.8558, -0.535175, 24.8427, 13.3763, 79.2361, -136.227
2.93513, -1, -25.0308, -0.624026, 24.8778, 13.3787, 79.1432, -136.463
2.94315, -1, -25.2057, -0.712865, 24.9128, 13.3811, 79.0502, -136.698
2.95119, -1, -25.3802, -0.801609, 24.9478, 13.3835, 78.9574, -136.933
2.95932, -1, -25.5543, -0.890408, 24.9829, 13.386, 78.8649, -137.168
2.96726, -1, -25.7278, -0.979158, 25.0177, 13.3884, 78.7721, -137.403
2.97535, -1, -25.9007, -1.06783, 25.0526, 13.3908, 78.6795, -137.637
2.98358, -1, -26.0732, -1.15651, 25.0876, 13.3933, 78.5873, -137.872
2.99208, -1, -26.2453, -1.24517, 25.1225, 13.3957, 78.4946, -138.106
3.00007, -1, -26.4171, -1.33367, 25.1573, 13.398, 78.4019, -138.341
3.00752, -1, -26.5889, -1.42207, 25.1923, 13.4003, 78.3097, -138.575
3.01606, -1, -26.7609, -1.51041, 25.2272, 13.4026, 78.217, -138.809
3.02366, -1, -26.9332, -1.59859, 25.2621, 13.4048, 78.1246, -139.043
3.0321, -1, -27.1057, -1.68679, 25.2969, 13.407, 78.0325, -139.277
3.03893, -1, -27.1919, -1.73092, 25.3144, 13.4081, 77.9865, -139.394
3.04797, -1, -27.4511, -1.8631, 25.3665, 13.4114, 77.8483, -139.745
3.05608, -1, -27.6243, -1.95123, 25.4013, 13.4135, 77.7564, -139.978
3.06299, -1, -27.7109, -1.99533, 25.4187, 13.4145, 77.7104, -140.095
3.07215, -1, -27.9709, -2.12742, 25.4709, 13.4176, 77.5722, -140.445
3.07895, -1, -28.0575, -2.17144, 25.4882, 13.4186, 77.5261, -140.562
3.08828, -1, -28.3173, -2.30345, 25.5404, 13.4217, 77.3882, -140.911
3.09499, -1, -28.4037, -2.34749, 25.5578, 13.4227, 77.3421, -141.028
3.10438, -1, -28.6623, -2.47946, 25.6097, 13.4259, 77.204, -141.377
3.11245, -1, -28.8341, -2.56744, 25.6444, 13.4281, 77.1121, -141.61
3.12053, -1, -29.0051, -2.6554, 25.679, 13.4302, 77.0201, -141.843
3.12852, -1, -29.1757, -2.74327, 25.7135, 13.4324, 76.9282, -142.075
3.13651, -1, -29.3463, -2.83107, 25.7481, 13.4345, 76.8366, -142.308
3.14457, -1, -29.517, -2.9188, 25.7828, 13.4365, 76.7446, -142.54
3.15256, -1, -29.6024, -2.9626, 25.8001, 13.4375, 76.6527, -142.773
3.15992, -1, -29.7735, -3.05016, 25.8345, 13.4395, 76.6069, -142.889
3.16797, -1, -29.9445, -3.13767, 25.8692, 13.4416, 76.5151, -143.121
3.17594, -1, -30.1155, -3.22513, 25.9037, 13.4437, 76.4233, -143.353
3.18303, -1, -30.2865, -3.31261, 25.9382, 13.4458, 76.3316, -143.585
3.19198, -1, -30.4579, -3.40001, 25.9727, 13.4479, 76.2402, -143.817
3.19997, -1, -30.6295, -3.48753, 26.0072, 13.4499, 76.1486, -144.049
3.20692, -1, -30.8013, -3.57494, 26.0417, 13.4519, 76.0572, -144.28
3.21594, -1, -30.9731, -3.66232, 26.0762, 13.4539, 75.966, -144.511
3.22393, -1, -31.1449, -3.74967, 26.1107, 13.456, 75.8745, -144.743
3.23093, -1, -31.3164, -3.83698, 26.1451, 13.4581, 75.7831, -144.974
3.23992, -1, -31.4875, -3.92427, 26.1795, 13.4602, 75.692, -145.206
3.24794, -1, -31.6581, -4.01151, 26.214, 13.4623, 75.6006, -145.437
3.25491, -1, -31.8284, -4.09878, 26.2483, 13.4645, 75.5094, -145.667
3.26394, -1, -31.9982, -4.18602, 26.2827, 13.4667, 75.4185, -145.898
3.27194, -1, -32.1677, -4.27317, 26.3171, 13.4689, 75.3272, -146.129
3.27892, -1, -32.3371, -4.3603, 26.3514, 13.4711, 75.2362, -146.36
3.28791, -1, -32.5067, -4.44735, 26.3857, 13.4732, 75.1454, -146.59
3.29692, -1, -32.6764, -4.53428, 26.4202, 13.4753, 75.0545, -146.821
3.30297, -1, -32.8461, -4.6212, 26.4546, 13.4775, 74.9637, -147.051
3.31192, -1, -33.0157, -4.7081, 26.4887, 13.4797, 74.873, -147.281
3.31994, -1, -33.1855, -4.79502, 26.523, 13.4819, 74.7825, -147.512
3.32799, -1, -33.3554, -4.88186, 26.5573, 13.4841, 74.6917, -147.742
3.33594, -1, -33.5256, -4.96876, 26.5916, 13.4864, 74.601, -147.971
3.34394, -1, -33.6959, -5.05563, 26.6258, 13.4885, 74.5107, -148.201
3.35195, -1, -33.8662, -5.14239, 26.6601, 13.4908, 74.42, -148.431
3.35992, -1, -34.0364, -5.22907, 26.6942, 13.493, 74.3295, -148.661
3.36843, -1, -34.2065, -5.31581, 26.7283, 13.4952, 74.2392, -148.89
3.37502, -1, -34.3766, -5.40249, 26.7626, 13.4975, 74.1484, -149.119
3.38392, -1, -34.5464, -5.48915, 26.7968, 13.4999, 74.0579, -149.349
3.39269, -1, -34.7156, -5.57585, 26.8308, 13.5023, 73.9674, -149.578
3.39992, -1, -34.8843, -5.66245, 26.865, 13.5047, 73.8768, -149.807
3.40793, -1, -35.0528, -5.74901, 26.8991, 13.5072, 73.7863, -150.036
3.41604, -1, -35.221, -5.83549, 26.9332, 13.5096, 73.696, -150.265
3.42401, -1, -35.3894, -5.92184, 26.9673, 13.512, 73.6057, -150.494
3.43196, -1, -35.558, -6.00805, 27.0014, 13.5143, 73.5154, -150.723
3.44108, -1, -35.7264, -6.0943, 27.0354, 13.5166, 73.425, -150.952
3.44793, -1, -35.895, -6.18048, 27.0694, 13.5191, 73.3348, -151.18
3.45599, -1, -36.0635, -6.26661, 27.1035, 13.5215, 73.2443, -151.409
3.46392, -1, -36.232, -6.35272, 27.1375, 13.5239, 73.1538, -151.637
3.47192, -1, -36.4007, -6.43892, 27.1714, 13.5263, 73.0637, -151.866
3.48002, -1, -36.5696, -6.52515, 27.2054, 13.5286, 72.9731, -152.094
3.48802, -1, -36.7385, -6.61132, 27.2393, 13.5309, 72.883, -152.322
3.49601, -1, -36.9074, -6.69749, 27.2732, 13.5332, 72.7929, -152.55
3.50408, -1, -37.0764, -6.78365, 27.3072, 13.5354, 72.7027, -152.778
3.51204, -1, -37.2451, -6.86976, 27.341, 13.5377, 72.6129, -153.006
3.52005, -1, -37.4136, -6.95581, 27.3749, 13.54, 72.523, -153.234
3.52811, -1, -37.5817, -7.0419, 27.4089, 13.5423, 72.4331, -153.461
3.53572, -1, -37.6656, -7.0849, 27.4259, 13.5434, 72.3432, -153.689
3.54396, -1, -37.9171, -7.2139, 27.4767, 13.5468, 72.2535, -153.917
3.55202, -1, -38.0846, -7.29981, 27.5105, 13.549, 72.1637, -154.144
3.55891, -1, -38.1683, -7.34277, 27.5275, 13.55, 72.1187, -154.258
3.56807, -1, -38.4194, -7.47148, 27.5783, 13.5533, 71.9843, -154.598
3.57491, -1, -38.503, -7.51432, 27.5952, 13.5544, 71.9396, -154.712
3.58303, -1, -38.6703, -7.60003, 27.6291, 13.5565, 71.8498, -154.939
3.59234, -1, -38.9213, -7.72862, 27.6798, 13.5596, 71.7156, -155.28
3.59891, -1, -39.0049, -7.77144, 27.6966, 13.5607, 71.671, -155.393
3.60698, -1, -39.1724, -7.85705, 27.7304, 13.5627, 71.5818, -155.62
3.6165, -1, -39.4236, -7.98561, 27.7812, 13.5655, 71.4476, -155.96
3.62527, -1, -39.5913, -8.07119, 27.8148, 13.5675, 71.3584, -156.187
3.63096, -1, -39.6751, -8.11397, 27.8316, 13.5685, 71.3138, -156.3
3.64051, -1, -39.9264, -8.24215, 27.8822, 13.5715, 71.1797, -156.64
3.64933, -1, -40.0103, -8.32762, 27.9159, 13.5734, 71.0902, -156.866
3.65503, -1, -40.1778, -8.37032, 27.9327, 13.5744, 71.0458, -156.979
3.6645, -1, -40.3451, -8.45568, 27.9664, 13.5764, 70.9564, -157.206
3.67192, -1, -40.5122, -8.54109, 28.0002, 13.5783, 70.8672, -157.432
3.67902, -1, -40.6791, -8.62645, 28.0337, 13.5803, 70.778, -157.658
3.68801, -1, -40.8459, -8.71182, 28.0674, 13.5823, 70.689, -157.884
3.6959, -1, -41.0123, -8.79712, 28.1011, 13.5843, 70.5998, -158.109
3.70299, -1, -41.1787, -8.88243, 28.1348, 13.5864, 70.5107, -158.335
3.71193, -1, -41.3449, -8.96759, 28.1683, 13.5883, 70.4216, -158.561
3.71991, -1, -41.5111, -9.05274, 28.202, 13.5903, 70.3323, -158.787
3.72691, -1, -41.6774, -9.13791, 28.2356, 13.5923, 70.2431, -159.012
3.73591, -1, -41.8437, -9.223, 28.2691, 13.5943, 70.1542, -159.238
3.74391, -1, -42.0102, -9.30804, 28.3028, 13.5964, 70.065, -159.463
3.75093, -1, -42.1765, -9.39314, 28.3364, 13.5984, 69.976, -159.689
3.75997, -1, -42.3427, -9.47821, 28.3699, 13.6004, 69.8874, -159.914
3.76794, -1, -42.5091, -9.56316, 28.4034, 13.6024, 69.7982, -160.139
3.7749, -1, -42.6755, -9.64815, 28.437, 13.6045, 69.7094, -160.364
3.78391, -1, -42.8419, -9.73308, 28.4705, 13.6065, 69.6205, -160.589
3.79294, -1, -43.0083, -9.81799, 28.5038, 13.6086, 69.5318, -160.814
3.79997, -1, -43.1745, -9.9029, 28.5374, 13.6106, 69.443, -161.039
3.80895, -1, -43.3407, -9.98785, 28.5709, 13.6127, 69.3542, -161.264
3.81591, -1, -43.5067, -10.0727, 28.6044, 13.6147, 69.2658, -161.489
3.82398, -1, -43.6726, -10.1577, 28.6379, 13.6168, 69.177, -161.713
3.83191, -1, -43.8386, -10.2426, 28.6714, 13.6189, 69.0886, -161.938
3.83991, -1, -44.0043, -10.3273, 28.7048, 13.6211, 69.0003, -162.162
3.84799, -1, -44.1698, -10.4121, 28.7382, 13.6232, 68.9115, -162.387
3.85593, -1, -44.335, -10.4967, 28.7718, 13.6254, 68.823, -162.611
3.86391, -1, -44.5002, -10.5812, 28.8052, 13.6277, 68.7344, -162.835
3.87198, -1, -44.6653, -10.6658, 28.8386, 13.6299, 68.6457, -163.06
3.87991, -1, -44.8306, -10.7502, 28.8721, 13.6321, 68.5572, -163.283
3.88793, -1, -44.996, -10.8347, 28.9056, 13.6342, 68.4687, -163.507
3.89597, -1, -45.1613, -10.9192, 28.9389, 13.6364, 68.3804, -163.732
3.90391, -1, -45.3266, -11.0037, 28.9724, 13.6386, 68.2919, -163.956
3.91191, -1, -45.4918, -11.0882, 29.0058, 13.6409, 68.2036, -164.18
3.91997, -1, -45.657, -11.1726, 29.0389, 13.6433, 68.1156, -164.403
3.92799, -1, -45.8223, -11.2571, 29.0723, 13.6455, 68.027, -164.627
3.93593, -1, -45.9865, -11.3409, 29.1058, 13.6478, 67.9387, -164.851
3.94398, -1, -46.1479, -11.4233, 29.1392, 13.65, 67.8507, -165.074
3.95192, -1, -46.305, -11.5027, 29.1729, 13.6525, 67.7632, -165.295
3.95991, -1, -46.4553, -11.5777, 29.2064, 13.6549, 67.6779, -165.51
3.96799, -1, -46.5964, -11.6476, 29.2386, 13.6571, 67.5965, -165.716
3.97592, -1, -46.726, -11.7109, 29.2685, 13.6594, 67.5219, -165.906
3.98348, -1, -46.841, -11.7669, 29.2949, 13.6613, 67.4549, -166.074
3.99205, -1, -46.9398, -11.8161, 29.317, 13.663, 67.3991, -166.217
4.00001, -1, -47.0223, -11.859, 29.3336, 13.6643, 67.3544, -166.33
4.00802, -1, -47.0895, -11.8958, 29.3448, 13.6651, 67.3208, -166.414
4.01607, -1, -47.1418, -11.9252, 29.352, 13.6655, 67.2975, -166.473
4.02403, -1, -47.1808, -11.9473, 29.3559, 13.6657, 67.2824, -166.511
4.03197, -1, -47.2083, -11.9627, 29.3577, 13.6657, 67.2737, -166.533
4.04015, -1, -47.2265, -11.9727, 29.3586, 13.6658, 67.2689, -166.545
4.0469, -1, -47.2327, -11.9761, 29.3588, 13.6659, 67.2675, -166.549
4.05594, 2, -47.2429, -11.9815, 29.3592, 13.666, 67.2654, -166.554
4.06404, 2, -47.245, -11.9828, 29.3593, 13.666, 67.2649, -166.555
4.07112, 2, -47.2452, -11.9832, 29.3593, 13.666, 67.2647, -166.555
4.08011, 2, -47.2449, -11.9835, 29.3594, 13.666, 67.2645, -166.556
4.08692, 2, -47.2449, -11.9836, 29.3594, 13.666, 67.2645, -166.556
4.09632, 2, -47.2453, -11.9837, 29.3595, 13.6661, 67.2644, -166.556
4.10301, 2, -47.2457, -11.9838, 29.3595, 13.6661, 67.2644, -166.556
4.11244, 2, -47.2474, -11.9845, 29.3595, 13.6661, 67.2644, -166.556
4.12051, 2, -47.2493, -11.9853, 29.3595, 13.6661, 67.2644, -166.556
4.12845, 2, -47.2509, -11.9862, 29.3595, 13.666, 67.2644, -166.556
4.13651, 2, -47.2523, -11.987, 29.3595, 13.666, 67.2645, -166.556
4.14453, 2, -47.2532, -11.9876, 29.3595, 13.666, 67.2644, -166.556
4.15248, 2, -47.2535, -11.9878, 29.3595, 13.666, 67.2645, -166.556
4.1606, 2, -47.2537, -11.9881, 29.3595, 13.666, 67.2644, -166.556
4.16791, 2, -47.2538, -11.9882, 29.3595, 13.666, 67.2644, -166.556
4.1759, 2, -47.2538, -11.9883, 29.3595, 13.666, 67.2645, -166.556
4.18395, 2, -47.2533, -11.9882, 29.3595, 13.666, 67.2645, -166.556
4.19191, 2, -47.2528, -11.9882, 29.3596, 13.666, 67.2645, -166.556
4.19989, 2, -47.2524, -11.9882, 29.3596, 13.6661, 67.2645, -166.556
4.20796, 2, -47.2521, -11.9882, 29.3596, 13.6661, 67.2645, -166.556
4.2159, 2, -47.252, -11.9882, 29.3596, 13.6661, 67.2644, -166.556
4.22389, 2, -47.2521, -11.9884, 29.3596, 13.6661, 67.2644, -166.556
4.23195, 2, -47.2522, -11.9886, 29.3596, 13.6661, 67.2644, -166.556
4.23991, 2, -47.2526, -11.989, 29.3595, 13.6661, 67.2644, -166.556
4.24791, 2, -47.2532, -11.9892, 29.3595, 13.6661, 67.2644, -166.556
4.25595, 2, -47.2536, -11.9895, 29.3596, 13.6661, 67.2644, -166.556
4.26396, 2, -47.2539, -11.9896, 29.3596, 13.6661, 67.2644, -166.556
4.27192, 2, -47.254, -11.9897, 29.3596, 13.6661, 67.2644, -166.556
4.27996, 2, -47.2539, -11.9897, 29.3596, 13.6661, 67.2644, -166.556
4.28791, 2, -47.2538, -11.9896, 29.3595, 13.6661, 67.2644, -166.556
4.29691, 2, -47.2535, -11.9896, 29.3596, 13.666, 67.2645, -166.556
4.30396, 2, -47.2531, -11.9896, 29.3596, 13.666, 67.2645, -166.556
4.3119, 2, -47.2528, -11.9895, 29.3596, 13.666, 67.2645, -166.556
4.31989, 2, -47.2526, -11.9895, 29.3596, 13.666, 67.2645, -166.556
4.32798, 2, -47.2524, -11.9896, 29.3596, 13.666, 67.2645, -166.556
4.3359, 2, -47.2524, -11.9896, 29.3596, 13.666, 67.2645, -166.556
4.3439, 2, -47.2523, -11.9896, 29.3596, 13.666, 67.2645, -166.556
4.35195, 2, -47.2523, -11.9897, 29.3596, 13.666, 67.2645, -166.556
4.35991, 2, -47.2523, -11.9898, 29.3596, 13.666, 67.2646, -166.556
4.36791, 2, -47.2523, -11.9898, 29.3595, 13.666, 67.2646, -166.556
4.37596, 2, -47.2523, -11.9898, 29.3596, 13.666, 67.2646, -166.556
4.38389, 2, -47.2523, -11.9897, 29.3596, 13.666, 67.2646, -166.556
4.39189, 2, -47.2522, -11.9897, 29.3596, 13.666, 67.2646, -166.556
4.39996, 2, -47.2522, -11.9896, 29.3596, 13.666, 67.2645, -166.556
4.40791, 2, -47.2521, -11.9896, 29.3596, 13.666, 67.2645, -166.556
4.41589, 2, -47.252, -11.9895, 29.3596, 13.666, 67.2645, -166.556
4.42396, 2, -47.2519, -11.9895, 29.3596, 13.666, 67.2645, -166.556
4.43196, 2, -47.2518, -11.9895, 29.3596, 13.666, 67.2645, -166.556
4.43991, 2, -47.2517, -11.9895, 29.3596, 13.6661, 67.2645, -166.556
4.44797, 2, -47.2516, -11.9896, 29.3595, 13.666, 67.2645, -166.556
4.4559, 2, -47.2515, -11.9896, 29.3595, 13.666, 67.2646, -166.556
4.4639, 2, -47.2515, -11.9896, 29.3596, 13.666, 67.2646, -166.556
4.47196, 2, -47.2514, -11.9896, 29.3595, 13.666, 67.2645, -166.556
4.47992, 2, -47.2514, -11.9896, 29.3596, 13.666, 67.2645, -166.556
4.48797, 2, -47.2513, -11.9895, 29.3596, 13.666, 67.2645, -166.556
4.49604, 2, -47.2513, -11.9895, 29.3595, 13.666, 67.2645, -166.556
4.504, 2, -47.2512, -11.9894, 29.3595, 13.666, 67.2646, -166.556
4.512, 2, -47.2511, -11.9894, 29.3596, 13.6659, 67.2646, -166.556
4.52005, 2, -47.2509, -11.9893, 29.3596, 13.666, 67.2646, -166.556
4.52804, 2, -47.2509, -11.9893, 29.3596, 13.666, 67.2646, -166.555
4.53549, 2, -47.2508, -11.9893, 29.3596, 13.666, 67.2646, -166.555
4.54403, 2, -47.2507, -11.9893, 29.3596, 13.666, 67.2646, -166.555
4.55182, 2, -47.2507, -11.9893, 29.3595, 13.666, 67.2646, -166.555
4.55993, 2, -47.2505, -11.9893, 29.3596, 13.666, 67.2646, -166.555
4.56806, 2, -47.2504, -11.9893, 29.3596, 13.666, 67.2646, -166.555
4.5751, 2, -47.2504, -11.9893, 29.3595, 13.6659, 67.2646, -166.555
4.5841, 2, -47.2502, -11.9893, 29.3596, 13.666, 67.2646, -166.555
4.5909, 2, -47.2502, -11.9893, 29.3596, 13.666, 67.2646, -166.555
4.60081, 2, -47.25, -11.9892, 29.3596, 13.6659, 67.2646, -166.555
4.60829, 2, -47.2499, -11.9891, 29.3596, 13.6659, 67.2646, -166.555
4.61487, 2, -47.2499, -11.9891, 29.3596, 13.6659, 67.2646, -166.555
4.6248, 2, -47.2497, -11.989, 29.3596, 13.6659, 67.2646, -166.555
4.63244, 2, -47.2496, -11.9889, 29.3596, 13.666, 67.2646, -166.555
4.64048, 2, -47.2495, -11.9889, 29.3596, 13.666, 67.2647, -166.555
4.64899, 2, -47.2494, -11.9889, 29.3596, 13.666, 67.2646, -166.555
4.65645, 2, -47.2493, -11.9889, 29.3595, 13.6659, 67.2646, -166.555
4.66453, 2, -47.2492, -11.9889, 29.3595, 13.6659, 67.2647, -166.555
4.67277, 2, -47.2491, -11.9889, 29.3595, 13.6659, 67.2646, -166.555
4.67988, 2, -47.2491, -11.9889, 29.3595, 13.6659, 67.2646, -166.555
4.68795, 2, -47.2491, -11.9889, 29.3595, 13.6659, 67.2646, -166.555
4.69611, 2, -47.249, -11.9889, 29.3595, 13.6659, 67.2647, -166.555
4.70388, 2, -47.249, -11.9889, 29.3595, 13.6659, 67.2647, -166.555
4.71194, 2, -47.2489, -11.9888, 29.3596, 13.6659, 67.2647, -166.555
4.71988, 2, -47.2488, -11.9887, 29.3596, 13.6658, 67.2647, -166.555
4.7279, 2, -47.2488, -11.9886, 29.3596, 13.6658, 67.2647, -166.555
4.73593, 2, -47.2487, -11.9886, 29.3595, 13.6659, 67.2647, -166.555
4.74388, 2, -47.2486, -11.9885, 29.3595, 13.6658, 67.2647, -166.555
4.75188, 2, -47.2485, -11.9885, 29.3596, 13.6658, 67.2647, -166.555
4.75994, 2, -47.2485, -11.9885, 29.3596, 13.6658, 67.2647, -166.555
4.768, 2, -47.2484, -11.9885, 29.3595, 13.6658, 67.2647, -166.555
4.77494, 2, -47.2484, -11.9885, 29.3595, 13.6658, 67.2648, -166.555
4.78395, 2, -47.2484, -11.9885, 29.3595, 13.6658, 67.2648, -166.555
4.79188, 2, -47.2483, -11.9885, 29.3595, 13.6658, 67.2648, -166.555
4.79988, 2, -47.2483, -11.9885, 29.3595, 13.6658, 67.2648, -166.555
4.80796, 2, -47.2483, -11.9885, 29.3595, 13.6657, 67.2648, -166.555
4.81588, 2, -47.2482, -11.9884, 29.3595, 13.6657, 67.2648, -166.555
4.82388, 2, -47.2481, -11.9883, 29.3595, 13.6657, 67.2648, -166.555
4.83195, 2, -47.2481, -11.9882, 29.3595, 13.6657, 67.2648, -166.555
4.83988, 2, -47.248, -11.9882, 29.3595, 13.6657, 67.2648, -166.555
4.84796, 2, -47.2479, -11.9882, 29.3595, 13.6657, 67.2648, -166.555
4.85595, 2, -47.2479, -11.9882, 29.3595, 13.6657, 67.2648, -166.554
4.8639, 2, -47.2478, -11.9881, 29.3595, 13.6657, 67.2648, -166.554
4.87188, 2, -47.2477, -11.9881, 29.3595, 13.6657, 67.2648, -166.554
4.87994, 2, -47.2477, -11.9882, 29.3595, 13.6657, 67.2648, -166.554
4.8879, 2, -47.2477, -11.9882, 29.3596, 13.6656, 67.2648, -166.554
4.89587, 2, -47.2477, -11.9881, 29.3595, 13.6656, 67.2648, -166.554
4.90394, 2, -47.2477, -11.9881, 29.3596, 13.6656, 67.2648, -166.554
4.91188, 2, -47.2476, -11.9881, 29.3596, 13.6656, 67.2648, -166.554
4.91988, 2, -47.2475, -11.988, 29.3595, 13.6656, 67.2649, -166.554
4.92796, 2, -47.2475, -11.9879, 29.3596, 13.6656, 67.2649, -166.554
4.93594, 2, -47.2474, -11.9879, 29.3596, 13.6656, 67.2649, -166.554
4.9439, 2, -47.2473, -11.9878, 29.3596, 13.6656, 67.2649, -166.554
4.95194, 2, -47.2472, -11.9878, 29.3595, 13.6656, 67.265, -166.554
4.95988, 2, -47.2472, -11.9877, 29.3595, 13.6656, 67.265, -166.554
4.9679, 2, -47.2471, -11.9877, 29.3595, 13.6656, 67.265, -166.554
4.97594, 2, -47.2471, -11.9877, 29.3595, 13.6656, 67.265, -166.554
4.9839, 2, -47.247, -11.9877, 29.3596, 13.6655, 67.265, -166.554
4.99192, 2, -47.247, -11.9877, 29.3595, 13.6655, 67.265, -166.554
5.00003, 2, -47.247, -11.9877, 29.3595, 13.6655, 67.265, -166.554
5.00799, 2, -47.2469, -11.9877, 29.3595, 13.6654, 67.265, -166.554
5.01601, 2, -47.2469, -11.9876, 29.3595, 13.6654, 67.265, -166.554
5.02404, 2, -47.2469, -11.9876, 29.3595, 13.6654, 67.265, -166.554
5.032, 2, -47.2468, -11.9875, 29.3595, 13.6654, 67.2651, -166.554
5.03988, 2, -47.2468, -11.9875, 29.3595, 13.6654, 67.2651, -166.554
5.04802, 2, -47.2467, -11.9874, 29.3595, 13.6654, 67.2651, -166.554
5.05619, 2, -47.2466, -11.9874, 29.3595, 13.6654, 67.2651, -166.554
5.06299, 2, -47.2466, -11.9874, 29.3595, 13.6654, 67.2651, -166.554
5.07206, 2, -47.2465, -11.9874, 29.3595, 13.6654, 67.2651, -166.554
5.07888, 2, -47.2464, -11.9874, 29.3595, 13.6654, 67.2651, -166.554
5.08845, 2, -47.2464, -11.9874, 29.3595, 13.6653, 67.2651, -166.554
5.09484, 2, -47.2464, -11.9874, 29.3595, 13.6653, 67.2651, -166.554
5.10428, 2, -47.2464, -11.9873, 29.3595, 13.6653, 67.2651, -166.554
5.11091, 2, -47.2464, -11.9873, 29.3595, 13.6653, 67.2651, -166.554
5.12042, 4, -47.2463, -11.9873, 29.3595, 13.6653, 67.2651, -166.554
5.12846, 4, -47.2463, -11.9872, 29.3595, 13.6653, 67.2652, -166.554
5.13673, 4, -47.2462, -11.9872, 29.3595, 13.6653, 67.2652, -166.554
5.1445, 4, -47.2462, -11.9871, 29.3595, 13.6653, 67.2652, -166.554
5.15246, 4, -47.2462, -11.9871, 29.3595, 13.6653, 67.2652, -166.554
5.16071, 4, -47.2461, -11.9871, 29.3595, 13.6652, 67.2652, -166.554
5.16856, 4, -47.246, -11.9871, 29.3595, 13.6652, 67.2652, -166.554
5.17587, 4, -47.2459, -11.987, 29.3595, 13.6652, 67.2652, -166.554
5.18387, 4, -47.2459, -11.987, 29.3595, 13.6652, 67.2652, -166.554
5.19191, 4, -47.2459, -11.987, 29.3595, 13.6652, 67.2652, -166.554
5.19989, 4, -47.2458, -11.987, 29.3595, 13.6652, 67.2652, -166.554
5.20788, 4, -47.2458, -11.987, 29.3595, 13.6651, 67.2653, -166.554
5.21611, 4, -47.2458, -11.987, 29.3595, 13.6651, 67.2653, -166.553
5.23237, 4, -47.2458, -11.9869, 29.3595, 13.6651, 67.2653, -166.553
5.23504, 4, -47.2458, -11.9869, 29.3595, 13.6651, 67.2653, -166.553
5.24209, 4, -47.2457, -11.9868, 29.3595, 13.6651, 67.2653, -166.553
5.25066, 4, -47.2457, -11.9868, 29.3595, 13.6651, 67.2653, -166.553
5.25606, 4, -47.2457, -11.9868, 29.3595, 13.6651, 67.2653, -166.553
5.26355, 4, -47.2456, -11.9868, 29.3595, 13.665, 67.2653, -166.553
5.27218, 4, -47.2455, -11.9867, 29.3595, 13.6651, 67.2653, -166.553
5.2827, 4, -47.2454, -11.9867, 29.3595, 13.6651, 67.2653, -166.553
5.28809, 4, -47.2454, -11.9867, 29.3595, 13.665, 67.2653, -166.553
5.29499, 4, -47.2454, -11.9867, 29.3595, 13.665, 67.2653, -166.553
5.30326, 4, -47.2454, -11.9867, 29.3595, 13.665, 67.2653, -166.553
5.31244, 4, -47.2453, -11.9866, 29.3595, 13.665, 67.2653, -166.553
5.32001, 4, -47.2453, -11.9866, 29.3595, 13.665, 67.2653, -166.553
5.32802, 4, -47.2452, -11.9866, 29.3595, 13.665, 67.2653, -166.553
5.33613, 4, -47.2452, -11.9866, 29.3595, 13.6651, 67.2653, -166.553
5.34401, 4, -47.2452, -11.9866, 29.3595, 13.665, 67.2653, -166.553
5.35635, 4, -47.2451, -11.9865, 29.3595, 13.665, 67.2654, -166.553
5.36001, 4, -47.2451, -11.9865, 29.3595, 13.665, 67.2654, -166.553
5.36898, 4, -47.245, -11.9865, 29.3595, 13.665, 67.2653, -166.553
5.3751, 4, -47.245, -11.9865, 29.3595, 13.665, 67.2653, -166.553
5.384, 4, -47.245, -11.9865, 29.3595, 13.6649, 67.2654, -166.553
5.39583, 4, -47.246, -11.987, 29.3599, 13.665, 67.2654, -166.553
5.4, 4, -47.247, -11.9876, 29.3605, 13.6654, 67.2656, -166.553
5.41176, 4, -47.2502, -11.9905, 29.3639, 13.6763, 67.2684, -166.551
5.41602, 4, -47.2557, -11.9971, 29.3724, 13.6865, 67.2709, -166.55
5.42588, 4, -47.2648, -12.009, 29.3903, 13.7219, 67.2804, -166.542
5.43209, 5, -47.2793, -12.0284, 29.4232, 13.7883, 67.2989, -166.527
5.44382, 5, -47.3161, -12.0774, 29.5139, 13.9776, 67.3523, -166.484
5.44804, 5, -47.3333, -12.0998, 29.5585, 14.0718, 67.3784, -166.463
5.45642, 5, -47.3765, -12.1553, 29.6729, 14.3168, 67.4458, -166.406
5.4641, 5, -47.4325, -12.2254, 29.8237, 14.6435, 67.5353, -166.331
5.47383, 5, -47.5011, -12.3108, 30.0127, 15.0545, 67.646, -166.236
5.48436, 5, -47.6268, -12.4667, 30.367, 15.8182, 67.8493, -166.062
5.49042, 5, -47.6744, -12.5256, 30.5019, 16.1061, 67.9252, -165.997
5.49617, 5, -47.7767, -12.6523, 30.7941, 16.7214, 68.0858, -165.859
5.50444, 5, -47.8871, -12.7895, 31.1104, 17.377, 68.2536, -165.714
5.51211, 5, -48.0034, -12.935, 31.4448, 18.0574, 68.4251, -165.565
5.52071, 5, -48.1233, -13.0858, 31.7906, 18.7497, 68.5961, -165.416
5.5291, 5, -48.2439, -13.2391, 32.1432, 19.445, 68.7649, -165.268
5.5366, 5, -48.3625, -13.3914, 32.4977, 20.132, 68.93, -165.121
5.54416, 5, -48.4751, -13.5402, 32.8507, 20.8009, 69.0912, -164.967
5.55278, 6, -48.5774, -13.682, 33.1955, 21.4407, 69.2501, -164.798
5.56376, 6, -48.6649, -13.8136, 33.5272, 22.0398, 69.4085, -164.6
5.56698, 6, -48.7019, -13.8754, 33.6863, 22.3222, 69.4884, -164.486
5.57629, 7, -48.782, -14.0469, 34.1342, 23.0945, 69.7348, -164.061
5.58706, 7, -48.8087, -14.1501, 34.4068, 23.5502, 69.9084, -163.697
5.59098, 8, -48.8146, -14.1981, 34.5357, 23.7632, 69.9994, -163.488
5.60143, 8, -48.8042, -14.3273, 34.899, 24.3582, 70.2912, -162.757
5.60863, 9, -48.777, -14.4038, 35.1262, 24.7315, 70.5027, -162.194
5.61748, 9, -48.7366, -14.4756, 35.3467, 25.0982, 70.7269, -161.584
5.62699, 10, -48.685, -14.5438, 35.5655, 25.4645, 70.9619, -160.942
5.63495, 10, -48.6242, -14.609, 35.7843, 25.8342, 71.2048, -160.279
5.63906, 11, -48.591, -14.6405, 35.894, 26.0205, 71.3281, -159.944
5.64951, 11, -48.4835, -14.7334, 36.2257, 26.5853, 71.6998, -158.937
5.66129, 12, -48.4063, -14.7961, 36.4461, 26.9675, 71.9475, -157.934
5.66494, 12, -48.3264, -14.8594, 36.6639, 27.354, 72.1944, -157.601
5.67411, 13, -48.2447, -14.922, 36.8791, 27.7451, 72.441, -156.937
5.68178, 13, -48.2032, -14.9529, 37.0907, 28.1398, 72.6873, -156.276
5.68795, 14, -48.1185, -15.0141, 37.195, 28.3385, 72.8104, -155.946
5.70092, 14, -47.9856, -15.1066, 37.5045, 29.1398, 73.3032, -154.631
5.7031, 15, -47.9397, -15.1373, 37.6066, 29.1398, 73.3032, -154.631
5.7161, 16, -47.7973, -15.2275, 37.9083, 29.744, 73.671, -153.654
5.7216, 16, -47.7478, -15.257, 38.0077, 29.9452, 73.7927, -153.329
5.73142, 16, -47.5909, -15.3465, 38.3035, 30.5472, 74.1547, -152.363
5.73599, 17, -47.5358, -15.3769, 38.4006, 30.747, 74.2739, -152.043
5.74737, 17, -47.4218, -15.4699, 38.6871, 31.3424, 74.6248, -151.091
5.75099, 18, -47.3027, -15.5013, 38.7813, 31.5392, 74.7394, -150.776
5.76224, 18, -47.1135, -15.5968, 39.0595, 32.1246, 75.0747, -149.844
5.76808, 19, -47.0478, -15.6294, 39.1506, 32.3181, 75.1835, -149.537
5.77581, 19, -46.9124, -15.6966, 39.3312, 32.7032, 75.3967, -148.928
5.78417, 20, -46.7718, -15.7659, 39.5105, 33.0861, 75.6044, -148.326
5.79174, 20, -46.6258, -15.8376, 39.688, 33.4668, 75.807, -147.732
5.80068, 21, -46.4749, -15.9122, 39.8632, 33.846, 76.0046, -147.146
5.80797, 21, -46.3194, -15.9899, 40.0368, 34.2235, 76.1974, -146.566
5.81677, 22, -46.1591, -16.0702, 40.2093, 34.5989, 76.3848, -145.994
5.82406, 22, -45.9935, -16.1525, 40.3793, 34.9713, 76.5666, -145.429
5.83435, 23, -45.7344, -16.2792, 40.6288, 35.5229, 76.8296, -144.594
5.84095, 23, -45.645, -16.3225, 40.7108, 35.7046, 76.9144, -144.318
5.84802, 24, -45.4613, -16.4102, 40.8724, 36.0646, 77.0801, -143.771
5.85606, 24, -45.2711, -16.4993, 41.0298, 36.4193, 77.2404, -143.229
5.86409, 25, -45.0744, -16.5896, 41.1827, 36.7678, 77.3958, -142.691
5.88063, 26, -44.6614, -16.7725, 41.4754, 37.4452, 77.6926, -141.624
5.88489, 26, -44.5538, -16.8186, 41.5455, 37.6101, 77.764, -141.359
5.88827, 26, -44.4444, -16.8647, 41.6141, 37.7733, 77.8345, -141.095
5.89878, 27, -44.1057, -17.0024, 41.8114, 38.2512, 78.0394, -140.305
5.90369, 27, -43.9894, -17.048, 41.8742, 38.4064, 78.1058, -140.042
5.91276, 28, -43.7519, -17.1387, 41.9951, 38.7107, 78.2358, -139.518
5.92001, 28, -43.5078, -17.2283, 42.1093, 39.0067, 78.362, -138.994
5.92807, 29, -43.2571, -17.3165, 42.2168, 39.2942, 78.4852, -138.472
5.93582, 29, -42.9998, -17.403, 42.3173, 39.5733, 78.605, -137.949
5.94321, 30, -42.7351, -17.4879, 42.4107, 39.8441, 78.7216, -137.427
5.95499, 30, -42.4618, -17.5707, 42.4968, 40.234, 78.8912, -136.646
5.96014, 31, -42.1799, -17.651, 42.5757, 40.3597, 78.9462, -136.385
5.96898, 31, -41.8904, -17.7288, 42.6475, 40.6048, 79.0544, -135.865
5.97792, 32, -41.5937, -17.8043, 42.7125, 40.8414, 79.16, -135.345
5.98464, 32, -41.2903, -17.8774, 42.7707, 41.0696, 79.2628, -134.826
5.99204, 33, -40.9806, -17.9475, 42.8218, 41.2897, 79.3633, -134.309
6.00035, 33, -40.6642, -18.0144, 42.8658, 41.5019, 79.4613, -133.792
6.01004, 34, -40.3417, -18.0784, 42.9024, 41.7056, 79.5565, -133.276
6.01802, 34, -40.0147, -18.1399, 42.9317, 41.9014, 79.649, -132.761
6.02639, 35, -39.6825, -18.1983, 42.9538, 42.0894, 79.7393, -132.248
6.03262, 35, -39.3442, -18.2533, 42.969, 42.2701, 79.8268, -131.735
6.04373, 36, -38.9987, -18.3049, 42.977, 42.443, 79.9124, -131.224
6.04845, 36, -38.823, -18.3532, 42.9784, 42.608, 79.9959, -130.713
6.05887, 37, -38.2864, -18.3982, 42.9731, 42.7657, 80.077, -130.205
6.06493, 37, -37.9215, -18.4395, 42.9608, 42.9156, 80.1565, -129.698
6.07363, 38, -37.5512, -18.4773, 42.9418, 43.0584, 80.2335, -129.192
6.08101, 38, -37.1764, -18.5116, 42.9163, 43.1936, 80.3088, -128.688
6.08843, 39, -36.797, -18.5426, 42.8839, 43.3214, 80.3812, -128.186
6.09721, 39, -36.4132, -18.5698, 42.8449, 43.442, 80.4523, -127.686
6.10532, 40, -36.0239, -18.5933, 42.7992, 43.5552, 80.5212, -127.188
6.11321, 40, -35.6285, -18.6129, 42.7471, 43.6613, 80.5888, -126.692
6.12073, 41, -35.2272, -18.6285, 42.6884, 43.76, 80.6537, -126.197
6.12932, 41, -34.8207, -18.6406, 42.6232, 43.8516, 80.717, -125.705
6.13497, 42, -34.6159, -18.6453, 42.5882, 43.8949, 80.7482, -125.46
6.14492, 42, -33.9966, -18.6546, 42.4736, 44.0137, 80.8374, -124.727
6.15108, 43, -33.7887, -18.6562, 42.4323, 44.0497, 80.8668, -124.484
6.16338, 43, -33.1581, -18.6557, 42.2996, 44.1471, 80.951, -123.758
6.17096, 44, -32.7306, -18.6507, 42.2039, 44.2032, 81.0055, -123.278
6.17669, 44, -32.5144, -18.6467, 42.1025, 44.2516, 81.0584, -122.799
6.18479, 45, -32.0771, -18.6293, 41.9951, 44.2934, 81.1088, -122.323
6.19096, 45, -31.6344, -18.6217, 41.9391, 44.3114, 81.1339, -122.086
6.19997, 46, -31.1885, -18.604, 41.8227, 44.3417, 81.1829, -121.613
6.20807, 46, -30.7409, -18.5827, 41.7004, 44.3642, 81.2291, -121.143
6.21503, 47, -30.2905, -18.5577, 41.5723, 44.3789, 81.2741, -120.676
6.22729, 47, -29.6058, -18.5119, 41.3691, 44.3878, 81.3405, -119.977
6.23197, 48, -29.3742, -18.4944, 41.2983, 44.3873, 81.3616, -119.746
6.2403, 48, -28.9065, -18.4562, 41.1522, 44.3794, 81.4033, -119.284
6.24804, 49, -28.4332, -18.4137, 41.0001, 44.3629, 81.4452, -118.824
6.2581, 49, -27.7175, -18.3416, 40.7608, 44.3209, 81.5069, -118.136
6.26412, 50, -27.4776, -18.3153, 40.6779, 44.302, 81.5271, -117.907
6.27389, 50, -26.7524, -18.2285, 40.4191, 44.2319, 81.5893, -117.223
6.27906, 51, -26.5075, -18.1968, 40.3297, 44.2039, 81.6106, -116.995
6.28802, 51, -26.0118, -18.1291, 40.146, 44.14, 81.6529, -116.54
6.29496, 52, -25.509, -18.0559, 39.9548, 44.0668, 81.6956, -116.086
6.30701, 53, -24.7477, -17.9363, 39.6548, 43.9371, 81.7623, -115.406
6.31274, 53, -24.493, -17.8937, 39.5519, 43.8887, 81.7847, -115.18
6.31998, 53, -23.9812, -17.8041, 39.3406, 43.7848, 81.8296, -114.727
6.328, 54, -23.4637, -17.7084, 39.1213, 43.6704, 81.8767, -114.276
6.33606, 54, -22.9381, -17.6063, 38.8954, 43.5453, 81.9258, -113.824
6.34621, 55, -22.1358, -17.4418, 38.5431, 43.3366, 82.0024, -113.147
6.35199, 55, -21.8662, -17.3839, 38.4218, 43.261, 82.0295, -112.92
6.36097, 56, -21.3255, -17.2637, 38.175, 43.1013, 82.0848, -112.469
6.36717, 56, -20.7816, -17.1378, 37.9211, 42.9301, 82.1412, -112.018
6.37608, 57, -20.231, -17.0064, 37.6601, 42.7474, 82.2003, -111.567
6.38739, 58, -19.3878, -16.7986, 37.2567, 42.4511, 82.291, -110.892
6.392, 58, -19.1028, -16.7263, 37.1186, 42.346, 82.3227, -110.666
6.40072, 58, -18.5304, -16.5772, 36.8384, 42.1266, 82.3869, -110.216
6.40798, 59, -17.9558, -16.4227, 36.5514, 41.8947, 82.4531, -109.767
6.41647, 59, -17.377, -16.2636, 36.258, 41.6504, 82.5221, -109.318
6.42309, 60, -16.7894, -16.1, 35.9587, 41.3933, 82.5927, -108.869
6.43197, 60, -16.1916, -15.9308, 35.6539, 41.1235, 82.6657, -108.42
6.43931, 61, -15.588, -15.7565, 35.344, 40.8404, 82.7399, -107.971
6.44806, 61, -14.9812, -15.5778, 35.0281, 40.5445, 82.8165, -107.523
6.45912, 62, -14.0624, -15.3014, 34.544, 40.077, 82.9355, -106.85
6.46593, 62, -13.7515, -15.2065, 34.3802, 39.9146, 82.9762, -106.625
6.47586, 63, -13.1219, -15.0114, 33.8812, 39.405, 83.1034, -105.951
6.48193, 63, -12.4844, -14.8102, 33.7121, 39.2275, 83.1476, -105.726
6.48767, 64, -11.8422, -14.6043, 33.3694, 38.8613, 83.2391, -105.276
6.4961, 64, -11.1957, -14.3922, 33.0203, 38.4803, 83.3345, -104.823
6.50704, 65, -10.5398, -14.1725, 32.665, 38.084, 83.4347, -104.37
6.51248, 65, -9.87303, -13.9457, 32.3039, 37.6721, 83.5399, -103.914
6.52032, 66, -9.19755, -13.7124, 31.938, 37.2435, 83.6505, -103.457
6.52808, 66, -8.51627, -13.4721, 31.567, 36.7992, 83.767, -102.998
6.53616, 67, -7.82889, -13.2245, 31.1888, 36.3381, 83.8892, -102.536
6.54652, 68, -7.13155, -12.9697, 30.8046, 35.8608, 84.0188, -102.072
6.55219, 68, -6.42518, -12.7083, 30.4159, 35.3672, 84.1546, -101.605
6.56117, 68, -5.71202, -12.4411, 30.024, 34.8595, 84.2972, -101.136
6.5702, 69, -4.99334, -12.1663, 29.6284, 34.3382, 84.4454, -100.666
6.57501, 69, -4.63146, -12.0255, 29.4294, 34.0726, 84.5216, -100.43
6.58465, 70, -3.53307, -11.5924, 28.8303, 33.2571, 84.7594, -99.7187
6.59235, 70, -2.79003, -11.2934, 28.4293, 32.6944, 84.9265, -99.2419
6.60054, 71, -2.03872, -10.9862, 28.0249, 32.1161, 85.1015, -98.7633
6.61046, 71, -1.27855, -10.6716, 27.6164, 31.5211, 85.2861, -98.2814
6.61669, 72, -0.511056, -10.3512, 27.2044, 30.9081, 85.481, -97.7962
6.62529, 72, 0.262131, -10.0252, 26.7901, 30.2785, 85.685, -97.3076
6.63291, 73, 1.04005, -9.69011, 26.3747, 29.6378, 85.8971, -96.8167
6.64303, 74, 1.8222, -9.34748, 25.9596, 28.9877, 86.1161, -96.3247
6.64702, 74, 2.21421, -9.17406, 25.753, 28.6601, 86.2283, -96.0781
6.65769, 74, 3.39243, -8.64893, 25.1403, 27.6699, 86.5734, -95.337
6.66463, 75, 4.18007, -8.29185, 24.7395, 27.0052, 86.8096, -94.8424
6.67093, 75, 4.57491, -8.11108, 24.5412, 26.6729, 86.9294, -94.5953
6.68085, 76, 5.36624, -7.56066, 23.9564, 25.6757, 87.2963, -93.8519
6.69275, 76, 6.55599, -7.18656, 23.5747, 25.0091, 87.6764, -93.1041
6.69501, 77, 6.95297, -6.9964, 23.3857, 24.6757, 87.6764, -93.1041
6.71046, 78, 8.54461, -6.21409, 22.637, 23.3329, 88.215, -92.098
6.71706, 78, 9.34139, -5.81159, 22.2668, 22.6526, 88.5026, -91.5895
6.73079, 79, 10.5358, -5.19113, 21.7154, 21.6229, 88.9588, -90.8188
6.73206, 79, 10.5358, -5.19113, 21.7154, 21.6229, 88.9588, -90.8188
6.73578, 79, 10.9336, -4.97938, 21.5327, 21.2784, 89.1173, -90.5598
6.74288, 80, 11.7268, -4.54834, 21.1693, 20.589, 89.4431, -90.0389
6.75182, 80, 12.5151, -4.10876, 20.8112, 19.9002, 89.7799, -89.5132
6.75882, 81, 13.2975, -3.66009, 20.4584, 19.2188, 90.1267, -88.9824
6.76788, 81, 14.0743, -3.20342, 20.1127, 18.5485, 90.4811, -88.4479
6.77582, 82, 14.8435, -2.73942, 19.7756, 17.8925, 90.8414, -87.9106
6.78389, 82, 15.6037, -2.2674, 19.4494, 17.2511, 91.2068, -87.3711
6.79181, 83, 16.3537, -1.78814, 19.1327, 16.6261, 91.5774, -86.8293
6.80081, 83, 17.0929, -1.302, 18.8259, 16.0198, 91.9532, -86.2856
6.80785, 84, 17.8192, -0.809577, 18.5278, 15.4306, 92.3351, -85.7408
6.81688, 84, 18.529, -0.312749, 18.2382, 14.8591, 92.7243, -85.1956
6.82378, 85, 19.2215, 0.188075, 17.9547, 14.3063, 93.1219, -84.6491
6.83182, 85, 19.8968, 0.694159, 17.6763, 13.7726, 93.5285, -84.103
6.83983, 85, 20.555, 1.20532, 17.404, 13.2593, 93.9423, -83.5578
6.84789, 86, 21.1968, 1.72116, 17.1369, 12.7677, 94.3612, -83.0142
6.85582, 86, 21.8242, 2.24364, 16.877, 12.2981, 94.7847, -82.4703
6.86381, 87, 22.439, 2.77515, 16.6232, 11.8508, 95.2131, -81.9247
6.87182, 87, 23.0431, 3.31661, 16.3745, 11.4239, 95.647, -81.3759
6.87982, 88, 23.6379, 3.86629, 16.1306, 11.0157, 96.0869, -80.8227
6.88782, 88, 24.2231, 4.42313, 15.8904, 10.6235, 96.5327, -80.2612
6.89579, 89, 24.7973, 4.98977, 15.6555, 10.2471, 96.9848, -79.6909
6.90382, 89, 25.36, 5.56726, 15.4264, 9.88568, 97.4436, -79.1097
6.91186, 90, 25.9148, 6.15509, 15.2004, 9.53975, 97.9086, -78.5167
6.91982, 90, 26.4637, 6.75212, 14.9781, 9.20843, 98.3798, -77.9099
6.9278, 91, 27.0025, 7.35734, 14.7609, 8.8935, 98.8576, -77.289
6.93589, 91, 27.5276, 7.97187, 14.5486, 8.59634, 99.3418, -76.6559
6.94402, 92, 28.0406, 8.59699, 14.3405, 8.31879, 99.8316, -76.0106
6.95093, 92, 28.5452, 9.23281, 14.1367, 8.06289, 100.326, -75.3545
6.9601, 93, 29.0427, 9.87789, 13.938, 7.82884, 100.823, -74.6909
6.96703, 93, 29.5294, 10.53, 13.7454, 7.618, 101.322, -74.0205
6.97514, 93, 30.003, 11.1876, 13.5608, 7.43065, 101.821, -73.3428
6.98389, 94, 30.4622, 11.8487, 13.3837, 7.26675, 102.318, -72.6593
6.99203, 95, 30.9074, 12.5124, 13.2133, 7.12667, 102.812, -71.9718
6.99992, 95, 31.3386, 13.1776, 13.0507, 7.01042, 103.303, -71.2781
7.00787, 96, 31.7561, 13.8449, 12.8959, 6.91748, 103.79, -70.5785
7.01604, 96, 32.1588, 14.5132, 12.7476, 6.84861, 104.274, -69.8748
7.02389, 97, 32.5451, 15.1819, 12.6058, 6.80342, 104.754, -69.165
7.03195, 97, 32.9152, 15.8501, 12.471, 6.77939, 105.228, -68.4491
7.03995, 98, 33.2696, 16.5165, 12.3443, 6.77693, 105.696, -67.7305
7.04794, 98, 33.6091, 17.1801, 12.2262, 6.79673, 106.157, -67.0085
7.05683, 99, 33.9342, 17.8383, 12.117, 6.83631, 106.608, -66.2842
7.0639, 99, 34.246, 18.4901, 12.0173, 6.89605, 107.048, -65.5614
7.07088, 99, 34.3975, 18.8132, 11.9709, 6.93308, 107.264, -65.2007
7.07995, 100, 34.8357, 19.7696, 11.8452, 7.06952, 107.891, -64.1216
7.08802, 100, 35.1131, 20.3948, 11.7723, 7.18159, 108.291, -63.4095
7.09483, 101, 35.2473, 20.7032, 11.7389, 7.24337, 108.486, -63.0561
7.1042, 101, 35.6321, 21.6119, 11.6514, 7.45003, 109.045, -62.0057
7.11082, 102, 35.7541, 21.9086, 11.6265, 7.52509, 109.223, -61.6605
7.12019, 102, 36.0998, 22.7786, 11.5644, 7.76569, 109.731, -60.6436
7.12678, 103, 36.2096, 23.0613, 11.548, 7.85026, 109.892, -60.3103
7.13636, 103, 36.5286, 23.8863, 11.5122, 8.11566, 110.347, -59.3297
7.14436, 104, 36.7331, 24.4169, 11.4996, 8.30293, 110.627, -58.6934
7.15312, 104, 36.9307, 24.9315, 11.4946, 8.49898, 110.889, -58.0685
7.15883, 104, 37.0275, 25.1826, 11.4946, 8.60039, 111.012, -57.7602
7.16838, 104, 37.2168, 25.6736, 11.4995, 8.91666, 111.353, -56.8535
7.17646, 104, 37.3978, 26.1482, 11.5099, 9.02549, 111.557, -56.2651
7.18384, 104, 37.5681, 26.6066, 11.5237, 9.24714, 111.653, -55.9758
7.1918, 104, 37.7293, 27.0492, 11.5402, 9.47171, 111.834, -55.4097
7.19881, 104, 37.8854, 27.4767, 11.5593, 9.69626, 112.001, -54.8622
7.20781, 104, 38.0378, 27.8883, 11.5797, 9.91822, 112.158, -54.3369
7.21487, 104, 38.1858, 28.2832, 11.6004, 10.1361, 112.306, -53.8337
7.22387, 104, 38.328, 28.6617, 11.6205, 10.3484, 112.446, -53.3542
7.2318, 104, 38.4635, 29.0231, 11.6393, 10.554, 112.578, -52.8991
7.23981, 104, 38.5915, 29.3663, 11.6571, 10.752, 112.702, -52.4683
7.24785, 104, 38.7112, 29.691, 11.6738, 10.9417, 112.818, -52.0629
7.25581, 104, 38.8223, 29.9963, 11.6892, 11.1224, 112.927, -51.6821
7.26386, 104, 38.9254, 30.2834, 11.7038, 11.2934, 113.028, -51.3264
7.2718, 104, 39.0208, 30.5511, 11.7172, 11.4544, 113.121, -50.9965
7.27981, 104, 39.1086, 30.7989, 11.7294, 11.6048, 113.208, -50.6919
7.28787, 104, 39.1884, 31.0273, 11.7404, 11.7443, 113.286, -50.4122
7.29584, 104, 39.2602, 31.2358, 11.7505, 11.8723, 113.358, -50.1579
7.30382, 104, 39.3241, 31.4243, 11.7598, 11.9885, 113.422, -49.9288
7.31283, 104, 39.3802, 31.5936, 11.7681, 12.0931, 113.479, -49.7249
7.3198, 104, 39.4295, 31.7434, 11.7754, 12.1852, 113.529, -49.546
7.3278, 104, 39.4726, 31.8745, 11.782, 12.2654, 113.572, -49.3919
7.33587, 104, 39.5102, 31.9879, 11.7881, 12.3333, 113.608, -49.2616
7.34382, 104, 39.5416, 32.0846, 11.7934, 12.3902, 113.637, -49.1547
7.35182, 104, 39.5674, 32.1653, 11.7981, 12.4348, 113.661, -49.0688
7.35987, 104, 39.5882, 32.2318, 11.8024, 12.4695, 113.679, -49.0025
7.36781, 104, 39.6045, 32.2858, 11.8063, 12.4957, 113.692, -48.9535
7.37581, 104, 39.617, 32.3287, 11.8099, 12.5146, 113.701, -48.919
7.3839, 104, 39.6266, 32.3614, 11.813, 12.5277, 113.707, -48.8958
7.3918, 104, 39.6338, 32.3858, 11.8159, 12.5362, 113.71, -48.8812
7.39981, 104, 39.6386, 32.404, 11.8183, 12.5412, 113.712, -48.873
7.40787, 104, 39.6414, 32.4168, 11.8202, 12.544, 113.713, -48.8689
7.41585, 104, 39.643, 32.4251, 11.8217, 12.5454, 113.714, -48.8671
7.42381, 105, 39.6434, 32.4303, 11.8228, 12.546, 113.714, -48.8663
7.43187, 105, 39.6428, 32.4337, 11.8238, 12.5464, 113.714, -48.8662
7.4398, 105, 39.6419, 32.436, 11.8246, 12.5466, 113.714, -48.8662
7.4478, 105, 39.6409, 32.4378, 11.8253, 12.5467, 113.714, -48.8664
7.45587, 105, 39.6399, 32.4392, 11.8259, 12.5468, 113.714, -48.8668
7.46383, 105, 39.6386, 32.4404, 11.8264, 12.5468, 113.714, -48.8671
7.4718, 105, 39.6377, 32.4416, 11.827, 12.5468, 113.714, -48.8674
7.47988, 105, 39.6371, 32.4427, 11.8276, 12.5468, 113.714, -48.8677
7.48781, 105, 39.6367, 32.4438, 11.8282, 12.5468, 113.714, -48.8681
7.49582, 105, 39.6365, 32.4448, 11.8287, 12.5468, 113.714, -48.8684
7.50393, 105, 39.6363, 32.4457, 11.8292, 12.5467, 113.714, -48.8686
7.51189, 105, 39.636, 32.4463, 11.8295, 12.5467, 113.714, -48.8689
7.52008, 105, 39.6357, 32.4468, 11.8299, 12.5468, 113.714, -48.8691
7.52737, 105, 39.6354, 32.4471, 11.8301, 12.5467, 113.714, -48.8693
7.5359, 105, 39.6351, 32.4472, 11.8304, 12.5467, 113.714, -48.8696
7.54421, 105, 39.6348, 32.4473, 11.8305, 12.5467, 113.714, -48.8697
