hehonglu123/Motion-Primitive-Planning/ILC/recorded_data/realrobot/wood/iteration_24/run_3.csv
timestamp, cmd_num, J1, J2, J3, J4, J5, J6
0.001414, -1, 11.3754, 13.6151, 17.3347, -145.521, -97.9264, 142.516
0.00603, -1, 11.3754, 13.6151, 17.3347, -145.521, -97.9264, 142.516
0.008001, -1, 11.3754, 13.6151, 17.3347, -145.521, -97.9264, 142.516
0.031356, -1, 11.3755, 13.6151, 17.3347, -145.521, -97.9263, 142.516
0.032601, -1, 11.3755, 13.6151, 17.3347, -145.521, -97.9263, 142.516
0.036338, -1, 11.3755, 13.6151, 17.3347, -145.521, -97.9263, 142.516
0.040381, -1, 11.3754, 13.6151, 17.3347, -145.52, -97.9263, 142.516
0.0474, -1, 11.3754, 13.6151, 17.3347, -145.521, -97.9263, 142.516
0.055459, -1, 11.3748, 13.6151, 17.3347, -145.521, -97.9263, 142.516
0.063379, -1, 11.3721, 13.6149, 17.3346, -145.521, -97.9263, 142.516
0.071392, -1, 11.3655, 13.6141, 17.3344, -145.521, -97.9263, 142.516
0.079442, -1, 11.3544, 13.6124, 17.3339, -145.521, -97.9262, 142.514
0.087393, -1, 11.3369, 13.609, 17.3332, -145.523, -97.9261, 142.507
0.095379, -1, 11.31, 13.6031, 17.3324, -145.526, -97.9253, 142.486
0.104998, -1, 11.2715, 13.5939, 17.3318, -145.533, -97.9236, 142.446
0.111386, -1, 11.2213, 13.5816, 17.332, -145.545, -97.9202, 142.381
0.119447, -1, 11.1596, 13.5661, 17.3336, -145.562, -97.9146, 142.286
0.127489, -1, 11.0862, 13.5471, 17.3376, -145.585, -97.9068, 142.155
0.13538, -1, 11.001, 13.5241, 17.344, -145.614, -97.8967, 141.99
0.143441, -1, 10.9041, 13.4978, 17.3526, -145.648, -97.8845, 141.792
0.151399, -1, 10.7964, 13.468, 17.363, -145.687, -97.8707, 141.566
0.1594, -1, 10.6779, 13.4352, 17.3743, -145.729, -97.8559, 141.32
0.167478, -1, 10.5488, 13.3995, 17.3855, -145.773, -97.8405, 141.059
0.175524, -1, 10.4106, 13.3616, 17.3962, -145.819, -97.8246, 140.789
0.183445, -1, 10.2658, 13.322, 17.4064, -145.867, -97.8084, 140.515
0.191571, -1, 10.1163, 13.2816, 17.4164, -145.914, -97.7917, 140.237
0.199785, -1, 9.96382, 13.2405, 17.4265, -145.962, -97.7748, 139.959
0.207479, -1, 9.80909, 13.1991, 17.4365, -146.01, -97.7576, 139.68
0.21556, -1, 9.65356, 13.1576, 17.4466, -146.058, -97.7403, 139.4
0.223905, -1, 9.49832, 13.1164, 17.4566, -146.105, -97.7232, 139.121
0.231449, -1, 9.3436, 13.0751, 17.4664, -146.154, -97.7064, 138.841
0.239516, -1, 9.18921, 13.034, 17.4765, -146.201, -97.6897, 138.562
0.24937, -1, 9.03527, 12.993, 17.4865, -146.249, -97.673, 138.282
0.256425, -1, 8.88152, 12.9519, 17.4967, -146.298, -97.6562, 138.002
0.263497, -1, 8.72795, 12.9108, 17.5068, -146.345, -97.639, 137.722
0.272356, -1, 8.57494, 12.8697, 17.5169, -146.393, -97.6215, 137.442
0.279712, -1, 8.42217, 12.8284, 17.527, -146.441, -97.6041, 137.161
0.287642, -1, 8.2692, 12.7871, 17.5373, -146.489, -97.5867, 136.881
0.296326, -1, 8.1158, 12.7455, 17.5475, -146.537, -97.5697, 136.601
0.303879, -1, 7.96186, 12.7038, 17.5577, -146.585, -97.5529, 136.321
0.31253, -1, 7.80733, 12.6621, 17.5678, -146.633, -97.5362, 136.04
0.3208, -1, 7.65244, 12.6204, 17.5779, -146.681, -97.5195, 135.76
0.32806, -1, 7.49746, 12.5787, 17.5881, -146.729, -97.5026, 135.48
0.335968, -1, 7.34232, 12.5372, 17.5983, -146.777, -97.4855, 135.199
0.343937, -1, 7.26482, 12.4956, 17.6085, -146.825, -97.4682, 134.919
0.352425, -1, 7.03236, 12.4541, 17.6189, -146.873, -97.4509, 134.639
0.360146, -1, 6.95475, 12.4334, 17.624, -146.897, -97.4423, 134.358
0.497503, -1, 4.24089, 11.7069, 17.8053, -147.74, -97.1432, 129.585
0.498835, -1, 4.24089, 11.7069, 17.8053, -147.74, -97.1432, 129.585
0.500133, -1, 4.24089, 11.7069, 17.8053, -147.74, -97.1432, 129.585
0.503104, -1, 4.16329, 11.6862, 17.8106, -147.764, -97.1347, 129.444
0.5043, -1, 4.16329, 11.6862, 17.8106, -147.764, -97.1347, 129.444
0.506374, -1, 4.08579, 11.6654, 17.8158, -147.788, -97.1262, 129.304
0.507589, -1, 4.08579, 11.6654, 17.8158, -147.788, -97.1262, 129.304
0.510479, -1, 4.00841, 11.6447, 17.8209, -147.812, -97.1177, 129.163
0.511807, -1, 4.00841, 11.6447, 17.8209, -147.812, -97.1177, 129.163
0.513706, -1, 3.93112, 11.624, 17.8261, -147.836, -97.1093, 129.023
0.516008, -1, 3.93112, 11.624, 17.8261, -147.836, -97.1093, 129.023
0.518108, -1, 3.8539, 11.6032, 17.8313, -147.86, -97.1009, 128.882
0.519363, -1, 3.8539, 11.6032, 17.8313, -147.86, -97.1009, 128.882
0.521354, -1, 3.8539, 11.6032, 17.8313, -147.86, -97.1009, 128.882
0.522883, -1, 3.77673, 11.5824, 17.8365, -147.885, -97.0925, 128.741
0.52974, -1, 3.62236, 11.5408, 17.8468, -147.933, -97.0756, 128.46
0.531154, -1, 3.62236, 11.5408, 17.8468, -147.933, -97.0756, 128.46
0.532421, -1, 3.62236, 11.5408, 17.8468, -147.933, -97.0756, 128.46
0.534408, -1, 3.54513, 11.52, 17.8519, -147.957, -97.067, 128.319
0.535692, -1, 3.54513, 11.52, 17.8519, -147.957, -97.067, 128.319
0.537543, -1, 3.54513, 11.4991, 17.8571, -147.981, -97.0584, 128.178
0.539791, -1, 3.46788, 11.4991, 17.8571, -147.981, -97.0584, 128.178
0.545766, -1, 3.31311, 11.4574, 17.8676, -148.03, -97.0409, 127.897
0.551381, -1, 3.23557, 11.4366, 17.8728, -148.054, -97.0321, 127.756
0.559432, -1, 3.08041, 11.3948, 17.8832, -148.102, -97.0146, 127.475
0.567363, -1, 2.92506, 11.353, 17.8936, -148.15, -96.9973, 127.193
0.575374, -1, 2.76951, 11.3112, 17.904, -148.199, -96.9803, 126.911
0.583432, -1, 2.6137, 11.2694, 17.9143, -148.246, -96.9635, 126.629
0.591403, -1, 2.45762, 11.2276, 17.9248, -148.295, -96.9468, 126.348
0.599372, -1, 2.30125, 11.1859, 17.9352, -148.343, -96.9299, 126.066
0.607464, -1, 2.14457, 11.1442, 17.9456, -148.391, -96.9128, 125.784
0.615377, -1, 1.98778, 11.1024, 17.956, -148.44, -96.8954, 125.502
0.623376, -1, 1.83118, 11.0608, 17.9663, -148.488, -96.8779, 125.22
0.631442, -1, 1.6747, 11.0191, 17.9768, -148.536, -96.8605, 124.938
0.639493, -1, 1.51845, 10.9773, 17.9873, -148.585, -96.8435, 124.656
0.647399, -1, 1.36257, 10.9357, 17.9978, -148.634, -96.8265, 124.374
0.655365, -1, 1.20684, 10.894, 18.0081, -148.682, -96.8096, 124.092
0.790392, -1, -1.3691, 10.2036, 18.18, -149.482, -96.5269, 119.427
0.792522, -1, -1.44755, 10.1827, 18.1852, -149.507, -96.5185, 119.285
0.793809, -1, -1.44755, 10.1827, 18.1852, -149.507, -96.5185, 119.285
0.795773, -1, -1.52596, 10.1618, 18.1904, -149.531, -96.5101, 119.144
0.797312, -1, -1.52596, 10.1618, 18.1904, -149.531, -96.5101, 119.144
0.798503, -1, -1.52596, 10.1618, 18.1904, -149.531, -96.5101, 119.144
0.800521, -1, -1.60421, 10.1409, 18.1957, -149.555, -96.5017, 119.002
0.804754, -1, -1.68231, 10.1199, 18.201, -149.58, -96.4932, 118.861
0.8069, -1, -1.68231, 10.1199, 18.201, -149.58, -96.4932, 118.861
0.808957, -1, -1.76029, 10.099, 18.2062, -149.604, -96.4846, 118.719
0.81019, -1, -1.76029, 10.099, 18.2062, -149.604, -96.4846, 118.719
0.81222, -1, -1.83817, 10.0781, 18.2114, -149.628, -96.476, 118.577
0.813468, -1, -1.83817, 10.0781, 18.2114, -149.628, -96.476, 118.577
0.814732, -1, -1.83817, 10.0781, 18.2114, -149.628, -96.476, 118.577
0.816684, -1, -1.91599, 10.0571, 18.2167, -149.653, -96.4673, 118.435
0.818216, -1, -1.91599, 10.0571, 18.2167, -149.653, -96.4673, 118.435
0.820007, -1, -1.99374, 10.0362, 18.2219, -149.677, -96.4585, 118.293
0.821528, -1, -1.99374, 10.0362, 18.2219, -149.677, -96.4585, 118.293
0.822755, -1, -1.99374, 10.0362, 18.2219, -149.677, -96.4585, 118.293
0.824799, -1, -2.07137, 10.0152, 18.2271, -149.701, -96.4496, 118.152
0.82611, -1, -2.07137, 10.0152, 18.2271, -149.701, -96.4496, 118.152
0.833353, -1, -2.22645, 9.97332, 18.2375, -149.75, -96.432, 117.868
0.840076, -1, -2.38167, 9.93145, 18.2479, -149.798, -96.4147, 117.585
0.848037, -1, -2.53723, 9.88945, 18.2584, -149.847, -96.3977, 117.301
0.855973, -1, -2.61511, 9.86848, 18.2636, -149.871, -96.3808, 117.017
0.863352, -1, -2.77113, 9.82652, 18.274, -149.92, -96.3724, 116.875
0.872388, -1, -3.00592, 9.76357, 18.2896, -149.993, -96.3471, 116.45
0.879361, -1, -3.08438, 9.74262, 18.2948, -150.017, -96.3385, 116.308
0.887348, -1, -3.24153, 9.7007, 18.3052, -150.066, -96.3212, 116.024
0.895395, -1, -3.39918, 9.6587, 18.3158, -150.114, -96.3036, 115.74
0.903358, -1, -3.55697, 9.61673, 18.3263, -150.163, -96.2861, 115.456
0.911388, -1, -3.71476, 9.57486, 18.3367, -150.212, -96.2688, 115.172
0.9207, -1, -3.95172, 9.51183, 18.3522, -150.285, -96.2431, 114.745
0.927376, -1, -4.0307, 9.49086, 18.3575, -150.309, -96.2346, 114.603
0.935353, -1, -4.1885, 9.44896, 18.3679, -150.358, -96.2176, 114.319
0.943429, -1, -4.34629, 9.40698, 18.3782, -150.407, -96.2005, 114.035
0.952926, -1, -4.58243, 9.34397, 18.3938, -150.48, -96.1743, 113.608
0.959412, -1, -4.66088, 9.32294, 18.399, -150.505, -96.1654, 113.465
0.968953, -1, -4.89557, 9.25985, 18.4146, -150.578, -96.1389, 113.038
0.976985, -1, -4.97367, 9.23879, 18.4199, -150.627, -96.1215, 112.753
0.983411, -1, -5.12969, 9.19674, 18.4304, -150.651, -96.1129, 112.611
0.992395, -1, -5.28557, 9.15466, 18.441, -150.699, -96.0959, 112.326
1.00034, -1, -5.44158, 9.1125, 18.4515, -150.749, -96.0791, 112.041
1.00743, -1, -5.59776, 9.0704, 18.462, -150.797, -96.0622, 111.757
1.01535, -1, -5.75424, 9.02828, 18.4725, -150.846, -96.045, 111.472
1.02336, -1, -5.91116, 8.9861, 18.4829, -150.895, -96.0275, 111.187
1.03142, -1, -6.06855, 8.94392, 18.4932, -150.944, -96.0099, 110.902
1.03936, -1, -6.2265, 8.90177, 18.5036, -150.992, -95.9923, 110.616
1.04743, -1, -6.38478, 8.85961, 18.514, -151.042, -95.9751, 110.331
1.05535, -1, -6.54313, 8.81754, 18.5243, -151.091, -95.958, 110.046
1.06335, -1, -6.70173, 8.77537, 18.5349, -151.14, -95.941, 109.761
1.07141, -1, -6.86036, 8.7332, 18.5454, -151.189, -95.924, 109.475
1.07934, -1, -7.01895, 8.69111, 18.556, -151.238, -95.9068, 109.189
1.08736, -1, -7.17747, 8.64896, 18.5664, -151.286, -95.8894, 108.904
1.09545, -1, -7.33586, 8.60673, 18.5767, -151.336, -95.8716, 108.618
1.10345, -1, -7.49392, 8.56445, 18.5873, -151.385, -95.8539, 108.332
1.11139, -1, -7.65156, 8.52214, 18.5978, -151.434, -95.8364, 108.047
1.11944, -1, -7.80888, 8.47985, 18.6082, -151.483, -95.8192, 107.761
1.12735, -1, -7.96585, 8.43758, 18.6186, -151.532, -95.8021, 107.476
1.13536, -1, -8.1225, 8.39521, 18.629, -151.581, -95.7852, 107.19
1.14397, -1, -8.27901, 8.35286, 18.6395, -151.63, -95.7682, 106.904
1.15243, -1, -8.43563, 8.31047, 18.6501, -151.679, -95.7509, 106.618
1.15946, -1, -8.59265, 8.26807, 18.6606, -151.728, -95.7335, 106.332
1.16817, -1, -8.75001, 8.22579, 18.6712, -151.777, -95.7157, 106.045
1.17536, -1, -8.9077, 8.18344, 18.6815, -151.826, -95.6982, 105.759
1.18367, -1, -9.06577, 8.14108, 18.6919, -151.875, -95.6808, 105.473
1.19221, -1, -9.22431, 8.09881, 18.7024, -151.925, -95.6637, 105.186
1.19943, -1, -9.38317, 8.05647, 18.7128, -151.973, -95.6466, 104.899
1.20777, -1, -9.54224, 8.0141, 18.7233, -152.023, -95.6295, 104.613
1.21627, -1, -9.70141, 7.97185, 18.7338, -152.072, -95.6121, 104.326
1.22352, -1, -9.86073, 7.92958, 18.7443, -152.121, -95.5946, 104.039
1.23197, -1, -10.0202, 7.88717, 18.755, -152.171, -95.5767, 103.751
1.24043, -1, -10.1794, 7.84475, 18.7656, -152.22, -95.5589, 103.465
1.24738, -1, -10.3385, 7.80222, 18.7762, -152.269, -95.5413, 103.178
1.25615, -1, -10.4973, 7.7597, 18.7867, -152.319, -95.5241, 102.891
1.26439, -1, -10.6558, 7.71724, 18.7971, -152.368, -95.507, 102.604
1.27151, -1, -10.814, 7.67468, 18.8077, -152.417, -95.49, 102.317
1.2804, -1, -10.9719, 7.63209, 18.8182, -152.466, -95.4729, 102.03
1.28849, -1, -11.1294, 7.58959, 18.8286, -152.516, -95.4556, 101.742
1.29576, -1, -11.2868, 7.5471, 18.8391, -152.565, -95.4379, 101.454
1.30461, -1, -11.4443, 7.5046, 18.8496, -152.614, -95.42, 101.167
1.31178, -1, -11.6018, 7.4621, 18.8601, -152.664, -95.4024, 100.88
1.31994, -1, -11.7596, 7.41964, 18.8708, -152.712, -95.385, 100.592
1.32884, -1, -11.918, 7.37723, 18.8813, -152.762, -95.3677, 100.304
1.33591, -1, -12.0768, 7.33484, 18.8919, -152.811, -95.3505, 100.016
1.34397, -1, -12.236, 7.29244, 18.9024, -152.861, -95.3334, 99.7285
1.35273, -1, -12.3158, 7.2712, 18.9129, -152.911, -95.3159, 99.4404
1.35991, -1, -12.4755, 7.22873, 18.9182, -152.935, -95.3071, 99.1525
1.36795, -1, -12.6354, 7.18633, 18.9288, -152.984, -95.2891, 99.0086
1.37533, -1, -12.7955, 7.14388, 18.9393, -153.034, -95.2712, 98.7208
1.38602, -1, -13.0357, 7.08006, 18.9552, -153.108, -95.2447, 98.2885
1.39247, -1, -13.1956, 7.03748, 18.9657, -153.158, -95.2274, 98.0004
1.39934, -1, -13.2755, 7.01618, 18.971, -153.183, -95.2188, 97.8564
1.41015, -1, -13.5149, 6.95211, 18.9869, -153.256, -95.1931, 97.4238
1.41538, -1, -13.5945, 6.93073, 18.9922, -153.281, -95.1845, 97.2795
1.42333, -1, -13.7536, 6.88801, 19.0028, -153.331, -95.1671, 96.9908
1.43135, -1, -13.9125, 6.8453, 19.0133, -153.38, -95.1494, 96.7023
1.43939, -1, -14.0708, 6.80259, 19.0238, -153.429, -95.1316, 96.4138
1.44895, -1, -14.308, 6.73864, 19.0396, -153.504, -95.1051, 95.9803
1.45837, -1, -14.4663, 6.6959, 19.0501, -153.553, -95.0878, 95.6913
1.46333, -1, -14.5454, 6.67458, 19.0554, -153.578, -95.0791, 95.5469
1.47133, -1, -14.704, 6.63203, 19.066, -153.628, -95.0619, 95.2577
1.47941, -1, -14.8631, 6.58947, 19.0766, -153.677, -95.0447, 94.9683
1.48737, -1, -15.0224, 6.54677, 19.0873, -153.726, -95.0273, 94.6792
1.49632, -1, -15.1822, 6.50416, 19.0981, -153.776, -95.0095, 94.3902
1.50342, -1, -15.3423, 6.46158, 19.1088, -153.826, -94.9915, 94.101
1.51237, -1, -15.5028, 6.41886, 19.1194, -153.875, -94.9735, 93.8116
1.51936, -1, -15.6635, 6.37616, 19.13, -153.925, -94.9558, 93.5224
1.5274, -1, -15.8242, 6.33339, 19.1406, -153.975, -94.9386, 93.2333
1.53533, -1, -15.985, 6.29048, 19.1513, -154.024, -94.9214, 92.9437
1.54333, -1, -16.1459, 6.24764, 19.1619, -154.074, -94.9042, 92.6538
1.5514, -1, -16.3066, 6.20472, 19.1725, -154.124, -94.8869, 92.3643
1.55934, -1, -16.4671, 6.16171, 19.1829, -154.173, -94.8694, 92.0748
1.56733, -1, -16.6275, 6.11876, 19.1935, -154.223, -94.8516, 91.7846
1.57539, -1, -16.7874, 6.07578, 19.2042, -154.273, -94.8337, 91.4945
1.58333, -1, -16.9468, 6.0328, 19.2149, -154.323, -94.816, 91.2043
1.5914, -1, -17.1061, 5.98984, 19.2255, -154.372, -94.7985, 90.9141
1.59936, -1, -17.2652, 5.94688, 19.2361, -154.422, -94.7812, 90.6237
1.60733, -1, -17.4242, 5.90408, 19.2467, -154.472, -94.7639, 90.3334
1.61543, -1, -17.5836, 5.86127, 19.2574, -154.522, -94.7465, 90.0432
1.62335, -1, -17.7429, 5.81842, 19.2681, -154.571, -94.7289, 89.7529
1.63133, -1, -17.9024, 5.77563, 19.2788, -154.621, -94.7109, 89.4625
1.63941, -1, -18.0625, 5.73282, 19.2894, -154.671, -94.6928, 89.172
1.64733, -1, -18.223, 5.69001, 19.3, -154.721, -94.6749, 88.8815
1.65533, -1, -18.3839, 5.64721, 19.3108, -154.771, -94.6573, 88.5907
1.6634, -1, -18.5453, 5.60425, 19.3215, -154.821, -94.6399, 88.2996
1.67135, -1, -18.7069, 5.56126, 19.3322, -154.871, -94.6227, 88.0087
1.67936, -1, -18.8685, 5.51826, 19.3428, -154.921, -94.6053, 87.7179
1.68743, -1, -19.0303, 5.47517, 19.3534, -154.971, -94.5878, 87.4267
1.69543, -1, -19.1918, 5.43198, 19.364, -155.02, -94.57, 87.1354
1.70349, -1, -19.3533, 5.38881, 19.3746, -155.071, -94.5518, 86.8439
1.71143, -1, -19.5146, 5.34565, 19.3852, -155.12, -94.5339, 86.5523
1.71943, -1, -19.6755, 5.30241, 19.3959, -155.17, -94.5161, 86.2606
1.72743, -1, -19.8361, 5.25926, 19.4065, -155.221, -94.4985, 85.9688
1.73548, -1, -19.9966, 5.21606, 19.4172, -155.27, -94.4811, 85.6772
1.74346, -1, -20.1566, 5.17291, 19.428, -155.32, -94.4637, 85.3857
1.75213, -1, -20.3164, 5.12993, 19.4389, -155.371, -94.4461, 85.0938
1.75946, -1, -20.4763, 5.0869, 19.4497, -155.42, -94.4283, 84.802
1.76747, -1, -20.6364, 5.04383, 19.4604, -155.471, -94.4102, 84.5103
1.77635, -1, -20.7967, 5.00088, 19.4711, -155.521, -94.3922, 84.2184
1.78355, -1, -20.9574, 4.95786, 19.4818, -155.571, -94.3745, 83.9262
1.79168, -1, -21.1184, 4.91475, 19.4925, -155.621, -94.357, 83.634
1.80053, -1, -21.2799, 4.87163, 19.5031, -155.672, -94.3397, 83.3421
1.80785, -1, -21.4419, 4.8284, 19.5137, -155.721, -94.3225, 83.0499
1.81639, -1, -21.604, 4.78512, 19.5244, -155.772, -94.3051, 82.7572
1.82474, -1, -21.7663, 4.74187, 19.5353, -155.822, -94.2875, 82.4646
1.83187, -1, -21.9287, 4.69849, 19.546, -155.872, -94.2695, 82.172
1.84045, -1, -22.0912, 4.65509, 19.5568, -155.923, -94.2515, 81.8793
1.84874, -1, -22.2537, 4.61174, 19.5675, -155.973, -94.2336, 81.5863
1.85605, -1, -22.3349, 4.59001, 19.5781, -156.023, -94.2161, 81.2936
1.86417, -1, -22.4971, 4.52491, 19.5889, -156.073, -94.1985, 81.001
1.87132, -1, -22.659, 4.50321, 19.5942, -156.098, -94.1898, 80.8545
1.87932, -1, -22.8206, 4.45977, 19.6049, -156.148, -94.1724, 80.5616
1.8884, -1, -23.0623, 4.39479, 19.621, -156.224, -94.1457, 80.1221
1.89535, -1, -23.1429, 4.37315, 19.6263, -156.249, -94.1366, 79.9756
1.90337, -1, -23.3038, 4.32981, 19.6371, -156.299, -94.1183, 79.6823
1.91132, -1, -23.4647, 4.28654, 19.6479, -156.35, -94.1002, 79.3887
1.91933, -1, -23.6256, 4.24325, 19.6588, -156.4, -94.0822, 79.0954
1.92739, -1, -23.7867, 4.19993, 19.6695, -156.45, -94.0645, 78.8021
1.93679, -1, -24.0288, 4.13494, 19.6856, -156.526, -94.0384, 78.3616
1.94333, -1, -24.1098, 4.11325, 19.6909, -156.551, -94.0297, 78.2146
1.95141, -1, -24.272, 4.06985, 19.7017, -156.602, -94.0121, 77.9208
1.95934, -1, -24.4346, 4.02643, 19.7124, -156.652, -93.9943, 77.6269
1.96972, -1, -24.6791, 3.96111, 19.7284, -156.727, -93.9671, 77.1853
1.97539, -1, -24.7608, 3.93933, 19.7337, -156.753, -93.9581, 77.0382
1.98491, -1, -24.9241, 3.89579, 19.7499, -156.829, -93.9314, 76.5974
1.99162, -1, -25.0876, 3.85224, 19.7554, -156.854, -93.9225, 76.4502
2.00037, -1, -25.2508, 3.80868, 19.7663, -156.904, -93.9051, 76.1559
2.00734, -1, -25.414, 3.76508, 19.7772, -156.955, -93.8876, 75.8615
2.01614, -1, -25.5768, 3.72143, 19.7879, -157.005, -93.8699, 75.5673
2.02331, -1, -25.7394, 3.67783, 19.7986, -157.055, -93.8519, 75.2726
2.03133, -1, -25.9019, 3.63435, 19.8094, -157.106, -93.8336, 74.9778
2.04014, -1, -26.0641, 3.59077, 19.8202, -157.156, -93.8153, 74.6832
2.04733, -1, -26.2259, 3.5473, 19.831, -157.207, -93.7971, 74.3886
2.05533, -1, -26.3875, 3.50389, 19.8418, -157.258, -93.7793, 74.0938
2.06414, -1, -26.5492, 3.46035, 19.8525, -157.308, -93.7616, 73.7985
2.07131, -1, -26.7111, 3.41686, 19.8633, -157.359, -93.7441, 73.5034
2.0793, -1, -26.8733, 3.37334, 19.8742, -157.41, -93.7264, 73.2082
2.09095, -1, -27.1173, 3.30787, 19.8905, -157.485, -93.6993, 72.7648
2.09637, -1, -27.1987, 3.2861, 19.8959, -157.511, -93.6902, 72.6171
2.10333, -1, -27.362, 3.24251, 19.9066, -157.561, -93.6719, 72.3219
2.11138, -1, -27.5257, 3.1987, 19.9174, -157.612, -93.6538, 72.0265
2.11935, -1, -27.6895, 3.15501, 19.9282, -157.663, -93.6359, 71.7309
2.12734, -1, -27.8536, 3.11136, 19.9389, -157.713, -93.6182, 71.4351
2.13538, -1, -28.0178, 3.0676, 19.9498, -157.764, -93.6005, 71.1395
2.14332, -1, -28.1821, 3.02387, 19.9605, -157.815, -93.5827, 70.8437
2.15132, -1, -28.3464, 2.98014, 19.9714, -157.865, -93.5647, 70.5475
2.15938, -1, -28.5103, 2.9364, 19.9823, -157.916, -93.5463, 70.2516
2.16732, -1, -28.6741, 2.89273, 19.9932, -157.967, -93.5278, 69.9556
2.17541, -1, -28.8376, 2.849, 20.004, -158.018, -93.5096, 69.6594
2.18334, -1, -29.0007, 2.80527, 20.0148, -158.069, -93.4917, 69.3629
2.19137, -1, -29.1635, 2.76159, 20.0255, -158.12, -93.4739, 69.0664
2.19946, -1, -29.3262, 2.7179, 20.0364, -158.17, -93.4563, 68.77
2.20746, -1, -29.4889, 2.67419, 20.0472, -158.221, -93.4386, 68.4731
2.21541, -1, -29.6517, 2.6304, 20.058, -158.272, -93.4206, 68.1762
2.22349, -1, -29.8147, 2.58658, 20.0688, -158.323, -93.4023, 67.8796
2.23142, -1, -29.9778, 2.54282, 20.0797, -158.375, -93.3839, 67.5829
2.23932, -1, -30.1411, 2.49893, 20.0908, -158.425, -93.3656, 67.2859
2.24757, -1, -30.3049, 2.45495, 20.1017, -158.476, -93.3476, 66.9888
2.25534, -1, -30.4692, 2.41101, 20.1127, -158.527, -93.3298, 66.6919
2.26341, -1, -30.6339, 2.367, 20.1235, -158.578, -93.3121, 66.3948
2.27147, -1, -30.7989, 2.32301, 20.1343, -158.629, -93.2943, 66.0973
2.27946, -1, -30.9641, 2.27904, 20.1452, -158.68, -93.2762, 65.8
2.28786, -1, -31.1291, 2.23494, 20.1561, -158.731, -93.2578, 65.503
2.29562, -1, -31.2942, 2.191, 20.167, -158.782, -93.2393, 65.2055
2.30376, -1, -31.4591, 2.1471, 20.1778, -158.833, -93.2209, 64.9076
2.31185, -1, -31.6237, 2.10304, 20.1886, -158.884, -93.203, 64.61
2.32046, -1, -31.7883, 2.05906, 20.1996, -158.935, -93.1852, 64.312
2.32781, -1, -31.9526, 2.01512, 20.2105, -158.987, -93.1676, 64.0138
2.33641, -1, -32.1165, 1.97111, 20.2215, -159.037, -93.15, 63.7156
2.34388, -1, -32.2801, 1.92709, 20.2324, -159.089, -93.132, 63.4179
2.35244, -1, -32.4436, 1.88304, 20.2433, -159.14, -93.1138, 63.1198
2.36002, -1, -32.5255, 1.83888, 20.2543, -159.191, -93.0954, 62.8214
2.36882, -1, -32.6893, 1.81683, 20.2598, -159.217, -93.0863, 62.6722
2.37635, -1, -32.9352, 1.7507, 20.2761, -159.294, -93.0592, 62.2248
2.38336, -1, -33.0174, 1.72858, 20.2816, -159.319, -93.0503, 62.0756
2.3913, -1, -33.1819, 1.68436, 20.2925, -159.371, -93.0324, 61.7769
2.3993, -1, -33.3466, 1.64022, 20.3034, -159.422, -93.0146, 61.4782
2.40858, -1, -33.5946, 1.57383, 20.3199, -159.499, -92.9876, 61.0304
2.41532, -1, -33.6775, 1.5517, 20.3254, -159.525, -92.9784, 60.881
2.42336, -1, -33.8432, 1.50751, 20.3363, -159.576, -92.9598, 60.582
2.43293, -1, -34.0921, 1.44119, 20.3526, -159.653, -92.9319, 60.1332
2.44136, -1, -34.2581, 1.39705, 20.3636, -159.704, -92.9137, 59.8339
2.44735, -1, -34.3412, 1.37493, 20.3691, -159.73, -92.9047, 59.684
2.45693, -1, -34.5902, 1.30859, 20.3854, -159.807, -92.878, 59.2346
2.46484, -1, -34.7557, 1.26441, 20.3964, -159.858, -92.8601, 58.9353
2.47296, -1, -34.9209, 1.22018, 20.4073, -159.909, -92.8421, 58.6359
2.4793, -1, -35.0034, 1.19806, 20.4128, -159.935, -92.8329, 58.486
2.48904, -1, -35.1682, 1.13156, 20.4295, -160.012, -92.8052, 58.0363
2.49544, -1, -35.3327, 1.10941, 20.435, -160.038, -92.7959, 57.8865
2.50331, -1, -35.4967, 1.06524, 20.4462, -160.09, -92.7775, 57.5867
2.51232, -1, -35.6589, 1.02138, 20.4574, -160.141, -92.7594, 57.2868
2.51937, -1, -35.8183, 0.978169, 20.4689, -160.192, -92.7415, 56.9882
2.5273, -1, -35.9738, 0.936098, 20.4808, -160.242, -92.7238, 56.6931
2.53532, -1, -36.1241, 0.895635, 20.4927, -160.292, -92.7063, 56.404
2.54336, -1, -36.2666, 0.857415, 20.5046, -160.339, -92.6891, 56.1251
2.5513, -1, -36.3996, 0.82215, 20.5162, -160.384, -92.6727, 55.8628
2.55936, -1, -36.5213, 0.789913, 20.5268, -160.424, -92.6576, 55.6234
2.56735, -1, -36.6303, 0.761099, 20.5361, -160.46, -92.6444, 55.4122
2.5753, -1, -36.7248, 0.736073, 20.5434, -160.49, -92.6334, 55.2344
2.58334, -1, -36.8047, 0.714893, 20.5484, -160.514, -92.6247, 55.0916
2.59136, -1, -36.8708, 0.697501, 20.5513, -160.533, -92.6183, 54.9837
2.5993, -1, -36.9238, 0.683549, 20.5526, -160.547, -92.6138, 54.9075
2.60734, -1, -36.9642, 0.672763, 20.5529, -160.555, -92.6109, 54.8561
2.61532, -1, -36.9936, 0.665047, 20.5527, -160.561, -92.6093, 54.8248
2.62336, -1, -37.0138, 0.660033, 20.5522, -160.564, -92.6083, 54.8072
2.63134, -1, -37.0261, 0.65703, 20.5519, -160.566, -92.6078, 54.7982
2.63932, 2, -37.0326, 0.655459, 20.5517, -160.567, -92.6076, 54.7939
2.64729, 2, -37.0347, 0.654741, 20.5516, -160.567, -92.6076, 54.792
2.65531, 2, -37.0345, 0.654457, 20.5516, -160.567, -92.6076, 54.7911
2.66337, 2, -37.0338, 0.654335, 20.5516, -160.568, -92.6075, 54.7907
2.6713, 2, -37.0335, 0.654268, 20.5515, -160.568, -92.6076, 54.7905
2.67934, 2, -37.0339, 0.654211, 20.5515, -160.568, -92.6076, 54.7905
2.68738, 2, -37.035, 0.654166, 20.5514, -160.568, -92.6076, 54.7905
2.69535, 2, -37.0361, 0.654043, 20.5513, -160.568, -92.6076, 54.7904
2.70341, 2, -37.0376, 0.653828, 20.5511, -160.568, -92.6076, 54.7905
2.71144, 2, -37.039, 0.653563, 20.5509, -160.568, -92.6076, 54.7905
2.71939, 2, -37.0403, 0.653313, 20.5507, -160.568, -92.6077, 54.7906
2.72742, 2, -37.0412, 0.6531, 20.5505, -160.568, -92.6077, 54.7907
2.73546, 2, -37.0416, 0.652982, 20.5503, -160.568, -92.6078, 54.7908
2.74332, 2, -37.0416, 0.65293, 20.5502, -160.568, -92.6078, 54.7909
2.75137, 2, -37.0412, 0.652923, 20.5501, -160.568, -92.6079, 54.791
2.75938, 2, -37.0403, 0.652952, 20.55, -160.568, -92.608, 54.7911
2.76733, 2, -37.0394, 0.653012, 20.5499, -160.568, -92.608, 54.7913
2.77576, 2, -37.0378, 0.653078, 20.5499, -160.568, -92.608, 54.7915
2.78349, 2, -37.0363, 0.653138, 20.5498, -160.568, -92.608, 54.7917
2.79153, 2, -37.0352, 0.653166, 20.5497, -160.567, -92.6081, 54.7918
2.79995, 2, -37.0345, 0.653179, 20.5497, -160.567, -92.6081, 54.7918
2.80838, 2, -37.0343, 0.653156, 20.5497, -160.567, -92.6081, 54.7918
2.8157, 2, -37.0343, 0.65313, 20.5496, -160.567, -92.6081, 54.7918
2.82428, 2, -37.0345, 0.653065, 20.5496, -160.567, -92.6081, 54.7919
2.83184, 2, -37.0347, 0.65301, 20.5496, -160.567, -92.6081, 54.7919
2.84044, 2, -37.0353, 0.652967, 20.5496, -160.567, -92.6081, 54.7919
2.84828, 2, -37.036, 0.652965, 20.5495, -160.567, -92.6081, 54.7919
2.85586, 2, -37.0368, 0.652935, 20.5495, -160.567, -92.6081, 54.792
2.86445, 2, -37.0374, 0.652955, 20.5495, -160.567, -92.6081, 54.7921
2.87223, 2, -37.0378, 0.652978, 20.5495, -160.567, -92.6081, 54.7921
2.87933, 2, -37.0379, 0.652999, 20.5495, -160.567, -92.6081, 54.7922
2.88846, 2, -37.038, 0.653048, 20.5495, -160.567, -92.6081, 54.7922
2.89615, 2, -37.038, 0.653057, 20.5495, -160.567, -92.6082, 54.7922
2.90334, 2, -37.0379, 0.653068, 20.5495, -160.567, -92.6082, 54.7922
2.91251, 2, -37.0373, 0.653074, 20.5495, -160.567, -92.6081, 54.7923
2.91932, 2, -37.0371, 0.653064, 20.5495, -160.567, -92.6082, 54.7923
2.92732, 2, -37.0369, 0.653034, 20.5495, -160.567, -92.6082, 54.7924
2.93529, 2, -37.0367, 0.653008, 20.5495, -160.567, -92.6082, 54.7925
2.94521, 2, -37.0366, 0.652978, 20.5494, -160.567, -92.6082, 54.7925
2.95133, 2, -37.0366, 0.652981, 20.5494, -160.567, -92.6082, 54.7925
2.96087, 2, -37.0366, 0.652976, 20.5494, -160.567, -92.6082, 54.7926
2.9694, 2, -37.0367, 0.652982, 20.5494, -160.567, -92.6082, 54.7927
2.97533, 2, -37.0368, 0.652991, 20.5494, -160.567, -92.6082, 54.7927
2.9849, 2, -37.0368, 0.653032, 20.5494, -160.567, -92.6082, 54.7927
2.99317, 2, -37.0372, 0.653057, 20.5493, -160.567, -92.6082, 54.7928
2.99933, 2, -37.0372, 0.653063, 20.5494, -160.567, -92.6082, 54.7928
3.00909, 2, -37.0373, 0.65306, 20.5493, -160.567, -92.6083, 54.7929
3.01532, 2, -37.0374, 0.653062, 20.5493, -160.567, -92.6082, 54.7929
3.02333, 2, -37.0374, 0.65304, 20.5493, -160.567, -92.6082, 54.7929
3.03135, 2, -37.0374, 0.653023, 20.5493, -160.567, -92.6083, 54.793
3.0393, 2, -37.0374, 0.653008, 20.5493, -160.567, -92.6083, 54.7931
3.04734, 2, -37.0373, 0.652996, 20.5493, -160.567, -92.6082, 54.7931
3.05528, 2, -37.0373, 0.652991, 20.5493, -160.567, -92.6082, 54.7932
3.0633, 2, -37.0373, 0.652988, 20.5492, -160.567, -92.6083, 54.7932
3.07133, 2, -37.0373, 0.652982, 20.5492, -160.567, -92.6083, 54.7932
3.0793, 2, -37.0373, 0.652984, 20.5492, -160.567, -92.6083, 54.7933
3.08732, 2, -37.0373, 0.653009, 20.5492, -160.567, -92.6083, 54.7933
3.09534, 2, -37.0372, 0.653016, 20.5492, -160.567, -92.6083, 54.7933
3.10329, 2, -37.0372, 0.653042, 20.5492, -160.567, -92.6084, 54.7934
3.11132, 2, -37.0373, 0.65305, 20.5492, -160.567, -92.6083, 54.7934
3.11935, 2, -37.0372, 0.653039, 20.5492, -160.567, -92.6083, 54.7935
3.12732, 2, -37.0372, 0.653059, 20.5492, -160.567, -92.6083, 54.7935
3.13532, 2, -37.0373, 0.653069, 20.5492, -160.567, -92.6084, 54.7936
3.14334, 2, -37.0373, 0.653044, 20.5492, -160.567, -92.6083, 54.7937
3.15128, 2, -37.0373, 0.653018, 20.5491, -160.567, -92.6084, 54.7937
3.15931, 2, -37.0372, 0.653008, 20.5491, -160.567, -92.6084, 54.7938
3.16734, 2, -37.0372, 0.653027, 20.5491, -160.567, -92.6084, 54.7938
3.17528, 2, -37.0371, 0.653017, 20.5491, -160.567, -92.6084, 54.7939
3.18332, 2, -37.0372, 0.653013, 20.5491, -160.567, -92.6084, 54.7939
3.19137, 2, -37.0372, 0.653011, 20.5491, -160.567, -92.6084, 54.794
3.19939, 2, -37.0372, 0.65301, 20.5491, -160.567, -92.6084, 54.794
3.2074, 2, -37.0371, 0.65302, 20.5491, -160.567, -92.6084, 54.794
3.21543, 2, -37.0371, 0.653051, 20.5491, -160.567, -92.6084, 54.794
3.22338, 2, -37.0371, 0.653065, 20.5491, -160.567, -92.6084, 54.794
3.23141, 2, -37.0371, 0.653053, 20.5491, -160.567, -92.6084, 54.7941
3.23945, 2, -37.0371, 0.653037, 20.5491, -160.567, -92.6084, 54.7941
3.24729, 2, -37.0371, 0.653022, 20.5491, -160.567, -92.6084, 54.7941
3.25535, 2, -37.0371, 0.653015, 20.5491, -160.567, -92.6084, 54.7942
3.26356, 2, -37.0371, 0.65301, 20.5491, -160.567, -92.6084, 54.7942
3.27134, 2, -37.0371, 0.653017, 20.549, -160.567, -92.6084, 54.7943
3.27945, 2, -37.0371, 0.653013, 20.549, -160.567, -92.6084, 54.7943
3.28837, 2, -37.0371, 0.653011, 20.549, -160.567, -92.6084, 54.7943
3.29554, 2, -37.037, 0.653039, 20.549, -160.567, -92.6084, 54.7943
3.30367, 2, -37.037, 0.65303, 20.549, -160.567, -92.6084, 54.7944
3.31173, 2, -37.037, 0.653048, 20.549, -160.567, -92.6083, 54.7944
3.31971, 2, -37.037, 0.653064, 20.549, -160.567, -92.6084, 54.7944
3.32788, 2, -37.037, 0.653041, 20.5489, -160.567, -92.6085, 54.7944
3.33591, 2, -37.0369, 0.653042, 20.549, -160.567, -92.6085, 54.7944
3.34444, 2, -37.0369, 0.653054, 20.549, -160.567, -92.6084, 54.7945
3.3519, 2, -37.0369, 0.653055, 20.549, -160.567, -92.6085, 54.7945
3.36044, 2, -37.0369, 0.653041, 20.5489, -160.567, -92.6085, 54.7944
3.36782, 2, -37.0369, 0.653042, 20.5489, -160.567, -92.6085, 54.7945
3.37529, 2, -37.0369, 0.653042, 20.5489, -160.567, -92.6085, 54.7945
3.38435, 2, -37.0369, 0.653043, 20.5489, -160.567, -92.6085, 54.7945
3.39128, 2, -37.0369, 0.653043, 20.5489, -160.567, -92.6085, 54.7945
3.3993, 2, -37.0368, 0.653035, 20.5489, -160.567, -92.6085, 54.7946
3.40731, 2, -37.0368, 0.653058, 20.5489, -160.567, -92.6084, 54.7946
3.41528, 2, -37.0368, 0.653068, 20.5489, -160.567, -92.6085, 54.7947
3.42459, 2, -37.0368, 0.653056, 20.5488, -160.567, -92.6085, 54.7947
3.43132, 2, -37.0368, 0.653063, 20.5488, -160.567, -92.6085, 54.7947
3.43928, 2, -37.0368, 0.65307, 20.5488, -160.567, -92.6085, 54.7948
3.44881, 2, -37.0368, 0.653056, 20.5488, -160.567, -92.6085, 54.7947
3.4569, 2, -37.0367, 0.653067, 20.5488, -160.567, -92.6085, 54.7948
3.46486, 2, -37.0367, 0.653073, 20.5488, -160.567, -92.6085, 54.7948
3.47286, 2, -37.0367, 0.653064, 20.5488, -160.567, -92.6085, 54.7948
3.48089, 2, -37.0367, 0.653063, 20.5488, -160.567, -92.6085, 54.7948
3.48902, 2, -37.0367, 0.653071, 20.5488, -160.567, -92.6085, 54.7949
3.49528, 2, -37.0367, 0.653062, 20.5488, -160.567, -92.6086, 54.7949
3.50332, 2, -37.0367, 0.653052, 20.5488, -160.566, -92.6086, 54.7949
3.51229, 2, -37.0367, 0.653047, 20.5487, -160.566, -92.6085, 54.7949
3.52027, 2, -37.0366, 0.653056, 20.5487, -160.566, -92.6085, 54.795
3.52732, 2, -37.0366, 0.653067, 20.5487, -160.566, -92.6085, 54.7949
3.53527, 2, -37.0366, 0.653072, 20.5487, -160.566, -92.6086, 54.7949
3.54329, 2, -37.0366, 0.653075, 20.5487, -160.566, -92.6086, 54.795
3.55132, 2, -37.0366, 0.653058, 20.5487, -160.566, -92.6086, 54.7949
3.55928, 2, -37.0366, 0.653068, 20.5487, -160.566, -92.6086, 54.7949
3.56729, 2, -37.0366, 0.653073, 20.5487, -160.566, -92.6086, 54.7949
3.57532, 2, -37.0366, 0.653046, 20.5487, -160.566, -92.6086, 54.7949
3.58332, 2, -37.0366, 0.653044, 20.5487, -160.566, -92.6086, 54.7949
3.59131, 2, -37.0366, 0.653025, 20.5487, -160.566, -92.6085, 54.7949
3.59933, 2, -37.0366, 0.653035, 20.5487, -160.566, -92.6086, 54.795
3.60728, 2, -37.0366, 0.653039, 20.5487, -160.566, -92.6086, 54.795
3.61531, 2, -37.0366, 0.653034, 20.5486, -160.566, -92.6087, 54.795
3.62332, 2, -37.0366, 0.653039, 20.5486, -160.566, -92.6086, 54.795
3.6313, 2, -37.0366, 0.653059, 20.5486, -160.566, -92.6086, 54.795
3.63946, 2, -37.0366, 0.65305, 20.5486, -160.566, -92.6086, 54.7951
3.64733, 2, -37.0366, 0.653035, 20.5486, -160.566, -92.6087, 54.7951
3.65626, 2, -37.0366, 0.65305, 20.5486, -160.566, -92.6086, 54.7951
3.66332, 2, -37.0366, 0.653054, 20.5486, -160.566, -92.6086, 54.7951
3.67127, 2, -37.0366, 0.653048, 20.5486, -160.566, -92.6086, 54.7951
3.6793, 2, -37.0366, 0.653045, 20.5486, -160.566, -92.6086, 54.7952
3.68735, 2, -37.0366, 0.653044, 20.5486, -160.566, -92.6086, 54.7952
3.6953, 2, -37.0365, 0.653054, 20.5486, -160.566, -92.6087, 54.7952
3.70347, 2, -37.0365, 0.653037, 20.5486, -160.566, -92.6086, 54.7951
3.71141, 2, -37.0365, 0.653051, 20.5486, -160.566, -92.6086, 54.7951
3.71937, 2, -37.0365, 0.653065, 20.5485, -160.566, -92.6086, 54.7951
3.72736, 4, -37.0365, 0.653042, 20.5485, -160.566, -92.6087, 54.7951
3.73542, 4, -37.0365, 0.653035, 20.5485, -160.566, -92.6087, 54.7951
3.74333, 4, -37.0365, 0.653058, 20.5485, -160.566, -92.6086, 54.7951
3.7513, 4, -37.0365, 0.653075, 20.5485, -160.566, -92.6087, 54.7951
3.75944, 4, -37.0365, 0.653081, 20.5485, -160.566, -92.6087, 54.7952
3.7673, 4, -37.0365, 0.653068, 20.5485, -160.566, -92.6087, 54.7952
3.77536, 4, -37.0364, 0.653065, 20.5485, -160.566, -92.6087, 54.7951
3.78342, 4, -37.0364, 0.653072, 20.5485, -160.566, -92.6087, 54.7952
3.79189, 4, -37.0364, 0.653056, 20.5485, -160.566, -92.6087, 54.7951
3.80026, 4, -37.0364, 0.653038, 20.5485, -160.566, -92.6087, 54.7952
3.80768, 4, -37.0364, 0.653041, 20.5485, -160.566, -92.6087, 54.7952
3.81634, 4, -37.0363, 0.653053, 20.5485, -160.566, -92.6087, 54.7951
3.82371, 4, -37.0363, 0.653047, 20.5485, -160.566, -92.6087, 54.7952
3.85027, 4, -37.0363, 0.65307, 20.5484, -160.566, -92.6087, 54.7952
3.85592, 4, -37.0363, 0.653074, 20.5484, -160.566, -92.6087, 54.7952
3.85787, 4, -37.0363, 0.653074, 20.5484, -160.566, -92.6087, 54.7952
3.86048, 4, -37.0363, 0.653075, 20.5484, -160.566, -92.6087, 54.7952
3.86463, 4, -37.0363, 0.653075, 20.5484, -160.566, -92.6087, 54.7951
3.87226, 4, -37.0362, 0.653076, 20.5484, -160.566, -92.6087, 54.7951
3.87926, 4, -37.036, 0.653047, 20.5484, -160.566, -92.6087, 54.7952
3.88853, 4, -37.033, 0.651963, 20.5486, -160.566, -92.6087, 54.7952
3.89759, 4, -37.0272, 0.649015, 20.5495, -160.566, -92.6087, 54.7952
3.90527, 4, -37.0177, 0.643002, 20.552, -160.566, -92.6087, 54.7952
3.91126, 4, -37.0115, 0.638674, 20.5543, -160.566, -92.6087, 54.7952
3.91928, 4, -36.9958, 0.627123, 20.5617, -160.564, -92.6088, 54.7952
3.92741, 5, -36.9749, 0.611107, 20.5742, -160.562, -92.6087, 54.7952
3.93525, 5, -36.9482, 0.590687, 20.5929, -160.558, -92.6085, 54.7951
3.94327, 5, -36.9166, 0.565762, 20.6183, -160.553, -92.6082, 54.7951
3.95273, 5, -36.8601, 0.520034, 20.6693, -160.542, -92.6073, 54.7951
3.96079, 5, -36.8162, 0.483617, 20.7107, -160.533, -92.6061, 54.795
3.96898, 5, -36.7672, 0.442653, 20.7572, -160.522, -92.6045, 54.795
3.97554, 5, -36.7407, 0.42062, 20.7819, -160.517, -92.6037, 54.795
3.98557, 5, -36.6548, 0.349355, 20.8603, -160.499, -92.601, 54.795
3.99127, 5, -36.6241, 0.324272, 20.8874, -160.493, -92.6001, 54.795
4.00176, 5, -36.5269, 0.246109, 20.97, -160.475, -92.5974, 54.7949
4.00829, 5, -36.4934, 0.21942, 20.9978, -160.469, -92.5964, 54.7949
4.01526, 5, -36.4256, 0.165687, 21.0533, -160.457, -92.5945, 54.795
4.02496, 5, -36.3571, 0.111689, 21.109, -160.445, -92.5925, 54.795
4.03124, 5, -36.2884, 0.0576547, 21.1645, -160.433, -92.5905, 54.795
4.03932, 5, -36.2195, 0.00376625, 21.2201, -160.421, -92.5885, 54.7951
4.04959, 5, -36.1164, -0.0766649, 21.3034, -160.402, -92.5854, 54.7953
4.05767, 5, -36.0821, -0.129968, 21.3588, -160.39, -92.5833, 54.7955
4.06333, 5, -36.0135, -0.156515, 21.3865, -160.383, -92.5823, 54.7956
4.07126, 5, -35.9449, -0.209493, 21.4418, -160.37, -92.5802, 54.7959
4.07926, 5, -35.8764, -0.262308, 21.4971, -160.357, -92.5781, 54.7965
4.08743, 5, -35.8076, -0.315001, 21.5522, -160.345, -92.5761, 54.7972
4.09527, 5, -35.7387, -0.36775, 21.6073, -160.332, -92.5739, 54.7982
4.10744, 5, -35.6348, -0.446835, 21.6894, -160.313, -92.5707, 54.7998
4.11222, 5, -35.6, -0.473268, 21.7167, -160.307, -92.5697, 54.8005
4.12024, 5, -35.5303, -0.526163, 21.7712, -160.294, -92.5675, 54.8019
4.12747, 5, -35.4603, -0.579017, 21.8255, -160.282, -92.5654, 54.8034
4.13629, 5, -35.3901, -0.631874, 21.8796, -160.269, -92.5632, 54.8051
4.14425, 5, -35.3197, -0.68469, 21.9336, -160.256, -92.5611, 54.8069
4.15147, 5, -35.2491, -0.737444, 21.9876, -160.243, -92.5588, 54.8087
4.16031, 5, -35.1786, -0.789884, 22.0413, -160.229, -92.5567, 54.8108
4.16727, 5, -35.108, -0.842137, 22.0951, -160.216, -92.5544, 54.813
4.17542, 5, -35.0374, -0.894283, 22.1487, -160.203, -92.5521, 54.8153
4.18425, 5, -34.9668, -0.946078, 22.2022, -160.19, -92.5499, 54.8177
4.19129, 5, -34.8964, -0.997713, 22.2556, -160.177, -92.5476, 54.8203
4.20159, 5, -34.8258, -1.04916, 22.3089, -160.164, -92.5453, 54.8228
4.20781, 5, -34.7554, -1.1006, 22.3619, -160.151, -92.543, 54.8256
4.21538, 5, -34.6847, -1.15204, 22.4149, -160.138, -92.5407, 54.8285
4.22336, 5, -34.6138, -1.20336, 22.4676, -160.125, -92.5384, 54.8316
4.23142, 5, -34.5428, -1.2548, 22.5201, -160.112, -92.536, 54.8347
4.23935, 5, -34.4716, -1.30622, 22.5726, -160.099, -92.5336, 54.8379
4.24731, 5, -34.4002, -1.35762, 22.6249, -160.085, -92.5312, 54.8412
4.25552, 5, -34.3287, -1.409, 22.677, -160.071, -92.5289, 54.8446
4.26425, 5, -34.2571, -1.46028, 22.729, -160.057, -92.5265, 54.8482
4.27131, 5, -34.1852, -1.5114, 22.781, -160.044, -92.5241, 54.8518
4.28031, 5, -34.1133, -1.56224, 22.8327, -160.03, -92.5217, 54.8556
4.28742, 5, -34.0413, -1.61291, 22.8844, -160.017, -92.5192, 54.8595
4.29558, 5, -33.9691, -1.66335, 22.936, -160.003, -92.5168, 54.8633
4.30444, 5, -33.8969, -1.71353, 22.9874, -159.99, -92.5145, 54.8674
4.31288, 5, -33.8248, -1.76359, 23.0387, -159.976, -92.5121, 54.8715
4.32034, 5, -33.7526, -1.81359, 23.0898, -159.962, -92.5098, 54.8756
4.32877, 5, -33.6803, -1.86351, 23.1407, -159.948, -92.5074, 54.8799
4.33741, 5, -33.608, -1.91335, 23.1914, -159.934, -92.5051, 54.8842
4.34385, 5, -33.5353, -1.96344, 23.242, -159.919, -92.5028, 54.8886
4.35314, 5, -33.4625, -2.01376, 23.2925, -159.905, -92.5005, 54.8925
4.36074, 5, -33.3895, -2.06436, 23.3429, -159.891, -92.4982, 54.8957
4.36842, 5, -33.3168, -2.11537, 23.3932, -159.877, -92.4959, 54.8975
4.37576, 6, -33.2806, -2.14105, 23.4184, -159.87, -92.4947, 54.8978
4.38516, 6, -33.1722, -2.21923, 23.4943, -159.848, -92.4909, 54.8957
4.39128, 6, -33.1363, -2.24574, 23.5198, -159.841, -92.4893, 54.8937
4.39928, 6, -33.0648, -2.29939, 23.5713, -159.825, -92.4857, 54.8855
4.40928, 7, -32.9584, -2.3819, 23.6504, -159.798, -92.478, 54.8643
4.41528, 7, -32.9232, -2.40998, 23.6774, -159.788, -92.4746, 54.8557
4.42858, 7, -32.7838, -2.52607, 23.7891, -159.747, -92.4561, 54.819
4.43287, 7, -32.7493, -2.55606, 23.8179, -159.736, -92.4501, 54.81
4.43928, 7, -32.715, -2.58649, 23.8471, -159.725, -92.4436, 54.8012
4.44724, 8, -32.6468, -2.64852, 23.9065, -159.702, -92.4291, 54.784
4.45542, 8, -32.5794, -2.71233, 23.9673, -159.677, -92.4126, 54.7669
4.46322, 8, -32.5128, -2.77789, 24.0292, -159.65, -92.3942, 54.7492
4.47134, 8, -32.4469, -2.84508, 24.0921, -159.623, -92.3739, 54.7305
4.48088, 8, -32.3493, -2.94864, 24.1883, -159.581, -92.3414, 54.6996
4.48725, 9, -32.3171, -2.98382, 24.2209, -159.567, -92.33, 54.6884
4.49532, 9, -32.253, -3.0552, 24.2868, -159.537, -92.3064, 54.6646
4.50511, 9, -32.1894, -3.12795, 24.3876, -159.489, -92.2683, 54.6261
4.51203, 9, -32.1265, -3.20184, 24.4216, -159.473, -92.2547, 54.6127
4.52029, 9, -32.0642, -3.27713, 24.4905, -159.441, -92.2262, 54.5848
4.52727, 10, -32.0024, -3.35369, 24.5603, -159.407, -92.1965, 54.5554
4.53533, 10, -31.9412, -3.43158, 24.6313, -159.372, -92.1657, 54.5241
4.54324, 10, -31.8807, -3.51092, 24.7032, -159.336, -92.1337, 54.4907
4.55367, 10, -31.7908, -3.63259, 24.8132, -159.281, -92.0819, 54.4376
4.55937, 10, -31.7612, -3.67392, 24.8503, -159.262, -92.064, 54.4195
4.5673, 11, -31.7022, -3.75757, 24.9253, -159.223, -92.0277, 54.3822
4.57526, 11, -31.6438, -3.84274, 25.0013, -159.184, -91.9903, 54.3431
4.58337, 11, -31.5859, -3.92938, 25.0782, -159.144, -91.9508, 54.3019
4.59125, 11, -31.5285, -4.01747, 25.156, -159.103, -91.9098, 54.2593
4.59933, 11, -31.4717, -4.10706, 25.2349, -159.06, -91.8681, 54.2157
4.60723, 12, -31.4154, -4.19811, 25.3148, -159.017, -91.8248, 54.1705
4.61527, 12, -31.3595, -4.29058, 25.3959, -158.973, -91.7794, 54.1233
4.62332, 12, -31.3042, -4.38446, 25.478, -158.927, -91.7334, 54.0743
4.63144, 12, -31.2495, -4.47961, 25.5612, -158.881, -91.6862, 54.0244
4.64027, 12, -31.1952, -4.57613, 25.6453, -158.835, -91.6367, 53.973
4.64822, 13, -31.1415, -4.67414, 25.7304, -158.786, -91.5867, 53.9193
4.65531, 13, -31.0883, -4.77349, 25.8164, -158.738, -91.5351, 53.8647
4.66327, 13, -31.0355, -4.87429, 25.9034, -158.688, -91.4815, 53.8089
4.67128, 13, -30.9834, -4.97667, 25.9916, -158.637, -91.4276, 53.7509
4.6794, 13, -30.9317, -5.08049, 26.0809, -158.586, -91.3717, 53.6917
4.6884, 14, -30.8806, -5.18569, 26.1712, -158.533, -91.3146, 53.6316
4.69623, 14, -30.83, -5.29246, 26.2626, -158.479, -91.2567, 53.5693
4.70408, 14, -30.7801, -5.40069, 26.3549, -158.426, -91.1963, 53.5057
4.7126, 14, -30.7306, -5.51036, 26.4479, -158.371, -91.1359, 53.4415
4.71933, 14, -30.6816, -5.62165, 26.5421, -158.314, -91.0734, 53.3749
4.72833, 15, -30.6331, -5.73436, 26.6373, -158.258, -91.0095, 53.3072
4.73571, 15, -30.5851, -5.84847, 26.7337, -158.199, -90.9444, 53.2385
4.74334, 15, -30.5376, -5.96381, 26.8313, -158.141, -90.8776, 53.1674
4.75369, 15, -30.4907, -6.08054, 26.9299, -158.081, -90.8103, 53.0958
4.75966, 15, -30.4441, -6.19872, 27.0294, -158.02, -90.7406, 53.0222
4.76847, 15, -30.3982, -6.31824, 27.1297, -157.959, -90.6704, 52.9468
4.77528, 16, -30.3528, -6.43941, 27.231, -157.896, -90.5981, 52.8707
4.78343, 16, -30.3079, -6.56203, 27.3335, -157.833, -90.5253, 52.7919
4.79145, 16, -30.2634, -6.68598, 27.4372, -157.768, -90.4507, 52.7128
4.7995, 16, -30.2194, -6.81151, 27.5419, -157.704, -90.375, 52.6317
4.80811, 16, -30.176, -6.93858, 27.6477, -157.637, -90.2977, 52.5495
4.81563, 17, -30.1329, -7.06724, 27.7543, -157.571, -90.2194, 52.4661
4.82373, 17, -30.0905, -7.19748, 27.8618, -157.503, -90.1396, 52.3812
4.83216, 17, -30.0485, -7.32914, 27.9702, -157.434, -90.0582, 52.2954
4.84206, 17, -30.0071, -7.46205, 28.0798, -157.364, -89.976, 52.2074
4.84778, 17, -29.966, -7.59641, 28.1907, -157.294, -89.8922, 52.119
4.85634, 18, -29.9256, -7.73216, 28.3026, -157.222, -89.8072, 52.0286
4.86391, 18, -29.8856, -7.86934, 28.4155, -157.15, -89.7206, 51.9373
4.87242, 18, -29.8461, -8.00791, 28.5291, -157.077, -89.6334, 51.8441
4.88069, 18, -29.8071, -8.1476, 28.6437, -157.002, -89.5446, 51.7502
4.88921, 18, -29.7685, -8.28871, 28.7595, -156.927, -89.4543, 51.6543
4.89528, 19, -29.7494, -8.35976, 28.8179, -156.889, -89.4089, 51.6063
4.90324, 19, -29.7115, -8.50302, 28.9354, -156.813, -89.3172, 51.5088
4.91275, 19, -29.6555, -8.72099, 29.1135, -156.697, -89.1768, 51.3607
4.91919, 19, -29.6371, -8.79433, 29.1733, -156.658, -89.1295, 51.3105
4.92848, 19, -29.5826, -9.01605, 29.3537, -156.539, -88.9861, 51.1595
4.9352, 20, -29.5647, -9.09073, 29.4144, -156.498, -88.9376, 51.1081
4.94463, 20, -29.5115, -9.31698, 29.5984, -156.377, -88.7908, 50.9533
4.95135, 20, -29.494, -9.39318, 29.6603, -156.336, -88.7414, 50.901
4.95939, 20, -29.4594, -9.54638, 29.7846, -156.254, -88.6415, 50.7956
4.97196, 20, -29.4085, -9.77832, 29.9726, -156.128, -88.4899, 50.6352
4.9752, 21, -29.3917, -9.85632, 30.0358, -156.086, -88.4388, 50.581
4.98563, 21, -29.342, -10.0926, 30.2269, -155.957, -88.2835, 50.4173
4.99136, 21, -29.3256, -10.1721, 30.2911, -155.914, -88.2314, 50.3621
5.00177, 21, -29.2932, -10.3318, 30.4203, -155.784, -88.0733, 50.1957
5.00738, 21, -29.2613, -10.4924, 30.5503, -155.74, -88.0199, 50.1398
5.0155, 22, -29.2297, -10.6544, 30.6812, -155.651, -87.9128, 50.0272
5.02322, 22, -29.1986, -10.8178, 30.813, -155.561, -87.8046, 49.914
5.03243, 22, -29.1677, -10.9825, 30.9458, -155.471, -87.6954, 49.7997
5.04412, 22, -29.1374, -11.2312, 31.1467, -155.333, -87.5297, 49.6264
5.04718, 22, -29.1073, -11.3146, 31.2141, -155.287, -87.4738, 49.5684
5.056, 22, -29.0777, -11.4826, 31.3497, -155.194, -87.3618, 49.4513
5.06427, 23, -29.0484, -11.6524, 31.4861, -155.1, -87.2487, 49.3338
5.07129, 23, -29.0194, -11.8233, 31.6233, -155.005, -87.1346, 49.2153
5.08269, 23, -28.9768, -12.081, 31.8306, -154.862, -86.9622, 49.0369
5.0884, 23, -28.9628, -12.1676, 31.9001, -154.813, -86.9042, 48.977
5.09527, 23, -28.9351, -12.3419, 32.0399, -154.716, -86.7874, 48.8567
5.10328, 24, -28.9077, -12.5173, 32.1806, -154.618, -86.6698, 48.7362
5.11382, 24, -28.8671, -12.7815, 32.3929, -154.469, -86.4917, 48.5541
5.12022, 24, -28.8538, -12.87, 32.464, -154.419, -86.432, 48.493
5.13171, 24, -28.8144, -13.1379, 32.6788, -154.268, -86.2512, 48.3091
5.13636, 24, -28.8014, -13.2279, 32.7509, -154.217, -86.1908, 48.2476
5.14331, 25, -28.7757, -13.4081, 32.8956, -154.114, -86.0692, 48.1243
5.1513, 25, -28.7503, -13.589, 33.0408, -154.011, -85.9466, 48.0008
5.15944, 25, -28.725, -13.7712, 33.1866, -153.908, -85.8239, 47.8774
5.1675, 25, -28.6999, -13.9547, 33.3331, -153.803, -85.6998, 47.7536
5.17523, 25, -28.6751, -14.139, 33.4807, -153.697, -85.5755, 47.6297
5.18329, 26, -28.6507, -14.3236, 33.6289, -153.591, -85.4505, 47.5059
5.19143, 26, -28.6265, -14.5094, 33.7774, -153.484, -85.3248, 47.3815
5.19928, 26, -28.6027, -14.6967, 33.9267, -153.376, -85.1989, 47.2571
5.20748, 26, -28.579, -14.8845, 34.0768, -153.268, -85.0718, 47.133
5.21531, 26, -28.5553, -15.0725, 34.2276, -153.158, -84.9447, 47.0087
5.22337, 27, -28.532, -15.2613, 34.3788, -153.048, -84.8166, 46.8848
5.23205, 27, -28.509, -15.4511, 34.5304, -152.938, -84.6885, 46.7616
5.2401, 27, -28.486, -15.6412, 34.6827, -152.826, -84.5595, 46.6381
5.24779, 27, -28.4634, -15.8316, 34.8358, -152.714, -84.4302, 46.5151
5.25667, 27, -28.441, -16.0232, 34.9893, -152.601, -84.3005, 46.3924
5.26435, 28, -28.4187, -16.2163, 35.1428, -152.488, -84.1704, 46.2699
5.27213, 28, -28.3963, -16.41, 35.297, -152.374, -84.04, 46.148
5.27928, 28, -28.3742, -16.6041, 35.452, -152.259, -83.909, 46.0265
5.28837, 28, -28.3522, -16.7992, 35.6074, -152.144, -83.778, 45.9056
5.29628, 28, -28.3303, -16.9953, 35.763, -152.028, -83.6465, 45.7854
5.30346, 28, -28.3085, -17.1915, 35.919, -151.911, -83.5149, 45.6662
5.31249, 29, -28.2869, -17.3878, 36.0757, -151.793, -83.3827, 45.5476
5.31959, 29, -28.2654, -17.5851, 36.2332, -151.675, -83.2502, 45.4297
5.32842, 29, -28.2439, -17.7831, 36.3906, -151.556, -83.1173, 45.3127
5.33647, 29, -28.2224, -17.981, 36.5482, -151.436, -82.9843, 45.1962
5.34436, 29, -28.2013, -18.1791, 36.7066, -151.316, -82.8509, 45.0812
5.35259, 30, -28.1801, -18.3781, 36.8655, -151.195, -82.7174, 44.9672
5.36054, 30, -28.1588, -18.5774, 37.0242, -151.073, -82.584, 44.8545
5.36914, 30, -28.1376, -18.7765, 37.1827, -150.951, -82.4501, 44.7437
5.37587, 30, -28.127, -18.9764, 37.3414, -150.829, -82.3165, 44.6344
5.38427, 30, -28.0949, -19.1773, 37.5006, -150.706, -82.1822, 44.5272
5.39122, 31, -28.0841, -19.2777, 37.5802, -150.644, -82.1154, 44.474
5.39925, 31, -28.0626, -19.4784, 37.7392, -150.521, -81.9816, 44.3692
5.40924, 31, -28.0304, -19.7795, 37.9779, -150.334, -81.7804, 44.2149
5.41526, 31, -28.0196, -19.88, 38.0578, -150.272, -81.7133, 44.1644
5.42447, 31, -27.9869, -20.181, 38.2979, -150.083, -81.5118, 44.0146
5.43135, 32, -27.976, -20.2811, 38.3777, -150.02, -81.4447, 43.9656
5.4431, 32, -27.9429, -20.5825, 38.617, -149.831, -81.2434, 43.8217
5.44716, 32, -27.9317, -20.6833, 38.697, -149.767, -81.1765, 43.7748
5.45762, 32, -27.8977, -20.9847, 38.937, -149.576, -80.9756, 43.638
5.46559, 32, -27.875, -21.1854, 39.0961, -149.449, -80.8423, 43.55
5.4712, 33, -27.8635, -21.2859, 39.1755, -149.385, -80.7757, 43.5071
5.48086, 33, -27.8284, -21.5866, 39.4139, -149.194, -80.5767, 43.3835
5.48904, 33, -27.8046, -21.7859, 39.5725, -149.066, -80.4444, 43.3048
5.49738, 33, -27.7802, -21.9851, 39.7302, -148.938, -80.3129, 43.2295
5.50333, 33, -27.7678, -22.0847, 39.8087, -148.875, -80.2472, 43.1927
5.5128, 34, -27.7427, -22.2833, 39.9655, -148.747, -80.116, 43.1223
5.51925, 34, -27.7171, -22.4808, 40.1223, -148.619, -79.9853, 43.0555
5.52822, 34, -27.691, -22.6778, 40.2787, -148.492, -79.8545, 42.9909
5.53635, 34, -27.6645, -22.8748, 40.4342, -148.364, -79.724, 42.9303
5.54331, 34, -27.6376, -23.0711, 40.5892, -148.236, -79.5932, 42.873
5.55116, 35, -27.6101, -23.2665, 40.7444, -148.108, -79.4626, 42.8183
5.5592, 35, -27.5825, -23.4621, 40.8995, -147.98, -79.3318, 42.7673
5.56727, 35, -27.5548, -23.6581, 41.0538, -147.851, -79.2015, 42.7202
5.5752, 35, -27.5266, -23.8534, 41.2079, -147.722, -79.0712, 42.6762
5.58336, 35, -27.4982, -24.0481, 41.362, -147.592, -78.941, 42.6351
5.59159, 36, -27.4695, -24.2429, 41.5162, -147.462, -78.8112, 42.5977
5.60024, 36, -27.4403, -24.4375, 41.6698, -147.331, -78.6813, 42.5646
5.60851, 36, -27.4108, -24.6312, 41.8227, -147.2, -78.5523, 42.5356
5.61856, 36, -27.381, -24.8242, 41.9752, -147.004, -78.3589, 42.5002
5.62327, 36, -27.3505, -25.0173, 42.1275, -146.938, -78.2949, 42.4905
5.63143, 37, -27.3193, -25.2099, 42.2788, -146.808, -78.167, 42.4746
5.64021, 37, -27.2871, -25.4011, 42.429, -146.677, -78.0395, 42.4632
5.64823, 37, -27.2543, -25.5914, 42.5783, -146.547, -77.9125, 42.4567
5.66035, 37, -27.2034, -25.8757, 42.8005, -146.353, -77.7227, 42.4533
5.66335, 37, -27.1861, -25.9698, 42.8741, -146.289, -77.6598, 42.4538
5.67145, 37, -27.1506, -26.1566, 43.0203, -146.161, -77.5339, 42.4594
5.67921, 38, -27.1143, -26.3422, 43.1652, -146.033, -77.4089, 42.4716
5.68743, 38, -27.0774, -26.5272, 43.3093, -145.906, -77.2842, 42.4891
5.69582, 38, -27.0396, -26.7111, 43.4527, -145.778, -77.1601, 42.512
5.70423, 38, -27.001, -26.8934, 43.5953, -145.652, -77.0364, 42.5404
5.71139, 38, -26.9616, -27.0748, 43.7369, -145.525, -76.9131, 42.5747
5.7193, 39, -26.9215, -27.2559, 43.8775, -145.399, -76.7904, 42.6152
5.72731, 39, -26.8806, -27.4361, 44.0173, -145.272, -76.6675, 42.6617
5.73548, 39, -26.8386, -27.6148, 44.1561, -145.146, -76.5451, 42.7135
5.74419, 39, -26.796, -27.7928, 44.294, -145.02, -76.4227, 42.7714
5.75137, 39, -26.7525, -27.9704, 44.4307, -144.895, -76.3005, 42.8363
5.75921, 40, -26.7081, -28.147, 44.5662, -144.77, -76.1784, 42.9065
5.76726, 40, -26.6626, -28.3218, 44.7007, -144.646, -76.0565, 42.9837
5.77552, 40, -26.6162, -28.4953, 44.8341, -144.522, -75.9352, 43.0672
5.78472, 40, -26.5688, -28.6678, 44.9661, -144.4, -75.8138, 43.1568
5.79572, 40, -26.4957, -28.924, 45.1617, -144.217, -75.6333, 43.3042
5.80019, 41, -26.4708, -29.0085, 45.2263, -144.156, -75.5732, 43.3567
5.80747, 41, -26.4203, -29.1762, 45.3544, -144.036, -75.4532, 43.4668
5.81623, 41, -26.3685, -29.3429, 45.4813, -143.916, -75.334, 43.5837
5.82452, 41, -26.3155, -29.5084, 45.6068, -143.798, -75.2148, 43.7076
5.83163, 41, -26.2612, -29.6717, 45.7306, -143.68, -75.0965, 43.8386
5.8401, 42, -26.2055, -29.833, 45.8525, -143.564, -74.9785, 43.9771
5.84857, 42, -26.1483, -29.9926, 45.9726, -143.449, -74.8609, 44.1229
5.85573, 42, -26.0894, -30.1504, 46.0904, -143.336, -74.7442, 44.2755
5.86618, 42, -26.0289, -30.306, 46.2061, -143.225, -74.6277, 44.4354
5.87232, 42, -25.9667, -30.459, 46.3198, -143.116, -74.5119, 44.6025
5.87986, 42, -25.9028, -30.6098, 46.4311, -143.009, -74.3967, 44.7766
5.88876, 43, -25.8702, -30.6843, 46.4859, -142.956, -74.2817, 44.9586
5.89622, 43, -25.7698, -30.9047, 46.6472, -142.8, -74.1674, 45.1483
5.90325, 43, -25.7355, -30.977, 46.7, -142.749, -74.1103, 45.2461
5.91134, 43, -25.6658, -31.1198, 46.8041, -142.648, -73.9963, 45.4472
5.91917, 43, -25.5946, -31.2605, 46.9064, -142.55, -73.883, 45.6561
5.92727, 44, -25.5218, -31.3992, 47.0067, -142.453, -73.7702, 45.8728
5.93543, 44, -25.4472, -31.5358, 47.1046, -142.358, -73.6582, 46.0975
5.94542, 44, -25.3708, -31.7365, 47.2468, -142.22, -73.4911, 46.4497
5.95118, 44, -25.2928, -31.8021, 47.2931, -142.175, -73.4356, 46.5712
5.96067, 44, -25.1722, -31.9948, 47.4281, -142.045, -73.2707, 46.9478
5.96962, 45, -25.0894, -32.1199, 47.5152, -141.962, -73.1612, 47.2098
5.9752, 45, -25.0472, -32.1814, 47.5578, -141.921, -73.1067, 47.3439
5.98516, 45, -24.9175, -32.3616, 47.6811, -141.804, -72.9441, 47.7582
5.99134, 45, -24.8732, -32.4201, 47.7207, -141.766, -72.8899, 47.9005
6.00077, 45, -24.7827, -32.5347, 47.7976, -141.693, -72.7288, 48.3398
6.00883, 46, -24.6899, -32.6459, 47.8715, -141.589, -72.6219, 48.6436
6.01624, 46, -24.5948, -32.7538, 47.9425, -141.556, -72.5687, 48.7984
6.02418, 46, -24.4971, -32.8582, 48.0105, -141.493, -72.4633, 49.1141
6.03467, 46, -24.3463, -33.008, 48.1065, -141.406, -72.3065, 49.604
6.04042, 46, -24.2949, -33.0561, 48.1367, -141.379, -72.2549, 49.7714
6.04816, 47, -24.1904, -33.1494, 48.1947, -141.328, -72.1526, 50.112
6.05619, 47, -24.0835, -33.2388, 48.2491, -141.281, -72.051, 50.4609
6.06618, 47, -23.9183, -33.3653, 48.3238, -141.217, -71.9012, 51.0002
6.07126, 47, -23.8619, -33.4054, 48.3468, -141.199, -71.8517, 51.1841
6.07919, 47, -23.7471, -33.4826, 48.39, -141.165, -71.7538, 51.5587
6.08735, 48, -23.6295, -33.5555, 48.4293, -141.136, -71.6572, 51.942
6.09528, 48, -23.5091, -33.6239, 48.4644, -141.11, -71.5622, 52.3339
6.10321, 48, -23.3862, -33.6877, 48.4954, -141.09, -71.4686, 52.7354
6.11128, 48, -23.2609, -33.7467, 48.5223, -141.075, -71.3767, 53.1464
6.11918, 48, -23.1329, -33.8006, 48.5449, -141.065, -71.2871, 53.5663
6.12716, 49, -23.002, -33.8494, 48.5629, -141.06, -71.1992, 53.9953
6.13546, 49, -22.8682, -33.8929, 48.5766, -141.059, -71.113, 54.432
6.14423, 49, -22.7314, -33.9309, 48.5856, -141.064, -71.0294, 54.8763
6.15221, 49, -22.5916, -33.9632, 48.5898, -141.075, -70.9475, 55.3284
6.16038, 49, -22.4491, -33.9899, 48.5898, -141.092, -70.8682, 55.7875
6.16738, 50, -22.3037, -34.0105, 48.5848, -141.116, -70.7913, 56.2545
6.1753, 50, -22.1557, -34.0249, 48.5746, -141.145, -70.7174, 56.728
6.18521, 50, -22.0051, -34.0331, 48.5594, -141.18, -70.6461, 57.2093
6.19218, 50, -21.8515, -34.0353, 48.5389, -141.222, -70.5783, 57.6987
6.19918, 50, -21.6949, -34.0315, 48.5129, -141.27, -70.5132, 58.1954
6.20743, 51, -21.5352, -34.021, 48.4813, -141.324, -70.4527, 58.699
6.21698, 51, -21.3727, -34.0036, 48.4445, -141.385, -70.3947, 59.2086
6.22424, 51, -21.2075, -33.9794, 48.4021, -141.452, -70.3411, 59.7248
6.23161, 51, -21.0396, -33.948, 48.354, -141.525, -70.2912, 60.2468
6.24042, 51, -20.8693, -33.9095, 48.3004, -141.604, -70.2446, 60.7747
6.24839, 52, -20.6964, -33.8635, 48.2409, -141.69, -70.2025, 61.3079
6.2562, 52, -20.5208, -33.8096, 48.1754, -141.781, -70.1652, 61.8477
6.26358, 52, -20.3426, -33.7479, 48.104, -141.88, -70.1324, 62.3941
6.27222, 52, -20.1614, -33.678, 48.0265, -141.985, -70.104, 62.9474
6.27926, 52, -19.9775, -33.5999, 47.9427, -142.096, -70.0807, 63.506
6.28739, 52, -19.7912, -33.5134, 47.8526, -142.213, -70.0628, 64.0712
6.29536, 53, -19.6026, -33.4182, 47.7564, -142.337, -70.0505, 64.6419
6.30352, 53, -19.4123, -33.3149, 47.6542, -142.466, -70.0436, 65.2174
6.31262, 53, -19.2199, -33.2034, 47.5461, -142.602, -70.0415, 65.7962
6.32101, 53, -19.0257, -33.0838, 47.4321, -142.743, -70.0446, 66.3788
6.3283, 53, -18.8299, -32.9558, 47.3122, -142.889, -70.0539, 66.9641
6.3356, 54, -18.6323, -32.8196, 47.1864, -143.039, -70.0694, 67.5507
6.34411, 54, -18.4328, -32.6751, 47.0549, -143.194, -70.0916, 68.1381
6.35175, 54, -18.2314, -32.5224, 46.9179, -143.354, -70.1205, 68.727
6.36028, 54, -18.0285, -32.3614, 46.7753, -143.518, -70.1555, 69.3176
6.36806, 54, -17.8245, -32.1915, 46.6268, -143.687, -70.1969, 69.9096
6.37656, 55, -17.6196, -32.0123, 46.4718, -143.86, -70.2466, 70.5044
6.3842, 55, -17.4133, -31.8237, 46.3106, -144.038, -70.3037, 71.1034
6.3912, 55, -17.3096, -31.726, 46.2276, -144.129, -70.335, 71.4047
6.40022, 55, -16.9961, -31.418, 45.9671, -144.409, -70.4432, 72.3149
6.40723, 55, -16.8907, -31.3099, 45.8764, -144.505, -70.4833, 72.6208
6.41667, 56, -16.5721, -30.9698, 45.5942, -144.8, -70.6185, 73.5461
6.42478, 56, -16.3578, -30.7299, 45.3973, -145.003, -70.7196, 74.1679
6.43118, 56, -16.2502, -30.6057, 45.2958, -145.105, -70.7738, 74.4798
6.44263, 56, -15.9275, -30.2171, 44.9808, -145.42, -70.9505, 75.4202
6.44732, 56, -15.82, -30.0824, 44.8729, -145.526, -71.014, 75.7351
6.45514, 57, -15.6046, -29.8047, 44.6519, -145.741, -71.1482, 76.3657
6.46476, 57, -15.2794, -29.369, 44.3075, -146.069, -71.3675, 77.3131
6.47274, 57, -15.0613, -29.0656, 44.0705, -146.291, -71.526, 77.9461
6.48149, 57, -14.843, -28.7532, 43.8268, -146.514, -71.6938, 78.5785
6.48718, 57, -14.7341, -28.594, 43.7031, -146.626, -71.7814, 78.8938
6.49719, 58, -14.4082, -28.104, 43.3256, -146.962, -72.0567, 79.8366
6.50598, 58, -14.1922, -27.7679, 43.0687, -147.186, -72.2499, 80.4598
6.51116, 58, -14.0848, -27.5968, 42.9392, -147.297, -72.3493, 80.7691
6.52017, 58, -13.8712, -27.2498, 42.6782, -147.518, -72.5532, 81.3819
6.52727, 58, -13.6591, -26.8959, 42.4139, -147.736, -72.764, 81.9885
6.53623, 58, -13.4481, -26.5358, 42.1472, -147.953, -72.9814, 82.5889
6.54317, 59, -13.2386, -26.1684, 41.8766, -148.167, -73.2061, 83.183
6.55124, 59, -13.031, -25.7943, 41.6026, -148.38, -73.4383, 83.7721
6.55919, 59, -12.8251, -25.4133, 41.325, -148.591, -73.6789, 84.3577
6.56734, 59, -12.6202, -25.0256, 41.0431, -148.801, -73.9278, 84.9398
6.57626, 59, -12.4163, -24.6299, 40.7573, -149.009, -74.186, 85.5186
6.58324, 60, -12.2133, -24.2265, 40.4665, -149.216, -74.4531, 86.0941
6.59254, 60, -12.0117, -23.8158, 40.1722, -149.42, -74.7293, 86.6666
6.60158, 60, -11.8115, -23.3989, 39.8743, -149.623, -75.1599, 87.519
6.60727, 60, -11.6129, -22.9754, 39.5741, -149.823, -75.3075, 87.8004
6.61518, 60, -11.4167, -22.547, 39.2718, -150.02, -75.6079, 88.3594
6.62417, 61, -11.2229, -22.1148, 38.9684, -150.213, -75.9147, 88.9121
6.63218, 61, -11.0313, -21.6785, 38.6642, -150.401, -76.2267, 89.4568
6.64307, 61, -10.7481, -21.0174, 38.2076, -150.674, -76.7023, 90.255
6.64735, 61, -10.655, -20.7955, 38.0556, -150.763, -76.8629, 90.5164
6.65617, 61, -10.4704, -20.3492, 37.7517, -150.935, -77.1866, 91.0319
6.66418, 62, -10.2883, -19.8999, 37.4483, -151.103, -77.5144, 91.5383
6.67117, 62, -10.1092, -19.4476, 37.1444, -151.266, -77.8468, 92.0362
6.67916, 62, -9.93276, -18.9934, 36.8405, -151.424, -78.184, 92.5258
6.68726, 62, -9.75903, -18.5368, 36.5354, -151.578, -78.5264, 93.0087
6.69542, 62, -9.58783, -18.0786, 36.2303, -151.727, -78.8737, 93.4836
6.70421, 63, -9.41877, -17.6194, 35.9252, -151.871, -79.2252, 93.9506
6.71149, 63, -9.25193, -17.1588, 35.6213, -152.01, -79.5806, 94.4077
6.7193, 63, -9.08745, -16.6966, 35.3189, -152.144, -79.9386, 94.8547
6.72751, 63, -8.9255, -16.2324, 35.0179, -152.272, -80.2991, 95.2918
6.73532, 63, -8.76611, -15.7658, 34.7187, -152.395, -80.6615, 95.7177
6.74346, 63, -8.60921, -15.2973, 34.4209, -152.513, -81.0268, 96.1342
6.75277, 64, -8.45481, -14.8271, 34.1248, -152.625, -81.395, 96.5401
6.76019, 64, -8.30286, -14.3555, 33.8286, -152.733, -81.7671, 96.9362
6.76969, 64, -8.15307, -13.8834, 33.533, -152.835, -82.1437, 97.3236
6.77559, 64, -8.00556, -13.4113, 33.2373, -152.933, -82.5245, 97.7008
6.78438, 65, -7.8605, -12.9401, 32.9429, -153.026, -82.9087, 98.0671
6.79613, 65, -7.64779, -12.2357, 32.5053, -153.155, -83.4883, 98.5943
6.79934, 65, -7.57834, -12.0015, 32.3612, -153.196, -83.6819, 98.7631
6.80822, 65, -7.44186, -11.5338, 32.0763, -153.271, -84.0683, 99.09
6.81543, 65, -7.30838, -11.0667, 31.7952, -153.341, -84.4535, 99.4025
6.82394, 65, -7.17794, -10.6011, 31.5188, -153.404, -84.8376, 99.7002
6.83245, 66, -7.04986, -10.1384, 31.2459, -153.461, -85.2204, 99.9826
6.83975, 66, -6.92385, -9.67918, 30.9767, -153.514, -85.6028, 100.25
6.84825, 66, -6.7999, -9.22552, 30.7117, -153.56, -85.9846, 100.501
6.85578, 66, -6.67811, -8.77817, 30.4497, -153.601, -86.3652, 100.737
6.86434, 66, -6.55852, -8.33677, 30.1924, -153.636, -86.7434, 100.956
6.87194, 67, -6.44159, -7.90187, 29.9404, -153.666, -87.1182, 101.157
6.88071, 67, -6.32769, -7.47292, 29.6945, -153.69, -87.4886, 101.341
6.88802, 67, -6.27184, -7.26076, 29.5744, -153.7, -87.8531, 101.508
6.89766, 67, -6.10831, -6.63243, 29.2241, -153.72, -88.2118, 101.656
6.90701, 67, -6.0025, -6.22149, 28.9987, -153.727, -88.5648, 101.786
6.91253, 68, -5.89879, -5.81734, 28.7799, -153.73, -88.9132, 101.9
6.91916, 68, -5.84759, -5.61757, 28.6723, -153.73, -89.086, 101.949
6.93017, 68, -5.69659, -5.02647, 28.3551, -153.723, -89.6007, 102.074
6.93515, 68, -5.64712, -4.83214, 28.2514, -153.718, -89.7715, 102.106
6.94323, 68, -5.54933, -4.44761, 28.0462, -153.705, -90.1126, 102.157
6.95294, 69, -5.40583, -3.87882, 27.7438, -153.677, -90.6227, 102.199
6.95911, 69, -5.35888, -3.69101, 27.6451, -153.666, -90.7926, 102.205
6.96863, 69, -5.22053, -3.13294, 27.3551, -153.624, -91.3011, 102.192
6.97529, 69, -5.17532, -2.94891, 27.26, -153.608, -91.4703, 102.177
6.98322, 69, -5.08623, -2.58342, 27.0723, -153.574, -91.8078, 102.132
6.99279, 70, -4.95541, -2.04139, 26.7987, -153.515, -92.3115, 102.022
7.00101, 70, -4.86975, -1.68544, 26.6206, -153.471, -92.6454, 101.922
7.0072, 70, -4.8274, -1.50945, 26.5329, -153.447, -92.8118, 101.863
7.01761, 70, -4.74339, -1.16155, 26.3605, -153.398, -93.143, 101.654
7.02333, 70, -4.66054, -0.818753, 26.1929, -153.346, -93.4719, 101.573
7.03136, 71, -4.57875, -0.482475, 26.029, -153.29, -93.7979, 101.395
7.03917, 71, -4.498, -0.152501, 25.8691, -153.232, -94.1209, 101.197
7.04817, 71, -4.41832, 0.170395, 25.7146, -153.17, -94.4403, 100.977
7.05622, 71, -4.33943, 0.487035, 25.5656, -153.107, -94.7556, 100.738
7.06318, 71, -4.26136, 0.797525, 25.4213, -153.041, -95.0672, 100.477
7.07223, 72, -4.18415, 1.10085, 25.2819, -152.974, -95.3748, 100.198
7.0826, 72, -4.06922, 1.54343, 25.0807, -152.87, -95.8297, 99.7404
7.08715, 72, -4.03106, 1.68749, 25.0155, -152.834, -95.9798, 99.5778
7.09849, 72, -3.91689, 2.11079, 24.825, -152.726, -96.4262, 99.0593
7.10317, 72, -3.87887, 2.24881, 24.763, -152.69, -96.5737, 98.8761
7.11125, 72, -3.80289, 2.52, 24.6415, -152.617, -96.8671, 98.4931
7.11923, 73, -3.72706, 2.78563, 24.5229, -152.544, -97.158, 98.0879
7.1273, 73, -3.65101, 3.04514, 24.4077, -152.47, -97.4465, 97.6607
7.13858, 73, -3.57467, 3.29807, 24.296, -152.396, -97.7324, 97.2103
7.14318, 73, -3.49801, 3.54491, 24.188, -152.323, -98.0152, 96.7388
7.15129, 73, -3.42096, 3.78484, 24.0841, -152.251, -98.2946, 96.2461
7.15921, 74, -3.34322, 4.01649, 23.984, -152.18, -98.57, 95.734
7.16716, 74, -3.26486, 4.23994, 23.8878, -152.111, -98.8402, 95.2045
7.17522, 74, -3.18581, 4.45473, 23.7958, -152.043, -99.1047, 94.66
7.18316, 74, -3.10605, 4.65977, 23.708, -151.977, -99.3628, 94.1031
7.19122, 74, -3.02564, 4.85504, 23.6245, -151.914, -99.6135, 93.5346
7.19937, 75, -2.94435, 5.04087, 23.5455, -151.853, -99.856, 92.9566
7.20812, 75, -2.86208, 5.21634, 23.4706, -151.796, -100.09, 92.3712
7.21528, 75, -2.77884, 5.38071, 23.3998, -151.74, -100.315, 91.7789
7.22427, 75, -2.69472, 5.53437, 23.3329, -151.688, -100.53, 91.1797
7.23564, 75, -2.56678, 5.74442, 23.2402, -151.617, -100.835, 90.2688
7.23932, 76, -2.52365, 5.80873, 23.2115, -151.594, -100.932, 89.9618
7.24976, 76, -2.43666, 5.92874, 23.1572, -151.553, -101.119, 89.3412
7.25533, 76, -2.34887, 6.03695, 23.1072, -151.516, -101.297, 88.7113
7.26371, 76, -2.26033, 6.13295, 23.0615, -151.483, -101.465, 88.0735
7.27214, 76, -2.17096, 6.21643, 23.0205, -151.452, -101.624, 87.429
7.28218, 77, -2.08076, 6.28695, 22.9844, -151.427, -101.771, 86.7786
7.28823, 77, -1.98964, 6.34441, 22.9536, -151.405, -101.906, 86.1266
7.29533, 77, -1.89758, 6.38852, 22.9284, -151.387, -102.027, 85.4761
7.30408, 77, -1.80465, 6.41851, 22.9089, -151.374, -102.134, 84.828
7.31148, 77, -1.71087, 6.43444, 22.8953, -151.364, -102.226, 84.1832
7.31993, 78, -1.6163, 6.43595, 22.8875, -151.358, -102.303, 83.5434
7.32859, 78, -1.52097, 6.42235, 22.8851, -151.354, -102.365, 82.9077
7.33619, 78, -1.42505, 6.39348, 22.8883, -151.354, -102.411, 82.2752
7.34445, 78, -1.32875, 6.349, 22.8976, -151.357, -102.441, 81.6472
7.35185, 78, -1.23213, 6.2884, 22.913, -151.363, -102.456, 81.0245
7.36432, 79, -1.08691, 6.16728, 22.9486, -151.379, -102.448, 80.1009
7.36856, 79, -1.0384, 6.11884, 22.964, -151.386, -102.436, 79.7965
7.37679, 79, -0.94131, 6.00981, 23.0004, -151.402, -102.399, 79.1941
7.38469, 79, -0.844397, 5.88465, 23.0442, -151.421, -102.345, 78.6015
7.39217, 79, -0.747466, 5.74292, 23.0956, -151.442, -102.273, 78.0182
7.39975, 79, -0.698995, 5.66585, 23.1241, -151.454, -102.23, 77.7303
7.40898, 80, -0.553376, 5.40981, 23.221, -151.493, -102.075, 76.8829
7.41625, 80, -0.456289, 5.21849, 23.2953, -151.52, -101.948, 76.3314
7.42314, 80, -0.40782, 5.11662, 23.3355, -151.535, -101.877, 76.059
7.43134, 80, -0.310999, 4.89995, 23.422, -151.565, -101.723, 75.5216
7.43945, 80, -0.214209, 4.66487, 23.5169, -151.597, -101.549, 74.9935
7.44716, 81, -0.117574, 4.41215, 23.6205, -151.63, -101.356, 74.4755
7.45536, 81, -0.0211133, 4.14283, 23.733, -151.665, -101.144, 73.9665
7.46535, 81, 0.0751081, 3.70709, 23.9191, -151.717, -100.789, 73.2202
7.47114, 81, 0.171152, 3.55359, 23.9859, -151.736, -100.662, 72.976
7.48142, 81, 0.314813, 3.0664, 24.2014, -151.792, -100.25, 72.2585
7.48973, 82, 0.410361, 2.72079, 24.3571, -151.829, -99.9511, 71.792
7.49695, 82, 0.505617, 2.35861, 24.5221, -151.866, -99.6332, 71.3349
7.50478, 82, 0.553142, 1.9809, 24.6966, -151.904, -99.2969, 70.8875
7.51285, 82, 0.64813, 1.78575, 24.7875, -151.941, -98.943, 70.4497
7.52016, 82, 0.742872, 1.3831, 24.9764, -151.959, -98.7595, 70.235
7.52988, 83, 0.88498, 0.749793, 25.2767, -152.013, -98.184, 69.6059
7.53538, 83, 0.932339, 0.531466, 25.3818, -152.03, -97.984, 69.4012
7.54313, 83, 1.02707, 0.0838543, 25.5998, -152.065, -97.5724, 69
7.55114, 83, 1.12192, -0.378475, 25.8266, -152.098, -97.1454, 68.609
7.55969, 83, 1.21673, -0.854781, 26.0622, -152.129, -96.7031, 68.2276
7.5713, 84, 1.35943, -1.59588, 26.4344, -152.173, -96.0111, 67.6738
7.5751, 84, 1.40709, -1.84976, 26.5633, -152.188, -95.7729, 67.4934
7.58415, 84, 1.50254, -2.36699, 26.8293, -152.215, -95.2853, 67.1379
7.59213, 84, 1.59829, -2.89784, 27.1054, -152.241, -94.7815, 66.7901
7.60016, 84, 1.6945, -3.44219, 27.3917, -152.265, -94.2628, 66.4491
7.61209, 85, 1.8396, -4.28386, 27.8411, -152.298, -93.4566, 65.9505
7.61532, 85, 1.88806, -4.57073, 27.9959, -152.308, -93.1803, 65.7883
7.62339, 85, 1.98531, -5.15241, 28.313, -152.327, -92.6168, 65.4697
7.6322, 85, 2.08289, -5.74438, 28.6392, -152.344, -92.0412, 65.1587
7.64034, 85, 2.18087, -6.34569, 28.9746, -152.358, -91.4551, 64.856
7.64978, 86, 2.27961, -6.955, 29.3184, -152.369, -90.8588, 64.5629
7.65614, 86, 2.37896, -7.57157, 29.6702, -152.378, -90.2528, 64.2795
7.66705, 86, 2.52979, -8.50802, 30.2109, -152.385, -89.3269, 63.8739
7.6713, 86, 2.58057, -8.82317, 30.3941, -152.386, -89.0145, 63.7442
7.68013, 86, 2.68262, -9.45751, 30.7647, -152.387, -88.387, 63.4934
7.68721, 86, 2.78573, -10.0961, 31.1407, -152.385, -87.7552, 63.2544
7.69515, 87, 2.88985, -10.7384, 31.5223, -152.378, -87.1178, 63.0269
7.70315, 87, 2.99459, -11.3834, 31.9082, -152.368, -86.475, 62.8115
7.71123, 87, 3.1005, -12.0311, 32.2988, -152.355, -85.8272, 62.6086
7.71937, 87, 3.20718, -12.6809, 32.6939, -152.337, -85.1756, 62.4184
7.72727, 87, 3.31456, -13.3331, 33.094, -152.315, -84.5206, 62.241
7.73526, 88, 3.42271, -13.9879, 33.4993, -152.29, -83.8603, 62.0768
7.74358, 88, 3.53139, -14.6451, 33.909, -152.26, -83.1954, 61.9259
7.7522, 88, 3.6407, -15.3039, 34.3236, -152.227, -82.5256, 61.7887
7.75931, 88, 3.75062, -15.9638, 34.743, -152.189, -81.8509, 61.6658
7.76732, 88, 3.86093, -16.6238, 35.1666, -152.146, -81.1741, 61.5581
7.77516, 89, 3.97143, -17.2828, 35.5941, -152.099, -80.4949, 61.4668
7.78321, 89, 4.08224, -17.9398, 36.0243, -152.046, -79.8136, 61.3931
7.80038, 89, 4.30441, -19.2446, 36.8886, -151.925, -78.4458, 61.3013
7.80222, 89, 4.30441, -19.2446, 36.8886, -151.925, -78.4458, 61.3013
7.80901, 89, 4.41557, -19.8904, 37.3206, -151.855, -77.7654, 61.2845
7.81546, 90, 4.52686, -20.531, 37.7512, -151.782, -77.0885, 61.288
7.82355, 90, 4.63884, -21.1664, 38.1805, -151.702, -76.414, 61.3159
7.83148, 90, 4.75108, -21.7965, 38.608, -151.617, -75.743, 61.3675
7.83965, 90, 4.86341, -22.4216, 39.0337, -151.526, -75.0761, 61.4427
7.85079, 90, 4.97568, -23.0418, 39.4583, -151.43, -74.4146, 61.5443
7.85646, 91, 5.08786, -23.658, 39.8816, -151.327, -73.7555, 61.6721
7.86422, 91, 5.1997, -24.2695, 40.3045, -151.219, -73.0967, 61.8278
7.87172, 91, 5.31096, -24.8748, 40.7272, -151.103, -72.4381, 62.0121
7.88089, 91, 5.42146, -25.4747, 41.1496, -150.98, -71.7779, 62.2257
7.88821, 91, 5.53109, -26.0678, 41.5714, -150.851, -71.1172, 62.4695
7.89607, 92, 5.64023, -26.6539, 41.992, -150.716, -70.4583, 62.7447
7.90314, 92, 5.6948, -26.9442, 42.2017, -150.646, -70.1292, 62.8942
7.91217, 92, 5.85927, -27.8031, 42.8258, -150.428, -69.1457, 63.3891
7.91912, 92, 5.91439, -28.0851, 43.0313, -150.352, -68.8195, 63.5696
7.92892, 92, 6.08088, -28.917, 43.64, -150.12, -67.8468, 64.1586
7.93636, 92, 6.19339, -29.4583, 44.0379, -149.961, -67.2064, 64.5902
7.94313, 93, 6.25019, -29.7248, 44.2344, -149.881, -66.8884, 64.8182
7.95935, 93, 6.48249, -30.7656, 45.0047, -149.554, -65.6263, 65.8095
7.96144, 93, 6.54193, -31.0202, 45.1937, -149.472, -65.3127, 66.0781
7.96715, 93, 6.6019, -31.2732, 45.3818, -149.39, -64.9994, 66.3555
7.9752, 93, 6.72355, -31.7751, 45.7542, -149.225, -64.3736, 66.9385
7.98478, 94, 6.91034, -32.5178, 46.3068, -148.975, -63.4322, 67.893
7.99267, 94, 7.03768, -33.0071, 46.6723, -148.808, -62.797, 68.5907
8.00199, 94, 7.16687, -33.4891, 47.0363, -148.641, -62.1558, 69.3417
8.00878, 94, 7.2986, -33.9637, 47.3978, -148.477, -61.508, 70.1445
8.01665, 94, 7.36576, -34.1983, 47.577, -148.396, -61.1818, 70.5658
8.02412, 95, 7.50315, -34.6611, 47.9302, -148.239, -60.5293, 71.4493
8.03221, 95, 7.64555, -35.1134, 48.275, -148.091, -59.8798, 72.3788
8.04013, 95, 7.79398, -35.5548, 48.6087, -147.956, -59.2352, 73.3495
8.04813, 95, 7.94881, -35.9827, 48.9301, -147.834, -58.598, 74.3594
8.05638, 95, 8.11051, -36.3926, 49.2362, -147.73, -57.9694, 75.4024
8.06336, 96, 8.27906, -36.7825, 49.5266, -147.643, -57.3514, 76.479
8.07119, 96, 8.45443, -37.1512, 49.8002, -147.576, -56.7479, 77.5856
8.07913, 96, 8.63557, -37.4968, 50.0569, -147.53, -56.1585, 78.7205
8.08713, 96, 8.82193, -37.8174, 50.2963, -147.504, -55.5842, 79.8772
8.09519, 96, 9.01297, -38.1123, 50.5163, -147.498, -55.0273, 81.0507
8.10314, 96, 9.20733, -38.3825, 50.717, -147.513, -54.4908, 82.2353
8.11114, 97, 9.40328, -38.6272, 50.8982, -147.551, -53.9769, 83.4294
8.11915, 97, 9.59954, -38.8465, 51.0588, -147.609, -53.4883, 84.6279
8.1272, 97, 9.79506, -39.0412, 51.199, -147.688, -53.0262, 85.8201
8.13514, 97, 9.98913, -39.2111, 51.3197, -147.783, -52.593, 86.9994
8.14312, 97, 10.1806, -39.3552, 51.4207, -147.894, -52.1898, 88.1581
8.15121, 97, 10.3685, -39.4739, 51.5027, -148.017, -51.8173, 89.29
8.15933, 98, 10.5526, -39.5675, 51.5664, -148.151, -51.4755, 90.3878
8.16721, 98, 10.7343, -39.6369, 51.6121, -148.295, -51.164, 91.453
8.17512, 98, 10.9143, -39.6836, 51.6404, -148.448, -50.8803, 92.493
8.18312, 98, 11.0927, -39.7071, 51.6514, -148.612, -50.6209, 93.5227
8.19119, 98, 11.269, -39.7073, 51.6458, -148.789, -50.3823, 94.5557
8.19912, 98, 11.4441, -39.6841, 51.6229, -148.979, -50.1626, 95.6029
8.20719, 98, 11.6196, -39.6369, 51.5823, -149.182, -49.9618, 96.6713
8.21515, 99, 11.7948, -39.5665, 51.5239, -149.399, -49.7815, 97.7609
8.22325, 99, 11.9685, -39.4735, 51.4471, -149.627, -49.6243, 98.8671
8.23155, 99, 12.1393, -39.3579, 51.3518, -149.864, -49.4937, 99.9784
8.23922, 99, 12.3065, -39.2199, 51.2384, -150.106, -49.3924, 101.085
8.24722, 99, 12.4683, -39.0597, 51.1077, -150.351, -49.3221, 102.175
8.25523, 99, 12.6227, -38.8774, 50.961, -150.594, -49.2825, 103.24
8.26369, 100, 12.7687, -38.671, 50.7987, -150.833, -49.2743, 104.274
8.2713, 100, 12.9058, -38.4403, 50.6197, -151.068, -49.2981, 105.28
8.27915, 100, 13.0339, -38.187, 50.4236, -151.297, -49.3534, 106.257
8.28717, 100, 13.1534, -37.9117, 50.2112, -151.52, -49.4399, 107.21
8.29613, 100, 13.2649, -37.6155, 49.9811, -151.737, -49.5577, 108.14
8.30338, 100, 13.3681, -37.2963, 49.7326, -151.948, -49.7062, 109.048
8.3114, 101, 13.4632, -36.9533, 49.4676, -152.151, -49.8847, 109.934
8.31941, 101, 13.5504, -36.5853, 49.1854, -152.345, -50.0931, 110.796
8.32743, 101, 13.6299, -36.1917, 48.8864, -152.53, -50.3311, 111.636
8.33637, 101, 13.7011, -35.773, 48.5695, -152.706, -50.599, 112.452
8.34367, 101, 13.7641, -35.3311, 48.235, -152.872, -50.8981, 113.246
8.36113, 102, 13.8639, -34.3798, 47.5141, -153.17, -51.5927, 114.767
8.36237, 102, 13.8639, -34.3798, 47.5141, -153.17, -51.5927, 114.767
8.36769, 102, 13.8998, -33.8692, 47.1281, -153.301, -51.9889, 115.493
8.37656, 102, 13.9262, -33.3341, 46.7262, -153.419, -52.4176, 116.194
8.38471, 102, 13.9433, -32.7757, 46.3097, -153.523, -52.8785, 116.868
8.39219, 102, 13.9519, -32.1949, 45.8789, -153.614, -53.3693, 117.518
8.39991, 102, 13.9532, -31.8963, 45.6582, -153.691, -53.888, 118.141
8.40711, 103, 13.9504, -31.2838, 45.2061, -153.724, -54.1574, 118.443
8.41511, 103, 13.9408, -30.6528, 44.7413, -153.781, -54.7145, 119.028
8.42422, 103, 13.9151, -29.676, 44.0228, -153.842, -55.5911, 119.86
8.43111, 103, 13.9038, -29.3428, 43.7786, -153.856, -55.893, 120.125
8.44034, 103, 13.8626, -28.3229, 43.0345, -153.88, -56.8248, 120.881
8.44708, 104, 13.8466, -27.9771, 42.7833, -153.884, -57.1424, 121.12
8.4573, 104, 13.7929, -26.9267, 42.0243, -153.877, -58.1132, 121.801
8.46324, 104, 13.7731, -26.5727, 41.7698, -153.87, -58.4438, 122.018
8.47264, 104, 13.7088, -25.5023, 41.0041, -153.835, -59.4519, 122.635
8.48158, 104, 13.6632, -24.7845, 40.4932, -153.802, -60.1359, 123.025
8.48719, 104, 13.6397, -24.4247, 40.2377, -153.783, -60.4802, 123.214
8.49677, 104, 13.5668, -23.3428, 39.4725, -153.714, -61.5204, 123.765
8.50496, 104, 13.5166, -22.6202, 38.9639, -153.662, -62.22, 124.124
8.51268, 104, 13.4913, -22.2587, 38.7099, -153.604, -62.9222, 124.478
8.5207, 104, 13.4401, -21.535, 38.2034, -153.574, -63.6257, 124.828
8.5281, 104, 13.3885, -20.8115, 37.6983, -153.511, -63.9774, 125.003
8.53611, 104, 13.3365, -20.0885, 37.1946, -153.442, -64.6814, 125.352
8.54416, 104, 13.2845, -19.3653, 36.6929, -153.37, -65.3871, 125.699
8.55211, 104, 13.2322, -18.6417, 36.1932, -153.294, -66.0939, 126.045
8.56016, 104, 13.1801, -17.9182, 35.6957, -153.214, -66.8016, 126.39
8.5682, 104, 13.1282, -17.1941, 35.2008, -153.129, -67.5097, 126.735
8.57613, 104, 13.0765, -16.4697, 34.7074, -153.041, -68.2172, 127.079
8.58412, 104, 13.0253, -15.7455, 34.2163, -152.95, -68.9258, 127.423
8.59216, 104, 12.9744, -15.0209, 33.7275, -152.853, -69.6362, 127.766
8.6001, 104, 12.9237, -14.2958, 33.2408, -152.754, -70.3475, 128.11
8.60711, 104, 12.8734, -13.5704, 32.7569, -152.65, -71.0579, 128.453
8.61514, 104, 12.8235, -12.8446, 32.2758, -152.543, -71.768, 128.797
8.62325, 104, 12.7738, -12.119, 31.7972, -152.432, -72.4801, 129.142
8.63112, 104, 12.7245, -11.394, 31.3211, -152.317, -73.1927, 129.487
8.63914, 104, 12.6757, -10.6687, 30.8474, -152.197, -73.9055, 129.832
8.64721, 104, 12.627, -9.94313, 30.377, -152.074, -74.6182, 130.178
8.65512, 104, 12.5787, -9.21762, 29.9095, -151.947, -75.331, 130.525
8.66315, 104, 12.531, -8.49165, 29.4449, -151.816, -76.0452, 130.873
8.67117, 104, 12.4838, -7.76548, 28.9836, -151.681, -76.7598, 131.222
8.67912, 104, 12.437, -7.04008, 28.5257, -151.542, -77.4753, 131.572
8.68718, 104, 12.391, -6.3151, 28.0709, -151.398, -78.1902, 131.923
8.69528, 104, 12.3454, -5.59067, 27.6198, -151.251, -78.9038, 132.276
8.70317, 104, 12.3004, -4.86704, 27.1724, -151.099, -79.6184, 132.629
8.71117, 104, 12.2564, -4.14482, 26.7293, -150.943, -80.3334, 132.984
8.71914, 104, 12.2134, -3.42535, 26.2915, -150.783, -81.0475, 133.339
8.72719, 104, 12.1713, -2.71083, 25.8586, -150.619, -81.7575, 133.696
8.73531, 104, 12.1307, -2.00242, 25.4317, -150.452, -82.4635, 134.052
8.74326, 104, 12.0911, -1.30134, 25.0125, -150.282, -83.1659, 134.407
8.75121, 104, 12.0525, -0.609232, 24.6016, -150.109, -83.8605, 134.76
8.75929, 104, 12.0149, 0.0729354, 24.2006, -149.935, -84.5451, 135.11
8.76716, 104, 11.9784, 0.744424, 23.8103, -149.76, -85.217, 135.457
8.77512, 104, 11.9429, 1.40313, 23.4325, -149.583, -85.8739, 135.797
8.78337, 104, 11.9087, 2.04878, 23.0671, -149.407, -86.5174, 136.133
8.79115, 104, 11.8756, 2.67916, 22.714, -149.232, -87.1452, 136.462
8.79916, 104, 11.8433, 3.29331, 22.3735, -149.057, -87.757, 136.784
8.80734, 104, 11.8127, 3.89136, 22.0464, -148.883, -88.3526, 137.099
8.81606, 104, 11.7831, 4.47247, 21.7318, -148.711, -88.9301, 137.408
8.8241, 104, 11.7548, 5.03702, 21.4296, -148.539, -89.4905, 137.71
8.83216, 104, 11.728, 5.5846, 21.1385, -148.37, -90.0359, 138.005
8.83948, 104, 11.7021, 6.11484, 20.8599, -148.203, -90.5648, 138.293
8.84824, 104, 11.6775, 6.62858, 20.5927, -148.038, -91.0774, 138.574
8.85561, 104, 11.654, 7.1254, 20.3372, -147.875, -91.5733, 138.847
8.8642, 104, 11.6317, 7.60513, 20.0932, -147.715, -92.0519, 139.112
8.8719, 104, 11.6105, 8.06847, 19.8598, -147.558, -92.5138, 139.37
8.88023, 104, 11.5904, 8.51499, 19.6375, -147.405, -92.9592, 139.621
8.88776, 104, 11.5715, 8.9441, 19.4263, -147.255, -93.388, 139.863
8.8963, 104, 11.5536, 9.35604, 19.225, -147.108, -93.7999, 140.097
8.90374, 104, 11.5452, 9.55552, 19.1282, -147.037, -94.1947, 140.322
8.91216, 104, 11.5213, 10.1267, 18.8542, -146.828, -94.572, 140.539
8.91909, 104, 11.5139, 10.3078, 18.7682, -146.761, -94.7538, 140.644
8.92824, 104, 11.4931, 10.8221, 18.5252, -146.568, -95.2711, 140.944
8.93515, 104, 11.4867, 10.9841, 18.4497, -146.506, -95.4339, 141.038
8.94441, 104, 11.469, 11.4391, 18.2393, -146.331, -95.8919, 141.306
8.95109, 104, 11.4637, 11.5805, 18.1744, -146.276, -96.0342, 141.389
8.96047, 104, 11.4491, 11.9732, 17.9956, -146.122, -96.4289, 141.622
8.96712, 104, 11.4446, 12.0933, 17.9414, -146.075, -96.5498, 141.693
8.97513, 104, 11.4362, 12.3179, 17.8407, -145.986, -96.7749, 141.827
8.98463, 104, 11.425, 12.6157, 17.7092, -145.867, -97.0715, 142.004
8.99269, 104, 11.4186, 12.7875, 17.6344, -145.799, -97.2416, 142.105
9.00117, 104, 11.4128, 12.9387, 17.5696, -145.74, -97.3898, 142.194
9.00716, 104, 11.4101, 13.0069, 17.5408, -145.713, -97.4556, 142.233
9.01692, 104, 11.4028, 13.1832, 17.4684, -145.646, -97.6219, 142.333
9.02505, 104, 11.3984, 13.2777, 17.4309, -145.611, -97.7074, 142.384
9.03117, 104, 11.3964, 13.3186, 17.4151, -145.596, -97.7436, 142.406
9.0402, 104, 11.3926, 13.3892, 17.3892, -145.571, -97.8027, 142.442
9.04904, 104, 11.3891, 13.4462, 17.3699, -145.553, -97.8463, 142.468
9.05517, 104, 11.3862, 13.4911, 17.356, -145.54, -97.8776, 142.487
9.06325, 104, 11.3837, 13.5251, 17.3467, -145.531, -97.8991, 142.5
9.07213, 104, 11.3818, 13.5504, 17.3408, -145.525, -97.9131, 142.507
9.08012, 104, 11.3802, 13.569, 17.3371, -145.522, -97.9211, 142.512
9.08814, 104, 11.379, 13.5818, 17.335, -145.52, -97.9255, 142.514
9.09611, 104, 11.3781, 13.5904, 17.334, -145.519, -97.9277, 142.515
9.1041, 105, 11.3775, 13.5962, 17.3335, -145.519, -97.9287, 142.515
9.11213, 105, 11.377, 13.6, 17.3333, -145.519, -97.9292, 142.516
9.12011, 105, 11.3767, 13.6027, 17.3332, -145.518, -97.9294, 142.516
9.12809, 105, 11.3764, 13.6048, 17.3331, -145.518, -97.9294, 142.516
9.13617, 105, 11.3762, 13.6066, 17.3331, -145.518, -97.9295, 142.516
9.14409, 105, 11.376, 13.6082, 17.3331, -145.518, -97.9294, 142.516
9.15209, 105, 11.3759, 13.6096, 17.3331, -145.519, -97.9294, 142.516
9.16017, 105, 11.3758, 13.6108, 17.3331, -145.519, -97.9294, 142.516
9.16709, 105, 11.3757, 13.6118, 17.3331, -145.519, -97.9293, 142.516
9.17608, 105, 11.3757, 13.6127, 17.3331, -145.519, -97.9292, 142.516
9.18315, 105, 11.3756, 13.6133, 17.3331, -145.519, -97.9291, 142.516
9.19108, 105, 11.3756, 13.6137, 17.3332, -145.519, -97.9289, 142.516
9.19917, 105, 11.3756, 13.614, 17.3332, -145.519, -97.9288, 142.516
9.20709, 105, 11.3756, 13.6142, 17.3332, -145.519, -97.9287, 142.516
9.2151, 105, 11.3756, 13.6142, 17.3333, -145.519, -97.9286, 142.516
