hehonglu123/Motion-Primitive-Planning/ILC/recorded_data/realrobot/wood/iteration_24/run_2.csv
timestamp, cmd_num, J1, J2, J3, J4, J5, J6
0.000502, -1, 11.3754, 13.6151, 17.3348, -145.521, -97.9264, 142.516
0.004435, -1, 11.3754, 13.6151, 17.3348, -145.52, -97.9264, 142.516
0.007895, -1, 11.3754, 13.6151, 17.3348, -145.521, -97.9263, 142.516
0.028725, -1, 11.3754, 13.6151, 17.3348, -145.521, -97.9263, 142.516
0.031405, -1, 11.3754, 13.6151, 17.3348, -145.521, -97.9263, 142.516
0.034542, -1, 11.3754, 13.6151, 17.3348, -145.521, -97.9263, 142.516
0.039755, -1, 11.3754, 13.6151, 17.3348, -145.521, -97.9264, 142.516
0.047713, -1, 11.3754, 13.6151, 17.3348, -145.52, -97.9263, 142.516
0.05576, -1, 11.3748, 13.615, 17.3348, -145.521, -97.9263, 142.516
0.063742, -1, 11.3721, 13.6148, 17.3347, -145.521, -97.9263, 142.516
0.071707, -1, 11.3656, 13.6141, 17.3346, -145.521, -97.9263, 142.516
0.079757, -1, 11.3544, 13.6124, 17.3341, -145.521, -97.9262, 142.514
0.0877, -1, 11.3368, 13.609, 17.3333, -145.523, -97.9262, 142.507
0.095689, -1, 11.3099, 13.6031, 17.3325, -145.526, -97.9255, 142.487
0.103765, -1, 11.2715, 13.5939, 17.3319, -145.533, -97.9237, 142.447
0.111689, -1, 11.2213, 13.5816, 17.3321, -145.545, -97.9203, 142.382
0.119686, -1, 11.1596, 13.5662, 17.3337, -145.562, -97.9148, 142.287
0.128216, -1, 11.0863, 13.5471, 17.3377, -145.585, -97.907, 142.156
0.134795, -1, 11.001, 13.5241, 17.3441, -145.614, -97.8968, 141.991
0.143681, -1, 10.9041, 13.4978, 17.3527, -145.648, -97.8847, 141.793
0.152496, -1, 10.7965, 13.4681, 17.3631, -145.687, -97.871, 141.567
0.159687, -1, 10.678, 13.4352, 17.3744, -145.729, -97.8562, 141.32
0.167703, -1, 10.5489, 13.3995, 17.3856, -145.774, -97.8406, 141.059
0.176527, -1, 10.4108, 13.3616, 17.3963, -145.82, -97.8248, 140.79
0.183723, -1, 10.2659, 13.322, 17.4065, -145.867, -97.8086, 140.515
0.19169, -1, 10.1164, 13.2815, 17.4165, -145.914, -97.792, 140.238
0.20057, -1, 9.96393, 13.2404, 17.4266, -145.962, -97.7751, 139.96
0.207704, -1, 9.80921, 13.199, 17.4366, -146.01, -97.7577, 139.681
0.215716, -1, 9.65369, 13.1576, 17.4467, -146.058, -97.7405, 139.401
0.224708, -1, 9.49847, 13.1163, 17.4567, -146.106, -97.7235, 139.121
0.231821, -1, 9.3437, 13.0751, 17.4666, -146.154, -97.7066, 138.842
0.239825, -1, 9.18928, 13.034, 17.4766, -146.202, -97.6899, 138.562
0.24949, -1, 9.03535, 12.9929, 17.4866, -146.25, -97.6732, 138.282
0.255792, -1, 8.88165, 12.9518, 17.4968, -146.298, -97.6562, 138.002
0.263874, -1, 8.72808, 12.9108, 17.507, -146.346, -97.6391, 137.722
0.272331, -1, 8.57508, 12.8696, 17.517, -146.393, -97.6217, 137.442
0.279261, -1, 8.49869, 12.849, 17.5221, -146.418, -97.6128, 137.302
0.287775, -1, 8.26933, 12.787, 17.5374, -146.49, -97.5868, 136.882
0.296338, -1, 8.11593, 12.7454, 17.5475, -146.537, -97.5697, 136.602
0.30383, -1, 7.96201, 12.7038, 17.5578, -146.586, -97.553, 136.321
0.311983, -1, 7.80743, 12.6621, 17.5679, -146.633, -97.5363, 136.041
0.321502, -1, 7.65256, 12.6204, 17.578, -146.681, -97.5196, 135.761
0.327968, -1, 7.49759, 12.5787, 17.5882, -146.729, -97.5028, 135.48
0.334641, -1, 7.42006, 12.5579, 17.5933, -146.753, -97.4942, 135.34
0.344178, -1, 7.18759, 12.4956, 17.6086, -146.825, -97.4683, 134.919
0.350732, -1, 7.11007, 12.4748, 17.6138, -146.849, -97.4596, 134.779
0.360324, -1, 6.87735, 12.4128, 17.6292, -146.922, -97.4339, 134.359
0.36828, -1, 6.72246, 12.3715, 17.6396, -146.969, -97.417, 134.079
0.374782, -1, 6.6451, 12.3508, 17.6448, -146.994, -97.4086, 133.938
0.3844, -1, 6.41331, 12.2889, 17.6604, -147.066, -97.3836, 133.517
0.392294, -1, 6.3362, 12.2682, 17.6656, -147.09, -97.3752, 133.237
0.400257, -1, 6.182, 12.2268, 17.6759, -147.138, -97.3582, 133.097
0.40773, -1, 6.0276, 12.1853, 17.6862, -147.186, -97.3409, 132.816
0.415669, -1, 5.87299, 12.1438, 17.6965, -147.234, -97.3233, 132.535
0.422676, -1, 5.71826, 12.1021, 17.7068, -147.282, -97.3058, 132.254
0.431719, -1, 5.56334, 12.0604, 17.717, -147.33, -97.2885, 131.974
0.439675, -1, 5.4082, 12.0188, 17.7273, -147.378, -97.2715, 131.693
0.449004, -1, 5.17505, 11.9562, 17.7428, -147.451, -97.2463, 131.271
0.455679, -1, 5.09718, 11.9353, 17.748, -147.475, -97.2379, 131.131
0.463672, -1, 4.94143, 11.8937, 17.7585, -147.523, -97.2211, 130.85
0.471724, -1, 4.78571, 11.8521, 17.7689, -147.571, -97.204, 130.568
0.479716, -1, 4.62998, 11.8106, 17.7794, -147.619, -97.1866, 130.287
0.487666, -1, 4.47425, 11.7691, 17.7898, -147.667, -97.1691, 130.007
0.630092, -1, 1.75295, 11.04, 17.9716, -148.513, -96.8692, 124.938
0.631636, -1, 1.67477, 11.0191, 17.9769, -148.537, -96.8605, 124.938
0.632833, -1, 1.67477, 11.0191, 17.9769, -148.537, -96.8605, 124.938
0.637437, -1, 1.5966, 10.9982, 17.9821, -148.561, -96.8519, 124.797
0.639836, -1, 1.51849, 10.9773, 17.9874, -148.586, -96.8434, 124.656
0.641054, -1, 1.51849, 10.9773, 17.9874, -148.586, -96.8434, 124.656
0.643087, -1, 1.4405, 10.9565, 17.9926, -148.61, -96.835, 124.515
0.646848, -1, 1.36257, 10.9357, 17.9978, -148.634, -96.8265, 124.374
0.648187, -1, 1.36257, 10.9357, 17.9978, -148.634, -96.8265, 124.374
0.649511, -1, 1.36257, 10.9357, 17.9978, -148.634, -96.8265, 124.374
0.651643, -1, 1.28468, 10.9149, 18.003, -148.658, -96.818, 124.233
0.652854, -1, 1.28468, 10.9149, 18.003, -148.658, -96.818, 124.233
0.654761, -1, 1.20688, 10.894, 18.0082, -148.682, -96.8096, 124.092
0.656098, -1, 1.20688, 10.894, 18.0082, -148.682, -96.8096, 124.092
0.657293, -1, 1.20688, 10.894, 18.0082, -148.682, -96.8096, 124.092
0.661308, -1, 1.12915, 10.8731, 18.0134, -148.706, -96.8012, 123.951
0.663433, -1, 1.05151, 10.8522, 18.0185, -148.731, -96.7928, 123.809
0.664661, -1, 1.05151, 10.8522, 18.0185, -148.731, -96.7928, 123.809
0.666574, -1, 1.05151, 10.8522, 18.0185, -148.731, -96.7928, 123.668
0.667942, -1, 0.973963, 10.8313, 18.0237, -148.755, -96.7843, 123.668
0.669169, -1, 0.973963, 10.8313, 18.0237, -148.755, -96.7843, 123.668
0.671224, -1, 0.896469, 10.8104, 18.0289, -148.779, -96.7757, 123.527
0.673612, -1, 0.896469, 10.8104, 18.0289, -148.779, -96.7757, 123.527
0.679722, -1, 0.741655, 10.7686, 18.0393, -148.828, -96.7583, 123.245
0.687766, -1, 0.587, 10.7268, 18.0497, -148.876, -96.7407, 122.962
0.695671, -1, 0.432254, 10.685, 18.0601, -148.925, -96.723, 122.679
0.703672, -1, 0.277126, 10.6432, 18.0705, -148.973, -96.7058, 122.397
0.71175, -1, 0.121623, 10.6013, 18.081, -149.022, -96.6888, 122.114
0.719717, -1, -0.0343954, 10.5594, 18.0916, -149.07, -96.6721, 121.831
0.727758, -1, -0.190759, 10.5175, 18.1021, -149.118, -96.6553, 121.549
0.735883, -1, -0.347344, 10.4757, 18.1125, -149.167, -96.6385, 121.266
0.743764, -1, -0.504379, 10.4338, 18.1229, -149.215, -96.6214, 120.983
0.751771, -1, -0.661607, 10.392, 18.1333, -149.263, -96.604, 120.701
0.759861, -1, -0.818987, 10.3501, 18.1438, -149.312, -96.5865, 120.418
0.767736, -1, -0.976407, 10.3082, 18.1542, -149.361, -96.5692, 120.135
0.775675, -1, -1.13366, 10.2664, 18.1645, -149.409, -96.5521, 119.852
0.78392, -1, -1.29074, 10.2245, 18.1749, -149.458, -96.5353, 119.569
0.791706, -1, -1.44758, 10.1827, 18.1852, -149.507, -96.5185, 119.285
0.92251, -1, -3.95178, 9.51167, 18.3523, -150.285, -96.243, 114.745
0.923711, -1, -3.95178, 9.51167, 18.3523, -150.285, -96.243, 114.745
0.927241, -1, -4.03072, 9.49069, 18.3575, -150.309, -96.2346, 114.603
0.92947, -1, -4.10961, 9.46974, 18.3627, -150.334, -96.2261, 114.461
0.930668, -1, -4.10961, 9.46974, 18.3627, -150.334, -96.2261, 114.461
0.932583, -1, -4.10961, 9.46974, 18.3627, -150.334, -96.2176, 114.319
0.933934, -1, -4.18851, 9.44879, 18.3679, -150.358, -96.2176, 114.319
0.936928, -1, -4.26743, 9.4278, 18.373, -150.383, -96.2091, 114.177
0.938514, -1, -4.26743, 9.4278, 18.373, -150.383, -96.2091, 114.177
0.939764, -1, -4.26743, 9.4278, 18.373, -150.383, -96.2091, 114.177
0.941814, -1, -4.34632, 9.40678, 18.3782, -150.407, -96.2005, 114.035
0.943023, -1, -4.34632, 9.40678, 18.3782, -150.407, -96.2005, 114.035
0.944898, -1, -4.42514, 9.38576, 18.3834, -150.431, -96.1919, 113.892
0.946317, -1, -4.42514, 9.38576, 18.3834, -150.431, -96.1919, 113.892
0.9476, -1, -4.42514, 9.38576, 18.3834, -150.431, -96.1919, 113.892
0.95146, -1, -4.50382, 9.36477, 18.3886, -150.456, -96.1832, 113.75
0.953555, -1, -4.58237, 9.34378, 18.3938, -150.48, -96.1744, 113.608
0.954775, -1, -4.58237, 9.34378, 18.3938, -150.48, -96.1744, 113.608
0.956051, -1, -4.58237, 9.34378, 18.3938, -150.48, -96.1744, 113.608
0.957996, -1, -4.6608, 9.32276, 18.399, -150.505, -96.1655, 113.465
0.959481, -1, -4.6608, 9.32276, 18.399, -150.505, -96.1655, 113.465
0.967714, -1, -4.81738, 9.28073, 18.4094, -150.553, -96.1478, 113.181
0.975662, -1, -4.97374, 9.23862, 18.4199, -150.603, -96.1302, 112.896
0.983655, -1, -5.12971, 9.1966, 18.4305, -150.651, -96.113, 112.611
0.99171, -1, -5.28555, 9.1545, 18.4411, -150.7, -96.096, 112.326
0.999677, -1, -5.44153, 9.11233, 18.4516, -150.749, -96.0791, 112.042
1.00766, -1, -5.59771, 9.07025, 18.462, -150.798, -96.0622, 111.757
1.01576, -1, -5.7542, 9.02813, 18.4724, -150.846, -96.045, 111.472
1.02369, -1, -5.91111, 8.98594, 18.4829, -150.895, -96.0276, 111.187
1.03266, -1, -6.0685, 8.94381, 18.4932, -150.944, -96.0099, 110.902
1.03974, -1, -6.22646, 8.90169, 18.5036, -150.993, -95.9923, 110.617
1.04866, -1, -6.38477, 8.85954, 18.514, -151.042, -95.9751, 110.331
1.05572, -1, -6.54316, 8.81744, 18.5244, -151.091, -95.958, 110.046
1.06388, -1, -6.70174, 8.77525, 18.5349, -151.14, -95.9409, 109.761
1.07265, -1, -6.86047, 8.73308, 18.5454, -151.189, -95.924, 109.475
1.07974, -1, -7.01897, 8.69098, 18.5559, -151.238, -95.9068, 109.19
1.08766, -1, -7.17748, 8.64884, 18.5664, -151.287, -95.8894, 108.904
1.09573, -1, -7.33587, 8.60662, 18.5768, -151.336, -95.8717, 108.619
1.10365, -1, -7.49395, 8.56432, 18.5872, -151.385, -95.8539, 108.333
1.11166, -1, -7.65155, 8.522, 18.5977, -151.434, -95.8364, 108.047
1.11974, -1, -7.80884, 8.47972, 18.6082, -151.483, -95.8192, 107.761
1.12765, -1, -7.96579, 8.43745, 18.6186, -151.532, -95.8022, 107.476
1.13567, -1, -8.12251, 8.39509, 18.629, -151.581, -95.7852, 107.19
1.14412, -1, -8.27906, 8.35276, 18.6395, -151.63, -95.7682, 106.904
1.15068, -1, -8.43573, 8.31041, 18.6501, -151.679, -95.7509, 106.618
1.15966, -1, -8.59272, 8.26803, 18.6606, -151.728, -95.7334, 106.332
1.16845, -1, -8.75004, 8.22577, 18.6711, -151.777, -95.7157, 106.045
1.17566, -1, -8.90775, 8.18342, 18.6815, -151.826, -95.6981, 105.759
1.1837, -1, -9.06585, 8.14111, 18.6919, -151.875, -95.6808, 105.473
1.1925, -1, -9.22443, 8.09884, 18.7024, -151.925, -95.6636, 105.186
1.19965, -1, -9.38333, 8.0565, 18.7128, -151.973, -95.6466, 104.899
1.20778, -1, -9.54241, 8.01416, 18.7233, -152.023, -95.6295, 104.612
1.21648, -1, -9.70155, 7.97193, 18.7338, -152.072, -95.6122, 104.326
1.22381, -1, -9.86083, 7.92966, 18.7443, -152.121, -95.5946, 104.039
1.23199, -1, -10.0202, 7.88725, 18.755, -152.171, -95.5767, 103.751
1.24059, -1, -10.1794, 7.84482, 18.7656, -152.22, -95.5589, 103.465
1.24775, -1, -10.3385, 7.80233, 18.7762, -152.269, -95.5413, 103.178
1.25615, -1, -10.4974, 7.75984, 18.7868, -152.319, -95.5241, 102.891
1.26327, -1, -10.5767, 7.73861, 18.7972, -152.368, -95.5071, 102.604
1.27129, -1, -10.735, 7.69614, 18.8024, -152.417, -95.49, 102.317
1.28039, -1, -10.9719, 7.63226, 18.8182, -152.466, -95.4729, 102.03
1.28862, -1, -11.1295, 7.58975, 18.8286, -152.516, -95.4555, 101.742
1.29568, -1, -11.2868, 7.54727, 18.8391, -152.565, -95.4378, 101.455
1.30455, -1, -11.4443, 7.50481, 18.8496, -152.615, -95.42, 101.167
1.31273, -1, -11.6019, 7.46232, 18.8601, -152.664, -95.4024, 100.88
1.31985, -1, -11.7597, 7.41989, 18.8708, -152.713, -95.385, 100.592
1.32884, -1, -11.9181, 7.37746, 18.8813, -152.762, -95.3677, 100.304
1.33601, -1, -12.0768, 7.33507, 18.8919, -152.812, -95.3505, 100.017
1.34409, -1, -12.236, 7.29271, 18.9024, -152.861, -95.3333, 99.7288
1.35066, -1, -12.3158, 7.27151, 18.9077, -152.886, -95.3246, 99.5848
1.35875, -1, -12.4755, 7.22906, 18.9182, -152.935, -95.307, 99.2966
1.36825, -1, -12.7154, 7.16546, 18.9341, -153.009, -95.2801, 98.8649
1.37622, -1, -12.8755, 7.12301, 18.9446, -153.059, -95.2622, 98.577
1.38502, -1, -13.0356, 7.08043, 18.9552, -153.108, -95.2446, 98.2887
1.39245, -1, -13.1156, 7.0378, 18.9657, -153.158, -95.2273, 98.0006
1.39964, -1, -13.2755, 7.01649, 18.971, -153.183, -95.2187, 97.8566
1.40769, -1, -13.4352, 6.97385, 18.9816, -153.232, -95.2016, 97.5683
1.41571, -1, -13.5945, 6.93106, 18.9922, -153.281, -95.1844, 97.2796
1.42364, -1, -13.7537, 6.88831, 19.0028, -153.331, -95.167, 96.9909
1.43168, -1, -13.9125, 6.84563, 19.0133, -153.38, -95.1494, 96.7025
1.43971, -1, -14.0708, 6.80292, 19.0238, -153.429, -95.1316, 96.4138
1.44764, -1, -14.229, 6.76029, 19.0344, -153.479, -95.1138, 96.1249
1.45564, -1, -14.3872, 6.71762, 19.0449, -153.529, -95.0964, 95.8358
1.46369, -1, -14.5454, 6.6749, 19.0554, -153.578, -95.0791, 95.547
1.47164, -1, -14.7041, 6.63233, 19.066, -153.628, -95.0619, 95.2578
1.47966, -1, -14.8631, 6.58978, 19.0766, -153.677, -95.0447, 94.9684
1.48764, -1, -15.0225, 6.54708, 19.0874, -153.726, -95.0273, 94.6793
1.49564, -1, -15.1822, 6.50445, 19.0981, -153.776, -95.0095, 94.3903
1.50371, -1, -15.3424, 6.46184, 19.1088, -153.826, -94.9915, 94.1011
1.51164, -1, -15.5028, 6.4191, 19.1195, -153.875, -94.9736, 93.8117
1.51969, -1, -15.6636, 6.37638, 19.13, -153.925, -94.9559, 93.5224
1.52864, -1, -15.8243, 6.33359, 19.1407, -153.975, -94.9385, 93.2331
1.53564, -1, -15.9851, 6.29068, 19.1514, -154.025, -94.9213, 92.9437
1.54364, -1, -16.146, 6.24781, 19.1619, -154.075, -94.9042, 92.6538
1.55171, -1, -16.3067, 6.20486, 19.1725, -154.124, -94.8869, 92.3643
1.55965, -1, -16.4672, 6.16181, 19.183, -154.173, -94.8694, 92.0746
1.56764, -1, -16.6275, 6.11882, 19.1935, -154.223, -94.8516, 91.7844
1.57576, -1, -16.7874, 6.07582, 19.2042, -154.273, -94.8337, 91.4942
1.58364, -1, -16.9468, 6.03284, 19.2149, -154.323, -94.8161, 91.2043
1.59164, -1, -17.1061, 5.98988, 19.2255, -154.373, -94.7985, 90.9141
1.59975, -1, -17.2652, 5.94691, 19.2361, -154.422, -94.7812, 90.6237
1.60766, -1, -17.4242, 5.90408, 19.2467, -154.472, -94.7639, 90.3333
1.61571, -1, -17.5836, 5.86126, 19.2574, -154.522, -94.7465, 90.0432
1.62364, -1, -17.7429, 5.81842, 19.2681, -154.571, -94.7289, 89.753
1.63164, -1, -17.9025, 5.77562, 19.2788, -154.621, -94.7109, 89.4625
1.63972, -1, -18.0626, 5.73278, 19.2894, -154.671, -94.6927, 89.172
1.64764, -1, -18.2231, 5.68997, 19.3, -154.721, -94.6749, 88.8815
1.65564, -1, -18.384, 5.64715, 19.3108, -154.771, -94.6572, 88.5907
1.66374, -1, -18.5454, 5.60417, 19.3215, -154.821, -94.6399, 88.2996
1.67164, -1, -18.707, 5.56117, 19.3322, -154.871, -94.6226, 88.0087
1.67978, -1, -18.8686, 5.51816, 19.3428, -154.921, -94.6053, 87.7178
1.68774, -1, -19.0303, 5.47511, 19.3534, -154.971, -94.5877, 87.4266
1.69566, -1, -19.1919, 5.43192, 19.364, -155.021, -94.5699, 87.1351
1.70364, -1, -19.3533, 5.38878, 19.3746, -155.071, -94.5519, 86.8438
1.71171, -1, -19.5146, 5.34562, 19.3852, -155.121, -94.5339, 86.5521
1.71973, -1, -19.6755, 5.30238, 19.3959, -155.17, -94.5161, 86.2605
1.72776, -1, -19.8362, 5.25922, 19.4065, -155.221, -94.4985, 85.9687
1.73572, -1, -19.9967, 5.21605, 19.4172, -155.27, -94.4811, 85.6772
1.74377, -1, -20.1567, 5.17292, 19.4281, -155.32, -94.4637, 85.3858
1.75225, -1, -20.3164, 5.12996, 19.4389, -155.371, -94.4462, 85.094
1.75922, -1, -20.4763, 5.08693, 19.4497, -155.42, -94.4283, 84.802
1.76774, -1, -20.6364, 5.04383, 19.4604, -155.471, -94.4102, 84.5104
1.77634, -1, -20.7966, 5.00087, 19.4712, -155.521, -94.3922, 84.2185
1.78365, -1, -20.9574, 4.95786, 19.4819, -155.571, -94.3744, 83.9263
1.79167, -1, -21.1185, 4.91477, 19.4925, -155.621, -94.357, 83.6341
1.80072, -1, -21.2799, 4.87169, 19.5031, -155.672, -94.3397, 83.3422
1.80772, -1, -21.4419, 4.82848, 19.5137, -155.722, -94.3225, 83.05
1.81587, -1, -21.6041, 4.78523, 19.5245, -155.772, -94.3051, 82.7574
1.82471, -1, -21.7664, 4.74198, 19.5353, -155.822, -94.2874, 82.4647
1.83189, -1, -21.9288, 4.6986, 19.546, -155.872, -94.2694, 82.1721
1.84008, -1, -22.0912, 4.65524, 19.5568, -155.923, -94.2515, 81.8794
1.84664, -1, -22.1725, 4.63358, 19.5622, -155.948, -94.2425, 81.7328
1.85617, -1, -22.4161, 4.56849, 19.5781, -156.023, -94.2161, 81.2937
1.86423, -1, -22.5782, 4.52511, 19.5889, -156.073, -94.1985, 81.001
1.87302, -1, -22.7399, 4.48168, 19.5996, -156.123, -94.1811, 80.7081
1.88024, -1, -22.9012, 4.43827, 19.6103, -156.173, -94.1635, 80.415
1.88824, -1, -23.0624, 4.39496, 19.6209, -156.224, -94.1456, 80.1221
1.8972, -1, -23.1429, 4.37334, 19.6262, -156.249, -94.1275, 79.829
1.90363, -1, -23.3039, 4.33004, 19.637, -156.299, -94.1184, 79.6823
1.91226, -1, -23.4647, 4.28684, 19.648, -156.35, -94.1002, 79.3887
1.91971, -1, -23.6257, 4.24359, 19.6587, -156.4, -94.0822, 79.0954
1.92671, -1, -23.7868, 4.20031, 19.6695, -156.45, -94.0645, 78.802
1.93568, -1, -23.9481, 4.15704, 19.6802, -156.501, -94.0471, 78.5084
1.94363, -1, -24.1098, 4.11366, 19.6909, -156.552, -94.0297, 78.2145
1.95168, -1, -24.272, 4.07031, 19.7017, -156.602, -94.0121, 77.9206
1.95968, -1, -24.4346, 4.0269, 19.7123, -156.652, -93.9942, 77.6267
1.96763, -1, -24.5976, 3.98339, 19.723, -156.703, -93.9761, 77.3324
1.97569, -1, -24.7608, 3.9398, 19.7337, -156.753, -93.9581, 77.0382
1.98363, -1, -24.9242, 3.89627, 19.7444, -156.804, -93.9402, 76.7443
1.99163, -1, -25.0876, 3.85271, 19.7553, -156.854, -93.9226, 76.4501
1.99974, -1, -25.251, 3.80914, 19.7662, -156.904, -93.9051, 76.1557
2.00762, -1, -25.414, 3.76556, 19.7771, -156.955, -93.8876, 75.8613
2.01565, -1, -25.5768, 3.72192, 19.7879, -157.005, -93.8699, 75.5671
2.02263, -1, -25.7395, 3.6783, 19.7986, -157.055, -93.8519, 75.2725
2.03167, -1, -25.902, 3.63483, 19.8094, -157.106, -93.8336, 74.9777
2.04228, -1, -26.0642, 3.59124, 19.8202, -157.156, -93.8153, 74.6831
2.0477, -1, -26.226, 3.54774, 19.8309, -157.207, -93.7972, 74.3886
2.05564, -1, -26.3876, 3.50436, 19.8417, -157.258, -93.7793, 74.0937
2.06364, -1, -26.5492, 3.46083, 19.8524, -157.308, -93.7616, 73.7985
2.07162, -1, -26.7111, 3.41728, 19.8633, -157.359, -93.744, 73.5033
2.07973, -1, -26.8734, 3.37376, 19.8742, -157.41, -93.7264, 73.2081
2.08898, -1, -27.036, 3.33012, 19.885, -157.46, -93.7084, 72.9127
2.09563, -1, -27.1988, 3.28649, 19.8958, -157.511, -93.6902, 72.6172
2.10369, -1, -27.3621, 3.24285, 19.9066, -157.561, -93.6719, 72.3219
2.11162, -1, -27.5258, 3.19903, 19.9173, -157.612, -93.6538, 72.0266
2.11968, -1, -27.6896, 3.15528, 19.9282, -157.663, -93.6359, 71.7308
2.12769, -1, -27.8537, 3.11161, 19.9389, -157.713, -93.6181, 71.435
2.13563, -1, -28.0179, 3.06784, 19.9497, -157.764, -93.6005, 71.1395
2.14362, -1, -28.1821, 3.02409, 19.9605, -157.815, -93.5827, 70.8437
2.15175, -1, -28.3464, 2.98035, 19.9713, -157.865, -93.5647, 70.5475
2.15967, -1, -28.5104, 2.93655, 19.9822, -157.916, -93.5463, 70.2515
2.16766, -1, -28.6742, 2.89286, 19.9931, -157.967, -93.5278, 69.9557
2.1757, -1, -28.8377, 2.84912, 20.0039, -158.018, -93.5096, 69.6595
2.18362, -1, -29.0007, 2.80536, 20.0146, -158.069, -93.4917, 69.3629
2.19166, -1, -29.1635, 2.76169, 20.0254, -158.12, -93.474, 69.0666
2.19975, -1, -29.3262, 2.71799, 20.0362, -158.17, -93.4563, 68.77
2.20762, -1, -29.4889, 2.67427, 20.047, -158.221, -93.4386, 68.4732
2.21563, -1, -29.6517, 2.63045, 20.0579, -158.272, -93.4206, 68.1763
2.22373, -1, -29.8147, 2.58661, 20.0687, -158.323, -93.4023, 67.8797
2.23173, -1, -29.9778, 2.54285, 20.0796, -158.375, -93.3838, 67.583
2.23976, -1, -30.1411, 2.49895, 20.0906, -158.425, -93.3656, 67.2859
2.24782, -1, -30.3049, 2.45495, 20.1016, -158.476, -93.3477, 66.9888
2.25572, -1, -30.4692, 2.41102, 20.1126, -158.527, -93.3298, 66.6921
2.26372, -1, -30.634, 2.36696, 20.1234, -158.578, -93.3121, 66.3948
2.27181, -1, -30.799, 2.32296, 20.1341, -158.629, -93.2943, 66.0972
2.27977, -1, -30.9641, 2.27901, 20.1451, -158.68, -93.2762, 65.8
2.28764, -1, -31.1292, 2.2349, 20.1559, -158.731, -93.2578, 65.5029
2.29572, -1, -31.2943, 2.19094, 20.1668, -158.782, -93.2392, 65.2054
2.30369, -1, -31.4592, 2.14705, 20.1777, -158.833, -93.2209, 64.9075
2.31177, -1, -31.6238, 2.103, 20.1885, -158.884, -93.2029, 64.6098
2.31992, -1, -31.7884, 2.059, 20.1994, -158.936, -93.1852, 64.312
2.32785, -1, -31.9526, 2.01508, 20.2104, -158.987, -93.1676, 64.0138
2.336, -1, -32.1165, 1.97104, 20.2214, -159.037, -93.1499, 63.7155
2.34262, -1, -32.1984, 1.94903, 20.2269, -159.063, -93.141, 63.5666
2.35205, -1, -32.4437, 1.88299, 20.2432, -159.14, -93.1139, 63.1196
2.35863, -1, -32.5255, 1.86092, 20.2486, -159.166, -93.1046, 62.9705
2.36899, -1, -32.7712, 1.79477, 20.2651, -159.243, -93.0772, 62.523
2.3762, -1, -32.9353, 1.75066, 20.276, -159.294, -93.0592, 62.2247
2.38424, -1, -33.0996, 1.7064, 20.2869, -159.345, -93.0413, 61.9261
2.39304, -1, -33.1818, 1.66221, 20.2978, -159.396, -93.0235, 61.6273
2.40033, -1, -33.3466, 1.64013, 20.3087, -159.447, -93.0057, 61.3288
2.4082, -1, -33.5119, 1.59589, 20.3143, -159.473, -92.9966, 61.0303
2.41561, -1, -33.6776, 1.55163, 20.3253, -159.525, -92.9784, 60.8809
2.42276, -1, -33.8433, 1.50741, 20.3362, -159.576, -92.9597, 60.5817
2.43269, -1, -34.0922, 1.44109, 20.3525, -159.653, -92.9319, 60.133
2.43967, -1, -34.1752, 1.41901, 20.358, -159.678, -92.9228, 59.9833
2.44761, -1, -34.3413, 1.37482, 20.3689, -159.73, -92.9047, 59.6839
2.45566, -1, -34.5073, 1.33059, 20.3799, -159.781, -92.8868, 59.3841
2.46362, -1, -34.6731, 1.28643, 20.3908, -159.833, -92.869, 59.0847
2.47162, -1, -34.8384, 1.24221, 20.4017, -159.884, -92.8511, 58.7854
2.47979, -1, -35.0034, 1.19794, 20.4127, -159.935, -92.833, 58.4859
2.48763, -1, -35.1682, 1.15365, 20.4239, -159.987, -92.8144, 58.186
2.49561, -1, -35.3327, 1.10932, 20.4349, -160.038, -92.7958, 57.8863
2.50366, -1, -35.4967, 1.06515, 20.4461, -160.09, -92.7775, 57.5865
2.51161, -1, -35.6589, 1.02132, 20.4573, -160.141, -92.7595, 57.2867
2.51969, -1, -35.8183, 0.978101, 20.4689, -160.192, -92.7415, 56.9882
2.5277, -1, -35.9738, 0.936025, 20.4808, -160.242, -92.7238, 56.693
2.53563, -1, -36.124, 0.895568, 20.4927, -160.292, -92.7063, 56.404
2.54465, -1, -36.2666, 0.857355, 20.5046, -160.339, -92.6891, 56.1252
2.55178, -1, -36.3997, 0.822061, 20.5162, -160.384, -92.6727, 55.8628
2.56069, -1, -36.5214, 0.789813, 20.5268, -160.425, -92.6576, 55.6234
2.56761, -1, -36.6303, 0.761015, 20.5361, -160.46, -92.6444, 55.4123
2.57567, -1, -36.7248, 0.735969, 20.5433, -160.49, -92.6334, 55.2343
2.58361, -1, -36.8047, 0.714778, 20.5484, -160.514, -92.6247, 55.0915
2.59161, -1, -36.8708, 0.697359, 20.5513, -160.533, -92.6183, 54.9834
2.59974, -1, -36.9238, 0.683415, 20.5526, -160.546, -92.6138, 54.9073
2.60765, -1, -36.9641, 0.672592, 20.553, -160.555, -92.6109, 54.8558
2.61559, -1, -36.9936, 0.664865, 20.5527, -160.561, -92.6092, 54.8247
2.62368, -1, -37.0138, 0.659881, 20.5523, -160.564, -92.6083, 54.807
2.63161, -1, -37.0261, 0.656922, 20.5519, -160.566, -92.6079, 54.798
2.63966, 2, -37.0326, 0.655334, 20.5518, -160.567, -92.6077, 54.7937
2.64772, 2, -37.0347, 0.654613, 20.5517, -160.567, -92.6075, 54.7918
2.6556, 2, -37.0344, 0.654319, 20.5516, -160.568, -92.6075, 54.7909
2.66361, 2, -37.0338, 0.65421, 20.5516, -160.568, -92.6075, 54.7905
2.67168, 2, -37.0335, 0.654172, 20.5516, -160.568, -92.6076, 54.7904
2.67973, 2, -37.0339, 0.654103, 20.5516, -160.568, -92.6076, 54.7903
2.68761, 2, -37.035, 0.654074, 20.5515, -160.568, -92.6076, 54.7903
2.69571, 2, -37.0361, 0.653957, 20.5514, -160.568, -92.6076, 54.7903
2.70363, 2, -37.0375, 0.653751, 20.5512, -160.568, -92.6077, 54.7904
2.71161, 2, -37.0389, 0.653484, 20.551, -160.568, -92.6077, 54.7904
2.71975, 2, -37.0402, 0.653229, 20.5508, -160.568, -92.6077, 54.7905
2.72764, 2, -37.0411, 0.653018, 20.5506, -160.568, -92.6077, 54.7906
2.73568, 2, -37.0416, 0.652902, 20.5504, -160.568, -92.6077, 54.7907
2.74377, 2, -37.0416, 0.652856, 20.5502, -160.568, -92.6078, 54.7908
2.75171, 2, -37.0411, 0.652872, 20.5501, -160.568, -92.6079, 54.7909
2.75977, 2, -37.0403, 0.652914, 20.55, -160.568, -92.6079, 54.7911
2.76778, 2, -37.0393, 0.652959, 20.55, -160.568, -92.608, 54.7913
2.77567, 2, -37.0378, 0.65303, 20.5499, -160.568, -92.608, 54.7914
2.78361, 2, -37.0363, 0.653109, 20.5498, -160.568, -92.608, 54.7916
2.7917, 2, -37.0352, 0.653135, 20.5497, -160.568, -92.608, 54.7917
2.79972, 2, -37.0346, 0.653146, 20.5497, -160.568, -92.608, 54.7918
2.80769, 2, -37.0343, 0.653121, 20.5497, -160.568, -92.6081, 54.7918
2.81606, 2, -37.0344, 0.653086, 20.5496, -160.567, -92.6081, 54.7919
2.82412, 2, -37.0346, 0.653014, 20.5496, -160.567, -92.6081, 54.7919
2.83183, 2, -37.0348, 0.65295, 20.5496, -160.567, -92.6081, 54.7919
2.84003, 2, -37.0354, 0.652908, 20.5496, -160.567, -92.6081, 54.792
2.8466, 2, -37.0357, 0.652897, 20.5496, -160.567, -92.6081, 54.7921
2.856, 2, -37.0369, 0.652893, 20.5495, -160.568, -92.6081, 54.7921
2.8626, 2, -37.0372, 0.652894, 20.5495, -160.568, -92.6081, 54.7922
2.87265, 2, -37.0379, 0.652906, 20.5495, -160.567, -92.6081, 54.7922
2.8802, 2, -37.0381, 0.652937, 20.5495, -160.567, -92.6081, 54.7922
2.88822, 2, -37.0381, 0.652952, 20.5495, -160.568, -92.6081, 54.7922
2.89645, 2, -37.0381, 0.652978, 20.5495, -160.567, -92.6081, 54.7923
2.90416, 2, -37.0379, 0.652988, 20.5495, -160.567, -92.608, 54.7923
2.91232, 2, -37.0375, 0.65298, 20.5495, -160.567, -92.608, 54.7923
2.92061, 2, -37.037, 0.652969, 20.5495, -160.567, -92.6081, 54.7924
2.9276, 2, -37.0369, 0.652967, 20.5495, -160.567, -92.6081, 54.7924
2.93567, 2, -37.0368, 0.652936, 20.5495, -160.567, -92.6081, 54.7925
2.94359, 2, -37.0367, 0.652914, 20.5495, -160.567, -92.6081, 54.7925
2.9516, 2, -37.0367, 0.652904, 20.5494, -160.567, -92.6082, 54.7926
2.95979, 2, -37.0367, 0.6529, 20.5494, -160.567, -92.6082, 54.7926
2.9676, 2, -37.0368, 0.652898, 20.5494, -160.567, -92.6082, 54.7927
2.9756, 2, -37.0368, 0.652908, 20.5494, -160.567, -92.6082, 54.7928
2.98369, 2, -37.0369, 0.652938, 20.5494, -160.567, -92.6081, 54.7928
2.9916, 2, -37.0371, 0.652952, 20.5494, -160.567, -92.6082, 54.7929
2.99968, 2, -37.0373, 0.652966, 20.5494, -160.567, -92.6082, 54.7929
3.00765, 2, -37.0374, 0.652977, 20.5494, -160.567, -92.6082, 54.793
3.01559, 2, -37.0373, 0.652982, 20.5494, -160.567, -92.6082, 54.793
3.0236, 2, -37.0373, 0.652989, 20.5493, -160.567, -92.6082, 54.7931
3.03311, 2, -37.0374, 0.652946, 20.5493, -160.567, -92.6082, 54.7931
3.03969, 2, -37.0374, 0.652919, 20.5493, -160.567, -92.6083, 54.7932
3.0476, 2, -37.0373, 0.652925, 20.5493, -160.567, -92.6083, 54.7932
3.05566, 2, -37.0373, 0.652909, 20.5493, -160.567, -92.6083, 54.7932
3.0636, 2, -37.0373, 0.65292, 20.5493, -160.567, -92.6083, 54.7933
3.07159, 2, -37.0373, 0.652918, 20.5493, -160.567, -92.6083, 54.7933
3.07973, 2, -37.0373, 0.652932, 20.5493, -160.567, -92.6083, 54.7933
3.08759, 2, -37.0373, 0.652942, 20.5492, -160.567, -92.6083, 54.7934
3.09559, 2, -37.0373, 0.652954, 20.5492, -160.567, -92.6083, 54.7935
3.10366, 2, -37.0373, 0.652971, 20.5492, -160.567, -92.6083, 54.7935
3.11159, 2, -37.0373, 0.652967, 20.5492, -160.567, -92.6084, 54.7936
3.11966, 2, -37.0373, 0.652978, 20.5492, -160.567, -92.6084, 54.7936
3.12766, 2, -37.0373, 0.65297, 20.5492, -160.567, -92.6084, 54.7936
3.13559, 2, -37.0373, 0.652967, 20.5492, -160.567, -92.6084, 54.7937
3.14359, 2, -37.0372, 0.652965, 20.5492, -160.567, -92.6084, 54.7938
3.15171, 2, -37.0372, 0.652964, 20.5492, -160.567, -92.6084, 54.7938
3.15966, 2, -37.0372, 0.652946, 20.5492, -160.567, -92.6084, 54.7938
3.16759, 2, -37.0372, 0.652937, 20.5492, -160.567, -92.6084, 54.7939
3.17566, 2, -37.0372, 0.652922, 20.5492, -160.567, -92.6084, 54.7939
3.18358, 2, -37.0372, 0.652945, 20.5492, -160.567, -92.6084, 54.7939
3.19159, 2, -37.0372, 0.65296, 20.5492, -160.567, -92.6084, 54.794
3.19977, 2, -37.0372, 0.652981, 20.5491, -160.567, -92.6084, 54.794
3.20761, 2, -37.0372, 0.652989, 20.5491, -160.567, -92.6084, 54.794
3.21559, 2, -37.0372, 0.652988, 20.5491, -160.567, -92.6084, 54.794
3.22366, 2, -37.0371, 0.652975, 20.5491, -160.567, -92.6084, 54.7941
3.23162, 2, -37.0372, 0.652988, 20.5491, -160.567, -92.6084, 54.7941
3.23974, 2, -37.0372, 0.652987, 20.5491, -160.567, -92.6084, 54.7941
3.24774, 2, -37.0371, 0.652987, 20.5491, -160.567, -92.6084, 54.7942
3.2557, 2, -37.0371, 0.652979, 20.5491, -160.567, -92.6084, 54.7942
3.26369, 2, -37.0371, 0.652952, 20.5491, -160.567, -92.6084, 54.7942
3.27176, 2, -37.0371, 0.65294, 20.549, -160.567, -92.6084, 54.7943
3.27977, 2, -37.0371, 0.652934, 20.549, -160.567, -92.6085, 54.7943
3.28759, 2, -37.0371, 0.65295, 20.549, -160.567, -92.6084, 54.7943
3.29568, 2, -37.037, 0.652957, 20.549, -160.567, -92.6084, 54.7944
3.30362, 2, -37.037, 0.652961, 20.549, -160.567, -92.6085, 54.7944
3.31169, 2, -37.037, 0.652975, 20.549, -160.567, -92.6084, 54.7944
3.32009, 2, -37.037, 0.652976, 20.549, -160.567, -92.6085, 54.7945
3.32778, 2, -37.037, 0.652982, 20.549, -160.567, -92.6084, 54.7945
3.33599, 2, -37.037, 0.652989, 20.5489, -160.567, -92.6084, 54.7945
3.34399, 2, -37.037, 0.652975, 20.5489, -160.567, -92.6085, 54.7945
3.35058, 2, -37.037, 0.652972, 20.5489, -160.567, -92.6085, 54.7945
3.36015, 2, -37.0369, 0.652982, 20.5489, -160.567, -92.6085, 54.7945
3.36823, 2, -37.0369, 0.652977, 20.5489, -160.567, -92.6085, 54.7945
3.37611, 2, -37.0369, 0.652982, 20.5489, -160.567, -92.6085, 54.7945
3.3842, 2, -37.0369, 0.652984, 20.5489, -160.567, -92.6085, 54.7945
3.39223, 2, -37.0369, 0.652973, 20.5489, -160.567, -92.6085, 54.7946
3.40022, 2, -37.0369, 0.652968, 20.5489, -160.567, -92.6085, 54.7946
3.4082, 2, -37.0369, 0.652967, 20.5489, -160.567, -92.6085, 54.7947
3.41616, 2, -37.0369, 0.653003, 20.5489, -160.567, -92.6085, 54.7947
3.42358, 2, -37.0368, 0.653006, 20.5489, -160.567, -92.6085, 54.7947
3.43162, 2, -37.0368, 0.653026, 20.5489, -160.567, -92.6085, 54.7948
3.4397, 2, -37.0368, 0.653017, 20.5489, -160.567, -92.6085, 54.7948
3.44762, 2, -37.0368, 0.653005, 20.5489, -160.567, -92.6086, 54.7948
3.45558, 2, -37.0368, 0.653002, 20.5488, -160.567, -92.6085, 54.7948
3.46363, 2, -37.0368, 0.653006, 20.5488, -160.567, -92.6085, 54.7948
3.47158, 2, -37.0368, 0.653, 20.5488, -160.566, -92.6085, 54.7948
3.47966, 2, -37.0368, 0.653, 20.5488, -160.567, -92.6085, 54.7948
3.48768, 2, -37.0367, 0.652998, 20.5488, -160.566, -92.6086, 54.7949
3.49558, 2, -37.0367, 0.652991, 20.5488, -160.566, -92.6086, 54.7948
3.50358, 2, -37.0367, 0.652989, 20.5488, -160.566, -92.6085, 54.7949
3.51165, 2, -37.0367, 0.652987, 20.5488, -160.566, -92.6086, 54.7949
3.51965, 2, -37.0367, 0.653012, 20.5488, -160.566, -92.6086, 54.7949
3.52758, 2, -37.0367, 0.653011, 20.5488, -160.566, -92.6086, 54.7949
3.53658, 2, -37.0367, 0.65301, 20.5488, -160.566, -92.6086, 54.7949
3.5436, 2, -37.0367, 0.653009, 20.5487, -160.566, -92.6086, 54.7949
3.55258, 2, -37.0367, 0.653009, 20.5487, -160.566, -92.6086, 54.795
3.55971, 2, -37.0366, 0.653009, 20.5487, -160.566, -92.6086, 54.795
3.56758, 2, -37.0366, 0.653027, 20.5487, -160.566, -92.6085, 54.795
3.57559, 2, -37.0366, 0.653005, 20.5487, -160.566, -92.6085, 54.795
3.58364, 2, -37.0366, 0.652995, 20.5487, -160.566, -92.6085, 54.795
3.59158, 2, -37.0366, 0.65299, 20.5487, -160.566, -92.6085, 54.795
3.59966, 2, -37.0366, 0.652993, 20.5487, -160.566, -92.6085, 54.795
3.60766, 2, -37.0366, 0.653015, 20.5487, -160.566, -92.6085, 54.7951
3.61558, 2, -37.0366, 0.653012, 20.5487, -160.566, -92.6086, 54.7951
3.62358, 2, -37.0365, 0.65301, 20.5486, -160.566, -92.6086, 54.7951
3.63165, 2, -37.0366, 0.653021, 20.5486, -160.566, -92.6085, 54.7951
3.63979, 2, -37.0366, 0.65304, 20.5486, -160.566, -92.6085, 54.7951
3.64757, 2, -37.0366, 0.653034, 20.5486, -160.566, -92.6085, 54.7951
3.65569, 2, -37.0366, 0.653028, 20.5486, -160.566, -92.6085, 54.7951
3.66358, 2, -37.0366, 0.653029, 20.5486, -160.566, -92.6085, 54.7951
3.67157, 2, -37.0365, 0.653055, 20.5486, -160.566, -92.6085, 54.7951
3.67969, 2, -37.0365, 0.653048, 20.5486, -160.566, -92.6085, 54.7951
3.68757, 2, -37.0365, 0.653034, 20.5486, -160.566, -92.6086, 54.7951
3.69558, 2, -37.0365, 0.653039, 20.5486, -160.566, -92.6086, 54.7951
3.70364, 4, -37.0365, 0.653041, 20.5486, -160.566, -92.6086, 54.7951
3.71159, 4, -37.0365, 0.653053, 20.5486, -160.566, -92.6086, 54.7951
3.71966, 4, -37.0365, 0.653048, 20.5486, -160.566, -92.6085, 54.7951
3.72765, 4, -37.0364, 0.653022, 20.5486, -160.566, -92.6085, 54.7951
3.73562, 4, -37.0365, 0.653015, 20.5485, -160.566, -92.6086, 54.7951
3.74366, 4, -37.0364, 0.653041, 20.5485, -160.566, -92.6087, 54.7951
3.75173, 4, -37.0364, 0.653042, 20.5485, -160.566, -92.6085, 54.7951
3.75974, 4, -37.0364, 0.653042, 20.5485, -160.566, -92.6086, 54.7952
3.76773, 4, -37.0364, 0.653043, 20.5485, -160.566, -92.6086, 54.7951
3.77575, 4, -37.0364, 0.653032, 20.5485, -160.566, -92.6086, 54.7951
3.78358, 4, -37.0364, 0.65303, 20.5485, -160.566, -92.6086, 54.7951
3.79158, 4, -37.0364, 0.653037, 20.5485, -160.566, -92.6086, 54.7952
3.79984, 4, -37.0363, 0.653029, 20.5485, -160.566, -92.6086, 54.7952
3.80802, 4, -37.0363, 0.653029, 20.5485, -160.566, -92.6086, 54.7951
3.83772, 4, -37.0363, 0.653041, 20.5485, -160.566, -92.6087, 54.7952
3.84124, 4, -37.0363, 0.653041, 20.5485, -160.566, -92.6087, 54.7952
3.84251, 4, -37.0363, 0.653041, 20.5485, -160.566, -92.6087, 54.7952
3.84521, 4, -37.0363, 0.653031, 20.5485, -160.566, -92.6087, 54.7951
3.84799, 4, -37.0363, 0.653024, 20.5485, -160.566, -92.6087, 54.7951
3.85594, 4, -37.0355, 0.652882, 20.5485, -160.566, -92.6087, 54.7952
3.86265, 4, -37.0346, 0.652583, 20.5485, -160.566, -92.6087, 54.7952
3.87223, 4, -37.0272, 0.649153, 20.5495, -160.566, -92.6087, 54.7952
3.88049, 4, -37.0177, 0.643256, 20.552, -160.566, -92.6088, 54.7952
3.88849, 4, -37.0042, 0.633738, 20.5575, -160.565, -92.6088, 54.7951
3.89643, 4, -36.986, 0.620027, 20.5672, -160.563, -92.6087, 54.7951
3.9041, 5, -36.9748, 0.61143, 20.5742, -160.56, -92.6087, 54.7951
3.91334, 5, -36.9329, 0.579066, 20.6047, -160.556, -92.6085, 54.7951
3.92049, 5, -36.8989, 0.551778, 20.6335, -160.55, -92.6081, 54.795
3.92761, 5, -36.8801, 0.536541, 20.6506, -160.546, -92.6078, 54.795
3.93556, 5, -36.8389, 0.502524, 20.6892, -160.538, -92.6068, 54.795
3.94357, 5, -36.7925, 0.463717, 20.7332, -160.528, -92.6054, 54.795
3.95162, 5, -36.7409, 0.420619, 20.7818, -160.517, -92.6039, 54.7949
3.95964, 5, -36.6846, 0.37381, 20.8335, -160.505, -92.6021, 54.795
3.96772, 5, -36.6244, 0.324259, 20.8872, -160.493, -92.6003, 54.7949
3.97555, 5, -36.5602, 0.272591, 20.9422, -160.481, -92.5984, 54.7949
3.98362, 5, -36.4936, 0.219547, 20.9977, -160.469, -92.5965, 54.7949
3.99172, 5, -36.4259, 0.165909, 21.0532, -160.456, -92.5945, 54.795
3.99961, 5, -36.3573, 0.111997, 21.1089, -160.444, -92.5925, 54.795
4.00762, 5, -36.2885, 0.058021, 21.1644, -160.433, -92.5905, 54.7951
4.01572, 5, -36.2196, 0.00414487, 21.22, -160.42, -92.5886, 54.7951
4.02361, 5, -36.1508, -0.0495142, 21.2756, -160.408, -92.5865, 54.7952
4.03156, 5, -36.0822, -0.102978, 21.3311, -160.396, -92.5844, 54.7953
4.04145, 5, -36.0135, -0.182685, 21.4141, -160.377, -92.5813, 54.7957
4.0484, 5, -35.945, -0.209188, 21.4418, -160.37, -92.5803, 54.7959
4.05463, 5, -35.8764, -0.262064, 21.497, -160.357, -92.5781, 54.7964
4.06641, 5, -35.7733, -0.341102, 21.5797, -160.338, -92.575, 54.7976
4.07178, 5, -35.7388, -0.367475, 21.6073, -160.332, -92.574, 54.7981
4.07962, 5, -35.6697, -0.420209, 21.6621, -160.319, -92.5718, 54.7992
4.08757, 5, -35.6001, -0.473008, 21.7168, -160.307, -92.5697, 54.8005
4.09572, 5, -35.5304, -0.525855, 21.7713, -160.294, -92.5676, 54.8018
4.10454, 5, -35.4604, -0.57869, 21.8257, -160.282, -92.5654, 54.8034
4.11157, 5, -35.3902, -0.631509, 21.8798, -160.269, -92.5632, 54.805
4.11984, 5, -35.3198, -0.684282, 21.9339, -160.256, -92.5611, 54.8068
4.12754, 5, -35.2493, -0.737034, 21.9879, -160.243, -92.5589, 54.8087
4.13558, 5, -35.1787, -0.78947, 22.0417, -160.229, -92.5566, 54.8109
4.1437, 5, -35.108, -0.841725, 22.0955, -160.216, -92.5545, 54.813
4.15239, 5, -35.0374, -0.893935, 22.1492, -160.203, -92.5522, 54.8153
4.1597, 5, -34.9669, -0.945766, 22.2027, -160.19, -92.5499, 54.8178
4.16905, 5, -34.8964, -0.997435, 22.2561, -160.177, -92.5477, 54.8203
4.17572, 5, -34.8259, -1.04894, 22.3094, -160.164, -92.5454, 54.823
4.18364, 5, -34.7555, -1.10042, 22.3625, -160.151, -92.5431, 54.8257
4.19157, 5, -34.6848, -1.15186, 22.4154, -160.138, -92.5408, 54.8286
4.19962, 5, -34.6139, -1.20319, 22.4682, -160.125, -92.5384, 54.8316
4.20766, 5, -34.5429, -1.25461, 22.5207, -160.112, -92.5361, 54.8347
4.2156, 5, -34.4717, -1.30598, 22.5731, -160.099, -92.5337, 54.8378
4.22375, 5, -34.4004, -1.35738, 22.6254, -160.085, -92.5314, 54.8412
4.23584, 5, -34.293, -1.4344, 22.7036, -160.064, -92.5277, 54.8463
4.23975, 5, -34.2572, -1.46, 22.7296, -160.057, -92.5265, 54.8481
4.24765, 5, -34.1853, -1.51108, 22.7815, -160.044, -92.5241, 54.8518
4.25613, 5, -34.1133, -1.56195, 22.8332, -160.03, -92.5218, 54.8555
4.26318, 5, -34.0412, -1.61262, 22.8849, -160.017, -92.5194, 54.8594
4.2719, 5, -33.9692, -1.66306, 22.9365, -160.003, -92.5169, 54.8634
4.28049, 5, -33.8969, -1.71329, 22.9879, -159.99, -92.5145, 54.8675
4.28757, 5, -33.8248, -1.76335, 23.0392, -159.976, -92.5121, 54.8716
4.29599, 5, -33.7527, -1.81334, 23.0902, -159.962, -92.5098, 54.8758
4.30855, 5, -33.6442, -1.88818, 23.1665, -159.941, -92.5063, 54.8822
4.31245, 5, -33.608, -1.9131, 23.1919, -159.933, -92.5051, 54.8843
4.32058, 5, -33.5354, -1.96317, 23.2425, -159.919, -92.5028, 54.8887
4.32771, 5, -33.4625, -2.01348, 23.293, -159.905, -92.5004, 54.8928
4.3367, 5, -33.3896, -2.0641, 23.3433, -159.891, -92.4982, 54.8959
4.34605, 5, -33.3169, -2.11507, 23.3936, -159.877, -92.4959, 54.8975
4.35437, 6, -33.2443, -2.16657, 23.4441, -159.863, -92.4935, 54.8977
4.36086, 6, -33.1722, -2.21893, 23.4946, -159.848, -92.4909, 54.8959
4.36803, 6, -33.1005, -2.27212, 23.5457, -159.833, -92.4877, 54.8906
4.37456, 6, -33.0648, -2.29906, 23.5716, -159.825, -92.4858, 54.8856
4.38497, 7, -32.9584, -2.38165, 23.6507, -159.798, -92.478, 54.8644
4.39215, 7, -32.8882, -2.43818, 23.7049, -159.779, -92.4707, 54.8466
4.40171, 7, -32.8184, -2.49625, 23.7607, -159.758, -92.4614, 54.8281
4.40862, 7, -32.7492, -2.55584, 23.818, -159.737, -92.45, 54.8099
4.41616, 7, -32.7149, -2.58627, 23.8471, -159.725, -92.4435, 54.7923
4.42355, 8, -32.6468, -2.64831, 23.9066, -159.702, -92.429, 54.7838
4.43063, 8, -32.5795, -2.71215, 23.9673, -159.677, -92.4125, 54.7668
4.44147, 8, -32.4797, -2.81117, 24.0604, -159.637, -92.3842, 54.74
4.44767, 8, -32.4469, -2.84496, 24.092, -159.623, -92.374, 54.7305
4.45552, 8, -32.3817, -2.91365, 24.1559, -159.595, -92.3525, 54.7102
4.4636, 9, -32.317, -2.98373, 24.2208, -159.567, -92.33, 54.6882
4.47173, 9, -32.253, -3.0551, 24.2867, -159.537, -92.3064, 54.6645
4.48108, 9, -32.1895, -3.12782, 24.3874, -159.489, -92.2683, 54.6259
4.48755, 9, -32.1266, -3.20175, 24.4215, -159.473, -92.2547, 54.6125
4.49556, 9, -32.0642, -3.27703, 24.4903, -159.441, -92.2262, 54.5846
4.5036, 10, -32.0024, -3.3536, 24.5602, -159.407, -92.1965, 54.5551
4.51157, 10, -31.9413, -3.43154, 24.6311, -159.372, -92.1657, 54.5238
4.52137, 10, -31.8506, -3.55112, 24.7394, -159.318, -92.117, 54.473
4.52769, 10, -31.8206, -3.59167, 24.7761, -159.3, -92.0997, 54.4553
4.53555, 10, -31.7611, -3.67393, 24.8501, -159.262, -92.064, 54.4193
4.54457, 11, -31.7022, -3.75757, 24.9252, -159.223, -92.0277, 54.3819
4.55159, 11, -31.6437, -3.84276, 25.0011, -159.184, -91.9903, 54.3427
4.56061, 11, -31.5859, -3.92942, 25.078, -159.144, -91.9508, 54.3016
4.5709, 11, -31.5, -4.06213, 25.1951, -159.081, -91.8891, 54.2374
4.57576, 11, -31.4717, -4.10708, 25.2347, -159.06, -91.8682, 54.2155
4.58352, 12, -31.4154, -4.19816, 25.3147, -159.017, -91.8248, 54.1705
4.59164, 12, -31.3595, -4.29059, 25.3957, -158.973, -91.7794, 54.1232
4.59969, 12, -31.3043, -4.38442, 25.4778, -158.927, -91.7334, 54.0743
4.60854, 12, -31.2495, -4.47959, 25.561, -158.881, -91.6861, 54.0245
4.61555, 12, -31.1953, -4.57617, 25.6452, -158.835, -91.6367, 53.973
4.62363, 13, -31.1415, -4.67419, 25.7302, -158.786, -91.5868, 53.9195
4.63164, 13, -31.0882, -4.77362, 25.8162, -158.738, -91.5352, 53.8648
4.63954, 13, -31.0355, -4.87448, 25.9033, -158.688, -91.4816, 53.8091
4.64779, 13, -30.9833, -4.97688, 25.9914, -158.637, -91.4276, 53.7512
4.65552, 13, -30.9317, -5.08072, 26.0807, -158.586, -91.3717, 53.6919
4.66351, 14, -30.8805, -5.18596, 26.171, -158.534, -91.3145, 53.6318
4.67165, 14, -30.83, -5.29266, 26.2623, -158.479, -91.2567, 53.5696
4.67955, 14, -30.7801, -5.40084, 26.3547, -158.426, -91.1964, 53.5062
4.68755, 14, -30.7306, -5.5105, 26.4478, -158.371, -91.136, 53.4418
4.69594, 14, -30.6817, -5.62173, 26.5419, -158.314, -91.0733, 53.3753
4.70455, 14, -30.6332, -5.73442, 26.6371, -158.258, -91.0094, 53.3075
4.71161, 15, -30.5852, -5.84855, 26.7335, -158.199, -90.9443, 53.2388
4.72179, 15, -30.5377, -5.96385, 26.8311, -158.141, -90.8775, 53.1678
4.72778, 15, -30.4907, -6.08056, 26.9296, -158.081, -90.8102, 53.0962
4.7356, 15, -30.4442, -6.19884, 27.0291, -158.02, -90.7406, 53.0225
4.74365, 15, -30.3983, -6.31842, 27.1295, -157.959, -90.6704, 52.9471
4.75165, 16, -30.3528, -6.43959, 27.2307, -157.896, -90.5981, 52.8709
4.75968, 16, -30.3079, -6.56226, 27.3333, -157.833, -90.5253, 52.7922
4.76768, 16, -30.2634, -6.68622, 27.4369, -157.768, -90.4507, 52.713
4.77583, 16, -30.2194, -6.81175, 27.5417, -157.704, -90.3751, 52.632
4.78365, 16, -30.176, -6.93885, 27.6475, -157.637, -90.2977, 52.5497
4.79167, 17, -30.1329, -7.06749, 27.7541, -157.571, -90.2194, 52.4664
4.79979, 17, -30.0905, -7.19768, 27.8615, -157.503, -90.1396, 52.3815
4.80758, 17, -30.0485, -7.32933, 27.97, -157.434, -90.0582, 52.2957
4.81565, 17, -30.007, -7.46219, 28.0796, -157.364, -89.976, 52.2078
4.82404, 17, -29.9661, -7.59645, 28.1905, -157.294, -89.8921, 52.1193
4.83175, 18, -29.9256, -7.73223, 28.3024, -157.222, -89.8072, 52.0289
4.83987, 18, -29.8856, -7.86944, 28.4152, -157.15, -89.7206, 51.9376
4.84841, 18, -29.8462, -8.00801, 28.5288, -157.077, -89.6334, 51.8444
4.85687, 18, -29.8071, -8.14774, 28.6434, -157.002, -89.5446, 51.7504
4.86396, 18, -29.7685, -8.28886, 28.7592, -156.927, -89.4543, 51.6546
4.87205, 19, -29.7304, -8.43136, 28.8762, -156.851, -89.3633, 51.5582
4.88036, 19, -29.6928, -8.57551, 28.9944, -156.774, -89.2708, 51.46
4.88809, 19, -29.6555, -8.72121, 29.1133, -156.697, -89.1768, 51.3611
4.89709, 19, -29.6188, -8.86807, 29.2329, -156.618, -89.0821, 51.2611
4.90496, 19, -29.5826, -9.0162, 29.3535, -156.539, -88.9861, 51.16
4.9121, 20, -29.5647, -9.09088, 29.4142, -156.498, -88.8888, 51.0575
4.91954, 20, -29.5291, -9.24131, 29.5367, -156.418, -88.8399, 51.006
4.92891, 20, -29.4767, -9.46976, 29.7221, -156.295, -88.6917, 50.849
4.93554, 20, -29.4594, -9.5465, 29.7844, -156.253, -88.6415, 50.796
4.94358, 20, -29.4253, -9.7008, 29.9095, -156.17, -88.5407, 50.6893
4.9515, 21, -29.3917, -9.85641, 30.0356, -156.086, -88.4388, 50.5814
4.95954, 21, -29.3585, -10.0136, 30.1627, -156, -88.3355, 50.4725
4.96759, 21, -29.3256, -10.1722, 30.2909, -155.914, -88.2315, 50.3624
4.9759, 21, -29.2932, -10.332, 30.4202, -155.827, -88.1263, 50.2516
4.98362, 21, -29.2612, -10.4926, 30.5503, -155.74, -88.02, 50.1401
4.99176, 22, -29.2296, -10.6546, 30.6811, -155.651, -87.9129, 50.0274
4.99953, 22, -29.1985, -10.8179, 30.813, -155.561, -87.8046, 49.9141
5.0076, 22, -29.1676, -10.9826, 30.9458, -155.471, -87.6954, 49.7998
5.01553, 22, -29.1372, -11.1481, 31.0795, -155.379, -87.5853, 49.6845
5.02507, 22, -29.1072, -11.3147, 31.2141, -155.287, -87.4179, 49.51
5.03234, 22, -29.0776, -11.4827, 31.3497, -155.194, -87.3618, 49.4514
5.03953, 23, -29.0484, -11.6525, 31.4861, -155.1, -87.2487, 49.3338
5.05037, 23, -29.005, -11.909, 31.6922, -154.958, -87.0773, 49.156
5.05578, 23, -28.9908, -11.9949, 31.7612, -154.91, -87.0199, 49.0964
5.06359, 23, -28.9628, -12.1676, 31.9001, -154.813, -86.9041, 48.9771
5.07255, 23, -28.9351, -12.3419, 32.0399, -154.716, -86.7873, 48.8568
5.0796, 24, -28.9077, -12.5174, 32.1806, -154.618, -86.6697, 48.7361
5.08754, 24, -28.8806, -12.6934, 32.322, -154.519, -86.5512, 48.6151
5.09553, 24, -28.8538, -12.87, 32.4639, -154.419, -86.432, 48.493
5.10378, 24, -28.8275, -13.0483, 32.6068, -154.318, -86.3116, 48.3705
5.11258, 24, -28.8014, -13.228, 32.7508, -154.217, -86.1908, 48.2476
5.11953, 25, -28.7757, -13.4083, 32.8955, -154.114, -86.0692, 48.1242
5.12766, 25, -28.7502, -13.5891, 33.0408, -154.011, -85.9467, 48.0007
5.13558, 25, -28.725, -13.7713, 33.1865, -153.908, -85.8239, 47.8774
5.14355, 25, -28.6998, -13.9549, 33.333, -153.803, -85.6998, 47.7535
5.15154, 25, -28.6751, -14.1391, 33.4805, -153.697, -85.5756, 47.6296
5.1596, 26, -28.6506, -14.3238, 33.6287, -153.591, -85.4505, 47.5056
5.16753, 26, -28.6265, -14.5096, 33.7772, -153.484, -85.3249, 47.3813
5.17655, 26, -28.6026, -14.6969, 33.9264, -153.376, -85.1989, 47.2568
5.18355, 26, -28.5789, -14.8847, 34.0766, -153.268, -85.0719, 47.1326
5.19155, 26, -28.5553, -15.0727, 34.2275, -153.158, -84.9447, 47.0085
5.20053, 27, -28.532, -15.2615, 34.3786, -153.048, -84.8167, 46.8846
5.20935, 27, -28.509, -15.4512, 34.5302, -152.938, -84.6885, 46.7615
5.21653, 27, -28.4861, -15.6414, 34.6826, -152.826, -84.5595, 46.638
5.22691, 27, -28.4522, -15.9274, 34.9126, -152.658, -84.3655, 46.4535
5.23181, 27, -28.4411, -16.0233, 34.9893, -152.601, -84.3006, 46.3922
5.24057, 28, -28.4188, -16.2164, 35.1428, -152.488, -84.1705, 46.2696
5.24791, 28, -28.3964, -16.41, 35.2971, -152.374, -84.04, 46.1476
5.25575, 28, -28.3742, -16.604, 35.4521, -152.259, -83.909, 46.026
5.26403, 28, -28.3523, -16.7992, 35.6075, -152.144, -83.778, 45.9051
5.27163, 28, -28.3303, -16.9953, 35.7631, -152.027, -83.6464, 45.785
5.27984, 29, -28.3085, -17.1914, 35.919, -151.911, -83.5148, 45.6659
5.28814, 29, -28.287, -17.3877, 36.0758, -151.793, -83.3827, 45.5473
5.29553, 29, -28.2655, -17.585, 36.2332, -151.675, -83.2502, 45.4295
5.30461, 29, -28.2439, -17.783, 36.3906, -151.555, -83.1172, 45.3126
5.31367, 29, -28.2225, -17.9809, 36.5481, -151.436, -82.9842, 45.1961
5.31964, 29, -28.2013, -18.179, 36.7065, -151.316, -82.8508, 45.081
5.32867, 30, -28.1801, -18.378, 36.8654, -151.195, -82.7174, 44.9669
5.33572, 30, -28.1588, -18.5772, 37.0241, -151.073, -82.584, 44.8542
5.34467, 30, -28.1376, -18.7764, 37.1826, -150.951, -82.4501, 44.7433
5.35219, 30, -28.1163, -18.9763, 37.3413, -150.829, -82.3165, 44.634
5.36085, 30, -28.0948, -19.1772, 37.5005, -150.706, -82.1823, 44.5266
5.36878, 31, -28.0733, -19.3781, 37.6597, -150.583, -82.0486, 44.4207
5.37715, 31, -28.0518, -19.5787, 37.8186, -150.459, -81.9143, 44.3166
5.38502, 31, -28.0303, -19.7795, 37.9779, -150.334, -81.7803, 44.2143
5.39217, 31, -28.0086, -19.9805, 38.1379, -150.209, -81.6461, 44.1133
5.40016, 31, -27.9868, -20.1811, 38.2979, -150.083, -81.5118, 44.0142
5.40972, 32, -27.965, -20.3815, 38.4575, -149.957, -81.3776, 43.9165
5.4166, 32, -27.9429, -20.5828, 38.6171, -149.831, -81.2434, 43.8213
5.42351, 32, -27.9316, -20.6835, 38.6971, -149.767, -81.1765, 43.7745
5.4337, 32, -27.8978, -20.9849, 38.9371, -149.576, -80.9755, 43.6377
5.44057, 32, -27.875, -21.1856, 39.0963, -149.449, -80.8423, 43.5496
5.44754, 33, -27.8635, -21.2862, 39.1756, -149.385, -80.7757, 43.5068
5.45553, 33, -27.8403, -21.4868, 39.3344, -149.257, -80.6429, 43.4238
5.46352, 33, -27.8167, -21.6867, 39.4934, -149.13, -80.5104, 43.3433
5.47152, 33, -27.7925, -21.8859, 39.6516, -149.002, -80.3785, 43.2665
5.47967, 33, -27.7678, -22.0851, 39.8089, -148.875, -80.2472, 43.1924
5.48757, 34, -27.7427, -22.2837, 39.9657, -148.747, -80.116, 43.1218
5.49552, 34, -27.7171, -22.4812, 40.1225, -148.619, -79.9853, 43.0549
5.50372, 34, -27.6911, -22.6782, 40.2788, -148.492, -79.8545, 42.9904
5.51292, 34, -27.6646, -22.8751, 40.4342, -148.364, -79.7239, 42.9008
5.51953, 34, -27.6376, -23.0714, 40.5893, -148.236, -79.5931, 42.8725
5.52757, 35, -27.6102, -23.2669, 40.7446, -148.108, -79.4625, 42.8179
5.53553, 35, -27.5826, -23.4625, 40.8996, -147.98, -79.3318, 42.7669
5.54351, 35, -27.5548, -23.6584, 41.054, -147.851, -79.2014, 42.7198
5.55396, 35, -27.5124, -23.9511, 41.2851, -147.657, -79.006, 42.655
5.56131, 35, -27.4982, -24.0484, 41.3621, -147.592, -78.941, 42.6349
5.56753, 36, -27.4695, -24.2432, 41.5163, -147.461, -78.8112, 42.5975
5.57552, 36, -27.4403, -24.4377, 41.6698, -147.331, -78.6814, 42.5644
5.58367, 36, -27.4109, -24.6314, 41.8227, -147.2, -78.5523, 42.5355
5.59156, 36, -27.381, -24.8244, 41.9753, -147.069, -78.4233, 42.5109
5.59953, 36, -27.3505, -25.0176, 42.1276, -146.938, -78.295, 42.4905
5.60778, 37, -27.3192, -25.2101, 42.2788, -146.808, -78.167, 42.4747
5.61559, 37, -27.2871, -25.4013, 42.429, -146.677, -78.0395, 42.4634
5.62358, 37, -27.2543, -25.5916, 42.5782, -146.547, -77.9125, 42.457
5.63173, 37, -27.2207, -25.7813, 42.7267, -146.418, -77.7858, 42.4542
5.6395, 37, -27.1861, -25.97, 42.8741, -146.289, -77.6598, 42.4542
5.64752, 37, -27.1507, -26.1567, 43.0202, -146.161, -77.5339, 42.46
5.65559, 38, -27.1144, -26.3422, 43.1651, -146.033, -77.4089, 42.4721
5.66353, 38, -27.0774, -26.5273, 43.3093, -145.906, -77.2842, 42.4897
5.67151, 38, -27.0396, -26.7111, 43.4528, -145.778, -77.1601, 42.5125
5.68001, 38, -27.001, -26.8933, 43.5953, -145.652, -77.0364, 42.5409
5.68961, 38, -26.9616, -27.0748, 43.7369, -145.525, -76.9131, 42.5752
5.69652, 39, -26.9215, -27.256, 43.8776, -145.399, -76.7904, 42.6157
5.70569, 39, -26.8806, -27.4361, 44.0173, -145.272, -76.6675, 42.6622
5.71165, 39, -26.8387, -27.6148, 44.1562, -145.146, -76.5451, 42.714
5.71961, 39, -26.796, -27.7927, 44.2941, -145.02, -76.4227, 42.7719
5.72754, 39, -26.7525, -27.9704, 44.4308, -144.895, -76.3005, 42.8368
5.73557, 40, -26.7081, -28.1471, 44.5664, -144.77, -76.1784, 42.9069
5.74362, 40, -26.6626, -28.3219, 44.7009, -144.646, -76.0565, 42.9841
5.75159, 40, -26.6162, -28.4953, 44.8342, -144.522, -75.9352, 43.0676
5.75967, 40, -26.5688, -28.668, 44.9663, -144.4, -75.8138, 43.1572
5.76761, 40, -26.5203, -28.8393, 45.0971, -144.278, -75.6934, 43.254
5.77563, 41, -26.4708, -29.0086, 45.2265, -144.156, -75.5731, 43.3571
5.78396, 41, -26.4203, -29.1763, 45.3546, -144.036, -75.4532, 43.4671
5.79203, 41, -26.3685, -29.343, 45.4815, -143.916, -75.334, 43.5839
5.80011, 41, -26.3155, -29.5084, 45.607, -143.798, -75.2148, 43.7078
5.81206, 41, -26.2612, -29.6717, 45.7919, -143.622, -75.0376, 43.9072
5.81568, 42, -26.2055, -29.8331, 45.8527, -143.564, -74.9785, 43.9774
5.82442, 42, -26.1483, -29.9927, 45.9727, -143.449, -74.8609, 44.1232
5.83168, 42, -26.0894, -30.1505, 46.0905, -143.336, -74.7442, 44.2758
5.84054, 42, -26.0289, -30.3061, 46.2062, -143.225, -74.6277, 44.4358
5.84791, 42, -25.9667, -30.4592, 46.3199, -143.116, -74.5119, 44.6027
5.85618, 43, -25.9027, -30.6099, 46.4312, -143.009, -74.3967, 44.7768
5.86511, 43, -25.837, -30.7585, 46.5403, -142.904, -74.2817, 44.9588
5.872, 43, -25.7697, -30.9049, 46.6473, -142.8, -74.1674, 45.1484
5.88097, 43, -25.7008, -31.0489, 46.7523, -142.699, -74.0531, 45.3458
5.88906, 43, -25.6303, -31.1906, 46.8555, -142.599, -73.9396, 45.5508
5.89607, 43, -25.5583, -31.3303, 46.9568, -142.501, -73.8266, 45.7635
5.90497, 44, -25.4846, -31.468, 47.0559, -142.405, -73.714, 45.984
5.91239, 44, -25.4091, -31.6036, 47.1525, -142.311, -73.6023, 46.2128
5.92095, 44, -25.3707, -31.6705, 47.1999, -142.265, -73.5467, 46.3302
5.92998, 44, -25.2528, -31.8672, 47.3386, -142.131, -73.3805, 46.6948
5.93636, 44, -25.2126, -31.9315, 47.3836, -142.045, -73.2707, 46.9479
5.94348, 45, -25.1308, -32.058, 47.4719, -142.003, -73.2159, 47.0779
5.95151, 45, -25.0469, -32.1816, 47.5577, -141.921, -73.1068, 47.3439
5.96564, 45, -24.9173, -32.3617, 47.7206, -141.766, -72.8899, 47.9006
5.96745, 45, -24.873, -32.4203, 47.7206, -141.766, -72.8899, 47.9006
5.97556, 45, -24.7825, -32.5349, 47.7976, -141.693, -72.7824, 48.1913
5.9835, 46, -24.6897, -32.6461, 47.8715, -141.623, -72.6753, 48.4908
5.99151, 46, -24.5945, -32.754, 47.9425, -141.556, -72.5688, 48.7984
5.99955, 46, -24.4968, -32.8584, 48.0105, -141.493, -72.4634, 49.1141
6.00765, 46, -24.397, -32.9592, 48.0754, -141.435, -72.3586, 49.4387
6.01555, 46, -24.2948, -33.0562, 48.1368, -141.379, -72.2549, 49.7716
6.02349, 47, -24.1903, -33.1495, 48.1948, -141.328, -72.1525, 50.1121
6.03151, 47, -24.0835, -33.2389, 48.2492, -141.281, -72.0511, 50.461
6.04116, 47, -23.974, -33.3654, 48.324, -141.217, -71.9013, 51.0002
6.04761, 47, -23.8619, -33.4055, 48.3471, -141.199, -71.8518, 51.1841
6.05567, 47, -23.7471, -33.4827, 48.3903, -141.165, -71.7538, 51.5586
6.06377, 48, -23.6294, -33.5556, 48.4296, -141.136, -71.6571, 51.9419
6.07156, 48, -23.5091, -33.6241, 48.4648, -141.111, -71.5621, 52.3339
6.08043, 48, -23.3862, -33.6879, 48.4957, -141.09, -71.4686, 52.7353
6.0875, 48, -23.2609, -33.7469, 48.5227, -141.075, -71.3768, 53.1464
6.09555, 48, -23.1329, -33.8008, 48.5452, -141.065, -71.2871, 53.5662
6.10452, 49, -23.002, -33.8497, 48.5633, -141.06, -71.1992, 53.9953
6.11165, 49, -22.8683, -33.8932, 48.577, -141.059, -71.1131, 54.4319
6.11959, 49, -22.7314, -33.9312, 48.586, -141.064, -71.0294, 54.8763
6.13092, 49, -22.5208, -33.9775, 48.5908, -141.082, -70.9076, 55.5569
6.13564, 49, -22.4491, -33.9901, 48.5902, -141.092, -70.8682, 55.7875
6.14346, 50, -22.3038, -34.0108, 48.5851, -141.116, -70.7912, 56.2544
6.15158, 50, -22.1558, -34.0252, 48.5749, -141.145, -70.7174, 56.7279
6.15955, 50, -22.0052, -34.0334, 48.5596, -141.18, -70.6461, 57.2093
6.16752, 50, -21.8516, -34.0356, 48.5391, -141.222, -70.5783, 57.6987
6.1755, 50, -21.6951, -34.0317, 48.513, -141.27, -70.5133, 58.1953
6.18369, 51, -21.5354, -34.0211, 48.4814, -141.324, -70.4527, 58.699
6.1925, 51, -21.3728, -34.0037, 48.4445, -141.385, -70.3948, 59.2086
6.1995, 51, -21.2075, -33.9794, 48.402, -141.452, -70.341, 59.7247
6.20769, 51, -21.0397, -33.948, 48.3539, -141.525, -70.2912, 60.2466
6.2165, 51, -20.8694, -33.9095, 48.3002, -141.604, -70.2445, 60.7748
6.22358, 51, -20.6965, -33.8635, 48.2407, -141.69, -70.2024, 61.3078
6.23597, 52, -20.4322, -33.7797, 48.1402, -141.83, -70.1483, 62.1202
6.23973, 52, -20.3427, -33.7478, 48.1037, -141.88, -70.1324, 62.3942
6.24851, 52, -20.1614, -33.6779, 48.0262, -141.985, -70.104, 62.9474
6.2556, 52, -19.9775, -33.5998, 47.9424, -142.096, -70.0807, 63.506
6.26366, 52, -19.7911, -33.5132, 47.8522, -142.213, -70.0628, 64.0712
6.27161, 53, -19.6026, -33.4181, 47.756, -142.337, -70.0504, 64.6419
6.2796, 53, -19.4123, -33.3148, 47.6537, -142.466, -70.0435, 65.2174
6.28786, 53, -19.2199, -33.2034, 47.5455, -142.602, -70.0415, 65.7963
6.29551, 53, -19.0258, -33.0838, 47.4316, -142.743, -70.0446, 66.3788
6.3035, 53, -18.83, -32.9558, 47.3116, -142.889, -70.0539, 66.9641
6.31184, 54, -18.6324, -32.8196, 47.1858, -143.039, -70.0694, 67.5506
6.32049, 54, -18.4329, -32.6751, 47.0543, -143.194, -70.0916, 68.1381
6.32765, 54, -18.2314, -32.5224, 46.9173, -143.354, -70.1205, 68.727
6.33691, 54, -18.0286, -32.3614, 46.7747, -143.518, -70.1555, 69.3175
6.34436, 54, -17.8245, -32.1915, 46.6262, -143.687, -70.1969, 69.9097
6.35185, 55, -17.6196, -32.0123, 46.4713, -143.86, -70.2466, 70.5044
6.35987, 55, -17.4135, -31.8239, 46.3101, -144.038, -70.3037, 71.1035
6.36792, 55, -17.2057, -31.6261, 46.1422, -144.221, -70.3688, 71.7072
6.37603, 55, -16.9962, -31.418, 45.9666, -144.409, -70.4432, 72.315
6.38402, 55, -16.7849, -31.1991, 45.7835, -144.602, -70.526, 72.9282
6.39254, 56, -16.5721, -30.9698, 45.5938, -144.8, -70.6185, 73.5462
6.40034, 56, -16.3578, -30.7298, 45.3969, -145.003, -70.7197, 74.168
6.40814, 56, -16.1426, -30.4787, 45.1919, -145.209, -70.8304, 74.7924
6.41637, 56, -15.9276, -30.2172, 44.9805, -145.42, -70.9505, 75.4202
6.42492, 56, -15.8202, -29.945, 44.7631, -145.633, -71.0799, 76.0504
6.43154, 57, -15.6047, -29.8047, 44.6516, -145.741, -71.1483, 76.3657
6.43949, 57, -15.3881, -29.5167, 44.4234, -145.959, -71.2921, 76.9969
6.4475, 57, -15.1705, -29.2186, 44.1894, -146.18, -71.4456, 77.6295
6.45555, 57, -14.9522, -28.9104, 43.949, -146.402, -71.6087, 78.2627
6.46366, 57, -14.7342, -28.594, 43.7027, -146.626, -71.7814, 78.8939
6.47467, 58, -14.4081, -28.104, 43.3254, -146.962, -72.0567, 79.8366
6.47943, 58, -14.3, -27.937, 43.1972, -147.074, -72.1524, 80.1489
6.48757, 58, -14.0848, -27.597, 42.939, -147.297, -72.3493, 80.7691
6.49554, 58, -13.8713, -27.25, 42.6779, -147.518, -72.5533, 81.3819
6.50353, 58, -13.6592, -26.8961, 42.4136, -147.736, -72.7641, 81.9886
6.5115, 58, -13.4482, -26.5359, 42.147, -147.953, -72.9815, 82.5889
6.51948, 59, -13.2387, -26.1684, 41.8765, -148.167, -73.2061, 83.183
6.52757, 59, -13.0311, -25.7944, 41.6025, -148.38, -73.4383, 83.772
6.53803, 59, -12.7226, -25.2204, 41.1844, -148.696, -73.8022, 84.6491
6.54363, 59, -12.6202, -25.0256, 41.043, -148.801, -73.9278, 84.9399
6.55153, 59, -12.4163, -24.6298, 40.7571, -149.009, -74.186, 85.5185
6.56056, 60, -12.2133, -24.2266, 40.4664, -149.216, -74.4531, 86.094
6.56752, 60, -12.0118, -23.8159, 40.1722, -149.42, -74.7294, 86.6667
6.5756, 60, -11.8116, -23.3989, 39.8742, -149.623, -75.0143, 87.2361
6.58757, 60, -11.5147, -22.762, 39.4233, -149.922, -75.4568, 88.0805
6.59272, 60, -11.4169, -22.5472, 39.2719, -150.02, -75.6079, 88.3594
6.60348, 61, -11.1268, -21.897, 38.8164, -150.308, -76.0702, 89.1855
6.60761, 61, -11.0313, -21.6783, 38.6641, -150.401, -76.2267, 89.4566
6.61564, 61, -10.842, -21.2386, 38.3596, -150.584, -76.5427, 89.9913
6.62449, 61, -10.655, -20.7957, 38.0556, -150.762, -76.863, 90.5165
6.63148, 61, -10.4704, -20.3493, 37.7516, -150.935, -77.1867, 91.0319
6.63948, 62, -10.2884, -19.9, 37.4483, -151.103, -77.5145, 91.5383
6.64757, 62, -10.1093, -19.4475, 37.1445, -151.266, -77.8469, 92.0361
6.65549, 62, -9.93291, -18.9933, 36.8406, -151.424, -78.184, 92.5257
6.66372, 62, -9.75916, -18.5368, 36.5355, -151.578, -78.5264, 93.0086
6.67714, 62, -9.50304, -17.8491, 36.0778, -151.799, -79.049, 93.7182
6.67958, 63, -9.41877, -17.6193, 35.9252, -151.871, -79.2253, 93.9506
6.68758, 63, -9.25191, -17.1586, 35.6213, -152.01, -79.5806, 94.4076
6.69548, 63, -9.08741, -16.6965, 35.3191, -152.144, -79.9386, 94.8547
6.70349, 63, -8.92546, -16.2324, 35.018, -152.272, -80.2991, 95.2918
6.71188, 63, -8.7661, -15.7659, 34.7188, -152.395, -80.6616, 95.7178
6.72047, 63, -8.60925, -15.2973, 34.4209, -152.513, -81.0269, 96.1342
6.72769, 64, -8.45488, -14.8269, 34.1247, -152.625, -81.395, 96.54
6.73738, 64, -8.30292, -14.3553, 33.8286, -152.732, -81.767, 96.9361
6.74449, 64, -8.15307, -13.8833, 33.5329, -152.835, -82.1437, 97.3236
6.75154, 64, -8.00553, -13.4113, 33.2372, -152.933, -82.5245, 97.7006
6.75979, 65, -7.86045, -12.94, 32.9429, -153.026, -82.9087, 98.067
6.76866, 65, -7.71793, -12.4701, 32.6505, -153.114, -83.2949, 98.4218
6.77558, 65, -7.57829, -12.0014, 32.3611, -153.195, -83.6819, 98.7631
6.7841, 65, -7.44183, -11.5336, 32.0762, -153.271, -84.0683, 99.09
6.79637, 65, -7.24276, -10.8335, 31.6564, -153.373, -84.6458, 99.5534
6.79948, 65, -7.17786, -10.6009, 31.5188, -153.404, -84.8377, 99.7003
6.80832, 66, -7.04983, -10.1382, 31.2459, -153.462, -85.2204, 99.9828
6.81552, 66, -6.92383, -9.67923, 30.9768, -153.514, -85.6029, 100.25
6.82359, 66, -6.79991, -9.22552, 30.7116, -153.56, -85.9847, 100.501
6.83172, 66, -6.6781, -8.77822, 30.4497, -153.601, -86.3651, 100.737
6.84024, 66, -6.55854, -8.33698, 30.1925, -153.636, -86.7435, 100.956
6.84806, 67, -6.44159, -7.90205, 29.9403, -153.666, -87.1183, 101.158
6.85589, 67, -6.32771, -7.47314, 29.6944, -153.69, -87.4886, 101.341
6.86578, 67, -6.21672, -7.05022, 29.456, -153.708, -87.8531, 101.508
6.87202, 67, -6.10836, -6.63286, 29.2241, -153.72, -88.2119, 101.656
6.88007, 67, -6.00248, -6.22194, 28.9988, -153.727, -88.5648, 101.787
6.888, 68, -5.89878, -5.81768, 28.78, -153.73, -88.9132, 101.9
6.89843, 68, -5.79686, -5.41927, 28.5656, -153.729, -89.2581, 101.995
6.90465, 68, -5.69661, -5.02674, 28.3551, -153.723, -89.6007, 102.074
6.91209, 68, -5.59802, -4.63958, 28.1484, -153.712, -89.9422, 102.134
6.92333, 68, -5.50102, -4.25761, 27.9445, -153.697, -90.2827, 102.176
6.92745, 69, -5.45322, -4.06799, 27.8436, -153.688, -90.4527, 102.19
6.93548, 69, -5.35887, -3.69135, 27.6451, -153.666, -90.7925, 102.205
6.94349, 69, -5.2662, -3.31852, 27.4509, -153.639, -91.1317, 102.202
6.95148, 69, -5.17532, -2.94939, 27.2598, -153.608, -91.4703, 102.177
6.95953, 69, -5.08629, -2.58389, 27.0721, -153.574, -91.8078, 102.131
6.96763, 70, -4.99875, -2.22142, 26.8887, -153.536, -92.144, 102.063
6.97564, 70, -4.91248, -1.86322, 26.7091, -153.493, -92.4787, 101.974
6.98352, 70, -4.82747, -1.50971, 26.5327, -153.447, -92.8119, 101.862
6.9915, 70, -4.74349, -1.16177, 26.3604, -153.398, -93.143, 101.728
6.99965, 70, -4.66065, -0.818941, 26.1928, -153.346, -93.4719, 101.573
7.00743, 71, -4.5788, -0.482623, 26.0289, -153.29, -93.798, 101.395
7.01562, 71, -4.49794, -0.152588, 25.8691, -153.232, -94.1208, 101.197
7.02501, 71, -4.41824, 0.17043, 25.7146, -153.17, -94.4403, 100.86
7.03147, 71, -4.33939, 0.487038, 25.5655, -153.107, -94.7555, 100.738
7.04192, 71, -4.22261, 0.94998, 25.351, -153.008, -95.2214, 100.34
7.04772, 72, -4.18409, 1.10082, 25.2818, -152.974, -95.3748, 100.198
7.05547, 72, -4.10739, 1.39768, 25.1467, -152.905, -95.679, 99.8977
7.06449, 72, -4.03099, 1.68744, 25.0155, -152.834, -95.9797, 99.5778
7.07255, 72, -3.95485, 1.97099, 24.8877, -152.763, -96.2781, 99.2372
7.07951, 72, -3.87887, 2.24872, 24.763, -152.69, -96.5738, 98.876
7.08754, 72, -3.8029, 2.52001, 24.6415, -152.617, -96.8671, 98.4932
7.09559, 73, -3.7271, 2.7856, 24.523, -152.543, -97.158, 98.0881
7.10584, 73, -3.61289, 3.17231, 24.3514, -152.433, -97.5899, 97.4383
7.11154, 73, -3.57468, 3.29799, 24.2961, -152.396, -97.7325, 97.2104
7.1197, 73, -3.49801, 3.54482, 24.1881, -152.323, -98.0153, 96.7388
7.12858, 73, -3.42091, 3.78475, 24.0841, -152.251, -98.2947, 96.2461
7.13547, 74, -3.34318, 4.0164, 23.9841, -152.18, -98.5701, 95.734
7.14348, 74, -3.26479, 4.23988, 23.8879, -152.111, -98.8402, 95.2044
7.15154, 74, -3.18572, 4.4547, 23.7958, -152.043, -99.1047, 94.66
7.15948, 74, -3.10597, 4.65973, 23.708, -151.977, -99.3628, 94.1032
7.16762, 74, -3.0256, 4.85503, 23.6246, -151.914, -99.6135, 93.5346
7.17666, 75, -2.94433, 5.04087, 23.5456, -151.853, -99.8561, 92.9567
7.18347, 75, -2.86208, 5.21633, 23.4707, -151.796, -100.09, 92.3712
7.19544, 75, -2.73693, 5.4588, 23.3659, -151.714, -100.423, 91.4802
7.19969, 75, -2.69476, 5.5343, 23.3329, -151.689, -100.53, 91.1799
7.20773, 75, -2.60972, 5.67715, 23.2701, -151.64, -100.735, 90.5742
7.21547, 76, -2.5237, 5.80866, 23.2114, -151.595, -100.932, 89.9618
7.22354, 76, -2.43674, 5.92865, 23.1571, -151.553, -101.119, 89.3412
7.23149, 76, -2.34893, 6.03689, 23.1072, -151.516, -101.297, 88.7114
7.23965, 76, -2.26037, 6.13289, 23.0614, -151.483, -101.465, 88.0735
7.24778, 76, -2.17098, 6.21635, 23.0204, -151.452, -101.624, 87.429
7.25552, 77, -2.08078, 6.28689, 22.9843, -151.426, -101.771, 86.7786
7.26385, 77, -1.98968, 6.34438, 22.9535, -151.405, -101.906, 86.1266
7.27157, 77, -1.89762, 6.38847, 22.9283, -151.387, -102.027, 85.4761
7.27989, 77, -1.80469, 6.41842, 22.9088, -151.374, -102.134, 84.8279
7.28764, 77, -1.71089, 6.43435, 22.8952, -151.364, -102.226, 84.1832
7.29569, 78, -1.6163, 6.43588, 22.8874, -151.358, -102.303, 83.5434
7.30493, 78, -1.52099, 6.4223, 22.885, -151.354, -102.365, 82.9077
7.31155, 78, -1.42506, 6.39344, 22.8883, -151.354, -102.411, 82.2752
7.32148, 78, -1.32876, 6.34899, 22.8976, -151.357, -102.441, 81.6473
7.32777, 78, -1.23214, 6.2884, 22.9129, -151.363, -102.456, 81.0245
7.33669, 79, -1.13535, 6.21171, 22.935, -151.373, -102.455, 80.4072
7.34641, 79, -1.0384, 6.11885, 22.964, -151.386, -102.436, 79.7964
7.35178, 79, -0.941392, 6.00985, 23.0005, -151.402, -102.399, 79.1942
7.36062, 79, -0.844469, 5.88469, 23.0443, -151.421, -102.345, 78.6016
7.36782, 79, -0.747474, 5.74299, 23.0957, -151.442, -102.273, 78.0181
7.37596, 79, -0.65045, 5.58478, 23.1546, -151.467, -102.183, 77.4451
7.38481, 80, -0.553372, 5.40991, 23.2211, -151.493, -102.075, 76.8828
7.39197, 80, -0.45628, 5.21859, 23.2954, -151.52, -101.948, 76.3313
7.4012, 80, -0.359314, 5.01063, 23.3778, -151.55, -101.802, 75.7891
7.40857, 80, -0.262509, 4.78493, 23.4685, -151.581, -101.638, 75.2563
7.41608, 80, -0.165836, 4.54092, 23.5677, -151.614, -101.455, 74.7332
7.42505, 81, -0.0693275, 4.2801, 23.6757, -151.648, -101.252, 74.2201
7.43147, 81, -0.0211012, 4.14341, 23.7331, -151.665, -101.144, 73.9665
7.43946, 81, 0.0751323, 3.85696, 23.8548, -151.699, -100.912, 73.4665
7.44757, 81, 0.171197, 3.55411, 23.9861, -151.736, -100.662, 72.9761
7.45694, 81, 0.314857, 3.06722, 24.2015, -151.792, -100.25, 72.2584
7.46347, 82, 0.362638, 2.89648, 24.2783, -151.81, -100.103, 72.024
7.47292, 82, 0.50561, 2.35939, 24.5223, -151.866, -99.6332, 71.3348
7.47945, 82, 0.553138, 2.17252, 24.6083, -151.885, -99.4672, 71.1099
7.48745, 82, 0.648103, 1.78637, 24.7876, -151.923, -99.1222, 70.6673
7.49546, 82, 0.742918, 1.38387, 24.9765, -151.959, -98.7595, 70.235
7.50359, 83, 0.837678, 0.96525, 25.1743, -151.995, -98.3798, 69.8132
7.51144, 83, 0.932404, 0.53212, 25.3819, -152.031, -97.984, 69.4013
7.52105, 83, 1.07457, -0.144933, 25.7125, -152.082, -97.3608, 68.8035
7.53464, 83, 1.21686, -0.85433, 26.0624, -152.129, -96.703, 68.2278
7.5403, 83, 1.26437, -1.09801, 26.1841, -152.144, -96.4762, 68.0408
7.5434, 84, 1.3119, -1.34508, 26.3082, -152.159, -96.2455, 67.8563
7.55146, 84, 1.40714, -1.84939, 26.5635, -152.188, -95.7729, 67.4934
7.56048, 84, 1.50259, -2.36659, 26.8293, -152.215, -95.2852, 67.138
7.56748, 84, 1.59842, -2.89753, 27.1055, -152.241, -94.7816, 66.7902
7.57648, 84, 1.69461, -3.44205, 27.3919, -152.265, -94.2629, 66.4492
7.58384, 84, 1.79124, -3.99983, 27.6891, -152.287, -93.7293, 66.115
7.59244, 85, 1.88816, -4.57039, 27.996, -152.308, -93.1804, 65.7884
7.59953, 85, 1.98537, -5.15205, 28.3131, -152.327, -92.6169, 65.4697
7.61139, 85, 2.13186, -6.04379, 28.8059, -152.351, -91.7496, 65.0062
7.6156, 85, 2.18088, -6.34547, 28.9747, -152.358, -91.4553, 64.856
7.62445, 85, 2.27964, -6.9548, 29.3184, -152.369, -90.8588, 64.5629
7.63154, 86, 2.37897, -7.5715, 29.6703, -152.378, -90.2527, 64.2795
7.63966, 86, 2.4792, -8.19421, 30.0291, -152.383, -89.6377, 64.0065
7.64846, 86, 2.5805, -8.82318, 30.3944, -152.386, -89.0144, 63.7442
7.6555, 86, 2.68248, -9.45751, 30.765, -152.387, -88.387, 63.4936
7.66347, 86, 2.78562, -10.096, 31.1407, -152.385, -87.7553, 63.2544
7.67147, 87, 2.88977, -10.7383, 31.5222, -152.378, -87.1177, 63.0269
7.67951, 87, 2.99454, -11.3833, 31.9083, -152.368, -86.4749, 62.8116
7.68749, 87, 3.10047, -12.0312, 32.299, -152.355, -85.8272, 62.6086
7.69554, 87, 3.20717, -12.6809, 32.6941, -152.337, -85.1757, 62.4187
7.70345, 87, 3.31456, -13.333, 33.0943, -152.315, -84.5207, 62.2413
7.71147, 88, 3.4227, -13.9876, 33.4994, -152.29, -83.8605, 62.0771
7.71952, 88, 3.53143, -14.6448, 33.909, -152.26, -83.1954, 61.9261
7.72746, 88, 3.64077, -15.3039, 34.3237, -152.227, -82.5255, 61.7889
7.73759, 88, 3.75062, -15.9637, 34.743, -152.189, -81.8511, 61.6661
7.74359, 88, 3.86091, -16.6236, 35.1667, -152.146, -81.1742, 61.5584
7.75576, 89, 4.02681, -17.6115, 35.8091, -152.073, -80.1544, 61.4281
7.75953, 89, 4.08226, -17.9398, 36.0245, -152.046, -79.8136, 61.3934
7.76936, 89, 4.19326, -18.5939, 36.4561, -151.987, -79.1302, 61.3377
7.77572, 89, 4.30435, -19.2447, 36.8887, -151.925, -78.4458, 61.3015
7.78362, 89, 4.41548, -19.8905, 37.3205, -151.855, -77.7655, 61.2846
7.79159, 90, 4.5268, -20.5309, 37.7509, -151.782, -77.0886, 61.288
7.79952, 90, 4.63882, -21.1664, 38.1804, -151.702, -76.4139, 61.3159
7.80764, 90, 4.75107, -21.7965, 38.6081, -151.617, -75.7429, 61.3674
7.81551, 90, 4.86341, -22.4215, 39.0338, -151.526, -75.0762, 61.4427
7.8238, 90, 4.97567, -23.0417, 39.4584, -151.43, -74.4146, 61.5444
7.83266, 91, 5.08779, -23.6579, 39.8818, -151.327, -73.7555, 61.672
7.83961, 91, 5.19971, -24.2694, 40.3045, -151.219, -73.0968, 61.8277
7.84781, 91, 5.31098, -24.8748, 40.7272, -151.103, -72.4381, 62.0119
7.85664, 91, 5.42143, -25.4747, 41.1494, -150.98, -71.7779, 62.2256
7.86378, 91, 5.53106, -26.0679, 41.5712, -150.851, -71.1172, 62.4693
7.87311, 92, 5.64016, -26.6539, 41.9918, -150.716, -70.4584, 62.7445
7.8805, 92, 5.74937, -27.2324, 42.4105, -150.575, -69.8008, 63.0512
7.88799, 92, 5.85921, -27.8031, 42.8257, -150.428, -69.1456, 63.3889
7.89718, 92, 5.96968, -28.3651, 43.2357, -150.276, -68.494, 63.7579
7.90474, 92, 6.08086, -28.9171, 43.64, -150.12, -67.8468, 64.1584
7.91209, 92, 6.19339, -29.4582, 44.0379, -149.961, -67.2066, 64.5899
7.92004, 93, 6.25018, -29.9887, 44.429, -149.8, -66.5716, 65.0538
7.9292, 93, 6.42355, -30.5089, 44.8142, -149.636, -65.9404, 65.5493
7.93546, 93, 6.48247, -30.7657, 45.0047, -149.554, -65.6261, 65.8092
7.94344, 93, 6.60188, -31.2734, 45.3817, -149.39, -64.9995, 66.3551
7.95253, 93, 6.7852, -32.0238, 45.939, -149.142, -64.061, 67.2454
7.95945, 94, 6.84743, -32.2714, 46.1232, -149.058, -63.7473, 67.5633
7.96749, 94, 6.97368, -32.763, 46.4896, -148.892, -63.1154, 68.2352
7.97547, 94, 7.10193, -33.249, 46.8545, -148.725, -62.4772, 68.9593
7.98473, 94, 7.29857, -33.9636, 47.3977, -148.477, -61.508, 70.1445
7.9915, 94, 7.36571, -34.1981, 47.5769, -148.396, -61.1818, 70.5657
8.00154, 95, 7.57361, -34.8882, 48.1037, -148.164, -60.2041, 71.909
8.0075, 95, 7.64555, -35.1131, 48.2749, -148.091, -59.8797, 72.379
8.01544, 95, 7.79393, -35.5546, 48.6087, -147.956, -59.2352, 73.3495
8.02344, 95, 7.94883, -35.9825, 48.93, -147.834, -58.598, 74.3592
8.03157, 95, 8.11051, -36.3924, 49.236, -147.73, -57.9693, 75.4024
8.0394, 96, 8.27902, -36.7823, 49.5265, -147.643, -57.3513, 76.4791
8.04746, 96, 8.45438, -37.151, 49.8001, -147.576, -56.7479, 77.5855
8.0555, 96, 8.63556, -37.4966, 50.0568, -147.53, -56.1585, 78.7205
8.06449, 96, 8.82196, -37.8173, 50.2962, -147.504, -55.5841, 79.8774
8.07151, 96, 9.01297, -38.1123, 50.5162, -147.498, -55.0273, 81.0507
8.07945, 96, 9.20731, -38.3824, 50.7168, -147.513, -54.4907, 82.2351
8.08749, 97, 9.40326, -38.627, 50.8981, -147.551, -53.977, 83.4294
8.09544, 97, 9.59955, -38.8463, 51.0586, -147.61, -53.4883, 84.628
8.10344, 97, 9.79503, -39.0411, 51.1988, -147.688, -53.0263, 85.8202
8.11162, 97, 9.98909, -39.211, 51.3195, -147.783, -52.593, 86.9995
8.11944, 97, 10.1805, -39.3551, 51.4205, -147.894, -52.1898, 88.158
8.12746, 97, 10.3684, -39.4738, 51.5026, -148.017, -51.8172, 89.2901
8.1354, 98, 10.5526, -39.5673, 51.5662, -148.151, -51.4755, 90.3879
8.14347, 98, 10.7343, -39.6368, 51.612, -148.295, -51.1639, 91.4532
8.15158, 98, 10.9143, -39.6835, 51.6403, -148.448, -50.8803, 92.4931
8.15944, 98, 11.0927, -39.707, 51.6513, -148.612, -50.6209, 93.5226
8.16744, 98, 11.269, -39.7072, 51.6457, -148.789, -50.3824, 94.5556
8.17551, 98, 11.4441, -39.684, 51.6228, -148.979, -50.1625, 95.6026
8.18345, 98, 11.6196, -39.6368, 51.5822, -149.182, -49.9618, 96.6713
8.19149, 99, 11.7948, -39.5665, 51.5238, -149.399, -49.7815, 97.7607
8.19952, 99, 11.9685, -39.4735, 51.447, -149.627, -49.6244, 98.867
8.20744, 99, 12.1393, -39.3578, 51.3517, -149.864, -49.4937, 99.9785
8.21544, 99, 12.3065, -39.2199, 51.2384, -150.106, -49.3924, 101.085
8.22351, 99, 12.4683, -39.0597, 51.1076, -150.351, -49.3221, 102.175
8.23149, 99, 12.6228, -38.8772, 50.9609, -150.593, -49.2824, 103.24
8.23953, 100, 12.7687, -38.6708, 50.7986, -150.833, -49.2742, 104.274
8.24745, 100, 12.9058, -38.4402, 50.6197, -151.068, -49.2982, 105.28
8.25551, 100, 13.0339, -38.187, 50.4236, -151.297, -49.3536, 106.257
8.26359, 100, 13.1534, -37.9116, 50.2112, -151.52, -49.4401, 107.21
8.27189, 100, 13.2649, -37.6154, 49.9811, -151.737, -49.5578, 108.139
8.28046, 100, 13.3681, -37.2962, 49.7326, -151.948, -49.7062, 109.047
8.28761, 101, 13.4632, -36.9533, 49.4677, -152.151, -49.8848, 109.934
8.29554, 101, 13.5505, -36.5852, 49.1854, -152.345, -50.0932, 110.796
8.30351, 101, 13.6299, -36.1915, 48.8863, -152.53, -50.3311, 111.636
8.31223, 101, 13.7012, -35.773, 48.5695, -152.706, -50.599, 112.452
8.32909, 101, 13.8185, -34.8667, 47.8829, -153.027, -51.229, 114.019
8.33035, 101, 13.8185, -34.8667, 47.8829, -153.027, -51.229, 114.019
8.3355, 102, 13.8639, -34.3797, 47.514, -153.17, -51.5928, 114.767
8.3437, 102, 13.8998, -33.8692, 47.1281, -153.301, -51.9889, 115.493
8.35268, 102, 13.9262, -33.3342, 46.7262, -153.419, -52.4176, 116.194
8.36048, 102, 13.9433, -32.7757, 46.3096, -153.523, -52.8784, 116.868
8.36785, 102, 13.9519, -32.195, 45.8789, -153.614, -53.3692, 117.518
8.37584, 102, 13.9527, -31.5927, 45.4339, -153.691, -53.888, 118.142
8.38465, 103, 13.9464, -30.9708, 44.9753, -153.754, -54.4329, 118.739
8.39198, 103, 13.9336, -30.3313, 44.5045, -153.805, -55.0016, 119.312
8.39999, 103, 13.9152, -29.676, 44.0227, -153.842, -55.591, 119.86
8.40883, 103, 13.8913, -29.006, 43.5322, -153.867, -56.1995, 120.383
8.41607, 103, 13.8626, -28.3229, 43.0344, -153.88, -56.8247, 120.881
8.42405, 104, 13.8467, -27.9772, 42.7831, -153.885, -57.4628, 121.353
8.43281, 104, 13.8119, -27.2787, 42.278, -153.883, -58.1132, 121.801
8.44001, 104, 13.7731, -26.5728, 41.7699, -153.87, -58.4436, 122.017
8.44743, 104, 13.7309, -25.8602, 41.2596, -153.849, -59.1132, 122.434
8.45543, 104, 13.6863, -25.1436, 40.7486, -153.82, -59.7931, 122.832
8.46348, 104, 13.6397, -24.4245, 40.2376, -153.783, -60.4801, 123.214
8.47144, 104, 13.5916, -23.7039, 39.7274, -153.738, -61.1722, 123.584
8.47947, 104, 13.5418, -22.9816, 39.218, -153.689, -61.87, 123.945
8.48749, 104, 13.4913, -22.2587, 38.7098, -153.634, -62.5709, 124.301
8.49542, 104, 13.4402, -21.5352, 38.2035, -153.574, -63.2737, 124.653
8.50343, 104, 13.3885, -20.8119, 37.6986, -153.511, -63.9773, 125.003
8.51299, 104, 13.3106, -19.7272, 36.9437, -153.407, -65.034, 125.525
8.52108, 104, 13.2584, -19.0036, 36.4429, -153.332, -65.7404, 125.872
8.52743, 104, 13.2322, -18.6417, 36.1932, -153.294, -66.0939, 126.045
8.5355, 104, 13.1801, -17.9182, 35.6957, -153.214, -66.8016, 126.39
8.54515, 104, 13.1023, -16.8319, 34.9539, -153.086, -67.8636, 126.907
8.55142, 104, 13.0765, -16.4697, 34.7074, -153.041, -68.2172, 127.079
8.56095, 104, 13.0253, -15.7453, 34.2163, -152.95, -68.9259, 127.423
8.56742, 104, 12.9744, -15.0207, 33.7276, -152.853, -69.6362, 127.766
8.57643, 104, 12.9237, -14.2956, 33.241, -152.754, -70.3475, 128.11
8.58349, 104, 12.8734, -13.5702, 32.757, -152.65, -71.0579, 128.453
8.59145, 104, 12.8235, -12.8446, 32.2759, -152.543, -71.768, 128.797
8.60043, 104, 12.7738, -12.1191, 31.7974, -152.432, -72.48, 129.142
8.60747, 104, 12.7245, -11.394, 31.3213, -152.317, -73.1927, 129.486
8.61547, 104, 12.6757, -10.6688, 30.8476, -152.197, -73.9056, 129.832
8.62346, 104, 12.627, -9.94309, 30.377, -152.074, -74.6184, 130.178
8.63143, 104, 12.5787, -9.21761, 29.9094, -151.947, -75.3311, 130.525
8.63943, 104, 12.531, -8.49176, 29.4449, -151.816, -76.0452, 130.873
8.64751, 104, 12.4837, -7.76563, 28.9837, -151.681, -76.7598, 131.222
8.65544, 104, 12.437, -7.04005, 28.5257, -151.542, -77.4754, 131.572
8.66342, 104, 12.391, -6.31515, 28.0711, -151.398, -78.1902, 131.923
8.67155, 104, 12.3454, -5.59085, 27.62, -151.251, -78.9036, 132.276
8.67944, 104, 12.3004, -4.86723, 27.1726, -151.099, -79.6184, 132.629
8.68742, 104, 12.2563, -4.14494, 26.7294, -150.943, -80.3336, 132.984
8.69549, 104, 12.2133, -3.42539, 26.2914, -150.783, -81.0476, 133.339
8.70345, 104, 12.1713, -2.71105, 25.8585, -150.619, -81.7575, 133.695
8.71143, 104, 12.1307, -2.00275, 25.4317, -150.452, -82.4636, 134.052
8.71951, 104, 12.0912, -1.30175, 25.0124, -150.282, -83.1659, 134.407
8.72743, 104, 12.0526, -0.609491, 24.6016, -150.109, -83.8606, 134.76
8.73543, 104, 12.015, 0.0727706, 24.2006, -149.935, -84.5452, 135.11
8.74352, 104, 11.9784, 0.744204, 23.8103, -149.759, -85.2169, 135.456
8.75144, 104, 11.9429, 1.40309, 23.4324, -149.583, -85.874, 135.797
8.75952, 104, 11.9087, 2.0489, 23.0669, -149.407, -86.5176, 136.133
8.76758, 104, 11.8756, 2.67927, 22.714, -149.232, -87.1453, 136.462
8.77553, 104, 11.8434, 3.2935, 22.3735, -149.057, -87.757, 136.784
8.78353, 104, 11.8127, 3.89153, 22.0464, -148.883, -88.3527, 137.099
8.79184, 104, 11.7832, 4.47256, 21.7318, -148.711, -88.9301, 137.408
8.79955, 104, 11.7549, 5.03725, 21.4295, -148.539, -89.4906, 137.71
8.80791, 104, 11.728, 5.58486, 21.1384, -148.37, -90.0359, 138.005
8.81643, 104, 11.7022, 6.115, 20.8598, -148.203, -90.5647, 138.293
8.82399, 104, 11.6775, 6.62862, 20.5927, -148.038, -91.0774, 138.574
8.83248, 104, 11.654, 7.12535, 20.3371, -147.875, -91.5735, 138.847
8.83956, 104, 11.6317, 7.60508, 20.0932, -147.716, -92.052, 139.112
8.84759, 104, 11.6105, 8.06847, 19.8598, -147.558, -92.5138, 139.37
8.85562, 104, 11.5904, 8.51502, 19.6375, -147.405, -92.9592, 139.621
8.86399, 104, 11.5715, 8.94406, 19.4262, -147.255, -93.388, 139.863
8.87264, 104, 11.5537, 9.35599, 19.2249, -147.108, -93.7999, 140.097
8.87985, 104, 11.537, 9.75043, 19.0341, -146.966, -94.1947, 140.322
8.88797, 104, 11.5213, 10.1267, 18.8542, -146.828, -94.5721, 140.539
8.89658, 104, 11.5067, 10.4839, 18.6847, -146.695, -94.931, 140.746
8.90402, 104, 11.4932, 10.822, 18.5253, -146.568, -95.2711, 140.944
8.91248, 104, 11.4806, 11.1407, 18.3769, -146.446, -95.5915, 141.13
8.92003, 104, 11.4691, 11.4387, 18.2393, -146.331, -95.8917, 141.306
8.92816, 104, 11.4586, 11.7163, 18.1121, -146.223, -96.171, 141.47
8.936, 104, 11.4538, 11.8471, 18.0525, -146.172, -96.4289, 141.622
8.94345, 104, 11.4446, 12.0927, 17.9414, -146.075, -96.5498, 141.693
8.9525, 104, 11.4322, 12.4218, 17.7942, -145.944, -96.8793, 141.889
8.95942, 104, 11.4285, 12.5211, 17.7504, -145.905, -96.9781, 141.948
8.96742, 104, 11.4217, 12.7036, 17.6705, -145.832, -97.1593, 142.056
8.97549, 104, 11.4156, 12.865, 17.6007, -145.769, -97.3184, 142.151
8.98343, 104, 11.4101, 13.0064, 17.5407, -145.713, -97.4556, 142.233
8.99143, 104, 11.4051, 13.1286, 17.4902, -145.666, -97.5717, 142.303
8.99947, 104, 11.4005, 13.2322, 17.4486, -145.627, -97.667, 142.359
9.00752, 104, 11.3964, 13.3183, 17.4151, -145.596, -97.7437, 142.405
9.01543, 104, 11.3926, 13.3889, 17.3891, -145.572, -97.8027, 142.442
9.025, 104, 11.3876, 13.4699, 17.3623, -145.546, -97.8634, 142.478
9.03141, 104, 11.3862, 13.4909, 17.356, -145.54, -97.8776, 142.487
9.03943, 104, 11.3838, 13.5249, 17.3467, -145.531, -97.8991, 142.499
9.04929, 104, 11.381, 13.5604, 17.3386, -145.523, -97.9177, 142.51
9.05542, 104, 11.3802, 13.5689, 17.337, -145.522, -97.9212, 142.511
9.06341, 104, 11.379, 13.5816, 17.335, -145.52, -97.9256, 142.514
9.0715, 105, 11.3781, 13.5903, 17.334, -145.519, -97.9277, 142.515
9.08048, 105, 11.3775, 13.5961, 17.3335, -145.519, -97.9287, 142.515
9.08741, 105, 11.377, 13.5999, 17.3333, -145.519, -97.9292, 142.516
9.09643, 105, 11.3767, 13.6026, 17.3331, -145.519, -97.9295, 142.516
9.10341, 105, 11.3764, 13.6047, 17.3331, -145.518, -97.9295, 142.516
9.11141, 105, 11.3762, 13.6066, 17.3331, -145.518, -97.9296, 142.516
9.11948, 105, 11.376, 13.6082, 17.3331, -145.518, -97.9295, 142.516
9.12741, 105, 11.3759, 13.6096, 17.3331, -145.519, -97.9295, 142.516
9.13543, 105, 11.3758, 13.6108, 17.3331, -145.518, -97.9295, 142.516
9.14348, 105, 11.3757, 13.6118, 17.3331, -145.518, -97.9294, 142.516
9.15143, 105, 11.3757, 13.6127, 17.3331, -145.519, -97.9293, 142.516
9.15943, 105, 11.3757, 13.6133, 17.3331, -145.519, -97.9291, 142.516
9.16748, 105, 11.3756, 13.6137, 17.3332, -145.519, -97.929, 142.516
9.17542, 105, 11.3756, 13.614, 17.3332, -145.519, -97.9288, 142.516
9.18342, 105, 11.3756, 13.6142, 17.3332, -145.519, -97.9287, 142.516
9.19249, 105, 11.3756, 13.6142, 17.3333, -145.519, -97.9286, 142.516
