hehonglu123/Motion-Primitive-Planning/ILC/recorded_data/realrobot/wood/iteration_24/run_1.csv
timestamp, cmd_num, J1, J2, J3, J4, J5, J6
0.000359, -1, 11.3755, 13.6151, 17.3348, -145.521, -97.9263, 142.516
0.004591, -1, 11.3755, 13.615, 17.3348, -145.52, -97.9264, 142.516
0.008218, -1, 11.3755, 13.6151, 17.3348, -145.521, -97.9263, 142.516
0.028695, -1, 11.3754, 13.6151, 17.3348, -145.52, -97.9262, 142.516
0.032985, -1, 11.3754, 13.6151, 17.3348, -145.52, -97.9263, 142.516
0.035216, -1, 11.3754, 13.6151, 17.3348, -145.521, -97.9263, 142.516
0.039059, -1, 11.3754, 13.6151, 17.3348, -145.521, -97.9263, 142.516
0.047089, -1, 11.3754, 13.615, 17.3348, -145.521, -97.9263, 142.516
0.055092, -1, 11.3748, 13.615, 17.3348, -145.521, -97.9262, 142.516
0.06314, -1, 11.3721, 13.6148, 17.3347, -145.521, -97.9263, 142.516
0.071153, -1, 11.3656, 13.6141, 17.3345, -145.521, -97.9263, 142.515
0.079086, -1, 11.3544, 13.6124, 17.334, -145.521, -97.9262, 142.514
0.087109, -1, 11.3369, 13.609, 17.3333, -145.523, -97.926, 142.507
0.09523, -1, 11.3099, 13.603, 17.3325, -145.526, -97.9252, 142.486
0.103451, -1, 11.2715, 13.5939, 17.3319, -145.533, -97.9234, 142.446
0.111168, -1, 11.2213, 13.5815, 17.332, -145.545, -97.9199, 142.381
0.119246, -1, 11.1595, 13.5661, 17.3337, -145.562, -97.9144, 142.286
0.128588, -1, 11.0862, 13.5471, 17.3377, -145.585, -97.9066, 142.155
0.135208, -1, 11.0009, 13.524, 17.3441, -145.614, -97.8964, 141.99
0.14326, -1, 10.904, 13.4977, 17.3527, -145.648, -97.8842, 141.792
0.152611, -1, 10.7964, 13.468, 17.3631, -145.687, -97.8705, 141.566
0.159115, -1, 10.678, 13.4352, 17.3744, -145.729, -97.8556, 141.319
0.167225, -1, 10.5489, 13.3995, 17.3856, -145.774, -97.8401, 141.059
0.176844, -1, 10.4108, 13.3615, 17.3963, -145.819, -97.8243, 140.789
0.184081, -1, 10.2659, 13.3219, 17.4065, -145.867, -97.8081, 140.514
0.191662, -1, 10.1165, 13.2815, 17.4165, -145.914, -97.7914, 140.237
0.201006, -1, 9.96403, 13.2404, 17.4266, -145.962, -97.7745, 139.959
0.208116, -1, 9.80929, 13.199, 17.4366, -146.01, -97.7572, 139.68
0.215584, -1, 9.65375, 13.1575, 17.4467, -146.058, -97.74, 139.4
0.225134, -1, 9.49854, 13.1163, 17.4567, -146.105, -97.723, 139.121
0.231713, -1, 9.34374, 13.0751, 17.4665, -146.154, -97.7061, 138.841
0.240257, -1, 9.18932, 13.0339, 17.4765, -146.202, -97.6894, 138.561
0.248567, -1, 9.03539, 12.9929, 17.4866, -146.249, -97.6727, 138.282
0.256242, -1, 8.88166, 12.9518, 17.4967, -146.298, -97.6558, 138.002
0.263592, -1, 8.80481, 12.9313, 17.5019, -146.322, -97.6473, 137.862
0.272829, -1, 8.57506, 12.8696, 17.517, -146.393, -97.6212, 137.442
0.281059, -1, 8.42235, 12.8283, 17.5271, -146.442, -97.6037, 137.161
0.287053, -1, 8.34593, 12.8077, 17.5322, -146.466, -97.595, 137.021
0.296916, -1, 8.11599, 12.7453, 17.5475, -146.537, -97.5694, 136.601
0.304372, -1, 7.96204, 12.7037, 17.5577, -146.585, -97.5526, 136.321
0.311053, -1, 7.88483, 12.6829, 17.5628, -146.609, -97.5443, 136.181
0.32117, -1, 7.65264, 12.6203, 17.578, -146.681, -97.5193, 135.76
0.328533, -1, 7.49771, 12.5786, 17.5882, -146.729, -97.5024, 135.48
0.335056, -1, 7.4202, 12.5578, 17.5933, -146.753, -97.4939, 135.34
0.344686, -1, 7.18765, 12.4955, 17.6086, -146.825, -97.4679, 134.919
0.48326, -1, 4.55211, 11.7897, 17.7846, -147.643, -97.1776, 130.146
0.484466, -1, 4.55211, 11.7897, 17.7846, -147.643, -97.1776, 130.146
0.486484, -1, 4.47425, 11.7689, 17.7898, -147.667, -97.1688, 130.006
0.487677, -1, 4.47425, 11.7689, 17.7898, -147.667, -97.1688, 130.006
0.489622, -1, 4.39646, 11.7482, 17.795, -147.691, -97.1601, 129.866
0.491886, -1, 4.39646, 11.7482, 17.795, -147.691, -97.1601, 129.866
0.493709, -1, 4.31874, 11.7274, 17.8002, -147.716, -97.1515, 129.725
0.497933, -1, 4.24105, 11.7067, 17.8054, -147.74, -97.143, 129.585
0.499334, -1, 4.24105, 11.7067, 17.8054, -147.74, -97.143, 129.585
0.500607, -1, 4.24105, 11.7067, 17.8054, -147.74, -97.143, 129.585
0.503334, -1, 4.16343, 11.6859, 17.8106, -147.764, -97.1345, 129.444
0.504607, -1, 4.16343, 11.6859, 17.8106, -147.764, -97.1345, 129.444
0.506696, -1, 4.08592, 11.6652, 17.8158, -147.788, -97.126, 129.303
0.507917, -1, 4.08592, 11.6652, 17.8158, -147.788, -97.126, 129.303
0.509827, -1, 4.00855, 11.6445, 17.821, -147.812, -97.1175, 129.163
0.514577, -1, 3.93126, 11.6237, 17.8261, -147.836, -97.1091, 129.022
0.516703, -1, 3.93126, 11.6237, 17.8261, -147.836, -97.1091, 129.022
0.519014, -1, 3.85403, 11.603, 17.8313, -147.86, -97.1007, 128.882
0.520223, -1, 3.85403, 11.603, 17.8313, -147.86, -97.1007, 128.882
0.522119, -1, 3.77683, 11.5822, 17.8365, -147.885, -97.0923, 128.741
0.523458, -1, 3.77683, 11.5822, 17.8365, -147.885, -97.0923, 128.741
0.524819, -1, 3.77683, 11.5822, 17.8365, -147.885, -97.0923, 128.741
0.52909, -1, 3.69963, 11.5614, 17.8417, -147.909, -97.0839, 128.6
0.536121, -1, 3.54519, 11.5198, 17.852, -147.957, -97.0668, 128.319
0.543052, -1, 3.39056, 11.4781, 17.8624, -148.006, -97.0495, 128.038
0.552061, -1, 3.23562, 11.4364, 17.8729, -148.054, -97.0319, 127.756
0.560123, -1, 3.08055, 11.3946, 17.8833, -148.102, -97.0143, 127.475
0.567111, -1, 2.92528, 11.3528, 17.8937, -148.15, -96.997, 127.193
0.575202, -1, 2.76969, 11.311, 17.904, -148.199, -96.9801, 126.911
0.583066, -1, 2.61384, 11.2693, 17.9144, -148.246, -96.9632, 126.629
0.591116, -1, 2.45771, 11.2275, 17.9249, -148.295, -96.9465, 126.348
0.599275, -1, 2.30131, 11.1858, 17.9352, -148.343, -96.9297, 126.065
0.607156, -1, 2.14465, 11.144, 17.9456, -148.391, -96.9126, 125.784
0.615172, -1, 1.98788, 11.1022, 17.956, -148.44, -96.8952, 125.502
0.623564, -1, 1.83128, 11.0606, 17.9664, -148.488, -96.8777, 125.22
0.631168, -1, 1.67482, 11.0189, 17.9769, -148.536, -96.8603, 124.938
0.774215, -1, -1.05487, 10.2872, 18.1594, -149.385, -96.5604, 119.993
0.776132, -1, -1.1335, 10.2663, 18.1645, -149.409, -96.5519, 119.852
0.777545, -1, -1.1335, 10.2663, 18.1645, -149.409, -96.5519, 119.852
0.778923, -1, -1.1335, 10.2663, 18.1645, -149.409, -96.5519, 119.852
0.783045, -1, -1.21211, 10.2454, 18.1697, -149.434, -96.5435, 119.71
0.785125, -1, -1.29064, 10.2244, 18.1749, -149.458, -96.5351, 119.568
0.786489, -1, -1.29064, 10.2244, 18.1749, -149.458, -96.5351, 119.568
0.789171, -1, -1.36908, 10.2035, 18.18, -149.482, -96.5267, 119.427
0.790438, -1, -1.36908, 10.2035, 18.18, -149.482, -96.5267, 119.427
0.792501, -1, -1.4475, 10.1826, 18.1852, -149.507, -96.5183, 119.285
0.793706, -1, -1.4475, 10.1826, 18.1852, -149.507, -96.5183, 119.285
0.795006, -1, -1.4475, 10.1826, 18.1852, -149.507, -96.5183, 119.285
0.79703, -1, -1.52586, 10.1617, 18.1905, -149.531, -96.5099, 119.143
0.798304, -1, -1.52586, 10.1617, 18.1905, -149.531, -96.5099, 119.143
0.800335, -1, -1.60408, 10.1408, 18.1958, -149.555, -96.5014, 119.002
0.801792, -1, -1.60408, 10.1408, 18.1958, -149.555, -96.5014, 119.002
0.803052, -1, -1.60408, 10.1408, 18.1958, -149.555, -96.5014, 119.002
0.806533, -1, -1.68217, 10.1198, 18.201, -149.58, -96.493, 118.86
0.80884, -1, -1.76017, 10.0989, 18.2063, -149.604, -96.4844, 118.718
0.810095, -1, -1.76017, 10.0989, 18.2063, -149.604, -96.4844, 118.718
0.811307, -1, -1.76017, 10.0989, 18.2063, -149.604, -96.4844, 118.718
0.813355, -1, -1.83808, 10.078, 18.2115, -149.628, -96.4758, 118.577
0.817001, -1, -1.91589, 10.057, 18.2167, -149.652, -96.4671, 118.435
0.824391, -1, -2.07121, 10.0151, 18.2272, -149.701, -96.4494, 118.151
0.831054, -1, -2.14877, 9.99413, 18.2324, -149.726, -96.4406, 118.01
0.840512, -1, -2.38159, 9.93131, 18.248, -149.798, -96.4145, 117.584
0.847033, -1, -2.45934, 9.91032, 18.2532, -149.822, -96.4059, 117.442
0.856937, -1, -2.69298, 9.84743, 18.2688, -149.896, -96.3806, 117.017
0.864595, -1, -2.84921, 9.80548, 18.2793, -149.944, -96.3638, 116.733
0.872656, -1, -3.00586, 9.76349, 18.2896, -149.993, -96.3469, 116.45
0.880697, -1, -3.16284, 9.72154, 18.3, -150.042, -96.3297, 116.166
0.888576, -1, -3.24147, 9.70056, 18.3052, -150.066, -96.321, 115.882
0.896672, -1, -3.39912, 9.65855, 18.3157, -150.114, -96.2946, 115.598
0.904044, -1, -3.55694, 9.61656, 18.3262, -150.163, -96.2858, 115.456
0.912075, -1, -3.71474, 9.57474, 18.3366, -150.212, -96.2685, 115.172
0.920104, -1, -3.87272, 9.53278, 18.347, -150.26, -96.2514, 114.887
0.928048, -1, -4.03066, 9.49078, 18.3574, -150.309, -96.2344, 114.603
0.936037, -1, -4.18845, 9.44887, 18.3678, -150.358, -96.2174, 114.319
0.944089, -1, -4.34621, 9.40689, 18.3781, -150.407, -96.2004, 114.035
0.952043, -1, -4.5037, 9.36489, 18.3885, -150.456, -96.1829, 113.75
0.960072, -1, -4.66066, 9.32286, 18.3989, -150.505, -96.1653, 113.465
0.968093, -1, -4.81728, 9.2808, 18.4093, -150.553, -96.1476, 113.181
0.976041, -1, -4.9736, 9.23868, 18.4198, -150.602, -96.13, 112.896
0.984114, -1, -5.12958, 9.19667, 18.4304, -150.651, -96.1128, 112.611
0.992104, -1, -5.28542, 9.15457, 18.4409, -150.699, -96.0958, 112.326
1.00008, -1, -5.4414, 9.11239, 18.4515, -150.749, -96.0789, 112.042
1.00809, -1, -5.59758, 9.07026, 18.4619, -150.797, -96.062, 111.757
1.01611, -1, -5.75406, 9.02814, 18.4723, -150.846, -96.0448, 111.472
1.02405, -1, -5.91101, 8.98592, 18.4828, -150.895, -96.0274, 111.187
1.0321, -1, -6.06844, 8.94377, 18.4931, -150.944, -96.0097, 110.902
1.04006, -1, -6.22642, 8.90162, 18.5035, -150.993, -95.9922, 110.617
1.04782, -1, -6.38473, 8.85945, 18.5139, -151.042, -95.9749, 110.331
1.05611, -1, -6.54315, 8.81735, 18.5243, -151.091, -95.9579, 110.046
1.06404, -1, -6.70169, 8.77518, 18.5349, -151.14, -95.9408, 109.761
1.07207, -1, -6.8604, 8.73301, 18.5454, -151.189, -95.9238, 109.475
1.08013, -1, -7.01895, 8.69093, 18.5559, -151.238, -95.9067, 109.19
1.08731, -1, -7.1775, 8.64879, 18.5663, -151.287, -95.8892, 108.904
1.09591, -1, -7.33586, 8.6066, 18.5767, -151.336, -95.8715, 108.618
1.10404, -1, -7.49387, 8.56427, 18.5872, -151.385, -95.8538, 108.333
1.11141, -1, -7.6515, 8.52195, 18.5977, -151.434, -95.8363, 108.047
1.12001, -1, -7.80879, 8.47966, 18.6082, -151.483, -95.819, 107.761
1.12803, -1, -7.96573, 8.43736, 18.6186, -151.532, -95.8019, 107.476
1.13604, -1, -8.12237, 8.39498, 18.629, -151.581, -95.785, 107.19
1.14455, -1, -8.27894, 8.35264, 18.6395, -151.63, -95.768, 106.904
1.15105, -1, -8.4356, 8.31025, 18.65, -151.679, -95.7508, 106.618
1.15993, -1, -8.59264, 8.26786, 18.6606, -151.728, -95.7333, 106.332
1.16884, -1, -8.75004, 8.22559, 18.6711, -151.777, -95.7156, 106.045
1.17608, -1, -8.90771, 8.18325, 18.6814, -151.826, -95.698, 105.759
1.18402, -1, -9.06582, 8.1409, 18.6919, -151.875, -95.6807, 105.473
1.19282, -1, -9.22436, 8.09864, 18.7024, -151.925, -95.6635, 105.186
1.20006, -1, -9.38325, 8.05631, 18.7128, -151.973, -95.6464, 104.899
1.20821, -1, -9.54235, 8.01397, 18.7233, -152.023, -95.6293, 104.612
1.21553, -1, -9.70147, 7.97174, 18.7338, -152.072, -95.612, 104.326
1.22356, -1, -9.86081, 7.92947, 18.7443, -152.121, -95.5944, 104.039
1.2324, -1, -10.0202, 7.8871, 18.755, -152.171, -95.5766, 103.751
1.23967, -1, -10.1794, 7.84467, 18.7656, -152.22, -95.5587, 103.465
1.24817, -1, -10.3385, 7.80219, 18.7762, -152.269, -95.5412, 103.178
1.25647, -1, -10.418, 7.75969, 18.7867, -152.319, -95.524, 102.891
1.26364, -1, -10.5767, 7.73845, 18.7919, -152.343, -95.5069, 102.604
1.27162, -1, -10.735, 7.69598, 18.8024, -152.392, -95.4984, 102.317
1.28088, -1, -10.9718, 7.63211, 18.8181, -152.466, -95.4728, 102.03
1.28895, -1, -11.1294, 7.5896, 18.8285, -152.516, -95.4554, 101.742
1.29609, -1, -11.2868, 7.54713, 18.8391, -152.565, -95.4377, 101.455
1.30302, -1, -11.3655, 7.5259, 18.8443, -152.589, -95.4288, 101.311
1.31111, -1, -11.523, 7.48338, 18.8548, -152.639, -95.411, 101.024
1.31907, -1, -11.6806, 7.44093, 18.8654, -152.688, -95.3935, 100.736
1.3293, -1, -11.918, 7.37727, 18.8813, -152.762, -95.3676, 100.304
1.33508, -1, -11.9973, 7.35606, 18.8866, -152.787, -95.359, 100.16
1.34461, -1, -12.2359, 7.29248, 18.9024, -152.861, -95.3331, 99.7286
1.35337, -1, -12.3955, 7.25005, 18.9128, -152.911, -95.3157, 99.4404
1.35914, -1, -12.4755, 7.22883, 18.9181, -152.935, -95.3069, 99.2965
1.36702, -1, -12.6354, 7.18645, 18.9287, -152.984, -95.2889, 99.0087
1.37661, -1, -12.8755, 7.12273, 18.9445, -153.059, -95.2621, 98.5768
1.38542, -1, -12.9555, 7.10144, 18.9551, -153.108, -95.2445, 98.2888
1.39101, -1, -13.1155, 7.05885, 18.9603, -153.133, -95.2359, 98.1448
1.40112, -1, -13.3553, 6.99493, 18.9762, -153.207, -95.2101, 97.7126
1.40714, -1, -13.4351, 6.9736, 18.9815, -153.232, -95.2015, 97.5685
1.41611, -1, -13.5944, 6.93083, 18.9921, -153.281, -95.1844, 97.2797
1.42402, -1, -13.7535, 6.88808, 19.0027, -153.331, -95.167, 96.9911
1.43203, -1, -13.9123, 6.84538, 19.0132, -153.38, -95.1493, 96.7027
1.43906, -1, -14.0706, 6.80263, 19.0236, -153.429, -95.1315, 96.4141
1.44702, -1, -14.2288, 6.75997, 19.0342, -153.479, -95.1138, 96.1251
1.45603, -1, -14.387, 6.71728, 19.0447, -153.528, -95.0963, 95.8359
1.46301, -1, -14.5453, 6.67456, 19.0552, -153.578, -95.079, 95.5471
1.47102, -1, -14.704, 6.63201, 19.0658, -153.628, -95.0618, 95.2579
1.48004, -1, -14.863, 6.58946, 19.0764, -153.677, -95.0446, 94.9684
1.48701, -1, -15.0223, 6.54675, 19.0871, -153.726, -95.0272, 94.6793
1.49602, -1, -15.182, 6.50418, 19.0979, -153.776, -95.0094, 94.3903
1.50302, -1, -15.3422, 6.46157, 19.1085, -153.826, -94.9914, 94.1012
1.51102, -1, -15.5027, 6.41884, 19.1192, -153.875, -94.9735, 93.8118
1.52004, -1, -15.6634, 6.37616, 19.1298, -153.925, -94.9558, 93.5226
1.52906, -1, -15.8241, 6.33342, 19.1404, -153.975, -94.9385, 93.2333
1.53503, -1, -15.9849, 6.2905, 19.1511, -154.024, -94.9213, 92.9436
1.54402, -1, -16.1458, 6.24765, 19.1617, -154.074, -94.9042, 92.6537
1.55208, -1, -16.3065, 6.20472, 19.1723, -154.124, -94.8868, 92.3643
1.56005, -1, -16.467, 6.16168, 19.1828, -154.173, -94.8693, 92.0747
1.56803, -1, -16.6274, 6.11869, 19.1933, -154.223, -94.8515, 91.7845
1.57609, -1, -16.7872, 6.07575, 19.204, -154.273, -94.8336, 91.4944
1.58406, -1, -16.9466, 6.03275, 19.2147, -154.322, -94.8159, 91.2043
1.59123, -1, -17.106, 5.98978, 19.2253, -154.373, -94.7984, 90.9141
1.59915, -1, -17.2651, 5.94682, 19.2359, -154.422, -94.7811, 90.6237
1.60724, -1, -17.4242, 5.90398, 19.2465, -154.472, -94.7638, 90.3333
1.61514, -1, -17.5835, 5.86116, 19.2573, -154.522, -94.7464, 90.0432
1.62312, -1, -17.7428, 5.81836, 19.268, -154.571, -94.7288, 89.753
1.6312, -1, -17.9024, 5.7756, 19.2787, -154.621, -94.7108, 89.4625
1.63918, -1, -18.0625, 5.73281, 19.2893, -154.671, -94.6927, 89.1721
1.64706, -1, -18.2229, 5.69003, 19.2999, -154.721, -94.6748, 88.8817
1.65534, -1, -18.3839, 5.64721, 19.3107, -154.771, -94.6572, 88.5907
1.66305, -1, -18.5452, 5.60428, 19.3214, -154.821, -94.6398, 88.2996
1.67108, -1, -18.7068, 5.56129, 19.3321, -154.871, -94.6226, 88.0089
1.67955, -1, -18.8684, 5.51832, 19.3427, -154.921, -94.6053, 87.718
1.68809, -1, -19.0301, 5.47528, 19.3533, -154.971, -94.5878, 87.4267
1.69524, -1, -19.1917, 5.43209, 19.3639, -155.02, -94.5699, 87.1351
1.70343, -1, -19.3532, 5.38898, 19.3745, -155.071, -94.5518, 86.8439
1.71138, -1, -19.5144, 5.34582, 19.3851, -155.12, -94.5337, 86.5523
1.7195, -1, -19.6754, 5.30258, 19.3958, -155.17, -94.516, 86.2605
1.72818, -1, -19.8361, 5.25944, 19.4064, -155.221, -94.4985, 85.9687
1.73557, -1, -19.9966, 5.21627, 19.4171, -155.27, -94.481, 85.6771
1.74412, -1, -20.1566, 5.17314, 19.428, -155.32, -94.4636, 85.3857
1.75244, -1, -20.3163, 5.13021, 19.4388, -155.371, -94.4461, 85.0939
1.7596, -1, -20.3962, 5.10875, 19.4496, -155.42, -94.4282, 84.802
1.76809, -1, -20.6363, 5.04411, 19.4603, -155.471, -94.4101, 84.5103
1.77502, -1, -20.7164, 5.02265, 19.4657, -155.496, -94.401, 84.3643
1.78412, -1, -20.9573, 4.95821, 19.4817, -155.571, -94.3743, 83.926
1.79106, -1, -21.0379, 4.93665, 19.4871, -155.596, -94.3656, 83.7799
1.80102, -1, -21.2798, 4.87207, 19.503, -155.672, -94.3396, 83.3421
1.80815, -1, -21.4418, 4.82885, 19.5137, -155.722, -94.3224, 83.0499
1.81508, -1, -21.5228, 4.8072, 19.519, -155.747, -94.3138, 82.9035
1.82525, -1, -21.7662, 4.74236, 19.5352, -155.822, -94.2874, 82.4647
1.83105, -1, -21.8474, 4.72069, 19.5405, -155.847, -94.2785, 82.3185
1.84056, -1, -22.0911, 4.65556, 19.5567, -155.923, -94.2514, 81.8794
1.84946, -1, -22.2536, 4.61225, 19.5674, -155.973, -94.2336, 81.5865
1.85506, -1, -22.3348, 4.59054, 19.5727, -155.998, -94.2248, 81.4402
1.86457, -1, -22.5781, 4.5254, 19.5888, -156.073, -94.1985, 81.0012
1.87354, -1, -22.7398, 4.48197, 19.5994, -156.123, -94.1811, 80.7083
1.87907, -1, -22.8205, 4.46025, 19.6048, -156.148, -94.1723, 80.5618
1.88863, -1, -22.9817, 4.39524, 19.6209, -156.224, -94.1457, 80.1223
1.89739, -1, -23.1429, 4.37359, 19.6262, -156.249, -94.1366, 79.9758
1.90309, -1, -23.3038, 4.33026, 19.6369, -156.299, -94.1183, 79.6824
1.91305, -1, -23.5451, 4.26538, 19.6532, -156.375, -94.0911, 79.2421
1.91901, -1, -23.6256, 4.24374, 19.6587, -156.4, -94.0822, 79.0955
1.92909, -1, -23.8673, 4.17883, 19.6748, -156.476, -94.0557, 78.6553
1.93501, -1, -23.9479, 4.15717, 19.6801, -156.501, -94.047, 78.5085
1.94402, -1, -24.1096, 4.11375, 19.6908, -156.551, -94.0296, 78.2146
1.95101, -1, -24.2718, 4.07037, 19.7016, -156.602, -94.012, 77.9207
1.96008, -1, -24.4344, 4.02695, 19.7123, -156.652, -93.9942, 77.6267
1.96802, -1, -24.5974, 3.98342, 19.7229, -156.702, -93.9761, 77.3325
1.9761, -1, -24.7606, 3.93985, 19.7336, -156.753, -93.958, 77.0382
1.98401, -1, -24.924, 3.89625, 19.7444, -156.804, -93.9402, 76.7444
1.99201, -1, -25.0875, 3.85266, 19.7553, -156.854, -93.9225, 76.4502
1.999, -1, -25.2507, 3.80904, 19.7661, -156.904, -93.9051, 76.1558
2.007, -1, -25.4139, 3.7654, 19.777, -156.955, -93.8876, 75.8614
2.01608, -1, -25.5768, 3.72171, 19.7878, -157.005, -93.8699, 75.5672
2.02407, -1, -25.7395, 3.67807, 19.7985, -157.055, -93.8519, 75.2726
2.03304, -1, -25.9019, 3.63453, 19.8093, -157.106, -93.8336, 74.9779
2.04008, -1, -26.0641, 3.59092, 19.8201, -157.156, -93.8152, 74.6832
2.04907, -1, -26.2259, 3.54744, 19.8309, -157.207, -93.7971, 74.3887
2.05602, -1, -26.3874, 3.50404, 19.8417, -157.258, -93.7793, 74.0939
2.06402, -1, -26.5491, 3.46051, 19.8524, -157.308, -93.7616, 73.7986
2.07203, -1, -26.7109, 3.41697, 19.8633, -157.359, -93.744, 73.5035
2.08006, -1, -26.8732, 3.37347, 19.8742, -157.41, -93.7263, 73.2082
2.08936, -1, -27.0358, 3.32983, 19.885, -157.46, -93.7084, 72.9128
2.09601, -1, -27.1987, 3.28619, 19.8959, -157.511, -93.6901, 72.6173
2.10407, -1, -27.3619, 3.24257, 19.9066, -157.561, -93.6718, 72.3221
2.11208, -1, -27.5256, 3.19878, 19.9174, -157.612, -93.6538, 72.0267
2.11918, -1, -27.6895, 3.15503, 19.9282, -157.663, -93.6359, 71.731
2.12712, -1, -27.8535, 3.11141, 19.939, -157.713, -93.6181, 71.4352
2.13513, -1, -28.0177, 3.06765, 19.9498, -157.764, -93.6005, 71.1397
2.14319, -1, -28.182, 3.0239, 19.9606, -157.815, -93.5827, 70.8439
2.15104, -1, -28.3463, 2.98017, 19.9714, -157.865, -93.5646, 70.5478
2.15903, -1, -28.5103, 2.93638, 19.9824, -157.916, -93.5462, 70.2518
2.16712, -1, -28.6741, 2.8927, 19.9933, -157.967, -93.5278, 69.9559
2.17506, -1, -28.8376, 2.84898, 20.0041, -158.017, -93.5095, 69.6598
2.1832, -1, -29.0006, 2.80526, 20.0148, -158.069, -93.4916, 69.3634
2.1913, -1, -29.1634, 2.76161, 20.0256, -158.12, -93.4739, 69.0669
2.19925, -1, -29.326, 2.71791, 20.0364, -158.17, -93.4562, 68.7703
2.20735, -1, -29.4887, 2.67421, 20.0472, -158.221, -93.4385, 68.4735
2.21548, -1, -29.6515, 2.63042, 20.0581, -158.272, -93.4205, 68.1765
2.22344, -1, -29.8145, 2.5866, 20.0689, -158.323, -93.4022, 67.8799
2.23211, -1, -29.9776, 2.54283, 20.0798, -158.374, -93.3838, 67.5833
2.23996, -1, -30.141, 2.49891, 20.0908, -158.425, -93.3655, 67.2862
2.24817, -1, -30.3048, 2.45491, 20.1018, -158.476, -93.3476, 66.9891
2.25559, -1, -30.4691, 2.41097, 20.1127, -158.527, -93.3298, 66.6921
2.26411, -1, -30.6339, 2.36693, 20.1235, -158.578, -93.312, 66.395
2.2722, -1, -30.7989, 2.32297, 20.1343, -158.629, -93.2942, 66.0974
2.27899, -1, -30.8814, 2.30102, 20.1398, -158.654, -93.2852, 65.9487
2.28804, -1, -31.1291, 2.23492, 20.1561, -158.731, -93.2577, 65.5029
2.29498, -1, -31.2117, 2.21291, 20.1615, -158.756, -93.2485, 65.3542
2.30419, -1, -31.4591, 2.1471, 20.1778, -158.833, -93.2209, 64.9077
2.31099, -1, -31.5414, 2.12508, 20.1832, -158.859, -93.2118, 64.7587
2.32026, -1, -31.7883, 2.05903, 20.1995, -158.935, -93.1852, 64.312
2.32705, -1, -31.8704, 2.03707, 20.205, -158.961, -93.1764, 64.163
2.33644, -1, -32.1165, 1.97105, 20.2215, -159.038, -93.15, 63.7156
2.34299, -1, -32.1983, 1.94904, 20.227, -159.063, -93.1411, 63.5667
2.35253, -1, -32.4436, 1.88303, 20.2432, -159.14, -93.1138, 63.1199
2.36079, -1, -32.6073, 1.83888, 20.2542, -159.191, -93.0954, 62.8215
2.36937, -1, -32.7711, 1.7948, 20.2651, -159.243, -93.0772, 62.5232
2.37505, -1, -32.8531, 1.77276, 20.2706, -159.268, -93.0682, 62.3741
2.38464, -1, -33.0994, 1.70644, 20.2869, -159.345, -93.0413, 61.9265
2.39342, -1, -33.1817, 1.68434, 20.2924, -159.396, -93.0235, 61.6277
2.39905, -1, -33.3465, 1.64019, 20.3033, -159.422, -93.0146, 61.4784
2.40856, -1, -33.5118, 1.59596, 20.3143, -159.473, -92.9966, 61.18
2.41599, -1, -33.6774, 1.55171, 20.3253, -159.524, -92.9784, 60.8814
2.42404, -1, -33.8432, 1.50752, 20.3362, -159.575, -92.9597, 60.5822
2.43207, -1, -34.0091, 1.46331, 20.347, -159.627, -92.9411, 60.283
2.44005, -1, -34.175, 1.41916, 20.3579, -159.678, -92.9227, 59.9838
2.44706, -1, -34.3411, 1.37499, 20.3689, -159.729, -92.9047, 59.6843
2.45605, -1, -34.5071, 1.33077, 20.3798, -159.781, -92.8869, 59.3845
2.464, -1, -34.6728, 1.28658, 20.3907, -159.833, -92.8691, 59.0852
2.47202, -1, -34.8381, 1.24237, 20.4017, -159.884, -92.8512, 58.7858
2.4801, -1, -35.0032, 1.19815, 20.4127, -159.935, -92.8329, 58.4861
2.48799, -1, -35.168, 1.15385, 20.4238, -159.987, -92.8144, 58.1862
2.49599, -1, -35.3325, 1.10952, 20.4348, -160.038, -92.7958, 57.8865
2.50406, -1, -35.4965, 1.06538, 20.446, -160.09, -92.7775, 57.5869
2.51201, -1, -35.6587, 1.02157, 20.4572, -160.141, -92.7595, 57.2869
2.5201, -1, -35.8182, 0.97837, 20.4687, -160.192, -92.7416, 56.9884
2.52808, -1, -35.9737, 0.936289, 20.4806, -160.242, -92.7239, 56.6932
2.53599, -1, -36.1239, 0.895816, 20.4925, -160.292, -92.7063, 56.4041
2.54499, -1, -36.2666, 0.857597, 20.5044, -160.339, -92.6892, 56.1253
2.55207, -1, -36.3996, 0.82231, 20.516, -160.384, -92.6727, 55.863
2.56005, -1, -36.5213, 0.790062, 20.5267, -160.425, -92.6576, 55.6234
2.56707, -1, -36.6302, 0.761237, 20.536, -160.46, -92.6443, 55.4123
2.57608, -1, -36.7247, 0.736198, 20.5432, -160.49, -92.6334, 55.2344
2.58399, -1, -36.8046, 0.714981, 20.5483, -160.514, -92.6247, 55.0917
2.59204, -1, -36.8708, 0.697541, 20.5512, -160.533, -92.6183, 54.9837
2.60011, -1, -36.9239, 0.683555, 20.5525, -160.547, -92.6139, 54.9075
2.60799, -1, -36.9642, 0.672737, 20.5529, -160.555, -92.611, 54.8561
2.61525, -1, -36.9937, 0.665004, 20.5526, -160.561, -92.6092, 54.8248
2.62308, -1, -37.0139, 0.659986, 20.5522, -160.564, -92.6084, 54.8069
2.63109, -1, -37.0262, 0.656978, 20.5519, -160.566, -92.6079, 54.7979
2.63915, 2, -37.0326, 0.655383, 20.5518, -160.567, -92.6077, 54.7937
2.64706, 2, -37.0347, 0.654691, 20.5517, -160.567, -92.6075, 54.7918
2.65502, 2, -37.0345, 0.654381, 20.5516, -160.567, -92.6075, 54.7909
2.66308, 2, -37.0339, 0.654258, 20.5516, -160.568, -92.6075, 54.7905
2.67111, 2, -37.0336, 0.654207, 20.5516, -160.568, -92.6076, 54.7904
2.67908, 2, -37.034, 0.654153, 20.5516, -160.568, -92.6075, 54.7903
2.6872, 2, -37.035, 0.654097, 20.5515, -160.568, -92.6076, 54.7903
2.6953, 2, -37.036, 0.653993, 20.5514, -160.568, -92.6076, 54.7903
2.70344, 2, -37.0375, 0.653767, 20.5512, -160.568, -92.6076, 54.7903
2.71137, 2, -37.0389, 0.65351, 20.551, -160.568, -92.6076, 54.7904
2.71937, 2, -37.0401, 0.653259, 20.5509, -160.568, -92.6076, 54.7905
2.72805, 2, -37.0411, 0.653032, 20.5507, -160.568, -92.6077, 54.7906
2.73576, 2, -37.0415, 0.652928, 20.5505, -160.568, -92.6077, 54.7906
2.74417, 2, -37.0416, 0.652849, 20.5503, -160.568, -92.6078, 54.7908
2.7518, 2, -37.0411, 0.65285, 20.5502, -160.568, -92.6078, 54.7909
2.76018, 2, -37.0402, 0.652886, 20.5501, -160.568, -92.6079, 54.7911
2.76758, 2, -37.0398, 0.652929, 20.5501, -160.568, -92.6079, 54.7913
2.776, 2, -37.0378, 0.653038, 20.55, -160.568, -92.608, 54.7915
2.78303, 2, -37.037, 0.653076, 20.5499, -160.568, -92.608, 54.7916
2.79221, 2, -37.0352, 0.653155, 20.5498, -160.568, -92.608, 54.7918
2.79986, 2, -37.0349, 0.653166, 20.5498, -160.568, -92.608, 54.7919
2.80811, 2, -37.0344, 0.653146, 20.5497, -160.568, -92.608, 54.792
2.81497, 2, -37.0344, 0.653124, 20.5497, -160.568, -92.608, 54.792
2.82447, 2, -37.0347, 0.653032, 20.5497, -160.568, -92.608, 54.7921
2.83228, 2, -37.0349, 0.652958, 20.5496, -160.568, -92.6081, 54.7921
2.83897, 2, -37.0352, 0.652938, 20.5496, -160.568, -92.6081, 54.7921
2.84883, 2, -37.0362, 0.652909, 20.5496, -160.568, -92.6081, 54.7921
2.85649, 2, -37.0369, 0.652902, 20.5496, -160.567, -92.6081, 54.7922
2.86455, 2, -37.0376, 0.652899, 20.5496, -160.567, -92.6081, 54.7922
2.87295, 2, -37.0381, 0.652915, 20.5496, -160.567, -92.6081, 54.7922
2.88056, 2, -37.0382, 0.652965, 20.5496, -160.567, -92.6081, 54.7922
2.88875, 2, -37.0383, 0.653007, 20.5495, -160.567, -92.6081, 54.7923
2.89684, 2, -37.0383, 0.653034, 20.5496, -160.567, -92.6081, 54.7924
2.90398, 2, -37.0381, 0.653037, 20.5496, -160.567, -92.6081, 54.7924
2.91257, 2, -37.0377, 0.65304, 20.5496, -160.567, -92.6081, 54.7925
2.92096, 2, -37.0372, 0.653011, 20.5495, -160.567, -92.6081, 54.7926
2.92801, 2, -37.0371, 0.653011, 20.5495, -160.567, -92.6081, 54.7926
2.93605, 2, -37.037, 0.653002, 20.5495, -160.567, -92.6081, 54.7926
2.94398, 2, -37.0369, 0.652963, 20.5495, -160.567, -92.6081, 54.7927
2.95199, 2, -37.0369, 0.652945, 20.5495, -160.567, -92.6081, 54.7927
2.96009, 2, -37.0369, 0.652926, 20.5495, -160.567, -92.6082, 54.7928
2.96798, 2, -37.037, 0.65292, 20.5495, -160.567, -92.6082, 54.7928
2.97598, 2, -37.0371, 0.652933, 20.5494, -160.567, -92.6083, 54.7928
2.98403, 2, -37.0372, 0.652942, 20.5494, -160.567, -92.6082, 54.7929
2.99196, 2, -37.0374, 0.652973, 20.5494, -160.567, -92.6082, 54.7929
3.00005, 2, -37.0375, 0.652993, 20.5494, -160.567, -92.6082, 54.793
3.00804, 2, -37.0375, 0.653001, 20.5494, -160.567, -92.6082, 54.7931
3.01598, 2, -37.0376, 0.653005, 20.5494, -160.567, -92.6082, 54.7931
3.02403, 2, -37.0376, 0.653018, 20.5494, -160.567, -92.6083, 54.7932
3.033, 2, -37.0376, 0.652989, 20.5494, -160.567, -92.6082, 54.7933
3.04003, 2, -37.0376, 0.652975, 20.5494, -160.567, -92.6081, 54.7933
3.04798, 2, -37.0376, 0.652981, 20.5494, -160.567, -92.6082, 54.7933
3.05604, 2, -37.0375, 0.652961, 20.5494, -160.567, -92.6083, 54.7933
3.06399, 2, -37.0375, 0.652955, 20.5494, -160.567, -92.6083, 54.7934
3.072, 2, -37.0375, 0.652941, 20.5494, -160.567, -92.6084, 54.7934
3.08011, 2, -37.0375, 0.652961, 20.5493, -160.567, -92.6083, 54.7934
3.08798, 2, -37.0375, 0.652975, 20.5493, -160.567, -92.6083, 54.7934
3.09601, 2, -37.0375, 0.652993, 20.5493, -160.567, -92.6083, 54.7935
3.10404, 2, -37.0375, 0.653002, 20.5493, -160.567, -92.6083, 54.7936
3.11199, 2, -37.0375, 0.652998, 20.5493, -160.567, -92.6083, 54.7936
3.12003, 2, -37.0375, 0.653028, 20.5493, -160.567, -92.6083, 54.7937
3.12805, 2, -37.0375, 0.653025, 20.5493, -160.567, -92.6084, 54.7937
3.13597, 2, -37.0375, 0.653004, 20.5493, -160.567, -92.6084, 54.7937
3.14397, 2, -37.0375, 0.652995, 20.5493, -160.567, -92.6084, 54.7938
3.15206, 2, -37.0374, 0.652983, 20.5493, -160.567, -92.6084, 54.7939
3.16003, 2, -37.0374, 0.65298, 20.5493, -160.567, -92.6084, 54.7939
3.16798, 2, -37.0374, 0.652976, 20.5492, -160.567, -92.6084, 54.7939
3.17604, 2, -37.0374, 0.652969, 20.5492, -160.567, -92.6084, 54.7939
3.18398, 2, -37.0374, 0.652966, 20.5492, -160.567, -92.6084, 54.794
3.19204, 2, -37.0374, 0.652965, 20.5492, -160.567, -92.6084, 54.7939
3.2001, 2, -37.0374, 0.652964, 20.5492, -160.567, -92.6084, 54.794
3.20724, 2, -37.0374, 0.652976, 20.5492, -160.567, -92.6084, 54.794
3.21544, 2, -37.0374, 0.652989, 20.5492, -160.567, -92.6084, 54.7941
3.22345, 2, -37.0374, 0.652987, 20.5492, -160.567, -92.6084, 54.7941
3.23207, 2, -37.0374, 0.652992, 20.5492, -160.567, -92.6084, 54.7942
3.23963, 2, -37.0373, 0.652996, 20.5492, -160.567, -92.6084, 54.7943
3.24825, 2, -37.0373, 0.652991, 20.5492, -160.567, -92.6084, 54.7943
3.25558, 2, -37.0373, 0.652993, 20.5492, -160.567, -92.6084, 54.7944
3.26411, 2, -37.0373, 0.652997, 20.5491, -160.567, -92.6084, 54.7944
3.27216, 2, -37.0373, 0.652996, 20.5491, -160.567, -92.6084, 54.7944
3.27894, 2, -37.0373, 0.652993, 20.5491, -160.567, -92.6084, 54.7944
3.288, 2, -37.0372, 0.652996, 20.5491, -160.567, -92.6084, 54.7944
3.29608, 2, -37.0372, 0.653003, 20.5491, -160.567, -92.6084, 54.7944
3.30296, 2, -37.0372, 0.653005, 20.5491, -160.567, -92.6085, 54.7944
3.31216, 2, -37.0372, 0.653008, 20.5491, -160.567, -92.6084, 54.7945
3.31896, 2, -37.0372, 0.653008, 20.5491, -160.567, -92.6084, 54.7945
3.32821, 2, -37.0372, 0.653027, 20.5491, -160.567, -92.6084, 54.7945
3.33501, 2, -37.0372, 0.653032, 20.5491, -160.567, -92.6084, 54.7945
3.34442, 2, -37.0371, 0.653021, 20.5491, -160.567, -92.6085, 54.7946
3.35095, 2, -37.0371, 0.653017, 20.5491, -160.567, -92.6084, 54.7946
3.3607, 2, -37.0371, 0.653012, 20.549, -160.567, -92.6084, 54.7946
3.36857, 2, -37.0371, 0.653003, 20.549, -160.567, -92.6085, 54.7947
3.3765, 2, -37.0371, 0.652994, 20.549, -160.567, -92.6085, 54.7947
3.38462, 2, -37.0371, 0.652985, 20.549, -160.567, -92.6085, 54.7947
3.39265, 2, -37.037, 0.652986, 20.549, -160.567, -92.6085, 54.7947
3.40058, 2, -37.037, 0.652993, 20.549, -160.567, -92.6085, 54.7947
3.40796, 2, -37.037, 0.652989, 20.549, -160.567, -92.6085, 54.7947
3.41603, 2, -37.037, 0.653, 20.5489, -160.567, -92.6085, 54.7947
3.42396, 2, -37.037, 0.653023, 20.5489, -160.567, -92.6085, 54.7947
3.43203, 2, -37.037, 0.653034, 20.5489, -160.567, -92.6085, 54.7947
3.44007, 2, -37.037, 0.65302, 20.5489, -160.567, -92.6085, 54.7948
3.44807, 2, -37.037, 0.653033, 20.5489, -160.567, -92.6085, 54.7948
3.45597, 2, -37.037, 0.653038, 20.5489, -160.567, -92.6085, 54.7949
3.46401, 2, -37.0369, 0.653033, 20.5489, -160.566, -92.6085, 54.7949
3.47198, 2, -37.0369, 0.653028, 20.5489, -160.566, -92.6085, 54.7949
3.48003, 2, -37.0369, 0.653017, 20.5489, -160.566, -92.6085, 54.7949
3.48802, 2, -37.0369, 0.653006, 20.5489, -160.566, -92.6085, 54.7949
3.49596, 2, -37.0369, 0.65299, 20.5489, -160.566, -92.6085, 54.7949
3.50397, 2, -37.0369, 0.652988, 20.5489, -160.566, -92.6085, 54.7949
3.51205, 2, -37.0369, 0.652999, 20.5489, -160.566, -92.6085, 54.795
3.52002, 2, -37.0369, 0.653005, 20.5488, -160.566, -92.6086, 54.795
3.52801, 2, -37.0369, 0.653025, 20.5488, -160.566, -92.6086, 54.795
3.537, 2, -37.0368, 0.653035, 20.5488, -160.566, -92.6086, 54.795
3.54396, 2, -37.0368, 0.65305, 20.5488, -160.566, -92.6085, 54.795
3.55198, 2, -37.0368, 0.653065, 20.5488, -160.566, -92.6085, 54.795
3.56009, 2, -37.0368, 0.653053, 20.5488, -160.566, -92.6085, 54.795
3.56797, 2, -37.0368, 0.653036, 20.5488, -160.566, -92.6085, 54.795
3.57597, 2, -37.0368, 0.653022, 20.5488, -160.566, -92.6085, 54.795
3.58405, 2, -37.0367, 0.653026, 20.5488, -160.566, -92.6085, 54.795
3.59198, 2, -37.0367, 0.653024, 20.5488, -160.566, -92.6085, 54.7951
3.60007, 2, -37.0367, 0.653016, 20.5488, -160.566, -92.6086, 54.7951
3.60802, 2, -37.0367, 0.653012, 20.5487, -160.566, -92.6086, 54.7951
3.61596, 2, -37.0367, 0.65301, 20.5487, -160.566, -92.6086, 54.7951
3.62397, 2, -37.0367, 0.653028, 20.5487, -160.566, -92.6086, 54.7951
3.63205, 2, -37.0367, 0.653036, 20.5487, -160.566, -92.6086, 54.7951
3.64018, 2, -37.0366, 0.653021, 20.5487, -160.566, -92.6085, 54.7951
3.64796, 2, -37.0366, 0.653044, 20.5487, -160.566, -92.6085, 54.7951
3.65495, 2, -37.0366, 0.653062, 20.5487, -160.566, -92.6086, 54.7951
3.66301, 2, -37.0367, 0.653041, 20.5487, -160.566, -92.6086, 54.7951
3.67105, 2, -37.0367, 0.653034, 20.5487, -160.566, -92.6086, 54.7951
3.67939, 2, -37.0366, 0.653046, 20.5487, -160.566, -92.6086, 54.7951
3.68796, 2, -37.0366, 0.653045, 20.5487, -160.566, -92.6086, 54.7951
3.69601, 2, -37.0366, 0.653036, 20.5487, -160.566, -92.6086, 54.7951
3.704, 4, -37.0366, 0.653047, 20.5486, -160.566, -92.6086, 54.7951
3.71198, 4, -37.0366, 0.653025, 20.5486, -160.566, -92.6086, 54.7951
3.72002, 4, -37.0366, 0.653042, 20.5486, -160.566, -92.6085, 54.7951
3.72812, 4, -37.0365, 0.653043, 20.5486, -160.566, -92.6086, 54.7951
3.73546, 4, -37.0365, 0.653054, 20.5486, -160.566, -92.6086, 54.7951
3.74352, 4, -37.0365, 0.653066, 20.5486, -160.566, -92.6086, 54.7951
3.75215, 4, -37.0365, 0.653061, 20.5486, -160.566, -92.6086, 54.7951
3.75976, 4, -37.0365, 0.653062, 20.5486, -160.566, -92.6087, 54.7951
3.7681, 4, -37.0365, 0.653059, 20.5486, -160.566, -92.6086, 54.7952
3.77613, 4, -37.0364, 0.65305, 20.5486, -160.566, -92.6087, 54.7951
3.78294, 4, -37.0364, 0.653048, 20.5486, -160.566, -92.6087, 54.7951
3.79201, 4, -37.0364, 0.653026, 20.5486, -160.566, -92.6087, 54.7952
3.80011, 4, -37.0364, 0.653028, 20.5485, -160.566, -92.6087, 54.7952
3.8071, 4, -37.0364, 0.653033, 20.5485, -160.566, -92.6087, 54.7951
3.83044, 4, -37.0363, 0.653047, 20.5485, -160.566, -92.6087, 54.7952
3.83315, 4, -37.0364, 0.653057, 20.5485, -160.566, -92.6087, 54.7952
3.83491, 4, -37.0364, 0.653057, 20.5485, -160.566, -92.6087, 54.7952
3.84065, 4, -37.0364, 0.653049, 20.5485, -160.566, -92.6087, 54.7952
3.84842, 4, -37.0363, 0.653053, 20.5485, -160.566, -92.6087, 54.7952
3.85655, 4, -37.0356, 0.652907, 20.5485, -160.566, -92.6087, 54.7952
3.86448, 4, -37.033, 0.651978, 20.5486, -160.566, -92.6087, 54.7951
3.87332, 4, -37.0272, 0.649145, 20.5495, -160.566, -92.6087, 54.7951
3.88145, 4, -37.0177, 0.643252, 20.552, -160.566, -92.6087, 54.7952
3.88698, 4, -37.0115, 0.638946, 20.5542, -160.566, -92.6087, 54.7952
3.89883, 4, -36.986, 0.619976, 20.5671, -160.563, -92.6087, 54.7952
3.90488, 5, -36.962, 0.601682, 20.5825, -160.56, -92.6087, 54.7952
3.91193, 5, -36.948, 0.590907, 20.5927, -160.558, -92.6086, 54.7952
3.92004, 5, -36.9164, 0.565905, 20.618, -160.553, -92.6083, 54.7951
3.928, 5, -36.8801, 0.536426, 20.6503, -160.546, -92.6077, 54.7951
3.93598, 5, -36.8388, 0.502426, 20.6889, -160.538, -92.6067, 54.7951
3.94395, 5, -36.7924, 0.463602, 20.7329, -160.528, -92.6054, 54.795
3.95734, 5, -36.7132, 0.397501, 20.833, -160.505, -92.6021, 54.7949
3.95896, 5, -36.6845, 0.373699, 20.833, -160.505, -92.6021, 54.7949
3.96796, 5, -36.6242, 0.324142, 20.8868, -160.493, -92.6002, 54.795
3.97746, 5, -36.5602, 0.272476, 20.9695, -160.475, -92.5974, 54.795
3.98423, 5, -36.4936, 0.219443, 20.9972, -160.469, -92.5965, 54.795
3.99355, 5, -36.3916, 0.138884, 21.0806, -160.45, -92.5935, 54.795
4.00229, 5, -36.3229, 0.0849217, 21.1362, -160.438, -92.5915, 54.795
4.008, 5, -36.2885, 0.0579418, 21.1639, -160.432, -92.5906, 54.795
4.01595, 5, -36.2196, 0.00407308, 21.2195, -160.42, -92.5885, 54.7951
4.02411, 5, -36.1508, -0.0496011, 21.2751, -160.408, -92.5865, 54.7952
4.03189, 5, -36.0822, -0.103051, 21.3305, -160.396, -92.5845, 54.7953
4.04005, 5, -36.0136, -0.156279, 21.3859, -160.383, -92.5824, 54.7956
4.04802, 5, -35.945, -0.209299, 21.4413, -160.37, -92.5803, 54.7959
4.05703, 5, -35.8764, -0.262176, 21.4965, -160.357, -92.5782, 54.7964
4.06395, 5, -35.8077, -0.314911, 21.5517, -160.344, -92.5761, 54.7971
4.07308, 5, -35.7387, -0.367666, 21.6068, -160.332, -92.5739, 54.7981
4.07907, 5, -35.6696, -0.420412, 21.6617, -160.319, -92.5718, 54.7993
4.08797, 5, -35.6001, -0.473196, 21.7164, -160.307, -92.5698, 54.8004
4.09948, 5, -35.4954, -0.552423, 21.7981, -160.288, -92.5665, 54.8026
4.10412, 5, -35.4604, -0.578831, 21.8252, -160.282, -92.5654, 54.8033
4.11272, 5, -35.3901, -0.631666, 21.8794, -160.269, -92.5632, 54.805
4.11903, 5, -35.3197, -0.68442, 21.9335, -160.256, -92.5611, 54.8068
4.12721, 5, -35.2492, -0.737134, 21.9875, -160.243, -92.5589, 54.8088
4.13595, 5, -35.1787, -0.789539, 22.0413, -160.229, -92.5567, 54.8109
4.14401, 5, -35.1081, -0.841812, 22.0951, -160.216, -92.5545, 54.8131
4.15214, 5, -35.0375, -0.893975, 22.1487, -160.203, -92.5522, 54.8154
4.16032, 5, -34.9669, -0.945797, 22.2023, -160.19, -92.5499, 54.8178
4.16704, 5, -34.8965, -0.997463, 22.2556, -160.177, -92.5476, 54.8203
4.17534, 5, -34.826, -1.04894, 22.309, -160.164, -92.5454, 54.823
4.18467, 5, -34.7555, -1.10045, 22.3621, -160.151, -92.5431, 54.8257
4.19197, 5, -34.6848, -1.15191, 22.415, -160.138, -92.5407, 54.8286
4.20005, 5, -34.6139, -1.20323, 22.4678, -160.125, -92.5384, 54.8316
4.20801, 5, -34.5429, -1.25468, 22.5203, -160.112, -92.5361, 54.8347
4.21595, 5, -34.4717, -1.30608, 22.5728, -160.099, -92.5337, 54.8379
4.22552, 5, -34.4004, -1.35743, 22.6251, -160.085, -92.5313, 54.8413
4.23376, 5, -34.3288, -1.4088, 22.6772, -160.071, -92.5289, 54.8447
4.24192, 5, -34.2572, -1.46007, 22.7292, -160.057, -92.5265, 54.8482
4.24803, 5, -34.1853, -1.51114, 22.7811, -160.044, -92.5242, 54.852
4.2565, 5, -34.1133, -1.56194, 22.8329, -160.03, -92.5217, 54.8558
4.26358, 5, -34.0412, -1.61264, 22.8845, -160.017, -92.5193, 54.8596
4.27209, 5, -33.9691, -1.66308, 22.9361, -160.003, -92.5169, 54.8637
4.28034, 5, -33.8969, -1.7133, 22.9875, -159.99, -92.5145, 54.8678
4.28795, 5, -33.8248, -1.76339, 23.0387, -159.976, -92.5121, 54.8718
4.295, 5, -33.7887, -1.78842, 23.0643, -159.969, -92.511, 54.8739
4.30437, 5, -33.6803, -1.86333, 23.1407, -159.948, -92.5075, 54.8803
4.31293, 5, -33.6079, -1.91317, 23.1914, -159.933, -92.5051, 54.8847
4.32013, 5, -33.5353, -1.96325, 23.242, -159.919, -92.5028, 54.8891
4.32694, 5, -33.4989, -1.98837, 23.2673, -159.912, -92.5017, 54.8911
4.33719, 5, -33.3896, -2.06415, 23.3429, -159.891, -92.4982, 54.8962
4.34298, 5, -33.3532, -2.08958, 23.3681, -159.884, -92.4971, 54.8973
4.35277, 6, -33.2443, -2.16658, 23.4437, -159.863, -92.4935, 54.898
4.36127, 6, -33.1722, -2.21892, 23.4943, -159.848, -92.4909, 54.8961
4.36694, 6, -33.1363, -2.24542, 23.5198, -159.841, -92.4894, 54.894
4.37659, 6, -33.0292, -2.3263, 23.5974, -159.816, -92.4835, 54.8793
4.38538, 7, -32.9584, -2.38159, 23.6505, -159.798, -92.478, 54.8642
4.39092, 7, -32.9232, -2.40967, 23.6775, -159.788, -92.4746, 54.8555
4.40155, 7, -32.8184, -2.4962, 23.7606, -159.758, -92.4614, 54.8278
4.40944, 7, -32.7837, -2.5558, 23.8179, -159.737, -92.45, 54.8095
4.41492, 7, -32.7149, -2.58626, 23.8471, -159.725, -92.4435, 54.8007
4.42397, 8, -32.6467, -2.64835, 23.9066, -159.702, -92.429, 54.7835
4.43097, 8, -32.5794, -2.71217, 23.9673, -159.677, -92.4126, 54.7665
4.44202, 8, -32.4797, -2.81118, 24.0605, -159.637, -92.3843, 54.7397
4.45036, 8, -32.4142, -2.87915, 24.124, -159.609, -92.3634, 54.7202
4.45614, 8, -32.3816, -2.91366, 24.156, -159.595, -92.3525, 54.7099
4.46392, 9, -32.317, -2.98374, 24.2209, -159.567, -92.33, 54.688
4.47092, 9, -32.253, -3.0551, 24.2868, -159.537, -92.3064, 54.6643
4.4801, 9, -32.1894, -3.12777, 24.3537, -159.505, -92.2814, 54.6389
4.4872, 9, -32.1265, -3.20168, 24.4216, -159.473, -92.2547, 54.6123
4.49492, 9, -32.0642, -3.27697, 24.4905, -159.441, -92.2262, 54.5844
4.50394, 10, -32.0024, -3.3535, 24.5603, -159.407, -92.1965, 54.555
4.51195, 10, -31.9412, -3.43143, 24.6312, -159.372, -92.1657, 54.5236
4.52, 10, -31.8807, -3.51083, 24.7032, -159.336, -92.1337, 54.4902
4.52809, 10, -31.8206, -3.59158, 24.7762, -159.3, -92.0997, 54.4552
4.5349, 10, -31.7612, -3.67381, 24.8503, -159.262, -92.064, 54.4191
4.54393, 11, -31.7022, -3.75748, 24.9253, -159.223, -92.0277, 54.3817
4.55292, 11, -31.6438, -3.84267, 25.0012, -159.184, -91.9903, 54.3427
4.56001, 11, -31.5859, -3.92933, 25.0781, -159.144, -91.9508, 54.3015
4.56897, 11, -31.5285, -4.01744, 25.1559, -159.103, -91.9098, 54.2588
4.57607, 11, -31.4717, -4.10698, 25.2348, -159.06, -91.8681, 54.2151
4.58403, 12, -31.4154, -4.19804, 25.3148, -159.017, -91.8248, 54.17
4.59196, 12, -31.3595, -4.2905, 25.3958, -158.973, -91.7794, 54.1225
4.6012, 12, -31.3042, -4.38433, 25.4779, -158.927, -91.7334, 54.0736
4.60731, 12, -31.2495, -4.47949, 25.5611, -158.881, -91.6862, 54.0237
4.616, 12, -31.1952, -4.57606, 25.6452, -158.835, -91.6367, 53.9722
4.62468, 13, -31.1415, -4.67407, 25.7303, -158.786, -91.5868, 53.9187
4.63196, 13, -31.0883, -4.77347, 25.8163, -158.738, -91.5351, 53.8642
4.64, 13, -31.0355, -4.87433, 25.9034, -158.688, -91.4815, 53.8085
4.64739, 13, -30.9833, -4.97675, 25.9914, -158.637, -91.4276, 53.7507
4.65607, 13, -30.9317, -5.08058, 26.0807, -158.586, -91.3717, 53.6915
4.66388, 14, -30.8805, -5.18582, 26.171, -158.533, -91.3144, 53.6314
4.67202, 14, -30.83, -5.29259, 26.2624, -158.479, -91.2567, 53.5692
4.68016, 14, -30.7801, -5.40078, 26.3547, -158.426, -91.1964, 53.5058
4.68814, 14, -30.7306, -5.51047, 26.4478, -158.371, -91.136, 53.4417
4.69513, 14, -30.6816, -5.62173, 26.5419, -158.314, -91.0733, 53.375
4.70314, 14, -30.6331, -5.73442, 26.6371, -158.258, -91.0095, 53.3072
4.71196, 15, -30.5851, -5.84847, 26.7334, -158.199, -90.9444, 53.2386
4.71992, 15, -30.5376, -5.96376, 26.8311, -158.141, -90.8775, 53.1675
4.72819, 15, -30.4907, -6.0805, 26.9297, -158.081, -90.8103, 53.0959
4.73635, 15, -30.4441, -6.19874, 27.0292, -158.02, -90.7406, 53.0223
4.74343, 15, -30.3982, -6.31825, 27.1295, -157.959, -90.6704, 52.9468
4.75214, 16, -30.3527, -6.43941, 27.2308, -157.896, -90.5981, 52.8706
4.75956, 16, -30.3078, -6.56204, 27.3333, -157.833, -90.5253, 52.7919
4.7681, 16, -30.2634, -6.68607, 27.437, -157.768, -90.4506, 52.7127
4.77646, 16, -30.2194, -6.81157, 27.5418, -157.704, -90.375, 52.6316
4.7849, 16, -30.1759, -6.93862, 27.6475, -157.637, -90.2977, 52.5493
4.79199, 17, -30.1329, -7.06732, 27.7541, -157.571, -90.2194, 52.4659
4.80231, 17, -30.0904, -7.19756, 27.8615, -157.503, -90.1396, 52.381
4.80704, 17, -30.0694, -7.26321, 27.9156, -157.468, -90.0992, 52.3385
4.81489, 17, -30.0276, -7.39551, 28.0246, -157.399, -90.0172, 52.2514
4.82427, 17, -29.966, -7.59637, 28.1905, -157.294, -89.8921, 52.119
4.83088, 18, -29.9457, -7.66407, 28.2464, -157.258, -89.8498, 52.0739
4.84025, 18, -29.8856, -7.86926, 28.4153, -157.15, -89.7206, 51.9375
4.84697, 18, -29.8658, -7.9384, 28.4719, -157.114, -89.6773, 51.891
4.85672, 18, -29.807, -8.14755, 28.6435, -157.002, -89.5446, 51.7503
4.86443, 18, -29.7685, -8.28865, 28.7593, -156.927, -89.4544, 51.6545
4.87277, 19, -29.7303, -8.43115, 28.8763, -156.851, -89.3634, 51.5581
4.8809, 19, -29.6927, -8.57533, 28.9945, -156.774, -89.2707, 51.46
4.88848, 19, -29.6555, -8.72099, 29.1134, -156.697, -89.1768, 51.3611
4.89651, 19, -29.6371, -8.86787, 29.233, -156.618, -89.082, 51.261
4.90481, 19, -29.6006, -9.01603, 29.3536, -156.539, -88.986, 51.1599
4.911, 20, -29.5646, -9.0907, 29.4143, -156.498, -88.9375, 51.1086
4.92104, 20, -29.5116, -9.3169, 29.5984, -156.377, -88.7908, 50.9537
4.92863, 20, -29.494, -9.39305, 29.6602, -156.336, -88.7414, 50.9015
4.93576, 20, -29.4595, -9.54621, 29.7845, -156.254, -88.6416, 50.796
4.94292, 20, -29.4253, -9.70051, 29.9097, -156.17, -88.5407, 50.6894
4.95201, 21, -29.3917, -9.8561, 30.0358, -156.086, -88.4388, 50.5815
4.95998, 21, -29.3585, -10.0132, 30.1628, -156, -88.3355, 50.4727
4.96691, 21, -29.3255, -10.1718, 30.2911, -155.914, -88.2314, 50.3626
4.97834, 21, -29.2771, -10.4118, 30.4853, -155.784, -88.0733, 50.196
4.98414, 21, -29.2611, -10.4922, 30.5504, -155.74, -88.0199, 50.1401
4.99366, 22, -29.214, -10.7356, 30.747, -155.606, -87.8588, 49.9709
5.0006, 22, -29.1984, -10.8175, 30.8131, -155.561, -87.8046, 49.9141
5.00694, 22, -29.1675, -10.9822, 30.9459, -155.471, -87.6954, 49.7999
5.01591, 22, -29.1372, -11.1478, 31.0796, -155.379, -87.5853, 49.6846
5.02299, 22, -29.1072, -11.3143, 31.2142, -155.287, -87.4739, 49.5685
5.03207, 22, -29.0776, -11.4824, 31.3498, -155.194, -87.3618, 49.4514
5.03897, 23, -29.0483, -11.6522, 31.4862, -155.1, -87.2488, 49.3338
5.04799, 23, -29.0193, -11.823, 31.6233, -155.005, -87.1346, 49.2153
5.05706, 23, -28.9908, -11.9945, 31.7613, -154.91, -87.02, 49.0965
5.06396, 23, -28.9627, -12.1673, 31.9001, -154.813, -86.9041, 48.9771
5.0719, 23, -28.935, -12.3417, 32.0399, -154.716, -86.7874, 48.8568
5.07991, 24, -28.9077, -12.5172, 32.1806, -154.618, -86.6698, 48.7361
5.08791, 24, -28.8806, -12.6932, 32.322, -154.519, -86.5512, 48.6151
5.09593, 24, -28.8538, -12.8699, 32.464, -154.419, -86.4319, 48.493
5.10413, 24, -28.8275, -13.0481, 32.6069, -154.318, -86.3116, 48.3706
5.112, 24, -28.8014, -13.2278, 32.7509, -154.217, -86.1908, 48.2477
5.1199, 25, -28.7756, -13.4081, 32.8956, -154.114, -86.0692, 48.1243
5.12914, 25, -28.7502, -13.589, 33.0408, -154.011, -85.9466, 48.0008
5.13519, 25, -28.7249, -13.7711, 33.1866, -153.908, -85.8239, 47.8775
5.1449, 25, -28.6998, -13.9547, 33.3331, -153.803, -85.6998, 47.7536
5.15268, 25, -28.6751, -14.139, 33.4806, -153.697, -85.5755, 47.6297
5.15991, 26, -28.6507, -14.3236, 33.6288, -153.591, -85.4505, 47.5058
5.16795, 26, -28.6266, -14.5094, 33.7774, -153.484, -85.3248, 47.3814
5.17777, 26, -28.6028, -14.6967, 33.9266, -153.376, -85.1989, 47.257
5.18392, 26, -28.5791, -14.8846, 34.0768, -153.268, -85.0719, 47.1329
5.19198, 26, -28.5554, -15.0726, 34.2276, -153.158, -84.9447, 47.0087
5.1999, 27, -28.532, -15.2614, 34.3787, -153.048, -84.8167, 46.8848
5.20825, 27, -28.509, -15.4511, 34.5303, -152.938, -84.6885, 46.7616
5.21589, 27, -28.4861, -15.6413, 34.6827, -152.826, -84.5595, 46.6382
5.22412, 27, -28.4634, -15.8318, 34.8359, -152.714, -84.4301, 46.5151
5.2321, 27, -28.4411, -16.0235, 34.9893, -152.601, -84.3005, 46.3926
5.23977, 28, -28.4188, -16.2166, 35.1428, -152.488, -84.1704, 46.2701
5.24822, 28, -28.3965, -16.4103, 35.2969, -152.374, -84.04, 46.1479
5.2559, 28, -28.3743, -16.6045, 35.452, -152.259, -83.9091, 46.0265
5.26517, 28, -28.3524, -16.7996, 35.6074, -152.144, -83.7781, 45.9056
5.27152, 28, -28.3305, -16.9957, 35.7629, -152.027, -83.6465, 45.7854
5.28032, 29, -28.3087, -17.1919, 35.919, -151.91, -83.5149, 45.6662
5.28825, 29, -28.2979, -17.29, 35.9973, -151.852, -83.4489, 45.6067
5.29495, 29, -28.2763, -17.4868, 36.1544, -151.734, -83.3165, 45.4885
5.30509, 29, -28.244, -17.7836, 36.3906, -151.556, -83.1173, 45.3127
5.31293, 29, -28.2226, -17.9814, 36.5481, -151.436, -82.9843, 45.1961
5.32005, 29, -28.2014, -18.1795, 36.7065, -151.316, -82.8509, 45.081
5.32693, 30, -28.1908, -18.279, 36.786, -151.255, -82.7841, 45.0237
5.335, 30, -28.1695, -18.4782, 36.9448, -151.134, -82.6508, 44.9104
5.34512, 30, -28.1376, -18.777, 37.1826, -150.951, -82.4501, 44.7433
5.35351, 30, -28.1164, -18.9769, 37.3413, -150.829, -82.3165, 44.634
5.36307, 31, -28.0949, -19.1777, 37.5005, -150.706, -82.1823, 44.5267
5.36929, 31, -28.0733, -19.3786, 37.6597, -150.582, -82.0485, 44.4208
5.37496, 31, -28.0626, -19.4788, 37.7392, -150.521, -81.9815, 44.3686
5.3859, 31, -28.0303, -19.7799, 37.9779, -150.334, -81.7803, 44.2143
5.39247, 31, -28.0087, -19.9809, 38.1378, -150.209, -81.6461, 44.1132
5.40054, 31, -27.9978, -20.1814, 38.2978, -150.083, -81.5118, 44.0139
5.41106, 32, -27.965, -20.3819, 38.4574, -149.957, -81.3775, 43.9162
5.41584, 32, -27.954, -20.4824, 38.5372, -149.894, -81.3103, 43.8683
5.42391, 32, -27.9317, -20.6838, 38.697, -149.767, -81.1765, 43.7741
5.43283, 32, -27.9091, -20.8849, 38.8571, -149.64, -81.0425, 43.6821
5.44113, 32, -27.875, -21.1859, 39.0961, -149.449, -80.8422, 43.5494
5.44797, 33, -27.8635, -21.2865, 39.1755, -149.385, -80.7756, 43.5066
5.45589, 33, -27.8403, -21.4872, 39.3343, -149.257, -80.6429, 43.4236
5.46389, 33, -27.8166, -21.687, 39.4932, -149.13, -80.5105, 43.3431
5.47189, 33, -27.7925, -21.8861, 39.6514, -149.002, -80.3785, 43.2663
5.48005, 33, -27.7678, -22.0853, 39.8087, -148.875, -80.2472, 43.1923
5.48694, 34, -27.7427, -22.2839, 39.9656, -148.747, -80.116, 43.1219
5.49603, 34, -27.7172, -22.4814, 40.1223, -148.619, -79.9853, 43.055
5.50418, 34, -27.6911, -22.6783, 40.2786, -148.492, -79.8545, 42.9904
5.51107, 34, -27.6646, -22.8753, 40.4341, -148.364, -79.7239, 42.9298
5.5199, 34, -27.6377, -23.0716, 40.5892, -148.236, -79.5931, 42.8725
5.52798, 35, -27.6102, -23.2671, 40.7445, -148.108, -79.4626, 42.8178
5.53589, 35, -27.5827, -23.4627, 40.8996, -147.98, -79.3318, 42.7668
5.5457, 35, -27.5548, -23.6586, 41.054, -147.851, -79.1363, 42.6973
5.55434, 35, -27.5125, -23.9514, 41.2851, -147.657, -79.006, 42.6547
5.56013, 35, -27.4982, -24.0487, 41.3622, -147.592, -78.941, 42.6346
5.56808, 36, -27.4695, -24.2435, 41.5163, -147.462, -78.8112, 42.5971
5.57589, 36, -27.4403, -24.4381, 41.6699, -147.331, -78.6814, 42.564
5.58406, 36, -27.4109, -24.6318, 41.8227, -147.2, -78.5523, 42.5351
5.59195, 36, -27.3811, -24.8248, 41.9753, -147.07, -78.4233, 42.5104
5.59991, 36, -27.3506, -25.0179, 42.1275, -146.938, -78.295, 42.4901
5.60817, 37, -27.3193, -25.2104, 42.2788, -146.808, -78.167, 42.4742
5.61496, 37, -27.2872, -25.4017, 42.429, -146.677, -78.0394, 42.4629
5.62389, 37, -27.2544, -25.5919, 42.5783, -146.547, -77.9125, 42.4564
5.63214, 37, -27.2207, -25.7816, 42.7267, -146.418, -77.7857, 42.4535
5.63988, 37, -27.1862, -25.9703, 42.8741, -146.289, -77.6597, 42.4538
5.64795, 37, -27.1507, -26.157, 43.0203, -146.161, -77.5339, 42.46
5.65597, 38, -27.1145, -26.3426, 43.1651, -146.033, -77.4089, 42.4724
5.66391, 38, -27.0775, -26.5276, 43.3093, -145.906, -77.2842, 42.4898
5.67189, 38, -27.0397, -26.7114, 43.4528, -145.778, -77.1601, 42.513
5.68033, 38, -27.0011, -26.8937, 43.5953, -145.652, -77.0364, 42.5414
5.69126, 38, -26.9417, -27.1656, 43.8073, -145.462, -76.8517, 42.5951
5.69587, 39, -26.9215, -27.2561, 43.8775, -145.399, -76.7904, 42.6162
5.70608, 39, -26.8807, -27.4362, 44.0173, -145.272, -76.6675, 42.6628
5.71152, 39, -26.8388, -27.6149, 44.1562, -145.146, -76.5451, 42.7146
5.71998, 39, -26.7961, -27.7928, 44.2941, -145.02, -76.4228, 42.7725
5.72789, 39, -26.7526, -27.9704, 44.4307, -144.895, -76.3005, 42.8374
5.73592, 40, -26.7082, -28.147, 44.5663, -144.77, -76.1784, 42.9075
5.74405, 40, -26.6627, -28.3218, 44.7009, -144.646, -76.0565, 42.9847
5.75146, 40, -26.6163, -28.4953, 44.8342, -144.522, -75.9352, 43.0683
5.76353, 40, -26.5448, -28.7537, 45.0318, -144.339, -75.7535, 43.2055
5.768, 40, -26.5204, -28.8391, 45.097, -144.278, -75.6933, 43.2546
5.77605, 41, -26.4709, -29.0084, 45.2264, -144.156, -75.5732, 43.3577
5.78426, 41, -26.4203, -29.1761, 45.3546, -144.036, -75.4532, 43.4677
5.79191, 41, -26.3685, -29.3427, 45.4815, -143.916, -75.3339, 43.5844
5.80054, 41, -26.3155, -29.508, 45.6069, -143.798, -75.2148, 43.7083
5.81271, 41, -26.2613, -29.6713, 45.7919, -143.622, -75.0375, 43.9076
5.81599, 42, -26.2056, -29.8326, 45.8527, -143.564, -74.9785, 43.9776
5.82293, 42, -26.1771, -29.9126, 45.913, -143.506, -74.9195, 44.0496
5.83091, 42, -26.1191, -30.0713, 46.0319, -143.392, -74.8025, 44.1988
5.841, 42, -26.0289, -30.3056, 46.2063, -143.225, -74.6277, 44.4358
5.84823, 42, -25.9667, -30.4587, 46.3199, -143.116, -74.512, 44.6027
5.85503, 42, -25.935, -30.5344, 46.3758, -143.062, -74.4544, 44.6888
5.8631, 43, -25.8701, -30.684, 46.486, -142.956, -74.3391, 44.867
5.8709, 43, -25.8036, -30.8315, 46.594, -142.852, -74.2245, 45.0527
5.88144, 43, -25.7009, -31.0485, 46.7524, -142.699, -74.0531, 45.3457
5.88952, 43, -25.6304, -31.1903, 46.8556, -142.599, -73.9396, 45.5506
5.89645, 43, -25.5584, -31.33, 46.9569, -142.501, -73.8266, 45.7633
5.90529, 44, -25.5218, -31.3991, 47.056, -142.405, -73.7141, 45.984
5.91089, 44, -25.4472, -31.5358, 47.1046, -142.358, -73.6582, 46.0973
5.91987, 44, -25.3708, -31.6703, 47.2, -142.265, -73.5467, 46.3302
5.93028, 44, -25.253, -31.8671, 47.3386, -142.131, -73.3806, 46.6946
5.93686, 44, -25.2128, -31.9313, 47.3837, -142.088, -73.2707, 46.9477
5.94394, 45, -25.131, -32.0578, 47.4719, -142.003, -73.2159, 47.0776
5.95193, 45, -25.0472, -32.1815, 47.5577, -141.921, -73.1067, 47.3437
5.96005, 45, -24.9612, -32.3023, 47.6407, -141.842, -72.9982, 47.6179
5.96785, 45, -24.8731, -32.4202, 47.7207, -141.766, -72.8899, 47.9003
5.97593, 45, -24.7826, -32.5349, 47.7976, -141.693, -72.7823, 48.191
5.98388, 46, -24.6898, -32.6461, 47.8716, -141.623, -72.6753, 48.4906
5.99188, 46, -24.5946, -32.754, 47.9426, -141.556, -72.5687, 48.7982
5.99996, 46, -24.4969, -32.8585, 48.0106, -141.493, -72.4633, 49.1141
6.00803, 46, -24.397, -32.9593, 48.0755, -141.435, -72.3586, 49.4387
6.01811, 46, -24.2429, -33.1035, 48.1664, -141.353, -72.2037, 49.9407
6.02385, 47, -24.1903, -33.1497, 48.195, -141.328, -72.1525, 50.112
6.03189, 47, -24.0835, -33.2391, 48.2494, -141.281, -72.051, 50.4609
6.04141, 47, -23.974, -33.3244, 48.3002, -141.237, -71.9508, 50.8183
6.04787, 47, -23.8619, -33.4058, 48.3473, -141.199, -71.8518, 51.184
6.05777, 47, -23.747, -33.483, 48.3905, -141.165, -71.7538, 51.7492
6.06305, 48, -23.6294, -33.5559, 48.4298, -141.136, -71.6571, 51.9419
6.07188, 48, -23.5091, -33.6244, 48.465, -141.11, -71.5622, 52.3338
6.08085, 48, -23.3862, -33.6882, 48.496, -141.09, -71.4686, 52.7353
6.08787, 48, -23.2609, -33.7472, 48.5229, -141.075, -71.3767, 53.1463
6.09596, 48, -23.1329, -33.8011, 48.5454, -141.065, -71.2871, 53.5662
6.10487, 49, -23.002, -33.8499, 48.5635, -141.06, -71.1992, 53.9952
6.11209, 49, -22.8682, -33.8935, 48.5772, -141.059, -71.113, 54.4319
6.11894, 49, -22.7313, -33.9315, 48.5862, -141.063, -71.0293, 54.8762
6.13142, 49, -22.5207, -33.9779, 48.591, -141.082, -70.9076, 55.5569
6.13603, 49, -22.449, -33.9904, 48.5903, -141.092, -70.8682, 55.7875
6.14326, 50, -22.3037, -34.011, 48.5852, -141.116, -70.7912, 56.2544
6.15141, 50, -22.1558, -34.0255, 48.575, -141.145, -70.7174, 56.7279
6.15988, 50, -22.0052, -34.0336, 48.5597, -141.18, -70.6462, 57.2094
6.16797, 50, -21.8516, -34.0358, 48.5391, -141.222, -70.5784, 57.6987
6.17587, 50, -21.695, -34.032, 48.513, -141.27, -70.5133, 58.1955
6.18401, 51, -21.5352, -34.0213, 48.4814, -141.324, -70.4527, 58.6991
6.19179, 51, -21.3727, -34.0039, 48.4445, -141.385, -70.3948, 59.2086
6.19987, 51, -21.2075, -33.9796, 48.402, -141.452, -70.341, 59.7248
6.20813, 51, -21.0397, -33.9481, 48.3539, -141.525, -70.2912, 60.2468
6.21924, 51, -20.7833, -33.8875, 48.2711, -141.646, -70.2229, 61.0406
6.22323, 51, -20.6965, -33.8635, 48.2407, -141.69, -70.2024, 61.3079
6.2364, 52, -20.4321, -33.7797, 48.1402, -141.83, -70.1482, 62.1201
6.24006, 52, -20.3426, -33.7478, 48.1037, -141.88, -70.1323, 62.3942
6.24744, 52, -20.1613, -33.6779, 48.0261, -141.985, -70.104, 62.9473
6.25598, 52, -19.9775, -33.5998, 47.9423, -142.096, -70.0807, 63.5059
6.26404, 52, -19.7911, -33.5132, 47.8522, -142.213, -70.0628, 64.071
6.27198, 53, -19.6026, -33.4181, 47.756, -142.337, -70.0504, 64.6417
6.28004, 53, -19.4123, -33.3148, 47.6537, -142.466, -70.0435, 65.2173
6.28824, 53, -19.2199, -33.2034, 47.5456, -142.602, -70.0415, 65.7961
6.29683, 53, -19.0258, -33.0837, 47.4316, -142.743, -70.0446, 66.3786
6.30389, 53, -18.8299, -32.9558, 47.3116, -142.889, -70.0539, 66.9639
6.31222, 54, -18.6323, -32.8196, 47.1858, -143.039, -70.0694, 67.5505
6.32091, 54, -18.4328, -32.675, 47.0543, -143.194, -70.0917, 68.1381
6.32807, 54, -18.2313, -32.5223, 46.9174, -143.354, -70.1206, 68.7271
6.33735, 54, -18.0285, -32.3613, 46.7748, -143.518, -70.1555, 69.3176
6.34452, 54, -17.8244, -32.1915, 46.6262, -143.687, -70.1969, 69.9096
6.35227, 55, -17.6195, -32.0122, 46.4713, -143.86, -70.2466, 70.5043
6.35887, 55, -17.5167, -31.9191, 46.3914, -143.948, -70.2744, 70.8033
6.36836, 55, -17.2057, -31.626, 46.1422, -144.221, -70.3689, 71.7073
6.37486, 55, -17.1011, -31.5233, 46.0554, -144.314, -70.4051, 72.0106
6.38442, 55, -16.7849, -31.199, 45.7835, -144.602, -70.526, 72.928
6.39102, 56, -16.6786, -31.0856, 45.6894, -144.701, -70.5712, 73.2364
6.39913, 56, -16.465, -30.8511, 45.4963, -144.901, -70.6679, 73.8566
6.40851, 56, -16.1427, -30.4787, 45.1919, -145.209, -70.8304, 74.7922
6.41678, 56, -16.0351, -30.3491, 44.9804, -145.42, -70.9505, 75.4201
6.42381, 56, -15.8201, -30.0824, 44.8726, -145.526, -71.014, 75.7349
6.43188, 57, -15.6047, -29.8046, 44.6517, -145.741, -71.1483, 76.3656
6.43986, 57, -15.3881, -29.5166, 44.4234, -145.959, -71.292, 76.9969
6.44792, 57, -15.1704, -29.2185, 44.1894, -146.18, -71.4455, 77.6295
6.45602, 57, -14.9522, -28.9104, 43.949, -146.402, -71.6087, 78.2626
6.46403, 57, -14.7341, -28.5939, 43.7028, -146.626, -71.7814, 78.8938
6.47299, 58, -14.5165, -28.269, 43.4524, -146.85, -72.0567, 79.8366
6.47886, 58, -14.3, -27.9369, 43.1974, -147.074, -72.1524, 80.1488
6.48799, 58, -14.0848, -27.5969, 42.939, -147.297, -72.3492, 80.769
6.49586, 58, -13.8713, -27.2499, 42.678, -147.518, -72.5532, 81.3819
6.50286, 58, -13.6591, -26.8959, 42.4136, -147.736, -72.764, 81.9887
6.51187, 58, -13.4482, -26.5357, 42.147, -147.953, -72.9814, 82.5888
6.51986, 59, -13.2387, -26.1683, 41.8766, -148.167, -73.2061, 83.1829
6.52694, 59, -13.0311, -25.7943, 41.6026, -148.38, -73.4383, 83.7719
6.5385, 59, -12.8251, -25.2201, 41.1843, -148.696, -73.8023, 84.649
6.54403, 59, -12.6202, -25.0254, 41.0429, -148.801, -73.9278, 84.9398
6.55096, 59, -12.4162, -24.6296, 40.7571, -149.009, -74.186, 85.5184
6.55993, 60, -12.2133, -24.2263, 40.4664, -149.216, -74.4531, 86.094
6.56886, 60, -12.0117, -23.8156, 40.1721, -149.42, -74.7294, 86.6666
6.57592, 60, -11.8115, -23.3986, 39.8741, -149.623, -75.0142, 87.2361
6.58796, 60, -11.5145, -22.7617, 39.4232, -149.922, -75.4569, 88.0806
6.59202, 60, -11.4167, -22.5468, 39.2718, -150.02, -75.6079, 88.3595
6.59983, 61, -11.2228, -22.1143, 38.9684, -150.213, -75.9147, 88.9122
6.60796, 61, -11.0313, -21.678, 38.6642, -150.401, -76.2267, 89.4568
6.61607, 61, -10.842, -21.2385, 38.3598, -150.584, -76.5427, 89.9914
6.62779, 61, -10.5624, -20.573, 37.9036, -150.85, -77.0244, 90.7756
6.63185, 61, -10.4704, -20.3493, 37.7517, -150.935, -77.1867, 91.0322
6.63986, 62, -10.2884, -19.8998, 37.4484, -151.103, -77.5145, 91.5384
6.64796, 62, -10.1092, -19.4476, 37.1446, -151.266, -77.8468, 92.0364
6.65586, 62, -9.93272, -18.9934, 36.8406, -151.424, -78.1841, 92.526
6.6641, 62, -9.759, -18.5369, 36.5355, -151.578, -78.5263, 93.0088
6.67186, 62, -9.58778, -18.0787, 36.2305, -151.727, -78.8737, 93.4838
6.67985, 63, -9.41872, -17.6194, 35.9254, -151.871, -79.2252, 93.9506
6.68796, 63, -9.25185, -17.1587, 35.6215, -152.01, -79.5806, 94.4077
6.69586, 63, -9.08734, -16.6966, 35.3191, -152.144, -79.9386, 94.8547
6.70385, 63, -8.92546, -16.2326, 35.0182, -152.272, -80.299, 95.2918
6.71239, 63, -8.76608, -15.7661, 34.719, -152.395, -80.6616, 95.7178
6.72092, 63, -8.60921, -15.2974, 34.421, -152.513, -81.0268, 96.1343
6.72808, 64, -8.45483, -14.8271, 34.1249, -152.625, -81.395, 96.5402
6.73526, 64, -8.30286, -14.3555, 33.8287, -152.733, -81.7671, 96.9362
6.7441, 64, -8.15306, -13.8836, 33.5331, -152.835, -82.1436, 97.3236
6.75194, 64, -8.00555, -13.4116, 33.2374, -152.933, -82.5244, 97.7008
6.76018, 65, -7.86042, -12.9403, 32.943, -153.026, -82.9087, 98.0672
6.76901, 65, -7.71795, -12.4704, 32.6507, -153.114, -83.2948, 98.4218
6.77596, 65, -7.57829, -12.0015, 32.3613, -153.195, -83.6819, 98.7631
6.78445, 65, -7.44186, -11.5339, 32.0763, -153.271, -84.0683, 99.09
6.79216, 65, -7.30838, -11.0669, 31.7953, -153.341, -84.4535, 99.4027
6.80014, 65, -7.17793, -10.6011, 31.5189, -153.403, -84.8378, 99.7004
6.80685, 66, -7.11362, -10.3693, 31.382, -153.433, -85.0292, 99.8435
6.8159, 66, -6.92382, -9.67915, 30.9768, -153.514, -85.6028, 100.25
6.82398, 66, -6.79985, -9.22559, 30.7118, -153.56, -85.9846, 100.501
6.83207, 66, -6.67807, -8.77817, 30.4497, -153.601, -86.3652, 100.737
6.839, 66, -6.61804, -8.55673, 30.3205, -153.619, -86.5547, 100.849
6.84711, 67, -6.49975, -8.11852, 30.0659, -153.652, -86.9313, 101.059
6.85655, 67, -6.32778, -7.47317, 29.6946, -153.69, -87.4885, 101.342
6.86429, 67, -6.21675, -7.05021, 29.4561, -153.708, -87.8531, 101.508
6.87084, 67, -6.16226, -6.84067, 29.3393, -153.715, -88.0332, 101.584
6.88039, 67, -6.00255, -6.22195, 28.9988, -153.727, -88.5647, 101.787
6.88883, 68, -5.89881, -5.81772, 28.78, -153.73, -88.9132, 101.9
6.895, 68, -5.84764, -5.61788, 28.6724, -153.73, -89.086, 101.95
6.90464, 68, -5.74656, -5.02675, 28.3552, -153.723, -89.6006, 102.074
6.91427, 68, -5.59804, -4.63957, 28.1485, -153.712, -89.9422, 102.134
6.9207, 68, -5.54932, -4.25755, 27.9446, -153.697, -90.2827, 102.176
6.92912, 69, -5.40584, -3.87903, 27.7439, -153.677, -90.6226, 102.2
6.93492, 69, -5.35888, -3.69124, 27.6452, -153.666, -90.7925, 102.205
6.94386, 69, -5.26623, -3.31839, 27.4511, -153.639, -91.1317, 102.202
6.95189, 69, -5.17533, -2.94927, 27.26, -153.608, -91.4702, 102.177
6.95994, 69, -5.08617, -2.58376, 27.0723, -153.574, -91.8078, 102.132
6.96799, 70, -4.99862, -2.22132, 26.8889, -153.536, -92.1439, 102.064
6.9749, 70, -4.91238, -1.86324, 26.7093, -153.493, -92.4787, 101.974
6.9839, 70, -4.82738, -1.50976, 26.5327, -153.447, -92.8119, 101.862
6.99186, 70, -4.74343, -1.16196, 26.3605, -153.398, -93.143, 101.728
6.99882, 70, -4.66052, -0.819105, 26.1929, -153.346, -93.4721, 101.572
7.00783, 71, -4.5787, -0.482766, 26.029, -153.289, -93.798, 101.395
7.01609, 71, -4.49793, -0.152768, 25.8691, -153.232, -94.1209, 101.197
7.02388, 71, -4.41822, 0.170111, 25.7146, -153.17, -94.4404, 100.977
7.03184, 71, -4.33935, 0.486773, 25.5656, -153.107, -94.7557, 100.738
7.03933, 71, -4.26129, 0.797307, 25.4214, -153.041, -95.0672, 100.477
7.04811, 72, -4.18411, 1.10067, 25.2819, -152.974, -95.3749, 100.198
7.05584, 72, -4.10744, 1.39756, 25.1467, -152.905, -95.6789, 99.8978
7.06489, 72, -4.03105, 1.68735, 25.0155, -152.834, -95.9797, 99.5778
7.07194, 72, -3.95493, 1.97096, 24.8877, -152.763, -96.2781, 99.237
7.08084, 72, -3.87888, 2.2488, 24.763, -152.69, -96.5738, 98.8758
7.08891, 72, -3.80286, 2.52014, 24.6415, -152.617, -96.8671, 98.4928
7.09599, 73, -3.72703, 2.78583, 24.5229, -152.543, -97.1581, 98.0879
7.10385, 73, -3.651, 3.04529, 24.4077, -152.47, -97.4465, 97.6606
7.11504, 73, -3.53637, 3.42231, 24.2416, -152.36, -97.8743, 96.9771
7.11985, 73, -3.49799, 3.54498, 24.1881, -152.323, -98.0153, 96.7387
7.12788, 73, -3.42091, 3.78496, 24.084, -152.251, -98.2947, 96.246
7.13596, 74, -3.34319, 4.01661, 23.984, -152.18, -98.57, 95.7339
7.14401, 74, -3.26475, 4.24004, 23.8877, -152.111, -98.8402, 95.2044
7.15101, 74, -3.18571, 4.45484, 23.7957, -152.043, -99.1047, 94.6599
7.15992, 74, -3.10602, 4.65986, 23.7079, -151.977, -99.3628, 94.1031
7.168, 74, -3.02566, 4.85511, 23.6244, -151.914, -99.6135, 93.5346
7.1752, 75, -2.94437, 5.04096, 23.5454, -151.853, -99.8562, 92.9566
7.18288, 75, -2.86212, 5.21639, 23.4705, -151.796, -100.09, 92.3713
7.19201, 75, -2.7789, 5.38071, 23.3997, -151.74, -100.314, 91.779
7.19919, 75, -2.69472, 5.5344, 23.3328, -151.688, -100.53, 91.1797
7.20896, 75, -2.60973, 5.67723, 23.27, -151.64, -100.735, 90.5742
7.21586, 76, -2.52375, 5.80869, 23.2114, -151.594, -100.932, 89.9619
7.22391, 76, -2.43679, 5.92868, 23.1571, -151.553, -101.119, 89.3412
7.23184, 76, -2.34893, 6.03693, 23.1071, -151.516, -101.297, 88.7113
7.24414, 76, -2.21581, 6.17619, 23.0402, -151.467, -101.546, 87.7521
7.24808, 76, -2.17103, 6.21633, 23.0203, -151.452, -101.624, 87.429
7.25601, 77, -2.08075, 6.28686, 22.9843, -151.427, -101.771, 86.7785
7.26429, 77, -1.9896, 6.34438, 22.9535, -151.405, -101.906, 86.1266
7.27141, 77, -1.8976, 6.38846, 22.9283, -151.387, -102.027, 85.4762
7.2804, 77, -1.80468, 6.41845, 22.9088, -151.374, -102.134, 84.8279
7.28794, 77, -1.71089, 6.43443, 22.8951, -151.364, -102.226, 84.1832
7.29621, 78, -1.61635, 6.43598, 22.8874, -151.358, -102.303, 83.5434
7.30465, 78, -1.52103, 6.42241, 22.885, -151.354, -102.365, 82.9077
7.31187, 78, -1.42508, 6.39353, 22.8883, -151.354, -102.411, 82.2752
7.32072, 78, -1.32876, 6.34908, 22.8976, -151.357, -102.441, 81.6473
7.32793, 78, -1.23214, 6.28852, 22.9129, -151.363, -102.456, 81.0245
7.3361, 78, -1.13535, 6.2118, 22.935, -151.373, -102.455, 80.4072
7.34301, 79, -1.08691, 6.1674, 22.9487, -151.379, -102.448, 80.101
7.35465, 79, -0.941364, 6.00999, 23.0005, -151.402, -102.399, 79.194
7.35883, 79, -0.892889, 5.94946, 23.0214, -151.411, -102.374, 78.8968
7.36834, 79, -0.747414, 5.74313, 23.0956, -151.442, -102.273, 78.0182
7.37632, 79, -0.650413, 5.58497, 23.1546, -151.467, -102.183, 77.4452
7.38517, 80, -0.553299, 5.41018, 23.221, -151.493, -102.075, 76.8829
7.39084, 80, -0.504729, 5.31659, 23.2572, -151.506, -102.013, 76.6059
7.39898, 80, -0.407724, 5.11702, 23.3356, -151.535, -101.877, 76.059
7.40845, 80, -0.310879, 4.78513, 23.4685, -151.581, -101.638, 75.2563
7.41647, 80, -0.214169, 4.54108, 23.5677, -151.614, -101.455, 74.7332
7.42545, 81, -0.117574, 4.41264, 23.6206, -151.647, -101.252, 74.22
7.43268, 81, -0.0210903, 4.14332, 23.7331, -151.682, -101.031, 73.7153
7.43988, 81, 0.0751405, 3.85683, 23.8548, -151.699, -100.912, 73.4666
7.44737, 81, 0.17123, 3.55394, 23.986, -151.736, -100.662, 72.976
7.45597, 81, 0.267118, 3.23364, 24.1271, -151.773, -100.392, 72.4951
7.46389, 82, 0.362767, 2.89618, 24.2782, -151.81, -100.103, 72.024
7.47184, 82, 0.458138, 2.54218, 24.4386, -151.847, -99.7945, 71.5621
7.47988, 82, 0.553214, 2.17217, 24.6082, -151.885, -99.4673, 71.1099
7.48783, 82, 0.648161, 1.78602, 24.7876, -151.923, -99.1222, 70.6673
7.49768, 82, 0.790365, 1.17608, 25.0743, -151.977, -98.5717, 70.0227
7.50296, 83, 0.83775, 0.964859, 25.1744, -151.995, -98.3799, 69.8131
7.51484, 83, 0.979817, 0.30964, 25.4896, -152.048, -97.7801, 69.1992
7.52737, 83, 1.12201, -0.378072, 25.8266, -152.098, -97.1455, 68.609
7.53009, 83, 1.16945, -0.614496, 25.9432, -152.113, -96.9261, 68.4171
7.5361, 83, 1.21691, -0.854502, 26.0623, -152.128, -96.703, 68.2276
7.54303, 84, 1.3119, -1.34525, 26.3082, -152.159, -96.2457, 67.8563
7.55183, 84, 1.40717, -1.84946, 26.5635, -152.188, -95.7729, 67.4933
7.56084, 84, 1.5026, -2.36657, 26.8294, -152.215, -95.2852, 67.138
7.56783, 84, 1.59849, -2.89752, 27.1055, -152.241, -94.7815, 66.7902
7.57984, 84, 1.74292, -3.71921, 27.5392, -152.276, -93.9979, 66.2812
7.584, 84, 1.79129, -3.99979, 27.689, -152.287, -93.7293, 66.115
7.59206, 85, 1.88822, -4.57033, 27.9959, -152.308, -93.1804, 65.7883
7.5999, 85, 1.98545, -5.15208, 28.3131, -152.327, -92.6167, 65.4697
7.60782, 85, 2.08303, -5.74412, 28.6392, -152.344, -92.0412, 65.1588
7.61589, 85, 2.18098, -6.34535, 28.9746, -152.358, -91.4552, 64.8564
7.62384, 85, 2.27966, -6.95452, 29.3182, -152.369, -90.8588, 64.5633
7.6357, 86, 2.42897, -7.88171, 29.8485, -152.381, -89.9463, 64.1418
7.63998, 86, 2.47924, -8.19386, 30.0289, -152.383, -89.6377, 64.0065
7.64706, 86, 2.58055, -8.82292, 30.3943, -152.386, -89.0144, 63.7442
7.65589, 86, 2.68253, -9.45734, 30.765, -152.387, -88.387, 63.4935
7.66383, 86, 2.78564, -10.0958, 31.1408, -152.385, -87.7554, 63.2543
7.67183, 87, 2.8898, -10.7382, 31.5223, -152.378, -87.1177, 63.0268
7.6799, 87, 2.99456, -11.3834, 31.9083, -152.368, -86.4749, 62.8116
7.68804, 87, 3.10051, -12.0311, 32.2988, -152.354, -85.8274, 62.6086
7.69535, 87, 3.20723, -12.6808, 32.6938, -152.337, -85.1757, 62.4186
7.70289, 87, 3.3146, -13.333, 33.094, -152.315, -84.5207, 62.2414
7.71184, 88, 3.42269, -13.9876, 33.4992, -152.29, -83.8606, 62.0772
7.72, 88, 3.53143, -14.6448, 33.9088, -152.261, -83.1954, 61.9264
7.72783, 88, 3.64074, -15.3038, 34.3236, -152.227, -82.5254, 61.7891
7.736, 88, 3.75063, -15.9637, 34.7431, -152.189, -81.851, 61.6661
7.74424, 88, 3.86089, -16.6236, 35.1667, -152.146, -81.1742, 61.5586
7.75134, 89, 3.97142, -17.2825, 35.5942, -152.099, -80.4949, 61.4673
7.76614, 89, 4.13763, -18.2669, 36.2399, -152.017, -79.4721, 61.3636
7.76888, 89, 4.19314, -18.5937, 36.4558, -151.987, -79.13, 61.3382
7.7759, 89, 4.30428, -19.2446, 36.8884, -151.925, -78.4458, 61.302
7.78342, 89, 4.4154, -19.8903, 37.3202, -151.855, -77.7656, 61.2849
7.792, 90, 4.52672, -20.5307, 37.7508, -151.782, -77.0886, 61.2881
7.79949, 90, 4.58266, -20.8491, 37.9657, -151.742, -76.4138, 61.3158
7.80791, 90, 4.75103, -21.7965, 38.608, -151.617, -75.7429, 61.3671
7.81768, 90, 4.86339, -22.4216, 39.0338, -151.526, -75.0761, 61.4424
7.8269, 90, 4.97564, -23.0417, 39.4582, -151.43, -74.4147, 61.5439
7.83076, 90, 5.0317, -23.3504, 39.67, -151.379, -74.085, 61.6044
7.84004, 91, 5.19964, -24.2695, 40.3044, -151.219, -73.0967, 61.8273
7.84699, 91, 5.25533, -24.5728, 40.5156, -151.161, -72.7675, 61.9159
7.85711, 91, 5.42131, -25.4748, 41.1494, -150.98, -71.7777, 62.2254
7.8629, 91, 5.47619, -25.7723, 41.3605, -150.917, -71.4472, 62.3436
7.87279, 91, 5.6401, -26.6539, 41.9918, -150.716, -70.4584, 62.7446
7.8803, 92, 5.74937, -27.2325, 42.4105, -150.575, -69.8007, 63.0513
7.88834, 92, 5.85919, -27.803, 42.8257, -150.428, -69.1456, 63.3889
7.89727, 92, 5.96958, -28.365, 43.2356, -150.276, -68.494, 63.7579
7.90281, 92, 6.02506, -28.6424, 43.4386, -150.199, -68.1696, 63.9543
7.91089, 92, 6.13689, -29.1889, 43.8396, -150.041, -67.5259, 64.3703
7.92461, 93, 6.36515, -30.2501, 44.6225, -149.718, -66.2556, 65.2979
7.92778, 93, 6.36515, -30.2501, 44.6225, -149.718, -66.2556, 65.2979
7.93587, 93, 6.48245, -30.7656, 45.0048, -149.554, -65.6262, 65.8093
7.94382, 93, 6.60187, -31.2732, 45.3818, -149.39, -64.9995, 66.3553
7.95082, 93, 6.7235, -31.7749, 45.7541, -149.225, -64.3737, 66.9384
7.95978, 94, 6.84742, -32.2713, 46.1232, -149.058, -63.7472, 67.5634
7.9679, 94, 6.97361, -32.763, 46.4896, -148.892, -63.1154, 68.2351
7.97581, 94, 7.10189, -33.2489, 46.8545, -148.725, -62.4773, 68.9595
7.98387, 94, 7.23226, -33.7273, 47.2173, -148.559, -61.8327, 69.7368
7.99187, 94, 7.36566, -34.1982, 47.577, -148.396, -61.1818, 70.5657
7.99989, 95, 7.50305, -34.6609, 47.9301, -148.239, -60.5295, 71.4491
8.00787, 95, 7.64548, -35.1131, 48.2749, -148.091, -59.8798, 72.3788
8.01581, 95, 7.79394, -35.5546, 48.6087, -147.956, -59.2351, 73.3494
8.02411, 95, 7.94878, -35.9826, 48.9301, -147.834, -58.5979, 74.3593
8.03187, 95, 8.11045, -36.3925, 49.2361, -147.73, -57.9695, 75.4022
8.03981, 96, 8.27896, -36.7824, 49.5266, -147.643, -57.3515, 76.4793
8.0479, 96, 8.45434, -37.1512, 49.8002, -147.576, -56.7479, 77.5857
8.05686, 96, 8.63557, -37.4968, 50.0568, -147.53, -56.1584, 78.7206
8.06382, 96, 8.82193, -37.8175, 50.2962, -147.504, -55.5841, 79.8773
8.07395, 96, 9.10984, -38.2507, 50.619, -147.503, -54.7563, 81.6414
8.0799, 96, 9.20728, -38.3826, 50.7169, -147.513, -54.4907, 82.2352
8.08782, 97, 9.40322, -38.6272, 50.8981, -147.551, -53.9769, 83.4296
8.09582, 97, 9.59952, -38.8465, 51.0586, -147.609, -53.4882, 84.6282
8.10382, 97, 9.79498, -39.0413, 51.1988, -147.688, -53.0262, 85.8202
8.11186, 97, 9.98905, -39.2112, 51.3196, -147.783, -52.593, 86.9997
8.11981, 97, 10.1805, -39.3552, 51.4206, -147.894, -52.1898, 88.1579
8.12782, 97, 10.3684, -39.4739, 51.5026, -148.017, -51.8172, 89.2901
8.13581, 98, 10.5526, -39.5674, 51.5663, -148.151, -51.4755, 90.3882
8.14382, 98, 10.7343, -39.6369, 51.612, -148.295, -51.1639, 91.4533
8.15193, 98, 10.9143, -39.6836, 51.6403, -148.448, -50.8802, 92.4931
8.15981, 98, 11.0927, -39.7071, 51.6513, -148.612, -50.6208, 93.5229
8.16781, 98, 11.269, -39.7073, 51.6457, -148.789, -50.3823, 94.556
8.17588, 98, 11.4442, -39.6841, 51.6228, -148.979, -50.1625, 95.6029
8.18382, 98, 11.6197, -39.637, 51.5822, -149.182, -49.9618, 96.6713
8.19191, 99, 11.7949, -39.5666, 51.5238, -149.399, -49.7815, 97.7609
8.19987, 99, 11.9685, -39.4736, 51.447, -149.627, -49.6243, 98.8671
8.20781, 99, 12.1394, -39.3579, 51.3517, -149.864, -49.4936, 99.9787
8.21581, 99, 12.3065, -39.22, 51.2384, -150.106, -49.3924, 101.085
8.22389, 99, 12.4683, -39.0598, 51.1077, -150.351, -49.322, 102.175
8.23187, 99, 12.6228, -38.8774, 50.961, -150.593, -49.2824, 103.24
8.2399, 100, 12.7687, -38.671, 50.7986, -150.833, -49.2743, 104.274
8.24785, 100, 12.9059, -38.4403, 50.6196, -151.068, -49.2981, 105.28
8.25589, 100, 13.0339, -38.1871, 50.4236, -151.297, -49.3534, 106.257
8.26399, 100, 13.1535, -37.9117, 50.2112, -151.52, -49.4399, 107.21
8.27232, 100, 13.2649, -37.6156, 49.9811, -151.737, -49.5577, 108.14
8.27945, 100, 13.3681, -37.2965, 49.7327, -151.948, -49.7062, 109.047
8.28821, 101, 13.4632, -36.9535, 49.4678, -152.151, -49.8847, 109.934
8.29541, 101, 13.5078, -36.7727, 49.3288, -152.249, -50.0931, 110.796
8.30385, 101, 13.6299, -36.1918, 48.8864, -152.53, -50.3311, 111.636
8.31271, 101, 13.7011, -35.7731, 48.5695, -152.706, -50.599, 112.452
8.32945, 101, 13.8185, -34.8669, 47.8831, -153.027, -51.2289, 114.019
8.3307, 101, 13.8185, -34.8669, 47.8831, -153.027, -51.2289, 114.019
8.33594, 102, 13.8639, -34.3799, 47.5141, -153.17, -51.5927, 114.767
8.34406, 102, 13.8998, -33.8693, 47.1283, -153.301, -51.9888, 115.493
8.3508, 102, 13.9141, -33.6048, 46.9294, -153.362, -52.1991, 115.846
8.36095, 102, 13.9433, -32.7758, 46.3097, -153.523, -52.8784, 116.868
8.36825, 102, 13.9518, -32.195, 45.8789, -153.614, -53.3693, 117.518
8.37488, 102, 13.9532, -31.8964, 45.6583, -153.654, -53.6252, 117.833
8.38505, 103, 13.9464, -30.9708, 44.9754, -153.754, -54.433, 118.739
8.3908, 103, 13.9408, -30.6531, 44.7414, -153.781, -54.7145, 119.028
8.40039, 103, 13.9152, -29.6763, 44.0229, -153.842, -55.5909, 119.86
8.4092, 103, 13.8913, -29.0063, 43.5325, -153.867, -56.1995, 120.383
8.4148, 103, 13.8775, -28.6662, 43.2843, -153.875, -56.5103, 120.635
8.42376, 104, 13.8467, -27.9773, 42.7833, -153.884, -57.1423, 121.12
8.4318, 104, 13.8118, -27.2789, 42.2782, -153.882, -57.7861, 121.58
8.43881, 104, 13.7731, -26.5728, 41.7699, -153.87, -58.4437, 122.017
8.44897, 104, 13.7088, -25.5027, 41.0043, -153.835, -59.4518, 122.635
8.4558, 104, 13.6863, -25.144, 40.7488, -153.82, -59.7929, 122.832
8.46281, 104, 13.6398, -24.4251, 40.238, -153.783, -60.48, 123.214
8.47184, 104, 13.5916, -23.7042, 39.7276, -153.738, -61.1723, 123.584
8.47992, 104, 13.5419, -22.982, 39.2183, -153.689, -61.8698, 123.945
8.48786, 104, 13.4913, -22.2592, 38.7101, -153.634, -62.5708, 124.301
8.4958, 104, 13.4402, -21.5355, 38.2035, -153.574, -63.2739, 124.653
8.50381, 104, 13.3885, -20.8121, 37.6984, -153.511, -63.9774, 125.003
8.51186, 104, 13.3366, -20.0891, 37.1948, -153.442, -64.6813, 125.352
8.5198, 104, 13.2846, -19.3657, 36.6931, -153.37, -65.3872, 125.699
8.52786, 104, 13.2322, -18.642, 36.1933, -153.294, -66.0939, 126.045
8.53587, 104, 13.1801, -17.9185, 35.6959, -153.214, -66.8015, 126.39
8.54381, 104, 13.1282, -17.1944, 35.2009, -153.129, -67.5097, 126.735
8.5518, 104, 13.0765, -16.4702, 34.7076, -153.041, -68.2171, 127.079
8.56079, 104, 13.0253, -15.7459, 34.2164, -152.949, -68.9259, 127.423
8.56781, 104, 12.9744, -15.021, 33.7274, -152.853, -69.6365, 127.766
8.57689, 104, 12.9237, -14.2959, 33.2407, -152.754, -70.3476, 128.11
8.58281, 104, 12.8735, -13.5705, 32.7568, -152.65, -71.0578, 128.453
8.59179, 104, 12.8237, -12.845, 32.2757, -152.543, -71.7679, 128.797
8.5998, 104, 12.7739, -12.1194, 31.7972, -152.432, -72.4801, 129.141
8.60781, 104, 12.7245, -11.3942, 31.3211, -152.317, -73.1927, 129.486
8.61579, 104, 12.6757, -10.6688, 30.8475, -152.197, -73.9055, 129.832
8.62387, 104, 12.627, -9.9433, 30.377, -152.074, -74.6182, 130.178
8.6318, 104, 12.5787, -9.21795, 29.9094, -151.947, -75.331, 130.525
8.63983, 104, 12.531, -8.49192, 29.4447, -151.816, -76.0453, 130.873
8.64789, 104, 12.4837, -7.76556, 28.9835, -151.681, -76.7599, 131.222
8.6558, 104, 12.437, -7.04014, 28.5256, -151.542, -77.4753, 131.572
8.66379, 104, 12.3911, -6.31529, 28.0709, -151.398, -78.1902, 131.923
8.67191, 104, 12.3455, -5.59089, 27.6198, -151.251, -78.9038, 132.276
8.6798, 104, 12.3005, -4.86726, 27.1724, -151.099, -79.6184, 132.629
8.6878, 104, 12.2564, -4.1449, 26.7293, -150.943, -80.3336, 132.984
8.69591, 104, 12.2134, -3.42539, 26.2914, -150.783, -81.0476, 133.339
8.7038, 104, 12.1714, -2.71097, 25.8585, -150.62, -81.7575, 133.696
8.71179, 104, 12.1307, -2.00253, 25.4316, -150.452, -82.4636, 134.052
8.71986, 104, 12.0912, -1.30162, 25.0124, -150.282, -83.1658, 134.407
8.7278, 104, 12.0527, -0.609346, 24.6015, -150.109, -83.8606, 134.76
8.73581, 104, 12.0151, 0.0729389, 24.2005, -149.935, -84.5453, 135.11
8.74386, 104, 11.9785, 0.744363, 23.8101, -149.759, -85.2169, 135.457
8.75183, 104, 11.943, 1.40328, 23.4322, -149.583, -85.8741, 135.797
8.75988, 104, 11.9087, 2.04883, 23.0668, -149.407, -86.5174, 136.133
8.76795, 104, 11.8756, 2.67919, 22.7138, -149.232, -87.1453, 136.462
8.7759, 104, 11.8435, 3.29354, 22.3733, -149.057, -87.7572, 136.784
8.78391, 104, 11.8127, 3.89156, 22.0462, -148.883, -88.3526, 137.099
8.79239, 104, 11.7832, 4.47253, 21.7317, -148.711, -88.9301, 137.408
8.79986, 104, 11.755, 5.03713, 21.4295, -148.539, -89.4906, 137.71
8.80838, 104, 11.7281, 5.58467, 21.1384, -148.37, -90.0359, 138.005
8.8159, 104, 11.7022, 6.11494, 20.8597, -148.203, -90.5648, 138.293
8.82442, 104, 11.6776, 6.62844, 20.5926, -148.038, -91.0774, 138.574
8.83186, 104, 11.654, 7.12505, 20.3371, -147.875, -91.5734, 138.847
8.84019, 104, 11.6317, 7.6048, 20.0932, -147.716, -92.0518, 139.112
8.8468, 104, 11.621, 7.83863, 19.9751, -147.637, -92.2849, 139.242
8.85608, 104, 11.5905, 8.51474, 19.6375, -147.405, -92.9592, 139.621
8.86289, 104, 11.5809, 8.73163, 19.5306, -147.329, -93.1757, 139.743
8.87218, 104, 11.5537, 9.35584, 19.2249, -147.108, -93.7998, 140.097
8.88028, 104, 11.537, 9.75015, 19.0341, -146.966, -94.1947, 140.322
8.88678, 104, 11.529, 9.94053, 18.9428, -146.896, -94.3856, 140.432
8.89633, 104, 11.5068, 10.4839, 18.6847, -146.695, -94.9309, 140.746
8.90438, 104, 11.4932, 10.8221, 18.5253, -146.568, -95.271, 140.944
8.9126, 104, 11.4806, 11.1409, 18.3769, -146.446, -95.5916, 141.13
8.92041, 104, 11.4747, 11.439, 18.2393, -146.331, -95.8917, 141.306
8.92845, 104, 11.4637, 11.5805, 18.1744, -146.223, -96.1711, 141.47
8.93658, 104, 11.4538, 11.8476, 18.0525, -146.172, -96.3027, 141.547
8.94381, 104, 11.4446, 12.0932, 17.9414, -146.075, -96.5499, 141.693
8.95279, 104, 11.4323, 12.4223, 17.7943, -145.944, -96.8794, 141.889
8.95983, 104, 11.4286, 12.5216, 17.7505, -145.905, -96.9782, 141.948
8.96778, 104, 11.4217, 12.7041, 17.6706, -145.832, -97.1593, 142.056
8.97584, 104, 11.4157, 12.8654, 17.6008, -145.768, -97.3185, 142.151
8.98384, 104, 11.4101, 13.0068, 17.5408, -145.713, -97.4557, 142.233
8.99179, 104, 11.4051, 13.1289, 17.4903, -145.666, -97.5717, 142.303
8.99981, 104, 11.4005, 13.2325, 17.4487, -145.627, -97.6671, 142.359
9.00782, 104, 11.3964, 13.3185, 17.4152, -145.596, -97.7438, 142.405
9.01578, 104, 11.3926, 13.3891, 17.3892, -145.572, -97.8028, 142.442
9.0238, 104, 11.3892, 13.4461, 17.3699, -145.553, -97.8464, 142.468
9.03187, 104, 11.3862, 13.4911, 17.356, -145.54, -97.8776, 142.487
9.03979, 104, 11.3838, 13.5251, 17.3467, -145.531, -97.8992, 142.499
9.04779, 104, 11.3818, 13.5504, 17.3408, -145.525, -97.9131, 142.507
9.05583, 104, 11.3803, 13.569, 17.3371, -145.522, -97.9212, 142.511
9.06483, 104, 11.3791, 13.5817, 17.3351, -145.52, -97.9257, 142.514
9.07176, 105, 11.3782, 13.5904, 17.334, -145.519, -97.9278, 142.515
9.07984, 105, 11.3775, 13.5962, 17.3335, -145.519, -97.9288, 142.515
9.08778, 105, 11.3771, 13.6, 17.3333, -145.519, -97.9292, 142.515
9.0958, 105, 11.3767, 13.6026, 17.3332, -145.518, -97.9294, 142.516
9.10383, 105, 11.3764, 13.6048, 17.3331, -145.518, -97.9295, 142.516
9.11178, 105, 11.3762, 13.6066, 17.3331, -145.518, -97.9295, 142.516
9.11981, 105, 11.3761, 13.6082, 17.3331, -145.518, -97.9295, 142.516
9.12783, 105, 11.3759, 13.6096, 17.3331, -145.518, -97.9295, 142.516
9.13578, 105, 11.3758, 13.6108, 17.3331, -145.518, -97.9294, 142.516
9.14382, 105, 11.3757, 13.6118, 17.3331, -145.519, -97.9292, 142.516
9.15186, 105, 11.3757, 13.6127, 17.3331, -145.519, -97.9292, 142.516
9.15979, 105, 11.3756, 13.6133, 17.3331, -145.519, -97.9291, 142.516
9.16779, 105, 11.3756, 13.6137, 17.3332, -145.519, -97.9289, 142.516
9.17583, 105, 11.3756, 13.614, 17.3332, -145.519, -97.9288, 142.516
9.18378, 105, 11.3756, 13.6142, 17.3332, -145.519, -97.9287, 142.516
9.1918, 105, 11.3756, 13.6143, 17.3332, -145.519, -97.9286, 142.516
