hehonglu123/Motion-Primitive-Planning/simulation/robotstudio_sim/scripts/log.csv
timestamp, cmd_num, J1, J2, J3, J4, J5, J6
0, -1, 19.2919, 22.8912, -35.2136, -60.2834, 90.7683, -88.7326
0.002, -1, 19.2919, 22.8912, -35.2136, -60.2834, 90.7683, -88.7326
0.006, -1, 19.2919, 22.8912, -35.2136, -60.2834, 90.7683, -88.7326
0.008, -1, 19.2919, 22.8912, -35.2136, -60.2834, 90.7683, -88.7326
0.011, -1, 19.2919, 22.8912, -35.2136, -60.2834, 90.7683, -88.7326
0.016, -1, 19.2919, 22.8912, -35.2136, -60.2834, 90.7683, -88.7326
0.02, -1, 19.2919, 22.8912, -35.2136, -60.2834, 90.7683, -88.7326
0.024, -1, 19.2919, 22.8912, -35.2136, -60.2834, 90.7683, -88.7326
0.028, -1, 19.2919, 22.8912, -35.2136, -60.2834, 90.7683, -88.7326
0.032, -1, 19.2919, 22.8912, -35.2136, -60.2834, 90.7683, -88.7326
0.036, -1, 19.2918, 22.8912, -35.2136, -60.2834, 90.7682, -88.7326
0.04, -1, 19.2916, 22.8911, -35.2136, -60.2833, 90.7682, -88.7326
0.044, -1, 19.2911, 22.8908, -35.2137, -60.2832, 90.7682, -88.7325
0.048, -1, 19.2901, 22.8903, -35.2138, -60.2827, 90.7679, -88.7323
0.052, -1, 19.2885, 22.8894, -35.214, -60.2816, 90.7674, -88.7317
0.056, -1, 19.2862, 22.888, -35.2141, -60.2792, 90.7662, -88.7304
0.06, -1, 19.2832, 22.886, -35.2141, -60.2748, 90.764, -88.728
0.064, -1, 19.2794, 22.8831, -35.2139, -60.2673, 90.7602, -88.7239
0.068, -1, 19.2749, 22.8793, -35.2132, -60.2553, 90.754, -88.7173
0.072, -1, 19.2694, 22.8742, -35.2118, -60.237, 90.7446, -88.7072
0.076, -1, 19.2629, 22.8676, -35.2095, -60.2104, 90.7309, -88.6925
0.08, -1, 19.2552, 22.8592, -35.2059, -60.1732, 90.7116, -88.6719
0.084, -1, 19.2462, 22.8487, -35.2006, -60.1226, 90.6854, -88.6438
0.088, -1, 19.2358, 22.8359, -35.1932, -60.0556, 90.6507, -88.6065
0.092, -1, 19.2238, 22.8204, -35.1832, -59.9691, 90.6058, -88.5583
0.096, -1, 19.2102, 22.802, -35.1699, -59.8596, 90.5488, -88.4973
0.1, -1, 19.195, 22.7805, -35.153, -59.7237, 90.4782, -88.4215
0.104, -1, 19.1781, 22.7555, -35.1318, -59.5583, 90.392, -88.3292
0.108, -1, 19.1592, 22.7268, -35.106, -59.36, 90.2887, -88.2185
0.112, -1, 19.1384, 22.6941, -35.075, -59.1261, 90.1669, -88.0878
0.116, -1, 19.1157, 22.6572, -35.0385, -58.8541, 90.025, -87.9358
0.12, -1, 19.0911, 22.6161, -34.9961, -58.5418, 89.8621, -87.7612
0.124, -1, 19.0647, 22.5708, -34.9475, -58.1877, 89.6774, -87.5632
0.128, -1, 19.0366, 22.5213, -34.8925, -57.7911, 89.4704, -87.3413
0.131, -1, 19.0069, 22.4677, -34.8311, -57.3519, 89.2411, -87.0956
0.136, -1, 18.9754, 22.41, -34.7635, -56.871, 88.99, -86.8265
0.139, -1, 18.9422, 22.3484, -34.69, -56.35, 88.7179, -86.5349
0.144, -1, 18.9071, 22.2827, -34.6109, -55.7911, 88.426, -86.2221
0.148, -1, 18.8701, 22.2133, -34.5268, -55.1973, 88.1159, -85.8897
0.152, -1, 18.8313, 22.1403, -34.4382, -54.5717, 87.7892, -85.5395
0.156, -1, 18.7909, 22.064, -34.3456, -53.918, 87.4477, -85.1736
0.16, -1, 18.7489, 21.9848, -34.2497, -53.2398, 87.0935, -84.794
0.164, -1, 18.7057, 21.9029, -34.1509, -52.5408, 86.7284, -84.4028
0.168, -1, 18.6611, 21.8185, -34.0499, -51.8248, 86.3545, -84.002
0.172, -1, 18.615, 21.732, -33.9472, -51.0952, 85.9735, -83.5937
0.176, -1, 18.5674, 21.6436, -33.8433, -50.355, 85.587, -83.1795
0.18, -1, 18.5184, 21.5535, -33.7387, -49.6071, 85.1964, -82.761
0.184, -1, 18.4678, 21.462, -33.6335, -48.8535, 84.803, -82.3394
0.188, -1, 18.4159, 21.3693, -33.5281, -48.0959, 84.4075, -81.9155
0.192, -1, 18.3629, 21.2758, -33.4225, -47.3356, 84.0107, -81.4902
0.196, -1, 18.3091, 21.1817, -33.3168, -46.5735, 83.6129, -81.0639
0.2, -1, 18.2548, 21.0872, -33.211, -45.8101, 83.2144, -80.6368
0.204, -1, 18.2001, 20.9924, -33.1051, -45.0458, 82.8155, -80.2093
0.208, -1, 18.1452, 20.8974, -32.9993, -44.2809, 82.4163, -79.7814
0.212, -1, 18.0901, 20.8023, -32.8934, -43.5157, 82.0168, -79.3534
0.216, -1, 18.035, 20.7071, -32.7874, -42.7502, 81.6173, -78.9252
0.22, -1, 17.9797, 20.6119, -32.6815, -41.9845, 81.2177, -78.4969
0.224, -1, 17.9244, 20.5166, -32.5756, -41.2187, 80.8179, -78.0685
0.228, -1, 17.869, 20.4213, -32.4697, -40.4527, 80.4182, -77.6401
0.232, -1, 17.8136, 20.3259, -32.3637, -39.6868, 80.0184, -77.2116
0.236, -1, 17.7582, 20.2306, -32.2578, -38.9208, 79.6186, -76.7831
0.24, -1, 17.7028, 20.1352, -32.1518, -38.1548, 79.2188, -76.3547
0.244, -1, 17.6474, 20.0399, -32.0459, -37.3887, 78.819, -75.9262
0.248, -1, 17.5919, 19.9445, -31.9399, -36.6227, 78.4192, -75.4977
0.252, -1, 17.5365, 19.8491, -31.834, -35.8566, 78.0194, -75.0692
0.256, -1, 17.4811, 19.7538, -31.728, -35.0905, 77.6195, -74.6406
0.26, -1, 17.4257, 19.6584, -31.6221, -34.3245, 77.2197, -74.2121
0.264, -1, 17.3702, 19.5631, -31.5161, -33.5584, 76.8199, -73.7836
0.268, -1, 17.3148, 19.4677, -31.4102, -32.7923, 76.42, -73.3551
0.272, -1, 17.2594, 19.3723, -31.3042, -32.0263, 76.0202, -72.9266
0.276, -1, 17.2039, 19.277, -31.1983, -31.2602, 75.6204, -72.4981
0.28, -1, 17.1485, 19.1816, -31.0923, -30.4941, 75.2205, -72.0696
0.284, -1, 17.093, 19.0862, -30.9864, -29.728, 74.8207, -71.6411
0.288, -1, 17.0376, 18.9909, -30.8804, -28.9619, 74.4209, -71.2125
0.292, -1, 16.9822, 18.8955, -30.7745, -28.1959, 74.021, -70.784
0.296, -1, 16.9267, 18.8002, -30.6685, -27.4298, 73.6212, -70.3555
0.3, -1, 16.8713, 18.7048, -30.5626, -26.6637, 73.2214, -69.927
0.304, -1, 16.8158, 18.6094, -30.4566, -25.8976, 72.8215, -69.4985
0.308, -1, 16.7604, 18.5141, -30.3507, -25.1316, 72.4217, -69.07
0.312, -1, 16.7049, 18.4187, -30.2447, -24.3655, 72.0219, -68.6414
0.316, -1, 16.6494, 18.3234, -30.1388, -23.5994, 71.622, -68.2129
0.32, -1, 16.594, 18.228, -30.0328, -22.8333, 71.2222, -67.7844
0.324, -1, 16.5385, 18.1326, -29.9269, -22.0672, 70.8224, -67.3559
0.328, -1, 16.4831, 18.0373, -29.8209, -21.3012, 70.4225, -66.9274
0.332, -1, 16.4277, 17.9419, -29.715, -20.5351, 70.0227, -66.4989
0.336, -1, 16.3722, 17.8466, -29.609, -19.769, 69.6229, -66.0704
0.34, -1, 16.3168, 17.7512, -29.5031, -19.0029, 69.223, -65.6418
0.344, -1, 16.2613, 17.6559, -29.3971, -18.2369, 68.8232, -65.2133
0.348, -1, 16.2059, 17.5605, -29.2912, -17.4708, 68.4234, -64.7848
0.352, -1, 16.1504, 17.4651, -29.1852, -16.7047, 68.0235, -64.3563
0.356, -1, 16.0949, 17.3698, -29.0793, -15.9386, 67.6237, -63.9278
0.36, -1, 16.0395, 17.2744, -28.9733, -15.1725, 67.2239, -63.4993
0.364, -1, 15.984, 17.1791, -28.8674, -14.4065, 66.824, -63.0708
0.368, -1, 15.9286, 17.0837, -28.7614, -13.6404, 66.4242, -62.6422
0.372, -1, 15.8731, 16.9884, -28.6555, -12.8743, 66.0244, -62.2137
0.376, -1, 15.8176, 16.893, -28.5495, -12.1082, 65.6245, -61.7852
0.38, -1, 15.7622, 16.7977, -28.4436, -11.3422, 65.2247, -61.3567
0.384, -1, 15.7067, 16.7023, -28.3376, -10.5761, 64.8249, -60.9282
0.388, -1, 15.6513, 16.607, -28.2317, -9.81, 64.425, -60.4997
0.392, -1, 15.5958, 16.5116, -28.1257, -9.04392, 64.0252, -60.0711
0.396, -1, 15.5404, 16.4163, -28.0197, -8.27784, 63.6254, -59.6426
0.4, -1, 15.4849, 16.3209, -27.9138, -7.51176, 63.2255, -59.2141
0.404, -1, 15.4295, 16.2256, -27.8078, -6.74569, 62.8257, -58.7856
0.408, -1, 15.374, 16.1302, -27.7019, -5.97961, 62.4259, -58.3571
0.412, -1, 15.3186, 16.0349, -27.5959, -5.21353, 62.0261, -57.9286
0.416, -1, 15.2631, 15.9395, -27.49, -4.44745, 61.6262, -57.5001
0.42, -1, 15.2076, 15.8442, -27.384, -3.68137, 61.2264, -57.0715
0.424, -1, 15.1522, 15.7488, -27.2781, -2.91529, 60.8266, -56.643
0.428, -1, 15.0967, 15.6535, -27.1721, -2.14922, 60.4267, -56.2145
0.432, -1, 15.0413, 15.5582, -27.0661, -1.38314, 60.0269, -55.786
0.436, -1, 14.9858, 15.4628, -26.9602, -0.61706, 59.6271, -55.3575
0.44, -1, 14.9303, 15.3675, -26.8542, 0.149018, 59.2272, -54.929
0.444, -1, 14.8748, 15.2721, -26.7483, 0.915096, 58.8274, -54.5004
0.448, -1, 14.8193, 15.1768, -26.6423, 1.68117, 58.4276, -54.0719
0.452, -1, 14.7639, 15.0814, -26.5364, 2.44725, 58.0277, -53.6434
0.456, -1, 14.7084, 14.9861, -26.4304, 3.21333, 57.6279, -53.2149
0.46, -1, 14.653, 14.8907, -26.3244, 3.97941, 57.2281, -52.7864
0.464, -1, 14.5975, 14.7954, -26.2185, 4.74549, 56.8283, -52.3579
0.468, -1, 14.542, 14.7001, -26.1125, 5.51157, 56.4284, -51.9294
0.472, -1, 14.4866, 14.6047, -26.0066, 6.27765, 56.0286, -51.5008
0.476, -1, 14.4311, 14.5094, -25.9006, 7.04372, 55.6288, -51.0723
0.48, -1, 14.3757, 14.414, -25.7946, 7.8098, 55.2289, -50.6438
0.484, -1, 14.3202, 14.3187, -25.6887, 8.57587, 54.8291, -50.2153
0.488, -1, 14.2649, 14.2235, -25.5827, 9.3419, 54.4293, -49.7868
0.492, -1, 14.2096, 14.1283, -25.4767, 10.1078, 54.0295, -49.3584
0.496, -1, 14.1545, 14.0333, -25.3707, 10.8736, 53.6299, -48.93
0.5, -1, 14.0996, 13.9384, -25.2648, 11.639, 53.2304, -48.5019
0.504, -1, 14.0448, 13.8437, -25.1588, 12.4038, 52.8313, -48.0741
0.508, -1, 13.9902, 13.7493, -25.053, 13.1676, 52.4326, -47.6468
0.512, -1, 13.9359, 13.6552, -24.9474, 13.9301, 52.0347, -47.2203
0.516, -1, 13.8817, 13.5613, -24.842, 14.6907, 51.6376, -46.7948
0.52, -1, 13.8277, 13.4678, -24.7369, 15.4491, 51.2419, -46.3706
0.524, -1, 13.7738, 13.3747, -24.6321, 16.2045, 50.8476, -45.9479
0.528, -1, 13.7203, 13.282, -24.5279, 16.9566, 50.4551, -45.5273
0.532, -1, 13.6669, 13.1897, -24.4242, 17.7046, 50.0646, -45.1088
0.536, -1, 13.6138, 13.098, -24.3212, 18.4482, 49.6766, -44.6929
0.54, -1, 13.561, 13.0068, -24.2189, 19.1867, 49.2911, -44.2797
0.544, -1, 13.5084, 12.9162, -24.1173, 19.9198, 48.9085, -43.8697
0.548, -1, 13.4561, 12.8261, -24.0166, 20.647, 48.529, -43.4629
0.552, -1, 13.4041, 12.7366, -23.9168, 21.3682, 48.1526, -43.0595
0.556, -1, 13.3524, 12.6478, -23.8179, 22.0831, 47.7795, -42.6596
0.56, -1, 13.3011, 12.5597, -23.7199, 22.7917, 47.4097, -42.2632
0.564, -1, 13.2501, 12.4722, -23.6228, 23.4939, 47.0432, -41.8704
0.568, -1, 13.1996, 12.3855, -23.5266, 24.1899, 46.68, -41.4811
0.572, -1, 13.1494, 12.2995, -23.4313, 24.8796, 46.32, -41.0953
0.576, -1, 13.0997, 12.2142, -23.3368, 25.5633, 45.9632, -40.7129
0.58, -1, 13.0504, 12.1296, -23.2431, 26.2411, 45.6094, -40.3338
0.584, -1, 13.0015, 12.0457, -23.1502, 26.9131, 45.2587, -39.9579
0.588, -1, 12.953, 11.9626, -23.0581, 27.5795, 44.9109, -39.5851
0.592, -1, 12.9049, 11.8801, -22.9667, 28.2405, 44.5659, -39.2154
0.596, -1, 12.8572, 11.7983, -22.8761, 28.8962, 44.2237, -38.8487
0.6, -1, 12.8099, 11.7171, -22.7862, 29.5467, 43.8842, -38.4848
0.604, -1, 12.7629, 11.6365, -22.6969, 30.1923, 43.5473, -38.1237
0.608, -1, 12.7163, 11.5566, -22.6084, 30.833, 43.2129, -37.7653
0.612, -1, 12.6701, 11.4772, -22.5205, 31.4691, 42.8809, -37.4095
0.616, -1, 12.6242, 11.3984, -22.4332, 32.1006, 42.5513, -37.0563
0.62, -1, 12.5786, 11.3202, -22.3465, 32.7277, 42.224, -36.7055
0.624, -1, 12.5333, 11.2425, -22.2604, 33.3505, 41.899, -36.3571
0.628, -1, 12.4883, 11.1654, -22.1748, 33.9692, 41.5761, -36.0111
0.632, -1, 12.4437, 11.0887, -22.0899, 34.5838, 41.2554, -35.6673
0.636, -1, 12.3993, 11.0125, -22.0055, 35.1944, 40.9366, -35.3257
0.64, -1, 12.3552, 10.9368, -21.9216, 35.8013, 40.6199, -34.9863
0.644, -1, 12.3114, 10.8616, -21.8382, 36.4044, 40.3051, -34.6489
0.648, -1, 12.2679, 10.7869, -21.7553, 37.0039, 39.9922, -34.3136
0.652, -1, 12.2246, 10.7126, -21.6729, 37.5999, 39.6812, -33.9802
0.656, -1, 12.1816, 10.6387, -21.591, 38.1925, 39.3719, -33.6488
0.66, -1, 12.1388, 10.5652, -21.5095, 38.7818, 39.0644, -33.3192
0.664, -1, 12.0963, 10.4922, -21.4285, 39.3678, 38.7585, -32.9914
0.668, -1, 12.054, 10.4195, -21.3479, 39.9506, 38.4544, -32.6654
0.672, -1, 12.0119, 10.3473, -21.2677, 40.5303, 38.1518, -32.3411
0.676, -1, 11.97, 10.2754, -21.188, 41.107, 37.8508, -32.0185
0.68, -1, 11.9284, 10.2039, -21.1086, 41.6807, 37.5514, -31.6976
0.684, -1, 11.887, 10.1327, -21.0297, 42.2516, 37.2534, -31.3783
0.688, -1, 11.8458, 10.0619, -20.9512, 42.8196, 36.957, -31.0606
0.692, -1, 11.8048, 9.9915, -20.873, 43.3849, 36.662, -30.7444
0.696, -1, 11.764, 9.9214, -20.7952, 43.9475, 36.3683, -30.4297
0.7, -1, 11.7234, 9.85161, -20.7178, 44.5074, 36.0761, -30.1165
0.704, -1, 11.6829, 9.78215, -20.6407, 45.0648, 35.7852, -29.8047
0.708, -1, 11.6427, 9.713, -20.564, 45.6197, 35.4956, -29.4943
0.712, -1, 11.6026, 9.64416, -20.4876, 46.1721, 35.2073, -29.1853
0.716, -1, 11.5627, 9.57561, -20.4115, 46.7222, 34.9202, -28.8776
0.72, -1, 11.523, 9.50736, -20.3358, 47.2699, 34.6343, -28.5713
0.724, -1, 11.4835, 9.4394, -20.2604, 47.8153, 34.3497, -28.2662
0.728, -1, 11.4441, 9.37172, -20.1852, 48.3585, 34.0662, -27.9624
0.732, -1, 11.4049, 9.30431, -20.1104, 48.8995, 33.7838, -27.6597
0.736, -1, 11.3658, 9.23717, -20.0359, 49.4384, 33.5025, -27.3583
0.74, -1, 11.3269, 9.17029, -19.9617, 49.9753, 33.2224, -27.058
0.744, -1, 11.2881, 9.10366, -19.8877, 50.51, 32.9433, -26.7589
0.748, -1, 11.2495, 9.03729, -19.814, 51.0428, 32.6652, -26.4609
0.752, -1, 11.211, 8.97116, -19.7406, 51.5737, 32.3881, -26.1639
0.756, -1, 11.1727, 8.90526, -19.6675, 52.1026, 32.1121, -25.8681
0.76, -1, 11.1345, 8.8396, -19.5946, 52.6297, 31.837, -25.5732
0.764, -1, 11.0964, 8.77417, -19.5219, 53.1549, 31.5629, -25.2794
0.768, -1, 11.0585, 8.70896, -19.4495, 53.6784, 31.2897, -24.9866
0.772, -1, 11.0206, 8.64397, -19.3774, 54.2001, 31.0174, -24.6948
0.776, -1, 10.9829, 8.5792, -19.3055, 54.7201, 30.746, -24.404
0.78, -1, 10.9454, 8.51463, -19.2338, 55.2384, 30.4755, -24.114
0.784, -1, 10.9079, 8.45027, -19.1623, 55.7551, 30.2058, -23.825
0.788, -1, 10.8706, 8.3861, -19.0911, 56.2702, 29.937, -23.5369
0.792, -1, 10.8334, 8.32214, -19.0201, 56.7837, 29.669, -23.2497
0.796, -1, 10.7963, 8.25836, -18.9493, 57.2957, 29.4017, -22.9633
0.8, -1, 10.7593, 8.19478, -18.8787, 57.8062, 29.1353, -22.6777
0.804, -1, 10.7224, 8.13138, -18.8083, 58.3152, 28.8697, -22.393
0.808, -1, 10.6856, 8.06816, -18.7381, 58.8227, 28.6047, -22.1091
0.812, -1, 10.6489, 8.00511, -18.6681, 59.3289, 28.3406, -21.826
0.816, -1, 10.6124, 7.94224, -18.5983, 59.8337, 28.0771, -21.5436
0.82, -1, 10.5759, 7.87954, -18.5286, 60.3372, 27.8143, -21.262
0.824, -1, 10.5395, 7.817, -18.4592, 60.8393, 27.5523, -20.9811
0.828, -1, 10.5032, 7.75462, -18.3899, 61.3401, 27.2909, -20.701
0.832, -1, 10.467, 7.69241, -18.3208, 61.8397, 27.0302, -20.4215
0.836, -1, 10.4309, 7.63035, -18.2519, 62.338, 26.7701, -20.1428
0.84, -1, 10.3949, 7.56844, -18.1832, 62.8351, 26.5106, -19.8647
0.844, -1, 10.359, 7.50668, -18.1146, 63.331, 26.2518, -19.5874
0.848, -1, 10.3232, 7.44506, -18.0461, 63.8258, 25.9936, -19.3106
0.852, -1, 10.2874, 7.38359, -17.9779, 64.3194, 25.736, -19.0345
0.856, -1, 10.2518, 7.32226, -17.9098, 64.8118, 25.479, -18.759
0.86, -1, 10.2162, 7.26107, -17.8418, 65.3032, 25.2225, -18.4842
0.864, -1, 10.1807, 7.20001, -17.774, 65.7935, 24.9666, -18.2099
0.868, -1, 10.1452, 7.13908, -17.7063, 66.2828, 24.7113, -17.9363
0.872, -1, 10.1099, 7.07828, -17.6388, 66.771, 24.4564, -17.6632
0.876, -1, 10.0746, 7.0176, -17.5714, 67.2582, 24.2022, -17.3907
0.88, -1, 10.0394, 6.95705, -17.5042, 67.7444, 23.9484, -17.1187
0.884, -1, 10.0042, 6.89662, -17.437, 68.2297, 23.6951, -16.8472
0.888, -1, 9.96918, 6.83631, -17.3701, 68.714, 23.4424, -16.5763
0.892, -1, 9.93418, 6.77611, -17.3032, 69.1974, 23.1901, -16.3059
0.896, -1, 9.89925, 6.71602, -17.2365, 69.6799, 22.9382, -16.0361
0.9, -1, 9.86438, 6.65604, -17.1699, 70.1615, 22.6869, -15.7667
0.904, -1, 9.82957, 6.59618, -17.1034, 70.6422, 22.436, -15.4978
0.908, -1, 9.79483, 6.53641, -17.037, 71.1222, 22.1855, -15.2293
0.912, -1, 9.76014, 6.47676, -16.9707, 71.6012, 21.9355, -14.9613
0.916, -1, 9.72552, 6.4172, -16.9046, 72.0795, 21.6858, -14.6938
0.92, -1, 9.69096, 6.35774, -16.8385, 72.557, 21.4366, -14.4267
0.924, -1, 9.65645, 6.29837, -16.7726, 73.0338, 21.1878, -14.16
0.928, -1, 9.62199, 6.2391, -16.7068, 73.5097, 20.9394, -13.8938
0.932, -1, 9.58759, 6.17993, -16.641, 73.985, 20.6913, -13.628
0.936, -1, 9.55324, 6.12084, -16.5754, 74.4595, 20.4437, -13.3625
0.94, -1, 9.51895, 6.06184, -16.5099, 74.9333, 20.1964, -13.0975
0.944, -1, 9.4847, 6.00292, -16.4444, 75.4065, 19.9494, -12.8328
0.948, -1, 9.45051, 5.94409, -16.3791, 75.879, 19.7028, -12.5685
0.952, -1, 9.41636, 5.88534, -16.3138, 76.3508, 19.4566, -12.3046
0.956, -1, 9.38226, 5.82667, -16.2486, 76.822, 19.2107, -12.0411
0.96, -1, 9.3482, 5.76808, -16.1836, 77.2925, 18.9651, -11.7779
0.964, -1, 9.31419, 5.70957, -16.1186, 77.7624, 18.7198, -11.515
0.968, -1, 9.28022, 5.65112, -16.0536, 78.2318, 18.4749, -11.2525
0.972, -1, 9.2463, 5.59276, -15.9888, 78.7006, 18.2302, -10.9903
0.976, -1, 9.21242, 5.53446, -15.924, 79.1688, 17.9858, -10.7284
0.98, -1, 9.17857, 5.47622, -15.8594, 79.6364, 17.7418, -10.4668
0.984, -1, 9.14477, 5.41806, -15.7948, 80.1036, 17.498, -10.2055
0.988, -1, 9.111, 5.35996, -15.7302, 80.5702, 17.2544, -9.94447
0.992, -1, 9.07728, 5.30192, -15.6657, 81.0363, 17.0112, -9.68376
0.996, -1, 9.04358, 5.24395, -15.6013, 81.5019, 16.7682, -9.42332
1, -1, 9.00992, 5.18603, -15.537, 81.967, 16.5254, -9.16314
1.004, -1, 8.9763, 5.12817, -15.4727, 82.4317, 16.2829, -8.90322
1.008, -1, 8.94271, 5.07037, -15.4085, 82.8959, 16.0406, -8.64355
1.012, -1, 8.90915, 5.01262, -15.3444, 83.3597, 15.7985, -8.38413
1.016, -1, 8.87562, 4.95492, -15.2803, 83.8231, 15.5567, -8.12494
1.02, -1, 8.84213, 4.89728, -15.2163, 84.286, 15.3151, -7.86598
1.024, -1, 8.80866, 4.83969, -15.1523, 84.7486, 15.0737, -7.60724
1.027, -1, 8.77522, 4.78214, -15.0884, 85.2108, 14.8324, -7.34871
1.032, -1, 8.74181, 4.72464, -15.0245, 85.6726, 14.5914, -7.09039
1.036, -1, 8.70842, 4.66719, -14.9607, 86.134, 14.3506, -6.83227
1.04, -1, 8.67506, 4.60977, -14.8969, 86.5951, 14.1099, -6.57435
1.044, -1, 8.64172, 4.5524, -14.8331, 87.0559, 13.8694, -6.31661
1.048, -1, 8.60841, 4.49507, -14.7695, 87.5164, 13.6291, -6.05905
1.052, -1, 8.57512, 4.43778, -14.7058, 87.9765, 13.389, -5.80167
1.055, -1, 8.54186, 4.38053, -14.6422, 88.4363, 13.149, -5.54445
1.06, -1, 8.50861, 4.32331, -14.5786, 88.8959, 12.9091, -5.2874
1.064, -1, 8.47539, 4.26613, -14.5151, 89.3552, 12.6694, -5.0305
1.068, -1, 8.44219, 4.20898, -14.4516, 89.8142, 12.4298, -4.77375
1.072, -1, 8.409, 4.15187, -14.3882, 90.2729, 12.1904, -4.51714
1.076, -1, 8.37583, 4.09478, -14.3248, 90.7314, 11.9511, -4.26067
1.08, -1, 8.34268, 4.03772, -14.2614, 91.1897, 11.7119, -4.00434
1.084, -1, 8.30955, 3.98069, -14.198, 91.6477, 11.4729, -3.74812
1.088, -1, 8.27643, 3.92369, -14.1347, 92.1056, 11.2339, -3.49203
1.091, -1, 8.24332, 3.86671, -14.0714, 92.5632, 10.9951, -3.23604
1.096, -1, 8.21023, 3.80975, -14.0081, 93.0207, 10.7563, -2.98016
1.1, -1, 8.17715, 3.75282, -13.9449, 93.4779, 10.5177, -2.72438
1.104, -1, 8.14409, 3.6959, -13.8817, 93.935, 10.2791, -2.4687
1.108, -1, 8.11103, 3.63901, -13.8185, 94.392, 10.0406, -2.2131
1.112, -1, 8.07799, 3.58213, -13.7553, 94.8488, 9.80219, -1.95758
1.116, -1, 8.04496, 3.52527, -13.6921, 95.3055, 9.56385, -1.70213
1.119, -1, 8.01193, 3.46843, -13.629, 95.762, 9.32556, -1.44676
1.124, -1, 7.97892, 3.4116, -13.5658, 96.2185, 9.08734, -1.19144
1.128, -1, 7.94591, 3.35478, -13.5027, 96.6748, 8.84917, -0.936182
1.132, -1, 7.91291, 3.29798, -13.4396, 97.1311, 8.61105, -0.680976
1.136, -1, 7.87992, 3.24119, -13.3765, 97.5872, 8.37297, -0.425816
1.14, -1, 7.84693, 3.1844, -13.3134, 98.0433, 8.13493, -0.170698
1.144, -1, 7.81395, 3.12763, -13.2503, 98.4993, 7.89692, 0.084385
1.147, -1, 7.78097, 3.07086, -13.1873, 98.9553, 7.65894, 0.339437
1.152, -1, 7.748, 3.0141, -13.1242, 99.4112, 7.42099, 0.594462
1.156, -1, 7.71503, 2.95734, -13.0612, 99.8671, 7.18305, 0.849467
1.16, -1, 7.68206, 2.90058, -12.9981, 100.323, 6.94514, 1.10446
1.164, -1, 7.64909, 2.84383, -12.9351, 100.779, 6.70723, 1.35943
1.168, -1, 7.61613, 2.78708, -12.872, 101.235, 6.46932, 1.6144
1.172, -1, 7.58316, 2.73033, -12.809, 101.69, 6.23142, 1.86937
1.175, -1, 7.55019, 2.67358, -12.7459, 102.146, 5.99352, 2.12435
1.18, -1, 7.51722, 2.61682, -12.6829, 102.602, 5.7556, 2.37933
1.184, -1, 7.48424, 2.56006, -12.6198, 103.058, 5.51767, 2.63434
1.188, -1, 7.45127, 2.5033, -12.5567, 103.514, 5.27972, 2.88936
1.192, -1, 7.41829, 2.44653, -12.4937, 103.97, 5.04175, 3.1444
1.196, -1, 7.38531, 2.38975, -12.4306, 104.426, 4.80374, 3.39949
1.2, -1, 7.35232, 2.33296, -12.3675, 104.882, 4.5657, 3.6546
1.204, -1, 7.31933, 2.27617, -12.3044, 105.338, 4.32762, 3.90977
1.208, -1, 7.28633, 2.21936, -12.2413, 105.794, 4.08949, 4.16498
1.212, -1, 7.25332, 2.16254, -12.1782, 106.251, 3.85132, 4.42024
1.216, -1, 7.22031, 2.10571, -12.1151, 106.707, 3.61308, 4.67557
1.22, -1, 7.18729, 2.04887, -12.0519, 107.164, 3.37479, 4.93096
1.224, -1, 7.15426, 1.99201, -11.9887, 107.621, 3.13643, 5.18642
1.228, -1, 7.12123, 1.93513, -11.9255, 108.077, 2.898, 5.44195
1.232, -1, 7.08818, 1.87824, -11.8623, 108.534, 2.6595, 5.69756
1.236, -1, 7.05512, 1.82133, -11.7991, 108.991, 2.42092, 5.95326
1.24, -1, 7.02206, 1.7644, -11.7359, 109.449, 2.18226, 6.20905
1.244, -1, 6.98898, 1.70745, -11.6726, 109.906, 1.94351, 6.46492
1.248, -1, 6.95588, 1.65047, -11.6093, 110.364, 1.70467, 6.7209
1.252, -1, 6.92278, 1.59348, -11.546, 110.822, 1.46574, 6.97697
1.256, -1, 6.88966, 1.53646, -11.4826, 111.28, 1.22671, 7.23315
1.26, -1, 6.85652, 1.47942, -11.4193, 111.738, 0.987577, 7.48944
1.264, -1, 6.82338, 1.42235, -11.3558, 112.196, 0.748336, 7.74585
1.267, -1, 6.79021, 1.36525, -11.2924, 112.655, 0.508984, 8.00237
1.272, -1, 6.75704, 1.30813, -11.229, 113.114, 0.269518, 8.25902
1.276, -1, 6.72385, 1.25098, -11.1655, 113.573, 0.0299321, 8.51579
1.28, -1, 6.69064, 1.1938, -11.1019, 114.032, -0.209776, 8.7727
1.284, -1, 6.65741, 1.13658, -11.0384, 114.491, -0.449612, 9.02974
1.288, -1, 6.62416, 1.07934, -10.9748, 114.951, -0.68958, 9.28693
1.292, -1, 6.5909, 1.02206, -10.9111, 115.411, -0.929683, 9.54426
1.295, -1, 6.55761, 0.964755, -10.8475, 115.872, -1.16993, 9.80174
1.3, -1, 6.5243, 0.90741, -10.7838, 116.332, -1.41032, 10.0594
1.304, -1, 6.49098, 0.850031, -10.72, 116.793, -1.65085, 10.3172
1.308, -1, 6.45763, 0.792614, -10.6562, 117.254, -1.89155, 10.5751
1.312, -1, 6.42426, 0.735159, -10.5924, 117.716, -2.13239, 10.8333
1.316, -1, 6.39086, 0.677666, -10.5285, 118.177, -2.37341, 11.0916
1.32, -1, 6.35745, 0.620133, -10.4646, 118.64, -2.61459, 11.35
1.324, -1, 6.32401, 0.56256, -10.4007, 119.102, -2.85594, 11.6087
1.328, -1, 6.29054, 0.504945, -10.3366, 119.565, -3.09746, 11.8676
1.332, -1, 6.25706, 0.447288, -10.2726, 120.028, -3.33917, 12.1266
1.336, -1, 6.22355, 0.389588, -10.2085, 120.491, -3.58106, 12.3859
1.34, -1, 6.19001, 0.331843, -10.1443, 120.955, -3.82314, 12.6453
1.344, -1, 6.15645, 0.274053, -10.0801, 121.419, -4.06541, 12.905
1.348, -1, 6.12286, 0.216216, -10.0159, 121.884, -4.30787, 13.1648
1.352, -1, 6.08924, 0.158332, -9.95156, 122.349, -4.55053, 13.4249
1.356, -1, 6.05559, 0.100401, -9.8872, 122.814, -4.7934, 13.6852
1.36, -1, 6.02191, 0.0424199, -9.82278, 123.28, -5.03647, 13.9457
1.364, -1, 5.98821, -0.0156105, -9.75831, 123.746, -5.27974, 14.2064
1.368, -1, 5.95448, -0.0736916, -9.69378, 124.213, -5.52323, 14.4674
1.372, -1, 5.92072, -0.131824, -9.62919, 124.68, -5.76694, 14.7286
1.376, -1, 5.88693, -0.19001, -9.56455, 125.147, -6.01087, 14.99
1.38, -1, 5.8531, -0.248249, -9.49984, 125.615, -6.25502, 15.2517
1.384, -1, 5.81925, -0.306543, -9.43508, 126.083, -6.49939, 15.5136
1.388, -1, 5.78537, -0.364892, -9.37025, 126.552, -6.744, 15.7757
1.392, -1, 5.75145, -0.423298, -9.30537, 127.021, -6.98884, 16.0381
1.396, -1, 5.71749, -0.48176, -9.24042, 127.49, -7.23392, 16.3008
1.4, -1, 5.68351, -0.54028, -9.1754, 127.96, -7.47924, 16.5637
1.404, -1, 5.64949, -0.598858, -9.11032, 128.431, -7.72481, 16.8269
1.408, -1, 5.61543, -0.657496, -9.04518, 128.902, -7.97063, 17.0904
1.412, -1, 5.58134, -0.716195, -8.97997, 129.373, -8.2167, 17.3541
1.416, -1, 5.54721, -0.774956, -8.91469, 129.845, -8.46303, 17.6181
1.42, -1, 5.51305, -0.833778, -8.84933, 130.318, -8.70962, 17.8824
1.424, -1, 5.47885, -0.892664, -8.78391, 130.791, -8.95648, 18.1469
1.428, -1, 5.44461, -0.951613, -8.71842, 131.264, -9.20361, 18.4118
1.432, -1, 5.41034, -1.01063, -8.65286, 131.738, -9.45101, 18.6769
1.436, -1, 5.37603, -1.06971, -8.58722, 132.213, -9.69869, 18.9424
1.44, -1, 5.34168, -1.12885, -8.52151, 132.688, -9.94664, 19.2081
1.444, -1, 5.30729, -1.18806, -8.45572, 133.164, -10.1949, 19.4742
1.448, -1, 5.27286, -1.24734, -8.38986, 133.64, -10.4434, 19.7405
1.452, -1, 5.2384, -1.30669, -8.32392, 134.116, -10.6922, 20.0072
1.456, -1, 5.20389, -1.36611, -8.2579, 134.594, -10.9413, 20.2742
1.46, -1, 5.16934, -1.4256, -8.19181, 135.072, -11.1907, 20.5415
1.464, -1, 5.13475, -1.48516, -8.12563, 135.55, -11.4404, 20.8091
1.468, -1, 5.10012, -1.54479, -8.05938, 136.029, -11.6904, 21.077
1.472, -1, 5.06545, -1.60449, -7.99305, 136.509, -11.9407, 21.3453
1.476, -1, 5.03074, -1.66426, -7.92664, 136.989, -12.1913, 21.6138
1.48, -1, 4.99599, -1.72411, -7.86014, 137.469, -12.4422, 21.8828
1.484, -1, 4.96119, -1.78404, -7.79357, 137.951, -12.6934, 22.152
1.488, -1, 4.92635, -1.84403, -7.72691, 138.433, -12.9449, 22.4216
1.492, -1, 4.89146, -1.90411, -7.66017, 138.915, -13.1968, 22.6915
1.496, -1, 4.85653, -1.96426, -7.59334, 139.398, -13.449, 22.9617
1.5, -1, 4.82155, -2.02448, -7.52643, 139.882, -13.7014, 23.2323
1.504, -1, 4.78652, -2.08478, -7.45943, 140.367, -13.9542, 23.5033
1.508, -1, 4.75146, -2.14517, -7.39235, 140.852, -14.2074, 23.7746
1.512, -1, 4.71634, -2.20563, -7.32517, 141.337, -14.4609, 24.0462
1.516, -1, 4.68118, -2.26617, -7.25791, 141.824, -14.7147, 24.3182
1.52, -1, 4.64597, -2.32679, -7.19056, 142.31, -14.9688, 24.5906
1.524, -1, 4.61072, -2.38749, -7.12312, 142.798, -15.2233, 24.8634
1.528, -1, 4.57542, -2.44827, -7.05559, 143.286, -15.4781, 25.1365
1.532, -1, 4.54007, -2.50913, -6.98797, 143.775, -15.7333, 25.4099
1.536, -1, 4.50468, -2.57008, -6.92025, 144.265, -15.9888, 25.6838
1.54, -1, 4.46924, -2.6311, -6.85245, 144.755, -16.2446, 25.958
1.544, -1, 4.43375, -2.69221, -6.78455, 145.246, -16.5009, 26.2326
1.548, -1, 4.39821, -2.75341, -6.71655, 145.738, -16.7574, 26.5076
1.552, -1, 4.36262, -2.81468, -6.64847, 146.23, -17.0143, 26.7829
1.556, -1, 4.32699, -2.87605, -6.58028, 146.723, -17.2716, 27.0587
1.56, -1, 4.2913, -2.93749, -6.51201, 147.216, -17.5292, 27.3348
1.564, -1, 4.25557, -2.99902, -6.44364, 147.711, -17.7872, 27.6113
1.568, -1, 4.21978, -3.06064, -6.37517, 148.206, -18.0456, 27.8881
1.572, -1, 4.18395, -3.12234, -6.30661, 148.701, -18.3043, 28.1654
1.576, -1, 4.14807, -3.18413, -6.23796, 149.198, -18.5633, 28.4431
1.58, -1, 4.11214, -3.24601, -6.16921, 149.695, -18.8228, 28.7211
1.584, -1, 4.07615, -3.30797, -6.10036, 150.193, -19.0825, 28.9995
1.588, -1, 4.04012, -3.37002, -6.03142, 150.691, -19.3427, 29.2783
1.592, -1, 4.00403, -3.43215, -5.96238, 151.19, -19.6032, 29.5575
1.596, -1, 3.96789, -3.49437, -5.89324, 151.69, -19.8641, 29.8371
1.6, -1, 3.9317, -3.55668, -5.82401, 152.191, -20.1253, 30.1171
1.604, -1, 3.89546, -3.61908, -5.75468, 152.692, -20.3869, 30.3975
1.608, -1, 3.85916, -3.68157, -5.68525, 153.194, -20.6489, 30.6783
1.612, -1, 3.82282, -3.74414, -5.61572, 153.696, -20.9113, 30.9595
1.616, -1, 3.78642, -3.8068, -5.5461, 154.2, -21.174, 31.2411
1.62, -1, 3.74998, -3.86955, -5.47637, 154.704, -21.4371, 31.523
1.624, -1, 3.71348, -3.93239, -5.40655, 155.209, -21.7006, 31.8054
1.628, -1, 3.67693, -3.99532, -5.33662, 155.714, -21.9644, 32.0882
1.632, -1, 3.64033, -4.05833, -5.2666, 156.221, -22.2287, 32.3714
1.636, -1, 3.60368, -4.12144, -5.19648, 156.728, -22.4933, 32.655
1.64, -1, 3.56698, -4.18463, -5.12626, 157.235, -22.7582, 32.9389
1.644, -1, 3.53023, -4.24791, -5.05594, 157.744, -23.0236, 33.2233
1.648, -1, 3.49342, -4.31127, -4.98552, 158.253, -23.2893, 33.5081
1.652, -1, 3.45657, -4.37473, -4.915, 158.763, -23.5554, 33.7933
1.656, -1, 3.41967, -4.43827, -4.84439, 159.273, -23.8218, 34.0788
1.66, -1, 3.38271, -4.5019, -4.77368, 159.784, -24.0886, 34.3648
1.664, -1, 3.3457, -4.56562, -4.70287, 160.296, -24.3558, 34.6512
1.668, -1, 3.30865, -4.62942, -4.63197, 160.809, -24.6234, 34.9379
1.672, -1, 3.27154, -4.69331, -4.56097, 161.322, -24.8913, 35.225
1.676, -1, 3.23439, -4.75728, -4.48988, 161.836, -25.1595, 35.5125
1.68, -1, 3.19718, -4.82134, -4.41869, 162.351, -25.4282, 35.8004
1.684, -1, 3.15992, -4.88548, -4.34741, 162.866, -25.6971, 36.0887
1.688, -1, 3.12262, -4.94971, -4.27603, 163.382, -25.9665, 36.3774
1.692, -1, 3.08526, -5.01402, -4.20456, 163.899, -26.2361, 36.6664
1.696, -1, 3.04786, -5.07842, -4.133, 164.416, -26.5062, 36.9558
1.7, -1, 3.0104, -5.14289, -4.06134, 164.934, -26.7766, 37.2456
1.704, -1, 2.9729, -5.20745, -3.9896, 165.453, -27.0473, 37.5357
1.708, -1, 2.93535, -5.27209, -3.91776, 165.973, -27.3184, 37.8263
1.712, -1, 2.89776, -5.33681, -3.84583, 166.493, -27.5898, 38.1172
1.716, -1, 2.86014, -5.40158, -3.77381, 167.013, -27.8615, 38.4084
1.72, -1, 2.82256, -5.46632, -3.7017, 167.535, -28.1336, 38.7
1.724, -1, 2.78512, -5.53088, -3.62949, 168.056, -28.4059, 38.9918
1.728, -1, 2.74795, -5.59503, -3.55722, 168.578, -28.6783, 39.2838
1.732, -1, 2.71116, -5.65853, -3.48492, 169.1, -28.9504, 39.5756
1.736, -1, 2.67485, -5.72111, -3.41272, 169.62, -29.222, 39.8668
1.74, -1, 2.63913, -5.78247, -3.34079, 170.138, -29.4921, 40.1564
1.744, -1, 2.60408, -5.84229, -3.26939, 170.651, -29.7598, 40.4436
1.748, -1, 2.56974, -5.90032, -3.19887, 171.157, -30.0239, 40.727
1.752, -1, 2.53618, -5.9564, -3.12963, 171.654, -30.2831, 41.0051
1.756, -1, 2.50349, -6.01043, -3.06211, 172.138, -30.5356, 41.276
1.76, -1, 2.47183, -6.06231, -2.99679, 172.607, -30.7799, 41.5382
1.764, -1, 2.44137, -6.11194, -2.93411, 173.056, -31.0143, 41.7897
1.768, -1, 2.41228, -6.15925, -2.87452, 173.483, -31.2371, 42.0289
1.772, -1, 2.38473, -6.20419, -2.81843, 173.886, -31.4471, 42.2541
1.776, -1, 2.35884, -6.24669, -2.76621, 174.261, -31.6427, 42.464
1.78, -1, 2.33471, -6.28666, -2.71816, 174.606, -31.823, 42.6574
1.784, -1, 2.31241, -6.32407, -2.67449, 174.921, -31.9872, 42.8334
1.788, -1, 2.29195, -6.35901, -2.63534, 175.204, -32.1349, 42.9917
1.792, -1, 2.27332, -6.39154, -2.60075, 175.455, -32.2659, 43.1321
1.796, -1, 2.25651, -6.42169, -2.5706, 175.675, -32.3807, 43.2549
1.8, -1, 2.24149, -6.44934, -2.54471, 175.864, -32.4798, 43.3609
1.804, -1, 2.22824, -6.47437, -2.52278, 176.026, -32.5642, 43.4512
1.808, -1, 2.21668, -6.49666, -2.50448, 176.162, -32.6352, 43.5269
1.812, -1, 2.20674, -6.51612, -2.48942, 176.274, -32.6939, 43.5896
1.816, -1, 2.19828, -6.53275, -2.47722, 176.366, -32.7418, 43.6407
1.82, -1, 2.19114, -6.54673, -2.46751, 176.439, -32.7803, 43.6817
1.824, -1, 2.18513, -6.55834, -2.45994, 176.497, -32.8106, 43.7139
1.828, -1, 2.18006, -6.56791, -2.45417, 176.541, -32.834, 43.7387
1.832, -1, 2.17579, -6.57576, -2.44988, 176.575, -32.8517, 43.7575
1.836, -1, 2.17224, -6.58211, -2.44678, 176.6, -32.8648, 43.7713
1.84, -1, 2.16931, -6.58715, -2.4446, 176.618, -32.8742, 43.7812
1.844, -1, 2.16697, -6.59105, -2.44309, 176.631, -32.8809, 43.7882
1.848, 2, 2.16516, -6.59398, -2.44208, 176.639, -32.8856, 43.7931
1.852, 2, 2.16382, -6.59609, -2.44139, 176.645, -32.8887, 43.7964
1.856, 2, 2.16288, -6.59757, -2.44093, 176.65, -32.8909, 43.7987
1.86, 2, 2.16223, -6.59858, -2.44062, 176.652, -32.8924, 43.8002
1.864, 2, 2.16179, -6.59926, -2.4404, 176.654, -32.8934, 43.8013
1.868, 2, 2.16149, -6.59973, -2.44026, 176.655, -32.894, 43.802
1.872, 2, 2.16129, -6.60004, -2.44016, 176.656, -32.8945, 43.8024
1.876, 2, 2.16115, -6.60025, -2.4401, 176.657, -32.8948, 43.8027
1.88, 2, 2.16106, -6.6004, -2.44005, 176.657, -32.895, 43.803
1.884, 2, 2.161, -6.6005, -2.44002, 176.658, -32.8951, 43.8031
1.888, 2, 2.16095, -6.60056, -2.44, 176.658, -32.8952, 43.8032
1.892, 2, 2.16092, -6.60061, -2.43999, 176.658, -32.8953, 43.8033
1.896, 2, 2.1609, -6.60064, -2.43998, 176.658, -32.8954, 43.8033
1.9, 2, 2.16089, -6.60066, -2.43997, 176.658, -32.8954, 43.8034
1.904, 2, 2.16088, -6.60067, -2.43997, 176.658, -32.8954, 43.8034
1.908, 2, 2.16088, -6.60068, -2.43997, 176.658, -32.8954, 43.8034
1.912, 2, 2.16087, -6.60069, -2.43997, 176.658, -32.8954, 43.8034
1.916, 2, 2.16087, -6.60069, -2.43996, 176.658, -32.8954, 43.8034
1.92, 2, 2.16087, -6.60069, -2.43996, 176.658, -32.8954, 43.8034
1.924, 2, 2.16087, -6.6007, -2.43996, 176.658, -32.8954, 43.8034
1.928, 2, 2.16086, -6.6007, -2.43996, 176.658, -32.8954, 43.8034
1.932, 2, 2.16086, -6.6007, -2.43996, 176.658, -32.8954, 43.8034
1.936, 2, 2.16086, -6.6007, -2.43996, 176.658, -32.8954, 43.8034
1.94, 2, 2.16086, -6.6007, -2.43996, 176.658, -32.8954, 43.8034
1.944, 2, 2.16086, -6.6007, -2.43996, 176.658, -32.8954, 43.8034
1.948, 2, 2.16086, -6.6007, -2.43996, 176.658, -32.8954, 43.8034
1.952, 2, 2.16086, -6.6007, -2.43996, 176.658, -32.8954, 43.8034
1.956, 2, 2.16086, -6.6007, -2.43996, 176.658, -32.8954, 43.8034
1.96, 2, 2.16086, -6.6007, -2.43996, 176.658, -32.8954, 43.8034
1.964, 2, 2.16086, -6.6007, -2.43996, 176.658, -32.8954, 43.8034
1.968, 2, 2.16086, -6.6007, -2.43996, 176.658, -32.8954, 43.8034
1.972, 2, 2.16086, -6.6007, -2.43996, 176.658, -32.8954, 43.8034
1.976, 2, 2.16086, -6.6007, -2.43996, 176.658, -32.8954, 43.8034
1.98, 2, 2.16086, -6.6007, -2.43996, 176.658, -32.8954, 43.8034
1.984, 2, 2.16086, -6.6007, -2.43996, 176.658, -32.8954, 43.8034
1.988, 2, 2.16086, -6.6007, -2.43996, 176.658, -32.8954, 43.8034
1.992, 2, 2.16086, -6.6007, -2.43996, 176.658, -32.8954, 43.8034
1.996, 2, 2.16086, -6.6007, -2.43996, 176.658, -32.8954, 43.8034
1.999, 2, 2.16086, -6.6007, -2.43996, 176.658, -32.8954, 43.8034
2.004, 2, 2.16086, -6.6007, -2.43996, 176.658, -32.8954, 43.8034
2.008, 2, 2.16086, -6.6007, -2.43996, 176.658, -32.8954, 43.8034
2.012, 2, 2.16086, -6.6007, -2.43996, 176.658, -32.8954, 43.8034
2.015, 2, 2.16086, -6.6007, -2.43996, 176.658, -32.8954, 43.8034
2.019, 2, 2.16086, -6.6007, -2.43996, 176.658, -32.8954, 43.8034
2.024, 2, 2.16086, -6.6007, -2.43996, 176.658, -32.8954, 43.8034
2.028, 2, 2.16086, -6.6007, -2.43996, 176.658, -32.8954, 43.8034
2.031, 2, 2.16086, -6.6007, -2.43996, 176.658, -32.8954, 43.8034
2.036, 2, 2.16086, -6.6007, -2.43996, 176.658, -32.8954, 43.8034
2.04, 2, 2.16086, -6.6007, -2.43996, 176.658, -32.8954, 43.8034
2.044, 2, 2.16086, -6.6007, -2.43996, 176.658, -32.8954, 43.8034
2.048, 2, 2.16086, -6.6007, -2.43996, 176.658, -32.8954, 43.8034
2.051, 2, 2.16086, -6.6007, -2.43996, 176.658, -32.8954, 43.8034
2.055, 2, 2.16086, -6.6007, -2.43996, 176.658, -32.8954, 43.8034
2.06, 2, 2.16086, -6.6007, -2.43996, 176.658, -32.8954, 43.8034
2.064, 2, 2.16086, -6.6007, -2.43996, 176.658, -32.8954, 43.8034
2.068, 2, 2.16086, -6.6007, -2.43996, 176.658, -32.8954, 43.8034
2.071, 2, 2.16086, -6.6007, -2.43996, 176.658, -32.8954, 43.8034
2.076, 2, 2.16086, -6.6007, -2.43996, 176.658, -32.8954, 43.8034
2.08, 2, 2.16086, -6.6007, -2.43996, 176.658, -32.8954, 43.8034
2.084, 2, 2.16086, -6.6007, -2.43996, 176.658, -32.8954, 43.8034
2.087, 2, 2.16086, -6.6007, -2.43996, 176.658, -32.8954, 43.8034
2.092, 2, 2.16086, -6.6007, -2.43996, 176.658, -32.8954, 43.8034
2.096, 2, 2.16086, -6.6007, -2.43996, 176.658, -32.8954, 43.8034
2.1, 2, 2.16086, -6.6007, -2.43996, 176.658, -32.8954, 43.8034
2.104, 2, 2.16086, -6.6007, -2.43996, 176.658, -32.8954, 43.8034
2.107, 2, 2.16086, -6.6007, -2.43996, 176.658, -32.8954, 43.8034
2.111, 2, 2.16086, -6.6007, -2.43996, 176.658, -32.8954, 43.8034
2.116, 2, 2.16086, -6.6007, -2.43996, 176.658, -32.8954, 43.8034
2.12, 2, 2.16086, -6.6007, -2.43996, 176.658, -32.8954, 43.8034
2.124, 2, 2.16086, -6.6007, -2.43996, 176.658, -32.8954, 43.8034
2.127, 2, 2.16086, -6.6007, -2.43996, 176.658, -32.8954, 43.8034
2.132, 2, 2.16086, -6.6007, -2.43996, 176.658, -32.8954, 43.8034
2.136, 2, 2.16086, -6.6007, -2.43996, 176.658, -32.8954, 43.8034
2.14, 2, 2.16086, -6.6007, -2.43996, 176.658, -32.8954, 43.8034
2.143, 2, 2.16086, -6.6007, -2.43996, 176.658, -32.8954, 43.8034
2.148, 2, 2.16086, -6.6007, -2.43996, 176.658, -32.8954, 43.8034
2.152, 2, 2.16086, -6.6007, -2.43996, 176.658, -32.8954, 43.8034
2.156, 2, 2.16086, -6.6007, -2.43996, 176.658, -32.8954, 43.8034
2.16, 2, 2.16086, -6.6007, -2.43996, 176.658, -32.8954, 43.8034
2.163, 2, 2.16086, -6.6007, -2.43996, 176.658, -32.8954, 43.8034
2.168, 2, 2.16086, -6.6007, -2.43996, 176.658, -32.8954, 43.8034
2.172, 2, 2.16086, -6.6007, -2.43996, 176.658, -32.8954, 43.8034
2.176, 2, 2.16086, -6.6007, -2.43996, 176.658, -32.8954, 43.8034
2.179, 2, 2.16086, -6.6007, -2.43996, 176.658, -32.8954, 43.8034
2.184, 2, 2.16086, -6.6007, -2.43996, 176.658, -32.8954, 43.8034
2.188, 2, 2.16086, -6.6007, -2.43996, 176.658, -32.8954, 43.8034
2.192, 2, 2.16086, -6.6007, -2.43996, 176.658, -32.8954, 43.8034
2.196, 2, 2.16086, -6.6007, -2.43996, 176.658, -32.8954, 43.8034
2.199, 2, 2.16086, -6.6007, -2.43996, 176.658, -32.8954, 43.8034
2.204, 2, 2.16086, -6.6007, -2.43996, 176.658, -32.8954, 43.8034
2.208, 2, 2.16086, -6.6007, -2.43996, 176.658, -32.8954, 43.8034
2.212, 2, 2.16086, -6.6007, -2.43996, 176.658, -32.8954, 43.8034
2.216, 2, 2.16086, -6.6007, -2.43996, 176.658, -32.8954, 43.8034
2.219, 2, 2.16086, -6.6007, -2.43996, 176.658, -32.8954, 43.8034
2.224, 2, 2.16086, -6.6007, -2.43996, 176.658, -32.8954, 43.8034
2.228, 2, 2.16086, -6.6007, -2.43996, 176.658, -32.8954, 43.8034
2.232, 2, 2.16086, -6.6007, -2.43996, 176.658, -32.8954, 43.8034
2.235, 2, 2.16086, -6.6007, -2.43996, 176.658, -32.8954, 43.8034
2.24, 2, 2.16086, -6.6007, -2.43996, 176.658, -32.8954, 43.8034
2.244, 2, 2.16086, -6.6007, -2.43996, 176.658, -32.8954, 43.8034
2.248, 2, 2.16086, -6.6007, -2.43996, 176.658, -32.8954, 43.8034
2.252, 2, 2.16086, -6.6007, -2.43996, 176.658, -32.8954, 43.8034
2.255, 2, 2.16086, -6.6007, -2.43996, 176.658, -32.8954, 43.8034
2.259, 2, 2.16086, -6.6007, -2.43996, 176.658, -32.8954, 43.8034
2.264, 2, 2.16086, -6.6007, -2.43996, 176.658, -32.8954, 43.8034
2.268, 2, 2.16086, -6.6007, -2.43996, 176.658, -32.8954, 43.8034
2.272, 2, 2.16086, -6.6007, -2.43996, 176.658, -32.8954, 43.8034
2.275, 2, 2.16086, -6.6007, -2.43996, 176.658, -32.8954, 43.8034
2.28, 2, 2.16086, -6.6007, -2.43996, 176.658, -32.8954, 43.8034
2.284, 2, 2.16086, -6.6007, -2.43996, 176.658, -32.8954, 43.8034
2.288, 2, 2.16086, -6.6007, -2.43996, 176.658, -32.8954, 43.8034
2.291, 2, 2.16086, -6.6007, -2.43996, 176.658, -32.8954, 43.8034
2.296, 2, 2.16086, -6.6007, -2.43996, 176.658, -32.8954, 43.8034
2.3, 2, 2.16086, -6.6007, -2.43996, 176.658, -32.8954, 43.8034
2.304, 2, 2.16086, -6.6007, -2.43996, 176.658, -32.8954, 43.8034
2.308, 2, 2.16086, -6.6007, -2.43996, 176.658, -32.8954, 43.8034
2.311, 2, 2.16086, -6.6007, -2.43996, 176.658, -32.8954, 43.8034
2.316, 2, 2.16086, -6.6007, -2.43996, 176.658, -32.8954, 43.8034
2.32, 2, 2.16086, -6.6007, -2.43996, 176.658, -32.8954, 43.8034
2.324, 2, 2.16086, -6.6007, -2.43996, 176.658, -32.8954, 43.8034
2.328, 2, 2.16086, -6.6007, -2.43996, 176.658, -32.8954, 43.8034
2.331, 2, 2.16086, -6.6007, -2.43996, 176.658, -32.8954, 43.8034
2.336, 2, 2.16086, -6.6007, -2.43996, 176.658, -32.8954, 43.8034
2.34, 2, 2.16086, -6.6007, -2.43996, 176.658, -32.8954, 43.8034
2.344, 2, 2.16086, -6.6007, -2.43996, 176.658, -32.8954, 43.8034
2.347, 2, 2.16086, -6.6007, -2.43996, 176.658, -32.8954, 43.8034
2.352, 2, 2.16086, -6.6007, -2.43996, 176.658, -32.8954, 43.8034
2.356, 2, 2.16086, -6.6007, -2.43996, 176.658, -32.8954, 43.8034
2.36, 2, 2.16086, -6.6007, -2.43996, 176.658, -32.8954, 43.8034
2.364, 2, 2.16086, -6.6007, -2.43996, 176.658, -32.8954, 43.8034
2.367, 2, 2.16086, -6.6007, -2.43996, 176.658, -32.8954, 43.8034
2.372, 2, 2.16086, -6.6007, -2.43996, 176.658, -32.8954, 43.8034
2.376, 2, 2.16086, -6.6007, -2.43996, 176.658, -32.8954, 43.8034
2.38, 2, 2.16086, -6.6007, -2.43996, 176.658, -32.8954, 43.8034
2.383, 2, 2.16086, -6.6007, -2.43996, 176.658, -32.8954, 43.8034
2.388, 2, 2.16086, -6.6007, -2.43996, 176.658, -32.8954, 43.8034
2.392, 2, 2.16086, -6.6007, -2.43996, 176.658, -32.8954, 43.8034
2.396, 2, 2.16086, -6.6007, -2.43996, 176.658, -32.8954, 43.8034
2.4, 2, 2.16086, -6.6007, -2.43996, 176.658, -32.8954, 43.8034
2.403, 2, 2.16086, -6.6007, -2.43996, 176.658, -32.8954, 43.8034
2.408, 2, 2.16086, -6.6007, -2.43996, 176.658, -32.8954, 43.8034
2.412, 2, 2.16086, -6.6007, -2.43996, 176.658, -32.8954, 43.8034
2.416, 2, 2.16086, -6.6007, -2.43996, 176.658, -32.8954, 43.8034
2.42, 2, 2.16086, -6.6007, -2.43996, 176.658, -32.8954, 43.8034
2.423, 2, 2.16086, -6.6007, -2.43996, 176.658, -32.8954, 43.8034
2.428, 2, 2.16086, -6.6007, -2.43996, 176.658, -32.8954, 43.8034
2.432, 2, 2.16086, -6.6007, -2.43996, 176.658, -32.8954, 43.8034
2.436, 2, 2.16086, -6.6007, -2.43996, 176.658, -32.8954, 43.8034
2.439, 2, 2.16086, -6.6007, -2.43996, 176.658, -32.8954, 43.8034
2.444, 2, 2.16086, -6.6007, -2.43996, 176.658, -32.8954, 43.8034
2.448, 2, 2.16086, -6.6007, -2.43996, 176.658, -32.8954, 43.8034
2.452, 2, 2.16086, -6.6007, -2.43996, 176.658, -32.8954, 43.8034
2.456, 2, 2.16086, -6.6007, -2.43996, 176.658, -32.8954, 43.8034
2.459, 2, 2.16086, -6.6007, -2.43996, 176.658, -32.8954, 43.8034
2.464, 2, 2.16086, -6.6007, -2.43996, 176.658, -32.8954, 43.8034
2.468, 2, 2.16086, -6.6007, -2.43996, 176.658, -32.8954, 43.8034
2.472, 2, 2.16086, -6.6007, -2.43996, 176.658, -32.8954, 43.8034
2.476, 2, 2.16086, -6.6007, -2.43996, 176.658, -32.8954, 43.8034
2.479, 2, 2.16086, -6.6007, -2.43996, 176.658, -32.8954, 43.8034
2.484, 2, 2.16086, -6.6007, -2.43996, 176.658, -32.8954, 43.8034
2.488, 2, 2.16086, -6.6007, -2.43996, 176.658, -32.8954, 43.8034
2.492, 2, 2.16086, -6.6007, -2.43996, 176.658, -32.8954, 43.8034
2.495, 2, 2.16086, -6.6007, -2.43996, 176.658, -32.8954, 43.8034
2.5, 2, 2.16086, -6.6007, -2.43996, 176.658, -32.8954, 43.8034
2.504, 2, 2.16086, -6.6007, -2.43996, 176.658, -32.8954, 43.8034
2.508, 2, 2.16086, -6.6007, -2.43996, 176.658, -32.8954, 43.8034
2.512, 2, 2.16086, -6.6007, -2.43996, 176.658, -32.8954, 43.8034
2.515, 2, 2.16086, -6.6007, -2.43996, 176.658, -32.8954, 43.8034
2.52, 2, 2.16086, -6.6007, -2.43996, 176.658, -32.8954, 43.8034
2.524, 2, 2.16086, -6.6007, -2.43996, 176.658, -32.8954, 43.8034
2.528, 2, 2.16086, -6.6007, -2.43996, 176.658, -32.8954, 43.8034
2.531, 2, 2.16086, -6.6007, -2.43996, 176.658, -32.8954, 43.8034
2.536, 2, 2.16086, -6.6007, -2.43996, 176.658, -32.8954, 43.8034
2.54, 2, 2.16086, -6.6007, -2.43996, 176.658, -32.8954, 43.8034
2.544, 2, 2.16086, -6.6007, -2.43996, 176.658, -32.8954, 43.8034
2.548, 2, 2.16086, -6.6007, -2.43996, 176.658, -32.8954, 43.8034
2.551, 2, 2.16086, -6.6007, -2.43996, 176.658, -32.8954, 43.8034
2.556, 2, 2.16086, -6.6007, -2.43996, 176.658, -32.8954, 43.8034
2.56, 2, 2.16086, -6.6007, -2.43996, 176.658, -32.8954, 43.8034
2.564, 2, 2.16086, -6.6007, -2.43996, 176.658, -32.8954, 43.8034
2.568, 2, 2.16086, -6.6007, -2.43996, 176.658, -32.8954, 43.8034
2.571, 2, 2.16086, -6.6007, -2.43996, 176.658, -32.8954, 43.8034
2.576, 2, 2.16086, -6.6007, -2.43996, 176.658, -32.8954, 43.8034
2.58, 2, 2.16086, -6.6007, -2.43996, 176.658, -32.8954, 43.8034
2.584, 2, 2.16086, -6.6007, -2.43996, 176.658, -32.8954, 43.8034
2.587, 2, 2.16086, -6.6007, -2.43996, 176.658, -32.8954, 43.8034
2.592, 2, 2.16086, -6.6007, -2.43996, 176.658, -32.8954, 43.8034
2.596, 2, 2.16086, -6.6007, -2.43996, 176.658, -32.8954, 43.8034
2.6, 2, 2.16086, -6.6007, -2.43996, 176.658, -32.8954, 43.8034
2.604, 2, 2.16086, -6.6007, -2.43996, 176.658, -32.8954, 43.8034
2.607, 2, 2.16086, -6.6007, -2.43996, 176.658, -32.8954, 43.8034
2.612, 2, 2.16086, -6.6007, -2.43996, 176.658, -32.8954, 43.8034
2.616, 2, 2.16086, -6.6007, -2.43996, 176.658, -32.8954, 43.8034
2.62, 2, 2.16086, -6.6007, -2.43996, 176.658, -32.8954, 43.8034
2.624, 2, 2.16086, -6.6007, -2.43996, 176.658, -32.8954, 43.8034
2.627, 2, 2.16086, -6.6007, -2.43996, 176.658, -32.8954, 43.8034
2.632, 2, 2.16086, -6.6007, -2.43996, 176.658, -32.8954, 43.8034
2.636, 2, 2.16086, -6.6007, -2.43996, 176.658, -32.8954, 43.8034
2.64, 2, 2.16086, -6.6007, -2.43996, 176.658, -32.8954, 43.8034
2.643, 2, 2.16086, -6.6007, -2.43996, 176.658, -32.8954, 43.8034
2.648, 2, 2.16086, -6.6007, -2.43996, 176.658, -32.8954, 43.8034
2.652, 2, 2.16086, -6.6007, -2.43996, 176.658, -32.8954, 43.8034
2.656, 2, 2.16086, -6.6007, -2.43996, 176.658, -32.8954, 43.8034
2.66, 2, 2.16086, -6.6007, -2.43996, 176.658, -32.8954, 43.8034
2.663, 2, 2.16086, -6.6007, -2.43996, 176.658, -32.8954, 43.8034
2.668, 2, 2.16086, -6.6007, -2.43996, 176.658, -32.8954, 43.8034
2.672, 2, 2.16086, -6.6007, -2.43996, 176.658, -32.8954, 43.8034
2.676, 2, 2.16086, -6.6007, -2.43996, 176.658, -32.8954, 43.8034
2.679, 2, 2.16086, -6.6007, -2.43996, 176.658, -32.8954, 43.8034
2.684, 2, 2.16086, -6.6007, -2.43996, 176.658, -32.8954, 43.8034
2.688, 2, 2.16086, -6.6007, -2.43996, 176.658, -32.8954, 43.8034
2.692, 2, 2.16086, -6.6007, -2.43996, 176.658, -32.8954, 43.8034
2.696, 2, 2.16086, -6.6007, -2.43996, 176.658, -32.8954, 43.8034
2.699, 2, 2.16086, -6.6007, -2.43996, 176.658, -32.8954, 43.8034
2.704, 2, 2.16086, -6.6007, -2.43996, 176.658, -32.8954, 43.8034
2.708, 2, 2.16086, -6.6007, -2.43996, 176.658, -32.8954, 43.8034
2.712, 2, 2.16086, -6.6007, -2.43996, 176.658, -32.8954, 43.8034
2.716, 2, 2.16086, -6.6007, -2.43996, 176.658, -32.8954, 43.8034
2.719, 2, 2.16086, -6.6007, -2.43996, 176.658, -32.8954, 43.8034
2.724, 2, 2.16086, -6.6007, -2.43996, 176.658, -32.8954, 43.8034
2.728, 2, 2.16086, -6.6007, -2.43996, 176.658, -32.8954, 43.8034
2.732, 2, 2.16086, -6.6007, -2.43996, 176.658, -32.8954, 43.8034
2.735, 2, 2.16086, -6.6007, -2.43996, 176.658, -32.8954, 43.8034
2.74, 2, 2.16086, -6.6007, -2.43996, 176.658, -32.8954, 43.8034
2.744, 2, 2.16086, -6.6007, -2.43996, 176.658, -32.8954, 43.8034
2.748, 2, 2.16086, -6.6007, -2.43996, 176.658, -32.8954, 43.8034
2.752, 2, 2.16086, -6.6007, -2.43996, 176.658, -32.8954, 43.8034
2.755, 2, 2.16086, -6.6007, -2.43996, 176.658, -32.8954, 43.8034
2.76, 2, 2.16086, -6.6007, -2.43996, 176.658, -32.8954, 43.8034
2.764, 2, 2.16086, -6.6007, -2.43996, 176.658, -32.8954, 43.8034
2.768, 2, 2.16086, -6.6007, -2.43996, 176.658, -32.8954, 43.8034
2.772, 2, 2.16086, -6.6007, -2.43996, 176.658, -32.8954, 43.8034
2.775, 2, 2.16086, -6.6007, -2.43996, 176.658, -32.8954, 43.8034
2.78, 2, 2.16086, -6.6007, -2.43996, 176.658, -32.8954, 43.8034
2.784, 2, 2.16086, -6.6007, -2.43996, 176.658, -32.8954, 43.8034
2.788, 2, 2.16086, -6.6007, -2.43996, 176.658, -32.8954, 43.8034
2.791, 2, 2.16086, -6.6007, -2.43996, 176.658, -32.8954, 43.8034
2.796, 2, 2.16086, -6.6007, -2.43996, 176.658, -32.8954, 43.8034
2.8, 2, 2.16086, -6.6007, -2.43996, 176.658, -32.8954, 43.8034
2.804, 2, 2.16086, -6.6007, -2.43996, 176.658, -32.8954, 43.8034
2.808, 2, 2.16086, -6.6007, -2.43996, 176.658, -32.8954, 43.8034
2.811, 2, 2.16086, -6.6007, -2.43996, 176.658, -32.8954, 43.8034
2.816, 2, 2.16086, -6.6007, -2.43996, 176.658, -32.8954, 43.8034
2.82, 2, 2.16086, -6.6007, -2.43996, 176.658, -32.8954, 43.8034
2.824, 2, 2.16086, -6.6007, -2.43996, 176.658, -32.8954, 43.8034
2.828, 2, 2.16086, -6.6007, -2.43996, 176.658, -32.8954, 43.8034
2.831, 2, 2.16086, -6.6007, -2.43996, 176.658, -32.8954, 43.8034
2.836, 2, 2.16086, -6.6007, -2.43996, 176.658, -32.8954, 43.8034
2.84, 2, 2.16086, -6.6007, -2.43996, 176.658, -32.8954, 43.8034
2.844, 2, 2.16086, -6.6007, -2.43996, 176.658, -32.8954, 43.8034
2.847, 2, 2.16086, -6.6007, -2.43996, 176.658, -32.8954, 43.8034
2.852, 2, 2.16086, -6.6007, -2.43996, 176.658, -32.8954, 43.8034
2.856, 2, 2.16086, -6.6007, -2.43996, 176.658, -32.8954, 43.8034
2.86, 2, 2.16086, -6.6007, -2.43996, 176.658, -32.8954, 43.8034
2.864, 2, 2.16086, -6.6007, -2.43996, 176.658, -32.8954, 43.8034
2.867, 2, 2.16086, -6.6007, -2.43996, 176.658, -32.8954, 43.8034
2.872, 2, 2.16086, -6.6007, -2.43996, 176.658, -32.8954, 43.8034
2.876, 2, 2.16086, -6.6007, -2.43996, 176.658, -32.8954, 43.8034
2.88, 2, 2.16086, -6.6007, -2.43996, 176.658, -32.8954, 43.8034
2.883, 2, 2.16086, -6.6007, -2.43996, 176.658, -32.8954, 43.8034
2.888, 2, 2.16086, -6.6007, -2.43996, 176.658, -32.8954, 43.8034
2.892, 2, 2.16086, -6.6007, -2.43996, 176.658, -32.8954, 43.8034
2.896, 2, 2.16086, -6.6007, -2.43996, 176.658, -32.8954, 43.8034
2.9, 2, 2.16086, -6.6007, -2.43996, 176.658, -32.8954, 43.8034
2.903, 2, 2.16086, -6.6007, -2.43996, 176.658, -32.8954, 43.8034
2.91, 2, 2.16086, -6.6007, -2.43996, 176.658, -32.8954, 43.8034
2.914, 2, 2.16086, -6.6007, -2.43996, 176.658, -32.8954, 43.8034
2.916, 2, 2.16086, -6.6007, -2.43996, 176.658, -32.8954, 43.8034
2.92, 2, 2.16086, -6.6007, -2.43996, 176.658, -32.8954, 43.8034
2.923, 2, 2.16086, -6.6007, -2.43996, 176.658, -32.8954, 43.8034
2.928, 2, 2.16086, -6.6007, -2.43996, 176.658, -32.8954, 43.8034
2.932, 2, 2.16086, -6.6007, -2.43996, 176.658, -32.8954, 43.8034
2.936, 2, 2.16086, -6.6007, -2.43996, 176.658, -32.8954, 43.8034
2.939, 2, 2.16081, -6.60069, -2.43998, 176.658, -32.8954, 43.8034
2.944, 2, 2.16063, -6.60063, -2.44003, 176.658, -32.8955, 43.8033
2.948, 2, 2.16017, -6.60049, -2.44017, 176.658, -32.8955, 43.803
2.952, 2, 2.15926, -6.6002, -2.4405, 176.658, -32.8957, 43.8021
2.956, 2, 2.15776, -6.59968, -2.44112, 176.658, -32.8961, 43.7999
2.959, 2, 2.15555, -6.59885, -2.44219, 176.659, -32.897, 43.7952
2.964, 2, 2.15252, -6.59761, -2.44391, 176.66, -32.8988, 43.7864
2.968, 2, 2.14858, -6.59585, -2.44654, 176.661, -32.9018, 43.7711
2.972, 2, 2.14362, -6.59344, -2.45039, 176.663, -32.9068, 43.7466
2.976, 2, 2.13752, -6.59021, -2.45585, 176.667, -32.9143, 43.7092
2.98, 2, 2.13013, -6.58601, -2.46335, 176.671, -32.9253, 43.655
2.984, 2, 2.12131, -6.58065, -2.47336, 176.678, -32.9406, 43.5793
2.988, 2, 2.11097, -6.57398, -2.48636, 176.687, -32.9613, 43.477
2.992, 2, 2.09913, -6.56589, -2.50282, 176.699, -32.9886, 43.343
2.995, 2, 2.08586, -6.55628, -2.52318, 176.714, -33.0234, 43.172
3, 2, 2.07123, -6.54506, -2.54783, 176.733, -33.0667, 42.9595
3.004, 2, 2.05527, -6.53217, -2.5771, 176.756, -33.1193, 42.7016
3.008, 2, 2.03796, -6.51753, -2.61125, 176.783, -33.1817, 42.3955
3.012, 2, 2.0192, -6.50106, -2.65044, 176.814, -33.2543, 42.0398
3.015, 2, 1.99892, -6.48273, -2.69473, 176.85, -33.3372, 41.6341
3.02, 2, 1.97707, -6.46254, -2.74405, 176.89, -33.4301, 41.1794
3.024, 2, 1.95368, -6.44052, -2.79824, 176.935, -33.5326, 40.6776
3.028, 2, 1.92882, -6.41679, -2.85699, 176.983, -33.6441, 40.1317
3.031, 2, 1.90256, -6.39145, -2.91995, 177.035, -33.7639, 39.5454
3.036, 2, 1.87492, -6.36461, -2.98672, 177.09, -33.8911, 38.9231
3.04, 2, 1.84588, -6.33639, -3.05687, 177.147, -34.0246, 38.2698
3.044, 2, 1.81541, -6.3069, -3.12994, 177.207, -34.1634, 37.5904
3.048, 2, 1.7835, -6.27626, -3.20549, 177.269, -34.3065, 36.8898
3.051, 2, 1.75019, -6.24462, -3.2831, 177.332, -34.4531, 36.1723
3.056, 2, 1.71559, -6.21211, -3.36237, 177.397, -34.6023, 35.4419
3.06, 2, 1.67988, -6.17892, -3.44294, 177.462, -34.7535, 34.7015
3.064, 2, 1.64326, -6.14517, -3.52451, 177.528, -34.9062, 33.9537
3.068, 2, 1.60591, -6.11101, -3.60683, 177.595, -35.06, 33.2005
3.071, 2, 1.56798, -6.07654, -3.68969, 177.662, -35.2146, 32.4433
3.076, 2, 1.52958, -6.04184, -3.77296, 177.729, -35.3698, 31.6834
3.08, 2, 1.4908, -6.00696, -3.85652, 177.796, -35.5253, 30.9215
3.084, 2, 1.45173, -5.97194, -3.94028, 177.864, -35.6812, 30.1582
3.087, 2, 1.41245, -5.93684, -4.0242, 177.931, -35.8372, 29.3941
3.092, 2, 1.37304, -5.90168, -4.10821, 177.999, -35.9933, 28.6293
3.096, 2, 1.33352, -5.86647, -4.19228, 178.066, -36.1495, 27.8641
3.1, 2, 1.29394, -5.83123, -4.2764, 178.134, -36.3058, 27.0986
3.104, 2, 1.25431, -5.79598, -4.36055, 178.202, -36.4621, 26.3329
3.107, 2, 1.21466, -5.76071, -4.44473, 178.269, -36.6185, 25.5671
3.112, 2, 1.17498, -5.72544, -4.52891, 178.337, -36.7748, 24.8012
3.116, 2, 1.13529, -5.69015, -4.61311, 178.405, -36.9312, 24.0353
3.12, 2, 1.09559, -5.65487, -4.69731, 178.472, -37.0876, 23.2693
3.124, 2, 1.05589, -5.61958, -4.78152, 178.54, -37.244, 22.5032
3.128, 2, 1.01618, -5.58429, -4.86573, 178.608, -37.4004, 21.7372
3.132, 2, 0.976466, -5.54899, -4.94994, 178.675, -37.5568, 20.9712
3.136, 2, 0.936752, -5.5137, -5.03415, 178.743, -37.7131, 20.2051
3.14, 2, 0.897036, -5.4784, -5.11836, 178.811, -37.8695, 19.439
3.143, 2, 0.857319, -5.44311, -5.20258, 178.878, -38.0259, 18.6729
3.148, 2, 0.817602, -5.40782, -5.28679, 178.946, -38.1823, 17.9069
3.152, 2, 0.777884, -5.37252, -5.37101, 179.014, -38.3387, 17.1408
3.156, 2, 0.738176, -5.33723, -5.45522, 179.081, -38.4951, 16.3747
3.16, 2, 0.69851, -5.30195, -5.53942, 179.149, -38.6515, 15.6087
3.163, 2, 0.658965, -5.2667, -5.62359, 179.217, -38.8079, 14.8427
3.168, 2, 0.619649, -5.23152, -5.70768, 179.284, -38.9643, 14.0769
3.172, 2, 0.580676, -5.19644, -5.79165, 179.352, -39.1205, 13.3116
3.176, 2, 0.542148, -5.16153, -5.87539, 179.42, -39.2766, 12.5473
3.179, 2, 0.504178, -5.12684, -5.95881, 179.487, -39.4322, 11.7849
3.184, 2, 0.466903, -5.09247, -6.04173, 179.554, -39.5873, 11.0256
3.188, 2, 0.430483, -5.05854, -6.12392, 179.621, -39.7414, 10.271
3.192, 2, 0.395082, -5.0252, -6.20511, 179.687, -39.894, 9.52365
3.196, 2, 0.360871, -4.99261, -6.28493, 179.752, -40.0446, 8.7864
3.199, 2, 0.328046, -4.96096, -6.36297, 179.816, -40.1924, 8.06305
3.204, 2, 0.296785, -4.93043, -6.43875, 179.878, -40.3364, 7.35815
3.208, 2, 0.267202, -4.90121, -6.51173, 179.938, -40.4756, 6.67695
3.212, 2, 0.239353, -4.87346, -6.58137, 179.996, -40.6088, 6.02525
3.216, 2, 0.213307, -4.84737, -6.64709, 180.05, -40.7347, 5.40918
3.22, 2, 0.189207, -4.82316, -6.70827, 180.101, -40.8521, 4.83492
3.224, 2, 0.167264, -4.80108, -6.76429, 180.148, -40.9597, 4.30853
3.228, 2, 0.147713, -4.78137, -6.81454, 180.19, -41.0563, 3.83583
3.232, 2, 0.130784, -4.76427, -6.85844, 180.227, -41.1409, 3.42232
3.235, 2, 0.116653, -4.74997, -6.89547, 180.258, -41.2123, 3.07309
3.24, 2, 0.105404, -4.73861, -6.92517, 180.283, -41.2696, 2.79271
3.244, 2, 0.0970239, -4.73026, -6.94722, 180.302, -41.3121, 2.58505
3.248, 2, 0.0914548, -4.72498, -6.96135, 180.315, -41.3391, 2.45304
3.252, 2, 0.0886664, -4.7228, -6.96744, 180.321, -41.3503, 2.39847
3.255, 2, 0.0887025, -4.72377, -6.96542, 180.32, -41.3455, 2.42185
3.26, 2, 0.0916616, -4.72791, -6.95532, 180.313, -41.3249, 2.52246
3.264, 2, 0.0976286, -4.73521, -6.93727, 180.299, -41.289, 2.69846
3.268, 2, 0.106617, -4.74559, -6.91153, 180.279, -41.2382, 2.94708
3.272, 2, 0.118551, -4.75895, -6.87843, 180.253, -41.1732, 3.26479
3.276, 2, 0.133266, -4.77509, -6.83842, 180.222, -41.095, 3.64744
3.28, 2, 0.150522, -4.79381, -6.79201, 180.185, -41.0046, 4.09027
3.284, 2, 0.170082, -4.81489, -6.73976, 180.144, -40.9029, 4.588
3.288, 2, 0.191779, -4.83811, -6.68226, 180.099, -40.7911, 5.13488
3.291, 2, 0.215531, -4.86331, -6.62008, 180.05, -40.6706, 5.72484
3.296, 2, 0.241277, -4.8903, -6.5538, 179.998, -40.5425, 6.35173
3.3, 2, 0.26892, -4.91889, -6.484, 179.943, -40.4082, 7.00961
3.304, 2, 0.298318, -4.94888, -6.41123, 179.886, -40.2686, 7.69296
3.308, 2, 0.329298, -4.98008, -6.336, 179.828, -40.1249, 8.39682
3.312, 2, 0.361666, -5.01228, -6.25878, 179.768, -39.9778, 9.1169
3.316, 2, 0.39522, -5.04529, -6.17998, 179.707, -39.8283, 9.84957
3.32, 2, 0.429775, -5.07896, -6.09997, 179.645, -39.6767, 10.5918
3.324, 2, 0.465184, -5.11315, -6.01901, 179.582, -39.5238, 11.3412
3.328, 2, 0.501332, -5.14775, -5.93735, 179.519, -39.3698, 12.0957
3.332, 2, 0.538108, -5.18266, -5.85517, 179.456, -39.215, 12.8538
3.336, 2, 0.575392, -5.21781, -5.77261, 179.393, -39.0598, 13.6145
3.34, 2, 0.613058, -5.25313, -5.68978, 179.329, -38.9041, 14.377
3.344, 2, 0.650991, -5.28858, -5.60676, 179.265, -38.7483, 15.1406
3.347, 2, 0.689107, -5.3241, -5.52363, 179.202, -38.5923, 15.905
3.352, 2, 0.727346, -5.35969, -5.4404, 179.138, -38.4362, 16.6699
3.356, 2, 0.76567, -5.3953, -5.35712, 179.074, -38.28, 17.4353
3.36, 2, 0.80405, -5.43095, -5.2738, 179.01, -38.1238, 18.2008
3.364, 2, 0.842469, -5.46661, -5.19046, 178.946, -37.9675, 18.9665
3.368, 2, 0.880913, -5.50228, -5.1071, 178.882, -37.8112, 19.7324
3.372, 2, 0.919376, -5.53796, -5.02372, 178.818, -37.6549, 20.4983
3.376, 2, 0.95785, -5.57365, -4.94034, 178.755, -37.4986, 21.2643
3.38, 2, 0.996333, -5.60934, -4.85695, 178.691, -37.3423, 22.0303
3.383, 2, 1.03482, -5.64503, -4.77356, 178.627, -37.186, 22.7963
3.388, 2, 1.07331, -5.68073, -4.69016, 178.563, -37.0296, 23.5624
3.392, 2, 1.11181, -5.71642, -4.60677, 178.499, -36.8733, 24.3284
3.396, 2, 1.1503, -5.75212, -4.52337, 178.435, -36.717, 25.0945
3.4, 2, 1.1888, -5.78781, -4.43997, 178.371, -36.5606, 25.8605
3.403, 2, 1.2273, -5.82351, -4.35657, 178.307, -36.4043, 26.6266
3.408, 2, 1.2658, -5.85921, -4.27317, 178.243, -36.248, 27.3927
3.412, 2, 1.30429, -5.8949, -4.18977, 178.18, -36.0916, 28.1588
3.416, 2, 1.34279, -5.9306, -4.10637, 178.116, -35.9353, 28.9248
3.42, 2, 1.38129, -5.9663, -4.02297, 178.052, -35.779, 29.6909
3.424, 2, 1.41979, -6.00199, -3.93958, 177.988, -35.6226, 30.457
3.428, 2, 1.45829, -6.03766, -3.85618, 177.924, -35.4663, 31.2231
3.432, 2, 1.49682, -6.07326, -3.77281, 177.86, -35.31, 31.9891
3.436, 2, 1.5354, -6.10867, -3.68948, 177.796, -35.1537, 32.7549
3.439, 2, 1.57416, -6.14376, -3.60625, 177.732, -34.9976, 33.5204
3.444, 2, 1.61323, -6.17834, -3.52321, 177.667, -34.8419, 34.2848
3.448, 2, 1.65283, -6.21222, -3.44047, 177.601, -34.6868, 35.0476
3.452, 2, 1.69319, -6.24516, -3.35822, 177.534, -34.533, 35.8075
3.456, 2, 1.73453, -6.27692, -3.27673, 177.463, -34.381, 36.5634
3.46, 2, 1.77706, -6.3072, -3.19635, 177.387, -34.2318, 37.3137
3.464, 2, 1.82094, -6.33575, -3.1175, 177.305, -34.0864, 38.0569
3.468, 2, 1.86631, -6.36237, -3.04068, 177.213, -33.946, 38.7916
3.472, 2, 1.91335, -6.38692, -2.9664, 177.109, -33.8117, 39.5163
3.476, 2, 1.96227, -6.40932, -2.89519, 176.989, -33.6847, 40.23
3.48, 2, 2.01333, -6.42957, -2.82749, 176.851, -33.5662, 40.9321
3.484, 2, 2.06685, -6.44774, -2.76368, 176.691, -33.4572, 41.6225
3.488, 2, 2.12312, -6.46394, -2.70404, 176.508, -33.3583, 42.3018
3.492, 2, 2.18229, -6.47829, -2.64875, 176.297, -33.27, 42.9714
3.495, 2, 2.24443, -6.49086, -2.5979, 176.059, -33.1923, 43.6335
3.5, 2, 2.30949, -6.50165, -2.55143, 175.79, -33.1252, 44.2904
3.504, 2, 2.37741, -6.51066, -2.50917, 175.491, -33.0682, 44.9452
3.508, 2, 2.44811, -6.51785, -2.47081, 175.162, -33.0204, 45.6008
3.512, 2, 2.52154, -6.52316, -2.43593, 174.804, -32.9811, 46.26
3.516, 2, 2.59773, -6.52653, -2.40402, 174.418, -32.949, 46.9254
3.52, 2, 2.67668, -6.52791, -2.37453, 174.006, -32.923, 47.599
3.524, 2, 2.75838, -6.52733, -2.34689, 173.571, -32.9019, 48.2825
3.528, 2, 2.84269, -6.52491, -2.3206, 173.117, -32.8846, 48.9768
3.531, 2, 2.92939, -6.52086, -2.29523, 172.644, -32.8702, 49.6825
3.536, 2, 3.01821, -6.51538, -2.27044, 172.158, -32.8578, 50.3994
3.54, 2, 3.10893, -6.50873, -2.24595, 171.659, -32.8468, 51.1266
3.544, 2, 3.2014, -6.50114, -2.22154, 171.15, -32.8367, 51.8631
3.548, 2, 3.2955, -6.49282, -2.19709, 170.633, -32.8272, 52.6072
3.552, 2, 3.39114, -6.48394, -2.17248, 170.111, -32.8181, 53.3576
3.556, 2, 3.48822, -6.47463, -2.14768, 169.584, -32.8094, 54.1126
3.56, 2, 3.58661, -6.46497, -2.12267, 169.055, -32.8007, 54.8711
3.564, 2, 3.68613, -6.45504, -2.09748, 168.523, -32.7923, 55.632
3.568, 2, 3.78652, -6.44492, -2.07213, 167.989, -32.7839, 56.3946
3.572, 2, 3.88756, -6.43467, -2.04668, 167.455, -32.7755, 57.1583
3.576, 2, 3.98902, -6.42432, -2.02116, 166.92, -32.7672, 57.9227
3.58, 2, 4.09079, -6.41391, -1.99558, 166.384, -32.7589, 58.6877
3.584, 2, 4.19275, -6.40346, -1.96997, 165.848, -32.7507, 59.453
3.587, 2, 4.29485, -6.39298, -1.94434, 165.312, -32.7424, 60.2186
3.592, 2, 4.39705, -6.38248, -1.91869, 164.775, -32.7342, 60.9844
3.596, 2, 4.4993, -6.37196, -1.89303, 164.239, -32.7259, 61.7502
3.6, 2, 4.6016, -6.36144, -1.86737, 163.702, -32.7177, 62.5161
3.604, 2, 4.70393, -6.35091, -1.8417, 163.166, -32.7094, 63.2821
3.608, 2, 4.80627, -6.34038, -1.81602, 162.629, -32.7012, 64.0481
3.612, 2, 4.90863, -6.32984, -1.79035, 162.093, -32.693, 64.8141
3.616, 2, 5.01099, -6.3193, -1.76467, 161.556, -32.6848, 65.5802
3.62, 2, 5.11337, -6.30876, -1.73899, 161.019, -32.6765, 66.3463
3.624, 2, 5.21574, -6.29822, -1.71331, 160.483, -32.6683, 67.1123
3.628, 2, 5.31812, -6.28768, -1.68763, 159.946, -32.6601, 67.8784
3.632, 2, 5.4205, -6.27714, -1.66195, 159.409, -32.6518, 68.6445
3.636, 2, 5.52289, -6.2666, -1.63627, 158.873, -32.6436, 69.4105
3.64, 2, 5.62527, -6.25606, -1.61059, 158.336, -32.6354, 70.1766
3.644, 2, 5.72766, -6.24552, -1.58491, 157.799, -32.6272, 70.9427
3.648, 2, 5.83005, -6.23497, -1.55923, 157.263, -32.6189, 71.7088
3.652, 2, 5.93242, -6.22443, -1.53355, 156.726, -32.6107, 72.4748
3.656, 2, 6.03468, -6.21391, -1.50789, 156.189, -32.6025, 73.2409
3.66, 2, 6.13661, -6.20342, -1.48229, 155.653, -32.5943, 74.0069
3.664, 2, 6.23781, -6.19304, -1.45685, 155.117, -32.586, 74.7726
3.668, 2, 6.33785, -6.18282, -1.43168, 154.581, -32.5779, 75.5375
3.672, 2, 6.43637, -6.17283, -1.40687, 154.046, -32.5697, 76.3005
3.676, 2, 6.53311, -6.16308, -1.3825, 153.514, -32.5616, 77.0603
3.679, 2, 6.62798, -6.15358, -1.35862, 152.986, -32.5536, 77.8144
3.684, 2, 6.72096, -6.14425, -1.33524, 152.464, -32.5457, 78.5601
3.688, 2, 6.81213, -6.135, -1.31239, 151.95, -32.538, 79.2941
3.692, 2, 6.9015, -6.12574, -1.2901, 151.446, -32.5306, 80.0129
3.696, 2, 6.98895, -6.11637, -1.26846, 150.956, -32.5236, 80.7128
3.7, 2, 7.07421, -6.10684, -1.24759, 150.481, -32.5172, 81.3905
3.704, 2, 7.15703, -6.09707, -1.22767, 150.024, -32.5118, 82.0427
3.708, 2, 7.23727, -6.08694, -1.20886, 149.586, -32.5077, 82.6664
3.712, 2, 7.315, -6.0763, -1.19133, 149.169, -32.5052, 83.2591
3.716, 2, 7.39046, -6.06491, -1.17523, 148.774, -32.5049, 83.8189
3.72, 2, 7.46394, -6.05253, -1.16076, 148.402, -32.5074, 84.3448
3.724, 2, 7.53572, -6.03887, -1.14818, 148.052, -32.5132, 84.8365
3.728, 2, 7.60595, -6.02365, -1.13786, 147.724, -32.5232, 85.2947
3.732, 2, 7.67471, -6.00659, -1.13022, 147.416, -32.5382, 85.7208
3.735, 2, 7.74193, -5.98745, -1.12575, 147.126, -32.5594, 86.117
3.74, 2, 7.80762, -5.966, -1.12492, 146.852, -32.5876, 86.4855
3.744, 2, 7.87191, -5.94206, -1.12821, 146.593, -32.6241, 86.8288
3.748, 2, 7.93506, -5.91547, -1.13604, 146.344, -32.67, 87.1494
3.752, 2, 7.99749, -5.88606, -1.14878, 146.106, -32.7264, 87.4494
3.756, 2, 8.05963, -5.85369, -1.16677, 145.875, -32.7943, 87.7312
3.76, 2, 8.12199, -5.81822, -1.19033, 145.649, -32.8747, 87.9969
3.764, 2, 8.18503, -5.77952, -1.21973, 145.427, -32.9684, 88.2486
3.768, 2, 8.2491, -5.73747, -1.25522, 145.207, -33.076, 88.4883
3.772, 2, 8.31448, -5.69203, -1.29696, 144.986, -33.1981, 88.7182
3.776, 2, 8.38138, -5.64321, -1.34504, 144.765, -33.3349, 88.9401
3.78, 2, 8.45005, -5.59111, -1.39943, 144.541, -33.4865, 89.1558
3.784, 2, 8.52067, -5.53583, -1.45997, 144.313, -33.6526, 89.3669
3.788, 2, 8.59339, -5.47744, -1.5264, 144.081, -33.8327, 89.5751
3.792, 2, 8.6683, -5.41595, -1.59836, 143.843, -34.0261, 89.7817
3.796, 2, 8.74541, -5.35135, -1.67543, 143.6, -34.2317, 89.9881
3.8, 2, 8.82466, -5.28364, -1.75712, 143.351, -34.4484, 90.1954
3.804, 2, 8.9059, -5.21288, -1.84293, 143.097, -34.6751, 90.4045
3.808, 2, 8.98894, -5.13921, -1.93236, 142.836, -34.9105, 90.6161
3.812, 2, 9.07358, -5.06283, -2.02489, 142.569, -35.1534, 90.8305
3.816, 2, 9.15969, -4.984, -2.12, 142.298, -35.4026, 91.0478
3.821, 2, 9.24722, -4.90299, -2.21718, 142.023, -35.657, 91.2678
3.826, 2, 9.42643, -4.73537, -2.416, 141.461, -36.1772, 91.7145
3.828, 2, 9.42643, -4.73537, -2.416, 141.461, -36.1772, 91.7145
3.832, 2, 9.51797, -4.64923, -2.51689, 141.177, -36.4414, 91.9403
3.836, 2, 9.61067, -4.56185, -2.61839, 140.891, -36.7073, 92.1674
3.84, 2, 9.70434, -4.47346, -2.72033, 140.603, -36.9746, 92.3953
3.844, 2, 9.79877, -4.3843, -2.82258, 140.315, -37.2428, 92.6239
3.848, 2, 9.89375, -4.29459, -2.92505, 140.026, -37.5117, 92.853
3.852, 2, 9.98914, -4.20448, -3.0277, 139.737, -37.7811, 93.0824
3.856, 2, 10.0848, -4.11409, -3.1305, 139.447, -38.051, 93.3122
3.86, 2, 10.1807, -4.02348, -3.2334, 139.156, -38.3212, 93.5422
3.864, 2, 10.2767, -3.93272, -3.3364, 138.866, -38.5916, 93.7725
3.868, 2, 10.3729, -3.84184, -3.43947, 138.575, -38.8623, 94.0028
3.872, 2, 10.4692, -3.75087, -3.54261, 138.284, -39.1332, 94.2334
3.876, 2, 10.5655, -3.65983, -3.64581, 137.993, -39.4042, 94.4641
3.88, 2, 10.6619, -3.56872, -3.74906, 137.702, -39.6753, 94.6948
3.884, 2, 10.7583, -3.47757, -3.85235, 137.41, -39.9466, 94.9257
3.888, 2, 10.8548, -3.38637, -3.95568, 137.119, -40.2179, 95.1567
3.892, 2, 10.9513, -3.29515, -4.05903, 136.827, -40.4894, 95.3877
3.896, 2, 11.0478, -3.2039, -4.16242, 136.536, -40.7609, 95.6188
3.9, 2, 11.1444, -3.11264, -4.26582, 136.244, -41.0324, 95.8499
3.904, 2, 11.2409, -3.02135, -4.36923, 135.952, -41.304, 96.081
3.908, 2, 11.3375, -2.93007, -4.47265, 135.661, -41.5756, 96.3122
3.912, 2, 11.434, -2.83877, -4.57608, 135.369, -41.8472, 96.5434
3.916, 2, 11.5306, -2.74748, -4.67951, 135.077, -42.1189, 96.7746
3.92, 2, 11.6271, -2.65619, -4.78293, 134.785, -42.3905, 97.0057
3.924, 2, 11.7236, -2.56489, -4.88634, 134.494, -42.662, 97.2368
3.928, 2, 11.8198, -2.47357, -4.98975, 134.202, -42.9336, 97.4679
3.932, 2, 11.9157, -2.38216, -5.09315, 133.911, -43.205, 97.6989
3.936, 2, 12.011, -2.29057, -5.19654, 133.619, -43.4763, 97.9298
3.94, 2, 12.1057, -2.19865, -5.29992, 133.329, -43.7475, 98.1604
3.944, 2, 12.1997, -2.10626, -5.4033, 133.039, -44.0184, 98.3907
3.948, 2, 12.2929, -2.01326, -5.50669, 132.75, -44.2889, 98.6204
3.952, 2, 12.3853, -1.91953, -5.61013, 132.463, -44.5591, 98.8493
3.956, 2, 12.4769, -1.82499, -5.71367, 132.178, -44.8287, 99.0773
3.96, 2, 12.5677, -1.72961, -5.81739, 131.897, -45.0978, 99.304
3.965, 2, 12.6578, -1.63343, -5.9214, 131.62, -45.3662, 99.5292
3.97, 2, 12.8354, -1.43876, -6.13067, 131.081, -45.9011, 99.9738
3.972, 2, 12.8354, -1.43876, -6.13067, 131.081, -45.9011, 99.9738
3.976, 2, 12.923, -1.3403, -6.23611, 130.821, -46.1673, 100.193
3.98, 2, 13.0098, -1.24109, -6.34219, 130.568, -46.4327, 100.409
3.984, 2, 13.096, -1.14112, -6.44896, 130.323, -46.6973, 100.623
3.988, 2, 13.1815, -1.0404, -6.55646, 130.086, -46.961, 100.833
3.992, 2, 13.2664, -0.938907, -6.66471, 129.857, -47.2238, 101.041
3.996, 2, 13.3505, -0.836673, -6.77371, 129.636, -47.4859, 101.246
3.999, 2, 13.4338, -0.733711, -6.88345, 129.423, -47.7472, 101.448
4.004, 2, 13.5164, -0.630022, -6.99389, 129.216, -48.0078, 101.648
4.008, 2, 13.5983, -0.525573, -7.10496, 129.016, -48.2677, 101.846
4.013, 2, 13.6794, -0.420309, -7.21656, 128.821, -48.5271, 102.042
4.018, 2, 13.8395, -0.207133, -7.44098, 128.445, -49.0444, 102.429
4.021, 2, 13.8395, -0.207133, -7.44098, 128.445, -49.0444, 102.429
4.024, 2, 13.9183, -0.0992045, -7.55362, 128.262, -49.3024, 102.62
4.028, 2, 13.9962, 0.00954947, -7.66644, 128.081, -49.5601, 102.811
4.032, 2, 14.0733, 0.119021, -7.77941, 127.902, -49.8175, 103.001
4.036, 2, 14.1496, 0.229072, -7.89246, 127.724, -50.0747, 103.191
4.04, 2, 14.2251, 0.339555, -8.00559, 127.547, -50.3317, 103.38
4.044, 2, 14.3001, 0.450342, -8.11876, 127.371, -50.5886, 103.569
4.05, 2, 14.4489, 0.672453, -8.34515, 127.02, -51.1022, 103.947
4.053, 2, 14.4489, 0.672453, -8.34515, 127.02, -51.1022, 103.947
4.058, 2, 14.5969, 0.894947, -8.57155, 126.669, -51.6154, 104.324
4.062, 2, 14.6706, 1.00633, -8.68474, 126.494, -51.872, 104.512
4.064, 2, 14.6706, 1.00633, -8.68474, 126.494, -51.872, 104.512
4.068, 2, 14.7439, 1.11784, -8.79794, 126.319, -52.1284, 104.701
4.072, 2, 14.8167, 1.22953, -8.91115, 126.144, -52.3848, 104.889
4.076, 2, 14.8891, 1.34146, -9.0244, 125.97, -52.641, 105.077
4.08, 2, 14.9608, 1.45365, -9.1377, 125.796, -52.8971, 105.265
4.086, 2, 15.1025, 1.67899, -9.36462, 125.449, -53.4087, 105.641
4.088, 2, 15.1025, 1.67899, -9.36462, 125.449, -53.4087, 105.641
4.092, 2, 15.1725, 1.79218, -9.47831, 125.277, -53.664, 105.828
4.096, 2, 15.2421, 1.90573, -9.59221, 125.106, -53.919, 106.016
4.1, 2, 15.3111, 2.01968, -9.70637, 124.937, -54.1735, 106.202
4.104, 2, 15.3796, 2.13402, -9.82083, 124.769, -54.4274, 106.389
4.11, 2, 15.5152, 2.36391, -10.0508, 124.44, -54.9332, 106.76
4.111, 2, 15.5152, 2.36391, -10.0508, 124.44, -54.9332, 106.76
4.116, 2, 15.5824, 2.4794, -10.1663, 124.279, -55.1849, 106.945
4.12, 2, 15.6492, 2.59523, -10.2823, 124.121, -55.4358, 107.129
4.124, 2, 15.7157, 2.71139, -10.3987, 123.966, -55.6858, 107.313
4.128, 2, 15.7818, 2.82788, -10.5154, 123.813, -55.9349, 107.496
4.133, 2, 15.8475, 2.94472, -10.6326, 123.663, -56.1831, 107.678
4.138, 2, 15.9776, 3.17958, -10.868, 123.371, -56.677, 108.041
4.14, 2, 15.9776, 3.17958, -10.868, 123.371, -56.677, 108.041
4.144, 2, 16.0419, 3.29764, -10.9863, 123.228, -56.9228, 108.221
4.148, 2, 16.1056, 3.41615, -11.1047, 123.087, -57.168, 108.401
4.152, 2, 16.1686, 3.53513, -11.2235, 122.948, -57.4126, 108.581
4.156, 2, 16.2308, 3.65459, -11.3425, 122.81, -57.6567, 108.76
4.16, 2, 16.292, 3.77454, -11.4616, 122.673, -57.9003, 108.939
4.166, 2, 16.4113, 4.01587, -11.7005, 122.402, -58.3863, 109.296
4.168, 2, 16.4113, 4.01587, -11.7005, 122.402, -58.3863, 109.296
4.172, 2, 16.4695, 4.13718, -11.8201, 122.268, -58.6288, 109.474
4.176, 2, 16.5268, 4.25886, -11.9399, 122.135, -58.8708, 109.651
4.18, 2, 16.5834, 4.38087, -12.0598, 122.002, -59.1123, 109.829
4.184, 2, 16.6394, 4.50315, -12.1798, 121.871, -59.3533, 110.006
4.19, 2, 16.7503, 4.74839, -12.4202, 121.612, -59.8335, 110.359
4.194, 2, 16.8052, 4.87129, -12.5405, 121.484, -60.0726, 110.535
4.197, 2, 16.8052, 4.87129, -12.5405, 121.484, -60.0726, 110.535
4.202, 2, 16.9141, 5.11758, -12.7815, 121.232, -60.5485, 110.886
4.203, 2, 16.9141, 5.11758, -12.7815, 121.232, -60.5485, 110.886
4.208, 2, 16.9681, 5.24098, -12.9021, 121.108, -60.7852, 111.061
4.212, 2, 17.0216, 5.36457, -13.0229, 120.986, -61.0212, 111.235
4.216, 2, 17.0746, 5.48837, -13.1437, 120.865, -61.2563, 111.409
4.22, 2, 17.1271, 5.6124, -13.2646, 120.745, -61.4907, 111.582
4.225, 2, 17.1791, 5.73667, -13.3856, 120.627, -61.7244, 111.755
4.23, 2, 17.281, 5.98592, -13.6277, 120.393, -62.1894, 112.099
4.234, 2, 17.331, 6.11089, -13.7488, 120.278, -62.4208, 112.271
4.237, 2, 17.331, 6.11089, -13.7488, 120.278, -62.4208, 112.271
4.242, 2, 17.4289, 6.36151, -13.9911, 120.051, -62.8814, 112.613
4.246, 2, 17.4769, 6.48711, -14.1121, 119.939, -63.1106, 112.783
4.249, 2, 17.4769, 6.48711, -14.1121, 119.939, -63.1106, 112.783
4.254, 2, 17.5709, 6.73879, -14.3541, 119.718, -63.5666, 113.121
4.257, 2, 17.5709, 6.73879, -14.3541, 119.718, -63.5666, 113.121
4.262, 2, 17.6629, 6.99092, -14.5957, 119.502, -64.0192, 113.458
4.264, 2, 17.6629, 6.99092, -14.5957, 119.502, -64.0192, 113.458
4.268, 2, 17.7082, 7.1171, -14.7162, 119.395, -64.2442, 113.625
4.274, 2, 17.7973, 7.36966, -14.9568, 119.185, -64.6914, 113.958
4.275, 2, 17.7973, 7.36966, -14.9568, 119.185, -64.6914, 113.958
4.28, 2, 17.841, 7.496, -15.0768, 119.081, -64.9137, 114.123
4.284, 2, 17.8841, 7.62238, -15.1966, 118.979, -65.1349, 114.288
4.288, 2, 17.9268, 7.74878, -15.3162, 118.877, -65.3552, 114.453
4.294, 2, 18.0103, 8.0016, -15.5544, 118.678, -65.7929, 114.779
4.297, 2, 18.0103, 8.0016, -15.5544, 118.678, -65.7929, 114.779
4.301, 2, 18.0512, 8.12801, -15.673, 118.579, -66.0102, 114.941
4.306, 2, 18.1311, 8.38076, -15.9092, 118.385, -66.4416, 115.264
4.309, 2, 18.1311, 8.38076, -15.9092, 118.385, -66.4416, 115.264
4.314, 2, 18.2088, 8.63325, -16.1437, 118.196, -66.8687, 115.583
4.317, 2, 18.2088, 8.63325, -16.1437, 118.196, -66.8687, 115.583
4.322, 2, 18.2843, 8.88524, -16.3763, 118.01, -67.2912, 115.899
4.326, 2, 18.3213, 9.01102, -16.4917, 117.919, -67.5007, 116.056
4.327, 2, 18.3213, 9.01102, -16.4917, 117.919, -67.5007, 116.056
4.332, 2, 18.3577, 9.13663, -16.6066, 117.828, -67.7089, 116.212
4.336, 2, 18.3936, 9.26207, -16.7209, 117.739, -67.9159, 116.367
4.34, 2, 18.4289, 9.38731, -16.8344, 117.651, -68.1216, 116.521
4.344, 2, 18.4636, 9.51234, -16.9473, 117.564, -68.326, 116.674
4.35, 2, 18.5314, 9.76161, -17.1709, 117.392, -68.7308, 116.978
4.352, 2, 18.5314, 9.76161, -17.1709, 117.392, -68.7308, 116.978
4.356, 2, 18.5644, 9.88579, -17.2815, 117.308, -68.9311, 117.128
4.36, 2, 18.5969, 10.0096, -17.3912, 117.225, -69.1301, 117.277
4.364, 2, 18.6289, 10.1331, -17.5001, 117.143, -69.3276, 117.425
4.368, 2, 18.6602, 10.2563, -17.608, 117.062, -69.5236, 117.573
4.374, 2, 18.7213, 10.5014, -17.8208, 116.904, -69.9111, 117.863
4.378, 2, 18.751, 10.6233, -17.9256, 116.826, -70.1026, 118.007
4.381, 2, 18.751, 10.6233, -17.9256, 116.826, -70.1026, 118.007
4.385, 2, 18.7802, 10.7447, -18.0293, 116.749, -70.2924, 118.149
4.389, 2, 18.8088, 10.8655, -18.1319, 116.674, -70.4806, 118.29
4.394, 2, 18.8643, 11.1057, -18.3333, 116.526, -70.852, 118.569
4.398, 2, 18.8913, 11.2249, -18.4321, 116.454, -71.0351, 118.706
4.402, 2, 18.9177, 11.3435, -18.5295, 116.383, -71.2164, 118.841
4.406, 2, 18.9435, 11.4614, -18.6255, 116.313, -71.396, 118.976
4.409, 2, 18.9435, 11.4614, -18.6255, 116.313, -71.396, 118.976
4.415, 2, 18.9936, 11.6951, -18.813, 116.177, -71.7495, 119.24
4.418, 2, 19.0178, 11.8109, -18.9045, 116.11, -71.9234, 119.369
4.421, 2, 19.0178, 11.8109, -18.9045, 116.11, -71.9234, 119.369
4.426, 2, 19.0646, 12.04, -19.0826, 115.981, -72.2654, 119.624
4.429, 2, 19.0646, 12.04, -19.0826, 115.981, -72.2654, 119.624
4.432, 2, 19.0872, 12.1534, -19.1691, 115.918, -72.4334, 119.749
4.436, 2, 19.1092, 12.2658, -19.2538, 115.856, -72.5994, 119.872
4.44, 2, 19.1307, 12.3773, -19.3368, 115.796, -72.7633, 119.994
4.445, 2, 19.1517, 12.4879, -19.4179, 115.737, -72.9251, 120.113
4.45, 2, 19.1921, 12.7062, -19.5744, 115.622, -73.2423, 120.347
4.454, 2, 19.2115, 12.8138, -19.6498, 115.567, -73.3977, 120.462
4.458, 2, 19.2304, 12.9204, -19.7231, 115.513, -73.5509, 120.574
4.461, 2, 19.2304, 12.9204, -19.7231, 115.513, -73.5509, 120.574
4.466, 2, 19.2667, 13.1302, -19.8635, 115.409, -73.8506, 120.793
4.471, 2, 19.2841, 13.2335, -19.9305, 115.358, -73.997, 120.899
4.474, 2, 19.301, 13.3355, -19.9954, 115.309, -74.1412, 121.004
4.478, 2, 19.3174, 13.4364, -20.0581, 115.262, -74.2831, 121.107
4.481, 2, 19.3174, 13.4364, -20.0581, 115.262, -74.2831, 121.107
4.486, 2, 19.3487, 13.6345, -20.1768, 115.17, -74.56, 121.306
4.49, 2, 19.3636, 13.7317, -20.2327, 115.127, -74.6949, 121.402
4.494, 2, 19.3781, 13.8276, -20.2864, 115.084, -74.8276, 121.497
4.498, 2, 19.3921, 13.9222, -20.3377, 115.043, -74.9579, 121.589
4.499, 2, 19.3921, 13.9222, -20.3377, 115.043, -74.9579, 121.589
4.504, 2, 19.4057, 14.0155, -20.3866, 115.003, -75.0858, 121.679
4.508, 2, 19.4188, 14.1075, -20.4332, 114.964, -75.2114, 121.767
4.512, 2, 19.4314, 14.1981, -20.4775, 114.927, -75.3347, 121.853
4.517, 2, 19.4437, 14.2874, -20.5193, 114.891, -75.4556, 121.937
4.521, 2, 19.4555, 14.3753, -20.5588, 114.856, -75.5742, 122.019
4.527, 2, 19.4778, 14.5469, -20.6305, 114.791, -75.8044, 122.176
4.53, 2, 19.4883, 14.6307, -20.6627, 114.76, -75.9161, 122.251
4.533, 2, 19.4883, 14.6307, -20.6627, 114.76, -75.9161, 122.251
4.538, 2, 19.5083, 14.7939, -20.72, 114.702, -76.1325, 122.395
4.542, 2, 19.5176, 14.8734, -20.745, 114.675, -76.2373, 122.464
4.545, 2, 19.5176, 14.8734, -20.745, 114.675, -76.2373, 122.464
4.55, 2, 19.5353, 15.028, -20.7878, 114.624, -76.4402, 122.596
4.553, 2, 19.5353, 15.028, -20.7878, 114.624, -76.4402, 122.596
4.558, 2, 19.5515, 15.177, -20.821, 114.578, -76.6342, 122.719
4.562, 2, 19.5591, 15.2493, -20.8341, 114.556, -76.728, 122.778
4.565, 2, 19.5591, 15.2493, -20.8341, 114.556, -76.728, 122.778
4.57, 2, 19.5733, 15.3897, -20.8532, 114.517, -76.9091, 122.889
4.573, 2, 19.5733, 15.3897, -20.8532, 114.517, -76.9091, 122.889
4.578, 2, 19.5862, 15.5244, -20.863, 114.483, -77.0819, 122.992
4.58, 2, 19.5862, 15.5244, -20.863, 114.483, -77.0819, 122.992
4.584, 2, 19.5922, 15.5897, -20.8644, 114.467, -77.1652, 123.041
4.588, 2, 19.5979, 15.6535, -20.8636, 114.452, -77.2465, 123.087
4.592, 2, 19.6034, 15.7159, -20.8605, 114.439, -77.3257, 123.132
4.596, 2, 19.6085, 15.7769, -20.8551, 114.426, -77.4031, 123.175
4.602, 2, 19.618, 15.8948, -20.8379, 114.404, -77.5519, 123.254
4.605, 2, 19.618, 15.8948, -20.8379, 114.404, -77.5519, 123.254
4.61, 2, 19.6265, 16.0072, -20.8119, 114.386, -77.6933, 123.327
4.613, 2, 19.6265, 16.0072, -20.8119, 114.386, -77.6933, 123.327
4.618, 2, 19.6341, 16.1141, -20.7774, 114.372, -77.8273, 123.392
4.622, 2, 19.6375, 16.1656, -20.757, 114.366, -77.8916, 123.422
4.625, 2, 19.6375, 16.1656, -20.757, 114.366, -77.8916, 123.422
4.63, 2, 19.6437, 16.2645, -20.71, 114.357, -78.0151, 123.476
4.634, 2, 19.6465, 16.312, -20.6835, 114.354, -78.0742, 123.501
4.636, 2, 19.6465, 16.312, -20.6835, 114.354, -78.0742, 123.501
4.64, 2, 19.649, 16.3582, -20.655, 114.352, -78.1317, 123.524
4.644, 2, 19.6514, 16.4031, -20.6245, 114.351, -78.1876, 123.545
4.648, 2, 19.6536, 16.4467, -20.592, 114.35, -78.2418, 123.565
4.652, 2, 19.6556, 16.489, -20.5576, 114.35, -78.2944, 123.583
4.656, 2, 19.6575, 16.5301, -20.5213, 114.351, -78.3455, 123.599
4.662, 2, 19.6606, 16.6085, -20.4431, 114.355, -78.4429, 123.627
4.665, 2, 19.6606, 16.6085, -20.4431, 114.355, -78.4429, 123.627
4.668, 2, 19.662, 16.6459, -20.4012, 114.359, -78.4894, 123.639
4.672, 2, 19.6632, 16.682, -20.3575, 114.362, -78.5344, 123.649
4.676, 2, 19.6642, 16.7169, -20.3119, 114.367, -78.5779, 123.658
4.68, 2, 19.6651, 16.7506, -20.2646, 114.372, -78.6199, 123.665
4.685, 2, 19.6658, 16.7831, -20.2155, 114.378, -78.6605, 123.671
4.69, 2, 19.6669, 16.8445, -20.1122, 114.392, -78.7375, 123.677
4.692, 2, 19.6669, 16.8445, -20.1122, 114.392, -78.7375, 123.677
4.696, 2, 19.6673, 16.8735, -20.0579, 114.4, -78.7739, 123.679
4.7, 2, 19.6675, 16.9013, -20.0019, 114.409, -78.809, 123.678
4.704, 2, 19.6676, 16.9279, -19.9443, 114.418, -78.8427, 123.677
4.709, 2, 19.6676, 16.9534, -19.885, 114.427, -78.8751, 123.674
4.714, 2, 19.6672, 17.001, -19.7616, 114.449, -78.9359, 123.663
4.715, 2, 19.6672, 17.001, -19.7616, 114.449, -78.9359, 123.663
4.72, 2, 19.6668, 17.0231, -19.6975, 114.46, -78.9643, 123.656
4.724, 2, 19.6664, 17.0441, -19.6317, 114.472, -78.9914, 123.648
4.728, 2, 19.6658, 17.0639, -19.5644, 114.484, -79.0173, 123.638
4.733, 2, 19.6652, 17.0827, -19.4956, 114.497, -79.0419, 123.626
4.737, 2, 19.6644, 17.1003, -19.4252, 114.511, -79.0653, 123.614
4.74, 2, 19.6636, 17.1169, -19.3532, 114.525, -79.0874, 123.6
4.744, 2, 19.6627, 17.1324, -19.2798, 114.539, -79.1083, 123.585
4.748, 2, 19.6616, 17.1468, -19.2048, 114.554, -79.1279, 123.568
4.752, 2, 19.6605, 17.1601, -19.1284, 114.569, -79.1463, 123.55
4.757, 2, 19.6594, 17.1723, -19.0504, 114.585, -79.1635, 123.531
4.762, 2, 19.6568, 17.1936, -18.8902, 114.618, -79.1942, 123.489
4.764, 2, 19.6568, 17.1936, -18.8902, 114.618, -79.1942, 123.489
4.768, 2, 19.6553, 17.2026, -18.8079, 114.635, -79.2078, 123.466
4.772, 2, 19.6538, 17.2106, -18.7241, 114.652, -79.2201, 123.442
4.776, 2, 19.6522, 17.2175, -18.639, 114.67, -79.2312, 123.417
4.78, 2, 19.6506, 17.2234, -18.5524, 114.688, -79.2412, 123.39
4.784, 2, 19.6489, 17.2282, -18.4644, 114.706, -79.2499, 123.362
4.788, 2, 19.6471, 17.2319, -18.3751, 114.725, -79.2574, 123.333
4.792, 2, 19.6452, 17.2347, -18.2843, 114.744, -79.2637, 123.302
4.796, 2, 19.6433, 17.2363, -18.1922, 114.764, -79.2688, 123.271
4.8, 2, 19.6413, 17.2369, -18.0987, 114.784, -79.2727, 123.238
4.805, 2, 19.6392, 17.2365, -18.0038, 114.804, -79.2753, 123.203
4.809, 2, 19.637, 17.2351, -17.9076, 114.825, -79.2768, 123.168
4.812, 2, 19.6348, 17.2325, -17.81, 114.845, -79.277, 123.131
4.816, 2, 19.6325, 17.229, -17.7111, 114.866, -79.276, 123.093
4.82, 2, 19.6302, 17.2244, -17.6108, 114.888, -79.2738, 123.054
4.824, 2, 19.6278, 17.2187, -17.5092, 114.909, -79.2703, 123.013
4.828, 2, 19.6253, 17.2121, -17.4063, 114.931, -79.2656, 122.972
4.832, 2, 19.6228, 17.2043, -17.3021, 114.953, -79.2596, 122.928
4.836, 2, 19.6202, 17.1955, -17.1965, 114.975, -79.2523, 122.884
4.84, 2, 19.6175, 17.1857, -17.0897, 114.998, -79.2437, 122.839
4.844, 2, 19.6148, 17.1748, -16.9815, 115.021, -79.2339, 122.792
4.848, 2, 19.612, 17.1628, -16.8721, 115.044, -79.2228, 122.744
4.852, 2, 19.6091, 17.1498, -16.7613, 115.067, -79.2103, 122.694
4.856, 2, 19.6062, 17.1357, -16.6492, 115.09, -79.1966, 122.643
4.86, 2, 19.6032, 17.1206, -16.5359, 115.114, -79.1814, 122.591
4.864, 2, 19.6001, 17.1044, -16.4212, 115.138, -79.165, 122.538
4.868, 2, 19.597, 17.0871, -16.3053, 115.162, -79.1471, 122.483
4.872, 2, 19.5938, 17.0687, -16.1881, 115.186, -79.1279, 122.427
4.877, 2, 19.5905, 17.0492, -16.0696, 115.21, -79.1073, 122.37
4.882, 2, 19.5837, 17.007, -15.8287, 115.259, -79.0617, 122.251
4.884, 2, 19.5837, 17.007, -15.8287, 115.259, -79.0617, 122.251
4.888, 2, 19.5802, 16.9842, -15.7064, 115.283, -79.0368, 122.189
4.892, 2, 19.5767, 16.9604, -15.5828, 115.308, -79.0104, 122.127
4.896, 2, 19.573, 16.9354, -15.4579, 115.333, -78.9824, 122.062
4.9, 2, 19.5693, 16.9093, -15.3317, 115.358, -78.953, 121.997
4.904, 2, 19.5655, 16.882, -15.2043, 115.382, -78.922, 121.93
4.908, 2, 19.5616, 16.8537, -15.0756, 115.408, -78.8894, 121.861
4.912, 2, 19.5576, 16.8241, -14.9456, 115.433, -78.8553, 121.791
4.916, 2, 19.5536, 16.7935, -14.8144, 115.458, -78.8195, 121.72
4.92, 2, 19.5495, 16.7616, -14.6818, 115.483, -78.7822, 121.647
4.924, 2, 19.5452, 16.7286, -14.548, 115.508, -78.7431, 121.572
4.928, 2, 19.5409, 16.6944, -14.413, 115.533, -78.7024, 121.496
4.932, 2, 19.5365, 16.659, -14.2766, 115.559, -78.6599, 121.419
4.936, 2, 19.532, 16.6224, -14.139, 115.584, -78.6157, 121.34
4.94, 2, 19.5274, 16.5847, -14.0001, 115.609, -78.5697, 121.259
4.944, 2, 19.5227, 16.5456, -13.86, 115.635, -78.522, 121.177
4.948, 2, 19.5179, 16.5054, -13.7186, 115.66, -78.4724, 121.093
4.952, 2, 19.5129, 16.4639, -13.5759, 115.685, -78.4209, 121.007
4.956, 2, 19.5079, 16.4212, -13.432, 115.71, -78.3676, 120.92
4.96, 2, 19.5027, 16.3772, -13.2867, 115.735, -78.3123, 120.832
4.964, 2, 19.4975, 16.3319, -13.1403, 115.76, -78.2551, 120.741
4.968, 2, 19.4921, 16.2854, -12.9925, 115.785, -78.1959, 120.649
4.972, 2, 19.4865, 16.2376, -12.8435, 115.81, -78.1347, 120.555
4.976, 2, 19.4809, 16.1884, -12.6933, 115.835, -78.0714, 120.459
4.98, 2, 19.4751, 16.138, -12.5418, 115.86, -78.0061, 120.362
4.984, 2, 19.4691, 16.0862, -12.389, 115.884, -77.9387, 120.263
4.988, 2, 19.463, 16.0331, -12.235, 115.909, -77.8691, 120.162
4.992, 2, 19.4568, 15.9787, -12.0798, 115.933, -77.7973, 120.059
4.996, 2, 19.4504, 15.9229, -11.9233, 115.957, -77.7234, 119.955
5.002, 2, 19.4371, 15.8072, -11.6067, 116.005, -77.5688, 119.74
5.004, 2, 19.4371, 15.8072, -11.6067, 116.005, -77.5688, 119.74
5.008, 2, 19.4302, 15.7474, -11.4466, 116.029, -77.4881, 119.63
5.012, 2, 19.4232, 15.6861, -11.2853, 116.052, -77.405, 119.517
5.016, 2, 19.4159, 15.6234, -11.1228, 116.076, -77.3196, 119.403
5.02, 2, 19.4085, 15.5594, -10.9591, 116.099, -77.2319, 119.287
5.024, 2, 19.4009, 15.4939, -10.7943, 116.122, -77.1417, 119.169
5.028, 2, 19.3931, 15.4271, -10.6283, 116.144, -77.0491, 119.05
5.032, 2, 19.3851, 15.3588, -10.4611, 116.167, -76.954, 118.928
5.036, 2, 19.3769, 15.2891, -10.2929, 116.189, -76.8565, 118.804
5.04, 2, 19.3685, 15.2181, -10.1235, 116.211, -76.7565, 118.678
5.044, 2, 19.3598, 15.1456, -9.9531, 116.233, -76.654, 118.55
5.048, 2, 19.3509, 15.0716, -9.78162, 116.254, -76.5489, 118.42
5.052, 2, 19.3418, 14.9963, -9.60909, 116.275, -76.4413, 118.289
5.056, 2, 19.3325, 14.9195, -9.43556, 116.296, -76.3311, 118.155
5.06, 2, 19.3229, 14.8414, -9.26103, 116.316, -76.2184, 118.019
5.064, 2, 19.3131, 14.7618, -9.08555, 116.337, -76.1031, 117.881
5.068, 2, 19.303, 14.6809, -8.90913, 116.356, -75.9852, 117.741
5.072, 2, 19.2927, 14.5985, -8.73181, 116.376, -75.8647, 117.599
5.076, 2, 19.2821, 14.5148, -8.55361, 116.395, -75.7416, 117.455
5.08, 2, 19.2712, 14.4297, -8.37457, 116.414, -75.616, 117.31
5.084, 2, 19.26, 14.3433, -8.19472, 116.433, -75.4877, 117.162
5.088, 2, 19.2486, 14.2554, -8.0141, 116.451, -75.3568, 117.012
5.092, 2, 19.2369, 14.1663, -7.83274, 116.469, -75.2234, 116.86
5.096, 2, 19.2248, 14.0758, -7.65067, 116.487, -75.0874, 116.707
5.1, 2, 19.2125, 13.9841, -7.46794, 116.504, -74.9489, 116.551
5.104, 2, 19.1999, 13.891, -7.28459, 116.521, -74.8078, 116.394
5.108, 2, 19.1869, 13.7967, -7.10064, 116.537, -74.6642, 116.234
5.112, 2, 19.1737, 13.7012, -6.91615, 116.553, -74.5181, 116.073
5.116, 2, 19.1601, 13.6044, -6.73116, 116.569, -74.3695, 115.91
5.12, 2, 19.1462, 13.5064, -6.5457, 116.585, -74.2185, 115.746
5.124, 2, 19.1319, 13.4072, -6.35981, 116.6, -74.0651, 115.579
5.128, 2, 19.1174, 13.3069, -6.17354, 116.615, -73.9092, 115.411
5.132, 2, 19.1024, 13.2054, -5.98693, 116.629, -73.7511, 115.241
5.136, 2, 19.0872, 13.1029, -5.80002, 116.643, -73.5905, 115.07
5.14, 2, 19.0716, 12.9992, -5.61285, 116.657, -73.4277, 114.896
5.144, 2, 19.0556, 12.8946, -5.42547, 116.67, -73.2627, 114.722
5.148, 2, 19.0393, 12.7888, -5.2379, 116.684, -73.0954, 114.545
5.152, 2, 19.0226, 12.6821, -5.0502, 116.696, -72.9259, 114.368
5.156, 2, 19.0055, 12.5745, -4.86241, 116.709, -72.7543, 114.188
5.16, 2, 18.9881, 12.4659, -4.67456, 116.721, -72.5807, 114.008
5.164, 2, 18.9703, 12.3563, -4.48669, 116.733, -72.4049, 113.826
5.168, 2, 18.9521, 12.2459, -4.29884, 116.745, -72.2272, 113.642
5.172, 2, 18.9335, 12.1347, -4.11104, 116.756, -72.0475, 113.457
5.176, 2, 18.9145, 12.0226, -3.92334, 116.767, -71.8658, 113.271
5.18, 2, 18.8952, 11.9098, -3.73576, 116.778, -71.6823, 113.084
5.184, 2, 18.8755, 11.7962, -3.54834, 116.788, -71.497, 112.895
5.188, 2, 18.8553, 11.6819, -3.36112, 116.799, -71.3099, 112.706
5.192, 2, 18.8348, 11.5668, -3.17412, 116.809, -71.121, 112.515
5.196, 2, 18.8139, 11.4511, -2.98737, 116.819, -70.9304, 112.323
5.2, 2, 18.7925, 11.3348, -2.8009, 116.828, -70.7382, 112.13
5.204, 2, 18.7708, 11.2178, -2.61475, 116.838, -70.5443, 111.936
5.208, 2, 18.7486, 11.1003, -2.42893, 116.847, -70.3489, 111.741
5.212, 2, 18.7261, 10.9822, -2.24348, 116.856, -70.1519, 111.545
5.216, 2, 18.7031, 10.8636, -2.05841, 116.865, -69.9534, 111.348
5.22, 2, 18.6797, 10.7444, -1.87375, 116.874, -69.7535, 111.15
5.224, 2, 18.6559, 10.6248, -1.68953, 116.883, -69.5522, 110.951
5.228, 2, 18.6317, 10.5048, -1.50576, 116.891, -69.3495, 110.752
5.232, 2, 18.607, 10.3843, -1.32246, 116.9, -69.1455, 110.551
5.236, 2, 18.5819, 10.2634, -1.13965, 116.908, -68.9401, 110.35
5.24, 2, 18.5564, 10.1422, -0.957353, 116.917, -68.7335, 110.148
5.244, 2, 18.5305, 10.0206, -0.77558, 116.925, -68.5256, 109.945
5.248, 2, 18.5041, 9.89861, -0.594348, 116.933, -68.3166, 109.742
5.252, 2, 18.4773, 9.77636, -0.413671, 116.941, -68.1064, 109.538
5.256, 2, 18.4501, 9.65382, -0.233564, 116.95, -67.895, 109.333
5.26, 2, 18.4224, 9.53101, -0.0540389, 116.958, -67.6825, 109.128
5.264, 2, 18.3943, 9.40796, 0.124893, 116.966, -67.469, 108.922
5.268, 2, 18.3657, 9.28468, 0.30322, 116.974, -67.2544, 108.715
5.272, 2, 18.3367, 9.16119, 0.480932, 116.983, -67.0388, 108.508
5.276, 2, 18.3073, 9.03752, 0.658018, 116.991, -66.8221, 108.3
5.28, 2, 18.2774, 8.91367, 0.834471, 117, -66.6045, 108.092
5.284, 2, 18.247, 8.78967, 1.01028, 117.008, -66.386, 107.883
5.288, 2, 18.2163, 8.66553, 1.18544, 117.017, -66.1665, 107.674
5.292, 2, 18.185, 8.54128, 1.35995, 117.026, -65.9461, 107.464
5.296, 2, 18.1533, 8.41692, 1.53379, 117.034, -65.7249, 107.253
5.3, 2, 18.1212, 8.29247, 1.70696, 117.044, -65.5028, 107.042
5.304, 2, 18.0886, 8.16794, 1.87945, 117.053, -65.2798, 106.831
5.308, 2, 18.0555, 8.04336, 2.05127, 117.062, -65.056, 106.619
5.312, 2, 18.022, 7.91873, 2.2224, 117.072, -64.8314, 106.407
5.316, 2, 17.988, 7.79407, 2.39284, 117.081, -64.6061, 106.194
5.32, 2, 17.9536, 7.66939, 2.56259, 117.092, -64.3799, 105.981
5.324, 2, 17.9186, 7.54471, 2.73165, 117.102, -64.153, 105.767
5.328, 2, 17.8833, 7.42003, 2.9, 117.112, -63.9254, 105.553
5.332, 2, 17.8474, 7.29537, 3.06765, 117.123, -63.697, 105.338
5.336, 2, 17.8111, 7.17074, 3.2346, 117.134, -63.4679, 105.124
5.34, 2, 17.7743, 7.04615, 3.40084, 117.145, -63.2381, 104.908
5.344, 2, 17.7371, 6.92161, 3.56637, 117.157, -63.0076, 104.692
5.348, 2, 17.6993, 6.79713, 3.73119, 117.169, -62.7765, 104.476
5.352, 2, 17.6611, 6.67272, 3.8953, 117.181, -62.5447, 104.26
5.356, 2, 17.6225, 6.5484, 4.05869, 117.194, -62.3122, 104.043
5.36, 2, 17.5833, 6.42417, 4.22137, 117.207, -62.0791, 103.825
5.364, 2, 17.5436, 6.30004, 4.38333, 117.22, -61.8454, 103.608
5.368, 2, 17.5035, 6.17602, 4.54457, 117.234, -61.611, 103.389
5.372, 2, 17.4629, 6.05213, 4.70509, 117.249, -61.3761, 103.171
5.376, 2, 17.4218, 5.92836, 4.86489, 117.263, -61.1405, 102.952
5.38, 2, 17.3803, 5.80472, 5.02398, 117.278, -60.9043, 102.732
5.384, 2, 17.3382, 5.68124, 5.18234, 117.294, -60.6676, 102.513
5.388, 2, 17.2956, 5.5579, 5.33999, 117.31, -60.4302, 102.292
5.392, 2, 17.2526, 5.43473, 5.49691, 117.327, -60.1923, 102.072
5.396, 2, 17.2091, 5.31173, 5.6531, 117.344, -59.9539, 101.851
5.4, 2, 17.165, 5.1889, 5.80858, 117.361, -59.7149, 101.63
5.404, 2, 17.1205, 5.06626, 5.96333, 117.379, -59.4753, 101.408
5.408, 2, 17.0755, 4.94381, 6.11736, 117.398, -59.2352, 101.186
5.412, 2, 17.03, 4.82156, 6.27067, 117.417, -58.9945, 100.963
5.416, 2, 16.984, 4.69951, 6.42326, 117.437, -58.7533, 100.74
5.42, 2, 16.9375, 4.57768, 6.57513, 117.457, -58.5116, 100.516
5.424, 2, 16.8905, 4.45607, 6.72627, 117.478, -58.2694, 100.292
5.428, 2, 16.843, 4.33469, 6.87668, 117.5, -58.0266, 100.068
5.432, 2, 16.795, 4.21353, 7.02637, 117.523, -57.7834, 99.8433
5.436, 2, 16.7465, 4.09262, 7.17533, 117.546, -57.5396, 99.618
5.44, 2, 16.6975, 3.97194, 7.32357, 117.569, -57.2954, 99.3923
5.444, 2, 16.648, 3.85152, 7.47109, 117.594, -57.0506, 99.1661
5.448, 2, 16.5979, 3.73136, 7.61789, 117.619, -56.8054, 98.9394
5.452, 2, 16.5474, 3.61146, 7.76396, 117.645, -56.5597, 98.7123
5.456, 2, 16.4964, 3.49183, 7.90931, 117.671, -56.3134, 98.4847
5.46, 2, 16.4448, 3.37248, 8.05394, 117.699, -56.0668, 98.2565
5.464, 2, 16.3927, 3.2534, 8.19784, 117.727, -55.8196, 98.0279
5.468, 2, 16.3401, 3.13461, 8.34102, 117.756, -55.572, 97.7987
5.472, 2, 16.287, 3.01612, 8.48347, 117.786, -55.3239, 97.569
5.476, 2, 16.2334, 2.89791, 8.62521, 117.817, -55.0753, 97.3388
5.48, 2, 16.1793, 2.78001, 8.76623, 117.848, -54.8263, 97.108
5.484, 2, 16.1247, 2.66241, 8.90653, 117.881, -54.5768, 96.8766
5.488, 2, 16.0695, 2.54512, 9.04611, 117.914, -54.3269, 96.6447
5.492, 2, 16.0139, 2.42816, 9.18498, 117.948, -54.0765, 96.4121
5.496, 2, 15.9577, 2.31151, 9.32313, 117.984, -53.8257, 96.179
5.5, 2, 15.901, 2.1952, 9.46056, 118.02, -53.5744, 95.9452
5.504, 2, 15.8437, 2.07922, 9.59726, 118.057, -53.3227, 95.7108
5.508, 2, 15.7859, 1.96358, 9.73325, 118.095, -53.0706, 95.4758
5.512, 2, 15.7276, 1.84828, 9.86852, 118.135, -52.818, 95.2401
5.516, 2, 15.6688, 1.73332, 10.0031, 118.175, -52.565, 95.0036
5.52, 2, 15.6096, 1.61869, 10.1369, 118.216, -52.3116, 94.7665
5.524, 2, 15.5498, 1.50441, 10.2701, 118.259, -52.0577, 94.5287
5.528, 2, 15.4895, 1.39049, 10.4025, 118.303, -51.8035, 94.2902
5.532, 2, 15.4287, 1.27693, 10.5342, 118.347, -51.5488, 94.051
5.536, 2, 15.3674, 1.16375, 10.6652, 118.393, -51.2937, 93.8109
5.54, 2, 15.3054, 1.05096, 10.7955, 118.44, -51.0383, 93.5702
5.544, 2, 15.2429, 0.938571, 10.9251, 118.489, -50.7824, 93.3286
5.548, 2, 15.1799, 0.826584, 11.0539, 118.538, -50.5262, 93.0862
5.552, 2, 15.1163, 0.714998, 11.1821, 118.589, -50.2696, 92.843
5.556, 2, 15.0522, 0.603814, 11.3095, 118.641, -50.0125, 92.5988
5.56, 2, 14.9875, 0.493031, 11.4362, 118.694, -49.7551, 92.3538
5.564, 2, 14.9224, 0.382647, 11.5621, 118.749, -49.4974, 92.1077
5.568, 2, 14.8568, 0.272659, 11.6873, 118.805, -49.2392, 91.8607
5.572, 2, 14.7907, 0.163068, 11.8118, 118.863, -48.9807, 91.6127
5.576, 2, 14.724, 0.0538817, 11.9355, 118.922, -48.7218, 91.3636
5.58, 2, 14.6569, -0.0548867, 12.0585, 118.983, -48.4625, 91.1135
5.584, 2, 14.5893, -0.163223, 12.1808, 119.045, -48.2029, 90.8624
5.588, 2, 14.5211, -0.271113, 12.3023, 119.109, -47.943, 90.6101
5.592, 2, 14.4523, -0.378541, 12.4231, 119.174, -47.6827, 90.3567
5.596, 2, 14.383, -0.4855, 12.5432, 119.241, -47.422, 90.1022
5.6, 2, 14.3131, -0.591983, 12.6626, 119.309, -47.1611, 89.8465
5.604, 2, 14.2427, -0.697988, 12.7813, 119.379, -46.8998, 89.5895
5.608, 2, 14.1717, -0.803505, 12.8992, 119.451, -46.6382, 89.3312
5.612, 2, 14.1001, -0.908529, 13.0164, 119.524, -46.3763, 89.0715
5.616, 2, 14.028, -1.01306, 13.1328, 119.6, -46.1141, 88.8104
5.62, 2, 13.9553, -1.11711, 13.2485, 119.677, -45.8516, 88.5478
5.624, 2, 13.8821, -1.2207, 13.3634, 119.756, -45.5889, 88.2836
5.628, 2, 13.8084, -1.32384, 13.4776, 119.837, -45.3259, 88.0178
5.632, 2, 13.7343, -1.42653, 13.591, 119.92, -45.0626, 87.7502
5.636, 2, 13.6598, -1.52877, 13.7037, 120.005, -44.7991, 87.481
5.64, 2, 13.5848, -1.63054, 13.8156, 120.092, -44.5353, 87.2101
5.644, 2, 13.5092, -1.7318, 13.9267, 120.182, -44.2713, 86.9375
5.648, 2, 13.4332, -1.83253, 14.0372, 120.273, -44.007, 86.6631
5.652, 2, 13.3566, -1.93272, 14.1469, 120.366, -43.7426, 86.3869
5.656, 2, 13.2794, -2.03236, 14.2559, 120.461, -43.4779, 86.1088
5.66, 2, 13.2016, -2.13142, 14.3642, 120.559, -43.213, 85.8287
5.664, 2, 13.1232, -2.2299, 14.4717, 120.658, -42.948, 85.5464
5.668, 2, 13.0442, -2.32778, 14.5786, 120.76, -42.6828, 85.2619
5.672, 2, 12.9646, -2.42505, 14.6846, 120.864, -42.4176, 84.9749
5.676, 2, 12.8844, -2.52173, 14.7899, 120.97, -42.1522, 84.6853
5.68, 2, 12.8037, -2.61784, 14.8945, 121.079, -41.8868, 84.3928
5.684, 2, 12.7226, -2.71342, 14.9982, 121.191, -41.6214, 84.0973
5.688, 2, 12.641, -2.8085, 15.1011, 121.306, -41.356, 83.7987
5.692, 2, 12.5591, -2.90311, 15.2032, 121.424, -41.0905, 83.497
5.696, 2, 12.4769, -2.99723, 15.3044, 121.544, -40.8251, 83.192
5.7, 2, 12.3942, -3.09081, 15.4049, 121.667, -40.5597, 82.8838
5.704, 2, 12.3111, -3.18382, 15.5046, 121.793, -40.2944, 82.5725
5.708, 2, 12.2276, -3.27619, 15.6035, 121.922, -40.029, 82.2581
5.712, 2, 12.1435, -3.36792, 15.7017, 122.053, -39.7638, 81.9405
5.716, 2, 12.0589, -3.45896, 15.7991, 122.187, -39.4986, 81.6196
5.72, 2, 11.9737, -3.54931, 15.8958, 122.323, -39.2336, 81.2952
5.724, 2, 11.888, -3.63895, 15.9917, 122.462, -38.9689, 80.9669
5.728, 2, 11.8016, -3.72787, 16.0869, 122.604, -38.7044, 80.6343
5.732, 2, 11.7147, -3.81604, 16.1814, 122.749, -38.4403, 80.297
5.736, 2, 11.6271, -3.90348, 16.275, 122.896, -38.1768, 79.9543
5.74, 2, 11.539, -3.99018, 16.3677, 123.047, -37.9138, 79.6058
5.744, 2, 11.4505, -4.0762, 16.4596, 123.201, -37.6514, 79.2508
5.748, 2, 11.3616, -4.16157, 16.5505, 123.36, -37.3898, 78.8888
5.752, 2, 11.2723, -4.24634, 16.6405, 123.522, -37.1291, 78.5195
5.756, 2, 11.1829, -4.33054, 16.7296, 123.688, -36.8691, 78.1427
5.76, 2, 11.0932, -4.41415, 16.8177, 123.858, -36.61, 77.7583
5.764, 2, 11.0033, -4.49712, 16.9049, 124.032, -36.3518, 77.3664
5.768, 2, 10.9133, -4.57935, 16.9911, 124.21, -36.0943, 76.9673
5.772, 2, 10.823, -4.66078, 17.0765, 124.391, -35.8377, 76.5613
5.776, 2, 10.7325, -4.74135, 17.1611, 124.575, -35.5818, 76.1486
5.78, 2, 10.6417, -4.82104, 17.2449, 124.763, -35.3269, 75.7292
5.784, 2, 10.5504, -4.89983, 17.3278, 124.953, -35.073, 75.3031
5.788, 2, 10.4587, -4.97769, 17.41, 125.146, -34.8203, 74.8696
5.792, 2, 10.3665, -5.05464, 17.4913, 125.341, -34.5689, 74.4281
5.796, 2, 10.2737, -5.13069, 17.5718, 125.538, -34.3192, 73.9774
5.8, 2, 10.1806, -5.20583, 17.6514, 125.738, -34.0712, 73.5161
5.804, 2, 10.0871, -5.28008, 17.7301, 125.941, -33.8252, 73.0428
5.808, 2, 9.99338, -5.35347, 17.8079, 126.146, -33.5816, 72.5559
5.812, 2, 9.89949, -5.42604, 17.8847, 126.355, -33.3403, 72.0543
5.816, 2, 9.80541, -5.49789, 17.9605, 126.566, -33.1016, 71.5368
5.82, 2, 9.71118, -5.56903, 18.0353, 126.781, -32.8657, 71.0026
5.824, 2, 9.61697, -5.63938, 18.1091, 126.999, -32.6323, 70.4515
5.828, 2, 9.52305, -5.70879, 18.1821, 127.22, -32.4016, 69.8834
5.832, 2, 9.42965, -5.77709, 18.2541, 127.444, -32.1736, 69.2987
5.836, 2, 9.33699, -5.84407, 18.3254, 127.671, -31.9481, 68.6982
5.84, 2, 9.24526, -5.90959, 18.396, 127.898, -31.7255, 68.0825
5.844, 2, 9.15456, -5.97351, 18.4659, 128.126, -31.506, 67.4529
5.848, 2, 9.06489, -6.03581, 18.535, 128.353, -31.29, 66.8102
5.852, 2, 8.9762, -6.09652, 18.6033, 128.577, -31.0782, 66.1555
5.856, 2, 8.88848, -6.15572, 18.6707, 128.796, -30.8714, 65.4897
5.86, 2, 8.80184, -6.21346, 18.737, 129.008, -30.6703, 64.8135
5.864, 2, 8.71645, -6.26974, 18.8023, 129.213, -30.4756, 64.1276
5.868, 2, 8.63254, -6.32455, 18.8664, 129.408, -30.2879, 63.4325
5.872, 2, 8.55027, -6.37791, 18.9292, 129.592, -30.1078, 62.7285
5.876, 2, 8.46979, -6.42986, 18.9908, 129.765, -29.9357, 62.0161
5.88, 2, 8.39118, -6.48045, 19.0511, 129.926, -29.7717, 61.2956
5.884, 2, 8.3145, -6.52975, 19.1103, 130.075, -29.6159, 60.5674
5.888, 2, 8.23975, -6.57782, 19.1685, 130.211, -29.4678, 59.832
5.892, 2, 8.16691, -6.62469, 19.2259, 130.335, -29.3271, 59.0901
5.896, 2, 8.09596, -6.67041, 19.2828, 130.447, -29.1929, 58.3424
5.9, 2, 8.02691, -6.71495, 19.3395, 130.547, -29.0642, 57.5899
5.904, 2, 7.95976, -6.75833, 19.3965, 130.633, -28.9401, 56.8332
5.908, 2, 7.89448, -6.80057, 19.454, 130.707, -28.8194, 56.0734
5.912, 2, 7.83098, -6.84178, 19.5125, 130.768, -28.7012, 55.3111
5.916, 2, 7.76915, -6.88214, 19.5723, 130.814, -28.5844, 54.5469
5.92, 2, 7.70882, -6.92184, 19.6337, 130.846, -28.4684, 53.7813
5.924, 2, 7.64978, -6.9611, 19.6969, 130.862, -28.3524, 53.0147
5.928, 2, 7.59177, -7.00016, 19.7622, 130.862, -28.2361, 52.2473
5.932, 2, 7.53451, -7.03923, 19.8296, 130.846, -28.1191, 51.4796
5.936, 2, 7.47768, -7.0785, 19.8993, 130.812, -28.0011, 50.7118
5.94, 2, 7.42105, -7.1181, 19.9714, 130.762, -27.8818, 49.9444
5.944, 2, 7.36441, -7.15814, 20.046, 130.696, -27.7607, 49.178
5.948, 2, 7.30762, -7.19873, 20.1231, 130.613, -27.6375, 48.4135
5.952, 2, 7.25065, -7.23991, 20.2029, 130.516, -27.5114, 47.6517
5.956, 2, 7.1935, -7.28173, 20.2854, 130.404, -27.3819, 46.8939
5.96, 2, 7.13624, -7.3242, 20.3709, 130.278, -27.2481, 46.141
5.964, 2, 7.07887, -7.36733, 20.4592, 130.139, -27.1093, 45.3944
5.968, 2, 7.02136, -7.41116, 20.5507, 129.988, -26.9646, 44.6551
5.972, 2, 6.9636, -7.45569, 20.6453, 129.825, -26.8134, 43.9239
5.976, 2, 6.90542, -7.50096, 20.7431, 129.65, -26.6552, 43.2017
5.98, 2, 6.84661, -7.54698, 20.8439, 129.465, -26.4896, 42.4891
5.984, 2, 6.78697, -7.59377, 20.9479, 129.27, -26.3165, 41.7866
5.988, 2, 6.72632, -7.64132, 21.0548, 129.065, -26.1357, 41.0946
5.992, 2, 6.66454, -7.68957, 21.1643, 128.852, -25.9474, 40.4136
5.996, 2, 6.6016, -7.73845, 21.2764, 128.63, -25.7518, 39.7442
6, 2, 6.53744, -7.78789, 21.3906, 128.4, -25.5492, 39.0868
6.004, 2, 6.47207, -7.83782, 21.5066, 128.165, -25.34, 38.4423
6.008, 2, 6.40549, -7.88816, 21.6242, 127.924, -25.1248, 37.8114
6.012, 2, 6.33772, -7.93884, 21.7429, 127.681, -24.904, 37.1948
6.016, 2, 6.26875, -7.98979, 21.8625, 127.434, -24.6782, 36.5936
6.02, 2, 6.19859, -8.04094, 21.9826, 127.186, -24.4477, 36.0084
6.024, 2, 6.12728, -8.09221, 22.1029, 126.938, -24.213, 35.4399
6.028, 2, 6.05489, -8.14349, 22.2233, 126.689, -23.9742, 34.8886
6.032, 2, 5.98153, -8.1947, 22.3435, 126.441, -23.7316, 34.3545
6.036, 2, 5.90727, -8.24573, 22.4633, 126.194, -23.4852, 33.8376
6.04, 2, 5.83216, -8.29652, 22.5828, 125.948, -23.2353, 33.3374
6.044, 2, 5.75622, -8.347, 22.7019, 125.703, -22.9821, 32.8531
6.048, 2, 5.67943, -8.39713, 22.8204, 125.458, -22.7256, 32.3837
6.052, 2, 5.60173, -8.44685, 22.9384, 125.215, -22.4663, 31.928
6.056, 2, 5.52302, -8.49613, 23.0559, 124.973, -22.2043, 31.4846
6.06, 2, 5.44326, -8.54493, 23.1727, 124.733, -21.9399, 31.0524
6.064, 2, 5.36242, -8.59321, 23.2888, 124.493, -21.6732, 30.63
6.068, 2, 5.28051, -8.64093, 23.4041, 124.255, -21.4043, 30.2168
6.072, 2, 5.19757, -8.68808, 23.5187, 124.018, -21.1335, 29.8121
6.076, 2, 5.11368, -8.73464, 23.6323, 123.782, -20.8606, 29.4157
6.08, 2, 5.02893, -8.78062, 23.7451, 123.549, -20.5856, 29.0277
6.084, 2, 4.9434, -8.82604, 23.8568, 123.317, -20.3085, 28.6484
6.088, 2, 4.85716, -8.87092, 23.9675, 123.087, -20.0294, 28.2779
6.092, 2, 4.77026, -8.91528, 24.0771, 122.86, -19.7482, 27.9164
6.096, 2, 4.68273, -8.95911, 24.1856, 122.635, -19.4649, 27.564
6.1, 2, 4.59455, -9.00239, 24.2931, 122.412, -19.1796, 27.2205
6.104, 2, 4.5057, -9.04508, 24.3994, 122.191, -18.8924, 26.8855
6.108, 2, 4.41613, -9.08714, 24.5047, 121.972, -18.6034, 26.5585
6.112, 2, 4.3258, -9.12852, 24.609, 121.755, -18.3127, 26.2389
6.116, 2, 4.23467, -9.16919, 24.7122, 121.54, -18.0206, 25.9258
6.12, 2, 4.14271, -9.20912, 24.8145, 121.326, -17.727, 25.6188
6.124, 2, 4.04988, -9.24828, 24.9159, 121.114, -17.4322, 25.317
6.128, 2, 3.95618, -9.28665, 25.0163, 120.903, -17.1363, 25.02
6.132, 2, 3.86162, -9.32421, 25.1158, 120.694, -16.8392, 24.7274
6.136, 2, 3.76621, -9.36095, 25.2143, 120.486, -16.5411, 24.4389
6.14, 2, 3.66999, -9.39685, 25.3118, 120.279, -16.2419, 24.1545
6.144, 2, 3.57301, -9.4319, 25.4081, 120.074, -15.9417, 23.8743
6.148, 2, 3.47535, -9.46613, 25.5033, 119.87, -15.6404, 23.5985
