hehonglu123/Motion-Primitive-Planning/simulation/robotstudio_sim/scripts/log.csv
timestamp, cmd_num, J1, J2, J3, J4, J5, J6
0, 1, -21.0773, 44.6844, 25.0241, -26.4486, -64.7001, 132.548
0.002, 1, -21.0773, 44.6844, 25.0241, -26.4486, -64.7001, 132.548
0.006, 1, -21.0773, 44.6844, 25.0241, -26.4486, -64.7001, 132.548
0.008, 1, -21.0773, 44.6844, 25.0241, -26.4486, -64.7001, 132.548
0.011, 1, -21.0773, 44.6844, 25.0241, -26.4486, -64.7001, 132.548
0.016, 1, -21.0773, 44.6844, 25.0241, -26.4486, -64.7001, 132.548
0.02, 1, -21.0773, 44.6844, 25.0241, -26.4486, -64.7001, 132.548
0.024, 1, -21.0773, 44.6844, 25.0241, -26.4486, -64.7001, 132.548
0.028, 1, -21.0773, 44.6844, 25.0241, -26.4486, -64.7001, 132.548
0.032, 1, -21.0773, 44.6844, 25.0241, -26.4486, -64.7001, 132.548
0.036, 1, -21.0772, 44.6844, 25.0241, -26.4486, -64.7001, 132.548
0.04, 1, -21.077, 44.6844, 25.0241, -26.4486, -64.7001, 132.548
0.044, 1, -21.0765, 44.6844, 25.0241, -26.4486, -64.7001, 132.548
0.048, 1, -21.0755, 44.6843, 25.0241, -26.4485, -64.7001, 132.548
0.052, 1, -21.074, 44.6842, 25.0241, -26.4483, -64.7001, 132.548
0.056, 1, -21.0717, 44.6841, 25.024, -26.4479, -64.7001, 132.548
0.06, 1, -21.0688, 44.684, 25.0238, -26.4471, -64.7001, 132.547
0.064, 1, -21.0651, 44.6838, 25.0234, -26.4456, -64.7, 132.546
0.068, 1, -21.0606, 44.6837, 25.0228, -26.4433, -64.6999, 132.544
0.072, 1, -21.055, 44.6835, 25.0217, -26.4398, -64.6997, 132.541
0.076, 1, -21.0483, 44.6834, 25.0202, -26.4346, -64.6994, 132.537
0.08, 1, -21.0401, 44.6832, 25.018, -26.4272, -64.6989, 132.531
0.084, 1, -21.0303, 44.6832, 25.0149, -26.4173, -64.6982, 132.523
0.088, 1, -21.0186, 44.6832, 25.0108, -26.404, -64.6973, 132.513
0.092, 1, -21.0048, 44.6834, 25.0054, -26.3869, -64.6961, 132.499
0.096, 1, -20.9889, 44.6837, 24.9985, -26.3652, -64.6946, 132.482
0.1, 1, -20.9708, 44.6843, 24.9899, -26.3384, -64.6926, 132.461
0.104, 1, -20.9502, 44.6851, 24.9794, -26.3057, -64.6902, 132.435
0.108, 1, -20.927, 44.6863, 24.9668, -26.2666, -64.6873, 132.405
0.112, 1, -20.9012, 44.6878, 24.9519, -26.2207, -64.6839, 132.369
0.116, 1, -20.8727, 44.6897, 24.9346, -26.1675, -64.6799, 132.327
0.12, 1, -20.8414, 44.6919, 24.9148, -26.1067, -64.6753, 132.279
0.124, 1, -20.8075, 44.6946, 24.8924, -26.0383, -64.67, 132.226
0.128, 1, -20.7709, 44.6977, 24.8675, -25.9622, -64.6642, 132.166
0.131, 1, -20.7318, 44.7012, 24.84, -25.8784, -64.6577, 132.1
0.136, 1, -20.6902, 44.7052, 24.81, -25.7874, -64.6507, 132.029
0.139, 1, -20.6461, 44.7095, 24.7778, -25.6896, -64.6432, 131.952
0.144, 1, -20.5994, 44.7141, 24.7435, -25.5853, -64.6351, 131.87
0.148, 1, -20.5503, 44.719, 24.7073, -25.4754, -64.6266, 131.784
0.152, 1, -20.4989, 44.7241, 24.6694, -25.3604, -64.6177, 131.694
0.156, 1, -20.4454, 44.7294, 24.63, -25.241, -64.6084, 131.6
0.16, 1, -20.3901, 44.7348, 24.5894, -25.1179, -64.5989, 131.504
0.164, 1, -20.3331, 44.7404, 24.5479, -24.9916, -64.5891, 131.405
0.168, 1, -20.2747, 44.746, 24.5055, -24.8629, -64.5792, 131.304
0.172, 1, -20.2148, 44.7516, 24.4625, -24.7323, -64.5691, 131.202
0.176, 1, -20.1537, 44.7572, 24.4191, -24.6003, -64.559, 131.098
0.18, 1, -20.0912, 44.7628, 24.3754, -24.4672, -64.5487, 130.994
0.184, 1, -20.0277, 44.7684, 24.3314, -24.3334, -64.5385, 130.889
0.188, 1, -19.9632, 44.7739, 24.2873, -24.1992, -64.5282, 130.784
0.192, 1, -19.898, 44.7794, 24.2432, -24.0646, -64.5179, 130.678
0.196, 1, -19.8323, 44.7849, 24.1989, -23.9298, -64.5076, 130.572
0.2, 1, -19.7663, 44.7904, 24.1547, -23.7948, -64.4972, 130.466
0.204, 1, -19.7001, 44.7959, 24.1104, -23.6598, -64.4869, 130.361
0.208, 1, -19.6337, 44.8013, 24.0661, -23.5247, -64.4766, 130.255
0.212, 1, -19.5672, 44.8068, 24.0218, -23.3896, -64.4662, 130.149
0.216, 1, -19.5007, 44.8123, 23.9775, -23.2545, -64.4559, 130.043
0.22, 1, -19.4341, 44.8177, 23.9332, -23.1194, -64.4456, 129.937
0.224, 1, -19.3676, 44.8232, 23.8889, -22.9843, -64.4353, 129.831
0.228, 1, -19.301, 44.8286, 23.8446, -22.8493, -64.4249, 129.725
0.232, 1, -19.2344, 44.834, 23.8003, -22.7142, -64.4146, 129.619
0.236, 1, -19.1678, 44.8395, 23.756, -22.5792, -64.4043, 129.513
0.24, 1, -19.1012, 44.8449, 23.7118, -22.4442, -64.394, 129.407
0.244, 1, -19.0346, 44.8504, 23.6675, -22.3092, -64.3836, 129.301
0.248, 1, -18.9681, 44.8558, 23.6233, -22.1742, -64.3733, 129.195
0.252, 1, -18.9015, 44.8613, 23.579, -22.0393, -64.363, 129.089
0.256, 1, -18.835, 44.8667, 23.5348, -21.9043, -64.3527, 128.984
0.26, 1, -18.7684, 44.8721, 23.4905, -21.7695, -64.3424, 128.878
0.264, 1, -18.7019, 44.8776, 23.4463, -21.6346, -64.3321, 128.772
0.268, 1, -18.6354, 44.883, 23.4021, -21.4997, -64.3218, 128.666
0.272, 1, -18.5689, 44.8884, 23.3579, -21.3649, -64.3115, 128.56
0.276, 1, -18.5024, 44.8939, 23.3137, -21.2301, -64.3012, 128.455
0.28, 1, -18.436, 44.8993, 23.2695, -21.0954, -64.2909, 128.349
0.284, 1, -18.3695, 44.9047, 23.2253, -20.9606, -64.2806, 128.243
0.288, 1, -18.3031, 44.9102, 23.1812, -20.8259, -64.2703, 128.138
0.292, 1, -18.2366, 44.9156, 23.137, -20.6912, -64.26, 128.032
0.296, 1, -18.1702, 44.921, 23.0928, -20.5566, -64.2497, 127.926
0.3, 1, -18.1038, 44.9264, 23.0487, -20.4219, -64.2394, 127.821
0.304, 1, -18.0374, 44.9319, 23.0046, -20.2873, -64.2291, 127.715
0.308, 1, -17.971, 44.9373, 22.9604, -20.1528, -64.2188, 127.609
0.312, 1, -17.9047, 44.9427, 22.9163, -20.0182, -64.2085, 127.504
0.316, 1, -17.8383, 44.9481, 22.8722, -19.8837, -64.1982, 127.398
0.32, 1, -17.772, 44.9536, 22.8281, -19.7492, -64.1879, 127.293
0.324, 1, -17.7056, 44.959, 22.784, -19.6147, -64.1777, 127.187
0.328, 1, -17.6393, 44.9644, 22.7399, -19.4802, -64.1674, 127.082
0.332, 1, -17.573, 44.9698, 22.6958, -19.3458, -64.1571, 126.977
0.336, 1, -17.5067, 44.9752, 22.6518, -19.2114, -64.1468, 126.871
0.34, 1, -17.4404, 44.9807, 22.6077, -19.077, -64.1366, 126.766
0.344, 1, -17.3742, 44.9861, 22.5637, -18.9427, -64.1263, 126.66
0.348, 1, -17.3079, 44.9915, 22.5196, -18.8084, -64.116, 126.555
0.352, 1, -17.2417, 44.9969, 22.4756, -18.6741, -64.1058, 126.45
0.356, 1, -17.1755, 45.0023, 22.4316, -18.5398, -64.0955, 126.344
0.36, 1, -17.1093, 45.0077, 22.3876, -18.4056, -64.0852, 126.239
0.364, 1, -17.0431, 45.0131, 22.3435, -18.2714, -64.075, 126.134
0.368, 1, -16.9769, 45.0185, 22.2995, -18.1372, -64.0647, 126.028
0.372, 1, -16.9107, 45.0239, 22.2556, -18.003, -64.0545, 125.923
0.376, 1, -16.8445, 45.0293, 22.2116, -17.8689, -64.0442, 125.818
0.38, 1, -16.7784, 45.0348, 22.1676, -17.7348, -64.034, 125.713
0.384, 1, -16.7123, 45.0402, 22.1236, -17.6007, -64.0237, 125.608
0.388, 1, -16.6461, 45.0456, 22.0797, -17.4667, -64.0135, 125.502
0.392, 1, -16.58, 45.051, 22.0357, -17.3327, -64.0032, 125.397
0.396, 1, -16.5139, 45.0564, 21.9918, -17.1987, -63.993, 125.292
0.4, 1, -16.4479, 45.0618, 21.9479, -17.0647, -63.9827, 125.187
0.404, 1, -16.3818, 45.0672, 21.904, -16.9307, -63.9725, 125.082
0.408, 1, -16.3157, 45.0726, 21.86, -16.7968, -63.9622, 124.977
0.412, 1, -16.2497, 45.078, 21.8161, -16.6629, -63.952, 124.872
0.416, 1, -16.1837, 45.0834, 21.7723, -16.5291, -63.9418, 124.767
0.42, 1, -16.1177, 45.0887, 21.7284, -16.3952, -63.9315, 124.662
0.424, 1, -16.0517, 45.0941, 21.6845, -16.2614, -63.9213, 124.557
0.428, 1, -15.9857, 45.0995, 21.6406, -16.1276, -63.9111, 124.452
0.432, 1, -15.9197, 45.1049, 21.5968, -15.9939, -63.9009, 124.347
0.436, 1, -15.8537, 45.1103, 21.5529, -15.8602, -63.8906, 124.242
0.44, 1, -15.7878, 45.1157, 21.5091, -15.7265, -63.8804, 124.137
0.444, 1, -15.7219, 45.1211, 21.4653, -15.5928, -63.8702, 124.033
0.448, 1, -15.6559, 45.1265, 21.4214, -15.4591, -63.86, 123.928
0.452, 1, -15.59, 45.1319, 21.3776, -15.3255, -63.8498, 123.823
0.456, 1, -15.5241, 45.1372, 21.3338, -15.1919, -63.8396, 123.718
0.46, 1, -15.4583, 45.1426, 21.29, -15.0584, -63.8293, 123.613
0.464, 1, -15.3924, 45.148, 21.2462, -14.9248, -63.8191, 123.509
0.468, 1, -15.3265, 45.1534, 21.2025, -14.7913, -63.8089, 123.404
0.472, 1, -15.2607, 45.1588, 21.1587, -14.6578, -63.7987, 123.299
0.476, 1, -15.1949, 45.1642, 21.1149, -14.5244, -63.7885, 123.194
0.48, 1, -15.1291, 45.1695, 21.0712, -14.391, -63.7783, 123.09
0.484, 1, -15.0633, 45.1749, 21.0274, -14.2576, -63.7681, 122.985
0.488, 1, -14.9975, 45.1803, 20.9837, -14.1242, -63.7579, 122.881
0.492, 1, -14.9317, 45.1857, 20.94, -13.9908, -63.7477, 122.776
0.496, 1, -14.866, 45.191, 20.8963, -13.8575, -63.7375, 122.671
0.5, 1, -14.8002, 45.1964, 20.8526, -13.7242, -63.7274, 122.567
0.504, 1, -14.7345, 45.2018, 20.8089, -13.591, -63.7172, 122.462
0.508, 1, -14.6688, 45.2071, 20.7652, -13.4577, -63.707, 122.358
0.512, 1, -14.6031, 45.2125, 20.7215, -13.3245, -63.6968, 122.253
0.516, 1, -14.5374, 45.2179, 20.6778, -13.1914, -63.6866, 122.149
0.52, 1, -14.4717, 45.2232, 20.6342, -13.0582, -63.6764, 122.044
0.524, 1, -14.4061, 45.2286, 20.5905, -12.9251, -63.6663, 121.94
0.528, 1, -14.3404, 45.234, 20.5469, -12.792, -63.6561, 121.836
0.532, 1, -14.2748, 45.2393, 20.5033, -12.6589, -63.6459, 121.731
0.536, 1, -14.2092, 45.2447, 20.4596, -12.5259, -63.6357, 121.627
0.54, 1, -14.1436, 45.2501, 20.416, -12.3929, -63.6256, 121.522
0.544, 1, -14.078, 45.2554, 20.3724, -12.2599, -63.6154, 121.418
0.548, 1, -14.0124, 45.2608, 20.3288, -12.127, -63.6053, 121.314
0.552, 1, -13.9468, 45.2661, 20.2852, -11.994, -63.5951, 121.21
0.556, 1, -13.8813, 45.2715, 20.2417, -11.8611, -63.5849, 121.105
0.56, 1, -13.8157, 45.2769, 20.1981, -11.7283, -63.5748, 121.001
0.564, 1, -13.7502, 45.2822, 20.1546, -11.5954, -63.5646, 120.897
0.568, 1, -13.6847, 45.2876, 20.111, -11.4626, -63.5545, 120.793
0.572, 1, -13.6192, 45.2929, 20.0675, -11.3299, -63.5443, 120.689
0.576, 1, -13.5538, 45.2983, 20.0239, -11.1971, -63.5342, 120.584
0.58, 1, -13.4883, 45.3036, 19.9804, -11.0644, -63.524, 120.48
0.584, 1, -13.4228, 45.309, 19.9369, -10.9317, -63.5139, 120.376
0.588, 1, -13.3574, 45.3143, 19.8934, -10.799, -63.5037, 120.272
0.592, 1, -13.292, 45.3197, 19.8499, -10.6664, -63.4936, 120.168
0.596, 1, -13.2266, 45.325, 19.8064, -10.5338, -63.4835, 120.064
0.6, 1, -13.1612, 45.3303, 19.763, -10.4012, -63.4733, 119.96
0.604, 1, -13.0958, 45.3357, 19.7195, -10.2687, -63.4632, 119.856
0.608, 1, -13.0305, 45.341, 19.6761, -10.1362, -63.4531, 119.752
0.612, 1, -12.9651, 45.3464, 19.6326, -10.0037, -63.4429, 119.648
0.616, 1, -12.8998, 45.3517, 19.5892, -9.87121, -63.4328, 119.544
0.62, 1, -12.8345, 45.357, 19.5458, -9.73879, -63.4227, 119.44
0.624, 1, -12.7691, 45.3624, 19.5024, -9.60638, -63.4126, 119.337
0.628, 1, -12.7039, 45.3677, 19.4589, -9.47401, -63.4024, 119.233
0.632, 1, -12.6386, 45.3731, 19.4156, -9.34167, -63.3923, 119.129
0.636, 1, -12.5733, 45.3784, 19.3722, -9.20936, -63.3822, 119.025
0.64, 1, -12.5081, 45.3837, 19.3288, -9.07708, -63.3721, 118.921
0.644, 1, -12.4428, 45.389, 19.2854, -8.94482, -63.362, 118.818
0.648, 1, -12.3776, 45.3944, 19.2421, -8.8126, -63.3519, 118.714
0.652, 1, -12.3124, 45.3997, 19.1987, -8.68041, -63.3418, 118.61
0.656, 1, -12.2472, 45.405, 19.1554, -8.54824, -63.3317, 118.507
0.66, 1, -12.182, 45.4104, 19.1121, -8.4161, -63.3216, 118.403
0.664, 1, -12.1169, 45.4157, 19.0688, -8.284, -63.3115, 118.299
0.668, 1, -12.0517, 45.421, 19.0254, -8.15192, -63.3014, 118.196
0.672, 1, -11.9866, 45.4263, 18.9821, -8.01987, -63.2913, 118.092
0.676, 1, -11.9215, 45.4316, 18.9389, -7.88785, -63.2812, 117.989
0.68, 1, -11.8564, 45.437, 18.8956, -7.75587, -63.2711, 117.885
0.684, 1, -11.7913, 45.4423, 18.8523, -7.62391, -63.261, 117.782
0.688, 1, -11.7262, 45.4476, 18.8091, -7.49197, -63.2509, 117.678
0.692, 1, -11.6612, 45.4529, 18.7658, -7.36007, -63.2408, 117.575
0.696, 1, -11.5961, 45.4582, 18.7226, -7.2282, -63.2308, 117.471
0.7, 1, -11.5311, 45.4636, 18.6793, -7.09636, -63.2207, 117.368
0.704, 1, -11.4661, 45.4689, 18.6361, -6.96455, -63.2106, 117.264
0.708, 1, -11.4011, 45.4742, 18.5929, -6.83277, -63.2005, 117.161
0.712, 1, -11.3361, 45.4795, 18.5497, -6.70101, -63.1905, 117.058
0.716, 1, -11.2711, 45.4848, 18.5065, -6.56929, -63.1804, 116.954
0.72, 1, -11.2062, 45.4901, 18.4633, -6.4376, -63.1703, 116.851
0.724, 1, -11.1412, 45.4954, 18.4202, -6.30594, -63.1603, 116.748
0.728, 1, -11.0763, 45.5007, 18.377, -6.1743, -63.1502, 116.644
0.732, 1, -11.0114, 45.506, 18.3338, -6.0427, -63.1401, 116.541
0.736, 1, -10.9465, 45.5113, 18.2907, -5.91113, -63.1301, 116.438
0.74, 1, -10.8816, 45.5166, 18.2476, -5.77959, -63.12, 116.335
0.744, 1, -10.8168, 45.5219, 18.2044, -5.64807, -63.11, 116.232
0.748, 1, -10.7519, 45.5272, 18.1613, -5.51659, -63.0999, 116.128
0.752, 1, -10.6871, 45.5325, 18.1182, -5.38514, -63.0899, 116.025
0.756, 1, -10.6222, 45.5378, 18.0751, -5.25372, -63.0798, 115.922
0.76, 1, -10.5574, 45.5431, 18.0321, -5.12233, -63.0698, 115.819
0.764, 1, -10.4926, 45.5484, 17.989, -4.99097, -63.0597, 115.716
0.768, 1, -10.4279, 45.5537, 17.9459, -4.85964, -63.0497, 115.613
0.772, 1, -10.3631, 45.559, 17.9029, -4.72834, -63.0397, 115.51
0.776, 1, -10.2984, 45.5643, 17.8598, -4.59707, -63.0296, 115.407
0.78, 1, -10.2336, 45.5696, 17.8168, -4.46583, -63.0196, 115.304
0.784, 1, -10.1689, 45.5749, 17.7738, -4.33462, -63.0096, 115.201
0.788, 1, -10.1042, 45.5802, 17.7308, -4.20345, -62.9995, 115.098
0.792, 1, -10.0395, 45.5854, 17.6878, -4.0723, -62.9895, 114.996
0.796, 1, -9.97486, 45.5907, 17.6448, -3.94119, -62.9795, 114.893
0.8, 1, -9.91021, 45.596, 17.6018, -3.8101, -62.9695, 114.79
0.804, 1, -9.84557, 45.6013, 17.5588, -3.67905, -62.9594, 114.687
0.808, 1, -9.78094, 45.6066, 17.5159, -3.54803, -62.9494, 114.584
0.812, 1, -9.71633, 45.6119, 17.4729, -3.41704, -62.9394, 114.482
0.816, 1, -9.65174, 45.6171, 17.43, -3.28608, -62.9294, 114.379
0.82, 1, -9.58716, 45.6224, 17.387, -3.15515, -62.9194, 114.276
0.824, 1, -9.5226, 45.6277, 17.3441, -3.02426, -62.9094, 114.173
0.828, 1, -9.45805, 45.633, 17.3012, -2.89339, -62.8994, 114.071
0.832, 1, -9.39352, 45.6382, 17.2583, -2.76256, -62.8894, 113.968
0.836, 1, -9.32901, 45.6435, 17.2154, -2.63176, -62.8794, 113.866
0.84, 1, -9.26451, 45.6488, 17.1725, -2.50098, -62.8694, 113.763
0.844, 1, -9.20002, 45.654, 17.1297, -2.37025, -62.8594, 113.66
0.848, 1, -9.13555, 45.6593, 17.0868, -2.23954, -62.8494, 113.558
0.852, 1, -9.0711, 45.6646, 17.044, -2.10886, -62.8394, 113.455
0.856, 1, -9.00666, 45.6698, 17.0011, -1.97822, -62.8294, 113.353
0.86, 1, -8.94224, 45.6751, 16.9583, -1.8476, -62.8194, 113.25
0.864, 1, -8.87783, 45.6804, 16.9155, -1.71702, -62.8095, 113.148
0.868, 1, -8.81344, 45.6856, 16.8727, -1.58648, -62.7995, 113.046
0.872, 1, -8.74906, 45.6909, 16.8299, -1.45596, -62.7895, 112.943
0.876, 1, -8.6847, 45.6962, 16.7871, -1.32547, -62.7795, 112.841
0.88, 1, -8.62036, 45.7014, 16.7443, -1.19502, -62.7695, 112.739
0.884, 1, -8.55603, 45.7067, 16.7016, -1.0646, -62.7596, 112.636
0.888, 1, -8.49172, 45.7119, 16.6588, -0.93421, -62.7496, 112.534
0.892, 1, -8.42742, 45.7172, 16.6161, -0.803854, -62.7396, 112.432
0.896, 1, -8.36314, 45.7224, 16.5733, -0.673529, -62.7297, 112.329
0.9, 1, -8.29888, 45.7277, 16.5306, -0.543237, -62.7197, 112.227
0.904, 1, -8.23463, 45.7329, 16.4879, -0.412977, -62.7098, 112.125
0.908, 1, -8.1704, 45.7382, 16.4452, -0.28275, -62.6998, 112.023
0.912, 1, -8.10618, 45.7434, 16.4025, -0.152555, -62.6899, 111.921
0.916, 1, -8.04198, 45.7487, 16.3598, -0.0223922, -62.6799, 111.819
0.92, 1, -7.97779, 45.7539, 16.3172, 0.107738, -62.67, 111.717
0.924, 1, -7.91363, 45.7592, 16.2745, 0.237835, -62.66, 111.615
0.928, 1, -7.84947, 45.7644, 16.2319, 0.3679, -62.6501, 111.512
0.932, 1, -7.78534, 45.7697, 16.1892, 0.497933, -62.6401, 111.41
0.936, 1, -7.72122, 45.7749, 16.1466, 0.627932, -62.6302, 111.309
0.94, 1, -7.65711, 45.7801, 16.104, 0.757899, -62.6203, 111.207
0.944, 1, -7.59302, 45.7854, 16.0614, 0.887833, -62.6103, 111.105
0.948, 1, -7.52895, 45.7906, 16.0188, 1.01773, -62.6004, 111.003
0.952, 1, -7.4649, 45.7958, 15.9762, 1.1476, -62.5905, 110.901
0.956, 1, -7.40086, 45.8011, 15.9336, 1.27744, -62.5805, 110.799
0.96, 1, -7.33683, 45.8063, 15.8911, 1.40724, -62.5706, 110.697
0.964, 1, -7.27283, 45.8115, 15.8485, 1.53701, -62.5607, 110.595
0.968, 1, -7.20883, 45.8168, 15.806, 1.66675, -62.5508, 110.494
0.972, 1, -7.14486, 45.822, 15.7634, 1.79645, -62.5409, 110.392
0.976, 1, -7.0809, 45.8272, 15.7209, 1.92612, -62.5309, 110.29
0.98, 1, -7.01696, 45.8324, 15.6784, 2.05576, -62.521, 110.188
0.984, 1, -6.95303, 45.8377, 15.6359, 2.18536, -62.5111, 110.087
0.988, 1, -6.88912, 45.8429, 15.5934, 2.31494, -62.5012, 109.985
0.992, 1, -6.82522, 45.8481, 15.551, 2.44447, -62.4913, 109.884
0.996, 1, -6.76135, 45.8533, 15.5085, 2.57398, -62.4814, 109.782
1, 1, -6.69748, 45.8586, 15.466, 2.70345, -62.4715, 109.68
1.004, 1, -6.63364, 45.8638, 15.4236, 2.83289, -62.4616, 109.579
1.008, 1, -6.56981, 45.869, 15.3812, 2.9623, -62.4517, 109.477
1.012, 1, -6.506, 45.8742, 15.3387, 3.09168, -62.4418, 109.376
1.016, 1, -6.4422, 45.8794, 15.2963, 3.22102, -62.432, 109.274
1.02, 1, -6.37842, 45.8846, 15.2539, 3.35032, -62.4221, 109.173
1.024, 1, -6.31466, 45.8898, 15.2115, 3.4796, -62.4122, 109.072
1.027, 1, -6.25091, 45.8951, 15.1692, 3.60884, -62.4023, 108.97
1.032, 1, -6.18718, 45.9003, 15.1268, 3.73805, -62.3924, 108.869
1.036, 1, -6.12347, 45.9055, 15.0844, 3.86723, -62.3826, 108.768
1.04, 1, -6.05977, 45.9107, 15.0421, 3.99637, -62.3727, 108.666
1.044, 1, -5.99609, 45.9159, 14.9998, 4.12548, -62.3628, 108.565
1.048, 1, -5.93243, 45.9211, 14.9574, 4.25456, -62.353, 108.464
1.052, 1, -5.86878, 45.9263, 14.9151, 4.3836, -62.3431, 108.362
1.055, 1, -5.80515, 45.9315, 14.8728, 4.51261, -62.3332, 108.261
1.06, 1, -5.74153, 45.9367, 14.8305, 4.64158, -62.3234, 108.16
1.064, 1, -5.67793, 45.9419, 14.7883, 4.77052, -62.3135, 108.059
1.068, 1, -5.61435, 45.9471, 14.746, 4.89943, -62.3036, 107.958
1.072, 1, -5.55079, 45.9523, 14.7037, 5.02831, -62.2938, 107.857
1.076, 1, -5.48724, 45.9575, 14.6615, 5.15715, -62.2839, 107.756
1.08, 1, -5.42371, 45.9627, 14.6193, 5.28596, -62.2741, 107.655
1.084, 1, -5.36019, 45.9678, 14.577, 5.41473, -62.2643, 107.554
1.088, 1, -5.29669, 45.973, 14.5348, 5.54347, -62.2544, 107.453
1.091, 1, -5.23321, 45.9782, 14.4926, 5.67217, -62.2446, 107.352
1.096, 1, -5.16975, 45.9834, 14.4504, 5.80085, -62.2347, 107.251
1.1, 1, -5.1063, 45.9886, 14.4082, 5.92948, -62.2249, 107.15
1.104, 1, -5.04287, 45.9938, 14.3661, 6.05809, -62.2151, 107.049
1.108, 1, -4.97945, 45.999, 14.3239, 6.18666, -62.2052, 106.948
1.112, 1, -4.91605, 46.0041, 14.2818, 6.31519, -62.1954, 106.847
1.116, 1, -4.85267, 46.0093, 14.2396, 6.44369, -62.1856, 106.746
1.119, 1, -4.78931, 46.0145, 14.1975, 6.57216, -62.1758, 106.646
1.124, 1, -4.72596, 46.0197, 14.1554, 6.70059, -62.166, 106.545
1.128, 1, -4.66263, 46.0248, 14.1133, 6.82899, -62.1561, 106.444
1.132, 1, -4.59932, 46.03, 14.0712, 6.95735, -62.1463, 106.344
1.136, 1, -4.53602, 46.0352, 14.0291, 7.08568, -62.1365, 106.243
1.14, 1, -4.47274, 46.0404, 13.9871, 7.21398, -62.1267, 106.142
1.144, 1, -4.40948, 46.0455, 13.945, 7.34224, -62.1169, 106.042
1.147, 1, -4.34624, 46.0507, 13.903, 7.47046, -62.1071, 105.941
1.152, 1, -4.28301, 46.0559, 13.8609, 7.59865, -62.0973, 105.84
1.156, 1, -4.2198, 46.061, 13.8189, 7.72681, -62.0875, 105.74
1.16, 1, -4.1566, 46.0662, 13.7769, 7.85493, -62.0777, 105.639
1.164, 1, -4.09343, 46.0714, 13.7349, 7.98302, -62.0679, 105.539
1.168, 1, -4.03027, 46.0765, 13.6929, 8.11107, -62.0581, 105.439
1.172, 1, -3.96713, 46.0817, 13.6509, 8.23908, -62.0483, 105.338
1.175, 1, -3.904, 46.0868, 13.609, 8.36706, -62.0386, 105.238
1.18, 1, -3.8409, 46.092, 13.567, 8.49501, -62.0288, 105.137
1.184, 1, -3.77781, 46.0971, 13.5251, 8.62292, -62.019, 105.037
1.188, 1, -3.71473, 46.1023, 13.4831, 8.7508, -62.0092, 104.937
1.192, 1, -3.65168, 46.1075, 13.4412, 8.87864, -61.9995, 104.836
1.196, 1, -3.58864, 46.1126, 13.3993, 9.00645, -61.9897, 104.736
1.2, 1, -3.52562, 46.1178, 13.3574, 9.13422, -61.9799, 104.636
1.204, 1, -3.46262, 46.1229, 13.3155, 9.26195, -61.9701, 104.536
1.208, 1, -3.39963, 46.1281, 13.2737, 9.38965, -61.9604, 104.436
1.212, 1, -3.33666, 46.1332, 13.2318, 9.51731, -61.9506, 104.335
1.216, 1, -3.27371, 46.1384, 13.19, 9.64494, -61.9409, 104.235
1.22, 1, -3.21078, 46.1435, 13.1481, 9.77254, -61.9311, 104.135
1.224, 1, -3.14786, 46.1486, 13.1063, 9.9001, -61.9214, 104.035
1.228, 1, -3.08496, 46.1538, 13.0645, 10.0276, -61.9116, 103.935
1.232, 1, -3.02208, 46.1589, 13.0227, 10.1551, -61.9019, 103.835
1.236, 1, -2.95922, 46.164, 12.9809, 10.2826, -61.8921, 103.735
1.24, 1, -2.89638, 46.1692, 12.9391, 10.41, -61.8824, 103.635
1.244, 1, -2.83355, 46.1743, 12.8974, 10.5373, -61.8727, 103.535
1.248, 1, -2.77074, 46.1795, 12.8556, 10.6647, -61.8629, 103.435
1.252, 1, -2.70795, 46.1846, 12.8139, 10.792, -61.8532, 103.336
1.256, 1, -2.64517, 46.1897, 12.7721, 10.9193, -61.8435, 103.236
1.26, 1, -2.58241, 46.1948, 12.7304, 11.0465, -61.8337, 103.136
1.264, 1, -2.51968, 46.2, 12.6887, 11.1737, -61.824, 103.036
1.267, 1, -2.45695, 46.2051, 12.647, 11.3009, -61.8143, 102.936
1.272, 1, -2.39425, 46.2102, 12.6053, 11.428, -61.8046, 102.837
1.276, 1, -2.33156, 46.2153, 12.5636, 11.5551, -61.7948, 102.737
1.28, 1, -2.2689, 46.2205, 12.522, 11.6821, -61.7851, 102.637
1.284, 1, -2.20625, 46.2256, 12.4803, 11.8092, -61.7754, 102.538
1.288, 1, -2.14361, 46.2307, 12.4387, 11.9361, -61.7657, 102.438
1.292, 1, -2.081, 46.2358, 12.3971, 12.0631, -61.756, 102.338
1.295, 1, -2.0184, 46.2409, 12.3555, 12.19, -61.7463, 102.239
1.3, 1, -1.95583, 46.246, 12.3139, 12.3169, -61.7366, 102.139
1.304, 1, -1.89326, 46.2512, 12.2723, 12.4437, -61.7269, 102.04
1.308, 1, -1.83072, 46.2563, 12.2307, 12.5705, -61.7172, 101.94
1.312, 1, -1.7682, 46.2614, 12.1891, 12.6973, -61.7075, 101.841
1.316, 1, -1.70569, 46.2665, 12.1476, 12.824, -61.6978, 101.742
1.32, 1, -1.6432, 46.2716, 12.106, 12.9507, -61.6882, 101.642
1.324, 1, -1.58073, 46.2767, 12.0645, 13.0774, -61.6785, 101.543
1.328, 1, -1.51827, 46.2818, 12.023, 13.204, -61.6688, 101.443
1.332, 1, -1.45584, 46.2869, 11.9815, 13.3306, -61.6591, 101.344
1.336, 1, -1.39342, 46.292, 11.94, 13.4571, -61.6494, 101.245
1.34, 1, -1.33102, 46.2971, 11.8985, 13.5836, -61.6398, 101.146
1.344, 1, -1.26863, 46.3022, 11.857, 13.7101, -61.6301, 101.046
1.348, 1, -1.20627, 46.3073, 11.8156, 13.8365, -61.6204, 100.947
1.352, 1, -1.14392, 46.3124, 11.7741, 13.9629, -61.6108, 100.848
1.356, 1, -1.0816, 46.3175, 11.7327, 14.0893, -61.6011, 100.749
1.36, 1, -1.01929, 46.3226, 11.6913, 14.2156, -61.5915, 100.65
1.364, 1, -0.956996, 46.3277, 11.6499, 14.3419, -61.5818, 100.551
1.368, 1, -0.894722, 46.3328, 11.6085, 14.4682, -61.5722, 100.452
1.372, 1, -0.832467, 46.3379, 11.5671, 14.5944, -61.5625, 100.353
1.376, 1, -0.770231, 46.3429, 11.5257, 14.7206, -61.5529, 100.254
1.38, 1, -0.708012, 46.348, 11.4843, 14.8467, -61.5432, 100.155
1.384, 1, -0.645811, 46.3531, 11.443, 14.9728, -61.5336, 100.056
1.388, 1, -0.583628, 46.3582, 11.4017, 15.0989, -61.5239, 99.9571
1.392, 1, -0.521463, 46.3633, 11.3603, 15.2249, -61.5143, 99.8582
1.396, 1, -0.459317, 46.3683, 11.319, 15.3509, -61.5047, 99.7594
1.4, 1, -0.397188, 46.3734, 11.2777, 15.4769, -61.495, 99.6606
1.404, 1, -0.335078, 46.3785, 11.2364, 15.6028, -61.4854, 99.5618
1.408, 1, -0.272986, 46.3836, 11.1951, 15.7287, -61.4758, 99.463
1.412, 1, -0.210913, 46.3886, 11.1539, 15.8545, -61.4662, 99.3643
1.416, 1, -0.148858, 46.3937, 11.1126, 15.9804, -61.4566, 99.2656
1.42, 1, -0.0868206, 46.3988, 11.0714, 16.1061, -61.4469, 99.167
1.424, 1, -0.0248019, 46.4039, 11.0301, 16.2319, -61.4373, 99.0683
1.428, 1, 0.0371985, 46.4089, 10.9889, 16.3576, -61.4277, 98.9697
1.432, 1, 0.0991806, 46.414, 10.9477, 16.4832, -61.4181, 98.8711
1.436, 1, 0.161144, 46.419, 10.9065, 16.6089, -61.4085, 98.7726
1.44, 1, 0.22309, 46.4241, 10.8654, 16.7345, -61.3989, 98.6741
1.444, 1, 0.285017, 46.4292, 10.8242, 16.86, -61.3893, 98.5756
1.448, 1, 0.346926, 46.4342, 10.783, 16.9855, -61.3797, 98.4771
1.452, 1, 0.408816, 46.4393, 10.7419, 17.111, -61.3701, 98.3787
1.456, 1, 0.470688, 46.4443, 10.7008, 17.2365, -61.3605, 98.2803
1.46, 1, 0.532541, 46.4494, 10.6596, 17.3619, -61.3509, 98.1819
1.464, 1, 0.594376, 46.4545, 10.6185, 17.4872, -61.3414, 98.0836
1.468, 1, 0.656192, 46.4595, 10.5774, 17.6125, -61.3318, 97.9853
1.472, 1, 0.71799, 46.4646, 10.5364, 17.7378, -61.3222, 97.887
1.476, 1, 0.779769, 46.4696, 10.4953, 17.8631, -61.3126, 97.7887
1.48, 1, 0.84153, 46.4747, 10.4542, 17.9883, -61.3031, 97.6905
1.484, 1, 0.903272, 46.4797, 10.4132, 18.1135, -61.2935, 97.5923
1.488, 1, 0.964995, 46.4847, 10.3721, 18.2386, -61.2839, 97.4942
1.492, 1, 1.0267, 46.4898, 10.3311, 18.3637, -61.2744, 97.396
1.496, 1, 1.08839, 46.4948, 10.2901, 18.4888, -61.2648, 97.2979
1.5, 1, 1.15005, 46.4999, 10.2491, 18.6138, -61.2552, 97.1998
1.504, 1, 1.2117, 46.5049, 10.2081, 18.7388, -61.2457, 97.1018
1.508, 1, 1.27333, 46.5099, 10.1672, 18.8638, -61.2361, 97.0038
1.512, 1, 1.33494, 46.515, 10.1262, 18.9887, -61.2266, 96.9058
1.516, 1, 1.39654, 46.52, 10.0853, 19.1136, -61.217, 96.8078
1.52, 1, 1.45811, 46.525, 10.0443, 19.2384, -61.2075, 96.7099
1.524, 1, 1.51966, 46.5301, 10.0034, 19.3632, -61.1979, 96.612
1.528, 1, 1.5812, 46.5351, 9.9625, 19.4879, -61.1884, 96.5142
1.532, 1, 1.64272, 46.5401, 9.9216, 19.6127, -61.1789, 96.4163
1.536, 1, 1.70422, 46.5452, 9.88072, 19.7374, -61.1693, 96.3185
1.54, 1, 1.7657, 46.5502, 9.83985, 19.862, -61.1598, 96.2207
1.544, 1, 1.82716, 46.5552, 9.79899, 19.9866, -61.1503, 96.123
1.548, 1, 1.8886, 46.5602, 9.75815, 20.1112, -61.1408, 96.0253
1.552, 1, 1.95002, 46.5652, 9.71731, 20.2357, -61.1312, 95.9276
1.556, 1, 2.01143, 46.5703, 9.67649, 20.3602, -61.1217, 95.8299
1.56, 1, 2.07281, 46.5753, 9.63568, 20.4847, -61.1122, 95.7323
1.564, 1, 2.13418, 46.5803, 9.59489, 20.6091, -61.1027, 95.6347
1.568, 1, 2.19552, 46.5853, 9.55411, 20.7334, -61.0932, 95.5371
1.572, 1, 2.25685, 46.5903, 9.51334, 20.8578, -61.0837, 95.4396
1.576, 1, 2.31816, 46.5953, 9.47258, 20.9821, -61.0742, 95.3421
1.58, 1, 2.37945, 46.6003, 9.43184, 21.1063, -61.0647, 95.2446
1.584, 1, 2.44072, 46.6053, 9.3911, 21.2306, -61.0552, 95.1472
1.588, 1, 2.50197, 46.6103, 9.35038, 21.3548, -61.0457, 95.0498
1.592, 1, 2.5632, 46.6154, 9.30968, 21.4789, -61.0362, 94.9524
1.596, 1, 2.62442, 46.6204, 9.26898, 21.603, -61.0267, 94.855
1.6, 1, 2.68561, 46.6254, 9.2283, 21.7271, -61.0172, 94.7577
1.604, 1, 2.74679, 46.6304, 9.18763, 21.8511, -61.0078, 94.6604
1.608, 1, 2.80794, 46.6353, 9.14698, 21.9751, -60.9983, 94.5632
1.612, 1, 2.86908, 46.6403, 9.10634, 22.099, -60.9888, 94.4659
1.616, 1, 2.9302, 46.6453, 9.06571, 22.223, -60.9793, 94.3687
1.62, 1, 2.99129, 46.6503, 9.02509, 22.3468, -60.9699, 94.2716
1.624, 1, 3.05237, 46.6553, 8.98448, 22.4707, -60.9604, 94.1744
1.628, 1, 3.11343, 46.6603, 8.94389, 22.5945, -60.9509, 94.0773
1.632, 1, 3.17447, 46.6653, 8.90331, 22.7182, -60.9415, 93.9802
1.636, 1, 3.23549, 46.6703, 8.86275, 22.8419, -60.932, 93.8832
1.64, 1, 3.2965, 46.6753, 8.8222, 22.9656, -60.9226, 93.7862
1.644, 1, 3.35748, 46.6803, 8.78166, 23.0892, -60.9131, 93.6892
1.648, 1, 3.41844, 46.6852, 8.74113, 23.2128, -60.9037, 93.5922
1.652, 1, 3.47939, 46.6902, 8.70061, 23.3364, -60.8942, 93.4953
1.656, 1, 3.54031, 46.6952, 8.66011, 23.4599, -60.8848, 93.3984
1.66, 1, 3.60122, 46.7002, 8.61962, 23.5834, -60.8753, 93.3016
1.664, 1, 3.6621, 46.7052, 8.57915, 23.7068, -60.8659, 93.2047
1.668, 1, 3.72297, 46.7101, 8.53868, 23.8302, -60.8565, 93.1079
1.672, 1, 3.78382, 46.7151, 8.49823, 23.9536, -60.847, 93.0112
1.676, 1, 3.84465, 46.7201, 8.4578, 24.0769, -60.8376, 92.9144
1.68, 1, 3.90546, 46.725, 8.41737, 24.2002, -60.8282, 92.8177
1.684, 1, 3.96625, 46.73, 8.37696, 24.3235, -60.8188, 92.721
1.688, 1, 4.02702, 46.735, 8.33656, 24.4467, -60.8093, 92.6244
1.692, 1, 4.08777, 46.7399, 8.29618, 24.5698, -60.7999, 92.5278
1.696, 1, 4.1485, 46.7449, 8.25581, 24.693, -60.7905, 92.4312
1.7, 1, 4.20921, 46.7499, 8.21545, 24.816, -60.7811, 92.3346
1.704, 1, 4.26991, 46.7548, 8.1751, 24.9391, -60.7717, 92.2381
1.708, 1, 4.33058, 46.7598, 8.13476, 25.0621, -60.7623, 92.1416
1.712, 1, 4.39123, 46.7647, 8.09444, 25.1851, -60.7529, 92.0452
1.716, 1, 4.45187, 46.7697, 8.05413, 25.308, -60.7435, 91.9487
1.72, 1, 4.51248, 46.7747, 8.01384, 25.4309, -60.7341, 91.8523
1.724, 1, 4.57308, 46.7796, 7.97356, 25.5538, -60.7247, 91.756
1.728, 1, 4.63365, 46.7845, 7.93329, 25.6766, -60.7153, 91.6596
1.732, 1, 4.69421, 46.7895, 7.89303, 25.7993, -60.7059, 91.5633
1.736, 1, 4.75475, 46.7944, 7.85278, 25.9221, -60.6966, 91.467
1.74, 1, 4.81526, 46.7994, 7.81255, 26.0448, -60.6872, 91.3708
1.744, 1, 4.87576, 46.8043, 7.77233, 26.1674, -60.6778, 91.2746
1.748, 1, 4.93624, 46.8093, 7.73213, 26.29, -60.6684, 91.1784
1.752, 1, 4.9967, 46.8142, 7.69194, 26.4126, -60.6591, 91.0822
1.756, 1, 5.05714, 46.8192, 7.65176, 26.5352, -60.6497, 90.9861
1.76, 1, 5.11756, 46.8241, 7.61159, 26.6577, -60.6403, 90.89
1.764, 1, 5.17796, 46.829, 7.57144, 26.7801, -60.631, 90.794
1.768, 1, 5.23834, 46.834, 7.5313, 26.9025, -60.6216, 90.6979
1.772, 1, 5.2987, 46.8389, 7.49117, 27.0249, -60.6122, 90.6019
1.776, 1, 5.35905, 46.8438, 7.45105, 27.1473, -60.6029, 90.506
1.78, 1, 5.41937, 46.8488, 7.41095, 27.2696, -60.5935, 90.41
1.784, 1, 5.47967, 46.8537, 7.37086, 27.3918, -60.5842, 90.3141
1.788, 1, 5.53996, 46.8586, 7.33079, 27.514, -60.5749, 90.2183
1.792, 1, 5.60022, 46.8635, 7.29073, 27.6362, -60.5655, 90.1224
1.796, 1, 5.66046, 46.8685, 7.25068, 27.7584, -60.5562, 90.0266
1.8, 1, 5.72069, 46.8734, 7.21064, 27.8805, -60.5468, 89.9308
1.804, 1, 5.78089, 46.8783, 7.17062, 28.0025, -60.5375, 89.8351
1.808, 1, 5.84108, 46.8832, 7.13061, 28.1245, -60.5282, 89.7394
1.812, 1, 5.90124, 46.8881, 7.09061, 28.2465, -60.5189, 89.6437
1.816, 1, 5.96139, 46.8931, 7.05062, 28.3685, -60.5095, 89.548
1.82, 1, 6.02152, 46.898, 7.01065, 28.4904, -60.5002, 89.4524
1.824, 1, 6.08162, 46.9029, 6.9707, 28.6122, -60.4909, 89.3568
1.828, 1, 6.14171, 46.9078, 6.93075, 28.7341, -60.4816, 89.2612
1.832, 1, 6.20178, 46.9127, 6.89082, 28.8558, -60.4723, 89.1657
1.836, 1, 6.26182, 46.9176, 6.8509, 28.9776, -60.463, 89.0702
1.84, 1, 6.32185, 46.9225, 6.811, 29.0993, -60.4537, 88.9747
1.844, 1, 6.38186, 46.9274, 6.7711, 29.2209, -60.4444, 88.8793
1.848, 1, 6.44185, 46.9323, 6.73122, 29.3426, -60.4351, 88.7839
1.852, 1, 6.50181, 46.9372, 6.69136, 29.4641, -60.4258, 88.6885
1.856, 1, 6.56176, 46.9421, 6.65151, 29.5857, -60.4165, 88.5932
1.86, 1, 6.62169, 46.947, 6.61167, 29.7072, -60.4072, 88.4979
1.864, 1, 6.6816, 46.9519, 6.57184, 29.8286, -60.3979, 88.4026
1.868, 1, 6.74149, 46.9568, 6.53203, 29.9501, -60.3886, 88.3074
1.872, 1, 6.80136, 46.9617, 6.49223, 30.0714, -60.3794, 88.2121
1.876, 1, 6.86121, 46.9666, 6.45244, 30.1928, -60.3701, 88.117
1.88, 1, 6.92103, 46.9715, 6.41267, 30.3141, -60.3608, 88.0218
1.884, 1, 6.98084, 46.9764, 6.37291, 30.4353, -60.3515, 87.9267
1.888, 1, 7.04063, 46.9813, 6.33316, 30.5566, -60.3423, 87.8316
1.892, 1, 7.1004, 46.9861, 6.29343, 30.6777, -60.333, 87.7365
1.896, 1, 7.16015, 46.991, 6.25371, 30.7989, -60.3237, 87.6415
1.9, 1, 7.21988, 46.9959, 6.214, 30.92, -60.3145, 87.5465
1.904, 1, 7.27959, 47.0008, 6.17431, 31.041, -60.3052, 87.4516
1.908, 1, 7.33928, 47.0057, 6.13463, 31.162, -60.296, 87.3566
1.912, 1, 7.39895, 47.0105, 6.09496, 31.283, -60.2867, 87.2617
1.916, 1, 7.45859, 47.0154, 6.05531, 31.4039, -60.2775, 87.1669
1.92, 1, 7.51822, 47.0203, 6.01567, 31.5248, -60.2682, 87.0721
1.924, 1, 7.57783, 47.0252, 5.97604, 31.6457, -60.259, 86.9773
1.928, 1, 7.63742, 47.03, 5.93642, 31.7665, -60.2498, 86.8825
1.932, 1, 7.69699, 47.0349, 5.89682, 31.8873, -60.2405, 86.7878
1.936, 1, 7.75654, 47.0398, 5.85724, 32.008, -60.2313, 86.693
1.94, 1, 7.81607, 47.0446, 5.81766, 32.1287, -60.2221, 86.5984
1.944, 1, 7.87558, 47.0495, 5.7781, 32.2494, -60.2129, 86.5037
1.948, 1, 7.93506, 47.0544, 5.73856, 32.37, -60.2036, 86.4091
1.952, 1, 7.99453, 47.0592, 5.69902, 32.4905, -60.1944, 86.3145
1.956, 1, 8.05398, 47.0641, 5.6595, 32.6111, -60.1852, 86.22
1.96, 1, 8.11341, 47.0689, 5.62, 32.7315, -60.176, 86.1255
1.964, 1, 8.17282, 47.0738, 5.5805, 32.852, -60.1668, 86.031
1.968, 1, 8.2322, 47.0786, 5.54102, 32.9724, -60.1576, 85.9366
1.972, 1, 8.29157, 47.0835, 5.50156, 33.0928, -60.1484, 85.8421
1.976, 1, 8.35092, 47.0883, 5.4621, 33.2131, -60.1392, 85.7477
1.98, 1, 8.41025, 47.0932, 5.42266, 33.3334, -60.13, 85.6534
1.984, 1, 8.46955, 47.098, 5.38324, 33.4536, -60.1208, 85.5591
1.988, 1, 8.52884, 47.1029, 5.34382, 33.5738, -60.1116, 85.4648
1.992, 1, 8.58811, 47.1077, 5.30442, 33.694, -60.1024, 85.3705
1.996, 1, 8.64735, 47.1126, 5.26504, 33.8141, -60.0932, 85.2763
1.999, 1, 8.70658, 47.1174, 5.22567, 33.9341, -60.0841, 85.1821
2.004, 1, 8.76578, 47.1222, 5.18631, 34.0542, -60.0749, 85.088
2.008, 1, 8.82497, 47.1271, 5.14696, 34.1742, -60.0657, 84.9938
2.012, 1, 8.88414, 47.1319, 5.10763, 34.2941, -60.0565, 84.8997
2.015, 1, 8.94328, 47.1367, 5.06831, 34.414, -60.0474, 84.8057
2.019, 1, 9.00241, 47.1416, 5.02901, 34.5339, -60.0382, 84.7116
2.024, 1, 9.06151, 47.1464, 4.98972, 34.6537, -60.0291, 84.6177
2.028, 1, 9.12059, 47.1512, 4.95044, 34.7735, -60.0199, 84.5237
2.031, 1, 9.17966, 47.1561, 4.91117, 34.8933, -60.0107, 84.4298
2.036, 1, 9.2387, 47.1609, 4.87192, 35.013, -60.0016, 84.3359
2.04, 1, 9.29773, 47.1657, 4.83268, 35.1326, -59.9924, 84.242
2.044, 1, 9.35673, 47.1705, 4.79346, 35.2523, -59.9833, 84.1481
2.048, 1, 9.41572, 47.1754, 4.75425, 35.3719, -59.9742, 84.0543
2.051, 1, 9.47468, 47.1802, 4.71505, 35.4914, -59.965, 83.9606
2.055, 1, 9.53362, 47.185, 4.67587, 35.6109, -59.9559, 83.8668
2.06, 1, 9.59255, 47.1898, 4.6367, 35.7304, -59.9468, 83.7731
2.064, 1, 9.65145, 47.1946, 4.59754, 35.8498, -59.9376, 83.6794
2.068, 1, 9.71033, 47.1994, 4.5584, 35.9692, -59.9285, 83.5858
2.071, 1, 9.76919, 47.2042, 4.51927, 36.0885, -59.9194, 83.4922
2.076, 1, 9.82803, 47.209, 4.48015, 36.2078, -59.9103, 83.3986
2.08, 1, 9.88686, 47.2139, 4.44105, 36.327, -59.9011, 83.3051
2.084, 1, 9.94566, 47.2187, 4.40196, 36.4463, -59.892, 83.2116
2.087, 1, 10.0044, 47.2235, 4.36288, 36.5654, -59.8829, 83.1181
2.092, 1, 10.0632, 47.2283, 4.32382, 36.6846, -59.8738, 83.0246
2.096, 1, 10.1219, 47.2331, 4.28477, 36.8037, -59.8647, 82.9312
2.1, 1, 10.1807, 47.2379, 4.24574, 36.9227, -59.8556, 82.8378
2.104, 1, 10.2394, 47.2427, 4.20671, 37.0417, -59.8465, 82.7445
2.107, 1, 10.298, 47.2475, 4.1677, 37.1607, -59.8374, 82.6511
2.111, 1, 10.3567, 47.2523, 4.12871, 37.2796, -59.8283, 82.5578
2.116, 1, 10.4153, 47.257, 4.08973, 37.3985, -59.8192, 82.4646
2.12, 1, 10.474, 47.2618, 4.05076, 37.5173, -59.8101, 82.3714
2.124, 1, 10.5326, 47.2666, 4.0118, 37.6361, -59.8011, 82.2782
2.127, 1, 10.5911, 47.2714, 3.97286, 37.7549, -59.792, 82.185
2.132, 1, 10.6497, 47.2762, 3.93393, 37.8736, -59.7829, 82.0919
2.136, 1, 10.7082, 47.281, 3.89502, 37.9923, -59.7738, 81.9988
2.14, 1, 10.7667, 47.2858, 3.85612, 38.1109, -59.7648, 81.9057
2.143, 1, 10.8252, 47.2905, 3.81723, 38.2295, -59.7557, 81.8127
2.148, 1, 10.8837, 47.2953, 3.77835, 38.3481, -59.7466, 81.7197
2.152, 1, 10.9422, 47.3001, 3.73949, 38.4666, -59.7376, 81.6267
2.156, 1, 11.0006, 47.3049, 3.70064, 38.5851, -59.7285, 81.5338
2.16, 1, 11.059, 47.3097, 3.66181, 38.7035, -59.7195, 81.4409
2.163, 1, 11.1174, 47.3144, 3.62299, 38.8219, -59.7104, 81.348
2.168, 1, 11.1758, 47.3192, 3.58418, 38.9403, -59.7014, 81.2552
2.172, 1, 11.2341, 47.324, 3.54539, 39.0586, -59.6923, 81.1624
2.176, 1, 11.2925, 47.3287, 3.50661, 39.1769, -59.6833, 81.0696
2.179, 1, 11.3508, 47.3335, 3.46784, 39.2951, -59.6742, 80.9768
2.184, 1, 11.4091, 47.3383, 3.42909, 39.4133, -59.6652, 80.8841
2.188, 1, 11.4674, 47.343, 3.39035, 39.5314, -59.6562, 80.7915
2.192, 1, 11.5256, 47.3478, 3.35163, 39.6495, -59.6471, 80.6988
2.196, 1, 11.5839, 47.3525, 3.31292, 39.7676, -59.6381, 80.6062
2.199, 1, 11.6421, 47.3573, 3.27422, 39.8856, -59.6291, 80.5136
2.204, 1, 11.7003, 47.3621, 3.23553, 40.0036, -59.6201, 80.4211
2.208, 1, 11.7584, 47.3668, 3.19686, 40.1215, -59.6111, 80.3286
2.212, 1, 11.8166, 47.3716, 3.1582, 40.2394, -59.6021, 80.2361
2.216, 1, 11.8747, 47.3763, 3.11956, 40.3573, -59.593, 80.1436
2.219, 1, 11.9328, 47.3811, 3.08093, 40.4751, -59.584, 80.0512
2.224, 1, 11.9909, 47.3858, 3.04231, 40.5929, -59.575, 79.9588
2.228, 1, 12.049, 47.3905, 3.00371, 40.7106, -59.566, 79.8665
2.232, 1, 12.107, 47.3953, 2.96512, 40.8283, -59.557, 79.7742
2.235, 1, 12.1651, 47.4, 2.92654, 40.9459, -59.548, 79.6819
2.24, 1, 12.2231, 47.4048, 2.88798, 41.0635, -59.5391, 79.5896
2.244, 1, 12.2811, 47.4095, 2.84943, 41.1811, -59.5301, 79.4974
2.248, 1, 12.339, 47.4143, 2.81089, 41.2986, -59.5211, 79.4052
2.252, 1, 12.397, 47.419, 2.77237, 41.4161, -59.5121, 79.3131
2.255, 1, 12.4549, 47.4237, 2.73386, 41.5335, -59.5031, 79.2209
2.259, 1, 12.5128, 47.4285, 2.69537, 41.6509, -59.4941, 79.1288
2.264, 1, 12.5707, 47.4332, 2.65689, 41.7683, -59.4852, 79.0368
2.268, 1, 12.6286, 47.4379, 2.61842, 41.8856, -59.4762, 78.9448
2.272, 1, 12.6864, 47.4426, 2.57997, 42.0029, -59.4672, 78.8528
2.275, 1, 12.7442, 47.4474, 2.54153, 42.1201, -59.4583, 78.7608
2.28, 1, 12.802, 47.4521, 2.5031, 42.2373, -59.4493, 78.6689
2.284, 1, 12.8598, 47.4568, 2.46469, 42.3545, -59.4404, 78.577
2.288, 1, 12.9176, 47.4615, 2.42629, 42.4716, -59.4314, 78.4851
2.291, 1, 12.9753, 47.4663, 2.3879, 42.5886, -59.4225, 78.3933
2.296, 1, 13.033, 47.471, 2.34953, 42.7057, -59.4135, 78.3015
2.3, 1, 13.0907, 47.4757, 2.31117, 42.8227, -59.4046, 78.2097
2.304, 1, 13.1484, 47.4804, 2.27283, 42.9396, -59.3956, 78.118
2.308, 1, 13.2061, 47.4851, 2.2345, 43.0565, -59.3867, 78.0263
2.311, 1, 13.2637, 47.4898, 2.19618, 43.1734, -59.3778, 77.9346
2.316, 1, 13.3213, 47.4945, 2.15787, 43.2902, -59.3688, 77.843
2.32, 1, 13.3789, 47.4992, 2.11958, 43.4069, -59.3599, 77.7514
2.324, 1, 13.4365, 47.5039, 2.08131, 43.5237, -59.351, 77.6598
2.328, 1, 13.4941, 47.5086, 2.04304, 43.6404, -59.3421, 77.5683
2.331, 1, 13.5516, 47.5134, 2.00479, 43.757, -59.3331, 77.4768
2.336, 1, 13.6091, 47.5181, 1.96656, 43.8736, -59.3242, 77.3853
2.34, 1, 13.6666, 47.5228, 1.92834, 43.9902, -59.3153, 77.2938
2.344, 1, 13.7241, 47.5274, 1.89013, 44.1067, -59.3064, 77.2024
2.347, 1, 13.7815, 47.5321, 1.85193, 44.2232, -59.2975, 77.1111
2.352, 1, 13.839, 47.5368, 1.81375, 44.3397, -59.2886, 77.0197
2.356, 1, 13.8964, 47.5415, 1.77559, 44.4561, -59.2797, 76.9284
2.36, 1, 13.9538, 47.5462, 1.73743, 44.5724, -59.2708, 76.8371
2.364, 1, 14.0112, 47.5509, 1.69929, 44.6887, -59.2619, 76.7459
2.367, 1, 14.0685, 47.5556, 1.66117, 44.805, -59.253, 76.6547
2.372, 1, 14.1258, 47.5603, 1.62305, 44.9212, -59.2441, 76.5635
2.376, 1, 14.1831, 47.565, 1.58495, 45.0374, -59.2353, 76.4724
2.38, 1, 14.2404, 47.5696, 1.54687, 45.1536, -59.2264, 76.3813
2.383, 1, 14.2977, 47.5743, 1.5088, 45.2697, -59.2175, 76.2902
2.388, 1, 14.355, 47.579, 1.47074, 45.3858, -59.2086, 76.1991
2.392, 1, 14.4122, 47.5837, 1.4327, 45.5018, -59.1998, 76.1081
2.396, 1, 14.4694, 47.5884, 1.39467, 45.6178, -59.1909, 76.0171
2.4, 1, 14.5266, 47.593, 1.35665, 45.7337, -59.182, 75.9262
2.403, 1, 14.5837, 47.5977, 1.31865, 45.8496, -59.1732, 75.8353
2.408, 1, 14.6409, 47.6024, 1.28066, 45.9655, -59.1643, 75.7444
2.412, 1, 14.698, 47.607, 1.24268, 46.0813, -59.1555, 75.6535
2.416, 1, 14.7551, 47.6117, 1.20472, 46.1971, -59.1466, 75.5627
2.42, 1, 14.8122, 47.6164, 1.16677, 46.3128, -59.1378, 75.4719
2.423, 1, 14.8693, 47.621, 1.12884, 46.4285, -59.1289, 75.3812
2.428, 1, 14.9263, 47.6257, 1.09092, 46.5441, -59.1201, 75.2905
2.432, 1, 14.9833, 47.6304, 1.05301, 46.6597, -59.1112, 75.1998
2.436, 1, 15.0403, 47.635, 1.01511, 46.7753, -59.1024, 75.1091
2.439, 1, 15.0973, 47.6397, 0.977234, 46.8908, -59.0936, 75.0185
2.444, 1, 15.1543, 47.6443, 0.939367, 47.0063, -59.0848, 74.9279
2.448, 1, 15.2112, 47.649, 0.901514, 47.1218, -59.0759, 74.8374
2.452, 1, 15.2682, 47.6536, 0.863674, 47.2372, -59.0671, 74.7468
2.456, 1, 15.3251, 47.6583, 0.825848, 47.3525, -59.0583, 74.6563
2.459, 1, 15.3819, 47.6629, 0.788035, 47.4678, -59.0495, 74.5659
2.464, 1, 15.4388, 47.6676, 0.750236, 47.5831, -59.0407, 74.4755
2.468, 1, 15.4956, 47.6722, 0.712451, 47.6984, -59.0318, 74.3851
2.472, 1, 15.5525, 47.6769, 0.674679, 47.8136, -59.023, 74.2947
2.476, 1, 15.6093, 47.6815, 0.636921, 47.9287, -59.0142, 74.2044
2.479, 1, 15.666, 47.6861, 0.599176, 48.0438, -59.0054, 74.1141
2.484, 1, 15.7228, 47.6908, 0.561445, 48.1589, -58.9966, 74.0238
2.488, 1, 15.7795, 47.6954, 0.523727, 48.2739, -58.9878, 73.9336
2.492, 1, 15.8362, 47.7001, 0.486023, 48.3889, -58.9791, 73.8434
2.495, 1, 15.8929, 47.7047, 0.448333, 48.5039, -58.9703, 73.7532
2.5, 1, 15.9496, 47.7093, 0.410656, 48.6188, -58.9615, 73.6631
2.504, 1, 16.0063, 47.714, 0.372992, 48.7336, -58.9527, 73.573
2.508, 1, 16.0629, 47.7186, 0.335342, 48.8485, -58.9439, 73.4829
2.512, 1, 16.1195, 47.7232, 0.297706, 48.9632, -58.9352, 73.3929
2.515, 1, 16.1761, 47.7278, 0.260083, 49.078, -58.9264, 73.3028
2.52, 1, 16.2327, 47.7325, 0.222474, 49.1927, -58.9176, 73.2129
2.524, 1, 16.2892, 47.7371, 0.184878, 49.3073, -58.9089, 73.1229
2.528, 1, 16.3458, 47.7417, 0.147296, 49.422, -58.9001, 73.033
2.531, 1, 16.4023, 47.7463, 0.109728, 49.5365, -58.8913, 72.9431
2.536, 1, 16.4588, 47.7509, 0.0721726, 49.6511, -58.8826, 72.8533
2.54, 1, 16.5153, 47.7555, 0.0346311, 49.7656, -58.8738, 72.7635
2.544, 1, 16.5717, 47.7602, -0.00289686, 49.88, -58.8651, 72.6737
2.548, 1, 16.6281, 47.7648, -0.0404112, 49.9944, -58.8563, 72.584
2.551, 1, 16.6846, 47.7694, -0.0779121, 50.1088, -58.8476, 72.4943
2.556, 1, 16.7409, 47.774, -0.115399, 50.2231, -58.8388, 72.4046
2.56, 1, 16.7973, 47.7786, -0.152873, 50.3374, -58.8301, 72.3149
2.564, 1, 16.8537, 47.7832, -0.190333, 50.4516, -58.8214, 72.2253
2.568, 1, 16.91, 47.7878, -0.22778, 50.5658, -58.8126, 72.1357
2.571, 1, 16.9663, 47.7924, -0.265213, 50.68, -58.8039, 72.0462
2.576, 1, 17.0226, 47.797, -0.302633, 50.7941, -58.7952, 71.9566
2.58, 1, 17.0789, 47.8016, -0.340039, 50.9082, -58.7865, 71.8672
2.584, 1, 17.1351, 47.8062, -0.377431, 51.0222, -58.7778, 71.7777
2.587, 1, 17.1913, 47.8108, -0.41481, 51.1362, -58.769, 71.6883
2.592, 1, 17.2475, 47.8154, -0.452176, 51.2502, -58.7603, 71.5989
2.596, 1, 17.3037, 47.82, -0.489528, 51.3641, -58.7516, 71.5095
2.6, 1, 17.3599, 47.8246, -0.526866, 51.478, -58.7429, 71.4202
2.604, 1, 17.416, 47.8292, -0.564191, 51.5918, -58.7342, 71.3309
2.607, 1, 17.4722, 47.8337, -0.601502, 51.7056, -58.7255, 71.2417
2.612, 1, 17.5283, 47.8383, -0.6388, 51.8194, -58.7168, 71.1524
2.616, 1, 17.5844, 47.8429, -0.676084, 51.9331, -58.7081, 71.0632
2.62, 1, 17.6404, 47.8475, -0.713355, 52.0467, -58.6994, 70.9741
2.624, 1, 17.6965, 47.8521, -0.750612, 52.1604, -58.6908, 70.8849
2.627, 1, 17.7525, 47.8567, -0.787856, 52.2739, -58.6821, 70.7958
2.632, 1, 17.8085, 47.8612, -0.825086, 52.3875, -58.6734, 70.7068
2.636, 1, 17.8645, 47.8658, -0.862302, 52.501, -58.6647, 70.6177
2.64, 1, 17.9204, 47.8704, -0.899505, 52.6144, -58.656, 70.5287
2.643, 1, 17.9764, 47.875, -0.936695, 52.7279, -58.6474, 70.4398
2.648, 1, 18.0323, 47.8795, -0.973871, 52.8412, -58.6387, 70.3508
2.652, 1, 18.0882, 47.8841, -1.01103, 52.9546, -58.63, 70.2619
2.656, 1, 18.1441, 47.8887, -1.04818, 53.0679, -58.6214, 70.173
2.66, 1, 18.2, 47.8932, -1.08532, 53.1811, -58.6127, 70.0842
2.663, 1, 18.2558, 47.8978, -1.12244, 53.2943, -58.6041, 69.9954
2.668, 1, 18.3116, 47.9023, -1.15955, 53.4075, -58.5954, 69.9066
2.672, 1, 18.3674, 47.9069, -1.19664, 53.5206, -58.5868, 69.8179
2.676, 1, 18.4232, 47.9115, -1.23372, 53.6337, -58.5781, 69.7292
2.679, 1, 18.479, 47.916, -1.27079, 53.7468, -58.5695, 69.6405
2.684, 1, 18.5347, 47.9206, -1.30785, 53.8598, -58.5608, 69.5519
2.688, 1, 18.5904, 47.9251, -1.34489, 53.9728, -58.5522, 69.4632
2.692, 1, 18.6461, 47.9297, -1.38192, 54.0857, -58.5436, 69.3747
2.696, 1, 18.7018, 47.9342, -1.41893, 54.1986, -58.5349, 69.2861
2.699, 1, 18.7575, 47.9388, -1.45593, 54.3114, -58.5263, 69.1976
2.704, 1, 18.8131, 47.9433, -1.49292, 54.4242, -58.5177, 69.1091
2.708, 1, 18.8687, 47.9479, -1.52989, 54.537, -58.5091, 69.0207
2.712, 1, 18.9243, 47.9524, -1.56685, 54.6497, -58.5005, 68.9322
2.716, 1, 18.9799, 47.957, -1.6038, 54.7624, -58.4918, 68.8438
2.719, 1, 19.0354, 47.9615, -1.64073, 54.875, -58.4832, 68.7555
2.724, 1, 19.091, 47.966, -1.67765, 54.9876, -58.4746, 68.6672
2.728, 1, 19.1465, 47.9706, -1.71455, 55.1001, -58.466, 68.5789
2.732, 1, 19.202, 47.9751, -1.75145, 55.2127, -58.4574, 68.4906
2.735, 1, 19.2575, 47.9796, -1.78833, 55.3251, -58.4488, 68.4024
2.74, 1, 19.3129, 47.9842, -1.82519, 55.4376, -58.4402, 68.3142
2.744, 1, 19.3684, 47.9887, -1.86204, 55.5499, -58.4316, 68.226
2.748, 1, 19.4238, 47.9932, -1.89888, 55.6623, -58.423, 68.1379
2.752, 1, 19.4792, 47.9978, -1.93571, 55.7746, -58.4145, 68.0498
2.755, 1, 19.5345, 48.0023, -1.97252, 55.8869, -58.4059, 67.9617
2.76, 1, 19.5899, 48.0068, -2.00932, 55.9991, -58.3973, 67.8737
2.764, 1, 19.6452, 48.0113, -2.0461, 56.1113, -58.3887, 67.7857
2.768, 1, 19.7005, 48.0159, -2.08287, 56.2234, -58.3802, 67.6977
2.772, 1, 19.7558, 48.0204, -2.11963, 56.3355, -58.3716, 67.6098
2.775, 1, 19.8111, 48.0249, -2.15637, 56.4476, -58.363, 67.5219
2.78, 1, 19.8664, 48.0294, -2.1931, 56.5596, -58.3545, 67.434
2.784, 1, 19.9216, 48.0339, -2.22982, 56.6716, -58.3459, 67.3462
2.788, 1, 19.9768, 48.0384, -2.26653, 56.7835, -58.3373, 67.2584
2.791, 1, 20.032, 48.0429, -2.30322, 56.8954, -58.3288, 67.1706
2.796, 1, 20.0872, 48.0475, -2.33989, 57.0073, -58.3202, 67.0829
2.8, 1, 20.1423, 48.052, -2.37656, 57.1191, -58.3117, 66.9952
2.804, 1, 20.1975, 48.0565, -2.41321, 57.2309, -58.3031, 66.9075
2.808, 1, 20.2526, 48.061, -2.44984, 57.3426, -58.2946, 66.8198
2.811, 1, 20.3077, 48.0655, -2.48647, 57.4543, -58.2861, 66.7322
2.816, 1, 20.3627, 48.07, -2.52308, 57.5659, -58.2775, 66.6446
2.82, 1, 20.4178, 48.0745, -2.55967, 57.6776, -58.269, 66.5571
2.824, 1, 20.4728, 48.079, -2.59626, 57.7891, -58.2605, 66.4696
2.828, 1, 20.5278, 48.0835, -2.63283, 57.9007, -58.2519, 66.3821
2.831, 1, 20.5828, 48.088, -2.66939, 58.0121, -58.2434, 66.2946
2.836, 1, 20.6378, 48.0924, -2.70593, 58.1236, -58.2349, 66.2072
2.84, 1, 20.6928, 48.0969, -2.74246, 58.235, -58.2264, 66.1198
2.844, 1, 20.7477, 48.1014, -2.77898, 58.3464, -58.2179, 66.0324
2.847, 1, 20.8026, 48.1059, -2.81548, 58.4577, -58.2094, 65.9451
2.852, 1, 20.8575, 48.1104, -2.85197, 58.569, -58.2008, 65.8578
2.856, 1, 20.9124, 48.1149, -2.88845, 58.6802, -58.1923, 65.7705
2.86, 1, 20.9672, 48.1194, -2.92491, 58.7914, -58.1838, 65.6833
2.864, 1, 21.0221, 48.1239, -2.96136, 58.9026, -58.1753, 65.5961
2.867, 1, 21.0769, 48.1283, -2.9978, 59.0137, -58.1668, 65.5089
2.872, 1, 21.1317, 48.1328, -3.03422, 59.1248, -58.1584, 65.4218
2.876, 1, 21.1864, 48.1373, -3.07064, 59.2359, -58.1499, 65.3347
2.88, 1, 21.2412, 48.1418, -3.10703, 59.3469, -58.1414, 65.2476
2.883, 1, 21.2959, 48.1462, -3.14342, 59.4578, -58.1329, 65.1606
2.888, 1, 21.3506, 48.1507, -3.17979, 59.5688, -58.1244, 65.0736
2.892, 1, 21.4053, 48.1552, -3.21615, 59.6796, -58.1159, 64.9866
2.896, 1, 21.46, 48.1596, -3.25249, 59.7905, -58.1075, 64.8996
2.9, 1, 21.5146, 48.1641, -3.28882, 59.9013, -58.099, 64.8127
2.903, 1, 21.5693, 48.1686, -3.32514, 60.0121, -58.0905, 64.7258
2.908, 1, 21.6239, 48.173, -3.36145, 60.1228, -58.0821, 64.639
2.912, 1, 21.6785, 48.1775, -3.39774, 60.2335, -58.0736, 64.5521
2.916, 1, 21.7331, 48.182, -3.43402, 60.3441, -58.0651, 64.4654
2.92, 1, 21.7876, 48.1864, -3.47028, 60.4547, -58.0567, 64.3786
2.923, 1, 21.8421, 48.1909, -3.50654, 60.5653, -58.0482, 64.2919
2.928, 1, 21.8967, 48.1953, -3.54278, 60.6758, -58.0398, 64.2052
2.932, 1, 21.9512, 48.1998, -3.579, 60.7863, -58.0313, 64.1185
2.936, 1, 22.0056, 48.2042, -3.61522, 60.8967, -58.0229, 64.0319
2.939, 1, 22.0601, 48.2087, -3.65142, 61.0071, -58.0145, 63.9453
2.944, 1, 22.1145, 48.2131, -3.6876, 61.1175, -58.006, 63.8587
2.948, 1, 22.1689, 48.2176, -3.72378, 61.2278, -57.9976, 63.7722
2.952, 1, 22.2233, 48.222, -3.75994, 61.3381, -57.9892, 63.6857
2.956, 1, 22.2777, 48.2265, -3.79608, 61.4483, -57.9807, 63.5992
2.959, 1, 22.3321, 48.2309, -3.83222, 61.5585, -57.9723, 63.5127
2.964, 1, 22.3864, 48.2353, -3.86834, 61.6687, -57.9639, 63.4263
2.968, 1, 22.4407, 48.2398, -3.90445, 61.7788, -57.9555, 63.3399
2.972, 1, 22.495, 48.2442, -3.94054, 61.8889, -57.9471, 63.2536
2.976, 1, 22.5493, 48.2487, -3.97662, 61.9989, -57.9386, 63.1673
2.98, 1, 22.6035, 48.2531, -4.01269, 62.1089, -57.9302, 63.081
2.984, 1, 22.6578, 48.2575, -4.04875, 62.2189, -57.9218, 62.9947
2.988, 1, 22.712, 48.262, -4.08479, 62.3288, -57.9134, 62.9085
2.992, 1, 22.7662, 48.2664, -4.12082, 62.4387, -57.905, 62.8223
2.995, 1, 22.8204, 48.2708, -4.15684, 62.5485, -57.8966, 62.7361
3, 1, 22.8745, 48.2752, -4.19284, 62.6583, -57.8882, 62.65
3.004, 1, 22.9287, 48.2797, -4.22883, 62.7681, -57.8798, 62.5639
3.008, 1, 22.9828, 48.2841, -4.26481, 62.8778, -57.8715, 62.4778
3.012, 1, 23.0369, 48.2885, -4.30077, 62.9875, -57.8631, 62.3918
3.015, 1, 23.091, 48.2929, -4.33672, 63.0971, -57.8547, 62.3058
3.02, 1, 23.145, 48.2973, -4.37266, 63.2067, -57.8463, 62.2198
3.024, 1, 23.1991, 48.3018, -4.40858, 63.3163, -57.8379, 62.1339
3.028, 1, 23.2531, 48.3062, -4.4445, 63.4258, -57.8296, 62.048
3.031, 1, 23.3071, 48.3106, -4.48039, 63.5353, -57.8212, 61.9621
3.036, 1, 23.3611, 48.315, -4.51628, 63.6447, -57.8128, 61.8762
3.04, 1, 23.415, 48.3194, -4.55215, 63.7541, -57.8045, 61.7904
3.044, 1, 23.469, 48.3238, -4.58801, 63.8635, -57.7961, 61.7046
3.048, 1, 23.5229, 48.3282, -4.62386, 63.9728, -57.7877, 61.6189
3.051, 1, 23.5768, 48.3326, -4.65969, 64.0821, -57.7794, 61.5331
3.056, 1, 23.6307, 48.337, -4.69551, 64.1914, -57.771, 61.4475
3.06, 1, 23.6846, 48.3414, -4.73132, 64.3006, -57.7627, 61.3618
3.064, 1, 23.7384, 48.3458, -4.76712, 64.4097, -57.7543, 61.2762
3.068, 1, 23.7922, 48.3502, -4.8029, 64.5188, -57.746, 61.1906
3.071, 1, 23.846, 48.3546, -4.83867, 64.6279, -57.7377, 61.105
3.076, 1, 23.8998, 48.359, -4.87442, 64.737, -57.7293, 61.0194
3.08, 1, 23.9536, 48.3634, -4.91016, 64.846, -57.721, 60.9339
3.084, 1, 24.0073, 48.3678, -4.94589, 64.955, -57.7127, 60.8485
3.087, 1, 24.0611, 48.3722, -4.98161, 65.0639, -57.7043, 60.763
3.092, 1, 24.1148, 48.3766, -5.01731, 65.1728, -57.696, 60.6776
3.096, 1, 24.1685, 48.381, -5.05301, 65.2816, -57.6877, 60.5922
3.1, 1, 24.2221, 48.3854, -5.08868, 65.3904, -57.6794, 60.5069
3.104, 1, 24.2758, 48.3898, -5.12435, 65.4992, -57.6711, 60.4215
3.107, 1, 24.3294, 48.3941, -5.16, 65.6079, -57.6628, 60.3363
3.112, 1, 24.383, 48.3985, -5.19564, 65.7166, -57.6544, 60.251
3.116, 1, 24.4366, 48.4029, -5.23127, 65.8253, -57.6461, 60.1658
3.12, 1, 24.4902, 48.4073, -5.26688, 65.9339, -57.6378, 60.0806
3.124, 1, 24.5437, 48.4116, -5.30248, 66.0424, -57.6295, 59.9954
3.128, 1, 24.5973, 48.416, -5.33807, 66.151, -57.6212, 59.9103
3.132, 1, 24.6508, 48.4204, -5.37364, 66.2595, -57.6129, 59.8252
3.136, 1, 24.7043, 48.4248, -5.4092, 66.3679, -57.6046, 59.7401
3.14, 1, 24.7578, 48.4291, -5.44475, 66.4763, -57.5964, 59.655
3.143, 1, 24.8112, 48.4335, -5.48029, 66.5847, -57.5881, 59.57
3.148, 1, 24.8647, 48.4379, -5.51581, 66.6931, -57.5798, 59.485
3.152, 1, 24.9181, 48.4422, -5.55132, 66.8014, -57.5715, 59.4001
3.156, 1, 24.9715, 48.4466, -5.58682, 66.9096, -57.5632, 59.3152
3.16, 1, 25.0248, 48.451, -5.6223, 67.0178, -57.555, 59.2303
3.163, 1, 25.0782, 48.4553, -5.65777, 67.126, -57.5467, 59.1454
3.168, 1, 25.1315, 48.4597, -5.69323, 67.2341, -57.5384, 59.0606
3.172, 1, 25.1849, 48.464, -5.72868, 67.3422, -57.5302, 58.9758
3.176, 1, 25.2382, 48.4684, -5.76411, 67.4503, -57.5219, 58.891
3.179, 1, 25.2914, 48.4728, -5.79953, 67.5583, -57.5136, 58.8063
3.184, 1, 25.3447, 48.4771, -5.83493, 67.6663, -57.5054, 58.7216
3.188, 1, 25.398, 48.4815, -5.87033, 67.7743, -57.4971, 58.6369
3.192, 1, 25.4512, 48.4858, -5.90571, 67.8822, -57.4889, 58.5523
3.196, 1, 25.5044, 48.4902, -5.94108, 67.99, -57.4806, 58.4677
3.199, 1, 25.5576, 48.4945, -5.97644, 68.0979, -57.4724, 58.3831
3.204, 1, 25.6107, 48.4988, -6.01178, 68.2056, -57.4642, 58.2985
3.208, 1, 25.6639, 48.5032, -6.04711, 68.3134, -57.4559, 58.214
3.212, 1, 25.717, 48.5075, -6.08243, 68.4211, -57.4477, 58.1295
3.216, 1, 25.7701, 48.5119, -6.11773, 68.5288, -57.4395, 58.045
3.22, 1, 25.8232, 48.5162, -6.15302, 68.6364, -57.4312, 57.9606
3.224, 1, 25.8763, 48.5205, -6.1883, 68.744, -57.423, 57.8762
3.228, 1, 25.9293, 48.5249, -6.22357, 68.8516, -57.4148, 57.7918
3.232, 1, 25.9824, 48.5292, -6.25882, 68.9591, -57.4066, 57.7075
3.235, 1, 26.0354, 48.5335, -6.29407, 69.0666, -57.3984, 57.6232
3.24, 1, 26.0884, 48.5379, -6.32929, 69.174, -57.3901, 57.5389
3.244, 1, 26.1413, 48.5422, -6.36451, 69.2814, -57.3819, 57.4547
3.248, 1, 26.1943, 48.5465, -6.39971, 69.3888, -57.3737, 57.3705
3.252, 1, 26.2472, 48.5509, -6.43491, 69.4961, -57.3655, 57.2863
3.255, 1, 26.3002, 48.5552, -6.47008, 69.6034, -57.3573, 57.2021
3.26, 1, 26.3531, 48.5595, -6.50525, 69.7106, -57.3491, 57.118
3.264, 1, 26.4059, 48.5638, -6.5404, 69.8178, -57.3409, 57.0339
3.268, 1, 26.4588, 48.5681, -6.57554, 69.925, -57.3327, 56.9498
3.272, 1, 26.5116, 48.5725, -6.61067, 70.0321, -57.3245, 56.8658
3.276, 1, 26.5645, 48.5768, -6.64579, 70.1392, -57.3163, 56.7818
3.28, 1, 26.6173, 48.5811, -6.68089, 70.2463, -57.3082, 56.6978
3.284, 1, 26.6701, 48.5854, -6.71598, 70.3533, -57.3, 56.6138
3.288, 1, 26.7228, 48.5897, -6.75106, 70.4603, -57.2918, 56.5299
3.291, 1, 26.7756, 48.594, -6.78612, 70.5672, -57.2836, 56.446
3.296, 1, 26.8283, 48.5983, -6.82118, 70.6741, -57.2755, 56.3622
3.3, 1, 26.881, 48.6027, -6.85622, 70.781, -57.2673, 56.2783
3.304, 1, 26.9337, 48.607, -6.89125, 70.8878, -57.2591, 56.1945
3.308, 1, 26.9864, 48.6113, -6.92626, 70.9946, -57.251, 56.1108
3.312, 1, 27.039, 48.6156, -6.96126, 71.1014, -57.2428, 56.027
3.316, 1, 27.0917, 48.6199, -6.99625, 71.2081, -57.2346, 55.9433
3.32, 1, 27.1443, 48.6242, -7.03123, 71.3147, -57.2265, 55.8597
3.324, 1, 27.1969, 48.6285, -7.0662, 71.4214, -57.2183, 55.776
3.328, 1, 27.2495, 48.6328, -7.10115, 71.528, -57.2102, 55.6924
3.332, 1, 27.302, 48.6371, -7.13609, 71.6345, -57.202, 55.6088
3.336, 1, 27.3546, 48.6413, -7.17102, 71.7411, -57.1939, 55.5252
3.34, 1, 27.4071, 48.6456, -7.20594, 71.8475, -57.1858, 55.4417
3.344, 1, 27.4596, 48.6499, -7.24084, 71.954, -57.1776, 55.3582
3.347, 1, 27.5121, 48.6542, -7.27573, 72.0604, -57.1695, 55.2747
3.352, 1, 27.5646, 48.6585, -7.31061, 72.1668, -57.1614, 55.1913
3.356, 1, 27.617, 48.6628, -7.34548, 72.2731, -57.1532, 55.1079
3.36, 1, 27.6694, 48.6671, -7.38033, 72.3794, -57.1451, 55.0245
3.364, 1, 27.7218, 48.6714, -7.41517, 72.4857, -57.137, 54.9411
3.368, 1, 27.7742, 48.6756, -7.45, 72.5919, -57.1289, 54.8578
3.372, 1, 27.8266, 48.6799, -7.48482, 72.6981, -57.1207, 54.7745
3.376, 1, 27.879, 48.6842, -7.51962, 72.8042, -57.1126, 54.6913
3.38, 1, 27.9313, 48.6885, -7.55441, 72.9103, -57.1045, 54.608
3.383, 1, 27.9836, 48.6928, -7.58919, 73.0164, -57.0964, 54.5248
3.388, 1, 28.0359, 48.697, -7.62396, 73.1224, -57.0883, 54.4417
3.392, 1, 28.0882, 48.7013, -7.65872, 73.2284, -57.0802, 54.3585
3.396, 1, 28.1405, 48.7056, -7.69346, 73.3344, -57.0721, 54.2754
3.4, 1, 28.1927, 48.7098, -7.72819, 73.4403, -57.064, 54.1923
3.403, 1, 28.2449, 48.7141, -7.76291, 73.5462, -57.0559, 54.1092
3.408, 1, 28.2972, 48.7184, -7.79761, 73.652, -57.0478, 54.0262
3.412, 1, 28.3493, 48.7226, -7.83231, 73.7578, -57.0397, 53.9432
3.416, 1, 28.4015, 48.7269, -7.86699, 73.8636, -57.0316, 53.8603
3.42, 1, 28.4537, 48.7312, -7.90166, 73.9693, -57.0236, 53.7773
3.424, 1, 28.5058, 48.7354, -7.93631, 74.075, -57.0155, 53.6944
3.428, 1, 28.5579, 48.7397, -7.97096, 74.1807, -57.0074, 53.6115
3.432, 1, 28.61, 48.7439, -8.00559, 74.2863, -56.9993, 53.5287
3.436, 1, 28.6621, 48.7482, -8.04021, 74.3919, -56.9913, 53.4459
3.439, 1, 28.7141, 48.7525, -8.07482, 74.4974, -56.9832, 53.3631
3.444, 1, 28.7662, 48.7567, -8.10941, 74.6029, -56.9751, 53.2803
3.448, 1, 28.8182, 48.761, -8.144, 74.7084, -56.9671, 53.1976
3.452, 1, 28.8702, 48.7652, -8.17857, 74.8138, -56.959, 53.1149
3.456, 1, 28.9222, 48.7695, -8.21313, 74.9192, -56.9509, 53.0322
3.46, 1, 28.9742, 48.7737, -8.24767, 75.0246, -56.9429, 52.9495
3.464, 1, 29.0261, 48.778, -8.28221, 75.1299, -56.9348, 52.8669
3.468, 1, 29.0781, 48.7822, -8.31673, 75.2352, -56.9268, 52.7843
3.472, 1, 29.13, 48.7864, -8.35124, 75.3405, -56.9187, 52.7018
3.476, 1, 29.1819, 48.7907, -8.38574, 75.4457, -56.9107, 52.6192
3.48, 1, 29.2337, 48.7949, -8.42022, 75.5508, -56.9027, 52.5367
3.484, 1, 29.2856, 48.7992, -8.4547, 75.656, -56.8946, 52.4543
3.488, 1, 29.3374, 48.8034, -8.48916, 75.7611, -56.8866, 52.3718
3.492, 1, 29.3893, 48.8076, -8.52361, 75.8661, -56.8786, 52.2894
3.495, 1, 29.4411, 48.8119, -8.55805, 75.9712, -56.8705, 52.207
3.5, 1, 29.4928, 48.8161, -8.59247, 76.0761, -56.8625, 52.1247
3.504, 1, 29.5446, 48.8203, -8.62688, 76.1811, -56.8545, 52.0423
3.508, 1, 29.5964, 48.8246, -8.66128, 76.286, -56.8465, 51.96
3.512, 1, 29.6481, 48.8288, -8.69567, 76.3909, -56.8384, 51.8778
3.516, 1, 29.6998, 48.833, -8.73005, 76.4957, -56.8304, 51.7955
3.52, 1, 29.7515, 48.8372, -8.76442, 76.6005, -56.8224, 51.7133
3.524, 1, 29.8032, 48.8415, -8.79877, 76.7053, -56.8144, 51.6311
3.528, 1, 29.8548, 48.8457, -8.83311, 76.81, -56.8064, 51.549
3.531, 1, 29.9065, 48.8499, -8.86744, 76.9147, -56.7984, 51.4669
3.536, 1, 29.9581, 48.8541, -8.90175, 77.0194, -56.7904, 51.3848
3.54, 1, 30.0097, 48.8583, -8.93606, 77.124, -56.7824, 51.3027
3.544, 1, 30.0613, 48.8625, -8.97035, 77.2286, -56.7744, 51.2206
3.548, 1, 30.1129, 48.8668, -9.00463, 77.3331, -56.7664, 51.1386
3.552, 1, 30.1644, 48.871, -9.0389, 77.4377, -56.7584, 51.0567
3.556, 1, 30.2159, 48.8752, -9.07316, 77.5421, -56.7504, 50.9747
3.56, 1, 30.2675, 48.8794, -9.1074, 77.6466, -56.7425, 50.8928
3.564, 1, 30.319, 48.8836, -9.14163, 77.751, -56.7345, 50.8109
3.568, 1, 30.3704, 48.8878, -9.17585, 77.8553, -56.7265, 50.729
3.572, 1, 30.4219, 48.892, -9.21006, 77.9597, -56.7185, 50.6472
3.576, 1, 30.4733, 48.8962, -9.24426, 78.0639, -56.7105, 50.5654
3.58, 1, 30.5248, 48.9004, -9.27844, 78.1682, -56.7026, 50.4836
3.584, 1, 30.5762, 48.9046, -9.31262, 78.2724, -56.6946, 50.4018
3.587, 1, 30.6275, 48.9088, -9.34678, 78.3766, -56.6866, 50.3201
3.592, 1, 30.6789, 48.913, -9.38093, 78.4807, -56.6787, 50.2384
3.596, 1, 30.7303, 48.9172, -9.41506, 78.5849, -56.6707, 50.1568
3.6, 1, 30.7816, 48.9214, -9.44919, 78.6889, -56.6628, 50.0751
3.604, 1, 30.8329, 48.9256, -9.4833, 78.793, -56.6548, 49.9935
3.608, 1, 30.8842, 48.9298, -9.5174, 78.897, -56.6469, 49.9119
3.612, 1, 30.9355, 48.934, -9.55149, 79.0009, -56.6389, 49.8304
3.616, 1, 30.9868, 48.9382, -9.58557, 79.1049, -56.631, 49.7488
3.62, 1, 31.038, 48.9424, -9.61963, 79.2088, -56.623, 49.6674
3.624, 1, 31.0892, 48.9465, -9.65369, 79.3126, -56.6151, 49.5859
3.628, 1, 31.1404, 48.9507, -9.68773, 79.4164, -56.6072, 49.5044
3.632, 1, 31.1916, 48.9549, -9.72176, 79.5202, -56.5992, 49.423
3.636, 1, 31.2428, 48.9591, -9.75578, 79.624, -56.5913, 49.3417
3.64, 1, 31.294, 48.9633, -9.78978, 79.7277, -56.5834, 49.2603
3.644, 1, 31.3451, 48.9675, -9.82378, 79.8313, -56.5754, 49.179
3.648, 1, 31.3962, 48.9716, -9.85776, 79.935, -56.5675, 49.0977
3.652, 1, 31.4473, 48.9758, -9.89173, 80.0386, -56.5596, 49.0164
3.656, 1, 31.4984, 48.98, -9.92569, 80.1422, -56.5517, 48.9352
3.66, 1, 31.5495, 48.9842, -9.95964, 80.2457, -56.5438, 48.8539
3.664, 1, 31.6005, 48.9883, -9.99358, 80.3492, -56.5358, 48.7728
3.668, 1, 31.6516, 48.9925, -10.0275, 80.4527, -56.5279, 48.6916
3.672, 1, 31.7026, 48.9967, -10.0614, 80.5561, -56.52, 48.6105
3.676, 1, 31.7536, 49.0008, -10.0953, 80.6595, -56.5121, 48.5294
3.679, 1, 31.8046, 49.005, -10.1292, 80.7628, -56.5042, 48.4483
3.684, 1, 31.8555, 49.0092, -10.1631, 80.8661, -56.4963, 48.3672
3.688, 1, 31.9065, 49.0133, -10.1969, 80.9694, -56.4884, 48.2862
3.692, 1, 31.9574, 49.0175, -10.2308, 81.0727, -56.4805, 48.2052
3.696, 1, 32.0083, 49.0217, -10.2646, 81.1759, -56.4726, 48.1243
3.7, 1, 32.0592, 49.0258, -10.2985, 81.2791, -56.4648, 48.0433
3.704, 1, 32.1101, 49.03, -10.3323, 81.3822, -56.4569, 47.9624
3.708, 1, 32.1609, 49.0341, -10.3661, 81.4853, -56.449, 47.8815
3.712, 1, 32.2118, 49.0383, -10.3999, 81.5884, -56.4411, 47.8007
3.716, 1, 32.2626, 49.0424, -10.4337, 81.6914, -56.4332, 47.7199
3.72, 1, 32.3134, 49.0466, -10.4675, 81.7944, -56.4254, 47.6391
3.724, 1, 32.3642, 49.0507, -10.5012, 81.8974, -56.4175, 47.5583
3.728, 1, 32.415, 49.0549, -10.535, 82.0003, -56.4096, 47.4776
3.732, 1, 32.4657, 49.059, -10.5687, 82.1032, -56.4018, 47.3968
3.735, 1, 32.5165, 49.0632, -10.6024, 82.2061, -56.3939, 47.3161
3.74, 1, 32.5672, 49.0673, -10.6362, 82.3089, -56.386, 47.2355
3.744, 1, 32.6179, 49.0715, -10.6699, 82.4117, -56.3782, 47.1549
3.748, 1, 32.6686, 49.0756, -10.7036, 82.5145, -56.3703, 47.0742
3.752, 1, 32.7192, 49.0798, -10.7372, 82.6172, -56.3625, 46.9937
3.756, 1, 32.7699, 49.0839, -10.7709, 82.7199, -56.3546, 46.9131
3.76, 1, 32.8205, 49.088, -10.8046, 82.8225, -56.3468, 46.8326
3.764, 1, 32.8711, 49.0922, -10.8382, 82.9251, -56.3389, 46.7521
3.768, 1, 32.9217, 49.0963, -10.8719, 83.0277, -56.3311, 46.6716
3.772, 1, 32.9723, 49.1004, -10.9055, 83.1303, -56.3232, 46.5912
3.776, 1, 33.0229, 49.1046, -10.9391, 83.2328, -56.3154, 46.5108
3.78, 1, 33.0734, 49.1087, -10.9727, 83.3353, -56.3076, 46.4304
3.784, 1, 33.1239, 49.1128, -11.0063, 83.4377, -56.2997, 46.35
3.788, 1, 33.1745, 49.117, -11.0399, 83.5401, -56.2919, 46.2697
3.792, 1, 33.225, 49.1211, -11.0734, 83.6425, -56.2841, 46.1894
3.796, 1, 33.2754, 49.1252, -11.107, 83.7448, -56.2763, 46.1091
3.8, 1, 33.3259, 49.1293, -11.1405, 83.8471, -56.2684, 46.0289
3.804, 1, 33.3763, 49.1334, -11.1741, 83.9494, -56.2606, 45.9486
3.808, 1, 33.4268, 49.1376, -11.2076, 84.0516, -56.2528, 45.8685
3.812, 1, 33.4772, 49.1417, -11.2411, 84.1538, -56.245, 45.7883
3.816, 1, 33.5276, 49.1458, -11.2746, 84.256, -56.2372, 45.7081
3.82, 1, 33.5779, 49.1499, -11.3081, 84.3581, -56.2294, 45.628
3.824, 1, 33.6283, 49.154, -11.3416, 84.4602, -56.2216, 45.5479
3.828, 1, 33.6786, 49.1582, -11.375, 84.5623, -56.2138, 45.4679
3.832, 1, 33.729, 49.1623, -11.4085, 84.6643, -56.206, 45.3878
3.836, 1, 33.7793, 49.1664, -11.4419, 84.7663, -56.1982, 45.3078
3.84, 1, 33.8296, 49.1705, -11.4754, 84.8683, -56.1904, 45.2279
3.844, 1, 33.8798, 49.1746, -11.5088, 84.9702, -56.1826, 45.1479
3.848, 1, 33.9301, 49.1787, -11.5422, 85.0721, -56.1748, 45.068
3.852, 1, 33.9803, 49.1828, -11.5756, 85.1739, -56.167, 44.9881
3.856, 1, 34.0306, 49.1869, -11.609, 85.2758, -56.1592, 44.9082
3.86, 1, 34.0808, 49.191, -11.6423, 85.3775, -56.1515, 44.8284
3.864, 1, 34.131, 49.1951, -11.6757, 85.4793, -56.1437, 44.7485
3.868, 1, 34.1811, 49.1992, -11.7091, 85.581, -56.1359, 44.6688
3.872, 1, 34.2313, 49.2033, -11.7424, 85.6827, -56.1281, 44.589
3.876, 1, 34.2814, 49.2074, -11.7757, 85.7844, -56.1204, 44.5092
3.88, 1, 34.3316, 49.2115, -11.8091, 85.886, -56.1126, 44.4295
3.884, 1, 34.3817, 49.2156, -11.8424, 85.9876, -56.1048, 44.3498
3.888, 1, 34.4318, 49.2197, -11.8757, 86.0891, -56.0971, 44.2702
3.892, 1, 34.4818, 49.2238, -11.9089, 86.1906, -56.0893, 44.1906
3.896, 1, 34.5319, 49.2279, -11.9422, 86.2921, -56.0815, 44.111
3.9, 1, 34.5819, 49.232, -11.9755, 86.3936, -56.0738, 44.0314
3.904, 1, 34.6319, 49.2361, -12.0087, 86.495, -56.066, 43.9518
3.908, 1, 34.6819, 49.2401, -12.042, 86.5964, -56.0583, 43.8723
3.912, 1, 34.7319, 49.2442, -12.0752, 86.6977, -56.0505, 43.7928
3.916, 1, 34.7819, 49.2483, -12.1084, 86.799, -56.0428, 43.7133
3.92, 1, 34.8319, 49.2524, -12.1416, 86.9003, -56.035, 43.6339
3.924, 1, 34.8818, 49.2565, -12.1748, 87.0015, -56.0273, 43.5545
3.928, 1, 34.9317, 49.2606, -12.208, 87.1027, -56.0196, 43.4751
3.932, 1, 34.9816, 49.2646, -12.2412, 87.2039, -56.0118, 43.3957
3.936, 1, 35.0315, 49.2687, -12.2744, 87.3051, -56.0041, 43.3164
3.94, 1, 35.0814, 49.2728, -12.3075, 87.4062, -55.9964, 43.2371
3.944, 1, 35.1313, 49.2769, -12.3407, 87.5072, -55.9886, 43.1578
3.948, 1, 35.1811, 49.2809, -12.3738, 87.6083, -55.9809, 43.0785
3.952, 1, 35.2309, 49.285, -12.4069, 87.7093, -55.9732, 42.9993
3.956, 1, 35.2807, 49.2891, -12.44, 87.8103, -55.9655, 42.9201
3.96, 1, 35.3305, 49.2931, -12.4731, 87.9112, -55.9578, 42.8409
3.964, 1, 35.3803, 49.2972, -12.5062, 88.0121, -55.9501, 42.7617
3.968, 1, 35.43, 49.3013, -12.5393, 88.113, -55.9423, 42.6826
3.972, 1, 35.4798, 49.3053, -12.5723, 88.2138, -55.9346, 42.6035
3.976, 1, 35.5294, 49.3094, -12.6054, 88.3146, -55.9269, 42.5244
3.98, 1, 35.5789, 49.3135, -12.6385, 88.4154, -55.9192, 42.4454
3.984, 1, 35.6281, 49.3176, -12.6715, 88.5161, -55.9115, 42.3664
3.988, 1, 35.6767, 49.3218, -12.7047, 88.6168, -55.9039, 42.2874
3.992, 1, 35.7245, 49.326, -12.7378, 88.7173, -55.8962, 42.2086
3.996, 1, 35.7716, 49.3304, -12.771, 88.8175, -55.8886, 42.1299
3.999, 1, 35.8178, 49.3348, -12.8041, 88.9174, -55.881, 42.0515
4.004, 1, 35.8631, 49.3394, -12.8372, 89.0168, -55.8735, 41.9735
4.008, 1, 35.9076, 49.344, -12.8702, 89.1153, -55.8661, 41.8961
4.012, 1, 35.9512, 49.3487, -12.9029, 89.2128, -55.8587, 41.8196
4.016, 1, 35.9938, 49.3534, -12.9352, 89.309, -55.8515, 41.7442
4.02, 1, 36.0352, 49.3581, -12.9671, 89.4033, -55.8444, 41.6701
4.024, 1, 36.0752, 49.3628, -12.9983, 89.4955, -55.8375, 41.5977
4.028, 1, 36.1136, 49.3675, -13.0287, 89.5851, -55.8308, 41.5273
4.032, 1, 36.1503, 49.3722, -13.0582, 89.6717, -55.8244, 41.4593
4.036, 1, 36.1855, 49.3766, -13.0865, 89.7547, -55.8182, 41.3941
4.04, 1, 36.2192, 49.3808, -13.1135, 89.8337, -55.8123, 41.3321
4.044, 1, 36.2514, 49.3847, -13.1388, 89.9083, -55.8067, 41.2735
4.048, 1, 36.2823, 49.3882, -13.1623, 89.978, -55.8015, 41.2187
4.052, 1, 36.3116, 49.3913, -13.184, 90.0427, -55.7966, 41.168
4.056, 1, 36.3393, 49.394, -13.2038, 90.102, -55.7921, 41.1214
4.06, 1, 36.3653, 49.3964, -13.2216, 90.1559, -55.788, 41.0791
4.064, 1, 36.3895, 49.3983, -13.2374, 90.2043, -55.7843, 41.0412
4.068, 1, 36.4122, 49.3997, -13.2512, 90.2472, -55.781, 41.0075
4.072, 1, 36.4332, 49.4008, -13.2631, 90.2848, -55.778, 40.9781
4.076, 1, 36.4528, 49.4015, -13.2731, 90.3173, -55.7754, 40.9526
4.08, 1, 36.4708, 49.4018, -13.2813, 90.345, -55.7732, 40.931
4.084, 1, 36.4874, 49.4018, -13.288, 90.3682, -55.7713, 40.9129
4.088, 1, 36.5023, 49.4015, -13.2932, 90.3873, -55.7696, 40.8979
4.092, 1, 36.5156, 49.4011, -13.2973, 90.4029, -55.7683, 40.8858
4.096, 2, 36.5272, 49.4006, -13.3004, 90.4153, -55.7672, 40.8761
4.1, 2, 36.5374, 49.4, -13.3026, 90.4251, -55.7663, 40.8685
4.104, 2, 36.5462, 49.3995, -13.3042, 90.4327, -55.7656, 40.8627
4.108, 2, 36.554, 49.3989, -13.3053, 90.4384, -55.765, 40.8583
4.112, 2, 36.5606, 49.3983, -13.306, 90.4426, -55.7646, 40.855
4.116, 2, 36.5664, 49.3978, -13.3063, 90.4456, -55.7643, 40.8527
4.12, 2, 36.5711, 49.3974, -13.3065, 90.4478, -55.764, 40.851
4.124, 2, 36.5749, 49.397, -13.3066, 90.4493, -55.7639, 40.8499
4.128, 2, 36.5778, 49.3968, -13.3066, 90.4503, -55.7637, 40.8491
4.132, 2, 36.5799, 49.3966, -13.3067, 90.451, -55.7636, 40.8486
4.136, 2, 36.5814, 49.3964, -13.3067, 90.4515, -55.7636, 40.8482
4.14, 2, 36.5824, 49.3963, -13.3067, 90.4518, -55.7635, 40.8479
4.144, 2, 36.583, 49.3963, -13.3067, 90.452, -55.7635, 40.8478
4.148, 2, 36.5835, 49.3962, -13.3067, 90.4522, -55.7635, 40.8477
4.152, 2, 36.5838, 49.3962, -13.3067, 90.4523, -55.7635, 40.8476
4.156, 2, 36.584, 49.3962, -13.3067, 90.4523, -55.7635, 40.8475
4.16, 2, 36.5841, 49.3962, -13.3067, 90.4524, -55.7635, 40.8475
4.164, 2, 36.5842, 49.3962, -13.3067, 90.4524, -55.7635, 40.8475
4.168, 2, 36.5843, 49.3962, -13.3067, 90.4524, -55.7635, 40.8475
4.172, 2, 36.5843, 49.3962, -13.3067, 90.4524, -55.7635, 40.8475
4.176, 2, 36.5844, 49.3961, -13.3067, 90.4525, -55.7635, 40.8475
4.18, 2, 36.5844, 49.3961, -13.3067, 90.4525, -55.7635, 40.8474
4.184, 2, 36.5844, 49.3961, -13.3067, 90.4525, -55.7635, 40.8474
4.188, 2, 36.5844, 49.3961, -13.3067, 90.4525, -55.7635, 40.8474
4.192, 2, 36.5844, 49.3961, -13.3067, 90.4525, -55.7635, 40.8474
4.196, 2, 36.5844, 49.3961, -13.3067, 90.4525, -55.7635, 40.8474
4.2, 2, 36.5844, 49.3961, -13.3067, 90.4525, -55.7635, 40.8474
4.204, 2, 36.5844, 49.3961, -13.3067, 90.4525, -55.7635, 40.8474
4.208, 2, 36.5844, 49.3961, -13.3067, 90.4525, -55.7635, 40.8474
4.212, 2, 36.5844, 49.3961, -13.3067, 90.4525, -55.7635, 40.8474
4.216, 2, 36.5844, 49.3961, -13.3067, 90.4525, -55.7635, 40.8474
4.22, 2, 36.5844, 49.3961, -13.3067, 90.4525, -55.7635, 40.8474
4.224, 2, 36.5844, 49.3961, -13.3067, 90.4525, -55.7635, 40.8474
4.228, 2, 36.5844, 49.3961, -13.3067, 90.4525, -55.7635, 40.8474
4.232, 2, 36.5844, 49.3961, -13.3067, 90.4525, -55.7635, 40.8474
4.236, 2, 36.5844, 49.3961, -13.3067, 90.4525, -55.7635, 40.8474
4.24, 2, 36.5844, 49.3961, -13.3067, 90.4525, -55.7635, 40.8474
4.244, 2, 36.5844, 49.3961, -13.3067, 90.4525, -55.7635, 40.8474
4.248, 2, 36.5844, 49.3961, -13.3067, 90.4525, -55.7635, 40.8474
4.252, 2, 36.5844, 49.3961, -13.3067, 90.4525, -55.7635, 40.8474
4.256, 2, 36.5844, 49.3961, -13.3067, 90.4525, -55.7635, 40.8474
4.26, 2, 36.5844, 49.3961, -13.3067, 90.4525, -55.7635, 40.8474
4.264, 2, 36.5844, 49.3961, -13.3067, 90.4525, -55.7635, 40.8474
4.268, 2, 36.5844, 49.3961, -13.3067, 90.4525, -55.7635, 40.8474
4.272, 2, 36.5844, 49.3961, -13.3067, 90.4525, -55.7635, 40.8474
4.276, 2, 36.5844, 49.3961, -13.3067, 90.4525, -55.7635, 40.8474
4.28, 2, 36.5844, 49.3961, -13.3067, 90.4525, -55.7635, 40.8474
4.284, 2, 36.5844, 49.3961, -13.3067, 90.4525, -55.7635, 40.8474
4.288, 2, 36.5844, 49.3961, -13.3067, 90.4525, -55.7635, 40.8474
4.292, 2, 36.5844, 49.3961, -13.3067, 90.4525, -55.7635, 40.8474
4.296, 2, 36.5844, 49.3961, -13.3067, 90.4525, -55.7635, 40.8474
4.3, 2, 36.5844, 49.3961, -13.3067, 90.4525, -55.7635, 40.8474
4.304, 2, 36.5844, 49.3961, -13.3067, 90.4525, -55.7635, 40.8474
4.308, 2, 36.5844, 49.3961, -13.3067, 90.4525, -55.7635, 40.8474
4.312, 2, 36.5844, 49.3961, -13.3067, 90.4525, -55.7635, 40.8474
4.316, 2, 36.5844, 49.3961, -13.3067, 90.4525, -55.7635, 40.8474
4.32, 2, 36.5844, 49.3961, -13.3067, 90.4525, -55.7635, 40.8474
4.324, 2, 36.5844, 49.3961, -13.3067, 90.4525, -55.7635, 40.8474
4.328, 2, 36.5844, 49.3961, -13.3067, 90.4525, -55.7635, 40.8474
4.332, 2, 36.5844, 49.3961, -13.3067, 90.4525, -55.7635, 40.8474
4.336, 2, 36.5844, 49.3961, -13.3067, 90.4525, -55.7635, 40.8474
4.34, 2, 36.5844, 49.3961, -13.3067, 90.4525, -55.7635, 40.8474
4.344, 2, 36.5844, 49.3961, -13.3067, 90.4525, -55.7635, 40.8474
4.348, 2, 36.5844, 49.3961, -13.3067, 90.4525, -55.7635, 40.8474
4.352, 2, 36.5844, 49.3961, -13.3067, 90.4525, -55.7635, 40.8474
4.356, 2, 36.5844, 49.3961, -13.3067, 90.4525, -55.7635, 40.8474
4.36, 2, 36.5844, 49.3961, -13.3067, 90.4525, -55.7635, 40.8474
4.364, 2, 36.5844, 49.3961, -13.3067, 90.4525, -55.7635, 40.8474
4.368, 2, 36.5844, 49.3961, -13.3067, 90.4525, -55.7635, 40.8474
4.372, 2, 36.5844, 49.3961, -13.3067, 90.4525, -55.7635, 40.8474
4.376, 2, 36.5844, 49.3961, -13.3067, 90.4525, -55.7635, 40.8474
4.38, 2, 36.5844, 49.3961, -13.3067, 90.4525, -55.7635, 40.8474
4.384, 2, 36.5844, 49.3961, -13.3067, 90.4525, -55.7635, 40.8474
4.388, 2, 36.5844, 49.3961, -13.3067, 90.4525, -55.7635, 40.8474
4.392, 2, 36.5844, 49.3961, -13.3067, 90.4525, -55.7635, 40.8474
4.396, 2, 36.5844, 49.3961, -13.3067, 90.4525, -55.7635, 40.8474
4.4, 2, 36.5844, 49.3961, -13.3067, 90.4525, -55.7635, 40.8474
4.404, 2, 36.5844, 49.3961, -13.3067, 90.4525, -55.7635, 40.8474
4.408, 2, 36.5844, 49.3961, -13.3067, 90.4525, -55.7635, 40.8474
4.412, 2, 36.5844, 49.3961, -13.3067, 90.4525, -55.7635, 40.8474
4.416, 2, 36.5844, 49.3961, -13.3067, 90.4525, -55.7635, 40.8474
4.42, 2, 36.5844, 49.3961, -13.3067, 90.4525, -55.7635, 40.8474
4.424, 2, 36.5844, 49.3961, -13.3067, 90.4525, -55.7635, 40.8474
4.428, 2, 36.5844, 49.3961, -13.3067, 90.4525, -55.7635, 40.8474
4.432, 2, 36.5844, 49.3961, -13.3067, 90.4525, -55.7635, 40.8474
4.436, 2, 36.5844, 49.3961, -13.3067, 90.4525, -55.7635, 40.8474
4.44, 2, 36.5844, 49.3961, -13.3067, 90.4525, -55.7635, 40.8474
4.444, 2, 36.5844, 49.3961, -13.3067, 90.4525, -55.7635, 40.8474
4.448, 2, 36.5844, 49.3961, -13.3067, 90.4525, -55.7635, 40.8474
4.452, 2, 36.5844, 49.3961, -13.3067, 90.4525, -55.7635, 40.8474
4.456, 2, 36.5844, 49.3961, -13.3067, 90.4525, -55.7635, 40.8474
4.46, 2, 36.5844, 49.3961, -13.3067, 90.4525, -55.7635, 40.8474
4.464, 2, 36.5844, 49.3961, -13.3067, 90.4525, -55.7635, 40.8474
4.468, 2, 36.5844, 49.3961, -13.3067, 90.4525, -55.7635, 40.8474
4.472, 2, 36.5844, 49.3961, -13.3067, 90.4525, -55.7635, 40.8474
4.476, 2, 36.5844, 49.3961, -13.3067, 90.4525, -55.7635, 40.8474
4.48, 2, 36.5844, 49.3961, -13.3067, 90.4525, -55.7635, 40.8474
4.484, 2, 36.5844, 49.3961, -13.3067, 90.4525, -55.7635, 40.8474
4.488, 2, 36.5844, 49.3961, -13.3067, 90.4525, -55.7635, 40.8474
4.492, 2, 36.5844, 49.3961, -13.3067, 90.4525, -55.7635, 40.8474
4.496, 2, 36.5844, 49.3961, -13.3067, 90.4525, -55.7635, 40.8474
4.5, 2, 36.5844, 49.3961, -13.3067, 90.4525, -55.7635, 40.8474
4.504, 2, 36.5844, 49.3961, -13.3067, 90.4525, -55.7635, 40.8474
4.508, 2, 36.5844, 49.3961, -13.3067, 90.4525, -55.7635, 40.8474
4.512, 2, 36.5844, 49.3961, -13.3067, 90.4525, -55.7635, 40.8474
4.516, 2, 36.5844, 49.3961, -13.3067, 90.4525, -55.7635, 40.8474
4.52, 2, 36.5844, 49.3961, -13.3067, 90.4525, -55.7635, 40.8474
4.524, 2, 36.5844, 49.3961, -13.3067, 90.4525, -55.7635, 40.8474
4.528, 2, 36.5844, 49.3961, -13.3067, 90.4525, -55.7635, 40.8474
4.532, 2, 36.5844, 49.3961, -13.3067, 90.4525, -55.7635, 40.8474
4.536, 2, 36.5844, 49.3961, -13.3067, 90.4525, -55.7635, 40.8474
4.54, 2, 36.5844, 49.3961, -13.3067, 90.4525, -55.7635, 40.8474
4.544, 2, 36.5844, 49.3961, -13.3067, 90.4525, -55.7635, 40.8474
4.548, 2, 36.5844, 49.3961, -13.3067, 90.4525, -55.7635, 40.8474
4.552, 2, 36.5844, 49.3961, -13.3067, 90.4525, -55.7635, 40.8474
4.556, 2, 36.5844, 49.3961, -13.3067, 90.4525, -55.7635, 40.8474
4.56, 2, 36.5844, 49.3961, -13.3067, 90.4525, -55.7635, 40.8474
4.564, 2, 36.5844, 49.3961, -13.3067, 90.4525, -55.7635, 40.8474
4.568, 2, 36.5844, 49.3961, -13.3067, 90.4525, -55.7635, 40.8474
4.572, 2, 36.5844, 49.3961, -13.3067, 90.4525, -55.7635, 40.8474
4.576, 2, 36.5844, 49.3961, -13.3067, 90.4525, -55.7635, 40.8474
4.58, 2, 36.5844, 49.3961, -13.3067, 90.4525, -55.7635, 40.8474
4.584, 2, 36.5844, 49.3961, -13.3067, 90.4525, -55.7635, 40.8474
4.588, 2, 36.5844, 49.3961, -13.3067, 90.4525, -55.7635, 40.8474
4.592, 2, 36.5844, 49.3961, -13.3067, 90.4525, -55.7635, 40.8474
4.596, 2, 36.5844, 49.3961, -13.3067, 90.4525, -55.7635, 40.8474
4.6, 2, 36.5844, 49.3961, -13.3067, 90.4525, -55.7635, 40.8474
4.604, 2, 36.5844, 49.3961, -13.3067, 90.4525, -55.7635, 40.8474
4.608, 2, 36.5844, 49.3961, -13.3067, 90.4525, -55.7635, 40.8474
4.612, 2, 36.5844, 49.3961, -13.3067, 90.4525, -55.7635, 40.8474
4.616, 2, 36.5844, 49.3961, -13.3067, 90.4525, -55.7635, 40.8474
4.62, 2, 36.5844, 49.3961, -13.3067, 90.4525, -55.7635, 40.8474
4.624, 2, 36.5844, 49.3961, -13.3067, 90.4525, -55.7635, 40.8474
4.628, 2, 36.5844, 49.3961, -13.3067, 90.4525, -55.7635, 40.8474
4.632, 2, 36.5844, 49.3961, -13.3067, 90.4525, -55.7635, 40.8474
4.636, 2, 36.5844, 49.3961, -13.3067, 90.4525, -55.7635, 40.8474
4.64, 2, 36.5844, 49.3961, -13.3067, 90.4525, -55.7635, 40.8474
4.644, 2, 36.5844, 49.3961, -13.3067, 90.4525, -55.7635, 40.8474
4.648, 2, 36.5844, 49.3961, -13.3067, 90.4525, -55.7635, 40.8474
4.652, 2, 36.5844, 49.3961, -13.3067, 90.4525, -55.7635, 40.8474
4.656, 2, 36.5844, 49.3961, -13.3067, 90.4525, -55.7635, 40.8474
4.66, 2, 36.5844, 49.3961, -13.3067, 90.4525, -55.7635, 40.8474
4.664, 2, 36.5844, 49.3961, -13.3067, 90.4525, -55.7635, 40.8474
4.668, 2, 36.5844, 49.3961, -13.3067, 90.4525, -55.7635, 40.8474
4.672, 2, 36.5844, 49.3961, -13.3067, 90.4525, -55.7635, 40.8474
4.676, 2, 36.5844, 49.3961, -13.3067, 90.4525, -55.7635, 40.8474
4.68, 2, 36.5844, 49.3961, -13.3067, 90.4525, -55.7635, 40.8474
4.684, 2, 36.5844, 49.3961, -13.3067, 90.4525, -55.7635, 40.8474
4.688, 2, 36.5844, 49.3961, -13.3067, 90.4525, -55.7635, 40.8474
4.692, 2, 36.5844, 49.3961, -13.3067, 90.4525, -55.7635, 40.8474
4.696, 2, 36.5844, 49.3961, -13.3067, 90.4525, -55.7635, 40.8474
4.7, 2, 36.5844, 49.3961, -13.3067, 90.4525, -55.7635, 40.8474
4.704, 2, 36.5844, 49.3961, -13.3067, 90.4525, -55.7635, 40.8474
4.708, 2, 36.5844, 49.3961, -13.3067, 90.4525, -55.7635, 40.8474
4.712, 2, 36.5844, 49.3961, -13.3067, 90.4525, -55.7635, 40.8474
4.716, 2, 36.5844, 49.3961, -13.3067, 90.4525, -55.7635, 40.8474
4.72, 2, 36.5844, 49.3961, -13.3067, 90.4525, -55.7635, 40.8474
4.724, 2, 36.5844, 49.3961, -13.3067, 90.4525, -55.7635, 40.8474
4.728, 2, 36.5844, 49.3961, -13.3067, 90.4525, -55.7635, 40.8474
4.732, 2, 36.5844, 49.3961, -13.3067, 90.4525, -55.7635, 40.8474
4.736, 2, 36.5844, 49.3961, -13.3067, 90.4525, -55.7635, 40.8474
4.74, 2, 36.5844, 49.3961, -13.3067, 90.4525, -55.7635, 40.8474
4.744, 2, 36.5844, 49.3961, -13.3067, 90.4525, -55.7635, 40.8474
4.748, 2, 36.5844, 49.3961, -13.3067, 90.4525, -55.7635, 40.8474
4.752, 2, 36.5844, 49.3961, -13.3067, 90.4525, -55.7635, 40.8474
4.756, 2, 36.5844, 49.3961, -13.3067, 90.4525, -55.7635, 40.8474
4.76, 2, 36.5844, 49.3961, -13.3067, 90.4525, -55.7635, 40.8474
4.764, 2, 36.5844, 49.3961, -13.3067, 90.4525, -55.7635, 40.8474
4.768, 2, 36.5844, 49.3961, -13.3067, 90.4525, -55.7635, 40.8474
4.772, 2, 36.5844, 49.3961, -13.3067, 90.4525, -55.7635, 40.8474
4.776, 2, 36.5844, 49.3961, -13.3067, 90.4525, -55.7635, 40.8474
4.78, 2, 36.5844, 49.3961, -13.3067, 90.4525, -55.7635, 40.8474
4.784, 2, 36.5844, 49.3961, -13.3067, 90.4525, -55.7635, 40.8474
4.788, 2, 36.5844, 49.3961, -13.3067, 90.4525, -55.7635, 40.8474
4.792, 2, 36.5844, 49.3961, -13.3067, 90.4525, -55.7635, 40.8474
4.796, 2, 36.5844, 49.3961, -13.3067, 90.4525, -55.7635, 40.8474
4.8, 2, 36.5844, 49.3961, -13.3067, 90.4525, -55.7635, 40.8474
4.804, 2, 36.5844, 49.3961, -13.3067, 90.4525, -55.7635, 40.8474
4.808, 2, 36.5844, 49.3961, -13.3067, 90.4525, -55.7635, 40.8474
4.812, 2, 36.5844, 49.3961, -13.3067, 90.4525, -55.7635, 40.8474
4.816, 2, 36.5844, 49.3961, -13.3067, 90.4525, -55.7635, 40.8474
4.82, 2, 36.5844, 49.3961, -13.3067, 90.4525, -55.7635, 40.8474
4.824, 2, 36.5844, 49.3961, -13.3067, 90.4525, -55.7635, 40.8474
4.828, 2, 36.5844, 49.3961, -13.3067, 90.4525, -55.7635, 40.8474
4.832, 2, 36.5844, 49.3961, -13.3067, 90.4525, -55.7635, 40.8474
4.836, 2, 36.5844, 49.3961, -13.3067, 90.4525, -55.7635, 40.8474
4.84, 2, 36.5844, 49.3961, -13.3067, 90.4525, -55.7635, 40.8474
4.844, 2, 36.5844, 49.3961, -13.3067, 90.4525, -55.7635, 40.8474
4.848, 2, 36.5844, 49.3961, -13.3067, 90.4525, -55.7635, 40.8474
4.852, 2, 36.5844, 49.3961, -13.3067, 90.4525, -55.7635, 40.8474
4.856, 2, 36.5844, 49.3961, -13.3067, 90.4525, -55.7635, 40.8474
4.86, 2, 36.5844, 49.3961, -13.3067, 90.4525, -55.7635, 40.8474
4.864, 2, 36.5844, 49.3961, -13.3067, 90.4525, -55.7635, 40.8474
4.868, 2, 36.5844, 49.3961, -13.3067, 90.4525, -55.7635, 40.8474
4.872, 2, 36.5844, 49.3961, -13.3067, 90.4525, -55.7635, 40.8474
4.876, 2, 36.5844, 49.3961, -13.3067, 90.4525, -55.7635, 40.8474
4.88, 2, 36.5844, 49.3961, -13.3067, 90.4525, -55.7635, 40.8474
4.884, 2, 36.5844, 49.3961, -13.3067, 90.4525, -55.7635, 40.8474
4.888, 2, 36.5844, 49.3961, -13.3067, 90.4525, -55.7635, 40.8474
4.892, 2, 36.5844, 49.3961, -13.3067, 90.4525, -55.7635, 40.8474
4.896, 2, 36.5844, 49.3961, -13.3067, 90.4525, -55.7635, 40.8474
4.9, 2, 36.5844, 49.3961, -13.3067, 90.4525, -55.7635, 40.8474
4.904, 2, 36.5844, 49.3961, -13.3067, 90.4525, -55.7635, 40.8474
4.908, 2, 36.5844, 49.3961, -13.3067, 90.4525, -55.7635, 40.8474
4.912, 2, 36.5844, 49.3961, -13.3067, 90.4525, -55.7635, 40.8474
4.916, 2, 36.5844, 49.3961, -13.3067, 90.4525, -55.7635, 40.8474
4.92, 2, 36.5844, 49.3961, -13.3067, 90.4525, -55.7635, 40.8474
4.924, 2, 36.5844, 49.3961, -13.3067, 90.4525, -55.7635, 40.8474
4.928, 2, 36.5844, 49.3961, -13.3067, 90.4525, -55.7635, 40.8474
4.932, 2, 36.5844, 49.3961, -13.3067, 90.4525, -55.7635, 40.8474
4.936, 2, 36.5844, 49.3961, -13.3067, 90.4525, -55.7635, 40.8474
4.94, 2, 36.5844, 49.3961, -13.3067, 90.4525, -55.7635, 40.8474
4.944, 2, 36.5844, 49.3961, -13.3067, 90.4525, -55.7635, 40.8474
4.948, 2, 36.5844, 49.3961, -13.3067, 90.4525, -55.7635, 40.8474
4.952, 2, 36.5844, 49.3961, -13.3067, 90.4525, -55.7635, 40.8474
4.956, 2, 36.5844, 49.3961, -13.3067, 90.4525, -55.7635, 40.8474
4.96, 2, 36.5844, 49.3961, -13.3067, 90.4525, -55.7635, 40.8474
4.964, 2, 36.5844, 49.3961, -13.3067, 90.4525, -55.7635, 40.8474
4.968, 2, 36.5844, 49.3961, -13.3067, 90.4525, -55.7635, 40.8474
4.972, 2, 36.5844, 49.3961, -13.3067, 90.4525, -55.7635, 40.8474
4.976, 2, 36.5844, 49.3961, -13.3067, 90.4525, -55.7635, 40.8474
4.98, 2, 36.5844, 49.3961, -13.3067, 90.4525, -55.7635, 40.8474
4.984, 2, 36.5844, 49.3961, -13.3067, 90.4525, -55.7635, 40.8474
4.988, 2, 36.5844, 49.3961, -13.3067, 90.4525, -55.7635, 40.8474
4.992, 2, 36.5844, 49.3961, -13.3067, 90.4525, -55.7635, 40.8474
4.996, 2, 36.5844, 49.3961, -13.3067, 90.4525, -55.7635, 40.8474
5, 2, 36.5844, 49.3961, -13.3067, 90.4525, -55.7635, 40.8474
5.004, 2, 36.5844, 49.3961, -13.3067, 90.4525, -55.7635, 40.8474
5.008, 2, 36.5844, 49.3961, -13.3067, 90.4525, -55.7635, 40.8474
5.012, 2, 36.5844, 49.3961, -13.3067, 90.4525, -55.7635, 40.8474
5.016, 2, 36.5844, 49.3961, -13.3067, 90.4525, -55.7635, 40.8474
5.02, 2, 36.5844, 49.3961, -13.3067, 90.4525, -55.7635, 40.8474
5.024, 2, 36.5844, 49.3961, -13.3067, 90.4525, -55.7635, 40.8474
5.028, 2, 36.5844, 49.3961, -13.3067, 90.4525, -55.7635, 40.8474
5.032, 2, 36.5844, 49.3961, -13.3067, 90.4525, -55.7635, 40.8474
5.036, 2, 36.5844, 49.3961, -13.3067, 90.4525, -55.7635, 40.8474
5.04, 2, 36.5844, 49.3961, -13.3067, 90.4525, -55.7635, 40.8474
5.044, 2, 36.5844, 49.3961, -13.3067, 90.4525, -55.7635, 40.8474
5.048, 2, 36.5844, 49.3961, -13.3067, 90.4525, -55.7635, 40.8474
5.052, 2, 36.5844, 49.3961, -13.3067, 90.4525, -55.7635, 40.8474
5.056, 2, 36.5844, 49.3961, -13.3067, 90.4525, -55.7635, 40.8474
5.06, 2, 36.5844, 49.3961, -13.3067, 90.4525, -55.7635, 40.8474
5.064, 2, 36.5844, 49.3961, -13.3067, 90.4525, -55.7635, 40.8474
5.068, 2, 36.5844, 49.3961, -13.3067, 90.4525, -55.7635, 40.8474
5.072, 2, 36.5844, 49.3961, -13.3067, 90.4525, -55.7635, 40.8474
5.076, 2, 36.5844, 49.3961, -13.3067, 90.4525, -55.7635, 40.8474
5.08, 2, 36.5844, 49.3961, -13.3067, 90.4525, -55.7635, 40.8474
5.084, 2, 36.5844, 49.3961, -13.3067, 90.4525, -55.7635, 40.8474
5.088, 2, 36.5844, 49.3961, -13.3067, 90.4525, -55.7635, 40.8474
5.092, 2, 36.5844, 49.3961, -13.3067, 90.4525, -55.7635, 40.8474
5.096, 3, 36.5844, 49.3961, -13.3067, 90.4525, -55.7635, 40.8474
5.1, 3, 36.5844, 49.3961, -13.3067, 90.4525, -55.7635, 40.8474
5.104, 3, 36.5844, 49.3961, -13.3067, 90.4525, -55.7635, 40.8474
5.108, 3, 36.5844, 49.3961, -13.3067, 90.4525, -55.7635, 40.8474
5.112, 3, 36.5844, 49.3961, -13.3067, 90.4525, -55.7635, 40.8474
5.116, 3, 36.5844, 49.3961, -13.3067, 90.4525, -55.7635, 40.8474
5.12, 3, 36.5844, 49.3961, -13.3067, 90.4525, -55.7635, 40.8474
5.124, 3, 36.5844, 49.3961, -13.3067, 90.4525, -55.7635, 40.8474
5.128, 3, 36.5844, 49.3961, -13.3067, 90.4525, -55.7635, 40.8474
5.132, 5, 36.5844, 49.3961, -13.3067, 90.4525, -55.7635, 40.8474
5.136, 5, 36.5844, 49.3961, -13.3067, 90.4525, -55.7635, 40.8474
5.14, 6, 36.5844, 49.3961, -13.3067, 90.4525, -55.7635, 40.8474
5.144, 7, 36.5844, 49.3961, -13.3067, 90.4525, -55.7635, 40.8474
5.148, 7, 36.5844, 49.3961, -13.3067, 90.4525, -55.7635, 40.8474
5.152, 8, 36.5844, 49.3961, -13.3067, 90.4525, -55.7635, 40.8474
5.156, 8, 36.5844, 49.3961, -13.3067, 90.4525, -55.7635, 40.8474
5.16, 9, 36.5844, 49.3961, -13.3067, 90.4525, -55.7635, 40.8474
5.164, 10, 36.5844, 49.3961, -13.3067, 90.4525, -55.7635, 40.8474
5.168, 10, 36.5844, 49.3961, -13.3067, 90.4525, -55.7635, 40.8474
5.172, 11, 36.5844, 49.3961, -13.3067, 90.4525, -55.7635, 40.8474
5.176, 11, 36.5844, 49.3961, -13.3067, 90.4525, -55.7635, 40.8474
5.18, 11, 36.5844, 49.3961, -13.3067, 90.4525, -55.7635, 40.8474
5.184, 11, 36.5844, 49.3961, -13.3067, 90.4525, -55.7635, 40.8474
5.188, 11, 36.5844, 49.3962, -13.3067, 90.4525, -55.7635, 40.8474
5.192, 11, 36.5843, 49.3963, -13.3067, 90.4525, -55.7635, 40.8474
5.196, 11, 36.584, 49.3967, -13.3067, 90.4525, -55.7635, 40.8474
5.2, 11, 36.5834, 49.3974, -13.3068, 90.4525, -55.7637, 40.8472
5.204, 11, 36.5825, 49.3986, -13.307, 90.4527, -55.764, 40.8468
5.208, 11, 36.5812, 49.4005, -13.3072, 90.4529, -55.7647, 40.8461
5.212, 11, 36.5795, 49.4031, -13.3076, 90.4533, -55.7661, 40.8446
5.216, 11, 36.5775, 49.4066, -13.3082, 90.454, -55.7685, 40.842
5.22, 11, 36.575, 49.4111, -13.309, 90.4552, -55.7723, 40.8379
5.224, 11, 36.5721, 49.4169, -13.3102, 90.4569, -55.7781, 40.8315
5.228, 11, 36.5688, 49.4241, -13.3118, 90.4595, -55.7865, 40.8223
5.232, 11, 36.5651, 49.4331, -13.314, 90.463, -55.7984, 40.8094
5.236, 11, 36.5607, 49.444, -13.3168, 90.4679, -55.8145, 40.7919
5.24, 11, 36.5559, 49.4571, -13.3204, 90.4743, -55.8358, 40.7686
5.244, 11, 36.5504, 49.4724, -13.3249, 90.4825, -55.8635, 40.7385
5.248, 11, 36.5443, 49.4901, -13.3304, 90.493, -55.8984, 40.7004
5.252, 11, 36.5377, 49.5104, -13.3371, 90.5059, -55.9418, 40.6531
5.256, 11, 36.5303, 49.5334, -13.3452, 90.5217, -55.9947, 40.5955
5.26, 11, 36.5221, 49.5592, -13.3548, 90.5408, -56.0581, 40.5266
5.264, 11, 36.5128, 49.5881, -13.3662, 90.5635, -56.1329, 40.4455
5.268, 11, 36.5022, 49.62, -13.3796, 90.5905, -56.22, 40.3514
5.272, 11, 36.4903, 49.655, -13.3953, 90.6225, -56.3202, 40.244
5.276, 11, 36.4767, 49.6931, -13.4134, 90.6603, -56.4342, 40.1231
5.28, 11, 36.4616, 49.7343, -13.4344, 90.7052, -56.5623, 39.9889
5.284, 11, 36.4448, 49.7786, -13.4584, 90.7583, -56.7049, 39.8422
5.288, 12, 36.4264, 49.8259, -13.4855, 90.8213, -56.8622, 39.6839
5.292, 12, 36.4068, 49.8763, -13.5161, 90.8956, -57.0341, 39.5153
5.296, 12, 36.386, 49.9298, -13.5502, 90.9826, -57.2201, 39.3381
5.3, 12, 36.3641, 49.9862, -13.5879, 91.0835, -57.4198, 39.1539
5.304, 12, 36.3414, 50.0454, -13.6293, 91.1994, -57.6324, 38.9646
5.308, 12, 36.3178, 50.1071, -13.6743, 91.3307, -57.8568, 38.7719
5.312, 12, 36.2932, 50.171, -13.7229, 91.4776, -58.0917, 38.5777
5.316, 12, 36.2675, 50.2366, -13.7749, 91.6397, -58.3359, 38.3837
5.32, 12, 36.2404, 50.304, -13.8302, 91.8164, -58.5877, 38.1915
5.324, 12, 36.2116, 50.3727, -13.8883, 92.0064, -58.8457, 38.0028
5.328, 12, 36.181, 50.4427, -13.9489, 92.2086, -59.1083, 37.8193
5.332, 12, 36.1483, 50.5136, -14.0113, 92.4212, -59.374, 37.6424
5.336, 13, 36.1135, 50.5851, -14.0751, 92.6426, -59.6415, 37.4741
5.34, 13, 36.0766, 50.6568, -14.1396, 92.871, -59.9097, 37.3158
5.344, 13, 36.0378, 50.7284, -14.204, 93.1048, -60.1774, 37.1693
5.348, 13, 35.9973, 50.7993, -14.2678, 93.3424, -60.444, 37.0361
5.352, 13, 35.9554, 50.8691, -14.3303, 93.5826, -60.7087, 36.9176
5.356, 13, 35.9124, 50.9374, -14.3909, 93.8244, -60.9709, 36.8149
5.36, 13, 35.8685, 51.0041, -14.4492, 94.067, -61.2304, 36.729
5.364, 13, 35.8241, 51.0687, -14.5049, 94.3097, -61.4867, 36.6602
5.368, 13, 35.7794, 51.1308, -14.5576, 94.5519, -61.7397, 36.6087
5.372, 13, 35.7349, 51.1901, -14.6073, 94.7934, -61.9891, 36.5741
5.376, 13, 35.6907, 51.2464, -14.6537, 95.0335, -62.2346, 36.556
5.38, 13, 35.6469, 51.2995, -14.697, 95.2719, -62.4758, 36.5536
5.384, 13, 35.6033, 51.3492, -14.7371, 95.508, -62.7123, 36.566
5.388, 13, 35.5594, 51.3955, -14.774, 95.7412, -62.9436, 36.5921
5.392, 13, 35.5145, 51.4384, -14.808, 95.971, -63.1691, 36.6311
5.396, 13, 35.4679, 51.4779, -14.8389, 96.1969, -63.3882, 36.6822
5.4, 13, 35.4194, 51.5141, -14.8668, 96.4186, -63.6006, 36.7449
5.404, 13, 35.3691, 51.5472, -14.8916, 96.636, -63.8059, 36.8188
5.408, 14, 35.3177, 51.5772, -14.913, 96.849, -64.0038, 36.9041
5.412, 14, 35.2659, 51.6041, -14.9309, 97.0578, -64.1943, 37.0008
5.416, 14, 35.2147, 51.6282, -14.9452, 97.2625, -64.3773, 37.1091
5.42, 14, 35.1649, 51.6495, -14.9556, 97.4633, -64.553, 37.2289
5.424, 14, 35.1169, 51.6681, -14.9623, 97.6603, -64.7214, 37.3598
5.428, 14, 35.0708, 51.6843, -14.9654, 97.8535, -64.8828, 37.5012
5.432, 14, 35.0263, 51.6981, -14.965, 98.0427, -65.0372, 37.652
5.436, 14, 34.9835, 51.71, -14.9616, 98.2277, -65.1849, 37.8106
5.44, 14, 34.9419, 51.7202, -14.9555, 98.4081, -65.326, 37.9752
5.444, 14, 34.9013, 51.7288, -14.9473, 98.5833, -65.4607, 38.1436
5.448, 14, 34.8615, 51.7361, -14.9373, 98.7527, -65.589, 38.3135
5.452, 14, 34.8223, 51.7421, -14.9261, 98.9156, -65.7112, 38.4825
5.456, 14, 34.7836, 51.747, -14.914, 99.0713, -65.8276, 38.6486
5.46, 14, 34.7453, 51.7511, -14.9014, 99.2189, -65.9384, 38.8095
5.464, 14, 34.7074, 51.7546, -14.8885, 99.3577, -66.044, 38.9636
5.468, 14, 34.67, 51.7578, -14.8754, 99.487, -66.1451, 39.1093
5.472, 14, 34.6334, 51.7609, -14.862, 99.6062, -66.2423, 39.2457
5.476, 14, 34.5979, 51.7644, -14.8482, 99.7146, -66.3364, 39.3719
5.48, 14, 34.5638, 51.7683, -14.8337, 99.8118, -66.4282, 39.4872
5.484, 14, 34.5311, 51.773, -14.8183, 99.8973, -66.5188, 39.5912
5.488, 14, 34.5001, 51.7787, -14.8017, 99.9707, -66.6091, 39.6837
5.492, 14, 34.4709, 51.7855, -14.7836, 100.032, -66.7, 39.7642
5.496, 14, 34.4434, 51.7937, -14.7635, 100.079, -66.7925, 39.8327
5.5, 14, 34.4175, 51.8033, -14.7413, 100.114, -66.8878, 39.8888
5.504, 14, 34.393, 51.8144, -14.7166, 100.134, -66.9867, 39.9322
5.508, 14, 34.3698, 51.8271, -14.6891, 100.141, -67.0902, 39.9628
5.512, 14, 34.3476, 51.8415, -14.6585, 100.132, -67.1994, 39.9803
5.516, 14, 34.3259, 51.8576, -14.6244, 100.108, -67.3151, 39.9846
5.52, 14, 34.3045, 51.8757, -14.5867, 100.069, -67.4383, 39.9756
5.524, 14, 34.2829, 51.8959, -14.5451, 100.014, -67.5699, 39.9533
5.528, 15, 34.2612, 51.9184, -14.4993, 99.9435, -67.7109, 39.918
5.532, 15, 34.2393, 51.9433, -14.4493, 99.8572, -67.8623, 39.8699
5.536, 15, 34.2175, 51.9704, -14.3947, 99.7553, -68.0252, 39.8091
5.54, 15, 34.1957, 51.9998, -14.3355, 99.6378, -68.2005, 39.7363
5.544, 15, 34.1745, 52.0312, -14.2715, 99.505, -68.3893, 39.6516
5.548, 15, 34.1538, 52.0644, -14.2024, 99.3571, -68.5923, 39.5556
5.552, 15, 34.1337, 52.0992, -14.1282, 99.1944, -68.8102, 39.4487
5.556, 15, 34.1138, 52.1355, -14.0486, 99.0173, -69.0434, 39.3313
5.56, 15, 34.0941, 52.1731, -13.9637, 98.826, -69.2919, 39.2038
5.564, 15, 34.074, 52.212, -13.8733, 98.6212, -69.5556, 39.0664
5.568, 15, 34.0536, 52.2519, -13.7773, 98.4031, -69.8339, 38.9196
5.572, 15, 34.0325, 52.2926, -13.6756, 98.1724, -70.126, 38.7633
5.576, 15, 34.0107, 52.3341, -13.568, 97.9294, -70.4309, 38.5977
5.58, 15, 33.9883, 52.3761, -13.4544, 97.6749, -70.7473, 38.4231
5.584, 15, 33.9653, 52.4183, -13.3348, 97.4094, -71.0736, 38.2395
5.588, 15, 33.9419, 52.4602, -13.2091, 97.1339, -71.4081, 38.0472
5.592, 15, 33.9182, 52.5017, -13.0776, 96.8492, -71.7492, 37.8468
5.596, 15, 33.8943, 52.5425, -12.9407, 96.5567, -72.095, 37.6389
5.6, 15, 33.8704, 52.5824, -12.799, 96.2577, -72.4435, 37.4244
5.604, 15, 33.8465, 52.6216, -12.6531, 95.9537, -72.7929, 37.2042
5.608, 15, 33.8229, 52.6599, -12.504, 95.6463, -73.1413, 36.9795
5.612, 15, 33.7995, 52.6975, -12.3524, 95.3373, -73.4868, 36.7518
5.616, 15, 33.7765, 52.7345, -12.1995, 95.0286, -73.8277, 36.5224
5.62, 15, 33.7536, 52.7707, -12.0463, 94.7219, -74.1624, 36.2929
5.624, 15, 33.7306, 52.8061, -11.894, 94.4192, -74.4893, 36.065
5.628, 15, 33.7075, 52.8404, -11.7435, 94.1223, -74.8072, 35.8404
5.632, 15, 33.684, 52.8737, -11.5961, 93.833, -75.1147, 35.6206
5.636, 15, 33.6602, 52.9057, -11.4527, 93.553, -75.4107, 35.4073
5.64, 15, 33.636, 52.9366, -11.314, 93.2837, -75.6942, 35.2017
5.644, 15, 33.6115, 52.9663, -11.1809, 93.0263, -75.9643, 35.005
5.648, 15, 33.5868, 52.9948, -11.0537, 92.7817, -76.2204, 34.8183
5.652, 15, 33.5618, 53.0222, -10.9326, 92.5507, -76.462, 34.6422
5.656, 15, 33.5365, 53.0482, -10.8177, 92.3334, -76.6888, 34.4774
5.66, 15, 33.5107, 53.0728, -10.7088, 92.1301, -76.9008, 34.3242
5.664, 15, 33.4843, 53.0955, -10.6053, 91.9403, -77.0984, 34.1828
5.668, 15, 33.4572, 53.116, -10.5068, 91.7637, -77.2819, 34.0535
5.672, 16, 33.4295, 53.1338, -10.4124, 91.5996, -77.4522, 33.9361
5.676, 16, 33.4012, 53.1488, -10.321, 91.4472, -77.6099, 33.8308
5.68, 16, 33.3725, 53.1606, -10.2318, 91.3054, -77.7561, 33.7375
5.684, 16, 33.3434, 53.1692, -10.1434, 91.1732, -77.8917, 33.656
5.688, 16, 33.314, 53.1744, -10.0546, 91.0496, -78.0179, 33.5862
5.692, 16, 33.2841, 53.1761, -9.9641, 90.9331, -78.1358, 33.528
5.696, 16, 33.2536, 53.1739, -9.87073, 90.8226, -78.2468, 33.4808
5.7, 16, 33.2221, 53.1676, -9.77324, 90.7166, -78.3522, 33.4445
5.704, 16, 33.1896, 53.1571, -9.67045, 90.6139, -78.4533, 33.4184
5.708, 16, 33.1557, 53.1419, -9.5613, 90.5131, -78.5515, 33.402
5.712, 16, 33.1203, 53.1221, -9.44478, 90.4131, -78.6479, 33.3947
5.716, 16, 33.0831, 53.0976, -9.32001, 90.3125, -78.7437, 33.3961
5.72, 16, 33.044, 53.0686, -9.18621, 90.2104, -78.8401, 33.4053
5.724, 16, 33.0027, 53.0351, -9.04272, 90.1058, -78.9381, 33.4218
5.728, 16, 32.9592, 52.9968, -8.88899, 89.9975, -79.0386, 33.4449
5.732, 16, 32.9133, 52.9538, -8.72459, 89.8848, -79.1425, 33.4736
5.736, 16, 32.8653, 52.9057, -8.54921, 89.7667, -79.2505, 33.5073
5.74, 16, 32.8152, 52.8526, -8.36269, 89.6423, -79.3629, 33.5448
5.744, 16, 32.7634, 52.7945, -8.16504, 89.5111, -79.48, 33.5853
5.748, 16, 32.71, 52.7316, -7.95642, 89.3724, -79.6017, 33.6277
5.752, 16, 32.6552, 52.6645, -7.73724, 89.2259, -79.7276, 33.6708
5.756, 16, 32.5992, 52.5938, -7.50808, 89.0714, -79.8573, 33.7137
5.76, 16, 32.5422, 52.52, -7.26977, 88.909, -79.99, 33.7554
5.764, 16, 32.4844, 52.4436, -7.02331, 88.7391, -80.1249, 33.7951
5.768, 16, 32.4258, 52.365, -6.76991, 88.5622, -80.2611, 33.8319
5.772, 16, 32.3666, 52.2847, -6.51092, 88.3791, -80.3977, 33.8655
5.776, 16, 32.3069, 52.2031, -6.2478, 88.1907, -80.5339, 33.8952
5.78, 16, 32.2465, 52.1206, -5.98207, 87.998, -80.6688, 33.9209
5.784, 16, 32.1854, 52.0376, -5.71529, 87.8022, -80.8017, 33.9424
5.788, 16, 32.1236, 51.9545, -5.44897, 87.6046, -80.932, 33.9597
5.792, 17, 32.0611, 51.8716, -5.18453, 87.4064, -81.059, 33.9732
5.796, 17, 31.9979, 51.7892, -4.92326, 87.2089, -81.1825, 33.9832
5.8, 17, 31.9343, 51.7073, -4.66627, 87.0133, -81.3022, 33.9902
5.804, 17, 31.8704, 51.6258, -4.41443, 86.8207, -81.418, 33.995
5.808, 17, 31.8062, 51.5445, -4.16838, 86.6321, -81.5299, 33.9983
5.812, 17, 31.742, 51.4635, -3.92848, 86.4482, -81.6379, 34.0009
5.816, 17, 31.6778, 51.3826, -3.69484, 86.2697, -81.742, 34.0034
5.82, 17, 31.6137, 51.3021, -3.46734, 86.0968, -81.8421, 34.0068
5.824, 17, 31.5497, 51.2222, -3.24565, 85.9301, -81.9383, 34.0117
5.828, 17, 31.4861, 51.143, -3.02927, 85.7695, -82.0306, 34.0188
5.832, 17, 31.4228, 51.0646, -2.81762, 85.6151, -82.119, 34.0288
5.836, 17, 31.3601, 50.987, -2.61006, 85.4669, -82.2036, 34.0423
5.84, 17, 31.2979, 50.91, -2.40593, 85.3246, -82.2845, 34.0596
5.844, 17, 31.2363, 50.8332, -2.20455, 85.188, -82.3619, 34.081
5.848, 17, 31.1757, 50.7565, -2.00532, 85.0568, -82.436, 34.1068
5.852, 17, 31.116, 50.6797, -1.80768, 84.9305, -82.5069, 34.1371
5.856, 17, 31.0577, 50.603, -1.61119, 84.8086, -82.5751, 34.1716
5.86, 17, 31.0008, 50.5266, -1.41552, 84.6908, -82.6407, 34.2103
5.864, 17, 30.9455, 50.4504, -1.22054, 84.5765, -82.704, 34.2528
5.868, 17, 30.8915, 50.3743, -1.0263, 84.4654, -82.7653, 34.2986
5.872, 17, 30.8386, 50.2982, -0.833023, 84.3572, -82.8248, 34.347
5.876, 17, 30.7865, 50.222, -0.641078, 84.2514, -82.8828, 34.3974
5.88, 17, 30.7346, 50.1453, -0.450945, 84.148, -82.9393, 34.4492
5.884, 17, 30.6827, 50.068, -0.263169, 84.0469, -82.9944, 34.5017
5.888, 18, 30.6307, 49.99, -0.0783194, 83.9482, -83.0482, 34.5545
5.892, 18, 30.5788, 49.9114, 0.103046, 83.8521, -83.1004, 34.6074
5.896, 18, 30.5272, 49.8325, 0.280411, 83.7588, -83.1508, 34.6602
5.9, 18, 30.4762, 49.7532, 0.453323, 83.6688, -83.1989, 34.7132
5.904, 18, 30.426, 49.6738, 0.621405, 83.5826, -83.2441, 34.7665
5.908, 18, 30.3764, 49.5944, 0.784373, 83.5007, -83.286, 34.8209
5.912, 18, 30.3276, 49.5151, 0.942054, 83.4237, -83.3237, 34.8769
5.916, 18, 30.2791, 49.4359, 1.09441, 83.3522, -83.3567, 34.9353
5.92, 18, 30.2308, 49.3566, 1.24158, 83.2867, -83.3842, 34.9971
5.924, 18, 30.1823, 49.277, 1.38385, 83.2275, -83.4055, 35.0631
5.928, 18, 30.1334, 49.197, 1.52167, 83.1751, -83.4202, 35.1343
5.932, 18, 30.0843, 49.1163, 1.65569, 83.1295, -83.4278, 35.2118
5.936, 18, 30.0351, 49.0346, 1.78664, 83.0907, -83.4278, 35.2964
5.94, 18, 29.9859, 48.9518, 1.9154, 83.0588, -83.42, 35.3891
5.944, 18, 29.9369, 48.8676, 2.04287, 83.0334, -83.4043, 35.4907
5.948, 18, 29.8883, 48.7817, 2.16995, 83.0143, -83.3807, 35.6015
5.952, 18, 29.84, 48.6939, 2.2975, 83.001, -83.3496, 35.722
5.956, 18, 29.792, 48.6038, 2.4263, 82.9929, -83.3111, 35.8522
5.96, 18, 29.7441, 48.5111, 2.55701, 82.9895, -83.266, 35.992
5.964, 18, 29.6962, 48.4157, 2.69017, 82.99, -83.2146, 36.1409
5.968, 18, 29.6485, 48.3177, 2.82612, 82.9938, -83.1579, 36.2984
5.972, 18, 29.6011, 48.2174, 2.96503, 83.0004, -83.0963, 36.4637
5.976, 18, 29.5543, 48.1152, 3.10683, 83.009, -83.0308, 36.636
5.98, 18, 29.5081, 48.0114, 3.25126, 83.0193, -82.9621, 36.814
5.984, 18, 29.4627, 47.9066, 3.39783, 83.0307, -82.8908, 36.9967
5.988, 18, 29.4179, 47.8011, 3.54587, 83.043, -82.8177, 37.1825
5.992, 18, 29.3734, 47.6951, 3.69457, 83.0558, -82.7436, 37.3702
5.996, 18, 29.3289, 47.5889, 3.84302, 83.0688, -82.6693, 37.558
6, 18, 29.2842, 47.4828, 3.99028, 83.082, -82.5952, 37.7447
6.004, 18, 29.2394, 47.3774, 4.13545, 83.0949, -82.5222, 37.9286
6.008, 19, 29.1944, 47.2733, 4.27771, 83.1074, -82.4508, 38.1084
6.012, 19, 29.1496, 47.1711, 4.41636, 83.119, -82.3817, 38.2828
6.016, 19, 29.105, 47.0714, 4.55087, 83.1295, -82.3152, 38.4503
6.02, 19, 29.0609, 46.9746, 4.68089, 83.1382, -82.252, 38.6099
6.024, 19, 29.0176, 46.8811, 4.80621, 83.1447, -82.1924, 38.7604
6.028, 19, 28.9751, 46.7912, 4.92685, 83.1481, -82.137, 38.9008
6.032, 19, 28.9333, 46.705, 5.04297, 83.1479, -82.0861, 39.0301
6.036, 19, 28.8921, 46.6225, 5.15497, 83.1431, -82.04, 39.1475
6.04, 19, 28.8514, 46.5437, 5.26338, 83.133, -81.9991, 39.2523
6.044, 19, 28.8107, 46.4686, 5.3689, 83.1167, -81.9636, 39.344
6.048, 19, 28.7701, 46.3968, 5.47237, 83.093, -81.9338, 39.4218
6.052, 19, 28.7294, 46.3279, 5.57477, 83.0612, -81.9098, 39.4854
6.056, 19, 28.6886, 46.2616, 5.67714, 83.0201, -81.8918, 39.5345
6.06, 19, 28.6479, 46.1974, 5.78058, 82.9688, -81.8799, 39.5689
6.064, 19, 28.6072, 46.1349, 5.88624, 82.9065, -81.8741, 39.5886
6.068, 19, 28.5666, 46.0736, 5.99526, 82.8324, -81.8744, 39.5937
6.072, 19, 28.5256, 46.0129, 6.10877, 82.7458, -81.8805, 39.5846
6.076, 19, 28.4841, 45.9522, 6.22781, 82.6464, -81.8924, 39.5617
6.08, 19, 28.4418, 45.8911, 6.35328, 82.5336, -81.9099, 39.5256
6.084, 19, 28.3985, 45.8293, 6.48592, 82.4073, -81.9326, 39.4768
6.088, 19, 28.3544, 45.7666, 6.62629, 82.2675, -81.9604, 39.4162
6.092, 19, 28.3096, 45.7029, 6.77479, 82.1142, -81.9927, 39.3445
6.096, 19, 28.264, 45.6383, 6.93156, 81.948, -82.0294, 39.2627
6.1, 19, 28.2179, 45.573, 7.0965, 81.7696, -82.0697, 39.1719
6.104, 19, 28.1714, 45.5071, 7.26924, 81.5801, -82.1134, 39.0732
6.108, 19, 28.1244, 45.4406, 7.44915, 81.3809, -82.1599, 38.9679
6.112, 19, 28.077, 45.3735, 7.63531, 81.1735, -82.2087, 38.8572
6.116, 19, 28.0292, 45.3059, 7.82654, 80.9597, -82.2593, 38.7422
6.12, 19, 27.9811, 45.2379, 8.02145, 80.7411, -82.3111, 38.6242
6.124, 19, 27.9327, 45.1697, 8.21855, 80.5197, -82.3638, 38.5044
6.128, 19, 27.8841, 45.1015, 8.41632, 80.2973, -82.4167, 38.3838
6.132, 19, 27.8353, 45.0335, 8.61324, 80.0758, -82.4695, 38.2636
6.136, 19, 27.7863, 44.9662, 8.80784, 79.8569, -82.5218, 38.1447
6.14, 19, 27.7372, 44.8998, 8.99876, 79.6423, -82.573, 38.028
6.144, 19, 27.6883, 44.8349, 9.18478, 79.4334, -82.6229, 37.9145
6.148, 19, 27.6399, 44.7715, 9.36484, 79.2316, -82.6712, 37.8047
6.152, 20, 27.5921, 44.71, 9.53812, 79.0377, -82.7176, 37.6993
6.156, 20, 27.5452, 44.6505, 9.70399, 78.8525, -82.762, 37.5987
6.16, 20, 27.4993, 44.5928, 9.86204, 78.6765, -82.804, 37.5032
6.164, 20, 27.4548, 44.5369, 10.0121, 78.51, -82.8437, 37.4131
6.168, 20, 27.4115, 44.4825, 10.1542, 78.3531, -82.8808, 37.3288
6.172, 20, 27.3697, 44.4294, 10.2886, 78.2057, -82.9151, 37.2503
6.176, 20, 27.3292, 44.3773, 10.4155, 78.0677, -82.9465, 37.178
6.18, 20, 27.29, 44.3261, 10.5355, 77.9388, -82.9747, 37.1122
6.184, 20, 27.252, 44.2757, 10.6492, 77.8189, -82.9994, 37.0532
6.188, 20, 27.2148, 44.2257, 10.7572, 77.7077, -83.0202, 37.0014
6.192, 20, 27.1782, 44.1761, 10.8601, 77.605, -83.0369, 36.9573
6.196, 20, 27.1422, 44.1263, 10.9587, 77.5104, -83.049, 36.9214
6.2, 20, 27.1067, 44.076, 11.0536, 77.4239, -83.0561, 36.8943
