hehonglu123/Motion-Primitive-Planning/simulation/robotstudio_sim/scripts/log.csv
timestamp, cmd_num, J1, J2, J3, J4, J5, J6
0, -1, 15.1387, 2.08689, -8.91687, 125.229, -61.5611, 34.993
0.002, -1, 15.1387, 2.08689, -8.91687, 125.229, -61.5611, 34.993
0.006, -1, 15.1387, 2.08689, -8.91687, 125.229, -61.5611, 34.993
0.008, -1, 15.1387, 2.08689, -8.91687, 125.229, -61.5611, 34.993
0.011, -1, 15.1387, 2.08689, -8.91687, 125.229, -61.5611, 34.993
0.016, -1, 15.1387, 2.08689, -8.91687, 125.229, -61.5611, 34.993
0.02, -1, 15.1387, 2.08689, -8.91687, 125.229, -61.5611, 34.993
0.024, -1, 15.1387, 2.08689, -8.91687, 125.229, -61.5611, 34.993
0.028, -1, 15.1387, 2.08689, -8.91687, 125.229, -61.5611, 34.993
0.032, -1, 15.1387, 2.08689, -8.91687, 125.229, -61.5611, 34.993
0.036, -1, 15.1387, 2.08687, -8.91688, 125.229, -61.5611, 34.993
0.04, -1, 15.1384, 2.08677, -8.91691, 125.229, -61.5611, 34.993
0.044, -1, 15.1378, 2.08653, -8.91699, 125.23, -61.5611, 34.993
0.048, -1, 15.1366, 2.08603, -8.91713, 125.23, -61.5609, 34.993
0.052, -1, 15.1347, 2.08517, -8.91735, 125.23, -61.5606, 34.9932
0.056, -1, 15.1319, 2.08382, -8.91761, 125.232, -61.5599, 34.9934
0.06, -1, 15.1281, 2.08187, -8.91787, 125.234, -61.5585, 34.9938
0.064, -1, 15.1232, 2.07918, -8.91806, 125.239, -61.5561, 34.9946
0.068, -1, 15.1169, 2.07559, -8.91808, 125.246, -61.5523, 34.9958
0.072, -1, 15.1091, 2.07091, -8.91781, 125.257, -61.5463, 34.9977
0.076, -1, 15.0995, 2.06492, -8.91708, 125.273, -61.5376, 35.0004
0.08, -1, 15.0876, 2.05737, -8.91572, 125.295, -61.5253, 35.0043
0.084, -1, 15.0732, 2.04802, -8.91351, 125.326, -61.5085, 35.0095
0.088, -1, 15.0559, 2.03665, -8.91019, 125.366, -61.4863, 35.0164
0.092, -1, 15.0354, 2.02307, -8.90545, 125.419, -61.4574, 35.0253
0.096, -1, 15.0115, 2.00711, -8.89896, 125.485, -61.4208, 35.0367
0.1, -1, 14.9839, 1.98862, -8.89038, 125.567, -61.3753, 35.0507
0.104, -1, 14.9524, 1.96744, -8.8794, 125.667, -61.3198, 35.0678
0.108, -1, 14.9169, 1.94348, -8.86571, 125.787, -61.2533, 35.0883
0.112, -1, 14.8772, 1.91665, -8.84904, 125.928, -61.1748, 35.1125
0.116, -1, 14.8332, 1.88689, -8.82918, 126.091, -61.0837, 35.1405
0.12, -1, 14.7849, 1.85414, -8.80599, 126.278, -60.9796, 35.1726
0.124, -1, 14.7321, 1.81837, -8.77939, 126.489, -60.8621, 35.2087
0.128, -1, 14.6749, 1.77958, -8.74939, 126.724, -60.7312, 35.2489
0.131, -1, 14.6131, 1.73777, -8.71607, 126.982, -60.5872, 35.2931
0.136, -1, 14.5469, 1.69296, -8.67959, 127.262, -60.4306, 35.3412
0.139, -1, 14.4764, 1.64522, -8.64015, 127.564, -60.262, 35.3929
0.144, -1, 14.4016, 1.59466, -8.598, 127.886, -60.0823, 35.4481
0.148, -1, 14.3228, 1.54142, -8.55341, 128.227, -59.8924, 35.5064
0.152, -1, 14.2402, 1.48564, -8.5067, 128.583, -59.6935, 35.5675
0.156, -1, 14.154, 1.42745, -8.45818, 128.954, -59.4865, 35.631
0.16, -1, 14.0643, 1.36698, -8.40819, 129.337, -59.2727, 35.6967
0.164, -1, 13.9715, 1.30439, -8.35703, 129.731, -59.053, 35.7641
0.168, -1, 13.8759, 1.23986, -8.30494, 130.134, -58.8284, 35.8331
0.172, -1, 13.7776, 1.1736, -8.25215, 130.543, -58.5998, 35.9033
0.176, -1, 13.6771, 1.10583, -8.19882, 130.959, -58.368, 35.9745
0.18, -1, 13.5748, 1.03679, -8.14505, 131.38, -58.1334, 36.0466
0.184, -1, 13.4708, 0.966695, -8.09094, 131.804, -57.8967, 36.1193
0.188, -1, 13.3655, 0.895735, -8.03656, 132.232, -57.6582, 36.1926
0.192, -1, 13.2591, 0.82405, -7.98195, 132.662, -57.4183, 36.2663
0.196, -1, 13.1517, 0.751756, -7.92716, 133.095, -57.1771, 36.3404
0.2, -1, 13.0434, 0.678954, -7.87222, 133.529, -56.9349, 36.4149
0.204, -1, 12.9344, 0.605736, -7.81714, 133.965, -56.6919, 36.4896
0.208, -1, 12.8249, 0.532177, -7.76193, 134.403, -56.4481, 36.5645
0.212, -1, 12.7148, 0.458339, -7.70659, 134.841, -56.2036, 36.6396
0.216, -1, 12.6044, 0.384264, -7.65113, 135.281, -55.9585, 36.715
0.22, -1, 12.4937, 0.309986, -7.59555, 135.722, -55.7128, 36.7905
0.224, -1, 12.3827, 0.235528, -7.53987, 136.163, -55.4666, 36.8661
0.228, -1, 12.2714, 0.160911, -7.48407, 136.606, -55.2199, 36.942
0.232, -1, 12.1599, 0.0861495, -7.42818, 137.049, -54.9728, 37.0179
0.236, -1, 12.0482, 0.011257, -7.3722, 137.494, -54.7252, 37.094
0.24, -1, 11.9363, -0.0637544, -7.31613, 137.938, -54.4773, 37.1702
0.244, -1, 11.8243, -0.138874, -7.25998, 138.384, -54.229, 37.2465
0.248, -1, 11.7121, -0.214091, -7.20376, 138.83, -53.9804, 37.3229
0.252, -1, 11.5998, -0.289397, -7.14747, 139.276, -53.7314, 37.3994
0.256, -1, 11.4873, -0.364781, -7.09113, 139.723, -53.4823, 37.476
0.26, -1, 11.3748, -0.440234, -7.03473, 140.171, -53.2328, 37.5527
0.264, -1, 11.2621, -0.515747, -6.97828, 140.619, -52.9832, 37.6294
0.268, -1, 11.1494, -0.591309, -6.9218, 141.067, -52.7335, 37.7062
0.272, -1, 11.0366, -0.666912, -6.86529, 141.515, -52.4835, 37.783
0.276, -1, 10.9237, -0.742545, -6.80875, 141.964, -52.2335, 37.8598
0.28, -1, 10.8108, -0.818201, -6.7522, 142.412, -51.9834, 37.9367
0.284, -1, 10.6979, -0.893869, -6.69563, 142.861, -51.7333, 38.0135
0.288, -1, 10.585, -0.969541, -6.63906, 143.31, -51.4831, 38.0904
0.292, -1, 10.472, -1.04521, -6.5825, 143.759, -51.233, 38.1673
0.296, -1, 10.3591, -1.12086, -6.52595, 144.207, -50.9829, 38.2442
0.3, -1, 10.2461, -1.19648, -6.46942, 144.656, -50.7329, 38.321
0.304, -1, 10.1333, -1.27207, -6.41291, 145.104, -50.483, 38.3978
0.308, -1, 10.0204, -1.34762, -6.35644, 145.552, -50.2333, 38.4746
0.312, -1, 9.90766, -1.42312, -6.30001, 146, -49.9837, 38.5513
0.316, -1, 9.79498, -1.49856, -6.24362, 146.447, -49.7344, 38.6279
0.32, -1, 9.6824, -1.57393, -6.1873, 146.894, -49.4852, 38.7045
0.324, -1, 9.56992, -1.64922, -6.13103, 147.341, -49.2364, 38.781
0.328, -1, 9.45756, -1.72443, -6.07482, 147.787, -48.9878, 38.8574
0.332, -1, 9.34533, -1.79955, -6.01869, 148.232, -48.7396, 38.9337
0.336, -1, 9.23325, -1.87457, -5.96264, 148.677, -48.4916, 39.0099
0.34, -1, 9.12132, -1.94948, -5.90667, 149.121, -48.2441, 39.0859
0.344, -1, 9.00957, -2.02427, -5.85079, 149.564, -47.9969, 39.1619
0.348, -1, 8.89799, -2.09894, -5.79501, 150.007, -47.7502, 39.2378
0.352, -1, 8.78661, -2.17349, -5.73932, 150.449, -47.5038, 39.3135
0.356, -1, 8.67542, -2.24789, -5.68374, 150.89, -47.258, 39.389
0.36, -1, 8.56445, -2.32215, -5.62827, 151.33, -47.0126, 39.4644
0.364, -1, 8.4537, -2.39626, -5.57291, 151.77, -46.7677, 39.5397
0.368, -1, 8.34317, -2.47022, -5.51767, 152.208, -46.5233, 39.6148
0.372, -1, 8.23289, -2.54401, -5.46255, 152.646, -46.2795, 39.6898
0.376, -1, 8.12286, -2.61764, -5.40756, 153.082, -46.0363, 39.7645
0.38, -1, 8.01308, -2.69109, -5.3527, 153.517, -45.7936, 39.8391
0.384, -1, 7.90357, -2.76436, -5.29798, 153.952, -45.5515, 39.9135
0.388, -1, 7.79434, -2.83745, -5.2434, 154.385, -45.3101, 39.9877
0.392, -1, 7.68538, -2.91034, -5.18897, 154.817, -45.0692, 40.0617
0.396, -1, 7.57672, -2.98304, -5.13468, 155.248, -44.8291, 40.1356
0.4, -1, 7.46835, -3.05555, -5.08054, 155.677, -44.5896, 40.2092
0.404, -1, 7.36028, -3.12785, -5.02657, 156.106, -44.3507, 40.2826
0.408, -1, 7.25253, -3.19994, -4.97274, 156.533, -44.1126, 40.3558
0.412, -1, 7.14508, -3.27182, -4.91909, 156.959, -43.8752, 40.4287
0.416, -1, 7.03796, -3.34348, -4.86559, 157.384, -43.6385, 40.5015
0.42, -1, 6.93117, -3.41493, -4.81227, 157.807, -43.4026, 40.574
0.424, -1, 6.8247, -3.48615, -4.75912, 158.229, -43.1674, 40.6463
0.428, -1, 6.71857, -3.55715, -4.70613, 158.65, -42.9329, 40.7183
0.432, -1, 6.61278, -3.62792, -4.65333, 159.069, -42.6993, 40.7902
0.436, -1, 6.50732, -3.69846, -4.6007, 159.487, -42.4664, 40.8617
0.44, -1, 6.40222, -3.76877, -4.54824, 159.903, -42.2342, 40.9331
0.444, -1, 6.29746, -3.83884, -4.49597, 160.318, -42.0029, 41.0042
0.448, -1, 6.19306, -3.90868, -4.44387, 160.732, -41.7724, 41.0751
0.452, -1, 6.089, -3.97828, -4.39196, 161.144, -41.5426, 41.1457
0.456, -1, 5.98531, -4.04765, -4.34022, 161.555, -41.3136, 41.216
0.46, -1, 5.88197, -4.11677, -4.28867, 161.964, -41.0855, 41.2862
0.464, -1, 5.77899, -4.18566, -4.2373, 162.372, -40.8581, 41.3561
0.468, -1, 5.67637, -4.2543, -4.18611, 162.779, -40.6315, 41.4257
0.472, -1, 5.57412, -4.3227, -4.1351, 163.184, -40.4058, 41.4951
0.476, -1, 5.47222, -4.39086, -4.08427, 163.587, -40.1808, 41.5642
0.48, -1, 5.37069, -4.45877, -4.03363, 163.989, -39.9567, 41.6331
0.484, -1, 5.26952, -4.52644, -3.98316, 164.39, -39.7333, 41.7018
0.488, -1, 5.16871, -4.59387, -3.93288, 164.789, -39.5108, 41.7702
0.492, -1, 5.06827, -4.66106, -3.88278, 165.187, -39.289, 41.8383
0.496, -1, 4.96819, -4.728, -3.83287, 165.584, -39.0681, 41.9062
0.5, -1, 4.86847, -4.79471, -3.78313, 165.979, -38.848, 41.9739
0.504, -1, 4.76912, -4.86117, -3.73358, 166.372, -38.6286, 42.0413
0.508, -1, 4.67014, -4.92738, -3.68421, 166.764, -38.4101, 42.1085
0.512, -1, 4.57152, -4.99336, -3.63502, 167.155, -38.1924, 42.1754
0.516, -1, 4.47326, -5.05909, -3.58601, 167.544, -37.9755, 42.242
0.52, -1, 4.37535, -5.12458, -3.53718, 167.932, -37.7593, 42.3085
0.524, -1, 4.27781, -5.18983, -3.48854, 168.318, -37.544, 42.3747
0.528, -1, 4.18062, -5.25484, -3.44007, 168.703, -37.3295, 42.4406
0.532, -1, 4.0838, -5.3196, -3.39178, 169.086, -37.1158, 42.5063
0.536, -1, 3.9874, -5.38408, -3.34366, 169.468, -36.9028, 42.5717
0.54, -1, 3.89153, -5.44821, -3.29568, 169.849, -36.6907, 42.6369
0.544, -1, 3.79637, -5.51188, -3.24782, 170.228, -36.4795, 42.7019
0.548, -1, 3.70209, -5.57495, -3.20006, 170.605, -36.2691, 42.7665
0.552, -1, 3.6089, -5.63728, -3.15239, 170.981, -36.0599, 42.8308
0.556, -1, 3.51701, -5.69869, -3.10485, 171.354, -35.852, 42.8947
0.56, -1, 3.42666, -5.75898, -3.05749, 171.723, -35.6459, 42.9581
0.564, -1, 3.33808, -5.8179, -3.01042, 172.089, -35.442, 43.0207
0.568, -1, 3.2515, -5.87514, -2.96378, 172.45, -35.2409, 43.0825
0.572, -1, 3.16718, -5.93047, -2.91778, 172.804, -35.0436, 43.1432
0.576, -1, 3.08537, -5.9837, -2.87265, 173.15, -34.8507, 43.2025
0.58, -1, 3.00634, -6.03474, -2.82867, 173.486, -34.6634, 43.2601
0.584, -1, 2.93033, -6.08355, -2.78615, 173.81, -34.4827, 43.3156
0.588, -1, 2.85753, -6.13019, -2.74542, 174.12, -34.3097, 43.3688
0.592, -1, 2.78811, -6.17472, -2.70681, 174.415, -34.1453, 43.4193
0.596, -1, 2.72227, -6.21715, -2.6706, 174.693, -33.9906, 43.4669
0.6, -1, 2.66023, -6.25739, -2.63701, 174.951, -33.8463, 43.5112
0.604, -1, 2.60221, -6.29528, -2.60623, 175.19, -33.7132, 43.5522
0.608, -1, 2.54833, -6.3307, -2.57836, 175.409, -33.5915, 43.5896
0.612, -1, 2.49866, -6.36364, -2.5535, 175.606, -33.4817, 43.6233
0.616, -1, 2.45316, -6.39418, -2.53165, 175.782, -33.3836, 43.6535
0.62, -1, 2.41178, -6.42243, -2.51278, 175.937, -33.2972, 43.68
0.624, -1, 2.37441, -6.44846, -2.49677, 176.071, -33.2221, 43.7031
0.628, -1, 2.34094, -6.47227, -2.48344, 176.187, -33.1577, 43.7229
0.632, -1, 2.31128, -6.49378, -2.47255, 176.285, -33.1031, 43.7397
0.636, -1, 2.28533, -6.5129, -2.46379, 176.367, -33.0576, 43.7536
0.64, -1, 2.26293, -6.52955, -2.45688, 176.434, -33.0202, 43.7651
0.644, -1, 2.24384, -6.54373, -2.45154, 176.488, -32.9898, 43.7744
0.648, -1, 2.2277, -6.55561, -2.44752, 176.532, -32.9657, 43.7819
0.652, -1, 2.21412, -6.56544, -2.4446, 176.566, -32.9468, 43.7877
0.656, -1, 2.2027, -6.57353, -2.4426, 176.592, -32.9324, 43.7921
0.66, -1, 2.19314, -6.58013, -2.44131, 176.611, -32.9216, 43.7954
0.664, -1, 2.18523, -6.58545, -2.44056, 176.625, -32.9137, 43.7978
0.668, -1, 2.1788, -6.58965, -2.44016, 176.636, -32.908, 43.7996
0.672, 2, 2.17372, -6.59288, -2.44, 176.643, -32.904, 43.8008
0.676, 2, 2.16985, -6.59528, -2.43994, 176.648, -32.9013, 43.8016
0.68, 2, 2.16703, -6.59699, -2.43994, 176.651, -32.8994, 43.8022
0.684, 2, 2.16505, -6.59819, -2.43994, 176.653, -32.8981, 43.8026
0.688, 2, 2.1637, -6.599, -2.43995, 176.655, -32.8973, 43.8029
0.692, 2, 2.16279, -6.59955, -2.43995, 176.656, -32.8967, 43.803
0.696, 2, 2.16217, -6.59992, -2.43996, 176.657, -32.8963, 43.8032
0.7, 2, 2.16175, -6.60017, -2.43996, 176.657, -32.896, 43.8033
0.704, 2, 2.16146, -6.60034, -2.43996, 176.657, -32.8958, 43.8033
0.708, 2, 2.16127, -6.60046, -2.43996, 176.658, -32.8957, 43.8033
0.712, 2, 2.16114, -6.60054, -2.43996, 176.658, -32.8956, 43.8034
0.716, 2, 2.16105, -6.60059, -2.43996, 176.658, -32.8956, 43.8034
0.72, 2, 2.16099, -6.60063, -2.43996, 176.658, -32.8955, 43.8034
0.724, 2, 2.16095, -6.60065, -2.43996, 176.658, -32.8955, 43.8034
0.728, 2, 2.16092, -6.60067, -2.43996, 176.658, -32.8955, 43.8034
0.732, 2, 2.1609, -6.60068, -2.43996, 176.658, -32.8955, 43.8034
0.736, 2, 2.16089, -6.60068, -2.43996, 176.658, -32.8955, 43.8034
0.74, 2, 2.16088, -6.60069, -2.43996, 176.658, -32.8955, 43.8034
0.744, 2, 2.16088, -6.60069, -2.43996, 176.658, -32.8955, 43.8034
0.748, 2, 2.16087, -6.6007, -2.43996, 176.658, -32.8955, 43.8034
0.752, 2, 2.16087, -6.6007, -2.43996, 176.658, -32.8955, 43.8034
0.756, 2, 2.16087, -6.6007, -2.43996, 176.658, -32.8954, 43.8034
0.76, 2, 2.16087, -6.6007, -2.43996, 176.658, -32.8954, 43.8034
0.764, 2, 2.16086, -6.6007, -2.43996, 176.658, -32.8954, 43.8034
0.768, 2, 2.16086, -6.6007, -2.43996, 176.658, -32.8954, 43.8034
0.772, 2, 2.16086, -6.6007, -2.43996, 176.658, -32.8954, 43.8034
0.776, 2, 2.16086, -6.6007, -2.43996, 176.658, -32.8954, 43.8034
0.78, 2, 2.16086, -6.6007, -2.43996, 176.658, -32.8954, 43.8034
0.784, 2, 2.16086, -6.6007, -2.43996, 176.658, -32.8954, 43.8034
0.788, 2, 2.16086, -6.6007, -2.43996, 176.658, -32.8954, 43.8034
0.792, 2, 2.16086, -6.6007, -2.43996, 176.658, -32.8954, 43.8034
0.796, 2, 2.16086, -6.6007, -2.43996, 176.658, -32.8954, 43.8034
0.8, 2, 2.16086, -6.6007, -2.43996, 176.658, -32.8954, 43.8034
0.804, 2, 2.16086, -6.6007, -2.43996, 176.658, -32.8954, 43.8034
0.808, 2, 2.16086, -6.6007, -2.43996, 176.658, -32.8954, 43.8034
0.812, 2, 2.16086, -6.6007, -2.43996, 176.658, -32.8954, 43.8034
0.816, 2, 2.16086, -6.6007, -2.43996, 176.658, -32.8954, 43.8034
0.82, 2, 2.16086, -6.6007, -2.43996, 176.658, -32.8954, 43.8034
0.824, 2, 2.16086, -6.6007, -2.43996, 176.658, -32.8954, 43.8034
0.828, 2, 2.16086, -6.6007, -2.43996, 176.658, -32.8954, 43.8034
0.832, 2, 2.16086, -6.6007, -2.43996, 176.658, -32.8954, 43.8034
0.836, 2, 2.16086, -6.6007, -2.43996, 176.658, -32.8954, 43.8034
0.84, 2, 2.16086, -6.6007, -2.43996, 176.658, -32.8954, 43.8034
0.844, 2, 2.16086, -6.6007, -2.43996, 176.658, -32.8954, 43.8034
0.848, 2, 2.16086, -6.6007, -2.43996, 176.658, -32.8954, 43.8034
0.852, 2, 2.16086, -6.6007, -2.43996, 176.658, -32.8954, 43.8034
0.856, 2, 2.16086, -6.6007, -2.43996, 176.658, -32.8954, 43.8034
0.86, 2, 2.16086, -6.6007, -2.43996, 176.658, -32.8954, 43.8034
0.864, 2, 2.16086, -6.6007, -2.43996, 176.658, -32.8954, 43.8034
0.868, 2, 2.16086, -6.6007, -2.43996, 176.658, -32.8954, 43.8034
0.872, 2, 2.16086, -6.6007, -2.43996, 176.658, -32.8954, 43.8034
0.876, 2, 2.16086, -6.6007, -2.43996, 176.658, -32.8954, 43.8034
0.88, 2, 2.16086, -6.6007, -2.43996, 176.658, -32.8954, 43.8034
0.884, 2, 2.16086, -6.6007, -2.43996, 176.658, -32.8954, 43.8034
0.888, 2, 2.16086, -6.6007, -2.43996, 176.658, -32.8954, 43.8034
0.892, 2, 2.16086, -6.6007, -2.43996, 176.658, -32.8954, 43.8034
0.896, 2, 2.16086, -6.6007, -2.43996, 176.658, -32.8954, 43.8034
0.9, 2, 2.16086, -6.6007, -2.43996, 176.658, -32.8954, 43.8034
0.904, 2, 2.16086, -6.6007, -2.43996, 176.658, -32.8954, 43.8034
0.908, 2, 2.16086, -6.6007, -2.43996, 176.658, -32.8954, 43.8034
0.912, 2, 2.16086, -6.6007, -2.43996, 176.658, -32.8954, 43.8034
0.916, 2, 2.16086, -6.6007, -2.43996, 176.658, -32.8954, 43.8034
0.92, 2, 2.16086, -6.6007, -2.43996, 176.658, -32.8954, 43.8034
0.924, 2, 2.16086, -6.6007, -2.43996, 176.658, -32.8954, 43.8034
0.928, 2, 2.16086, -6.6007, -2.43996, 176.658, -32.8954, 43.8034
0.932, 2, 2.16086, -6.6007, -2.43996, 176.658, -32.8954, 43.8034
0.936, 2, 2.16086, -6.6007, -2.43996, 176.658, -32.8954, 43.8034
0.94, 2, 2.16086, -6.6007, -2.43996, 176.658, -32.8954, 43.8034
0.944, 2, 2.16086, -6.6007, -2.43996, 176.658, -32.8954, 43.8034
0.948, 2, 2.16086, -6.6007, -2.43996, 176.658, -32.8954, 43.8034
0.952, 2, 2.16086, -6.6007, -2.43996, 176.658, -32.8954, 43.8034
0.956, 2, 2.16086, -6.6007, -2.43996, 176.658, -32.8954, 43.8034
0.96, 2, 2.16086, -6.6007, -2.43996, 176.658, -32.8954, 43.8034
0.964, 2, 2.16086, -6.6007, -2.43996, 176.658, -32.8954, 43.8034
0.968, 2, 2.16086, -6.6007, -2.43996, 176.658, -32.8954, 43.8034
0.972, 2, 2.16086, -6.6007, -2.43996, 176.658, -32.8954, 43.8034
0.976, 2, 2.16086, -6.6007, -2.43996, 176.658, -32.8954, 43.8034
0.98, 2, 2.16086, -6.6007, -2.43996, 176.658, -32.8954, 43.8034
0.984, 2, 2.16086, -6.6007, -2.43996, 176.658, -32.8954, 43.8034
0.988, 2, 2.16086, -6.6007, -2.43996, 176.658, -32.8954, 43.8034
0.992, 2, 2.16086, -6.6007, -2.43996, 176.658, -32.8954, 43.8034
0.996, 2, 2.16086, -6.6007, -2.43996, 176.658, -32.8954, 43.8034
1, 2, 2.16086, -6.6007, -2.43996, 176.658, -32.8954, 43.8034
1.004, 2, 2.16086, -6.6007, -2.43996, 176.658, -32.8954, 43.8034
1.008, 2, 2.16086, -6.6007, -2.43996, 176.658, -32.8954, 43.8034
1.012, 2, 2.16086, -6.6007, -2.43996, 176.658, -32.8954, 43.8034
1.016, 2, 2.16086, -6.6007, -2.43996, 176.658, -32.8954, 43.8034
1.02, 2, 2.16086, -6.6007, -2.43996, 176.658, -32.8954, 43.8034
1.024, 2, 2.16086, -6.6007, -2.43996, 176.658, -32.8954, 43.8034
1.027, 2, 2.16086, -6.6007, -2.43996, 176.658, -32.8954, 43.8034
1.032, 2, 2.16086, -6.6007, -2.43996, 176.658, -32.8954, 43.8034
1.036, 2, 2.16086, -6.6007, -2.43996, 176.658, -32.8954, 43.8034
1.04, 2, 2.16086, -6.6007, -2.43996, 176.658, -32.8954, 43.8034
1.044, 2, 2.16086, -6.6007, -2.43996, 176.658, -32.8954, 43.8034
1.048, 2, 2.16086, -6.6007, -2.43996, 176.658, -32.8954, 43.8034
1.052, 2, 2.16086, -6.6007, -2.43996, 176.658, -32.8954, 43.8034
1.055, 2, 2.16086, -6.6007, -2.43996, 176.658, -32.8954, 43.8034
1.06, 2, 2.16086, -6.6007, -2.43996, 176.658, -32.8954, 43.8034
1.064, 2, 2.16086, -6.6007, -2.43996, 176.658, -32.8954, 43.8034
1.068, 2, 2.16086, -6.6007, -2.43996, 176.658, -32.8954, 43.8034
1.072, 2, 2.16086, -6.6007, -2.43996, 176.658, -32.8954, 43.8034
1.076, 2, 2.16086, -6.6007, -2.43996, 176.658, -32.8954, 43.8034
1.08, 2, 2.16086, -6.6007, -2.43996, 176.658, -32.8954, 43.8034
1.084, 2, 2.16086, -6.6007, -2.43996, 176.658, -32.8954, 43.8034
1.088, 2, 2.16086, -6.6007, -2.43996, 176.658, -32.8954, 43.8034
1.091, 2, 2.16086, -6.6007, -2.43996, 176.658, -32.8954, 43.8034
1.096, 2, 2.16086, -6.6007, -2.43996, 176.658, -32.8954, 43.8034
1.1, 2, 2.16086, -6.6007, -2.43996, 176.658, -32.8954, 43.8034
1.104, 2, 2.16086, -6.6007, -2.43996, 176.658, -32.8954, 43.8034
1.108, 2, 2.16086, -6.6007, -2.43996, 176.658, -32.8954, 43.8034
1.112, 2, 2.16086, -6.6007, -2.43996, 176.658, -32.8954, 43.8034
1.116, 2, 2.16086, -6.6007, -2.43996, 176.658, -32.8954, 43.8034
1.119, 2, 2.16086, -6.6007, -2.43996, 176.658, -32.8954, 43.8034
1.124, 2, 2.16086, -6.6007, -2.43996, 176.658, -32.8954, 43.8034
1.128, 2, 2.16086, -6.6007, -2.43996, 176.658, -32.8954, 43.8034
1.132, 2, 2.16086, -6.6007, -2.43996, 176.658, -32.8954, 43.8034
1.136, 2, 2.16086, -6.6007, -2.43996, 176.658, -32.8954, 43.8034
1.14, 2, 2.16086, -6.6007, -2.43996, 176.658, -32.8954, 43.8034
1.144, 2, 2.16086, -6.6007, -2.43996, 176.658, -32.8954, 43.8034
1.147, 2, 2.16086, -6.6007, -2.43996, 176.658, -32.8954, 43.8034
1.152, 2, 2.16086, -6.6007, -2.43996, 176.658, -32.8954, 43.8034
1.156, 2, 2.16086, -6.6007, -2.43996, 176.658, -32.8954, 43.8034
1.16, 2, 2.16086, -6.6007, -2.43996, 176.658, -32.8954, 43.8034
1.164, 2, 2.16086, -6.6007, -2.43996, 176.658, -32.8954, 43.8034
1.168, 2, 2.16086, -6.6007, -2.43996, 176.658, -32.8954, 43.8034
1.172, 2, 2.16086, -6.6007, -2.43996, 176.658, -32.8954, 43.8034
1.175, 2, 2.16086, -6.6007, -2.43996, 176.658, -32.8954, 43.8034
1.18, 2, 2.16086, -6.6007, -2.43996, 176.658, -32.8954, 43.8034
1.184, 2, 2.16086, -6.6007, -2.43996, 176.658, -32.8954, 43.8034
1.188, 2, 2.16086, -6.6007, -2.43996, 176.658, -32.8954, 43.8034
1.192, 2, 2.16086, -6.6007, -2.43996, 176.658, -32.8954, 43.8034
1.196, 2, 2.16086, -6.6007, -2.43996, 176.658, -32.8954, 43.8034
1.2, 2, 2.16086, -6.6007, -2.43996, 176.658, -32.8954, 43.8034
1.204, 2, 2.16086, -6.6007, -2.43996, 176.658, -32.8954, 43.8034
1.208, 2, 2.16086, -6.6007, -2.43996, 176.658, -32.8954, 43.8034
1.212, 2, 2.16086, -6.6007, -2.43996, 176.658, -32.8954, 43.8034
1.216, 2, 2.16086, -6.6007, -2.43996, 176.658, -32.8954, 43.8034
1.22, 2, 2.16086, -6.6007, -2.43996, 176.658, -32.8954, 43.8034
1.224, 2, 2.16086, -6.6007, -2.43996, 176.658, -32.8954, 43.8034
1.228, 2, 2.16086, -6.6007, -2.43996, 176.658, -32.8954, 43.8034
1.232, 2, 2.16086, -6.6007, -2.43996, 176.658, -32.8954, 43.8034
1.236, 2, 2.16086, -6.6007, -2.43996, 176.658, -32.8954, 43.8034
1.24, 2, 2.16086, -6.6007, -2.43996, 176.658, -32.8954, 43.8034
1.244, 2, 2.16086, -6.6007, -2.43996, 176.658, -32.8954, 43.8034
1.248, 2, 2.16086, -6.6007, -2.43996, 176.658, -32.8954, 43.8034
1.252, 2, 2.16086, -6.6007, -2.43996, 176.658, -32.8954, 43.8034
1.256, 2, 2.16086, -6.6007, -2.43996, 176.658, -32.8954, 43.8034
1.26, 2, 2.16086, -6.6007, -2.43996, 176.658, -32.8954, 43.8034
1.264, 2, 2.16086, -6.6007, -2.43996, 176.658, -32.8954, 43.8034
1.267, 2, 2.16086, -6.6007, -2.43996, 176.658, -32.8954, 43.8034
1.272, 2, 2.16086, -6.6007, -2.43996, 176.658, -32.8954, 43.8034
1.276, 2, 2.16086, -6.6007, -2.43996, 176.658, -32.8954, 43.8034
1.28, 2, 2.16086, -6.6007, -2.43996, 176.658, -32.8954, 43.8034
1.284, 2, 2.16086, -6.6007, -2.43996, 176.658, -32.8954, 43.8034
1.288, 2, 2.16086, -6.6007, -2.43996, 176.658, -32.8954, 43.8034
1.292, 2, 2.16086, -6.6007, -2.43996, 176.658, -32.8954, 43.8034
1.295, 2, 2.16086, -6.6007, -2.43996, 176.658, -32.8954, 43.8034
1.3, 2, 2.16086, -6.6007, -2.43996, 176.658, -32.8954, 43.8034
1.304, 2, 2.16086, -6.6007, -2.43996, 176.658, -32.8954, 43.8034
1.308, 2, 2.16086, -6.6007, -2.43996, 176.658, -32.8954, 43.8034
1.312, 2, 2.16086, -6.6007, -2.43996, 176.658, -32.8954, 43.8034
1.316, 2, 2.16086, -6.6007, -2.43996, 176.658, -32.8954, 43.8034
1.32, 2, 2.16086, -6.6007, -2.43996, 176.658, -32.8954, 43.8034
1.324, 2, 2.16086, -6.6007, -2.43996, 176.658, -32.8954, 43.8034
1.328, 2, 2.16086, -6.6007, -2.43996, 176.658, -32.8954, 43.8034
1.332, 2, 2.16086, -6.6007, -2.43996, 176.658, -32.8954, 43.8034
1.336, 2, 2.16086, -6.6007, -2.43996, 176.658, -32.8954, 43.8034
1.34, 2, 2.16086, -6.6007, -2.43996, 176.658, -32.8954, 43.8034
1.344, 2, 2.16086, -6.6007, -2.43996, 176.658, -32.8954, 43.8034
1.348, 2, 2.16086, -6.6007, -2.43996, 176.658, -32.8954, 43.8034
1.352, 2, 2.16086, -6.6007, -2.43996, 176.658, -32.8954, 43.8034
1.356, 2, 2.16086, -6.6007, -2.43996, 176.658, -32.8954, 43.8034
1.36, 2, 2.16086, -6.6007, -2.43996, 176.658, -32.8954, 43.8034
1.364, 2, 2.16086, -6.6007, -2.43996, 176.658, -32.8954, 43.8034
1.368, 2, 2.16086, -6.6007, -2.43996, 176.658, -32.8954, 43.8034
1.372, 2, 2.16086, -6.6007, -2.43996, 176.658, -32.8954, 43.8034
1.376, 2, 2.16086, -6.6007, -2.43996, 176.658, -32.8954, 43.8034
1.38, 2, 2.16086, -6.6007, -2.43996, 176.658, -32.8954, 43.8034
1.384, 2, 2.16086, -6.6007, -2.43996, 176.658, -32.8954, 43.8034
1.388, 2, 2.16086, -6.6007, -2.43996, 176.658, -32.8954, 43.8034
1.392, 2, 2.16086, -6.6007, -2.43996, 176.658, -32.8954, 43.8034
1.396, 2, 2.16086, -6.6007, -2.43996, 176.658, -32.8954, 43.8034
1.4, 2, 2.16086, -6.6007, -2.43996, 176.658, -32.8954, 43.8034
1.404, 2, 2.16086, -6.6007, -2.43996, 176.658, -32.8954, 43.8034
1.408, 2, 2.16086, -6.6007, -2.43996, 176.658, -32.8954, 43.8034
1.412, 2, 2.16086, -6.6007, -2.43996, 176.658, -32.8954, 43.8034
1.416, 2, 2.16086, -6.6007, -2.43996, 176.658, -32.8954, 43.8034
1.42, 2, 2.16086, -6.6007, -2.43996, 176.658, -32.8954, 43.8034
1.424, 2, 2.16086, -6.6007, -2.43996, 176.658, -32.8954, 43.8034
1.428, 2, 2.16086, -6.6007, -2.43996, 176.658, -32.8954, 43.8034
1.432, 2, 2.16086, -6.6007, -2.43996, 176.658, -32.8954, 43.8034
1.436, 2, 2.16086, -6.6007, -2.43996, 176.658, -32.8954, 43.8034
1.44, 2, 2.16086, -6.6007, -2.43996, 176.658, -32.8954, 43.8034
1.444, 2, 2.16086, -6.6007, -2.43996, 176.658, -32.8954, 43.8034
1.448, 2, 2.16086, -6.6007, -2.43996, 176.658, -32.8954, 43.8034
1.452, 2, 2.16086, -6.6007, -2.43996, 176.658, -32.8954, 43.8034
1.456, 2, 2.16086, -6.6007, -2.43996, 176.658, -32.8954, 43.8034
1.46, 2, 2.16086, -6.6007, -2.43996, 176.658, -32.8954, 43.8034
1.464, 2, 2.16086, -6.6007, -2.43996, 176.658, -32.8954, 43.8034
1.468, 2, 2.16086, -6.6007, -2.43996, 176.658, -32.8954, 43.8034
1.472, 2, 2.16086, -6.6007, -2.43996, 176.658, -32.8954, 43.8034
1.476, 2, 2.16086, -6.6007, -2.43996, 176.658, -32.8954, 43.8034
1.48, 2, 2.16086, -6.6007, -2.43996, 176.658, -32.8954, 43.8034
1.484, 2, 2.16086, -6.6007, -2.43996, 176.658, -32.8954, 43.8034
1.488, 2, 2.16086, -6.6007, -2.43996, 176.658, -32.8954, 43.8034
1.492, 2, 2.16086, -6.6007, -2.43996, 176.658, -32.8954, 43.8034
1.496, 2, 2.16086, -6.6007, -2.43996, 176.658, -32.8954, 43.8034
1.5, 2, 2.16086, -6.6007, -2.43996, 176.658, -32.8954, 43.8034
1.504, 2, 2.16086, -6.6007, -2.43996, 176.658, -32.8954, 43.8034
1.508, 2, 2.16086, -6.6007, -2.43996, 176.658, -32.8954, 43.8034
1.512, 2, 2.16086, -6.6007, -2.43996, 176.658, -32.8954, 43.8034
1.516, 2, 2.16086, -6.6007, -2.43996, 176.658, -32.8954, 43.8034
1.52, 2, 2.16086, -6.6007, -2.43996, 176.658, -32.8954, 43.8034
1.524, 2, 2.16086, -6.6007, -2.43996, 176.658, -32.8954, 43.8034
1.528, 2, 2.16086, -6.6007, -2.43996, 176.658, -32.8954, 43.8034
1.532, 2, 2.16086, -6.6007, -2.43996, 176.658, -32.8954, 43.8034
1.536, 2, 2.16086, -6.6007, -2.43996, 176.658, -32.8954, 43.8034
1.54, 2, 2.16086, -6.6007, -2.43996, 176.658, -32.8954, 43.8034
1.544, 2, 2.16086, -6.6007, -2.43996, 176.658, -32.8954, 43.8034
1.548, 2, 2.16086, -6.6007, -2.43996, 176.658, -32.8954, 43.8034
1.552, 2, 2.16086, -6.6007, -2.43996, 176.658, -32.8954, 43.8034
1.556, 2, 2.16086, -6.6007, -2.43996, 176.658, -32.8954, 43.8034
1.56, 2, 2.16086, -6.6007, -2.43996, 176.658, -32.8954, 43.8034
1.564, 2, 2.16086, -6.6007, -2.43996, 176.658, -32.8954, 43.8034
1.568, 2, 2.16086, -6.6007, -2.43996, 176.658, -32.8954, 43.8034
1.572, 2, 2.16086, -6.6007, -2.43996, 176.658, -32.8954, 43.8034
1.576, 2, 2.16086, -6.6007, -2.43996, 176.658, -32.8954, 43.8034
1.58, 2, 2.16086, -6.6007, -2.43996, 176.658, -32.8954, 43.8034
1.584, 2, 2.16086, -6.6007, -2.43996, 176.658, -32.8954, 43.8034
1.588, 2, 2.16086, -6.6007, -2.43996, 176.658, -32.8954, 43.8034
1.592, 2, 2.16086, -6.6007, -2.43996, 176.658, -32.8954, 43.8034
1.596, 2, 2.16086, -6.6007, -2.43996, 176.658, -32.8954, 43.8034
1.6, 2, 2.16086, -6.6007, -2.43996, 176.658, -32.8954, 43.8034
1.604, 2, 2.16086, -6.6007, -2.43996, 176.658, -32.8954, 43.8034
1.608, 2, 2.16086, -6.6007, -2.43996, 176.658, -32.8954, 43.8034
1.612, 2, 2.16086, -6.6007, -2.43996, 176.658, -32.8954, 43.8034
1.616, 2, 2.16086, -6.6007, -2.43996, 176.658, -32.8954, 43.8034
1.62, 2, 2.16086, -6.6007, -2.43996, 176.658, -32.8954, 43.8034
1.624, 2, 2.16086, -6.6007, -2.43996, 176.658, -32.8954, 43.8034
1.628, 2, 2.16086, -6.6007, -2.43996, 176.658, -32.8954, 43.8034
1.632, 2, 2.16086, -6.6007, -2.43996, 176.658, -32.8954, 43.8034
1.636, 2, 2.16086, -6.6007, -2.43996, 176.658, -32.8954, 43.8034
1.64, 2, 2.16086, -6.6007, -2.43996, 176.658, -32.8954, 43.8034
1.644, 2, 2.16086, -6.6007, -2.43996, 176.658, -32.8954, 43.8034
1.648, 2, 2.16086, -6.6007, -2.43996, 176.658, -32.8954, 43.8034
1.652, 2, 2.16086, -6.6007, -2.43996, 176.658, -32.8954, 43.8034
1.656, 2, 2.16086, -6.6007, -2.43996, 176.658, -32.8954, 43.8034
1.66, 2, 2.16086, -6.6007, -2.43996, 176.658, -32.8954, 43.8034
1.664, 2, 2.16086, -6.6007, -2.43996, 176.658, -32.8954, 43.8034
1.668, 2, 2.16086, -6.6007, -2.43996, 176.658, -32.8954, 43.8034
1.672, 2, 2.16086, -6.6007, -2.43996, 176.658, -32.8954, 43.8034
1.676, 2, 2.16086, -6.6007, -2.43996, 176.658, -32.8954, 43.8034
1.68, 2, 2.16086, -6.6007, -2.43996, 176.658, -32.8954, 43.8034
1.684, 2, 2.16086, -6.6007, -2.43996, 176.658, -32.8954, 43.8034
1.688, 2, 2.16086, -6.6007, -2.43996, 176.658, -32.8954, 43.8034
1.692, 2, 2.16086, -6.6007, -2.43996, 176.658, -32.8954, 43.8034
1.696, 2, 2.16086, -6.6007, -2.43996, 176.658, -32.8954, 43.8034
1.7, 2, 2.16086, -6.6007, -2.43996, 176.658, -32.8954, 43.8034
1.704, 2, 2.16086, -6.6007, -2.43996, 176.658, -32.8954, 43.8034
1.708, 2, 2.16086, -6.6007, -2.43996, 176.658, -32.8954, 43.8034
1.712, 2, 2.16086, -6.6007, -2.43996, 176.658, -32.8954, 43.8034
1.716, 2, 2.16086, -6.6007, -2.43996, 176.658, -32.8954, 43.8034
1.72, 2, 2.16086, -6.6007, -2.43996, 176.658, -32.8954, 43.8034
1.724, 2, 2.16086, -6.6007, -2.43996, 176.658, -32.8954, 43.8034
1.728, 2, 2.16086, -6.6007, -2.43996, 176.658, -32.8954, 43.8034
1.734, 2, 2.16086, -6.6007, -2.43996, 176.658, -32.8954, 43.8034
1.738, 2, 2.16086, -6.6007, -2.43996, 176.658, -32.8954, 43.8034
1.742, 2, 2.16086, -6.6007, -2.43996, 176.658, -32.8954, 43.8034
1.746, 2, 2.16086, -6.6007, -2.43996, 176.658, -32.8954, 43.8034
1.749, 2, 2.16086, -6.6007, -2.43996, 176.658, -32.8954, 43.8034
1.754, 2, 2.16086, -6.6007, -2.43996, 176.658, -32.8954, 43.8034
1.758, 2, 2.16086, -6.6007, -2.43996, 176.658, -32.8954, 43.8034
1.762, 2, 2.16081, -6.60069, -2.43998, 176.658, -32.8954, 43.8034
1.766, 2, 2.16063, -6.60063, -2.44003, 176.658, -32.8955, 43.8033
1.768, 2, 2.16063, -6.60063, -2.44003, 176.658, -32.8955, 43.8033
1.774, 2, 2.15926, -6.6002, -2.4405, 176.658, -32.8957, 43.8021
1.776, 2, 2.15926, -6.6002, -2.4405, 176.658, -32.8957, 43.8021
1.78, 2, 2.15776, -6.59968, -2.44112, 176.658, -32.8961, 43.7999
1.784, 2, 2.15555, -6.59885, -2.44219, 176.659, -32.897, 43.7952
1.788, 2, 2.15252, -6.59761, -2.44391, 176.66, -32.8988, 43.7864
1.792, 2, 2.14858, -6.59585, -2.44654, 176.661, -32.9018, 43.7711
1.796, 2, 2.14362, -6.59344, -2.45039, 176.663, -32.9068, 43.7466
1.8, 2, 2.13752, -6.59021, -2.45585, 176.667, -32.9143, 43.7092
1.804, 2, 2.13013, -6.58601, -2.46335, 176.671, -32.9253, 43.655
1.808, 2, 2.12131, -6.58065, -2.47336, 176.678, -32.9406, 43.5793
1.812, 2, 2.11097, -6.57398, -2.48636, 176.687, -32.9613, 43.477
1.816, 2, 2.09913, -6.56589, -2.50282, 176.699, -32.9886, 43.343
1.82, 2, 2.08586, -6.55628, -2.52318, 176.714, -33.0234, 43.172
1.824, 2, 2.07123, -6.54506, -2.54783, 176.733, -33.0667, 42.9595
1.828, 2, 2.05527, -6.53217, -2.5771, 176.756, -33.1193, 42.7016
1.832, 2, 2.03796, -6.51753, -2.61125, 176.783, -33.1817, 42.3955
1.837, 2, 2.0192, -6.50106, -2.65044, 176.814, -33.2543, 42.0398
1.841, 2, 1.99892, -6.48273, -2.69473, 176.85, -33.3372, 41.6341
1.844, 2, 1.97707, -6.46253, -2.74405, 176.89, -33.4301, 41.1794
1.848, 2, 1.95368, -6.44052, -2.79824, 176.935, -33.5326, 40.6776
1.852, 2, 1.92882, -6.41679, -2.85699, 176.983, -33.6441, 40.1317
1.856, 2, 1.90256, -6.39145, -2.91995, 177.035, -33.7639, 39.5454
1.861, 2, 1.87492, -6.36461, -2.98672, 177.09, -33.8911, 38.9231
1.866, 2, 1.81541, -6.3069, -3.12993, 177.207, -34.1634, 37.5904
1.867, 2, 1.81541, -6.3069, -3.12993, 177.207, -34.1634, 37.5904
1.872, 2, 1.7835, -6.27626, -3.20549, 177.269, -34.3065, 36.8898
1.876, 2, 1.75019, -6.24462, -3.2831, 177.332, -34.4531, 36.1723
1.88, 2, 1.71559, -6.21211, -3.36237, 177.397, -34.6023, 35.4419
1.884, 2, 1.67988, -6.17892, -3.44294, 177.462, -34.7535, 34.7015
1.888, 2, 1.64326, -6.14517, -3.52451, 177.528, -34.9062, 33.9537
1.892, 2, 1.60591, -6.11101, -3.60683, 177.595, -35.06, 33.2005
1.896, 2, 1.56798, -6.07654, -3.68969, 177.662, -35.2146, 32.4433
1.9, 2, 1.52958, -6.04184, -3.77296, 177.729, -35.3698, 31.6834
1.904, 2, 1.4908, -6.00696, -3.85652, 177.796, -35.5253, 30.9215
1.909, 2, 1.45173, -5.97194, -3.94028, 177.864, -35.6812, 30.1582
1.914, 2, 1.37304, -5.90168, -4.10821, 177.999, -35.9933, 28.6293
1.918, 2, 1.33352, -5.86647, -4.19228, 178.066, -36.1495, 27.8641
1.922, 2, 1.29394, -5.83123, -4.2764, 178.134, -36.3058, 27.0986
1.924, 2, 1.29394, -5.83123, -4.2764, 178.134, -36.3058, 27.0986
1.928, 2, 1.25431, -5.79598, -4.36055, 178.202, -36.4621, 26.3329
1.932, 2, 1.21466, -5.76071, -4.44473, 178.269, -36.6185, 25.5671
1.936, 2, 1.17498, -5.72544, -4.52891, 178.337, -36.7748, 24.8012
1.94, 2, 1.13529, -5.69015, -4.61311, 178.405, -36.9312, 24.0353
1.944, 2, 1.09559, -5.65487, -4.69731, 178.472, -37.0876, 23.2693
1.948, 2, 1.05589, -5.61958, -4.78152, 178.54, -37.244, 22.5032
1.952, 2, 1.01618, -5.58429, -4.86573, 178.608, -37.4004, 21.7372
1.956, 2, 0.976466, -5.54899, -4.94994, 178.675, -37.5568, 20.9712
1.96, 2, 0.936752, -5.5137, -5.03415, 178.743, -37.7131, 20.2051
1.964, 2, 0.897036, -5.4784, -5.11836, 178.811, -37.8695, 19.439
1.968, 2, 0.857319, -5.44311, -5.20258, 178.878, -38.0259, 18.6729
1.972, 2, 0.817602, -5.40782, -5.28679, 178.946, -38.1823, 17.9069
1.976, 2, 0.777884, -5.37252, -5.37101, 179.014, -38.3387, 17.1408
1.98, 2, 0.738178, -5.33723, -5.45522, 179.081, -38.4951, 16.3747
1.984, 2, 0.698527, -5.30195, -5.53942, 179.149, -38.6515, 15.6087
1.988, 2, 0.659028, -5.26672, -5.62357, 179.217, -38.8079, 14.8427
1.994, 2, 0.581029, -5.19656, -5.79152, 179.352, -39.1204, 13.3119
1.996, 2, 0.581029, -5.19656, -5.79152, 179.352, -39.1204, 13.3119
1.999, 2, 0.54278, -5.16174, -5.87514, 179.42, -39.2764, 12.5481
2.004, 2, 0.505155, -5.1272, -5.95836, 179.487, -39.4319, 11.7867
2.008, 2, 0.468207, -5.09298, -6.04102, 179.554, -39.5866, 11.0291
2.012, 2, 0.431952, -5.05918, -6.12292, 179.62, -39.7401, 10.2773
2.017, 2, 0.396396, -5.02587, -6.20382, 179.686, -39.892, 9.53339
2.02, 2, 0.3616, -4.99314, -6.28347, 179.751, -40.0418, 8.80017
2.024, 2, 0.327716, -4.96113, -6.36153, 179.814, -40.1888, 8.08052
2.028, 2, 0.294962, -4.93001, -6.43766, 179.876, -40.3324, 7.37771
2.031, 2, 0.263542, -4.89991, -6.51146, 179.936, -40.4719, 6.69536
2.036, 2, 0.233587, -4.87098, -6.58257, 179.995, -40.6065, 6.0375
2.04, 2, 0.205153, -4.84329, -6.65064, 180.051, -40.7355, 5.40848
2.044, 2, 0.178278, -4.81695, -6.71532, 180.104, -40.858, 4.8128
2.048, 2, 0.153025, -4.79206, -6.77629, 180.154, -40.9735, 4.255
2.051, 2, 0.129501, -4.76873, -6.83325, 180.201, -41.0813, 3.7394
2.055, 2, 0.107886, -4.74706, -6.88593, 180.245, -41.1809, 3.27007
2.06, 2, 0.0884357, -4.72717, -6.9341, 180.285, -41.2719, 2.85074
2.066, 2, 0.0571402, -4.69316, -7.01614, 180.356, -41.4274, 2.17616
2.07, 2, 0.0456414, -4.67912, -7.0498, 180.387, -41.4915, 1.92781
2.072, 2, 0.0456414, -4.67912, -7.0498, 180.387, -41.4915, 1.92781
2.076, 2, 0.0369385, -4.66703, -7.07854, 180.414, -41.5465, 1.74332
2.08, 2, 0.0309694, -4.65688, -7.1024, 180.438, -41.5923, 1.62591
2.084, 2, 0.0276863, -4.64867, -7.12142, 180.46, -41.6292, 1.57837
2.087, 2, 0.0270846, -4.64244, -7.13566, 180.479, -41.6574, 1.60271
2.092, 2, 0.0291812, -4.63822, -7.14515, 180.496, -41.6772, 1.70001
2.098, 2, 0.041414, -4.63584, -7.15006, 180.524, -41.6923, 2.1124
2.102, 2, 0.0514168, -4.63762, -7.14553, 180.536, -41.6878, 2.42422
2.106, 2, 0.0638526, -4.64131, -7.13636, 180.546, -41.6755, 2.80256
2.109, 2, 0.0638526, -4.64131, -7.13636, 180.546, -41.6755, 2.80256
2.114, 2, 0.0953953, -4.65427, -7.10406, 180.564, -41.6274, 3.74167
2.118, 2, 0.114201, -4.66357, -7.08088, 180.571, -41.5919, 4.29199
2.122, 2, 0.134876, -4.67481, -7.05293, 180.578, -41.5488, 4.88817
2.124, 2, 0.134876, -4.67481, -7.05293, 180.578, -41.5488, 4.88817
2.127, 2, 0.157347, -4.68805, -7.02016, 180.583, -41.4984, 5.5237
2.132, 2, 0.181554, -4.70327, -6.98251, 180.588, -41.4404, 6.19199
2.136, 2, 0.207418, -4.72044, -6.93997, 180.592, -41.375, 6.88666
2.14, 2, 0.234843, -4.7395, -6.89253, 180.594, -41.3021, 7.60187
2.146, 2, 0.29405, -4.78314, -6.78299, 180.595, -41.1337, 9.07428
2.149, 2, 0.29405, -4.78314, -6.78299, 180.595, -41.1337, 9.07428
2.154, 2, 0.358478, -4.83414, -6.65412, 180.59, -40.936, 10.579
2.156, 2, 0.358478, -4.83414, -6.65412, 180.59, -40.936, 10.579
2.16, 2, 0.392288, -4.86243, -6.58256, 180.585, -40.8265, 11.3378
2.163, 2, 0.426904, -4.89255, -6.50636, 180.577, -40.7101, 12.0991
2.168, 2, 0.462139, -4.92444, -6.42562, 180.567, -40.5868, 12.8621
2.172, 2, 0.497852, -4.95801, -6.34043, 180.555, -40.4566, 13.6262
2.176, 2, 0.533957, -4.99318, -6.25087, 180.541, -40.3195, 14.3912
2.18, 2, 0.570443, -5.0299, -6.15701, 180.524, -40.1758, 15.1567
2.186, 2, 0.64473, -5.10793, -5.95658, 180.482, -39.8686, 16.6886
2.19, 2, 0.682622, -5.14923, -5.85013, 180.457, -39.7054, 17.4548
2.194, 2, 0.721015, -5.19201, -5.73963, 180.428, -39.5361, 18.2212
2.198, 2, 0.759864, -5.23623, -5.62517, 180.397, -39.3607, 18.9877
2.202, 2, 0.799117, -5.2818, -5.50683, 180.362, -39.1793, 19.7543
2.205, 2, 0.799117, -5.2818, -5.50683, 180.362, -39.1793, 19.7543
2.21, 2, 0.878745, -5.37677, -5.25885, 180.283, -38.7985, 21.2878
2.214, 2, 0.919146, -5.42609, -5.12933, 180.238, -38.5994, 22.0546
2.216, 2, 0.919146, -5.42609, -5.12933, 180.238, -38.5994, 22.0546
2.219, 2, 0.959961, -5.47659, -4.99622, 180.19, -38.3947, 22.8214
2.224, 2, 1.00118, -5.52822, -4.85959, 180.138, -38.1844, 23.5883
2.228, 2, 1.04277, -5.58094, -4.71957, 180.082, -37.9689, 24.355
2.232, 2, 1.08467, -5.63469, -4.57627, 180.022, -37.7481, 25.1214
2.238, 2, 1.16916, -5.74493, -4.28041, 179.89, -37.2915, 26.6524
2.241, 2, 1.16916, -5.74493, -4.28041, 179.89, -37.2915, 26.6524
2.246, 2, 1.25438, -5.85834, -3.97323, 179.743, -36.8165, 28.1789
2.25, 2, 1.29725, -5.91606, -3.81584, 179.663, -36.5728, 28.9393
2.252, 2, 1.29725, -5.91606, -3.81584, 179.663, -36.5728, 28.9393
2.255, 2, 1.34026, -5.97434, -3.65619, 179.579, -36.3255, 29.6971
2.259, 2, 1.38342, -6.0331, -3.49451, 179.492, -36.0748, 30.4518
2.264, 2, 1.4267, -6.09225, -3.33102, 179.4, -35.8212, 31.2028
2.268, 2, 1.4701, -6.15171, -3.16596, 179.305, -35.5651, 31.9496
2.274, 2, 1.55718, -6.27121, -2.83202, 179.104, -35.0467, 33.4281
2.277, 2, 1.55718, -6.27121, -2.83202, 179.104, -35.0467, 33.4281
2.282, 2, 1.64451, -6.39096, -2.49439, 178.888, -34.5223, 34.8837
2.284, 2, 1.64451, -6.39096, -2.49439, 178.888, -34.5223, 34.8837
2.289, 2, 1.68821, -6.45074, -2.32466, 178.776, -34.2587, 35.6022
2.292, 2, 1.73189, -6.51038, -2.15454, 178.66, -33.9945, 36.3141
2.297, 2, 1.77551, -6.56981, -1.98417, 178.541, -33.7299, 37.0195
2.302, 2, 1.86243, -6.68789, -1.64314, 178.294, -33.2003, 38.4104
2.306, 2, 1.90566, -6.74645, -1.47266, 178.166, -32.9355, 39.0963
2.31, 2, 1.94871, -6.80466, -1.3023, 178.035, -32.671, 39.7759
2.314, 2, 1.99155, -6.86248, -1.13211, 177.901, -32.4066, 40.4495
2.318, 2, 2.03415, -6.9199, -0.962149, 177.765, -32.1426, 41.1174
2.322, 2, 2.0765, -6.9769, -0.79244, 177.625, -31.879, 41.7799
2.326, 2, 2.1186, -7.03347, -0.623013, 177.482, -31.6158, 42.4371
2.33, 2, 2.16044, -7.08961, -0.45389, 177.337, -31.353, 43.0893
2.334, 2, 2.20202, -7.1453, -0.285089, 177.189, -31.0907, 43.7369
2.338, 2, 2.24334, -7.20054, -0.116626, 177.038, -30.8289, 44.38
2.342, 2, 2.2844, -7.25532, 0.0514838, 176.883, -30.5677, 45.0189
2.346, 2, 2.3252, -7.30964, 0.219229, 176.726, -30.3071, 45.6538
2.35, 2, 2.36576, -7.3635, 0.386597, 176.566, -30.0471, 46.2851
2.354, 2, 2.40606, -7.41689, 0.553578, 176.403, -29.7877, 46.9128
2.358, 2, 2.44612, -7.46981, 0.720159, 176.237, -29.5289, 47.5373
2.362, 2, 2.48594, -7.52226, 0.886332, 176.067, -29.2709, 48.1587
2.366, 2, 2.52553, -7.57422, 1.05209, 175.895, -29.0136, 48.7773
2.37, 2, 2.56489, -7.6257, 1.21741, 175.719, -28.757, 49.3932
2.374, 2, 2.60404, -7.6767, 1.38229, 175.54, -28.5013, 50.0067
2.378, 2, 2.64298, -7.7272, 1.54673, 175.357, -28.2463, 50.6179
2.382, 2, 2.68173, -7.77721, 1.7107, 175.171, -27.9922, 51.2272
2.386, 2, 2.72028, -7.82672, 1.8742, 174.981, -27.739, 51.8345
2.39, 2, 2.75865, -7.87573, 2.03721, 174.788, -27.4867, 52.4403
2.392, 2, 2.75865, -7.87573, 2.03721, 174.788, -27.4867, 52.4403
2.396, 2, 2.79685, -7.92422, 2.19972, 174.591, -27.2354, 53.0445
2.4, 2, 2.8349, -7.97219, 2.36172, 174.39, -26.9851, 53.6475
2.403, 2, 2.87281, -8.01964, 2.52319, 174.185, -26.7358, 54.2494
2.408, 2, 2.91059, -8.06656, 2.68411, 173.976, -26.4877, 54.8505
2.414, 2, 2.98586, -8.15875, 3.00425, 173.544, -25.9952, 56.0507
2.416, 2, 2.98586, -8.15875, 3.00425, 173.544, -25.9952, 56.0507
2.42, 2, 3.02338, -8.20401, 3.16343, 173.322, -25.7508, 56.6502
2.423, 2, 3.06086, -8.24869, 3.32198, 173.094, -25.5079, 57.2497
2.428, 2, 3.09833, -8.29279, 3.47987, 172.862, -25.2664, 57.8492
2.432, 2, 3.1358, -8.33628, 3.63709, 172.624, -25.0266, 58.4491
2.437, 2, 3.17331, -8.37914, 3.79359, 172.381, -24.7884, 59.0495
2.442, 2, 3.24859, -8.46294, 4.10431, 171.876, -24.3176, 60.2526
2.446, 2, 3.28642, -8.50382, 4.25845, 171.615, -24.0853, 60.8558
2.45, 2, 3.32441, -8.54398, 4.41172, 171.347, -23.8552, 61.4603
2.454, 2, 3.36261, -8.5834, 4.56404, 171.071, -23.6276, 62.0665
2.458, 2, 3.40107, -8.62204, 4.71538, 170.788, -23.4026, 62.6745
2.462, 2, 3.43983, -8.65985, 4.86565, 170.498, -23.1805, 63.2845
2.464, 2, 3.43983, -8.65985, 4.86565, 170.498, -23.1805, 63.2845
2.468, 2, 3.47895, -8.69681, 5.01477, 170.198, -22.9614, 63.8968
2.472, 2, 3.51851, -8.73285, 5.16267, 169.89, -22.7458, 64.5116
2.476, 2, 3.55858, -8.76793, 5.30924, 169.573, -22.534, 65.1291
2.479, 2, 3.59925, -8.80197, 5.45436, 169.246, -22.3262, 65.7495
2.485, 2, 3.64061, -8.83491, 5.59791, 168.908, -22.123, 66.373
2.49, 2, 3.72583, -8.89718, 5.87968, 168.198, -21.732, 67.6298
2.494, 2, 3.76989, -8.92633, 6.01755, 167.824, -21.5453, 68.2633
2.496, 2, 3.76989, -8.92633, 6.01755, 167.824, -21.5453, 68.2633
2.499, 2, 3.81508, -8.95402, 6.15313, 167.438, -21.3653, 68.9002
2.504, 2, 3.86152, -8.98016, 6.2862, 167.037, -21.1928, 69.5403
2.509, 2, 3.90931, -9.00461, 6.41651, 166.622, -21.0285, 70.1836
2.514, 2, 4.00943, -9.04803, 6.66768, 165.745, -20.7279, 71.4779
2.518, 2, 4.06199, -9.06676, 6.78796, 165.283, -20.5934, 72.1279
2.522, 2, 4.11635, -9.08333, 6.90426, 164.805, -20.4708, 72.7787
2.526, 2, 4.17258, -9.09764, 7.01629, 164.31, -20.361, 73.4294
2.53, 2, 4.23077, -9.10958, 7.12374, 163.799, -20.2649, 74.0788
2.534, 2, 4.29097, -9.11905, 7.22631, 163.272, -20.1834, 74.7255
2.537, 2, 4.29097, -9.11905, 7.22631, 163.272, -20.1834, 74.7255
2.542, 2, 4.4175, -9.13026, 7.41584, 162.173, -20.0675, 76.0043
2.546, 2, 4.48386, -9.13189, 7.50244, 161.604, -20.0342, 76.6331
2.55, 2, 4.55223, -9.13082, 7.58344, 161.023, -20.0179, 77.2524
2.552, 2, 4.55223, -9.13082, 7.58344, 161.023, -20.0179, 77.2524
2.556, 2, 4.62256, -9.12704, 7.65881, 160.432, -20.0187, 77.8603
2.56, 2, 4.69477, -9.12057, 7.72858, 159.833, -20.0366, 78.4551
2.564, 2, 4.76874, -9.11144, 7.79289, 159.228, -20.0712, 79.0351
2.568, 2, 4.84433, -9.09974, 7.8519, 158.619, -20.1222, 79.5989
2.574, 2, 4.99965, -9.06898, 7.95517, 157.399, -20.2702, 80.6722
2.578, 2, 5.07893, -9.05016, 8.00011, 156.792, -20.3653, 81.1798
2.582, 2, 5.159, -9.02925, 8.04114, 156.189, -20.473, 81.6672
2.584, 2, 5.159, -9.02925, 8.04114, 156.189, -20.473, 81.6672
2.587, 2, 5.23965, -9.00641, 8.07869, 155.593, -20.5921, 82.1338
2.592, 2, 5.32072, -8.98183, 8.11325, 155.004, -20.7212, 82.5796
2.596, 2, 5.40206, -8.95569, 8.14527, 154.425, -20.8591, 83.0046
2.6, 2, 5.48353, -8.92819, 8.17524, 153.856, -21.0044, 83.409
2.604, 2, 5.56502, -8.89951, 8.20363, 153.299, -21.1559, 83.7933
2.61, 2, 5.72741, -8.83943, 8.25739, 152.222, -21.4726, 84.5037
2.614, 2, 5.80793, -8.80838, 8.28357, 151.704, -21.6356, 84.8311
2.618, 2, 5.88773, -8.7769, 8.30979, 151.199, -21.8003, 85.141
2.622, 2, 5.96663, -8.74515, 8.33636, 150.708, -21.9658, 85.4339
2.624, 2, 5.96663, -8.74515, 8.33636, 150.708, -21.9658, 85.4339
2.627, 2, 6.04446, -8.71328, 8.36359, 150.232, -22.1314, 85.7108
2.632, 2, 6.12106, -8.68142, 8.39173, 149.77, -22.2961, 85.9722
2.636, 2, 6.1963, -8.6497, 8.421, 149.321, -22.4595, 86.219
2.64, 2, 6.27006, -8.61825, 8.45162, 148.887, -22.6209, 86.4517
2.646, 2, 6.41273, -8.55652, 8.51754, 148.059, -22.9355, 86.8777
2.65, 2, 6.48147, -8.52644, 8.55311, 147.666, -23.0879, 87.0721
2.654, 2, 6.54838, -8.49697, 8.59056, 147.285, -23.2366, 87.2548
2.658, 2, 6.6134, -8.46821, 8.62997, 146.918, -23.3811, 87.4263
2.662, 2, 6.67647, -8.4402, 8.67141, 146.563, -23.5213, 87.5871
2.665, 2, 6.67647, -8.4402, 8.67141, 146.563, -23.5213, 87.5871
2.67, 2, 6.79658, -8.38667, 8.76057, 145.891, -23.7876, 87.8781
2.674, 2, 6.85355, -8.36125, 8.80835, 145.573, -23.9134, 88.009
2.678, 2, 6.90841, -8.33678, 8.85829, 145.267, -24.0341, 88.1308
2.682, 2, 6.96115, -8.3133, 8.91038, 144.973, -24.1494, 88.2437
2.684, 2, 6.96115, -8.3133, 8.91038, 144.973, -24.1494, 88.2437
2.689, 2, 7.01175, -8.29083, 8.96464, 144.689, -24.2594, 88.3479
2.694, 2, 7.10651, -8.24903, 9.07959, 144.156, -24.4627, 88.5316
2.698, 2, 7.15066, -8.22973, 9.14024, 143.905, -24.556, 88.6116
2.702, 2, 7.19263, -8.21154, 9.20298, 143.664, -24.6437, 88.684
2.706, 2, 7.23243, -8.19446, 9.26776, 143.434, -24.7257, 88.7489
2.71, 2, 7.27006, -8.1785, 9.33455, 143.213, -24.802, 88.8067
2.714, 2, 7.30551, -8.16368, 9.40332, 143.003, -24.8726, 88.8574
2.718, 2, 7.33881, -8.14999, 9.47402, 142.801, -24.9375, 88.9014
2.722, 2, 7.36997, -8.13744, 9.5466, 142.609, -24.9968, 88.9387
2.726, 2, 7.399, -8.12602, 9.62103, 142.427, -25.0504, 88.9695
2.73, 2, 7.42592, -8.11574, 9.69725, 142.253, -25.0984, 88.9939
2.734, 2, 7.45072, -8.10661, 9.77521, 142.087, -25.1409, 89.0121
2.738, 2, 7.47342, -8.0986, 9.85487, 141.931, -25.1777, 89.0243
2.742, 2, 7.49404, -8.09174, 9.93618, 141.782, -25.2091, 89.0305
2.746, 2, 7.51259, -8.086, 10.0191, 141.642, -25.2351, 89.0308
2.748, 2, 7.51259, -8.086, 10.0191, 141.642, -25.2351, 89.0308
2.752, 2, 7.52909, -8.08138, 10.1035, 141.51, -25.2556, 89.0254
2.755, 2, 7.54358, -8.07786, 10.1895, 141.387, -25.2707, 89.0143
2.761, 2, 7.55606, -8.07545, 10.2769, 141.271, -25.2805, 88.9977
2.766, 2, 7.57512, -8.07385, 10.456, 141.062, -25.2844, 88.9479
2.77, 2, 7.58173, -8.07466, 10.5475, 140.969, -25.2786, 88.915
2.775, 2, 7.58641, -8.07651, 10.6403, 140.883, -25.2676, 88.8768
2.778, 2, 7.5892, -8.07939, 10.7342, 140.805, -25.2517, 88.8333
2.783, 2, 7.59011, -8.08329, 10.8294, 140.734, -25.2308, 88.7846
2.786, 2, 7.58917, -8.08819, 10.9256, 140.67, -25.2049, 88.7309
2.79, 2, 7.58639, -8.09407, 11.023, 140.613, -25.1743, 88.672
2.794, 2, 7.58181, -8.10091, 11.1213, 140.564, -25.1389, 88.6081
2.796, 2, 7.58181, -8.10091, 11.1213, 140.564, -25.1389, 88.6081
2.8, 2, 7.57544, -8.1087, 11.2206, 140.521, -25.0989, 88.5393
2.804, 2, 7.56731, -8.1174, 11.3208, 140.485, -25.0542, 88.4654
2.808, 2, 7.55745, -8.12702, 11.4218, 140.456, -25.005, 88.3866
2.811, 2, 7.54587, -8.13751, 11.5237, 140.434, -24.9515, 88.3028
2.818, 2, 7.51769, -8.16106, 11.7298, 140.41, -24.8313, 88.1206
2.82, 2, 7.51769, -8.16106, 11.7298, 140.41, -24.8313, 88.1206
2.824, 2, 7.50114, -8.17408, 11.8339, 140.408, -24.7649, 88.0221
2.828, 2, 7.48297, -8.18788, 11.9386, 140.413, -24.6944, 87.9188
2.831, 2, 7.46322, -8.20247, 12.0439, 140.424, -24.6199, 87.8104
2.837, 2, 7.44189, -8.2178, 12.1498, 140.442, -24.5414, 87.6971
2.842, 2, 7.39462, -8.25065, 12.363, 140.498, -24.3731, 87.4556
2.846, 2, 7.36871, -8.2681, 12.4703, 140.536, -24.2834, 87.3272
2.848, 2, 7.36871, -8.2681, 12.4703, 140.536, -24.2834, 87.3272
2.852, 2, 7.34134, -8.28621, 12.578, 140.58, -24.1902, 87.1936
2.856, 2, 7.31254, -8.30494, 12.686, 140.631, -24.0934, 87.0548
2.86, 2, 7.28232, -8.32427, 12.7944, 140.689, -23.9932, 86.9107
2.865, 2, 7.25073, -8.34415, 12.903, 140.753, -23.8898, 86.7611
2.87, 2, 7.18348, -8.38551, 13.121, 140.903, -23.6734, 86.4453
2.872, 2, 7.18348, -8.38551, 13.121, 140.903, -23.6734, 86.4453
2.876, 2, 7.14787, -8.40694, 13.2302, 140.987, -23.5607, 86.2788
2.88, 2, 7.11096, -8.42883, 13.3396, 141.079, -23.4451, 86.1064
2.883, 2, 7.0728, -8.45114, 13.449, 141.178, -23.3268, 85.9279
2.889, 2, 7.03342, -8.47384, 13.5585, 141.283, -23.206, 85.7432
2.894, 2, 6.95111, -8.52027, 13.7775, 141.516, -22.9571, 85.3543
2.896, 2, 6.95111, -8.52027, 13.7775, 141.516, -22.9571, 85.3543
2.9, 2, 6.90822, -8.54393, 13.8869, 141.642, -22.8293, 85.1497
2.903, 2, 6.86423, -8.56786, 13.9962, 141.776, -22.6996, 84.938
2.908, 2, 6.81914, -8.592, 14.1053, 141.917, -22.568, 84.7187
2.914, 2, 6.72581, -8.64078, 14.3228, 142.222, -22.3002, 84.2566
2.918, 2, 6.67765, -8.66533, 14.4311, 142.385, -22.1644, 84.0129
2.92, 2, 6.67765, -8.66533, 14.4311, 142.385, -22.1644, 84.0129
2.923, 2, 6.62855, -8.68991, 14.5391, 142.557, -22.0275, 83.76
2.928, 2, 6.57855, -8.71446, 14.6466, 142.736, -21.8898, 83.4976
2.932, 2, 6.52769, -8.73894, 14.7536, 142.923, -21.7516, 83.225
2.937, 2, 6.47601, -8.76328, 14.8601, 143.118, -21.6131, 82.9415
2.942, 2, 6.3704, -8.81127, 15.0712, 143.534, -21.3368, 82.3388
2.944, 2, 6.3704, -8.81127, 15.0712, 143.534, -21.3368, 82.3388
2.948, 2, 6.31658, -8.83476, 15.1755, 143.755, -21.1997, 82.0179
2.952, 2, 6.26221, -8.8578, 15.279, 143.984, -21.0639, 81.6826
2.956, 2, 6.2074, -8.88029, 15.3814, 144.223, -20.9299, 81.3318
2.959, 2, 6.15232, -8.90214, 15.4827, 144.471, -20.7982, 80.9641
2.964, 2, 6.09722, -8.92327, 15.5827, 144.728, -20.6695, 80.5784
2.97, 2, 5.98778, -8.96305, 15.7778, 145.268, -20.424, 79.7485
2.972, 2, 5.98778, -8.96305, 15.7778, 145.268, -20.424, 79.7485
2.976, 2, 5.93364, -8.98149, 15.8724, 145.55, -20.3089, 79.3027
2.98, 2, 5.8799, -8.99875, 15.9646, 145.84, -20.2001, 78.836
2.984, 2, 5.82657, -9.01466, 16.0542, 146.135, -20.0986, 78.3484
2.988, 2, 5.77374, -9.02904, 16.1407, 146.435, -20.0053, 77.8399
2.992, 2, 5.72154, -9.04174, 16.2238, 146.738, -19.9214, 77.3106
2.995, 2, 5.67019, -9.05263, 16.3033, 147.043, -19.8478, 76.7605
3, 2, 5.62003, -9.06162, 16.3789, 147.349, -19.7853, 76.1897
3.004, 2, 5.57138, -9.06869, 16.4502, 147.655, -19.7349, 75.5985
3.009, 2, 5.52446, -9.07378, 16.5171, 147.958, -19.697, 74.9873
3.014, 2, 5.43597, -9.07778, 16.637, 148.551, -19.6613, 73.709
3.016, 2, 5.43597, -9.07778, 16.637, 148.551, -19.6613, 73.709
3.02, 2, 5.3944, -9.07653, 16.69, 148.837, -19.6638, 73.0443
3.024, 2, 5.35471, -9.07308, 16.7383, 149.115, -19.68, 72.3642
3.028, 2, 5.31708, -9.06748, 16.782, 149.383, -19.7096, 71.6699
3.031, 2, 5.28163, -9.05979, 16.8215, 149.641, -19.7523, 70.9624
3.036, 2, 5.24844, -9.05014, 16.8569, 149.887, -19.8073, 70.2429
3.042, 2, 5.18899, -9.02536, 16.9165, 150.339, -19.952, 68.7733
3.044, 2, 5.18899, -9.02536, 16.9165, 150.339, -19.952, 68.7733
3.048, 2, 5.16256, -9.01044, 16.9414, 150.545, -20.04, 68.0265
3.051, 2, 5.13809, -8.99392, 16.9634, 150.736, -20.1372, 67.2739
3.056, 2, 5.11546, -8.97589, 16.983, 150.911, -20.2426, 66.5171
3.06, 2, 5.09456, -8.95646, 17.0004, 151.071, -20.3554, 65.7573
3.064, 2, 5.07538, -8.93576, 17.0161, 151.215, -20.4747, 64.9955
3.068, 2, 5.05784, -8.91395, 17.0305, 151.344, -20.5994, 64.2322
3.071, 2, 5.04186, -8.89117, 17.0438, 151.457, -20.7288, 63.468
3.076, 2, 5.02735, -8.86758, 17.0564, 151.555, -20.862, 62.7032
3.081, 2, 5.01419, -8.84331, 17.0687, 151.638, -20.9982, 61.938
3.086, 2, 4.99144, -8.79325, 17.0936, 151.762, -21.2765, 60.4067
3.088, 2, 4.99144, -8.79325, 17.0936, 151.762, -21.2765, 60.4067
3.092, 2, 4.98161, -8.76772, 17.1069, 151.802, -21.4173, 59.6408
3.096, 2, 4.97264, -8.74199, 17.121, 151.829, -21.5582, 58.8749
3.1, 2, 4.9644, -8.71619, 17.1364, 151.843, -21.6987, 58.1088
3.105, 2, 4.9568, -8.69041, 17.1531, 151.844, -21.8381, 57.3428
3.11, 2, 4.94305, -8.63934, 17.192, 151.806, -22.1115, 55.8106
3.112, 2, 4.94305, -8.63934, 17.192, 151.806, -22.1115, 55.8106
3.116, 2, 4.93675, -8.61423, 17.2146, 151.769, -22.2444, 55.0445
3.12, 2, 4.93072, -8.58955, 17.2396, 151.72, -22.3741, 54.2783
3.124, 2, 4.92493, -8.56538, 17.2672, 151.658, -22.5, 53.5122
3.129, 2, 4.91932, -8.54184, 17.2976, 151.585, -22.6218, 52.7461
3.134, 2, 4.90844, -8.49707, 17.3677, 151.404, -22.8508, 51.2144
3.136, 2, 4.90844, -8.49707, 17.3677, 151.404, -22.8508, 51.2144
3.14, 2, 4.90307, -8.47606, 17.4076, 151.296, -22.9571, 50.4492
3.143, 2, 4.89765, -8.4561, 17.451, 151.177, -23.0574, 49.6851
3.148, 2, 4.89211, -8.43727, 17.4979, 151.048, -23.1511, 48.9226
3.153, 2, 4.88639, -8.41963, 17.5483, 150.909, -23.2379, 48.1627
3.158, 2, 4.87405, -8.38807, 17.6602, 150.602, -23.3893, 46.6546
3.16, 2, 4.87405, -8.38807, 17.6602, 150.602, -23.3893, 46.6546
3.163, 2, 4.86731, -8.37422, 17.7215, 150.435, -23.4532, 45.9089
3.168, 2, 4.86011, -8.36168, 17.7864, 150.26, -23.5089, 45.1705
3.172, 2, 4.85239, -8.35047, 17.8547, 150.078, -23.5562, 44.4406
3.176, 2, 4.8441, -8.3406, 17.9263, 149.889, -23.5949, 43.7206
3.179, 2, 4.8352, -8.33206, 18.0012, 149.695, -23.6251, 43.0117
3.184, 2, 4.82565, -8.32481, 18.079, 149.495, -23.6466, 42.315
3.188, 2, 4.8154, -8.31884, 18.1598, 149.292, -23.6596, 41.6314
3.192, 2, 4.80444, -8.31411, 18.2432, 149.084, -23.6642, 40.9616
3.196, 2, 4.79273, -8.3106, 18.3292, 148.873, -23.6604, 40.3061
3.199, 2, 4.78025, -8.30831, 18.4176, 148.66, -23.6486, 39.6651
3.204, 2, 4.76699, -8.3072, 18.5081, 148.445, -23.6289, 39.0388
3.21, 2, 4.7381, -8.30853, 18.6952, 148.01, -23.5668, 37.8291
3.212, 2, 4.7381, -8.30853, 18.6952, 148.01, -23.5668, 37.8291
3.216, 2, 4.72246, -8.31091, 18.7915, 147.79, -23.5251, 37.2452
3.22, 2, 4.706, -8.31439, 18.8894, 147.57, -23.4764, 36.6747
3.225, 2, 4.68873, -8.31893, 18.9888, 147.35, -23.4212, 36.1172
3.23, 2, 4.65172, -8.33097, 19.1919, 146.908, -23.2921, 35.0393
3.234, 2, 4.63197, -8.33838, 19.2953, 146.687, -23.2187, 34.5181
3.238, 2, 4.6114, -8.34665, 19.3999, 146.467, -23.1397, 34.0081
3.24, 2, 4.6114, -8.34665, 19.3999, 146.467, -23.1397, 34.0081
3.244, 2, 4.58999, -8.35573, 19.5056, 146.246, -23.0553, 33.509
3.248, 2, 4.56775, -8.36558, 19.6122, 146.026, -22.9657, 33.0202
3.252, 2, 4.54467, -8.37615, 19.7197, 145.807, -22.8711, 32.5416
3.255, 2, 4.52077, -8.38739, 19.8281, 145.588, -22.7717, 32.0726
3.26, 2, 4.49603, -8.39927, 19.9373, 145.37, -22.6676, 31.6131
3.264, 2, 4.47047, -8.41173, 20.0472, 145.153, -22.5592, 31.1625
3.27, 2, 4.41688, -8.43828, 20.2689, 144.72, -22.3296, 30.2874
3.272, 2, 4.41688, -8.43828, 20.2689, 144.72, -22.3296, 30.2874
3.276, 2, 4.38886, -8.45228, 20.3806, 144.506, -22.2087, 29.8623
3.28, 2, 4.36003, -8.46672, 20.4928, 144.292, -22.084, 29.445
3.284, 2, 4.33039, -8.48157, 20.6054, 144.079, -21.9557, 29.0354
3.288, 2, 4.29995, -8.49678, 20.7184, 143.868, -21.8237, 28.6332
3.291, 2, 4.26872, -8.51233, 20.8318, 143.657, -21.6883, 28.2381
3.296, 2, 4.2367, -8.52819, 20.9455, 143.447, -21.5496, 27.8501
3.3, 2, 4.20389, -8.54432, 21.0595, 143.239, -21.4077, 27.4687
3.304, 2, 4.17031, -8.5607, 21.1736, 143.032, -21.2627, 27.0939
3.308, 2, 4.13597, -8.5773, 21.288, 142.826, -21.1147, 26.7255
3.312, 2, 4.10086, -8.59409, 21.4025, 142.621, -20.9638, 26.3632
3.318, 2, 4.02838, -8.62814, 21.6319, 142.215, -20.6536, 25.6565
3.32, 2, 4.02838, -8.62814, 21.6319, 142.215, -20.6536, 25.6565
3.324, 2, 3.99102, -8.64536, 21.7467, 142.014, -20.4946, 25.3117
3.328, 2, 3.95293, -8.66266, 21.8615, 141.814, -20.333, 24.9724
3.332, 2, 3.91412, -8.68004, 21.9764, 141.615, -20.169, 24.6385
3.336, 2, 3.87458, -8.69746, 22.0912, 141.417, -20.0026, 24.3098
3.342, 2, 3.79339, -8.73238, 22.3206, 141.026, -19.663, 23.6676
3.346, 2, 3.75175, -8.74982, 22.4351, 140.832, -19.4899, 23.3538
3.35, 2, 3.70942, -8.76723, 22.5495, 140.64, -19.3147, 23.0447
3.354, 2, 3.66641, -8.78459, 22.6638, 140.448, -19.1375, 22.7402
3.357, 2, 3.66641, -8.78459, 22.6638, 140.448, -19.1375, 22.7402
3.362, 2, 3.57838, -8.81909, 22.8919, 140.069, -18.7772, 22.1445
3.364, 2, 3.57838, -8.81909, 22.8919, 140.069, -18.7772, 22.1445
3.368, 2, 3.53338, -8.8362, 23.0056, 139.882, -18.5943, 21.8532
3.372, 2, 3.48773, -8.85318, 23.1191, 139.695, -18.4096, 21.566
3.376, 2, 3.44144, -8.87003, 23.2324, 139.51, -18.2231, 21.2829
3.382, 2, 3.34698, -8.90325, 23.4581, 139.143, -17.8452, 20.7286
3.384, 2, 3.34698, -8.90325, 23.4581, 139.143, -17.8452, 20.7286
3.388, 2, 3.29882, -8.9196, 23.5705, 138.962, -17.6539, 20.4572
3.392, 2, 3.25006, -8.93576, 23.6826, 138.781, -17.461, 20.1895
3.396, 2, 3.20069, -8.95171, 23.7944, 138.602, -17.2666, 19.9255
3.4, 2, 3.15074, -8.96743, 23.9059, 138.424, -17.0708, 19.6651
3.406, 2, 3.04909, -8.99817, 24.1278, 138.072, -16.675, 19.1547
3.41, 2, 2.99741, -9.01316, 24.2382, 137.897, -16.4751, 18.9046
3.412, 2, 2.99741, -9.01316, 24.2382, 137.897, -16.4751, 18.9046
3.416, 2, 2.94517, -9.02788, 24.3482, 137.724, -16.2739, 18.6578
3.42, 2, 2.89239, -9.04231, 24.4578, 137.552, -16.0715, 18.4142
3.424, 2, 2.83906, -9.05645, 24.567, 137.381, -15.8678, 18.1738
3.428, 2, 2.78519, -9.07029, 24.6758, 137.211, -15.6631, 17.9365
3.432, 2, 2.7308, -9.08382, 24.7841, 137.042, -15.4571, 17.7022
3.438, 2, 2.62047, -9.10988, 24.9995, 136.708, -15.042, 17.2426
3.44, 2, 2.62047, -9.10988, 24.9995, 136.708, -15.042, 17.2426
3.444, 2, 2.56455, -9.1224, 25.1066, 136.543, -14.8329, 17.0172
3.448, 2, 2.50813, -9.13457, 25.2131, 136.379, -14.6228, 16.7946
3.452, 2, 2.45123, -9.14638, 25.3192, 136.216, -14.4117, 16.5748
3.456, 2, 2.39385, -9.15781, 25.4249, 136.054, -14.1997, 16.3577
3.46, 2, 2.336, -9.16887, 25.53, 135.893, -13.9867, 16.1433
3.464, 2, 2.27768, -9.17953, 25.6347, 135.733, -13.7729, 15.9315
3.468, 2, 2.21892, -9.1898, 25.7388, 135.574, -13.5583, 15.7224
3.472, 2, 2.1597, -9.19967, 25.8425, 135.416, -13.3428, 15.5158
3.476, 2, 2.10005, -9.20912, 25.9456, 135.26, -13.1265, 15.3117
3.48, 2, 2.03997, -9.21816, 26.0483, 135.104, -12.9095, 15.1101
3.484, 2, 1.97947, -9.22677, 26.1504, 134.95, -12.6917, 14.9109
3.49, 2, 1.85724, -9.24267, 26.353, 134.644, -12.2541, 14.5196
3.494, 2, 1.79552, -9.24996, 26.4535, 134.492, -12.0342, 14.3275
3.498, 2, 1.73342, -9.25679, 26.5535, 134.342, -11.8137, 14.1377
3.502, 2, 1.67094, -9.26317, 26.653, 134.193, -11.5926, 13.9501
3.506, 2, 1.60809, -9.26908, 26.7519, 134.044, -11.371, 13.7648
3.51, 2, 1.54488, -9.27451, 26.8502, 133.897, -11.1487, 13.5816
3.512, 2, 1.54488, -9.27451, 26.8502, 133.897, -11.1487, 13.5816
3.516, 2, 1.48131, -9.27947, 26.948, 133.751, -10.9259, 13.4006
3.52, 2, 1.41739, -9.28394, 27.0452, 133.605, -10.7026, 13.2217
3.524, 2, 1.35314, -9.28793, 27.1419, 133.461, -10.4788, 13.0449
3.529, 2, 1.28855, -9.29142, 27.238, 133.318, -10.2545, 12.8701
3.534, 2, 1.15841, -9.2969, 27.4285, 133.034, -9.80453, 12.5267
3.538, 2, 1.09288, -9.29888, 27.5229, 132.893, -9.57892, 12.358
3.542, 2, 1.02704, -9.30034, 27.6167, 132.754, -9.35292, 12.1912
3.546, 2, 0.960913, -9.30129, 27.71, 132.615, -9.12655, 12.0263
3.55, 2, 0.894498, -9.30171, 27.8026, 132.478, -8.89983, 11.8634
3.554, 2, 0.827806, -9.30161, 27.8947, 132.341, -8.67277, 11.7023
3.556, 2, 0.827806, -9.30161, 27.8947, 132.341, -8.67277, 11.7023
3.56, 2, 0.760844, -9.30098, 27.9862, 132.206, -8.44541, 11.5431
3.564, 2, 0.69362, -9.29982, 28.0772, 132.071, -8.21774, 11.3857
3.568, 2, 0.626142, -9.29811, 28.1675, 131.937, -7.98981, 11.2301
3.573, 2, 0.558417, -9.29587, 28.2573, 131.805, -7.76162, 11.0763
3.578, 2, 0.42226, -9.28973, 28.435, 131.542, -7.30456, 10.774
3.58, 2, 0.42226, -9.28973, 28.435, 131.542, -7.30456, 10.774
3.584, 2, 0.353844, -9.28584, 28.523, 131.412, -7.07572, 10.6254
3.587, 2, 0.285214, -9.2814, 28.6104, 131.283, -6.8467, 10.4785
3.592, 2, 0.216377, -9.27639, 28.6972, 131.154, -6.61752, 10.3334
3.597, 2, 0.147343, -9.27083, 28.7835, 131.027, -6.3882, 10.1898
3.602, 2, 0.00871116, -9.25801, 28.9542, 130.775, -5.92921, 9.90766
3.606, 2, -0.06087, -9.25075, 29.0387, 130.651, -5.69957, 9.769
3.61, 2, -0.130617, -9.24291, 29.1225, 130.527, -5.46987, 9.63192
3.614, 2, -0.200523, -9.23451, 29.2058, 130.405, -5.24011, 9.49642
3.618, 2, -0.270578, -9.22553, 29.2885, 130.283, -5.01032, 9.36247
3.621, 2, -0.270578, -9.22553, 29.2885, 130.283, -5.01032, 9.36247
3.626, 2, -0.411106, -9.20584, 29.4522, 130.042, -4.55069, 9.09916
3.63, 2, -0.481563, -9.19512, 29.5332, 129.923, -4.3209, 8.96978
3.634, 2, -0.552137, -9.18383, 29.6135, 129.805, -4.09115, 8.84189
3.638, 2, -0.622821, -9.17195, 29.6933, 129.687, -3.86144, 8.71547
3.642, 2, -0.693607, -9.15949, 29.7725, 129.571, -3.63181, 8.59051
3.644, 2, -0.693607, -9.15949, 29.7725, 129.571, -3.63181, 8.59051
3.648, 2, -0.764486, -9.14644, 29.8511, 129.455, -3.40226, 8.467
3.652, 2, -0.83545, -9.1328, 29.9292, 129.34, -3.17282, 8.34492
3.656, 2, -0.906491, -9.11858, 30.0067, 129.227, -2.9435, 8.22426
3.66, 2, -0.977602, -9.10376, 30.0836, 129.114, -2.71431, 8.10501
3.664, 2, -1.04877, -9.08836, 30.1599, 129.002, -2.48528, 7.98715
3.67, 2, -1.19127, -9.05579, 30.3108, 128.78, -2.02776, 7.75556
3.674, 2, -1.26257, -9.03861, 30.3855, 128.671, -1.7993, 7.6418
3.678, 2, -1.3339, -9.02085, 30.4595, 128.562, -1.57106, 7.52939
3.683, 2, -1.40526, -9.00249, 30.533, 128.454, -1.34306, 7.41831
3.686, 2, -1.47662, -8.98355, 30.606, 128.348, -1.11532, 7.30855
3.69, 2, -1.54799, -8.96401, 30.6783, 128.242, -0.887852, 7.2001
3.694, 2, -1.61936, -8.94388, 30.7502, 128.137, -0.660674, 7.09295
3.698, 2, -1.69071, -8.92316, 30.8214, 128.032, -0.433803, 6.98709
3.702, 2, -1.76205, -8.90185, 30.8922, 127.929, -0.207257, 6.88251
3.706, 2, -1.83335, -8.87995, 30.9623, 127.827, 0.0189494, 6.7792
3.71, 2, -1.90462, -8.85746, 31.032, 127.725, 0.244798, 6.67715
3.714, 2, -1.97584, -8.83438, 31.1011, 127.624, 0.470272, 6.57634
3.716, 2, -1.97584, -8.83438, 31.1011, 127.624, 0.470272, 6.57634
3.72, 2, -2.04701, -8.81071, 31.1696, 127.525, 0.695354, 6.47678
3.724, 2, -2.11812, -8.78646, 31.2377, 127.426, 0.920028, 6.37845
3.728, 2, -2.18915, -8.76162, 31.3052, 127.328, 1.14428, 6.28134
3.733, 2, -2.26011, -8.7362, 31.3722, 127.23, 1.36808, 6.18545
3.738, 2, -2.40177, -8.68361, 31.5045, 127.039, 1.81431, 5.99727
3.742, 2, -2.47244, -8.65644, 31.57, 126.944, 2.03668, 5.90497
3.747, 2, -2.54301, -8.6287, 31.6349, 126.85, 2.25855, 5.81386
3.75, 2, -2.61346, -8.60037, 31.6993, 126.757, 2.4799, 5.72392
3.754, 2, -2.68377, -8.57148, 31.7632, 126.666, 2.7007, 5.63514
3.758, 2, -2.75396, -8.542, 31.8266, 126.574, 2.92093, 5.54753
3.762, 2, -2.824, -8.51196, 31.8895, 126.484, 3.14059, 5.46108
3.766, 2, -2.89389, -8.48135, 31.9519, 126.395, 3.35966, 5.37577
3.77, 2, -2.96362, -8.45018, 32.0139, 126.307, 3.57811, 5.29161
3.774, 2, -3.03318, -8.41844, 32.0753, 126.219, 3.79593, 5.20858
3.778, 2, -3.10257, -8.38614, 32.1363, 126.133, 4.0131, 5.12669
3.782, 2, -3.17177, -8.35328, 32.1968, 126.047, 4.22961, 5.04591
3.786, 2, -3.24078, -8.31986, 32.2569, 125.962, 4.44544, 4.96626
3.79, 2, -3.30959, -8.28589, 32.3165, 125.878, 4.66057, 4.88773
3.794, 2, -3.37819, -8.25138, 32.3756, 125.795, 4.87498, 4.8103
3.798, 2, -3.44658, -8.21631, 32.4343, 125.713, 5.08866, 4.73398
3.802, 2, -3.51475, -8.1807, 32.4925, 125.632, 5.30158, 4.65876
3.806, 2, -3.58268, -8.14455, 32.5503, 125.552, 5.51373, 4.58463
3.81, 2, -3.65037, -8.10787, 32.6077, 125.473, 5.7251, 4.5116
3.812, 2, -3.65037, -8.10787, 32.6077, 125.473, 5.7251, 4.5116
3.818, 2, -3.785, -8.0329, 32.7211, 125.317, 6.1454, 4.3688
3.822, 2, -3.85193, -7.99463, 32.7772, 125.24, 6.35429, 4.29902
3.826, 2, -3.91858, -7.95583, 32.8329, 125.165, 6.56233, 4.23032
3.83, 2, -3.98495, -7.91652, 32.8882, 125.09, 6.76949, 4.16269
3.834, 2, -4.05103, -7.87669, 32.943, 125.016, 6.97575, 4.09614
3.836, 2, -4.05103, -7.87669, 32.943, 125.016, 6.97575, 4.09614
3.84, 2, -4.11681, -7.83635, 32.9975, 124.944, 7.1811, 4.03066
3.844, 2, -4.18227, -7.79551, 33.0516, 124.872, 7.38552, 3.96624
3.849, 2, -4.24743, -7.75417, 33.1053, 124.801, 7.58899, 3.90289
3.854, 2, -4.37675, -7.67, 33.2116, 124.662, 7.993, 3.77938
3.858, 2, -4.4409, -7.62718, 33.2642, 124.595, 8.1935, 3.71921
3.862, 2, -4.50469, -7.58388, 33.3164, 124.528, 8.39298, 3.66011
3.866, 2, -4.56813, -7.54011, 33.3683, 124.462, 8.59142, 3.60206
3.87, 2, -4.6312, -7.49586, 33.4198, 124.397, 8.78879, 3.54506
3.874, 2, -4.6939, -7.45115, 33.471, 124.333, 8.98508, 3.48913
3.878, 2, -4.75621, -7.40598, 33.5218, 124.27, 9.18027, 3.43425
3.882, 2, -4.81813, -7.36035, 33.5724, 124.208, 9.37435, 3.38042
3.886, 2, -4.87964, -7.31427, 33.6226, 124.148, 9.56728, 3.32765
3.89, 2, -4.94075, -7.26775, 33.6725, 124.088, 9.75906, 3.27594
3.894, 2, -5.00143, -7.22079, 33.7221, 124.029, 9.94966, 3.22528
3.898, 2, -5.06169, -7.1734, 33.7714, 123.972, 10.1391, 3.17568
3.902, 2, -5.12152, -7.12559, 33.8204, 123.915, 10.3272, 3.12714
3.906, 2, -5.1809, -7.07735, 33.8691, 123.86, 10.5142, 3.07965
3.91, 2, -5.23983, -7.0287, 33.9176, 123.805, 10.6999, 3.03323
3.914, 2, -5.29829, -6.97964, 33.9658, 123.752, 10.8843, 2.98787
3.918, 2, -5.35629, -6.93019, 34.0137, 123.7, 11.0674, 2.94358
3.922, 2, -5.41381, -6.88034, 34.0613, 123.649, 11.2492, 2.90035
3.926, 2, -5.47084, -6.8301, 34.1088, 123.599, 11.4297, 2.85819
3.93, 2, -5.52737, -6.77948, 34.1559, 123.55, 11.6088, 2.81711
3.933, 2, -5.52737, -6.77948, 34.1559, 123.55, 11.6088, 2.81711
3.936, 2, -5.5834, -6.72849, 34.2029, 123.502, 11.7866, 2.77709
3.942, 2, -5.69392, -6.62542, 34.2961, 123.41, 12.1378, 2.70031
3.946, 2, -5.74838, -6.57335, 34.3423, 123.366, 12.3113, 2.66355
3.95, 2, -5.80231, -6.52094, 34.3884, 123.323, 12.4833, 2.62787
3.952, 2, -5.80231, -6.52094, 34.3884, 123.323, 12.4833, 2.62787
3.956, 2, -5.85569, -6.4682, 34.4343, 123.281, 12.6539, 2.59329
3.96, 2, -5.90851, -6.41512, 34.48, 123.24, 12.8229, 2.55981
3.964, 2, -5.96076, -6.36173, 34.5255, 123.201, 12.9905, 2.52743
3.968, 2, -6.01244, -6.30802, 34.5709, 123.163, 13.1564, 2.49616
3.974, 2, -6.11404, -6.1997, 34.661, 123.091, 13.4837, 2.43698
3.978, 2, -6.16394, -6.1451, 34.7059, 123.056, 13.6449, 2.40907
3.98, 2, -6.16394, -6.1451, 34.7059, 123.056, 13.6449, 2.40907
3.984, 2, -6.21324, -6.09022, 34.7506, 123.023, 13.8045, 2.3823
3.988, 2, -6.26191, -6.03507, 34.7952, 122.992, 13.9624, 2.35667
3.992, 2, -6.30995, -5.97966, 34.8397, 122.961, 14.1186, 2.33219
3.996, 2, -6.35735, -5.92399, 34.884, 122.932, 14.2732, 2.30887
4.002, 2, -6.4502, -5.81193, 34.9724, 122.878, 14.5771, 2.26572
4.004, 2, -6.4502, -5.81193, 34.9724, 122.878, 14.5771, 2.26572
4.008, 2, -6.49563, -5.75556, 35.0165, 122.853, 14.7264, 2.24591
4.012, 2, -6.54039, -5.69897, 35.0604, 122.83, 14.874, 2.2273
4.016, 2, -6.58445, -5.64217, 35.1043, 122.808, 15.0197, 2.20988
4.02, 2, -6.62783, -5.58517, 35.1481, 122.787, 15.1636, 2.19368
4.026, 2, -6.71244, -5.47061, 35.2355, 122.75, 15.4457, 2.16494
4.028, 2, -6.71244, -5.47061, 35.2355, 122.75, 15.4457, 2.16494
4.032, 2, -6.75366, -5.41307, 35.2791, 122.734, 15.5839, 2.15244
4.036, 2, -6.79415, -5.35538, 35.3227, 122.72, 15.7202, 2.14118
4.04, 2, -6.83389, -5.29753, 35.3663, 122.707, 15.8546, 2.1312
4.044, 2, -6.87288, -5.23954, 35.4099, 122.695, 15.9869, 2.12249
4.048, 2, -6.9111, -5.18143, 35.4534, 122.685, 16.1172, 2.11508
4.052, 2, -6.94854, -5.12319, 35.4969, 122.677, 16.2455, 2.10898
4.056, 2, -6.98519, -5.06485, 35.5404, 122.67, 16.3717, 2.1042
4.06, 2, -7.02105, -5.00641, 35.5839, 122.666, 16.4959, 2.10076
4.064, 2, -7.05609, -4.94788, 35.6275, 122.662, 16.6179, 2.09866
4.068, 2, -7.09031, -4.88927, 35.671, 122.661, 16.7378, 2.09794
4.074, 2, -7.15624, -4.77188, 35.7582, 122.663, 16.971, 2.10067
4.076, 2, -7.15624, -4.77188, 35.7582, 122.663, 16.971, 2.10067
4.08, 2, -7.18793, -4.71312, 35.8019, 122.667, 17.0843, 2.10416
4.084, 2, -7.21875, -4.65433, 35.8456, 122.672, 17.1954, 2.10909
4.088, 2, -7.24869, -4.59551, 35.8894, 122.68, 17.3042, 2.11548
4.092, 2, -7.27774, -4.5367, 35.9332, 122.689, 17.4106, 2.12334
4.098, 2, -7.33312, -4.41908, 36.0211, 122.714, 17.6165, 2.1436
4.1, 2, -7.33312, -4.41908, 36.0211, 122.714, 17.6165, 2.1436
4.104, 2, -7.35942, -4.36032, 36.0652, 122.729, 17.7159, 2.15603
4.108, 2, -7.38478, -4.30159, 36.1094, 122.746, 17.8128, 2.17003
4.112, 2, -7.40918, -4.24292, 36.1537, 122.765, 17.9073, 2.18562
4.116, 2, -7.43261, -4.18432, 36.198, 122.787, 17.9993, 2.20283
4.12, 2, -7.45507, -4.12579, 36.2425, 122.81, 18.0887, 2.22168
4.124, 2, -7.47652, -4.06736, 36.2871, 122.836, 18.1756, 2.2422
4.128, 2, -7.49697, -4.00904, 36.3318, 122.864, 18.2599, 2.26442
4.132, 2, -7.51639, -3.95084, 36.3767, 122.894, 18.3416, 2.28836
4.136, 2, -7.53477, -3.89277, 36.4217, 122.926, 18.4206, 2.31406
4.14, 2, -7.55209, -3.83485, 36.4668, 122.961, 18.497, 2.34154
4.144, 2, -7.56835, -3.77709, 36.5121, 122.998, 18.5706, 2.37084
4.148, 2, -7.58352, -3.71951, 36.5575, 123.038, 18.6414, 2.40199
4.152, 2, -7.5976, -3.66212, 36.603, 123.08, 18.7095, 2.43503
4.156, 2, -7.61055, -3.60493, 36.6487, 123.124, 18.7747, 2.46998
4.16, 2, -7.62237, -3.54797, 36.6946, 123.171, 18.837, 2.50689
4.164, 2, -7.63304, -3.49124, 36.7407, 123.221, 18.8964, 2.54579
4.168, 2, -7.64254, -3.43476, 36.7869, 123.273, 18.9529, 2.58672
4.172, 2, -7.65086, -3.37855, 36.8332, 123.328, 19.0064, 2.62972
4.176, 2, -7.65798, -3.32261, 36.8798, 123.386, 19.0568, 2.67483
4.18, 2, -7.66388, -3.26698, 36.9265, 123.446, 19.1042, 2.7221
4.184, 2, -7.66854, -3.21166, 36.9734, 123.51, 19.1484, 2.77156
4.188, 2, -7.67194, -3.15667, 37.0204, 123.576, 19.1895, 2.82326
4.194, 2, -7.67491, -3.04775, 37.1151, 123.718, 19.2621, 2.93358
4.196, 2, -7.67491, -3.04775, 37.1151, 123.718, 19.2621, 2.93358
4.2, 2, -7.67443, -2.99385, 37.1626, 123.793, 19.2935, 2.99229
4.204, 2, -7.67263, -2.94035, 37.2104, 123.872, 19.3216, 3.05344
4.208, 2, -7.66947, -2.88726, 37.2583, 123.954, 19.3463, 3.11707
4.212, 2, -7.66494, -2.8346, 37.3063, 124.039, 19.3676, 3.18324
4.218, 2, -7.65169, -2.73065, 37.403, 124.22, 19.3997, 3.32342
4.22, 2, -7.65169, -2.73065, 37.403, 124.22, 19.3997, 3.32342
4.224, 2, -7.64293, -2.67939, 37.4515, 124.315, 19.4105, 3.39754
4.228, 2, -7.63272, -2.62864, 37.5002, 124.415, 19.4178, 3.47443
4.232, 2, -7.62105, -2.5784, 37.549, 124.517, 19.4214, 3.55414
4.236, 2, -7.60788, -2.5287, 37.598, 124.624, 19.4213, 3.63675
4.242, 2, -7.57699, -2.43097, 37.6962, 124.848, 19.41, 3.81087
4.244, 2, -7.57699, -2.43097, 37.6962, 124.848, 19.41, 3.81087
4.248, 2, -7.55923, -2.38299, 37.7455, 124.966, 19.3987, 3.90252
4.252, 2, -7.5399, -2.33561, 37.7949, 125.089, 19.3835, 3.99732
4.256, 2, -7.51898, -2.28886, 37.8444, 125.215, 19.3645, 4.09534
4.26, 2, -7.49646, -2.24275, 37.8939, 125.345, 19.3415, 4.19665
4.266, 2, -7.44652, -2.15252, 37.9931, 125.619, 19.2838, 4.40941
4.268, 2, -7.44652, -2.15252, 37.9931, 125.619, 19.2838, 4.40941
4.272, 2, -7.41907, -2.10844, 38.0427, 125.763, 19.2489, 4.52101
4.276, 2, -7.38995, -2.06507, 38.0923, 125.911, 19.21, 4.63618
4.28, 2, -7.35913, -2.02243, 38.1419, 126.063, 19.167, 4.75499
4.284, 2, -7.32662, -1.98053, 38.1915, 126.221, 19.12, 4.87753
4.29, 2, -7.25643, -1.899, 38.2904, 126.55, 19.0135, 5.13405
4.292, 2, -7.25643, -1.899, 38.2904, 126.55, 19.0135, 5.13405
4.296, 2, -7.21873, -1.85941, 38.3396, 126.722, 18.9541, 5.26818
4.3, 2, -7.17929, -1.82062, 38.3888, 126.898, 18.8904, 5.40631
4.304, 2, -7.13809, -1.78263, 38.4378, 127.08, 18.8227, 5.54853
4.308, 2, -7.09513, -1.74546, 38.4865, 127.267, 18.7508, 5.6949
4.314, 2, -7.00393, -1.67363, 38.5834, 127.657, 18.5945, 6.00037
4.317, 2, -7.00393, -1.67363, 38.5834, 127.657, 18.5945, 6.00037
4.322, 2, -6.90568, -1.6052, 38.6791, 128.067, 18.4218, 6.32328
4.326, 2, -6.85392, -1.57227, 38.7264, 128.281, 18.3293, 6.49143
4.329, 2, -6.85392, -1.57227, 38.7264, 128.281, 18.3293, 6.49143
4.334, 2, -6.74516, -1.50903, 38.8198, 128.725, 18.1322, 6.84145
4.338, 2, -6.68818, -1.47871, 38.8659, 128.955, 18.0277, 7.02344
4.341, 2, -6.68818, -1.47871, 38.8659, 128.955, 18.0277, 7.02344
4.346, 2, -6.56911, -1.42071, 38.9565, 129.432, 17.8072, 7.40164
4.349, 2, -6.56911, -1.42071, 38.9565, 129.432, 17.8072, 7.40164
4.352, 2, -6.50704, -1.39302, 39.0009, 129.679, 17.6913, 7.59797
4.358, 2, -6.37796, -1.34025, 39.0881, 130.191, 17.4486, 8.00533
4.361, 2, -6.37796, -1.34025, 39.0881, 130.191, 17.4486, 8.00533
4.366, 2, -6.24247, -1.29091, 39.1725, 130.726, 17.1919, 8.43258
4.368, 2, -6.24247, -1.29091, 39.1725, 130.726, 17.1919, 8.43258
4.372, 2, -6.17239, -1.26751, 39.2136, 131.003, 17.0587, 8.65377
4.378, 2, -6.02774, -1.22321, 39.2936, 131.573, 16.7828, 9.11148
4.381, 2, -6.02774, -1.22321, 39.2936, 131.573, 16.7828, 9.11148
4.386, 2, -5.87735, -1.18214, 39.3703, 132.168, 16.4955, 9.58987
4.389, 2, -5.87735, -1.18214, 39.3703, 132.168, 16.4955, 9.58987
4.394, 2, -5.72155, -1.1442, 39.4435, 132.786, 16.1978, 10.0892
4.398, 2, -5.64173, -1.12637, 39.4787, 133.104, 16.0455, 10.3468
4.401, 2, -5.64173, -1.12637, 39.4787, 133.104, 16.0455, 10.3468
4.406, 2, -5.4785, -1.09288, 39.5464, 133.758, 15.7347, 10.878
4.409, 2, -5.4785, -1.09288, 39.5464, 133.758, 15.7347, 10.878
4.414, 2, -5.3108, -1.06216, 39.6102, 134.436, 15.417, 11.4307
4.418, 2, -5.2254, -1.0478, 39.6406, 134.785, 15.256, 11.7153
4.421, 2, -5.2254, -1.0478, 39.6406, 134.785, 15.256, 11.7153
4.426, 2, -5.05175, -1.02096, 39.6985, 135.499, 14.9308, 12.3009
4.429, 2, -5.05175, -1.02096, 39.6985, 135.499, 14.9308, 12.3009
4.434, 2, -4.87468, -0.996507, 39.7526, 136.239, 14.6026, 12.9088
4.438, 2, -4.785, -0.985121, 39.7781, 136.618, 14.438, 13.2212
4.441, 2, -4.785, -0.985121, 39.7781, 136.618, 14.438, 13.2212
4.446, 2, -4.60361, -0.963931, 39.8264, 137.395, 14.1088, 13.8631
4.45, 2, -4.51202, -0.954089, 39.8491, 137.794, 13.9447, 14.1928
4.453, 2, -4.51202, -0.954089, 39.8491, 137.794, 13.9447, 14.1928
4.458, 2, -4.32729, -0.935819, 39.892, 138.609, 13.6187, 14.8699
4.461, 2, -4.32729, -0.935819, 39.892, 138.609, 13.6187, 14.8699
4.466, 2, -4.14087, -0.919318, 39.9316, 139.452, 13.2975, 15.5711
4.47, 2, -4.04716, -0.911692, 39.9503, 139.884, 13.1394, 15.931
4.473, 2, -4.04716, -0.911692, 39.9503, 139.884, 13.1394, 15.931
4.478, 2, -3.85895, -0.897616, 39.9856, 140.768, 12.8295, 16.6698
4.481, 2, -3.85895, -0.897616, 39.9856, 140.768, 12.8295, 16.6698
4.486, 2, -3.66991, -0.885016, 40.0186, 141.682, 12.53, 17.4347
4.488, 2, -3.66991, -0.885016, 40.0186, 141.682, 12.53, 17.4347
4.494, 2, -3.48049, -0.873821, 40.0499, 142.626, 12.2436, 18.2267
4.498, 2, -3.38578, -0.868732, 40.065, 143.11, 12.106, 18.6331
4.501, 2, -3.38578, -0.868732, 40.065, 143.11, 12.106, 18.6331
4.506, 2, -3.19667, -0.85955, 40.0946, 144.102, 11.844, 19.467
4.51, 2, -3.10235, -0.855452, 40.1093, 144.61, 11.7204, 19.8945
4.513, 2, -3.10235, -0.855452, 40.1093, 144.61, 11.7204, 19.8945
4.518, 2, -2.91413, -0.848227, 40.1389, 145.651, 11.4897, 20.7705
4.521, 2, -2.91413, -0.848227, 40.1389, 145.651, 11.4897, 20.7705
4.526, 2, -2.72647, -0.842306, 40.1697, 146.724, 11.284, 21.6741
4.53, 2, -2.63293, -0.83985, 40.1857, 147.273, 11.1917, 22.136
4.533, 2, -2.63293, -0.83985, 40.1857, 147.273, 11.1917, 22.136
4.538, 2, -2.44665, -0.835969, 40.2198, 148.396, 11.0305, 23.0803
4.542, 2, -2.35405, -0.834557, 40.238, 148.97, 10.9625, 23.5626
4.546, 2, -2.26188, -0.833508, 40.2573, 149.553, 10.9036, 24.0516
4.55, 2, -2.17013, -0.832829, 40.2777, 150.144, 10.8543, 24.5474
4.553, 2, -2.17013, -0.832829, 40.2777, 150.144, 10.8543, 24.5474
4.558, 2, -1.9877, -0.8326, 40.3225, 151.354, 10.7864, 25.5589
4.562, 2, -1.89701, -0.83307, 40.3472, 151.972, 10.7688, 26.0743
4.566, 2, -1.80671, -0.833944, 40.3736, 152.599, 10.7628, 26.5961
4.57, 2, -1.71681, -0.835227, 40.4018, 153.236, 10.7687, 27.1239
4.573, 2, -1.71681, -0.835227, 40.4018, 153.236, 10.7687, 27.1239
4.578, 2, -1.53824, -0.83903, 40.4641, 154.535, 10.8184, 28.197
4.582, 2, -1.44959, -0.841558, 40.4984, 155.197, 10.863, 28.7415
4.586, 2, -1.36127, -0.844505, 40.535, 155.868, 10.9212, 29.2906
4.59, 2, -1.27317, -0.847866, 40.5739, 156.547, 10.9935, 29.8438
4.593, 2, -1.27317, -0.847866, 40.5739, 156.547, 10.9935, 29.8438
4.598, 2, -1.09728, -0.855806, 40.6589, 157.926, 11.1807, 30.9598
4.602, 2, -1.00944, -0.860369, 40.7051, 158.626, 11.2961, 31.521
4.605, 2, -1.00944, -0.860369, 40.7051, 158.626, 11.2961, 31.521
4.61, 2, -0.833865, -0.870614, 40.8048, 160.042, 11.5704, 32.6464
4.613, 2, -0.833865, -0.870614, 40.8048, 160.042, 11.5704, 32.6464
4.618, 2, -0.658178, -0.882215, 40.9139, 161.475, 11.9021, 33.7702
4.622, 2, -0.570187, -0.88847, 40.9718, 162.196, 12.0888, 34.3294
4.625, 2, -0.570187, -0.88847, 40.9718, 162.196, 12.0888, 34.3294
4.63, 2, -0.393504, -0.901754, 41.0937, 163.645, 12.5026, 35.4379
4.634, 2, -0.304699, -0.908727, 41.1575, 164.371, 12.7286, 35.9856
4.637, 2, -0.304699, -0.908727, 41.1575, 164.371, 12.7286, 35.9856
4.642, 2, -0.126033, -0.923203, 41.2898, 165.822, 13.2164, 37.0641
4.643, 2, -0.126033, -0.923203, 41.2898, 165.822, 13.2164, 37.0641
4.648, 2, -0.03607, -0.930653, 41.358, 166.546, 13.477, 37.5936
4.652, 2, 0.0543986, -0.938209, 41.4273, 167.269, 13.748, 38.1158
4.656, 2, 0.145432, -0.945848, 41.4974, 167.99, 14.0287, 38.6301
4.66, 2, 0.237085, -0.953553, 41.5682, 168.708, 14.3184, 39.1362
4.666, 2, 0.422476, -0.969097, 41.7108, 170.135, 14.9223, 40.1221
4.668, 2, 0.422476, -0.969097, 41.7108, 170.135, 14.9223, 40.1221
4.672, 2, 0.516315, -0.976912, 41.7822, 170.843, 15.2351, 40.6011
4.676, 2, 0.61096, -0.984749, 41.8533, 171.547, 15.5542, 41.0707
4.68, 2, 0.706431, -0.992608, 41.924, 172.247, 15.8789, 41.5304
4.684, 2, 0.802749, -1.00049, 41.994, 172.942, 16.2085, 41.9802
4.69, 2, 0.997945, -1.01636, 42.1309, 174.317, 16.8796, 42.8493
4.692, 2, 0.997945, -1.01636, 42.1309, 174.317, 16.8796, 42.8493
4.696, 2, 1.09679, -1.02438, 42.1975, 174.996, 17.2196, 43.2686
4.7, 2, 1.19641, -1.03249, 42.2626, 175.669, 17.5616, 43.6776
4.704, 2, 1.29676, -1.04071, 42.3259, 176.335, 17.9051, 44.0763
4.708, 2, 1.39775, -1.04907, 42.3872, 176.996, 18.2492, 44.4646
4.714, 2, 1.60126, -1.06637, 42.5035, 178.294, 18.937, 45.2107
4.717, 2, 1.60126, -1.06637, 42.5035, 178.294, 18.937, 45.2107
4.72, 2, 1.70357, -1.0754, 42.5581, 178.932, 19.2793, 45.5685
4.724, 2, 1.80614, -1.08473, 42.6101, 179.562, 19.6198, 45.9162
4.728, 2, 1.9089, -1.09443, 42.6595, 180.184, 19.9579, 46.254
4.732, 2, 2.01179, -1.10453, 42.706, 180.797, 20.293, 46.582
4.736, 2, 2.11477, -1.1151, 42.7497, 181.401, 20.6246, 46.9003
4.74, 2, 2.21775, -1.12619, 42.7904, 181.996, 20.9521, 47.2091
4.746, 2, 2.42337, -1.15016, 42.8626, 183.156, 21.5928, 47.7985
4.749, 2, 2.42337, -1.15016, 42.8626, 183.156, 21.5928, 47.7985
4.752, 2, 2.52573, -1.16314, 42.894, 183.72, 21.9051, 48.0796
4.756, 2, 2.62758, -1.17687, 42.9222, 184.274, 22.2114, 48.3517
4.76, 2, 2.72878, -1.1914, 42.9472, 184.817, 22.5113, 48.615
4.764, 2, 2.82915, -1.20678, 42.9691, 185.349, 22.8044, 48.8698
4.768, 2, 2.92854, -1.22306, 42.9877, 185.869, 23.0904, 49.1162
4.774, 2, 3.1238, -1.25851, 43.0155, 186.874, 23.6394, 49.5845
4.775, 2, 3.1238, -1.25851, 43.0155, 186.874, 23.6394, 49.5845
4.78, 2, 3.21938, -1.27777, 43.0248, 187.358, 23.902, 49.8068
4.784, 2, 3.31342, -1.2981, 43.031, 187.829, 24.1562, 50.0214
4.788, 2, 3.40578, -1.31955, 43.0343, 188.288, 24.4019, 50.2286
4.792, 2, 3.49635, -1.34213, 43.0347, 188.734, 24.6388, 50.4286
4.797, 2, 3.58501, -1.36588, 43.0323, 189.166, 24.8669, 50.6216
4.8, 2, 3.67168, -1.39082, 43.0271, 189.586, 25.0859, 50.8077
4.804, 2, 3.75624, -1.41697, 43.0194, 189.993, 25.2959, 50.9872
4.808, 2, 3.83862, -1.44434, 43.0091, 190.387, 25.4967, 51.1603
4.812, 2, 3.91874, -1.47294, 42.9963, 190.767, 25.6883, 51.3272
4.816, 2, 3.99654, -1.50277, 42.9813, 191.135, 25.8708, 51.488
4.822, 2, 4.14495, -1.56614, 42.9446, 191.831, 26.2084, 51.7927
4.824, 2, 4.14495, -1.56614, 42.9446, 191.831, 26.2084, 51.7927
4.828, 2, 4.21549, -1.59966, 42.9232, 192.16, 26.3636, 51.9368
4.832, 2, 4.28353, -1.6344, 42.8999, 192.476, 26.5099, 52.0758
4.836, 2, 4.34906, -1.67034, 42.8748, 192.78, 26.6473, 52.2097
4.84, 2, 4.41207, -1.70746, 42.8481, 193.071, 26.776, 52.3389
4.846, 2, 4.53053, -1.78516, 42.7898, 193.619, 27.0079, 52.5837
4.847, 2, 4.53053, -1.78516, 42.7898, 193.619, 27.0079, 52.5837
4.852, 2, 4.58599, -1.82569, 42.7585, 193.875, 27.1114, 52.6996
4.856, 2, 4.63895, -1.86731, 42.7259, 194.12, 27.2067, 52.8114
4.86, 2, 4.68943, -1.90998, 42.692, 194.354, 27.2942, 52.9194
4.864, 2, 4.73747, -1.95367, 42.657, 194.577, 27.3738, 53.0236
4.87, 2, 4.82631, -2.04401, 42.5839, 194.991, 27.5107, 53.2214
4.872, 2, 4.82631, -2.04401, 42.5839, 194.991, 27.5107, 53.2214
4.876, 2, 4.86719, -2.09059, 42.5458, 195.183, 27.5682, 53.3153
4.88, 2, 4.90576, -2.13806, 42.5069, 195.365, 27.6187, 53.406
4.884, 2, 4.94206, -2.18639, 42.4672, 195.538, 27.6623, 53.4936
4.888, 2, 4.97613, -2.23554, 42.4267, 195.701, 27.6993, 53.5784
4.894, 2, 5.03777, -2.3362, 42.3437, 196.001, 27.754, 53.7396
4.896, 2, 5.03777, -2.3362, 42.3437, 196.001, 27.754, 53.7396
4.9, 2, 5.06544, -2.38765, 42.3013, 196.138, 27.7721, 53.8163
4.904, 2, 5.09106, -2.43979, 42.2583, 196.267, 27.7841, 53.8906
4.908, 2, 5.11468, -2.49259, 42.2147, 196.387, 27.7904, 53.9624
4.912, 2, 5.13635, -2.54603, 42.1706, 196.5, 27.791, 54.0319
4.918, 2, 5.17404, -2.65468, 42.0811, 196.703, 27.7757, 54.1645
4.919, 2, 5.17404, -2.65468, 42.0811, 196.703, 27.7757, 54.1645
4.924, 2, 5.19015, -2.70982, 42.0357, 196.794, 27.7602, 54.2276
4.928, 2, 5.20449, -2.76547, 41.9899, 196.877, 27.7396, 54.2888
4.932, 2, 5.21711, -2.82161, 41.9438, 196.954, 27.714, 54.348
4.936, 2, 5.22806, -2.87821, 41.8972, 197.024, 27.6835, 54.4054
4.94, 2, 5.23738, -2.93523, 41.8504, 197.088, 27.6484, 54.461
4.944, 2, 5.24511, -2.99266, 41.8032, 197.146, 27.6086, 54.5148
4.948, 2, 5.25129, -3.05045, 41.7557, 197.197, 27.5644, 54.567
4.952, 2, 5.25596, -3.1086, 41.7079, 197.242, 27.5158, 54.6175
4.956, 2, 5.25917, -3.16707, 41.6598, 197.282, 27.463, 54.6664
4.96, 2, 5.26095, -3.22584, 41.6115, 197.316, 27.406, 54.7138
4.964, 2, 5.26135, -3.28489, 41.5628, 197.345, 27.3449, 54.7597
4.968, 2, 5.2604, -3.34421, 41.514, 197.368, 27.2799, 54.8041
4.972, 2, 5.25813, -3.40376, 41.4648, 197.386, 27.211, 54.847
4.976, 2, 5.25459, -3.46353, 41.4154, 197.399, 27.1384, 54.8886
4.98, 2, 5.24981, -3.52349, 41.3657, 197.407, 27.062, 54.9287
4.984, 2, 5.24382, -3.58363, 41.3158, 197.41, 26.982, 54.9676
4.99, 2, 5.22835, -3.70434, 41.2153, 197.402, 26.8116, 55.0412
4.993, 2, 5.22835, -3.70434, 41.2153, 197.402, 26.8116, 55.0412
4.996, 2, 5.21893, -3.76489, 41.1647, 197.391, 26.7212, 55.0761
5, 2, 5.20843, -3.82552, 41.1138, 197.376, 26.6276, 55.1098
5.004, 2, 5.19688, -3.88624, 41.0626, 197.356, 26.5306, 55.1422
5.008, 2, 5.18431, -3.94703, 41.0112, 197.333, 26.4306, 55.1734
5.012, 2, 5.17076, -4.00785, 40.9596, 197.305, 26.3274, 55.2034
5.018, 2, 5.14077, -4.12958, 40.8555, 197.237, 26.1119, 55.2598
5.02, 2, 5.14077, -4.12958, 40.8555, 197.237, 26.1119, 55.2598
5.024, 2, 5.12441, -4.19046, 40.8031, 197.198, 25.9997, 55.2862
5.028, 2, 5.10716, -4.25131, 40.7504, 197.154, 25.8846, 55.3115
5.032, 2, 5.08906, -4.31214, 40.6974, 197.107, 25.7667, 55.3357
5.036, 2, 5.07013, -4.37292, 40.6442, 197.057, 25.646, 55.3587
5.04, 2, 5.05039, -4.43365, 40.5907, 197.003, 25.5226, 55.3806
5.044, 2, 5.02988, -4.4943, 40.5368, 196.945, 25.3965, 55.4014
5.048, 2, 5.00861, -4.55488, 40.4827, 196.884, 25.2678, 55.4211
5.052, 2, 4.98662, -4.61535, 40.4283, 196.819, 25.1365, 55.4396
5.056, 2, 4.96391, -4.67571, 40.3735, 196.752, 25.0026, 55.4571
5.06, 2, 4.94051, -4.73596, 40.3185, 196.681, 24.8663, 55.4734
5.064, 2, 4.91646, -4.79607, 40.2631, 196.607, 24.7275, 55.4887
5.068, 2, 4.89176, -4.85603, 40.2074, 196.53, 24.5862, 55.5028
5.072, 2, 4.86644, -4.91584, 40.1513, 196.45, 24.4426, 55.5159
5.076, 2, 4.84052, -4.97548, 40.0949, 196.367, 24.2967, 55.5278
5.08, 2, 4.81402, -5.03494, 40.0382, 196.281, 24.1484, 55.5387
5.084, 2, 4.78696, -5.09421, 39.9811, 196.192, 23.9978, 55.5484
5.09, 2, 4.73125, -5.21213, 39.8658, 196.006, 23.69, 55.5645
5.091, 2, 4.73125, -5.21213, 39.8658, 196.006, 23.69, 55.5645
5.096, 2, 4.70263, -5.27077, 39.8075, 195.909, 23.5328, 55.5709
5.1, 2, 4.67352, -5.32918, 39.7489, 195.809, 23.3734, 55.5762
5.104, 2, 4.64396, -5.38734, 39.6899, 195.707, 23.2119, 55.5804
5.108, 2, 4.61395, -5.44526, 39.6304, 195.602, 23.0484, 55.5834
5.114, 2, 4.55267, -5.5603, 39.5103, 195.384, 22.715, 55.586
5.116, 2, 4.55267, -5.5603, 39.5103, 195.384, 22.715, 55.586
5.12, 2, 4.52145, -5.61741, 39.4496, 195.272, 22.5453, 55.5855
5.124, 2, 4.48987, -5.67423, 39.3885, 195.157, 22.3736, 55.5839
5.128, 2, 4.45793, -5.73075, 39.3269, 195.039, 22.2, 55.5812
5.132, 2, 4.42567, -5.78698, 39.2649, 194.92, 22.0244, 55.5772
5.136, 2, 4.39309, -5.84288, 39.2023, 194.798, 21.8469, 55.572
5.14, 2, 4.36022, -5.89847, 39.1394, 194.674, 21.6675, 55.5657
5.144, 2, 4.32706, -5.95373, 39.0759, 194.547, 21.4863, 55.5581
5.148, 2, 4.29363, -6.00865, 39.012, 194.419, 21.3032, 55.5493
5.152, 2, 4.25994, -6.06322, 38.9476, 194.288, 21.1183, 55.5392
5.156, 2, 4.22602, -6.11744, 38.8826, 194.155, 20.9315, 55.5279
5.162, 2, 4.1575, -6.22479, 38.7513, 193.883, 20.5528, 55.5015
5.165, 2, 4.1575, -6.22479, 38.7513, 193.883, 20.5528, 55.5015
5.17, 2, 4.08821, -6.33064, 38.6178, 193.603, 20.167, 55.4699
5.172, 2, 4.08821, -6.33064, 38.6178, 193.603, 20.167, 55.4699
5.176, 2, 4.05331, -6.38298, 38.5502, 193.46, 19.9716, 55.4521
5.18, 2, 4.01826, -6.43492, 38.4822, 193.315, 19.7745, 55.4329
5.184, 2, 3.98308, -6.48646, 38.4135, 193.169, 19.5757, 55.4124
5.189, 2, 3.94778, -6.53759, 38.3443, 193.02, 19.3753, 55.3905
5.192, 2, 3.91237, -6.58831, 38.2746, 192.869, 19.1732, 55.3673
5.196, 2, 3.87688, -6.63859, 38.2042, 192.717, 18.9695, 55.3426
5.2, 2, 3.84131, -6.68845, 38.1333, 192.563, 18.7642, 55.3165
5.204, 2, 3.80568, -6.73787, 38.0618, 192.407, 18.5574, 55.2889
5.208, 2, 3.77, -6.78685, 37.9898, 192.25, 18.349, 55.2599
5.212, 2, 3.7343, -6.83537, 37.9171, 192.091, 18.139, 55.2294
5.216, 2, 3.69858, -6.88344, 37.8438, 191.93, 17.9275, 55.1974
5.22, 2, 3.66285, -6.93105, 37.7699, 191.767, 17.7145, 55.1638
5.224, 2, 3.62714, -6.9782, 37.6954, 191.603, 17.5, 55.1287
5.228, 2, 3.59145, -7.02486, 37.6203, 191.437, 17.2839, 55.0921
5.232, 2, 3.5558, -7.07105, 37.5445, 191.27, 17.0665, 55.0538
5.236, 2, 3.52021, -7.11676, 37.4681, 191.101, 16.8476, 55.014
5.242, 2, 3.44923, -7.20669, 37.3134, 190.759, 16.4054, 54.9293
5.246, 2, 3.41387, -7.25091, 37.2351, 190.586, 16.1822, 54.8845
5.248, 2, 3.41387, -7.25091, 37.2351, 190.586, 16.1822, 54.8845
5.252, 2, 3.37862, -7.29462, 37.1561, 190.411, 15.9576, 54.8379
5.256, 2, 3.34348, -7.33783, 37.0765, 190.235, 15.7316, 54.7897
5.26, 2, 3.30847, -7.38051, 36.9962, 190.058, 15.5043, 54.7396
5.264, 2, 3.27361, -7.42268, 36.9153, 189.879, 15.2756, 54.6878
5.27, 2, 3.20435, -7.50543, 36.7514, 189.518, 14.8142, 54.5788
5.272, 2, 3.20435, -7.50543, 36.7514, 189.518, 14.8142, 54.5788
5.276, 2, 3.16998, -7.546, 36.6684, 189.335, 14.5816, 54.5215
5.28, 2, 3.1358, -7.58604, 36.5848, 189.152, 14.3476, 54.4624
5.284, 2, 3.10182, -7.62553, 36.5004, 188.967, 14.1124, 54.4013
5.288, 2, 3.06806, -7.66447, 36.4154, 188.78, 13.8759, 54.3383
5.292, 2, 3.03452, -7.70287, 36.3297, 188.593, 13.6382, 54.2734
5.298, 2, 2.96819, -7.77798, 36.1563, 188.215, 13.159, 54.1375
5.302, 2, 2.93542, -7.81469, 36.0685, 188.024, 12.9176, 54.0665
5.304, 2, 2.93542, -7.81469, 36.0685, 188.024, 12.9176, 54.0665
5.308, 2, 2.90293, -7.85084, 35.98, 187.833, 12.675, 53.9935
5.312, 2, 2.87073, -7.88641, 35.8909, 187.64, 12.4313, 53.9183
5.316, 2, 2.83882, -7.92142, 35.801, 187.446, 12.1864, 53.841
5.32, 2, 2.80724, -7.95584, 35.7104, 187.252, 11.9403, 53.7616
5.327, 2, 2.74504, -8.02294, 35.5272, 186.859, 11.4449, 53.5962
5.33, 2, 2.71445, -8.05562, 35.4346, 186.662, 11.1955, 53.5101
5.334, 2, 2.68421, -8.0877, 35.3412, 186.464, 10.945, 53.4217
5.338, 2, 2.65434, -8.11919, 35.2471, 186.265, 10.6935, 53.3311
5.342, 2, 2.62485, -8.15009, 35.1524, 186.065, 10.4409, 53.2381
5.346, 2, 2.59574, -8.18039, 35.0569, 185.864, 10.1873, 53.1427
5.349, 2, 2.59574, -8.18039, 35.0569, 185.864, 10.1873, 53.1427
5.354, 2, 2.5387, -8.23919, 34.8639, 185.46, 9.67708, 52.9448
5.358, 2, 2.51079, -8.26769, 34.7664, 185.257, 9.42049, 52.8422
5.362, 2, 2.4833, -8.29558, 34.6682, 185.053, 9.16295, 52.7371
5.366, 2, 2.45624, -8.32287, 34.5692, 184.849, 8.90446, 52.6294
5.369, 2, 2.45624, -8.32287, 34.5692, 184.849, 8.90446, 52.6294
5.374, 2, 2.40343, -8.37562, 34.3693, 184.438, 8.38474, 52.4065
5.378, 2, 2.3777, -8.40108, 34.2684, 184.232, 8.12354, 52.2911
5.382, 2, 2.35242, -8.42593, 34.1667, 184.025, 7.86148, 52.173
5.386, 2, 2.32761, -8.45016, 34.0644, 183.818, 7.59857, 52.0523
5.39, 2, 2.30327, -8.47379, 33.9614, 183.61, 7.33483, 51.9289
5.394, 2, 2.27941, -8.4968, 33.8577, 183.402, 7.07028, 51.8028
5.398, 2, 2.25604, -8.5192, 33.7534, 183.193, 6.80495, 51.6738
5.402, 2, 2.23316, -8.54098, 33.6484, 182.984, 6.53885, 51.5421
5.406, 2, 2.21077, -8.56216, 33.5428, 182.774, 6.27201, 51.4075
5.41, 2, 2.18888, -8.58272, 33.4366, 182.564, 6.00444, 51.2701
5.414, 2, 2.1675, -8.60266, 33.3296, 182.353, 5.73617, 51.1297
5.418, 2, 2.14663, -8.622, 33.2221, 182.142, 5.46722, 50.9865
5.421, 2, 2.14663, -8.622, 33.2221, 182.142, 5.46722, 50.9865
5.426, 2, 2.10644, -8.65884, 33.0052, 181.719, 4.92736, 50.691
5.43, 2, 2.08713, -8.67635, 32.8958, 181.507, 4.6565, 50.5388
5.433, 2, 2.08713, -8.67635, 32.8958, 181.507, 4.6565, 50.5388
5.438, 2, 2.05009, -8.70955, 32.6751, 181.083, 4.11303, 50.225
5.44, 2, 2.05009, -8.70955, 32.6751, 181.083, 4.11303, 50.225
5.444, 2, 2.03236, -8.72524, 32.564, 180.87, 3.84047, 50.0635
5.45, 2, 1.99853, -8.75483, 32.3398, 180.444, 3.29381, 49.7309
5.453, 2, 1.99853, -8.75483, 32.3398, 180.444, 3.29381, 49.7309
5.458, 2, 1.96685, -8.78203, 32.1134, 180.016, 2.74527, 49.3854
5.461, 2, 1.96685, -8.78203, 32.1134, 180.016, 2.74527, 49.3854
5.466, 2, 1.93734, -8.80688, 31.8848, 179.588, 2.19505, 49.0268
5.47, 2, 1.9234, -8.81842, 31.7697, 179.374, 1.91937, 48.8425
5.473, 2, 1.9234, -8.81842, 31.7697, 179.374, 1.91937, 48.8425
5.478, 2, 1.89716, -8.83978, 31.538, 178.945, 1.36701, 48.4637
5.481, 2, 1.89716, -8.83978, 31.538, 178.945, 1.36701, 48.4637
5.486, 2, 1.87309, -8.85885, 31.3042, 178.515, 0.81349, 48.0711
5.49, 2, 1.86188, -8.86754, 31.1866, 178.3, 0.53636, 47.8696
5.493, 2, 1.86188, -8.86754, 31.1866, 178.3, 0.53636, 47.8696
5.498, 2, 1.84107, -8.88325, 30.95, 177.869, -0.0184975, 47.4558
5.5, 2, 1.84107, -8.88325, 30.95, 177.869, -0.0184975, 47.4558
5.504, 2, 1.83148, -8.89028, 30.831, 177.653, -0.296169, 47.2435
5.51, 2, 1.81391, -8.90272, 30.5918, 177.222, -0.851856, 46.808
5.513, 2, 1.81391, -8.90272, 30.5918, 177.222, -0.851856, 46.808
5.518, 2, 1.79848, -8.91305, 30.3508, 176.789, -1.4078, 46.3575
5.522, 2, 1.79155, -8.91743, 30.2298, 176.573, -1.6858, 46.1267
5.526, 2, 1.78516, -8.9213, 30.1084, 176.356, -1.96377, 45.892
5.53, 2, 1.77928, -8.92467, 29.9866, 176.139, -2.24169, 45.6534
5.533, 2, 1.77928, -8.92467, 29.9866, 176.139, -2.24169, 45.6534
5.538, 2, 1.76909, -8.92993, 29.7419, 175.704, -2.79723, 45.1645
5.542, 2, 1.76476, -8.93183, 29.6191, 175.487, -3.07479, 44.9142
5.546, 2, 1.76094, -8.93326, 29.496, 175.269, -3.35217, 44.6598
5.55, 2, 1.75763, -8.93423, 29.3726, 175.051, -3.62932, 44.4013
5.553, 2, 1.75763, -8.93423, 29.3726, 175.051, -3.62932, 44.4013
5.558, 2, 1.7525, -8.93481, 29.125, 174.613, -4.18286, 43.8722
5.562, 2, 1.75067, -8.93445, 29.0008, 174.394, -4.45916, 43.6013
5.567, 2, 1.74933, -8.93365, 28.8763, 174.174, -4.73511, 43.3262
5.57, 2, 1.74847, -8.93244, 28.7516, 173.954, -5.01066, 43.0469
5.571, 2, 1.74847, -8.93244, 28.7516, 173.954, -5.01066, 43.0469
5.578, 2, 1.74817, -8.9288, 28.5017, 173.512, -5.56045, 42.4752
5.582, 2, 1.74872, -8.9264, 28.3764, 173.291, -5.83461, 42.1827
5.586, 2, 1.74974, -8.92363, 28.251, 173.069, -6.10822, 41.8858
5.59, 2, 1.75121, -8.9205, 28.1255, 172.846, -6.38124, 41.5844
5.594, 2, 1.75312, -8.91701, 27.9998, 172.622, -6.65365, 41.2783
5.598, 2, 1.75549, -8.91319, 27.874, 172.398, -6.92538, 40.9677
5.602, 2, 1.75828, -8.90905, 27.7482, 172.173, -7.1964, 40.6523
5.605, 2, 1.75828, -8.90905, 27.7482, 172.173, -7.1964, 40.6523
5.61, 2, 1.76517, -8.89985, 27.4963, 171.72, -7.73612, 40.0072
5.614, 2, 1.76924, -8.89482, 27.3703, 171.492, -8.00473, 39.6773
5.618, 2, 1.77373, -8.88952, 27.2443, 171.263, -8.27244, 39.3424
5.622, 2, 1.77862, -8.88397, 27.1183, 171.033, -8.5392, 39.0026
5.625, 2, 1.77862, -8.88397, 27.1183, 171.033, -8.5392, 39.0026
5.63, 2, 1.78959, -8.87219, 26.8665, 170.569, -9.06964, 38.3073
5.635, 2, 1.79566, -8.866, 26.7407, 170.336, -9.33322, 37.9518
5.638, 2, 1.80211, -8.85962, 26.615, 170.1, -9.59562, 37.5909
5.642, 2, 1.80892, -8.85308, 26.4894, 169.864, -9.85678, 37.2245
5.645, 2, 1.80892, -8.85308, 26.4894, 169.864, -9.85678, 37.2245
5.65, 2, 1.82362, -8.83959, 26.2388, 169.385, -10.3751, 36.4748
5.654, 2, 1.83149, -8.83268, 26.1139, 169.143, -10.6322, 36.0913
5.658, 2, 1.83969, -8.8257, 25.9891, 168.9, -10.8877, 35.7019
5.662, 2, 1.84821, -8.81867, 25.8647, 168.654, -11.1417, 35.3065
5.665, 2, 1.84821, -8.81867, 25.8647, 168.654, -11.1417, 35.3065
5.67, 2, 1.86617, -8.80454, 25.6168, 168.156, -11.6444, 34.4969
5.674, 2, 1.87558, -8.7975, 25.4935, 167.903, -11.8931, 34.0826
5.678, 2, 1.88526, -8.79052, 25.3705, 167.648, -12.1397, 33.6616
5.682, 2, 1.8952, -8.78362, 25.2481, 167.39, -12.3844, 33.2338
5.686, 2, 1.90538, -8.77684, 25.1261, 167.13, -12.6268, 32.7991
5.69, 2, 1.9158, -8.7702, 25.0047, 166.866, -12.867, 32.3572
5.694, 2, 1.92643, -8.76376, 24.884, 166.599, -13.1047, 31.9081
5.698, 2, 1.93727, -8.75754, 24.7639, 166.329, -13.3399, 31.4514
5.702, 2, 1.94828, -8.75159, 24.6446, 166.055, -13.5725, 30.9869
5.706, 2, 1.95945, -8.74594, 24.526, 165.778, -13.8021, 30.5145
5.71, 2, 1.97076, -8.74065, 24.4083, 165.496, -14.0288, 30.0339
5.712, 2, 1.97076, -8.74065, 24.4083, 165.496, -14.0288, 30.0339
5.718, 2, 1.99367, -8.73133, 24.1757, 164.921, -14.4723, 29.047
5.722, 2, 2.00522, -8.7274, 24.061, 164.626, -14.6888, 28.5401
5.726, 2, 2.0168, -8.72404, 23.9474, 164.327, -14.9015, 28.024
5.73, 2, 2.02837, -8.7213, 23.8352, 164.023, -15.1101, 27.4981
5.734, 2, 2.03992, -8.71926, 23.7242, 163.713, -15.3144, 26.9623
5.737, 2, 2.03992, -8.71926, 23.7242, 163.713, -15.3144, 26.9623
5.742, 2, 2.06278, -8.71756, 23.5069, 163.075, -15.7087, 25.8592
5.746, 2, 2.074, -8.71804, 23.4008, 162.747, -15.8982, 25.2912
5.75, 2, 2.08502, -8.71953, 23.2965, 162.412, -16.0819, 24.7117
5.754, 2, 2.09577, -8.72211, 23.1943, 162.071, -16.2596, 24.1202
5.757, 2, 2.09577, -8.72211, 23.1943, 162.071, -16.2596, 24.1202
5.762, 2, 2.11612, -8.73079, 22.9965, 161.364, -16.5949, 22.9
5.766, 2, 2.12554, -8.73705, 22.9014, 160.999, -16.7515, 22.2705
5.769, 2, 2.12554, -8.73705, 22.9014, 160.999, -16.7515, 22.2705
5.774, 2, 2.14239, -8.75371, 22.7199, 160.244, -17.0397, 20.9721
5.778, 2, 2.14961, -8.76428, 22.634, 159.854, -17.1699, 20.3032
5.78, 2, 2.14961, -8.76428, 22.634, 159.854, -17.1699, 20.3032
5.786, 2, 2.16109, -8.79029, 22.4731, 159.049, -17.3994, 18.928
5.789, 2, 2.16109, -8.79029, 22.4731, 159.049, -17.3994, 18.928
5.794, 2, 2.1678, -8.8234, 22.3286, 158.213, -17.5828, 17.5075
5.798, 2, 2.16905, -8.84282, 22.2632, 157.784, -17.6555, 16.7824
5.802, 2, 2.16873, -8.86422, 22.2026, 157.348, -17.7147, 16.049
5.806, 2, 2.16668, -8.88767, 22.147, 156.906, -17.7598, 15.3082
5.809, 2, 2.16668, -8.88767, 22.147, 156.906, -17.7598, 15.3082
5.814, 2, 2.15691, -8.9409, 22.0519, 156.007, -17.8057, 13.8093
5.818, 2, 2.14891, -8.97078, 22.0126, 155.551, -17.8056, 13.0535
5.822, 2, 2.13865, -9.00285, 21.9788, 155.09, -17.7896, 12.2945
5.826, 2, 2.12598, -9.03714, 21.9508, 154.627, -17.7574, 11.5334
5.829, 2, 2.12598, -9.03714, 21.9508, 154.627, -17.7574, 11.5334
5.834, 2, 2.09286, -9.11226, 21.9117, 153.689, -17.6436, 10.0069
5.836, 2, 2.09286, -9.11226, 21.9117, 153.689, -17.6436, 10.0069
5.84, 2, 2.07213, -9.15301, 21.9007, 153.216, -17.5615, 9.24231
5.846, 2, 2.02167, -9.2406, 21.8955, 152.262, -17.3463, 7.71187
5.849, 2, 2.02167, -9.2406, 21.8955, 152.262, -17.3463, 7.71187
5.852, 2, 1.99173, -9.28724, 21.901, 151.781, -17.213, 6.94639
5.858, 2, 1.92211, -9.38562, 21.9279, 150.81, -16.8944, 5.41631
5.862, 2, 1.88233, -9.43711, 21.9489, 150.321, -16.7092, 4.65261
5.867, 2, 1.8392, -9.48995, 21.9746, 149.83, -16.5071, 3.89072
5.87, 2, 1.7927, -9.54401, 22.0048, 149.338, -16.2885, 3.13155
5.874, 2, 1.74285, -9.59917, 22.0392, 148.846, -16.0537, 2.3762
5.878, 2, 1.68967, -9.65528, 22.0774, 148.353, -15.8034, 1.6259
5.882, 2, 1.63321, -9.71217, 22.1192, 147.861, -15.5384, 0.881998
5.886, 2, 1.57356, -9.76968, 22.1642, 147.371, -15.2595, 0.145874
5.89, 2, 1.51083, -9.8276, 22.2119, 146.884, -14.9678, -0.581059
5.894, 2, 1.44513, -9.88578, 22.262, 146.401, -14.6641, -1.29741
5.898, 2, 1.37658, -9.94403, 22.3141, 145.922, -14.3497, -2.00186
5.902, 2, 1.3053, -10.0022, 22.3678, 145.448, -14.0257, -2.6932
5.906, 2, 1.23144, -10.0601, 22.4226, 144.981, -13.6931, -3.37041
5.91, 2, 1.15512, -10.1177, 22.4782, 144.52, -13.353, -4.03266
5.914, 2, 1.07648, -10.1746, 22.5342, 144.067, -13.0065, -4.67937
5.918, 2, 0.995691, -10.2309, 22.5903, 143.621, -12.6546, -5.31021
5.921, 2, 0.995691, -10.2309, 22.5903, 143.621, -12.6546, -5.31021
5.926, 2, 0.828281, -10.3406, 22.7016, 142.752, -11.9374, -6.52394
5.93, 2, 0.741988, -10.3938, 22.7562, 142.33, -11.5736, -7.1071
5.934, 2, 0.654174, -10.4458, 22.8099, 141.914, -11.2073, -7.67481
5.938, 2, 0.564984, -10.4964, 22.8625, 141.507, -10.8388, -8.22745
5.941, 2, 0.564984, -10.4964, 22.8625, 141.507, -10.8388, -8.22745
5.946, 2, 0.383014, -10.5934, 22.9634, 140.713, -10.0976, -9.28911
5.95, 2, 0.290495, -10.6397, 23.0114, 140.326, -9.72566, -9.79898
5.954, 2, 0.197111, -10.6846, 23.0577, 139.946, -9.35337, -10.2954
5.958, 2, 0.102969, -10.7279, 23.102, 139.573, -8.98106, -10.7789
5.962, 2, 0.00816708, -10.7697, 23.1443, 139.206, -8.60906, -11.2498
5.966, 2, -0.0872089, -10.81, 23.1846, 138.845, -8.23766, -11.7085
5.97, 2, -0.183083, -10.8487, 23.2226, 138.49, -7.86715, -12.1554
5.974, 2, -0.279388, -10.886, 23.2584, 138.141, -7.4978, -12.5908
5.978, 2, -0.37606, -10.9217, 23.2918, 137.798, -7.12984, -13.0152
5.982, 2, -0.473033, -10.956, 23.3229, 137.46, -6.76353, -13.4288
5.986, 2, -0.570241, -10.9887, 23.3515, 137.127, -6.3991, -13.8319
5.99, 2, -0.667613, -11.02, 23.3776, 136.8, -6.03676, -14.2249
5.992, 2, -0.667613, -11.02, 23.3776, 136.8, -6.03676, -14.2249
5.998, 2, -0.862538, -11.0782, 23.4222, 136.16, -5.3192, -14.9815
6.002, 2, -0.959929, -11.1052, 23.4407, 135.848, -4.96439, -15.3456
6.006, 2, -1.05716, -11.1308, 23.4565, 135.541, -4.61247, -15.7007
6.01, 2, -1.15415, -11.1551, 23.4697, 135.238, -4.26365, -16.0469
6.013, 2, -1.15415, -11.1551, 23.4697, 135.238, -4.26365, -16.0469
6.016, 2, -1.25082, -11.178, 23.4802, 134.941, -3.9181, -16.3845
6.02, 2, -1.34709, -11.1996, 23.4881, 134.647, -3.576, -16.7137
6.024, 2, -1.44289, -11.22, 23.4933, 134.359, -3.23752, -17.0346
6.028, 2, -1.53813, -11.2391, 23.4959, 134.075, -2.90284, -17.3476
6.033, 2, -1.63276, -11.257, 23.4958, 133.795, -2.57212, -17.6527
6.038, 2, -1.81987, -11.2893, 23.4876, 133.25, -1.92319, -18.2403
6.04, 2, -1.81987, -11.2893, 23.4876, 133.25, -1.92319, -18.2403
6.044, 2, -1.91221, -11.3038, 23.4795, 132.984, -1.6053, -18.523
6.048, 2, -2.00366, -11.3172, 23.4688, 132.722, -1.29199, -18.7987
6.052, 2, -2.09415, -11.3295, 23.4555, 132.464, -0.983409, -19.0674
6.057, 2, -2.18362, -11.3409, 23.4397, 132.211, -0.679697, -19.3293
6.062, 2, -2.35926, -11.3608, 23.4003, 131.718, -0.0874303, -19.8332
6.064, 2, -2.35926, -11.3608, 23.4003, 131.718, -0.0874303, -19.8332
6.068, 2, -2.44531, -11.3694, 23.3768, 131.478, 0.200863, -20.0756
6.072, 2, -2.53011, -11.3771, 23.3509, 131.242, 0.483763, -20.3117
6.076, 2, -2.61359, -11.384, 23.3226, 131.01, 0.761148, -20.5418
6.081, 2, -2.69572, -11.3902, 23.2918, 130.782, 1.03291, -20.7659
6.086, 2, -2.85567, -11.4004, 23.2234, 130.34, 1.5591, -21.1968
6.088, 2, -2.85567, -11.4004, 23.2234, 130.34, 1.5591, -21.1968
6.092, 2, -2.93341, -11.4045, 23.1857, 130.125, 1.81333, -21.4038
6.096, 2, -3.00959, -11.408, 23.1459, 129.914, 2.06153, -21.6054
6.1, 2, -3.08417, -11.4109, 23.1039, 129.708, 2.3036, -21.8017
6.105, 2, -3.1571, -11.4133, 23.0598, 129.506, 2.53946, -21.9927
6.11, 2, -3.2979, -11.4165, 22.9654, 129.113, 2.99226, -22.3596
6.112, 2, -3.2979, -11.4165, 22.9654, 129.113, 2.99226, -22.3596
6.116, 2, -3.36569, -11.4175, 22.9152, 128.923, 3.20905, -22.5357
6.12, 2, -3.43169, -11.4181, 22.8632, 128.738, 3.41935, -22.7071
6.124, 2, -3.49587, -11.4183, 22.8093, 128.556, 3.62312, -22.8737
6.128, 2, -3.5582, -11.4183, 22.7536, 128.378, 3.82029, -23.0359
6.132, 2, -3.61866, -11.4179, 22.6962, 128.204, 4.01083, -23.1936
6.136, 2, -3.67723, -11.4173, 22.6371, 128.035, 4.1947, -23.3469
6.14, 2, -3.73387, -11.4164, 22.5764, 127.869, 4.37186, -23.496
6.144, 2, -3.78857, -11.4154, 22.5142, 127.708, 4.54229, -23.6409
6.148, 2, -3.84132, -11.4142, 22.4505, 127.55, 4.70596, -23.7818
6.152, 2, -3.89209, -11.4129, 22.3853, 127.396, 4.86286, -23.9187
6.156, 2, -3.94087, -11.4115, 22.3187, 127.247, 5.01298, -24.0517
6.16, 2, -3.98765, -11.41, 22.2508, 127.101, 5.1563, -24.181
6.164, 2, -4.03243, -11.4084, 22.1817, 126.959, 5.29283, -24.3065
6.168, 2, -4.07518, -11.4068, 22.1113, 126.82, 5.42258, -24.4285
6.172, 2, -4.11591, -11.4052, 22.0398, 126.686, 5.54555, -24.5469
6.176, 2, -4.1546, -11.4037, 21.9671, 126.555, 5.66176, -24.6618
