hehonglu123/Motion-Primitive-Planning/simulation/robotstudio_sim/scripts/log.csv
timestamp, cmd_num, J1, J2, J3, J4, J5, J6
0, -1, 3.30708, -8.33231, 21.602, 21.7204, -39.4606, 18.2812
0.003, -1, 3.30708, -8.33231, 21.602, 21.7204, -39.4606, 18.2812
0.006, -1, 3.30708, -8.33231, 21.602, 21.7204, -39.4606, 18.2812
0.008, -1, 3.30708, -8.33231, 21.602, 21.7204, -39.4606, 18.2812
0.011, -1, 3.30708, -8.33231, 21.602, 21.7204, -39.4606, 18.2812
0.016, -1, 3.30708, -8.33231, 21.602, 21.7204, -39.4606, 18.2812
0.02, -1, 3.30708, -8.33231, 21.602, 21.7204, -39.4606, 18.2812
0.024, -1, 3.30708, -8.33231, 21.602, 21.7204, -39.4606, 18.2812
0.028, -1, 3.30708, -8.33231, 21.602, 21.7204, -39.4606, 18.2812
0.032, -1, 3.30708, -8.33231, 21.602, 21.7204, -39.4606, 18.2812
0.036, -1, 3.30708, -8.33228, 21.602, 21.7204, -39.4606, 18.2812
0.04, -1, 3.30706, -8.33216, 21.6021, 21.7204, -39.4606, 18.2812
0.044, -1, 3.307, -8.33185, 21.6021, 21.7203, -39.4606, 18.2811
0.048, -1, 3.30688, -8.33122, 21.6023, 21.7203, -39.4606, 18.2811
0.052, -1, 3.30669, -8.33013, 21.6026, 21.7203, -39.4608, 18.2811
0.056, -1, 3.3064, -8.32847, 21.6031, 21.7202, -39.4611, 18.281
0.06, -1, 3.30599, -8.32609, 21.6038, 21.7199, -39.4617, 18.2807
0.064, -1, 3.30545, -8.32287, 21.6048, 21.7195, -39.4629, 18.2804
0.068, -1, 3.30476, -8.31863, 21.6063, 21.7188, -39.4648, 18.2798
0.072, -1, 3.30391, -8.31312, 21.6084, 21.7178, -39.4678, 18.2788
0.076, -1, 3.30287, -8.30605, 21.6111, 21.7162, -39.4722, 18.2775
0.08, -1, 3.30161, -8.2971, 21.6147, 21.714, -39.4785, 18.2756
0.084, -1, 3.30014, -8.28605, 21.6193, 21.711, -39.487, 18.273
0.088, -1, 3.29844, -8.27279, 21.6251, 21.707, -39.4984, 18.2696
0.092, -1, 3.29655, -8.25741, 21.6322, 21.7018, -39.5132, 18.2652
0.096, -1, 3.2945, -8.24005, 21.6409, 21.6953, -39.532, 18.2596
0.1, -1, 3.29232, -8.22082, 21.6511, 21.6872, -39.5554, 18.2527
0.104, -1, 3.29001, -8.19982, 21.6631, 21.6773, -39.5838, 18.2444
0.108, -1, 3.2876, -8.17701, 21.677, 21.6656, -39.6176, 18.2344
0.112, -1, 3.28507, -8.15232, 21.6929, 21.6518, -39.6572, 18.2229
0.116, -1, 3.28244, -8.12568, 21.7109, 21.636, -39.7028, 18.2095
0.12, -1, 3.2797, -8.09712, 21.7309, 21.6181, -39.7545, 18.1944
0.124, -1, 3.27686, -8.06673, 21.753, 21.598, -39.8124, 18.1776
0.128, -1, 3.27394, -8.03458, 21.7772, 21.5759, -39.8762, 18.159
0.131, -1, 3.27092, -8.00071, 21.8033, 21.5518, -39.9458, 18.1387
0.136, -1, 3.2678, -7.96503, 21.8313, 21.5258, -40.0209, 18.1169
0.139, -1, 3.26455, -7.92737, 21.8611, 21.4981, -40.1009, 18.0936
0.144, -1, 3.26112, -7.88755, 21.8926, 21.4688, -40.1854, 18.069
0.148, -1, 3.2575, -7.84541, 21.9255, 21.4382, -40.2739, 18.0433
0.152, -1, 3.25367, -7.80099, 21.9598, 21.4064, -40.3658, 18.0166
0.156, -1, 3.24962, -7.75442, 21.9953, 21.3736, -40.4605, 17.989
0.16, -1, 3.24537, -7.70593, 22.0318, 21.3399, -40.5576, 17.9607
0.164, -1, 3.24093, -7.65575, 22.0692, 21.3056, -40.6567, 17.9319
0.168, -1, 3.2363, -7.6041, 22.1073, 21.2708, -40.7573, 17.9026
0.172, -1, 3.23151, -7.55116, 22.146, 21.2355, -40.859, 17.873
0.176, -1, 3.22656, -7.4971, 22.1852, 21.1999, -40.9617, 17.8431
0.18, -1, 3.22146, -7.44209, 22.2247, 21.1641, -41.065, 17.8129
0.184, -1, 3.21625, -7.38628, 22.2646, 21.1282, -41.1687, 17.7827
0.188, -1, 3.21094, -7.32986, 22.3046, 21.0921, -41.2728, 17.7523
0.192, -1, 3.20556, -7.27299, 22.3449, 21.056, -41.377, 17.7219
0.196, -1, 3.20013, -7.2158, 22.3852, 21.0197, -41.4815, 17.6915
0.2, -1, 3.19467, -7.15839, 22.4257, 20.9835, -41.5861, 17.6609
0.204, -1, 3.18918, -7.10081, 22.4662, 20.9472, -41.6908, 17.6304
0.208, -1, 3.18368, -7.04313, 22.5067, 20.9109, -41.7956, 17.5998
0.212, -1, 3.17816, -6.98535, 22.5473, 20.8745, -41.9004, 17.5692
0.216, -1, 3.17263, -6.92752, 22.5879, 20.8381, -42.0053, 17.5386
0.22, -1, 3.1671, -6.86963, 22.6285, 20.8018, -42.1103, 17.508
0.224, -1, 3.16156, -6.81169, 22.6692, 20.7654, -42.2153, 17.4773
0.228, -1, 3.15602, -6.75372, 22.7099, 20.7289, -42.3204, 17.4467
0.232, -1, 3.15047, -6.69572, 22.7506, 20.6925, -42.4255, 17.416
0.236, -1, 3.14493, -6.63769, 22.7913, 20.656, -42.5306, 17.3853
0.24, -1, 3.13937, -6.57963, 22.832, 20.6196, -42.6358, 17.3546
0.244, -1, 3.13382, -6.52154, 22.8728, 20.5831, -42.7411, 17.3239
0.248, -1, 3.12826, -6.46343, 22.9136, 20.5466, -42.8464, 17.2932
0.252, -1, 3.1227, -6.40529, 22.9543, 20.51, -42.9517, 17.2625
0.256, -1, 3.11714, -6.34713, 22.9952, 20.4735, -43.0571, 17.2317
0.26, -1, 3.11157, -6.28895, 23.036, 20.437, -43.1625, 17.201
0.264, -1, 3.10601, -6.23074, 23.0768, 20.4004, -43.268, 17.1702
0.268, -1, 3.10044, -6.1725, 23.1177, 20.3638, -43.3735, 17.1394
0.272, -1, 3.09487, -6.11425, 23.1586, 20.3272, -43.479, 17.1086
0.276, -1, 3.08929, -6.05596, 23.1994, 20.2906, -43.5846, 17.0778
0.28, -1, 3.08372, -5.99766, 23.2404, 20.254, -43.6903, 17.047
0.284, -1, 3.07814, -5.93933, 23.2813, 20.2174, -43.7959, 17.0161
0.288, -1, 3.07256, -5.88098, 23.3222, 20.1807, -43.9017, 16.9853
0.292, -1, 3.06697, -5.8226, 23.3632, 20.1441, -44.0074, 16.9544
0.296, -1, 3.06139, -5.7642, 23.4041, 20.1074, -44.1132, 16.9235
0.3, -1, 3.0558, -5.70577, 23.4451, 20.0707, -44.2191, 16.8927
0.304, -1, 3.05021, -5.64732, 23.4861, 20.034, -44.325, 16.8618
0.308, -1, 3.04462, -5.58885, 23.5272, 19.9972, -44.4309, 16.8308
0.312, -1, 3.03903, -5.53035, 23.5682, 19.9605, -44.5369, 16.7999
0.316, -1, 3.03343, -5.47183, 23.6093, 19.9237, -44.6429, 16.769
0.32, -1, 3.02783, -5.41329, 23.6504, 19.887, -44.749, 16.738
0.324, -1, 3.02223, -5.35472, 23.6914, 19.8502, -44.8551, 16.7071
0.328, -1, 3.01662, -5.29613, 23.7325, 19.8134, -44.9613, 16.6761
0.332, -1, 3.01102, -5.23751, 23.7737, 19.7765, -45.0675, 16.6451
0.336, -1, 3.00541, -5.17887, 23.8148, 19.7397, -45.1737, 16.6141
0.34, -1, 2.9998, -5.12021, 23.856, 19.7029, -45.28, 16.5831
0.344, -1, 2.99419, -5.06152, 23.8972, 19.666, -45.3863, 16.5521
0.348, -1, 2.98857, -5.0028, 23.9383, 19.6291, -45.4927, 16.521
0.352, -1, 2.98295, -4.94407, 23.9796, 19.5922, -45.5991, 16.49
0.356, -1, 2.97733, -4.88531, 24.0208, 19.5553, -45.7056, 16.4589
0.36, -1, 2.97171, -4.82652, 24.062, 19.5184, -45.8121, 16.4278
0.364, -1, 2.96609, -4.76772, 24.1033, 19.4815, -45.9186, 16.3967
0.368, -1, 2.96046, -4.70888, 24.1446, 19.4445, -46.0252, 16.3656
0.372, -1, 2.95483, -4.65003, 24.1859, 19.4075, -46.1319, 16.3345
0.376, -1, 2.9492, -4.59115, 24.2272, 19.3706, -46.2385, 16.3034
0.38, -1, 2.94357, -4.53224, 24.2685, 19.3336, -46.3453, 16.2723
0.384, -1, 2.93793, -4.47331, 24.3098, 19.2966, -46.452, 16.2411
0.388, -1, 2.93229, -4.41436, 24.3512, 19.2595, -46.5588, 16.2099
0.392, -1, 2.92665, -4.35539, 24.3926, 19.2225, -46.6657, 16.1788
0.396, -1, 2.92101, -4.29639, 24.434, 19.1854, -46.7726, 16.1476
0.4, -1, 2.91537, -4.23736, 24.4754, 19.1483, -46.8795, 16.1164
0.404, -1, 2.90972, -4.17831, 24.5168, 19.1113, -46.9865, 16.0852
0.408, -1, 2.90407, -4.11924, 24.5583, 19.0742, -47.0935, 16.0539
0.412, -1, 2.89842, -4.06014, 24.5997, 19.037, -47.2006, 16.0227
0.416, -1, 2.89276, -4.00102, 24.6412, 18.9999, -47.3077, 15.9914
0.42, -1, 2.88711, -3.94188, 24.6827, 18.9627, -47.4149, 15.9602
0.424, -1, 2.88145, -3.88271, 24.7242, 18.9256, -47.5221, 15.9289
0.428, -1, 2.87579, -3.82352, 24.7657, 18.8884, -47.6293, 15.8976
0.432, -1, 2.87012, -3.7643, 24.8073, 18.8512, -47.7366, 15.8663
0.436, -1, 2.86446, -3.70506, 24.8489, 18.814, -47.8439, 15.835
0.44, -1, 2.85879, -3.64579, 24.8904, 18.7768, -47.9513, 15.8036
0.444, -1, 2.85312, -3.5865, 24.932, 18.7395, -48.0587, 15.7723
0.448, -1, 2.84745, -3.52719, 24.9737, 18.7023, -48.1662, 15.7409
0.452, -1, 2.84177, -3.46785, 25.0153, 18.665, -48.2737, 15.7096
0.456, -1, 2.8361, -3.40849, 25.0569, 18.6277, -48.3812, 15.6782
0.46, -1, 2.83042, -3.3491, 25.0986, 18.5904, -48.4888, 15.6468
0.464, -1, 2.82473, -3.28969, 25.1403, 18.5531, -48.5965, 15.6154
0.468, -1, 2.81905, -3.23026, 25.182, 18.5158, -48.7042, 15.584
0.472, -1, 2.81336, -3.1708, 25.2237, 18.4784, -48.8119, 15.5525
0.476, -1, 2.80767, -3.11131, 25.2654, 18.4411, -48.9197, 15.5211
0.48, -1, 2.80198, -3.05181, 25.3072, 18.4037, -49.0275, 15.4896
0.484, -1, 2.79629, -2.99227, 25.349, 18.3663, -49.1353, 15.4581
0.488, -1, 2.79059, -2.93272, 25.3907, 18.3289, -49.2432, 15.4267
0.492, -1, 2.7849, -2.87314, 25.4325, 18.2915, -49.3512, 15.3952
0.496, -1, 2.77919, -2.81353, 25.4744, 18.254, -49.4592, 15.3637
0.5, -1, 2.77349, -2.7539, 25.5162, 18.2166, -49.5672, 15.3321
0.504, -1, 2.76779, -2.69424, 25.558, 18.1791, -49.6753, 15.3006
0.508, -1, 2.76208, -2.63457, 25.5999, 18.1416, -49.7834, 15.269
0.512, -1, 2.75637, -2.57486, 25.6418, 18.1041, -49.8916, 15.2375
0.516, -1, 2.75066, -2.51513, 25.6837, 18.0666, -49.9998, 15.2059
0.52, -1, 2.74494, -2.45538, 25.7256, 18.0291, -50.108, 15.1743
0.524, -1, 2.73923, -2.3956, 25.7676, 17.9915, -50.2163, 15.1427
0.528, -1, 2.73351, -2.3358, 25.8095, 17.954, -50.3247, 15.1111
0.532, -1, 2.72778, -2.27597, 25.8515, 17.9164, -50.4331, 15.0795
0.536, -1, 2.72206, -2.21612, 25.8935, 17.8788, -50.5415, 15.0478
0.54, -1, 2.71633, -2.15624, 25.9355, 17.8412, -50.65, 15.0162
0.544, -1, 2.71061, -2.09634, 25.9775, 17.8036, -50.7585, 14.9845
0.548, -1, 2.70487, -2.03642, 26.0196, 17.7659, -50.8671, 14.9528
0.552, -1, 2.69914, -1.97647, 26.0616, 17.7283, -50.9757, 14.9211
0.556, -1, 2.6934, -1.91649, 26.1037, 17.6906, -51.0844, 14.8894
0.56, -1, 2.68767, -1.85649, 26.1458, 17.6529, -51.1931, 14.8577
0.564, -1, 2.68193, -1.79647, 26.1879, 17.6152, -51.3018, 14.826
0.568, -1, 2.67618, -1.73642, 26.2301, 17.5775, -51.4106, 14.7942
0.572, -1, 2.67044, -1.67634, 26.2722, 17.5397, -51.5195, 14.7625
0.576, -1, 2.66469, -1.61624, 26.3144, 17.502, -51.6284, 14.7307
0.58, -1, 2.65894, -1.55612, 26.3566, 17.4642, -51.7373, 14.6989
0.584, -1, 2.65319, -1.49597, 26.3988, 17.4265, -51.8463, 14.6671
0.588, -1, 2.64743, -1.4358, 26.441, 17.3887, -51.9553, 14.6353
0.592, -1, 2.64167, -1.3756, 26.4832, 17.3508, -52.0644, 14.6035
0.596, -1, 2.63592, -1.31537, 26.5255, 17.313, -52.1735, 14.5716
0.6, -1, 2.63015, -1.25513, 26.5677, 17.2752, -52.2826, 14.5398
0.604, -1, 2.62439, -1.19485, 26.61, 17.2373, -52.3918, 14.5079
0.608, -1, 2.61862, -1.13456, 26.6523, 17.1994, -52.5011, 14.476
0.612, -1, 2.61285, -1.07423, 26.6947, 17.1616, -52.6104, 14.4442
0.616, -1, 2.60708, -1.01388, 26.737, 17.1237, -52.7197, 14.4123
0.62, -1, 2.60131, -0.953512, 26.7794, 17.0857, -52.8291, 14.3803
0.624, -1, 2.59553, -0.893115, 26.8217, 17.0478, -52.9385, 14.3484
0.628, -1, 2.58975, -0.832692, 26.8641, 17.0098, -53.048, 14.3165
0.632, -1, 2.58397, -0.772245, 26.9065, 16.9719, -53.1575, 14.2845
0.636, -1, 2.57819, -0.711773, 26.949, 16.9339, -53.2671, 14.2525
0.64, -1, 2.5724, -0.651276, 26.9914, 16.8959, -53.3767, 14.2206
0.644, -1, 2.56661, -0.590754, 27.0339, 16.8579, -53.4863, 14.1886
0.648, -1, 2.56082, -0.530207, 27.0764, 16.8198, -53.596, 14.1566
0.652, -1, 2.55503, -0.469635, 27.1189, 16.7818, -53.7057, 14.1245
0.656, -1, 2.54924, -0.409038, 27.1614, 16.7437, -53.8155, 14.0925
0.66, -1, 2.54344, -0.348416, 27.2039, 16.7057, -53.9254, 14.0604
0.664, -1, 2.53764, -0.287769, 27.2465, 16.6676, -54.0352, 14.0284
0.668, -1, 2.53184, -0.227097, 27.289, 16.6295, -54.1452, 13.9963
0.672, -1, 2.52603, -0.1664, 27.3316, 16.5913, -54.2551, 13.9642
0.676, -1, 2.52022, -0.105678, 27.3742, 16.5532, -54.3652, 13.9321
0.68, -1, 2.51441, -0.0449305, 27.4168, 16.515, -54.4752, 13.9
0.684, -1, 2.5086, 0.0158416, 27.4595, 16.4769, -54.5853, 13.8679
0.688, -1, 2.50279, 0.0766387, 27.5021, 16.4387, -54.6955, 13.8357
0.692, -1, 2.49697, 0.137461, 27.5448, 16.4005, -54.8057, 13.8036
0.696, -1, 2.49115, 0.198308, 27.5875, 16.3623, -54.9159, 13.7714
0.7, -1, 2.48533, 0.25918, 27.6302, 16.324, -55.0262, 13.7392
0.704, -1, 2.47951, 0.320078, 27.6729, 16.2858, -55.1365, 13.707
0.708, -1, 2.47368, 0.381, 27.7157, 16.2475, -55.2469, 13.6748
0.712, -1, 2.46785, 0.441948, 27.7584, 16.2092, -55.3573, 13.6426
0.716, -1, 2.46202, 0.50292, 27.8012, 16.1709, -55.4678, 13.6104
0.72, -1, 2.45619, 0.563918, 27.844, 16.1326, -55.5783, 13.5781
0.724, -1, 2.45035, 0.624941, 27.8868, 16.0943, -55.6889, 13.5459
0.728, -1, 2.44451, 0.685989, 27.9296, 16.0559, -55.7995, 13.5136
0.732, -1, 2.43867, 0.747062, 27.9725, 16.0176, -55.9101, 13.4813
0.736, -1, 2.43283, 0.80816, 28.0154, 15.9792, -56.0208, 13.449
0.74, -1, 2.42698, 0.869284, 28.0583, 15.9408, -56.1316, 13.4167
0.744, -1, 2.42113, 0.930432, 28.1012, 15.9024, -56.2423, 13.3844
0.748, -1, 2.41528, 0.991606, 28.1441, 15.864, -56.3532, 13.352
0.752, -1, 2.40943, 1.0528, 28.187, 15.8255, -56.4641, 13.3197
0.756, -1, 2.40357, 1.11403, 28.23, 15.7871, -56.575, 13.2873
0.76, -1, 2.39772, 1.17528, 28.2729, 15.7486, -56.686, 13.2549
0.764, -1, 2.39186, 1.23655, 28.3159, 15.7101, -56.797, 13.2225
0.768, -1, 2.38599, 1.29785, 28.3589, 15.6716, -56.908, 13.1901
0.772, -1, 2.38013, 1.35918, 28.402, 15.6331, -57.0191, 13.1577
0.776, -1, 2.37426, 1.42053, 28.445, 15.5946, -57.1303, 13.1253
0.78, -1, 2.36839, 1.4819, 28.4881, 15.556, -57.2415, 13.0928
0.784, -1, 2.36252, 1.5433, 28.5312, 15.5175, -57.3527, 13.0604
0.788, -1, 2.35664, 1.60473, 28.5742, 15.4789, -57.464, 13.0279
0.792, -1, 2.35077, 1.66618, 28.6174, 15.4403, -57.5754, 12.9954
0.796, -1, 2.34489, 1.72765, 28.6605, 15.4017, -57.6867, 12.9629
0.8, -1, 2.33901, 1.78915, 28.7036, 15.363, -57.7982, 12.9304
0.804, -1, 2.33312, 1.85068, 28.7468, 15.3244, -57.9096, 12.8979
0.808, -1, 2.32724, 1.91223, 28.79, 15.2857, -58.0212, 12.8653
0.812, -1, 2.32135, 1.97381, 28.8332, 15.247, -58.1327, 12.8328
0.816, -1, 2.31545, 2.03542, 28.8764, 15.2084, -58.2443, 12.8002
0.82, -1, 2.30956, 2.09705, 28.9197, 15.1696, -58.356, 12.7676
0.824, -1, 2.30366, 2.1587, 28.9629, 15.1309, -58.4677, 12.735
0.828, -1, 2.29776, 2.22038, 29.0062, 15.0922, -58.5794, 12.7024
0.832, -1, 2.29186, 2.28209, 29.0495, 15.0534, -58.6912, 12.6698
0.836, -1, 2.28596, 2.34382, 29.0928, 15.0146, -58.8031, 12.6372
0.84, -1, 2.28005, 2.40558, 29.1361, 14.9759, -58.915, 12.6045
0.844, -1, 2.27414, 2.46736, 29.1795, 14.937, -59.0269, 12.5719
0.848, -1, 2.26823, 2.52917, 29.2228, 14.8982, -59.1389, 12.5392
0.852, -1, 2.26232, 2.591, 29.2662, 14.8594, -59.2509, 12.5065
0.856, -1, 2.2564, 2.65286, 29.3096, 14.8205, -59.363, 12.4738
0.86, -1, 2.25048, 2.71475, 29.353, 14.7817, -59.4751, 12.4411
0.864, -1, 2.24456, 2.77666, 29.3965, 14.7428, -59.5873, 12.4084
0.868, -1, 2.23864, 2.8386, 29.4399, 14.7039, -59.6995, 12.3756
0.872, -1, 2.23271, 2.90056, 29.4834, 14.6649, -59.8117, 12.3429
0.876, -1, 2.22678, 2.96255, 29.5269, 14.626, -59.9241, 12.3101
0.88, -1, 2.22085, 3.02457, 29.5704, 14.5871, -60.0364, 12.2773
0.884, -1, 2.21492, 3.08661, 29.6139, 14.5481, -60.1488, 12.2445
0.888, -1, 2.20898, 3.14868, 29.6575, 14.5091, -60.2613, 12.2117
0.892, -1, 2.20305, 3.21077, 29.7011, 14.4701, -60.3738, 12.1789
0.896, -1, 2.19711, 3.27289, 29.7446, 14.4311, -60.4863, 12.146
0.9, -1, 2.19116, 3.33503, 29.7882, 14.3921, -60.5989, 12.1132
0.904, -1, 2.18522, 3.39721, 29.8319, 14.353, -60.7116, 12.0803
0.908, -1, 2.17927, 3.4594, 29.8755, 14.3139, -60.8242, 12.0474
0.912, -1, 2.17332, 3.52163, 29.9192, 14.2749, -60.937, 12.0145
0.916, -1, 2.16736, 3.58388, 29.9628, 14.2358, -61.0498, 11.9816
0.92, -1, 2.16141, 3.64615, 30.0065, 14.1966, -61.1626, 11.9487
0.924, -1, 2.15545, 3.70846, 30.0502, 14.1575, -61.2755, 11.9157
0.928, -1, 2.14949, 3.77079, 30.094, 14.1184, -61.3884, 11.8828
0.932, -1, 2.14352, 3.83314, 30.1377, 14.0792, -61.5014, 11.8498
0.936, -1, 2.13756, 3.89552, 30.1815, 14.04, -61.6144, 11.8169
0.94, -1, 2.13159, 3.95793, 30.2253, 14.0008, -61.7275, 11.7839
0.944, -1, 2.12562, 4.02036, 30.2691, 13.9616, -61.8406, 11.7509
0.948, -1, 2.11964, 4.08282, 30.3129, 13.9224, -61.9537, 11.7178
0.952, -1, 2.11367, 4.14531, 30.3567, 13.8831, -62.0669, 11.6848
0.956, -1, 2.10769, 4.20782, 30.4006, 13.8438, -62.1802, 11.6518
0.96, -1, 2.10171, 4.27036, 30.4445, 13.8046, -62.2935, 11.6187
0.964, -1, 2.09573, 4.33293, 30.4884, 13.7653, -62.4069, 11.5856
0.968, -1, 2.08974, 4.39552, 30.5323, 13.726, -62.5203, 11.5525
0.972, -1, 2.08375, 4.45814, 30.5762, 13.6866, -62.6337, 11.5194
0.976, -1, 2.07776, 4.52078, 30.6202, 13.6473, -62.7472, 11.4863
0.98, -1, 2.07177, 4.58345, 30.6641, 13.6079, -62.8608, 11.4532
0.984, -1, 2.06577, 4.64615, 30.7081, 13.5685, -62.9743, 11.42
0.988, -1, 2.05977, 4.70887, 30.7521, 13.5291, -63.088, 11.3869
0.992, -1, 2.05377, 4.77162, 30.7962, 13.4897, -63.2017, 11.3537
0.996, -1, 2.04777, 4.8344, 30.8402, 13.4503, -63.3154, 11.3205
1, -1, 2.04176, 4.8972, 30.8843, 13.4108, -63.4292, 11.2873
1.004, -1, 2.03575, 4.96003, 30.9284, 13.3714, -63.543, 11.2541
1.008, -1, 2.02974, 5.02289, 30.9725, 13.3319, -63.6569, 11.2209
1.012, -1, 2.02373, 5.08577, 31.0166, 13.2924, -63.7708, 11.1876
1.016, -1, 2.01771, 5.14867, 31.0607, 13.2529, -63.8848, 11.1544
1.02, -1, 2.01169, 5.21161, 31.1049, 13.2134, -63.9988, 11.1211
1.024, -1, 2.00567, 5.27457, 31.149, 13.1738, -64.1129, 11.0878
1.027, -1, 1.99965, 5.33755, 31.1932, 13.1342, -64.227, 11.0545
1.032, -1, 1.99362, 5.40057, 31.2374, 13.0947, -64.3412, 11.0212
1.036, -1, 1.98759, 5.46361, 31.2817, 13.0551, -64.4554, 10.9879
1.04, -1, 1.98156, 5.52668, 31.3259, 13.0155, -64.5697, 10.9545
1.044, -1, 1.97552, 5.58977, 31.3702, 12.9758, -64.684, 10.9212
1.048, -1, 1.96949, 5.65289, 31.4145, 12.9362, -64.7983, 10.8878
1.052, -1, 1.96345, 5.71604, 31.4588, 12.8965, -64.9128, 10.8544
1.055, -1, 1.95741, 5.77921, 31.5031, 12.8568, -65.0272, 10.821
1.06, -1, 1.95136, 5.84242, 31.5474, 12.8171, -65.1417, 10.7876
1.064, -1, 1.94532, 5.90564, 31.5918, 12.7774, -65.2563, 10.7542
1.068, -1, 1.93927, 5.9689, 31.6362, 12.7377, -65.3709, 10.7207
1.072, -1, 1.93321, 6.03218, 31.6806, 12.6979, -65.4855, 10.6873
1.076, -1, 1.92716, 6.09549, 31.725, 12.6582, -65.6002, 10.6538
1.08, -1, 1.9211, 6.15882, 31.7694, 12.6184, -65.715, 10.6203
1.084, -1, 1.91504, 6.22218, 31.8139, 12.5786, -65.8298, 10.5868
1.088, -1, 1.90898, 6.28557, 31.8584, 12.5388, -65.9446, 10.5533
1.091, -1, 1.90292, 6.34898, 31.9029, 12.499, -66.0595, 10.5198
1.096, -1, 1.89685, 6.41243, 31.9474, 12.4591, -66.1744, 10.4863
1.1, -1, 1.89078, 6.47589, 31.9919, 12.4192, -66.2894, 10.4527
1.104, -1, 1.88471, 6.53939, 32.0364, 12.3794, -66.4044, 10.4192
1.108, -1, 1.87863, 6.60291, 32.081, 12.3395, -66.5195, 10.3856
1.112, -1, 1.87255, 6.66646, 32.1256, 12.2996, -66.6347, 10.352
1.116, -1, 1.86647, 6.73003, 32.1702, 12.2596, -66.7499, 10.3184
1.119, -1, 1.86039, 6.79363, 32.2148, 12.2197, -66.8651, 10.2847
1.124, -1, 1.85431, 6.85726, 32.2595, 12.1797, -66.9804, 10.2511
1.128, -1, 1.84822, 6.92092, 32.3041, 12.1397, -67.0957, 10.2175
1.132, -1, 1.84213, 6.9846, 32.3488, 12.0997, -67.2111, 10.1838
1.136, -1, 1.83603, 7.04831, 32.3935, 12.0597, -67.3265, 10.1501
1.14, -1, 1.82994, 7.11204, 32.4382, 12.0197, -67.442, 10.1164
1.144, -1, 1.82384, 7.17581, 32.483, 11.9796, -67.5575, 10.0827
1.147, -1, 1.81774, 7.23959, 32.5277, 11.9396, -67.6731, 10.049
1.152, -1, 1.81164, 7.30341, 32.5725, 11.8995, -67.7887, 10.0152
1.156, -1, 1.80553, 7.36725, 32.6173, 11.8594, -67.9044, 9.98149
1.16, -1, 1.79942, 7.43113, 32.6621, 11.8193, -68.0201, 9.94773
1.164, -1, 1.79331, 7.49502, 32.7069, 11.7791, -68.1358, 9.91395
1.168, -1, 1.7872, 7.55895, 32.7518, 11.739, -68.2517, 9.88015
1.172, -1, 1.78108, 7.6229, 32.7966, 11.6988, -68.3675, 9.84635
1.175, -1, 1.77496, 7.68688, 32.8415, 11.6586, -68.4834, 9.81252
1.18, -1, 1.76884, 7.75088, 32.8864, 11.6184, -68.5994, 9.77869
1.184, -1, 1.76272, 7.81492, 32.9314, 11.5782, -68.7154, 9.74484
1.188, -1, 1.75659, 7.87898, 32.9763, 11.538, -68.8315, 9.71097
1.192, -1, 1.75046, 7.94306, 33.0213, 11.4977, -68.9476, 9.67709
1.196, -1, 1.74433, 8.00718, 33.0663, 11.4574, -69.0637, 9.6432
1.2, -1, 1.7382, 8.07132, 33.1113, 11.4171, -69.1799, 9.60929
1.204, -1, 1.73206, 8.13549, 33.1563, 11.3768, -69.2962, 9.57537
1.208, -1, 1.72592, 8.19968, 33.2013, 11.3365, -69.4125, 9.54143
1.212, -1, 1.71978, 8.2639, 33.2464, 11.2962, -69.5289, 9.50748
1.216, -1, 1.71363, 8.32815, 33.2915, 11.2558, -69.6453, 9.47351
1.22, -1, 1.70749, 8.39243, 33.3365, 11.2155, -69.7617, 9.43953
1.224, -1, 1.70134, 8.45673, 33.3817, 11.1751, -69.8782, 9.40554
1.228, -1, 1.69518, 8.52106, 33.4268, 11.1347, -69.9948, 9.37153
1.232, -1, 1.68903, 8.58542, 33.472, 11.0942, -70.1114, 9.3375
1.236, -1, 1.68287, 8.64981, 33.5171, 11.0538, -70.228, 9.30346
1.24, -1, 1.67671, 8.71422, 33.5623, 11.0133, -70.3447, 9.26941
1.244, -1, 1.67055, 8.77866, 33.6075, 10.9729, -70.4615, 9.23535
1.248, -1, 1.66438, 8.84313, 33.6528, 10.9324, -70.5783, 9.20127
1.252, -1, 1.65821, 8.90763, 33.698, 10.8919, -70.6951, 9.16717
1.256, -1, 1.65204, 8.97215, 33.7433, 10.8513, -70.812, 9.13306
1.26, -1, 1.64587, 9.0367, 33.7886, 10.8108, -70.929, 9.09893
1.264, -1, 1.63969, 9.10128, 33.8339, 10.7702, -71.046, 9.06479
1.267, -1, 1.63351, 9.16589, 33.8792, 10.7296, -71.163, 9.03064
1.272, -1, 1.62733, 9.23052, 33.9246, 10.689, -71.2801, 8.99647
1.276, -1, 1.62115, 9.29519, 33.9699, 10.6484, -71.3973, 8.96229
1.28, -1, 1.61496, 9.35988, 34.0153, 10.6078, -71.5145, 8.92809
1.284, -1, 1.60877, 9.4246, 34.0607, 10.5671, -71.6318, 8.89387
1.288, -1, 1.60258, 9.48934, 34.1061, 10.5265, -71.7491, 8.85964
1.292, -1, 1.59638, 9.55412, 34.1516, 10.4858, -71.8664, 8.8254
1.295, -1, 1.59019, 9.61892, 34.1971, 10.4451, -71.9838, 8.79114
1.3, -1, 1.58399, 9.68375, 34.2425, 10.4044, -72.1013, 8.75687
1.304, -1, 1.57778, 9.74861, 34.2881, 10.3636, -72.2188, 8.72258
1.308, -1, 1.57158, 9.8135, 34.3336, 10.3229, -72.3363, 8.68828
1.312, -1, 1.56537, 9.87841, 34.3791, 10.2821, -72.454, 8.65396
1.316, -1, 1.55916, 9.94336, 34.4247, 10.2413, -72.5716, 8.61963
1.32, -1, 1.55294, 10.0083, 34.4703, 10.2005, -72.6893, 8.58528
1.324, -1, 1.54673, 10.0733, 34.5159, 10.1597, -72.8071, 8.55091
1.328, -1, 1.54051, 10.1384, 34.5615, 10.1188, -72.9249, 8.51654
1.332, -1, 1.53429, 10.2034, 34.6071, 10.078, -73.0428, 8.48214
1.336, -1, 1.52806, 10.2685, 34.6528, 10.0371, -73.1607, 8.44773
1.34, -1, 1.52183, 10.3336, 34.6985, 9.99618, -73.2787, 8.41331
1.344, -1, 1.5156, 10.3988, 34.7442, 9.95527, -73.3967, 8.37887
1.348, -1, 1.50937, 10.4639, 34.7899, 9.91433, -73.5148, 8.34442
1.352, -1, 1.50314, 10.5291, 34.8357, 9.87338, -73.6329, 8.30995
1.356, -1, 1.4969, 10.5944, 34.8814, 9.83241, -73.7511, 8.27547
1.36, -1, 1.49066, 10.6596, 34.9272, 9.79142, -73.8693, 8.24097
1.364, -1, 1.48441, 10.7249, 34.973, 9.75041, -73.9876, 8.20646
1.368, -1, 1.47817, 10.7902, 35.0188, 9.70939, -74.1059, 8.17193
1.372, -1, 1.47192, 10.8556, 35.0647, 9.66835, -74.2243, 8.13739
1.376, -1, 1.46566, 10.9209, 35.1106, 9.62729, -74.3428, 8.10283
1.38, -1, 1.45941, 10.9863, 35.1564, 9.58621, -74.4612, 8.06825
1.384, -1, 1.45315, 11.0518, 35.2023, 9.54511, -74.5798, 8.03366
1.388, -1, 1.44689, 11.1172, 35.2483, 9.504, -74.6984, 7.99906
1.392, -1, 1.44063, 11.1827, 35.2942, 9.46287, -74.817, 7.96444
1.396, -1, 1.43436, 11.2482, 35.3402, 9.42172, -74.9357, 7.9298
1.4, -1, 1.4281, 11.3138, 35.3862, 9.38055, -75.0545, 7.89515
1.404, -1, 1.42182, 11.3793, 35.4322, 9.33936, -75.1733, 7.86049
1.408, -1, 1.41555, 11.4449, 35.4782, 9.29816, -75.2921, 7.82581
1.412, -1, 1.40927, 11.5106, 35.5243, 9.25693, -75.411, 7.79111
1.416, -1, 1.40299, 11.5762, 35.5703, 9.21569, -75.53, 7.7564
1.42, -1, 1.39671, 11.6419, 35.6164, 9.17443, -75.649, 7.72168
1.424, -1, 1.39043, 11.7076, 35.6625, 9.13316, -75.7681, 7.68693
1.428, -1, 1.38414, 11.7734, 35.7086, 9.09186, -75.8872, 7.65218
1.432, -1, 1.37785, 11.8391, 35.7548, 9.05055, -76.0063, 7.61741
1.436, -1, 1.37156, 11.9049, 35.801, 9.00922, -76.1255, 7.58262
1.44, -1, 1.36526, 11.9708, 35.8471, 8.96787, -76.2448, 7.54782
1.444, -1, 1.35896, 12.0366, 35.8933, 8.9265, -76.3642, 7.513
1.448, -1, 1.35266, 12.1025, 35.9396, 8.88511, -76.4835, 7.47816
1.452, -1, 1.34635, 12.1684, 35.9858, 8.84371, -76.603, 7.44332
1.456, -1, 1.34005, 12.2344, 36.0321, 8.80229, -76.7224, 7.40845
1.46, -1, 1.33374, 12.3004, 36.0784, 8.76085, -76.842, 7.37357
1.464, -1, 1.32743, 12.3664, 36.1247, 8.71939, -76.9616, 7.33868
1.468, -1, 1.32111, 12.4324, 36.171, 8.67791, -77.0812, 7.30377
1.472, -1, 1.31479, 12.4985, 36.2174, 8.63641, -77.2009, 7.26884
1.476, -1, 1.30847, 12.5646, 36.2638, 8.5949, -77.3206, 7.2339
1.48, -1, 1.30215, 12.6307, 36.3101, 8.55337, -77.4404, 7.19894
1.484, -1, 1.29582, 12.6968, 36.3566, 8.51181, -77.5603, 7.16397
1.488, -1, 1.28949, 12.763, 36.403, 8.47024, -77.6802, 7.12898
1.492, -1, 1.28316, 12.8292, 36.4494, 8.42866, -77.8002, 7.09398
1.496, -1, 1.27682, 12.8955, 36.4959, 8.38705, -77.9202, 7.05896
1.5, -1, 1.27049, 12.9617, 36.5424, 8.34543, -78.0402, 7.02393
1.504, -1, 1.26414, 13.028, 36.5889, 8.30378, -78.1604, 6.98888
1.508, -1, 1.2578, 13.0944, 36.6355, 8.26212, -78.2805, 6.95381
1.512, -1, 1.25145, 13.1607, 36.682, 8.22044, -78.4007, 6.91873
1.516, -1, 1.24511, 13.2271, 36.7286, 8.17874, -78.521, 6.88364
1.52, -1, 1.23875, 13.2935, 36.7752, 8.13703, -78.6414, 6.84853
1.524, -1, 1.2324, 13.36, 36.8218, 8.09529, -78.7617, 6.8134
1.528, -1, 1.22604, 13.4265, 36.8685, 8.05354, -78.8822, 6.77826
1.532, -1, 1.21968, 13.493, 36.9151, 8.01177, -79.0027, 6.7431
1.536, -1, 1.21332, 13.5595, 36.9618, 7.96997, -79.1232, 6.70792
1.54, -1, 1.20695, 13.6261, 37.0085, 7.92816, -79.2438, 6.67273
1.544, -1, 1.20058, 13.6926, 37.0552, 7.88634, -79.3645, 6.63753
1.548, -1, 1.19421, 13.7593, 37.102, 7.84449, -79.4852, 6.60231
1.552, -1, 1.18784, 13.8259, 37.1487, 7.80262, -79.6059, 6.56707
1.556, -1, 1.18146, 13.8926, 37.1955, 7.76074, -79.7267, 6.53182
1.56, -1, 1.17508, 13.9593, 37.2423, 7.71884, -79.8476, 6.49655
1.564, -1, 1.1687, 14.0261, 37.2892, 7.67692, -79.9685, 6.46127
1.568, -1, 1.16231, 14.0928, 37.336, 7.63498, -80.0895, 6.42597
1.572, -1, 1.15592, 14.1596, 37.3829, 7.59302, -80.2105, 6.39065
1.576, -1, 1.14953, 14.2265, 37.4298, 7.55104, -80.3316, 6.35532
1.58, -1, 1.14314, 14.2933, 37.4767, 7.50905, -80.4528, 6.31998
1.584, -1, 1.13674, 14.3602, 37.5236, 7.46703, -80.5739, 6.28461
1.588, -1, 1.13034, 14.4271, 37.5706, 7.425, -80.6952, 6.24924
1.592, -1, 1.12393, 14.4941, 37.6175, 7.38295, -80.8165, 6.21384
1.596, -1, 1.11753, 14.5611, 37.6645, 7.34087, -80.9378, 6.17843
1.6, -1, 1.11112, 14.6281, 37.7115, 7.29878, -81.0592, 6.14301
1.604, -1, 1.10471, 14.6951, 37.7586, 7.25668, -81.1807, 6.10757
1.608, -1, 1.09829, 14.7622, 37.8056, 7.21455, -81.3022, 6.07211
1.612, -1, 1.09188, 14.8293, 37.8527, 7.1724, -81.4238, 6.03664
1.616, -1, 1.08546, 14.8964, 37.8998, 7.13024, -81.5454, 6.00115
1.62, -1, 1.07903, 14.9636, 37.9469, 7.08805, -81.6671, 5.96564
1.624, -1, 1.07261, 15.0308, 37.9941, 7.04585, -81.7888, 5.93012
1.628, -1, 1.06618, 15.098, 38.0412, 7.00363, -81.9106, 5.89459
1.632, -1, 1.05975, 15.1652, 38.0884, 6.96139, -82.0325, 5.85903
1.636, -1, 1.05331, 15.2325, 38.1356, 6.91913, -82.1544, 5.82346
1.64, -1, 1.04687, 15.2998, 38.1828, 6.87685, -82.2763, 5.78788
1.644, -1, 1.04043, 15.3672, 38.2301, 6.83455, -82.3983, 5.75228
1.648, -1, 1.03399, 15.4345, 38.2774, 6.79224, -82.5204, 5.71666
1.652, -1, 1.02754, 15.502, 38.3246, 6.7499, -82.6425, 5.68103
1.656, -1, 1.02109, 15.5694, 38.372, 6.70755, -82.7647, 5.64538
1.66, -1, 1.01464, 15.6369, 38.4193, 6.66517, -82.8869, 5.60972
1.664, -1, 1.00819, 15.7043, 38.4666, 6.62278, -83.0092, 5.57403
1.668, -1, 1.00173, 15.7719, 38.514, 6.58036, -83.1315, 5.53834
1.672, -1, 0.995268, 15.8394, 38.5614, 6.53793, -83.2539, 5.50262
1.676, -1, 0.988804, 15.907, 38.6088, 6.49548, -83.3764, 5.46689
1.68, -1, 0.982337, 15.9746, 38.6563, 6.45301, -83.4989, 5.43114
1.684, -1, 0.975867, 16.0423, 38.7037, 6.41051, -83.6214, 5.39538
1.688, -1, 0.969394, 16.11, 38.7512, 6.368, -83.7441, 5.3596
1.692, -1, 0.962918, 16.1777, 38.7987, 6.32547, -83.8667, 5.3238
1.696, -1, 0.956439, 16.2454, 38.8463, 6.28292, -83.9895, 5.28799
1.7, -1, 0.949957, 16.3132, 38.8938, 6.24035, -84.1123, 5.25216
1.704, -1, 0.943472, 16.381, 38.9414, 6.19776, -84.2351, 5.21631
1.708, -1, 0.936984, 16.4488, 38.989, 6.15515, -84.358, 5.18045
1.712, -1, 0.930493, 16.5167, 39.0366, 6.11252, -84.481, 5.14457
1.716, -1, 0.923999, 16.5846, 39.0843, 6.06987, -84.604, 5.10867
1.72, -1, 0.917502, 16.6526, 39.1319, 6.0272, -84.7271, 5.07276
1.724, -1, 0.911002, 16.7205, 39.1796, 5.98451, -84.8502, 5.03683
1.728, -1, 0.904499, 16.7885, 39.2273, 5.9418, -84.9734, 5.00088
1.732, -1, 0.897993, 16.8565, 39.275, 5.89908, -85.0967, 4.96492
1.736, -1, 0.891483, 16.9246, 39.3228, 5.85633, -85.22, 4.92894
1.74, -1, 0.884971, 16.9927, 39.3706, 5.81356, -85.3433, 4.89294
1.744, -1, 0.878456, 17.0608, 39.4184, 5.77077, -85.4668, 4.85693
1.748, -1, 0.871938, 17.129, 39.4662, 5.72796, -85.5903, 4.8209
1.752, -1, 0.865416, 17.1972, 39.514, 5.68513, -85.7138, 4.78485
1.756, -1, 0.858892, 17.2654, 39.5619, 5.64228, -85.8374, 4.74879
1.76, -1, 0.852365, 17.3336, 39.6098, 5.59941, -85.961, 4.7127
1.764, -1, 0.845834, 17.4019, 39.6577, 5.55652, -86.0848, 4.67661
1.768, -1, 0.839301, 17.4702, 39.7056, 5.51361, -86.2085, 4.64049
1.772, -1, 0.832764, 17.5386, 39.7536, 5.47068, -86.3324, 4.60436
1.776, -1, 0.826224, 17.607, 39.8015, 5.42773, -86.4562, 4.56821
1.78, -1, 0.819682, 17.6754, 39.8495, 5.38476, -86.5802, 4.53204
1.784, -1, 0.813136, 17.7438, 39.8975, 5.34177, -86.7042, 4.49586
1.788, -1, 0.806587, 17.8123, 39.9456, 5.29876, -86.8282, 4.45966
1.792, -1, 0.800035, 17.8808, 39.9937, 5.25573, -86.9524, 4.42344
1.796, -1, 0.79348, 17.9493, 40.0417, 5.21268, -87.0766, 4.38721
1.8, -1, 0.786921, 18.0179, 40.0899, 5.16961, -87.2008, 4.35096
1.804, -1, 0.78036, 18.0865, 40.138, 5.12652, -87.3251, 4.31469
1.808, -1, 0.773796, 18.1552, 40.1861, 5.08341, -87.4494, 4.2784
1.812, -1, 0.767228, 18.2238, 40.2343, 5.04028, -87.5739, 4.2421
1.816, -1, 0.760658, 18.2925, 40.2825, 4.99712, -87.6983, 4.20578
1.82, -1, 0.754084, 18.3613, 40.3308, 4.95395, -87.8229, 4.16944
1.824, -1, 0.747507, 18.43, 40.379, 4.91076, -87.9474, 4.13309
1.828, -1, 0.740927, 18.4988, 40.4273, 4.86754, -88.0721, 4.09672
1.832, -1, 0.734344, 18.5677, 40.4756, 4.82431, -88.1968, 4.06033
1.836, -1, 0.727758, 18.6365, 40.5239, 4.78105, -88.3216, 4.02392
1.84, -1, 0.721169, 18.7054, 40.5722, 4.73778, -88.4464, 3.9875
1.844, -1, 0.714577, 18.7743, 40.6206, 4.69448, -88.5713, 3.95106
1.848, -1, 0.707981, 18.8433, 40.669, 4.65117, -88.6962, 3.9146
1.852, -1, 0.701382, 18.9123, 40.7174, 4.60783, -88.8212, 3.87812
1.856, -1, 0.694781, 18.9813, 40.7658, 4.56447, -88.9463, 3.84163
1.86, -1, 0.688176, 19.0504, 40.8143, 4.5211, -89.0714, 3.80512
1.864, -1, 0.681567, 19.1195, 40.8627, 4.4777, -89.1966, 3.76859
1.868, -1, 0.674956, 19.1886, 40.9112, 4.43428, -89.3218, 3.73205
1.872, -1, 0.668342, 19.2578, 40.9598, 4.39084, -89.4471, 3.69549
1.876, -1, 0.661724, 19.327, 41.0083, 4.34738, -89.5725, 3.65891
1.88, -1, 0.655104, 19.3962, 41.0569, 4.30389, -89.6979, 3.62231
1.884, -1, 0.64848, 19.4655, 41.1055, 4.26039, -89.8234, 3.5857
1.888, -1, 0.641853, 19.5348, 41.1541, 4.21687, -89.9489, 3.54906
1.892, -1, 0.635222, 19.6041, 41.2027, 4.17332, -90.0746, 3.51241
1.896, -1, 0.628589, 19.6734, 41.2514, 4.12976, -90.2002, 3.47575
1.9, -1, 0.621952, 19.7428, 41.3001, 4.08617, -90.3259, 3.43906
1.904, -1, 0.615313, 19.8123, 41.3488, 4.04257, -90.4517, 3.40236
1.908, -1, 0.60867, 19.8817, 41.3975, 3.99894, -90.5776, 3.36564
1.912, -1, 0.602024, 19.9512, 41.4463, 3.95529, -90.7035, 3.3289
1.916, -1, 0.595374, 20.0207, 41.4951, 3.91162, -90.8294, 3.29215
1.92, -1, 0.588722, 20.0903, 41.5439, 3.86793, -90.9555, 3.25538
1.924, -1, 0.582066, 20.1599, 41.5927, 3.82422, -91.0815, 3.21859
1.928, -1, 0.575407, 20.2295, 41.6415, 3.78049, -91.2077, 3.18178
1.932, -1, 0.568745, 20.2992, 41.6904, 3.73673, -91.3339, 3.14495
1.936, -1, 0.56208, 20.3689, 41.7393, 3.69296, -91.4602, 3.10811
1.94, -1, 0.555411, 20.4386, 41.7882, 3.64916, -91.5865, 3.07125
1.944, -1, 0.548739, 20.5084, 41.8372, 3.60534, -91.7129, 3.03437
1.948, -1, 0.542064, 20.5781, 41.8861, 3.56151, -91.8393, 2.99747
1.952, -1, 0.535386, 20.648, 41.9351, 3.51765, -91.9658, 2.96055
1.956, -1, 0.528705, 20.7178, 41.9841, 3.47377, -92.0924, 2.92362
1.96, -1, 0.52202, 20.7877, 42.0332, 3.42987, -92.219, 2.88667
1.964, -1, 0.515332, 20.8577, 42.0822, 3.38594, -92.3457, 2.8497
1.968, -1, 0.508641, 20.9276, 42.1313, 3.342, -92.4725, 2.81272
1.972, -1, 0.501947, 20.9976, 42.1804, 3.29803, -92.5993, 2.77571
1.976, -1, 0.495249, 21.0676, 42.2296, 3.25405, -92.7262, 2.73869
1.98, -1, 0.488548, 21.1377, 42.2787, 3.21004, -92.8531, 2.70165
1.984, -1, 0.481844, 21.2078, 42.3279, 3.16601, -92.9801, 2.66459
1.988, -1, 0.475137, 21.2779, 42.3771, 3.12196, -93.1072, 2.62752
1.992, -1, 0.468426, 21.3481, 42.4264, 3.07788, -93.2343, 2.59042
1.996, -1, 0.461712, 21.4183, 42.4756, 3.03379, -93.3615, 2.55331
1.999, -1, 0.454995, 21.4885, 42.5249, 2.98968, -93.4888, 2.51618
2.004, -1, 0.448274, 21.5588, 42.5742, 2.94554, -93.6161, 2.47903
2.008, -1, 0.44155, 21.6291, 42.6235, 2.90138, -93.7434, 2.44186
2.012, -1, 0.434823, 21.6995, 42.6729, 2.8572, -93.8709, 2.40468
2.015, -1, 0.428093, 21.7698, 42.7222, 2.813, -93.9984, 2.36748
2.019, -1, 0.421359, 21.8402, 42.7716, 2.76878, -94.1259, 2.33026
2.024, -1, 0.414622, 21.9107, 42.8211, 2.72453, -94.2536, 2.29302
2.028, -1, 0.407881, 21.9812, 42.8705, 2.68026, -94.3812, 2.25576
2.031, -1, 0.401137, 22.0517, 42.92, 2.63597, -94.509, 2.21848
2.036, -1, 0.39439, 22.1222, 42.9695, 2.59166, -94.6368, 2.18119
2.04, -1, 0.38764, 22.1928, 43.019, 2.54733, -94.7647, 2.14387
2.044, -1, 0.380886, 22.2634, 43.0685, 2.50298, -94.8926, 2.10654
2.048, -1, 0.374129, 22.3341, 43.1181, 2.4586, -95.0206, 2.06919
2.051, -1, 0.367368, 22.4048, 43.1677, 2.4142, -95.1487, 2.03182
2.055, -1, 0.360604, 22.4755, 43.2173, 2.36978, -95.2768, 1.99444
2.06, -1, 0.353837, 22.5462, 43.267, 2.32534, -95.405, 1.95703
2.064, -1, 0.347067, 22.617, 43.3166, 2.28087, -95.5333, 1.91961
2.068, -1, 0.340293, 22.6879, 43.3663, 2.23639, -95.6616, 1.88216
2.071, -1, 0.333515, 22.7587, 43.416, 2.19188, -95.79, 1.8447
2.076, -1, 0.326734, 22.8296, 43.4658, 2.14734, -95.9184, 1.80722
2.08, -1, 0.31995, 22.9006, 43.5156, 2.10279, -96.047, 1.76972
2.084, -1, 0.313163, 22.9715, 43.5653, 2.05821, -96.1755, 1.7322
2.087, -1, 0.306372, 23.0425, 43.6152, 2.01361, -96.3042, 1.69466
2.092, -1, 0.299577, 23.1136, 43.665, 1.96899, -96.4329, 1.6571
2.096, -1, 0.292779, 23.1847, 43.7149, 1.92434, -96.5617, 1.61953
2.1, -1, 0.285978, 23.2558, 43.7648, 1.87967, -96.6905, 1.58193
2.104, -1, 0.279173, 23.3269, 43.8147, 1.83498, -96.8194, 1.54432
2.107, -1, 0.272365, 23.3981, 43.8646, 1.79027, -96.9484, 1.50668
2.111, -1, 0.265553, 23.4693, 43.9146, 1.74553, -97.0774, 1.46903
2.116, -1, 0.258738, 23.5406, 43.9646, 1.70078, -97.2066, 1.43136
2.12, -1, 0.251919, 23.6119, 44.0146, 1.65599, -97.3357, 1.39367
2.124, -1, 0.245097, 23.6832, 44.0647, 1.61119, -97.465, 1.35596
2.127, -1, 0.238272, 23.7546, 44.1147, 1.56636, -97.5943, 1.31823
2.132, -1, 0.231442, 23.826, 44.1648, 1.52151, -97.7236, 1.28048
2.136, -1, 0.22461, 23.8974, 44.215, 1.47664, -97.8531, 1.24271
2.14, -1, 0.217774, 23.9689, 44.2651, 1.43174, -97.9826, 1.20492
2.143, -1, 0.210934, 24.0404, 44.3153, 1.38683, -98.1121, 1.16712
2.148, -1, 0.204091, 24.112, 44.3655, 1.34188, -98.2418, 1.12929
2.152, -1, 0.197245, 24.1836, 44.4157, 1.29692, -98.3715, 1.09144
2.156, -1, 0.190394, 24.2552, 44.466, 1.25193, -98.5012, 1.05358
2.16, -1, 0.183541, 24.3269, 44.5163, 1.20692, -98.6311, 1.0157
2.163, -1, 0.176684, 24.3986, 44.5666, 1.16189, -98.761, 0.977792
2.168, -1, 0.169823, 24.4703, 44.6169, 1.11683, -98.8909, 0.939869
2.172, -1, 0.162959, 24.5421, 44.6672, 1.07175, -99.021, 0.901926
2.176, -1, 0.156097, 24.6138, 44.7176, 1.02664, -99.1511, 0.863964
2.179, -1, 0.149244, 24.6856, 44.768, 0.981518, -99.2812, 0.825983
2.184, -1, 0.142415, 24.7573, 44.8184, 0.936373, -99.4115, 0.787987
2.188, -1, 0.135628, 24.8289, 44.8688, 0.891215, -99.5417, 0.749982
2.192, -1, 0.128898, 24.9002, 44.9192, 0.84606, -99.672, 0.71198
2.196, -1, 0.122238, 24.9713, 44.9695, 0.80093, -99.8021, 0.674001
2.199, -1, 0.115661, 25.0419, 45.0197, 0.755858, -99.9322, 0.636072
2.204, -1, 0.10919, 25.1121, 45.0698, 0.71089, -100.062, 0.598233
2.208, -1, 0.102857, 25.1816, 45.1196, 0.666083, -100.191, 0.560533
2.212, -1, 0.0967047, 25.2502, 45.169, 0.621516, -100.32, 0.523038
2.216, -1, 0.0907806, 25.3176, 45.218, 0.577288, -100.447, 0.485832
2.219, -1, 0.0851249, 25.3835, 45.2664, 0.533526, -100.574, 0.449024
2.224, -1, 0.0797643, 25.4477, 45.314, 0.490387, -100.698, 0.412745
2.228, -1, 0.0746986, 25.5099, 45.3606, 0.448061, -100.82, 0.377155
2.232, -1, 0.0698965, 25.57, 45.406, 0.406765, -100.939, 0.342435
2.235, -1, 0.0653082, 25.628, 45.45, 0.366735, -101.055, 0.308782
2.24, -1, 0.0608873, 25.6838, 45.4922, 0.328211, -101.166, 0.276395
2.244, -1, 0.0566064, 25.7372, 45.5326, 0.291429, -101.272, 0.245471
2.248, -1, 0.052457, 25.7882, 45.5709, 0.256604, -101.372, 0.216191
2.252, -1, 0.048443, 25.8364, 45.6069, 0.223927, -101.467, 0.188714
2.255, -1, 0.0445723, 25.8817, 45.6404, 0.193561, -101.554, 0.163177
2.259, -1, 0.0408477, 25.9241, 45.6713, 0.165633, -101.635, 0.139686
2.264, -1, 0.03726, 25.9634, 45.6995, 0.140233, -101.708, 0.118316
2.268, -1, 0.0337875, 25.9998, 45.725, 0.117408, -101.774, 0.0991051
2.272, -1, 0.030405, 26.0334, 45.7477, 0.0971561, -101.832, 0.0820525
2.275, -1, 0.0271008, 26.0641, 45.7678, 0.0794255, -101.883, 0.0671138
2.28, -1, 0.0238887, 26.0921, 45.7854, 0.0641122, -101.928, 0.0542025
2.284, -1, 0.0208065, 26.1173, 45.8005, 0.0510672, -101.965, 0.0431947
2.288, -1, 0.017902, 26.1396, 45.8133, 0.0401072, -101.997, 0.0339384
2.291, -1, 0.015219, 26.1592, 45.8241, 0.0310278, -102.023, 0.0262636
2.296, -1, 0.0127871, 26.176, 45.833, 0.0236166, -102.044, 0.0199931
2.3, -1, 0.0106166, 26.1903, 45.8403, 0.0176626, -102.061, 0.0149504
2.304, -1, 0.00869737, 26.2024, 45.8461, 0.0129633, -102.075, 0.0109655
2.308, -1, 0.00700793, 26.2124, 45.8507, 0.00932705, -102.085, 0.0078773
2.311, -1, 0.00552976, 26.2208, 45.8543, 0.00657416, -102.093, 0.00553471
2.316, -1, 0.00425406, 26.2277, 45.857, 0.00453776, -102.099, 0.00379758
2.32, -1, 0.00317807, 26.2332, 45.8591, 0.00306623, -102.103, 0.00253873
2.324, 2, 0.00229858, 26.2376, 45.8606, 0.00202605, -102.106, 0.00164613
2.328, 2, 0.00160814, 26.2409, 45.8617, 0.00130429, -102.108, 0.00102494
2.331, 2, 0.00109132, 26.2434, 45.8624, 0.000810009, -102.11, 0.000598559
2.336, 2, 0.000722101, 26.2451, 45.863, 0.000473955, -102.111, 0.000308311
2.34, 2, 0.000467161, 26.2463, 45.8633, 0.000246113, -102.112, 0.000111453
2.344, 2, 0.000293847, 26.2471, 45.8636, 9.17505E-5, -102.112, -2.1922E-5
2.347, 2, 0.000176418, 26.2476, 45.8637, -1.28152E-5, -102.112, -0.000112271
2.352, 2, 9.68726E-5, 26.248, 45.8638, -8.36477E-5, -102.112, -0.000173472
2.356, 2, 4.29884E-5, 26.2483, 45.8639, -0.000131629, -102.113, -0.00021493
2.36, 2, 6.48749E-6, 26.2484, 45.864, -0.000164132, -102.113, -0.000243014
2.364, 2, -1.82381E-5, 26.2486, 45.864, -0.000186149, -102.113, -0.000262038
2.367, 2, -3.49872E-5, 26.2486, 45.864, -0.000201064, -102.113, -0.000274924
2.372, 2, -4.6333E-5, 26.2487, 45.864, -0.000211167, -102.113, -0.000283654
2.376, 2, -5.40186E-5, 26.2487, 45.8641, -0.00021801, -102.113, -0.000289567
2.38, 2, -5.92248E-5, 26.2487, 45.8641, -0.000222646, -102.113, -0.000293572
2.383, 2, -6.27515E-5, 26.2488, 45.8641, -0.000225787, -102.113, -0.000296286
2.388, 2, -6.51404E-5, 26.2488, 45.8641, -0.000227914, -102.113, -0.000298124
2.392, 2, -6.67587E-5, 26.2488, 45.8641, -0.000229355, -102.113, -0.000299369
2.396, 2, -6.78549E-5, 26.2488, 45.8641, -0.000230331, -102.113, -0.000300212
2.4, 2, -6.85975E-5, 26.2488, 45.8641, -0.000230992, -102.113, -0.000300784
2.403, 2, -6.91005E-5, 26.2488, 45.8641, -0.00023144, -102.113, -0.000301171
2.408, 2, -6.94412E-5, 26.2488, 45.8641, -0.000231744, -102.113, -0.000301433
2.412, 2, -6.9672E-5, 26.2488, 45.8641, -0.000231949, -102.113, -0.00030161
2.416, 2, -6.98284E-5, 26.2488, 45.8641, -0.000232089, -102.113, -0.000301731
2.42, 2, -6.99343E-5, 26.2488, 45.8641, -0.000232183, -102.113, -0.000301812
2.423, 2, -7.00061E-5, 26.2488, 45.8641, -0.000232247, -102.113, -0.000301867
2.428, 2, -7.00547E-5, 26.2488, 45.8641, -0.00023229, -102.113, -0.000301905
2.432, 2, -7.00876E-5, 26.2488, 45.8641, -0.000232319, -102.113, -0.00030193
2.436, 2, -7.01099E-5, 26.2488, 45.8641, -0.000232339, -102.113, -0.000301947
2.439, 2, -7.0125E-5, 26.2488, 45.8641, -0.000232353, -102.113, -0.000301959
2.444, 2, -7.01352E-5, 26.2488, 45.8641, -0.000232362, -102.113, -0.000301967
2.448, 2, -7.01422E-5, 26.2488, 45.8641, -0.000232368, -102.113, -0.000301972
2.452, 2, -7.01469E-5, 26.2488, 45.8641, -0.000232372, -102.113, -0.000301976
2.456, 2, -7.015E-5, 26.2488, 45.8641, -0.000232375, -102.113, -0.000301978
2.459, 2, -7.01522E-5, 26.2488, 45.8641, -0.000232377, -102.113, -0.00030198
2.464, 2, -7.01536E-5, 26.2488, 45.8641, -0.000232378, -102.113, -0.000301981
2.468, 2, -7.01546E-5, 26.2488, 45.8641, -0.000232379, -102.113, -0.000301982
2.472, 2, -7.01553E-5, 26.2488, 45.8641, -0.00023238, -102.113, -0.000301982
2.476, 2, -7.01558E-5, 26.2488, 45.8641, -0.00023238, -102.113, -0.000301983
2.479, 2, -7.01561E-5, 26.2488, 45.8641, -0.00023238, -102.113, -0.000301983
2.484, 2, -7.01563E-5, 26.2488, 45.8641, -0.00023238, -102.113, -0.000301983
2.488, 2, -7.01564E-5, 26.2488, 45.8641, -0.000232381, -102.113, -0.000301983
2.492, 2, -7.01565E-5, 26.2488, 45.8641, -0.000232381, -102.113, -0.000301983
2.495, 2, -7.01566E-5, 26.2488, 45.8641, -0.000232381, -102.113, -0.000301983
2.5, 2, -7.01566E-5, 26.2488, 45.8641, -0.000232381, -102.113, -0.000301983
2.504, 2, -7.01566E-5, 26.2488, 45.8641, -0.000232381, -102.113, -0.000301983
2.508, 2, -7.01567E-5, 26.2488, 45.8641, -0.000232381, -102.113, -0.000301983
2.512, 2, -7.01567E-5, 26.2488, 45.8641, -0.000232381, -102.113, -0.000301983
2.515, 2, -7.01567E-5, 26.2488, 45.8641, -0.000232381, -102.113, -0.000301983
2.52, 2, -7.01567E-5, 26.2488, 45.8641, -0.000232381, -102.113, -0.000301983
2.524, 2, -7.01567E-5, 26.2488, 45.8641, -0.000232381, -102.113, -0.000301983
2.528, 2, -7.01567E-5, 26.2488, 45.8641, -0.000232381, -102.113, -0.000301983
2.531, 2, -7.01567E-5, 26.2488, 45.8641, -0.000232381, -102.113, -0.000301983
2.536, 2, -7.01567E-5, 26.2488, 45.8641, -0.000232381, -102.113, -0.000301983
2.54, 2, -7.01567E-5, 26.2488, 45.8641, -0.000232381, -102.113, -0.000301983
2.544, 2, -7.01567E-5, 26.2488, 45.8641, -0.000232381, -102.113, -0.000301983
2.548, 2, -7.01567E-5, 26.2488, 45.8641, -0.000232381, -102.113, -0.000301983
2.551, 2, -7.01567E-5, 26.2488, 45.8641, -0.000232381, -102.113, -0.000301983
2.556, 2, -7.01567E-5, 26.2488, 45.8641, -0.000232381, -102.113, -0.000301983
2.56, 2, -7.01567E-5, 26.2488, 45.8641, -0.000232381, -102.113, -0.000301983
2.564, 2, -7.01567E-5, 26.2488, 45.8641, -0.000232381, -102.113, -0.000301983
2.568, 2, -7.01567E-5, 26.2488, 45.8641, -0.000232381, -102.113, -0.000301983
2.571, 2, -7.01567E-5, 26.2488, 45.8641, -0.000232381, -102.113, -0.000301983
2.576, 2, -7.01567E-5, 26.2488, 45.8641, -0.000232381, -102.113, -0.000301983
2.58, 2, -7.01567E-5, 26.2488, 45.8641, -0.000232381, -102.113, -0.000301983
2.584, 2, -7.01567E-5, 26.2488, 45.8641, -0.000232381, -102.113, -0.000301983
2.587, 2, -7.01567E-5, 26.2488, 45.8641, -0.000232381, -102.113, -0.000301983
2.592, 2, -7.01567E-5, 26.2488, 45.8641, -0.000232381, -102.113, -0.000301983
2.596, 2, -7.01567E-5, 26.2488, 45.8641, -0.000232381, -102.113, -0.000301983
2.6, 2, -7.01567E-5, 26.2488, 45.8641, -0.000232381, -102.113, -0.000301983
2.604, 2, -7.01567E-5, 26.2488, 45.8641, -0.000232381, -102.113, -0.000301983
2.607, 2, -7.01567E-5, 26.2488, 45.8641, -0.000232381, -102.113, -0.000301983
2.612, 2, -7.01567E-5, 26.2488, 45.8641, -0.000232381, -102.113, -0.000301983
2.616, 2, -7.01567E-5, 26.2488, 45.8641, -0.000232381, -102.113, -0.000301983
2.62, 2, -7.01567E-5, 26.2488, 45.8641, -0.000232381, -102.113, -0.000301983
2.624, 2, -7.01567E-5, 26.2488, 45.8641, -0.000232381, -102.113, -0.000301983
2.627, 2, -7.01567E-5, 26.2488, 45.8641, -0.000232381, -102.113, -0.000301983
2.632, 2, -7.01567E-5, 26.2488, 45.8641, -0.000232381, -102.113, -0.000301983
2.636, 2, -7.01567E-5, 26.2488, 45.8641, -0.000232381, -102.113, -0.000301983
2.64, 2, -7.01567E-5, 26.2488, 45.8641, -0.000232381, -102.113, -0.000301983
2.643, 2, -7.01567E-5, 26.2488, 45.8641, -0.000232381, -102.113, -0.000301983
2.648, 2, -7.01567E-5, 26.2488, 45.8641, -0.000232381, -102.113, -0.000301983
2.652, 2, -7.01567E-5, 26.2488, 45.8641, -0.000232381, -102.113, -0.000301983
2.656, 2, -7.01567E-5, 26.2488, 45.8641, -0.000232381, -102.113, -0.000301983
2.66, 2, -7.01567E-5, 26.2488, 45.8641, -0.000232381, -102.113, -0.000301983
2.663, 2, -7.01567E-5, 26.2488, 45.8641, -0.000232381, -102.113, -0.000301983
2.668, 2, -7.01567E-5, 26.2488, 45.8641, -0.000232381, -102.113, -0.000301983
2.672, 2, -7.01567E-5, 26.2488, 45.8641, -0.000232381, -102.113, -0.000301983
2.676, 2, -7.01567E-5, 26.2488, 45.8641, -0.000232381, -102.113, -0.000301983
2.679, 2, -7.01567E-5, 26.2488, 45.8641, -0.000232381, -102.113, -0.000301983
2.684, 2, -7.01567E-5, 26.2488, 45.8641, -0.000232381, -102.113, -0.000301983
2.688, 2, -7.01567E-5, 26.2488, 45.8641, -0.000232381, -102.113, -0.000301983
2.692, 2, -7.01567E-5, 26.2488, 45.8641, -0.000232381, -102.113, -0.000301983
2.696, 2, -7.01567E-5, 26.2488, 45.8641, -0.000232381, -102.113, -0.000301983
2.699, 2, -7.01567E-5, 26.2488, 45.8641, -0.000232381, -102.113, -0.000301983
2.704, 2, -7.01567E-5, 26.2488, 45.8641, -0.000232381, -102.113, -0.000301983
2.708, 2, -7.01567E-5, 26.2488, 45.8641, -0.000232381, -102.113, -0.000301983
2.712, 2, -7.01567E-5, 26.2488, 45.8641, -0.000232381, -102.113, -0.000301983
2.716, 2, -7.01567E-5, 26.2488, 45.8641, -0.000232381, -102.113, -0.000301983
2.719, 2, -7.01567E-5, 26.2488, 45.8641, -0.000232381, -102.113, -0.000301983
2.724, 2, -7.01567E-5, 26.2488, 45.8641, -0.000232381, -102.113, -0.000301983
2.728, 2, -7.01567E-5, 26.2488, 45.8641, -0.000232381, -102.113, -0.000301983
2.732, 2, -7.01567E-5, 26.2488, 45.8641, -0.000232381, -102.113, -0.000301983
2.735, 2, -7.01567E-5, 26.2488, 45.8641, -0.000232381, -102.113, -0.000301983
2.74, 2, -7.01567E-5, 26.2488, 45.8641, -0.000232381, -102.113, -0.000301983
2.744, 2, -7.01567E-5, 26.2488, 45.8641, -0.000232381, -102.113, -0.000301983
2.748, 2, -7.01567E-5, 26.2488, 45.8641, -0.000232381, -102.113, -0.000301983
2.752, 2, -7.01567E-5, 26.2488, 45.8641, -0.000232381, -102.113, -0.000301983
2.755, 2, -7.01567E-5, 26.2488, 45.8641, -0.000232381, -102.113, -0.000301983
2.76, 2, -7.01567E-5, 26.2488, 45.8641, -0.000232381, -102.113, -0.000301983
2.764, 2, -7.01567E-5, 26.2488, 45.8641, -0.000232381, -102.113, -0.000301983
2.768, 2, -7.01567E-5, 26.2488, 45.8641, -0.000232381, -102.113, -0.000301983
2.772, 2, -7.01567E-5, 26.2488, 45.8641, -0.000232381, -102.113, -0.000301983
2.775, 2, -7.01567E-5, 26.2488, 45.8641, -0.000232381, -102.113, -0.000301983
2.78, 2, -7.01567E-5, 26.2488, 45.8641, -0.000232381, -102.113, -0.000301983
2.784, 2, -7.01567E-5, 26.2488, 45.8641, -0.000232381, -102.113, -0.000301983
2.788, 2, -7.01567E-5, 26.2488, 45.8641, -0.000232381, -102.113, -0.000301983
2.791, 2, -7.01567E-5, 26.2488, 45.8641, -0.000232381, -102.113, -0.000301983
2.796, 2, -7.01567E-5, 26.2488, 45.8641, -0.000232381, -102.113, -0.000301983
2.8, 2, -7.01567E-5, 26.2488, 45.8641, -0.000232381, -102.113, -0.000301983
2.804, 2, -7.01567E-5, 26.2488, 45.8641, -0.000232381, -102.113, -0.000301983
2.808, 2, -7.01567E-5, 26.2488, 45.8641, -0.000232381, -102.113, -0.000301983
2.811, 2, -7.01567E-5, 26.2488, 45.8641, -0.000232381, -102.113, -0.000301983
2.816, 2, -7.01567E-5, 26.2488, 45.8641, -0.000232381, -102.113, -0.000301983
2.82, 2, -7.01567E-5, 26.2488, 45.8641, -0.000232381, -102.113, -0.000301983
2.824, 2, -7.01567E-5, 26.2488, 45.8641, -0.000232381, -102.113, -0.000301983
2.828, 2, -7.01567E-5, 26.2488, 45.8641, -0.000232381, -102.113, -0.000301983
2.831, 2, -7.01567E-5, 26.2488, 45.8641, -0.000232381, -102.113, -0.000301983
2.836, 2, -7.01567E-5, 26.2488, 45.8641, -0.000232381, -102.113, -0.000301983
2.84, 2, -7.01567E-5, 26.2488, 45.8641, -0.000232381, -102.113, -0.000301983
2.844, 2, -7.01567E-5, 26.2488, 45.8641, -0.000232381, -102.113, -0.000301983
2.847, 2, -7.01567E-5, 26.2488, 45.8641, -0.000232381, -102.113, -0.000301983
2.852, 2, -7.01567E-5, 26.2488, 45.8641, -0.000232381, -102.113, -0.000301983
2.856, 2, -7.01567E-5, 26.2488, 45.8641, -0.000232381, -102.113, -0.000301983
2.86, 2, -7.01567E-5, 26.2488, 45.8641, -0.000232381, -102.113, -0.000301983
2.864, 2, -7.01567E-5, 26.2488, 45.8641, -0.000232381, -102.113, -0.000301983
2.867, 2, -7.01567E-5, 26.2488, 45.8641, -0.000232381, -102.113, -0.000301983
2.872, 2, -7.01567E-5, 26.2488, 45.8641, -0.000232381, -102.113, -0.000301983
2.876, 2, -7.01567E-5, 26.2488, 45.8641, -0.000232381, -102.113, -0.000301983
2.88, 2, -7.01567E-5, 26.2488, 45.8641, -0.000232381, -102.113, -0.000301983
2.883, 2, -7.01567E-5, 26.2488, 45.8641, -0.000232381, -102.113, -0.000301983
2.888, 2, -7.01567E-5, 26.2488, 45.8641, -0.000232381, -102.113, -0.000301983
2.892, 2, -7.01567E-5, 26.2488, 45.8641, -0.000232381, -102.113, -0.000301983
2.896, 2, -7.01567E-5, 26.2488, 45.8641, -0.000232381, -102.113, -0.000301983
2.9, 2, -7.01567E-5, 26.2488, 45.8641, -0.000232381, -102.113, -0.000301983
2.903, 2, -7.01567E-5, 26.2488, 45.8641, -0.000232381, -102.113, -0.000301983
2.908, 2, -7.01567E-5, 26.2488, 45.8641, -0.000232381, -102.113, -0.000301983
2.912, 2, -7.01567E-5, 26.2488, 45.8641, -0.000232381, -102.113, -0.000301983
2.916, 2, -7.01567E-5, 26.2488, 45.8641, -0.000232381, -102.113, -0.000301983
2.92, 2, -7.01567E-5, 26.2488, 45.8641, -0.000232381, -102.113, -0.000301983
2.923, 2, -7.01567E-5, 26.2488, 45.8641, -0.000232381, -102.113, -0.000301983
2.928, 2, -7.01567E-5, 26.2488, 45.8641, -0.000232381, -102.113, -0.000301983
2.932, 2, -7.01567E-5, 26.2488, 45.8641, -0.000232381, -102.113, -0.000301983
2.936, 2, -7.01567E-5, 26.2488, 45.8641, -0.000232381, -102.113, -0.000301983
2.939, 2, -7.01567E-5, 26.2488, 45.8641, -0.000232381, -102.113, -0.000301983
2.944, 2, -7.01567E-5, 26.2488, 45.8641, -0.000232381, -102.113, -0.000301983
2.948, 2, -7.01567E-5, 26.2488, 45.8641, -0.000232381, -102.113, -0.000301983
2.952, 2, -7.01567E-5, 26.2488, 45.8641, -0.000232381, -102.113, -0.000301983
2.956, 2, -7.01567E-5, 26.2488, 45.8641, -0.000232381, -102.113, -0.000301983
2.959, 2, -7.01567E-5, 26.2488, 45.8641, -0.000232381, -102.113, -0.000301983
2.964, 2, -7.01567E-5, 26.2488, 45.8641, -0.000232381, -102.113, -0.000301983
2.968, 2, -7.01567E-5, 26.2488, 45.8641, -0.000232381, -102.113, -0.000301983
2.972, 2, -7.01567E-5, 26.2488, 45.8641, -0.000232381, -102.113, -0.000301983
2.976, 2, -7.01567E-5, 26.2488, 45.8641, -0.000232381, -102.113, -0.000301983
2.98, 2, -7.01567E-5, 26.2488, 45.8641, -0.000232381, -102.113, -0.000301983
2.984, 2, -7.01567E-5, 26.2488, 45.8641, -0.000232381, -102.113, -0.000301983
2.988, 2, -7.01567E-5, 26.2488, 45.8641, -0.000232381, -102.113, -0.000301983
2.992, 2, -7.01567E-5, 26.2488, 45.8641, -0.000232381, -102.113, -0.000301983
2.995, 2, -7.01567E-5, 26.2488, 45.8641, -0.000232381, -102.113, -0.000301983
3, 2, -7.01567E-5, 26.2488, 45.8641, -0.000232381, -102.113, -0.000301983
3.004, 2, -7.01567E-5, 26.2488, 45.8641, -0.000232381, -102.113, -0.000301983
3.008, 2, -7.01567E-5, 26.2488, 45.8641, -0.000232381, -102.113, -0.000301983
3.012, 2, -7.01567E-5, 26.2488, 45.8641, -0.000232381, -102.113, -0.000301983
3.015, 2, -7.01567E-5, 26.2488, 45.8641, -0.000232381, -102.113, -0.000301983
3.02, 2, -7.01567E-5, 26.2488, 45.8641, -0.000232381, -102.113, -0.000301983
3.024, 2, -7.01567E-5, 26.2488, 45.8641, -0.000232381, -102.113, -0.000301983
3.028, 2, -7.01567E-5, 26.2488, 45.8641, -0.000232381, -102.113, -0.000301983
3.031, 2, -7.01567E-5, 26.2488, 45.8641, -0.000232381, -102.113, -0.000301983
3.036, 2, -7.01567E-5, 26.2488, 45.8641, -0.000232381, -102.113, -0.000301983
3.04, 2, -7.01567E-5, 26.2488, 45.8641, -0.000232381, -102.113, -0.000301983
3.044, 2, -7.01567E-5, 26.2488, 45.8641, -0.000232381, -102.113, -0.000301983
3.048, 2, -7.01567E-5, 26.2488, 45.8641, -0.000232381, -102.113, -0.000301983
3.051, 2, -7.01567E-5, 26.2488, 45.8641, -0.000232381, -102.113, -0.000301983
3.056, 2, -7.01567E-5, 26.2488, 45.8641, -0.000232381, -102.113, -0.000301983
3.06, 2, -7.01567E-5, 26.2488, 45.8641, -0.000232381, -102.113, -0.000301983
3.064, 2, -7.01567E-5, 26.2488, 45.8641, -0.000232381, -102.113, -0.000301983
3.068, 2, -7.01567E-5, 26.2488, 45.8641, -0.000232381, -102.113, -0.000301983
3.071, 2, -7.01567E-5, 26.2488, 45.8641, -0.000232381, -102.113, -0.000301983
3.076, 2, -7.01567E-5, 26.2488, 45.8641, -0.000232381, -102.113, -0.000301983
3.08, 2, -7.01567E-5, 26.2488, 45.8641, -0.000232381, -102.113, -0.000301983
3.084, 2, -7.01567E-5, 26.2488, 45.8641, -0.000232381, -102.113, -0.000301983
3.087, 2, -7.01567E-5, 26.2488, 45.8641, -0.000232381, -102.113, -0.000301983
3.092, 2, -7.01567E-5, 26.2488, 45.8641, -0.000232381, -102.113, -0.000301983
3.096, 2, -7.01567E-5, 26.2488, 45.8641, -0.000232381, -102.113, -0.000301983
3.1, 2, -7.01567E-5, 26.2488, 45.8641, -0.000232381, -102.113, -0.000301983
3.104, 2, -7.01567E-5, 26.2488, 45.8641, -0.000232381, -102.113, -0.000301983
3.107, 2, -7.01567E-5, 26.2488, 45.8641, -0.000232381, -102.113, -0.000301983
3.112, 2, -7.01567E-5, 26.2488, 45.8641, -0.000232381, -102.113, -0.000301983
3.116, 2, -7.01567E-5, 26.2488, 45.8641, -0.000232381, -102.113, -0.000301983
3.12, 2, -7.01567E-5, 26.2488, 45.8641, -0.000232381, -102.113, -0.000301983
3.124, 2, -7.01567E-5, 26.2488, 45.8641, -0.000232381, -102.113, -0.000301983
3.128, 2, -7.01567E-5, 26.2488, 45.8641, -0.000232381, -102.113, -0.000301983
3.132, 2, -7.01567E-5, 26.2488, 45.8641, -0.000232381, -102.113, -0.000301983
3.136, 2, -7.01567E-5, 26.2488, 45.8641, -0.000232381, -102.113, -0.000301983
3.14, 2, -7.01567E-5, 26.2488, 45.8641, -0.000232381, -102.113, -0.000301983
3.143, 2, -7.01567E-5, 26.2488, 45.8641, -0.000232381, -102.113, -0.000301983
3.148, 2, -7.01567E-5, 26.2488, 45.8641, -0.000232381, -102.113, -0.000301983
3.152, 2, -7.01567E-5, 26.2488, 45.8641, -0.000232381, -102.113, -0.000301983
3.156, 2, -7.01567E-5, 26.2488, 45.8641, -0.000232381, -102.113, -0.000301983
3.16, 2, -7.01567E-5, 26.2488, 45.8641, -0.000232381, -102.113, -0.000301983
3.163, 2, -7.01567E-5, 26.2488, 45.8641, -0.000232381, -102.113, -0.000301983
3.168, 2, -7.01567E-5, 26.2488, 45.8641, -0.000232381, -102.113, -0.000301983
3.172, 2, -7.01567E-5, 26.2488, 45.8641, -0.000232381, -102.113, -0.000301983
3.176, 2, -7.01567E-5, 26.2488, 45.8641, -0.000232381, -102.113, -0.000301983
3.179, 2, -7.01567E-5, 26.2488, 45.8641, -0.000232381, -102.113, -0.000301983
3.184, 2, -7.01567E-5, 26.2488, 45.8641, -0.000232381, -102.113, -0.000301983
3.188, 2, -7.01567E-5, 26.2488, 45.8641, -0.000232381, -102.113, -0.000301983
3.192, 2, -7.01567E-5, 26.2488, 45.8641, -0.000232381, -102.113, -0.000301983
3.196, 2, -7.01567E-5, 26.2488, 45.8641, -0.000232381, -102.113, -0.000301983
3.199, 2, -7.01567E-5, 26.2488, 45.8641, -0.000232381, -102.113, -0.000301983
3.204, 2, -7.01567E-5, 26.2488, 45.8641, -0.000232381, -102.113, -0.000301983
3.208, 2, -7.01567E-5, 26.2488, 45.8641, -0.000232381, -102.113, -0.000301983
3.212, 2, -7.01567E-5, 26.2488, 45.8641, -0.000232381, -102.113, -0.000301983
3.216, 2, -7.01567E-5, 26.2488, 45.8641, -0.000232381, -102.113, -0.000301983
3.22, 2, -7.01567E-5, 26.2488, 45.8641, -0.000232381, -102.113, -0.000301983
3.224, 2, -7.01567E-5, 26.2488, 45.8641, -0.000232381, -102.113, -0.000301983
3.228, 2, -7.01567E-5, 26.2488, 45.8641, -0.000232381, -102.113, -0.000301983
3.232, 2, -7.01567E-5, 26.2488, 45.8641, -0.000232381, -102.113, -0.000301983
3.235, 2, -7.01567E-5, 26.2488, 45.8641, -0.000232381, -102.113, -0.000301983
3.24, 2, -7.01567E-5, 26.2488, 45.8641, -0.000232381, -102.113, -0.000301983
3.244, 2, -7.01567E-5, 26.2488, 45.8641, -0.000232381, -102.113, -0.000301983
3.248, 2, -7.01567E-5, 26.2488, 45.8641, -0.000232381, -102.113, -0.000301983
3.252, 2, -7.01567E-5, 26.2488, 45.8641, -0.000232381, -102.113, -0.000301983
3.255, 2, -7.01567E-5, 26.2488, 45.8641, -0.000232381, -102.113, -0.000301983
3.26, 2, -7.01567E-5, 26.2488, 45.8641, -0.000232381, -102.113, -0.000301983
3.264, 2, -7.01567E-5, 26.2488, 45.8641, -0.000232381, -102.113, -0.000301983
3.268, 2, -7.01567E-5, 26.2488, 45.8641, -0.000232381, -102.113, -0.000301983
3.272, 2, -7.01567E-5, 26.2488, 45.8641, -0.000232381, -102.113, -0.000301983
3.276, 2, -7.01567E-5, 26.2488, 45.8641, -0.000232381, -102.113, -0.000301983
3.28, 2, -7.01567E-5, 26.2488, 45.8641, -0.000232381, -102.113, -0.000301983
3.284, 2, -7.01567E-5, 26.2488, 45.8641, -0.000232381, -102.113, -0.000301983
3.288, 2, -7.01567E-5, 26.2488, 45.8641, -0.000232381, -102.113, -0.000301983
3.291, 2, -7.01567E-5, 26.2488, 45.8641, -0.000232381, -102.113, -0.000301983
3.296, 2, -7.01567E-5, 26.2488, 45.8641, -0.000232381, -102.113, -0.000301983
3.3, 2, -7.01567E-5, 26.2488, 45.8641, -0.000232381, -102.113, -0.000301983
3.304, 2, -7.01567E-5, 26.2488, 45.8641, -0.000232381, -102.113, -0.000301983
3.308, 2, -7.01567E-5, 26.2488, 45.8641, -0.000232381, -102.113, -0.000301983
3.312, 2, -7.01567E-5, 26.2488, 45.8641, -0.000232381, -102.113, -0.000301983
3.316, 2, -7.01567E-5, 26.2488, 45.8641, -0.000232381, -102.113, -0.000301983
3.32, 2, -7.01567E-5, 26.2488, 45.8641, -0.000232381, -102.113, -0.000301983
3.324, 2, -7.01567E-5, 26.2488, 45.8641, -0.000232381, -102.113, -0.000301983
3.328, 2, -7.01567E-5, 26.2488, 45.8641, -0.000232381, -102.113, -0.000301983
3.332, 2, -7.01567E-5, 26.2488, 45.8641, -0.000232381, -102.113, -0.000301983
3.336, 2, -7.01567E-5, 26.2488, 45.8641, -0.000232381, -102.113, -0.000301983
3.34, 2, -7.01567E-5, 26.2488, 45.8641, -0.000232381, -102.113, -0.000301983
3.344, 2, -7.01567E-5, 26.2488, 45.8641, -0.000232381, -102.113, -0.000301983
3.347, 2, -7.01567E-5, 26.2488, 45.8641, -0.000232381, -102.113, -0.000301983
3.352, 2, -7.01567E-5, 26.2488, 45.8641, -0.000232381, -102.113, -0.000301983
3.356, 2, -7.01567E-5, 26.2488, 45.8641, -0.000232381, -102.113, -0.000301983
3.36, 2, -7.01567E-5, 26.2488, 45.8641, -0.000232381, -102.113, -0.000301983
3.366, 2, -7.01567E-5, 26.2488, 45.8641, -0.000232381, -102.113, -0.000301983
3.37, 2, -7.01567E-5, 26.2488, 45.8641, -0.000232381, -102.113, -0.000301983
3.374, 2, -7.01567E-5, 26.2488, 45.8641, -0.000232381, -102.113, -0.000301983
3.378, 2, -7.01567E-5, 26.2488, 45.8641, -0.000232381, -102.113, -0.000301983
3.382, 2, -7.01567E-5, 26.2488, 45.8641, -0.000232381, -102.113, -0.000301983
3.385, 2, -7.01567E-5, 26.2488, 45.8641, -0.000232381, -102.113, -0.000301983
3.39, 2, -7.01567E-5, 26.2488, 45.8641, -0.000232381, -102.113, -0.000301983
3.394, 2, -7.01567E-5, 26.2488, 45.8641, -0.000232381, -102.113, -0.000301983
3.398, 2, -7.01567E-5, 26.2488, 45.8641, -0.000232381, -102.113, -0.000301983
3.402, 2, -7.01567E-5, 26.2488, 45.8641, -0.000232381, -102.113, -0.000301983
3.406, 2, -7.01567E-5, 26.2488, 45.8641, -0.000232381, -102.113, -0.000301983
3.41, 2, -7.01567E-5, 26.2488, 45.8641, -0.000232381, -102.113, -0.000301983
3.414, 2, -7.01567E-5, 26.2488, 45.8641, -0.000232381, -102.113, -0.000301983
3.418, 2, -7.01567E-5, 26.2488, 45.8641, -0.000232381, -102.113, -0.000301983
3.422, 2, -7.01567E-5, 26.2488, 45.8641, -0.000232381, -102.113, -0.000301983
3.426, 2, -7.01567E-5, 26.2488, 45.8641, -0.000232381, -102.113, -0.000301983
3.43, 2, -7.01567E-5, 26.2488, 45.8641, -0.000232381, -102.113, -0.000301983
3.434, 2, -7.01567E-5, 26.2488, 45.8641, -0.000232381, -102.113, -0.000301983
3.438, 2, -7.01567E-5, 26.2488, 45.8641, -0.000232381, -102.113, -0.000301983
3.442, 2, -7.01567E-5, 26.2488, 45.8641, -0.000232381, -102.113, -0.000301983
3.446, 2, -7.01567E-5, 26.2488, 45.8641, -0.000232381, -102.113, -0.000301983
3.45, 2, -7.01567E-5, 26.2488, 45.8641, -0.000232381, -102.113, -0.000301983
3.454, 2, -7.01567E-5, 26.2488, 45.8641, -0.000232381, -102.113, -0.000301983
3.458, 2, -7.01567E-5, 26.2488, 45.8641, -0.000232381, -102.113, -0.000301983
3.462, 2, -7.01567E-5, 26.2488, 45.8641, -0.000232381, -102.113, -0.000301983
3.466, 2, -7.01567E-5, 26.2488, 45.8641, -0.000232381, -102.113, -0.000301983
3.47, 2, -7.01567E-5, 26.2488, 45.8641, -0.000232381, -102.113, -0.000301983
3.474, 2, -7.01567E-5, 26.2488, 45.8641, -0.000232381, -102.113, -0.000301983
3.478, 2, -7.01567E-5, 26.2488, 45.8641, -0.000232381, -102.113, -0.000301983
3.482, 2, -7.01567E-5, 26.2488, 45.8641, -0.000232381, -102.113, -0.000301983
3.486, 2, -7.01567E-5, 26.2488, 45.8641, -0.000232381, -102.113, -0.000301983
3.488, 2, -7.01567E-5, 26.2488, 45.8641, -0.000232381, -102.113, -0.000301983
3.494, 2, -7.01567E-5, 26.2488, 45.8641, -0.000232381, -102.113, -0.000301983
3.498, 2, -7.01567E-5, 26.2488, 45.8641, -0.000232381, -102.113, -0.000301983
3.502, 2, -7.01567E-5, 26.2488, 45.8641, -0.000232381, -102.113, -0.000301983
3.505, 2, -7.01567E-5, 26.2488, 45.8641, -0.000232381, -102.113, -0.000301983
3.51, 2, -7.01567E-5, 26.2488, 45.8641, -0.000232381, -102.113, -0.000301983
3.514, 2, -7.01567E-5, 26.2488, 45.8641, -0.000232381, -102.113, -0.000301983
3.518, 2, -7.01567E-5, 26.2488, 45.8641, -0.000232381, -102.113, -0.000301983
3.522, 2, -7.01567E-5, 26.2488, 45.8641, -0.000232381, -102.113, -0.000301983
3.526, 2, -7.01567E-5, 26.2488, 45.8641, -0.000232381, -102.113, -0.000301983
3.53, 2, -7.01567E-5, 26.2488, 45.8641, -0.000232381, -102.113, -0.000301983
3.534, 2, -7.01567E-5, 26.2488, 45.8641, -0.000232381, -102.113, -0.000301983
3.536, 2, -7.01567E-5, 26.2488, 45.8641, -0.000232381, -102.113, -0.000301983
3.54, 2, -7.01567E-5, 26.2488, 45.8641, -0.000232381, -102.113, -0.000301983
3.544, 2, -7.01567E-5, 26.2488, 45.8641, -0.000232381, -102.113, -0.000301983
3.55, 2, -7.01567E-5, 26.2488, 45.8641, -0.000232381, -102.113, -0.000301983
3.554, 2, -7.01567E-5, 26.2488, 45.8641, -0.000232381, -102.113, -0.000301983
3.558, 2, -7.01567E-5, 26.2488, 45.8641, -0.000232381, -102.113, -0.000301983
3.562, 2, -7.01567E-5, 26.2488, 45.8641, -0.000232381, -102.113, -0.000301983
3.565, 2, -7.01567E-5, 26.2488, 45.8641, -0.000232381, -102.113, -0.000301983
3.57, 2, -7.01567E-5, 26.2488, 45.8641, -0.000232381, -102.113, -0.000301983
3.574, 2, -7.01567E-5, 26.2488, 45.8641, -0.000232381, -102.113, -0.000301983
3.578, 2, -7.01567E-5, 26.2488, 45.8641, -0.000232381, -102.113, -0.000301983
3.582, 2, -7.01567E-5, 26.2488, 45.8641, -0.000232381, -102.113, -0.000301983
3.586, 2, -7.01567E-5, 26.2488, 45.8641, -0.000232381, -102.113, -0.000301983
3.59, 2, -7.01567E-5, 26.2488, 45.8641, -0.000232381, -102.113, -0.000301983
3.594, 2, -7.01567E-5, 26.2488, 45.8641, -0.000232381, -102.113, -0.000301983
3.598, 2, -7.01567E-5, 26.2488, 45.8641, -0.000232381, -102.113, -0.000301983
3.602, 2, -7.01567E-5, 26.2488, 45.8641, -0.000232381, -102.113, -0.000301983
3.606, 2, -7.01567E-5, 26.2488, 45.8641, -0.000232381, -102.113, -0.000301983
3.61, 2, -7.01567E-5, 26.2488, 45.8641, -0.000232381, -102.113, -0.000301983
3.614, 2, -7.01567E-5, 26.2488, 45.8641, -0.000232381, -102.113, -0.000301983
3.618, 2, -7.01567E-5, 26.2488, 45.8641, -0.000232381, -102.113, -0.000301983
3.622, 2, -7.01567E-5, 26.2488, 45.8641, -0.000232381, -102.113, -0.000301983
3.626, 2, -7.01567E-5, 26.2488, 45.8641, -0.000232381, -102.113, -0.000301983
3.63, 2, -7.01567E-5, 26.2488, 45.8641, -0.000232381, -102.113, -0.000301983
3.634, 2, -7.01567E-5, 26.2488, 45.8641, -0.000232381, -102.113, -0.000301983
3.638, 2, -7.01567E-5, 26.2488, 45.8641, -0.000232381, -102.113, -0.000301983
3.642, 2, -7.01567E-5, 26.2488, 45.8641, -0.000232381, -102.113, -0.000301983
3.646, 2, -7.01567E-5, 26.2488, 45.8641, -0.000232381, -102.113, -0.000301983
3.65, 2, -7.01567E-5, 26.2488, 45.8641, -0.000232381, -102.113, -0.000301983
3.652, 2, -7.01567E-5, 26.2488, 45.8641, -0.000232381, -102.113, -0.000301983
3.656, 2, -7.01567E-5, 26.2488, 45.8641, -0.000232381, -102.113, -0.000301983
3.662, 2, -7.01567E-5, 26.2488, 45.8641, -0.000232381, -102.113, -0.000301983
3.666, 2, -7.01567E-5, 26.2488, 45.8641, -0.000232381, -102.113, -0.000301983
3.67, 2, -7.01567E-5, 26.2488, 45.8641, -0.000232381, -102.113, -0.000301983
3.674, 2, -7.01567E-5, 26.2488, 45.8641, -0.000232381, -102.113, -0.000301983
3.678, 2, -7.01567E-5, 26.2488, 45.8641, -0.000232381, -102.113, -0.000301983
3.681, 2, -7.01567E-5, 26.2488, 45.8641, -0.000232381, -102.113, -0.000301983
3.686, 2, -7.01567E-5, 26.2488, 45.8641, -0.000232381, -102.113, -0.000301983
3.69, 2, -7.01567E-5, 26.2488, 45.8641, -0.000232381, -102.113, -0.000301983
3.694, 2, -7.01567E-5, 26.2488, 45.8641, -0.000232381, -102.113, -0.000301983
3.698, 2, -7.01567E-5, 26.2488, 45.8641, -0.000232381, -102.113, -0.000301983
3.702, 2, -7.01567E-5, 26.2488, 45.8641, -0.000232381, -102.113, -0.000301983
3.706, 2, -7.01567E-5, 26.2488, 45.8641, -0.000232381, -102.113, -0.000301983
3.71, 2, -7.01567E-5, 26.2488, 45.8641, -0.000232381, -102.113, -0.000301983
3.714, 2, -7.01567E-5, 26.2488, 45.8641, -0.000232381, -102.113, -0.000301983
3.718, 2, -7.01567E-5, 26.2488, 45.8641, -0.000232381, -102.113, -0.000301983
3.722, 2, -7.01567E-5, 26.2488, 45.8641, -0.000232381, -102.113, -0.000301983
3.726, 2, -7.01567E-5, 26.2488, 45.8641, -0.000232381, -102.113, -0.000301983
3.73, 2, -7.01567E-5, 26.2488, 45.8641, -0.000232381, -102.113, -0.000301983
3.734, 2, -7.01567E-5, 26.2488, 45.8641, -0.000232381, -102.113, -0.000301983
3.738, 2, -7.01567E-5, 26.2488, 45.8641, -0.000232381, -102.113, -0.000301983
3.742, 2, -7.01306E-5, 26.2488, 45.8641, -0.000232381, -102.113, -0.000301983
3.746, 2, -6.99349E-5, 26.2488, 45.8641, -0.000232381, -102.113, -0.000301983
3.75, 2, -6.92239E-5, 26.2488, 45.8641, -0.000232381, -102.113, -0.000301983
3.754, 2, -6.94829E-5, 26.2487, 45.8641, -0.000232471, -102.113, -0.000302068
3.758, 2, -8.07755E-5, 26.2486, 45.8641, -0.000233393, -102.113, -0.000303036
3.762, 2, -0.000127155, 26.2483, 45.8641, -0.000238262, -102.113, -0.000308596
3.766, 2, -0.000240624, 26.2476, 45.8641, -0.000256014, -102.113, -0.000330076
3.77, 2, -0.000446749, 26.2461, 45.8642, -0.000306437, -102.113, -0.000393513
3.774, 2, -0.000756298, 26.2437, 45.8643, -0.000425796, -102.112, -0.000547635
3.778, 2, -0.00116806, 26.2401, 45.8644, -0.000671725, -102.112, -0.000870952
3.782, 2, -0.00167229, 26.2349, 45.8646, -0.00112619, -102.111, -0.00147664
3.786, 2, -0.0022514, 26.2279, 45.8649, -0.00189565, -102.109, -0.00251434
3.79, 2, -0.00288821, 26.219, 45.8654, -0.00310809, -102.106, -0.0041683
3.794, 2, -0.00358052, 26.2079, 45.8659, -0.00490731, -102.102, -0.00665255
3.798, 2, -0.00434869, 26.1943, 45.8665, -0.00744585, -102.095, -0.0102048
3.802, 2, -0.00522915, 26.178, 45.8674, -0.0108776, -102.086, -0.0150808
3.806, 2, -0.00626247, 26.1584, 45.8684, -0.0153511, -102.075, -0.02155
3.81, 2, -0.00748544, 26.1354, 45.8696, -0.0210022, -102.06, -0.0298904
3.814, 2, -0.00892647, 26.1086, 45.8711, -0.0279465, -102.041, -0.0403832
3.818, 2, -0.0106008, 26.0778, 45.8728, -0.0362705, -102.018, -0.0533048
3.82, 2, -0.0125052, 26.0428, 45.8747, -0.0460223, -101.99, -0.0689185
3.826, 2, -0.0146115, 26.0033, 45.877, -0.0572037, -101.956, -0.0874681
3.83, 2, -0.0168589, 25.9591, 45.8795, -0.0697638, -101.918, -0.109172
3.834, 2, -0.0191576, 25.9102, 45.8822, -0.0835956, -101.874, -0.134219
3.838, 2, -0.0214143, 25.8564, 45.8852, -0.0985361, -101.824, -0.162763
3.842, 2, -0.0235633, 25.7976, 45.8885, -0.11437, -101.768, -0.194925
3.846, 2, -0.0255769, 25.7339, 45.892, -0.130836, -101.706, -0.230781
3.85, 2, -0.0274521, 25.6654, 45.8957, -0.147635, -101.638, -0.270369
3.854, 2, -0.0291963, 25.5923, 45.8995, -0.16444, -101.564, -0.313678
3.858, 2, -0.0308166, 25.5146, 45.9035, -0.180907, -101.485, -0.360655
3.862, 2, -0.0322977, 25.4325, 45.9075, -0.196681, -101.401, -0.411204
3.866, 2, -0.0335779, 25.3463, 45.9117, -0.211409, -101.313, -0.465193
3.87, 2, -0.0345472, 25.2562, 45.9158, -0.22475, -101.22, -0.52246
3.874, 2, -0.0350706, 25.1625, 45.92, -0.236375, -101.123, -0.582818
3.878, 2, -0.0350096, 25.0657, 45.9241, -0.245981, -101.023, -0.646064
3.882, 2, -0.0342285, 24.966, 45.9282, -0.253294, -100.92, -0.711978
3.886, 2, -0.0325957, 24.8638, 45.9322, -0.258071, -100.815, -0.780338
3.89, 2, -0.0299891, 24.7592, 45.9361, -0.260107, -100.707, -0.850924
3.894, 2, -0.0263017, 24.6524, 45.9399, -0.259232, -100.599, -0.923533
3.898, 2, -0.0214455, 24.5439, 45.9435, -0.255314, -100.489, -0.997982
3.902, 2, -0.0153548, 24.4338, 45.947, -0.248254, -100.378, -1.07412
3.906, 2, -0.00798957, 24.3224, 45.9503, -0.237986, -100.267, -1.15183
3.908, 2, 0.0006671, 24.2102, 45.9535, -0.224465, -100.155, -1.23103
3.912, 2, 0.0106163, 24.0975, 45.9564, -0.207668, -100.043, -1.31164
3.916, 2, 0.0218525, 23.9844, 45.9591, -0.187583, -99.931, -1.39364
3.92, 2, 0.0343679, 23.8713, 45.9616, -0.164212, -99.8188, -1.47699
3.924, 2, 0.0481547, 23.7581, 45.9639, -0.137563, -99.7065, -1.56167
3.929, 2, 0.0632045, 23.6451, 45.966, -0.10765, -99.5942, -1.64768
3.934, 2, 0.079509, 23.5324, 45.9678, -0.0744894, -99.4819, -1.73499
3.938, 2, 0.0970594, 23.4198, 45.9693, -0.0381033, -99.3697, -1.82362
3.943, 2, 0.135861, 23.1957, 45.9717, 0.0442498, -99.1454, -2.00477
3.946, 2, 0.135861, 23.1957, 45.9717, 0.0442498, -99.1454, -2.00477
3.951, 2, 0.179531, 22.9729, 45.973, 0.139198, -98.9215, -2.19111
3.954, 2, 0.179531, 22.9729, 45.973, 0.139198, -98.9215, -2.19111
3.958, 2, 0.203164, 22.8621, 45.9733, 0.191323, -98.8097, -2.28621
3.96, 2, 0.227981, 22.7517, 45.9733, 0.246506, -98.6981, -2.3826
3.966, 2, 0.25397, 22.6418, 45.973, 0.304716, -98.5866, -2.48027
3.97, 2, 0.281118, 22.5322, 45.9725, 0.365919, -98.4753, -2.57922
3.974, 2, 0.309414, 22.4232, 45.9716, 0.430081, -98.3642, -2.67943
3.976, 2, 0.338844, 22.3146, 45.9705, 0.497167, -98.2533, -2.78091
3.981, 2, 0.369394, 22.2065, 45.9691, 0.567142, -98.1426, -2.88365
3.986, 2, 0.40105, 22.0989, 45.9674, 0.639969, -98.0321, -2.98764
3.99, 2, 0.433799, 21.9918, 45.9653, 0.715612, -97.9218, -3.09288
3.994, 2, 0.467626, 21.8852, 45.963, 0.794033, -97.8118, -3.19935
3.999, 2, 0.538454, 21.6736, 45.9574, 0.959058, -97.5926, -3.41599
4.002, 2, 0.538454, 21.6736, 45.9574, 0.959058, -97.5926, -3.41599
4.006, 2, 0.575426, 21.5686, 45.9541, 1.04559, -97.4834, -3.52613
4.01, 2, 0.613418, 21.4642, 45.9505, 1.13474, -97.3745, -3.63747
4.013, 2, 0.652413, 21.3604, 45.9465, 1.22648, -97.2659, -3.75001
4.018, 2, 0.692397, 21.2571, 45.9422, 1.32076, -97.1577, -3.86374
4.021, 2, 0.733354, 21.1545, 45.9376, 1.41756, -97.0497, -3.97864
4.026, 2, 0.775268, 21.0524, 45.9326, 1.51682, -96.9421, -4.09471
4.031, 2, 0.861906, 20.8501, 45.9215, 1.72258, -96.728, -4.33031
4.034, 2, 0.861906, 20.8501, 45.9215, 1.72258, -96.728, -4.33031
4.038, 2, 0.906599, 20.7499, 45.9154, 1.82901, -96.6214, -4.44981
4.041, 2, 0.952186, 20.6503, 45.909, 1.93775, -96.5153, -4.57043
4.046, 2, 0.998653, 20.5513, 45.9022, 2.04876, -96.4095, -4.69217
4.05, 2, 1.04598, 20.453, 45.895, 2.162, -96.3042, -4.815
4.053, 2, 1.09416, 20.3553, 45.8874, 2.27743, -96.1992, -4.93892
4.058, 2, 1.14317, 20.2583, 45.8794, 2.39502, -96.0947, -5.06392
4.064, 2, 1.24363, 20.0663, 45.8622, 2.6365, -95.8868, -5.31709
4.066, 2, 1.24363, 20.0663, 45.8622, 2.6365, -95.8868, -5.31709
4.07, 2, 1.29504, 19.9713, 45.853, 2.76031, -95.7836, -5.44524
4.073, 2, 1.34723, 19.877, 45.8434, 2.88613, -95.6808, -5.57442
4.078, 2, 1.40017, 19.7834, 45.8334, 3.01391, -95.5784, -5.70461
4.082, 2, 1.45385, 19.6904, 45.8229, 3.14361, -95.4765, -5.8358
4.087, 2, 1.56337, 19.5066, 45.8007, 3.40865, -95.2742, -6.10113
4.09, 2, 1.56337, 19.5066, 45.8007, 3.40865, -95.2742, -6.10113
4.093, 2, 1.61918, 19.4157, 45.789, 3.54391, -95.1737, -6.23525
4.098, 2, 1.67567, 19.3256, 45.7768, 3.68094, -95.0737, -6.37032
4.102, 2, 1.73282, 19.2361, 45.7641, 3.81973, -94.9742, -6.50632
4.105, 2, 1.79063, 19.1474, 45.751, 3.96022, -94.8753, -6.64325
4.11, 2, 1.84907, 19.0594, 45.7375, 4.10239, -94.7768, -6.78108
4.113, 2, 1.90813, 18.9721, 45.7235, 4.2462, -94.6788, -6.91982
4.117, 2, 1.96776, 18.8855, 45.709, 4.39161, -94.5814, -7.05943
4.122, 2, 2.02782, 18.7998, 45.6941, 4.53858, -94.4845, -7.19991
4.124, 2, 2.08807, 18.7152, 45.6787, 4.68706, -94.3881, -7.3412
4.13, 2, 2.14818, 18.6319, 45.6627, 4.83694, -94.2924, -7.48324
4.133, 2, 2.20785, 18.5504, 45.6463, 4.98805, -94.1972, -7.62589
4.138, 2, 2.26681, 18.471, 45.6295, 5.14011, -94.1029, -7.7689
4.142, 2, 2.32488, 18.3938, 45.6122, 5.29273, -94.0095, -7.91192
4.145, 2, 2.38191, 18.3191, 45.5945, 5.44534, -93.9174, -8.05448
4.15, 2, 2.43785, 18.2469, 45.5766, 5.59726, -93.8269, -8.19596
4.154, 2, 2.49263, 18.1772, 45.5585, 5.74765, -93.7383, -8.33561
4.157, 2, 2.54614, 18.1102, 45.5405, 5.89553, -93.6523, -8.47258
4.162, 2, 2.59817, 18.0459, 45.5226, 6.03987, -93.5692, -8.60594
4.165, 2, 2.64847, 17.9844, 45.5051, 6.17956, -93.4897, -8.73473
4.17, 2, 2.69677, 17.9261, 45.4882, 6.31348, -93.4142, -8.85795
4.174, 2, 2.74284, 17.871, 45.4719, 6.44056, -93.3432, -8.97467
4.177, 2, 2.78653, 17.8193, 45.4566, 6.55979, -93.2771, -9.08399
4.182, 2, 2.82774, 17.7709, 45.4423, 6.67029, -93.2165, -9.18517
4.184, 2, 2.8664, 17.7258, 45.4292, 6.77138, -93.1614, -9.2776
4.188, 2, 2.90245, 17.6841, 45.4173, 6.86257, -93.1121, -9.3609
4.194, 2, 2.93585, 17.6457, 45.4067, 6.94365, -93.0686, -9.43488
4.198, 2, 2.96654, 17.6106, 45.3975, 7.01466, -93.0307, -9.49961
4.202, 2, 2.99448, 17.5787, 45.3896, 7.07586, -92.9984, -9.55536
4.205, 2, 3.01965, 17.5499, 45.383, 7.12777, -92.9711, -9.60262
4.21, 2, 3.04205, 17.5241, 45.3775, 7.17106, -92.9484, -9.64202
4.214, 2, 3.06171, 17.5012, 45.3731, 7.20655, -92.93, -9.67431
4.217, 2, 3.07875, 17.4812, 45.3696, 7.23513, -92.9153, -9.7003
4.222, 2, 3.09338, 17.464, 45.3668, 7.25771, -92.9036, -9.72084
4.225, 2, 3.10583, 17.4493, 45.3648, 7.2752, -92.8947, -9.73675
4.23, 2, 3.11636, 17.437, 45.3633, 7.28847, -92.888, -9.74882
4.234, 2, 3.12517, 17.427, 45.3622, 7.29832, -92.883, -9.75779
4.237, 2, 3.13245, 17.4191, 45.3615, 7.30548, -92.8794, -9.76431
4.242, 2, 3.13835, 17.413, 45.361, 7.31057, -92.8769, -9.76894
4.245, 2, 3.14302, 17.4083, 45.3607, 7.31412, -92.8751, -9.77218
4.25, 2, 3.14658, 17.4049, 45.3604, 7.31657, -92.8739, -9.77441
4.254, 2, 3.14917, 17.4025, 45.3603, 7.31823, -92.8731, -9.77593
4.257, 2, 3.15098, 17.4009, 45.3602, 7.31936, -92.8726, -9.77697
4.262, 2, 3.15223, 17.3997, 45.3601, 7.32013, -92.8722, -9.77766
4.265, 2, 3.15313, 17.3989, 45.3601, 7.32065, -92.8719, -9.77814
4.267, 2, 3.15391, 17.3983, 45.3601, 7.32101, -92.8718, -9.77847
4.272, 2, 3.1548, 17.3976, 45.3601, 7.32129, -92.8716, -9.77872
4.278, 2, 3.15603, 17.3967, 45.3601, 7.32157, -92.8715, -9.77899
4.282, 2, 3.15778, 17.3955, 45.3601, 7.32199, -92.8713, -9.77937
4.286, 2, 3.16018, 17.3936, 45.3601, 7.32271, -92.871, -9.78003
4.289, 2, 3.16336, 17.391, 45.36, 7.32399, -92.8704, -9.7812
4.294, 2, 3.16746, 17.3875, 45.3598, 7.32616, -92.8694, -9.78317
4.297, 2, 3.17261, 17.3828, 45.3595, 7.32965, -92.8678, -9.78634
4.302, 2, 3.17898, 17.3767, 45.359, 7.33498, -92.8652, -9.79118
4.306, 2, 3.18682, 17.369, 45.3581, 7.34279, -92.8614, -9.79826
4.309, 2, 3.19642, 17.3593, 45.3568, 7.3538, -92.856, -9.80823
4.314, 2, 3.2081, 17.3473, 45.355, 7.36888, -92.8487, -9.82186
4.317, 2, 3.22214, 17.3329, 45.3524, 7.38894, -92.8388, -9.84
4.322, 2, 3.23876, 17.3159, 45.349, 7.41503, -92.826, -9.86356
4.326, 2, 3.2581, 17.2961, 45.3445, 7.4482, -92.8097, -9.89348
4.329, 2, 3.28027, 17.2736, 45.3388, 7.48951, -92.7895, -9.93071
4.334, 2, 3.30532, 17.2484, 45.3317, 7.53994, -92.7648, -9.97612
4.338, 2, 3.33328, 17.2205, 45.3229, 7.60034, -92.7353, -10.0305
4.341, 2, 3.36419, 17.19, 45.3125, 7.6714, -92.7007, -10.0943
4.346, 2, 3.39809, 17.1569, 45.3002, 7.75353, -92.6609, -10.1681
4.349, 2, 3.43505, 17.1212, 45.286, 7.84693, -92.6159, -10.2519
4.354, 2, 3.47512, 17.0828, 45.27, 7.95152, -92.5658, -10.3456
4.358, 2, 3.51837, 17.0417, 45.2521, 8.06696, -92.5108, -10.449
4.361, 2, 3.56474, 16.9981, 45.2324, 8.19273, -92.4513, -10.5615
4.366, 2, 3.61411, 16.9521, 45.211, 8.3281, -92.3877, -10.6825
4.369, 2, 3.6663, 16.9039, 45.1879, 8.47221, -92.3206, -10.8112
4.374, 2, 3.72114, 16.8535, 45.1634, 8.62407, -92.2505, -10.9466
4.378, 2, 3.77848, 16.8013, 45.1376, 8.78265, -92.178, -11.0879
4.381, 2, 3.83823, 16.7472, 45.1106, 8.94689, -92.1036, -11.2341
4.386, 2, 3.90028, 16.6915, 45.0825, 9.11578, -92.0279, -11.3842
4.389, 2, 3.9645, 16.6344, 45.0536, 9.2884, -91.9513, -11.5375
4.392, 2, 4.03074, 16.576, 45.0238, 9.46396, -91.8743, -11.6933
4.398, 2, 4.09877, 16.5167, 44.9933, 9.64181, -91.7972, -11.8509
4.401, 2, 4.16831, 16.4568, 44.9622, 9.82146, -91.7203, -12.0099
4.406, 2, 4.23901, 16.3967, 44.9304, 10.0026, -91.6436, -12.17
4.409, 2, 4.31059, 16.3366, 44.8981, 10.1848, -91.5674, -12.331
4.414, 2, 4.38283, 16.2768, 44.8651, 10.3681, -91.4917, -12.4927
4.418, 2, 4.45555, 16.2173, 44.8316, 10.5523, -91.4165, -12.6549
4.421, 2, 4.52866, 16.1584, 44.7975, 10.7373, -91.3419, -12.8177
4.426, 2, 4.60208, 16.1, 44.7628, 10.9229, -91.2678, -12.981
4.429, 2, 4.67575, 16.0422, 44.7275, 11.1093, -91.1945, -13.1446
4.434, 2, 4.74964, 15.9851, 44.6917, 11.2962, -91.1217, -13.3087
4.438, 2, 4.82372, 15.9286, 44.6553, 11.4838, -91.0497, -13.4731
4.441, 2, 4.89796, 15.8728, 44.6184, 11.6719, -90.9782, -13.6378
4.446, 2, 4.97236, 15.8176, 44.5809, 11.8606, -90.9075, -13.8028
4.45, 2, 5.04689, 15.7631, 44.5428, 12.0497, -90.8374, -13.968
4.453, 2, 5.12154, 15.7093, 44.5041, 12.2394, -90.768, -14.1336
4.458, 2, 5.19631, 15.6562, 44.4649, 12.4295, -90.6992, -14.2994
4.46, 2, 5.27117, 15.6037, 44.4251, 12.6201, -90.6312, -14.4654
4.465, 2, 5.34613, 15.5519, 44.3847, 12.8111, -90.5638, -14.6317
4.471, 2, 5.4963, 15.4504, 44.3023, 13.1944, -90.431, -14.9647
4.474, 2, 5.4963, 15.4504, 44.3023, 13.1944, -90.431, -14.9647
4.478, 2, 5.5715, 15.4006, 44.2602, 13.3867, -90.3656, -15.1315
4.481, 2, 5.64675, 15.3515, 44.2175, 13.5793, -90.301, -15.2985
4.486, 2, 5.72206, 15.3031, 44.1743, 13.7723, -90.237, -15.4656
4.49, 2, 5.79741, 15.2553, 44.1305, 13.9656, -90.1737, -15.6328
4.494, 2, 5.8728, 15.2082, 44.0862, 14.1592, -90.1111, -15.8001
4.498, 2, 5.94823, 15.1617, 44.0412, 14.3532, -90.0491, -15.9675
4.501, 2, 6.02368, 15.1159, 43.9957, 14.5474, -89.9879, -16.1349
4.506, 2, 6.09915, 15.0708, 43.9497, 14.742, -89.9273, -16.3024
4.51, 2, 6.17463, 15.0262, 43.903, 14.9368, -89.8674, -16.47
4.513, 2, 6.25012, 14.9824, 43.8558, 15.1318, -89.8083, -16.6376
4.518, 2, 6.3256, 14.9391, 43.808, 15.3271, -89.7498, -16.8052
4.521, 2, 6.40108, 14.8965, 43.7597, 15.5226, -89.692, -16.9727
4.526, 2, 6.47654, 14.8545, 43.7108, 15.7183, -89.6349, -17.1403
4.53, 2, 6.55199, 14.8132, 43.6613, 15.9143, -89.5785, -17.3078
4.534, 2, 6.6274, 14.7725, 43.6112, 16.1104, -89.5227, -17.4752
4.537, 2, 6.70278, 14.7324, 43.5606, 16.3067, -89.4677, -17.6426
4.542, 2, 6.77812, 14.6929, 43.5094, 16.5031, -89.4134, -17.8098
4.547, 2, 6.92867, 14.6158, 43.4054, 16.8964, -89.3068, -18.1439
4.55, 2, 6.92867, 14.6158, 43.4054, 16.8964, -89.3068, -18.1439
4.553, 2, 7.00385, 14.5782, 43.3525, 17.0933, -89.2545, -18.3108
4.556, 2, 7.07898, 14.5411, 43.2991, 17.2902, -89.2029, -18.4774
4.562, 2, 7.15403, 14.5047, 43.2451, 17.4873, -89.1521, -18.6439
4.565, 2, 7.22902, 14.4688, 43.1905, 17.6844, -89.1019, -18.8102
4.57, 2, 7.30392, 14.4336, 43.1354, 17.8816, -89.0524, -18.9762
4.573, 2, 7.37873, 14.3989, 43.0797, 18.0789, -89.0036, -19.142
4.578, 2, 7.45346, 14.3648, 43.0235, 18.2762, -88.9555, -19.3075
4.582, 2, 7.52808, 14.3313, 42.9667, 18.4736, -88.9081, -19.4727
4.585, 2, 7.60261, 14.2984, 42.9094, 18.671, -88.8613, -19.6376
4.59, 2, 7.67703, 14.2661, 42.8515, 18.8684, -88.8153, -19.8022
4.593, 2, 7.75133, 14.2343, 42.7931, 19.0658, -88.77, -19.9664
4.598, 2, 7.82552, 14.2031, 42.7341, 19.2631, -88.7253, -20.1303
4.602, 2, 7.89958, 14.1724, 42.6745, 19.4605, -88.6814, -20.2937
4.604, 2, 7.97351, 14.1423, 42.6144, 19.6579, -88.6381, -20.4567
4.609, 2, 8.04732, 14.1127, 42.5538, 19.8552, -88.5955, -20.6193
4.613, 2, 8.12098, 14.0837, 42.4926, 20.0524, -88.5536, -20.7814
4.616, 2, 8.1945, 14.0553, 42.4309, 20.2496, -88.5124, -20.9431
4.621, 2, 8.26787, 14.0273, 42.3687, 20.4467, -88.4718, -21.1042
4.625, 2, 8.34109, 14, 42.3059, 20.6438, -88.432, -21.2648
4.63, 2, 8.41415, 13.9731, 42.2425, 20.8407, -88.3928, -21.4248
4.634, 2, 8.48705, 13.9468, 42.1787, 21.0376, -88.3544, -21.5843
4.638, 2, 8.55979, 13.9209, 42.1143, 21.2343, -88.3166, -21.7431
4.642, 2, 8.63235, 13.8956, 42.0493, 21.4309, -88.2795, -21.9014
4.645, 2, 8.70474, 13.8708, 41.9839, 21.6274, -88.243, -22.0589
4.648, 2, 8.77695, 13.8465, 41.9179, 21.8237, -88.2072, -22.2158
4.652, 2, 8.84897, 13.8228, 41.8514, 22.0199, -88.1722, -22.372
4.656, 2, 8.92081, 13.7995, 41.7844, 22.2159, -88.1377, -22.5274
4.66, 2, 8.99245, 13.7766, 41.7168, 22.4118, -88.104, -22.6821
4.664, 2, 9.06389, 13.7543, 41.6488, 22.6075, -88.0709, -22.836
4.669, 2, 9.13514, 13.7325, 41.5802, 22.803, -88.0385, -22.9891
4.674, 2, 9.20617, 13.7111, 41.5111, 22.9982, -88.0068, -23.1413
4.678, 2, 9.277, 13.6902, 41.4415, 23.1933, -87.9757, -23.2926
4.683, 2, 9.41801, 13.6498, 41.3008, 23.5828, -87.9156, -23.5926
4.686, 2, 9.41801, 13.6498, 41.3008, 23.5828, -87.9156, -23.5926
4.69, 2, 9.48818, 13.6302, 41.2297, 23.7772, -87.8865, -23.7411
4.692, 2, 9.55812, 13.6112, 41.1581, 23.9714, -87.8581, -23.8887
4.698, 2, 9.62784, 13.5925, 41.086, 24.1653, -87.8303, -24.0352
4.702, 2, 9.69731, 13.5743, 41.0134, 24.3589, -87.8032, -24.1807
4.705, 2, 9.76655, 13.5565, 40.9403, 24.5523, -87.7767, -24.3251
4.71, 2, 9.83554, 13.5391, 40.8667, 24.7454, -87.7509, -24.4683
4.714, 2, 9.90427, 13.5222, 40.7926, 24.9382, -87.7257, -24.6104
4.717, 2, 9.97276, 13.5056, 40.7181, 25.1307, -87.7012, -24.7513
4.722, 2, 10.041, 13.4895, 40.6431, 25.3229, -87.6773, -24.891
4.726, 2, 10.1089, 13.4737, 40.5676, 25.5148, -87.654, -25.0294
4.729, 2, 10.1766, 13.4584, 40.4917, 25.7063, -87.6313, -25.1665
4.734, 2, 10.2441, 13.4434, 40.4152, 25.8976, -87.6093, -25.3023
4.736, 2, 10.3112, 13.4288, 40.3384, 26.0884, -87.588, -25.4367
4.742, 2, 10.3781, 13.4145, 40.261, 26.279, -87.5672, -25.5697
4.746, 2, 10.4447, 13.4006, 40.1832, 26.4692, -87.547, -25.7012
4.749, 2, 10.511, 13.3871, 40.105, 26.659, -87.5275, -25.8312
4.754, 2, 10.577, 13.3739, 40.0263, 26.8484, -87.5086, -25.9597
4.757, 2, 10.6427, 13.361, 39.9472, 27.0375, -87.4902, -26.0867
4.763, 2, 10.7732, 13.3362, 39.7876, 27.4144, -87.4553, -26.3356
4.766, 2, 10.7732, 13.3362, 39.7876, 27.4144, -87.4553, -26.3356
4.77, 2, 10.838, 13.3243, 39.7072, 27.6023, -87.4388, -26.4576
4.774, 2, 10.9025, 13.3126, 39.6264, 27.7897, -87.4228, -26.5778
4.777, 2, 10.9666, 13.3013, 39.5451, 27.9767, -87.4074, -26.6962
4.782, 2, 11.0305, 13.2902, 39.4634, 28.1633, -87.3925, -26.8127
4.786, 2, 11.094, 13.2794, 39.3814, 28.3494, -87.3783, -26.9274
4.789, 2, 11.1572, 13.2689, 39.2989, 28.535, -87.3646, -27.0401
4.794, 2, 11.22, 13.2586, 39.216, 28.7202, -87.3514, -27.1509
4.797, 2, 11.2825, 13.2486, 39.1328, 28.9049, -87.3387, -27.2596
4.802, 2, 11.3447, 13.2387, 39.0491, 29.0891, -87.3266, -27.3662
4.806, 2, 11.4065, 13.2291, 38.9651, 29.2729, -87.3151, -27.4706
4.809, 2, 11.4679, 13.2197, 38.8807, 29.4561, -87.304, -27.5729
4.814, 2, 11.529, 13.2105, 38.796, 29.6388, -87.2934, -27.6729
4.818, 2, 11.5897, 13.2014, 38.7109, 29.821, -87.2834, -27.7706
4.822, 2, 11.65, 13.1925, 38.6255, 30.0026, -87.2738, -27.8659
4.826, 2, 11.71, 13.1838, 38.5397, 30.1837, -87.2647, -27.9588
4.829, 2, 11.7696, 13.1752, 38.4536, 30.3642, -87.256, -28.0491
4.834, 2, 11.8288, 13.1667, 38.3672, 30.5441, -87.2478, -28.137
4.838, 2, 11.8876, 13.1583, 38.2805, 30.7235, -87.24, -28.2222
4.841, 2, 11.946, 13.15, 38.1935, 30.9022, -87.2327, -28.3047
4.846, 2, 12.0039, 13.1418, 38.1062, 31.0803, -87.2257, -28.3845
4.849, 2, 12.0615, 13.1336, 38.0186, 31.2578, -87.2192, -28.4615
4.854, 2, 12.1186, 13.1254, 37.9307, 31.4347, -87.213, -28.5356
4.858, 2, 12.1754, 13.1173, 37.8426, 31.6108, -87.2072, -28.6067
4.861, 2, 12.2316, 13.1092, 37.7543, 31.7863, -87.2017, -28.6748
4.866, 2, 12.2875, 13.101, 37.6657, 31.9611, -87.1966, -28.7398
4.869, 2, 12.3428, 13.0928, 37.5769, 32.1352, -87.1917, -28.8016
4.874, 2, 12.3977, 13.0846, 37.488, 32.3086, -87.1871, -28.8602
4.878, 2, 12.452, 13.0763, 37.3988, 32.4812, -87.1828, -28.9154
4.881, 2, 12.5056, 13.068, 37.3096, 32.653, -87.1787, -28.9672
4.886, 2, 12.5582, 13.0598, 37.2205, 32.8238, -87.1747, -29.0155
4.889, 2, 12.6097, 13.052, 37.1316, 32.9935, -87.171, -29.0602
4.894, 2, 12.6596, 13.0445, 37.0432, 33.1617, -87.1674, -29.1013
4.898, 2, 12.7078, 13.0375, 36.9557, 33.3279, -87.1638, -29.1386
4.901, 2, 12.7541, 13.0311, 36.8696, 33.4913, -87.1604, -29.1722
4.904, 2, 12.7985, 13.0252, 36.7853, 33.6508, -87.1571, -29.2021
4.91, 2, 12.8409, 13.0198, 36.7036, 33.8054, -87.1539, -29.2283
4.914, 2, 12.8813, 13.0148, 36.625, 33.9539, -87.1508, -29.2509
4.918, 2, 12.9195, 13.0101, 36.5503, 34.095, -87.1478, -29.2702
4.921, 2, 12.9555, 13.0057, 36.4801, 34.2275, -87.1451, -29.2862
4.926, 2, 12.9891, 13.0014, 36.4148, 34.3504, -87.1425, -29.2994
4.93, 2, 13.0203, 12.9972, 36.3548, 34.4626, -87.1401, -29.3099
4.933, 2, 13.0491, 12.9927, 36.3002, 34.5637, -87.138, -29.3181
4.938, 2, 13.0755, 12.988, 36.2512, 34.653, -87.1361, -29.3243
4.941, 2, 13.0996, 12.9829, 36.2078, 34.7305, -87.1345, -29.3288
4.946, 2, 13.1214, 12.9774, 36.1699, 34.7965, -87.1332, -29.332
4.95, 2, 13.1411, 12.9716, 36.1374, 34.8515, -87.1321, -29.3341
4.953, 2, 13.1587, 12.9657, 36.1102, 34.8962, -87.1313, -29.3355
4.958, 2, 13.1741, 12.9601, 36.088, 34.9319, -87.1307, -29.3363
4.961, 2, 13.1875, 12.9548, 36.0703, 34.9597, -87.1302, -29.3368
4.966, 2, 13.199, 12.95, 36.0564, 34.9808, -87.1299, -29.3371
4.97, 2, 13.2087, 12.9459, 36.0458, 34.9965, -87.1297, -29.3372
4.973, 2, 13.2166, 12.9424, 36.0379, 35.0079, -87.1296, -29.3372
4.978, 2, 13.2231, 12.9396, 36.0321, 35.0161, -87.1295, -29.3373
4.981, 2, 13.2281, 12.9374, 36.0279, 35.0217, -87.1295, -29.3373
4.986, 2, 13.232, 12.9358, 36.0249, 35.0257, -87.1295, -29.3373
4.99, 2, 13.2349, 12.9346, 36.0229, 35.0283, -87.1295, -29.3373
4.993, 2, 13.2369, 12.9337, 36.0215, 35.0301, -87.1295, -29.3373
4.998, 2, 13.2382, 12.9332, 36.0205, 35.0314, -87.1295, -29.3373
5.001, 2, 13.2391, 12.9328, 36.0199, 35.0322, -87.1295, -29.3373
5.006, 2, 13.2398, 12.9325, 36.0194, 35.0327, -87.1295, -29.3373
5.01, 2, 13.2402, 12.9323, 36.0191, 35.0331, -87.1295, -29.3373
5.013, 2, 13.2405, 12.9322, 36.0189, 35.0334, -87.1295, -29.3373
5.018, 2, 13.2407, 12.9321, 36.0188, 35.0336, -87.1295, -29.3373
5.022, 2, 13.2408, 12.9321, 36.0187, 35.0337, -87.1295, -29.3373
5.026, 2, 13.2409, 12.932, 36.0186, 35.0338, -87.1295, -29.3373
5.03, 2, 13.241, 12.932, 36.0186, 35.0338, -87.1295, -29.3373
5.033, 2, 13.241, 12.932, 36.0186, 35.0338, -87.1295, -29.3373
5.038, 2, 13.241, 12.932, 36.0186, 35.0339, -87.1295, -29.3373
5.04, 2, 13.241, 12.932, 36.0185, 35.0339, -87.1295, -29.3373
5.046, 2, 13.2411, 12.932, 36.0185, 35.0339, -87.1295, -29.3373
5.05, 2, 13.2411, 12.932, 36.0185, 35.0339, -87.1295, -29.3373
5.053, 2, 13.2411, 12.932, 36.0185, 35.0339, -87.1295, -29.3373
5.058, 2, 13.2411, 12.9319, 36.0185, 35.0339, -87.1295, -29.3373
5.062, 2, 13.2413, 12.9319, 36.0185, 35.0339, -87.1295, -29.3373
5.066, 2, 13.2417, 12.9317, 36.0184, 35.034, -87.1295, -29.3373
5.07, 2, 13.2425, 12.9314, 36.0181, 35.0341, -87.1295, -29.3373
5.073, 2, 13.2438, 12.9309, 36.0177, 35.0345, -87.1295, -29.3372
5.078, 2, 13.2457, 12.9301, 36.0169, 35.0352, -87.1296, -29.3372
5.082, 2, 13.2484, 12.9289, 36.0155, 35.0366, -87.1296, -29.3371
5.087, 2, 13.2561, 12.9251, 36.0102, 35.0431, -87.1296, -29.3366
5.09, 2, 13.2561, 12.9251, 36.0102, 35.0431, -87.1296, -29.3366
5.093, 2, 13.2615, 12.9224, 36.0055, 35.0494, -87.1295, -29.336
5.098, 2, 13.2681, 12.919, 35.999, 35.0587, -87.1294, -29.3352
5.102, 2, 13.2761, 12.9148, 35.9901, 35.0718, -87.1292, -29.334
5.104, 2, 13.2856, 12.9099, 35.9782, 35.0898, -87.1288, -29.3322
5.11, 2, 13.2967, 12.9043, 35.9629, 35.1137, -87.1283, -29.3296
5.114, 2, 13.3095, 12.8979, 35.9436, 35.1446, -87.1274, -29.3259
5.118, 2, 13.3238, 12.891, 35.9199, 35.1835, -87.1263, -29.3208
5.122, 2, 13.3398, 12.8836, 35.8913, 35.2312, -87.1248, -29.3139
5.125, 2, 13.3574, 12.8758, 35.8575, 35.2883, -87.1228, -29.3048
5.13, 2, 13.3766, 12.8674, 35.8184, 35.3552, -87.1202, -29.2931
5.134, 2, 13.3973, 12.8585, 35.7738, 35.4321, -87.1171, -29.2784
5.137, 2, 13.4197, 12.8489, 35.7238, 35.5186, -87.1133, -29.2601
5.142, 2, 13.4434, 12.8386, 35.6685, 35.6144, -87.1087, -29.238
5.145, 2, 13.4684, 12.8274, 35.6085, 35.7186, -87.1034, -29.2115
5.15, 2, 13.4944, 12.8152, 35.5439, 35.8304, -87.0973, -29.1803
5.154, 2, 13.5212, 12.8019, 35.4755, 35.9488, -87.0902, -29.1441
5.157, 2, 13.5487, 12.7874, 35.4038, 36.0725, -87.0822, -29.1026
5.162, 2, 13.5771, 12.7715, 35.3293, 36.2003, -87.0731, -29.0554
5.165, 2, 13.6062, 12.7541, 35.2527, 36.331, -87.063, -29.0025
5.169, 2, 13.6361, 12.7349, 35.1746, 36.4634, -87.0517, -28.9437
5.172, 2, 13.6667, 12.7139, 35.0955, 36.5965, -87.0392, -28.8787
5.178, 2, 13.6978, 12.6911, 35.0159, 36.7294, -87.0255, -28.8076
5.18, 2, 13.7291, 12.6663, 34.9362, 36.8614, -87.0103, -28.7301
5.183, 2, 13.7602, 12.6397, 34.8569, 36.9919, -86.9936, -28.6463
5.19, 2, 13.7909, 12.6112, 34.7782, 37.1205, -86.9753, -28.5561
5.194, 2, 13.8209, 12.5809, 34.7005, 37.2467, -86.9553, -28.4593
5.198, 2, 13.85, 12.5488, 34.6238, 37.3703, -86.9335, -28.3559
5.202, 2, 13.8779, 12.5148, 34.5485, 37.4911, -86.9096, -28.2458
5.206, 2, 13.9046, 12.479, 34.4746, 37.6088, -86.8837, -28.1289
5.21, 2, 13.93, 12.4412, 34.4023, 37.7231, -86.8555, -28.0053
5.214, 2, 13.954, 12.4015, 34.3318, 37.8338, -86.8249, -27.8749
5.217, 2, 13.9765, 12.3597, 34.2632, 37.9409, -86.7919, -27.7377
5.222, 2, 13.9975, 12.3158, 34.1966, 38.0439, -86.7562, -27.5937
5.226, 2, 14.0169, 12.2697, 34.1321, 38.1428, -86.7177, -27.443
5.23, 2, 14.0346, 12.2215, 34.07, 38.2373, -86.6764, -27.2855
5.234, 2, 14.0505, 12.171, 34.0102, 38.3273, -86.632, -27.1214
5.237, 2, 14.0647, 12.1183, 33.953, 38.4124, -86.5846, -26.9508
5.243, 2, 14.0876, 12.0058, 33.8466, 38.5677, -86.4799, -26.5904
5.246, 2, 14.0876, 12.0058, 33.8466, 38.5677, -86.4799, -26.5904
5.251, 2, 14.1028, 11.8839, 33.7517, 38.7015, -86.3617, -26.2057
5.254, 2, 14.1028, 11.8839, 33.7517, 38.7015, -86.3617, -26.2057
5.257, 2, 14.1074, 11.8194, 33.7088, 38.7599, -86.2973, -26.0048
5.262, 2, 14.11, 11.7526, 33.669, 38.8126, -86.2293, -25.7984
5.266, 2, 14.1106, 11.6833, 33.6324, 38.8592, -86.1578, -25.5869
5.27, 2, 14.1091, 11.6118, 33.5991, 38.8998, -86.0826, -25.3706
5.274, 2, 14.1056, 11.538, 33.5691, 38.9343, -86.0038, -25.1496
5.277, 2, 14.1, 11.4619, 33.5424, 38.9624, -85.9215, -24.9245
5.283, 2, 14.0826, 11.3033, 33.4992, 38.9999, -85.746, -24.4628
5.286, 2, 14.0826, 11.3033, 33.4992, 38.9999, -85.746, -24.4628
5.29, 2, 14.0708, 11.2208, 33.4826, 39.0091, -85.6531, -24.2268
5.294, 2, 14.057, 11.1363, 33.4693, 39.0119, -85.5568, -23.988
5.297, 2, 14.0411, 11.0498, 33.4593, 39.0085, -85.4572, -23.7465
5.3, 2, 14.0233, 10.9616, 33.4526, 38.9988, -85.3544, -23.5028
5.304, 2, 14.0034, 10.8715, 33.449, 38.9828, -85.2485, -23.2571
5.308, 2, 13.9816, 10.7798, 33.4486, 38.9608, -85.1395, -23.0097
5.313, 2, 13.9579, 10.6865, 33.4512, 38.9327, -85.0277, -22.7609
5.318, 2, 13.9324, 10.5917, 33.4568, 38.8988, -84.9131, -22.5109
5.322, 2, 13.905, 10.4955, 33.4652, 38.859, -84.7959, -22.2601
5.326, 2, 13.8758, 10.3981, 33.4765, 38.8135, -84.6762, -22.0086
5.327, 2, 13.8449, 10.2994, 33.4903, 38.7626, -84.5541, -21.7567
5.332, 2, 13.8123, 10.1996, 33.5068, 38.7062, -84.4297, -21.5045
5.336, 2, 13.7781, 10.0988, 33.5257, 38.6446, -84.3032, -21.2521
5.34, 2, 13.7422, 9.99714, 33.547, 38.5779, -84.1746, -20.9999
5.344, 2, 13.7048, 9.8946, 33.5705, 38.5062, -84.0442, -20.7479
5.35, 2, 13.6658, 9.79131, 33.5961, 38.4297, -83.9119, -20.4961
5.352, 2, 13.6254, 9.68735, 33.6238, 38.3486, -83.7779, -20.2448
5.356, 2, 13.5835, 9.58279, 33.6534, 38.2629, -83.6424, -19.994
5.36, 2, 13.5403, 9.47772, 33.6848, 38.1729, -83.5054, -19.7438
5.364, 2, 13.4957, 9.3722, 33.718, 38.0787, -83.367, -19.4943
5.368, 2, 13.4499, 9.2663, 33.7527, 37.9803, -83.2273, -19.2454
5.372, 2, 13.4027, 9.16008, 33.789, 37.878, -83.0864, -18.9972
5.376, 2, 13.3543, 9.05359, 33.8267, 37.7719, -82.9444, -18.7499
5.38, 2, 13.3048, 8.9469, 33.8658, 37.662, -82.8014, -18.5032
5.384, 2, 13.2541, 8.84005, 33.9062, 37.5486, -82.6573, -18.2574
5.388, 2, 13.2022, 8.73309, 33.9477, 37.4316, -82.5124, -18.0124
5.393, 2, 13.1493, 8.62607, 33.9903, 37.3113, -82.3667, -17.7682
5.398, 2, 13.0953, 8.51902, 34.0339, 37.1877, -82.2201, -17.5248
5.4, 2, 13.0403, 8.41198, 34.0785, 37.0609, -82.0729, -17.2822
5.404, 2, 12.9843, 8.305, 34.124, 36.9311, -81.925, -17.0403
5.408, 2, 12.9273, 8.19811, 34.1703, 36.7982, -81.7765, -16.7992
5.412, 2, 12.8693, 8.09132, 34.2173, 36.6625, -81.6275, -16.5588
5.417, 2, 12.8105, 7.98469, 34.2651, 36.5239, -81.4779, -16.3191
5.421, 2, 12.7507, 7.87823, 34.3135, 36.3825, -81.3279, -16.0802
5.426, 2, 12.69, 7.77196, 34.3624, 36.2385, -81.1775, -15.8418
5.428, 2, 12.6284, 7.66592, 34.412, 36.0919, -81.0267, -15.6041
5.432, 2, 12.566, 7.56012, 34.462, 35.9427, -80.8756, -15.367
5.436, 2, 12.5028, 7.45458, 34.5124, 35.791, -80.7242, -15.1305
5.44, 2, 12.4388, 7.34933, 34.5632, 35.6369, -80.5724, -14.8945
5.445, 2, 12.3739, 7.24438, 34.6144, 35.4804, -80.4205, -14.659
5.45, 2, 12.3083, 7.13975, 34.6659, 35.3217, -80.2684, -14.424
5.452, 2, 12.242, 7.03545, 34.7177, 35.1606, -80.1161, -14.1895
5.456, 2, 12.1748, 6.9315, 34.7697, 34.9973, -79.9636, -13.9553
5.46, 2, 12.107, 6.82791, 34.8219, 34.8319, -79.811, -13.7216
5.464, 2, 12.0384, 6.72471, 34.8742, 34.6643, -79.6584, -13.4882
5.469, 2, 11.9691, 6.62189, 34.9267, 34.4947, -79.5056, -13.2551
5.474, 2, 11.8991, 6.51947, 34.9793, 34.323, -79.3529, -13.0223
5.478, 2, 11.8285, 6.41747, 35.032, 34.1492, -79.2001, -12.7897
5.482, 2, 11.7571, 6.31588, 35.0847, 33.9735, -79.0473, -12.5574
5.484, 2, 11.6851, 6.21474, 35.1375, 33.7959, -78.8945, -12.3252
5.488, 2, 11.6124, 6.11403, 35.1902, 33.6163, -78.7418, -12.0933
5.492, 2, 11.5391, 6.01378, 35.2429, 33.4349, -78.5892, -11.8614
5.496, 2, 11.4651, 5.91399, 35.2955, 33.2516, -78.4367, -11.6297
5.5, 2, 11.3905, 5.81468, 35.348, 33.0665, -78.2842, -11.398
5.504, 2, 11.3153, 5.71584, 35.4005, 32.8796, -78.1319, -11.1664
5.508, 2, 11.2395, 5.61748, 35.4528, 32.6909, -77.9798, -10.9349
5.512, 2, 11.1631, 5.51962, 35.505, 32.5005, -77.8278, -10.7033
5.516, 2, 11.086, 5.42227, 35.557, 32.3084, -77.6759, -10.4717
5.52, 2, 11.0084, 5.32542, 35.6088, 32.1145, -77.5243, -10.24
5.525, 2, 10.9302, 5.22908, 35.6604, 31.919, -77.3729, -10.0082
5.53, 2, 10.8514, 5.13327, 35.7118, 31.7218, -77.2218, -9.77638
5.531, 2, 10.7721, 5.03799, 35.763, 31.523, -77.0709, -9.54439
5.536, 2, 10.6922, 4.94324, 35.8139, 31.3225, -76.9202, -9.31225
5.54, 2, 10.6117, 4.84903, 35.8646, 31.1205, -76.7698, -9.07994
5.544, 2, 10.5307, 4.75537, 35.9149, 30.9168, -76.6198, -8.84743
5.549, 2, 10.4491, 4.66227, 35.965, 30.7116, -76.47, -8.6147
5.553, 2, 10.367, 4.56972, 36.0148, 30.5048, -76.3206, -8.38173
5.556, 2, 10.2844, 4.47773, 36.0642, 30.2965, -76.1715, -8.1485
5.56, 2, 10.2012, 4.38632, 36.1133, 30.0867, -76.0228, -7.91499
5.564, 2, 10.1175, 4.29547, 36.162, 29.8753, -75.8744, -7.68118
5.568, 2, 10.0333, 4.20521, 36.2104, 29.6625, -75.7264, -7.44705
5.572, 2, 9.9486, 4.11553, 36.2584, 29.4481, -75.5789, -7.21259
5.576, 2, 9.86339, 4.02645, 36.306, 29.2323, -75.4317, -6.97777
5.58, 2, 9.77768, 3.93795, 36.3532, 29.015, -75.285, -6.74258
5.584, 2, 9.69148, 3.85006, 36.4001, 28.7963, -75.1387, -6.507
5.588, 2, 9.6048, 3.76277, 36.4464, 28.5762, -74.9929, -6.27102
5.592, 2, 9.51764, 3.67609, 36.4924, 28.3546, -74.8476, -6.03461
5.597, 2, 9.42999, 3.59002, 36.5379, 28.1316, -74.7027, -5.79777
5.602, 2, 9.34188, 3.50457, 36.583, 27.9071, -74.5584, -5.56048
5.603, 2, 9.2533, 3.41975, 36.6276, 27.6813, -74.4145, -5.32272
5.608, 2, 9.16425, 3.33555, 36.6717, 27.4542, -74.2712, -5.08448
5.612, 2, 9.07475, 3.25198, 36.7154, 27.2256, -74.1285, -4.84575
5.616, 2, 8.98479, 3.16905, 36.7586, 26.9956, -73.9862, -4.60652
5.621, 2, 8.89439, 3.08676, 36.8013, 26.7644, -73.8446, -4.36676
5.625, 2, 8.80354, 3.00511, 36.8434, 26.5317, -73.7035, -4.12648
5.628, 2, 8.71225, 2.92411, 36.8851, 26.2977, -73.5631, -3.88566
5.632, 2, 8.62053, 2.84376, 36.9263, 26.0624, -73.4232, -3.64428
5.636, 2, 8.52837, 2.76407, 36.9669, 25.8258, -73.284, -3.40234
5.64, 2, 8.43579, 2.68504, 37.007, 25.5878, -73.1454, -3.15982
5.645, 2, 8.34278, 2.60667, 37.0466, 25.3486, -73.0075, -2.91673
5.65, 2, 8.24936, 2.52898, 37.0856, 25.108, -72.8702, -2.67304
5.652, 2, 8.15553, 2.45195, 37.124, 24.8662, -72.7336, -2.42875
5.656, 2, 8.06128, 2.3756, 37.1619, 24.6231, -72.5977, -2.18385
5.66, 2, 7.96664, 2.29993, 37.1993, 24.3787, -72.4625, -1.93834
5.664, 2, 7.87159, 2.22495, 37.236, 24.133, -72.328, -1.6922
5.669, 2, 7.77615, 2.15065, 37.2722, 23.8861, -72.1943, -1.44542
5.674, 2, 7.68032, 2.07704, 37.3078, 23.6379, -72.0613, -1.19801
5.676, 2, 7.5841, 2.00413, 37.3428, 23.3885, -71.929, -0.949956
5.68, 2, 7.4875, 1.93192, 37.3772, 23.1378, -71.7976, -0.701249
5.684, 2, 7.39052, 1.86041, 37.4111, 22.8859, -71.6669, -0.451887
5.688, 2, 7.29318, 1.7896, 37.4443, 22.6328, -71.537, -0.201865
5.692, 2, 7.19546, 1.7195, 37.4768, 22.3785, -71.4079, 0.0488224
5.698, 2, 7.09739, 1.65012, 37.5088, 22.1229, -71.2797, 0.300179
5.7, 2, 6.99895, 1.58145, 37.5402, 21.8662, -71.1522, 0.552208
5.704, 2, 6.90017, 1.5135, 37.5709, 21.6083, -71.0257, 0.804913
5.708, 2, 6.80103, 1.44628, 37.601, 21.3492, -70.9, 1.0583
5.712, 2, 6.70155, 1.37978, 37.6305, 21.0889, -70.7752, 1.31236
5.716, 2, 6.60173, 1.31401, 37.6593, 20.8275, -70.6512, 1.56711
5.722, 2, 6.50158, 1.24897, 37.6874, 20.5649, -70.5282, 1.82254
5.724, 2, 6.40109, 1.18467, 37.715, 20.3012, -70.4061, 2.07866
5.728, 2, 6.30028, 1.12111, 37.7418, 20.0363, -70.285, 2.33546
5.732, 2, 6.19915, 1.05829, 37.768, 19.7703, -70.1647, 2.59295
5.736, 2, 6.09771, 0.996211, 37.7936, 19.5031, -70.0455, 2.85112
5.741, 2, 5.99595, 0.934884, 37.8185, 19.2348, -69.9272, 3.10998
5.746, 2, 5.89389, 0.874308, 37.8427, 18.9655, -69.8098, 3.36952
5.748, 2, 5.79153, 0.814487, 37.8662, 18.695, -69.6935, 3.62975
5.752, 2, 5.68887, 0.755423, 37.8891, 18.4234, -69.5782, 3.89066
5.756, 2, 5.58592, 0.697118, 37.9112, 18.1508, -69.4639, 4.15224
5.76, 2, 5.48268, 0.639577, 37.9327, 17.877, -69.3507, 4.4145
5.764, 2, 5.37916, 0.582802, 37.9535, 17.6022, -69.2385, 4.67743
5.77, 2, 5.27536, 0.526795, 37.9736, 17.3264, -69.1273, 4.94103
5.774, 2, 5.17129, 0.471559, 37.9931, 17.0495, -69.0172, 5.2053
5.776, 2, 5.06696, 0.417098, 38.0118, 16.7716, -68.9083, 5.47022
5.78, 2, 4.96236, 0.363413, 38.0298, 16.4926, -68.8004, 5.7358
5.784, 2, 4.8575, 0.310507, 38.0471, 16.2127, -68.6936, 6.00203
5.788, 2, 4.7524, 0.258383, 38.0637, 15.9317, -68.5879, 6.2689
5.793, 2, 4.64704, 0.207042, 38.0796, 15.6497, -68.4834, 6.53641
5.798, 2, 4.54144, 0.156489, 38.0948, 15.3667, -68.38, 6.80455
5.8, 2, 4.43561, 0.106724, 38.1092, 15.0828, -68.2778, 7.07331
5.804, 2, 4.32954, 0.0577508, 38.123, 14.7979, -68.1768, 7.34269
5.808, 2, 4.22325, 0.00957122, 38.136, 14.512, -68.0769, 7.61268
5.812, 2, 4.11673, -0.0378123, 38.1483, 14.2252, -67.9782, 7.88326
5.817, 2, 4.01, -0.0843976, 38.1599, 13.9375, -67.8808, 8.15444
5.822, 2, 3.90305, -0.130182, 38.1707, 13.6488, -67.7845, 8.4262
5.824, 2, 3.7959, -0.175165, 38.1808, 13.3592, -67.6895, 8.69853
5.828, 2, 3.68855, -0.219343, 38.1902, 13.0688, -67.5957, 8.97142
5.832, 2, 3.581, -0.262714, 38.1989, 12.7774, -67.5032, 9.24486
5.836, 2, 3.47325, -0.305276, 38.2068, 12.4852, -67.412, 9.51884
5.84, 2, 3.36533, -0.347029, 38.2139, 12.1921, -67.322, 9.79335
5.844, 2, 3.25722, -0.387969, 38.2204, 11.8982, -67.2333, 10.0684
5.848, 2, 3.14893, -0.428094, 38.226, 11.6034, -67.1459, 10.3439
5.852, 2, 3.04048, -0.467404, 38.231, 11.3078, -67.0598, 10.6199
5.856, 2, 2.93186, -0.505896, 38.2351, 11.0114, -66.9751, 10.8964
5.86, 2, 2.82308, -0.543568, 38.2386, 10.7141, -66.8916, 11.1734
5.865, 2, 2.71414, -0.580419, 38.2412, 10.4162, -66.8096, 11.4508
