hehonglu123/Motion-Primitive-Planning/ILC/recorded_data/realrobot/from_NX/iteration_35/run_0.csv
timestamp, cmd_num, J1, J2, J3, J4, J5, J6
0.001108, -1, 39.6281, 32.4456, 11.8317, 12.5439, 113.713, -48.8735
0.004915, -1, 39.6281, 32.4456, 11.8317, 12.5439, 113.713, -48.8735
0.007802, -1, 39.628, 32.4456, 11.8317, 12.5439, 113.713, -48.8735
0.029887, -1, 39.628, 32.4456, 11.8317, 12.5439, 113.713, -48.8734
0.031245, -1, 39.628, 32.4456, 11.8317, 12.5439, 113.713, -48.8734
0.033724, -1, 39.6281, 32.4456, 11.8317, 12.5439, 113.713, -48.8734
0.039733, -1, 39.6281, 32.4456, 11.8317, 12.5439, 113.713, -48.8734
0.04769, -1, 39.628, 32.4456, 11.8317, 12.5439, 113.713, -48.8734
0.055716, -1, 39.6276, 32.4455, 11.8317, 12.5439, 113.713, -48.8734
0.065307, -1, 39.6255, 32.4452, 11.8317, 12.5439, 113.713, -48.8735
0.071692, -1, 39.6203, 32.4439, 11.8316, 12.5439, 113.713, -48.8736
0.07966, -1, 39.6115, 32.441, 11.8314, 12.5439, 113.713, -48.8748
0.087681, -1, 39.5984, 32.4358, 11.8312, 12.5438, 113.711, -48.8789
0.095771, -1, 39.5788, 32.4273, 11.8311, 12.5438, 113.708, -48.8896
0.103668, -1, 39.5502, 32.4148, 11.8315, 12.5438, 113.701, -48.9099
0.111732, -1, 39.5118, 32.3973, 11.8332, 12.5438, 113.689, -48.9432
0.11967, -1, 39.4624, 32.3736, 11.8378, 12.5438, 113.67, -48.9933
0.127725, -1, 39.4003, 32.3432, 11.8458, 12.5439, 113.643, -49.0649
0.135732, -1, 39.3249, 32.3053, 11.8582, 12.5441, 113.605, -49.1589
0.143677, -1, 39.2359, 32.2597, 11.8757, 12.5445, 113.559, -49.2788
0.151671, -1, 39.1328, 32.2061, 11.898, 12.5453, 113.502, -49.4242
0.159732, -1, 39.0157, 32.1446, 11.9245, 12.5466, 113.435, -49.5943
0.167666, -1, 38.8852, 32.0756, 11.9549, 12.5484, 113.359, -49.787
0.175676, -1, 38.7424, 32.0001, 11.9887, 12.5505, 113.275, -49.999
0.183789, -1, 38.588, 31.9187, 12.0248, 12.5526, 113.185, -50.2269
0.191678, -1, 38.4236, 31.8323, 12.0624, 12.5549, 113.09, -50.4669
0.199777, -1, 38.2514, 31.742, 12.1011, 12.5573, 112.992, -50.7152
0.207665, -1, 38.0729, 31.6486, 12.1401, 12.5598, 112.891, -50.9685
0.215666, -1, 37.8894, 31.5531, 12.179, 12.5623, 112.79, -51.2253
0.224936, -1, 37.7018, 31.4561, 12.2178, 12.5647, 112.688, -51.4839
0.232695, -1, 37.5114, 31.3583, 12.2565, 12.5672, 112.585, -51.7435
0.239846, -1, 37.3198, 31.2603, 12.2953, 12.5697, 112.483, -52.0031
0.247664, -1, 37.1278, 31.1624, 12.3341, 12.572, 112.38, -52.2629
0.255696, -1, 36.9355, 31.0645, 12.3728, 12.5747, 112.277, -52.5231
0.263846, -1, 36.7434, 30.9667, 12.4116, 12.5772, 112.174, -52.7836
0.271752, -1, 36.5518, 30.8688, 12.4505, 12.5798, 112.071, -53.044
0.279818, -1, 36.3602, 30.7711, 12.4894, 12.5823, 111.968, -53.3044
0.287832, -1, 36.1686, 30.6732, 12.5282, 12.5849, 111.865, -53.5648
0.295802, -1, 35.9771, 30.5752, 12.5671, 12.5874, 111.762, -53.8255
0.303725, -1, 35.7855, 30.4771, 12.6061, 12.5899, 111.659, -54.0862
0.311799, -1, 35.5937, 30.3791, 12.645, 12.5924, 111.556, -54.3464
0.319766, -1, 35.4017, 30.2808, 12.6839, 12.595, 111.453, -54.6067
0.327699, -1, 35.2094, 30.1825, 12.7227, 12.5975, 111.35, -54.8673
0.335821, -1, 35.0169, 30.0841, 12.7617, 12.6, 111.247, -55.1282
0.34379, -1, 34.8246, 29.9856, 12.8006, 12.6026, 111.144, -55.3887
0.352222, -1, 34.6323, 29.8872, 12.8395, 12.6051, 111.041, -55.6495
0.358695, -1, 34.5361, 29.8379, 12.859, 12.6063, 110.989, -55.78
0.367973, -1, 34.2478, 29.6903, 12.9175, 12.6101, 110.835, -56.1715
0.500866, -1, 31.1604, 28.1136, 13.5608, 12.6539, 109.134, -60.4799
0.502231, -1, 31.0641, 28.0644, 13.5608, 12.6539, 109.134, -60.4799
0.503511, -1, 31.0641, 28.0644, 13.5608, 12.6539, 109.134, -60.4799
0.505577, -1, 30.9679, 28.0151, 13.5803, 12.6553, 109.082, -60.6108
0.506835, -1, 30.9679, 28.0151, 13.5803, 12.6553, 109.082, -60.6108
0.508037, -1, 30.9679, 28.0151, 13.5803, 12.6553, 109.082, -60.6108
0.510078, -1, 30.8717, 27.9658, 13.5999, 12.6567, 109.031, -60.7415
0.514239, -1, 30.7757, 27.9165, 13.6193, 12.6581, 108.979, -60.8721
0.515638, -1, 30.7757, 27.9165, 13.6193, 12.6581, 108.979, -60.8721
0.518452, -1, 30.6797, 27.8672, 13.6388, 12.6595, 108.928, -61.0027
0.519762, -1, 30.6797, 27.8672, 13.6388, 12.6595, 108.928, -61.0027
0.521832, -1, 30.5838, 27.818, 13.6584, 12.6609, 108.876, -61.1333
0.523037, -1, 30.5838, 27.818, 13.6584, 12.6609, 108.876, -61.1333
0.524349, -1, 30.5838, 27.818, 13.6584, 12.6609, 108.876, -61.1333
0.526293, -1, 30.4878, 27.7687, 13.6779, 12.6623, 108.824, -61.264
0.530523, -1, 30.3918, 27.7194, 13.6974, 12.6637, 108.773, -61.3947
0.531715, -1, 30.3918, 27.7194, 13.6974, 12.6637, 108.773, -61.3947
0.533771, -1, 30.2958, 27.67, 13.7169, 12.665, 108.721, -61.5255
0.535003, -1, 30.2958, 27.67, 13.7169, 12.665, 108.721, -61.5255
0.536291, -1, 30.2958, 27.67, 13.7169, 12.665, 108.721, -61.5255
0.539188, -1, 30.1997, 27.6206, 13.7364, 12.6664, 108.67, -61.6563
0.543656, -1, 30.1035, 27.5713, 13.756, 12.6678, 108.618, -61.7873
0.551646, -1, 29.9109, 27.4726, 13.795, 12.6705, 108.515, -62.0489
0.559785, -1, 29.718, 27.3739, 13.8339, 12.6732, 108.412, -62.3105
0.567655, -1, 29.5244, 27.2751, 13.8729, 12.6758, 108.309, -62.5723
0.57665, -1, 29.3304, 27.1763, 13.9119, 12.6784, 108.205, -62.8341
0.583716, -1, 29.1363, 27.0775, 13.9509, 12.681, 108.102, -63.0957
0.591655, -1, 28.9417, 26.9786, 13.99, 12.6835, 107.998, -63.3571
0.599779, -1, 28.7476, 26.8797, 14.029, 12.6861, 107.895, -63.6186
0.607671, -1, 28.5535, 26.7809, 14.068, 12.6885, 107.791, -63.8803
0.615649, -1, 28.3595, 26.6821, 14.1071, 12.6911, 107.688, -64.1421
0.623716, -1, 28.1661, 26.5835, 14.1461, 12.6935, 107.585, -64.4036
0.631688, -1, 27.9731, 26.4847, 14.1851, 12.696, 107.482, -64.6653
0.639824, -1, 27.7803, 26.3858, 14.2243, 12.6984, 107.378, -64.9273
0.647716, -1, 27.5877, 26.287, 14.2632, 12.7009, 107.275, -65.1891
0.65565, -1, 27.3955, 26.188, 14.3022, 12.7033, 107.172, -65.4507
0.79319, -1, 24.1106, 24.5081, 14.9652, 12.7427, 105.416, -69.8999
0.794419, -1, 24.1106, 24.5081, 14.9652, 12.7427, 105.416, -69.8999
0.797264, -1, 24.0143, 24.4587, 14.9847, 12.7438, 105.365, -70.0305
0.798543, -1, 24.0143, 24.4587, 14.9847, 12.7438, 105.365, -70.0305
0.800704, -1, 23.9179, 24.4093, 15.0042, 12.7449, 105.313, -70.1613
0.801976, -1, 23.9179, 24.4093, 15.0042, 12.7449, 105.313, -70.1613
0.804802, -1, 23.8214, 24.3599, 15.0237, 12.7462, 105.261, -70.2922
0.81264, -1, 23.6284, 24.2611, 15.0626, 12.7486, 105.158, -70.554
0.813998, -1, 23.6284, 24.2611, 15.0626, 12.7486, 105.158, -70.554
0.816049, -1, 23.5318, 24.2117, 15.0821, 12.7497, 105.106, -70.685
0.817349, -1, 23.5318, 24.2117, 15.0821, 12.7497, 105.106, -70.685
0.818525, -1, 23.5318, 24.2117, 15.0821, 12.7497, 105.106, -70.685
0.821396, -1, 23.4351, 24.1622, 15.1016, 12.7509, 105.054, -70.8158
0.822648, -1, 23.4351, 24.1622, 15.1016, 12.7509, 105.054, -70.8158
0.824664, -1, 23.3383, 24.1128, 15.1211, 12.7522, 105.003, -70.9465
0.828742, -1, 23.2414, 24.0634, 15.1405, 12.7534, 104.951, -71.0774
0.830015, -1, 23.2414, 24.0634, 15.1405, 12.7534, 104.951, -71.0774
0.832091, -1, 23.1446, 24.0139, 15.1599, 12.7546, 104.899, -71.2083
0.833333, -1, 23.1446, 24.0139, 15.1599, 12.7546, 104.899, -71.2083
0.834624, -1, 23.1446, 24.0139, 15.1599, 12.7546, 104.899, -71.2083
0.836723, -1, 23.0476, 23.9645, 15.1794, 12.7558, 104.848, -71.3392
0.838004, -1, 23.0476, 23.9645, 15.1794, 12.7558, 104.848, -71.3392
0.842614, -1, 22.9506, 23.9151, 15.1988, 12.757, 104.796, -71.4701
0.847836, -1, 22.7566, 23.8163, 15.2378, 12.7595, 104.692, -71.7321
0.855982, -1, 22.5628, 23.7176, 15.2768, 12.762, 104.589, -71.9937
0.863929, -1, 22.3692, 23.619, 15.3158, 12.7645, 104.486, -72.255
0.870649, -1, 22.2726, 23.5696, 15.3353, 12.7657, 104.434, -72.3857
0.880172, -1, 21.9828, 23.4215, 15.3937, 12.7696, 104.279, -72.7782
0.888099, -1, 21.7899, 23.3228, 15.4327, 12.7722, 104.176, -73.0397
0.894667, -1, 21.6937, 23.2734, 15.4522, 12.7735, 104.124, -73.1702
0.904224, -1, 21.4054, 23.1253, 15.5105, 12.7775, 103.97, -73.5625
0.912203, -1, 21.2131, 23.0266, 15.5496, 12.7802, 103.867, -73.824
0.920387, -1, 21.0207, 22.928, 15.5885, 12.7828, 103.763, -74.0856
0.928272, -1, 20.9245, 22.8787, 15.6079, 12.7855, 103.66, -74.3467
0.936172, -1, 20.732, 22.7801, 15.6469, 12.7868, 103.609, -74.4772
0.943692, -1, 20.5393, 22.6815, 15.6858, 12.7896, 103.505, -74.7385
0.951644, -1, 20.3462, 22.5829, 15.7246, 12.7923, 103.403, -74.9998
0.958703, -1, 20.1526, 22.4842, 15.7636, 12.795, 103.299, -75.2611
0.968781, -1, 19.8621, 22.3361, 15.8219, 12.7992, 103.145, -75.6528
0.975641, -1, 19.7652, 22.2868, 15.8412, 12.8005, 103.094, -75.7834
0.982635, -1, 19.5716, 22.1882, 15.8801, 12.8032, 102.99, -76.0446
0.991634, -1, 19.3783, 22.0896, 15.9191, 12.806, 102.887, -76.306
0.99973, -1, 19.1853, 21.9909, 15.9579, 12.8086, 102.784, -76.5667
1.00768, -1, 18.9925, 21.8923, 15.9968, 12.8114, 102.681, -76.8275
1.01563, -1, 18.8, 21.7936, 16.0357, 12.8141, 102.578, -77.0885
1.02366, -1, 18.6079, 21.6948, 16.0744, 12.8169, 102.475, -77.3495
1.03068, -1, 18.4161, 21.5963, 16.1134, 12.8196, 102.372, -77.6102
1.0397, -1, 18.2242, 21.4978, 16.1523, 12.8222, 102.27, -77.871
1.04763, -1, 18.0322, 21.3993, 16.191, 12.8248, 102.167, -78.1317
1.05718, -1, 17.8403, 21.3009, 16.23, 12.8273, 102.012, -78.5229
1.06363, -1, 17.6482, 21.2026, 16.2688, 12.8298, 101.961, -78.6532
1.07267, -1, 17.4559, 21.1043, 16.3076, 12.8323, 101.858, -78.9136
1.07863, -1, 17.2631, 21.006, 16.3465, 12.8348, 101.755, -79.1742
1.08763, -1, 17.07, 20.9078, 16.3853, 12.8372, 101.652, -79.4348
1.09565, -1, 16.877, 20.8095, 16.4241, 12.8396, 101.549, -79.6954
1.10372, -1, 16.6839, 20.7113, 16.4629, 12.8419, 101.446, -79.9558
1.11163, -1, 16.4909, 20.6131, 16.5016, 12.8443, 101.344, -80.2163
1.11971, -1, 16.2982, 20.5148, 16.5404, 12.8467, 101.241, -80.4769
1.12763, -1, 16.1059, 20.4165, 16.5792, 12.849, 101.138, -80.7375
1.13567, -1, 15.9139, 20.3181, 16.6179, 12.8513, 101.036, -80.9975
1.14371, -1, 15.7221, 20.2195, 16.6566, 12.8537, 100.933, -81.2575
1.15164, -1, 15.5308, 20.1211, 16.6952, 12.8561, 100.83, -81.5176
1.15969, -1, 15.3396, 20.0228, 16.7339, 12.8584, 100.728, -81.7779
1.16773, -1, 15.1484, 19.9245, 16.7727, 12.8606, 100.625, -82.0378
1.17563, -1, 14.9572, 19.8262, 16.8114, 12.863, 100.523, -82.2976
1.18363, -1, 14.7659, 19.7281, 16.85, 12.8652, 100.42, -82.5575
1.19174, -1, 14.5744, 19.63, 16.8888, 12.8675, 100.318, -82.8177
1.19971, -1, 14.3826, 19.5319, 16.9275, 12.8698, 100.215, -83.0774
1.20762, -1, 14.1903, 19.4339, 16.9662, 12.8722, 100.112, -83.3369
1.21571, -1, 13.998, 19.3359, 17.005, 12.8744, 100.01, -83.5964
1.22367, -1, 13.8056, 19.2382, 17.0435, 12.8767, 99.9074, -83.8561
1.23168, -1, 13.6131, 19.1404, 17.0821, 12.879, 99.805, -84.1157
1.23978, -1, 13.4208, 19.0425, 17.1209, 12.8814, 99.7024, -84.375
1.24763, -1, 13.2288, 18.9446, 17.1594, 12.8836, 99.6002, -84.6342
1.25571, -1, 13.0372, 18.8467, 17.198, 12.886, 99.4977, -84.8936
1.26444, -1, 12.846, 18.7487, 17.2367, 12.8884, 99.3952, -85.1529
1.27174, -1, 12.655, 18.6507, 17.2752, 12.8907, 99.2931, -85.4119
1.27985, -1, 12.4643, 18.5529, 17.3138, 12.8931, 99.1907, -85.6708
1.28908, -1, 12.2741, 18.4552, 17.3523, 12.8955, 99.0883, -85.9297
1.29574, -1, 12.0839, 18.3574, 17.3908, 12.8979, 98.9864, -86.1888
1.30426, -1, 11.8935, 18.2598, 17.4295, 12.9003, 98.8842, -86.4476
1.31163, -1, 11.703, 18.1621, 17.4681, 12.9027, 98.7823, -86.706
1.31996, -1, 11.5122, 18.0645, 17.5066, 12.9052, 98.6806, -86.9647
1.32843, -1, 11.3211, 17.9669, 17.5452, 12.9076, 98.5786, -87.2234
1.33568, -1, 11.1298, 17.8694, 17.5838, 12.91, 98.4767, -87.4819
1.34379, -1, 10.9384, 17.772, 17.6223, 12.9125, 98.3748, -87.74
1.35281, -1, 10.7468, 17.6746, 17.6608, 12.9149, 98.2727, -87.9983
1.36009, -1, 10.5552, 17.577, 17.6992, 12.9174, 98.1709, -88.2567
1.36666, -1, 10.4596, 17.5283, 17.7184, 12.9188, 98.1201, -88.3859
1.37681, -1, 10.1728, 17.382, 17.7761, 12.9225, 97.9672, -88.773
1.38406, -1, 9.98228, 17.2844, 17.8144, 12.9253, 97.8654, -89.0311
1.39062, -1, 9.88714, 17.2356, 17.8336, 12.9266, 97.8145, -89.1602
1.40102, -1, 9.6021, 17.0893, 17.8911, 12.9305, 97.6614, -89.5475
1.40816, -1, 9.41269, 16.9919, 17.9295, 12.9333, 97.5596, -89.8052
1.41641, -1, 9.22339, 16.8946, 17.9678, 12.9361, 97.4576, -90.0628
1.42506, -1, 9.12871, 16.7973, 18.0062, 12.9387, 97.3557, -90.3204
1.4322, -1, 8.93929, 16.7488, 18.0254, 12.9401, 97.2542, -90.578
1.44028, -1, 8.74981, 16.6516, 18.0637, 12.9427, 97.1524, -90.8354
1.44763, -1, 8.56021, 16.5545, 18.1022, 12.9453, 97.1016, -90.9639
1.45562, -1, 8.37037, 16.4575, 18.1405, 12.9481, 97.0002, -91.2211
1.46367, -1, 8.18009, 16.3605, 18.1787, 12.9508, 96.8987, -91.4782
1.47166, -1, 7.98963, 16.2637, 18.2172, 12.9534, 96.7971, -91.7355
1.47869, -1, 7.7992, 16.1668, 18.2554, 12.9561, 96.6957, -91.9924
1.48768, -1, 7.60863, 16.0698, 18.2936, 12.9587, 96.5941, -92.2491
1.49562, -1, 7.41824, 15.9729, 18.3319, 12.9613, 96.4927, -92.5058
1.50368, -1, 7.22816, 15.876, 18.37, 12.9639, 96.3915, -92.7626
1.51162, -1, 7.03832, 15.7789, 18.4082, 12.9664, 96.2901, -93.0194
1.51962, -1, 6.84883, 15.682, 18.4465, 12.9691, 96.1888, -93.2758
1.52662, -1, 6.65983, 15.5851, 18.4846, 12.9715, 96.0881, -93.5323
1.53563, -1, 6.47131, 15.4883, 18.5226, 12.9741, 95.987, -93.7887
1.54369, -1, 6.28319, 15.3917, 18.5608, 12.9766, 95.8858, -94.0451
1.55169, -1, 6.09509, 15.2949, 18.5989, 12.979, 95.7851, -94.3011
1.55966, -1, 5.90677, 15.1982, 18.6371, 12.9814, 95.684, -94.557
1.56763, -1, 5.71834, 15.1016, 18.6753, 12.9838, 95.5831, -94.8129
1.57665, -1, 5.52981, 15.005, 18.7133, 12.9861, 95.4825, -95.0689
1.58263, -1, 5.34105, 14.9085, 18.7514, 12.9884, 95.3816, -95.3245
1.59162, -1, 5.15189, 14.8121, 18.7896, 12.9906, 95.2809, -95.5799
1.59968, -1, 4.96256, 14.7158, 18.8275, 12.9929, 95.1804, -95.8355
1.60775, -1, 4.77314, 14.6193, 18.8656, 12.9952, 95.0795, -96.0911
1.61562, -1, 4.58366, 14.5229, 18.9037, 12.9973, 94.9787, -96.3462
1.62362, -1, 4.39449, 14.4265, 18.9417, 12.9996, 94.8781, -96.601
1.63162, -1, 4.20559, 14.3301, 18.9796, 13.0017, 94.7772, -96.8558
1.63972, -1, 4.01689, 14.2336, 19.0176, 13.004, 94.6764, -97.1111
1.64763, -1, 3.82882, 14.1374, 19.0555, 13.0063, 94.5756, -97.3662
1.65562, -1, 3.64124, 14.0412, 19.0934, 13.0085, 94.4748, -97.6209
1.66368, -1, 3.45412, 13.945, 19.1314, 13.0109, 94.3743, -97.8756
1.67172, -1, 3.26719, 13.849, 19.1691, 13.0132, 94.2736, -98.1304
1.67962, -1, 3.08015, 13.7529, 19.2071, 13.0154, 94.1728, -98.3852
1.68771, -1, 2.89312, 13.6569, 19.245, 13.0176, 94.0722, -98.6395
1.69563, -1, 2.70607, 13.5608, 19.2829, 13.0199, 93.9715, -98.8937
1.70363, -1, 2.51881, 13.4649, 19.3208, 13.0222, 93.8711, -99.1478
1.71169, -1, 2.33134, 13.3689, 19.3586, 13.0245, 93.7708, -99.402
1.71961, -1, 2.14347, 13.2732, 19.3963, 13.0268, 93.6704, -99.656
1.72763, -1, 1.95536, 13.1773, 19.4343, 13.0289, 93.5702, -99.9095
1.73569, -1, 1.76722, 13.0814, 19.472, 13.0313, 93.4704, -100.163
1.74361, -1, 1.57892, 12.9856, 19.5097, 13.0335, 93.3703, -100.417
1.75162, -1, 1.39087, 12.8898, 19.5476, 13.0357, 93.2702, -100.67
1.75983, -1, 1.20311, 12.7939, 19.5853, 13.038, 93.1703, -100.924
1.76767, -1, 1.0157, 12.6982, 19.623, 13.0404, 93.0702, -101.177
1.77572, -1, 0.828952, 12.6026, 19.6608, 13.0428, 92.9702, -101.43
1.78403, -1, 0.642614, 12.5071, 19.6984, 13.0452, 92.8706, -101.683
1.79172, -1, 0.456692, 12.4116, 19.7359, 13.0476, 92.7707, -101.936
1.79972, -1, 0.271025, 12.3163, 19.7737, 13.0501, 92.671, -102.189
1.80825, -1, 0.0855382, 12.2209, 19.8113, 13.0525, 92.5717, -102.441
1.81562, -1, -0.0999404, 12.1256, 19.8488, 13.0549, 92.472, -102.694
1.82366, -1, -0.285516, 12.0304, 19.8865, 13.0574, 92.3724, -102.946
1.8324, -1, -0.47145, 11.9352, 19.9241, 13.0599, 92.2731, -103.198
1.83968, -1, -0.657637, 11.8401, 19.9616, 13.0623, 92.1735, -103.45
1.84779, -1, -0.844055, 11.7451, 19.9992, 13.0648, 92.074, -103.702
1.8566, -1, -1.03076, 11.65, 20.0366, 13.0673, 91.9748, -103.955
1.8639, -1, -1.21756, 11.5549, 20.074, 13.0698, 91.8754, -104.206
1.87205, -1, -1.40445, 11.4599, 20.1116, 13.0724, 91.7762, -104.458
1.87861, -1, -1.49781, 11.4123, 20.1304, 13.0736, 91.7267, -104.584
1.88806, -1, -1.77762, 11.2697, 20.1864, 13.0775, 91.5778, -104.961
1.89461, -1, -1.87073, 11.2222, 20.2051, 13.0788, 91.5282, -105.087
1.90498, -1, -2.14909, 11.0798, 20.2612, 13.0828, 91.3795, -105.463
1.91217, -1, -2.33405, 10.9849, 20.2985, 13.0854, 91.2803, -105.714
1.92028, -1, -2.51872, 10.8901, 20.3359, 13.0881, 91.1812, -105.965
1.92904, -1, -2.61083, 10.7954, 20.3731, 13.0908, 91.0821, -106.216
1.93615, -1, -2.79484, 10.748, 20.3917, 13.0921, 91.0325, -106.467
1.94438, -1, -2.97881, 10.6532, 20.4291, 13.0947, 90.8841, -106.718
1.9516, -1, -3.16273, 10.5585, 20.4665, 13.0973, 90.8348, -106.843
1.95962, -1, -3.34705, 10.4639, 20.5036, 13.0999, 90.7357, -107.093
1.96766, -1, -3.53172, 10.3694, 20.5409, 13.1024, 90.6368, -107.344
1.97564, -1, -3.71647, 10.2751, 20.5782, 13.105, 90.5382, -107.594
1.98371, -1, -3.90158, 10.1807, 20.6154, 13.1074, 90.4392, -107.844
1.99161, -1, -4.0869, 10.0863, 20.6527, 13.1099, 90.3405, -108.094
1.99961, -1, -4.27244, 9.99206, 20.6898, 13.1124, 90.2421, -108.344
2.00767, -1, -4.45797, 9.89775, 20.727, 13.1147, 90.1433, -108.594
2.01561, -1, -4.64324, 9.80344, 20.7643, 13.1171, 90.0448, -108.843
2.02366, -1, -4.8282, 9.70927, 20.8015, 13.1194, 89.9465, -109.093
2.03162, -1, -5.01276, 9.61519, 20.8385, 13.1218, 89.8479, -109.342
2.03964, -1, -5.19656, 9.52116, 20.8757, 13.1242, 89.7495, -109.592
2.04769, -1, -5.37987, 9.42715, 20.9129, 13.1265, 89.6514, -109.841
2.05562, -1, -5.56291, 9.33323, 20.95, 13.1289, 89.5528, -110.089
2.06362, -1, -5.74546, 9.23927, 20.9871, 13.1312, 89.4546, -110.338
2.0726, -1, -5.92781, 9.14534, 21.0241, 13.1335, 89.3566, -110.587
2.0796, -1, -6.11014, 9.05146, 21.061, 13.1357, 89.2583, -110.836
2.0886, -1, -6.29284, 8.95765, 21.0982, 13.1379, 89.1603, -111.084
2.09568, -1, -6.47578, 8.86399, 21.1351, 13.1402, 89.0626, -111.332
2.10361, -1, -6.65894, 8.77033, 21.1719, 13.1423, 88.9644, -111.581
2.11165, -1, -6.84253, 8.6767, 21.2089, 13.1445, 88.8665, -111.829
2.11966, -1, -7.02639, 8.58311, 21.2458, 13.1466, 88.7687, -112.077
2.12766, -1, -7.21059, 8.48956, 21.2827, 13.1487, 88.6708, -112.324
2.13562, -1, -7.3948, 8.39596, 21.3197, 13.1508, 88.5729, -112.572
2.14371, -1, -7.57861, 8.30236, 21.3566, 13.1531, 88.4755, -112.82
2.15161, -1, -7.76213, 8.20896, 21.3933, 13.1552, 88.3778, -113.067
2.15961, -1, -7.94523, 8.11557, 21.4303, 13.1575, 88.2804, -113.314
2.16767, -1, -8.12779, 8.02227, 21.4671, 13.1597, 88.1832, -113.561
2.17573, -1, -8.30963, 7.92899, 21.5039, 13.1619, 88.0857, -113.808
2.18362, -1, -8.4911, 7.83569, 21.5408, 13.1641, 87.9883, -114.055
2.19167, -1, -8.67207, 7.74249, 21.5776, 13.1664, 87.891, -114.302
2.19962, -1, -8.85278, 7.64929, 21.6143, 13.1687, 87.7935, -114.548
2.20763, -1, -9.03356, 7.55615, 21.6511, 13.1709, 87.6961, -114.795
2.21567, -1, -9.21457, 7.46313, 21.6879, 13.1732, 87.5991, -115.041
2.22365, -1, -9.39585, 7.37033, 21.7245, 13.1753, 87.5018, -115.288
2.23167, -1, -9.57752, 7.27748, 21.7613, 13.1775, 87.4046, -115.534
2.2396, -1, -9.75947, 7.18469, 21.7979, 13.1798, 87.3077, -115.78
2.24761, -1, -9.9418, 7.092, 21.8345, 13.182, 87.2104, -116.026
2.25581, -1, -10.1243, 6.99926, 21.8711, 13.1843, 87.1132, -116.272
2.26368, -1, -10.307, 6.90651, 21.9078, 13.1865, 87.0161, -116.518
2.27166, -1, -10.4895, 6.81379, 21.9444, 13.1887, 86.9189, -116.763
2.28052, -1, -10.6718, 6.72109, 21.981, 13.191, 86.8219, -117.008
2.28771, -1, -10.8536, 6.6285, 22.0175, 13.1933, 86.7251, -117.254
2.2957, -1, -11.0349, 6.53593, 22.0539, 13.1958, 86.6282, -117.499
2.30457, -1, -11.2154, 6.44341, 22.0905, 13.1982, 86.5315, -117.744
2.31174, -1, -11.3953, 6.35087, 22.1271, 13.2006, 86.435, -117.989
2.31961, -1, -11.5749, 6.25843, 22.1635, 13.2029, 86.3381, -118.234
2.32853, -1, -11.7542, 6.16598, 22.2, 13.2054, 86.2415, -118.479
2.33571, -1, -11.9334, 6.07364, 22.2365, 13.2079, 86.1449, -118.723
2.34376, -1, -12.1127, 5.98139, 22.2729, 13.2104, 86.0483, -118.967
2.3527, -1, -12.2923, 5.88932, 22.3095, 13.2129, 85.9519, -119.211
2.35979, -1, -12.4722, 5.7973, 22.3458, 13.2154, 85.8557, -119.456
2.36799, -1, -12.6524, 5.7053, 22.3821, 13.2178, 85.7592, -119.7
2.37591, -1, -12.833, 5.61337, 22.4185, 13.2203, 85.6631, -119.943
2.38421, -1, -13.014, 5.52151, 22.4548, 13.2227, 85.5673, -120.187
2.39214, -1, -13.1952, 5.42951, 22.491, 13.2251, 85.4712, -120.431
2.40265, -1, -13.3764, 5.33752, 22.5273, 13.2276, 85.3752, -120.674
2.40813, -1, -13.5572, 5.24559, 22.5636, 13.2301, 85.2796, -120.918
2.41616, -1, -13.7376, 5.15372, 22.5997, 13.2326, 85.1837, -121.161
2.42509, -1, -13.9176, 5.06188, 22.6359, 13.2352, 85.0879, -121.404
2.43243, -1, -14.0073, 5.01598, 22.6721, 13.2378, 84.9925, -121.647
2.44014, -1, -14.1861, 4.92424, 22.6901, 13.2391, 84.9445, -121.89
2.449, -1, -14.3644, 4.83252, 22.7262, 13.2417, 84.8489, -122.132
2.45559, -1, -14.5423, 4.74086, 22.7624, 13.2442, 84.7534, -122.253
2.46365, -1, -14.72, 4.64926, 22.7986, 13.2467, 84.6577, -122.496
2.47164, -1, -14.8976, 4.55775, 22.8346, 13.2493, 84.562, -122.738
2.47962, -1, -15.0753, 4.4663, 22.8708, 13.2517, 84.4664, -122.981
2.48758, -1, -15.2533, 4.37506, 22.9069, 13.2542, 84.3707, -123.223
2.49564, -1, -15.4317, 4.28377, 22.9429, 13.2566, 84.275, -123.464
2.50368, -1, -15.6106, 4.19245, 22.979, 13.2589, 84.1795, -123.706
2.51161, -1, -15.7897, 4.10124, 23.015, 13.2612, 84.0839, -123.948
2.51963, -1, -15.969, 4.01004, 23.0509, 13.2635, 83.9885, -124.19
2.52759, -1, -16.1486, 3.91873, 23.0869, 13.2656, 83.8931, -124.431
2.53561, -1, -16.3284, 3.82746, 23.1229, 13.2677, 83.7976, -124.672
2.54373, -1, -16.5078, 3.73623, 23.1587, 13.2699, 83.7022, -124.914
2.55159, -1, -16.6868, 3.6451, 23.1945, 13.2722, 83.6068, -125.155
2.55959, -1, -16.8652, 3.554, 23.2304, 13.2744, 83.5115, -125.396
2.56773, -1, -17.0428, 3.46294, 23.2662, 13.2767, 83.416, -125.637
2.57559, -1, -17.2196, 3.37196, 23.3021, 13.2789, 83.3208, -125.877
2.58462, -1, -17.3962, 3.28108, 23.3379, 13.2811, 83.2258, -126.118
2.59165, -1, -17.5724, 3.19024, 23.3736, 13.2832, 83.1306, -126.359
2.59959, -1, -17.7485, 3.09959, 23.4095, 13.2854, 83.0359, -126.599
2.60758, -1, -17.9245, 3.00899, 23.4454, 13.2875, 82.9412, -126.839
2.61567, -1, -18.1008, 2.91853, 23.4811, 13.2897, 82.8462, -127.079
2.62366, -1, -18.2773, 2.82819, 23.5168, 13.2918, 82.7515, -127.32
2.63166, -1, -18.4542, 2.73775, 23.5526, 13.2938, 82.6569, -127.559
2.63965, -1, -18.6317, 2.64735, 23.5882, 13.2958, 82.5622, -127.799
2.64762, -1, -18.8094, 2.55702, 23.6239, 13.2979, 82.4676, -128.038
2.65559, -1, -18.9875, 2.46653, 23.6596, 13.2999, 82.3733, -128.278
2.66371, -1, -19.1657, 2.37604, 23.6951, 13.3019, 82.2788, -128.517
2.67159, -1, -19.3439, 2.28566, 23.7307, 13.3039, 82.1845, -128.756
2.67964, -1, -19.5215, 2.19526, 23.7663, 13.306, 82.0906, -128.996
2.68759, -1, -19.6986, 2.10485, 23.8018, 13.3082, 81.9963, -129.235
2.69558, -1, -19.8752, 2.01458, 23.8371, 13.3104, 81.902, -129.474
2.70374, -1, -20.0509, 1.92431, 23.8728, 13.3125, 81.8082, -129.713
2.7116, -1, -20.2261, 1.83409, 23.9083, 13.3148, 81.7139, -129.951
2.71958, -1, -20.401, 1.74398, 23.9436, 13.317, 81.6199, -130.189
2.72765, -1, -20.5756, 1.65396, 23.9792, 13.3192, 81.5262, -130.428
2.73558, -1, -20.7501, 1.56397, 24.0147, 13.3214, 81.4321, -130.666
2.74365, -1, -20.9247, 1.47412, 24.0501, 13.3236, 81.3383, -130.904
2.75165, -1, -21.0997, 1.38442, 24.0856, 13.3257, 81.2447, -131.142
2.75958, -1, -21.275, 1.29464, 24.1211, 13.3279, 81.1509, -131.38
2.76769, -1, -21.4507, 1.20493, 24.1564, 13.33, 81.0569, -131.618
2.77567, -1, -21.6268, 1.11528, 24.1918, 13.3323, 80.9632, -131.855
2.78403, -1, -21.803, 1.02561, 24.2272, 13.3344, 80.8693, -132.093
2.79168, -1, -21.9793, 0.935965, 24.2626, 13.3366, 80.7755, -132.33
2.79969, -1, -22.1559, 0.846404, 24.2979, 13.3388, 80.682, -132.567
2.80815, -1, -22.3323, 0.756842, 24.3333, 13.3409, 80.5882, -132.804
2.81523, -1, -22.4204, 0.712102, 24.3509, 13.342, 80.4947, -133.041
2.82371, -1, -22.684, 0.577868, 24.4037, 13.3456, 80.4011, -133.278
2.83239, -1, -22.859, 0.48844, 24.439, 13.348, 80.3075, -133.515
2.83964, -1, -23.033, 0.399038, 24.4742, 13.3504, 80.214, -133.752
2.84766, -1, -23.2067, 0.309701, 24.5093, 13.3529, 80.1204, -133.989
2.85657, -1, -23.3799, 0.220393, 24.5445, 13.3553, 80.027, -134.225
2.86388, -1, -23.5531, 0.131166, 24.5798, 13.3577, 79.9335, -134.461
2.87187, -1, -23.7263, 0.042001, 24.6149, 13.3601, 79.8402, -134.697
2.88076, -1, -23.8997, -0.0470513, 24.6501, 13.3625, 79.7473, -134.934
2.88801, -1, -24.0732, -0.135985, 24.6852, 13.3649, 79.654, -135.17
2.89458, -1, -24.1601, -0.180496, 24.7027, 13.3662, 79.6075, -135.288
2.90498, -1, -24.4212, -0.313956, 24.7555, 13.3699, 79.468, -135.641
2.91218, -1, -24.5957, -0.402786, 24.7906, 13.3723, 79.3749, -135.876
2.92015, -1, -24.7704, -0.491681, 24.8256, 13.3746, 79.2818, -136.112
2.92897, -1, -24.9454, -0.580559, 24.8607, 13.377, 79.1889, -136.348
2.93629, -1, -25.1205, -0.669396, 24.8958, 13.3794, 79.0958, -136.583
2.94421, -1, -25.2079, -0.713804, 24.9133, 13.3818, 79.0029, -136.818
2.9516, -1, -25.3824, -0.802543, 24.9482, 13.383, 78.9566, -136.935
2.9596, -1, -25.5565, -0.891349, 24.9833, 13.3855, 78.8641, -137.17
2.96763, -1, -25.7301, -0.980062, 25.0182, 13.388, 78.7712, -137.405
2.97558, -1, -25.903, -1.06872, 25.053, 13.3904, 78.6786, -137.64
2.98362, -1, -26.0755, -1.15743, 25.0881, 13.3928, 78.5864, -137.874
2.99162, -1, -26.2476, -1.24606, 25.123, 13.3953, 78.4937, -138.109
2.99958, -1, -26.4193, -1.33456, 25.1578, 13.3977, 78.4011, -138.343
3.00765, -1, -26.5912, -1.42301, 25.1928, 13.3999, 78.3088, -138.578
3.01559, -1, -26.7632, -1.51137, 25.2277, 13.4022, 78.2161, -138.812
3.02358, -1, -26.9355, -1.59956, 25.2625, 13.4044, 78.1237, -139.046
3.03165, -1, -27.108, -1.68776, 25.2974, 13.4067, 78.0316, -139.28
3.0396, -1, -27.2805, -1.77603, 25.3323, 13.4089, 77.9394, -139.514
3.04759, -1, -27.4534, -1.86408, 25.367, 13.4111, 77.8474, -139.748
3.05567, -1, -27.6265, -1.95217, 25.4018, 13.4132, 77.7555, -139.981
3.06358, -1, -27.7998, -2.04038, 25.4367, 13.4153, 77.6634, -140.214
3.07158, -1, -27.973, -2.12839, 25.4715, 13.4173, 77.5714, -140.448
3.08059, -1, -28.1463, -2.21641, 25.5062, 13.4193, 77.4794, -140.681
3.08771, -1, -28.3194, -2.30445, 25.541, 13.4214, 77.3873, -140.914
3.09559, -1, -28.4922, -2.39253, 25.5758, 13.4235, 77.2952, -141.147
3.10365, -1, -28.6646, -2.48049, 25.6104, 13.4256, 77.2031, -141.38
3.11158, -1, -28.8364, -2.56851, 25.6451, 13.4277, 77.1112, -141.613
3.11959, -1, -29.0074, -2.65651, 25.6798, 13.4299, 77.0192, -141.846
3.12758, -1, -29.1781, -2.7444, 25.7143, 13.4321, 76.9273, -142.078
3.13565, -1, -29.3486, -2.8322, 25.749, 13.4342, 76.8356, -142.31
3.14358, -1, -29.5193, -2.91992, 25.7837, 13.4363, 76.7436, -142.543
3.15164, -1, -29.6902, -3.0075, 25.8182, 13.4382, 76.6517, -142.775
3.15964, -1, -29.8612, -3.09503, 25.8528, 13.4403, 76.5602, -143.008
3.16757, -1, -30.0322, -3.18253, 25.8874, 13.4425, 76.4682, -143.24
3.17573, -1, -30.2031, -3.27007, 25.9219, 13.4445, 76.3765, -143.472
3.18359, -1, -30.3743, -3.35751, 25.9565, 13.4466, 76.2851, -143.704
3.19158, -1, -30.5458, -3.44497, 25.9911, 13.4486, 76.1934, -143.936
3.20076, -1, -30.7176, -3.53251, 26.0255, 13.4506, 76.102, -144.167
3.20762, -1, -30.8894, -3.61982, 26.06, 13.4527, 76.0107, -144.398
3.21566, -1, -31.0613, -3.70723, 26.0946, 13.4547, 75.9193, -144.63
3.22362, -1, -31.2329, -3.79456, 26.129, 13.4568, 75.8279, -144.861
3.23158, -1, -31.4042, -3.88188, 26.1633, 13.4589, 75.7367, -145.093
3.23964, -1, -31.5751, -3.96918, 26.1978, 13.461, 75.6454, -145.324
3.24763, -1, -31.7456, -4.05641, 26.2322, 13.4632, 75.5541, -145.555
3.25558, -1, -31.9156, -4.14368, 26.2666, 13.4654, 75.463, -145.786
3.26364, -1, -32.0853, -4.23087, 26.301, 13.4676, 75.372, -146.017
3.2718, -1, -32.2547, -4.31797, 26.3354, 13.4698, 75.2808, -146.247
3.27966, -1, -32.4242, -4.40504, 26.3696, 13.4719, 75.1898, -146.478
3.28781, -1, -32.5939, -4.49201, 26.4039, 13.474, 75.0992, -146.708
3.29596, -1, -32.7635, -4.57891, 26.4384, 13.4762, 75.0081, -146.939
3.30368, -1, -32.9331, -4.66583, 26.4726, 13.4784, 74.9173, -147.169
3.31175, -1, -33.1029, -4.75276, 26.5067, 13.4806, 74.8268, -147.4
3.32015, -1, -33.2726, -4.8396, 26.5411, 13.4828, 74.736, -147.63
3.32764, -1, -33.4426, -4.92641, 26.5754, 13.485, 74.6454, -147.859
3.33568, -1, -33.6129, -5.01336, 26.6095, 13.4872, 74.5548, -148.089
3.34578, -1, -33.7833, -5.10012, 26.6438, 13.4894, 74.4643, -148.319
3.35258, -1, -33.9535, -5.18683, 26.678, 13.4916, 74.3738, -148.549
3.35972, -1, -34.1237, -5.27356, 26.7121, 13.4939, 74.2833, -148.778
3.36859, -1, -34.2938, -5.36026, 26.7463, 13.4961, 74.1928, -149.008
3.37591, -1, -34.4638, -5.44691, 26.7805, 13.4985, 74.1021, -149.237
3.38392, -1, -34.6334, -5.5336, 26.8146, 13.5008, 74.0115, -149.467
3.39274, -1, -34.8023, -5.62025, 26.8487, 13.5032, 73.9211, -149.696
3.4004, -1, -34.9709, -5.70681, 26.8828, 13.5057, 73.8305, -149.925
3.40855, -1, -35.1392, -5.79332, 26.9169, 13.5081, 73.7401, -150.154
3.41686, -1, -35.3074, -5.87979, 26.9509, 13.5105, 73.65, -150.383
3.42264, -1, -35.3916, -5.92295, 26.968, 13.5117, 73.6047, -150.497
3.43214, -1, -35.6444, -6.05221, 27.0191, 13.5152, 73.4691, -150.84
3.44103, -1, -35.7287, -6.13845, 27.053, 13.5177, 73.379, -151.069
3.44841, -1, -35.8972, -6.18153, 27.07, 13.5188, 73.2884, -151.297
3.45559, -1, -36.0657, -6.26764, 27.1041, 13.5212, 73.2432, -151.412
3.46509, -1, -36.2342, -6.35372, 27.138, 13.5237, 73.1077, -151.754
3.47156, -1, -36.4029, -6.43991, 27.1719, 13.5261, 73.0626, -151.869
3.47956, -1, -36.5718, -6.52613, 27.2059, 13.5284, 72.972, -152.097
3.4877, -1, -36.7407, -6.6123, 27.2398, 13.5308, 72.8819, -152.325
3.49557, -1, -36.9097, -6.69848, 27.2737, 13.533, 72.7918, -152.553
3.50357, -1, -37.0787, -6.78464, 27.3076, 13.5353, 72.7017, -152.781
3.51161, -1, -37.2475, -6.8708, 27.3415, 13.5376, 72.6118, -153.009
3.51957, -1, -37.416, -6.95686, 27.3753, 13.5398, 72.522, -153.237
3.52773, -1, -37.5841, -7.04291, 27.4093, 13.5422, 72.4321, -153.464
3.53561, -1, -37.7519, -7.12894, 27.4432, 13.5444, 72.3422, -153.692
3.5436, -1, -37.9195, -7.21495, 27.477, 13.5466, 72.2524, -153.919
3.55158, -1, -38.0869, -7.30084, 27.5108, 13.5488, 72.1627, -154.147
3.55856, -1, -38.2543, -7.38669, 27.5447, 13.551, 72.0729, -154.374
3.5676, -1, -38.4217, -7.47242, 27.5785, 13.5531, 71.9832, -154.601
3.57556, -1, -38.5889, -7.55812, 27.6123, 13.5552, 71.8938, -154.829
3.58364, -1, -38.7562, -7.64383, 27.6463, 13.5574, 71.804, -155.056
3.59266, -1, -38.9235, -7.72954, 27.68, 13.5594, 71.7146, -155.283
3.59957, -1, -39.0909, -7.81515, 27.7137, 13.5615, 71.6255, -155.51
3.60767, -1, -39.2584, -7.90081, 27.7476, 13.5635, 71.5359, -155.736
3.61556, -1, -39.4259, -7.98648, 27.7814, 13.5655, 71.4466, -155.963
3.62361, -1, -39.5935, -8.07203, 27.815, 13.5675, 71.3572, -156.19
3.63163, -1, -39.7612, -8.15755, 27.8487, 13.5694, 71.2679, -156.416
3.63956, -1, -39.9288, -8.24303, 27.8825, 13.5714, 71.1786, -156.643
3.64761, -1, -40.0963, -8.32847, 27.9162, 13.5733, 71.0891, -156.869
3.65567, -1, -40.2638, -8.41384, 27.9498, 13.5753, 71.0001, -157.095
3.66358, -1, -40.4311, -8.49923, 27.9836, 13.5772, 70.9106, -157.322
3.67157, -1, -40.5982, -8.58459, 28.0172, 13.5792, 70.8214, -157.548
3.67962, -1, -40.765, -8.66996, 28.0508, 13.5812, 70.7324, -157.774
3.68761, -1, -40.9316, -8.75528, 28.0846, 13.5833, 70.6432, -158
3.6956, -1, -41.0979, -8.84061, 28.1183, 13.5853, 70.554, -158.226
3.70364, -1, -41.2641, -8.92583, 28.1518, 13.5873, 70.4651, -158.452
3.71158, -1, -41.4303, -9.01097, 28.1855, 13.5893, 70.3758, -158.677
3.71959, -1, -41.5966, -9.09616, 28.2192, 13.5913, 70.2865, -158.902
3.72767, -1, -41.7629, -9.18128, 28.2528, 13.5933, 70.1975, -159.128
3.73556, -1, -41.9293, -9.26633, 28.2864, 13.5953, 70.1084, -159.353
3.74379, -1, -42.0957, -9.35136, 28.3201, 13.5974, 70.0195, -159.579
3.75156, -1, -42.2619, -9.43648, 28.3537, 13.5994, 69.9305, -159.804
3.75956, -1, -42.4282, -9.5215, 28.3872, 13.6014, 69.8417, -160.029
3.7678, -1, -42.5945, -9.60646, 28.4208, 13.6034, 69.7526, -160.254
3.77561, -1, -42.7609, -9.69142, 28.4543, 13.6054, 69.6637, -160.48
3.78366, -1, -42.9274, -9.77639, 28.4877, 13.6075, 69.5751, -160.705
3.79174, -1, -43.0938, -9.86133, 28.5212, 13.6095, 69.4862, -160.93
3.79997, -1, -43.2601, -9.94627, 28.5548, 13.6116, 69.3975, -161.155
3.8077, -1, -43.4262, -10.0312, 28.5883, 13.6136, 69.3089, -161.379
3.81573, -1, -43.5921, -10.1162, 28.6218, 13.6158, 69.2202, -161.604
3.82422, -1, -43.758, -10.2011, 28.6554, 13.6179, 69.1317, -161.829
3.83157, -1, -43.9238, -10.2859, 28.6887, 13.62, 69.0433, -162.053
3.83966, -1, -44.0894, -10.3707, 28.7221, 13.6221, 68.9548, -162.278
3.84818, -1, -44.2547, -10.4553, 28.7557, 13.6243, 68.8661, -162.502
3.8557, -1, -44.4199, -10.5399, 28.7892, 13.6265, 68.7775, -162.726
3.86381, -1, -44.5851, -10.6244, 28.8225, 13.6288, 68.6891, -162.951
3.87244, -1, -44.7502, -10.709, 28.856, 13.6309, 68.6003, -163.175
3.87989, -1, -44.9155, -10.7934, 28.8895, 13.6332, 68.5118, -163.399
3.88805, -1, -45.0808, -10.8779, 28.9229, 13.6354, 68.4236, -163.623
3.89602, -1, -45.2462, -10.9624, 28.9562, 13.6375, 68.335, -163.847
3.9041, -1, -45.4115, -11.0469, 28.9897, 13.6398, 68.2466, -164.071
3.91218, -1, -45.5767, -11.1313, 29.0229, 13.642, 68.1584, -164.295
3.92022, -1, -45.7421, -11.2157, 29.0561, 13.6444, 68.07, -164.518
3.92867, -1, -45.907, -11.2999, 29.0896, 13.6466, 67.9817, -164.742
3.93619, -1, -46.07, -11.3831, 29.123, 13.6489, 67.8932, -164.966
3.94419, -1, -46.1503, -11.424, 29.1565, 13.6512, 67.8057, -165.188
3.95246, -1, -46.3833, -11.5414, 29.1902, 13.6536, 67.719, -165.407
3.96021, -1, -46.4573, -11.5783, 29.2069, 13.6548, 67.6769, -165.618
3.96762, -1, -46.5983, -11.6481, 29.2391, 13.6571, 67.5954, -165.719
3.97645, -1, -46.7278, -11.7114, 29.2689, 13.6593, 67.5209, -165.996
3.98364, -1, -46.8425, -11.7674, 29.2952, 13.6614, 67.454, -166.077
3.99158, -1, -46.941, -11.8165, 29.3172, 13.663, 67.3984, -166.218
3.99956, -1, -47.0233, -11.8593, 29.3337, 13.6643, 67.3537, -166.331
4.00764, -1, -47.0903, -11.8961, 29.3449, 13.665, 67.3203, -166.415
4.01555, -1, -47.1425, -11.9254, 29.352, 13.6655, 67.2971, -166.473
4.02357, -1, -47.1812, -11.9474, 29.3559, 13.6657, 67.2822, -166.511
4.03158, -1, -47.2086, -11.9628, 29.3577, 13.6658, 67.2736, -166.533
4.03956, -1, -47.2266, -11.9727, 29.3585, 13.6658, 67.2689, -166.545
4.04763, -1, -47.2374, -11.9786, 29.3589, 13.6659, 67.2665, -166.55
4.0556, 2, -47.2429, -11.9814, 29.3591, 13.6659, 67.2654, -166.553
4.06355, 2, -47.2449, -11.9827, 29.3592, 13.666, 67.265, -166.554
4.07155, 2, -47.2449, -11.9832, 29.3593, 13.666, 67.2647, -166.555
4.07963, 2, -47.2446, -11.9834, 29.3593, 13.666, 67.2646, -166.555
4.0886, 2, -47.2446, -11.9835, 29.3594, 13.666, 67.2645, -166.555
4.09555, 2, -47.2449, -11.9836, 29.3594, 13.6661, 67.2645, -166.555
4.10361, 2, -47.2458, -11.9839, 29.3594, 13.6661, 67.2645, -166.555
4.11157, 2, -47.2471, -11.9844, 29.3594, 13.666, 67.2644, -166.555
4.11956, 2, -47.2489, -11.9851, 29.3594, 13.666, 67.2645, -166.555
4.12768, 2, -47.2505, -11.986, 29.3594, 13.666, 67.2645, -166.555
4.13554, 2, -47.2519, -11.9868, 29.3594, 13.666, 67.2645, -166.555
4.14355, 2, -47.2528, -11.9875, 29.3594, 13.666, 67.2645, -166.555
4.15161, 2, -47.2533, -11.9879, 29.3594, 13.666, 67.2645, -166.555
4.15959, 2, -47.2535, -11.9881, 29.3594, 13.666, 67.2645, -166.555
4.16759, 2, -47.2535, -11.9882, 29.3595, 13.6661, 67.2645, -166.555
4.17564, 2, -47.2532, -11.9881, 29.3594, 13.6661, 67.2645, -166.555
4.18355, 2, -47.2527, -11.9881, 29.3595, 13.666, 67.2645, -166.555
4.19156, 2, -47.2523, -11.9881, 29.3595, 13.666, 67.2645, -166.555
4.19962, 2, -47.2519, -11.988, 29.3595, 13.666, 67.2645, -166.555
4.20759, 2, -47.2517, -11.9881, 29.3595, 13.666, 67.2645, -166.555
4.21556, 2, -47.2517, -11.9881, 29.3595, 13.666, 67.2645, -166.555
4.22367, 2, -47.2519, -11.9883, 29.3595, 13.666, 67.2645, -166.555
4.23154, 2, -47.2521, -11.9886, 29.3595, 13.666, 67.2645, -166.555
4.2396, 2, -47.2528, -11.989, 29.3595, 13.666, 67.2645, -166.555
4.24766, 2, -47.2533, -11.9893, 29.3595, 13.666, 67.2645, -166.555
4.25555, 2, -47.2537, -11.9895, 29.3595, 13.666, 67.2645, -166.555
4.26355, 2, -47.2538, -11.9896, 29.3595, 13.666, 67.2646, -166.555
4.27165, 2, -47.2538, -11.9896, 29.3595, 13.666, 67.2645, -166.555
4.27962, 2, -47.2537, -11.9896, 29.3595, 13.666, 67.2645, -166.555
4.28767, 2, -47.2535, -11.9895, 29.3595, 13.666, 67.2645, -166.555
4.29572, 2, -47.253, -11.9895, 29.3595, 13.666, 67.2645, -166.555
4.30365, 2, -47.2526, -11.9894, 29.3595, 13.666, 67.2645, -166.555
4.31165, 2, -47.2524, -11.9894, 29.3595, 13.666, 67.2645, -166.555
4.31973, 2, -47.2521, -11.9894, 29.3595, 13.666, 67.2646, -166.555
4.32773, 2, -47.252, -11.9894, 29.3595, 13.6659, 67.2646, -166.555
4.33556, 2, -47.252, -11.9895, 29.3595, 13.6659, 67.2646, -166.555
4.34365, 2, -47.252, -11.9896, 29.3595, 13.666, 67.2646, -166.555
4.35159, 2, -47.252, -11.9896, 29.3595, 13.6659, 67.2646, -166.555
4.35971, 2, -47.2521, -11.9897, 29.3595, 13.6659, 67.2646, -166.555
4.36807, 2, -47.2521, -11.9897, 29.3595, 13.666, 67.2645, -166.555
4.37577, 2, -47.2521, -11.9897, 29.3595, 13.666, 67.2645, -166.555
4.38392, 2, -47.2521, -11.9896, 29.3595, 13.666, 67.2645, -166.555
4.39196, 2, -47.252, -11.9895, 29.3595, 13.666, 67.2646, -166.555
4.39995, 2, -47.2519, -11.9895, 29.3595, 13.666, 67.2645, -166.555
4.40815, 2, -47.2518, -11.9894, 29.3595, 13.666, 67.2646, -166.555
4.41628, 2, -47.2517, -11.9894, 29.3595, 13.6659, 67.2645, -166.555
4.42408, 2, -47.2515, -11.9894, 29.3595, 13.666, 67.2646, -166.555
4.43214, 2, -47.2513, -11.9894, 29.3595, 13.6659, 67.2646, -166.555
4.44027, 2, -47.2513, -11.9894, 29.3595, 13.6659, 67.2646, -166.555
4.44818, 2, -47.2513, -11.9894, 29.3595, 13.6659, 67.2646, -166.555
4.45554, 2, -47.2512, -11.9895, 29.3595, 13.6659, 67.2646, -166.555
4.46361, 2, -47.2511, -11.9895, 29.3595, 13.666, 67.2646, -166.555
4.47154, 2, -47.2511, -11.9895, 29.3595, 13.666, 67.2646, -166.555
4.47955, 2, -47.2511, -11.9894, 29.3595, 13.666, 67.2646, -166.555
4.48763, 2, -47.251, -11.9894, 29.3595, 13.6659, 67.2646, -166.555
4.49557, 2, -47.251, -11.9893, 29.3595, 13.6658, 67.2646, -166.555
4.50355, 2, -47.2509, -11.9893, 29.3595, 13.6659, 67.2646, -166.555
4.51159, 2, -47.2509, -11.9892, 29.3595, 13.6659, 67.2646, -166.555
4.51955, 2, -47.2507, -11.9892, 29.3595, 13.6659, 67.2646, -166.555
4.5276, 2, -47.2506, -11.9892, 29.3595, 13.6659, 67.2647, -166.555
4.53558, 2, -47.2506, -11.9892, 29.3595, 13.6659, 67.2646, -166.555
4.54353, 2, -47.2505, -11.9892, 29.3595, 13.6659, 67.2646, -166.555
4.55161, 2, -47.2504, -11.9892, 29.3595, 13.6659, 67.2647, -166.555
4.55962, 2, -47.2503, -11.9892, 29.3595, 13.666, 67.2646, -166.555
4.56758, 2, -47.2503, -11.9892, 29.3595, 13.6659, 67.2646, -166.555
4.57553, 2, -47.2502, -11.9892, 29.3595, 13.6659, 67.2646, -166.555
4.58454, 2, -47.2501, -11.9892, 29.3595, 13.6659, 67.2646, -166.555
4.59153, 2, -47.25, -11.9892, 29.3595, 13.6659, 67.2647, -166.555
4.59954, 2, -47.2499, -11.9891, 29.3595, 13.6659, 67.2646, -166.555
4.60765, 2, -47.2497, -11.989, 29.3595, 13.6659, 67.2647, -166.555
4.61553, 2, -47.2497, -11.989, 29.3595, 13.6659, 67.2647, -166.555
4.62353, 2, -47.2496, -11.9889, 29.3595, 13.6659, 67.2647, -166.555
4.63165, 2, -47.2494, -11.9889, 29.3595, 13.6659, 67.2647, -166.555
4.63954, 2, -47.2493, -11.9888, 29.3595, 13.6659, 67.2647, -166.555
4.64759, 2, -47.2492, -11.9888, 29.3595, 13.6659, 67.2647, -166.555
4.65559, 2, -47.2492, -11.9888, 29.3595, 13.6659, 67.2647, -166.555
4.66357, 2, -47.249, -11.9888, 29.3595, 13.6659, 67.2647, -166.555
4.67154, 2, -47.2489, -11.9888, 29.3595, 13.6659, 67.2647, -166.555
4.67961, 2, -47.2488, -11.9888, 29.3595, 13.6659, 67.2647, -166.555
4.68757, 2, -47.2488, -11.9888, 29.3595, 13.6658, 67.2647, -166.555
4.69555, 2, -47.2488, -11.9888, 29.3595, 13.6658, 67.2647, -166.555
4.7036, 2, -47.2487, -11.9888, 29.3595, 13.6658, 67.2647, -166.555
4.71154, 2, -47.2486, -11.9887, 29.3595, 13.6658, 67.2648, -166.555
4.71956, 2, -47.2485, -11.9886, 29.3595, 13.6658, 67.2648, -166.555
4.72765, 2, -47.2484, -11.9886, 29.3595, 13.6658, 67.2647, -166.555
4.73553, 2, -47.2483, -11.9885, 29.3595, 13.6657, 67.2647, -166.555
4.74354, 2, -47.2483, -11.9885, 29.3595, 13.6657, 67.2648, -166.555
4.7516, 2, -47.2482, -11.9885, 29.3595, 13.6657, 67.2648, -166.555
4.75955, 2, -47.2482, -11.9885, 29.3595, 13.6658, 67.2647, -166.555
4.76765, 2, -47.2481, -11.9885, 29.3595, 13.6657, 67.2647, -166.555
4.77563, 2, -47.2481, -11.9885, 29.3595, 13.6657, 67.2647, -166.555
4.7836, 2, -47.2481, -11.9885, 29.3595, 13.6657, 67.2648, -166.555
4.79163, 2, -47.2481, -11.9885, 29.3595, 13.6657, 67.2648, -166.554
4.79972, 2, -47.2481, -11.9885, 29.3595, 13.6657, 67.2648, -166.554
4.80767, 2, -47.248, -11.9884, 29.3595, 13.6657, 67.2648, -166.554
4.81564, 2, -47.248, -11.9883, 29.3595, 13.6657, 67.2648, -166.554
4.8237, 2, -47.2479, -11.9883, 29.3595, 13.6657, 67.2648, -166.554
4.83157, 2, -47.2478, -11.9882, 29.3595, 13.6657, 67.2648, -166.554
4.83957, 2, -47.2477, -11.9882, 29.3595, 13.6657, 67.2648, -166.554
4.84767, 2, -47.2477, -11.9882, 29.3595, 13.6657, 67.2648, -166.554
4.85558, 2, -47.2477, -11.9882, 29.3595, 13.6656, 67.2648, -166.554
4.86369, 2, -47.2476, -11.9882, 29.3595, 13.6656, 67.2648, -166.554
4.87182, 2, -47.2476, -11.9882, 29.3595, 13.6656, 67.2648, -166.554
4.87976, 2, -47.2476, -11.9881, 29.3595, 13.6656, 67.2648, -166.554
4.88829, 2, -47.2475, -11.9881, 29.3595, 13.6656, 67.2648, -166.554
4.89599, 2, -47.2475, -11.9881, 29.3595, 13.6656, 67.2648, -166.554
4.90251, 2, -47.2475, -11.9881, 29.3595, 13.6656, 67.2648, -166.554
4.91261, 2, -47.2474, -11.988, 29.3595, 13.6656, 67.2648, -166.554
4.92015, 2, -47.2474, -11.988, 29.3595, 13.6656, 67.2648, -166.554
4.92809, 2, -47.2473, -11.9879, 29.3595, 13.6655, 67.2649, -166.554
4.93636, 2, -47.2473, -11.9879, 29.3595, 13.6655, 67.2649, -166.554
4.94416, 2, -47.2472, -11.9878, 29.3595, 13.6655, 67.2649, -166.554
4.95213, 2, -47.2471, -11.9878, 29.3595, 13.6655, 67.2649, -166.554
4.96033, 2, -47.2471, -11.9878, 29.3594, 13.6655, 67.2649, -166.554
4.96818, 2, -47.247, -11.9878, 29.3594, 13.6655, 67.2649, -166.554
4.97552, 2, -47.247, -11.9878, 29.3594, 13.6655, 67.2649, -166.554
4.98374, 2, -47.247, -11.9878, 29.3595, 13.6654, 67.2649, -166.554
4.99157, 2, -47.247, -11.9878, 29.3595, 13.6655, 67.265, -166.554
4.99957, 2, -47.2469, -11.9878, 29.3595, 13.6654, 67.265, -166.554
5.00756, 2, -47.2469, -11.9877, 29.3595, 13.6654, 67.265, -166.554
5.01558, 2, -47.2469, -11.9877, 29.3595, 13.6654, 67.2651, -166.554
5.02352, 2, -47.2468, -11.9876, 29.3595, 13.6654, 67.2651, -166.554
5.03153, 2, -47.2468, -11.9876, 29.3595, 13.6654, 67.265, -166.554
5.03958, 2, -47.2467, -11.9876, 29.3594, 13.6654, 67.265, -166.554
5.04756, 2, -47.2466, -11.9875, 29.3595, 13.6654, 67.265, -166.554
5.05569, 2, -47.2465, -11.9875, 29.3595, 13.6654, 67.2651, -166.554
5.06512, 2, -47.2465, -11.9875, 29.3594, 13.6654, 67.2651, -166.554
5.07152, 2, -47.2464, -11.9875, 29.3594, 13.6654, 67.2651, -166.554
5.07952, 2, -47.2464, -11.9874, 29.3595, 13.6654, 67.2651, -166.554
5.08764, 2, -47.2464, -11.9874, 29.3594, 13.6654, 67.2651, -166.554
5.09659, 2, -47.2464, -11.9874, 29.3594, 13.6654, 67.2651, -166.554
5.10351, 2, -47.2464, -11.9874, 29.3594, 13.6653, 67.2651, -166.554
5.11158, 2, -47.2464, -11.9874, 29.3594, 13.6653, 67.2651, -166.554
5.11953, 2, -47.2463, -11.9873, 29.3595, 13.6653, 67.2652, -166.554
5.12756, 2, -47.2463, -11.9873, 29.3595, 13.6653, 67.2652, -166.554
5.13563, 2, -47.2462, -11.9873, 29.3594, 13.6653, 67.2652, -166.554
5.14352, 4, -47.2462, -11.9873, 29.3595, 13.6652, 67.2652, -166.554
5.15152, 4, -47.2461, -11.9872, 29.3594, 13.6652, 67.2652, -166.554
5.15959, 4, -47.2461, -11.9872, 29.3594, 13.6652, 67.2652, -166.554
5.16759, 4, -47.246, -11.9872, 29.3595, 13.6652, 67.2652, -166.554
5.17552, 4, -47.2459, -11.9872, 29.3594, 13.6652, 67.2652, -166.554
5.18359, 4, -47.2459, -11.9871, 29.3594, 13.6652, 67.2653, -166.554
5.19152, 4, -47.2459, -11.9871, 29.3594, 13.6652, 67.2653, -166.554
5.19954, 4, -47.2459, -11.9871, 29.3594, 13.6651, 67.2652, -166.554
5.20762, 4, -47.2458, -11.9871, 29.3594, 13.6651, 67.2652, -166.554
5.21552, 4, -47.2458, -11.9871, 29.3594, 13.6651, 67.2653, -166.554
5.22356, 4, -47.2458, -11.987, 29.3594, 13.6651, 67.2653, -166.554
5.23159, 4, -47.2458, -11.987, 29.3594, 13.6651, 67.2653, -166.554
5.23967, 4, -47.2457, -11.9869, 29.3594, 13.6651, 67.2653, -166.554
5.25479, 4, -47.2456, -11.9869, 29.3595, 13.6651, 67.2653, -166.553
5.25679, 4, -47.2456, -11.9869, 29.3595, 13.6651, 67.2653, -166.553
5.26366, 4, -47.2455, -11.9869, 29.3594, 13.6651, 67.2652, -166.553
5.27276, 4, -47.2455, -11.9869, 29.3594, 13.6651, 67.2653, -166.553
5.28378, 4, -47.2454, -11.9868, 29.3594, 13.665, 67.2653, -166.553
5.28874, 4, -47.2454, -11.9868, 29.3594, 13.665, 67.2653, -166.553
5.29761, 4, -47.2454, -11.9868, 29.3594, 13.665, 67.2653, -166.553
5.30586, 4, -47.2454, -11.9868, 29.3594, 13.665, 67.2653, -166.553
5.31387, 4, -47.2454, -11.9868, 29.3594, 13.665, 67.2653, -166.553
5.32074, 4, -47.2454, -11.9868, 29.3594, 13.665, 67.2653, -166.553
5.33138, 4, -47.2453, -11.9867, 29.3594, 13.665, 67.2653, -166.553
5.33589, 4, -47.2453, -11.9867, 29.3594, 13.665, 67.2653, -166.553
5.34444, 4, -47.2452, -11.9867, 29.3595, 13.665, 67.2653, -166.553
5.35186, 4, -47.2452, -11.9866, 29.3595, 13.665, 67.2652, -166.553
5.36271, 4, -47.2451, -11.9866, 29.3594, 13.665, 67.2653, -166.553
5.37168, 4, -47.245, -11.9866, 29.3594, 13.665, 67.2653, -166.553
5.38008, 4, -47.245, -11.9866, 29.3594, 13.665, 67.2654, -166.553
5.38636, 4, -47.2449, -11.9866, 29.3594, 13.665, 67.2654, -166.553
5.39288, 4, -47.2449, -11.9866, 29.3594, 13.6649, 67.2654, -166.553
5.40055, 4, -47.2451, -11.9866, 29.3595, 13.665, 67.2654, -166.553
5.40907, 4, -47.246, -11.9871, 29.3598, 13.6651, 67.2655, -166.553
5.41646, 4, -47.2483, -11.9888, 29.3617, 13.6668, 67.2661, -166.553
5.42528, 4, -47.2526, -11.9933, 29.3672, 13.6766, 67.2684, -166.552
5.43294, 5, -47.2598, -12.0021, 29.3798, 13.7016, 67.2748, -166.547
5.44084, 5, -47.2714, -12.0173, 29.4045, 13.7507, 67.2884, -166.537
5.45271, 5, -47.3019, -12.0578, 29.4772, 13.9014, 67.3308, -166.503
5.45878, 5, -47.3166, -12.077, 29.5141, 13.9791, 67.3527, -166.486
5.46432, 5, -47.3339, -12.0995, 29.5588, 14.0737, 67.41, -166.438
5.47216, 5, -47.3775, -12.1549, 29.6735, 14.3195, 67.4467, -166.407
5.48047, 5, -47.4338, -12.225, 29.8245, 14.6474, 67.5365, -166.287
5.48764, 5, -47.503, -12.3103, 30.0138, 15.0598, 67.6477, -166.238
5.4972, 5, -47.5845, -12.4107, 30.2416, 15.5525, 67.7795, -166.126
5.5037, 5, -47.6777, -12.525, 30.5038, 16.1145, 67.928, -165.999
5.51171, 5, -47.7807, -12.6516, 30.7963, 16.7312, 68.0891, -165.86
5.52231, 5, -47.9497, -12.8604, 31.2783, 17.7271, 68.3434, -165.642
5.52771, 5, -48.0087, -12.9337, 31.4475, 18.0699, 68.4294, -165.567
5.53764, 5, -48.1901, -13.16, 31.9683, 19.1107, 68.6858, -165.345
5.54365, 5, -48.2509, -13.236, 32.1444, 19.4576, 68.7697, -165.271
5.55165, 5, -48.3713, -13.3861, 32.497, 20.1426, 68.9346, -165.125
5.56296, 5, -48.5411, -13.6016, 33.0184, 21.1309, 69.1749, -164.894
5.5694, 6, -48.6403, -13.7347, 33.3519, 21.7473, 69.3335, -164.717
5.57597, 6, -48.6841, -13.7975, 33.5128, 22.0393, 69.4131, -164.616
5.58364, 7, -48.7573, -13.9161, 33.8203, 22.5879, 69.5748, -164.383
5.59171, 7, -48.8091, -14.0267, 34.1081, 23.0866, 69.7415, -164.095
5.59973, 7, -48.8386, -14.1293, 34.3762, 23.5385, 69.9149, -163.742
5.60761, 8, -48.8466, -14.2228, 34.6262, 23.9512, 70.0974, -163.32
5.61973, 9, -48.825, -14.3456, 34.9769, 24.5177, 70.389, -162.566
5.62364, 9, -48.8102, -14.3829, 35.0887, 24.6975, 70.4913, -162.287
5.63441, 9, -48.7715, -14.4538, 35.3076, 25.2262, 70.8124, -161.389
5.64193, 10, -48.6944, -14.554, 35.6314, 25.5769, 71.0372, -160.759
5.64881, 10, -48.664, -14.5864, 35.7387, 25.753, 71.1521, -160.438
5.65567, 11, -48.5974, -14.6501, 35.9529, 26.1076, 71.3856, -159.793
5.66733, 11, -48.5243, -14.7127, 36.1671, 26.4666, 71.7402, -158.828
5.6717, 12, -48.4471, -14.7749, 36.3801, 26.8311, 71.8592, -158.507
5.68068, 12, -48.3683, -14.8366, 36.5905, 27.2022, 72.0982, -157.864
5.68765, 13, -48.2888, -14.8969, 36.7992, 27.5812, 72.3392, -157.219
5.69567, 13, -48.2091, -14.9552, 37.0062, 27.9683, 72.5827, -156.571
5.70373, 14, -48.1279, -15.0125, 37.2107, 28.3629, 72.8291, -155.918
5.71269, 14, -48.0441, -15.0708, 37.4142, 28.7638, 73.078, -155.261
5.72142, 15, -47.9567, -15.1308, 37.6173, 29.1687, 73.328, -154.605
5.7296, 15, -47.8648, -15.1913, 37.8188, 29.5746, 73.5771, -153.951
5.73748, 16, -47.7676, -15.2507, 38.0187, 29.9791, 73.823, -153.301
5.7438, 16, -47.6638, -15.3098, 38.2173, 30.38, 74.0643, -152.658
5.75287, 17, -47.5531, -15.3706, 38.4131, 30.7769, 74.3, -152.021
5.76163, 17, -47.4365, -15.434, 38.6054, 31.1691, 74.5298, -151.39
5.76981, 18, -47.3148, -15.4984, 38.7948, 31.5567, 74.7535, -150.765
5.77668, 18, -47.1886, -15.5633, 38.9814, 31.941, 74.9718, -150.147
5.78564, 19, -47.0569, -15.6302, 39.1644, 32.3231, 75.1854, -149.535
5.79199, 19, -46.9191, -15.7007, 39.3455, 32.7045, 75.3951, -148.929
5.79983, 20, -46.7758, -15.7736, 39.5254, 33.0853, 75.6009, -148.328
5.81166, 20, -46.5526, -15.8846, 39.7911, 33.6551, 75.902, -147.442
5.81961, 21, -46.3991, -15.9599, 39.9656, 34.034, 76.0975, -146.859
5.82431, 21, -46.321, -15.9982, 40.0523, 34.223, 76.1937, -146.57
5.83185, 22, -46.162, -16.0762, 40.2248, 34.6005, 76.3828, -145.996
5.84346, 22, -45.999, -16.1559, 40.3946, 34.9764, 76.6592, -145.148
5.84781, 23, -45.8308, -16.2373, 40.5613, 35.3502, 76.7494, -144.868
5.85741, 23, -45.6562, -16.3208, 40.7255, 35.7206, 76.9259, -144.311
5.86661, 24, -45.4739, -16.4069, 40.8862, 36.0867, 77.0974, -143.759
5.87389, 24, -45.2837, -16.4952, 41.0424, 36.4461, 77.2624, -143.214
5.8827, 25, -45.0859, -16.5851, 41.1939, 36.7969, 77.4204, -142.674
5.89073, 25, -44.8813, -16.6756, 41.3412, 37.1381, 77.5706, -142.139
5.89615, 26, -44.6701, -16.7667, 41.4839, 37.4696, 77.7134, -141.608
5.90505, 26, -44.4519, -16.8589, 41.6215, 37.792, 77.8504, -141.082
5.91238, 27, -44.2267, -16.9521, 41.7538, 38.1069, 77.9828, -140.559
5.92106, 27, -43.9947, -17.0455, 41.8805, 38.4143, 78.1113, -140.036
5.93102, 28, -43.756, -17.1379, 42.0012, 38.715, 78.2378, -139.513
5.93756, 28, -43.5106, -17.2287, 42.1152, 39.0088, 78.3618, -138.991
5.94455, 28, -43.2579, -17.318, 42.2225, 39.2956, 78.4844, -138.469
5.95305, 29, -42.9987, -17.4055, 42.3227, 39.5751, 78.6049, -137.946
5.96256, 30, -42.7329, -17.4906, 42.4156, 39.8468, 78.723, -137.423
5.96909, 30, -42.5973, -17.532, 42.4593, 40.1101, 78.8389, -136.9
5.97729, 31, -42.1783, -17.6523, 42.5796, 40.3649, 78.9512, -136.379
5.98364, 31, -42.0346, -17.6913, 42.6162, 40.489, 79.0064, -136.118
5.99161, 32, -41.7415, -17.7676, 42.6841, 40.7303, 79.1144, -135.598
6.00477, 32, -41.135, -17.9119, 42.7994, 41.1861, 79.3196, -134.56
6.00773, 33, -41.135, -17.9119, 42.7994, 41.1861, 79.3196, -134.56
6.01568, 33, -40.8215, -17.9799, 42.8465, 41.4015, 79.4179, -134.043
6.02365, 34, -40.501, -18.0454, 42.8863, 41.6086, 79.5131, -133.527
6.03534, 34, -40.0106, -18.1389, 42.9325, 41.9043, 79.6515, -132.755
6.04134, 35, -39.6774, -18.1977, 42.9543, 42.0919, 79.7412, -132.241
6.04972, 35, -39.5086, -18.2258, 42.9627, 42.1831, 79.8283, -131.729
6.05564, 36, -39.1662, -18.2794, 42.974, 42.3595, 79.8713, -131.473
6.06377, 36, -38.8166, -18.3296, 42.9785, 42.5282, 79.9554, -130.963
6.07769, 37, -38.0985, -18.4196, 42.9675, 42.8432, 80.1178, -129.946
6.08227, 37, -37.9153, -18.4398, 42.9605, 42.9172, 80.1574, -129.692
6.09169, 38, -37.5452, -18.4774, 42.9414, 43.0598, 80.2343, -129.187
6.09862, 38, -37.1705, -18.5116, 42.9158, 43.195, 80.3096, -128.683
6.1037, 39, -36.9814, -18.5275, 42.9004, 43.2598, 80.3461, -128.432
6.11165, 39, -36.5998, -18.5565, 42.8646, 43.3839, 80.4177, -127.931
6.11971, 40, -36.2131, -18.5817, 42.8221, 43.5007, 80.4879, -127.432
6.13068, 40, -35.6216, -18.6123, 42.7462, 43.6623, 80.5895, -126.686
6.13869, 41, -35.2201, -18.6278, 42.6873, 43.761, 80.6545, -126.192
6.14463, 41, -35.0172, -18.6342, 42.6555, 43.8075, 80.6861, -125.945
6.15633, 42, -34.6084, -18.6484, 42.5503, 43.937, 80.7791, -125.21
6.15983, 42, -34.1962, -18.6514, 42.512, 43.9766, 80.8086, -124.965
6.17037, 43, -33.5721, -18.656, 42.3881, 44.0844, 80.8962, -124.236
6.17649, 43, -33.362, -18.6559, 42.3438, 44.1168, 80.9242, -123.994
6.18364, 44, -32.9376, -18.6529, 42.2509, 44.1767, 80.9787, -123.512
6.1943, 44, -32.507, -18.6461, 42.1523, 44.2287, 81.0329, -123.033
6.20345, 45, -31.8491, -18.6288, 41.9933, 44.2936, 81.1093, -122.318
6.20771, 45, -31.6273, -18.6212, 41.9373, 44.3117, 81.1344, -122.081
6.2167, 46, -31.1813, -18.6035, 41.8209, 44.3419, 81.1834, -121.608
6.22368, 46, -30.7335, -18.5822, 41.6985, 44.3642, 81.2295, -121.138
6.23355, 47, -30.2829, -18.5572, 41.5703, 44.3789, 81.2745, -120.671
6.23971, 47, -29.8279, -18.5278, 41.4362, 44.3864, 81.3193, -120.205
6.2497, 48, -29.3664, -18.4939, 41.2961, 44.3872, 81.3621, -119.741
6.25577, 48, -28.8985, -18.4558, 41.1499, 44.3791, 81.4038, -119.279
6.26361, 49, -28.4251, -18.4133, 40.9977, 44.3624, 81.4456, -118.819
6.27184, 49, -27.9487, -18.3664, 40.8397, 44.3369, 81.487, -118.36
6.28154, 50, -27.47, -18.3149, 40.6753, 44.3013, 81.5275, -117.902
6.29163, 50, -26.7449, -18.228, 40.4163, 44.231, 81.5897, -117.217
6.29773, 51, -26.4999, -18.1962, 40.3269, 44.2031, 81.611, -116.99
6.30425, 51, -26.0039, -18.1285, 40.1429, 44.139, 81.6533, -116.535
6.31174, 52, -25.5008, -18.0552, 39.9516, 44.0658, 81.6961, -116.081
6.32401, 52, -24.9937, -17.9765, 39.7531, 43.9817, 81.7403, -115.628
6.3277, 53, -24.4845, -17.8923, 39.5484, 43.8874, 81.7852, -115.175
6.33944, 53, -23.7145, -17.7546, 39.2275, 43.7269, 81.8537, -114.496
6.34383, 54, -23.4548, -17.7055, 39.1165, 43.668, 81.878, -114.271
6.35255, 54, -22.9289, -17.6028, 38.8893, 43.5419, 81.928, -113.819
6.35989, 55, -22.3952, -17.4942, 38.6547, 43.4046, 81.9794, -113.366
6.36878, 55, -21.8565, -17.3795, 38.4123, 43.2555, 82.0343, -112.914
6.38151, 56, -21.0443, -17.1962, 38.0373, 43.0107, 82.1186, -112.236
6.38568, 56, -20.7718, -17.1321, 37.9087, 42.9236, 82.1475, -112.01
6.39588, 57, -20.2213, -16.9998, 37.6469, 42.7411, 82.2069, -111.334
6.40099, 57, -19.6614, -16.862, 37.3791, 42.5469, 82.2667, -111.108
6.41001, 58, -19.0931, -16.7179, 37.104, 42.34, 82.3293, -110.658
6.41696, 58, -18.5203, -16.5677, 36.8229, 42.1201, 82.3936, -110.208
6.42477, 59, -17.9452, -16.4121, 36.5344, 41.8873, 82.4607, -109.758
6.43655, 59, -17.3656, -16.2523, 36.0892, 41.5137, 82.5664, -109.084
6.44026, 60, -16.7776, -16.0883, 35.9376, 41.3827, 82.6029, -108.859
6.4526, 60, -15.8778, -15.8315, 35.476, 40.9713, 82.7141, -108.185
6.45758, 61, -15.5753, -15.7431, 35.3196, 40.8278, 82.7518, -107.961
6.46557, 61, -14.9685, -15.5631, 35.003, 40.5318, 82.8282, -107.513
6.47232, 62, -14.6641, -15.4717, 34.8428, 40.2234, 82.9067, -107.064
6.48032, 62, -14.0505, -15.2858, 34.5183, 40.0642, 82.9873, -106.615
6.48826, 63, -13.4269, -15.0942, 34.1893, 39.7361, 83.0285, -106.391
6.49898, 63, -12.4743, -14.7941, 33.6853, 39.218, 83.1568, -105.716
6.50363, 64, -12.1539, -14.6912, 33.5144, 39.0383, 83.2015, -105.491
6.51341, 64, -11.1862, -14.3728, 32.9912, 38.477, 83.3418, -104.813
6.51963, 65, -10.8595, -14.2632, 32.8134, 38.2819, 83.3912, -104.586
6.53164, 66, -9.86204, -13.924, 32.2703, 37.6703, 83.5483, -103.902
6.53567, 66, -9.52442, -13.8076, 32.0866, 37.457, 83.6037, -103.673
6.54604, 66, -8.50104, -13.4473, 31.5279, 36.7901, 83.7796, -102.983
6.55374, 67, -7.81173, -13.1982, 31.1476, 36.3228, 83.9046, -102.521
6.55959, 67, -7.46381, -13.0711, 30.9555, 36.0828, 83.9699, -102.289
6.56771, 68, -6.76092, -12.8115, 30.5674, 35.5908, 84.1053, -101.824
6.57623, 68, -6.05059, -12.5455, 30.1762, 35.0847, 84.247, -101.356
6.5837, 69, -5.33553, -12.2745, 29.7814, 34.5668, 84.3946, -100.888
6.59573, 70, -4.25424, -11.8564, 29.1848, 33.7709, 84.6247, -100.181
6.59962, 70, -3.89053, -11.714, 28.9861, 33.5014, 84.7035, -99.9451
6.60809, 70, -3.15791, -11.423, 28.5891, 32.9544, 84.864, -99.4721
6.6176, 71, -2.05003, -10.9718, 27.9944, 32.1131, 85.1143, -98.7616
6.62829, 71, -1.30499, -10.6635, 27.5962, 31.5358, 85.2908, -98.2872
6.63567, 72, -0.554614, -10.3504, 27.196, 30.9425, 85.4767, -97.8117
6.64066, 72, -0.177853, -10.1923, 26.9953, 30.6397, 85.5732, -97.5738
6.64987, 73, 0.578189, -9.70793, 26.3913, 29.7137, 85.8756, -96.8589
6.65659, 73, 1.337, -9.54312, 26.1899, 29.3998, 85.9802, -96.6207
6.66701, 74, 2.48316, -9.03981, 25.5882, 28.4468, 86.3048, -95.9044
6.67162, 74, 2.86721, -8.86933, 25.3894, 28.1257, 86.4162, -95.665
6.68368, 75, 4.02324, -8.34804, 24.8001, 27.1529, 86.7593, -94.9431
6.6886, 75, 4.40988, -8.17088, 24.6055, 26.8265, 86.8765, -94.7014
6.69826, 76, 5.57366, -7.63074, 24.0276, 25.8436, 87.2377, -93.9721
6.70361, 76, 5.96302, -7.44783, 23.8368, 25.5137, 87.3613, -93.7273
6.7212, 77, 7.52426, -6.69911, 23.0827, 24.1916, 87.8752, -92.7411
6.72444, 77, 7.91612, -6.50614, 22.8958, 23.8595, 88.0095, -92.493
6.73528, 78, 9.09529, -5.91028, 22.3391, 22.8559, 88.4287, -91.7441
6.74321, 78, 9.09529, -5.91028, 22.3391, 22.8559, 88.5751, -91.4923
6.74459, 78, 9.88449, -5.50157, 21.972, 22.1786, 88.7249, -91.2394
6.75248, 79, 10.6761, -5.08562, 21.6075, 21.494, 89.0352, -90.7297
6.75959, 79, 11.468, -4.66104, 21.2451, 20.8053, 89.3593, -90.2144
6.76747, 80, 12.2572, -4.22544, 20.8871, 20.114, 89.6945, -89.6932
6.77566, 80, 13.0403, -3.77934, 20.5336, 19.4267, 90.0401, -89.1651
6.7835, 81, 13.8173, -3.32661, 20.1863, 18.7496, 90.3935, -88.6318
6.79175, 82, 14.5875, -2.86801, 19.8468, 18.0868, 90.7531, -88.0938
6.79962, 82, 15.3498, -2.40134, 19.5182, 17.44, 91.1163, -87.5538
6.80756, 82, 16.1018, -1.92684, 19.2, 16.8116, 91.4828, -87.0112
6.81559, 83, 16.8407, -1.44649, 18.8923, 16.2033, 91.8525, -86.4672
6.82363, 83, 17.566, -0.961355, 18.594, 15.6149, 92.2266, -85.923
6.83202, 84, 18.2762, -0.47258, 18.3049, 15.0463, 92.6057, -85.3807
6.83947, 84, 18.9694, 0.0193755, 18.0237, 14.498, 92.9914, -84.8394
6.84831, 85, 19.6442, 0.516288, 17.7482, 13.9696, 93.3846, -84.3006
6.85551, 85, 20.3003, 1.01811, 17.4792, 13.4611, 93.7856, -83.7648
6.86447, 86, 20.9385, 1.52407, 17.2161, 12.9726, 94.1926, -83.2322
6.87162, 86, 21.5617, 2.03537, 16.9599, 12.5034, 94.6053, -82.7006
6.88056, 86, 22.1717, 2.55479, 16.7101, 12.0538, 95.0241, -82.168
6.88769, 87, 22.7704, 3.08446, 16.4646, 11.6225, 95.45, -81.6323
6.89661, 87, 23.3591, 3.62253, 16.2228, 11.2086, 95.8833, -81.0923
6.90388, 88, 23.9375, 4.1657, 15.9832, 10.8099, 96.3239, -80.5447
6.91271, 88, 24.5051, 4.71551, 15.7466, 10.427, 96.7709, -79.9877
6.91996, 89, 25.0619, 5.2766, 15.5161, 10.0596, 97.2236, -79.4205
6.92888, 89, 25.6107, 5.85013, 15.2907, 9.70952, 97.6805, -78.842
6.93622, 90, 26.1558, 6.43503, 15.0703, 9.37559, 98.1408, -78.2508
6.9448, 90, 26.6951, 7.03005, 14.8565, 9.05812, 98.6051, -77.6452
6.95255, 91, 27.224, 7.63496, 14.6489, 8.75796, 99.0752, -77.0255
6.9608, 91, 27.4838, 7.94128, 14.547, 8.61436, 99.5515, -76.3934
6.96835, 92, 28.2482, 8.87402, 14.2464, 8.21163, 100.035, -75.7475
6.97552, 92, 28.4994, 9.18927, 14.1478, 8.08716, 100.28, -75.4205
6.98431, 93, 28.9969, 9.82647, 13.9529, 7.85312, 101.021, -74.4259
6.99153, 93, 29.4842, 10.4719, 13.7621, 7.64041, 101.27, -74.0904
6.99942, 94, 29.9583, 11.125, 13.5777, 7.4501, 101.769, -73.4133
7.00747, 94, 30.4176, 11.7839, 13.4002, 7.28336, 102.266, -72.73
7.01551, 95, 30.8627, 12.4466, 13.2294, 7.14051, 102.761, -72.0428
7.02346, 95, 31.2945, 13.1122, 13.0662, 7.02159, 103.253, -71.3495
7.03142, 96, 31.7132, 13.7802, 12.9107, 6.92619, 103.74, -70.6504
7.0409, 96, 32.3123, 14.784, 12.6894, 6.82789, 104.466, -69.5931
7.04745, 97, 32.5036, 15.1186, 12.6186, 6.80672, 104.706, -69.2375
7.05546, 97, 32.8737, 15.7858, 12.4821, 6.77981, 105.181, -68.5223
7.065, 98, 33.3998, 16.7797, 12.2927, 6.77937, 105.881, -67.4467
7.07311, 98, 33.732, 17.4351, 12.1781, 6.80584, 106.334, -66.7287
7.07944, 99, 33.8925, 17.7597, 12.1246, 6.82625, 106.556, -66.3699
7.08909, 99, 34.2027, 18.4026, 12.0253, 6.88209, 106.989, -65.3024
7.09542, 100, 34.5006, 19.0359, 11.9364, 6.95711, 107.406, -64.9493
7.10445, 100, 34.7871, 19.6594, 11.8573, 7.04885, 107.807, -64.2472
7.11153, 100, 35.061, 20.2716, 11.7873, 7.15707, 108.194, -63.5539
7.12055, 101, 35.3211, 20.8706, 11.7249, 7.27938, 108.565, -62.8702
7.12747, 101, 35.568, 21.4558, 11.67, 7.41409, 108.922, -62.1953
7.13553, 102, 35.8017, 22.0262, 11.6225, 7.55866, 109.264, -61.5322
7.14345, 102, 36.0223, 22.5813, 11.582, 7.71104, 109.591, -60.8833
7.15144, 103, 36.2319, 23.1213, 11.5487, 7.86962, 109.902, -60.2475
7.15953, 103, 36.4336, 23.6462, 11.5228, 8.03347, 110.198, -59.6262
7.16746, 103, 36.6296, 24.157, 11.5055, 8.20355, 110.477, -59.0193
7.17546, 104, 36.8205, 24.6545, 11.4963, 8.38054, 110.739, -58.4253
7.1835, 104, 37.0068, 25.1391, 11.4938, 8.56627, 110.983, -57.8406
7.19146, 104, 37.1886, 25.6111, 11.4975, 8.76126, 111.208, -57.2644
7.19953, 104, 37.3623, 26.0696, 11.5066, 8.96491, 111.415, -56.696
7.20746, 104, 37.5256, 26.5148, 11.5195, 9.17687, 111.607, -56.1346
7.21547, 104, 37.6804, 26.9466, 11.5353, 9.39427, 111.785, -55.5819
7.22358, 104, 37.8307, 27.3663, 11.5535, 9.6146, 111.951, -55.0411
7.23146, 104, 37.9794, 27.7726, 11.5733, 9.83524, 112.109, -54.5163
7.23948, 104, 38.126, 28.1648, 11.5935, 10.0531, 112.258, -54.0105
7.24754, 104, 38.2688, 28.5428, 11.6134, 10.2671, 112.399, -53.5247
7.25546, 104, 38.4063, 28.9069, 11.6325, 10.4753, 112.534, -53.062
7.26347, 104, 38.537, 29.2546, 11.6506, 10.6764, 112.66, -52.6228
7.27152, 104, 38.6601, 29.5849, 11.6679, 10.8695, 112.779, -52.2085
7.27952, 104, 38.7753, 29.8963, 11.6839, 11.054, 112.891, -51.819
7.28756, 104, 38.8824, 30.1894, 11.6987, 11.229, 112.994, -51.4541
7.29552, 104, 38.982, 30.4637, 11.7127, 11.3942, 113.09, -51.1148
7.30356, 104, 39.0737, 30.718, 11.7253, 11.5488, 113.179, -50.8008
7.31162, 104, 39.1573, 30.953, 11.7367, 11.6926, 113.26, -50.512
7.31957, 104, 39.2324, 31.1683, 11.7471, 11.8251, 113.334, -50.2483
7.32757, 104, 39.2991, 31.3635, 11.7568, 11.946, 113.401, -50.0101
7.33563, 104, 39.3581, 31.5393, 11.7655, 12.0551, 113.46, -49.797
7.34347, 104, 39.4098, 31.6957, 11.7731, 12.1519, 113.513, -49.6091
7.35152, 104, 39.4551, 31.833, 11.7799, 12.2369, 113.558, -49.446
7.35955, 104, 39.4945, 31.9522, 11.7861, 12.309, 113.596, -49.3072
7.36762, 104, 39.5278, 32.0544, 11.7917, 12.37, 113.628, -49.1918
7.37568, 104, 39.5551, 32.1403, 11.7966, 12.4189, 113.654, -49.0984
7.38379, 104, 39.5775, 32.2114, 11.801, 12.4568, 113.674, -49.0252
7.39174, 104, 39.5955, 32.2694, 11.8049, 12.4859, 113.688, -48.9706
7.3998, 104, 39.6096, 32.3158, 11.8086, 12.5073, 113.699, -48.9315
7.40791, 104, 39.6208, 32.3518, 11.8119, 12.5221, 113.705, -48.9046
7.41605, 104, 39.6291, 32.3786, 11.8149, 12.5322, 113.71, -48.8875
7.42402, 104, 39.6348, 32.3987, 11.8175, 12.5382, 113.712, -48.8776
7.43203, 104, 39.6384, 32.4131, 11.8196, 12.5416, 113.713, -48.8725
7.44001, 104, 39.6404, 32.4227, 11.8211, 12.5433, 113.714, -48.87
7.44824, 105, 39.6414, 32.4286, 11.8223, 12.5442, 113.714, -48.8689
7.45605, 105, 39.6414, 32.4324, 11.8232, 12.5446, 113.714, -48.8684
7.46426, 105, 39.6411, 32.4338, 11.8237, 12.5448, 113.714, -48.8683
7.47145, 105, 39.6402, 32.4361, 11.8245, 12.5449, 113.714, -48.8684
7.47949, 105, 39.6391, 32.4377, 11.8252, 12.545, 113.714, -48.8685
7.48838, 105, 39.6377, 32.439, 11.8257, 12.5451, 113.714, -48.8688
7.49544, 105, 39.6364, 32.4403, 11.8263, 12.5451, 113.714, -48.869
7.50352, 105, 39.6356, 32.4415, 11.8268, 12.5451, 113.714, -48.8692
7.51145, 105, 39.6351, 32.4426, 11.8274, 12.5451, 113.714, -48.8695
7.51947, 105, 39.6347, 32.4438, 11.828, 12.5451, 113.714, -48.8698
7.52749, 105, 39.6345, 32.4448, 11.8285, 12.5451, 113.714, -48.8701
7.53722, 105, 39.6341, 32.4459, 11.8291, 12.5451, 113.714, -48.8703
7.54345, 105, 39.634, 32.4462, 11.8293, 12.5451, 113.714, -48.8704
7.55296, 105, 39.6335, 32.4468, 11.8297, 12.5451, 113.714, -48.8707
7.56117, 105, 39.6333, 32.447, 11.83, 12.5451, 113.714, -48.871
7.56777, 105, 39.6332, 32.4471, 11.8301, 12.5451, 113.714, -48.871
