hehonglu123/Motion-Primitive-Planning/ILC/recorded_data/realrobot/from_NX/iteration_42/run_4.csv
timestamp, cmd_num, J1, J2, J3, J4, J5, J6
0.000453, -1, 39.6292, 32.4471, 11.8316, 12.5437, 113.713, -48.8736
0.004332, -1, 39.6292, 32.4471, 11.8316, 12.5437, 113.713, -48.8735
0.007727, -1, 39.6292, 32.4471, 11.8316, 12.5438, 113.713, -48.8735
0.028454, -1, 39.6292, 32.4471, 11.8316, 12.5437, 113.713, -48.8736
0.031195, -1, 39.6292, 32.4471, 11.8316, 12.5437, 113.713, -48.8736
0.034447, -1, 39.6292, 32.4471, 11.8316, 12.5437, 113.713, -48.8736
0.039663, -1, 39.6292, 32.4471, 11.8316, 12.5437, 113.713, -48.8735
0.047606, -1, 39.6291, 32.4471, 11.8316, 12.5437, 113.713, -48.8735
0.055789, -1, 39.6287, 32.447, 11.8316, 12.5437, 113.713, -48.8735
0.063616, -1, 39.6263, 32.4466, 11.8316, 12.5437, 113.713, -48.8736
0.202972, -1, 38.1622, 31.6977, 12.1239, 12.557, 112.942, -50.8426
0.20435, -1, 38.1622, 31.6977, 12.1239, 12.557, 112.942, -50.8426
0.205681, -1, 38.1622, 31.6977, 12.1239, 12.557, 112.942, -50.8426
0.20766, -1, 38.0722, 31.6508, 12.1435, 12.5582, 112.891, -50.9698
0.20897, -1, 38.0722, 31.6508, 12.1435, 12.5582, 112.891, -50.9698
0.210162, -1, 38.0722, 31.6508, 12.1435, 12.5582, 112.891, -50.9698
0.212835, -1, 37.981, 31.6033, 12.1629, 12.5595, 112.841, -51.0979
0.215755, -1, 37.8886, 31.5554, 12.1824, 12.5607, 112.79, -51.2266
0.217002, -1, 37.8886, 31.5554, 12.1824, 12.5607, 112.79, -51.2266
0.218955, -1, 37.8886, 31.507, 12.2018, 12.5619, 112.739, -51.3556
0.221614, -1, 37.7953, 31.507, 12.2018, 12.5619, 112.739, -51.3556
0.223675, -1, 37.7011, 31.4585, 12.2212, 12.5631, 112.688, -51.485
0.224981, -1, 37.7011, 31.4585, 12.2212, 12.5631, 112.688, -51.485
0.226173, -1, 37.7011, 31.4585, 12.2212, 12.5631, 112.688, -51.485
0.228338, -1, 37.6062, 31.4096, 12.2405, 12.5643, 112.637, -51.6147
0.230924, -1, 37.6062, 31.4096, 12.2405, 12.5643, 112.637, -51.6147
0.232335, -1, 37.5108, 31.3607, 12.2599, 12.5656, 112.585, -51.7445
0.233619, -1, 37.5108, 31.3607, 12.2599, 12.5656, 112.585, -51.7445
0.236349, -1, 37.4151, 31.3118, 12.2793, 12.5668, 112.534, -51.8743
0.237662, -1, 37.4151, 31.3118, 12.2793, 12.5668, 112.534, -51.8743
0.239892, -1, 37.3192, 31.2628, 12.2987, 12.568, 112.483, -52.004
0.241165, -1, 37.3192, 31.2628, 12.2987, 12.568, 112.483, -52.004
0.251779, -1, 37.031, 31.1159, 12.3569, 12.5718, 112.328, -52.3938
0.255695, -1, 36.9348, 31.0671, 12.3763, 12.5732, 112.277, -52.5239
0.263781, -1, 36.7427, 30.9693, 12.415, 12.5757, 112.174, -52.7843
0.27162, -1, 36.551, 30.8715, 12.4539, 12.5783, 112.071, -53.0446
0.279632, -1, 36.3594, 30.7738, 12.4928, 12.5808, 111.968, -53.3049
0.287769, -1, 36.1678, 30.676, 12.5316, 12.5835, 111.865, -53.5652
0.295718, -1, 35.9763, 30.5781, 12.5705, 12.586, 111.762, -53.8258
0.303846, -1, 35.7848, 30.4801, 12.6095, 12.5886, 111.659, -54.0865
0.311967, -1, 35.593, 30.3821, 12.6484, 12.5912, 111.556, -54.3467
0.319897, -1, 35.4009, 30.2838, 12.6872, 12.5937, 111.453, -54.607
0.32806, -1, 35.2085, 30.1855, 12.726, 12.5964, 111.35, -54.8676
0.334597, -1, 35.1123, 30.1363, 12.7454, 12.5977, 111.298, -54.998
0.344125, -1, 34.8238, 29.9887, 12.8038, 12.6015, 111.144, -55.389
0.35224, -1, 34.6315, 29.8902, 12.8426, 12.6041, 111.041, -55.6498
0.360198, -1, 34.4393, 29.7917, 12.8816, 12.6066, 110.938, -55.9106
0.368238, -1, 34.2472, 29.6933, 12.9205, 12.6092, 110.835, -56.1716
0.376272, -1, 34.0552, 29.595, 12.9594, 12.6118, 110.732, -56.4323
0.38422, -1, 33.9593, 29.5458, 12.9789, 12.6131, 110.68, -56.6931
0.391594, -1, 33.7676, 29.4475, 13.0178, 12.6158, 110.577, -56.8234
0.399647, -1, 33.5758, 29.3492, 13.0566, 12.6184, 110.474, -57.0844
0.407582, -1, 33.3836, 29.2508, 13.0956, 12.621, 110.371, -57.3457
0.415652, -1, 33.1911, 29.1523, 13.1346, 12.6236, 110.268, -57.6065
0.423635, -1, 32.9984, 29.0537, 13.1734, 12.6263, 110.165, -57.8675
0.431576, -1, 32.8054, 28.9551, 13.2123, 12.6289, 110.062, -58.1287
0.439694, -1, 32.6121, 28.8565, 13.2512, 12.6316, 109.959, -58.39
0.44759, -1, 32.4186, 28.7578, 13.2901, 12.6343, 109.855, -58.6511
0.455597, -1, 32.2247, 28.6591, 13.329, 12.6369, 109.753, -58.912
0.463651, -1, 32.0306, 28.5603, 13.3679, 12.6396, 109.649, -59.173
0.471568, -1, 31.8368, 28.4615, 13.4068, 12.6423, 109.546, -59.4344
0.479589, -1, 31.6432, 28.3627, 13.4458, 12.645, 109.443, -59.6959
0.48766, -1, 31.4497, 28.264, 13.4848, 12.6479, 109.34, -59.957
0.495593, -1, 31.2567, 28.1655, 13.5237, 12.6506, 109.237, -60.2184
0.503581, -1, 31.0641, 28.067, 13.5628, 12.6534, 109.134, -60.4799
0.513132, -1, 30.8717, 27.9685, 13.6018, 12.6563, 109.031, -60.7414
0.519586, -1, 30.6796, 27.8699, 13.6408, 12.6591, 108.928, -61.0026
0.659747, -1, 27.2999, 26.1409, 14.3229, 12.7044, 107.12, -65.5812
0.660978, -1, 27.2999, 26.1409, 14.3229, 12.7044, 107.12, -65.5812
0.663126, -1, 27.2038, 26.0914, 14.3424, 12.7055, 107.068, -65.7121
0.664344, -1, 27.2038, 26.0914, 14.3424, 12.7055, 107.068, -65.7121
0.665611, -1, 27.2038, 26.0914, 14.3424, 12.7055, 107.068, -65.7121
0.667673, -1, 27.1076, 26.042, 14.3619, 12.7066, 107.017, -65.8429
0.668968, -1, 27.1076, 26.042, 14.3619, 12.7066, 107.017, -65.8429
0.672654, -1, 27.0113, 25.9925, 14.3813, 12.7078, 106.965, -65.9738
0.675373, -1, 27.0113, 25.9925, 14.3813, 12.7078, 106.913, -66.1048
0.676631, -1, 26.915, 25.9431, 14.4007, 12.7089, 106.913, -66.1048
0.678761, -1, 26.915, 25.8937, 14.4202, 12.7101, 106.862, -66.2358
0.681049, -1, 26.8186, 25.8937, 14.4202, 12.7101, 106.862, -66.2358
0.682925, -1, 26.7221, 25.8442, 14.4398, 12.7113, 106.81, -66.3666
0.684363, -1, 26.7221, 25.8442, 14.4398, 12.7113, 106.81, -66.3666
0.685571, -1, 26.7221, 25.8442, 14.4398, 12.7113, 106.81, -66.3666
0.689481, -1, 26.6255, 25.7947, 14.4593, 12.7124, 106.758, -66.4974
0.691592, -1, 26.5288, 25.7453, 14.4787, 12.7135, 106.707, -66.6282
0.692949, -1, 26.5288, 25.7453, 14.4787, 12.7135, 106.707, -66.6282
0.694905, -1, 26.432, 25.6959, 14.4981, 12.7147, 106.655, -66.7591
0.696479, -1, 26.432, 25.6959, 14.4981, 12.7147, 106.655, -66.7591
0.697801, -1, 26.432, 25.6959, 14.4981, 12.7147, 106.655, -66.7591
0.700581, -1, 26.3352, 25.6465, 14.5175, 12.7158, 106.604, -66.89
0.709612, -1, 26.1412, 25.5476, 14.5565, 12.7181, 106.5, -67.1519
0.71179, -1, 26.0442, 25.4982, 14.576, 12.7192, 106.449, -67.2829
0.719656, -1, 25.85, 25.3993, 14.6149, 12.7215, 106.346, -67.5446
0.728394, -1, 25.6558, 25.3006, 14.6539, 12.7238, 106.243, -67.8062
0.735743, -1, 25.4619, 25.2018, 14.6929, 12.726, 106.139, -68.0678
0.743683, -1, 25.2682, 25.1032, 14.7318, 12.7284, 106.036, -68.3296
0.752466, -1, 25.0748, 25.0044, 14.7709, 12.7307, 105.933, -68.5914
0.759771, -1, 24.8816, 24.9056, 14.8099, 12.733, 105.829, -68.8529
0.767581, -1, 24.6887, 24.8068, 14.8488, 12.7354, 105.726, -69.1147
0.77651, -1, 24.4962, 24.7079, 14.8878, 12.7378, 105.623, -69.3766
0.783676, -1, 24.3038, 24.609, 14.9269, 12.7402, 105.52, -69.6383
0.791619, -1, 24.1113, 24.5102, 14.9658, 12.7426, 105.416, -69.8997
0.800569, -1, 23.9185, 24.4114, 15.0048, 12.7449, 105.313, -70.1612
0.807827, -1, 23.7256, 24.3125, 15.0437, 12.7474, 105.209, -70.4228
0.815886, -1, 23.5325, 24.2136, 15.0826, 12.7497, 105.106, -70.6847
0.824929, -1, 23.339, 24.1147, 15.1216, 12.7521, 105.003, -70.9462
0.83192, -1, 23.1453, 24.0158, 15.1604, 12.7545, 104.899, -71.2081
0.840084, -1, 22.9514, 23.9169, 15.1993, 12.7569, 104.796, -71.4698
0.848129, -1, 22.7574, 23.8182, 15.2383, 12.7594, 104.693, -71.7317
0.856096, -1, 22.5636, 23.7194, 15.2773, 12.7619, 104.589, -71.9933
0.86421, -1, 22.37, 23.6208, 15.3163, 12.7643, 104.486, -72.2545
0.873283, -1, 22.1768, 23.5221, 15.3552, 12.7669, 104.382, -72.5158
0.880156, -1, 22.0801, 23.4728, 15.3941, 12.7695, 104.279, -72.7775
0.888199, -1, 21.887, 23.374, 15.4136, 12.7721, 104.176, -73.0391
0.89558, -1, 21.6945, 23.2753, 15.4527, 12.7734, 104.124, -73.1696
0.902638, -1, 21.5023, 23.1765, 15.4915, 12.7761, 104.021, -73.431
0.912606, -1, 21.2139, 23.0284, 15.55, 12.7801, 103.867, -73.8235
0.919631, -1, 21.1177, 22.9791, 15.5695, 12.7814, 103.815, -73.9543
0.927613, -1, 20.9253, 22.8805, 15.6083, 12.784, 103.712, -74.2156
0.935577, -1, 20.7329, 22.7818, 15.6473, 12.7867, 103.609, -74.4767
0.94357, -1, 20.5402, 22.6832, 15.6862, 12.7895, 103.506, -74.738
0.951631, -1, 20.3471, 22.5846, 15.725, 12.7922, 103.403, -74.9994
0.959564, -1, 20.1535, 22.4858, 15.764, 12.7949, 103.3, -75.2606
0.967566, -1, 19.9599, 22.3871, 15.8029, 12.7976, 103.196, -75.5217
0.975617, -1, 19.7662, 22.2885, 15.8416, 12.8004, 103.094, -75.7829
0.983629, -1, 19.5727, 22.1898, 15.8806, 12.803, 102.991, -76.0442
0.991571, -1, 19.3793, 22.0913, 15.9195, 12.8058, 102.887, -76.3054
0.999633, -1, 19.1862, 21.9926, 15.9583, 12.8085, 102.785, -76.5663
1.00757, -1, 18.9934, 21.8939, 15.9972, 12.8113, 102.681, -76.827
1.01558, -1, 18.8009, 21.7952, 16.036, 12.814, 102.578, -77.0881
1.02646, -1, 18.5129, 21.6472, 16.0942, 12.8181, 102.424, -77.4797
1.03157, -1, 18.4169, 21.5979, 16.1137, 12.8195, 102.373, -77.61
1.04057, -1, 18.225, 21.4993, 16.1526, 12.8221, 102.27, -77.8706
1.04764, -1, 18.0331, 21.4009, 16.1913, 12.8247, 102.167, -78.1314
1.05556, -1, 17.8412, 21.3025, 16.2303, 12.8272, 102.064, -78.3924
1.06357, -1, 17.6492, 21.2042, 16.2691, 12.8298, 101.961, -78.6528
1.07157, -1, 17.4569, 21.1059, 16.308, 12.8323, 101.858, -78.9131
1.07957, -1, 17.264, 21.0075, 16.3469, 12.8347, 101.755, -79.1737
1.08764, -1, 17.071, 20.9093, 16.3856, 12.8372, 101.652, -79.4343
1.09556, -1, 16.878, 20.8111, 16.4245, 12.8396, 101.549, -79.6949
1.10357, -1, 16.685, 20.7129, 16.4633, 12.8419, 101.446, -79.9553
1.11164, -1, 16.492, 20.6146, 16.502, 12.8443, 101.344, -80.2158
1.11956, -1, 16.2992, 20.5163, 16.5407, 12.8466, 101.241, -80.4764
1.12757, -1, 16.1069, 20.418, 16.5794, 12.8489, 101.139, -80.737
1.13563, -1, 15.9149, 20.3195, 16.6182, 12.8512, 101.036, -80.9971
1.14357, -1, 15.7232, 20.221, 16.6569, 12.8535, 100.933, -81.2571
1.15172, -1, 15.5318, 20.1226, 16.6955, 12.8559, 100.831, -81.5172
1.15963, -1, 15.3406, 20.0243, 16.7341, 12.8582, 100.728, -81.7774
1.16756, -1, 15.1494, 19.926, 16.773, 12.8605, 100.625, -82.0372
1.17559, -1, 14.9582, 19.8278, 16.8116, 12.8628, 100.523, -82.297
1.18361, -1, 14.7669, 19.7296, 16.8503, 12.8651, 100.421, -82.557
1.19157, -1, 14.5754, 19.6315, 16.889, 12.8673, 100.318, -82.8172
1.19963, -1, 14.3835, 19.5334, 16.9277, 12.8696, 100.215, -83.077
1.2076, -1, 14.1913, 19.4354, 16.9664, 12.8719, 100.113, -83.3364
1.2156, -1, 13.999, 19.3374, 17.0051, 12.8742, 100.01, -83.596
1.22371, -1, 13.8067, 19.2395, 17.0436, 12.8765, 99.9077, -83.8558
1.23165, -1, 13.6143, 19.1417, 17.0823, 12.8788, 99.8051, -84.1153
1.23972, -1, 13.422, 19.0438, 17.121, 12.8812, 99.7025, -84.3746
1.24773, -1, 13.23, 18.9459, 17.1595, 12.8834, 99.6004, -84.6339
1.25566, -1, 13.0384, 18.848, 17.1981, 12.8859, 99.4979, -84.8933
1.26362, -1, 12.8472, 18.75, 17.2368, 12.8882, 99.3954, -85.1526
1.2718, -1, 12.6561, 18.6521, 17.2753, 12.8905, 99.2933, -85.4116
1.27966, -1, 12.4655, 18.5543, 17.3139, 12.893, 99.1909, -85.6705
1.28766, -1, 12.2752, 18.4565, 17.3525, 12.8954, 99.0886, -85.9295
1.29567, -1, 12.085, 18.3588, 17.3909, 12.8979, 98.9867, -86.1885
1.30448, -1, 11.8946, 18.2611, 17.4296, 12.9002, 98.8845, -86.4472
1.31179, -1, 11.7041, 18.1635, 17.4682, 12.9026, 98.7826, -86.7057
1.31995, -1, 11.5134, 18.0659, 17.5067, 12.9051, 98.6808, -86.9644
1.32873, -1, 11.3223, 17.9683, 17.5453, 12.9075, 98.5788, -87.2231
1.33598, -1, 11.1311, 17.8708, 17.5839, 12.9099, 98.4768, -87.4815
1.34411, -1, 10.9396, 17.7733, 17.6223, 12.9124, 98.375, -87.7398
1.35296, -1, 10.7479, 17.6759, 17.6608, 12.9149, 98.2729, -87.9979
1.36015, -1, 10.5564, 17.5783, 17.6992, 12.9174, 98.171, -88.2563
1.36815, -1, 10.3651, 17.4808, 17.7376, 12.92, 98.0692, -88.5147
1.37702, -1, 10.1741, 17.3833, 17.776, 12.9224, 97.9674, -88.7727
1.38416, -1, 10.0787, 17.3345, 17.8144, 12.9251, 97.8657, -89.0308
1.39221, -1, 9.88826, 17.2369, 17.8335, 12.9264, 97.7636, -89.2888
1.40104, -1, 9.69816, 17.1394, 17.8719, 12.929, 97.7127, -89.4179
1.40756, -1, 9.50852, 17.042, 17.9103, 12.9318, 97.6107, -89.6759
1.41562, -1, 9.31915, 16.9446, 17.9486, 12.9345, 97.5089, -89.9334
1.42355, -1, 9.12982, 16.8473, 17.987, 12.9372, 97.407, -90.1909
1.43162, -1, 8.94052, 16.7502, 18.0253, 12.9399, 97.3051, -90.4485
1.43961, -1, 8.75098, 16.653, 18.0637, 12.9425, 97.2035, -90.706
1.44755, -1, 8.56141, 16.5558, 18.1021, 12.9452, 97.1019, -90.9632
1.45562, -1, 8.37169, 16.4588, 18.1405, 12.9479, 97.0004, -91.2204
1.46355, -1, 8.18139, 16.3618, 18.1788, 12.9506, 96.8989, -91.4775
1.47155, -1, 7.99092, 16.2649, 18.2171, 12.9532, 96.7972, -91.7349
1.47969, -1, 7.80041, 16.1681, 18.2554, 12.956, 96.6958, -91.9919
1.4876, -1, 7.60973, 16.0711, 18.2937, 12.9585, 96.5943, -92.2485
1.49555, -1, 7.41938, 15.9742, 18.332, 12.9612, 96.4929, -92.5053
1.50363, -1, 7.2293, 15.8773, 18.3701, 12.9637, 96.3917, -92.7621
1.51155, -1, 7.03939, 15.7802, 18.4084, 12.9663, 96.2903, -93.0188
1.51961, -1, 6.84986, 15.6833, 18.4467, 12.9689, 96.189, -93.2752
1.52855, -1, 6.66092, 15.5865, 18.4847, 12.9714, 96.0883, -93.5316
1.53554, -1, 6.47246, 15.4897, 18.5228, 12.9739, 95.9872, -93.7881
1.54359, -1, 6.28418, 15.3929, 18.561, 12.9764, 95.8861, -94.0445
1.55162, -1, 6.09612, 15.2962, 18.5991, 12.9789, 95.7854, -94.3005
1.55961, -1, 5.90789, 15.1995, 18.6373, 12.9813, 95.6843, -94.5564
1.56755, -1, 5.71952, 15.1028, 18.6755, 12.9836, 95.5834, -94.8123
1.57557, -1, 5.53098, 15.0062, 18.7136, 12.9859, 95.4828, -95.0683
1.58355, -1, 5.34224, 14.9097, 18.7517, 12.9883, 95.3819, -95.3239
1.59161, -1, 5.15308, 14.8133, 18.7899, 12.9906, 95.2812, -95.5793
1.59972, -1, 4.96373, 14.717, 18.8279, 12.9928, 95.1806, -95.8349
1.60754, -1, 4.7743, 14.6205, 18.8659, 12.9951, 95.0797, -96.0905
1.61562, -1, 4.5849, 14.5241, 18.904, 12.9973, 94.9789, -96.3458
1.62378, -1, 4.39574, 14.4278, 18.942, 12.9995, 94.8783, -96.6006
1.63154, -1, 4.20682, 14.3314, 18.98, 13.0017, 94.7774, -96.8555
1.63967, -1, 4.01804, 14.235, 19.018, 13.004, 94.6766, -97.1106
1.64838, -1, 3.82994, 14.1388, 19.0558, 13.0063, 94.5758, -97.3656
1.65562, -1, 3.64237, 14.0426, 19.0938, 13.0084, 94.475, -97.6203
1.66363, -1, 3.45518, 13.9464, 19.1318, 13.0108, 94.3745, -97.875
1.67245, -1, 3.26818, 13.8504, 19.1695, 13.0131, 94.2738, -98.1297
1.6796, -1, 3.08118, 13.7543, 19.2074, 13.0154, 94.1731, -98.3845
1.68762, -1, 2.89423, 13.6582, 19.2453, 13.0176, 94.0725, -98.6389
1.69635, -1, 2.70721, 13.5622, 19.2832, 13.0199, 93.9718, -98.893
1.70355, -1, 2.5199, 13.4662, 19.3212, 13.0222, 93.8714, -99.147
1.71176, -1, 2.33246, 13.3703, 19.3589, 13.0245, 93.771, -99.4013
1.72043, -1, 2.14459, 13.2745, 19.3967, 13.0267, 93.6707, -99.6552
1.72763, -1, 1.95662, 13.1787, 19.4346, 13.0289, 93.5705, -99.9088
1.73597, -1, 1.76855, 13.0828, 19.4724, 13.0313, 93.4707, -100.162
1.74447, -1, 1.58033, 12.987, 19.5101, 13.0334, 93.3705, -100.416
1.75166, -1, 1.39225, 12.8912, 19.5479, 13.0356, 93.2704, -100.67
1.76015, -1, 1.20446, 12.7953, 19.5856, 13.038, 93.1706, -100.923
1.76845, -1, 1.01699, 12.6996, 19.6233, 13.0404, 93.0705, -101.176
1.77555, -1, 0.830151, 12.604, 19.6611, 13.0427, 92.9705, -101.429
1.78434, -1, 0.643881, 12.5084, 19.6987, 13.0451, 92.8709, -101.682
1.79171, -1, 0.457952, 12.4129, 19.7362, 13.0476, 92.771, -101.935
1.79976, -1, 0.27217, 12.3175, 19.774, 13.05, 92.6713, -102.188
1.80851, -1, 0.0866707, 12.2221, 19.8115, 13.0524, 92.572, -102.44
1.81671, -1, -0.0987605, 12.1268, 19.849, 13.0549, 92.4723, -102.693
1.82386, -1, -0.284429, 12.0315, 19.8867, 13.0573, 92.3727, -102.946
1.83277, -1, -0.470387, 11.9363, 19.9243, 13.0598, 92.2734, -103.198
1.84012, -1, -0.656615, 11.8413, 19.9618, 13.0623, 92.1738, -103.45
1.84808, -1, -0.842994, 11.7463, 19.9993, 13.0647, 92.0744, -103.702
1.85689, -1, -1.0296, 11.6512, 20.0368, 13.0672, 91.9752, -103.954
1.86408, -1, -1.21639, 11.5561, 20.0742, 13.0698, 91.8758, -104.205
1.87217, -1, -1.4033, 11.4611, 20.1118, 13.0723, 91.7765, -104.457
1.881, -1, -1.58998, 11.366, 20.1492, 13.0748, 91.6774, -104.708
1.8891, -1, -1.68321, 11.3184, 20.1679, 13.0774, 91.5781, -104.96
1.89619, -1, -1.86942, 11.2233, 20.2054, 13.0787, 91.4789, -105.211
1.90354, -1, -2.05523, 11.1284, 20.2428, 13.0814, 91.4294, -105.337
1.91154, -1, -2.24036, 11.0335, 20.2801, 13.084, 91.3301, -105.588
1.91964, -1, -2.42523, 10.9386, 20.3175, 13.0867, 91.2309, -105.839
1.92767, -1, -2.60967, 10.8438, 20.3548, 13.0894, 91.132, -106.09
1.93556, -1, -2.79367, 10.749, 20.3921, 13.0921, 91.0328, -106.341
1.94356, -1, -2.97762, 10.6543, 20.4295, 13.0946, 90.9337, -106.591
1.95153, -1, -3.16171, 10.5596, 20.4669, 13.0972, 90.835, -106.842
1.95964, -1, -3.346, 10.465, 20.5041, 13.0998, 90.7361, -107.093
1.96753, -1, -3.53069, 10.3705, 20.5413, 13.1024, 90.6371, -107.343
1.97554, -1, -3.7154, 10.2762, 20.5786, 13.1049, 90.5385, -107.593
1.9836, -1, -3.90041, 10.1818, 20.6158, 13.1074, 90.4395, -107.843
1.9916, -1, -4.08573, 10.0875, 20.6531, 13.1099, 90.3408, -108.093
1.99959, -1, -4.27126, 9.9932, 20.6903, 13.1123, 90.2424, -108.343
2.0076, -1, -4.45687, 9.89886, 20.7275, 13.1146, 90.1437, -108.593
2.01554, -1, -4.64215, 9.80454, 20.7648, 13.117, 90.0451, -108.843
2.02454, -1, -4.82706, 9.71031, 20.8019, 13.1194, 89.9468, -109.092
2.03153, -1, -5.01154, 9.61624, 20.8389, 13.1219, 89.8482, -109.342
2.04054, -1, -5.19533, 9.52218, 20.8761, 13.1242, 89.7498, -109.591
2.04763, -1, -5.37871, 9.42811, 20.9132, 13.1265, 89.6516, -109.84
2.05554, -1, -5.56172, 9.33418, 20.9502, 13.1288, 89.5531, -110.089
2.06354, -1, -5.74434, 9.24025, 20.9874, 13.1312, 89.4549, -110.337
2.07159, -1, -5.92665, 9.14635, 21.0244, 13.1334, 89.3569, -110.586
2.07959, -1, -6.10899, 9.0525, 21.0613, 13.1357, 89.2587, -110.835
2.08753, -1, -6.29168, 8.95867, 21.0984, 13.1379, 89.1606, -111.083
2.09561, -1, -6.47464, 8.86502, 21.1354, 13.1401, 89.0629, -111.332
2.10353, -1, -6.65774, 8.77141, 21.1722, 13.1423, 88.9648, -111.58
2.11153, -1, -6.84131, 8.67778, 21.2091, 13.1445, 88.8668, -111.828
2.11965, -1, -7.02521, 8.58418, 21.246, 13.1465, 88.7691, -112.076
2.12753, -1, -7.20941, 8.49065, 21.2828, 13.1487, 88.6711, -112.324
2.13554, -1, -7.39353, 8.39701, 21.3198, 13.1508, 88.5733, -112.571
2.1436, -1, -7.57733, 8.30336, 21.3566, 13.153, 88.4758, -112.819
2.15153, -1, -7.76078, 8.20994, 21.3933, 13.1551, 88.3782, -113.066
2.15965, -1, -7.94392, 8.11655, 21.4303, 13.1574, 88.2808, -113.314
2.16768, -1, -8.1266, 8.02316, 21.4671, 13.1596, 88.1835, -113.561
2.17554, -1, -8.30852, 7.92988, 21.5038, 13.1618, 88.086, -113.808
2.18353, -1, -8.48992, 7.83661, 21.5407, 13.1641, 87.9886, -114.055
2.1916, -1, -8.67099, 7.74338, 21.5775, 13.1663, 87.8913, -114.301
2.19959, -1, -8.85169, 7.6502, 21.6142, 13.1687, 87.7938, -114.548
2.20761, -1, -9.03232, 7.55711, 21.651, 13.1709, 87.6965, -114.794
2.21556, -1, -9.21336, 7.46407, 21.6878, 13.1732, 87.5993, -115.041
2.22358, -1, -9.3946, 7.37128, 21.7244, 13.1753, 87.5021, -115.287
2.23168, -1, -9.57623, 7.27848, 21.7611, 13.1775, 87.4049, -115.533
2.23976, -1, -9.75823, 7.18567, 21.7978, 13.1798, 87.308, -115.779
2.24763, -1, -9.9406, 7.09296, 21.8343, 13.182, 87.2107, -116.025
2.25571, -1, -10.1231, 7.00024, 21.8709, 13.1842, 87.1135, -116.271
2.26363, -1, -10.3058, 6.90743, 21.9075, 13.1864, 87.0164, -116.517
2.27154, -1, -10.4883, 6.81466, 21.944, 13.1886, 86.9193, -116.762
2.2798, -1, -10.6706, 6.72192, 21.9806, 13.1909, 86.8222, -117.008
2.28755, -1, -10.8524, 6.62932, 22.0171, 13.1932, 86.7254, -117.253
2.29564, -1, -11.0337, 6.53674, 22.0534, 13.1957, 86.6284, -117.498
2.3038, -1, -11.2142, 6.44418, 22.09, 13.1981, 86.5317, -117.743
2.3117, -1, -11.3942, 6.35167, 22.1265, 13.2005, 86.4352, -117.988
2.31993, -1, -11.5738, 6.25924, 22.1629, 13.2029, 86.3384, -118.233
2.32791, -1, -11.7531, 6.16685, 22.1994, 13.2054, 86.2418, -118.478
2.33588, -1, -11.9323, 6.07455, 22.2358, 13.2078, 86.1453, -118.722
2.34405, -1, -12.1116, 5.9823, 22.2722, 13.2103, 86.0486, -118.966
2.35201, -1, -12.291, 5.89023, 22.3086, 13.2128, 85.9522, -119.21
2.36011, -1, -12.4709, 5.79822, 22.345, 13.2153, 85.856, -119.455
2.36816, -1, -12.6512, 5.70618, 22.3812, 13.2178, 85.7596, -119.699
2.37611, -1, -12.8318, 5.61424, 22.4175, 13.2202, 85.6635, -119.942
2.38411, -1, -12.9222, 5.52235, 22.4539, 13.2227, 85.5677, -120.186
2.39223, -1, -13.1033, 5.4303, 22.4901, 13.2252, 85.4716, -120.43
2.39953, -1, -13.2846, 5.38428, 22.5082, 13.2264, 85.4236, -120.552
2.40752, -1, -13.4656, 5.29236, 22.5445, 13.2288, 85.3278, -120.795
2.41558, -1, -13.6462, 5.20043, 22.5807, 13.2313, 85.2319, -121.038
2.42352, -1, -13.8264, 5.10856, 22.6168, 13.2339, 85.1361, -121.281
2.43152, -1, -14.0061, 5.01674, 22.653, 13.2365, 85.0405, -121.524
2.43957, -1, -14.1849, 4.92503, 22.6891, 13.239, 84.9449, -121.767
2.44756, -1, -14.3631, 4.83334, 22.7252, 13.2416, 84.8493, -122.01
2.45559, -1, -14.5411, 4.74169, 22.7615, 13.2441, 84.7538, -122.252
2.46352, -1, -14.7187, 4.6501, 22.7977, 13.2467, 84.6581, -122.495
2.47152, -1, -14.8963, 4.55862, 22.8337, 13.2492, 84.5624, -122.737
2.47963, -1, -15.074, 4.46718, 22.8698, 13.2517, 84.4667, -122.98
2.48751, -1, -15.2521, 4.37588, 22.906, 13.2541, 84.3711, -123.222
2.49561, -1, -15.4305, 4.28455, 22.942, 13.2565, 84.2754, -123.463
2.50358, -1, -15.6094, 4.19327, 22.978, 13.2589, 84.1799, -123.705
2.51151, -1, -15.7886, 4.10204, 23.0141, 13.2611, 84.0844, -123.947
2.51952, -1, -15.9677, 4.01083, 23.05, 13.2634, 83.9889, -124.189
2.52758, -1, -16.1473, 3.91956, 23.0861, 13.2656, 83.8936, -124.43
2.53656, -1, -16.3271, 3.82834, 23.1221, 13.2677, 83.7981, -124.671
2.54353, -1, -16.5065, 3.73715, 23.1579, 13.2699, 83.7026, -124.913
2.55158, -1, -16.6855, 3.64603, 23.1938, 13.2721, 83.6073, -125.154
2.55952, -1, -16.864, 3.55494, 23.2297, 13.2744, 83.5119, -125.395
2.56752, -1, -17.0416, 3.4639, 23.2655, 13.2766, 83.4164, -125.636
2.57553, -1, -17.2184, 3.37296, 23.3013, 13.2788, 83.3212, -125.876
2.58354, -1, -17.3949, 3.2821, 23.3372, 13.2811, 83.2262, -126.117
2.59159, -1, -17.5712, 3.19123, 23.3729, 13.2832, 83.131, -126.358
2.59952, -1, -17.7473, 3.10058, 23.4088, 13.2854, 83.0362, -126.598
2.60752, -1, -17.9233, 3.00996, 23.4448, 13.2875, 82.9415, -126.838
2.61563, -1, -18.0996, 2.91945, 23.4805, 13.2896, 82.8466, -127.078
2.62352, -1, -18.276, 2.82911, 23.5162, 13.2918, 82.7519, -127.319
2.63152, -1, -18.4529, 2.7387, 23.5521, 13.2938, 82.6574, -127.558
2.6396, -1, -18.6305, 2.64828, 23.5877, 13.2958, 82.5626, -127.798
2.64752, -1, -18.8081, 2.55796, 23.6234, 13.2979, 82.4681, -128.037
2.65552, -1, -18.9862, 2.46753, 23.6591, 13.2999, 82.3737, -128.277
2.66366, -1, -19.1644, 2.37704, 23.6947, 13.3019, 82.2792, -128.516
2.67151, -1, -19.3426, 2.28665, 23.7303, 13.3039, 82.1849, -128.755
2.67951, -1, -19.5203, 2.19628, 23.766, 13.306, 82.091, -128.994
2.68759, -1, -19.6973, 2.1059, 23.8014, 13.3082, 81.9967, -129.233
2.69553, -1, -19.874, 2.0156, 23.8368, 13.3103, 81.9024, -129.473
2.70354, -1, -20.0498, 1.92535, 23.8725, 13.3125, 81.8086, -129.711
2.71185, -1, -20.2249, 1.83511, 23.908, 13.3147, 81.7143, -129.95
2.71955, -1, -20.3998, 1.745, 23.9434, 13.3169, 81.6203, -130.188
2.72764, -1, -20.5745, 1.65493, 23.979, 13.3192, 81.5266, -130.426
2.73642, -1, -20.7489, 1.56493, 24.0145, 13.3214, 81.4325, -130.665
2.74361, -1, -20.9235, 1.47505, 24.0499, 13.3235, 81.3388, -130.903
2.75168, -1, -21.0985, 1.38534, 24.0854, 13.3257, 81.2452, -131.141
2.75963, -1, -21.2738, 1.29558, 24.1209, 13.3279, 81.1513, -131.379
2.76762, -1, -21.4495, 1.20588, 24.1562, 13.3301, 81.0573, -131.617
2.77569, -1, -21.6255, 1.11627, 24.1916, 13.3322, 80.9636, -131.854
2.78606, -1, -21.8016, 1.02665, 24.2271, 13.3344, 80.8698, -132.092
2.79162, -1, -21.978, 0.936999, 24.2624, 13.3366, 80.7759, -132.329
2.79955, -1, -22.1546, 0.847414, 24.2978, 13.3387, 80.6824, -132.566
2.80851, -1, -22.3312, 0.75787, 24.3332, 13.3409, 80.5886, -132.803
2.81574, -1, -22.5072, 0.668398, 24.3684, 13.3431, 80.4951, -133.04
2.82378, -1, -22.6828, 0.578866, 24.4036, 13.3455, 80.4015, -133.277
2.83263, -1, -22.8578, 0.489425, 24.4389, 13.3479, 80.3079, -133.514
2.83994, -1, -23.0319, 0.399992, 24.474, 13.3503, 80.2143, -133.751
2.84791, -1, -23.2055, 0.310659, 24.5091, 13.3527, 80.1208, -133.988
2.85691, -1, -23.3789, 0.221315, 24.5443, 13.3552, 80.0274, -134.224
2.86411, -1, -23.552, 0.132077, 24.5795, 13.3577, 79.934, -134.46
2.87205, -1, -23.7252, 0.0429664, 24.6147, 13.36, 79.8407, -134.696
2.88091, -1, -23.8986, -0.0460963, 24.6499, 13.3624, 79.7477, -134.932
2.88816, -1, -24.0721, -0.135051, 24.685, 13.3649, 79.6544, -135.169
2.89615, -1, -24.159, -0.17956, 24.72, 13.3673, 79.5614, -135.404
2.90351, -1, -24.333, -0.268546, 24.7375, 13.3685, 79.5149, -135.522
2.91157, -1, -24.5072, -0.357423, 24.7727, 13.371, 79.4218, -135.757
2.9195, -1, -24.6817, -0.446289, 24.8077, 13.3734, 79.3288, -135.993
2.9275, -1, -24.8566, -0.535221, 24.8427, 13.3758, 79.2357, -136.229
2.93555, -1, -25.0318, -0.624076, 24.8778, 13.3782, 79.1428, -136.464
2.9435, -1, -25.2066, -0.712888, 24.9128, 13.3806, 79.0498, -136.699
2.95156, -1, -25.3812, -0.801634, 24.9477, 13.383, 78.9571, -136.934
2.95955, -1, -25.5553, -0.890457, 24.9828, 13.3855, 78.8645, -137.169
2.9675, -1, -25.729, -0.979206, 25.0176, 13.3879, 78.7717, -137.404
2.9755, -1, -25.9018, -1.06789, 25.0524, 13.3903, 78.6792, -137.639
2.98355, -1, -26.0743, -1.15661, 25.0875, 13.3928, 78.587, -137.873
2.9915, -1, -26.2464, -1.24524, 25.1224, 13.3952, 78.4941, -138.108
2.99952, -1, -26.4181, -1.33376, 25.1572, 13.3976, 78.4016, -138.342
3.00752, -1, -26.59, -1.42219, 25.1921, 13.3999, 78.3093, -138.577
3.0155, -1, -26.762, -1.51055, 25.2271, 13.4021, 78.2166, -138.811
3.02357, -1, -26.9342, -1.5988, 25.2619, 13.4044, 78.1242, -139.045
3.03311, -1, -27.1067, -1.68699, 25.2967, 13.4066, 78.0322, -139.279
3.0395, -1, -27.2792, -1.77523, 25.3317, 13.4088, 77.9399, -139.513
3.04758, -1, -27.4521, -1.86334, 25.3664, 13.411, 77.8479, -139.746
3.0555, -1, -27.6252, -1.95143, 25.4012, 13.4131, 77.756, -139.979
3.06357, -1, -27.7985, -2.03963, 25.4361, 13.4152, 77.6638, -140.213
3.07157, -1, -27.9718, -2.12766, 25.4709, 13.4172, 77.5718, -140.446
3.0795, -1, -28.1451, -2.21567, 25.5056, 13.4193, 77.4798, -140.68
3.08752, -1, -28.3182, -2.3037, 25.5405, 13.4213, 77.3878, -140.913
3.09557, -1, -28.491, -2.39177, 25.5752, 13.4234, 77.2957, -141.146
3.10351, -1, -28.6634, -2.47972, 25.6098, 13.4256, 77.2036, -141.379
3.11156, -1, -28.8352, -2.56772, 25.6445, 13.4278, 77.1116, -141.612
3.11954, -1, -29.0063, -2.65567, 25.6792, 13.43, 77.0197, -141.844
3.1275, -1, -29.1769, -2.74355, 25.7137, 13.4321, 76.9278, -142.077
3.13557, -1, -29.3475, -2.83134, 25.7484, 13.4342, 76.8362, -142.309
3.14351, -1, -29.5182, -2.91903, 25.7831, 13.4363, 76.7442, -142.542
3.1515, -1, -29.689, -3.00662, 25.8176, 13.4383, 76.6523, -142.774
3.15957, -1, -29.86, -3.09414, 25.8522, 13.4404, 76.5607, -143.007
3.1675, -1, -30.0309, -3.18158, 25.8868, 13.4425, 76.4687, -143.239
3.17551, -1, -30.2019, -3.2691, 25.9213, 13.4444, 76.377, -143.471
3.18357, -1, -30.3731, -3.35653, 25.9559, 13.4466, 76.2856, -143.703
3.1915, -1, -30.5447, -3.44396, 25.9905, 13.4486, 76.1939, -143.934
3.19958, -1, -30.7164, -3.53147, 26.0249, 13.4507, 76.1026, -144.166
3.2075, -1, -30.8883, -3.61881, 26.0594, 13.4527, 76.0112, -144.397
3.2155, -1, -31.0602, -3.70621, 26.094, 13.4547, 75.9198, -144.629
3.22373, -1, -31.2318, -3.79354, 26.1285, 13.4567, 75.8284, -144.86
3.23163, -1, -31.4031, -3.8809, 26.1628, 13.4588, 75.7371, -145.092
3.2396, -1, -31.574, -3.96822, 26.1973, 13.461, 75.6459, -145.323
3.24795, -1, -31.7445, -4.05549, 26.2318, 13.4631, 75.5546, -145.553
3.2556, -1, -31.9145, -4.14278, 26.2661, 13.4653, 75.4634, -145.784
3.26361, -1, -32.0842, -4.23, 26.3005, 13.4675, 75.3725, -146.015
3.2721, -1, -32.2535, -4.31713, 26.3349, 13.4698, 75.2813, -146.246
3.27951, -1, -32.4229, -4.40417, 26.3691, 13.4719, 75.1902, -146.477
3.28768, -1, -32.5926, -4.49115, 26.4035, 13.474, 75.0996, -146.707
3.29634, -1, -32.7622, -4.57805, 26.438, 13.4762, 75.0086, -146.937
3.30355, -1, -32.9319, -4.66496, 26.4722, 13.4783, 74.9178, -147.168
3.31166, -1, -33.1017, -4.75192, 26.5064, 13.4805, 74.8274, -147.398
3.32053, -1, -33.2715, -4.83878, 26.5408, 13.4827, 74.7365, -147.628
3.32775, -1, -33.4415, -4.92566, 26.5751, 13.4849, 74.6459, -147.858
3.33587, -1, -33.6118, -5.01261, 26.6092, 13.4872, 74.5554, -148.088
3.3447, -1, -33.7821, -5.09937, 26.6435, 13.4893, 74.4649, -148.318
3.35193, -1, -33.9523, -5.18614, 26.6777, 13.4916, 74.3743, -148.547
3.36009, -1, -34.1225, -5.27289, 26.7117, 13.4938, 74.2838, -148.777
3.3689, -1, -34.2926, -5.35962, 26.746, 13.4961, 74.1933, -149.006
3.37606, -1, -34.4627, -5.44625, 26.7803, 13.4985, 74.1027, -149.236
3.38413, -1, -34.6324, -5.53291, 26.8143, 13.5008, 74.012, -149.465
3.39295, -1, -34.7169, -5.57627, 26.8484, 13.5031, 73.9216, -149.694
3.40021, -1, -34.8856, -5.7062, 26.8826, 13.5056, 73.831, -149.923
3.40812, -1, -35.054, -5.74943, 26.8996, 13.5069, 73.7858, -150.038
3.41549, -1, -35.2223, -5.83593, 26.9337, 13.5093, 73.6955, -150.267
3.42349, -1, -35.3905, -5.92228, 26.9678, 13.5118, 73.6052, -150.496
3.43154, -1, -35.559, -6.00844, 27.002, 13.5141, 73.5149, -150.725
3.43951, -1, -35.7276, -6.0947, 27.0359, 13.5164, 73.4245, -150.953
3.44754, -1, -35.8962, -6.1809, 27.07, 13.5188, 73.3343, -151.182
3.45552, -1, -36.0647, -6.26702, 27.1041, 13.5212, 73.2438, -151.41
3.4635, -1, -36.2331, -6.35312, 27.1381, 13.5236, 73.1533, -151.639
3.47153, -1, -36.4018, -6.43932, 27.172, 13.5261, 73.0632, -151.868
3.47949, -1, -36.5706, -6.52555, 27.206, 13.5284, 72.9727, -152.096
3.4875, -1, -36.7394, -6.61172, 27.24, 13.5307, 72.8824, -152.324
3.49555, -1, -36.9084, -6.69789, 27.2739, 13.533, 72.7925, -152.552
3.50348, -1, -37.0774, -6.78407, 27.3078, 13.5353, 72.7023, -152.78
3.51424, -1, -37.3306, -6.91322, 27.3586, 13.5387, 72.5674, -153.122
3.51955, -1, -37.4148, -6.95623, 27.3756, 13.5398, 72.5225, -153.236
3.52749, -1, -37.583, -7.04232, 27.4096, 13.5421, 72.4326, -153.463
3.53648, -1, -37.7508, -7.12834, 27.4435, 13.5443, 72.3427, -153.69
3.54355, -1, -37.9184, -7.2143, 27.4773, 13.5466, 72.2529, -153.918
3.55149, -1, -38.0858, -7.30018, 27.5112, 13.5488, 72.1633, -154.146
3.55948, -1, -38.2532, -7.38604, 27.5452, 13.551, 72.0734, -154.373
3.56755, -1, -38.4204, -7.47174, 27.579, 13.5532, 71.9838, -154.6
3.57551, -1, -38.5877, -7.55743, 27.6128, 13.5553, 71.8944, -154.827
3.58356, -1, -38.755, -7.64315, 27.6467, 13.5574, 71.8046, -155.054
3.59149, -1, -38.9223, -7.72884, 27.6805, 13.5594, 71.7151, -155.281
3.59949, -1, -39.0896, -7.81446, 27.7142, 13.5615, 71.6261, -155.508
3.60755, -1, -39.2571, -7.90012, 27.7481, 13.5635, 71.5365, -155.735
3.6155, -1, -39.4246, -7.98582, 27.7819, 13.5654, 71.4471, -155.962
3.62353, -1, -39.5922, -8.07139, 27.8155, 13.5674, 71.3578, -156.189
3.63155, -1, -39.7599, -8.15689, 27.8492, 13.5694, 71.2685, -156.415
3.63948, -1, -39.9275, -8.24235, 27.883, 13.5713, 71.1791, -156.641
3.6475, -1, -40.0951, -8.32778, 27.9166, 13.5733, 71.0897, -156.868
3.65557, -1, -40.2626, -8.41313, 27.9503, 13.5752, 71.0006, -157.094
3.66349, -1, -40.4298, -8.49852, 27.9841, 13.5772, 70.9111, -157.32
3.67149, -1, -40.5969, -8.58391, 28.0177, 13.5793, 70.822, -157.547
3.67955, -1, -40.7638, -8.66927, 28.0513, 13.5812, 70.733, -157.772
3.68747, -1, -40.9303, -8.75464, 28.085, 13.5832, 70.6438, -157.998
3.69551, -1, -41.0967, -8.83999, 28.1187, 13.5853, 70.5546, -158.224
3.70356, -1, -41.2629, -8.92524, 28.1522, 13.5873, 70.4656, -158.45
3.71148, -1, -41.429, -9.01039, 28.1858, 13.5893, 70.3763, -158.675
3.7197, -1, -41.5954, -9.09559, 28.2195, 13.5912, 70.2871, -158.901
3.72751, -1, -41.7617, -9.18071, 28.253, 13.5933, 70.1981, -159.126
3.73564, -1, -41.928, -9.26575, 28.2866, 13.5952, 70.109, -159.352
3.74394, -1, -42.0944, -9.35077, 28.3202, 13.5973, 70.02, -159.577
3.75158, -1, -42.2607, -9.43587, 28.3538, 13.5993, 69.931, -159.803
3.75959, -1, -42.4268, -9.52086, 28.3872, 13.6013, 69.8423, -160.028
3.76805, -1, -42.5932, -9.60586, 28.4208, 13.6033, 69.7532, -160.253
3.7756, -1, -42.7596, -9.69085, 28.4543, 13.6053, 69.6643, -160.478
3.7835, -1, -42.9261, -9.77581, 28.4877, 13.6074, 69.5757, -160.703
3.79167, -1, -43.0926, -9.86075, 28.5212, 13.6094, 69.4867, -160.928
3.80031, -1, -43.2589, -9.94569, 28.5547, 13.6115, 69.3981, -161.153
3.80753, -1, -43.425, -10.0306, 28.5882, 13.6136, 69.3095, -161.378
3.8157, -1, -43.591, -10.1156, 28.6217, 13.6157, 69.2209, -161.603
3.82464, -1, -43.7568, -10.2006, 28.6552, 13.6179, 69.1324, -161.828
3.83174, -1, -43.9226, -10.2854, 28.6886, 13.6201, 69.0439, -162.052
3.83992, -1, -44.0881, -10.3702, 28.7219, 13.6222, 68.9555, -162.276
3.84849, -1, -44.2534, -10.4549, 28.7555, 13.6243, 68.8667, -162.501
3.85592, -1, -44.4186, -10.5395, 28.7889, 13.6266, 68.7781, -162.725
3.86405, -1, -44.5838, -10.624, 28.8223, 13.6287, 68.6897, -162.949
3.8728, -1, -44.749, -10.7086, 28.8557, 13.6309, 68.6009, -163.173
3.88003, -1, -44.9144, -10.793, 28.8893, 13.6332, 68.5124, -163.397
3.88811, -1, -45.0798, -10.8774, 28.9226, 13.6354, 68.4241, -163.621
3.89614, -1, -45.1624, -10.9197, 28.956, 13.6375, 68.3355, -163.845
3.90428, -1, -45.4103, -11.0464, 28.9895, 13.6398, 68.2472, -164.069
3.91218, -1, -45.493, -11.0887, 29.0061, 13.6409, 68.203, -164.293
3.9195, -1, -45.6583, -11.1731, 29.0393, 13.6432, 68.115, -164.405
3.92842, -1, -45.9059, -11.2996, 29.0894, 13.6466, 67.9823, -164.74
3.93554, -1, -45.9877, -11.3414, 29.1061, 13.6477, 67.9381, -164.852
3.94348, -1, -46.1491, -11.4237, 29.1395, 13.65, 67.85, -165.075
3.95148, -1, -46.306, -11.5031, 29.1731, 13.6525, 67.7627, -165.296
3.95956, -1, -46.4562, -11.5781, 29.2067, 13.6548, 67.6774, -165.512
3.96748, -1, -46.5974, -11.6479, 29.2389, 13.6571, 67.596, -165.717
3.97549, -1, -46.7269, -11.7112, 29.2687, 13.6593, 67.5214, -165.907
3.98353, -1, -46.8418, -11.7673, 29.2951, 13.6614, 67.4544, -166.075
3.99147, -1, -46.9404, -11.8163, 29.3171, 13.663, 67.3987, -166.217
3.99947, -1, -47.0229, -11.8592, 29.3336, 13.6643, 67.354, -166.33
4.00754, -1, -47.0899, -11.8959, 29.3448, 13.6651, 67.3205, -166.414
4.01548, -1, -47.1422, -11.9253, 29.352, 13.6655, 67.2973, -166.473
4.02347, -1, -47.1809, -11.9473, 29.3558, 13.6657, 67.2823, -166.51
4.03154, -1, -47.2085, -11.9626, 29.3576, 13.6658, 67.2736, -166.533
4.03947, -1, -47.2265, -11.9726, 29.3584, 13.6659, 67.2689, -166.544
4.04847, -1, -47.2372, -11.9784, 29.3588, 13.666, 67.2665, -166.55
4.05556, -1, -47.2428, -11.9812, 29.359, 13.666, 67.2655, -166.553
4.06348, 2, -47.2447, -11.9825, 29.3592, 13.666, 67.265, -166.554
4.07154, 2, -47.2447, -11.9831, 29.3592, 13.6661, 67.2647, -166.555
4.07955, 2, -47.2445, -11.9833, 29.3593, 13.6661, 67.2646, -166.555
4.08746, 2, -47.2445, -11.9834, 29.3593, 13.6661, 67.2645, -166.555
4.09554, 2, -47.2449, -11.9835, 29.3594, 13.6661, 67.2644, -166.555
4.10354, 2, -47.2458, -11.9837, 29.3594, 13.6661, 67.2644, -166.555
4.11147, 2, -47.2471, -11.9842, 29.3594, 13.6661, 67.2645, -166.555
4.11947, 2, -47.2489, -11.985, 29.3594, 13.6661, 67.2645, -166.555
4.12757, 2, -47.2504, -11.9859, 29.3594, 13.6661, 67.2644, -166.555
4.13548, 2, -47.2518, -11.9866, 29.3594, 13.6661, 67.2644, -166.555
4.14347, 2, -47.2527, -11.9873, 29.3594, 13.6661, 67.2644, -166.555
4.15154, 2, -47.2531, -11.9877, 29.3594, 13.6661, 67.2644, -166.555
4.15947, 2, -47.2533, -11.9878, 29.3594, 13.6661, 67.2644, -166.555
4.16747, 2, -47.2533, -11.9879, 29.3594, 13.6661, 67.2645, -166.555
4.17555, 2, -47.253, -11.9879, 29.3594, 13.6661, 67.2645, -166.555
4.18347, 2, -47.2525, -11.9879, 29.3594, 13.6661, 67.2645, -166.555
4.19147, 2, -47.2521, -11.9879, 29.3594, 13.6661, 67.2645, -166.555
4.19953, 2, -47.2517, -11.9879, 29.3595, 13.6661, 67.2645, -166.555
4.20751, 2, -47.2516, -11.9879, 29.3595, 13.6661, 67.2645, -166.555
4.21548, 2, -47.2516, -11.988, 29.3594, 13.666, 67.2645, -166.555
4.22354, 2, -47.2517, -11.9881, 29.3595, 13.6661, 67.2645, -166.555
4.2315, 2, -47.2519, -11.9884, 29.3594, 13.6661, 67.2646, -166.555
4.23961, 2, -47.2526, -11.9888, 29.3594, 13.6661, 67.2646, -166.555
4.24763, 2, -47.2531, -11.9891, 29.3594, 13.6661, 67.2645, -166.555
4.25558, 2, -47.2534, -11.9892, 29.3594, 13.6661, 67.2645, -166.555
4.26357, 2, -47.2536, -11.9893, 29.3594, 13.6661, 67.2645, -166.555
4.27164, 2, -47.2536, -11.9893, 29.3594, 13.6661, 67.2645, -166.555
4.27947, 2, -47.2535, -11.9893, 29.3594, 13.6661, 67.2644, -166.555
4.28747, 2, -47.2532, -11.9893, 29.3595, 13.6661, 67.2645, -166.555
4.29567, 2, -47.2528, -11.9892, 29.3595, 13.6661, 67.2645, -166.555
4.3035, 2, -47.2525, -11.9892, 29.3594, 13.6661, 67.2645, -166.555
4.31158, 2, -47.2522, -11.9892, 29.3594, 13.666, 67.2645, -166.555
4.31967, 2, -47.252, -11.9892, 29.3594, 13.666, 67.2645, -166.555
4.32767, 2, -47.2519, -11.9893, 29.3594, 13.666, 67.2645, -166.555
4.33582, 2, -47.2519, -11.9893, 29.3594, 13.666, 67.2645, -166.555
4.34389, 2, -47.2519, -11.9894, 29.3594, 13.666, 67.2646, -166.555
4.35257, 2, -47.2519, -11.9894, 29.3594, 13.666, 67.2645, -166.555
4.35998, 2, -47.2519, -11.9894, 29.3594, 13.666, 67.2645, -166.555
4.36804, 2, -47.252, -11.9895, 29.3594, 13.666, 67.2645, -166.555
4.37604, 2, -47.252, -11.9895, 29.3594, 13.666, 67.2645, -166.555
4.38408, 2, -47.2519, -11.9894, 29.3594, 13.666, 67.2646, -166.555
4.39208, 2, -47.2519, -11.9893, 29.3594, 13.666, 67.2646, -166.555
4.40006, 2, -47.2519, -11.9893, 29.3594, 13.666, 67.2646, -166.555
4.40819, 2, -47.2518, -11.9893, 29.3594, 13.666, 67.2646, -166.555
4.41605, 2, -47.2517, -11.9892, 29.3595, 13.6661, 67.2645, -166.555
4.42346, 2, -47.2516, -11.9892, 29.3594, 13.666, 67.2645, -166.555
4.43146, 2, -47.2515, -11.9892, 29.3594, 13.666, 67.2646, -166.555
4.43951, 2, -47.2514, -11.9893, 29.3594, 13.666, 67.2646, -166.555
4.44748, 2, -47.2513, -11.9893, 29.3594, 13.666, 67.2646, -166.555
4.45547, 2, -47.2512, -11.9893, 29.3594, 13.666, 67.2646, -166.555
4.46354, 2, -47.2512, -11.9893, 29.3594, 13.666, 67.2646, -166.555
4.47145, 2, -47.2511, -11.9893, 29.3594, 13.666, 67.2646, -166.555
4.47946, 2, -47.2511, -11.9893, 29.3595, 13.6661, 67.2646, -166.555
4.48751, 2, -47.251, -11.9893, 29.3594, 13.6661, 67.2646, -166.555
4.49546, 2, -47.251, -11.9892, 29.3594, 13.666, 67.2646, -166.555
4.50346, 2, -47.2509, -11.9892, 29.3594, 13.666, 67.2646, -166.555
4.51152, 2, -47.2508, -11.9891, 29.3595, 13.666, 67.2646, -166.555
4.51945, 2, -47.2507, -11.9891, 29.3594, 13.6659, 67.2647, -166.555
4.52745, 2, -47.2506, -11.9891, 29.3594, 13.666, 67.2646, -166.555
4.53646, 2, -47.2505, -11.9891, 29.3594, 13.666, 67.2646, -166.555
4.54346, 2, -47.2504, -11.9891, 29.3594, 13.666, 67.2646, -166.555
4.55246, 2, -47.2503, -11.9891, 29.3595, 13.666, 67.2646, -166.555
4.55952, 2, -47.2502, -11.9891, 29.3595, 13.666, 67.2646, -166.555
4.56745, 2, -47.2502, -11.9891, 29.3595, 13.666, 67.2646, -166.555
4.57553, 2, -47.25, -11.9891, 29.3595, 13.666, 67.2646, -166.555
4.58352, 2, -47.25, -11.9891, 29.3594, 13.666, 67.2647, -166.555
4.59145, 2, -47.2499, -11.989, 29.3594, 13.666, 67.2646, -166.555
4.59946, 2, -47.2497, -11.989, 29.3594, 13.6659, 67.2646, -166.555
4.60754, 2, -47.2496, -11.989, 29.3594, 13.6659, 67.2646, -166.555
4.61547, 2, -47.2495, -11.9889, 29.3594, 13.6659, 67.2647, -166.555
4.62346, 2, -47.2494, -11.9888, 29.3594, 13.6659, 67.2646, -166.555
4.63156, 2, -47.2493, -11.9888, 29.3594, 13.6659, 67.2647, -166.555
4.63945, 2, -47.2492, -11.9888, 29.3594, 13.6659, 67.2647, -166.555
4.64745, 2, -47.2491, -11.9888, 29.3594, 13.6659, 67.2647, -166.555
4.65553, 2, -47.249, -11.9888, 29.3594, 13.6659, 67.2647, -166.555
4.66345, 2, -47.2489, -11.9888, 29.3594, 13.6659, 67.2647, -166.555
4.67152, 2, -47.2489, -11.9888, 29.3594, 13.6658, 67.2647, -166.555
4.67952, 2, -47.2487, -11.9888, 29.3594, 13.6658, 67.2647, -166.555
4.68745, 2, -47.2487, -11.9888, 29.3594, 13.6658, 67.2647, -166.555
4.69547, 2, -47.2486, -11.9888, 29.3594, 13.6658, 67.2647, -166.555
4.70352, 2, -47.2486, -11.9887, 29.3594, 13.6658, 67.2647, -166.555
4.71145, 2, -47.2485, -11.9887, 29.3594, 13.6658, 67.2647, -166.555
4.71946, 2, -47.2484, -11.9886, 29.3594, 13.6658, 67.2647, -166.555
4.72753, 2, -47.2484, -11.9886, 29.3594, 13.6658, 67.2647, -166.554
4.73551, 2, -47.2483, -11.9886, 29.3594, 13.6658, 67.2647, -166.554
4.74361, 2, -47.2482, -11.9886, 29.3594, 13.6658, 67.2647, -166.554
4.75161, 2, -47.2482, -11.9886, 29.3594, 13.6658, 67.2647, -166.554
4.75955, 2, -47.2482, -11.9886, 29.3594, 13.6658, 67.2647, -166.554
4.76756, 2, -47.2481, -11.9886, 29.3594, 13.6658, 67.2647, -166.554
4.77563, 2, -47.2481, -11.9886, 29.3594, 13.6658, 67.2647, -166.554
4.78345, 2, -47.2481, -11.9886, 29.3594, 13.6658, 67.2648, -166.554
4.7915, 2, -47.2481, -11.9885, 29.3594, 13.6658, 67.2647, -166.554
4.79958, 2, -47.248, -11.9885, 29.3594, 13.6657, 67.2648, -166.554
4.80749, 2, -47.248, -11.9885, 29.3594, 13.6657, 67.2648, -166.554
4.81559, 2, -47.248, -11.9884, 29.3594, 13.6657, 67.2648, -166.554
4.82366, 2, -47.2479, -11.9883, 29.3594, 13.6657, 67.2648, -166.554
4.83166, 2, -47.2478, -11.9883, 29.3594, 13.6656, 67.2648, -166.554
4.84024, 2, -47.2477, -11.9883, 29.3594, 13.6657, 67.2648, -166.554
4.84784, 2, -47.2477, -11.9883, 29.3594, 13.6656, 67.2648, -166.554
4.85582, 2, -47.2477, -11.9883, 29.3594, 13.6656, 67.2649, -166.554
4.86426, 2, -47.2476, -11.9883, 29.3594, 13.6656, 67.2649, -166.554
4.87202, 2, -47.2476, -11.9883, 29.3594, 13.6656, 67.2648, -166.554
4.88, 2, -47.2476, -11.9882, 29.3594, 13.6656, 67.2648, -166.554
4.88845, 2, -47.2475, -11.9882, 29.3594, 13.6656, 67.2648, -166.554
4.89605, 2, -47.2475, -11.9882, 29.3594, 13.6656, 67.2648, -166.554
4.90408, 2, -47.2475, -11.9882, 29.3594, 13.6656, 67.2648, -166.554
4.91228, 2, -47.2475, -11.9881, 29.3594, 13.6656, 67.2648, -166.554
4.91949, 2, -47.2474, -11.9881, 29.3594, 13.6656, 67.2648, -166.554
4.92744, 2, -47.2474, -11.988, 29.3594, 13.6656, 67.2649, -166.554
4.9364, 2, -47.2473, -11.988, 29.3594, 13.6656, 67.2649, -166.554
4.94349, 2, -47.2472, -11.988, 29.3594, 13.6655, 67.2649, -166.554
4.95144, 2, -47.2471, -11.9879, 29.3594, 13.6655, 67.2649, -166.554
4.95944, 2, -47.2471, -11.988, 29.3594, 13.6655, 67.265, -166.554
4.96752, 2, -47.247, -11.9879, 29.3594, 13.6655, 67.265, -166.554
4.97545, 2, -47.247, -11.9879, 29.3594, 13.6654, 67.265, -166.554
4.98344, 2, -47.247, -11.9879, 29.3594, 13.6654, 67.265, -166.554
4.9915, 2, -47.247, -11.9879, 29.3594, 13.6654, 67.265, -166.554
4.99944, 2, -47.2469, -11.9879, 29.3594, 13.6654, 67.265, -166.554
5.00744, 2, -47.2469, -11.9879, 29.3594, 13.6654, 67.265, -166.554
5.01551, 2, -47.2469, -11.9878, 29.3594, 13.6654, 67.265, -166.554
5.02344, 2, -47.2469, -11.9878, 29.3594, 13.6654, 67.265, -166.554
5.03344, 2, -47.2467, -11.9877, 29.3594, 13.6654, 67.265, -166.554
5.03951, 2, -47.2467, -11.9877, 29.3594, 13.6653, 67.265, -166.554
5.04853, 2, -47.2466, -11.9877, 29.3594, 13.6653, 67.265, -166.554
5.05545, 2, -47.2466, -11.9876, 29.3594, 13.6653, 67.265, -166.554
5.06463, 2, -47.2465, -11.9876, 29.3594, 13.6653, 67.265, -166.554
5.07144, 2, -47.2465, -11.9876, 29.3594, 13.6652, 67.265, -166.554
5.07957, 2, -47.2464, -11.9876, 29.3594, 13.6652, 67.2651, -166.554
5.08744, 2, -47.2464, -11.9876, 29.3594, 13.6652, 67.2651, -166.554
5.09644, 2, -47.2464, -11.9876, 29.3594, 13.6652, 67.2651, -166.554
5.1035, 2, -47.2464, -11.9876, 29.3594, 13.6652, 67.2651, -166.554
5.11145, 2, -47.2464, -11.9876, 29.3594, 13.6652, 67.2651, -166.554
5.11944, 2, -47.2464, -11.9875, 29.3594, 13.6652, 67.2651, -166.554
5.1275, 2, -47.2463, -11.9875, 29.3594, 13.6652, 67.2651, -166.554
5.13549, 2, -47.2462, -11.9874, 29.3594, 13.6651, 67.2651, -166.554
5.14344, 4, -47.2462, -11.9874, 29.3594, 13.6651, 67.2651, -166.554
5.1515, 4, -47.2461, -11.9874, 29.3594, 13.6651, 67.2651, -166.554
5.15944, 4, -47.246, -11.9874, 29.3594, 13.6651, 67.2651, -166.554
5.16744, 4, -47.246, -11.9873, 29.3594, 13.6651, 67.2651, -166.554
5.17551, 4, -47.2459, -11.9873, 29.3594, 13.6651, 67.2651, -166.554
5.18343, 4, -47.2459, -11.9873, 29.3594, 13.665, 67.2651, -166.554
5.19143, 4, -47.2458, -11.9873, 29.3594, 13.665, 67.2652, -166.554
5.1995, 4, -47.2458, -11.9873, 29.3594, 13.665, 67.2651, -166.554
5.20744, 4, -47.2458, -11.9873, 29.3594, 13.665, 67.2652, -166.554
5.21545, 4, -47.2458, -11.9872, 29.3594, 13.6651, 67.2652, -166.554
5.22351, 4, -47.2458, -11.9872, 29.3594, 13.6651, 67.2652, -166.554
5.23147, 4, -47.2458, -11.9872, 29.3594, 13.665, 67.2652, -166.554
5.23966, 4, -47.2457, -11.9871, 29.3594, 13.665, 67.2652, -166.554
5.25545, 4, -47.2456, -11.9871, 29.3594, 13.665, 67.2652, -166.554
5.25732, 4, -47.2456, -11.9871, 29.3594, 13.665, 67.2652, -166.554
5.2638, 4, -47.2455, -11.9871, 29.3594, 13.665, 67.2652, -166.554
5.27262, 4, -47.2454, -11.987, 29.3594, 13.665, 67.2653, -166.554
5.2838, 4, -47.2454, -11.987, 29.3594, 13.6649, 67.2653, -166.554
5.28857, 4, -47.2453, -11.987, 29.3594, 13.6649, 67.2653, -166.554
5.29738, 4, -47.2453, -11.987, 29.3594, 13.6649, 67.2653, -166.554
5.30386, 4, -47.2453, -11.987, 29.3594, 13.6649, 67.2653, -166.553
5.31187, 4, -47.2453, -11.987, 29.3594, 13.6648, 67.2653, -166.553
5.32004, 4, -47.2453, -11.9869, 29.3594, 13.6649, 67.2653, -166.554
5.32963, 4, -47.2453, -11.9869, 29.3594, 13.6648, 67.2653, -166.553
5.336, 4, -47.2452, -11.9869, 29.3594, 13.6648, 67.2653, -166.553
5.34419, 4, -47.2452, -11.9868, 29.3594, 13.6648, 67.2653, -166.553
5.35385, 4, -47.2451, -11.9868, 29.3594, 13.6648, 67.2653, -166.553
5.36024, 4, -47.2451, -11.9868, 29.3594, 13.6648, 67.2653, -166.553
5.36838, 4, -47.245, -11.9868, 29.3594, 13.6648, 67.2653, -166.553
5.37637, 4, -47.245, -11.9868, 29.3594, 13.6648, 67.2653, -166.553
5.38437, 4, -47.2449, -11.9868, 29.3594, 13.6648, 67.2653, -166.553
5.39436, 4, -47.245, -11.9868, 29.3594, 13.6648, 67.2653, -166.553
5.40494, 4, -47.2454, -11.9873, 29.3598, 13.6649, 67.2654, -166.553
5.40837, 4, -47.246, -11.9873, 29.3605, 13.6653, 67.2656, -166.553
5.4164, 4, -47.2483, -11.9907, 29.3638, 13.67, 67.2669, -166.553
5.42528, 4, -47.2557, -11.9972, 29.3724, 13.6866, 67.2708, -166.551
5.4328, 5, -47.2649, -12.0089, 29.3903, 13.7222, 67.2804, -166.544
5.44147, 5, -47.2795, -12.0282, 29.4232, 13.7889, 67.299, -166.529
5.44949, 5, -47.3018, -12.0578, 29.4772, 13.9013, 67.3308, -166.504
5.45567, 5, -47.3166, -12.077, 29.5141, 13.979, 67.3527, -166.486
5.46359, 5, -47.3541, -12.1253, 29.6117, 14.1867, 67.4099, -166.438
5.47161, 5, -47.4041, -12.1879, 29.7444, 14.4728, 67.489, -166.373
5.48624, 5, -47.5423, -12.3585, 30.1232, 15.2966, 67.7114, -166.184
5.48886, 5, -47.5423, -12.3585, 30.1232, 15.5524, 67.7796, -166.126
5.49557, 5, -47.6299, -12.4661, 30.3689, 15.8257, 67.8518, -166.064
5.50357, 5, -47.7282, -12.5868, 30.6467, 16.4169, 68.0073, -165.931
5.51395, 5, -47.892, -12.7886, 31.1131, 17.3881, 68.2575, -165.716
5.51955, 5, -47.9498, -12.8602, 31.2784, 17.7267, 68.3433, -165.642
5.52979, 5, -48.0686, -13.0081, 31.6192, 18.415, 68.6007, -165.419
5.54019, 5, -48.1899, -13.1594, 31.9678, 19.4561, 68.7694, -165.272
5.54654, 5, -48.3713, -13.3846, 32.4954, 20.1394, 68.9337, -165.126
5.55163, 5, -48.4301, -13.4575, 32.6702, 20.4743, 69.0142, -165.053
5.56058, 5, -48.542, -13.5984, 33.0139, 21.1244, 69.173, -164.898
5.56764, 6, -48.6422, -13.7304, 33.3446, 21.7375, 69.3306, -164.724
5.57859, 6, -48.7612, -13.9098, 33.8078, 22.5727, 69.5699, -164.398
5.58371, 7, -48.7908, -13.9652, 33.952, 22.8262, 69.6515, -164.265
5.59159, 7, -48.8336, -14.0704, 34.2256, 23.2961, 69.8188, -163.957
5.60183, 8, -48.8537, -14.1673, 34.6003, 23.9197, 70.0826, -163.373
5.60857, 8, -48.8536, -14.2547, 34.7176, 24.1103, 70.1743, -163.147
5.61834, 9, -48.8227, -14.3701, 35.0538, 24.6484, 70.4626, -162.38
5.62757, 9, -48.7854, -14.4397, 35.2684, 24.9919, 70.6665, -161.809
5.63238, 9, -48.7626, -14.4732, 35.3746, 25.1624, 70.772, -161.511
5.63961, 10, -48.7101, -14.5384, 35.5865, 25.5043, 70.9899, -160.896
5.65079, 11, -48.6149, -14.6346, 35.9046, 26.0254, 71.3311, -159.944
5.6566, 11, -48.5795, -14.6664, 36.0109, 26.2018, 71.4475, -159.624
5.66464, 11, -48.5046, -14.7297, 36.2239, 26.5594, 71.6822, -158.984
5.67157, 12, -48.4264, -14.7925, 36.4356, 26.9237, 71.9188, -158.345
5.68231, 12, -48.3474, -14.8541, 36.6453, 27.2953, 72.1571, -157.382
5.68762, 13, -48.2687, -14.9133, 36.8536, 27.6751, 72.3975, -157.06
5.69888, 13, -48.1497, -14.9987, 37.1622, 28.261, 72.7645, -156.085
5.70386, 14, -48.1088, -15.0275, 37.264, 28.4603, 72.8885, -155.757
5.71523, 14, -48.0243, -15.0864, 37.4674, 28.8635, 73.1389, -154.77
5.72149, 15, -47.9361, -15.1466, 37.6698, 29.2704, 73.3906, -154.442
5.72985, 15, -47.8432, -15.2064, 37.8703, 29.678, 73.6408, -153.788
5.73663, 16, -47.7444, -15.2653, 38.0694, 30.083, 73.8871, -153.138
5.74464, 16, -47.6384, -15.3246, 38.267, 30.4836, 74.1277, -152.495
5.75264, 17, -47.5259, -15.3857, 38.4618, 30.879, 74.3618, -151.86
5.76038, 17, -47.4082, -15.4487, 38.6531, 31.2688, 74.5889, -151.231
5.77128, 18, -47.2221, -15.5457, 38.9352, 31.8456, 74.9185, -150.301
5.77738, 18, -47.1574, -15.579, 39.0277, 32.0363, 75.0259, -149.994
5.78372, 19, -47.0237, -15.6476, 39.2102, 32.417, 75.2374, -149.385
5.79265, 19, -46.8842, -15.7193, 39.391, 32.7973, 75.4452, -148.781
5.80322, 20, -46.7396, -15.7924, 39.5706, 33.1774, 75.6494, -148.183
5.80866, 20, -46.5906, -15.8663, 39.7479, 33.557, 75.85, -147.592
5.8169, 21, -46.4381, -15.941, 39.9229, 33.9363, 76.0468, -147.007
5.8245, 21, -46.2823, -16.0173, 40.0963, 34.3154, 76.2399, -146.429
5.8335, 22, -46.1231, -16.0951, 40.2681, 34.6938, 76.4292, -145.856
5.84069, 22, -45.9597, -16.1745, 40.4368, 35.0708, 76.615, -145.29
5.84856, 23, -45.7906, -16.2558, 40.6026, 35.4455, 76.7969, -144.728
5.85701, 23, -45.6146, -16.3393, 40.7659, 35.8163, 76.9735, -144.171
5.86428, 24, -45.4306, -16.4253, 40.9254, 36.1819, 77.1444, -143.621
5.87489, 24, -45.2387, -16.5134, 41.0803, 36.5398, 77.3083, -143.076
5.8808, 25, -45.0392, -16.6033, 41.2309, 36.8883, 77.4643, -142.537
5.88935, 25, -44.8329, -16.694, 41.3771, 37.2268, 77.6125, -142.004
5.89621, 26, -44.62, -16.7857, 41.5188, 37.5554, 77.7532, -141.475
5.90519, 26, -44.4, -16.8787, 41.6555, 37.8752, 77.8881, -140.95
5.91656, 27, -44.0568, -17.0195, 41.8504, 38.3402, 78.0821, -140.167
5.92118, 27, -43.939, -17.0663, 41.9125, 38.4917, 78.1453, -139.906
5.92833, 28, -43.8195, -17.1128, 41.9731, 38.6417, 78.2701, -139.384
5.93554, 28, -43.5751, -17.2049, 42.0892, 38.9365, 78.3316, -139.124
5.94606, 29, -43.1948, -17.3404, 42.2503, 39.3656, 78.5144, -138.341
5.95349, 29, -42.9335, -17.4284, 42.3488, 39.6427, 78.6337, -137.818
5.96166, 30, -42.6657, -17.5137, 42.4398, 39.9118, 78.7504, -137.296
5.96908, 30, -42.3901, -17.5958, 42.5238, 40.1723, 78.8645, -136.774
5.97857, 31, -42.1064, -17.6752, 42.6005, 40.4242, 78.9751, -136.253
5.987, 31, -41.8149, -17.7522, 42.6703, 40.6673, 79.083, -135.733
5.9943, 32, -41.5164, -17.8266, 42.7332, 40.9014, 79.1874, -135.213
5.99957, 32, -41.3648, -17.8627, 42.7621, 41.0152, 79.2385, -134.954
6.00897, 33, -41.0566, -17.9665, 42.8378, 41.3447, 79.3882, -134.178
6.01555, 33, -40.7414, -17.9997, 42.8594, 41.4506, 79.4369, -133.92
6.02358, 34, -40.4196, -18.0644, 42.8971, 41.6562, 79.5325, -133.403
6.03162, 34, -40.0926, -18.1266, 42.9274, 41.8542, 79.6258, -132.887
6.04163, 35, -39.5929, -18.214, 42.9596, 42.1363, 79.7615, -132.116
6.0509, 35, -39.2524, -18.2677, 42.9724, 42.3152, 79.8489, -131.604
6.05962, 36, -38.9047, -18.3179, 42.9784, 42.486, 79.9339, -131.093
6.06359, 36, -38.7282, -18.3419, 42.9789, 42.5686, 79.9757, -130.837
6.07352, 37, -38.3704, -18.409, 42.9706, 42.8049, 80.0975, -130.074
6.08059, 37, -38.0071, -18.4296, 42.9644, 42.8798, 80.1373, -129.821
6.08858, 38, -37.6383, -18.468, 42.9469, 43.0243, 80.215, -129.315
6.09556, 38, -37.2648, -18.5029, 42.923, 43.1615, 80.2907, -128.811
6.10665, 39, -36.6959, -18.5491, 42.8743, 43.353, 80.3996, -128.058
6.11489, 39, -36.3106, -18.5752, 42.8335, 43.4718, 80.4703, -127.558
6.11957, 40, -36.1158, -18.5869, 42.8106, 43.5283, 80.5048, -127.309
6.129, 40, -35.7212, -18.6074, 42.76, 43.6361, 80.5726, -126.812
6.13837, 41, -35.1187, -18.6307, 42.6717, 43.7841, 80.6701, -126.07
6.14362, 41, -34.9153, -18.6367, 42.6391, 43.8298, 80.7017, -125.824
6.15161, 42, -34.5057, -18.6461, 42.569, 43.9163, 80.7639, -125.334
6.15961, 42, -34.093, -18.6523, 42.4924, 43.9954, 80.8231, -124.845
6.16754, 43, -33.6771, -18.6554, 42.4098, 44.0673, 80.8817, -124.359
6.17673, 43, -33.257, -18.6552, 42.3212, 44.1322, 80.9377, -123.875
6.18357, 44, -32.8312, -18.6513, 42.2269, 44.1901, 80.9922, -123.394
6.19166, 44, -32.3989, -18.6436, 42.1268, 44.2403, 81.0458, -122.916
6.20315, 45, -31.7387, -18.6249, 41.9657, 44.3028, 81.1217, -122.202
6.20953, 45, -31.5163, -18.6169, 41.909, 44.3198, 81.1466, -121.965
6.21554, 46, -31.0695, -18.5985, 41.791, 44.3481, 81.195, -121.492
6.22414, 46, -30.6212, -18.5764, 41.6672, 44.3684, 81.2406, -121.023
6.23164, 47, -30.1698, -18.5505, 41.5375, 44.3813, 81.2856, -120.556
6.24058, 47, -29.7134, -18.5199, 41.4019, 44.3872, 81.3299, -120.09
6.25152, 48, -29.0165, -18.466, 41.1872, 44.382, 81.3931, -119.396
6.25603, 48, -28.781, -18.4459, 41.1125, 44.3757, 81.4139, -119.165
6.26788, 49, -28.0685, -18.3788, 40.8799, 44.3443, 81.4766, -118.477
6.27662, 50, -27.5905, -18.3285, 40.7172, 44.3112, 81.5172, -118.018
6.27973, 50, -27.3505, -18.3016, 40.6334, 44.291, 81.5374, -117.79
6.29128, 50, -26.8673, -18.2436, 40.4607, 44.2177, 81.6002, -117.105
6.29575, 51, -26.3774, -18.1799, 40.2817, 44.1883, 81.6214, -116.878
6.30459, 51, -25.8795, -18.1108, 40.096, 44.1219, 81.6637, -116.423
6.31182, 52, -25.3751, -18.0361, 39.9028, 44.0461, 81.7067, -115.969
6.32054, 52, -24.8673, -17.9562, 39.7026, 43.9594, 81.7514, -115.516
6.32933, 53, -24.3575, -17.8704, 39.4965, 43.8626, 81.7962, -115.063
6.33764, 53, -23.8441, -17.7785, 39.2825, 43.7557, 81.8417, -114.611
6.34566, 54, -23.3245, -17.6801, 39.0604, 43.6379, 81.8902, -114.159
6.35258, 54, -22.7965, -17.5756, 38.8313, 43.5089, 81.9406, -113.707
6.36139, 55, -22.261, -17.4651, 38.5941, 43.3682, 81.9932, -113.255
6.36824, 55, -21.7215, -17.3487, 38.3495, 43.2156, 82.0493, -112.802
6.37748, 56, -21.1801, -17.2266, 38.099, 43.0518, 82.106, -112.349
6.38643, 56, -20.635, -17.0987, 37.8415, 42.8771, 82.1644, -111.898
6.39327, 57, -20.0824, -16.965, 37.5781, 42.6917, 82.2241, -111.447
6.40171, 57, -19.5202, -16.8254, 37.3085, 42.4948, 82.2842, -110.997
6.40954, 58, -18.9508, -16.6798, 37.0324, 42.2854, 82.347, -110.546
6.41624, 58, -18.6646, -16.6049, 36.7502, 42.063, 82.4109, -110.096
6.42486, 59, -17.8022, -16.3722, 36.4605, 41.8279, 82.4784, -109.647
6.43361, 59, -17.2211, -16.2112, 36.1642, 41.5797, 82.5482, -109.197
6.44353, 60, -16.6301, -16.0455, 35.8611, 41.3182, 82.621, -108.748
6.45323, 60, -15.7275, -15.7864, 35.3969, 40.9013, 82.733, -108.074
6.4556, 61, -15.7275, -15.7864, 35.3969, 40.9013, 82.733, -108.074
6.46355, 61, -15.1208, -15.6074, 35.0804, 40.6073, 82.81, -107.625
6.4716, 62, -14.5114, -15.4243, 34.759, 40.3009, 82.8888, -107.177
6.47985, 62, -13.8953, -15.2367, 34.4324, 39.9813, 82.9697, -106.728
6.48982, 63, -12.9523, -14.9441, 33.9342, 39.4778, 83.0953, -106.054
6.49554, 63, -12.634, -14.8433, 33.7657, 39.3034, 83.1384, -105.829
6.50563, 64, -11.6723, -14.5325, 33.2513, 38.7594, 83.273, -105.154
6.51586, 65, -11.0244, -14.317, 32.9003, 38.3786, 83.3683, -104.701
6.51996, 65, -10.6964, -14.2065, 32.7222, 38.1821, 83.4179, -104.474
6.5276, 65, -10.0321, -13.9809, 32.3612, 37.7758, 83.522, -104.018
6.53554, 66, -9.35756, -13.749, 31.9949, 37.3504, 83.632, -103.561
6.5436, 66, -8.67596, -13.51, 31.6236, 36.9072, 83.7485, -103.102
6.55155, 67, -7.98929, -13.2639, 31.246, 36.4459, 83.8711, -102.64
6.55959, 67, -7.29437, -13.0111, 30.863, 35.9685, 84.0001, -102.177
6.57038, 68, -6.59032, -12.7503, 30.2807, 35.2244, 84.2053, -101.478
6.57555, 68, -5.87893, -12.483, 30.0848, 34.9698, 84.2768, -101.243
6.58364, 69, -5.16251, -12.2097, 29.6902, 34.4513, 84.4244, -100.774
6.59513, 69, -4.07594, -11.7871, 29.0925, 33.6512, 84.6565, -100.066
6.59961, 70, -3.70955, -11.6429, 28.8928, 33.3787, 84.7365, -99.8295
6.6108, 71, -2.59852, -11.1971, 28.2927, 32.5413, 84.985, -99.1157
6.61659, 71, -2.22496, -11.0446, 28.0919, 32.2555, 85.0709, -98.8772
6.6247, 71, -1.47288, -10.7346, 27.6884, 31.6728, 85.2491, -98.3984
6.63153, 72, -0.714574, -10.4184, 27.2829, 31.0743, 85.4362, -97.9175
6.63958, 72, 0.0488943, -10.097, 26.8758, 30.4593, 85.6322, -97.4344
6.64997, 73, 0.815611, -9.76895, 26.4674, 29.833, 85.9416, -96.7077
6.65555, 73, 1.58583, -9.43436, 26.0592, 29.196, 86.0485, -96.4653
6.66514, 74, 2.35997, -9.09392, 25.6527, 28.5509, 86.2682, -95.9796
6.67464, 75, 3.52655, -8.57364, 25.0509, 27.5713, 86.61, -95.2499
6.68056, 75, 3.91636, -8.39687, 24.8529, 27.2419, 86.7269, -95.0061
6.68804, 75, 4.69736, -8.03891, 24.4601, 26.5818, 86.9647, -94.518
6.70044, 76, 5.87153, -7.49147, 23.88, 25.5891, 87.3328, -93.7821
6.70713, 76, 6.26355, -7.30631, 23.6891, 25.2571, 87.4585, -93.5357
6.71515, 77, 7.43996, -6.74014, 23.1221, 24.2623, 87.847, -92.7935
6.71963, 77, 7.83285, -6.54711, 22.9347, 23.9298, 87.981, -92.545
6.72859, 78, 8.61978, -6.15263, 22.5618, 23.2621, 88.2567, -92.0467
6.73555, 78, 9.4081, -5.74848, 22.1925, 22.5886, 88.5446, -91.5446
6.75131, 79, 10.9894, -4.9183, 21.4615, 21.2211, 89.1634, -90.5261
6.75722, 80, 11.3847, -4.7059, 21.2803, 20.8766, 89.3265, -90.2682
6.76773, 80, 12.5641, -4.0525, 20.7446, 19.8418, 89.8311, -89.4863
6.76897, 80, 12.5641, -4.0525, 20.7446, 19.8418, 89.8311, -89.4863
6.77551, 81, 13.3423, -3.60514, 20.3946, 19.1603, 90.1786, -88.9576
6.78349, 81, 14.1144, -3.15136, 20.0519, 18.4911, 90.5325, -88.4241
6.79214, 82, 14.8785, -2.69155, 19.7186, 17.838, 90.8908, -87.8875
6.7994, 82, 15.6337, -2.22364, 19.3963, 17.2019, 91.2528, -87.3485
6.80742, 83, 16.3782, -1.74809, 19.0836, 16.5843, 91.6182, -86.8078
6.81574, 83, 17.1106, -1.26633, 18.7807, 15.9863, 91.9882, -86.2662
6.8238, 83, 17.83, -0.779096, 18.4861, 15.406, 92.364, -85.7251
6.83155, 84, 18.5341, -0.287772, 18.1998, 14.8443, 92.7467, -85.185
6.83971, 84, 19.2222, 0.208233, 17.9191, 14.3017, 93.1374, -84.6451
6.84768, 85, 19.893, 0.710509, 17.6438, 13.7779, 93.5368, -84.1064
6.85574, 85, 20.5465, 1.21827, 17.3741, 13.2728, 93.9442, -83.5685
6.86444, 86, 21.1828, 1.72978, 17.1092, 12.7867, 94.3581, -83.0314
6.87199, 86, 21.8035, 2.24654, 16.8511, 12.3198, 94.7782, -82.4929
6.88045, 87, 22.4103, 2.77198, 16.5988, 11.8725, 95.2047, -81.9524
6.888, 87, 23.0057, 3.30727, 16.3516, 11.4445, 95.6374, -81.4089
6.89596, 87, 23.5917, 3.84924, 16.1094, 11.0344, 96.0761, -80.862
6.90451, 88, 24.1681, 4.3962, 15.8711, 10.6412, 96.52, -80.3081
6.91203, 88, 24.4524, 4.95137, 15.639, 10.2653, 96.9684, -79.7467
6.91938, 89, 25.0124, 5.23321, 15.5256, 10.0837, 97.1941, -79.4625
6.92743, 89, 25.5635, 5.80585, 15.3028, 9.73416, 97.6478, -78.8867
6.93535, 90, 26.1103, 6.38872, 15.085, 9.40139, 98.1041, -78.2992
6.94338, 90, 26.6516, 6.98064, 14.8732, 9.08504, 98.5644, -77.6979
6.95146, 91, 27.1813, 7.5807, 14.6668, 8.78555, 99.0305, -77.0824
6.95945, 91, 27.6969, 8.18998, 14.4644, 8.5032, 99.5034, -76.4543
6.96738, 92, 28.202, 8.81, 14.2653, 8.23934, 99.9837, -75.8127
6.97538, 92, 28.7006, 9.44141, 14.0691, 7.99486, 100.471, -75.1599
6.98347, 93, 29.1919, 10.0822, 13.876, 7.77025, 100.965, -74.4981
6.99145, 93, 29.6726, 10.7298, 13.6877, 7.56656, 101.462, -73.8274
6.99938, 94, 30.1402, 11.3843, 13.506, 7.38528, 101.96, -73.1484
7.00899, 94, 30.8153, 12.3759, 13.2457, 7.15697, 102.706, -72.1188
7.01538, 95, 31.0335, 12.7083, 13.1624, 7.09258, 102.953, -71.7729
7.02345, 95, 31.4595, 13.3743, 13.0017, 6.98192, 103.445, -71.0763
7.03144, 96, 31.8711, 14.0417, 12.8483, 6.89446, 103.933, -70.3744
7.03938, 96, 32.2662, 14.7096, 12.7011, 6.83185, 104.418, -69.6685
7.04839, 97, 32.6445, 15.3779, 12.5604, 6.79176, 104.896, -68.9576
7.05645, 97, 33.0075, 16.0438, 12.4271, 6.77256, 105.369, -68.2433
7.06338, 98, 33.3557, 16.7051, 12.3025, 6.77475, 105.833, -67.5294
7.07146, 98, 33.6894, 17.3591, 12.1874, 6.79849, 106.286, -66.8148
7.08044, 99, 34.0082, 18.0043, 12.0825, 6.84136, 106.726, -66.1022
7.08842, 99, 34.313, 18.6403, 11.988, 6.90424, 107.15, -65.3956
7.09546, 100, 34.6056, 19.2664, 11.9035, 6.9851, 107.559, -64.6941
7.10351, 100, 34.886, 19.8823, 11.8288, 7.08286, 107.952, -63.999
7.11134, 101, 35.153, 20.4859, 11.7626, 7.1962, 108.329, -63.3136
7.11945, 101, 35.4066, 21.0756, 11.7038, 7.32305, 108.691, -62.637
7.12738, 101, 35.6476, 21.6507, 11.6527, 7.46115, 109.039, -61.9704
7.13544, 102, 35.8757, 22.2108, 11.6086, 7.60825, 109.372, -61.3167
7.14339, 102, 36.091, 22.7564, 11.5712, 7.76215, 109.691, -60.6767
7.15141, 103, 36.2959, 23.2867, 11.5407, 7.9213, 109.994, -60.0509
7.15951, 103, 36.4936, 23.8016, 11.5177, 8.08569, 110.281, -59.4396
7.16759, 104, 36.686, 24.303, 11.5031, 8.25586, 110.553, -58.8434
7.17539, 104, 36.8735, 24.792, 11.496, 8.4329, 110.807, -58.259
7.18345, 104, 37.0568, 25.2687, 11.4951, 8.61857, 111.043, -57.684
7.19137, 104, 37.2356, 25.7332, 11.5001, 8.81311, 111.262, -57.117
7.19942, 104, 37.4055, 26.1846, 11.51, 9.01635, 111.463, -56.5571
7.20745, 104, 37.5652, 26.6232, 11.5235, 9.22769, 111.65, -56.0032
7.21537, 104, 37.7171, 27.0492, 11.5399, 9.44419, 111.824, -55.4577
7.22353, 104, 37.8654, 27.463, 11.5585, 9.66364, 111.987, -54.9235
7.23138, 104, 38.0125, 27.8634, 11.5782, 9.88293, 112.142, -54.405
7.23948, 104, 38.1573, 28.2502, 11.5982, 10.0995, 112.289, -53.9045
7.24743, 104, 38.2982, 28.6238, 11.6178, 10.3122, 112.429, -53.4242
7.25546, 104, 38.4339, 28.9835, 11.6364, 10.5187, 112.561, -52.9668
7.26358, 104, 38.5628, 29.3271, 11.6544, 10.7182, 112.686, -52.5328
7.27199, 104, 38.684, 29.6534, 11.6714, 10.9095, 112.803, -52.1241
7.28038, 104, 38.7973, 29.9606, 11.6872, 11.0919, 112.913, -51.7398
7.28755, 104, 38.9029, 30.2497, 11.7019, 11.2648, 113.015, -51.3802
7.29538, 104, 39.0009, 30.5197, 11.7156, 11.4278, 113.109, -51.0463
7.30342, 104, 39.0912, 30.77, 11.7279, 11.5803, 113.197, -50.7378
7.31147, 104, 39.1733, 31.0009, 11.7391, 11.7218, 113.276, -50.4543
7.31946, 104, 39.2468, 31.212, 11.7494, 11.8518, 113.349, -50.1961
7.32757, 104, 39.3119, 31.4029, 11.759, 11.9701, 113.414, -49.9631
7.3356, 104, 39.3692, 31.5747, 11.7675, 12.0767, 113.472, -49.7553
7.34397, 104, 39.4195, 31.727, 11.7749, 12.1709, 113.523, -49.5727
7.35238, 104, 39.4635, 31.8603, 11.7816, 12.2532, 113.567, -49.4146
7.35983, 104, 39.5016, 31.9759, 11.7877, 12.3229, 113.604, -49.2808
7.36817, 104, 39.5334, 32.0747, 11.7932, 12.3815, 113.634, -49.1704
7.3759, 104, 39.5594, 32.1573, 11.798, 12.4278, 113.659, -49.0814
7.38448, 104, 39.5808, 32.2254, 11.8023, 12.4637, 113.677, -49.0124
7.39195, 104, 39.5978, 32.2808, 11.8063, 12.4911, 113.691, -48.9613
7.40006, 104, 39.6113, 32.3249, 11.8098, 12.511, 113.7, -48.9252
7.40801, 104, 39.6218, 32.3587, 11.8131, 12.5247, 113.706, -48.9007
7.41598, 104, 39.626, 32.3723, 11.8146, 12.5337, 113.71, -48.8853
7.42396, 104, 39.6326, 32.3941, 11.8173, 12.5368, 113.711, -48.8766
7.43142, 104, 39.6367, 32.41, 11.8195, 12.5409, 113.713, -48.8741
7.44051, 105, 39.6393, 32.4208, 11.8218, 12.5436, 113.714, -48.8702
7.44737, 105, 39.6406, 32.4275, 11.8224, 12.5441, 113.714, -48.8696
7.45542, 105, 39.6409, 32.4318, 11.8233, 12.5446, 113.714, -48.869
7.46342, 105, 39.6405, 32.4347, 11.8242, 12.5449, 113.714, -48.8689
7.47136, 105, 39.6397, 32.4367, 11.825, 12.545, 113.714, -48.8688
7.48068, 105, 39.638, 32.4389, 11.8259, 12.5451, 113.714, -48.8689
7.4874, 105, 39.6373, 32.4395, 11.8261, 12.5451, 113.714, -48.869
7.49538, 105, 39.6361, 32.4407, 11.8266, 12.5451, 113.714, -48.8692
7.50497, 105, 39.6351, 32.4424, 11.8274, 12.5451, 113.714, -48.8696
7.51306, 105, 39.6347, 32.4435, 11.828, 12.5452, 113.714, -48.8698
7.51938, 105, 39.6346, 32.444, 11.8283, 12.5452, 113.714, -48.87
7.52893, 105, 39.6342, 32.4454, 11.829, 12.5452, 113.714, -48.8704
7.5371, 105, 39.6339, 32.446, 11.8293, 12.5452, 113.714, -48.8706
7.54339, 105, 39.6338, 32.4463, 11.8294, 12.5452, 113.714, -48.8707
7.55237, 105, 39.6335, 32.4467, 11.8297, 12.5451, 113.714, -48.8709
7.56042, 105, 39.6333, 32.4469, 11.83, 12.5451, 113.714, -48.8711
