hehonglu123/Motion-Primitive-Planning/simulation/robotstudio_sim/scripts/fitting_output/slope_blend/curve_exe_v50_fine.csv
timestamp, cmd_num, J1, J2, J3, J4, J5, J6
0, 1, -0.805201, 64.4292, 8.48325, 44.5936, -96.4064, 169.862
0.002, 1, -0.805201, 64.4292, 8.48325, 44.5936, -96.4064, 169.862
0.004, 1, -0.805201, 64.4292, 8.48325, 44.5936, -96.4064, 169.862
0.008, 1, -0.805201, 64.4292, 8.48325, 44.5936, -96.4064, 169.862
0.011, 1, -0.805201, 64.4292, 8.48325, 44.5936, -96.4064, 169.862
0.016, 1, -0.805201, 64.4292, 8.48325, 44.5936, -96.4064, 169.862
0.02, 1, -0.805201, 64.4292, 8.48325, 44.5936, -96.4064, 169.862
0.024, 1, -0.805201, 64.4292, 8.48325, 44.5936, -96.4064, 169.862
0.028, 1, -0.805201, 64.4292, 8.48325, 44.5936, -96.4064, 169.862
0.032, 1, -0.805201, 64.4292, 8.48325, 44.5936, -96.4064, 169.862
0.036, 1, -0.805192, 64.4292, 8.48325, 44.5936, -96.4064, 169.862
0.04, 1, -0.805127, 64.4292, 8.48325, 44.5936, -96.4064, 169.862
0.044, 1, -0.804904, 64.4291, 8.48326, 44.5936, -96.4064, 169.862
0.048, 1, -0.804376, 64.429, 8.48328, 44.5936, -96.4064, 169.862
0.052, 1, -0.803401, 64.4287, 8.48331, 44.5937, -96.4064, 169.862
0.056, 1, -0.801869, 64.4282, 8.48334, 44.5938, -96.4063, 169.861
0.06, 1, -0.799706, 64.4274, 8.48336, 44.594, -96.4061, 169.861
0.064, 1, -0.796862, 64.4264, 8.48332, 44.5945, -96.4057, 169.86
0.068, 1, -0.793303, 64.4249, 8.48319, 44.5953, -96.4051, 169.858
0.072, 1, -0.788981, 64.4231, 8.48288, 44.5966, -96.404, 169.855
0.076, 1, -0.783799, 64.4207, 8.48233, 44.5986, -96.4024, 169.85
0.08, 1, -0.777601, 64.4178, 8.48144, 44.6015, -96.3999, 169.843
0.084, 1, -0.770186, 64.4142, 8.48009, 44.6056, -96.3965, 169.833
0.088, 1, -0.761354, 64.4099, 8.47815, 44.6112, -96.3919, 169.82
0.092, 1, -0.750947, 64.4048, 8.47546, 44.6186, -96.3857, 169.803
0.096, 1, -0.73886, 64.3989, 8.47187, 44.6282, -96.3777, 169.78
0.1, 1, -0.725009, 64.3921, 8.46719, 44.6403, -96.3675, 169.752
0.104, 1, -0.709295, 64.3844, 8.46123, 44.6554, -96.3549, 169.717
0.108, 1, -0.691587, 64.3757, 8.45383, 44.6739, -96.3394, 169.673
0.112, 1, -0.671756, 64.3661, 8.44484, 44.696, -96.3209, 169.622
0.116, 1, -0.649718, 64.3554, 8.4341, 44.722, -96.299, 169.561
0.12, 1, -0.625453, 64.3438, 8.42147, 44.7524, -96.2736, 169.49
0.124, 1, -0.598988, 64.3314, 8.40683, 44.7873, -96.2444, 169.409
0.128, 1, -0.570368, 64.3184, 8.39011, 44.8268, -96.2112, 169.317
0.131, 1, -0.53964, 64.3048, 8.37125, 44.8711, -96.174, 169.214
0.136, 1, -0.506841, 64.2906, 8.35023, 44.9202, -96.1328, 169.099
0.139, 1, -0.471976, 64.2759, 8.32711, 44.974, -96.0877, 168.974
0.144, 1, -0.435008, 64.2605, 8.30194, 45.0323, -96.0387, 168.838
0.148, 1, -0.395898, 64.2441, 8.27486, 45.0949, -95.9861, 168.692
0.152, 1, -0.354664, 64.2269, 8.246, 45.1615, -95.9301, 168.537
0.156, 1, -0.311396, 64.2087, 8.21551, 45.2319, -95.8711, 168.374
0.16, 1, -0.266227, 64.1896, 8.18357, 45.3055, -95.8092, 168.202
0.164, 1, -0.219273, 64.1696, 8.15035, 45.3821, -95.7449, 168.024
0.168, 1, -0.170613, 64.1488, 8.11606, 45.4612, -95.6785, 167.84
0.172, 1, -0.120314, 64.1272, 8.08088, 45.5424, -95.6103, 167.651
0.176, 1, -0.0684714, 64.1047, 8.04499, 45.6254, -95.5406, 167.457
0.18, 1, -0.0152167, 64.0815, 8.00857, 45.7097, -95.4698, 167.261
0.184, 1, 0.0393074, 64.0576, 7.97174, 45.7951, -95.3981, 167.062
0.188, 1, 0.0949551, 64.0331, 7.93462, 45.8814, -95.3257, 166.861
0.192, 1, 0.151572, 64.008, 7.8973, 45.9682, -95.2528, 166.659
0.196, 1, 0.209003, 63.9825, 7.85984, 46.0555, -95.1795, 166.456
0.2, 1, 0.26712, 63.9567, 7.82229, 46.1431, -95.106, 166.252
0.204, 1, 0.325833, 63.9307, 7.78468, 46.2309, -95.0323, 166.047
0.208, 1, 0.385066, 63.9044, 7.74705, 46.3188, -94.9585, 165.842
0.212, 1, 0.444726, 63.878, 7.70941, 46.4068, -94.8846, 165.637
0.216, 1, 0.504702, 63.8515, 7.67177, 46.4948, -94.8107, 165.432
0.22, 1, 0.564892, 63.8249, 7.63413, 46.5828, -94.7368, 165.227
0.224, 1, 0.625216, 63.7983, 7.59651, 46.6709, -94.6629, 165.022
0.228, 1, 0.68562, 63.7716, 7.55891, 46.7589, -94.5891, 164.817
0.232, 1, 0.746068, 63.745, 7.52132, 46.8468, -94.5153, 164.612
0.236, 1, 0.806534, 63.7183, 7.48375, 46.9347, -94.4415, 164.407
0.24, 1, 0.867001, 63.6917, 7.4462, 47.0226, -94.3677, 164.203
0.244, 1, 0.927458, 63.665, 7.40867, 47.1105, -94.294, 163.998
0.248, 1, 0.987897, 63.6384, 7.37115, 47.1983, -94.2203, 163.793
0.252, 1, 1.04831, 63.6117, 7.33367, 47.286, -94.1466, 163.589
0.256, 1, 1.1087, 63.5851, 7.2962, 47.3737, -94.073, 163.385
0.26, 1, 1.16906, 63.5585, 7.25875, 47.4613, -93.9994, 163.18
0.264, 1, 1.22939, 63.532, 7.22132, 47.5489, -93.9259, 162.976
0.268, 1, 1.28968, 63.5054, 7.18392, 47.6365, -93.8524, 162.772
0.272, 1, 1.34994, 63.4788, 7.14654, 47.724, -93.779, 162.568
0.276, 1, 1.41017, 63.4523, 7.10918, 47.8114, -93.7056, 162.365
0.28, 1, 1.47036, 63.4258, 7.07184, 47.8988, -93.6322, 162.161
0.284, 1, 1.53051, 63.3993, 7.03452, 47.9861, -93.5589, 161.958
0.288, 1, 1.59063, 63.3728, 6.99723, 48.0734, -93.4857, 161.754
0.292, 1, 1.65072, 63.3463, 6.95996, 48.1607, -93.4124, 161.551
0.296, 1, 1.71077, 63.3198, 6.92271, 48.2479, -93.3393, 161.348
0.3, 1, 1.77078, 63.2934, 6.88548, 48.335, -93.2661, 161.145
0.304, 1, 1.83076, 63.267, 6.84828, 48.4221, -93.193, 160.942
0.308, 1, 1.8907, 63.2405, 6.8111, 48.5091, -93.12, 160.739
0.312, 1, 1.9506, 63.2141, 6.77394, 48.5961, -93.047, 160.537
0.316, 1, 2.01047, 63.1878, 6.7368, 48.683, -92.974, 160.334
0.32, 1, 2.0703, 63.1614, 6.69969, 48.7699, -92.9011, 160.132
0.324, 1, 2.1301, 63.135, 6.6626, 48.8567, -92.8282, 159.929
0.328, 1, 2.18986, 63.1087, 6.62553, 48.9434, -92.7554, 159.727
0.332, 1, 2.24958, 63.0824, 6.58848, 49.0301, -92.6826, 159.525
0.336, 1, 2.30926, 63.0561, 6.55146, 49.1168, -92.6099, 159.323
0.34, 1, 2.3689, 63.0298, 6.51446, 49.2034, -92.5372, 159.122
0.344, 1, 2.42851, 63.0036, 6.47749, 49.2899, -92.4646, 158.92
0.348, 1, 2.48808, 62.9773, 6.44054, 49.3764, -92.392, 158.718
0.352, 1, 2.54761, 62.9511, 6.40361, 49.4628, -92.3194, 158.517
0.356, 1, 2.60711, 62.9249, 6.3667, 49.5492, -92.2469, 158.316
0.36, 1, 2.66656, 62.8987, 6.32982, 49.6355, -92.1745, 158.115
0.364, 1, 2.72598, 62.8725, 6.29296, 49.7218, -92.1021, 157.914
0.368, 1, 2.78536, 62.8463, 6.25613, 49.808, -92.0297, 157.713
0.372, 1, 2.8447, 62.8202, 6.21932, 49.8942, -91.9574, 157.512
0.376, 1, 2.904, 62.794, 6.18253, 49.9803, -91.8851, 157.312
0.38, 1, 2.96327, 62.7679, 6.14577, 50.0663, -91.8129, 157.111
0.384, 1, 3.02249, 62.7418, 6.10903, 50.1523, -91.7407, 156.911
0.388, 1, 3.08168, 62.7157, 6.07232, 50.2382, -91.6686, 156.711
0.392, 1, 3.14083, 62.6897, 6.03563, 50.3241, -91.5965, 156.51
0.396, 1, 3.19993, 62.6636, 5.99896, 50.4099, -91.5245, 156.311
0.4, 1, 3.259, 62.6376, 5.96232, 50.4957, -91.4525, 156.111
0.404, 1, 3.31803, 62.6116, 5.92571, 50.5814, -91.3805, 155.911
0.408, 1, 3.37702, 62.5856, 5.88911, 50.6671, -91.3087, 155.711
0.412, 1, 3.43597, 62.5596, 5.85255, 50.7526, -91.2368, 155.512
0.416, 1, 3.49488, 62.5336, 5.816, 50.8382, -91.165, 155.313
0.42, 1, 3.55375, 62.5077, 5.77948, 50.9236, -91.0933, 155.114
0.424, 1, 3.61258, 62.4818, 5.74299, 51.0091, -91.0216, 154.915
0.428, 1, 3.67138, 62.4559, 5.70652, 51.0944, -90.9499, 154.716
0.432, 1, 3.73013, 62.43, 5.67008, 51.1797, -90.8783, 154.517
0.436, 1, 3.78884, 62.4041, 5.63366, 51.2649, -90.8068, 154.318
0.44, 1, 3.8475, 62.3783, 5.59727, 51.3501, -90.7353, 154.12
0.444, 1, 3.90613, 62.3524, 5.5609, 51.4353, -90.6639, 153.922
0.448, 1, 3.96472, 62.3266, 5.52456, 51.5203, -90.5925, 153.723
0.452, 1, 4.02327, 62.3008, 5.48824, 51.6053, -90.5211, 153.525
0.456, 1, 4.08177, 62.275, 5.45195, 51.6903, -90.4498, 153.328
0.46, 1, 4.14024, 62.2493, 5.41568, 51.7751, -90.3786, 153.13
0.464, 1, 4.19866, 62.2235, 5.37944, 51.86, -90.3074, 152.932
0.468, 1, 4.25705, 62.1978, 5.34323, 51.9447, -90.2362, 152.735
0.472, 1, 4.31539, 62.1721, 5.30704, 52.0294, -90.1651, 152.537
0.476, 1, 4.37369, 62.1464, 5.27087, 52.1141, -90.0941, 152.34
0.48, 1, 4.43195, 62.1207, 5.23474, 52.1987, -90.0231, 152.143
0.484, 1, 4.49016, 62.0951, 5.19862, 52.2832, -89.9521, 151.946
0.488, 1, 4.54834, 62.0694, 5.16254, 52.3676, -89.8812, 151.749
0.492, 1, 4.60647, 62.0438, 5.12648, 52.452, -89.8104, 151.553
0.496, 1, 4.66456, 62.0182, 5.09044, 52.5364, -89.7396, 151.356
0.5, 1, 4.72261, 61.9926, 5.05444, 52.6207, -89.6689, 151.16
0.504, 1, 4.78061, 61.9671, 5.01846, 52.7049, -89.5982, 150.964
0.508, 1, 4.83858, 61.9416, 4.9825, 52.789, -89.5275, 150.768
0.512, 1, 4.8965, 61.916, 4.94657, 52.8731, -89.4569, 150.572
0.516, 1, 4.95438, 61.8905, 4.91067, 52.9572, -89.3864, 150.376
0.52, 1, 5.01222, 61.865, 4.87479, 53.0411, -89.3159, 150.18
0.524, 1, 5.07001, 61.8396, 4.83894, 53.125, -89.2455, 149.985
0.528, 1, 5.12776, 61.8141, 4.80312, 53.2089, -89.1751, 149.789
0.532, 1, 5.18547, 61.7887, 4.76733, 53.2927, -89.1048, 149.594
0.536, 1, 5.24313, 61.7633, 4.73156, 53.3764, -89.0345, 149.399
0.54, 1, 5.30076, 61.7379, 4.69582, 53.46, -88.9643, 149.204
0.544, 1, 5.35834, 61.7125, 4.6601, 53.5436, -88.8941, 149.009
0.548, 1, 5.41587, 61.6872, 4.62441, 53.6272, -88.824, 148.815
0.552, 1, 5.47336, 61.6618, 4.58875, 53.7106, -88.754, 148.62
0.556, 1, 5.53081, 61.6365, 4.55311, 53.794, -88.684, 148.426
0.56, 1, 5.58822, 61.6112, 4.51751, 53.8774, -88.614, 148.232
0.564, 1, 5.64558, 61.5859, 4.48192, 53.9607, -88.5441, 148.038
0.568, 1, 5.7029, 61.5607, 4.44637, 54.0439, -88.4743, 147.844
0.572, 1, 5.76017, 61.5355, 4.41084, 54.127, -88.4045, 147.65
0.576, 1, 5.8174, 61.5102, 4.37534, 54.2101, -88.3347, 147.457
0.58, 1, 5.87458, 61.485, 4.33987, 54.2931, -88.265, 147.263
0.584, 1, 5.93173, 61.4599, 4.30443, 54.3761, -88.1954, 147.07
0.588, 1, 5.98882, 61.4347, 4.26901, 54.459, -88.1258, 146.877
0.592, 1, 6.04588, 61.4096, 4.23362, 54.5418, -88.0563, 146.684
0.596, 1, 6.10289, 61.3844, 4.19826, 54.6246, -87.9868, 146.491
0.6, 1, 6.15985, 61.3593, 4.16292, 54.7073, -87.9174, 146.298
0.604, 1, 6.21677, 61.3343, 4.12762, 54.7899, -87.848, 146.106
0.608, 1, 6.27364, 61.3092, 4.09234, 54.8725, -87.7787, 145.913
0.612, 1, 6.33047, 61.2842, 4.05709, 54.955, -87.7095, 145.721
0.616, 1, 6.38726, 61.2591, 4.02186, 55.0375, -87.6403, 145.529
0.62, 1, 6.444, 61.2341, 3.98667, 55.1198, -87.5711, 145.337
0.624, 1, 6.5007, 61.2091, 3.9515, 55.2021, -87.502, 145.145
0.628, 1, 6.55735, 61.1842, 3.91636, 55.2844, -87.433, 144.954
0.632, 1, 6.61395, 61.1592, 3.88124, 55.3666, -87.364, 144.762
0.636, 1, 6.67052, 61.1343, 3.84616, 55.4487, -87.2951, 144.571
0.64, 1, 6.72703, 61.1094, 3.8111, 55.5307, -87.2262, 144.38
0.644, 1, 6.7835, 61.0845, 3.77608, 55.6127, -87.1574, 144.189
0.648, 1, 6.83993, 61.0597, 3.74108, 55.6946, -87.0887, 143.998
0.652, 1, 6.89631, 61.0348, 3.7061, 55.7765, -87.02, 143.807
0.656, 1, 6.95264, 61.01, 3.67116, 55.8583, -86.9513, 143.617
0.66, 1, 7.00893, 60.9852, 3.63625, 55.94, -86.8827, 143.426
0.664, 1, 7.06517, 60.9604, 3.60136, 56.0217, -86.8142, 143.236
0.668, 1, 7.12137, 60.9357, 3.5665, 56.1032, -86.7457, 143.046
0.672, 1, 7.17752, 60.9109, 3.53167, 56.1848, -86.6773, 142.856
0.676, 1, 7.23362, 60.8862, 3.49687, 56.2662, -86.6089, 142.666
0.68, 1, 7.28968, 60.8615, 3.4621, 56.3476, -86.5406, 142.477
0.684, 1, 7.34569, 60.8368, 3.42736, 56.4289, -86.4723, 142.287
0.688, 1, 7.40166, 60.8121, 3.39264, 56.5102, -86.4041, 142.098
0.692, 1, 7.45758, 60.7875, 3.35795, 56.5914, -86.336, 141.909
0.696, 1, 7.51346, 60.7629, 3.3233, 56.6725, -86.2679, 141.72
0.7, 1, 7.56928, 60.7383, 3.28867, 56.7535, -86.1999, 141.531
0.704, 1, 7.62506, 60.7137, 3.25407, 56.8345, -86.1319, 141.342
0.708, 1, 7.6808, 60.6891, 3.2195, 56.9154, -86.064, 141.154
0.712, 1, 7.73649, 60.6646, 3.18495, 56.9963, -85.9961, 140.965
0.716, 1, 7.79213, 60.6401, 3.15044, 57.0771, -85.9283, 140.777
0.72, 1, 7.84773, 60.6156, 3.11596, 57.1578, -85.8605, 140.589
0.724, 1, 7.90327, 60.5911, 3.0815, 57.2384, -85.7929, 140.401
0.728, 1, 7.95878, 60.5667, 3.04707, 57.319, -85.7252, 140.213
0.732, 1, 8.01423, 60.5422, 3.01268, 57.3995, -85.6577, 140.026
0.736, 1, 8.06964, 60.5178, 2.97831, 57.4799, -85.5901, 139.838
0.74, 1, 8.125, 60.4934, 2.94397, 57.5603, -85.5227, 139.651
0.744, 1, 8.18032, 60.469, 2.90966, 57.6406, -85.4553, 139.464
0.748, 1, 8.23558, 60.4447, 2.87538, 57.7209, -85.3879, 139.277
0.752, 1, 8.2908, 60.4204, 2.84113, 57.801, -85.3206, 139.09
0.756, 1, 8.34598, 60.396, 2.8069, 57.8811, -85.2534, 138.904
0.76, 1, 8.4011, 60.3718, 2.77271, 57.9612, -85.1862, 138.717
0.764, 1, 8.45618, 60.3475, 2.73855, 58.0411, -85.1191, 138.531
0.768, 1, 8.51121, 60.3232, 2.70441, 58.121, -85.052, 138.345
0.772, 1, 8.5662, 60.299, 2.67031, 58.2008, -84.985, 138.159
0.776, 1, 8.62114, 60.2748, 2.63623, 58.2806, -84.9181, 137.973
0.78, 1, 8.67603, 60.2506, 2.60219, 58.3603, -84.8512, 137.787
0.784, 1, 8.73087, 60.2265, 2.56817, 58.4399, -84.7844, 137.602
0.788, 1, 8.78566, 60.2023, 2.53418, 58.5194, -84.7176, 137.416
0.792, 1, 8.84041, 60.1782, 2.50022, 58.5989, -84.6509, 137.231
0.796, 1, 8.89511, 60.1541, 2.4663, 58.6783, -84.5842, 137.046
0.8, 1, 8.94976, 60.13, 2.4324, 58.7577, -84.5176, 136.861
0.804, 1, 9.00437, 60.1059, 2.39853, 58.8369, -84.4511, 136.677
0.808, 1, 9.05893, 60.0819, 2.36469, 58.9161, -84.3846, 136.492
0.812, 1, 9.11344, 60.0579, 2.33088, 58.9953, -84.3182, 136.308
0.816, 1, 9.1679, 60.0339, 2.2971, 59.0743, -84.2518, 136.124
0.82, 1, 9.22231, 60.0099, 2.26335, 59.1533, -84.1855, 135.939
0.824, 1, 9.27668, 59.986, 2.22963, 59.2323, -84.1193, 135.756
0.828, 1, 9.331, 59.962, 2.19594, 59.3111, -84.0531, 135.572
0.832, 1, 9.38527, 59.9381, 2.16227, 59.3899, -83.987, 135.388
0.836, 1, 9.43949, 59.9142, 2.12864, 59.4686, -83.9209, 135.205
0.84, 1, 9.49367, 59.8903, 2.09504, 59.5473, -83.8549, 135.022
0.844, 1, 9.5478, 59.8665, 2.06147, 59.6259, -83.7889, 134.839
0.848, 1, 9.60188, 59.8427, 2.02792, 59.7044, -83.723, 134.656
0.852, 1, 9.65591, 59.8189, 1.99441, 59.7828, -83.6572, 134.473
0.856, 1, 9.70989, 59.7951, 1.96093, 59.8612, -83.5914, 134.29
0.86, 1, 9.76382, 59.7713, 1.92747, 59.9395, -83.5257, 134.108
0.864, 1, 9.81771, 59.7476, 1.89405, 60.0177, -83.46, 133.926
0.868, 1, 9.87155, 59.7238, 1.86066, 60.0959, -83.3944, 133.744
0.872, 1, 9.92534, 59.7001, 1.82729, 60.174, -83.3289, 133.562
0.876, 1, 9.97909, 59.6765, 1.79396, 60.252, -83.2634, 133.38
0.88, 1, 10.0328, 59.6528, 1.76065, 60.3299, -83.1979, 133.198
0.884, 1, 10.0864, 59.6292, 1.72738, 60.4078, -83.1326, 133.017
0.888, 1, 10.14, 59.6055, 1.69413, 60.4856, -83.0673, 132.835
0.892, 1, 10.1936, 59.582, 1.66092, 60.5634, -83.002, 132.654
0.896, 1, 10.2471, 59.5584, 1.62773, 60.641, -82.9368, 132.473
0.9, 1, 10.3005, 59.5348, 1.59458, 60.7186, -82.8717, 132.293
0.904, 1, 10.3539, 59.5113, 1.56145, 60.7962, -82.8066, 132.112
0.908, 1, 10.4073, 59.4878, 1.52836, 60.8736, -82.7416, 131.931
0.912, 1, 10.4606, 59.4643, 1.49529, 60.951, -82.6766, 131.751
0.916, 1, 10.5139, 59.4408, 1.46226, 61.0283, -82.6117, 131.571
0.92, 1, 10.5671, 59.4174, 1.42925, 61.1056, -82.5469, 131.391
0.924, 1, 10.6203, 59.394, 1.39628, 61.1828, -82.4821, 131.211
0.928, 1, 10.6734, 59.3705, 1.36333, 61.2599, -82.4174, 131.032
0.932, 1, 10.7264, 59.3472, 1.33042, 61.3369, -82.3527, 130.852
0.936, 1, 10.7795, 59.3238, 1.29753, 61.4139, -82.2881, 130.673
0.94, 1, 10.8324, 59.3005, 1.26467, 61.4908, -82.2235, 130.494
0.944, 1, 10.8854, 59.2771, 1.23185, 61.5676, -82.1591, 130.315
0.948, 1, 10.9382, 59.2538, 1.19905, 61.6444, -82.0946, 130.136
0.952, 1, 10.9911, 59.2306, 1.16629, 61.7211, -82.0303, 129.957
0.956, 1, 11.0438, 59.2073, 1.13355, 61.7977, -81.966, 129.778
0.96, 1, 11.0966, 59.1841, 1.10084, 61.8742, -81.9017, 129.6
0.964, 1, 11.1493, 59.1609, 1.06817, 61.9507, -81.8375, 129.422
0.968, 1, 11.2019, 59.1377, 1.03552, 62.0271, -81.7734, 129.244
0.972, 1, 11.2545, 59.1145, 1.00291, 62.1035, -81.7093, 129.066
0.976, 1, 11.307, 59.0914, 0.970322, 62.1797, -81.6453, 128.888
0.98, 1, 11.3595, 59.0682, 0.937766, 62.2559, -81.5813, 128.711
0.984, 1, 11.4119, 59.0451, 0.90524, 62.3321, -81.5174, 128.533
0.988, 1, 11.4643, 59.022, 0.872745, 62.4081, -81.4536, 128.356
0.992, 1, 11.5167, 58.999, 0.840279, 62.4841, -81.3898, 128.179
0.996, 1, 11.569, 58.9759, 0.807843, 62.56, -81.3261, 128.002
1, 1, 11.6212, 58.9529, 0.775437, 62.6359, -81.2624, 127.826
1.004, 1, 11.6734, 58.9299, 0.743061, 62.7117, -81.1988, 127.649
1.008, 1, 11.7256, 58.9069, 0.710716, 62.7874, -81.1352, 127.473
1.012, 1, 11.7777, 58.884, 0.6784, 62.863, -81.0718, 127.296
1.016, 1, 11.8297, 58.861, 0.646114, 62.9386, -81.0083, 127.12
1.02, 1, 11.8817, 58.8381, 0.613859, 63.0141, -80.945, 126.945
1.024, 1, 11.9337, 58.8152, 0.581633, 63.0895, -80.8817, 126.769
1.027, 1, 11.9856, 58.7924, 0.549437, 63.1648, -80.8184, 126.593
1.032, 1, 12.0375, 58.7695, 0.517271, 63.2401, -80.7552, 126.418
1.036, 1, 12.0893, 58.7467, 0.485136, 63.3153, -80.6921, 126.243
1.04, 1, 12.141, 58.7239, 0.45303, 63.3905, -80.629, 126.067
1.044, 1, 12.1928, 58.7011, 0.420954, 63.4656, -80.566, 125.893
1.048, 1, 12.2444, 58.6783, 0.388908, 63.5406, -80.503, 125.718
1.052, 1, 12.2961, 58.6556, 0.356892, 63.6155, -80.4401, 125.543
1.055, 1, 12.3476, 58.6328, 0.324906, 63.6904, -80.3773, 125.369
1.06, 1, 12.3991, 58.6101, 0.29295, 63.7652, -80.3145, 125.195
1.064, 1, 12.4506, 58.5875, 0.261024, 63.8399, -80.2518, 125.02
1.068, 1, 12.5021, 58.5648, 0.229128, 63.9145, -80.1891, 124.846
1.072, 1, 12.5534, 58.5422, 0.197262, 63.9891, -80.1265, 124.673
1.076, 1, 12.6048, 58.5196, 0.165426, 64.0636, -80.064, 124.499
1.08, 1, 12.656, 58.497, 0.13362, 64.1381, -80.0015, 124.326
1.084, 1, 12.7073, 58.4744, 0.101843, 64.2125, -79.9391, 124.152
1.088, 1, 12.7585, 58.4518, 0.0700965, 64.2868, -79.8767, 123.979
1.091, 1, 12.8096, 58.4293, 0.0383798, 64.361, -79.8144, 123.806
1.096, 1, 12.8607, 58.4068, 0.00669298, 64.4352, -79.7521, 123.633
1.1, 1, 12.9117, 58.3843, -0.024964, 64.5093, -79.6899, 123.461
1.104, 1, 12.9627, 58.3618, -0.0565913, 64.5833, -79.6278, 123.288
1.108, 1, 13.0137, 58.3394, -0.0881887, 64.6572, -79.5657, 123.116
1.112, 1, 13.0646, 58.317, -0.119756, 64.7311, -79.5037, 122.944
1.116, 1, 13.1154, 58.2945, -0.151294, 64.8049, -79.4417, 122.772
1.119, 1, 13.1662, 58.2722, -0.182803, 64.8787, -79.3798, 122.6
1.124, 1, 13.217, 58.2498, -0.214281, 64.9524, -79.318, 122.428
1.128, 1, 13.2677, 58.2275, -0.24573, 65.026, -79.2562, 122.257
1.132, 1, 13.3184, 58.2051, -0.277149, 65.0995, -79.1945, 122.086
1.136, 1, 13.369, 58.1828, -0.308539, 65.173, -79.1328, 121.914
1.14, 1, 13.4195, 58.1606, -0.339899, 65.2464, -79.0712, 121.743
1.144, 1, 13.4701, 58.1383, -0.371229, 65.3197, -79.0097, 121.573
1.147, 1, 13.5205, 58.1161, -0.40253, 65.393, -78.9482, 121.402
1.152, 1, 13.571, 58.0939, -0.433801, 65.4662, -78.8867, 121.231
1.156, 1, 13.6213, 58.0717, -0.465043, 65.5393, -78.8254, 121.061
1.16, 1, 13.6717, 58.0495, -0.496255, 65.6124, -78.764, 120.891
1.164, 1, 13.7219, 58.0273, -0.527438, 65.6853, -78.7028, 120.721
1.168, 1, 13.7722, 58.0052, -0.558592, 65.7582, -78.6416, 120.551
1.172, 1, 13.8224, 57.9831, -0.589716, 65.8311, -78.5804, 120.381
1.175, 1, 13.8725, 57.961, -0.62081, 65.9039, -78.5193, 120.212
1.18, 1, 13.9226, 57.9389, -0.651875, 65.9766, -78.4583, 120.042
1.184, 1, 13.9726, 57.9169, -0.682911, 66.0492, -78.3973, 119.873
1.188, 1, 14.0226, 57.8949, -0.713918, 66.1218, -78.3364, 119.704
1.192, 1, 14.0726, 57.8728, -0.744895, 66.1943, -78.2756, 119.535
1.196, 1, 14.1225, 57.8509, -0.775843, 66.2667, -78.2148, 119.366
1.2, 1, 14.1723, 57.8289, -0.806761, 66.3391, -78.154, 119.198
1.204, 1, 14.2221, 57.8069, -0.837651, 66.4114, -78.0933, 119.029
1.208, 1, 14.2719, 57.785, -0.868511, 66.4836, -78.0327, 118.861
1.212, 1, 14.3216, 57.7631, -0.899342, 66.5558, -77.9721, 118.693
1.216, 1, 14.3713, 57.7412, -0.930144, 66.6279, -77.9116, 118.525
1.22, 1, 14.4209, 57.7194, -0.960917, 66.6999, -77.8512, 118.357
1.224, 1, 14.4705, 57.6975, -0.99166, 66.7719, -77.7908, 118.189
1.228, 1, 14.52, 57.6757, -1.02237, 66.8438, -77.7304, 118.022
1.232, 1, 14.5695, 57.6539, -1.05306, 66.9156, -77.6701, 117.854
1.236, 1, 14.6189, 57.6321, -1.08372, 66.9873, -77.6099, 117.687
1.24, 1, 14.6683, 57.6104, -1.11434, 67.059, -77.5497, 117.52
1.244, 1, 14.7176, 57.5886, -1.14494, 67.1306, -77.4896, 117.353
1.248, 1, 14.7669, 57.5669, -1.17551, 67.2022, -77.4296, 117.187
1.252, 1, 14.8161, 57.5452, -1.20605, 67.2737, -77.3696, 117.02
1.256, 1, 14.8653, 57.5236, -1.23656, 67.3451, -77.3096, 116.854
1.26, 1, 14.9145, 57.5019, -1.26705, 67.4164, -77.2497, 116.688
1.264, 1, 14.9636, 57.4803, -1.2975, 67.4877, -77.1899, 116.521
1.267, 1, 15.0127, 57.4586, -1.32793, 67.5589, -77.1301, 116.356
1.272, 1, 15.0617, 57.4371, -1.35832, 67.6301, -77.0704, 116.19
1.276, 1, 15.1106, 57.4155, -1.38869, 67.7011, -77.0108, 116.024
1.28, 1, 15.1596, 57.3939, -1.41903, 67.7722, -76.9512, 115.859
1.284, 1, 15.2084, 57.3724, -1.44934, 67.8431, -76.8916, 115.693
1.288, 1, 15.2573, 57.3509, -1.47962, 67.914, -76.8321, 115.528
1.292, 1, 15.306, 57.3294, -1.50987, 67.9848, -76.7727, 115.363
1.295, 1, 15.3548, 57.3079, -1.5401, 68.0555, -76.7133, 115.198
1.3, 1, 15.4035, 57.2865, -1.57029, 68.1262, -76.654, 115.034
1.304, 1, 15.4521, 57.265, -1.60046, 68.1968, -76.5947, 114.869
1.308, 1, 15.5007, 57.2436, -1.6306, 68.2674, -76.5355, 114.705
1.312, 1, 15.5492, 57.2222, -1.66071, 68.3378, -76.4764, 114.541
1.316, 1, 15.5978, 57.2009, -1.69079, 68.4082, -76.4173, 114.377
1.32, 1, 15.6462, 57.1795, -1.72085, 68.4786, -76.3582, 114.213
1.324, 1, 15.6946, 57.1582, -1.75087, 68.5489, -76.2992, 114.049
1.328, 1, 15.743, 57.1369, -1.78087, 68.6191, -76.2403, 113.886
1.332, 1, 15.7913, 57.1156, -1.81084, 68.6892, -76.1814, 113.722
1.336, 1, 15.8396, 57.0943, -1.84078, 68.7593, -76.1226, 113.559
1.34, 1, 15.8878, 57.0731, -1.87069, 68.8293, -76.0638, 113.396
1.344, 1, 15.936, 57.0518, -1.90057, 68.8992, -76.0051, 113.233
1.348, 1, 15.9841, 57.0306, -1.93043, 68.9691, -75.9465, 113.07
1.352, 1, 16.0322, 57.0094, -1.96025, 69.0389, -75.8879, 112.907
1.356, 1, 16.0803, 56.9883, -1.99005, 69.1087, -75.8293, 112.745
1.36, 1, 16.1283, 56.9671, -2.01982, 69.1783, -75.7709, 112.582
1.364, 1, 16.1762, 56.946, -2.04956, 69.248, -75.7124, 112.42
1.368, 1, 16.2242, 56.9249, -2.07928, 69.3175, -75.654, 112.258
1.372, 1, 16.272, 56.9038, -2.10896, 69.387, -75.5957, 112.096
1.376, 1, 16.3198, 56.8827, -2.13862, 69.4564, -75.5375, 111.935
1.38, 1, 16.3676, 56.8617, -2.16825, 69.5257, -75.4793, 111.773
1.384, 1, 16.4154, 56.8406, -2.19785, 69.595, -75.4211, 111.612
1.388, 1, 16.463, 56.8196, -2.22742, 69.6643, -75.363, 111.45
1.392, 1, 16.5107, 56.7986, -2.25697, 69.7334, -75.3049, 111.289
1.396, 1, 16.5583, 56.7777, -2.28649, 69.8025, -75.247, 111.128
1.4, 1, 16.6058, 56.7567, -2.31598, 69.8715, -75.189, 110.967
1.404, 1, 16.6533, 56.7358, -2.34544, 69.9405, -75.1311, 110.807
1.408, 1, 16.7008, 56.7149, -2.37487, 70.0094, -75.0733, 110.646
1.412, 1, 16.7482, 56.694, -2.40428, 70.0782, -75.0155, 110.486
1.416, 1, 16.7956, 56.6731, -2.43366, 70.147, -74.9578, 110.326
1.42, 1, 16.8429, 56.6523, -2.46301, 70.2157, -74.9002, 110.166
1.424, 1, 16.8902, 56.6314, -2.49233, 70.2843, -74.8425, 110.006
1.428, 1, 16.9375, 56.6106, -2.52163, 70.3529, -74.785, 109.846
1.432, 1, 16.9846, 56.5898, -2.5509, 70.4214, -74.7275, 109.686
1.436, 1, 17.0318, 56.569, -2.58014, 70.4898, -74.67, 109.527
1.44, 1, 17.0789, 56.5483, -2.60936, 70.5582, -74.6126, 109.368
1.444, 1, 17.126, 56.5275, -2.63854, 70.6265, -74.5553, 109.208
1.448, 1, 17.173, 56.5068, -2.6677, 70.6948, -74.498, 109.049
1.452, 1, 17.22, 56.4861, -2.69683, 70.763, -74.4408, 108.891
1.456, 1, 17.2669, 56.4655, -2.72594, 70.8311, -74.3836, 108.732
1.46, 1, 17.3138, 56.4448, -2.75502, 70.8991, -74.3265, 108.573
1.464, 1, 17.3606, 56.4242, -2.78407, 70.9671, -74.2694, 108.415
1.468, 1, 17.4074, 56.4035, -2.81309, 71.0351, -74.2124, 108.257
1.472, 1, 17.4542, 56.3829, -2.84209, 71.1029, -74.1554, 108.098
1.476, 1, 17.5009, 56.3624, -2.87106, 71.1707, -74.0985, 107.94
1.48, 1, 17.5476, 56.3418, -2.9, 71.2385, -74.0416, 107.783
1.484, 1, 17.5942, 56.3213, -2.92891, 71.3062, -73.9848, 107.625
1.488, 1, 17.6408, 56.3007, -2.9578, 71.3738, -73.9281, 107.467
1.492, 1, 17.6873, 56.2802, -2.98666, 71.4413, -73.8714, 107.31
1.496, 1, 17.7338, 56.2597, -3.0155, 71.5088, -73.8147, 107.153
1.5, 1, 17.7803, 56.2393, -3.04431, 71.5762, -73.7581, 106.996
1.504, 1, 17.8267, 56.2188, -3.07309, 71.6436, -73.7016, 106.839
1.508, 1, 17.8731, 56.1984, -3.10184, 71.7109, -73.6451, 106.682
1.512, 1, 17.9194, 56.178, -3.13057, 71.7782, -73.5887, 106.525
1.516, 1, 17.9657, 56.1576, -3.15927, 71.8453, -73.5323, 106.369
1.52, 1, 18.0119, 56.1372, -3.18795, 71.9125, -73.4759, 106.212
1.524, 1, 18.0581, 56.1169, -3.2166, 71.9795, -73.4196, 106.056
1.528, 1, 18.1043, 56.0965, -3.24522, 72.0465, -73.3634, 105.9
1.532, 1, 18.1504, 56.0762, -3.27381, 72.1134, -73.3072, 105.744
1.536, 1, 18.1964, 56.0559, -3.30238, 72.1803, -73.2511, 105.588
1.54, 1, 18.2425, 56.0356, -3.33093, 72.2471, -73.195, 105.433
1.544, 1, 18.2884, 56.0154, -3.35944, 72.3139, -73.139, 105.277
1.548, 1, 18.3344, 55.9951, -3.38793, 72.3805, -73.083, 105.122
1.552, 1, 18.3803, 55.9749, -3.4164, 72.4472, -73.0271, 104.967
1.556, 1, 18.4261, 55.9547, -3.44484, 72.5137, -72.9712, 104.811
1.56, 1, 18.472, 55.9345, -3.47325, 72.5802, -72.9154, 104.657
1.564, 1, 18.5177, 55.9144, -3.50163, 72.6467, -72.8597, 104.502
1.568, 1, 18.5635, 55.8942, -3.52999, 72.713, -72.8039, 104.347
1.572, 1, 18.6091, 55.8741, -3.55833, 72.7794, -72.7483, 104.193
1.576, 1, 18.6548, 55.854, -3.58663, 72.8456, -72.6927, 104.038
1.58, 1, 18.7004, 55.8339, -3.61492, 72.9118, -72.6371, 103.884
1.584, 1, 18.746, 55.8138, -3.64317, 72.9779, -72.5816, 103.73
1.588, 1, 18.7915, 55.7938, -3.6714, 73.044, -72.5261, 103.576
1.592, 1, 18.837, 55.7737, -3.69961, 73.11, -72.4707, 103.422
1.596, 1, 18.8824, 55.7537, -3.72778, 73.176, -72.4154, 103.268
1.6, 1, 18.9278, 55.7337, -3.75594, 73.2419, -72.36, 103.115
1.604, 1, 18.9732, 55.7137, -3.78406, 73.3077, -72.3048, 102.962
1.608, 1, 19.0185, 55.6937, -3.81217, 73.3735, -72.2496, 102.808
1.612, 1, 19.0637, 55.6738, -3.84024, 73.4392, -72.1944, 102.655
1.616, 1, 19.109, 55.6539, -3.86829, 73.5049, -72.1393, 102.502
1.62, 1, 19.1542, 55.634, -3.89632, 73.5704, -72.0843, 102.349
1.624, 1, 19.1993, 55.6141, -3.92431, 73.636, -72.0292, 102.197
1.628, 1, 19.2444, 55.5942, -3.95229, 73.7015, -71.9743, 102.044
1.632, 1, 19.2895, 55.5743, -3.98024, 73.7669, -71.9194, 101.892
1.636, 1, 19.3345, 55.5545, -4.00816, 73.8322, -71.8645, 101.74
1.64, 1, 19.3795, 55.5347, -4.03606, 73.8975, -71.8097, 101.587
1.644, 1, 19.4244, 55.5149, -4.06393, 73.9628, -71.755, 101.435
1.648, 1, 19.4693, 55.4951, -4.09178, 74.028, -71.7002, 101.284
1.652, 1, 19.5142, 55.4753, -4.1196, 74.0931, -71.6456, 101.132
1.656, 1, 19.559, 55.4556, -4.1474, 74.1581, -71.591, 100.98
1.66, 1, 19.6038, 55.4359, -4.17517, 74.2231, -71.5364, 100.829
1.664, 1, 19.6486, 55.4161, -4.20292, 74.2881, -71.4819, 100.677
1.668, 1, 19.6933, 55.3964, -4.23064, 74.353, -71.4274, 100.526
1.672, 1, 19.7379, 55.3768, -4.25833, 74.4178, -71.373, 100.375
1.676, 1, 19.7825, 55.3571, -4.28601, 74.4826, -71.3187, 100.224
1.68, 1, 19.8271, 55.3375, -4.31365, 74.5473, -71.2643, 100.074
1.684, 1, 19.8717, 55.3179, -4.34128, 74.6119, -71.2101, 99.9229
1.688, 1, 19.9162, 55.2982, -4.36887, 74.6765, -71.1559, 99.7724
1.692, 1, 19.9606, 55.2787, -4.39645, 74.7411, -71.1017, 99.6221
1.696, 1, 20.0051, 55.2591, -4.424, 74.8055, -71.0476, 99.4718
1.7, 1, 20.0494, 55.2395, -4.45152, 74.8699, -70.9935, 99.3218
1.704, 1, 20.0938, 55.22, -4.47902, 74.9343, -70.9395, 99.1718
1.708, 1, 20.1381, 55.2005, -4.50649, 74.9986, -70.8855, 99.022
1.712, 1, 20.1823, 55.181, -4.53394, 75.0629, -70.8316, 98.8723
1.716, 1, 20.2266, 55.1615, -4.56137, 75.1271, -70.7777, 98.7227
1.72, 1, 20.2707, 55.142, -4.58877, 75.1912, -70.7239, 98.5733
1.724, 1, 20.3149, 55.1226, -4.61614, 75.2553, -70.6701, 98.424
1.728, 1, 20.359, 55.1031, -4.64349, 75.3193, -70.6163, 98.2749
1.732, 1, 20.4031, 55.0837, -4.67082, 75.3832, -70.5627, 98.1259
1.736, 1, 20.4471, 55.0643, -4.69812, 75.4471, -70.509, 97.977
1.74, 1, 20.4911, 55.045, -4.7254, 75.511, -70.4554, 97.8282
1.744, 1, 20.535, 55.0256, -4.75265, 75.5748, -70.4019, 97.6796
1.748, 1, 20.5789, 55.0062, -4.77988, 75.6385, -70.3484, 97.5311
1.752, 1, 20.6228, 54.9869, -4.80709, 75.7022, -70.2949, 97.3827
1.756, 1, 20.6666, 54.9676, -4.83427, 75.7658, -70.2415, 97.2345
1.76, 1, 20.7104, 54.9483, -4.86143, 75.8294, -70.1882, 97.0864
1.764, 1, 20.7542, 54.929, -4.88856, 75.8929, -70.1349, 96.9384
1.768, 1, 20.7979, 54.9098, -4.91567, 75.9563, -70.0816, 96.7906
1.772, 1, 20.8416, 54.8905, -4.94276, 76.0197, -70.0284, 96.6429
1.776, 1, 20.8852, 54.8713, -4.96982, 76.0831, -69.9752, 96.4953
1.78, 1, 20.9288, 54.8521, -4.99686, 76.1464, -69.9221, 96.3479
1.784, 1, 20.9724, 54.8329, -5.02387, 76.2096, -69.869, 96.2006
1.788, 1, 21.0159, 54.8137, -5.05086, 76.2728, -69.816, 96.0534
1.792, 1, 21.0594, 54.7946, -5.07783, 76.3359, -69.763, 95.9063
1.796, 1, 21.1028, 54.7754, -5.10477, 76.3989, -69.7101, 95.7594
1.8, 1, 21.1463, 54.7563, -5.13169, 76.462, -69.6572, 95.6126
1.804, 1, 21.1896, 54.7372, -5.15859, 76.5249, -69.6044, 95.4659
1.808, 1, 21.233, 54.7181, -5.18546, 76.5878, -69.5516, 95.3194
1.812, 1, 21.2763, 54.699, -5.21231, 76.6507, -69.4988, 95.1729
1.816, 1, 21.3195, 54.68, -5.23914, 76.7134, -69.4461, 95.0266
1.82, 1, 21.3627, 54.6609, -5.26594, 76.7762, -69.3935, 94.8805
1.824, 1, 21.4059, 54.6419, -5.29272, 76.8389, -69.3409, 94.7344
1.828, 1, 21.4491, 54.6229, -5.31948, 76.9015, -69.2883, 94.5885
1.832, 1, 21.4922, 54.6039, -5.34621, 76.9641, -69.2358, 94.4427
1.836, 1, 21.5353, 54.5849, -5.37292, 77.0266, -69.1833, 94.2971
1.84, 1, 21.5783, 54.566, -5.39961, 77.089, -69.1309, 94.1516
1.844, 1, 21.6213, 54.547, -5.42627, 77.1515, -69.0785, 94.0061
1.848, 1, 21.6642, 54.5281, -5.45292, 77.2138, -69.0261, 93.8609
1.852, 1, 21.7072, 54.5092, -5.47953, 77.2761, -68.9738, 93.7157
1.856, 1, 21.7501, 54.4903, -5.50613, 77.3384, -68.9216, 93.5707
1.86, 1, 21.7929, 54.4714, -5.5327, 77.4006, -68.8694, 93.4258
1.864, 1, 21.8357, 54.4525, -5.55925, 77.4627, -68.8172, 93.281
1.868, 1, 21.8785, 54.4337, -5.58578, 77.5248, -68.7651, 93.1363
1.872, 1, 21.9212, 54.4149, -5.61228, 77.5868, -68.713, 92.9918
1.876, 1, 21.9639, 54.3961, -5.63877, 77.6488, -68.661, 92.8474
1.88, 1, 22.0066, 54.3773, -5.66523, 77.7107, -68.609, 92.7031
1.884, 1, 22.0492, 54.3585, -5.69166, 77.7726, -68.5571, 92.5589
1.888, 1, 22.0918, 54.3397, -5.71808, 77.8344, -68.5052, 92.4149
1.892, 1, 22.1344, 54.321, -5.74447, 77.8962, -68.4533, 92.2709
1.896, 1, 22.1769, 54.3022, -5.77084, 77.9579, -68.4015, 92.1271
1.9, 1, 22.2194, 54.2835, -5.79718, 78.0196, -68.3498, 91.9835
1.904, 1, 22.2619, 54.2648, -5.82351, 78.0812, -68.2981, 91.8399
1.908, 1, 22.3043, 54.2461, -5.84981, 78.1428, -68.2464, 91.6965
1.912, 1, 22.3466, 54.2274, -5.87609, 78.2043, -68.1948, 91.5532
1.916, 1, 22.389, 54.2088, -5.90235, 78.2657, -68.1432, 91.41
1.92, 1, 22.4313, 54.1902, -5.92858, 78.3272, -68.0916, 91.2669
1.924, 1, 22.4736, 54.1715, -5.9548, 78.3885, -68.0401, 91.124
1.928, 1, 22.5158, 54.1529, -5.98099, 78.4498, -67.9887, 90.9811
1.932, 1, 22.558, 54.1343, -6.00716, 78.5111, -67.9373, 90.8384
1.936, 1, 22.6002, 54.1158, -6.03331, 78.5723, -67.8859, 90.6958
1.94, 1, 22.6423, 54.0972, -6.05943, 78.6334, -67.8346, 90.5534
1.944, 1, 22.6844, 54.0786, -6.08553, 78.6945, -67.7833, 90.411
1.948, 1, 22.7264, 54.0601, -6.11162, 78.7556, -67.732, 90.2688
1.952, 1, 22.7685, 54.0416, -6.13768, 78.8166, -67.6808, 90.1267
1.956, 1, 22.8105, 54.0231, -6.16371, 78.8775, -67.6297, 89.9847
1.96, 1, 22.8524, 54.0046, -6.18973, 78.9384, -67.5786, 89.8428
1.964, 1, 22.8943, 53.9862, -6.21572, 78.9992, -67.5275, 89.701
1.968, 1, 22.9362, 53.9677, -6.2417, 79.06, -67.4765, 89.5594
1.972, 1, 22.9781, 53.9493, -6.26765, 79.1208, -67.4255, 89.4179
1.976, 1, 23.0199, 53.9308, -6.29358, 79.1815, -67.3745, 89.2765
1.98, 1, 23.0616, 53.9124, -6.31949, 79.2421, -67.3237, 89.1352
1.984, 1, 23.1034, 53.894, -6.34537, 79.3027, -67.2728, 88.994
1.988, 1, 23.1451, 53.8757, -6.37124, 79.3632, -67.222, 88.853
1.992, 1, 23.1868, 53.8573, -6.39708, 79.4237, -67.1712, 88.712
1.996, 1, 23.2284, 53.839, -6.42291, 79.4842, -67.1205, 88.5712
1.999, 1, 23.27, 53.8206, -6.44871, 79.5446, -67.0698, 88.4305
2.004, 1, 23.3116, 53.8023, -6.47449, 79.6049, -67.0191, 88.2899
2.008, 1, 23.3531, 53.784, -6.50025, 79.6652, -66.9685, 88.1495
2.012, 1, 23.3946, 53.7657, -6.52598, 79.7254, -66.918, 88.0091
2.015, 1, 23.4361, 53.7475, -6.5517, 79.7856, -66.8674, 87.8689
2.019, 1, 23.4775, 53.7292, -6.57739, 79.8458, -66.817, 87.7287
2.024, 1, 23.5189, 53.711, -6.60307, 79.9059, -66.7665, 87.5887
2.028, 1, 23.5603, 53.6927, -6.62872, 79.9659, -66.7161, 87.4488
2.031, 1, 23.6016, 53.6745, -6.65435, 80.0259, -66.6658, 87.309
2.036, 1, 23.6429, 53.6563, -6.67997, 80.0858, -66.6154, 87.1694
2.04, 1, 23.6842, 53.6381, -6.70556, 80.1457, -66.5652, 87.0298
2.044, 1, 23.7254, 53.62, -6.73112, 80.2056, -66.5149, 86.8904
2.048, 1, 23.7666, 53.6018, -6.75667, 80.2654, -66.4647, 86.7511
2.051, 1, 23.8078, 53.5837, -6.7822, 80.3251, -66.4146, 86.6119
2.055, 1, 23.8489, 53.5656, -6.80771, 80.3848, -66.3645, 86.4728
2.06, 1, 23.89, 53.5475, -6.83319, 80.4445, -66.3144, 86.3338
2.064, 1, 23.9311, 53.5294, -6.85866, 80.5041, -66.2644, 86.1949
2.068, 1, 23.9721, 53.5113, -6.8841, 80.5637, -66.2144, 86.0561
2.071, 1, 24.0131, 53.4932, -6.90953, 80.6232, -66.1644, 85.9175
2.076, 1, 24.0541, 53.4752, -6.93493, 80.6826, -66.1145, 85.779
2.08, 1, 24.095, 53.4572, -6.96032, 80.742, -66.0647, 85.6405
2.084, 1, 24.1359, 53.4391, -6.98568, 80.8014, -66.0148, 85.5022
2.087, 1, 24.1768, 53.4211, -7.01102, 80.8607, -65.965, 85.364
2.092, 1, 24.2176, 53.4031, -7.03634, 80.92, -65.9153, 85.2259
2.096, 1, 24.2584, 53.3852, -7.06165, 80.9792, -65.8656, 85.088
2.1, 1, 24.2992, 53.3672, -7.08693, 81.0384, -65.8159, 84.9501
2.104, 1, 24.3399, 53.3493, -7.11219, 81.0975, -65.7663, 84.8123
2.107, 1, 24.3806, 53.3313, -7.13743, 81.1566, -65.7167, 84.6747
2.111, 1, 24.4213, 53.3134, -7.16265, 81.2156, -65.6671, 84.5371
2.116, 1, 24.4619, 53.2955, -7.18785, 81.2746, -65.6176, 84.3997
2.12, 1, 24.5026, 53.2776, -7.21303, 81.3335, -65.5682, 84.2624
2.124, 1, 24.5431, 53.2597, -7.23819, 81.3924, -65.5187, 84.1252
2.127, 1, 24.5837, 53.2419, -7.26333, 81.4513, -65.4693, 83.9881
2.132, 1, 24.6242, 53.224, -7.28845, 81.5101, -65.42, 83.8511
2.136, 1, 24.6647, 53.2062, -7.31356, 81.5688, -65.3707, 83.7142
2.14, 1, 24.7051, 53.1884, -7.33864, 81.6275, -65.3214, 83.5774
2.143, 1, 24.7455, 53.1706, -7.3637, 81.6862, -65.2722, 83.4408
2.148, 1, 24.7859, 53.1528, -7.38874, 81.7448, -65.223, 83.3042
2.152, 1, 24.8262, 53.135, -7.41376, 81.8034, -65.1738, 83.1678
2.156, 1, 24.8666, 53.1172, -7.43876, 81.8619, -65.1247, 83.0314
2.16, 1, 24.9069, 53.0995, -7.46375, 81.9204, -65.0756, 82.8952
2.163, 1, 24.9471, 53.0818, -7.48871, 81.9788, -65.0266, 82.759
2.168, 1, 24.9873, 53.064, -7.51365, 82.0372, -64.9776, 82.623
2.172, 1, 25.0275, 53.0463, -7.53858, 82.0955, -64.9286, 82.4871
2.176, 1, 25.0677, 53.0286, -7.56348, 82.1538, -64.8797, 82.3513
2.179, 1, 25.1078, 53.0109, -7.58837, 82.2121, -64.8308, 82.2156
2.184, 1, 25.1479, 52.9933, -7.61323, 82.2703, -64.7819, 82.08
2.188, 1, 25.188, 52.9756, -7.63808, 82.3284, -64.7331, 81.9445
2.192, 1, 25.228, 52.958, -7.66291, 82.3865, -64.6843, 81.8091
2.196, 1, 25.268, 52.9404, -7.68772, 82.4446, -64.6356, 81.6738
2.199, 1, 25.308, 52.9228, -7.71251, 82.5026, -64.5869, 81.5386
2.204, 1, 25.3479, 52.9052, -7.73728, 82.5606, -64.5382, 81.4035
2.208, 1, 25.3879, 52.8876, -7.76203, 82.6185, -64.4896, 81.2685
2.212, 1, 25.4277, 52.87, -7.78676, 82.6764, -64.441, 81.1337
2.216, 1, 25.4676, 52.8524, -7.81147, 82.7343, -64.3924, 80.9989
2.219, 1, 25.5074, 52.8349, -7.83617, 82.7921, -64.3439, 80.8642
2.224, 1, 25.5472, 52.8174, -7.86084, 82.8498, -64.2955, 80.7297
2.228, 1, 25.587, 52.7999, -7.8855, 82.9075, -64.247, 80.5952
2.232, 1, 25.6267, 52.7823, -7.91014, 82.9652, -64.1986, 80.4609
2.235, 1, 25.6664, 52.7649, -7.93475, 83.0228, -64.1502, 80.3266
2.24, 1, 25.7061, 52.7474, -7.95935, 83.0804, -64.1019, 80.1925
2.244, 1, 25.7457, 52.7299, -7.98393, 83.1379, -64.0536, 80.0584
2.248, 1, 25.7853, 52.7125, -8.0085, 83.1954, -64.0054, 79.9245
2.252, 1, 25.8249, 52.695, -8.03304, 83.2529, -63.9571, 79.7906
2.255, 1, 25.8644, 52.6776, -8.05757, 83.3103, -63.909, 79.6569
2.259, 1, 25.904, 52.6602, -8.08207, 83.3676, -63.8608, 79.5232
2.264, 1, 25.9434, 52.6428, -8.10656, 83.4249, -63.8127, 79.3897
2.268, 1, 25.9829, 52.6254, -8.13103, 83.4822, -63.7646, 79.2562
2.272, 1, 26.0223, 52.608, -8.15548, 83.5395, -63.7166, 79.1229
2.275, 1, 26.0617, 52.5907, -8.17992, 83.5966, -63.6686, 78.9897
2.28, 1, 26.1011, 52.5733, -8.20433, 83.6538, -63.6206, 78.8565
2.284, 1, 26.1404, 52.556, -8.22873, 83.7109, -63.5727, 78.7235
2.288, 1, 26.1798, 52.5387, -8.25311, 83.7679, -63.5248, 78.5905
2.291, 1, 26.219, 52.5214, -8.27747, 83.825, -63.4769, 78.4577
2.296, 1, 26.2583, 52.5041, -8.30181, 83.8819, -63.4291, 78.325
2.3, 1, 26.2975, 52.4868, -8.32613, 83.9389, -63.3813, 78.1923
2.304, 1, 26.3367, 52.4695, -8.35044, 83.9958, -63.3336, 78.0598
2.308, 1, 26.3759, 52.4523, -8.37472, 84.0526, -63.2859, 77.9273
2.311, 1, 26.415, 52.435, -8.39899, 84.1094, -63.2382, 77.795
2.316, 1, 26.4541, 52.4178, -8.42324, 84.1662, -63.1905, 77.6627
2.32, 1, 26.4932, 52.4006, -8.44748, 84.2229, -63.1429, 77.5306
2.324, 1, 26.5322, 52.3834, -8.47169, 84.2796, -63.0954, 77.3985
2.328, 1, 26.5713, 52.3662, -8.49589, 84.3362, -63.0478, 77.2666
2.331, 1, 26.6103, 52.349, -8.52007, 84.3928, -63.0003, 77.1347
2.336, 1, 26.6492, 52.3318, -8.54423, 84.4494, -62.9528, 77.0029
2.34, 1, 26.6882, 52.3147, -8.56838, 84.5059, -62.9054, 76.8713
2.344, 1, 26.7271, 52.2976, -8.5925, 84.5623, -62.858, 76.7397
2.347, 1, 26.7659, 52.2804, -8.61661, 84.6188, -62.8106, 76.6082
2.352, 1, 26.8048, 52.2633, -8.6407, 84.6752, -62.7633, 76.4768
2.356, 1, 26.8436, 52.2462, -8.66477, 84.7315, -62.716, 76.3456
2.36, 1, 26.8824, 52.2291, -8.68883, 84.7878, -62.6688, 76.2144
2.364, 1, 26.9212, 52.212, -8.71287, 84.8441, -62.6215, 76.0833
2.367, 1, 26.9599, 52.195, -8.73689, 84.9003, -62.5743, 75.9523
2.372, 1, 26.9986, 52.1779, -8.76089, 84.9565, -62.5272, 75.8214
2.376, 1, 27.0373, 52.1609, -8.78488, 85.0126, -62.4801, 75.6906
2.38, 1, 27.0759, 52.1438, -8.80885, 85.0687, -62.433, 75.5599
2.383, 1, 27.1146, 52.1268, -8.8328, 85.1248, -62.3859, 75.4293
2.388, 1, 27.1532, 52.1098, -8.85673, 85.1808, -62.3389, 75.2988
2.392, 1, 27.1917, 52.0928, -8.88065, 85.2368, -62.2919, 75.1683
2.396, 1, 27.2303, 52.0759, -8.90455, 85.2927, -62.245, 75.038
2.4, 1, 27.2688, 52.0589, -8.92843, 85.3486, -62.198, 74.9078
2.403, 1, 27.3072, 52.0419, -8.95229, 85.4045, -62.1511, 74.7776
2.408, 1, 27.3457, 52.025, -8.97614, 85.4603, -62.1043, 74.6476
2.412, 1, 27.3841, 52.0081, -8.99997, 85.5161, -62.0575, 74.5176
2.416, 1, 27.4225, 51.9911, -9.02378, 85.5718, -62.0107, 74.3878
2.42, 1, 27.4609, 51.9742, -9.04758, 85.6275, -61.9639, 74.258
2.423, 1, 27.4993, 51.9573, -9.07136, 85.6832, -61.9172, 74.1283
2.428, 1, 27.5376, 51.9405, -9.09512, 85.7388, -61.8705, 73.9987
2.432, 1, 27.5759, 51.9236, -9.11887, 85.7944, -61.8239, 73.8692
2.436, 1, 27.6141, 51.9067, -9.1426, 85.8499, -61.7773, 73.7398
2.439, 1, 27.6524, 51.8899, -9.16631, 85.9054, -61.7307, 73.6105
2.444, 1, 27.6906, 51.8731, -9.19, 85.9609, -61.6841, 73.4813
2.448, 1, 27.7288, 51.8562, -9.21368, 86.0163, -61.6376, 73.3522
2.452, 1, 27.7669, 51.8394, -9.23734, 86.0717, -61.5911, 73.2232
2.456, 1, 27.805, 51.8226, -9.26099, 86.127, -61.5447, 73.0942
2.459, 1, 27.8431, 51.8058, -9.28461, 86.1823, -61.4983, 72.9654
2.464, 1, 27.8812, 51.7891, -9.30822, 86.2376, -61.4519, 72.8366
2.468, 1, 27.9193, 51.7723, -9.33182, 86.2928, -61.4055, 72.7079
2.472, 1, 27.9573, 51.7555, -9.3554, 86.348, -61.3592, 72.5794
2.476, 1, 27.9953, 51.7388, -9.37896, 86.4031, -61.3129, 72.4509
2.479, 1, 28.0332, 51.7221, -9.4025, 86.4582, -61.2667, 72.3225
2.484, 1, 28.0712, 51.7054, -9.42603, 86.5133, -61.2204, 72.1942
2.488, 1, 28.1091, 51.6887, -9.44954, 86.5683, -61.1742, 72.066
2.492, 1, 28.147, 51.672, -9.47304, 86.6233, -61.1281, 71.9378
2.495, 1, 28.1849, 51.6553, -9.49652, 86.6783, -61.0819, 71.8098
2.5, 1, 28.2227, 51.6386, -9.51998, 86.7332, -61.0358, 71.6818
2.504, 1, 28.2605, 51.622, -9.54343, 86.7881, -60.9898, 71.554
2.508, 1, 28.2983, 51.6053, -9.56686, 86.8429, -60.9438, 71.4262
2.512, 1, 28.336, 51.5887, -9.59027, 86.8977, -60.8978, 71.2985
2.515, 1, 28.3738, 51.572, -9.61367, 86.9525, -60.8518, 71.1709
2.52, 1, 28.4115, 51.5554, -9.63705, 87.0072, -60.8058, 71.0434
2.524, 1, 28.4492, 51.5388, -9.66042, 87.0619, -60.7599, 70.916
2.528, 1, 28.4868, 51.5222, -9.68376, 87.1166, -60.7141, 70.7887
2.531, 1, 28.5244, 51.5057, -9.7071, 87.1712, -60.6682, 70.6614
2.536, 1, 28.562, 51.4891, -9.73042, 87.2258, -60.6224, 70.5343
2.54, 1, 28.5996, 51.4725, -9.75372, 87.2803, -60.5766, 70.4072
2.544, 1, 28.6372, 51.456, -9.777, 87.3348, -60.5309, 70.2802
2.548, 1, 28.6747, 51.4395, -9.80027, 87.3893, -60.4852, 70.1533
2.551, 1, 28.7122, 51.423, -9.82353, 87.4437, -60.4395, 70.0265
2.556, 1, 28.7497, 51.4064, -9.84677, 87.4981, -60.3938, 69.8997
2.56, 1, 28.7871, 51.3899, -9.86999, 87.5525, -60.3482, 69.7731
2.564, 1, 28.8245, 51.3735, -9.8932, 87.6068, -60.3026, 69.6466
2.568, 1, 28.8619, 51.357, -9.91639, 87.661, -60.257, 69.5201
2.571, 1, 28.8993, 51.3405, -9.93956, 87.7153, -60.2115, 69.3937
2.576, 1, 28.9367, 51.3241, -9.96272, 87.7695, -60.166, 69.2674
2.58, 1, 28.974, 51.3076, -9.98587, 87.8237, -60.1205, 69.1412
2.584, 1, 29.0113, 51.2912, -10.009, 87.8778, -60.0751, 69.0151
2.587, 1, 29.0485, 51.2748, -10.0321, 87.9319, -60.0297, 68.889
2.592, 1, 29.0858, 51.2584, -10.0552, 87.986, -59.9843, 68.7631
2.596, 1, 29.123, 51.242, -10.0783, 88.04, -59.939, 68.6372
2.6, 1, 29.1602, 51.2256, -10.1014, 88.094, -59.8936, 68.5114
2.604, 1, 29.1974, 51.2092, -10.1244, 88.1479, -59.8484, 68.3857
2.607, 1, 29.2345, 51.1928, -10.1474, 88.2019, -59.8031, 68.26
2.612, 1, 29.2717, 51.1765, -10.1705, 88.2558, -59.7579, 68.1345
2.616, 1, 29.3088, 51.1601, -10.1935, 88.3096, -59.7127, 68.009
2.62, 1, 29.3458, 51.1438, -10.2165, 88.3634, -59.6675, 67.8837
2.624, 1, 29.3829, 51.1275, -10.2394, 88.4172, -59.6224, 67.7584
2.627, 1, 29.4199, 51.1111, -10.2624, 88.4709, -59.5773, 67.6332
2.632, 1, 29.4569, 51.0948, -10.2853, 88.5246, -59.5322, 67.508
2.636, 1, 29.4939, 51.0786, -10.3083, 88.5783, -59.4871, 67.383
2.64, 1, 29.5308, 51.0623, -10.3312, 88.6319, -59.4421, 67.258
2.643, 1, 29.5678, 51.046, -10.3541, 88.6855, -59.3971, 67.1331
2.648, 1, 29.6047, 51.0297, -10.377, 88.7391, -59.3521, 67.0083
2.652, 1, 29.6415, 51.0135, -10.3998, 88.7926, -59.3072, 66.8836
2.656, 1, 29.6784, 50.9973, -10.4227, 88.8461, -59.2623, 66.759
2.66, 1, 29.7152, 50.981, -10.4455, 88.8996, -59.2174, 66.6344
2.663, 1, 29.752, 50.9648, -10.4684, 88.953, -59.1726, 66.5099
2.668, 1, 29.7888, 50.9486, -10.4912, 89.0064, -59.1278, 66.3855
2.672, 1, 29.8256, 50.9324, -10.514, 89.0598, -59.083, 66.2612
2.676, 1, 29.8623, 50.9162, -10.5368, 89.1131, -59.0382, 66.137
2.679, 1, 29.899, 50.9001, -10.5595, 89.1664, -58.9935, 66.0128
2.684, 1, 29.9357, 50.8839, -10.5823, 89.2196, -58.9488, 65.8888
2.688, 1, 29.9724, 50.8677, -10.605, 89.2729, -58.9041, 65.7648
2.692, 1, 30.009, 50.8516, -10.6277, 89.326, -58.8595, 65.6409
2.696, 1, 30.0457, 50.8355, -10.6504, 89.3792, -58.8149, 65.517
2.699, 1, 30.0822, 50.8193, -10.6731, 89.4323, -58.7703, 65.3933
2.704, 1, 30.1188, 50.8032, -10.6958, 89.4854, -58.7257, 65.2696
2.708, 1, 30.1554, 50.7871, -10.7185, 89.5384, -58.6812, 65.146
2.712, 1, 30.1919, 50.771, -10.7411, 89.5915, -58.6367, 65.0225
2.716, 1, 30.2284, 50.7549, -10.7638, 89.6444, -58.5923, 64.899
2.719, 1, 30.2649, 50.7389, -10.7864, 89.6974, -58.5478, 64.7757
2.724, 1, 30.3013, 50.7228, -10.809, 89.7503, -58.5034, 64.6524
2.728, 1, 30.3378, 50.7068, -10.8316, 89.8032, -58.459, 64.5292
2.732, 1, 30.3742, 50.6907, -10.8542, 89.856, -58.4146, 64.4061
2.735, 1, 30.4106, 50.6747, -10.8767, 89.9089, -58.3703, 64.283
2.74, 1, 30.4469, 50.6587, -10.8993, 89.9616, -58.326, 64.16
2.744, 1, 30.4833, 50.6427, -10.9218, 90.0144, -58.2817, 64.0371
2.748, 1, 30.5196, 50.6267, -10.9443, 90.0671, -58.2375, 63.9143
2.752, 1, 30.5559, 50.6107, -10.9668, 90.1198, -58.1933, 63.7916
2.755, 1, 30.5921, 50.5947, -10.9893, 90.1724, -58.1491, 63.6689
2.76, 1, 30.6284, 50.5787, -11.0118, 90.225, -58.1049, 63.5463
2.764, 1, 30.6646, 50.5628, -11.0343, 90.2776, -58.0608, 63.4238
2.768, 1, 30.7008, 50.5468, -11.0567, 90.3302, -58.0167, 63.3014
2.772, 1, 30.737, 50.5309, -11.0792, 90.3827, -57.9726, 63.1791
2.775, 1, 30.7732, 50.5149, -11.1016, 90.4352, -57.9285, 63.0568
2.78, 1, 30.8093, 50.499, -11.124, 90.4876, -57.8845, 62.9346
2.784, 1, 30.8454, 50.4831, -11.1464, 90.54, -57.8405, 62.8124
2.788, 1, 30.8815, 50.4672, -11.1688, 90.5924, -57.7966, 62.6904
2.791, 1, 30.9176, 50.4513, -11.1911, 90.6448, -57.7526, 62.5684
2.796, 1, 30.9536, 50.4354, -11.2135, 90.6971, -57.7087, 62.4465
2.8, 1, 30.9896, 50.4196, -11.2358, 90.7494, -57.6648, 62.3247
2.804, 1, 31.0256, 50.4037, -11.2582, 90.8016, -57.6209, 62.2029
2.808, 1, 31.0616, 50.3878, -11.2805, 90.8539, -57.5771, 62.0813
2.811, 1, 31.0976, 50.372, -11.3028, 90.9061, -57.5333, 61.9597
2.816, 1, 31.1335, 50.3562, -11.3251, 90.9582, -57.4895, 61.8381
2.82, 1, 31.1694, 50.3404, -11.3473, 91.0103, -57.4458, 61.7167
2.824, 1, 31.2053, 50.3245, -11.3696, 91.0624, -57.402, 61.5953
2.828, 1, 31.2412, 50.3087, -11.3918, 91.1145, -57.3583, 61.474
2.831, 1, 31.277, 50.2929, -11.4141, 91.1665, -57.3147, 61.3528
2.836, 1, 31.3129, 50.2772, -11.4363, 91.2185, -57.271, 61.2316
2.84, 1, 31.3487, 50.2614, -11.4585, 91.2705, -57.2274, 61.1105
2.844, 1, 31.3844, 50.2456, -11.4807, 91.3224, -57.1838, 60.9895
2.847, 1, 31.4202, 50.2299, -11.5028, 91.3743, -57.1402, 60.8686
2.852, 1, 31.4559, 50.2141, -11.525, 91.4262, -57.0967, 60.7477
2.856, 1, 31.4917, 50.1984, -11.5472, 91.4781, -57.0532, 60.6269
2.86, 1, 31.5274, 50.1827, -11.5693, 91.5299, -57.0097, 60.5062
2.864, 1, 31.563, 50.1669, -11.5914, 91.5816, -56.9662, 60.3856
2.867, 1, 31.5987, 50.1512, -11.6135, 91.6334, -56.9228, 60.265
2.872, 1, 31.6343, 50.1355, -11.6356, 91.6851, -56.8794, 60.1445
2.876, 1, 31.6699, 50.1198, -11.6577, 91.7368, -56.836, 60.0241
2.88, 1, 31.7055, 50.1042, -11.6798, 91.7885, -56.7926, 59.9037
2.883, 1, 31.7411, 50.0885, -11.7018, 91.8401, -56.7493, 59.7835
2.888, 1, 31.7766, 50.0728, -11.7239, 91.8917, -56.706, 59.6632
2.892, 1, 31.8121, 50.0572, -11.7459, 91.9432, -56.6627, 59.5431
2.896, 1, 31.8477, 50.0415, -11.7679, 91.9948, -56.6194, 59.423
2.9, 1, 31.8831, 50.0259, -11.7899, 92.0463, -56.5762, 59.303
2.903, 1, 31.9186, 50.0103, -11.8119, 92.0978, -56.533, 59.1831
2.908, 1, 31.954, 49.9947, -11.8339, 92.1492, -56.4898, 59.0633
2.912, 1, 31.9895, 49.979, -11.8559, 92.2006, -56.4467, 58.9435
2.916, 1, 32.0249, 49.9635, -11.8778, 92.252, -56.4036, 58.8238
2.92, 1, 32.0602, 49.9479, -11.8997, 92.3033, -56.3605, 58.7041
2.923, 1, 32.0956, 49.9323, -11.9217, 92.3547, -56.3174, 58.5846
2.928, 1, 32.1309, 49.9167, -11.9436, 92.406, -56.2743, 58.4651
2.932, 1, 32.1662, 49.9012, -11.9655, 92.4572, -56.2313, 58.3456
2.936, 1, 32.2015, 49.8856, -11.9874, 92.5084, -56.1883, 58.2263
2.939, 1, 32.2368, 49.8701, -12.0092, 92.5596, -56.1453, 58.107
2.944, 1, 32.2721, 49.8545, -12.0311, 92.6108, -56.1024, 57.9878
2.948, 1, 32.3073, 49.839, -12.053, 92.662, -56.0594, 57.8686
2.952, 1, 32.3425, 49.8235, -12.0748, 92.7131, -56.0165, 57.7495
2.956, 1, 32.3777, 49.808, -12.0966, 92.7642, -55.9737, 57.6305
2.959, 1, 32.4129, 49.7925, -12.1184, 92.8152, -55.9308, 57.5116
2.964, 1, 32.448, 49.777, -12.1402, 92.8662, -55.888, 57.3927
2.968, 1, 32.4832, 49.7615, -12.162, 92.9172, -55.8452, 57.2739
2.972, 1, 32.5183, 49.7461, -12.1838, 92.9682, -55.8024, 57.1551
2.976, 1, 32.5534, 49.7306, -12.2056, 93.0191, -55.7596, 57.0364
2.98, 1, 32.5884, 49.7151, -12.2273, 93.07, -55.7169, 56.9178
2.984, 1, 32.6235, 49.6997, -12.249, 93.1209, -55.6742, 56.7993
2.988, 1, 32.6585, 49.6843, -12.2708, 93.1718, -55.6315, 56.6808
2.992, 1, 32.6935, 49.6688, -12.2925, 93.2226, -55.5889, 56.5624
2.995, 1, 32.7285, 49.6534, -12.3142, 93.2734, -55.5462, 56.4441
3, 1, 32.7635, 49.638, -12.3359, 93.3241, -55.5036, 56.3258
3.004, 1, 32.7985, 49.6226, -12.3575, 93.3749, -55.4611, 56.2076
3.008, 1, 32.8334, 49.6072, -12.3792, 93.4256, -55.4185, 56.0895
3.012, 1, 32.8683, 49.5919, -12.4009, 93.4762, -55.376, 55.9714
3.015, 1, 32.9032, 49.5765, -12.4225, 93.5269, -55.3334, 55.8534
3.02, 1, 32.9381, 49.5611, -12.4441, 93.5775, -55.291, 55.7355
3.024, 1, 32.9729, 49.5458, -12.4657, 93.6281, -55.2485, 55.6176
3.028, 1, 33.0078, 49.5304, -12.4873, 93.6787, -55.2061, 55.4998
3.031, 1, 33.0426, 49.5151, -12.5089, 93.7292, -55.1636, 55.3821
3.036, 1, 33.0774, 49.4997, -12.5305, 93.7797, -55.1212, 55.2644
3.04, 1, 33.1121, 49.4844, -12.5521, 93.8302, -55.0789, 55.1468
3.044, 1, 33.1469, 49.4691, -12.5736, 93.8806, -55.0365, 55.0293
3.048, 1, 33.1816, 49.4538, -12.5952, 93.931, -54.9942, 54.9118
3.051, 1, 33.2164, 49.4385, -12.6167, 93.9814, -54.9519, 54.7944
3.056, 1, 33.2511, 49.4232, -12.6382, 94.0318, -54.9096, 54.677
3.06, 1, 33.2857, 49.4079, -12.6597, 94.0821, -54.8674, 54.5598
3.064, 1, 33.3204, 49.3927, -12.6812, 94.1325, -54.8252, 54.4425
3.068, 1, 33.355, 49.3774, -12.7027, 94.1827, -54.783, 54.3254
3.071, 1, 33.3897, 49.3621, -12.7242, 94.233, -54.7408, 54.2083
3.076, 1, 33.4243, 49.3469, -12.7456, 94.2832, -54.6986, 54.0913
3.08, 1, 33.4588, 49.3317, -12.7671, 94.3334, -54.6565, 53.9743
3.084, 1, 33.4934, 49.3164, -12.7885, 94.3836, -54.6144, 53.8574
3.087, 1, 33.528, 49.3012, -12.8099, 94.4337, -54.5723, 53.7406
3.092, 1, 33.5625, 49.286, -12.8313, 94.4838, -54.5302, 53.6238
3.096, 1, 33.597, 49.2708, -12.8527, 94.5339, -54.4882, 53.5071
3.1, 1, 33.6315, 49.2556, -12.8741, 94.584, -54.4461, 53.3905
3.104, 1, 33.6659, 49.2404, -12.8955, 94.634, -54.4042, 53.2739
3.107, 1, 33.7004, 49.2252, -12.9169, 94.684, -54.3622, 53.1574
3.112, 1, 33.7348, 49.2101, -12.9382, 94.734, -54.3202, 53.041
3.116, 1, 33.7692, 49.1949, -12.9596, 94.784, -54.2783, 52.9246
3.12, 1, 33.8036, 49.1798, -12.9809, 94.8339, -54.2364, 52.8083
3.124, 1, 33.838, 49.1646, -13.0022, 94.8838, -54.1945, 52.692
3.128, 1, 33.8724, 49.1495, -13.0235, 94.9337, -54.1526, 52.5758
3.132, 1, 33.9067, 49.1343, -13.0448, 94.9835, -54.1108, 52.4597
3.136, 1, 33.941, 49.1192, -13.0661, 95.0333, -54.069, 52.3436
3.14, 1, 33.9753, 49.1041, -13.0874, 95.0831, -54.0272, 52.2276
3.143, 1, 34.0096, 49.089, -13.1086, 95.1329, -53.9854, 52.1117
3.148, 1, 34.0439, 49.0739, -13.1299, 95.1826, -53.9437, 51.9958
3.152, 1, 34.0781, 49.0588, -13.1511, 95.2323, -53.902, 51.88
3.156, 1, 34.1124, 49.0437, -13.1723, 95.282, -53.8602, 51.7642
3.16, 1, 34.1466, 49.0287, -13.1936, 95.3317, -53.8186, 51.6485
3.163, 1, 34.1808, 49.0136, -13.2148, 95.3813, -53.7769, 51.5329
3.168, 1, 34.215, 48.9985, -13.236, 95.4309, -53.7353, 51.4173
3.172, 1, 34.2491, 48.9835, -13.2571, 95.4805, -53.6937, 51.3018
3.176, 1, 34.2832, 48.9684, -13.2783, 95.53, -53.6521, 51.1863
3.179, 1, 34.3174, 48.9534, -13.2995, 95.5796, -53.6105, 51.0709
3.184, 1, 34.3515, 48.9384, -13.3206, 95.6291, -53.5689, 50.9556
3.188, 1, 34.3856, 48.9234, -13.3418, 95.6786, -53.5274, 50.8403
3.192, 1, 34.4196, 48.9084, -13.3629, 95.728, -53.4859, 50.7251
3.196, 1, 34.4537, 48.8934, -13.384, 95.7774, -53.4444, 50.61
3.199, 1, 34.4877, 48.8784, -13.4051, 95.8268, -53.403, 50.4949
3.204, 1, 34.5217, 48.8634, -13.4262, 95.8762, -53.3615, 50.3799
3.208, 1, 34.5557, 48.8484, -13.4473, 95.9255, -53.3201, 50.2649
3.212, 1, 34.5897, 48.8334, -13.4683, 95.9749, -53.2787, 50.15
3.216, 1, 34.6237, 48.8185, -13.4894, 96.0241, -53.2373, 50.0351
3.22, 1, 34.6576, 48.8035, -13.5105, 96.0734, -53.196, 49.9203
3.224, 1, 34.6915, 48.7886, -13.5315, 96.1227, -53.1546, 49.8056
3.228, 1, 34.7254, 48.7736, -13.5525, 96.1719, -53.1133, 49.6909
3.232, 1, 34.7593, 48.7587, -13.5735, 96.2211, -53.072, 49.5763
3.235, 1, 34.7932, 48.7438, -13.5945, 96.2702, -53.0308, 49.4618
3.24, 1, 34.8271, 48.7289, -13.6155, 96.3194, -52.9895, 49.3473
3.244, 1, 34.8609, 48.7139, -13.6365, 96.3685, -52.9483, 49.2328
3.248, 1, 34.8947, 48.699, -13.6575, 96.4176, -52.9071, 49.1185
3.252, 1, 34.9285, 48.6841, -13.6785, 96.4666, -52.8659, 49.0042
3.255, 1, 34.9623, 48.6693, -13.6994, 96.5157, -52.8247, 48.8899
3.26, 1, 34.9961, 48.6544, -13.7204, 96.5647, -52.7836, 48.7757
3.264, 1, 35.0298, 48.6395, -13.7413, 96.6137, -52.7425, 48.6616
3.268, 1, 35.0636, 48.6246, -13.7622, 96.6627, -52.7014, 48.5475
3.272, 1, 35.0973, 48.6098, -13.7831, 96.7116, -52.6603, 48.4334
3.276, 1, 35.131, 48.5949, -13.804, 96.7605, -52.6192, 48.3195
3.28, 1, 35.1647, 48.5801, -13.8249, 96.8094, -52.5782, 48.2056
3.284, 1, 35.1983, 48.5653, -13.8458, 96.8583, -52.5372, 48.0917
3.288, 1, 35.232, 48.5504, -13.8666, 96.9071, -52.4962, 47.9779
3.291, 1, 35.2656, 48.5356, -13.8875, 96.9559, -52.4552, 47.8642
3.296, 1, 35.2992, 48.5208, -13.9083, 97.0047, -52.4143, 47.7505
3.3, 1, 35.3327, 48.506, -13.9292, 97.0535, -52.3733, 47.6369
3.304, 1, 35.366, 48.4914, -13.95, 97.1022, -52.3324, 47.5233
3.308, 1, 35.3989, 48.4768, -13.9709, 97.1509, -52.2915, 47.4098
3.312, 1, 35.4312, 48.4626, -13.9918, 97.1996, -52.2507, 47.2965
3.316, 1, 35.4628, 48.4487, -14.0127, 97.2481, -52.21, 47.1834
3.32, 1, 35.4934, 48.4353, -14.0337, 97.2964, -52.1695, 47.0708
3.324, 1, 35.5229, 48.4224, -14.0547, 97.3444, -52.1293, 46.9588
3.328, 1, 35.5513, 48.4102, -14.0756, 97.392, -52.0894, 46.8479
3.332, 1, 35.5787, 48.3986, -14.0963, 97.4389, -52.0501, 46.7385
3.336, 1, 35.605, 48.3875, -14.1168, 97.4849, -52.0116, 46.6312
3.34, 1, 35.6303, 48.377, -14.1368, 97.5297, -51.9741, 46.5266
3.344, 1, 35.6546, 48.3669, -14.1562, 97.5731, -51.9378, 46.4254
3.347, 1, 35.678, 48.3573, -14.1748, 97.6147, -51.903, 46.3283
3.352, 1, 35.7002, 48.3482, -14.1925, 97.6543, -51.8698, 46.236
3.356, 1, 35.7214, 48.3394, -14.2092, 97.6915, -51.8387, 46.1491
3.36, 1, 35.7416, 48.331, -14.2246, 97.7262, -51.8096, 46.0682
3.364, 1, 35.7607, 48.323, -14.2387, 97.7581, -51.7829, 45.9938
3.368, 1, 35.7789, 48.3152, -14.2514, 97.787, -51.7586, 45.9263
3.372, 1, 35.7964, 48.3076, -14.2626, 97.813, -51.7369, 45.8658
3.376, 1, 35.8131, 48.3001, -14.2722, 97.8359, -51.7176, 45.8124
3.38, 1, 35.829, 48.2928, -14.2804, 97.8558, -51.7008, 45.7661
3.383, 1, 35.8441, 48.2857, -14.2871, 97.8729, -51.6865, 45.7265
3.388, 1, 35.8581, 48.279, -14.2926, 97.8872, -51.6743, 45.6931
3.392, 1, 35.8708, 48.2728, -14.2969, 97.8991, -51.6642, 45.6655
3.396, 2, 35.8823, 48.2671, -14.3003, 97.9088, -51.656, 45.6431
3.4, 2, 35.8925, 48.262, -14.3028, 97.9166, -51.6494, 45.6251
3.403, 2, 35.9015, 48.2575, -14.3047, 97.9227, -51.6442, 45.611
3.408, 2, 35.9095, 48.2535, -14.306, 97.9274, -51.6402, 45.6002
3.412, 2, 35.9166, 48.25, -14.3068, 97.9309, -51.6371, 45.5921
3.416, 2, 35.9229, 48.247, -14.3073, 97.9335, -51.6349, 45.5861
3.42, 2, 35.9282, 48.2444, -14.3076, 97.9354, -51.6332, 45.5819
3.424, 2, 35.9326, 48.2424, -14.3077, 97.9367, -51.6321, 45.5789
3.428, 2, 35.9361, 48.2408, -14.3078, 97.9376, -51.6313, 45.5768
3.432, 2, 35.9387, 48.2397, -14.3078, 97.9383, -51.6307, 45.5754
3.436, 2, 35.9406, 48.2389, -14.3078, 97.9387, -51.6303, 45.5745
3.439, 2, 35.9418, 48.2385, -14.3078, 97.939, -51.6301, 45.5738
3.444, 2, 35.9427, 48.2385, -14.3078, 97.9392, -51.63, 45.5733
3.448, 2, 35.9432, 48.2389, -14.3078, 97.9393, -51.63, 45.573
3.452, 2, 35.9436, 48.2397, -14.3079, 97.9393, -51.6302, 45.5727
3.456, 2, 35.9438, 48.241, -14.308, 97.9393, -51.6307, 45.5724
3.46, 2, 35.9439, 48.2426, -14.3081, 97.9393, -51.6318, 45.572
3.464, 2, 35.9439, 48.2445, -14.3083, 97.9391, -51.6335, 45.5714
3.468, 2, 35.9439, 48.2465, -14.3086, 97.9388, -51.6361, 45.5705
3.472, 2, 35.9439, 48.2487, -14.309, 97.9384, -51.6397, 45.5693
3.476, 2, 35.9439, 48.251, -14.3095, 97.9379, -51.6446, 45.5678
3.48, 2, 35.9438, 48.2536, -14.3102, 97.9372, -51.6507, 45.5659
3.484, 2, 35.9438, 48.2563, -14.311, 97.9364, -51.6582, 45.5635
3.488, 2, 35.9438, 48.2594, -14.312, 97.9353, -51.6672, 45.5607
3.492, 2, 35.9439, 48.2626, -14.3132, 97.9342, -51.6777, 45.5575
3.495, 2, 35.9439, 48.266, -14.3145, 97.9328, -51.6895, 45.5538
3.5, 2, 35.944, 48.2695, -14.316, 97.9313, -51.7027, 45.5497
3.504, 2, 35.9441, 48.2731, -14.3176, 97.9297, -51.7172, 45.5452
3.508, 2, 35.9442, 48.2769, -14.3193, 97.9279, -51.7327, 45.5404
3.512, 2, 35.9443, 48.2809, -14.3211, 97.926, -51.7491, 45.5353
3.516, 2, 35.9444, 48.2852, -14.323, 97.9241, -51.7662, 45.5299
3.52, 2, 35.9445, 48.2899, -14.325, 97.922, -51.7839, 45.5245
3.524, 2, 35.9445, 48.295, -14.327, 97.92, -51.8019, 45.5189
3.528, 2, 35.9446, 48.3004, -14.329, 97.9179, -51.8201, 45.5132
3.531, 2, 35.9446, 48.306, -14.331, 97.9158, -51.8385, 45.5075
3.536, 2, 35.9446, 48.3118, -14.3331, 97.9136, -51.8571, 45.5018
3.54, 2, 35.9446, 48.3177, -14.3351, 97.9115, -51.8757, 45.496
3.544, 2, 35.9447, 48.3237, -14.3372, 97.9093, -51.8944, 45.4902
3.548, 2, 35.9447, 48.3297, -14.3392, 97.9071, -51.9131, 45.4844
3.552, 2, 35.9447, 48.3357, -14.3413, 97.905, -51.9318, 45.4786
3.556, 2, 35.9447, 48.3418, -14.3433, 97.9028, -51.9505, 45.4728
3.56, 2, 35.9447, 48.3479, -14.3454, 97.9006, -51.9693, 45.467
3.564, 2, 35.9447, 48.354, -14.3474, 97.8984, -51.988, 45.4612
3.568, 2, 35.9447, 48.3601, -14.3495, 97.8962, -52.0068, 45.4554
3.572, 2, 35.9447, 48.3662, -14.3515, 97.894, -52.0255, 45.4496
3.576, 2, 35.9447, 48.3723, -14.3536, 97.8917, -52.0443, 45.4438
3.58, 2, 35.9447, 48.3784, -14.3556, 97.8895, -52.063, 45.438
3.584, 2, 35.9447, 48.3845, -14.3576, 97.8873, -52.0818, 45.4322
3.587, 2, 35.9447, 48.3906, -14.3596, 97.8851, -52.1006, 45.4264
3.592, 2, 35.9447, 48.3967, -14.3617, 97.8828, -52.1193, 45.4207
3.596, 2, 35.9446, 48.4028, -14.3637, 97.8806, -52.1381, 45.4149
3.6, 2, 35.9446, 48.4089, -14.3657, 97.8784, -52.1568, 45.4091
3.604, 2, 35.9446, 48.415, -14.3677, 97.8761, -52.1756, 45.4033
3.608, 2, 35.9446, 48.4211, -14.3697, 97.8739, -52.1943, 45.3975
3.612, 2, 35.9446, 48.4271, -14.3718, 97.8716, -52.2131, 45.3918
3.616, 2, 35.9446, 48.4332, -14.3738, 97.8693, -52.2318, 45.386
3.62, 2, 35.9446, 48.4393, -14.3758, 97.8671, -52.2506, 45.3802
3.624, 2, 35.9445, 48.4454, -14.3778, 97.8648, -52.2693, 45.3745
3.628, 2, 35.9445, 48.4515, -14.3798, 97.8625, -52.2881, 45.3687
3.632, 2, 35.9445, 48.4576, -14.3818, 97.8603, -52.3068, 45.3629
3.636, 2, 35.9445, 48.4637, -14.3837, 97.858, -52.3255, 45.3572
3.64, 2, 35.9444, 48.4698, -14.3857, 97.8557, -52.3443, 45.3514
3.644, 2, 35.9444, 48.4758, -14.3877, 97.8534, -52.363, 45.3457
3.648, 2, 35.9444, 48.4819, -14.3897, 97.8511, -52.3817, 45.3399
3.652, 2, 35.9444, 48.488, -14.3917, 97.8488, -52.4005, 45.3342
3.656, 2, 35.9443, 48.4941, -14.3936, 97.8465, -52.4192, 45.3284
3.66, 2, 35.9443, 48.5002, -14.3956, 97.8442, -52.4379, 45.3227
3.664, 2, 35.9443, 48.5062, -14.3976, 97.8418, -52.4566, 45.3169
3.668, 2, 35.9442, 48.5123, -14.3996, 97.8395, -52.4754, 45.3112
3.672, 2, 35.9442, 48.5184, -14.4015, 97.8372, -52.4941, 45.3055
3.676, 2, 35.9441, 48.5245, -14.4035, 97.8349, -52.5128, 45.2997
3.679, 2, 35.9441, 48.5305, -14.4054, 97.8325, -52.5315, 45.294
3.684, 2, 35.9441, 48.5366, -14.4074, 97.8302, -52.5502, 45.2883
3.688, 2, 35.944, 48.5427, -14.4093, 97.8278, -52.5689, 45.2826
3.692, 2, 35.944, 48.5487, -14.4113, 97.8255, -52.5877, 45.2768
3.696, 2, 35.9439, 48.5548, -14.4132, 97.8231, -52.6064, 45.2711
3.7, 2, 35.9439, 48.5609, -14.4151, 97.8208, -52.6251, 45.2654
3.704, 2, 35.9438, 48.5669, -14.4171, 97.8184, -52.6438, 45.2597
3.708, 2, 35.9438, 48.573, -14.419, 97.816, -52.6625, 45.254
3.712, 2, 35.9437, 48.579, -14.4209, 97.8136, -52.6812, 45.2483
3.716, 2, 35.9437, 48.5851, -14.4229, 97.8113, -52.6999, 45.2426
3.72, 2, 35.9436, 48.5911, -14.4248, 97.8089, -52.7186, 45.2369
3.724, 2, 35.9436, 48.5972, -14.4267, 97.8065, -52.7373, 45.2312
3.728, 2, 35.9435, 48.6033, -14.4286, 97.8041, -52.756, 45.2255
3.732, 2, 35.9435, 48.6093, -14.4305, 97.8017, -52.7747, 45.2198
3.735, 2, 35.9434, 48.6154, -14.4324, 97.7993, -52.7934, 45.2141
3.74, 2, 35.9433, 48.6214, -14.4343, 97.7969, -52.8121, 45.2084
3.744, 2, 35.9433, 48.6275, -14.4362, 97.7945, -52.8307, 45.2027
3.748, 2, 35.9432, 48.6335, -14.4381, 97.7921, -52.8494, 45.197
3.752, 2, 35.9432, 48.6395, -14.44, 97.7896, -52.8681, 45.1913
3.756, 2, 35.9431, 48.6456, -14.4419, 97.7872, -52.8868, 45.1856
3.76, 2, 35.943, 48.6516, -14.4438, 97.7848, -52.9055, 45.18
3.764, 2, 35.943, 48.6577, -14.4457, 97.7823, -52.9242, 45.1743
3.768, 2, 35.9429, 48.6637, -14.4476, 97.7799, -52.9428, 45.1686
3.772, 2, 35.9428, 48.6697, -14.4495, 97.7775, -52.9615, 45.1629
3.776, 2, 35.9427, 48.6758, -14.4513, 97.775, -52.9802, 45.1573
3.78, 2, 35.9427, 48.6818, -14.4532, 97.7726, -52.9989, 45.1516
3.784, 2, 35.9426, 48.6878, -14.4551, 97.7701, -53.0175, 45.146
3.788, 2, 35.9425, 48.6939, -14.457, 97.7676, -53.0362, 45.1403
3.792, 2, 35.9424, 48.6999, -14.4588, 97.7652, -53.0549, 45.1346
3.796, 2, 35.9424, 48.7059, -14.4607, 97.7627, -53.0735, 45.129
3.8, 2, 35.9423, 48.712, -14.4625, 97.7602, -53.0922, 45.1233
3.804, 2, 35.9422, 48.718, -14.4644, 97.7577, -53.1108, 45.1177
3.808, 2, 35.9421, 48.724, -14.4662, 97.7552, -53.1295, 45.112
3.812, 2, 35.942, 48.73, -14.4681, 97.7527, -53.1482, 45.1064
3.816, 2, 35.9419, 48.7361, -14.4699, 97.7502, -53.1668, 45.1007
3.82, 2, 35.9418, 48.7421, -14.4718, 97.7477, -53.1855, 45.0951
3.824, 2, 35.9418, 48.7481, -14.4736, 97.7452, -53.2041, 45.0895
3.828, 2, 35.9417, 48.7541, -14.4754, 97.7427, -53.2228, 45.0838
3.832, 2, 35.9416, 48.7601, -14.4773, 97.7402, -53.2414, 45.0782
3.836, 2, 35.9415, 48.7661, -14.4791, 97.7377, -53.2601, 45.0726
3.84, 2, 35.9414, 48.7722, -14.4809, 97.7352, -53.2787, 45.0669
3.844, 2, 35.9413, 48.7782, -14.4827, 97.7326, -53.2973, 45.0613
3.848, 2, 35.9412, 48.7842, -14.4845, 97.7301, -53.316, 45.0557
3.852, 2, 35.9411, 48.7902, -14.4864, 97.7276, -53.3346, 45.0501
3.856, 2, 35.941, 48.7962, -14.4882, 97.725, -53.3533, 45.0445
3.86, 2, 35.9409, 48.8022, -14.49, 97.7225, -53.3719, 45.0388
3.864, 2, 35.9408, 48.8082, -14.4918, 97.7199, -53.3905, 45.0332
3.868, 2, 35.9407, 48.8142, -14.4936, 97.7174, -53.4092, 45.0276
3.872, 2, 35.9406, 48.8202, -14.4954, 97.7148, -53.4278, 45.022
3.876, 2, 35.9405, 48.8262, -14.4972, 97.7123, -53.4464, 45.0164
3.88, 2, 35.9404, 48.8322, -14.4989, 97.7097, -53.465, 45.0108
3.884, 2, 35.9402, 48.8382, -14.5007, 97.7071, -53.4837, 45.0052
3.888, 2, 35.9401, 48.8442, -14.5025, 97.7045, -53.5023, 44.9996
3.892, 2, 35.94, 48.8502, -14.5043, 97.7019, -53.5209, 44.994
3.896, 2, 35.9399, 48.8562, -14.5061, 97.6993, -53.5395, 44.9884
3.9, 2, 35.9398, 48.8622, -14.5078, 97.6968, -53.5581, 44.9828
3.904, 2, 35.9397, 48.8681, -14.5096, 97.6942, -53.5768, 44.9772
3.908, 2, 35.9395, 48.8741, -14.5114, 97.6916, -53.5954, 44.9717
3.912, 2, 35.9394, 48.8801, -14.5131, 97.689, -53.614, 44.9661
3.916, 2, 35.9393, 48.8861, -14.5149, 97.6863, -53.6326, 44.9605
3.92, 2, 35.9392, 48.8921, -14.5166, 97.6837, -53.6512, 44.9549
3.924, 2, 35.9391, 48.8981, -14.5184, 97.6811, -53.6698, 44.9493
3.928, 2, 35.9389, 48.904, -14.5201, 97.6785, -53.6884, 44.9438
3.932, 2, 35.9388, 48.91, -14.5219, 97.6759, -53.707, 44.9382
3.936, 2, 35.9387, 48.916, -14.5236, 97.6732, -53.7256, 44.9326
3.94, 2, 35.9385, 48.922, -14.5254, 97.6706, -53.7442, 44.9271
3.944, 2, 35.9384, 48.9279, -14.5271, 97.6679, -53.7628, 44.9215
3.948, 2, 35.9383, 48.9339, -14.5288, 97.6653, -53.7814, 44.9159
3.952, 2, 35.9381, 48.9399, -14.5306, 97.6626, -53.8, 44.9104
3.956, 2, 35.938, 48.9459, -14.5323, 97.66, -53.8186, 44.9048
3.96, 2, 35.9379, 48.9518, -14.534, 97.6573, -53.8372, 44.8993
3.964, 2, 35.9377, 48.9578, -14.5357, 97.6547, -53.8557, 44.8937
3.968, 2, 35.9376, 48.9638, -14.5374, 97.652, -53.8743, 44.8882
3.972, 2, 35.9375, 48.9697, -14.5392, 97.6493, -53.8929, 44.8826
3.976, 2, 35.9373, 48.9757, -14.5409, 97.6466, -53.9115, 44.8771
3.98, 2, 35.9372, 48.9816, -14.5426, 97.644, -53.9301, 44.8715
3.984, 2, 35.937, 48.9876, -14.5443, 97.6413, -53.9487, 44.866
3.988, 2, 35.9369, 48.9936, -14.546, 97.6386, -53.9672, 44.8605
3.992, 2, 35.9367, 48.9995, -14.5477, 97.6359, -53.9858, 44.8549
3.996, 2, 35.9366, 49.0055, -14.5493, 97.6332, -54.0044, 44.8494
3.999, 2, 35.9364, 49.0114, -14.551, 97.6305, -54.0229, 44.8439
4.004, 2, 35.9363, 49.0174, -14.5527, 97.6278, -54.0415, 44.8383
4.008, 2, 35.9361, 49.0233, -14.5544, 97.625, -54.0601, 44.8328
4.012, 2, 35.936, 49.0293, -14.5561, 97.6223, -54.0786, 44.8273
4.016, 2, 35.9358, 49.0352, -14.5577, 97.6196, -54.0972, 44.8218
4.02, 2, 35.9356, 49.0412, -14.5594, 97.6169, -54.1158, 44.8162
4.024, 2, 35.9355, 49.0471, -14.5611, 97.6141, -54.1343, 44.8107
4.028, 2, 35.9353, 49.053, -14.5627, 97.6114, -54.1529, 44.8052
4.032, 2, 35.9352, 49.059, -14.5644, 97.6087, -54.1714, 44.7997
4.036, 2, 35.935, 49.0649, -14.5661, 97.6059, -54.19, 44.7942
4.04, 2, 35.9348, 49.0709, -14.5677, 97.6031, -54.2085, 44.7887
4.044, 2, 35.9347, 49.0768, -14.5694, 97.6004, -54.2271, 44.7832
4.048, 2, 35.9345, 49.0827, -14.571, 97.5976, -54.2456, 44.7777
4.052, 2, 35.9343, 49.0887, -14.5727, 97.5949, -54.2642, 44.7722
4.056, 2, 35.9342, 49.0946, -14.5743, 97.5921, -54.2827, 44.7667
4.06, 2, 35.934, 49.1005, -14.5759, 97.5893, -54.3013, 44.7612
4.064, 2, 35.9338, 49.1064, -14.5776, 97.5866, -54.3198, 44.7557
4.068, 2, 35.9336, 49.1124, -14.5792, 97.5838, -54.3383, 44.7502
4.072, 2, 35.9335, 49.1183, -14.5808, 97.581, -54.3569, 44.7447
4.076, 2, 35.9333, 49.1242, -14.5824, 97.5782, -54.3754, 44.7392
4.08, 2, 35.9331, 49.1301, -14.5841, 97.5754, -54.3939, 44.7337
4.084, 2, 35.9329, 49.1361, -14.5857, 97.5726, -54.4125, 44.7283
4.088, 2, 35.9327, 49.142, -14.5873, 97.5698, -54.431, 44.7228
4.092, 2, 35.9325, 49.1479, -14.5889, 97.567, -54.4495, 44.7173
4.096, 2, 35.9324, 49.1538, -14.5905, 97.5642, -54.468, 44.7118
4.1, 2, 35.9322, 49.1597, -14.5921, 97.5614, -54.4866, 44.7064
4.104, 2, 35.932, 49.1656, -14.5937, 97.5585, -54.5051, 44.7009
4.108, 2, 35.9318, 49.1715, -14.5953, 97.5557, -54.5236, 44.6954
4.112, 2, 35.9316, 49.1774, -14.5969, 97.5529, -54.5421, 44.6899
4.116, 2, 35.9314, 49.1833, -14.5985, 97.55, -54.5606, 44.6845
4.12, 2, 35.9312, 49.1893, -14.6, 97.5472, -54.5792, 44.679
4.124, 2, 35.931, 49.1952, -14.6016, 97.5444, -54.5977, 44.6736
4.128, 2, 35.9308, 49.2011, -14.6032, 97.5415, -54.6162, 44.6681
4.132, 2, 35.9306, 49.207, -14.6048, 97.5387, -54.6347, 44.6627
4.136, 2, 35.9304, 49.2129, -14.6063, 97.5358, -54.6532, 44.6572
4.14, 2, 35.9302, 49.2188, -14.6079, 97.5329, -54.6717, 44.6518
4.144, 2, 35.93, 49.2247, -14.6095, 97.5301, -54.6902, 44.6463
4.148, 2, 35.9298, 49.2306, -14.611, 97.5272, -54.7087, 44.6409
4.152, 2, 35.9296, 49.2364, -14.6126, 97.5243, -54.7272, 44.6354
4.156, 2, 35.9294, 49.2423, -14.6141, 97.5214, -54.7457, 44.63
4.16, 2, 35.9292, 49.2482, -14.6157, 97.5186, -54.7642, 44.6245
4.164, 2, 35.929, 49.2541, -14.6172, 97.5157, -54.7827, 44.6191
4.168, 2, 35.9288, 49.26, -14.6188, 97.5128, -54.8012, 44.6137
4.172, 2, 35.9286, 49.2659, -14.6203, 97.5099, -54.8197, 44.6082
4.176, 2, 35.9284, 49.2718, -14.6218, 97.507, -54.8382, 44.6028
4.18, 2, 35.9281, 49.2777, -14.6234, 97.5041, -54.8566, 44.5974
4.184, 2, 35.9279, 49.2835, -14.6249, 97.5012, -54.8751, 44.5919
4.188, 2, 35.9277, 49.2894, -14.6264, 97.4983, -54.8936, 44.5865
4.192, 2, 35.9275, 49.2953, -14.6279, 97.4953, -54.9121, 44.5811
4.196, 2, 35.9273, 49.3012, -14.6295, 97.4924, -54.9306, 44.5757
4.2, 2, 35.9271, 49.307, -14.631, 97.4895, -54.949, 44.5703
4.204, 2, 35.9268, 49.3129, -14.6325, 97.4866, -54.9675, 44.5648
4.208, 2, 35.9266, 49.3188, -14.634, 97.4836, -54.986, 44.5594
4.212, 2, 35.9264, 49.3246, -14.6355, 97.4807, -55.0044, 44.554
4.216, 2, 35.9261, 49.3305, -14.637, 97.4777, -55.0229, 44.5486
4.22, 2, 35.9259, 49.3364, -14.6385, 97.4748, -55.0414, 44.5432
4.224, 2, 35.9257, 49.3422, -14.64, 97.4718, -55.0598, 44.5378
4.228, 2, 35.9255, 49.3481, -14.6415, 97.4689, -55.0783, 44.5324
4.232, 2, 35.9252, 49.354, -14.6429, 97.4659, -55.0968, 44.527
4.236, 2, 35.925, 49.3598, -14.6444, 97.463, -55.1152, 44.5216
4.24, 2, 35.9248, 49.3657, -14.6459, 97.46, -55.1337, 44.5162
4.244, 2, 35.9245, 49.3715, -14.6474, 97.457, -55.1521, 44.5108
4.248, 2, 35.9243, 49.3774, -14.6488, 97.454, -55.1706, 44.5054
4.252, 2, 35.924, 49.3832, -14.6503, 97.4511, -55.189, 44.5
4.256, 2, 35.9238, 49.3891, -14.6518, 97.4481, -55.2075, 44.4946
4.26, 2, 35.9236, 49.3949, -14.6532, 97.4451, -55.2259, 44.4893
4.264, 2, 35.9233, 49.4008, -14.6547, 97.4421, -55.2444, 44.4839
4.268, 2, 35.9231, 49.4066, -14.6561, 97.4391, -55.2628, 44.4785
4.272, 2, 35.9228, 49.4125, -14.6576, 97.4361, -55.2813, 44.4731
4.276, 2, 35.9226, 49.4183, -14.659, 97.4331, -55.2997, 44.4677
4.28, 2, 35.9223, 49.4242, -14.6605, 97.4301, -55.3182, 44.4624
4.284, 2, 35.9221, 49.43, -14.6619, 97.427, -55.3366, 44.457
4.288, 2, 35.9218, 49.4358, -14.6633, 97.424, -55.355, 44.4516
4.292, 2, 35.9216, 49.4417, -14.6648, 97.421, -55.3735, 44.4462
4.296, 2, 35.9213, 49.4475, -14.6662, 97.418, -55.3919, 44.4409
4.3, 2, 35.921, 49.4534, -14.6676, 97.4149, -55.4103, 44.4355
4.304, 2, 35.9208, 49.4592, -14.669, 97.4119, -55.4287, 44.4301
4.308, 2, 35.9205, 49.465, -14.6705, 97.4089, -55.4472, 44.4248
4.312, 2, 35.9203, 49.4708, -14.6719, 97.4058, -55.4656, 44.4194
4.316, 2, 35.92, 49.4767, -14.6733, 97.4028, -55.484, 44.4141
4.32, 2, 35.9197, 49.4825, -14.6747, 97.3997, -55.5024, 44.4087
4.324, 2, 35.9195, 49.4883, -14.6761, 97.3967, -55.5209, 44.4034
4.328, 2, 35.9192, 49.4941, -14.6775, 97.3936, -55.5393, 44.398
4.332, 2, 35.9189, 49.5, -14.6789, 97.3905, -55.5577, 44.3927
4.336, 2, 35.9187, 49.5058, -14.6803, 97.3875, -55.5761, 44.3873
4.34, 2, 35.9184, 49.5116, -14.6817, 97.3844, -55.5945, 44.382
4.344, 2, 35.9181, 49.5174, -14.6831, 97.3813, -55.6129, 44.3766
4.348, 2, 35.9178, 49.5232, -14.6844, 97.3782, -55.6313, 44.3713
4.352, 2, 35.9176, 49.529, -14.6858, 97.3751, -55.6497, 44.3659
4.356, 2, 35.9173, 49.5348, -14.6872, 97.372, -55.6681, 44.3606
4.36, 2, 35.917, 49.5406, -14.6886, 97.3689, -55.6865, 44.3553
4.364, 2, 35.9167, 49.5465, -14.6899, 97.3658, -55.7049, 44.3499
4.368, 2, 35.9165, 49.5523, -14.6913, 97.3627, -55.7233, 44.3446
4.372, 2, 35.9162, 49.5581, -14.6926, 97.3596, -55.7417, 44.3393
4.376, 2, 35.9159, 49.5639, -14.694, 97.3565, -55.7601, 44.334
4.38, 2, 35.9156, 49.5697, -14.6954, 97.3534, -55.7785, 44.3286
4.384, 2, 35.9153, 49.5755, -14.6967, 97.3503, -55.7969, 44.3233
4.388, 2, 35.915, 49.5813, -14.6981, 97.3472, -55.8153, 44.318
4.392, 2, 35.9147, 49.5871, -14.6994, 97.344, -55.8337, 44.3127
4.396, 2, 35.9144, 49.5928, -14.7007, 97.3409, -55.8521, 44.3074
4.4, 2, 35.9142, 49.5986, -14.7021, 97.3378, -55.8704, 44.302
4.404, 2, 35.9139, 49.6044, -14.7034, 97.3346, -55.8888, 44.2967
4.408, 2, 35.9136, 49.6102, -14.7047, 97.3315, -55.9072, 44.2914
4.412, 2, 35.9133, 49.616, -14.706, 97.3283, -55.9256, 44.2861
4.416, 2, 35.913, 49.6218, -14.7074, 97.3252, -55.944, 44.2808
4.42, 2, 35.9127, 49.6276, -14.7087, 97.322, -55.9623, 44.2755
4.424, 2, 35.9124, 49.6334, -14.71, 97.3188, -55.9807, 44.2702
4.428, 2, 35.9121, 49.6391, -14.7113, 97.3157, -55.9991, 44.2649
4.432, 2, 35.9118, 49.6449, -14.7126, 97.3125, -56.0174, 44.2596
4.436, 2, 35.9115, 49.6507, -14.7139, 97.3093, -56.0358, 44.2543
4.44, 2, 35.9112, 49.6565, -14.7152, 97.3061, -56.0542, 44.249
4.444, 2, 35.9108, 49.6622, -14.7165, 97.303, -56.0725, 44.2437
4.448, 2, 35.9105, 49.668, -14.7178, 97.2998, -56.0909, 44.2384
4.452, 2, 35.9102, 49.6738, -14.7191, 97.2966, -56.1093, 44.2331
4.456, 2, 35.9099, 49.6796, -14.7204, 97.2934, -56.1276, 44.2278
4.46, 2, 35.9096, 49.6853, -14.7217, 97.2902, -56.146, 44.2225
4.464, 2, 35.9093, 49.6911, -14.7229, 97.287, -56.1643, 44.2173
4.468, 2, 35.909, 49.6968, -14.7242, 97.2838, -56.1827, 44.212
4.472, 2, 35.9087, 49.7026, -14.7255, 97.2806, -56.201, 44.2067
4.476, 2, 35.9083, 49.7084, -14.7267, 97.2774, -56.2194, 44.2014
4.48, 2, 35.908, 49.7141, -14.728, 97.2741, -56.2377, 44.1962
4.484, 2, 35.9077, 49.7199, -14.7293, 97.2709, -56.2561, 44.1909
4.488, 2, 35.9074, 49.7256, -14.7305, 97.2677, -56.2744, 44.1856
4.492, 2, 35.907, 49.7314, -14.7318, 97.2645, -56.2927, 44.1803
4.496, 2, 35.9067, 49.7371, -14.733, 97.2612, -56.3111, 44.1751
4.5, 2, 35.9064, 49.7429, -14.7343, 97.258, -56.3294, 44.1698
4.504, 2, 35.9061, 49.7486, -14.7355, 97.2547, -56.3477, 44.1645
4.508, 2, 35.9057, 49.7544, -14.7367, 97.2515, -56.3661, 44.1593
4.512, 2, 35.9054, 49.7601, -14.738, 97.2482, -56.3844, 44.154
4.516, 2, 35.9051, 49.7659, -14.7392, 97.245, -56.4027, 44.1488
4.52, 2, 35.9047, 49.7716, -14.7404, 97.2417, -56.4211, 44.1435
4.524, 2, 35.9044, 49.7774, -14.7417, 97.2384, -56.4394, 44.1383
4.528, 2, 35.9041, 49.7831, -14.7429, 97.2352, -56.4577, 44.133
4.532, 2, 35.9037, 49.7888, -14.7441, 97.2319, -56.476, 44.1278
4.536, 2, 35.9034, 49.7946, -14.7453, 97.2286, -56.4944, 44.1225
4.54, 2, 35.903, 49.8003, -14.7465, 97.2253, -56.5127, 44.1173
4.544, 2, 35.9027, 49.806, -14.7477, 97.2221, -56.531, 44.112
4.548, 2, 35.9024, 49.8118, -14.7489, 97.2188, -56.5493, 44.1068
4.552, 2, 35.902, 49.8175, -14.7501, 97.2155, -56.5676, 44.1015
4.556, 2, 35.9017, 49.8232, -14.7513, 97.2122, -56.5859, 44.0963
4.56, 2, 35.9013, 49.8289, -14.7525, 97.2089, -56.6042, 44.091
4.564, 2, 35.901, 49.8347, -14.7537, 97.2056, -56.6225, 44.0858
4.568, 2, 35.9006, 49.8404, -14.7549, 97.2023, -56.6408, 44.0806
4.572, 2, 35.9003, 49.8461, -14.7561, 97.199, -56.6592, 44.0753
4.576, 2, 35.8999, 49.8518, -14.7572, 97.1956, -56.6775, 44.0701
4.58, 2, 35.8996, 49.8575, -14.7584, 97.1923, -56.6958, 44.0649
4.584, 2, 35.8992, 49.8632, -14.7596, 97.189, -56.7141, 44.0597
4.588, 2, 35.8988, 49.869, -14.7607, 97.1857, -56.7323, 44.0544
4.592, 2, 35.8985, 49.8747, -14.7619, 97.1823, -56.7506, 44.0492
4.596, 2, 35.8981, 49.8804, -14.7631, 97.179, -56.7689, 44.044
4.6, 2, 35.8978, 49.8861, -14.7642, 97.1756, -56.7872, 44.0388
4.604, 2, 35.8974, 49.8918, -14.7654, 97.1723, -56.8055, 44.0336
4.608, 2, 35.897, 49.8975, -14.7665, 97.169, -56.8238, 44.0284
4.612, 2, 35.8967, 49.9032, -14.7676, 97.1656, -56.8421, 44.0231
4.616, 2, 35.8963, 49.9089, -14.7688, 97.1622, -56.8604, 44.0179
4.62, 2, 35.8959, 49.9146, -14.7699, 97.1589, -56.8786, 44.0127
4.624, 2, 35.8955, 49.9203, -14.7711, 97.1555, -56.8969, 44.0075
4.628, 2, 35.8952, 49.926, -14.7722, 97.1521, -56.9152, 44.0023
4.632, 2, 35.8948, 49.9317, -14.7733, 97.1488, -56.9335, 43.9971
4.636, 2, 35.8944, 49.9374, -14.7744, 97.1454, -56.9518, 43.9919
4.64, 2, 35.8941, 49.9431, -14.7755, 97.142, -56.97, 43.9867
4.644, 2, 35.8937, 49.9487, -14.7767, 97.1386, -56.9883, 43.9815
4.648, 2, 35.8933, 49.9544, -14.7778, 97.1352, -57.0066, 43.9763
4.652, 2, 35.8929, 49.9601, -14.7789, 97.1318, -57.0248, 43.9711
4.656, 2, 35.8925, 49.9658, -14.78, 97.1284, -57.0431, 43.9659
4.66, 2, 35.8922, 49.9715, -14.7811, 97.125, -57.0614, 43.9607
4.664, 2, 35.8918, 49.9772, -14.7822, 97.1216, -57.0796, 43.9555
4.668, 2, 35.8914, 49.9828, -14.7833, 97.1182, -57.0979, 43.9503
4.672, 2, 35.891, 49.9885, -14.7844, 97.1148, -57.1161, 43.9452
4.676, 2, 35.8906, 49.9942, -14.7854, 97.1114, -57.1344, 43.94
4.68, 2, 35.8902, 49.9999, -14.7865, 97.108, -57.1526, 43.9348
4.684, 2, 35.8898, 50.0055, -14.7876, 97.1046, -57.1709, 43.9296
4.688, 2, 35.8894, 50.0112, -14.7887, 97.1011, -57.1891, 43.9244
4.692, 2, 35.889, 50.0169, -14.7898, 97.0977, -57.2074, 43.9193
4.696, 2, 35.8886, 50.0225, -14.7908, 97.0943, -57.2256, 43.9141
4.7, 2, 35.8883, 50.0282, -14.7919, 97.0908, -57.2439, 43.9089
4.704, 2, 35.8879, 50.0339, -14.7929, 97.0874, -57.2621, 43.9037
4.708, 2, 35.8875, 50.0395, -14.794, 97.0839, -57.2804, 43.8986
4.712, 2, 35.8871, 50.0452, -14.7951, 97.0805, -57.2986, 43.8934
4.716, 2, 35.8867, 50.0508, -14.7961, 97.077, -57.3168, 43.8882
4.72, 2, 35.8862, 50.0565, -14.7971, 97.0735, -57.3351, 43.8831
4.724, 2, 35.8858, 50.0621, -14.7982, 97.0701, -57.3533, 43.8779
4.728, 2, 35.8854, 50.0678, -14.7992, 97.0666, -57.3715, 43.8728
4.732, 2, 35.885, 50.0734, -14.8003, 97.0631, -57.3898, 43.8676
4.736, 2, 35.8846, 50.0791, -14.8013, 97.0597, -57.408, 43.8624
4.74, 2, 35.8842, 50.0847, -14.8023, 97.0562, -57.4262, 43.8573
4.744, 2, 35.8838, 50.0904, -14.8033, 97.0527, -57.4445, 43.8521
4.748, 2, 35.8834, 50.096, -14.8044, 97.0492, -57.4627, 43.847
4.752, 2, 35.883, 50.1017, -14.8054, 97.0457, -57.4809, 43.8418
4.756, 2, 35.8825, 50.1073, -14.8064, 97.0422, -57.4991, 43.8367
4.76, 2, 35.8821, 50.1129, -14.8074, 97.0387, -57.5173, 43.8315
4.764, 2, 35.8817, 50.1186, -14.8084, 97.0352, -57.5356, 43.8264
4.768, 2, 35.8813, 50.1242, -14.8094, 97.0317, -57.5538, 43.8212
4.772, 2, 35.8809, 50.1298, -14.8104, 97.0282, -57.572, 43.8161
4.776, 2, 35.8804, 50.1355, -14.8114, 97.0247, -57.5902, 43.811
4.78, 2, 35.88, 50.1411, -14.8124, 97.0212, -57.6084, 43.8058
4.784, 2, 35.8796, 50.1467, -14.8134, 97.0177, -57.6266, 43.8007
4.788, 2, 35.8792, 50.1524, -14.8144, 97.0141, -57.6448, 43.7956
4.792, 2, 35.8787, 50.158, -14.8153, 97.0106, -57.663, 43.7904
4.796, 2, 35.8783, 50.1636, -14.8163, 97.007, -57.6812, 43.7853
4.8, 2, 35.8779, 50.1692, -14.8173, 97.0035, -57.6994, 43.7802
4.804, 2, 35.8774, 50.1748, -14.8182, 97, -57.7176, 43.775
4.808, 2, 35.877, 50.1805, -14.8192, 96.9964, -57.7358, 43.7699
4.812, 2, 35.8766, 50.1861, -14.8202, 96.9929, -57.754, 43.7648
4.816, 2, 35.8761, 50.1917, -14.8211, 96.9893, -57.7722, 43.7597
4.82, 2, 35.8757, 50.1973, -14.8221, 96.9858, -57.7904, 43.7546
4.824, 2, 35.8753, 50.2029, -14.823, 96.9822, -57.8086, 43.7494
4.828, 2, 35.8748, 50.2085, -14.824, 96.9786, -57.8267, 43.7443
4.832, 2, 35.8744, 50.2141, -14.8249, 96.9751, -57.8449, 43.7392
4.836, 2, 35.8739, 50.2197, -14.8259, 96.9715, -57.8631, 43.7341
4.84, 2, 35.8735, 50.2253, -14.8268, 96.9679, -57.8813, 43.729
4.844, 2, 35.873, 50.2309, -14.8277, 96.9643, -57.8995, 43.7239
4.848, 2, 35.8726, 50.2365, -14.8287, 96.9607, -57.9176, 43.7188
4.852, 2, 35.8721, 50.2421, -14.8296, 96.9572, -57.9358, 43.7136
4.856, 2, 35.8717, 50.2477, -14.8305, 96.9536, -57.954, 43.7085
4.86, 2, 35.8712, 50.2533, -14.8314, 96.95, -57.9722, 43.7034
4.864, 2, 35.8708, 50.2589, -14.8323, 96.9464, -57.9903, 43.6983
4.868, 2, 35.8703, 50.2645, -14.8332, 96.9428, -58.0085, 43.6932
4.872, 2, 35.8699, 50.2701, -14.8341, 96.9392, -58.0267, 43.6881
4.876, 2, 35.8694, 50.2757, -14.835, 96.9355, -58.0448, 43.683
4.88, 2, 35.869, 50.2812, -14.8359, 96.9319, -58.063, 43.678
4.884, 2, 35.8685, 50.2868, -14.8368, 96.9283, -58.0812, 43.6729
4.888, 2, 35.868, 50.2924, -14.8377, 96.9247, -58.0993, 43.6678
4.892, 2, 35.8676, 50.298, -14.8386, 96.9211, -58.1175, 43.6627
4.896, 2, 35.8671, 50.3036, -14.8395, 96.9174, -58.1356, 43.6576
4.9, 2, 35.8666, 50.3091, -14.8404, 96.9138, -58.1538, 43.6525
4.904, 2, 35.8662, 50.3147, -14.8413, 96.9101, -58.1719, 43.6474
4.908, 2, 35.8657, 50.3203, -14.8421, 96.9065, -58.1901, 43.6423
4.912, 2, 35.8652, 50.3258, -14.843, 96.9029, -58.2082, 43.6373
4.916, 2, 35.8648, 50.3314, -14.8439, 96.8992, -58.2264, 43.6322
4.92, 2, 35.8643, 50.337, -14.8447, 96.8956, -58.2445, 43.6271
4.924, 2, 35.8638, 50.3425, -14.8456, 96.8919, -58.2627, 43.622
4.928, 2, 35.8633, 50.3481, -14.8464, 96.8882, -58.2808, 43.6169
4.932, 2, 35.8629, 50.3537, -14.8473, 96.8846, -58.2989, 43.6119
4.936, 2, 35.8624, 50.3592, -14.8481, 96.8809, -58.3171, 43.6068
4.94, 2, 35.8619, 50.3648, -14.849, 96.8772, -58.3352, 43.6017
4.944, 2, 35.8614, 50.3703, -14.8498, 96.8736, -58.3534, 43.5967
4.948, 2, 35.861, 50.3759, -14.8506, 96.8699, -58.3715, 43.5916
4.952, 2, 35.8605, 50.3814, -14.8515, 96.8662, -58.3896, 43.5865
4.956, 2, 35.86, 50.387, -14.8523, 96.8625, -58.4077, 43.5815
4.96, 2, 35.8595, 50.3925, -14.8531, 96.8588, -58.4259, 43.5764
4.964, 2, 35.859, 50.3981, -14.8539, 96.8551, -58.444, 43.5713
4.968, 2, 35.8585, 50.4036, -14.8548, 96.8514, -58.4621, 43.5663
4.972, 2, 35.858, 50.4092, -14.8556, 96.8477, -58.4802, 43.5612
4.976, 2, 35.8575, 50.4147, -14.8564, 96.844, -58.4984, 43.5562
4.98, 2, 35.857, 50.4202, -14.8572, 96.8403, -58.5165, 43.5511
4.984, 2, 35.8566, 50.4258, -14.858, 96.8366, -58.5346, 43.5461
4.988, 2, 35.8561, 50.4313, -14.8588, 96.8329, -58.5527, 43.541
4.992, 2, 35.8556, 50.4368, -14.8596, 96.8291, -58.5708, 43.536
4.996, 2, 35.8551, 50.4424, -14.8604, 96.8254, -58.5889, 43.5309
5, 2, 35.8546, 50.4479, -14.8612, 96.8217, -58.607, 43.5259
5.004, 2, 35.8541, 50.4534, -14.8619, 96.8179, -58.6251, 43.5208
5.008, 2, 35.8536, 50.459, -14.8627, 96.8142, -58.6432, 43.5158
5.012, 2, 35.8531, 50.4645, -14.8635, 96.8105, -58.6613, 43.5107
5.016, 2, 35.8525, 50.47, -14.8643, 96.8067, -58.6794, 43.5057
5.02, 2, 35.852, 50.4755, -14.865, 96.803, -58.6975, 43.5007
5.024, 2, 35.8515, 50.481, -14.8658, 96.7992, -58.7156, 43.4956
5.028, 2, 35.851, 50.4866, -14.8666, 96.7955, -58.7337, 43.4906
5.032, 2, 35.8505, 50.4921, -14.8673, 96.7917, -58.7518, 43.4856
5.036, 2, 35.85, 50.4976, -14.8681, 96.7879, -58.7699, 43.4805
5.04, 2, 35.8495, 50.5031, -14.8688, 96.7842, -58.788, 43.4755
5.044, 2, 35.849, 50.5086, -14.8696, 96.7804, -58.8061, 43.4705
5.048, 2, 35.8485, 50.5141, -14.8703, 96.7766, -58.8242, 43.4655
5.052, 2, 35.8479, 50.5196, -14.8711, 96.7729, -58.8423, 43.4604
5.056, 2, 35.8474, 50.5251, -14.8718, 96.7691, -58.8604, 43.4554
5.06, 2, 35.8469, 50.5306, -14.8725, 96.7653, -58.8784, 43.4504
5.064, 2, 35.8464, 50.5361, -14.8733, 96.7615, -58.8965, 43.4454
5.068, 2, 35.8459, 50.5416, -14.874, 96.7577, -58.9146, 43.4403
5.072, 2, 35.8453, 50.5471, -14.8747, 96.7539, -58.9327, 43.4353
5.076, 2, 35.8448, 50.5526, -14.8754, 96.7501, -58.9507, 43.4303
5.08, 2, 35.8443, 50.5581, -14.8761, 96.7463, -58.9688, 43.4253
5.084, 2, 35.8437, 50.5636, -14.8768, 96.7425, -58.9869, 43.4203
5.088, 2, 35.8432, 50.5691, -14.8775, 96.7387, -59.0049, 43.4153
5.092, 2, 35.8427, 50.5746, -14.8782, 96.7349, -59.023, 43.4103
5.096, 2, 35.8422, 50.58, -14.8789, 96.731, -59.0411, 43.4053
5.1, 2, 35.8416, 50.5855, -14.8796, 96.7272, -59.0591, 43.4002
5.104, 2, 35.8411, 50.591, -14.8803, 96.7234, -59.0772, 43.3952
5.108, 2, 35.8405, 50.5965, -14.881, 96.7196, -59.0953, 43.3902
5.112, 2, 35.84, 50.602, -14.8817, 96.7157, -59.1133, 43.3852
5.116, 2, 35.8395, 50.6074, -14.8824, 96.7119, -59.1314, 43.3802
5.12, 2, 35.8389, 50.6129, -14.883, 96.7081, -59.1494, 43.3752
5.124, 2, 35.8384, 50.6184, -14.8837, 96.7042, -59.1675, 43.3702
5.128, 2, 35.8378, 50.6239, -14.8844, 96.7004, -59.1855, 43.3652
5.132, 2, 35.8373, 50.6293, -14.885, 96.6965, -59.2036, 43.3603
5.136, 2, 35.8368, 50.6348, -14.8857, 96.6927, -59.2216, 43.3553
5.14, 2, 35.8362, 50.6403, -14.8864, 96.6888, -59.2397, 43.3503
5.144, 2, 35.8357, 50.6457, -14.887, 96.6849, -59.2577, 43.3453
5.148, 2, 35.8351, 50.6512, -14.8877, 96.6811, -59.2758, 43.3403
5.152, 2, 35.8345, 50.6566, -14.8883, 96.6772, -59.2938, 43.3353
5.156, 2, 35.834, 50.6621, -14.8889, 96.6733, -59.3118, 43.3303
5.16, 2, 35.8334, 50.6675, -14.8896, 96.6694, -59.3299, 43.3253
5.164, 2, 35.8329, 50.673, -14.8902, 96.6656, -59.3479, 43.3204
5.168, 2, 35.8323, 50.6784, -14.8909, 96.6617, -59.3659, 43.3154
5.172, 2, 35.8318, 50.6839, -14.8915, 96.6578, -59.384, 43.3104
5.176, 2, 35.8312, 50.6893, -14.8921, 96.6539, -59.402, 43.3054
5.18, 2, 35.8307, 50.6948, -14.8927, 96.65, -59.42, 43.3004
5.184, 2, 35.8301, 50.7002, -14.8933, 96.6461, -59.438, 43.2955
5.188, 2, 35.8295, 50.7057, -14.8939, 96.6422, -59.4561, 43.2905
5.192, 2, 35.829, 50.7111, -14.8946, 96.6383, -59.4741, 43.2855
5.196, 2, 35.8284, 50.7165, -14.8952, 96.6344, -59.4921, 43.2806
5.2, 2, 35.8278, 50.722, -14.8958, 96.6305, -59.5101, 43.2756
5.204, 2, 35.8273, 50.7274, -14.8964, 96.6265, -59.5281, 43.2706
5.208, 2, 35.8267, 50.7328, -14.8969, 96.6226, -59.5462, 43.2657
5.212, 2, 35.8261, 50.7383, -14.8975, 96.6187, -59.5642, 43.2607
5.216, 2, 35.8255, 50.7437, -14.8981, 96.6148, -59.5822, 43.2557
5.22, 2, 35.825, 50.7491, -14.8987, 96.6108, -59.6002, 43.2508
5.224, 2, 35.8244, 50.7546, -14.8993, 96.6069, -59.6182, 43.2458
5.228, 2, 35.8238, 50.76, -14.8998, 96.603, -59.6362, 43.2408
5.232, 2, 35.8232, 50.7654, -14.9004, 96.599, -59.6542, 43.2359
5.236, 2, 35.8226, 50.7708, -14.901, 96.5951, -59.6722, 43.2309
5.24, 2, 35.8221, 50.7762, -14.9015, 96.5911, -59.6902, 43.226
5.244, 2, 35.8215, 50.7816, -14.9021, 96.5872, -59.7082, 43.221
5.248, 2, 35.8209, 50.7871, -14.9027, 96.5832, -59.7262, 43.2161
5.252, 2, 35.8203, 50.7925, -14.9032, 96.5792, -59.7442, 43.2111
5.256, 2, 35.8197, 50.7979, -14.9038, 96.5753, -59.7622, 43.2062
5.26, 2, 35.8191, 50.8033, -14.9043, 96.5713, -59.7802, 43.2012
5.264, 2, 35.8185, 50.8087, -14.9048, 96.5673, -59.7982, 43.1963
5.268, 2, 35.818, 50.8141, -14.9054, 96.5634, -59.8162, 43.1913
5.272, 2, 35.8174, 50.8195, -14.9059, 96.5594, -59.8341, 43.1864
5.276, 2, 35.8168, 50.8249, -14.9064, 96.5554, -59.8521, 43.1815
5.28, 2, 35.8162, 50.8303, -14.907, 96.5514, -59.8701, 43.1765
5.284, 2, 35.8156, 50.8357, -14.9075, 96.5474, -59.8881, 43.1716
5.288, 2, 35.815, 50.8411, -14.908, 96.5434, -59.9061, 43.1666
5.292, 2, 35.8144, 50.8465, -14.9085, 96.5394, -59.924, 43.1617
5.296, 2, 35.8138, 50.8519, -14.909, 96.5354, -59.942, 43.1568
5.3, 2, 35.8132, 50.8573, -14.9095, 96.5314, -59.96, 43.1519
5.304, 2, 35.8126, 50.8626, -14.91, 96.5274, -59.978, 43.1469
5.308, 2, 35.812, 50.868, -14.9105, 96.5234, -59.9959, 43.142
5.312, 2, 35.8114, 50.8734, -14.911, 96.5194, -60.0139, 43.1371
5.316, 2, 35.8108, 50.8788, -14.9115, 96.5154, -60.0319, 43.1321
5.32, 2, 35.8101, 50.8842, -14.912, 96.5113, -60.0498, 43.1272
5.324, 2, 35.8095, 50.8895, -14.9125, 96.5073, -60.0678, 43.1223
5.328, 2, 35.8089, 50.8949, -14.913, 96.5033, -60.0858, 43.1174
5.332, 2, 35.8083, 50.9003, -14.9134, 96.4992, -60.1037, 43.1124
5.336, 2, 35.8077, 50.9057, -14.9139, 96.4952, -60.1217, 43.1075
5.34, 2, 35.8071, 50.911, -14.9144, 96.4912, -60.1396, 43.1026
5.344, 2, 35.8065, 50.9164, -14.9148, 96.4871, -60.1576, 43.0977
5.348, 2, 35.8058, 50.9218, -14.9153, 96.4831, -60.1755, 43.0928
5.352, 2, 35.8052, 50.9271, -14.9158, 96.479, -60.1935, 43.0879
5.356, 2, 35.8046, 50.9325, -14.9162, 96.475, -60.2114, 43.0829
5.36, 2, 35.804, 50.9378, -14.9167, 96.4709, -60.2294, 43.078
5.364, 2, 35.8034, 50.9432, -14.9171, 96.4669, -60.2473, 43.0731
5.368, 2, 35.8027, 50.9486, -14.9175, 96.4628, -60.2653, 43.0682
5.372, 2, 35.8021, 50.9539, -14.918, 96.4587, -60.2832, 43.0633
5.376, 2, 35.8015, 50.9593, -14.9184, 96.4546, -60.3011, 43.0584
5.38, 2, 35.8008, 50.9646, -14.9188, 96.4506, -60.3191, 43.0535
5.384, 2, 35.8002, 50.9699, -14.9193, 96.4465, -60.337, 43.0486
5.388, 2, 35.7996, 50.9753, -14.9197, 96.4424, -60.3549, 43.0437
5.392, 2, 35.799, 50.9806, -14.9201, 96.4383, -60.3729, 43.0388
5.396, 2, 35.7983, 50.986, -14.9205, 96.4342, -60.3908, 43.0339
5.4, 2, 35.7977, 50.9913, -14.9209, 96.4301, -60.4087, 43.029
5.404, 2, 35.797, 50.9967, -14.9213, 96.426, -60.4267, 43.0241
5.408, 2, 35.7964, 51.002, -14.9217, 96.4219, -60.4446, 43.0192
5.412, 2, 35.7958, 51.0073, -14.9221, 96.4178, -60.4625, 43.0143
5.416, 2, 35.7951, 51.0127, -14.9225, 96.4137, -60.4804, 43.0094
5.42, 2, 35.7945, 51.018, -14.9229, 96.4096, -60.4983, 43.0045
5.424, 2, 35.7938, 51.0233, -14.9233, 96.4055, -60.5163, 42.9996
5.428, 2, 35.7932, 51.0286, -14.9237, 96.4014, -60.5342, 42.9948
5.432, 2, 35.7925, 51.034, -14.9241, 96.3973, -60.5521, 42.9899
5.436, 2, 35.7919, 51.0393, -14.9245, 96.3931, -60.57, 42.985
5.44, 2, 35.7912, 51.0446, -14.9248, 96.389, -60.5879, 42.9801
5.444, 2, 35.7906, 51.0499, -14.9252, 96.3849, -60.6058, 42.9752
5.448, 2, 35.7899, 51.0552, -14.9256, 96.3807, -60.6237, 42.9703
5.452, 2, 35.7893, 51.0606, -14.9259, 96.3766, -60.6416, 42.9655
5.456, 2, 35.7886, 51.0659, -14.9263, 96.3725, -60.6595, 42.9606
5.46, 2, 35.788, 51.0712, -14.9266, 96.3683, -60.6774, 42.9557
5.464, 2, 35.7873, 51.0765, -14.927, 96.3642, -60.6953, 42.9508
5.468, 2, 35.7867, 51.0818, -14.9273, 96.36, -60.7132, 42.946
5.472, 2, 35.786, 51.0871, -14.9277, 96.3559, -60.7311, 42.9411
5.476, 2, 35.7853, 51.0924, -14.928, 96.3517, -60.749, 42.9362
5.48, 2, 35.7847, 51.0977, -14.9283, 96.3475, -60.7669, 42.9313
5.484, 2, 35.784, 51.103, -14.9287, 96.3434, -60.7848, 42.9265
5.488, 2, 35.7833, 51.1083, -14.929, 96.3392, -60.8027, 42.9216
5.492, 2, 35.7827, 51.1136, -14.9293, 96.335, -60.8206, 42.9167
5.496, 2, 35.782, 51.1189, -14.9296, 96.3308, -60.8385, 42.9119
5.5, 2, 35.7813, 51.1242, -14.9299, 96.3267, -60.8564, 42.907
5.504, 2, 35.7807, 51.1295, -14.9303, 96.3225, -60.8742, 42.9022
5.508, 2, 35.78, 51.1347, -14.9306, 96.3183, -60.8921, 42.8973
5.512, 2, 35.7793, 51.14, -14.9309, 96.3141, -60.91, 42.8924
5.516, 2, 35.7787, 51.1453, -14.9312, 96.3099, -60.9279, 42.8876
5.52, 2, 35.778, 51.1506, -14.9315, 96.3057, -60.9458, 42.8827
5.524, 2, 35.7773, 51.1559, -14.9318, 96.3015, -60.9636, 42.8779
5.528, 2, 35.7766, 51.1611, -14.932, 96.2973, -60.9815, 42.873
5.532, 2, 35.7759, 51.1664, -14.9323, 96.2931, -60.9994, 42.8681
5.536, 2, 35.7753, 51.1717, -14.9326, 96.2889, -61.0172, 42.8633
5.54, 2, 35.7746, 51.177, -14.9329, 96.2846, -61.0351, 42.8584
5.544, 2, 35.7739, 51.1822, -14.9332, 96.2804, -61.053, 42.8536
5.548, 2, 35.7732, 51.1875, -14.9334, 96.2762, -61.0708, 42.8488
5.552, 2, 35.7725, 51.1928, -14.9337, 96.272, -61.0887, 42.8439
5.556, 2, 35.7718, 51.198, -14.934, 96.2678, -61.1065, 42.8391
5.56, 2, 35.7711, 51.2033, -14.9342, 96.2635, -61.1244, 42.8342
5.564, 2, 35.7704, 51.2085, -14.9345, 96.2593, -61.1423, 42.8294
5.568, 2, 35.7698, 51.2138, -14.9347, 96.255, -61.1601, 42.8245
5.572, 2, 35.7691, 51.219, -14.935, 96.2508, -61.178, 42.8197
5.576, 2, 35.7684, 51.2243, -14.9352, 96.2466, -61.1958, 42.8148
5.58, 2, 35.7677, 51.2295, -14.9354, 96.2423, -61.2137, 42.81
5.584, 2, 35.767, 51.2348, -14.9357, 96.238, -61.2315, 42.8052
5.588, 2, 35.7663, 51.24, -14.9359, 96.2338, -61.2493, 42.8003
5.592, 2, 35.7656, 51.2453, -14.9361, 96.2295, -61.2672, 42.7955
5.596, 2, 35.7649, 51.2505, -14.9364, 96.2253, -61.285, 42.7907
5.6, 2, 35.7642, 51.2558, -14.9366, 96.221, -61.3029, 42.7858
5.604, 2, 35.7635, 51.261, -14.9368, 96.2167, -61.3207, 42.781
5.608, 2, 35.7628, 51.2662, -14.937, 96.2125, -61.3385, 42.7762
5.612, 2, 35.762, 51.2715, -14.9372, 96.2082, -61.3564, 42.7714
5.616, 2, 35.7613, 51.2767, -14.9374, 96.2039, -61.3742, 42.7665
5.62, 2, 35.7606, 51.2819, -14.9376, 96.1996, -61.392, 42.7617
5.624, 2, 35.7599, 51.2872, -14.9378, 96.1953, -61.4099, 42.7569
5.628, 2, 35.7592, 51.2924, -14.938, 96.191, -61.4277, 42.7521
5.632, 2, 35.7585, 51.2976, -14.9382, 96.1867, -61.4455, 42.7472
5.636, 2, 35.7578, 51.3028, -14.9384, 96.1824, -61.4633, 42.7424
5.64, 2, 35.7571, 51.3081, -14.9385, 96.1781, -61.4812, 42.7376
5.644, 2, 35.7563, 51.3133, -14.9387, 96.1738, -61.499, 42.7328
5.648, 2, 35.7556, 51.3185, -14.9389, 96.1695, -61.5168, 42.728
5.652, 2, 35.7549, 51.3237, -14.9391, 96.1652, -61.5346, 42.7231
5.656, 2, 35.7542, 51.3289, -14.9392, 96.1609, -61.5524, 42.7183
5.66, 2, 35.7535, 51.3341, -14.9394, 96.1566, -61.5702, 42.7135
5.664, 2, 35.7527, 51.3393, -14.9395, 96.1523, -61.5881, 42.7087
5.668, 2, 35.752, 51.3445, -14.9397, 96.1479, -61.6059, 42.7039
5.672, 2, 35.7513, 51.3498, -14.9398, 96.1436, -61.6237, 42.6991
5.676, 2, 35.7505, 51.3549, -14.94, 96.1393, -61.6415, 42.6943
5.68, 2, 35.7498, 51.3601, -14.9401, 96.1349, -61.6593, 42.6895
5.684, 2, 35.7491, 51.3653, -14.9403, 96.1306, -61.6771, 42.6847
5.688, 2, 35.7484, 51.3705, -14.9404, 96.1262, -61.6949, 42.6799
5.692, 2, 35.7476, 51.3757, -14.9405, 96.1219, -61.7127, 42.6751
5.696, 2, 35.7469, 51.3809, -14.9407, 96.1176, -61.7305, 42.6703
5.7, 2, 35.7461, 51.3861, -14.9408, 96.1132, -61.7483, 42.6655
5.704, 2, 35.7454, 51.3913, -14.9409, 96.1088, -61.7661, 42.6607
5.708, 2, 35.7447, 51.3965, -14.941, 96.1045, -61.7839, 42.6559
5.712, 2, 35.7439, 51.4017, -14.9411, 96.1001, -61.8016, 42.6511
5.716, 2, 35.7432, 51.4069, -14.9412, 96.0958, -61.8194, 42.6463
5.72, 2, 35.7424, 51.412, -14.9413, 96.0914, -61.8372, 42.6415
5.724, 2, 35.7417, 51.4172, -14.9414, 96.087, -61.855, 42.6367
5.728, 2, 35.7409, 51.4224, -14.9415, 96.0826, -61.8728, 42.6319
5.732, 2, 35.7402, 51.4276, -14.9416, 96.0783, -61.8906, 42.6271
5.736, 2, 35.7394, 51.4327, -14.9417, 96.0739, -61.9083, 42.6223
5.74, 2, 35.7387, 51.4379, -14.9418, 96.0695, -61.9261, 42.6175
5.744, 2, 35.7379, 51.4431, -14.9419, 96.0651, -61.9439, 42.6127
5.748, 2, 35.7372, 51.4482, -14.9419, 96.0607, -61.9617, 42.6079
5.752, 2, 35.7364, 51.4534, -14.942, 96.0563, -61.9794, 42.6031
5.756, 2, 35.7357, 51.4586, -14.9421, 96.0519, -61.9972, 42.5984
5.76, 2, 35.7349, 51.4637, -14.9421, 96.0475, -62.015, 42.5936
5.764, 2, 35.7342, 51.4689, -14.9422, 96.0431, -62.0327, 42.5888
5.768, 2, 35.7334, 51.474, -14.9423, 96.0387, -62.0505, 42.584
5.772, 2, 35.7326, 51.4792, -14.9423, 96.0343, -62.0683, 42.5792
5.776, 2, 35.7319, 51.4843, -14.9424, 96.0299, -62.086, 42.5745
5.78, 2, 35.7311, 51.4895, -14.9424, 96.0255, -62.1038, 42.5697
5.784, 2, 35.7304, 51.4946, -14.9424, 96.021, -62.1215, 42.5649
5.788, 2, 35.7296, 51.4998, -14.9425, 96.0166, -62.1393, 42.5601
5.792, 2, 35.7288, 51.5049, -14.9425, 96.0122, -62.1571, 42.5554
5.796, 2, 35.7281, 51.5101, -14.9425, 96.0078, -62.1748, 42.5506
5.8, 2, 35.7273, 51.5152, -14.9426, 96.0033, -62.1926, 42.5458
5.804, 2, 35.7265, 51.5203, -14.9426, 95.9989, -62.2103, 42.541
5.808, 2, 35.7257, 51.5255, -14.9426, 95.9944, -62.2281, 42.5363
5.812, 2, 35.725, 51.5306, -14.9426, 95.99, -62.2458, 42.5315
5.816, 2, 35.7242, 51.5357, -14.9426, 95.9855, -62.2635, 42.5267
5.82, 2, 35.7234, 51.5409, -14.9426, 95.9811, -62.2813, 42.522
5.824, 2, 35.7226, 51.546, -14.9426, 95.9766, -62.299, 42.5172
5.828, 2, 35.7219, 51.5511, -14.9426, 95.9722, -62.3168, 42.5125
5.832, 2, 35.7211, 51.5562, -14.9426, 95.9677, -62.3345, 42.5077
5.836, 2, 35.7203, 51.5613, -14.9426, 95.9632, -62.3522, 42.5029
5.84, 2, 35.7195, 51.5665, -14.9426, 95.9588, -62.37, 42.4982
5.844, 2, 35.7187, 51.5716, -14.9426, 95.9543, -62.3877, 42.4934
5.848, 2, 35.7179, 51.5767, -14.9425, 95.9498, -62.4054, 42.4887
5.852, 2, 35.7171, 51.5818, -14.9425, 95.9454, -62.4231, 42.4839
5.856, 2, 35.7164, 51.5869, -14.9425, 95.9409, -62.4409, 42.4791
5.86, 2, 35.7156, 51.592, -14.9425, 95.9364, -62.4586, 42.4744
5.864, 2, 35.7148, 51.5971, -14.9424, 95.9319, -62.4763, 42.4696
5.868, 2, 35.714, 51.6022, -14.9424, 95.9274, -62.494, 42.4649
5.872, 2, 35.7132, 51.6073, -14.9423, 95.9229, -62.5118, 42.4601
5.876, 2, 35.7124, 51.6124, -14.9423, 95.9184, -62.5295, 42.4554
5.88, 2, 35.7116, 51.6175, -14.9422, 95.9139, -62.5472, 42.4506
5.884, 2, 35.7108, 51.6226, -14.9422, 95.9094, -62.5649, 42.4459
5.888, 2, 35.71, 51.6277, -14.9421, 95.9049, -62.5826, 42.4411
5.892, 2, 35.7092, 51.6328, -14.942, 95.9004, -62.6003, 42.4364
5.896, 2, 35.7084, 51.6379, -14.942, 95.8959, -62.618, 42.4316
5.9, 2, 35.7076, 51.643, -14.9419, 95.8913, -62.6357, 42.4269
5.904, 2, 35.7068, 51.6481, -14.9418, 95.8868, -62.6534, 42.4222
5.908, 2, 35.706, 51.6531, -14.9417, 95.8823, -62.6711, 42.4174
5.912, 2, 35.7052, 51.6582, -14.9416, 95.8778, -62.6888, 42.4127
5.916, 2, 35.7044, 51.6633, -14.9416, 95.8732, -62.7065, 42.4079
5.92, 2, 35.7035, 51.6684, -14.9415, 95.8687, -62.7242, 42.4032
5.924, 2, 35.7027, 51.6734, -14.9414, 95.8642, -62.7419, 42.3985
5.928, 2, 35.7019, 51.6785, -14.9413, 95.8596, -62.7596, 42.3937
5.932, 2, 35.7011, 51.6836, -14.9412, 95.8551, -62.7773, 42.389
5.936, 2, 35.7003, 51.6887, -14.941, 95.8505, -62.795, 42.3843
5.94, 2, 35.6995, 51.6937, -14.9409, 95.846, -62.8127, 42.3795
5.944, 2, 35.6987, 51.6988, -14.9408, 95.8414, -62.8304, 42.3748
5.948, 2, 35.6978, 51.7038, -14.9407, 95.8369, -62.8481, 42.3701
5.952, 2, 35.697, 51.7089, -14.9406, 95.8323, -62.8658, 42.3653
5.956, 2, 35.6962, 51.714, -14.9404, 95.8277, -62.8834, 42.3606
5.96, 2, 35.6954, 51.719, -14.9403, 95.8232, -62.9011, 42.3559
5.964, 2, 35.6945, 51.7241, -14.9402, 95.8186, -62.9188, 42.3512
5.968, 2, 35.6937, 51.7291, -14.94, 95.814, -62.9365, 42.3464
5.972, 2, 35.6929, 51.7342, -14.9399, 95.8095, -62.9541, 42.3417
5.976, 2, 35.6921, 51.7392, -14.9397, 95.8049, -62.9718, 42.337
5.98, 2, 35.6912, 51.7443, -14.9396, 95.8003, -62.9895, 42.3323
5.984, 2, 35.6904, 51.7493, -14.9394, 95.7957, -63.0072, 42.3275
5.988, 2, 35.6896, 51.7543, -14.9393, 95.7911, -63.0248, 42.3228
5.992, 2, 35.6887, 51.7594, -14.9391, 95.7865, -63.0425, 42.3181
5.996, 2, 35.6879, 51.7644, -14.9389, 95.7819, -63.0602, 42.3134
6, 2, 35.687, 51.7695, -14.9388, 95.7773, -63.0778, 42.3087
6.004, 2, 35.6862, 51.7745, -14.9386, 95.7727, -63.0955, 42.304
6.008, 2, 35.6854, 51.7795, -14.9384, 95.7681, -63.1131, 42.2992
6.012, 2, 35.6845, 51.7845, -14.9382, 95.7635, -63.1308, 42.2945
6.016, 2, 35.6837, 51.7896, -14.938, 95.7589, -63.1484, 42.2898
6.02, 2, 35.6828, 51.7946, -14.9378, 95.7543, -63.1661, 42.2851
6.024, 2, 35.682, 51.7996, -14.9376, 95.7497, -63.1838, 42.2804
6.028, 2, 35.6812, 51.8046, -14.9374, 95.745, -63.2014, 42.2757
6.032, 2, 35.6803, 51.8096, -14.9372, 95.7404, -63.219, 42.271
6.036, 2, 35.6795, 51.8147, -14.937, 95.7358, -63.2367, 42.2663
6.04, 2, 35.6786, 51.8197, -14.9368, 95.7312, -63.2543, 42.2616
6.044, 2, 35.6777, 51.8247, -14.9366, 95.7265, -63.272, 42.2569
6.048, 2, 35.6769, 51.8297, -14.9364, 95.7219, -63.2896, 42.2522
