hehonglu123/Motion-Primitive-Planning/simulation/robotstudio_sim/scripts/fitting_output/slope_blend/curve_exe_v500_z1.csv
timestamp, cmd_num, J1, J2, J3, J4, J5, J6
0, 1, -0.805201, 64.4292, 8.48325, 44.5936, -96.4064, 169.862
0.002, 1, -0.805201, 64.4292, 8.48325, 44.5936, -96.4064, 169.862
0.004, 1, -0.805201, 64.4292, 8.48325, 44.5936, -96.4064, 169.862
0.008, 1, -0.805201, 64.4292, 8.48325, 44.5936, -96.4064, 169.862
0.011, 1, -0.805201, 64.4292, 8.48325, 44.5936, -96.4064, 169.862
0.016, 1, -0.805201, 64.4292, 8.48325, 44.5936, -96.4064, 169.862
0.02, 1, -0.805201, 64.4292, 8.48325, 44.5936, -96.4064, 169.862
0.024, 1, -0.805201, 64.4292, 8.48325, 44.5936, -96.4064, 169.862
0.028, 1, -0.805201, 64.4292, 8.48325, 44.5936, -96.4064, 169.862
0.032, 1, -0.805201, 64.4292, 8.48325, 44.5936, -96.4064, 169.862
0.036, 1, -0.805192, 64.4292, 8.48325, 44.5936, -96.4064, 169.862
0.04, 1, -0.805127, 64.4292, 8.48325, 44.5936, -96.4064, 169.862
0.044, 1, -0.804904, 64.4291, 8.48326, 44.5936, -96.4064, 169.862
0.048, 1, -0.804376, 64.429, 8.48328, 44.5936, -96.4064, 169.862
0.052, 1, -0.803401, 64.4287, 8.48331, 44.5937, -96.4064, 169.862
0.056, 1, -0.801869, 64.4282, 8.48334, 44.5938, -96.4063, 169.861
0.06, 1, -0.799706, 64.4274, 8.48336, 44.594, -96.4061, 169.861
0.064, 1, -0.796862, 64.4264, 8.48332, 44.5945, -96.4057, 169.86
0.068, 1, -0.793303, 64.4249, 8.48319, 44.5953, -96.4051, 169.858
0.072, 1, -0.788981, 64.4231, 8.48288, 44.5966, -96.404, 169.855
0.076, 1, -0.783799, 64.4207, 8.48233, 44.5986, -96.4024, 169.85
0.08, 1, -0.777601, 64.4178, 8.48144, 44.6015, -96.3999, 169.843
0.084, 1, -0.770186, 64.4142, 8.48009, 44.6056, -96.3965, 169.833
0.088, 1, -0.761354, 64.4099, 8.47815, 44.6112, -96.3919, 169.82
0.092, 1, -0.750947, 64.4048, 8.47546, 44.6186, -96.3857, 169.803
0.096, 1, -0.73886, 64.3989, 8.47187, 44.6282, -96.3777, 169.78
0.1, 1, -0.725009, 64.3921, 8.46719, 44.6403, -96.3675, 169.752
0.104, 1, -0.709295, 64.3844, 8.46123, 44.6554, -96.3549, 169.717
0.108, 1, -0.691587, 64.3757, 8.45383, 44.6739, -96.3394, 169.673
0.112, 1, -0.671756, 64.3661, 8.44484, 44.696, -96.3209, 169.622
0.116, 1, -0.649718, 64.3554, 8.4341, 44.722, -96.299, 169.561
0.12, 1, -0.625453, 64.3438, 8.42147, 44.7524, -96.2736, 169.49
0.124, 1, -0.598989, 64.3314, 8.40683, 44.7873, -96.2444, 169.409
0.128, 1, -0.570368, 64.3184, 8.39011, 44.8268, -96.2112, 169.317
0.131, 1, -0.53964, 64.3048, 8.37125, 44.8711, -96.174, 169.214
0.136, 1, -0.506841, 64.2907, 8.35023, 44.9202, -96.1328, 169.099
0.139, 1, -0.471976, 64.2759, 8.32711, 44.974, -96.0877, 168.974
0.144, 1, -0.435008, 64.2605, 8.30194, 45.0323, -96.0387, 168.838
0.148, 1, -0.395898, 64.2441, 8.27486, 45.0949, -95.9861, 168.692
0.152, 1, -0.354664, 64.2269, 8.246, 45.1615, -95.9301, 168.537
0.156, 1, -0.311396, 64.2087, 8.21551, 45.2319, -95.8711, 168.374
0.16, 1, -0.266227, 64.1896, 8.18357, 45.3055, -95.8092, 168.202
0.164, 1, -0.219273, 64.1696, 8.15035, 45.3821, -95.7449, 168.024
0.168, 1, -0.170613, 64.1488, 8.11606, 45.4612, -95.6785, 167.84
0.172, 1, -0.120313, 64.1272, 8.08088, 45.5424, -95.6103, 167.651
0.176, 1, -0.068471, 64.1047, 8.04499, 45.6254, -95.5406, 167.457
0.18, 1, -0.0152164, 64.0815, 8.00857, 45.7097, -95.4698, 167.261
0.184, 1, 0.0393075, 64.0576, 7.97174, 45.7951, -95.3981, 167.062
0.188, 1, 0.0949552, 64.0331, 7.93462, 45.8814, -95.3257, 166.861
0.192, 1, 0.151572, 64.008, 7.8973, 45.9682, -95.2528, 166.659
0.196, 1, 0.209004, 63.9825, 7.85984, 46.0555, -95.1795, 166.456
0.2, 1, 0.26712, 63.9567, 7.82229, 46.1431, -95.106, 166.252
0.204, 1, 0.325833, 63.9307, 7.78468, 46.2309, -95.0323, 166.047
0.208, 1, 0.385066, 63.9044, 7.74705, 46.3188, -94.9585, 165.842
0.212, 1, 0.444726, 63.878, 7.70941, 46.4068, -94.8846, 165.637
0.216, 1, 0.504702, 63.8515, 7.67177, 46.4948, -94.8107, 165.432
0.22, 1, 0.564892, 63.8249, 7.63413, 46.5828, -94.7368, 165.227
0.224, 1, 0.625216, 63.7983, 7.59651, 46.6709, -94.6629, 165.022
0.228, 1, 0.68562, 63.7716, 7.55891, 46.7589, -94.5891, 164.817
0.232, 1, 0.746068, 63.745, 7.52132, 46.8468, -94.5153, 164.612
0.236, 1, 0.806534, 63.7183, 7.48375, 46.9347, -94.4415, 164.407
0.24, 1, 0.867001, 63.6917, 7.4462, 47.0226, -94.3677, 164.203
0.244, 1, 0.927458, 63.665, 7.40867, 47.1105, -94.294, 163.998
0.248, 1, 0.987897, 63.6384, 7.37115, 47.1983, -94.2203, 163.793
0.252, 1, 1.04831, 63.6117, 7.33367, 47.286, -94.1466, 163.589
0.256, 1, 1.1087, 63.5851, 7.2962, 47.3737, -94.073, 163.385
0.26, 1, 1.16906, 63.5585, 7.25875, 47.4613, -93.9994, 163.18
0.264, 1, 1.22939, 63.532, 7.22132, 47.5489, -93.9259, 162.976
0.268, 1, 1.28968, 63.5054, 7.18392, 47.6365, -93.8524, 162.772
0.272, 1, 1.34994, 63.4788, 7.14654, 47.724, -93.779, 162.568
0.276, 1, 1.41017, 63.4523, 7.10918, 47.8114, -93.7056, 162.365
0.28, 1, 1.47036, 63.4258, 7.07184, 47.8988, -93.6322, 162.161
0.284, 1, 1.53051, 63.3993, 7.03452, 47.9861, -93.5589, 161.958
0.288, 1, 1.59063, 63.3728, 6.99723, 48.0734, -93.4857, 161.754
0.292, 1, 1.65072, 63.3463, 6.95996, 48.1607, -93.4124, 161.551
0.296, 1, 1.71077, 63.3198, 6.92271, 48.2479, -93.3393, 161.348
0.3, 1, 1.77078, 63.2934, 6.88548, 48.335, -93.2661, 161.145
0.304, 1, 1.83076, 63.267, 6.84828, 48.4221, -93.193, 160.942
0.308, 1, 1.8907, 63.2405, 6.8111, 48.5091, -93.12, 160.739
0.312, 1, 1.9506, 63.2141, 6.77394, 48.5961, -93.047, 160.537
0.316, 1, 2.01047, 63.1878, 6.7368, 48.683, -92.974, 160.334
0.32, 1, 2.0703, 63.1614, 6.69969, 48.7699, -92.9011, 160.132
0.324, 1, 2.1301, 63.135, 6.6626, 48.8567, -92.8282, 159.929
0.328, 1, 2.18986, 63.1087, 6.62553, 48.9434, -92.7554, 159.727
0.332, 1, 2.24958, 63.0824, 6.58848, 49.0301, -92.6826, 159.525
0.336, 1, 2.30926, 63.0561, 6.55146, 49.1168, -92.6099, 159.323
0.34, 1, 2.3689, 63.0298, 6.51446, 49.2034, -92.5372, 159.122
0.344, 1, 2.42851, 63.0036, 6.47749, 49.2899, -92.4646, 158.92
0.348, 1, 2.48808, 62.9773, 6.44054, 49.3764, -92.392, 158.718
0.352, 1, 2.54761, 62.9511, 6.40361, 49.4628, -92.3194, 158.517
0.356, 1, 2.60711, 62.9249, 6.3667, 49.5492, -92.2469, 158.316
0.36, 1, 2.66656, 62.8987, 6.32982, 49.6355, -92.1745, 158.115
0.364, 1, 2.72598, 62.8725, 6.29296, 49.7218, -92.1021, 157.914
0.368, 1, 2.78536, 62.8463, 6.25613, 49.808, -92.0297, 157.713
0.372, 1, 2.8447, 62.8202, 6.21932, 49.8942, -91.9574, 157.512
0.376, 1, 2.904, 62.794, 6.18253, 49.9803, -91.8851, 157.312
0.38, 1, 2.96327, 62.7679, 6.14577, 50.0663, -91.8129, 157.111
0.384, 1, 3.02249, 62.7418, 6.10903, 50.1523, -91.7407, 156.911
0.388, 1, 3.08168, 62.7157, 6.07232, 50.2382, -91.6686, 156.711
0.392, 1, 3.14083, 62.6897, 6.03563, 50.3241, -91.5965, 156.51
0.396, 1, 3.19993, 62.6636, 5.99896, 50.4099, -91.5245, 156.311
0.4, 1, 3.259, 62.6376, 5.96232, 50.4957, -91.4525, 156.111
0.404, 1, 3.31803, 62.6116, 5.92571, 50.5814, -91.3805, 155.911
0.408, 1, 3.37702, 62.5856, 5.88911, 50.6671, -91.3087, 155.711
0.412, 1, 3.43597, 62.5596, 5.85255, 50.7526, -91.2368, 155.512
0.416, 1, 3.49488, 62.5336, 5.816, 50.8382, -91.165, 155.313
0.42, 1, 3.55375, 62.5077, 5.77948, 50.9236, -91.0933, 155.114
0.424, 1, 3.61258, 62.4818, 5.74299, 51.0091, -91.0216, 154.915
0.428, 1, 3.67138, 62.4559, 5.70652, 51.0944, -90.9499, 154.716
0.432, 1, 3.73013, 62.43, 5.67008, 51.1797, -90.8783, 154.517
0.436, 1, 3.78884, 62.4041, 5.63366, 51.2649, -90.8068, 154.318
0.44, 1, 3.8475, 62.3783, 5.59727, 51.3501, -90.7353, 154.12
0.444, 1, 3.90613, 62.3524, 5.5609, 51.4353, -90.6639, 153.922
0.448, 1, 3.96472, 62.3266, 5.52456, 51.5203, -90.5925, 153.723
0.452, 1, 4.02327, 62.3008, 5.48824, 51.6053, -90.5211, 153.525
0.456, 1, 4.08177, 62.275, 5.45195, 51.6903, -90.4498, 153.328
0.46, 1, 4.14024, 62.2493, 5.41568, 51.7751, -90.3786, 153.13
0.464, 1, 4.19866, 62.2235, 5.37944, 51.86, -90.3074, 152.932
0.468, 1, 4.25705, 62.1978, 5.34323, 51.9447, -90.2362, 152.735
0.472, 1, 4.31539, 62.1721, 5.30704, 52.0294, -90.1651, 152.537
0.476, 1, 4.37369, 62.1464, 5.27087, 52.1141, -90.0941, 152.34
0.48, 1, 4.43195, 62.1207, 5.23474, 52.1987, -90.0231, 152.143
0.484, 1, 4.49016, 62.0951, 5.19862, 52.2832, -89.9521, 151.946
0.488, 1, 4.54834, 62.0694, 5.16254, 52.3676, -89.8812, 151.749
0.492, 1, 4.60647, 62.0438, 5.12648, 52.452, -89.8104, 151.553
0.496, 1, 4.66456, 62.0182, 5.09044, 52.5364, -89.7396, 151.356
0.5, 1, 4.72261, 61.9926, 5.05444, 52.6207, -89.6689, 151.16
0.504, 1, 4.78061, 61.9671, 5.01846, 52.7049, -89.5982, 150.964
0.508, 1, 4.83858, 61.9416, 4.9825, 52.789, -89.5275, 150.768
0.512, 1, 4.8965, 61.916, 4.94657, 52.8731, -89.4569, 150.572
0.516, 1, 4.95438, 61.8905, 4.91067, 52.9572, -89.3864, 150.376
0.52, 1, 5.01222, 61.865, 4.87479, 53.0411, -89.3159, 150.18
0.524, 1, 5.07001, 61.8396, 4.83894, 53.125, -89.2455, 149.985
0.528, 1, 5.12776, 61.8141, 4.80312, 53.2089, -89.1751, 149.789
0.532, 1, 5.18547, 61.7887, 4.76733, 53.2927, -89.1048, 149.594
0.536, 1, 5.24313, 61.7633, 4.73156, 53.3764, -89.0345, 149.399
0.54, 1, 5.30076, 61.7379, 4.69582, 53.46, -88.9643, 149.204
0.544, 1, 5.35834, 61.7125, 4.6601, 53.5436, -88.8941, 149.009
0.548, 1, 5.41587, 61.6872, 4.62441, 53.6272, -88.824, 148.815
0.552, 1, 5.47336, 61.6618, 4.58875, 53.7106, -88.754, 148.62
0.556, 1, 5.53081, 61.6365, 4.55311, 53.794, -88.684, 148.426
0.56, 1, 5.58822, 61.6112, 4.51751, 53.8774, -88.614, 148.232
0.564, 1, 5.64558, 61.5859, 4.48192, 53.9607, -88.5441, 148.038
0.568, 1, 5.7029, 61.5607, 4.44637, 54.0439, -88.4743, 147.844
0.572, 1, 5.76017, 61.5355, 4.41084, 54.127, -88.4045, 147.65
0.576, 1, 5.8174, 61.5102, 4.37534, 54.2101, -88.3347, 147.457
0.58, 1, 5.87458, 61.485, 4.33987, 54.2931, -88.265, 147.263
0.584, 1, 5.93173, 61.4599, 4.30443, 54.3761, -88.1954, 147.07
0.588, 1, 5.98882, 61.4347, 4.26901, 54.459, -88.1258, 146.877
0.592, 1, 6.04588, 61.4096, 4.23362, 54.5418, -88.0563, 146.684
0.596, 1, 6.10289, 61.3844, 4.19826, 54.6246, -87.9868, 146.491
0.6, 1, 6.15985, 61.3593, 4.16292, 54.7073, -87.9174, 146.298
0.604, 1, 6.21677, 61.3343, 4.12762, 54.7899, -87.848, 146.106
0.608, 1, 6.27364, 61.3092, 4.09234, 54.8725, -87.7787, 145.913
0.612, 1, 6.33047, 61.2842, 4.05709, 54.955, -87.7095, 145.721
0.616, 1, 6.38726, 61.2591, 4.02186, 55.0375, -87.6403, 145.529
0.62, 1, 6.444, 61.2341, 3.98667, 55.1198, -87.5711, 145.337
0.624, 1, 6.5007, 61.2091, 3.9515, 55.2021, -87.502, 145.145
0.628, 1, 6.55735, 61.1842, 3.91636, 55.2844, -87.433, 144.954
0.632, 1, 6.61395, 61.1592, 3.88124, 55.3666, -87.364, 144.762
0.636, 1, 6.67052, 61.1343, 3.84616, 55.4487, -87.2951, 144.571
0.64, 1, 6.72703, 61.1094, 3.8111, 55.5307, -87.2262, 144.38
0.644, 1, 6.7835, 61.0845, 3.77608, 55.6127, -87.1574, 144.189
0.648, 1, 6.83993, 61.0597, 3.74108, 55.6946, -87.0887, 143.998
0.652, 1, 6.89631, 61.0348, 3.7061, 55.7765, -87.02, 143.807
0.656, 1, 6.95264, 61.01, 3.67116, 55.8583, -86.9513, 143.617
0.66, 1, 7.00893, 60.9852, 3.63625, 55.94, -86.8827, 143.426
0.664, 1, 7.06517, 60.9604, 3.60136, 56.0217, -86.8142, 143.236
0.668, 1, 7.12137, 60.9357, 3.5665, 56.1032, -86.7457, 143.046
0.672, 1, 7.17752, 60.9109, 3.53167, 56.1848, -86.6773, 142.856
0.676, 1, 7.23362, 60.8862, 3.49687, 56.2662, -86.6089, 142.666
0.68, 1, 7.28968, 60.8615, 3.4621, 56.3476, -86.5406, 142.477
0.684, 1, 7.34569, 60.8368, 3.42736, 56.4289, -86.4723, 142.287
0.688, 1, 7.40166, 60.8121, 3.39264, 56.5102, -86.4041, 142.098
0.692, 1, 7.45758, 60.7875, 3.35795, 56.5914, -86.336, 141.909
0.696, 1, 7.51346, 60.7629, 3.3233, 56.6725, -86.2679, 141.72
0.7, 1, 7.56928, 60.7383, 3.28867, 56.7535, -86.1999, 141.531
0.704, 1, 7.62506, 60.7137, 3.25407, 56.8345, -86.1319, 141.342
0.708, 1, 7.6808, 60.6891, 3.2195, 56.9154, -86.064, 141.154
0.712, 1, 7.73649, 60.6646, 3.18495, 56.9963, -85.9961, 140.965
0.716, 1, 7.79213, 60.6401, 3.15044, 57.0771, -85.9283, 140.777
0.72, 1, 7.84773, 60.6156, 3.11596, 57.1578, -85.8605, 140.589
0.724, 1, 7.90327, 60.5911, 3.0815, 57.2384, -85.7929, 140.401
0.728, 1, 7.95878, 60.5667, 3.04707, 57.319, -85.7252, 140.213
0.732, 1, 8.01423, 60.5422, 3.01268, 57.3995, -85.6577, 140.026
0.736, 1, 8.06964, 60.5178, 2.97831, 57.4799, -85.5901, 139.838
0.74, 1, 8.125, 60.4934, 2.94397, 57.5603, -85.5227, 139.651
0.744, 1, 8.18032, 60.469, 2.90966, 57.6406, -85.4553, 139.464
0.748, 1, 8.23558, 60.4447, 2.87538, 57.7209, -85.3879, 139.277
0.752, 1, 8.2908, 60.4204, 2.84113, 57.801, -85.3206, 139.09
0.756, 1, 8.34598, 60.396, 2.8069, 57.8811, -85.2534, 138.904
0.76, 1, 8.4011, 60.3718, 2.77271, 57.9612, -85.1862, 138.717
0.764, 1, 8.45618, 60.3475, 2.73855, 58.0411, -85.1191, 138.531
0.768, 1, 8.51121, 60.3232, 2.70441, 58.121, -85.052, 138.345
0.772, 1, 8.5662, 60.299, 2.67031, 58.2008, -84.985, 138.159
0.776, 1, 8.62114, 60.2748, 2.63623, 58.2806, -84.9181, 137.973
0.78, 1, 8.67603, 60.2506, 2.60219, 58.3603, -84.8512, 137.787
0.784, 1, 8.73087, 60.2265, 2.56817, 58.4399, -84.7844, 137.602
0.788, 1, 8.78566, 60.2023, 2.53418, 58.5194, -84.7176, 137.416
0.792, 1, 8.84041, 60.1782, 2.50022, 58.5989, -84.6509, 137.231
0.796, 1, 8.89511, 60.1541, 2.4663, 58.6783, -84.5842, 137.046
0.8, 1, 8.94976, 60.13, 2.4324, 58.7577, -84.5176, 136.861
0.804, 1, 9.00437, 60.1059, 2.39853, 58.8369, -84.4511, 136.677
0.808, 1, 9.05893, 60.0819, 2.36469, 58.9161, -84.3846, 136.492
0.812, 1, 9.11344, 60.0579, 2.33088, 58.9953, -84.3182, 136.308
0.816, 1, 9.1679, 60.0339, 2.2971, 59.0743, -84.2518, 136.124
0.82, 1, 9.22231, 60.0099, 2.26335, 59.1533, -84.1855, 135.939
0.824, 1, 9.27668, 59.986, 2.22963, 59.2323, -84.1193, 135.756
0.828, 1, 9.331, 59.962, 2.19594, 59.3111, -84.0531, 135.572
0.832, 1, 9.38527, 59.9381, 2.16227, 59.3899, -83.987, 135.388
0.836, 1, 9.43949, 59.9142, 2.12864, 59.4686, -83.9209, 135.205
0.84, 1, 9.49367, 59.8903, 2.09504, 59.5473, -83.8549, 135.022
0.844, 1, 9.5478, 59.8665, 2.06147, 59.6259, -83.7889, 134.839
0.848, 1, 9.60188, 59.8427, 2.02792, 59.7044, -83.723, 134.656
0.852, 1, 9.65591, 59.8189, 1.99441, 59.7828, -83.6572, 134.473
0.856, 1, 9.70989, 59.7951, 1.96093, 59.8612, -83.5914, 134.29
0.86, 1, 9.76382, 59.7713, 1.92747, 59.9395, -83.5257, 134.108
0.864, 1, 9.81771, 59.7476, 1.89405, 60.0177, -83.46, 133.926
0.868, 1, 9.87155, 59.7238, 1.86066, 60.0959, -83.3944, 133.744
0.872, 1, 9.92534, 59.7001, 1.82729, 60.174, -83.3289, 133.562
0.876, 1, 9.97909, 59.6765, 1.79396, 60.252, -83.2634, 133.38
0.88, 1, 10.0328, 59.6528, 1.76065, 60.3299, -83.1979, 133.198
0.884, 1, 10.0864, 59.6292, 1.72738, 60.4078, -83.1326, 133.017
0.888, 1, 10.14, 59.6055, 1.69413, 60.4856, -83.0673, 132.835
0.892, 1, 10.1936, 59.582, 1.66092, 60.5634, -83.002, 132.654
0.896, 1, 10.2471, 59.5584, 1.62773, 60.641, -82.9368, 132.473
0.9, 1, 10.3005, 59.5348, 1.59458, 60.7186, -82.8717, 132.293
0.904, 1, 10.3539, 59.5113, 1.56145, 60.7962, -82.8066, 132.112
0.908, 1, 10.4073, 59.4878, 1.52836, 60.8736, -82.7416, 131.931
0.912, 1, 10.4606, 59.4643, 1.49529, 60.951, -82.6766, 131.751
0.916, 1, 10.5139, 59.4408, 1.46226, 61.0283, -82.6117, 131.571
0.92, 1, 10.5671, 59.4174, 1.42925, 61.1056, -82.5469, 131.391
0.924, 1, 10.6203, 59.394, 1.39628, 61.1828, -82.4821, 131.211
0.928, 1, 10.6734, 59.3705, 1.36333, 61.2599, -82.4174, 131.032
0.932, 1, 10.7264, 59.3472, 1.33042, 61.3369, -82.3527, 130.852
0.936, 1, 10.7795, 59.3238, 1.29753, 61.4139, -82.2881, 130.673
0.94, 1, 10.8324, 59.3005, 1.26467, 61.4908, -82.2235, 130.494
0.944, 1, 10.8854, 59.2771, 1.23185, 61.5676, -82.1591, 130.315
0.948, 1, 10.9382, 59.2538, 1.19905, 61.6444, -82.0946, 130.136
0.952, 1, 10.9911, 59.2306, 1.16629, 61.7211, -82.0303, 129.957
0.956, 1, 11.0438, 59.2073, 1.13355, 61.7977, -81.966, 129.778
0.96, 1, 11.0966, 59.1841, 1.10084, 61.8742, -81.9017, 129.6
0.964, 1, 11.1493, 59.1609, 1.06817, 61.9507, -81.8375, 129.422
0.968, 1, 11.2019, 59.1377, 1.03552, 62.0271, -81.7734, 129.244
0.972, 1, 11.2545, 59.1145, 1.00291, 62.1035, -81.7093, 129.066
0.976, 1, 11.307, 59.0914, 0.970322, 62.1797, -81.6453, 128.888
0.98, 1, 11.3595, 59.0682, 0.937766, 62.2559, -81.5813, 128.711
0.984, 1, 11.4119, 59.0451, 0.90524, 62.3321, -81.5174, 128.533
0.988, 1, 11.4643, 59.022, 0.872745, 62.4081, -81.4536, 128.356
0.992, 1, 11.5167, 58.999, 0.840279, 62.4841, -81.3898, 128.179
0.996, 1, 11.569, 58.9759, 0.807843, 62.56, -81.3261, 128.002
1, 1, 11.6212, 58.9529, 0.775437, 62.6359, -81.2624, 127.826
1.004, 1, 11.6734, 58.9299, 0.743061, 62.7117, -81.1988, 127.649
1.008, 1, 11.7256, 58.9069, 0.710716, 62.7874, -81.1352, 127.473
1.012, 1, 11.7777, 58.884, 0.6784, 62.863, -81.0718, 127.296
1.016, 1, 11.8297, 58.861, 0.646114, 62.9386, -81.0083, 127.12
1.02, 1, 11.8817, 58.8381, 0.613859, 63.0141, -80.945, 126.945
1.024, 1, 11.9337, 58.8152, 0.581633, 63.0895, -80.8817, 126.769
1.027, 1, 11.9856, 58.7924, 0.549437, 63.1648, -80.8184, 126.593
1.032, 1, 12.0375, 58.7695, 0.517271, 63.2401, -80.7552, 126.418
1.036, 1, 12.0893, 58.7467, 0.485136, 63.3153, -80.6921, 126.243
1.04, 1, 12.141, 58.7239, 0.45303, 63.3905, -80.629, 126.067
1.044, 1, 12.1928, 58.7011, 0.420954, 63.4656, -80.566, 125.893
1.048, 1, 12.2444, 58.6783, 0.388908, 63.5406, -80.503, 125.718
1.052, 1, 12.2961, 58.6556, 0.356892, 63.6155, -80.4401, 125.543
1.055, 1, 12.3476, 58.6328, 0.324906, 63.6904, -80.3773, 125.369
1.06, 1, 12.3991, 58.6101, 0.29295, 63.7652, -80.3145, 125.195
1.064, 1, 12.4506, 58.5875, 0.261024, 63.8399, -80.2518, 125.02
1.068, 1, 12.5021, 58.5648, 0.229128, 63.9145, -80.1891, 124.846
1.072, 1, 12.5534, 58.5422, 0.197262, 63.9891, -80.1265, 124.673
1.076, 1, 12.6048, 58.5196, 0.165426, 64.0636, -80.064, 124.499
1.08, 1, 12.656, 58.497, 0.13362, 64.1381, -80.0015, 124.326
1.084, 1, 12.7073, 58.4744, 0.101843, 64.2125, -79.9391, 124.152
1.088, 1, 12.7585, 58.4518, 0.0700965, 64.2868, -79.8767, 123.979
1.091, 1, 12.8096, 58.4293, 0.0383798, 64.361, -79.8144, 123.806
1.096, 1, 12.8607, 58.4068, 0.00669298, 64.4352, -79.7521, 123.633
1.1, 1, 12.9117, 58.3843, -0.024964, 64.5093, -79.6899, 123.461
1.104, 1, 12.9627, 58.3618, -0.0565913, 64.5833, -79.6278, 123.288
1.108, 1, 13.0137, 58.3394, -0.0881887, 64.6572, -79.5657, 123.116
1.112, 1, 13.0646, 58.317, -0.119756, 64.7311, -79.5037, 122.944
1.116, 1, 13.1154, 58.2945, -0.151294, 64.8049, -79.4417, 122.772
1.119, 1, 13.1662, 58.2722, -0.182803, 64.8787, -79.3798, 122.6
1.124, 1, 13.217, 58.2498, -0.214281, 64.9524, -79.318, 122.428
1.128, 1, 13.2677, 58.2275, -0.24573, 65.026, -79.2562, 122.257
1.132, 1, 13.3184, 58.2051, -0.277149, 65.0995, -79.1945, 122.086
1.136, 1, 13.369, 58.1828, -0.308539, 65.173, -79.1328, 121.914
1.14, 1, 13.4195, 58.1606, -0.339899, 65.2464, -79.0712, 121.743
1.144, 1, 13.4701, 58.1383, -0.371229, 65.3197, -79.0097, 121.573
1.147, 1, 13.5205, 58.1161, -0.40253, 65.393, -78.9482, 121.402
1.152, 1, 13.571, 58.0939, -0.433801, 65.4662, -78.8867, 121.231
1.156, 1, 13.6213, 58.0717, -0.465043, 65.5393, -78.8254, 121.061
1.16, 1, 13.6717, 58.0495, -0.496255, 65.6124, -78.764, 120.891
1.164, 1, 13.7219, 58.0273, -0.527438, 65.6853, -78.7028, 120.721
1.168, 1, 13.7722, 58.0052, -0.558592, 65.7582, -78.6416, 120.551
1.172, 1, 13.8224, 57.9831, -0.589716, 65.8311, -78.5804, 120.381
1.175, 1, 13.8725, 57.961, -0.62081, 65.9039, -78.5193, 120.212
1.18, 1, 13.9226, 57.9389, -0.651875, 65.9766, -78.4583, 120.042
1.184, 1, 13.9726, 57.9169, -0.682911, 66.0492, -78.3973, 119.873
1.188, 1, 14.0226, 57.8949, -0.713918, 66.1218, -78.3364, 119.704
1.192, 1, 14.0726, 57.8728, -0.744895, 66.1943, -78.2756, 119.535
1.196, 1, 14.1225, 57.8509, -0.775843, 66.2667, -78.2148, 119.366
1.2, 1, 14.1723, 57.8289, -0.806761, 66.3391, -78.154, 119.198
1.204, 1, 14.2221, 57.8069, -0.837651, 66.4114, -78.0933, 119.029
1.208, 1, 14.2719, 57.785, -0.868511, 66.4836, -78.0327, 118.861
1.212, 1, 14.3216, 57.7631, -0.899342, 66.5558, -77.9721, 118.693
1.216, 1, 14.3713, 57.7412, -0.930144, 66.6279, -77.9116, 118.525
1.22, 1, 14.4209, 57.7194, -0.960917, 66.6999, -77.8512, 118.357
1.224, 1, 14.4705, 57.6975, -0.99166, 66.7719, -77.7908, 118.189
1.228, 1, 14.52, 57.6757, -1.02237, 66.8438, -77.7304, 118.022
1.232, 1, 14.5695, 57.6539, -1.05306, 66.9156, -77.6701, 117.854
1.236, 1, 14.6189, 57.6321, -1.08372, 66.9873, -77.6099, 117.687
1.24, 1, 14.6683, 57.6104, -1.11434, 67.059, -77.5497, 117.52
1.244, 1, 14.7176, 57.5886, -1.14494, 67.1306, -77.4896, 117.353
1.248, 1, 14.7669, 57.5669, -1.17551, 67.2022, -77.4296, 117.187
1.252, 1, 14.8161, 57.5452, -1.20605, 67.2737, -77.3696, 117.02
1.256, 1, 14.8653, 57.5236, -1.23656, 67.3451, -77.3096, 116.854
1.26, 1, 14.9145, 57.5019, -1.26705, 67.4164, -77.2497, 116.688
1.264, 1, 14.9636, 57.4803, -1.2975, 67.4877, -77.1899, 116.521
1.267, 1, 15.0127, 57.4586, -1.32793, 67.5589, -77.1301, 116.356
1.272, 1, 15.0617, 57.4371, -1.35832, 67.6301, -77.0704, 116.19
1.276, 1, 15.1106, 57.4155, -1.38869, 67.7011, -77.0108, 116.024
1.28, 1, 15.1596, 57.3939, -1.41903, 67.7722, -76.9512, 115.859
1.284, 1, 15.2084, 57.3724, -1.44934, 67.8431, -76.8916, 115.693
1.288, 1, 15.2573, 57.3509, -1.47962, 67.914, -76.8321, 115.528
1.292, 1, 15.306, 57.3294, -1.50987, 67.9848, -76.7727, 115.363
1.295, 1, 15.3548, 57.3079, -1.5401, 68.0555, -76.7133, 115.198
1.3, 1, 15.4035, 57.2865, -1.57029, 68.1262, -76.654, 115.034
1.304, 1, 15.4521, 57.265, -1.60046, 68.1968, -76.5947, 114.869
1.308, 1, 15.5007, 57.2436, -1.6306, 68.2674, -76.5355, 114.705
1.312, 1, 15.5492, 57.2222, -1.66071, 68.3378, -76.4764, 114.541
1.316, 1, 15.5978, 57.2009, -1.69079, 68.4082, -76.4173, 114.377
1.32, 1, 15.6462, 57.1795, -1.72085, 68.4786, -76.3582, 114.213
1.324, 1, 15.6946, 57.1582, -1.75087, 68.5489, -76.2992, 114.049
1.328, 1, 15.743, 57.1369, -1.78087, 68.6191, -76.2403, 113.886
1.332, 1, 15.7913, 57.1156, -1.81084, 68.6892, -76.1814, 113.722
1.336, 1, 15.8396, 57.0943, -1.84078, 68.7593, -76.1226, 113.559
1.34, 1, 15.8878, 57.0731, -1.87069, 68.8293, -76.0638, 113.396
1.344, 1, 15.936, 57.0518, -1.90057, 68.8992, -76.0051, 113.233
1.348, 1, 15.9841, 57.0306, -1.93043, 68.9691, -75.9465, 113.07
1.352, 1, 16.0322, 57.0094, -1.96025, 69.0389, -75.8879, 112.907
1.356, 1, 16.0803, 56.9883, -1.99005, 69.1087, -75.8293, 112.745
1.36, 1, 16.1283, 56.9671, -2.01982, 69.1783, -75.7709, 112.582
1.364, 1, 16.1762, 56.946, -2.04956, 69.248, -75.7124, 112.42
1.368, 1, 16.2242, 56.9249, -2.07928, 69.3175, -75.654, 112.258
1.372, 1, 16.272, 56.9038, -2.10896, 69.387, -75.5957, 112.096
1.376, 1, 16.3198, 56.8827, -2.13862, 69.4564, -75.5375, 111.935
1.38, 1, 16.3676, 56.8617, -2.16825, 69.5257, -75.4793, 111.773
1.384, 1, 16.4154, 56.8406, -2.19785, 69.595, -75.4211, 111.612
1.388, 1, 16.463, 56.8196, -2.22742, 69.6643, -75.363, 111.45
1.392, 1, 16.5107, 56.7986, -2.25697, 69.7334, -75.3049, 111.289
1.396, 1, 16.5583, 56.7777, -2.28649, 69.8025, -75.247, 111.128
1.4, 1, 16.6058, 56.7567, -2.31598, 69.8715, -75.189, 110.967
1.404, 1, 16.6533, 56.7358, -2.34544, 69.9405, -75.1311, 110.807
1.408, 1, 16.7008, 56.7149, -2.37487, 70.0094, -75.0733, 110.646
1.412, 1, 16.7482, 56.694, -2.40428, 70.0782, -75.0155, 110.486
1.416, 1, 16.7956, 56.6731, -2.43366, 70.147, -74.9578, 110.326
1.42, 1, 16.8429, 56.6523, -2.46301, 70.2157, -74.9002, 110.166
1.424, 1, 16.8902, 56.6314, -2.49233, 70.2843, -74.8425, 110.006
1.428, 1, 16.9375, 56.6106, -2.52163, 70.3529, -74.785, 109.846
1.432, 1, 16.9846, 56.5898, -2.5509, 70.4214, -74.7275, 109.686
1.436, 1, 17.0318, 56.569, -2.58014, 70.4898, -74.67, 109.527
1.44, 1, 17.0789, 56.5483, -2.60936, 70.5582, -74.6126, 109.368
1.444, 1, 17.126, 56.5275, -2.63854, 70.6265, -74.5553, 109.208
1.448, 1, 17.173, 56.5068, -2.6677, 70.6948, -74.498, 109.049
1.452, 1, 17.22, 56.4861, -2.69683, 70.763, -74.4408, 108.891
1.456, 1, 17.2669, 56.4655, -2.72594, 70.8311, -74.3836, 108.732
1.46, 1, 17.3138, 56.4448, -2.75502, 70.8991, -74.3265, 108.573
1.464, 1, 17.3606, 56.4242, -2.78407, 70.9671, -74.2694, 108.415
1.468, 1, 17.4074, 56.4035, -2.81309, 71.0351, -74.2124, 108.257
1.472, 1, 17.4542, 56.3829, -2.84209, 71.1029, -74.1554, 108.098
1.476, 1, 17.5009, 56.3624, -2.87106, 71.1707, -74.0985, 107.94
1.48, 1, 17.5476, 56.3418, -2.9, 71.2385, -74.0416, 107.783
1.484, 1, 17.5942, 56.3213, -2.92891, 71.3062, -73.9848, 107.625
1.488, 1, 17.6408, 56.3007, -2.9578, 71.3738, -73.9281, 107.467
1.492, 1, 17.6873, 56.2802, -2.98666, 71.4413, -73.8714, 107.31
1.496, 1, 17.7338, 56.2597, -3.0155, 71.5088, -73.8147, 107.153
1.5, 1, 17.7803, 56.2393, -3.04431, 71.5762, -73.7581, 106.996
1.504, 1, 17.8267, 56.2188, -3.07309, 71.6436, -73.7016, 106.839
1.508, 1, 17.8731, 56.1984, -3.10184, 71.7109, -73.6451, 106.682
1.512, 1, 17.9194, 56.178, -3.13057, 71.7782, -73.5887, 106.525
1.516, 1, 17.9657, 56.1576, -3.15927, 71.8453, -73.5323, 106.369
1.52, 1, 18.0119, 56.1372, -3.18795, 71.9125, -73.4759, 106.212
1.524, 1, 18.0581, 56.1169, -3.2166, 71.9795, -73.4196, 106.056
1.528, 1, 18.1043, 56.0965, -3.24522, 72.0465, -73.3634, 105.9
1.532, 1, 18.1504, 56.0762, -3.27381, 72.1134, -73.3072, 105.744
1.536, 1, 18.1964, 56.0559, -3.30238, 72.1803, -73.2511, 105.588
1.54, 1, 18.2425, 56.0356, -3.33093, 72.2471, -73.195, 105.433
1.544, 1, 18.2884, 56.0154, -3.35944, 72.3139, -73.139, 105.277
1.548, 1, 18.3344, 55.9951, -3.38793, 72.3805, -73.083, 105.122
1.552, 1, 18.3803, 55.9749, -3.4164, 72.4472, -73.0271, 104.967
1.556, 1, 18.4261, 55.9547, -3.44484, 72.5137, -72.9712, 104.811
1.56, 1, 18.472, 55.9345, -3.47325, 72.5802, -72.9154, 104.657
1.564, 1, 18.5177, 55.9144, -3.50163, 72.6467, -72.8597, 104.502
1.568, 1, 18.5635, 55.8942, -3.52999, 72.713, -72.8039, 104.347
1.572, 1, 18.6091, 55.8741, -3.55833, 72.7794, -72.7483, 104.193
1.576, 1, 18.6548, 55.854, -3.58663, 72.8456, -72.6927, 104.038
1.58, 1, 18.7004, 55.8339, -3.61492, 72.9118, -72.6371, 103.884
1.584, 1, 18.746, 55.8138, -3.64317, 72.9779, -72.5816, 103.73
1.588, 1, 18.7915, 55.7938, -3.6714, 73.044, -72.5261, 103.576
1.592, 1, 18.837, 55.7737, -3.69961, 73.11, -72.4707, 103.422
1.596, 1, 18.8824, 55.7537, -3.72778, 73.176, -72.4154, 103.268
1.6, 1, 18.9278, 55.7337, -3.75594, 73.2419, -72.36, 103.115
1.604, 1, 18.9732, 55.7137, -3.78406, 73.3077, -72.3048, 102.962
1.608, 1, 19.0185, 55.6937, -3.81217, 73.3735, -72.2496, 102.808
1.612, 1, 19.0637, 55.6738, -3.84024, 73.4392, -72.1944, 102.655
1.616, 1, 19.109, 55.6539, -3.86829, 73.5049, -72.1393, 102.502
1.62, 1, 19.1542, 55.634, -3.89632, 73.5704, -72.0843, 102.349
1.624, 1, 19.1993, 55.6141, -3.92431, 73.636, -72.0292, 102.197
1.628, 1, 19.2444, 55.5942, -3.95229, 73.7015, -71.9743, 102.044
1.632, 1, 19.2895, 55.5743, -3.98024, 73.7669, -71.9194, 101.892
1.636, 1, 19.3345, 55.5545, -4.00816, 73.8322, -71.8645, 101.74
1.64, 1, 19.3795, 55.5347, -4.03606, 73.8975, -71.8097, 101.587
1.644, 1, 19.4244, 55.5149, -4.06393, 73.9628, -71.755, 101.435
1.648, 1, 19.4693, 55.4951, -4.09178, 74.028, -71.7002, 101.284
1.652, 1, 19.5142, 55.4753, -4.1196, 74.0931, -71.6456, 101.132
1.656, 1, 19.559, 55.4556, -4.1474, 74.1581, -71.591, 100.98
1.66, 1, 19.6038, 55.4359, -4.17517, 74.2231, -71.5364, 100.829
1.664, 1, 19.6486, 55.4161, -4.20292, 74.2881, -71.4819, 100.677
1.668, 1, 19.6933, 55.3964, -4.23064, 74.353, -71.4274, 100.526
1.672, 1, 19.7379, 55.3768, -4.25833, 74.4178, -71.373, 100.375
1.676, 1, 19.7825, 55.3571, -4.28601, 74.4826, -71.3187, 100.224
1.68, 1, 19.8271, 55.3375, -4.31365, 74.5473, -71.2643, 100.074
1.684, 1, 19.8717, 55.3179, -4.34128, 74.6119, -71.2101, 99.9229
1.688, 1, 19.9162, 55.2982, -4.36887, 74.6765, -71.1559, 99.7724
1.692, 1, 19.9606, 55.2787, -4.39645, 74.7411, -71.1017, 99.6221
1.696, 1, 20.0051, 55.2591, -4.424, 74.8055, -71.0476, 99.4718
1.7, 1, 20.0494, 55.2395, -4.45152, 74.8699, -70.9935, 99.3218
1.704, 1, 20.0938, 55.22, -4.47902, 74.9343, -70.9395, 99.1718
1.708, 1, 20.1381, 55.2005, -4.50649, 74.9986, -70.8855, 99.022
1.712, 1, 20.1823, 55.181, -4.53394, 75.0629, -70.8316, 98.8723
1.716, 1, 20.2266, 55.1615, -4.56137, 75.1271, -70.7777, 98.7227
1.72, 1, 20.2707, 55.142, -4.58877, 75.1912, -70.7239, 98.5733
1.724, 1, 20.3149, 55.1226, -4.61614, 75.2553, -70.6701, 98.424
1.728, 1, 20.359, 55.1031, -4.64349, 75.3193, -70.6163, 98.2749
1.732, 1, 20.4031, 55.0837, -4.67082, 75.3832, -70.5627, 98.1259
1.736, 1, 20.4471, 55.0643, -4.69812, 75.4471, -70.509, 97.977
1.74, 1, 20.4911, 55.045, -4.7254, 75.511, -70.4554, 97.8282
1.744, 1, 20.535, 55.0256, -4.75265, 75.5748, -70.4019, 97.6796
1.748, 1, 20.5789, 55.0062, -4.77988, 75.6385, -70.3484, 97.5311
1.752, 1, 20.6228, 54.9869, -4.80709, 75.7022, -70.2949, 97.3827
1.756, 1, 20.6666, 54.9676, -4.83427, 75.7658, -70.2415, 97.2345
1.76, 1, 20.7104, 54.9483, -4.86143, 75.8294, -70.1882, 97.0864
1.764, 1, 20.7542, 54.929, -4.88856, 75.8929, -70.1349, 96.9384
1.768, 1, 20.7979, 54.9098, -4.91567, 75.9563, -70.0816, 96.7906
1.772, 1, 20.8416, 54.8905, -4.94276, 76.0197, -70.0284, 96.6429
1.776, 1, 20.8852, 54.8713, -4.96982, 76.0831, -69.9752, 96.4953
1.78, 1, 20.9288, 54.8521, -4.99686, 76.1464, -69.9221, 96.3479
1.784, 1, 20.9724, 54.8329, -5.02387, 76.2096, -69.869, 96.2006
1.788, 1, 21.0159, 54.8137, -5.05086, 76.2728, -69.816, 96.0534
1.792, 1, 21.0594, 54.7946, -5.07783, 76.3359, -69.763, 95.9063
1.796, 1, 21.1028, 54.7754, -5.10477, 76.3989, -69.7101, 95.7594
1.8, 1, 21.1463, 54.7563, -5.13169, 76.462, -69.6572, 95.6126
1.804, 1, 21.1896, 54.7372, -5.15859, 76.5249, -69.6044, 95.4659
1.808, 1, 21.233, 54.7181, -5.18546, 76.5878, -69.5516, 95.3194
1.812, 1, 21.2763, 54.699, -5.21231, 76.6507, -69.4988, 95.1729
1.816, 1, 21.3195, 54.68, -5.23914, 76.7134, -69.4461, 95.0266
1.82, 1, 21.3627, 54.6609, -5.26594, 76.7762, -69.3935, 94.8805
1.824, 1, 21.4059, 54.6419, -5.29272, 76.8389, -69.3409, 94.7344
1.828, 1, 21.4491, 54.6229, -5.31948, 76.9015, -69.2883, 94.5885
1.832, 1, 21.4922, 54.6039, -5.34621, 76.9641, -69.2358, 94.4427
1.836, 1, 21.5353, 54.5849, -5.37292, 77.0266, -69.1833, 94.2971
1.84, 1, 21.5783, 54.566, -5.39961, 77.089, -69.1309, 94.1516
1.844, 1, 21.6213, 54.547, -5.42627, 77.1515, -69.0785, 94.0061
1.848, 1, 21.6642, 54.5281, -5.45292, 77.2138, -69.0261, 93.8609
1.852, 1, 21.7072, 54.5092, -5.47953, 77.2761, -68.9738, 93.7157
1.856, 1, 21.7501, 54.4903, -5.50613, 77.3384, -68.9216, 93.5707
1.86, 1, 21.7929, 54.4714, -5.5327, 77.4006, -68.8694, 93.4258
1.864, 1, 21.8357, 54.4525, -5.55925, 77.4627, -68.8172, 93.281
1.868, 1, 21.8785, 54.4337, -5.58578, 77.5248, -68.7651, 93.1363
1.872, 1, 21.9212, 54.4149, -5.61228, 77.5868, -68.713, 92.9918
1.876, 1, 21.9639, 54.3961, -5.63877, 77.6488, -68.661, 92.8474
1.88, 1, 22.0066, 54.3773, -5.66523, 77.7107, -68.609, 92.7031
1.884, 1, 22.0492, 54.3585, -5.69166, 77.7726, -68.5571, 92.5589
1.888, 1, 22.0918, 54.3397, -5.71808, 77.8344, -68.5052, 92.4149
1.892, 1, 22.1344, 54.321, -5.74447, 77.8962, -68.4533, 92.2709
1.896, 1, 22.1769, 54.3022, -5.77084, 77.9579, -68.4015, 92.1271
1.9, 1, 22.2194, 54.2835, -5.79718, 78.0196, -68.3498, 91.9835
1.904, 1, 22.2619, 54.2648, -5.82351, 78.0812, -68.2981, 91.8399
1.908, 1, 22.3043, 54.2461, -5.84981, 78.1428, -68.2464, 91.6965
1.912, 1, 22.3466, 54.2274, -5.87609, 78.2043, -68.1948, 91.5532
1.916, 1, 22.389, 54.2088, -5.90235, 78.2657, -68.1432, 91.41
1.92, 1, 22.4313, 54.1902, -5.92858, 78.3272, -68.0916, 91.2669
1.924, 1, 22.4736, 54.1715, -5.9548, 78.3885, -68.0401, 91.124
1.928, 1, 22.5158, 54.1529, -5.98099, 78.4498, -67.9887, 90.9811
1.932, 1, 22.558, 54.1343, -6.00716, 78.5111, -67.9373, 90.8384
1.936, 1, 22.6002, 54.1158, -6.03331, 78.5723, -67.8859, 90.6958
1.94, 1, 22.6423, 54.0972, -6.05943, 78.6334, -67.8346, 90.5534
1.944, 1, 22.6844, 54.0786, -6.08553, 78.6945, -67.7833, 90.411
1.948, 1, 22.7264, 54.0601, -6.11162, 78.7556, -67.732, 90.2688
1.952, 1, 22.7685, 54.0416, -6.13768, 78.8166, -67.6808, 90.1267
1.956, 1, 22.8105, 54.0231, -6.16371, 78.8775, -67.6297, 89.9847
1.96, 1, 22.8524, 54.0046, -6.18973, 78.9384, -67.5786, 89.8428
1.964, 1, 22.8943, 53.9862, -6.21572, 78.9992, -67.5275, 89.701
1.968, 1, 22.9362, 53.9677, -6.2417, 79.06, -67.4765, 89.5594
1.972, 1, 22.9781, 53.9493, -6.26765, 79.1208, -67.4255, 89.4179
1.976, 1, 23.0199, 53.9308, -6.29358, 79.1815, -67.3745, 89.2765
1.98, 1, 23.0616, 53.9124, -6.31949, 79.2421, -67.3237, 89.1352
1.984, 1, 23.1034, 53.894, -6.34537, 79.3027, -67.2728, 88.994
1.988, 1, 23.1451, 53.8757, -6.37124, 79.3632, -67.222, 88.853
1.992, 1, 23.1868, 53.8573, -6.39708, 79.4237, -67.1712, 88.712
1.996, 1, 23.2284, 53.839, -6.42291, 79.4842, -67.1205, 88.5712
1.999, 1, 23.27, 53.8206, -6.44871, 79.5446, -67.0698, 88.4305
2.004, 1, 23.3116, 53.8023, -6.47449, 79.6049, -67.0191, 88.2899
2.008, 1, 23.3531, 53.784, -6.50025, 79.6652, -66.9685, 88.1495
2.012, 1, 23.3946, 53.7657, -6.52598, 79.7254, -66.918, 88.0091
2.015, 1, 23.4361, 53.7475, -6.5517, 79.7856, -66.8674, 87.8689
2.019, 1, 23.4775, 53.7292, -6.57739, 79.8458, -66.817, 87.7287
2.024, 1, 23.5189, 53.711, -6.60307, 79.9059, -66.7665, 87.5887
2.028, 1, 23.5603, 53.6927, -6.62872, 79.9659, -66.7161, 87.4488
2.031, 1, 23.6016, 53.6745, -6.65435, 80.0259, -66.6658, 87.309
2.036, 1, 23.6429, 53.6563, -6.67997, 80.0858, -66.6154, 87.1694
2.04, 1, 23.6842, 53.6381, -6.70556, 80.1457, -66.5652, 87.0298
2.044, 1, 23.7254, 53.62, -6.73112, 80.2056, -66.5149, 86.8904
2.048, 1, 23.7666, 53.6018, -6.75667, 80.2654, -66.4647, 86.7511
2.051, 1, 23.8078, 53.5837, -6.7822, 80.3251, -66.4146, 86.6119
2.055, 1, 23.8489, 53.5656, -6.80771, 80.3848, -66.3645, 86.4728
2.06, 1, 23.89, 53.5475, -6.83319, 80.4445, -66.3144, 86.3338
2.064, 1, 23.9311, 53.5294, -6.85866, 80.5041, -66.2644, 86.1949
2.068, 1, 23.9721, 53.5113, -6.8841, 80.5637, -66.2144, 86.0561
2.071, 1, 24.0131, 53.4932, -6.90953, 80.6232, -66.1644, 85.9175
2.076, 1, 24.0541, 53.4752, -6.93493, 80.6826, -66.1145, 85.779
2.08, 1, 24.095, 53.4572, -6.96032, 80.742, -66.0647, 85.6405
2.084, 1, 24.1359, 53.4391, -6.98568, 80.8014, -66.0148, 85.5022
2.087, 1, 24.1768, 53.4211, -7.01102, 80.8607, -65.965, 85.364
2.092, 1, 24.2176, 53.4031, -7.03634, 80.92, -65.9153, 85.2259
2.096, 1, 24.2584, 53.3852, -7.06165, 80.9792, -65.8656, 85.088
2.1, 1, 24.2992, 53.3672, -7.08693, 81.0384, -65.8159, 84.9501
2.104, 1, 24.3399, 53.3493, -7.11219, 81.0975, -65.7663, 84.8123
2.107, 1, 24.3806, 53.3313, -7.13743, 81.1566, -65.7167, 84.6747
2.111, 1, 24.4213, 53.3134, -7.16265, 81.2156, -65.6671, 84.5371
2.116, 1, 24.4619, 53.2955, -7.18785, 81.2746, -65.6176, 84.3997
2.12, 1, 24.5026, 53.2776, -7.21303, 81.3335, -65.5682, 84.2624
2.124, 1, 24.5431, 53.2597, -7.23819, 81.3924, -65.5187, 84.1252
2.127, 1, 24.5837, 53.2419, -7.26333, 81.4513, -65.4693, 83.9881
2.132, 1, 24.6242, 53.224, -7.28845, 81.5101, -65.42, 83.8511
2.136, 1, 24.6647, 53.2062, -7.31356, 81.5688, -65.3707, 83.7142
2.14, 1, 24.7051, 53.1884, -7.33864, 81.6275, -65.3214, 83.5774
2.143, 1, 24.7455, 53.1706, -7.3637, 81.6862, -65.2722, 83.4408
2.148, 1, 24.7859, 53.1528, -7.38874, 81.7448, -65.223, 83.3042
2.152, 1, 24.8262, 53.135, -7.41376, 81.8034, -65.1738, 83.1678
2.156, 1, 24.8666, 53.1172, -7.43876, 81.8619, -65.1247, 83.0314
2.16, 1, 24.9069, 53.0995, -7.46375, 81.9204, -65.0756, 82.8952
2.163, 1, 24.9471, 53.0818, -7.48871, 81.9788, -65.0266, 82.759
2.168, 1, 24.9873, 53.064, -7.51365, 82.0372, -64.9776, 82.623
2.172, 1, 25.0275, 53.0463, -7.53858, 82.0955, -64.9286, 82.4871
2.176, 1, 25.0677, 53.0286, -7.56348, 82.1538, -64.8797, 82.3513
2.179, 1, 25.1078, 53.0109, -7.58837, 82.2121, -64.8308, 82.2156
2.184, 1, 25.1479, 52.9933, -7.61323, 82.2703, -64.7819, 82.08
2.188, 1, 25.188, 52.9756, -7.63808, 82.3284, -64.7331, 81.9445
2.192, 1, 25.228, 52.958, -7.66291, 82.3865, -64.6843, 81.8091
2.196, 1, 25.268, 52.9404, -7.68772, 82.4446, -64.6356, 81.6738
2.199, 1, 25.308, 52.9228, -7.71251, 82.5026, -64.5869, 81.5386
2.204, 1, 25.3479, 52.9052, -7.73728, 82.5606, -64.5382, 81.4035
2.208, 1, 25.3879, 52.8876, -7.76203, 82.6185, -64.4896, 81.2685
2.212, 1, 25.4277, 52.87, -7.78676, 82.6764, -64.441, 81.1337
2.216, 1, 25.4676, 52.8524, -7.81147, 82.7343, -64.3924, 80.9989
2.219, 1, 25.5074, 52.8349, -7.83617, 82.7921, -64.3439, 80.8642
2.224, 1, 25.5472, 52.8174, -7.86084, 82.8498, -64.2955, 80.7297
2.228, 1, 25.587, 52.7999, -7.8855, 82.9075, -64.247, 80.5952
2.232, 1, 25.6267, 52.7823, -7.91014, 82.9652, -64.1986, 80.4609
2.235, 1, 25.6664, 52.7649, -7.93475, 83.0228, -64.1502, 80.3266
2.24, 1, 25.7061, 52.7474, -7.95935, 83.0804, -64.1019, 80.1925
2.244, 1, 25.7457, 52.7299, -7.98393, 83.1379, -64.0536, 80.0584
2.248, 1, 25.7853, 52.7125, -8.0085, 83.1954, -64.0054, 79.9245
2.252, 1, 25.8249, 52.695, -8.03304, 83.2529, -63.9571, 79.7906
2.255, 1, 25.8644, 52.6776, -8.05757, 83.3103, -63.909, 79.6569
2.259, 1, 25.904, 52.6602, -8.08207, 83.3676, -63.8608, 79.5232
2.264, 1, 25.9434, 52.6428, -8.10656, 83.4249, -63.8127, 79.3897
2.268, 1, 25.9829, 52.6254, -8.13103, 83.4822, -63.7646, 79.2562
2.272, 1, 26.0223, 52.608, -8.15548, 83.5395, -63.7166, 79.1229
2.275, 1, 26.0617, 52.5907, -8.17992, 83.5966, -63.6686, 78.9897
2.28, 1, 26.1011, 52.5733, -8.20433, 83.6538, -63.6206, 78.8565
2.284, 1, 26.1404, 52.556, -8.22873, 83.7109, -63.5727, 78.7235
2.288, 1, 26.1798, 52.5387, -8.25311, 83.7679, -63.5248, 78.5905
2.291, 1, 26.219, 52.5214, -8.27747, 83.825, -63.4769, 78.4577
2.296, 1, 26.2583, 52.5041, -8.30181, 83.8819, -63.4291, 78.325
2.3, 1, 26.2975, 52.4868, -8.32613, 83.9389, -63.3813, 78.1923
2.304, 1, 26.3367, 52.4695, -8.35044, 83.9958, -63.3336, 78.0598
2.308, 1, 26.3759, 52.4523, -8.37472, 84.0526, -63.2859, 77.9273
2.311, 1, 26.415, 52.435, -8.39899, 84.1094, -63.2382, 77.795
2.316, 1, 26.4541, 52.4178, -8.42324, 84.1662, -63.1905, 77.6627
2.32, 1, 26.4932, 52.4006, -8.44748, 84.2229, -63.1429, 77.5306
2.324, 1, 26.5322, 52.3834, -8.47169, 84.2796, -63.0954, 77.3985
2.328, 1, 26.5713, 52.3662, -8.49589, 84.3362, -63.0478, 77.2666
2.331, 1, 26.6103, 52.349, -8.52007, 84.3928, -63.0003, 77.1347
2.336, 1, 26.6492, 52.3318, -8.54423, 84.4494, -62.9528, 77.0029
2.34, 1, 26.6882, 52.3147, -8.56838, 84.5059, -62.9054, 76.8713
2.344, 1, 26.7271, 52.2976, -8.5925, 84.5623, -62.858, 76.7397
2.347, 1, 26.7659, 52.2804, -8.61661, 84.6188, -62.8106, 76.6082
2.352, 1, 26.8048, 52.2633, -8.6407, 84.6752, -62.7633, 76.4768
2.356, 1, 26.8436, 52.2462, -8.66477, 84.7315, -62.716, 76.3456
2.36, 1, 26.8824, 52.2291, -8.68883, 84.7878, -62.6688, 76.2144
2.364, 1, 26.9212, 52.212, -8.71287, 84.8441, -62.6215, 76.0833
2.367, 1, 26.9599, 52.195, -8.73689, 84.9003, -62.5743, 75.9523
2.372, 1, 26.9986, 52.1779, -8.76089, 84.9565, -62.5272, 75.8214
2.376, 1, 27.0373, 52.1609, -8.78488, 85.0126, -62.4801, 75.6906
2.38, 1, 27.0759, 52.1438, -8.80885, 85.0687, -62.433, 75.5599
2.383, 1, 27.1146, 52.1268, -8.8328, 85.1248, -62.3859, 75.4293
2.388, 1, 27.1532, 52.1098, -8.85673, 85.1808, -62.3389, 75.2988
2.392, 1, 27.1917, 52.0928, -8.88065, 85.2368, -62.2919, 75.1683
2.396, 1, 27.2303, 52.0759, -8.90455, 85.2927, -62.245, 75.038
2.4, 1, 27.2688, 52.0589, -8.92843, 85.3486, -62.198, 74.9078
2.403, 1, 27.3072, 52.0419, -8.95229, 85.4045, -62.1511, 74.7776
2.408, 1, 27.3457, 52.025, -8.97614, 85.4603, -62.1043, 74.6476
2.412, 1, 27.3841, 52.0081, -8.99997, 85.5161, -62.0575, 74.5176
2.416, 1, 27.4225, 51.9911, -9.02378, 85.5718, -62.0107, 74.3878
2.42, 1, 27.4609, 51.9742, -9.04758, 85.6275, -61.9639, 74.258
2.423, 1, 27.4993, 51.9573, -9.07136, 85.6832, -61.9172, 74.1283
2.428, 1, 27.5376, 51.9405, -9.09512, 85.7388, -61.8705, 73.9987
2.432, 1, 27.5759, 51.9236, -9.11887, 85.7944, -61.8239, 73.8692
2.436, 1, 27.6141, 51.9067, -9.1426, 85.8499, -61.7773, 73.7398
2.439, 1, 27.6524, 51.8899, -9.16631, 85.9054, -61.7307, 73.6105
2.444, 1, 27.6906, 51.8731, -9.19, 85.9609, -61.6841, 73.4813
2.448, 1, 27.7288, 51.8562, -9.21368, 86.0163, -61.6376, 73.3522
2.452, 1, 27.7669, 51.8394, -9.23734, 86.0717, -61.5911, 73.2232
2.456, 1, 27.805, 51.8226, -9.26099, 86.127, -61.5447, 73.0942
2.459, 1, 27.8431, 51.8058, -9.28461, 86.1823, -61.4983, 72.9654
2.464, 1, 27.8812, 51.7891, -9.30822, 86.2376, -61.4519, 72.8366
2.468, 1, 27.9193, 51.7723, -9.33182, 86.2928, -61.4055, 72.7079
2.472, 1, 27.9573, 51.7555, -9.3554, 86.348, -61.3592, 72.5794
2.476, 1, 27.9953, 51.7388, -9.37896, 86.4031, -61.3129, 72.4509
2.479, 1, 28.0332, 51.7221, -9.4025, 86.4582, -61.2667, 72.3225
2.484, 1, 28.0712, 51.7054, -9.42603, 86.5133, -61.2204, 72.1942
2.488, 1, 28.1091, 51.6887, -9.44954, 86.5683, -61.1742, 72.066
2.492, 1, 28.147, 51.672, -9.47304, 86.6233, -61.1281, 71.9378
2.495, 1, 28.1849, 51.6553, -9.49652, 86.6783, -61.0819, 71.8098
2.5, 1, 28.2227, 51.6386, -9.51998, 86.7332, -61.0358, 71.6818
2.504, 1, 28.2605, 51.622, -9.54343, 86.7881, -60.9898, 71.554
2.508, 1, 28.2983, 51.6053, -9.56686, 86.8429, -60.9438, 71.4262
2.512, 1, 28.336, 51.5887, -9.59027, 86.8977, -60.8978, 71.2985
2.515, 1, 28.3738, 51.572, -9.61367, 86.9525, -60.8518, 71.1709
2.52, 1, 28.4115, 51.5554, -9.63705, 87.0072, -60.8058, 71.0434
2.524, 1, 28.4492, 51.5388, -9.66042, 87.0619, -60.7599, 70.916
2.528, 1, 28.4868, 51.5222, -9.68376, 87.1166, -60.7141, 70.7887
2.531, 1, 28.5244, 51.5057, -9.7071, 87.1712, -60.6682, 70.6614
2.536, 1, 28.562, 51.4891, -9.73042, 87.2258, -60.6224, 70.5343
2.54, 1, 28.5996, 51.4725, -9.75372, 87.2803, -60.5766, 70.4072
2.544, 1, 28.6372, 51.456, -9.777, 87.3348, -60.5309, 70.2802
2.548, 1, 28.6747, 51.4395, -9.80027, 87.3893, -60.4852, 70.1533
2.551, 1, 28.7122, 51.423, -9.82353, 87.4437, -60.4395, 70.0265
2.556, 1, 28.7497, 51.4064, -9.84677, 87.4981, -60.3938, 69.8997
2.56, 1, 28.7871, 51.3899, -9.86999, 87.5525, -60.3482, 69.7731
2.564, 1, 28.8245, 51.3735, -9.8932, 87.6068, -60.3026, 69.6466
2.568, 1, 28.8619, 51.357, -9.91639, 87.661, -60.257, 69.5201
2.571, 1, 28.8993, 51.3405, -9.93956, 87.7153, -60.2115, 69.3937
2.576, 1, 28.9367, 51.3241, -9.96272, 87.7695, -60.166, 69.2674
2.58, 1, 28.974, 51.3076, -9.98587, 87.8237, -60.1205, 69.1412
2.584, 1, 29.0113, 51.2912, -10.009, 87.8778, -60.0751, 69.0151
2.587, 1, 29.0485, 51.2748, -10.0321, 87.9319, -60.0297, 68.889
2.592, 1, 29.0858, 51.2584, -10.0552, 87.986, -59.9843, 68.7631
2.596, 1, 29.123, 51.242, -10.0783, 88.04, -59.939, 68.6372
2.6, 1, 29.1602, 51.2256, -10.1014, 88.094, -59.8936, 68.5114
2.604, 1, 29.1974, 51.2092, -10.1244, 88.1479, -59.8484, 68.3857
2.607, 1, 29.2345, 51.1928, -10.1474, 88.2019, -59.8031, 68.26
2.612, 1, 29.2717, 51.1765, -10.1705, 88.2558, -59.7579, 68.1345
2.616, 1, 29.3088, 51.1601, -10.1935, 88.3096, -59.7127, 68.009
2.62, 1, 29.3458, 51.1438, -10.2165, 88.3634, -59.6675, 67.8837
2.624, 1, 29.3829, 51.1275, -10.2394, 88.4172, -59.6224, 67.7584
2.627, 1, 29.4199, 51.1111, -10.2624, 88.4709, -59.5773, 67.6332
2.632, 1, 29.4569, 51.0948, -10.2853, 88.5246, -59.5322, 67.508
2.636, 1, 29.4939, 51.0786, -10.3083, 88.5783, -59.4871, 67.383
2.64, 1, 29.5308, 51.0623, -10.3312, 88.6319, -59.4421, 67.258
2.643, 1, 29.5678, 51.046, -10.3541, 88.6855, -59.3971, 67.1331
2.648, 1, 29.6047, 51.0297, -10.377, 88.7391, -59.3521, 67.0083
2.652, 1, 29.6415, 51.0135, -10.3998, 88.7926, -59.3072, 66.8836
2.656, 1, 29.6784, 50.9973, -10.4227, 88.8461, -59.2623, 66.759
2.66, 1, 29.7152, 50.981, -10.4455, 88.8996, -59.2174, 66.6344
2.663, 1, 29.752, 50.9648, -10.4684, 88.953, -59.1726, 66.5099
2.668, 1, 29.7888, 50.9486, -10.4912, 89.0064, -59.1278, 66.3855
2.672, 1, 29.8256, 50.9324, -10.514, 89.0598, -59.083, 66.2612
2.676, 1, 29.8623, 50.9162, -10.5368, 89.1131, -59.0382, 66.137
2.679, 1, 29.899, 50.9001, -10.5595, 89.1664, -58.9935, 66.0128
2.684, 1, 29.9357, 50.8839, -10.5823, 89.2196, -58.9488, 65.8888
2.688, 1, 29.9724, 50.8677, -10.605, 89.2729, -58.9041, 65.7648
2.692, 1, 30.009, 50.8516, -10.6277, 89.326, -58.8595, 65.6409
2.696, 1, 30.0457, 50.8355, -10.6504, 89.3792, -58.8149, 65.517
2.699, 1, 30.0822, 50.8193, -10.6731, 89.4323, -58.7703, 65.3933
2.704, 1, 30.1188, 50.8032, -10.6958, 89.4854, -58.7257, 65.2696
2.708, 1, 30.1554, 50.7871, -10.7185, 89.5384, -58.6812, 65.146
2.712, 1, 30.1919, 50.771, -10.7411, 89.5915, -58.6367, 65.0225
2.716, 1, 30.2284, 50.7549, -10.7638, 89.6444, -58.5923, 64.899
2.719, 1, 30.2649, 50.7389, -10.7864, 89.6974, -58.5478, 64.7757
2.724, 1, 30.3013, 50.7228, -10.809, 89.7503, -58.5034, 64.6524
2.728, 1, 30.3378, 50.7068, -10.8316, 89.8032, -58.459, 64.5292
2.732, 1, 30.3742, 50.6907, -10.8542, 89.856, -58.4146, 64.4061
2.735, 1, 30.4106, 50.6747, -10.8767, 89.9089, -58.3703, 64.283
2.74, 1, 30.4469, 50.6587, -10.8993, 89.9616, -58.326, 64.16
2.744, 1, 30.4833, 50.6427, -10.9218, 90.0144, -58.2817, 64.0371
2.748, 1, 30.5196, 50.6267, -10.9443, 90.0671, -58.2375, 63.9143
2.752, 1, 30.5559, 50.6107, -10.9668, 90.1198, -58.1933, 63.7916
2.755, 1, 30.5921, 50.5947, -10.9893, 90.1724, -58.1491, 63.6689
2.76, 1, 30.6284, 50.5787, -11.0118, 90.225, -58.1049, 63.5463
2.764, 1, 30.6646, 50.5628, -11.0343, 90.2776, -58.0608, 63.4238
2.768, 1, 30.7008, 50.5468, -11.0567, 90.3302, -58.0167, 63.3014
2.772, 1, 30.737, 50.5309, -11.0792, 90.3827, -57.9726, 63.1791
2.775, 1, 30.7732, 50.5149, -11.1016, 90.4352, -57.9285, 63.0568
2.78, 1, 30.8093, 50.499, -11.124, 90.4876, -57.8845, 62.9346
2.784, 1, 30.8454, 50.4831, -11.1464, 90.54, -57.8405, 62.8124
2.788, 1, 30.8815, 50.4672, -11.1688, 90.5924, -57.7966, 62.6904
2.791, 1, 30.9176, 50.4513, -11.1911, 90.6448, -57.7526, 62.5684
2.796, 1, 30.9536, 50.4354, -11.2135, 90.6971, -57.7087, 62.4465
2.8, 1, 30.9896, 50.4196, -11.2358, 90.7494, -57.6648, 62.3247
2.804, 1, 31.0256, 50.4037, -11.2582, 90.8016, -57.6209, 62.2029
2.808, 1, 31.0616, 50.3878, -11.2805, 90.8539, -57.5771, 62.0813
2.811, 1, 31.0976, 50.372, -11.3028, 90.9061, -57.5333, 61.9597
2.816, 1, 31.1335, 50.3562, -11.3251, 90.9582, -57.4895, 61.8381
2.82, 1, 31.1694, 50.3404, -11.3473, 91.0103, -57.4458, 61.7167
2.824, 1, 31.2053, 50.3245, -11.3696, 91.0624, -57.402, 61.5953
2.828, 1, 31.2412, 50.3087, -11.3918, 91.1145, -57.3583, 61.474
2.831, 1, 31.277, 50.2929, -11.4141, 91.1665, -57.3147, 61.3528
2.836, 1, 31.3129, 50.2772, -11.4363, 91.2185, -57.271, 61.2316
2.84, 1, 31.3487, 50.2614, -11.4585, 91.2705, -57.2274, 61.1105
2.844, 1, 31.3844, 50.2456, -11.4807, 91.3224, -57.1838, 60.9895
2.847, 1, 31.4202, 50.2299, -11.5028, 91.3743, -57.1402, 60.8686
2.852, 1, 31.4559, 50.2141, -11.525, 91.4262, -57.0967, 60.7477
2.856, 1, 31.4917, 50.1984, -11.5472, 91.4781, -57.0532, 60.6269
2.86, 1, 31.5274, 50.1827, -11.5693, 91.5299, -57.0097, 60.5062
2.864, 1, 31.563, 50.1669, -11.5914, 91.5816, -56.9662, 60.3856
2.867, 1, 31.5987, 50.1512, -11.6135, 91.6334, -56.9228, 60.265
2.872, 1, 31.6343, 50.1355, -11.6356, 91.6851, -56.8794, 60.1445
2.876, 1, 31.6699, 50.1198, -11.6577, 91.7368, -56.836, 60.0241
2.88, 1, 31.7055, 50.1042, -11.6798, 91.7885, -56.7926, 59.9037
2.883, 1, 31.7411, 50.0885, -11.7018, 91.8401, -56.7493, 59.7835
2.888, 1, 31.7766, 50.0728, -11.7239, 91.8917, -56.706, 59.6632
2.892, 1, 31.8121, 50.0572, -11.7459, 91.9432, -56.6627, 59.5431
2.896, 1, 31.8477, 50.0415, -11.7679, 91.9948, -56.6194, 59.423
2.9, 1, 31.8831, 50.0259, -11.7899, 92.0463, -56.5762, 59.303
2.903, 1, 31.9186, 50.0103, -11.8119, 92.0978, -56.533, 59.1831
2.908, 1, 31.954, 49.9947, -11.8339, 92.1492, -56.4898, 59.0633
2.912, 1, 31.9895, 49.979, -11.8559, 92.2006, -56.4467, 58.9435
2.916, 1, 32.0249, 49.9635, -11.8778, 92.252, -56.4036, 58.8238
2.92, 1, 32.0602, 49.9479, -11.8997, 92.3033, -56.3605, 58.7041
2.923, 1, 32.0956, 49.9323, -11.9217, 92.3547, -56.3174, 58.5846
2.928, 1, 32.1309, 49.9167, -11.9436, 92.406, -56.2743, 58.4651
2.932, 1, 32.1662, 49.9012, -11.9655, 92.4572, -56.2313, 58.3456
2.936, 1, 32.2015, 49.8856, -11.9874, 92.5084, -56.1883, 58.2263
2.939, 1, 32.2368, 49.8701, -12.0092, 92.5596, -56.1453, 58.107
2.944, 1, 32.2721, 49.8545, -12.0311, 92.6108, -56.1024, 57.9878
2.948, 1, 32.3073, 49.839, -12.053, 92.662, -56.0594, 57.8686
2.952, 1, 32.3425, 49.8235, -12.0748, 92.7131, -56.0165, 57.7495
2.956, 1, 32.3777, 49.808, -12.0966, 92.7642, -55.9737, 57.6305
2.959, 1, 32.4129, 49.7925, -12.1184, 92.8152, -55.9308, 57.5116
2.964, 1, 32.448, 49.777, -12.1402, 92.8662, -55.888, 57.3927
2.968, 1, 32.4832, 49.7615, -12.162, 92.9172, -55.8452, 57.2739
2.972, 1, 32.5183, 49.7461, -12.1838, 92.9682, -55.8024, 57.1551
2.976, 1, 32.5534, 49.7306, -12.2056, 93.0191, -55.7596, 57.0364
2.98, 1, 32.5884, 49.7151, -12.2273, 93.07, -55.7169, 56.9178
2.984, 1, 32.6235, 49.6997, -12.249, 93.1209, -55.6742, 56.7993
2.988, 1, 32.6585, 49.6843, -12.2708, 93.1718, -55.6315, 56.6808
2.992, 1, 32.6935, 49.6688, -12.2925, 93.2226, -55.5889, 56.5624
2.995, 1, 32.7285, 49.6534, -12.3142, 93.2734, -55.5462, 56.4441
3, 1, 32.7635, 49.638, -12.3359, 93.3241, -55.5036, 56.3258
3.004, 1, 32.7985, 49.6226, -12.3575, 93.3749, -55.4611, 56.2076
3.008, 1, 32.8334, 49.6072, -12.3792, 93.4256, -55.4185, 56.0895
3.012, 1, 32.8683, 49.5919, -12.4009, 93.4762, -55.376, 55.9714
3.015, 1, 32.9032, 49.5765, -12.4225, 93.5269, -55.3334, 55.8534
3.02, 1, 32.9381, 49.5611, -12.4441, 93.5775, -55.291, 55.7355
3.024, 1, 32.9729, 49.5458, -12.4657, 93.6281, -55.2485, 55.6176
3.028, 1, 33.0078, 49.5304, -12.4873, 93.6787, -55.2061, 55.4998
3.031, 1, 33.0426, 49.5151, -12.5089, 93.7292, -55.1636, 55.3821
3.036, 1, 33.0774, 49.4997, -12.5305, 93.7797, -55.1212, 55.2644
3.04, 1, 33.1121, 49.4844, -12.5521, 93.8302, -55.0789, 55.1468
3.044, 1, 33.1469, 49.4691, -12.5736, 93.8806, -55.0365, 55.0293
3.048, 1, 33.1816, 49.4538, -12.5952, 93.931, -54.9942, 54.9118
3.051, 1, 33.2164, 49.4385, -12.6167, 93.9814, -54.9519, 54.7944
3.056, 1, 33.2511, 49.4232, -12.6382, 94.0318, -54.9096, 54.677
3.06, 1, 33.2857, 49.4079, -12.6597, 94.0821, -54.8674, 54.5598
3.064, 1, 33.3204, 49.3927, -12.6812, 94.1325, -54.8252, 54.4425
3.068, 1, 33.355, 49.3774, -12.7027, 94.1827, -54.783, 54.3254
3.071, 1, 33.3897, 49.3621, -12.7242, 94.233, -54.7408, 54.2083
3.076, 1, 33.4243, 49.3469, -12.7456, 94.2832, -54.6986, 54.0913
3.08, 1, 33.4588, 49.3317, -12.7671, 94.3334, -54.6565, 53.9743
3.084, 1, 33.4934, 49.3164, -12.7885, 94.3836, -54.6144, 53.8574
3.087, 1, 33.528, 49.3012, -12.8099, 94.4337, -54.5723, 53.7406
3.092, 1, 33.5625, 49.286, -12.8313, 94.4838, -54.5302, 53.6238
3.096, 1, 33.597, 49.2708, -12.8527, 94.5339, -54.4882, 53.5071
3.1, 1, 33.6315, 49.2556, -12.8741, 94.584, -54.4461, 53.3905
3.104, 1, 33.6659, 49.2404, -12.8955, 94.634, -54.4042, 53.2739
3.107, 1, 33.7004, 49.2252, -12.9169, 94.684, -54.3622, 53.1574
3.112, 1, 33.7348, 49.2101, -12.9382, 94.734, -54.3202, 53.041
3.116, 1, 33.7692, 49.1949, -12.9596, 94.784, -54.2783, 52.9246
3.12, 1, 33.8036, 49.1798, -12.9809, 94.8339, -54.2364, 52.8083
3.124, 1, 33.838, 49.1646, -13.0022, 94.8838, -54.1945, 52.692
3.128, 1, 33.8724, 49.1495, -13.0235, 94.9337, -54.1526, 52.5758
3.132, 1, 33.9067, 49.1343, -13.0448, 94.9835, -54.1108, 52.4597
3.136, 1, 33.941, 49.1192, -13.0661, 95.0333, -54.069, 52.3436
3.14, 1, 33.9753, 49.1041, -13.0874, 95.0831, -54.0272, 52.2276
3.143, 1, 34.0096, 49.089, -13.1086, 95.1329, -53.9854, 52.1117
3.148, 1, 34.0439, 49.0739, -13.1299, 95.1826, -53.9437, 51.9958
3.152, 1, 34.0781, 49.0588, -13.1511, 95.2323, -53.902, 51.88
3.156, 1, 34.1124, 49.0437, -13.1723, 95.282, -53.8602, 51.7642
3.16, 1, 34.1466, 49.0287, -13.1936, 95.3317, -53.8186, 51.6485
3.163, 1, 34.1808, 49.0136, -13.2148, 95.3813, -53.7769, 51.5329
3.168, 1, 34.215, 48.9985, -13.236, 95.4309, -53.7353, 51.4173
3.172, 1, 34.2491, 48.9835, -13.2571, 95.4805, -53.6937, 51.3018
3.176, 1, 34.2832, 48.9684, -13.2783, 95.53, -53.6521, 51.1863
3.179, 1, 34.3174, 48.9534, -13.2995, 95.5796, -53.6105, 51.0709
3.184, 1, 34.3515, 48.9384, -13.3206, 95.6291, -53.5689, 50.9556
3.188, 1, 34.3856, 48.9234, -13.3418, 95.6786, -53.5274, 50.8403
3.192, 1, 34.4196, 48.9084, -13.3629, 95.728, -53.4859, 50.7251
3.196, 1, 34.4537, 48.8934, -13.384, 95.7774, -53.4444, 50.61
3.199, 1, 34.4877, 48.8784, -13.4051, 95.8268, -53.403, 50.4949
3.204, 1, 34.5217, 48.8634, -13.4262, 95.8762, -53.3615, 50.3799
3.208, 1, 34.5557, 48.8484, -13.4473, 95.9255, -53.3201, 50.2649
3.212, 1, 34.5897, 48.8334, -13.4683, 95.9749, -53.2787, 50.15
3.216, 1, 34.6237, 48.8185, -13.4894, 96.0241, -53.2373, 50.0351
3.22, 1, 34.6576, 48.8035, -13.5105, 96.0734, -53.196, 49.9203
3.224, 1, 34.6915, 48.7886, -13.5315, 96.1227, -53.1546, 49.8056
3.228, 1, 34.7254, 48.7736, -13.5525, 96.1719, -53.1133, 49.6909
3.232, 1, 34.7593, 48.7587, -13.5735, 96.2211, -53.072, 49.5763
3.235, 1, 34.7932, 48.7438, -13.5945, 96.2702, -53.0308, 49.4618
3.24, 1, 34.8271, 48.7289, -13.6155, 96.3194, -52.9895, 49.3473
3.244, 1, 34.8609, 48.7139, -13.6365, 96.3685, -52.9483, 49.2328
3.248, 1, 34.8947, 48.699, -13.6575, 96.4176, -52.9071, 49.1185
3.252, 1, 34.9285, 48.6841, -13.6785, 96.4666, -52.8659, 49.0042
3.255, 1, 34.9623, 48.6693, -13.6994, 96.5157, -52.8247, 48.8899
3.26, 1, 34.9961, 48.6544, -13.7204, 96.5647, -52.7836, 48.7757
3.264, 1, 35.0298, 48.6395, -13.7413, 96.6137, -52.7425, 48.6616
3.268, 1, 35.0636, 48.6246, -13.7622, 96.6627, -52.7014, 48.5475
3.272, 1, 35.0973, 48.6098, -13.7831, 96.7116, -52.6603, 48.4334
3.276, 1, 35.131, 48.5949, -13.804, 96.7605, -52.6192, 48.3195
3.28, 1, 35.1647, 48.5801, -13.8249, 96.8094, -52.5782, 48.2056
3.284, 1, 35.1983, 48.5653, -13.8458, 96.8583, -52.5372, 48.0917
3.288, 1, 35.232, 48.5504, -13.8666, 96.9071, -52.4962, 47.9779
3.291, 1, 35.2656, 48.5356, -13.8875, 96.9559, -52.4552, 47.8642
3.296, 1, 35.2992, 48.5208, -13.9083, 97.0047, -52.4143, 47.7505
3.3, 1, 35.3327, 48.506, -13.9292, 97.0535, -52.3733, 47.6369
3.304, 1, 35.366, 48.4914, -13.95, 97.1022, -52.3324, 47.5233
3.308, 1, 35.3989, 48.4768, -13.9709, 97.1509, -52.2915, 47.4098
3.312, 1, 35.4312, 48.4626, -13.9918, 97.1996, -52.2507, 47.2965
3.316, 1, 35.4628, 48.4487, -14.0127, 97.2481, -52.21, 47.1834
3.32, 1, 35.4934, 48.4353, -14.0337, 97.2964, -52.1695, 47.0708
3.324, 1, 35.5229, 48.4224, -14.0547, 97.3444, -52.1293, 46.9588
3.328, 1, 35.5513, 48.4102, -14.0756, 97.392, -52.0894, 46.8479
3.332, 1, 35.5787, 48.3986, -14.0963, 97.4389, -52.0501, 46.7385
3.336, 1, 35.605, 48.3875, -14.1168, 97.4849, -52.0116, 46.6312
3.34, 1, 35.6303, 48.377, -14.1368, 97.5297, -51.9741, 46.5266
3.344, 1, 35.6546, 48.3669, -14.1562, 97.5731, -51.9378, 46.4254
3.347, 1, 35.678, 48.3573, -14.1748, 97.6147, -51.903, 46.3283
3.352, 1, 35.7002, 48.3482, -14.1925, 97.6543, -51.8698, 46.236
3.356, 1, 35.7214, 48.3394, -14.2092, 97.6915, -51.8387, 46.1491
3.36, 1, 35.7416, 48.331, -14.2246, 97.7262, -51.8096, 46.0682
3.364, 1, 35.7607, 48.323, -14.2387, 97.7581, -51.7829, 45.9938
3.368, 1, 35.7789, 48.3152, -14.2514, 97.787, -51.7586, 45.9263
3.372, 1, 35.7964, 48.3076, -14.2626, 97.813, -51.7369, 45.8658
3.376, 1, 35.8131, 48.3001, -14.2722, 97.8359, -51.7176, 45.8124
3.38, 1, 35.829, 48.2928, -14.2804, 97.8558, -51.7008, 45.7661
3.383, 1, 35.8441, 48.2857, -14.2871, 97.8729, -51.6865, 45.7265
3.388, 1, 35.8581, 48.279, -14.2926, 97.8872, -51.6743, 45.6931
3.392, 1, 35.8708, 48.2728, -14.2969, 97.8991, -51.6642, 45.6655
3.396, 2, 35.8823, 48.2671, -14.3003, 97.9088, -51.656, 45.6431
3.4, 2, 35.8925, 48.262, -14.3028, 97.9166, -51.6494, 45.6251
3.403, 2, 35.9015, 48.2575, -14.3047, 97.9227, -51.6442, 45.611
3.408, 2, 35.9095, 48.2535, -14.306, 97.9274, -51.6402, 45.6002
3.412, 2, 35.9166, 48.25, -14.3068, 97.9309, -51.6371, 45.5921
3.416, 2, 35.9229, 48.247, -14.3073, 97.9335, -51.6349, 45.5861
3.42, 2, 35.9282, 48.2444, -14.3076, 97.9354, -51.6332, 45.5819
3.424, 2, 35.9326, 48.2424, -14.3077, 97.9367, -51.6321, 45.5789
3.428, 2, 35.9361, 48.2408, -14.3078, 97.9376, -51.6313, 45.5768
3.432, 2, 35.9387, 48.2397, -14.3078, 97.9383, -51.6307, 45.5754
3.436, 2, 35.9406, 48.239, -14.3078, 97.9387, -51.6304, 45.5744
3.439, 2, 35.9418, 48.2389, -14.3078, 97.939, -51.6301, 45.5738
3.444, 2, 35.9426, 48.2392, -14.3078, 97.9391, -51.6301, 45.5733
3.448, 3, 35.9432, 48.2402, -14.3079, 97.9392, -51.6303, 45.5729
3.452, 3, 35.9434, 48.2419, -14.308, 97.9393, -51.6309, 45.5725
3.456, 3, 35.9435, 48.2443, -14.3081, 97.9392, -51.6321, 45.5719
3.46, 3, 35.9435, 48.2477, -14.3084, 97.939, -51.6343, 45.5712
3.464, 3, 35.9434, 48.252, -14.3088, 97.9386, -51.6379, 45.57
3.468, 3, 35.9431, 48.2576, -14.3094, 97.938, -51.6434, 45.5682
3.472, 3, 35.9428, 48.2645, -14.3103, 97.9371, -51.6514, 45.5657
3.476, 3, 35.9424, 48.2731, -14.3116, 97.9359, -51.6627, 45.5621
3.48, 3, 35.9418, 48.2835, -14.3133, 97.9342, -51.678, 45.5574
3.484, 3, 35.9412, 48.2959, -14.3155, 97.9319, -51.6983, 45.551
3.488, 3, 35.9405, 48.3104, -14.3184, 97.9288, -51.7245, 45.5429
3.492, 3, 35.9398, 48.3268, -14.3221, 97.925, -51.7577, 45.5326
3.495, 3, 35.939, 48.3453, -14.3266, 97.9202, -51.7987, 45.5199
3.5, 3, 35.9381, 48.3659, -14.332, 97.9144, -51.8485, 45.5045
3.504, 3, 35.9373, 48.3887, -14.3384, 97.9073, -51.9077, 45.4863
3.508, 3, 35.9364, 48.4138, -14.3458, 97.899, -51.977, 45.4649
3.512, 3, 35.9356, 48.4411, -14.3543, 97.8894, -52.0567, 45.4404
3.516, 3, 35.9347, 48.4708, -14.3639, 97.8783, -52.1472, 45.4126
3.52, 3, 35.934, 48.5027, -14.3745, 97.8658, -52.2485, 45.3815
3.524, 3, 35.9333, 48.5368, -14.3862, 97.8518, -52.3603, 45.3473
3.528, 3, 35.9327, 48.5729, -14.3988, 97.8363, -52.4825, 45.31
3.531, 3, 35.9322, 48.6112, -14.4122, 97.8194, -52.6143, 45.2698
3.536, 3, 35.9317, 48.6515, -14.4264, 97.8011, -52.755, 45.2271
3.54, 3, 35.9313, 48.694, -14.4413, 97.7815, -52.9038, 45.1819
3.544, 3, 35.9308, 48.7386, -14.4567, 97.7606, -53.0598, 45.1347
3.548, 3, 35.9303, 48.7852, -14.4725, 97.7386, -53.222, 45.0858
3.552, 3, 35.9296, 48.8337, -14.4886, 97.7156, -53.3894, 45.0354
3.556, 3, 35.9289, 48.8839, -14.5049, 97.6916, -53.5612, 44.9838
3.56, 3, 35.928, 48.9355, -14.5212, 97.6668, -53.7365, 44.9313
3.564, 3, 35.927, 48.9884, -14.5376, 97.6412, -53.9145, 44.8781
3.568, 3, 35.9258, 49.0426, -14.5538, 97.6148, -54.0946, 44.8245
3.572, 3, 35.9244, 49.0977, -14.5699, 97.5879, -54.2762, 44.7706
3.576, 3, 35.9229, 49.1537, -14.5858, 97.5603, -54.4589, 44.7165
3.58, 3, 35.9211, 49.2105, -14.6015, 97.5322, -54.6422, 44.6624
3.584, 3, 35.9192, 49.2677, -14.6169, 97.5036, -54.8259, 44.6083
3.587, 3, 35.917, 49.3254, -14.6319, 97.4745, -55.0099, 44.5543
3.592, 3, 35.9147, 49.3832, -14.6467, 97.445, -55.1939, 44.5005
3.596, 3, 35.9123, 49.4411, -14.6611, 97.415, -55.3779, 44.4468
3.6, 3, 35.9097, 49.499, -14.6751, 97.3846, -55.5619, 44.3933
3.604, 3, 35.907, 49.5569, -14.6889, 97.3537, -55.7458, 44.3399
3.608, 3, 35.9041, 49.6146, -14.7023, 97.3224, -55.9295, 44.2868
3.612, 3, 35.9011, 49.6722, -14.7153, 97.2907, -56.1131, 44.2338
3.616, 3, 35.8979, 49.7298, -14.728, 97.2586, -56.2966, 44.181
3.62, 3, 35.8946, 49.7871, -14.7403, 97.2261, -56.4798, 44.1284
3.624, 3, 35.8911, 49.8443, -14.7522, 97.1932, -56.6629, 44.076
3.628, 3, 35.8875, 49.9014, -14.7638, 97.1598, -56.8459, 44.0238
3.632, 3, 35.8838, 49.9582, -14.7751, 97.1261, -57.0286, 43.9717
3.636, 3, 35.8799, 50.0149, -14.7859, 97.092, -57.2112, 43.9199
3.64, 3, 35.8759, 50.0715, -14.7964, 97.0574, -57.3936, 43.8682
3.644, 3, 35.8718, 50.1279, -14.8066, 97.0225, -57.5758, 43.8167
3.648, 3, 35.8675, 50.184, -14.8164, 96.9872, -57.7578, 43.7654
3.652, 3, 35.8631, 50.2401, -14.8258, 96.9515, -57.9396, 43.7142
3.656, 3, 35.8585, 50.2959, -14.8348, 96.9154, -58.1213, 43.6632
3.66, 3, 35.8539, 50.3515, -14.8435, 96.8789, -58.3028, 43.6124
3.664, 3, 35.849, 50.407, -14.8518, 96.8421, -58.4841, 43.5618
3.668, 3, 35.8441, 50.4623, -14.8598, 96.8048, -58.6652, 43.5113
3.672, 3, 35.839, 50.5174, -14.8673, 96.7672, -58.8461, 43.4609
3.676, 3, 35.8337, 50.5723, -14.8745, 96.7292, -59.0269, 43.4108
3.679, 3, 35.8283, 50.6271, -14.8813, 96.6909, -59.2075, 43.3607
3.684, 3, 35.8228, 50.6816, -14.8878, 96.6522, -59.3879, 43.3109
3.688, 3, 35.8172, 50.7359, -14.8938, 96.6131, -59.5681, 43.2612
3.692, 3, 35.8114, 50.7901, -14.8995, 96.5737, -59.7481, 43.2116
3.696, 3, 35.8055, 50.8441, -14.9048, 96.5339, -59.928, 43.1622
3.7, 3, 35.7994, 50.8979, -14.9097, 96.4937, -60.1076, 43.1129
3.704, 3, 35.7932, 50.9514, -14.9143, 96.4532, -60.2871, 43.0637
3.708, 3, 35.7869, 51.0048, -14.9184, 96.4123, -60.4664, 43.0147
3.712, 3, 35.7804, 51.058, -14.9222, 96.3711, -60.6455, 42.9659
3.716, 3, 35.7738, 51.111, -14.9256, 96.3295, -60.8245, 42.9171
3.72, 3, 35.7671, 51.1638, -14.9286, 96.2876, -61.0033, 42.8685
3.724, 3, 35.7602, 51.2164, -14.9313, 96.2453, -61.1818, 42.8201
3.728, 3, 35.7532, 51.2688, -14.9335, 96.2027, -61.3603, 42.7717
3.732, 3, 35.746, 51.321, -14.9353, 96.1598, -61.5385, 42.7235
3.735, 3, 35.7388, 51.373, -14.9368, 96.1165, -61.7165, 42.6754
3.74, 3, 35.7313, 51.4248, -14.9379, 96.0728, -61.8944, 42.6274
3.744, 3, 35.7238, 51.4764, -14.9385, 96.0289, -62.0721, 42.5796
3.748, 3, 35.7161, 51.5277, -14.9388, 95.9846, -62.2496, 42.5318
3.752, 3, 35.7083, 51.5789, -14.9387, 95.94, -62.4269, 42.4842
3.756, 3, 35.7003, 51.6299, -14.9382, 95.895, -62.6041, 42.4367
3.76, 3, 35.6923, 51.6806, -14.9373, 95.8497, -62.7811, 42.3893
3.764, 3, 35.684, 51.7311, -14.936, 95.8041, -62.9578, 42.342
3.768, 3, 35.6757, 51.7815, -14.9343, 95.7582, -63.1345, 42.2948
3.772, 3, 35.6672, 51.8316, -14.9322, 95.712, -63.3109, 42.2477
3.776, 3, 35.6586, 51.8815, -14.9297, 95.6654, -63.4872, 42.2007
3.78, 3, 35.6498, 51.9311, -14.9268, 95.6185, -63.6632, 42.1538
3.784, 3, 35.6409, 51.9806, -14.9235, 95.5713, -63.8391, 42.107
3.788, 3, 35.6319, 52.0298, -14.9198, 95.5238, -64.0148, 42.0603
3.792, 3, 35.6227, 52.0789, -14.9157, 95.476, -64.1904, 42.0137
3.796, 3, 35.6134, 52.1277, -14.9112, 95.4279, -64.3658, 41.9671
3.8, 3, 35.604, 52.1762, -14.9062, 95.3795, -64.5409, 41.9207
3.804, 3, 35.5944, 52.2246, -14.9009, 95.3307, -64.7159, 41.8744
3.808, 3, 35.5847, 52.2727, -14.8951, 95.2817, -64.8908, 41.8281
3.812, 3, 35.5749, 52.3206, -14.889, 95.2323, -65.0654, 41.7819
3.816, 3, 35.565, 52.3683, -14.8824, 95.1827, -65.2399, 41.7358
3.82, 3, 35.5549, 52.4158, -14.8754, 95.1327, -65.4142, 41.6898
3.824, 3, 35.5446, 52.463, -14.868, 95.0825, -65.5883, 41.6439
3.828, 3, 35.5343, 52.51, -14.8602, 95.0319, -65.7623, 41.598
3.832, 3, 35.5238, 52.5568, -14.852, 94.9811, -65.9361, 41.5522
3.836, 3, 35.5131, 52.6033, -14.8433, 94.93, -66.1097, 41.5065
3.84, 3, 35.5024, 52.6496, -14.8343, 94.8786, -66.2831, 41.4608
3.844, 3, 35.4915, 52.6957, -14.8248, 94.8268, -66.4564, 41.4152
3.848, 3, 35.4805, 52.7415, -14.8149, 94.7748, -66.6295, 41.3697
3.852, 3, 35.4693, 52.7871, -14.8045, 94.7225, -66.8024, 41.3243
3.856, 3, 35.458, 52.8325, -14.7938, 94.67, -66.9751, 41.2789
3.86, 3, 35.4466, 52.8776, -14.7826, 94.6171, -67.1477, 41.2336
3.864, 3, 35.4351, 52.9225, -14.7711, 94.564, -67.3201, 41.1883
3.868, 3, 35.4234, 52.9671, -14.7591, 94.5105, -67.4924, 41.1431
3.872, 3, 35.4116, 53.0116, -14.7467, 94.4568, -67.6644, 41.0979
3.876, 3, 35.3996, 53.0557, -14.7338, 94.4028, -67.8363, 41.0528
3.88, 3, 35.3876, 53.0997, -14.7206, 94.3486, -68.0081, 41.0078
3.884, 3, 35.3753, 53.1434, -14.7069, 94.294, -68.1797, 40.9628
3.888, 3, 35.363, 53.1868, -14.6928, 94.2392, -68.3511, 40.9179
3.892, 3, 35.3505, 53.2301, -14.6783, 94.1841, -68.5223, 40.873
3.896, 3, 35.338, 53.273, -14.6634, 94.1287, -68.6934, 40.8281
3.9, 3, 35.3252, 53.3158, -14.648, 94.0731, -68.8643, 40.7833
3.904, 3, 35.3124, 53.3582, -14.6322, 94.0172, -69.0351, 40.7386
3.908, 3, 35.2994, 53.4005, -14.616, 93.961, -69.2057, 40.6939
3.912, 3, 35.2863, 53.4425, -14.5994, 93.9046, -69.3761, 40.6492
3.916, 3, 35.273, 53.4842, -14.5824, 93.8478, -69.5463, 40.6046
3.92, 3, 35.2597, 53.5257, -14.5649, 93.7909, -69.7164, 40.56
3.924, 3, 35.2462, 53.567, -14.5471, 93.7336, -69.8864, 40.5154
3.928, 3, 35.2325, 53.608, -14.5288, 93.6761, -70.0562, 40.4709
3.932, 3, 35.2188, 53.6487, -14.51, 93.6184, -70.2258, 40.4264
3.936, 3, 35.2049, 53.6893, -14.4909, 93.5603, -70.3952, 40.3819
3.94, 3, 35.1909, 53.7295, -14.4713, 93.5021, -70.5645, 40.3375
3.944, 3, 35.1767, 53.7695, -14.4513, 93.4435, -70.7337, 40.2931
3.948, 3, 35.1625, 53.8093, -14.4309, 93.3847, -70.9026, 40.2487
3.952, 4, 35.1481, 53.8488, -14.4101, 93.3257, -71.0715, 40.2043
3.956, 4, 35.1336, 53.888, -14.3888, 93.2664, -71.2401, 40.16
3.96, 4, 35.1189, 53.927, -14.3672, 93.2068, -71.4086, 40.1157
3.964, 4, 35.1041, 53.9657, -14.3451, 93.147, -71.577, 40.0714
3.968, 4, 35.0892, 54.0042, -14.3225, 93.0869, -71.7451, 40.0271
3.972, 4, 35.0742, 54.0424, -14.2996, 93.0266, -71.9132, 39.9829
3.976, 4, 35.059, 54.0804, -14.2762, 92.9661, -72.081, 39.9386
3.98, 4, 35.0438, 54.1181, -14.2524, 92.9053, -72.2487, 39.8944
3.984, 4, 35.0283, 54.1555, -14.2281, 92.8442, -72.4163, 39.8502
3.988, 4, 35.0128, 54.1927, -14.2035, 92.7829, -72.5837, 39.806
3.992, 4, 34.9972, 54.2295, -14.1784, 92.7214, -72.7509, 39.7618
3.996, 4, 34.9817, 54.2659, -14.1528, 92.6596, -72.918, 39.7176
3.999, 4, 34.9663, 54.3018, -14.1269, 92.5976, -73.0848, 39.6735
4.004, 4, 34.9512, 54.3369, -14.1006, 92.5354, -73.2514, 39.6294
4.008, 4, 34.9366, 54.371, -14.0739, 92.4731, -73.4174, 39.5853
4.012, 4, 34.9226, 54.4038, -14.0468, 92.4108, -73.5828, 39.5415
4.016, 4, 34.9093, 54.435, -14.0195, 92.3486, -73.747, 39.4978
4.02, 4, 34.8967, 54.4647, -13.9921, 92.2868, -73.9096, 39.4546
4.024, 4, 34.8846, 54.4929, -13.9647, 92.2256, -74.0699, 39.412
4.028, 4, 34.873, 54.5195, -13.9374, 92.1654, -74.227, 39.3702
4.032, 4, 34.8616, 54.5449, -13.9104, 92.1065, -74.38, 39.3295
4.036, 4, 34.8501, 54.569, -13.8838, 92.0493, -74.5278, 39.2902
4.04, 4, 34.8382, 54.592, -13.8577, 91.9942, -74.6695, 39.2527
4.044, 4, 34.8257, 54.614, -13.832, 91.9414, -74.804, 39.2174
4.048, 4, 34.8122, 54.635, -13.8066, 91.8911, -74.9305, 39.1849
4.052, 4, 34.7975, 54.655, -13.7813, 91.8433, -75.0484, 39.1555
4.056, 4, 34.7814, 54.674, -13.7557, 91.7978, -75.1575, 39.1297
4.06, 4, 34.7639, 54.6919, -13.7291, 91.7543, -75.2576, 39.1081
4.064, 4, 34.7454, 54.7086, -13.7009, 91.7123, -75.3491, 39.091
4.068, 4, 34.726, 54.7239, -13.6705, 91.671, -75.4328, 39.0787
4.072, 4, 34.7062, 54.7375, -13.6369, 91.6299, -75.5094, 39.0714
4.076, 4, 34.6864, 54.7491, -13.5995, 91.5879, -75.5802, 39.0693
4.08, 4, 34.6667, 54.7583, -13.5575, 91.5445, -75.6464, 39.0724
4.084, 4, 34.6473, 54.7649, -13.5104, 91.4988, -75.7094, 39.0806
4.088, 4, 34.6282, 54.7686, -13.4578, 91.4502, -75.7704, 39.0938
4.092, 4, 34.6094, 54.7691, -13.3993, 91.3982, -75.8306, 39.1115
4.096, 5, 34.5908, 54.7664, -13.335, 91.3425, -75.891, 39.1335
4.1, 5, 34.5724, 54.7605, -13.265, 91.2831, -75.9525, 39.1592
4.104, 5, 34.5541, 54.7517, -13.1895, 91.2199, -76.0155, 39.1882
4.108, 5, 34.5357, 54.7402, -13.109, 91.1533, -76.0805, 39.22
4.112, 5, 34.5172, 54.7266, -13.0242, 91.0834, -76.1474, 39.2541
4.116, 5, 34.4982, 54.7112, -12.9356, 91.0109, -76.2163, 39.29
4.12, 5, 34.4785, 54.6946, -12.8439, 90.9361, -76.2869, 39.3274
4.124, 5, 34.458, 54.6773, -12.7497, 90.8595, -76.3589, 39.3658
4.128, 5, 34.4365, 54.6594, -12.6536, 90.7816, -76.432, 39.4049
4.132, 5, 34.4139, 54.6413, -12.556, 90.7028, -76.506, 39.4445
4.136, 5, 34.3903, 54.623, -12.4575, 90.6233, -76.5806, 39.4843
4.14, 5, 34.3659, 54.6046, -12.3582, 90.5434, -76.6556, 39.5244
4.144, 5, 34.3409, 54.5861, -12.2584, 90.4633, -76.731, 39.5644
4.148, 5, 34.3154, 54.5676, -12.1583, 90.3829, -76.8066, 39.6045
4.152, 5, 34.2896, 54.549, -12.0579, 90.3025, -76.8824, 39.6445
4.156, 5, 34.2635, 54.5303, -11.9574, 90.222, -76.9584, 39.6845
4.16, 5, 34.2373, 54.5116, -11.8567, 90.1415, -77.0345, 39.7243
4.164, 5, 34.2109, 54.4928, -11.7559, 90.061, -77.1106, 39.764
4.168, 5, 34.1844, 54.474, -11.6551, 89.9805, -77.1869, 39.8036
4.172, 5, 34.1578, 54.455, -11.5543, 89.9, -77.2632, 39.843
4.176, 5, 34.1311, 54.4361, -11.4534, 89.8196, -77.3397, 39.8823
4.18, 5, 34.1043, 54.4171, -11.3525, 89.7392, -77.4161, 39.9214
4.184, 5, 34.0775, 54.398, -11.2515, 89.6589, -77.4927, 39.9604
4.188, 5, 34.0505, 54.3788, -11.1506, 89.5786, -77.5693, 39.9992
4.192, 5, 34.0236, 54.3596, -11.0496, 89.4983, -77.646, 40.0379
4.196, 5, 33.9965, 54.3404, -10.9486, 89.4181, -77.7227, 40.0765
4.2, 5, 33.9694, 54.321, -10.8475, 89.338, -77.7995, 40.1149
4.204, 5, 33.9422, 54.3016, -10.7465, 89.2579, -77.8764, 40.1531
4.208, 5, 33.9149, 54.2822, -10.6455, 89.1778, -77.9533, 40.1912
4.212, 5, 33.8876, 54.2627, -10.5444, 89.0978, -78.0303, 40.2291
4.216, 6, 33.8602, 54.2431, -10.4433, 89.0178, -78.1073, 40.2669
4.22, 6, 33.8328, 54.2235, -10.3422, 88.9379, -78.1844, 40.3045
4.224, 6, 33.8052, 54.2038, -10.2411, 88.858, -78.2615, 40.342
4.228, 6, 33.7777, 54.184, -10.14, 88.7782, -78.3388, 40.3793
4.232, 6, 33.75, 54.1642, -10.0388, 88.6984, -78.416, 40.4165
4.236, 6, 33.7223, 54.1443, -9.93769, 88.6186, -78.4934, 40.4535
4.24, 6, 33.6945, 54.1243, -9.83652, 88.5389, -78.5707, 40.4903
4.244, 6, 33.6667, 54.1043, -9.73534, 88.4593, -78.6482, 40.527
4.248, 6, 33.6388, 54.0843, -9.63415, 88.3797, -78.7257, 40.5635
4.252, 6, 33.6108, 54.0641, -9.53295, 88.3001, -78.8033, 40.5999
4.256, 6, 33.5828, 54.0439, -9.43173, 88.2205, -78.8809, 40.6362
4.26, 6, 33.5547, 54.0237, -9.3305, 88.1411, -78.9585, 40.6722
4.264, 6, 33.5265, 54.0033, -9.22926, 88.0616, -79.0363, 40.7082
4.268, 6, 33.4983, 53.9829, -9.128, 87.9822, -79.1141, 40.7439
4.272, 6, 33.47, 53.9625, -9.02673, 87.9028, -79.1919, 40.7795
4.276, 6, 33.4417, 53.942, -8.92545, 87.8235, -79.2698, 40.815
4.28, 6, 33.4132, 53.9214, -8.82415, 87.7442, -79.3478, 40.8503
4.284, 6, 33.3848, 53.9007, -8.72285, 87.6649, -79.4258, 40.8854
4.288, 6, 33.3562, 53.88, -8.62153, 87.5857, -79.5038, 40.9204
4.292, 6, 33.3276, 53.8592, -8.52019, 87.5065, -79.582, 40.9552
4.296, 6, 33.2989, 53.8384, -8.41885, 87.4274, -79.6601, 40.9899
4.3, 6, 33.2702, 53.8175, -8.31749, 87.3483, -79.7384, 41.0244
4.304, 6, 33.2413, 53.7965, -8.21613, 87.2692, -79.8167, 41.0587
4.308, 6, 33.2125, 53.7754, -8.11475, 87.1902, -79.895, 41.0929
4.312, 6, 33.1835, 53.7543, -8.01335, 87.1112, -79.9734, 41.127
4.316, 6, 33.1545, 53.7331, -7.91195, 87.0322, -80.0518, 41.1608
4.32, 6, 33.1254, 53.7119, -7.81053, 86.9533, -80.1303, 41.1946
4.324, 6, 33.0963, 53.6906, -7.7091, 86.8744, -80.2089, 41.2281
4.328, 6, 33.0671, 53.6692, -7.60766, 86.7956, -80.2875, 41.2615
4.332, 6, 33.0378, 53.6478, -7.50621, 86.7167, -80.3662, 41.2948
4.336, 6, 33.0085, 53.6262, -7.40475, 86.638, -80.4449, 41.3279
4.34, 6, 32.9791, 53.6047, -7.30327, 86.5592, -80.5237, 41.3608
4.344, 6, 32.9496, 53.583, -7.20179, 86.4805, -80.6025, 41.3935
4.348, 6, 32.9201, 53.5613, -7.10029, 86.4018, -80.6814, 41.4261
4.352, 6, 32.8905, 53.5395, -6.99878, 86.3231, -80.7603, 41.4586
4.356, 6, 32.8608, 53.5176, -6.89726, 86.2445, -80.8393, 41.4909
4.36, 6, 32.8311, 53.4957, -6.79573, 86.1659, -80.9183, 41.523
4.364, 6, 32.8013, 53.4737, -6.69419, 86.0873, -80.9974, 41.555
4.368, 6, 32.7714, 53.4517, -6.59263, 86.0087, -81.0765, 41.5868
4.372, 6, 32.7415, 53.4295, -6.49107, 85.9302, -81.1557, 41.6184
4.376, 6, 32.7115, 53.4073, -6.38949, 85.8517, -81.235, 41.6499
4.38, 6, 32.6814, 53.385, -6.28791, 85.7733, -81.3143, 41.6812
4.384, 6, 32.6513, 53.3627, -6.18631, 85.6948, -81.3936, 41.7123
4.388, 6, 32.6211, 53.3403, -6.0847, 85.6164, -81.473, 41.7433
4.392, 6, 32.5909, 53.3178, -5.98309, 85.538, -81.5525, 41.7742
4.396, 6, 32.5605, 53.2952, -5.88146, 85.4596, -81.632, 41.8048
4.4, 6, 32.5301, 53.2726, -5.77982, 85.3813, -81.7115, 41.8353
4.404, 6, 32.4997, 53.2499, -5.67818, 85.303, -81.7911, 41.8657
4.408, 6, 32.4692, 53.2271, -5.57652, 85.2247, -81.8707, 41.8959
4.412, 6, 32.4386, 53.2043, -5.47485, 85.1464, -81.9504, 41.9259
4.416, 6, 32.4079, 53.1814, -5.37318, 85.0682, -82.0302, 41.9557
4.42, 6, 32.3772, 53.1584, -5.27149, 84.99, -82.11, 41.9854
4.424, 6, 32.3464, 53.1353, -5.1698, 84.9118, -82.1898, 42.0149
4.428, 6, 32.3155, 53.1122, -5.06809, 84.8336, -82.2697, 42.0443
4.432, 6, 32.2846, 53.089, -4.96638, 84.7554, -82.3496, 42.0735
4.436, 6, 32.2536, 53.0657, -4.86466, 84.6773, -82.4296, 42.1025
4.44, 6, 32.2225, 53.0423, -4.76292, 84.5992, -82.5096, 42.1313
4.444, 6, 32.1914, 53.0189, -4.66118, 84.5211, -82.5897, 42.16
4.448, 6, 32.1602, 52.9954, -4.55944, 84.443, -82.6698, 42.1886
4.452, 6, 32.129, 52.9718, -4.45768, 84.3649, -82.75, 42.2169
4.456, 6, 32.0976, 52.9481, -4.35591, 84.2869, -82.8302, 42.2451
4.46, 6, 32.0662, 52.9244, -4.25414, 84.2088, -82.9105, 42.2731
4.464, 6, 32.0348, 52.9006, -4.15236, 84.1308, -82.9908, 42.301
4.468, 6, 32.0033, 52.8767, -4.05057, 84.0528, -83.0711, 42.3287
4.472, 6, 31.9717, 52.8528, -3.94877, 83.9748, -83.1515, 42.3562
4.476, 6, 31.94, 52.8287, -3.84696, 83.8969, -83.2319, 42.3836
4.48, 6, 31.9083, 52.8046, -3.74515, 83.8189, -83.3124, 42.4107
4.484, 6, 31.8765, 52.7804, -3.64333, 83.741, -83.393, 42.4378
4.488, 6, 31.8446, 52.7562, -3.5415, 83.663, -83.4735, 42.4646
4.492, 6, 31.8127, 52.7318, -3.43967, 83.5851, -83.5541, 42.4913
4.496, 6, 31.781, 52.7074, -3.33785, 83.5072, -83.6348, 42.5178
4.5, 6, 31.7495, 52.6829, -3.23606, 83.4294, -83.7155, 42.5441
4.504, 6, 31.7183, 52.6584, -3.13435, 83.3516, -83.7962, 42.5703
4.508, 6, 31.6876, 52.6337, -3.0328, 83.2738, -83.8768, 42.5962
4.512, 6, 31.6575, 52.6089, -2.93148, 83.1963, -83.9572, 42.6219
4.516, 6, 31.6279, 52.584, -2.83053, 83.119, -84.0374, 42.6475
4.52, 6, 31.5986, 52.5588, -2.73008, 83.0422, -84.117, 42.673
4.524, 6, 31.5696, 52.5334, -2.63028, 82.9659, -84.1959, 42.6984
4.528, 6, 31.5406, 52.508, -2.53127, 82.8903, -84.2737, 42.7242
4.532, 6, 31.5114, 52.4825, -2.43318, 82.8155, -84.35, 42.7506
4.536, 6, 31.482, 52.457, -2.33609, 82.7415, -84.4245, 42.778
4.54, 6, 31.4524, 52.4316, -2.24, 82.6684, -84.4969, 42.8069
4.544, 6, 31.4224, 52.4061, -2.14484, 82.5962, -84.5669, 42.8378
4.548, 6, 31.3921, 52.3802, -2.05044, 82.5246, -84.6344, 42.8711
4.552, 7, 31.3613, 52.3537, -1.95658, 82.4536, -84.699, 42.9074
4.556, 7, 31.33, 52.3265, -1.86291, 82.3829, -84.7607, 42.9474
4.56, 7, 31.298, 52.2987, -1.76905, 82.3122, -84.8194, 42.9917
4.564, 7, 31.2653, 52.2703, -1.67453, 82.241, -84.875, 43.0411
4.568, 7, 31.2321, 52.2414, -1.57885, 82.169, -84.9276, 43.0961
4.572, 7, 31.1985, 52.212, -1.48147, 82.0956, -84.9774, 43.1573
4.576, 7, 31.165, 52.182, -1.38186, 82.0203, -85.0245, 43.2252
4.58, 7, 31.1316, 52.1509, -1.27952, 81.9428, -85.0694, 43.2999
4.584, 7, 31.0984, 52.1186, -1.17405, 81.8627, -85.1124, 43.3816
4.588, 7, 31.0655, 52.0849, -1.06512, 81.7798, -85.1538, 43.4701
4.592, 7, 31.0328, 52.0497, -0.95258, 81.6938, -85.1939, 43.5653
4.596, 7, 30.9999, 52.0131, -0.836365, 81.6048, -85.2331, 43.667
4.6, 7, 30.9667, 51.9753, -0.716543, 81.5126, -85.2716, 43.7747
4.604, 7, 30.9331, 51.9362, -0.593279, 81.4176, -85.3096, 43.8879
4.608, 7, 30.8991, 51.8961, -0.466825, 81.3199, -85.3473, 44.0061
4.612, 7, 30.8647, 51.8549, -0.337499, 81.2198, -85.385, 44.1286
4.616, 7, 30.8299, 51.8127, -0.205661, 81.1175, -85.4228, 44.2546
4.62, 7, 30.7947, 51.7695, -0.0717002, 81.0134, -85.4609, 44.3836
4.624, 7, 30.7592, 51.7254, 0.0639829, 80.9078, -85.4993, 44.5149
4.628, 7, 30.7231, 51.6807, 0.200994, 80.8011, -85.5382, 44.6479
4.632, 7, 30.6864, 51.6355, 0.338971, 80.6935, -85.5775, 44.7821
4.636, 7, 30.6492, 51.59, 0.477597, 80.5852, -85.6173, 44.9173
4.64, 7, 30.6112, 51.5443, 0.616606, 80.4764, -85.6574, 45.053
4.644, 7, 30.5727, 51.4986, 0.755786, 80.3674, -85.6979, 45.1891
4.648, 8, 30.5338, 51.4529, 0.894973, 80.2583, -85.7388, 45.3253
4.652, 8, 30.4944, 51.4073, 1.03405, 80.149, -85.78, 45.4617
4.656, 8, 30.4547, 51.3618, 1.17292, 80.0397, -85.8216, 45.598
4.66, 8, 30.4147, 51.3166, 1.31155, 79.9303, -85.8635, 45.7342
4.664, 8, 30.3746, 51.2715, 1.44988, 79.821, -85.9057, 45.8704
4.668, 8, 30.3343, 51.2266, 1.58789, 79.7118, -85.9482, 46.0064
4.672, 8, 30.2938, 51.182, 1.72557, 79.6026, -85.9911, 46.1423
4.676, 8, 30.2532, 51.1376, 1.8629, 79.4934, -86.0342, 46.2781
4.68, 8, 30.2125, 51.0934, 1.99988, 79.3843, -86.0777, 46.4136
4.684, 8, 30.1716, 51.0495, 2.1365, 79.2753, -86.1215, 46.5491
4.688, 8, 30.1307, 51.0058, 2.27277, 79.1663, -86.1656, 46.6843
4.692, 8, 30.0896, 50.9624, 2.40867, 79.0574, -86.21, 46.8194
4.696, 8, 30.0483, 50.9192, 2.54421, 78.9486, -86.2547, 46.9544
4.7, 8, 30.007, 50.8762, 2.67939, 78.8399, -86.2997, 47.0891
4.704, 8, 29.9655, 50.8335, 2.8142, 78.7312, -86.3451, 47.2237
4.708, 8, 29.924, 50.791, 2.94865, 78.6226, -86.3907, 47.3581
4.712, 8, 29.8824, 50.7488, 3.08274, 78.5141, -86.4366, 47.4924
4.716, 8, 29.8409, 50.7068, 3.21644, 78.4057, -86.4828, 47.6265
4.72, 8, 29.7995, 50.6651, 3.34974, 78.2973, -86.5294, 47.7603
4.724, 8, 29.7585, 50.6236, 3.48259, 78.1891, -86.5761, 47.894
4.728, 8, 29.7178, 50.5825, 3.61492, 78.0811, -86.6232, 48.0273
4.732, 8, 29.6775, 50.5417, 3.74663, 77.9733, -86.6704, 48.1603
4.736, 8, 29.6375, 50.5012, 3.8776, 77.8659, -86.7179, 48.2927
4.74, 8, 29.5979, 50.4612, 4.00765, 77.759, -86.7654, 48.4245
4.744, 8, 29.5587, 50.4217, 4.13656, 77.6527, -86.8128, 48.5553
4.748, 8, 29.52, 50.3827, 4.26404, 77.5474, -86.8602, 48.685
4.752, 8, 29.482, 50.3444, 4.38977, 77.4433, -86.9074, 48.8131
4.756, 8, 29.4446, 50.3067, 4.51337, 77.3406, -86.9541, 48.9393
4.76, 8, 29.408, 50.2695, 4.63444, 77.2399, -87.0002, 49.063
4.764, 8, 29.3719, 50.2329, 4.75262, 77.1415, -87.0454, 49.1838
4.768, 8, 29.3361, 50.1967, 4.86759, 77.0459, -87.0896, 49.3011
4.772, 8, 29.3003, 50.1609, 4.97913, 76.9532, -87.1325, 49.4144
4.776, 8, 29.2642, 50.1253, 5.08716, 76.8639, -87.1738, 49.5233
4.78, 8, 29.2274, 50.09, 5.19178, 76.7779, -87.2134, 49.6277
4.784, 8, 29.19, 50.0549, 5.29325, 76.6951, -87.2512, 49.7275
4.788, 8, 29.152, 50.02, 5.39201, 76.6152, -87.2871, 49.8228
4.792, 8, 29.1135, 49.9853, 5.48865, 76.5379, -87.3213, 49.9142
4.796, 8, 29.0748, 49.9506, 5.58389, 76.4625, -87.3538, 50.002
4.8, 8, 29.0359, 49.9158, 5.67852, 76.3885, -87.3849, 50.087
4.804, 8, 28.9971, 49.8805, 5.77335, 76.3152, -87.4146, 50.1698
4.808, 8, 28.9584, 49.8449, 5.86917, 76.2419, -87.4434, 50.2512
4.812, 8, 28.9201, 49.8087, 5.96671, 76.168, -87.4714, 50.3319
4.816, 8, 28.882, 49.7718, 6.06657, 76.0929, -87.499, 50.4128
4.82, 8, 28.8443, 49.7341, 6.16923, 76.0161, -87.5264, 50.4943
4.824, 8, 28.8067, 49.6955, 6.27496, 75.9372, -87.5539, 50.5771
4.828, 8, 28.7694, 49.6558, 6.38389, 75.8561, -87.5817, 50.6615
4.832, 8, 28.7321, 49.6148, 6.49595, 75.7726, -87.61, 50.7478
4.836, 8, 28.6948, 49.5724, 6.61092, 75.687, -87.6389, 50.8358
4.84, 8, 28.657, 49.5286, 6.72848, 75.5994, -87.6683, 50.9255
4.844, 8, 28.6187, 49.4834, 6.84822, 75.51, -87.6983, 51.0166
4.848, 8, 28.5796, 49.4371, 6.96972, 75.4194, -87.7289, 51.1089
4.852, 8, 28.5395, 49.3898, 7.09255, 75.3277, -87.7599, 51.2021
4.856, 8, 28.4984, 49.3417, 7.21633, 75.2352, -87.7913, 51.2959
4.86, 8, 28.4564, 49.2931, 7.34074, 75.1421, -87.8231, 51.3901
4.864, 8, 28.4135, 49.2441, 7.46552, 75.0487, -87.8551, 51.4845
4.868, 8, 28.3701, 49.1949, 7.59047, 74.955, -87.8875, 51.5791
4.872, 8, 28.3261, 49.1455, 7.71546, 74.8611, -87.9201, 51.6737
4.876, 8, 28.2818, 49.0962, 7.84038, 74.7671, -87.9529, 51.7683
4.88, 8, 28.2371, 49.0469, 7.96517, 74.673, -87.9859, 51.8629
4.884, 8, 28.1923, 48.9977, 8.08979, 74.5789, -88.0191, 51.9573
4.888, 8, 28.1473, 48.9486, 8.21421, 74.4847, -88.0525, 52.0517
4.892, 8, 28.1021, 48.8996, 8.3384, 74.3904, -88.0861, 52.146
4.896, 8, 28.0568, 48.8508, 8.46236, 74.2962, -88.1199, 52.2402
4.9, 8, 28.0114, 48.8021, 8.58608, 74.2019, -88.1539, 52.3342
4.904, 8, 27.9658, 48.7536, 8.70955, 74.1076, -88.1881, 52.4282
4.908, 8, 27.9201, 48.7052, 8.83276, 74.0133, -88.2224, 52.522
4.912, 8, 27.8743, 48.6569, 8.95571, 73.919, -88.257, 52.6157
4.916, 8, 27.8284, 48.6089, 9.07841, 73.8246, -88.2917, 52.7093
4.92, 8, 27.7824, 48.561, 9.20085, 73.7303, -88.3266, 52.8027
4.924, 8, 27.7362, 48.5132, 9.32303, 73.6359, -88.3617, 52.896
4.928, 8, 27.69, 48.4656, 9.44496, 73.5416, -88.3969, 52.9892
4.932, 8, 27.6436, 48.4182, 9.56662, 73.4472, -88.4324, 53.0823
4.936, 8, 27.5972, 48.3709, 9.68803, 73.3528, -88.468, 53.1753
4.94, 8, 27.5506, 48.3238, 9.80917, 73.2584, -88.5038, 53.2681
4.944, 8, 27.504, 48.2768, 9.93007, 73.164, -88.5398, 53.3608
4.948, 8, 27.4572, 48.23, 10.0507, 73.0696, -88.5759, 53.4534
4.952, 8, 27.4103, 48.1834, 10.1711, 72.9752, -88.6123, 53.5458
4.956, 8, 27.3633, 48.1369, 10.2912, 72.8808, -88.6488, 53.6381
4.96, 8, 27.3162, 48.0905, 10.4111, 72.7863, -88.6855, 53.7303
4.964, 8, 27.269, 48.0444, 10.5307, 72.6919, -88.7224, 53.8224
4.968, 8, 27.2217, 47.9984, 10.65, 72.5974, -88.7594, 53.9144
4.972, 8, 27.1742, 47.9525, 10.7691, 72.5029, -88.7967, 54.0062
4.976, 8, 27.1267, 47.9068, 10.888, 72.4084, -88.8341, 54.0979
4.98, 8, 27.0791, 47.8613, 11.0066, 72.314, -88.8717, 54.1895
4.984, 8, 27.0313, 47.8159, 11.1249, 72.2195, -88.9094, 54.2809
4.988, 8, 26.9834, 47.7707, 11.243, 72.1249, -88.9474, 54.3722
4.992, 8, 26.9355, 47.7256, 11.3608, 72.0304, -88.9855, 54.4634
4.996, 8, 26.8874, 47.6807, 11.4784, 71.9359, -89.0238, 54.5545
5, 8, 26.8392, 47.6359, 11.5957, 71.8413, -89.0622, 54.6455
5.004, 8, 26.7909, 47.5913, 11.7128, 71.7468, -89.1009, 54.7363
5.008, 8, 26.7425, 47.5469, 11.8296, 71.6522, -89.1397, 54.827
5.012, 8, 26.694, 47.5026, 11.9462, 71.5577, -89.1787, 54.9176
5.016, 8, 26.6453, 47.4584, 12.0626, 71.4631, -89.2178, 55.008
5.02, 8, 26.5966, 47.4144, 12.1786, 71.3685, -89.2572, 55.0983
5.024, 8, 26.5477, 47.3706, 12.2945, 71.2739, -89.2967, 55.1885
5.028, 8, 26.4988, 47.3269, 12.4101, 71.1793, -89.3364, 55.2786
5.032, 8, 26.4497, 47.2834, 12.5254, 71.0846, -89.3762, 55.3686
5.036, 8, 26.4005, 47.24, 12.6405, 70.99, -89.4163, 55.4584
5.04, 8, 26.3512, 47.1968, 12.7553, 70.8954, -89.4564, 55.5481
5.044, 8, 26.3018, 47.1537, 12.8699, 70.8007, -89.4968, 55.6377
5.048, 8, 26.2523, 47.1108, 12.9843, 70.706, -89.5374, 55.7271
5.052, 8, 26.2026, 47.068, 13.0984, 70.6114, -89.5781, 55.8165
5.056, 8, 26.1529, 47.0254, 13.2123, 70.5167, -89.619, 55.9057
5.06, 8, 26.103, 46.983, 13.3259, 70.422, -89.66, 55.9948
5.064, 8, 26.053, 46.9407, 13.4392, 70.3273, -89.7012, 56.0837
5.068, 8, 26.003, 46.8985, 13.5524, 70.2325, -89.7426, 56.1725
5.072, 8, 25.9529, 46.8565, 13.6652, 70.1378, -89.7842, 56.2612
5.076, 8, 25.903, 46.8147, 13.7778, 70.0431, -89.8259, 56.3498
5.08, 8, 25.8535, 46.7732, 13.8901, 69.9484, -89.8678, 56.4382
5.084, 8, 25.8046, 46.7319, 14.002, 69.8537, -89.9098, 56.5264
5.088, 8, 25.7565, 46.6908, 14.1133, 69.7593, -89.9518, 56.6144
5.092, 8, 25.7092, 46.6499, 14.224, 69.6652, -89.9938, 56.7019
5.096, 8, 25.6627, 46.6091, 14.3338, 69.5716, -90.0356, 56.789
5.1, 8, 25.6166, 46.5684, 14.4425, 69.4788, -90.0769, 56.8755
5.105, 9, 25.5707, 46.5279, 14.5498, 69.387, -90.1175, 56.9615
5.108, 9, 25.5249, 46.4875, 14.6557, 69.2966, -90.1571, 57.0469
5.112, 9, 25.479, 46.4474, 14.7599, 69.2077, -90.1953, 57.1318
5.116, 9, 25.4332, 46.4075, 14.8622, 69.1204, -90.2318, 57.2165
5.12, 9, 25.3876, 46.3677, 14.9627, 69.0349, -90.2663, 57.301
5.124, 9, 25.3421, 46.3277, 15.0615, 68.9511, -90.2987, 57.3857
5.128, 9, 25.2966, 46.2873, 15.1586, 68.8689, -90.3287, 57.4709
5.132, 9, 25.2509, 46.2464, 15.2543, 68.7882, -90.3561, 57.5571
5.136, 9, 25.2045, 46.2049, 15.349, 68.7088, -90.3807, 57.6448
5.14, 9, 25.1574, 46.1628, 15.443, 68.6301, -90.4023, 57.7345
5.144, 9, 25.1096, 46.1202, 15.5368, 68.5519, -90.4209, 57.8271
5.148, 9, 25.0612, 46.0772, 15.6311, 68.4736, -90.4365, 57.9232
5.152, 9, 25.0125, 46.0335, 15.7262, 68.3944, -90.4492, 58.0234
5.156, 9, 24.964, 45.989, 15.8229, 68.314, -90.459, 58.1283
5.16, 9, 24.9158, 45.9434, 15.9216, 68.2317, -90.4663, 58.2384
5.164, 9, 24.8679, 45.8964, 16.0228, 68.1471, -90.4713, 58.3539
5.168, 9, 24.82, 45.8481, 16.1267, 68.0599, -90.4741, 58.4751
5.172, 9, 24.7717, 45.7985, 16.2336, 67.97, -90.475, 58.6021
5.176, 9, 24.7229, 45.7477, 16.3434, 67.8771, -90.4742, 58.7346
5.18, 9, 24.6733, 45.6957, 16.4562, 67.7813, -90.472, 58.8725
5.184, 9, 24.6229, 45.6427, 16.5718, 67.6828, -90.4685, 59.0154
5.188, 9, 24.5717, 45.5886, 16.69, 67.5816, -90.464, 59.1629
5.192, 9, 24.5199, 45.5335, 16.8105, 67.4779, -90.4589, 59.3144
5.196, 9, 24.4674, 45.4773, 16.933, 67.3721, -90.4533, 59.4694
5.2, 9, 24.4143, 45.4201, 17.0573, 67.2644, -90.4474, 59.6273
5.204, 9, 24.3604, 45.3618, 17.1828, 67.1552, -90.4414, 59.7874
5.208, 9, 24.3056, 45.3026, 17.3093, 67.0447, -90.4354, 59.9493
5.212, 9, 24.25, 45.2428, 17.4364, 66.9332, -90.4295, 60.1125
5.216, 9, 24.1934, 45.1824, 17.5639, 66.821, -90.4237, 60.2766
5.22, 9, 24.136, 45.1217, 17.6915, 66.7082, -90.4181, 60.4414
5.224, 9, 24.0779, 45.0609, 17.819, 66.5949, -90.4127, 60.6066
5.228, 9, 24.0192, 45, 17.9464, 66.4814, -90.4075, 60.7721
5.232, 9, 23.96, 44.9392, 18.0735, 66.3675, -90.4026, 60.9377
5.236, 9, 23.9005, 44.8787, 18.2002, 66.2534, -90.3979, 61.1034
5.24, 9, 23.8407, 44.8184, 18.3266, 66.1391, -90.3934, 61.2692
5.244, 9, 23.7806, 44.7583, 18.4525, 66.0246, -90.3892, 61.435
5.248, 9, 23.7202, 44.6986, 18.578, 65.91, -90.3853, 61.6007
5.252, 9, 23.6596, 44.6392, 18.703, 65.7952, -90.3816, 61.7665
5.256, 9, 23.5988, 44.5801, 18.8276, 65.6802, -90.3782, 61.9322
5.26, 9, 23.5378, 44.5214, 18.9517, 65.5651, -90.375, 62.0979
5.264, 9, 23.4766, 44.463, 19.0753, 65.4499, -90.3721, 62.2635
5.268, 9, 23.4152, 44.4049, 19.1984, 65.3345, -90.3694, 62.4291
5.272, 9, 23.3536, 44.3473, 19.3211, 65.219, -90.367, 62.5946
5.276, 9, 23.2919, 44.2899, 19.4433, 65.1033, -90.3649, 62.7601
5.28, 9, 23.2299, 44.2329, 19.565, 64.9875, -90.363, 62.9256
5.284, 9, 23.1677, 44.1763, 19.6862, 64.8716, -90.3613, 63.0909
5.288, 9, 23.1054, 44.12, 19.8069, 64.7556, -90.36, 63.2563
5.292, 9, 23.0429, 44.0641, 19.9272, 64.6394, -90.3588, 63.4215
5.296, 9, 22.9802, 44.0086, 20.0469, 64.5231, -90.3579, 63.5867
5.3, 9, 22.9173, 43.9534, 20.1662, 64.4067, -90.3573, 63.7519
5.304, 9, 22.8542, 43.8986, 20.285, 64.2902, -90.357, 63.917
5.308, 9, 22.7909, 43.8441, 20.4034, 64.1735, -90.3568, 64.082
5.312, 9, 22.7275, 43.79, 20.5212, 64.0567, -90.357, 64.247
5.316, 9, 22.6638, 43.7362, 20.6386, 63.9398, -90.3574, 64.4119
5.32, 9, 22.6, 43.6828, 20.7555, 63.8228, -90.358, 64.5768
5.324, 9, 22.536, 43.6297, 20.8719, 63.7057, -90.3589, 64.7416
5.328, 9, 22.4718, 43.577, 20.9878, 63.5884, -90.3601, 64.9064
5.332, 9, 22.4075, 43.5247, 21.1032, 63.471, -90.3615, 65.0711
5.336, 9, 22.3429, 43.4727, 21.2182, 63.3535, -90.3632, 65.2357
5.34, 9, 22.2782, 43.4211, 21.3327, 63.2359, -90.3651, 65.4003
5.344, 9, 22.2132, 43.3699, 21.4467, 63.1182, -90.3672, 65.5648
5.348, 9, 22.1481, 43.319, 21.5602, 63.0004, -90.3697, 65.7293
5.352, 9, 22.0828, 43.2685, 21.6733, 62.8824, -90.3723, 65.8937
5.356, 9, 22.0174, 43.2183, 21.7858, 62.7643, -90.3752, 66.0581
5.36, 9, 21.9517, 43.1685, 21.8979, 62.6462, -90.3784, 66.2224
5.364, 9, 21.8859, 43.119, 22.0096, 62.5279, -90.3818, 66.3866
5.368, 9, 21.8199, 43.0699, 22.1207, 62.4095, -90.3855, 66.5508
5.372, 9, 21.7537, 43.0212, 22.2314, 62.291, -90.3895, 66.7149
5.376, 9, 21.6873, 42.9728, 22.3415, 62.1724, -90.3936, 66.8789
5.38, 9, 21.6207, 42.9248, 22.4512, 62.0537, -90.398, 67.0429
5.384, 9, 21.554, 42.8771, 22.5605, 61.9349, -90.4027, 67.2068
5.388, 9, 21.487, 42.8298, 22.6692, 61.816, -90.4077, 67.3707
5.392, 9, 21.4199, 42.7829, 22.7775, 61.697, -90.4128, 67.5345
5.396, 9, 21.3526, 42.7363, 22.8853, 61.5778, -90.4183, 67.6983
5.4, 9, 21.2852, 42.6901, 22.9926, 61.4586, -90.4239, 67.862
5.404, 9, 21.2175, 42.6443, 23.0995, 61.3393, -90.4299, 68.0256
5.408, 9, 21.1497, 42.5988, 23.2058, 61.2199, -90.436, 68.1892
5.412, 9, 21.0817, 42.5536, 23.3117, 61.1003, -90.4425, 68.3527
5.416, 9, 21.0135, 42.5089, 23.4172, 60.9807, -90.4491, 68.5161
5.42, 9, 20.9451, 42.4645, 23.5221, 60.861, -90.4561, 68.6795
5.424, 9, 20.8766, 42.4204, 23.6266, 60.7412, -90.4632, 68.8428
5.428, 9, 20.8078, 42.3767, 23.7306, 60.6213, -90.4706, 69.0061
5.432, 9, 20.7389, 42.3334, 23.8341, 60.5013, -90.4783, 69.1693
5.436, 9, 20.6699, 42.2904, 23.9371, 60.3812, -90.4862, 69.3324
5.44, 9, 20.6006, 42.2478, 24.0397, 60.2611, -90.4944, 69.4955
5.444, 9, 20.5312, 42.2056, 24.1418, 60.1408, -90.5028, 69.6585
5.448, 9, 20.4616, 42.1637, 24.2434, 60.0204, -90.5114, 69.8214
5.452, 9, 20.3918, 42.1222, 24.3445, 59.9, -90.5203, 69.9843
5.456, 9, 20.3218, 42.081, 24.4452, 59.7795, -90.5294, 70.1471
5.46, 9, 20.2517, 42.0402, 24.5454, 59.6589, -90.5388, 70.3098
5.464, 9, 20.1814, 41.9998, 24.6451, 59.5382, -90.5484, 70.4725
5.468, 9, 20.1109, 41.9597, 24.7443, 59.4174, -90.5583, 70.6351
5.472, 9, 20.0403, 41.92, 24.8431, 59.2966, -90.5684, 70.7977
5.476, 9, 19.9695, 41.8807, 24.9414, 59.1756, -90.5788, 70.9601
5.48, 9, 19.8985, 41.8417, 25.0392, 59.0546, -90.5893, 71.1225
5.484, 9, 19.8273, 41.8031, 25.1365, 58.9335, -90.6002, 71.2849
5.488, 9, 19.7559, 41.7649, 25.2334, 58.8124, -90.6112, 71.4471
5.492, 9, 19.6844, 41.727, 25.3297, 58.6911, -90.6225, 71.6093
5.496, 9, 19.6128, 41.6894, 25.4256, 58.5698, -90.6341, 71.7714
5.5, 9, 19.5409, 41.6523, 25.5211, 58.4485, -90.6459, 71.9335
5.504, 9, 19.4689, 41.6155, 25.616, 58.327, -90.6579, 72.0954
5.508, 9, 19.3967, 41.5791, 25.7105, 58.2055, -90.6701, 72.2573
5.512, 9, 19.3243, 41.543, 25.8045, 58.0839, -90.6826, 72.4192
5.516, 9, 19.2518, 41.5073, 25.898, 57.9622, -90.6953, 72.5809
5.52, 9, 19.1791, 41.4719, 25.9911, 57.8405, -90.7083, 72.7426
5.524, 9, 19.1063, 41.437, 26.0836, 57.7187, -90.7215, 72.9042
5.528, 9, 19.0332, 41.4023, 26.1757, 57.5969, -90.7349, 73.0657
5.532, 9, 18.96, 41.3681, 26.2674, 57.475, -90.7486, 73.2272
5.536, 9, 18.8867, 41.3342, 26.3585, 57.353, -90.7625, 73.3886
5.54, 9, 18.8132, 41.3007, 26.4492, 57.231, -90.7766, 73.5499
5.544, 9, 18.7395, 41.2675, 26.5394, 57.1089, -90.791, 73.7111
5.548, 9, 18.6656, 41.2347, 26.6291, 56.9867, -90.8056, 73.8722
5.552, 9, 18.5916, 41.2023, 26.7183, 56.8645, -90.8204, 74.0333
5.556, 9, 18.5175, 41.1703, 26.8071, 56.7422, -90.8355, 74.1943
5.56, 9, 18.4431, 41.1386, 26.8954, 56.6199, -90.8508, 74.3552
5.564, 9, 18.3686, 41.1072, 26.9832, 56.4975, -90.8663, 74.5161
5.568, 9, 18.294, 41.0763, 27.0705, 56.3751, -90.8821, 74.6768
5.572, 9, 18.2191, 41.0457, 27.1574, 56.2526, -90.8981, 74.8375
5.576, 9, 18.1442, 41.0154, 27.2438, 56.1301, -90.9143, 74.9981
5.58, 9, 18.069, 40.9856, 27.3297, 56.0075, -90.9307, 75.1586
5.584, 9, 17.9937, 40.9561, 27.4151, 55.8849, -90.9474, 75.3191
5.588, 9, 17.9183, 40.9269, 27.5001, 55.7622, -90.9643, 75.4794
5.592, 9, 17.8427, 40.8981, 27.5845, 55.6395, -90.9814, 75.6397
5.596, 9, 17.7669, 40.8697, 27.6685, 55.5167, -90.9987, 75.7999
5.6, 9, 17.691, 40.8417, 27.7521, 55.3939, -91.0163, 75.96
5.604, 9, 17.6149, 40.814, 27.8351, 55.2711, -91.0341, 76.12
5.608, 9, 17.5387, 40.7867, 27.9177, 55.1482, -91.0521, 76.2799
5.612, 9, 17.4623, 40.7597, 27.9998, 55.0252, -91.0704, 76.4398
5.616, 9, 17.3858, 40.7332, 28.0814, 54.9023, -91.0888, 76.5996
5.62, 9, 17.3091, 40.7069, 28.1625, 54.7793, -91.1075, 76.7592
5.624, 9, 17.2323, 40.6811, 28.2432, 54.6562, -91.1264, 76.9188
5.628, 9, 17.1553, 40.6556, 28.3234, 54.5331, -91.1455, 77.0783
5.632, 9, 17.0781, 40.6305, 28.4031, 54.41, -91.1648, 77.2378
5.636, 9, 17.0008, 40.6057, 28.4823, 54.2869, -91.1844, 77.3971
5.64, 9, 16.9234, 40.5813, 28.5611, 54.1637, -91.2042, 77.5563
5.644, 9, 16.8459, 40.5573, 28.6393, 54.0405, -91.2241, 77.7155
5.648, 9, 16.7683, 40.5336, 28.7171, 53.9173, -91.2443, 77.8745
5.652, 9, 16.6909, 40.5104, 28.7944, 53.7941, -91.2647, 78.0335
5.656, 9, 16.6139, 40.4875, 28.8712, 53.6708, -91.2854, 78.1923
5.66, 9, 16.5375, 40.465, 28.9475, 53.5477, -91.3062, 78.3509
5.664, 9, 16.462, 40.4429, 29.0231, 53.4247, -91.3272, 78.5091
5.668, 9, 16.3875, 40.4213, 29.0981, 53.3021, -91.3483, 78.6667
5.672, 9, 16.3141, 40.4002, 29.1721, 53.1801, -91.3695, 78.8235
5.676, 9, 16.2419, 40.3796, 29.2452, 53.059, -91.3907, 78.9789
5.68, 10, 16.1708, 40.3595, 29.317, 52.9393, -91.4118, 79.1325
5.684, 10, 16.1011, 40.34, 29.3873, 52.8215, -91.4329, 79.2836
5.688, 10, 16.0327, 40.3211, 29.4559, 52.7059, -91.4536, 79.4316
5.692, 10, 15.9658, 40.3025, 29.5224, 52.5932, -91.4739, 79.576
5.696, 10, 15.9001, 40.2842, 29.5867, 52.4839, -91.4937, 79.7162
5.7, 10, 15.8357, 40.266, 29.6487, 52.3782, -91.5127, 79.852
5.704, 10, 15.7721, 40.2479, 29.7081, 52.2764, -91.5306, 79.9834
5.708, 10, 15.7091, 40.2298, 29.7652, 52.1785, -91.5471, 80.1108
5.712, 10, 15.6464, 40.2119, 29.8199, 52.0843, -91.562, 80.2349
5.716, 10, 15.5836, 40.194, 29.8726, 51.9932, -91.575, 80.3568
5.72, 10, 15.5207, 40.1763, 29.9236, 51.9047, -91.5857, 80.478
5.724, 10, 15.4576, 40.1587, 29.9735, 51.8179, -91.594, 80.6001
5.728, 10, 15.3942, 40.141, 30.0227, 51.7316, -91.5998, 80.7247
5.732, 10, 15.3307, 40.123, 30.072, 51.6449, -91.6028, 80.8538
5.736, 10, 15.2669, 40.1046, 30.1219, 51.5565, -91.6032, 80.9892
5.74, 10, 15.2029, 40.0856, 30.173, 51.4654, -91.6009, 81.1325
5.744, 10, 15.1385, 40.066, 30.2258, 51.3704, -91.596, 81.2855
5.748, 10, 15.0738, 40.0457, 30.2809, 51.2706, -91.5885, 81.4494
5.752, 10, 15.0083, 40.0247, 30.3386, 51.1653, -91.5788, 81.6251
5.756, 10, 14.942, 40.0028, 30.3992, 51.0538, -91.567, 81.8131
5.76, 10, 14.8746, 39.9802, 30.4627, 50.9361, -91.5534, 82.0135
5.764, 10, 14.8059, 39.9567, 30.5292, 50.8119, -91.5384, 82.226
5.768, 10, 14.7355, 39.9324, 30.5985, 50.6815, -91.5223, 82.4501
5.772, 10, 14.6631, 39.9071, 30.6704, 50.5452, -91.5052, 82.6848
5.776, 10, 14.5886, 39.8811, 30.7446, 50.4035, -91.4874, 82.9293
5.78, 10, 14.5119, 39.8544, 30.8207, 50.257, -91.4692, 83.1823
5.784, 10, 14.4329, 39.8271, 30.8984, 50.1061, -91.4507, 83.4429
5.788, 10, 14.3519, 39.7994, 30.9774, 49.9515, -91.4321, 83.71
5.792, 10, 14.269, 39.7715, 31.0573, 49.7938, -91.4134, 83.9825
5.796, 10, 14.1845, 39.7434, 31.1378, 49.6335, -91.3948, 84.2595
5.8, 10, 14.0984, 39.7154, 31.2185, 49.4711, -91.3764, 84.5401
5.804, 10, 14.011, 39.6876, 31.2993, 49.307, -91.3583, 84.8235
5.808, 10, 13.9223, 39.6601, 31.3799, 49.1417, -91.3404, 85.109
5.812, 10, 13.8323, 39.633, 31.4601, 48.9755, -91.323, 85.3961
5.816, 10, 13.7413, 39.6064, 31.5398, 48.8086, -91.3059, 85.6842
5.82, 10, 13.6493, 39.5804, 31.6189, 48.6413, -91.2893, 85.9731
5.824, 10, 13.5566, 39.5551, 31.6972, 48.4737, -91.2731, 86.2626
5.828, 10, 13.4633, 39.5304, 31.7747, 48.3058, -91.2574, 86.5523
5.832, 10, 13.3695, 39.5064, 31.8515, 48.1378, -91.2422, 86.8424
5.836, 10, 13.2754, 39.4832, 31.9274, 47.9697, -91.2275, 87.1325
5.84, 10, 13.1811, 39.4608, 32.0024, 47.8015, -91.2132, 87.4228
5.844, 10, 13.0865, 39.4391, 32.0765, 47.6333, -91.1994, 87.7131
5.848, 10, 12.9917, 39.4182, 32.1498, 47.4651, -91.1861, 88.0035
5.852, 10, 12.8967, 39.3981, 32.2222, 47.2968, -91.1732, 88.2939
5.856, 10, 12.8016, 39.3788, 32.2937, 47.1286, -91.1609, 88.5843
5.86, 10, 12.7063, 39.3603, 32.3643, 46.9604, -91.149, 88.8746
5.864, 10, 12.611, 39.3426, 32.4341, 46.7923, -91.1376, 89.165
5.868, 10, 12.5154, 39.3256, 32.5029, 46.6241, -91.1267, 89.4553
5.872, 10, 12.4198, 39.3095, 32.5708, 46.456, -91.1162, 89.7457
5.876, 10, 12.324, 39.2941, 32.6379, 46.288, -91.1062, 90.0359
5.88, 10, 12.2281, 39.2795, 32.704, 46.12, -91.0967, 90.3262
5.884, 10, 12.1322, 39.2657, 32.7693, 45.9521, -91.0876, 90.6164
5.888, 10, 12.0361, 39.2527, 32.8336, 45.7842, -91.079, 90.9066
5.892, 10, 11.9399, 39.2405, 32.8971, 45.6164, -91.0708, 91.1967
5.896, 10, 11.8436, 39.2291, 32.9597, 45.4487, -91.0631, 91.4868
5.9, 10, 11.7473, 39.2184, 33.0213, 45.281, -91.0559, 91.7769
5.904, 10, 11.6508, 39.2086, 33.0821, 45.1135, -91.0491, 92.0669
5.908, 10, 11.5543, 39.1995, 33.1421, 44.946, -91.0428, 92.3568
5.912, 10, 11.4577, 39.1912, 33.2011, 44.7787, -91.0369, 92.6467
5.916, 10, 11.361, 39.1837, 33.2592, 44.6114, -91.0314, 92.9365
5.92, 10, 11.2642, 39.1769, 33.3164, 44.4443, -91.0265, 93.2263
5.924, 10, 11.1674, 39.1709, 33.3728, 44.2773, -91.0219, 93.516
5.928, 10, 11.0705, 39.1657, 33.4283, 44.1103, -91.0178, 93.8057
5.932, 10, 10.9736, 39.1613, 33.4828, 43.9436, -91.0141, 94.0952
5.936, 10, 10.8766, 39.1576, 33.5365, 43.7769, -91.0108, 94.3848
5.94, 10, 10.7795, 39.1547, 33.5894, 43.6104, -91.008, 94.6742
5.944, 10, 10.6824, 39.1526, 33.6413, 43.444, -91.0056, 94.9636
5.948, 10, 10.5852, 39.1512, 33.6924, 43.2778, -91.0036, 95.2529
5.952, 10, 10.488, 39.1507, 33.7425, 43.1117, -91.002, 95.5421
5.956, 10, 10.3908, 39.1508, 33.7918, 42.9458, -91.0008, 95.8312
5.96, 10, 10.2935, 39.1517, 33.8402, 42.78, -91.0001, 96.1203
5.964, 10, 10.1962, 39.1534, 33.8878, 42.6144, -90.9997, 96.4092
5.968, 10, 10.0989, 39.1559, 33.9345, 42.449, -90.9998, 96.6981
5.972, 10, 10.0015, 39.1591, 33.9803, 42.2837, -91.0002, 96.9869
5.976, 10, 9.90414, 39.163, 34.0252, 42.1187, -91.001, 97.2756
5.98, 10, 9.80674, 39.1677, 34.0692, 41.9538, -91.0022, 97.5642
5.984, 10, 9.70933, 39.1731, 34.1124, 41.7891, -91.0038, 97.8527
5.988, 10, 9.61192, 39.1793, 34.1547, 41.6246, -91.0058, 98.1412
5.992, 10, 9.51449, 39.1862, 34.1962, 41.4604, -91.0082, 98.4295
5.996, 10, 9.41707, 39.1939, 34.2368, 41.2963, -91.0109, 98.7177
6, 10, 9.31965, 39.2023, 34.2765, 41.1324, -91.014, 99.0058
6.004, 10, 9.22223, 39.2114, 34.3153, 40.9688, -91.0174, 99.2938
6.008, 10, 9.12483, 39.2212, 34.3533, 40.8054, -91.0212, 99.5817
6.012, 10, 9.02744, 39.2318, 34.3904, 40.6422, -91.0254, 99.8694
6.016, 10, 8.93006, 39.2431, 34.4267, 40.4793, -91.0299, 100.157
6.02, 10, 8.83271, 39.2552, 34.4621, 40.3166, -91.0347, 100.445
6.024, 10, 8.73538, 39.2679, 34.4967, 40.1541, -91.0399, 100.732
6.028, 10, 8.63808, 39.2814, 34.5304, 39.9919, -91.0454, 101.019
6.032, 10, 8.54082, 39.2956, 34.5632, 39.8299, -91.0513, 101.307
6.036, 10, 8.44358, 39.3105, 34.5952, 39.6682, -91.0575, 101.594
6.04, 10, 8.34639, 39.3261, 34.6264, 39.5068, -91.064, 101.881
6.044, 10, 8.24924, 39.3424, 34.6566, 39.3456, -91.0708, 102.167
6.048, 10, 8.15214, 39.3595, 34.6861, 39.1847, -91.078, 102.454
6.052, 10, 8.05509, 39.3772, 34.7147, 39.0241, -91.0854, 102.74
6.056, 10, 7.95809, 39.3956, 34.7425, 38.8638, -91.0932, 103.027
6.06, 10, 7.86115, 39.4147, 34.7694, 38.7037, -91.1013, 103.313
