hehonglu123/Motion-Primitive-Planning/simulation/robotstudio_sim/scripts/fitting_output/slope_blend/curve_exe_v500_z1.csv
timestamp, cmd_num, J1, J2, J3, J4, J5, J6
0, 1, -0.804896, 64.4317, 8.47945, 44.5963, -96.407, 169.864
0.002, 1, -0.804896, 64.4317, 8.47945, 44.5963, -96.407, 169.864
0.004, 1, -0.804896, 64.4317, 8.47945, 44.5963, -96.407, 169.864
0.008, 1, -0.804896, 64.4317, 8.47945, 44.5963, -96.407, 169.864
0.011, 1, -0.804896, 64.4317, 8.47945, 44.5963, -96.407, 169.864
0.016, 1, -0.804896, 64.4317, 8.47945, 44.5963, -96.407, 169.864
0.02, 1, -0.804896, 64.4317, 8.47945, 44.5963, -96.407, 169.864
0.024, 1, -0.804896, 64.4317, 8.47945, 44.5963, -96.407, 169.864
0.028, 1, -0.804896, 64.4317, 8.47945, 44.5963, -96.407, 169.864
0.032, 1, -0.804896, 64.4317, 8.47945, 44.5963, -96.407, 169.864
0.036, 1, -0.804887, 64.4317, 8.47945, 44.5963, -96.407, 169.864
0.04, 1, -0.804822, 64.4317, 8.47945, 44.5963, -96.407, 169.864
0.044, 1, -0.804599, 64.4316, 8.47946, 44.5964, -96.407, 169.864
0.048, 1, -0.804071, 64.4315, 8.47947, 44.5964, -96.407, 169.864
0.052, 1, -0.803096, 64.4312, 8.4795, 44.5964, -96.407, 169.864
0.056, 1, -0.801564, 64.4307, 8.47954, 44.5965, -96.4069, 169.864
0.06, 1, -0.7994, 64.4299, 8.47955, 44.5968, -96.4067, 169.863
0.064, 1, -0.796557, 64.4288, 8.47952, 44.5972, -96.4063, 169.862
0.068, 1, -0.792998, 64.4274, 8.47938, 44.598, -96.4057, 169.86
0.072, 1, -0.788676, 64.4255, 8.47908, 44.5993, -96.4046, 169.857
0.076, 1, -0.783494, 64.4232, 8.47853, 44.6013, -96.4029, 169.852
0.08, 1, -0.777295, 64.4203, 8.47763, 44.6042, -96.4005, 169.845
0.084, 1, -0.76988, 64.4167, 8.47628, 44.6083, -96.3971, 169.836
0.088, 1, -0.761048, 64.4124, 8.47434, 44.6139, -96.3925, 169.823
0.092, 1, -0.750642, 64.4073, 8.47166, 44.6213, -96.3863, 169.805
0.096, 1, -0.738554, 64.4014, 8.46807, 44.6309, -96.3783, 169.783
0.1, 1, -0.724704, 64.3946, 8.46338, 44.6431, -96.3681, 169.754
0.104, 1, -0.70899, 64.3869, 8.45743, 44.6582, -96.3554, 169.719
0.108, 1, -0.691282, 64.3782, 8.45004, 44.6766, -96.34, 169.676
0.112, 1, -0.671451, 64.3685, 8.44104, 44.6987, -96.3215, 169.624
0.116, 1, -0.649414, 64.3578, 8.4303, 44.7248, -96.2996, 169.563
0.12, 1, -0.62515, 64.3462, 8.41768, 44.7551, -96.2742, 169.493
0.124, 1, -0.598686, 64.3339, 8.40304, 44.79, -96.2449, 169.411
0.128, 1, -0.570066, 64.3208, 8.38633, 44.8295, -96.2118, 169.319
0.131, 1, -0.539339, 64.3073, 8.36747, 44.8738, -96.1746, 169.216
0.136, 1, -0.506541, 64.2931, 8.34646, 44.9229, -96.1334, 169.102
0.139, 1, -0.471677, 64.2784, 8.32333, 44.9766, -96.0882, 168.977
0.144, 1, -0.43471, 64.2629, 8.29817, 45.035, -96.0393, 168.841
0.148, 1, -0.395602, 64.2466, 8.2711, 45.0976, -95.9867, 168.695
0.152, 1, -0.354369, 64.2293, 8.24224, 45.1642, -95.9307, 168.54
0.156, 1, -0.311103, 64.2111, 8.21176, 45.2345, -95.8717, 168.376
0.16, 1, -0.265936, 64.192, 8.17982, 45.3082, -95.8098, 168.205
0.164, 1, -0.218984, 64.172, 8.14661, 45.3848, -95.7455, 168.026
0.168, 1, -0.170326, 64.1512, 8.11232, 45.4638, -95.6791, 167.842
0.172, 1, -0.120028, 64.1296, 8.07715, 45.5451, -95.6109, 167.653
0.176, 1, -0.0681879, 64.1071, 8.04127, 45.628, -95.5412, 167.46
0.18, 1, -0.0149351, 64.0839, 8.00485, 45.7124, -95.4704, 167.264
0.184, 1, 0.0395869, 64.06, 7.96803, 45.7978, -95.3987, 167.065
0.188, 1, 0.0952326, 64.0355, 7.93092, 45.884, -95.3263, 166.864
0.192, 1, 0.151848, 64.0104, 7.8936, 45.9708, -95.2533, 166.661
0.196, 1, 0.209277, 63.9849, 7.85615, 46.0581, -95.1801, 166.458
0.2, 1, 0.267392, 63.9591, 7.8186, 46.1457, -95.1065, 166.254
0.204, 1, 0.326103, 63.9331, 7.78101, 46.2335, -95.0329, 166.05
0.208, 1, 0.385334, 63.9068, 7.74338, 46.3214, -94.9591, 165.845
0.212, 1, 0.444991, 63.8804, 7.70575, 46.4094, -94.8852, 165.64
0.216, 1, 0.504966, 63.8539, 7.66811, 46.4974, -94.8113, 165.435
0.22, 1, 0.565154, 63.8273, 7.63049, 46.5854, -94.7374, 165.23
0.224, 1, 0.625476, 63.8007, 7.59287, 46.6734, -94.6635, 165.025
0.228, 1, 0.685878, 63.774, 7.55528, 46.7614, -94.5897, 164.82
0.232, 1, 0.746324, 63.7474, 7.51769, 46.8494, -94.5159, 164.615
0.236, 1, 0.806788, 63.7207, 7.48013, 46.9373, -94.4421, 164.41
0.24, 1, 0.867254, 63.694, 7.44259, 47.0252, -94.3683, 164.205
0.244, 1, 0.927709, 63.6674, 7.40506, 47.113, -94.2946, 164
0.248, 1, 0.988146, 63.6407, 7.36756, 47.2008, -94.2209, 163.796
0.252, 1, 1.04856, 63.6141, 7.33008, 47.2885, -94.1472, 163.591
0.256, 1, 1.10895, 63.5875, 7.29262, 47.3762, -94.0736, 163.387
0.26, 1, 1.1693, 63.5609, 7.25518, 47.4638, -94, 163.183
0.264, 1, 1.22963, 63.5343, 7.21776, 47.5514, -93.9265, 162.979
0.268, 1, 1.28992, 63.5077, 7.18036, 47.639, -93.853, 162.775
0.272, 1, 1.35018, 63.4812, 7.14299, 47.7265, -93.7796, 162.571
0.276, 1, 1.4104, 63.4546, 7.10563, 47.8139, -93.7062, 162.367
0.28, 1, 1.47059, 63.4281, 7.0683, 47.9013, -93.6329, 162.164
0.284, 1, 1.53075, 63.4016, 7.03099, 47.9886, -93.5595, 161.96
0.288, 1, 1.59086, 63.3751, 6.99371, 48.0759, -93.4863, 161.757
0.292, 1, 1.65095, 63.3486, 6.95644, 48.1631, -93.413, 161.553
0.296, 1, 1.711, 63.3222, 6.9192, 48.2503, -93.3399, 161.35
0.3, 1, 1.77101, 63.2957, 6.88198, 48.3374, -93.2667, 161.147
0.304, 1, 1.83098, 63.2693, 6.84478, 48.4245, -93.1936, 160.944
0.308, 1, 1.89092, 63.2429, 6.80761, 48.5115, -93.1206, 160.742
0.312, 1, 1.95082, 63.2165, 6.77046, 48.5985, -93.0476, 160.539
0.316, 1, 2.01069, 63.1901, 6.73333, 48.6854, -92.9746, 160.337
0.32, 1, 2.07052, 63.1637, 6.69622, 48.7723, -92.9017, 160.134
0.324, 1, 2.13031, 63.1374, 6.65914, 48.8591, -92.8288, 159.932
0.328, 1, 2.19007, 63.111, 6.62208, 48.9458, -92.756, 159.73
0.332, 1, 2.24979, 63.0847, 6.58504, 49.0325, -92.6833, 159.528
0.336, 1, 2.30947, 63.0584, 6.54802, 49.1192, -92.6105, 159.326
0.34, 1, 2.36911, 63.0321, 6.51103, 49.2058, -92.5378, 159.124
0.344, 1, 2.42872, 63.0058, 6.47406, 49.2923, -92.4652, 158.922
0.348, 1, 2.48829, 62.9796, 6.43712, 49.3788, -92.3926, 158.721
0.352, 1, 2.54782, 62.9534, 6.4002, 49.4652, -92.3201, 158.52
0.356, 1, 2.60731, 62.9271, 6.3633, 49.5516, -92.2476, 158.318
0.36, 1, 2.66676, 62.9009, 6.32643, 49.6379, -92.1751, 158.117
0.364, 1, 2.72618, 62.8747, 6.28957, 49.7242, -92.1027, 157.916
0.368, 1, 2.78556, 62.8486, 6.25275, 49.8104, -92.0303, 157.715
0.372, 1, 2.84489, 62.8224, 6.21594, 49.8965, -91.958, 157.515
0.376, 1, 2.9042, 62.7963, 6.17916, 49.9826, -91.8857, 157.314
0.38, 1, 2.96346, 62.7702, 6.14241, 50.0686, -91.8135, 157.114
0.384, 1, 3.02268, 62.7441, 6.10568, 50.1546, -91.7413, 156.913
0.388, 1, 3.08187, 62.718, 6.06897, 50.2406, -91.6692, 156.713
0.392, 1, 3.14101, 62.6919, 6.03229, 50.3264, -91.5971, 156.513
0.396, 1, 3.20012, 62.6659, 5.99563, 50.4122, -91.5251, 156.313
0.4, 1, 3.25918, 62.6398, 5.95899, 50.498, -91.4531, 156.113
0.404, 1, 3.31821, 62.6138, 5.92238, 50.5837, -91.3812, 155.914
0.408, 1, 3.3772, 62.5878, 5.8858, 50.6693, -91.3093, 155.714
0.412, 1, 3.43615, 62.5618, 5.84924, 50.7549, -91.2374, 155.515
0.416, 1, 3.49506, 62.5359, 5.8127, 50.8404, -91.1657, 155.315
0.42, 1, 3.55393, 62.5099, 5.77619, 50.9259, -91.0939, 155.116
0.424, 1, 3.61276, 62.484, 5.7397, 51.0113, -91.0222, 154.917
0.428, 1, 3.67154, 62.4581, 5.70324, 51.0967, -90.9506, 154.718
0.432, 1, 3.73029, 62.4322, 5.66681, 51.182, -90.879, 154.52
0.436, 1, 3.789, 62.4063, 5.63039, 51.2672, -90.8074, 154.321
0.44, 1, 3.84767, 62.3805, 5.59401, 51.3524, -90.7359, 154.122
0.444, 1, 3.9063, 62.3546, 5.55765, 51.4375, -90.6645, 153.924
0.448, 1, 3.96488, 62.3288, 5.52131, 51.5225, -90.5931, 153.726
0.452, 1, 4.02343, 62.303, 5.485, 51.6075, -90.5217, 153.528
0.456, 1, 4.08193, 62.2772, 5.44871, 51.6925, -90.4504, 153.33
0.46, 1, 4.1404, 62.2515, 5.41246, 51.7773, -90.3792, 153.132
0.464, 1, 4.19882, 62.2257, 5.37622, 51.8622, -90.308, 152.935
0.468, 1, 4.2572, 62.2, 5.34001, 51.9469, -90.2369, 152.737
0.472, 1, 4.31554, 62.1743, 5.30383, 52.0316, -90.1658, 152.54
0.476, 1, 4.37384, 62.1486, 5.26767, 52.1163, -90.0947, 152.343
0.48, 1, 4.43209, 62.1229, 5.23154, 52.2008, -90.0237, 152.146
0.484, 1, 4.49031, 62.0972, 5.19544, 52.2853, -89.9528, 151.949
0.488, 1, 4.54848, 62.0716, 5.15936, 52.3698, -89.8819, 151.752
0.492, 1, 4.60661, 62.046, 5.12331, 52.4542, -89.811, 151.555
0.496, 1, 4.6647, 62.0204, 5.08728, 52.5385, -89.7402, 151.359
0.5, 1, 4.72275, 61.9948, 5.05128, 52.6228, -89.6695, 151.162
0.504, 1, 4.78075, 61.9692, 5.0153, 52.707, -89.5988, 150.966
0.508, 1, 4.83871, 61.9437, 4.97936, 52.7912, -89.5282, 150.77
0.512, 1, 4.89663, 61.9182, 4.94343, 52.8752, -89.4576, 150.574
0.516, 1, 4.95451, 61.8927, 4.90754, 52.9593, -89.3871, 150.378
0.52, 1, 5.01235, 61.8672, 4.87167, 53.0432, -89.3166, 150.183
0.524, 1, 5.07014, 61.8417, 4.83583, 53.1271, -89.2461, 149.987
0.528, 1, 5.12789, 61.8163, 4.80001, 53.211, -89.1758, 149.792
0.532, 1, 5.1856, 61.7908, 4.76422, 53.2947, -89.1055, 149.597
0.536, 1, 5.24326, 61.7654, 4.72846, 53.3785, -89.0352, 149.402
0.54, 1, 5.30088, 61.74, 4.69272, 53.4621, -88.965, 149.207
0.544, 1, 5.35846, 61.7146, 4.65701, 53.5457, -88.8948, 149.012
0.548, 1, 5.41599, 61.6893, 4.62133, 53.6292, -88.8247, 148.817
0.552, 1, 5.47348, 61.6639, 4.58568, 53.7127, -88.7546, 148.623
0.556, 1, 5.53093, 61.6386, 4.55005, 53.7961, -88.6846, 148.428
0.56, 1, 5.58833, 61.6133, 4.51445, 53.8794, -88.6147, 148.234
0.564, 1, 5.64569, 61.588, 4.47887, 53.9627, -88.5448, 148.04
0.568, 1, 5.70301, 61.5628, 4.44332, 54.0459, -88.4749, 147.846
0.572, 1, 5.76028, 61.5376, 4.4078, 54.1291, -88.4051, 147.653
0.576, 1, 5.81751, 61.5123, 4.37231, 54.2121, -88.3354, 147.459
0.58, 1, 5.87469, 61.4871, 4.33685, 54.2952, -88.2657, 147.266
0.584, 1, 5.93183, 61.4619, 4.30141, 54.3781, -88.1961, 147.072
0.588, 1, 5.98893, 61.4368, 4.266, 54.461, -88.1265, 146.879
0.592, 1, 6.04598, 61.4116, 4.23061, 54.5438, -88.0569, 146.686
0.596, 1, 6.10299, 61.3865, 4.19526, 54.6266, -87.9875, 146.493
0.6, 1, 6.15995, 61.3614, 4.15993, 54.7093, -87.9181, 146.301
0.604, 1, 6.21687, 61.3363, 4.12463, 54.7919, -87.8487, 146.108
0.608, 1, 6.27374, 61.3113, 4.08936, 54.8745, -87.7794, 145.916
0.612, 1, 6.33057, 61.2862, 4.05411, 54.957, -87.7101, 145.724
0.616, 1, 6.38735, 61.2612, 4.01889, 55.0394, -87.6409, 145.531
0.62, 1, 6.44409, 61.2362, 3.9837, 55.1218, -87.5718, 145.34
0.624, 1, 6.50079, 61.2112, 3.94854, 55.2041, -87.5027, 145.148
0.628, 1, 6.55744, 61.1862, 3.91341, 55.2864, -87.4337, 144.956
0.632, 1, 6.61404, 61.1613, 3.8783, 55.3685, -87.3647, 144.765
0.636, 1, 6.6706, 61.1364, 3.84323, 55.4506, -87.2958, 144.573
0.64, 1, 6.72712, 61.1115, 3.80818, 55.5327, -87.2269, 144.382
0.644, 1, 6.78359, 61.0866, 3.77315, 55.6147, -87.1581, 144.191
0.648, 1, 6.84001, 61.0617, 3.73816, 55.6966, -87.0893, 144
0.652, 1, 6.89639, 61.0368, 3.7032, 55.7784, -87.0206, 143.81
0.656, 1, 6.95272, 61.012, 3.66826, 55.8602, -86.952, 143.619
0.66, 1, 7.00901, 60.9872, 3.63335, 55.9419, -86.8834, 143.429
0.664, 1, 7.06525, 60.9624, 3.59847, 56.0236, -86.8148, 143.238
0.668, 1, 7.12144, 60.9377, 3.56362, 56.1051, -86.7463, 143.048
0.672, 1, 7.17759, 60.9129, 3.5288, 56.1867, -86.6779, 142.858
0.676, 1, 7.23369, 60.8882, 3.494, 56.2681, -86.6096, 142.669
0.68, 1, 7.28975, 60.8635, 3.45924, 56.3495, -86.5412, 142.479
0.684, 1, 7.34576, 60.8388, 3.4245, 56.4308, -86.473, 142.29
0.688, 1, 7.40173, 60.8141, 3.38979, 56.512, -86.4048, 142.1
0.692, 1, 7.45765, 60.7895, 3.35511, 56.5932, -86.3366, 141.911
0.696, 1, 7.51352, 60.7649, 3.32046, 56.6743, -86.2685, 141.722
0.7, 1, 7.56935, 60.7403, 3.28584, 56.7554, -86.2005, 141.533
0.704, 1, 7.62513, 60.7157, 3.25124, 56.8364, -86.1325, 141.345
0.708, 1, 7.68086, 60.6911, 3.21668, 56.9173, -86.0646, 141.156
0.712, 1, 7.73655, 60.6666, 3.18214, 56.9981, -85.9968, 140.968
0.716, 1, 7.79219, 60.6421, 3.14763, 57.0789, -85.929, 140.779
0.72, 1, 7.84778, 60.6176, 3.11315, 57.1596, -85.8612, 140.591
0.724, 1, 7.90333, 60.5931, 3.07871, 57.2402, -85.7935, 140.404
0.728, 1, 7.95883, 60.5686, 3.04429, 57.3208, -85.7259, 140.216
0.732, 1, 8.01429, 60.5442, 3.00989, 57.4013, -85.6583, 140.028
0.736, 1, 8.06969, 60.5198, 2.97553, 57.4817, -85.5908, 139.841
0.74, 1, 8.12505, 60.4954, 2.9412, 57.5621, -85.5233, 139.654
0.744, 1, 8.18036, 60.471, 2.9069, 57.6424, -85.4559, 139.466
0.748, 1, 8.23563, 60.4466, 2.87262, 57.7226, -85.3886, 139.279
0.752, 1, 8.29085, 60.4223, 2.83838, 57.8028, -85.3213, 139.093
0.756, 1, 8.34602, 60.398, 2.80416, 57.8829, -85.2541, 138.906
0.76, 1, 8.40115, 60.3737, 2.76997, 57.9629, -85.1869, 138.72
0.764, 1, 8.45622, 60.3494, 2.73582, 58.0429, -85.1198, 138.533
0.768, 1, 8.51125, 60.3252, 2.70169, 58.1228, -85.0527, 138.347
0.772, 1, 8.56624, 60.3009, 2.66759, 58.2026, -84.9857, 138.161
0.776, 1, 8.62117, 60.2767, 2.63352, 58.2823, -84.9188, 137.975
0.78, 1, 8.67606, 60.2525, 2.59948, 58.362, -84.8519, 137.79
0.784, 1, 8.7309, 60.2284, 2.56547, 58.4416, -84.785, 137.604
0.788, 1, 8.7857, 60.2042, 2.53149, 58.5212, -84.7183, 137.419
0.792, 1, 8.84044, 60.1801, 2.49754, 58.6007, -84.6516, 137.234
0.796, 1, 8.89514, 60.156, 2.46361, 58.6801, -84.5849, 137.049
0.8, 1, 8.94979, 60.1319, 2.42972, 58.7594, -84.5183, 136.864
0.804, 1, 9.0044, 60.1078, 2.39586, 58.8387, -84.4518, 136.679
0.808, 1, 9.05895, 60.0838, 2.36203, 58.9179, -84.3853, 136.495
0.812, 1, 9.11346, 60.0598, 2.32822, 58.997, -84.3189, 136.31
0.816, 1, 9.16792, 60.0358, 2.29445, 59.076, -84.2525, 136.126
0.82, 1, 9.22234, 60.0118, 2.2607, 59.155, -84.1862, 135.942
0.824, 1, 9.2767, 59.9878, 2.22699, 59.234, -84.1199, 135.758
0.828, 1, 9.33102, 59.9639, 2.1933, 59.3128, -84.0537, 135.574
0.832, 1, 9.38529, 59.94, 2.15965, 59.3916, -83.9876, 135.391
0.836, 1, 9.43951, 59.9161, 2.12602, 59.4703, -83.9216, 135.207
0.84, 1, 9.49369, 59.8922, 2.09243, 59.5489, -83.8555, 135.024
0.844, 1, 9.54781, 59.8684, 2.05886, 59.6275, -83.7896, 134.841
0.848, 1, 9.60189, 59.8445, 2.02532, 59.706, -83.7237, 134.658
0.852, 1, 9.65592, 59.8207, 1.99182, 59.7845, -83.6578, 134.475
0.856, 1, 9.7099, 59.7969, 1.95834, 59.8628, -83.5921, 134.293
0.86, 1, 9.76384, 59.7732, 1.92489, 59.9411, -83.5263, 134.11
0.864, 1, 9.81772, 59.7494, 1.89147, 60.0193, -83.4607, 133.928
0.868, 1, 9.87156, 59.7257, 1.85808, 60.0975, -83.3951, 133.746
0.872, 1, 9.92535, 59.702, 1.82473, 60.1756, -83.3295, 133.564
0.876, 1, 9.97909, 59.6783, 1.7914, 60.2536, -83.264, 133.382
0.88, 1, 10.0328, 59.6546, 1.7581, 60.3315, -83.1986, 133.201
0.884, 1, 10.0864, 59.631, 1.72483, 60.4094, -83.1332, 133.019
0.888, 1, 10.14, 59.6074, 1.69159, 60.4872, -83.0679, 132.838
0.892, 1, 10.1936, 59.5838, 1.65838, 60.565, -83.0027, 132.657
0.896, 1, 10.2471, 59.5602, 1.6252, 60.6426, -82.9375, 132.476
0.9, 1, 10.3005, 59.5366, 1.59206, 60.7202, -82.8723, 132.295
0.904, 1, 10.3539, 59.5131, 1.55894, 60.7977, -82.8073, 132.114
0.908, 1, 10.4073, 59.4896, 1.52585, 60.8752, -82.7422, 131.934
0.912, 1, 10.4606, 59.4661, 1.49279, 60.9526, -82.6773, 131.754
0.916, 1, 10.5139, 59.4426, 1.45976, 61.0299, -82.6124, 131.573
0.92, 1, 10.5671, 59.4192, 1.42676, 61.1072, -82.5475, 131.393
0.924, 1, 10.6202, 59.3957, 1.39379, 61.1843, -82.4828, 131.214
0.928, 1, 10.6734, 59.3723, 1.36085, 61.2614, -82.418, 131.034
0.932, 1, 10.7264, 59.349, 1.32794, 61.3385, -82.3534, 130.854
0.936, 1, 10.7795, 59.3256, 1.29506, 61.4154, -82.2888, 130.675
0.94, 1, 10.8324, 59.3022, 1.26221, 61.4923, -82.2242, 130.496
0.944, 1, 10.8853, 59.2789, 1.22939, 61.5692, -82.1597, 130.317
0.948, 1, 10.9382, 59.2556, 1.1966, 61.6459, -82.0953, 130.138
0.952, 1, 10.991, 59.2323, 1.16384, 61.7226, -82.0309, 129.959
0.956, 1, 11.0438, 59.2091, 1.13111, 61.7992, -81.9666, 129.781
0.96, 1, 11.0966, 59.1858, 1.09841, 61.8758, -81.9024, 129.603
0.964, 1, 11.1492, 59.1626, 1.06574, 61.9522, -81.8382, 129.424
0.968, 1, 11.2019, 59.1394, 1.0331, 62.0286, -81.774, 129.246
0.972, 1, 11.2545, 59.1163, 1.00049, 62.105, -81.7099, 129.068
0.976, 1, 11.307, 59.0931, 0.967911, 62.1812, -81.6459, 128.891
0.98, 1, 11.3595, 59.07, 0.935361, 62.2574, -81.582, 128.713
0.984, 1, 11.4119, 59.0469, 0.902841, 62.3335, -81.5181, 128.536
0.988, 1, 11.4643, 59.0238, 0.870351, 62.4096, -81.4542, 128.359
0.992, 1, 11.5167, 59.0007, 0.837891, 62.4856, -81.3904, 128.182
0.996, 1, 11.569, 58.9777, 0.805461, 62.5615, -81.3267, 128.005
1, 1, 11.6212, 58.9546, 0.773061, 62.6373, -81.2631, 127.828
1.004, 1, 11.6734, 58.9316, 0.740691, 62.7131, -81.1995, 127.651
1.008, 1, 11.7255, 58.9087, 0.708351, 62.7888, -81.1359, 127.475
1.012, 1, 11.7776, 58.8857, 0.676042, 62.8644, -81.0724, 127.299
1.016, 1, 11.8297, 58.8628, 0.643762, 62.94, -81.009, 127.123
1.02, 1, 11.8817, 58.8398, 0.611512, 63.0155, -80.9456, 126.947
1.024, 1, 11.9337, 58.8169, 0.579292, 63.0909, -80.8823, 126.771
1.027, 1, 11.9856, 58.7941, 0.547102, 63.1663, -80.8191, 126.596
1.032, 1, 12.0374, 58.7712, 0.514942, 63.2416, -80.7559, 126.42
1.036, 1, 12.0892, 58.7484, 0.482811, 63.3168, -80.6927, 126.245
1.04, 1, 12.141, 58.7256, 0.450711, 63.3919, -80.6297, 126.07
1.044, 1, 12.1927, 58.7028, 0.418641, 63.467, -80.5667, 125.895
1.048, 1, 12.2444, 58.68, 0.386601, 63.542, -80.5037, 125.72
1.052, 1, 12.296, 58.6573, 0.354591, 63.6169, -80.4408, 125.546
1.055, 1, 12.3476, 58.6345, 0.322611, 63.6918, -80.378, 125.371
1.06, 1, 12.3991, 58.6118, 0.290661, 63.7666, -80.3152, 125.197
1.064, 1, 12.4506, 58.5891, 0.25874, 63.8413, -80.2524, 125.023
1.068, 1, 12.502, 58.5665, 0.22685, 63.9159, -80.1898, 124.849
1.072, 1, 12.5534, 58.5438, 0.194989, 63.9905, -80.1272, 124.675
1.076, 1, 12.6047, 58.5212, 0.163159, 64.065, -80.0646, 124.501
1.08, 1, 12.656, 58.4986, 0.131358, 64.1395, -80.0022, 124.328
1.084, 1, 12.7072, 58.4761, 0.0995873, 64.2138, -79.9397, 124.155
1.088, 1, 12.7584, 58.4535, 0.0678464, 64.2881, -79.8774, 123.982
1.091, 1, 12.8096, 58.431, 0.0361353, 64.3624, -79.815, 123.809
1.096, 1, 12.8606, 58.4084, 0.00445409, 64.4365, -79.7528, 123.636
1.1, 1, 12.9117, 58.386, -0.0271973, 64.5106, -79.6906, 123.463
1.104, 1, 12.9627, 58.3635, -0.058819, 64.5846, -79.6285, 123.291
1.108, 1, 13.0136, 58.341, -0.0904108, 64.6586, -79.5664, 123.118
1.112, 1, 13.0645, 58.3186, -0.121973, 64.7325, -79.5044, 122.946
1.116, 1, 13.1154, 58.2962, -0.153505, 64.8063, -79.4424, 122.774
1.119, 1, 13.1662, 58.2738, -0.185008, 64.88, -79.3805, 122.603
1.124, 1, 13.2169, 58.2514, -0.216481, 64.9537, -79.3187, 122.431
1.128, 1, 13.2676, 58.2291, -0.247924, 65.0273, -79.2569, 122.259
1.132, 1, 13.3183, 58.2068, -0.279338, 65.1008, -79.1952, 122.088
1.136, 1, 13.3689, 58.1845, -0.310722, 65.1743, -79.1335, 121.917
1.14, 1, 13.4195, 58.1622, -0.342076, 65.2477, -79.0719, 121.746
1.144, 1, 13.47, 58.1399, -0.373401, 65.321, -79.0103, 121.575
1.147, 1, 13.5205, 58.1177, -0.404697, 65.3943, -78.9488, 121.404
1.152, 1, 13.5709, 58.0955, -0.435962, 65.4675, -78.8874, 121.234
1.156, 1, 13.6213, 58.0733, -0.467199, 65.5406, -78.826, 121.063
1.16, 1, 13.6716, 58.0511, -0.498405, 65.6136, -78.7647, 120.893
1.164, 1, 13.7219, 58.0289, -0.529583, 65.6866, -78.7034, 120.723
1.168, 1, 13.7721, 58.0068, -0.560731, 65.7595, -78.6422, 120.553
1.172, 1, 13.8223, 57.9847, -0.591849, 65.8324, -78.5811, 120.383
1.175, 1, 13.8724, 57.9626, -0.622938, 65.9051, -78.52, 120.214
1.18, 1, 13.9225, 57.9405, -0.653998, 65.9778, -78.459, 120.045
1.184, 1, 13.9725, 57.9185, -0.685028, 66.0505, -78.398, 119.875
1.188, 1, 14.0225, 57.8964, -0.716029, 66.1231, -78.3371, 119.706
1.192, 1, 14.0725, 57.8744, -0.747001, 66.1955, -78.2762, 119.537
1.196, 1, 14.1224, 57.8524, -0.777943, 66.268, -78.2154, 119.368
1.2, 1, 14.1722, 57.8305, -0.808857, 66.3403, -78.1547, 119.2
1.204, 1, 14.222, 57.8085, -0.839741, 66.4126, -78.094, 119.031
1.208, 1, 14.2718, 57.7866, -0.870596, 66.4849, -78.0334, 118.863
1.212, 1, 14.3215, 57.7647, -0.901421, 66.557, -77.9728, 118.695
1.216, 1, 14.3712, 57.7428, -0.932218, 66.6291, -77.9123, 118.527
1.22, 1, 14.4208, 57.7209, -0.962985, 66.7011, -77.8518, 118.359
1.224, 1, 14.4704, 57.6991, -0.993723, 66.7731, -77.7914, 118.192
1.228, 1, 14.5199, 57.6773, -1.02443, 66.845, -77.7311, 118.024
1.232, 1, 14.5694, 57.6555, -1.05511, 66.9168, -77.6708, 117.857
1.236, 1, 14.6188, 57.6337, -1.08576, 66.9885, -77.6106, 117.69
1.24, 1, 14.6682, 57.6119, -1.11639, 67.0602, -77.5504, 117.523
1.244, 1, 14.7175, 57.5902, -1.14698, 67.1318, -77.4903, 117.356
1.248, 1, 14.7668, 57.5685, -1.17754, 67.2034, -77.4302, 117.189
1.252, 1, 14.8161, 57.5468, -1.20808, 67.2749, -77.3702, 117.022
1.256, 1, 14.8653, 57.5251, -1.23858, 67.3463, -77.3103, 116.856
1.26, 1, 14.9144, 57.5034, -1.26906, 67.4176, -77.2504, 116.69
1.264, 1, 14.9635, 57.4818, -1.29951, 67.4889, -77.1906, 116.524
1.267, 1, 15.0126, 57.4602, -1.32993, 67.5601, -77.1308, 116.358
1.272, 1, 15.0616, 57.4386, -1.36032, 67.6312, -77.0711, 116.192
1.276, 1, 15.1105, 57.417, -1.39068, 67.7023, -77.0114, 116.026
1.28, 1, 15.1595, 57.3954, -1.42102, 67.7733, -76.9518, 115.861
1.284, 1, 15.2083, 57.3739, -1.45132, 67.8443, -76.8923, 115.696
1.288, 1, 15.2572, 57.3524, -1.4816, 67.9151, -76.8328, 115.531
1.292, 1, 15.3059, 57.3309, -1.51185, 67.9859, -76.7733, 115.366
1.295, 1, 15.3547, 57.3094, -1.54207, 68.0567, -76.714, 115.201
1.3, 1, 15.4034, 57.288, -1.57226, 68.1273, -76.6546, 115.036
1.304, 1, 15.452, 57.2665, -1.60242, 68.1979, -76.5954, 114.872
1.308, 1, 15.5006, 57.2451, -1.63255, 68.2685, -76.5362, 114.707
1.312, 1, 15.5491, 57.2237, -1.66266, 68.339, -76.477, 114.543
1.316, 1, 15.5977, 57.2024, -1.69273, 68.4094, -76.4179, 114.379
1.32, 1, 15.6461, 57.181, -1.72278, 68.4797, -76.3589, 114.215
1.324, 1, 15.6945, 57.1597, -1.7528, 68.55, -76.2999, 114.051
1.328, 1, 15.7429, 57.1384, -1.78279, 68.6202, -76.2409, 113.888
1.332, 1, 15.7912, 57.1171, -1.81276, 68.6903, -76.1821, 113.724
1.336, 1, 15.8395, 57.0958, -1.84269, 68.7604, -76.1233, 113.561
1.34, 1, 15.8877, 57.0745, -1.8726, 68.8304, -76.0645, 113.398
1.344, 1, 15.9359, 57.0533, -1.90248, 68.9003, -76.0058, 113.235
1.348, 1, 15.984, 57.0321, -1.93232, 68.9702, -75.9471, 113.072
1.352, 1, 16.0321, 57.0109, -1.96215, 69.04, -75.8885, 112.91
1.356, 1, 16.0802, 56.9897, -1.99194, 69.1097, -75.83, 112.747
1.36, 1, 16.1282, 56.9686, -2.0217, 69.1794, -75.7715, 112.585
1.364, 1, 16.1761, 56.9474, -2.05144, 69.249, -75.7131, 112.423
1.368, 1, 16.224, 56.9263, -2.08115, 69.3186, -75.6547, 112.261
1.372, 1, 16.2719, 56.9052, -2.11083, 69.388, -75.5964, 112.099
1.376, 1, 16.3197, 56.8842, -2.14048, 69.4575, -75.5381, 111.937
1.38, 1, 16.3675, 56.8631, -2.17011, 69.5268, -75.4799, 111.775
1.384, 1, 16.4152, 56.8421, -2.1997, 69.5961, -75.4217, 111.614
1.388, 1, 16.4629, 56.8211, -2.22927, 69.6653, -75.3636, 111.453
1.392, 1, 16.5106, 56.8001, -2.25881, 69.7345, -75.3056, 111.291
1.396, 1, 16.5582, 56.7791, -2.28832, 69.8035, -75.2476, 111.131
1.4, 1, 16.6057, 56.7581, -2.31781, 69.8726, -75.1897, 110.97
1.404, 1, 16.6532, 56.7372, -2.34727, 69.9415, -75.1318, 110.809
1.408, 1, 16.7007, 56.7163, -2.3767, 70.0104, -75.074, 110.648
1.412, 1, 16.7481, 56.6954, -2.4061, 70.0792, -75.0162, 110.488
1.416, 1, 16.7955, 56.6745, -2.43547, 70.148, -74.9585, 110.328
1.42, 1, 16.8428, 56.6537, -2.46482, 70.2167, -74.9008, 110.168
1.424, 1, 16.8901, 56.6328, -2.49414, 70.2853, -74.8432, 110.008
1.428, 1, 16.9373, 56.612, -2.52343, 70.3539, -74.7856, 109.848
1.432, 1, 16.9845, 56.5912, -2.55269, 70.4224, -74.7281, 109.689
1.436, 1, 17.0317, 56.5704, -2.58193, 70.4908, -74.6707, 109.529
1.44, 1, 17.0788, 56.5497, -2.61114, 70.5592, -74.6133, 109.37
1.444, 1, 17.1259, 56.5289, -2.64032, 70.6275, -74.5559, 109.211
1.448, 1, 17.1729, 56.5082, -2.66947, 70.6958, -74.4986, 109.052
1.452, 1, 17.2198, 56.4875, -2.6986, 70.7639, -74.4414, 108.893
1.456, 1, 17.2668, 56.4668, -2.7277, 70.8321, -74.3842, 108.734
1.46, 1, 17.3137, 56.4462, -2.75677, 70.9001, -74.3271, 108.575
1.464, 1, 17.3605, 56.4255, -2.78582, 70.9681, -74.27, 108.417
1.468, 1, 17.4073, 56.4049, -2.81484, 71.036, -74.213, 108.259
1.472, 1, 17.4541, 56.3843, -2.84383, 71.1039, -74.1561, 108.101
1.476, 1, 17.5008, 56.3637, -2.87279, 71.1717, -74.0991, 107.943
1.48, 1, 17.5475, 56.3432, -2.90173, 71.2394, -74.0423, 107.785
1.484, 1, 17.5941, 56.3226, -2.93064, 71.3071, -73.9855, 107.627
1.488, 1, 17.6407, 56.3021, -2.95952, 71.3747, -73.9287, 107.47
1.492, 1, 17.6872, 56.2816, -2.98838, 71.4423, -73.872, 107.312
1.496, 1, 17.7337, 56.2611, -3.01721, 71.5098, -73.8154, 107.155
1.5, 1, 17.7801, 56.2406, -3.04601, 71.5772, -73.7588, 106.998
1.504, 1, 17.8266, 56.2202, -3.07479, 71.6445, -73.7022, 106.841
1.508, 1, 17.8729, 56.1997, -3.10354, 71.7118, -73.6457, 106.684
1.512, 1, 17.9193, 56.1793, -3.13226, 71.7791, -73.5893, 106.527
1.516, 1, 17.9655, 56.1589, -3.16096, 71.8463, -73.5329, 106.371
1.52, 1, 18.0118, 56.1386, -3.18963, 71.9134, -73.4766, 106.215
1.524, 1, 18.058, 56.1182, -3.21827, 71.9804, -73.4203, 106.058
1.528, 1, 18.1041, 56.0979, -3.24689, 72.0474, -73.364, 105.902
1.532, 1, 18.1502, 56.0775, -3.27548, 72.1143, -73.3079, 105.746
1.536, 1, 18.1963, 56.0572, -3.30405, 72.1812, -73.2517, 105.59
1.54, 1, 18.2423, 56.037, -3.33258, 72.248, -73.1957, 105.435
1.544, 1, 18.2883, 56.0167, -3.3611, 72.3148, -73.1396, 105.279
1.548, 1, 18.3342, 55.9965, -3.38958, 72.3814, -73.0837, 105.124
1.552, 1, 18.3801, 55.9762, -3.41804, 72.4481, -73.0277, 104.969
1.556, 1, 18.426, 55.956, -3.44647, 72.5146, -72.9719, 104.814
1.56, 1, 18.4718, 55.9358, -3.47488, 72.5811, -72.916, 104.659
1.564, 1, 18.5176, 55.9157, -3.50326, 72.6475, -72.8603, 104.504
1.568, 1, 18.5633, 55.8955, -3.53162, 72.7139, -72.8046, 104.349
1.572, 1, 18.609, 55.8754, -3.55995, 72.7802, -72.7489, 104.195
1.576, 1, 18.6547, 55.8553, -3.58825, 72.8465, -72.6933, 104.04
1.58, 1, 18.7003, 55.8352, -3.61652, 72.9127, -72.6377, 103.886
1.584, 1, 18.7458, 55.8151, -3.64478, 72.9788, -72.5822, 103.732
1.588, 1, 18.7913, 55.795, -3.673, 73.0449, -72.5267, 103.578
1.592, 1, 18.8368, 55.775, -3.7012, 73.1109, -72.4713, 103.424
1.596, 1, 18.8823, 55.755, -3.72937, 73.1768, -72.416, 103.271
1.6, 1, 18.9277, 55.735, -3.75752, 73.2427, -72.3607, 103.117
1.604, 1, 18.973, 55.715, -3.78564, 73.3086, -72.3054, 102.964
1.608, 1, 19.0183, 55.695, -3.81374, 73.3743, -72.2502, 102.81
1.612, 1, 19.0636, 55.6751, -3.84181, 73.44, -72.195, 102.657
1.616, 1, 19.1088, 55.6551, -3.86986, 73.5057, -72.1399, 102.504
1.62, 1, 19.154, 55.6352, -3.89788, 73.5713, -72.0849, 102.352
1.624, 1, 19.1992, 55.6153, -3.92587, 73.6368, -72.0299, 102.199
1.628, 1, 19.2443, 55.5954, -3.95384, 73.7023, -71.9749, 102.046
1.632, 1, 19.2893, 55.5756, -3.98178, 73.7677, -71.92, 101.894
1.636, 1, 19.3344, 55.5557, -4.0097, 73.8331, -71.8651, 101.742
1.64, 1, 19.3794, 55.5359, -4.0376, 73.8983, -71.8103, 101.589
1.644, 1, 19.4243, 55.5161, -4.06546, 73.9636, -71.7556, 101.437
1.648, 1, 19.4692, 55.4963, -4.09331, 74.0288, -71.7009, 101.286
1.652, 1, 19.5141, 55.4766, -4.12112, 74.0939, -71.6462, 101.134
1.656, 1, 19.5589, 55.4568, -4.14892, 74.1589, -71.5916, 100.982
1.66, 1, 19.6037, 55.4371, -4.17668, 74.2239, -71.537, 100.831
1.664, 1, 19.6484, 55.4174, -4.20442, 74.2889, -71.4825, 100.68
1.668, 1, 19.6931, 55.3977, -4.23214, 74.3537, -71.428, 100.528
1.672, 1, 19.7378, 55.378, -4.25983, 74.4186, -71.3736, 100.377
1.676, 1, 19.7824, 55.3583, -4.2875, 74.4833, -71.3193, 100.226
1.68, 1, 19.827, 55.3387, -4.31514, 74.548, -71.2649, 100.076
1.684, 1, 19.8715, 55.3191, -4.34276, 74.6127, -71.2107, 99.925
1.688, 1, 19.916, 55.2994, -4.37036, 74.6773, -71.1565, 99.7745
1.692, 1, 19.9605, 55.2799, -4.39792, 74.7418, -71.1023, 99.6241
1.696, 1, 20.0049, 55.2603, -4.42547, 74.8063, -71.0482, 99.4739
1.7, 1, 20.0493, 55.2407, -4.45299, 74.8707, -70.9941, 99.3238
1.704, 1, 20.0936, 55.2212, -4.48048, 74.9351, -70.9401, 99.1738
1.708, 1, 20.1379, 55.2017, -4.50795, 74.9994, -70.8861, 99.024
1.712, 1, 20.1822, 55.1822, -4.5354, 75.0636, -70.8322, 98.8743
1.716, 1, 20.2264, 55.1627, -4.56281, 75.1278, -70.7783, 98.7248
1.72, 1, 20.2706, 55.1432, -4.59021, 75.1919, -70.7245, 98.5753
1.724, 1, 20.3147, 55.1238, -4.61758, 75.256, -70.6707, 98.4261
1.728, 1, 20.3588, 55.1043, -4.64493, 75.32, -70.6169, 98.2769
1.732, 1, 20.4029, 55.0849, -4.67225, 75.384, -70.5633, 98.1279
1.736, 1, 20.4469, 55.0655, -4.69955, 75.4479, -70.5096, 97.979
1.74, 1, 20.4909, 55.0461, -4.72682, 75.5117, -70.456, 97.8302
1.744, 1, 20.5349, 55.0268, -4.75407, 75.5755, -70.4025, 97.6816
1.748, 1, 20.5788, 55.0074, -4.7813, 75.6392, -70.349, 97.5331
1.752, 1, 20.6226, 54.9881, -4.8085, 75.7029, -70.2955, 97.3847
1.756, 1, 20.6665, 54.9688, -4.83567, 75.7665, -70.2421, 97.2365
1.76, 1, 20.7103, 54.9495, -4.86283, 75.8301, -70.1888, 97.0884
1.764, 1, 20.754, 54.9302, -4.88996, 75.8936, -70.1355, 96.9404
1.768, 1, 20.7977, 54.9109, -4.91706, 75.957, -70.0822, 96.7926
1.772, 1, 20.8414, 54.8917, -4.94414, 76.0204, -70.029, 96.6449
1.776, 1, 20.8851, 54.8724, -4.9712, 76.0838, -69.9758, 96.4973
1.78, 1, 20.9287, 54.8532, -4.99823, 76.1471, -69.9227, 96.3499
1.784, 1, 20.9722, 54.834, -5.02524, 76.2103, -69.8696, 96.2025
1.788, 1, 21.0157, 54.8149, -5.05223, 76.2734, -69.8166, 96.0554
1.792, 1, 21.0592, 54.7957, -5.07919, 76.3366, -69.7636, 95.9083
1.796, 1, 21.1027, 54.7766, -5.10613, 76.3996, -69.7107, 95.7614
1.8, 1, 21.1461, 54.7574, -5.13305, 76.4626, -69.6578, 95.6145
1.804, 1, 21.1895, 54.7383, -5.15994, 76.5256, -69.605, 95.4679
1.808, 1, 21.2328, 54.7192, -5.18681, 76.5885, -69.5522, 95.3213
1.812, 1, 21.2761, 54.7001, -5.21365, 76.6513, -69.4994, 95.1749
1.816, 1, 21.3194, 54.6811, -5.24047, 76.7141, -69.4467, 95.0286
1.82, 1, 21.3626, 54.662, -5.26727, 76.7768, -69.3941, 94.8824
1.824, 1, 21.4058, 54.643, -5.29405, 76.8395, -69.3414, 94.7364
1.828, 1, 21.4489, 54.624, -5.3208, 76.9021, -69.2889, 94.5905
1.832, 1, 21.492, 54.605, -5.34753, 76.9647, -69.2364, 94.4447
1.836, 1, 21.5351, 54.586, -5.37424, 77.0272, -69.1839, 94.299
1.84, 1, 21.5781, 54.5671, -5.40092, 77.0897, -69.1314, 94.1535
1.844, 1, 21.6211, 54.5481, -5.42758, 77.1521, -69.0791, 94.0081
1.848, 1, 21.6641, 54.5292, -5.45422, 77.2144, -69.0267, 93.8628
1.852, 1, 21.707, 54.5103, -5.48083, 77.2767, -68.9744, 93.7176
1.856, 1, 21.7499, 54.4914, -5.50742, 77.339, -68.9222, 93.5726
1.86, 1, 21.7927, 54.4725, -5.53399, 77.4012, -68.87, 93.4277
1.864, 1, 21.8356, 54.4536, -5.56053, 77.4633, -68.8178, 93.2829
1.868, 1, 21.8783, 54.4348, -5.58706, 77.5254, -68.7657, 93.1382
1.872, 1, 21.9211, 54.4159, -5.61356, 77.5874, -68.7136, 92.9937
1.876, 1, 21.9638, 54.3971, -5.64003, 77.6494, -68.6616, 92.8493
1.88, 1, 22.0064, 54.3783, -5.66649, 77.7113, -68.6096, 92.705
1.884, 1, 22.0491, 54.3595, -5.69292, 77.7732, -68.5577, 92.5608
1.888, 1, 22.0917, 54.3408, -5.71933, 77.835, -68.5058, 92.4168
1.892, 1, 22.1342, 54.322, -5.74572, 77.8968, -68.4539, 92.2728
1.896, 1, 22.1767, 54.3033, -5.77208, 77.9585, -68.4021, 92.129
1.9, 1, 22.2192, 54.2846, -5.79843, 78.0202, -68.3503, 91.9854
1.904, 1, 22.2617, 54.2659, -5.82475, 78.0818, -68.2986, 91.8418
1.908, 1, 22.3041, 54.2472, -5.85104, 78.1434, -68.247, 91.6984
1.912, 1, 22.3465, 54.2285, -5.87732, 78.2049, -68.1953, 91.555
1.916, 1, 22.3888, 54.2098, -5.90357, 78.2663, -68.1437, 91.4119
1.92, 1, 22.4311, 54.1912, -5.9298, 78.3277, -68.0922, 91.2688
1.924, 1, 22.4734, 54.1726, -5.95601, 78.3891, -68.0407, 91.1258
1.928, 1, 22.5156, 54.154, -5.9822, 78.4504, -67.9892, 90.983
1.932, 1, 22.5578, 54.1354, -6.00836, 78.5116, -67.9378, 90.8403
1.936, 1, 22.6, 54.1168, -6.03451, 78.5728, -67.8865, 90.6977
1.94, 1, 22.6421, 54.0982, -6.06063, 78.634, -67.8351, 90.5552
1.944, 1, 22.6842, 54.0797, -6.08673, 78.6951, -67.7838, 90.4129
1.948, 1, 22.7263, 54.0611, -6.1128, 78.7561, -67.7326, 90.2706
1.952, 1, 22.7683, 54.0426, -6.13886, 78.8171, -67.6814, 90.1285
1.956, 1, 22.8103, 54.0241, -6.16489, 78.8781, -67.6302, 89.9865
1.96, 1, 22.8522, 54.0056, -6.19091, 78.9389, -67.5791, 89.8446
1.964, 1, 22.8941, 53.9872, -6.2169, 78.9998, -67.5281, 89.7029
1.968, 1, 22.936, 53.9687, -6.24287, 79.0606, -67.477, 89.5612
1.972, 1, 22.9779, 53.9503, -6.26881, 79.1213, -67.426, 89.4197
1.976, 1, 23.0197, 53.9318, -6.29474, 79.182, -67.3751, 89.2783
1.98, 1, 23.0615, 53.9134, -6.32064, 79.2426, -67.3242, 89.137
1.984, 1, 23.1032, 53.895, -6.34652, 79.3032, -67.2733, 88.9958
1.988, 1, 23.1449, 53.8767, -6.37239, 79.3638, -67.2225, 88.8548
1.992, 1, 23.1866, 53.8583, -6.39823, 79.4243, -67.1718, 88.7139
1.996, 1, 23.2282, 53.8399, -6.42404, 79.4847, -67.121, 88.573
1.999, 1, 23.2698, 53.8216, -6.44984, 79.5451, -67.0703, 88.4323
2.004, 1, 23.3114, 53.8033, -6.47562, 79.6054, -67.0197, 88.2917
2.008, 1, 23.3529, 53.785, -6.50137, 79.6657, -66.9691, 88.1513
2.012, 1, 23.3944, 53.7667, -6.5271, 79.7259, -66.9185, 88.0109
2.015, 1, 23.4359, 53.7484, -6.55282, 79.7861, -66.868, 87.8707
2.019, 1, 23.4774, 53.7302, -6.57851, 79.8463, -66.8175, 87.7305
2.024, 1, 23.5188, 53.7119, -6.60418, 79.9064, -66.7671, 87.5905
2.028, 1, 23.5601, 53.6937, -6.62983, 79.9664, -66.7167, 87.4506
2.031, 1, 23.6015, 53.6755, -6.65545, 80.0264, -66.6663, 87.3109
2.036, 1, 23.6428, 53.6573, -6.68106, 80.0863, -66.616, 87.1712
2.04, 1, 23.684, 53.6391, -6.70665, 80.1462, -66.5657, 87.0316
2.044, 1, 23.7253, 53.6209, -6.73221, 80.2061, -66.5155, 86.8922
2.048, 1, 23.7664, 53.6028, -6.75776, 80.2659, -66.4653, 86.7529
2.051, 1, 23.8076, 53.5846, -6.78328, 80.3256, -66.4151, 86.6136
2.055, 1, 23.8487, 53.5665, -6.80878, 80.3853, -66.365, 86.4745
2.06, 1, 23.8898, 53.5484, -6.83426, 80.445, -66.3149, 86.3356
2.064, 1, 23.9309, 53.5303, -6.85973, 80.5046, -66.2649, 86.1967
2.068, 1, 23.9719, 53.5122, -6.88517, 80.5641, -66.2149, 86.0579
2.071, 1, 24.0129, 53.4942, -6.91059, 80.6236, -66.165, 85.9193
2.076, 1, 24.0539, 53.4761, -6.93599, 80.6831, -66.1151, 85.7807
2.08, 1, 24.0948, 53.4581, -6.96137, 80.7425, -66.0652, 85.6423
2.084, 1, 24.1357, 53.4401, -6.98672, 80.8018, -66.0154, 85.504
2.087, 1, 24.1766, 53.422, -7.01206, 80.8612, -65.9656, 85.3658
2.092, 1, 24.2174, 53.4041, -7.03738, 80.9204, -65.9158, 85.2277
2.096, 1, 24.2582, 53.3861, -7.06268, 80.9797, -65.8661, 85.0897
2.1, 1, 24.299, 53.3681, -7.08795, 81.0388, -65.8164, 84.9518
2.104, 1, 24.3397, 53.3502, -7.11321, 81.0979, -65.7668, 84.8141
2.107, 1, 24.3804, 53.3322, -7.13845, 81.157, -65.7172, 84.6764
2.111, 1, 24.4211, 53.3143, -7.16367, 81.216, -65.6677, 84.5389
2.116, 1, 24.4618, 53.2964, -7.18886, 81.275, -65.6182, 84.4015
2.12, 1, 24.5024, 53.2785, -7.21404, 81.334, -65.5687, 84.2641
2.124, 1, 24.5429, 53.2606, -7.2392, 81.3929, -65.5193, 84.1269
2.127, 1, 24.5835, 53.2428, -7.26433, 81.4517, -65.4699, 83.9898
2.132, 1, 24.624, 53.2249, -7.28945, 81.5105, -65.4205, 83.8528
2.136, 1, 24.6645, 53.2071, -7.31455, 81.5692, -65.3712, 83.7159
2.14, 1, 24.7049, 53.1893, -7.33962, 81.6279, -65.3219, 83.5791
2.143, 1, 24.7453, 53.1714, -7.36468, 81.6866, -65.2727, 83.4425
2.148, 1, 24.7857, 53.1537, -7.38972, 81.7452, -65.2235, 83.3059
2.152, 1, 24.8261, 53.1359, -7.41474, 81.8038, -65.1743, 83.1695
2.156, 1, 24.8664, 53.1181, -7.43973, 81.8623, -65.1252, 83.0331
2.16, 1, 24.9067, 53.1004, -7.46471, 81.9208, -65.0761, 82.8969
2.163, 1, 24.9469, 53.0826, -7.48967, 81.9792, -65.0271, 82.7607
2.168, 1, 24.9871, 53.0649, -7.51461, 82.0376, -64.9781, 82.6247
2.172, 1, 25.0273, 53.0472, -7.53953, 82.0959, -64.9291, 82.4888
2.176, 1, 25.0675, 53.0295, -7.56443, 82.1542, -64.8802, 82.353
2.179, 1, 25.1076, 53.0118, -7.58931, 82.2124, -64.8313, 82.2173
2.184, 1, 25.1477, 52.9941, -7.61418, 82.2706, -64.7824, 82.0816
2.188, 1, 25.1878, 52.9765, -7.63902, 82.3288, -64.7336, 81.9461
2.192, 1, 25.2278, 52.9588, -7.66384, 82.3869, -64.6848, 81.8107
2.196, 1, 25.2678, 52.9412, -7.68865, 82.445, -64.6361, 81.6755
2.199, 1, 25.3078, 52.9236, -7.71343, 82.503, -64.5874, 81.5403
2.204, 1, 25.3477, 52.906, -7.7382, 82.561, -64.5387, 81.4052
2.208, 1, 25.3877, 52.8884, -7.76295, 82.6189, -64.4901, 81.2702
2.212, 1, 25.4275, 52.8708, -7.78767, 82.6768, -64.4415, 81.1353
2.216, 1, 25.4674, 52.8533, -7.81238, 82.7346, -64.393, 81.0006
2.219, 1, 25.5072, 52.8357, -7.83707, 82.7924, -64.3444, 80.8659
2.224, 1, 25.547, 52.8182, -7.86174, 82.8502, -64.296, 80.7313
2.228, 1, 25.5868, 52.8007, -7.8864, 82.9079, -64.2475, 80.5969
2.232, 1, 25.6265, 52.7832, -7.91103, 82.9655, -64.1991, 80.4625
2.235, 1, 25.6662, 52.7657, -7.93564, 83.0232, -64.1507, 80.3283
2.24, 1, 25.7059, 52.7482, -7.96024, 83.0807, -64.1024, 80.1941
2.244, 1, 25.7455, 52.7307, -7.98482, 83.1383, -64.0541, 80.06
2.248, 1, 25.7851, 52.7133, -8.00938, 83.1958, -64.0059, 79.9261
2.252, 1, 25.8247, 52.6958, -8.03392, 83.2532, -63.9576, 79.7922
2.255, 1, 25.8642, 52.6784, -8.05844, 83.3106, -63.9095, 79.6585
2.259, 1, 25.9038, 52.661, -8.08294, 83.368, -63.8613, 79.5248
2.264, 1, 25.9432, 52.6436, -8.10742, 83.4253, -63.8132, 79.3913
2.268, 1, 25.9827, 52.6262, -8.13189, 83.4826, -63.7651, 79.2579
2.272, 1, 26.0221, 52.6088, -8.15634, 83.5398, -63.7171, 79.1245
2.275, 1, 26.0615, 52.5915, -8.18077, 83.597, -63.6691, 78.9913
2.28, 1, 26.1009, 52.5741, -8.20518, 83.6541, -63.6211, 78.8581
2.284, 1, 26.1402, 52.5568, -8.22957, 83.7112, -63.5732, 78.7251
2.288, 1, 26.1796, 52.5395, -8.25394, 83.7683, -63.5253, 78.5921
2.291, 1, 26.2188, 52.5221, -8.2783, 83.8253, -63.4774, 78.4593
2.296, 1, 26.2581, 52.5049, -8.30264, 83.8822, -63.4296, 78.3265
2.3, 1, 26.2973, 52.4876, -8.32696, 83.9392, -63.3818, 78.1939
2.304, 1, 26.3365, 52.4703, -8.35126, 83.9961, -63.3341, 78.0613
2.308, 1, 26.3757, 52.453, -8.37554, 84.0529, -63.2864, 77.9289
2.311, 1, 26.4148, 52.4358, -8.39981, 84.1097, -63.2387, 77.7965
2.316, 1, 26.4539, 52.4186, -8.42405, 84.1665, -63.191, 77.6643
2.32, 1, 26.493, 52.4013, -8.44828, 84.2232, -63.1434, 77.5321
2.324, 1, 26.532, 52.3841, -8.4725, 84.2799, -63.0958, 77.4001
2.328, 1, 26.5711, 52.3669, -8.49669, 84.3365, -63.0483, 77.2681
2.331, 1, 26.6101, 52.3498, -8.52086, 84.3931, -63.0008, 77.1363
2.336, 1, 26.649, 52.3326, -8.54502, 84.4496, -62.9533, 77.0045
2.34, 1, 26.688, 52.3154, -8.56916, 84.5061, -62.9059, 76.8728
2.344, 1, 26.7269, 52.2983, -8.59328, 84.5626, -62.8585, 76.7412
2.347, 1, 26.7657, 52.2812, -8.61739, 84.619, -62.8111, 76.6098
2.352, 1, 26.8046, 52.264, -8.64148, 84.6754, -62.7638, 76.4784
2.356, 1, 26.8434, 52.2469, -8.66555, 84.7318, -62.7165, 76.3471
2.36, 1, 26.8822, 52.2298, -8.6896, 84.7881, -62.6692, 76.2159
2.364, 1, 26.921, 52.2128, -8.71363, 84.8443, -62.622, 76.0848
2.367, 1, 26.9597, 52.1957, -8.73765, 84.9006, -62.5748, 75.9538
2.372, 1, 26.9984, 52.1786, -8.76165, 84.9567, -62.5277, 75.8229
2.376, 1, 27.0371, 52.1616, -8.78563, 85.0129, -62.4805, 75.6921
2.38, 1, 27.0757, 52.1446, -8.80959, 85.069, -62.4334, 75.5614
2.383, 1, 27.1144, 52.1275, -8.83354, 85.125, -62.3864, 75.4308
2.388, 1, 27.1529, 52.1105, -8.85747, 85.1811, -62.3394, 75.3003
2.392, 1, 27.1915, 52.0935, -8.88138, 85.237, -62.2924, 75.1699
2.396, 1, 27.2301, 52.0766, -8.90528, 85.293, -62.2454, 75.0395
2.4, 1, 27.2686, 52.0596, -8.92916, 85.3489, -62.1985, 74.9093
2.403, 1, 27.307, 52.0426, -8.95302, 85.4047, -62.1516, 74.7791
2.408, 1, 27.3455, 52.0257, -8.97686, 85.4605, -62.1048, 74.6491
2.412, 1, 27.3839, 52.0088, -9.00069, 85.5163, -62.0579, 74.5191
2.416, 1, 27.4223, 51.9918, -9.0245, 85.572, -62.0112, 74.3893
2.42, 1, 27.4607, 51.9749, -9.04829, 85.6277, -61.9644, 74.2595
2.423, 1, 27.499, 51.958, -9.07206, 85.6834, -61.9177, 74.1298
2.428, 1, 27.5374, 51.9411, -9.09582, 85.739, -61.871, 74.0002
2.432, 1, 27.5757, 51.9243, -9.11957, 85.7946, -61.8244, 73.8707
2.436, 1, 27.6139, 51.9074, -9.14329, 85.8501, -61.7777, 73.7413
2.439, 1, 27.6522, 51.8906, -9.167, 85.9056, -61.7312, 73.612
2.444, 1, 27.6904, 51.8737, -9.19069, 85.9611, -61.6846, 73.4828
2.448, 1, 27.7285, 51.8569, -9.21436, 86.0165, -61.6381, 73.3537
2.452, 1, 27.7667, 51.8401, -9.23802, 86.0719, -61.5916, 73.2246
2.456, 1, 27.8048, 51.8233, -9.26166, 86.1272, -61.5451, 73.0957
2.459, 1, 27.8429, 51.8065, -9.28528, 86.1825, -61.4987, 72.9668
2.464, 1, 27.881, 51.7897, -9.30889, 86.2378, -61.4523, 72.8381
2.468, 1, 27.9191, 51.773, -9.33248, 86.293, -61.406, 72.7094
2.472, 1, 27.9571, 51.7562, -9.35606, 86.3482, -61.3597, 72.5808
2.476, 1, 27.9951, 51.7395, -9.37961, 86.4033, -61.3134, 72.4523
2.479, 1, 28.033, 51.7227, -9.40315, 86.4584, -61.2671, 72.3239
2.484, 1, 28.071, 51.706, -9.42668, 86.5135, -61.2209, 72.1956
2.488, 1, 28.1089, 51.6893, -9.45019, 86.5685, -61.1747, 72.0674
2.492, 1, 28.1468, 51.6726, -9.47368, 86.6235, -61.1285, 71.9393
2.495, 1, 28.1846, 51.6559, -9.49715, 86.6785, -61.0824, 71.8112
2.5, 1, 28.2225, 51.6393, -9.52061, 86.7334, -61.0363, 71.6833
2.504, 1, 28.2603, 51.6226, -9.54405, 86.7883, -60.9902, 71.5554
2.508, 1, 28.2981, 51.6059, -9.56748, 86.8431, -60.9442, 71.4276
2.512, 1, 28.3358, 51.5893, -9.59089, 86.8979, -60.8982, 71.2999
2.515, 1, 28.3736, 51.5727, -9.61428, 86.9527, -60.8522, 71.1723
2.52, 1, 28.4113, 51.5561, -9.63766, 87.0074, -60.8063, 71.0448
2.524, 1, 28.4489, 51.5395, -9.66103, 87.0621, -60.7604, 70.9174
2.528, 1, 28.4866, 51.5229, -9.68437, 87.1167, -60.7145, 70.7901
2.531, 1, 28.5242, 51.5063, -9.7077, 87.1713, -60.6687, 70.6628
2.536, 1, 28.5618, 51.4897, -9.73101, 87.2259, -60.6229, 70.5357
2.54, 1, 28.5994, 51.4732, -9.75431, 87.2805, -60.5771, 70.4086
2.544, 1, 28.637, 51.4566, -9.77759, 87.335, -60.5313, 70.2816
2.548, 1, 28.6745, 51.4401, -9.80086, 87.3894, -60.4856, 70.1547
2.551, 1, 28.712, 51.4236, -9.82411, 87.4438, -60.4399, 70.0279
2.556, 1, 28.7495, 51.407, -9.84735, 87.4982, -60.3943, 69.9011
2.56, 1, 28.7869, 51.3905, -9.87057, 87.5526, -60.3486, 69.7745
2.564, 1, 28.8243, 51.3741, -9.89377, 87.6069, -60.303, 69.6479
2.568, 1, 28.8617, 51.3576, -9.91696, 87.6612, -60.2575, 69.5215
2.571, 1, 28.8991, 51.3411, -9.94013, 87.7154, -60.212, 69.3951
2.576, 1, 28.9364, 51.3246, -9.96328, 87.7696, -60.1664, 69.2688
2.58, 1, 28.9738, 51.3082, -9.98642, 87.8238, -60.121, 69.1426
2.584, 1, 29.0111, 51.2918, -10.0096, 87.8779, -60.0755, 69.0164
2.587, 1, 29.0483, 51.2753, -10.0327, 87.932, -60.0301, 68.8904
2.592, 1, 29.0856, 51.2589, -10.0558, 87.9861, -59.9847, 68.7644
2.596, 1, 29.1228, 51.2425, -10.0788, 88.0401, -59.9394, 68.6385
2.6, 1, 29.16, 51.2261, -10.1019, 88.0941, -59.8941, 68.5127
2.604, 1, 29.1972, 51.2098, -10.1249, 88.1481, -59.8488, 68.387
2.607, 1, 29.2343, 51.1934, -10.148, 88.202, -59.8035, 68.2614
2.612, 1, 29.2714, 51.177, -10.171, 88.2559, -59.7583, 68.1358
2.616, 1, 29.3085, 51.1607, -10.194, 88.3097, -59.7131, 68.0104
2.62, 1, 29.3456, 51.1443, -10.217, 88.3635, -59.6679, 67.885
2.624, 1, 29.3827, 51.128, -10.24, 88.4173, -59.6228, 67.7597
2.627, 1, 29.4197, 51.1117, -10.2629, 88.471, -59.5777, 67.6345
2.632, 1, 29.4567, 51.0954, -10.2859, 88.5247, -59.5326, 67.5094
2.636, 1, 29.4937, 51.0791, -10.3088, 88.5784, -59.4875, 67.3843
2.64, 1, 29.5306, 51.0628, -10.3317, 88.632, -59.4425, 67.2593
2.643, 1, 29.5676, 51.0465, -10.3546, 88.6856, -59.3975, 67.1344
2.648, 1, 29.6045, 51.0303, -10.3775, 88.7392, -59.3526, 67.0096
2.652, 1, 29.6413, 51.014, -10.4003, 88.7927, -59.3076, 66.8849
2.656, 1, 29.6782, 50.9978, -10.4232, 88.8462, -59.2627, 66.7603
2.66, 1, 29.715, 50.9816, -10.446, 88.8997, -59.2179, 66.6357
2.663, 1, 29.7518, 50.9653, -10.4688, 88.9531, -59.173, 66.5112
2.668, 1, 29.7886, 50.9491, -10.4917, 89.0065, -59.1282, 66.3868
2.672, 1, 29.8254, 50.9329, -10.5144, 89.0599, -59.0834, 66.2625
2.676, 1, 29.8621, 50.9168, -10.5372, 89.1132, -59.0387, 66.1383
2.679, 1, 29.8988, 50.9006, -10.56, 89.1665, -58.9939, 66.0141
2.684, 1, 29.9355, 50.8844, -10.5827, 89.2197, -58.9492, 65.89
2.688, 1, 29.9722, 50.8682, -10.6055, 89.2729, -58.9046, 65.766
2.692, 1, 30.0088, 50.8521, -10.6282, 89.3261, -58.8599, 65.6421
2.696, 1, 30.0454, 50.836, -10.6509, 89.3793, -58.8153, 65.5183
2.699, 1, 30.082, 50.8198, -10.6736, 89.4324, -58.7707, 65.3945
2.704, 1, 30.1186, 50.8037, -10.6963, 89.4855, -58.7262, 65.2709
2.708, 1, 30.1552, 50.7876, -10.7189, 89.5385, -58.6816, 65.1472
2.712, 1, 30.1917, 50.7715, -10.7416, 89.5915, -58.6371, 65.0237
2.716, 1, 30.2282, 50.7554, -10.7642, 89.6445, -58.5927, 64.9003
2.719, 1, 30.2647, 50.7394, -10.7868, 89.6974, -58.5482, 64.7769
2.724, 1, 30.3011, 50.7233, -10.8094, 89.7504, -58.5038, 64.6536
2.728, 1, 30.3375, 50.7072, -10.832, 89.8032, -58.4594, 64.5304
2.732, 1, 30.374, 50.6912, -10.8546, 89.8561, -58.4151, 64.4073
2.735, 1, 30.4103, 50.6752, -10.8771, 89.9089, -58.3707, 64.2842
2.74, 1, 30.4467, 50.6591, -10.8997, 89.9617, -58.3264, 64.1613
2.744, 1, 30.483, 50.6431, -10.9222, 90.0144, -58.2821, 64.0384
2.748, 1, 30.5194, 50.6271, -10.9447, 90.0671, -58.2379, 63.9156
2.752, 1, 30.5557, 50.6111, -10.9672, 90.1198, -58.1937, 63.7928
2.755, 1, 30.5919, 50.5952, -10.9897, 90.1724, -58.1495, 63.6702
2.76, 1, 30.6282, 50.5792, -11.0122, 90.2251, -58.1053, 63.5476
2.764, 1, 30.6644, 50.5632, -11.0347, 90.2776, -58.0612, 63.4251
2.768, 1, 30.7006, 50.5473, -11.0571, 90.3302, -58.0171, 63.3026
2.772, 1, 30.7368, 50.5313, -11.0795, 90.3827, -57.973, 63.1803
2.775, 1, 30.7729, 50.5154, -11.102, 90.4352, -57.9289, 63.058
2.78, 1, 30.8091, 50.4995, -11.1244, 90.4876, -57.8849, 62.9358
2.784, 1, 30.8452, 50.4836, -11.1468, 90.54, -57.8409, 62.8136
2.788, 1, 30.8813, 50.4677, -11.1691, 90.5924, -57.7969, 62.6916
2.791, 1, 30.9174, 50.4518, -11.1915, 90.6448, -57.753, 62.5696
2.796, 1, 30.9534, 50.4359, -11.2139, 90.6971, -57.7091, 62.4477
2.8, 1, 30.9894, 50.42, -11.2362, 90.7494, -57.6652, 62.3259
2.804, 1, 31.0254, 50.4041, -11.2585, 90.8016, -57.6213, 62.2041
2.808, 1, 31.0614, 50.3883, -11.2808, 90.8539, -57.5775, 62.0824
2.811, 1, 31.0974, 50.3724, -11.3031, 90.906, -57.5337, 61.9608
2.816, 1, 31.1333, 50.3566, -11.3254, 90.9582, -57.4899, 61.8393
2.82, 1, 31.1692, 50.3408, -11.3477, 91.0103, -57.4461, 61.7178
2.824, 1, 31.2051, 50.325, -11.3699, 91.0624, -57.4024, 61.5965
2.828, 1, 31.241, 50.3092, -11.3922, 91.1145, -57.3587, 61.4752
2.831, 1, 31.2768, 50.2934, -11.4144, 91.1665, -57.315, 61.3539
2.836, 1, 31.3126, 50.2776, -11.4366, 91.2185, -57.2714, 61.2328
2.84, 1, 31.3484, 50.2618, -11.4588, 91.2705, -57.2278, 61.1117
2.844, 1, 31.3842, 50.246, -11.481, 91.3224, -57.1842, 60.9907
2.847, 1, 31.42, 50.2303, -11.5032, 91.3743, -57.1406, 60.8697
2.852, 1, 31.4557, 50.2145, -11.5253, 91.4262, -57.0971, 60.7489
2.856, 1, 31.4914, 50.1988, -11.5475, 91.478, -57.0535, 60.6281
2.86, 1, 31.5271, 50.1831, -11.5696, 91.5298, -57.0101, 60.5074
2.864, 1, 31.5628, 50.1673, -11.5917, 91.5816, -56.9666, 60.3867
2.867, 1, 31.5985, 50.1516, -11.6138, 91.6334, -56.9232, 60.2661
2.872, 1, 31.6341, 50.1359, -11.6359, 91.6851, -56.8797, 60.1456
2.876, 1, 31.6697, 50.1202, -11.658, 91.7368, -56.8364, 60.0252
2.88, 1, 31.7053, 50.1046, -11.6801, 91.7884, -56.793, 59.9049
2.883, 1, 31.7409, 50.0889, -11.7021, 91.84, -56.7497, 59.7846
2.888, 1, 31.7764, 50.0732, -11.7241, 91.8916, -56.7064, 59.6644
2.892, 1, 31.8119, 50.0576, -11.7462, 91.9432, -56.6631, 59.5442
2.896, 1, 31.8474, 50.0419, -11.7682, 91.9947, -56.6198, 59.4241
2.9, 1, 31.8829, 50.0263, -11.7902, 92.0462, -56.5766, 59.3041
2.903, 1, 31.9184, 50.0107, -11.8122, 92.0977, -56.5334, 59.1842
2.908, 1, 31.9538, 49.995, -11.8342, 92.1491, -56.4902, 59.0644
2.912, 1, 31.9892, 49.9794, -11.8561, 92.2005, -56.447, 58.9446
2.916, 1, 32.0246, 49.9638, -11.8781, 92.2519, -56.4039, 58.8249
2.92, 1, 32.06, 49.9482, -11.9, 92.3033, -56.3608, 58.7052
2.923, 1, 32.0954, 49.9327, -11.9219, 92.3546, -56.3177, 58.5856
2.928, 1, 32.1307, 49.9171, -11.9438, 92.4059, -56.2747, 58.4661
2.932, 1, 32.166, 49.9015, -11.9657, 92.4571, -56.2317, 58.3467
2.936, 1, 32.2013, 49.886, -11.9876, 92.5084, -56.1886, 58.2273
2.939, 1, 32.2366, 49.8704, -12.0095, 92.5596, -56.1457, 58.108
2.944, 1, 32.2719, 49.8549, -12.0313, 92.6107, -56.1027, 57.9888
2.948, 1, 32.3071, 49.8394, -12.0532, 92.6619, -56.0598, 57.8697
2.952, 1, 32.3423, 49.8238, -12.075, 92.713, -56.0169, 57.7506
2.956, 1, 32.3775, 49.8083, -12.0968, 92.7641, -55.974, 57.6316
2.959, 1, 32.4127, 49.7928, -12.1186, 92.8151, -55.9312, 57.5126
2.964, 1, 32.4478, 49.7774, -12.1404, 92.8661, -55.8883, 57.3937
2.968, 1, 32.483, 49.7619, -12.1622, 92.9171, -55.8455, 57.2749
2.972, 1, 32.5181, 49.7464, -12.184, 92.9681, -55.8027, 57.1562
2.976, 1, 32.5532, 49.7309, -12.2058, 93.019, -55.76, 57.0375
2.98, 1, 32.5882, 49.7155, -12.2275, 93.0699, -55.7173, 56.9189
2.984, 1, 32.6233, 49.7, -12.2492, 93.1208, -55.6746, 56.8003
2.988, 1, 32.6583, 49.6846, -12.271, 93.1717, -55.6319, 56.6819
2.992, 1, 32.6933, 49.6692, -12.2927, 93.2225, -55.5892, 56.5635
2.995, 1, 32.7283, 49.6537, -12.3144, 93.2733, -55.5466, 56.4451
3, 1, 32.7633, 49.6383, -12.336, 93.324, -55.504, 56.3268
3.004, 1, 32.7982, 49.6229, -12.3577, 93.3748, -55.4614, 56.2086
3.008, 1, 32.8332, 49.6075, -12.3794, 93.4255, -55.4188, 56.0905
3.012, 1, 32.8681, 49.5922, -12.401, 93.4761, -55.3763, 55.9724
3.015, 1, 32.903, 49.5768, -12.4227, 93.5268, -55.3338, 55.8544
3.02, 1, 32.9379, 49.5614, -12.4443, 93.5774, -55.2913, 55.7365
3.024, 1, 32.9727, 49.5461, -12.4659, 93.628, -55.2488, 55.6186
3.028, 1, 33.0075, 49.5307, -12.4875, 93.6785, -55.2064, 55.5008
3.031, 1, 33.0424, 49.5154, -12.5091, 93.7291, -55.164, 55.3831
3.036, 1, 33.0772, 49.5, -12.5306, 93.7796, -55.1216, 55.2654
3.04, 1, 33.1119, 49.4847, -12.5522, 93.83, -55.0792, 55.1478
3.044, 1, 33.1467, 49.4694, -12.5738, 93.8805, -55.0369, 55.0302
3.048, 1, 33.1814, 49.4541, -12.5953, 93.9309, -54.9945, 54.9128
3.051, 1, 33.2161, 49.4388, -12.6168, 93.9813, -54.9522, 54.7954
3.056, 1, 33.2508, 49.4235, -12.6383, 94.0317, -54.91, 54.678
3.06, 1, 33.2855, 49.4082, -12.6598, 94.082, -54.8677, 54.5607
3.064, 1, 33.3202, 49.3929, -12.6813, 94.1323, -54.8255, 54.4435
3.068, 1, 33.3548, 49.3777, -12.7028, 94.1826, -54.7833, 54.3264
3.071, 1, 33.3894, 49.3624, -12.7243, 94.2328, -54.7411, 54.2093
3.076, 1, 33.424, 49.3472, -12.7457, 94.2831, -54.6989, 54.0922
3.08, 1, 33.4586, 49.3319, -12.7672, 94.3333, -54.6568, 53.9753
3.084, 1, 33.4932, 49.3167, -12.7886, 94.3834, -54.6147, 53.8584
3.087, 1, 33.5277, 49.3015, -12.81, 94.4336, -54.5726, 53.7416
3.092, 1, 33.5623, 49.2863, -12.8314, 94.4837, -54.5305, 53.6248
3.096, 1, 33.5968, 49.2711, -12.8528, 94.5338, -54.4885, 53.5081
3.1, 1, 33.6313, 49.2559, -12.8742, 94.5838, -54.4465, 53.3915
3.104, 1, 33.6657, 49.2407, -12.8956, 94.6339, -54.4045, 53.2749
3.107, 1, 33.7002, 49.2255, -12.9169, 94.6839, -54.3625, 53.1584
3.112, 1, 33.7346, 49.2103, -12.9383, 94.7338, -54.3205, 53.0419
3.116, 1, 33.769, 49.1952, -12.9596, 94.7838, -54.2786, 52.9255
3.12, 1, 33.8034, 49.18, -12.981, 94.8337, -54.2367, 52.8092
3.124, 1, 33.8378, 49.1648, -13.0023, 94.8836, -54.1948, 52.6929
3.128, 1, 33.8722, 49.1497, -13.0236, 94.9335, -54.153, 52.5767
3.132, 1, 33.9065, 49.1346, -13.0449, 94.9833, -54.1111, 52.4606
3.136, 1, 33.9408, 49.1195, -13.0662, 95.0331, -54.0693, 52.3445
3.14, 1, 33.9751, 49.1043, -13.0874, 95.0829, -54.0275, 52.2285
3.143, 1, 34.0094, 49.0892, -13.1087, 95.1327, -53.9857, 52.1126
3.148, 1, 34.0437, 49.0741, -13.1299, 95.1824, -53.944, 51.9967
3.152, 1, 34.0779, 49.059, -13.1512, 95.2321, -53.9023, 51.8809
3.156, 1, 34.1122, 49.044, -13.1724, 95.2818, -53.8606, 51.7651
3.16, 1, 34.1464, 49.0289, -13.1936, 95.3315, -53.8189, 51.6494
3.163, 1, 34.1806, 49.0138, -13.2148, 95.3811, -53.7772, 51.5338
3.168, 1, 34.2147, 48.9987, -13.236, 95.4307, -53.7356, 51.4182
3.172, 1, 34.2489, 48.9837, -13.2572, 95.4803, -53.694, 51.3027
3.176, 1, 34.283, 48.9687, -13.2783, 95.5298, -53.6524, 51.1872
3.179, 1, 34.3172, 48.9536, -13.2995, 95.5794, -53.6108, 51.0718
3.184, 1, 34.3513, 48.9386, -13.3206, 95.6289, -53.5692, 50.9565
3.188, 1, 34.3853, 48.9236, -13.3418, 95.6783, -53.5277, 50.8412
3.192, 1, 34.4194, 48.9086, -13.3629, 95.7278, -53.4862, 50.726
3.196, 1, 34.4535, 48.8936, -13.384, 95.7772, -53.4447, 50.6108
3.199, 1, 34.4875, 48.8786, -13.4051, 95.8266, -53.4033, 50.4957
3.204, 1, 34.5215, 48.8636, -13.4262, 95.876, -53.3618, 50.3807
3.208, 1, 34.5555, 48.8486, -13.4473, 95.9253, -53.3204, 50.2657
3.212, 1, 34.5895, 48.8336, -13.4683, 95.9746, -53.279, 50.1508
3.216, 1, 34.6234, 48.8186, -13.4894, 96.0239, -53.2376, 50.036
3.22, 1, 34.6574, 48.8037, -13.5105, 96.0732, -53.1963, 49.9212
3.224, 1, 34.6913, 48.7887, -13.5315, 96.1224, -53.1549, 49.8064
3.228, 1, 34.7252, 48.7738, -13.5525, 96.1716, -53.1136, 49.6918
3.232, 1, 34.7591, 48.7589, -13.5735, 96.2208, -53.0723, 49.5772
3.235, 1, 34.793, 48.7439, -13.5945, 96.27, -53.0311, 49.4626
3.24, 1, 34.8268, 48.729, -13.6155, 96.3191, -52.9898, 49.3481
3.244, 1, 34.8607, 48.7141, -13.6365, 96.3683, -52.9486, 49.2337
3.248, 1, 34.8945, 48.6992, -13.6575, 96.4173, -52.9074, 49.1193
3.252, 1, 34.9283, 48.6843, -13.6784, 96.4664, -52.8662, 49.005
3.255, 1, 34.9621, 48.6694, -13.6994, 96.5154, -52.825, 48.8907
3.26, 1, 34.9959, 48.6545, -13.7203, 96.5645, -52.7839, 48.7765
3.264, 1, 35.0296, 48.6397, -13.7412, 96.6134, -52.7428, 48.6624
3.268, 1, 35.0633, 48.6248, -13.7622, 96.6624, -52.7017, 48.5483
3.272, 1, 35.0971, 48.6099, -13.7831, 96.7114, -52.6606, 48.4342
3.276, 1, 35.1308, 48.5951, -13.804, 96.7603, -52.6195, 48.3203
3.28, 1, 35.1645, 48.5803, -13.8248, 96.8092, -52.5785, 48.2064
3.284, 1, 35.1981, 48.5654, -13.8457, 96.858, -52.5375, 48.0925
3.288, 1, 35.2318, 48.5506, -13.8666, 96.9069, -52.4965, 47.9787
3.291, 1, 35.2654, 48.5358, -13.8874, 96.9557, -52.4555, 47.865
3.296, 1, 35.299, 48.521, -13.9083, 97.0045, -52.4145, 47.7513
3.3, 1, 35.3325, 48.5062, -13.9291, 97.0532, -52.3736, 47.6376
3.304, 1, 35.3658, 48.4915, -13.95, 97.102, -52.3327, 47.5241
3.308, 1, 35.3987, 48.477, -13.9708, 97.1507, -52.2918, 47.4106
3.312, 1, 35.431, 48.4627, -13.9917, 97.1993, -52.251, 47.2973
3.316, 1, 35.4626, 48.4488, -14.0127, 97.2478, -52.2103, 47.1842
3.32, 1, 35.4932, 48.4354, -14.0336, 97.2961, -52.1698, 47.0715
3.324, 1, 35.5227, 48.4225, -14.0546, 97.3442, -52.1295, 46.9596
3.328, 1, 35.5512, 48.4103, -14.0755, 97.3917, -52.0897, 46.8487
3.332, 1, 35.5785, 48.3987, -14.0962, 97.4386, -52.0504, 46.7392
3.336, 1, 35.6048, 48.3876, -14.1167, 97.4846, -52.0119, 46.6319
3.34, 1, 35.6302, 48.3771, -14.1367, 97.5295, -51.9743, 46.5273
3.344, 1, 35.6545, 48.367, -14.1561, 97.5728, -51.938, 46.4261
3.347, 1, 35.6778, 48.3574, -14.1747, 97.6144, -51.9032, 46.329
3.352, 1, 35.7001, 48.3482, -14.1925, 97.654, -51.8701, 46.2366
3.356, 1, 35.7213, 48.3395, -14.2091, 97.6913, -51.8389, 46.1497
3.36, 1, 35.7415, 48.3311, -14.2245, 97.726, -51.8098, 46.0687
3.364, 1, 35.7606, 48.3231, -14.2387, 97.7579, -51.7831, 45.9943
3.368, 1, 35.7788, 48.3153, -14.2513, 97.7869, -51.7588, 45.9267
3.372, 1, 35.7963, 48.3077, -14.2625, 97.8128, -51.737, 45.8662
3.376, 1, 35.813, 48.3002, -14.2722, 97.8358, -51.7177, 45.8128
3.38, 1, 35.8289, 48.2929, -14.2803, 97.8557, -51.7009, 45.7664
3.383, 1, 35.844, 48.2858, -14.2871, 97.8728, -51.6866, 45.7267
3.388, 1, 35.858, 48.2791, -14.2925, 97.8871, -51.6744, 45.6933
3.392, 1, 35.8708, 48.2728, -14.2969, 97.8991, -51.6643, 45.6657
3.396, 2, 35.8822, 48.2671, -14.3002, 97.9088, -51.6561, 45.6432
3.4, 2, 35.8924, 48.2621, -14.3028, 97.9166, -51.6494, 45.6252
3.403, 2, 35.9015, 48.2575, -14.3046, 97.9227, -51.6442, 45.6111
3.408, 2, 35.9095, 48.2535, -14.3059, 97.9274, -51.6402, 45.6003
3.412, 2, 35.9166, 48.25, -14.3068, 97.9309, -51.6371, 45.5921
3.416, 2, 35.9228, 48.247, -14.3073, 97.9335, -51.6349, 45.5862
3.42, 2, 35.9282, 48.2444, -14.3076, 97.9354, -51.6332, 45.5819
3.424, 2, 35.9326, 48.2424, -14.3077, 97.9367, -51.6321, 45.5789
3.428, 2, 35.9361, 48.2408, -14.3078, 97.9376, -51.6313, 45.5768
3.432, 2, 35.9387, 48.2397, -14.3078, 97.9383, -51.6307, 45.5754
3.436, 2, 35.9406, 48.2388, -14.3078, 97.9387, -51.6303, 45.5745
3.439, 2, 35.9419, 48.2383, -14.3078, 97.939, -51.6301, 45.5738
3.444, 2, 35.9427, 48.2379, -14.3078, 97.9392, -51.6299, 45.5734
3.448, 2, 35.9433, 48.2377, -14.3078, 97.9393, -51.6298, 45.5731
3.452, 2, 35.9437, 48.2375, -14.3078, 97.9394, -51.6297, 45.5729
3.456, 2, 35.944, 48.2374, -14.3078, 97.9394, -51.6297, 45.5727
3.46, 2, 35.9442, 48.2373, -14.3078, 97.9395, -51.6296, 45.5726
3.464, 2, 35.9443, 48.2372, -14.3078, 97.9395, -51.6296, 45.5726
3.468, 2, 35.9444, 48.2372, -14.3078, 97.9395, -51.6296, 45.5725
3.472, 2, 35.9444, 48.2372, -14.3078, 97.9395, -51.6296, 45.5725
3.476, 2, 35.9445, 48.2372, -14.3078, 97.9396, -51.6296, 45.5725
3.48, 2, 35.9445, 48.2372, -14.3078, 97.9396, -51.6296, 45.5725
3.484, 2, 35.9445, 48.2371, -14.3078, 97.9396, -51.6296, 45.5725
3.488, 2, 35.9445, 48.2371, -14.3078, 97.9396, -51.6296, 45.5725
3.492, 2, 35.9445, 48.2371, -14.3078, 97.9396, -51.6296, 45.5724
3.495, 2, 35.9445, 48.2371, -14.3078, 97.9396, -51.6295, 45.5724
3.5, 2, 35.9445, 48.2371, -14.3078, 97.9396, -51.6295, 45.5724
3.504, 2, 35.9445, 48.2371, -14.3078, 97.9396, -51.6295, 45.5724
3.508, 2, 35.9445, 48.2371, -14.3078, 97.9396, -51.6295, 45.5724
3.512, 2, 35.9445, 48.2371, -14.3078, 97.9396, -51.6295, 45.5724
3.516, 2, 35.9445, 48.2371, -14.3078, 97.9396, -51.6295, 45.5724
3.52, 2, 35.9445, 48.2371, -14.3078, 97.9396, -51.6295, 45.5724
3.524, 2, 35.9445, 48.2371, -14.3078, 97.9396, -51.6295, 45.5724
3.528, 2, 35.9445, 48.2371, -14.3078, 97.9396, -51.6295, 45.5724
3.531, 2, 35.9445, 48.2371, -14.3078, 97.9396, -51.6295, 45.5724
3.536, 2, 35.9445, 48.2371, -14.3078, 97.9396, -51.6295, 45.5724
3.54, 2, 35.9445, 48.2371, -14.3078, 97.9396, -51.6295, 45.5724
3.544, 2, 35.9445, 48.2371, -14.3078, 97.9396, -51.6295, 45.5724
3.548, 2, 35.9445, 48.2371, -14.3078, 97.9396, -51.6295, 45.5724
3.552, 2, 35.9445, 48.2371, -14.3078, 97.9396, -51.6295, 45.5724
3.556, 2, 35.9445, 48.2371, -14.3078, 97.9396, -51.6295, 45.5724
3.56, 2, 35.9445, 48.2371, -14.3078, 97.9396, -51.6295, 45.5724
3.564, 2, 35.9445, 48.2371, -14.3078, 97.9396, -51.6295, 45.5724
3.568, 2, 35.9445, 48.2371, -14.3078, 97.9396, -51.6295, 45.5724
3.572, 2, 35.9445, 48.2371, -14.3078, 97.9396, -51.6295, 45.5724
3.576, 2, 35.9445, 48.2371, -14.3078, 97.9396, -51.6295, 45.5724
3.58, 2, 35.9445, 48.2371, -14.3078, 97.9396, -51.6295, 45.5724
3.584, 2, 35.9445, 48.2371, -14.3078, 97.9396, -51.6295, 45.5724
3.587, 2, 35.9445, 48.2371, -14.3078, 97.9396, -51.6295, 45.5724
3.592, 2, 35.9445, 48.2371, -14.3078, 97.9396, -51.6295, 45.5724
3.596, 2, 35.9445, 48.2371, -14.3078, 97.9396, -51.6295, 45.5724
3.6, 2, 35.9445, 48.2371, -14.3078, 97.9396, -51.6295, 45.5724
3.604, 2, 35.9445, 48.2371, -14.3078, 97.9396, -51.6295, 45.5724
3.608, 2, 35.9445, 48.2371, -14.3078, 97.9396, -51.6295, 45.5724
3.612, 2, 35.9445, 48.2371, -14.3078, 97.9396, -51.6295, 45.5724
3.616, 2, 35.9445, 48.2371, -14.3078, 97.9396, -51.6295, 45.5724
3.62, 2, 35.9445, 48.2371, -14.3078, 97.9396, -51.6295, 45.5724
3.624, 2, 35.9445, 48.2371, -14.3078, 97.9396, -51.6295, 45.5724
3.628, 2, 35.9445, 48.2371, -14.3078, 97.9396, -51.6295, 45.5724
3.632, 2, 35.9445, 48.2371, -14.3078, 97.9396, -51.6295, 45.5724
3.636, 2, 35.9445, 48.2371, -14.3078, 97.9396, -51.6295, 45.5724
3.64, 2, 35.9445, 48.2371, -14.3078, 97.9396, -51.6295, 45.5724
3.644, 2, 35.9445, 48.2371, -14.3078, 97.9396, -51.6295, 45.5724
3.648, 2, 35.9445, 48.2371, -14.3078, 97.9396, -51.6295, 45.5724
3.652, 2, 35.9445, 48.2371, -14.3078, 97.9396, -51.6295, 45.5724
3.656, 2, 35.9445, 48.2371, -14.3078, 97.9396, -51.6295, 45.5724
3.66, 2, 35.9445, 48.2371, -14.3078, 97.9396, -51.6295, 45.5724
3.664, 2, 35.9445, 48.2371, -14.3078, 97.9396, -51.6295, 45.5724
3.668, 2, 35.9445, 48.2371, -14.3078, 97.9396, -51.6295, 45.5724
3.672, 2, 35.9445, 48.2371, -14.3078, 97.9396, -51.6295, 45.5724
3.676, 2, 35.9445, 48.2371, -14.3078, 97.9396, -51.6295, 45.5724
3.679, 2, 35.9445, 48.2371, -14.3078, 97.9396, -51.6295, 45.5724
3.684, 2, 35.9445, 48.2371, -14.3078, 97.9396, -51.6295, 45.5724
3.688, 2, 35.9445, 48.2371, -14.3078, 97.9396, -51.6295, 45.5724
3.692, 2, 35.9445, 48.2371, -14.3078, 97.9396, -51.6295, 45.5724
3.696, 2, 35.9445, 48.2371, -14.3078, 97.9396, -51.6295, 45.5724
3.7, 2, 35.9445, 48.2371, -14.3078, 97.9396, -51.6295, 45.5724
3.704, 2, 35.9445, 48.2371, -14.3078, 97.9396, -51.6295, 45.5724
3.708, 2, 35.9445, 48.2371, -14.3078, 97.9396, -51.6295, 45.5724
3.712, 2, 35.9445, 48.2371, -14.3078, 97.9396, -51.6295, 45.5724
3.716, 2, 35.9445, 48.2371, -14.3078, 97.9396, -51.6295, 45.5724
3.72, 2, 35.9445, 48.2371, -14.3078, 97.9396, -51.6295, 45.5724
3.724, 2, 35.9445, 48.2371, -14.3078, 97.9396, -51.6295, 45.5724
3.728, 2, 35.9445, 48.2371, -14.3078, 97.9396, -51.6295, 45.5724
3.732, 2, 35.9445, 48.2371, -14.3078, 97.9396, -51.6295, 45.5724
3.735, 2, 35.9445, 48.2371, -14.3078, 97.9396, -51.6295, 45.5724
3.74, 2, 35.9445, 48.2371, -14.3078, 97.9396, -51.6295, 45.5724
3.744, 2, 35.9445, 48.2371, -14.3078, 97.9396, -51.6295, 45.5724
3.748, 2, 35.9445, 48.2371, -14.3078, 97.9396, -51.6295, 45.5724
3.752, 2, 35.9445, 48.2371, -14.3078, 97.9396, -51.6295, 45.5724
3.756, 2, 35.9445, 48.2371, -14.3078, 97.9396, -51.6295, 45.5724
3.76, 2, 35.9445, 48.2371, -14.3078, 97.9396, -51.6295, 45.5724
3.764, 2, 35.9445, 48.2371, -14.3078, 97.9396, -51.6295, 45.5724
3.768, 2, 35.9445, 48.2371, -14.3078, 97.9396, -51.6295, 45.5724
3.772, 2, 35.9445, 48.2371, -14.3078, 97.9396, -51.6295, 45.5724
3.776, 2, 35.9445, 48.2371, -14.3078, 97.9396, -51.6295, 45.5724
3.78, 2, 35.9445, 48.2371, -14.3078, 97.9396, -51.6295, 45.5724
3.784, 2, 35.9445, 48.2371, -14.3078, 97.9396, -51.6295, 45.5724
3.788, 2, 35.9445, 48.2371, -14.3078, 97.9396, -51.6295, 45.5724
3.792, 2, 35.9445, 48.2371, -14.3078, 97.9396, -51.6295, 45.5724
3.796, 2, 35.9445, 48.2371, -14.3078, 97.9396, -51.6295, 45.5724
3.8, 2, 35.9445, 48.2371, -14.3078, 97.9396, -51.6295, 45.5724
3.804, 2, 35.9445, 48.2371, -14.3078, 97.9396, -51.6295, 45.5724
3.808, 2, 35.9445, 48.2371, -14.3078, 97.9396, -51.6295, 45.5724
3.812, 2, 35.9445, 48.2371, -14.3078, 97.9396, -51.6295, 45.5724
3.816, 2, 35.9445, 48.2371, -14.3078, 97.9396, -51.6295, 45.5724
3.82, 2, 35.9445, 48.2371, -14.3078, 97.9396, -51.6295, 45.5724
3.824, 2, 35.9445, 48.2371, -14.3078, 97.9396, -51.6295, 45.5724
3.828, 2, 35.9445, 48.2371, -14.3078, 97.9396, -51.6295, 45.5724
3.832, 2, 35.9445, 48.2371, -14.3078, 97.9396, -51.6295, 45.5724
3.836, 2, 35.9445, 48.2371, -14.3078, 97.9396, -51.6295, 45.5724
3.84, 2, 35.9445, 48.2371, -14.3078, 97.9396, -51.6295, 45.5724
3.844, 2, 35.9445, 48.2371, -14.3078, 97.9396, -51.6295, 45.5724
3.848, 2, 35.9445, 48.2371, -14.3078, 97.9396, -51.6295, 45.5724
3.852, 2, 35.9445, 48.2371, -14.3078, 97.9396, -51.6295, 45.5724
3.856, 2, 35.9445, 48.2371, -14.3078, 97.9396, -51.6295, 45.5724
3.86, 2, 35.9445, 48.2371, -14.3078, 97.9396, -51.6295, 45.5724
3.864, 2, 35.9445, 48.2371, -14.3078, 97.9396, -51.6295, 45.5724
3.868, 2, 35.9445, 48.2371, -14.3078, 97.9396, -51.6295, 45.5724
3.872, 2, 35.9445, 48.2371, -14.3078, 97.9396, -51.6295, 45.5724
3.876, 2, 35.9445, 48.2371, -14.3078, 97.9396, -51.6295, 45.5724
3.88, 2, 35.9445, 48.2371, -14.3078, 97.9396, -51.6295, 45.5724
3.884, 2, 35.9445, 48.2371, -14.3078, 97.9396, -51.6295, 45.5724
3.888, 2, 35.9445, 48.2371, -14.3078, 97.9396, -51.6295, 45.5724
3.892, 2, 35.9445, 48.2371, -14.3078, 97.9396, -51.6295, 45.5724
3.896, 2, 35.9445, 48.2371, -14.3078, 97.9396, -51.6295, 45.5724
3.9, 2, 35.9445, 48.2371, -14.3078, 97.9396, -51.6295, 45.5724
3.904, 2, 35.9445, 48.2371, -14.3078, 97.9396, -51.6295, 45.5724
3.908, 2, 35.9445, 48.2371, -14.3078, 97.9396, -51.6295, 45.5724
3.912, 2, 35.9445, 48.2371, -14.3078, 97.9396, -51.6295, 45.5724
3.916, 2, 35.9445, 48.2371, -14.3078, 97.9396, -51.6295, 45.5724
3.92, 2, 35.9445, 48.2371, -14.3078, 97.9396, -51.6295, 45.5724
3.924, 2, 35.9445, 48.2371, -14.3078, 97.9396, -51.6295, 45.5724
3.928, 2, 35.9445, 48.2371, -14.3078, 97.9396, -51.6295, 45.5724
3.932, 2, 35.9445, 48.2371, -14.3078, 97.9396, -51.6295, 45.5724
3.936, 2, 35.9445, 48.2371, -14.3078, 97.9396, -51.6295, 45.5724
3.94, 2, 35.9445, 48.2371, -14.3078, 97.9396, -51.6295, 45.5724
3.944, 2, 35.9445, 48.2371, -14.3078, 97.9396, -51.6295, 45.5724
3.948, 2, 35.9445, 48.2371, -14.3078, 97.9396, -51.6295, 45.5724
3.952, 2, 35.9445, 48.2371, -14.3078, 97.9396, -51.6295, 45.5724
3.956, 2, 35.9445, 48.2371, -14.3078, 97.9396, -51.6295, 45.5724
3.96, 2, 35.9445, 48.2371, -14.3078, 97.9396, -51.6295, 45.5724
3.964, 2, 35.9445, 48.2371, -14.3078, 97.9396, -51.6295, 45.5724
3.968, 2, 35.9445, 48.2371, -14.3078, 97.9396, -51.6295, 45.5724
3.972, 2, 35.9445, 48.2371, -14.3078, 97.9396, -51.6295, 45.5724
3.976, 2, 35.9445, 48.2371, -14.3078, 97.9396, -51.6295, 45.5724
3.98, 2, 35.9445, 48.2371, -14.3078, 97.9396, -51.6295, 45.5724
3.984, 2, 35.9445, 48.2371, -14.3078, 97.9396, -51.6295, 45.5724
3.988, 2, 35.9445, 48.2371, -14.3078, 97.9396, -51.6295, 45.5724
3.992, 2, 35.9445, 48.2371, -14.3078, 97.9396, -51.6295, 45.5724
3.996, 2, 35.9445, 48.2371, -14.3078, 97.9396, -51.6295, 45.5724
3.999, 2, 35.9445, 48.2371, -14.3078, 97.9396, -51.6295, 45.5724
4.004, 2, 35.9445, 48.2371, -14.3078, 97.9396, -51.6295, 45.5724
4.008, 2, 35.9445, 48.2371, -14.3078, 97.9396, -51.6295, 45.5724
4.012, 2, 35.9445, 48.2371, -14.3078, 97.9396, -51.6295, 45.5724
4.016, 2, 35.9445, 48.2371, -14.3078, 97.9396, -51.6295, 45.5724
4.02, 2, 35.9445, 48.2371, -14.3078, 97.9396, -51.6295, 45.5724
4.024, 2, 35.9445, 48.2371, -14.3078, 97.9396, -51.6295, 45.5724
4.028, 2, 35.9445, 48.2371, -14.3078, 97.9396, -51.6295, 45.5724
4.032, 2, 35.9445, 48.2371, -14.3078, 97.9396, -51.6295, 45.5724
4.036, 2, 35.9445, 48.2371, -14.3078, 97.9396, -51.6295, 45.5724
4.04, 2, 35.9445, 48.2371, -14.3078, 97.9396, -51.6295, 45.5724
4.044, 2, 35.9445, 48.2371, -14.3078, 97.9396, -51.6295, 45.5724
4.048, 2, 35.9445, 48.2371, -14.3078, 97.9396, -51.6295, 45.5724
4.052, 2, 35.9445, 48.2371, -14.3078, 97.9396, -51.6295, 45.5724
4.056, 2, 35.9445, 48.2371, -14.3078, 97.9396, -51.6295, 45.5724
4.06, 2, 35.9445, 48.2371, -14.3078, 97.9396, -51.6295, 45.5724
4.064, 2, 35.9445, 48.2371, -14.3078, 97.9396, -51.6295, 45.5724
4.068, 2, 35.9445, 48.2371, -14.3078, 97.9396, -51.6295, 45.5724
4.072, 2, 35.9445, 48.2371, -14.3078, 97.9396, -51.6295, 45.5724
4.076, 2, 35.9445, 48.2371, -14.3078, 97.9396, -51.6295, 45.5724
4.08, 2, 35.9445, 48.2371, -14.3078, 97.9396, -51.6295, 45.5724
4.084, 2, 35.9445, 48.2371, -14.3078, 97.9396, -51.6295, 45.5724
4.088, 2, 35.9445, 48.2371, -14.3078, 97.9396, -51.6295, 45.5724
4.092, 2, 35.9445, 48.2371, -14.3078, 97.9396, -51.6295, 45.5724
4.096, 2, 35.9445, 48.2371, -14.3078, 97.9396, -51.6295, 45.5724
4.1, 2, 35.9445, 48.2371, -14.3078, 97.9396, -51.6295, 45.5724
4.104, 2, 35.9445, 48.2371, -14.3078, 97.9396, -51.6295, 45.5724
4.108, 2, 35.9445, 48.2371, -14.3078, 97.9396, -51.6295, 45.5724
4.112, 2, 35.9445, 48.2371, -14.3078, 97.9396, -51.6295, 45.5724
4.116, 2, 35.9445, 48.2371, -14.3078, 97.9396, -51.6295, 45.5724
4.12, 2, 35.9445, 48.2371, -14.3078, 97.9396, -51.6295, 45.5724
4.124, 2, 35.9445, 48.2371, -14.3078, 97.9396, -51.6295, 45.5724
4.128, 2, 35.9445, 48.2371, -14.3078, 97.9396, -51.6295, 45.5724
4.132, 2, 35.9445, 48.2371, -14.3078, 97.9396, -51.6295, 45.5724
4.136, 2, 35.9445, 48.2371, -14.3078, 97.9396, -51.6295, 45.5724
4.14, 2, 35.9445, 48.2371, -14.3078, 97.9396, -51.6295, 45.5724
4.144, 2, 35.9445, 48.2371, -14.3078, 97.9396, -51.6295, 45.5724
4.148, 2, 35.9445, 48.2371, -14.3078, 97.9396, -51.6295, 45.5724
4.152, 2, 35.9445, 48.2371, -14.3078, 97.9396, -51.6295, 45.5724
4.156, 2, 35.9445, 48.2371, -14.3078, 97.9396, -51.6295, 45.5724
4.16, 2, 35.9445, 48.2371, -14.3078, 97.9396, -51.6295, 45.5724
4.164, 2, 35.9445, 48.2371, -14.3078, 97.9396, -51.6295, 45.5724
4.168, 2, 35.9445, 48.2371, -14.3078, 97.9396, -51.6295, 45.5724
4.172, 2, 35.9445, 48.2371, -14.3078, 97.9396, -51.6295, 45.5724
4.176, 2, 35.9445, 48.2371, -14.3078, 97.9396, -51.6295, 45.5724
4.18, 2, 35.9445, 48.2371, -14.3078, 97.9396, -51.6295, 45.5724
4.184, 2, 35.9445, 48.2371, -14.3078, 97.9396, -51.6295, 45.5724
4.188, 2, 35.9445, 48.2371, -14.3078, 97.9396, -51.6295, 45.5724
4.192, 2, 35.9445, 48.2371, -14.3078, 97.9396, -51.6295, 45.5724
4.196, 2, 35.9445, 48.2371, -14.3078, 97.9396, -51.6295, 45.5724
4.2, 2, 35.9445, 48.2371, -14.3078, 97.9396, -51.6295, 45.5724
4.204, 2, 35.9445, 48.2371, -14.3078, 97.9396, -51.6295, 45.5724
4.208, 2, 35.9445, 48.2371, -14.3078, 97.9396, -51.6295, 45.5724
4.212, 2, 35.9445, 48.2371, -14.3078, 97.9396, -51.6295, 45.5724
4.216, 2, 35.9445, 48.2371, -14.3078, 97.9396, -51.6295, 45.5724
4.22, 2, 35.9445, 48.2371, -14.3078, 97.9396, -51.6295, 45.5724
4.224, 2, 35.9445, 48.2371, -14.3078, 97.9396, -51.6295, 45.5724
4.228, 2, 35.9445, 48.2371, -14.3078, 97.9396, -51.6295, 45.5724
4.232, 2, 35.9445, 48.2371, -14.3078, 97.9396, -51.6295, 45.5724
4.236, 2, 35.9445, 48.2371, -14.3078, 97.9396, -51.6295, 45.5724
4.24, 2, 35.9445, 48.2371, -14.3078, 97.9396, -51.6295, 45.5724
4.244, 2, 35.9445, 48.2371, -14.3078, 97.9396, -51.6295, 45.5724
4.248, 2, 35.9445, 48.2371, -14.3078, 97.9396, -51.6295, 45.5724
4.252, 2, 35.9445, 48.2371, -14.3078, 97.9396, -51.6295, 45.5724
4.256, 2, 35.9445, 48.2371, -14.3078, 97.9396, -51.6295, 45.5724
4.26, 2, 35.9445, 48.2371, -14.3078, 97.9396, -51.6295, 45.5724
4.264, 2, 35.9445, 48.2371, -14.3078, 97.9396, -51.6295, 45.5724
4.268, 2, 35.9445, 48.2371, -14.3078, 97.9396, -51.6295, 45.5724
4.272, 2, 35.9445, 48.2371, -14.3078, 97.9396, -51.6295, 45.5724
4.276, 2, 35.9445, 48.2371, -14.3078, 97.9396, -51.6295, 45.5724
4.28, 2, 35.9445, 48.2371, -14.3078, 97.9396, -51.6295, 45.5724
4.284, 2, 35.9445, 48.2371, -14.3078, 97.9396, -51.6295, 45.5724
4.288, 2, 35.9445, 48.2371, -14.3078, 97.9396, -51.6295, 45.5724
4.292, 2, 35.9445, 48.2371, -14.3078, 97.9396, -51.6295, 45.5724
4.296, 2, 35.9445, 48.2371, -14.3078, 97.9396, -51.6295, 45.5724
4.3, 2, 35.9445, 48.2371, -14.3078, 97.9396, -51.6295, 45.5724
4.304, 2, 35.9445, 48.2371, -14.3078, 97.9396, -51.6295, 45.5724
4.308, 2, 35.9445, 48.2371, -14.3078, 97.9396, -51.6295, 45.5724
4.312, 2, 35.9445, 48.2371, -14.3078, 97.9396, -51.6295, 45.5724
4.316, 2, 35.9445, 48.2371, -14.3078, 97.9396, -51.6295, 45.5724
4.32, 2, 35.9445, 48.2371, -14.3078, 97.9396, -51.6295, 45.5724
4.324, 2, 35.9445, 48.2371, -14.3078, 97.9396, -51.6295, 45.5724
4.328, 2, 35.9445, 48.2371, -14.3078, 97.9396, -51.6295, 45.5724
4.332, 2, 35.9445, 48.2371, -14.3078, 97.9396, -51.6295, 45.5724
4.336, 2, 35.9445, 48.2371, -14.3078, 97.9396, -51.6295, 45.5724
4.34, 2, 35.9445, 48.2371, -14.3078, 97.9396, -51.6295, 45.5724
4.344, 2, 35.9445, 48.2371, -14.3078, 97.9396, -51.6295, 45.5724
4.348, 2, 35.9445, 48.2371, -14.3078, 97.9396, -51.6295, 45.5724
4.352, 2, 35.9445, 48.2371, -14.3078, 97.9396, -51.6295, 45.5724
4.356, 2, 35.9445, 48.2371, -14.3078, 97.9396, -51.6295, 45.5724
4.36, 2, 35.9445, 48.2371, -14.3078, 97.9396, -51.6295, 45.5724
4.364, 2, 35.9445, 48.2371, -14.3078, 97.9396, -51.6295, 45.5724
4.368, 2, 35.9445, 48.2371, -14.3078, 97.9396, -51.6295, 45.5724
4.372, 2, 35.9445, 48.2371, -14.3078, 97.9396, -51.6295, 45.5724
4.376, 2, 35.9445, 48.2371, -14.3078, 97.9396, -51.6295, 45.5724
4.38, 2, 35.9445, 48.2371, -14.3078, 97.9396, -51.6295, 45.5724
4.384, 2, 35.9445, 48.2371, -14.3078, 97.9396, -51.6295, 45.5724
4.388, 2, 35.9445, 48.2371, -14.3078, 97.9396, -51.6295, 45.5724
4.392, 2, 35.9445, 48.2371, -14.3078, 97.9396, -51.6295, 45.5724
4.396, 3, 35.9445, 48.2371, -14.3078, 97.9396, -51.6295, 45.5724
4.4, 3, 35.9445, 48.2371, -14.3078, 97.9396, -51.6295, 45.5724
4.404, 3, 35.9445, 48.2371, -14.3078, 97.9396, -51.6295, 45.5724
4.408, 3, 35.9445, 48.2371, -14.3078, 97.9396, -51.6295, 45.5724
4.412, 3, 35.9445, 48.2371, -14.3078, 97.9396, -51.6295, 45.5724
4.416, 3, 35.9445, 48.2371, -14.3078, 97.9396, -51.6295, 45.5724
4.42, 3, 35.9445, 48.2371, -14.3078, 97.9396, -51.6295, 45.5724
4.424, 3, 35.9445, 48.2371, -14.3078, 97.9396, -51.6295, 45.5724
4.428, 3, 35.9445, 48.2371, -14.3078, 97.9396, -51.6295, 45.5724
4.432, 3, 35.9445, 48.2371, -14.3078, 97.9396, -51.6295, 45.5724
4.436, 4, 35.9445, 48.2371, -14.3078, 97.9396, -51.6295, 45.5724
4.44, 4, 35.9445, 48.2371, -14.3078, 97.9396, -51.6295, 45.5724
4.444, 4, 35.9445, 48.2371, -14.3078, 97.9396, -51.6295, 45.5724
4.448, 4, 35.9445, 48.2371, -14.3078, 97.9396, -51.6295, 45.5724
4.452, 4, 35.9445, 48.2371, -14.3078, 97.9396, -51.6295, 45.5724
4.456, 4, 35.9445, 48.2371, -14.3078, 97.9396, -51.6295, 45.5724
4.46, 4, 35.9445, 48.2371, -14.3078, 97.9396, -51.6295, 45.5724
4.464, 4, 35.9445, 48.2371, -14.3078, 97.9396, -51.6295, 45.5724
4.468, 4, 35.9445, 48.2371, -14.3078, 97.9396, -51.6295, 45.5724
4.472, 4, 35.9445, 48.2371, -14.3078, 97.9396, -51.6295, 45.5724
4.476, 4, 35.9445, 48.2371, -14.3078, 97.9396, -51.6295, 45.5724
4.48, 4, 35.9445, 48.2371, -14.3078, 97.9396, -51.6295, 45.5724
4.484, 4, 35.9445, 48.2371, -14.3078, 97.9396, -51.6295, 45.5724
4.488, 4, 35.9445, 48.2371, -14.3078, 97.9396, -51.6295, 45.5724
4.492, 4, 35.9445, 48.2371, -14.3078, 97.9396, -51.6295, 45.5724
4.496, 4, 35.9445, 48.2371, -14.3078, 97.9396, -51.6295, 45.5724
4.5, 4, 35.9445, 48.2371, -14.3078, 97.9396, -51.6295, 45.5724
4.504, 4, 35.9445, 48.2371, -14.3078, 97.9396, -51.6295, 45.5724
4.508, 4, 35.9445, 48.2371, -14.3078, 97.9396, -51.6295, 45.5724
4.512, 4, 35.9445, 48.2371, -14.3078, 97.9396, -51.6295, 45.5724
4.516, 4, 35.9445, 48.2371, -14.3078, 97.9396, -51.6295, 45.5724
4.52, 4, 35.9445, 48.2371, -14.3078, 97.9396, -51.6295, 45.5724
4.524, 4, 35.9445, 48.2371, -14.3078, 97.9396, -51.6295, 45.5724
4.528, 4, 35.9445, 48.2371, -14.3078, 97.9396, -51.6295, 45.5724
4.532, 4, 35.9445, 48.2371, -14.3078, 97.9396, -51.6295, 45.5724
4.536, 5, 35.9445, 48.2371, -14.3078, 97.9396, -51.6295, 45.5724
4.54, 5, 35.9445, 48.2371, -14.3078, 97.9396, -51.6295, 45.5724
4.544, 5, 35.9445, 48.2371, -14.3078, 97.9396, -51.6295, 45.5724
4.548, 5, 35.9445, 48.2371, -14.3078, 97.9396, -51.6295, 45.5724
4.552, 5, 35.9445, 48.2371, -14.3078, 97.9396, -51.6295, 45.5724
4.556, 5, 35.9445, 48.2371, -14.3078, 97.9396, -51.6295, 45.5724
4.56, 5, 35.9445, 48.2371, -14.3078, 97.9396, -51.6295, 45.5724
4.564, 5, 35.9445, 48.2371, -14.3078, 97.9396, -51.6295, 45.5724
4.568, 5, 35.9445, 48.2371, -14.3078, 97.9396, -51.6295, 45.5724
4.572, 5, 35.9445, 48.2372, -14.3078, 97.9396, -51.6295, 45.5724
4.576, 5, 35.9445, 48.2373, -14.3078, 97.9396, -51.6296, 45.5724
4.58, 5, 35.9445, 48.2377, -14.3078, 97.9396, -51.6296, 45.5724
4.584, 5, 35.9445, 48.2384, -14.3078, 97.9396, -51.6297, 45.5724
4.588, 6, 35.9444, 48.2397, -14.3079, 97.9395, -51.6301, 45.5723
4.591, 6, 35.9443, 48.2415, -14.308, 97.9395, -51.6307, 45.5721
4.596, 6, 35.9441, 48.2441, -14.3081, 97.9393, -51.632, 45.5717
4.6, 6, 35.9439, 48.2475, -14.3084, 97.9391, -51.6343, 45.571
4.604, 6, 35.9436, 48.2519, -14.3088, 97.9387, -51.6379, 45.5698
4.608, 6, 35.9433, 48.2575, -14.3094, 97.938, -51.6434, 45.5681
4.612, 6, 35.9429, 48.2645, -14.3103, 97.9371, -51.6514, 45.5656
4.616, 6, 35.9424, 48.2731, -14.3115, 97.9358, -51.6626, 45.5621
4.62, 6, 35.9419, 48.2835, -14.3132, 97.9341, -51.678, 45.5574
4.624, 6, 35.9412, 48.2959, -14.3154, 97.9317, -51.6983, 45.5511
4.628, 6, 35.9405, 48.3103, -14.3183, 97.9286, -51.7245, 45.543
4.632, 6, 35.9397, 48.3268, -14.3219, 97.9247, -51.7577, 45.5327
4.636, 6, 35.9389, 48.3452, -14.3263, 97.9198, -51.7987, 45.5201
4.64, 6, 35.938, 48.3658, -14.3317, 97.9139, -51.8484, 45.5048
4.644, 6, 35.9372, 48.3886, -14.338, 97.9067, -51.9076, 45.4865
4.648, 6, 35.9363, 48.4136, -14.3454, 97.8982, -51.9769, 45.4653
4.652, 6, 35.9355, 48.4409, -14.3538, 97.8884, -52.0566, 45.4408
4.656, 6, 35.9346, 48.4706, -14.3632, 97.8771, -52.1471, 45.4131
4.66, 6, 35.9339, 48.5024, -14.3737, 97.8644, -52.2483, 45.3822
4.664, 6, 35.9332, 48.5365, -14.3852, 97.8501, -52.3601, 45.3481
4.668, 6, 35.9326, 48.5726, -14.3977, 97.8344, -52.4821, 45.3109
4.672, 6, 35.9321, 48.6108, -14.4109, 97.8172, -52.6139, 45.2709
4.676, 6, 35.9316, 48.651, -14.425, 97.7986, -52.7545, 45.2282
4.68, 6, 35.9311, 48.6935, -14.4397, 97.7786, -52.9033, 45.1832
4.684, 6, 35.9307, 48.738, -14.4549, 97.7575, -53.0591, 45.1362
4.688, 6, 35.9301, 48.7846, -14.4705, 97.7351, -53.2212, 45.0874
4.692, 6, 35.9295, 48.833, -14.4863, 97.7118, -53.3885, 45.0372
4.696, 6, 35.9287, 48.883, -14.5024, 97.6874, -53.5602, 44.9858
4.7, 6, 35.9278, 48.9346, -14.5185, 97.6622, -53.7353, 44.9335
4.704, 6, 35.9268, 48.9875, -14.5346, 97.6362, -53.9132, 44.8805
4.708, 7, 35.9256, 49.0415, -14.5506, 97.6095, -54.0932, 44.8271
4.712, 7, 35.9242, 49.0965, -14.5665, 97.5822, -54.2747, 44.7733
4.716, 7, 35.9226, 49.1525, -14.5822, 97.5542, -54.4572, 44.7194
4.72, 7, 35.9208, 49.2091, -14.5976, 97.5258, -54.6404, 44.6655
4.724, 7, 35.9189, 49.2663, -14.6127, 97.4968, -54.8239, 44.6116
4.728, 7, 35.9167, 49.3238, -14.6275, 97.4674, -55.0077, 44.5578
4.732, 7, 35.9144, 49.3816, -14.642, 97.4375, -55.1916, 44.5041
4.736, 7, 35.912, 49.4394, -14.6562, 97.4071, -55.3755, 44.4506
4.74, 7, 35.9094, 49.4972, -14.67, 97.3763, -55.5593, 44.3972
4.744, 7, 35.9066, 49.5549, -14.6835, 97.3451, -55.7431, 44.3441
4.748, 7, 35.9037, 49.6126, -14.6966, 97.3135, -55.9266, 44.2911
4.752, 7, 35.9007, 49.6701, -14.7094, 97.2814, -56.1101, 44.2383
4.756, 7, 35.8975, 49.7275, -14.7218, 97.2489, -56.2934, 44.1856
4.76, 7, 35.8942, 49.7848, -14.7339, 97.2161, -56.4765, 44.1332
4.764, 7, 35.8907, 49.8419, -14.7456, 97.1828, -56.6595, 44.0809
4.768, 7, 35.8871, 49.8988, -14.7569, 97.1491, -56.8422, 44.0289
4.772, 7, 35.8834, 49.9556, -14.7679, 97.115, -57.0248, 43.977
4.776, 7, 35.8795, 50.0122, -14.7785, 97.0805, -57.2072, 43.9253
4.78, 7, 35.8755, 50.0687, -14.7888, 97.0457, -57.3895, 43.8737
4.784, 7, 35.8713, 50.1249, -14.7987, 97.0104, -57.5715, 43.8224
4.788, 7, 35.867, 50.181, -14.8082, 96.9748, -57.7534, 43.7712
4.792, 7, 35.8626, 50.2369, -14.8174, 96.9387, -57.9351, 43.7202
4.796, 7, 35.858, 50.2926, -14.8261, 96.9023, -58.1166, 43.6693
4.8, 7, 35.8533, 50.3482, -14.8346, 96.8655, -58.2979, 43.6187
4.804, 7, 35.8484, 50.4036, -14.8426, 96.8284, -58.4791, 43.5681
4.808, 7, 35.8434, 50.4587, -14.8503, 96.7908, -58.66, 43.5178
4.812, 7, 35.8383, 50.5137, -14.8576, 96.7529, -58.8408, 43.4676
4.816, 7, 35.8331, 50.5686, -14.8645, 96.7146, -59.0214, 43.4175
4.82, 7, 35.8277, 50.6232, -14.8711, 96.6759, -59.2018, 43.3676
4.824, 7, 35.8222, 50.6776, -14.8773, 96.6369, -59.3821, 43.3179
4.828, 7, 35.8165, 50.7319, -14.8831, 96.5975, -59.5621, 43.2683
4.832, 7, 35.8107, 50.7859, -14.8885, 96.5578, -59.742, 43.2189
4.836, 7, 35.8047, 50.8398, -14.8936, 96.5176, -59.9217, 43.1696
4.84, 7, 35.7987, 50.8935, -14.8982, 96.4772, -60.1012, 43.1204
4.844, 7, 35.7925, 50.9469, -14.9025, 96.4364, -60.2805, 43.0714
4.848, 7, 35.7861, 51.0002, -14.9064, 96.3952, -60.4597, 43.0225
4.852, 7, 35.7796, 51.0533, -14.9099, 96.3537, -60.6387, 42.9737
4.856, 7, 35.773, 51.1062, -14.9131, 96.3118, -60.8174, 42.9251
4.86, 7, 35.7663, 51.1589, -14.9158, 96.2696, -60.996, 42.8766
4.864, 7, 35.7594, 51.2114, -14.9182, 96.227, -61.1745, 42.8282
4.868, 7, 35.7523, 51.2636, -14.9202, 96.1841, -61.3527, 42.78
4.872, 7, 35.7452, 51.3157, -14.9218, 96.1409, -61.5308, 42.7319
4.876, 7, 35.7379, 51.3676, -14.923, 96.0973, -61.7087, 42.6839
4.88, 7, 35.7305, 51.4193, -14.9238, 96.0534, -61.8864, 42.636
4.884, 7, 35.7229, 51.4707, -14.9242, 96.0092, -62.0639, 42.5882
4.888, 7, 35.7152, 51.522, -14.9242, 95.9646, -62.2413, 42.5406
4.892, 7, 35.7074, 51.5731, -14.9238, 95.9197, -62.4184, 42.493
4.896, 7, 35.6994, 51.6239, -14.9231, 95.8745, -62.5954, 42.4456
4.9, 7, 35.6913, 51.6745, -14.9219, 95.8289, -62.7722, 42.3983
4.904, 7, 35.6831, 51.725, -14.9203, 95.7831, -62.9489, 42.3511
4.908, 7, 35.6747, 51.7752, -14.9184, 95.7369, -63.1253, 42.3039
4.912, 7, 35.6662, 51.8252, -14.916, 95.6904, -63.3016, 42.2569
4.916, 7, 35.6575, 51.8749, -14.9132, 95.6435, -63.4777, 42.21
4.92, 7, 35.6488, 51.9245, -14.9101, 95.5964, -63.6536, 42.1632
4.924, 7, 35.6398, 51.9738, -14.9065, 95.5489, -63.8293, 42.1165
4.928, 7, 35.6308, 52.023, -14.9025, 95.5012, -64.0049, 42.0698
4.932, 7, 35.6216, 52.0719, -14.8982, 95.4531, -64.1802, 42.0233
4.936, 7, 35.6123, 52.1206, -14.8934, 95.4047, -64.3554, 41.9768
4.94, 7, 35.6029, 52.169, -14.8882, 95.356, -64.5305, 41.9305
4.944, 7, 35.5933, 52.2173, -14.8826, 95.307, -64.7053, 41.8842
4.948, 7, 35.5836, 52.2653, -14.8766, 95.2578, -64.88, 41.838
4.952, 7, 35.5737, 52.3131, -14.8701, 95.2082, -65.0545, 41.7919
4.956, 7, 35.5637, 52.3606, -14.8633, 95.1583, -65.2288, 41.7459
4.96, 7, 35.5536, 52.408, -14.856, 95.1081, -65.4029, 41.6999
4.964, 7, 35.5434, 52.4551, -14.8484, 95.0576, -65.5769, 41.654
4.968, 7, 35.533, 52.502, -14.8403, 95.0068, -65.7507, 41.6082
4.972, 7, 35.5225, 52.5486, -14.8318, 94.9557, -65.9243, 41.5625
4.976, 7, 35.5119, 52.595, -14.8229, 94.9044, -66.0977, 41.5168
4.98, 7, 35.5011, 52.6412, -14.8135, 94.8527, -66.271, 41.4712
4.984, 7, 35.4902, 52.6872, -14.8038, 94.8007, -66.4441, 41.4257
4.988, 7, 35.4791, 52.7329, -14.7936, 94.7485, -66.617, 41.3802
4.992, 7, 35.468, 52.7784, -14.783, 94.696, -66.7898, 41.3348
4.996, 7, 35.4567, 52.8236, -14.772, 94.6432, -66.9624, 41.2895
5, 7, 35.4452, 52.8686, -14.7606, 94.5901, -67.1348, 41.2442
5.004, 7, 35.4337, 52.9134, -14.7488, 94.5367, -67.307, 41.199
5.008, 7, 35.422, 52.9579, -14.7365, 94.483, -67.4791, 41.1538
5.012, 7, 35.4102, 53.0022, -14.7238, 94.4291, -67.651, 41.1087
5.016, 7, 35.3982, 53.0463, -14.7108, 94.3749, -67.8228, 41.0637
5.02, 7, 35.3861, 53.0901, -14.6972, 94.3204, -67.9944, 41.0187
5.024, 7, 35.3739, 53.1337, -14.6833, 94.2656, -68.1658, 40.9737
5.028, 7, 35.3615, 53.177, -14.669, 94.2106, -68.337, 40.9288
5.032, 7, 35.3491, 53.2201, -14.6542, 94.1553, -68.5081, 40.8839
5.036, 7, 35.3364, 53.263, -14.639, 94.0997, -68.679, 40.8391
5.04, 7, 35.3237, 53.3056, -14.6234, 94.0438, -68.8498, 40.7944
5.044, 7, 35.3108, 53.348, -14.6074, 93.9877, -69.0204, 40.7496
5.048, 7, 35.2978, 53.3901, -14.5909, 93.9313, -69.1908, 40.705
5.052, 7, 35.2847, 53.432, -14.5741, 93.8746, -69.3611, 40.6603
5.056, 7, 35.2715, 53.4736, -14.5568, 93.8177, -69.5312, 40.6157
5.06, 7, 35.2581, 53.515, -14.5391, 93.7605, -69.7011, 40.5712
5.064, 7, 35.2445, 53.5561, -14.5209, 93.7031, -69.8709, 40.5266
5.068, 7, 35.2309, 53.597, -14.5024, 93.6454, -70.0405, 40.4821
5.072, 7, 35.2171, 53.6377, -14.4834, 93.5874, -70.2099, 40.4376
5.076, 7, 35.2032, 53.6781, -14.464, 93.5292, -70.3792, 40.3932
5.08, 7, 35.1892, 53.7182, -14.4442, 93.4707, -70.5484, 40.3488
5.084, 7, 35.1751, 53.7581, -14.424, 93.412, -70.7173, 40.3044
5.088, 7, 35.1608, 53.7977, -14.4033, 93.353, -70.8862, 40.26
5.092, 7, 35.1464, 53.8371, -14.3822, 93.2937, -71.0548, 40.2157
5.096, 7, 35.1318, 53.8762, -14.3607, 93.2342, -71.2233, 40.1714
5.1, 7, 35.1172, 53.9151, -14.3387, 93.1745, -71.3916, 40.1271
5.104, 7, 35.1024, 53.9537, -14.3164, 93.1144, -71.5598, 40.0828
5.108, 7, 35.0875, 53.9921, -14.2936, 93.0542, -71.7278, 40.0386
5.112, 7, 35.0724, 54.0302, -14.2704, 92.9937, -71.8957, 39.9943
5.116, 8, 35.0572, 54.068, -14.2467, 92.9329, -72.0634, 39.9501
5.12, 8, 35.042, 54.1056, -14.2227, 92.8719, -72.2309, 39.9059
5.124, 8, 35.0266, 54.1428, -14.1982, 92.8107, -72.3983, 39.8617
5.128, 8, 35.0112, 54.1797, -14.1733, 92.7492, -72.5656, 39.8175
5.132, 8, 34.9961, 54.2159, -14.1479, 92.6875, -72.7326, 39.7733
5.136, 8, 34.9813, 54.2512, -14.1222, 92.6256, -72.8992, 39.7292
5.14, 8, 34.9671, 54.2854, -14.0961, 92.5636, -73.0655, 39.6851
5.144, 8, 34.9535, 54.3182, -14.0696, 92.5016, -73.2309, 39.6413
5.148, 8, 34.9405, 54.3496, -14.043, 92.4398, -73.3952, 39.5977
5.152, 8, 34.9281, 54.3797, -14.0161, 92.3783, -73.5578, 39.5545
5.156, 8, 34.9158, 54.4085, -13.9893, 92.3175, -73.7179, 39.512
5.16, 8, 34.9035, 54.4363, -13.9624, 92.2576, -73.875, 39.4703
5.164, 8, 34.8908, 54.4631, -13.9357, 92.1989, -74.0282, 39.4297
5.168, 8, 34.8779, 54.4891, -13.9092, 92.1416, -74.1766, 39.3906
5.172, 8, 34.8646, 54.5142, -13.8827, 92.0859, -74.3197, 39.3532
5.176, 8, 34.8511, 54.5384, -13.8563, 92.0321, -74.4567, 39.318
5.18, 8, 34.8375, 54.5617, -13.83, 91.9801, -74.5871, 39.2853
5.184, 8, 34.8238, 54.5841, -13.8035, 91.93, -74.7106, 39.2552
5.188, 8, 34.81, 54.6055, -13.7767, 91.8819, -74.827, 39.2281
5.192, 8, 34.7959, 54.6257, -13.7497, 91.8356, -74.9362, 39.2041
5.196, 8, 34.7814, 54.6445, -13.722, 91.791, -75.0385, 39.1831
5.2, 8, 34.7662, 54.6617, -13.6937, 91.7481, -75.1341, 39.1653
5.204, 8, 34.7505, 54.6774, -13.6645, 91.7065, -75.2235, 39.1506
5.208, 8, 34.7343, 54.6915, -13.634, 91.6658, -75.3072, 39.139
5.212, 9, 34.7178, 54.704, -13.602, 91.6258, -75.3857, 39.1306
5.216, 9, 34.7011, 54.7149, -13.5682, 91.586, -75.4596, 39.1253
5.22, 9, 34.6843, 54.7242, -13.532, 91.546, -75.5298, 39.1233
5.224, 9, 34.6673, 54.7317, -13.4932, 91.5053, -75.5967, 39.1244
5.228, 9, 34.6502, 54.7372, -13.4513, 91.4633, -75.6612, 39.1287
5.232, 9, 34.6329, 54.7406, -13.4059, 91.4197, -75.7239, 39.1362
5.236, 9, 34.6154, 54.7416, -13.3566, 91.3739, -75.7854, 39.147
5.24, 9, 34.5975, 54.7403, -13.303, 91.3257, -75.8463, 39.1611
5.244, 9, 34.5793, 54.7369, -13.2449, 91.2747, -75.9071, 39.1785
5.248, 9, 34.5607, 54.7316, -13.1821, 91.2206, -75.9681, 39.1991
5.252, 9, 34.5418, 54.7246, -13.1145, 91.1633, -76.0299, 39.2228
5.256, 9, 34.5227, 54.7159, -13.0423, 91.1028, -76.0928, 39.2495
5.26, 9, 34.5032, 54.7055, -12.9654, 91.039, -76.157, 39.2789
5.264, 9, 34.4835, 54.6935, -12.8843, 90.9722, -76.2227, 39.3107
5.268, 9, 34.4637, 54.6798, -12.7993, 90.9025, -76.2901, 39.3445
5.272, 9, 34.4436, 54.6647, -12.7109, 90.8303, -76.3592, 39.38
5.276, 9, 34.4231, 54.6484, -12.6196, 90.756, -76.4299, 39.4169
5.28, 9, 34.4021, 54.6312, -12.5258, 90.6799, -76.5019, 39.4548
5.284, 9, 34.3803, 54.6135, -12.4301, 90.6025, -76.575, 39.4934
5.288, 9, 34.3577, 54.5954, -12.333, 90.5241, -76.649, 39.5325
5.292, 9, 34.3342, 54.5771, -12.2348, 90.445, -76.7237, 39.572
5.296, 9, 34.3099, 54.5586, -12.1357, 90.3654, -76.7989, 39.6116
5.3, 9, 34.285, 54.5401, -12.0362, 90.2855, -76.8744, 39.6513
5.304, 9, 34.2595, 54.5215, -11.9362, 90.2054, -76.9502, 39.691
5.308, 9, 34.2337, 54.5029, -11.836, 90.1251, -77.0263, 39.7306
5.312, 9, 34.2075, 54.4842, -11.7356, 90.0448, -77.1024, 39.7702
5.316, 9, 34.1812, 54.4654, -11.635, 89.9645, -77.1787, 39.8097
5.32, 9, 34.1547, 54.4466, -11.5344, 89.8842, -77.2551, 39.849
5.324, 9, 34.1281, 54.4277, -11.4337, 89.8039, -77.3316, 39.8882
5.328, 9, 34.1014, 54.4087, -11.3329, 89.7236, -77.4082, 39.9273
5.332, 9, 34.0746, 54.3897, -11.2321, 89.6433, -77.4848, 39.9662
5.336, 9, 34.0477, 54.3706, -11.1312, 89.5631, -77.5615, 40.005
5.34, 9, 34.0208, 54.3515, -11.0304, 89.4829, -77.6383, 40.0436
5.344, 9, 33.9937, 54.3323, -10.9295, 89.4028, -77.7152, 40.0821
5.348, 9, 33.9666, 54.313, -10.8286, 89.3227, -77.7921, 40.1205
5.352, 9, 33.9394, 54.2937, -10.7277, 89.2427, -77.869, 40.1587
5.356, 10, 33.9122, 54.2743, -10.6267, 89.1627, -77.9461, 40.1967
5.36, 10, 33.8849, 54.2548, -10.5257, 89.0827, -78.0231, 40.2346
5.364, 10, 33.8575, 54.2353, -10.4248, 89.0028, -78.1003, 40.2723
5.368, 10, 33.83, 54.2157, -10.3238, 88.9229, -78.1775, 40.3099
5.372, 10, 33.8025, 54.1961, -10.2227, 88.8431, -78.2548, 40.3473
5.376, 10, 33.7749, 54.1764, -10.1217, 88.7633, -78.3321, 40.3846
5.38, 10, 33.7473, 54.1566, -10.0207, 88.6836, -78.4094, 40.4217
5.384, 10, 33.7196, 54.1368, -9.91961, 88.6039, -78.4869, 40.4586
5.388, 10, 33.6918, 54.1169, -9.81854, 88.5242, -78.5644, 40.4954
5.392, 10, 33.664, 54.0969, -9.71745, 88.4446, -78.6419, 40.5321
5.396, 10, 33.6361, 54.0769, -9.61634, 88.3651, -78.7195, 40.5686
5.4, 10, 33.6081, 54.0568, -9.51522, 88.2855, -78.7972, 40.6049
5.404, 10, 33.5801, 54.0366, -9.41409, 88.2061, -78.8749, 40.6411
5.408, 10, 33.552, 54.0164, -9.31294, 88.1266, -78.9527, 40.6771
5.412, 10, 33.5239, 53.9961, -9.21178, 88.0472, -79.0305, 40.713
5.416, 10, 33.4957, 53.9757, -9.1106, 87.9679, -79.1084, 40.7487
5.42, 10, 33.4674, 53.9553, -9.00941, 87.8885, -79.1863, 40.7842
5.424, 10, 33.439, 53.9348, -8.9082, 87.8093, -79.2643, 40.8196
5.428, 11, 33.4106, 53.9143, -8.80698, 87.73, -79.3424, 40.8549
5.432, 11, 33.3821, 53.8936, -8.70575, 87.6508, -79.4205, 40.8899
5.436, 11, 33.3536, 53.8729, -8.6045, 87.5716, -79.4987, 40.9249
5.44, 11, 33.325, 53.8522, -8.50324, 87.4925, -79.5769, 40.9596
5.444, 11, 33.2963, 53.8314, -8.40196, 87.4134, -79.6552, 40.9943
5.448, 11, 33.2676, 53.8105, -8.30068, 87.3344, -79.7335, 41.0287
5.452, 11, 33.2388, 53.7895, -8.19937, 87.2553, -79.8119, 41.063
5.456, 11, 33.2099, 53.7685, -8.09806, 87.1764, -79.8903, 41.0971
5.46, 11, 33.181, 53.7474, -7.99673, 87.0974, -79.9688, 41.1311
5.464, 11, 33.152, 53.7262, -7.89539, 87.0185, -80.0474, 41.1649
5.468, 11, 33.1229, 53.705, -7.79403, 86.9396, -80.1259, 41.1986
5.472, 11, 33.0938, 53.6837, -7.69267, 86.8608, -80.2046, 41.2321
5.476, 11, 33.0646, 53.6623, -7.59129, 86.7819, -80.2833, 41.2654
5.48, 11, 33.0353, 53.6409, -7.48989, 86.7032, -80.3621, 41.2986
5.484, 11, 33.006, 53.6194, -7.38848, 86.6244, -80.4409, 41.3317
5.488, 11, 32.9766, 53.5978, -7.28706, 86.5457, -80.5197, 41.3645
5.492, 11, 32.9471, 53.5762, -7.18563, 86.467, -80.5987, 41.3972
5.496, 11, 32.9176, 53.5544, -7.08419, 86.3884, -80.6776, 41.4298
5.5, 11, 32.888, 53.5327, -6.98273, 86.3097, -80.7566, 41.4622
5.504, 11, 32.8584, 53.5108, -6.88126, 86.2311, -80.8357, 41.4944
5.508, 11, 32.8286, 53.4889, -6.77977, 86.1526, -80.9148, 41.5264
5.512, 11, 32.7989, 53.4669, -6.67828, 86.074, -80.994, 41.5583
5.516, 11, 32.769, 53.4448, -6.57677, 85.9955, -81.0732, 41.5901
5.52, 11, 32.7391, 53.4227, -6.47525, 85.917, -81.1525, 41.6217
5.524, 11, 32.7091, 53.4005, -6.37372, 85.8386, -81.2318, 41.6531
5.528, 11, 32.6791, 53.3782, -6.27218, 85.7601, -81.3112, 41.6843
5.532, 11, 32.6489, 53.3558, -6.17062, 85.6817, -81.3907, 41.7154
5.536, 11, 32.6188, 53.3334, -6.06905, 85.6034, -81.4701, 41.7463
5.54, 11, 32.5885, 53.3109, -5.96747, 85.525, -81.5497, 41.7771
5.544, 11, 32.5582, 53.2883, -5.86589, 85.4467, -81.6292, 41.8077
5.548, 11, 32.5278, 53.2657, -5.76428, 85.3684, -81.7089, 41.8381
5.552, 11, 32.4974, 53.243, -5.66267, 85.2901, -81.7886, 41.8684
5.556, 11, 32.4669, 53.2202, -5.56105, 85.2118, -81.8683, 41.8985
5.56, 11, 32.4363, 53.1973, -5.45941, 85.1336, -81.9481, 41.9285
5.564, 11, 32.4056, 53.1743, -5.35777, 85.0554, -82.0279, 41.9582
5.568, 11, 32.3749, 53.1513, -5.25612, 84.9772, -82.1077, 41.9879
5.572, 11, 32.3441, 53.1282, -5.15445, 84.899, -82.1877, 42.0173
5.576, 11, 32.3133, 53.1051, -5.05277, 84.8209, -82.2676, 42.0466
5.58, 11, 32.2824, 53.0818, -4.95109, 84.7428, -82.3476, 42.0757
5.584, 11, 32.2514, 53.0585, -4.84939, 84.6646, -82.4277, 42.1047
5.588, 11, 32.2204, 53.0351, -4.74768, 84.5866, -82.5078, 42.1334
5.592, 11, 32.1892, 53.0117, -4.64597, 84.5085, -82.588, 42.1621
5.596, 11, 32.1581, 52.9881, -4.54424, 84.4304, -82.6681, 42.1905
5.6, 11, 32.1268, 52.9645, -4.4425, 84.3524, -82.7484, 42.2188
5.604, 11, 32.0955, 52.9408, -4.34076, 84.2744, -82.8287, 42.2469
5.608, 11, 32.0641, 52.9171, -4.239, 84.1964, -82.909, 42.2749
5.612, 11, 32.0327, 52.8932, -4.13724, 84.1184, -82.9894, 42.3027
5.616, 11, 32.0012, 52.8693, -4.03547, 84.0404, -83.0698, 42.3303
5.62, 11, 31.9696, 52.8453, -3.93369, 83.9624, -83.1503, 42.3577
5.624, 11, 31.938, 52.8212, -3.8319, 83.8845, -83.2308, 42.385
5.628, 11, 31.9064, 52.7971, -3.73011, 83.8066, -83.3114, 42.4121
5.632, 11, 31.8748, 52.7729, -3.62832, 83.7287, -83.392, 42.439
5.636, 11, 31.8432, 52.7485, -3.52655, 83.6508, -83.4726, 42.4658
5.64, 11, 31.8116, 52.7242, -3.4248, 83.573, -83.5532, 42.4924
5.644, 11, 31.7801, 52.6997, -3.32309, 83.4952, -83.6339, 42.5188
5.648, 11, 31.7487, 52.6752, -3.22144, 83.4174, -83.7145, 42.545
5.652, 11, 31.7173, 52.6505, -3.11987, 83.3398, -83.7951, 42.571
5.656, 11, 31.6861, 52.6257, -3.0184, 83.2622, -83.8756, 42.5969
5.66, 11, 31.6552, 52.6006, -2.91705, 83.1848, -83.9559, 42.6228
5.664, 11, 31.6246, 52.5752, -2.81587, 83.1075, -84.0359, 42.6487
5.668, 12, 31.5942, 52.5497, -2.71492, 83.0305, -84.1154, 42.675
5.672, 12, 31.5642, 52.5241, -2.61426, 82.9536, -84.1942, 42.7019
5.676, 12, 31.5344, 52.4984, -2.514, 82.8772, -84.2719, 42.7297
5.68, 12, 31.5048, 52.4725, -2.41421, 82.8011, -84.3483, 42.7589
5.684, 12, 31.4754, 52.4464, -2.31497, 82.7255, -84.423, 42.7896
5.688, 12, 31.4461, 52.42, -2.21634, 82.6506, -84.4957, 42.8223
5.692, 12, 31.4166, 52.393, -2.11831, 82.5762, -84.5661, 42.8573
5.696, 12, 31.3866, 52.3654, -2.02084, 82.5024, -84.6338, 42.8953
5.7, 12, 31.3559, 52.3373, -1.92379, 82.4291, -84.6985, 42.9367
5.704, 12, 31.3243, 52.3088, -1.82693, 82.356, -84.76, 42.9821
5.708, 12, 31.2917, 52.28, -1.72992, 82.283, -84.8181, 43.0323
5.712, 12, 31.2582, 52.251, -1.63236, 82.2095, -84.8727, 43.0878
5.716, 12, 31.2243, 52.2214, -1.53374, 82.1352, -84.924, 43.1492
5.72, 12, 31.1901, 52.1911, -1.43355, 82.0596, -84.9723, 43.2167
5.724, 12, 31.156, 52.1598, -1.33126, 81.9823, -85.0178, 43.2908
5.728, 12, 31.122, 52.1274, -1.22638, 81.9028, -85.0609, 43.3714
5.732, 12, 31.0881, 52.0939, -1.11852, 81.8209, -85.102, 43.4588
5.736, 12, 31.0542, 52.0593, -1.00734, 81.7361, -85.1416, 43.5529
5.74, 12, 31.0203, 52.0235, -0.892651, 81.6483, -85.18, 43.6533
5.744, 12, 30.9864, 51.9866, -0.774352, 81.5575, -85.2176, 43.7599
5.748, 12, 30.9524, 51.9485, -0.65249, 81.4636, -85.2548, 43.8721
5.752, 12, 30.9185, 51.9092, -0.527234, 81.3669, -85.292, 43.9893
5.756, 12, 30.8845, 51.8686, -0.398862, 81.2674, -85.3294, 44.1108
5.76, 12, 30.8505, 51.8267, -0.267748, 81.1656, -85.3672, 44.236
5.764, 12, 30.8162, 51.7837, -0.134327, 81.0619, -85.4055, 44.364
5.768, 12, 30.7814, 51.7399, 0.000936076, 80.9566, -85.4444, 44.4943
5.772, 12, 30.7458, 51.6954, 0.137589, 80.8501, -85.4838, 44.6262
5.776, 12, 30.7094, 51.6504, 0.275222, 80.7427, -85.5237, 44.7593
5.78, 12, 30.6722, 51.6052, 0.413485, 80.6348, -85.564, 44.8931
5.784, 12, 30.6343, 51.5598, 0.552093, 80.5264, -85.6048, 45.0274
5.788, 13, 30.5957, 51.5143, 0.690829, 80.4178, -85.6459, 45.1621
5.792, 13, 30.5567, 51.469, 0.829534, 80.3091, -85.6874, 45.2968
5.796, 13, 30.5174, 51.4237, 0.968097, 80.2002, -85.7293, 45.4316
5.8, 13, 30.4778, 51.3786, 1.10644, 80.0914, -85.7715, 45.5663
5.804, 13, 30.4379, 51.3337, 1.24453, 79.9826, -85.814, 45.701
5.808, 13, 30.3979, 51.289, 1.38231, 79.8738, -85.8568, 45.8355
5.812, 13, 30.3577, 51.2445, 1.51977, 79.765, -85.8999, 45.97
5.816, 13, 30.3174, 51.2002, 1.6569, 79.6563, -85.9434, 46.1043
5.82, 13, 30.2769, 51.1562, 1.79368, 79.5476, -85.9872, 46.2384
5.824, 13, 30.2363, 51.1124, 1.93011, 79.4391, -86.0312, 46.3724
5.828, 13, 30.1956, 51.0688, 2.06619, 79.3306, -86.0756, 46.5062
5.832, 13, 30.1547, 51.0255, 2.20191, 79.2221, -86.1203, 46.6399
5.836, 13, 30.1138, 50.9824, 2.33727, 79.1138, -86.1653, 46.7733
5.84, 13, 30.0727, 50.9395, 2.47227, 79.0055, -86.2106, 46.9067
5.844, 13, 30.0315, 50.8969, 2.60691, 78.8972, -86.2562, 47.0398
5.848, 13, 29.9902, 50.8546, 2.74119, 78.7891, -86.3021, 47.1728
5.852, 13, 29.9489, 50.8124, 2.87511, 78.681, -86.3483, 47.3056
5.856, 13, 29.9076, 50.7705, 3.00865, 78.5731, -86.3948, 47.4382
5.86, 13, 29.8664, 50.7289, 3.1418, 78.4652, -86.4416, 47.5707
5.864, 13, 29.8254, 50.6876, 3.27452, 78.3574, -86.4886, 47.7029
5.868, 13, 29.7847, 50.6465, 3.40677, 78.2498, -86.5359, 47.8349
5.872, 13, 29.7441, 50.6057, 3.53849, 78.1424, -86.5835, 47.9665
5.876, 13, 29.7038, 50.5652, 3.6696, 78.0352, -86.6312, 48.0977
5.88, 13, 29.6636, 50.525, 3.80001, 77.9285, -86.6792, 48.2284
5.884, 13, 29.6233, 50.485, 3.9296, 77.8221, -86.7272, 48.3585
5.888, 13, 29.583, 50.4452, 4.05829, 77.7164, -86.7752, 48.4878
5.892, 13, 29.5428, 50.4054, 4.18597, 77.6113, -86.8232, 48.6161
5.896, 13, 29.5027, 50.3658, 4.31252, 77.5071, -86.871, 48.7432
5.9, 13, 29.4628, 50.3264, 4.43784, 77.4038, -86.9184, 48.8689
5.904, 13, 29.4232, 50.2872, 4.56182, 77.3017, -86.9654, 48.993
5.908, 13, 29.3839, 50.248, 4.68437, 77.2008, -87.0118, 49.1152
5.912, 13, 29.3447, 50.2087, 4.80542, 77.1013, -87.0573, 49.2353
5.916, 13, 29.3055, 50.1693, 4.92492, 77.0034, -87.102, 49.3529
5.92, 13, 29.2661, 50.1296, 5.04288, 76.9072, -87.1455, 49.4679
5.924, 13, 29.2261, 50.0896, 5.15939, 76.8127, -87.1879, 49.5801
5.928, 13, 29.1856, 50.0495, 5.27457, 76.7199, -87.2289, 49.6894
5.932, 13, 29.1446, 50.0093, 5.38864, 76.6288, -87.2685, 49.7958
5.936, 13, 29.1032, 49.9692, 5.50184, 76.539, -87.3067, 49.8994
5.94, 13, 29.0617, 49.9292, 5.61448, 76.4506, -87.3435, 50.0005
5.944, 13, 29.0201, 49.8891, 5.72687, 76.363, -87.379, 50.0992
5.948, 13, 28.9785, 49.8488, 5.83933, 76.2762, -87.4133, 50.1958
5.952, 13, 28.937, 49.808, 5.95217, 76.1898, -87.4466, 50.2908
5.956, 13, 28.8955, 49.7667, 6.06569, 76.1036, -87.479, 50.3845
5.96, 13, 28.8542, 49.7249, 6.18013, 76.0171, -87.5108, 50.4773
5.964, 13, 28.8128, 49.6824, 6.29569, 75.9303, -87.542, 50.5695
5.968, 13, 28.7716, 49.6394, 6.41252, 75.8428, -87.5729, 50.6615
5.972, 13, 28.7305, 49.5956, 6.53068, 75.7545, -87.6037, 50.7536
5.976, 13, 28.6894, 49.5511, 6.65017, 75.6654, -87.6344, 50.8458
5.98, 13, 28.6484, 49.5058, 6.77092, 75.5754, -87.6652, 50.9386
5.984, 13, 28.6074, 49.4596, 6.89281, 75.4845, -87.6963, 51.0317
5.988, 13, 28.5662, 49.4125, 7.01566, 75.3927, -87.7275, 51.1254
5.992, 13, 28.5246, 49.3648, 7.1393, 75.3004, -87.7591, 51.2195
5.996, 13, 28.4826, 49.3165, 7.26353, 75.2075, -87.791, 51.3139
6, 13, 28.4401, 49.2678, 7.38815, 75.1141, -87.8231, 51.4086
6.004, 13, 28.3971, 49.2189, 7.51302, 75.0205, -87.8555, 51.5034
6.008, 13, 28.3536, 49.1698, 7.63799, 74.9266, -87.8881, 51.5983
6.012, 13, 28.3096, 49.1206, 7.76295, 74.8325, -87.9209, 51.6932
6.016, 13, 28.2653, 49.0714, 7.88783, 74.7384, -87.954, 51.788
6.02, 13, 28.2207, 49.0222, 8.01256, 74.6442, -87.9872, 51.8828
6.024, 13, 28.1758, 48.9731, 8.13712, 74.5499, -88.0207, 51.9775
