hehonglu123/Motion-Primitive-Planning/simulation/robotstudio_sim/scripts/fitting_output/slope_blend/curve_exe_v500_z1.csv
timestamp, cmd_num, J1, J2, J3, J4, J5, J6
0, 1, -0.805139, 64.4319, 8.47919, 44.5961, -96.4069, 169.864
0.002, 1, -0.805139, 64.4319, 8.47919, 44.5961, -96.4069, 169.864
0.006, 1, -0.805139, 64.4319, 8.47919, 44.5961, -96.4069, 169.864
0.008, 1, -0.805139, 64.4319, 8.47919, 44.5961, -96.4069, 169.864
0.011, 1, -0.805139, 64.4319, 8.47919, 44.5961, -96.4069, 169.864
0.016, 1, -0.805139, 64.4319, 8.47919, 44.5961, -96.4069, 169.864
0.02, 1, -0.805139, 64.4319, 8.47919, 44.5961, -96.4069, 169.864
0.024, 1, -0.805139, 64.4319, 8.47919, 44.5961, -96.4069, 169.864
0.028, 1, -0.805139, 64.4319, 8.47919, 44.5961, -96.4069, 169.864
0.032, 1, -0.80513, 64.4319, 8.47919, 44.5961, -96.4069, 169.864
0.036, 1, -0.805066, 64.4319, 8.47919, 44.5961, -96.4069, 169.864
0.04, 1, -0.804842, 64.4319, 8.4792, 44.5961, -96.4069, 169.864
0.044, 1, -0.804314, 64.4317, 8.47922, 44.5961, -96.4069, 169.864
0.048, 1, -0.803339, 64.4314, 8.47925, 44.5962, -96.4069, 169.864
0.052, 1, -0.801807, 64.4309, 8.47928, 44.5963, -96.4068, 169.864
0.056, 1, -0.799644, 64.4302, 8.4793, 44.5965, -96.4066, 169.863
0.06, 1, -0.7968, 64.4291, 8.47926, 44.597, -96.4062, 169.862
0.064, 1, -0.793241, 64.4276, 8.47913, 44.5978, -96.4056, 169.86
0.068, 1, -0.788919, 64.4258, 8.47882, 44.5991, -96.4045, 169.857
0.072, 1, -0.783737, 64.4234, 8.47827, 44.6011, -96.4029, 169.852
0.076, 1, -0.777539, 64.4205, 8.47738, 44.604, -96.4005, 169.845
0.08, 1, -0.770123, 64.4169, 8.47603, 44.6081, -96.397, 169.836
0.084, 1, -0.761292, 64.4126, 8.47409, 44.6137, -96.3924, 169.823
0.088, 1, -0.750885, 64.4076, 8.47141, 44.6211, -96.3862, 169.805
0.092, 1, -0.738797, 64.4016, 8.46781, 44.6307, -96.3782, 169.783
0.096, 1, -0.724947, 64.3948, 8.46313, 44.6428, -96.368, 169.754
0.1, 1, -0.709233, 64.3871, 8.45718, 44.6579, -96.3554, 169.719
0.104, 1, -0.691526, 64.3785, 8.44978, 44.6764, -96.34, 169.676
0.108, 1, -0.671695, 64.3688, 8.44079, 44.6985, -96.3214, 169.624
0.112, 1, -0.649657, 64.3581, 8.43005, 44.7245, -96.2996, 169.563
0.116, 1, -0.625393, 64.3465, 8.41742, 44.7549, -96.2741, 169.493
0.12, 1, -0.598929, 64.3341, 8.40279, 44.7897, -96.2449, 169.411
0.124, 1, -0.570309, 64.3211, 8.38607, 44.8293, -96.2117, 169.319
0.128, 1, -0.539582, 64.3075, 8.36721, 44.8736, -96.1745, 169.216
0.131, 1, -0.506785, 64.2934, 8.3462, 44.9226, -96.1333, 169.102
0.136, 1, -0.471921, 64.2786, 8.32308, 44.9764, -96.0882, 168.977
0.139, 1, -0.434954, 64.2632, 8.29792, 45.0347, -96.0392, 168.841
0.144, 1, -0.395846, 64.2468, 8.27085, 45.0973, -95.9866, 168.695
0.148, 1, -0.354614, 64.2296, 8.24199, 45.164, -95.9307, 168.54
0.152, 1, -0.311347, 64.2114, 8.21151, 45.2343, -95.8716, 168.376
0.156, 1, -0.26618, 64.1923, 8.17957, 45.308, -95.8098, 168.205
0.16, 1, -0.219228, 64.1723, 8.14636, 45.3845, -95.7455, 168.026
0.164, 1, -0.17057, 64.1515, 8.11208, 45.4636, -95.679, 167.842
0.168, 1, -0.120273, 64.1298, 8.0769, 45.5448, -95.6108, 167.653
0.172, 1, -0.0684327, 64.1074, 8.04103, 45.6278, -95.5412, 167.46
0.176, 1, -0.01518, 64.0842, 8.00461, 45.7121, -95.4703, 167.264
0.18, 1, 0.039342, 64.0603, 7.96778, 45.7975, -95.3986, 167.065
0.184, 1, 0.0949877, 64.0357, 7.93067, 45.8838, -95.3262, 166.864
0.188, 1, 0.151603, 64.0107, 7.89336, 45.9706, -95.2533, 166.662
0.192, 1, 0.209032, 63.9852, 7.85591, 46.0579, -95.18, 166.458
0.196, 1, 0.267147, 63.9594, 7.81836, 46.1455, -95.1065, 166.254
0.2, 1, 0.325858, 63.9333, 7.78077, 46.2332, -95.0328, 166.05
0.204, 1, 0.385089, 63.907, 7.74314, 46.3212, -94.959, 165.845
0.208, 1, 0.444746, 63.8806, 7.70551, 46.4091, -94.8851, 165.64
0.212, 1, 0.50472, 63.8541, 7.66787, 46.4972, -94.8113, 165.435
0.216, 1, 0.564908, 63.8275, 7.63025, 46.5852, -94.7374, 165.23
0.22, 1, 0.62523, 63.8009, 7.59264, 46.6732, -94.6635, 165.025
0.224, 1, 0.685633, 63.7742, 7.55504, 46.7612, -94.5896, 164.82
0.228, 1, 0.746079, 63.7476, 7.51746, 46.8491, -94.5158, 164.615
0.232, 1, 0.806543, 63.7209, 7.4799, 46.937, -94.442, 164.41
0.236, 1, 0.867008, 63.6943, 7.44235, 47.0249, -94.3682, 164.205
0.24, 1, 0.927463, 63.6676, 7.40483, 47.1128, -94.2945, 164
0.244, 1, 0.9879, 63.641, 7.36733, 47.2005, -94.2208, 163.796
0.248, 1, 1.04831, 63.6143, 7.32984, 47.2883, -94.1472, 163.591
0.252, 1, 1.1087, 63.5877, 7.29238, 47.376, -94.0736, 163.387
0.256, 1, 1.16906, 63.5611, 7.25495, 47.4636, -94, 163.183
0.26, 1, 1.22938, 63.5345, 7.21753, 47.5512, -93.9265, 162.979
0.264, 1, 1.28967, 63.508, 7.18013, 47.6387, -93.853, 162.775
0.268, 1, 1.34993, 63.4814, 7.14276, 47.7262, -93.7795, 162.571
0.272, 1, 1.41016, 63.4549, 7.1054, 47.8137, -93.7062, 162.367
0.276, 1, 1.47034, 63.4283, 7.06807, 47.9011, -93.6328, 162.164
0.28, 1, 1.5305, 63.4018, 7.03077, 47.9884, -93.5595, 161.96
0.284, 1, 1.59062, 63.3753, 6.99348, 48.0757, -93.4862, 161.757
0.288, 1, 1.6507, 63.3489, 6.95622, 48.1629, -93.413, 161.554
0.292, 1, 1.71075, 63.3224, 6.91897, 48.2501, -93.3398, 161.35
0.296, 1, 1.77076, 63.2959, 6.88175, 48.3372, -93.2667, 161.147
0.3, 1, 1.83074, 63.2695, 6.84456, 48.4243, -93.1936, 160.945
0.304, 1, 1.89067, 63.2431, 6.80738, 48.5113, -93.1206, 160.742
0.308, 1, 1.95058, 63.2167, 6.77023, 48.5983, -93.0476, 160.539
0.312, 1, 2.01044, 63.1903, 6.7331, 48.6852, -92.9746, 160.337
0.316, 1, 2.07027, 63.1639, 6.696, 48.772, -92.9017, 160.134
0.32, 1, 2.13007, 63.1376, 6.65892, 48.8588, -92.8288, 159.932
0.324, 1, 2.18982, 63.1112, 6.62186, 48.9456, -92.756, 159.73
0.328, 1, 2.24954, 63.0849, 6.58482, 49.0323, -92.6832, 159.528
0.332, 1, 2.30922, 63.0586, 6.54781, 49.1189, -92.6105, 159.326
0.336, 1, 2.36887, 63.0323, 6.51081, 49.2055, -92.5378, 159.124
0.34, 1, 2.42847, 63.0061, 6.47385, 49.2921, -92.4652, 158.923
0.344, 1, 2.48804, 62.9798, 6.4369, 49.3785, -92.3926, 158.721
0.348, 1, 2.54757, 62.9536, 6.39998, 49.465, -92.32, 158.52
0.352, 1, 2.60706, 62.9274, 6.36308, 49.5513, -92.2475, 158.318
0.356, 1, 2.66652, 62.9012, 6.32621, 49.6377, -92.1751, 158.117
0.36, 1, 2.72593, 62.875, 6.28936, 49.7239, -92.1027, 157.916
0.364, 1, 2.78531, 62.8488, 6.25253, 49.8101, -92.0303, 157.715
0.368, 1, 2.84465, 62.8226, 6.21573, 49.8963, -91.958, 157.515
0.372, 1, 2.90395, 62.7965, 6.17895, 49.9824, -91.8857, 157.314
0.376, 1, 2.96321, 62.7704, 6.1422, 50.0684, -91.8135, 157.114
0.38, 1, 3.02243, 62.7443, 6.10547, 50.1544, -91.7413, 156.913
0.384, 1, 3.08162, 62.7182, 6.06876, 50.2403, -91.6692, 156.713
0.388, 1, 3.14076, 62.6921, 6.03208, 50.3262, -91.5971, 156.513
0.392, 1, 3.19987, 62.6661, 5.99542, 50.412, -91.5251, 156.313
0.396, 1, 3.25894, 62.6401, 5.95879, 50.4977, -91.4531, 156.113
0.4, 1, 3.31797, 62.614, 5.92218, 50.5834, -91.3812, 155.914
0.404, 1, 3.37695, 62.588, 5.88559, 50.6691, -91.3093, 155.714
0.408, 1, 3.4359, 62.5621, 5.84903, 50.7547, -91.2374, 155.515
0.412, 1, 3.49481, 62.5361, 5.8125, 50.8402, -91.1656, 155.315
0.416, 1, 3.55368, 62.5102, 5.77599, 50.9257, -91.0939, 155.116
0.42, 1, 3.61251, 62.4842, 5.7395, 51.0111, -91.0222, 154.917
0.424, 1, 3.6713, 62.4583, 5.70304, 51.0964, -90.9506, 154.718
0.428, 1, 3.73005, 62.4324, 5.6666, 51.1817, -90.879, 154.52
0.432, 1, 3.78875, 62.4066, 5.63019, 51.2669, -90.8074, 154.321
0.436, 1, 3.84742, 62.3807, 5.59381, 51.3521, -90.7359, 154.123
0.44, 1, 3.90605, 62.3549, 5.55745, 51.4372, -90.6645, 153.924
0.444, 1, 3.96464, 62.329, 5.52111, 51.5223, -90.5931, 153.726
0.448, 1, 4.02318, 62.3032, 5.4848, 51.6073, -90.5217, 153.528
0.452, 1, 4.08169, 62.2774, 5.44852, 51.6922, -90.4504, 153.33
0.456, 1, 4.14015, 62.2517, 5.41226, 51.7771, -90.3792, 153.132
0.46, 1, 4.19857, 62.2259, 5.37602, 51.8619, -90.308, 152.935
0.464, 1, 4.25695, 62.2002, 5.33982, 51.9467, -90.2368, 152.737
0.468, 1, 4.31529, 62.1745, 5.30363, 52.0314, -90.1657, 152.54
0.472, 1, 4.37359, 62.1488, 5.26748, 52.116, -90.0947, 152.343
0.476, 1, 4.43185, 62.1231, 5.23135, 52.2006, -90.0237, 152.146
0.48, 1, 4.49006, 62.0975, 5.19524, 52.2851, -89.9528, 151.949
0.484, 1, 4.54823, 62.0718, 5.15917, 52.3695, -89.8819, 151.752
0.488, 1, 4.60637, 62.0462, 5.12311, 52.4539, -89.811, 151.555
0.492, 1, 4.66445, 62.0206, 5.08709, 52.5383, -89.7402, 151.359
0.496, 1, 4.7225, 61.995, 5.05109, 52.6225, -89.6695, 151.162
0.5, 1, 4.78051, 61.9695, 5.01511, 52.7068, -89.5988, 150.966
0.504, 1, 4.83847, 61.9439, 4.97917, 52.7909, -89.5282, 150.77
0.508, 1, 4.89639, 61.9184, 4.94324, 52.875, -89.4576, 150.574
0.512, 1, 4.95427, 61.8929, 4.90735, 52.959, -89.3871, 150.378
0.516, 1, 5.0121, 61.8674, 4.87148, 53.043, -89.3166, 150.183
0.52, 1, 5.06989, 61.8419, 4.83564, 53.1269, -89.2461, 149.987
0.524, 1, 5.12764, 61.8165, 4.79982, 53.2107, -89.1758, 149.792
0.528, 1, 5.18535, 61.791, 4.76404, 53.2945, -89.1055, 149.597
0.532, 1, 5.24301, 61.7656, 4.72827, 53.3782, -89.0352, 149.402
0.536, 1, 5.30063, 61.7402, 4.69254, 53.4619, -88.965, 149.207
0.54, 1, 5.35821, 61.7149, 4.65683, 53.5454, -88.8948, 149.012
0.544, 1, 5.41574, 61.6895, 4.62115, 53.629, -88.8247, 148.817
0.548, 1, 5.47324, 61.6642, 4.58549, 53.7124, -88.7546, 148.623
0.552, 1, 5.53068, 61.6388, 4.54987, 53.7958, -88.6846, 148.429
0.556, 1, 5.58809, 61.6135, 4.51426, 53.8792, -88.6147, 148.234
0.56, 1, 5.64545, 61.5883, 4.47869, 53.9624, -88.5448, 148.04
0.564, 1, 5.70276, 61.563, 4.44314, 54.0457, -88.4749, 147.847
0.568, 1, 5.76003, 61.5378, 4.40762, 54.1288, -88.4051, 147.653
0.572, 1, 5.81726, 61.5125, 4.37213, 54.2119, -88.3354, 147.459
0.576, 1, 5.87445, 61.4873, 4.33667, 54.2949, -88.2657, 147.266
0.58, 1, 5.93159, 61.4622, 4.30123, 54.3779, -88.1961, 147.073
0.584, 1, 5.98868, 61.437, 4.26582, 54.4607, -88.1265, 146.879
0.588, 1, 6.04573, 61.4119, 4.23044, 54.5436, -88.0569, 146.686
0.592, 1, 6.10274, 61.3867, 4.19508, 54.6263, -87.9875, 146.494
0.596, 1, 6.1597, 61.3616, 4.15975, 54.709, -87.9181, 146.301
0.6, 1, 6.21662, 61.3365, 4.12445, 54.7917, -87.8487, 146.108
0.604, 1, 6.2735, 61.3115, 4.08918, 54.8742, -87.7794, 145.916
0.608, 1, 6.33032, 61.2864, 4.05394, 54.9567, -87.7101, 145.724
0.612, 1, 6.38711, 61.2614, 4.01872, 55.0392, -87.6409, 145.532
0.616, 1, 6.44385, 61.2364, 3.98353, 55.1215, -87.5718, 145.34
0.62, 1, 6.50054, 61.2114, 3.94837, 55.2038, -87.5027, 145.148
0.624, 1, 6.55719, 61.1864, 3.91324, 55.2861, -87.4337, 144.956
0.628, 1, 6.6138, 61.1615, 3.87813, 55.3683, -87.3647, 144.765
0.632, 1, 6.67036, 61.1366, 3.84306, 55.4504, -87.2958, 144.574
0.636, 1, 6.72687, 61.1117, 3.80801, 55.5324, -87.2269, 144.382
0.64, 1, 6.78334, 61.0868, 3.77299, 55.6144, -87.1581, 144.191
0.644, 1, 6.83976, 61.0619, 3.73799, 55.6963, -87.0893, 144.001
0.648, 1, 6.89614, 61.0371, 3.70303, 55.7782, -87.0206, 143.81
0.652, 1, 6.95247, 61.0122, 3.66809, 55.8599, -86.952, 143.619
0.656, 1, 7.00876, 60.9874, 3.63318, 55.9417, -86.8834, 143.429
0.66, 1, 7.065, 60.9626, 3.5983, 56.0233, -86.8148, 143.239
0.664, 1, 7.1212, 60.9379, 3.56345, 56.1049, -86.7464, 143.049
0.668, 1, 7.17735, 60.9131, 3.52863, 56.1864, -86.6779, 142.859
0.672, 1, 7.23345, 60.8884, 3.49384, 56.2678, -86.6096, 142.669
0.676, 1, 7.28951, 60.8637, 3.45907, 56.3492, -86.5413, 142.479
0.68, 1, 7.34552, 60.839, 3.42434, 56.4305, -86.473, 142.29
0.684, 1, 7.40148, 60.8144, 3.38963, 56.5118, -86.4048, 142.1
0.688, 1, 7.4574, 60.7897, 3.35495, 56.593, -86.3366, 141.911
0.692, 1, 7.51328, 60.7651, 3.3203, 56.6741, -86.2686, 141.722
0.696, 1, 7.5691, 60.7405, 3.28567, 56.7551, -86.2005, 141.533
0.7, 1, 7.62488, 60.7159, 3.25108, 56.8361, -86.1326, 141.345
0.704, 1, 7.68062, 60.6913, 3.21652, 56.917, -86.0646, 141.156
0.708, 1, 7.7363, 60.6668, 3.18198, 56.9979, -85.9968, 140.968
0.712, 1, 7.79194, 60.6423, 3.14747, 57.0786, -85.929, 140.78
0.716, 1, 7.84754, 60.6178, 3.113, 57.1593, -85.8612, 140.592
0.72, 1, 7.90308, 60.5933, 3.07855, 57.24, -85.7935, 140.404
0.724, 1, 7.95859, 60.5688, 3.04413, 57.3205, -85.7259, 140.216
0.728, 1, 8.01404, 60.5444, 3.00974, 57.4011, -85.6583, 140.028
0.732, 1, 8.06945, 60.52, 2.97538, 57.4815, -85.5908, 139.841
0.736, 1, 8.12481, 60.4956, 2.94104, 57.5619, -85.5233, 139.654
0.74, 1, 8.18012, 60.4712, 2.90674, 57.6422, -85.4559, 139.467
0.744, 1, 8.23539, 60.4468, 2.87247, 57.7224, -85.3886, 139.28
0.748, 1, 8.2906, 60.4225, 2.83822, 57.8025, -85.3213, 139.093
0.752, 1, 8.34578, 60.3982, 2.80401, 57.8826, -85.2541, 138.906
0.756, 1, 8.4009, 60.3739, 2.76982, 57.9627, -85.1869, 138.72
0.76, 1, 8.45598, 60.3496, 2.73566, 58.0426, -85.1198, 138.534
0.764, 1, 8.51101, 60.3254, 2.70154, 58.1225, -85.0527, 138.347
0.768, 1, 8.56599, 60.3011, 2.66744, 58.2023, -84.9857, 138.161
0.772, 1, 8.62093, 60.2769, 2.63337, 58.2821, -84.9188, 137.976
0.776, 1, 8.67582, 60.2527, 2.59933, 58.3618, -84.8519, 137.79
0.78, 1, 8.73066, 60.2286, 2.56532, 58.4414, -84.7851, 137.604
0.784, 1, 8.78545, 60.2044, 2.53134, 58.5209, -84.7183, 137.419
0.788, 1, 8.8402, 60.1803, 2.49739, 58.6004, -84.6516, 137.234
0.792, 1, 8.8949, 60.1562, 2.46347, 58.6798, -84.5849, 137.049
0.796, 1, 8.94955, 60.1321, 2.42958, 58.7591, -84.5183, 136.864
0.8, 1, 9.00415, 60.108, 2.39571, 58.8384, -84.4518, 136.679
0.804, 1, 9.05871, 60.084, 2.36188, 58.9176, -84.3853, 136.495
0.808, 1, 9.11322, 60.06, 2.32808, 58.9967, -84.3189, 136.31
0.812, 1, 9.16768, 60.036, 2.2943, 59.0758, -84.2525, 136.126
0.816, 1, 9.22209, 60.012, 2.26056, 59.1548, -84.1862, 135.942
0.82, 1, 9.27646, 59.988, 2.22685, 59.2337, -84.12, 135.758
0.824, 1, 9.33078, 59.9641, 2.19316, 59.3125, -84.0538, 135.575
0.828, 1, 9.38505, 59.9402, 2.15951, 59.3913, -83.9877, 135.391
0.832, 1, 9.43927, 59.9163, 2.12588, 59.47, -83.9216, 135.208
0.836, 1, 9.49344, 59.8924, 2.09229, 59.5487, -83.8556, 135.024
0.84, 1, 9.54757, 59.8686, 2.05872, 59.6273, -83.7896, 134.841
0.844, 1, 9.60165, 59.8447, 2.02518, 59.7058, -83.7237, 134.658
0.848, 1, 9.65568, 59.8209, 1.99168, 59.7842, -83.6579, 134.476
0.852, 1, 9.70966, 59.7971, 1.9582, 59.8626, -83.5921, 134.293
0.856, 1, 9.76359, 59.7734, 1.92475, 59.9408, -83.5264, 134.111
0.86, 1, 9.81748, 59.7496, 1.89134, 60.0191, -83.4607, 133.928
0.864, 1, 9.87132, 59.7259, 1.85795, 60.0972, -83.3951, 133.746
0.868, 1, 9.92511, 59.7022, 1.82459, 60.1753, -83.3296, 133.564
0.872, 1, 9.97885, 59.6785, 1.79126, 60.2533, -83.2641, 133.383
0.876, 1, 10.0325, 59.6548, 1.75796, 60.3313, -83.1986, 133.201
0.88, 1, 10.0862, 59.6312, 1.7247, 60.4092, -83.1333, 133.019
0.884, 1, 10.1398, 59.6076, 1.69146, 60.487, -83.068, 132.838
0.888, 1, 10.1933, 59.584, 1.65825, 60.5647, -83.0027, 132.657
0.892, 1, 10.2468, 59.5604, 1.62507, 60.6424, -82.9375, 132.476
0.896, 1, 10.3003, 59.5368, 1.59192, 60.72, -82.8724, 132.295
0.9, 1, 10.3537, 59.5133, 1.5588, 60.7975, -82.8073, 132.115
0.904, 1, 10.4071, 59.4898, 1.52571, 60.8749, -82.7423, 131.934
0.908, 1, 10.4604, 59.4663, 1.49266, 60.9523, -82.6773, 131.754
0.912, 1, 10.5136, 59.4428, 1.45963, 61.0296, -82.6124, 131.574
0.916, 1, 10.5668, 59.4194, 1.42663, 61.1069, -82.5476, 131.394
0.92, 1, 10.62, 59.3959, 1.39366, 61.1841, -82.4828, 131.214
0.924, 1, 10.6731, 59.3725, 1.36072, 61.2612, -82.4181, 131.034
0.928, 1, 10.7262, 59.3492, 1.32781, 61.3382, -82.3534, 130.855
0.932, 1, 10.7792, 59.3258, 1.29493, 61.4152, -82.2888, 130.675
0.936, 1, 10.8322, 59.3024, 1.26208, 61.4921, -82.2243, 130.496
0.94, 1, 10.8851, 59.2791, 1.22926, 61.5689, -82.1598, 130.317
0.944, 1, 10.938, 59.2558, 1.19647, 61.6456, -82.0953, 130.138
0.948, 1, 10.9908, 59.2325, 1.16371, 61.7223, -82.031, 129.96
0.952, 1, 11.0436, 59.2093, 1.13099, 61.7989, -81.9667, 129.781
0.956, 1, 11.0963, 59.186, 1.09829, 61.8755, -81.9024, 129.603
0.96, 1, 11.149, 59.1628, 1.06562, 61.952, -81.8382, 129.425
0.964, 1, 11.2016, 59.1396, 1.03298, 62.0284, -81.7741, 129.247
0.968, 1, 11.2542, 59.1165, 1.00037, 62.1047, -81.71, 129.069
0.972, 1, 11.3068, 59.0933, 0.967788, 62.181, -81.646, 128.891
0.976, 1, 11.3592, 59.0702, 0.935239, 62.2572, -81.582, 128.714
0.98, 1, 11.4117, 59.0471, 0.902719, 62.3333, -81.5181, 128.536
0.984, 1, 11.4641, 59.024, 0.87023, 62.4093, -81.4543, 128.359
0.988, 1, 11.5164, 59.0009, 0.83777, 62.4853, -81.3905, 128.182
0.992, 1, 11.5687, 58.9779, 0.805341, 62.5612, -81.3268, 128.005
0.996, 1, 11.621, 58.9548, 0.772941, 62.6371, -81.2631, 127.828
1, 1, 11.6732, 58.9318, 0.740572, 62.7128, -81.1995, 127.652
1.004, 1, 11.7253, 58.9089, 0.708233, 62.7885, -81.136, 127.475
1.008, 1, 11.7774, 58.8859, 0.675923, 62.8642, -81.0725, 127.299
1.012, 1, 11.8295, 58.8629, 0.643644, 62.9397, -81.009, 127.123
1.016, 1, 11.8815, 58.84, 0.611394, 63.0152, -80.9457, 126.947
1.02, 1, 11.9334, 58.8171, 0.579175, 63.0907, -80.8824, 126.771
1.024, 1, 11.9853, 58.7943, 0.546985, 63.166, -80.8191, 126.596
1.027, 1, 12.0372, 58.7714, 0.514826, 63.2413, -80.7559, 126.42
1.032, 1, 12.089, 58.7486, 0.482696, 63.3165, -80.6928, 126.245
1.036, 1, 12.1408, 58.7258, 0.450597, 63.3916, -80.6297, 126.07
1.04, 1, 12.1925, 58.703, 0.418527, 63.4667, -80.5667, 125.895
1.044, 1, 12.2442, 58.6802, 0.386487, 63.5417, -80.5037, 125.72
1.048, 1, 12.2958, 58.6575, 0.354478, 63.6166, -80.4408, 125.546
1.052, 1, 12.3473, 58.6347, 0.322498, 63.6915, -80.378, 125.371
1.055, 1, 12.3989, 58.612, 0.290548, 63.7663, -80.3152, 125.197
1.06, 1, 12.4503, 58.5893, 0.258628, 63.841, -80.2525, 125.023
1.064, 1, 12.5018, 58.5667, 0.226738, 63.9157, -80.1898, 124.849
1.068, 1, 12.5531, 58.544, 0.194878, 63.9902, -80.1272, 124.675
1.072, 1, 12.6045, 58.5214, 0.163048, 64.0648, -80.0647, 124.502
1.076, 1, 12.6558, 58.4988, 0.131248, 64.1392, -80.0022, 124.328
1.08, 1, 12.707, 58.4762, 0.0994779, 64.2136, -79.9398, 124.155
1.084, 1, 12.7582, 58.4537, 0.0677375, 64.2879, -79.8774, 123.982
1.088, 1, 12.8093, 58.4311, 0.0360269, 64.3621, -79.8151, 123.809
1.091, 1, 12.8604, 58.4086, 0.00434618, 64.4363, -79.7528, 123.636
1.096, 1, 12.9115, 58.3861, -0.0273047, 64.5103, -79.6907, 123.464
1.1, 1, 12.9624, 58.3637, -0.0589259, 64.5844, -79.6285, 123.291
1.104, 1, 13.0134, 58.3412, -0.0905172, 64.6583, -79.5664, 123.119
1.108, 1, 13.0643, 58.3188, -0.122079, 64.7322, -79.5044, 122.947
1.112, 1, 13.1151, 58.2964, -0.153611, 64.806, -79.4425, 122.775
1.116, 1, 13.1659, 58.274, -0.185113, 64.8798, -79.3806, 122.603
1.119, 1, 13.2167, 58.2516, -0.216585, 64.9534, -79.3187, 122.431
1.124, 1, 13.2674, 58.2293, -0.248028, 65.027, -79.2569, 122.26
1.128, 1, 13.3181, 58.207, -0.279441, 65.1006, -79.1952, 122.088
1.132, 1, 13.3687, 58.1847, -0.310825, 65.174, -79.1336, 121.917
1.136, 1, 13.4192, 58.1624, -0.342179, 65.2474, -79.0719, 121.746
1.14, 1, 13.4698, 58.1401, -0.373503, 65.3208, -79.0104, 121.575
1.144, 1, 13.5202, 58.1179, -0.404798, 65.394, -78.9489, 121.405
1.147, 1, 13.5707, 58.0956, -0.436063, 65.4672, -78.8875, 121.234
1.152, 1, 13.621, 58.0735, -0.467299, 65.5403, -78.8261, 121.064
1.156, 1, 13.6714, 58.0513, -0.498506, 65.6134, -78.7648, 120.893
1.16, 1, 13.7216, 58.0291, -0.529682, 65.6863, -78.7035, 120.723
1.164, 1, 13.7719, 58.007, -0.56083, 65.7593, -78.6423, 120.554
1.168, 1, 13.822, 57.9849, -0.591948, 65.8321, -78.5812, 120.384
1.172, 1, 13.8722, 57.9628, -0.623036, 65.9049, -78.5201, 120.214
1.175, 1, 13.9223, 57.9407, -0.654096, 65.9776, -78.459, 120.045
1.18, 1, 13.9723, 57.9187, -0.685126, 66.0502, -78.3981, 119.876
1.184, 1, 14.0223, 57.8966, -0.716126, 66.1228, -78.3371, 119.707
1.188, 1, 14.0723, 57.8746, -0.747097, 66.1953, -78.2763, 119.538
1.192, 1, 14.1222, 57.8526, -0.778039, 66.2677, -78.2155, 119.369
1.196, 1, 14.172, 57.8307, -0.808952, 66.3401, -78.1547, 119.2
1.2, 1, 14.2218, 57.8087, -0.839836, 66.4124, -78.0941, 119.032
1.204, 1, 14.2716, 57.7868, -0.87069, 66.4846, -78.0334, 118.863
1.208, 1, 14.3213, 57.7649, -0.901515, 66.5568, -77.9729, 118.695
1.212, 1, 14.3709, 57.743, -0.932311, 66.6288, -77.9124, 118.527
1.216, 1, 14.4206, 57.7211, -0.963078, 66.7009, -77.8519, 118.36
1.22, 1, 14.4701, 57.6993, -0.993816, 66.7728, -77.7915, 118.192
1.224, 1, 14.5197, 57.6775, -1.02452, 66.8447, -77.7311, 118.024
1.228, 1, 14.5691, 57.6556, -1.0552, 66.9165, -77.6709, 117.857
1.232, 1, 14.6186, 57.6339, -1.08585, 66.9883, -77.6106, 117.69
1.236, 1, 14.668, 57.6121, -1.11648, 67.06, -77.5505, 117.523
1.24, 1, 14.7173, 57.5904, -1.14707, 67.1316, -77.4904, 117.356
1.244, 1, 14.7666, 57.5686, -1.17763, 67.2031, -77.4303, 117.189
1.248, 1, 14.8158, 57.5469, -1.20817, 67.2746, -77.3703, 117.023
1.252, 1, 14.865, 57.5253, -1.23867, 67.346, -77.3104, 116.856
1.256, 1, 14.9142, 57.5036, -1.26915, 67.4173, -77.2505, 116.69
1.26, 1, 14.9633, 57.482, -1.2996, 67.4886, -77.1906, 116.524
1.264, 1, 15.0123, 57.4603, -1.33002, 67.5598, -77.1309, 116.358
1.267, 1, 15.0613, 57.4388, -1.36041, 67.631, -77.0712, 116.192
1.272, 1, 15.1103, 57.4172, -1.39077, 67.702, -77.0115, 116.027
1.276, 1, 15.1592, 57.3956, -1.4211, 67.7731, -76.9519, 115.861
1.28, 1, 15.2081, 57.3741, -1.45141, 67.844, -76.8923, 115.696
1.284, 1, 15.2569, 57.3526, -1.48168, 67.9149, -76.8328, 115.531
1.288, 1, 15.3057, 57.3311, -1.51193, 67.9857, -76.7734, 115.366
1.292, 1, 15.3544, 57.3096, -1.54215, 68.0564, -76.714, 115.201
1.295, 1, 15.4031, 57.2881, -1.57234, 68.1271, -76.6547, 115.036
1.3, 1, 15.4518, 57.2667, -1.6025, 68.1977, -76.5954, 114.872
1.304, 1, 15.5004, 57.2453, -1.63264, 68.2682, -76.5362, 114.708
1.308, 1, 15.5489, 57.2239, -1.66274, 68.3387, -76.4771, 114.543
1.312, 1, 15.5974, 57.2025, -1.69282, 68.4091, -76.418, 114.379
1.316, 1, 15.6459, 57.1812, -1.72286, 68.4794, -76.3589, 114.215
1.32, 1, 15.6943, 57.1598, -1.75288, 68.5497, -76.2999, 114.052
1.324, 1, 15.7427, 57.1385, -1.78288, 68.6199, -76.241, 113.888
1.328, 1, 15.791, 57.1172, -1.81284, 68.69, -76.1822, 113.725
1.332, 1, 15.8393, 57.096, -1.84277, 68.7601, -76.1233, 113.561
1.336, 1, 15.8875, 57.0747, -1.87268, 68.8301, -76.0646, 113.398
1.34, 1, 15.9357, 57.0535, -1.90255, 68.9001, -76.0059, 113.235
1.344, 1, 15.9838, 57.0323, -1.9324, 68.9699, -75.9472, 113.073
1.348, 1, 16.0319, 57.0111, -1.96222, 69.0397, -75.8886, 112.91
1.352, 1, 16.08, 56.9899, -1.99202, 69.1095, -75.8301, 112.747
1.356, 1, 16.128, 56.9687, -2.02178, 69.1792, -75.7716, 112.585
1.36, 1, 16.1759, 56.9476, -2.05152, 69.2488, -75.7132, 112.423
1.364, 1, 16.2238, 56.9265, -2.08123, 69.3183, -75.6548, 112.261
1.368, 1, 16.2717, 56.9054, -2.11091, 69.3878, -75.5965, 112.099
1.372, 1, 16.3195, 56.8843, -2.14056, 69.4572, -75.5382, 111.937
1.376, 1, 16.3673, 56.8633, -2.17018, 69.5265, -75.48, 111.776
1.38, 1, 16.415, 56.8422, -2.19978, 69.5958, -75.4218, 111.614
1.384, 1, 16.4627, 56.8212, -2.22935, 69.665, -75.3637, 111.453
1.388, 1, 16.5103, 56.8002, -2.25889, 69.7342, -75.3057, 111.292
1.392, 1, 16.5579, 56.7793, -2.2884, 69.8033, -75.2477, 111.131
1.396, 1, 16.6055, 56.7583, -2.31788, 69.8723, -75.1897, 110.97
1.4, 1, 16.653, 56.7374, -2.34734, 69.9412, -75.1319, 110.809
1.404, 1, 16.7005, 56.7165, -2.37677, 70.0101, -75.074, 110.649
1.408, 1, 16.7479, 56.6956, -2.40617, 70.079, -75.0163, 110.488
1.412, 1, 16.7953, 56.6747, -2.43554, 70.1477, -74.9585, 110.328
1.416, 1, 16.8426, 56.6538, -2.46489, 70.2164, -74.9009, 110.168
1.42, 1, 16.8899, 56.633, -2.49421, 70.285, -74.8433, 110.008
1.424, 1, 16.9371, 56.6122, -2.5235, 70.3536, -74.7857, 109.849
1.428, 1, 16.9843, 56.5914, -2.55276, 70.4221, -74.7282, 109.689
1.432, 1, 17.0315, 56.5706, -2.582, 70.4906, -74.6708, 109.529
1.436, 1, 17.0786, 56.5498, -2.61121, 70.5589, -74.6134, 109.37
1.44, 1, 17.1256, 56.5291, -2.64039, 70.6272, -74.556, 109.211
1.444, 1, 17.1726, 56.5084, -2.66954, 70.6955, -74.4987, 109.052
1.448, 1, 17.2196, 56.4877, -2.69867, 70.7637, -74.4415, 108.893
1.452, 1, 17.2666, 56.467, -2.72777, 70.8318, -74.3843, 108.734
1.456, 1, 17.3134, 56.4463, -2.75684, 70.8998, -74.3272, 108.576
1.46, 1, 17.3603, 56.4257, -2.78588, 70.9678, -74.2701, 108.417
1.464, 1, 17.4071, 56.4051, -2.8149, 71.0358, -74.2131, 108.259
1.468, 1, 17.4538, 56.3845, -2.84389, 71.1036, -74.1561, 108.101
1.472, 1, 17.5006, 56.3639, -2.87286, 71.1714, -74.0992, 107.943
1.476, 1, 17.5472, 56.3433, -2.90179, 71.2392, -74.0424, 107.785
1.48, 1, 17.5939, 56.3228, -2.9307, 71.3068, -73.9855, 107.627
1.484, 1, 17.6404, 56.3022, -2.95959, 71.3745, -73.9288, 107.47
1.488, 1, 17.687, 56.2817, -2.98844, 71.442, -73.8721, 107.313
1.492, 1, 17.7335, 56.2612, -3.01727, 71.5095, -73.8154, 107.155
1.496, 1, 17.7799, 56.2408, -3.04608, 71.5769, -73.7588, 106.998
1.5, 1, 17.8263, 56.2203, -3.07485, 71.6443, -73.7023, 106.841
1.504, 1, 17.8727, 56.1999, -3.1036, 71.7116, -73.6458, 106.684
1.508, 1, 17.919, 56.1795, -3.13233, 71.7788, -73.5894, 106.528
1.512, 1, 17.9653, 56.1591, -3.16102, 71.846, -73.533, 106.371
1.516, 1, 18.0115, 56.1387, -3.18969, 71.9131, -73.4766, 106.215
1.52, 1, 18.0577, 56.1184, -3.21833, 71.9802, -73.4204, 106.059
1.524, 1, 18.1039, 56.098, -3.24695, 72.0471, -73.3641, 105.903
1.528, 1, 18.15, 56.0777, -3.27554, 72.1141, -73.308, 105.747
1.532, 1, 18.1961, 56.0574, -3.30411, 72.1809, -73.2518, 105.591
1.536, 1, 18.2421, 56.0371, -3.33264, 72.2477, -73.1957, 105.435
1.54, 1, 18.2881, 56.0169, -3.36115, 72.3145, -73.1397, 105.28
1.544, 1, 18.334, 55.9966, -3.38964, 72.3812, -73.0837, 105.124
1.548, 1, 18.3799, 55.9764, -3.4181, 72.4478, -73.0278, 104.969
1.552, 1, 18.4258, 55.9562, -3.44653, 72.5144, -72.972, 104.814
1.556, 1, 18.4716, 55.936, -3.47494, 72.5808, -72.9161, 104.659
1.56, 1, 18.5174, 55.9158, -3.50332, 72.6473, -72.8604, 104.504
1.564, 1, 18.5631, 55.8957, -3.53167, 72.7137, -72.8047, 104.35
1.568, 1, 18.6088, 55.8755, -3.56, 72.78, -72.749, 104.195
1.572, 1, 18.6544, 55.8554, -3.5883, 72.8462, -72.6934, 104.041
1.576, 1, 18.7, 55.8353, -3.61658, 72.9124, -72.6378, 103.886
1.58, 1, 18.7456, 55.8153, -3.64483, 72.9785, -72.5823, 103.732
1.584, 1, 18.7911, 55.7952, -3.67305, 73.0446, -72.5268, 103.578
1.588, 1, 18.8366, 55.7752, -3.70125, 73.1106, -72.4714, 103.425
1.592, 1, 18.882, 55.7551, -3.72943, 73.1766, -72.4161, 103.271
1.596, 1, 18.9274, 55.7351, -3.75757, 73.2425, -72.3608, 103.117
1.6, 1, 18.9728, 55.7151, -3.7857, 73.3083, -72.3055, 102.964
1.604, 1, 19.0181, 55.6952, -3.81379, 73.3741, -72.2503, 102.811
1.608, 1, 19.0634, 55.6752, -3.84186, 73.4398, -72.1951, 102.658
1.612, 1, 19.1086, 55.6553, -3.86991, 73.5054, -72.14, 102.505
1.616, 1, 19.1538, 55.6354, -3.89793, 73.571, -72.085, 102.352
1.62, 1, 19.1989, 55.6155, -3.92592, 73.6366, -72.03, 102.199
1.624, 1, 19.2441, 55.5956, -3.95389, 73.702, -71.975, 102.047
1.628, 1, 19.2891, 55.5757, -3.98183, 73.7674, -71.9201, 101.894
1.632, 1, 19.3341, 55.5559, -4.00975, 73.8328, -71.8652, 101.742
1.636, 1, 19.3791, 55.5361, -4.03764, 73.8981, -71.8104, 101.59
1.64, 1, 19.4241, 55.5163, -4.06551, 73.9633, -71.7557, 101.438
1.644, 1, 19.469, 55.4965, -4.09335, 74.0285, -71.701, 101.286
1.648, 1, 19.5138, 55.4767, -4.12117, 74.0936, -71.6463, 101.134
1.652, 1, 19.5587, 55.457, -4.14896, 74.1587, -71.5917, 100.983
1.656, 1, 19.6035, 55.4372, -4.17673, 74.2237, -71.5371, 100.831
1.66, 1, 19.6482, 55.4175, -4.20447, 74.2886, -71.4826, 100.68
1.664, 1, 19.6929, 55.3978, -4.23219, 74.3535, -71.4281, 100.529
1.668, 1, 19.7376, 55.3781, -4.25988, 74.4183, -71.3737, 100.378
1.672, 1, 19.7822, 55.3585, -4.28755, 74.4831, -71.3194, 100.227
1.676, 1, 19.8268, 55.3388, -4.31519, 74.5478, -71.2651, 100.076
1.68, 1, 19.8713, 55.3192, -4.34281, 74.6124, -71.2108, 99.9254
1.684, 1, 19.9158, 55.2996, -4.3704, 74.677, -71.1566, 99.7749
1.688, 1, 19.9603, 55.28, -4.39797, 74.7416, -71.1024, 99.6245
1.692, 1, 20.0047, 55.2604, -4.42551, 74.806, -71.0483, 99.4743
1.696, 1, 20.0491, 55.2409, -4.45303, 74.8705, -70.9942, 99.3242
1.7, 1, 20.0934, 55.2213, -4.48052, 74.9348, -70.9402, 99.1742
1.704, 1, 20.1377, 55.2018, -4.50799, 74.9991, -70.8862, 99.0244
1.708, 1, 20.182, 55.1823, -4.53544, 75.0634, -70.8323, 98.8747
1.712, 1, 20.2262, 55.1628, -4.56286, 75.1275, -70.7784, 98.7251
1.716, 1, 20.2704, 55.1434, -4.59025, 75.1917, -70.7246, 98.5757
1.72, 1, 20.3145, 55.1239, -4.61762, 75.2557, -70.6708, 98.4264
1.724, 1, 20.3586, 55.1045, -4.64497, 75.3198, -70.6171, 98.2773
1.728, 1, 20.4027, 55.0851, -4.67229, 75.3837, -70.5634, 98.1283
1.732, 1, 20.4467, 55.0657, -4.69959, 75.4476, -70.5097, 97.9794
1.736, 1, 20.4907, 55.0463, -4.72686, 75.5115, -70.4561, 97.8306
1.74, 1, 20.5347, 55.0269, -4.75411, 75.5752, -70.4026, 97.682
1.744, 1, 20.5786, 55.0076, -4.78133, 75.639, -70.3491, 97.5335
1.748, 1, 20.6224, 54.9882, -4.80853, 75.7026, -70.2956, 97.3851
1.752, 1, 20.6663, 54.9689, -4.83571, 75.7663, -70.2422, 97.2369
1.756, 1, 20.7101, 54.9496, -4.86286, 75.8298, -70.1889, 97.0888
1.76, 1, 20.7538, 54.9303, -4.88999, 75.8933, -70.1356, 96.9408
1.764, 1, 20.7975, 54.9111, -4.9171, 75.9568, -70.0823, 96.793
1.768, 1, 20.8412, 54.8918, -4.94418, 76.0202, -70.0291, 96.6453
1.772, 1, 20.8848, 54.8726, -4.97124, 76.0835, -69.9759, 96.4977
1.776, 1, 20.9284, 54.8534, -4.99827, 76.1468, -69.9228, 96.3503
1.78, 1, 20.972, 54.8342, -5.02528, 76.21, -69.8697, 96.2029
1.784, 1, 21.0155, 54.815, -5.05226, 76.2732, -69.8167, 96.0557
1.788, 1, 21.059, 54.7958, -5.07923, 76.3363, -69.7637, 95.9087
1.792, 1, 21.1025, 54.7767, -5.10616, 76.3994, -69.7108, 95.7617
1.796, 1, 21.1459, 54.7576, -5.13308, 76.4624, -69.6579, 95.6149
1.8, 1, 21.1893, 54.7385, -5.15997, 76.5253, -69.6051, 95.4683
1.804, 1, 21.2326, 54.7194, -5.18684, 76.5882, -69.5523, 95.3217
1.808, 1, 21.2759, 54.7003, -5.21368, 76.6511, -69.4995, 95.1753
1.812, 1, 21.3191, 54.6812, -5.24051, 76.7139, -69.4468, 95.029
1.816, 1, 21.3624, 54.6622, -5.2673, 76.7766, -69.3942, 94.8828
1.82, 1, 21.4055, 54.6432, -5.29408, 76.8393, -69.3415, 94.7368
1.824, 1, 21.4487, 54.6241, -5.32083, 76.9019, -69.289, 94.5909
1.828, 1, 21.4918, 54.6051, -5.34756, 76.9645, -69.2365, 94.4451
1.832, 1, 21.5349, 54.5862, -5.37427, 77.027, -69.184, 94.2994
1.836, 1, 21.5779, 54.5672, -5.40095, 77.0894, -69.1316, 94.1539
1.84, 1, 21.6209, 54.5483, -5.42761, 77.1518, -69.0792, 94.0085
1.844, 1, 21.6639, 54.5293, -5.45424, 77.2142, -69.0268, 93.8632
1.848, 1, 21.7068, 54.5104, -5.48086, 77.2765, -68.9745, 93.718
1.852, 1, 21.7497, 54.4915, -5.50745, 77.3387, -68.9223, 93.573
1.856, 1, 21.7925, 54.4726, -5.53402, 77.4009, -68.8701, 93.4281
1.86, 1, 21.8353, 54.4538, -5.56056, 77.4631, -68.8179, 93.2833
1.864, 1, 21.8781, 54.4349, -5.58708, 77.5252, -68.7658, 93.1386
1.868, 1, 21.9209, 54.4161, -5.61358, 77.5872, -68.7137, 92.9941
1.872, 1, 21.9636, 54.3973, -5.64006, 77.6492, -68.6617, 92.8497
1.876, 1, 22.0062, 54.3785, -5.66651, 77.7111, -68.6097, 92.7054
1.88, 1, 22.0489, 54.3597, -5.69295, 77.773, -68.5578, 92.5612
1.884, 1, 22.0915, 54.3409, -5.71936, 77.8348, -68.5059, 92.4172
1.888, 1, 22.134, 54.3222, -5.74574, 77.8966, -68.454, 92.2732
1.892, 1, 22.1765, 54.3034, -5.77211, 77.9583, -68.4022, 92.1294
1.896, 1, 22.219, 54.2847, -5.79845, 78.0199, -68.3505, 91.9858
1.9, 1, 22.2615, 54.266, -5.82477, 78.0816, -68.2987, 91.8422
1.904, 1, 22.3039, 54.2473, -5.85107, 78.1431, -68.2471, 91.6988
1.908, 1, 22.3463, 54.2286, -5.87734, 78.2046, -68.1954, 91.5555
1.912, 1, 22.3886, 54.21, -5.90359, 78.2661, -68.1439, 91.4123
1.916, 1, 22.4309, 54.1913, -5.92983, 78.3275, -68.0923, 91.2692
1.92, 1, 22.4732, 54.1727, -5.95603, 78.3888, -68.0408, 91.1262
1.924, 1, 22.5154, 54.1541, -5.98222, 78.4501, -67.9893, 90.9834
1.928, 1, 22.5576, 54.1355, -6.00839, 78.5114, -67.9379, 90.8407
1.932, 1, 22.5998, 54.1169, -6.03453, 78.5726, -67.8866, 90.6981
1.936, 1, 22.6419, 54.0984, -6.06065, 78.6337, -67.8352, 90.5556
1.94, 1, 22.684, 54.0798, -6.08675, 78.6948, -67.784, 90.4133
1.944, 1, 22.7261, 54.0613, -6.11283, 78.7559, -67.7327, 90.271
1.948, 1, 22.7681, 54.0428, -6.13888, 78.8169, -67.6815, 90.1289
1.952, 1, 22.8101, 54.0243, -6.16491, 78.8778, -67.6304, 89.9869
1.956, 1, 22.852, 54.0058, -6.19093, 78.9387, -67.5792, 89.845
1.96, 1, 22.8939, 53.9873, -6.21692, 78.9995, -67.5282, 89.7033
1.964, 1, 22.9358, 53.9688, -6.24288, 79.0603, -67.4771, 89.5616
1.968, 1, 22.9777, 53.9504, -6.26883, 79.1211, -67.4262, 89.4201
1.972, 1, 23.0195, 53.932, -6.29476, 79.1818, -67.3752, 89.2787
1.976, 1, 23.0613, 53.9136, -6.32066, 79.2424, -67.3243, 89.1374
1.98, 1, 23.103, 53.8952, -6.34654, 79.303, -67.2735, 88.9963
1.984, 1, 23.1447, 53.8768, -6.3724, 79.3635, -67.2226, 88.8552
1.988, 1, 23.1864, 53.8584, -6.39824, 79.424, -67.1719, 88.7143
1.992, 1, 23.228, 53.8401, -6.42406, 79.4844, -67.1211, 88.5734
1.996, 1, 23.2696, 53.8217, -6.44986, 79.5448, -67.0704, 88.4327
1.999, 1, 23.3112, 53.8034, -6.47563, 79.6052, -67.0198, 88.2921
2.004, 1, 23.3527, 53.7851, -6.50139, 79.6655, -66.9692, 88.1517
2.008, 1, 23.3943, 53.7668, -6.52712, 79.7257, -66.9186, 88.0113
2.012, 1, 23.4357, 53.7486, -6.55283, 79.7859, -66.8681, 87.8711
2.015, 1, 23.4772, 53.7303, -6.57852, 79.846, -66.8176, 87.7309
2.019, 1, 23.5186, 53.7121, -6.60419, 79.9061, -66.7672, 87.5909
2.024, 1, 23.5599, 53.6938, -6.62984, 79.9662, -66.7168, 87.451
2.028, 1, 23.6013, 53.6756, -6.65547, 80.0261, -66.6664, 87.3113
2.031, 1, 23.6426, 53.6574, -6.68107, 80.0861, -66.6161, 87.1716
2.036, 1, 23.6838, 53.6392, -6.70666, 80.146, -66.5658, 87.032
2.04, 1, 23.7251, 53.6211, -6.73222, 80.2058, -66.5156, 86.8926
2.044, 1, 23.7663, 53.6029, -6.75777, 80.2656, -66.4654, 86.7533
2.048, 1, 23.8074, 53.5848, -6.78329, 80.3254, -66.4152, 86.614
2.051, 1, 23.8485, 53.5666, -6.80879, 80.3851, -66.3651, 86.4749
2.055, 1, 23.8896, 53.5485, -6.83427, 80.4447, -66.3151, 86.336
2.06, 1, 23.9307, 53.5304, -6.85974, 80.5043, -66.265, 86.1971
2.064, 1, 23.9717, 53.5124, -6.88518, 80.5639, -66.215, 86.0583
2.068, 1, 24.0127, 53.4943, -6.9106, 80.6234, -66.1651, 85.9197
2.071, 1, 24.0537, 53.4762, -6.936, 80.6828, -66.1152, 85.7811
2.076, 1, 24.0946, 53.4582, -6.96137, 80.7422, -66.0653, 85.6427
2.08, 1, 24.1355, 53.4402, -6.98673, 80.8016, -66.0155, 85.5044
2.084, 1, 24.1764, 53.4222, -7.01207, 80.8609, -65.9657, 85.3662
2.087, 1, 24.2172, 53.4042, -7.03739, 80.9202, -65.9159, 85.2281
2.092, 1, 24.258, 53.3862, -7.06269, 80.9794, -65.8662, 85.0901
2.096, 1, 24.2988, 53.3682, -7.08796, 81.0386, -65.8166, 84.9522
2.1, 1, 24.3395, 53.3503, -7.11322, 81.0977, -65.7669, 84.8145
2.104, 1, 24.3802, 53.3324, -7.13846, 81.1568, -65.7174, 84.6768
2.107, 1, 24.4209, 53.3144, -7.16367, 81.2158, -65.6678, 84.5393
2.111, 1, 24.4616, 53.2965, -7.18887, 81.2748, -65.6183, 84.4019
2.116, 1, 24.5022, 53.2786, -7.21404, 81.3337, -65.5688, 84.2645
2.12, 1, 24.5427, 53.2608, -7.2392, 81.3926, -65.5194, 84.1273
2.124, 1, 24.5833, 53.2429, -7.26434, 81.4515, -65.47, 83.9902
2.127, 1, 24.6238, 53.225, -7.28945, 81.5103, -65.4206, 83.8532
2.132, 1, 24.6643, 53.2072, -7.31455, 81.569, -65.3713, 83.7163
2.136, 1, 24.7047, 53.1894, -7.33963, 81.6277, -65.3221, 83.5796
2.14, 1, 24.7451, 53.1716, -7.36468, 81.6864, -65.2728, 83.4429
2.143, 1, 24.7855, 53.1538, -7.38972, 81.745, -65.2236, 83.3063
2.148, 1, 24.8259, 53.136, -7.41474, 81.8035, -65.1745, 83.1699
2.152, 1, 24.8662, 53.1182, -7.43974, 81.8621, -65.1253, 83.0335
2.156, 1, 24.9065, 53.1005, -7.46471, 81.9205, -65.0762, 82.8973
2.16, 1, 24.9467, 53.0827, -7.48967, 81.979, -65.0272, 82.7612
2.163, 1, 24.9869, 53.065, -7.51461, 82.0373, -64.9782, 82.6251
2.168, 1, 25.0271, 53.0473, -7.53953, 82.0957, -64.9292, 82.4892
2.172, 1, 25.0673, 53.0296, -7.56443, 82.154, -64.8803, 82.3534
2.176, 1, 25.1074, 53.0119, -7.58931, 82.2122, -64.8314, 82.2177
2.179, 1, 25.1475, 52.9943, -7.61418, 82.2704, -64.7826, 82.0821
2.184, 1, 25.1876, 52.9766, -7.63902, 82.3286, -64.7337, 81.9466
2.188, 1, 25.2276, 52.959, -7.66384, 82.3867, -64.685, 81.8112
2.192, 1, 25.2676, 52.9413, -7.68865, 82.4447, -64.6362, 81.6759
2.196, 1, 25.3076, 52.9237, -7.71343, 82.5027, -64.5875, 81.5407
2.199, 1, 25.3476, 52.9061, -7.7382, 82.5607, -64.5389, 81.4056
2.204, 1, 25.3875, 52.8885, -7.76294, 82.6187, -64.4902, 81.2706
2.208, 1, 25.4274, 52.871, -7.78767, 82.6765, -64.4416, 81.1358
2.212, 1, 25.4672, 52.8534, -7.81238, 82.7344, -64.3931, 81.001
2.216, 1, 25.507, 52.8358, -7.83707, 82.7922, -64.3446, 80.8663
2.219, 1, 25.5468, 52.8183, -7.86174, 82.8499, -64.2961, 80.7318
2.224, 1, 25.5866, 52.8008, -7.88639, 82.9076, -64.2477, 80.5973
2.228, 1, 25.6263, 52.7833, -7.91103, 82.9653, -64.1992, 80.4629
2.232, 1, 25.666, 52.7658, -7.93564, 83.0229, -64.1509, 80.3287
2.235, 1, 25.7057, 52.7483, -7.96023, 83.0805, -64.1025, 80.1945
2.24, 1, 25.7453, 52.7308, -7.98481, 83.138, -64.0543, 80.0605
2.244, 1, 25.7849, 52.7134, -8.00937, 83.1955, -64.006, 79.9265
2.248, 1, 25.8245, 52.6959, -8.03391, 83.253, -63.9578, 79.7927
2.252, 1, 25.864, 52.6785, -8.05843, 83.3104, -63.9096, 79.6589
2.255, 1, 25.9036, 52.6611, -8.08293, 83.3677, -63.8614, 79.5253
2.259, 1, 25.9431, 52.6437, -8.10742, 83.425, -63.8133, 79.3917
2.264, 1, 25.9825, 52.6263, -8.13188, 83.4823, -63.7653, 79.2583
2.268, 1, 26.0219, 52.6089, -8.15633, 83.5395, -63.7172, 79.1249
2.272, 1, 26.0613, 52.5916, -8.18076, 83.5967, -63.6692, 78.9917
2.275, 1, 26.1007, 52.5742, -8.20517, 83.6539, -63.6213, 78.8586
2.28, 1, 26.1401, 52.5569, -8.22956, 83.711, -63.5733, 78.7255
2.284, 1, 26.1794, 52.5396, -8.25393, 83.768, -63.5254, 78.5926
2.288, 1, 26.2187, 52.5223, -8.27829, 83.825, -63.4776, 78.4597
2.291, 1, 26.2579, 52.505, -8.30263, 83.882, -63.4297, 78.327
2.296, 1, 26.2971, 52.4877, -8.32695, 83.9389, -63.382, 78.1943
2.3, 1, 26.3363, 52.4704, -8.35125, 83.9958, -63.3342, 78.0618
2.304, 1, 26.3755, 52.4532, -8.37553, 84.0527, -63.2865, 77.9293
2.308, 1, 26.4146, 52.4359, -8.3998, 84.1095, -63.2388, 77.797
2.311, 1, 26.4537, 52.4187, -8.42404, 84.1662, -63.1912, 77.6647
2.316, 1, 26.4928, 52.4015, -8.44827, 84.2229, -63.1436, 77.5326
2.32, 1, 26.5319, 52.3843, -8.47248, 84.2796, -63.096, 77.4005
2.324, 1, 26.5709, 52.3671, -8.49668, 84.3363, -63.0484, 77.2685
2.328, 1, 26.6099, 52.3499, -8.52085, 84.3929, -63.0009, 77.1367
2.331, 1, 26.6488, 52.3327, -8.54501, 84.4494, -62.9535, 77.0049
2.336, 1, 26.6878, 52.3156, -8.56915, 84.5059, -62.906, 76.8733
2.34, 1, 26.7267, 52.2984, -8.59327, 84.5624, -62.8586, 76.7417
2.344, 1, 26.7655, 52.2813, -8.61737, 84.6188, -62.8113, 76.6102
2.347, 1, 26.8044, 52.2642, -8.64146, 84.6752, -62.7639, 76.4788
2.352, 1, 26.8432, 52.2471, -8.66553, 84.7315, -62.7166, 76.3475
2.356, 1, 26.882, 52.23, -8.68958, 84.7878, -62.6694, 76.2164
2.36, 1, 26.9208, 52.2129, -8.71362, 84.8441, -62.6221, 76.0853
2.364, 1, 26.9595, 52.1958, -8.73763, 84.9003, -62.575, 75.9543
2.367, 1, 26.9982, 52.1788, -8.76163, 84.9565, -62.5278, 75.8234
2.372, 1, 27.0369, 52.1617, -8.78561, 85.0126, -62.4807, 75.6926
2.376, 1, 27.0755, 52.1447, -8.80958, 85.0687, -62.4336, 75.5619
2.38, 1, 27.1142, 52.1277, -8.83352, 85.1248, -62.3865, 75.4312
2.383, 1, 27.1528, 52.1107, -8.85745, 85.1808, -62.3395, 75.3007
2.388, 1, 27.1913, 52.0937, -8.88137, 85.2368, -62.2925, 75.1703
2.392, 1, 27.2299, 52.0767, -8.90526, 85.2927, -62.2456, 75.04
2.396, 1, 27.2684, 52.0597, -8.92914, 85.3486, -62.1986, 74.9097
2.4, 1, 27.3069, 52.0427, -8.953, 85.4045, -62.1518, 74.7796
2.403, 1, 27.3453, 52.0258, -8.97684, 85.4603, -62.1049, 74.6495
2.408, 1, 27.3837, 52.0089, -9.00067, 85.5161, -62.0581, 74.5196
2.412, 1, 27.4221, 51.9919, -9.02448, 85.5718, -62.0113, 74.3897
2.416, 1, 27.4605, 51.975, -9.04827, 85.6275, -61.9645, 74.2599
2.42, 1, 27.4989, 51.9581, -9.07205, 85.6832, -61.9178, 74.1302
2.423, 1, 27.5372, 51.9413, -9.0958, 85.7388, -61.8711, 74.0007
2.428, 1, 27.5755, 51.9244, -9.11954, 85.7943, -61.8245, 73.8712
2.432, 1, 27.6137, 51.9075, -9.14327, 85.8499, -61.7779, 73.7418
2.436, 1, 27.652, 51.8907, -9.16698, 85.9054, -61.7313, 73.6124
2.439, 1, 27.6902, 51.8738, -9.19067, 85.9608, -61.6847, 73.4832
2.444, 1, 27.7284, 51.857, -9.21434, 86.0163, -61.6382, 73.3541
2.448, 1, 27.7665, 51.8402, -9.238, 86.0716, -61.5917, 73.2251
2.452, 1, 27.8046, 51.8234, -9.26164, 86.127, -61.5453, 73.0961
2.456, 1, 27.8428, 51.8066, -9.28526, 86.1823, -61.4989, 72.9673
2.459, 1, 27.8808, 51.7898, -9.30887, 86.2375, -61.4525, 72.8385
2.464, 1, 27.9189, 51.7731, -9.33246, 86.2928, -61.4061, 72.7098
2.468, 1, 27.9569, 51.7563, -9.35603, 86.3479, -61.3598, 72.5813
2.472, 1, 27.9949, 51.7396, -9.37959, 86.4031, -61.3135, 72.4528
2.476, 1, 28.0329, 51.7228, -9.40313, 86.4582, -61.2672, 72.3244
2.479, 1, 28.0708, 51.7061, -9.42665, 86.5133, -61.221, 72.1961
2.484, 1, 28.1087, 51.6894, -9.45016, 86.5683, -61.1748, 72.0678
2.488, 1, 28.1466, 51.6727, -9.47365, 86.6233, -61.1287, 71.9397
2.492, 1, 28.1845, 51.656, -9.49713, 86.6782, -61.0825, 71.8117
2.495, 1, 28.2223, 51.6394, -9.52059, 86.7332, -61.0364, 71.6837
2.5, 1, 28.2601, 51.6227, -9.54403, 86.788, -60.9904, 71.5558
2.504, 1, 28.2979, 51.606, -9.56745, 86.8429, -60.9443, 71.4281
2.508, 1, 28.3357, 51.5894, -9.59086, 86.8977, -60.8983, 71.3004
2.512, 1, 28.3734, 51.5728, -9.61426, 86.9524, -60.8524, 71.1728
2.515, 1, 28.4111, 51.5562, -9.63764, 87.0072, -60.8064, 71.0453
2.52, 1, 28.4488, 51.5396, -9.661, 87.0618, -60.7605, 70.9178
2.524, 1, 28.4864, 51.523, -9.68434, 87.1165, -60.7147, 70.7905
2.528, 1, 28.524, 51.5064, -9.70767, 87.1711, -60.6688, 70.6633
2.531, 1, 28.5617, 51.4898, -9.73099, 87.2257, -60.623, 70.5361
2.536, 1, 28.5992, 51.4733, -9.75428, 87.2802, -60.5772, 70.409
2.54, 1, 28.6368, 51.4567, -9.77757, 87.3347, -60.5315, 70.282
2.544, 1, 28.6743, 51.4402, -9.80083, 87.3892, -60.4858, 70.1551
2.548, 1, 28.7118, 51.4237, -9.82408, 87.4436, -60.4401, 70.0283
2.551, 1, 28.7493, 51.4071, -9.84732, 87.498, -60.3944, 69.9016
2.556, 1, 28.7867, 51.3906, -9.87053, 87.5524, -60.3488, 69.7749
2.56, 1, 28.8242, 51.3742, -9.89374, 87.6067, -60.3032, 69.6484
2.564, 1, 28.8615, 51.3577, -9.91693, 87.661, -60.2576, 69.5219
2.568, 1, 28.8989, 51.3412, -9.9401, 87.7152, -60.2121, 69.3955
2.571, 1, 28.9363, 51.3247, -9.96325, 87.7694, -60.1666, 69.2692
2.576, 1, 28.9736, 51.3083, -9.98639, 87.8236, -60.1211, 69.143
2.58, 1, 29.0109, 51.2919, -10.0095, 87.8777, -60.0757, 69.0169
2.584, 1, 29.0482, 51.2754, -10.0326, 87.9318, -60.0303, 68.8908
2.587, 1, 29.0854, 51.259, -10.0557, 87.9859, -59.9849, 68.7648
2.592, 1, 29.1226, 51.2426, -10.0788, 88.0399, -59.9395, 68.639
2.596, 1, 29.1598, 51.2262, -10.1019, 88.0939, -59.8942, 68.5132
2.6, 1, 29.197, 51.2099, -10.1249, 88.1478, -59.8489, 68.3875
2.604, 1, 29.2341, 51.1935, -10.1479, 88.2018, -59.8037, 68.2618
2.607, 1, 29.2713, 51.1771, -10.171, 88.2556, -59.7584, 68.1363
2.612, 1, 29.3084, 51.1608, -10.194, 88.3095, -59.7132, 68.0108
2.616, 1, 29.3454, 51.1444, -10.217, 88.3633, -59.6681, 67.8854
2.62, 1, 29.3825, 51.1281, -10.2399, 88.4171, -59.6229, 67.7601
2.624, 1, 29.4195, 51.1118, -10.2629, 88.4708, -59.5778, 67.6349
2.627, 1, 29.4565, 51.0955, -10.2858, 88.5245, -59.5327, 67.5098
2.632, 1, 29.4935, 51.0792, -10.3087, 88.5782, -59.4877, 67.3847
2.636, 1, 29.5305, 51.0629, -10.3317, 88.6318, -59.4427, 67.2598
2.64, 1, 29.5674, 51.0466, -10.3546, 88.6854, -59.3977, 67.1349
2.643, 1, 29.6043, 51.0304, -10.3774, 88.739, -59.3527, 67.0101
2.648, 1, 29.6412, 51.0141, -10.4003, 88.7925, -59.3078, 66.8854
2.652, 1, 29.678, 50.9979, -10.4232, 88.846, -59.2629, 66.7607
2.656, 1, 29.7149, 50.9817, -10.446, 88.8995, -59.218, 66.6362
2.66, 1, 29.7517, 50.9654, -10.4688, 88.9529, -59.1732, 66.5117
2.663, 1, 29.7884, 50.9492, -10.4916, 89.0063, -59.1283, 66.3873
2.668, 1, 29.8252, 50.933, -10.5144, 89.0596, -59.0836, 66.263
2.672, 1, 29.8619, 50.9168, -10.5372, 89.1129, -59.0388, 66.1387
2.676, 1, 29.8987, 50.9007, -10.5599, 89.1662, -58.9941, 66.0146
2.679, 1, 29.9353, 50.8845, -10.5827, 89.2195, -58.9494, 65.8905
2.684, 1, 29.972, 50.8683, -10.6054, 89.2727, -58.9047, 65.7665
2.688, 1, 30.0087, 50.8522, -10.6281, 89.3259, -58.8601, 65.6426
2.692, 1, 30.0453, 50.8361, -10.6509, 89.379, -58.8154, 65.5187
2.696, 1, 30.0819, 50.8199, -10.6735, 89.4321, -58.7709, 65.395
2.699, 1, 30.1184, 50.8038, -10.6962, 89.4852, -58.7263, 65.2713
2.704, 1, 30.155, 50.7877, -10.7189, 89.5383, -58.6818, 65.1477
2.708, 1, 30.1915, 50.7716, -10.7415, 89.5913, -58.6373, 65.0242
2.712, 1, 30.228, 50.7555, -10.7642, 89.6443, -58.5928, 64.9007
2.716, 1, 30.2645, 50.7395, -10.7868, 89.6972, -58.5484, 64.7774
2.719, 1, 30.3009, 50.7234, -10.8094, 89.7501, -58.5039, 64.6541
2.724, 1, 30.3374, 50.7073, -10.832, 89.803, -58.4596, 64.5309
2.728, 1, 30.3738, 50.6913, -10.8545, 89.8558, -58.4152, 64.4078
2.732, 1, 30.4102, 50.6753, -10.8771, 89.9087, -58.3709, 64.2847
2.735, 1, 30.4465, 50.6592, -10.8996, 89.9614, -58.3266, 64.1617
2.74, 1, 30.4829, 50.6432, -10.9222, 90.0142, -58.2823, 64.0388
2.744, 1, 30.5192, 50.6272, -10.9447, 90.0669, -58.238, 63.916
2.748, 1, 30.5555, 50.6112, -10.9672, 90.1196, -58.1938, 63.7933
2.752, 1, 30.5918, 50.5952, -10.9897, 90.1722, -58.1496, 63.6706
2.755, 1, 30.628, 50.5793, -11.0122, 90.2248, -58.1055, 63.548
2.76, 1, 30.6642, 50.5633, -11.0346, 90.2774, -58.0613, 63.4255
2.764, 1, 30.7004, 50.5474, -11.0571, 90.3299, -58.0172, 63.3031
2.768, 1, 30.7366, 50.5314, -11.0795, 90.3825, -57.9731, 63.1807
2.772, 1, 30.7728, 50.5155, -11.1019, 90.435, -57.9291, 63.0584
2.775, 1, 30.8089, 50.4996, -11.1243, 90.4874, -57.8851, 62.9362
2.78, 1, 30.845, 50.4837, -11.1467, 90.5398, -57.8411, 62.8141
2.784, 1, 30.8811, 50.4677, -11.1691, 90.5922, -57.7971, 62.692
2.788, 1, 30.9172, 50.4519, -11.1915, 90.6445, -57.7531, 62.5701
2.791, 1, 30.9532, 50.436, -11.2138, 90.6969, -57.7092, 62.4482
2.796, 1, 30.9893, 50.4201, -11.2361, 90.7492, -57.6653, 62.3263
2.8, 1, 31.0253, 50.4042, -11.2585, 90.8014, -57.6215, 62.2046
2.804, 1, 31.0612, 50.3884, -11.2808, 90.8536, -57.5776, 62.0829
2.808, 1, 31.0972, 50.3725, -11.3031, 90.9058, -57.5338, 61.9613
2.811, 1, 31.1331, 50.3567, -11.3253, 90.958, -57.4901, 61.8398
2.816, 1, 31.169, 50.3409, -11.3476, 91.0101, -57.4463, 61.7183
2.82, 1, 31.2049, 50.3251, -11.3699, 91.0622, -57.4026, 61.5969
2.824, 1, 31.2408, 50.3092, -11.3921, 91.1143, -57.3589, 61.4756
2.828, 1, 31.2766, 50.2935, -11.4143, 91.1663, -57.3152, 61.3544
2.831, 1, 31.3125, 50.2777, -11.4365, 91.2183, -57.2715, 61.2332
2.836, 1, 31.3483, 50.2619, -11.4587, 91.2703, -57.2279, 61.1121
2.84, 1, 31.3841, 50.2461, -11.4809, 91.3222, -57.1843, 60.9911
2.844, 1, 31.4198, 50.2304, -11.5031, 91.3741, -57.1408, 60.8702
2.847, 1, 31.4556, 50.2146, -11.5253, 91.426, -57.0972, 60.7493
2.852, 1, 31.4913, 50.1989, -11.5474, 91.4778, -57.0537, 60.6285
2.856, 1, 31.527, 50.1831, -11.5695, 91.5296, -57.0102, 60.5078
2.86, 1, 31.5626, 50.1674, -11.5917, 91.5814, -56.9667, 60.3872
2.864, 1, 31.5983, 50.1517, -11.6138, 91.6331, -56.9233, 60.2666
2.867, 1, 31.6339, 50.136, -11.6359, 91.6849, -56.8799, 60.1461
2.872, 1, 31.6695, 50.1203, -11.6579, 91.7365, -56.8365, 60.0257
2.876, 1, 31.7051, 50.1046, -11.68, 91.7882, -56.7932, 59.9053
2.88, 1, 31.7407, 50.089, -11.7021, 91.8398, -56.7498, 59.785
2.883, 1, 31.7762, 50.0733, -11.7241, 91.8914, -56.7065, 59.6648
2.888, 1, 31.8118, 50.0576, -11.7461, 91.943, -56.6632, 59.5447
2.892, 1, 31.8473, 50.042, -11.7681, 91.9945, -56.62, 59.4246
2.896, 1, 31.8828, 50.0264, -11.7901, 92.046, -56.5767, 59.3046
2.9, 1, 31.9182, 50.0107, -11.8121, 92.0975, -56.5335, 59.1847
2.903, 1, 31.9537, 49.9951, -11.8341, 92.1489, -56.4904, 59.0648
2.908, 1, 31.9891, 49.9795, -11.8561, 92.2003, -56.4472, 58.945
2.912, 1, 32.0245, 49.9639, -11.878, 92.2517, -56.4041, 58.8253
2.916, 1, 32.0599, 49.9483, -11.8999, 92.3031, -56.361, 58.7057
2.92, 1, 32.0952, 49.9327, -11.9219, 92.3544, -56.3179, 58.5861
2.923, 1, 32.1306, 49.9172, -11.9438, 92.4057, -56.2748, 58.4666
2.928, 1, 32.1659, 49.9016, -11.9657, 92.4569, -56.2318, 58.3472
2.932, 1, 32.2012, 49.8861, -11.9876, 92.5082, -56.1888, 58.2278
2.936, 1, 32.2364, 49.8705, -12.0094, 92.5593, -56.1458, 58.1085
2.939, 1, 32.2717, 49.855, -12.0313, 92.6105, -56.1029, 57.9893
2.944, 1, 32.3069, 49.8395, -12.0531, 92.6617, -56.06, 57.8701
2.948, 1, 32.3421, 49.8239, -12.075, 92.7128, -56.017, 57.751
2.952, 1, 32.3773, 49.8084, -12.0968, 92.7638, -55.9742, 57.632
2.956, 1, 32.4125, 49.7929, -12.1186, 92.8149, -55.9313, 57.5131
2.959, 1, 32.4477, 49.7774, -12.1404, 92.8659, -55.8885, 57.3942
2.964, 1, 32.4828, 49.762, -12.1622, 92.9169, -55.8457, 57.2754
2.968, 1, 32.5179, 49.7465, -12.1839, 92.9679, -55.8029, 57.1566
2.972, 1, 32.553, 49.731, -12.2057, 93.0188, -55.7602, 57.0379
2.976, 1, 32.5881, 49.7156, -12.2274, 93.0697, -55.7174, 56.9193
2.98, 1, 32.6231, 49.7001, -12.2492, 93.1206, -55.6747, 56.8008
2.984, 1, 32.6582, 49.6847, -12.2709, 93.1714, -55.632, 56.6823
2.988, 1, 32.6932, 49.6693, -12.2926, 93.2223, -55.5894, 56.5639
2.992, 1, 32.7282, 49.6538, -12.3143, 93.273, -55.5467, 56.4456
2.995, 1, 32.7631, 49.6384, -12.336, 93.3238, -55.5041, 56.3273
3, 1, 32.7981, 49.623, -12.3577, 93.3745, -55.4616, 56.2091
3.004, 1, 32.833, 49.6076, -12.3793, 93.4252, -55.419, 56.091
3.008, 1, 32.8679, 49.5922, -12.401, 93.4759, -55.3765, 55.9729
3.012, 1, 32.9028, 49.5769, -12.4226, 93.5266, -55.3339, 55.8549
3.015, 1, 32.9377, 49.5615, -12.4442, 93.5772, -55.2915, 55.7369
3.02, 1, 32.9726, 49.5461, -12.4658, 93.6278, -55.249, 55.6191
3.024, 1, 33.0074, 49.5308, -12.4874, 93.6783, -55.2065, 55.5013
3.028, 1, 33.0422, 49.5154, -12.509, 93.7289, -55.1641, 55.3835
3.031, 1, 33.077, 49.5001, -12.5306, 93.7794, -55.1217, 55.2659
3.036, 1, 33.1118, 49.4848, -12.5521, 93.8298, -55.0794, 55.1483
3.04, 1, 33.1465, 49.4695, -12.5737, 93.8803, -55.037, 55.0307
3.044, 1, 33.1813, 49.4542, -12.5952, 93.9307, -54.9947, 54.9132
3.048, 1, 33.216, 49.4389, -12.6168, 93.9811, -54.9524, 54.7958
3.051, 1, 33.2507, 49.4236, -12.6383, 94.0314, -54.9101, 54.6785
3.056, 1, 33.2854, 49.4083, -12.6598, 94.0818, -54.8679, 54.5612
3.06, 1, 33.32, 49.393, -12.6813, 94.1321, -54.8256, 54.444
3.064, 1, 33.3547, 49.3778, -12.7027, 94.1824, -54.7834, 54.3268
3.068, 1, 33.3893, 49.3625, -12.7242, 94.2326, -54.7413, 54.2097
3.071, 1, 33.4239, 49.3473, -12.7457, 94.2828, -54.6991, 54.0927
3.076, 1, 33.4585, 49.332, -12.7671, 94.333, -54.657, 53.9758
3.08, 1, 33.493, 49.3168, -12.7885, 94.3832, -54.6148, 53.8589
3.084, 1, 33.5276, 49.3016, -12.81, 94.4334, -54.5728, 53.742
3.087, 1, 33.5621, 49.2863, -12.8314, 94.4835, -54.5307, 53.6253
3.092, 1, 33.5966, 49.2711, -12.8528, 94.5336, -54.4887, 53.5086
3.096, 1, 33.6311, 49.2559, -12.8741, 94.5836, -54.4466, 53.3919
3.1, 1, 33.6656, 49.2407, -12.8955, 94.6336, -54.4046, 53.2753
3.104, 1, 33.7, 49.2256, -12.9169, 94.6836, -54.3627, 53.1588
3.107, 1, 33.7345, 49.2104, -12.9382, 94.7336, -54.3207, 53.0424
3.112, 1, 33.7689, 49.1952, -12.9596, 94.7836, -54.2788, 52.926
3.116, 1, 33.8033, 49.1801, -12.9809, 94.8335, -54.2369, 52.8097
3.12, 1, 33.8377, 49.1649, -13.0022, 94.8834, -54.195, 52.6934
3.124, 1, 33.872, 49.1498, -13.0235, 94.9333, -54.1531, 52.5772
3.128, 1, 33.9064, 49.1347, -13.0448, 94.9831, -54.1113, 52.4611
3.132, 1, 33.9407, 49.1195, -13.0661, 95.0329, -54.0695, 52.345
3.136, 1, 33.975, 49.1044, -13.0874, 95.0827, -54.0277, 52.229
3.14, 1, 34.0093, 49.0893, -13.1086, 95.1325, -53.9859, 52.113
3.143, 1, 34.0435, 49.0742, -13.1299, 95.1822, -53.9442, 51.9972
3.148, 1, 34.0778, 49.0591, -13.1511, 95.2319, -53.9024, 51.8813
3.152, 1, 34.112, 49.044, -13.1723, 95.2816, -53.8607, 51.7656
3.156, 1, 34.1462, 49.0289, -13.1935, 95.3313, -53.819, 51.6499
3.16, 1, 34.1804, 49.0139, -13.2147, 95.3809, -53.7774, 51.5342
3.163, 1, 34.2146, 48.9988, -13.2359, 95.4305, -53.7357, 51.4187
3.168, 1, 34.2487, 48.9838, -13.2571, 95.4801, -53.6941, 51.3031
3.172, 1, 34.2829, 48.9687, -13.2783, 95.5296, -53.6525, 51.1877
3.176, 1, 34.317, 48.9537, -13.2994, 95.5791, -53.611, 51.0723
3.179, 1, 34.3511, 48.9387, -13.3206, 95.6286, -53.5694, 50.9569
3.184, 1, 34.3852, 48.9236, -13.3417, 95.6781, -53.5279, 50.8417
3.188, 1, 34.4193, 48.9086, -13.3628, 95.7276, -53.4864, 50.7265
3.192, 1, 34.4533, 48.8936, -13.3839, 95.777, -53.4449, 50.6113
3.196, 1, 34.4873, 48.8786, -13.405, 95.8264, -53.4034, 50.4962
3.199, 1, 34.5214, 48.8636, -13.4261, 95.8758, -53.362, 50.3812
3.204, 1, 34.5554, 48.8487, -13.4472, 95.9251, -53.3206, 50.2662
3.208, 1, 34.5893, 48.8337, -13.4683, 95.9744, -53.2792, 50.1513
3.212, 1, 34.6233, 48.8187, -13.4893, 96.0237, -53.2378, 50.0364
3.216, 1, 34.6572, 48.8038, -13.5104, 96.073, -53.1964, 49.9217
3.22, 1, 34.6912, 48.7888, -13.5314, 96.1222, -53.1551, 49.8069
3.224, 1, 34.7251, 48.7739, -13.5524, 96.1714, -53.1138, 49.6922
3.228, 1, 34.759, 48.7589, -13.5734, 96.2206, -53.0725, 49.5776
3.232, 1, 34.7928, 48.744, -13.5944, 96.2698, -53.0312, 49.4631
3.235, 1, 34.8267, 48.7291, -13.6154, 96.3189, -52.99, 49.3486
3.24, 1, 34.8605, 48.7142, -13.6364, 96.368, -52.9487, 49.2341
3.244, 1, 34.8944, 48.6993, -13.6574, 96.4171, -52.9075, 49.1198
3.248, 1, 34.9282, 48.6844, -13.6783, 96.4662, -52.8664, 49.0054
3.252, 1, 34.9619, 48.6695, -13.6993, 96.5152, -52.8252, 48.8912
3.255, 1, 34.9957, 48.6546, -13.7202, 96.5643, -52.784, 48.777
3.26, 1, 35.0295, 48.6397, -13.7412, 96.6132, -52.7429, 48.6628
3.264, 1, 35.0632, 48.6249, -13.7621, 96.6622, -52.7018, 48.5487
3.268, 1, 35.0969, 48.61, -13.783, 96.7111, -52.6607, 48.4347
3.272, 1, 35.1306, 48.5952, -13.8039, 96.7601, -52.6197, 48.3207
3.276, 1, 35.1643, 48.5803, -13.8248, 96.809, -52.5786, 48.2068
3.28, 1, 35.198, 48.5655, -13.8456, 96.8578, -52.5376, 48.093
3.284, 1, 35.2316, 48.5507, -13.8665, 96.9067, -52.4966, 47.9792
3.288, 1, 35.2653, 48.5358, -13.8874, 96.9555, -52.4557, 47.8654
3.291, 1, 35.2989, 48.521, -13.9082, 97.0043, -52.4147, 47.7517
3.296, 1, 35.3324, 48.5062, -13.929, 97.053, -52.3738, 47.6381
3.3, 1, 35.3657, 48.4916, -13.9499, 97.1018, -52.3329, 47.5246
3.304, 1, 35.3986, 48.477, -13.9707, 97.1505, -52.292, 47.4111
3.308, 1, 35.4309, 48.4628, -13.9916, 97.1991, -52.2512, 47.2978
3.312, 1, 35.4624, 48.4489, -14.0126, 97.2476, -52.2105, 47.1847
3.316, 1, 35.493, 48.4354, -14.0335, 97.2959, -52.17, 47.072
3.32, 1, 35.5226, 48.4226, -14.0545, 97.3439, -52.1297, 46.96
3.324, 1, 35.551, 48.4104, -14.0754, 97.3915, -52.0898, 46.8491
3.328, 1, 35.5784, 48.3987, -14.0961, 97.4384, -52.0505, 46.7397
3.332, 1, 35.6047, 48.3877, -14.1166, 97.4844, -52.012, 46.6324
3.336, 1, 35.6301, 48.3771, -14.1366, 97.5293, -51.9745, 46.5277
3.34, 1, 35.6544, 48.3671, -14.156, 97.5726, -51.9382, 46.4265
3.344, 1, 35.6777, 48.3574, -14.1747, 97.6143, -51.9033, 46.3294
3.347, 1, 35.7, 48.3483, -14.1924, 97.6538, -51.8702, 46.237
3.352, 1, 35.7212, 48.3395, -14.209, 97.6911, -51.839, 46.15
3.356, 1, 35.7414, 48.3311, -14.2245, 97.7258, -51.8099, 46.0691
3.36, 1, 35.7605, 48.3231, -14.2386, 97.7577, -51.7832, 45.9946
3.364, 1, 35.7788, 48.3153, -14.2513, 97.7868, -51.7589, 45.927
3.368, 1, 35.7962, 48.3077, -14.2625, 97.8127, -51.7371, 45.8664
3.372, 1, 35.8129, 48.3002, -14.2721, 97.8357, -51.7178, 45.813
3.376, 1, 35.8289, 48.2929, -14.2803, 97.8556, -51.701, 45.7666
3.38, 1, 35.8439, 48.2858, -14.287, 97.8727, -51.6866, 45.7269
3.383, 1, 35.8579, 48.2791, -14.2925, 97.8871, -51.6745, 45.6935
3.388, 1, 35.8707, 48.2729, -14.2969, 97.899, -51.6643, 45.6658
3.392, 2, 35.8822, 48.2672, -14.3002, 97.9087, -51.6561, 45.6433
3.396, 2, 35.8924, 48.2621, -14.3028, 97.9165, -51.6495, 45.6253
3.4, 2, 35.9014, 48.2575, -14.3046, 97.9227, -51.6442, 45.6111
3.403, 2, 35.9095, 48.2535, -14.3059, 97.9274, -51.6402, 45.6003
3.408, 2, 35.9166, 48.25, -14.3068, 97.9309, -51.6371, 45.5922
3.412, 2, 35.9228, 48.247, -14.3073, 97.9335, -51.6349, 45.5862
3.416, 2, 35.9281, 48.2445, -14.3076, 97.9354, -51.6332, 45.5819
3.42, 2, 35.9326, 48.2424, -14.3077, 97.9367, -51.6321, 45.5789
3.424, 2, 35.9361, 48.2408, -14.3078, 97.9376, -51.6313, 45.5768
3.428, 2, 35.9387, 48.2397, -14.3078, 97.9383, -51.6307, 45.5754
3.432, 2, 35.9406, 48.2389, -14.3078, 97.9387, -51.6303, 45.5745
3.436, 2, 35.9418, 48.2383, -14.3078, 97.939, -51.6301, 45.5738
3.439, 2, 35.9427, 48.2379, -14.3078, 97.9392, -51.6299, 45.5734
3.444, 2, 35.9433, 48.2377, -14.3078, 97.9393, -51.6298, 45.5731
3.448, 2, 35.9437, 48.2375, -14.3078, 97.9394, -51.6297, 45.5729
3.452, 2, 35.944, 48.2374, -14.3078, 97.9394, -51.6297, 45.5727
3.456, 2, 35.9442, 48.2373, -14.3078, 97.9395, -51.6296, 45.5726
3.46, 2, 35.9443, 48.2372, -14.3078, 97.9395, -51.6296, 45.5726
3.464, 2, 35.9444, 48.2372, -14.3078, 97.9395, -51.6296, 45.5725
3.468, 2, 35.9444, 48.2372, -14.3078, 97.9395, -51.6296, 45.5725
3.472, 2, 35.9445, 48.2372, -14.3078, 97.9396, -51.6296, 45.5725
3.476, 2, 35.9445, 48.2372, -14.3078, 97.9396, -51.6296, 45.5725
3.48, 2, 35.9445, 48.2371, -14.3078, 97.9396, -51.6296, 45.5725
3.484, 2, 35.9445, 48.2371, -14.3078, 97.9396, -51.6296, 45.5725
3.488, 2, 35.9445, 48.2371, -14.3078, 97.9396, -51.6296, 45.5724
3.492, 2, 35.9445, 48.2371, -14.3078, 97.9396, -51.6295, 45.5724
3.495, 2, 35.9445, 48.2371, -14.3078, 97.9396, -51.6295, 45.5724
3.5, 2, 35.9445, 48.2371, -14.3078, 97.9396, -51.6295, 45.5724
3.504, 2, 35.9445, 48.2371, -14.3078, 97.9396, -51.6295, 45.5724
3.508, 2, 35.9445, 48.2371, -14.3078, 97.9396, -51.6295, 45.5724
3.512, 2, 35.9445, 48.2371, -14.3078, 97.9396, -51.6295, 45.5724
3.516, 2, 35.9445, 48.2371, -14.3078, 97.9396, -51.6295, 45.5724
3.52, 2, 35.9445, 48.2371, -14.3078, 97.9396, -51.6295, 45.5724
3.524, 2, 35.9445, 48.2371, -14.3078, 97.9396, -51.6295, 45.5724
3.528, 2, 35.9445, 48.2371, -14.3078, 97.9396, -51.6295, 45.5724
3.531, 2, 35.9445, 48.2371, -14.3078, 97.9396, -51.6295, 45.5724
3.536, 2, 35.9445, 48.2371, -14.3078, 97.9396, -51.6295, 45.5724
3.54, 2, 35.9445, 48.2371, -14.3078, 97.9396, -51.6295, 45.5724
3.544, 2, 35.9445, 48.2371, -14.3078, 97.9396, -51.6295, 45.5724
3.548, 2, 35.9445, 48.2371, -14.3078, 97.9396, -51.6295, 45.5724
3.552, 2, 35.9445, 48.2371, -14.3078, 97.9396, -51.6295, 45.5724
3.556, 2, 35.9445, 48.2371, -14.3078, 97.9396, -51.6295, 45.5724
3.56, 2, 35.9445, 48.2371, -14.3078, 97.9396, -51.6295, 45.5724
3.564, 2, 35.9445, 48.2371, -14.3078, 97.9396, -51.6295, 45.5724
3.568, 2, 35.9445, 48.2371, -14.3078, 97.9396, -51.6295, 45.5724
3.572, 2, 35.9445, 48.2371, -14.3078, 97.9396, -51.6295, 45.5724
3.576, 2, 35.9445, 48.2371, -14.3078, 97.9396, -51.6295, 45.5724
3.58, 2, 35.9445, 48.2371, -14.3078, 97.9396, -51.6295, 45.5724
3.584, 2, 35.9445, 48.2371, -14.3078, 97.9396, -51.6295, 45.5724
3.587, 2, 35.9445, 48.2371, -14.3078, 97.9396, -51.6295, 45.5724
3.592, 2, 35.9445, 48.2371, -14.3078, 97.9396, -51.6295, 45.5724
3.596, 2, 35.9445, 48.2371, -14.3078, 97.9396, -51.6295, 45.5724
3.6, 2, 35.9445, 48.2371, -14.3078, 97.9396, -51.6295, 45.5724
3.604, 2, 35.9445, 48.2371, -14.3078, 97.9396, -51.6295, 45.5724
3.608, 2, 35.9445, 48.2371, -14.3078, 97.9396, -51.6295, 45.5724
3.612, 2, 35.9445, 48.2371, -14.3078, 97.9396, -51.6295, 45.5724
3.616, 2, 35.9445, 48.2371, -14.3078, 97.9396, -51.6295, 45.5724
3.62, 2, 35.9445, 48.2371, -14.3078, 97.9396, -51.6295, 45.5724
3.624, 2, 35.9445, 48.2371, -14.3078, 97.9396, -51.6295, 45.5724
3.628, 2, 35.9445, 48.2371, -14.3078, 97.9396, -51.6295, 45.5724
3.632, 2, 35.9445, 48.2371, -14.3078, 97.9396, -51.6295, 45.5724
3.636, 2, 35.9445, 48.2371, -14.3078, 97.9396, -51.6295, 45.5724
3.64, 2, 35.9445, 48.2371, -14.3078, 97.9396, -51.6295, 45.5724
3.644, 2, 35.9445, 48.2371, -14.3078, 97.9396, -51.6295, 45.5724
3.648, 2, 35.9445, 48.2371, -14.3078, 97.9396, -51.6295, 45.5724
3.652, 2, 35.9445, 48.2371, -14.3078, 97.9396, -51.6295, 45.5724
3.656, 2, 35.9445, 48.2371, -14.3078, 97.9396, -51.6295, 45.5724
3.66, 2, 35.9445, 48.2371, -14.3078, 97.9396, -51.6295, 45.5724
3.664, 2, 35.9445, 48.2371, -14.3078, 97.9396, -51.6295, 45.5724
3.668, 2, 35.9445, 48.2371, -14.3078, 97.9396, -51.6295, 45.5724
3.672, 2, 35.9445, 48.2371, -14.3078, 97.9396, -51.6295, 45.5724
3.676, 2, 35.9445, 48.2371, -14.3078, 97.9396, -51.6295, 45.5724
3.679, 2, 35.9445, 48.2371, -14.3078, 97.9396, -51.6295, 45.5724
3.684, 2, 35.9445, 48.2371, -14.3078, 97.9396, -51.6295, 45.5724
3.688, 2, 35.9445, 48.2371, -14.3078, 97.9396, -51.6295, 45.5724
3.692, 2, 35.9445, 48.2371, -14.3078, 97.9396, -51.6295, 45.5724
3.696, 2, 35.9445, 48.2371, -14.3078, 97.9396, -51.6295, 45.5724
3.7, 2, 35.9445, 48.2371, -14.3078, 97.9396, -51.6295, 45.5724
3.704, 2, 35.9445, 48.2371, -14.3078, 97.9396, -51.6295, 45.5724
3.708, 2, 35.9445, 48.2371, -14.3078, 97.9396, -51.6295, 45.5724
3.712, 2, 35.9445, 48.2371, -14.3078, 97.9396, -51.6295, 45.5724
3.716, 2, 35.9445, 48.2371, -14.3078, 97.9396, -51.6295, 45.5724
3.72, 2, 35.9445, 48.2371, -14.3078, 97.9396, -51.6295, 45.5724
3.724, 2, 35.9445, 48.2371, -14.3078, 97.9396, -51.6295, 45.5724
3.728, 2, 35.9445, 48.2371, -14.3078, 97.9396, -51.6295, 45.5724
3.732, 2, 35.9445, 48.2371, -14.3078, 97.9396, -51.6295, 45.5724
3.735, 2, 35.9445, 48.2371, -14.3078, 97.9396, -51.6295, 45.5724
3.74, 2, 35.9445, 48.2371, -14.3078, 97.9396, -51.6295, 45.5724
3.744, 2, 35.9445, 48.2371, -14.3078, 97.9396, -51.6295, 45.5724
3.748, 2, 35.9445, 48.2371, -14.3078, 97.9396, -51.6295, 45.5724
3.752, 2, 35.9445, 48.2371, -14.3078, 97.9396, -51.6295, 45.5724
3.756, 2, 35.9445, 48.2371, -14.3078, 97.9396, -51.6295, 45.5724
3.76, 2, 35.9445, 48.2371, -14.3078, 97.9396, -51.6295, 45.5724
3.764, 2, 35.9445, 48.2371, -14.3078, 97.9396, -51.6295, 45.5724
3.768, 2, 35.9445, 48.2371, -14.3078, 97.9396, -51.6295, 45.5724
3.772, 2, 35.9445, 48.2371, -14.3078, 97.9396, -51.6295, 45.5724
3.776, 2, 35.9445, 48.2371, -14.3078, 97.9396, -51.6295, 45.5724
3.78, 2, 35.9445, 48.2371, -14.3078, 97.9396, -51.6295, 45.5724
3.784, 2, 35.9445, 48.2371, -14.3078, 97.9396, -51.6295, 45.5724
3.788, 2, 35.9445, 48.2371, -14.3078, 97.9396, -51.6295, 45.5724
3.792, 2, 35.9445, 48.2371, -14.3078, 97.9396, -51.6295, 45.5724
3.796, 2, 35.9445, 48.2371, -14.3078, 97.9396, -51.6295, 45.5724
3.8, 2, 35.9445, 48.2371, -14.3078, 97.9396, -51.6295, 45.5724
3.804, 2, 35.9445, 48.2371, -14.3078, 97.9396, -51.6295, 45.5724
3.808, 2, 35.9445, 48.2371, -14.3078, 97.9396, -51.6295, 45.5724
3.812, 2, 35.9445, 48.2371, -14.3078, 97.9396, -51.6295, 45.5724
3.816, 2, 35.9445, 48.2371, -14.3078, 97.9396, -51.6295, 45.5724
3.82, 2, 35.9445, 48.2371, -14.3078, 97.9396, -51.6295, 45.5724
3.824, 2, 35.9445, 48.2371, -14.3078, 97.9396, -51.6295, 45.5724
3.828, 2, 35.9445, 48.2371, -14.3078, 97.9396, -51.6295, 45.5724
3.832, 2, 35.9445, 48.2371, -14.3078, 97.9396, -51.6295, 45.5724
3.836, 2, 35.9445, 48.2371, -14.3078, 97.9396, -51.6295, 45.5724
3.84, 2, 35.9445, 48.2371, -14.3078, 97.9396, -51.6295, 45.5724
3.844, 2, 35.9445, 48.2371, -14.3078, 97.9396, -51.6295, 45.5724
3.848, 2, 35.9445, 48.2371, -14.3078, 97.9396, -51.6295, 45.5724
3.852, 2, 35.9445, 48.2371, -14.3078, 97.9396, -51.6295, 45.5724
3.856, 2, 35.9445, 48.2371, -14.3078, 97.9396, -51.6295, 45.5724
3.86, 2, 35.9445, 48.2371, -14.3078, 97.9396, -51.6295, 45.5724
3.864, 2, 35.9445, 48.2371, -14.3078, 97.9396, -51.6295, 45.5724
3.868, 2, 35.9445, 48.2371, -14.3078, 97.9396, -51.6295, 45.5724
3.872, 2, 35.9445, 48.2371, -14.3078, 97.9396, -51.6295, 45.5724
3.876, 2, 35.9445, 48.2371, -14.3078, 97.9396, -51.6295, 45.5724
3.88, 2, 35.9445, 48.2371, -14.3078, 97.9396, -51.6295, 45.5724
3.884, 2, 35.9445, 48.2371, -14.3078, 97.9396, -51.6295, 45.5724
3.888, 2, 35.9445, 48.2371, -14.3078, 97.9396, -51.6295, 45.5724
3.892, 2, 35.9445, 48.2371, -14.3078, 97.9396, -51.6295, 45.5724
3.896, 2, 35.9445, 48.2371, -14.3078, 97.9396, -51.6295, 45.5724
3.9, 2, 35.9445, 48.2371, -14.3078, 97.9396, -51.6295, 45.5724
3.904, 2, 35.9445, 48.2371, -14.3078, 97.9396, -51.6295, 45.5724
3.908, 2, 35.9445, 48.2371, -14.3078, 97.9396, -51.6295, 45.5724
3.912, 2, 35.9445, 48.2371, -14.3078, 97.9396, -51.6295, 45.5724
3.916, 2, 35.9445, 48.2371, -14.3078, 97.9396, -51.6295, 45.5724
3.92, 2, 35.9445, 48.2371, -14.3078, 97.9396, -51.6295, 45.5724
3.924, 2, 35.9445, 48.2371, -14.3078, 97.9396, -51.6295, 45.5724
3.928, 2, 35.9445, 48.2371, -14.3078, 97.9396, -51.6295, 45.5724
3.932, 2, 35.9445, 48.2371, -14.3078, 97.9396, -51.6295, 45.5724
3.936, 2, 35.9445, 48.2371, -14.3078, 97.9396, -51.6295, 45.5724
3.94, 2, 35.9445, 48.2371, -14.3078, 97.9396, -51.6295, 45.5724
3.944, 2, 35.9445, 48.2371, -14.3078, 97.9396, -51.6295, 45.5724
3.948, 2, 35.9445, 48.2371, -14.3078, 97.9396, -51.6295, 45.5724
3.952, 2, 35.9445, 48.2371, -14.3078, 97.9396, -51.6295, 45.5724
3.956, 2, 35.9445, 48.2371, -14.3078, 97.9396, -51.6295, 45.5724
3.96, 2, 35.9445, 48.2371, -14.3078, 97.9396, -51.6295, 45.5724
3.964, 2, 35.9445, 48.2371, -14.3078, 97.9396, -51.6295, 45.5724
3.968, 2, 35.9445, 48.2371, -14.3078, 97.9396, -51.6295, 45.5724
3.972, 2, 35.9445, 48.2371, -14.3078, 97.9396, -51.6295, 45.5724
3.976, 2, 35.9445, 48.2371, -14.3078, 97.9396, -51.6295, 45.5724
3.98, 2, 35.9445, 48.2371, -14.3078, 97.9396, -51.6295, 45.5724
3.984, 2, 35.9445, 48.2371, -14.3078, 97.9396, -51.6295, 45.5724
3.988, 2, 35.9445, 48.2371, -14.3078, 97.9396, -51.6295, 45.5724
3.992, 2, 35.9445, 48.2371, -14.3078, 97.9396, -51.6295, 45.5724
3.996, 2, 35.9445, 48.2371, -14.3078, 97.9396, -51.6295, 45.5724
3.999, 2, 35.9445, 48.2371, -14.3078, 97.9396, -51.6295, 45.5724
4.004, 2, 35.9445, 48.2371, -14.3078, 97.9396, -51.6295, 45.5724
4.008, 2, 35.9445, 48.2371, -14.3078, 97.9396, -51.6295, 45.5724
4.012, 2, 35.9445, 48.2371, -14.3078, 97.9396, -51.6295, 45.5724
4.016, 2, 35.9445, 48.2371, -14.3078, 97.9396, -51.6295, 45.5724
4.02, 2, 35.9445, 48.2371, -14.3078, 97.9396, -51.6295, 45.5724
4.024, 2, 35.9445, 48.2371, -14.3078, 97.9396, -51.6295, 45.5724
4.028, 2, 35.9445, 48.2371, -14.3078, 97.9396, -51.6295, 45.5724
4.032, 2, 35.9445, 48.2371, -14.3078, 97.9396, -51.6295, 45.5724
4.036, 2, 35.9445, 48.2371, -14.3078, 97.9396, -51.6295, 45.5724
4.04, 2, 35.9445, 48.2371, -14.3078, 97.9396, -51.6295, 45.5724
4.044, 2, 35.9445, 48.2371, -14.3078, 97.9396, -51.6295, 45.5724
4.048, 2, 35.9445, 48.2371, -14.3078, 97.9396, -51.6295, 45.5724
4.052, 2, 35.9445, 48.2371, -14.3078, 97.9396, -51.6295, 45.5724
4.056, 2, 35.9445, 48.2371, -14.3078, 97.9396, -51.6295, 45.5724
4.06, 2, 35.9445, 48.2371, -14.3078, 97.9396, -51.6295, 45.5724
4.064, 2, 35.9445, 48.2371, -14.3078, 97.9396, -51.6295, 45.5724
4.068, 2, 35.9445, 48.2371, -14.3078, 97.9396, -51.6295, 45.5724
4.072, 2, 35.9445, 48.2371, -14.3078, 97.9396, -51.6295, 45.5724
4.076, 2, 35.9445, 48.2371, -14.3078, 97.9396, -51.6295, 45.5724
4.08, 2, 35.9445, 48.2371, -14.3078, 97.9396, -51.6295, 45.5724
4.084, 2, 35.9445, 48.2371, -14.3078, 97.9396, -51.6295, 45.5724
4.088, 2, 35.9445, 48.2371, -14.3078, 97.9396, -51.6295, 45.5724
4.092, 2, 35.9445, 48.2371, -14.3078, 97.9396, -51.6295, 45.5724
4.096, 2, 35.9445, 48.2371, -14.3078, 97.9396, -51.6295, 45.5724
4.1, 2, 35.9445, 48.2371, -14.3078, 97.9396, -51.6295, 45.5724
4.104, 2, 35.9445, 48.2371, -14.3078, 97.9396, -51.6295, 45.5724
4.108, 2, 35.9445, 48.2371, -14.3078, 97.9396, -51.6295, 45.5724
4.112, 2, 35.9445, 48.2371, -14.3078, 97.9396, -51.6295, 45.5724
4.116, 2, 35.9445, 48.2371, -14.3078, 97.9396, -51.6295, 45.5724
4.12, 2, 35.9445, 48.2371, -14.3078, 97.9396, -51.6295, 45.5724
4.124, 2, 35.9445, 48.2371, -14.3078, 97.9396, -51.6295, 45.5724
4.128, 2, 35.9445, 48.2371, -14.3078, 97.9396, -51.6295, 45.5724
4.132, 2, 35.9445, 48.2371, -14.3078, 97.9396, -51.6295, 45.5724
4.136, 2, 35.9445, 48.2371, -14.3078, 97.9396, -51.6295, 45.5724
4.14, 2, 35.9445, 48.2371, -14.3078, 97.9396, -51.6295, 45.5724
4.144, 2, 35.9445, 48.2371, -14.3078, 97.9396, -51.6295, 45.5724
4.148, 2, 35.9445, 48.2371, -14.3078, 97.9396, -51.6295, 45.5724
4.152, 2, 35.9445, 48.2371, -14.3078, 97.9396, -51.6295, 45.5724
4.156, 2, 35.9445, 48.2371, -14.3078, 97.9396, -51.6295, 45.5724
4.16, 2, 35.9445, 48.2371, -14.3078, 97.9396, -51.6295, 45.5724
4.164, 2, 35.9445, 48.2371, -14.3078, 97.9396, -51.6295, 45.5724
4.168, 2, 35.9445, 48.2371, -14.3078, 97.9396, -51.6295, 45.5724
4.172, 2, 35.9445, 48.2371, -14.3078, 97.9396, -51.6295, 45.5724
4.176, 2, 35.9445, 48.2371, -14.3078, 97.9396, -51.6295, 45.5724
4.18, 2, 35.9445, 48.2371, -14.3078, 97.9396, -51.6295, 45.5724
4.184, 2, 35.9445, 48.2371, -14.3078, 97.9396, -51.6295, 45.5724
4.188, 2, 35.9445, 48.2371, -14.3078, 97.9396, -51.6295, 45.5724
4.192, 2, 35.9445, 48.2371, -14.3078, 97.9396, -51.6295, 45.5724
4.196, 2, 35.9445, 48.2371, -14.3078, 97.9396, -51.6295, 45.5724
4.2, 2, 35.9445, 48.2371, -14.3078, 97.9396, -51.6295, 45.5724
4.204, 2, 35.9445, 48.2371, -14.3078, 97.9396, -51.6295, 45.5724
4.208, 2, 35.9445, 48.2371, -14.3078, 97.9396, -51.6295, 45.5724
4.212, 2, 35.9445, 48.2371, -14.3078, 97.9396, -51.6295, 45.5724
4.216, 2, 35.9445, 48.2371, -14.3078, 97.9396, -51.6295, 45.5724
4.22, 2, 35.9445, 48.2371, -14.3078, 97.9396, -51.6295, 45.5724
4.224, 2, 35.9445, 48.2371, -14.3078, 97.9396, -51.6295, 45.5724
4.228, 2, 35.9445, 48.2371, -14.3078, 97.9396, -51.6295, 45.5724
4.232, 2, 35.9445, 48.2371, -14.3078, 97.9396, -51.6295, 45.5724
4.236, 2, 35.9445, 48.2371, -14.3078, 97.9396, -51.6295, 45.5724
4.24, 2, 35.9445, 48.2371, -14.3078, 97.9396, -51.6295, 45.5724
4.244, 2, 35.9445, 48.2371, -14.3078, 97.9396, -51.6295, 45.5724
4.248, 2, 35.9445, 48.2371, -14.3078, 97.9396, -51.6295, 45.5724
4.252, 2, 35.9445, 48.2371, -14.3078, 97.9396, -51.6295, 45.5724
4.256, 2, 35.9445, 48.2371, -14.3078, 97.9396, -51.6295, 45.5724
4.26, 2, 35.9445, 48.2371, -14.3078, 97.9396, -51.6295, 45.5724
4.264, 2, 35.9445, 48.2371, -14.3078, 97.9396, -51.6295, 45.5724
4.268, 2, 35.9445, 48.2371, -14.3078, 97.9396, -51.6295, 45.5724
4.272, 2, 35.9445, 48.2371, -14.3078, 97.9396, -51.6295, 45.5724
4.276, 2, 35.9445, 48.2371, -14.3078, 97.9396, -51.6295, 45.5724
4.28, 2, 35.9445, 48.2371, -14.3078, 97.9396, -51.6295, 45.5724
4.284, 2, 35.9445, 48.2371, -14.3078, 97.9396, -51.6295, 45.5724
4.288, 2, 35.9445, 48.2371, -14.3078, 97.9396, -51.6295, 45.5724
4.292, 2, 35.9445, 48.2371, -14.3078, 97.9396, -51.6295, 45.5724
4.296, 2, 35.9445, 48.2371, -14.3078, 97.9396, -51.6295, 45.5724
4.3, 2, 35.9445, 48.2371, -14.3078, 97.9396, -51.6295, 45.5724
4.304, 2, 35.9445, 48.2371, -14.3078, 97.9396, -51.6295, 45.5724
4.308, 2, 35.9445, 48.2371, -14.3078, 97.9396, -51.6295, 45.5724
4.312, 2, 35.9445, 48.2371, -14.3078, 97.9396, -51.6295, 45.5724
4.316, 2, 35.9445, 48.2371, -14.3078, 97.9396, -51.6295, 45.5724
4.32, 2, 35.9445, 48.2371, -14.3078, 97.9396, -51.6295, 45.5724
4.324, 2, 35.9445, 48.2371, -14.3078, 97.9396, -51.6295, 45.5724
4.328, 2, 35.9445, 48.2371, -14.3078, 97.9396, -51.6295, 45.5724
4.332, 2, 35.9445, 48.2371, -14.3078, 97.9396, -51.6295, 45.5724
4.336, 2, 35.9445, 48.2371, -14.3078, 97.9396, -51.6295, 45.5724
4.34, 2, 35.9445, 48.2371, -14.3078, 97.9396, -51.6295, 45.5724
4.344, 2, 35.9445, 48.2371, -14.3078, 97.9396, -51.6295, 45.5724
4.348, 2, 35.9445, 48.2371, -14.3078, 97.9396, -51.6295, 45.5724
4.352, 2, 35.9445, 48.2371, -14.3078, 97.9396, -51.6295, 45.5724
4.356, 2, 35.9445, 48.2371, -14.3078, 97.9396, -51.6295, 45.5724
4.36, 2, 35.9445, 48.2371, -14.3078, 97.9396, -51.6295, 45.5724
4.364, 2, 35.9445, 48.2371, -14.3078, 97.9396, -51.6295, 45.5724
4.368, 2, 35.9445, 48.2371, -14.3078, 97.9396, -51.6295, 45.5724
4.372, 2, 35.9445, 48.2371, -14.3078, 97.9396, -51.6295, 45.5724
4.376, 2, 35.9445, 48.2371, -14.3078, 97.9396, -51.6295, 45.5724
4.38, 2, 35.9445, 48.2371, -14.3078, 97.9396, -51.6295, 45.5724
4.384, 2, 35.9445, 48.2371, -14.3078, 97.9396, -51.6295, 45.5724
4.388, 2, 35.9445, 48.2371, -14.3078, 97.9396, -51.6295, 45.5724
4.392, 3, 35.9445, 48.2371, -14.3078, 97.9396, -51.6295, 45.5724
4.396, 3, 35.9445, 48.2371, -14.3078, 97.9396, -51.6295, 45.5724
4.4, 3, 35.9445, 48.2371, -14.3078, 97.9396, -51.6295, 45.5724
4.404, 3, 35.9445, 48.2371, -14.3078, 97.9396, -51.6295, 45.5724
4.408, 3, 35.9445, 48.2371, -14.3078, 97.9396, -51.6295, 45.5724
4.412, 3, 35.9445, 48.2371, -14.3078, 97.9396, -51.6295, 45.5724
4.416, 3, 35.9445, 48.2371, -14.3078, 97.9396, -51.6295, 45.5724
4.42, 3, 35.9445, 48.2371, -14.3078, 97.9396, -51.6295, 45.5724
4.424, 3, 35.9445, 48.2371, -14.3078, 97.9396, -51.6295, 45.5724
4.428, 3, 35.9445, 48.2371, -14.3078, 97.9396, -51.6295, 45.5724
4.432, 4, 35.9445, 48.2371, -14.3078, 97.9396, -51.6295, 45.5724
4.436, 4, 35.9445, 48.2371, -14.3078, 97.9396, -51.6295, 45.5724
4.44, 4, 35.9445, 48.2371, -14.3078, 97.9396, -51.6295, 45.5724
4.444, 4, 35.9445, 48.2371, -14.3078, 97.9396, -51.6295, 45.5724
4.448, 4, 35.9445, 48.2371, -14.3078, 97.9396, -51.6295, 45.5724
4.452, 4, 35.9445, 48.2371, -14.3078, 97.9396, -51.6295, 45.5724
4.456, 4, 35.9445, 48.2371, -14.3078, 97.9396, -51.6295, 45.5724
4.46, 4, 35.9445, 48.2371, -14.3078, 97.9396, -51.6295, 45.5724
4.464, 4, 35.9445, 48.2371, -14.3078, 97.9396, -51.6295, 45.5724
4.468, 4, 35.9445, 48.2371, -14.3078, 97.9396, -51.6295, 45.5724
4.472, 4, 35.9445, 48.2371, -14.3078, 97.9396, -51.6295, 45.5724
4.476, 4, 35.9445, 48.2371, -14.3078, 97.9396, -51.6295, 45.5724
4.48, 4, 35.9445, 48.2371, -14.3078, 97.9396, -51.6295, 45.5724
4.484, 4, 35.9445, 48.2371, -14.3078, 97.9396, -51.6295, 45.5724
4.488, 4, 35.9445, 48.2371, -14.3078, 97.9396, -51.6295, 45.5724
4.492, 4, 35.9445, 48.2371, -14.3078, 97.9396, -51.6295, 45.5724
4.496, 4, 35.9445, 48.2371, -14.3078, 97.9396, -51.6295, 45.5724
4.5, 4, 35.9445, 48.2371, -14.3078, 97.9396, -51.6295, 45.5724
4.504, 4, 35.9445, 48.2371, -14.3078, 97.9396, -51.6295, 45.5724
4.508, 4, 35.9445, 48.2371, -14.3078, 97.9396, -51.6295, 45.5724
4.512, 4, 35.9445, 48.2371, -14.3078, 97.9396, -51.6295, 45.5724
4.516, 4, 35.9445, 48.2371, -14.3078, 97.9396, -51.6295, 45.5724
4.52, 4, 35.9445, 48.2371, -14.3078, 97.9396, -51.6295, 45.5724
4.524, 4, 35.9445, 48.2371, -14.3078, 97.9396, -51.6295, 45.5724
4.528, 4, 35.9445, 48.2371, -14.3078, 97.9396, -51.6295, 45.5724
4.532, 5, 35.9445, 48.2371, -14.3078, 97.9396, -51.6295, 45.5724
4.536, 5, 35.9445, 48.2371, -14.3078, 97.9396, -51.6295, 45.5724
4.54, 5, 35.9445, 48.2371, -14.3078, 97.9396, -51.6295, 45.5724
4.544, 5, 35.9445, 48.2371, -14.3078, 97.9396, -51.6295, 45.5724
4.548, 5, 35.9445, 48.2371, -14.3078, 97.9396, -51.6295, 45.5724
4.552, 5, 35.9445, 48.2371, -14.3078, 97.9396, -51.6295, 45.5724
4.556, 5, 35.9445, 48.2371, -14.3078, 97.9396, -51.6295, 45.5724
4.56, 5, 35.9445, 48.2371, -14.3078, 97.9396, -51.6295, 45.5724
4.564, 5, 35.9445, 48.2371, -14.3078, 97.9396, -51.6295, 45.5724
4.568, 5, 35.9445, 48.2372, -14.3078, 97.9396, -51.6295, 45.5724
4.572, 5, 35.9445, 48.2373, -14.3078, 97.9396, -51.6296, 45.5724
4.576, 5, 35.9445, 48.2377, -14.3078, 97.9396, -51.6296, 45.5724
4.58, 5, 35.9445, 48.2384, -14.3078, 97.9396, -51.6297, 45.5724
4.584, 6, 35.9444, 48.2397, -14.3079, 97.9395, -51.6301, 45.5723
4.588, 6, 35.9443, 48.2415, -14.308, 97.9395, -51.6307, 45.5721
4.592, 6, 35.9441, 48.2441, -14.3081, 97.9393, -51.632, 45.5717
4.596, 6, 35.9439, 48.2475, -14.3084, 97.9391, -51.6343, 45.571
4.6, 6, 35.9436, 48.2519, -14.3088, 97.9387, -51.6379, 45.5698
4.604, 6, 35.9433, 48.2575, -14.3094, 97.938, -51.6434, 45.5681
4.608, 6, 35.9429, 48.2645, -14.3103, 97.9371, -51.6514, 45.5656
4.612, 6, 35.9424, 48.2731, -14.3115, 97.9358, -51.6626, 45.5621
4.616, 6, 35.9419, 48.2835, -14.3132, 97.9341, -51.678, 45.5574
4.62, 6, 35.9412, 48.2959, -14.3154, 97.9317, -51.6983, 45.5511
4.624, 6, 35.9405, 48.3103, -14.3183, 97.9286, -51.7245, 45.543
4.628, 6, 35.9397, 48.3268, -14.3219, 97.9247, -51.7577, 45.5327
4.632, 6, 35.9389, 48.3453, -14.3263, 97.9199, -51.7987, 45.5201
4.636, 6, 35.9381, 48.3658, -14.3317, 97.9139, -51.8484, 45.5047
4.64, 6, 35.9372, 48.3886, -14.338, 97.9067, -51.9076, 45.4865
4.644, 6, 35.9363, 48.4136, -14.3454, 97.8983, -51.9769, 45.4652
4.648, 6, 35.9355, 48.441, -14.3538, 97.8884, -52.0566, 45.4408
4.652, 6, 35.9347, 48.4706, -14.3633, 97.8772, -52.1471, 45.4131
4.656, 6, 35.9339, 48.5024, -14.3738, 97.8644, -52.2483, 45.3821
4.66, 6, 35.9332, 48.5365, -14.3853, 97.8502, -52.3601, 45.348
4.664, 6, 35.9326, 48.5726, -14.3977, 97.8344, -52.4822, 45.3108
4.668, 6, 35.9321, 48.6108, -14.411, 97.8172, -52.6139, 45.2708
4.672, 6, 35.9316, 48.6511, -14.4251, 97.7986, -52.7546, 45.2281
4.676, 6, 35.9312, 48.6935, -14.4398, 97.7787, -52.9033, 45.1831
4.68, 6, 35.9307, 48.7381, -14.455, 97.7575, -53.0592, 45.1361
4.684, 6, 35.9302, 48.7846, -14.4706, 97.7352, -53.2213, 45.0873
4.688, 6, 35.9295, 48.8331, -14.4865, 97.7118, -53.3887, 45.0371
4.692, 6, 35.9288, 48.8831, -14.5025, 97.6875, -53.5603, 44.9856
4.696, 6, 35.9279, 48.9347, -14.5187, 97.6623, -53.7355, 44.9333
4.7, 6, 35.9269, 48.9876, -14.5348, 97.6363, -53.9134, 44.8803
4.704, 7, 35.9257, 49.0416, -14.5509, 97.6096, -54.0934, 44.8269
4.708, 7, 35.9243, 49.0967, -14.5667, 97.5823, -54.2749, 44.7731
4.712, 7, 35.9227, 49.1526, -14.5824, 97.5543, -54.4575, 44.7192
4.716, 7, 35.9209, 49.2093, -14.5978, 97.5259, -54.6407, 44.6652
4.72, 7, 35.9189, 49.2665, -14.613, 97.4969, -54.8243, 44.6113
4.724, 7, 35.9168, 49.324, -14.6278, 97.4675, -55.0081, 44.5575
4.728, 7, 35.9145, 49.3818, -14.6423, 97.4376, -55.192, 44.5038
4.732, 7, 35.9121, 49.4396, -14.6565, 97.4072, -55.3759, 44.4503
4.736, 7, 35.9095, 49.4974, -14.6703, 97.3764, -55.5598, 44.3969
4.74, 7, 35.9067, 49.5551, -14.6838, 97.3452, -55.7435, 44.3437
4.744, 7, 35.9038, 49.6128, -14.697, 97.3136, -55.9271, 44.2907
4.748, 7, 35.9008, 49.6704, -14.7098, 97.2816, -56.1106, 44.2379
4.752, 7, 35.8976, 49.7278, -14.7222, 97.2491, -56.2939, 44.1852
4.756, 7, 35.8943, 49.7851, -14.7343, 97.2162, -56.4771, 44.1328
4.76, 7, 35.8908, 49.8422, -14.746, 97.1829, -56.6601, 44.0805
4.764, 7, 35.8872, 49.8991, -14.7574, 97.1493, -56.8429, 44.0284
4.768, 7, 35.8835, 49.9559, -14.7684, 97.1152, -57.0255, 43.9765
4.772, 7, 35.8796, 50.0125, -14.779, 97.0807, -57.2079, 43.9248
4.776, 7, 35.8756, 50.069, -14.7893, 97.0459, -57.3902, 43.8732
4.78, 7, 35.8714, 50.1253, -14.7992, 97.0106, -57.5723, 43.8219
4.784, 7, 35.8671, 50.1814, -14.8087, 96.975, -57.7542, 43.7707
4.788, 7, 35.8627, 50.2373, -14.8179, 96.9389, -57.9359, 43.7196
4.792, 7, 35.8581, 50.293, -14.8267, 96.9025, -58.1174, 43.6688
4.796, 7, 35.8534, 50.3486, -14.8352, 96.8657, -58.2988, 43.6181
4.8, 7, 35.8486, 50.404, -14.8432, 96.8285, -58.4799, 43.5675
4.804, 7, 35.8436, 50.4592, -14.8509, 96.791, -58.6609, 43.5172
4.808, 7, 35.8385, 50.5142, -14.8583, 96.7531, -58.8417, 43.4669
4.812, 7, 35.8332, 50.569, -14.8652, 96.7148, -59.0224, 43.4169
4.816, 7, 35.8278, 50.6237, -14.8718, 96.6761, -59.2028, 43.367
4.82, 7, 35.8223, 50.6781, -14.878, 96.6371, -59.3831, 43.3172
4.824, 7, 35.8166, 50.7324, -14.8838, 96.5977, -59.5631, 43.2676
4.828, 7, 35.8108, 50.7864, -14.8893, 96.558, -59.743, 43.2181
4.832, 7, 35.8049, 50.8403, -14.8943, 96.5179, -59.9228, 43.1688
4.836, 7, 35.7988, 50.894, -14.899, 96.4774, -60.1023, 43.1196
4.84, 7, 35.7926, 50.9475, -14.9033, 96.4366, -60.2817, 43.0706
4.844, 7, 35.7863, 51.0008, -14.9072, 96.3954, -60.4608, 43.0217
4.848, 7, 35.7798, 51.0539, -14.9108, 96.3539, -60.6398, 42.9729
4.852, 7, 35.7732, 51.1068, -14.9139, 96.312, -60.8186, 42.9243
4.856, 7, 35.7664, 51.1595, -14.9167, 96.2698, -60.9973, 42.8758
4.86, 7, 35.7596, 51.212, -14.9191, 96.2272, -61.1757, 42.8274
4.864, 7, 35.7525, 51.2643, -14.9211, 96.1843, -61.354, 42.7791
4.868, 7, 35.7454, 51.3164, -14.9227, 96.1411, -61.5321, 42.731
4.872, 7, 35.7381, 51.3683, -14.9239, 96.0975, -61.71, 42.683
4.876, 7, 35.7307, 51.42, -14.9247, 96.0536, -61.8877, 42.6351
4.88, 7, 35.7231, 51.4714, -14.9251, 96.0094, -62.0653, 42.5873
4.884, 7, 35.7154, 51.5227, -14.9252, 95.9648, -62.2427, 42.5396
4.888, 7, 35.7076, 51.5738, -14.9248, 95.9199, -62.4199, 42.4921
4.892, 7, 35.6996, 51.6246, -14.9241, 95.8747, -62.5969, 42.4446
4.896, 7, 35.6915, 51.6753, -14.9229, 95.8291, -62.7737, 42.3973
4.9, 7, 35.6833, 51.7257, -14.9214, 95.7833, -62.9504, 42.35
4.904, 7, 35.6749, 51.776, -14.9194, 95.7371, -63.1268, 42.3029
4.908, 7, 35.6664, 51.826, -14.9171, 95.6906, -63.3031, 42.2559
4.912, 7, 35.6578, 51.8758, -14.9143, 95.6437, -63.4792, 42.209
4.916, 7, 35.649, 51.9253, -14.9112, 95.5966, -63.6552, 42.1621
4.92, 7, 35.6401, 51.9747, -14.9076, 95.5491, -63.8309, 42.1154
4.924, 7, 35.631, 52.0238, -14.9037, 95.5014, -64.0065, 42.0687
4.928, 7, 35.6219, 52.0728, -14.8993, 95.4533, -64.1819, 42.0222
4.932, 7, 35.6125, 52.1215, -14.8946, 95.4049, -64.3571, 41.9757
4.936, 7, 35.6031, 52.1699, -14.8894, 95.3562, -64.5322, 41.9293
4.94, 7, 35.5935, 52.2182, -14.8838, 95.3072, -64.7071, 41.8831
4.944, 7, 35.5838, 52.2662, -14.8778, 95.2579, -64.8817, 41.8368
4.948, 7, 35.574, 52.314, -14.8714, 95.2083, -65.0563, 41.7907
4.952, 7, 35.564, 52.3616, -14.8646, 95.1584, -65.2306, 41.7447
4.956, 7, 35.5539, 52.4089, -14.8573, 95.1083, -65.4048, 41.6987
4.96, 7, 35.5436, 52.4561, -14.8497, 95.0578, -65.5787, 41.6528
4.964, 7, 35.5333, 52.503, -14.8416, 95.007, -65.7526, 41.607
4.968, 7, 35.5228, 52.5496, -14.8331, 94.9559, -65.9262, 41.5612
4.972, 7, 35.5121, 52.5961, -14.8242, 94.9045, -66.0997, 41.5155
4.976, 7, 35.5013, 52.6423, -14.8149, 94.8529, -66.273, 41.4699
4.98, 7, 35.4904, 52.6882, -14.8052, 94.8009, -66.4461, 41.4244
4.984, 7, 35.4794, 52.734, -14.795, 94.7487, -66.619, 41.3789
4.988, 7, 35.4682, 52.7794, -14.7844, 94.6961, -66.7918, 41.3335
4.992, 7, 35.4569, 52.8247, -14.7735, 94.6433, -66.9644, 41.2881
4.996, 7, 35.4455, 52.8697, -14.762, 94.5902, -67.1369, 41.2428
5, 7, 35.4339, 52.9145, -14.7502, 94.5368, -67.3091, 41.1976
5.004, 7, 35.4222, 52.9591, -14.738, 94.4832, -67.4812, 41.1524
5.008, 7, 35.4104, 53.0034, -14.7253, 94.4292, -67.6532, 41.1073
5.012, 7, 35.3985, 53.0475, -14.7122, 94.375, -67.825, 41.0622
5.016, 7, 35.3864, 53.0913, -14.6988, 94.3205, -67.9966, 41.0172
5.02, 7, 35.3742, 53.1349, -14.6848, 94.2657, -68.168, 40.9723
5.024, 7, 35.3618, 53.1783, -14.6705, 94.2107, -68.3393, 40.9274
5.028, 7, 35.3493, 53.2214, -14.6557, 94.1554, -68.5104, 40.8825
5.032, 7, 35.3367, 53.2642, -14.6406, 94.0998, -68.6813, 40.8377
5.036, 7, 35.324, 53.3069, -14.625, 94.0439, -68.8521, 40.7929
5.04, 7, 35.3111, 53.3493, -14.609, 93.9878, -69.0227, 40.7481
5.044, 7, 35.2981, 53.3914, -14.5925, 93.9314, -69.1932, 40.7035
5.048, 7, 35.285, 53.4333, -14.5757, 93.8747, -69.3634, 40.6588
5.052, 7, 35.2717, 53.4749, -14.5584, 93.8178, -69.5336, 40.6142
5.056, 7, 35.2583, 53.5163, -14.5407, 93.7606, -69.7035, 40.5696
5.06, 7, 35.2448, 53.5575, -14.5226, 93.7032, -69.8733, 40.525
5.064, 7, 35.2312, 53.5984, -14.5041, 93.6455, -70.043, 40.4805
5.068, 7, 35.2174, 53.639, -14.4851, 93.5875, -70.2125, 40.436
5.072, 7, 35.2035, 53.6795, -14.4657, 93.5293, -70.3818, 40.3916
5.076, 7, 35.1895, 53.7196, -14.4459, 93.4708, -70.5509, 40.3472
5.08, 7, 35.1753, 53.7595, -14.4257, 93.412, -70.7199, 40.3028
5.084, 7, 35.1611, 53.7992, -14.405, 93.353, -70.8888, 40.2584
5.088, 7, 35.1467, 53.8385, -14.384, 93.2938, -71.0574, 40.214
5.092, 7, 35.1321, 53.8777, -14.3625, 93.2343, -71.226, 40.1697
5.096, 7, 35.1175, 53.9166, -14.3406, 93.1745, -71.3943, 40.1254
5.1, 7, 35.1027, 53.9552, -14.3182, 93.1145, -71.5625, 40.0811
5.104, 7, 35.0877, 53.9936, -14.2954, 93.0542, -71.7305, 40.0368
5.108, 7, 35.0727, 54.0317, -14.2722, 92.9937, -71.8984, 39.9926
5.112, 8, 35.0575, 54.0695, -14.2486, 92.933, -72.0662, 39.9483
5.116, 8, 35.0422, 54.1071, -14.2246, 92.872, -72.2337, 39.9041
5.12, 8, 35.0269, 54.1444, -14.2001, 92.8107, -72.4011, 39.8599
5.124, 8, 35.0115, 54.1812, -14.1752, 92.7492, -72.5684, 39.8157
5.128, 8, 34.9963, 54.2175, -14.1498, 92.6875, -72.7354, 39.7715
5.132, 8, 34.9816, 54.2528, -14.1241, 92.6256, -72.9021, 39.7274
5.136, 8, 34.9674, 54.287, -14.098, 92.5636, -73.0684, 39.6833
5.14, 8, 34.9538, 54.3199, -14.0716, 92.5016, -73.2338, 39.6394
5.144, 8, 34.9408, 54.3513, -14.0449, 92.4398, -73.3981, 39.5958
5.148, 8, 34.9283, 54.3814, -14.0181, 92.3783, -73.5607, 39.5527
5.152, 8, 34.916, 54.4102, -13.9913, 92.3174, -73.721, 39.5101
5.156, 8, 34.9037, 54.438, -13.9644, 92.2575, -73.8781, 39.4684
5.16, 8, 34.891, 54.4649, -13.9377, 92.1988, -74.0313, 39.4278
5.164, 8, 34.8781, 54.4909, -13.9111, 92.1414, -74.1798, 39.3886
5.168, 8, 34.8648, 54.5161, -13.8847, 92.0857, -74.323, 39.3513
5.172, 8, 34.8513, 54.5403, -13.8583, 92.0318, -74.4601, 39.316
5.176, 8, 34.8377, 54.5637, -13.8319, 91.9798, -74.5906, 39.2832
5.18, 8, 34.824, 54.5861, -13.8054, 91.9296, -74.7143, 39.2532
5.184, 8, 34.8102, 54.6074, -13.7786, 91.8814, -74.8308, 39.226
5.188, 8, 34.7962, 54.6276, -13.7515, 91.835, -74.9403, 39.202
5.192, 8, 34.7817, 54.6464, -13.7239, 91.7904, -75.0427, 39.181
5.196, 8, 34.7665, 54.6637, -13.6955, 91.7473, -75.1385, 39.1631
5.2, 8, 34.7508, 54.6794, -13.6662, 91.7056, -75.2281, 39.1484
5.204, 8, 34.7346, 54.6935, -13.6358, 91.6649, -75.3119, 39.1368
5.208, 9, 34.7181, 54.7059, -13.6038, 91.6248, -75.3905, 39.1284
5.212, 9, 34.7014, 54.7168, -13.5699, 91.585, -75.4645, 39.1231
5.216, 9, 34.6845, 54.7261, -13.5338, 91.5449, -75.5347, 39.1211
5.22, 9, 34.6675, 54.7336, -13.495, 91.5041, -75.6017, 39.1222
5.224, 9, 34.6504, 54.7392, -13.453, 91.4621, -75.6662, 39.1266
5.228, 9, 34.6331, 54.7425, -13.4076, 91.4184, -75.7288, 39.1342
5.232, 9, 34.6155, 54.7435, -13.3582, 91.3726, -75.7903, 39.145
5.236, 9, 34.5976, 54.7422, -13.3046, 91.3244, -75.8512, 39.1592
5.24, 9, 34.5794, 54.7389, -13.2464, 91.2733, -75.912, 39.1766
5.244, 9, 34.5608, 54.7336, -13.1836, 91.2192, -75.973, 39.1972
5.248, 9, 34.5419, 54.7266, -13.1159, 91.1618, -76.0348, 39.221
5.252, 9, 34.5228, 54.7178, -13.0436, 91.1013, -76.0976, 39.2478
5.256, 9, 34.5033, 54.7074, -12.9666, 91.0375, -76.1618, 39.2772
5.26, 9, 34.4837, 54.6953, -12.8855, 90.9706, -76.2276, 39.3091
5.264, 9, 34.4638, 54.6816, -12.8004, 90.9009, -76.295, 39.343
5.268, 9, 34.4438, 54.6664, -12.7119, 90.8287, -76.3641, 39.3785
5.272, 9, 34.4233, 54.65, -12.6205, 90.7544, -76.4347, 39.4154
5.276, 9, 34.4022, 54.6328, -12.5266, 90.6784, -76.5068, 39.4533
5.28, 9, 34.3804, 54.615, -12.4309, 90.601, -76.5799, 39.4919
5.284, 9, 34.3578, 54.5969, -12.3337, 90.5226, -76.6539, 39.5311
5.288, 9, 34.3343, 54.5785, -12.2355, 90.4436, -76.7286, 39.5705
5.292, 9, 34.31, 54.5601, -12.1365, 90.364, -76.8038, 39.6101
5.296, 9, 34.285, 54.5415, -12.0369, 90.2841, -76.8793, 39.6498
5.3, 9, 34.2595, 54.5229, -11.9369, 90.2041, -76.9551, 39.6895
5.304, 10, 34.2337, 54.5043, -11.8367, 90.1239, -77.0312, 39.7292
5.308, 10, 34.2076, 54.4855, -11.7363, 90.0437, -77.1073, 39.7687
5.312, 10, 34.1813, 54.4667, -11.6357, 89.9634, -77.1836, 39.8082
5.316, 10, 34.1548, 54.4479, -11.5351, 89.8831, -77.26, 39.8476
5.32, 10, 34.1282, 54.429, -11.4344, 89.8029, -77.3365, 39.8868
5.324, 10, 34.1015, 54.41, -11.3337, 89.7226, -77.413, 39.9258
5.328, 10, 34.0746, 54.391, -11.2329, 89.6425, -77.4897, 39.9648
5.332, 10, 34.0478, 54.3719, -11.1321, 89.5623, -77.5664, 40.0036
5.336, 10, 34.0208, 54.3527, -11.0312, 89.4822, -77.6431, 40.0422
5.34, 10, 33.9937, 54.3335, -10.9303, 89.4021, -77.72, 40.0807
5.344, 10, 33.9666, 54.3142, -10.8294, 89.3221, -77.7969, 40.119
5.348, 10, 33.9394, 54.2949, -10.7285, 89.2421, -77.8738, 40.1572
5.352, 10, 33.9122, 54.2755, -10.6276, 89.1622, -77.9508, 40.1952
5.356, 10, 33.8849, 54.256, -10.5267, 89.0823, -78.0279, 40.2331
5.36, 10, 33.8575, 54.2365, -10.4257, 89.0024, -78.1051, 40.2709
5.364, 10, 33.8301, 54.2169, -10.3248, 88.9226, -78.1823, 40.3084
5.368, 10, 33.8025, 54.1973, -10.2238, 88.8429, -78.2595, 40.3459
5.372, 10, 33.775, 54.1776, -10.1228, 88.7632, -78.3368, 40.3831
5.376, 10, 33.7473, 54.1578, -10.0218, 88.6835, -78.4142, 40.4202
5.38, 10, 33.7196, 54.138, -9.92075, 88.6039, -78.4916, 40.4572
5.384, 10, 33.6919, 54.1181, -9.81971, 88.5243, -78.5691, 40.494
5.388, 10, 33.664, 54.0981, -9.71865, 88.4448, -78.6467, 40.5307
5.392, 10, 33.6361, 54.0781, -9.61759, 88.3653, -78.7243, 40.5672
5.396, 10, 33.6082, 54.058, -9.51651, 88.2858, -78.8019, 40.6035
5.4, 10, 33.5801, 54.0379, -9.41542, 88.2064, -78.8796, 40.6397
5.404, 10, 33.552, 54.0177, -9.31431, 88.127, -78.9574, 40.6757
5.408, 10, 33.5239, 53.9974, -9.21319, 88.0477, -79.0352, 40.7116
5.412, 10, 33.4957, 53.977, -9.11206, 87.9684, -79.1131, 40.7473
5.416, 10, 33.4674, 53.9566, -9.01092, 87.8891, -79.1911, 40.7829
5.42, 10, 33.439, 53.9362, -8.90976, 87.8099, -79.2691, 40.8183
5.424, 11, 33.4106, 53.9156, -8.80859, 87.7308, -79.3471, 40.8536
5.428, 11, 33.3821, 53.895, -8.70741, 87.6516, -79.4252, 40.8887
5.432, 11, 33.3536, 53.8744, -8.60621, 87.5725, -79.5034, 40.9236
5.436, 11, 33.325, 53.8536, -8.50501, 87.4935, -79.5816, 40.9584
5.44, 11, 33.2963, 53.8328, -8.40379, 87.4145, -79.6599, 40.993
5.444, 11, 33.2676, 53.812, -8.30255, 87.3355, -79.7382, 41.0275
5.448, 11, 33.2387, 53.7911, -8.20131, 87.2565, -79.8166, 41.0618
5.452, 11, 33.2099, 53.7701, -8.10005, 87.1776, -79.895, 41.096
5.456, 11, 33.1809, 53.749, -7.99879, 87.0987, -79.9735, 41.13
5.46, 11, 33.1519, 53.7279, -7.89751, 87.0199, -80.0521, 41.1638
5.464, 11, 33.1229, 53.7067, -7.79621, 86.9411, -80.1307, 41.1975
5.468, 11, 33.0937, 53.6854, -7.69491, 86.8623, -80.2093, 41.231
5.472, 11, 33.0645, 53.6641, -7.5936, 86.7836, -80.288, 41.2644
5.476, 11, 33.0353, 53.6427, -7.49227, 86.7049, -80.3668, 41.2976
5.48, 11, 33.0059, 53.6213, -7.39093, 86.6262, -80.4456, 41.3306
5.484, 11, 32.9765, 53.5997, -7.28958, 86.5476, -80.5245, 41.3635
5.488, 11, 32.9471, 53.5781, -7.18822, 86.469, -80.6034, 41.3963
5.492, 11, 32.9175, 53.5565, -7.08684, 86.3904, -80.6824, 41.4288
5.496, 11, 32.8879, 53.5347, -6.98546, 86.3118, -80.7614, 41.4613
5.5, 11, 32.8583, 53.5129, -6.88406, 86.2333, -80.8405, 41.4935
5.504, 11, 32.8286, 53.4911, -6.78265, 86.1548, -80.9196, 41.5256
5.508, 11, 32.7988, 53.4691, -6.68123, 86.0764, -80.9988, 41.5575
5.512, 11, 32.7689, 53.4471, -6.5798, 85.9979, -81.078, 41.5893
5.516, 11, 32.739, 53.425, -6.47836, 85.9195, -81.1573, 41.6209
5.52, 11, 32.709, 53.4029, -6.37691, 85.8412, -81.2366, 41.6524
5.524, 11, 32.6789, 53.3807, -6.27545, 85.7628, -81.316, 41.6837
5.528, 11, 32.6488, 53.3584, -6.17397, 85.6845, -81.3954, 41.7148
5.532, 11, 32.6186, 53.336, -6.07249, 85.6062, -81.4749, 41.7457
5.536, 11, 32.5884, 53.3136, -5.97099, 85.5279, -81.5545, 41.7765
5.54, 11, 32.558, 53.2911, -5.86949, 85.4497, -81.634, 41.8072
5.544, 11, 32.5277, 53.2685, -5.76797, 85.3714, -81.7137, 41.8377
5.548, 11, 32.4972, 53.2459, -5.66645, 85.2932, -81.7934, 41.868
5.552, 11, 32.4667, 53.2231, -5.56492, 85.2151, -81.8731, 41.8981
5.556, 11, 32.4361, 53.2004, -5.46337, 85.1369, -81.9529, 41.9281
5.56, 11, 32.4054, 53.1775, -5.36182, 85.0588, -82.0327, 41.9579
5.564, 11, 32.3747, 53.1546, -5.26025, 84.9807, -82.1126, 41.9876
5.568, 11, 32.3439, 53.1315, -5.15868, 84.9026, -82.1925, 42.0171
5.572, 11, 32.3131, 53.1085, -5.0571, 84.8245, -82.2725, 42.0464
5.576, 11, 32.2822, 53.0853, -4.95551, 84.7465, -82.3525, 42.0756
5.58, 11, 32.2512, 53.0621, -4.8539, 84.6684, -82.4326, 42.1046
5.584, 11, 32.2201, 53.0388, -4.7523, 84.5904, -82.5127, 42.1334
5.588, 11, 32.189, 53.0154, -4.65068, 84.5125, -82.5929, 42.1621
5.592, 11, 32.1578, 52.992, -4.54905, 84.4345, -82.6731, 42.1906
5.596, 11, 32.1265, 52.9684, -4.44741, 84.3565, -82.7533, 42.219
5.6, 11, 32.0952, 52.9449, -4.34577, 84.2786, -82.8337, 42.2471
5.604, 11, 32.0638, 52.9212, -4.24412, 84.2007, -82.914, 42.2751
5.608, 11, 32.0324, 52.8974, -4.14246, 84.1228, -82.9944, 42.303
5.612, 11, 32.0008, 52.8736, -4.04079, 84.0449, -83.0748, 42.3306
5.616, 11, 31.9692, 52.8497, -3.93911, 83.967, -83.1553, 42.3581
5.62, 11, 31.9376, 52.8257, -3.83742, 83.8892, -83.2359, 42.3855
5.624, 11, 31.9059, 52.8017, -3.73573, 83.8113, -83.3164, 42.4126
5.628, 11, 31.8741, 52.7776, -3.63403, 83.7335, -83.397, 42.4396
5.632, 11, 31.8422, 52.7534, -3.53232, 83.6557, -83.4777, 42.4665
5.636, 11, 31.8103, 52.7291, -3.43061, 83.5779, -83.5584, 42.4931
5.64, 11, 31.7784, 52.7047, -3.32889, 83.5001, -83.6392, 42.5196
5.644, 11, 31.7465, 52.6803, -3.22718, 83.4223, -83.7199, 42.5459
5.648, 11, 31.715, 52.6558, -3.12552, 83.3446, -83.8008, 42.5721
5.652, 11, 31.684, 52.6311, -3.02395, 83.2669, -83.8815, 42.598
5.656, 11, 31.6536, 52.6064, -2.92256, 83.1894, -83.9622, 42.6238
5.66, 11, 31.6238, 52.5813, -2.82144, 83.112, -84.0427, 42.6495
5.664, 12, 31.5945, 52.5561, -2.72073, 83.035, -84.1227, 42.675
5.668, 12, 31.5656, 52.5306, -2.62058, 82.9585, -84.2019, 42.7007
5.672, 12, 31.5367, 52.505, -2.52114, 82.8825, -84.2801, 42.7268
5.676, 12, 31.5076, 52.4793, -2.42254, 82.8073, -84.3568, 42.7536
5.68, 12, 31.4782, 52.4537, -2.32486, 82.7329, -84.4318, 42.7815
5.684, 12, 31.4485, 52.4281, -2.22812, 82.6594, -84.5045, 42.811
5.688, 12, 31.4185, 52.4023, -2.13226, 82.5866, -84.5749, 42.8425
5.692, 12, 31.3882, 52.3761, -2.03713, 82.5145, -84.6426, 42.8766
5.696, 12, 31.3575, 52.3493, -1.94249, 82.4429, -84.7075, 42.9138
5.7, 12, 31.3262, 52.3218, -1.84804, 82.3716, -84.7694, 42.9548
5.704, 12, 31.2941, 52.2937, -1.75339, 82.3003, -84.8281, 43.0002
5.708, 12, 31.2613, 52.2651, -1.65809, 82.2285, -84.8838, 43.0507
5.712, 12, 31.2279, 52.236, -1.56162, 82.1559, -84.9363, 43.107
5.716, 12, 31.194, 52.2064, -1.46347, 82.0819, -84.9858, 43.1696
5.72, 12, 31.16, 52.1761, -1.36309, 82.0061, -85.0328, 43.2388
5.724, 12, 31.1262, 52.1448, -1.25998, 81.928, -85.0774, 43.3149
5.728, 12, 31.0928, 52.1123, -1.15373, 81.8473, -85.1202, 43.3979
5.732, 12, 31.0597, 52.0783, -1.04405, 81.7637, -85.1614, 43.4878
5.736, 12, 31.0268, 52.0428, -0.930755, 81.6771, -85.2014, 43.5843
5.74, 12, 30.9937, 52.006, -0.813815, 81.5874, -85.2405, 43.6871
5.744, 12, 30.9604, 51.9679, -0.693305, 81.4948, -85.2788, 43.7959
5.748, 12, 30.9267, 51.9287, -0.569401, 81.3992, -85.3168, 43.9101
5.752, 12, 30.8926, 51.8883, -0.442368, 81.301, -85.3545, 44.0291
5.756, 12, 30.8581, 51.847, -0.31253, 81.2004, -85.3922, 44.1524
5.76, 12, 30.8232, 51.8045, -0.180254, 81.0978, -85.43, 44.279
5.764, 12, 30.788, 51.7611, -0.045932, 80.9934, -85.4682, 44.4085
5.768, 12, 30.7523, 51.7169, 0.0900355, 80.8876, -85.5067, 44.5401
5.772, 12, 30.7162, 51.6721, 0.227259, 80.7806, -85.5457, 44.6734
5.776, 12, 30.6794, 51.6268, 0.365383, 80.6728, -85.5851, 44.8079
5.78, 12, 30.642, 51.5813, 0.504101, 80.5644, -85.6249, 44.9431
5.784, 13, 30.604, 51.5356, 0.643158, 80.4557, -85.6651, 45.079
5.788, 13, 30.5653, 51.4899, 0.78235, 80.3466, -85.7057, 45.2151
5.792, 13, 30.5263, 51.4442, 0.921524, 80.2374, -85.7466, 45.3513
5.796, 13, 30.4868, 51.3986, 1.06057, 80.1281, -85.7879, 45.4877
5.8, 13, 30.4471, 51.3532, 1.1994, 80.0188, -85.8296, 45.624
5.804, 13, 30.4071, 51.3079, 1.33797, 79.9095, -85.8715, 45.7602
5.808, 13, 30.3669, 51.2629, 1.47624, 79.8002, -85.9138, 45.8963
5.812, 13, 30.3266, 51.2181, 1.61419, 79.6909, -85.9564, 46.0323
5.816, 13, 30.2861, 51.1735, 1.7518, 79.5817, -85.9993, 46.1682
5.82, 13, 30.2455, 51.1291, 1.88907, 79.4726, -86.0425, 46.3039
5.824, 13, 30.2047, 51.085, 2.02598, 79.3635, -86.0861, 46.4395
5.828, 13, 30.1638, 51.0411, 2.16253, 79.2545, -86.1299, 46.5749
5.832, 13, 30.1228, 50.9975, 2.29873, 79.1455, -86.174, 46.7101
5.836, 13, 30.0817, 50.9541, 2.43456, 79.0367, -86.2185, 46.8452
5.84, 13, 30.0405, 50.9109, 2.57003, 78.9279, -86.2633, 46.9801
5.844, 13, 29.9991, 50.868, 2.70514, 78.8191, -86.3083, 47.1148
5.848, 13, 29.9576, 50.8253, 2.83988, 78.7105, -86.3537, 47.2494
5.852, 13, 29.9161, 50.7829, 2.97427, 78.6019, -86.3994, 47.3838
5.856, 13, 29.8745, 50.7407, 3.10828, 78.4934, -86.4454, 47.518
5.86, 13, 29.833, 50.6988, 3.2419, 78.385, -86.4917, 47.652
5.864, 13, 29.7918, 50.6571, 3.37511, 78.2767, -86.5382, 47.7858
5.868, 13, 29.7509, 50.6157, 3.50783, 78.1685, -86.5851, 47.9194
5.872, 13, 29.7105, 50.5747, 3.64, 78.0606, -86.6321, 48.0527
5.876, 13, 29.6704, 50.534, 3.77149, 77.9529, -86.6794, 48.1855
5.88, 13, 29.6306, 50.4936, 3.90216, 77.8456, -86.7268, 48.3177
5.884, 13, 29.5911, 50.4535, 4.03186, 77.739, -86.7742, 48.4491
5.888, 13, 29.5516, 50.4137, 4.1604, 77.6331, -86.8216, 48.5794
5.892, 13, 29.512, 50.3742, 4.28761, 77.5282, -86.8688, 48.7085
5.896, 13, 29.4724, 50.3348, 4.41334, 77.4244, -86.9158, 48.836
5.9, 13, 29.4328, 50.2956, 4.53747, 77.3219, -86.9623, 48.9617
5.904, 13, 29.3932, 50.2566, 4.65991, 77.2209, -87.0081, 49.0852
5.908, 13, 29.3536, 50.2178, 4.78062, 77.1214, -87.0533, 49.2065
5.912, 13, 29.314, 50.179, 4.89962, 77.0236, -87.0976, 49.3252
5.916, 13, 29.2743, 50.14, 5.01697, 76.9276, -87.141, 49.4412
5.92, 13, 29.2341, 50.1008, 5.13281, 76.8332, -87.1832, 49.5546
5.924, 13, 29.1935, 50.0613, 5.24735, 76.7404, -87.2243, 49.6651
5.928, 13, 29.1523, 50.0215, 5.36084, 76.649, -87.2643, 49.7729
5.932, 13, 29.1108, 49.9814, 5.47359, 76.5591, -87.303, 49.8781
5.936, 13, 29.0691, 49.9413, 5.58593, 76.4701, -87.3405, 49.9808
5.94, 13, 29.0274, 49.9012, 5.69822, 76.382, -87.3768, 50.0813
5.944, 13, 28.986, 49.8611, 5.81077, 76.2944, -87.412, 50.1799
5.948, 13, 28.9449, 49.8206, 5.92388, 76.2071, -87.4462, 50.277
5.952, 13, 28.9039, 49.7797, 6.03782, 76.1198, -87.4797, 50.3728
5.956, 13, 28.8631, 49.7382, 6.15276, 76.0322, -87.5124, 50.4676
5.96, 13, 28.8223, 49.696, 6.26884, 75.9444, -87.5446, 50.5618
5.964, 13, 28.7814, 49.6532, 6.38615, 75.856, -87.5763, 50.6555
5.968, 13, 28.7404, 49.6097, 6.50469, 75.767, -87.6078, 50.7489
5.972, 13, 28.6992, 49.5654, 6.62444, 75.6773, -87.6391, 50.8423
5.976, 13, 28.6579, 49.5203, 6.74533, 75.587, -87.6703, 50.9357
5.98, 13, 28.6164, 49.4745, 6.86723, 75.496, -87.7016, 51.0293
5.984, 13, 28.5748, 49.4279, 6.99002, 75.4044, -87.7329, 51.123
5.988, 13, 28.5329, 49.3805, 7.11352, 75.3122, -87.7644, 51.2171
5.992, 13, 28.4907, 49.3325, 7.23758, 75.2194, -87.7962, 51.3113
5.996, 13, 28.4481, 49.284, 7.36205, 75.1263, -87.8282, 51.4057
6, 13, 28.4051, 49.2351, 7.48677, 75.0329, -87.8604, 51.5003
6.004, 13, 28.3618, 49.1861, 7.61163, 74.9392, -87.8928, 51.5949
6.008, 13, 28.318, 49.1369, 7.73653, 74.8453, -87.9254, 51.6895
6.012, 13, 28.2738, 49.0877, 7.86136, 74.7513, -87.9583, 51.7841
6.016, 13, 28.2293, 49.0385, 7.98608, 74.6572, -87.9914, 51.8787
6.02, 13, 28.1845, 48.9894, 8.11064, 74.563, -88.0246, 51.9731
6.024, 13, 28.1396, 48.9404, 8.235, 74.4688, -88.0581, 52.0675
