hehonglu123/Motion-Primitive-Planning/simulation/robotstudio_sim/scripts/fitting_output/slope_blend/d2qdlam2.csv
j1,j2,j3,j4,j5,j6
-0.00337058,5.90E-05,0.005098183,-0.004934265,-0.007126069,-0.000373756
-0.003370893,5.89E-05,0.005098778,-0.004934458,-0.007127485,-0.000374521
-0.003371193,5.79E-05,0.005099493,-0.00493398,-0.007126004,-0.000374496
-0.003371498,5.73E-05,0.005100177,-0.004933817,-0.007125859,-0.00037482
-0.003371809,5.72E-05,0.005100738,-0.004934005,-0.007127272,-0.000375599
-0.003372108,5.61E-05,0.005101518,-0.004933443,-0.007125389,-0.000375439
-0.003372421,5.60E-05,0.005102083,-0.004933601,-0.007126687,-0.000376191
-0.003372715,5.51E-05,0.005102814,-0.004933223,-0.007125617,-0.000376258
-0.003373032,5.47E-05,0.005103436,-0.004933192,-0.007126044,-0.000376759
-0.003373329,5.40E-05,0.00510412,-0.004932965,-0.007125666,-0.00037703
-0.003373637,5.35E-05,0.00510477,-0.00493283,-0.007125639,-0.000377394
-0.003373945,5.29E-05,0.005105443,-0.004932675,-0.007125534,-0.000377743
-0.003374246,5.24E-05,0.00510608,-0.004932566,-0.007125694,-0.000378169
-0.003374555,5.17E-05,0.005106766,-0.004932342,-0.007125239,-0.00037841
-0.003374857,5.11E-05,0.005107436,-0.00493217,-0.007125097,-0.00037875
-0.003375164,5.07E-05,0.005108065,-0.004932083,-0.007125303,-0.000379186
-0.003375469,5.01E-05,0.005108743,-0.004931926,-0.007125201,-0.00037953
-0.003375775,4.93E-05,0.00510942,-0.004931653,-0.007124589,-0.000379743
-0.003376077,4.89E-05,0.005110062,-0.004931607,-0.007124971,-0.000380216
-0.003376386,4.83E-05,0.005110731,-0.004931424,-0.007124753,-0.000380537
-0.003376689,4.77E-05,0.005111406,-0.004931233,-0.007124493,-0.000380834
-0.003376997,4.72E-05,0.00511204,-0.004931116,-0.007124572,-0.000381245
-0.003377298,4.64E-05,0.005112753,-0.004930856,-0.007124022,-0.000381451
-0.003377607,4.62E-05,0.005113335,-0.004930928,-0.007124908,-0.000382089
-0.003377909,4.53E-05,0.005114067,-0.004930575,-0.007123953,-0.000382185
-0.003378217,4.48E-05,0.005114704,-0.004930447,-0.007123975,-0.00038258
-0.00337852,4.42E-05,0.005115374,-0.004930292,-0.007123877,-0.000382922
-0.003378825,4.37E-05,0.005116028,-0.004930138,-0.007123793,-0.000383274
-0.003379132,4.32E-05,0.00511667,-0.004930075,-0.007124104,-0.00038374
-0.003379437,4.25E-05,0.005117377,-0.004929779,-0.00712337,-0.000383905
-0.003379742,4.21E-05,0.005117987,-0.004929769,-0.007123915,-0.000384439
-0.003380043,4.12E-05,0.005118722,-0.004929378,-0.007122782,-0.000384492
-0.003380353,4.08E-05,0.005119338,-0.004929351,-0.007123266,-0.000385013
-0.003380656,4.05E-05,0.005119963,-0.004929374,-0.007123928,-0.000385564
-0.003380961,3.95E-05,0.005120702,-0.004928916,-0.007122498,-0.000385544
-0.003381267,3.91E-05,0.005121319,-0.004928917,-0.007123103,-0.000386092
-0.003381571,3.85E-05,0.005121982,-0.004928735,-0.007122896,-0.000386409
-0.003381879,3.79E-05,0.005122668,-0.004928568,-0.007122678,-0.000386712
-0.003382182,3.74E-05,0.005123306,-0.004928409,-0.007122653,-0.0003871
-0.003382485,3.68E-05,0.005123969,-0.004928303,-0.007122726,-0.000387482
-0.003382793,3.61E-05,0.005124659,-0.004928033,-0.007122109,-0.000387692
-0.003383099,3.58E-05,0.005125274,-0.004928042,-0.007122772,-0.000388252
-0.003383397,3.48E-05,0.005126006,-0.00492765,-0.007121576,-0.000388283
-0.003383712,3.47E-05,0.005126581,-0.004927785,-0.007122811,-0.000389024
-0.003384012,3.37E-05,0.005127318,-0.00492735,-0.007121438,-0.000389006
-0.003384317,3.35E-05,0.00512792,-0.004927433,-0.007122398,-0.000389644
-0.003384617,3.25E-05,0.005128659,-0.004926984,-0.00712102,-0.000389641
-0.003384932,3.23E-05,0.005129244,-0.004927126,-0.007122204,-0.000390347
-0.003385232,3.15E-05,0.005129956,-0.004926802,-0.007121346,-0.000390477
-0.003385534,3.10E-05,0.005130596,-0.004926652,-0.007121323,-0.000390856
-0.003385844,3.05E-05,0.005131257,-0.004926582,-0.007121565,-0.000391292
-0.00338615,2.98E-05,0.005131931,-0.004926356,-0.007121123,-0.000391543
-0.003386448,2.93E-05,0.005132576,-0.004926243,-0.007121264,-0.000391964
-0.003386758,2.86E-05,0.005133274,-0.004925965,-0.007120578,-0.000392144
-0.003387061,2.82E-05,0.005133903,-0.004925922,-0.007121016,-0.000392645
-0.003387367,2.75E-05,0.005134583,-0.004925701,-0.007120562,-0.000392888
-0.00338767,2.69E-05,0.005135251,-0.004925553,-0.007120531,-0.000393255
-0.003387979,2.65E-05,0.005135883,-0.004925492,-0.007120837,-0.000393719
-0.003388283,2.58E-05,0.005136555,-0.004925274,-0.007120449,-0.00039399
-0.003388583,2.52E-05,0.005137233,-0.004925106,-0.007120299,-0.000394314
-0.003388893,2.46E-05,0.005137891,-0.004924952,-0.007120203,-0.000394666
-0.003389196,2.39E-05,0.005138563,-0.004924705,-0.007119687,-0.000394902
-0.003389503,2.36E-05,0.005139187,-0.00492475,-0.007120476,-0.000395494
-0.0033898,2.27E-05,0.005139912,-0.004924331,-0.007119216,-0.000395515
-0.003390114,2.24E-05,0.005140528,-0.004924395,-0.007120037,-0.000396121
-0.003390418,2.18E-05,0.005141188,-0.004924165,-0.007119657,-0.000396397
-0.003390719,2.12E-05,0.00514186,-0.004924076,-0.007119794,-0.000396796
-0.003391023,2.04E-05,0.005142546,-0.004923711,-0.007118818,-0.000396914
-0.00339133,2.00E-05,0.005143201,-0.004923703,-0.007119305,-0.00039741
-0.003391638,1.96E-05,0.005143813,-0.004923646,-0.007119673,-0.0003979
-0.003391938,1.87E-05,0.00514454,-0.004923267,-0.007118585,-0.000397971
-0.003392243,1.83E-05,0.005145173,-0.004923237,-0.00711901,-0.000398456
-0.003392553,1.77E-05,0.005145833,-0.004923094,-0.007118965,-0.000398829
-0.003392849,1.70E-05,0.005146514,-0.004922864,-0.00711853,-0.000399068
-0.003393158,1.64E-05,0.005147187,-0.004922643,-0.00711813,-0.000399342
-0.003393467,1.61E-05,0.005147793,-0.004922696,-0.007118965,-0.000399954
-0.003393768,1.54E-05,0.0051485,-0.004922447,-0.007118401,-0.00040016
-0.003394074,1.47E-05,0.005149161,-0.004922216,-0.00711801,-0.000400433
-0.003394376,1.43E-05,0.005149798,-0.004922179,-0.00711838,-0.000400907
-0.003394681,1.35E-05,0.00515049,-0.004921896,-0.007117754,-0.000401115
-0.00339499,1.30E-05,0.00515115,-0.004921793,-0.007117827,-0.000401501
-0.003395289,1.24E-05,0.00515181,-0.00492159,-0.007117558,-0.000401808
-0.0033956,1.19E-05,0.005152461,-0.004921508,-0.007117742,-0.000402232
-0.0033959,1.13E-05,0.005153125,-0.004921354,-0.007117652,-0.000402577
-0.003396206,1.07E-05,0.005153797,-0.004921132,-0.007117255,-0.000402849
-0.003396514,1.03E-05,0.005154435,-0.004921102,-0.007117676,-0.000403338
-0.003396813,9.47E-06,0.005155134,-0.0049208,-0.007116944,-0.000403505
-0.003397122,8.99E-06,0.005155778,-0.004920716,-0.007117126,-0.000403931
-0.003397421,8.33E-06,0.005156445,-0.004920488,-0.007116743,-0.000404206
-0.003397734,7.77E-06,0.005157117,-0.004920369,-0.00711675,-0.000404576
-0.003398032,7.24E-06,0.005157764,-0.004920241,-0.007116772,-0.000404958
-0.003398337,6.50E-06,0.005158458,-0.004919966,-0.007116145,-0.000405158
-0.003398648,6.22E-06,0.005159062,-0.004920029,-0.007116976,-0.000405766
-0.003398949,5.50E-06,0.005159747,-0.004919763,-0.007116405,-0.000405985
-0.003399249,4.76E-06,0.005160455,-0.004919511,-0.007115843,-0.000406192
-0.003399557,4.40E-06,0.005161059,-0.004919498,-0.007116387,-0.000406722
-0.003399862,3.68E-06,0.005161756,-0.004919252,-0.007115869,-0.00040696
-0.003400168,2.99E-06,0.005162431,-0.00491901,-0.007115357,-0.000407189
-0.003400469,2.62E-06,0.005163072,-0.004919016,-0.007115963,-0.00040772
-0.003400778,2.21E-06,0.005163685,-0.004918961,-0.007116326,-0.000408215
-0.00340108,1.25E-06,0.005164419,-0.004918548,-0.007115052,-0.000408225
-0.003401381,7.04E-07,0.005165092,-0.004918427,-0.007115076,-0.000408593
-0.003401692,2.68E-07,0.005165708,-0.004918358,-0.007115372,-0.000409072
-0.003401992,-3.12E-07,0.005166376,-0.004918205,-0.007115278,-0.000409415
-0.003402298,-1.01E-06,0.005167071,-0.00491798,-0.007114818,-0.000409648
-0.003402604,-1.50E-06,0.005167693,-0.004917868,-0.007114954,-0.00041008
-0.003402906,-2.11E-06,0.005168388,-0.004917716,-0.00711479,-0.00041039
-0.003403212,-2.64E-06,0.005169021,-0.004917576,-0.00711481,-0.000410783
-0.003403514,-3.37E-06,0.00516972,-0.004917325,-0.007114231,-0.000410987
-0.003403823,-3.88E-06,0.005170371,-0.004917225,-0.007114364,-0.000411398
-0.003404126,-4.43E-06,0.005171021,-0.004917074,-0.007114322,-0.000411776
-0.003404427,-5.05E-06,0.005171699,-0.004916912,-0.007114099,-0.000412068
-0.003404736,-5.51E-06,0.005172326,-0.004916822,-0.007114349,-0.000412529
-0.003405039,-6.26E-06,0.00517303,-0.004916561,-0.007113717,-0.000412715
-0.003405343,-6.71E-06,0.005173676,-0.004916498,-0.007114021,-0.000413175
-0.003405646,-7.56E-06,0.005174364,-0.004916137,-0.007113043,-0.000413289
-0.003405954,-7.81E-06,0.00517499,-0.004916233,-0.007113988,-0.000413911
-0.003406256,-8.53E-06,0.005175661,-0.00491597,-0.007113422,-0.000414136
-0.003406558,-9.18E-06,0.005176351,-0.004915781,-0.007113137,-0.000414423
-0.003406867,-9.80E-06,0.005177003,-0.004915583,-0.007112858,-0.000414728
-0.003407172,-1.01E-05,0.005177624,-0.004915673,-0.007113804,-0.000415361
-0.003407471,-1.11E-05,0.005178356,-0.004915167,-0.007112185,-0.000415286
-0.003407779,-1.13E-05,0.005178963,-0.004915279,-0.007113185,-0.000415939
-0.003408082,-1.21E-05,0.005179649,-0.004915008,-0.007112616,-0.000416155
-0.003408388,-1.27E-05,0.005180333,-0.004914796,-0.007112216,-0.000416412
-0.003408692,-1.30E-05,0.005180937,-0.004914841,-0.007112992,-0.000417008
-0.003408995,-1.39E-05,0.005181656,-0.004914488,-0.007112001,-0.000417104
-0.003409298,-1.44E-05,0.00518231,-0.004914374,-0.007112084,-0.000417496
-0.003409607,-1.50E-05,0.00518296,-0.004914204,-0.007111905,-0.000417834
-0.003409907,-1.55E-05,0.005183614,-0.004914151,-0.00711222,-0.000418282
-0.003410214,-1.62E-05,0.005184294,-0.004913903,-0.007111697,-0.000418518
-0.003410517,-1.68E-05,0.005184949,-0.004913745,-0.007111595,-0.000418864
-0.003410821,-1.72E-05,0.005185616,-0.004913685,-0.007111839,-0.000419292
-0.003411127,-1.80E-05,0.005186292,-0.004913344,-0.007110969,-0.000419443
-0.00341143,-1.84E-05,0.005186928,-0.004913345,-0.00711151,-0.00041996
-0.003411732,-1.92E-05,0.005187621,-0.004913085,-0.007110937,-0.00042017
-0.003412041,-1.95E-05,0.005188244,-0.004913109,-0.00711159,-0.000420722
-0.003412341,-2.05E-05,0.005188963,-0.004912657,-0.007110189,-0.000420717
-0.003412649,-2.07E-05,0.005189577,-0.004912732,-0.007111084,-0.000421337
-0.003412952,-2.13E-05,0.00519023,-0.004912618,-0.007111151,-0.000421729
-0.003413251,-2.23E-05,0.00519098,-0.00491212,-0.00710952,-0.000421644
-0.003413563,-2.23E-05,0.005191535,-0.004912402,-0.007111289,-0.000422509
-0.003413862,-2.34E-05,0.005192283,-0.004911892,-0.007109652,-0.000422433
-0.003414167,-2.36E-05,0.00519289,-0.004911967,-0.007110549,-0.000423055
-0.003414473,-2.44E-05,0.005193587,-0.004911658,-0.00710973,-0.000423202
-0.003414776,-2.49E-05,0.005194227,-0.00491161,-0.007110099,-0.000423673
-0.00341508,-2.55E-05,0.005194893,-0.004911442,-0.007109929,-0.000424004
-0.003415386,-2.63E-05,0.005195582,-0.004911147,-0.007109173,-0.000424169
-0.003415683,-2.67E-05,0.005196234,-0.004911088,-0.007109481,-0.000424617
-0.003416002,-2.71E-05,0.005196851,-0.004911089,-0.007110067,-0.000425171
-0.003416291,-2.81E-05,0.005197601,-0.004910596,-0.007108443,-0.000425079
-0.0034166,-2.85E-05,0.005198214,-0.004910628,-0.007109152,-0.000425649
-0.003416912,-2.89E-05,0.005198843,-0.004910579,-0.007109508,-0.000426136
-0.003417204,-2.98E-05,0.005199572,-0.004910216,-0.007108468,-0.000426207
-0.003417517,-3.02E-05,0.005200201,-0.004910199,-0.007108936,-0.000426713
-0.003417812,-3.10E-05,0.005200897,-0.004909869,-0.007108078,-0.000426846
-0.003418126,-3.12E-05,0.005201492,-0.004909982,-0.00710913,-0.000427523
-0.003418423,-3.21E-05,0.005202209,-0.00490963,-0.007108149,-0.00042761
-0.003418731,-3.26E-05,0.005202863,-0.004909509,-0.007108149,-0.000427991
-0.003419034,-3.31E-05,0.005203516,-0.004909395,-0.007108218,-0.00042838
-0.003419337,-3.38E-05,0.005204197,-0.004909158,-0.007107755,-0.000428628
-0.00341964,-3.45E-05,0.00520487,-0.004908968,-0.00710747,-0.000428917
-0.003419945,-3.49E-05,0.005205504,-0.004908922,-0.007107835,-0.000429397
-0.003420253,-3.53E-05,0.005206139,-0.004908905,-0.007108301,-0.000429897
-0.003420552,-3.64E-05,0.005206873,-0.004908401,-0.00710667,-0.000429823
-0.003420858,-3.66E-05,0.005207501,-0.004908525,-0.007107732,-0.000430474
-0.003421158,-3.75E-05,0.005208187,-0.004908088,-0.007106452,-0.000430515
-0.003421469,-3.78E-05,0.005208812,-0.004908208,-0.00710745,-0.000431147
-0.00342177,-3.84E-05,0.005209485,-0.004907992,-0.007107107,-0.000431432
-0.003422073,-3.91E-05,0.005210162,-0.004907763,-0.007106642,-0.000431678
-0.003422376,-3.97E-05,0.005210841,-0.004907567,-0.007106359,-0.000431965
-0.003422682,-4.01E-05,0.005211456,-0.00490755,-0.007106832,-0.00043248
-0.003422987,-4.10E-05,0.005212181,-0.004907239,-0.007106011,-0.000432615
-0.003423286,-4.14E-05,0.005212795,-0.00490716,-0.007106263,-0.000433067
-0.003423595,-4.19E-05,0.005213464,-0.004907094,-0.007106494,-0.0004335
-0.003423891,-4.28E-05,0.005214175,-0.004906704,-0.007105333,-0.000433539
-0.003424207,-4.31E-05,0.005214775,-0.004906771,-0.007106208,-0.000434177
-0.003424503,-4.38E-05,0.005215472,-0.004906503,-0.007105574,-0.00043436
-0.003424809,-4.44E-05,0.005216129,-0.004906389,-0.007105638,-0.000434754
-0.003425113,-4.50E-05,0.005216783,-0.004906224,-0.007105467,-0.000435084
-0.003425418,-4.55E-05,0.005217456,-0.004906084,-0.007105408,-0.000435431
-0.003425718,-4.62E-05,0.005218122,-0.004905864,-0.007105013,-0.000435703
-0.003426025,-4.68E-05,0.005218791,-0.004905729,-0.007104942,-0.000436049
-0.003426323,-4.73E-05,0.005219446,-0.0049056,-0.007104968,-0.000436429
-0.003426636,-4.80E-05,0.005220114,-0.004905397,-0.007104602,-0.000436705
-0.003426931,-4.86E-05,0.005220783,-0.004905242,-0.007104495,-0.000437046
-0.003427243,-4.90E-05,0.005221414,-0.004905181,-0.007104794,-0.000437508
-0.003427542,-4.97E-05,0.005222111,-0.004904939,-0.007104267,-0.000437726
-0.003427846,-5.02E-05,0.005222756,-0.004904856,-0.007104451,-0.000438149
-0.003428152,-5.10E-05,0.005223434,-0.004904563,-0.007103742,-0.000438335
-0.003428455,-5.14E-05,0.005224087,-0.004904536,-0.007104163,-0.000438817
-0.003428754,-5.21E-05,0.005224759,-0.004904304,-0.007103697,-0.000439057
-0.003429062,-5.28E-05,0.005225448,-0.004904072,-0.007103224,-0.000439301
-0.003429365,-5.32E-05,0.005226059,-0.004904071,-0.007103825,-0.000439849
-0.003429671,-5.37E-05,0.00522672,-0.004903967,-0.007103879,-0.000440231
-0.003429971,-5.46E-05,0.005227448,-0.004903568,-0.00710265,-0.000440252
-0.003430279,-5.48E-05,0.005228028,-0.004903708,-0.007103885,-0.000440985
-0.003430576,-5.59E-05,0.005228784,-0.004903193,-0.007102126,-0.000440855
-0.003430888,-5.61E-05,0.005229372,-0.004903312,-0.007103244,-0.000441551
-0.003431187,-5.68E-05,0.005230074,-0.004903077,-0.007102719,-0.000441765
-0.003431488,-5.75E-05,0.005230733,-0.004902863,-0.007102371,-0.000442046
-0.003431796,-5.80E-05,0.00523139,-0.004902752,-0.007102432,-0.000442441
-0.003432099,-5.85E-05,0.005232042,-0.004902642,-0.007102486,-0.000442822
-0.003432401,-5.93E-05,0.005232755,-0.00490233,-0.007101665,-0.000442966
-0.003432707,-5.96E-05,0.005233337,-0.004902433,-0.007102676,-0.000443626
-0.003433009,-6.04E-05,0.005234062,-0.00490208,-0.007101672,-0.000443708
-0.003433312,-6.10E-05,0.005234709,-0.004901961,-0.007101729,-0.000444109
-0.003433615,-6.16E-05,0.005235378,-0.004901775,-0.007101442,-0.000444399
-0.003433922,-6.20E-05,0.005236024,-0.004901731,-0.007101793,-0.000444862
-0.003434218,-6.29E-05,0.005236727,-0.004901347,-0.007100676,-0.000444931
-0.003434533,-6.31E-05,0.005237337,-0.004901481,-0.007101799,-0.000445615
-0.00343483,-6.40E-05,0.005238043,-0.004901139,-0.007100851,-0.000445715
-0.003435132,-6.45E-05,0.005238689,-0.004901011,-0.007100861,-0.000446101
-0.003435435,-6.52E-05,0.005239365,-0.004900824,-0.007100564,-0.000446385
-0.003435744,-6.56E-05,0.005240012,-0.00490075,-0.007100796,-0.000446823
-0.003436048,-6.62E-05,0.005240652,-0.004900647,-0.00710092,-0.000447237
-0.003436344,-6.70E-05,0.005241375,-0.004900315,-0.007099974,-0.000447334
-0.003436653,-6.75E-05,0.005242013,-0.004900214,-0.007100092,-0.000447746
-0.003436954,-6.80E-05,0.005242663,-0.004900128,-0.007100273,-0.000448167
-0.003437261,-6.87E-05,0.005243337,-0.004899909,-0.007099855,-0.000448426
-0.003437557,-6.93E-05,0.005244018,-0.004899729,-0.007099623,-0.000448725
-0.003437869,-6.98E-05,0.005244649,-0.004899673,-0.007099918,-0.000449191
-0.003438169,-7.05E-05,0.005245323,-0.004899438,-0.007099444,-0.000449426
-0.003438468,-7.12E-05,0.005246019,-0.004899207,-0.007098971,-0.000449667
-0.003438776,-7.16E-05,0.005246652,-0.004899163,-0.00709933,-0.000450138
-0.003439085,-7.21E-05,0.005247296,-0.004899098,-0.007099556,-0.000450571
-0.003439379,-7.29E-05,0.00524799,-0.004898744,-0.007098618,-0.000450692
-0.003439687,-7.35E-05,0.005248667,-0.004898644,-0.007098675,-0.000451067
-0.003439991,-7.39E-05,0.00524929,-0.004898567,-0.00709891,-0.000451514
-0.003440291,-7.47E-05,0.005249999,-0.004898272,-0.007098138,-0.000451667
-0.003440596,-7.51E-05,0.005250622,-0.004898234,-0.007098559,-0.00045216
-0.003440901,-7.58E-05,0.00525131,-0.004898049,-0.007098252,-0.000452444
-0.0034412,-7.64E-05,0.005251968,-0.004897851,-0.007097963,-0.000452735
-0.00344151,-7.69E-05,0.005252612,-0.004897827,-0.007098371,-0.000453218
-0.003441808,-7.77E-05,0.005253313,-0.004897451,-0.007097308,-0.000453304
-0.00344211,-7.82E-05,0.00525396,-0.004897401,-0.0070976,-0.00045375
-0.003442419,-7.87E-05,0.005254608,-0.004897355,-0.007097951,-0.00045422
-0.00344272,-7.94E-05,0.005255286,-0.004897051,-0.007097186,-0.000454382
-0.003443017,-8.01E-05,0.005255983,-0.004896825,-0.007096711,-0.000454614
-0.003443329,-8.05E-05,0.005256586,-0.004896869,-0.007097471,-0.000455209
-0.003443631,-8.11E-05,0.005257273,-0.004896655,-0.007097058,-0.00045546
-0.003443931,-8.18E-05,0.005257954,-0.004896431,-0.007096643,-0.000455716
-0.003444236,-8.24E-05,0.005258592,-0.004896309,-0.007096637,-0.000456093
-0.003444536,-8.30E-05,0.005259293,-0.004896119,-0.007096341,-0.000456367
-0.003444847,-8.34E-05,0.005259905,-0.004896085,-0.007096752,-0.000456871
-0.003445141,-8.42E-05,0.005260615,-0.004895775,-0.007095922,-0.000456998
-0.003445449,-8.48E-05,0.00526126,-0.004895656,-0.00709598,-0.000457395
-0.003445752,-8.53E-05,0.005261917,-0.004895553,-0.007096029,-0.00045778
-0.003446055,-8.59E-05,0.005262588,-0.004895367,-0.007095796,-0.000458085
-0.003446356,-8.67E-05,0.00526328,-0.004895114,-0.007095193,-0.000458287
-0.003446663,-8.70E-05,0.00526389,-0.004895164,-0.007095965,-0.000458875
-0.003446965,-8.77E-05,0.005264561,-0.004894928,-0.007095486,-0.000459119
-0.00344726,-8.86E-05,0.005265304,-0.004894519,-0.007094241,-0.000459135
-0.003447579,-8.86E-05,0.005265855,-0.004894805,-0.007096009,-0.000460003
-0.003447871,-8.97E-05,0.00526659,-0.004894323,-0.007094468,-0.000459953
-0.003448174,-9.02E-05,0.005267256,-0.004894221,-0.007094525,-0.000460321
-0.003448485,-9.06E-05,0.005267854,-0.004894217,-0.007095106,-0.000460882
-0.003448779,-9.14E-05,0.005268589,-0.004893902,-0.007094221,-0.000460985
-0.003449088,-9.19E-05,0.005269221,-0.004893829,-0.007094452,-0.000461426
-0.003449386,-9.26E-05,0.005269906,-0.00489355,-0.00709379,-0.000461621
-0.003449694,-9.31E-05,0.005270563,-0.004893476,-0.007093965,-0.000462031
-0.003449993,-9.36E-05,0.005271195,-0.004893382,-0.007094145,-0.000462464
-0.003450301,-9.43E-05,0.005271875,-0.004893193,-0.007093836,-0.000462744
-0.003450596,-9.52E-05,0.005272596,-0.004892844,-0.007092825,-0.000462829
-0.003450909,-9.52E-05,0.005273164,-0.004893051,-0.007094305,-0.000463618
-0.003451205,-9.63E-05,0.005273899,-0.004892562,-0.007092694,-0.000463545
-0.003451505,-9.68E-05,0.005274567,-0.004892456,-0.007092753,-0.000463923
-0.003451819,-9.71E-05,0.00527516,-0.004892529,-0.007093628,-0.000464552
-0.003452117,-9.79E-05,0.005275858,-0.004892257,-0.007092977,-0.000464732
-0.003452416,-9.87E-05,0.005276556,-0.004891949,-0.007092141,-0.00046487
-0.003452721,-9.91E-05,0.005277191,-0.004891922,-0.007092607,-0.000465379
-0.003453026,-9.96E-05,0.005277856,-0.004891807,-0.007092603,-0.000465741
-0.003453327,-0.000100373,0.005278529,-0.004891541,-0.007092003,-0.000465951
-0.003453629,-0.000100947,0.005279192,-0.004891409,-0.007091937,-0.0004663
-0.003453937,-0.000101465,0.005279841,-0.004891304,-0.007092043,-0.000466708
-0.003454234,-0.000102037,0.005280506,-0.004891174,-0.00709199,-0.000467057
-0.003454538,-0.000102861,0.005281211,-0.004890855,-0.007091143,-0.000467193
-0.003454845,-0.000103161,0.005281814,-0.004890908,-0.007091909,-0.000467785
-0.003455142,-0.00010398,0.005282513,-0.004890591,-0.007091074,-0.000467923
-0.003455451,-0.000104484,0.005283174,-0.004890514,-0.007091238,-0.000468331
-0.003455747,-0.000105188,0.005283853,-0.004890277,-0.007090765,-0.000468573
-0.003456053,-0.000105679,0.005284484,-0.004890191,-0.007090932,-0.000469002
-0.003456361,-0.000106225,0.005285157,-0.004890088,-0.007090981,-0.000469374
-0.003456656,-0.000106997,0.005285838,-0.004889791,-0.007090265,-0.000469552
-0.003456966,-0.000107411,0.005286482,-0.004889787,-0.007090726,-0.00047005
-0.003457258,-0.000108311,0.005287179,-0.004889389,-0.007089601,-0.000470113
-0.003457572,-0.000108557,0.005287802,-0.00488951,-0.007090588,-0.000470749
-0.003457871,-0.000109254,0.00528847,-0.004889272,-0.007090119,-0.000471001
-0.00345817,-0.000110077,0.005289174,-0.004888959,-0.007089267,-0.000471125
-0.003458479,-0.000110449,0.005289807,-0.004888969,-0.007089858,-0.000471666
-0.003458774,-0.0001112,0.005290481,-0.004888693,-0.0070892,-0.000471857
-0.003459088,-0.000111463,0.005291106,-0.004888793,-0.007090135,-0.00047248
-0.003459377,-0.000112616,0.005291846,-0.004888226,-0.00708823,-0.000472329
-0.003459689,-0.000112726,0.005292443,-0.004888433,-0.007089647,-0.000473089
-0.003459989,-0.000113595,0.005293139,-0.004888076,-0.007088624,-0.000473181
-0.003460294,-0.000114119,0.005293801,-0.004887984,-0.007088732,-0.000473574
-0.00346059,-0.000114765,0.005294465,-0.004887786,-0.007088438,-0.000473867
-0.003460903,-0.000115151,0.005295095,-0.004887783,-0.007088947,-0.000474387
-0.003461195,-0.00011618,0.005295832,-0.004887323,-0.007087463,-0.000474333
-0.003461503,-0.000116587,0.005296464,-0.004887309,-0.007087923,-0.00047484
-0.003461807,-0.00011691,0.005297073,-0.004887338,-0.00708863,-0.000475411
-0.003462108,-0.000117772,0.005297792,-0.004887011,-0.007087667,-0.000475503
-0.003462412,-0.000118234,0.005298425,-0.004886945,-0.007087957,-0.000475966
-0.003462712,-0.000119113,0.005299143,-0.004886596,-0.007086925,-0.000476042
-0.003463012,-0.000119513,0.005299764,-0.004886574,-0.007087409,-0.000476551
-0.003463322,-0.000120078,0.00530043,-0.004886454,-0.007087381,-0.000476916
-0.003463617,-0.000120816,0.005301112,-0.004886194,-0.007086788,-0.000477113
-0.003463923,-0.000121357,0.005301768,-0.004886082,-0.007086832,-0.000477508
-0.00346423,-0.000121874,0.005302417,-0.004885989,-0.007086935,-0.000477901
-0.003464525,-0.000122679,0.005303116,-0.004885685,-0.007086156,-0.000478056
-0.00346483,-0.000123104,0.005303752,-0.004885656,-0.007086564,-0.000478537
-0.003465132,-0.000123881,0.005304435,-0.004885371,-0.00708584,-0.000478716
-0.003465441,-0.000124122,0.005305051,-0.004885476,-0.007086832,-0.000479354
-0.003465736,-0.000125079,0.00530577,-0.004885068,-0.007085575,-0.000479378
-0.003466042,-0.000125572,0.00530641,-0.004884981,-0.00708574,-0.000479798
-0.003466336,-0.000126286,0.005307101,-0.004884754,-0.007085258,-0.000480028
-0.003466652,-0.000126671,0.005307727,-0.00488475,-0.007085776,-0.000480549
-0.003466947,-0.000127436,0.005308414,-0.004884476,-0.007085109,-0.00048073
-0.003467249,-0.000127996,0.005309073,-0.004884349,-0.007085102,-0.000481104
-0.003467558,-0.000128455,0.005309714,-0.004884302,-0.00708538,-0.000481547
-0.003467851,-0.000129302,0.005310418,-0.00488396,-0.007084483,-0.000481673
-0.003468157,-0.000129777,0.005311057,-0.004883902,-0.007084702,-0.000482101
-0.003468463,-0.000130398,0.005311733,-0.004883736,-0.007084513,-0.000482419
-0.003468757,-0.000131083,0.005312405,-0.004883513,-0.007084092,-0.00048267
-0.00346907,-0.000131478,0.00531304,-0.004883516,-0.007084597,-0.000483185
-0.003469362,-0.00013246,0.005313749,-0.004883071,-0.007083224,-0.000483181
-0.003469671,-0.000132632,0.005314365,-0.004883243,-0.007084467,-0.000483881
-0.003469975,-0.000133429,0.005315047,-0.004882941,-0.007083667,-0.000484042
-0.003470272,-0.0001341,0.005315718,-0.004882725,-0.007083305,-0.000484312
-0.003470573,-0.00013459,0.005316377,-0.004882665,-0.007083535,-0.000484736
-0.003470883,-0.00013522,0.005317042,-0.004882488,-0.007083269,-0.000485037
-0.003471178,-0.000135985,0.005317722,-0.004882204,-0.007082607,-0.000485233
-0.003471488,-0.000136203,0.005318331,-0.004882338,-0.007083664,-0.000485884
-0.003471779,-0.000137316,0.005319083,-0.004881811,-0.007081929,-0.000485777
-0.003472093,-0.000137489,0.005319667,-0.004881962,-0.007083098,-0.000486478
-0.003472388,-0.000138336,0.005320375,-0.004881633,-0.007082195,-0.000486592
-0.003472693,-0.000138877,0.005321031,-0.004881526,-0.007082231,-0.000486972
-0.003472995,-0.000139414,0.005321682,-0.004881414,-0.007082286,-0.000487358
-0.003473297,-0.000140068,0.005322349,-0.004881219,-0.00708197,-0.000487647
-0.003473594,-0.00014087,0.005323049,-0.004880919,-0.007081186,-0.000487792
-0.003473901,-0.000141305,0.005323692,-0.004880894,-0.007081575,-0.00048827
-0.003474208,-0.000141744,0.005324317,-0.004880849,-0.007081927,-0.000488748
-0.003474499,-0.000142554,0.005325028,-0.00488055,-0.007081141,-0.000488883
-0.003474818,-0.00014294,0.005325641,-0.004880549,-0.007081644,-0.000489414
-0.003475097,-0.000144051,0.0053264,-0.004880028,-0.007079924,-0.00048929
-0.00347542,-0.000144136,0.005326977,-0.00488025,-0.007081379,-0.000490071
-0.003475708,-0.000145054,0.005327684,-0.004879859,-0.00708024,-0.000490125
-0.003476025,-0.000145295,0.005328297,-0.004879976,-0.007081236,-0.000490774
-0.003476309,-0.000146403,0.005329044,-0.004879449,-0.007079492,-0.000490652
-0.003476625,-0.000146564,0.005329626,-0.004879616,-0.007080722,-0.000491376
-0.003476919,-0.000147466,0.005330351,-0.004879251,-0.007079641,-0.000491431
-0.003477222,-0.000148065,0.005331005,-0.00487909,-0.007079497,-0.000491773
-0.003477531,-0.000148433,0.005331633,-0.004879113,-0.007080083,-0.000492304
-0.003477827,-0.000149147,0.005332316,-0.004878872,-0.007079589,-0.000492532
-0.003478129,-0.000149806,0.005332993,-0.004878689,-0.007079267,-0.000492813
-0.003478429,-0.000150546,0.005333661,-0.004878413,-0.007078663,-0.000493027
-0.003478736,-0.000150984,0.005334322,-0.004878404,-0.007079054,-0.00049349
-0.003479037,-0.000151482,0.005334956,-0.004878312,-0.007079226,-0.000493913
-0.003479337,-0.000152328,0.005335654,-0.004877981,-0.007078305,-0.000494038
-0.00347964,-0.00015283,0.005336305,-0.004877905,-0.00707847,-0.000494442
-0.003479948,-0.000153262,0.005336946,-0.004877873,-0.007078865,-0.000494924
-0.003480239,-0.000154141,0.005337646,-0.004877517,-0.007077845,-0.000495017
-0.003480541,-0.000154802,0.005338328,-0.004877326,-0.007077521,-0.000495286
-0.003480855,-0.000155059,0.005338933,-0.004877424,-0.007078454,-0.000495922
-0.003481148,-0.000155902,0.005339633,-0.004877095,-0.007077548,-0.00049604
-0.003481449,-0.000156553,0.005340298,-0.004876895,-0.007077231,-0.000496326
-0.003481755,-0.00015707,0.005340958,-0.004876822,-0.007077383,-0.00049673
-0.003482055,-0.000157585,0.005341606,-0.004876723,-0.007077493,-0.000497133
-0.003482357,-0.000158446,0.005342296,-0.004876376,-0.007076513,-0.000497242
-0.003482655,-0.00015887,0.005342957,-0.004876372,-0.007076979,-0.000497718
-0.003482965,-0.000159511,0.005343602,-0.004876168,-0.007076655,-0.000498021
-0.003483265,-0.000160045,0.005344272,-0.004876087,-0.007076756,-0.000498403
-0.003483556,-0.00016093,0.005344978,-0.004875719,-0.007075727,-0.000498491
-0.003483875,-0.000161181,0.005345572,-0.004875817,-0.007076652,-0.000499127
-0.003484165,-0.000161934,0.005346265,-0.004875557,-0.007076051,-0.000499325
-0.003484467,-0.000162676,0.005346962,-0.00487531,-0.007075483,-0.00049953
-0.003484776,-0.00016313,0.005347582,-0.004875258,-0.007075761,-0.000499987
-0.003485066,-0.000163872,0.005348287,-0.00487501,-0.007075215,-0.000500196
-0.003485385,-0.000164168,0.005348889,-0.004875077,-0.007076015,-0.000500799
-0.003485669,-0.000165221,0.005349626,-0.004874596,-0.007074456,-0.000500727
-0.003485982,-0.000165421,0.005350224,-0.004874736,-0.007075564,-0.000501409
-0.003486279,-0.00016639,0.005350956,-0.004874328,-0.007074287,-0.000501419
-0.003486584,-0.000166698,0.005351558,-0.004874374,-0.00707505,-0.000502007
-0.00348688,-0.000167603,0.005352271,-0.004874006,-0.007073946,-0.000502072
-0.003487188,-0.00016791,0.005352905,-0.004874085,-0.00707477,-0.000502659
-0.003487482,-0.000168766,0.005353593,-0.004873733,-0.007073789,-0.00050276
-0.003487796,-0.000169119,0.005354209,-0.00487376,-0.007074422,-0.000503318
-0.003488084,-0.000170031,0.005354936,-0.004873391,-0.00707333,-0.00050337
-0.00348839,-0.000170537,0.005355586,-0.004873316,-0.00707349,-0.000503784
-0.003488696,-0.000171019,0.005356214,-0.004873235,-0.007073696,-0.000504225
-0.003488994,-0.000171716,0.005356904,-0.004873027,-0.007073268,-0.000504463
-0.003489299,-0.000172241,0.005357548,-0.004872925,-0.007073362,-0.000504868
-0.003489591,-0.000173115,0.005358262,-0.004872583,-0.007072388,-0.000504956
-0.003489906,-0.000173423,0.005358867,-0.004872638,-0.007073133,-0.000505547
-0.003490199,-0.000174144,0.005359559,-0.004872406,-0.007072641,-0.000505769
-0.0034905,-0.000174896,0.005360245,-0.004872148,-0.007072016,-0.000505963
-0.003490809,-0.000175196,0.005360858,-0.004872213,-0.007072831,-0.000506566
-0.003491103,-0.000176134,0.005361572,-0.004871822,-0.007071619,-0.000506595
-0.003491408,-0.000176494,0.005362196,-0.00487184,-0.007072247,-0.000507144
-0.003491706,-0.000177284,0.005362891,-0.004871556,-0.007071512,-0.000507303
-0.003492011,-0.000177892,0.005363561,-0.004871409,-0.007071364,-0.000507633
-0.003492314,-0.000178291,0.005364173,-0.004871388,-0.007071821,-0.000508138
-0.003492605,-0.000179306,0.005364923,-0.004870956,-0.007070428,-0.000508105
-0.003492924,-0.000179366,0.005365486,-0.00487119,-0.007071955,-0.000508912
-0.003493212,-0.000180359,0.005366221,-0.004870761,-0.007070614,-0.000508903
-0.003493515,-0.000181064,0.005366888,-0.004870527,-0.007070111,-0.000509133
-0.003493825,-0.000181216,0.005367486,-0.004870712,-0.007071404,-0.000509864
-0.003494111,-0.00018235,0.005368234,-0.00487017,-0.007069601,-0.000509732
-0.003494428,-0.000182634,0.005368845,-0.004870258,-0.007070445,-0.000510336
-0.00349472,-0.000183344,0.005369529,-0.004870026,-0.007069968,-0.000510565
-0.003495024,-0.000183911,0.005370172,-0.004869891,-0.007069929,-0.00051094
-0.003495327,-0.000184537,0.005370857,-0.004869745,-0.007069733,-0.00051124
-0.003495627,-0.000185253,0.005371531,-0.004869503,-0.007069227,-0.000511471
-0.003495926,-0.000185811,0.005372176,-0.004869373,-0.007069199,-0.000511844
-0.003496233,-0.000186178,0.005372819,-0.004869414,-0.00706984,-0.000512377
-0.003496529,-0.000187228,0.005373539,-0.004868924,-0.007068248,-0.000512314
-0.003496831,-0.000187555,0.005374168,-0.004868983,-0.007069013,-0.00051289
-0.003497134,-0.000188266,0.00537484,-0.004868751,-0.0070685,-0.000513118
-0.003497432,-0.000188944,0.005375511,-0.004868539,-0.007068119,-0.000513392
-0.003497738,-0.000189367,0.005376163,-0.004868539,-0.007068579,-0.000513869
-0.003498033,-0.000190148,0.005376829,-0.004868236,-0.007067826,-0.00051405
-0.003498345,-0.000190518,0.00537748,-0.004868277,-0.007068458,-0.000514577
-0.003498634,-0.000191461,0.005378187,-0.004867871,-0.007067243,-0.000514619
-0.003498942,-0.000191769,0.005378794,-0.004867928,-0.007067994,-0.000515193
-0.003499241,-0.000192706,0.005379518,-0.00486755,-0.007066817,-0.000515237
-0.003499542,-0.0001931,0.005380143,-0.004867537,-0.00706734,-0.000515756
-0.003499844,-0.000193728,0.005380822,-0.004867386,-0.00706714,-0.000516061
-0.003500145,-0.000194414,0.005381481,-0.004867165,-0.007066684,-0.000516304
-0.003500444,-0.00019499,0.00538215,-0.004867036,-0.007066669,-0.000516675
-0.003500754,-0.000195499,0.005382793,-0.004866961,-0.007066805,-0.000517082
-0.003501042,-0.000196363,0.005383492,-0.00486661,-0.007065836,-0.00051718
-0.003501345,-0.000196961,0.00538417,-0.004866479,-0.00706574,-0.000517516
-0.003501659,-0.000197153,0.005384751,-0.00486662,-0.007066853,-0.000518205
-0.003501948,-0.00019819,0.005385493,-0.004866159,-0.007065386,-0.000518161
-0.003502255,-0.000198652,0.005386132,-0.00486611,-0.007065655,-0.000518606
-0.003502551,-0.000199296,0.005386794,-0.004865932,-0.007065399,-0.000518903
-0.003502855,-0.00019996,0.005387471,-0.00486574,-0.007065069,-0.00051918
-0.003503157,-0.000200489,0.005388122,-0.004865643,-0.00706515,-0.000519574
-0.003503455,-0.000201109,0.005388781,-0.004865476,-0.007064955,-0.000519888
-0.00350376,-0.000201707,0.005389459,-0.00486535,-0.007064861,-0.000520227
-0.003504055,-0.000202486,0.005390123,-0.004865051,-0.007064114,-0.000520399
-0.003504358,-0.000203031,0.005390803,-0.004864958,-0.007064203,-0.000520777
-0.003504665,-0.000203478,0.00539143,-0.004864924,-0.007064539,-0.000521251
-0.003504959,-0.000204304,0.005392112,-0.004864596,-0.00706367,-0.000521381
-0.003505264,-0.000204834,0.0053928,-0.00486453,-0.007063817,-0.000521777
-0.003505562,-0.000205398,0.005393417,-0.004864381,-0.007063733,-0.000522137
-0.003505868,-0.000205984,0.0053941,-0.004864266,-0.007063703,-0.000522492
-0.003506161,-0.000206769,0.005394784,-0.00486397,-0.007062951,-0.00052265
-0.003506467,-0.000207361,0.005395445,-0.004863842,-0.007062864,-0.000522995
-0.003506767,-0.000207873,0.005396094,-0.004863753,-0.007063016,-0.000523412
-0.003507066,-0.000208493,0.005396758,-0.004863595,-0.007062811,-0.000523715
-0.003507371,-0.000209126,0.005397423,-0.004863423,-0.00706259,-0.000524033
-0.003507668,-0.000209746,0.005398093,-0.004863267,-0.007062384,-0.000524334
-0.00350797,-0.00021047,0.005398775,-0.004863032,-0.007061877,-0.000524566
-0.003508267,-0.000210992,0.005399412,-0.004862931,-0.007061967,-0.000524964
-0.003508575,-0.00021161,0.005400089,-0.004862787,-0.007061812,-0.000525288
-0.003508871,-0.000212175,0.005400745,-0.004862662,-0.007061784,-0.000525644
-0.003509173,-0.000212912,0.005401423,-0.004862414,-0.007061221,-0.000525863
-0.003509477,-0.000213369,0.005402065,-0.004862378,-0.007061543,-0.000526313
-0.003509774,-0.000214089,0.005402744,-0.004862142,-0.007061029,-0.00052655
-0.003510074,-0.000214795,0.005403425,-0.004861922,-0.007060582,-0.000526788
-0.003510374,-0.000215279,0.005404061,-0.004861856,-0.007060797,-0.000527214
-0.003510681,-0.000215859,0.005404734,-0.004861733,-0.007060759,-0.000527578
-0.003510973,-0.000216746,0.005405425,-0.004861374,-0.007059704,-0.000527651
-0.003511283,-0.000216892,0.005406016,-0.004861553,-0.007061005,-0.000528387
-0.003511575,-0.000218065,0.005406784,-0.004861006,-0.007059097,-0.000528215
-0.003511882,-0.000218242,0.005407362,-0.004861159,-0.007060275,-0.000528921
-0.00351218,-0.000219008,0.005408066,-0.004860903,-0.00705965,-0.000529104
-0.003512478,-0.000219679,0.005408711,-0.004860686,-0.007059247,-0.000529376
-0.003512779,-0.000220368,0.005409423,-0.004860502,-0.007058913,-0.000529633
-0.003513089,-0.000220692,0.005410016,-0.004860544,-0.007059612,-0.000530214
-0.003513378,-0.000221612,0.00541074,-0.004860176,-0.007058486,-0.000530258
-0.003513682,-0.000222154,0.005411381,-0.00486006,-0.007058528,-0.000530646
-0.003513987,-0.000222675,0.005412038,-0.004859982,-0.007058657,-0.000531047
-0.003514281,-0.00022339,0.005412707,-0.004859748,-0.00705816,-0.000531283
-0.003514589,-0.000223838,0.005413369,-0.004859732,-0.007058543,-0.000531744
-0.003514879,-0.000224758,0.005414054,-0.00485933,-0.00705737,-0.000531799
-0.003515194,-0.000224958,0.005414665,-0.004859494,-0.007058533,-0.000532491
-0.003515477,-0.00022615,0.005415419,-0.00485891,-0.007056518,-0.000532293
-0.003515794,-0.000226157,0.005415993,-0.004859209,-0.007058294,-0.000533156
-0.003516081,-0.000227304,0.005416721,-0.00485865,-0.007056392,-0.000533002
-0.003516392,-0.000227604,0.005417358,-0.004858742,-0.007057251,-0.000533601
-0.003516686,-0.00022826,0.005418015,-0.004858544,-0.007056942,-0.000533892
-0.00351699,-0.00022889,0.00541868,-0.004858385,-0.007056699,-0.000534187
-0.003517285,-0.00022966,0.005419381,-0.004858123,-0.007056087,-0.000534385
-0.003517593,-0.000230065,0.005419992,-0.004858105,-0.007056518,-0.000534882
-0.003517886,-0.000230832,0.005420694,-0.004857852,-0.007055894,-0.000535068
-0.003518191,-0.000231432,0.005421357,-0.004857715,-0.007055783,-0.000535404
-0.003518488,-0.000232045,0.005422007,-0.004857547,-0.007055584,-0.000535727
-0.003518794,-0.000232456,0.005422652,-0.004857552,-0.007056093,-0.000536228
-0.003519087,-0.000233479,0.005423371,-0.004857095,-0.007054598,-0.000536187
-0.003519395,-0.000233729,0.005423981,-0.004857207,-0.007055599,-0.000536833
-0.003519687,-0.000234663,0.005424695,-0.004856825,-0.007054413,-0.000536867
-0.003519994,-0.000234965,0.005425306,-0.004856893,-0.007055225,-0.000537464
-0.003520292,-0.000235792,0.005426012,-0.004856594,-0.007054409,-0.000537604
-0.003520591,-0.000236432,0.005426666,-0.00485641,-0.00705412,-0.000537896
-0.00352089,-0.000236964,0.00542732,-0.004856317,-0.007054226,-0.000538293
-0.003521199,-0.00023754,0.005427981,-0.004856201,-0.007054171,-0.000538645
-0.003521487,-0.00023829,0.005428674,-0.004855952,-0.007053603,-0.000538848
-0.003521796,-0.000238853,0.005429314,-0.004855822,-0.007053565,-0.000539217
-0.003522093,-0.000239471,0.005429987,-0.004855676,-0.007053407,-0.000539539
-0.003522393,-0.00024005,0.005430636,-0.004855544,-0.007053319,-0.000539883
-0.003522693,-0.000240731,0.005431322,-0.004855347,-0.007052971,-0.000540148
-0.003522997,-0.000241276,0.005431961,-0.004855241,-0.007052994,-0.000540534
-0.003523287,-0.000242066,0.005432668,-0.004854964,-0.007052305,-0.000540697
-0.003523598,-0.000242554,0.005433294,-0.004854895,-0.007052499,-0.000541132
-0.003523895,-0.000243169,0.005433968,-0.004854751,-0.007052349,-0.000541454
-0.003524193,-0.000243841,0.005434643,-0.004854556,-0.007052008,-0.000541723
-0.003524491,-0.000244498,0.005435298,-0.004854364,-0.007051671,-0.000542005
-0.003524801,-0.000244929,0.005435947,-0.004854352,-0.00705211,-0.00054249
-0.003525091,-0.000245846,0.005436653,-0.00485398,-0.007050985,-0.000542546
-0.003525395,-0.000246146,0.005437268,-0.004854052,-0.007051807,-0.000543143
-0.003525692,-0.000247098,0.005437973,-0.004853651,-0.007050558,-0.000543169
-0.003526001,-0.000247337,0.005438595,-0.004853784,-0.007051593,-0.000543817
-0.003526289,-0.000248303,0.005439297,-0.004853361,-0.007050309,-0.000543836
-0.003526591,-0.000248947,0.005439987,-0.004853207,-0.007050072,-0.000544124
-0.003526905,-0.00024916,0.005440563,-0.004853329,-0.00705113,-0.000544805
-0.003527188,-0.000250141,0.005441291,-0.004852912,-0.007049821,-0.000544799
-0.003527497,-0.0002507,0.005441952,-0.004852809,-0.007049839,-0.000545175
-0.003527787,-0.000251365,0.005442617,-0.004852613,-0.00704951,-0.000545449
-0.003528106,-0.000251675,0.00544324,-0.004852691,-0.007050307,-0.000546038
-0.003528386,-0.000252737,0.005443958,-0.004852202,-0.007048699,-0.000545963
-0.003528694,-0.000253091,0.005444596,-0.00485225,-0.007049392,-0.00054652
-0.003528996,-0.000253793,0.00544526,-0.004852026,-0.007048921,-0.000546761
-0.003529292,-0.000254506,0.00544595,-0.004851811,-0.007048467,-0.000547001
-0.003529595,-0.000254846,0.00544656,-0.004851851,-0.00704915,-0.000547557
-0.003529892,-0.000255803,0.00544728,-0.004851452,-0.007047902,-0.000547583
-0.003530192,-0.000256228,0.005447914,-0.004851442,-0.007048349,-0.00054807
-0.0035305,-0.000256807,0.00544858,-0.004851322,-0.007048292,-0.000548423
-0.003530789,-0.000257599,0.005449251,-0.004851027,-0.007047548,-0.000548592
-0.003531089,-0.000258198,0.005449927,-0.004850896,-0.007047445,-0.000548918
-0.003531397,-0.000258755,0.005450578,-0.004850789,-0.007047454,-0.000549296
-0.003531688,-0.000259404,0.005451241,-0.004850603,-0.007047186,-0.00054959
-0.003531997,-0.000259958,0.005451898,-0.004850505,-0.007047201,-0.000549964
-0.003532286,-0.000260751,0.005452594,-0.00485022,-0.00704649,-0.000550125
-0.0035326,-0.000261124,0.005453203,-0.004850244,-0.007047056,-0.000550666
-0.003532882,-0.000262056,0.005453938,-0.004849869,-0.007045934,-0.0005507
-0.003533197,-0.000262331,0.005454531,-0.004849954,-0.007046799,-0.000551327
-0.003533487,-0.000263314,0.005455249,-0.004849536,-0.007045477,-0.000551325
-0.003533795,-0.000263588,0.005455874,-0.004849645,-0.007046415,-0.000551947
-0.003534085,-0.000264478,0.005456569,-0.004849284,-0.007045343,-0.000552019
-0.003534388,-0.000265158,0.005457241,-0.004849087,-0.007044993,-0.000552292
-0.003534689,-0.000265543,0.005457879,-0.00484911,-0.007045573,-0.000552815
-0.003534989,-0.000266285,0.005458552,-0.004848857,-0.00704497,-0.000553024
-0.003535289,-0.000266879,0.005459207,-0.004848723,-0.007044872,-0.00055336
-0.003535587,-0.000267475,0.005459873,-0.00484859,-0.00704478,-0.000553704
-0.003535889,-0.000268156,0.005460551,-0.004848395,-0.007044413,-0.000553967
-0.003536183,-0.000268855,0.005461218,-0.004848174,-0.007043967,-0.00055421
-0.003536488,-0.000269299,0.005461853,-0.004848149,-0.007044347,-0.000554692
-0.003536788,-0.000270035,0.005462547,-0.004847922,-0.00704381,-0.0005549
-0.003537079,-0.000270756,0.005463215,-0.004847683,-0.007043291,-0.000555126
-0.003537391,-0.000271126,0.005463843,-0.004847714,-0.007043915,-0.000555669
-0.003537683,-0.000271971,0.005464542,-0.004847399,-0.007043017,-0.00055579
-0.003537982,-0.000272502,0.005465184,-0.0048473,-0.007043106,-0.00055618
-0.00353828,-0.000273241,0.005465875,-0.004847068,-0.007042571,-0.000556399
-0.00353859,-0.000273582,0.005466491,-0.004847121,-0.007043253,-0.000556955
-0.003538872,-0.000274675,0.005467226,-0.004846608,-0.007041583,-0.00055686
-0.003539187,-0.000274875,0.005467829,-0.004846776,-0.007042743,-0.000557549
-0.003539482,-0.00027562,0.005468512,-0.004846527,-0.007042162,-0.000557754
-0.003539778,-0.000276405,0.005469191,-0.004846247,-0.007041443,-0.000557929
-0.003540077,-0.000276872,0.005469837,-0.004846208,-0.007041767,-0.000558379
-0.003540385,-0.00027747,0.005470506,-0.00484608,-0.007041661,-0.000558718
-0.003540674,-0.000278231,0.005471177,-0.004845813,-0.007041017,-0.000558908
-0.00354098,-0.00027872,0.005471829,-0.00484576,-0.007041266,-0.000559345
-0.003541278,-0.000279426,0.005472499,-0.004845541,-0.007040807,-0.000559586
-0.003541574,-0.00028014,0.005473181,-0.004845324,-0.007040331,-0.000559816
-0.003541876,-0.000280582,0.005473813,-0.004845297,-0.007040715,-0.000560297
-0.00354217,-0.000281452,0.005474521,-0.004844965,-0.007039763,-0.000560397
-0.003542481,-0.000281674,0.005475113,-0.004845094,-0.007040806,-0.000561059
-0.003542769,-0.000282799,0.005475859,-0.004844581,-0.007039051,-0.000560934
-0.003543066,-0.000283233,0.005476489,-0.00484455,-0.007039458,-0.000561422
-0.00354338,-0.000283575,0.005477126,-0.004844628,-0.007040179,-0.000561971
-0.003543671,-0.000284485,0.005477813,-0.004844243,-0.00703905,-0.000562045
-0.003543966,-0.000285167,0.005478498,-0.004844049,-0.007038692,-0.000562303
-0.003544268,-0.000285686,0.005479141,-0.004843971,-0.007038842,-0.000562715
-0.003544569,-0.000286316,0.005479804,-0.004843808,-0.007038615,-0.000563017
-0.003544868,-0.000286942,0.005480474,-0.004843657,-0.007038432,-0.000563338
-0.003545168,-0.000287609,0.005481141,-0.004843467,-0.007038094,-0.000563606
-0.003545466,-0.000288094,0.005481779,-0.00484341,-0.00703835,-0.000564049
-0.003545763,-0.000288921,0.005482476,-0.004843112,-0.007037514,-0.000564185
-0.003546063,-0.000289519,0.005483135,-0.00484297,-0.007037406,-0.000564517
-0.003546366,-0.000290004,0.005483782,-0.004842926,-0.007037665,-0.000564962
-0.003546655,-0.000290847,0.005484477,-0.004842602,-0.007036773,-0.000565075
-0.003546967,-0.00029122,0.005485097,-0.004842635,-0.007037378,-0.00056562
-0.003547259,-0.000292045,0.005485797,-0.004842331,-0.007036555,-0.000565752
-0.003547554,-0.000292702,0.005486465,-0.004842156,-0.007036267,-0.000566036
-0.003547862,-0.000293103,0.005487087,-0.004842156,-0.00703676,-0.00056655
-0.003548152,-0.000294016,0.005487799,-0.004841794,-0.007035675,-0.00056661
-0.003548462,-0.000294361,0.005488423,-0.004841848,-0.007036366,-0.000567172
-0.003548753,-0.000295154,0.005489112,-0.004841566,-0.007035649,-0.000567335
-0.003549054,-0.000295794,0.005489779,-0.004841406,-0.007035414,-0.000567638
-0.003549351,-0.000296357,0.005490417,-0.004841279,-0.007035372,-0.000568002
-0.003549652,-0.000297092,0.005491123,-0.004841062,-0.007034891,-0.000568222
-0.003549949,-0.000297678,0.00549176,-0.004840924,-0.007034792,-0.000568576
-0.003550252,-0.000298166,0.005492412,-0.004840875,-0.007035039,-0.000569001
-0.003550544,-0.000298973,0.005493099,-0.004840582,-0.007034273,-0.000569164
-0.003550853,-0.000299444,0.005493744,-0.004840546,-0.007034571,-0.000569607
-0.003551143,-0.000300188,0.005494419,-0.004840299,-0.007033995,-0.000569817
-0.003551444,-0.000300885,0.00549509,-0.00484009,-0.007033565,-0.00057007
-0.003551742,-0.000301453,0.005495759,-0.004839985,-0.007033589,-0.000570434
-0.003552039,-0.000302032,0.005496409,-0.004839861,-0.00703353,-0.000570788
-0.003552345,-0.000302668,0.005497077,-0.004839699,-0.007033305,-0.000571093
-0.003552636,-0.000303374,0.005497735,-0.004839477,-0.007032829,-0.000571334
-0.003552942,-0.000303926,0.005498403,-0.004839382,-0.007032896,-0.000571716
-0.00355324,-0.000304489,0.005499059,-0.004839279,-0.007032914,-0.000572087
-0.003553528,-0.000305348,0.005499748,-0.004838945,-0.007031955,-0.000572186
-0.003553838,-0.000305863,0.005500405,-0.004838877,-0.007032135,-0.000572603
-0.003554137,-0.000306321,0.005501035,-0.00483884,-0.00703246,-0.000573065
-0.003554423,-0.000307321,0.00550175,-0.004838409,-0.007031077,-0.000573048
-0.003554739,-0.000307568,0.005502369,-0.004838543,-0.007032103,-0.000573694
-0.003555025,-0.000308432,0.005503068,-0.004838209,-0.007031162,-0.0005738
-0.003555327,-0.000309066,0.005503718,-0.004838041,-0.007030906,-0.000574104
-0.003555627,-0.000309577,0.005504377,-0.00483798,-0.007031115,-0.000574521
-0.003555924,-0.000310265,0.005505039,-0.00483777,-0.0070307,-0.00057478
-0.003556228,-0.000310853,0.005505704,-0.004837652,-0.007030638,-0.000575127
-0.003556514,-0.000311705,0.005506405,-0.004837332,-0.007029738,-0.000575237
-0.00355683,-0.000311891,0.005506984,-0.004837488,-0.007030915,-0.000575949
-0.003557114,-0.000313009,0.005507747,-0.004836992,-0.007029199,-0.000575818
-0.003557415,-0.00031348,0.005508369,-0.004836936,-0.007029468,-0.00057627
-0.00355772,-0.000313834,0.005508995,-0.004836987,-0.007030156,-0.000576831
-0.003558012,-0.000314875,0.005509714,-0.004836525,-0.007028621,-0.00057677
-0.003558315,-0.000315219,0.005510355,-0.004836592,-0.007029374,-0.000577335
-0.003558611,-0.00031606,0.00551103,-0.00483626,-0.007028458,-0.000577466
-0.00355891,-0.000316528,0.00551168,-0.004836234,-0.007028784,-0.00057791
-0.003559207,-0.000317242,0.005512346,-0.004836007,-0.007028297,-0.000578148
-0.003559503,-0.000317947,0.005513033,-0.004835807,-0.007027887,-0.000578396
-0.003559814,-0.00031829,0.005513646,-0.004835851,-0.007028561,-0.000578958
-0.003560101,-0.000319226,0.005514361,-0.004835479,-0.007027409,-0.000578993
-0.003560399,-0.000319782,0.005515005,-0.004835366,-0.007027425,-0.000579376
-0.003560701,-0.000320374,0.005515671,-0.004835248,-0.007027354,-0.000579719
-0.003561001,-0.000320947,0.005516321,-0.004835123,-0.007027326,-0.00058008
-0.003561289,-0.000321801,0.005517015,-0.004834807,-0.007026407,-0.000580185
-0.003561598,-0.000322274,0.005517666,-0.004834766,-0.007026714,-0.000580644
-0.003561895,-0.00032293,0.005518325,-0.004834593,-0.007026419,-0.000580929
-0.003562192,-0.000323512,0.005518985,-0.004834468,-0.007026378,-0.00058128
-0.003562493,-0.000324074,0.005519632,-0.004834362,-0.007026367,-0.000581645
-0.003562783,-0.000324934,0.005520343,-0.004834044,-0.007025475,-0.000581764
-0.00356309,-0.000325527,0.005520981,-0.004833901,-0.007025349,-0.000582103
-0.003563384,-0.000325981,0.005521635,-0.004833886,-0.007025728,-0.000582563
-0.003563681,-0.000326853,0.005522329,-0.00483355,-0.007024754,-0.000582666
-0.003563982,-0.000327317,0.005522966,-0.004833516,-0.007025073,-0.000583122
-0.003564279,-0.000327905,0.005523625,-0.004833389,-0.007025013,-0.00058347
-0.003564579,-0.000328714,0.005524309,-0.004833098,-0.007024226,-0.000583621
-0.003564873,-0.000329308,0.005524977,-0.004832978,-0.007024167,-0.000583967
-0.003565174,-0.00032986,0.005525624,-0.004832874,-0.007024185,-0.000584343
-0.003565474,-0.000330491,0.005526288,-0.004832721,-0.007023995,-0.000584653
-0.003565766,-0.000331296,0.005526971,-0.004832429,-0.007023226,-0.000584812
-0.003566075,-0.000331621,0.005527599,-0.004832509,-0.007024006,-0.00058539
-0.003566362,-0.000332552,0.005528305,-0.004832129,-0.007022851,-0.000585434
-0.003566665,-0.000333049,0.005528939,-0.004832063,-0.00702306,-0.000585868
-0.00356696,-0.00033376,0.005529627,-0.004831861,-0.007022614,-0.000586101
-0.003567259,-0.000334354,0.005530272,-0.004831719,-0.007022511,-0.000586447
-0.003567564,-0.000334864,0.005530926,-0.004831662,-0.007022699,-0.000586861
-0.003567852,-0.000335778,0.00553163,-0.004831295,-0.007021598,-0.000586923
-0.003568154,-0.00033613,0.005532253,-0.004831346,-0.007022289,-0.00058748
-0.003568453,-0.000336945,0.005532938,-0.004831052,-0.007021478,-0.000587623
-0.003568751,-0.000337436,0.005533582,-0.004830995,-0.007021742,-0.00058807
-0.003569041,-0.000338444,0.005534308,-0.004830575,-0.007020338,-0.000588035
-0.00356935,-0.000338603,0.005534897,-0.004830763,-0.007021624,-0.000588759
-0.003569649,-0.00033928,0.005535556,-0.004830556,-0.007021266,-0.000589041
-0.003569936,-0.000340284,0.005536302,-0.004830156,-0.007019918,-0.000589013
-0.00357024,-0.000340676,0.005536894,-0.004830149,-0.007020417,-0.000589535
-0.003570533,-0.000341371,0.005537591,-0.004829958,-0.007020056,-0.000589791
-0.003570842,-0.000341916,0.005538239,-0.004829875,-0.007020116,-0.000590177
-0.003571131,-0.000342634,0.005538905,-0.004829639,-0.007019626,-0.000590413
-0.003571431,-0.000343205,0.005539575,-0.004829547,-0.007019634,-0.000590769
-0.003571726,-0.000343911,0.005540227,-0.004829315,-0.00701916,-0.000591019
-0.003572033,-0.000344511,0.005540903,-0.0048292,-0.00701908,-0.000591353
-0.003572316,-0.000345266,0.005541577,-0.004828944,-0.007018485,-0.000591559
-0.003572623,-0.000345771,0.005542222,-0.004828885,-0.007018675,-0.000591978
-0.003572919,-0.000346461,0.005542898,-0.004828689,-0.007018299,-0.000592238
-0.003573222,-0.000346941,0.005543531,-0.004828646,-0.007018553,-0.000592676
-0.003573516,-0.000347747,0.00554423,-0.004828361,-0.007017825,-0.00059284
-0.003573804,-0.000348499,0.005544896,-0.004828109,-0.007017204,-0.000593037
-0.003574118,-0.00034882,0.005545523,-0.004828192,-0.007018012,-0.000593628
-0.003574402,-0.00034977,0.005546232,-0.0048278,-0.007016785,-0.000593648
-0.003574707,-0.000350208,0.005546873,-0.004827796,-0.007017218,-0.000594133
-0.003575009,-0.000350769,0.005547512,-0.004827682,-0.007017219,-0.000594511
-0.003575292,-0.000351737,0.005548227,-0.004827277,-0.007015937,-0.000594516
-0.003575604,-0.00035199,0.005548851,-0.004827419,-0.007016982,-0.000595163
-0.003575892,-0.000353009,0.005549549,-0.004826958,-0.007015499,-0.000595133
-0.003576193,-0.000353342,0.005550174,-0.004827033,-0.007016264,-0.000595703
-0.003576492,-0.000354149,0.005550867,-0.004826749,-0.007015506,-0.000595865
-0.00357679,-0.000354642,0.005551511,-0.0048267,-0.007015749,-0.000596289
-0.003577085,-0.000355393,0.005552181,-0.00482645,-0.007015154,-0.000596501
-0.00357738,-0.000356121,0.005552868,-0.004826229,-0.007014659,-0.000596722
-0.003577684,-0.000356571,0.005553503,-0.004826211,-0.007015024,-0.000597193
-0.003577975,-0.00035731,0.005554172,-0.004825967,-0.007014477,-0.000597412
-0.003578283,-0.000357785,0.005554823,-0.00482594,-0.00701478,-0.000597854
-0.003578566,-0.00035868,0.00555552,-0.004825589,-0.007013753,-0.000597937
-0.003578873,-0.000359193,0.005556168,-0.00482552,-0.007013917,-0.000598354
-0.003579165,-0.000359912,0.005556839,-0.004825305,-0.007013433,-0.000598575
-0.003579466,-0.000360439,0.005557482,-0.00482522,-0.007013562,-0.000598995
-0.003579767,-0.000361053,0.005558153,-0.004825091,-0.00701343,-0.00059931
-0.003580058,-0.00036173,0.005558813,-0.004824893,-0.007013074,-0.000599584
-0.003580353,-0.000362575,0.005559516,-0.004824591,-0.007012205,-0.000599702
-0.003580661,-0.000362829,0.005560113,-0.004824707,-0.00701319,-0.000600349
-0.003580949,-0.000363792,0.005560834,-0.004824319,-0.007011957,-0.000600369
-0.003581247,-0.000364347,0.00556147,-0.004824205,-0.007011962,-0.000600743
-0.003581547,-0.000364909,0.005562139,-0.004824119,-0.007012024,-0.00060112
-0.003581842,-0.000365686,0.005562817,-0.004823856,-0.007011348,-0.000601296
-0.003582142,-0.000366159,0.005563453,-0.004823815,-0.007011642,-0.000601749
-0.003582441,-0.000366839,0.005564123,-0.004823626,-0.00701129,-0.000602022
-0.00358273,-0.000367624,0.005564806,-0.004823356,-0.007010607,-0.000602192
-0.003583041,-0.000367964,0.005565435,-0.00482343,-0.007011333,-0.000602758
-0.003583322,-0.000368957,0.005566145,-0.004823003,-0.007009991,-0.000602753
-0.003583628,-0.000369429,0.005566785,-0.004822971,-0.007010295,-0.000603205
-0.003583926,-0.000370034,0.005567436,-0.004822827,-0.007010164,-0.000603538
-0.003584218,-0.000370757,0.005568116,-0.004822614,-0.007009686,-0.00060377
-0.003584516,-0.000371453,0.005568797,-0.00482242,-0.007009294,-0.000604021
-0.003584815,-0.000371951,0.005569423,-0.004822353,-0.007009494,-0.00060445
-0.003585121,-0.000372507,0.005570083,-0.004822263,-0.007009546,-0.000604831
-0.003585399,-0.000373446,0.00557079,-0.00482188,-0.007008379,-0.00060487
-0.003585711,-0.000373886,0.005571429,-0.004821881,-0.007008794,-0.000605347
-0.003586003,-0.000374599,0.005572093,-0.004821653,-0.007008315,-0.000605587
-0.0035863,-0.000375168,0.005572749,-0.004821551,-0.007008319,-0.000605952
-0.003586603,-0.00037573,0.005573404,-0.004821455,-0.00700835,-0.000606328
-0.003586887,-0.000376623,0.005574102,-0.004821098,-0.00700732,-0.000606404
-0.003587191,-0.000377155,0.005574757,-0.004821036,-0.007007442,-0.000606805
-0.00358749,-0.000377746,0.005575405,-0.004820901,-0.007007373,-0.000607153
-0.003587789,-0.000378331,0.005576057,-0.004820787,-0.007007306,-0.000607507
-0.003588075,-0.000379254,0.005576767,-0.004820416,-0.007006189,-0.000607555
-0.003588381,-0.000379585,0.00557738,-0.004820487,-0.007006943,-0.000608134
-0.00358868,-0.000380262,0.005578054,-0.004820303,-0.007006615,-0.000608409
-0.003588965,-0.0003812,0.005578769,-0.004819935,-0.007005448,-0.00060844
-0.003589276,-0.000381454,0.005579355,-0.00482004,-0.007006422,-0.000609098
-0.003589566,-0.0003823,0.005580065,-0.004819748,-0.007005562,-0.000609207
-0.003589857,-0.000382964,0.005580723,-0.004819563,-0.007005261,-0.000609494
-0.003590162,-0.000383579,0.005581386,-0.004819427,-0.007005113,-0.000609824
-0.003590459,-0.000384148,0.00558204,-0.004819319,-0.00700512,-0.000610189
-0.003590756,-0.000384739,0.005582697,-0.004819204,-0.007005054,-0.000610532
-0.003591044,-0.000385669,0.005583389,-0.004818816,-0.007003878,-0.000610583
-0.003591352,-0.000386022,0.005584028,-0.004818887,-0.007004608,-0.00061114
-0.003591642,-0.000386764,0.005584701,-0.00481865,-0.007004045,-0.000611351
-0.003591937,-0.000387465,0.005585365,-0.00481844,-0.007003622,-0.000611606
-0.003592237,-0.000388155,0.005586042,-0.004818256,-0.007003243,-0.00061186
-0.003592537,-0.000388572,0.005586672,-0.004818254,-0.00700373,-0.000612368
-0.003592833,-0.0003893,0.005587345,-0.004818035,-0.007003224,-0.000612588
-0.003593121,-0.000390105,0.005588037,-0.00481776,-0.007002485,-0.000612746
-0.003593428,-0.000390538,0.005588664,-0.004817747,-0.007002907,-0.000613239
-0.003593716,-0.00039134,0.00558935,-0.00481747,-0.007002171,-0.000613397
-0.003594019,-0.000391901,0.005590008,-0.004817385,-0.007002224,-0.000613771
-0.003594314,-0.000392501,0.005590654,-0.004817239,-0.007002085,-0.000614109
-0.003594607,-0.000393315,0.005591353,-0.004816967,-0.007001344,-0.000614259
-0.003594905,-0.000393846,0.005591996,-0.004816884,-0.007001463,-0.000614663
-0.003595205,-0.000394418,0.005592653,-0.004816785,-0.007001453,-0.000615021
-0.003595501,-0.000395144,0.005593316,-0.004816549,-0.007000949,-0.000615257
-0.003595789,-0.000395943,0.005594009,-0.004816285,-0.007000228,-0.000615415
-0.0035961,-0.000396216,0.005594623,-0.004816399,-0.007001169,-0.000616043
-0.003596383,-0.000397211,0.005595332,-0.004815981,-0.006999838,-0.00061604
-0.003596688,-0.000397702,0.005595967,-0.004815925,-0.007000051,-0.000616471
-0.003596985,-0.00039827,0.005596641,-0.004815844,-0.007000119,-0.000616843
-0.003597271,-0.000399109,0.005597303,-0.004815511,-0.006999203,-0.000616965
-0.003597577,-0.000399645,0.005597971,-0.004815451,-0.006999342,-0.000617366
-0.003597875,-0.000400193,0.005598621,-0.004815362,-0.006999421,-0.000617747
-0.003598162,-0.000401068,0.005599302,-0.004815017,-0.006998431,-0.000617854
-0.003598462,-0.000401572,0.00559996,-0.004814977,-0.006998658,-0.000618265
-0.003598765,-0.000402158,0.0056006,-0.004814849,-0.006998588,-0.000618626
-0.003599047,-0.000403056,0.005601315,-0.004814515,-0.00699758,-0.000618698
-0.003599363,-0.00040326,0.005601904,-0.004814669,-0.006998717,-0.000619393
-0.003599643,-0.000404332,0.005602635,-0.004814198,-0.006997138,-0.000619311
-0.003599947,-0.000404706,0.005603255,-0.004814237,-0.006997759,-0.000619856
-0.003600234,-0.000405671,0.005603964,-0.004813844,-0.006996508,-0.000619868
-0.003600545,-0.000405926,0.005604569,-0.004813967,-0.006997489,-0.000620513
-0.003600829,-0.000406768,0.005605272,-0.004813671,-0.006996677,-0.000620646
-0.003601126,-0.000407592,0.005605942,-0.004813365,-0.006995805,-0.000620775
-0.003601429,-0.000407882,0.005606579,-0.004813487,-0.006996777,-0.000621407
-0.003601722,-0.000408718,0.005607242,-0.004813168,-0.006995857,-0.000621522
-0.003602018,-0.000409318,0.005607923,-0.004813057,-0.006995828,-0.000621872
-0.003602308,-0.000410106,0.005608583,-0.004812774,-0.006995089,-0.000622042
-0.003602621,-0.000410415,0.005609213,-0.004812881,-0.006995946,-0.000622643
-0.003602903,-0.000411282,0.005609905,-0.004812548,-0.006994999,-0.000622737
-0.00360319,-0.000412243,0.005610611,-0.004812152,-0.006993766,-0.000622771
-0.003603507,-0.000412347,0.005611196,-0.004812402,-0.006995229,-0.000623534
-0.003603795,-0.000413224,0.005611898,-0.004812071,-0.006994293,-0.000623646
-0.003604092,-0.000413827,0.005612541,-0.00481193,-0.006994149,-0.000623976
-0.00360438,-0.000414641,0.00561325,-0.004811667,-0.006993425,-0.000624127
-0.003604688,-0.000415041,0.005613863,-0.004811674,-0.006993941,-0.000624643
-0.003604972,-0.000415921,0.005614561,-0.004811345,-0.006992958,-0.000624737
-0.00360528,-0.000416346,0.005615193,-0.00481135,-0.006993434,-0.00062524
-0.003605565,-0.000417197,0.005615872,-0.004811027,-0.006992503,-0.00062534
-0.003605868,-0.000417681,0.005616543,-0.004811015,-0.006992854,-0.000625796
-0.003606162,-0.000418374,0.005617181,-0.004810793,-0.006992408,-0.000626054
-0.003606452,-0.000419189,0.005617893,-0.004810525,-0.006991674,-0.000626201
-0.003606759,-0.000419551,0.0056185,-0.004810572,-0.006992325,-0.00062676
-0.003607047,-0.000420452,0.005619195,-0.004810218,-0.006991249,-0.00062682
-0.003607344,-0.000420971,0.005619852,-0.004810161,-0.006991456,-0.000627243
-0.003607642,-0.000421626,0.005620511,-0.004809993,-0.00699117,-0.000627529
-0.00360794,-0.000422166,0.005621158,-0.004809912,-0.006991285,-0.000627928
-0.003608232,-0.000422965,0.005621845,-0.00480964,-0.006990549,-0.000628089
-0.003608517,-0.000423836,0.00562253,-0.004809308,-0.006989592,-0.00062819
-0.003608835,-0.00042393,0.005623135,-0.004809575,-0.006991134,-0.000628973
-0.003609111,-0.000425139,0.005623848,-0.004808974,-0.006989066,-0.000628783
-0.003609426,-0.000425258,0.005624456,-0.004809225,-0.00699055,-0.000629554
-0.003609701,-0.000426437,0.005625201,-0.004808673,-0.006988614,-0.000629371
-0.003610013,-0.000426617,0.005625782,-0.00480885,-0.006989839,-0.000630083
-0.003610301,-0.000427582,0.005626491,-0.004808455,-0.006988589,-0.00063011
-0.0036106,-0.000428029,0.005627137,-0.004808455,-0.006989018,-0.000630582
-0.003610888,-0.000428927,0.005627815,-0.004808089,-0.006987932,-0.000630657
-0.003611193,-0.000429355,0.005628464,-0.004808114,-0.006988424,-0.00063115
-0.003611483,-0.000430024,0.005629125,-0.00480793,-0.006988114,-0.000631429
-0.00361178,-0.000430779,0.0056298,-0.004807687,-0.006987527,-0.00063164
-0.003612074,-0.000431397,0.005630463,-0.004807559,-0.006987382,-0.000631959
-0.003612378,-0.000431906,0.005631096,-0.004807487,-0.006987566,-0.000632382
-0.003612653,-0.000432881,0.005631819,-0.004807101,-0.006986316,-0.000632387
-0.003612974,-0.000433107,0.005632417,-0.00480725,-0.006987401,-0.000633065
-0.003613252,-0.00043412,0.005633117,-0.004806809,-0.006985975,-0.000633036
-0.003613555,-0.000434538,0.005633768,-0.004806834,-0.006986511,-0.000633541
-0.003613846,-0.000435298,0.005634439,-0.004806589,-0.006985897,-0.000633739
-0.003614144,-0.000435958,0.005635097,-0.004806414,-0.006985601,-0.00063403
-0.003614442,-0.000436493,0.005635751,-0.004806344,-0.006985737,-0.000634424
-0.003614732,-0.000437353,0.005636439,-0.004806028,-0.006984817,-0.000634538
-0.003615033,-0.00043768,0.005637056,-0.004806102,-0.0069856,-0.00063512
-0.003615326,-0.000438639,0.005637764,-0.004805719,-0.006984359,-0.000635143
-0.003615611,-0.000439297,0.005638432,-0.004805546,-0.006984114,-0.000635435
-0.003615929,-0.000439535,0.005639033,-0.004805701,-0.006985158,-0.000636091
-0.003616204,-0.000440694,0.00563976,-0.004805147,-0.006983284,-0.000635942
-0.003616507,-0.000441055,0.005640396,-0.004805216,-0.006983988,-0.000636498
-0.003616804,-0.000441772,0.00564106,-0.004805003,-0.006983504,-0.000636725
-0.003617096,-0.000442446,0.005641714,-0.004804814,-0.006983163,-0.000637011
-0.00361739,-0.000443149,0.005642401,-0.004804624,-0.006982777,-0.000637254
-0.003617692,-0.000443639,0.005643044,-0.004804588,-0.006983056,-0.000637698
-0.003617979,-0.000444431,0.005643713,-0.004804311,-0.006982325,-0.000637868
-0.003618277,-0.00044502,0.005644375,-0.004804202,-0.00698229,-0.000638217
-0.003618579,-0.000445596,0.005645021,-0.004804096,-0.006982271,-0.000638583
-0.003618862,-0.00044647,0.005645722,-0.004803769,-0.006981324,-0.000638679
-0.003619164,-0.000446985,0.005646364,-0.004803716,-0.006981509,-0.000639097
-0.003619461,-0.000447582,0.00564701,-0.004803584,-0.006981405,-0.000639438
-0.003619751,-0.000448368,0.005647707,-0.004803338,-0.006980779,-0.000639621
-0.003620046,-0.000448965,0.005648342,-0.004803196,-0.006980644,-0.000639961
-0.003620351,-0.000449465,0.005649,-0.004803169,-0.006980914,-0.000640394
-0.003620636,-0.000450307,0.005649683,-0.004802858,-0.006980051,-0.000640516
-0.003620935,-0.000450868,0.005650335,-0.004802765,-0.006980091,-0.000640897
-0.003621227,-0.000451604,0.005651009,-0.004802545,-0.006979565,-0.000641114
-0.003621516,-0.000452332,0.005651675,-0.004802315,-0.006979073,-0.000641346
-0.003621828,-0.000452654,0.005652297,-0.004802415,-0.00697988,-0.000641934
-0.003622115,-0.000453571,0.005652999,-0.004802052,-0.006978776,-0.000641996
-0.003622404,-0.000454136,0.005653652,-0.004801959,-0.00697883,-0.000642364
-0.003622703,-0.000454945,0.005654328,-0.004801676,-0.006978043,-0.000642522
-0.003622998,-0.000455411,0.005654966,-0.004801657,-0.006978398,-0.000642982
-0.003623299,-0.000455991,0.005655618,-0.004801543,-0.006978386,-0.000643352
-0.00362358,-0.000457,0.005656336,-0.004801127,-0.006977,-0.000643321
-0.003623881,-0.000457438,0.005656961,-0.004801121,-0.006977417,-0.000643803
-0.003624186,-0.000457926,0.00565761,-0.004801086,-0.006977705,-0.000644252
-0.003624471,-0.0004587,0.005658279,-0.004800831,-0.006977055,-0.000644435
-0.003624761,-0.000459609,0.005658981,-0.004800479,-0.006975993,-0.000644512
-0.003625069,-0.000459812,0.005659572,-0.004800649,-0.006977157,-0.000645194
-0.003625355,-0.000460779,0.0056603,-0.004800268,-0.006975938,-0.000645217
-0.003625647,-0.000461479,0.005660948,-0.00480006,-0.006975499,-0.000645466
-0.003625948,-0.000461881,0.005661591,-0.004800093,-0.006976084,-0.00064599
-0.003626238,-0.000462717,0.005662265,-0.004799789,-0.006975213,-0.000646113
-0.003626543,-0.000463271,0.005662917,-0.004799708,-0.006975297,-0.000646513
-0.003626818,-0.000464159,0.005663623,-0.004799376,-0.006974299,-0.000646578
-0.003627134,-0.000464369,0.005664209,-0.004799536,-0.006975448,-0.000647284
-0.003627424,-0.000465262,0.005664907,-0.004799197,-0.006974428,-0.000647362
-0.003627705,-0.000466076,0.0056656,-0.004798923,-0.006973678,-0.000647505
-0.003628005,-0.000466674,0.005666251,-0.004798804,-0.006973595,-0.000647856
-0.003628309,-0.000467107,0.005666877,-0.004798804,-0.006974042,-0.000648351
-0.003628603,-0.000467793,0.005667547,-0.004798616,-0.006973675,-0.000648608
-0.003628885,-0.000468698,0.005668244,-0.004798273,-0.006972642,-0.000648687
-0.003629188,-0.000469154,0.005668884,-0.004798259,-0.006973012,-0.000649153
-0.003629479,-0.000469918,0.005669554,-0.004798017,-0.006972405,-0.000649353
-0.003629779,-0.000470453,0.005670201,-0.004797945,-0.006972525,-0.000649745
-0.003630063,-0.000471348,0.005670893,-0.004797599,-0.006971508,-0.00064984
-0.003630372,-0.000471619,0.005671508,-0.004797729,-0.006972463,-0.00065046
-0.003630657,-0.000472512,0.005672205,-0.00479739,-0.006971474,-0.000650553
-0.003630952,-0.00047323,0.005672873,-0.004797181,-0.006970993,-0.000650785
-0.003631245,-0.000473756,0.005673521,-0.00479712,-0.006971159,-0.000651192
-0.003631547,-0.000474407,0.005674167,-0.004796947,-0.006970901,-0.000651497
-0.003631834,-0.000475134,0.005674861,-0.004796753,-0.006970426,-0.000651713
-0.00363213,-0.000475776,0.00567551,-0.00479659,-0.006970216,-0.000652033
-0.003632424,-0.000476446,0.005676175,-0.004796416,-0.006969903,-0.000652306
-0.003632727,-0.000476918,0.00567681,-0.004796396,-0.006970229,-0.000652765
-0.003633001,-0.000478048,0.005677545,-0.004795881,-0.006968475,-0.000652632
-0.003633317,-0.000478152,0.005678111,-0.004796119,-0.006969931,-0.000653422
-0.003633603,-0.00047896,0.005678826,-0.004795869,-0.00696926,-0.000653576
-0.003633896,-0.00047977,0.00567948,-0.004795568,-0.006968436,-0.000653732
-0.003634175,-0.000480665,0.005680189,-0.004795237,-0.006967457,-0.000653815
-0.003634505,-0.00048057,0.005680748,-0.004795645,-0.006969592,-0.000654776
-0.003634766,-0.000481931,0.005681498,-0.004794944,-0.006967069,-0.000654444
-0.003635075,-0.000482276,0.005682129,-0.004795026,-0.006967819,-0.000655006
-0.003635373,-0.000482863,0.005682773,-0.004794909,-0.006967763,-0.000655368
-0.003635655,-0.000483813,0.005683478,-0.004794531,-0.006966579,-0.000655396
-0.003635959,-0.000484199,0.005684103,-0.004794568,-0.006967181,-0.000655931
-0.003636248,-0.000484964,0.005684777,-0.004794331,-0.006966568,-0.000656128
-0.003636541,-0.00048562,0.005685445,-0.004794168,-0.006966315,-0.000656414
-0.003636842,-0.000486251,0.005686104,-0.004794027,-0.006966149,-0.000656742
-0.003637124,-0.000487055,0.005686775,-0.004793749,-0.006965388,-0.000656893
-0.003637432,-0.000487415,0.005687406,-0.004793816,-0.006966109,-0.000657458
-0.003637717,-0.000488301,0.005688094,-0.004793477,-0.006965084,-0.000657537
-0.003638016,-0.000488854,0.005688746,-0.004793401,-0.00696518,-0.000657929
-0.0036383,-0.000489684,0.005689427,-0.004793104,-0.006964356,-0.000658067
-0.003638599,-0.000490239,0.005690082,-0.004793024,-0.00696443,-0.000658443
-0.003638909,-0.000490614,0.005690691,-0.004793066,-0.00696505,-0.000658998
-0.003639177,-0.000491763,0.005691447,-0.004792552,-0.006963267,-0.00065885
-0.003639485,-0.000492148,0.005692038,-0.004792572,-0.006963804,-0.000659379
-0.003639771,-0.000492908,0.005692746,-0.004792358,-0.006963283,-0.000659579
-0.003640087,-0.000493245,0.005693336,-0.004792418,-0.006963991,-0.000660165
-0.003640353,-0.000494362,0.005694073,-0.004791915,-0.006962289,-0.000660045
-0.003640652,-0.000494926,0.005694724,-0.004791831,-0.006962322,-0.000660415
-0.003640953,-0.00049543,0.005695364,-0.004791779,-0.006962557,-0.000660849
-0.003641255,-0.000495976,0.005696008,-0.004791706,-0.00696264,-0.000661238
-0.003641535,-0.000496914,0.005696707,-0.004791333,-0.006961481,-0.00066128
-0.003641831,-0.000497424,0.005697355,-0.004791283,-0.006961718,-0.000661708
-0.003642134,-0.000498054,0.005698001,-0.004791133,-0.006961508,-0.000662026
-0.003642409,-0.000498964,0.005698709,-0.004790798,-0.006960472,-0.000662086
-0.00364272,-0.000499312,0.005699322,-0.00479086,-0.006961187,-0.000662662
-0.003643003,-0.000500162,0.005700009,-0.004790556,-0.0069603,-0.000662773
-0.003643307,-0.000500681,0.005700658,-0.004790502,-0.006960506,-0.000663202
-0.003643591,-0.000501433,0.005701324,-0.004790265,-0.006959917,-0.000663396
-0.003643886,-0.000502196,0.005702003,-0.004790026,-0.006959339,-0.00066361
-0.003644185,-0.000502646,0.005702644,-0.004790029,-0.006959745,-0.000664074
-0.003644473,-0.000503367,0.005703307,-0.004789813,-0.006959273,-0.000664313
-0.00364477,-0.000504086,0.005703969,-0.004789602,-0.006958809,-0.000664559
-0.003645066,-0.000504655,0.005704631,-0.00478952,-0.006958836,-0.000664921
-0.003645354,-0.000505338,0.005705295,-0.004789331,-0.006958512,-0.000665195
-0.003645641,-0.000506261,0.005705987,-0.004788979,-0.006957389,-0.000665249
-0.003645951,-0.000506512,0.005706579,-0.004789105,-0.006958396,-0.000665907
-0.003646236,-0.000507342,0.005707297,-0.004788843,-0.006957653,-0.000666045
-0.003646531,-0.000508031,0.005707942,-0.004788646,-0.006957257,-0.000666306
-0.003646814,-0.000508807,0.005708616,-0.004788386,-0.006956609,-0.000666498
-0.003647127,-0.000509187,0.005709251,-0.004788455,-0.006957254,-0.000667032
-0.003647404,-0.000510044,0.005709933,-0.004788131,-0.006956355,-0.000667153
-0.003647707,-0.000510609,0.005710579,-0.004788038,-0.00695638,-0.000667528
-0.003647993,-0.000511349,0.005711259,-0.004787829,-0.006955868,-0.000667737
-0.003648287,-0.000512063,0.005711924,-0.004787618,-0.006955437,-0.000668
-0.003648586,-0.000512611,0.005712564,-0.004787537,-0.006955497,-0.00066837
-0.003648875,-0.000513275,0.005713236,-0.004787382,-0.006955247,-0.000668666
-0.003649173,-0.00051395,0.005713891,-0.004787201,-0.006954927,-0.000668949
-0.003649457,-0.000514656,0.005714566,-0.004787007,-0.006954507,-0.000669187
-0.003649757,-0.000515319,0.005715224,-0.004786848,-0.00695424,-0.000669484
-0.003650055,-0.000515828,0.005715863,-0.004786796,-0.006954447,-0.000669905
-0.003650333,-0.000516727,0.005716557,-0.004786447,-0.006953425,-0.000669986
-0.003650643,-0.000517202,0.005717203,-0.004786446,-0.006953755,-0.000670435
-0.003650925,-0.000517941,0.005717861,-0.004786205,-0.006953223,-0.000670666
-0.003651219,-0.000518662,0.005718532,-0.004786002,-0.006952765,-0.000670894
-0.003651519,-0.000519154,0.005719181,-0.004785975,-0.006953043,-0.000671333
-0.003651801,-0.000520111,0.005719868,-0.004785581,-0.006951816,-0.000671369
-0.003652109,-0.000520367,0.005720486,-0.00478573,-0.006952849,-0.000672008
-0.003652392,-0.00052127,0.005721176,-0.004785385,-0.006951819,-0.000672094
-0.00365268,-0.000522051,0.00572186,-0.004785135,-0.006951161,-0.000672268
-0.003652989,-0.000522438,0.005722467,-0.004785171,-0.006951751,-0.000672813
-0.003653271,-0.00052323,0.00572316,-0.004784919,-0.006951078,-0.000672972
-0.003653564,-0.000523928,0.005723823,-0.004784728,-0.0069507,-0.000673241
-0.003653856,-0.000524617,0.005724485,-0.004784543,-0.006950322,-0.000673499
-0.003654158,-0.000525102,0.005725131,-0.004784522,-0.006950639,-0.000673947
-0.003654437,-0.000526026,0.005725807,-0.00478414,-0.006949496,-0.00067401
-0.003654743,-0.00052644,0.005726456,-0.00478419,-0.006950062,-0.000674519
-0.003655027,-0.000527246,0.00572714,-0.004783918,-0.006949324,-0.000674666
-0.003655324,-0.000527877,0.005727771,-0.004783759,-0.006949111,-0.000675
-0.003655613,-0.000528547,0.00572846,-0.004783612,-0.006948866,-0.000675272
-0.003655914,-0.000529153,0.005729096,-0.004783482,-0.006948732,-0.000675613
-0.0036562,-0.000529868,0.005729767,-0.004783276,-0.00694831,-0.000675862
-0.003656489,-0.000530576,0.005730445,-0.004783093,-0.006947911,-0.000676102
-0.003656788,-0.000531241,0.005731096,-0.004782921,-0.006947612,-0.000676396
-0.003657087,-0.00053167,0.005731725,-0.004782932,-0.006948078,-0.000676887
-0.003657362,-0.000532729,0.005732439,-0.004782473,-0.006946551,-0.00067683
-0.003657674,-0.000532953,0.005733056,-0.004782652,-0.006947699,-0.000677503
-0.003657957,-0.000533941,0.005733739,-0.00478223,-0.00694634,-0.0006775
-0.003658249,-0.000534477,0.005734398,-0.004782168,-0.006946521,-0.000677913
-0.003658537,-0.00053532,0.005735077,-0.004781876,-0.006945649,-0.000678032
-0.003658838,-0.000535753,0.005735707,-0.004781878,-0.006946111,-0.000678528
-0.003659123,-0.000536612,0.005736391,-0.004781572,-0.006945219,-0.000678645
-0.003659434,-0.000536895,0.00573701,-0.004781699,-0.006946158,-0.00067927
-0.003659702,-0.000538047,0.005737727,-0.004781164,-0.00694432,-0.000679124
-0.003660004,-0.000538524,0.005738376,-0.00478115,-0.006944659,-0.000679579
-0.003660303,-0.000539071,0.005739011,-0.00478107,-0.006944743,-0.000679969
-0.00366059,-0.000539876,0.005739692,-0.004780805,-0.00694402,-0.000680133
-0.003660882,-0.000540458,0.005740338,-0.004780694,-0.006943994,-0.00068049
-0.003661181,-0.000541117,0.005741007,-0.004780544,-0.006943751,-0.000680791
-0.003661464,-0.000541816,0.005741661,-0.004780353,-0.006943353,-0.000681041
-0.003661754,-0.000542626,0.005742354,-0.004780081,-0.00694263,-0.000681203
-0.003662061,-0.000543004,0.005742968,-0.004780135,-0.006943252,-0.000681745
-0.00366234,-0.000543899,0.005743663,-0.004779795,-0.006942249,-0.000681829
-0.003662641,-0.000544414,0.005744301,-0.004779749,-0.006942437,-0.000682245
-0.003662929,-0.000545186,0.005744985,-0.004779509,-0.006941837,-0.000682436
-0.003663221,-0.000545826,0.00574563,-0.004779357,-0.006941625,-0.000682756
-0.003663513,-0.000546459,0.005746292,-0.004779222,-0.006941454,-0.000683063
-0.00366381,-0.000547152,0.005746964,-0.004779043,-0.006941096,-0.00068333
-0.003664093,-0.000547871,0.00574762,-0.00477883,-0.00694064,-0.000683569
-0.003664398,-0.000548349,0.005748259,-0.004778812,-0.006940945,-0.000684016
-0.003664681,-0.000549228,0.005748947,-0.00477849,-0.006939988,-0.000684118
-0.003664973,-0.000549807,0.005749607,-0.004778398,-0.006940018,-0.000684484
-0.003665258,-0.000550683,0.005750281,-0.00477806,-0.006939031,-0.000684585
-0.003665572,-0.000550873,0.005750886,-0.004778271,-0.006940295,-0.000685294
-0.003665853,-0.000551793,0.005751582,-0.004777913,-0.00693919,-0.000685347
-0.003666144,-0.000552554,0.005752251,-0.004777674,-0.006938608,-0.000685561
-0.003666431,-0.000553125,0.005752902,-0.004777588,-0.006938638,-0.000685922
-0.003666726,-0.000553921,0.005753575,-0.004777321,-0.006937935,-0.000686101
-0.003667028,-0.000554351,0.005754211,-0.00477734,-0.006938419,-0.000686594
-0.00366731,-0.000555119,0.005754879,-0.004777098,-0.006937813,-0.000686794
-0.003667599,-0.000555943,0.005755569,-0.004776823,-0.006937019,-0.000686929
-0.003667907,-0.000556283,0.00575618,-0.004776901,-0.006937795,-0.000687519
-0.003668174,-0.000557383,0.005756897,-0.004776404,-0.006936124,-0.000687418
-0.003668484,-0.000557755,0.005757516,-0.004776472,-0.00693677,-0.000687959
-0.003668775,-0.000558414,0.005758183,-0.004776313,-0.006936537,-0.00068826
-0.003669065,-0.000559134,0.005758848,-0.004776107,-0.006936069,-0.000688493
-0.003669348,-0.000559947,0.005759532,-0.004775843,-0.006935338,-0.000688651
-0.003669655,-0.000560318,0.005760137,-0.004775886,-0.006935969,-0.0006892
-0.003669935,-0.000561262,0.005760851,-0.004775529,-0.00693483,-0.00068924
-0.003670234,-0.000561692,0.005761482,-0.00477554,-0.006935327,-0.000689741
-0.003670522,-0.000562623,0.005762159,-0.004775177,-0.006934147,-0.000689788
-0.003670816,-0.000563058,0.005762803,-0.004775189,-0.006934644,-0.000690282
-0.003671102,-0.000563906,0.005763482,-0.004774887,-0.006933766,-0.000690404
-0.003671399,-0.000564547,0.005764144,-0.004774752,-0.006933578,-0.000690716
-0.003671688,-0.000565128,0.005764792,-0.004774648,-0.006933584,-0.000691078
-0.00367199,-0.000565668,0.005765426,-0.004774575,-0.006933679,-0.000691483
-0.003672266,-0.000566629,0.005766144,-0.004774204,-0.006932495,-0.000691499
-0.003672567,-0.000567165,0.005766764,-0.004774131,-0.006932594,-0.000691906
-0.003672859,-0.000567796,0.005767432,-0.004773998,-0.006932448,-0.000692225
-0.003673148,-0.00056849,0.005768098,-0.004773816,-0.006932085,-0.000692486
-0.003673433,-0.000569261,0.005768771,-0.004773576,-0.006931482,-0.000692683
-0.003673734,-0.00056982,0.005769411,-0.00477349,-0.00693152,-0.000693061
-0.003674024,-0.000570488,0.005770076,-0.004773334,-0.006931253,-0.000693347
-0.003674317,-0.000571101,0.005770734,-0.004773212,-0.006931162,-0.000693686
-0.003674601,-0.000572031,0.005771405,-0.004772835,-0.006929988,-0.000693739
-0.003674895,-0.00057248,0.005772063,-0.004772855,-0.006930455,-0.000694211
-0.003675203,-0.000572932,0.00577268,-0.004772848,-0.006930834,-0.000694696
-0.003675461,-0.00057425,0.005773434,-0.004772198,-0.006928493,-0.0006944
-0.003675785,-0.000574281,0.005774009,-0.004772518,-0.006930237,-0.000695255
-0.003676065,-0.000575158,0.005774692,-0.004772191,-0.006929283,-0.00069535
-0.003676344,-0.000576045,0.005775387,-0.00477187,-0.006928319,-0.000695447
-0.003676656,-0.000576362,0.005775995,-0.004771966,-0.006929137,-0.000696043
-0.003676933,-0.000577356,0.005776692,-0.004771556,-0.006927801,-0.000696036
-0.003677231,-0.000577764,0.005777337,-0.004771602,-0.006928402,-0.00069656
-0.003677514,-0.000578658,0.005778013,-0.004771256,-0.006927352,-0.000696635
-0.003677812,-0.000579216,0.005778655,-0.004771178,-0.006927418,-0.000697024
-0.003678111,-0.000579715,0.005779302,-0.004771146,-0.006927705,-0.000697464
-0.003678387,-0.000580721,0.005780005,-0.004770736,-0.00692633,-0.000697439
-0.003678685,-0.000581208,0.005780627,-0.004770689,-0.00692661,-0.000697899
-0.003678975,-0.000581942,0.005781322,-0.004770504,-0.006926163,-0.00069812
-0.003679275,-0.000582435,0.005781931,-0.004770455,-0.006926382,-0.000698558
-0.003679548,-0.000583409,0.005782645,-0.004770062,-0.006925161,-0.000698577
-0.003679858,-0.00058378,0.005783273,-0.004770141,-0.006925835,-0.000699127
-0.003680144,-0.000584571,0.005783933,-0.004769868,-0.00692513,-0.000699303
-0.003680427,-0.000585318,0.00578461,-0.004769652,-0.006924605,-0.000699514
-0.003680724,-0.000585945,0.005785263,-0.004769524,-0.006924465,-0.000699844
-0.003681007,-0.000586697,0.005785937,-0.004769295,-0.006923915,-0.000700052
-0.003681315,-0.000587101,0.005786562,-0.004769338,-0.006924473,-0.000700568
-0.003681594,-0.000587983,0.005787243,-0.004769007,-0.006923511,-0.000700676
-0.00368188,-0.000588736,0.005787915,-0.004768783,-0.006922944,-0.000700874
-0.003682187,-0.000589103,0.005788546,-0.004768857,-0.006923657,-0.000701436
-0.003682469,-0.000589971,0.005789219,-0.004768534,-0.006922715,-0.000701546
-0.003682756,-0.000590751,0.005789895,-0.004768291,-0.006922065,-0.000701721
-0.003683054,-0.000591162,0.005790526,-0.004768324,-0.006922635,-0.000702249
-0.003683335,-0.000592152,0.00579123,-0.004767924,-0.006921317,-0.000702238
-0.003683639,-0.000592526,0.00579184,-0.004767977,-0.006921966,-0.000702796
-0.003683923,-0.000593353,0.005792521,-0.004767695,-0.00692117,-0.000702935
-0.003684217,-0.0005939,0.005793175,-0.004767633,-0.006921305,-0.000703332
-0.003684505,-0.000594644,0.00579384,-0.004767412,-0.006920772,-0.000703548
-0.003684789,-0.000595535,0.005794525,-0.004767082,-0.006919761,-0.000703633
-0.003685095,-0.000595822,0.005795132,-0.0047672,-0.006920714,-0.000704268
-0.003685375,-0.000596789,0.005795837,-0.004766825,-0.006919477,-0.00070428
-0.003685669,-0.000597268,0.005796474,-0.004766803,-0.006919817,-0.000704741
-0.003685956,-0.000598136,0.005797146,-0.004766485,-0.006918868,-0.000704846
-0.003686263,-0.000598516,0.005797774,-0.004766549,-0.006919513,-0.000705388
-0.003686522,-0.000599634,0.005798505,-0.004766052,-0.006917838,-0.000705275
-0.003686847,-0.0005998,0.005799077,-0.004766256,-0.006919106,-0.000706009
-0.003687118,-0.000600784,0.005799789,-0.004765865,-0.006917857,-0.000706019
-0.00368741,-0.000601446,0.005800446,-0.004765712,-0.006917578,-0.000706301
-0.0036877,-0.000602116,0.005801104,-0.004765544,-0.0069173,-0.000706591
-0.003688002,-0.000602584,0.005801739,-0.004765536,-0.006917661,-0.000707057
-0.00368828,-0.000603519,0.005802423,-0.004765168,-0.006916513,-0.000707105
-0.003688575,-0.000604041,0.005803081,-0.004765133,-0.006916734,-0.00070752
-0.00368886,-0.000604881,0.005803745,-0.004764829,-0.006915876,-0.000707656
-0.003689159,-0.000605319,0.005804385,-0.004764848,-0.006916351,-0.000708148
-0.003689446,-0.000606136,0.005805054,-0.004764572,-0.006915578,-0.000708299
-0.003689743,-0.000606724,0.005805718,-0.004764482,-0.006915586,-0.000708661
-0.003690022,-0.000607528,0.005806372,-0.004764203,-0.006914831,-0.00070882
-0.00369031,-0.000608226,0.005807047,-0.004764022,-0.006914485,-0.000709093
-0.003690626,-0.000608477,0.005807655,-0.00476419,-0.006915539,-0.000709738
-0.00369088,-0.000609874,0.005808398,-0.004763469,-0.006912916,-0.000709382
-0.003691194,-0.000609963,0.005808997,-0.004763753,-0.006914522,-0.000710185
-0.003691482,-0.000610853,0.005809666,-0.004763419,-0.006913485,-0.000710269
-0.003691773,-0.000611354,0.00581032,-0.004763391,-0.006913794,-0.000710712
-0.003692051,-0.000612385,0.005811011,-0.004762952,-0.006912319,-0.000710671
-0.003692357,-0.00061268,0.005811622,-0.00476307,-0.006913237,-0.000711292
-0.003692638,-0.000613567,0.005812323,-0.004762755,-0.006912284,-0.000711383
-0.003692926,-0.000614291,0.005812972,-0.004762546,-0.006911804,-0.000711623
-0.003693217,-0.000614936,0.005813642,-0.004762407,-0.006911612,-0.000711925
-0.003693515,-0.000615484,0.00581427,-0.004762331,-0.006911708,-0.000712325
-0.00369381,-0.000615997,0.005814925,-0.004762303,-0.006911955,-0.000712747
-0.003694079,-0.000617201,0.005815637,-0.004761723,-0.006909923,-0.00071256
-0.00369438,-0.00061754,0.005816265,-0.004761823,-0.00691073,-0.000713134
-0.003694678,-0.000618139,0.00581691,-0.004761713,-0.006910676,-0.000713492
-0.003694951,-0.000619111,0.005817592,-0.004761311,-0.006909379,-0.000713498
-0.003695264,-0.000619344,0.005818232,-0.004761509,-0.006910584,-0.000714182
-0.003695533,-0.000620483,0.005818917,-0.004760969,-0.006908723,-0.000714049
-0.003695832,-0.000620906,0.005819548,-0.004760998,-0.00690924,-0.000714545
-0.003696118,-0.000621687,0.005820231,-0.004760762,-0.006908634,-0.000714744
-0.003696423,-0.000622106,0.005820855,-0.004760786,-0.006909136,-0.000715241
-0.003696687,-0.000623258,0.005821573,-0.004760264,-0.006907313,-0.000715107
-0.003696996,-0.000623537,0.005822179,-0.004760393,-0.00690829,-0.000715742
-0.003697277,-0.000624412,0.005822862,-0.00476008,-0.00690733,-0.000715835
-0.003697577,-0.000624916,0.005823507,-0.00476005,-0.006907604,-0.000716278
-0.003697861,-0.00062569,0.005824171,-0.004759803,-0.006906973,-0.000716466
-0.003698145,-0.000626455,0.005824851,-0.004759583,-0.006906402,-0.000716666
-0.003698441,-0.000626987,0.005825481,-0.004759512,-0.006906558,-0.000717083
-0.003698731,-0.000627783,0.005826157,-0.004759263,-0.006905862,-0.000717251
-0.003699018,-0.000628385,0.005826815,-0.004759159,-0.006905816,-0.000717594
-0.003699307,-0.000629105,0.005827471,-0.004758953,-0.006905358,-0.000717841
-0.003699603,-0.000629695,0.005828122,-0.004758862,-0.006905338,-0.000718191
-0.00369989,-0.000630444,0.00582878,-0.004758625,-0.006904789,-0.000718416
-0.003700174,-0.000631112,0.005829459,-0.004758487,-0.006904544,-0.000718692
-0.003700474,-0.00063176,0.005830094,-0.00475833,-0.006904305,-0.000719008
-0.003700752,-0.000632536,0.005830776,-0.004758097,-0.006903714,-0.000719201
-0.003701045,-0.000633179,0.005831436,-0.004757964,-0.006903509,-0.000719499
-0.00370134,-0.000633723,0.005832056,-0.004757881,-0.006903611,-0.000719909
-0.003701632,-0.000634439,0.005832738,-0.004757699,-0.006903204,-0.000720148
-0.003701913,-0.000635209,0.005833406,-0.004757462,-0.006902601,-0.000720346
-0.003702202,-0.000635918,0.005834071,-0.004757276,-0.006902203,-0.000720598
-0.00370249,-0.000636598,0.005834716,-0.004757097,-0.006901863,-0.000720873
-0.00370279,-0.00063717,0.005835373,-0.00475702,-0.006901916,-0.000721252
-0.003703075,-0.000637797,0.005836032,-0.004756901,-0.006901792,-0.000721569
-0.003703368,-0.00063854,0.005836678,-0.004756669,-0.006901232,-0.000721793
-0.00370364,-0.000639483,0.005837386,-0.004756313,-0.006900109,-0.000721841
-0.003703947,-0.000639758,0.005837999,-0.004756457,-0.00690111,-0.000722472
-0.003704234,-0.00064064,0.005838669,-0.004756127,-0.006900115,-0.000722572
-0.003704524,-0.000641186,0.005839311,-0.004756065,-0.006900239,-0.000722972
-0.003704808,-0.00064201,0.00584,-0.004755794,-0.006899494,-0.000723118
-0.003705095,-0.000642696,0.005840641,-0.004755607,-0.006899121,-0.000723387
-0.0037054,-0.000643175,0.005841295,-0.004755616,-0.006899493,-0.000723851
-0.003705667,-0.000644181,0.005841984,-0.004755188,-0.006898111,-0.000723828
-0.003705973,-0.000644529,0.005842597,-0.004755272,-0.006898872,-0.000724409
-0.003706246,-0.000645543,0.005843313,-0.004754861,-0.006897509,-0.000724388
-0.003706562,-0.000645791,0.005843908,-0.004755021,-0.006898553,-0.000725045
-0.003706826,-0.000646882,0.005844611,-0.004754532,-0.006896929,-0.000724966
-0.003707114,-0.00064751,0.005845271,-0.004754412,-0.0068968,-0.00072528
-0.00370743,-0.000647867,0.005845889,-0.004754493,-0.006897516,-0.000725856
-0.003707701,-0.00064871,0.005846569,-0.004754203,-0.006896686,-0.000725977
-0.003707981,-0.000649629,0.005847254,-0.00475385,-0.00689561,-0.000726053
-0.003708284,-0.000650029,0.00584788,-0.004753903,-0.006896193,-0.000726568
-0.003708563,-0.000650931,0.005848564,-0.004753562,-0.006895182,-0.000726663
-0.003708876,-0.000651136,0.005849162,-0.004753764,-0.00689637,-0.000727346
-0.003709135,-0.000652413,0.005849896,-0.004753135,-0.006894169,-0.000727108
-0.003709438,-0.000652808,0.005850516,-0.00475319,-0.006894748,-0.000727627
-0.00370973,-0.000653422,0.005851181,-0.004753086,-0.006894701,-0.000727973
-0.003710008,-0.000654316,0.005851845,-0.004752738,-0.00689365,-0.000728057
-0.003710306,-0.000654813,0.005852487,-0.004752718,-0.006893941,-0.000728495
-0.003710599,-0.000655447,0.00585315,-0.004752593,-0.006893798,-0.000728821
-0.003710867,-0.000656495,0.005853841,-0.004752143,-0.006892295,-0.000728763
-0.003711182,-0.000656664,0.005854444,-0.004752366,-0.006893628,-0.000729499
-0.003711449,-0.000657728,0.005855149,-0.004751909,-0.006892094,-0.000729441
-0.003711749,-0.000658375,0.005855789,-0.004751763,-0.006891843,-0.000729738
-0.003712039,-0.000658779,0.005856431,-0.004751814,-0.006892484,-0.000730268
-0.003712326,-0.000659673,0.005857118,-0.004751495,-0.006891474,-0.000730355
-0.003712613,-0.000660358,0.005857754,-0.004751303,-0.006891108,-0.000730624
-0.003712903,-0.000661004,0.005858429,-0.004751184,-0.006890955,-0.00073094
-0.003713188,-0.000661733,0.005859083,-0.00475097,-0.006890468,-0.000731174
-0.003713485,-0.000662284,0.005859733,-0.00475091,-0.00689058,-0.000731556
-0.003713768,-0.000663053,0.005860387,-0.004750667,-0.006889973,-0.00073177
-0.003714054,-0.000663803,0.005861065,-0.004750453,-0.006889445,-0.000731976
-0.003714338,-0.000664505,0.005861726,-0.004750275,-0.006889075,-0.000732232
-0.003714648,-0.000664868,0.005862335,-0.004750344,-0.006889762,-0.000732801
-0.003714922,-0.000665813,0.005863039,-0.004749989,-0.006888632,-0.000732838
-0.003715196,-0.000666691,0.00586371,-0.004749659,-0.006887677,-0.000732946
-0.00371551,-0.000667032,0.005864333,-0.004749765,-0.006888455,-0.00073352
-0.003715786,-0.000667825,0.005865004,-0.004749509,-0.006887782,-0.000733695
-0.003716082,-0.000668396,0.005865641,-0.004749421,-0.00688782,-0.000734077
-0.003716368,-0.000669149,0.005866316,-0.004749208,-0.006887289,-0.000734289
-0.003716643,-0.000670106,0.005867008,-0.004748836,-0.006886091,-0.000734318
-0.003716945,-0.000670464,0.005867611,-0.004748902,-0.006886796,-0.000734885
-0.003717233,-0.000671159,0.005868292,-0.004748738,-0.006886475,-0.000735152
-0.003717515,-0.000672018,0.005868958,-0.004748433,-0.006885558,-0.000735263
-0.003717815,-0.000672485,0.005869599,-0.004748439,-0.006885974,-0.000735741
-0.003718089,-0.000673393,0.005870271,-0.004748085,-0.006884892,-0.000735813
-0.003718387,-0.00067389,0.005870911,-0.004748069,-0.006885182,-0.000736246
-0.003718671,-0.00067469,0.005871585,-0.00474781,-0.006884513,-0.000736435
-0.003718955,-0.000675418,0.005872256,-0.00474762,-0.006884041,-0.000736652
-0.00371925,-0.000675953,0.005872877,-0.004747548,-0.006884189,-0.000737074
-0.003719543,-0.000676643,0.005873548,-0.004747387,-0.006883858,-0.000737341
-0.003719823,-0.000677412,0.005874222,-0.004747162,-0.006883274,-0.000737532
-0.003720107,-0.000678146,0.005874874,-0.004746943,-0.006882782,-0.000737773
-0.003720407,-0.000678701,0.005875524,-0.004746885,-0.006882887,-0.000738157
-0.003720688,-0.000679432,0.005876179,-0.00474667,-0.006882398,-0.000738395
-0.00372098,-0.000680043,0.005876838,-0.004746573,-0.006882336,-0.000738724
-0.003721256,-0.000681006,0.005877518,-0.004746179,-0.006881097,-0.000738763
-0.003721565,-0.000681312,0.005878134,-0.004746307,-0.006882005,-0.000739372
-0.003721832,-0.000682298,0.005878836,-0.004745914,-0.006880719,-0.000739369
-0.003722127,-0.000682892,0.005879472,-0.004745805,-0.006880694,-0.00073974
-0.003722429,-0.000683352,0.005880108,-0.004745819,-0.00688108,-0.000740206
-0.003722701,-0.000684309,0.005880795,-0.00474544,-0.006879896,-0.000740237
-0.003722996,-0.000684896,0.005881445,-0.004745349,-0.006879877,-0.000740601
-0.003723273,-0.000685715,0.005882108,-0.004745073,-0.006879132,-0.000740757
-0.003723572,-0.000686225,0.005882763,-0.004745049,-0.006879379,-0.000741182
-0.003723867,-0.000686774,0.005883394,-0.004744984,-0.006879498,-0.000741585
-0.003724134,-0.000687892,0.005884098,-0.004744475,-0.006877757,-0.00074147
-0.003724425,-0.000688418,0.005884741,-0.004744442,-0.006877977,-0.000741887
-0.003724735,-0.000688784,0.005885359,-0.004744509,-0.00687866,-0.000742444
-0.003725007,-0.000689696,0.005886051,-0.004744178,-0.006877636,-0.000742524
-0.003725286,-0.00069061,0.005886725,-0.004743829,-0.00687655,-0.000742584
-0.003725587,-0.000691,0.005887354,-0.004743888,-0.00687719,-0.000743125
-0.003725871,-0.00069177,0.005888016,-0.004743661,-0.0068766,-0.000743328
-0.003726174,-0.000692174,0.005888646,-0.004743704,-0.006877173,-0.000743848
-0.003726433,-0.000693399,0.005889367,-0.004743129,-0.006875128,-0.000743645
-0.003726737,-0.000693779,0.005889978,-0.004743184,-0.006875767,-0.000744188
-0.003727021,-0.000694511,0.005890653,-0.004742992,-0.006875315,-0.000744424
-0.003727304,-0.000695252,0.0058913,-0.004742775,-0.006874795,-0.000744649
-0.003727604,-0.000695762,0.005891964,-0.004742756,-0.006875075,-0.000745078
-0.003727884,-0.000696614,0.00589262,-0.004742451,-0.006874185,-0.000745204
-0.00372817,-0.00069721,0.005893269,-0.00474235,-0.006874162,-0.000745561
-0.003728463,-0.000697979,0.005893933,-0.004742124,-0.006873559,-0.000745758
-0.003728742,-0.000698657,0.005894604,-0.004741969,-0.006873299,-0.000746043
-0.003729025,-0.000699437,0.005895252,-0.004741711,-0.006872618,-0.000746225
-0.003729347,-0.000699609,0.005895856,-0.004741951,-0.006873977,-0.000746967
-0.003729589,-0.000701046,0.005896614,-0.004741217,-0.006871258,-0.000746567
-0.003729905,-0.000701158,0.0058972,-0.004741479,-0.006872777,-0.000747349
-0.003730182,-0.000702185,0.005897868,-0.004741037,-0.006871293,-0.000747324
-0.003730471,-0.000702693,0.005898536,-0.00474103,-0.006871621,-0.000747759
-0.003730763,-0.000703376,0.005899184,-0.004740858,-0.006871282,-0.000748032
-0.003731041,-0.000704162,0.005899852,-0.00474061,-0.006870639,-0.000748218
-0.003731331,-0.000704881,0.005900501,-0.004740416,-0.006870182,-0.000748461
-0.00373163,-0.000705302,0.005901151,-0.004740464,-0.00687077,-0.000748974
-0.0037319,-0.000706309,0.005901822,-0.004740042,-0.006869353,-0.000748957
-0.003732195,-0.000706854,0.00590247,-0.004739979,-0.006869518,-0.000749366
-0.003732481,-0.000707563,0.005903143,-0.004739811,-0.006869133,-0.00074961
-0.00373277,-0.000708234,0.005903775,-0.004739639,-0.006868828,-0.000749906
-0.00373306,-0.000708857,0.005904438,-0.004739529,-0.006868734,-0.000750236
-0.003733332,-0.000709848,0.005905127,-0.004739127,-0.006867409,-0.000750229
-0.00373364,-0.000710121,0.00590574,-0.004739283,-0.006868452,-0.000750884
-0.003733912,-0.000711093,0.005906425,-0.00473889,-0.006867181,-0.000750897
-0.003734211,-0.00071155,0.005907049,-0.004738898,-0.006867591,-0.000751374
-0.003734488,-0.000712402,0.005907733,-0.004738607,-0.006866754,-0.000751503
-0.003734782,-0.000713089,0.00590839,-0.004738445,-0.006866422,-0.000751776
-0.003735056,-0.000713809,0.005909042,-0.004738241,-0.006865982,-0.000752018
-0.00373536,-0.00071437,0.005909691,-0.004738185,-0.006866073,-0.000752409
-0.003735634,-0.00071518,0.005910357,-0.004737908,-0.00686535,-0.000752568
-0.003735942,-0.000715543,0.005910989,-0.004738006,-0.006866086,-0.000753137
-0.003736191,-0.000716868,0.005911704,-0.004737342,-0.006863688,-0.000752833
-0.003736511,-0.000717008,0.005912305,-0.004737595,-0.006865133,-0.0007536
-0.003736789,-0.000717841,0.00591297,-0.004737314,-0.006864331,-0.000753747
-0.003737061,-0.000718778,0.005913663,-0.004736958,-0.006863212,-0.00075379
-0.003737379,-0.000718958,0.005914257,-0.00473718,-0.006864516,-0.000754522
-0.003737636,-0.00072014,0.005914971,-0.004736637,-0.006862596,-0.000754352
-0.003737933,-0.000720588,0.005915594,-0.004736643,-0.006863038,-0.000754839
-0.003738224,-0.000721342,0.00591627,-0.004736444,-0.006862517,-0.000755053
-0.003738509,-0.000721909,0.005916909,-0.004736357,-0.006862574,-0.000755431
-0.003738785,-0.000722852,0.005917588,-0.004735992,-0.006861416,-0.000755482
-0.003739088,-0.000723293,0.005918218,-0.00473602,-0.006861893,-0.000755977
-0.003739359,-0.000724256,0.005918912,-0.004735648,-0.006860688,-0.000756
-0.003739661,-0.000724601,0.005919514,-0.004735725,-0.006861442,-0.000756581
-0.003739942,-0.000725439,0.00592021,-0.004735468,-0.00686066,-0.000756712
-0.003740218,-0.000726323,0.005920871,-0.004735129,-0.00685968,-0.000756821
-0.003740523,-0.000726653,0.005921486,-0.004735245,-0.006860528,-0.000757417
-0.003740793,-0.000727663,0.005922192,-0.004734835,-0.006859158,-0.000757391
-0.003741087,-0.000728193,0.005922811,-0.004734782,-0.006859324,-0.000757812
-0.003741376,-0.000728881,0.005923481,-0.004734623,-0.006859017,-0.00075808
-0.003741654,-0.000729652,0.005924142,-0.004734386,-0.006858421,-0.000758284
-0.00374195,-0.000730258,0.005924785,-0.004734284,-0.006858341,-0.000758628
-0.003742225,-0.000731059,0.005925467,-0.004734037,-0.006857694,-0.000758802
-0.003742527,-0.00073154,0.005926081,-0.00473402,-0.006857998,-0.00075926
-0.003742799,-0.000732474,0.005926773,-0.004733668,-0.006856899,-0.000759321
-0.003743094,-0.000733003,0.00592742,-0.004733637,-0.00685709,-0.000759722
-0.00374337,-0.000733851,0.005928076,-0.004733323,-0.006856226,-0.000759862
-0.003743669,-0.000734362,0.005928716,-0.004733304,-0.006856475,-0.000760293
-0.00374395,-0.000735101,0.005929397,-0.004733114,-0.006856025,-0.000760513
-0.003744234,-0.000735897,0.005930038,-0.004732841,-0.006855302,-0.000760701
-0.003744526,-0.000736424,0.00593069,-0.00473281,-0.00685552,-0.000761113
-0.003744805,-0.00073724,0.00593136,-0.004732545,-0.006854782,-0.00076127
-0.003745104,-0.00073778,0.005931992,-0.004732492,-0.006854935,-0.000761684
-0.003745362,-0.000738858,0.005932692,-0.004732022,-0.006853344,-0.000761602
-0.003745677,-0.000739133,0.005933312,-0.004732184,-0.006854374,-0.000762245
-0.003745945,-0.000740077,0.005933981,-0.004731807,-0.006853195,-0.000762293
-0.003746242,-0.000740621,0.005934631,-0.004731767,-0.006853355,-0.000762689
-0.003746535,-0.000741175,0.005935264,-0.004731689,-0.006853452,-0.000763093
-0.003746809,-0.000742108,0.005935953,-0.004731349,-0.006852345,-0.000763139
-0.003747094,-0.000742751,0.005936602,-0.004731212,-0.006852168,-0.000763452
-0.003747374,-0.00074358,0.005937269,-0.004730934,-0.006851383,-0.00076361
-0.003747672,-0.000744067,0.005937909,-0.004730929,-0.006851712,-0.000764057
-0.003747954,-0.000744798,0.00593856,-0.004730725,-0.006851238,-0.000764285
-0.003748244,-0.000745424,0.005939213,-0.00473061,-0.006851129,-0.000764626
-0.003748526,-0.000746253,0.005939882,-0.004730337,-0.006850346,-0.000764768
-0.003748807,-0.000746983,0.005940549,-0.004730138,-0.00684989,-0.000765005
-0.003749103,-0.000747488,0.00594117,-0.004730114,-0.006850139,-0.000765444
-0.003749378,-0.000748354,0.005941859,-0.004729814,-0.006849275,-0.000765558
-0.00374967,-0.000748976,0.005942494,-0.004729691,-0.006849132,-0.00076589
-0.003749962,-0.00074956,0.005943151,-0.004729619,-0.006849178,-0.00076626
-0.003750237,-0.000750416,0.005943812,-0.004729312,-0.006848279,-0.00076638
-0.003750523,-0.000751095,0.005944468,-0.004729156,-0.006848003,-0.000766664
-0.00375081,-0.000751792,0.005945137,-0.004728995,-0.006847647,-0.000766923
-0.003751104,-0.000752299,0.005945752,-0.004728951,-0.006847913,-0.000767376
-0.00375138,-0.000753232,0.005946445,-0.004728612,-0.006846791,-0.000767418
-0.003751669,-0.000753808,0.005947089,-0.00472853,-0.006846845,-0.000767793
-0.00375196,-0.000754452,0.005947734,-0.004728398,-0.006846644,-0.000768106
-0.003752238,-0.000755219,0.005948407,-0.004728176,-0.006846099,-0.000768316
-0.003752527,-0.000755921,0.005949046,-0.004727991,-0.006845695,-0.000768574
-0.003752799,-0.000756753,0.005949726,-0.004727719,-0.006844916,-0.000768712
-0.003753105,-0.000757188,0.005950355,-0.004727752,-0.006845428,-0.000769226
-0.003753383,-0.000757947,0.005951017,-0.004727539,-0.006844875,-0.000769431
-0.003753661,-0.000758832,0.005951681,-0.004727198,-0.006843887,-0.000769527
-0.003753955,-0.00075926,0.005952332,-0.00472727,-0.006844459,-0.000770034
-0.003754242,-0.000760031,0.005952977,-0.004727017,-0.006843824,-0.000770233
-0.003754525,-0.000760758,0.005953635,-0.004726825,-0.006843387,-0.000770477
-0.003754808,-0.000761494,0.005954305,-0.004726632,-0.006842923,-0.000770708
-0.003755087,-0.00076223,0.005954948,-0.004726415,-0.006842423,-0.000770935
-0.00375538,-0.0007628,0.005955607,-0.004726357,-0.006842506,-0.000771317
-0.003755664,-0.000763627,0.005956266,-0.00472608,-0.006841718,-0.000771466
-0.003755959,-0.000764072,0.0059569,-0.004726105,-0.006842203,-0.000771965
-0.003756225,-0.000765069,0.005957586,-0.004725698,-0.006840864,-0.000771953
-0.00375652,-0.000765634,0.005958226,-0.004725633,-0.006840956,-0.000772344
-0.003756807,-0.000766344,0.005958881,-0.004725448,-0.006840547,-0.000772598
-0.003757092,-0.000766935,0.005959525,-0.004725361,-0.00684054,-0.000772953
-0.003757381,-0.000767691,0.005960185,-0.004725145,-0.006840009,-0.000773176
-0.003757647,-0.000768572,0.005960872,-0.004724836,-0.006839083,-0.000773273
-0.003757956,-0.00076894,0.005961473,-0.004724908,-0.006839764,-0.000773836
-0.003758226,-0.000769932,0.005962173,-0.004724521,-0.006838472,-0.000773838
-0.003758516,-0.000770436,0.005962804,-0.004724495,-0.006838754,-0.000774275
-0.0037588,-0.000771237,0.005963465,-0.004724235,-0.006838054,-0.00077445
-0.003759089,-0.000771818,0.005964113,-0.004724164,-0.006838093,-0.000774823
-0.003759371,-0.000772637,0.005964786,-0.004723907,-0.006837357,-0.000774978
-0.003759644,-0.00077339,0.005965438,-0.004723676,-0.006836812,-0.000775195
-0.00375996,-0.000773738,0.005966053,-0.004723784,-0.006837581,-0.000775772
-0.003760209,-0.000774897,0.005966766,-0.004723257,-0.006835769,-0.000775632
-0.003760516,-0.000775292,0.005967378,-0.00472331,-0.006836351,-0.00077616
-0.003760798,-0.000775989,0.005968046,-0.004723157,-0.006836052,-0.000776428
-0.003761078,-0.000776847,0.00596871,-0.004722851,-0.006835159,-0.00077656
-0.003761353,-0.000777595,0.00596937,-0.00472264,-0.006834649,-0.000776775
-0.003761665,-0.000777927,0.005969987,-0.004722762,-0.006835473,-0.000777365
-0.003761924,-0.000778953,0.005970676,-0.004722323,-0.00683407,-0.000777343
-0.003762219,-0.000779604,0.005971323,-0.004722199,-0.006833861,-0.000777648
-0.003762508,-0.000780135,0.005971963,-0.00472215,-0.006834057,-0.000778064
