hehonglu123/Motion-Primitive-Planning/simulation/robotstudio_sim/scripts/fitting_output/slope_blend/dqdlam.csv
j1,j2,j3,j4,j5,j6
-0.000443351,0.039507269,-0.007226312,-0.027939004,-0.123261447,-0.034753217
-0.000444777,0.039507294,-0.007224156,-0.027941091,-0.123264462,-0.034753375
-0.000446204,0.039507319,-0.007221998,-0.027943179,-0.123267477,-0.034753533
-0.00044763,0.039507343,-0.007219841,-0.027945266,-0.123270492,-0.034753692
-0.000449056,0.039507368,-0.007217684,-0.027947353,-0.123273506,-0.03475385
-0.000450482,0.039507392,-0.007215526,-0.02794944,-0.123276521,-0.034754009
-0.000451909,0.039507416,-0.007213368,-0.027951527,-0.123279535,-0.034754168
-0.000453335,0.039507439,-0.00721121,-0.027953614,-0.12328255,-0.034754327
-0.000454762,0.039507463,-0.007209051,-0.027955701,-0.123285564,-0.034754486
-0.000456188,0.039507486,-0.007206893,-0.027957787,-0.123288578,-0.034754646
-0.000457615,0.039507509,-0.007204734,-0.027959874,-0.123291591,-0.034754805
-0.000459042,0.039507531,-0.007202575,-0.02796196,-0.123294605,-0.034754965
-0.000460469,0.039507554,-0.007200416,-0.027964046,-0.123297619,-0.034755125
-0.000461896,0.039507576,-0.007198256,-0.027966132,-0.123300632,-0.034755284
-0.000463323,0.039507598,-0.007196097,-0.027968218,-0.123303645,-0.034755444
-0.00046475,0.039507619,-0.007193937,-0.027970304,-0.123306659,-0.034755605
-0.000466177,0.039507641,-0.007191777,-0.027972389,-0.123309672,-0.034755765
-0.000467605,0.039507662,-0.007189617,-0.027974475,-0.123312685,-0.034755925
-0.000469032,0.039507683,-0.007187456,-0.02797656,-0.123315697,-0.034756086
-0.00047046,0.039507703,-0.007185296,-0.027978645,-0.12331871,-0.034756247
-0.000471887,0.039507724,-0.007183135,-0.027980731,-0.123321722,-0.034756408
-0.000473315,0.039507744,-0.007180974,-0.027982815,-0.123324734,-0.034756569
-0.000474743,0.039507764,-0.007178812,-0.0279849,-0.123327747,-0.03475673
-0.000476171,0.039507784,-0.007176651,-0.027986985,-0.123330758,-0.034756891
-0.000477598,0.039507803,-0.007174489,-0.027989069,-0.123333771,-0.034757053
-0.000479026,0.039507822,-0.007172327,-0.027991154,-0.123336782,-0.034757214
-0.000480455,0.039507841,-0.007170165,-0.027993238,-0.123339794,-0.034757376
-0.000481883,0.03950786,-0.007168002,-0.027995322,-0.123342805,-0.034757538
-0.000483311,0.039507878,-0.00716584,-0.027997406,-0.123345816,-0.0347577
-0.000484739,0.039507897,-0.007163677,-0.02799949,-0.123348828,-0.034757862
-0.000486168,0.039507915,-0.007161514,-0.028001574,-0.123351839,-0.034758024
-0.000487596,0.039507932,-0.007159351,-0.028003658,-0.12335485,-0.034758187
-0.000489025,0.03950795,-0.007157188,-0.028005741,-0.12335786,-0.034758349
-0.000490453,0.039507967,-0.007155024,-0.028007824,-0.123360871,-0.034758512
-0.000491882,0.039507984,-0.00715286,-0.028009908,-0.123363881,-0.034758675
-0.000493311,0.039508001,-0.007150696,-0.028011991,-0.123366891,-0.034758838
-0.00049474,0.039508017,-0.007148532,-0.028014073,-0.123369902,-0.034759001
-0.000496169,0.039508034,-0.007146367,-0.028016156,-0.123372912,-0.034759164
-0.000497598,0.03950805,-0.007144203,-0.028018239,-0.123375921,-0.034759328
-0.000499027,0.039508065,-0.007142038,-0.028020321,-0.123378931,-0.034759491
-0.000500456,0.039508081,-0.007139873,-0.028022404,-0.123381941,-0.034759655
-0.000501886,0.039508096,-0.007137707,-0.028024486,-0.12338495,-0.034759819
-0.000503315,0.039508111,-0.007135542,-0.028026568,-0.12338796,-0.034759983
-0.000504745,0.039508126,-0.007133376,-0.02802865,-0.123390969,-0.034760147
-0.000506174,0.039508141,-0.00713121,-0.028030732,-0.123393978,-0.034760311
-0.000507604,0.039508155,-0.007129044,-0.028032814,-0.123396986,-0.034760476
-0.000509034,0.039508169,-0.007126878,-0.028034895,-0.123399995,-0.03476064
-0.000510463,0.039508183,-0.007124711,-0.028036977,-0.123403004,-0.034760805
-0.000511893,0.039508196,-0.007122544,-0.028039058,-0.123406012,-0.03476097
-0.000513323,0.03950821,-0.007120377,-0.028041139,-0.12340902,-0.034761135
-0.000514753,0.039508223,-0.00711821,-0.02804322,-0.123412029,-0.0347613
-0.000516184,0.039508236,-0.007116043,-0.028045301,-0.123415037,-0.034761465
-0.000517614,0.039508248,-0.007113875,-0.028047382,-0.123418044,-0.034761631
-0.000519044,0.039508261,-0.007111707,-0.028049463,-0.123421052,-0.034761796
-0.000520475,0.039508273,-0.007109539,-0.028051543,-0.12342406,-0.034761962
-0.000521905,0.039508285,-0.007107371,-0.028053624,-0.123427067,-0.034762128
-0.000523336,0.039508296,-0.007105202,-0.028055704,-0.123430074,-0.034762293
-0.000524766,0.039508308,-0.007103034,-0.028057784,-0.123433081,-0.03476246
-0.000526197,0.039508319,-0.007100865,-0.028059864,-0.123436089,-0.034762626
-0.000527628,0.03950833,-0.007098696,-0.028061944,-0.123439095,-0.034762792
-0.000529059,0.03950834,-0.007096527,-0.028064024,-0.123442102,-0.034762959
-0.00053049,0.039508351,-0.007094357,-0.028066103,-0.123445109,-0.034763125
-0.000531921,0.039508361,-0.007092187,-0.028068183,-0.123448115,-0.034763292
-0.000533352,0.039508371,-0.007090017,-0.028070262,-0.123451121,-0.034763459
-0.000534783,0.03950838,-0.007087847,-0.028072341,-0.123454127,-0.034763626
-0.000536214,0.03950839,-0.007085677,-0.02807442,-0.123457133,-0.034763793
-0.000537646,0.039508399,-0.007083506,-0.028076499,-0.123460139,-0.034763961
-0.000539077,0.039508408,-0.007081336,-0.028078578,-0.123463145,-0.034764128
-0.000540509,0.039508417,-0.007079165,-0.028080657,-0.12346615,-0.034764296
-0.000541941,0.039508425,-0.007076993,-0.028082735,-0.123469156,-0.034764464
-0.000543372,0.039508433,-0.007074822,-0.028084814,-0.123472161,-0.034764631
-0.000544804,0.039508441,-0.00707265,-0.028086892,-0.123475166,-0.034764799
-0.000546236,0.039508449,-0.007070479,-0.02808897,-0.123478171,-0.034764968
-0.000547668,0.039508457,-0.007068307,-0.028091048,-0.123481176,-0.034765136
-0.0005491,0.039508464,-0.007066134,-0.028093126,-0.123484181,-0.034765304
-0.000550532,0.039508471,-0.007063962,-0.028095204,-0.123487185,-0.034765473
-0.000551964,0.039508477,-0.007061789,-0.028097281,-0.123490189,-0.034765642
-0.000553397,0.039508484,-0.007059616,-0.028099359,-0.123493194,-0.034765811
-0.000554829,0.03950849,-0.007057443,-0.028101436,-0.123496198,-0.03476598
-0.000556262,0.039508496,-0.00705527,-0.028103513,-0.123499202,-0.034766149
-0.000557694,0.039508502,-0.007053096,-0.02810559,-0.123502205,-0.034766318
-0.000559127,0.039508507,-0.007050923,-0.028107667,-0.123505209,-0.034766488
-0.000560559,0.039508513,-0.007048749,-0.028109744,-0.123508212,-0.034766657
-0.000561992,0.039508518,-0.007046575,-0.028111821,-0.123511216,-0.034766827
-0.000563425,0.039508522,-0.0070444,-0.028113897,-0.123514219,-0.034766997
-0.000564858,0.039508527,-0.007042226,-0.028115974,-0.123517222,-0.034767167
-0.000566291,0.039508531,-0.007040051,-0.02811805,-0.123520225,-0.034767337
-0.000567724,0.039508535,-0.007037876,-0.028120126,-0.123523228,-0.034767507
-0.000569158,0.039508539,-0.007035701,-0.028122202,-0.123526231,-0.034767678
-0.000570591,0.039508542,-0.007033525,-0.028124278,-0.123529233,-0.034767848
-0.000572024,0.039508546,-0.00703135,-0.028126354,-0.123532235,-0.034768019
-0.000573458,0.039508549,-0.007029174,-0.028128429,-0.123535237,-0.03476819
-0.000574891,0.039508552,-0.007026998,-0.028130505,-0.123538239,-0.03476836
-0.000576325,0.039508554,-0.007024822,-0.02813258,-0.123541241,-0.034768532
-0.000577759,0.039508557,-0.007022645,-0.028134655,-0.123544243,-0.034768703
-0.000579192,0.039508559,-0.007020469,-0.02813673,-0.123547245,-0.034768874
-0.000580626,0.03950856,-0.007018292,-0.028138805,-0.123550246,-0.034769046
-0.00058206,0.039508562,-0.007016115,-0.02814088,-0.123553248,-0.034769217
-0.000583494,0.039508563,-0.007013937,-0.028142955,-0.123556248,-0.034769389
-0.000584928,0.039508564,-0.00701176,-0.028145029,-0.12355925,-0.034769561
-0.000586363,0.039508565,-0.007009582,-0.028147104,-0.123562251,-0.034769733
-0.000587797,0.039508566,-0.007007404,-0.028149178,-0.123565251,-0.034769905
-0.000589231,0.039508566,-0.007005226,-0.028151252,-0.123568252,-0.034770078
-0.000590666,0.039508566,-0.007003048,-0.028153326,-0.123571252,-0.03477025
-0.0005921,0.039508566,-0.007000869,-0.0281554,-0.123574253,-0.034770423
-0.000593535,0.039508566,-0.006998691,-0.028157474,-0.123577253,-0.034770596
-0.00059497,0.039508565,-0.006996512,-0.028159547,-0.123580253,-0.034770768
-0.000596404,0.039508564,-0.006994332,-0.028161621,-0.123583252,-0.034770942
-0.000597839,0.039508563,-0.006992153,-0.028163694,-0.123586252,-0.034771115
-0.000599274,0.039508562,-0.006989974,-0.028165767,-0.123589252,-0.034771288
-0.000600709,0.03950856,-0.006987794,-0.02816784,-0.123592251,-0.034771461
-0.000602144,0.039508558,-0.006985614,-0.028169913,-0.12359525,-0.034771635
-0.00060358,0.039508556,-0.006983433,-0.028171986,-0.123598249,-0.034771809
-0.000605015,0.039508554,-0.006981253,-0.028174059,-0.123601248,-0.034771983
-0.00060645,0.039508551,-0.006979072,-0.028176131,-0.123604247,-0.034772157
-0.000607886,0.039508548,-0.006976892,-0.028178204,-0.123607246,-0.034772331
-0.000609321,0.039508545,-0.006974711,-0.028180276,-0.123610244,-0.034772505
-0.000610757,0.039508542,-0.006972529,-0.028182348,-0.123613243,-0.034772679
-0.000612192,0.039508538,-0.006970348,-0.02818442,-0.123616241,-0.034772854
-0.000613628,0.039508534,-0.006968166,-0.028186492,-0.123619239,-0.034773029
-0.000615064,0.03950853,-0.006965984,-0.028188564,-0.123622237,-0.034773203
-0.0006165,0.039508526,-0.006963802,-0.028190636,-0.123625235,-0.034773379
-0.000617936,0.039508521,-0.00696162,-0.028192707,-0.123628232,-0.034773554
-0.000619372,0.039508516,-0.006959437,-0.028194778,-0.12363123,-0.034773729
-0.000620808,0.039508511,-0.006957255,-0.02819685,-0.123634227,-0.034773904
-0.000622245,0.039508506,-0.006955072,-0.028198921,-0.123637224,-0.03477408
-0.000623681,0.0395085,-0.006952888,-0.028200992,-0.123640221,-0.034774255
-0.000625117,0.039508495,-0.006950705,-0.028203063,-0.123643218,-0.034774431
-0.000626554,0.039508488,-0.006948521,-0.028205133,-0.123646215,-0.034774607
-0.00062799,0.039508482,-0.006946338,-0.028207204,-0.123649211,-0.034774783
-0.000629427,0.039508476,-0.006944154,-0.028209274,-0.123652208,-0.034774959
-0.000630864,0.039508469,-0.006941969,-0.028211344,-0.123655204,-0.034775136
-0.000632301,0.039508462,-0.006939785,-0.028213415,-0.1236582,-0.034775312
-0.000633738,0.039508455,-0.0069376,-0.028215485,-0.123661196,-0.034775489
-0.000635175,0.039508447,-0.006935416,-0.028217555,-0.123664192,-0.034775665
-0.000636612,0.039508439,-0.006933231,-0.028219624,-0.123667188,-0.034775842
-0.000638049,0.039508431,-0.006931045,-0.028221694,-0.123670183,-0.034776019
-0.000639486,0.039508423,-0.00692886,-0.028223763,-0.123673179,-0.034776197
-0.000640924,0.039508414,-0.006926674,-0.028225833,-0.123676174,-0.034776374
-0.000642361,0.039508406,-0.006924488,-0.028227902,-0.123679169,-0.034776551
-0.000643798,0.039508397,-0.006922302,-0.028229971,-0.123682164,-0.034776729
-0.000645236,0.039508387,-0.006920116,-0.02823204,-0.123685158,-0.034776907
-0.000646674,0.039508378,-0.006917929,-0.028234109,-0.123688153,-0.034777084
-0.000648111,0.039508368,-0.006915743,-0.028236178,-0.123691148,-0.034777262
-0.000649549,0.039508358,-0.006913556,-0.028238246,-0.123694142,-0.034777441
-0.000650987,0.039508348,-0.006911369,-0.028240315,-0.123697136,-0.034777619
-0.000652425,0.039508337,-0.006909181,-0.028242383,-0.12370013,-0.034777797
-0.000653863,0.039508326,-0.006906994,-0.028244451,-0.123703124,-0.034777976
-0.000655301,0.039508315,-0.006904806,-0.028246519,-0.123706118,-0.034778154
-0.00065674,0.039508304,-0.006902618,-0.028248587,-0.123709112,-0.034778333
-0.000658178,0.039508293,-0.00690043,-0.028250655,-0.123712105,-0.034778512
-0.000659616,0.039508281,-0.006898241,-0.028252723,-0.123715098,-0.034778691
-0.000661055,0.039508269,-0.006896053,-0.02825479,-0.123718091,-0.03477887
-0.000662494,0.039508257,-0.006893864,-0.028256857,-0.123721085,-0.03477905
-0.000663932,0.039508244,-0.006891675,-0.028258925,-0.123724077,-0.034779229
-0.000665371,0.039508232,-0.006889486,-0.028260992,-0.12372707,-0.034779409
-0.00066681,0.039508218,-0.006887296,-0.028263059,-0.123730062,-0.034779588
-0.000668249,0.039508205,-0.006885107,-0.028265126,-0.123733055,-0.034779768
-0.000669688,0.039508192,-0.006882917,-0.028267192,-0.123736047,-0.034779948
-0.000671127,0.039508178,-0.006880727,-0.028269259,-0.123739039,-0.034780129
-0.000672566,0.039508164,-0.006878537,-0.028271325,-0.123742031,-0.034780309
-0.000674005,0.03950815,-0.006876346,-0.028273392,-0.123745023,-0.034780489
-0.000675444,0.039508135,-0.006874155,-0.028275458,-0.123748015,-0.03478067
-0.000676884,0.039508121,-0.006871964,-0.028277524,-0.123751006,-0.034780851
-0.000678323,0.039508106,-0.006869773,-0.02827959,-0.123753998,-0.034781032
-0.000679763,0.039508091,-0.006867582,-0.028281656,-0.123756989,-0.034781212
-0.000681202,0.039508075,-0.00686539,-0.028283721,-0.12375998,-0.034781394
-0.000682642,0.039508059,-0.006863199,-0.028285787,-0.12376297,-0.034781575
-0.000684082,0.039508044,-0.006861007,-0.028287852,-0.123765961,-0.034781756
-0.000685522,0.039508027,-0.006858815,-0.028289918,-0.123768952,-0.034781938
-0.000686962,0.039508011,-0.006856622,-0.028291983,-0.123771942,-0.034782119
-0.000688402,0.039507994,-0.00685443,-0.028294048,-0.123774933,-0.034782301
-0.000689842,0.039507977,-0.006852237,-0.028296113,-0.123777923,-0.034782483
-0.000691282,0.03950796,-0.006850044,-0.028298177,-0.123780913,-0.034782665
-0.000692722,0.039507943,-0.006847851,-0.028300242,-0.123783903,-0.034782847
-0.000694163,0.039507925,-0.006845657,-0.028302306,-0.123786892,-0.03478303
-0.000695603,0.039507907,-0.006843464,-0.028304371,-0.123789882,-0.034783212
-0.000697044,0.039507889,-0.00684127,-0.028306435,-0.123792871,-0.034783395
-0.000698484,0.03950787,-0.006839076,-0.028308499,-0.12379586,-0.034783577
-0.000699925,0.039507852,-0.006836881,-0.028310563,-0.123798849,-0.03478376
-0.000701366,0.039507833,-0.006834687,-0.028312627,-0.123801838,-0.034783943
-0.000702807,0.039507814,-0.006832492,-0.028314691,-0.123804827,-0.034784127
-0.000704248,0.039507794,-0.006830297,-0.028316754,-0.123807816,-0.03478431
-0.000705689,0.039507775,-0.006828102,-0.028318817,-0.123810804,-0.034784493
-0.00070713,0.039507755,-0.006825907,-0.028320881,-0.123813793,-0.034784677
-0.000708571,0.039507735,-0.006823712,-0.028322944,-0.123816781,-0.03478486
-0.000710012,0.039507714,-0.006821516,-0.028325007,-0.123819769,-0.034785044
-0.000711454,0.039507694,-0.00681932,-0.02832707,-0.123822757,-0.034785228
-0.000712895,0.039507673,-0.006817124,-0.028329133,-0.123825744,-0.034785412
-0.000714337,0.039507651,-0.006814927,-0.028331195,-0.123828732,-0.034785597
-0.000715778,0.03950763,-0.006812731,-0.028333258,-0.123831719,-0.034785781
-0.00071722,0.039507608,-0.006810534,-0.02833532,-0.123834707,-0.034785965
-0.000718662,0.039507587,-0.006808337,-0.028337382,-0.123837694,-0.03478615
-0.000720104,0.039507564,-0.00680614,-0.028339444,-0.12384068,-0.034786335
-0.000721546,0.039507542,-0.006803943,-0.028341506,-0.123843667,-0.03478652
-0.000722988,0.039507519,-0.006801745,-0.028343568,-0.123846654,-0.034786705
-0.00072443,0.039507496,-0.006799547,-0.02834563,-0.12384964,-0.03478689
-0.000725872,0.039507473,-0.006797349,-0.028347692,-0.123852627,-0.034787075
-0.000727314,0.03950745,-0.006795151,-0.028349753,-0.123855613,-0.034787261
-0.000728756,0.039507426,-0.006792952,-0.028351814,-0.123858599,-0.034787446
-0.000730199,0.039507402,-0.006790754,-0.028353875,-0.123861585,-0.034787632
-0.000731641,0.039507378,-0.006788555,-0.028355936,-0.123864571,-0.034787818
-0.000733084,0.039507354,-0.006786356,-0.028357997,-0.123867556,-0.034788004
-0.000734527,0.039507329,-0.006784157,-0.028360058,-0.123870542,-0.03478819
-0.000735969,0.039507304,-0.006781957,-0.028362119,-0.123873527,-0.034788376
-0.000737412,0.039507279,-0.006779757,-0.028364179,-0.123876512,-0.034788563
-0.000738855,0.039507254,-0.006777558,-0.02836624,-0.123879497,-0.034788749
-0.000740298,0.039507228,-0.006775357,-0.0283683,-0.123882482,-0.034788936
-0.000741741,0.039507202,-0.006773157,-0.02837036,-0.123885466,-0.034789123
-0.000743184,0.039507176,-0.006770957,-0.02837242,-0.123888451,-0.03478931
-0.000744628,0.03950715,-0.006768756,-0.02837448,-0.123891435,-0.034789497
-0.000746071,0.039507123,-0.006766555,-0.02837654,-0.12389442,-0.034789684
-0.000747514,0.039507097,-0.006764354,-0.028378599,-0.123897404,-0.034789871
-0.000748958,0.039507069,-0.006762152,-0.028380659,-0.123900387,-0.034790059
-0.000750401,0.039507042,-0.006759951,-0.028382718,-0.123903371,-0.034790246
-0.000751845,0.039507014,-0.006757749,-0.028384777,-0.123906355,-0.034790434
-0.000753289,0.039506987,-0.006755547,-0.028386836,-0.123909338,-0.034790622
-0.000754733,0.039506958,-0.006753345,-0.028388895,-0.123912321,-0.03479081
-0.000756176,0.03950693,-0.006751142,-0.028390954,-0.123915304,-0.034790998
-0.00075762,0.039506902,-0.00674894,-0.028393013,-0.123918288,-0.034791186
-0.000759064,0.039506873,-0.006746737,-0.028395071,-0.12392127,-0.034791375
-0.000760509,0.039506844,-0.006744534,-0.02839713,-0.123924253,-0.034791563
-0.000761953,0.039506814,-0.006742331,-0.028399188,-0.123927236,-0.034791752
-0.000763397,0.039506785,-0.006740127,-0.028401246,-0.123930218,-0.034791941
-0.000764842,0.039506755,-0.006737924,-0.028403304,-0.1239332,-0.034792129
-0.000766286,0.039506725,-0.00673572,-0.028405362,-0.123936182,-0.034792318
-0.000767731,0.039506694,-0.006733516,-0.02840742,-0.123939164,-0.034792508
-0.000769175,0.039506664,-0.006731311,-0.028409478,-0.123942146,-0.034792697
-0.00077062,0.039506633,-0.006729107,-0.028411535,-0.123945127,-0.034792887
-0.000772065,0.039506602,-0.006726902,-0.028413593,-0.123948109,-0.034793076
-0.00077351,0.03950657,-0.006724697,-0.02841565,-0.12395109,-0.034793266
-0.000774954,0.039506539,-0.006722492,-0.028417707,-0.123954071,-0.034793456
-0.0007764,0.039506507,-0.006720287,-0.028419764,-0.123957052,-0.034793646
-0.000777845,0.039506475,-0.006718081,-0.028421821,-0.123960033,-0.034793836
-0.00077929,0.039506443,-0.006715876,-0.028423877,-0.123963014,-0.034794026
-0.000780735,0.03950641,-0.00671367,-0.028425934,-0.123965994,-0.034794217
-0.00078218,0.039506377,-0.006711463,-0.02842799,-0.123968974,-0.034794407
-0.000783626,0.039506344,-0.006709257,-0.028430047,-0.123971955,-0.034794598
-0.000785071,0.039506311,-0.00670705,-0.028432103,-0.123974935,-0.034794789
-0.000786517,0.039506277,-0.006704844,-0.028434159,-0.123977914,-0.034794979
-0.000787963,0.039506243,-0.006702637,-0.028436215,-0.123980894,-0.034795171
-0.000789409,0.039506209,-0.006700429,-0.028438271,-0.123983874,-0.034795362
-0.000790854,0.039506175,-0.006698222,-0.028440326,-0.123986853,-0.034795553
-0.0007923,0.03950614,-0.006696014,-0.028442382,-0.123989832,-0.034795745
-0.000793746,0.039506106,-0.006693807,-0.028444437,-0.123992811,-0.034795936
-0.000795192,0.039506071,-0.006691599,-0.028446493,-0.12399579,-0.034796128
-0.000796639,0.039506035,-0.00668939,-0.028448548,-0.123998769,-0.03479632
-0.000798085,0.039506,-0.006687182,-0.028450603,-0.124001748,-0.034796512
-0.000799531,0.039505964,-0.006684973,-0.028452658,-0.124004726,-0.034796704
-0.000800978,0.039505928,-0.006682764,-0.028454712,-0.124007705,-0.034796896
-0.000802424,0.039505891,-0.006680555,-0.028456767,-0.124010683,-0.034797089
-0.000803871,0.039505855,-0.006678346,-0.028458821,-0.124013661,-0.034797281
-0.000805317,0.039505818,-0.006676136,-0.028460876,-0.124016639,-0.034797474
-0.000806764,0.039505781,-0.006673927,-0.02846293,-0.124019616,-0.034797667
-0.000808211,0.039505744,-0.006671717,-0.028464984,-0.124022594,-0.03479786
-0.000809658,0.039505706,-0.006669507,-0.028467038,-0.124025571,-0.034798053
-0.000811105,0.039505668,-0.006667296,-0.028469092,-0.124028548,-0.034798246
-0.000812552,0.03950563,-0.006665086,-0.028471146,-0.124031526,-0.034798439
-0.000813999,0.039505592,-0.006662875,-0.028473199,-0.124034502,-0.034798633
-0.000815446,0.039505553,-0.006660664,-0.028475253,-0.124037479,-0.034798826
-0.000816894,0.039505514,-0.006658453,-0.028477306,-0.124040456,-0.03479902
-0.000818341,0.039505475,-0.006656241,-0.028479359,-0.124043432,-0.034799214
-0.000819788,0.039505436,-0.00665403,-0.028481412,-0.124046409,-0.034799408
-0.000821236,0.039505396,-0.006651818,-0.028483465,-0.124049385,-0.034799602
-0.000822684,0.039505356,-0.006649606,-0.028485518,-0.12405236,-0.034799796
-0.000824131,0.039505317,-0.006647394,-0.02848757,-0.124055337,-0.034799991
-0.000825579,0.039505276,-0.006645181,-0.028489623,-0.124058312,-0.034800185
-0.000827027,0.039505236,-0.006642969,-0.028491675,-0.124061287,-0.03480038
-0.000828475,0.039505195,-0.006640756,-0.028493728,-0.124064263,-0.034800575
-0.000829923,0.039505154,-0.006638543,-0.02849578,-0.124067238,-0.034800769
-0.000831371,0.039505112,-0.00663633,-0.028497832,-0.124070213,-0.034800964
-0.000832819,0.039505071,-0.006634116,-0.028499883,-0.124073188,-0.03480116
-0.000834268,0.039505029,-0.006631902,-0.028501935,-0.124076163,-0.034801355
-0.000835716,0.039504987,-0.006629689,-0.028503987,-0.124079137,-0.03480155
-0.000837165,0.039504945,-0.006627475,-0.028506038,-0.124082112,-0.034801746
-0.000838613,0.039504902,-0.00662526,-0.02850809,-0.124085086,-0.034801942
-0.000840062,0.039504859,-0.006623046,-0.028510141,-0.12408806,-0.034802138
-0.00084151,0.039504816,-0.006620831,-0.028512192,-0.124091034,-0.034802334
-0.000842959,0.039504773,-0.006618616,-0.028514243,-0.124094008,-0.03480253
-0.000844408,0.039504729,-0.006616401,-0.028516294,-0.124096982,-0.034802726
-0.000845857,0.039504685,-0.006614186,-0.028518344,-0.124099955,-0.034802922
-0.000847306,0.039504641,-0.00661197,-0.028520395,-0.124102928,-0.034803119
-0.000848755,0.039504597,-0.006609754,-0.028522445,-0.124105901,-0.034803315
-0.000850204,0.039504552,-0.006607538,-0.028524496,-0.124108875,-0.034803512
-0.000851654,0.039504508,-0.006605322,-0.028526546,-0.124111847,-0.034803709
-0.000853103,0.039504463,-0.006603106,-0.028528596,-0.12411482,-0.034803906
-0.000854552,0.039504417,-0.006600889,-0.028530646,-0.124117792,-0.034804103
-0.000856002,0.039504372,-0.006598672,-0.028532695,-0.124120765,-0.034804301
-0.000857451,0.039504326,-0.006596455,-0.028534745,-0.124123737,-0.034804498
-0.000858901,0.03950428,-0.006594238,-0.028536795,-0.124126709,-0.034804696
-0.000860351,0.039504233,-0.006592021,-0.028538844,-0.124129681,-0.034804893
-0.000861801,0.039504187,-0.006589803,-0.028540893,-0.124132653,-0.034805091
-0.000863251,0.03950414,-0.006587585,-0.028542942,-0.124135625,-0.034805289
-0.000864701,0.039504093,-0.006585367,-0.028544991,-0.124138596,-0.034805487
-0.000866151,0.039504046,-0.006583149,-0.02854704,-0.124141567,-0.034805685
-0.000867601,0.039503998,-0.00658093,-0.028549089,-0.124144538,-0.034805884
-0.000869051,0.03950395,-0.006578712,-0.028551137,-0.124147509,-0.034806082
-0.000870501,0.039503902,-0.006576493,-0.028553186,-0.12415048,-0.034806281
-0.000871952,0.039503854,-0.006574274,-0.028555234,-0.124153451,-0.03480648
-0.000873402,0.039503805,-0.006572054,-0.028557282,-0.124156421,-0.034806678
-0.000874853,0.039503756,-0.006569835,-0.02855933,-0.124159391,-0.034806877
-0.000876303,0.039503707,-0.006567615,-0.028561378,-0.124162361,-0.034807077
-0.000877754,0.039503658,-0.006565395,-0.028563426,-0.124165331,-0.034807276
-0.000879205,0.039503608,-0.006563175,-0.028565474,-0.124168301,-0.034807475
-0.000880656,0.039503558,-0.006560955,-0.028567521,-0.124171271,-0.034807675
-0.000882107,0.039503508,-0.006558734,-0.028569569,-0.12417424,-0.034807874
-0.000883558,0.039503458,-0.006556514,-0.028571616,-0.12417721,-0.034808074
-0.000885009,0.039503407,-0.006554293,-0.028573663,-0.124180179,-0.034808274
-0.00088646,0.039503357,-0.006552071,-0.02857571,-0.124183148,-0.034808474
-0.000887912,0.039503306,-0.00654985,-0.028577757,-0.124186117,-0.034808674
-0.000889363,0.039503254,-0.006547628,-0.028579804,-0.124189085,-0.034808875
-0.000890814,0.039503203,-0.006545407,-0.028581851,-0.124192054,-0.034809075
-0.000892266,0.039503151,-0.006543185,-0.028583897,-0.124195022,-0.034809276
-0.000893717,0.039503099,-0.006540962,-0.028585944,-0.124197991,-0.034809476
-0.000895169,0.039503046,-0.00653874,-0.02858799,-0.124200959,-0.034809677
-0.000896621,0.039502994,-0.006536517,-0.028590036,-0.124203927,-0.034809878
-0.000898073,0.039502941,-0.006534295,-0.028592082,-0.124206894,-0.034810079
-0.000899525,0.039502888,-0.006532072,-0.028594128,-0.124209862,-0.03481028
-0.000900977,0.039502834,-0.006529848,-0.028596173,-0.124212829,-0.034810482
-0.000902429,0.039502781,-0.006527625,-0.028598219,-0.124215797,-0.034810683
-0.000903881,0.039502727,-0.006525401,-0.028600265,-0.124218764,-0.034810885
-0.000905333,0.039502673,-0.006523177,-0.02860231,-0.124221731,-0.034811087
-0.000906786,0.039502619,-0.006520953,-0.028604355,-0.124224698,-0.034811289
-0.000908238,0.039502564,-0.006518729,-0.0286064,-0.124227664,-0.034811491
-0.000909691,0.039502509,-0.006516504,-0.028608445,-0.124230631,-0.034811693
-0.000911143,0.039502454,-0.00651428,-0.02861049,-0.124233597,-0.034811895
-0.000912596,0.039502399,-0.006512055,-0.028612534,-0.124236563,-0.034812097
-0.000914049,0.039502343,-0.00650983,-0.028614579,-0.124239529,-0.0348123
-0.000915501,0.039502287,-0.006507604,-0.028616623,-0.124242495,-0.034812503
-0.000916954,0.039502231,-0.006505379,-0.028618668,-0.124245461,-0.034812705
-0.000918407,0.039502175,-0.006503153,-0.028620712,-0.124248426,-0.034812908
-0.00091986,0.039502118,-0.006500927,-0.028622756,-0.124251392,-0.034813111
-0.000921314,0.039502061,-0.006498701,-0.0286248,-0.124254357,-0.034813315
-0.000922767,0.039502004,-0.006496474,-0.028626844,-0.124257322,-0.034813518
-0.00092422,0.039501947,-0.006494248,-0.028628887,-0.124260287,-0.034813721
-0.000925673,0.039501889,-0.006492021,-0.028630931,-0.124263251,-0.034813925
-0.000927127,0.039501831,-0.006489794,-0.028632974,-0.124266216,-0.034814129
-0.00092858,0.039501773,-0.006487567,-0.028635017,-0.12426918,-0.034814332
-0.000930034,0.039501715,-0.006485339,-0.02863706,-0.124272145,-0.034814536
-0.000931488,0.039501656,-0.006483112,-0.028639103,-0.124275109,-0.03481474
-0.000932942,0.039501597,-0.006480884,-0.028641146,-0.124278072,-0.034814945
-0.000934396,0.039501538,-0.006478656,-0.028643189,-0.124281036,-0.034815149
-0.000935849,0.039501479,-0.006476428,-0.028645232,-0.124284,-0.034815354
-0.000937303,0.039501419,-0.006474199,-0.028647274,-0.124286963,-0.034815558
-0.000938758,0.039501359,-0.006471971,-0.028649316,-0.124289927,-0.034815763
-0.000940212,0.039501299,-0.006469742,-0.028651359,-0.124292889,-0.034815968
-0.000941666,0.039501239,-0.006467513,-0.028653401,-0.124295853,-0.034816173
-0.00094312,0.039501178,-0.006465283,-0.028655443,-0.124298815,-0.034816378
-0.000944575,0.039501117,-0.006463054,-0.028657484,-0.124301778,-0.034816583
-0.000946029,0.039501056,-0.006460824,-0.028659526,-0.12430474,-0.034816788
-0.000947484,0.039500994,-0.006458594,-0.028661568,-0.124307703,-0.034816994
-0.000948939,0.039500933,-0.006456364,-0.028663609,-0.124310665,-0.0348172
-0.000950393,0.039500871,-0.006454134,-0.02866565,-0.124313627,-0.034817405
-0.000951848,0.039500809,-0.006451903,-0.028667692,-0.124316589,-0.034817611
-0.000953303,0.039500746,-0.006449673,-0.028669733,-0.12431955,-0.034817817
-0.000954758,0.039500684,-0.006447442,-0.028671774,-0.124322512,-0.034818024
-0.000956213,0.039500621,-0.006445211,-0.028673814,-0.124325473,-0.03481823
-0.000957668,0.039500558,-0.006442979,-0.028675855,-0.124328434,-0.034818436
-0.000959124,0.039500494,-0.006440748,-0.028677895,-0.124331395,-0.034818643
-0.000960579,0.03950043,-0.006438516,-0.028679936,-0.124334356,-0.034818849
-0.000962034,0.039500367,-0.006436284,-0.028681976,-0.124337317,-0.034819056
-0.00096349,0.039500302,-0.006434052,-0.028684016,-0.124340277,-0.034819263
-0.000964946,0.039500238,-0.006431819,-0.028686056,-0.124343238,-0.03481947
-0.000966401,0.039500173,-0.006429587,-0.028688096,-0.124346198,-0.034819677
-0.000967857,0.039500108,-0.006427354,-0.028690136,-0.124349158,-0.034819885
-0.000969313,0.039500043,-0.006425121,-0.028692175,-0.124352118,-0.034820092
-0.000970769,0.039499978,-0.006422888,-0.028694215,-0.124355077,-0.0348203
-0.000972225,0.039499912,-0.006420654,-0.028696254,-0.124358037,-0.034820508
-0.000973681,0.039499846,-0.00641842,-0.028698293,-0.124360996,-0.034820715
-0.000975137,0.03949978,-0.006416187,-0.028700332,-0.124363955,-0.034820923
-0.000976593,0.039499713,-0.006413953,-0.028702371,-0.124366915,-0.034821132
-0.000978049,0.039499647,-0.006411718,-0.02870441,-0.124369873,-0.03482134
-0.000979506,0.03949958,-0.006409484,-0.028706449,-0.124372832,-0.034821548
-0.000980962,0.039499513,-0.006407249,-0.028708487,-0.124375791,-0.034821757
-0.000982419,0.039499445,-0.006405014,-0.028710526,-0.124378749,-0.034821965
-0.000983875,0.039499377,-0.006402779,-0.028712564,-0.124381707,-0.034822174
-0.000985332,0.039499309,-0.006400544,-0.028714602,-0.124384665,-0.034822383
-0.000986789,0.039499241,-0.006398308,-0.02871664,-0.124387623,-0.034822592
-0.000988246,0.039499173,-0.006396073,-0.028718678,-0.124390581,-0.034822801
-0.000989703,0.039499104,-0.006393837,-0.028720716,-0.124393539,-0.03482301
-0.00099116,0.039499035,-0.006391601,-0.028722754,-0.124396496,-0.03482322
-0.000992617,0.039498966,-0.006389364,-0.028724791,-0.124399453,-0.034823429
-0.000994074,0.039498896,-0.006387128,-0.028726829,-0.12440241,-0.034823639
-0.000995531,0.039498827,-0.006384891,-0.028728866,-0.124405367,-0.034823849
-0.000996988,0.039498757,-0.006382654,-0.028730903,-0.124408324,-0.034824058
-0.000998446,0.039498687,-0.006380417,-0.02873294,-0.124411281,-0.034824268
-0.000999903,0.039498616,-0.006378179,-0.028734977,-0.124414237,-0.034824479
-0.001001361,0.039498545,-0.006375942,-0.028737014,-0.124417194,-0.034824689
-0.001002819,0.039498474,-0.006373704,-0.02873905,-0.124420149,-0.034824899
-0.001004276,0.039498403,-0.006371466,-0.028741087,-0.124423105,-0.03482511
-0.001005734,0.039498332,-0.006369228,-0.028743123,-0.124426061,-0.03482532
-0.001007192,0.03949826,-0.006366989,-0.028745159,-0.124429017,-0.034825531
-0.00100865,0.039498188,-0.006364751,-0.028747196,-0.124431972,-0.034825742
-0.001010108,0.039498115,-0.006362512,-0.028749231,-0.124434927,-0.034825953
-0.001011566,0.039498043,-0.006360273,-0.028751267,-0.124437883,-0.034826164
-0.001013024,0.03949797,-0.006358034,-0.028753303,-0.124440838,-0.034826376
-0.001014483,0.039497897,-0.006355794,-0.028755339,-0.124443792,-0.034826587
-0.001015941,0.039497824,-0.006353555,-0.028757374,-0.124446747,-0.034826799
-0.0010174,0.03949775,-0.006351315,-0.028759409,-0.124449701,-0.03482701
-0.001018858,0.039497677,-0.006349075,-0.028761445,-0.124452656,-0.034827222
-0.001020317,0.039497603,-0.006346834,-0.02876348,-0.12445561,-0.034827434
-0.001021775,0.039497528,-0.006344594,-0.028765514,-0.124458564,-0.034827646
-0.001023234,0.039497454,-0.006342353,-0.028767549,-0.124461518,-0.034827859
-0.001024693,0.039497379,-0.006340112,-0.028769584,-0.124464471,-0.034828071
-0.001026152,0.039497304,-0.006337871,-0.028771619,-0.124467425,-0.034828283
-0.001027611,0.039497229,-0.00633563,-0.028773653,-0.124470378,-0.034828496
-0.00102907,0.039497153,-0.006333388,-0.028775687,-0.124473331,-0.034828709
-0.001030529,0.039497077,-0.006331147,-0.028777721,-0.124476284,-0.034828921
-0.001031989,0.039497001,-0.006328905,-0.028779755,-0.124479237,-0.034829134
-0.001033448,0.039496925,-0.006326662,-0.028781789,-0.12448219,-0.034829347
-0.001034907,0.039496848,-0.00632442,-0.028783823,-0.124485142,-0.034829561
-0.001036367,0.039496772,-0.006322178,-0.028785857,-0.124488095,-0.034829774
-0.001037826,0.039496695,-0.006319935,-0.02878789,-0.124491047,-0.034829988
-0.001039286,0.039496617,-0.006317692,-0.028789924,-0.124493999,-0.034830201
-0.001040746,0.03949654,-0.006315449,-0.028791957,-0.12449695,-0.034830415
-0.001042206,0.039496462,-0.006313205,-0.02879399,-0.124499902,-0.034830629
-0.001043666,0.039496384,-0.006310962,-0.028796023,-0.124502854,-0.034830843
-0.001045126,0.039496305,-0.006308718,-0.028798056,-0.124505805,-0.034831057
-0.001046586,0.039496227,-0.006306474,-0.028800088,-0.124508756,-0.034831271
-0.001048046,0.039496148,-0.00630423,-0.028802121,-0.124511707,-0.034831485
-0.001049506,0.039496069,-0.006301985,-0.028804154,-0.124514658,-0.0348317
-0.001050966,0.039495989,-0.006299741,-0.028806186,-0.124517609,-0.034831914
-0.001052427,0.03949591,-0.006297496,-0.028808218,-0.124520559,-0.034832129
-0.001053887,0.03949583,-0.006295251,-0.02881025,-0.124523509,-0.034832344
-0.001055348,0.03949575,-0.006293005,-0.028812282,-0.12452646,-0.034832559
-0.001056808,0.03949567,-0.00629076,-0.028814314,-0.12452941,-0.034832774
-0.001058269,0.039495589,-0.006288514,-0.028816346,-0.124532359,-0.03483299
-0.00105973,0.039495508,-0.006286268,-0.028818377,-0.124535309,-0.034833205
-0.001061191,0.039495427,-0.006284022,-0.028820409,-0.124538259,-0.03483342
-0.001062652,0.039495346,-0.006281776,-0.02882244,-0.124541208,-0.034833636
-0.001064113,0.039495264,-0.00627953,-0.028824471,-0.124544157,-0.034833852
-0.001065574,0.039495182,-0.006277283,-0.028826502,-0.124547106,-0.034834068
-0.001067035,0.0394951,-0.006275036,-0.028828533,-0.124550055,-0.034834284
-0.001068496,0.039495018,-0.006272789,-0.028830564,-0.124553004,-0.0348345
-0.001069957,0.039494935,-0.006270541,-0.028832595,-0.124555952,-0.034834716
-0.001071419,0.039494852,-0.006268294,-0.028834625,-0.1245589,-0.034834933
-0.00107288,0.039494769,-0.006266046,-0.028836655,-0.124561849,-0.034835149
-0.001074342,0.039494685,-0.006263798,-0.028838686,-0.124564797,-0.034835366
-0.001075804,0.039494602,-0.00626155,-0.028840716,-0.124567744,-0.034835582
-0.001077265,0.039494518,-0.006259302,-0.028842746,-0.124570692,-0.034835799
-0.001078727,0.039494434,-0.006257053,-0.028844776,-0.12457364,-0.034836016
-0.001080189,0.039494349,-0.006254804,-0.028846805,-0.124576587,-0.034836234
-0.001081651,0.039494264,-0.006252555,-0.028848835,-0.124579534,-0.034836451
-0.001083113,0.03949418,-0.006250306,-0.028850865,-0.124582481,-0.034836668
-0.001084575,0.039494094,-0.006248057,-0.028852894,-0.124585428,-0.034836886
-0.001086038,0.039494009,-0.006245807,-0.028854923,-0.124588375,-0.034837103
-0.0010875,0.039493923,-0.006243557,-0.028856952,-0.124591321,-0.034837321
-0.001088962,0.039493837,-0.006241307,-0.028858981,-0.124594268,-0.034837539
-0.001090425,0.039493751,-0.006239057,-0.02886101,-0.124597214,-0.034837757
-0.001091887,0.039493665,-0.006236807,-0.028863039,-0.124600159,-0.034837975
-0.00109335,0.039493578,-0.006234556,-0.028865067,-0.124603105,-0.034838194
-0.001094813,0.039493491,-0.006232305,-0.028867096,-0.124606051,-0.034838412
-0.001096275,0.039493404,-0.006230054,-0.028869124,-0.124608997,-0.034838631
-0.001097738,0.039493316,-0.006227803,-0.028871152,-0.124611942,-0.034838849
-0.001099201,0.039493228,-0.006225552,-0.02887318,-0.124614887,-0.034839068
-0.001100664,0.03949314,-0.0062233,-0.028875208,-0.124617832,-0.034839287
-0.001102127,0.039493052,-0.006221048,-0.028877236,-0.124620777,-0.034839506
-0.00110359,0.039492964,-0.006218796,-0.028879264,-0.124623721,-0.034839725
-0.001105054,0.039492875,-0.006216544,-0.028881291,-0.124626666,-0.034839944
-0.001106517,0.039492786,-0.006214291,-0.028883319,-0.12462961,-0.034840164
-0.00110798,0.039492697,-0.006212038,-0.028885346,-0.124632554,-0.034840383
-0.001109444,0.039492607,-0.006209786,-0.028887373,-0.124635498,-0.034840603
-0.001110908,0.039492517,-0.006207532,-0.0288894,-0.124638442,-0.034840823
-0.001112371,0.039492427,-0.006205279,-0.028891427,-0.124641386,-0.034841043
-0.001113835,0.039492337,-0.006203026,-0.028893454,-0.124644329,-0.034841263
-0.001115299,0.039492247,-0.006200772,-0.028895481,-0.124647273,-0.034841483
-0.001116763,0.039492156,-0.006198518,-0.028897507,-0.124650216,-0.034841703
-0.001118227,0.039492065,-0.006196264,-0.028899534,-0.124653159,-0.034841924
-0.001119691,0.039491973,-0.006194009,-0.02890156,-0.124656102,-0.034842144
-0.001121155,0.039491882,-0.006191755,-0.028903586,-0.124659044,-0.034842365
-0.001122619,0.03949179,-0.0061895,-0.028905612,-0.124661986,-0.034842586
-0.001124083,0.039491698,-0.006187245,-0.028907638,-0.124664929,-0.034842807
-0.001125548,0.039491606,-0.00618499,-0.028909664,-0.124667871,-0.034843028
-0.001127012,0.039491513,-0.006182735,-0.028911689,-0.124670813,-0.034843249
-0.001128477,0.03949142,-0.006180479,-0.028913715,-0.124673755,-0.03484347
-0.001129941,0.039491327,-0.006178223,-0.02891574,-0.124676696,-0.034843692
-0.001131406,0.039491234,-0.006175967,-0.028917765,-0.124679638,-0.034843913
-0.001132871,0.03949114,-0.006173711,-0.02891979,-0.124682579,-0.034844135
-0.001134336,0.039491046,-0.006171455,-0.028921816,-0.12468552,-0.034844357
-0.001135801,0.039490952,-0.006169198,-0.02892384,-0.124688461,-0.034844579
-0.001137266,0.039490858,-0.006166941,-0.028925865,-0.124691402,-0.034844801
-0.001138731,0.039490763,-0.006164684,-0.02892789,-0.124694342,-0.034845023
-0.001140196,0.039490668,-0.006162427,-0.028929914,-0.124697283,-0.034845245
-0.001141661,0.039490573,-0.006160169,-0.028931938,-0.124700223,-0.034845468
-0.001143126,0.039490478,-0.006157912,-0.028933963,-0.124703163,-0.03484569
-0.001144592,0.039490382,-0.006155654,-0.028935987,-0.124706103,-0.034845913
-0.001146057,0.039490286,-0.006153396,-0.028938011,-0.124709043,-0.034846136
-0.001147523,0.03949019,-0.006151137,-0.028940034,-0.124711982,-0.034846359
-0.001148988,0.039490094,-0.006148879,-0.028942058,-0.124714922,-0.034846582
-0.001150454,0.039489997,-0.00614662,-0.028944082,-0.124717861,-0.034846805
-0.00115192,0.0394899,-0.006144361,-0.028946105,-0.1247208,-0.034847028
-0.001153386,0.039489803,-0.006142102,-0.028948128,-0.124723739,-0.034847252
-0.001154852,0.039489706,-0.006139843,-0.028950152,-0.124726678,-0.034847475
-0.001156318,0.039489608,-0.006137583,-0.028952175,-0.124729616,-0.034847699
-0.001157784,0.03948951,-0.006135324,-0.028954198,-0.124732555,-0.034847923
-0.00115925,0.039489412,-0.006133064,-0.02895622,-0.124735493,-0.034848147
-0.001160716,0.039489313,-0.006130804,-0.028958243,-0.124738431,-0.034848371
-0.001162183,0.039489215,-0.006128543,-0.028960265,-0.124741369,-0.034848595
-0.001163649,0.039489116,-0.006126283,-0.028962288,-0.124744307,-0.034848819
-0.001165116,0.039489017,-0.006124022,-0.02896431,-0.124747244,-0.034849044
-0.001166582,0.039488917,-0.006121761,-0.028966332,-0.124750181,-0.034849268
-0.001168049,0.039488817,-0.0061195,-0.028968354,-0.124753119,-0.034849493
-0.001169516,0.039488717,-0.006117239,-0.028970376,-0.124756056,-0.034849718
-0.001170983,0.039488617,-0.006114977,-0.028972398,-0.124758992,-0.034849942
-0.00117245,0.039488517,-0.006112715,-0.02897442,-0.124761929,-0.034850168
-0.001173917,0.039488416,-0.006110453,-0.028976441,-0.124764866,-0.034850393
-0.001175384,0.039488315,-0.006108191,-0.028978462,-0.124767802,-0.034850618
-0.001176851,0.039488214,-0.006105929,-0.028980484,-0.124770738,-0.034850843
-0.001178318,0.039488112,-0.006103666,-0.028982505,-0.124773674,-0.034851069
-0.001179785,0.03948801,-0.006101403,-0.028984526,-0.12477661,-0.034851295
-0.001181253,0.039487908,-0.00609914,-0.028986547,-0.124779546,-0.03485152
-0.00118272,0.039487806,-0.006096877,-0.028988567,-0.124782481,-0.034851746
-0.001184188,0.039487704,-0.006094613,-0.028990588,-0.124785416,-0.034851972
-0.001185655,0.039487601,-0.00609235,-0.028992608,-0.124788351,-0.034852199
-0.001187123,0.039487498,-0.006090086,-0.028994629,-0.124791287,-0.034852425
-0.001188591,0.039487394,-0.006087822,-0.028996649,-0.124794221,-0.034852651
-0.001190059,0.039487291,-0.006085558,-0.028998669,-0.124797156,-0.034852878
-0.001191527,0.039487187,-0.006083293,-0.029000689,-0.124800091,-0.034853104
-0.001192995,0.039487083,-0.006081029,-0.029002709,-0.124803025,-0.034853331
-0.001194463,0.039486979,-0.006078764,-0.029004728,-0.124805959,-0.034853558
-0.001195931,0.039486874,-0.006076499,-0.029006748,-0.124808893,-0.034853785
-0.001197399,0.039486769,-0.006074233,-0.029008768,-0.124811827,-0.034854012
-0.001198868,0.039486664,-0.006071968,-0.029010787,-0.12481476,-0.03485424
-0.001200336,0.039486559,-0.006069702,-0.029012806,-0.124817693,-0.034854467
-0.001201805,0.039486453,-0.006067436,-0.029014825,-0.124820627,-0.034854695
-0.001203273,0.039486347,-0.00606517,-0.029016844,-0.12482356,-0.034854922
-0.001204742,0.039486241,-0.006062904,-0.029018863,-0.124826493,-0.03485515
-0.001206211,0.039486135,-0.006060637,-0.029020881,-0.124829425,-0.034855378
-0.001207679,0.039486028,-0.00605837,-0.0290229,-0.124832358,-0.034855606
-0.001209148,0.039485921,-0.006056104,-0.029024918,-0.12483529,-0.034855834
-0.001210617,0.039485814,-0.006053836,-0.029026937,-0.124838223,-0.034856062
-0.001212086,0.039485707,-0.006051569,-0.029028955,-0.124841155,-0.034856291
-0.001213555,0.039485599,-0.006049301,-0.029030973,-0.124844086,-0.034856519
-0.001215025,0.039485491,-0.006047034,-0.029032991,-0.124847018,-0.034856748
-0.001216494,0.039485383,-0.006044766,-0.029035008,-0.12484995,-0.034856977
-0.001217963,0.039485275,-0.006042498,-0.029037026,-0.124852881,-0.034857205
-0.001219433,0.039485166,-0.006040229,-0.029039044,-0.124855812,-0.034857434
-0.001220902,0.039485057,-0.006037961,-0.029041061,-0.124858743,-0.034857664
-0.001222372,0.039484948,-0.006035692,-0.029043078,-0.124861674,-0.034857893
-0.001223842,0.039484838,-0.006033423,-0.029045095,-0.124864605,-0.034858122
-0.001225311,0.039484729,-0.006031154,-0.029047112,-0.124867535,-0.034858352
-0.001226781,0.039484619,-0.006028884,-0.029049129,-0.124870466,-0.034858581
-0.001228251,0.039484508,-0.006026615,-0.029051146,-0.124873395,-0.034858811
-0.001229721,0.039484398,-0.006024345,-0.029053163,-0.124876326,-0.034859041
-0.001231191,0.039484287,-0.006022075,-0.029055179,-0.124879255,-0.034859271
-0.001232661,0.039484176,-0.006019805,-0.029057195,-0.124882185,-0.034859501
-0.001234132,0.039484065,-0.006017534,-0.029059212,-0.124885114,-0.034859731
-0.001235602,0.039483954,-0.006015263,-0.029061228,-0.124888044,-0.034859962
-0.001237072,0.039483842,-0.006012993,-0.029063244,-0.124890973,-0.034860192
-0.001238543,0.03948373,-0.006010722,-0.02906526,-0.124893902,-0.034860423
-0.001240013,0.039483618,-0.00600845,-0.029067275,-0.12489683,-0.034860653
-0.001241484,0.039483505,-0.006006179,-0.029069291,-0.124899759,-0.034860884
-0.001242955,0.039483392,-0.006003907,-0.029071306,-0.124902688,-0.034861115
-0.001244425,0.039483279,-0.006001635,-0.029073322,-0.124905616,-0.034861346
-0.001245896,0.039483166,-0.005999363,-0.029075337,-0.124908544,-0.034861578
-0.001247367,0.039483052,-0.005997091,-0.029077352,-0.124911472,-0.034861809
-0.001248838,0.039482939,-0.005994818,-0.029079367,-0.124914399,-0.03486204
-0.001250309,0.039482824,-0.005992546,-0.029081382,-0.124917327,-0.034862272
-0.001251781,0.03948271,-0.005990273,-0.029083396,-0.124920254,-0.034862504
-0.001253252,0.039482596,-0.005988,-0.029085411,-0.124923181,-0.034862736
-0.001254723,0.039482481,-0.005985726,-0.029087425,-0.124926108,-0.034862967
-0.001256195,0.039482366,-0.005983453,-0.02908944,-0.124929035,-0.0348632
-0.001257666,0.03948225,-0.005981179,-0.029091454,-0.124931962,-0.034863432
-0.001259138,0.039482135,-0.005978905,-0.029093468,-0.124934888,-0.034863664
-0.001260609,0.039482019,-0.005976631,-0.029095482,-0.124937815,-0.034863896
-0.001262081,0.039481903,-0.005974357,-0.029097496,-0.124940741,-0.034864129
-0.001263553,0.039481786,-0.005972082,-0.029099509,-0.124943667,-0.034864362
-0.001265025,0.03948167,-0.005969807,-0.029101523,-0.124946593,-0.034864595
-0.001266497,0.039481553,-0.005967532,-0.029103536,-0.124949518,-0.034864827
-0.001267969,0.039481436,-0.005965257,-0.029105549,-0.124952444,-0.034865061
-0.001269441,0.039481318,-0.005962982,-0.029107562,-0.124955369,-0.034865294
-0.001270913,0.0394812,-0.005960706,-0.029109575,-0.124958294,-0.034865527
-0.001272385,0.039481083,-0.005958431,-0.029111588,-0.124961219,-0.03486576
-0.001273858,0.039480964,-0.005956155,-0.029113601,-0.124964144,-0.034865994
-0.00127533,0.039480846,-0.005953878,-0.029115614,-0.124967068,-0.034866228
-0.001276803,0.039480727,-0.005951602,-0.029117626,-0.124969992,-0.034866461
-0.001278275,0.039480608,-0.005949325,-0.029119639,-0.124972917,-0.034866695
-0.001279748,0.039480489,-0.005947049,-0.029121651,-0.124975841,-0.034866929
-0.001281221,0.03948037,-0.005944772,-0.029123663,-0.124978765,-0.034867163
-0.001282694,0.03948025,-0.005942494,-0.029125675,-0.124981688,-0.034867398
-0.001284167,0.03948013,-0.005940217,-0.029127687,-0.124984612,-0.034867632
-0.00128564,0.03948001,-0.005937939,-0.029129699,-0.124987535,-0.034867867
-0.001287113,0.039479889,-0.005935661,-0.02913171,-0.124990458,-0.034868101
-0.001288586,0.039479768,-0.005933383,-0.029133722,-0.124993381,-0.034868336
-0.001290059,0.039479647,-0.005931105,-0.029135733,-0.124996304,-0.034868571
-0.001291532,0.039479526,-0.005928827,-0.029137744,-0.124999227,-0.034868806
-0.001293006,0.039479405,-0.005926548,-0.029139755,-0.125002149,-0.034869041
-0.001294479,0.039479283,-0.005924269,-0.029141766,-0.125005071,-0.034869276
-0.001295953,0.039479161,-0.00592199,-0.029143777,-0.125007993,-0.034869512
-0.001297426,0.039479038,-0.005919711,-0.029145788,-0.125010915,-0.034869747
-0.0012989,0.039478916,-0.005917431,-0.029147799,-0.125013837,-0.034869983
-0.001300374,0.039478793,-0.005915152,-0.029149809,-0.125016759,-0.034870218
-0.001301848,0.03947867,-0.005912872,-0.029151819,-0.12501968,-0.034870454
-0.001303322,0.039478547,-0.005910592,-0.029153829,-0.125022601,-0.03487069
-0.001304796,0.039478423,-0.005908311,-0.02915584,-0.125025522,-0.034870926
-0.00130627,0.039478299,-0.005906031,-0.029157849,-0.125028443,-0.034871163
-0.001307744,0.039478175,-0.00590375,-0.029159859,-0.125031364,-0.034871399
-0.001309218,0.039478051,-0.005901469,-0.029161869,-0.125034285,-0.034871635
-0.001310693,0.039477926,-0.005899188,-0.029163879,-0.125037205,-0.034871872
-0.001312167,0.039477801,-0.005896907,-0.029165888,-0.125040125,-0.034872109
-0.001313641,0.039477676,-0.005894625,-0.029167897,-0.125043045,-0.034872345
-0.001315116,0.039477551,-0.005892343,-0.029169906,-0.125045965,-0.034872582
-0.001316591,0.039477425,-0.005890062,-0.029171915,-0.125048884,-0.034872819
-0.001318065,0.039477299,-0.005887779,-0.029173924,-0.125051804,-0.034873057
-0.00131954,0.039477173,-0.005885497,-0.029175933,-0.125054723,-0.034873294
-0.001321015,0.039477047,-0.005883214,-0.029177942,-0.125057642,-0.034873531
-0.00132249,0.03947692,-0.005880932,-0.02917995,-0.125060561,-0.034873769
-0.001323965,0.039476793,-0.005878649,-0.029181959,-0.12506348,-0.034874007
-0.00132544,0.039476666,-0.005876366,-0.029183967,-0.125066399,-0.034874244
-0.001326915,0.039476538,-0.005874082,-0.029185975,-0.125069317,-0.034874482
-0.001328391,0.039476411,-0.005871799,-0.029187983,-0.125072235,-0.03487472
-0.001329866,0.039476283,-0.005869515,-0.029189991,-0.125075153,-0.034874959
-0.001331341,0.039476154,-0.005867231,-0.029191999,-0.125078071,-0.034875197
-0.001332817,0.039476026,-0.005864947,-0.029194007,-0.125080989,-0.034875435
-0.001334293,0.039475897,-0.005862662,-0.029196014,-0.125083906,-0.034875674
-0.001335768,0.039475768,-0.005860378,-0.029198021,-0.125086823,-0.034875912
-0.001337244,0.039475639,-0.005858093,-0.029200029,-0.12508974,-0.034876151
-0.00133872,0.039475509,-0.005855808,-0.029202036,-0.125092658,-0.03487639
-0.001340196,0.039475379,-0.005853522,-0.029204043,-0.125095574,-0.034876629
-0.001341672,0.039475249,-0.005851237,-0.02920605,-0.125098491,-0.034876868
-0.001343148,0.039475119,-0.005848951,-0.029208056,-0.125101408,-0.034877107
-0.001344624,0.039474989,-0.005846666,-0.029210063,-0.125104324,-0.034877347
-0.0013461,0.039474858,-0.00584438,-0.02921207,-0.12510724,-0.034877586
-0.001347576,0.039474727,-0.005842093,-0.029214076,-0.125110156,-0.034877826
-0.001349053,0.039474595,-0.005839807,-0.029216082,-0.125113071,-0.034878065
-0.001350529,0.039474464,-0.00583752,-0.029218088,-0.125115987,-0.034878305
-0.001352006,0.039474332,-0.005835233,-0.029220094,-0.125118902,-0.034878545
-0.001353482,0.0394742,-0.005832946,-0.0292221,-0.125121818,-0.034878785
-0.001354959,0.039474067,-0.005830659,-0.029224106,-0.125124732,-0.034879025
-0.001356436,0.039473935,-0.005828371,-0.029226111,-0.125127647,-0.034879266
-0.001357913,0.039473802,-0.005826084,-0.029228117,-0.125130562,-0.034879506
-0.00135939,0.039473669,-0.005823796,-0.029230122,-0.125133476,-0.034879747
-0.001360867,0.039473535,-0.005821508,-0.029232127,-0.125136391,-0.034879987
-0.001362344,0.039473402,-0.00581922,-0.029234132,-0.125139305,-0.034880228
-0.001363821,0.039473268,-0.005816931,-0.029236137,-0.125142219,-0.034880469
-0.001365298,0.039473134,-0.005814642,-0.029238142,-0.125145132,-0.03488071
-0.001366775,0.039472999,-0.005812353,-0.029240147,-0.125148046,-0.034880951
-0.001368253,0.039472864,-0.005810064,-0.029242152,-0.125150959,-0.034881193
-0.00136973,0.039472729,-0.005807775,-0.029244156,-0.125153873,-0.034881434
-0.001371208,0.039472594,-0.005805485,-0.02924616,-0.125156786,-0.034881676
-0.001372685,0.039472459,-0.005803196,-0.029248164,-0.125159698,-0.034881917
-0.001374163,0.039472323,-0.005800906,-0.029250169,-0.125162611,-0.034882159
-0.001375641,0.039472187,-0.005798616,-0.029252172,-0.125165524,-0.034882401
-0.001377119,0.039472051,-0.005796325,-0.029254176,-0.125168436,-0.034882643
-0.001378597,0.039471914,-0.005794035,-0.02925618,-0.125171348,-0.034882885
-0.001380075,0.039471778,-0.005791744,-0.029258183,-0.12517426,-0.034883127
-0.001381553,0.039471641,-0.005789453,-0.029260187,-0.125177172,-0.03488337
-0.001383031,0.039471503,-0.005787162,-0.02926219,-0.125180083,-0.034883612
-0.001384509,0.039471366,-0.00578487,-0.029264193,-0.125182995,-0.034883855
-0.001385987,0.039471228,-0.005782579,-0.029266196,-0.125185906,-0.034884097
-0.001387466,0.03947109,-0.005780287,-0.029268199,-0.125188817,-0.03488434
-0.001388944,0.039470952,-0.005777995,-0.029270202,-0.125191728,-0.034884583
-0.001390423,0.039470813,-0.005775703,-0.029272205,-0.125194639,-0.034884826
-0.001391901,0.039470674,-0.005773411,-0.029274207,-0.125197549,-0.034885069
-0.00139338,0.039470535,-0.005771118,-0.02927621,-0.12520046,-0.034885313
-0.001394859,0.039470396,-0.005768825,-0.029278212,-0.12520337,-0.034885556
-0.001396338,0.039470256,-0.005766532,-0.029280214,-0.12520628,-0.0348858
-0.001397817,0.039470116,-0.005764239,-0.029282216,-0.12520919,-0.034886043
-0.001399296,0.039469976,-0.005761945,-0.029284218,-0.125212099,-0.034886287
-0.001400775,0.039469836,-0.005759652,-0.02928622,-0.125215009,-0.034886531
-0.001402254,0.039469695,-0.005757358,-0.029288221,-0.125217918,-0.034886775
-0.001403733,0.039469554,-0.005755064,-0.029290223,-0.125220827,-0.034887019
-0.001405213,0.039469413,-0.00575277,-0.029292224,-0.125223736,-0.034887263
-0.001406692,0.039469271,-0.005750475,-0.029294226,-0.125226645,-0.034887508
-0.001408172,0.03946913,-0.005748181,-0.029296227,-0.125229553,-0.034887752
-0.001409651,0.039468988,-0.005745886,-0.029298228,-0.125232461,-0.034887997
-0.001411131,0.039468846,-0.005743591,-0.029300229,-0.12523537,-0.034888242
-0.001412611,0.039468703,-0.005741296,-0.029302229,-0.125238278,-0.034888487
-0.00141409,0.03946856,-0.005739,-0.02930423,-0.125241186,-0.034888732
-0.00141557,0.039468417,-0.005736704,-0.02930623,-0.125244093,-0.034888977
-0.00141705,0.039468274,-0.005734409,-0.029308231,-0.125247001,-0.034889222
-0.00141853,0.039468131,-0.005732112,-0.029310231,-0.125249908,-0.034889467
-0.00142001,0.039467987,-0.005729816,-0.029312231,-0.125252815,-0.034889713
-0.001421491,0.039467843,-0.00572752,-0.029314231,-0.125255722,-0.034889958
-0.001422971,0.039467699,-0.005725223,-0.029316231,-0.125258628,-0.034890204
-0.001424451,0.039467554,-0.005722926,-0.029318231,-0.125261535,-0.03489045
-0.001425932,0.039467409,-0.005720629,-0.02932023,-0.125264441,-0.034890696
-0.001427412,0.039467264,-0.005718332,-0.02932223,-0.125267348,-0.034890942
-0.001428893,0.039467119,-0.005716034,-0.029324229,-0.125270254,-0.034891188
-0.001430373,0.039466973,-0.005713737,-0.029326228,-0.125273159,-0.034891434
-0.001431854,0.039466827,-0.005711439,-0.029328227,-0.125276065,-0.034891681
-0.001433335,0.039466681,-0.00570914,-0.029330226,-0.12527897,-0.034891927
-0.001434816,0.039466535,-0.005706842,-0.029332225,-0.125281876,-0.034892174
-0.001436297,0.039466388,-0.005704544,-0.029334224,-0.125284781,-0.03489242
-0.001437778,0.039466241,-0.005702245,-0.029336222,-0.125287686,-0.034892667
-0.001439259,0.039466094,-0.005699946,-0.029338221,-0.125290591,-0.034892914
-0.00144074,0.039465947,-0.005697647,-0.029340219,-0.125293495,-0.034893161
-0.001442221,0.039465799,-0.005695347,-0.029342217,-0.125296399,-0.034893409
-0.001443703,0.039465651,-0.005693048,-0.029344215,-0.125299304,-0.034893656
-0.001445184,0.039465503,-0.005690748,-0.029346213,-0.125302208,-0.034893904
-0.001446666,0.039465355,-0.005688448,-0.029348211,-0.125305111,-0.034894151
-0.001448147,0.039465206,-0.005686148,-0.029350209,-0.125308015,-0.034894399
-0.001449629,0.039465057,-0.005683848,-0.029352206,-0.125310918,-0.034894647
-0.001451111,0.039464908,-0.005681547,-0.029354204,-0.125313822,-0.034894895
-0.001452593,0.039464758,-0.005679246,-0.029356201,-0.125316725,-0.034895143
-0.001454074,0.039464609,-0.005676945,-0.029358198,-0.125319628,-0.034895391
-0.001455556,0.039464458,-0.005674644,-0.029360195,-0.12532253,-0.034895639
-0.001457039,0.039464308,-0.005672343,-0.029362192,-0.125325433,-0.034895888
-0.001458521,0.039464158,-0.005670041,-0.029364189,-0.125328335,-0.034896136
-0.001460003,0.039464007,-0.005667739,-0.029366186,-0.125331237,-0.034896385
-0.001461485,0.039463856,-0.005665437,-0.029368182,-0.12533414,-0.034896633
-0.001462968,0.039463705,-0.005663135,-0.029370179,-0.125337041,-0.034896882
-0.00146445,0.039463553,-0.005660833,-0.029372175,-0.125339943,-0.034897131
-0.001465933,0.039463401,-0.00565853,-0.029374171,-0.125342844,-0.03489738
-0.001467415,0.039463249,-0.005656227,-0.029376167,-0.125345746,-0.03489763
-0.001468898,0.039463097,-0.005653924,-0.029378163,-0.125348647,-0.034897879
-0.001470381,0.039462944,-0.005651621,-0.029380159,-0.125351548,-0.034898129
-0.001471863,0.039462791,-0.005649318,-0.029382154,-0.125354448,-0.034898378
-0.001473346,0.039462638,-0.005647014,-0.02938415,-0.125357349,-0.034898628
-0.001474829,0.039462485,-0.00564471,-0.029386145,-0.125360249,-0.034898878
-0.001476312,0.039462331,-0.005642406,-0.029388141,-0.125363149,-0.034899128
-0.001477795,0.039462177,-0.005640102,-0.029390136,-0.125366049,-0.034899378
-0.001479279,0.039462023,-0.005637798,-0.029392131,-0.125368949,-0.034899628
-0.001480762,0.039461869,-0.005635493,-0.029394126,-0.125371849,-0.034899878
-0.001482245,0.039461714,-0.005633188,-0.02939612,-0.125374748,-0.034900129
-0.001483729,0.039461559,-0.005630883,-0.029398115,-0.125377647,-0.034900379
-0.001485212,0.039461404,-0.005628578,-0.029400109,-0.125380546,-0.03490063
-0.001486696,0.039461248,-0.005626272,-0.029402104,-0.125383445,-0.034900881
-0.00148818,0.039461093,-0.005623967,-0.029404098,-0.125386344,-0.034901131
-0.001489663,0.039460937,-0.005621661,-0.029406092,-0.125389242,-0.034901382
-0.001491147,0.03946078,-0.005619355,-0.029408086,-0.125392141,-0.034901633
-0.001492631,0.039460624,-0.005617048,-0.02941008,-0.125395039,-0.034901885
-0.001494115,0.039460467,-0.005614742,-0.029412074,-0.125397937,-0.034902136
-0.001495599,0.03946031,-0.005612435,-0.029414067,-0.125400835,-0.034902388
-0.001497083,0.039460153,-0.005610128,-0.029416061,-0.125403732,-0.034902639
-0.001498568,0.039459995,-0.005607821,-0.029418054,-0.125406629,-0.034902891
-0.001500052,0.039459837,-0.005605514,-0.029420047,-0.125409527,-0.034903143
-0.001501536,0.039459679,-0.005603206,-0.029422041,-0.125412424,-0.034903395
-0.001503021,0.039459521,-0.005600899,-0.029424034,-0.125415321,-0.034903647
-0.001504505,0.039459362,-0.005598591,-0.029426026,-0.125418217,-0.034903899
-0.00150599,0.039459203,-0.005596283,-0.029428019,-0.125421114,-0.034904151
-0.001507475,0.039459044,-0.005593974,-0.029430012,-0.12542401,-0.034904404
-0.001508959,0.039458885,-0.005591666,-0.029432004,-0.125426906,-0.034904656
-0.001510444,0.039458725,-0.005589357,-0.029433997,-0.125429802,-0.034904909
-0.001511929,0.039458565,-0.005587048,-0.029435989,-0.125432698,-0.034905161
-0.001513414,0.039458405,-0.005584739,-0.029437981,-0.125435593,-0.034905414
-0.001514899,0.039458245,-0.00558243,-0.029439973,-0.125438489,-0.034905667
-0.001516384,0.039458084,-0.00558012,-0.029441965,-0.125441384,-0.03490592
-0.00151787,0.039457923,-0.00557781,-0.029443956,-0.125444279,-0.034906174
-0.001519355,0.039457762,-0.005575501,-0.029445948,-0.125447174,-0.034906427
-0.00152084,0.0394576,-0.00557319,-0.029447939,-0.125450068,-0.03490668
-0.001522326,0.039457439,-0.00557088,-0.029449931,-0.125452963,-0.034906934
-0.001523811,0.039457277,-0.005568569,-0.029451922,-0.125455857,-0.034907188
-0.001525297,0.039457115,-0.005566259,-0.029453913,-0.125458751,-0.034907441
-0.001526783,0.039456952,-0.005563948,-0.029455904,-0.125461645,-0.034907695
-0.001528268,0.039456789,-0.005561637,-0.029457895,-0.125464539,-0.034907949
-0.001529754,0.039456626,-0.005559325,-0.029459885,-0.125467432,-0.034908204
-0.00153124,0.039456463,-0.005557014,-0.029461876,-0.125470325,-0.034908458
-0.001532726,0.039456299,-0.005554702,-0.029463866,-0.125473218,-0.034908712
-0.001534212,0.039456136,-0.00555239,-0.029465857,-0.125476112,-0.034908967
-0.001535698,0.039455971,-0.005550078,-0.029467847,-0.125479004,-0.034909221
-0.001537185,0.039455807,-0.005547765,-0.029469837,-0.125481897,-0.034909476
-0.001538671,0.039455642,-0.005545453,-0.029471827,-0.125484789,-0.034909731
-0.001540157,0.039455478,-0.00554314,-0.029473817,-0.125487681,-0.034909986
-0.001541644,0.039455312,-0.005540827,-0.029475806,-0.125490573,-0.034910241
-0.00154313,0.039455147,-0.005538514,-0.029477796,-0.125493465,-0.034910496
-0.001544617,0.039454981,-0.0055362,-0.029479785,-0.125496357,-0.034910751
-0.001546104,0.039454815,-0.005533887,-0.029481774,-0.125499248,-0.034911007
-0.00154759,0.039454649,-0.005531573,-0.029483764,-0.12550214,-0.034911262
-0.001549077,0.039454483,-0.005529259,-0.029485753,-0.12550503,-0.034911518
-0.001550564,0.039454316,-0.005526945,-0.029487742,-0.125507922,-0.034911774
-0.001552051,0.039454149,-0.00552463,-0.02948973,-0.125510812,-0.03491203
-0.001553538,0.039453982,-0.005522316,-0.029491719,-0.125513703,-0.034912286
-0.001555025,0.039453814,-0.005520001,-0.029493708,-0.125516593,-0.034912542
-0.001556513,0.039453647,-0.005517686,-0.029495696,-0.125519483,-0.034912798
-0.001558,0.039453479,-0.00551537,-0.029497684,-0.125522373,-0.034913055
-0.001559487,0.03945331,-0.005513055,-0.029499672,-0.125525263,-0.034913311
-0.001560975,0.039453142,-0.005510739,-0.02950166,-0.125528153,-0.034913568
-0.001562462,0.039452973,-0.005508424,-0.029503648,-0.125531042,-0.034913824
-0.00156395,0.039452804,-0.005506108,-0.029505636,-0.125533931,-0.034914081
-0.001565438,0.039452635,-0.005503791,-0.029507624,-0.12553682,-0.034914338
-0.001566926,0.039452465,-0.005501475,-0.029509611,-0.125539709,-0.034914595
-0.001568413,0.039452295,-0.005499158,-0.029511599,-0.125542598,-0.034914852
-0.001569901,0.039452125,-0.005496841,-0.029513586,-0.125545486,-0.034915109
-0.001571389,0.039451955,-0.005494524,-0.029515573,-0.125548374,-0.034915367
-0.001572877,0.039451784,-0.005492207,-0.02951756,-0.125551263,-0.034915624
-0.001574366,0.039451613,-0.00548989,-0.029519547,-0.12555415,-0.034915882
-0.001575854,0.039451442,-0.005487572,-0.029521534,-0.125557038,-0.03491614
-0.001577342,0.039451271,-0.005485254,-0.02952352,-0.125559926,-0.034916398
-0.00157883,0.039451099,-0.005482936,-0.029525507,-0.125562813,-0.034916656
-0.001580319,0.039450927,-0.005480618,-0.029527493,-0.1255657,-0.034916914
-0.001581807,0.039450755,-0.005478299,-0.029529479,-0.125568587,-0.034917172
-0.001583296,0.039450583,-0.00547598,-0.029531465,-0.125571474,-0.03491743
-0.001584785,0.03945041,-0.005473662,-0.029533451,-0.125574361,-0.034917689
-0.001586274,0.039450237,-0.005471342,-0.029535437,-0.125577247,-0.034917947
-0.001587762,0.039450064,-0.005469023,-0.029537423,-0.125580133,-0.034918206
-0.001589251,0.03944989,-0.005466704,-0.029539409,-0.125583019,-0.034918465
-0.00159074,0.039449716,-0.005464384,-0.029541394,-0.125585905,-0.034918724
-0.001592229,0.039449542,-0.005462064,-0.029543379,-0.125588791,-0.034918983
-0.001593719,0.039449368,-0.005459744,-0.029545365,-0.125591676,-0.034919242
-0.001595208,0.039449193,-0.005457424,-0.02954735,-0.125594561,-0.034919501
-0.001596697,0.039449018,-0.005455103,-0.029549335,-0.125597446,-0.03491976
-0.001598187,0.039448844,-0.005452782,-0.02955132,-0.125600331,-0.03492002
-0.001599676,0.039448668,-0.005450461,-0.029553304,-0.125603216,-0.034920279
-0.001601166,0.039448493,-0.00544814,-0.029555289,-0.125606101,-0.034920539
-0.001602655,0.039448317,-0.005445819,-0.029557273,-0.125608985,-0.034920799
-0.001604145,0.039448141,-0.005443497,-0.029559258,-0.125611869,-0.034921059
-0.001605635,0.039447964,-0.005441176,-0.029561242,-0.125614753,-0.034921319
-0.001607124,0.039447787,-0.005438854,-0.029563226,-0.125617637,-0.034921579
-0.001608614,0.039447611,-0.005436532,-0.02956521,-0.12562052,-0.034921839
-0.001610104,0.039447433,-0.005434209,-0.029567194,-0.125623403,-0.0349221
-0.001611594,0.039447256,-0.005431887,-0.029569178,-0.125626287,-0.03492236
-0.001613085,0.039447078,-0.005429564,-0.029571161,-0.12562917,-0.034922621
-0.001614575,0.0394469,-0.005427241,-0.029573145,-0.125632052,-0.034922882
-0.001616065,0.039446722,-0.005424918,-0.029575128,-0.125634935,-0.034923143
-0.001617556,0.039446543,-0.005422595,-0.029577111,-0.125637817,-0.034923403
-0.001619046,0.039446365,-0.005420271,-0.029579094,-0.1256407,-0.034923665
-0.001620536,0.039446186,-0.005417947,-0.029581077,-0.125643582,-0.034923926
-0.001622027,0.039446006,-0.005415623,-0.02958306,-0.125646464,-0.034924187
-0.001623518,0.039445827,-0.005413299,-0.029585043,-0.125649345,-0.034924448
-0.001625009,0.039445647,-0.005410975,-0.029587025,-0.125652227,-0.03492471
-0.001626499,0.039445467,-0.00540865,-0.029589008,-0.125655108,-0.034924972
-0.00162799,0.039445287,-0.005406325,-0.02959099,-0.125657989,-0.034925233
-0.001629481,0.039445106,-0.005404,-0.029592972,-0.12566087,-0.034925495
-0.001630972,0.039444925,-0.005401675,-0.029594954,-0.125663751,-0.034925757
-0.001632464,0.039444744,-0.00539935,-0.029596936,-0.125666631,-0.034926019
-0.001633955,0.039444563,-0.005397024,-0.029598918,-0.125669512,-0.034926282
-0.001635446,0.039444381,-0.005394698,-0.0296009,-0.125672392,-0.034926544
-0.001636937,0.039444199,-0.005392372,-0.029602881,-0.125675272,-0.034926806
-0.001638429,0.039444017,-0.005390046,-0.029604863,-0.125678152,-0.034927069
-0.00163992,0.039443835,-0.00538772,-0.029606844,-0.125681031,-0.034927332
-0.001641412,0.039443652,-0.005385393,-0.029608825,-0.12568391,-0.034927594
-0.001642904,0.039443469,-0.005383066,-0.029610806,-0.12568679,-0.034927857
-0.001644395,0.039443286,-0.005380739,-0.029612787,-0.125689669,-0.03492812
-0.001645887,0.039443102,-0.005378412,-0.029614768,-0.125692548,-0.034928384
-0.001647379,0.039442918,-0.005376085,-0.029616749,-0.125695426,-0.034928647
-0.001648871,0.039442734,-0.005373757,-0.029618729,-0.125698305,-0.03492891
-0.001650363,0.03944255,-0.005371429,-0.029620709,-0.125701183,-0.034929174
-0.001651855,0.039442366,-0.005369101,-0.02962269,-0.125704061,-0.034929437
-0.001653348,0.039442181,-0.005366773,-0.02962467,-0.125706939,-0.034929701
-0.00165484,0.039441996,-0.005364445,-0.02962665,-0.125709816,-0.034929965
-0.001656332,0.03944181,-0.005362116,-0.02962863,-0.125712694,-0.034930229
-0.001657825,0.039441625,-0.005359787,-0.02963061,-0.125715571,-0.034930493
-0.001659317,0.039441439,-0.005357458,-0.029632589,-0.125718448,-0.034930757
-0.00166081,0.039441253,-0.005355129,-0.029634569,-0.125721325,-0.034931021
-0.001662303,0.039441066,-0.0053528,-0.029636548,-0.125724202,-0.034931285
-0.001663795,0.03944088,-0.00535047,-0.029638528,-0.125727079,-0.03493155
-0.001665288,0.039440693,-0.00534814,-0.029640507,-0.125729955,-0.034931815
-0.001666781,0.039440506,-0.00534581,-0.029642486,-0.125732831,-0.034932079
-0.001668274,0.039440318,-0.00534348,-0.029644465,-0.125735707,-0.034932344
-0.001669767,0.039440131,-0.005341149,-0.029646443,-0.125738583,-0.034932609
-0.00167126,0.039439943,-0.005338819,-0.029648422,-0.125741458,-0.034932874
-0.001672753,0.039439754,-0.005336488,-0.0296504,-0.125744333,-0.034933139
-0.001674247,0.039439566,-0.005334157,-0.029652379,-0.125747209,-0.034933405
-0.00167574,0.039439377,-0.005331826,-0.029654357,-0.125750084,-0.03493367
-0.001677233,0.039439188,-0.005329494,-0.029656335,-0.125752959,-0.034933936
-0.001678727,0.039438999,-0.005327162,-0.029658313,-0.125755833,-0.034934201
-0.001680221,0.039438809,-0.005324831,-0.029660291,-0.125758708,-0.034934467
-0.001681714,0.039438619,-0.005322499,-0.029662269,-0.125761582,-0.034934733
-0.001683208,0.039438429,-0.005320166,-0.029664247,-0.125764456,-0.034934999
-0.001684702,0.039438239,-0.005317834,-0.029666224,-0.12576733,-0.034935265
-0.001686196,0.039438048,-0.005315501,-0.029668201,-0.125770203,-0.034935531
-0.00168769,0.039437858,-0.005313168,-0.029670179,-0.125773077,-0.034935797
-0.001689184,0.039437666,-0.005310835,-0.029672156,-0.12577595,-0.034936064
-0.001690678,0.039437475,-0.005308502,-0.029674133,-0.125778823,-0.03493633
-0.001692172,0.039437283,-0.005306168,-0.02967611,-0.125781696,-0.034936597
-0.001693666,0.039437091,-0.005303835,-0.029678086,-0.125784569,-0.034936864
-0.001695161,0.039436899,-0.005301501,-0.029680063,-0.125787441,-0.034937131
-0.001696655,0.039436707,-0.005299167,-0.02968204,-0.125790313,-0.034937398
-0.00169815,0.039436514,-0.005296833,-0.029684016,-0.125793186,-0.034937665
-0.001699644,0.039436321,-0.005294498,-0.029685992,-0.125796057,-0.034937932
-0.001701139,0.039436128,-0.005292163,-0.029687968,-0.125798929,-0.034938199
-0.001702634,0.039435934,-0.005289828,-0.029689944,-0.125801801,-0.034938467
-0.001704128,0.039435741,-0.005287493,-0.02969192,-0.125804672,-0.034938734
-0.001705623,0.039435547,-0.005285158,-0.029693896,-0.125807543,-0.034939002
-0.001707118,0.039435352,-0.005282823,-0.029695871,-0.125810414,-0.03493927
-0.001708613,0.039435158,-0.005280487,-0.029697847,-0.125813285,-0.034939538
-0.001710108,0.039434963,-0.005278151,-0.029699822,-0.125816155,-0.034939806
-0.001711604,0.039434768,-0.005275815,-0.029701798,-0.125819026,-0.034940074
-0.001713099,0.039434572,-0.005273479,-0.029703773,-0.125821896,-0.034940342
-0.001714594,0.039434377,-0.005271142,-0.029705748,-0.125824766,-0.03494061
-0.00171609,0.039434181,-0.005268805,-0.029707722,-0.125827636,-0.034940879
-0.001717585,0.039433985,-0.005266468,-0.029709697,-0.125830505,-0.034941147
-0.001719081,0.039433788,-0.005264131,-0.029711672,-0.125833375,-0.034941416
-0.001720576,0.039433592,-0.005261794,-0.029713646,-0.125836244,-0.034941685
-0.001722072,0.039433395,-0.005259456,-0.029715621,-0.125839113,-0.034941954
-0.001723568,0.039433198,-0.005257119,-0.029717595,-0.125841982,-0.034942223
-0.001725064,0.039433,-0.005254781,-0.029719569,-0.12584485,-0.034942492
-0.00172656,0.039432802,-0.005252443,-0.029721543,-0.125847718,-0.034942761
-0.001728056,0.039432604,-0.005250104,-0.029723517,-0.125850587,-0.034943031
-0.001729552,0.039432406,-0.005247766,-0.02972549,-0.125853455,-0.0349433
-0.001731048,0.039432208,-0.005245427,-0.029727464,-0.125856323,-0.03494357
-0.001732544,0.039432009,-0.005243088,-0.029729437,-0.125859191,-0.034943839
-0.00173404,0.03943181,-0.005240749,-0.029731411,-0.125862058,-0.034944109
-0.001735537,0.03943161,-0.00523841,-0.029733384,-0.125864925,-0.034944379
-0.001737033,0.039431411,-0.00523607,-0.029735357,-0.125867792,-0.034944649
-0.00173853,0.039431211,-0.00523373,-0.02973733,-0.125870659,-0.034944919
-0.001740027,0.039431011,-0.005231391,-0.029739303,-0.125873526,-0.034945189
-0.001741523,0.039430811,-0.00522905,-0.029741276,-0.125876392,-0.03494546
-0.00174302,0.03943061,-0.00522671,-0.029743248,-0.125879259,-0.03494573
-0.001744517,0.039430409,-0.005224369,-0.029745221,-0.125882125,-0.034946001
-0.001746014,0.039430208,-0.005222029,-0.029747193,-0.125884991,-0.034946272
-0.001747511,0.039430006,-0.005219688,-0.029749165,-0.125887856,-0.034946542
-0.001749008,0.039429805,-0.005217347,-0.029751137,-0.125890722,-0.034946813
-0.001750505,0.039429603,-0.005215005,-0.029753109,-0.125893587,-0.034947084
-0.001752002,0.0394294,-0.005212664,-0.029755081,-0.125896452,-0.034947355
-0.0017535,0.039429198,-0.005210322,-0.029757053,-0.125899317,-0.034947627
-0.001754997,0.039428995,-0.00520798,-0.029759024,-0.125902182,-0.034947898
-0.001756494,0.039428792,-0.005205638,-0.029760996,-0.125905046,-0.03494817
-0.001757992,0.039428589,-0.005203296,-0.029762967,-0.125907911,-0.034948441
-0.00175949,0.039428385,-0.005200953,-0.029764938,-0.125910775,-0.034948713
-0.001760987,0.039428182,-0.00519861,-0.029766909,-0.125913639,-0.034948985
-0.001762485,0.039427978,-0.005196267,-0.02976888,-0.125916503,-0.034949257
-0.001763983,0.039427773,-0.005193924,-0.029770851,-0.125919366,-0.034949529
-0.001765481,0.039427569,-0.005191581,-0.029772822,-0.125922229,-0.034949801
-0.001766979,0.039427364,-0.005189237,-0.029774792,-0.125925093,-0.034950073
-0.001768477,0.039427159,-0.005186893,-0.029776763,-0.125927955,-0.034950345
-0.001769975,0.039426953,-0.005184549,-0.029778733,-0.125930818,-0.034950618
-0.001771473,0.039426747,-0.005182205,-0.029780703,-0.125933681,-0.034950891
-0.001772971,0.039426542,-0.005179861,-0.029782673,-0.125936543,-0.034951163
-0.00177447,0.039426335,-0.005177516,-0.029784643,-0.125939405,-0.034951436
-0.001775968,0.039426129,-0.005175171,-0.029786613,-0.125942267,-0.034951709
-0.001777467,0.039425922,-0.005172826,-0.029788582,-0.125945129,-0.034951982
-0.001778965,0.039425715,-0.005170481,-0.029790552,-0.125947991,-0.034952255
-0.001780464,0.039425508,-0.005168136,-0.029792521,-0.125950852,-0.034952528
-0.001781963,0.0394253,-0.00516579,-0.029794491,-0.125953713,-0.034952802
-0.001783462,0.039425093,-0.005163445,-0.02979646,-0.125956574,-0.034953075
-0.001784961,0.039424884,-0.005161099,-0.029798429,-0.125959435,-0.034953349
-0.00178646,0.039424676,-0.005158752,-0.029800398,-0.125962296,-0.034953623
-0.001787959,0.039424468,-0.005156406,-0.029802367,-0.125965156,-0.034953896
-0.001789458,0.039424259,-0.005154059,-0.029804335,-0.125968016,-0.03495417
-0.001790957,0.03942405,-0.005151713,-0.029806304,-0.125970876,-0.034954444
-0.001792456,0.03942384,-0.005149366,-0.029808272,-0.125973736,-0.034954719
-0.001793956,0.039423631,-0.005147018,-0.029810241,-0.125976596,-0.034954993
-0.001795455,0.039423421,-0.005144671,-0.029812209,-0.125979455,-0.034955267
-0.001796954,0.039423211,-0.005142323,-0.029814177,-0.125982314,-0.034955542
-0.001798454,0.039423,-0.005139976,-0.029816145,-0.125985173,-0.034955816
-0.001799954,0.039422789,-0.005137628,-0.029818112,-0.125988032,-0.034956091
-0.001801453,0.039422578,-0.005135279,-0.02982008,-0.125990891,-0.034956366
-0.001802953,0.039422367,-0.005132931,-0.029822048,-0.125993749,-0.034956641
-0.001804453,0.039422156,-0.005130582,-0.029824015,-0.125996608,-0.034956916
-0.001805953,0.039421944,-0.005128234,-0.029825982,-0.125999466,-0.034957191
-0.001807453,0.039421732,-0.005125885,-0.029827949,-0.126002324,-0.034957466
-0.001808953,0.03942152,-0.005123535,-0.029829916,-0.126005181,-0.034957742
-0.001810453,0.039421307,-0.005121186,-0.029831883,-0.126008039,-0.034958017
-0.001811954,0.039421094,-0.005118836,-0.02983385,-0.126010896,-0.034958293
-0.001813454,0.039420881,-0.005116487,-0.029835817,-0.126013753,-0.034958568
-0.001814954,0.039420668,-0.005114137,-0.029837783,-0.12601661,-0.034958844
-0.001816455,0.039420454,-0.005111786,-0.02983975,-0.126019466,-0.03495912
-0.001817955,0.03942024,-0.005109436,-0.029841716,-0.126022323,-0.034959396
-0.001819456,0.039420026,-0.005107085,-0.029843682,-0.126025179,-0.034959672
-0.001820957,0.039419812,-0.005104735,-0.029845648,-0.126028035,-0.034959949
-0.001822457,0.039419597,-0.005102384,-0.029847614,-0.126030891,-0.034960225
-0.001823958,0.039419382,-0.005100032,-0.02984958,-0.126033747,-0.034960501
-0.001825459,0.039419167,-0.005097681,-0.029851545,-0.126036602,-0.034960778
-0.00182696,0.039418951,-0.005095329,-0.029853511,-0.126039457,-0.034961055
-0.001828461,0.039418736,-0.005092978,-0.029855476,-0.126042313,-0.034961331
-0.001829962,0.039418519,-0.005090625,-0.029857442,-0.126045167,-0.034961608
-0.001831464,0.039418303,-0.005088273,-0.029859407,-0.126048022,-0.034961885
-0.001832965,0.039418087,-0.005085921,-0.029861372,-0.126050877,-0.034962163
-0.001834466,0.03941787,-0.005083568,-0.029863337,-0.126053731,-0.03496244
-0.001835968,0.039417653,-0.005081215,-0.029865301,-0.126056585,-0.034962717
-0.001837469,0.039417435,-0.005078862,-0.029867266,-0.126059439,-0.034962995
-0.001838971,0.039417218,-0.005076509,-0.02986923,-0.126062293,-0.034963272
-0.001840473,0.039417,-0.005074156,-0.029871195,-0.126065146,-0.03496355
-0.001841974,0.039416782,-0.005071802,-0.029873159,-0.126067999,-0.034963828
-0.001843476,0.039416563,-0.005069448,-0.029875123,-0.126070853,-0.034964106
-0.001844978,0.039416345,-0.005067094,-0.029877087,-0.126073705,-0.034964384
-0.00184648,0.039416126,-0.00506474,-0.029879051,-0.126076558,-0.034964662
-0.001847982,0.039415907,-0.005062386,-0.029881015,-0.126079411,-0.03496494
-0.001849484,0.039415687,-0.005060031,-0.029882978,-0.126082263,-0.034965218
-0.001850987,0.039415467,-0.005057676,-0.029884942,-0.126085115,-0.034965497
-0.001852489,0.039415247,-0.005055321,-0.029886905,-0.126087967,-0.034965775
-0.001853991,0.039415027,-0.005052966,-0.029888868,-0.126090818,-0.034966054
-0.001855494,0.039414807,-0.00505061,-0.029890832,-0.12609367,-0.034966333
-0.001856996,0.039414586,-0.005048255,-0.029892795,-0.126096521,-0.034966612
-0.001858499,0.039414365,-0.005045899,-0.029894757,-0.126099372,-0.034966891
-0.001860001,0.039414143,-0.005043543,-0.02989672,-0.126102223,-0.03496717
-0.001861504,0.039413922,-0.005041187,-0.029898683,-0.126105074,-0.034967449
-0.001863007,0.0394137,-0.00503883,-0.029900645,-0.126107925,-0.034967728
-0.00186451,0.039413478,-0.005036474,-0.029902608,-0.126110775,-0.034968008
-0.001866013,0.039413255,-0.005034117,-0.02990457,-0.126113625,-0.034968287
-0.001867516,0.039413032,-0.00503176,-0.029906532,-0.126116475,-0.034968567
-0.001869019,0.03941281,-0.005029403,-0.029908494,-0.126119325,-0.034968847
-0.001870522,0.039412586,-0.005027045,-0.029910456,-0.126122174,-0.034969127
-0.001872025,0.039412363,-0.005024687,-0.029912418,-0.126125023,-0.034969407
-0.001873529,0.039412139,-0.00502233,-0.029914379,-0.126127872,-0.034969687
-0.001875032,0.039411915,-0.005019972,-0.029916341,-0.126130721,-0.034969967
-0.001876536,0.039411691,-0.005017613,-0.029918302,-0.12613357,-0.034970247
-0.001878039,0.039411466,-0.005015255,-0.029920263,-0.126136419,-0.034970528
-0.001879543,0.039411242,-0.005012896,-0.029922224,-0.126139267,-0.034970808
-0.001881046,0.039411017,-0.005010537,-0.029924185,-0.126142115,-0.034971089
-0.00188255,0.039410791,-0.005008178,-0.029926146,-0.126144963,-0.03497137
-0.001884054,0.039410566,-0.005005819,-0.029928107,-0.12614781,-0.034971651
-0.001885558,0.03941034,-0.00500346,-0.029930067,-0.126150658,-0.034971931
-0.001887062,0.039410114,-0.0050011,-0.029932028,-0.126153505,-0.034972213
-0.001888566,0.039409887,-0.00499874,-0.029933988,-0.126156352,-0.034972494
-0.00189007,0.03940966,-0.00499638,-0.029935949,-0.126159199,-0.034972775
-0.001891574,0.039409434,-0.00499402,-0.029937909,-0.126162046,-0.034973056
-0.001893079,0.039409206,-0.004991659,-0.029939869,-0.126164892,-0.034973338
-0.001894583,0.039408979,-0.004989299,-0.029941828,-0.126167739,-0.03497362
-0.001896088,0.039408751,-0.004986938,-0.029943788,-0.126170585,-0.034973901
-0.001897592,0.039408523,-0.004984577,-0.029945748,-0.126173431,-0.034974183
-0.001899097,0.039408295,-0.004982216,-0.029947707,-0.126176277,-0.034974465
-0.001900601,0.039408066,-0.004979854,-0.029949667,-0.126179122,-0.034974747
-0.001902106,0.039407837,-0.004977493,-0.029951626,-0.126181967,-0.034975029
-0.001903611,0.039407608,-0.004975131,-0.029953585,-0.126184812,-0.034975312
-0.001905116,0.039407379,-0.004972769,-0.029955544,-0.126187657,-0.034975594
-0.001906621,0.039407149,-0.004970406,-0.029957503,-0.126190502,-0.034975877
-0.001908126,0.03940692,-0.004968044,-0.029959461,-0.126193346,-0.034976159
-0.001909631,0.039406689,-0.004965681,-0.02996142,-0.12619619,-0.034976442
-0.001911136,0.039406459,-0.004963319,-0.029963378,-0.126199035,-0.034976725
-0.001912641,0.039406228,-0.004960955,-0.029965337,-0.126201878,-0.034977008
-0.001914147,0.039405997,-0.004958592,-0.029967295,-0.126204722,-0.034977291
-0.001915652,0.039405766,-0.004956229,-0.029969253,-0.126207566,-0.034977574
-0.001917158,0.039405535,-0.004953865,-0.029971211,-0.126210409,-0.034977857
-0.001918663,0.039405303,-0.004951501,-0.029973169,-0.126213252,-0.03497814
-0.001920169,0.039405071,-0.004949137,-0.029975127,-0.126216095,-0.034978424
-0.001921675,0.039404839,-0.004946773,-0.029977084,-0.126218937,-0.034978707
-0.00192318,0.039404606,-0.004944409,-0.029979042,-0.12622178,-0.034978991
-0.001924686,0.039404373,-0.004942044,-0.029980999,-0.126224622,-0.034979275
-0.001926192,0.03940414,-0.004939679,-0.029982956,-0.126227464,-0.034979559
-0.001927698,0.039403907,-0.004937314,-0.029984913,-0.126230306,-0.034979843
-0.001929204,0.039403673,-0.004934949,-0.02998687,-0.126233148,-0.034980127
-0.001930711,0.039403439,-0.004932583,-0.029988827,-0.126235989,-0.034980411
-0.001932217,0.039403205,-0.004930218,-0.029990784,-0.12623883,-0.034980696
-0.001933723,0.039402971,-0.004927852,-0.02999274,-0.126241671,-0.03498098
-0.00193523,0.039402736,-0.004925486,-0.029994697,-0.126244512,-0.034981265
-0.001936736,0.039402501,-0.00492312,-0.029996653,-0.126247353,-0.034981549
-0.001938243,0.039402266,-0.004920753,-0.029998609,-0.126250193,-0.034981834
-0.001939749,0.039402031,-0.004918386,-0.030000565,-0.126253033,-0.034982119
-0.001941256,0.039401795,-0.00491602,-0.030002521,-0.126255874,-0.034982404
-0.001942763,0.039401559,-0.004913653,-0.030004477,-0.126258713,-0.034982689
-0.001944269,0.039401322,-0.004911285,-0.030006433,-0.126261553,-0.034982974
-0.001945776,0.039401086,-0.004908918,-0.030008388,-0.126264392,-0.034983259
-0.001947283,0.039400849,-0.00490655,-0.030010344,-0.126267232,-0.034983545
-0.00194879,0.039400612,-0.004904182,-0.030012299,-0.12627007,-0.03498383
-0.001950298,0.039400375,-0.004901814,-0.030014254,-0.126272909,-0.034984116
-0.001951805,0.039400137,-0.004899446,-0.030016209,-0.126275748,-0.034984402
-0.001953312,0.039399899,-0.004897078,-0.030018164,-0.126278586,-0.034984688
-0.001954819,0.039399661,-0.004894709,-0.030020119,-0.126281424,-0.034984974
-0.001956327,0.039399422,-0.00489234,-0.030022074,-0.126284262,-0.03498526
-0.001957834,0.039399184,-0.004889971,-0.030024028,-0.1262871,-0.034985546
-0.001959342,0.039398945,-0.004887602,-0.030025983,-0.126289938,-0.034985832
-0.00196085,0.039398706,-0.004885232,-0.030027937,-0.126292775,-0.034986119
-0.001962357,0.039398466,-0.004882863,-0.030029891,-0.126295612,-0.034986405
-0.001963865,0.039398226,-0.004880493,-0.030031845,-0.126298449,-0.034986692
-0.001965373,0.039397986,-0.004878123,-0.030033799,-0.126301286,-0.034986978
-0.001966881,0.039397746,-0.004875753,-0.030035753,-0.126304122,-0.034987265
-0.001968389,0.039397505,-0.004873382,-0.030037707,-0.126306959,-0.034987552
-0.001969897,0.039397265,-0.004871012,-0.03003966,-0.126309795,-0.034987839
-0.001971405,0.039397023,-0.004868641,-0.030041614,-0.126312631,-0.034988126
-0.001972914,0.039396782,-0.00486627,-0.030043567,-0.126315467,-0.034988413
-0.001974422,0.03939654,-0.004863898,-0.03004552,-0.126318302,-0.034988701
-0.00197593,0.039396299,-0.004861527,-0.030047473,-0.126321138,-0.034988988
-0.001977439,0.039396056,-0.004859155,-0.030049426,-0.126323973,-0.034989276
-0.001978947,0.039395814,-0.004856783,-0.030051379,-0.126326808,-0.034989563
-0.001980456,0.039395571,-0.004854411,-0.030053332,-0.126329642,-0.034989851
-0.001981965,0.039395328,-0.004852039,-0.030055284,-0.126332477,-0.034990139
-0.001983473,0.039395085,-0.004849667,-0.030057237,-0.126335311,-0.034990427
-0.001984982,0.039394841,-0.004847294,-0.030059189,-0.126338145,-0.034990715
-0.001986491,0.039394598,-0.004844921,-0.030061141,-0.126340979,-0.034991003
-0.001988,0.039394354,-0.004842548,-0.030063093,-0.126343813,-0.034991292
-0.001989509,0.039394109,-0.004840175,-0.030065045,-0.126346646,-0.03499158
-0.001991018,0.039393865,-0.004837802,-0.030066997,-0.12634948,-0.034991869
-0.001992527,0.03939362,-0.004835428,-0.030068948,-0.126352313,-0.034992157
-0.001994037,0.039393375,-0.004833054,-0.0300709,-0.126355146,-0.034992446
-0.001995546,0.039393129,-0.00483068,-0.030072851,-0.126357978,-0.034992735
-0.001997056,0.039392884,-0.004828306,-0.030074803,-0.126360811,-0.034993024
-0.001998565,0.039392638,-0.004825931,-0.030076754,-0.126363643,-0.034993313
-0.002000075,0.039392391,-0.004823557,-0.030078705,-0.126366475,-0.034993602
-0.002001584,0.039392145,-0.004821182,-0.030080656,-0.126369307,-0.034993891
-0.002003094,0.039391898,-0.004818807,-0.030082607,-0.126372139,-0.034994181
-0.002004604,0.039391651,-0.004816432,-0.030084557,-0.12637497,-0.03499447
-0.002006114,0.039391404,-0.004814056,-0.030086508,-0.126377801,-0.03499476
-0.002007624,0.039391156,-0.004811681,-0.030088458,-0.126380632,-0.03499505
-0.002009134,0.039390909,-0.004809305,-0.030090408,-0.126383463,-0.034995339
-0.002010644,0.039390661,-0.004806929,-0.030092359,-0.126386294,-0.034995629
-0.002012154,0.039390412,-0.004804553,-0.030094309,-0.126389124,-0.034995919
-0.002013664,0.039390164,-0.004802176,-0.030096259,-0.126391954,-0.03499621
-0.002015175,0.039389915,-0.0047998,-0.030098208,-0.126394784,-0.0349965
-0.002016685,0.039389666,-0.004797423,-0.030100158,-0.126397614,-0.03499679
-0.002018195,0.039389416,-0.004795046,-0.030102107,-0.126400443,-0.034997081
-0.002019706,0.039389166,-0.004792668,-0.030104057,-0.126403273,-0.034997371
-0.002021217,0.039388916,-0.004790291,-0.030106006,-0.126406102,-0.034997662
-0.002022727,0.039388666,-0.004787913,-0.030107955,-0.126408931,-0.034997953
-0.002024238,0.039388416,-0.004785536,-0.030109904,-0.12641176,-0.034998243
-0.002025749,0.039388165,-0.004783158,-0.030111853,-0.126414588,-0.034998534
-0.00202726,0.039387914,-0.004780779,-0.030113802,-0.126417417,-0.034998826
-0.002028771,0.039387663,-0.004778401,-0.030115751,-0.126420245,-0.034999117
-0.002030282,0.039387411,-0.004776022,-0.030117699,-0.126423073,-0.034999408
-0.002031793,0.039387159,-0.004773644,-0.030119648,-0.1264259,-0.034999699
-0.002033304,0.039386907,-0.004771265,-0.030121596,-0.126428728,-0.034999991
-0.002034815,0.039386655,-0.004768885,-0.030123544,-0.126431555,-0.035000283
-0.002036327,0.039386402,-0.004766506,-0.030125492,-0.126434382,-0.035000574
-0.002037838,0.039386149,-0.004764126,-0.03012744,-0.126437209,-0.035000866
-0.00203935,0.039385896,-0.004761747,-0.030129388,-0.126440036,-0.035001158
-0.002040861,0.039385643,-0.004759367,-0.030131336,-0.126442863,-0.03500145
-0.002042373,0.039385389,-0.004756986,-0.030133283,-0.126445689,-0.035001742
-0.002043885,0.039385135,-0.004754606,-0.03013523,-0.126448515,-0.035002035
-0.002045397,0.039384881,-0.004752225,-0.030137178,-0.126451341,-0.035002327
-0.002046908,0.039384626,-0.004749845,-0.030139125,-0.126454166,-0.035002619
-0.00204842,0.039384371,-0.004747464,-0.030141072,-0.126456992,-0.035002912
-0.002049932,0.039384116,-0.004745082,-0.030143019,-0.126459817,-0.035003205
-0.002051444,0.039383861,-0.004742701,-0.030144966,-0.126462642,-0.035003497
-0.002052957,0.039383605,-0.004740319,-0.030146912,-0.126465467,-0.03500379
-0.002054469,0.039383349,-0.004737938,-0.030148859,-0.126468291,-0.035004083
-0.002055981,0.039383093,-0.004735556,-0.030150805,-0.126471116,-0.035004376
-0.002057494,0.039382837,-0.004733173,-0.030152751,-0.12647394,-0.03500467
-0.002059006,0.03938258,-0.004730791,-0.030154698,-0.126476764,-0.035004963
-0.002060519,0.039382323,-0.004728408,-0.030156644,-0.126479588,-0.035005256
-0.002062031,0.039382066,-0.004726026,-0.030158589,-0.126482411,-0.03500555
-0.002063544,0.039381808,-0.004723643,-0.030160535,-0.126485235,-0.035005844
-0.002065057,0.039381551,-0.004721259,-0.030162481,-0.126488058,-0.035006137
-0.002066569,0.039381293,-0.004718876,-0.030164426,-0.126490881,-0.035006431
-0.002068082,0.039381034,-0.004716492,-0.030166372,-0.126493703,-0.035006725
-0.002069595,0.039380776,-0.004714109,-0.030168317,-0.126496526,-0.035007019
-0.002071108,0.039380517,-0.004711725,-0.030170262,-0.126499348,-0.035007313
-0.002072621,0.039380258,-0.00470934,-0.030172207,-0.12650217,-0.035007608
-0.002074135,0.039379998,-0.004706956,-0.030174152,-0.126504992,-0.035007902
-0.002075648,0.039379739,-0.004704572,-0.030176097,-0.126507814,-0.035008196
-0.002077161,0.039379479,-0.004702187,-0.030178041,-0.126510635,-0.035008491
-0.002078675,0.039379219,-0.004699802,-0.030179986,-0.126513457,-0.035008786
-0.002080188,0.039378958,-0.004697417,-0.03018193,-0.126516278,-0.03500908
-0.002081702,0.039378697,-0.004695031,-0.030183875,-0.126519099,-0.035009375
-0.002083215,0.039378437,-0.004692646,-0.030185819,-0.126521919,-0.03500967
-0.002084729,0.039378175,-0.00469026,-0.030187763,-0.126524739,-0.035009965
-0.002086243,0.039377914,-0.004687874,-0.030189707,-0.12652756,-0.035010261
-0.002087757,0.039377652,-0.004685488,-0.03019165,-0.12653038,-0.035010556
-0.002089271,0.03937739,-0.004683101,-0.030193594,-0.1265332,-0.035010851
-0.002090785,0.039377127,-0.004680715,-0.030195538,-0.126536019,-0.035011147
-0.002092299,0.039376865,-0.004678328,-0.030197481,-0.126538839,-0.035011443
-0.002093813,0.039376602,-0.004675941,-0.030199424,-0.126541658,-0.035011738
-0.002095327,0.039376339,-0.004673554,-0.030201367,-0.126544477,-0.035012034
-0.002096841,0.039376075,-0.004671167,-0.03020331,-0.126547296,-0.03501233
-0.002098356,0.039375812,-0.004668779,-0.030205253,-0.126550114,-0.035012626
-0.00209987,0.039375548,-0.004666391,-0.030207196,-0.126552933,-0.035012922
-0.002101385,0.039375283,-0.004664003,-0.030209139,-0.126555751,-0.035013219
-0.002102899,0.039375019,-0.004661615,-0.030211081,-0.126558568,-0.035013515
-0.002104414,0.039374754,-0.004659227,-0.030213024,-0.126561386,-0.035013811
-0.002105929,0.039374489,-0.004656838,-0.030214966,-0.126564204,-0.035014108
-0.002107444,0.039374224,-0.00465445,-0.030216908,-0.126567021,-0.035014405
-0.002108958,0.039373958,-0.004652061,-0.03021885,-0.126569838,-0.035014701
-0.002110473,0.039373692,-0.004649671,-0.030220792,-0.126572655,-0.035014998
-0.002111988,0.039373426,-0.004647282,-0.030222734,-0.126575472,-0.035015295
-0.002113503,0.03937316,-0.004644893,-0.030224675,-0.126578288,-0.035015592
-0.002115019,0.039372893,-0.004642503,-0.030226617,-0.126581104,-0.03501589
-0.002116534,0.039372626,-0.004640113,-0.030228558,-0.12658392,-0.035016187
-0.002118049,0.039372359,-0.004637723,-0.030230499,-0.126586736,-0.035016484
-0.002119565,0.039372092,-0.004635332,-0.03023244,-0.126589552,-0.035016782
-0.00212108,0.039371824,-0.004632942,-0.030234381,-0.126592367,-0.035017079
-0.002122596,0.039371556,-0.004630551,-0.030236322,-0.126595182,-0.035017377
-0.002124111,0.039371288,-0.00462816,-0.030238263,-0.126597997,-0.035017675
-0.002125627,0.039371019,-0.004625769,-0.030240204,-0.126600812,-0.035017973
-0.002127143,0.03937075,-0.004623378,-0.030242144,-0.126603626,-0.035018271
-0.002128659,0.039370481,-0.004620986,-0.030244085,-0.126606441,-0.035018569
-0.002130174,0.039370212,-0.004618595,-0.030246025,-0.126609255,-0.035018867
-0.00213169,0.039369942,-0.004616203,-0.030247965,-0.126612069,-0.035019166
-0.002133206,0.039369672,-0.004613811,-0.030249905,-0.126614883,-0.035019464
-0.002134723,0.039369402,-0.004611418,-0.030251845,-0.126617696,-0.035019763
-0.002136239,0.039369132,-0.004609026,-0.030253785,-0.126620509,-0.035020061
-0.002137755,0.039368861,-0.004606633,-0.030255724,-0.126623323,-0.03502036
-0.002139271,0.03936859,-0.00460424,-0.030257664,-0.126626135,-0.035020659
-0.002140788,0.039368319,-0.004601847,-0.030259603,-0.126628948,-0.035020958
-0.002142304,0.039368047,-0.004599454,-0.030261542,-0.126631761,-0.035021257
-0.002143821,0.039367775,-0.00459706,-0.030263481,-0.126634573,-0.035021556
-0.002145338,0.039367503,-0.004594667,-0.03026542,-0.126637384,-0.035021856
-0.002146854,0.039367231,-0.004592273,-0.030267359,-0.126640196,-0.035022155
-0.002148371,0.039366958,-0.004589879,-0.030269298,-0.126643008,-0.035022454
-0.002149888,0.039366686,-0.004587484,-0.030271237,-0.12664582,-0.035022754
-0.002151405,0.039366412,-0.00458509,-0.030273175,-0.126648631,-0.035023054
-0.002152922,0.039366139,-0.004582695,-0.030275114,-0.126651441,-0.035023354
-0.002154439,0.039365865,-0.0045803,-0.030277052,-0.126654252,-0.035023653
-0.002155956,0.039365591,-0.004577905,-0.03027899,-0.126657063,-0.035023953
-0.002157473,0.039365317,-0.00457551,-0.030280928,-0.126659873,-0.035024254
-0.002158991,0.039365043,-0.004573114,-0.030282866,-0.126662683,-0.035024554
-0.002160508,0.039364768,-0.004570719,-0.030284804,-0.126665493,-0.035024854
-0.002162025,0.039364493,-0.004568323,-0.030286741,-0.126668303,-0.035025155
-0.002163543,0.039364217,-0.004565927,-0.030288679,-0.126671112,-0.035025455
-0.00216506,0.039363942,-0.004563531,-0.030290616,-0.126673921,-0.035025756
-0.002166578,0.039363666,-0.004561134,-0.030292553,-0.126676731,-0.035026056
-0.002168096,0.03936339,-0.004558737,-0.03029449,-0.126679539,-0.035026357
-0.002169614,0.039363114,-0.004556341,-0.030296427,-0.126682348,-0.035026658
-0.002171131,0.039362837,-0.004553944,-0.030298364,-0.126685156,-0.035026959
-0.002172649,0.03936256,-0.004551546,-0.030300301,-0.126687965,-0.03502726
-0.002174167,0.039362283,-0.004549149,-0.030302238,-0.126690773,-0.035027562
-0.002175686,0.039362005,-0.004546751,-0.030304174,-0.12669358,-0.035027863
-0.002177204,0.039361727,-0.004544353,-0.03030611,-0.126696388,-0.035028165
-0.002178722,0.039361449,-0.004541955,-0.030308047,-0.126699195,-0.035028466
-0.00218024,0.039361171,-0.004539557,-0.030309983,-0.126702002,-0.035028768
-0.002181759,0.039360893,-0.004537159,-0.030311919,-0.126704809,-0.03502907
-0.002183277,0.039360614,-0.00453476,-0.030313855,-0.126707616,-0.035029371
-0.002184796,0.039360335,-0.004532361,-0.03031579,-0.126710422,-0.035029673
-0.002186314,0.039360055,-0.004529962,-0.030317726,-0.126713229,-0.035029976
-0.002187833,0.039359776,-0.004527563,-0.030319661,-0.126716035,-0.035030278
-0.002189352,0.039359496,-0.004525163,-0.030321597,-0.126718841,-0.03503058
-0.00219087,0.039359216,-0.004522764,-0.030323532,-0.126721646,-0.035030882
-0.002192389,0.039358935,-0.004520364,-0.030325467,-0.126724452,-0.035031185
-0.002193908,0.039358654,-0.004517964,-0.030327402,-0.126727257,-0.035031487
-0.002195427,0.039358373,-0.004515564,-0.030329337,-0.126730062,-0.03503179
-0.002196946,0.039358092,-0.004513163,-0.030331272,-0.126732867,-0.035032093
-0.002198466,0.03935781,-0.004510763,-0.030333206,-0.126735671,-0.035032396
-0.002199985,0.039357529,-0.004508362,-0.030335141,-0.126738476,-0.035032699
-0.002201504,0.039357247,-0.004505961,-0.030337075,-0.12674128,-0.035033002
-0.002203024,0.039356964,-0.00450356,-0.03033901,-0.126744084,-0.035033305
-0.002204543,0.039356682,-0.004501158,-0.030340944,-0.126746887,-0.035033609
-0.002206063,0.039356399,-0.004498757,-0.030342878,-0.126749691,-0.035033912
-0.002207582,0.039356116,-0.004496355,-0.030344811,-0.126752494,-0.035034216
-0.002209102,0.039355832,-0.004493953,-0.030346745,-0.126755297,-0.035034519
-0.002210622,0.039355548,-0.004491551,-0.030348679,-0.1267581,-0.035034823
-0.002212142,0.039355264,-0.004489148,-0.030350612,-0.126760903,-0.035035127
-0.002213661,0.03935498,-0.004486746,-0.030352546,-0.126763705,-0.035035431
-0.002215181,0.039354696,-0.004484343,-0.030354479,-0.126766507,-0.035035735
-0.002216702,0.039354411,-0.00448194,-0.030356412,-0.126769309,-0.035036039
-0.002218222,0.039354126,-0.004479537,-0.030358345,-0.126772111,-0.035036343
-0.002219742,0.039353841,-0.004477134,-0.030360278,-0.126774913,-0.035036647
-0.002221262,0.039353555,-0.00447473,-0.030362211,-0.126777714,-0.035036952
-0.002222782,0.039353269,-0.004472326,-0.030364143,-0.126780515,-0.035037256
-0.002224303,0.039352983,-0.004469922,-0.030366076,-0.126783316,-0.035037561
-0.002225823,0.039352696,-0.004467518,-0.030368008,-0.126786117,-0.035037866
-0.002227344,0.03935241,-0.004465114,-0.03036994,-0.126788917,-0.035038171
-0.002228865,0.039352123,-0.004462709,-0.030371872,-0.126791717,-0.035038476
-0.002230385,0.039351835,-0.004460304,-0.030373804,-0.126794517,-0.035038781
-0.002231906,0.039351548,-0.004457899,-0.030375736,-0.126797317,-0.035039086
-0.002233427,0.03935126,-0.004455494,-0.030377668,-0.126800117,-0.035039391
-0.002234948,0.039350972,-0.004453089,-0.0303796,-0.126802916,-0.035039697
-0.002236469,0.039350684,-0.004450683,-0.030381531,-0.126805716,-0.035040002
-0.00223799,0.039350395,-0.004448278,-0.030383462,-0.126808515,-0.035040308
-0.002239511,0.039350106,-0.004445872,-0.030385394,-0.126811313,-0.035040613
-0.002241032,0.039349817,-0.004443466,-0.030387325,-0.126814112,-0.035040919
-0.002242554,0.039349528,-0.004441059,-0.030389256,-0.12681691,-0.035041225
-0.002244075,0.039349238,-0.004438653,-0.030391187,-0.126819708,-0.035041531
-0.002245596,0.039348948,-0.004436246,-0.030393117,-0.126822506,-0.035041837
-0.002247118,0.039348658,-0.004433839,-0.030395048,-0.126825304,-0.035042143
-0.002248639,0.039348367,-0.004431432,-0.030396978,-0.126828101,-0.035042449
-0.002250161,0.039348077,-0.004429025,-0.030398909,-0.126830898,-0.035042756
-0.002251683,0.039347786,-0.004426617,-0.030400839,-0.126833696,-0.035043062
-0.002253205,0.039347494,-0.00442421,-0.030402769,-0.126836492,-0.035043369
-0.002254726,0.039347203,-0.004421802,-0.030404699,-0.126839289,-0.035043676
-0.002256248,0.039346911,-0.004419394,-0.030406629,-0.126842085,-0.035043982
-0.00225777,0.039346619,-0.004416985,-0.030408559,-0.126844882,-0.035044289
-0.002259292,0.039346326,-0.004414577,-0.030410488,-0.126847678,-0.035044596
-0.002260815,0.039346033,-0.004412168,-0.030412418,-0.126850473,-0.035044903
-0.002262337,0.039345741,-0.004409759,-0.030414347,-0.126853269,-0.035045211
-0.002263859,0.039345447,-0.00440735,-0.030416276,-0.126856064,-0.035045518
-0.002265381,0.039345154,-0.004404941,-0.030418205,-0.126858859,-0.035045825
-0.002266904,0.03934486,-0.004402531,-0.030420134,-0.126861654,-0.035046133
-0.002268426,0.039344566,-0.004400122,-0.030422063,-0.126864449,-0.035046441
-0.002269949,0.039344272,-0.004397712,-0.030423992,-0.126867243,-0.035046748
-0.002271472,0.039343977,-0.004395302,-0.030425921,-0.126870037,-0.035047056
-0.002272994,0.039343682,-0.004392891,-0.030427849,-0.126872831,-0.035047364
-0.002274517,0.039343387,-0.004390481,-0.030429777,-0.126875625,-0.035047672
-0.00227604,0.039343092,-0.00438807,-0.030431706,-0.126878419,-0.03504798
-0.002277563,0.039342796,-0.00438566,-0.030433634,-0.126881212,-0.035048288
-0.002279086,0.0393425,-0.004383248,-0.030435562,-0.126884005,-0.035048597
-0.002280609,0.039342204,-0.004380837,-0.03043749,-0.126886798,-0.035048905
-0.002282132,0.039341907,-0.004378426,-0.030439417,-0.126889591,-0.035049214
-0.002283655,0.039341611,-0.004376014,-0.030441345,-0.126892383,-0.035049522
-0.002285179,0.039341314,-0.004373602,-0.030443272,-0.126895175,-0.035049831
-0.002286702,0.039341016,-0.00437119,-0.0304452,-0.126897967,-0.03505014
-0.002288226,0.039340719,-0.004368778,-0.030447127,-0.126900759,-0.035050449
-0.002289749,0.039340421,-0.004366366,-0.030449054,-0.126903551,-0.035050758
-0.002291273,0.039340123,-0.004363953,-0.030450981,-0.126906342,-0.035051067
-0.002292796,0.039339824,-0.00436154,-0.030452908,-0.126909134,-0.035051376
-0.00229432,0.039339526,-0.004359127,-0.030454835,-0.126911924,-0.035051685
-0.002295844,0.039339227,-0.004356714,-0.030456761,-0.126914715,-0.035051995
-0.002297368,0.039338928,-0.004354301,-0.030458688,-0.126917506,-0.035052304
-0.002298892,0.039338628,-0.004351887,-0.030460614,-0.126920296,-0.035052614
-0.002300416,0.039338328,-0.004349473,-0.03046254,-0.126923086,-0.035052924
-0.00230194,0.039338028,-0.004347059,-0.030464466,-0.126925876,-0.035053234
-0.002303464,0.039337728,-0.004344645,-0.030466392,-0.126928666,-0.035053544
-0.002304988,0.039337427,-0.004342231,-0.030468318,-0.126931455,-0.035053854
-0.002306513,0.039337126,-0.004339816,-0.030470244,-0.126934244,-0.035054164
-0.002308037,0.039336825,-0.004337401,-0.030472169,-0.126937033,-0.035054474
-0.002309561,0.039336524,-0.004334986,-0.030474095,-0.126939822,-0.035054784
-0.002311086,0.039336222,-0.004332571,-0.03047602,-0.126942611,-0.035055095
-0.00231261,0.03933592,-0.004330156,-0.030477946,-0.126945399,-0.035055405
-0.002314135,0.039335618,-0.00432774,-0.030479871,-0.126948187,-0.035055716
-0.00231566,0.039335316,-0.004325324,-0.030481796,-0.126950975,-0.035056027
-0.002317185,0.039335013,-0.004322909,-0.03048372,-0.126953762,-0.035056338
-0.00231871,0.03933471,-0.004320492,-0.030485645,-0.12695655,-0.035056649
-0.002320235,0.039334407,-0.004318076,-0.03048757,-0.126959337,-0.03505696
-0.00232176,0.039334103,-0.004315659,-0.030489494,-0.126962124,-0.035057271
-0.002323285,0.039333799,-0.004313243,-0.030491419,-0.126964911,-0.035057582
-0.00232481,0.039333495,-0.004310826,-0.030493343,-0.126967698,-0.035057893
-0.002326335,0.039333191,-0.004308409,-0.030495267,-0.126970484,-0.035058205
-0.00232786,0.039332886,-0.004305991,-0.030497191,-0.12697327,-0.035058516
-0.002329386,0.039332581,-0.004303574,-0.030499115,-0.126976056,-0.035058828
-0.002330911,0.039332276,-0.004301156,-0.030501038,-0.126978842,-0.03505914
-0.002332437,0.03933197,-0.004298738,-0.030502962,-0.126981627,-0.035059452
-0.002333962,0.039331664,-0.00429632,-0.030504886,-0.126984412,-0.035059764
-0.002335488,0.039331358,-0.004293902,-0.030506809,-0.126987198,-0.035060076
-0.002337014,0.039331052,-0.004291483,-0.030508732,-0.126989982,-0.035060388
-0.00233854,0.039330746,-0.004289065,-0.030510655,-0.126992767,-0.0350607
-0.002340065,0.039330439,-0.004286646,-0.030512578,-0.126995551,-0.035061012
-0.002341591,0.039330132,-0.004284227,-0.030514501,-0.126998335,-0.035061325
-0.002343117,0.039329824,-0.004281807,-0.030516424,-0.127001119,-0.035061637
-0.002344644,0.039329516,-0.004279388,-0.030518346,-0.127003903,-0.03506195
-0.00234617,0.039329209,-0.004276968,-0.030520269,-0.127006687,-0.035062263
-0.002347696,0.0393289,-0.004274548,-0.030522191,-0.12700947,-0.035062576
-0.002349222,0.039328592,-0.004272128,-0.030524113,-0.127012253,-0.035062889
-0.002350749,0.039328283,-0.004269708,-0.030526036,-0.127015036,-0.035063202
-0.002352275,0.039327974,-0.004267288,-0.030527958,-0.127017818,-0.035063515
-0.002353802,0.039327665,-0.004264867,-0.030529879,-0.127020601,-0.035063828
-0.002355328,0.039327355,-0.004262446,-0.030531801,-0.127023383,-0.035064141
-0.002356855,0.039327045,-0.004260025,-0.030533723,-0.127026165,-0.035064455
-0.002358382,0.039326735,-0.004257604,-0.030535644,-0.127028947,-0.035064769
-0.002359908,0.039326425,-0.004255182,-0.030537565,-0.127031728,-0.035065082
-0.002361435,0.039326114,-0.004252761,-0.030539487,-0.12703451,-0.035065396
-0.002362962,0.039325803,-0.004250339,-0.030541408,-0.12703729,-0.03506571
-0.002364489,0.039325492,-0.004247917,-0.030543329,-0.127040071,-0.035066024
-0.002366016,0.03932518,-0.004245495,-0.03054525,-0.127042852,-0.035066338
-0.002367544,0.039324869,-0.004243072,-0.03054717,-0.127045632,-0.035066652
-0.002369071,0.039324557,-0.00424065,-0.030549091,-0.127048413,-0.035066966
-0.002370598,0.039324244,-0.004238227,-0.030551011,-0.127051192,-0.035067281
-0.002372126,0.039323932,-0.004235804,-0.030552932,-0.127053972,-0.035067595
-0.002373653,0.039323619,-0.004233381,-0.030554852,-0.127056752,-0.03506791
-0.002375181,0.039323306,-0.004230957,-0.030556772,-0.127059531,-0.035068224
-0.002376708,0.039322992,-0.004228534,-0.030558692,-0.12706231,-0.035068539
