hehonglu123/Motion-Primitive-Planning/simulation/robotstudio_sim/scripts/fitting_output_new/matlab_qp/curve_exe_vmax_z10.csv
timestamp, cmd_num, J1, J2, J3, J4, J5, J6
0, 1, -21.0894, 44.0026, 25.1024, -27.1032, -62.7904, 135.247
0.002, 1, -21.0894, 44.0026, 25.1024, -27.1032, -62.7904, 135.247
0.004, 1, -21.0894, 44.0026, 25.1024, -27.1032, -62.7904, 135.247
0.008, 1, -21.0894, 44.0026, 25.1024, -27.1032, -62.7904, 135.247
0.011, 1, -21.0894, 44.0026, 25.1024, -27.1032, -62.7904, 135.247
0.016, 1, -21.0894, 44.0026, 25.1024, -27.1032, -62.7904, 135.247
0.02, 1, -21.0894, 44.0026, 25.1024, -27.1032, -62.7904, 135.247
0.024, 1, -21.0894, 44.0026, 25.1024, -27.1032, -62.7904, 135.247
0.028, 1, -21.0894, 44.0026, 25.1024, -27.1032, -62.7904, 135.247
0.032, 1, -21.0894, 44.0026, 25.1024, -27.1032, -62.7904, 135.247
0.036, 1, -21.0894, 44.0026, 25.1024, -27.1032, -62.7904, 135.247
0.04, 1, -21.0894, 44.0026, 25.1024, -27.1032, -62.7904, 135.247
0.044, 1, -21.0891, 44.0026, 25.1024, -27.1032, -62.7904, 135.247
0.048, 1, -21.0886, 44.0025, 25.1024, -27.1032, -62.7905, 135.247
0.052, 1, -21.0876, 44.0025, 25.1024, -27.1031, -62.7905, 135.247
0.056, 1, -21.086, 44.0024, 25.1024, -27.1029, -62.7905, 135.246
0.06, 1, -21.0838, 44.0023, 25.1023, -27.1024, -62.7904, 135.246
0.064, 1, -21.0809, 44.0021, 25.1021, -27.1015, -62.7904, 135.245
0.068, 1, -21.0771, 44.0019, 25.1017, -27.1, -62.7903, 135.244
0.072, 1, -21.0726, 44.0016, 25.101, -27.0975, -62.7902, 135.242
0.076, 1, -21.067, 44.0013, 25.0999, -27.0936, -62.7899, 135.239
0.08, 1, -21.0602, 44.001, 25.0983, -27.088, -62.7895, 135.235
0.084, 1, -21.052, 44.0008, 25.096, -27.0802, -62.7888, 135.229
0.088, 1, -21.042, 44.0005, 25.0929, -27.0694, -62.7879, 135.221
0.092, 1, -21.0302, 44.0003, 25.0886, -27.0552, -62.7868, 135.211
0.096, 1, -21.0163, 44.0002, 25.0831, -27.0368, -62.7852, 135.197
0.1, 1, -21.0002, 44.0003, 25.076, -27.0135, -62.7831, 135.179
0.104, 1, -20.9817, 44.0006, 25.0672, -26.9846, -62.7805, 135.158
0.108, 1, -20.9607, 44.001, 25.0564, -26.9493, -62.7774, 135.132
0.112, 1, -20.937, 44.0018, 25.0434, -26.9072, -62.7735, 135.1
0.116, 1, -20.9106, 44.0029, 25.0281, -26.8575, -62.769, 135.063
0.12, 1, -20.8812, 44.0043, 25.0102, -26.7999, -62.7637, 135.02
0.124, 1, -20.849, 44.0061, 24.9898, -26.734, -62.7575, 134.971
0.128, 1, -20.814, 44.0083, 24.9666, -26.6595, -62.7506, 134.916
0.131, 1, -20.7763, 44.0109, 24.9406, -26.5764, -62.7428, 134.854
0.136, 1, -20.7359, 44.0139, 24.912, -26.4848, -62.7342, 134.786
0.139, 1, -20.6928, 44.0174, 24.8807, -26.385, -62.7248, 134.712
0.144, 1, -20.6471, 44.0212, 24.847, -26.2773, -62.7146, 134.632
0.148, 1, -20.5987, 44.0254, 24.8109, -26.1623, -62.7037, 134.546
0.152, 1, -20.5477, 44.0298, 24.7728, -26.0407, -62.6922, 134.456
0.156, 1, -20.4942, 44.0344, 24.7328, -25.9132, -62.6802, 134.361
0.16, 1, -20.4385, 44.0393, 24.6911, -25.7805, -62.6676, 134.263
0.164, 1, -20.3808, 44.0442, 24.6481, -25.6434, -62.6547, 134.161
0.168, 1, -20.3213, 44.0493, 24.6039, -25.5025, -62.6414, 134.056
0.172, 1, -20.26, 44.0544, 24.5588, -25.3587, -62.6278, 133.949
0.176, 1, -20.1972, 44.0595, 24.513, -25.2124, -62.614, 133.84
0.18, 1, -20.1328, 44.0645, 24.4666, -25.0644, -62.6001, 133.73
0.184, 1, -20.0671, 44.0696, 24.4198, -24.9151, -62.5861, 133.619
0.188, 1, -20.0001, 44.0745, 24.3728, -24.7647, -62.572, 133.508
0.192, 1, -19.932, 44.0795, 24.3256, -24.6137, -62.5578, 133.395
0.196, 1, -19.8632, 44.0844, 24.2782, -24.4622, -62.5436, 133.283
0.2, 1, -19.7939, 44.0892, 24.2307, -24.3103, -62.5294, 133.17
0.204, 1, -19.7241, 44.0941, 24.1831, -24.1581, -62.5152, 133.056
0.208, 1, -19.6541, 44.0989, 24.1355, -24.0057, -62.5009, 132.943
0.212, 1, -19.5838, 44.1037, 24.0878, -23.8532, -62.4866, 132.83
0.216, 1, -19.5134, 44.1085, 24.0401, -23.7004, -62.4724, 132.716
0.22, 1, -19.4429, 44.1134, 23.9924, -23.5476, -62.4581, 132.602
0.224, 1, -19.3724, 44.1182, 23.9446, -23.3946, -62.4438, 132.489
0.228, 1, -19.3017, 44.123, 23.8967, -23.2415, -62.4294, 132.375
0.232, 1, -19.2309, 44.1278, 23.8489, -23.0884, -62.4151, 132.261
0.236, 1, -19.1602, 44.1327, 23.801, -22.9351, -62.4008, 132.147
0.24, 1, -19.0893, 44.1375, 23.7531, -22.7817, -62.3864, 132.033
0.244, 1, -19.0184, 44.1423, 23.7051, -22.6282, -62.3721, 131.919
0.248, 1, -18.9475, 44.1472, 23.6571, -22.4746, -62.3577, 131.804
0.252, 1, -18.8765, 44.152, 23.6091, -22.321, -62.3434, 131.69
0.256, 1, -18.8055, 44.1568, 23.5611, -22.1672, -62.329, 131.576
0.26, 1, -18.7344, 44.1617, 23.513, -22.0134, -62.3146, 131.461
0.264, 1, -18.6633, 44.1665, 23.4649, -21.8594, -62.3002, 131.347
0.268, 1, -18.5921, 44.1714, 23.4168, -21.7054, -62.2858, 131.232
0.272, 1, -18.5209, 44.1762, 23.3686, -21.5512, -62.2714, 131.118
0.276, 1, -18.4496, 44.1811, 23.3205, -21.397, -62.257, 131.003
0.28, 1, -18.3783, 44.1859, 23.2722, -21.2427, -62.2426, 130.888
0.284, 1, -18.307, 44.1908, 23.224, -21.0883, -62.2281, 130.773
0.288, 1, -18.2356, 44.1957, 23.1757, -20.9338, -62.2137, 130.659
0.292, 1, -18.1642, 44.2005, 23.1274, -20.7792, -62.1992, 130.544
0.296, 1, -18.0927, 44.2054, 23.0791, -20.6245, -62.1848, 130.429
0.3, 1, -18.0212, 44.2103, 23.0307, -20.4697, -62.1703, 130.313
0.304, 1, -17.9497, 44.2151, 22.9824, -20.3149, -62.1558, 130.198
0.308, 1, -17.8781, 44.22, 22.9339, -20.1599, -62.1413, 130.083
0.312, 1, -17.8065, 44.2249, 22.8855, -20.0048, -62.1268, 129.968
0.316, 1, -17.7348, 44.2298, 22.837, -19.8497, -62.1123, 129.852
0.32, 1, -17.6631, 44.2347, 22.7885, -19.6945, -62.0978, 129.737
0.324, 1, -17.5913, 44.2396, 22.74, -19.5391, -62.0833, 129.621
0.328, 1, -17.5195, 44.2444, 22.6914, -19.3837, -62.0688, 129.506
0.332, 1, -17.4476, 44.2493, 22.6429, -19.2282, -62.0542, 129.39
0.336, 1, -17.3758, 44.2542, 22.5942, -19.0726, -62.0397, 129.274
0.34, 1, -17.3038, 44.2591, 22.5456, -18.9169, -62.0251, 129.159
0.344, 1, -17.2318, 44.264, 22.4969, -18.7611, -62.0105, 129.043
0.348, 1, -17.1598, 44.2689, 22.4482, -18.6052, -61.996, 128.927
0.352, 1, -17.0878, 44.2739, 22.3995, -18.4492, -61.9814, 128.811
0.356, 1, -17.0156, 44.2788, 22.3507, -18.2931, -61.9668, 128.695
0.36, 1, -16.9435, 44.2837, 22.3019, -18.137, -61.9522, 128.579
0.364, 1, -16.8713, 44.2886, 22.2531, -17.9807, -61.9376, 128.462
0.368, 1, -16.7991, 44.2935, 22.2043, -17.8243, -61.923, 128.346
0.372, 1, -16.7268, 44.2985, 22.1554, -17.6679, -61.9083, 128.23
0.376, 1, -16.6545, 44.3034, 22.1065, -17.5113, -61.8937, 128.113
0.38, 1, -16.5821, 44.3083, 22.0575, -17.3547, -61.8791, 127.997
0.384, 1, -16.5097, 44.3132, 22.0086, -17.198, -61.8644, 127.88
0.388, 1, -16.4372, 44.3182, 21.9596, -17.0412, -61.8497, 127.764
0.392, 1, -16.3647, 44.3231, 21.9105, -16.8842, -61.8351, 127.647
0.396, 1, -16.2922, 44.3281, 21.8615, -16.7272, -61.8204, 127.53
0.4, 1, -16.2196, 44.333, 21.8124, -16.5701, -61.8057, 127.413
0.404, 1, -16.147, 44.3379, 21.7633, -16.4129, -61.791, 127.296
0.408, 1, -16.0744, 44.3429, 21.7141, -16.2556, -61.7763, 127.18
0.412, 1, -16.0016, 44.3479, 21.665, -16.0983, -61.7616, 127.062
0.416, 1, -15.9289, 44.3528, 21.6158, -15.9408, -61.7469, 126.945
0.42, 1, -15.8561, 44.3578, 21.5665, -15.7832, -61.7321, 126.828
0.424, 1, -15.7833, 44.3627, 21.5173, -15.6256, -61.7174, 126.711
0.428, 1, -15.7104, 44.3677, 21.468, -15.4678, -61.7026, 126.594
0.432, 1, -15.6375, 44.3727, 21.4187, -15.31, -61.6879, 126.476
0.436, 1, -15.5645, 44.3776, 21.3693, -15.152, -61.6731, 126.359
0.44, 1, -15.4915, 44.3826, 21.32, -14.994, -61.6583, 126.241
0.444, 1, -15.4185, 44.3876, 21.2706, -14.8359, -61.6436, 126.124
0.448, 1, -15.3454, 44.3926, 21.2211, -14.6777, -61.6288, 126.006
0.452, 1, -15.2722, 44.3976, 21.1717, -14.5194, -61.614, 125.888
0.456, 1, -15.1991, 44.4025, 21.1222, -14.361, -61.5992, 125.77
0.46, 1, -15.1258, 44.4075, 21.0727, -14.2025, -61.5843, 125.653
0.464, 1, -15.0526, 44.4125, 21.0231, -14.0439, -61.5695, 125.535
0.468, 1, -14.9793, 44.4175, 20.9736, -13.8852, -61.5547, 125.417
0.472, 1, -14.9059, 44.4225, 20.924, -13.7265, -61.5398, 125.299
0.476, 1, -14.8326, 44.4275, 20.8743, -13.5676, -61.525, 125.18
0.48, 1, -14.7591, 44.4325, 20.8247, -13.4087, -61.5101, 125.062
0.484, 1, -14.6857, 44.4375, 20.775, -13.2497, -61.4953, 124.944
0.488, 1, -14.6122, 44.4425, 20.7253, -13.0905, -61.4804, 124.826
0.492, 1, -14.5386, 44.4475, 20.6755, -12.9313, -61.4655, 124.707
0.496, 1, -14.465, 44.4526, 20.6258, -12.772, -61.4506, 124.589
0.5, 1, -14.3914, 44.4576, 20.576, -12.6126, -61.4357, 124.47
0.504, 1, -14.3177, 44.4626, 20.5261, -12.4532, -61.4208, 124.352
0.508, 1, -14.244, 44.4676, 20.4763, -12.2936, -61.4059, 124.233
0.512, 1, -14.1703, 44.4726, 20.4264, -12.1339, -61.3909, 124.114
0.516, 1, -14.0965, 44.4777, 20.3765, -11.9742, -61.376, 123.995
0.52, 1, -14.0226, 44.4827, 20.3266, -11.8144, -61.3611, 123.877
0.524, 1, -13.9487, 44.4877, 20.2766, -11.6544, -61.3461, 123.758
0.528, 1, -13.8748, 44.4928, 20.2266, -11.4944, -61.3312, 123.639
0.532, 1, -13.8009, 44.4978, 20.1766, -11.3343, -61.3162, 123.52
0.536, 1, -13.7269, 44.5028, 20.1265, -11.1742, -61.3012, 123.4
0.54, 1, -13.6528, 44.5079, 20.0765, -11.0139, -61.2862, 123.281
0.544, 1, -13.5787, 44.5129, 20.0264, -10.8535, -61.2712, 123.162
0.548, 1, -13.5046, 44.518, 19.9762, -10.6931, -61.2562, 123.043
0.552, 1, -13.4305, 44.523, 19.9261, -10.5325, -61.2412, 122.923
0.556, 1, -13.3563, 44.5281, 19.8759, -10.3719, -61.2262, 122.804
0.56, 1, -13.282, 44.5332, 19.8257, -10.2112, -61.2112, 122.684
0.564, 1, -13.2077, 44.5382, 19.7755, -10.0504, -61.1961, 122.565
0.568, 1, -13.1334, 44.5433, 19.7252, -9.88952, -61.1811, 122.445
0.572, 1, -13.059, 44.5484, 19.6749, -9.72855, -61.166, 122.325
0.576, 1, -12.9846, 44.5534, 19.6246, -9.5675, -61.151, 122.206
0.58, 1, -12.9102, 44.5585, 19.5742, -9.40636, -61.1359, 122.086
0.584, 1, -12.8357, 44.5636, 19.5239, -9.24513, -61.1209, 121.966
0.588, 1, -12.7612, 44.5686, 19.4735, -9.08381, -61.1058, 121.846
0.592, 1, -12.6866, 44.5737, 19.423, -8.92241, -61.0907, 121.726
0.596, 1, -12.612, 44.5788, 19.3726, -8.76093, -61.0756, 121.606
0.6, 1, -12.5374, 44.5839, 19.3221, -8.59936, -61.0605, 121.486
0.604, 1, -12.4627, 44.589, 19.2716, -8.4377, -61.0454, 121.365
0.608, 1, -12.388, 44.5941, 19.2211, -8.27596, -61.0302, 121.245
0.612, 1, -12.3132, 44.5992, 19.1705, -8.11413, -61.0151, 121.125
0.616, 1, -12.2384, 44.6043, 19.1199, -7.95222, -61, 121.004
0.62, 1, -12.1636, 44.6094, 19.0693, -7.79022, -60.9848, 120.884
0.624, 1, -12.0887, 44.6145, 19.0187, -7.62814, -60.9697, 120.763
0.628, 1, -12.0138, 44.6196, 18.968, -7.46598, -60.9545, 120.643
0.632, 1, -11.9389, 44.6247, 18.9173, -7.30373, -60.9393, 120.522
0.636, 1, -11.8639, 44.6298, 18.8666, -7.1414, -60.9242, 120.401
0.64, 1, -11.7889, 44.6349, 18.8159, -6.97899, -60.909, 120.281
0.644, 1, -11.7138, 44.64, 18.7651, -6.81649, -60.8938, 120.16
0.648, 1, -11.6387, 44.6451, 18.7143, -6.65392, -60.8786, 120.039
0.652, 1, -11.5636, 44.6503, 18.6635, -6.49126, -60.8634, 119.918
0.656, 1, -11.4884, 44.6554, 18.6126, -6.32853, -60.8482, 119.797
0.66, 1, -11.4132, 44.6605, 18.5618, -6.16571, -60.833, 119.676
0.664, 1, -11.338, 44.6656, 18.5109, -6.00282, -60.8177, 119.555
0.668, 1, -11.2627, 44.6708, 18.46, -5.83985, -60.8025, 119.433
0.672, 1, -11.1874, 44.6759, 18.409, -5.6768, -60.7872, 119.312
0.676, 1, -11.112, 44.681, 18.358, -5.51367, -60.772, 119.191
0.68, 1, -11.0366, 44.6862, 18.3071, -5.35046, -60.7567, 119.069
0.684, 1, -10.9612, 44.6913, 18.256, -5.18718, -60.7415, 118.948
0.688, 1, -10.8858, 44.6965, 18.205, -5.02383, -60.7262, 118.827
0.692, 1, -10.8103, 44.7016, 18.1539, -4.86039, -60.7109, 118.705
0.696, 1, -10.7347, 44.7067, 18.1029, -4.69689, -60.6956, 118.583
0.7, 1, -10.6592, 44.7119, 18.0517, -4.5333, -60.6803, 118.462
0.704, 1, -10.5836, 44.717, 18.0006, -4.36965, -60.665, 118.34
0.708, 1, -10.508, 44.7222, 17.9495, -4.20592, -60.6497, 118.218
0.712, 1, -10.4323, 44.7274, 17.8983, -4.04212, -60.6344, 118.096
0.716, 1, -10.3566, 44.7325, 17.8471, -3.87825, -60.6191, 117.975
0.72, 1, -10.2809, 44.7377, 17.7959, -3.7143, -60.6038, 117.853
0.724, 1, -10.2051, 44.7428, 17.7446, -3.55029, -60.5884, 117.731
0.728, 1, -10.1293, 44.748, 17.6934, -3.3862, -60.5731, 117.609
0.732, 1, -10.0535, 44.7532, 17.6421, -3.22205, -60.5577, 117.487
0.736, 1, -9.97764, 44.7583, 17.5908, -3.05782, -60.5424, 117.364
0.74, 1, -9.90175, 44.7635, 17.5394, -2.89353, -60.527, 117.242
0.744, 1, -9.82584, 44.7687, 17.4881, -2.72917, -60.5117, 117.12
0.748, 1, -9.74989, 44.7739, 17.4367, -2.56474, -60.4963, 116.998
0.752, 1, -9.6739, 44.779, 17.3853, -2.40024, -60.4809, 116.875
0.756, 1, -9.59789, 44.7842, 17.3339, -2.23568, -60.4655, 116.753
0.76, 1, -9.52185, 44.7894, 17.2825, -2.07105, -60.4501, 116.631
0.764, 1, -9.44578, 44.7946, 17.231, -1.90636, -60.4347, 116.508
0.768, 1, -9.36968, 44.7998, 17.1795, -1.7416, -60.4193, 116.386
0.772, 1, -9.29355, 44.805, 17.128, -1.57678, -60.4039, 116.263
0.776, 1, -9.21739, 44.8102, 17.0765, -1.41189, -60.3885, 116.14
0.78, 1, -9.1412, 44.8154, 17.025, -1.24695, -60.3731, 116.018
0.784, 1, -9.06498, 44.8206, 16.9734, -1.08194, -60.3576, 115.895
0.788, 1, -8.98873, 44.8257, 16.9219, -0.916866, -60.3422, 115.772
0.792, 1, -8.91246, 44.8309, 16.8703, -0.751734, -60.3268, 115.649
0.796, 1, -8.83616, 44.8361, 16.8186, -0.586542, -60.3113, 115.527
0.8, 1, -8.75983, 44.8414, 16.767, -0.42129, -60.2959, 115.404
0.804, 1, -8.68347, 44.8466, 16.7154, -0.255979, -60.2804, 115.281
0.808, 1, -8.60709, 44.8518, 16.6637, -0.090609, -60.265, 115.158
0.812, 1, -8.53068, 44.857, 16.612, 0.0748185, -60.2495, 115.035
0.816, 1, -8.45424, 44.8622, 16.5603, 0.240303, -60.234, 114.912
0.82, 1, -8.37778, 44.8674, 16.5086, 0.405845, -60.2185, 114.789
0.824, 1, -8.30129, 44.8726, 16.4569, 0.571443, -60.2031, 114.665
0.828, 1, -8.22477, 44.8778, 16.4051, 0.737096, -60.1876, 114.542
0.832, 1, -8.14823, 44.883, 16.3533, 0.902804, -60.1721, 114.419
0.836, 1, -8.07167, 44.8883, 16.3015, 1.06857, -60.1566, 114.296
0.84, 1, -7.99508, 44.8935, 16.2497, 1.23438, -60.1411, 114.172
0.844, 1, -7.91846, 44.8987, 16.1979, 1.40025, -60.1256, 114.049
0.848, 1, -7.84182, 44.9039, 16.1461, 1.56617, -60.1101, 113.926
0.852, 1, -7.76516, 44.9091, 16.0942, 1.73215, -60.0945, 113.802
0.856, 1, -7.68848, 44.9144, 16.0423, 1.89817, -60.079, 113.679
0.86, 1, -7.61177, 44.9196, 15.9905, 2.06424, -60.0635, 113.555
0.864, 1, -7.53503, 44.9248, 15.9386, 2.23037, -60.048, 113.432
0.868, 1, -7.45828, 44.9301, 15.8866, 2.39654, -60.0324, 113.308
0.872, 1, -7.38151, 44.9353, 15.8347, 2.56277, -60.0169, 113.185
0.876, 1, -7.30471, 44.9405, 15.7827, 2.72904, -60.0013, 113.061
0.88, 1, -7.22789, 44.9458, 15.7308, 2.89535, -59.9858, 112.937
0.884, 1, -7.15105, 44.951, 15.6788, 3.06172, -59.9702, 112.813
0.888, 1, -7.07419, 44.9562, 15.6268, 3.22813, -59.9547, 112.69
0.892, 1, -6.99731, 44.9615, 15.5748, 3.39459, -59.9391, 112.566
0.896, 1, -6.92042, 44.9667, 15.5228, 3.56109, -59.9236, 112.442
0.9, 1, -6.8435, 44.972, 15.4708, 3.72763, -59.908, 112.318
0.904, 1, -6.76657, 44.9772, 15.4187, 3.89422, -59.8924, 112.194
0.908, 1, -6.68961, 44.9825, 15.3666, 4.06084, -59.8768, 112.07
0.912, 1, -6.61264, 44.9877, 15.3146, 4.22751, -59.8612, 111.946
0.916, 1, -6.53565, 44.993, 15.2625, 4.39421, -59.8457, 111.823
0.92, 1, -6.45864, 44.9982, 15.2104, 4.56096, -59.8301, 111.698
0.924, 1, -6.38162, 45.0035, 15.1583, 4.72774, -59.8145, 111.574
0.928, 1, -6.30458, 45.0087, 15.1062, 4.89456, -59.7989, 111.45
0.932, 1, -6.22752, 45.014, 15.054, 5.06141, -59.7833, 111.326
0.936, 1, -6.15045, 45.0192, 15.0019, 5.2283, -59.7677, 111.202
0.94, 1, -6.07336, 45.0245, 14.9497, 5.39522, -59.7521, 111.078
0.944, 1, -5.99626, 45.0297, 14.8976, 5.56217, -59.7365, 110.954
0.948, 1, -5.91914, 45.035, 14.8454, 5.72915, -59.7208, 110.83
0.952, 1, -5.84201, 45.0403, 14.7932, 5.89616, -59.7052, 110.706
0.956, 1, -5.76487, 45.0455, 14.741, 6.0632, -59.6896, 110.581
0.96, 1, -5.68771, 45.0508, 14.6888, 6.23027, -59.674, 110.457
0.964, 1, -5.61055, 45.056, 14.6366, 6.39736, -59.6584, 110.333
0.968, 1, -5.53337, 45.0613, 14.5844, 6.56448, -59.6427, 110.209
0.972, 1, -5.45618, 45.0666, 14.5322, 6.73163, -59.6271, 110.084
0.976, 1, -5.37898, 45.0718, 14.48, 6.89879, -59.6115, 109.96
0.98, 1, -5.30176, 45.0771, 14.4277, 7.06598, -59.5959, 109.836
0.984, 1, -5.22454, 45.0824, 14.3755, 7.23319, -59.5802, 109.711
0.988, 1, -5.14731, 45.0876, 14.3232, 7.40042, -59.5646, 109.587
0.992, 1, -5.07008, 45.0929, 14.271, 7.56767, -59.549, 109.462
0.996, 1, -4.99283, 45.0982, 14.2187, 7.73494, -59.5333, 109.338
1, 1, -4.91557, 45.1034, 14.1665, 7.90223, -59.5177, 109.214
1.004, 1, -4.83831, 45.1087, 14.1142, 8.06952, -59.502, 109.089
1.008, 1, -4.76104, 45.114, 14.0619, 8.23684, -59.4864, 108.965
1.012, 1, -4.68377, 45.1192, 14.0096, 8.40417, -59.4707, 108.84
1.016, 1, -4.60649, 45.1245, 13.9573, 8.57151, -59.4551, 108.716
1.02, 1, -4.5292, 45.1298, 13.9051, 8.73886, -59.4395, 108.591
1.024, 1, -4.45191, 45.1351, 13.8528, 8.90622, -59.4238, 108.467
1.027, 1, -4.37462, 45.1403, 13.8005, 9.07359, -59.4082, 108.343
1.032, 1, -4.29732, 45.1456, 13.7482, 9.24097, -59.3925, 108.218
1.036, 1, -4.22002, 45.1509, 13.6959, 9.40836, -59.3769, 108.094
1.04, 1, -4.14272, 45.1561, 13.6436, 9.57575, -59.3612, 107.969
1.044, 1, -4.06541, 45.1614, 13.5913, 9.74315, -59.3456, 107.845
1.048, 1, -3.9881, 45.1667, 13.539, 9.91055, -59.3299, 107.72
1.052, 1, -3.9108, 45.172, 13.4867, 10.0779, -59.3143, 107.596
1.055, 1, -3.83349, 45.1772, 13.4344, 10.2454, -59.2986, 107.471
1.06, 1, -3.75618, 45.1825, 13.3821, 10.4128, -59.283, 107.347
1.064, 1, -3.67887, 45.1878, 13.3298, 10.5802, -59.2673, 107.222
1.068, 1, -3.60156, 45.193, 13.2775, 10.7476, -59.2517, 107.098
1.072, 1, -3.52426, 45.1983, 13.2252, 10.915, -59.236, 106.973
1.076, 1, -3.44695, 45.2036, 13.1729, 11.0824, -59.2204, 106.849
1.08, 1, -3.36965, 45.2089, 13.1206, 11.2497, -59.2047, 106.724
1.084, 1, -3.29235, 45.2141, 13.0683, 11.4171, -59.1891, 106.6
1.088, 1, -3.21506, 45.2194, 13.016, 11.5845, -59.1734, 106.475
1.091, 1, -3.13776, 45.2247, 12.9637, 11.7519, -59.1578, 106.351
1.096, 1, -3.06048, 45.2299, 12.9114, 11.9192, -59.1421, 106.226
1.1, 1, -2.98319, 45.2352, 12.8591, 12.0866, -59.1265, 106.102
1.104, 1, -2.90592, 45.2405, 12.8068, 12.2539, -59.1108, 105.977
1.108, 1, -2.82864, 45.2458, 12.7545, 12.4212, -59.0952, 105.853
1.112, 1, -2.75138, 45.251, 12.7023, 12.5885, -59.0795, 105.728
1.116, 1, -2.67412, 45.2563, 12.65, 12.7558, -59.0639, 105.604
1.119, 1, -2.59687, 45.2616, 12.5977, 12.9231, -59.0483, 105.48
1.124, 1, -2.51962, 45.2668, 12.5455, 13.0904, -59.0326, 105.355
1.128, 1, -2.44238, 45.2721, 12.4932, 13.2576, -59.017, 105.231
1.132, 1, -2.36516, 45.2774, 12.441, 13.4248, -59.0013, 105.107
1.136, 1, -2.28794, 45.2826, 12.3887, 13.5921, -58.9857, 104.982
1.14, 1, -2.21073, 45.2879, 12.3365, 13.7592, -58.9701, 104.858
1.144, 1, -2.13354, 45.2932, 12.2843, 13.9264, -58.9545, 104.734
1.147, 1, -2.05635, 45.2984, 12.232, 14.0935, -58.9388, 104.609
1.152, 1, -1.97918, 45.3037, 12.1798, 14.2607, -58.9232, 104.485
1.156, 1, -1.90202, 45.309, 12.1276, 14.4277, -58.9076, 104.361
1.16, 1, -1.82487, 45.3142, 12.0754, 14.5948, -58.892, 104.236
1.164, 1, -1.74774, 45.3195, 12.0232, 14.7618, -58.8763, 104.112
1.168, 1, -1.67062, 45.3247, 11.971, 14.9289, -58.8607, 103.988
1.172, 1, -1.59352, 45.33, 11.9189, 15.0958, -58.8451, 103.864
1.175, 1, -1.51643, 45.3353, 11.8667, 15.2628, -58.8295, 103.74
1.18, 1, -1.43935, 45.3405, 11.8146, 15.4297, -58.8139, 103.616
1.184, 1, -1.3623, 45.3458, 11.7624, 15.5966, -58.7983, 103.491
1.188, 1, -1.28525, 45.351, 11.7103, 15.7634, -58.7827, 103.367
1.192, 1, -1.20823, 45.3563, 11.6582, 15.9302, -58.7671, 103.243
1.196, 1, -1.13122, 45.3615, 11.6061, 16.097, -58.7515, 103.119
1.2, 1, -1.05423, 45.3668, 11.554, 16.2637, -58.7359, 102.995
1.204, 1, -0.977265, 45.372, 11.5019, 16.4304, -58.7203, 102.871
1.208, 1, -0.900315, 45.3773, 11.4498, 16.597, -58.7048, 102.747
1.212, 1, -0.823385, 45.3825, 11.3978, 16.7636, -58.6892, 102.624
1.216, 1, -0.746475, 45.3878, 11.3457, 16.9302, -58.6736, 102.5
1.22, 1, -0.669587, 45.393, 11.2937, 17.0967, -58.6581, 102.376
1.224, 1, -0.592721, 45.3983, 11.2417, 17.2632, -58.6425, 102.252
1.228, 1, -0.515877, 45.4035, 11.1897, 17.4296, -58.6269, 102.128
1.232, 1, -0.439056, 45.4088, 11.1377, 17.5959, -58.6114, 102.005
1.236, 1, -0.362259, 45.414, 11.0858, 17.7623, -58.5958, 101.881
1.24, 1, -0.285487, 45.4192, 11.0338, 17.9285, -58.5803, 101.757
1.244, 1, -0.208739, 45.4245, 10.9819, 18.0947, -58.5647, 101.634
1.248, 1, -0.132017, 45.4297, 10.93, 18.2609, -58.5492, 101.51
1.252, 1, -0.0553207, 45.4349, 10.8781, 18.427, -58.5337, 101.387
1.256, 1, 0.0213487, 45.4402, 10.8262, 18.593, -58.5182, 101.263
1.26, 1, 0.0979909, 45.4454, 10.7743, 18.759, -58.5026, 101.14
1.264, 1, 0.174605, 45.4506, 10.7225, 18.9249, -58.4871, 101.016
1.267, 1, 0.251191, 45.4558, 10.6707, 19.0908, -58.4716, 100.893
1.272, 1, 0.327748, 45.4611, 10.6189, 19.2565, -58.4561, 100.77
1.276, 1, 0.404276, 45.4663, 10.5671, 19.4223, -58.4406, 100.646
1.28, 1, 0.480773, 45.4715, 10.5153, 19.5879, -58.4251, 100.523
1.284, 1, 0.55724, 45.4767, 10.4636, 19.7535, -58.4097, 100.4
1.288, 1, 0.633675, 45.4819, 10.4119, 19.9191, -58.3942, 100.277
1.292, 1, 0.710078, 45.4871, 10.3602, 20.0845, -58.3787, 100.154
1.295, 1, 0.786449, 45.4924, 10.3085, 20.2499, -58.3633, 100.031
1.3, 1, 0.862787, 45.4976, 10.2568, 20.4152, -58.3478, 99.9079
1.304, 1, 0.939092, 45.5028, 10.2052, 20.5805, -58.3323, 99.785
1.308, 1, 1.01536, 45.508, 10.1536, 20.7456, -58.3169, 99.6622
1.312, 1, 1.0916, 45.5132, 10.102, 20.9107, -58.3015, 99.5394
1.316, 1, 1.1678, 45.5184, 10.0505, 21.0758, -58.286, 99.4167
1.32, 1, 1.24396, 45.5236, 9.99892, 21.2407, -58.2706, 99.294
1.324, 1, 1.32009, 45.5288, 9.94741, 21.4056, -58.2552, 99.1714
1.328, 1, 1.39618, 45.534, 9.89592, 21.5703, -58.2398, 99.0489
1.332, 1, 1.47224, 45.5392, 9.84446, 21.735, -58.2244, 98.9264
1.336, 1, 1.54825, 45.5443, 9.79303, 21.8997, -58.209, 98.8039
1.34, 1, 1.62423, 45.5495, 9.74162, 22.0642, -58.1936, 98.6816
1.344, 1, 1.70017, 45.5547, 9.69024, 22.2286, -58.1783, 98.5593
1.348, 1, 1.77607, 45.5599, 9.63888, 22.393, -58.1629, 98.437
1.352, 1, 1.85192, 45.5651, 9.58755, 22.5573, -58.1475, 98.3149
1.356, 1, 1.92774, 45.5702, 9.53625, 22.7215, -58.1322, 98.1928
1.36, 1, 2.00352, 45.5754, 9.48498, 22.8856, -58.1168, 98.0707
1.364, 1, 2.07925, 45.5806, 9.43373, 23.0496, -58.1015, 97.9488
1.368, 1, 2.15495, 45.5857, 9.38252, 23.2135, -58.0862, 97.8269
1.372, 1, 2.2306, 45.5909, 9.33133, 23.3773, -58.0709, 97.705
1.376, 1, 2.30621, 45.596, 9.28017, 23.5411, -58.0556, 97.5833
1.38, 1, 2.38177, 45.6012, 9.22905, 23.7047, -58.0403, 97.4616
1.384, 1, 2.45729, 45.6064, 9.17795, 23.8682, -58.025, 97.34
1.388, 1, 2.53277, 45.6115, 9.12688, 24.0317, -58.0097, 97.2184
1.392, 1, 2.6082, 45.6166, 9.07584, 24.195, -57.9944, 97.0969
1.396, 1, 2.68359, 45.6218, 9.02484, 24.3583, -57.9791, 96.9755
1.4, 1, 2.75893, 45.6269, 8.97386, 24.5214, -57.9639, 96.8542
1.404, 1, 2.83423, 45.6321, 8.92292, 24.6845, -57.9487, 96.7329
1.408, 1, 2.90948, 45.6372, 8.872, 24.8474, -57.9334, 96.6117
1.412, 1, 2.98468, 45.6423, 8.82112, 25.0103, -57.9182, 96.4906
1.416, 1, 3.05983, 45.6475, 8.77028, 25.173, -57.903, 96.3696
1.42, 1, 3.13493, 45.6526, 8.71946, 25.3356, -57.8878, 96.2487
1.424, 1, 3.20998, 45.6577, 8.66868, 25.4982, -57.8726, 96.1278
1.428, 1, 3.28499, 45.6628, 8.61793, 25.6606, -57.8574, 96.007
1.432, 1, 3.35994, 45.6679, 8.56721, 25.8229, -57.8422, 95.8863
1.436, 1, 3.43485, 45.673, 8.51653, 25.9851, -57.8271, 95.7657
1.44, 1, 3.5097, 45.6782, 8.46589, 26.1472, -57.8119, 95.6451
1.444, 1, 3.5845, 45.6833, 8.41527, 26.3092, -57.7968, 95.5247
1.448, 1, 3.65925, 45.6884, 8.36469, 26.4711, -57.7816, 95.4043
1.452, 1, 3.73395, 45.6935, 8.31415, 26.6328, -57.7665, 95.284
1.456, 1, 3.8086, 45.6985, 8.26364, 26.7945, -57.7514, 95.1637
1.46, 1, 3.88319, 45.7036, 8.21317, 26.956, -57.7363, 95.0436
1.464, 1, 3.95773, 45.7087, 8.16274, 27.1174, -57.7212, 94.9236
1.468, 1, 4.03222, 45.7138, 8.11234, 27.2787, -57.7061, 94.8036
1.472, 1, 4.10665, 45.7189, 8.06197, 27.4399, -57.691, 94.6837
1.476, 1, 4.18103, 45.724, 8.01165, 27.601, -57.676, 94.564
1.48, 1, 4.25535, 45.729, 7.96136, 27.7619, -57.6609, 94.4443
1.484, 1, 4.32962, 45.7341, 7.91111, 27.9228, -57.6459, 94.3247
1.488, 1, 4.40383, 45.7392, 7.8609, 28.0835, -57.6309, 94.2051
1.492, 1, 4.47799, 45.7442, 7.81072, 28.244, -57.6159, 94.0857
1.496, 1, 4.55209, 45.7493, 7.76059, 28.4045, -57.6009, 93.9664
1.5, 1, 4.62613, 45.7543, 7.71049, 28.5648, -57.5859, 93.8472
1.504, 1, 4.70011, 45.7594, 7.66043, 28.725, -57.5709, 93.728
1.508, 1, 4.77404, 45.7644, 7.61041, 28.8851, -57.5559, 93.6089
1.512, 1, 4.84791, 45.7695, 7.56043, 29.0451, -57.541, 93.49
1.516, 1, 4.92171, 45.7745, 7.51049, 29.2049, -57.526, 93.3711
1.52, 1, 4.99546, 45.7795, 7.46059, 29.3646, -57.5111, 93.2524
1.524, 1, 5.06915, 45.7846, 7.41074, 29.5242, -57.4962, 93.1337
1.528, 1, 5.14278, 45.7896, 7.36092, 29.6836, -57.4813, 93.0151
1.532, 1, 5.21635, 45.7946, 7.31114, 29.8429, -57.4664, 92.8966
1.536, 1, 5.28986, 45.7996, 7.26141, 30.0021, -57.4515, 92.7783
1.54, 1, 5.3633, 45.8046, 7.21171, 30.1612, -57.4366, 92.66
1.544, 1, 5.43669, 45.8096, 7.16206, 30.3201, -57.4218, 92.5418
1.548, 1, 5.51001, 45.8146, 7.11245, 30.4788, -57.4069, 92.4237
1.552, 1, 5.58327, 45.8196, 7.06289, 30.6375, -57.3921, 92.3058
1.556, 1, 5.65647, 45.8246, 7.01336, 30.796, -57.3773, 92.1879
1.56, 1, 5.7296, 45.8296, 6.96388, 30.9543, -57.3625, 92.0701
1.564, 1, 5.80267, 45.8346, 6.91444, 31.1126, -57.3477, 91.9524
1.568, 1, 5.87567, 45.8396, 6.86505, 31.2707, -57.3329, 91.8349
1.572, 1, 5.94862, 45.8446, 6.8157, 31.4286, -57.3181, 91.7174
1.576, 1, 6.02149, 45.8495, 6.76639, 31.5864, -57.3034, 91.6
1.58, 1, 6.0943, 45.8545, 6.71712, 31.7441, -57.2886, 91.4828
1.584, 1, 6.16705, 45.8595, 6.66791, 31.9016, -57.2739, 91.3656
1.588, 1, 6.23973, 45.8644, 6.61873, 32.059, -57.2592, 91.2486
1.592, 1, 6.31235, 45.8694, 6.5696, 32.2162, -57.2445, 91.1317
1.596, 1, 6.38489, 45.8743, 6.52052, 32.3733, -57.2298, 91.0148
1.6, 1, 6.45738, 45.8793, 6.47148, 32.5303, -57.2151, 90.8981
1.604, 1, 6.52979, 45.8842, 6.42249, 32.6871, -57.2005, 90.7815
1.608, 1, 6.60214, 45.8892, 6.37354, 32.8437, -57.1858, 90.665
1.612, 1, 6.67441, 45.8941, 6.32464, 33.0002, -57.1712, 90.5486
1.616, 1, 6.74662, 45.899, 6.27578, 33.1566, -57.1566, 90.4323
1.62, 1, 6.81877, 45.9039, 6.22697, 33.3128, -57.142, 90.3161
1.624, 1, 6.89084, 45.9089, 6.17821, 33.4689, -57.1274, 90.2001
1.628, 1, 6.96285, 45.9138, 6.12949, 33.6248, -57.1128, 90.0841
1.632, 1, 7.03478, 45.9187, 6.08082, 33.7805, -57.0982, 89.9683
1.636, 1, 7.10665, 45.9236, 6.0322, 33.9362, -57.0837, 89.8526
1.64, 1, 7.17844, 45.9285, 5.98363, 34.0916, -57.0692, 89.737
1.644, 1, 7.25017, 45.9334, 5.9351, 34.2469, -57.0546, 89.6215
1.648, 1, 7.32182, 45.9383, 5.88662, 34.4021, -57.0401, 89.5061
1.652, 1, 7.39341, 45.9431, 5.83819, 34.5571, -57.0257, 89.3908
1.656, 1, 7.46492, 45.948, 5.78981, 34.7119, -57.0112, 89.2756
1.66, 1, 7.53636, 45.9529, 5.74148, 34.8666, -56.9967, 89.1606
1.664, 1, 7.60773, 45.9578, 5.69319, 35.0212, -56.9823, 89.0457
1.668, 1, 7.67903, 45.9626, 5.64496, 35.1755, -56.9678, 88.9309
1.672, 1, 7.75026, 45.9675, 5.59677, 35.3298, -56.9534, 88.8162
1.676, 1, 7.82142, 45.9723, 5.54863, 35.4838, -56.939, 88.7016
1.68, 1, 7.8925, 45.9772, 5.50054, 35.6377, -56.9246, 88.5871
1.684, 1, 7.96351, 45.982, 5.4525, 35.7915, -56.9102, 88.4728
1.688, 1, 8.03445, 45.9869, 5.40451, 35.9451, -56.8959, 88.3586
1.692, 1, 8.10532, 45.9917, 5.35657, 36.0985, -56.8815, 88.2445
1.696, 1, 8.17611, 45.9965, 5.30868, 36.2518, -56.8672, 88.1305
1.7, 1, 8.24683, 46.0014, 5.26084, 36.4049, -56.8529, 88.0166
1.704, 1, 8.31748, 46.0062, 5.21304, 36.5579, -56.8386, 87.9028
1.708, 1, 8.38805, 46.011, 5.1653, 36.7107, -56.8243, 87.7892
1.712, 1, 8.45855, 46.0158, 5.11761, 36.8633, -56.81, 87.6757
1.716, 1, 8.52897, 46.0206, 5.06997, 37.0158, -56.7958, 87.5623
1.72, 1, 8.59932, 46.0254, 5.02238, 37.1681, -56.7815, 87.449
1.724, 1, 8.66959, 46.0302, 4.97484, 37.3202, -56.7673, 87.3359
1.728, 1, 8.73979, 46.035, 4.92735, 37.4722, -56.7531, 87.2228
1.732, 1, 8.80992, 46.0398, 4.87991, 37.6241, -56.7389, 87.1099
1.736, 1, 8.87997, 46.0446, 4.83252, 37.7757, -56.7247, 86.9971
1.74, 1, 8.94994, 46.0493, 4.78519, 37.9272, -56.7106, 86.8845
1.744, 1, 9.01984, 46.0541, 4.7379, 38.0786, -56.6964, 86.7719
1.748, 1, 9.08967, 46.0589, 4.69067, 38.2297, -56.6823, 86.6595
1.752, 1, 9.15941, 46.0636, 4.64348, 38.3807, -56.6682, 86.5472
1.756, 1, 9.22908, 46.0684, 4.59635, 38.5316, -56.6541, 86.435
1.76, 1, 9.29868, 46.0731, 4.54927, 38.6823, -56.64, 86.323
1.764, 1, 9.3682, 46.0779, 4.50224, 38.8328, -56.6259, 86.211
1.768, 1, 9.43765, 46.0826, 4.45526, 38.9831, -56.6118, 86.0992
1.772, 1, 9.50702, 46.0873, 4.40834, 39.1333, -56.5978, 85.9875
1.776, 1, 9.57631, 46.0921, 4.36146, 39.2833, -56.5838, 85.8759
1.78, 1, 9.64552, 46.0968, 4.31464, 39.4332, -56.5698, 85.7645
1.784, 1, 9.71466, 46.1015, 4.26787, 39.5829, -56.5558, 85.6532
1.788, 1, 9.78372, 46.1062, 4.22115, 39.7324, -56.5418, 85.542
1.792, 1, 9.85271, 46.1109, 4.17448, 39.8818, -56.5278, 85.4309
1.796, 1, 9.92162, 46.1156, 4.12787, 40.0309, -56.5139, 85.32
1.8, 1, 9.99045, 46.1203, 4.08131, 40.18, -56.5, 85.2091
1.804, 1, 10.0592, 46.125, 4.0348, 40.3288, -56.486, 85.0984
1.808, 1, 10.1279, 46.1297, 3.98834, 40.4775, -56.4721, 84.9879
1.812, 1, 10.1965, 46.1344, 3.94194, 40.626, -56.4582, 84.8774
1.816, 1, 10.265, 46.139, 3.89559, 40.7744, -56.4444, 84.7671
1.82, 1, 10.3334, 46.1437, 3.84929, 40.9226, -56.4305, 84.6569
1.824, 1, 10.4018, 46.1484, 3.80304, 41.0706, -56.4167, 84.5468
1.828, 1, 10.4701, 46.153, 3.75685, 41.2184, -56.4029, 84.4369
1.832, 1, 10.5383, 46.1577, 3.71071, 41.3661, -56.3891, 84.327
1.836, 1, 10.6064, 46.1623, 3.66462, 41.5136, -56.3753, 84.2173
1.84, 1, 10.6745, 46.167, 3.61858, 41.6609, -56.3615, 84.1078
1.844, 1, 10.7425, 46.1716, 3.5726, 41.8081, -56.3477, 83.9983
1.848, 1, 10.8104, 46.1762, 3.52667, 41.9551, -56.334, 83.889
1.852, 1, 10.8782, 46.1809, 3.4808, 42.1019, -56.3203, 83.7798
1.856, 1, 10.9459, 46.1855, 3.43497, 42.2486, -56.3066, 83.6707
1.86, 1, 11.0136, 46.1901, 3.38921, 42.395, -56.2929, 83.5618
1.864, 1, 11.0812, 46.1947, 3.34349, 42.5414, -56.2792, 83.453
1.868, 1, 11.1487, 46.1993, 3.29783, 42.6875, -56.2655, 83.3443
1.872, 1, 11.2161, 46.2039, 3.25222, 42.8335, -56.2519, 83.2358
1.876, 1, 11.2834, 46.2085, 3.20666, 42.9793, -56.2382, 83.1273
1.88, 1, 11.3507, 46.2131, 3.16116, 43.1249, -56.2246, 83.019
1.884, 1, 11.4179, 46.2177, 3.11571, 43.2704, -56.211, 82.9109
1.888, 1, 11.485, 46.2223, 3.07032, 43.4156, -56.1974, 82.8028
1.892, 1, 11.552, 46.2268, 3.02498, 43.5608, -56.1839, 82.6949
1.896, 1, 11.619, 46.2314, 2.97969, 43.7057, -56.1703, 82.5871
1.9, 1, 11.6858, 46.236, 2.93445, 43.8505, -56.1568, 82.4794
1.904, 1, 11.7526, 46.2405, 2.88927, 43.9951, -56.1433, 82.3719
1.908, 1, 11.8193, 46.2451, 2.84415, 44.1395, -56.1298, 82.2645
1.912, 1, 11.886, 46.2496, 2.79907, 44.2837, -56.1163, 82.1572
1.916, 1, 11.9525, 46.2542, 2.75406, 44.4278, -56.1028, 82.05
1.92, 1, 12.019, 46.2587, 2.70909, 44.5717, -56.0894, 81.943
1.924, 1, 12.0854, 46.2632, 2.66418, 44.7155, -56.0759, 81.8361
1.928, 1, 12.1517, 46.2677, 2.61932, 44.8591, -56.0625, 81.7294
1.932, 1, 12.218, 46.2723, 2.57452, 45.0024, -56.0491, 81.6227
1.936, 1, 12.2841, 46.2768, 2.52977, 45.1457, -56.0357, 81.5162
1.94, 1, 12.3502, 46.2813, 2.48507, 45.2887, -56.0223, 81.4098
1.944, 1, 12.4162, 46.2858, 2.44043, 45.4316, -56.009, 81.3036
1.948, 1, 12.4821, 46.2903, 2.39584, 45.5743, -55.9956, 81.1974
1.952, 1, 12.5479, 46.2948, 2.35131, 45.7168, -55.9823, 81.0914
1.956, 1, 12.6137, 46.2993, 2.30683, 45.8592, -55.969, 80.9856
1.96, 1, 12.6794, 46.3037, 2.26241, 46.0014, -55.9557, 80.8798
1.964, 1, 12.745, 46.3082, 2.21803, 46.1434, -55.9424, 80.7742
1.968, 1, 12.8105, 46.3127, 2.17372, 46.2852, -55.9292, 80.6687
1.972, 1, 12.8759, 46.3171, 2.12945, 46.4269, -55.9159, 80.5634
1.976, 1, 12.9413, 46.3216, 2.08525, 46.5684, -55.9027, 80.4582
1.98, 1, 13.0066, 46.3261, 2.04109, 46.7097, -55.8895, 80.3531
1.984, 1, 13.0718, 46.3305, 1.99699, 46.8508, -55.8763, 80.2481
1.988, 1, 13.1369, 46.3349, 1.95294, 46.9918, -55.8631, 80.1433
1.992, 1, 13.2019, 46.3394, 1.90895, 47.1326, -55.8499, 80.0386
1.996, 1, 13.2669, 46.3438, 1.86501, 47.2732, -55.8368, 79.934
1.999, 1, 13.3318, 46.3482, 1.82113, 47.4137, -55.8237, 79.8295
2.004, 1, 13.3966, 46.3527, 1.7773, 47.554, -55.8106, 79.7252
2.008, 1, 13.4613, 46.3571, 1.73352, 47.6941, -55.7975, 79.621
2.012, 1, 13.526, 46.3615, 1.68979, 47.834, -55.7844, 79.5169
2.015, 1, 13.5905, 46.3659, 1.64613, 47.9738, -55.7713, 79.413
2.019, 1, 13.655, 46.3703, 1.60251, 48.1134, -55.7583, 79.3092
2.024, 1, 13.7194, 46.3747, 1.55895, 48.2528, -55.7452, 79.2055
2.028, 1, 13.7838, 46.3791, 1.51544, 48.392, -55.7322, 79.1019
2.031, 1, 13.848, 46.3834, 1.47198, 48.5311, -55.7192, 78.9985
2.036, 1, 13.9122, 46.3878, 1.42858, 48.67, -55.7062, 78.8952
2.04, 1, 13.9763, 46.3922, 1.38523, 48.8088, -55.6932, 78.792
2.044, 1, 14.0403, 46.3966, 1.34194, 48.9473, -55.6803, 78.6889
2.048, 1, 14.1042, 46.4009, 1.2987, 49.0857, -55.6673, 78.586
2.051, 1, 14.1681, 46.4053, 1.25551, 49.2239, -55.6544, 78.4832
2.055, 1, 14.2318, 46.4096, 1.21237, 49.362, -55.6415, 78.3806
2.06, 1, 14.2955, 46.414, 1.16929, 49.4999, -55.6286, 78.278
2.064, 1, 14.3592, 46.4183, 1.12626, 49.6376, -55.6157, 78.1756
2.068, 1, 14.4227, 46.4226, 1.08329, 49.7751, -55.6029, 78.0733
2.071, 1, 14.4862, 46.427, 1.04036, 49.9125, -55.59, 77.9712
2.076, 1, 14.5496, 46.4313, 0.997495, 50.0497, -55.5772, 77.8691
2.08, 1, 14.6129, 46.4356, 0.954678, 50.1868, -55.5644, 77.7672
2.084, 1, 14.6761, 46.4399, 0.911913, 50.3236, -55.5516, 77.6654
2.087, 1, 14.7392, 46.4442, 0.869202, 50.4603, -55.5388, 77.5638
2.092, 1, 14.8023, 46.4485, 0.826543, 50.5969, -55.5261, 77.4622
2.096, 1, 14.8653, 46.4528, 0.783937, 50.7332, -55.5133, 77.3608
2.1, 1, 14.9282, 46.4571, 0.741383, 50.8694, -55.5006, 77.2595
2.104, 1, 14.9911, 46.4614, 0.698882, 51.0054, -55.4879, 77.1584
2.107, 1, 15.0538, 46.4657, 0.656434, 51.1413, -55.4752, 77.0573
2.111, 1, 15.1165, 46.4699, 0.614037, 51.277, -55.4625, 76.9564
2.116, 1, 15.1791, 46.4742, 0.571693, 51.4125, -55.4498, 76.8556
2.12, 1, 15.2416, 46.4785, 0.529402, 51.5479, -55.4372, 76.755
2.124, 1, 15.3041, 46.4827, 0.487162, 51.6831, -55.4245, 76.6544
2.127, 1, 15.3665, 46.487, 0.444975, 51.8181, -55.4119, 76.554
2.132, 1, 15.4288, 46.4912, 0.40284, 51.9529, -55.3993, 76.4537
2.136, 1, 15.491, 46.4955, 0.360757, 52.0876, -55.3867, 76.3536
2.14, 1, 15.5531, 46.4997, 0.318725, 52.2221, -55.3741, 76.2535
2.143, 1, 15.6152, 46.504, 0.276746, 52.3565, -55.3616, 76.1536
2.148, 1, 15.6772, 46.5082, 0.234818, 52.4907, -55.349, 76.0538
2.152, 1, 15.7391, 46.5124, 0.192943, 52.6247, -55.3365, 75.9541
2.156, 1, 15.801, 46.5166, 0.151119, 52.7586, -55.324, 75.8546
2.16, 1, 15.8627, 46.5208, 0.109346, 52.8923, -55.3115, 75.7551
2.163, 1, 15.9244, 46.525, 0.0676251, 53.0258, -55.299, 75.6558
2.168, 1, 15.986, 46.5292, 0.0259557, 53.1592, -55.2865, 75.5567
2.172, 1, 16.0476, 46.5334, -0.0156624, 53.2924, -55.2741, 75.4576
2.176, 1, 16.109, 46.5376, -0.057229, 53.4254, -55.2616, 75.3587
2.179, 1, 16.1704, 46.5418, -0.0987444, 53.5583, -55.2492, 75.2599
2.184, 1, 16.2317, 46.546, -0.140209, 53.691, -55.2368, 75.1612
2.188, 1, 16.2929, 46.5502, -0.181622, 53.8235, -55.2244, 75.0626
2.192, 1, 16.3541, 46.5543, -0.222983, 53.9559, -55.212, 74.9641
2.196, 1, 16.4152, 46.5585, -0.264294, 54.0881, -55.1997, 74.8658
2.199, 1, 16.4762, 46.5627, -0.305554, 54.2202, -55.1873, 74.7676
2.204, 1, 16.5371, 46.5668, -0.346763, 54.3521, -55.175, 74.6695
2.208, 1, 16.598, 46.571, -0.387922, 54.4838, -55.1627, 74.5716
2.212, 1, 16.6588, 46.5751, -0.429029, 54.6154, -55.1504, 74.4737
2.216, 1, 16.7195, 46.5793, -0.470086, 54.7468, -55.1381, 74.376
2.219, 1, 16.7801, 46.5834, -0.511093, 54.878, -55.1258, 74.2784
2.224, 1, 16.8407, 46.5875, -0.552048, 55.0091, -55.1136, 74.1809
2.228, 1, 16.9011, 46.5916, -0.592954, 55.14, -55.1013, 74.0835
2.232, 1, 16.9615, 46.5958, -0.633809, 55.2708, -55.0891, 73.9863
2.235, 1, 17.0219, 46.5999, -0.674613, 55.4014, -55.0769, 73.8892
2.24, 1, 17.0821, 46.604, -0.715368, 55.5318, -55.0647, 73.7922
2.244, 1, 17.1423, 46.6081, -0.756072, 55.6621, -55.0525, 73.6953
2.248, 1, 17.2024, 46.6122, -0.796726, 55.7922, -55.0403, 73.5985
2.252, 1, 17.2625, 46.6163, -0.83733, 55.9221, -55.0282, 73.5019
2.255, 1, 17.3224, 46.6204, -0.877884, 56.0519, -55.0161, 73.4053
2.259, 1, 17.3823, 46.6245, -0.918389, 56.1816, -55.0039, 73.3089
2.264, 1, 17.4421, 46.6285, -0.958843, 56.3111, -54.9918, 73.2126
2.268, 1, 17.5019, 46.6326, -0.999248, 56.4404, -54.9797, 73.1165
2.272, 1, 17.5616, 46.6367, -1.0396, 56.5695, -54.9677, 73.0204
2.275, 1, 17.6212, 46.6407, -1.07991, 56.6985, -54.9556, 72.9245
2.28, 1, 17.6807, 46.6448, -1.12016, 56.8274, -54.9436, 72.8287
2.284, 1, 17.7401, 46.6489, -1.16037, 56.9561, -54.9315, 72.733
2.288, 1, 17.7995, 46.6529, -1.20053, 57.0846, -54.9195, 72.6374
2.291, 1, 17.8588, 46.657, -1.24064, 57.2129, -54.9075, 72.5419
2.296, 1, 17.918, 46.661, -1.2807, 57.3412, -54.8955, 72.4466
2.3, 1, 17.9772, 46.665, -1.32071, 57.4692, -54.8836, 72.3513
2.304, 1, 18.0363, 46.6691, -1.36067, 57.5971, -54.8716, 72.2562
2.308, 1, 18.0953, 46.6731, -1.40058, 57.7248, -54.8597, 72.1612
2.311, 1, 18.1542, 46.6771, -1.44044, 57.8524, -54.8477, 72.0663
2.316, 1, 18.2131, 46.6811, -1.48025, 57.9799, -54.8358, 71.9716
2.32, 1, 18.2719, 46.6851, -1.52002, 58.1071, -54.8239, 71.8769
2.324, 1, 18.3306, 46.6891, -1.55974, 58.2342, -54.812, 71.7824
2.328, 1, 18.3893, 46.6931, -1.5994, 58.3612, -54.8002, 71.688
2.331, 1, 18.4479, 46.6971, -1.63902, 58.488, -54.7883, 71.5937
2.336, 1, 18.5064, 46.7011, -1.6786, 58.6147, -54.7765, 71.4995
2.34, 1, 18.5648, 46.7051, -1.71812, 58.7411, -54.7646, 71.4054
2.344, 1, 18.6232, 46.7091, -1.75759, 58.8675, -54.7528, 71.3115
2.347, 1, 18.6815, 46.7131, -1.79702, 58.9937, -54.741, 71.2176
2.352, 1, 18.7397, 46.717, -1.8364, 59.1197, -54.7292, 71.1239
2.356, 1, 18.7979, 46.721, -1.87573, 59.2456, -54.7175, 71.0303
2.36, 1, 18.856, 46.7249, -1.91501, 59.3713, -54.7057, 70.9368
2.364, 1, 18.914, 46.7289, -1.95425, 59.4969, -54.694, 70.8434
2.367, 1, 18.972, 46.7328, -1.99344, 59.6223, -54.6823, 70.7501
2.372, 1, 19.0298, 46.7368, -2.03258, 59.7476, -54.6705, 70.6569
2.376, 1, 19.0877, 46.7407, -2.07167, 59.8727, -54.6588, 70.5639
2.38, 1, 19.1454, 46.7447, -2.11072, 59.9977, -54.6472, 70.4709
2.383, 1, 19.2031, 46.7486, -2.14972, 60.1225, -54.6355, 70.3781
2.388, 1, 19.2607, 46.7525, -2.18867, 60.2472, -54.6238, 70.2854
2.392, 1, 19.3182, 46.7565, -2.22758, 60.3717, -54.6122, 70.1928
2.396, 1, 19.3757, 46.7604, -2.26644, 60.4961, -54.6006, 70.1003
2.4, 1, 19.433, 46.7643, -2.30525, 60.6203, -54.589, 70.0079
2.403, 1, 19.4904, 46.7682, -2.34402, 60.7444, -54.5774, 69.9156
2.408, 1, 19.5476, 46.7721, -2.38274, 60.8683, -54.5658, 69.8235
2.412, 1, 19.6048, 46.776, -2.42141, 60.9921, -54.5542, 69.7314
2.416, 1, 19.6619, 46.7799, -2.46004, 61.1157, -54.5426, 69.6395
2.42, 1, 19.719, 46.7838, -2.49862, 61.2392, -54.5311, 69.5476
2.423, 1, 19.776, 46.7877, -2.53716, 61.3625, -54.5196, 69.4559
2.428, 1, 19.8329, 46.7915, -2.57565, 61.4857, -54.508, 69.3643
2.432, 1, 19.8897, 46.7954, -2.61409, 61.6088, -54.4965, 69.2728
2.436, 1, 19.9465, 46.7993, -2.65249, 61.7317, -54.485, 69.1814
2.439, 1, 20.0032, 46.8032, -2.69084, 61.8544, -54.4736, 69.0901
2.444, 1, 20.0599, 46.807, -2.72915, 61.977, -54.4621, 68.9989
2.448, 1, 20.1165, 46.8109, -2.76741, 62.0995, -54.4507, 68.9079
2.452, 1, 20.173, 46.8147, -2.80563, 62.2218, -54.4392, 68.8169
2.456, 1, 20.2294, 46.8186, -2.8438, 62.344, -54.4278, 68.726
2.459, 1, 20.2858, 46.8224, -2.88193, 62.466, -54.4164, 68.6353
2.464, 1, 20.3421, 46.8263, -2.92001, 62.5879, -54.405, 68.5446
2.468, 1, 20.3983, 46.8301, -2.95805, 62.7096, -54.3936, 68.4541
2.472, 1, 20.4545, 46.8339, -2.99604, 62.8312, -54.3823, 68.3637
2.476, 1, 20.5106, 46.8378, -3.03399, 62.9527, -54.3709, 68.2733
2.479, 1, 20.5667, 46.8416, -3.07189, 63.074, -54.3596, 68.1831
2.484, 1, 20.6227, 46.8454, -3.10975, 63.1952, -54.3482, 68.093
2.488, 1, 20.6786, 46.8492, -3.14757, 63.3162, -54.3369, 68.003
2.492, 1, 20.7344, 46.853, -3.18534, 63.4371, -54.3256, 67.9131
2.495, 1, 20.7902, 46.8568, -3.22307, 63.5578, -54.3143, 67.8233
2.5, 1, 20.846, 46.8606, -3.26075, 63.6784, -54.303, 67.7336
2.504, 1, 20.9016, 46.8644, -3.29839, 63.7989, -54.2918, 67.644
2.508, 1, 20.9572, 46.8682, -3.33598, 63.9192, -54.2805, 67.5545
2.512, 1, 21.0127, 46.872, -3.37354, 64.0394, -54.2693, 67.4651
2.515, 1, 21.0682, 46.8758, -3.41104, 64.1595, -54.2581, 67.3759
2.52, 1, 21.1236, 46.8795, -3.44851, 64.2794, -54.2469, 67.2867
2.524, 1, 21.1789, 46.8833, -3.48593, 64.3992, -54.2357, 67.1976
2.528, 1, 21.2342, 46.8871, -3.52331, 64.5188, -54.2245, 67.1087
2.531, 1, 21.2894, 46.8909, -3.56064, 64.6383, -54.2133, 67.0198
2.536, 1, 21.3446, 46.8946, -3.59793, 64.7576, -54.2021, 66.931
2.54, 1, 21.3996, 46.8984, -3.63518, 64.8769, -54.191, 66.8424
2.544, 1, 21.4547, 46.9021, -3.67239, 64.9959, -54.1799, 66.7538
2.548, 1, 21.5096, 46.9059, -3.70955, 65.1149, -54.1687, 66.6654
2.551, 1, 21.5645, 46.9096, -3.74667, 65.2337, -54.1576, 66.577
2.556, 1, 21.6193, 46.9133, -3.78375, 65.3524, -54.1465, 66.4887
2.56, 1, 21.6741, 46.9171, -3.82079, 65.4709, -54.1355, 66.4006
2.564, 1, 21.7288, 46.9208, -3.85778, 65.5893, -54.1244, 66.3125
2.568, 1, 21.7834, 46.9245, -3.89473, 65.7076, -54.1133, 66.2246
2.571, 1, 21.838, 46.9283, -3.93164, 65.8257, -54.1023, 66.1367
2.576, 1, 21.8925, 46.932, -3.96851, 65.9437, -54.0913, 66.049
2.58, 1, 21.947, 46.9357, -4.00533, 66.0615, -54.0802, 65.9613
2.584, 1, 22.0014, 46.9394, -4.04211, 66.1793, -54.0692, 65.8738
2.587, 1, 22.0557, 46.9431, -4.07885, 66.2969, -54.0582, 65.7863
2.592, 1, 22.11, 46.9468, -4.11555, 66.4143, -54.0473, 65.699
2.596, 1, 22.1642, 46.9505, -4.15221, 66.5316, -54.0363, 65.6117
2.6, 1, 22.2183, 46.9542, -4.18883, 66.6488, -54.0253, 65.5246
2.604, 1, 22.2724, 46.9579, -4.2254, 66.7659, -54.0144, 65.4375
2.607, 1, 22.3264, 46.9616, -4.26193, 66.8828, -54.0035, 65.3506
2.612, 1, 22.3804, 46.9652, -4.29843, 66.9996, -53.9925, 65.2637
2.616, 1, 22.4343, 46.9689, -4.33488, 67.1163, -53.9816, 65.1769
2.62, 1, 22.4881, 46.9726, -4.37129, 67.2328, -53.9707, 65.0903
2.624, 1, 22.5419, 46.9762, -4.40766, 67.3492, -53.9599, 65.0037
2.627, 1, 22.5956, 46.9799, -4.44398, 67.4655, -53.949, 64.9172
2.632, 1, 22.6493, 46.9836, -4.48027, 67.5816, -53.9381, 64.8309
2.636, 1, 22.7029, 46.9872, -4.51652, 67.6976, -53.9273, 64.7446
2.64, 1, 22.7564, 46.9909, -4.55272, 67.8135, -53.9164, 64.6584
2.643, 1, 22.8099, 46.9945, -4.58889, 67.9293, -53.9056, 64.5723
2.648, 1, 22.8633, 46.9982, -4.62501, 68.0449, -53.8948, 64.4863
2.652, 1, 22.9167, 47.0018, -4.6611, 68.1604, -53.884, 64.4005
2.656, 1, 22.97, 47.0054, -4.69714, 68.2757, -53.8732, 64.3147
2.66, 1, 23.0232, 47.0091, -4.73315, 68.391, -53.8625, 64.229
2.663, 1, 23.0764, 47.0127, -4.76911, 68.5061, -53.8517, 64.1434
2.668, 1, 23.1295, 47.0163, -4.80504, 68.6211, -53.8409, 64.0579
2.672, 1, 23.1826, 47.0199, -4.84092, 68.7359, -53.8302, 63.9724
2.676, 1, 23.2356, 47.0235, -4.87677, 68.8506, -53.8195, 63.8871
2.679, 1, 23.2885, 47.0271, -4.91257, 68.9652, -53.8088, 63.8019
2.684, 1, 23.3414, 47.0308, -4.94834, 69.0797, -53.7981, 63.7168
2.688, 1, 23.3943, 47.0344, -4.98406, 69.194, -53.7874, 63.6317
2.692, 1, 23.447, 47.038, -5.01975, 69.3083, -53.7767, 63.5468
2.696, 1, 23.4997, 47.0415, -5.0554, 69.4224, -53.766, 63.4619
2.699, 1, 23.5524, 47.0451, -5.091, 69.5363, -53.7554, 63.3772
2.704, 1, 23.605, 47.0487, -5.12657, 69.6502, -53.7447, 63.2925
2.708, 1, 23.6575, 47.0523, -5.1621, 69.7639, -53.7341, 63.208
2.712, 1, 23.71, 47.0559, -5.19759, 69.8775, -53.7235, 63.1235
2.716, 1, 23.7624, 47.0595, -5.23304, 69.9909, -53.7129, 63.0391
2.719, 1, 23.8148, 47.063, -5.26846, 70.1043, -53.7023, 62.9548
2.724, 1, 23.8671, 47.0666, -5.30383, 70.2175, -53.6917, 62.8706
2.728, 1, 23.9194, 47.0702, -5.33917, 70.3306, -53.6811, 62.7865
2.732, 1, 23.9716, 47.0737, -5.37446, 70.4436, -53.6706, 62.7025
2.735, 1, 24.0237, 47.0773, -5.40972, 70.5564, -53.66, 62.6185
2.74, 1, 24.0758, 47.0808, -5.44495, 70.6691, -53.6495, 62.5347
2.744, 1, 24.1278, 47.0844, -5.48013, 70.7818, -53.6389, 62.451
2.748, 1, 24.1798, 47.0879, -5.51527, 70.8942, -53.6284, 62.3673
2.752, 1, 24.2317, 47.0914, -5.55038, 71.0066, -53.6179, 62.2838
2.755, 1, 24.2836, 47.095, -5.58545, 71.1188, -53.6074, 62.2003
2.76, 1, 24.3354, 47.0985, -5.62048, 71.231, -53.5969, 62.1169
2.764, 1, 24.3871, 47.102, -5.65548, 71.343, -53.5865, 62.0336
2.768, 1, 24.4388, 47.1056, -5.69043, 71.4548, -53.576, 61.9504
2.772, 1, 24.4905, 47.1091, -5.72535, 71.5666, -53.5656, 61.8673
2.775, 1, 24.542, 47.1126, -5.76023, 71.6783, -53.5551, 61.7843
2.78, 1, 24.5936, 47.1161, -5.79508, 71.7898, -53.5447, 61.7013
2.784, 1, 24.645, 47.1196, -5.82989, 71.9012, -53.5343, 61.6185
2.788, 1, 24.6965, 47.1231, -5.86466, 72.0125, -53.5239, 61.5357
2.791, 1, 24.7478, 47.1266, -5.89939, 72.1236, -53.5135, 61.453
2.796, 1, 24.7991, 47.1301, -5.93409, 72.2347, -53.5031, 61.3704
2.8, 1, 24.8504, 47.1336, -5.96875, 72.3456, -53.4927, 61.2879
2.804, 1, 24.9016, 47.1371, -6.00337, 72.4565, -53.4824, 61.2055
2.808, 1, 24.9527, 47.1406, -6.03796, 72.5672, -53.472, 61.1232
2.811, 1, 25.0038, 47.1441, -6.07251, 72.6777, -53.4617, 61.041
2.816, 1, 25.0549, 47.1476, -6.10703, 72.7882, -53.4514, 60.9588
2.82, 1, 25.1059, 47.151, -6.14151, 72.8986, -53.441, 60.8767
2.824, 1, 25.1568, 47.1545, -6.17595, 73.0088, -53.4307, 60.7947
2.828, 1, 25.2077, 47.158, -6.21036, 73.1189, -53.4204, 60.7129
2.831, 1, 25.2585, 47.1614, -6.24473, 73.2289, -53.4101, 60.631
2.836, 1, 25.3093, 47.1649, -6.27906, 73.3388, -53.3999, 60.5493
2.84, 1, 25.36, 47.1684, -6.31336, 73.4486, -53.3896, 60.4677
2.844, 1, 25.4107, 47.1718, -6.34763, 73.5583, -53.3794, 60.3861
2.847, 1, 25.4613, 47.1753, -6.38185, 73.6678, -53.3691, 60.3046
2.852, 1, 25.5118, 47.1787, -6.41605, 73.7773, -53.3589, 60.2233
2.856, 1, 25.5623, 47.1822, -6.4502, 73.8866, -53.3487, 60.142
2.86, 1, 25.6128, 47.1856, -6.48433, 73.9958, -53.3384, 60.0607
2.864, 1, 25.6632, 47.189, -6.51841, 74.1049, -53.3282, 59.9796
2.867, 1, 25.7136, 47.1925, -6.55247, 74.2139, -53.3181, 59.8985
2.872, 1, 25.7639, 47.1959, -6.58648, 74.3228, -53.3079, 59.8176
2.876, 1, 25.8141, 47.1993, -6.62047, 74.4315, -53.2977, 59.7367
2.88, 1, 25.8643, 47.2027, -6.65441, 74.5402, -53.2876, 59.6559
2.883, 1, 25.9145, 47.2062, -6.68833, 74.6487, -53.2774, 59.5752
2.888, 1, 25.9646, 47.2096, -6.72221, 74.7571, -53.2673, 59.4945
2.892, 1, 26.0146, 47.213, -6.75605, 74.8655, -53.2571, 59.414
2.896, 1, 26.0646, 47.2164, -6.78986, 74.9737, -53.247, 59.3335
2.9, 1, 26.1146, 47.2198, -6.82363, 75.0818, -53.2369, 59.2531
2.903, 1, 26.1645, 47.2232, -6.85737, 75.1898, -53.2268, 59.1728
2.908, 1, 26.2143, 47.2266, -6.89108, 75.2977, -53.2167, 59.0926
2.912, 1, 26.2641, 47.23, -6.92475, 75.4054, -53.2067, 59.0124
2.916, 1, 26.3138, 47.2334, -6.95839, 75.5131, -53.1966, 58.9323
2.92, 1, 26.3635, 47.2368, -6.992, 75.6207, -53.1865, 58.8523
2.923, 1, 26.4132, 47.2402, -7.02557, 75.7281, -53.1765, 58.7724
2.928, 1, 26.4628, 47.2435, -7.05911, 75.8354, -53.1665, 58.6926
2.932, 1, 26.5123, 47.2469, -7.09261, 75.9427, -53.1564, 58.6129
2.936, 1, 26.5618, 47.2503, -7.12608, 76.0498, -53.1464, 58.5332
2.939, 1, 26.6113, 47.2537, -7.15952, 76.1568, -53.1364, 58.4536
2.944, 1, 26.6606, 47.257, -7.19292, 76.2637, -53.1264, 58.3741
2.948, 1, 26.71, 47.2604, -7.22629, 76.3705, -53.1164, 58.2947
2.952, 1, 26.7593, 47.2638, -7.25963, 76.4772, -53.1064, 58.2153
2.956, 1, 26.8085, 47.2671, -7.29293, 76.5838, -53.0965, 58.1361
2.959, 1, 26.8577, 47.2705, -7.3262, 76.6903, -53.0865, 58.0569
2.964, 1, 26.9069, 47.2738, -7.35944, 76.7967, -53.0766, 57.9777
2.968, 1, 26.956, 47.2772, -7.39265, 76.903, -53.0667, 57.8987
2.972, 1, 27.005, 47.2805, -7.42582, 77.0091, -53.0567, 57.8197
2.976, 1, 27.0541, 47.2838, -7.45896, 77.1152, -53.0468, 57.7409
2.98, 1, 27.103, 47.2872, -7.49207, 77.2212, -53.0369, 57.6621
2.984, 1, 27.1519, 47.2905, -7.52514, 77.327, -53.027, 57.5833
2.988, 1, 27.2008, 47.2938, -7.55818, 77.4328, -53.0171, 57.5047
2.992, 1, 27.2496, 47.2972, -7.59119, 77.5384, -53.0072, 57.4261
2.995, 1, 27.2984, 47.3005, -7.62417, 77.644, -52.9974, 57.3476
3, 1, 27.3471, 47.3038, -7.65711, 77.7494, -52.9875, 57.2692
3.004, 1, 27.3957, 47.3071, -7.69003, 77.8548, -52.9777, 57.1909
3.008, 1, 27.4444, 47.3105, -7.72291, 77.96, -52.9678, 57.1126
3.012, 1, 27.4929, 47.3138, -7.75576, 78.0651, -52.958, 57.0344
3.015, 1, 27.5415, 47.3171, -7.78857, 78.1702, -52.9482, 56.9563
3.02, 1, 27.59, 47.3204, -7.82136, 78.2751, -52.9384, 56.8783
3.024, 1, 27.6384, 47.3237, -7.85411, 78.3799, -52.9286, 56.8003
3.028, 1, 27.6868, 47.327, -7.88684, 78.4847, -52.9188, 56.7224
3.031, 1, 27.7351, 47.3303, -7.91953, 78.5893, -52.909, 56.6446
3.036, 1, 27.7834, 47.3336, -7.95219, 78.6938, -52.8992, 56.5669
3.04, 1, 27.8317, 47.3369, -7.98481, 78.7983, -52.8895, 56.4892
3.044, 1, 27.8799, 47.3401, -8.01741, 78.9026, -52.8797, 56.4116
3.048, 1, 27.928, 47.3434, -8.04997, 79.0068, -52.87, 56.3341
3.051, 1, 27.9761, 47.3467, -8.08251, 79.1109, -52.8602, 56.2567
3.056, 1, 28.0242, 47.35, -8.11501, 79.215, -52.8505, 56.1793
3.06, 1, 28.0722, 47.3533, -8.14748, 79.3189, -52.8408, 56.102
3.064, 1, 28.1202, 47.3565, -8.17992, 79.4227, -52.8311, 56.0248
3.068, 1, 28.1681, 47.3598, -8.21233, 79.5265, -52.8214, 55.9477
3.071, 1, 28.216, 47.3631, -8.24471, 79.6301, -52.8117, 55.8706
3.076, 1, 28.2638, 47.3663, -8.27706, 79.7336, -52.802, 55.7936
3.08, 1, 28.3116, 47.3696, -8.30938, 79.8371, -52.7923, 55.7167
3.084, 1, 28.3593, 47.3728, -8.34166, 79.9404, -52.7827, 55.6398
3.087, 1, 28.407, 47.3761, -8.37392, 80.0436, -52.773, 55.563
3.092, 1, 28.4547, 47.3793, -8.40614, 80.1468, -52.7634, 55.4863
3.096, 1, 28.5023, 47.3826, -8.43834, 80.2498, -52.7537, 55.4097
3.1, 1, 28.5499, 47.3858, -8.4705, 80.3528, -52.7441, 55.3331
3.104, 1, 28.5974, 47.3891, -8.50264, 80.4556, -52.7345, 55.2566
3.107, 1, 28.6449, 47.3923, -8.53475, 80.5584, -52.7249, 55.1802
3.112, 1, 28.6923, 47.3955, -8.56682, 80.661, -52.7153, 55.1039
3.116, 1, 28.7397, 47.3988, -8.59886, 80.7636, -52.7057, 55.0276
3.12, 1, 28.787, 47.402, -8.63088, 80.8661, -52.6961, 54.9514
3.124, 1, 28.8343, 47.4052, -8.66286, 80.9684, -52.6866, 54.8753
3.128, 1, 28.8816, 47.4084, -8.69482, 81.0707, -52.677, 54.7992
3.132, 1, 28.9288, 47.4116, -8.72674, 81.1729, -52.6674, 54.7232
3.136, 1, 28.976, 47.4149, -8.75864, 81.275, -52.6579, 54.6473
3.14, 1, 29.0231, 47.4181, -8.79051, 81.377, -52.6484, 54.5714
3.143, 1, 29.0702, 47.4213, -8.82234, 81.4789, -52.6388, 54.4957
3.148, 1, 29.1172, 47.4245, -8.85415, 81.5807, -52.6293, 54.42
3.152, 1, 29.1642, 47.4277, -8.88593, 81.6824, -52.6198, 54.3443
3.156, 1, 29.2111, 47.4309, -8.91768, 81.784, -52.6103, 54.2687
3.16, 1, 29.258, 47.4341, -8.9494, 81.8855, -52.6008, 54.1932
3.163, 1, 29.3049, 47.4373, -8.98109, 81.987, -52.5913, 54.1178
3.168, 1, 29.3517, 47.4405, -9.01275, 82.0883, -52.5819, 54.0424
3.172, 1, 29.3985, 47.4437, -9.04438, 82.1895, -52.5724, 53.9672
3.176, 1, 29.4452, 47.4468, -9.07599, 82.2907, -52.5629, 53.8919
3.179, 1, 29.4919, 47.45, -9.10756, 82.3918, -52.5535, 53.8168
3.184, 1, 29.5386, 47.4532, -9.13911, 82.4927, -52.544, 53.7417
3.188, 1, 29.5852, 47.4564, -9.17063, 82.5936, -52.5346, 53.6667
3.192, 1, 29.6318, 47.4596, -9.20212, 82.6944, -52.5252, 53.5917
3.196, 1, 29.6783, 47.4627, -9.23358, 82.7951, -52.5158, 53.5168
3.199, 1, 29.7248, 47.4659, -9.26501, 82.8957, -52.5064, 53.442
3.204, 1, 29.7712, 47.4691, -9.29642, 82.9962, -52.497, 53.3672
3.208, 1, 29.8176, 47.4722, -9.32779, 83.0966, -52.4876, 53.2926
3.212, 1, 29.864, 47.4754, -9.35914, 83.197, -52.4782, 53.2179
3.216, 1, 29.9103, 47.4785, -9.39046, 83.2972, -52.4688, 53.1434
3.22, 1, 29.9566, 47.4817, -9.42176, 83.3974, -52.4595, 53.0689
3.224, 1, 30.0028, 47.4849, -9.45302, 83.4974, -52.4501, 52.9945
3.228, 1, 30.049, 47.488, -9.48426, 83.5974, -52.4408, 52.9201
3.232, 1, 30.0951, 47.4912, -9.51547, 83.6973, -52.4314, 52.8459
3.235, 1, 30.1412, 47.4943, -9.54665, 83.7971, -52.4221, 52.7716
3.24, 1, 30.1873, 47.4974, -9.5778, 83.8968, -52.4128, 52.6975
3.244, 1, 30.2333, 47.5006, -9.60893, 83.9964, -52.4035, 52.6234
3.248, 1, 30.2793, 47.5037, -9.64003, 84.096, -52.3942, 52.5494
3.252, 1, 30.3253, 47.5068, -9.6711, 84.1954, -52.3849, 52.4754
3.255, 1, 30.3712, 47.51, -9.70214, 84.2948, -52.3756, 52.4015
3.26, 1, 30.417, 47.5131, -9.73316, 84.3941, -52.3663, 52.3277
3.264, 1, 30.4629, 47.5162, -9.76415, 84.4932, -52.357, 52.2539
3.268, 1, 30.5087, 47.5193, -9.79511, 84.5923, -52.3477, 52.1802
3.272, 1, 30.5544, 47.5225, -9.82605, 84.6914, -52.3385, 52.1066
3.276, 1, 30.6001, 47.5256, -9.85696, 84.7903, -52.3292, 52.033
3.28, 1, 30.6458, 47.5287, -9.88784, 84.8891, -52.32, 51.9595
3.284, 1, 30.6914, 47.5318, -9.9187, 84.9879, -52.3108, 51.8861
3.288, 1, 30.737, 47.5349, -9.94952, 85.0865, -52.3015, 51.8127
3.291, 1, 30.7825, 47.538, -9.98033, 85.1851, -52.2923, 51.7394
3.296, 1, 30.828, 47.5411, -10.0111, 85.2836, -52.2831, 51.6661
3.3, 1, 30.8735, 47.5442, -10.0418, 85.3821, -52.2739, 51.5929
3.304, 1, 30.919, 47.5473, -10.0726, 85.4804, -52.2647, 51.5198
3.308, 1, 30.9643, 47.5504, -10.1033, 85.5786, -52.2555, 51.4467
3.312, 1, 31.0097, 47.5535, -10.1339, 85.6768, -52.2464, 51.3737
3.316, 1, 31.055, 47.5566, -10.1646, 85.7749, -52.2372, 51.3008
3.32, 1, 31.1003, 47.5597, -10.1952, 85.8729, -52.228, 51.2279
3.324, 1, 31.1455, 47.5628, -10.2258, 85.9708, -52.2189, 51.1551
3.328, 1, 31.1907, 47.5658, -10.2564, 86.0686, -52.2097, 51.0824
3.332, 1, 31.2359, 47.5689, -10.2869, 86.1663, -52.2006, 51.0097
3.336, 1, 31.281, 47.572, -10.3174, 86.264, -52.1915, 50.937
3.34, 1, 31.3261, 47.5751, -10.3479, 86.3616, -52.1823, 50.8645
3.344, 1, 31.3711, 47.5781, -10.3784, 86.4591, -52.1732, 50.792
3.347, 1, 31.4161, 47.5812, -10.4088, 86.5565, -52.1641, 50.7195
3.352, 1, 31.4611, 47.5843, -10.4392, 86.6538, -52.155, 50.6471
3.356, 1, 31.506, 47.5873, -10.4696, 86.7511, -52.1459, 50.5748
3.36, 1, 31.5509, 47.5904, -10.4999, 86.8482, -52.1368, 50.5025
3.364, 1, 31.5958, 47.5934, -10.5303, 86.9453, -52.1278, 50.4303
3.368, 1, 31.6406, 47.5965, -10.5606, 87.0423, -52.1187, 50.3582
3.372, 1, 31.6854, 47.5996, -10.5909, 87.1393, -52.1096, 50.2861
3.376, 1, 31.7301, 47.6026, -10.6211, 87.2361, -52.1006, 50.2141
3.38, 1, 31.7748, 47.6056, -10.6514, 87.3329, -52.0915, 50.1421
3.383, 1, 31.8195, 47.6087, -10.6816, 87.4295, -52.0825, 50.0702
3.388, 1, 31.8641, 47.6117, -10.7117, 87.5261, -52.0735, 49.9984
3.392, 1, 31.9087, 47.6148, -10.7419, 87.6227, -52.0644, 49.9266
3.396, 1, 31.9533, 47.6178, -10.772, 87.7191, -52.0554, 49.8549
3.4, 1, 31.9978, 47.6208, -10.8021, 87.8155, -52.0464, 49.7832
3.403, 1, 32.0423, 47.6239, -10.8322, 87.9117, -52.0374, 49.7116
3.408, 1, 32.0867, 47.6269, -10.8623, 88.0079, -52.0284, 49.6401
3.412, 1, 32.1311, 47.6299, -10.8923, 88.1041, -52.0194, 49.5686
3.416, 1, 32.1755, 47.633, -10.9223, 88.2001, -52.0104, 49.4972
3.42, 1, 32.2199, 47.636, -10.9523, 88.2961, -52.0015, 49.4258
3.424, 1, 32.2642, 47.639, -10.9823, 88.392, -51.9925, 49.3545
3.428, 1, 32.3084, 47.642, -11.0122, 88.4878, -51.9835, 49.2832
3.432, 1, 32.3526, 47.645, -11.0421, 88.5835, -51.9746, 49.212
3.436, 1, 32.3968, 47.648, -11.072, 88.6792, -51.9657, 49.1409
3.439, 1, 32.441, 47.6511, -11.1019, 88.7747, -51.9567, 49.0698
3.444, 1, 32.4851, 47.6541, -11.1317, 88.8702, -51.9478, 48.9988
3.448, 1, 32.5292, 47.6571, -11.1615, 88.9657, -51.9389, 48.9279
3.452, 1, 32.5733, 47.6601, -11.1913, 89.061, -51.93, 48.8569
3.456, 1, 32.6173, 47.6631, -11.2211, 89.1563, -51.9211, 48.7861
3.46, 1, 32.6612, 47.6661, -11.2508, 89.2514, -51.9122, 48.7153
3.464, 1, 32.7052, 47.6691, -11.2805, 89.3466, -51.9033, 48.6446
3.468, 1, 32.7491, 47.6721, -11.3102, 89.4416, -51.8944, 48.5739
3.472, 1, 32.793, 47.6751, -11.3399, 89.5366, -51.8855, 48.5033
3.476, 1, 32.8368, 47.678, -11.3695, 89.6314, -51.8766, 48.4327
3.48, 1, 32.8806, 47.681, -11.3991, 89.7262, -51.8678, 48.3622
3.484, 1, 32.9244, 47.684, -11.4287, 89.821, -51.8589, 48.2918
3.488, 1, 32.9681, 47.687, -11.4583, 89.9156, -51.8501, 48.2214
3.492, 1, 33.0118, 47.69, -11.4879, 90.0102, -51.8412, 48.151
3.495, 1, 33.0555, 47.6929, -11.5174, 90.1047, -51.8324, 48.0807
3.5, 1, 33.0991, 47.6959, -11.5469, 90.1992, -51.8235, 48.0105
3.504, 1, 33.1427, 47.6989, -11.5764, 90.2935, -51.8147, 47.9403
3.508, 1, 33.1862, 47.7019, -11.6058, 90.3878, -51.8059, 47.8702
3.512, 1, 33.2298, 47.7048, -11.6353, 90.482, -51.7971, 47.8002
3.516, 1, 33.2733, 47.7078, -11.6647, 90.5761, -51.7883, 47.7302
3.52, 1, 33.3167, 47.7108, -11.6941, 90.6702, -51.7795, 47.6602
3.524, 1, 33.3601, 47.7137, -11.7234, 90.7642, -51.7707, 47.5903
3.528, 1, 33.4035, 47.7167, -11.7528, 90.8581, -51.7619, 47.5205
3.531, 1, 33.4469, 47.7196, -11.7821, 90.9519, -51.7532, 47.4507
3.536, 1, 33.4902, 47.7226, -11.8114, 91.0457, -51.7444, 47.381
3.54, 1, 33.5335, 47.7255, -11.8407, 91.1394, -51.7356, 47.3113
3.544, 1, 33.5767, 47.7285, -11.8699, 91.233, -51.7269, 47.2417
3.548, 1, 33.62, 47.7314, -11.8991, 91.3265, -51.7181, 47.1721
3.552, 1, 33.6631, 47.7344, -11.9283, 91.42, -51.7094, 47.1026
3.556, 1, 33.7063, 47.7373, -11.9575, 91.5134, -51.7007, 47.0331
3.56, 1, 33.7494, 47.7402, -11.9867, 91.6067, -51.6919, 46.9637
3.564, 1, 33.7925, 47.7432, -12.0158, 91.7, -51.6832, 46.8944
3.568, 1, 33.8355, 47.7461, -12.0449, 91.7931, -51.6745, 46.8251
3.572, 1, 33.8786, 47.7491, -12.074, 91.8863, -51.6658, 46.7558
3.576, 1, 33.9215, 47.752, -12.1031, 91.9793, -51.6571, 46.6866
3.58, 1, 33.9645, 47.7549, -12.1321, 92.0723, -51.6484, 46.6175
3.584, 1, 34.0074, 47.7578, -12.1612, 92.1652, -51.6397, 46.5484
3.587, 1, 34.0503, 47.7608, -12.1902, 92.258, -51.6311, 46.4794
3.592, 1, 34.0932, 47.7637, -12.2191, 92.3507, -51.6224, 46.4104
3.596, 1, 34.136, 47.7666, -12.2481, 92.4434, -51.6137, 46.3415
3.6, 1, 34.1788, 47.7695, -12.277, 92.536, -51.6051, 46.2726
3.604, 1, 34.2215, 47.7724, -12.3059, 92.6285, -51.5964, 46.2038
3.608, 1, 34.2642, 47.7753, -12.3348, 92.721, -51.5878, 46.135
3.612, 1, 34.3069, 47.7783, -12.3637, 92.8134, -51.5791, 46.0663
3.616, 1, 34.3496, 47.7812, -12.3925, 92.9058, -51.5705, 45.9977
3.62, 1, 34.3922, 47.7841, -12.4214, 92.998, -51.5619, 45.929
3.624, 1, 34.4348, 47.787, -12.4502, 93.0902, -51.5533, 45.8605
3.628, 1, 34.4774, 47.7899, -12.479, 93.1823, -51.5446, 45.792
3.632, 1, 34.5199, 47.7928, -12.5077, 93.2744, -51.536, 45.7235
3.636, 1, 34.5624, 47.7957, -12.5365, 93.3664, -51.5274, 45.6551
3.64, 1, 34.6049, 47.7986, -12.5652, 93.4583, -51.5188, 45.5868
3.644, 1, 34.6473, 47.8015, -12.5939, 93.5501, -51.5103, 45.5184
3.648, 1, 34.6897, 47.8043, -12.6225, 93.6419, -51.5017, 45.4502
3.652, 1, 34.7321, 47.8072, -12.6512, 93.7336, -51.4931, 45.382
3.656, 1, 34.7744, 47.8101, -12.6798, 93.8252, -51.4845, 45.3138
3.66, 1, 34.8167, 47.813, -12.7084, 93.9168, -51.476, 45.2457
3.664, 1, 34.859, 47.8159, -12.737, 94.0083, -51.4674, 45.1777
3.668, 1, 34.9013, 47.8188, -12.7656, 94.0998, -51.4589, 45.1097
3.672, 1, 34.9435, 47.8216, -12.7941, 94.1911, -51.4503, 45.0417
3.676, 1, 34.9857, 47.8245, -12.8227, 94.2824, -51.4418, 44.9738
3.679, 1, 35.0278, 47.8274, -12.8512, 94.3737, -51.4333, 44.906
3.684, 1, 35.0699, 47.8303, -12.8797, 94.4648, -51.4247, 44.8382
3.688, 1, 35.1119, 47.8331, -12.9081, 94.5559, -51.4162, 44.7704
3.692, 1, 35.1535, 47.8361, -12.9366, 94.647, -51.4077, 44.7027
3.696, 1, 35.1944, 47.8391, -12.9652, 94.7379, -51.3992, 44.6351
3.7, 1, 35.2345, 47.8422, -12.9937, 94.8286, -51.3908, 44.5676
3.704, 1, 35.2735, 47.8455, -13.0224, 94.919, -51.3824, 44.5004
3.708, 1, 35.3112, 47.849, -13.051, 95.0089, -51.3741, 44.4335
3.712, 1, 35.3476, 47.8527, -13.0796, 95.098, -51.3659, 44.3671
3.716, 1, 35.3827, 47.8565, -13.108, 95.1861, -51.3579, 44.3016
3.72, 1, 35.4165, 47.8604, -13.136, 95.2725, -51.35, 44.2372
3.724, 1, 35.4491, 47.8644, -13.1635, 95.357, -51.3423, 44.1743
3.728, 1, 35.4807, 47.8683, -13.1902, 95.4389, -51.3348, 44.1133
3.732, 1, 35.511, 47.872, -13.2159, 95.5177, -51.3276, 44.0546
3.735, 1, 35.5401, 47.8756, -13.2405, 95.593, -51.3208, 43.9985
3.74, 1, 35.568, 47.8789, -13.2637, 95.6642, -51.3143, 43.9455
3.744, 1, 35.5945, 47.8819, -13.2853, 95.7309, -51.3082, 43.8958
3.748, 1, 35.6198, 47.8845, -13.3052, 95.7927, -51.3025, 43.8498
3.752, 1, 35.6438, 47.8868, -13.3234, 95.8494, -51.2973, 43.8076
3.756, 1, 35.6666, 47.8886, -13.3396, 95.9008, -51.2925, 43.7694
3.76, 1, 35.6883, 47.89, -13.3539, 95.9468, -51.2882, 43.7352
3.764, 1, 35.7089, 47.8909, -13.3662, 95.9874, -51.2843, 43.705
3.768, 1, 35.7283, 47.8914, -13.3768, 96.0228, -51.2809, 43.6787
3.772, 1, 35.7463, 47.8916, -13.3856, 96.0533, -51.2779, 43.6561
3.776, 1, 35.7628, 47.8914, -13.3928, 96.0791, -51.2754, 43.637
3.78, 1, 35.7777, 47.8911, -13.3987, 96.1008, -51.2732, 43.6209
3.784, 1, 35.7909, 47.8907, -13.4034, 96.1187, -51.2713, 43.6077
3.788, 2, 35.8025, 47.8901, -13.407, 96.1333, -51.2698, 43.5969
3.792, 2, 35.8126, 47.8895, -13.4098, 96.1449, -51.2686, 43.5883
3.796, 2, 35.8214, 47.8889, -13.4119, 96.1541, -51.2676, 43.5816
3.8, 2, 35.8293, 47.8882, -13.4133, 96.1611, -51.2668, 43.5764
3.804, 2, 35.8363, 47.8876, -13.4143, 96.1664, -51.2661, 43.5725
3.808, 2, 35.8423, 47.8869, -13.4149, 96.1703, -51.2657, 43.5697
3.812, 2, 35.8476, 47.8864, -13.4152, 96.1731, -51.2653, 43.5676
3.816, 2, 35.8519, 47.8859, -13.4153, 96.1751, -51.265, 43.5662
3.82, 2, 35.8553, 47.8855, -13.4154, 96.1765, -51.2648, 43.5652
3.824, 2, 35.8579, 47.8852, -13.4154, 96.1774, -51.2647, 43.5645
3.828, 2, 35.8597, 47.885, -13.4155, 96.1781, -51.2646, 43.564
3.832, 2, 35.861, 47.8849, -13.4155, 96.1785, -51.2645, 43.5637
3.836, 2, 35.8618, 47.8848, -13.4155, 96.1788, -51.2645, 43.5635
3.84, 2, 35.8624, 47.8848, -13.4155, 96.179, -51.2645, 43.5634
3.844, 2, 35.8628, 47.8847, -13.4155, 96.1791, -51.2644, 43.5633
3.848, 2, 35.8631, 47.8847, -13.4155, 96.1792, -51.2644, 43.5632
3.852, 2, 35.8632, 47.8847, -13.4155, 96.1793, -51.2644, 43.5632
3.856, 2, 35.8634, 47.8846, -13.4155, 96.1793, -51.2644, 43.5631
3.86, 2, 35.8634, 47.8846, -13.4155, 96.1793, -51.2644, 43.5631
3.864, 2, 35.8635, 47.8846, -13.4155, 96.1794, -51.2644, 43.5631
3.868, 2, 35.8635, 47.8846, -13.4155, 96.1794, -51.2644, 43.5631
3.872, 2, 35.8636, 47.8846, -13.4155, 96.1794, -51.2644, 43.5631
3.876, 2, 35.8636, 47.8846, -13.4155, 96.1794, -51.2644, 43.5631
3.88, 2, 35.8636, 47.8846, -13.4155, 96.1794, -51.2644, 43.5631
3.884, 2, 35.8636, 47.8846, -13.4155, 96.1794, -51.2644, 43.5631
3.888, 2, 35.8636, 47.8846, -13.4155, 96.1794, -51.2644, 43.5631
3.892, 2, 35.8636, 47.8846, -13.4155, 96.1794, -51.2644, 43.5631
3.896, 2, 35.8636, 47.8846, -13.4155, 96.1794, -51.2644, 43.5631
3.9, 2, 35.8636, 47.8846, -13.4155, 96.1794, -51.2644, 43.5631
3.904, 2, 35.8636, 47.8846, -13.4155, 96.1794, -51.2644, 43.5631
3.908, 2, 35.8636, 47.8846, -13.4155, 96.1794, -51.2644, 43.5631
3.912, 2, 35.8636, 47.8846, -13.4155, 96.1794, -51.2644, 43.5631
3.916, 2, 35.8636, 47.8846, -13.4155, 96.1794, -51.2644, 43.5631
3.92, 2, 35.8636, 47.8846, -13.4155, 96.1794, -51.2644, 43.5631
3.924, 2, 35.8636, 47.8846, -13.4155, 96.1794, -51.2644, 43.5631
3.928, 2, 35.8636, 47.8846, -13.4155, 96.1794, -51.2644, 43.5631
3.932, 2, 35.8636, 47.8846, -13.4155, 96.1794, -51.2644, 43.5631
3.936, 2, 35.8636, 47.8846, -13.4155, 96.1794, -51.2644, 43.5631
3.94, 2, 35.8636, 47.8846, -13.4155, 96.1794, -51.2644, 43.5631
3.944, 2, 35.8636, 47.8846, -13.4155, 96.1794, -51.2644, 43.5631
3.948, 2, 35.8636, 47.8846, -13.4155, 96.1794, -51.2644, 43.5631
3.952, 2, 35.8636, 47.8846, -13.4155, 96.1794, -51.2644, 43.5631
3.956, 2, 35.8636, 47.8846, -13.4155, 96.1794, -51.2644, 43.5631
3.96, 2, 35.8636, 47.8846, -13.4155, 96.1794, -51.2644, 43.5631
3.964, 2, 35.8636, 47.8846, -13.4155, 96.1794, -51.2644, 43.5631
3.968, 2, 35.8636, 47.8846, -13.4155, 96.1794, -51.2644, 43.5631
3.972, 2, 35.8636, 47.8846, -13.4155, 96.1794, -51.2644, 43.5631
3.976, 2, 35.8636, 47.8846, -13.4155, 96.1794, -51.2644, 43.5631
3.98, 2, 35.8636, 47.8846, -13.4155, 96.1794, -51.2644, 43.5631
3.984, 2, 35.8636, 47.8846, -13.4155, 96.1794, -51.2644, 43.5631
3.988, 2, 35.8636, 47.8846, -13.4155, 96.1794, -51.2644, 43.5631
3.992, 2, 35.8636, 47.8846, -13.4155, 96.1794, -51.2644, 43.5631
3.996, 2, 35.8636, 47.8846, -13.4155, 96.1794, -51.2644, 43.5631
3.999, 2, 35.8636, 47.8846, -13.4155, 96.1794, -51.2644, 43.5631
4.004, 2, 35.8636, 47.8846, -13.4155, 96.1794, -51.2644, 43.5631
4.008, 2, 35.8636, 47.8846, -13.4155, 96.1794, -51.2644, 43.5631
4.012, 2, 35.8636, 47.8846, -13.4155, 96.1794, -51.2644, 43.5631
4.016, 2, 35.8636, 47.8846, -13.4155, 96.1794, -51.2644, 43.5631
4.02, 2, 35.8636, 47.8846, -13.4155, 96.1794, -51.2644, 43.5631
4.024, 2, 35.8636, 47.8846, -13.4155, 96.1794, -51.2644, 43.5631
4.028, 2, 35.8636, 47.8846, -13.4155, 96.1794, -51.2644, 43.5631
4.032, 2, 35.8636, 47.8846, -13.4155, 96.1794, -51.2644, 43.5631
4.036, 2, 35.8636, 47.8846, -13.4155, 96.1794, -51.2644, 43.5631
4.04, 2, 35.8636, 47.8846, -13.4155, 96.1794, -51.2644, 43.5631
4.044, 2, 35.8636, 47.8846, -13.4155, 96.1794, -51.2644, 43.5631
4.048, 2, 35.8636, 47.8846, -13.4155, 96.1794, -51.2644, 43.5631
4.052, 2, 35.8636, 47.8846, -13.4155, 96.1794, -51.2644, 43.5631
4.056, 2, 35.8636, 47.8846, -13.4155, 96.1794, -51.2644, 43.5631
4.06, 2, 35.8636, 47.8846, -13.4155, 96.1794, -51.2644, 43.5631
4.064, 2, 35.8636, 47.8846, -13.4155, 96.1794, -51.2644, 43.5631
4.068, 2, 35.8636, 47.8846, -13.4155, 96.1794, -51.2644, 43.5631
4.072, 2, 35.8636, 47.8846, -13.4155, 96.1794, -51.2644, 43.5631
4.076, 2, 35.8636, 47.8846, -13.4155, 96.1794, -51.2644, 43.5631
4.08, 2, 35.8636, 47.8846, -13.4155, 96.1794, -51.2644, 43.5631
4.084, 2, 35.8636, 47.8846, -13.4155, 96.1794, -51.2644, 43.5631
4.088, 2, 35.8636, 47.8846, -13.4155, 96.1794, -51.2644, 43.5631
4.092, 2, 35.8636, 47.8846, -13.4155, 96.1794, -51.2644, 43.5631
4.096, 2, 35.8636, 47.8846, -13.4155, 96.1794, -51.2644, 43.5631
4.1, 2, 35.8636, 47.8846, -13.4155, 96.1794, -51.2644, 43.5631
4.104, 2, 35.8636, 47.8846, -13.4155, 96.1794, -51.2644, 43.5631
4.108, 2, 35.8636, 47.8846, -13.4155, 96.1794, -51.2644, 43.5631
4.112, 2, 35.8636, 47.8846, -13.4155, 96.1794, -51.2644, 43.5631
4.116, 2, 35.8636, 47.8846, -13.4155, 96.1794, -51.2644, 43.5631
4.12, 2, 35.8636, 47.8846, -13.4155, 96.1794, -51.2644, 43.5631
4.124, 2, 35.8636, 47.8846, -13.4155, 96.1794, -51.2644, 43.5631
4.128, 2, 35.8636, 47.8846, -13.4155, 96.1794, -51.2644, 43.5631
4.132, 2, 35.8636, 47.8846, -13.4155, 96.1794, -51.2644, 43.5631
4.136, 2, 35.8636, 47.8846, -13.4155, 96.1794, -51.2644, 43.5631
4.14, 2, 35.8636, 47.8846, -13.4155, 96.1794, -51.2644, 43.5631
4.144, 2, 35.8636, 47.8846, -13.4155, 96.1794, -51.2644, 43.5631
4.148, 2, 35.8636, 47.8846, -13.4155, 96.1794, -51.2644, 43.5631
4.152, 2, 35.8636, 47.8846, -13.4155, 96.1794, -51.2644, 43.5631
4.156, 2, 35.8636, 47.8846, -13.4155, 96.1794, -51.2644, 43.5631
4.16, 2, 35.8636, 47.8846, -13.4155, 96.1794, -51.2644, 43.5631
4.164, 2, 35.8636, 47.8846, -13.4155, 96.1794, -51.2644, 43.5631
4.168, 2, 35.8636, 47.8846, -13.4155, 96.1794, -51.2644, 43.5631
4.172, 2, 35.8636, 47.8846, -13.4155, 96.1794, -51.2644, 43.5631
4.176, 2, 35.8636, 47.8846, -13.4155, 96.1794, -51.2644, 43.5631
4.18, 2, 35.8636, 47.8846, -13.4155, 96.1794, -51.2644, 43.5631
4.184, 2, 35.8636, 47.8846, -13.4155, 96.1794, -51.2644, 43.5631
4.188, 2, 35.8636, 47.8846, -13.4155, 96.1794, -51.2644, 43.5631
4.192, 2, 35.8636, 47.8846, -13.4155, 96.1794, -51.2644, 43.5631
4.196, 2, 35.8636, 47.8846, -13.4155, 96.1794, -51.2644, 43.5631
4.2, 2, 35.8636, 47.8846, -13.4155, 96.1794, -51.2644, 43.5631
4.204, 2, 35.8636, 47.8846, -13.4155, 96.1794, -51.2644, 43.5631
4.208, 2, 35.8636, 47.8846, -13.4155, 96.1794, -51.2644, 43.5631
4.212, 2, 35.8636, 47.8846, -13.4155, 96.1794, -51.2644, 43.5631
4.216, 2, 35.8636, 47.8846, -13.4155, 96.1794, -51.2644, 43.5631
4.22, 2, 35.8636, 47.8846, -13.4155, 96.1794, -51.2644, 43.5631
4.224, 2, 35.8636, 47.8846, -13.4155, 96.1794, -51.2644, 43.5631
4.228, 2, 35.8636, 47.8846, -13.4155, 96.1794, -51.2644, 43.5631
4.232, 2, 35.8636, 47.8846, -13.4155, 96.1794, -51.2644, 43.5631
4.236, 2, 35.8636, 47.8846, -13.4155, 96.1794, -51.2644, 43.5631
4.24, 2, 35.8636, 47.8846, -13.4155, 96.1794, -51.2644, 43.5631
4.244, 2, 35.8636, 47.8846, -13.4155, 96.1794, -51.2644, 43.5631
4.248, 2, 35.8636, 47.8846, -13.4155, 96.1794, -51.2644, 43.5631
4.252, 2, 35.8636, 47.8846, -13.4155, 96.1794, -51.2644, 43.5631
4.256, 2, 35.8636, 47.8846, -13.4155, 96.1794, -51.2644, 43.5631
4.26, 2, 35.8636, 47.8846, -13.4155, 96.1794, -51.2644, 43.5631
4.264, 2, 35.8636, 47.8846, -13.4155, 96.1794, -51.2644, 43.5631
4.268, 2, 35.8636, 47.8846, -13.4155, 96.1794, -51.2644, 43.5631
4.272, 2, 35.8636, 47.8846, -13.4155, 96.1794, -51.2644, 43.5631
4.276, 2, 35.8636, 47.8846, -13.4155, 96.1794, -51.2644, 43.5631
4.28, 2, 35.8636, 47.8846, -13.4155, 96.1794, -51.2644, 43.5631
4.284, 2, 35.8636, 47.8846, -13.4155, 96.1794, -51.2644, 43.5631
4.288, 2, 35.8636, 47.8846, -13.4155, 96.1794, -51.2644, 43.5631
4.292, 2, 35.8636, 47.8846, -13.4155, 96.1794, -51.2644, 43.5631
4.296, 2, 35.8636, 47.8846, -13.4155, 96.1794, -51.2644, 43.5631
4.3, 2, 35.8636, 47.8846, -13.4155, 96.1794, -51.2644, 43.5631
4.304, 2, 35.8636, 47.8846, -13.4155, 96.1794, -51.2644, 43.5631
4.308, 2, 35.8636, 47.8846, -13.4155, 96.1794, -51.2644, 43.5631
4.312, 2, 35.8636, 47.8846, -13.4155, 96.1794, -51.2644, 43.5631
4.316, 2, 35.8636, 47.8846, -13.4155, 96.1794, -51.2644, 43.5631
4.32, 2, 35.8636, 47.8846, -13.4155, 96.1794, -51.2644, 43.5631
4.324, 2, 35.8636, 47.8846, -13.4155, 96.1794, -51.2644, 43.5631
4.328, 2, 35.8636, 47.8846, -13.4155, 96.1794, -51.2644, 43.5631
4.332, 2, 35.8636, 47.8846, -13.4155, 96.1794, -51.2644, 43.5631
4.336, 2, 35.8636, 47.8846, -13.4155, 96.1794, -51.2644, 43.5631
4.34, 2, 35.8636, 47.8846, -13.4155, 96.1794, -51.2644, 43.5631
4.344, 2, 35.8636, 47.8846, -13.4155, 96.1794, -51.2644, 43.5631
4.348, 2, 35.8636, 47.8846, -13.4155, 96.1794, -51.2644, 43.5631
4.352, 2, 35.8636, 47.8846, -13.4155, 96.1794, -51.2644, 43.5631
4.356, 2, 35.8636, 47.8846, -13.4155, 96.1794, -51.2644, 43.5631
4.36, 2, 35.8636, 47.8846, -13.4155, 96.1794, -51.2644, 43.5631
4.364, 2, 35.8636, 47.8846, -13.4155, 96.1794, -51.2644, 43.5631
4.368, 2, 35.8636, 47.8846, -13.4155, 96.1794, -51.2644, 43.5631
4.372, 2, 35.8636, 47.8846, -13.4155, 96.1794, -51.2644, 43.5631
4.376, 2, 35.8636, 47.8846, -13.4155, 96.1794, -51.2644, 43.5631
4.38, 2, 35.8636, 47.8846, -13.4155, 96.1794, -51.2644, 43.5631
4.384, 2, 35.8636, 47.8846, -13.4155, 96.1794, -51.2644, 43.5631
4.388, 2, 35.8636, 47.8846, -13.4155, 96.1794, -51.2644, 43.5631
4.392, 2, 35.8636, 47.8846, -13.4155, 96.1794, -51.2644, 43.5631
4.396, 2, 35.8636, 47.8846, -13.4155, 96.1794, -51.2644, 43.5631
4.4, 2, 35.8636, 47.8846, -13.4155, 96.1794, -51.2644, 43.5631
4.404, 2, 35.8636, 47.8846, -13.4155, 96.1794, -51.2644, 43.5631
4.408, 2, 35.8636, 47.8846, -13.4155, 96.1794, -51.2644, 43.5631
4.412, 2, 35.8636, 47.8846, -13.4155, 96.1794, -51.2644, 43.5631
4.416, 2, 35.8636, 47.8846, -13.4155, 96.1794, -51.2644, 43.5631
4.42, 2, 35.8636, 47.8846, -13.4155, 96.1794, -51.2644, 43.5631
4.424, 2, 35.8636, 47.8846, -13.4155, 96.1794, -51.2644, 43.5631
4.428, 2, 35.8636, 47.8846, -13.4155, 96.1794, -51.2644, 43.5631
4.432, 2, 35.8636, 47.8846, -13.4155, 96.1794, -51.2644, 43.5631
4.436, 2, 35.8636, 47.8846, -13.4155, 96.1794, -51.2644, 43.5631
4.44, 2, 35.8636, 47.8846, -13.4155, 96.1794, -51.2644, 43.5631
4.444, 2, 35.8636, 47.8846, -13.4155, 96.1794, -51.2644, 43.5631
4.448, 2, 35.8636, 47.8846, -13.4155, 96.1794, -51.2644, 43.5631
4.452, 2, 35.8636, 47.8846, -13.4155, 96.1794, -51.2644, 43.5631
4.456, 2, 35.8636, 47.8846, -13.4155, 96.1794, -51.2644, 43.5631
4.46, 2, 35.8636, 47.8846, -13.4155, 96.1794, -51.2644, 43.5631
4.464, 2, 35.8636, 47.8846, -13.4155, 96.1794, -51.2644, 43.5631
4.468, 2, 35.8636, 47.8846, -13.4155, 96.1794, -51.2644, 43.5631
4.472, 2, 35.8636, 47.8846, -13.4155, 96.1794, -51.2644, 43.5631
4.476, 2, 35.8636, 47.8846, -13.4155, 96.1794, -51.2644, 43.5631
4.48, 2, 35.8636, 47.8846, -13.4155, 96.1794, -51.2644, 43.5631
4.484, 2, 35.8636, 47.8846, -13.4155, 96.1794, -51.2644, 43.5631
4.488, 2, 35.8636, 47.8846, -13.4155, 96.1794, -51.2644, 43.5631
4.492, 2, 35.8636, 47.8846, -13.4155, 96.1794, -51.2644, 43.5631
4.496, 2, 35.8636, 47.8846, -13.4155, 96.1794, -51.2644, 43.5631
4.5, 2, 35.8636, 47.8846, -13.4155, 96.1794, -51.2644, 43.5631
4.504, 2, 35.8636, 47.8846, -13.4155, 96.1794, -51.2644, 43.5631
4.508, 2, 35.8636, 47.8846, -13.4155, 96.1794, -51.2644, 43.5631
4.512, 2, 35.8636, 47.8846, -13.4155, 96.1794, -51.2644, 43.5631
4.516, 2, 35.8636, 47.8846, -13.4155, 96.1794, -51.2644, 43.5631
4.52, 2, 35.8636, 47.8846, -13.4155, 96.1794, -51.2644, 43.5631
4.524, 2, 35.8636, 47.8846, -13.4155, 96.1794, -51.2644, 43.5631
4.528, 2, 35.8636, 47.8846, -13.4155, 96.1794, -51.2644, 43.5631
4.532, 2, 35.8636, 47.8846, -13.4155, 96.1794, -51.2644, 43.5631
4.536, 2, 35.8636, 47.8846, -13.4155, 96.1794, -51.2644, 43.5631
4.54, 2, 35.8636, 47.8846, -13.4155, 96.1794, -51.2644, 43.5631
4.544, 2, 35.8636, 47.8846, -13.4155, 96.1794, -51.2644, 43.5631
4.548, 2, 35.8636, 47.8846, -13.4155, 96.1794, -51.2644, 43.5631
4.552, 2, 35.8636, 47.8846, -13.4155, 96.1794, -51.2644, 43.5631
4.556, 2, 35.8636, 47.8846, -13.4155, 96.1794, -51.2644, 43.5631
4.56, 2, 35.8636, 47.8846, -13.4155, 96.1794, -51.2644, 43.5631
4.564, 2, 35.8636, 47.8846, -13.4155, 96.1794, -51.2644, 43.5631
4.568, 2, 35.8636, 47.8846, -13.4155, 96.1794, -51.2644, 43.5631
4.572, 2, 35.8636, 47.8846, -13.4155, 96.1794, -51.2644, 43.5631
4.576, 2, 35.8636, 47.8846, -13.4155, 96.1794, -51.2644, 43.5631
4.58, 2, 35.8636, 47.8846, -13.4155, 96.1794, -51.2644, 43.5631
4.584, 2, 35.8636, 47.8846, -13.4155, 96.1794, -51.2644, 43.5631
4.588, 2, 35.8636, 47.8846, -13.4155, 96.1794, -51.2644, 43.5631
4.592, 2, 35.8636, 47.8846, -13.4155, 96.1794, -51.2644, 43.5631
4.596, 2, 35.8636, 47.8846, -13.4155, 96.1794, -51.2644, 43.5631
4.6, 2, 35.8636, 47.8846, -13.4155, 96.1794, -51.2644, 43.5631
4.604, 2, 35.8636, 47.8846, -13.4155, 96.1794, -51.2644, 43.5631
4.608, 2, 35.8636, 47.8846, -13.4155, 96.1794, -51.2644, 43.5631
4.612, 2, 35.8636, 47.8846, -13.4155, 96.1794, -51.2644, 43.5631
4.616, 2, 35.8636, 47.8846, -13.4155, 96.1794, -51.2644, 43.5631
4.62, 2, 35.8636, 47.8846, -13.4155, 96.1794, -51.2644, 43.5631
4.624, 2, 35.8636, 47.8846, -13.4155, 96.1794, -51.2644, 43.5631
4.628, 2, 35.8636, 47.8846, -13.4155, 96.1794, -51.2644, 43.5631
4.632, 2, 35.8636, 47.8846, -13.4155, 96.1794, -51.2644, 43.5631
4.636, 2, 35.8636, 47.8846, -13.4155, 96.1794, -51.2644, 43.5631
4.64, 2, 35.8636, 47.8846, -13.4155, 96.1794, -51.2644, 43.5631
4.644, 2, 35.8636, 47.8846, -13.4155, 96.1794, -51.2644, 43.5631
4.648, 2, 35.8636, 47.8846, -13.4155, 96.1794, -51.2644, 43.5631
4.652, 2, 35.8636, 47.8846, -13.4155, 96.1794, -51.2644, 43.5631
4.656, 2, 35.8636, 47.8846, -13.4155, 96.1794, -51.2644, 43.5631
4.66, 2, 35.8636, 47.8846, -13.4155, 96.1794, -51.2644, 43.5631
4.664, 2, 35.8636, 47.8846, -13.4155, 96.1794, -51.2644, 43.5631
4.668, 2, 35.8636, 47.8846, -13.4155, 96.1794, -51.2644, 43.5631
4.672, 2, 35.8636, 47.8846, -13.4155, 96.1794, -51.2644, 43.5631
4.676, 2, 35.8636, 47.8846, -13.4155, 96.1794, -51.2644, 43.5631
4.68, 2, 35.8636, 47.8846, -13.4155, 96.1794, -51.2644, 43.5631
4.684, 2, 35.8636, 47.8846, -13.4155, 96.1794, -51.2644, 43.5631
4.688, 2, 35.8636, 47.8846, -13.4155, 96.1794, -51.2644, 43.5631
4.692, 2, 35.8636, 47.8846, -13.4155, 96.1794, -51.2644, 43.5631
4.696, 2, 35.8636, 47.8846, -13.4155, 96.1794, -51.2644, 43.5631
4.7, 2, 35.8636, 47.8846, -13.4155, 96.1794, -51.2644, 43.5631
4.704, 2, 35.8636, 47.8846, -13.4155, 96.1794, -51.2644, 43.5631
4.708, 2, 35.8636, 47.8846, -13.4155, 96.1794, -51.2644, 43.5631
4.712, 2, 35.8636, 47.8846, -13.4155, 96.1794, -51.2644, 43.5631
4.716, 2, 35.8636, 47.8846, -13.4155, 96.1794, -51.2644, 43.5631
4.72, 2, 35.8636, 47.8846, -13.4155, 96.1794, -51.2644, 43.5631
4.724, 2, 35.8636, 47.8846, -13.4155, 96.1794, -51.2644, 43.5631
4.728, 2, 35.8636, 47.8846, -13.4155, 96.1794, -51.2644, 43.5631
4.732, 2, 35.8636, 47.8846, -13.4155, 96.1794, -51.2644, 43.5631
4.736, 2, 35.8636, 47.8846, -13.4155, 96.1794, -51.2644, 43.5631
4.74, 2, 35.8636, 47.8846, -13.4155, 96.1794, -51.2644, 43.5631
4.744, 2, 35.8636, 47.8846, -13.4155, 96.1794, -51.2644, 43.5631
4.748, 2, 35.8636, 47.8846, -13.4155, 96.1794, -51.2644, 43.5631
4.752, 2, 35.8636, 47.8846, -13.4155, 96.1794, -51.2644, 43.5631
4.756, 2, 35.8636, 47.8846, -13.4155, 96.1794, -51.2644, 43.5631
4.76, 2, 35.8636, 47.8846, -13.4155, 96.1794, -51.2644, 43.5631
4.764, 2, 35.8636, 47.8846, -13.4155, 96.1794, -51.2644, 43.5631
4.768, 2, 35.8636, 47.8846, -13.4155, 96.1794, -51.2644, 43.5631
4.772, 2, 35.8636, 47.8846, -13.4155, 96.1794, -51.2644, 43.5631
4.776, 2, 35.8636, 47.8846, -13.4155, 96.1794, -51.2644, 43.5631
4.78, 2, 35.8636, 47.8846, -13.4155, 96.1794, -51.2644, 43.5631
4.784, 2, 35.8636, 47.8846, -13.4155, 96.1794, -51.2644, 43.5631
4.788, 3, 35.8636, 47.8846, -13.4155, 96.1794, -51.2644, 43.5631
4.792, 3, 35.8636, 47.8846, -13.4155, 96.1794, -51.2644, 43.5631
4.796, 3, 35.8636, 47.8846, -13.4155, 96.1794, -51.2644, 43.5631
4.8, 3, 35.8636, 47.8846, -13.4155, 96.1794, -51.2644, 43.5631
4.804, 3, 35.8636, 47.8846, -13.4155, 96.1794, -51.2644, 43.5631
4.808, 3, 35.8636, 47.8846, -13.4155, 96.1794, -51.2644, 43.5631
4.812, 3, 35.8636, 47.8846, -13.4155, 96.1794, -51.2644, 43.5631
4.816, 3, 35.8636, 47.8846, -13.4155, 96.1794, -51.2644, 43.5631
4.82, 3, 35.8636, 47.8846, -13.4155, 96.1794, -51.2644, 43.5631
4.824, 3, 35.8636, 47.8846, -13.4155, 96.1794, -51.2644, 43.5631
4.828, 4, 35.8636, 47.8846, -13.4155, 96.1794, -51.2644, 43.5631
4.832, 4, 35.8636, 47.8846, -13.4155, 96.1794, -51.2644, 43.5631
4.836, 4, 35.8636, 47.8846, -13.4155, 96.1794, -51.2644, 43.5631
4.84, 4, 35.8636, 47.8846, -13.4155, 96.1794, -51.2644, 43.5631
4.844, 4, 35.8636, 47.8846, -13.4155, 96.1794, -51.2644, 43.5631
4.848, 4, 35.8636, 47.8846, -13.4155, 96.1794, -51.2644, 43.5631
4.852, 4, 35.8636, 47.8846, -13.4155, 96.1794, -51.2644, 43.5631
4.856, 4, 35.8636, 47.8846, -13.4155, 96.1794, -51.2644, 43.5631
4.86, 4, 35.8636, 47.8846, -13.4155, 96.1794, -51.2644, 43.5631
4.864, 4, 35.8636, 47.8846, -13.4155, 96.1794, -51.2644, 43.5631
4.868, 4, 35.8636, 47.8846, -13.4155, 96.1794, -51.2644, 43.5631
4.872, 4, 35.8636, 47.8846, -13.4155, 96.1794, -51.2644, 43.5631
4.876, 4, 35.8636, 47.8846, -13.4155, 96.1794, -51.2644, 43.5631
4.88, 4, 35.8636, 47.8846, -13.4155, 96.1794, -51.2644, 43.5631
4.884, 4, 35.8636, 47.8846, -13.4155, 96.1794, -51.2644, 43.5631
4.888, 4, 35.8636, 47.8846, -13.4155, 96.1794, -51.2644, 43.5631
4.892, 4, 35.8636, 47.8846, -13.4155, 96.1794, -51.2644, 43.5631
4.896, 4, 35.8636, 47.8846, -13.4155, 96.1794, -51.2644, 43.5631
4.9, 4, 35.8636, 47.8846, -13.4155, 96.1794, -51.2644, 43.5631
4.904, 4, 35.8636, 47.8846, -13.4155, 96.1794, -51.2644, 43.5631
4.908, 4, 35.8636, 47.8846, -13.4155, 96.1794, -51.2644, 43.5631
4.912, 4, 35.8636, 47.8846, -13.4155, 96.1794, -51.2644, 43.5631
4.916, 4, 35.8636, 47.8846, -13.4155, 96.1794, -51.2644, 43.5631
4.92, 4, 35.8636, 47.8846, -13.4155, 96.1794, -51.2644, 43.5631
4.924, 4, 35.8636, 47.8846, -13.4155, 96.1794, -51.2644, 43.5631
4.928, 5, 35.8636, 47.8846, -13.4155, 96.1794, -51.2644, 43.5631
4.932, 6, 35.8636, 47.8846, -13.4155, 96.1794, -51.2644, 43.5631
4.936, 6, 35.8636, 47.8846, -13.4155, 96.1794, -51.2644, 43.5631
4.94, 7, 35.8636, 47.8846, -13.4155, 96.1794, -51.2644, 43.5631
4.944, 7, 35.8636, 47.8846, -13.4155, 96.1794, -51.2644, 43.5631
4.948, 8, 35.8636, 47.8846, -13.4155, 96.1794, -51.2644, 43.5631
4.952, 9, 35.8636, 47.8846, -13.4155, 96.1794, -51.2644, 43.5631
4.956, 9, 35.8636, 47.8846, -13.4155, 96.1794, -51.2644, 43.5631
4.96, 10, 35.8636, 47.8846, -13.4155, 96.1794, -51.2644, 43.5631
4.964, 10, 35.8636, 47.8846, -13.4155, 96.1794, -51.2644, 43.5631
4.968, 11, 35.8636, 47.8846, -13.4155, 96.1794, -51.2644, 43.5631
4.972, 11, 35.8636, 47.8846, -13.4155, 96.1794, -51.2644, 43.5631
4.976, 11, 35.8635, 47.8846, -13.4155, 96.1794, -51.2644, 43.5631
4.98, 11, 35.8633, 47.8848, -13.4155, 96.1794, -51.2644, 43.5631
4.984, 11, 35.8626, 47.885, -13.4157, 96.1795, -51.2645, 43.5631
4.988, 11, 35.8614, 47.8856, -13.4159, 96.1798, -51.2646, 43.563
4.992, 11, 35.8596, 47.8865, -13.4164, 96.1805, -51.2649, 43.563
4.996, 11, 35.8569, 47.8879, -13.4172, 96.1819, -51.2655, 43.5628
5, 11, 35.8535, 47.8898, -13.4184, 96.1845, -51.2666, 43.5626
5.004, 11, 35.8492, 47.8924, -13.4201, 96.189, -51.2685, 43.5621
5.008, 11, 35.844, 47.8957, -13.4225, 96.1963, -51.2716, 43.5615
5.012, 12, 35.8379, 47.8998, -13.4258, 96.2072, -51.2762, 43.5604
5.016, 12, 35.8308, 47.905, -13.4302, 96.2231, -51.2829, 43.5589
5.02, 12, 35.8223, 47.9112, -13.4359, 96.2451, -51.2923, 43.5569
5.024, 12, 35.8123, 47.9188, -13.4433, 96.2749, -51.3049, 43.5541
5.028, 12, 35.8008, 47.9279, -13.4524, 96.3141, -51.3215, 43.5507
5.032, 12, 35.7875, 47.9386, -13.4636, 96.3643, -51.3429, 43.5464
5.037, 14, 35.7725, 47.9508, -13.4771, 96.4274, -51.37, 43.5412
5.04, 14, 35.7558, 47.9647, -13.4932, 96.5049, -51.4034, 43.5351
5.044, 14, 35.7372, 47.9805, -13.512, 96.5986, -51.4441, 43.5281
5.048, 14, 35.7166, 47.9981, -13.5337, 96.7096, -51.4928, 43.5205
5.052, 14, 35.6939, 48.0176, -13.5586, 96.8394, -51.5503, 43.5122
5.056, 14, 35.6689, 48.0393, -13.5867, 96.9888, -51.6171, 43.5036
5.06, 14, 35.6415, 48.0631, -13.6181, 97.1584, -51.694, 43.4951
5.064, 14, 35.6114, 48.0891, -13.6528, 97.3488, -51.7813, 43.487
5.068, 14, 35.5787, 48.1173, -13.6909, 97.5601, -51.8798, 43.4799
5.072, 14, 35.5431, 48.1476, -13.7323, 97.7923, -51.9896, 43.4744
5.076, 14, 35.5046, 48.18, -13.7767, 98.045, -52.1113, 43.4711
5.08, 14, 35.4631, 48.2145, -13.8242, 98.3178, -52.2451, 43.4708
5.084, 14, 35.4183, 48.251, -13.8745, 98.61, -52.3912, 43.4744
5.088, 14, 35.3701, 48.2894, -13.9273, 98.9207, -52.5498, 43.4826
5.092, 14, 35.3186, 48.3296, -13.9825, 99.2488, -52.7212, 43.4965
5.096, 14, 35.2638, 48.3711, -14.0395, 99.5935, -52.9054, 43.517
5.1, 14, 35.2062, 48.4137, -14.0981, 99.9534, -53.1025, 43.5452
5.104, 14, 35.1461, 48.4569, -14.1576, 100.327, -53.3125, 43.582
5.108, 14, 35.0842, 48.5001, -14.2175, 100.713, -53.5351, 43.6283
5.112, 14, 35.0208, 48.5431, -14.2775, 101.11, -53.77, 43.685
5.116, 14, 34.9563, 48.5856, -14.3368, 101.515, -54.0165, 43.7527
5.12, 14, 34.8912, 48.6276, -14.3951, 101.927, -54.2735, 43.8318
5.124, 14, 34.8257, 48.6688, -14.4519, 102.341, -54.5398, 43.9225
5.128, 14, 34.7599, 48.7093, -14.5067, 102.757, -54.814, 44.0248
5.132, 14, 34.694, 48.7489, -14.5593, 103.171, -55.0944, 44.1383
5.136, 14, 34.628, 48.7875, -14.6092, 103.579, -55.379, 44.2624
5.14, 14, 34.5622, 48.8247, -14.6562, 103.981, -55.6661, 44.3964
5.144, 14, 34.4963, 48.8605, -14.6999, 104.372, -55.9534, 44.5391
5.148, 14, 34.4305, 48.8946, -14.7402, 104.751, -56.239, 44.6894
5.152, 14, 34.3646, 48.927, -14.777, 105.115, -56.5209, 44.8459
5.156, 14, 34.2987, 48.9577, -14.8104, 105.463, -56.7971, 45.007
5.16, 14, 34.233, 48.9866, -14.8404, 105.793, -57.066, 45.1712
5.164, 14, 34.1678, 49.0139, -14.8671, 106.104, -57.3261, 45.3371
5.168, 14, 34.1033, 49.0396, -14.8905, 106.396, -57.5763, 45.5031
5.172, 14, 34.0401, 49.064, -14.9106, 106.668, -57.8157, 45.6681
5.176, 14, 33.9786, 49.0872, -14.9272, 106.921, -58.0437, 45.8311
5.18, 14, 33.9193, 49.1093, -14.9404, 107.153, -58.2602, 45.9917
5.184, 14, 33.8622, 49.1305, -14.9499, 107.366, -58.4652, 46.1496
5.188, 14, 33.8076, 49.1506, -14.9556, 107.559, -58.659, 46.3051
5.192, 14, 33.7553, 49.1698, -14.9571, 107.731, -58.8424, 46.4589
5.196, 14, 33.7049, 49.1879, -14.954, 107.883, -59.016, 46.6121
5.2, 14, 33.6564, 49.2049, -14.9459, 108.013, -59.1812, 46.7663
5.205, 16, 33.6096, 49.2205, -14.9321, 108.122, -59.3393, 46.9232
5.208, 16, 33.5647, 49.2345, -14.9125, 108.209, -59.4919, 47.085
5.212, 16, 33.5219, 49.2466, -14.8867, 108.275, -59.6405, 47.2537
5.216, 16, 33.4817, 49.2565, -14.8546, 108.319, -59.7867, 47.4311
5.22, 16, 33.4443, 49.264, -14.8161, 108.342, -59.9319, 47.6188
5.224, 16, 33.4097, 49.2689, -14.7714, 108.345, -60.077, 47.8173
5.228, 16, 33.3779, 49.2713, -14.7206, 108.33, -60.2228, 48.0267
5.232, 16, 33.3487, 49.2713, -14.6643, 108.298, -60.3693, 48.2461
5.236, 16, 33.3218, 49.2693, -14.6029, 108.253, -60.5164, 48.4739
5.24, 16, 33.2972, 49.2655, -14.5374, 108.196, -60.6633, 48.7077
5.244, 16, 33.275, 49.2603, -14.4689, 108.13, -60.8092, 48.9449
5.248, 16, 33.2551, 49.2543, -14.3987, 108.058, -60.9528, 49.182
5.252, 16, 33.2372, 49.2479, -14.3282, 107.983, -61.0925, 49.4155
5.256, 16, 33.2208, 49.2419, -14.2588, 107.908, -61.2268, 49.6418
5.26, 16, 33.2054, 49.2369, -14.192, 107.834, -61.3541, 49.8572
5.264, 16, 33.1902, 49.2331, -14.1288, 107.763, -61.4729, 50.0585
5.268, 16, 33.175, 49.2307, -14.0703, 107.698, -61.5822, 50.2428
5.272, 16, 33.1595, 49.2296, -14.0173, 107.639, -61.6813, 50.4078
5.278, 18, 33.1276, 49.2302, -13.9291, 107.545, -61.8481, 50.6738
5.28, 18, 33.1276, 49.2302, -13.9291, 107.545, -61.8481, 50.6738
5.284, 18, 33.1119, 49.2314, -13.8942, 107.511, -61.9163, 50.7731
5.288, 18, 33.0966, 49.2331, -13.865, 107.485, -61.9753, 50.8497
5.292, 18, 33.0818, 49.2353, -13.8413, 107.469, -62.0258, 50.9039
5.296, 18, 33.0676, 49.2379, -13.8226, 107.461, -62.0689, 50.9367
5.3, 18, 33.0543, 49.2407, -13.8083, 107.461, -62.1055, 50.9497
5.304, 18, 33.0422, 49.2436, -13.7979, 107.469, -62.1369, 50.9449
5.308, 18, 33.0312, 49.2466, -13.7907, 107.483, -62.1639, 50.9245
5.312, 18, 33.0214, 49.2496, -13.7862, 107.502, -62.1876, 50.8912
5.316, 18, 33.0127, 49.2525, -13.7835, 107.525, -62.2088, 50.8477
5.32, 18, 33.0047, 49.2554, -13.7821, 107.551, -62.2283, 50.7967
5.324, 18, 32.9966, 49.2584, -13.781, 107.578, -62.247, 50.7413
5.328, 18, 32.9879, 49.2614, -13.7797, 107.605, -62.2658, 50.6845
5.332, 18, 32.978, 49.2643, -13.7772, 107.63, -62.2855, 50.6294
5.336, 18, 32.9667, 49.2668, -13.7727, 107.651, -62.3074, 50.579
5.34, 18, 32.9536, 49.2687, -13.7652, 107.668, -62.3326, 50.536
5.344, 18, 32.9391, 49.27, -13.7537, 107.677, -62.3624, 50.5028
5.348, 18, 32.9236, 49.2703, -13.7375, 107.679, -62.3984, 50.4812
5.352, 18, 32.9075, 49.2694, -13.7157, 107.671, -62.4419, 50.4725
5.356, 18, 32.8915, 49.2673, -13.688, 107.655, -62.4942, 50.4776
5.36, 18, 32.8758, 49.2637, -13.6538, 107.628, -62.5562, 50.4967
5.364, 18, 32.8606, 49.2585, -13.613, 107.591, -62.6287, 50.5296
5.368, 18, 32.8462, 49.2518, -13.5654, 107.545, -62.7117, 50.5757
5.372, 18, 32.8327, 49.2434, -13.5113, 107.489, -62.805, 50.6339
5.376, 18, 32.8201, 49.2335, -13.451, 107.426, -62.9079, 50.7029
5.38, 18, 32.8082, 49.2221, -13.385, 107.355, -63.0191, 50.781
5.384, 18, 32.7968, 49.2094, -13.3143, 107.279, -63.137, 50.8662
5.388, 18, 32.7854, 49.1957, -13.24, 107.199, -63.2599, 50.9563
5.392, 18, 32.7738, 49.181, -13.1634, 107.116, -63.3857, 51.0492
5.397, 20, 32.7614, 49.1659, -13.0854, 107.032, -63.5124, 51.1425
5.399, 20, 32.7476, 49.1509, -13.0072, 106.949, -63.6379, 51.2339
5.404, 20, 32.732, 49.1367, -12.9295, 106.867, -63.7604, 51.3213
5.408, 20, 32.7146, 49.1237, -12.8528, 106.788, -63.8786, 51.4028
5.412, 20, 32.6954, 49.1121, -12.7775, 106.712, -63.9914, 51.4772
5.416, 20, 32.6744, 49.1021, -12.7035, 106.639, -64.0984, 51.5435
5.42, 20, 32.6517, 49.0933, -12.6307, 106.569, -64.1996, 51.6018
5.424, 20, 32.6277, 49.0852, -12.5586, 106.501, -64.2958, 51.6525
5.428, 20, 32.6027, 49.0773, -12.4867, 106.434, -64.3877, 51.6963
5.432, 20, 32.5774, 49.0691, -12.4141, 106.368, -64.4767, 51.7346
5.436, 20, 32.552, 49.06, -12.34, 106.302, -64.564, 51.7685
5.44, 20, 32.527, 49.05, -12.2638, 106.233, -64.6512, 51.7996
5.444, 20, 32.5027, 49.0388, -12.1846, 106.162, -64.7395, 51.8292
5.448, 20, 32.4793, 49.0259, -12.102, 106.087, -64.8301, 51.8589
5.452, 20, 32.4568, 49.0112, -12.0156, 106.008, -64.9241, 51.8898
5.456, 20, 32.4351, 48.9944, -11.9253, 105.924, -65.0219, 51.9232
5.46, 20, 32.4143, 48.9754, -11.8313, 105.835, -65.1241, 51.9598
5.464, 20, 32.3944, 48.9544, -11.7338, 105.742, -65.2304, 51.9999
5.468, 20, 32.3753, 48.9317, -11.6334, 105.644, -65.3405, 52.0435
5.472, 20, 32.3569, 48.9077, -11.5309, 105.544, -65.4536, 52.0902
5.476, 20, 32.3392, 48.883, -11.4271, 105.441, -65.5687, 52.1392
5.48, 20, 32.322, 48.8581, -11.3229, 105.338, -65.6844, 52.1898
5.484, 20, 32.3053, 48.8334, -11.2195, 105.234, -65.7996, 52.241
5.488, 20, 32.2887, 48.8092, -11.1181, 105.133, -65.9129, 52.2918
5.492, 20, 32.2721, 48.786, -11.0198, 105.034, -66.0228, 52.3415
5.496, 20, 32.2551, 48.7638, -10.9257, 104.94, -66.1283, 52.3891
5.5, 20, 32.2379, 48.7429, -10.8369, 104.851, -66.2281, 52.4342
5.504, 20, 32.2205, 48.7234, -10.754, 104.769, -66.3215, 52.476
5.508, 20, 32.203, 48.7053, -10.6777, 104.694, -66.4079, 52.5141
5.512, 20, 32.1858, 48.6886, -10.6083, 104.626, -66.4867, 52.5483
5.516, 20, 32.1692, 48.6733, -10.5459, 104.568, -66.5578, 52.5783
5.52, 20, 32.1533, 48.6593, -10.4905, 104.518, -66.6209, 52.6044
5.524, 20, 32.1382, 48.6467, -10.4417, 104.476, -66.6763, 52.6267
5.528, 20, 32.124, 48.6356, -10.3991, 104.444, -66.7239, 52.6459
5.532, 20, 32.1104, 48.626, -10.3622, 104.419, -66.7642, 52.6623
5.536, 20, 32.0976, 48.618, -10.3302, 104.401, -66.7975, 52.6769
5.54, 21, 32.0856, 48.6115, -10.3024, 104.389, -66.8244, 52.6902
5.546, 21, 32.0636, 48.6019, -10.2562, 104.379, -66.8622, 52.7158
5.548, 21, 32.0636, 48.6019, -10.2562, 104.379, -66.8622, 52.7158
5.552, 21, 32.0533, 48.5982, -10.2363, 104.379, -66.8749, 52.7291
5.556, 21, 32.0431, 48.5946, -10.2174, 104.379, -66.8847, 52.7433
5.56, 21, 32.0327, 48.5907, -10.1988, 104.379, -66.8926, 52.7587
5.564, 21, 32.0218, 48.5863, -10.1799, 104.378, -66.8998, 52.7755
5.568, 21, 32.0104, 48.581, -10.16, 104.374, -66.9072, 52.7938
5.572, 21, 31.9986, 48.5745, -10.1384, 104.366, -66.9159, 52.8136
5.576, 21, 31.9863, 48.5667, -10.1143, 104.353, -66.9269, 52.8348
5.58, 21, 31.9738, 48.5573, -10.087, 104.334, -66.9412, 52.8573
5.584, 21, 31.9609, 48.5462, -10.0557, 104.31, -66.9596, 52.8808
5.588, 21, 31.9475, 48.533, -10.0197, 104.279, -66.9827, 52.9051
5.592, 21, 31.9334, 48.5179, -9.97816, 104.241, -67.0111, 52.9301
5.596, 21, 31.9184, 48.5008, -9.93027, 104.195, -67.0451, 52.9558
5.6, 21, 31.9025, 48.4817, -9.87534, 104.143, -67.0851, 52.9824
5.604, 21, 31.8858, 48.4607, -9.81268, 104.083, -67.1313, 53.0101
5.608, 21, 31.8681, 48.4379, -9.74173, 104.015, -67.1836, 53.0391
5.612, 21, 31.8496, 48.4134, -9.66208, 103.939, -67.2423, 53.0697
5.616, 21, 31.8302, 48.3872, -9.5735, 103.856, -67.3072, 53.1021
5.62, 21, 31.8101, 48.3593, -9.47601, 103.764, -67.3781, 53.1364
5.624, 21, 31.7894, 48.3297, -9.36984, 103.665, -67.4549, 53.1726
5.628, 21, 31.7684, 48.2981, -9.25553, 103.559, -67.5371, 53.2106
5.632, 21, 31.7474, 48.2646, -9.13387, 103.447, -67.6243, 53.2505
5.636, 21, 31.7264, 48.2293, -9.00589, 103.329, -67.7158, 53.2919
5.64, 21, 31.7055, 48.1922, -8.87282, 103.206, -67.8108, 53.3347
5.644, 21, 31.6845, 48.1539, -8.73606, 103.08, -67.9082, 53.3783
5.648, 21, 31.6633, 48.1147, -8.59707, 102.953, -68.0072, 53.4224
5.652, 21, 31.6417, 48.0754, -8.45739, 102.825, -68.1067, 53.4662
5.656, 21, 31.6194, 48.0367, -8.31853, 102.697, -68.2059, 53.509
5.66, 22, 31.5963, 47.999, -8.18186, 102.571, -68.304, 53.5497
5.664, 22, 31.5724, 47.9628, -8.0486, 102.448, -68.4005, 53.587
5.668, 22, 31.5479, 47.9282, -7.91975, 102.329, -68.4951, 53.6194
5.672, 22, 31.5227, 47.8953, -7.79602, 102.214, -68.5878, 53.6456
5.676, 22, 31.497, 47.8639, -7.67779, 102.102, -68.6788, 53.6642
5.68, 22, 31.4707, 47.8339, -7.56513, 101.994, -68.7684, 53.6742
5.684, 22, 31.4438, 47.8052, -7.45772, 101.89, -68.8569, 53.6749
5.688, 22, 31.4163, 47.7777, -7.35496, 101.788, -68.9448, 53.6664
5.692, 22, 31.3882, 47.7513, -7.25596, 101.688, -69.0326, 53.6488
5.696, 22, 31.3597, 47.7257, -7.15955, 101.589, -69.1207, 53.6228
5.7, 22, 31.3308, 47.7004, -7.0644, 101.489, -69.2097, 53.5892
5.704, 22, 31.3017, 47.6751, -6.96904, 101.387, -69.3002, 53.5491
5.708, 22, 31.2726, 47.6493, -6.87195, 101.283, -69.3928, 53.5037
5.712, 22, 31.2436, 47.6224, -6.77166, 101.174, -69.4879, 53.4543
5.716, 22, 31.2148, 47.5943, -6.66683, 101.059, -69.5859, 53.4023
5.72, 22, 31.1864, 47.5649, -6.55632, 100.938, -69.6872, 53.3491
5.724, 22, 31.1581, 47.5345, -6.43925, 100.811, -69.7919, 53.2961
5.728, 22, 31.1301, 47.5029, -6.31508, 100.676, -69.9001, 53.2442
5.732, 22, 31.1023, 47.4704, -6.18362, 100.533, -70.0116, 53.1942
5.736, 22, 31.0746, 47.4366, -6.04503, 100.384, -70.1265, 53.1463
5.74, 22, 31.0471, 47.4014, -5.89982, 100.228, -70.2444, 53.1006
5.744, 22, 31.0199, 47.3644, -5.74879, 100.066, -70.365, 53.0567
5.748, 22, 30.9928, 47.3253, -5.59297, 99.9, -70.4879, 53.0143
5.752, 22, 30.9658, 47.284, -5.43356, 99.7305, -70.6122, 52.973
5.756, 23, 30.9386, 47.2406, -5.27183, 99.5589, -70.7373, 52.9322
5.762, 23, 30.8826, 47.1489, -4.9462, 99.215, -70.9857, 52.8507
5.764, 23, 30.8826, 47.1489, -4.9462, 99.215, -70.9857, 52.8507
5.768, 23, 30.8528, 47.1017, -4.78439, 99.0451, -71.107, 52.8091
5.772, 23, 30.8212, 47.0544, -4.62426, 98.8777, -71.2251, 52.7665
5.776, 23, 30.7877, 47.0072, -4.46623, 98.7135, -71.3392, 52.7227
5.78, 24, 30.7522, 46.9603, -4.31042, 98.5528, -71.4489, 52.6774
5.784, 24, 30.715, 46.9136, -4.15663, 98.3956, -71.5539, 52.6308
5.788, 24, 30.6764, 46.8668, -4.0044, 98.2415, -71.6543, 52.5831
5.792, 24, 30.6368, 46.8197, -3.85303, 98.09, -71.7502, 52.5345
5.796, 24, 30.5967, 46.7719, -3.70172, 97.9403, -71.8421, 52.4852
5.8, 24, 30.5564, 46.7233, -3.54954, 97.7916, -71.9305, 52.4356
5.804, 24, 30.5161, 46.6737, -3.39561, 97.6429, -72.016, 52.3858
5.808, 24, 30.4759, 46.623, -3.23911, 97.4934, -72.0995, 52.3362
5.812, 24, 30.4361, 46.5711, -3.07942, 97.3424, -72.1815, 52.2872
5.816, 24, 30.3967, 46.5179, -2.9161, 97.1893, -72.2627, 52.2392
5.82, 24, 30.358, 46.4632, -2.74896, 97.0337, -72.3436, 52.1926
5.824, 24, 30.3202, 46.4072, -2.57813, 96.8756, -72.4248, 52.1478
5.828, 24, 30.2833, 46.3496, -2.404, 96.7153, -72.5063, 52.1048
5.832, 24, 30.2472, 46.2908, -2.2272, 96.5531, -72.5883, 52.0636
5.836, 24, 30.2117, 46.231, -2.04861, 96.3897, -72.6706, 52.0242
5.84, 24, 30.1765, 46.1705, -1.86928, 96.2259, -72.7529, 51.9864
5.844, 24, 30.1414, 46.1098, -1.69039, 96.0626, -72.8349, 51.9499
5.848, 24, 30.1065, 46.0493, -1.51318, 95.9009, -72.9161, 51.9147
5.852, 24, 30.0716, 45.9895, -1.33889, 95.7418, -72.9959, 51.8807
5.856, 24, 30.0368, 45.9309, -1.16875, 95.5866, -73.074, 51.8479
5.86, 24, 30.0023, 45.8738, -1.00392, 95.4362, -73.1496, 51.8164
5.864, 24, 29.9682, 45.8187, -0.845441, 95.2916, -73.2224, 51.7863
5.868, 24, 29.9348, 45.7656, -0.694197, 95.1538, -73.2919, 51.7578
5.872, 24, 29.9021, 45.7146, -0.550893, 95.0233, -73.3577, 51.7309
5.876, 24, 29.8702, 45.6656, -0.416028, 94.9007, -73.4195, 51.7056
5.88, 24, 29.8393, 45.6185, -0.289887, 94.7864, -73.4771, 51.682
5.884, 24, 29.8096, 45.5731, -0.172526, 94.6805, -73.5301, 51.6601
5.888, 24, 29.781, 45.5296, -0.0637808, 94.5831, -73.5783, 51.6396
5.892, 24, 29.7535, 45.4879, 0.0367094, 94.494, -73.6215, 51.6205
5.896, 24, 29.7271, 45.4483, 0.129478, 94.413, -73.6596, 51.6027
5.9, 24, 29.7015, 45.4109, 0.215216, 94.3397, -73.6925, 51.5859
5.904, 24, 29.6764, 45.3756, 0.294762, 94.2734, -73.7205, 51.5701
5.908, 24, 29.6513, 45.3419, 0.369092, 94.2133, -73.7436, 51.555
5.912, 24, 29.6262, 45.3094, 0.439296, 94.1586, -73.7624, 51.5407
5.916, 24, 29.6009, 45.2774, 0.50656, 94.1081, -73.7774, 51.5269
5.92, 24, 29.5753, 45.2453, 0.572159, 94.0606, -73.7892, 51.5137
5.924, 24, 29.5494, 45.2126, 0.637434, 94.0148, -73.7985, 51.5009
5.928, 24, 29.5234, 45.1788, 0.703767, 93.9694, -73.806, 51.4886
5.932, 24, 29.4971, 45.1435, 0.772538, 93.9229, -73.8125, 51.4765
5.936, 24, 29.4704, 45.1062, 0.845096, 93.8741, -73.8188, 51.4647
5.94, 24, 29.4428, 45.0664, 0.922742, 93.8216, -73.8255, 51.4532
5.944, 24, 29.4142, 45.0235, 1.00671, 93.7642, -73.8334, 51.4419
5.948, 25, 29.384, 44.9767, 1.09813, 93.7008, -73.8431, 51.4306
5.954, 25, 29.3186, 44.8704, 1.30726, 93.5523, -73.8693, 51.4082
5.956, 25, 29.3186, 44.8704, 1.30726, 93.5523, -73.8693, 51.4082
5.96, 25, 29.2832, 44.8107, 1.42653, 93.4658, -73.8864, 51.3968
5.964, 25, 29.2462, 44.7469, 1.55632, 93.3705, -73.9061, 51.385
5.968, 25, 29.2073, 44.6791, 1.69687, 93.2663, -73.9286, 51.3727
5.972, 26, 29.1668, 44.6077, 1.84814, 93.1532, -73.9535, 51.3599
5.976, 26, 29.1246, 44.533, 2.00981, 93.0315, -73.9808, 51.3464
5.98, 26, 29.0808, 44.455, 2.18129, 92.9017, -74.0103, 51.3321
5.984, 26, 29.0354, 44.3741, 2.36174, 92.7644, -74.0416, 51.3172
5.988, 26, 28.9887, 44.2907, 2.5501, 92.6206, -74.0747, 51.3016
5.992, 26, 28.941, 44.2051, 2.7451, 92.4712, -74.1093, 51.2854
5.996, 26, 28.8925, 44.1178, 2.94534, 92.3172, -74.145, 51.2687
6, 26, 28.8433, 44.0292, 3.14933, 92.1599, -74.1817, 51.2517
6.004, 26, 28.7934, 43.9398, 3.35552, 92.0005, -74.219, 51.2343
