hehonglu123/Motion-Primitive-Planning/simulation/robotstudio_sim/scripts/fitting_output/threshold0.25/curve_exe_v500_fine.csv
timestamp, cmd_num, J1, J2, J3, J4, J5, J6
0, 1, -1.03332, 64.0172, 9.25175, 43.3703, -96.0608, 171.181
0.002, 1, -1.03332, 64.0172, 9.25175, 43.3703, -96.0608, 171.181
0.004, 1, -1.03332, 64.0172, 9.25175, 43.3703, -96.0608, 171.181
0.008, 1, -1.03332, 64.0172, 9.25175, 43.3703, -96.0608, 171.181
0.011, 1, -1.03332, 64.0172, 9.25175, 43.3703, -96.0608, 171.181
0.016, 1, -1.03332, 64.0172, 9.25175, 43.3703, -96.0608, 171.181
0.02, 1, -1.03332, 64.0172, 9.25175, 43.3703, -96.0608, 171.181
0.024, 1, -1.03332, 64.0172, 9.25175, 43.3703, -96.0608, 171.181
0.028, 1, -1.03332, 64.0172, 9.25175, 43.3703, -96.0608, 171.181
0.032, 1, -1.03332, 64.0172, 9.25175, 43.3703, -96.0608, 171.181
0.036, 1, -1.03332, 64.0172, 9.25175, 43.3703, -96.0608, 171.181
0.04, 1, -1.03325, 64.0172, 9.25175, 43.3703, -96.0608, 171.181
0.044, 1, -1.03303, 64.0171, 9.25176, 43.3703, -96.0608, 171.181
0.048, 1, -1.0325, 64.017, 9.25177, 43.3703, -96.0608, 171.181
0.052, 1, -1.03153, 64.0167, 9.2518, 43.3703, -96.0608, 171.181
0.056, 1, -1.03001, 64.0162, 9.25183, 43.3705, -96.0607, 171.18
0.06, 1, -1.02786, 64.0154, 9.25184, 43.3707, -96.0605, 171.18
0.064, 1, -1.02503, 64.0144, 9.2518, 43.3712, -96.0601, 171.179
0.068, 1, -1.02148, 64.0129, 9.25165, 43.372, -96.0594, 171.177
0.072, 1, -1.01718, 64.0111, 9.25133, 43.3733, -96.0583, 171.174
0.076, 1, -1.01201, 64.0088, 9.25075, 43.3753, -96.0567, 171.169
0.08, 1, -1.00583, 64.0059, 9.24982, 43.3783, -96.0543, 171.162
0.084, 1, -0.998421, 64.0023, 9.24843, 43.3824, -96.0508, 171.152
0.088, 1, -0.989596, 63.9981, 9.24644, 43.3881, -96.0461, 171.139
0.092, 1, -0.97919, 63.993, 9.24369, 43.3956, -96.0399, 171.121
0.096, 1, -0.967095, 63.9871, 9.24001, 43.4054, -96.0318, 171.099
0.1, 1, -0.953227, 63.9804, 9.23522, 43.4178, -96.0216, 171.07
0.104, 1, -0.937482, 63.9728, 9.22914, 43.4331, -96.0089, 171.034
0.108, 1, -0.919727, 63.9641, 9.2216, 43.4519, -95.9933, 170.991
0.112, 1, -0.899831, 63.9545, 9.21244, 43.4743, -95.9747, 170.939
0.116, 1, -0.877708, 63.9439, 9.2015, 43.5009, -95.9527, 170.877
0.12, 1, -0.853335, 63.9324, 9.18865, 43.5317, -95.9271, 170.806
0.124, 1, -0.826737, 63.9201, 9.17376, 43.5672, -95.8977, 170.724
0.128, 1, -0.797955, 63.9072, 9.15676, 43.6074, -95.8643, 170.631
0.131, 1, -0.767037, 63.8937, 9.13758, 43.6524, -95.8269, 170.527
0.136, 1, -0.734021, 63.8796, 9.11623, 43.7023, -95.7854, 170.411
0.139, 1, -0.698915, 63.865, 9.09273, 43.757, -95.74, 170.285
0.144, 1, -0.661683, 63.8497, 9.06716, 43.8163, -95.6907, 170.148
0.148, 1, -0.622291, 63.8335, 9.03965, 43.88, -95.6378, 170.001
0.152, 1, -0.580757, 63.8164, 9.01033, 43.9478, -95.5814, 169.844
0.156, 1, -0.537173, 63.7984, 8.97936, 44.0193, -95.522, 169.679
0.16, 1, -0.491673, 63.7794, 8.94691, 44.0942, -95.4597, 169.506
0.164, 1, -0.444376, 63.7596, 8.91317, 44.1721, -95.395, 169.326
0.168, 1, -0.395363, 63.739, 8.87834, 44.2525, -95.3281, 169.14
0.172, 1, -0.344706, 63.7175, 8.8426, 44.3351, -95.2595, 168.949
0.176, 1, -0.292508, 63.6952, 8.80615, 44.4194, -95.1894, 168.754
0.18, 1, -0.2389, 63.6722, 8.76915, 44.5052, -95.1181, 168.556
0.184, 1, -0.184026, 63.6485, 8.73174, 44.592, -95.046, 168.355
0.188, 1, -0.128026, 63.6242, 8.69403, 44.6797, -94.9731, 168.153
0.192, 1, -0.0710519, 63.5993, 8.65611, 44.768, -94.8997, 167.949
0.196, 1, -0.0132583, 63.5741, 8.61806, 44.8567, -94.826, 167.743
0.2, 1, 0.0452263, 63.5484, 8.57991, 44.9457, -94.7521, 167.538
0.204, 1, 0.10431, 63.5226, 8.54171, 45.035, -94.6779, 167.331
0.208, 1, 0.163913, 63.4965, 8.50348, 45.1243, -94.6037, 167.125
0.212, 1, 0.223937, 63.4703, 8.46524, 45.2137, -94.5294, 166.918
0.216, 1, 0.284269, 63.444, 8.42701, 45.3032, -94.4551, 166.711
0.22, 1, 0.344807, 63.4177, 8.38878, 45.3926, -94.3808, 166.504
0.224, 1, 0.405474, 63.3913, 8.35056, 45.4821, -94.3064, 166.297
0.228, 1, 0.466217, 63.3649, 8.31236, 45.5715, -94.2322, 166.091
0.232, 1, 0.527001, 63.3384, 8.27417, 45.6609, -94.1579, 165.884
0.236, 1, 0.587802, 63.312, 8.236, 45.7503, -94.0837, 165.677
0.24, 1, 0.648602, 63.2856, 8.19785, 45.8396, -94.0095, 165.471
0.244, 1, 0.709392, 63.2591, 8.15973, 45.9288, -93.9353, 165.264
0.248, 1, 0.770162, 63.2327, 8.12162, 46.0181, -93.8612, 165.058
0.252, 1, 0.830909, 63.2063, 8.08353, 46.1072, -93.7871, 164.852
0.256, 1, 0.891629, 63.1799, 8.04547, 46.1964, -93.7131, 164.646
0.26, 1, 0.952318, 63.1536, 8.00743, 46.2854, -93.6391, 164.44
0.264, 1, 1.01298, 63.1272, 7.96941, 46.3745, -93.5651, 164.234
0.268, 1, 1.0736, 63.1008, 7.93141, 46.4634, -93.4912, 164.028
0.272, 1, 1.13419, 63.0745, 7.89343, 46.5523, -93.4173, 163.823
0.276, 1, 1.19475, 63.0482, 7.85548, 46.6412, -93.3435, 163.617
0.28, 1, 1.25527, 63.0219, 7.81754, 46.73, -93.2697, 163.412
0.284, 1, 1.31575, 62.9956, 7.77963, 46.8188, -93.196, 163.206
0.288, 1, 1.37621, 62.9693, 7.74175, 46.9075, -93.1223, 163.001
0.292, 1, 1.43662, 62.9431, 7.70388, 46.9962, -93.0486, 162.796
0.296, 1, 1.497, 62.9168, 7.66604, 47.0848, -92.975, 162.591
0.3, 1, 1.55734, 62.8906, 7.62822, 47.1733, -92.9014, 162.387
0.304, 1, 1.61765, 62.8644, 7.59042, 47.2618, -92.8279, 162.182
0.308, 1, 1.67792, 62.8382, 7.55265, 47.3503, -92.7544, 161.977
0.312, 1, 1.73815, 62.812, 7.5149, 47.4386, -92.681, 161.773
0.316, 1, 1.79835, 62.7859, 7.47717, 47.527, -92.6076, 161.569
0.32, 1, 1.85851, 62.7597, 7.43947, 47.6153, -92.5343, 161.365
0.324, 1, 1.91864, 62.7336, 7.40178, 47.7035, -92.461, 161.161
0.328, 1, 1.97872, 62.7075, 7.36413, 47.7917, -92.3877, 160.957
0.332, 1, 2.03877, 62.6814, 7.32649, 47.8798, -92.3145, 160.753
0.336, 1, 2.09878, 62.6553, 7.28888, 47.9678, -92.2414, 160.549
0.34, 1, 2.15876, 62.6293, 7.25129, 48.0558, -92.1683, 160.346
0.344, 1, 2.21869, 62.6032, 7.21373, 48.1438, -92.0952, 160.142
0.348, 1, 2.27859, 62.5772, 7.17619, 48.2317, -92.0222, 159.939
0.352, 1, 2.33845, 62.5512, 7.13867, 48.3195, -91.9492, 159.736
0.356, 1, 2.39827, 62.5252, 7.10118, 48.4073, -91.8763, 159.533
0.36, 1, 2.45806, 62.4992, 7.06371, 48.4951, -91.8034, 159.33
0.364, 1, 2.5178, 62.4732, 7.02626, 48.5827, -91.7305, 159.127
0.368, 1, 2.57751, 62.4473, 6.98884, 48.6703, -91.6577, 158.925
0.372, 1, 2.63718, 62.4214, 6.95144, 48.7579, -91.585, 158.722
0.376, 1, 2.69681, 62.3954, 6.91407, 48.8454, -91.5123, 158.52
0.38, 1, 2.7564, 62.3695, 6.87672, 48.9329, -91.4397, 158.318
0.384, 1, 2.81595, 62.3437, 6.8394, 49.0203, -91.3671, 158.116
0.388, 1, 2.87546, 62.3178, 6.80209, 49.1076, -91.2945, 157.914
0.392, 1, 2.93494, 62.292, 6.76482, 49.1949, -91.222, 157.712
0.396, 1, 2.99437, 62.2661, 6.72757, 49.2821, -91.1495, 157.51
0.4, 1, 3.05377, 62.2403, 6.69034, 49.3692, -91.0771, 157.309
0.404, 1, 3.11312, 62.2145, 6.65314, 49.4563, -91.0048, 157.107
0.408, 1, 3.17244, 62.1887, 6.61597, 49.5434, -90.9324, 156.906
0.412, 1, 3.23172, 62.163, 6.57881, 49.6304, -90.8602, 156.705
0.416, 1, 3.29095, 62.1372, 6.54169, 49.7173, -90.788, 156.504
0.42, 1, 3.35015, 62.1115, 6.50459, 49.8042, -90.7158, 156.303
0.424, 1, 3.4093, 62.0858, 6.46751, 49.891, -90.6437, 156.102
0.428, 1, 3.46842, 62.0601, 6.43046, 49.9777, -90.5716, 155.901
0.432, 1, 3.52749, 62.0344, 6.39344, 50.0644, -90.4996, 155.701
0.436, 1, 3.58653, 62.0088, 6.35644, 50.1511, -90.4276, 155.501
0.44, 1, 3.64552, 61.9831, 6.31946, 50.2376, -90.3557, 155.3
0.444, 1, 3.70448, 61.9575, 6.28251, 50.3241, -90.2838, 155.1
0.448, 1, 3.76339, 61.9319, 6.24559, 50.4106, -90.212, 154.9
0.452, 1, 3.82226, 61.9063, 6.20869, 50.497, -90.1402, 154.701
0.456, 1, 3.88109, 61.8808, 6.17182, 50.5833, -90.0685, 154.501
0.46, 1, 3.93988, 61.8552, 6.13498, 50.6696, -89.9968, 154.302
0.464, 1, 3.99863, 61.8297, 6.09816, 50.7558, -89.9252, 154.102
0.468, 1, 4.05733, 61.8042, 6.06137, 50.8419, -89.8537, 153.903
0.472, 1, 4.11599, 61.7787, 6.0246, 50.928, -89.7821, 153.704
0.476, 1, 4.17462, 61.7532, 5.98786, 51.014, -89.7107, 153.505
0.48, 1, 4.2332, 61.7278, 5.95114, 51.1, -89.6393, 153.306
0.484, 1, 4.29174, 61.7023, 5.91445, 51.1859, -89.5679, 153.108
0.488, 1, 4.35023, 61.6769, 5.87779, 51.2717, -89.4966, 152.909
0.492, 1, 4.40869, 61.6515, 5.84116, 51.3575, -89.4253, 152.711
0.496, 1, 4.4671, 61.6261, 5.80455, 51.4432, -89.3541, 152.513
0.5, 1, 4.52547, 61.6008, 5.76797, 51.5289, -89.283, 152.314
0.504, 1, 4.58379, 61.5754, 5.73141, 51.6145, -89.2119, 152.117
0.508, 1, 4.64208, 61.5501, 5.69488, 51.7, -89.1408, 151.919
0.512, 1, 4.70032, 61.5248, 5.65838, 51.7855, -89.0698, 151.721
0.516, 1, 4.75852, 61.4995, 5.6219, 51.8709, -88.9988, 151.524
0.52, 1, 4.81668, 61.4742, 5.58546, 51.9562, -88.9279, 151.326
0.524, 1, 4.87479, 61.4489, 5.54903, 52.0415, -88.8571, 151.129
0.528, 1, 4.93286, 61.4237, 5.51264, 52.1267, -88.7863, 150.932
0.532, 1, 4.99089, 61.3985, 5.47627, 52.2119, -88.7156, 150.735
0.536, 1, 5.04887, 61.3733, 5.43993, 52.2969, -88.6449, 150.538
0.54, 1, 5.10681, 61.3481, 5.40362, 52.382, -88.5742, 150.342
0.544, 1, 5.16471, 61.323, 5.36733, 52.4669, -88.5037, 150.145
0.548, 1, 5.22256, 61.2978, 5.33107, 52.5518, -88.4331, 149.949
0.552, 1, 5.28037, 61.2727, 5.29484, 52.6367, -88.3627, 149.753
0.556, 1, 5.33814, 61.2476, 5.25864, 52.7214, -88.2922, 149.557
0.56, 1, 5.39586, 61.2225, 5.22246, 52.8061, -88.2219, 149.361
0.564, 1, 5.45354, 61.1974, 5.18632, 52.8908, -88.1516, 149.165
0.568, 1, 5.51117, 61.1724, 5.15019, 52.9753, -88.0813, 148.97
0.572, 1, 5.56876, 61.1474, 5.1141, 53.0598, -88.0111, 148.774
0.576, 1, 5.62631, 61.1224, 5.07804, 53.1443, -87.9409, 148.579
0.58, 1, 5.68381, 61.0974, 5.042, 53.2287, -87.8708, 148.384
0.584, 1, 5.74127, 61.0724, 5.00599, 53.313, -87.8008, 148.189
0.588, 1, 5.79868, 61.0475, 4.97, 53.3972, -87.7308, 147.994
0.592, 1, 5.85605, 61.0225, 4.93405, 53.4814, -87.6609, 147.799
0.596, 1, 5.91337, 60.9976, 4.89812, 53.5655, -87.591, 147.605
0.6, 1, 5.97065, 60.9727, 4.86223, 53.6496, -87.5212, 147.41
0.604, 1, 6.02788, 60.9478, 4.82636, 53.7336, -87.4514, 147.216
0.608, 1, 6.08507, 60.923, 4.79051, 53.8175, -87.3817, 147.022
0.612, 1, 6.14221, 60.8982, 4.7547, 53.9013, -87.312, 146.828
0.616, 1, 6.19931, 60.8734, 4.71892, 53.9851, -87.2424, 146.635
0.62, 1, 6.25636, 60.8486, 4.68316, 54.0688, -87.1728, 146.441
0.624, 1, 6.31337, 60.8238, 4.64743, 54.1525, -87.1033, 146.247
0.628, 1, 6.37033, 60.799, 4.61173, 54.2361, -87.0339, 146.054
0.632, 1, 6.42725, 60.7743, 4.57606, 54.3196, -86.9645, 145.861
0.636, 1, 6.48412, 60.7496, 4.54042, 54.4031, -86.8952, 145.668
0.64, 1, 6.54095, 60.7249, 4.5048, 54.4864, -86.8259, 145.475
0.644, 1, 6.59773, 60.7002, 4.46922, 54.5698, -86.7567, 145.283
0.648, 1, 6.65446, 60.6756, 4.43366, 54.653, -86.6875, 145.09
0.652, 1, 6.71115, 60.6509, 4.39813, 54.7362, -86.6184, 144.898
0.656, 1, 6.76779, 60.6263, 4.36263, 54.8193, -86.5494, 144.706
0.66, 1, 6.82439, 60.6017, 4.32716, 54.9024, -86.4804, 144.513
0.664, 1, 6.88094, 60.5771, 4.29172, 54.9853, -86.4114, 144.322
0.668, 1, 6.93745, 60.5526, 4.25631, 55.0683, -86.3426, 144.13
0.672, 1, 6.9939, 60.528, 4.22092, 55.1511, -86.2737, 143.938
0.676, 1, 7.05031, 60.5035, 4.18557, 55.2339, -86.205, 143.747
0.68, 1, 7.10668, 60.479, 4.15025, 55.3166, -86.1363, 143.556
0.684, 1, 7.163, 60.4546, 4.11495, 55.3992, -86.0676, 143.364
0.688, 1, 7.21927, 60.4301, 4.07968, 55.4818, -85.999, 143.174
0.692, 1, 7.2755, 60.4057, 4.04445, 55.5643, -85.9305, 142.983
0.696, 1, 7.33168, 60.3813, 4.00924, 55.6468, -85.862, 142.792
0.7, 1, 7.38781, 60.3569, 3.97406, 55.7291, -85.7935, 142.602
0.704, 1, 7.44389, 60.3325, 3.93891, 55.8114, -85.7252, 142.411
0.708, 1, 7.49993, 60.3082, 3.90379, 55.8937, -85.6569, 142.221
0.712, 1, 7.55592, 60.2838, 3.8687, 55.9758, -85.5886, 142.031
0.716, 1, 7.61187, 60.2595, 3.83364, 56.0579, -85.5204, 141.841
0.72, 1, 7.66776, 60.2352, 3.7986, 56.1399, -85.4523, 141.652
0.724, 1, 7.72361, 60.2109, 3.7636, 56.2219, -85.3842, 141.462
0.728, 1, 7.77942, 60.1867, 3.72863, 56.3038, -85.3162, 141.273
0.732, 1, 7.83517, 60.1625, 3.69369, 56.3856, -85.2482, 141.084
0.736, 1, 7.89088, 60.1383, 3.65877, 56.4673, -85.1803, 140.895
0.74, 1, 7.94654, 60.1141, 3.62389, 56.549, -85.1124, 140.706
0.744, 1, 8.00216, 60.0899, 3.58904, 56.6306, -85.0446, 140.517
0.748, 1, 8.05772, 60.0658, 3.55421, 56.7121, -84.9769, 140.328
0.752, 1, 8.11324, 60.0416, 3.51942, 56.7936, -84.9092, 140.14
0.756, 1, 8.16871, 60.0175, 3.48466, 56.875, -84.8416, 139.952
0.76, 1, 8.22414, 59.9934, 3.44992, 56.9563, -84.774, 139.764
0.764, 1, 8.27951, 59.9694, 3.41522, 57.0376, -84.7065, 139.576
0.768, 1, 8.33484, 59.9453, 3.38054, 57.1188, -84.6391, 139.388
0.772, 1, 8.39012, 59.9213, 3.3459, 57.1999, -84.5717, 139.201
0.776, 1, 8.44535, 59.8973, 3.31128, 57.2809, -84.5044, 139.013
0.78, 1, 8.50054, 59.8733, 3.2767, 57.3619, -84.4371, 138.826
0.784, 1, 8.55568, 59.8494, 3.24214, 57.4428, -84.3699, 138.639
0.788, 1, 8.61076, 59.8254, 3.20762, 57.5236, -84.3027, 138.452
0.792, 1, 8.66581, 59.8015, 3.17313, 57.6044, -84.2356, 138.265
0.796, 1, 8.7208, 59.7776, 3.13866, 57.6851, -84.1686, 138.079
0.8, 1, 8.77575, 59.7537, 3.10423, 57.7657, -84.1016, 137.892
0.804, 1, 8.83064, 59.7299, 3.06983, 57.8463, -84.0347, 137.706
0.808, 1, 8.88549, 59.7061, 3.03545, 57.9268, -83.9678, 137.52
0.812, 1, 8.94029, 59.6822, 3.00111, 58.0072, -83.901, 137.334
0.816, 1, 8.99505, 59.6584, 2.9668, 58.0875, -83.8343, 137.148
0.82, 1, 9.04975, 59.6347, 2.93251, 58.1678, -83.7676, 136.962
0.824, 1, 9.10441, 59.6109, 2.89826, 58.248, -83.701, 136.777
0.828, 1, 9.15902, 59.5872, 2.86404, 58.3281, -83.6344, 136.592
0.832, 1, 9.21358, 59.5635, 2.82985, 58.4082, -83.5679, 136.406
0.836, 1, 9.26809, 59.5398, 2.79569, 58.4881, -83.5014, 136.222
0.84, 1, 9.32255, 59.5161, 2.76155, 58.5681, -83.4351, 136.037
0.844, 1, 9.37696, 59.4925, 2.72745, 58.6479, -83.3687, 135.852
0.848, 1, 9.43133, 59.4689, 2.69338, 58.7277, -83.3025, 135.668
0.852, 1, 9.48565, 59.4453, 2.65934, 58.8074, -83.2362, 135.483
0.856, 1, 9.53992, 59.4217, 2.62533, 58.887, -83.1701, 135.299
0.86, 1, 9.59414, 59.3981, 2.59135, 58.9666, -83.104, 135.115
0.864, 1, 9.64831, 59.3746, 2.5574, 59.0461, -83.0379, 134.931
0.868, 1, 9.70243, 59.3511, 2.52349, 59.1255, -82.972, 134.748
0.872, 1, 9.75651, 59.3276, 2.4896, 59.2048, -82.9061, 134.564
0.876, 1, 9.81053, 59.3041, 2.45574, 59.2841, -82.8402, 134.381
0.88, 1, 9.86451, 59.2806, 2.42191, 59.3633, -82.7744, 134.198
0.884, 1, 9.91844, 59.2572, 2.38812, 59.4424, -82.7087, 134.015
0.888, 1, 9.97232, 59.2338, 2.35435, 59.5215, -82.643, 133.832
0.892, 1, 10.0262, 59.2104, 2.32062, 59.6005, -82.5774, 133.649
0.896, 1, 10.0799, 59.187, 2.28691, 59.6794, -82.5118, 133.467
0.9, 1, 10.1337, 59.1637, 2.25324, 59.7582, -82.4463, 133.285
0.904, 1, 10.1874, 59.1403, 2.21959, 59.837, -82.3809, 133.102
0.908, 1, 10.241, 59.117, 2.18598, 59.9157, -82.3155, 132.92
0.912, 1, 10.2946, 59.0937, 2.1524, 59.9943, -82.2502, 132.739
0.916, 1, 10.3481, 59.0705, 2.11884, 60.0729, -82.1849, 132.557
0.92, 1, 10.4016, 59.0472, 2.08532, 60.1514, -82.1197, 132.375
0.924, 1, 10.4551, 59.024, 2.05183, 60.2298, -82.0545, 132.194
0.928, 1, 10.5084, 59.0008, 2.01837, 60.3081, -81.9895, 132.013
0.932, 1, 10.5618, 58.9776, 1.98494, 60.3864, -81.9244, 131.832
0.936, 1, 10.6151, 58.9545, 1.95154, 60.4646, -81.8595, 131.651
0.94, 1, 10.6683, 58.9313, 1.91818, 60.5427, -81.7946, 131.47
0.944, 1, 10.7215, 58.9082, 1.88484, 60.6208, -81.7297, 131.29
0.948, 1, 10.7747, 58.8851, 1.85153, 60.6988, -81.6649, 131.11
0.952, 1, 10.8278, 58.862, 1.81826, 60.7767, -81.6002, 130.929
0.956, 1, 10.8808, 58.839, 1.78501, 60.8545, -81.5355, 130.749
0.96, 1, 10.9338, 58.816, 1.7518, 60.9323, -81.4709, 130.57
0.964, 1, 10.9868, 58.7929, 1.71861, 61.01, -81.4064, 130.39
0.968, 1, 11.0397, 58.77, 1.68546, 61.0876, -81.3419, 130.21
0.972, 1, 11.0925, 58.747, 1.65233, 61.1652, -81.2775, 130.031
0.976, 1, 11.1453, 58.724, 1.61924, 61.2427, -81.2131, 129.852
0.98, 1, 11.1981, 58.7011, 1.58618, 61.3201, -81.1488, 129.673
0.984, 1, 11.2508, 58.6782, 1.55315, 61.3974, -81.0845, 129.494
0.988, 1, 11.3035, 58.6553, 1.52015, 61.4747, -81.0203, 129.315
0.992, 1, 11.3561, 58.6325, 1.48718, 61.5519, -80.9562, 129.137
0.996, 1, 11.4086, 58.6096, 1.45424, 61.629, -80.8921, 128.958
1, 1, 11.4612, 58.5868, 1.42133, 61.706, -80.8281, 128.78
1.004, 1, 11.5136, 58.564, 1.38846, 61.783, -80.7642, 128.602
1.008, 1, 11.566, 58.5412, 1.35561, 61.8599, -80.7003, 128.424
1.012, 1, 11.6184, 58.5185, 1.32279, 61.9368, -80.6365, 128.247
1.016, 1, 11.6707, 58.4958, 1.29001, 62.0135, -80.5727, 128.069
1.02, 1, 11.723, 58.473, 1.25726, 62.0902, -80.509, 127.892
1.024, 1, 11.7752, 58.4504, 1.22453, 62.1668, -80.4453, 127.715
1.027, 1, 11.8274, 58.4277, 1.19184, 62.2434, -80.3817, 127.538
1.032, 1, 11.8795, 58.405, 1.15918, 62.3198, -80.3182, 127.361
1.036, 1, 11.9316, 58.3824, 1.12654, 62.3962, -80.2547, 127.184
1.04, 1, 11.9836, 58.3598, 1.09394, 62.4726, -80.1913, 127.008
1.044, 1, 12.0356, 58.3372, 1.06137, 62.5488, -80.1279, 126.831
1.048, 1, 12.0875, 58.3146, 1.02883, 62.625, -80.0647, 126.655
1.052, 1, 12.1394, 58.2921, 0.996325, 62.7011, -80.0014, 126.479
1.055, 1, 12.1912, 58.2696, 0.963847, 62.7772, -79.9382, 126.303
1.06, 1, 12.243, 58.2471, 0.931399, 62.8532, -79.8751, 126.128
1.064, 1, 12.2947, 58.2246, 0.898982, 62.9291, -79.8121, 125.952
1.068, 1, 12.3464, 58.2022, 0.866596, 63.0049, -79.7491, 125.777
1.072, 1, 12.398, 58.1797, 0.834241, 63.0807, -79.6861, 125.602
1.076, 1, 12.4496, 58.1573, 0.801916, 63.1563, -79.6233, 125.427
1.08, 1, 12.5011, 58.1349, 0.769621, 63.2319, -79.5604, 125.252
1.084, 1, 12.5526, 58.1125, 0.737357, 63.3075, -79.4977, 125.077
1.088, 1, 12.6041, 58.0902, 0.705124, 63.383, -79.435, 124.902
1.091, 1, 12.6555, 58.0679, 0.672921, 63.4584, -79.3724, 124.728
1.096, 1, 12.7068, 58.0455, 0.640749, 63.5337, -79.3098, 124.554
1.1, 1, 12.7581, 58.0233, 0.608608, 63.6089, -79.2473, 124.38
1.104, 1, 12.8093, 58.001, 0.576496, 63.6841, -79.1848, 124.206
1.108, 1, 12.8605, 57.9787, 0.544416, 63.7592, -79.1224, 124.032
1.112, 1, 12.9117, 57.9565, 0.512366, 63.8343, -79.06, 123.859
1.116, 1, 12.9628, 57.9343, 0.480346, 63.9093, -78.9978, 123.685
1.119, 1, 13.0138, 57.9121, 0.448356, 63.9841, -78.9355, 123.512
1.124, 1, 13.0648, 57.89, 0.416397, 64.059, -78.8734, 123.339
1.128, 1, 13.1158, 57.8678, 0.384469, 64.1337, -78.8113, 123.166
1.132, 1, 13.1667, 57.8457, 0.35257, 64.2084, -78.7492, 122.994
1.136, 1, 13.2175, 57.8236, 0.320702, 64.283, -78.6872, 122.821
1.14, 1, 13.2683, 57.8015, 0.288865, 64.3576, -78.6253, 122.649
1.144, 1, 13.3191, 57.7795, 0.257057, 64.4321, -78.5634, 122.476
1.147, 1, 13.3698, 57.7574, 0.22528, 64.5065, -78.5016, 122.304
1.152, 1, 13.4205, 57.7354, 0.193533, 64.5808, -78.4399, 122.133
1.156, 1, 13.4711, 57.7134, 0.161817, 64.6551, -78.3782, 121.961
1.16, 1, 13.5217, 57.6915, 0.13013, 64.7292, -78.3165, 121.789
1.164, 1, 13.5722, 57.6695, 0.098474, 64.8034, -78.255, 121.618
1.168, 1, 13.6226, 57.6476, 0.0668479, 64.8774, -78.1934, 121.447
1.172, 1, 13.6731, 57.6257, 0.0352519, 64.9514, -78.132, 121.276
1.175, 1, 13.7234, 57.6038, 0.00368597, 65.0253, -78.0706, 121.105
1.18, 1, 13.7738, 57.5819, -0.0278499, 65.0991, -78.0092, 120.934
1.184, 1, 13.8241, 57.5601, -0.0593556, 65.1729, -77.948, 120.763
1.188, 1, 13.8743, 57.5382, -0.0908313, 65.2466, -77.8867, 120.593
1.192, 1, 13.9245, 57.5164, -0.122277, 65.3202, -77.8256, 120.423
1.196, 1, 13.9746, 57.4947, -0.153693, 65.3938, -77.7645, 120.252
1.2, 1, 14.0247, 57.4729, -0.185079, 65.4673, -77.7034, 120.083
1.204, 1, 14.0747, 57.4511, -0.216434, 65.5407, -77.6424, 119.913
1.208, 1, 14.1247, 57.4294, -0.24776, 65.614, -77.5815, 119.743
1.212, 1, 14.1747, 57.4077, -0.279056, 65.6873, -77.5206, 119.574
1.216, 1, 14.2246, 57.386, -0.310322, 65.7605, -77.4598, 119.404
1.22, 1, 14.2744, 57.3644, -0.341559, 65.8337, -77.399, 119.235
1.224, 1, 14.3242, 57.3427, -0.372765, 65.9067, -77.3383, 119.066
1.228, 1, 14.374, 57.3211, -0.403942, 65.9797, -77.2777, 118.898
1.232, 1, 14.4237, 57.2995, -0.435089, 66.0527, -77.2171, 118.729
1.236, 1, 14.4733, 57.278, -0.466206, 66.1255, -77.1566, 118.56
1.24, 1, 14.5229, 57.2564, -0.497294, 66.1983, -77.0961, 118.392
1.244, 1, 14.5725, 57.2349, -0.528351, 66.271, -77.0357, 118.224
1.248, 1, 14.622, 57.2133, -0.559379, 66.3437, -76.9753, 118.056
1.252, 1, 14.6715, 57.1918, -0.590378, 66.4162, -76.915, 117.888
1.256, 1, 14.7209, 57.1704, -0.621347, 66.4888, -76.8548, 117.72
1.26, 1, 14.7703, 57.1489, -0.652286, 66.5612, -76.7946, 117.553
1.264, 1, 14.8196, 57.1275, -0.683196, 66.6336, -76.7345, 117.386
1.267, 1, 14.8689, 57.1061, -0.714076, 66.7059, -76.6744, 117.218
1.272, 1, 14.9181, 57.0847, -0.744927, 66.7781, -76.6144, 117.051
1.276, 1, 14.9673, 57.0633, -0.775748, 66.8503, -76.5545, 116.884
1.28, 1, 15.0165, 57.042, -0.80654, 66.9224, -76.4946, 116.718
1.284, 1, 15.0655, 57.0206, -0.837302, 66.9944, -76.4347, 116.551
1.288, 1, 15.1146, 56.9993, -0.868035, 67.0664, -76.3749, 116.385
1.292, 1, 15.1636, 56.978, -0.898739, 67.1382, -76.3152, 116.219
1.295, 1, 15.2125, 56.9567, -0.929413, 67.2101, -76.2556, 116.052
1.3, 1, 15.2615, 56.9355, -0.960058, 67.2818, -76.1959, 115.887
1.304, 1, 15.3103, 56.9143, -0.990674, 67.3535, -76.1364, 115.721
1.308, 1, 15.3591, 56.8931, -1.02126, 67.4251, -76.0769, 115.555
1.312, 1, 15.4079, 56.8719, -1.05182, 67.4967, -76.0175, 115.39
1.316, 1, 15.4566, 56.8507, -1.08235, 67.5681, -75.9581, 115.224
1.32, 1, 15.5053, 56.8295, -1.11284, 67.6395, -75.8988, 115.059
1.324, 1, 15.5539, 56.8084, -1.14331, 67.7109, -75.8395, 114.894
1.328, 1, 15.6025, 56.7873, -1.17375, 67.7822, -75.7803, 114.729
1.332, 1, 15.651, 56.7662, -1.20417, 67.8534, -75.7211, 114.565
1.336, 1, 15.6995, 56.7452, -1.23455, 67.9245, -75.662, 114.4
1.34, 1, 15.7479, 56.7241, -1.2649, 67.9956, -75.603, 114.236
1.344, 1, 15.7963, 56.7031, -1.29523, 68.0666, -75.544, 114.072
1.348, 1, 15.8447, 56.6821, -1.32553, 68.1375, -75.4851, 113.908
1.352, 1, 15.893, 56.6611, -1.35579, 68.2084, -75.4262, 113.744
1.356, 1, 15.9412, 56.6401, -1.38603, 68.2792, -75.3674, 113.58
1.36, 1, 15.9895, 56.6192, -1.41624, 68.3499, -75.3086, 113.417
1.364, 1, 16.0376, 56.5982, -1.44642, 68.4206, -75.2499, 113.253
1.368, 1, 16.0857, 56.5773, -1.47657, 68.4912, -75.1913, 113.09
1.372, 1, 16.1338, 56.5565, -1.50669, 68.5617, -75.1327, 112.927
1.376, 1, 16.1818, 56.5356, -1.53679, 68.6322, -75.0741, 112.764
1.38, 1, 16.2298, 56.5147, -1.56685, 68.7026, -75.0156, 112.601
1.384, 1, 16.2778, 56.4939, -1.59689, 68.7729, -74.9572, 112.439
1.388, 1, 16.3256, 56.4731, -1.62689, 68.8431, -74.8989, 112.276
1.392, 1, 16.3735, 56.4523, -1.65687, 68.9133, -74.8405, 112.114
1.396, 1, 16.4213, 56.4315, -1.68682, 68.9835, -74.7823, 111.952
1.4, 1, 16.469, 56.4108, -1.71674, 69.0535, -74.7241, 111.79
1.404, 1, 16.5168, 56.3901, -1.74664, 69.1235, -74.6659, 111.628
1.408, 1, 16.5644, 56.3694, -1.7765, 69.1934, -74.6078, 111.466
1.412, 1, 16.612, 56.3487, -1.80634, 69.2633, -74.5498, 111.304
1.416, 1, 16.6596, 56.328, -1.83615, 69.3331, -74.4918, 111.143
1.42, 1, 16.7071, 56.3073, -1.86593, 69.4028, -74.4339, 110.982
1.424, 1, 16.7546, 56.2867, -1.89568, 69.4725, -74.376, 110.821
1.428, 1, 16.8021, 56.2661, -1.9254, 69.5421, -74.3182, 110.66
1.432, 1, 16.8494, 56.2455, -1.9551, 69.6116, -74.2604, 110.499
1.436, 1, 16.8968, 56.2249, -1.98477, 69.6811, -74.2027, 110.338
1.44, 1, 16.9441, 56.2044, -2.0144, 69.7505, -74.1451, 110.178
1.444, 1, 16.9914, 56.1838, -2.04402, 69.8198, -74.0875, 110.018
1.448, 1, 17.0386, 56.1633, -2.0736, 69.8891, -74.0299, 109.857
1.452, 1, 17.0857, 56.1428, -2.10315, 69.9583, -73.9724, 109.697
1.456, 1, 17.1329, 56.1224, -2.13268, 70.0274, -73.915, 109.537
1.46, 1, 17.1799, 56.1019, -2.16218, 70.0965, -73.8576, 109.378
1.464, 1, 17.227, 56.0815, -2.19165, 70.1655, -73.8003, 109.218
1.468, 1, 17.274, 56.061, -2.2211, 70.2344, -73.743, 109.059
1.472, 1, 17.3209, 56.0406, -2.25051, 70.3033, -73.6858, 108.899
1.476, 1, 17.3678, 56.0203, -2.2799, 70.3721, -73.6286, 108.74
1.48, 1, 17.4147, 55.9999, -2.30926, 70.4409, -73.5715, 108.581
1.484, 1, 17.4615, 55.9796, -2.3386, 70.5095, -73.5145, 108.423
1.488, 1, 17.5083, 55.9592, -2.3679, 70.5781, -73.4575, 108.264
1.492, 1, 17.555, 55.9389, -2.39718, 70.6467, -73.4005, 108.105
1.496, 1, 17.6017, 55.9187, -2.42643, 70.7152, -73.3436, 107.947
1.5, 1, 17.6483, 55.8984, -2.45565, 70.7836, -73.2868, 107.789
1.504, 1, 17.6949, 55.8781, -2.48485, 70.852, -73.23, 107.631
1.508, 1, 17.7415, 55.8579, -2.51402, 70.9203, -73.1732, 107.473
1.512, 1, 17.788, 55.8377, -2.54316, 70.9885, -73.1166, 107.315
1.516, 1, 17.8344, 55.8175, -2.57227, 71.0567, -73.0599, 107.157
1.52, 1, 17.8809, 55.7973, -2.60136, 71.1248, -73.0033, 107
1.524, 1, 17.9272, 55.7772, -2.63042, 71.1928, -72.9468, 106.842
1.528, 1, 17.9736, 55.7571, -2.65945, 71.2608, -72.8903, 106.685
1.532, 1, 18.0199, 55.7369, -2.68846, 71.3287, -72.8339, 106.528
1.536, 1, 18.0661, 55.7169, -2.71744, 71.3966, -72.7776, 106.371
1.54, 1, 18.1123, 55.6968, -2.74639, 71.4643, -72.7212, 106.215
1.544, 1, 18.1585, 55.6767, -2.77531, 71.5321, -72.665, 106.058
1.548, 1, 18.2046, 55.6567, -2.80421, 71.5997, -72.6088, 105.902
1.552, 1, 18.2507, 55.6367, -2.83308, 71.6673, -72.5526, 105.745
1.556, 1, 18.2967, 55.6167, -2.86193, 71.7349, -72.4965, 105.589
1.56, 1, 18.3427, 55.5967, -2.89074, 71.8024, -72.4404, 105.433
1.564, 1, 18.3886, 55.5767, -2.91953, 71.8698, -72.3844, 105.277
1.568, 1, 18.4346, 55.5568, -2.9483, 71.9371, -72.3285, 105.121
1.572, 1, 18.4804, 55.5368, -2.97704, 72.0044, -72.2726, 104.966
1.576, 1, 18.5262, 55.5169, -3.00575, 72.0716, -72.2167, 104.81
1.58, 1, 18.572, 55.497, -3.03443, 72.1388, -72.1609, 104.655
1.584, 1, 18.6178, 55.4772, -3.06309, 72.2059, -72.1052, 104.5
1.588, 1, 18.6634, 55.4573, -3.09172, 72.2729, -72.0495, 104.345
1.592, 1, 18.7091, 55.4375, -3.12032, 72.3399, -71.9939, 104.19
1.596, 1, 18.7547, 55.4177, -3.1489, 72.4068, -71.9383, 104.035
1.6, 1, 18.8003, 55.3979, -3.17745, 72.4737, -71.8827, 103.881
1.604, 1, 18.8458, 55.3781, -3.20598, 72.5404, -71.8273, 103.726
1.608, 1, 18.8913, 55.3583, -3.23448, 72.6072, -71.7718, 103.572
1.612, 1, 18.9367, 55.3386, -3.26295, 72.6738, -71.7164, 103.418
1.616, 1, 18.9821, 55.3188, -3.2914, 72.7404, -71.6611, 103.264
1.62, 1, 19.0275, 55.2991, -3.31982, 72.807, -71.6058, 103.11
1.624, 1, 19.0728, 55.2794, -3.34821, 72.8735, -71.5506, 102.956
1.628, 1, 19.1181, 55.2598, -3.37658, 72.9399, -71.4954, 102.802
1.632, 1, 19.1633, 55.2401, -3.40492, 73.0063, -71.4403, 102.649
1.636, 1, 19.2085, 55.2205, -3.43324, 73.0726, -71.3852, 102.496
1.64, 1, 19.2537, 55.2009, -3.46153, 73.1388, -71.3302, 102.343
1.644, 1, 19.2988, 55.1813, -3.48979, 73.205, -71.2752, 102.189
1.648, 1, 19.3438, 55.1617, -3.51803, 73.2711, -71.2203, 102.037
1.652, 1, 19.3889, 55.1421, -3.54624, 73.3372, -71.1654, 101.884
1.656, 1, 19.4338, 55.1226, -3.57443, 73.4032, -71.1105, 101.731
1.66, 1, 19.4788, 55.103, -3.60259, 73.4691, -71.0558, 101.579
1.664, 1, 19.5237, 55.0835, -3.63073, 73.535, -71.001, 101.426
1.668, 1, 19.5686, 55.064, -3.65884, 73.6008, -70.9464, 101.274
1.672, 1, 19.6134, 55.0446, -3.68692, 73.6665, -70.8917, 101.122
1.676, 1, 19.6582, 55.0251, -3.71498, 73.7322, -70.8372, 100.97
1.68, 1, 19.7029, 55.0057, -3.74301, 73.7979, -70.7826, 100.818
1.684, 1, 19.7476, 54.9862, -3.77102, 73.8635, -70.7281, 100.667
1.688, 1, 19.7923, 54.9668, -3.799, 73.929, -70.6737, 100.515
1.692, 1, 19.8369, 54.9474, -3.82696, 73.9944, -70.6193, 100.364
1.696, 1, 19.8814, 54.9281, -3.85489, 74.0598, -70.565, 100.213
1.7, 1, 19.926, 54.9087, -3.8828, 74.1252, -70.5107, 100.062
1.704, 1, 19.9705, 54.8894, -3.91068, 74.1905, -70.4565, 99.9106
1.708, 1, 20.0149, 54.8701, -3.93853, 74.2557, -70.4023, 99.7598
1.712, 1, 20.0594, 54.8508, -3.96637, 74.3208, -70.3482, 99.6091
1.716, 1, 20.1037, 54.8315, -3.99417, 74.3859, -70.2941, 99.4585
1.72, 1, 20.1481, 54.8122, -4.02195, 74.451, -70.24, 99.3081
1.724, 1, 20.1924, 54.793, -4.04971, 74.516, -70.1861, 99.1579
1.728, 1, 20.2366, 54.7738, -4.07744, 74.5809, -70.1321, 99.0077
1.732, 1, 20.2808, 54.7545, -4.10514, 74.6458, -70.0782, 98.8577
1.736, 1, 20.325, 54.7354, -4.13282, 74.7106, -70.0244, 98.7078
1.74, 1, 20.3692, 54.7162, -4.16048, 74.7753, -69.9706, 98.5581
1.744, 1, 20.4133, 54.697, -4.18811, 74.84, -69.9168, 98.4085
1.748, 1, 20.4573, 54.6779, -4.21572, 74.9047, -69.8631, 98.259
1.752, 1, 20.5013, 54.6587, -4.2433, 74.9692, -69.8095, 98.1097
1.756, 1, 20.5453, 54.6396, -4.27085, 75.0338, -69.7559, 97.9605
1.76, 1, 20.5893, 54.6205, -4.29839, 75.0982, -69.7023, 97.8114
1.764, 1, 20.6332, 54.6015, -4.32589, 75.1626, -69.6488, 97.6625
1.768, 1, 20.677, 54.5824, -4.35338, 75.227, -69.5954, 97.5137
1.772, 1, 20.7209, 54.5634, -4.38083, 75.2913, -69.542, 97.365
1.776, 1, 20.7646, 54.5443, -4.40827, 75.3555, -69.4886, 97.2165
1.78, 1, 20.8084, 54.5253, -4.43568, 75.4197, -69.4353, 97.068
1.784, 1, 20.8521, 54.5063, -4.46306, 75.4838, -69.382, 96.9198
1.788, 1, 20.8958, 54.4874, -4.49043, 75.5479, -69.3288, 96.7716
1.792, 1, 20.9394, 54.4684, -4.51776, 75.6119, -69.2756, 96.6236
1.796, 1, 20.983, 54.4495, -4.54507, 75.6758, -69.2225, 96.4757
1.8, 1, 21.0265, 54.4306, -4.57236, 75.7397, -69.1694, 96.328
1.804, 1, 21.07, 54.4116, -4.59963, 75.8036, -69.1164, 96.1803
1.808, 1, 21.1135, 54.3928, -4.62687, 75.8673, -69.0634, 96.0329
1.812, 1, 21.157, 54.3739, -4.65409, 75.9311, -69.0104, 95.8855
1.816, 1, 21.2004, 54.355, -4.68128, 75.9947, -68.9575, 95.7383
1.82, 1, 21.2437, 54.3362, -4.70845, 76.0584, -68.9047, 95.5911
1.824, 1, 21.2871, 54.3174, -4.73559, 76.1219, -68.8519, 95.4442
1.828, 1, 21.3303, 54.2985, -4.76271, 76.1854, -68.7991, 95.2973
1.832, 1, 21.3736, 54.2798, -4.78981, 76.2489, -68.7464, 95.1506
1.836, 1, 21.4168, 54.261, -4.81689, 76.3123, -68.6938, 95.004
1.84, 1, 21.46, 54.2422, -4.84394, 76.3756, -68.6411, 94.8576
1.844, 1, 21.5031, 54.2235, -4.87096, 76.4389, -68.5886, 94.7112
1.848, 1, 21.5462, 54.2048, -4.89797, 76.5021, -68.536, 94.565
1.852, 1, 21.5893, 54.186, -4.92495, 76.5653, -68.4836, 94.4189
1.856, 1, 21.6323, 54.1674, -4.9519, 76.6284, -68.4311, 94.273
1.86, 1, 21.6753, 54.1487, -4.97884, 76.6915, -68.3787, 94.1271
1.864, 1, 21.7182, 54.13, -5.00575, 76.7545, -68.3264, 93.9814
1.868, 1, 21.7611, 54.1114, -5.03263, 76.8174, -68.2741, 93.8359
1.872, 1, 21.804, 54.0927, -5.0595, 76.8803, -68.2218, 93.6904
1.876, 1, 21.8468, 54.0741, -5.08634, 76.9432, -68.1696, 93.5451
1.88, 1, 21.8896, 54.0555, -5.11315, 77.006, -68.1175, 93.3999
1.884, 1, 21.9324, 54.037, -5.13995, 77.0687, -68.0653, 93.2548
1.888, 1, 21.9751, 54.0184, -5.16672, 77.1314, -68.0133, 93.1099
1.892, 1, 22.0178, 53.9998, -5.19347, 77.194, -67.9612, 92.965
1.896, 1, 22.0605, 53.9813, -5.22019, 77.2566, -67.9093, 92.8203
1.9, 1, 22.1031, 53.9628, -5.24689, 77.3191, -67.8573, 92.6758
1.904, 1, 22.1457, 53.9443, -5.27357, 77.3816, -67.8054, 92.5313
1.908, 1, 22.1882, 53.9258, -5.30023, 77.444, -67.7536, 92.387
1.912, 1, 22.2307, 53.9073, -5.32686, 77.5063, -67.7018, 92.2428
1.916, 1, 22.2732, 53.8889, -5.35347, 77.5686, -67.65, 92.0987
1.92, 1, 22.3156, 53.8704, -5.38006, 77.6309, -67.5983, 91.9547
1.924, 1, 22.358, 53.852, -5.40662, 77.6931, -67.5466, 91.8109
1.928, 1, 22.4004, 53.8336, -5.43317, 77.7552, -67.495, 91.6672
1.932, 1, 22.4427, 53.8152, -5.45969, 77.8173, -67.4434, 91.5236
1.936, 1, 22.485, 53.7969, -5.48618, 77.8794, -67.3918, 91.3801
1.94, 1, 22.5273, 53.7785, -5.51266, 77.9414, -67.3403, 91.2368
1.944, 1, 22.5695, 53.7601, -5.53911, 78.0033, -67.2889, 91.0936
1.948, 1, 22.6117, 53.7418, -5.56554, 78.0652, -67.2375, 90.9504
1.952, 1, 22.6538, 53.7235, -5.59195, 78.127, -67.1861, 90.8075
1.956, 1, 22.6959, 53.7052, -5.61834, 78.1888, -67.1348, 90.6646
1.96, 1, 22.738, 53.6869, -5.6447, 78.2505, -67.0835, 90.5219
1.964, 1, 22.78, 53.6687, -5.67104, 78.3122, -67.0323, 90.3792
1.968, 1, 22.822, 53.6504, -5.69736, 78.3738, -66.9811, 90.2367
1.972, 1, 22.864, 53.6322, -5.72366, 78.4354, -66.9299, 90.0943
1.976, 1, 22.9059, 53.614, -5.74993, 78.4969, -66.8788, 89.9521
1.98, 1, 22.9478, 53.5957, -5.77618, 78.5584, -66.8278, 89.8099
1.984, 1, 22.9897, 53.5776, -5.80241, 78.6198, -66.7767, 89.6679
1.988, 1, 23.0315, 53.5594, -5.82862, 78.6812, -66.7257, 89.526
1.992, 1, 23.0733, 53.5412, -5.85481, 78.7425, -66.6748, 89.3842
1.996, 1, 23.1151, 53.5231, -5.88097, 78.8037, -66.6239, 89.2426
1.999, 1, 23.1568, 53.505, -5.90712, 78.865, -66.5731, 89.101
2.004, 1, 23.1985, 53.4868, -5.93324, 78.9261, -66.5222, 88.9596
2.008, 1, 23.2402, 53.4687, -5.95934, 78.9872, -66.4715, 88.8183
2.012, 1, 23.2818, 53.4507, -5.98541, 79.0483, -66.4208, 88.6771
2.015, 1, 23.3234, 53.4326, -6.01147, 79.1093, -66.3701, 88.536
2.019, 1, 23.3649, 53.4145, -6.0375, 79.1703, -66.3194, 88.395
2.024, 1, 23.4064, 53.3965, -6.06352, 79.2312, -66.2688, 88.2542
2.028, 1, 23.4479, 53.3785, -6.08951, 79.292, -66.2183, 88.1134
2.031, 1, 23.4894, 53.3605, -6.11548, 79.3528, -66.1678, 87.9728
2.036, 1, 23.5308, 53.3425, -6.14143, 79.4136, -66.1173, 87.8323
2.04, 1, 23.5721, 53.3245, -6.16735, 79.4743, -66.0668, 87.692
2.044, 1, 23.6135, 53.3065, -6.19326, 79.535, -66.0165, 87.5517
2.048, 1, 23.6548, 53.2886, -6.21914, 79.5956, -65.9661, 87.4115
2.051, 1, 23.6961, 53.2706, -6.24501, 79.6561, -65.9158, 87.2715
2.055, 1, 23.7373, 53.2527, -6.27085, 79.7166, -65.8655, 87.1316
2.06, 1, 23.7785, 53.2348, -6.29667, 79.7771, -65.8153, 86.9918
2.064, 1, 23.8197, 53.2169, -6.32247, 79.8375, -65.7651, 86.8521
2.068, 1, 23.8609, 53.199, -6.34824, 79.8978, -65.715, 86.7125
2.071, 1, 23.902, 53.1812, -6.374, 79.9581, -65.6649, 86.5731
2.076, 1, 23.943, 53.1633, -6.39974, 80.0184, -65.6148, 86.4337
2.08, 1, 23.9841, 53.1455, -6.42545, 80.0786, -65.5648, 86.2945
2.084, 1, 24.0251, 53.1277, -6.45115, 80.1388, -65.5148, 86.1554
2.087, 1, 24.0661, 53.1099, -6.47682, 80.1989, -65.4649, 86.0164
2.092, 1, 24.107, 53.0921, -6.50247, 80.2589, -65.415, 85.8775
2.096, 1, 24.1479, 53.0743, -6.5281, 80.319, -65.3651, 85.7387
2.1, 1, 24.1888, 53.0566, -6.55371, 80.3789, -65.3153, 85.6
2.104, 1, 24.2296, 53.0388, -6.5793, 80.4388, -65.2655, 85.4615
2.107, 1, 24.2704, 53.0211, -6.60487, 80.4987, -65.2158, 85.323
2.111, 1, 24.3112, 53.0034, -6.63042, 80.5585, -65.1661, 85.1847
2.116, 1, 24.352, 52.9857, -6.65595, 80.6183, -65.1164, 85.0465
2.12, 1, 24.3927, 52.968, -6.68146, 80.678, -65.0668, 84.9083
2.124, 1, 24.4334, 52.9503, -6.70695, 80.7377, -65.0172, 84.7703
2.127, 1, 24.474, 52.9326, -6.73241, 80.7973, -64.9677, 84.6325
2.132, 1, 24.5146, 52.915, -6.75786, 80.8569, -64.9182, 84.4947
2.136, 1, 24.5552, 52.8974, -6.78329, 80.9165, -64.8687, 84.357
2.14, 1, 24.5957, 52.8797, -6.80869, 80.9759, -64.8193, 84.2194
2.143, 1, 24.6363, 52.8621, -6.83408, 81.0354, -64.7699, 84.082
2.148, 1, 24.6767, 52.8445, -6.85944, 81.0948, -64.7206, 83.9446
2.152, 1, 24.7172, 52.827, -6.88479, 81.1541, -64.6713, 83.8074
2.156, 1, 24.7576, 52.8094, -6.91011, 81.2134, -64.622, 83.6703
2.16, 1, 24.798, 52.7919, -6.93542, 81.2727, -64.5728, 83.5333
2.163, 1, 24.8384, 52.7743, -6.9607, 81.3319, -64.5236, 83.3964
2.168, 1, 24.8787, 52.7568, -6.98597, 81.391, -64.4745, 83.2596
2.172, 1, 24.919, 52.7393, -7.01122, 81.4501, -64.4254, 83.1229
2.176, 1, 24.9592, 52.7218, -7.03644, 81.5092, -64.3763, 82.9863
2.179, 1, 24.9995, 52.7043, -7.06165, 81.5682, -64.3273, 82.8498
2.184, 1, 25.0397, 52.6869, -7.08683, 81.6272, -64.2783, 82.7135
2.188, 1, 25.0798, 52.6694, -7.112, 81.6861, -64.2293, 82.5772
2.192, 1, 25.12, 52.652, -7.13715, 81.745, -64.1804, 82.441
2.196, 1, 25.1601, 52.6345, -7.16227, 81.8038, -64.1315, 82.305
2.199, 1, 25.2001, 52.6171, -7.18738, 81.8626, -64.0827, 82.169
2.204, 1, 25.2402, 52.5997, -7.21247, 81.9214, -64.0339, 82.0332
2.208, 1, 25.2802, 52.5823, -7.23754, 81.9801, -63.9851, 81.8975
2.212, 1, 25.3202, 52.565, -7.26259, 82.0387, -63.9364, 81.7618
2.216, 1, 25.3601, 52.5476, -7.28762, 82.0973, -63.8877, 81.6263
2.219, 1, 25.4, 52.5303, -7.31263, 82.1559, -63.8391, 81.4909
2.224, 1, 25.4399, 52.5129, -7.33762, 82.2144, -63.7905, 81.3556
2.228, 1, 25.4798, 52.4956, -7.36259, 82.2729, -63.7419, 81.2204
2.232, 1, 25.5196, 52.4783, -7.38754, 82.3313, -63.6934, 81.0853
2.235, 1, 25.5594, 52.461, -7.41247, 82.3897, -63.6449, 80.9503
2.24, 1, 25.5992, 52.4438, -7.43739, 82.448, -63.5964, 80.8154
2.244, 1, 25.6389, 52.4265, -7.46228, 82.5063, -63.548, 80.6806
2.248, 1, 25.6786, 52.4092, -7.48716, 82.5645, -63.4996, 80.5459
2.252, 1, 25.7183, 52.392, -7.51201, 82.6227, -63.4512, 80.4113
2.255, 1, 25.7579, 52.3748, -7.53685, 82.6809, -63.4029, 80.2768
2.259, 1, 25.7975, 52.3576, -7.56167, 82.739, -63.3546, 80.1425
2.264, 1, 25.8371, 52.3404, -7.58647, 82.7971, -63.3064, 80.0082
2.268, 1, 25.8766, 52.3232, -7.61125, 82.8551, -63.2582, 79.874
2.272, 1, 25.9162, 52.306, -7.63601, 82.9131, -63.21, 79.7399
2.275, 1, 25.9557, 52.2889, -7.66075, 82.971, -63.1619, 79.606
2.28, 1, 25.9951, 52.2717, -7.68548, 83.0289, -63.1138, 79.4721
2.284, 1, 26.0345, 52.2546, -7.71018, 83.0867, -63.0657, 79.3383
2.288, 1, 26.0739, 52.2375, -7.73487, 83.1445, -63.0177, 79.2047
2.291, 1, 26.1133, 52.2204, -7.75954, 83.2023, -62.9697, 79.0711
2.296, 1, 26.1527, 52.2033, -7.78419, 83.26, -62.9218, 78.9376
2.3, 1, 26.192, 52.1862, -7.80882, 83.3177, -62.8739, 78.8043
2.304, 1, 26.2313, 52.1691, -7.83343, 83.3753, -62.826, 78.671
2.308, 1, 26.2705, 52.1521, -7.85803, 83.4329, -62.7782, 78.5378
2.311, 1, 26.3097, 52.135, -7.8826, 83.4904, -62.7304, 78.4048
2.316, 1, 26.3489, 52.118, -7.90716, 83.5479, -62.6826, 78.2718
2.32, 1, 26.3881, 52.101, -7.9317, 83.6054, -62.6349, 78.1389
2.324, 1, 26.4272, 52.084, -7.95622, 83.6628, -62.5872, 78.0062
2.328, 1, 26.4663, 52.067, -7.98072, 83.7202, -62.5395, 77.8735
2.331, 1, 26.5054, 52.05, -8.0052, 83.7775, -62.4919, 77.741
2.336, 1, 26.5445, 52.033, -8.02967, 83.8348, -62.4443, 77.6085
2.34, 1, 26.5835, 52.0161, -8.05412, 83.892, -62.3967, 77.4761
2.344, 1, 26.6225, 51.9991, -8.07855, 83.9492, -62.3492, 77.3438
2.347, 1, 26.6614, 51.9822, -8.10296, 84.0064, -62.3017, 77.2117
2.352, 1, 26.7003, 51.9653, -8.12735, 84.0635, -62.2543, 77.0796
2.356, 1, 26.7393, 51.9484, -8.15172, 84.1206, -62.2069, 76.9476
2.36, 1, 26.7781, 51.9315, -8.17608, 84.1776, -62.1595, 76.8157
2.364, 1, 26.817, 51.9146, -8.20042, 84.2346, -62.1121, 76.6839
2.367, 1, 26.8558, 51.8978, -8.22474, 84.2915, -62.0648, 76.5523
2.372, 1, 26.8946, 51.8809, -8.24905, 84.3485, -62.0176, 76.4207
2.376, 1, 26.9333, 51.8641, -8.27333, 84.4053, -61.9703, 76.2892
2.38, 1, 26.9721, 51.8472, -8.2976, 84.4621, -61.9231, 76.1578
2.383, 1, 27.0108, 51.8304, -8.32185, 84.5189, -61.8759, 76.0265
2.388, 1, 27.0494, 51.8136, -8.34608, 84.5757, -61.8288, 75.8953
2.392, 1, 27.0881, 51.7968, -8.3703, 84.6324, -61.7817, 75.7642
2.396, 1, 27.1267, 51.78, -8.39449, 84.689, -61.7346, 75.6331
2.4, 1, 27.1653, 51.7633, -8.41867, 84.7456, -61.6876, 75.5022
2.403, 1, 27.2039, 51.7465, -8.44283, 84.8022, -61.6406, 75.3714
2.408, 1, 27.2424, 51.7298, -8.46698, 84.8587, -61.5936, 75.2407
2.412, 1, 27.2809, 51.713, -8.4911, 84.9152, -61.5467, 75.1101
2.416, 1, 27.3194, 51.6963, -8.51521, 84.9717, -61.4998, 74.9795
2.42, 1, 27.3578, 51.6796, -8.5393, 85.0281, -61.4529, 74.8491
2.423, 1, 27.3963, 51.6629, -8.56338, 85.0844, -61.4061, 74.7187
2.428, 1, 27.4347, 51.6462, -8.58743, 85.1408, -61.3593, 74.5885
2.432, 1, 27.473, 51.6296, -8.61147, 85.1971, -61.3126, 74.4583
2.436, 1, 27.5114, 51.6129, -8.6355, 85.2533, -61.2658, 74.3282
2.439, 1, 27.5497, 51.5963, -8.6595, 85.3095, -61.2191, 74.1983
2.444, 1, 27.588, 51.5796, -8.68349, 85.3657, -61.1725, 74.0684
2.448, 1, 27.6262, 51.563, -8.70746, 85.4218, -61.1259, 73.9386
2.452, 1, 27.6644, 51.5464, -8.73141, 85.4779, -61.0793, 73.8089
2.456, 1, 27.7026, 51.5298, -8.75535, 85.5339, -61.0327, 73.6793
2.459, 1, 27.7408, 51.5132, -8.77927, 85.5899, -60.9862, 73.5498
2.464, 1, 27.779, 51.4966, -8.80317, 85.6459, -60.9397, 73.4204
2.468, 1, 27.8171, 51.4801, -8.82705, 85.7018, -60.8932, 73.291
2.472, 1, 27.8552, 51.4635, -8.85092, 85.7577, -60.8468, 73.1618
2.476, 1, 27.8933, 51.447, -8.87477, 85.8136, -60.8004, 73.0327
2.479, 1, 27.9313, 51.4304, -8.89861, 85.8694, -60.754, 72.9036
2.484, 1, 27.9693, 51.4139, -8.92242, 85.9251, -60.7077, 72.7747
2.488, 1, 28.0073, 51.3974, -8.94623, 85.9809, -60.6614, 72.6458
2.492, 1, 28.0453, 51.3809, -8.97001, 86.0366, -60.6151, 72.517
2.495, 1, 28.0832, 51.3644, -8.99378, 86.0922, -60.5689, 72.3883
2.5, 1, 28.1211, 51.348, -9.01753, 86.1478, -60.5227, 72.2597
2.504, 1, 28.159, 51.3315, -9.04126, 86.2034, -60.4765, 72.1312
2.508, 1, 28.1968, 51.3151, -9.06498, 86.2589, -60.4304, 72.0028
2.512, 1, 28.2347, 51.2986, -9.08868, 86.3144, -60.3843, 71.8745
2.515, 1, 28.2725, 51.2822, -9.11237, 86.3699, -60.3382, 71.7462
2.52, 1, 28.3102, 51.2658, -9.13603, 86.4253, -60.2922, 71.6181
2.524, 1, 28.348, 51.2494, -9.15969, 86.4807, -60.2462, 71.49
2.528, 1, 28.3857, 51.233, -9.18332, 86.536, -60.2002, 71.362
2.531, 1, 28.4234, 51.2166, -9.20694, 86.5913, -60.1543, 71.2341
2.536, 1, 28.4611, 51.2003, -9.23054, 86.6466, -60.1083, 71.1063
2.54, 1, 28.4987, 51.1839, -9.25413, 86.7018, -60.0625, 70.9786
2.544, 1, 28.5363, 51.1676, -9.2777, 86.757, -60.0166, 70.851
2.548, 1, 28.5739, 51.1512, -9.30125, 86.8121, -59.9708, 70.7235
2.551, 1, 28.6115, 51.1349, -9.32479, 86.8673, -59.925, 70.596
2.556, 1, 28.649, 51.1186, -9.34831, 86.9223, -59.8793, 70.4687
2.56, 1, 28.6866, 51.1023, -9.37182, 86.9774, -59.8335, 70.3414
2.564, 1, 28.724, 51.086, -9.39531, 87.0324, -59.7878, 70.2142
2.568, 1, 28.7615, 51.0697, -9.41878, 87.0873, -59.7422, 70.0871
2.571, 1, 28.7989, 51.0535, -9.44224, 87.1423, -59.6966, 69.9601
2.576, 1, 28.8364, 51.0372, -9.46568, 87.1971, -59.651, 69.8332
2.58, 1, 28.8738, 51.021, -9.48911, 87.252, -59.6054, 69.7064
2.584, 1, 28.9111, 51.0047, -9.51252, 87.3068, -59.5599, 69.5796
2.587, 1, 28.9485, 50.9885, -9.53591, 87.3616, -59.5143, 69.4529
2.592, 1, 28.9858, 50.9723, -9.55929, 87.4163, -59.4689, 69.3263
2.596, 1, 29.0231, 50.9561, -9.58265, 87.471, -59.4234, 69.1999
2.6, 1, 29.0603, 50.9399, -9.606, 87.5257, -59.378, 69.0734
2.604, 1, 29.0975, 50.9237, -9.62933, 87.5803, -59.3326, 68.9471
2.607, 1, 29.1348, 50.9075, -9.65264, 87.6349, -59.2873, 68.8209
2.612, 1, 29.1719, 50.8914, -9.67594, 87.6895, -59.242, 68.6947
2.616, 1, 29.2091, 50.8752, -9.69923, 87.744, -59.1967, 68.5686
2.62, 1, 29.2462, 50.8591, -9.7225, 87.7985, -59.1514, 68.4427
2.624, 1, 29.2834, 50.843, -9.74575, 87.8529, -59.1062, 68.3167
2.627, 1, 29.3204, 50.8269, -9.76899, 87.9073, -59.061, 68.1909
2.632, 1, 29.3575, 50.8108, -9.79221, 87.9617, -59.0158, 68.0652
2.636, 1, 29.3946, 50.7947, -9.81542, 88.016, -58.9706, 67.9395
2.64, 1, 29.4316, 50.7786, -9.83861, 88.0703, -58.9255, 67.814
2.643, 1, 29.4686, 50.7625, -9.86179, 88.1246, -58.8805, 67.6885
2.648, 1, 29.5055, 50.7464, -9.88495, 88.1788, -58.8354, 67.5631
2.652, 1, 29.5425, 50.7304, -9.90809, 88.233, -58.7904, 67.4377
2.656, 1, 29.5794, 50.7144, -9.93122, 88.2872, -58.7454, 67.3125
2.66, 1, 29.6163, 50.6983, -9.95434, 88.3413, -58.7004, 67.1873
2.663, 1, 29.6531, 50.6823, -9.97744, 88.3954, -58.6555, 67.0623
2.668, 1, 29.69, 50.6663, -10.0005, 88.4495, -58.6106, 66.9373
2.672, 1, 29.7268, 50.6503, -10.0236, 88.5035, -58.5657, 66.8124
2.676, 1, 29.7636, 50.6343, -10.0466, 88.5574, -58.5209, 66.6875
2.679, 1, 29.8004, 50.6183, -10.0697, 88.6114, -58.476, 66.5628
2.684, 1, 29.8371, 50.6024, -10.0927, 88.6653, -58.4313, 66.4381
2.688, 1, 29.8738, 50.5864, -10.1157, 88.7192, -58.3865, 66.3135
2.692, 1, 29.9105, 50.5705, -10.1387, 88.773, -58.3418, 66.189
2.696, 1, 29.9472, 50.5545, -10.1617, 88.8268, -58.2971, 66.0646
2.699, 1, 29.9839, 50.5386, -10.1847, 88.8806, -58.2524, 65.9403
2.704, 1, 30.0205, 50.5227, -10.2076, 88.9343, -58.2078, 65.816
2.708, 1, 30.0571, 50.5068, -10.2305, 88.9881, -58.1631, 65.6918
2.712, 1, 30.0937, 50.4909, -10.2535, 89.0417, -58.1186, 65.5677
2.716, 1, 30.1302, 50.475, -10.2764, 89.0953, -58.074, 65.4437
2.719, 1, 30.1668, 50.4591, -10.2993, 89.1489, -58.0295, 65.3197
2.724, 1, 30.2033, 50.4433, -10.3221, 89.2025, -57.985, 65.1959
2.728, 1, 30.2398, 50.4274, -10.345, 89.256, -57.9405, 65.0721
2.732, 1, 30.2762, 50.4116, -10.3678, 89.3095, -57.8961, 64.9484
2.735, 1, 30.3127, 50.3957, -10.3907, 89.363, -57.8516, 64.8248
2.74, 1, 30.3491, 50.3799, -10.4135, 89.4164, -57.8073, 64.7012
2.744, 1, 30.3855, 50.3641, -10.4363, 89.4698, -57.7629, 64.5777
2.748, 1, 30.4219, 50.3483, -10.4591, 89.5232, -57.7186, 64.4544
2.752, 1, 30.4582, 50.3325, -10.4819, 89.5765, -57.6743, 64.331
2.755, 1, 30.4945, 50.3167, -10.5046, 89.6298, -57.63, 64.2078
2.76, 1, 30.5308, 50.3009, -10.5274, 89.683, -57.5858, 64.0846
2.764, 1, 30.5671, 50.2852, -10.5501, 89.7363, -57.5415, 63.9616
2.768, 1, 30.6034, 50.2694, -10.5728, 89.7895, -57.4973, 63.8386
2.772, 1, 30.6396, 50.2537, -10.5955, 89.8426, -57.4532, 63.7156
2.775, 1, 30.6758, 50.2379, -10.6182, 89.8957, -57.409, 63.5928
2.78, 1, 30.712, 50.2222, -10.6409, 89.9488, -57.3649, 63.47
2.784, 1, 30.7482, 50.2065, -10.6635, 90.0019, -57.3209, 63.3473
2.788, 1, 30.7843, 50.1908, -10.6862, 90.0549, -57.2768, 63.2247
2.791, 1, 30.8204, 50.1751, -10.7088, 90.1079, -57.2328, 63.1022
2.796, 1, 30.8565, 50.1594, -10.7314, 90.1609, -57.1888, 62.9797
2.8, 1, 30.8926, 50.1437, -10.754, 90.2138, -57.1448, 62.8573
2.804, 1, 30.9287, 50.1281, -10.7766, 90.2667, -57.1009, 62.735
2.808, 1, 30.9647, 50.1124, -10.7992, 90.3195, -57.057, 62.6128
2.811, 1, 31.0007, 50.0968, -10.8218, 90.3724, -57.0131, 62.4906
2.816, 1, 31.0367, 50.0812, -10.8443, 90.4252, -56.9692, 62.3685
2.82, 1, 31.0726, 50.0655, -10.8668, 90.4779, -56.9254, 62.2465
2.824, 1, 31.1086, 50.0499, -10.8894, 90.5306, -56.8816, 62.1246
2.828, 1, 31.1445, 50.0343, -10.9119, 90.5833, -56.8378, 62.0028
2.831, 1, 31.1804, 50.0187, -10.9344, 90.636, -56.7941, 61.881
2.836, 1, 31.2163, 50.0031, -10.9568, 90.6886, -56.7503, 61.7593
2.84, 1, 31.2521, 49.9875, -10.9793, 90.7412, -56.7066, 61.6376
2.844, 1, 31.288, 49.972, -11.0018, 90.7938, -56.663, 61.5161
2.847, 1, 31.3238, 49.9564, -11.0242, 90.8463, -56.6193, 61.3946
2.852, 1, 31.3596, 49.9409, -11.0466, 90.8988, -56.5757, 61.2732
2.856, 1, 31.3953, 49.9253, -11.069, 90.9513, -56.5321, 61.1519
2.86, 1, 31.4311, 49.9098, -11.0914, 91.0037, -56.4886, 61.0306
2.864, 1, 31.4668, 49.8943, -11.1138, 91.0562, -56.445, 60.9094
2.867, 1, 31.5025, 49.8787, -11.1362, 91.1085, -56.4015, 60.7883
2.872, 1, 31.5382, 49.8633, -11.1585, 91.1609, -56.358, 60.6673
2.876, 1, 31.5738, 49.8478, -11.1809, 91.2132, -56.3146, 60.5463
2.88, 1, 31.6095, 49.8323, -11.2032, 91.2655, -56.2711, 60.4254
2.883, 1, 31.6451, 49.8168, -11.2255, 91.3177, -56.2277, 60.3046
2.888, 1, 31.6807, 49.8013, -11.2478, 91.3699, -56.1843, 60.1838
2.892, 1, 31.7162, 49.7859, -11.2701, 91.4221, -56.141, 60.0632
2.896, 1, 31.7518, 49.7704, -11.2924, 91.4743, -56.0977, 59.9426
2.9, 1, 31.7873, 49.755, -11.3146, 91.5264, -56.0544, 59.822
2.903, 1, 31.8228, 49.7396, -11.3369, 91.5785, -56.0111, 59.7016
2.908, 1, 31.8583, 49.7241, -11.3591, 91.6305, -55.9678, 59.5812
2.912, 1, 31.8938, 49.7087, -11.3813, 91.6826, -55.9246, 59.4609
2.916, 1, 31.9292, 49.6933, -11.4035, 91.7346, -55.8814, 59.3406
2.92, 1, 31.9646, 49.6779, -11.4257, 91.7865, -55.8382, 59.2204
2.923, 1, 32, 49.6626, -11.4479, 91.8385, -55.7951, 59.1003
2.928, 1, 32.0354, 49.6472, -11.4701, 91.8904, -55.752, 58.9803
2.932, 1, 32.0708, 49.6318, -11.4922, 91.9423, -55.7089, 58.8603
2.936, 1, 32.1061, 49.6165, -11.5144, 91.9941, -55.6658, 58.7405
2.939, 1, 32.1414, 49.6011, -11.5365, 92.0459, -55.6228, 58.6206
2.944, 1, 32.1767, 49.5858, -11.5586, 92.0977, -55.5797, 58.5009
2.948, 1, 32.212, 49.5705, -11.5807, 92.1495, -55.5367, 58.3812
2.952, 1, 32.2473, 49.5551, -11.6028, 92.2012, -55.4938, 58.2616
2.956, 1, 32.2825, 49.5398, -11.6249, 92.2529, -55.4508, 58.1421
2.959, 1, 32.3177, 49.5245, -11.647, 92.3045, -55.4079, 58.0226
2.964, 1, 32.3529, 49.5092, -11.669, 92.3562, -55.365, 57.9032
2.968, 1, 32.3881, 49.4939, -11.6911, 92.4078, -55.3221, 57.7839
2.972, 1, 32.4233, 49.4787, -11.7131, 92.4594, -55.2793, 57.6646
2.976, 1, 32.4584, 49.4634, -11.7351, 92.5109, -55.2365, 57.5454
2.98, 1, 32.4935, 49.4482, -11.7571, 92.5624, -55.1937, 57.4263
2.984, 1, 32.5286, 49.4329, -11.7791, 92.6139, -55.1509, 57.3072
2.988, 1, 32.5637, 49.4177, -11.8011, 92.6653, -55.1082, 57.1882
2.992, 1, 32.5987, 49.4024, -11.823, 92.7168, -55.0654, 57.0693
2.995, 1, 32.6338, 49.3872, -11.845, 92.7682, -55.0227, 56.9505
3, 1, 32.6688, 49.372, -11.8669, 92.8195, -54.9801, 56.8317
3.004, 1, 32.7038, 49.3568, -11.8888, 92.8709, -54.9374, 56.713
3.008, 1, 32.7387, 49.3416, -11.9108, 92.9222, -54.8948, 56.5943
3.012, 1, 32.7737, 49.3264, -11.9327, 92.9735, -54.8522, 56.4757
3.015, 1, 32.8086, 49.3112, -11.9545, 93.0247, -54.8096, 56.3572
3.02, 1, 32.8435, 49.2961, -11.9764, 93.0759, -54.7671, 56.2388
3.024, 1, 32.8784, 49.2809, -11.9983, 93.1271, -54.7245, 56.1204
3.028, 1, 32.9133, 49.2657, -12.0201, 93.1783, -54.682, 56.0021
3.031, 1, 32.9482, 49.2506, -12.042, 93.2294, -54.6396, 55.8838
3.036, 1, 32.983, 49.2355, -12.0638, 93.2805, -54.5971, 55.7657
3.04, 1, 33.0178, 49.2203, -12.0856, 93.3316, -54.5547, 55.6476
3.044, 1, 33.0526, 49.2052, -12.1074, 93.3826, -54.5123, 55.5295
3.048, 1, 33.0874, 49.1901, -12.1292, 93.4337, -54.4699, 55.4115
3.051, 1, 33.1221, 49.175, -12.151, 93.4846, -54.4275, 55.2936
3.056, 1, 33.1569, 49.1599, -12.1727, 93.5356, -54.3852, 55.1758
3.06, 1, 33.1916, 49.1448, -12.1945, 93.5865, -54.3429, 55.058
3.064, 1, 33.2263, 49.1298, -12.2162, 93.6375, -54.3006, 54.9403
3.068, 1, 33.261, 49.1147, -12.238, 93.6883, -54.2583, 54.8226
3.071, 1, 33.2956, 49.0996, -12.2597, 93.7392, -54.2161, 54.705
3.076, 1, 33.3303, 49.0846, -12.2814, 93.79, -54.1738, 54.5875
3.08, 1, 33.3649, 49.0695, -12.3031, 93.8408, -54.1316, 54.4701
3.084, 1, 33.3995, 49.0545, -12.3248, 93.8915, -54.0895, 54.3527
3.087, 1, 33.4341, 49.0395, -12.3464, 93.9423, -54.0473, 54.2354
3.092, 1, 33.4686, 49.0245, -12.3681, 93.993, -54.0052, 54.1181
3.096, 1, 33.5032, 49.0094, -12.3897, 94.0437, -53.9631, 54.0009
3.1, 1, 33.5377, 48.9944, -12.4114, 94.0943, -53.921, 53.8838
3.104, 1, 33.5722, 48.9794, -12.433, 94.1449, -53.879, 53.7667
3.107, 1, 33.6067, 48.9645, -12.4546, 94.1955, -53.8369, 53.6497
3.112, 1, 33.6412, 48.9495, -12.4762, 94.2461, -53.7949, 53.5328
3.116, 1, 33.6756, 48.9345, -12.4978, 94.2966, -53.7529, 53.4159
3.12, 1, 33.71, 48.9196, -12.5193, 94.3472, -53.711, 53.2991
3.124, 1, 33.7445, 48.9046, -12.5409, 94.3977, -53.669, 53.1824
3.128, 1, 33.7788, 48.8897, -12.5625, 94.4481, -53.6271, 53.0657
3.132, 1, 33.8132, 48.8747, -12.584, 94.4985, -53.5852, 52.9491
3.136, 1, 33.8476, 48.8598, -12.6055, 94.5489, -53.5433, 52.8325
3.14, 1, 33.8819, 48.8449, -12.627, 94.5993, -53.5015, 52.716
3.143, 1, 33.9162, 48.83, -12.6485, 94.6497, -53.4597, 52.5996
3.148, 1, 33.9505, 48.8151, -12.67, 94.7, -53.4178, 52.4832
3.152, 1, 33.9848, 48.8002, -12.6915, 94.7503, -53.3761, 52.3669
3.156, 1, 34.0191, 48.7853, -12.713, 94.8005, -53.3343, 52.2507
3.16, 1, 34.0533, 48.7704, -12.7344, 94.8508, -53.2926, 52.1345
3.163, 1, 34.0876, 48.7555, -12.7559, 94.901, -53.2508, 52.0184
3.168, 1, 34.1218, 48.7407, -12.7773, 94.9512, -53.2092, 51.9023
3.172, 1, 34.1559, 48.7258, -12.7987, 95.0014, -53.1675, 51.7863
3.176, 1, 34.1901, 48.711, -12.8201, 95.0515, -53.1258, 51.6704
3.179, 1, 34.2243, 48.6961, -12.8415, 95.1016, -53.0842, 51.5545
3.184, 1, 34.2584, 48.6813, -12.8629, 95.1517, -53.0426, 51.4387
3.188, 1, 34.2925, 48.6665, -12.8843, 95.2017, -53.001, 51.323
3.192, 1, 34.3266, 48.6516, -12.9057, 95.2518, -52.9595, 51.2073
3.196, 1, 34.3607, 48.6368, -12.927, 95.3018, -52.9179, 51.0917
3.199, 1, 34.3948, 48.622, -12.9484, 95.3517, -52.8764, 50.9761
3.204, 1, 34.4288, 48.6072, -12.9697, 95.4017, -52.8349, 50.8606
3.208, 1, 34.4628, 48.5924, -12.991, 95.4516, -52.7934, 50.7451
3.212, 1, 34.4969, 48.5777, -13.0123, 95.5015, -52.752, 50.6298
3.216, 1, 34.5308, 48.5629, -13.0336, 95.5514, -52.7106, 50.5145
3.22, 1, 34.5648, 48.5481, -13.0549, 95.6012, -52.6691, 50.3992
3.224, 1, 34.5988, 48.5334, -13.0762, 95.651, -52.6278, 50.284
3.228, 1, 34.6327, 48.5186, -13.0975, 95.7008, -52.5864, 50.1689
3.232, 1, 34.6666, 48.5039, -13.1187, 95.7506, -52.5451, 50.0538
3.235, 1, 34.7005, 48.4892, -13.14, 95.8003, -52.5037, 49.9388
3.24, 1, 34.7344, 48.4744, -13.1612, 95.85, -52.4624, 49.8238
3.244, 1, 34.7683, 48.4597, -13.1824, 95.8997, -52.4212, 49.7089
3.248, 1, 34.8021, 48.445, -13.2036, 95.9494, -52.3799, 49.5941
3.252, 1, 34.836, 48.4303, -13.2248, 95.999, -52.3387, 49.4793
3.255, 1, 34.8698, 48.4156, -13.246, 96.0486, -52.2975, 49.3646
3.26, 1, 34.9036, 48.4009, -13.2672, 96.0982, -52.2563, 49.2499
3.264, 1, 34.9374, 48.3863, -13.2883, 96.1478, -52.2151, 49.1353
3.268, 1, 34.9711, 48.3716, -13.3095, 96.1973, -52.1739, 49.0207
3.272, 1, 35.0049, 48.3569, -13.3306, 96.2468, -52.1328, 48.9063
3.276, 1, 35.0386, 48.3423, -13.3518, 96.2963, -52.0917, 48.7918
3.28, 1, 35.0723, 48.3276, -13.3729, 96.3457, -52.0506, 48.6775
3.284, 1, 35.106, 48.313, -13.394, 96.3952, -52.0095, 48.5631
3.288, 1, 35.1397, 48.2984, -13.4151, 96.4446, -51.9685, 48.4489
3.291, 1, 35.1733, 48.2837, -13.4362, 96.494, -51.9275, 48.3347
3.296, 1, 35.2067, 48.2692, -13.4573, 96.5433, -51.8865, 48.2206
3.3, 1, 35.2399, 48.2548, -13.4784, 96.5926, -51.8455, 48.1065
3.304, 1, 35.2726, 48.2405, -13.4995, 96.6419, -51.8046, 47.9926
3.308, 1, 35.3048, 48.2265, -13.5207, 96.6911, -51.7637, 47.8788
3.312, 1, 35.3364, 48.2127, -13.5418, 96.7401, -51.723, 47.7654
3.316, 1, 35.3675, 48.1993, -13.5629, 96.789, -51.6824, 47.6523
3.32, 1, 35.3979, 48.1861, -13.584, 96.8376, -51.6421, 47.54
3.324, 1, 35.4277, 48.1733, -13.6049, 96.8857, -51.6022, 47.4285
3.328, 1, 35.4568, 48.161, -13.6257, 96.9334, -51.5626, 47.3182
3.332, 1, 35.4849, 48.1491, -13.6463, 96.9803, -51.5237, 47.2096
3.336, 1, 35.5121, 48.1378, -13.6666, 97.0264, -51.4855, 47.103
3.34, 1, 35.5381, 48.1271, -13.6865, 97.0713, -51.4483, 46.9989
3.344, 1, 35.563, 48.1169, -13.7059, 97.1149, -51.4122, 46.898
3.347, 1, 35.5868, 48.1072, -13.7246, 97.1569, -51.3774, 46.8009
3.352, 1, 35.6095, 48.0979, -13.7424, 97.1969, -51.3442, 46.7081
3.356, 1, 35.6313, 48.0891, -13.7593, 97.2348, -51.3128, 46.6203
3.36, 1, 35.652, 48.0806, -13.7751, 97.2704, -51.2833, 46.538
3.364, 1, 35.6717, 48.0724, -13.7896, 97.3033, -51.256, 46.4618
3.368, 1, 35.6903, 48.0646, -13.8028, 97.3335, -51.2309, 46.3918
3.372, 1, 35.7078, 48.0572, -13.8147, 97.3609, -51.2082, 46.3285
3.376, 1, 35.7244, 48.05, -13.8252, 97.3854, -51.1879, 46.2719
3.38, 1, 35.7401, 48.0431, -13.8342, 97.4069, -51.17, 46.2221
3.383, 1, 35.7549, 48.0363, -13.8419, 97.4256, -51.1544, 46.179
3.388, 1, 35.7688, 48.0299, -13.8482, 97.4416, -51.1411, 46.1422
3.392, 1, 35.7818, 48.0237, -13.8533, 97.455, -51.1299, 46.1113
3.396, 1, 35.7937, 48.0179, -13.8573, 97.466, -51.1206, 46.0859
3.4, 2, 35.8044, 48.0127, -13.8604, 97.475, -51.1131, 46.0653
3.403, 2, 35.8141, 48.0079, -13.8627, 97.4821, -51.1071, 46.049
3.408, 2, 35.8226, 48.0036, -13.8643, 97.4876, -51.1024, 46.0363
3.412, 2, 35.8303, 47.9999, -13.8655, 97.4919, -51.0988, 46.0266
3.416, 2, 35.837, 47.9966, -13.8662, 97.495, -51.0961, 46.0194
3.42, 2, 35.8428, 47.9938, -13.8666, 97.4973, -51.0941, 46.0142
3.424, 2, 35.8478, 47.9915, -13.8668, 97.4989, -51.0927, 46.0106
3.428, 2, 35.8518, 47.9896, -13.8669, 97.5001, -51.0917, 46.008
3.432, 2, 35.8549, 47.9882, -13.867, 97.5009, -51.091, 46.0062
3.436, 2, 35.8572, 47.9872, -13.867, 97.5014, -51.0906, 46.005
3.439, 2, 35.8587, 47.9865, -13.867, 97.5018, -51.0902, 46.0042
3.444, 2, 35.8598, 47.9861, -13.867, 97.502, -51.09, 46.0036
3.448, 2, 35.8605, 47.9858, -13.867, 97.5022, -51.0899, 46.0033
3.452, 2, 35.861, 47.9855, -13.867, 97.5023, -51.0898, 46.003
3.456, 2, 35.8614, 47.9854, -13.867, 97.5024, -51.0897, 46.0028
3.46, 2, 35.8616, 47.9853, -13.867, 97.5024, -51.0897, 46.0027
3.464, 2, 35.8618, 47.9852, -13.867, 97.5024, -51.0896, 46.0026
3.468, 2, 35.8619, 47.9852, -13.867, 97.5025, -51.0896, 46.0026
3.472, 2, 35.8619, 47.9852, -13.867, 97.5025, -51.0896, 46.0026
3.476, 2, 35.862, 47.9851, -13.867, 97.5025, -51.0896, 46.0025
3.48, 2, 35.862, 47.9851, -13.867, 97.5025, -51.0896, 46.0025
3.484, 2, 35.862, 47.9851, -13.867, 97.5025, -51.0896, 46.0025
3.488, 2, 35.8621, 47.9851, -13.867, 97.5025, -51.0896, 46.0025
3.492, 2, 35.8621, 47.9851, -13.867, 97.5025, -51.0896, 46.0025
3.495, 2, 35.8621, 47.9851, -13.867, 97.5025, -51.0896, 46.0025
3.5, 2, 35.8621, 47.9851, -13.867, 97.5025, -51.0896, 46.0025
3.504, 2, 35.8621, 47.9851, -13.867, 97.5025, -51.0896, 46.0025
3.508, 2, 35.8621, 47.9851, -13.867, 97.5025, -51.0896, 46.0025
3.512, 2, 35.8621, 47.9851, -13.867, 97.5025, -51.0896, 46.0025
3.516, 2, 35.8621, 47.9851, -13.867, 97.5025, -51.0896, 46.0025
3.52, 2, 35.8621, 47.9851, -13.867, 97.5025, -51.0896, 46.0025
3.524, 2, 35.8621, 47.9851, -13.867, 97.5025, -51.0896, 46.0025
3.528, 2, 35.8621, 47.9851, -13.867, 97.5025, -51.0896, 46.0025
3.531, 2, 35.8621, 47.9851, -13.867, 97.5025, -51.0896, 46.0025
3.536, 2, 35.8621, 47.9851, -13.867, 97.5025, -51.0896, 46.0025
3.54, 2, 35.8621, 47.9851, -13.867, 97.5025, -51.0896, 46.0025
3.544, 2, 35.8621, 47.9851, -13.867, 97.5025, -51.0896, 46.0025
3.548, 2, 35.8621, 47.9851, -13.867, 97.5025, -51.0896, 46.0025
3.552, 2, 35.8621, 47.9851, -13.867, 97.5025, -51.0896, 46.0025
3.556, 2, 35.8621, 47.9851, -13.867, 97.5025, -51.0896, 46.0025
3.56, 2, 35.8621, 47.9851, -13.867, 97.5025, -51.0896, 46.0025
3.564, 2, 35.8621, 47.9851, -13.867, 97.5025, -51.0896, 46.0025
3.568, 2, 35.8621, 47.9851, -13.867, 97.5025, -51.0896, 46.0025
3.572, 2, 35.8621, 47.9851, -13.867, 97.5025, -51.0896, 46.0025
3.576, 2, 35.8621, 47.9851, -13.867, 97.5025, -51.0896, 46.0025
3.58, 2, 35.8621, 47.9851, -13.867, 97.5025, -51.0896, 46.0025
3.584, 2, 35.8621, 47.9851, -13.867, 97.5025, -51.0896, 46.0025
3.587, 2, 35.8621, 47.9851, -13.867, 97.5025, -51.0896, 46.0025
3.592, 2, 35.8621, 47.9851, -13.867, 97.5025, -51.0896, 46.0025
3.596, 2, 35.8621, 47.9851, -13.867, 97.5025, -51.0896, 46.0025
3.6, 2, 35.8621, 47.9851, -13.867, 97.5025, -51.0896, 46.0025
3.604, 2, 35.8621, 47.9851, -13.867, 97.5025, -51.0896, 46.0025
3.608, 2, 35.8621, 47.9851, -13.867, 97.5025, -51.0896, 46.0025
3.612, 2, 35.8621, 47.9851, -13.867, 97.5025, -51.0896, 46.0025
3.616, 2, 35.8621, 47.9851, -13.867, 97.5025, -51.0896, 46.0025
3.62, 2, 35.8621, 47.9851, -13.867, 97.5025, -51.0896, 46.0025
3.624, 2, 35.8621, 47.9851, -13.867, 97.5025, -51.0896, 46.0025
3.628, 2, 35.8621, 47.9851, -13.867, 97.5025, -51.0896, 46.0025
3.632, 2, 35.8621, 47.9851, -13.867, 97.5025, -51.0896, 46.0025
3.636, 2, 35.8621, 47.9851, -13.867, 97.5025, -51.0896, 46.0025
3.64, 2, 35.8621, 47.9851, -13.867, 97.5025, -51.0896, 46.0025
3.644, 2, 35.8621, 47.9851, -13.867, 97.5025, -51.0896, 46.0025
3.648, 2, 35.8621, 47.9851, -13.867, 97.5025, -51.0896, 46.0025
3.652, 2, 35.8621, 47.9851, -13.867, 97.5025, -51.0896, 46.0025
3.656, 2, 35.8621, 47.9851, -13.867, 97.5025, -51.0896, 46.0025
3.66, 2, 35.8621, 47.9851, -13.867, 97.5025, -51.0896, 46.0025
3.664, 2, 35.8621, 47.9851, -13.867, 97.5025, -51.0896, 46.0025
3.668, 2, 35.8621, 47.9851, -13.867, 97.5025, -51.0896, 46.0025
3.672, 2, 35.8621, 47.9851, -13.867, 97.5025, -51.0896, 46.0025
3.676, 2, 35.8621, 47.9851, -13.867, 97.5025, -51.0896, 46.0025
3.679, 2, 35.8621, 47.9851, -13.867, 97.5025, -51.0896, 46.0025
3.684, 2, 35.8621, 47.9851, -13.867, 97.5025, -51.0896, 46.0025
3.688, 2, 35.8621, 47.9851, -13.867, 97.5025, -51.0896, 46.0025
3.692, 2, 35.8621, 47.9851, -13.867, 97.5025, -51.0896, 46.0025
3.696, 2, 35.8621, 47.9851, -13.867, 97.5025, -51.0896, 46.0025
3.7, 2, 35.8621, 47.9851, -13.867, 97.5025, -51.0896, 46.0025
3.704, 2, 35.8621, 47.9851, -13.867, 97.5025, -51.0896, 46.0025
3.708, 2, 35.8621, 47.9851, -13.867, 97.5025, -51.0896, 46.0025
3.712, 2, 35.8621, 47.9851, -13.867, 97.5025, -51.0896, 46.0025
3.716, 2, 35.8621, 47.9851, -13.867, 97.5025, -51.0896, 46.0025
3.72, 2, 35.8621, 47.9851, -13.867, 97.5025, -51.0896, 46.0025
3.724, 2, 35.8621, 47.9851, -13.867, 97.5025, -51.0896, 46.0025
3.728, 2, 35.8621, 47.9851, -13.867, 97.5025, -51.0896, 46.0025
3.732, 2, 35.8621, 47.9851, -13.867, 97.5025, -51.0896, 46.0025
3.735, 2, 35.8621, 47.9851, -13.867, 97.5025, -51.0896, 46.0025
3.74, 2, 35.8621, 47.9851, -13.867, 97.5025, -51.0896, 46.0025
3.744, 2, 35.8621, 47.9851, -13.867, 97.5025, -51.0896, 46.0025
3.748, 2, 35.8621, 47.9851, -13.867, 97.5025, -51.0896, 46.0025
3.752, 2, 35.8621, 47.9851, -13.867, 97.5025, -51.0896, 46.0025
3.756, 2, 35.8621, 47.9851, -13.867, 97.5025, -51.0896, 46.0025
3.76, 2, 35.8621, 47.9851, -13.867, 97.5025, -51.0896, 46.0025
3.764, 2, 35.8621, 47.9851, -13.867, 97.5025, -51.0896, 46.0025
3.768, 2, 35.8621, 47.9851, -13.867, 97.5025, -51.0896, 46.0025
3.772, 2, 35.8621, 47.9851, -13.867, 97.5025, -51.0896, 46.0025
3.776, 2, 35.8621, 47.9851, -13.867, 97.5025, -51.0896, 46.0025
3.78, 2, 35.8621, 47.9851, -13.867, 97.5025, -51.0896, 46.0025
3.784, 2, 35.8621, 47.9851, -13.867, 97.5025, -51.0896, 46.0025
3.788, 2, 35.8621, 47.9851, -13.867, 97.5025, -51.0896, 46.0025
3.792, 2, 35.8621, 47.9851, -13.867, 97.5025, -51.0896, 46.0025
3.796, 2, 35.8621, 47.9851, -13.867, 97.5025, -51.0896, 46.0025
3.8, 2, 35.8621, 47.9851, -13.867, 97.5025, -51.0896, 46.0025
3.804, 2, 35.8621, 47.9851, -13.867, 97.5025, -51.0896, 46.0025
3.808, 2, 35.8621, 47.9851, -13.867, 97.5025, -51.0896, 46.0025
3.812, 2, 35.8621, 47.9851, -13.867, 97.5025, -51.0896, 46.0025
3.816, 2, 35.8621, 47.9851, -13.867, 97.5025, -51.0896, 46.0025
3.82, 2, 35.8621, 47.9851, -13.867, 97.5025, -51.0896, 46.0025
3.824, 2, 35.8621, 47.9851, -13.867, 97.5025, -51.0896, 46.0025
3.828, 2, 35.8621, 47.9851, -13.867, 97.5025, -51.0896, 46.0025
3.832, 2, 35.8621, 47.9851, -13.867, 97.5025, -51.0896, 46.0025
3.836, 2, 35.8621, 47.9851, -13.867, 97.5025, -51.0896, 46.0025
3.84, 2, 35.8621, 47.9851, -13.867, 97.5025, -51.0896, 46.0025
3.844, 2, 35.8621, 47.9851, -13.867, 97.5025, -51.0896, 46.0025
3.848, 2, 35.8621, 47.9851, -13.867, 97.5025, -51.0896, 46.0025
3.852, 2, 35.8621, 47.9851, -13.867, 97.5025, -51.0896, 46.0025
3.856, 2, 35.8621, 47.9851, -13.867, 97.5025, -51.0896, 46.0025
3.86, 2, 35.8621, 47.9851, -13.867, 97.5025, -51.0896, 46.0025
3.864, 2, 35.8621, 47.9851, -13.867, 97.5025, -51.0896, 46.0025
3.868, 2, 35.8621, 47.9851, -13.867, 97.5025, -51.0896, 46.0025
3.872, 2, 35.8621, 47.9851, -13.867, 97.5025, -51.0896, 46.0025
3.876, 2, 35.8621, 47.9851, -13.867, 97.5025, -51.0896, 46.0025
3.88, 2, 35.8621, 47.9851, -13.867, 97.5025, -51.0896, 46.0025
3.884, 2, 35.8621, 47.9851, -13.867, 97.5025, -51.0896, 46.0025
3.888, 2, 35.8621, 47.9851, -13.867, 97.5025, -51.0896, 46.0025
3.892, 2, 35.8621, 47.9851, -13.867, 97.5025, -51.0896, 46.0025
3.896, 2, 35.8621, 47.9851, -13.867, 97.5025, -51.0896, 46.0025
3.9, 2, 35.8621, 47.9851, -13.867, 97.5025, -51.0896, 46.0025
3.904, 2, 35.8621, 47.9851, -13.867, 97.5025, -51.0896, 46.0025
3.908, 2, 35.8621, 47.9851, -13.867, 97.5025, -51.0896, 46.0025
3.912, 2, 35.8621, 47.9851, -13.867, 97.5025, -51.0896, 46.0025
3.916, 2, 35.8621, 47.9851, -13.867, 97.5025, -51.0896, 46.0025
3.92, 2, 35.8621, 47.9851, -13.867, 97.5025, -51.0896, 46.0025
3.924, 2, 35.8621, 47.9851, -13.867, 97.5025, -51.0896, 46.0025
3.928, 2, 35.8621, 47.9851, -13.867, 97.5025, -51.0896, 46.0025
3.932, 2, 35.8621, 47.9851, -13.867, 97.5025, -51.0896, 46.0025
3.936, 2, 35.8621, 47.9851, -13.867, 97.5025, -51.0896, 46.0025
3.94, 2, 35.8621, 47.9851, -13.867, 97.5025, -51.0896, 46.0025
3.944, 2, 35.8621, 47.9851, -13.867, 97.5025, -51.0896, 46.0025
3.948, 2, 35.8621, 47.9851, -13.867, 97.5025, -51.0896, 46.0025
3.952, 2, 35.8621, 47.9851, -13.867, 97.5025, -51.0896, 46.0025
3.956, 2, 35.8621, 47.9851, -13.867, 97.5025, -51.0896, 46.0025
3.96, 2, 35.8621, 47.9851, -13.867, 97.5025, -51.0896, 46.0025
3.964, 2, 35.8621, 47.9851, -13.867, 97.5025, -51.0896, 46.0025
3.968, 2, 35.8621, 47.9851, -13.867, 97.5025, -51.0896, 46.0025
3.972, 2, 35.8621, 47.9851, -13.867, 97.5025, -51.0896, 46.0025
3.976, 2, 35.8621, 47.9851, -13.867, 97.5025, -51.0896, 46.0025
3.98, 2, 35.8621, 47.9851, -13.867, 97.5025, -51.0896, 46.0025
3.984, 2, 35.8621, 47.9851, -13.867, 97.5025, -51.0896, 46.0025
3.988, 2, 35.8621, 47.9851, -13.867, 97.5025, -51.0896, 46.0025
3.992, 2, 35.8621, 47.9851, -13.867, 97.5025, -51.0896, 46.0025
3.996, 2, 35.8621, 47.9851, -13.867, 97.5025, -51.0896, 46.0025
3.999, 2, 35.8621, 47.9851, -13.867, 97.5025, -51.0896, 46.0025
4.004, 2, 35.8621, 47.9851, -13.867, 97.5025, -51.0896, 46.0025
4.008, 2, 35.8621, 47.9851, -13.867, 97.5025, -51.0896, 46.0025
4.012, 2, 35.8621, 47.9851, -13.867, 97.5025, -51.0896, 46.0025
4.016, 2, 35.8621, 47.9851, -13.867, 97.5025, -51.0896, 46.0025
4.02, 2, 35.8621, 47.9851, -13.867, 97.5025, -51.0896, 46.0025
4.024, 2, 35.8621, 47.9851, -13.867, 97.5025, -51.0896, 46.0025
4.028, 2, 35.8621, 47.9851, -13.867, 97.5025, -51.0896, 46.0025
4.032, 2, 35.8621, 47.9851, -13.867, 97.5025, -51.0896, 46.0025
4.036, 2, 35.8621, 47.9851, -13.867, 97.5025, -51.0896, 46.0025
4.04, 2, 35.8621, 47.9851, -13.867, 97.5025, -51.0896, 46.0025
4.044, 2, 35.8621, 47.9851, -13.867, 97.5025, -51.0896, 46.0025
4.048, 2, 35.8621, 47.9851, -13.867, 97.5025, -51.0896, 46.0025
4.052, 2, 35.8621, 47.9851, -13.867, 97.5025, -51.0896, 46.0025
4.056, 2, 35.8621, 47.9851, -13.867, 97.5025, -51.0896, 46.0025
4.06, 2, 35.8621, 47.9851, -13.867, 97.5025, -51.0896, 46.0025
4.064, 2, 35.8621, 47.9851, -13.867, 97.5025, -51.0896, 46.0025
4.068, 2, 35.8621, 47.9851, -13.867, 97.5025, -51.0896, 46.0025
4.072, 2, 35.8621, 47.9851, -13.867, 97.5025, -51.0896, 46.0025
4.076, 2, 35.8621, 47.9851, -13.867, 97.5025, -51.0896, 46.0025
4.08, 2, 35.8621, 47.9851, -13.867, 97.5025, -51.0896, 46.0025
4.084, 2, 35.8621, 47.9851, -13.867, 97.5025, -51.0896, 46.0025
4.088, 2, 35.8621, 47.9851, -13.867, 97.5025, -51.0896, 46.0025
4.092, 2, 35.8621, 47.9851, -13.867, 97.5025, -51.0896, 46.0025
4.096, 2, 35.8621, 47.9851, -13.867, 97.5025, -51.0896, 46.0025
4.1, 2, 35.8621, 47.9851, -13.867, 97.5025, -51.0896, 46.0025
4.104, 2, 35.8621, 47.9851, -13.867, 97.5025, -51.0896, 46.0025
4.108, 2, 35.8621, 47.9851, -13.867, 97.5025, -51.0896, 46.0025
4.112, 2, 35.8621, 47.9851, -13.867, 97.5025, -51.0896, 46.0025
4.116, 2, 35.8621, 47.9851, -13.867, 97.5025, -51.0896, 46.0025
4.12, 2, 35.8621, 47.9851, -13.867, 97.5025, -51.0896, 46.0025
4.124, 2, 35.8621, 47.9851, -13.867, 97.5025, -51.0896, 46.0025
4.128, 2, 35.8621, 47.9851, -13.867, 97.5025, -51.0896, 46.0025
4.132, 2, 35.8621, 47.9851, -13.867, 97.5025, -51.0896, 46.0025
4.136, 2, 35.8621, 47.9851, -13.867, 97.5025, -51.0896, 46.0025
4.14, 2, 35.8621, 47.9851, -13.867, 97.5025, -51.0896, 46.0025
4.144, 2, 35.8621, 47.9851, -13.867, 97.5025, -51.0896, 46.0025
4.148, 2, 35.8621, 47.9851, -13.867, 97.5025, -51.0896, 46.0025
4.152, 2, 35.8621, 47.9851, -13.867, 97.5025, -51.0896, 46.0025
4.156, 2, 35.8621, 47.9851, -13.867, 97.5025, -51.0896, 46.0025
4.16, 2, 35.8621, 47.9851, -13.867, 97.5025, -51.0896, 46.0025
4.164, 2, 35.8621, 47.9851, -13.867, 97.5025, -51.0896, 46.0025
4.168, 2, 35.8621, 47.9851, -13.867, 97.5025, -51.0896, 46.0025
4.172, 2, 35.8621, 47.9851, -13.867, 97.5025, -51.0896, 46.0025
4.176, 2, 35.8621, 47.9851, -13.867, 97.5025, -51.0896, 46.0025
4.18, 2, 35.8621, 47.9851, -13.867, 97.5025, -51.0896, 46.0025
4.184, 2, 35.8621, 47.9851, -13.867, 97.5025, -51.0896, 46.0025
4.188, 2, 35.8621, 47.9851, -13.867, 97.5025, -51.0896, 46.0025
4.192, 2, 35.8621, 47.9851, -13.867, 97.5025, -51.0896, 46.0025
4.196, 2, 35.8621, 47.9851, -13.867, 97.5025, -51.0896, 46.0025
4.2, 2, 35.8621, 47.9851, -13.867, 97.5025, -51.0896, 46.0025
4.204, 2, 35.8621, 47.9851, -13.867, 97.5025, -51.0896, 46.0025
4.208, 2, 35.8621, 47.9851, -13.867, 97.5025, -51.0896, 46.0025
4.212, 2, 35.8621, 47.9851, -13.867, 97.5025, -51.0896, 46.0025
4.216, 2, 35.8621, 47.9851, -13.867, 97.5025, -51.0896, 46.0025
4.22, 2, 35.8621, 47.9851, -13.867, 97.5025, -51.0896, 46.0025
4.224, 2, 35.8621, 47.9851, -13.867, 97.5025, -51.0896, 46.0025
4.228, 2, 35.8621, 47.9851, -13.867, 97.5025, -51.0896, 46.0025
4.232, 2, 35.8621, 47.9851, -13.867, 97.5025, -51.0896, 46.0025
4.236, 2, 35.8621, 47.9851, -13.867, 97.5025, -51.0896, 46.0025
4.24, 2, 35.8621, 47.9851, -13.867, 97.5025, -51.0896, 46.0025
4.244, 2, 35.8621, 47.9851, -13.867, 97.5025, -51.0896, 46.0025
4.248, 2, 35.8621, 47.9851, -13.867, 97.5025, -51.0896, 46.0025
4.252, 2, 35.8621, 47.9851, -13.867, 97.5025, -51.0896, 46.0025
4.256, 2, 35.8621, 47.9851, -13.867, 97.5025, -51.0896, 46.0025
4.26, 2, 35.8621, 47.9851, -13.867, 97.5025, -51.0896, 46.0025
4.264, 2, 35.8621, 47.9851, -13.867, 97.5025, -51.0896, 46.0025
4.268, 2, 35.8621, 47.9851, -13.867, 97.5025, -51.0896, 46.0025
4.272, 2, 35.8621, 47.9851, -13.867, 97.5025, -51.0896, 46.0025
4.276, 2, 35.8621, 47.9851, -13.867, 97.5025, -51.0896, 46.0025
4.28, 2, 35.8621, 47.9851, -13.867, 97.5025, -51.0896, 46.0025
4.284, 2, 35.8621, 47.9851, -13.867, 97.5025, -51.0896, 46.0025
4.288, 2, 35.8621, 47.9851, -13.867, 97.5025, -51.0896, 46.0025
4.292, 2, 35.8621, 47.9851, -13.867, 97.5025, -51.0896, 46.0025
4.296, 2, 35.8621, 47.9851, -13.867, 97.5025, -51.0896, 46.0025
4.3, 2, 35.8621, 47.9851, -13.867, 97.5025, -51.0896, 46.0025
4.304, 2, 35.8621, 47.9851, -13.867, 97.5025, -51.0896, 46.0025
4.308, 2, 35.8621, 47.9851, -13.867, 97.5025, -51.0896, 46.0025
4.312, 2, 35.8621, 47.9851, -13.867, 97.5025, -51.0896, 46.0025
4.316, 2, 35.8621, 47.9851, -13.867, 97.5025, -51.0896, 46.0025
4.32, 2, 35.8621, 47.9851, -13.867, 97.5025, -51.0896, 46.0025
4.324, 2, 35.8621, 47.9851, -13.867, 97.5025, -51.0896, 46.0025
4.328, 2, 35.8621, 47.9851, -13.867, 97.5025, -51.0896, 46.0025
4.332, 2, 35.8621, 47.9851, -13.867, 97.5025, -51.0896, 46.0025
4.336, 2, 35.8621, 47.9851, -13.867, 97.5025, -51.0896, 46.0025
4.34, 2, 35.8621, 47.9851, -13.867, 97.5025, -51.0896, 46.0025
4.344, 2, 35.8621, 47.9851, -13.867, 97.5025, -51.0896, 46.0025
4.348, 2, 35.8621, 47.9851, -13.867, 97.5025, -51.0896, 46.0025
4.352, 2, 35.8621, 47.9851, -13.867, 97.5025, -51.0896, 46.0025
4.356, 2, 35.8621, 47.9851, -13.867, 97.5025, -51.0896, 46.0025
4.36, 2, 35.8621, 47.9851, -13.867, 97.5025, -51.0896, 46.0025
4.364, 2, 35.8621, 47.9851, -13.867, 97.5025, -51.0896, 46.0025
4.368, 2, 35.8621, 47.9851, -13.867, 97.5025, -51.0896, 46.0025
4.372, 2, 35.8621, 47.9851, -13.867, 97.5025, -51.0896, 46.0025
4.376, 2, 35.8621, 47.9851, -13.867, 97.5025, -51.0896, 46.0025
4.38, 2, 35.8621, 47.9851, -13.867, 97.5025, -51.0896, 46.0025
4.384, 2, 35.8621, 47.9851, -13.867, 97.5025, -51.0896, 46.0025
4.388, 2, 35.8621, 47.9851, -13.867, 97.5025, -51.0896, 46.0025
4.392, 2, 35.8621, 47.9851, -13.867, 97.5025, -51.0896, 46.0025
4.396, 2, 35.8621, 47.9851, -13.867, 97.5025, -51.0896, 46.0025
4.4, 3, 35.8621, 47.9851, -13.867, 97.5025, -51.0896, 46.0025
4.404, 3, 35.8621, 47.9851, -13.867, 97.5025, -51.0896, 46.0025
4.408, 3, 35.8621, 47.9851, -13.867, 97.5025, -51.0896, 46.0025
4.412, 3, 35.8621, 47.9851, -13.867, 97.5025, -51.0896, 46.0025
4.416, 3, 35.8621, 47.9851, -13.867, 97.5025, -51.0896, 46.0025
4.42, 3, 35.8621, 47.9851, -13.867, 97.5025, -51.0896, 46.0025
4.424, 3, 35.8621, 47.9851, -13.867, 97.5025, -51.0896, 46.0025
4.428, 3, 35.8621, 47.9851, -13.867, 97.5025, -51.0896, 46.0025
4.432, 3, 35.8621, 47.9851, -13.867, 97.5025, -51.0896, 46.0025
4.436, 4, 35.8621, 47.9851, -13.867, 97.5025, -51.0896, 46.0025
4.44, 4, 35.8621, 47.9851, -13.867, 97.5025, -51.0896, 46.0025
4.444, 4, 35.8621, 47.9851, -13.867, 97.5025, -51.0896, 46.0025
4.448, 4, 35.8621, 47.9851, -13.867, 97.5025, -51.0896, 46.0025
4.452, 4, 35.8621, 47.9851, -13.867, 97.5025, -51.0896, 46.0025
4.456, 4, 35.8621, 47.9851, -13.867, 97.5025, -51.0896, 46.0025
4.46, 4, 35.8621, 47.9851, -13.867, 97.5025, -51.0896, 46.0025
4.464, 4, 35.8621, 47.9851, -13.867, 97.5025, -51.0896, 46.0025
4.468, 4, 35.8621, 47.9851, -13.867, 97.5025, -51.0896, 46.0025
4.472, 4, 35.8621, 47.9851, -13.867, 97.5025, -51.0896, 46.0025
4.476, 4, 35.8621, 47.9851, -13.867, 97.5025, -51.0896, 46.0025
4.48, 4, 35.8621, 47.9851, -13.867, 97.5025, -51.0896, 46.0025
4.484, 4, 35.8621, 47.9851, -13.867, 97.5025, -51.0896, 46.0025
4.488, 4, 35.8621, 47.9851, -13.867, 97.5025, -51.0896, 46.0025
4.492, 4, 35.8621, 47.9851, -13.867, 97.5025, -51.0896, 46.0025
4.496, 4, 35.8621, 47.9851, -13.867, 97.5025, -51.0896, 46.0025
4.5, 4, 35.8621, 47.9851, -13.867, 97.5025, -51.0896, 46.0025
4.504, 4, 35.8621, 47.9851, -13.867, 97.5025, -51.0896, 46.0025
4.508, 4, 35.8621, 47.9851, -13.867, 97.5025, -51.0896, 46.0025
4.512, 4, 35.8621, 47.9851, -13.867, 97.5025, -51.0896, 46.0025
4.516, 4, 35.8621, 47.9851, -13.867, 97.5025, -51.0896, 46.0025
4.52, 4, 35.8621, 47.9851, -13.867, 97.5025, -51.0896, 46.0025
4.524, 4, 35.8621, 47.9851, -13.867, 97.5025, -51.0896, 46.0025
4.528, 4, 35.8621, 47.9851, -13.867, 97.5025, -51.0896, 46.0025
4.532, 4, 35.8621, 47.9851, -13.867, 97.5025, -51.0896, 46.0025
4.536, 5, 35.8621, 47.9851, -13.867, 97.5025, -51.0896, 46.0025
4.54, 5, 35.8621, 47.9851, -13.867, 97.5025, -51.0896, 46.0025
4.544, 5, 35.8621, 47.9851, -13.867, 97.5025, -51.0896, 46.0025
4.548, 5, 35.8621, 47.9851, -13.867, 97.5025, -51.0896, 46.0025
4.552, 5, 35.8621, 47.9851, -13.867, 97.5025, -51.0896, 46.0025
4.556, 5, 35.8621, 47.9851, -13.867, 97.5025, -51.0896, 46.0025
4.56, 5, 35.8621, 47.9851, -13.867, 97.5025, -51.0896, 46.0025
4.564, 5, 35.8621, 47.9851, -13.867, 97.5025, -51.0896, 46.0025
4.568, 5, 35.8621, 47.9851, -13.867, 97.5025, -51.0896, 46.0025
4.572, 5, 35.8621, 47.9851, -13.867, 97.5025, -51.0896, 46.0025
4.576, 5, 35.8621, 47.9853, -13.867, 97.5025, -51.0896, 46.0025
4.58, 5, 35.8621, 47.9857, -13.867, 97.5025, -51.0896, 46.0025
4.584, 5, 35.8621, 47.9864, -13.8671, 97.5025, -51.0898, 46.0024
4.588, 5, 35.8622, 47.9876, -13.8671, 97.5025, -51.0901, 46.0023
4.592, 5, 35.8623, 47.9895, -13.8672, 97.5025, -51.0908, 46.0021
4.596, 5, 35.8624, 47.9921, -13.8674, 97.5024, -51.0921, 46.0016
4.6, 5, 35.8626, 47.9955, -13.8678, 97.5023, -51.0943, 46.0008
4.604, 5, 35.8627, 48, -13.8683, 97.502, -51.098, 45.9995
4.608, 5, 35.8629, 48.0056, -13.8691, 97.5017, -51.1036, 45.9976
4.612, 5, 35.8631, 48.0126, -13.8703, 97.5011, -51.1117, 45.9947
4.616, 5, 35.8633, 48.0213, -13.872, 97.5004, -51.1231, 45.9908
4.62, 5, 35.8635, 48.0319, -13.8743, 97.4994, -51.1386, 45.9854
4.624, 5, 35.8637, 48.0445, -13.8773, 97.498, -51.1592, 45.9782
4.628, 5, 35.8639, 48.0592, -13.8812, 97.4961, -51.1858, 45.969
4.632, 5, 35.8641, 48.0761, -13.8861, 97.4938, -51.2194, 45.9573
4.636, 5, 35.8643, 48.0953, -13.8921, 97.4908, -51.2611, 45.9429
4.64, 5, 35.8645, 48.1167, -13.8993, 97.4872, -51.3116, 45.9254
4.644, 5, 35.8648, 48.1406, -13.908, 97.4828, -51.3719, 45.9046
4.648, 5, 35.8651, 48.1671, -13.918, 97.4775, -51.4425, 45.8803
4.652, 5, 35.8655, 48.1961, -13.9296, 97.4714, -51.5241, 45.8522
4.656, 5, 35.8659, 48.2276, -13.9426, 97.4642, -51.617, 45.8204
4.66, 5, 35.8663, 48.2617, -13.9572, 97.456, -51.7212, 45.7847
4.664, 5, 35.8666, 48.2982, -13.9733, 97.4467, -51.8368, 45.7452
4.668, 5, 35.867, 48.337, -13.9908, 97.4363, -51.9634, 45.702
4.672, 5, 35.8674, 48.3781, -14.0097, 97.4248, -52.1006, 45.6553
4.676, 5, 35.8678, 48.4216, -14.0297, 97.4122, -52.2476, 45.6054
4.68, 5, 35.8682, 48.4674, -14.0508, 97.3985, -52.4035, 45.5527
4.684, 5, 35.8687, 48.5155, -14.0728, 97.3838, -52.5675, 45.4973
4.688, 5, 35.8693, 48.5659, -14.0956, 97.368, -52.7385, 45.4398
4.692, 5, 35.8699, 48.6183, -14.119, 97.3513, -52.9155, 45.3803
4.696, 5, 35.8705, 48.6726, -14.1428, 97.3337, -53.0976, 45.3194
4.7, 5, 35.8712, 48.7285, -14.1669, 97.3153, -53.2839, 45.2572
4.704, 5, 35.8719, 48.7859, -14.1912, 97.2961, -53.4733, 45.1942
4.708, 5, 35.8724, 48.8447, -14.2156, 97.2761, -53.6653, 45.1306
4.712, 5, 35.8729, 48.9047, -14.2398, 97.2555, -53.859, 45.0665
4.716, 5, 35.8732, 48.9658, -14.264, 97.2342, -54.054, 45.0023
4.72, 5, 35.8734, 49.0277, -14.288, 97.2123, -54.2498, 44.938
4.724, 5, 35.8734, 49.0904, -14.3117, 97.1898, -54.4461, 44.8737
4.728, 5, 35.8733, 49.1534, -14.3352, 97.1667, -54.6427, 44.8096
4.732, 5, 35.873, 49.2168, -14.3583, 97.143, -54.8394, 44.7456
4.736, 5, 35.8726, 49.2803, -14.3812, 97.1189, -55.0361, 44.6819
4.74, 5, 35.872, 49.3438, -14.4037, 97.0942, -55.2328, 44.6183
4.744, 5, 35.8713, 49.4073, -14.4258, 97.0689, -55.4294, 44.555
4.748, 5, 35.8704, 49.4707, -14.4476, 97.0432, -55.6258, 44.4919
4.752, 5, 35.8693, 49.5341, -14.4691, 97.0169, -55.8221, 44.4291
4.756, 5, 35.8681, 49.5973, -14.4902, 96.9901, -56.0182, 44.3665
4.76, 5, 35.8668, 49.6604, -14.511, 96.9628, -56.2141, 44.3042
4.764, 5, 35.8652, 49.7234, -14.5314, 96.935, -56.4098, 44.2421
4.768, 5, 35.8636, 49.7862, -14.5514, 96.9067, -56.6054, 44.1803
4.772, 5, 35.8618, 49.8488, -14.571, 96.8779, -56.8007, 44.1187
4.776, 5, 35.8598, 49.9114, -14.5903, 96.8486, -56.9959, 44.0573
4.78, 5, 35.8577, 49.9737, -14.6092, 96.8189, -57.1908, 43.9962
4.784, 5, 35.8554, 50.0359, -14.6278, 96.7886, -57.3855, 43.9353
4.788, 5, 35.8529, 50.0979, -14.646, 96.7579, -57.5801, 43.8746
4.792, 5, 35.8503, 50.1598, -14.6638, 96.7267, -57.7744, 43.8142
4.796, 5, 35.8476, 50.2214, -14.6812, 96.695, -57.9685, 43.754
4.8, 5, 35.8447, 50.283, -14.6982, 96.6628, -58.1624, 43.694
4.804, 5, 35.8417, 50.3443, -14.7149, 96.6302, -58.3561, 43.6342
4.808, 5, 35.8385, 50.4055, -14.7312, 96.5971, -58.5496, 43.5746
4.812, 5, 35.8351, 50.4664, -14.7471, 96.5636, -58.7429, 43.5153
4.816, 5, 35.8316, 50.5273, -14.7626, 96.5296, -58.936, 43.4561
4.82, 5, 35.8279, 50.5879, -14.7777, 96.4952, -59.1289, 43.3971
4.824, 5, 35.8241, 50.6483, -14.7925, 96.4602, -59.3216, 43.3384
4.828, 5, 35.8202, 50.7086, -14.8068, 96.4249, -59.5141, 43.2798
4.832, 5, 35.816, 50.7687, -14.8208, 96.3891, -59.7064, 43.2215
4.836, 5, 35.8118, 50.8286, -14.8343, 96.3529, -59.8984, 43.1633
4.84, 5, 35.8073, 50.8883, -14.8475, 96.3162, -60.0903, 43.1053
4.844, 5, 35.8028, 50.9478, -14.8603, 96.2791, -60.282, 43.0475
4.848, 5, 35.798, 51.0072, -14.8727, 96.2415, -60.4734, 42.9898
4.852, 5, 35.7932, 51.0663, -14.8846, 96.2036, -60.6647, 42.9324
4.856, 5, 35.7881, 51.1253, -14.8962, 96.1652, -60.8557, 42.8751
4.86, 5, 35.783, 51.184, -14.9074, 96.1263, -61.0466, 42.818
4.864, 5, 35.7776, 51.2426, -14.9182, 96.0871, -61.2372, 42.7611
4.868, 5, 35.7721, 51.3009, -14.9285, 96.0474, -61.4276, 42.7043
4.872, 5, 35.7665, 51.3591, -14.9385, 96.0073, -61.6178, 42.6477
4.876, 5, 35.7607, 51.417, -14.9481, 95.9669, -61.8079, 42.5912
4.88, 5, 35.7548, 51.4748, -14.9572, 95.926, -61.9977, 42.5349
4.884, 5, 35.7487, 51.5324, -14.966, 95.8847, -62.1873, 42.4788
4.888, 5, 35.7425, 51.5897, -14.9743, 95.8429, -62.3767, 42.4228
4.892, 5, 35.7361, 51.6469, -14.9822, 95.8008, -62.5659, 42.3669
4.896, 5, 35.7295, 51.7038, -14.9897, 95.7583, -62.7548, 42.3112
4.9, 5, 35.7228, 51.7605, -14.9968, 95.7154, -62.9436, 42.2557
4.904, 5, 35.716, 51.8171, -15.0034, 95.6721, -63.1322, 42.2003
4.908, 5, 35.709, 51.8734, -15.0096, 95.6284, -63.3206, 42.145
4.912, 5, 35.7019, 51.9295, -15.0155, 95.5843, -63.5087, 42.0898
4.916, 5, 35.6946, 51.9853, -15.0209, 95.5399, -63.6967, 42.0348
4.92, 5, 35.6872, 52.0409, -15.0258, 95.495, -63.8844, 41.9799
4.924, 5, 35.6797, 52.096, -15.0304, 95.4498, -64.072, 41.9252
4.928, 5, 35.6722, 52.1506, -15.0345, 95.4042, -64.2592, 41.8706
4.932, 5, 35.6647, 52.2044, -15.0381, 95.3582, -64.4461, 41.8162
4.936, 5, 35.6574, 52.2572, -15.0414, 95.312, -64.6325, 41.7619
4.94, 5, 35.6502, 52.3089, -15.0442, 95.2655, -64.8182, 41.708
4.944, 5, 35.6433, 52.3596, -15.0466, 95.2189, -65.0029, 41.6544
4.948, 5, 35.6367, 52.4091, -15.0485, 95.1723, -65.1862, 41.6012
4.952, 5, 35.6303, 52.4575, -15.0501, 95.1257, -65.3676, 41.5486
4.956, 5, 35.6243, 52.5046, -15.0512, 95.0794, -65.5467, 41.4968
4.96, 5, 35.6184, 52.5503, -15.052, 95.0335, -65.7228, 41.4458
4.964, 5, 35.6129, 52.5945, -15.0524, 94.9882, -65.8952, 41.396
4.968, 5, 35.6075, 52.6371, -15.0524, 94.9438, -66.0631, 41.3475
4.972, 5, 35.6024, 52.6778, -15.0522, 94.9006, -66.2256, 41.3006
4.976, 5, 35.5973, 52.7167, -15.0516, 94.8588, -66.3818, 41.2556
4.98, 5, 35.5922, 52.7539, -15.0509, 94.8187, -66.5307, 41.2127
4.984, 5, 35.5872, 52.7894, -15.05, 94.7806, -66.6714, 41.1721
4.988, 5, 35.5823, 52.8231, -15.0489, 94.7447, -66.8033, 41.1341
4.992, 5, 35.5773, 52.8549, -15.0478, 94.7112, -66.9256, 41.0989
4.996, 5, 35.5725, 52.8847, -15.0467, 94.6804, -67.0379, 41.0666
5, 5, 35.5678, 52.9125, -15.0455, 94.6523, -67.1399, 41.0373
5.004, 5, 35.5632, 52.9384, -15.0444, 94.627, -67.2313, 41.011
5.008, 5, 35.5586, 52.9623, -15.0433, 94.6045, -67.3122, 40.9877
5.012, 5, 35.5542, 52.9845, -15.0423, 94.5848, -67.3828, 40.9674
5.016, 5, 35.5498, 53.005, -15.0415, 94.5679, -67.4435, 40.95
5.02, 5, 35.5455, 53.0238, -15.0407, 94.5535, -67.4949, 40.9352
5.024, 5, 35.5413, 53.0409, -15.0401, 94.5415, -67.5377, 40.9229
5.028, 5, 35.5374, 53.0563, -15.0396, 94.5317, -67.5728, 40.9128
5.032, 5, 35.5337, 53.0701, -15.0392, 94.5237, -67.6011, 40.9047
5.036, 5, 35.5304, 53.0823, -15.0389, 94.5174, -67.6235, 40.8983
5.04, 6, 35.5273, 53.093, -15.0387, 94.5125, -67.6409, 40.8933
5.044, 6, 35.5244, 53.1023, -15.0385, 94.5087, -67.6541, 40.8895
5.048, 6, 35.5219, 53.1103, -15.0384, 94.506, -67.664, 40.8866
5.052, 6, 35.5196, 53.117, -15.0383, 94.5039, -67.6712, 40.8846
5.056, 6, 35.5176, 53.1224, -15.0383, 94.5025, -67.6763, 40.8831
5.06, 6, 35.516, 53.1267, -15.0382, 94.5015, -67.6799, 40.882
5.064, 6, 35.5147, 53.1298, -15.0382, 94.5008, -67.6824, 40.8813
5.068, 6, 35.5138, 53.1321, -15.0382, 94.5003, -67.684, 40.8809
5.072, 6, 35.5131, 53.1337, -15.0382, 94.5, -67.6852, 40.8805
5.076, 6, 35.5126, 53.1348, -15.0382, 94.4998, -67.686, 40.8803
5.08, 6, 35.5121, 53.1356, -15.0382, 94.4996, -67.6865, 40.8801
5.084, 6, 35.5116, 53.1364, -15.0382, 94.4995, -67.6869, 40.88
5.088, 6, 35.5107, 53.1374, -15.0381, 94.4993, -67.6873, 40.8799
5.092, 6, 35.5095, 53.1387, -15.038, 94.4991, -67.6878, 40.8798
5.096, 6, 35.5079, 53.1405, -15.0378, 94.4988, -67.6887, 40.8797
5.1, 6, 35.5058, 53.143, -15.0374, 94.4981, -67.6902, 40.8794
5.104, 6, 35.5032, 53.1461, -15.0368, 94.497, -67.6928, 40.879
5.108, 6, 35.5002, 53.1501, -15.0358, 94.4953, -67.6968, 40.8783
5.112, 6, 35.4968, 53.1551, -15.0342, 94.4926, -67.703, 40.8773
5.116, 6, 35.4928, 53.1612, -15.032, 94.4887, -67.7118, 40.8758
5.12, 6, 35.4883, 53.1686, -15.0289, 94.4832, -67.7243, 40.8737
5.124, 6, 35.4831, 53.1772, -15.0247, 94.4758, -67.7411, 40.8709
5.128, 6, 35.4772, 53.1872, -15.0191, 94.4661, -67.7633, 40.8672
5.132, 6, 35.4709, 53.1982, -15.012, 94.4535, -67.7919, 40.8624
5.136, 6, 35.4642, 53.21, -15.003, 94.4377, -67.8278, 40.8564
5.14, 6, 35.4571, 53.2225, -14.992, 94.4182, -67.8718, 40.8491
5.144, 6, 35.4498, 53.2355, -14.9789, 94.3949, -67.9247, 40.8402
5.148, 6, 35.4424, 53.2488, -14.9634, 94.3673, -67.9867, 40.8298
5.152, 6, 35.4346, 53.2626, -14.9455, 94.3356, -68.0583, 40.8178
5.156, 6, 35.4266, 53.277, -14.9252, 94.2996, -68.1393, 40.8042
5.16, 6, 35.4181, 53.2921, -14.9025, 94.2596, -68.2294, 40.7891
5.164, 6, 35.4093, 53.3078, -14.8775, 94.2155, -68.3281, 40.7725
5.168, 6, 35.4, 53.3243, -14.8503, 94.1679, -68.4349, 40.7545
5.172, 6, 35.3904, 53.3414, -14.821, 94.1169, -68.549, 40.7353
5.176, 6, 35.3803, 53.3593, -14.79, 94.063, -68.6694, 40.715
5.18, 6, 35.3698, 53.3781, -14.7573, 94.0065, -68.7951, 40.6937
5.184, 6, 35.3586, 53.3978, -14.7232, 93.948, -68.9252, 40.6717
5.188, 6, 35.3467, 53.4186, -14.688, 93.8878, -69.0587, 40.649
5.192, 6, 35.334, 53.4404, -14.6517, 93.8264, -69.1949, 40.6259
5.196, 6, 35.3205, 53.4634, -14.6146, 93.7639, -69.3328, 40.6025
5.2, 6, 35.3062, 53.4872, -14.5769, 93.7007, -69.4721, 40.5787
5.204, 6, 35.2912, 53.5117, -14.5385, 93.637, -69.6122, 40.5548
5.208, 6, 35.2758, 53.5366, -14.4997, 93.5728, -69.7529, 40.5308
5.212, 6, 35.2599, 53.5617, -14.4604, 93.5084, -69.8939, 40.5066
5.216, 6, 35.2438, 53.587, -14.4207, 93.4436, -70.0351, 40.4824
5.22, 6, 35.2274, 53.6122, -14.3806, 93.3787, -70.1764, 40.4581
5.224, 6, 35.2108, 53.6374, -14.3401, 93.3136, -70.3177, 40.4337
5.228, 6, 35.194, 53.6624, -14.2992, 93.2483, -70.459, 40.4093
5.232, 6, 35.1771, 53.6873, -14.258, 93.1829, -70.6003, 40.3848
5.236, 6, 35.1601, 53.712, -14.2165, 93.1173, -70.7415, 40.3603
5.24, 6, 35.143, 53.7365, -14.1746, 93.0516, -70.8827, 40.3357
5.244, 6, 35.1257, 53.7608, -14.1323, 92.9858, -71.0238, 40.3111
5.248, 6, 35.1084, 53.7849, -14.0898, 92.9198, -71.1648, 40.2865
5.252, 6, 35.0909, 53.8088, -14.0468, 92.8538, -71.3057, 40.2618
5.256, 6, 35.0733, 53.8325, -14.0035, 92.7876, -71.4465, 40.2371
5.26, 6, 35.0556, 53.8559, -13.9599, 92.7212, -71.5872, 40.2123
5.264, 6, 35.0379, 53.8791, -13.916, 92.6548, -71.7278, 40.1875
5.268, 6, 35.02, 53.9021, -13.8717, 92.5882, -71.8683, 40.1627
5.272, 6, 35.002, 53.9249, -13.8271, 92.5215, -72.0088, 40.1378
5.276, 6, 34.9839, 53.9474, -13.7821, 92.4547, -72.1491, 40.1128
5.28, 6, 34.9657, 53.9698, -13.7368, 92.3878, -72.2893, 40.0878
5.284, 6, 34.9475, 53.9919, -13.6912, 92.3207, -72.4295, 40.0628
5.288, 6, 34.9291, 54.0137, -13.6453, 92.2536, -72.5695, 40.0377
5.292, 6, 34.9106, 54.0354, -13.599, 92.1863, -72.7095, 40.0125
5.296, 6, 34.892, 54.0568, -13.5523, 92.1189, -72.8493, 39.9873
5.3, 6, 34.8734, 54.078, -13.5054, 92.0514, -72.9891, 39.9621
5.304, 6, 34.8546, 54.099, -13.4581, 91.9838, -73.1288, 39.9368
5.308, 6, 34.8359, 54.1196, -13.4105, 91.916, -73.2683, 39.9114
5.312, 6, 34.8172, 54.14, -13.3626, 91.8482, -73.4078, 39.886
5.316, 6, 34.7986, 54.1599, -13.3144, 91.7803, -73.5471, 39.8606
5.32, 6, 34.7805, 54.1793, -13.2659, 91.7123, -73.6861, 39.8351
5.324, 6, 34.7629, 54.1977, -13.2172, 91.6444, -73.8248, 39.8096
5.328, 6, 34.7461, 54.215, -13.1684, 91.5766, -73.9629, 39.7842
5.332, 6, 34.7301, 54.231, -13.1196, 91.5091, -74.1001, 39.7589
5.336, 6, 34.7149, 54.2457, -13.0711, 91.4421, -74.2358, 39.7337
5.34, 6, 34.7005, 54.2593, -13.023, 91.3761, -74.3695, 39.7089
5.344, 6, 34.6866, 54.2718, -12.9756, 91.3113, -74.5003, 39.6845
5.348, 6, 34.6731, 54.2837, -12.9294, 91.2483, -74.6274, 39.6608
5.352, 6, 34.66, 54.295, -12.8846, 91.1874, -74.7499, 39.6379
5.356, 6, 34.6473, 54.3058, -12.8417, 91.1292, -74.8669, 39.616
5.36, 6, 34.6352, 54.3162, -12.8009, 91.0741, -74.9775, 39.5952
5.364, 6, 34.6235, 54.3261, -12.7626, 91.0225, -75.0808, 39.5757
5.368, 6, 34.6124, 54.3356, -12.7271, 90.9748, -75.1762, 39.5577
5.372, 6, 34.6017, 54.3448, -12.6946, 90.9313, -75.2631, 39.5413
5.376, 6, 34.5914, 54.354, -12.6654, 90.8923, -75.341, 39.5266
5.38, 6, 34.5813, 54.3632, -12.6395, 90.8579, -75.4097, 39.5136
5.384, 6, 34.5714, 54.3725, -12.6169, 90.828, -75.4693, 39.5023
5.388, 6, 34.5619, 54.3817, -12.5975, 90.8025, -75.5201, 39.4927
5.392, 6, 34.5529, 54.3908, -12.5812, 90.7811, -75.5627, 39.4846
5.396, 6, 34.5446, 54.3997, -12.5678, 90.7635, -75.5977, 39.4779
5.4, 7, 34.5369, 54.4081, -12.5568, 90.7493, -75.626, 39.4725
5.404, 7, 34.53, 54.4159, -12.5481, 90.7381, -75.6484, 39.4683
5.408, 7, 34.5237, 54.4231, -12.5413, 90.7294, -75.6657, 39.465
5.412, 7, 34.518, 54.4297, -12.5362, 90.7228, -75.6788, 39.4625
5.416, 7, 34.5129, 54.4354, -12.5323, 90.7179, -75.6885, 39.4606
5.42, 7, 34.5085, 54.4401, -12.5295, 90.7144, -75.6955, 39.4593
5.424, 7, 34.5047, 54.444, -12.5275, 90.7119, -75.7005, 39.4584
5.428, 7, 34.5017, 54.4469, -12.5261, 90.7102, -75.7039, 39.4577
5.432, 7, 34.4993, 54.4491, -12.5252, 90.709, -75.7063, 39.4573
5.436, 7, 34.4976, 54.4506, -12.5245, 90.7082, -75.7079, 39.457
5.44, 7, 34.4962, 54.4517, -12.524, 90.7077, -75.709, 39.4568
5.444, 7, 34.4948, 54.4526, -12.5237, 90.7073, -75.7098, 39.4566
5.448, 7, 34.4932, 54.4534, -12.5233, 90.7069, -75.7104, 39.4566
5.452, 7, 34.4911, 54.4542, -12.5228, 90.7065, -75.7111, 39.4566
5.456, 7, 34.4884, 54.4551, -12.5219, 90.7059, -75.7119, 39.4567
5.46, 7, 34.4851, 54.4562, -12.5206, 90.7049, -75.7133, 39.457
5.464, 7, 34.4812, 54.4574, -12.5184, 90.7033, -75.7155, 39.4574
5.468, 7, 34.4766, 54.4587, -12.5151, 90.7007, -75.7189, 39.4582
5.472, 7, 34.4714, 54.46, -12.5103, 90.6968, -75.7239, 39.4595
5.476, 7, 34.4654, 54.4614, -12.5035, 90.6911, -75.731, 39.4612
5.48, 7, 34.4586, 54.4626, -12.4942, 90.6834, -75.7409, 39.4637
5.484, 7, 34.4508, 54.4637, -12.4818, 90.673, -75.7541, 39.4669
5.488, 7, 34.4421, 54.4643, -12.4659, 90.6595, -75.7712, 39.4712
5.492, 7, 34.4325, 54.4645, -12.4458, 90.6423, -75.7928, 39.4766
5.496, 7, 34.4222, 54.4638, -12.4212, 90.6211, -75.8195, 39.4833
5.5, 7, 34.4113, 54.4622, -12.3915, 90.5955, -75.8519, 39.4913
5.504, 7, 34.3999, 54.4594, -12.3565, 90.5651, -75.8901, 39.5009
5.508, 7, 34.3879, 54.4556, -12.316, 90.5298, -75.9345, 39.5119
5.512, 7, 34.3754, 54.4506, -12.27, 90.4897, -75.9851, 39.5244
5.516, 7, 34.3621, 54.4446, -12.2186, 90.4447, -76.0416, 39.5384
5.52, 7, 34.3481, 54.4376, -12.162, 90.3951, -76.104, 39.5538
5.524, 7, 34.3331, 54.4299, -12.1004, 90.3413, -76.1717, 39.5705
5.528, 7, 34.3174, 54.4215, -12.0344, 90.2836, -76.2443, 39.5883
5.532, 7, 34.3009, 54.4124, -11.9644, 90.2225, -76.3213, 39.6071
5.536, 7, 34.2837, 54.4029, -11.8909, 90.1584, -76.402, 39.6268
5.54, 7, 34.2656, 54.3931, -11.8145, 90.0918, -76.4859, 39.6471
5.544, 7, 34.2466, 54.3832, -11.7356, 90.0232, -76.5724, 39.668
5.548, 7, 34.2267, 54.3733, -11.6548, 89.953, -76.6609, 39.6893
5.552, 7, 34.2057, 54.3634, -11.5725, 89.8817, -76.7509, 39.7108
5.556, 7, 34.1837, 54.3537, -11.489, 89.8096, -76.842, 39.7324
5.56, 7, 34.1608, 54.3442, -11.4048, 89.7369, -76.934, 39.7541
5.564, 7, 34.1371, 54.3347, -11.3199, 89.6638, -77.0264, 39.7758
5.568, 7, 34.1128, 54.3253, -11.2345, 89.5904, -77.1192, 39.7975
5.572, 7, 34.0881, 54.3159, -11.1488, 89.5169, -77.2123, 39.8191
5.576, 7, 34.0631, 54.3064, -11.0629, 89.4433, -77.3056, 39.8407
5.58, 7, 34.0379, 54.2969, -10.9767, 89.3696, -77.399, 39.8621
5.584, 7, 34.0125, 54.2873, -10.8904, 89.2958, -77.4926, 39.8834
5.588, 7, 33.987, 54.2777, -10.8039, 89.2221, -77.5862, 39.9047
5.592, 7, 33.9613, 54.2679, -10.7173, 89.1483, -77.6798, 39.9258
5.596, 7, 33.9356, 54.2581, -10.6306, 89.0745, -77.7735, 39.9467
5.6, 7, 33.9097, 54.2481, -10.5438, 89.0008, -77.8672, 39.9676
5.604, 7, 33.8838, 54.2381, -10.4569, 88.927, -77.961, 39.9883
5.608, 7, 33.8578, 54.2279, -10.3699, 88.8533, -78.0548, 40.0089
5.612, 7, 33.8317, 54.2177, -10.2828, 88.7796, -78.1486, 40.0294
5.616, 7, 33.8055, 54.2073, -10.1956, 88.7058, -78.2425, 40.0497
5.62, 7, 33.7793, 54.1968, -10.1083, 88.6321, -78.3364, 40.0699
5.624, 7, 33.753, 54.1863, -10.0209, 88.5585, -78.4303, 40.09
5.628, 7, 33.7266, 54.1756, -9.93338, 88.4848, -78.5242, 40.11
5.632, 7, 33.7002, 54.1648, -9.8458, 88.4111, -78.6182, 40.1298
5.636, 7, 33.6737, 54.154, -9.75814, 88.3375, -78.7121, 40.1495
5.64, 7, 33.6471, 54.143, -9.67039, 88.2639, -78.8061, 40.169
5.644, 7, 33.6204, 54.1319, -9.58255, 88.1903, -78.9001, 40.1885
5.648, 7, 33.5937, 54.1207, -9.49463, 88.1166, -78.9942, 40.2078
5.652, 7, 33.5669, 54.1094, -9.40661, 88.0431, -79.0883, 40.2269
5.656, 7, 33.5401, 54.098, -9.31851, 87.9695, -79.1824, 40.246
5.66, 7, 33.5132, 54.0865, -9.23032, 87.8959, -79.2765, 40.2649
5.664, 7, 33.4862, 54.0748, -9.14205, 87.8224, -79.3706, 40.2837
5.668, 7, 33.4593, 54.0631, -9.0537, 87.7488, -79.4647, 40.3023
5.672, 7, 33.4324, 54.0512, -8.96528, 87.6753, -79.5589, 40.3208
5.676, 7, 33.4057, 54.0393, -8.8768, 87.6018, -79.6531, 40.3392
5.68, 7, 33.3792, 54.0271, -8.78829, 87.5284, -79.7472, 40.3574
5.684, 7, 33.3529, 54.0149, -8.69979, 87.455, -79.8413, 40.3755
5.688, 7, 33.3268, 54.0025, -8.61135, 87.3817, -79.9352, 40.3934
5.692, 7, 33.3011, 53.99, -8.52306, 87.3086, -80.029, 40.4112
5.696, 7, 33.2759, 53.9772, -8.43504, 87.2358, -80.1224, 40.4287
5.7, 7, 33.2512, 53.9643, -8.34747, 87.1634, -80.2154, 40.4461
5.704, 7, 33.2273, 53.9511, -8.26057, 87.0915, -80.3076, 40.4631
5.708, 7, 33.2042, 53.9378, -8.17467, 87.0204, -80.3988, 40.4799
5.712, 7, 33.1819, 53.9243, -8.09014, 86.9505, -80.4886, 40.4963
5.716, 7, 33.1604, 53.9109, -8.00744, 86.8821, -80.5764, 40.5123
5.72, 7, 33.1398, 53.8976, -7.92707, 86.8157, -80.6617, 40.5277
5.724, 7, 33.1198, 53.8847, -7.84956, 86.7516, -80.744, 40.5424
5.728, 7, 33.1006, 53.8723, -7.77545, 86.6904, -80.8226, 40.5564
5.732, 7, 33.0822, 53.8606, -7.70524, 86.6324, -80.8971, 40.5696
5.736, 7, 33.0647, 53.8496, -7.63942, 86.5782, -80.9668, 40.5819
5.74, 7, 33.0482, 53.8395, -7.5784, 86.5279, -81.0314, 40.5933
5.744, 7, 33.0326, 53.8305, -7.52252, 86.482, -81.0905, 40.6036
5.748, 7, 33.0178, 53.8227, -7.47201, 86.4405, -81.1438, 40.6128
5.752, 7, 33.0037, 53.8161, -7.427, 86.4037, -81.1912, 40.621
5.756, 7, 32.9903, 53.8108, -7.38748, 86.3715, -81.2327, 40.6282
5.76, 7, 32.9776, 53.8068, -7.35331, 86.3438, -81.2684, 40.6343
5.764, 7, 32.9656, 53.8038, -7.32425, 86.3204, -81.2987, 40.6395
5.768, 7, 32.9546, 53.8017, -7.29992, 86.3009, -81.3239, 40.6438
5.772, 7, 32.9447, 53.8003, -7.2799, 86.2849, -81.3446, 40.6473
5.776, 8, 32.9359, 53.7995, -7.2637, 86.2721, -81.3612, 40.6501
5.78, 8, 32.9281, 53.799, -7.25083, 86.2619, -81.3743, 40.6523
5.784, 8, 32.9211, 53.7989, -7.2408, 86.2541, -81.3845, 40.654
5.788, 8, 32.915, 53.7989, -7.23313, 86.2482, -81.3922, 40.6553
5.792, 8, 32.9096, 53.7992, -7.22738, 86.2438, -81.398, 40.6563
5.796, 8, 32.905, 53.7995, -7.22318, 86.2406, -81.4021, 40.657
5.8, 8, 32.9011, 53.7998, -7.22015, 86.2384, -81.4051, 40.6574
5.804, 8, 32.8979, 53.8001, -7.21803, 86.2368, -81.4071, 40.6578
5.808, 8, 32.8954, 53.8004, -7.21655, 86.2357, -81.4085, 40.658
5.812, 8, 32.8936, 53.8005, -7.21554, 86.235, -81.4095, 40.6582
5.816, 8, 32.8921, 53.8006, -7.21482, 86.2345, -81.4101, 40.6583
5.82, 8, 32.8907, 53.8007, -7.21427, 86.2342, -81.4106, 40.6584
5.824, 8, 32.8891, 53.8007, -7.21373, 86.2339, -81.411, 40.6585
5.828, 8, 32.8871, 53.8005, -7.21305, 86.2335, -81.4114, 40.6587
5.832, 8, 32.8846, 53.8002, -7.21203, 86.233, -81.4118, 40.6591
5.836, 8, 32.8815, 53.7997, -7.21041, 86.2321, -81.4125, 40.6598
5.84, 8, 32.8777, 53.7988, -7.20786, 86.2306, -81.4136, 40.6611
5.844, 8, 32.8732, 53.7975, -7.20399, 86.2283, -81.4153, 40.663
5.848, 8, 32.868, 53.7957, -7.19831, 86.2249, -81.4177, 40.666
5.852, 8, 32.8619, 53.793, -7.19025, 86.2198, -81.4212, 40.6703
5.856, 8, 32.8546, 53.7894, -7.17919, 86.2128, -81.426, 40.6764
5.86, 8, 32.8461, 53.7846, -7.16438, 86.2033, -81.4325, 40.6847
5.864, 8, 32.8364, 53.7785, -7.1451, 86.1907, -81.4411, 40.6955
5.868, 8, 32.8254, 53.7707, -7.12056, 86.1745, -81.4521, 40.7095
5.872, 8, 32.8134, 53.7611, -7.09007, 86.1542, -81.4658, 40.7271
5.876, 8, 32.8004, 53.7496, -7.05297, 86.1292, -81.4826, 40.7487
5.88, 8, 32.7866, 53.736, -7.00874, 86.0992, -81.5028, 40.7745
5.884, 8, 32.7719, 53.7202, -6.95704, 86.0639, -81.5265, 40.805
5.888, 8, 32.7564, 53.7022, -6.89769, 86.0232, -81.5538, 40.84
5.892, 8, 32.7398, 53.6819, -6.8307, 85.9772, -81.5847, 40.8797
5.896, 8, 32.7221, 53.6594, -6.75628, 85.9258, -81.6192, 40.9238
5.9, 8, 32.7033, 53.6349, -6.67479, 85.8696, -81.657, 40.9722
5.904, 8, 32.6835, 53.6084, -6.58674, 85.8087, -81.698, 41.0245
5.908, 8, 32.6626, 53.5801, -6.49277, 85.7436, -81.7418, 41.0802
5.912, 8, 32.6408, 53.5503, -6.39361, 85.6749, -81.7882, 41.1391
5.916, 8, 32.618, 53.5191, -6.28999, 85.6031, -81.8368, 41.2005
5.92, 8, 32.594, 53.4868, -6.1827, 85.5288, -81.8871, 41.264
5.924, 8, 32.5689, 53.4536, -6.07248, 85.4525, -81.939, 41.3291
5.928, 8, 32.5426, 53.4196, -5.95999, 85.3746, -81.992, 41.3953
5.932, 8, 32.5149, 53.3851, -5.84584, 85.2957, -82.0459, 41.4624
5.936, 8, 32.4861, 53.3502, -5.7305, 85.2161, -82.1004, 41.53
5.94, 8, 32.4563, 53.315, -5.61437, 85.1359, -82.1555, 41.5979
5.944, 8, 32.4257, 53.2796, -5.49772, 85.0555, -82.2109, 41.666
5.948, 8, 32.3945, 53.2441, -5.38076, 84.9748, -82.2666, 41.7341
5.952, 8, 32.3629, 53.2085, -5.26364, 84.894, -82.3226, 41.8023
5.956, 8, 32.331, 53.1729, -5.14644, 84.8131, -82.3787, 41.8703
5.96, 8, 32.2989, 53.1372, -5.02923, 84.7322, -82.435, 41.9383
5.964, 8, 32.2666, 53.1015, -4.91207, 84.6512, -82.4915, 42.0061
5.968, 8, 32.2342, 53.0659, -4.79496, 84.5703, -82.548, 42.0738
5.972, 8, 32.2017, 53.0303, -4.67794, 84.4894, -82.6047, 42.1413
5.976, 8, 32.169, 52.9946, -4.56101, 84.4085, -82.6616, 42.2087
5.98, 8, 32.1363, 52.959, -4.4442, 84.3277, -82.7185, 42.276
5.984, 8, 32.1035, 52.9235, -4.32749, 84.2469, -82.7756, 42.343
5.988, 8, 32.0706, 52.8879, -4.2109, 84.1662, -82.8327, 42.4099
5.992, 8, 32.0376, 52.8524, -4.09443, 84.0854, -82.89, 42.4767
5.996, 8, 32.0046, 52.8169, -3.97807, 84.0048, -82.9473, 42.5433
6, 8, 31.9715, 52.7814, -3.86184, 83.9241, -83.0048, 42.6097
6.004, 8, 31.9383, 52.7459, -3.74573, 83.8435, -83.0624, 42.6759
6.008, 8, 31.905, 52.7105, -3.62974, 83.763, -83.1201, 42.742
6.012, 8, 31.8717, 52.675, -3.51387, 83.6824, -83.1779, 42.8079
6.016, 8, 31.8383, 52.6396, -3.39812, 83.602, -83.2358, 42.8737
6.02, 8, 31.8049, 52.6043, -3.28249, 83.5215, -83.2937, 42.9393
6.024, 8, 31.7714, 52.5689, -3.16697, 83.4411, -83.3518, 43.0047
6.028, 8, 31.7378, 52.5336, -3.05158, 83.3608, -83.41, 43.07
6.032, 8, 31.7042, 52.4983, -2.93632, 83.2804, -83.4683, 43.135
6.036, 8, 31.6708, 52.463, -2.8212, 83.2002, -83.5267, 43.2
6.04, 8, 31.6376, 52.4278, -2.70625, 83.12, -83.5851, 43.2647
6.044, 8, 31.6049, 52.3926, -2.59155, 83.0398, -83.6436, 43.3292
6.048, 8, 31.5727, 52.3576, -2.47718, 82.9599, -83.7021, 43.3935
6.052, 8, 31.5412, 52.3227, -2.36331, 82.8801, -83.7606, 43.4574
