hehonglu123/Motion-Primitive-Planning/simulation/robotstudio_sim/scripts/fitting_output/threshold0.25/curve_exe_v500_fine.csv
timestamp, cmd_num, J1, J2, J3, J4, J5, J6
0, 1, -1.02643, 64.0294, 9.23056, 43.4061, -96.0757, 171.142
0.002, 1, -1.02643, 64.0294, 9.23056, 43.4061, -96.0757, 171.142
0.004, 1, -1.02643, 64.0294, 9.23056, 43.4061, -96.0757, 171.142
0.008, 1, -1.02643, 64.0294, 9.23056, 43.4061, -96.0757, 171.142
0.011, 1, -1.02643, 64.0294, 9.23056, 43.4061, -96.0757, 171.142
0.016, 1, -1.02643, 64.0294, 9.23056, 43.4061, -96.0757, 171.142
0.02, 1, -1.02643, 64.0294, 9.23056, 43.4061, -96.0757, 171.142
0.024, 1, -1.02643, 64.0294, 9.23056, 43.4061, -96.0757, 171.142
0.028, 1, -1.02643, 64.0294, 9.23056, 43.4061, -96.0757, 171.142
0.032, 1, -1.02643, 64.0294, 9.23056, 43.4061, -96.0757, 171.142
0.036, 1, -1.02642, 64.0294, 9.23056, 43.4061, -96.0757, 171.142
0.04, 1, -1.02635, 64.0294, 9.23056, 43.4061, -96.0757, 171.142
0.044, 1, -1.02613, 64.0294, 9.23057, 43.4061, -96.0757, 171.142
0.048, 1, -1.02561, 64.0292, 9.23059, 43.4061, -96.0757, 171.142
0.052, 1, -1.02464, 64.0289, 9.23062, 43.4062, -96.0756, 171.142
0.056, 1, -1.02311, 64.0285, 9.23065, 43.4063, -96.0756, 171.142
0.06, 1, -1.02096, 64.0277, 9.23066, 43.4065, -96.0754, 171.141
0.064, 1, -1.01813, 64.0266, 9.23061, 43.407, -96.075, 171.14
0.068, 1, -1.01458, 64.0252, 9.23046, 43.4078, -96.0743, 171.138
0.072, 1, -1.01028, 64.0233, 9.23014, 43.4091, -96.0732, 171.135
0.076, 1, -1.00511, 64.021, 9.22957, 43.4111, -96.0716, 171.13
0.08, 1, -0.998924, 64.0181, 9.22864, 43.4141, -96.0691, 171.124
0.084, 1, -0.991519, 64.0146, 9.22725, 43.4183, -96.0657, 171.114
0.088, 1, -0.982694, 64.0103, 9.22526, 43.4239, -96.061, 171.101
0.092, 1, -0.972288, 64.0053, 9.22251, 43.4314, -96.0548, 171.083
0.096, 1, -0.960193, 63.9994, 9.21884, 43.4412, -96.0467, 171.06
0.1, 1, -0.946326, 63.9926, 9.21406, 43.4536, -96.0365, 171.032
0.104, 1, -0.930581, 63.985, 9.20799, 43.4689, -96.0238, 170.996
0.108, 1, -0.912828, 63.9764, 9.20045, 43.4876, -96.0082, 170.953
0.112, 1, -0.892933, 63.9667, 9.1913, 43.5101, -95.9896, 170.9
0.116, 1, -0.870813, 63.9561, 9.18037, 43.5366, -95.9676, 170.839
0.12, 1, -0.846443, 63.9446, 9.16753, 43.5674, -95.9419, 170.768
0.124, 1, -0.819848, 63.9323, 9.15266, 43.6029, -95.9125, 170.686
0.128, 1, -0.791071, 63.9193, 9.13567, 43.643, -95.8791, 170.593
0.131, 1, -0.760158, 63.9058, 9.11651, 43.6881, -95.8417, 170.489
0.136, 1, -0.727149, 63.8918, 9.09518, 43.7379, -95.8002, 170.373
0.139, 1, -0.692049, 63.8772, 9.0717, 43.7926, -95.7547, 170.247
0.144, 1, -0.654825, 63.8618, 9.04615, 43.8518, -95.7054, 170.11
0.148, 1, -0.615441, 63.8456, 9.01866, 43.9155, -95.6525, 169.963
0.152, 1, -0.573915, 63.8285, 8.98937, 43.9832, -95.5962, 169.806
0.156, 1, -0.530341, 63.8105, 8.95843, 44.0547, -95.5367, 169.641
0.16, 1, -0.484851, 63.7915, 8.92601, 44.1295, -95.4744, 169.468
0.164, 1, -0.437563, 63.7717, 8.8923, 44.2074, -95.4097, 169.288
0.168, 1, -0.388561, 63.751, 8.8575, 44.2877, -95.3428, 169.102
0.172, 1, -0.337914, 63.7295, 8.82179, 44.3703, -95.2741, 168.912
0.176, 1, -0.285726, 63.7073, 8.78537, 44.4546, -95.204, 168.717
0.18, 1, -0.23213, 63.6842, 8.7484, 44.5403, -95.1327, 168.519
0.184, 1, -0.177265, 63.6605, 8.71102, 44.627, -95.0605, 168.318
0.188, 1, -0.121276, 63.6361, 8.67335, 44.7147, -94.9876, 168.115
0.192, 1, -0.0643124, 63.6113, 8.63547, 44.8029, -94.9142, 167.911
0.196, 1, -0.00652954, 63.586, 8.59744, 44.8916, -94.8405, 167.706
0.2, 1, 0.0519441, 63.5603, 8.55933, 44.9805, -94.7665, 167.5
0.204, 1, 0.111017, 63.5345, 8.52117, 45.0697, -94.6923, 167.294
0.208, 1, 0.170609, 63.5084, 8.48297, 45.159, -94.6181, 167.088
0.212, 1, 0.230622, 63.4822, 8.44477, 45.2484, -94.5438, 166.881
0.216, 1, 0.290943, 63.4559, 8.40656, 45.3378, -94.4694, 166.674
0.22, 1, 0.351471, 63.4295, 8.36837, 45.4272, -94.3951, 166.467
0.224, 1, 0.412127, 63.4031, 8.33018, 45.5166, -94.3207, 166.26
0.228, 1, 0.47286, 63.3766, 8.29201, 45.6059, -94.2464, 166.054
0.232, 1, 0.533634, 63.3502, 8.25386, 45.6953, -94.1721, 165.847
0.236, 1, 0.594424, 63.3237, 8.21573, 45.7846, -94.0979, 165.641
0.24, 1, 0.655214, 63.2972, 8.17762, 45.8738, -94.0236, 165.434
0.244, 1, 0.715994, 63.2708, 8.13952, 45.963, -93.9494, 165.228
0.248, 1, 0.776754, 63.2444, 8.10145, 46.0522, -93.8753, 165.021
0.252, 1, 0.837491, 63.2179, 8.0634, 46.1413, -93.8012, 164.815
0.256, 1, 0.8982, 63.1915, 8.02537, 46.2304, -93.7271, 164.609
0.26, 1, 0.958879, 63.1651, 7.98736, 46.3194, -93.6531, 164.403
0.264, 1, 1.01953, 63.1388, 7.94937, 46.4083, -93.5791, 164.198
0.268, 1, 1.08014, 63.1124, 7.91141, 46.4972, -93.5052, 163.992
0.272, 1, 1.14072, 63.086, 7.87347, 46.5861, -93.4313, 163.786
0.276, 1, 1.20127, 63.0597, 7.83555, 46.6749, -93.3574, 163.581
0.28, 1, 1.26178, 63.0334, 7.79765, 46.7637, -93.2836, 163.376
0.284, 1, 1.32225, 63.0071, 7.75977, 46.8524, -93.2099, 163.17
0.288, 1, 1.38269, 62.9808, 7.72192, 46.941, -93.1361, 162.965
0.292, 1, 1.4431, 62.9545, 7.68409, 47.0296, -93.0625, 162.76
0.296, 1, 1.50347, 62.9282, 7.64628, 47.1182, -92.9888, 162.555
0.3, 1, 1.5638, 62.902, 7.60849, 47.2067, -92.9152, 162.351
0.304, 1, 1.6241, 62.8758, 7.57073, 47.2951, -92.8417, 162.146
0.308, 1, 1.68436, 62.8496, 7.53299, 47.3835, -92.7682, 161.942
0.312, 1, 1.74458, 62.8234, 7.49527, 47.4718, -92.6947, 161.737
0.316, 1, 1.80477, 62.7972, 7.45758, 47.5601, -92.6213, 161.533
0.32, 1, 1.86492, 62.771, 7.41991, 47.6483, -92.548, 161.329
0.324, 1, 1.92503, 62.7449, 7.38226, 47.7365, -92.4746, 161.125
0.328, 1, 1.98511, 62.7187, 7.34464, 47.8246, -92.4013, 160.921
0.332, 1, 2.04515, 62.6926, 7.30704, 47.9127, -92.3281, 160.718
0.336, 1, 2.10515, 62.6665, 7.26946, 48.0007, -92.2549, 160.514
0.34, 1, 2.16511, 62.6404, 7.2319, 48.0886, -92.1818, 160.311
0.344, 1, 2.22504, 62.6144, 7.19437, 48.1765, -92.1087, 160.107
0.348, 1, 2.28492, 62.5883, 7.15687, 48.2644, -92.0357, 159.904
0.352, 1, 2.34477, 62.5623, 7.11938, 48.3522, -91.9626, 159.701
0.356, 1, 2.40459, 62.5363, 7.08192, 48.4399, -91.8897, 159.498
0.36, 1, 2.46436, 62.5103, 7.04449, 48.5276, -91.8168, 159.295
0.364, 1, 2.52409, 62.4843, 7.00708, 48.6152, -91.7439, 159.092
0.368, 1, 2.58379, 62.4583, 6.96969, 48.7028, -91.6711, 158.89
0.372, 1, 2.64345, 62.4324, 6.93233, 48.7903, -91.5983, 158.687
0.376, 1, 2.70307, 62.4064, 6.89499, 48.8777, -91.5256, 158.485
0.38, 1, 2.76265, 62.3805, 6.85767, 48.9651, -91.4529, 158.283
0.384, 1, 2.82219, 62.3546, 6.82038, 49.0524, -91.3803, 158.081
0.388, 1, 2.88169, 62.3287, 6.78311, 49.1397, -91.3077, 157.879
0.392, 1, 2.94116, 62.3029, 6.74587, 49.2269, -91.2352, 157.677
0.396, 1, 3.00058, 62.277, 6.70866, 49.3141, -91.1627, 157.476
0.4, 1, 3.05996, 62.2512, 6.67146, 49.4012, -91.0903, 157.274
0.404, 1, 3.11931, 62.2254, 6.6343, 49.4882, -91.0179, 157.073
0.408, 1, 3.17861, 62.1996, 6.59715, 49.5752, -90.9456, 156.872
0.412, 1, 3.23788, 62.1738, 6.56004, 49.6622, -90.8733, 156.671
0.416, 1, 3.29711, 62.148, 6.52294, 49.749, -90.801, 156.47
0.42, 1, 3.35629, 62.1223, 6.48588, 49.8358, -90.7288, 156.269
0.424, 1, 3.41544, 62.0966, 6.44883, 49.9226, -90.6567, 156.068
0.428, 1, 3.47454, 62.0708, 6.41182, 50.0093, -90.5846, 155.868
0.432, 1, 3.53361, 62.0452, 6.37483, 50.0959, -90.5126, 155.667
0.436, 1, 3.59263, 62.0195, 6.33786, 50.1825, -90.4406, 155.467
0.44, 1, 3.65161, 61.9938, 6.30092, 50.269, -90.3686, 155.267
0.444, 1, 3.71056, 61.9682, 6.26401, 50.3555, -90.2967, 155.067
0.448, 1, 3.76946, 61.9426, 6.22712, 50.4418, -90.2249, 154.867
0.452, 1, 3.82832, 61.917, 6.19025, 50.5282, -90.1531, 154.667
0.456, 1, 3.88714, 61.8914, 6.15342, 50.6145, -90.0814, 154.468
0.46, 1, 3.94591, 61.8658, 6.1166, 50.7007, -90.0097, 154.268
0.464, 1, 4.00465, 61.8403, 6.07982, 50.7868, -89.938, 154.069
0.468, 1, 4.06335, 61.8147, 6.04306, 50.8729, -89.8664, 153.87
0.472, 1, 4.122, 61.7892, 6.00632, 50.9589, -89.7949, 153.671
0.476, 1, 4.18061, 61.7637, 5.96962, 51.0449, -89.7234, 153.472
0.48, 1, 4.23918, 61.7382, 5.93294, 51.1308, -89.6519, 153.273
0.484, 1, 4.29771, 61.7128, 5.89628, 51.2167, -89.5806, 153.075
0.488, 1, 4.35619, 61.6873, 5.85965, 51.3024, -89.5092, 152.876
0.492, 1, 4.41464, 61.6619, 5.82305, 51.3882, -89.4379, 152.678
0.496, 1, 4.47304, 61.6365, 5.78648, 51.4738, -89.3667, 152.48
0.5, 1, 4.5314, 61.6111, 5.74993, 51.5594, -89.2955, 152.282
0.504, 1, 4.58971, 61.5858, 5.71341, 51.645, -89.2244, 152.084
0.508, 1, 4.64799, 61.5604, 5.67691, 51.7304, -89.1533, 151.886
0.512, 1, 4.70622, 61.5351, 5.64044, 51.8158, -89.0823, 151.688
0.516, 1, 4.76441, 61.5098, 5.604, 51.9012, -89.0113, 151.491
0.52, 1, 4.82255, 61.4845, 5.56758, 51.9865, -88.9404, 151.294
0.524, 1, 4.88066, 61.4592, 5.5312, 52.0717, -88.8695, 151.097
0.528, 1, 4.93872, 61.434, 5.49483, 52.1568, -88.7987, 150.9
0.532, 1, 4.99673, 61.4087, 5.4585, 52.2419, -88.7279, 150.703
0.536, 1, 5.05471, 61.3835, 5.42219, 52.327, -88.6572, 150.506
0.54, 1, 5.11263, 61.3583, 5.38591, 52.4119, -88.5866, 150.31
0.544, 1, 5.17052, 61.3331, 5.34966, 52.4968, -88.516, 150.113
0.548, 1, 5.22836, 61.308, 5.31344, 52.5817, -88.4454, 149.917
0.552, 1, 5.28616, 61.2828, 5.27724, 52.6664, -88.3749, 149.721
0.556, 1, 5.34392, 61.2577, 5.24107, 52.7512, -88.3045, 149.525
0.56, 1, 5.40163, 61.2326, 5.20493, 52.8358, -88.2341, 149.329
0.564, 1, 5.4593, 61.2075, 5.16881, 52.9204, -88.1637, 149.133
0.568, 1, 5.51692, 61.1824, 5.13272, 53.0049, -88.0935, 148.938
0.572, 1, 5.5745, 61.1574, 5.09666, 53.0894, -88.0232, 148.742
0.576, 1, 5.63203, 61.1324, 5.06063, 53.1737, -87.9531, 148.547
0.58, 1, 5.68952, 61.1074, 5.02462, 53.2581, -87.8829, 148.352
0.584, 1, 5.74697, 61.0824, 4.98865, 53.3423, -87.8129, 148.157
0.588, 1, 5.80437, 61.0574, 4.9527, 53.4265, -87.7429, 147.963
0.592, 1, 5.86173, 61.0325, 4.91678, 53.5106, -87.6729, 147.768
0.596, 1, 5.91904, 61.0075, 4.88088, 53.5947, -87.603, 147.573
0.6, 1, 5.97631, 60.9826, 4.84502, 53.6787, -87.5331, 147.379
0.604, 1, 6.03353, 60.9577, 4.80918, 53.7626, -87.4633, 147.185
0.608, 1, 6.0907, 60.9329, 4.77337, 53.8465, -87.3936, 146.991
0.612, 1, 6.14784, 60.908, 4.73759, 53.9303, -87.3239, 146.797
0.616, 1, 6.20492, 60.8832, 4.70184, 54.014, -87.2543, 146.603
0.62, 1, 6.26197, 60.8584, 4.66612, 54.0977, -87.1847, 146.41
0.624, 1, 6.31896, 60.8336, 4.63042, 54.1813, -87.1152, 146.217
0.628, 1, 6.37591, 60.8088, 4.59475, 54.2648, -87.0457, 146.023
0.632, 1, 6.43282, 60.784, 4.55912, 54.3483, -86.9763, 145.83
0.636, 1, 6.48968, 60.7593, 4.52351, 54.4317, -86.907, 145.637
0.64, 1, 6.5465, 60.7346, 4.48792, 54.515, -86.8377, 145.445
0.644, 1, 6.60326, 60.7099, 4.45237, 54.5983, -86.7684, 145.252
0.648, 1, 6.65999, 60.6852, 4.41685, 54.6815, -86.6992, 145.059
0.652, 1, 6.71667, 60.6606, 4.38135, 54.7646, -86.6301, 144.867
0.656, 1, 6.7733, 60.6359, 4.34589, 54.8477, -86.561, 144.675
0.66, 1, 6.82988, 60.6113, 4.31045, 54.9307, -86.492, 144.483
0.664, 1, 6.88642, 60.5867, 4.27504, 55.0136, -86.4231, 144.291
0.668, 1, 6.94292, 60.5622, 4.23966, 55.0964, -86.3542, 144.1
0.672, 1, 6.99936, 60.5376, 4.20431, 55.1792, -86.2853, 143.908
0.676, 1, 7.05576, 60.5131, 4.16899, 55.262, -86.2165, 143.717
0.68, 1, 7.11212, 60.4886, 4.1337, 55.3446, -86.1478, 143.525
0.684, 1, 7.16843, 60.4641, 4.09843, 55.4272, -86.0791, 143.334
0.688, 1, 7.22469, 60.4396, 4.0632, 55.5097, -86.0105, 143.144
0.692, 1, 7.2809, 60.4152, 4.02799, 55.5922, -85.9419, 142.953
0.696, 1, 7.33707, 60.3907, 3.99282, 55.6745, -85.8734, 142.762
0.7, 1, 7.39319, 60.3663, 3.95767, 55.7569, -85.805, 142.572
0.704, 1, 7.44926, 60.3419, 3.92255, 55.8391, -85.7366, 142.382
0.708, 1, 7.50529, 60.3176, 3.88747, 55.9213, -85.6682, 142.191
0.712, 1, 7.56127, 60.2932, 3.85241, 56.0034, -85.6, 142.002
0.716, 1, 7.6172, 60.2689, 3.81738, 56.0854, -85.5317, 141.812
0.72, 1, 7.67309, 60.2446, 3.78238, 56.1674, -85.4636, 141.622
0.724, 1, 7.72893, 60.2203, 3.74741, 56.2493, -85.3955, 141.433
0.728, 1, 7.78472, 60.196, 3.71247, 56.3311, -85.3274, 141.243
0.732, 1, 7.84047, 60.1718, 3.67756, 56.4129, -85.2594, 141.054
0.736, 1, 7.89616, 60.1475, 3.64268, 56.4945, -85.1915, 140.865
0.74, 1, 7.95181, 60.1233, 3.60783, 56.5762, -85.1236, 140.676
0.744, 1, 8.00742, 60.0991, 3.57301, 56.6577, -85.0558, 140.488
0.748, 1, 8.06297, 60.075, 3.53822, 56.7392, -84.9881, 140.299
0.752, 1, 8.11848, 60.0508, 3.50345, 56.8206, -84.9203, 140.111
0.756, 1, 8.17394, 60.0267, 3.46872, 56.902, -84.8527, 139.923
0.76, 1, 8.22935, 60.0026, 3.43402, 56.9832, -84.7851, 139.735
0.764, 1, 8.28472, 59.9785, 3.39935, 57.0644, -84.7176, 139.547
0.768, 1, 8.34004, 59.9545, 3.36471, 57.1456, -84.6501, 139.359
0.772, 1, 8.3953, 59.9304, 3.33009, 57.2266, -84.5827, 139.172
0.776, 1, 8.45053, 59.9064, 3.29551, 57.3076, -84.5154, 138.984
0.78, 1, 8.5057, 59.8824, 3.26096, 57.3885, -84.4481, 138.797
0.784, 1, 8.56083, 59.8584, 3.22644, 57.4694, -84.3808, 138.61
0.788, 1, 8.6159, 59.8345, 3.19195, 57.5502, -84.3137, 138.423
0.792, 1, 8.67093, 59.8105, 3.15748, 57.6309, -84.2465, 138.237
0.796, 1, 8.72592, 59.7866, 3.12305, 57.7115, -84.1795, 138.05
0.8, 1, 8.78085, 59.7627, 3.08865, 57.7921, -84.1125, 137.864
0.804, 1, 8.83574, 59.7389, 3.05428, 57.8726, -84.0455, 137.678
0.808, 1, 8.89058, 59.715, 3.01994, 57.953, -83.9787, 137.492
0.812, 1, 8.94537, 59.6912, 2.98563, 58.0334, -83.9118, 137.306
0.816, 1, 9.00011, 59.6674, 2.95135, 58.1136, -83.8451, 137.12
0.82, 1, 9.0548, 59.6436, 2.91709, 58.1939, -83.7784, 136.934
0.824, 1, 9.10945, 59.6198, 2.88287, 58.274, -83.7117, 136.749
0.828, 1, 9.16404, 59.596, 2.84868, 58.3541, -83.6451, 136.564
0.832, 1, 9.21859, 59.5723, 2.81452, 58.4341, -83.5786, 136.379
0.836, 1, 9.27309, 59.5486, 2.78039, 58.514, -83.5121, 136.194
0.84, 1, 9.32755, 59.5249, 2.74629, 58.5939, -83.4457, 136.009
0.844, 1, 9.38195, 59.5013, 2.71223, 58.6737, -83.3794, 135.824
0.848, 1, 9.4363, 59.4776, 2.67819, 58.7534, -83.3131, 135.64
0.852, 1, 9.49061, 59.454, 2.64418, 58.833, -83.2468, 135.456
0.856, 1, 9.54487, 59.4304, 2.6102, 58.9126, -83.1807, 135.272
0.86, 1, 9.59908, 59.4068, 2.57625, 58.9921, -83.1146, 135.088
0.864, 1, 9.65324, 59.3833, 2.54234, 59.0715, -83.0485, 134.904
0.868, 1, 9.70735, 59.3597, 2.50845, 59.1509, -82.9825, 134.72
0.872, 1, 9.76141, 59.3362, 2.47459, 59.2302, -82.9166, 134.537
0.876, 1, 9.81543, 59.3127, 2.44077, 59.3094, -82.8507, 134.354
0.88, 1, 9.8694, 59.2892, 2.40697, 59.3886, -82.7849, 134.171
0.884, 1, 9.92331, 59.2658, 2.37321, 59.4676, -82.7191, 133.988
0.888, 1, 9.97718, 59.2424, 2.33947, 59.5466, -82.6534, 133.805
0.892, 1, 10.031, 59.219, 2.30577, 59.6256, -82.5878, 133.622
0.896, 1, 10.0848, 59.1956, 2.27209, 59.7044, -82.5222, 133.44
0.9, 1, 10.1385, 59.1722, 2.23845, 59.7832, -82.4567, 133.258
0.904, 1, 10.1922, 59.1489, 2.20484, 59.8619, -82.3912, 133.076
0.908, 1, 10.2458, 59.1255, 2.17126, 59.9406, -82.3258, 132.894
0.912, 1, 10.2994, 59.1022, 2.13771, 60.0192, -82.2605, 132.712
0.916, 1, 10.3529, 59.0789, 2.10418, 60.0977, -82.1952, 132.53
0.92, 1, 10.4064, 59.0557, 2.07069, 60.1761, -82.1299, 132.349
0.924, 1, 10.4598, 59.0324, 2.03724, 60.2545, -82.0648, 132.168
0.928, 1, 10.5132, 59.0092, 2.00381, 60.3328, -81.9997, 131.986
0.932, 1, 10.5665, 58.986, 1.97041, 60.411, -81.9346, 131.806
0.936, 1, 10.6198, 58.9628, 1.93704, 60.4891, -81.8696, 131.625
0.94, 1, 10.6731, 58.9397, 1.9037, 60.5672, -81.8047, 131.444
0.944, 1, 10.7262, 58.9166, 1.8704, 60.6452, -81.7399, 131.264
0.948, 1, 10.7794, 58.8935, 1.83712, 60.7231, -81.675, 131.083
0.952, 1, 10.8325, 58.8704, 1.80388, 60.801, -81.6103, 130.903
0.956, 1, 10.8855, 58.8473, 1.77066, 60.8788, -81.5456, 130.723
0.96, 1, 10.9385, 58.8242, 1.73748, 60.9565, -81.481, 130.544
0.964, 1, 10.9914, 58.8012, 1.70432, 61.0341, -81.4164, 130.364
0.968, 1, 11.0443, 58.7782, 1.6712, 61.1117, -81.3519, 130.185
0.972, 1, 11.0972, 58.7552, 1.63811, 61.1892, -81.2875, 130.005
0.976, 1, 11.15, 58.7323, 1.60505, 61.2666, -81.2231, 129.826
0.98, 1, 11.2027, 58.7093, 1.57202, 61.344, -81.1587, 129.647
0.984, 1, 11.2554, 58.6864, 1.53902, 61.4213, -81.0945, 129.468
0.988, 1, 11.3081, 58.6635, 1.50605, 61.4985, -81.0303, 129.29
0.992, 1, 11.3607, 58.6406, 1.47311, 61.5756, -80.9661, 129.111
0.996, 1, 11.4132, 58.6178, 1.4402, 61.6527, -80.902, 128.933
1, 1, 11.4657, 58.5949, 1.40733, 61.7297, -80.838, 128.755
1.004, 1, 11.5182, 58.5721, 1.37448, 61.8066, -80.774, 128.577
1.008, 1, 11.5706, 58.5493, 1.34166, 61.8835, -80.7101, 128.399
1.012, 1, 11.6229, 58.5265, 1.30888, 61.9603, -80.6462, 128.222
1.016, 1, 11.6752, 58.5038, 1.27612, 62.037, -80.5825, 128.044
1.02, 1, 11.7275, 58.4811, 1.2434, 62.1136, -80.5187, 127.867
1.024, 1, 11.7797, 58.4584, 1.21071, 62.1902, -80.455, 127.69
1.027, 1, 11.8319, 58.4357, 1.17805, 62.2667, -80.3914, 127.513
1.032, 1, 11.884, 58.413, 1.14541, 62.3431, -80.3279, 127.336
1.036, 1, 11.936, 58.3904, 1.11281, 62.4195, -80.2644, 127.159
1.04, 1, 11.988, 58.3677, 1.08024, 62.4957, -80.201, 126.983
1.044, 1, 12.04, 58.3451, 1.0477, 62.5719, -80.1376, 126.807
1.048, 1, 12.0919, 58.3226, 1.01519, 62.6481, -80.0743, 126.631
1.052, 1, 12.1438, 58.3, 0.982715, 62.7241, -80.011, 126.455
1.055, 1, 12.1956, 58.2775, 0.950267, 62.8001, -79.9478, 126.279
1.06, 1, 12.2474, 58.2549, 0.91785, 62.8761, -79.8847, 126.103
1.064, 1, 12.2991, 58.2324, 0.885463, 62.9519, -79.8216, 125.928
1.068, 1, 12.3508, 58.21, 0.853107, 63.0277, -79.7586, 125.752
1.072, 1, 12.4024, 58.1875, 0.820782, 63.1034, -79.6956, 125.577
1.076, 1, 12.454, 58.1651, 0.788487, 63.179, -79.6327, 125.402
1.08, 1, 12.5055, 58.1427, 0.756223, 63.2546, -79.5699, 125.227
1.084, 1, 12.557, 58.1203, 0.723989, 63.3301, -79.5071, 125.053
1.088, 1, 12.6084, 58.0979, 0.691786, 63.4055, -79.4444, 124.878
1.091, 1, 12.6598, 58.0756, 0.659614, 63.4808, -79.3818, 124.704
1.096, 1, 12.7111, 58.0532, 0.627472, 63.5561, -79.3192, 124.53
1.1, 1, 12.7624, 58.0309, 0.59536, 63.6313, -79.2566, 124.356
1.104, 1, 12.8136, 58.0087, 0.563279, 63.7065, -79.1941, 124.182
1.108, 1, 12.8648, 57.9864, 0.531228, 63.7815, -79.1317, 124.009
1.112, 1, 12.9159, 57.9642, 0.499208, 63.8565, -79.0694, 123.835
1.116, 1, 12.967, 57.9419, 0.467218, 63.9314, -79.007, 123.662
1.119, 1, 13.0181, 57.9197, 0.435259, 64.0063, -78.9448, 123.489
1.124, 1, 13.069, 57.8976, 0.40333, 64.0811, -78.8826, 123.316
1.128, 1, 13.12, 57.8754, 0.371431, 64.1558, -78.8205, 123.143
1.132, 1, 13.1709, 57.8533, 0.339563, 64.2304, -78.7584, 122.97
1.136, 1, 13.2217, 57.8312, 0.307725, 64.305, -78.6964, 122.798
1.14, 1, 13.2725, 57.8091, 0.275917, 64.3795, -78.6345, 122.625
1.144, 1, 13.3233, 57.787, 0.244139, 64.4539, -78.5726, 122.453
1.147, 1, 13.374, 57.7649, 0.212392, 64.5282, -78.5107, 122.281
1.152, 1, 13.4246, 57.7429, 0.180675, 64.6025, -78.449, 122.109
1.156, 1, 13.4752, 57.7209, 0.148988, 64.6767, -78.3873, 121.938
1.16, 1, 13.5258, 57.6989, 0.117331, 64.7509, -78.3256, 121.766
1.164, 1, 13.5763, 57.6769, 0.0857042, 64.8249, -78.264, 121.595
1.168, 1, 13.6268, 57.655, 0.0541076, 64.8989, -78.2025, 121.424
1.172, 1, 13.6772, 57.6331, 0.0225412, 64.9729, -78.141, 121.253
1.175, 1, 13.7275, 57.6112, -0.00899517, 65.0467, -78.0796, 121.082
1.18, 1, 13.7779, 57.5893, -0.0405015, 65.1205, -78.0182, 120.911
1.184, 1, 13.8281, 57.5674, -0.0719777, 65.1942, -77.9569, 120.741
1.188, 1, 13.8783, 57.5456, -0.103424, 65.2679, -77.8957, 120.57
1.192, 1, 13.9285, 57.5238, -0.13484, 65.3415, -77.8345, 120.4
1.196, 1, 13.9786, 57.502, -0.166227, 65.415, -77.7734, 120.23
1.2, 1, 14.0287, 57.4802, -0.197583, 65.4884, -77.7123, 120.06
1.204, 1, 14.0787, 57.4584, -0.22891, 65.5618, -77.6513, 119.89
1.208, 1, 14.1287, 57.4367, -0.260206, 65.6351, -77.5903, 119.721
1.212, 1, 14.1787, 57.415, -0.291473, 65.7083, -77.5294, 119.551
1.216, 1, 14.2285, 57.3933, -0.32271, 65.7814, -77.4686, 119.382
1.22, 1, 14.2784, 57.3716, -0.353917, 65.8545, -77.4078, 119.213
1.224, 1, 14.3282, 57.3499, -0.385094, 65.9275, -77.3471, 119.044
1.228, 1, 14.3779, 57.3283, -0.416242, 66.0005, -77.2864, 118.875
1.232, 1, 14.4276, 57.3067, -0.44736, 66.0734, -77.2258, 118.707
1.236, 1, 14.4773, 57.2851, -0.478448, 66.1462, -77.1653, 118.538
1.24, 1, 14.5269, 57.2635, -0.509506, 66.2189, -77.1048, 118.37
1.244, 1, 14.5764, 57.242, -0.540535, 66.2916, -77.0444, 118.202
1.248, 1, 14.6259, 57.2204, -0.571534, 66.3642, -76.984, 118.034
1.252, 1, 14.6754, 57.1989, -0.602503, 66.4367, -76.9237, 117.866
1.256, 1, 14.7248, 57.1774, -0.633443, 66.5092, -76.8634, 117.699
1.26, 1, 14.7742, 57.156, -0.664354, 66.5816, -76.8032, 117.531
1.264, 1, 14.8235, 57.1345, -0.695235, 66.6539, -76.7431, 117.364
1.267, 1, 14.8728, 57.1131, -0.726086, 66.7261, -76.683, 117.197
1.272, 1, 14.922, 57.0917, -0.756908, 66.7983, -76.623, 117.03
1.276, 1, 14.9712, 57.0703, -0.7877, 66.8705, -76.563, 116.863
1.28, 1, 15.0203, 57.0489, -0.818463, 66.9425, -76.5031, 116.696
1.284, 1, 15.0694, 57.0276, -0.849197, 67.0145, -76.4432, 116.53
1.288, 1, 15.1184, 57.0062, -0.879901, 67.0864, -76.3834, 116.363
1.292, 1, 15.1674, 56.9849, -0.910576, 67.1582, -76.3237, 116.197
1.295, 1, 15.2163, 56.9636, -0.941222, 67.23, -76.264, 116.031
1.3, 1, 15.2652, 56.9424, -0.971838, 67.3017, -76.2044, 115.865
1.304, 1, 15.3141, 56.9211, -1.00243, 67.3733, -76.1448, 115.7
1.308, 1, 15.3629, 56.8999, -1.03298, 67.4449, -76.0853, 115.534
1.312, 1, 15.4116, 56.8787, -1.06351, 67.5164, -76.0258, 115.369
1.316, 1, 15.4603, 56.8575, -1.09401, 67.5878, -75.9664, 115.203
1.32, 1, 15.509, 56.8363, -1.12448, 67.6592, -75.9071, 115.038
1.324, 1, 15.5576, 56.8152, -1.15492, 67.7305, -75.8478, 114.873
1.328, 1, 15.6062, 56.7941, -1.18534, 67.8017, -75.7886, 114.709
1.332, 1, 15.6547, 56.773, -1.21572, 67.8729, -75.7294, 114.544
1.336, 1, 15.7032, 56.7519, -1.24607, 67.944, -75.6703, 114.38
1.34, 1, 15.7516, 56.7308, -1.2764, 68.015, -75.6112, 114.215
1.344, 1, 15.8, 56.7098, -1.3067, 68.0859, -75.5522, 114.051
1.348, 1, 15.8483, 56.6888, -1.33697, 68.1568, -75.4932, 113.887
1.352, 1, 15.8966, 56.6678, -1.3672, 68.2276, -75.4344, 113.723
1.356, 1, 15.9449, 56.6468, -1.39741, 68.2984, -75.3755, 113.56
1.36, 1, 15.9931, 56.6258, -1.42759, 68.3691, -75.3167, 113.396
1.364, 1, 16.0412, 56.6049, -1.45775, 68.4397, -75.258, 113.233
1.368, 1, 16.0893, 56.584, -1.48787, 68.5102, -75.1993, 113.07
1.372, 1, 16.1374, 56.563, -1.51796, 68.5807, -75.1407, 112.907
1.376, 1, 16.1854, 56.5422, -1.54803, 68.6511, -75.0822, 112.744
1.38, 1, 16.2334, 56.5213, -1.57806, 68.7215, -75.0237, 112.581
1.384, 1, 16.2813, 56.5005, -1.60807, 68.7917, -74.9652, 112.418
1.388, 1, 16.3292, 56.4796, -1.63805, 68.862, -74.9069, 112.256
1.392, 1, 16.377, 56.4588, -1.668, 68.9321, -74.8485, 112.094
1.396, 1, 16.4248, 56.438, -1.69793, 69.0022, -74.7902, 111.932
1.4, 1, 16.4726, 56.4173, -1.72782, 69.0722, -74.732, 111.77
1.404, 1, 16.5203, 56.3965, -1.75768, 69.1421, -74.6739, 111.608
1.408, 1, 16.5679, 56.3758, -1.78752, 69.212, -74.6157, 111.446
1.412, 1, 16.6155, 56.3551, -1.81733, 69.2818, -74.5577, 111.285
1.416, 1, 16.6631, 56.3344, -1.84711, 69.3516, -74.4997, 111.123
1.42, 1, 16.7106, 56.3137, -1.87686, 69.4213, -74.4417, 110.962
1.424, 1, 16.7581, 56.2931, -1.90659, 69.4909, -74.3839, 110.801
1.428, 1, 16.8055, 56.2725, -1.93628, 69.5604, -74.326, 110.64
1.432, 1, 16.8529, 56.2519, -1.96595, 69.6299, -74.2682, 110.48
1.436, 1, 16.9002, 56.2313, -1.99559, 69.6993, -74.2105, 110.319
1.44, 1, 16.9475, 56.2107, -2.0252, 69.7687, -74.1528, 110.159
1.444, 1, 16.9948, 56.1902, -2.05479, 69.838, -74.0952, 109.998
1.448, 1, 17.042, 56.1696, -2.08434, 69.9072, -74.0377, 109.838
1.452, 1, 17.0891, 56.1491, -2.11387, 69.9763, -73.9801, 109.678
1.456, 1, 17.1363, 56.1286, -2.14337, 70.0454, -73.9227, 109.518
1.46, 1, 17.1833, 56.1082, -2.17284, 70.1145, -73.8653, 109.359
1.464, 1, 17.2304, 56.0877, -2.20229, 70.1834, -73.808, 109.199
1.468, 1, 17.2773, 56.0673, -2.2317, 70.2523, -73.7507, 109.04
1.472, 1, 17.3243, 56.0469, -2.26109, 70.3211, -73.6934, 108.881
1.476, 1, 17.3712, 56.0265, -2.29045, 70.3899, -73.6362, 108.722
1.48, 1, 17.418, 56.0061, -2.31979, 70.4586, -73.5791, 108.563
1.484, 1, 17.4648, 55.9857, -2.34909, 70.5272, -73.522, 108.404
1.488, 1, 17.5116, 55.9654, -2.37837, 70.5958, -73.465, 108.245
1.492, 1, 17.5583, 55.9451, -2.40762, 70.6643, -73.408, 108.087
1.496, 1, 17.605, 55.9248, -2.43685, 70.7328, -73.3511, 107.928
1.5, 1, 17.6516, 55.9045, -2.46604, 70.8011, -73.2943, 107.77
1.504, 1, 17.6982, 55.8842, -2.49521, 70.8694, -73.2374, 107.612
1.508, 1, 17.7447, 55.864, -2.52435, 70.9377, -73.1807, 107.454
1.512, 1, 17.7912, 55.8438, -2.55347, 71.0059, -73.124, 107.297
1.516, 1, 17.8377, 55.8236, -2.58255, 71.074, -73.0673, 107.139
1.52, 1, 17.8841, 55.8034, -2.61161, 71.1421, -73.0107, 106.982
1.524, 1, 17.9305, 55.7832, -2.64065, 71.2101, -72.9542, 106.824
1.528, 1, 17.9768, 55.7631, -2.66965, 71.278, -72.8977, 106.667
1.532, 1, 18.0231, 55.7429, -2.69863, 71.3459, -72.8413, 106.51
1.536, 1, 18.0693, 55.7228, -2.72758, 71.4137, -72.7849, 106.353
1.54, 1, 18.1155, 55.7027, -2.75651, 71.4814, -72.7285, 106.197
1.544, 1, 18.1617, 55.6826, -2.78541, 71.5491, -72.6723, 106.04
1.548, 1, 18.2078, 55.6626, -2.81428, 71.6167, -72.616, 105.884
1.552, 1, 18.2539, 55.6426, -2.84312, 71.6843, -72.5599, 105.727
1.556, 1, 18.2999, 55.6225, -2.87194, 71.7518, -72.5037, 105.571
1.56, 1, 18.3459, 55.6025, -2.90073, 71.8192, -72.4477, 105.415
1.564, 1, 18.3918, 55.5826, -2.92949, 71.8866, -72.3916, 105.259
1.568, 1, 18.4377, 55.5626, -2.95823, 71.9538, -72.3357, 105.104
1.572, 1, 18.4835, 55.5427, -2.98694, 72.0211, -72.2797, 104.948
1.576, 1, 18.5294, 55.5227, -3.01562, 72.0883, -72.2239, 104.793
1.58, 1, 18.5751, 55.5028, -3.04428, 72.1554, -72.1681, 104.637
1.584, 1, 18.6209, 55.4829, -3.07291, 72.2224, -72.1123, 104.482
1.588, 1, 18.6665, 55.4631, -3.10152, 72.2894, -72.0566, 104.327
1.592, 1, 18.7122, 55.4432, -3.1301, 72.3564, -72.0009, 104.173
1.596, 1, 18.7578, 55.4234, -3.15865, 72.4232, -71.9453, 104.018
1.6, 1, 18.8033, 55.4036, -3.18717, 72.49, -71.8898, 103.863
1.604, 1, 18.8489, 55.3838, -3.21567, 72.5568, -71.8343, 103.709
1.608, 1, 18.8943, 55.364, -3.24414, 72.6235, -71.7788, 103.555
1.612, 1, 18.9398, 55.3442, -3.27259, 72.6901, -71.7234, 103.401
1.616, 1, 18.9852, 55.3245, -3.30101, 72.7567, -71.6681, 103.247
1.62, 1, 19.0305, 55.3048, -3.32941, 72.8232, -71.6128, 103.093
1.624, 1, 19.0758, 55.2851, -3.35777, 72.8896, -71.5575, 102.939
1.628, 1, 19.1211, 55.2654, -3.38612, 72.956, -71.5023, 102.785
1.632, 1, 19.1663, 55.2457, -3.41443, 73.0223, -71.4472, 102.632
1.636, 1, 19.2115, 55.2261, -3.44272, 73.0885, -71.3921, 102.479
1.64, 1, 19.2566, 55.2064, -3.47099, 73.1547, -71.337, 102.326
1.644, 1, 19.3017, 55.1868, -3.49922, 73.2209, -71.282, 102.173
1.648, 1, 19.3468, 55.1672, -3.52744, 73.2869, -71.2271, 102.02
1.652, 1, 19.3918, 55.1476, -3.55562, 73.353, -71.1722, 101.867
1.656, 1, 19.4368, 55.1281, -3.58378, 73.4189, -71.1173, 101.715
1.66, 1, 19.4817, 55.1085, -3.61192, 73.4848, -71.0625, 101.562
1.664, 1, 19.5266, 55.089, -3.64003, 73.5506, -71.0078, 101.41
1.668, 1, 19.5715, 55.0695, -3.66811, 73.6164, -70.9531, 101.258
1.672, 1, 19.6163, 55.05, -3.69617, 73.6821, -70.8984, 101.106
1.676, 1, 19.6611, 55.0305, -3.72421, 73.7478, -70.8438, 100.954
1.68, 1, 19.7058, 55.0111, -3.75221, 73.8134, -70.7893, 100.802
1.684, 1, 19.7505, 54.9916, -3.7802, 73.8789, -70.7348, 100.65
1.688, 1, 19.7951, 54.9722, -3.80815, 73.9444, -70.6804, 100.499
1.692, 1, 19.8397, 54.9528, -3.83608, 74.0098, -70.626, 100.348
1.696, 1, 19.8843, 54.9334, -3.86399, 74.0752, -70.5716, 100.196
1.7, 1, 19.9288, 54.9141, -3.89187, 74.1405, -70.5173, 100.045
1.704, 1, 19.9733, 54.8947, -3.91973, 74.2057, -70.4631, 99.8945
1.708, 1, 20.0178, 54.8754, -3.94756, 74.2709, -70.4089, 99.7437
1.712, 1, 20.0622, 54.8561, -3.97536, 74.336, -70.3547, 99.5931
1.716, 1, 20.1066, 54.8368, -4.00314, 74.401, -70.3006, 99.4426
1.72, 1, 20.1509, 54.8175, -4.0309, 74.466, -70.2465, 99.2922
1.724, 1, 20.1952, 54.7983, -4.05863, 74.531, -70.1925, 99.142
1.728, 1, 20.2394, 54.779, -4.08633, 74.5959, -70.1386, 98.9919
1.732, 1, 20.2836, 54.7598, -4.11401, 74.6607, -70.0847, 98.8419
1.736, 1, 20.3278, 54.7406, -4.14167, 74.7255, -70.0308, 98.6921
1.74, 1, 20.3719, 54.7214, -4.1693, 74.7902, -69.977, 98.5424
1.744, 1, 20.416, 54.7022, -4.1969, 74.8548, -69.9232, 98.3929
1.748, 1, 20.4601, 54.683, -4.22448, 74.9194, -69.8695, 98.2434
1.752, 1, 20.5041, 54.6639, -4.25204, 74.984, -69.8158, 98.0941
1.756, 1, 20.5481, 54.6448, -4.27957, 75.0484, -69.7622, 97.945
1.76, 1, 20.592, 54.6257, -4.30708, 75.1129, -69.7086, 97.796
1.764, 1, 20.6359, 54.6066, -4.33456, 75.1772, -69.6551, 97.6471
1.768, 1, 20.6797, 54.5875, -4.36202, 75.2415, -69.6016, 97.4983
1.772, 1, 20.7236, 54.5685, -4.38945, 75.3058, -69.5482, 97.3497
1.776, 1, 20.7673, 54.5494, -4.41686, 75.37, -69.4948, 97.2012
1.78, 1, 20.8111, 54.5304, -4.44424, 75.4341, -69.4415, 97.0528
1.784, 1, 20.8548, 54.5114, -4.4716, 75.4982, -69.3882, 96.9046
1.788, 1, 20.8984, 54.4924, -4.49894, 75.5622, -69.335, 96.7565
1.792, 1, 20.9421, 54.4734, -4.52625, 75.6262, -69.2818, 96.6085
1.796, 1, 20.9856, 54.4545, -4.55354, 75.6901, -69.2286, 96.4607
1.8, 1, 21.0292, 54.4355, -4.5808, 75.7539, -69.1755, 96.313
1.804, 1, 21.0727, 54.4166, -4.60804, 75.8177, -69.1225, 96.1654
1.808, 1, 21.1162, 54.3977, -4.63526, 75.8815, -69.0695, 96.018
1.812, 1, 21.1596, 54.3788, -4.66245, 75.9452, -69.0165, 95.8706
1.816, 1, 21.203, 54.36, -4.68962, 76.0088, -68.9636, 95.7234
1.82, 1, 21.2463, 54.3411, -4.71676, 76.0724, -68.9107, 95.5764
1.824, 1, 21.2896, 54.3223, -4.74388, 76.1359, -68.8579, 95.4294
1.828, 1, 21.3329, 54.3034, -4.77098, 76.1993, -68.8051, 95.2826
1.832, 1, 21.3762, 54.2846, -4.79805, 76.2627, -68.7524, 95.136
1.836, 1, 21.4194, 54.2658, -4.8251, 76.3261, -68.6997, 94.9894
1.84, 1, 21.4625, 54.2471, -4.85213, 76.3894, -68.6471, 94.843
1.844, 1, 21.5057, 54.2283, -4.87913, 76.4526, -68.5945, 94.6967
1.848, 1, 21.5488, 54.2096, -4.90611, 76.5158, -68.542, 94.5505
1.852, 1, 21.5918, 54.1908, -4.93306, 76.5789, -68.4895, 94.4045
1.856, 1, 21.6348, 54.1721, -4.96, 76.642, -68.437, 94.2586
1.86, 1, 21.6778, 54.1534, -4.98691, 76.705, -68.3846, 94.1128
1.864, 1, 21.7207, 54.1348, -5.01379, 76.768, -68.3322, 93.9672
1.868, 1, 21.7636, 54.1161, -5.04065, 76.8309, -68.2799, 93.8216
1.872, 1, 21.8065, 54.0975, -5.06749, 76.8938, -68.2277, 93.6762
1.876, 1, 21.8493, 54.0788, -5.09431, 76.9566, -68.1754, 93.5309
1.88, 1, 21.8921, 54.0602, -5.1211, 77.0193, -68.1233, 93.3858
1.884, 1, 21.9349, 54.0416, -5.14787, 77.082, -68.0711, 93.2408
1.888, 1, 21.9776, 54.0231, -5.17461, 77.1447, -68.019, 93.0958
1.892, 1, 22.0203, 54.0045, -5.20134, 77.2073, -67.967, 92.9511
1.896, 1, 22.0629, 53.9859, -5.22804, 77.2698, -67.915, 92.8064
1.9, 1, 22.1055, 53.9674, -5.25472, 77.3323, -67.863, 92.6619
1.904, 1, 22.1481, 53.9489, -5.28137, 77.3947, -67.8111, 92.5175
1.908, 1, 22.1906, 53.9304, -5.308, 77.4571, -67.7592, 92.3732
1.912, 1, 22.2331, 53.9119, -5.33461, 77.5194, -67.7074, 92.229
1.916, 1, 22.2756, 53.8935, -5.3612, 77.5816, -67.6556, 92.085
1.92, 1, 22.318, 53.875, -5.38776, 77.6439, -67.6039, 91.9411
1.924, 1, 22.3604, 53.8566, -5.4143, 77.706, -67.5522, 91.7973
1.928, 1, 22.4028, 53.8381, -5.44082, 77.7681, -67.5006, 91.6536
1.932, 1, 22.4451, 53.8197, -5.46732, 77.8302, -67.449, 91.51
1.936, 1, 22.4874, 53.8013, -5.49379, 77.8922, -67.3974, 91.3666
1.94, 1, 22.5296, 53.783, -5.52024, 77.9541, -67.3459, 91.2233
1.944, 1, 22.5718, 53.7646, -5.54667, 78.016, -67.2944, 91.0801
1.948, 1, 22.614, 53.7463, -5.57308, 78.0779, -67.243, 90.9371
1.952, 1, 22.6562, 53.7279, -5.59946, 78.1397, -67.1916, 90.7941
1.956, 1, 22.6983, 53.7096, -5.62582, 78.2014, -67.1402, 90.6513
1.96, 1, 22.7403, 53.6913, -5.65216, 78.2631, -67.0889, 90.5086
1.964, 1, 22.7824, 53.6731, -5.67848, 78.3247, -67.0377, 90.366
1.968, 1, 22.8244, 53.6548, -5.70477, 78.3863, -66.9865, 90.2236
1.972, 1, 22.8663, 53.6365, -5.73105, 78.4479, -66.9353, 90.0812
1.976, 1, 22.9082, 53.6183, -5.7573, 78.5093, -66.8842, 89.939
1.98, 1, 22.9501, 53.6001, -5.78353, 78.5708, -66.8331, 89.7969
1.984, 1, 22.992, 53.5819, -5.80973, 78.6321, -66.7821, 89.6549
1.988, 1, 23.0338, 53.5637, -5.83592, 78.6935, -66.7311, 89.5131
1.992, 1, 23.0756, 53.5455, -5.86208, 78.7547, -66.6801, 89.3713
1.996, 1, 23.1174, 53.5274, -5.88822, 78.816, -66.6292, 89.2297
1.999, 1, 23.1591, 53.5092, -5.91434, 78.8771, -66.5783, 89.0882
2.004, 1, 23.2008, 53.4911, -5.94044, 78.9383, -66.5275, 88.9468
2.008, 1, 23.2424, 53.473, -5.96652, 78.9993, -66.4767, 88.8055
2.012, 1, 23.284, 53.4549, -5.99257, 79.0603, -66.426, 88.6644
2.015, 1, 23.3256, 53.4368, -6.0186, 79.1213, -66.3753, 88.5233
2.019, 1, 23.3671, 53.4187, -6.04461, 79.1822, -66.3246, 88.3824
2.024, 1, 23.4086, 53.4007, -6.0706, 79.2431, -66.274, 88.2416
2.028, 1, 23.4501, 53.3826, -6.09657, 79.3039, -66.2234, 88.1009
2.031, 1, 23.4916, 53.3646, -6.12252, 79.3647, -66.1729, 87.9603
2.036, 1, 23.533, 53.3466, -6.14844, 79.4254, -66.1224, 87.8199
2.04, 1, 23.5743, 53.3286, -6.17434, 79.4861, -66.0719, 87.6795
2.044, 1, 23.6157, 53.3106, -6.20023, 79.5467, -66.0215, 87.5393
2.048, 1, 23.657, 53.2927, -6.22609, 79.6072, -65.9712, 87.3992
2.051, 1, 23.6983, 53.2747, -6.25193, 79.6678, -65.9208, 87.2592
2.055, 1, 23.7395, 53.2568, -6.27774, 79.7282, -65.8706, 87.1193
2.06, 1, 23.7807, 53.2389, -6.30354, 79.7887, -65.8203, 86.9796
2.064, 1, 23.8219, 53.221, -6.32932, 79.849, -65.7701, 86.8399
2.068, 1, 23.863, 53.2031, -6.35507, 79.9093, -65.7199, 86.7004
2.071, 1, 23.9041, 53.1852, -6.38081, 79.9696, -65.6698, 86.561
2.076, 1, 23.9452, 53.1673, -6.40652, 80.0298, -65.6198, 86.4217
2.08, 1, 23.9862, 53.1495, -6.43221, 80.09, -65.5697, 86.2825
2.084, 1, 24.0272, 53.1317, -6.45788, 80.1501, -65.5197, 86.1434
2.087, 1, 24.0682, 53.1138, -6.48353, 80.2102, -65.4698, 86.0044
2.092, 1, 24.1091, 53.096, -6.50916, 80.2702, -65.4198, 85.8656
2.096, 1, 24.15, 53.0783, -6.53477, 80.3302, -65.37, 85.7268
2.1, 1, 24.1909, 53.0605, -6.56036, 80.3901, -65.3201, 85.5882
2.104, 1, 24.2317, 53.0427, -6.58592, 80.45, -65.2703, 85.4497
2.107, 1, 24.2725, 53.025, -6.61147, 80.5098, -65.2206, 85.3113
2.111, 1, 24.3133, 53.0072, -6.637, 80.5696, -65.1709, 85.173
2.116, 1, 24.354, 52.9895, -6.6625, 80.6293, -65.1212, 85.0348
2.12, 1, 24.3947, 52.9718, -6.68799, 80.689, -65.0716, 84.8967
2.124, 1, 24.4354, 52.9541, -6.71345, 80.7487, -65.022, 84.7588
2.127, 1, 24.476, 52.9365, -6.7389, 80.8083, -64.9724, 84.6209
2.132, 1, 24.5166, 52.9188, -6.76432, 80.8678, -64.9229, 84.4832
2.136, 1, 24.5572, 52.9011, -6.78972, 80.9273, -64.8734, 84.3456
2.14, 1, 24.5978, 52.8835, -6.81511, 80.9868, -64.824, 84.208
2.143, 1, 24.6383, 52.8659, -6.84047, 81.0462, -64.7746, 84.0706
2.148, 1, 24.6787, 52.8483, -6.86581, 81.1055, -64.7252, 83.9333
2.152, 1, 24.7192, 52.8307, -6.89114, 81.1648, -64.6759, 83.7961
2.156, 1, 24.7596, 52.8131, -6.91644, 81.2241, -64.6266, 83.659
2.16, 1, 24.8, 52.7956, -6.94172, 81.2833, -64.5774, 83.5221
2.163, 1, 24.8403, 52.778, -6.96698, 81.3425, -64.5282, 83.3852
2.168, 1, 24.8807, 52.7605, -6.99223, 81.4016, -64.479, 83.2484
2.172, 1, 24.9209, 52.743, -7.01745, 81.4606, -64.4299, 83.1118
2.176, 1, 24.9612, 52.7255, -7.04265, 81.5197, -64.3808, 82.9752
2.179, 1, 25.0014, 52.708, -7.06784, 81.5787, -64.3317, 82.8388
2.184, 1, 25.0416, 52.6905, -7.093, 81.6376, -64.2827, 82.7025
2.188, 1, 25.0818, 52.673, -7.11814, 81.6965, -64.2338, 82.5662
2.192, 1, 25.1219, 52.6556, -7.14327, 81.7553, -64.1848, 82.4301
2.196, 1, 25.162, 52.6381, -7.16837, 81.8141, -64.1359, 82.2941
2.199, 1, 25.2021, 52.6207, -7.19346, 81.8729, -64.0871, 82.1582
2.204, 1, 25.2421, 52.6033, -7.21852, 81.9316, -64.0383, 82.0224
2.208, 1, 25.2821, 52.5859, -7.24357, 81.9902, -63.9895, 81.8867
2.212, 1, 25.3221, 52.5685, -7.26859, 82.0488, -63.9408, 81.7511
2.216, 1, 25.362, 52.5511, -7.2936, 82.1074, -63.892, 81.6156
2.219, 1, 25.4019, 52.5338, -7.31859, 82.1659, -63.8434, 81.4803
2.224, 1, 25.4418, 52.5164, -7.34356, 82.2244, -63.7948, 81.345
2.228, 1, 25.4817, 52.4991, -7.36851, 82.2828, -63.7462, 81.2098
2.232, 1, 25.5215, 52.4818, -7.39344, 82.3412, -63.6976, 81.0748
2.235, 1, 25.5613, 52.4645, -7.41835, 82.3996, -63.6491, 80.9398
2.24, 1, 25.601, 52.4472, -7.44324, 82.4579, -63.6006, 80.8049
2.244, 1, 25.6407, 52.4299, -7.46811, 82.5161, -63.5522, 80.6702
2.248, 1, 25.6804, 52.4127, -7.49297, 82.5743, -63.5038, 80.5355
2.252, 1, 25.7201, 52.3954, -7.5178, 82.6325, -63.4554, 80.401
2.255, 1, 25.7597, 52.3782, -7.54261, 82.6906, -63.4071, 80.2665
2.259, 1, 25.7993, 52.3609, -7.56741, 82.7487, -63.3588, 80.1322
2.264, 1, 25.8389, 52.3437, -7.59219, 82.8067, -63.3105, 79.998
2.268, 1, 25.8785, 52.3265, -7.61695, 82.8647, -63.2623, 79.8638
2.272, 1, 25.918, 52.3093, -7.64169, 82.9226, -63.2141, 79.7298
2.275, 1, 25.9575, 52.2922, -7.66641, 82.9805, -63.166, 79.5959
2.28, 1, 25.9969, 52.275, -7.69111, 83.0384, -63.1179, 79.462
2.284, 1, 26.0363, 52.2579, -7.71579, 83.0962, -63.0698, 79.3283
2.288, 1, 26.0757, 52.2407, -7.74046, 83.154, -63.0217, 79.1947
2.291, 1, 26.1151, 52.2236, -7.76511, 83.2117, -62.9737, 79.0611
2.296, 1, 26.1544, 52.2065, -7.78973, 83.2694, -62.9258, 78.9277
2.3, 1, 26.1937, 52.1894, -7.81434, 83.327, -62.8778, 78.7944
2.304, 1, 26.233, 52.1723, -7.83893, 83.3846, -62.8299, 78.6611
2.308, 1, 26.2723, 52.1553, -7.8635, 83.4422, -62.7821, 78.528
2.311, 1, 26.3115, 52.1382, -7.88806, 83.4997, -62.7343, 78.395
2.316, 1, 26.3507, 52.1212, -7.91259, 83.5571, -62.6865, 78.2621
2.32, 1, 26.3898, 52.1041, -7.93711, 83.6145, -62.6387, 78.1292
2.324, 1, 26.4289, 52.0871, -7.96161, 83.6719, -62.591, 77.9965
2.328, 1, 26.468, 52.0701, -7.98609, 83.7292, -62.5433, 77.8639
2.331, 1, 26.5071, 52.0531, -8.01055, 83.7865, -62.4957, 77.7314
2.336, 1, 26.5462, 52.0361, -8.035, 83.8438, -62.4481, 77.5989
2.34, 1, 26.5852, 52.0192, -8.05942, 83.901, -62.4005, 77.4666
2.344, 1, 26.6242, 52.0022, -8.08383, 83.9582, -62.353, 77.3344
2.347, 1, 26.6631, 51.9853, -8.10822, 84.0153, -62.3055, 77.2022
2.352, 1, 26.702, 51.9683, -8.13259, 84.0724, -62.258, 77.0702
2.356, 1, 26.7409, 51.9514, -8.15694, 84.1294, -62.2106, 76.9382
2.36, 1, 26.7798, 51.9345, -8.18128, 84.1864, -62.1632, 76.8064
2.364, 1, 26.8186, 51.9176, -8.2056, 84.2433, -62.1158, 76.6746
2.367, 1, 26.8574, 51.9008, -8.2299, 84.3003, -62.0685, 76.543
2.372, 1, 26.8962, 51.8839, -8.25418, 84.3571, -62.0212, 76.4114
2.376, 1, 26.935, 51.867, -8.27844, 84.4139, -61.9739, 76.28
2.38, 1, 26.9737, 51.8502, -8.30269, 84.4707, -61.9267, 76.1486
2.383, 1, 27.0124, 51.8334, -8.32692, 84.5275, -61.8795, 76.0173
2.388, 1, 27.0511, 51.8165, -8.35113, 84.5842, -61.8324, 75.8862
2.392, 1, 27.0897, 51.7997, -8.37532, 84.6408, -61.7853, 75.7551
2.396, 1, 27.1283, 51.7829, -8.3995, 84.6975, -61.7382, 75.6241
2.4, 1, 27.1669, 51.7662, -8.42365, 84.754, -61.6911, 75.4932
2.403, 1, 27.2055, 51.7494, -8.44779, 84.8106, -61.6441, 75.3625
2.408, 1, 27.244, 51.7326, -8.47192, 84.8671, -61.5971, 75.2318
2.412, 1, 27.2825, 51.7159, -8.49602, 84.9235, -61.5502, 75.1012
2.416, 1, 27.321, 51.6992, -8.52011, 84.9799, -61.5033, 74.9707
2.42, 1, 27.3594, 51.6824, -8.54418, 85.0363, -61.4564, 74.8403
2.423, 1, 27.3978, 51.6657, -8.56823, 85.0926, -61.4095, 74.7099
2.428, 1, 27.4362, 51.649, -8.59227, 85.1489, -61.3627, 74.5797
2.432, 1, 27.4746, 51.6324, -8.61629, 85.2052, -61.316, 74.4496
2.436, 1, 27.5129, 51.6157, -8.64029, 85.2614, -61.2692, 74.3196
2.439, 1, 27.5512, 51.599, -8.66427, 85.3176, -61.2225, 74.1896
2.444, 1, 27.5895, 51.5824, -8.68824, 85.3737, -61.1758, 74.0598
2.448, 1, 27.6278, 51.5657, -8.71219, 85.4298, -61.1292, 73.93
2.452, 1, 27.666, 51.5491, -8.73612, 85.4858, -61.0826, 73.8004
2.456, 1, 27.7042, 51.5325, -8.76003, 85.5419, -61.036, 73.6708
2.459, 1, 27.7423, 51.5159, -8.78393, 85.5978, -60.9894, 73.5413
2.464, 1, 27.7805, 51.4993, -8.80781, 85.6537, -60.9429, 73.412
2.468, 1, 27.8186, 51.4827, -8.83168, 85.7096, -60.8965, 73.2827
2.472, 1, 27.8567, 51.4662, -8.85552, 85.7655, -60.85, 73.1535
2.476, 1, 27.8948, 51.4496, -8.87935, 85.8213, -60.8036, 73.0244
2.479, 1, 27.9328, 51.4331, -8.90317, 85.8771, -60.7572, 72.8953
2.484, 1, 27.9708, 51.4165, -8.92696, 85.9328, -60.7109, 72.7664
2.488, 1, 28.0088, 51.4, -8.95074, 85.9885, -60.6646, 72.6376
2.492, 1, 28.0467, 51.3835, -8.97451, 86.0442, -60.6183, 72.5088
2.495, 1, 28.0847, 51.367, -8.99825, 86.0998, -60.572, 72.3802
2.5, 1, 28.1226, 51.3505, -9.02198, 86.1554, -60.5258, 72.2516
2.504, 1, 28.1604, 51.3341, -9.0457, 86.2109, -60.4796, 72.1231
2.508, 1, 28.1983, 51.3176, -9.06939, 86.2664, -60.4335, 71.9948
2.512, 1, 28.2361, 51.3012, -9.09307, 86.3219, -60.3873, 71.8665
2.515, 1, 28.2739, 51.2847, -9.11674, 86.3773, -60.3413, 71.7383
2.52, 1, 28.3117, 51.2683, -9.14039, 86.4327, -60.2952, 71.6101
2.524, 1, 28.3494, 51.2519, -9.16402, 86.488, -60.2492, 71.4821
2.528, 1, 28.3871, 51.2355, -9.18763, 86.5433, -60.2032, 71.3542
2.531, 1, 28.4248, 51.2191, -9.21123, 86.5986, -60.1572, 71.2263
2.536, 1, 28.4625, 51.2027, -9.23481, 86.6538, -60.1113, 71.0986
2.54, 1, 28.5001, 51.1863, -9.25838, 86.709, -60.0654, 70.9709
2.544, 1, 28.5377, 51.17, -9.28193, 86.7642, -60.0195, 70.8433
2.548, 1, 28.5753, 51.1536, -9.30546, 86.8193, -59.9737, 70.7158
2.551, 1, 28.6129, 51.1373, -9.32898, 86.8743, -59.9279, 70.5884
2.556, 1, 28.6504, 51.121, -9.35248, 86.9294, -59.8821, 70.4611
2.56, 1, 28.6879, 51.1047, -9.37596, 86.9844, -59.8364, 70.3338
2.564, 1, 28.7254, 51.0884, -9.39943, 87.0394, -59.7907, 70.2067
2.568, 1, 28.7629, 51.0721, -9.42288, 87.0943, -59.745, 70.0796
2.571, 1, 28.8003, 51.0558, -9.44632, 87.1492, -59.6993, 69.9526
2.576, 1, 28.8377, 51.0395, -9.46974, 87.204, -59.6537, 69.8257
2.58, 1, 28.8751, 51.0233, -9.49315, 87.2588, -59.6082, 69.6989
2.584, 1, 28.9125, 51.007, -9.51654, 87.3136, -59.5626, 69.5722
2.587, 1, 28.9498, 50.9908, -9.53991, 87.3684, -59.5171, 69.4456
2.592, 1, 28.9871, 50.9745, -9.56327, 87.4231, -59.4716, 69.319
2.596, 1, 29.0244, 50.9583, -9.58661, 87.4777, -59.4261, 69.1926
2.6, 1, 29.0616, 50.9421, -9.60994, 87.5324, -59.3807, 69.0662
2.604, 1, 29.0989, 50.9259, -9.63325, 87.587, -59.3353, 68.9399
2.607, 1, 29.1361, 50.9097, -9.65654, 87.6415, -59.2899, 68.8137
2.612, 1, 29.1733, 50.8936, -9.67982, 87.6961, -59.2446, 68.6876
2.616, 1, 29.2104, 50.8774, -9.70309, 87.7505, -59.1993, 68.5615
2.62, 1, 29.2476, 50.8613, -9.72634, 87.805, -59.154, 68.4356
2.624, 1, 29.2847, 50.8451, -9.74957, 87.8594, -59.1087, 68.3097
2.627, 1, 29.3217, 50.829, -9.77279, 87.9138, -59.0635, 68.1839
2.632, 1, 29.3588, 50.8129, -9.79599, 87.9681, -59.0183, 68.0582
2.636, 1, 29.3958, 50.7968, -9.81918, 88.0224, -58.9732, 67.9326
2.64, 1, 29.4328, 50.7807, -9.84235, 88.0767, -58.928, 67.807
2.643, 1, 29.4698, 50.7646, -9.8655, 88.1309, -58.8829, 67.6816
2.648, 1, 29.5068, 50.7485, -9.88864, 88.1851, -58.8379, 67.5562
2.652, 1, 29.5437, 50.7325, -9.91177, 88.2393, -58.7928, 67.4309
2.656, 1, 29.5806, 50.7164, -9.93488, 88.2934, -58.7478, 67.3057
2.66, 1, 29.6175, 50.7004, -9.95797, 88.3475, -58.7028, 67.1806
2.663, 1, 29.6544, 50.6843, -9.98105, 88.4016, -58.6579, 67.0555
2.668, 1, 29.6912, 50.6683, -10.0041, 88.4556, -58.613, 66.9306
2.672, 1, 29.728, 50.6523, -10.0272, 88.5096, -58.5681, 66.8057
2.676, 1, 29.7648, 50.6363, -10.0502, 88.5635, -58.5232, 66.6809
2.679, 1, 29.8016, 50.6203, -10.0732, 88.6174, -58.4784, 66.5562
2.684, 1, 29.8383, 50.6043, -10.0962, 88.6713, -58.4336, 66.4316
2.688, 1, 29.8751, 50.5884, -10.1192, 88.7251, -58.3888, 66.307
2.692, 1, 29.9117, 50.5724, -10.1422, 88.7789, -58.3441, 66.1825
2.696, 1, 29.9484, 50.5564, -10.1652, 88.8327, -58.2993, 66.0581
2.699, 1, 29.9851, 50.5405, -10.1881, 88.8865, -58.2546, 65.9338
2.704, 1, 30.0217, 50.5246, -10.211, 88.9402, -58.21, 65.8096
2.708, 1, 30.0583, 50.5087, -10.2339, 88.9938, -58.1654, 65.6854
2.712, 1, 30.0949, 50.4928, -10.2568, 89.0475, -58.1208, 65.5614
2.716, 1, 30.1314, 50.4769, -10.2797, 89.1011, -58.0762, 65.4374
2.719, 1, 30.1679, 50.461, -10.3026, 89.1546, -58.0316, 65.3135
2.724, 1, 30.2045, 50.4451, -10.3255, 89.2082, -57.9871, 65.1896
2.728, 1, 30.2409, 50.4292, -10.3483, 89.2617, -57.9426, 65.0659
2.732, 1, 30.2774, 50.4134, -10.3711, 89.3151, -57.8982, 64.9422
2.735, 1, 30.3138, 50.3975, -10.3939, 89.3685, -57.8537, 64.8186
2.74, 1, 30.3502, 50.3817, -10.4167, 89.4219, -57.8093, 64.6951
2.744, 1, 30.3866, 50.3659, -10.4395, 89.4753, -57.765, 64.5717
2.748, 1, 30.423, 50.35, -10.4623, 89.5286, -57.7206, 64.4483
2.752, 1, 30.4593, 50.3342, -10.485, 89.5819, -57.6763, 64.325
2.755, 1, 30.4957, 50.3184, -10.5078, 89.6352, -57.632, 64.2018
2.76, 1, 30.532, 50.3027, -10.5305, 89.6884, -57.5877, 64.0787
2.764, 1, 30.5682, 50.2869, -10.5532, 89.7416, -57.5435, 63.9556
2.768, 1, 30.6045, 50.2711, -10.5759, 89.7948, -57.4993, 63.8327
2.772, 1, 30.6407, 50.2554, -10.5986, 89.8479, -57.4551, 63.7098
2.775, 1, 30.6769, 50.2396, -10.6213, 89.901, -57.411, 63.587
2.78, 1, 30.7131, 50.2239, -10.6439, 89.954, -57.3669, 63.4642
2.784, 1, 30.7493, 50.2081, -10.6666, 90.0071, -57.3228, 63.3416
2.788, 1, 30.7854, 50.1924, -10.6892, 90.0601, -57.2787, 63.219
2.791, 1, 30.8215, 50.1767, -10.7118, 90.113, -57.2347, 63.0965
2.796, 1, 30.8576, 50.161, -10.7344, 90.1659, -57.1906, 62.974
2.8, 1, 30.8937, 50.1453, -10.757, 90.2188, -57.1467, 62.8517
2.804, 1, 30.9297, 50.1297, -10.7796, 90.2717, -57.1027, 62.7294
2.808, 1, 30.9658, 50.114, -10.8021, 90.3245, -57.0588, 62.6072
2.811, 1, 31.0018, 50.0983, -10.8247, 90.3773, -57.0149, 62.4851
2.816, 1, 31.0377, 50.0827, -10.8472, 90.4301, -56.971, 62.363
2.82, 1, 31.0737, 50.067, -10.8697, 90.4828, -56.9271, 62.241
2.824, 1, 31.1096, 50.0514, -10.8922, 90.5355, -56.8833, 62.1191
2.828, 1, 31.1455, 50.0358, -10.9147, 90.5882, -56.8395, 61.9973
2.831, 1, 31.1814, 50.0202, -10.9372, 90.6408, -56.7958, 61.8756
2.836, 1, 31.2173, 50.0046, -10.9596, 90.6934, -56.752, 61.7539
2.84, 1, 31.2532, 49.989, -10.9821, 90.7459, -56.7083, 61.6323
2.844, 1, 31.289, 49.9734, -11.0045, 90.7985, -56.6646, 61.5108
2.847, 1, 31.3248, 49.9578, -11.0269, 90.851, -56.621, 61.3893
2.852, 1, 31.3606, 49.9423, -11.0493, 90.9035, -56.5773, 61.2679
2.856, 1, 31.3963, 49.9267, -11.0717, 90.9559, -56.5337, 61.1466
2.86, 1, 31.4321, 49.9112, -11.0941, 91.0083, -56.4901, 61.0254
2.864, 1, 31.4678, 49.8956, -11.1164, 91.0607, -56.4466, 60.9042
2.867, 1, 31.5035, 49.8801, -11.1388, 91.113, -56.4031, 60.7832
2.872, 1, 31.5392, 49.8646, -11.1611, 91.1653, -56.3596, 60.6622
2.876, 1, 31.5748, 49.8491, -11.1834, 91.2176, -56.3161, 60.5412
2.88, 1, 31.6104, 49.8336, -11.2057, 91.2699, -56.2726, 60.4204
2.883, 1, 31.646, 49.8181, -11.228, 91.3221, -56.2292, 60.2996
2.888, 1, 31.6816, 49.8026, -11.2503, 91.3743, -56.1858, 60.1788
2.892, 1, 31.7172, 49.7872, -11.2726, 91.4264, -56.1424, 60.0582
2.896, 1, 31.7528, 49.7717, -11.2948, 91.4785, -56.0991, 59.9376
2.9, 1, 31.7883, 49.7563, -11.3171, 91.5306, -56.0558, 59.8171
2.903, 1, 31.8238, 49.7408, -11.3393, 91.5827, -56.0125, 59.6967
2.908, 1, 31.8593, 49.7254, -11.3615, 91.6347, -55.9692, 59.5763
2.912, 1, 31.8947, 49.71, -11.3837, 91.6867, -55.926, 59.4561
2.916, 1, 31.9302, 49.6946, -11.4059, 91.7387, -55.8828, 59.3358
2.92, 1, 31.9656, 49.6791, -11.4281, 91.7906, -55.8396, 59.2157
2.923, 1, 32.001, 49.6638, -11.4503, 91.8425, -55.7964, 59.0956
2.928, 1, 32.0364, 49.6484, -11.4724, 91.8944, -55.7533, 58.9756
2.932, 1, 32.0717, 49.633, -11.4945, 91.9462, -55.7102, 58.8557
2.936, 1, 32.107, 49.6176, -11.5167, 91.9981, -55.6671, 58.7358
2.939, 1, 32.1424, 49.6023, -11.5388, 92.0498, -55.624, 58.616
2.944, 1, 32.1777, 49.5869, -11.5609, 92.1016, -55.581, 58.4963
2.948, 1, 32.2129, 49.5716, -11.583, 92.1533, -55.538, 58.3767
2.952, 1, 32.2482, 49.5562, -11.605, 92.205, -55.495, 58.2571
2.956, 1, 32.2834, 49.5409, -11.6271, 92.2567, -55.452, 58.1376
2.959, 1, 32.3186, 49.5256, -11.6491, 92.3083, -55.4091, 58.0181
2.964, 1, 32.3538, 49.5103, -11.6712, 92.3599, -55.3662, 57.8988
2.968, 1, 32.389, 49.495, -11.6932, 92.4115, -55.3233, 57.7795
2.972, 1, 32.4241, 49.4797, -11.7152, 92.463, -55.2804, 57.6602
2.976, 1, 32.4593, 49.4644, -11.7372, 92.5145, -55.2376, 57.5411
2.98, 1, 32.4944, 49.4492, -11.7592, 92.566, -55.1948, 57.422
2.984, 1, 32.5295, 49.4339, -11.7811, 92.6175, -55.152, 57.303
2.988, 1, 32.5645, 49.4187, -11.8031, 92.6689, -55.1092, 57.184
2.992, 1, 32.5996, 49.4034, -11.825, 92.7203, -55.0665, 57.0651
2.995, 1, 32.6346, 49.3882, -11.847, 92.7717, -55.0237, 56.9463
3, 1, 32.6696, 49.373, -11.8689, 92.823, -54.9811, 56.8275
3.004, 1, 32.7046, 49.3577, -11.8908, 92.8743, -54.9384, 56.7088
3.008, 1, 32.7396, 49.3425, -11.9127, 92.9256, -54.8957, 56.5902
3.012, 1, 32.7745, 49.3273, -11.9346, 92.9768, -54.8531, 56.4717
3.015, 1, 32.8094, 49.3121, -11.9565, 93.028, -54.8105, 56.3532
3.02, 1, 32.8444, 49.297, -11.9783, 93.0792, -54.768, 56.2348
3.024, 1, 32.8792, 49.2818, -12.0002, 93.1304, -54.7254, 56.1164
3.028, 1, 32.9141, 49.2666, -12.022, 93.1815, -54.6829, 55.9981
3.031, 1, 32.949, 49.2515, -12.0438, 93.2326, -54.6404, 55.8799
3.036, 1, 32.9838, 49.2363, -12.0656, 93.2837, -54.5979, 55.7618
3.04, 1, 33.0186, 49.2212, -12.0874, 93.3347, -54.5555, 55.6437
3.044, 1, 33.0534, 49.206, -12.1092, 93.3858, -54.5131, 55.5257
3.048, 1, 33.0882, 49.1909, -12.131, 93.4367, -54.4707, 55.4077
3.051, 1, 33.1229, 49.1758, -12.1527, 93.4877, -54.4283, 55.2898
3.056, 1, 33.1576, 49.1607, -12.1745, 93.5386, -54.3859, 55.172
3.06, 1, 33.1924, 49.1456, -12.1962, 93.5895, -54.3436, 55.0543
3.064, 1, 33.2271, 49.1305, -12.2179, 93.6404, -54.3013, 54.9366
3.068, 1, 33.2617, 49.1154, -12.2396, 93.6913, -54.259, 54.819
3.071, 1, 33.2964, 49.1003, -12.2613, 93.7421, -54.2168, 54.7014
3.076, 1, 33.331, 49.0853, -12.283, 93.7929, -54.1745, 54.5839
3.08, 1, 33.3656, 49.0702, -12.3047, 93.8436, -54.1323, 54.4665
3.084, 1, 33.4002, 49.0552, -12.3263, 93.8944, -54.0901, 54.3491
3.087, 1, 33.4348, 49.0401, -12.348, 93.9451, -54.0479, 54.2318
3.092, 1, 33.4694, 49.0251, -12.3696, 93.9957, -54.0058, 54.1146
3.096, 1, 33.5039, 49.0101, -12.3913, 94.0464, -53.9637, 53.9975
3.1, 1, 33.5384, 48.9951, -12.4129, 94.097, -53.9216, 53.8804
3.104, 1, 33.5729, 48.9801, -12.4345, 94.1476, -53.8795, 53.7633
3.107, 1, 33.6074, 48.9651, -12.4561, 94.1982, -53.8375, 53.6463
3.112, 1, 33.6419, 48.9501, -12.4776, 94.2487, -53.7954, 53.5294
3.116, 1, 33.6763, 48.9351, -12.4992, 94.2992, -53.7534, 53.4126
3.12, 1, 33.7108, 48.9201, -12.5208, 94.3497, -53.7115, 53.2958
3.124, 1, 33.7452, 48.9052, -12.5423, 94.4002, -53.6695, 53.1791
3.128, 1, 33.7795, 48.8902, -12.5638, 94.4506, -53.6276, 53.0624
3.132, 1, 33.8139, 48.8753, -12.5854, 94.501, -53.5856, 52.9459
3.136, 1, 33.8483, 48.8603, -12.6069, 94.5514, -53.5438, 52.8293
3.14, 1, 33.8826, 48.8454, -12.6284, 94.6017, -53.5019, 52.7129
3.143, 1, 33.9169, 48.8305, -12.6499, 94.652, -53.46, 52.5965
3.148, 1, 33.9512, 48.8155, -12.6713, 94.7023, -53.4182, 52.4801
3.152, 1, 33.9855, 48.8006, -12.6928, 94.7526, -53.3764, 52.3638
3.156, 1, 34.0198, 48.7857, -12.7142, 94.8028, -53.3346, 52.2476
3.16, 1, 34.054, 48.7708, -12.7357, 94.853, -53.2929, 52.1315
3.163, 1, 34.0882, 48.756, -12.7571, 94.9032, -53.2512, 52.0154
3.168, 1, 34.1224, 48.7411, -12.7785, 94.9534, -53.2094, 51.8994
3.172, 1, 34.1566, 48.7262, -12.7999, 95.0035, -53.1678, 51.7834
3.176, 1, 34.1908, 48.7114, -12.8213, 95.0536, -53.1261, 51.6675
3.179, 1, 34.2249, 48.6965, -12.8427, 95.1037, -53.0844, 51.5516
3.184, 1, 34.2591, 48.6817, -12.8641, 95.1537, -53.0428, 51.4359
3.188, 1, 34.2932, 48.6668, -12.8854, 95.2038, -53.0012, 51.3201
3.192, 1, 34.3273, 48.652, -12.9068, 95.2538, -52.9597, 51.2045
3.196, 1, 34.3613, 48.6372, -12.9281, 95.3037, -52.9181, 51.0889
3.199, 1, 34.3954, 48.6224, -12.9494, 95.3537, -52.8766, 50.9734
3.204, 1, 34.4294, 48.6076, -12.9708, 95.4036, -52.835, 50.8579
3.208, 1, 34.4635, 48.5928, -12.9921, 95.4535, -52.7936, 50.7425
3.212, 1, 34.4975, 48.578, -13.0133, 95.5033, -52.7521, 50.6271
3.216, 1, 34.5315, 48.5632, -13.0346, 95.5532, -52.7106, 50.5118
3.22, 1, 34.5654, 48.5484, -13.0559, 95.603, -52.6692, 50.3966
3.224, 1, 34.5994, 48.5336, -13.0772, 95.6528, -52.6278, 50.2814
3.228, 1, 34.6333, 48.5189, -13.0984, 95.7026, -52.5864, 50.1663
3.232, 1, 34.6672, 48.5041, -13.1196, 95.7523, -52.5451, 50.0513
3.235, 1, 34.7011, 48.4894, -13.1409, 95.802, -52.5037, 49.9363
3.24, 1, 34.735, 48.4747, -13.1621, 95.8517, -52.4624, 49.8213
3.244, 1, 34.7689, 48.4599, -13.1833, 95.9013, -52.4211, 49.7065
3.248, 1, 34.8027, 48.4452, -13.2045, 95.951, -52.3799, 49.5917
3.252, 1, 34.8366, 48.4305, -13.2256, 96.0006, -52.3386, 49.4769
3.255, 1, 34.8704, 48.4158, -13.2468, 96.0502, -52.2974, 49.3622
3.26, 1, 34.9042, 48.4011, -13.268, 96.0997, -52.2562, 49.2476
3.264, 1, 34.9379, 48.3864, -13.2891, 96.1492, -52.215, 49.133
3.268, 1, 34.9717, 48.3717, -13.3103, 96.1987, -52.1738, 49.0185
3.272, 1, 35.0054, 48.357, -13.3314, 96.2482, -52.1327, 48.904
3.276, 1, 35.0392, 48.3424, -13.3525, 96.2977, -52.0915, 48.7896
3.28, 1, 35.0729, 48.3277, -13.3736, 96.3471, -52.0504, 48.6753
3.284, 1, 35.1066, 48.3131, -13.3947, 96.3965, -52.0093, 48.561
3.288, 1, 35.1402, 48.2984, -13.4158, 96.4459, -51.9683, 48.4468
3.291, 1, 35.1738, 48.2838, -13.4369, 96.4952, -51.9272, 48.3326
3.296, 1, 35.2073, 48.2692, -13.4579, 96.5446, -51.8862, 48.2185
3.3, 1, 35.2404, 48.2548, -13.479, 96.5939, -51.8452, 48.1045
3.304, 1, 35.2731, 48.2405, -13.5001, 96.6431, -51.8043, 47.9905
3.308, 1, 35.3054, 48.2265, -13.5212, 96.6923, -51.7634, 47.8768
3.312, 1, 35.337, 48.2127, -13.5424, 96.7413, -51.7227, 47.7634
3.316, 1, 35.368, 48.1992, -13.5635, 96.7901, -51.6821, 47.6504
3.32, 1, 35.3984, 48.1861, -13.5845, 96.8387, -51.6418, 47.538
3.324, 1, 35.4282, 48.1733, -13.6054, 96.8868, -51.6018, 47.4265
3.328, 1, 35.4572, 48.161, -13.6262, 96.9344, -51.5622, 47.3163
3.332, 1, 35.4854, 48.1491, -13.6468, 96.9813, -51.5233, 47.2077
3.336, 1, 35.5125, 48.1378, -13.6671, 97.0274, -51.4851, 47.1011
3.34, 1, 35.5385, 48.127, -13.687, 97.0723, -51.4479, 46.9971
3.344, 1, 35.5634, 48.1168, -13.7063, 97.1158, -51.4117, 46.8963
3.347, 1, 35.5872, 48.1071, -13.725, 97.1577, -51.377, 46.7992
3.352, 1, 35.6099, 48.0979, -13.7428, 97.1977, -51.3438, 46.7065
3.356, 1, 35.6316, 48.089, -13.7597, 97.2356, -51.3124, 46.6188
3.36, 1, 35.6523, 48.0805, -13.7754, 97.2711, -51.283, 46.5366
3.364, 1, 35.672, 48.0723, -13.7899, 97.304, -51.2556, 46.4604
3.368, 1, 35.6906, 48.0646, -13.8031, 97.3341, -51.2306, 46.3906
3.372, 1, 35.7081, 48.0571, -13.815, 97.3614, -51.2079, 46.3274
3.376, 1, 35.7247, 48.0499, -13.8254, 97.3858, -51.1876, 46.2709
3.38, 1, 35.7403, 48.043, -13.8344, 97.4073, -51.1697, 46.2212
3.383, 1, 35.7551, 48.0363, -13.842, 97.426, -51.1542, 46.1782
3.388, 1, 35.7691, 48.0298, -13.8483, 97.4419, -51.1409, 46.1415
3.392, 1, 35.782, 48.0236, -13.8534, 97.4552, -51.1297, 46.1107
3.396, 1, 35.7939, 48.0179, -13.8574, 97.4662, -51.1205, 46.0854
3.4, 2, 35.8046, 48.0126, -13.8605, 97.4752, -51.113, 46.0649
3.403, 2, 35.8142, 48.0078, -13.8627, 97.4822, -51.107, 46.0486
3.408, 2, 35.8228, 48.0036, -13.8644, 97.4877, -51.1023, 46.036
3.412, 2, 35.8304, 47.9998, -13.8655, 97.4919, -51.0987, 46.0264
3.416, 2, 35.8371, 47.9965, -13.8662, 97.4951, -51.0961, 46.0193
3.42, 2, 35.843, 47.9937, -13.8666, 97.4973, -51.0941, 46.0141
3.424, 2, 35.8479, 47.9914, -13.8668, 97.499, -51.0927, 46.0105
3.428, 2, 35.8519, 47.9896, -13.8669, 97.5001, -51.0917, 46.0079
3.432, 2, 35.855, 47.9882, -13.867, 97.5009, -51.091, 46.0062
3.436, 2, 35.8572, 47.9873, -13.867, 97.5014, -51.0906, 46.005
3.439, 2, 35.8588, 47.9867, -13.867, 97.5018, -51.0902, 46.0042
3.444, 2, 35.8599, 47.9866, -13.867, 97.502, -51.0901, 46.0036
3.448, 2, 35.8606, 47.9871, -13.8671, 97.5022, -51.0901, 46.0032
3.452, 2, 35.8612, 47.9881, -13.8671, 97.5023, -51.0903, 46.0028
3.456, 2, 35.8616, 47.9898, -13.8672, 97.5023, -51.0909, 46.0024
3.46, 2, 35.8619, 47.9923, -13.8674, 97.5023, -51.0922, 46.0018
3.464, 2, 35.8622, 47.9957, -13.8678, 97.5022, -51.0944, 46.001
3.468, 2, 35.8625, 48.0001, -13.8683, 97.502, -51.098, 45.9996
3.472, 2, 35.8628, 48.0057, -13.8691, 97.5016, -51.1036, 45.9977
3.476, 2, 35.863, 48.0127, -13.8703, 97.5011, -51.1117, 45.9948
3.48, 2, 35.8633, 48.0214, -13.872, 97.5004, -51.1231, 45.9908
3.484, 2, 35.8635, 48.0319, -13.8743, 97.4993, -51.1386, 45.9854
3.488, 2, 35.8637, 48.0445, -13.8773, 97.4979, -51.1592, 45.9782
3.492, 2, 35.8639, 48.0593, -13.8812, 97.4961, -51.1858, 45.969
3.495, 2, 35.8641, 48.0761, -13.8861, 97.4938, -51.2194, 45.9573
3.5, 2, 35.8643, 48.0953, -13.8921, 97.4908, -51.2611, 45.9429
3.504, 2, 35.8645, 48.1167, -13.8993, 97.4872, -51.3116, 45.9254
3.508, 2, 35.8648, 48.1406, -13.908, 97.4828, -51.3719, 45.9046
3.512, 2, 35.8651, 48.1671, -13.918, 97.4775, -51.4425, 45.8803
3.516, 2, 35.8655, 48.1961, -13.9296, 97.4714, -51.5241, 45.8522
3.52, 2, 35.8659, 48.2276, -13.9426, 97.4642, -51.617, 45.8204
3.524, 2, 35.8663, 48.2617, -13.9572, 97.456, -51.7212, 45.7847
3.528, 2, 35.8666, 48.2982, -13.9733, 97.4467, -51.8368, 45.7452
3.531, 2, 35.867, 48.337, -13.9908, 97.4363, -51.9634, 45.702
3.536, 2, 35.8674, 48.3781, -14.0097, 97.4248, -52.1006, 45.6553
3.54, 2, 35.8678, 48.4216, -14.0297, 97.4122, -52.2476, 45.6054
3.544, 2, 35.8682, 48.4674, -14.0508, 97.3985, -52.4035, 45.5527
3.548, 2, 35.8687, 48.5155, -14.0728, 97.3838, -52.5675, 45.4973
3.552, 2, 35.8693, 48.5659, -14.0956, 97.368, -52.7385, 45.4398
3.556, 2, 35.8699, 48.6183, -14.119, 97.3513, -52.9155, 45.3803
3.56, 2, 35.8705, 48.6726, -14.1428, 97.3337, -53.0976, 45.3194
3.564, 2, 35.8712, 48.7285, -14.1669, 97.3153, -53.2839, 45.2572
3.568, 2, 35.8719, 48.7859, -14.1912, 97.2961, -53.4733, 45.1942
3.572, 2, 35.8724, 48.8447, -14.2156, 97.2761, -53.6653, 45.1306
3.576, 2, 35.8729, 48.9047, -14.2398, 97.2555, -53.859, 45.0665
3.58, 2, 35.8732, 48.9658, -14.264, 97.2342, -54.054, 45.0023
3.584, 2, 35.8734, 49.0277, -14.288, 97.2123, -54.2498, 44.938
3.587, 2, 35.8734, 49.0904, -14.3117, 97.1898, -54.4461, 44.8737
3.592, 2, 35.8733, 49.1534, -14.3352, 97.1667, -54.6427, 44.8096
3.596, 2, 35.873, 49.2168, -14.3583, 97.143, -54.8394, 44.7456
3.6, 2, 35.8726, 49.2803, -14.3812, 97.1189, -55.0361, 44.6819
3.604, 2, 35.872, 49.3438, -14.4037, 97.0942, -55.2328, 44.6183
3.608, 2, 35.8713, 49.4073, -14.4258, 97.0689, -55.4294, 44.555
3.612, 2, 35.8704, 49.4707, -14.4476, 97.0432, -55.6258, 44.4919
3.616, 2, 35.8693, 49.5341, -14.4691, 97.0169, -55.8221, 44.4291
3.62, 2, 35.8681, 49.5973, -14.4902, 96.9901, -56.0182, 44.3665
3.624, 2, 35.8668, 49.6604, -14.511, 96.9628, -56.2141, 44.3042
3.628, 2, 35.8652, 49.7234, -14.5314, 96.935, -56.4098, 44.2421
3.632, 2, 35.8636, 49.7862, -14.5514, 96.9067, -56.6054, 44.1803
3.636, 2, 35.8618, 49.8488, -14.571, 96.8779, -56.8007, 44.1187
3.64, 2, 35.8598, 49.9114, -14.5903, 96.8486, -56.9959, 44.0573
3.644, 2, 35.8577, 49.9737, -14.6092, 96.8189, -57.1908, 43.9962
3.648, 2, 35.8554, 50.0359, -14.6278, 96.7886, -57.3855, 43.9353
3.652, 2, 35.8529, 50.0979, -14.646, 96.7579, -57.5801, 43.8746
3.656, 2, 35.8503, 50.1598, -14.6638, 96.7267, -57.7744, 43.8142
3.66, 2, 35.8476, 50.2214, -14.6812, 96.695, -57.9685, 43.754
3.664, 2, 35.8447, 50.283, -14.6982, 96.6628, -58.1624, 43.694
3.668, 2, 35.8417, 50.3443, -14.7149, 96.6302, -58.3561, 43.6342
3.672, 2, 35.8385, 50.4055, -14.7312, 96.5971, -58.5496, 43.5746
3.676, 2, 35.8351, 50.4664, -14.7471, 96.5636, -58.7429, 43.5153
3.679, 2, 35.8316, 50.5273, -14.7626, 96.5296, -58.936, 43.4561
3.684, 2, 35.8279, 50.5879, -14.7777, 96.4952, -59.1289, 43.3971
3.688, 2, 35.8241, 50.6483, -14.7925, 96.4602, -59.3216, 43.3384
3.692, 2, 35.8202, 50.7086, -14.8068, 96.4249, -59.5141, 43.2798
3.696, 2, 35.816, 50.7687, -14.8208, 96.3891, -59.7064, 43.2215
3.7, 2, 35.8118, 50.8286, -14.8343, 96.3529, -59.8984, 43.1633
3.704, 2, 35.8073, 50.8883, -14.8475, 96.3162, -60.0903, 43.1053
3.708, 2, 35.8028, 50.9478, -14.8603, 96.2791, -60.282, 43.0475
3.712, 2, 35.798, 51.0072, -14.8727, 96.2415, -60.4734, 42.9898
3.716, 2, 35.7932, 51.0663, -14.8846, 96.2036, -60.6647, 42.9324
3.72, 2, 35.7881, 51.1253, -14.8962, 96.1652, -60.8557, 42.8751
3.724, 2, 35.783, 51.184, -14.9074, 96.1263, -61.0466, 42.818
3.728, 2, 35.7776, 51.2426, -14.9182, 96.0871, -61.2372, 42.7611
3.732, 2, 35.7721, 51.3009, -14.9285, 96.0474, -61.4276, 42.7043
3.735, 2, 35.7665, 51.3591, -14.9385, 96.0073, -61.6178, 42.6477
3.74, 2, 35.7607, 51.417, -14.9481, 95.9669, -61.8079, 42.5912
3.744, 2, 35.7548, 51.4748, -14.9572, 95.926, -61.9977, 42.5349
3.748, 2, 35.7487, 51.5324, -14.966, 95.8847, -62.1873, 42.4788
3.752, 2, 35.7425, 51.5897, -14.9743, 95.8429, -62.3767, 42.4228
3.756, 2, 35.7361, 51.6469, -14.9822, 95.8008, -62.5659, 42.3669
3.76, 2, 35.7295, 51.7038, -14.9897, 95.7583, -62.7548, 42.3112
3.764, 2, 35.7228, 51.7605, -14.9968, 95.7154, -62.9436, 42.2557
3.768, 2, 35.716, 51.8171, -15.0034, 95.6721, -63.1322, 42.2003
3.772, 2, 35.709, 51.8734, -15.0096, 95.6284, -63.3206, 42.145
3.776, 2, 35.7019, 51.9295, -15.0155, 95.5843, -63.5087, 42.0898
3.78, 2, 35.6946, 51.9853, -15.0209, 95.5399, -63.6967, 42.0348
3.784, 2, 35.6872, 52.0409, -15.0258, 95.495, -63.8844, 41.9799
3.788, 2, 35.6797, 52.096, -15.0304, 95.4498, -64.072, 41.9252
3.792, 2, 35.6722, 52.1506, -15.0345, 95.4042, -64.2592, 41.8706
3.796, 2, 35.6647, 52.2044, -15.0381, 95.3582, -64.4461, 41.8162
3.8, 2, 35.6574, 52.2572, -15.0414, 95.312, -64.6325, 41.7619
3.804, 2, 35.6502, 52.3089, -15.0442, 95.2655, -64.8182, 41.708
3.808, 2, 35.6433, 52.3596, -15.0466, 95.2189, -65.0029, 41.6544
3.812, 2, 35.6367, 52.4091, -15.0485, 95.1723, -65.1862, 41.6012
3.816, 2, 35.6303, 52.4575, -15.0501, 95.1257, -65.3676, 41.5486
3.82, 2, 35.6243, 52.5046, -15.0512, 95.0794, -65.5467, 41.4968
3.824, 2, 35.6184, 52.5503, -15.052, 95.0335, -65.7228, 41.4458
3.828, 2, 35.6129, 52.5945, -15.0524, 94.9882, -65.8952, 41.396
3.832, 2, 35.6075, 52.6371, -15.0524, 94.9438, -66.0631, 41.3475
3.836, 2, 35.6024, 52.6778, -15.0522, 94.9006, -66.2256, 41.3006
3.84, 2, 35.5973, 52.7167, -15.0516, 94.8588, -66.3818, 41.2556
3.844, 2, 35.5922, 52.7539, -15.0509, 94.8187, -66.5307, 41.2127
3.848, 2, 35.5872, 52.7894, -15.05, 94.7806, -66.6714, 41.1721
3.852, 2, 35.5823, 52.8231, -15.0489, 94.7447, -66.8033, 41.1341
3.856, 2, 35.5773, 52.8549, -15.0478, 94.7112, -66.9256, 41.0989
3.86, 2, 35.5725, 52.8847, -15.0467, 94.6804, -67.0379, 41.0666
3.864, 2, 35.5678, 52.9125, -15.0455, 94.6523, -67.1399, 41.0373
3.868, 2, 35.5632, 52.9384, -15.0444, 94.627, -67.2313, 41.011
3.872, 2, 35.5586, 52.9623, -15.0433, 94.6045, -67.3122, 40.9877
3.876, 2, 35.5542, 52.9845, -15.0423, 94.5848, -67.3828, 40.9674
3.88, 2, 35.5498, 53.005, -15.0415, 94.5679, -67.4435, 40.95
3.884, 2, 35.5455, 53.0238, -15.0407, 94.5535, -67.4949, 40.9352
3.888, 2, 35.5413, 53.0409, -15.0401, 94.5415, -67.5377, 40.9229
3.892, 2, 35.5374, 53.0563, -15.0396, 94.5317, -67.5728, 40.9128
3.896, 2, 35.5337, 53.0701, -15.0392, 94.5237, -67.6011, 40.9047
3.9, 2, 35.5304, 53.0823, -15.0389, 94.5174, -67.6235, 40.8983
3.904, 3, 35.5273, 53.093, -15.0387, 94.5125, -67.6409, 40.8933
3.908, 3, 35.5244, 53.1023, -15.0385, 94.5087, -67.6541, 40.8895
3.912, 3, 35.5219, 53.1103, -15.0384, 94.506, -67.664, 40.8866
3.916, 3, 35.5196, 53.117, -15.0383, 94.5039, -67.6712, 40.8846
3.92, 3, 35.5176, 53.1224, -15.0383, 94.5025, -67.6763, 40.8831
3.924, 3, 35.516, 53.1267, -15.0382, 94.5015, -67.6799, 40.882
3.928, 3, 35.5147, 53.1298, -15.0382, 94.5008, -67.6824, 40.8813
3.932, 3, 35.5138, 53.1321, -15.0382, 94.5003, -67.684, 40.8809
3.936, 3, 35.5131, 53.1337, -15.0382, 94.5, -67.6852, 40.8805
3.94, 3, 35.5126, 53.1348, -15.0382, 94.4998, -67.686, 40.8803
3.944, 3, 35.5121, 53.1356, -15.0382, 94.4996, -67.6865, 40.8801
3.948, 3, 35.5116, 53.1364, -15.0382, 94.4995, -67.6869, 40.88
3.952, 3, 35.5107, 53.1374, -15.0381, 94.4993, -67.6873, 40.8799
3.956, 3, 35.5095, 53.1387, -15.038, 94.4991, -67.6878, 40.8798
3.96, 3, 35.5078, 53.1405, -15.0378, 94.4988, -67.6887, 40.8797
3.964, 3, 35.5057, 53.143, -15.0374, 94.4981, -67.6902, 40.8794
3.968, 3, 35.5032, 53.1461, -15.0367, 94.497, -67.6928, 40.879
3.972, 3, 35.5001, 53.1501, -15.0357, 94.4952, -67.6969, 40.8784
3.976, 3, 35.4966, 53.1551, -15.0341, 94.4925, -67.703, 40.8774
3.98, 3, 35.4926, 53.1611, -15.0318, 94.4886, -67.7119, 40.8759
3.984, 3, 35.4881, 53.1684, -15.0286, 94.4831, -67.7244, 40.8739
3.988, 3, 35.4828, 53.177, -15.0243, 94.4757, -67.7413, 40.8712
3.992, 3, 35.477, 53.1868, -15.0186, 94.4659, -67.7635, 40.8677
3.996, 3, 35.4706, 53.1977, -15.0113, 94.4533, -67.7921, 40.8631
3.999, 3, 35.4638, 53.2094, -15.0022, 94.4374, -67.828, 40.8573
4.004, 3, 35.4567, 53.2217, -14.991, 94.4179, -67.872, 40.8502
4.008, 3, 35.4494, 53.2345, -14.9776, 94.3945, -67.9247, 40.8417
4.012, 3, 35.4419, 53.2476, -14.9618, 94.367, -67.9867, 40.8317
4.016, 3, 35.4341, 53.2612, -14.9436, 94.3352, -68.0581, 40.8202
4.02, 3, 35.426, 53.2753, -14.9229, 94.2993, -68.1388, 40.8071
4.024, 3, 35.4175, 53.2901, -14.8998, 94.2592, -68.2286, 40.7926
4.028, 3, 35.4086, 53.3055, -14.8744, 94.2152, -68.3269, 40.7767
4.032, 3, 35.3993, 53.3217, -14.8467, 94.1676, -68.4333, 40.7595
4.036, 3, 35.3895, 53.3385, -14.817, 94.1168, -68.5468, 40.741
4.04, 3, 35.3794, 53.3561, -14.7855, 94.063, -68.6666, 40.7216
4.044, 3, 35.3688, 53.3745, -14.7523, 94.0067, -68.7916, 40.7012
4.048, 3, 35.3575, 53.3938, -14.7178, 93.9483, -68.921, 40.6802
4.052, 3, 35.3455, 53.4142, -14.682, 93.8883, -69.0538, 40.6585
4.056, 3, 35.3328, 53.4357, -14.6453, 93.827, -69.1891, 40.6364
4.06, 3, 35.3192, 53.4582, -14.6078, 93.7648, -69.3263, 40.6139
4.064, 3, 35.3048, 53.4816, -14.5695, 93.7018, -69.4647, 40.5912
4.068, 3, 35.2897, 53.5057, -14.5307, 93.6383, -69.604, 40.5684
4.072, 3, 35.2742, 53.5302, -14.4914, 93.5744, -69.7438, 40.5454
4.076, 3, 35.2582, 53.5549, -14.4517, 93.5102, -69.8839, 40.5223
4.08, 3, 35.242, 53.5797, -14.4116, 93.4457, -70.0243, 40.4991
4.084, 3, 35.2255, 53.6045, -14.371, 93.3811, -70.1647, 40.4758
4.088, 3, 35.2089, 53.6293, -14.3301, 93.3162, -70.3052, 40.4525
4.092, 3, 35.192, 53.6539, -14.2889, 93.2512, -70.4457, 40.4291
4.096, 3, 35.1751, 53.6783, -14.2472, 93.186, -70.5862, 40.4058
4.1, 3, 35.158, 53.7026, -14.2053, 93.1207, -70.7265, 40.3823
4.104, 3, 35.1408, 53.7267, -14.163, 93.0553, -70.8669, 40.3588
4.108, 3, 35.1234, 53.7506, -14.1204, 92.9897, -71.0071, 40.3353
4.112, 3, 35.106, 53.7743, -14.0774, 92.9241, -71.1473, 40.3117
4.116, 3, 35.0884, 53.7978, -14.0341, 92.8583, -71.2873, 40.2881
4.12, 3, 35.0708, 53.8211, -13.9905, 92.7923, -71.4273, 40.2645
4.124, 3, 35.053, 53.8441, -13.9465, 92.7263, -71.5672, 40.2408
4.128, 3, 35.0352, 53.8669, -13.9022, 92.6601, -71.707, 40.217
4.132, 3, 35.0172, 53.8896, -13.8576, 92.5938, -71.8467, 40.1933
4.136, 3, 34.9992, 53.912, -13.8127, 92.5275, -71.9863, 40.1694
4.14, 3, 34.981, 53.9342, -13.7674, 92.4609, -72.1259, 40.1456
4.144, 3, 34.9628, 53.9561, -13.7218, 92.3943, -72.2653, 40.1217
4.148, 3, 34.9444, 53.9779, -13.6758, 92.3276, -72.4046, 40.0977
4.152, 3, 34.926, 53.9994, -13.6296, 92.2607, -72.5439, 40.0737
4.156, 3, 34.9074, 54.0207, -13.583, 92.1937, -72.6831, 40.0496
4.16, 3, 34.8888, 54.0418, -13.5361, 92.1266, -72.8221, 40.0255
4.164, 3, 34.87, 54.0627, -13.4889, 92.0594, -72.9611, 40.0014
4.168, 3, 34.8512, 54.0834, -13.4413, 91.9921, -73.1, 39.9772
4.172, 3, 34.8323, 54.1038, -13.3935, 91.9247, -73.2388, 39.9529
4.176, 3, 34.8132, 54.124, -13.3453, 91.8572, -73.3775, 39.9286
4.18, 3, 34.7941, 54.144, -13.2968, 91.7895, -73.5161, 39.9043
4.184, 3, 34.7748, 54.1638, -13.2479, 91.7217, -73.6547, 39.8798
4.188, 3, 34.7555, 54.1833, -13.1988, 91.6539, -73.7931, 39.8554
4.192, 3, 34.7362, 54.2026, -13.1493, 91.5859, -73.9315, 39.8308
4.196, 3, 34.7169, 54.2216, -13.0995, 91.5178, -74.0697, 39.8063
4.2, 3, 34.6977, 54.2403, -13.0494, 91.4496, -74.2078, 39.7816
4.204, 3, 34.6788, 54.2585, -12.9991, 91.3814, -74.3458, 39.757
4.208, 3, 34.6603, 54.2759, -12.9485, 91.3131, -74.4834, 39.7323
4.212, 3, 34.6426, 54.2924, -12.8978, 91.245, -74.6206, 39.7076
4.216, 3, 34.6256, 54.3077, -12.847, 91.177, -74.7571, 39.683
4.22, 3, 34.6095, 54.3217, -12.7964, 91.1095, -74.8924, 39.6585
4.224, 3, 34.5942, 54.3345, -12.7462, 91.0427, -75.0259, 39.6343
4.228, 3, 34.5795, 54.3462, -12.6966, 90.977, -75.1571, 39.6104
4.232, 3, 34.5654, 54.357, -12.6481, 90.9128, -75.285, 39.5871
4.236, 3, 34.5517, 54.3672, -12.6008, 90.8506, -75.4087, 39.5644
4.24, 3, 34.5385, 54.377, -12.5553, 90.7908, -75.5274, 39.5427
4.244, 3, 34.5257, 54.3864, -12.5119, 90.734, -75.6401, 39.522
4.248, 3, 34.5135, 54.3954, -12.471, 90.6805, -75.7459, 39.5025
4.252, 3, 34.5018, 54.404, -12.4329, 90.6309, -75.8441, 39.4844
4.256, 3, 34.4907, 54.4124, -12.3979, 90.5854, -75.934, 39.4678
4.26, 3, 34.4799, 54.4207, -12.3662, 90.5443, -76.015, 39.4528
4.264, 3, 34.4694, 54.4291, -12.3379, 90.5079, -76.0869, 39.4395
4.268, 3, 34.4591, 54.4377, -12.3131, 90.4761, -76.1496, 39.4278
4.272, 3, 34.4492, 54.4463, -12.2918, 90.4488, -76.2034, 39.4178
4.276, 3, 34.4398, 54.455, -12.2738, 90.4258, -76.2486, 39.4094
4.28, 3, 34.4309, 54.4636, -12.2588, 90.4068, -76.286, 39.4025
4.284, 3, 34.4227, 54.4719, -12.2466, 90.3914, -76.3163, 39.3968
4.288, 4, 34.4152, 54.4797, -12.2368, 90.3792, -76.3403, 39.3924
4.292, 4, 34.4085, 54.487, -12.2292, 90.3697, -76.359, 39.3889
4.296, 4, 34.4023, 54.4937, -12.2233, 90.3625, -76.3732, 39.3862
4.3, 4, 34.3969, 54.4995, -12.219, 90.3571, -76.3838, 39.3843
4.304, 4, 34.392, 54.5044, -12.2158, 90.3532, -76.3914, 39.3828
4.308, 4, 34.388, 54.5084, -12.2135, 90.3505, -76.3969, 39.3818
4.312, 4, 34.3847, 54.5114, -12.2119, 90.3486, -76.4006, 39.3811
4.316, 4, 34.3821, 54.5137, -12.2108, 90.3473, -76.4032, 39.3806
4.32, 4, 34.3802, 54.5153, -12.2101, 90.3464, -76.405, 39.3803
4.324, 4, 34.3789, 54.5164, -12.2095, 90.3458, -76.4062, 39.3801
4.328, 4, 34.3777, 54.5172, -12.2092, 90.3453, -76.407, 39.3799
4.332, 4, 34.3766, 54.5179, -12.2089, 90.345, -76.4076, 39.3799
4.336, 4, 34.3751, 54.5184, -12.2085, 90.3448, -76.4081, 39.3798
4.34, 4, 34.3731, 54.5191, -12.208, 90.3444, -76.4086, 39.3799
4.344, 4, 34.3705, 54.5197, -12.2072, 90.3438, -76.4094, 39.38
4.348, 4, 34.3673, 54.5205, -12.2058, 90.3429, -76.4106, 39.3804
4.352, 4, 34.3634, 54.5214, -12.2036, 90.3412, -76.4126, 39.381
4.356, 4, 34.3589, 54.5222, -12.2002, 90.3387, -76.4156, 39.382
4.36, 4, 34.3536, 54.5231, -12.1952, 90.3349, -76.4201, 39.3834
4.364, 4, 34.3476, 54.5237, -12.1881, 90.3293, -76.4266, 39.3856
4.368, 4, 34.3407, 54.5242, -12.1785, 90.3217, -76.4355, 39.3886
4.372, 4, 34.3328, 54.5243, -12.1656, 90.3114, -76.4475, 39.3926
4.376, 4, 34.324, 54.524, -12.149, 90.298, -76.4631, 39.3979
4.38, 4, 34.3142, 54.5229, -12.1281, 90.281, -76.4828, 39.4045
4.384, 4, 34.3036, 54.5208, -12.1024, 90.2599, -76.5072, 39.4128
4.388, 4, 34.2925, 54.5176, -12.0713, 90.2342, -76.5368, 39.4228
4.392, 4, 34.2807, 54.5132, -12.0346, 90.2038, -76.5719, 39.4347
4.396, 4, 34.2684, 54.5075, -11.9921, 90.1685, -76.6128, 39.4485
4.4, 4, 34.2555, 54.5004, -11.9437, 90.1281, -76.6593, 39.4641
4.404, 4, 34.2418, 54.4922, -11.8895, 90.0829, -76.7116, 39.4817
4.408, 4, 34.2273, 54.4828, -11.8297, 90.0329, -76.7692, 39.501
4.412, 4, 34.2118, 54.4724, -11.7647, 89.9786, -76.8319, 39.522
4.416, 4, 34.1956, 54.4611, -11.6948, 89.9203, -76.8993, 39.5445
4.42, 4, 34.1786, 54.449, -11.6207, 89.8584, -76.9708, 39.5682
4.424, 4, 34.1608, 54.4363, -11.5428, 89.7934, -77.046, 39.5931
4.428, 4, 34.1421, 54.4231, -11.4618, 89.7259, -77.1241, 39.6189
4.432, 4, 34.1226, 54.4097, -11.3781, 89.6563, -77.2047, 39.6454
4.436, 4, 34.102, 54.3961, -11.2924, 89.5851, -77.2873, 39.6724
4.44, 4, 34.0804, 54.3826, -11.205, 89.5126, -77.3713, 39.6998
4.444, 4, 34.0577, 54.369, -11.1164, 89.4393, -77.4564, 39.7274
4.448, 4, 34.034, 54.3555, -11.0269, 89.3654, -77.5423, 39.7551
4.452, 4, 34.0096, 54.3421, -10.9368, 89.2911, -77.6287, 39.7828
4.456, 4, 33.9845, 54.3287, -10.8462, 89.2166, -77.7155, 39.8106
4.46, 4, 33.959, 54.3153, -10.7553, 89.1419, -77.8025, 39.8382
4.464, 4, 33.9332, 54.3018, -10.6641, 89.067, -77.8898, 39.8658
4.468, 4, 33.9072, 54.2883, -10.5728, 88.9921, -77.9772, 39.8933
4.472, 4, 33.8809, 54.2747, -10.4813, 88.9172, -78.0647, 39.9207
4.476, 4, 33.8545, 54.261, -10.3896, 88.8423, -78.1523, 39.9479
4.48, 4, 33.8281, 54.2473, -10.2979, 88.7673, -78.24, 39.975
4.484, 4, 33.8015, 54.2334, -10.2061, 88.6924, -78.3277, 40.002
4.488, 4, 33.7748, 54.2195, -10.1142, 88.6175, -78.4155, 40.0289
4.492, 4, 33.748, 54.2055, -10.0222, 88.5426, -78.5033, 40.0556
4.496, 4, 33.7212, 54.1914, -9.93015, 88.4677, -78.5912, 40.0822
4.5, 4, 33.6942, 54.1772, -9.83803, 88.3928, -78.6791, 40.1087
4.504, 4, 33.6673, 54.1629, -9.74585, 88.318, -78.767, 40.135
4.508, 4, 33.6402, 54.1485, -9.65359, 88.2432, -78.855, 40.1611
4.512, 4, 33.6131, 54.1341, -9.56128, 88.1684, -78.943, 40.1872
4.516, 4, 33.5859, 54.1195, -9.4689, 88.0936, -79.031, 40.2131
4.52, 4, 33.5586, 54.1049, -9.37645, 88.0188, -79.1191, 40.2388
4.524, 4, 33.5313, 54.0901, -9.28395, 87.9441, -79.2072, 40.2645
4.528, 4, 33.5039, 54.0753, -9.19138, 87.8694, -79.2954, 40.2899
4.532, 4, 33.4765, 54.0603, -9.09875, 87.7947, -79.3836, 40.3153
4.536, 4, 33.4489, 54.0453, -9.00606, 87.7201, -79.4718, 40.3405
4.54, 4, 33.4213, 54.0302, -8.91331, 87.6454, -79.56, 40.3655
4.544, 4, 33.3937, 54.015, -8.82049, 87.5708, -79.6483, 40.3904
4.548, 4, 33.366, 53.9997, -8.72762, 87.4962, -79.7366, 40.4152
4.552, 4, 33.3382, 53.9843, -8.63469, 87.4216, -79.825, 40.4399
4.556, 4, 33.3103, 53.9688, -8.5417, 87.3471, -79.9133, 40.4644
4.56, 4, 33.2824, 53.9532, -8.44865, 87.2725, -80.0018, 40.4887
4.564, 4, 33.2544, 53.9375, -8.35554, 87.198, -80.0902, 40.5129
4.568, 4, 33.2264, 53.9217, -8.26237, 87.1235, -80.1787, 40.537
4.572, 4, 33.1983, 53.9059, -8.16915, 87.049, -80.2672, 40.5609
4.576, 4, 33.1703, 53.8899, -8.07588, 86.9745, -80.3558, 40.5847
4.58, 4, 33.1425, 53.8738, -7.98258, 86.9001, -80.4443, 40.6083
4.584, 4, 33.1152, 53.8575, -7.88932, 86.8257, -80.5328, 40.6318
4.588, 4, 33.0886, 53.8411, -7.79618, 86.7515, -80.6213, 40.6551
4.592, 4, 33.0627, 53.8245, -7.70331, 86.6774, -80.7095, 40.6782
4.596, 4, 33.0377, 53.8077, -7.61092, 86.6037, -80.7973, 40.7011
4.6, 4, 33.0135, 53.7908, -7.51933, 86.5307, -80.8843, 40.7236
4.604, 4, 32.9902, 53.7738, -7.42889, 86.4585, -80.9704, 40.7458
4.608, 4, 32.9677, 53.757, -7.34008, 86.3876, -81.0549, 40.7674
4.612, 4, 32.9457, 53.7404, -7.25338, 86.3185, -81.1374, 40.7884
4.616, 4, 32.9244, 53.7242, -7.16936, 86.2514, -81.2174, 40.8087
4.62, 4, 32.9039, 53.7085, -7.08858, 86.187, -81.2943, 40.8281
4.624, 4, 32.8842, 53.6936, -7.01159, 86.1256, -81.3676, 40.8465
4.628, 4, 32.8654, 53.6795, -6.93892, 86.0677, -81.4367, 40.8637
4.632, 4, 32.8475, 53.6664, -6.87106, 86.0137, -81.5013, 40.8798
4.636, 4, 32.8305, 53.6545, -6.8084, 85.964, -81.5608, 40.8945
4.64, 4, 32.8144, 53.6438, -6.75126, 85.9186, -81.615, 40.9079
4.644, 4, 32.7991, 53.6344, -6.69981, 85.8779, -81.6637, 40.9199
4.648, 4, 32.7845, 53.6263, -6.65413, 85.8419, -81.7069, 40.9304
4.652, 4, 32.7706, 53.6196, -6.61414, 85.8105, -81.7446, 40.9396
4.656, 4, 32.7576, 53.6142, -6.57964, 85.7836, -81.7769, 40.9475
4.66, 4, 32.7456, 53.6098, -6.55033, 85.7608, -81.8043, 40.9541
4.664, 4, 32.7347, 53.6064, -6.5258, 85.7418, -81.8272, 40.9596
4.668, 4, 32.7249, 53.6038, -6.50561, 85.7263, -81.8459, 40.9641
4.672, 5, 32.7162, 53.6019, -6.48925, 85.7137, -81.861, 40.9677
4.678, 5, 32.7019, 53.5996, -6.46606, 85.6962, -81.8822, 40.9728
4.68, 5, 32.7019, 53.5996, -6.46606, 85.6962, -81.8822, 40.9728
4.684, 5, 32.6959, 53.599, -6.45827, 85.6904, -81.8893, 40.9745
4.688, 5, 32.6906, 53.5988, -6.45242, 85.6861, -81.8945, 40.9757
4.692, 5, 32.686, 53.5986, -6.44813, 85.683, -81.8983, 40.9766
4.696, 5, 32.6821, 53.5987, -6.44505, 85.6808, -81.901, 40.9772
4.7, 5, 32.679, 53.5987, -6.44287, 85.6792, -81.9029, 40.9777
4.704, 5, 32.6765, 53.5988, -6.44137, 85.6782, -81.9042, 40.978
4.708, 5, 32.6747, 53.5988, -6.44033, 85.6775, -81.9051, 40.9782
4.712, 5, 32.6732, 53.5989, -6.43959, 85.677, -81.9057, 40.9783
4.716, 5, 32.6718, 53.5988, -6.43902, 85.6766, -81.9061, 40.9785
4.72, 5, 32.6703, 53.5987, -6.43847, 85.6763, -81.9065, 40.9786
4.724, 5, 32.6683, 53.5985, -6.43778, 85.676, -81.9068, 40.9788
4.728, 5, 32.6658, 53.5981, -6.43673, 85.6754, -81.9073, 40.9793
4.732, 5, 32.6627, 53.5975, -6.43508, 85.6745, -81.9079, 40.98
4.736, 5, 32.6589, 53.5965, -6.43249, 85.673, -81.9089, 40.9814
4.74, 5, 32.6545, 53.595, -6.42855, 85.6707, -81.9104, 40.9835
4.744, 5, 32.6492, 53.5929, -6.42278, 85.6672, -81.9126, 40.9867
4.748, 5, 32.6431, 53.5899, -6.41459, 85.6621, -81.9158, 40.9914
4.752, 5, 32.6358, 53.5859, -6.40334, 85.6549, -81.9203, 40.998
4.756, 5, 32.6272, 53.5807, -6.38827, 85.6452, -81.9263, 41.007
4.76, 5, 32.6173, 53.5739, -6.36863, 85.6324, -81.9342, 41.0188
4.764, 5, 32.6062, 53.5654, -6.34363, 85.6158, -81.9443, 41.034
4.768, 5, 32.594, 53.5551, -6.31253, 85.595, -81.957, 41.0532
4.772, 5, 32.5808, 53.5427, -6.27466, 85.5695, -81.9725, 41.0767
4.776, 5, 32.5667, 53.5282, -6.22948, 85.5387, -81.9912, 41.105
4.78, 5, 32.5518, 53.5115, -6.17663, 85.5025, -82.0132, 41.1383
4.784, 5, 32.5358, 53.4924, -6.11591, 85.4607, -82.0386, 41.1767
4.788, 5, 32.5189, 53.471, -6.04733, 85.4133, -82.0674, 41.2203
4.792, 5, 32.5008, 53.4474, -5.97109, 85.3605, -82.0995, 41.2688
4.796, 5, 32.4816, 53.4216, -5.88756, 85.3025, -82.1348, 41.322
4.8, 5, 32.4612, 53.3937, -5.79727, 85.2397, -82.1732, 41.3795
4.804, 5, 32.4398, 53.364, -5.70088, 85.1727, -82.2143, 41.441
4.808, 5, 32.4175, 53.3327, -5.59912, 85.1018, -82.2578, 41.5059
4.812, 5, 32.3941, 53.2999, -5.49278, 85.0278, -82.3034, 41.5736
4.816, 5, 32.3696, 53.2659, -5.38266, 84.9511, -82.3509, 41.6437
4.82, 5, 32.3439, 53.2309, -5.26952, 84.8724, -82.3998, 41.7157
4.824, 5, 32.3169, 53.1951, -5.15408, 84.7922, -82.4498, 41.7889
4.828, 5, 32.2887, 53.1588, -5.03696, 84.7108, -82.5008, 41.8631
4.832, 5, 32.2592, 53.1219, -4.91866, 84.6288, -82.5525, 41.9379
4.836, 5, 32.2287, 53.0848, -4.79959, 84.5462, -82.6047, 42.013
4.84, 5, 32.1973, 53.0475, -4.68005, 84.4634, -82.6574, 42.0883
4.844, 5, 32.1654, 53.0102, -4.56026, 84.3804, -82.7104, 42.1637
4.848, 5, 32.1331, 52.9727, -4.44038, 84.2973, -82.7636, 42.2391
4.852, 5, 32.1004, 52.9353, -4.32049, 84.2142, -82.8171, 42.3144
4.856, 5, 32.0675, 52.8979, -4.20067, 84.1312, -82.8709, 42.3896
4.86, 5, 32.0345, 52.8605, -4.08096, 84.0482, -82.9248, 42.4647
4.864, 5, 32.0013, 52.8231, -3.9614, 83.9652, -82.979, 42.5396
4.868, 5, 31.968, 52.7859, -3.842, 83.8824, -83.0333, 42.6144
4.872, 5, 31.9345, 52.7487, -3.72279, 83.7996, -83.0878, 42.689
4.876, 5, 31.901, 52.7115, -3.60376, 83.717, -83.1425, 42.7635
4.88, 5, 31.8675, 52.6745, -3.48492, 83.6344, -83.1973, 42.8378
4.884, 5, 31.8338, 52.6375, -3.36629, 83.552, -83.2523, 42.9119
4.888, 5, 31.8001, 52.6005, -3.24785, 83.4696, -83.3075, 42.9858
4.892, 5, 31.7663, 52.5637, -3.12962, 83.3874, -83.3628, 43.0595
4.896, 5, 31.7324, 52.5269, -3.01158, 83.3052, -83.4183, 43.1331
4.9, 5, 31.6985, 52.4902, -2.89375, 83.2232, -83.4739, 43.2065
4.904, 5, 31.6645, 52.4535, -2.77612, 83.1412, -83.5297, 43.2797
4.908, 5, 31.6305, 52.4169, -2.65869, 83.0594, -83.5856, 43.3527
4.912, 5, 31.5964, 52.3804, -2.54147, 82.9777, -83.6418, 43.4256
4.916, 5, 31.5622, 52.344, -2.42445, 82.8961, -83.698, 43.4982
4.92, 5, 31.528, 52.3076, -2.30763, 82.8146, -83.7544, 43.5707
4.924, 5, 31.4939, 52.2713, -2.19102, 82.7332, -83.811, 43.6431
4.928, 5, 31.4598, 52.2351, -2.07466, 82.6519, -83.8677, 43.7152
4.932, 5, 31.4262, 52.199, -1.95857, 82.5708, -83.9245, 43.7871
4.936, 5, 31.3931, 52.1631, -1.84287, 82.4899, -83.9814, 43.8588
4.94, 5, 31.3608, 52.1274, -1.72771, 82.4092, -84.0383, 43.9301
4.944, 5, 31.3294, 52.092, -1.61333, 82.3289, -84.0951, 44.001
4.948, 5, 31.299, 52.057, -1.50004, 82.2493, -84.1516, 44.0712
4.952, 5, 31.2696, 52.0225, -1.38828, 82.1707, -84.2076, 44.1406
4.956, 5, 31.2411, 51.9887, -1.27854, 82.0933, -84.2628, 44.2087
4.96, 5, 31.2134, 51.9558, -1.17141, 82.0177, -84.317, 44.2752
4.964, 5, 31.1865, 51.9238, -1.06751, 81.9444, -84.3697, 44.3396
4.968, 5, 31.1605, 51.8931, -0.967489, 81.8737, -84.4205, 44.4017
4.972, 5, 31.1355, 51.8638, -0.871994, 81.8063, -84.4693, 44.4609
4.976, 5, 31.1115, 51.836, -0.781636, 81.7424, -84.5155, 44.5168
4.98, 5, 31.0888, 51.8099, -0.696965, 81.6826, -84.5589, 44.5692
4.984, 5, 31.0672, 51.7858, -0.61845, 81.6272, -84.5992, 44.6177
4.988, 5, 31.0468, 51.7636, -0.546454, 81.5765, -84.6362, 44.6621
4.992, 5, 31.0275, 51.7434, -0.481216, 81.5306, -84.6698, 44.7022
4.996, 5, 31.0093, 51.7252, -0.422831, 81.4897, -84.6998, 44.7379
5, 5, 30.9922, 51.7091, -0.371249, 81.4537, -84.7263, 44.7694
5.004, 5, 30.9762, 51.6949, -0.326279, 81.4224, -84.7494, 44.7967
5.008, 5, 30.9614, 51.6827, -0.287601, 81.3957, -84.7692, 44.82
5.012, 5, 30.948, 51.6722, -0.254792, 81.3731, -84.7859, 44.8397
5.016, 5, 30.936, 51.6634, -0.227348, 81.3543, -84.7999, 44.8561
5.02, 5, 30.9254, 51.6561, -0.204723, 81.339, -84.8114, 44.8695
5.024, 5, 30.9162, 51.6501, -0.186353, 81.3265, -84.8207, 44.8803
5.028, 6, 30.9082, 51.6452, -0.171676, 81.3167, -84.8282, 44.8889
5.032, 6, 30.9012, 51.6414, -0.160151, 81.309, -84.8339, 44.8956
5.036, 6, 30.895, 51.6384, -0.151267, 81.3032, -84.8384, 44.9007
5.04, 6, 30.8896, 51.6361, -0.144556, 81.2988, -84.8417, 44.9045
5.044, 6, 30.8849, 51.6343, -0.139589, 81.2956, -84.8441, 44.9072
5.048, 6, 30.8809, 51.633, -0.135989, 81.2934, -84.8459, 44.9092
5.052, 6, 30.8776, 51.6321, -0.133432, 81.2918, -84.8471, 44.9106
5.056, 6, 30.8751, 51.6314, -0.131648, 81.2907, -84.8479, 44.9115
5.06, 6, 30.8732, 51.631, -0.13042, 81.29, -84.8485, 44.9122
5.064, 6, 30.8718, 51.6306, -0.129576, 81.2895, -84.8489, 44.9126
5.068, 6, 30.8706, 51.6304, -0.128977, 81.2891, -84.8492, 44.9129
5.072, 6, 30.8695, 51.6303, -0.128496, 81.2889, -84.8494, 44.9131
5.076, 6, 30.8681, 51.6301, -0.128004, 81.2886, -84.8496, 44.9134
5.08, 6, 30.8662, 51.6299, -0.12735, 81.2883, -84.8498, 44.9137
5.084, 6, 30.8638, 51.6297, -0.126344, 81.2877, -84.8502, 44.9143
5.088, 6, 30.8607, 51.6293, -0.12474, 81.2867, -84.8508, 44.9153
5.092, 6, 30.857, 51.6287, -0.122228, 81.2849, -84.8519, 44.917
5.096, 6, 30.8526, 51.6278, -0.118425, 81.2822, -84.8535, 44.9197
5.1, 6, 30.8473, 51.6264, -0.112869, 81.2781, -84.8559, 44.9237
5.104, 6, 30.8411, 51.6244, -0.105018, 81.272, -84.8593, 44.9297
5.108, 6, 30.8338, 51.6216, -0.094245, 81.2636, -84.8642, 44.938
5.112, 6, 30.8251, 51.6179, -0.079854, 81.2521, -84.8707, 44.9492
5.116, 6, 30.815, 51.613, -0.0611077, 81.2369, -84.8793, 44.9641
5.12, 6, 30.8035, 51.6068, -0.037268, 81.2173, -84.8903, 44.9833
5.124, 6, 30.7907, 51.599, -0.00762761, 81.1927, -84.9043, 45.0074
5.128, 6, 30.7766, 51.5895, 0.0284602, 81.1624, -84.9214, 45.0371
5.132, 6, 30.7614, 51.5781, 0.0715452, 81.1258, -84.942, 45.0729
5.136, 6, 30.745, 51.5647, 0.122044, 81.0826, -84.9664, 45.1152
5.14, 6, 30.7274, 51.5493, 0.18022, 81.0325, -84.9947, 45.1642
5.144, 6, 30.7084, 51.5317, 0.246177, 80.9754, -85.027, 45.22
5.148, 6, 30.6879, 51.5121, 0.319857, 80.9115, -85.0633, 45.2825
5.152, 6, 30.6661, 51.4904, 0.401034, 80.8408, -85.1034, 45.3515
5.156, 6, 30.6428, 51.4669, 0.489323, 80.7638, -85.1473, 45.4266
5.16, 6, 30.6182, 51.4416, 0.584198, 80.6808, -85.1947, 45.5074
5.164, 6, 30.5923, 51.4148, 0.68503, 80.5926, -85.2454, 45.5933
5.168, 6, 30.565, 51.3866, 0.791121, 80.4996, -85.2989, 45.6838
5.172, 6, 30.5363, 51.3572, 0.901736, 80.4026, -85.355, 45.778
5.176, 6, 30.5061, 51.3269, 1.01614, 80.3023, -85.4132, 45.8754
5.18, 6, 30.4745, 51.2958, 1.13362, 80.1993, -85.4733, 45.9753
5.184, 6, 30.4416, 51.2641, 1.25352, 80.0942, -85.535, 46.0771
5.188, 6, 30.4074, 51.232, 1.37528, 79.9875, -85.5978, 46.1804
5.192, 6, 30.3721, 51.1996, 1.49839, 79.8796, -85.6617, 46.2847
5.196, 6, 30.336, 51.167, 1.62247, 79.7708, -85.7265, 46.3898
5.2, 6, 30.2991, 51.1342, 1.74717, 79.6613, -85.7919, 46.4953
5.204, 6, 30.2617, 51.1014, 1.87223, 79.5515, -85.858, 46.601
5.208, 6, 30.2241, 51.0687, 1.99743, 79.4415, -85.9245, 46.7068
5.212, 6, 30.1866, 51.036, 2.12255, 79.3314, -85.9914, 46.8126
5.216, 6, 30.1493, 51.0034, 2.2474, 79.2213, -86.0585, 46.9181
5.22, 6, 30.1124, 50.9709, 2.37174, 79.1115, -86.1259, 47.0233
5.224, 6, 30.0761, 50.9387, 2.49533, 79.0022, -86.1932, 47.1279
5.228, 6, 30.0402, 50.9068, 2.61786, 78.8936, -86.2605, 47.2316
5.232, 6, 30.0048, 50.8752, 2.739, 78.786, -86.3273, 47.3342
5.236, 6, 29.97, 50.8442, 2.85834, 78.6798, -86.3936, 47.4354
5.24, 6, 29.9357, 50.8138, 2.97543, 78.5755, -86.459, 47.5347
5.244, 6, 29.9023, 50.7841, 3.08979, 78.4734, -86.5233, 47.6317
5.248, 6, 29.8698, 50.7552, 3.20089, 78.374, -86.5861, 47.726
5.252, 6, 29.8384, 50.7274, 3.30818, 78.278, -86.647, 47.8171
5.256, 6, 29.8082, 50.7007, 3.41112, 78.1857, -86.7058, 47.9045
5.26, 6, 29.7792, 50.6753, 3.50918, 78.0977, -86.7619, 47.9878
5.264, 6, 29.7514, 50.6513, 3.60188, 78.0145, -86.8153, 48.0664
5.268, 6, 29.7248, 50.6289, 3.68879, 77.9365, -86.8654, 48.14
5.272, 6, 29.6995, 50.6081, 3.76957, 77.8641, -86.9121, 48.2084
5.276, 6, 29.6756, 50.5889, 3.84396, 77.7974, -86.9552, 48.2713
5.28, 6, 29.6533, 50.5715, 3.91181, 77.7367, -86.9946, 48.3285
5.284, 6, 29.6326, 50.5558, 3.97305, 77.6819, -87.0302, 48.38
5.288, 6, 29.6133, 50.5419, 4.02772, 77.6331, -87.062, 48.4259
5.292, 6, 29.5956, 50.5296, 4.07599, 77.5902, -87.0901, 48.4663
5.296, 6, 29.5793, 50.5189, 4.11808, 77.5529, -87.1146, 48.5014
5.3, 6, 29.5643, 50.5097, 4.15432, 77.5209, -87.1356, 48.5315
5.304, 6, 29.5508, 50.502, 4.18511, 77.4938, -87.1534, 48.5569
5.308, 6, 29.5387, 50.4956, 4.2109, 77.4713, -87.1683, 48.5781
5.312, 6, 29.528, 50.4903, 4.23219, 77.4528, -87.1805, 48.5954
5.316, 7, 29.5187, 50.486, 4.24949, 77.4379, -87.1904, 48.6094
5.32, 7, 29.5106, 50.4827, 4.26331, 77.426, -87.1983, 48.6205
5.324, 7, 29.5035, 50.48, 4.27417, 77.4168, -87.2045, 48.6292
5.328, 7, 29.4972, 50.478, 4.28253, 77.4098, -87.2092, 48.6357
5.332, 7, 29.4917, 50.4765, 4.28884, 77.4046, -87.2126, 48.6406
5.336, 7, 29.487, 50.4755, 4.2935, 77.4009, -87.2152, 48.6441
5.34, 7, 29.483, 50.4747, 4.29688, 77.3982, -87.217, 48.6466
5.344, 7, 29.4797, 50.4742, 4.29927, 77.3963, -87.2183, 48.6484
5.348, 7, 29.4772, 50.4738, 4.30095, 77.3951, -87.2192, 48.6496
5.352, 7, 29.4753, 50.4735, 4.3021, 77.3942, -87.2198, 48.6504
5.356, 7, 29.4738, 50.4733, 4.30291, 77.3936, -87.2202, 48.651
5.36, 7, 29.4724, 50.4731, 4.30353, 77.3932, -87.2205, 48.6514
5.364, 7, 29.4708, 50.4727, 4.30411, 77.3928, -87.2207, 48.6517
5.368, 7, 29.4689, 50.4721, 4.3048, 77.3924, -87.2209, 48.6521
5.372, 7, 29.4665, 50.4713, 4.3058, 77.3919, -87.2212, 48.6526
5.376, 7, 29.4635, 50.47, 4.30735, 77.3911, -87.2215, 48.6535
5.38, 7, 29.4599, 50.4682, 4.30974, 77.3897, -87.222, 48.655
5.384, 7, 29.4556, 50.4656, 4.31334, 77.3875, -87.2228, 48.6573
5.388, 7, 29.4505, 50.462, 4.31858, 77.3843, -87.224, 48.6607
5.392, 7, 29.4445, 50.4572, 4.32599, 77.3796, -87.2256, 48.6658
5.396, 7, 29.4373, 50.4509, 4.33615, 77.3729, -87.2278, 48.6728
5.4, 7, 29.4288, 50.4431, 4.34972, 77.364, -87.2308, 48.6823
5.404, 7, 29.4188, 50.4336, 4.36739, 77.3521, -87.2347, 48.6949
5.408, 7, 29.4073, 50.4222, 4.38987, 77.3368, -87.2398, 48.7112
5.412, 7, 29.3944, 50.4089, 4.41786, 77.3174, -87.246, 48.7317
5.416, 7, 29.38, 50.3935, 4.45202, 77.2936, -87.2538, 48.7569
5.42, 7, 29.3643, 50.376, 4.4929, 77.2648, -87.2631, 48.7874
5.424, 7, 29.347, 50.3561, 4.54097, 77.2307, -87.2741, 48.8236
5.428, 7, 29.3283, 50.3338, 4.59655, 77.1909, -87.2868, 48.8655
5.432, 7, 29.3079, 50.3089, 4.65979, 77.1455, -87.3014, 48.9135
5.436, 7, 29.2858, 50.2816, 4.73071, 77.0944, -87.3179, 48.9675
5.44, 7, 29.2621, 50.2517, 4.80916, 77.0376, -87.3362, 49.0274
5.444, 7, 29.2368, 50.2196, 4.89484, 76.9753, -87.3563, 49.0929
5.448, 7, 29.2099, 50.1854, 4.98732, 76.908, -87.3781, 49.1638
5.452, 7, 29.1815, 50.1491, 5.08605, 76.8359, -87.4015, 49.2395
5.456, 7, 29.1515, 50.1108, 5.1904, 76.7596, -87.4264, 49.3197
5.46, 7, 29.1199, 50.0708, 5.29972, 76.6795, -87.4527, 49.4037
5.464, 7, 29.0867, 50.0289, 5.41328, 76.5961, -87.4801, 49.491
5.468, 7, 29.0519, 49.9855, 5.53042, 76.5101, -87.5086, 49.581
5.472, 7, 29.0158, 49.9407, 5.65046, 76.4219, -87.5379, 49.6731
5.476, 7, 28.9785, 49.8946, 5.77281, 76.3318, -87.5681, 49.7671
5.48, 7, 28.94, 49.8476, 5.89694, 76.2404, -87.5988, 49.8623
5.484, 7, 28.9005, 49.7998, 6.0224, 76.1478, -87.6302, 49.9586
5.488, 7, 28.8602, 49.7516, 6.14881, 76.0544, -87.662, 50.0556
5.492, 7, 28.8192, 49.7029, 6.27584, 75.9604, -87.6942, 50.1531
5.496, 7, 28.7774, 49.654, 6.40327, 75.866, -87.7267, 50.2508
5.5, 7, 28.735, 49.6049, 6.53089, 75.7712, -87.7595, 50.3488
5.504, 7, 28.6921, 49.5557, 6.65856, 75.6762, -87.7926, 50.4468
5.508, 7, 28.6487, 49.5066, 6.78617, 75.5811, -87.8259, 50.5448
5.512, 7, 28.6051, 49.4575, 6.91364, 75.4858, -87.8595, 50.6428
5.516, 7, 28.5611, 49.4085, 7.04092, 75.3905, -87.8932, 50.7407
5.52, 7, 28.517, 49.3596, 7.16798, 75.2951, -87.9272, 50.8385
5.524, 7, 28.4727, 49.3108, 7.29478, 75.1997, -87.9613, 50.9361
5.528, 7, 28.4282, 49.2622, 7.42133, 75.1042, -87.9957, 51.0336
5.532, 7, 28.3835, 49.2138, 7.54759, 75.0088, -88.0302, 51.131
5.536, 7, 28.3388, 49.1654, 7.67358, 74.9133, -88.065, 51.2282
5.54, 7, 28.2939, 49.1173, 7.79928, 74.8178, -88.0999, 51.3253
5.544, 7, 28.2488, 49.0693, 7.92469, 74.7222, -88.135, 51.4222
5.548, 7, 28.2037, 49.0214, 8.04981, 74.6267, -88.1703, 51.519
5.552, 7, 28.1584, 48.9738, 8.17464, 74.5311, -88.2057, 51.6156
5.556, 7, 28.113, 48.9263, 8.29917, 74.4356, -88.2414, 51.7121
5.56, 7, 28.0675, 48.8789, 8.42342, 74.34, -88.2772, 51.8084
5.564, 7, 28.0219, 48.8317, 8.54737, 74.2444, -88.3132, 51.9046
5.568, 7, 27.9763, 48.7847, 8.67102, 74.1488, -88.3494, 52.0006
5.572, 7, 27.9306, 48.7379, 8.79438, 74.0532, -88.3858, 52.0964
5.576, 7, 27.8848, 48.6912, 8.91742, 73.9576, -88.4223, 52.1921
5.58, 7, 27.8391, 48.6447, 9.04015, 73.8621, -88.459, 52.2876
5.584, 7, 27.7934, 48.5984, 9.16254, 73.7665, -88.4959, 52.3829
5.588, 7, 27.7479, 48.5523, 9.28455, 73.671, -88.5329, 52.478
5.592, 7, 27.7028, 48.5065, 9.40612, 73.5755, -88.5701, 52.5729
5.596, 7, 27.6582, 48.4611, 9.52712, 73.4802, -88.6074, 52.6674
5.6, 7, 27.6143, 48.4162, 9.64738, 73.3852, -88.6447, 52.7616
5.604, 7, 27.5713, 48.3718, 9.76667, 73.2906, -88.6819, 52.8551
5.608, 7, 27.5293, 48.3281, 9.88464, 73.1967, -88.7191, 52.9478
5.612, 7, 27.4884, 48.2854, 10.0009, 73.1039, -88.7559, 53.0393
5.616, 7, 27.4485, 48.2436, 10.1149, 73.0125, -88.7923, 53.1292
5.62, 7, 27.4098, 48.203, 10.2261, 72.9231, -88.828, 53.217
5.624, 7, 27.3721, 48.1637, 10.334, 72.8363, -88.8628, 53.3022
5.628, 7, 27.3357, 48.1259, 10.4378, 72.7525, -88.8965, 53.3843
5.632, 7, 27.3006, 48.0898, 10.537, 72.6723, -88.9289, 53.4628
5.636, 7, 27.2671, 48.0555, 10.631, 72.5962, -88.9596, 53.5372
5.64, 7, 27.2352, 48.0233, 10.7193, 72.5247, -88.9887, 53.607
5.644, 7, 27.2049, 47.9933, 10.8014, 72.4582, -89.0158, 53.6719
5.648, 7, 27.1765, 47.9655, 10.877, 72.3969, -89.0408, 53.7316
5.652, 7, 27.1498, 47.9399, 10.9459, 72.3412, -89.0636, 53.7858
5.656, 7, 27.1248, 47.9168, 11.0079, 72.2911, -89.0842, 53.8346
5.66, 7, 27.1015, 47.8959, 11.0631, 72.2466, -89.1026, 53.8778
5.664, 7, 27.0799, 47.8772, 11.1116, 72.2076, -89.1188, 53.9157
5.668, 7, 27.0602, 47.8608, 11.1538, 72.1739, -89.1328, 53.9485
5.672, 7, 27.0423, 47.8464, 11.19, 72.1451, -89.1448, 53.9764
5.676, 7, 27.0263, 47.8341, 11.2207, 72.1207, -89.155, 54
5.68, 7, 27.0122, 47.8236, 11.2463, 72.1005, -89.1635, 54.0197
5.684, 7, 27, 47.8148, 11.2675, 72.0839, -89.1705, 54.0358
5.688, 8, 26.9895, 47.8075, 11.2847, 72.0705, -89.1762, 54.0488
5.692, 8, 26.9804, 47.8015, 11.2984, 72.0598, -89.1808, 54.0591
5.696, 8, 26.9726, 47.7967, 11.3092, 72.0516, -89.1843, 54.0671
5.7, 8, 26.9658, 47.7928, 11.3176, 72.0452, -89.187, 54.0732
5.704, 8, 26.9598, 47.7898, 11.3239, 72.0405, -89.1891, 54.0778
5.708, 8, 26.9548, 47.7874, 11.3286, 72.0371, -89.1906, 54.0811
5.712, 8, 26.9505, 47.7856, 11.332, 72.0347, -89.1917, 54.0835
5.716, 8, 26.947, 47.7842, 11.3344, 72.033, -89.1924, 54.0851
5.72, 8, 26.9443, 47.7832, 11.3361, 72.0318, -89.1929, 54.0863
5.724, 8, 26.9423, 47.7825, 11.3372, 72.031, -89.1933, 54.0871
5.728, 8, 26.9407, 47.782, 11.338, 72.0305, -89.1936, 54.0876
5.732, 8, 26.9392, 47.7815, 11.3387, 72.0301, -89.1937, 54.088
5.736, 8, 26.9376, 47.7809, 11.3392, 72.0298, -89.1939, 54.0883
5.74, 8, 26.9357, 47.7802, 11.3399, 72.0294, -89.194, 54.0887
5.744, 8, 26.9333, 47.7791, 11.3408, 72.0289, -89.1941, 54.0893
5.748, 8, 26.9303, 47.7775, 11.3421, 72.0282, -89.1943, 54.0903
5.752, 8, 26.9268, 47.7752, 11.3442, 72.0269, -89.1946, 54.0919
5.756, 8, 26.9225, 47.7721, 11.3474, 72.0249, -89.195, 54.0946
5.76, 8, 26.9174, 47.768, 11.352, 72.0219, -89.1956, 54.0985
5.764, 8, 26.9114, 47.7627, 11.3585, 72.0175, -89.1964, 54.1042
5.768, 8, 26.9041, 47.7561, 11.3674, 72.0114, -89.1975, 54.1122
5.772, 8, 26.8954, 47.748, 11.3793, 72.0031, -89.1989, 54.1231
5.776, 8, 26.8851, 47.7383, 11.3947, 71.9921, -89.2008, 54.1374
5.78, 8, 26.8732, 47.7269, 11.4144, 71.9779, -89.2032, 54.156
5.784, 8, 26.8596, 47.7137, 11.439, 71.9599, -89.2061, 54.1794
5.788, 8, 26.8444, 47.6984, 11.4689, 71.9377, -89.2098, 54.2082
5.792, 8, 26.8273, 47.6809, 11.5049, 71.9108, -89.2142, 54.2432
5.796, 8, 26.8084, 47.6611, 11.5473, 71.8789, -89.2193, 54.2847
5.8, 8, 26.7876, 47.6386, 11.5965, 71.8416, -89.2254, 54.3332
5.804, 8, 26.7648, 47.6136, 11.6527, 71.7987, -89.2323, 54.3888
5.808, 8, 26.7399, 47.5858, 11.7161, 71.7501, -89.2402, 54.4518
5.812, 8, 26.713, 47.5554, 11.7865, 71.6958, -89.249, 54.522
5.816, 8, 26.6842, 47.5225, 11.8638, 71.636, -89.2587, 54.5994
5.82, 8, 26.6534, 47.4873, 11.9478, 71.5708, -89.2694, 54.6836
5.824, 8, 26.6207, 47.4499, 12.0379, 71.5006, -89.2809, 54.7742
5.828, 8, 26.5861, 47.4104, 12.1337, 71.4257, -89.2933, 54.8707
5.832, 8, 26.5496, 47.3691, 12.2346, 71.3466, -89.3064, 54.9724
5.836, 8, 26.5112, 47.326, 12.3399, 71.2638, -89.3204, 55.0788
5.84, 8, 26.471, 47.2812, 12.4492, 71.1778, -89.3349, 55.1892
5.844, 8, 26.4292, 47.235, 12.5616, 71.0891, -89.3501, 55.3029
5.848, 8, 26.3859, 47.1873, 12.6767, 70.9981, -89.3658, 55.4194
5.852, 8, 26.3413, 47.1385, 12.7939, 70.9053, -89.382, 55.538
5.856, 8, 26.2955, 47.0886, 12.9127, 70.8109, -89.3986, 55.6584
5.86, 8, 26.2487, 47.038, 13.0326, 70.7154, -89.4156, 55.78
5.864, 8, 26.2008, 46.9868, 13.1534, 70.619, -89.4329, 55.9026
5.868, 8, 26.152, 46.9352, 13.2747, 70.5219, -89.4505, 56.0258
5.872, 8, 26.1024, 46.8832, 13.3963, 70.4243, -89.4684, 56.1495
5.876, 8, 26.0521, 46.8311, 13.518, 70.3264, -89.4865, 56.2734
5.88, 8, 26.0013, 46.779, 13.6396, 70.2281, -89.5049, 56.3974
5.884, 8, 25.95, 46.7269, 13.7612, 70.1297, -89.5235, 56.5215
5.888, 8, 25.8983, 46.6749, 13.8825, 70.031, -89.5423, 56.6456
5.892, 8, 25.8464, 46.623, 14.0036, 69.9323, -89.5612, 56.7697
5.896, 8, 25.7943, 46.5713, 14.1244, 69.8334, -89.5804, 56.8937
5.9, 8, 25.7419, 46.5198, 14.2449, 69.7343, -89.5998, 57.0176
5.904, 8, 25.6894, 46.4685, 14.3651, 69.6352, -89.6194, 57.1414
5.908, 8, 25.6367, 46.4174, 14.485, 69.536, -89.6392, 57.2652
5.912, 8, 25.5838, 46.3665, 14.6046, 69.4366, -89.6591, 57.3888
5.916, 8, 25.5307, 46.3159, 14.7239, 69.3372, -89.6793, 57.5123
5.92, 8, 25.4776, 46.2654, 14.8428, 69.2377, -89.6996, 57.6357
5.924, 8, 25.4242, 46.2152, 14.9614, 69.1381, -89.7201, 57.759
5.928, 8, 25.3707, 46.1652, 15.0797, 69.0384, -89.7408, 57.8822
5.932, 8, 25.3171, 46.1154, 15.1976, 68.9386, -89.7617, 58.0052
5.936, 8, 25.2633, 46.0658, 15.3152, 68.8388, -89.7828, 58.1282
5.94, 8, 25.2094, 46.0165, 15.4325, 68.7388, -89.8041, 58.251
5.944, 8, 25.1553, 45.9674, 15.5494, 68.6388, -89.8256, 58.3738
5.948, 8, 25.1011, 45.9185, 15.6661, 68.5386, -89.8472, 58.4964
5.952, 8, 25.0467, 45.8698, 15.7823, 68.4384, -89.8691, 58.6189
5.956, 8, 24.9922, 45.8214, 15.8983, 68.3381, -89.8911, 58.7412
5.96, 8, 24.9376, 45.7732, 16.0139, 68.2377, -89.9133, 58.8635
5.964, 8, 24.8828, 45.7252, 16.1292, 68.1373, -89.9357, 58.9856
5.968, 8, 24.8278, 45.6774, 16.2442, 68.0367, -89.9583, 59.1077
5.972, 8, 24.7727, 45.6299, 16.3588, 67.9361, -89.9811, 59.2296
5.976, 8, 24.7175, 45.5826, 16.4731, 67.8353, -90.004, 59.3514
5.98, 8, 24.6621, 45.5355, 16.5871, 67.7345, -90.0272, 59.473
5.984, 8, 24.6065, 45.4886, 16.7007, 67.6336, -90.0505, 59.5946
5.988, 8, 24.5509, 45.442, 16.814, 67.5326, -90.074, 59.7161
5.992, 8, 24.495, 45.3956, 16.927, 67.4316, -90.0977, 59.8374
5.996, 8, 24.439, 45.3494, 17.0397, 67.3304, -90.1216, 59.9586
6, 8, 24.3829, 45.3034, 17.152, 67.2292, -90.1457, 60.0797
6.004, 8, 24.3267, 45.2576, 17.264, 67.1279, -90.1699, 60.2007
6.008, 8, 24.2702, 45.2121, 17.3757, 67.0265, -90.1944, 60.3215
6.012, 8, 24.2137, 45.1668, 17.487, 66.925, -90.219, 60.4423
6.016, 8, 24.1569, 45.1217, 17.598, 66.8234, -90.2438, 60.5629
6.02, 8, 24.1001, 45.0769, 17.7087, 66.7218, -90.2688, 60.6834
6.024, 8, 24.0431, 45.0322, 17.8191, 66.6201, -90.294, 60.8038
6.028, 8, 23.9859, 44.9878, 17.9291, 66.5183, -90.3193, 60.9241
6.032, 8, 23.9286, 44.9436, 18.0389, 66.4164, -90.3449, 61.0442
6.036, 8, 23.8711, 44.8997, 18.1482, 66.3144, -90.3706, 61.1643
6.04, 8, 23.8135, 44.8559, 18.2573, 66.2123, -90.3965, 61.2842
6.044, 8, 23.7558, 44.8124, 18.366, 66.1102, -90.4226, 61.404
6.048, 8, 23.6982, 44.7692, 18.4744, 66.008, -90.4489, 61.5237
6.052, 8, 23.6409, 44.7262, 18.5824, 65.9057, -90.4753, 61.6432
6.056, 8, 23.5841, 44.6836, 18.69, 65.8034, -90.5019, 61.7625
