hehonglu123/Motion-Primitive-Planning/ILC/recorded_data/realrobot/from_NX/iteration_5/run_1.csv
timestamp, cmd_num, J1, J2, J3, J4, J5, J6
0.001468, -1, 39.6319, 32.4461, 11.8315, 12.547, 113.714, -48.871
0.007737, -1, 39.6319, 32.4461, 11.8315, 12.547, 113.714, -48.871
0.010429, -1, 39.6319, 32.4461, 11.8315, 12.547, 113.714, -48.871
0.033676, -1, 39.6319, 32.4461, 11.8315, 12.5469, 113.714, -48.8709
0.035071, -1, 39.6319, 32.4461, 11.8315, 12.5469, 113.714, -48.8709
0.037643, -1, 39.6319, 32.4461, 11.8315, 12.5469, 113.714, -48.8709
0.039365, -1, 39.6319, 32.4461, 11.8315, 12.5469, 113.714, -48.8709
0.04751, -1, 39.6319, 32.4461, 11.8315, 12.5469, 113.714, -48.8708
0.055459, -1, 39.6317, 32.446, 11.8315, 12.5469, 113.714, -48.8709
0.063437, -1, 39.6305, 32.4458, 11.8315, 12.5469, 113.714, -48.871
0.071509, -1, 39.6268, 32.445, 11.8314, 12.5469, 113.714, -48.871
0.07943, -1, 39.6199, 32.4429, 11.8314, 12.5469, 113.714, -48.8715
0.088421, -1, 39.609, 32.4389, 11.8313, 12.5469, 113.713, -48.8743
0.095501, -1, 39.5928, 32.4321, 11.8313, 12.5469, 113.71, -48.882
0.10342, -1, 39.5689, 32.4216, 11.8315, 12.5469, 113.705, -48.8977
0.111428, -1, 39.5354, 32.4066, 11.8326, 12.5469, 113.696, -48.9243
0.119497, -1, 39.4917, 32.386, 11.8359, 12.5469, 113.68, -48.9658
0.12745, -1, 39.4361, 32.359, 11.8425, 12.5469, 113.657, -49.0264
0.135417, -1, 39.3674, 32.325, 11.8529, 12.547, 113.625, -49.1092
0.143508, -1, 39.2852, 32.2833, 11.8682, 12.5471, 113.583, -49.216
0.151431, -1, 39.1891, 32.2337, 11.8884, 12.5474, 113.532, -49.3487
0.159421, -1, 39.0789, 32.1762, 11.913, 12.5482, 113.469, -49.5064
0.167581, -1, 38.9549, 32.111, 11.9417, 12.5493, 113.398, -49.6879
0.175448, -1, 38.8181, 32.0389, 11.9741, 12.551, 113.317, -49.8903
0.183463, -1, 38.6694, 31.9606, 12.0094, 12.5529, 113.231, -50.1106
0.191776, -1, 38.5098, 31.8767, 12.0464, 12.5551, 113.138, -50.3447
0.199538, -1, 38.3413, 31.7884, 12.0848, 12.5574, 113.041, -50.589
0.20753, -1, 38.1658, 31.6967, 12.1238, 12.5598, 112.942, -50.84
0.216049, -1, 37.9847, 31.6023, 12.1628, 12.5623, 112.841, -51.0951
0.225636, -1, 37.799, 31.5062, 12.2016, 12.5646, 112.739, -51.3527
0.231627, -1, 37.61, 31.4088, 12.2404, 12.567, 112.637, -51.6119
0.240054, -1, 37.4189, 31.311, 12.2791, 12.5695, 112.534, -51.8714
0.247473, -1, 37.227, 31.2131, 12.318, 12.572, 112.432, -52.1309
0.255761, -1, 37.0348, 31.1153, 12.3568, 12.5745, 112.329, -52.3907
0.264343, -1, 36.8428, 31.0175, 12.3955, 12.5771, 112.226, -52.6509
0.271571, -1, 36.651, 30.9198, 12.4343, 12.5796, 112.123, -52.9114
0.279748, -1, 36.4593, 30.8221, 12.4732, 12.5823, 112.02, -53.1716
0.288411, -1, 36.2677, 30.7244, 12.512, 12.5849, 111.917, -53.4321
0.29579, -1, 36.0762, 30.6265, 12.5508, 12.5874, 111.814, -53.6925
0.304158, -1, 35.8847, 30.5286, 12.5898, 12.5901, 111.711, -53.9533
0.312718, -1, 35.6931, 30.4306, 12.6287, 12.5926, 111.608, -54.2137
0.31993, -1, 35.5011, 30.3325, 12.6675, 12.5952, 111.505, -54.474
0.328785, -1, 35.309, 30.2343, 12.7063, 12.5978, 111.402, -54.7343
0.335984, -1, 35.1166, 30.136, 12.7452, 12.6004, 111.299, -54.995
0.344028, -1, 35.0204, 30.0376, 12.7841, 12.603, 111.196, -55.2559
0.35297, -1, 34.8281, 29.9391, 12.823, 12.6056, 111.093, -55.5164
0.359408, -1, 34.6358, 29.8899, 12.8424, 12.6069, 111.041, -55.6468
0.367453, -1, 34.4436, 29.7915, 12.8813, 12.6094, 110.938, -55.9075
0.375462, -1, 34.2515, 29.6931, 12.9202, 12.612, 110.835, -56.1686
0.509371, -1, 30.972, 28.0177, 13.5821, 12.658, 109.083, -60.6078
0.510803, -1, 30.972, 28.0177, 13.5821, 12.658, 109.083, -60.6078
0.511996, -1, 30.972, 28.0177, 13.5821, 12.658, 109.083, -60.6078
0.514751, -1, 30.8759, 27.9684, 13.6016, 12.6593, 109.032, -60.7385
0.515963, -1, 30.8759, 27.9684, 13.6016, 12.6593, 109.032, -60.7385
0.518294, -1, 30.7799, 27.9191, 13.621, 12.6608, 108.98, -60.8692
0.519645, -1, 30.7799, 27.9191, 13.621, 12.6608, 108.98, -60.8692
0.523564, -1, 30.6838, 27.8698, 13.6405, 12.6622, 108.928, -60.9998
0.525583, -1, 30.6838, 27.8205, 13.66, 12.6636, 108.877, -61.1304
0.526955, -1, 30.5879, 27.8205, 13.66, 12.6636, 108.877, -61.1304
0.528295, -1, 30.5879, 27.8205, 13.66, 12.6636, 108.877, -61.1304
0.530301, -1, 30.4919, 27.7712, 13.6795, 12.665, 108.825, -61.2611
0.531615, -1, 30.4919, 27.7712, 13.6795, 12.665, 108.825, -61.2611
0.533402, -1, 30.4919, 27.7712, 13.6795, 12.665, 108.825, -61.3918
0.534883, -1, 30.3959, 27.7218, 13.699, 12.6664, 108.773, -61.3918
0.540043, -1, 30.2999, 27.6724, 13.7185, 12.6678, 108.722, -61.5226
0.542176, -1, 30.2038, 27.623, 13.738, 12.6691, 108.67, -61.6535
0.543411, -1, 30.2038, 27.623, 13.738, 12.6691, 108.67, -61.6535
0.544673, -1, 30.2038, 27.623, 13.738, 12.6691, 108.67, -61.6535
0.547586, -1, 30.1076, 27.5737, 13.7575, 12.6704, 108.619, -61.7845
0.54884, -1, 30.1076, 27.5737, 13.7575, 12.6704, 108.619, -61.7845
0.551387, -1, 30.0114, 27.5243, 13.777, 12.6718, 108.567, -61.9152
0.559509, -1, 29.8187, 27.4256, 13.816, 12.6745, 108.464, -62.1767
0.567449, -1, 29.6254, 27.3268, 13.8548, 12.6771, 108.361, -62.4384
0.57541, -1, 29.4314, 27.228, 13.8938, 12.6798, 108.258, -62.7002
0.583474, -1, 29.2374, 27.1292, 13.9328, 12.6823, 108.154, -62.962
0.591402, -1, 29.0431, 27.0303, 13.9717, 12.6848, 108.051, -63.2234
0.599476, -1, 28.8487, 26.9314, 14.0107, 12.6874, 107.947, -63.4848
0.607427, -1, 28.6546, 26.8325, 14.0497, 12.6899, 107.844, -63.7465
0.615474, -1, 28.4605, 26.7337, 14.0887, 12.6923, 107.741, -64.0084
0.6234, -1, 28.2669, 26.6349, 14.1277, 12.6948, 107.637, -64.2699
0.631413, -1, 28.0737, 26.5361, 14.1667, 12.6972, 107.534, -64.5315
0.639507, -1, 27.8808, 26.4373, 14.2057, 12.6996, 107.431, -64.7932
0.647426, -1, 27.6881, 26.3384, 14.2447, 12.7021, 107.327, -65.0551
0.65544, -1, 27.4958, 26.2395, 14.2836, 12.7045, 107.224, -65.3167
0.663444, -1, 27.3037, 26.1405, 14.3227, 12.7069, 107.121, -65.5783
0.801967, -1, 24.0185, 24.4603, 14.9851, 12.7462, 105.366, -70.0272
0.803902, -1, 23.9221, 24.411, 15.0046, 12.7474, 105.314, -70.158
0.806022, -1, 23.9221, 24.411, 15.0046, 12.7474, 105.314, -70.158
0.808004, -1, 23.8257, 24.3615, 15.0241, 12.7486, 105.262, -70.2888
0.809431, -1, 23.8257, 24.3615, 15.0241, 12.7486, 105.262, -70.2888
0.810629, -1, 23.8257, 24.3615, 15.0241, 12.7486, 105.262, -70.2888
0.812692, -1, 23.7292, 24.3121, 15.0435, 12.7499, 105.21, -70.4196
0.82048, -1, 23.5361, 24.2133, 15.0825, 12.7522, 105.107, -70.6816
0.822121, -1, 23.5361, 24.2133, 15.0825, 12.7522, 105.107, -70.6816
0.824778, -1, 23.4393, 24.1638, 15.102, 12.7534, 105.055, -70.8124
0.826033, -1, 23.4393, 24.1638, 15.102, 12.7534, 105.055, -70.8124
0.827946, -1, 23.3425, 24.1144, 15.1214, 12.7546, 105.004, -70.9432
0.830191, -1, 23.3425, 24.1144, 15.1214, 12.7546, 105.004, -70.9432
0.832028, -1, 23.2456, 24.065, 15.1409, 12.7559, 104.952, -71.074
0.833522, -1, 23.2456, 24.065, 15.1409, 12.7559, 104.952, -71.074
0.836956, -1, 23.1488, 24.0155, 15.1603, 12.7571, 104.9, -71.2049
0.838186, -1, 23.1488, 24.0155, 15.1603, 12.7571, 104.9, -71.2049
0.840037, -1, 23.0518, 23.9661, 15.1797, 12.7583, 104.849, -71.3357
0.841493, -1, 23.0518, 23.9661, 15.1797, 12.7583, 104.849, -71.3357
0.842847, -1, 23.0518, 23.9661, 15.1797, 12.7583, 104.849, -71.3357
0.844806, -1, 22.9548, 23.9166, 15.1992, 12.7596, 104.797, -71.4667
0.846152, -1, 22.9548, 23.9166, 15.1992, 12.7596, 104.797, -71.4667
0.849451, -1, 22.8577, 23.8672, 15.2186, 12.7608, 104.745, -71.5976
0.856022, -1, 22.7607, 23.8178, 15.2381, 12.762, 104.642, -71.8595
0.864055, -1, 22.5669, 23.7191, 15.2771, 12.7646, 104.538, -72.1208
0.871392, -1, 22.3732, 23.6205, 15.3161, 12.767, 104.487, -72.2515
0.8795, -1, 22.18, 23.5218, 15.355, 12.7696, 104.383, -72.513
0.887485, -1, 21.9868, 23.4231, 15.394, 12.7722, 104.28, -72.7747
0.895423, -1, 21.794, 23.3244, 15.433, 12.7748, 104.177, -73.0362
0.903414, -1, 21.6018, 23.2256, 15.4719, 12.7775, 104.074, -73.2974
0.911439, -1, 21.4097, 23.1269, 15.5108, 12.7801, 103.971, -73.5588
0.919386, -1, 21.2174, 23.0282, 15.5498, 12.7828, 103.867, -73.8204
0.927406, -1, 21.0249, 22.9295, 15.5887, 12.7855, 103.764, -74.082
0.935428, -1, 20.8325, 22.8309, 15.6276, 12.7882, 103.661, -74.3431
0.945748, -1, 20.5437, 22.6831, 15.686, 12.7923, 103.506, -74.7348
0.951441, -1, 20.4472, 22.6337, 15.7054, 12.7937, 103.455, -74.8655
0.959463, -1, 20.2537, 22.535, 15.7443, 12.7963, 103.352, -75.127
0.967421, -1, 20.0599, 22.4363, 15.7833, 12.799, 103.249, -75.388
0.977019, -1, 19.8663, 22.3377, 15.8414, 12.8031, 103.095, -75.7797
0.983393, -1, 19.6726, 22.239, 15.8608, 12.8044, 103.043, -75.9103
0.992423, -1, 19.479, 22.1405, 15.8998, 12.8073, 102.94, -76.1716
0.999438, -1, 19.2859, 22.0418, 15.9387, 12.8099, 102.837, -76.4327
1.00845, -1, 19.093, 21.9431, 15.9776, 12.8127, 102.734, -76.6936
1.0154, -1, 18.9003, 21.8445, 16.0165, 12.8154, 102.631, -76.9544
1.0235, -1, 18.708, 21.7458, 16.0552, 12.8181, 102.528, -77.2155
1.03144, -1, 18.5162, 21.6471, 16.094, 12.8208, 102.425, -77.4764
1.03943, -1, 18.3243, 21.5485, 16.133, 12.8234, 102.322, -77.737
1.04741, -1, 18.1324, 21.45, 16.1717, 12.826, 102.219, -77.9976
1.05543, -1, 17.9406, 21.3516, 16.2106, 12.8285, 102.117, -78.2585
1.06347, -1, 17.7487, 21.2533, 16.2495, 12.831, 102.013, -78.5192
1.0714, -1, 17.5564, 21.1549, 16.2883, 12.8336, 101.911, -78.7797
1.07945, -1, 17.3638, 21.0566, 16.3272, 12.836, 101.808, -79.04
1.08745, -1, 17.1708, 20.9583, 16.366, 12.8384, 101.704, -79.3006
1.09539, -1, 16.9777, 20.86, 16.4048, 12.8408, 101.602, -79.5615
1.10341, -1, 16.7847, 20.7618, 16.4436, 12.8431, 101.499, -79.8218
1.11144, -1, 16.5916, 20.6636, 16.4824, 12.8454, 101.396, -80.0823
1.11939, -1, 16.3986, 20.5654, 16.5211, 12.8478, 101.294, -80.3428
1.12743, -1, 16.206, 20.467, 16.5598, 12.85, 101.191, -80.6035
1.13546, -1, 16.0139, 20.3687, 16.5985, 12.8523, 101.088, -80.8638
1.14339, -1, 15.822, 20.2702, 16.6373, 12.8545, 100.986, -81.1238
1.15141, -1, 15.6305, 20.1717, 16.6759, 12.8569, 100.883, -81.3839
1.15945, -1, 15.4394, 20.0733, 16.7145, 12.8592, 100.78, -81.6441
1.16756, -1, 15.2482, 19.9751, 16.7533, 12.8616, 100.678, -81.9043
1.17567, -1, 15.0572, 19.8768, 16.792, 12.8638, 100.575, -82.1639
1.18342, -1, 14.8659, 19.7787, 16.8307, 12.8661, 100.473, -82.4237
1.19223, -1, 14.6745, 19.6806, 16.8694, 12.8684, 100.37, -82.6838
1.19977, -1, 14.4829, 19.5824, 16.9081, 12.8706, 100.267, -82.9438
1.2075, -1, 14.2908, 19.4843, 16.9467, 12.873, 100.165, -83.2034
1.21624, -1, 14.0985, 19.3863, 16.9855, 12.8752, 100.062, -83.4628
1.22412, -1, 13.9061, 19.2884, 17.0241, 12.8775, 99.9597, -83.7224
1.23245, -1, 13.7136, 19.1906, 17.0626, 12.8798, 99.8575, -83.9821
1.24027, -1, 13.5211, 19.0928, 17.1014, 12.8821, 99.7548, -84.2413
1.24813, -1, 13.3289, 18.9949, 17.14, 12.8844, 99.6524, -84.5007
1.25644, -1, 13.1371, 18.897, 17.1785, 12.8868, 99.5503, -84.7599
1.26423, -1, 12.9458, 18.7991, 17.2171, 12.8891, 99.4477, -85.0193
1.27232, -1, 12.7547, 18.7011, 17.2557, 12.8914, 99.3454, -85.2785
1.27967, -1, 12.5638, 18.6033, 17.2942, 12.8939, 99.2433, -85.5375
1.28893, -1, 12.3735, 18.5055, 17.3328, 12.8963, 99.1408, -85.7963
1.2965, -1, 12.1834, 18.4077, 17.3713, 12.8987, 99.0387, -86.0554
1.30378, -1, 11.9931, 18.3101, 17.4098, 12.9011, 98.9367, -86.3143
1.31191, -1, 11.8027, 18.2125, 17.4485, 12.9035, 98.8346, -86.5728
1.32001, -1, 11.612, 18.1148, 17.487, 12.906, 98.7328, -86.8314
1.32792, -1, 11.4211, 18.0172, 17.5255, 12.9084, 98.6309, -87.09
1.33652, -1, 11.23, 17.9196, 17.5641, 12.9108, 98.5288, -87.3488
1.34417, -1, 11.0386, 17.8221, 17.6026, 12.9133, 98.4271, -87.6071
1.35199, -1, 10.9428, 17.7734, 17.6411, 12.9158, 98.325, -87.8652
1.36003, -1, 10.7511, 17.676, 17.6603, 12.9183, 98.2231, -88.1234
1.3682, -1, 10.5595, 17.5785, 17.6987, 12.9196, 98.1723, -88.2526
1.37538, -1, 10.3682, 17.4811, 17.7371, 12.9222, 98.0705, -88.511
1.38443, -1, 10.0818, 17.3348, 17.7948, 12.926, 97.9176, -88.8981
1.3914, -1, 9.98653, 17.286, 17.814, 12.9274, 97.8668, -89.0271
1.39942, -1, 9.79633, 17.1885, 17.8523, 12.93, 97.7647, -89.2852
1.40742, -1, 9.60636, 17.091, 17.8906, 12.9327, 97.6628, -89.5434
1.41682, -1, 9.32237, 16.945, 17.9481, 12.9369, 97.51, -89.9299
1.4234, -1, 9.22771, 16.8964, 17.9673, 12.9381, 97.459, -90.0586
1.43138, -1, 9.0384, 16.7991, 18.0057, 12.9408, 97.3572, -90.316
1.44082, -1, 8.75414, 16.6533, 18.0632, 12.9448, 97.2048, -90.7026
1.44891, -1, 8.56464, 16.5561, 18.1016, 12.9474, 97.1031, -90.9597
1.45698, -1, 8.37483, 16.459, 18.14, 12.9502, 97.0016, -91.2169
1.46339, -1, 8.27975, 16.4105, 18.1591, 12.9515, 96.9509, -91.3455
1.47144, -1, 8.08929, 16.3136, 18.1974, 12.9541, 96.8491, -91.6027
1.4794, -1, 7.89876, 16.2167, 18.2358, 12.9568, 96.7476, -91.86
1.48954, -1, 7.61285, 16.0714, 18.2931, 12.9607, 96.5954, -92.245
1.49542, -1, 7.5176, 16.0229, 18.3123, 12.9619, 96.5446, -92.3734
1.50445, -1, 7.32735, 15.926, 18.3506, 12.9646, 96.4433, -92.6302
1.51139, -1, 7.13737, 15.829, 18.3887, 12.967, 96.3421, -92.8872
1.51942, -1, 6.94771, 15.732, 18.427, 12.9696, 96.2407, -93.1435
1.52734, -1, 6.75853, 15.6351, 18.4652, 12.9721, 96.1398, -93.3998
1.5354, -1, 6.56978, 15.5383, 18.5032, 12.9746, 96.039, -93.6562
1.54341, -1, 6.38143, 15.4415, 18.5413, 12.9771, 95.9379, -93.9126
1.5514, -1, 6.19338, 15.3448, 18.5795, 12.9796, 95.8369, -94.1688
1.55947, -1, 6.00525, 15.2481, 18.6176, 12.9819, 95.736, -94.4246
1.56741, -1, 5.81691, 15.1514, 18.6558, 12.9843, 95.635, -94.6805
1.57541, -1, 5.62854, 15.0547, 18.6939, 12.9866, 95.5342, -94.9366
1.58341, -1, 5.43991, 14.9582, 18.732, 12.989, 95.4335, -95.1924
1.59137, -1, 5.25101, 14.8617, 18.7702, 12.9912, 95.3327, -95.4478
1.59941, -1, 5.06169, 14.7653, 18.8083, 12.9934, 95.2321, -95.7033
1.60743, -1, 4.87224, 14.6689, 18.8462, 12.9958, 95.1314, -95.9588
1.61538, -1, 4.68282, 14.5725, 18.8844, 12.998, 95.0305, -96.2143
1.62341, -1, 4.4934, 14.4762, 18.9224, 13.0001, 94.9299, -96.4691
1.6314, -1, 4.30434, 14.3798, 18.9604, 13.0023, 94.8291, -96.7239
1.63945, -1, 4.11547, 14.2833, 18.9984, 13.0045, 94.7281, -96.9789
1.64738, -1, 3.92709, 14.187, 19.0363, 13.0069, 94.6275, -97.234
1.65542, -1, 3.73936, 14.0909, 19.0743, 13.009, 94.5266, -97.4889
1.66341, -1, 3.552, 13.9947, 19.1122, 13.0113, 94.4259, -97.7436
1.67138, -1, 3.36503, 13.8986, 19.15, 13.0137, 94.3255, -97.9983
1.67945, -1, 3.17804, 13.8025, 19.1878, 13.016, 94.2247, -98.2532
1.68741, -1, 2.99105, 13.7065, 19.2258, 13.0182, 94.1239, -98.5078
1.69546, -1, 2.80412, 13.6104, 19.2637, 13.0204, 94.0235, -98.762
1.70356, -1, 2.61697, 13.5144, 19.3016, 13.0227, 93.9228, -99.0162
1.71148, -1, 2.42959, 13.4184, 19.3394, 13.0249, 93.8224, -99.2703
1.71947, -1, 2.24203, 13.3226, 19.3771, 13.0272, 93.7222, -99.5245
1.72756, -1, 2.05399, 13.2268, 19.415, 13.0294, 93.6218, -99.7782
1.7355, -1, 1.86584, 13.131, 19.4529, 13.0317, 93.5218, -100.032
1.74338, -1, 1.67758, 13.0351, 19.4906, 13.034, 93.4219, -100.285
1.75148, -1, 1.48939, 12.9394, 19.5284, 13.0362, 93.3217, -100.539
1.75941, -1, 1.30141, 12.8435, 19.5662, 13.0386, 93.2218, -100.793
1.7675, -1, 1.11379, 12.7477, 19.6038, 13.0409, 93.1217, -101.046
1.77563, -1, 0.926763, 12.652, 19.6416, 13.0433, 93.0217, -101.299
1.78355, -1, 0.740175, 12.5565, 19.6793, 13.0457, 92.9219, -101.552
1.79177, -1, 0.55402, 12.461, 19.7169, 13.048, 92.8222, -101.805
1.79973, -1, 0.368234, 12.3656, 19.7545, 13.0505, 92.7223, -102.058
1.80777, -1, 0.182688, 12.2702, 19.7922, 13.0529, 92.623, -102.31
1.81595, -1, -0.00263403, 12.1748, 19.8297, 13.0554, 92.5234, -102.563
1.82453, -1, -0.188175, 12.0795, 19.8674, 13.0578, 92.4238, -102.815
1.83195, -1, -0.373967, 11.9843, 19.9051, 13.0602, 92.3244, -103.068
1.8405, -1, -0.559991, 11.8891, 19.9425, 13.0628, 92.225, -103.32
1.84799, -1, -0.74628, 11.7942, 19.9801, 13.0653, 92.1255, -103.572
1.85597, -1, -0.839536, 11.7466, 19.9989, 13.0678, 92.0261, -103.824
1.86438, -1, -1.11954, 11.604, 20.0551, 13.0702, 91.9267, -104.076
1.87136, -1, -1.21299, 11.5565, 20.0738, 13.0715, 91.877, -104.202
1.87937, -1, -1.39996, 11.4615, 20.1114, 13.074, 91.7778, -104.453
1.88845, -1, -1.67993, 11.3188, 20.1675, 13.0779, 91.6291, -104.83
1.89538, -1, -1.77308, 11.2713, 20.1862, 13.0792, 91.5795, -104.956
1.90339, -1, -1.95918, 11.1763, 20.2237, 13.0818, 91.4803, -105.208
1.91268, -1, -2.23704, 11.0339, 20.2798, 13.0858, 91.3315, -105.584
1.91937, -1, -2.32944, 10.9865, 20.2985, 13.0871, 91.282, -105.709
1.92739, -1, -2.51413, 10.8917, 20.3359, 13.0898, 91.1829, -105.961
1.93692, -1, -2.79022, 10.7496, 20.3917, 13.0938, 91.0343, -106.337
1.9449, -1, -2.97414, 10.6548, 20.4291, 13.0964, 90.9352, -106.588
1.95141, -1, -3.06619, 10.6075, 20.4478, 13.0977, 90.8858, -106.713
1.96098, -1, -3.3426, 10.4655, 20.5036, 13.1015, 90.7374, -107.089
1.96736, -1, -3.43488, 10.4183, 20.5222, 13.1028, 90.688, -107.214
1.97695, -1, -3.61959, 10.2767, 20.5782, 13.1066, 90.5398, -107.59
1.98508, -1, -3.80449, 10.1824, 20.6154, 13.109, 90.4409, -107.839
1.99136, -1, -3.98968, 10.1352, 20.634, 13.1102, 90.3916, -107.964
2.00037, -1, -4.17503, 10.0409, 20.6712, 13.1127, 90.293, -108.214
2.00737, -1, -4.36071, 9.94662, 20.7083, 13.1151, 90.1944, -108.464
2.01637, -1, -4.54617, 9.85225, 20.7456, 13.1174, 90.0957, -108.714
2.02337, -1, -4.73128, 9.75799, 20.7828, 13.1197, 89.9973, -108.963
2.03136, -1, -4.91604, 9.66383, 20.8199, 13.1221, 89.8989, -109.213
2.0402, -1, -5.10017, 9.5698, 20.8569, 13.1245, 89.8003, -109.462
2.04842, -1, -5.28362, 9.47572, 20.8941, 13.1268, 89.7021, -109.711
2.05537, -1, -5.4668, 9.38177, 20.9312, 13.1291, 89.6036, -109.96
2.06419, -1, -5.64951, 9.28785, 20.9682, 13.1314, 89.5053, -110.209
2.07139, -1, -5.83189, 9.19393, 21.0053, 13.1337, 89.4073, -110.458
2.07939, -1, -6.01435, 9.10002, 21.0423, 13.136, 89.3091, -110.707
2.08828, -1, -6.19695, 9.00613, 21.0793, 13.1381, 89.2109, -110.955
2.09536, -1, -6.37975, 8.91244, 21.1164, 13.1404, 89.1133, -111.203
2.10339, -1, -6.56277, 8.81881, 21.1532, 13.1425, 89.0153, -111.452
2.11215, -1, -6.74611, 8.72514, 21.19, 13.1447, 88.9172, -111.7
2.11937, -1, -6.9299, 8.63156, 21.227, 13.1469, 88.8195, -111.948
2.12736, -1, -7.11387, 8.53797, 21.2638, 13.149, 88.7215, -112.196
2.13622, -1, -7.29812, 8.44442, 21.3007, 13.1511, 88.6237, -112.443
2.14338, -1, -7.48208, 8.35076, 21.3376, 13.1532, 88.5261, -112.691
2.15137, -1, -7.66579, 8.25724, 21.3744, 13.1554, 88.4285, -112.938
2.16016, -1, -7.84917, 8.16382, 21.4112, 13.1576, 88.3309, -113.186
2.16737, -1, -8.03198, 8.07042, 21.4481, 13.1599, 88.2337, -113.433
2.17546, -1, -8.21408, 7.97715, 21.4848, 13.1621, 88.1363, -113.68
2.18416, -1, -8.39568, 7.88389, 21.5216, 13.1643, 88.0388, -113.927
2.1914, -1, -8.57687, 7.79063, 21.5585, 13.1666, 87.9416, -114.174
2.1997, -1, -8.75777, 7.69746, 21.5953, 13.1689, 87.8441, -114.42
2.2084, -1, -8.9385, 7.60431, 21.632, 13.1711, 87.7466, -114.667
2.21547, -1, -9.1194, 7.51125, 21.6687, 13.1733, 87.6495, -114.913
2.22386, -1, -9.30056, 7.41832, 21.7054, 13.1755, 87.5522, -115.16
2.23226, -1, -9.48202, 7.32553, 21.742, 13.1777, 87.455, -115.406
2.2395, -1, -9.66379, 7.23268, 21.7787, 13.1799, 87.3581, -115.652
2.24809, -1, -9.84593, 7.13997, 21.8153, 13.1822, 87.2608, -115.898
2.25643, -1, -10.0284, 7.04725, 21.8519, 13.1844, 87.1636, -116.144
2.26339, -1, -10.2111, 6.95447, 21.8885, 13.1866, 87.0666, -116.39
2.27227, -1, -10.3937, 6.86168, 21.9251, 13.1888, 86.9693, -116.635
2.28041, -1, -10.5761, 6.76897, 21.9617, 13.191, 86.8722, -116.881
2.28773, -1, -10.7581, 6.6763, 21.9982, 13.1934, 86.7753, -117.126
2.29646, -1, -10.9397, 6.5837, 22.0346, 13.1958, 86.6783, -117.372
2.30446, -1, -11.1205, 6.49117, 22.0711, 13.1982, 86.5816, -117.617
2.31183, -1, -11.3006, 6.39868, 22.1077, 13.2006, 86.4851, -117.861
2.32063, -1, -11.4804, 6.3062, 22.1442, 13.203, 86.3883, -118.106
2.32787, -1, -11.6599, 6.2138, 22.1806, 13.2055, 86.2915, -118.351
2.33612, -1, -11.8392, 6.12142, 22.2172, 13.208, 86.195, -118.596
2.34476, -1, -12.0184, 6.02914, 22.2536, 13.2104, 86.0983, -118.84
2.35195, -1, -12.1977, 5.93697, 22.29, 13.2129, 86.0018, -119.084
2.35999, -1, -12.2875, 5.84496, 22.3265, 13.2154, 85.9056, -119.328
2.36882, -1, -12.5575, 5.75294, 22.3627, 13.2178, 85.8092, -119.572
2.37534, -1, -12.6476, 5.70695, 22.3808, 13.219, 85.7611, -119.694
2.3834, -1, -12.8283, 5.61496, 22.4171, 13.2216, 85.6649, -119.938
2.39135, -1, -13.0094, 5.52305, 22.4535, 13.2241, 85.5691, -120.182
2.39936, -1, -13.1906, 5.43104, 22.4897, 13.2265, 85.473, -120.425
2.40749, -1, -13.3718, 5.33902, 22.5259, 13.2289, 85.3771, -120.669
2.41535, -1, -13.5526, 5.24709, 22.5622, 13.2314, 85.2816, -120.912
2.42334, -1, -13.733, 5.15526, 22.5983, 13.234, 85.1856, -121.155
2.43136, -1, -13.913, 5.06341, 22.6345, 13.2365, 85.0898, -121.398
2.43937, -1, -14.0921, 4.97165, 22.6707, 13.2391, 84.9944, -121.641
2.44882, -1, -14.3595, 4.83417, 22.7247, 13.243, 84.8509, -122.006
2.45535, -1, -14.4486, 4.78838, 22.7428, 13.2442, 84.8031, -122.127
2.4649, -1, -14.7151, 4.65096, 22.7972, 13.248, 84.6597, -122.49
2.47294, -1, -14.8927, 4.55949, 22.8332, 13.2504, 84.564, -122.733
2.47938, -1, -14.9815, 4.51375, 22.8512, 13.2517, 84.5161, -122.854
2.48735, -1, -15.1594, 4.42242, 22.8874, 13.2541, 84.4206, -123.096
2.4954, -1, -15.3377, 4.33113, 22.9235, 13.2565, 84.3249, -123.338
2.50441, -1, -15.5163, 4.23981, 22.9594, 13.2588, 84.2291, -123.58
2.51135, -1, -15.6954, 4.14855, 22.9955, 13.2611, 84.1339, -123.822
2.51941, -1, -15.8746, 4.05732, 23.0314, 13.2634, 84.0382, -124.063
2.52734, -1, -16.054, 3.9661, 23.0673, 13.2656, 83.9427, -124.305
2.53535, -1, -16.2339, 3.87482, 23.1034, 13.2677, 83.8475, -124.546
2.54341, -1, -16.4134, 3.78362, 23.1393, 13.2699, 83.7519, -124.788
2.55136, -1, -16.5926, 3.69249, 23.1751, 13.2721, 83.6566, -125.029
2.55941, -1, -16.7713, 3.60138, 23.2109, 13.2743, 83.5613, -125.27
2.56736, -1, -16.9493, 3.51031, 23.2468, 13.2766, 83.4657, -125.511
2.57538, -1, -17.1265, 3.41933, 23.2826, 13.2787, 83.3705, -125.752
2.58341, -1, -17.3031, 3.32844, 23.3185, 13.281, 83.2754, -125.993
2.59135, -1, -17.4796, 3.23756, 23.3543, 13.2831, 83.1801, -126.233
2.59936, -1, -17.6558, 3.14682, 23.39, 13.2853, 83.0852, -126.474
2.60745, -1, -17.8317, 3.05622, 23.426, 13.2874, 82.9906, -126.714
2.61534, -1, -18.0079, 2.96563, 23.4618, 13.2895, 82.8956, -126.954
2.62335, -1, -18.1842, 2.87524, 23.4975, 13.2916, 82.8008, -127.194
2.63141, -1, -18.3609, 2.78485, 23.5333, 13.2937, 82.7063, -127.434
2.63936, -1, -18.5382, 2.69443, 23.569, 13.2958, 82.6115, -127.674
2.64738, -1, -18.7158, 2.60411, 23.6046, 13.2978, 82.5169, -127.913
2.65541, -1, -18.8936, 2.51373, 23.6403, 13.2998, 82.4225, -128.153
2.66334, -1, -19.0718, 2.42326, 23.676, 13.3018, 82.328, -128.392
2.67164, -1, -19.25, 2.3329, 23.7115, 13.3038, 82.2336, -128.631
2.67935, -1, -19.428, 2.2425, 23.7471, 13.3059, 82.1396, -128.871
2.68736, -1, -19.6054, 2.15212, 23.7827, 13.3081, 82.0454, -129.11
2.69568, -1, -19.7821, 2.06181, 23.818, 13.3102, 81.9513, -129.349
2.70342, -1, -19.9583, 1.97152, 23.8535, 13.3124, 81.8571, -129.588
2.71144, -1, -20.1338, 1.88128, 23.8892, 13.3145, 81.7631, -129.826
2.71985, -1, -20.3088, 1.79115, 23.9246, 13.3167, 81.6691, -130.064
2.72746, -1, -20.4835, 1.70105, 23.96, 13.319, 81.575, -130.303
2.73546, -1, -20.658, 1.61108, 23.9957, 13.3211, 81.4813, -130.541
2.74404, -1, -20.8325, 1.52115, 24.0311, 13.3233, 81.3873, -130.78
2.75242, -1, -21.0073, 1.43136, 24.0665, 13.3255, 81.2936, -131.017
2.75937, -1, -21.1825, 1.34165, 24.102, 13.3277, 81.2, -131.255
2.76823, -1, -21.3581, 1.25189, 24.1374, 13.3299, 81.106, -131.493
2.77542, -1, -21.534, 1.16224, 24.1727, 13.3321, 81.0121, -131.731
2.78351, -1, -21.7101, 1.0726, 24.2082, 13.3342, 80.9184, -131.968
2.79162, -1, -21.8863, 0.982922, 24.2436, 13.3364, 80.8246, -132.205
2.79966, -1, -22.0629, 0.893337, 24.2789, 13.3385, 80.7308, -132.443
2.80777, -1, -22.2395, 0.803772, 24.3143, 13.3407, 80.6373, -132.68
2.81585, -1, -22.4158, 0.714284, 24.3496, 13.3429, 80.5436, -132.917
2.82442, -1, -22.5916, 0.624732, 24.3847, 13.3453, 80.45, -133.154
2.83191, -1, -22.7669, 0.535283, 24.42, 13.3476, 80.3566, -133.391
2.84051, -1, -22.9413, 0.445865, 24.4552, 13.35, 80.2628, -133.627
2.8479, -1, -23.115, 0.356444, 24.4904, 13.3525, 80.1694, -133.864
2.85645, -1, -23.2885, 0.267126, 24.5255, 13.3549, 80.076, -134.101
2.86409, -1, -23.3751, 0.222465, 24.5432, 13.3561, 79.9824, -134.337
2.87133, -1, -23.5482, 0.133281, 24.5784, 13.3585, 79.9357, -134.455
2.88036, -1, -23.8082, -0.000425731, 24.6312, 13.3621, 79.7959, -134.81
2.88736, -1, -23.8949, -0.0449345, 24.6488, 13.3633, 79.7494, -134.928
2.89533, -1, -24.0684, -0.133855, 24.6839, 13.3658, 79.6561, -135.164
2.90448, -1, -24.3292, -0.267351, 24.7365, 13.3695, 79.5166, -135.517
2.91137, -1, -24.4163, -0.311814, 24.7542, 13.3707, 79.4702, -135.635
2.91933, -1, -24.5908, -0.400685, 24.7893, 13.3731, 79.377, -135.871
2.92863, -1, -24.8531, -0.534044, 24.8418, 13.3767, 79.2374, -136.224
2.93534, -1, -24.9406, -0.578471, 24.8594, 13.3779, 79.1911, -136.342
2.9434, -1, -25.1157, -0.66731, 24.8945, 13.3803, 79.0979, -136.577
2.95282, -1, -25.3776, -0.800466, 24.947, 13.3839, 78.9588, -136.929
2.96094, -1, -25.5518, -0.889302, 24.9821, 13.3863, 78.8662, -137.165
2.9674, -1, -25.6387, -0.93367, 24.9995, 13.3876, 78.8197, -137.282
2.97695, -1, -25.8982, -1.06669, 25.0517, 13.3911, 78.6808, -137.634
2.98509, -1, -25.9845, -1.11107, 25.0868, 13.3936, 78.5886, -137.869
2.99139, -1, -26.1568, -1.19972, 25.1043, 13.3948, 78.5422, -137.986
3.00108, -1, -26.3286, -1.28828, 25.1391, 13.3972, 78.4497, -138.338
3.00738, -1, -26.5004, -1.37675, 25.174, 13.3995, 78.3572, -138.455
3.01636, -1, -26.6724, -1.46513, 25.209, 13.4017, 78.2648, -138.689
3.02437, -1, -26.8445, -1.55338, 25.2439, 13.404, 78.1723, -138.923
3.03134, -1, -27.0169, -1.64154, 25.2788, 13.4063, 78.0799, -139.157
3.0394, -1, -27.1894, -1.72976, 25.3137, 13.4084, 77.9879, -139.391
3.04733, -1, -27.3621, -1.81794, 25.3485, 13.4106, 77.8956, -139.625
3.05534, -1, -27.5352, -1.906, 25.3833, 13.4128, 77.8036, -139.858
3.0634, -1, -27.7084, -1.99419, 25.4182, 13.4148, 77.7118, -140.092
3.07134, -1, -27.8816, -2.08232, 25.453, 13.4169, 77.6196, -140.325
3.0794, -1, -28.0548, -2.17032, 25.4878, 13.4189, 77.5275, -140.559
3.08738, -1, -28.2281, -2.25835, 25.5225, 13.421, 77.4357, -140.792
3.09532, -1, -28.401, -2.34641, 25.5574, 13.423, 77.3435, -141.025
3.10351, -1, -28.5736, -2.4344, 25.5921, 13.4252, 77.2514, -141.258
3.11133, -1, -28.7457, -2.52234, 25.6268, 13.4273, 77.1595, -141.49
3.11933, -1, -28.9171, -2.61036, 25.6616, 13.4295, 77.0675, -141.723
3.12813, -1, -29.0879, -2.69827, 25.6962, 13.4317, 76.9755, -141.956
3.13532, -1, -29.2585, -2.7861, 25.7308, 13.4337, 76.8838, -142.189
3.14332, -1, -29.4291, -2.87389, 25.7656, 13.4358, 76.7918, -142.421
3.15213, -1, -29.5999, -2.96152, 25.8002, 13.4378, 76.7, -142.653
3.15933, -1, -29.7709, -3.04909, 25.8347, 13.4398, 76.6083, -142.886
3.16733, -1, -29.9419, -3.13665, 25.8694, 13.4419, 76.5164, -143.118
3.17544, -1, -30.1128, -3.22411, 25.904, 13.444, 76.4247, -143.35
3.18333, -1, -30.2838, -3.31158, 25.9385, 13.4461, 76.333, -143.582
3.19142, -1, -30.4552, -3.39901, 25.9731, 13.4482, 76.2416, -143.814
3.20017, -1, -30.6269, -3.48654, 26.0076, 13.4502, 76.1499, -144.046
3.20743, -1, -30.7987, -3.57393, 26.0421, 13.4522, 76.0585, -144.277
3.21548, -1, -30.9706, -3.66128, 26.0766, 13.4542, 75.9674, -144.508
3.22465, -1, -31.1423, -3.74862, 26.1112, 13.4562, 75.8758, -144.739
3.23143, -1, -31.3138, -3.83591, 26.1456, 13.4583, 75.7845, -144.971
3.23953, -1, -31.485, -3.92323, 26.18, 13.4604, 75.6933, -145.202
3.24742, -1, -31.6556, -4.01045, 26.2145, 13.4626, 75.6019, -145.433
3.25547, -1, -31.8258, -4.09773, 26.2488, 13.4647, 75.5107, -145.664
3.26343, -1, -31.9956, -4.18498, 26.2832, 13.4669, 75.4198, -145.895
3.27136, -1, -32.1651, -4.27212, 26.3177, 13.4691, 75.3286, -146.126
3.27949, -1, -32.3345, -4.35921, 26.352, 13.4713, 75.2375, -146.357
3.28756, -1, -32.5041, -4.44619, 26.3862, 13.4734, 75.1467, -146.587
3.29554, -1, -32.6738, -4.53311, 26.4207, 13.4756, 75.0558, -146.817
3.30395, -1, -32.8435, -4.62002, 26.455, 13.4778, 74.9651, -147.048
3.31239, -1, -33.0131, -4.70693, 26.4892, 13.4799, 74.8743, -147.278
3.31975, -1, -33.1829, -4.79385, 26.5234, 13.4821, 74.7838, -147.508
3.32793, -1, -33.3528, -4.8807, 26.5578, 13.4844, 74.6931, -147.738
3.33648, -1, -33.523, -4.96762, 26.592, 13.4865, 74.6024, -147.968
3.34388, -1, -33.6934, -5.0545, 26.6262, 13.4887, 74.5121, -148.198
3.35215, -1, -33.8636, -5.14123, 26.6605, 13.491, 74.4214, -148.428
3.35987, -1, -33.9487, -5.18459, 26.6946, 13.4932, 74.3308, -148.657
3.36984, -1, -34.204, -5.31468, 26.7287, 13.4955, 74.2405, -148.887
3.37602, -1, -34.2891, -5.358, 26.7459, 13.4966, 74.1952, -149.116
3.38332, -1, -34.459, -5.4446, 26.7802, 13.4989, 74.1045, -149.231
3.39131, -1, -34.6285, -5.53126, 26.8142, 13.5012, 74.014, -149.46
3.40065, -1, -34.8818, -5.66121, 26.8654, 13.5049, 73.8781, -149.804
3.40733, -1, -34.9661, -5.7045, 26.8825, 13.5061, 73.8329, -149.918
3.41536, -1, -35.1344, -5.791, 26.9166, 13.5085, 73.7425, -150.147
3.42468, -1, -35.3869, -5.92063, 26.9677, 13.5122, 73.6071, -150.491
3.43132, -1, -35.4711, -5.96373, 26.9847, 13.5134, 73.5619, -150.605
3.44068, -1, -35.7239, -6.09304, 27.0357, 13.5169, 73.4263, -150.948
3.44733, -1, -35.8082, -6.13615, 27.0527, 13.5181, 73.3814, -151.063
3.45532, -1, -35.9767, -6.22229, 27.0868, 13.5205, 73.2909, -151.291
3.46483, -1, -36.2295, -6.35148, 27.1378, 13.5241, 73.1552, -151.634
3.47295, -1, -36.3982, -6.43765, 27.1716, 13.5265, 73.0651, -151.863
3.48088, -1, -36.567, -6.52389, 27.2057, 13.5288, 72.9745, -152.091
3.48739, -1, -36.6514, -6.56696, 27.2226, 13.53, 72.9294, -152.205
3.49715, -1, -36.8203, -6.65315, 27.2734, 13.5334, 72.7943, -152.547
3.50331, -1, -36.9893, -6.73924, 27.2904, 13.5345, 72.7493, -152.661
3.51142, -1, -37.1581, -6.82539, 27.3244, 13.5368, 72.6591, -152.889
3.52035, -1, -37.3268, -6.91144, 27.3582, 13.539, 72.5692, -153.117
3.52732, -1, -37.4952, -6.99747, 27.3921, 13.5413, 72.4795, -153.344
3.53531, -1, -37.6631, -7.08354, 27.4261, 13.5435, 72.3894, -153.572
3.54338, -1, -37.8308, -7.16956, 27.4599, 13.5457, 72.2996, -153.799
3.55132, -1, -37.9983, -7.25549, 27.4937, 13.5479, 72.21, -154.027
3.55932, -1, -38.1658, -7.34141, 27.5276, 13.5501, 72.1201, -154.254
3.56739, -1, -38.3332, -7.4272, 27.5615, 13.5524, 72.0304, -154.482
3.57532, -1, -38.5005, -7.51288, 27.5953, 13.5545, 71.9409, -154.709
3.58334, -1, -38.6677, -7.5986, 27.6292, 13.5565, 71.8512, -154.936
3.59139, -1, -38.835, -7.68429, 27.663, 13.5586, 71.7617, -155.163
3.59931, -1, -39.0023, -7.76995, 27.6967, 13.5607, 71.6724, -155.39
3.60732, -1, -39.1697, -7.85557, 27.7304, 13.5627, 71.5832, -155.617
3.61538, -1, -39.3372, -7.94131, 27.7643, 13.5647, 71.4937, -155.843
3.62331, -1, -39.5048, -8.02697, 27.798, 13.5666, 71.4042, -156.07
3.63132, -1, -39.6725, -8.11252, 27.8316, 13.5686, 71.3152, -156.297
3.63942, -1, -39.8401, -8.19801, 27.8654, 13.5706, 71.2256, -156.523
3.64731, -1, -40.0077, -8.2835, 27.8991, 13.5725, 71.1363, -156.75
3.65533, -1, -40.1753, -8.36888, 27.9327, 13.5744, 71.0471, -156.976
3.66338, -1, -40.3426, -8.45423, 27.9664, 13.5764, 70.9577, -157.202
3.6714, -1, -40.5097, -8.53963, 28.0001, 13.5784, 70.8685, -157.429
3.67936, -1, -40.6766, -8.625, 28.0337, 13.5803, 70.7794, -157.654
3.68739, -1, -40.8432, -8.71035, 28.0673, 13.5823, 70.6903, -157.88
3.69535, -1, -41.0097, -8.79569, 28.101, 13.5844, 70.6011, -158.106
3.70339, -1, -41.1761, -8.88102, 28.1346, 13.5864, 70.512, -158.332
3.71148, -1, -41.3423, -8.96618, 28.1681, 13.5884, 70.4229, -158.558
3.71941, -1, -41.5086, -9.05135, 28.2018, 13.5904, 70.3337, -158.783
3.72741, -1, -41.6749, -9.13648, 28.2354, 13.5924, 70.2444, -159.009
3.73548, -1, -41.8412, -9.22157, 28.269, 13.5944, 70.1556, -159.234
3.74343, -1, -42.0076, -9.30657, 28.3026, 13.5964, 70.0664, -159.46
3.75152, -1, -42.1739, -9.39166, 28.3362, 13.5984, 69.9774, -159.685
3.7594, -1, -42.3402, -9.47676, 28.3697, 13.6005, 69.8887, -159.91
3.76735, -1, -42.5065, -9.56169, 28.4032, 13.6025, 69.7996, -160.135
3.77543, -1, -42.6729, -9.64667, 28.4367, 13.6045, 69.7108, -160.361
3.78354, -1, -42.8393, -9.73163, 28.4702, 13.6065, 69.6218, -160.586
3.79151, -1, -43.0058, -9.81655, 28.5036, 13.6086, 69.5331, -160.811
3.79957, -1, -43.172, -9.90145, 28.5372, 13.6106, 69.4444, -161.036
3.80775, -1, -43.3381, -9.98638, 28.5706, 13.6127, 69.3556, -161.26
3.81567, -1, -43.5041, -10.0713, 28.6041, 13.6148, 69.2672, -161.485
3.82376, -1, -43.6701, -10.1563, 28.6376, 13.6168, 69.1784, -161.71
3.83199, -1, -43.836, -10.2412, 28.6711, 13.619, 69.09, -161.935
3.84046, -1, -44.0017, -10.326, 28.7045, 13.6211, 69.0017, -162.159
3.84789, -1, -44.1671, -10.4108, 28.738, 13.6232, 68.9129, -162.383
3.85646, -1, -44.3323, -10.4954, 28.7716, 13.6255, 68.8243, -162.608
3.86388, -1, -44.4149, -10.5377, 28.8049, 13.6277, 68.7357, -162.832
3.87231, -1, -44.6627, -10.6645, 28.8383, 13.6299, 68.6471, -163.056
3.87999, -1, -44.7453, -10.7067, 28.8551, 13.631, 68.6027, -163.168
3.88729, -1, -44.9106, -10.7911, 28.8886, 13.6331, 68.5143, -163.392
3.8953, -1, -45.076, -10.8756, 28.922, 13.6354, 68.426, -163.616
3.90446, -1, -45.324, -11.0024, 28.9721, 13.6387, 68.2933, -163.952
3.91132, -1, -45.4066, -11.0446, 28.9889, 13.6398, 68.2491, -164.064
3.91933, -1, -45.5718, -11.129, 29.0221, 13.642, 68.161, -164.288
3.92741, -1, -45.7371, -11.2135, 29.0553, 13.6444, 68.0727, -164.512
3.9353, -1, -45.9021, -11.2978, 29.0888, 13.6466, 67.9843, -164.735
3.9433, -1, -46.0651, -11.381, 29.1222, 13.6489, 67.8959, -164.959
3.95327, -1, -46.3025, -11.5014, 29.1725, 13.6524, 67.7645, -165.291
3.95929, -1, -46.3787, -11.5395, 29.1893, 13.6536, 67.7215, -165.4
3.96885, -1, -46.5943, -11.6464, 29.2383, 13.6571, 67.5977, -165.713
3.97692, -1, -46.724, -11.7098, 29.2682, 13.6593, 67.5229, -165.903
3.98499, -1, -46.8393, -11.766, 29.2946, 13.6613, 67.4558, -166.072
3.99133, -1, -46.8908, -11.7915, 29.3063, 13.6622, 67.4265, -166.147
4.00095, -1, -46.9817, -11.8375, 29.3258, 13.6637, 67.376, -166.328
4.0074, -1, -47.0566, -11.8776, 29.3397, 13.6648, 67.3367, -166.374
4.01533, -1, -47.1166, -11.9109, 29.3489, 13.6654, 67.3082, -166.446
4.02436, -1, -47.1622, -11.9367, 29.3543, 13.6656, 67.2892, -166.494
4.03131, -1, -47.1954, -11.9555, 29.357, 13.6658, 67.2775, -166.523
4.0393, -1, -47.2182, -11.9681, 29.3583, 13.6658, 67.2709, -166.54
4.04736, -1, -47.2325, -11.976, 29.3588, 13.6659, 67.2675, -166.549
4.05531, -1, -47.2406, -11.9802, 29.3591, 13.6659, 67.2659, -166.553
4.06329, 2, -47.2443, -11.9823, 29.3593, 13.666, 67.2651, -166.554
4.07137, 2, -47.2451, -11.9831, 29.3594, 13.666, 67.2647, -166.555
4.07932, 2, -47.2449, -11.9834, 29.3595, 13.666, 67.2645, -166.556
4.08733, 2, -47.2448, -11.9836, 29.3595, 13.666, 67.2645, -166.556
4.09536, 2, -47.2449, -11.9837, 29.3595, 13.6661, 67.2645, -166.556
4.1033, 2, -47.2456, -11.9838, 29.3595, 13.666, 67.2645, -166.556
4.11131, 2, -47.2466, -11.9842, 29.3596, 13.666, 67.2645, -166.556
4.11936, 2, -47.2482, -11.9849, 29.3596, 13.666, 67.2644, -166.556
4.1273, 2, -47.25, -11.9857, 29.3595, 13.666, 67.2645, -166.556
4.1353, 2, -47.2515, -11.9866, 29.3595, 13.6661, 67.2644, -166.556
4.14336, 2, -47.2527, -11.9873, 29.3596, 13.666, 67.2644, -166.556
4.15131, 2, -47.2534, -11.9879, 29.3596, 13.6661, 67.2644, -166.556
4.15931, 2, -47.2537, -11.9881, 29.3596, 13.6661, 67.2644, -166.556
4.16737, 2, -47.2538, -11.9883, 29.3596, 13.6661, 67.2644, -166.556
4.1753, 2, -47.2537, -11.9883, 29.3596, 13.666, 67.2644, -166.556
4.18333, 2, -47.2533, -11.9883, 29.3596, 13.666, 67.2644, -166.556
4.19147, 2, -47.2528, -11.9883, 29.3596, 13.666, 67.2644, -166.556
4.19933, 2, -47.2524, -11.9882, 29.3596, 13.6661, 67.2644, -166.556
4.20739, 2, -47.2521, -11.9882, 29.3596, 13.666, 67.2644, -166.556
4.21544, 2, -47.2521, -11.9883, 29.3596, 13.666, 67.2644, -166.556
4.22339, 2, -47.2521, -11.9884, 29.3596, 13.6661, 67.2644, -166.556
4.23141, 2, -47.2523, -11.9886, 29.3596, 13.666, 67.2645, -166.556
4.24049, 2, -47.2526, -11.989, 29.3596, 13.6661, 67.2645, -166.556
4.24743, 2, -47.2532, -11.9893, 29.3596, 13.666, 67.2645, -166.556
4.25533, 2, -47.2537, -11.9895, 29.3596, 13.666, 67.2645, -166.556
4.2634, 2, -47.2539, -11.9897, 29.3596, 13.666, 67.2645, -166.556
4.27143, 2, -47.254, -11.9897, 29.3596, 13.666, 67.2645, -166.556
4.27935, 2, -47.2539, -11.9897, 29.3596, 13.666, 67.2645, -166.556
4.28778, 2, -47.2538, -11.9897, 29.3596, 13.666, 67.2645, -166.556
4.2955, 2, -47.2535, -11.9896, 29.3596, 13.666, 67.2645, -166.556
4.30355, 2, -47.2531, -11.9896, 29.3596, 13.666, 67.2645, -166.556
4.31201, 2, -47.2528, -11.9895, 29.3596, 13.666, 67.2645, -166.556
4.32038, 2, -47.2526, -11.9895, 29.3596, 13.666, 67.2645, -166.556
4.32775, 2, -47.2524, -11.9896, 29.3596, 13.666, 67.2645, -166.556
4.33623, 2, -47.2523, -11.9896, 29.3596, 13.666, 67.2645, -166.556
4.3438, 2, -47.2523, -11.9897, 29.3596, 13.666, 67.2645, -166.556
4.35241, 2, -47.2523, -11.9898, 29.3596, 13.6661, 67.2645, -166.556
4.36024, 2, -47.2523, -11.9898, 29.3596, 13.666, 67.2645, -166.556
4.36809, 2, -47.2523, -11.9898, 29.3596, 13.666, 67.2645, -166.556
4.37582, 2, -47.2523, -11.9898, 29.3596, 13.666, 67.2645, -166.556
4.3843, 2, -47.2523, -11.9898, 29.3596, 13.666, 67.2645, -166.556
4.39129, 2, -47.2522, -11.9898, 29.3596, 13.666, 67.2645, -166.556
4.39928, 2, -47.2522, -11.9897, 29.3596, 13.666, 67.2645, -166.556
4.40863, 2, -47.2521, -11.9896, 29.3596, 13.666, 67.2645, -166.556
4.41529, 2, -47.252, -11.9896, 29.3596, 13.666, 67.2645, -166.556
4.42332, 2, -47.2519, -11.9896, 29.3596, 13.666, 67.2645, -166.556
4.43283, 2, -47.2518, -11.9896, 29.3596, 13.666, 67.2645, -166.556
4.43928, 2, -47.2517, -11.9896, 29.3596, 13.666, 67.2645, -166.556
4.44867, 2, -47.2516, -11.9896, 29.3596, 13.666, 67.2645, -166.556
4.45533, 2, -47.2516, -11.9896, 29.3596, 13.666, 67.2645, -166.556
4.46328, 2, -47.2516, -11.9896, 29.3596, 13.666, 67.2646, -166.556
4.47129, 2, -47.2515, -11.9896, 29.3596, 13.666, 67.2645, -166.556
4.47936, 2, -47.2514, -11.9896, 29.3596, 13.666, 67.2646, -166.556
4.48728, 2, -47.2514, -11.9896, 29.3596, 13.666, 67.2646, -166.556
4.49691, 2, -47.2513, -11.9896, 29.3596, 13.666, 67.2647, -166.555
4.50335, 2, -47.2512, -11.9895, 29.3596, 13.666, 67.2646, -166.555
4.51129, 2, -47.2511, -11.9895, 29.3596, 13.666, 67.2646, -166.555
4.5203, 2, -47.251, -11.9894, 29.3596, 13.666, 67.2646, -166.556
4.52734, 2, -47.2509, -11.9894, 29.3596, 13.666, 67.2646, -166.555
4.53528, 2, -47.2508, -11.9894, 29.3596, 13.666, 67.2646, -166.555
4.54328, 2, -47.2507, -11.9894, 29.3596, 13.666, 67.2646, -166.555
4.55135, 2, -47.2506, -11.9894, 29.3596, 13.6659, 67.2646, -166.555
4.55934, 2, -47.2505, -11.9894, 29.3596, 13.6659, 67.2646, -166.555
4.56729, 2, -47.2504, -11.9894, 29.3596, 13.6659, 67.2646, -166.555
4.57535, 2, -47.2503, -11.9894, 29.3596, 13.6659, 67.2646, -166.555
4.5833, 2, -47.2502, -11.9894, 29.3596, 13.666, 67.2646, -166.555
4.59132, 2, -47.2501, -11.9894, 29.3596, 13.6659, 67.2646, -166.555
4.59935, 2, -47.25, -11.9893, 29.3596, 13.6659, 67.2647, -166.555
4.60728, 2, -47.2499, -11.9893, 29.3596, 13.6659, 67.2647, -166.555
4.61527, 2, -47.2498, -11.9892, 29.3596, 13.6659, 67.2647, -166.555
4.62335, 2, -47.2497, -11.9891, 29.3596, 13.6659, 67.2647, -166.555
4.63129, 2, -47.2496, -11.9891, 29.3596, 13.6659, 67.2647, -166.555
4.63931, 2, -47.2495, -11.989, 29.3596, 13.6659, 67.2647, -166.555
4.64735, 2, -47.2495, -11.989, 29.3596, 13.6659, 67.2647, -166.555
4.65528, 2, -47.2495, -11.989, 29.3596, 13.6659, 67.2647, -166.555
4.6633, 2, -47.2494, -11.989, 29.3596, 13.6659, 67.2647, -166.555
4.67136, 2, -47.2493, -11.989, 29.3596, 13.6658, 67.2647, -166.555
4.67929, 2, -47.2493, -11.989, 29.3596, 13.6659, 67.2647, -166.555
4.68731, 2, -47.2493, -11.989, 29.3596, 13.6659, 67.2647, -166.555
4.69535, 2, -47.2492, -11.989, 29.3596, 13.6659, 67.2647, -166.555
4.70333, 2, -47.2491, -11.989, 29.3596, 13.6659, 67.2647, -166.555
4.71138, 2, -47.2491, -11.9889, 29.3596, 13.6658, 67.2647, -166.555
4.71943, 2, -47.2491, -11.9888, 29.3596, 13.6658, 67.2647, -166.555
4.72739, 2, -47.249, -11.9887, 29.3596, 13.6658, 67.2647, -166.555
4.73538, 2, -47.2488, -11.9887, 29.3596, 13.6658, 67.2647, -166.555
4.74344, 2, -47.2488, -11.9886, 29.3596, 13.6658, 67.2647, -166.555
4.75137, 2, -47.2487, -11.9886, 29.3596, 13.6658, 67.2648, -166.555
4.75931, 2, -47.2487, -11.9886, 29.3596, 13.6658, 67.2647, -166.555
4.76738, 2, -47.2487, -11.9886, 29.3596, 13.6658, 67.2647, -166.555
4.77536, 2, -47.2486, -11.9886, 29.3596, 13.6658, 67.2647, -166.555
4.78337, 2, -47.2486, -11.9886, 29.3596, 13.6658, 67.2647, -166.554
4.79149, 2, -47.2486, -11.9886, 29.3596, 13.6658, 67.2647, -166.555
4.7996, 2, -47.2485, -11.9886, 29.3596, 13.6658, 67.2648, -166.555
4.80755, 2, -47.2485, -11.9885, 29.3596, 13.6658, 67.2648, -166.554
4.81565, 2, -47.2484, -11.9885, 29.3596, 13.6658, 67.2648, -166.554
4.82377, 2, -47.2484, -11.9884, 29.3595, 13.6657, 67.2648, -166.554
4.83233, 2, -47.2483, -11.9883, 29.3596, 13.6658, 67.2648, -166.554
4.83998, 2, -47.2482, -11.9883, 29.3596, 13.6657, 67.2648, -166.554
4.84792, 2, -47.2481, -11.9883, 29.3596, 13.6657, 67.2648, -166.554
4.85585, 2, -47.2481, -11.9883, 29.3596, 13.6656, 67.2648, -166.554
4.86441, 2, -47.248, -11.9882, 29.3596, 13.6656, 67.2648, -166.554
4.87193, 2, -47.248, -11.9882, 29.3596, 13.6657, 67.2648, -166.554
4.87981, 2, -47.2479, -11.9882, 29.3596, 13.6657, 67.2648, -166.554
4.8883, 2, -47.2479, -11.9882, 29.3596, 13.6656, 67.2648, -166.554
4.89527, 2, -47.2479, -11.9882, 29.3596, 13.6656, 67.2648, -166.554
4.90329, 2, -47.2479, -11.9882, 29.3596, 13.6656, 67.2648, -166.554
4.91241, 2, -47.2478, -11.9882, 29.3596, 13.6656, 67.2648, -166.554
4.91929, 2, -47.2478, -11.9881, 29.3596, 13.6656, 67.2649, -166.554
4.9273, 2, -47.2477, -11.988, 29.3596, 13.6656, 67.2649, -166.554
4.93658, 2, -47.2476, -11.9879, 29.3596, 13.6656, 67.2649, -166.554
4.94327, 2, -47.2475, -11.9879, 29.3596, 13.6656, 67.2649, -166.554
4.95128, 2, -47.2474, -11.9879, 29.3596, 13.6656, 67.2649, -166.554
4.9608, 2, -47.2473, -11.9879, 29.3596, 13.6656, 67.2649, -166.554
4.9691, 2, -47.2473, -11.9878, 29.3596, 13.6655, 67.2649, -166.554
4.97527, 2, -47.2473, -11.9878, 29.3596, 13.6655, 67.265, -166.554
4.98484, 2, -47.2472, -11.9878, 29.3596, 13.6656, 67.265, -166.554
4.99299, 2, -47.2472, -11.9878, 29.3596, 13.6655, 67.2649, -166.554
5.0008, 2, -47.2472, -11.9878, 29.3596, 13.6655, 67.265, -166.554
5.00733, 2, -47.2472, -11.9878, 29.3595, 13.6655, 67.265, -166.554
5.01633, 2, -47.2471, -11.9878, 29.3596, 13.6655, 67.2651, -166.554
5.0233, 2, -47.2471, -11.9877, 29.3596, 13.6655, 67.265, -166.554
5.03134, 2, -47.247, -11.9876, 29.3596, 13.6655, 67.265, -166.554
5.03927, 2, -47.2469, -11.9876, 29.3596, 13.6654, 67.2651, -166.554
5.04727, 2, -47.2468, -11.9875, 29.3596, 13.6655, 67.2651, -166.554
5.05533, 2, -47.2467, -11.9875, 29.3596, 13.6655, 67.2651, -166.554
5.06377, 2, -47.2467, -11.9875, 29.3596, 13.6654, 67.2651, -166.554
5.07127, 2, -47.2467, -11.9875, 29.3596, 13.6654, 67.2651, -166.554
5.07933, 2, -47.2466, -11.9875, 29.3596, 13.6654, 67.2651, -166.554
5.08728, 2, -47.2465, -11.9875, 29.3596, 13.6654, 67.2651, -166.554
5.0953, 2, -47.2465, -11.9874, 29.3596, 13.6654, 67.2651, -166.554
5.10333, 2, -47.2465, -11.9874, 29.3596, 13.6653, 67.2651, -166.554
5.11128, 2, -47.2465, -11.9874, 29.3596, 13.6653, 67.2651, -166.554
5.11927, 2, -47.2464, -11.9874, 29.3595, 13.6653, 67.2651, -166.554
5.12734, 2, -47.2464, -11.9873, 29.3595, 13.6653, 67.2651, -166.554
5.13526, 2, -47.2463, -11.9873, 29.3595, 13.6653, 67.2651, -166.554
5.14326, 2, -47.2462, -11.9872, 29.3595, 13.6653, 67.2651, -166.554
5.15134, 4, -47.2461, -11.9872, 29.3595, 13.6652, 67.2651, -166.554
5.15926, 4, -47.2461, -11.9872, 29.3595, 13.6652, 67.2652, -166.554
5.1673, 4, -47.246, -11.9871, 29.3595, 13.6652, 67.2652, -166.554
5.17534, 4, -47.246, -11.9871, 29.3595, 13.6652, 67.2652, -166.554
5.18327, 4, -47.2459, -11.9871, 29.3596, 13.6652, 67.2653, -166.554
5.19131, 4, -47.2459, -11.9871, 29.3596, 13.6651, 67.2653, -166.554
5.19936, 4, -47.2459, -11.9871, 29.3596, 13.6652, 67.2653, -166.554
5.20732, 4, -47.2459, -11.9871, 29.3596, 13.6651, 67.2653, -166.553
5.21535, 4, -47.2458, -11.987, 29.3595, 13.6651, 67.2653, -166.553
5.22342, 4, -47.2458, -11.987, 29.3595, 13.6651, 67.2653, -166.553
5.2314, 4, -47.2457, -11.987, 29.3596, 13.6651, 67.2653, -166.553
5.23937, 4, -47.2457, -11.9869, 29.3595, 13.6651, 67.2653, -166.553
5.24761, 4, -47.2456, -11.9869, 29.3595, 13.665, 67.2653, -166.553
5.26185, 4, -47.2456, -11.9868, 29.3595, 13.6651, 67.2653, -166.553
5.26485, 4, -47.2455, -11.9868, 29.3595, 13.6651, 67.2653, -166.553
5.27162, 4, -47.2455, -11.9868, 29.3595, 13.6651, 67.2653, -166.553
5.28042, 4, -47.2454, -11.9868, 29.3595, 13.665, 67.2653, -166.553
5.28847, 4, -47.2454, -11.9868, 29.3596, 13.6651, 67.2653, -166.553
5.29985, 4, -47.2454, -11.9868, 29.3596, 13.6651, 67.2653, -166.553
5.30832, 4, -47.2453, -11.9867, 29.3595, 13.665, 67.2653, -166.553
5.31631, 4, -47.2453, -11.9867, 29.3595, 13.665, 67.2653, -166.553
5.32001, 4, -47.2453, -11.9867, 29.3595, 13.665, 67.2653, -166.553
5.32829, 4, -47.2453, -11.9867, 29.3595, 13.665, 67.2653, -166.553
5.33791, 4, -47.2452, -11.9866, 29.3595, 13.665, 67.2653, -166.553
5.3442, 4, -47.2452, -11.9866, 29.3595, 13.665, 67.2653, -166.553
5.35244, 4, -47.2452, -11.9866, 29.3595, 13.665, 67.2653, -166.553
5.36008, 4, -47.2451, -11.9865, 29.3595, 13.665, 67.2653, -166.553
5.36853, 4, -47.2451, -11.9865, 29.3595, 13.665, 67.2653, -166.553
5.37748, 4, -47.245, -11.9865, 29.3595, 13.6649, 67.2653, -166.553
5.3842, 4, -47.245, -11.9865, 29.3595, 13.665, 67.2652, -166.553
5.39476, 4, -47.2449, -11.9865, 29.3595, 13.665, 67.2653, -166.553
5.40066, 4, -47.2449, -11.9865, 29.3595, 13.665, 67.2653, -166.553
5.40884, 4, -47.2449, -11.9865, 29.3596, 13.6649, 67.2653, -166.553
5.4154, 4, -47.245, -11.9865, 29.3596, 13.6649, 67.2654, -166.553
5.42521, 4, -47.2459, -11.987, 29.3605, 13.6654, 67.2656, -166.553
5.43409, 4, -47.25, -11.9905, 29.3638, 13.67, 67.2669, -166.552
5.43946, 4, -47.2524, -11.9932, 29.3672, 13.6764, 67.2683, -166.551
5.44924, 4, -47.2595, -12.0088, 29.3902, 13.7219, 67.2804, -166.542
5.45538, 4, -47.271, -12.0173, 29.4044, 13.7502, 67.2882, -166.536
5.4659, 5, -47.3011, -12.0579, 29.4769, 13.9003, 67.3304, -166.502
5.47141, 5, -47.3157, -12.0771, 29.5137, 13.9777, 67.3523, -166.485
5.47942, 5, -47.353, -12.1254, 29.6111, 14.1846, 67.4092, -166.437
5.49134, 5, -47.4026, -12.1881, 29.7434, 14.4696, 67.488, -166.371
5.49753, 5, -47.5008, -12.3104, 30.0122, 15.0546, 67.646, -166.237
5.5055, 5, -47.5817, -12.4108, 30.2395, 15.5457, 67.7774, -166.125
5.51308, 5, -47.6266, -12.4663, 30.3664, 15.8182, 67.9252, -165.998
5.5214, 5, -47.7766, -12.6518, 30.7934, 16.7214, 68.0859, -165.859
5.53158, 5, -47.887, -12.789, 31.1098, 17.3771, 68.2536, -165.714
5.53645, 5, -47.9446, -12.8608, 31.275, 17.7151, 68.3393, -165.64
5.54744, 5, -48.1232, -13.0852, 31.7899, 18.7498, 68.5962, -165.416
5.5524, 5, -48.1837, -13.1618, 31.9655, 19.0978, 68.681, -165.342
5.56265, 5, -48.3625, -13.3908, 32.4969, 20.132, 68.93, -165.121
5.56847, 5, -48.4197, -13.4658, 32.6739, 20.4693, 69.011, -165.046
5.5764, 5, -48.5276, -13.6116, 33.0236, 21.1254, 69.1708, -164.886
5.5834, 6, -48.623, -13.7486, 33.3624, 21.7458, 69.3292, -164.704
5.59239, 6, -48.7017, -13.875, 33.6853, 22.3221, 69.4884, -164.486
5.60219, 7, -48.7818, -14.0462, 34.1331, 23.0946, 69.7349, -164.062
5.61083, 7, -48.8086, -14.1489, 34.4056, 23.5502, 69.9085, -163.697
5.61547, 7, -48.8146, -14.1963, 34.5342, 23.7634, 69.9995, -163.488
5.6244, 8, -48.8121, -14.2831, 34.7789, 24.1666, 70.1913, -163.016
5.63152, 9, -48.7921, -14.3615, 35.0101, 24.548, 70.3972, -162.479
5.64347, 9, -48.7351, -14.47, 35.3404, 25.1026, 70.732, -161.575
5.64874, 10, -48.7103, -14.5043, 35.4487, 25.2864, 70.8494, -161.255
5.65645, 10, -48.6535, -14.5702, 35.6654, 25.656, 71.0909, -160.598
5.66342, 11, -48.5887, -14.6333, 35.8828, 26.0285, 71.3376, -159.926
5.67155, 11, -48.5178, -14.6955, 36.1028, 26.404, 71.5855, -159.253
5.68439, 12, -48.4035, -14.7895, 36.4352, 26.974, 71.9554, -158.251
5.69227, 12, -48.324, -14.8528, 36.6549, 27.359, 72.2003, -157.588
5.69644, 13, -48.2835, -14.8845, 36.7639, 27.553, 72.3226, -157.257
5.70741, 13, -48.1588, -14.9792, 37.0859, 28.1416, 72.6894, -156.271
5.71149, 14, -48.1158, -15.011, 37.1912, 28.3398, 72.8119, -155.942
5.7204, 14, -48.0271, -15.075, 37.3993, 28.7385, 73.0572, -155.285
5.72752, 15, -47.935, -15.1386, 37.6047, 29.139, 73.3025, -154.631
5.73711, 15, -47.8395, -15.2005, 37.8063, 29.5401, 73.5463, -153.98
5.74357, 16, -47.7403, -15.2603, 38.005, 29.9402, 73.788, -153.332
5.75339, 16, -47.6362, -15.3198, 38.2021, 30.3391, 74.0273, -152.688
5.75958, 17, -47.5267, -15.3802, 38.3961, 30.7368, 74.264, -152.048
5.76824, 17, -47.4121, -15.4419, 38.5867, 31.1329, 74.4977, -151.412
5.77912, 18, -47.2928, -15.5044, 38.7749, 31.5275, 74.728, -150.781
5.78435, 18, -47.1686, -15.5676, 38.9613, 31.9198, 74.9541, -150.156
5.79338, 19, -47.0389, -15.6325, 39.1448, 32.3099, 75.1753, -149.539
5.80046, 19, -46.904, -15.6997, 39.3264, 32.6979, 75.3912, -148.928
5.80848, 20, -46.7641, -15.7688, 39.5071, 33.0834, 75.6013, -148.324
5.82018, 20, -46.6195, -15.8398, 39.6857, 33.6565, 75.9057, -147.436
5.82747, 21, -46.4703, -15.9136, 39.8617, 33.8465, 76.0044, -146.853
5.83272, 21, -46.3163, -15.9906, 40.0359, 34.2245, 76.1977, -146.564
5.84428, 22, -46.0755, -16.1116, 40.2943, 34.7867, 76.4769, -145.708
5.85027, 22, -45.9924, -16.1529, 40.379, 34.9726, 76.5673, -145.427
5.85645, 23, -45.8218, -16.2369, 40.546, 35.3413, 76.7441, -144.869
5.86518, 23, -45.6447, -16.3228, 40.7106, 35.7058, 76.915, -144.316
5.8735, 24, -45.4609, -16.4106, 40.8723, 36.066, 77.0808, -143.769
5.88107, 24, -45.2704, -16.4997, 41.0297, 36.4208, 77.241, -143.227
5.88815, 25, -45.1727, -16.5447, 41.1067, 36.7692, 77.3965, -142.689
5.89688, 25, -44.9725, -16.6354, 41.2575, 36.9411, 77.4724, -142.154
5.90413, 26, -44.766, -16.7269, 41.4041, 37.4466, 77.6932, -141.622
5.91336, 26, -44.4433, -16.865, 41.6141, 37.7746, 77.835, -141.093
5.92198, 27, -44.2192, -16.957, 41.7471, 38.0951, 77.9728, -140.566
5.92944, 27, -43.9884, -17.0484, 41.8742, 38.4076, 78.1062, -140.04
5.93694, 28, -43.751, -17.139, 41.9951, 38.7119, 78.2363, -139.516
5.94531, 28, -43.6297, -17.184, 42.0531, 39.0079, 78.3624, -138.992
5.95144, 29, -43.3822, -17.273, 42.164, 39.1526, 78.4243, -138.731
5.96303, 29, -42.999, -17.4035, 42.3174, 39.5744, 78.6055, -137.947
5.96738, 30, -42.8678, -17.4461, 42.3649, 39.7108, 78.664, -137.686
5.97787, 30, -42.4615, -17.5711, 42.4968, 40.1071, 78.836, -136.904
5.98357, 31, -42.3216, -17.6116, 42.5371, 40.235, 78.8917, -136.643
5.99184, 31, -42.0358, -17.6905, 42.6125, 40.4842, 79.001, -136.123
6.00149, 32, -41.5931, -17.8046, 42.7125, 40.8424, 79.1605, -135.343
6.00737, 32, -41.4421, -17.8415, 42.7425, 40.9575, 79.2121, -135.084
6.02021, 33, -40.9795, -17.9478, 42.8218, 41.2907, 79.3638, -134.307
6.02354, 33, -40.822, -17.9816, 42.8447, 41.3978, 79.4132, -134.049
6.03477, 34, -40.3404, -18.0786, 42.9024, 41.7065, 79.5569, -133.274
6.04178, 34, -40.1775, -18.1097, 42.918, 41.8054, 79.6034, -133.016
6.04777, 35, -39.8481, -18.1698, 42.9437, 41.9971, 79.695, -132.502
6.05649, 35, -39.5129, -18.2264, 42.9623, 42.1814, 79.7836, -131.989
6.06673, 36, -38.9976, -18.3051, 42.9771, 42.4436, 79.9127, -131.222
6.07245, 36, -38.8221, -18.3297, 42.9786, 42.527, 79.9546, -130.967
6.08022, 37, -38.4659, -18.3763, 42.9766, 42.6884, 80.0371, -130.457
6.0874, 37, -38.1037, -18.4195, 42.9677, 42.8421, 80.1171, -129.949
6.09554, 38, -37.7359, -18.4589, 42.9519, 42.9885, 80.1957, -129.443
6.10735, 38, -37.1751, -18.5116, 42.916, 43.1941, 80.3091, -128.687
6.11139, 39, -36.9859, -18.5275, 42.9007, 43.2589, 80.3457, -128.435
6.12049, 39, -36.6042, -18.5566, 42.8649, 43.3831, 80.4172, -127.934
6.13054, 40, -36.0223, -18.5933, 42.7988, 43.5556, 80.5215, -127.186
6.13865, 40, -35.8254, -18.6036, 42.7736, 43.6095, 80.5891, -126.69
6.14437, 41, -35.4271, -18.6211, 42.718, 43.712, 80.622, -126.442
6.152, 41, -35.0231, -18.6349, 42.6561, 43.8068, 80.6857, -125.948
6.16256, 42, -34.4088, -18.6491, 42.551, 43.9364, 80.7787, -125.213
6.17066, 42, -33.9953, -18.6546, 42.473, 44.0139, 80.8376, -124.725
6.17651, 43, -33.7873, -18.6561, 42.4318, 44.0499, 80.867, -124.482
6.18466, 43, -33.3682, -18.6567, 42.3447, 44.1164, 80.9238, -123.998
6.19434, 44, -32.9435, -18.6536, 42.2518, 44.1763, 80.9785, -123.516
6.20152, 44, -32.5125, -18.6467, 42.1533, 44.2284, 81.0326, -123.036
6.20849, 45, -32.0751, -18.636, 42.0489, 44.2736, 81.084, -122.559
6.21639, 45, -31.6326, -18.6216, 41.9385, 44.3116, 81.1341, -122.084
6.22724, 46, -30.9631, -18.5937, 41.7616, 44.354, 81.2065, -121.376
6.23183, 46, -30.7391, -18.5827, 41.6998, 44.3642, 81.2293, -121.141
6.24322, 47, -30.2889, -18.5577, 41.5717, 44.3789, 81.2743, -120.441
6.24797, 47, -29.8342, -18.5282, 41.4376, 44.3865, 81.3189, -120.208
6.25743, 48, -29.3729, -18.4943, 41.2977, 44.3873, 81.3617, -119.744
6.26604, 48, -28.9051, -18.4562, 41.1515, 44.3793, 81.4035, -119.282
6.27267, 49, -28.4316, -18.4137, 40.9994, 44.3628, 81.4453, -118.822
6.28343, 49, -27.7159, -18.3416, 40.7602, 44.3208, 81.5071, -118.134
6.2903, 50, -27.4761, -18.3153, 40.6772, 44.3018, 81.5272, -117.906
6.29639, 50, -26.9939, -18.2587, 40.5063, 44.2572, 81.5683, -117.449
6.30483, 51, -26.5058, -18.1965, 40.329, 44.2038, 81.6108, -116.993
6.31245, 51, -26.0099, -18.1289, 40.1453, 44.1398, 81.6531, -116.538
6.32385, 52, -25.2538, -18.0171, 39.8556, 44.026, 81.7177, -115.857
6.32855, 52, -25, -17.9772, 39.7556, 43.9826, 81.7401, -115.631
6.33953, 53, -24.491, -17.8934, 39.5512, 43.8884, 81.7849, -114.952
6.34488, 53, -23.9793, -17.8039, 39.3398, 43.7845, 81.8298, -114.726
6.35226, 54, -23.4618, -17.7081, 39.1205, 43.6699, 81.8769, -114.274
6.3608, 54, -22.9361, -17.606, 38.8946, 43.5448, 81.926, -113.822
6.37071, 55, -22.4026, -17.4979, 38.6618, 43.4085, 81.9763, -113.37
6.37706, 55, -21.8643, -17.3836, 38.421, 43.2604, 82.0297, -112.918
6.38618, 56, -21.3235, -17.2633, 38.1741, 43.1007, 82.0849, -112.467
6.39279, 56, -21.0521, -17.201, 37.9201, 42.9294, 82.1413, -112.016
6.40014, 57, -20.5054, -17.0723, 37.7903, 42.8394, 82.1707, -111.565
6.40883, 57, -19.95, -16.9381, 37.5264, 42.651, 82.2605, -111.115
6.41538, 58, -19.3856, -16.7981, 37.2557, 42.4503, 82.2912, -110.89
6.42676, 58, -18.5282, -16.5766, 36.8374, 42.1258, 82.3871, -110.215
6.43542, 59, -17.9537, -16.4221, 36.5504, 41.8939, 82.4534, -109.765
6.44334, 59, -17.3749, -16.263, 36.2571, 41.6494, 82.5223, -109.316
6.44736, 60, -17.0824, -16.1818, 36.1083, 41.5224, 82.5573, -109.092
6.45872, 60, -16.1893, -15.93, 35.6529, 41.1224, 82.6661, -108.418
6.46513, 61, -15.5857, -15.7557, 35.343, 40.8392, 82.7402, -107.969
6.47374, 61, -14.9789, -15.5772, 35.0272, 40.5434, 82.8168, -107.521
6.47941, 62, -14.6743, -15.4863, 34.8673, 40.3908, 82.8557, -107.297
6.48973, 62, -13.7492, -15.2059, 34.3793, 39.9133, 82.9766, -106.624
6.49539, 63, -13.4356, -15.1093, 34.2145, 39.7473, 83.0181, -106.399
6.50583, 63, -12.4821, -14.8097, 33.711, 39.2261, 83.1479, -105.724
6.51147, 64, -12.1613, -14.7074, 33.5405, 39.0448, 83.1933, -105.499
6.51937, 64, -11.5174, -14.4987, 33.1945, 38.6712, 83.2866, -105.048
6.52983, 65, -10.5373, -14.1722, 32.6639, 38.0825, 83.4351, -104.368
6.53545, 65, -10.2053, -14.0597, 32.4839, 37.8787, 83.4872, -104.14
6.54338, 66, -9.53421, -13.8305, 32.1209, 37.4582, 83.5948, -103.684
6.55146, 66, -8.85601, -13.5952, 31.7531, 37.0226, 83.708, -103.226
6.56189, 67, -7.82918, -13.2289, 31.1914, 36.34, 83.8873, -102.535
6.56745, 67, -7.48246, -13.103, 31.0013, 36.1048, 83.9503, -102.303
6.57645, 68, -6.78146, -12.8453, 30.6175, 35.6229, 84.0809, -101.839
6.58339, 68, -6.07151, -12.5802, 30.2302, 35.1251, 84.2179, -101.372
6.59527, 69, -4.99359, -12.1695, 29.6401, 34.3494, 84.4369, -100.668
6.59943, 69, -4.63072, -12.0285, 29.4409, 34.0827, 84.5135, -100.432
6.60745, 70, -3.89806, -11.7411, 29.0395, 33.5382, 84.6727, -99.9572
6.61663, 70, -3.15663, -11.4466, 28.6357, 32.9772, 84.8394, -99.4797
6.62339, 71, -2.40779, -11.144, 28.2296, 32.4007, 85.0137, -99
6.63254, 71, -1.65149, -10.8341, 27.8202, 31.8102, 85.1953, -98.5182
6.64074, 72, -0.887765, -10.5164, 27.4093, 31.2063, 85.3849, -98.0335
6.65436, 73, 0.658598, -9.86093, 26.5858, 29.9568, 85.7871, -97.0565
6.66057, 73, 0.658598, -9.6919, 26.3801, 29.6374, 85.8924, -96.8109
6.66416, 73, 1.44127, -9.52115, 26.1743, 29.3153, 85.9994, -96.5648
6.67528, 74, 2.62424, -9.00055, 25.5587, 28.3347, 86.333, -95.8232
6.68117, 74, 3.02004, -8.82498, 25.3545, 28.0033, 86.4479, -95.5748
6.69065, 75, 4.21178, -8.2889, 24.7478, 26.9984, 86.8029, -94.8269
6.69558, 75, 4.61057, -8.10664, 24.5474, 26.6617, 86.9244, -94.5772
6.71473, 76, 6.60839, -7.16957, 23.5651, 24.9702, 87.5564, -93.3219
6.72806, 77, 7.80954, -6.58616, 22.9895, 23.9497, 87.9601, -92.5628
6.72933, 77, 7.80954, -6.58616, 22.9895, 23.9497, 87.9601, -92.5628
6.73138, 77, 8.21045, -6.38819, 22.7995, 23.608, 88.0998, -92.3088
6.73533, 78, 8.61109, -6.18838, 22.6104, 23.2656, 88.2419, -92.0541
6.74364, 78, 9.41154, -5.78384, 22.2363, 22.5788, 88.534, -91.5421
6.75146, 79, 10.2108, -5.37056, 21.8669, 21.8911, 88.8365, -91.0271
6.75928, 79, 11.0091, -4.94772, 21.5029, 21.2051, 89.1484, -90.5084
6.76728, 80, 11.8047, -4.5143, 21.144, 20.5215, 89.47, -89.9866
6.77549, 80, 12.5962, -4.07066, 20.7915, 19.8403, 89.8016, -89.4602
6.78329, 81, 13.3835, -3.61761, 20.4439, 19.1659, 90.144, -88.9286
6.7913, 81, 14.1666, -3.15634, 20.1012, 18.4984, 90.4974, -88.3918
6.79952, 82, 14.9426, -2.68765, 19.7633, 17.8393, 90.8609, -87.8506
6.80746, 82, 15.7092, -2.21008, 19.4324, 17.1899, 91.2344, -87.305
6.81627, 83, 16.4647, -1.72458, 19.1079, 16.5531, 91.6163, -86.7555
6.82369, 83, 17.2082, -1.23199, 18.7917, 15.9339, 92.0057, -86.2031
6.83319, 84, 17.9376, -0.732676, 18.4838, 15.332, 92.4011, -85.6499
6.8397, 84, 18.6497, -0.228291, 18.1861, 14.7514, 92.8023, -85.0967
6.84867, 84, 19.3449, 0.281233, 17.8971, 14.1927, 93.2092, -84.5431
6.85578, 85, 20.0242, 0.796468, 17.6161, 13.6574, 93.6223, -83.9911
6.86464, 85, 20.6876, 1.31631, 17.3424, 13.145, 94.0401, -83.441
6.87186, 86, 21.0134, 1.84005, 17.0754, 12.6559, 94.4618, -82.8922
6.88062, 86, 21.6538, 2.104, 16.8161, 12.1889, 94.8883, -82.3426
6.88823, 87, 22.5896, 2.90882, 16.5626, 11.7443, 95.3204, -81.791
6.89521, 87, 22.8956, 3.18185, 16.4378, 11.5295, 95.5386, -81.5139
6.90414, 88, 23.4989, 3.73397, 16.0701, 10.9124, 96.203, -80.675
6.91126, 88, 24.0908, 4.29328, 15.9494, 10.715, 96.4275, -80.3911
6.91943, 89, 24.6713, 4.86154, 15.7118, 10.3326, 96.881, -79.8169
6.92721, 89, 25.24, 5.44032, 15.4804, 9.96491, 97.3417, -79.2321
6.93552, 90, 25.7991, 6.02927, 15.2524, 9.61337, 97.8086, -78.6366
6.94322, 90, 26.3516, 6.62735, 15.0274, 9.27643, 98.2816, -78.0281
6.95263, 91, 27.1618, 7.53982, 14.699, 8.80239, 99.0033, -77.0915
6.95921, 91, 27.4252, 7.84867, 14.5921, 8.65351, 99.2469, -76.7737
6.96725, 92, 27.943, 8.47422, 14.3818, 8.37051, 99.7381, -76.1296
6.97764, 92, 28.7019, 9.43179, 14.0752, 7.98715, 100.482, -75.1441
6.98349, 93, 28.9511, 9.75569, 13.9755, 7.87052, 100.732, -74.8118
6.99121, 93, 29.4411, 10.4084, 13.7808, 7.65484, 101.231, -74.1427
6.99943, 94, 29.9177, 11.0661, 13.5942, 7.463, 101.731, -73.4661
7.00731, 94, 30.3795, 11.7272, 13.4156, 7.29478, 102.228, -72.7833
7.01544, 95, 30.8265, 12.391, 13.2439, 7.15031, 102.723, -72.0966
7.02322, 95, 31.2596, 13.0563, 13.0796, 7.02968, 103.214, -71.4039
7.0313, 95, 31.6791, 13.7235, 12.9234, 6.93259, 103.702, -70.7055
7.03921, 96, 32.0845, 14.3917, 12.7741, 6.85917, 104.187, -70.0024
7.04724, 96, 32.4744, 15.0606, 12.631, 6.81003, 104.667, -69.2936
7.0562, 97, 32.8479, 15.7291, 12.4949, 6.78215, 105.143, -68.5787
7.06416, 98, 33.205, 16.3961, 12.3667, 6.77566, 105.612, -67.8604
7.0722, 98, 33.5472, 17.061, 12.2471, 6.79158, 106.074, -67.1391
7.08017, 99, 33.8753, 17.7213, 12.1363, 6.82778, 106.527, -66.4144
7.08822, 99, 34.1902, 18.3761, 12.0348, 6.884, 106.97, -65.6901
7.09541, 100, 34.4932, 19.0235, 11.9426, 6.95935, 107.401, -64.9674
7.10322, 100, 34.7851, 19.6627, 11.8589, 7.0519, 107.82, -64.2457
7.1115, 101, 35.0652, 20.2924, 11.7838, 7.16179, 108.225, -63.529
7.11921, 101, 35.3333, 20.9111, 11.7168, 7.28682, 108.616, -62.8188
7.12724, 101, 35.59, 21.5187, 11.6583, 7.42616, 108.992, -62.1147
7.13528, 102, 35.835, 22.114, 11.6084, 7.57779, 109.351, -61.4207
7.14322, 102, 36.0677, 22.6965, 11.567, 7.74029, 109.692, -60.7381
7.15131, 103, 36.2901, 23.2639, 11.5343, 7.91228, 110.016, -60.0666
7.15928, 103, 36.5048, 23.8152, 11.5105, 8.09303, 110.321, -59.4073
7.16725, 104, 36.7124, 24.3507, 11.4959, 8.28298, 110.607, -58.7619
7.17524, 104, 36.9122, 24.8701, 11.4894, 8.48205, 110.873, -58.1286
7.18331, 104, 37.1055, 25.3729, 11.4899, 8.68977, 111.119, -57.5075
7.19121, 104, 37.2925, 25.8598, 11.4969, 8.90497, 111.345, -56.8997
7.19921, 104, 37.4709, 26.3298, 11.5091, 9.12576, 111.551, -56.3068
7.2073, 104, 37.64, 26.7832, 11.5244, 9.35013, 111.74, -55.729
7.21525, 104, 37.8015, 27.221, 11.5426, 9.57534, 111.915, -55.1697
7.2233, 104, 37.9577, 27.6427, 11.5631, 9.79896, 112.077, -54.6312
7.2315, 104, 38.1092, 28.0482, 11.5841, 10.019, 112.23, -54.1156
7.23933, 104, 38.2547, 28.4366, 11.605, 10.2341, 112.373, -53.6226
7.24731, 104, 38.3936, 28.8086, 11.625, 10.4431, 112.509, -53.1539
7.25537, 104, 38.5255, 29.1626, 11.6436, 10.6452, 112.637, -52.709
7.26327, 104, 38.6494, 29.4986, 11.6613, 10.8391, 112.757, -52.2894
7.27124, 104, 38.765, 29.8154, 11.6778, 11.0246, 112.87, -51.8949
7.27933, 104, 38.8722, 30.1132, 11.6931, 11.2009, 112.975, -51.5249
7.28731, 104, 38.9715, 30.3928, 11.7074, 11.3673, 113.072, -51.1804
7.29532, 104, 39.0632, 30.6523, 11.7205, 11.5234, 113.162, -50.8617
7.3034, 104, 39.1471, 30.8922, 11.7324, 11.6689, 113.245, -50.5678
7.31139, 104, 39.223, 31.1128, 11.7431, 11.8029, 113.32, -50.2994
7.31982, 104, 39.2912, 31.313, 11.753, 11.9258, 113.388, -50.0559
7.3282, 104, 39.3516, 31.4938, 11.7621, 12.0367, 113.449, -49.8378
7.33567, 104, 39.4047, 31.6553, 11.7701, 12.1357, 113.503, -49.6447
7.34426, 104, 39.4511, 31.7973, 11.7772, 12.2227, 113.55, -49.4765
7.35182, 104, 39.4917, 31.921, 11.7837, 12.2973, 113.589, -49.3329
7.36036, 104, 39.5264, 32.0276, 11.7895, 12.3605, 113.623, -49.2125
7.36822, 104, 39.5552, 32.1176, 11.7947, 12.4118, 113.649, -49.1147
7.37582, 104, 39.5787, 32.1923, 11.7993, 12.452, 113.67, -49.0372
7.38437, 104, 39.5975, 32.2536, 11.8034, 12.4829, 113.686, -48.9786
7.39207, 104, 39.612, 32.303, 11.8072, 12.5059, 113.697, -48.936
7.39992, 104, 39.6179, 32.3236, 11.8089, 12.5148, 113.705, -48.9066
7.4083, 104, 39.6315, 32.3707, 11.8137, 12.5332, 113.71, -48.8874
7.41633, 104, 39.6347, 32.3823, 11.8164, 12.5401, 113.712, -48.8756
7.42326, 104, 39.6396, 32.4011, 11.8176, 12.5424, 113.713, -48.8719
7.43242, 104, 39.6436, 32.4195, 11.8204, 12.5463, 113.714, -48.8663
7.43922, 104, 39.6443, 32.4234, 11.8211, 12.5469, 113.715, -48.8655
7.44726, 105, 39.6448, 32.4288, 11.8223, 12.5476, 113.715, -48.8646
7.45661, 105, 39.6439, 32.4337, 11.8237, 12.5481, 113.715, -48.8645
7.4632, 105, 39.6433, 32.4348, 11.8241, 12.5482, 113.715, -48.8646
7.47125, 105, 39.6423, 32.4366, 11.8248, 12.5483, 113.715, -48.8648
7.48077, 105, 39.6408, 32.4387, 11.8258, 12.5483, 113.715, -48.8653
7.48879, 105, 39.6397, 32.4399, 11.8263, 12.5483, 113.715, -48.8656
7.49528, 105, 39.6393, 32.4405, 11.8266, 12.5483, 113.715, -48.8658
7.50481, 105, 39.6385, 32.4421, 11.8275, 12.5484, 113.715, -48.8663
7.51298, 105, 39.6383, 32.4426, 11.8278, 12.5484, 113.715, -48.8666
7.52019, 105, 39.6381, 32.4437, 11.8283, 12.5484, 113.715, -48.8668
7.52909, 105, 39.6377, 32.4449, 11.829, 12.5483, 113.715, -48.8672
7.53519, 105, 39.6375, 32.4452, 11.8291, 12.5483, 113.715, -48.8673
7.54323, 105, 39.6372, 32.4457, 11.8295, 12.5483, 113.715, -48.8676
7.5512, 105, 39.6369, 32.446, 11.8297, 12.5483, 113.715, -48.8679
7.55922, 105, 39.6366, 32.4461, 11.83, 12.5483, 113.715, -48.8681
