hehonglu123/Motion-Primitive-Planning/ILC/recorded_data/realrobot/from_NX/iteration_5/run_4.csv
timestamp, cmd_num, J1, J2, J3, J4, J5, J6
0.000369, -1, 39.632, 32.4461, 11.8315, 12.5469, 113.714, -48.8709
0.00305, -1, 39.632, 32.4461, 11.8315, 12.5469, 113.714, -48.8709
0.007026, -1, 39.632, 32.4461, 11.8315, 12.5469, 113.714, -48.871
0.028268, -1, 39.6319, 32.4461, 11.8315, 12.5469, 113.714, -48.8709
0.031054, -1, 39.6319, 32.4462, 11.8315, 12.5469, 113.714, -48.8709
0.032352, -1, 39.6319, 32.4462, 11.8315, 12.5469, 113.714, -48.8709
0.038883, -1, 39.6319, 32.4462, 11.8315, 12.5469, 113.714, -48.8709
0.047903, -1, 39.6319, 32.4461, 11.8315, 12.5469, 113.714, -48.8709
0.055871, -1, 39.6314, 32.4461, 11.8315, 12.5469, 113.714, -48.8709
0.063883, -1, 39.6291, 32.4456, 11.8315, 12.5469, 113.714, -48.871
0.072889, -1, 39.6238, 32.4443, 11.8314, 12.5469, 113.714, -48.8712
0.079922, -1, 39.615, 32.4414, 11.8314, 12.5469, 113.713, -48.8724
0.088875, -1, 39.6017, 32.4361, 11.8314, 12.5469, 113.712, -48.877
0.094881, -1, 39.582, 32.4275, 11.8314, 12.5469, 113.708, -48.8883
0.10388, -1, 39.5534, 32.4149, 11.8319, 12.5469, 113.701, -48.9088
0.111947, -1, 39.5149, 32.3974, 11.8339, 12.5469, 113.689, -48.9422
0.119882, -1, 39.4655, 32.3736, 11.8388, 12.5469, 113.67, -48.9927
0.12795, -1, 39.4034, 32.3433, 11.8472, 12.5469, 113.643, -49.0643
0.135996, -1, 39.3279, 32.3055, 11.8599, 12.547, 113.605, -49.1585
0.143889, -1, 39.2388, 32.2598, 11.8777, 12.5472, 113.559, -49.2785
0.151889, -1, 39.1357, 32.2063, 11.9002, 12.5477, 113.502, -49.4238
0.159943, -1, 39.0184, 32.1449, 11.927, 12.5486, 113.435, -49.5938
0.167941, -1, 38.8878, 32.0761, 11.9576, 12.5501, 113.359, -49.786
0.175787, -1, 38.7449, 32.0008, 11.9916, 12.552, 113.275, -49.9978
0.18396, -1, 38.5906, 31.9195, 12.0278, 12.554, 113.185, -50.2254
0.191877, -1, 38.4263, 31.8333, 12.0656, 12.5563, 113.09, -50.4652
0.199978, -1, 38.2541, 31.7431, 12.1044, 12.5586, 112.992, -50.7133
0.207876, -1, 38.0756, 31.65, 12.1435, 12.5611, 112.892, -50.9666
0.21588, -1, 37.8921, 31.5546, 12.1823, 12.5635, 112.79, -51.2233
0.225103, -1, 37.7045, 31.4577, 12.2212, 12.5659, 112.688, -51.4817
0.231875, -1, 37.5143, 31.3601, 12.2599, 12.5683, 112.586, -51.7412
0.239969, -1, 37.3228, 31.2622, 12.2987, 12.5708, 112.483, -52.0008
0.247915, -1, 37.1307, 31.1643, 12.3375, 12.5732, 112.38, -52.2605
0.255905, -1, 36.9385, 31.0665, 12.3762, 12.5759, 112.277, -52.5205
0.264117, -1, 36.7465, 30.9688, 12.415, 12.5784, 112.174, -52.7808
0.27143, -1, 36.5548, 30.871, 12.4539, 12.581, 112.072, -53.0411
0.28004, -1, 36.3632, 30.7733, 12.4928, 12.5836, 111.969, -53.3014
0.288039, -1, 36.1717, 30.6756, 12.5316, 12.5862, 111.866, -53.5618
0.295982, -1, 35.9802, 30.5776, 12.5704, 12.5888, 111.763, -53.8225
0.304029, -1, 35.7888, 30.4796, 12.6094, 12.5914, 111.66, -54.0832
0.31206, -1, 35.597, 30.3816, 12.6483, 12.5939, 111.557, -54.3434
0.320034, -1, 35.405, 30.2834, 12.6871, 12.5966, 111.454, -54.6037
0.327918, -1, 35.2126, 30.185, 12.7259, 12.5992, 111.351, -54.8643
0.335983, -1, 35.0202, 30.0867, 12.7648, 12.6018, 111.248, -55.1252
0.344006, -1, 34.828, 29.9883, 12.8037, 12.6044, 111.144, -55.3858
0.482371, -1, 31.5503, 28.3131, 13.4652, 12.6496, 109.392, -59.8233
0.483577, -1, 31.5503, 28.3131, 13.4652, 12.6496, 109.392, -59.8233
0.485618, -1, 31.4536, 28.2638, 13.4847, 12.651, 109.341, -59.9539
0.486906, -1, 31.4536, 28.2638, 13.4847, 12.651, 109.341, -59.9539
0.488194, -1, 31.4536, 28.2638, 13.4847, 12.651, 109.341, -59.9539
0.491177, -1, 31.357, 28.2145, 13.5041, 12.6524, 109.289, -60.0845
0.493849, -1, 31.357, 28.2145, 13.5041, 12.6537, 109.238, -60.2151
0.49752, -1, 31.1643, 28.116, 13.5431, 12.6551, 109.186, -60.3458
0.498776, -1, 31.1643, 28.116, 13.5431, 12.6551, 109.186, -60.3458
0.500251, -1, 31.1643, 28.116, 13.5431, 12.6551, 109.186, -60.3458
0.502242, -1, 31.068, 28.0667, 13.5627, 12.6566, 109.135, -60.4766
0.503512, -1, 31.068, 28.0667, 13.5627, 12.6566, 109.135, -60.4766
0.505357, -1, 30.9719, 28.0175, 13.5822, 12.658, 109.083, -60.6074
0.506813, -1, 30.9719, 28.0175, 13.5822, 12.658, 109.083, -60.6074
0.508001, -1, 30.9719, 28.0175, 13.5822, 12.658, 109.083, -60.6074
0.510329, -1, 30.8758, 27.9682, 13.6017, 12.6594, 109.032, -60.7381
0.511528, -1, 30.8758, 27.9682, 13.6017, 12.6594, 109.032, -60.7381
0.513458, -1, 30.7797, 27.9189, 13.6211, 12.6608, 108.98, -60.8687
0.515775, -1, 30.7797, 27.9189, 13.6211, 12.6608, 108.98, -60.8687
0.51867, -1, 30.6838, 27.8697, 13.6406, 12.6622, 108.928, -60.9994
0.519971, -1, 30.6838, 27.8697, 13.6406, 12.6622, 108.928, -60.9994
0.522075, -1, 30.5878, 27.8204, 13.6602, 12.6636, 108.877, -61.13
0.530153, -1, 30.3958, 27.7217, 13.6992, 12.6664, 108.773, -61.3914
0.53488, -1, 30.2998, 27.6724, 13.7186, 12.6677, 108.722, -61.5221
0.543873, -1, 30.1076, 27.5736, 13.7576, 12.6704, 108.619, -61.784
0.551868, -1, 29.915, 27.4749, 13.7966, 12.6732, 108.516, -62.0455
0.559994, -1, 29.722, 27.3762, 13.8355, 12.6759, 108.412, -62.3073
0.567873, -1, 29.5283, 27.2774, 13.8744, 12.6784, 108.309, -62.5691
0.576865, -1, 29.3344, 27.1786, 13.9134, 12.681, 108.206, -62.8309
0.583974, -1, 29.1402, 27.0797, 13.9523, 12.6836, 108.102, -63.0925
0.594032, -1, 28.8486, 26.9313, 14.0108, 12.6874, 107.947, -63.4846
0.598956, -1, 28.7515, 26.8819, 14.0303, 12.6887, 107.896, -63.6154
0.607906, -1, 28.5574, 26.783, 14.0692, 12.6911, 107.792, -63.8772
0.61587, -1, 28.3635, 26.6842, 14.1083, 12.6936, 107.689, -64.1391
0.62394, -1, 28.1701, 26.5855, 14.1473, 12.696, 107.586, -64.4005
0.631871, -1, 27.9771, 26.4867, 14.1863, 12.6985, 107.482, -64.6622
0.639944, -1, 27.7843, 26.3879, 14.2253, 12.7009, 107.379, -64.9242
0.776379, -1, 24.4995, 24.7076, 14.8877, 12.7403, 105.624, -69.3731
0.777834, -1, 24.4995, 24.7076, 14.8877, 12.7403, 105.624, -69.3731
0.780725, -1, 24.4033, 24.6581, 14.9072, 12.7415, 105.572, -69.5041
0.782017, -1, 24.4033, 24.6581, 14.9072, 12.7415, 105.572, -69.5041
0.784056, -1, 24.3072, 24.6086, 14.9267, 12.7427, 105.52, -69.6348
0.785277, -1, 24.3072, 24.6086, 14.9267, 12.7427, 105.52, -69.6348
0.786469, -1, 24.3072, 24.6086, 14.9267, 12.7427, 105.52, -69.6348
0.791618, -1, 24.1147, 24.5098, 14.9657, 12.7451, 105.417, -69.8962
0.793038, -1, 24.1147, 24.5098, 14.9657, 12.7451, 105.417, -69.8962
0.794289, -1, 24.1147, 24.5098, 14.9657, 12.7451, 105.417, -69.8962
0.797022, -1, 24.0184, 24.4605, 14.9852, 12.7462, 105.366, -70.027
0.798216, -1, 24.0184, 24.4605, 14.9852, 12.7462, 105.366, -70.027
0.800347, -1, 23.9219, 24.4111, 15.0047, 12.7474, 105.314, -70.1578
0.801641, -1, 23.9219, 24.4111, 15.0047, 12.7474, 105.314, -70.1578
0.803477, -1, 23.9219, 24.3616, 15.0241, 12.7486, 105.262, -70.2886
0.808625, -1, 23.7291, 24.3122, 15.0436, 12.7499, 105.21, -70.4194
0.809824, -1, 23.7291, 24.3122, 15.0436, 12.7499, 105.21, -70.4194
0.811757, -1, 23.6326, 24.2628, 15.063, 12.7511, 105.159, -70.5504
0.813262, -1, 23.6326, 24.2628, 15.063, 12.7511, 105.159, -70.5504
0.814613, -1, 23.6326, 24.2628, 15.063, 12.7511, 105.159, -70.5504
0.816653, -1, 23.536, 24.2134, 15.0825, 12.7522, 105.107, -70.6813
0.817854, -1, 23.536, 24.2134, 15.0825, 12.7522, 105.107, -70.6813
0.828802, -1, 23.2456, 24.0651, 15.1409, 12.7558, 104.952, -71.0738
0.831987, -1, 23.1486, 24.0156, 15.1603, 12.7571, 104.9, -71.2048
0.839959, -1, 22.9547, 23.9167, 15.1992, 12.7595, 104.797, -71.4665
0.84692, -1, 22.8576, 23.8673, 15.2187, 12.7607, 104.745, -71.5975
0.85636, -1, 22.5668, 23.7192, 15.2772, 12.7645, 104.59, -71.9901
0.862856, -1, 22.4699, 23.6699, 15.2967, 12.7657, 104.538, -72.1208
0.872479, -1, 22.1799, 23.5219, 15.3551, 12.7695, 104.383, -72.5129
0.880283, -1, 21.9867, 23.4232, 15.394, 12.7721, 104.28, -72.7745
0.888244, -1, 21.794, 23.3245, 15.4331, 12.7747, 104.177, -73.0361
0.894859, -1, 21.6978, 23.2751, 15.4526, 12.776, 104.125, -73.1667
0.904679, -1, 21.4095, 23.1269, 15.5109, 12.7801, 103.971, -73.5587
0.912423, -1, 21.2172, 23.0283, 15.5499, 12.7827, 103.867, -73.8204
0.920589, -1, 21.0249, 22.9297, 15.5888, 12.7854, 103.764, -74.0818
0.928475, -1, 20.8324, 22.8311, 15.6277, 12.7881, 103.661, -74.3431
0.936451, -1, 20.7362, 22.7818, 15.6472, 12.7895, 103.558, -74.6041
0.944509, -1, 20.5435, 22.6832, 15.6862, 12.7922, 103.506, -74.8654
0.951865, -1, 20.3505, 22.5846, 15.7249, 12.7949, 103.403, -74.9962
0.959909, -1, 20.1568, 22.4858, 15.7639, 12.7976, 103.3, -75.2575
0.967918, -1, 19.9631, 22.3871, 15.8028, 12.8003, 103.197, -75.5186
0.975866, -1, 19.7694, 22.2884, 15.8414, 12.8031, 103.095, -75.7798
0.982937, -1, 19.5758, 22.1898, 15.8804, 12.8058, 102.992, -76.041
0.991905, -1, 19.3824, 22.0912, 15.9193, 12.8085, 102.888, -76.3022
0.999925, -1, 19.1893, 21.9925, 15.958, 12.8112, 102.786, -76.5631
1.00792, -1, 18.9965, 21.8939, 15.997, 12.814, 102.682, -76.8239
1.01585, -1, 18.8041, 21.7952, 16.0358, 12.8167, 102.579, -77.0848
1.02386, -1, 18.612, 21.6964, 16.0745, 12.8194, 102.476, -77.3458
1.03084, -1, 18.4202, 21.5979, 16.1134, 12.8221, 102.373, -77.6067
1.03996, -1, 18.2283, 21.4993, 16.1522, 12.8247, 102.271, -77.8673
1.04787, -1, 18.0364, 21.4009, 16.191, 12.8272, 102.168, -78.128
1.05487, -1, 17.8446, 21.3025, 16.2299, 12.8297, 102.065, -78.389
1.06385, -1, 17.6525, 21.2042, 16.2688, 12.8323, 101.962, -78.6495
1.07286, -1, 17.4601, 21.1059, 16.3076, 12.8348, 101.859, -78.9098
1.07885, -1, 17.2673, 21.0075, 16.3464, 12.8372, 101.756, -79.1704
1.08789, -1, 17.0742, 20.9092, 16.3851, 12.8396, 101.653, -79.431
1.09687, -1, 16.8812, 20.811, 16.4239, 12.8419, 101.55, -79.6915
1.10387, -1, 16.688, 20.7128, 16.4628, 12.8442, 101.447, -79.952
1.11186, -1, 16.495, 20.6146, 16.5014, 12.8466, 101.345, -80.2124
1.11999, -1, 16.3021, 20.5163, 16.5401, 12.8489, 101.242, -80.4731
1.12786, -1, 16.1099, 20.4179, 16.5789, 12.8512, 101.14, -80.7336
1.13586, -1, 15.9179, 20.3195, 16.6176, 12.8535, 101.037, -80.9938
1.14394, -1, 15.7263, 20.221, 16.6563, 12.8558, 100.934, -81.2537
1.15185, -1, 15.535, 20.1226, 16.6949, 12.8581, 100.832, -81.5139
1.15993, -1, 15.3438, 20.0243, 16.7335, 12.8605, 100.729, -81.7741
1.16803, -1, 15.1527, 19.926, 16.7724, 12.8627, 100.626, -82.0339
1.17585, -1, 14.9616, 19.8278, 16.811, 12.865, 100.524, -82.2937
1.18386, -1, 14.7703, 19.7297, 16.8497, 12.8673, 100.421, -82.5536
1.19193, -1, 14.5788, 19.6316, 16.8884, 12.8695, 100.319, -82.8137
1.20001, -1, 14.3869, 19.5334, 16.927, 12.8719, 100.216, -83.0735
1.2079, -1, 14.1947, 19.4354, 16.9658, 12.8741, 100.114, -83.3329
1.21593, -1, 14.0023, 19.3374, 17.0045, 12.8764, 100.011, -83.5924
1.22386, -1, 13.8099, 19.2396, 17.043, 12.8787, 99.9086, -83.8521
1.23186, -1, 13.6173, 19.1418, 17.0817, 12.881, 99.8061, -84.1116
1.24004, -1, 13.425, 19.0439, 17.1204, 12.8833, 99.7035, -84.3708
1.24786, -1, 13.233, 18.946, 17.1589, 12.8856, 99.6014, -84.6301
1.25596, -1, 13.0414, 18.8481, 17.1974, 12.888, 99.4989, -84.8894
1.2647, -1, 12.8501, 18.7501, 17.2361, 12.8903, 99.3964, -85.1488
1.27193, -1, 12.6591, 18.6522, 17.2746, 12.8927, 99.2944, -85.4077
1.28005, -1, 12.4685, 18.5544, 17.3132, 12.8951, 99.192, -85.6666
1.28916, -1, 12.2783, 18.4566, 17.3518, 12.8975, 99.0896, -85.9255
1.29549, -1, 12.0883, 18.3589, 17.3902, 12.8999, 98.9878, -86.1846
1.30441, -1, 11.898, 18.2613, 17.4289, 12.9024, 98.8855, -86.4433
1.31161, -1, 11.7074, 18.1636, 17.4675, 12.9048, 98.7836, -86.7018
1.31973, -1, 11.6121, 18.1148, 17.4867, 12.906, 98.7328, -86.9605
1.32866, -1, 11.3257, 17.9684, 17.5446, 12.9097, 98.5799, -87.2192
1.33589, -1, 11.1344, 17.8709, 17.5832, 12.9121, 98.478, -87.4777
1.34397, -1, 10.9429, 17.7734, 17.6216, 12.9146, 98.3761, -87.7359
1.3528, -1, 10.7512, 17.676, 17.6601, 12.9171, 98.274, -87.9941
1.3601, -1, 10.5596, 17.5784, 17.6985, 12.9196, 98.1722, -88.2525
1.36684, -1, 10.4639, 17.5297, 17.7177, 12.9209, 98.1214, -88.3818
1.37705, -1, 10.1772, 17.3834, 17.7755, 12.9247, 97.9685, -88.7689
1.38438, -1, 9.9866, 17.2858, 17.8139, 12.9274, 97.8668, -89.0269
1.39234, -1, 9.79628, 17.1883, 17.8522, 12.93, 97.7647, -89.285
1.39885, -1, 9.70123, 17.1395, 17.8714, 12.9313, 97.7138, -89.4141
1.40689, -1, 9.51155, 17.0421, 17.9098, 12.9341, 97.6118, -89.6722
1.41642, -1, 9.22767, 16.896, 17.9673, 12.9382, 97.4591, -90.0585
1.4253, -1, 9.03841, 16.7988, 18.0057, 12.9408, 97.3572, -90.316
1.4309, -1, 8.9437, 16.7502, 18.0248, 12.9422, 97.3063, -90.4447
1.44048, -1, 8.75416, 16.653, 18.0825, 12.9461, 97.1537, -90.831
1.44784, -1, 8.56458, 16.5558, 18.1017, 12.9474, 97.1029, -90.9595
1.4549, -1, 8.37481, 16.4588, 18.14, 12.9501, 97.0015, -91.2168
1.46488, -1, 8.08931, 16.3133, 18.1975, 12.9541, 96.8491, -91.6026
1.47184, -1, 7.99407, 16.2649, 18.2167, 12.9554, 96.7983, -91.7313
1.47892, -1, 7.80358, 16.168, 18.255, 12.9581, 96.697, -91.9882
1.48789, -1, 7.61296, 16.0711, 18.2932, 12.9607, 96.5954, -92.2448
1.49586, -1, 7.42256, 15.9741, 18.3316, 12.9632, 96.4939, -92.5015
1.50283, -1, 7.2324, 15.8772, 18.3697, 12.9658, 96.3927, -92.7585
1.51185, -1, 7.04251, 15.7802, 18.4079, 12.9683, 96.2914, -93.0152
1.51984, -1, 6.85309, 15.6832, 18.4463, 12.9709, 96.1901, -93.2716
1.52684, -1, 6.66417, 15.5863, 18.4843, 12.9734, 96.0895, -93.5278
1.53584, -1, 6.47574, 15.4895, 18.5224, 12.9759, 95.9884, -93.7842
1.5439, -1, 6.28751, 15.3928, 18.5606, 12.9784, 95.8873, -94.0407
1.55083, -1, 6.09944, 15.2961, 18.5987, 12.9808, 95.7866, -94.2966
1.55981, -1, 5.91114, 15.1993, 18.6368, 12.9832, 95.6855, -94.5525
1.56784, -1, 5.72275, 15.1027, 18.675, 12.9855, 95.5845, -94.8084
1.57683, -1, 5.5343, 15.0061, 18.7131, 12.9878, 95.484, -95.0644
1.58287, -1, 5.34549, 14.9095, 18.7512, 12.9901, 95.3831, -95.32
1.59187, -1, 5.15633, 14.8131, 18.7894, 12.9923, 95.2823, -95.5753
1.59991, -1, 4.96691, 14.7168, 18.8274, 12.9945, 95.1818, -95.8308
1.60784, -1, 4.7776, 14.6204, 18.8654, 12.9968, 95.0809, -96.0864
1.61583, -1, 4.58816, 14.5241, 18.9035, 12.999, 94.9802, -96.3416
1.62388, -1, 4.39891, 14.4278, 18.9415, 13.0012, 94.8795, -96.5965
1.63184, -1, 4.21, 14.3314, 18.9795, 13.0034, 94.7786, -96.8514
1.63987, -1, 4.02139, 14.235, 19.0175, 13.0057, 94.6778, -97.1065
1.64784, -1, 3.83329, 14.1388, 19.0554, 13.008, 94.577, -97.3616
1.65584, -1, 3.64583, 14.0427, 19.0933, 13.0101, 94.4763, -97.6162
1.66396, -1, 3.45865, 13.9465, 19.1313, 13.0125, 94.3758, -97.871
1.67184, -1, 3.27165, 13.8505, 19.169, 13.0148, 94.2751, -98.1256
1.67984, -1, 3.08466, 13.7545, 19.2069, 13.0171, 94.1744, -98.3804
1.68792, -1, 2.89767, 13.6584, 19.2449, 13.0193, 94.0738, -98.6349
1.69584, -1, 2.71057, 13.5624, 19.2828, 13.0216, 93.9731, -98.889
1.70385, -1, 2.52323, 13.4665, 19.3207, 13.0238, 93.8726, -99.143
1.71197, -1, 2.33582, 13.3706, 19.3584, 13.0261, 93.7724, -99.3973
1.71984, -1, 2.148, 13.2749, 19.3962, 13.0284, 93.672, -99.6513
1.72785, -1, 1.95985, 13.1791, 19.4342, 13.0306, 93.5718, -99.9049
1.73592, -1, 1.77171, 13.0832, 19.4719, 13.0329, 93.4719, -100.159
1.74386, -1, 1.58342, 12.9874, 19.5096, 13.0351, 93.3717, -100.412
1.75184, -1, 1.39534, 12.8916, 19.5475, 13.0374, 93.2716, -100.666
1.76004, -1, 1.20754, 12.7958, 19.5852, 13.0397, 93.1718, -100.919
1.76787, -1, 1.02016, 12.7, 19.6229, 13.0421, 93.0716, -101.172
1.77592, -1, 0.833485, 12.6045, 19.6606, 13.0444, 92.9717, -101.425
1.78421, -1, 0.647142, 12.5089, 19.6982, 13.0468, 92.8721, -101.678
1.79137, -1, 0.461178, 12.4134, 19.7358, 13.0493, 92.7722, -101.931
1.79995, -1, 0.275529, 12.3181, 19.7736, 13.0518, 92.6725, -102.184
1.80837, -1, 0.0900884, 12.2227, 19.8111, 13.0542, 92.5733, -102.436
1.81536, -1, -0.00266152, 12.175, 19.8299, 13.0554, 92.4736, -102.689
1.82397, -1, -0.281033, 12.0322, 19.8864, 13.0591, 92.374, -102.942
1.8326, -1, -0.466944, 11.937, 19.924, 13.0616, 92.2748, -103.194
1.83988, -1, -0.653194, 11.8419, 19.9615, 13.064, 92.1752, -103.446
1.84799, -1, -0.839599, 11.7469, 19.9991, 13.0665, 92.0757, -103.698
1.85679, -1, -1.02625, 11.6519, 20.0365, 13.0691, 91.9765, -103.95
1.8641, -1, -1.21314, 11.5568, 20.074, 13.0716, 91.8771, -104.202
1.87082, -1, -1.30665, 11.5092, 20.0928, 13.0728, 91.8274, -104.327
1.88103, -1, -1.5868, 11.3665, 20.149, 13.0766, 91.6788, -104.705
1.8882, -1, -1.77316, 11.2714, 20.1864, 13.0792, 91.5795, -104.956
1.89485, -1, -1.86623, 11.2239, 20.2051, 13.0805, 91.5299, -105.082
1.90521, -1, -2.14459, 11.0815, 20.2612, 13.0845, 91.3812, -105.459
1.91088, -1, -2.23708, 11.034, 20.2799, 13.0858, 91.3316, -105.584
1.92062, -1, -2.51422, 10.8917, 20.336, 13.0898, 91.1828, -105.96
1.92926, -1, -2.6983, 10.797, 20.3732, 13.0925, 91.0838, -106.211
1.93489, -1, -2.79023, 10.7496, 20.3919, 13.0938, 91.0343, -106.337
1.94447, -1, -2.97417, 10.6549, 20.4292, 13.0977, 90.8858, -106.713
1.95183, -1, -3.15823, 10.5602, 20.4666, 13.099, 90.8365, -106.838
1.95889, -1, -3.34251, 10.4657, 20.5038, 13.1015, 90.7374, -107.089
1.96788, -1, -3.52717, 10.3712, 20.541, 13.1041, 90.6385, -107.339
1.97584, -1, -3.71193, 10.2768, 20.5783, 13.1066, 90.5398, -107.589
1.98289, -1, -3.89705, 10.1824, 20.6155, 13.109, 90.4409, -107.839
1.99183, -1, -4.08242, 10.088, 20.6528, 13.1115, 90.3423, -108.089
1.99985, -1, -4.26798, 9.99374, 20.6899, 13.1139, 90.2438, -108.339
2.00683, -1, -4.4535, 9.8994, 20.7271, 13.1162, 90.145, -108.589
2.01584, -1, -4.63879, 9.80505, 20.7644, 13.1186, 90.0464, -108.839
2.02387, -1, -4.82369, 9.71082, 20.8015, 13.1209, 89.9482, -109.088
2.03082, -1, -5.0082, 9.61675, 20.8386, 13.1234, 89.8496, -109.337
2.03984, -1, -5.19204, 9.52267, 20.8757, 13.1257, 89.7511, -109.587
2.04796, -1, -5.37536, 9.42865, 20.9129, 13.128, 89.6529, -109.836
2.05482, -1, -5.55826, 9.33478, 20.9499, 13.1303, 89.5544, -110.084
2.06384, -1, -5.74079, 9.24088, 20.9871, 13.1326, 89.4562, -110.333
2.0728, -1, -5.92306, 9.14697, 21.0241, 13.1348, 89.3583, -110.582
2.07881, -1, -6.10549, 9.05312, 21.0611, 13.137, 89.26, -110.831
2.08784, -1, -6.28824, 8.95932, 21.0982, 13.1393, 89.1621, -111.079
2.09593, -1, -6.47117, 8.8657, 21.1351, 13.1415, 89.0644, -111.327
2.10382, -1, -6.65436, 8.77202, 21.1719, 13.1436, 88.9663, -111.576
2.11185, -1, -6.838, 8.67835, 21.2089, 13.1458, 88.8683, -111.824
2.11989, -1, -7.02187, 8.58476, 21.2458, 13.1479, 88.7706, -112.072
2.12784, -1, -7.20606, 8.49122, 21.2826, 13.15, 88.6726, -112.319
2.13585, -1, -7.39026, 8.39756, 21.3196, 13.1521, 88.5748, -112.567
2.14388, -1, -7.57405, 8.30395, 21.3564, 13.1542, 88.4774, -112.815
2.15183, -1, -7.75756, 8.21053, 21.3931, 13.1564, 88.3797, -113.062
2.15984, -1, -7.94065, 8.11712, 21.4301, 13.1587, 88.2823, -113.309
2.16792, -1, -8.12324, 8.02378, 21.4669, 13.1609, 88.185, -113.556
2.17582, -1, -8.30505, 7.93055, 21.5036, 13.1631, 88.0876, -113.803
2.18384, -1, -8.48638, 7.83734, 21.5405, 13.1653, 87.9901, -114.05
2.19189, -1, -8.66734, 7.74417, 21.5773, 13.1677, 87.8929, -114.297
2.19982, -1, -8.84805, 7.65099, 21.614, 13.17, 87.7954, -114.543
2.20785, -1, -9.02885, 7.55789, 21.6508, 13.1721, 87.698, -114.79
2.21594, -1, -9.20985, 7.4649, 21.6875, 13.1744, 87.6009, -115.036
2.22382, -1, -9.39112, 7.37208, 21.7241, 13.1766, 87.5036, -115.283
2.23186, -1, -9.57277, 7.27924, 21.7608, 13.1788, 87.4065, -115.529
2.23986, -1, -9.75475, 7.18641, 21.7974, 13.1811, 87.3095, -115.775
2.24783, -1, -9.93712, 7.09369, 21.8339, 13.1833, 87.2122, -116.021
2.25606, -1, -10.1197, 7.00092, 21.8705, 13.1855, 87.115, -116.267
2.26387, -1, -10.3025, 6.90811, 21.9071, 13.1877, 87.018, -116.512
2.27186, -1, -10.485, 6.81537, 21.9436, 13.1899, 86.9207, -116.758
2.2807, -1, -10.6672, 6.72268, 21.9802, 13.1922, 86.8237, -117.003
2.28797, -1, -10.8491, 6.6301, 22.0166, 13.1946, 86.7269, -117.249
2.29592, -1, -11.0304, 6.53749, 22.053, 13.1971, 86.6299, -117.494
2.30476, -1, -11.2107, 6.44502, 22.0896, 13.1995, 86.5332, -117.739
2.31193, -1, -11.3905, 6.35253, 22.1262, 13.2019, 86.4367, -117.984
2.31989, -1, -11.5701, 6.26008, 22.1625, 13.2043, 86.3399, -118.229
2.32879, -1, -11.7494, 6.16764, 22.199, 13.2067, 86.2432, -118.473
2.33593, -1, -11.9286, 6.07532, 22.2355, 13.2092, 86.1467, -118.718
2.34389, -1, -12.1079, 5.98307, 22.2719, 13.2117, 86.0501, -118.962
2.35279, -1, -12.2874, 5.89102, 22.3083, 13.2141, 85.9537, -119.206
2.35995, -1, -12.4673, 5.79898, 22.3447, 13.2167, 85.8575, -119.45
2.36686, -1, -12.5574, 5.75295, 22.3628, 13.2179, 85.8092, -119.572
2.37617, -1, -12.8282, 5.61503, 22.4172, 13.2216, 85.6648, -119.938
2.38281, -1, -12.9187, 5.56909, 22.4354, 13.2228, 85.617, -120.06
2.39231, -1, -13.1906, 5.43113, 22.4898, 13.2265, 85.473, -120.425
2.39884, -1, -13.2812, 5.38512, 22.5079, 13.2277, 85.4251, -120.547
2.40681, -1, -13.4622, 5.29321, 22.5442, 13.2301, 85.3294, -120.791
2.41637, -1, -13.733, 5.15541, 22.5985, 13.234, 85.1856, -121.155
2.42522, -1, -13.913, 5.06357, 22.6346, 13.2365, 85.0898, -121.398
2.43081, -1, -14.0026, 5.0177, 22.6527, 13.2378, 85.0421, -121.52
2.44041, -1, -14.1812, 4.926, 22.6888, 13.2416, 84.8986, -121.884
2.44933, -1, -14.3595, 4.83428, 22.7249, 13.2441, 84.8031, -122.127
2.45481, -1, -14.5374, 4.74264, 22.7611, 13.2454, 84.7554, -122.248
2.46382, -1, -14.715, 4.65105, 22.7973, 13.248, 84.6597, -122.49
2.47188, -1, -14.8926, 4.55952, 22.8334, 13.2504, 84.564, -122.733
2.47882, -1, -15.0704, 4.46808, 22.8695, 13.2529, 84.4683, -122.975
2.48781, -1, -15.2484, 4.37683, 22.9057, 13.2553, 84.3727, -123.217
2.49586, -1, -15.4268, 4.28555, 22.9417, 13.2576, 84.277, -123.459
2.50384, -1, -15.6058, 4.19432, 22.9777, 13.26, 84.1815, -123.701
2.51181, -1, -15.785, 4.10309, 23.0137, 13.2623, 84.0859, -123.942
2.51986, -1, -15.9643, 4.01188, 23.0496, 13.2645, 83.9905, -124.184
2.52782, -1, -16.144, 3.92061, 23.0856, 13.2667, 83.8951, -124.425
2.53581, -1, -16.3237, 3.82938, 23.1216, 13.2688, 83.7997, -124.667
2.54389, -1, -16.5031, 3.73816, 23.1574, 13.2709, 83.7043, -124.908
2.55186, -1, -16.6821, 3.64703, 23.1932, 13.2732, 83.6089, -125.15
2.55981, -1, -16.8605, 3.55594, 23.2291, 13.2755, 83.5135, -125.391
2.56787, -1, -17.038, 3.46494, 23.2649, 13.2776, 83.4181, -125.631
2.57481, -1, -17.2148, 3.37396, 23.3008, 13.2799, 83.3229, -125.872
2.58382, -1, -17.3913, 3.28307, 23.3366, 13.2821, 83.2278, -126.113
2.59188, -1, -17.5676, 3.19223, 23.3723, 13.2842, 83.1326, -126.353
2.59984, -1, -17.7437, 3.10159, 23.4082, 13.2864, 83.0378, -126.593
2.60781, -1, -17.9197, 3.01099, 23.4441, 13.2884, 82.9431, -126.834
2.61587, -1, -18.0959, 2.92054, 23.4798, 13.2906, 82.8482, -127.074
2.62382, -1, -18.2725, 2.83018, 23.5155, 13.2927, 82.7535, -127.314
2.63181, -1, -18.4494, 2.73977, 23.5513, 13.2948, 82.659, -127.554
2.63987, -1, -18.627, 2.64942, 23.5869, 13.2967, 82.5641, -127.793
2.64781, -1, -18.8047, 2.55913, 23.6226, 13.2989, 82.4695, -128.033
2.65581, -1, -18.9828, 2.4687, 23.6583, 13.3008, 82.3753, -128.272
2.66388, -1, -19.1611, 2.3782, 23.6939, 13.3029, 82.2807, -128.512
2.67183, -1, -19.3393, 2.28782, 23.7295, 13.3048, 82.1864, -128.751
2.67987, -1, -19.5169, 2.19744, 23.7651, 13.307, 82.0926, -128.99
2.68781, -1, -19.694, 2.10708, 23.8006, 13.3091, 81.9983, -129.229
2.69581, -1, -19.8703, 2.01682, 23.8359, 13.3113, 81.9042, -129.468
2.70389, -1, -20.046, 1.92657, 23.8715, 13.3134, 81.8103, -129.707
2.71181, -1, -20.2212, 1.83641, 23.9071, 13.3157, 81.716, -129.945
2.71986, -1, -20.3961, 1.7463, 23.9425, 13.3178, 81.622, -130.184
2.72788, -1, -20.5707, 1.65625, 23.9781, 13.3201, 81.5283, -130.422
2.73581, -1, -20.7452, 1.56632, 24.0136, 13.3222, 81.4342, -130.66
2.74382, -1, -20.9199, 1.47642, 24.0489, 13.3244, 81.3405, -130.898
2.75188, -1, -21.0949, 1.38671, 24.0844, 13.3266, 81.2469, -131.136
2.75981, -1, -21.2703, 1.29695, 24.1199, 13.3288, 81.153, -131.374
2.76786, -1, -21.446, 1.20725, 24.1552, 13.3309, 81.059, -131.612
2.77592, -1, -21.6221, 1.11762, 24.1906, 13.3331, 80.9653, -131.849
2.78411, -1, -21.7983, 1.02794, 24.2261, 13.3353, 80.8715, -132.087
2.79179, -1, -21.9747, 0.938279, 24.2614, 13.3375, 80.7777, -132.324
2.7999, -1, -22.1512, 0.848719, 24.2967, 13.3396, 80.6841, -132.561
2.80826, -1, -22.3278, 0.75916, 24.3321, 13.3418, 80.5904, -132.798
2.81539, -1, -22.4159, 0.714435, 24.3673, 13.3441, 80.4968, -133.035
2.82388, -1, -22.6793, 0.580152, 24.4025, 13.3464, 80.4033, -133.272
2.83243, -1, -22.8542, 0.490735, 24.4378, 13.3488, 80.3097, -133.509
2.8401, -1, -23.0282, 0.401334, 24.4729, 13.3513, 80.2161, -133.746
2.8468, -1, -23.115, 0.356639, 24.4905, 13.3525, 80.1693, -133.864
2.8567, -1, -23.3751, 0.222641, 24.5432, 13.3561, 80.0292, -134.219
2.86406, -1, -23.5482, 0.133425, 24.5784, 13.3586, 79.9357, -134.455
2.87079, -1, -23.6348, 0.0888453, 24.596, 13.3598, 79.8891, -134.573
2.88086, -1, -23.8949, -0.0447796, 24.6488, 13.3634, 79.7494, -134.928
2.88863, -1, -24.0684, -0.133719, 24.6839, 13.3658, 79.6561, -135.164
2.89619, -1, -24.2423, -0.222746, 24.7189, 13.3682, 79.563, -135.399
2.90286, -1, -24.3293, -0.267228, 24.7365, 13.3695, 79.5166, -135.517
2.9108, -1, -24.5036, -0.356133, 24.7717, 13.3719, 79.4236, -135.753
2.92033, -1, -24.7657, -0.489459, 24.8242, 13.3755, 79.284, -136.106
2.9292, -1, -24.9408, -0.578331, 24.8594, 13.3779, 79.1911, -136.342
2.93491, -1, -25.0283, -0.622736, 24.877, 13.3791, 79.1445, -136.459
2.94433, -1, -25.2031, -0.711547, 24.912, 13.3826, 79.0051, -136.812
2.9531, -1, -25.3776, -0.800274, 24.947, 13.3838, 78.9588, -136.929
2.9588, -1, -25.5518, -0.889101, 24.9821, 13.3863, 78.8663, -137.164
2.96895, -1, -25.8118, -1.0221, 25.0344, 13.3899, 78.7271, -137.517
2.9758, -1, -25.8981, -1.06646, 25.0519, 13.3911, 78.6808, -137.634
2.98279, -1, -26.0706, -1.15519, 25.0869, 13.3936, 78.5886, -137.868
2.9918, -1, -26.2426, -1.24382, 25.1219, 13.396, 78.4959, -138.103
2.99983, -1, -26.4144, -1.33231, 25.1567, 13.3984, 78.4033, -138.338
3.0068, -1, -26.5863, -1.42076, 25.1917, 13.4006, 78.311, -138.572
3.0158, -1, -26.7584, -1.50911, 25.2267, 13.4029, 78.2184, -138.806
3.02384, -1, -26.9306, -1.59727, 25.2615, 13.4051, 78.126, -139.04
3.03081, -1, -27.1031, -1.68548, 25.2964, 13.4073, 78.0339, -139.274
3.0398, -1, -27.2757, -1.77372, 25.3313, 13.4094, 77.9417, -139.508
3.04786, -1, -27.4485, -1.86179, 25.366, 13.4117, 77.8496, -139.742
3.0549, -1, -27.6217, -1.94989, 25.4008, 13.4138, 77.7577, -139.975
3.0638, -1, -27.795, -2.0381, 25.4357, 13.4159, 77.6656, -140.208
3.07082, -1, -27.9684, -2.12611, 25.4705, 13.4179, 77.5736, -140.442
3.07979, -1, -28.1416, -2.21414, 25.5051, 13.42, 77.4816, -140.675
3.08885, -1, -28.3147, -2.30214, 25.54, 13.422, 77.3896, -140.908
3.09587, -1, -28.4875, -2.3902, 25.5747, 13.4241, 77.2975, -141.141
3.10384, -1, -28.6598, -2.47815, 25.6093, 13.4262, 77.2054, -141.374
3.1118, -1, -28.8315, -2.56615, 25.644, 13.4284, 77.1135, -141.607
3.11987, -1, -29.0025, -2.65413, 25.6787, 13.4305, 77.0216, -141.84
3.1278, -1, -29.1732, -2.74202, 25.7133, 13.4327, 76.9296, -142.072
3.13587, -1, -29.3439, -2.82986, 25.7479, 13.4347, 76.838, -142.305
3.14385, -1, -29.5146, -2.91756, 25.7827, 13.4368, 76.7459, -142.537
3.15182, -1, -29.6854, -3.00516, 25.8172, 13.4388, 76.6541, -142.77
3.15986, -1, -29.8565, -3.09272, 25.8517, 13.4409, 76.5625, -143.002
3.16779, -1, -30.0274, -3.1802, 25.8864, 13.443, 76.4705, -143.234
3.17597, -1, -30.1984, -3.26773, 25.9209, 13.445, 76.3788, -143.466
3.18379, -1, -30.3696, -3.35517, 25.9554, 13.4471, 76.2874, -143.698
3.19181, -1, -30.5411, -3.44264, 25.99, 13.4491, 76.1957, -143.93
3.20097, -1, -30.7129, -3.5302, 26.0244, 13.4512, 76.1043, -144.161
3.20779, -1, -30.8848, -3.61757, 26.0589, 13.4531, 76.013, -144.393
3.21586, -1, -31.0565, -3.70501, 26.0935, 13.4551, 75.9215, -144.624
3.22385, -1, -31.2282, -3.79234, 26.1279, 13.4572, 75.8302, -144.855
3.23181, -1, -31.3995, -3.87968, 26.1623, 13.4593, 75.7389, -145.087
3.23986, -1, -31.5703, -3.96699, 26.1967, 13.4615, 75.6476, -145.318
3.2478, -1, -31.7407, -4.05422, 26.2312, 13.4637, 75.5563, -145.549
3.25589, -1, -31.9107, -4.14148, 26.2655, 13.4658, 75.4652, -145.779
3.26387, -1, -32.0803, -4.22869, 26.2999, 13.468, 75.3743, -146.01
3.27201, -1, -32.2497, -4.31582, 26.3343, 13.4703, 75.2831, -146.241
3.27985, -1, -32.4192, -4.40288, 26.3685, 13.4723, 75.1919, -146.472
3.28794, -1, -32.5889, -4.48982, 26.4028, 13.4745, 75.1015, -146.702
3.29614, -1, -32.7586, -4.57675, 26.4373, 13.4766, 75.0104, -146.932
3.30389, -1, -32.9283, -4.66365, 26.4715, 13.4788, 74.9197, -147.163
3.31197, -1, -33.098, -4.75059, 26.5056, 13.481, 74.8293, -147.393
3.32037, -1, -33.2678, -4.83744, 26.54, 13.4832, 74.7384, -147.623
3.32743, -1, -33.3528, -4.88085, 26.5742, 13.4855, 74.6479, -147.853
3.33587, -1, -33.6082, -5.01126, 26.6084, 13.4877, 74.5572, -148.083
3.34607, -1, -33.7785, -5.098, 26.6427, 13.4899, 74.4667, -148.313
3.35192, -1, -33.9487, -5.18476, 26.6769, 13.4921, 74.3762, -148.543
3.35989, -1, -34.1189, -5.27147, 26.711, 13.4944, 74.2857, -148.772
3.36882, -1, -34.289, -5.35815, 26.7453, 13.4966, 74.1952, -149.001
3.37607, -1, -34.4589, -5.44477, 26.7795, 13.4989, 74.1045, -149.231
3.38277, -1, -34.5437, -5.4881, 26.7966, 13.5, 74.0592, -149.345
3.39299, -1, -34.7974, -5.6181, 26.8477, 13.5036, 73.9236, -149.689
3.39878, -1, -34.8817, -5.6614, 26.8648, 13.5049, 73.8782, -149.804
3.40826, -1, -35.1343, -5.79117, 26.9161, 13.5085, 73.7424, -150.147
3.4171, -1, -35.3026, -5.87764, 26.9502, 13.511, 73.6523, -150.376
3.42432, -1, -35.4711, -5.96389, 26.9843, 13.5133, 73.5618, -150.605
3.43238, -1, -35.6396, -6.05011, 27.0184, 13.5157, 73.4715, -150.834
3.44122, -1, -35.8081, -6.13634, 27.0523, 13.518, 73.3813, -151.063
3.44684, -1, -35.8924, -6.17941, 27.0694, 13.5193, 73.3362, -151.177
3.45578, -1, -36.0609, -6.26554, 27.1035, 13.5216, 73.2456, -151.405
3.46386, -1, -36.2294, -6.35165, 27.1374, 13.5241, 73.1552, -151.634
3.47077, -1, -36.3981, -6.43786, 27.1714, 13.5264, 73.0651, -151.863
3.47978, -1, -36.5671, -6.52405, 27.2054, 13.5288, 72.9745, -152.091
3.48784, -1, -36.7359, -6.61017, 27.2394, 13.5311, 72.8843, -152.319
3.49478, -1, -36.9048, -6.69632, 27.2732, 13.5334, 72.7943, -152.547
3.50379, -1, -37.0738, -6.78243, 27.3072, 13.5356, 72.7042, -152.775
3.51185, -1, -37.2425, -6.86849, 27.3411, 13.5379, 72.6142, -153.003
3.51879, -1, -37.4111, -6.9545, 27.3749, 13.5402, 72.5243, -153.231
3.52779, -1, -37.5791, -7.04055, 27.4089, 13.5424, 72.4344, -153.458
3.53596, -1, -37.7469, -7.12657, 27.4428, 13.5447, 72.3446, -153.686
3.54277, -1, -37.9146, -7.21255, 27.4766, 13.5469, 72.2547, -153.913
3.55178, -1, -38.0821, -7.29844, 27.5105, 13.5491, 72.1651, -154.141
3.55989, -1, -38.2495, -7.3843, 27.5444, 13.5512, 72.0753, -154.368
3.56677, -1, -38.4169, -7.47002, 27.5783, 13.5534, 71.9856, -154.595
3.57578, -1, -38.5841, -7.5557, 27.6121, 13.5555, 71.8963, -154.822
3.58477, -1, -38.7513, -7.64139, 27.646, 13.5575, 71.8064, -155.049
3.59178, -1, -38.9186, -7.72706, 27.6797, 13.5596, 71.7169, -155.276
3.60078, -1, -39.086, -7.81268, 27.7134, 13.5617, 71.6279, -155.503
3.60788, -1, -39.2536, -7.89834, 27.7473, 13.5637, 71.5383, -155.73
3.61684, -1, -39.4211, -7.98403, 27.7811, 13.5657, 71.449, -155.957
3.62379, -1, -39.5886, -8.06957, 27.8147, 13.5676, 71.3598, -156.183
3.63185, -1, -39.7563, -8.15513, 27.8484, 13.5696, 71.2704, -156.41
3.63978, -1, -39.9239, -8.24056, 27.8822, 13.5716, 71.1811, -156.636
3.64779, -1, -40.0915, -8.326, 27.9158, 13.5735, 71.0917, -156.863
3.65584, -1, -40.2589, -8.41136, 27.9495, 13.5754, 71.0026, -157.089
3.66379, -1, -40.426, -8.49675, 27.9833, 13.5774, 70.913, -157.315
3.67179, -1, -40.5931, -8.58215, 28.0169, 13.5793, 70.8239, -157.542
3.67986, -1, -40.76, -8.66755, 28.0505, 13.5813, 70.7349, -157.767
3.68778, -1, -40.9266, -8.75293, 28.0842, 13.5833, 70.6456, -157.993
3.69579, -1, -41.093, -8.83828, 28.1179, 13.5854, 70.5565, -158.219
3.70385, -1, -41.2592, -8.92351, 28.1515, 13.5874, 70.4676, -158.445
3.71178, -1, -41.4254, -9.00868, 28.1851, 13.5894, 70.3783, -158.671
3.71979, -1, -41.5917, -9.09388, 28.2188, 13.5914, 70.2891, -158.896
3.72789, -1, -41.7581, -9.179, 28.2524, 13.5934, 70.2001, -159.122
3.73582, -1, -41.9244, -9.26401, 28.2859, 13.5954, 70.1109, -159.347
3.74391, -1, -42.0908, -9.34906, 28.3197, 13.5974, 70.022, -159.573
3.75178, -1, -42.2571, -9.43417, 28.3532, 13.5994, 69.9329, -159.798
3.75978, -1, -42.4233, -9.51919, 28.3867, 13.6015, 69.8442, -160.023
3.76793, -1, -42.5897, -9.60418, 28.4203, 13.6035, 69.7551, -160.248
3.77584, -1, -42.7561, -9.68915, 28.4538, 13.6055, 69.6662, -160.473
3.78385, -1, -42.9224, -9.77411, 28.4872, 13.6076, 69.5777, -160.699
3.79193, -1, -43.0888, -9.85905, 28.5207, 13.6096, 69.4886, -160.923
3.80014, -1, -43.255, -9.94399, 28.5542, 13.6116, 69.4, -161.148
3.80752, -1, -43.4211, -10.0289, 28.5877, 13.6137, 69.3114, -161.373
3.81595, -1, -43.5871, -10.1139, 28.6211, 13.6158, 69.2228, -161.598
3.82429, -1, -43.753, -10.1988, 28.6547, 13.6179, 69.1342, -161.822
3.83179, -1, -43.9189, -10.2836, 28.6881, 13.6201, 69.0458, -162.047
3.83992, -1, -44.0844, -10.3683, 28.7214, 13.6222, 68.9573, -162.271
3.84831, -1, -44.2497, -10.4531, 28.755, 13.6244, 68.8686, -162.495
3.85596, -1, -44.4149, -10.5376, 28.7884, 13.6266, 68.78, -162.72
3.86398, -1, -44.5802, -10.6222, 28.8217, 13.6287, 68.6916, -162.944
3.8726, -1, -44.7454, -10.7067, 28.8551, 13.6309, 68.6028, -163.168
3.87999, -1, -44.9107, -10.7911, 28.8886, 13.6332, 68.5143, -163.392
3.88677, -1, -44.9934, -10.8333, 28.9053, 13.6342, 68.4701, -163.504
3.89625, -1, -45.2414, -10.9602, 28.9553, 13.6375, 68.3375, -163.84
3.90437, -1, -45.4066, -11.0446, 28.9887, 13.6398, 68.2492, -164.064
3.91238, -1, -45.5718, -11.1291, 29.0218, 13.642, 68.161, -164.288
3.92032, -1, -45.7372, -11.2135, 29.055, 13.6443, 68.0727, -164.512
3.92884, -1, -45.9021, -11.2978, 29.0884, 13.6466, 67.9843, -164.735
3.93641, -1, -46.0652, -11.381, 29.1219, 13.6489, 67.8959, -164.959
3.9444, -1, -46.2247, -11.4621, 29.1553, 13.6512, 67.8082, -165.181
3.9529, -1, -46.3787, -11.5394, 29.1889, 13.6536, 67.7215, -165.4
3.96038, -1, -46.4529, -11.5764, 29.2056, 13.6548, 67.6793, -165.612
3.96777, -1, -46.5942, -11.6464, 29.2379, 13.6571, 67.5978, -165.713
3.97578, -1, -46.7241, -11.7098, 29.2678, 13.6593, 67.523, -165.903
3.98381, -1, -46.8393, -11.766, 29.2942, 13.6613, 67.4558, -166.072
3.99177, -1, -46.9384, -11.8153, 29.3163, 13.663, 67.3999, -166.215
3.99979, -1, -47.0212, -11.8583, 29.333, 13.6643, 67.3549, -166.328
4.00782, -1, -47.0885, -11.8952, 29.3443, 13.6651, 67.3212, -166.413
4.01577, -1, -47.1411, -11.9247, 29.3516, 13.6655, 67.2977, -166.472
4.02377, -1, -47.1802, -11.947, 29.3555, 13.6657, 67.2826, -166.51
4.03179, -1, -47.2079, -11.9626, 29.3574, 13.6659, 67.2737, -166.533
4.03977, -1, -47.2262, -11.9727, 29.3582, 13.6659, 67.269, -166.545
4.04779, -1, -47.2372, -11.9786, 29.3586, 13.6659, 67.2666, -166.551
4.05583, 2, -47.2429, -11.9816, 29.3588, 13.666, 67.2655, -166.554
4.06381, 2, -47.245, -11.9829, 29.359, 13.666, 67.2649, -166.555
4.07177, 2, -47.2451, -11.9834, 29.3591, 13.6661, 67.2646, -166.555
4.07986, 2, -47.2449, -11.9836, 29.3591, 13.6661, 67.2645, -166.556
4.08777, 2, -47.2448, -11.9837, 29.3592, 13.6661, 67.2644, -166.556
4.09676, 2, -47.2452, -11.9838, 29.3592, 13.6661, 67.2644, -166.556
4.10383, 2, -47.2462, -11.984, 29.3592, 13.6661, 67.2644, -166.556
4.1118, 2, -47.2474, -11.9846, 29.3592, 13.6661, 67.2644, -166.556
4.11978, 2, -47.2492, -11.9853, 29.3592, 13.6661, 67.2644, -166.556
4.12784, 2, -47.2508, -11.9862, 29.3592, 13.6661, 67.2644, -166.556
4.13577, 2, -47.2522, -11.987, 29.3592, 13.6661, 67.2644, -166.556
4.14377, 2, -47.253, -11.9877, 29.3592, 13.666, 67.2644, -166.556
4.15183, 2, -47.2535, -11.9881, 29.3592, 13.6661, 67.2644, -166.556
4.15977, 2, -47.2537, -11.9883, 29.3593, 13.6661, 67.2644, -166.556
4.16777, 2, -47.2538, -11.9884, 29.3593, 13.6661, 67.2644, -166.556
4.17583, 2, -47.2535, -11.9884, 29.3592, 13.6661, 67.2644, -166.556
4.18376, 2, -47.253, -11.9884, 29.3593, 13.666, 67.2644, -166.556
4.19177, 2, -47.2526, -11.9884, 29.3593, 13.6661, 67.2644, -166.556
4.19984, 2, -47.2523, -11.9884, 29.3593, 13.6661, 67.2644, -166.556
4.20776, 2, -47.2521, -11.9884, 29.3593, 13.6661, 67.2644, -166.556
4.21576, 2, -47.2521, -11.9884, 29.3593, 13.6661, 67.2644, -166.556
4.22383, 2, -47.2522, -11.9886, 29.3593, 13.666, 67.2645, -166.556
4.23181, 2, -47.2524, -11.9889, 29.3593, 13.6661, 67.2645, -166.556
4.23978, 2, -47.2529, -11.9892, 29.3593, 13.6661, 67.2645, -166.556
4.24789, 2, -47.2535, -11.9896, 29.3592, 13.6661, 67.2645, -166.556
4.25582, 2, -47.2538, -11.9898, 29.3593, 13.6661, 67.2645, -166.556
4.26377, 2, -47.254, -11.9898, 29.3593, 13.6661, 67.2645, -166.556
4.27183, 2, -47.254, -11.9898, 29.3593, 13.6661, 67.2645, -166.556
4.27984, 2, -47.2539, -11.9898, 29.3593, 13.6661, 67.2645, -166.556
4.28785, 2, -47.2537, -11.9898, 29.3593, 13.6661, 67.2645, -166.556
4.29592, 2, -47.2533, -11.9897, 29.3593, 13.6661, 67.2645, -166.556
4.30386, 2, -47.253, -11.9897, 29.3593, 13.6661, 67.2644, -166.556
4.31186, 2, -47.2527, -11.9897, 29.3593, 13.6661, 67.2645, -166.556
4.31994, 2, -47.2525, -11.9897, 29.3593, 13.6661, 67.2645, -166.556
4.32787, 2, -47.2524, -11.9897, 29.3593, 13.6661, 67.2645, -166.556
4.33577, 2, -47.2524, -11.9898, 29.3593, 13.666, 67.2645, -166.556
4.34386, 2, -47.2524, -11.9898, 29.3593, 13.666, 67.2645, -166.556
4.3518, 2, -47.2524, -11.9899, 29.3593, 13.666, 67.2645, -166.556
4.35992, 2, -47.2523, -11.9899, 29.3593, 13.666, 67.2645, -166.556
4.36793, 2, -47.2524, -11.99, 29.3592, 13.666, 67.2646, -166.556
4.37593, 2, -47.2524, -11.9899, 29.3593, 13.666, 67.2646, -166.556
4.38407, 2, -47.2523, -11.9899, 29.3593, 13.666, 67.2645, -166.555
4.39075, 2, -47.2523, -11.9899, 29.3593, 13.666, 67.2645, -166.556
4.40019, 2, -47.2522, -11.9897, 29.3593, 13.666, 67.2645, -166.555
4.40829, 2, -47.2521, -11.9897, 29.3593, 13.666, 67.2645, -166.556
4.41632, 2, -47.252, -11.9897, 29.3593, 13.666, 67.2645, -166.556
4.42428, 2, -47.2519, -11.9897, 29.3593, 13.666, 67.2645, -166.555
4.4324, 2, -47.2518, -11.9896, 29.3593, 13.666, 67.2645, -166.555
4.44037, 2, -47.2517, -11.9897, 29.3593, 13.666, 67.2645, -166.555
4.44863, 2, -47.2516, -11.9897, 29.3592, 13.666, 67.2645, -166.555
4.45643, 2, -47.2516, -11.9897, 29.3592, 13.666, 67.2645, -166.555
4.46431, 2, -47.2516, -11.9897, 29.3593, 13.666, 67.2645, -166.555
4.47175, 2, -47.2515, -11.9897, 29.3593, 13.666, 67.2645, -166.555
4.47977, 2, -47.2514, -11.9897, 29.3593, 13.666, 67.2645, -166.555
4.48781, 2, -47.2514, -11.9897, 29.3593, 13.666, 67.2646, -166.555
4.49575, 2, -47.2512, -11.9897, 29.3593, 13.666, 67.2645, -166.555
4.50376, 2, -47.2511, -11.9896, 29.3593, 13.666, 67.2645, -166.555
4.51194, 2, -47.251, -11.9895, 29.3593, 13.666, 67.2645, -166.555
4.51976, 2, -47.2509, -11.9894, 29.3593, 13.666, 67.2645, -166.555
4.52776, 2, -47.2508, -11.9894, 29.3593, 13.666, 67.2646, -166.555
4.5358, 2, -47.2507, -11.9894, 29.3593, 13.666, 67.2646, -166.555
4.54375, 2, -47.2506, -11.9894, 29.3593, 13.666, 67.2646, -166.555
4.55176, 2, -47.2505, -11.9894, 29.3593, 13.666, 67.2646, -166.555
4.55983, 2, -47.2504, -11.9894, 29.3593, 13.666, 67.2645, -166.555
4.56779, 2, -47.2503, -11.9894, 29.3593, 13.6659, 67.2646, -166.555
4.57576, 2, -47.2502, -11.9894, 29.3593, 13.6659, 67.2646, -166.555
4.58526, 2, -47.2501, -11.9894, 29.3592, 13.666, 67.2646, -166.555
4.59175, 2, -47.25, -11.9894, 29.3593, 13.666, 67.2646, -166.555
4.60074, 2, -47.25, -11.9893, 29.3593, 13.666, 67.2646, -166.555
4.60782, 2, -47.2499, -11.9892, 29.3593, 13.666, 67.2646, -166.555
4.61679, 2, -47.2498, -11.9892, 29.3592, 13.6659, 67.2647, -166.555
4.62377, 2, -47.2497, -11.9891, 29.3593, 13.6659, 67.2647, -166.555
4.63182, 2, -47.2496, -11.9891, 29.3592, 13.6659, 67.2647, -166.555
4.63977, 2, -47.2495, -11.989, 29.3593, 13.6658, 67.2646, -166.555
4.64775, 2, -47.2495, -11.989, 29.3593, 13.6658, 67.2647, -166.555
4.65582, 2, -47.2494, -11.989, 29.3593, 13.6659, 67.2646, -166.555
4.66375, 2, -47.2494, -11.989, 29.3593, 13.6659, 67.2646, -166.555
4.67176, 2, -47.2493, -11.989, 29.3593, 13.6659, 67.2647, -166.555
4.67982, 2, -47.2493, -11.989, 29.3593, 13.6659, 67.2646, -166.555
4.68775, 2, -47.2493, -11.989, 29.3592, 13.6659, 67.2646, -166.555
4.69575, 2, -47.2492, -11.989, 29.3593, 13.6658, 67.2647, -166.555
4.70382, 2, -47.2492, -11.9889, 29.3593, 13.6658, 67.2647, -166.555
4.71175, 2, -47.2491, -11.9889, 29.3593, 13.6658, 67.2647, -166.555
4.71975, 2, -47.249, -11.9888, 29.3593, 13.6658, 67.2647, -166.555
4.72799, 2, -47.2489, -11.9887, 29.3593, 13.6658, 67.2647, -166.555
4.73477, 2, -47.2488, -11.9886, 29.3592, 13.6658, 67.2647, -166.555
4.74375, 2, -47.2487, -11.9886, 29.3592, 13.6658, 67.2647, -166.555
4.75183, 2, -47.2487, -11.9886, 29.3592, 13.6658, 67.2647, -166.555
4.75975, 2, -47.2487, -11.9886, 29.3593, 13.6657, 67.2647, -166.555
4.76777, 2, -47.2486, -11.9886, 29.3593, 13.6658, 67.2647, -166.555
4.77581, 2, -47.2486, -11.9886, 29.3593, 13.6657, 67.2647, -166.555
4.78381, 2, -47.2486, -11.9886, 29.3593, 13.6658, 67.2648, -166.555
4.79184, 2, -47.2485, -11.9886, 29.3593, 13.6658, 67.2648, -166.555
4.7999, 2, -47.2485, -11.9886, 29.3593, 13.6657, 67.2648, -166.555
4.80786, 2, -47.2485, -11.9885, 29.3593, 13.6657, 67.2647, -166.555
4.81585, 2, -47.2484, -11.9884, 29.3593, 13.6657, 67.2648, -166.555
4.82392, 2, -47.2483, -11.9884, 29.3593, 13.6657, 67.2648, -166.555
4.83181, 2, -47.2482, -11.9883, 29.3593, 13.6657, 67.2648, -166.554
4.83975, 2, -47.2481, -11.9882, 29.3593, 13.6657, 67.2648, -166.554
4.84799, 2, -47.248, -11.9882, 29.3593, 13.6657, 67.2648, -166.554
4.85578, 2, -47.248, -11.9882, 29.3593, 13.6657, 67.2648, -166.554
4.86385, 2, -47.2479, -11.9882, 29.3593, 13.6657, 67.2648, -166.554
4.87213, 2, -47.2479, -11.9882, 29.3593, 13.6656, 67.2648, -166.554
4.87874, 2, -47.2479, -11.9882, 29.3592, 13.6656, 67.2648, -166.554
4.88834, 2, -47.2478, -11.9882, 29.3593, 13.6656, 67.2649, -166.554
4.89611, 2, -47.2478, -11.9882, 29.3593, 13.6656, 67.2649, -166.554
4.90274, 2, -47.2478, -11.9882, 29.3593, 13.6656, 67.2649, -166.554
4.91246, 2, -47.2478, -11.9881, 29.3593, 13.6656, 67.2649, -166.554
4.92058, 2, -47.2477, -11.988, 29.3593, 13.6656, 67.2649, -166.554
4.92827, 2, -47.2476, -11.9879, 29.3593, 13.6655, 67.2649, -166.554
4.93651, 2, -47.2475, -11.9879, 29.3593, 13.6655, 67.2649, -166.554
4.94436, 2, -47.2474, -11.9878, 29.3593, 13.6656, 67.2649, -166.554
4.95234, 2, -47.2473, -11.9878, 29.3593, 13.6655, 67.2649, -166.554
4.96062, 2, -47.2473, -11.9878, 29.3592, 13.6655, 67.2649, -166.554
4.96854, 2, -47.2473, -11.9878, 29.3593, 13.6655, 67.2649, -166.554
4.97574, 2, -47.2472, -11.9878, 29.3593, 13.6655, 67.2649, -166.554
4.98373, 2, -47.2472, -11.9878, 29.3593, 13.6655, 67.265, -166.554
4.99179, 2, -47.2472, -11.9878, 29.3593, 13.6655, 67.265, -166.554
4.99973, 2, -47.2472, -11.9877, 29.3593, 13.6655, 67.265, -166.554
5.00775, 2, -47.2471, -11.9877, 29.3593, 13.6655, 67.265, -166.554
5.01579, 2, -47.2471, -11.9877, 29.3593, 13.6654, 67.265, -166.554
5.02374, 2, -47.247, -11.9876, 29.3593, 13.6654, 67.265, -166.554
5.03174, 2, -47.2469, -11.9876, 29.3593, 13.6654, 67.265, -166.554
5.0399, 2, -47.2469, -11.9875, 29.3593, 13.6654, 67.2651, -166.554
5.04774, 2, -47.2468, -11.9875, 29.3593, 13.6654, 67.2651, -166.554
5.05587, 2, -47.2467, -11.9874, 29.3593, 13.6654, 67.2651, -166.554
5.06385, 2, -47.2466, -11.9874, 29.3593, 13.6654, 67.2651, -166.554
5.07178, 2, -47.2466, -11.9874, 29.3593, 13.6654, 67.265, -166.554
5.07973, 2, -47.2465, -11.9874, 29.3593, 13.6654, 67.2651, -166.554
5.08784, 2, -47.2465, -11.9874, 29.3592, 13.6654, 67.2651, -166.554
5.09573, 2, -47.2465, -11.9874, 29.3593, 13.6654, 67.2651, -166.554
5.10477, 2, -47.2465, -11.9874, 29.3593, 13.6653, 67.2651, -166.554
5.1118, 2, -47.2465, -11.9873, 29.3593, 13.6653, 67.2651, -166.554
5.11977, 2, -47.2464, -11.9873, 29.3592, 13.6653, 67.2651, -166.554
5.12775, 2, -47.2464, -11.9872, 29.3592, 13.6652, 67.2651, -166.554
5.13583, 2, -47.2463, -11.9872, 29.3593, 13.6652, 67.2652, -166.554
5.14373, 4, -47.2462, -11.9871, 29.3593, 13.6652, 67.2651, -166.554
5.15173, 4, -47.2462, -11.9871, 29.3592, 13.6652, 67.2651, -166.554
5.15981, 4, -47.2461, -11.9871, 29.3592, 13.6652, 67.2652, -166.554
5.16774, 4, -47.246, -11.9871, 29.3592, 13.6652, 67.2652, -166.554
5.17573, 4, -47.2459, -11.987, 29.3592, 13.6652, 67.2652, -166.554
5.18381, 4, -47.2459, -11.987, 29.3592, 13.6652, 67.2652, -166.554
5.19173, 4, -47.2459, -11.987, 29.3592, 13.6652, 67.2652, -166.554
5.19973, 4, -47.2458, -11.987, 29.3592, 13.6652, 67.2651, -166.554
5.20781, 4, -47.2458, -11.987, 29.3593, 13.6652, 67.2652, -166.553
5.21573, 4, -47.2458, -11.987, 29.3592, 13.6651, 67.2652, -166.553
5.22373, 4, -47.2458, -11.9869, 29.3592, 13.6651, 67.2652, -166.553
5.23181, 4, -47.2458, -11.9869, 29.3592, 13.6651, 67.2652, -166.553
5.23993, 4, -47.2457, -11.9868, 29.3592, 13.6651, 67.2652, -166.553
5.25506, 4, -47.2456, -11.9868, 29.3592, 13.6651, 67.2653, -166.553
5.25708, 4, -47.2456, -11.9868, 29.3592, 13.6651, 67.2653, -166.553
5.26786, 4, -47.2455, -11.9867, 29.3592, 13.665, 67.2653, -166.553
5.27658, 4, -47.2454, -11.9868, 29.3592, 13.665, 67.2653, -166.553
5.27992, 4, -47.2454, -11.9867, 29.3592, 13.665, 67.2652, -166.553
5.29, 4, -47.2453, -11.9867, 29.3593, 13.665, 67.2653, -166.553
5.29611, 4, -47.2453, -11.9867, 29.3592, 13.665, 67.2653, -166.553
5.30555, 4, -47.2453, -11.9867, 29.3592, 13.665, 67.2653, -166.553
5.31199, 4, -47.2453, -11.9867, 29.3592, 13.6649, 67.2653, -166.553
5.3218, 4, -47.2453, -11.9866, 29.3593, 13.6649, 67.2653, -166.553
5.32828, 4, -47.2453, -11.9866, 29.3593, 13.6649, 67.2653, -166.553
5.33822, 4, -47.2452, -11.9866, 29.3592, 13.6649, 67.2654, -166.553
5.34399, 4, -47.2452, -11.9865, 29.3592, 13.6648, 67.2654, -166.553
5.35291, 4, -47.2451, -11.9865, 29.3592, 13.6649, 67.2653, -166.553
5.35887, 4, -47.2451, -11.9865, 29.3592, 13.6649, 67.2653, -166.553
5.36823, 4, -47.245, -11.9865, 29.3593, 13.6649, 67.2654, -166.553
5.37984, 4, -47.2449, -11.9865, 29.3593, 13.6648, 67.2654, -166.553
5.38419, 4, -47.2449, -11.9864, 29.3592, 13.6648, 67.2653, -166.553
5.39246, 4, -47.2449, -11.9864, 29.3592, 13.6648, 67.2653, -166.553
5.40313, 4, -47.2449, -11.9864, 29.3592, 13.6648, 67.2653, -166.553
5.41, 4, -47.245, -11.9865, 29.3593, 13.6648, 67.2653, -166.553
5.41909, 4, -47.2459, -11.9869, 29.3597, 13.665, 67.2654, -166.553
5.42502, 4, -47.2481, -11.9887, 29.3616, 13.6667, 67.266, -166.553
5.4346, 4, -47.2524, -11.9931, 29.3671, 13.6763, 67.2683, -166.551
5.44109, 4, -47.2594, -12.0021, 29.3797, 13.7012, 67.2747, -166.547
5.44993, 4, -47.2709, -12.0173, 29.4044, 13.7501, 67.2883, -166.536
5.45709, 5, -47.2889, -12.0416, 29.4471, 13.8377, 67.3127, -166.517
5.46501, 5, -47.301, -12.0579, 29.514, 13.9776, 67.3523, -166.485
5.47495, 5, -47.3529, -12.1255, 29.6115, 14.1845, 67.4092, -166.437
5.48285, 5, -47.4025, -12.1882, 29.7439, 14.4696, 67.488, -166.371
5.48787, 5, -47.4321, -12.2252, 29.824, 14.6435, 67.5353, -166.332
5.49595, 5, -47.5007, -12.3106, 30.0131, 15.0546, 67.646, -166.237
5.50608, 5, -47.6266, -12.4665, 30.3677, 15.8182, 67.8494, -166.063
5.51192, 5, -47.6742, -12.5253, 30.5026, 16.1061, 67.9252, -165.998
5.51988, 5, -47.7765, -12.652, 30.7948, 16.7214, 68.0859, -165.86
5.53122, 5, -47.9445, -12.8611, 31.2766, 17.7152, 68.3394, -165.64
5.53586, 5, -48.0032, -12.9346, 31.4458, 18.0573, 68.4252, -165.566
5.54659, 5, -48.1836, -13.1621, 31.9675, 19.0979, 68.6811, -165.343
5.55491, 5, -48.3036, -13.3153, 32.3218, 19.7903, 68.8481, -165.195
5.56213, 5, -48.4198, -13.4661, 32.6761, 20.4693, 69.0111, -165.046
5.56795, 5, -48.475, -13.5399, 32.852, 20.8009, 69.0913, -164.968
5.57796, 6, -48.623, -13.7489, 33.3644, 21.7457, 69.3293, -164.704
5.58386, 6, -48.6647, -13.8134, 33.5282, 22.0397, 69.4087, -164.6
5.59187, 7, -48.7337, -13.9346, 33.8417, 22.5922, 69.5693, -164.359
5.60267, 7, -48.7978, -14.099, 34.2743, 23.3277, 69.8206, -163.888
5.60787, 7, -48.8087, -14.1491, 34.4079, 23.5503, 69.9086, -163.697
5.61874, 8, -48.8122, -14.2833, 34.7814, 24.1666, 70.1914, -163.017
5.62398, 8, -48.8042, -14.3233, 34.8985, 24.3592, 70.2925, -162.755
5.63454, 9, -48.7573, -14.4349, 35.234, 24.9187, 70.6174, -161.887
5.64229, 10, -48.7102, -14.5045, 35.451, 25.2865, 70.8495, -161.255
5.64902, 10, -48.6829, -14.5379, 35.5593, 25.4708, 70.9693, -160.929
5.65588, 10, -48.6219, -14.6022, 35.7762, 25.8418, 71.2139, -160.263
5.66388, 11, -48.5538, -14.6646, 35.9948, 26.2159, 71.4617, -159.59
5.67525, 12, -48.4422, -14.7582, 36.3271, 26.7831, 71.8326, -158.584
5.6825, 12, -48.3639, -14.8214, 36.5477, 27.1659, 72.078, -157.919
5.69042, 12, -48.2834, -14.8847, 36.7662, 27.553, 72.3225, -157.257
5.69588, 13, -48.2425, -14.9163, 36.8745, 27.7481, 72.4447, -156.928
5.70559, 13, -48.1587, -14.9795, 37.0882, 28.1416, 72.6894, -156.27
5.71573, 14, -48.0271, -15.0752, 37.4016, 28.7384, 73.0572, -155.285
5.71963, 14, -47.9814, -15.1071, 37.5046, 28.9385, 73.1799, -154.957
5.72788, 15, -47.8876, -15.17, 37.7082, 29.3397, 73.4247, -154.305
5.73621, 15, -47.7904, -15.2307, 37.9082, 29.7403, 73.6675, -153.656
5.74392, 16, -47.6889, -15.2901, 38.1061, 30.1397, 73.908, -153.009
5.75376, 16, -47.582, -15.3499, 38.3017, 30.5381, 74.146, -152.367
5.75988, 17, -47.4699, -15.4109, 38.4939, 30.9351, 74.3814, -151.73
5.76781, 17, -47.353, -15.4731, 38.6832, 31.3305, 74.6134, -151.096
5.77536, 18, -47.2313, -15.5359, 38.8706, 31.7239, 74.8416, -150.467
5.78397, 18, -47.1043, -15.5998, 39.0556, 32.1151, 75.0654, -149.847
5.79198, 19, -46.972, -15.6658, 39.2379, 32.5042, 75.284, -149.232
5.79995, 19, -46.8345, -15.7341, 39.4189, 32.891, 75.497, -148.625
5.80997, 20, -46.6922, -15.8041, 39.5986, 33.275, 75.7042, -148.026
5.8161, 20, -46.5453, -15.8763, 39.7759, 33.6564, 75.9058, -147.436
5.82533, 21, -46.3937, -15.9516, 39.9509, 34.0357, 76.1017, -146.853
5.83152, 21, -46.2373, -16.0303, 40.1245, 34.4126, 76.2922, -146.277
5.84008, 22, -46.0754, -16.1115, 40.2961, 34.7866, 76.4769, -145.709
5.84896, 22, -45.9079, -16.1945, 40.4645, 35.1575, 76.6564, -145.147
5.85609, 23, -45.734, -16.2795, 40.6303, 35.5241, 76.8303, -144.592
5.86408, 23, -45.5535, -16.3663, 40.7936, 35.8865, 76.9986, -144.042
5.87224, 24, -45.3664, -16.4547, 40.9532, 36.2441, 77.1616, -143.497
5.88285, 25, -45.1725, -16.5445, 41.1083, 36.5958, 77.3194, -142.957
5.8886, 25, -44.9723, -16.6352, 41.2591, 36.941, 77.4723, -142.421
5.89723, 25, -44.7658, -16.7266, 41.4055, 37.2798, 77.6207, -141.888
5.90441, 26, -44.5525, -16.8187, 41.5468, 37.6115, 77.7646, -141.357
5.91264, 26, -44.3321, -16.9108, 41.6827, 37.9357, 77.9044, -140.829
5.92515, 27, -43.9884, -17.0481, 41.8755, 38.4077, 78.1061, -140.04
5.92874, 27, -43.8705, -17.0935, 41.9367, 38.5608, 78.1716, -139.778
5.935, 28, -43.7508, -17.1388, 41.9963, 38.7119, 78.2363, -139.515
5.94472, 28, -43.3821, -17.2727, 42.165, 39.1526, 78.4243, -138.731
5.95482, 29, -43.1282, -17.36, 42.2691, 39.4358, 78.5461, -138.208
5.96318, 30, -42.8677, -17.4458, 42.3659, 39.7108, 78.664, -137.686
5.96687, 30, -42.7345, -17.488, 42.4117, 39.8451, 78.722, -137.425
5.97706, 30, -42.3216, -17.6112, 42.538, 40.235, 78.8917, -136.643
5.98464, 31, -42.1796, -17.651, 42.5766, 40.3607, 78.9466, -136.383
5.99315, 31, -41.7421, -17.7667, 42.6817, 40.7251, 79.108, -135.603
5.99986, 32, -41.5927, -17.8041, 42.7134, 40.8423, 79.1604, -135.343
6.00784, 32, -41.2891, -17.8772, 42.7716, 41.0705, 79.2632, -134.824
6.01823, 33, -40.8217, -17.9811, 42.8455, 41.3977, 79.4131, -134.049
6.02785, 34, -40.5019, -18.0465, 42.8858, 41.6056, 79.5095, -133.532
6.03532, 34, -40.1772, -18.1093, 42.9187, 41.8054, 79.6033, -133.016
6.04196, 35, -39.8479, -18.1694, 42.9443, 41.9971, 79.6949, -132.502
6.05016, 35, -39.5129, -18.2261, 42.9629, 42.1814, 79.7836, -131.989
6.05585, 35, -39.343, -18.2531, 42.9695, 42.2708, 79.8272, -131.733
6.066, 36, -38.822, -18.3293, 42.9791, 42.527, 79.9546, -130.967
6.07193, 36, -38.6446, -18.353, 42.9789, 42.6086, 79.9962, -130.712
6.08158, 37, -38.1035, -18.4191, 42.9682, 42.8421, 80.1172, -129.949
6.08972, 38, -37.7355, -18.4584, 42.9525, 42.9885, 80.1956, -129.443
6.09574, 38, -37.5497, -18.4769, 42.9421, 43.059, 80.2337, -129.19
6.1039, 38, -37.1747, -18.5112, 42.9165, 43.1942, 80.3091, -128.687
6.11182, 39, -36.7952, -18.5421, 42.8841, 43.3219, 80.3815, -128.184
6.11992, 39, -36.4111, -18.5694, 42.845, 43.4425, 80.4526, -127.684
6.1307, 40, -35.8249, -18.6032, 42.774, 43.6095, 80.5554, -126.938
6.13586, 40, -35.6266, -18.6125, 42.7471, 43.6617, 80.5891, -126.69
6.1439, 41, -35.2254, -18.6281, 42.6883, 43.7604, 80.654, -126.195
6.15517, 42, -34.6141, -18.6449, 42.588, 43.8952, 80.7484, -125.458
6.15985, 42, -34.4086, -18.6488, 42.5514, 43.9364, 80.7787, -125.213
6.1702, 42, -33.995, -18.6542, 42.4733, 44.0139, 80.8669, -124.482
6.17935, 43, -33.3678, -18.6564, 42.345, 44.1164, 80.9238, -123.998
6.18617, 44, -33.1562, -18.6553, 42.2993, 44.1764, 80.9785, -123.515
6.19182, 44, -32.7285, -18.6503, 42.2036, 44.2034, 81.0058, -123.276
6.19947, 44, -32.2943, -18.6416, 42.1021, 44.2517, 81.0586, -122.797
6.2079, 45, -31.8541, -18.629, 41.9947, 44.2935, 81.1091, -122.321
6.21587, 45, -31.4097, -18.613, 41.8813, 44.3277, 81.1589, -121.848
6.22776, 46, -30.7389, -18.5826, 41.7, 44.3641, 81.2292, -121.141
6.23107, 46, -30.5143, -18.5706, 41.6366, 44.3724, 81.2517, -120.908
6.24115, 47, -30.062, -18.5435, 41.5056, 44.3834, 81.2967, -120.441
6.25164, 47, -29.604, -18.4943, 41.2978, 44.3873, 81.3617, -119.744
6.25778, 48, -29.1392, -18.4758, 41.2255, 44.3845, 81.3826, -119.513
6.26388, 48, -28.6685, -18.4355, 41.0763, 44.3721, 81.4243, -119.052
6.27165, 49, -28.1932, -18.3908, 40.9213, 44.3513, 81.4662, -118.593
6.28313, 49, -27.7156, -18.3416, 40.7603, 44.3018, 81.5272, -117.906
6.28788, 50, -27.2352, -18.2878, 40.5928, 44.2805, 81.5476, -117.677
6.29705, 51, -26.7504, -18.2284, 40.4185, 44.2317, 81.5894, -117.221
6.30392, 51, -26.2583, -18.1635, 40.2381, 44.173, 81.632, -116.765
6.31201, 51, -25.7585, -18.093, 40.0507, 44.1044, 81.6744, -116.311
6.32001, 52, -25.2532, -18.0171, 39.8557, 44.0259, 81.7177, -115.858
6.328, 52, -24.7452, -17.936, 39.6542, 43.9367, 81.7626, -115.405
6.33596, 53, -24.2352, -17.8494, 39.4466, 43.8377, 81.8072, -114.952
6.34403, 53, -23.7209, -17.7568, 39.2313, 43.7285, 81.853, -114.5
6.35442, 54, -23.1997, -17.6579, 39.0085, 43.6087, 81.9013, -114.048
6.36013, 54, -22.6699, -17.5528, 38.7793, 43.4781, 81.9509, -113.596
6.36903, 55, -22.1334, -17.4416, 38.5422, 43.336, 82.0026, -113.145
6.37621, 55, -21.5937, -17.3243, 38.2984, 43.182, 82.0574, -112.692
6.38486, 56, -21.0516, -17.2011, 38.0482, 43.0165, 82.1128, -112.241
6.39083, 56, -20.7791, -17.1374, 37.9202, 42.9294, 82.1413, -112.016
6.40047, 57, -19.9495, -16.9382, 37.5266, 42.6509, 82.2305, -111.34
6.40866, 57, -19.385, -16.7981, 37.2557, 42.4503, 82.2913, -110.89
6.41664, 58, -18.8143, -16.652, 36.9784, 42.2371, 82.3551, -110.439
6.42819, 59, -18.2408, -16.4221, 36.5506, 41.8938, 82.4534, -109.765
6.43267, 59, -17.6646, -16.3431, 36.4045, 41.7732, 82.4878, -109.541
6.44173, 60, -17.0817, -16.1818, 36.1083, 41.5224, 82.5573, -109.092
6.44984, 60, -16.4889, -16.0155, 35.8059, 41.2589, 82.6295, -108.643
6.45811, 61, -15.8877, -15.8436, 35.4988, 40.9825, 82.7029, -108.193
6.46662, 61, -15.2824, -15.6671, 35.1858, 40.6928, 82.7784, -107.745
6.47366, 62, -14.6741, -15.4864, 34.8674, 40.3908, 82.8558, -107.297
6.48279, 62, -14.0598, -15.3009, 34.5432, 40.0758, 82.9358, -106.848
6.49074, 63, -13.4353, -15.1092, 34.2144, 39.7473, 83.0181, -106.399
6.49589, 63, -13.1193, -15.0107, 34.048, 39.5774, 83.0606, -106.174
6.50499, 63, -12.161, -14.7071, 33.5406, 39.0449, 83.1932, -105.499
6.51184, 64, -11.8396, -14.6035, 33.3684, 38.8599, 83.2394, -105.274
6.51988, 64, -11.1931, -14.3914, 33.0193, 38.4787, 83.335, -104.821
6.53293, 65, -10.2051, -14.0591, 32.484, 37.8786, 83.4872, -103.912
6.53592, 65, -9.87072, -13.9452, 32.303, 37.6705, 83.5403, -103.912
6.54667, 66, -8.85609, -13.5946, 31.7531, 37.0226, 83.708, -103.226
6.5519, 66, -8.51535, -13.4742, 31.5675, 36.7989, 83.7666, -102.996
6.55881, 67, -7.82914, -13.2282, 31.1913, 36.34, 83.8877, -102.535
6.56792, 68, -7.13307, -12.9745, 30.81, 35.8658, 84.0151, -102.072
6.57816, 68, -6.07156, -12.5796, 30.2302, 35.1252, 84.2179, -101.372
6.58392, 69, -5.71403, -12.4447, 30.0349, 34.8707, 84.2892, -101.138
6.59256, 69, -4.99386, -12.169, 29.6403, 34.3494, 84.4369, -100.668
6.60153, 70, -3.89822, -11.7404, 29.0397, 33.5382, 84.6727, -99.9571
6.60785, 70, -3.52846, -11.5942, 28.8381, 33.2597, 84.7551, -99.7187
6.62087, 71, -2.4074, -11.1433, 28.2296, 32.4007, 85.0136, -99
6.62764, 71, -1.65083, -10.8333, 27.8201, 31.8102, 85.1954, -98.5181
6.63286, 72, -1.26973, -10.6753, 27.6149, 31.5101, 85.2892, -98.276
6.6399, 72, -0.502859, -10.3545, 27.2035, 30.8987, 85.4826, -97.7902
6.6479, 73, 0.270262, -10.0271, 26.7918, 30.2731, 85.6836, -97.3015
6.65914, 73, 1.44156, -9.52044, 26.1745, 29.3155, 85.9994, -96.5649
6.66777, 74, 2.22916, -9.17459, 25.7636, 28.6638, 86.2198, -96.0711
6.67184, 74, 2.6244, -8.99987, 25.5588, 28.3344, 86.3329, -95.8232
6.68265, 75, 3.81452, -8.46868, 24.949, 27.3348, 86.683, -95.0765
6.68789, 75, 4.21272, -8.28809, 24.7477, 26.9985, 86.8029, -94.8269
6.69839, 76, 5.40998, -7.73626, 24.1507, 25.9875, 87.1721, -94.0767
6.70404, 76, 5.80944, -7.5488, 23.954, 25.649, 87.2983, -93.8255
6.72169, 77, 7.40891, -6.78197, 23.1806, 24.2906, 87.8231, -92.8164
6.72492, 77, 7.80968, -6.58575, 22.9897, 23.9497, 87.9601, -92.5628
6.73708, 78, 9.01155, -5.98653, 22.4227, 22.9223, 88.3866, -91.7987
6.73978, 78, 9.41171, -5.78337, 22.2363, 22.5787, 88.534, -91.5422
6.74364, 78, 9.81156, -5.57796, 22.051, 22.235, 88.6841, -91.285
6.75173, 79, 10.6106, -5.15992, 21.6843, 21.5478, 88.9912, -90.7682
6.75996, 79, 11.408, -4.7318, 21.3228, 20.8634, 89.308, -90.2479
6.76771, 80, 12.2016, -4.2933, 20.9673, 20.1802, 89.6344, -89.724
6.77586, 80, 12.9908, -3.84461, 20.6173, 19.5022, 89.9715, -89.1949
6.78376, 81, 13.7761, -3.3873, 20.2722, 18.8312, 90.3192, -88.661
6.79191, 81, 14.5559, -2.92257, 19.9317, 18.1678, 90.6779, -88.1215
6.79916, 82, 15.3275, -2.44924, 19.5972, 17.5131, 91.0463, -87.5785
6.80784, 82, 16.0887, -1.96762, 19.2693, 16.8696, 91.4245, -87.0305
6.81586, 83, 16.8386, -1.4785, 18.9489, 16.2412, 91.8102, -86.4796
6.82378, 83, 17.5756, -0.982308, 18.6367, 15.6308, 92.2027, -85.9266
6.83189, 84, 18.2965, -0.480456, 18.3337, 15.0387, 92.601, -85.3734
6.83986, 84, 19.0001, 0.0263807, 18.0406, 14.4694, 93.005, -84.8199
6.84769, 85, 19.6871, 0.538856, 17.7557, 13.9222, 93.4149, -84.2672
6.85592, 85, 20.3584, 1.05645, 17.4787, 13.3982, 93.8307, -83.7158
6.86379, 86, 21.0138, 1.57807, 17.2081, 12.8977, 94.2504, -83.1668
6.87175, 86, 21.6542, 2.10458, 16.945, 12.4195, 94.6744, -82.6175
6.88024, 87, 22.2811, 2.63862, 16.6889, 11.9641, 95.1034, -82.0674
6.88669, 87, 22.5898, 2.90901, 16.5628, 11.7444, 95.3202, -81.7912
6.89593, 87, 23.4992, 3.73427, 16.1918, 11.1138, 95.9799, -80.9565
6.90414, 88, 24.0912, 4.29368, 15.9495, 10.715, 96.4273, -80.3912
6.91214, 88, 24.6713, 4.86185, 15.712, 10.3324, 96.881, -79.8168
6.91867, 89, 24.957, 5.14993, 15.5957, 10.1467, 97.1105, -79.5258
6.92834, 89, 25.7991, 6.02979, 15.2525, 9.6133, 97.8085, -78.6366
6.93623, 90, 26.3519, 6.62797, 15.0275, 9.27638, 98.2816, -78.0281
6.94429, 90, 26.8952, 7.23405, 14.8073, 8.95596, 98.7611, -77.4069
6.95245, 91, 27.4255, 7.84906, 14.5924, 8.65356, 99.2469, -76.7735
6.96027, 91, 27.6857, 8.16043, 14.4867, 8.37056, 99.7381, -76.1296
6.9683, 92, 28.1981, 8.79123, 14.2786, 8.23707, 100.233, -75.4746
6.97639, 92, 28.7022, 9.43243, 14.0753, 7.87055, 100.732, -74.8119
6.98374, 93, 29.1978, 10.0818, 13.8773, 7.75973, 100.982, -74.4782
6.99168, 93, 29.6812, 10.7371, 13.6866, 7.55598, 101.481, -73.8051
6.99978, 94, 30.1506, 11.3967, 13.5041, 7.37595, 101.98, -73.1253
7.00768, 94, 30.6049, 12.0592, 13.329, 7.21952, 102.476, -72.4404
7.01568, 95, 31.045, 12.7239, 13.1609, 7.08694, 102.969, -71.751
7.02374, 95, 31.4711, 13.3901, 13.0008, 6.97832, 103.459, -71.0554
7.03169, 96, 31.8836, 14.058, 12.8482, 6.89268, 103.945, -70.3544
7.03967, 96, 32.2814, 14.7264, 12.7019, 6.83188, 104.428, -69.6488
7.04774, 97, 32.6632, 15.3954, 12.5622, 6.79354, 104.906, -68.9368
7.05573, 97, 33.0285, 16.0634, 12.4299, 6.77613, 105.378, -68.2198
7.06269, 98, 33.3778, 16.7294, 12.3059, 6.78089, 105.844, -67.5004
7.07174, 98, 33.7129, 17.3923, 12.1906, 6.80731, 106.302, -66.7769
7.07974, 99, 34.0342, 18.0498, 12.0846, 6.85328, 106.75, -66.052
7.08774, 99, 34.343, 18.7009, 11.9877, 6.91968, 107.187, -65.3287
7.0958, 100, 34.6405, 19.3442, 11.8998, 7.00334, 107.612, -64.6062
7.10376, 100, 34.9265, 19.9787, 11.8204, 7.10491, 108.025, -63.8864
7.11273, 101, 35.2006, 20.6027, 11.7493, 7.22235, 108.423, -63.1733
7.11968, 101, 35.463, 21.2159, 11.6865, 7.35486, 108.806, -62.4656
7.12779, 102, 35.7142, 21.8173, 11.6323, 7.5005, 109.173, -61.7662
7.13572, 102, 35.9531, 22.406, 11.5866, 7.65781, 109.523, -61.0781
7.14363, 103, 36.1801, 22.9809, 11.5496, 7.82516, 109.856, -60.4008
7.15174, 103, 36.3984, 23.5404, 11.5213, 8.00154, 110.171, -59.7353
7.15967, 103, 36.6097, 24.0838, 11.5021, 8.18695, 110.467, -59.083
7.16768, 104, 36.8133, 24.6113, 11.4918, 8.38138, 110.743, -58.444
7.17575, 104, 37.0098, 25.1224, 11.4888, 8.58499, 110.999, -57.8165
7.18368, 104, 37.2, 25.6173, 11.4927, 8.79663, 111.234, -57.2018
7.1917, 104, 37.383, 26.0957, 11.5025, 9.01481, 111.45, -56.6015
7.19974, 104, 37.5567, 26.5573, 11.5164, 9.23759, 111.648, -56.0159
7.20767, 104, 37.7216, 27.0025, 11.5332, 9.46284, 111.829, -55.4469
7.21569, 104, 37.8802, 27.4326, 11.5527, 9.68749, 111.997, -54.8977
7.22374, 104, 38.034, 27.8464, 11.5736, 9.9095, 112.154, -54.3706
7.23167, 104, 38.1828, 28.2435, 11.5947, 10.1271, 112.303, -53.8661
7.23967, 104, 38.325, 28.6238, 11.6153, 10.3395, 112.442, -53.3852
7.24775, 104, 38.4605, 28.9872, 11.6346, 10.5451, 112.574, -52.9284
7.25573, 104, 38.5884, 29.3324, 11.6527, 10.7432, 112.698, -52.496
7.26393, 104, 38.7082, 29.6593, 11.6699, 10.933, 112.815, -52.0891
7.2717, 104, 38.8196, 29.9666, 11.6857, 11.114, 112.924, -51.7068
7.27967, 104, 38.9228, 30.2557, 11.7005, 11.2853, 113.025, -51.3495
7.28775, 104, 39.0183, 30.5254, 11.7143, 11.4467, 113.118, -51.0179
7.29571, 104, 39.1061, 30.7752, 11.7267, 11.5975, 113.205, -50.7117
7.3038, 104, 39.186, 31.0056, 11.738, 11.7373, 113.283, -50.4304
7.31183, 104, 39.2581, 31.2162, 11.7482, 11.8657, 113.355, -50.1746
7.31978, 104, 39.3223, 31.4066, 11.7578, 11.9826, 113.419, -49.9438
7.32732, 104, 39.3789, 31.5778, 11.7663, 12.0879, 113.477, -49.7382
7.33585, 104, 39.4286, 31.7294, 11.7738, 12.1807, 113.527, -49.5576
7.34375, 104, 39.472, 31.8621, 11.7806, 12.2615, 113.57, -49.4018
7.35173, 104, 39.5097, 31.9772, 11.7868, 12.3302, 113.607, -49.2698
7.35972, 104, 39.5414, 32.0754, 11.7923, 12.3878, 113.637, -49.1612
7.36774, 104, 39.5674, 32.1575, 11.7972, 12.4331, 113.661, -49.0737
7.37582, 104, 39.5886, 32.2252, 11.8015, 12.4685, 113.679, -49.0061
7.38421, 104, 39.6051, 32.2803, 11.8055, 12.4953, 113.692, -48.9559
7.39189, 104, 39.6178, 32.3241, 11.8091, 12.5148, 113.701, -48.9201
7.39869, 104, 39.623, 32.3422, 11.8107, 12.5222, 113.705, -48.9068
7.40848, 104, 39.6346, 32.3828, 11.8152, 12.5372, 113.711, -48.8807
7.41605, 104, 39.6395, 32.4016, 11.8177, 12.5425, 113.713, -48.8721
7.42267, 104, 39.6412, 32.4089, 11.8187, 12.5442, 113.714, -48.8695
7.43261, 104, 39.6442, 32.4236, 11.8212, 12.5469, 113.715, -48.8658
7.4402, 105, 39.6447, 32.4289, 11.8223, 12.5476, 113.715, -48.8649
7.44825, 105, 39.6442, 32.4324, 11.8233, 12.5479, 113.715, -48.8647
7.45671, 105, 39.6432, 32.4348, 11.8242, 12.5482, 113.715, -48.8648
7.46427, 105, 39.6427, 32.4358, 11.8249, 12.5483, 113.715, -48.8649
7.47232, 105, 39.6417, 32.4374, 11.8255, 12.5483, 113.715, -48.8652
7.48061, 105, 39.6401, 32.4393, 11.8261, 12.5483, 113.715, -48.8656
7.48766, 105, 39.6396, 32.4399, 11.8263, 12.5483, 113.715, -48.8657
7.49571, 105, 39.6389, 32.441, 11.8269, 12.5484, 113.715, -48.8661
7.50369, 105, 39.6385, 32.4421, 11.8275, 12.5484, 113.715, -48.8664
7.51166, 105, 39.6381, 32.4431, 11.828, 12.5484, 113.715, -48.8667
7.51971, 105, 39.6379, 32.4441, 11.8285, 12.5484, 113.715, -48.867
7.52768, 105, 39.6376, 32.4449, 11.829, 12.5483, 113.715, -48.8672
7.53606, 105, 39.6373, 32.4455, 11.8293, 12.5484, 113.715, -48.8675
7.54371, 105, 39.637, 32.4458, 11.8296, 12.5483, 113.715, -48.8678
7.55167, 105, 39.6367, 32.446, 11.8299, 12.5483, 113.715, -48.868
7.55966, 105, 39.6364, 32.4461, 11.83, 12.5483, 113.715, -48.8682
