hehonglu123/Motion-Primitive-Planning/ILC/recorded_data/realrobot/from_NX/iteration_5/run_2.csv
timestamp, cmd_num, J1, J2, J3, J4, J5, J6
0.000359, -1, 39.6318, 32.4461, 11.8315, 12.5469, 113.714, -48.8709
0.00317, -1, 39.6318, 32.4461, 11.8315, 12.5469, 113.714, -48.8709
0.007787, -1, 39.6318, 32.4461, 11.8315, 12.5469, 113.714, -48.8709
0.029087, -1, 39.6318, 32.4461, 11.8315, 12.5469, 113.714, -48.8709
0.031912, -1, 39.6318, 32.4461, 11.8315, 12.5469, 113.714, -48.8709
0.033123, -1, 39.6318, 32.4461, 11.8315, 12.5469, 113.714, -48.8709
0.039777, -1, 39.6318, 32.4461, 11.8315, 12.5469, 113.714, -48.8709
0.047766, -1, 39.6318, 32.4461, 11.8315, 12.5469, 113.714, -48.871
0.055748, -1, 39.6313, 32.446, 11.8315, 12.547, 113.714, -48.8709
0.06382, -1, 39.629, 32.4456, 11.8315, 12.547, 113.714, -48.871
0.071756, -1, 39.6237, 32.4442, 11.8314, 12.5469, 113.714, -48.8711
0.079756, -1, 39.6149, 32.4413, 11.8314, 12.5469, 113.713, -48.8725
0.087809, -1, 39.6017, 32.4361, 11.8313, 12.5469, 113.712, -48.8774
0.095747, -1, 39.5819, 32.4275, 11.8314, 12.5469, 113.708, -48.8887
0.103848, -1, 39.5533, 32.4149, 11.8318, 12.5469, 113.701, -48.9094
0.111741, -1, 39.5148, 32.3973, 11.8339, 12.5469, 113.689, -48.9431
0.119746, -1, 39.4653, 32.3736, 11.8387, 12.5469, 113.67, -48.9935
0.128586, -1, 39.4032, 32.3432, 11.847, 12.5469, 113.643, -49.0652
0.135782, -1, 39.3278, 32.3053, 11.8598, 12.547, 113.605, -49.1595
0.143833, -1, 39.2387, 32.2597, 11.8776, 12.5473, 113.559, -49.2793
0.152669, -1, 39.1356, 32.2062, 11.9001, 12.5478, 113.502, -49.4245
0.159907, -1, 39.0184, 32.1448, 11.9268, 12.5487, 113.435, -49.5943
0.167848, -1, 38.8879, 32.076, 11.9574, 12.5503, 113.359, -49.7866
0.176667, -1, 38.745, 32.0007, 11.9914, 12.5521, 113.275, -49.9983
0.183749, -1, 38.5906, 31.9195, 12.0277, 12.5542, 113.185, -50.2259
0.191752, -1, 38.4263, 31.8333, 12.0655, 12.5566, 113.09, -50.4657
0.200863, -1, 38.2541, 31.7431, 12.1043, 12.5589, 112.992, -50.7138
0.207811, -1, 38.0757, 31.65, 12.1433, 12.5613, 112.892, -50.9671
0.215942, -1, 37.8922, 31.5546, 12.1822, 12.5638, 112.79, -51.2237
0.225257, -1, 37.7047, 31.4578, 12.221, 12.5661, 112.688, -51.4822
0.230812, -1, 37.6099, 31.409, 12.2404, 12.5673, 112.637, -51.6118
0.240282, -1, 37.323, 31.2622, 12.2986, 12.571, 112.483, -52.0011
0.246742, -1, 37.227, 31.2132, 12.318, 12.5722, 112.432, -52.1309
0.256164, -1, 36.9387, 31.0666, 12.3761, 12.5761, 112.277, -52.5208
0.262909, -1, 36.8427, 31.0177, 12.3955, 12.5774, 112.226, -52.6509
0.27228, -1, 36.5551, 30.8711, 12.4537, 12.5812, 112.072, -53.0415
0.278816, -1, 36.4593, 30.8223, 12.4732, 12.5826, 112.02, -53.1716
0.288512, -1, 36.1721, 30.6757, 12.5314, 12.5864, 111.866, -53.5622
0.296316, -1, 35.9806, 30.5777, 12.5703, 12.589, 111.763, -53.8228
0.302807, -1, 35.8849, 30.5287, 12.5898, 12.5904, 111.711, -53.9532
0.312519, -1, 35.6933, 30.4307, 12.6287, 12.5929, 111.557, -54.3437
0.319735, -1, 35.5014, 30.3326, 12.6675, 12.5954, 111.505, -54.4739
0.327749, -1, 35.3092, 30.2343, 12.7063, 12.5981, 111.402, -54.7342
0.335783, -1, 35.1168, 30.1361, 12.7452, 12.6007, 111.299, -54.9949
0.343734, -1, 34.9244, 30.0377, 12.7841, 12.6033, 111.196, -55.2557
0.484307, -1, 31.5505, 28.3132, 13.4651, 12.6498, 109.393, -59.8235
0.486527, -1, 31.4538, 28.2639, 13.4845, 12.6512, 109.341, -59.954
0.487813, -1, 31.4538, 28.2639, 13.4845, 12.6512, 109.341, -59.954
0.489031, -1, 31.4538, 28.2639, 13.4845, 12.6512, 109.341, -59.954
0.49177, -1, 31.3573, 28.2145, 13.504, 12.6526, 109.289, -60.0847
0.49296, -1, 31.3573, 28.2145, 13.504, 12.6526, 109.289, -60.0847
0.495743, -1, 31.2609, 28.1653, 13.5234, 12.6539, 109.238, -60.2154
0.498831, -1, 31.1645, 28.116, 13.543, 12.6553, 109.187, -60.346
0.500071, -1, 31.1645, 28.116, 13.543, 12.6553, 109.187, -60.346
0.502094, -1, 31.0682, 28.0668, 13.5625, 12.6568, 109.135, -60.4768
0.503543, -1, 31.0682, 28.0668, 13.5625, 12.6568, 109.135, -60.4768
0.504739, -1, 31.0682, 28.0668, 13.5625, 12.6568, 109.135, -60.4768
0.50683, -1, 30.9721, 28.0175, 13.5821, 12.6582, 109.083, -60.6076
0.508036, -1, 30.9721, 28.0175, 13.5821, 12.6582, 109.083, -60.6076
0.50922, -1, 30.9721, 28.0175, 13.5821, 12.6582, 109.083, -60.6076
0.511542, -1, 30.8759, 27.9682, 13.6016, 12.6596, 109.032, -60.7383
0.512827, -1, 30.8759, 27.9682, 13.6016, 12.6596, 109.032, -60.7383
0.515718, -1, 30.7798, 27.919, 13.621, 12.6611, 108.98, -60.8689
0.51695, -1, 30.7798, 27.919, 13.621, 12.6611, 108.98, -60.8689
0.519639, -1, 30.6838, 27.8697, 13.6405, 12.6624, 108.929, -60.9996
0.520926, -1, 30.6838, 27.8697, 13.6405, 12.6624, 108.929, -60.9996
0.523042, -1, 30.5879, 27.8204, 13.66, 12.6638, 108.877, -61.1302
0.53028, -1, 30.3959, 27.7217, 13.699, 12.6666, 108.774, -61.3916
0.535803, -1, 30.2998, 27.6724, 13.7185, 12.668, 108.722, -61.5224
0.543773, -1, 30.1077, 27.5736, 13.7575, 12.6707, 108.619, -61.7843
0.551812, -1, 29.9151, 27.4749, 13.7965, 12.6734, 108.516, -62.0459
0.55973, -1, 29.7221, 27.3762, 13.8354, 12.676, 108.412, -62.3075
0.567735, -1, 29.5285, 27.2774, 13.8743, 12.6786, 108.309, -62.5692
0.575799, -1, 29.3345, 27.1786, 13.9132, 12.6811, 108.206, -62.8311
0.58373, -1, 29.1403, 27.0798, 13.9522, 12.6838, 108.103, -63.0927
0.591738, -1, 28.9458, 26.9809, 13.9912, 12.6863, 107.999, -63.3542
0.599797, -1, 28.7517, 26.882, 14.0302, 12.6887, 107.896, -63.6157
0.607729, -1, 28.5576, 26.7831, 14.0691, 12.6912, 107.792, -63.8774
0.6159, -1, 28.3637, 26.6844, 14.1082, 12.6937, 107.689, -64.1392
0.62373, -1, 28.1703, 26.5856, 14.1472, 12.6961, 107.586, -64.4007
0.63175, -1, 27.9773, 26.4868, 14.1862, 12.6985, 107.483, -64.6623
0.639842, -1, 27.7846, 26.3879, 14.2252, 12.701, 107.379, -64.9242
0.774289, -1, 24.5959, 24.7571, 14.8681, 12.7393, 105.676, -69.2424
0.776347, -1, 24.4998, 24.7076, 14.8876, 12.7404, 105.624, -69.3734
0.77774, -1, 24.4998, 24.7076, 14.8876, 12.7404, 105.624, -69.3734
0.779007, -1, 24.4998, 24.7076, 14.8876, 12.7404, 105.624, -69.3734
0.781853, -1, 24.4036, 24.6581, 14.9071, 12.7416, 105.572, -69.5044
0.783126, -1, 24.4036, 24.6581, 14.9071, 12.7416, 105.572, -69.5044
0.785173, -1, 24.3074, 24.6087, 14.9267, 12.7428, 105.52, -69.6351
0.788501, -1, 24.2112, 24.5593, 14.9461, 12.744, 105.469, -69.7658
0.789839, -1, 24.2112, 24.5593, 14.9461, 12.744, 105.469, -69.7658
0.791108, -1, 24.2112, 24.5593, 14.9461, 12.744, 105.469, -69.7658
0.793083, -1, 24.1149, 24.5099, 14.9656, 12.7452, 105.417, -69.8965
0.794362, -1, 24.1149, 24.5099, 14.9656, 12.7452, 105.417, -69.8965
0.797084, -1, 24.1149, 24.5099, 14.9656, 12.7452, 105.366, -70.0272
0.798367, -1, 24.0186, 24.4605, 14.9851, 12.7463, 105.366, -70.0272
0.800501, -1, 23.9221, 24.4111, 15.0046, 12.7475, 105.314, -70.158
0.805995, -1, 23.8257, 24.3616, 15.0241, 12.7487, 105.262, -70.2888
0.807186, -1, 23.8257, 24.3616, 15.0241, 12.7487, 105.262, -70.2888
0.809304, -1, 23.7292, 24.3122, 15.0435, 12.75, 105.21, -70.4197
0.810515, -1, 23.7292, 24.3122, 15.0435, 12.75, 105.21, -70.4197
0.812362, -1, 23.7292, 24.3122, 15.0629, 12.7512, 105.159, -70.5506
0.81388, -1, 23.6327, 24.2628, 15.0629, 12.7512, 105.159, -70.5506
0.815686, -1, 23.6327, 24.2628, 15.0629, 12.7512, 105.159, -70.5506
0.823769, -1, 23.4394, 24.164, 15.1019, 12.7535, 105.055, -70.8124
0.831718, -1, 23.2456, 24.0651, 15.1409, 12.756, 104.952, -71.0741
0.839715, -1, 23.0518, 23.9662, 15.1797, 12.7584, 104.849, -71.3358
0.84778, -1, 22.8577, 23.8674, 15.2186, 12.7609, 104.745, -71.5976
0.855721, -1, 22.6637, 23.7685, 15.2576, 12.7634, 104.642, -71.8595
0.863704, -1, 22.47, 23.6699, 15.2966, 12.7659, 104.539, -72.1209
0.871786, -1, 22.2766, 23.5712, 15.3356, 12.7684, 104.435, -72.3823
0.879757, -1, 22.0834, 23.4725, 15.3745, 12.771, 104.332, -72.6437
0.887799, -1, 21.8904, 23.3738, 15.4135, 12.7736, 104.229, -72.9054
0.895718, -1, 21.6979, 23.2751, 15.4525, 12.7763, 104.125, -73.1667
0.903733, -1, 21.5058, 23.1762, 15.4913, 12.7789, 104.022, -73.4281
0.911766, -1, 21.3135, 23.0775, 15.5303, 12.7816, 103.919, -73.6896
0.919715, -1, 21.1212, 22.9789, 15.5693, 12.7843, 103.816, -73.9511
0.92772, -1, 20.9287, 22.8803, 15.6082, 12.787, 103.713, -74.2124
0.935777, -1, 20.7362, 22.7817, 15.6472, 12.7896, 103.61, -74.4735
0.945403, -1, 20.5436, 22.6832, 15.6861, 12.7924, 103.506, -74.8655
0.951726, -1, 20.3505, 22.5845, 15.7249, 12.7951, 103.404, -74.9962
0.959783, -1, 20.1568, 22.4858, 15.7639, 12.7978, 103.301, -75.2574
0.968781, -1, 19.9631, 22.3871, 15.8028, 12.8005, 103.197, -75.5185
0.975719, -1, 19.7695, 22.2884, 15.8414, 12.8032, 103.095, -75.7796
0.983797, -1, 19.5759, 22.1897, 15.8804, 12.806, 102.992, -76.0409
0.991712, -1, 19.3825, 22.0911, 15.9193, 12.8087, 102.888, -76.3021
0.999824, -1, 19.1894, 21.9924, 15.958, 12.8114, 102.786, -76.5631
1.00771, -1, 18.9966, 21.8938, 15.997, 12.8142, 102.682, -76.8238
1.01571, -1, 18.8041, 21.7951, 16.0358, 12.8169, 102.579, -77.0848
1.02381, -1, 18.612, 21.6964, 16.0746, 12.8196, 102.477, -77.3459
1.03171, -1, 18.4203, 21.5978, 16.1135, 12.8222, 102.374, -77.6066
1.03976, -1, 18.2284, 21.4993, 16.1524, 12.8248, 102.271, -77.8672
1.04782, -1, 18.0365, 21.4008, 16.1911, 12.8273, 102.168, -78.1279
1.05573, -1, 17.8447, 21.3025, 16.2301, 12.8299, 102.065, -78.3888
1.06373, -1, 17.6526, 21.2041, 16.269, 12.8325, 101.962, -78.6493
1.07179, -1, 17.4603, 21.1059, 16.3078, 12.8349, 101.859, -78.9097
1.07972, -1, 17.2674, 21.0075, 16.3466, 12.8373, 101.756, -79.1703
1.08771, -1, 17.0743, 20.9092, 16.3854, 12.8396, 101.653, -79.431
1.09579, -1, 16.8813, 20.8109, 16.4242, 12.842, 101.55, -79.6915
1.10372, -1, 16.6881, 20.7128, 16.463, 12.8443, 101.448, -79.9519
1.11172, -1, 16.4951, 20.6145, 16.5016, 12.8467, 101.345, -80.2125
1.11988, -1, 16.3022, 20.5161, 16.5404, 12.849, 101.242, -80.4731
1.12772, -1, 16.1099, 20.4178, 16.5791, 12.8513, 101.14, -80.7336
1.1358, -1, 15.918, 20.3194, 16.6178, 12.8536, 101.037, -80.9937
1.14471, -1, 15.7263, 20.2208, 16.6565, 12.8558, 100.934, -81.2537
1.1518, -1, 15.535, 20.1225, 16.6951, 12.8582, 100.832, -81.5139
1.15987, -1, 15.3439, 20.0242, 16.7338, 12.8605, 100.729, -81.7742
1.16862, -1, 15.1528, 19.9259, 16.7726, 12.8628, 100.627, -82.034
1.17581, -1, 14.9616, 19.8277, 16.8113, 12.865, 100.524, -82.2937
1.1839, -1, 14.7703, 19.7296, 16.85, 12.8674, 100.422, -82.5535
1.19262, -1, 14.5788, 19.6315, 16.8887, 12.8696, 100.319, -82.8137
1.19973, -1, 14.387, 19.5333, 16.9273, 12.8719, 100.216, -83.0735
1.20786, -1, 14.1947, 19.4353, 16.9661, 12.8742, 100.114, -83.3329
1.21671, -1, 14.0024, 19.3373, 17.0048, 12.8765, 100.011, -83.5924
1.22389, -1, 13.8099, 19.2395, 17.0433, 12.8789, 99.9086, -83.8522
1.23195, -1, 13.6174, 19.1416, 17.082, 12.8811, 99.8062, -84.1117
1.2409, -1, 13.425, 19.0438, 17.1207, 12.8835, 99.7036, -84.3709
1.24812, -1, 13.233, 18.9459, 17.1592, 12.8857, 99.6015, -84.6301
1.25473, -1, 13.1372, 18.8969, 17.1784, 12.8869, 99.5504, -84.7598
1.26414, -1, 12.8502, 18.7499, 17.2365, 12.8904, 99.3965, -85.149
1.27076, -1, 12.7547, 18.701, 17.2557, 12.8916, 99.3454, -85.2785
1.28028, -1, 12.4686, 18.5543, 17.3135, 12.8953, 99.1921, -85.6669
1.28824, -1, 12.2783, 18.4565, 17.3521, 12.8977, 99.0898, -85.9257
1.29637, -1, 12.0883, 18.3588, 17.3905, 12.9002, 98.9879, -86.1848
1.30526, -1, 11.9931, 18.2612, 17.4292, 12.9025, 98.8856, -86.4436
1.31225, -1, 11.8027, 18.2123, 17.4485, 12.9037, 98.7837, -86.702
1.32098, -1, 11.5166, 18.0659, 17.5062, 12.9075, 98.682, -86.9607
1.3277, -1, 11.4211, 18.0171, 17.5255, 12.9087, 98.631, -87.09
1.33473, -1, 11.23, 17.9196, 17.5641, 12.9111, 98.529, -87.3487
1.3437, -1, 11.0386, 17.822, 17.6026, 12.9136, 98.4272, -87.607
1.3517, -1, 10.847, 17.7246, 17.6411, 12.9161, 98.3252, -87.8652
1.35871, -1, 10.6553, 17.6271, 17.6796, 12.9186, 98.2232, -88.1235
1.3677, -1, 10.4638, 17.5296, 17.718, 12.9211, 98.1215, -88.3819
1.37575, -1, 10.2727, 17.4321, 17.7564, 12.9236, 98.0196, -88.64
1.38271, -1, 10.0818, 17.3345, 17.7949, 12.9262, 97.9177, -88.8981
1.39172, -1, 9.89139, 17.237, 17.8331, 12.9288, 97.8161, -89.1561
1.39971, -1, 9.7013, 17.1395, 17.8715, 12.9314, 97.7139, -89.4143
1.40671, -1, 9.51161, 17.042, 17.9099, 12.9342, 97.612, -89.6723
1.4157, -1, 9.3223, 16.9447, 17.9482, 12.937, 97.5101, -89.9299
1.4237, -1, 9.1331, 16.8473, 17.9866, 12.9396, 97.4081, -90.1873
1.43071, -1, 8.9437, 16.7501, 18.0249, 12.9422, 97.3064, -90.445
1.43971, -1, 8.75415, 16.6529, 18.0632, 12.9449, 97.2048, -90.7026
1.44871, -1, 8.56467, 16.5558, 18.1017, 12.9475, 97.103, -90.9598
1.45476, -1, 8.3749, 16.4587, 18.14, 12.9503, 97.0016, -91.217
1.4637, -1, 8.18458, 16.3617, 18.1783, 12.9529, 96.9, -91.4742
1.4717, -1, 7.99403, 16.2648, 18.2167, 12.9555, 96.7984, -91.7315
1.47978, -1, 7.80354, 16.168, 18.2549, 12.9582, 96.6971, -91.9883
1.4877, -1, 7.61297, 16.0711, 18.2932, 12.9608, 96.5955, -92.2449
1.4957, -1, 7.42255, 15.9741, 18.3316, 12.9633, 96.494, -92.5017
1.50369, -1, 7.23239, 15.8772, 18.3697, 12.9659, 96.3929, -92.7585
1.5117, -1, 7.04258, 15.7803, 18.4079, 12.9684, 96.2914, -93.0152
1.51977, -1, 6.85314, 15.6833, 18.4462, 12.971, 96.1902, -93.2716
1.5277, -1, 6.66419, 15.5865, 18.4843, 12.9735, 96.0896, -93.5279
1.5357, -1, 6.47569, 15.4896, 18.5223, 12.976, 95.9885, -93.7843
1.54381, -1, 6.2875, 15.3929, 18.5605, 12.9785, 95.8874, -94.0406
1.55173, -1, 6.09941, 15.2962, 18.5986, 12.9809, 95.7867, -94.2966
1.55972, -1, 5.91115, 15.1995, 18.6368, 12.9832, 95.6856, -94.5525
1.56776, -1, 5.72277, 15.1029, 18.675, 12.9856, 95.5846, -94.8085
1.5757, -1, 5.53427, 15.0062, 18.713, 12.9879, 95.484, -95.0645
1.58369, -1, 5.34553, 14.9097, 18.7511, 12.9902, 95.3831, -95.32
1.59176, -1, 5.15636, 14.8133, 18.7893, 12.9924, 95.2824, -95.5753
1.59971, -1, 4.96688, 14.717, 18.8273, 12.9947, 95.1819, -95.8308
1.6077, -1, 4.77755, 14.6206, 18.8653, 12.9969, 95.081, -96.0863
1.61576, -1, 4.58814, 14.5243, 18.9034, 12.9991, 94.9802, -96.3416
1.6237, -1, 4.39893, 14.428, 18.9414, 13.0013, 94.8796, -96.5965
1.63176, -1, 4.20997, 14.3316, 18.9794, 13.0034, 94.7787, -96.8514
1.63974, -1, 4.02126, 14.2352, 19.0174, 13.0057, 94.6779, -97.1064
1.64777, -1, 3.83323, 14.1389, 19.0552, 13.008, 94.5771, -97.3615
1.65585, -1, 3.64569, 14.0428, 19.0932, 13.0102, 94.4764, -97.6163
1.66415, -1, 3.45853, 13.9466, 19.1311, 13.0126, 94.3758, -97.871
1.6713, -1, 3.27162, 13.8506, 19.1689, 13.0148, 94.2751, -98.1257
1.67987, -1, 3.08464, 13.7546, 19.2068, 13.0171, 94.1743, -98.3805
1.68821, -1, 2.89762, 13.6585, 19.2447, 13.0193, 94.0738, -98.6349
1.69591, -1, 2.71059, 13.5625, 19.2826, 13.0216, 93.9732, -98.889
1.70394, -1, 2.52327, 13.4666, 19.3205, 13.0238, 93.8727, -99.1431
1.71254, -1, 2.33583, 13.3707, 19.3583, 13.0261, 93.7724, -99.3973
1.71977, -1, 2.14803, 13.275, 19.3961, 13.0284, 93.672, -99.6513
1.72791, -1, 1.95991, 13.1791, 19.434, 13.0306, 93.5719, -99.9049
1.7367, -1, 1.77178, 13.0833, 19.4717, 13.0329, 93.472, -100.159
1.74424, -1, 1.58351, 12.9875, 19.5094, 13.0351, 93.3718, -100.412
1.7507, -1, 1.48941, 12.9395, 19.5283, 13.0362, 93.3217, -100.539
1.76097, -1, 1.20757, 12.7957, 19.585, 13.0398, 93.1718, -100.919
1.76811, -1, 1.02014, 12.7, 19.6227, 13.0421, 93.0716, -101.172
1.77476, -1, 0.926727, 12.6522, 19.6416, 13.0434, 93.0217, -101.299
1.7851, -1, 0.647129, 12.5089, 19.698, 13.0469, 92.8722, -101.678
1.79079, -1, 0.554088, 12.4611, 19.7168, 13.0481, 92.8222, -101.805
1.80028, -1, 0.275533, 12.3181, 19.7734, 13.0518, 92.6726, -102.184
1.80911, -1, 0.182788, 12.2704, 19.8109, 13.0543, 92.5734, -102.436
1.81477, -1, -0.00257571, 12.175, 19.8297, 13.0555, 92.5235, -102.563
1.8243, -1, -0.188129, 12.0797, 19.8673, 13.0579, 92.4239, -102.815
1.83168, -1, -0.373901, 11.9845, 19.905, 13.0604, 92.3245, -103.068
1.83876, -1, -0.559995, 11.8893, 19.9425, 13.0629, 92.225, -103.32
1.84774, -1, -0.746325, 11.7943, 19.9801, 13.0654, 92.1255, -103.572
1.8557, -1, -0.932849, 11.6993, 20.0176, 13.0679, 92.0262, -103.824
1.86276, -1, -1.11957, 11.6042, 20.055, 13.0704, 91.9268, -104.076
1.87169, -1, -1.30653, 11.5092, 20.0925, 13.0729, 91.8275, -104.327
1.87973, -1, -1.49338, 11.4141, 20.13, 13.0754, 91.7284, -104.579
1.8867, -1, -1.67999, 11.3189, 20.1674, 13.078, 91.6292, -104.83
1.89571, -1, -1.86621, 11.2239, 20.2049, 13.0805, 91.5299, -105.082
1.90368, -1, -2.05196, 11.129, 20.2423, 13.0832, 91.4309, -105.333
1.9107, -1, -2.23706, 11.0341, 20.2797, 13.0858, 91.3315, -105.584
1.91969, -1, -2.42189, 10.9392, 20.3171, 13.0886, 91.2324, -105.835
1.92769, -1, -2.60627, 10.8445, 20.3544, 13.0912, 91.1335, -106.086
1.93469, -1, -2.79025, 10.7497, 20.3916, 13.0939, 91.0343, -106.337
1.94369, -1, -2.9742, 10.655, 20.429, 13.0964, 90.9352, -106.587
1.95269, -1, -3.1582, 10.5603, 20.4664, 13.099, 90.8365, -106.838
1.95871, -1, -3.34251, 10.4657, 20.5036, 13.1016, 90.7375, -107.089
1.96769, -1, -3.52716, 10.3712, 20.5408, 13.1041, 90.6386, -107.339
1.9757, -1, -3.71194, 10.2769, 20.5781, 13.1067, 90.5399, -107.589
1.98375, -1, -3.89705, 10.1825, 20.6153, 13.1092, 90.441, -107.839
1.99171, -1, -4.08239, 10.0882, 20.6527, 13.1116, 90.3423, -108.089
1.99975, -1, -4.26789, 9.99391, 20.6898, 13.114, 90.2439, -108.339
2.0077, -1, -4.45343, 9.89959, 20.7269, 13.1163, 90.1451, -108.589
2.01593, -1, -4.63873, 9.80523, 20.7642, 13.1187, 90.0466, -108.839
2.02368, -1, -4.82351, 9.71105, 20.8014, 13.121, 89.9483, -109.088
2.03168, -1, -5.00805, 9.61696, 20.8384, 13.1234, 89.8496, -109.338
2.04048, -1, -5.19191, 9.52288, 20.8756, 13.1258, 89.7512, -109.587
2.04774, -1, -5.3753, 9.42885, 20.9127, 13.1281, 89.653, -109.836
2.05572, -1, -5.55822, 9.33497, 20.9497, 13.1304, 89.5545, -110.085
2.06449, -1, -5.74075, 9.24106, 20.9868, 13.1326, 89.4563, -110.333
2.07169, -1, -5.92313, 9.14714, 21.0238, 13.135, 89.3584, -110.582
2.07969, -1, -6.10557, 9.05328, 21.0608, 13.1371, 89.2601, -110.831
2.08847, -1, -6.28826, 8.9595, 21.0979, 13.1393, 89.1621, -111.079
2.09573, -1, -6.47121, 8.86585, 21.1348, 13.1415, 89.0644, -111.328
2.10369, -1, -6.65436, 8.77218, 21.1716, 13.1437, 88.9663, -111.576
2.1125, -1, -6.83797, 8.67856, 21.2086, 13.1459, 88.8684, -111.824
2.11969, -1, -7.0218, 8.58494, 21.2455, 13.148, 88.7707, -112.072
2.12769, -1, -7.20593, 8.49136, 21.2823, 13.1501, 88.6728, -112.319
2.13649, -1, -7.39011, 8.39773, 21.3193, 13.1522, 88.5749, -112.567
2.14373, -1, -7.57393, 8.30409, 21.3562, 13.1543, 88.4774, -112.815
2.15177, -1, -7.75747, 8.21067, 21.3929, 13.1565, 88.3797, -113.062
2.16061, -1, -7.94056, 8.11728, 21.4298, 13.1588, 88.2824, -113.309
2.16784, -1, -8.12313, 8.02391, 21.4666, 13.161, 88.1851, -113.556
2.17579, -1, -8.30494, 7.93068, 21.5033, 13.1632, 88.0876, -113.803
2.18459, -1, -8.48627, 7.83745, 21.5402, 13.1655, 87.9902, -114.05
2.19175, -1, -8.66735, 7.74422, 21.577, 13.1678, 87.8929, -114.297
2.19969, -1, -8.84803, 7.65104, 21.6137, 13.17, 87.7955, -114.543
2.20868, -1, -9.02881, 7.55795, 21.6505, 13.1722, 87.698, -114.79
2.21576, -1, -9.20986, 7.46494, 21.6872, 13.1745, 87.6009, -115.036
2.22386, -1, -9.39113, 7.37212, 21.7238, 13.1767, 87.5037, -115.283
2.23268, -1, -9.57282, 7.27928, 21.7605, 13.1789, 87.4066, -115.529
2.2399, -1, -9.75477, 7.18647, 21.7972, 13.1812, 87.3096, -115.775
2.2482, -1, -9.93712, 7.09373, 21.8337, 13.1833, 87.2123, -116.021
2.25468, -1, -10.0284, 7.04736, 21.852, 13.1844, 87.1637, -116.144
2.26273, -1, -10.2109, 6.9546, 21.8886, 13.1867, 87.0667, -116.39
2.27225, -1, -10.4848, 6.81542, 21.9435, 13.19, 86.9209, -116.758
2.28018, -1, -10.6671, 6.72274, 21.9801, 13.1923, 86.8238, -117.003
2.28676, -1, -10.758, 6.67644, 21.9983, 13.1935, 86.7754, -117.126
2.29644, -1, -11.0302, 6.53756, 22.0529, 13.1972, 86.63, -117.494
2.30425, -1, -11.2106, 6.44506, 22.0894, 13.1995, 86.5333, -117.739
2.31075, -1, -11.3006, 6.39882, 22.1078, 13.2007, 86.4851, -117.861
2.32044, -1, -11.4803, 6.30635, 22.1442, 13.2044, 86.3399, -118.229
2.32767, -1, -11.6598, 6.21391, 22.1806, 13.2056, 86.2916, -118.351
2.33569, -1, -11.839, 6.12155, 22.2171, 13.2081, 86.1951, -118.596
2.34373, -1, -12.0183, 6.02926, 22.2535, 13.2105, 86.0984, -118.84
2.35168, -1, -12.1977, 5.93708, 22.2899, 13.213, 86.0019, -119.084
2.35878, -1, -12.3773, 5.84505, 22.3264, 13.2155, 85.9057, -119.328
2.36772, -1, -12.5573, 5.75302, 22.3626, 13.2179, 85.8092, -119.572
2.37567, -1, -12.7378, 5.66102, 22.3988, 13.2204, 85.7129, -119.816
2.38375, -1, -12.9187, 5.5691, 22.4353, 13.2228, 85.6171, -120.06
2.39171, -1, -13.0999, 5.47718, 22.4715, 13.2253, 85.5211, -120.303
2.39971, -1, -13.2811, 5.38517, 22.5077, 13.2277, 85.4251, -120.547
2.40767, -1, -13.4622, 5.29325, 22.5441, 13.2301, 85.3294, -120.791
2.41567, -1, -13.6428, 5.20135, 22.5803, 13.2328, 85.2335, -121.034
2.42375, -1, -13.823, 5.10951, 22.6164, 13.2353, 85.1378, -121.277
2.43068, -1, -14.0025, 5.01769, 22.6526, 13.2379, 85.0421, -121.52
2.43969, -1, -14.1812, 4.92595, 22.6888, 13.2404, 84.9465, -121.763
2.45008, -1, -14.3595, 4.83423, 22.7248, 13.243, 84.8509, -122.006
2.45567, -1, -14.5374, 4.7426, 22.7611, 13.2455, 84.7554, -122.248
2.46469, -1, -14.715, 4.65098, 22.7973, 13.248, 84.6597, -122.49
2.47173, -1, -14.8927, 4.55946, 22.8333, 13.2505, 84.564, -122.733
2.47969, -1, -15.0704, 4.46804, 22.8695, 13.2529, 84.4683, -122.975
2.48767, -1, -15.2484, 4.37679, 22.9056, 13.2554, 84.3727, -123.217
2.49574, -1, -15.4268, 4.28548, 22.9417, 13.2578, 84.277, -123.459
2.50367, -1, -15.6057, 4.19422, 22.9777, 13.2601, 84.1815, -123.701
2.51167, -1, -15.7849, 4.10298, 23.0137, 13.2624, 84.086, -123.942
2.51975, -1, -15.9641, 4.01176, 23.0496, 13.2645, 83.9906, -124.184
2.52767, -1, -16.1438, 3.92048, 23.0857, 13.2666, 83.8952, -124.425
2.53569, -1, -16.3236, 3.82923, 23.1217, 13.2688, 83.7997, -124.667
2.54374, -1, -16.503, 3.73801, 23.1575, 13.271, 83.7043, -124.908
2.55172, -1, -16.682, 3.64689, 23.1933, 13.2732, 83.6089, -125.15
2.55978, -1, -16.8604, 3.5558, 23.2292, 13.2755, 83.5135, -125.391
2.56769, -1, -17.038, 3.46477, 23.2651, 13.2777, 83.4182, -125.631
2.57567, -1, -17.2148, 3.37383, 23.3009, 13.2799, 83.3229, -125.872
2.58374, -1, -17.3913, 3.283, 23.3368, 13.2822, 83.2279, -126.113
2.59167, -1, -17.5677, 3.19212, 23.3725, 13.2842, 83.1327, -126.353
2.59969, -1, -17.7437, 3.1015, 23.4084, 13.2864, 83.0379, -126.593
2.60773, -1, -17.9197, 3.01092, 23.4443, 13.2885, 82.9432, -126.834
2.61567, -1, -18.096, 2.92046, 23.48, 13.2906, 82.8483, -127.074
2.62367, -1, -18.2725, 2.8301, 23.5157, 13.2928, 82.7535, -127.314
2.63173, -1, -18.4495, 2.7397, 23.5516, 13.2948, 82.659, -127.554
2.63976, -1, -18.6269, 2.64932, 23.5872, 13.2968, 82.5642, -127.793
2.64771, -1, -18.8046, 2.559, 23.6229, 13.2988, 82.4696, -128.033
2.65582, -1, -18.9827, 2.46857, 23.6586, 13.3009, 82.3754, -128.272
2.66377, -1, -19.161, 2.3781, 23.6942, 13.3028, 82.2808, -128.512
2.67184, -1, -19.3392, 2.28774, 23.7298, 13.3048, 82.1865, -128.751
2.67979, -1, -19.5167, 2.19739, 23.7654, 13.307, 82.0927, -128.99
2.68777, -1, -19.6938, 2.10701, 23.8009, 13.3092, 81.9984, -129.229
2.69585, -1, -19.8704, 2.01672, 23.8363, 13.3114, 81.9043, -129.468
2.70368, -1, -20.0462, 1.92648, 23.8719, 13.3135, 81.8103, -129.707
2.71176, -1, -20.2212, 1.83629, 23.9074, 13.3158, 81.7161, -129.945
2.72007, -1, -20.3961, 1.74619, 23.9428, 13.318, 81.6221, -130.184
2.72776, -1, -20.5707, 1.65612, 23.9785, 13.3202, 81.5283, -130.422
2.73581, -1, -20.7451, 1.56618, 24.014, 13.3223, 81.4342, -130.66
2.74396, -1, -20.9198, 1.47629, 24.0493, 13.3245, 81.3405, -130.898
2.75195, -1, -21.0948, 1.38656, 24.0849, 13.3266, 81.2469, -131.136
2.75871, -1, -21.1825, 1.34168, 24.1027, 13.3277, 81.2, -131.255
2.76816, -1, -21.446, 1.20707, 24.1557, 13.331, 81.0591, -131.612
2.7761, -1, -21.6221, 1.11743, 24.1911, 13.3332, 80.9653, -131.849
2.78494, -1, -21.7983, 1.02778, 24.2265, 13.3354, 80.8715, -132.087
2.79225, -1, -21.9746, 0.938124, 24.2619, 13.3376, 80.7777, -132.324
2.80022, -1, -22.1512, 0.848552, 24.2973, 13.3397, 80.6841, -132.561
2.80916, -1, -22.3276, 0.759024, 24.3326, 13.3418, 80.5904, -132.798
2.81623, -1, -22.4157, 0.714292, 24.3502, 13.3441, 80.4968, -133.035
2.82417, -1, -22.5915, 0.624743, 24.3854, 13.3453, 80.45, -133.154
2.83307, -1, -22.7668, 0.535306, 24.4206, 13.3477, 80.3566, -133.391
2.83869, -1, -22.9412, 0.445888, 24.4559, 13.35, 80.2628, -133.627
2.84767, -1, -23.115, 0.356485, 24.491, 13.3525, 80.1693, -133.864
2.85571, -1, -23.2885, 0.26715, 24.5261, 13.3549, 80.076, -134.101
2.86268, -1, -23.4616, 0.17785, 24.5614, 13.3574, 79.9824, -134.337
2.87166, -1, -23.6347, 0.088682, 24.5965, 13.3598, 79.8892, -134.573
2.87973, -1, -23.8081, -0.000444631, 24.6317, 13.3621, 79.796, -134.809
2.88667, -1, -23.9816, -0.0894217, 24.6669, 13.3646, 79.7028, -135.046
2.89569, -1, -24.1553, -0.178375, 24.7019, 13.3671, 79.6097, -135.282
2.90373, -1, -24.3292, -0.267325, 24.737, 13.3695, 79.5167, -135.517
2.91069, -1, -24.5035, -0.356208, 24.7722, 13.372, 79.4236, -135.753
2.91967, -1, -24.6782, -0.445104, 24.8072, 13.3744, 79.3305, -135.988
2.92773, -1, -24.8531, -0.533987, 24.8422, 13.3768, 79.2375, -136.224
2.93468, -1, -25.0282, -0.622837, 24.8774, 13.3792, 79.1446, -136.459
2.94366, -1, -25.2031, -0.711677, 24.9124, 13.3816, 79.0516, -136.694
2.95172, -1, -25.3776, -0.800433, 24.9473, 13.3839, 78.9588, -136.929
2.96147, -1, -25.5517, -0.889246, 24.9999, 13.3876, 78.8198, -137.282
2.96772, -1, -25.7253, -0.977987, 25.0173, 13.3888, 78.7734, -137.399
2.97573, -1, -25.8982, -1.06666, 25.0521, 13.3912, 78.6808, -137.634
2.98367, -1, -26.0706, -1.15534, 25.0872, 13.3936, 78.5887, -137.868
2.99166, -1, -26.2427, -1.24397, 25.1221, 13.396, 78.4959, -138.103
2.99973, -1, -26.4144, -1.33253, 25.1569, 13.3984, 78.4033, -138.338
3.00766, -1, -26.5863, -1.42097, 25.1918, 13.4007, 78.311, -138.572
3.01573, -1, -26.7583, -1.50933, 25.2268, 13.4029, 78.2184, -138.806
3.02365, -1, -26.9306, -1.59752, 25.2616, 13.4051, 78.1261, -139.04
3.03168, -1, -27.1031, -1.68568, 25.2965, 13.4074, 78.034, -139.274
3.03983, -1, -27.2757, -1.7739, 25.3314, 13.4095, 77.9417, -139.508
3.04766, -1, -27.4486, -1.86198, 25.3661, 13.4117, 77.8496, -139.742
3.05572, -1, -27.6217, -1.95007, 25.4009, 13.4138, 77.7577, -139.975
3.06376, -1, -27.7949, -2.03826, 25.4358, 13.4159, 77.6656, -140.208
3.07175, -1, -27.9682, -2.12626, 25.4705, 13.418, 77.5736, -140.442
3.07967, -1, -28.1414, -2.2143, 25.5052, 13.42, 77.4816, -140.675
3.08772, -1, -28.3145, -2.30235, 25.5401, 13.422, 77.3896, -140.908
3.09565, -1, -28.4873, -2.3904, 25.5748, 13.4241, 77.2974, -141.141
3.10367, -1, -28.6596, -2.47835, 25.6094, 13.4263, 77.2054, -141.374
3.11173, -1, -28.8314, -2.56636, 25.6441, 13.4284, 77.1135, -141.607
3.11967, -1, -29.0024, -2.65437, 25.6788, 13.4306, 77.0216, -141.84
3.12787, -1, -29.1731, -2.74223, 25.7133, 13.4327, 76.9296, -142.072
3.13566, -1, -29.3437, -2.83005, 25.748, 13.4348, 76.838, -142.305
3.14367, -1, -29.5144, -2.91777, 25.7827, 13.4369, 76.746, -142.537
3.15249, -1, -29.6853, -3.00537, 25.8172, 13.4388, 76.6541, -142.769
3.15975, -1, -29.8564, -3.09291, 25.8518, 13.4409, 76.5625, -143.002
3.16776, -1, -30.0274, -3.18039, 25.8864, 13.443, 76.4704, -143.234
3.17685, -1, -30.1983, -3.26789, 25.9209, 13.445, 76.3788, -143.466
3.18376, -1, -30.3694, -3.35529, 25.9554, 13.4471, 76.2874, -143.698
3.19183, -1, -30.541, -3.44276, 25.99, 13.4491, 76.1957, -143.93
3.20023, -1, -30.7128, -3.53032, 26.0244, 13.4512, 76.1043, -144.161
3.2078, -1, -30.8846, -3.61765, 26.0589, 13.4532, 76.013, -144.392
3.21568, -1, -31.0563, -3.70507, 26.0935, 13.4552, 75.9215, -144.624
3.22446, -1, -31.228, -3.79238, 26.1279, 13.4573, 75.8302, -144.855
3.23184, -1, -31.3994, -3.87972, 26.1623, 13.4594, 75.7389, -145.087
3.23991, -1, -31.5702, -3.967, 26.1968, 13.4615, 75.6476, -145.318
3.24864, -1, -31.7407, -4.05423, 26.2312, 13.4637, 75.5564, -145.549
3.25601, -1, -31.9107, -4.14149, 26.2655, 13.4659, 75.4652, -145.779
3.26266, -1, -31.9955, -4.18509, 26.2827, 13.4669, 75.4198, -145.895
3.27279, -1, -32.2497, -4.31577, 26.3343, 13.4703, 75.283, -146.241
3.28021, -1, -32.4192, -4.40282, 26.3685, 13.4724, 75.192, -146.472
3.2882, -1, -32.5889, -4.48982, 26.4029, 13.4746, 75.1015, -146.702
3.29697, -1, -32.7586, -4.57671, 26.4373, 13.4767, 75.0104, -146.933
3.30429, -1, -32.9283, -4.66363, 26.4715, 13.4789, 74.9198, -147.163
3.31225, -1, -33.098, -4.75052, 26.5057, 13.481, 74.8293, -147.393
3.32099, -1, -33.1829, -4.79395, 26.5229, 13.4833, 74.7384, -147.623
3.32829, -1, -33.3528, -4.88077, 26.5572, 13.4844, 74.6478, -147.853
3.33565, -1, -33.523, -4.96769, 26.5914, 13.4866, 74.6025, -147.968
3.34364, -1, -33.6933, -5.05454, 26.6256, 13.4888, 74.5121, -148.198
3.35164, -1, -33.8635, -5.14131, 26.6599, 13.491, 74.4214, -148.428
3.35965, -1, -34.0338, -5.22803, 26.6939, 13.4932, 74.3309, -148.657
3.36772, -1, -34.2039, -5.31478, 26.7281, 13.4955, 74.2406, -148.887
3.37471, -1, -34.374, -5.40143, 26.7624, 13.4978, 74.1499, -149.116
3.38364, -1, -34.5438, -5.48806, 26.7965, 13.5001, 74.0592, -149.345
3.39175, -1, -34.713, -5.57473, 26.8305, 13.5025, 73.9688, -149.575
3.39866, -1, -34.8817, -5.66134, 26.8647, 13.5049, 73.8782, -149.804
3.40767, -1, -35.0502, -5.74785, 26.8989, 13.5074, 73.7877, -150.033
3.41568, -1, -35.2184, -5.83431, 26.9329, 13.5098, 73.6975, -150.262
3.42366, -1, -35.3868, -5.92069, 26.967, 13.5122, 73.6071, -150.491
3.43171, -1, -35.5554, -6.00687, 27.0012, 13.5146, 73.5168, -150.72
3.43965, -1, -35.7239, -6.09311, 27.0351, 13.5168, 73.4264, -150.948
3.44765, -1, -35.8925, -6.17929, 27.0692, 13.5193, 73.3363, -151.177
3.45571, -1, -36.0609, -6.26538, 27.1033, 13.5217, 73.2457, -151.405
3.4647, -1, -36.2294, -6.35149, 27.1373, 13.5241, 73.1553, -151.634
3.47164, -1, -36.398, -6.43772, 27.1711, 13.5266, 73.0651, -151.863
3.47971, -1, -36.5669, -6.52395, 27.2052, 13.5288, 72.9745, -152.091
3.48764, -1, -36.7358, -6.6101, 27.2391, 13.5311, 72.8843, -152.319
3.49796, -1, -36.9892, -6.73932, 27.2899, 13.5345, 72.7494, -152.661
3.50372, -1, -37.0737, -6.78241, 27.3069, 13.5356, 72.7042, -152.775
3.51164, -1, -37.2425, -6.86853, 27.3408, 13.5379, 72.6143, -153.003
3.51966, -1, -37.411, -6.95453, 27.3746, 13.5401, 72.5244, -153.231
3.5277, -1, -37.5791, -7.04061, 27.4086, 13.5424, 72.4345, -153.458
3.53564, -1, -37.7468, -7.12662, 27.4426, 13.5446, 72.3446, -153.686
3.54364, -1, -37.9145, -7.2126, 27.4764, 13.5469, 72.2548, -153.913
3.55171, -1, -38.0819, -7.29851, 27.5103, 13.5491, 72.1651, -154.141
3.5597, -1, -38.2494, -7.38436, 27.5442, 13.5513, 72.0753, -154.368
3.56769, -1, -38.4167, -7.47009, 27.578, 13.5534, 71.9856, -154.595
3.57574, -1, -38.5839, -7.5558, 27.6119, 13.5555, 71.8962, -154.822
3.58364, -1, -38.7512, -7.64154, 27.6458, 13.5576, 71.8065, -155.05
3.59164, -1, -38.9185, -7.72719, 27.6795, 13.5596, 71.717, -155.277
3.59974, -1, -39.0859, -7.8128, 27.7132, 13.5617, 71.6279, -155.503
3.60764, -1, -39.2534, -7.89847, 27.7471, 13.5637, 71.5384, -155.73
3.61564, -1, -39.4209, -7.98416, 27.7809, 13.5657, 71.4491, -155.957
3.62372, -1, -39.5885, -8.06971, 27.8145, 13.5677, 71.3598, -156.184
3.63164, -1, -39.7562, -8.15528, 27.8482, 13.5696, 71.2705, -156.41
3.63973, -1, -39.9238, -8.24077, 27.882, 13.5715, 71.1811, -156.636
3.64788, -1, -40.0914, -8.32621, 27.9157, 13.5735, 71.0916, -156.863
3.6557, -1, -40.2589, -8.41159, 27.9493, 13.5754, 71.0026, -157.089
3.66372, -1, -40.426, -8.49699, 27.9831, 13.5774, 70.9131, -157.315
3.67202, -1, -40.593, -8.58236, 28.0167, 13.5794, 70.8239, -157.541
3.67976, -1, -40.7599, -8.66774, 28.0503, 13.5814, 70.735, -157.767
3.68775, -1, -40.9265, -8.75307, 28.084, 13.5834, 70.6457, -157.993
3.69622, -1, -41.0929, -8.83839, 28.1178, 13.5854, 70.5565, -158.219
3.70316, -1, -41.1761, -8.88102, 28.1345, 13.5864, 70.512, -158.332
3.71166, -1, -41.4254, -9.00879, 28.1849, 13.5894, 70.3783, -158.671
3.72044, -1, -41.5916, -9.09395, 28.2185, 13.5914, 70.2891, -158.896
3.72791, -1, -41.7579, -9.17902, 28.2521, 13.5934, 70.2001, -159.121
3.73576, -1, -41.9243, -9.2641, 28.2857, 13.5954, 70.111, -159.347
3.74475, -1, -42.0907, -9.34917, 28.3193, 13.5975, 70.022, -159.573
3.75186, -1, -42.257, -9.43426, 28.3528, 13.5995, 69.933, -159.798
3.76001, -1, -42.4233, -9.51927, 28.3863, 13.6015, 69.8443, -160.023
3.76673, -1, -42.5064, -9.56174, 28.4031, 13.6025, 69.7996, -160.135
3.7747, -1, -42.6729, -9.64672, 28.4367, 13.6045, 69.7107, -160.361
3.78416, -1, -42.9224, -9.77416, 28.4868, 13.6075, 69.5776, -160.699
3.79214, -1, -43.0888, -9.85908, 28.5203, 13.6096, 69.4886, -160.923
3.80093, -1, -43.255, -9.94403, 28.5538, 13.6117, 69.4, -161.148
3.80824, -1, -43.4211, -10.029, 28.5873, 13.6138, 69.3115, -161.373
3.8162, -1, -43.5041, -10.1139, 28.6207, 13.6158, 69.2228, -161.598
3.82511, -1, -43.6699, -10.1564, 28.6375, 13.6168, 69.1343, -161.822
3.83064, -1, -43.8358, -10.2412, 28.671, 13.619, 69.09, -161.935
3.84083, -1, -44.0844, -10.3683, 28.7211, 13.6222, 68.9574, -162.271
3.84764, -1, -44.167, -10.4107, 28.7378, 13.6233, 68.9129, -162.383
3.85568, -1, -44.3323, -10.4953, 28.7714, 13.6254, 68.8243, -162.608
3.86363, -1, -44.4975, -10.5799, 28.8047, 13.6277, 68.7357, -162.832
3.87163, -1, -44.6627, -10.6644, 28.8381, 13.6299, 68.6471, -163.056
3.87976, -1, -44.8279, -10.7489, 28.8716, 13.632, 68.5585, -163.28
3.88763, -1, -44.9933, -10.8333, 28.905, 13.6342, 68.4701, -163.504
3.89568, -1, -45.1586, -10.9179, 28.9384, 13.6364, 68.3818, -163.728
3.90371, -1, -45.3239, -11.0024, 28.9718, 13.6386, 68.2933, -163.952
3.91163, -1, -45.4892, -11.0868, 29.0052, 13.6409, 68.2049, -164.176
3.91963, -1, -45.6545, -11.1713, 29.0383, 13.6432, 68.117, -164.4
3.92768, -1, -45.8197, -11.2557, 29.0716, 13.6455, 68.0284, -164.623
3.93564, -1, -45.9839, -11.3396, 29.1051, 13.6478, 67.9401, -164.847
3.94363, -1, -46.1454, -11.4219, 29.1385, 13.65, 67.8521, -165.07
3.95169, -1, -46.3025, -11.5014, 29.1721, 13.6525, 67.7646, -165.291
3.95963, -1, -46.4529, -11.5765, 29.2056, 13.6548, 67.6794, -165.507
3.96866, -1, -46.5942, -11.6464, 29.2379, 13.6571, 67.5978, -165.713
3.97573, -1, -46.724, -11.7098, 29.2678, 13.6593, 67.523, -165.903
3.98364, -1, -46.8393, -11.766, 29.2942, 13.6613, 67.4559, -166.072
3.99163, -1, -46.9383, -11.8153, 29.3164, 13.663, 67.3999, -166.215
3.9997, -1, -47.0211, -11.8583, 29.3331, 13.6643, 67.3549, -166.328
4.00763, -1, -47.0885, -11.8952, 29.3444, 13.6651, 67.3211, -166.413
4.01564, -1, -47.1411, -11.9247, 29.3517, 13.6655, 67.2977, -166.472
4.0237, -1, -47.1801, -11.947, 29.3556, 13.6657, 67.2825, -166.51
4.03159, -1, -47.2079, -11.9625, 29.3575, 13.6658, 67.2737, -166.533
4.03963, -1, -47.2262, -11.9726, 29.3583, 13.6659, 67.269, -166.545
4.0477, -1, -47.2372, -11.9786, 29.3587, 13.6659, 67.2665, -166.551
4.0556, 2, -47.2429, -11.9815, 29.3589, 13.666, 67.2654, -166.553
4.06368, 2, -47.245, -11.9829, 29.3591, 13.666, 67.2649, -166.555
4.07172, 2, -47.2451, -11.9834, 29.3591, 13.666, 67.2646, -166.555
4.07962, 2, -47.2449, -11.9836, 29.3592, 13.6661, 67.2645, -166.556
4.08763, 2, -47.2448, -11.9836, 29.3592, 13.6661, 67.2644, -166.556
4.0957, 2, -47.2452, -11.9837, 29.3593, 13.6661, 67.2645, -166.556
4.10364, 2, -47.2461, -11.984, 29.3593, 13.6661, 67.2645, -166.556
4.11163, 2, -47.2474, -11.9845, 29.3593, 13.6661, 67.2644, -166.556
4.1197, 2, -47.2493, -11.9852, 29.3593, 13.6661, 67.2644, -166.556
4.12763, 2, -47.2508, -11.9861, 29.3593, 13.6661, 67.2644, -166.556
4.13564, 2, -47.2522, -11.987, 29.3593, 13.6661, 67.2644, -166.556
4.14371, 2, -47.2531, -11.9876, 29.3593, 13.6661, 67.2644, -166.556
4.15166, 2, -47.2536, -11.9881, 29.3593, 13.6661, 67.2644, -166.556
4.15971, 2, -47.2537, -11.9882, 29.3593, 13.6661, 67.2644, -166.556
4.16779, 2, -47.2538, -11.9883, 29.3593, 13.666, 67.2644, -166.556
4.17574, 2, -47.2535, -11.9883, 29.3593, 13.6661, 67.2644, -166.556
4.18373, 2, -47.2531, -11.9883, 29.3593, 13.6662, 67.2644, -166.556
4.19179, 2, -47.2526, -11.9883, 29.3594, 13.6662, 67.2644, -166.556
4.19975, 2, -47.2523, -11.9883, 29.3593, 13.6661, 67.2645, -166.556
4.20763, 2, -47.2522, -11.9883, 29.3594, 13.6661, 67.2644, -166.556
4.21573, 2, -47.2521, -11.9883, 29.3594, 13.6661, 67.2645, -166.556
4.22366, 2, -47.2523, -11.9885, 29.3593, 13.6661, 67.2644, -166.556
4.23173, 2, -47.2524, -11.9888, 29.3593, 13.6661, 67.2644, -166.556
4.23986, 2, -47.253, -11.9891, 29.3593, 13.6661, 67.2644, -166.556
4.24783, 2, -47.2536, -11.9895, 29.3593, 13.666, 67.2645, -166.556
4.2559, 2, -47.2539, -11.9897, 29.3593, 13.666, 67.2645, -166.556
4.26407, 2, -47.254, -11.9897, 29.3594, 13.666, 67.2644, -166.556
4.27063, 2, -47.254, -11.9897, 29.3594, 13.666, 67.2644, -166.556
4.28007, 2, -47.254, -11.9897, 29.3594, 13.6661, 67.2644, -166.556
4.28662, 2, -47.2539, -11.9897, 29.3594, 13.6661, 67.2644, -166.556
4.29615, 2, -47.2533, -11.9896, 29.3594, 13.666, 67.2644, -166.556
4.3042, 2, -47.253, -11.9896, 29.3594, 13.666, 67.2644, -166.556
4.31231, 2, -47.2527, -11.9896, 29.3594, 13.6661, 67.2645, -166.556
4.32019, 2, -47.2526, -11.9896, 29.3594, 13.6661, 67.2645, -166.556
4.32817, 2, -47.2525, -11.9896, 29.3594, 13.6661, 67.2645, -166.556
4.33636, 2, -47.2524, -11.9896, 29.3594, 13.6661, 67.2645, -166.556
4.34362, 2, -47.2524, -11.9897, 29.3594, 13.666, 67.2645, -166.556
4.35162, 2, -47.2523, -11.9898, 29.3594, 13.666, 67.2645, -166.556
4.35967, 2, -47.2523, -11.9898, 29.3594, 13.666, 67.2645, -166.556
4.36762, 2, -47.2523, -11.9898, 29.3594, 13.666, 67.2645, -166.556
4.37563, 2, -47.2523, -11.9898, 29.3594, 13.666, 67.2645, -166.555
4.38368, 2, -47.2523, -11.9898, 29.3593, 13.6661, 67.2645, -166.556
4.39161, 2, -47.2523, -11.9897, 29.3594, 13.6661, 67.2645, -166.556
4.39966, 2, -47.2522, -11.9896, 29.3594, 13.6661, 67.2645, -166.556
4.40771, 2, -47.2521, -11.9896, 29.3594, 13.6661, 67.2645, -166.556
4.41563, 2, -47.252, -11.9895, 29.3594, 13.666, 67.2645, -166.555
4.42361, 2, -47.2519, -11.9895, 29.3594, 13.666, 67.2645, -166.555
4.43167, 2, -47.2518, -11.9895, 29.3594, 13.666, 67.2645, -166.556
4.43962, 2, -47.2517, -11.9895, 29.3594, 13.666, 67.2645, -166.555
4.44762, 2, -47.2516, -11.9896, 29.3594, 13.666, 67.2645, -166.555
4.45715, 2, -47.2516, -11.9896, 29.3594, 13.666, 67.2645, -166.555
4.46361, 2, -47.2515, -11.9896, 29.3594, 13.666, 67.2646, -166.555
4.4726, 2, -47.2515, -11.9896, 29.3594, 13.666, 67.2645, -166.555
4.4797, 2, -47.2514, -11.9896, 29.3594, 13.666, 67.2645, -166.555
4.48761, 2, -47.2513, -11.9895, 29.3594, 13.666, 67.2646, -166.555
4.49562, 2, -47.2512, -11.9895, 29.3594, 13.666, 67.2646, -166.555
4.50368, 2, -47.2511, -11.9894, 29.3594, 13.666, 67.2646, -166.555
4.51162, 2, -47.251, -11.9893, 29.3594, 13.666, 67.2646, -166.555
4.51962, 2, -47.2509, -11.9893, 29.3594, 13.666, 67.2646, -166.555
4.52768, 2, -47.2508, -11.9893, 29.3594, 13.666, 67.2646, -166.555
4.53562, 2, -47.2507, -11.9893, 29.3594, 13.666, 67.2646, -166.555
4.54361, 2, -47.2506, -11.9892, 29.3594, 13.6659, 67.2646, -166.555
4.55168, 2, -47.2505, -11.9893, 29.3593, 13.6659, 67.2646, -166.555
4.55962, 2, -47.2504, -11.9892, 29.3594, 13.666, 67.2646, -166.555
4.56766, 2, -47.2503, -11.9893, 29.3594, 13.666, 67.2646, -166.555
4.57572, 2, -47.2502, -11.9893, 29.3594, 13.666, 67.2646, -166.555
4.58361, 2, -47.2501, -11.9892, 29.3594, 13.666, 67.2646, -166.555
4.59161, 2, -47.25, -11.9892, 29.3594, 13.666, 67.2646, -166.555
4.59968, 2, -47.2499, -11.9892, 29.3593, 13.666, 67.2646, -166.555
4.60761, 2, -47.2498, -11.9891, 29.3593, 13.6659, 67.2646, -166.555
4.61562, 2, -47.2498, -11.989, 29.3593, 13.666, 67.2646, -166.555
4.62368, 2, -47.2497, -11.9889, 29.3593, 13.666, 67.2646, -166.555
4.63162, 2, -47.2496, -11.9889, 29.3593, 13.6659, 67.2647, -166.555
4.63962, 2, -47.2495, -11.9889, 29.3594, 13.6659, 67.2646, -166.555
4.64771, 2, -47.2494, -11.9889, 29.3594, 13.6659, 67.2646, -166.555
4.65565, 2, -47.2494, -11.9889, 29.3593, 13.6659, 67.2647, -166.555
4.66369, 2, -47.2493, -11.9889, 29.3594, 13.6658, 67.2647, -166.555
4.67177, 2, -47.2493, -11.9889, 29.3593, 13.6659, 67.2647, -166.555
4.67972, 2, -47.2492, -11.9889, 29.3594, 13.6659, 67.2647, -166.555
4.68777, 2, -47.2492, -11.9889, 29.3594, 13.6659, 67.2647, -166.555
4.6958, 2, -47.2492, -11.9889, 29.3593, 13.6659, 67.2647, -166.555
4.70368, 2, -47.2491, -11.9888, 29.3593, 13.6659, 67.2647, -166.555
4.71162, 2, -47.2491, -11.9887, 29.3593, 13.6658, 67.2647, -166.555
4.71978, 2, -47.249, -11.9886, 29.3594, 13.6658, 67.2647, -166.555
4.72764, 2, -47.2489, -11.9886, 29.3594, 13.6658, 67.2647, -166.555
4.73571, 2, -47.2488, -11.9885, 29.3594, 13.6658, 67.2647, -166.555
4.74408, 2, -47.2487, -11.9885, 29.3594, 13.6658, 67.2647, -166.555
4.75178, 2, -47.2487, -11.9885, 29.3594, 13.6658, 67.2647, -166.555
4.75988, 2, -47.2486, -11.9885, 29.3593, 13.6658, 67.2647, -166.555
4.76833, 2, -47.2486, -11.9885, 29.3594, 13.6658, 67.2647, -166.555
4.77597, 2, -47.2486, -11.9885, 29.3593, 13.6658, 67.2647, -166.555
4.78265, 2, -47.2486, -11.9885, 29.3593, 13.6658, 67.2647, -166.555
4.79262, 2, -47.2486, -11.9885, 29.3594, 13.6657, 67.2648, -166.554
4.80011, 2, -47.2485, -11.9884, 29.3593, 13.6657, 67.2648, -166.554
4.80816, 2, -47.2485, -11.9884, 29.3594, 13.6657, 67.2648, -166.554
4.81646, 2, -47.2484, -11.9883, 29.3594, 13.6657, 67.2648, -166.554
4.82417, 2, -47.2483, -11.9883, 29.3594, 13.6657, 67.2648, -166.554
4.83221, 2, -47.2483, -11.9882, 29.3594, 13.6657, 67.2648, -166.554
4.84065, 2, -47.2482, -11.9881, 29.3594, 13.6657, 67.2648, -166.554
4.8476, 2, -47.2481, -11.9881, 29.3593, 13.6657, 67.2648, -166.554
4.85561, 2, -47.2481, -11.9881, 29.3593, 13.6657, 67.2648, -166.554
4.86447, 2, -47.248, -11.9881, 29.3593, 13.6657, 67.2648, -166.554
4.8716, 2, -47.248, -11.9881, 29.3593, 13.6656, 67.2648, -166.554
4.8796, 2, -47.2479, -11.9881, 29.3594, 13.6656, 67.2648, -166.554
4.88765, 2, -47.2479, -11.9881, 29.3593, 13.6656, 67.2649, -166.554
4.8957, 2, -47.2479, -11.9881, 29.3593, 13.6656, 67.2649, -166.554
4.90365, 2, -47.2479, -11.988, 29.3593, 13.6656, 67.2649, -166.554
4.91168, 2, -47.2478, -11.988, 29.3593, 13.6656, 67.2649, -166.554
4.91961, 2, -47.2478, -11.9879, 29.3593, 13.6656, 67.2649, -166.554
4.9276, 2, -47.2477, -11.9879, 29.3593, 13.6656, 67.2649, -166.554
4.93568, 2, -47.2476, -11.9878, 29.3593, 13.6656, 67.2649, -166.554
4.9436, 2, -47.2475, -11.9878, 29.3593, 13.6656, 67.265, -166.554
4.9516, 2, -47.2474, -11.9877, 29.3593, 13.6655, 67.265, -166.554
4.95968, 2, -47.2473, -11.9877, 29.3594, 13.6655, 67.265, -166.554
4.9676, 2, -47.2472, -11.9877, 29.3594, 13.6655, 67.265, -166.554
4.97658, 2, -47.2472, -11.9877, 29.3593, 13.6655, 67.265, -166.554
4.98368, 2, -47.2472, -11.9876, 29.3593, 13.6655, 67.2651, -166.554
4.9916, 2, -47.2472, -11.9876, 29.3593, 13.6655, 67.2651, -166.554
4.9996, 2, -47.2472, -11.9876, 29.3593, 13.6655, 67.2651, -166.554
5.00766, 2, -47.2472, -11.9876, 29.3593, 13.6655, 67.2651, -166.554
5.01561, 2, -47.2471, -11.9876, 29.3594, 13.6654, 67.2651, -166.554
5.0236, 2, -47.2471, -11.9875, 29.3593, 13.6655, 67.2651, -166.554
5.03166, 2, -47.247, -11.9875, 29.3593, 13.6654, 67.2651, -166.554
5.0396, 2, -47.2469, -11.9874, 29.3593, 13.6654, 67.2651, -166.554
5.0476, 2, -47.2468, -11.9874, 29.3593, 13.6654, 67.2651, -166.554
5.05582, 2, -47.2467, -11.9874, 29.3593, 13.6654, 67.2651, -166.554
5.0636, 2, -47.2466, -11.9873, 29.3594, 13.6654, 67.2651, -166.554
5.07165, 2, -47.2466, -11.9873, 29.3594, 13.6654, 67.2651, -166.554
5.0797, 2, -47.2465, -11.9873, 29.3594, 13.6653, 67.2651, -166.554
5.08761, 2, -47.2465, -11.9873, 29.3593, 13.6654, 67.2651, -166.554
5.09561, 2, -47.2465, -11.9873, 29.3593, 13.6654, 67.2651, -166.554
5.10366, 2, -47.2465, -11.9873, 29.3593, 13.6654, 67.2651, -166.554
5.11159, 2, -47.2464, -11.9872, 29.3593, 13.6653, 67.2651, -166.554
5.1196, 2, -47.2464, -11.9872, 29.3593, 13.6653, 67.2651, -166.554
5.12766, 2, -47.2463, -11.9872, 29.3593, 13.6653, 67.2652, -166.554
5.13583, 2, -47.2463, -11.9871, 29.3593, 13.6652, 67.2652, -166.554
5.1436, 4, -47.2462, -11.9871, 29.3593, 13.6652, 67.2652, -166.554
5.15169, 4, -47.2462, -11.987, 29.3593, 13.6653, 67.2652, -166.554
5.15965, 4, -47.2461, -11.987, 29.3593, 13.6652, 67.2652, -166.554
5.16768, 4, -47.246, -11.987, 29.3593, 13.6652, 67.2652, -166.554
5.17576, 4, -47.2459, -11.987, 29.3593, 13.6652, 67.2651, -166.554
5.1837, 4, -47.2459, -11.987, 29.3593, 13.6652, 67.2651, -166.554
5.1917, 4, -47.2459, -11.9869, 29.3593, 13.6652, 67.2652, -166.554
5.19977, 4, -47.2458, -11.9869, 29.3593, 13.6652, 67.2652, -166.554
5.20766, 4, -47.2458, -11.9869, 29.3593, 13.6652, 67.2653, -166.554
5.21561, 4, -47.2458, -11.9869, 29.3593, 13.6651, 67.2652, -166.554
5.22369, 4, -47.2458, -11.9869, 29.3594, 13.6651, 67.2653, -166.553
5.23166, 4, -47.2457, -11.9868, 29.3593, 13.6651, 67.2652, -166.553
5.24008, 4, -47.2457, -11.9868, 29.3593, 13.6651, 67.2652, -166.553
5.25569, 4, -47.2456, -11.9867, 29.3594, 13.6651, 67.2653, -166.553
5.25772, 4, -47.2456, -11.9867, 29.3593, 13.6651, 67.2653, -166.553
5.26476, 4, -47.2455, -11.9867, 29.3593, 13.665, 67.2652, -166.553
5.27298, 4, -47.2455, -11.9867, 29.3593, 13.665, 67.2652, -166.553
5.28085, 4, -47.2454, -11.9867, 29.3593, 13.665, 67.2653, -166.553
5.28836, 4, -47.2454, -11.9866, 29.3593, 13.665, 67.2653, -166.553
5.29655, 4, -47.2454, -11.9866, 29.3593, 13.665, 67.2653, -166.553
5.3081, 4, -47.2453, -11.9866, 29.3593, 13.665, 67.2653, -166.553
5.31457, 4, -47.2453, -11.9866, 29.3593, 13.665, 67.2653, -166.553
5.32048, 4, -47.2453, -11.9866, 29.3593, 13.665, 67.2653, -166.553
5.33104, 4, -47.2453, -11.9865, 29.3593, 13.665, 67.2653, -166.553
5.33769, 4, -47.2452, -11.9865, 29.3593, 13.665, 67.2653, -166.553
5.36453, 4, -47.245, -11.9864, 29.3593, 13.6649, 67.2653, -166.553
5.37273, 4, -47.245, -11.9864, 29.3593, 13.6649, 67.2653, -166.553
5.3748, 4, -47.245, -11.9864, 29.3593, 13.6649, 67.2653, -166.553
5.37852, 4, -47.245, -11.9864, 29.3593, 13.6649, 67.2653, -166.553
5.38111, 4, -47.2449, -11.9864, 29.3593, 13.6649, 67.2653, -166.553
5.38373, 4, -47.2449, -11.9864, 29.3593, 13.6649, 67.2653, -166.553
5.39172, 4, -47.2449, -11.9864, 29.3593, 13.6649, 67.2654, -166.553
5.40304, 4, -47.245, -11.9864, 29.3593, 13.6649, 67.2654, -166.553
5.40775, 4, -47.2453, -11.9866, 29.3594, 13.6649, 67.2654, -166.553
5.41753, 4, -47.2482, -11.9887, 29.3616, 13.6666, 67.266, -166.553
5.43201, 4, -47.2555, -11.997, 29.3723, 13.6865, 67.2709, -166.55
5.43505, 5, -47.2595, -12.0022, 29.3798, 13.7013, 67.2747, -166.547
5.43955, 5, -47.2646, -12.0089, 29.3902, 13.7219, 67.2804, -166.543
5.44758, 5, -47.2791, -12.0283, 29.4231, 13.7883, 67.2989, -166.528
5.45566, 5, -47.3012, -12.0581, 29.477, 13.9002, 67.3305, -166.503
5.46358, 5, -47.333, -12.0997, 29.5585, 14.0719, 67.3784, -166.463
5.47258, 5, -47.3762, -12.1551, 29.673, 14.3168, 67.4459, -166.406
5.48241, 5, -47.4649, -12.2661, 29.9135, 14.8385, 67.5878, -166.287
5.48783, 5, -47.5008, -12.3107, 30.0129, 15.0545, 67.646, -166.237
5.49581, 5, -47.5817, -12.4112, 30.2403, 15.5457, 67.7774, -166.125
5.5048, 5, -47.6742, -12.5256, 30.5022, 16.1061, 67.9252, -165.998
5.5117, 5, -47.7765, -12.6523, 30.7944, 16.7213, 68.0859, -165.859
5.5198, 5, -47.887, -12.7895, 31.1108, 17.377, 68.2536, -165.714
5.52774, 5, -48.0032, -12.9349, 31.4452, 18.0573, 68.4251, -165.566
5.53808, 5, -48.1232, -13.1624, 31.9669, 19.0978, 68.681, -165.343
5.5438, 5, -48.2439, -13.2391, 32.1438, 19.4451, 68.765, -165.269
5.55184, 5, -48.3625, -13.3914, 32.4983, 20.1319, 68.9301, -165.121
5.56284, 5, -48.5277, -13.6121, 33.0252, 21.1254, 69.1709, -164.886
5.5678, 6, -48.5772, -13.6819, 33.1961, 21.4406, 69.2501, -164.799
5.57889, 6, -48.7017, -13.8754, 33.6868, 22.3222, 69.4885, -164.486
5.58381, 7, -48.7338, -13.9348, 33.841, 22.5922, 69.5692, -164.359
5.59295, 7, -48.7817, -14.0466, 34.1345, 23.0944, 69.7349, -164.062
5.60161, 7, -48.8086, -14.1493, 34.407, 23.5502, 69.9086, -163.697
5.60856, 8, -48.8157, -14.2414, 34.6599, 23.9684, 70.0938, -163.261
5.61671, 8, -48.8042, -14.3235, 34.8977, 24.3593, 70.2924, -162.756
5.62447, 9, -48.7764, -14.399, 35.1234, 24.7341, 70.5056, -162.189
5.63274, 9, -48.7351, -14.4704, 35.342, 25.1026, 70.732, -161.575
5.64192, 10, -48.683, -14.5381, 35.5587, 25.4708, 70.9693, -160.929
5.64835, 10, -48.6219, -14.6024, 35.7755, 25.8418, 71.2139, -160.263
5.65653, 11, -48.5539, -14.6648, 35.9941, 26.2159, 71.4616, -159.59
5.66385, 11, -48.4805, -14.727, 36.2154, 26.593, 71.7092, -158.919
5.67193, 12, -48.4034, -14.7898, 36.4369, 26.974, 71.9554, -158.252
5.68106, 12, -48.3239, -14.8531, 36.6564, 27.3589, 72.2003, -157.588
5.68878, 13, -48.2425, -14.9163, 36.8738, 27.7481, 72.4447, -156.928
5.69583, 13, -48.1588, -14.9794, 37.0874, 28.1416, 72.6893, -156.271
5.70632, 14, -48.0724, -15.0429, 37.2967, 28.5387, 72.9344, -155.613
5.71203, 14, -47.9845, -15.1061, 37.5022, 28.9376, 73.1793, -154.959
5.72114, 15, -47.8977, -15.167, 37.7018, 29.3344, 73.4216, -154.313
5.72839, 15, -47.8135, -15.2236, 37.8923, 29.7221, 73.6569, -153.682
5.73871, 16, -47.7319, -15.2759, 38.0721, 30.0921, 73.8802, -153.082
5.74415, 16, -47.6532, -15.3242, 38.2379, 30.4349, 74.0865, -152.525
5.7533, 16, -47.5793, -15.3677, 38.3852, 30.741, 74.2705, -152.027
5.76035, 16, -47.5131, -15.4054, 38.5115, 31.0044, 74.4282, -151.599
5.76823, 16, -47.4545, -15.4372, 38.6162, 31.22, 74.5568, -151.248
5.77598, 16, -47.4036, -15.463, 38.6992, 31.3875, 74.6568, -150.975
5.78408, 16, -47.3613, -15.4831, 38.7625, 31.5107, 74.7308, -150.774
5.79222, 16, -47.3284, -15.4982, 38.8082, 31.5967, 74.7825, -150.634
5.80012, 16, -47.3041, -15.5091, 38.8398, 31.6537, 74.816, -150.542
5.80868, 16, -47.2863, -15.5169, 38.8609, 31.6878, 74.8366, -150.485
5.81671, 16, -47.2739, -15.5221, 38.8741, 31.7071, 74.8481, -150.453
5.82701, 16, -47.2662, -15.5253, 38.8818, 31.7167, 74.8541, -150.437
5.83239, 16, -47.262, -15.5272, 38.8864, 31.7214, 74.8571, -150.429
5.84112, 16, -47.2604, -15.5283, 38.8891, 31.7236, 74.8585, -150.425
5.84912, 16, -47.26, -15.5287, 38.89, 31.7243, 74.8592, -150.424
5.85659, 16, -47.2594, -15.5294, 38.8915, 31.7252, 74.8596, -150.423
5.86373, 16, -47.2579, -15.53, 38.893, 31.7255, 74.8598, -150.422
5.87178, 16, -47.2535, -15.5311, 38.8956, 31.7271, 74.8607, -150.421
5.8835, 17, -47.2384, -15.5354, 38.9059, 31.7398, 74.8681, -150.403
5.8877, 17, -47.2307, -15.5379, 38.9123, 31.7497, 74.8739, -150.388
5.8986, 17, -47.197, -15.551, 38.9456, 31.81, 74.9088, -150.298
5.90377, 17, -47.1811, -15.5581, 38.9633, 31.8435, 74.9282, -150.247
5.91391, 17, -47.1161, -15.5895, 39.0416, 32.0009, 75.017, -150.005
5.92151, 18, -47.0884, -15.6032, 39.0771, 32.0752, 75.1071, -149.757
5.92772, 18, -47.0233, -15.6357, 39.1631, 32.2594, 75.1613, -149.604
5.93591, 19, -46.9443, -15.6757, 39.269, 32.4912, 75.2889, -149.243
5.94373, 19, -46.8505, -15.7238, 39.3938, 32.7663, 75.4381, -148.815
5.95176, 20, -46.7426, -15.7789, 39.5345, 33.0772, 75.6048, -148.332
5.9621, 20, -46.6223, -15.8727, 39.7667, 33.5915, 75.8752, -147.537
5.97029, 21, -46.4195, -15.9424, 39.9304, 33.9533, 76.0617, -146.981
5.97579, 21, -46.3464, -15.9793, 40.0139, 34.1371, 76.1551, -146.7
5.98373, 22, -46.1922, -16.0566, 40.1823, 34.5075, 76.3403, -146.136
6.00069, 22, -45.8593, -16.2199, 40.5161, 35.2463, 76.699, -145.018
6.00352, 23, -45.7719, -16.2622, 40.5982, 35.4293, 76.7857, -144.741
6.01073, 23, -45.5925, -16.3483, 40.761, 35.7922, 76.955, -144.191
6.01614, 24, -45.5008, -16.392, 40.8412, 35.972, 77.0377, -143.917
6.02376, 24, -45.3131, -16.4807, 40.9983, 36.3276, 77.199, -143.375
6.03189, 25, -45.1199, -16.5706, 41.1512, 36.6774, 77.3556, -142.836
6.03971, 25, -44.9209, -16.6615, 41.3003, 37.0211, 77.5073, -142.3
6.05066, 26, -44.6092, -16.7989, 41.5153, 37.5239, 77.7264, -141.502
6.05578, 26, -44.5015, -16.8449, 41.5844, 37.688, 77.7973, -141.238
6.06693, 27, -44.166, -16.9824, 41.783, 38.169, 78.0039, -140.447
6.07582, 27, -44.0503, -17.028, 41.8462, 38.3253, 78.0706, -140.184
6.07978, 28, -43.8131, -17.1186, 41.9683, 38.6319, 78.2016, -139.659
6.09174, 28, -43.4432, -17.2527, 42.1391, 39.0758, 78.3911, -138.874
6.0957, 29, -43.3165, -17.2967, 42.1927, 39.2196, 78.4527, -138.613
6.10452, 29, -43.0581, -17.3836, 42.2948, 39.501, 78.5737, -138.09
6.11176, 30, -42.7932, -17.4688, 42.3895, 39.774, 78.6909, -137.567
6.12056, 30, -42.521, -17.5522, 42.477, 40.0384, 78.8056, -137.045
6.12984, 31, -42.2414, -17.6332, 42.5574, 40.2942, 78.9172, -136.524
6.13584, 31, -41.9555, -17.7115, 42.6307, 40.5414, 79.0259, -136.004
6.1469, 32, -41.6632, -17.7876, 42.6972, 40.8964, 79.1844, -135.224
6.15206, 32, -41.3644, -17.8613, 42.757, 41.0105, 79.2358, -134.964
6.1638, 33, -40.9031, -17.9663, 42.8334, 41.3409, 79.3867, -134.188
6.16927, 33, -40.7455, -17.9997, 42.8553, 41.447, 79.4357, -133.929
6.17779, 34, -40.4246, -18.0642, 42.8937, 41.6531, 79.5315, -133.413
6.18412, 34, -40.0976, -18.1261, 42.9248, 41.851, 79.6247, -132.897
6.19308, 35, -39.7649, -18.1853, 42.9487, 42.041, 79.7158, -132.383
6.20027, 35, -39.4262, -18.2411, 42.9656, 42.2237, 79.8039, -131.87
6.20954, 36, -39.0809, -18.2935, 42.9753, 42.3986, 79.8902, -131.358
6.21831, 36, -38.729, -18.3427, 42.9782, 42.5657, 79.9741, -130.847
6.22474, 37, -38.3716, -18.3886, 42.9744, 42.7252, 80.0559, -130.338
6.2337, 37, -38.0092, -18.4309, 42.9638, 42.8771, 80.1357, -129.831
6.24079, 38, -37.6419, -18.4695, 42.9463, 43.0217, 80.2135, -129.325
6.24869, 38, -37.2701, -18.5047, 42.9224, 43.159, 80.2892, -128.82
6.25621, 39, -36.8935, -18.5365, 42.8917, 43.2887, 80.3624, -128.317
6.26487, 39, -36.5117, -18.5646, 42.8543, 43.4112, 80.4338, -127.817
6.27235, 40, -36.124, -18.5889, 42.8102, 43.5263, 80.5034, -127.318
6.28395, 40, -35.5294, -18.6181, 42.732, 43.6856, 80.6046, -126.573
6.28841, 41, -35.3281, -18.6258, 42.7027, 43.735, 80.6371, -126.325
6.3004, 41, -34.7165, -18.6439, 42.605, 43.8726, 80.732, -125.587
6.3046, 41, -34.5108, -18.6482, 42.5692, 43.915, 80.7628, -125.342
6.31759, 42, -33.8901, -18.6565, 42.4522, 44.0312, 80.8515, -124.61
6.32059, 42, -33.6819, -18.6576, 42.4102, 44.0663, 80.8807, -124.367
6.33231, 43, -33.0509, -18.6559, 42.2752, 44.1613, 80.9641, -123.642
6.33639, 44, -32.8378, -18.6535, 42.2274, 44.1893, 80.9914, -123.402
6.34614, 44, -32.4068, -18.6457, 42.1275, 44.2395, 81.045, -122.923
6.35253, 45, -31.9691, -18.6341, 42.0216, 44.283, 81.0959, -122.446
6.36126, 45, -31.7482, -18.6269, 41.9665, 44.302, 81.1209, -121.972
6.36769, 46, -31.3032, -18.6099, 41.8517, 44.3345, 81.1704, -121.735
6.37561, 46, -30.8556, -18.5895, 41.7309, 44.359, 81.2173, -121.265
6.38547, 47, -30.1786, -18.5518, 41.5388, 44.3812, 81.2849, -120.563
6.39387, 47, -29.7213, -18.5211, 41.4034, 44.3873, 81.3292, -120.097
6.3997, 48, -29.4902, -18.5042, 41.3334, 44.3879, 81.3506, -119.866
6.41107, 48, -28.7881, -18.447, 41.1143, 44.3761, 81.4134, -119.172
6.41747, 49, -28.5515, -18.4257, 41.0382, 44.368, 81.4553, -118.713
6.424, 49, -28.0762, -18.38, 40.8818, 44.345, 81.476, -118.483
6.43177, 50, -27.5989, -18.3298, 40.7192, 44.312, 81.5166, -118.025
6.43955, 50, -27.1186, -18.2747, 40.55, 44.2696, 81.5574, -117.568
6.45046, 51, -26.3875, -18.1816, 40.2841, 44.1895, 81.6209, -116.884
6.45578, 51, -26.1398, -18.1478, 40.1922, 44.1574, 81.642, -116.657
6.46701, 52, -25.3854, -18.038, 39.9053, 44.0475, 81.7062, -115.976
6.47177, 52, -25.1316, -17.9988, 39.8061, 44.0055, 81.7283, -115.749
6.47974, 53, -24.6224, -17.9164, 39.6033, 43.914, 81.7732, -115.297
6.48776, 53, -24.1109, -17.8283, 39.394, 43.8126, 81.8179, -114.844
6.49572, 54, -23.5946, -17.7341, 39.1767, 43.7009, 81.8643, -114.392
6.5037, 54, -23.0713, -17.6337, 38.9524, 43.5785, 81.9131, -113.94
6.51183, 55, -22.5398, -17.5271, 38.7215, 43.4453, 81.963, -113.489
6.52227, 55, -21.7332, -17.3557, 38.3607, 43.2234, 82.043, -112.811
6.52777, 56, -21.4631, -17.2956, 38.2373, 43.1435, 82.0706, -112.585
6.53911, 56, -20.6478, -17.1069, 37.8565, 42.8867, 82.1553, -111.908
6.5437, 57, -20.3728, -17.0412, 37.726, 42.7954, 82.1849, -111.683
6.55272, 57, -19.8154, -16.9057, 37.4606, 42.6041, 82.2447, -111.232
6.56234, 58, -18.9634, -16.6911, 37.0494, 42.2939, 82.3382, -110.557
6.57099, 58, -18.3902, -16.5406, 36.7678, 42.0714, 82.4026, -110.107
6.57569, 59, -18.1027, -16.4634, 36.6244, 41.9555, 82.4357, -109.883
6.58483, 59, -17.5252, -16.3054, 36.3325, 41.7144, 82.5042, -109.433
6.5918, 60, -16.9396, -16.143, 36.0347, 41.4606, 82.5742, -108.984
6.60453, 60, -16.344, -15.9751, 35.7312, 41.0558, 82.6836, -108.311
6.60767, 61, -15.7415, -15.8021, 35.4228, 40.9143, 82.7206, -108.086
6.61904, 61, -14.8317, -15.5343, 34.9493, 40.4708, 82.8353, -107.414
6.6237, 62, -14.5268, -15.4429, 34.7888, 40.3167, 82.8746, -107.19
6.63283, 62, -13.9108, -15.2561, 34.4634, 39.9984, 82.9552, -106.741
6.63969, 63, -13.2841, -15.0628, 34.1336, 39.6663, 83.0383, -106.292
6.64791, 63, -12.6486, -14.8631, 33.7981, 39.3192, 83.1247, -105.842
6.65891, 64, -11.6855, -14.5542, 33.2841, 38.77, 83.2618, -105.166
6.66403, 64, -11.3623, -14.4483, 33.1095, 38.5796, 83.3096, -104.94
6.67312, 65, -10.7087, -14.2306, 32.7559, 38.1873, 83.4085, -104.486
6.68309, 65, -10.0445, -13.8911, 32.2148, 37.5694, 83.5662, -103.803
6.68779, 66, -9.37114, -13.7751, 32.032, 37.3553, 83.6214, -103.574
6.69815, 66, -8.69179, -13.5382, 31.6634, 36.9161, 83.7359, -103.116
6.70383, 67, -8.00773, -13.2941, 31.2889, 36.4611, 83.8554, -102.655
6.71233, 67, -7.31466, -13.0425, 30.9089, 35.9911, 83.9811, -102.193
6.71989, 68, -6.61155, -12.7828, 30.5241, 35.5051, 84.1131, -101.728
6.72856, 68, -5.90002, -12.5162, 30.1359, 35.0038, 84.2518, -101.26
6.73702, 69, -5.18187, -12.2426, 29.7424, 34.4868, 84.3978, -100.791
6.74916, 69, -4.45618, -11.8168, 29.1432, 33.6817, 84.6305, -100.081
6.7537, 70, -3.72149, -11.6715, 28.9421, 33.4055, 84.7119, -99.8434
6.76665, 71, -2.60358, -11.2238, 28.3346, 32.5523, 84.9676, -99.1252
6.7692, 71, -2.22734, -11.0707, 28.1308, 32.2607, 85.0563, -98.885
6.77702, 71, -1.46909, -10.7589, 27.7211, 31.6669, 85.2398, -98.4029
6.78426, 72, -0.703738, -10.4396, 27.3098, 31.0595, 85.4313, -97.9174
6.79307, 72, 0.0680654, -10.1141, 26.8981, 30.4372, 85.6304, -97.4293
6.8004, 73, 0.845914, -9.78022, 26.4862, 29.8043, 85.8372, -96.939
6.81256, 73, 1.62991, -9.43884, 25.8695, 28.8346, 86.1615, -96.2001
6.81631, 74, 2.41853, -9.09157, 25.6645, 28.5065, 86.2736, -95.9526
6.83287, 75, 4.00445, -8.38302, 24.8517, 27.1741, 86.7402, -94.9571
6.83911, 75, 4.40288, -8.20163, 24.6508, 26.8374, 86.8608, -94.7074
6.84189, 75, 4.80191, -8.01859, 24.4511, 26.5006, 86.983, -94.4576
6.84751, 76, 5.20118, -7.83376, 24.2527, 26.1636, 87.1069, -94.2075
6.86689, 77, 7.19964, -6.88405, 23.2795, 24.4682, 87.7525, -92.9485
6.86877, 77, 7.60031, -6.68864, 23.0882, 24.1276, 87.8883, -92.6951
6.87148, 77, 7.60031, -6.68864, 23.0882, 24.1276, 87.8883, -92.6951
6.8785, 78, 8.40198, -6.29269, 22.708, 23.4442, 88.1675, -92.187
6.88754, 78, 9.20271, -5.88999, 22.3325, 22.7582, 88.4568, -91.6761
6.89557, 79, 10.0023, -5.47918, 21.9619, 22.0705, 88.7567, -91.1617
6.90354, 79, 10.8012, -5.05878, 21.5964, 21.3836, 89.0661, -90.6439
6.91298, 80, 11.9947, -4.40882, 21.0583, 20.3583, 89.5483, -89.8613
6.91959, 80, 12.3904, -4.18711, 20.8822, 20.0176, 89.7141, -89.598
6.92769, 81, 13.1783, -3.7363, 20.5334, 19.3412, 90.0537, -89.0677
6.9356, 81, 13.9628, -3.27707, 20.1894, 18.6718, 90.404, -88.5323
6.9435, 82, 14.7411, -2.8103, 19.85, 18.0104, 90.7651, -87.992
6.95161, 82, 15.5102, -2.33501, 19.5174, 17.3584, 91.1359, -87.4478
6.9595, 83, 16.2686, -1.85175, 19.191, 16.7179, 91.516, -86.899
6.96949, 83, 17.0154, -1.36101, 18.8727, 16.0939, 91.9035, -86.0707
6.97557, 84, 17.7488, -0.863308, 18.5626, 15.4874, 92.2974, -85.7941
6.98458, 84, 18.4656, -0.360268, 18.2622, 14.9007, 92.697, -85.241
6.99173, 85, 19.1651, 0.147876, 17.9711, 14.3364, 93.1024, -84.6873
7.00162, 85, 20.1842, 0.920543, 17.5495, 13.5329, 93.7217, -83.8595
7.00755, 85, 20.516, 1.18036, 17.4127, 13.2764, 93.9307, -83.5843
7.01554, 86, 21.1678, 1.70283, 17.1438, 12.7813, 94.3515, -83.0353
7.0236, 86, 21.8052, 2.2311, 16.8826, 12.3086, 94.7765, -82.4861
7.03157, 87, 22.4293, 2.76759, 16.6278, 11.8584, 95.2071, -81.9353
7.03953, 87, 23.0414, 3.3133, 16.378, 11.4284, 95.6436, -81.3811
7.04755, 88, 23.6422, 3.86734, 16.1328, 11.017, 96.0865, -80.8221
7.05554, 88, 24.2315, 4.42845, 15.8914, 10.6223, 96.5352, -80.2546
7.06351, 89, 24.809, 4.99926, 15.6554, 10.2432, 96.9906, -79.678
7.07154, 89, 25.375, 5.58041, 15.4251, 9.87936, 97.4527, -79.0908
7.07957, 90, 25.9323, 6.17144, 15.1978, 9.53146, 97.921, -78.4922
7.0876, 90, 26.483, 6.77158, 14.9738, 9.19811, 98.3958, -77.8806
7.09557, 91, 27.0235, 7.37984, 14.7547, 8.8819, 98.8769, -77.2562
7.1036, 91, 27.5505, 7.99712, 14.541, 8.58387, 99.364, -76.6207
7.11156, 92, 28.0657, 8.62511, 14.3318, 8.30592, 99.8564, -75.9737
7.11954, 92, 28.5718, 9.26351, 14.1273, 8.05013, 100.352, -75.3168
7.12758, 93, 29.0701, 9.91096, 13.9279, 7.81674, 100.851, -74.6523
7.13553, 93, 29.5569, 10.565, 13.7351, 7.60693, 101.351, -73.9814
7.14351, 94, 30.0302, 11.224, 13.5505, 7.42066, 101.85, -73.3031
7.15161, 94, 30.4885, 11.886, 13.3735, 7.25806, 102.347, -72.6194
7.1595, 95, 30.9324, 12.5503, 13.2035, 7.11922, 102.841, -71.9315
7.16767, 95, 31.3623, 13.2161, 13.0414, 7.00438, 103.331, -71.2374
7.17559, 96, 31.7785, 13.8835, 12.887, 6.91274, 103.818, -70.5377
7.18369, 96, 32.1803, 14.5517, 12.7391, 6.84533, 104.302, -69.8335
7.1916, 97, 32.5664, 15.2208, 12.5976, 6.80148, 104.782, -69.1232
7.19967, 97, 32.936, 15.8891, 12.4633, 6.77857, 105.255, -68.4071
7.20766, 98, 33.2894, 16.5555, 12.3371, 6.77746, 105.723, -67.6884
7.21574, 98, 33.6282, 17.2193, 12.2196, 6.79854, 106.183, -66.966
7.22438, 99, 33.9531, 17.8783, 12.111, 6.83933, 106.634, -66.2411
7.2316, 99, 34.265, 18.5315, 12.0118, 6.90051, 107.074, -65.5173
7.24062, 100, 34.5653, 19.1768, 11.9216, 6.97974, 107.503, -64.7946
7.24765, 100, 34.8545, 19.814, 11.84, 7.07672, 107.918, -64.0737
7.25607, 101, 35.1317, 20.441, 11.7669, 7.19024, 108.32, -63.359
7.26256, 101, 35.2657, 20.7504, 11.7333, 7.25272, 108.516, -63.0038
7.27188, 101, 35.6512, 21.6623, 11.6454, 7.4613, 109.079, -61.9477
7.2799, 102, 35.8933, 22.2546, 11.5975, 7.61572, 109.434, -61.2565
7.28793, 102, 36.1231, 22.8334, 11.5582, 7.78061, 109.771, -60.5767
7.29603, 103, 36.3434, 23.3969, 11.5276, 7.95472, 110.091, -59.9078
7.3041, 103, 36.5564, 23.9442, 11.5061, 8.13764, 110.391, -59.2519
7.31205, 104, 36.762, 24.4761, 11.4936, 8.32979, 110.673, -58.6095
7.32011, 104, 36.9601, 24.9918, 11.4888, 8.53098, 110.934, -57.979
7.32818, 104, 37.1519, 25.4905, 11.4908, 8.74059, 111.175, -57.3609
7.33611, 104, 37.2455, 25.9734, 11.4993, 8.95731, 111.396, -56.7567
7.34416, 104, 37.4263, 26.2085, 11.5124, 9.17915, 111.598, -56.1672
7.35153, 104, 37.5976, 26.6661, 11.52, 9.29133, 111.693, -55.8782
7.35953, 104, 37.7608, 27.1077, 11.5375, 9.51663, 111.871, -55.3137
7.36757, 104, 37.9182, 27.5337, 11.5575, 9.74091, 112.036, -54.7693
7.37551, 104, 38.0709, 27.9436, 11.5785, 9.96196, 112.191, -54.2479
7.38354, 104, 38.218, 28.3364, 11.5995, 10.1786, 112.337, -53.7488
7.39157, 104, 38.3587, 28.7128, 11.6198, 10.3893, 112.475, -53.2736
7.39953, 104, 38.4924, 29.0717, 11.6388, 10.5931, 112.605, -52.8227
7.40753, 104, 38.6183, 29.4124, 11.6567, 10.7894, 112.727, -52.3965
7.41553, 104, 38.7361, 29.7343, 11.6736, 10.9771, 112.842, -51.9955
7.42359, 104, 38.8455, 30.0371, 11.6891, 11.1558, 112.949, -51.6189
7.43161, 104, 38.9468, 30.3216, 11.7037, 11.3249, 113.048, -51.2677
7.43952, 104, 39.0405, 30.5864, 11.7172, 11.4836, 113.14, -50.9424
7.44753, 104, 39.1264, 30.8314, 11.7294, 11.6319, 113.224, -50.642
7.45559, 104, 39.2043, 31.057, 11.7403, 11.769, 113.301, -50.3668
7.46353, 104, 39.2744, 31.2625, 11.7504, 11.8947, 113.371, -50.1169
7.47154, 104, 39.3369, 31.4483, 11.7598, 12.0087, 113.434, -49.8923
7.48124, 104, 39.3918, 31.6148, 11.768, 12.111, 113.515, -49.6023
7.48752, 104, 39.4399, 31.7617, 11.7753, 12.201, 113.538, -49.5182
7.49554, 104, 39.4819, 31.8901, 11.7819, 12.2789, 113.579, -49.3681
7.5036, 104, 39.5182, 32.001, 11.788, 12.3449, 113.614, -49.2415
7.51153, 104, 39.5484, 32.0952, 11.7933, 12.3997, 113.643, -49.1382
7.51954, 104, 39.5732, 32.1737, 11.798, 12.4424, 113.666, -49.0553
7.52757, 104, 39.5932, 32.2383, 11.8022, 12.4757, 113.682, -48.9921
7.53553, 104, 39.6087, 32.2906, 11.8061, 12.5006, 113.695, -48.9457
7.54364, 104, 39.6206, 32.332, 11.8096, 12.5185, 113.703, -48.9131
7.55157, 104, 39.6297, 32.3634, 11.8127, 12.5307, 113.709, -48.8913
7.55953, 104, 39.6362, 32.3869, 11.8155, 12.5387, 113.712, -48.878
7.56753, 104, 39.6407, 32.4044, 11.8179, 12.5433, 113.713, -48.8704
7.57557, 104, 39.6433, 32.4166, 11.8199, 12.5459, 113.714, -48.8668
7.5835, 105, 39.6447, 32.4245, 11.8213, 12.5472, 113.715, -48.8651
7.59159, 105, 39.645, 32.4294, 11.8224, 12.5478, 113.715, -48.8645
7.59961, 105, 39.6443, 32.4326, 11.8233, 12.5481, 113.715, -48.8645
7.60752, 105, 39.6433, 32.4349, 11.8241, 12.5482, 113.715, -48.8645
7.61553, 105, 39.6423, 32.4367, 11.8248, 12.5483, 113.715, -48.8648
7.62358, 105, 39.6412, 32.4381, 11.8254, 12.5483, 113.715, -48.8652
7.63152, 105, 39.6401, 32.4393, 11.826, 12.5483, 113.715, -48.8655
7.63953, 105, 39.6392, 32.4405, 11.8266, 12.5483, 113.715, -48.8659
7.64758, 105, 39.6387, 32.4417, 11.8272, 12.5483, 113.715, -48.8662
7.65553, 105, 39.6384, 32.4427, 11.8278, 12.5483, 113.715, -48.8665
7.66355, 105, 39.6381, 32.4437, 11.8283, 12.5483, 113.715, -48.8668
7.67163, 105, 39.6378, 32.4446, 11.8288, 12.5483, 113.715, -48.8672
7.6796, 105, 39.6375, 32.4452, 11.8292, 12.5483, 113.715, -48.8674
7.68763, 105, 39.6372, 32.4457, 11.8295, 12.5483, 113.715, -48.8677
7.69566, 105, 39.6369, 32.4459, 11.8297, 12.5483, 113.715, -48.868
7.70387, 105, 39.6365, 32.4461, 11.8299, 12.5483, 113.715, -48.8681
