hehonglu123/Motion-Primitive-Planning/ILC/max_gradient/curve1_dual_uncoord/arm1/v400_50L/curve_exe_v400_z10.csv
timestamp, cmd_num, J1, J2, J3, J4, J5, J6
0, -1, 4.81591, -7.05652, 32.9169, -148.191, -102.86, 56.8512
0.002, -1, 4.81591, -7.05652, 32.9169, -148.191, -102.86, 56.8512
0.006, -1, 4.81591, -7.05652, 32.9169, -148.191, -102.86, 56.8512
0.008, -1, 4.81591, -7.05652, 32.9169, -148.191, -102.86, 56.8512
0.011, -1, 4.81591, -7.05652, 32.9169, -148.191, -102.86, 56.8512
0.016, -1, 4.81591, -7.05652, 32.9169, -148.191, -102.86, 56.8512
0.02, -1, 4.81591, -7.05652, 32.9169, -148.191, -102.86, 56.8512
0.024, -1, 4.81591, -7.05652, 32.9169, -148.191, -102.86, 56.8512
0.028, -1, 4.81591, -7.05652, 32.9169, -148.191, -102.86, 56.8512
0.032, -1, 4.8159, -7.05652, 32.9169, -148.191, -102.86, 56.8512
0.036, -1, 4.81582, -7.05651, 32.9168, -148.191, -102.86, 56.8512
0.04, -1, 4.81555, -7.05649, 32.9168, -148.191, -102.86, 56.8512
0.044, -1, 4.81488, -7.05641, 32.9167, -148.191, -102.86, 56.8512
0.048, -1, 4.81358, -7.05625, 32.9165, -148.191, -102.86, 56.8512
0.052, -1, 4.81146, -7.05598, 32.9162, -148.191, -102.86, 56.8512
0.056, -1, 4.80832, -7.05556, 32.9156, -148.191, -102.86, 56.8511
0.06, -1, 4.80396, -7.05495, 32.9149, -148.191, -102.86, 56.8511
0.064, -1, 4.7982, -7.05411, 32.9137, -148.192, -102.859, 56.851
0.068, -1, 4.79081, -7.053, 32.9122, -148.192, -102.858, 56.8509
0.072, -1, 4.78149, -7.05156, 32.9101, -148.194, -102.857, 56.8507
0.076, -1, 4.76982, -7.04974, 32.9075, -148.195, -102.856, 56.8505
0.08, -1, 4.75535, -7.04748, 32.9041, -148.198, -102.854, 56.8501
0.084, -1, 4.73763, -7.0447, 32.8998, -148.201, -102.851, 56.8496
0.088, -1, 4.71634, -7.04139, 32.8945, -148.205, -102.847, 56.849
0.092, -1, 4.69133, -7.03754, 32.8883, -148.211, -102.842, 56.8482
0.096, -1, 4.66252, -7.03317, 32.8809, -148.218, -102.836, 56.8472
0.1, -1, 4.62986, -7.02828, 32.8725, -148.226, -102.829, 56.8459
0.104, -1, 4.59323, -7.02287, 32.8629, -148.236, -102.82, 56.8444
0.108, -1, 4.55254, -7.01693, 32.8521, -148.248, -102.81, 56.8426
0.112, -1, 4.50763, -7.01043, 32.8401, -148.262, -102.798, 56.8406
0.116, -1, 4.4584, -7.00336, 32.8268, -148.277, -102.785, 56.8383
0.12, -1, 4.40481, -6.9957, 32.8123, -148.295, -102.77, 56.8358
0.124, -1, 4.347, -6.98746, 32.7966, -148.313, -102.754, 56.833
0.128, -1, 4.28525, -6.97865, 32.7797, -148.334, -102.737, 56.83
0.131, -1, 4.21994, -6.96933, 32.7619, -148.355, -102.718, 56.8268
0.136, -1, 4.1514, -6.95951, 32.7431, -148.378, -102.698, 56.8234
0.139, -1, 4.07984, -6.94922, 32.7234, -148.402, -102.678, 56.8199
0.144, -1, 4.00542, -6.93846, 32.7029, -148.426, -102.657, 56.8162
0.148, -1, 3.92831, -6.92726, 32.6817, -148.451, -102.635, 56.8125
0.152, -1, 3.84871, -6.91566, 32.6599, -148.477, -102.613, 56.8087
0.156, -1, 3.76685, -6.9037, 32.6376, -148.503, -102.591, 56.8048
0.16, -1, 3.68306, -6.89143, 32.6149, -148.529, -102.568, 56.8009
0.164, -1, 3.59774, -6.87894, 32.5918, -148.556, -102.545, 56.797
0.168, -1, 3.5113, -6.86628, 32.5685, -148.582, -102.522, 56.7931
0.172, -1, 3.42411, -6.85352, 32.5451, -148.609, -102.499, 56.7891
0.176, -1, 3.33641, -6.84067, 32.5215, -148.635, -102.476, 56.7852
0.18, -1, 3.24837, -6.82778, 32.498, -148.662, -102.453, 56.7812
0.184, -1, 3.16013, -6.81486, 32.4743, -148.689, -102.43, 56.7773
0.188, -1, 3.07175, -6.80192, 32.4507, -148.715, -102.407, 56.7733
0.192, -1, 2.98329, -6.78897, 32.427, -148.742, -102.384, 56.7694
0.196, -1, 2.89479, -6.77601, 32.4033, -148.769, -102.361, 56.7654
0.2, -1, 2.80627, -6.76305, 32.3796, -148.795, -102.338, 56.7614
0.204, -1, 2.71775, -6.75009, 32.3559, -148.822, -102.315, 56.7575
0.208, -1, 2.62924, -6.73713, 32.3323, -148.849, -102.292, 56.7535
0.212, -1, 2.54074, -6.72417, 32.3086, -148.875, -102.269, 56.7496
0.216, -1, 2.45227, -6.71122, 32.2849, -148.902, -102.246, 56.7456
0.22, -1, 2.36382, -6.69827, 32.2613, -148.929, -102.223, 56.7417
0.224, -1, 2.27541, -6.68532, 32.2376, -148.955, -102.201, 56.7377
0.228, -1, 2.18702, -6.67238, 32.214, -148.982, -102.178, 56.7338
0.232, -1, 2.09866, -6.65944, 32.1904, -149.008, -102.155, 56.7298
0.236, -1, 2.01034, -6.64651, 32.1667, -149.035, -102.132, 56.7259
0.24, -1, 1.92205, -6.63358, 32.1431, -149.062, -102.109, 56.722
0.244, -1, 1.83379, -6.62066, 32.1195, -149.088, -102.086, 56.718
0.248, -1, 1.74557, -6.60774, 32.0959, -149.115, -102.063, 56.7141
0.252, -1, 1.65738, -6.59483, 32.0723, -149.141, -102.04, 56.7101
0.256, -1, 1.56922, -6.58192, 32.0488, -149.168, -102.017, 56.7062
0.26, -1, 1.48109, -6.56902, 32.0252, -149.194, -101.994, 56.7023
0.264, -1, 1.393, -6.55612, 32.0016, -149.221, -101.971, 56.6983
0.268, -1, 1.30494, -6.54322, 31.9781, -149.247, -101.949, 56.6944
0.272, -1, 1.21691, -6.53033, 31.9545, -149.274, -101.926, 56.6905
0.276, -1, 1.12892, -6.51745, 31.931, -149.3, -101.903, 56.6865
0.28, -1, 1.04096, -6.50457, 31.9075, -149.327, -101.88, 56.6826
0.284, -1, 0.953033, -6.4917, 31.884, -149.353, -101.857, 56.6787
0.288, -1, 0.865138, -6.47883, 31.8604, -149.38, -101.834, 56.6748
0.292, -1, 0.777277, -6.46596, 31.837, -149.406, -101.812, 56.6708
0.296, -1, 0.689448, -6.4531, 31.8135, -149.432, -101.789, 56.6669
0.3, -1, 0.601652, -6.44025, 31.79, -149.459, -101.766, 56.663
0.304, -1, 0.513889, -6.4274, 31.7665, -149.485, -101.743, 56.6591
0.308, -1, 0.426158, -6.41455, 31.743, -149.512, -101.72, 56.6552
0.312, -1, 0.338461, -6.40171, 31.7196, -149.538, -101.698, 56.6512
0.316, -1, 0.250796, -6.38887, 31.6961, -149.564, -101.675, 56.6473
0.32, -1, 0.163163, -6.37604, 31.6727, -149.591, -101.652, 56.6434
0.324, -1, 0.0755635, -6.36321, 31.6493, -149.617, -101.629, 56.6395
0.328, -1, -0.0120036, -6.35039, 31.6259, -149.644, -101.607, 56.6356
0.332, -1, -0.099538, -6.33758, 31.6024, -149.67, -101.584, 56.6317
0.336, -1, -0.18704, -6.32476, 31.579, -149.696, -101.561, 56.6278
0.34, -1, -0.274509, -6.31196, 31.5557, -149.723, -101.538, 56.6239
0.344, -1, -0.361946, -6.29915, 31.5323, -149.749, -101.516, 56.62
0.348, -1, -0.44935, -6.28636, 31.5089, -149.775, -101.493, 56.6161
0.352, -1, -0.536722, -6.27356, 31.4855, -149.801, -101.47, 56.6122
0.356, -1, -0.624061, -6.26077, 31.4622, -149.828, -101.448, 56.6083
0.36, -1, -0.711367, -6.24799, 31.4388, -149.854, -101.425, 56.6044
0.364, -1, -0.798642, -6.23521, 31.4155, -149.88, -101.402, 56.6005
0.368, -1, -0.885883, -6.22244, 31.3921, -149.907, -101.38, 56.5966
0.372, -1, -0.973093, -6.20967, 31.3688, -149.933, -101.357, 56.5927
0.376, -1, -1.06027, -6.1969, 31.3455, -149.959, -101.334, 56.5888
0.38, -1, -1.14741, -6.18414, 31.3222, -149.985, -101.312, 56.5849
0.384, -1, -1.23453, -6.17139, 31.2989, -150.012, -101.289, 56.581
0.388, -1, -1.32161, -6.15864, 31.2756, -150.038, -101.267, 56.5771
0.392, -1, -1.40865, -6.14589, 31.2523, -150.064, -101.244, 56.5732
0.396, -1, -1.49567, -6.13315, 31.2291, -150.09, -101.221, 56.5693
0.4, -1, -1.58265, -6.12042, 31.2058, -150.116, -101.199, 56.5655
0.404, -1, -1.6696, -6.10769, 31.1825, -150.142, -101.176, 56.5616
0.408, -1, -1.75652, -6.09496, 31.1593, -150.169, -101.154, 56.5577
0.412, -1, -1.84341, -6.08224, 31.1361, -150.195, -101.131, 56.5538
0.416, -1, -1.93026, -6.06952, 31.1128, -150.221, -101.109, 56.5499
0.42, -1, -2.01708, -6.05681, 31.0896, -150.247, -101.086, 56.5461
0.424, -1, -2.10387, -6.0441, 31.0664, -150.273, -101.064, 56.5422
0.428, -1, -2.19063, -6.0314, 31.0432, -150.299, -101.041, 56.5383
0.432, -1, -2.27735, -6.0187, 31.02, -150.325, -101.019, 56.5345
0.436, -1, -2.36405, -6.006, 30.9968, -150.351, -100.996, 56.5306
0.44, -1, -2.45071, -5.99331, 30.9736, -150.378, -100.973, 56.5267
0.444, -1, -2.53733, -5.98063, 30.9505, -150.404, -100.951, 56.5228
0.448, -1, -2.62393, -5.96795, 30.9273, -150.43, -100.929, 56.519
0.452, -1, -2.7105, -5.95528, 30.9042, -150.456, -100.906, 56.5151
0.456, -1, -2.79703, -5.94261, 30.881, -150.482, -100.884, 56.5112
0.46, -1, -2.88353, -5.92994, 30.8579, -150.508, -100.861, 56.5074
0.464, -1, -2.97, -5.91728, 30.8347, -150.534, -100.839, 56.5035
0.468, -1, -3.05643, -5.90462, 30.8116, -150.56, -100.816, 56.4997
0.472, -1, -3.14284, -5.89197, 30.7885, -150.586, -100.794, 56.4958
0.476, -1, -3.22921, -5.87932, 30.7654, -150.612, -100.771, 56.4919
0.48, -1, -3.31555, -5.86668, 30.7423, -150.638, -100.749, 56.4881
0.484, -1, -3.40186, -5.85404, 30.7192, -150.664, -100.727, 56.4842
0.488, -1, -3.48814, -5.84141, 30.6962, -150.69, -100.704, 56.4804
0.492, -1, -3.57438, -5.82878, 30.6731, -150.716, -100.682, 56.4765
0.496, -1, -3.6606, -5.81616, 30.65, -150.742, -100.659, 56.4727
0.5, -1, -3.74678, -5.80354, 30.627, -150.768, -100.637, 56.4688
0.504, -1, -3.83293, -5.79093, 30.604, -150.793, -100.615, 56.465
0.508, -1, -3.91904, -5.77832, 30.5809, -150.819, -100.592, 56.4611
0.512, -1, -4.00513, -5.76571, 30.5579, -150.845, -100.57, 56.4573
0.516, -1, -4.09118, -5.75311, 30.5349, -150.871, -100.548, 56.4535
0.52, -1, -4.17721, -5.74052, 30.5119, -150.897, -100.525, 56.4496
0.524, -1, -4.2632, -5.72793, 30.4889, -150.923, -100.503, 56.4458
0.528, -1, -4.34916, -5.71534, 30.4659, -150.949, -100.481, 56.4419
0.532, -1, -4.43508, -5.70276, 30.4429, -150.975, -100.458, 56.4381
0.536, -1, -4.52098, -5.69018, 30.4199, -151.001, -100.436, 56.4343
0.54, -1, -4.60684, -5.67761, 30.397, -151.026, -100.414, 56.4304
0.544, -1, -4.69268, -5.66504, 30.374, -151.052, -100.391, 56.4266
0.548, -1, -4.77848, -5.65248, 30.3511, -151.078, -100.369, 56.4228
0.552, -1, -4.86425, -5.63992, 30.3281, -151.104, -100.347, 56.4189
0.556, -1, -4.94998, -5.62736, 30.3052, -151.13, -100.325, 56.4151
0.56, -1, -5.03569, -5.61482, 30.2823, -151.155, -100.302, 56.4113
0.564, -1, -5.12136, -5.60227, 30.2594, -151.181, -100.28, 56.4075
0.568, -1, -5.20701, -5.58973, 30.2365, -151.207, -100.258, 56.4036
0.572, -1, -5.29262, -5.5772, 30.2136, -151.233, -100.236, 56.3998
0.576, -1, -5.3782, -5.56466, 30.1907, -151.259, -100.213, 56.396
0.58, -1, -5.46375, -5.55214, 30.1678, -151.284, -100.191, 56.3922
0.584, -1, -5.54927, -5.53962, 30.1449, -151.31, -100.169, 56.3884
0.588, -1, -5.63475, -5.5271, 30.1221, -151.336, -100.147, 56.3845
0.592, -1, -5.72021, -5.51459, 30.0992, -151.361, -100.125, 56.3807
0.596, -1, -5.80563, -5.50208, 30.0764, -151.387, -100.102, 56.3769
0.6, -1, -5.89102, -5.48958, 30.0535, -151.413, -100.08, 56.3731
0.604, -1, -5.97639, -5.47708, 30.0307, -151.439, -100.058, 56.3693
0.608, -1, -6.06172, -5.46458, 30.0079, -151.464, -100.036, 56.3655
0.612, -1, -6.14702, -5.45209, 29.9851, -151.49, -100.014, 56.3617
0.616, -1, -6.23229, -5.43961, 29.9622, -151.516, -99.9917, 56.3579
0.62, -1, -6.31752, -5.42713, 29.9395, -151.541, -99.9696, 56.354
0.624, -1, -6.40273, -5.41465, 29.9167, -151.567, -99.9474, 56.3502
0.628, -1, -6.48791, -5.40218, 29.8939, -151.593, -99.9253, 56.3464
0.632, -1, -6.57306, -5.38971, 29.8711, -151.618, -99.9032, 56.3426
0.636, -1, -6.65817, -5.37725, 29.8483, -151.644, -99.8811, 56.3388
0.64, -1, -6.74326, -5.36479, 29.8256, -151.669, -99.859, 56.335
0.644, -1, -6.82831, -5.35234, 29.8028, -151.695, -99.8369, 56.3312
0.648, -1, -6.91334, -5.33989, 29.7801, -151.721, -99.8149, 56.3274
0.652, -1, -6.99833, -5.32744, 29.7574, -151.746, -99.7928, 56.3236
0.656, -1, -7.0833, -5.315, 29.7346, -151.772, -99.7707, 56.3199
0.66, -1, -7.16823, -5.30257, 29.7119, -151.797, -99.7487, 56.3161
0.664, -1, -7.25313, -5.29013, 29.6892, -151.823, -99.7266, 56.3123
0.668, -1, -7.33801, -5.27771, 29.6665, -151.848, -99.7046, 56.3085
0.672, -1, -7.42285, -5.26528, 29.6438, -151.874, -99.6826, 56.3047
0.676, -1, -7.50766, -5.25287, 29.6212, -151.899, -99.6606, 56.3009
0.68, -1, -7.59245, -5.24045, 29.5985, -151.925, -99.6385, 56.2971
0.684, -1, -7.6772, -5.22804, 29.5758, -151.95, -99.6165, 56.2933
0.688, -1, -7.76193, -5.21564, 29.5532, -151.976, -99.5945, 56.2896
0.692, -1, -7.84662, -5.20324, 29.5305, -152.001, -99.5726, 56.2858
0.696, -1, -7.93128, -5.19084, 29.5079, -152.027, -99.5506, 56.282
0.7, -1, -8.01592, -5.17845, 29.4852, -152.052, -99.5286, 56.2782
0.704, -1, -8.10052, -5.16606, 29.4626, -152.078, -99.5066, 56.2744
0.708, -1, -8.18509, -5.15368, 29.44, -152.103, -99.4847, 56.2707
0.712, -1, -8.26964, -5.1413, 29.4174, -152.129, -99.4627, 56.2669
0.716, -1, -8.35415, -5.12892, 29.3948, -152.154, -99.4408, 56.2631
0.72, -1, -8.43864, -5.11655, 29.3722, -152.18, -99.4189, 56.2593
0.724, -1, -8.52309, -5.10418, 29.3496, -152.205, -99.3969, 56.2556
0.728, -1, -8.60752, -5.09182, 29.327, -152.23, -99.375, 56.2518
0.732, -1, -8.69191, -5.07947, 29.3044, -152.256, -99.3531, 56.248
0.736, -1, -8.77628, -5.06711, 29.2819, -152.281, -99.3312, 56.2443
0.74, -1, -8.86061, -5.05476, 29.2593, -152.307, -99.3093, 56.2405
0.744, -1, -8.94492, -5.04242, 29.2368, -152.332, -99.2874, 56.2367
0.748, -1, -9.02919, -5.03008, 29.2142, -152.357, -99.2655, 56.233
0.752, -1, -9.11344, -5.01775, 29.1917, -152.383, -99.2437, 56.2292
0.756, -1, -9.19765, -5.00541, 29.1692, -152.408, -99.2218, 56.2254
0.76, -1, -9.28184, -4.99309, 29.1467, -152.433, -99.1999, 56.2217
0.764, -1, -9.366, -4.98076, 29.1241, -152.459, -99.1781, 56.2179
0.768, -1, -9.45012, -4.96845, 29.1016, -152.484, -99.1562, 56.2142
0.772, -1, -9.53422, -4.95613, 29.0791, -152.509, -99.1344, 56.2104
0.776, -1, -9.61829, -4.94382, 29.0567, -152.535, -99.1126, 56.2067
0.78, -1, -9.70233, -4.93152, 29.0342, -152.56, -99.0908, 56.2029
0.784, -1, -9.78634, -4.91922, 29.0117, -152.585, -99.0689, 56.1992
0.788, -1, -9.87032, -4.90692, 28.9893, -152.61, -99.0471, 56.1954
0.792, -1, -9.95427, -4.89463, 28.9668, -152.636, -99.0254, 56.1917
0.796, -1, -10.0382, -4.88234, 28.9444, -152.661, -99.0036, 56.1879
0.8, -1, -10.1221, -4.87006, 28.9219, -152.686, -98.9818, 56.1842
0.804, -1, -10.2059, -4.85778, 28.8995, -152.711, -98.96, 56.1804
0.808, -1, -10.2898, -4.8455, 28.8771, -152.737, -98.9382, 56.1767
0.812, -1, -10.3736, -4.83323, 28.8547, -152.762, -98.9165, 56.1729
0.816, -1, -10.4573, -4.82097, 28.8323, -152.787, -98.8947, 56.1692
0.82, -1, -10.5411, -4.80871, 28.8099, -152.812, -98.873, 56.1655
0.824, -1, -10.6248, -4.79645, 28.7875, -152.838, -98.8513, 56.1617
0.828, -1, -10.7085, -4.7842, 28.7651, -152.863, -98.8295, 56.158
0.832, -1, -10.7921, -4.77195, 28.7427, -152.888, -98.8078, 56.1542
0.836, -1, -10.8758, -4.7597, 28.7204, -152.913, -98.7861, 56.1505
0.84, -1, -10.9594, -4.74746, 28.698, -152.938, -98.7644, 56.1468
0.844, -1, -11.0429, -4.73523, 28.6756, -152.963, -98.7427, 56.143
0.848, -1, -11.1265, -4.72299, 28.6533, -152.988, -98.721, 56.1393
0.852, -1, -11.21, -4.71077, 28.631, -153.014, -98.6993, 56.1356
0.856, -1, -11.2934, -4.69854, 28.6086, -153.039, -98.6777, 56.1319
0.86, -1, -11.3769, -4.68633, 28.5863, -153.064, -98.656, 56.1281
0.864, -1, -11.4603, -4.67411, 28.564, -153.089, -98.6343, 56.1244
0.868, -1, -11.5437, -4.6619, 28.5417, -153.114, -98.6127, 56.1207
0.872, -1, -11.6271, -4.64969, 28.5194, -153.139, -98.591, 56.117
0.876, -1, -11.7104, -4.63749, 28.4971, -153.164, -98.5694, 56.1132
0.88, -1, -11.7937, -4.6253, 28.4749, -153.189, -98.5478, 56.1095
0.884, -1, -11.877, -4.6131, 28.4526, -153.214, -98.5262, 56.1058
0.888, -1, -11.9602, -4.60091, 28.4303, -153.239, -98.5045, 56.1021
0.892, -1, -12.0434, -4.58873, 28.4081, -153.264, -98.4829, 56.0984
0.896, -1, -12.1266, -4.57655, 28.3858, -153.289, -98.4613, 56.0947
0.9, -1, -12.2098, -4.56437, 28.3636, -153.315, -98.4398, 56.0909
0.904, -1, -12.2929, -4.5522, 28.3413, -153.34, -98.4182, 56.0872
0.908, -1, -12.376, -4.54003, 28.3191, -153.365, -98.3966, 56.0835
0.912, -1, -12.4591, -4.52787, 28.2969, -153.39, -98.375, 56.0798
0.916, -1, -12.5421, -4.51571, 28.2747, -153.415, -98.3535, 56.0761
0.92, -1, -12.6251, -4.50356, 28.2525, -153.44, -98.3319, 56.0724
0.924, -1, -12.7081, -4.49141, 28.2303, -153.464, -98.3104, 56.0687
0.928, -1, -12.7911, -4.47926, 28.2081, -153.489, -98.2888, 56.065
0.932, -1, -12.874, -4.46712, 28.1859, -153.514, -98.2673, 56.0613
0.936, -1, -12.9569, -4.45498, 28.1638, -153.539, -98.2458, 56.0576
0.94, -1, -13.0398, -4.44285, 28.1416, -153.564, -98.2243, 56.0539
0.944, -1, -13.1226, -4.43072, 28.1194, -153.589, -98.2028, 56.0502
0.948, -1, -13.2054, -4.41859, 28.0973, -153.614, -98.1813, 56.0465
0.952, -1, -13.2882, -4.40647, 28.0752, -153.639, -98.1598, 56.0428
0.956, -1, -13.3709, -4.39435, 28.053, -153.664, -98.1383, 56.0391
0.96, -1, -13.4537, -4.38224, 28.0309, -153.689, -98.1168, 56.0354
0.964, -1, -13.5364, -4.37013, 28.0088, -153.714, -98.0953, 56.0317
0.968, -1, -13.619, -4.35803, 27.9867, -153.739, -98.0739, 56.028
0.972, -1, -13.7017, -4.34593, 27.9646, -153.763, -98.0524, 56.0243
0.976, -1, -13.7843, -4.33383, 27.9425, -153.788, -98.031, 56.0206
0.98, -1, -13.8668, -4.32174, 27.9204, -153.813, -98.0095, 56.017
0.984, -1, -13.9494, -4.30966, 27.8983, -153.838, -97.9881, 56.0133
0.988, -1, -14.0319, -4.29757, 27.8762, -153.863, -97.9667, 56.0096
0.992, -1, -14.1144, -4.28549, 27.8542, -153.888, -97.9453, 56.0059
0.996, -1, -14.1969, -4.27342, 27.8321, -153.913, -97.9239, 56.0022
1, -1, -14.2793, -4.26135, 27.8101, -153.937, -97.9025, 55.9985
1.004, -1, -14.3617, -4.24928, 27.788, -153.962, -97.8811, 55.9949
1.008, -1, -14.4441, -4.23722, 27.766, -153.987, -97.8597, 55.9912
1.012, -1, -14.5264, -4.22516, 27.744, -154.012, -97.8383, 55.9875
1.016, -1, -14.6088, -4.21311, 27.722, -154.036, -97.8169, 55.9838
1.02, -1, -14.691, -4.20106, 27.7, -154.061, -97.7955, 55.9801
1.024, -1, -14.7733, -4.18901, 27.678, -154.086, -97.7742, 55.9765
1.027, -1, -14.8555, -4.17697, 27.656, -154.111, -97.7528, 55.9728
1.032, -1, -14.9377, -4.16494, 27.634, -154.135, -97.7315, 55.9691
1.036, -1, -15.0199, -4.1529, 27.612, -154.16, -97.7102, 55.9655
1.04, -1, -15.1021, -4.14088, 27.59, -154.185, -97.6888, 55.9618
1.044, -1, -15.1842, -4.12885, 27.5681, -154.21, -97.6675, 55.9581
1.048, -1, -15.2663, -4.11683, 27.5461, -154.234, -97.6462, 55.9545
1.052, -1, -15.3484, -4.10482, 27.5242, -154.259, -97.6249, 55.9508
1.055, -1, -15.4304, -4.0928, 27.5022, -154.284, -97.6036, 55.9471
1.06, -1, -15.5124, -4.0808, 27.4803, -154.308, -97.5823, 55.9435
1.064, -1, -15.5944, -4.06879, 27.4584, -154.333, -97.561, 55.9398
1.068, -1, -15.6763, -4.05679, 27.4364, -154.358, -97.5397, 55.9362
1.072, -1, -15.7582, -4.0448, 27.4145, -154.382, -97.5185, 55.9325
1.076, -1, -15.8401, -4.03281, 27.3926, -154.407, -97.4972, 55.9288
1.08, -1, -15.922, -4.02082, 27.3707, -154.432, -97.476, 55.9252
1.084, -1, -16.0038, -4.00884, 27.3489, -154.456, -97.4547, 55.9215
1.088, -1, -16.0856, -3.99686, 27.327, -154.481, -97.4335, 55.9179
1.091, -1, -16.1674, -3.98489, 27.3051, -154.506, -97.4122, 55.9142
1.096, -1, -16.2492, -3.97292, 27.2832, -154.53, -97.391, 55.9106
1.1, -1, -16.3309, -3.96095, 27.2614, -154.555, -97.3698, 55.9069
1.104, -1, -16.4126, -3.94899, 27.2395, -154.579, -97.3486, 55.9033
1.108, -1, -16.4943, -3.93703, 27.2177, -154.604, -97.3274, 55.8996
1.112, -1, -16.5759, -3.92508, 27.1959, -154.628, -97.3062, 55.896
1.116, -1, -16.6575, -3.91313, 27.174, -154.653, -97.285, 55.8923
1.119, -1, -16.7391, -3.90118, 27.1522, -154.678, -97.2638, 55.8887
1.124, -1, -16.8206, -3.88924, 27.1304, -154.702, -97.2426, 55.8851
1.128, -1, -16.9022, -3.8773, 27.1086, -154.727, -97.2215, 55.8814
1.132, -1, -16.9837, -3.86537, 27.0868, -154.751, -97.2003, 55.8778
1.136, -1, -17.0651, -3.85344, 27.065, -154.776, -97.1792, 55.8741
1.14, -1, -17.1466, -3.84152, 27.0432, -154.8, -97.158, 55.8705
1.144, -1, -17.228, -3.8296, 27.0215, -154.825, -97.1369, 55.8669
1.147, -1, -17.3094, -3.81768, 26.9997, -154.849, -97.1157, 55.8632
1.152, -1, -17.3907, -3.80577, 26.9779, -154.874, -97.0946, 55.8596
1.156, -1, -17.4721, -3.79386, 26.9562, -154.898, -97.0735, 55.856
1.16, -1, -17.5534, -3.78195, 26.9344, -154.923, -97.0524, 55.8523
1.164, -1, -17.6347, -3.77005, 26.9127, -154.947, -97.0313, 55.8487
1.168, -1, -17.7159, -3.75815, 26.891, -154.972, -97.0102, 55.8451
1.172, -1, -17.7971, -3.74626, 26.8692, -154.996, -96.9891, 55.8415
1.175, -1, -17.8783, -3.73437, 26.8475, -155.02, -96.968, 55.8378
1.18, -1, -17.9595, -3.72249, 26.8258, -155.045, -96.947, 55.8342
1.184, -1, -18.0406, -3.71061, 26.8041, -155.069, -96.9259, 55.8306
1.188, -1, -18.1218, -3.69873, 26.7824, -155.094, -96.9048, 55.827
1.192, -1, -18.2028, -3.68686, 26.7607, -155.118, -96.8838, 55.8233
1.196, -1, -18.2839, -3.67499, 26.7391, -155.143, -96.8627, 55.8197
1.2, -1, -18.3649, -3.66312, 26.7174, -155.167, -96.8417, 55.8161
1.204, -1, -18.446, -3.65126, 26.6957, -155.191, -96.8207, 55.8125
1.208, -1, -18.5269, -3.6394, 26.6741, -155.216, -96.7997, 55.8089
1.212, -1, -18.6079, -3.62755, 26.6524, -155.24, -96.7786, 55.8053
1.216, -1, -18.6888, -3.6157, 26.6308, -155.264, -96.7576, 55.8016
1.22, -1, -18.7697, -3.60385, 26.6091, -155.289, -96.7366, 55.798
1.224, -1, -18.8506, -3.59201, 26.5875, -155.313, -96.7156, 55.7944
1.228, -1, -18.9314, -3.58017, 26.5659, -155.337, -96.6946, 55.7908
1.232, -1, -19.0123, -3.56834, 26.5443, -155.362, -96.6736, 55.7872
1.236, -1, -19.0931, -3.55651, 26.5227, -155.386, -96.6527, 55.7836
1.24, -1, -19.1738, -3.54468, 26.501, -155.41, -96.6317, 55.78
1.244, -1, -19.2546, -3.53286, 26.4795, -155.435, -96.6107, 55.7764
1.248, -1, -19.3353, -3.52104, 26.4579, -155.459, -96.5898, 55.7728
1.252, -1, -19.416, -3.50923, 26.4363, -155.483, -96.5688, 55.7692
1.256, -1, -19.4966, -3.49742, 26.4147, -155.507, -96.5479, 55.7656
1.26, -1, -19.5773, -3.48561, 26.3931, -155.532, -96.5269, 55.762
1.264, -1, -19.6579, -3.47381, 26.3716, -155.556, -96.506, 55.7584
1.267, -1, -19.7385, -3.46201, 26.35, -155.58, -96.4851, 55.7548
1.272, -1, -19.819, -3.45022, 26.3285, -155.605, -96.4642, 55.7512
1.276, -1, -19.8995, -3.43842, 26.307, -155.629, -96.4433, 55.7476
1.28, -1, -19.98, -3.42664, 26.2854, -155.653, -96.4224, 55.744
1.284, -1, -20.0605, -3.41485, 26.2639, -155.677, -96.4015, 55.7404
1.288, -1, -20.141, -3.40307, 26.2424, -155.701, -96.3806, 55.7368
1.292, -1, -20.2214, -3.3913, 26.2209, -155.726, -96.3597, 55.7332
1.295, -1, -20.3018, -3.37953, 26.1994, -155.75, -96.3388, 55.7296
1.3, -1, -20.3822, -3.36776, 26.1779, -155.774, -96.318, 55.726
1.304, -1, -20.4625, -3.35599, 26.1564, -155.798, -96.2971, 55.7224
1.308, -1, -20.5428, -3.34423, 26.1349, -155.822, -96.2763, 55.7189
1.312, -1, -20.6231, -3.33248, 26.1134, -155.847, -96.2554, 55.7153
1.316, -1, -20.7034, -3.32072, 26.092, -155.871, -96.2346, 55.7117
1.32, -1, -20.7836, -3.30898, 26.0705, -155.895, -96.2138, 55.7081
1.324, -1, -20.8638, -3.29723, 26.0491, -155.919, -96.1929, 55.7045
1.328, -1, -20.944, -3.28549, 26.0276, -155.943, -96.1721, 55.701
1.332, -1, -21.0242, -3.27375, 26.0062, -155.967, -96.1513, 55.6974
1.336, -1, -21.1043, -3.26202, 25.9847, -155.991, -96.1305, 55.6938
1.34, -1, -21.1844, -3.25029, 25.9633, -156.015, -96.1097, 55.6902
1.344, -1, -21.2645, -3.23857, 25.9419, -156.04, -96.0889, 55.6866
1.348, -1, -21.3445, -3.22684, 25.9205, -156.064, -96.0681, 55.6831
1.352, -1, -21.4246, -3.21513, 25.8991, -156.088, -96.0473, 55.6795
1.356, -1, -21.5046, -3.20341, 25.8777, -156.112, -96.0266, 55.6759
1.36, -1, -21.5845, -3.1917, 25.8563, -156.136, -96.0058, 55.6723
1.364, -1, -21.6645, -3.18, 25.8349, -156.16, -95.985, 55.6688
1.368, -1, -21.7444, -3.16829, 25.8135, -156.184, -95.9643, 55.6652
1.372, -1, -21.8243, -3.15659, 25.7922, -156.208, -95.9436, 55.6616
1.376, -1, -21.9042, -3.1449, 25.7708, -156.232, -95.9228, 55.6581
1.38, -1, -21.984, -3.13321, 25.7495, -156.256, -95.9021, 55.6545
1.384, -1, -22.0639, -3.12152, 25.7281, -156.28, -95.8814, 55.6509
1.388, -1, -22.1436, -3.10984, 25.7068, -156.304, -95.8606, 55.6474
1.392, -1, -22.2234, -3.09816, 25.6854, -156.328, -95.8399, 55.6438
1.396, -1, -22.3032, -3.08648, 25.6641, -156.352, -95.8192, 55.6403
1.4, -1, -22.3829, -3.07481, 25.6428, -156.376, -95.7985, 55.6367
1.404, -1, -22.4626, -3.06314, 25.6215, -156.4, -95.7778, 55.6331
1.408, -1, -22.5422, -3.05148, 25.6002, -156.424, -95.7572, 55.6296
1.412, -1, -22.6218, -3.03982, 25.5789, -156.448, -95.7365, 55.626
1.416, -1, -22.7015, -3.02816, 25.5576, -156.472, -95.7158, 55.6225
1.42, -1, -22.781, -3.01651, 25.5363, -156.496, -95.6952, 55.6189
1.424, -1, -22.8606, -3.00486, 25.515, -156.52, -95.6745, 55.6154
1.428, -1, -22.9401, -2.99321, 25.4938, -156.544, -95.6539, 55.6118
1.432, -1, -23.0196, -2.98157, 25.4725, -156.568, -95.6332, 55.6083
1.436, -1, -23.0991, -2.96993, 25.4512, -156.592, -95.6126, 55.6047
1.44, -1, -23.1786, -2.9583, 25.43, -156.616, -95.5919, 55.6012
1.444, -1, -23.258, -2.94667, 25.4087, -156.639, -95.5713, 55.5976
1.448, -1, -23.3374, -2.93504, 25.3875, -156.663, -95.5507, 55.5941
1.452, -1, -23.4168, -2.92342, 25.3663, -156.687, -95.5301, 55.5905
1.456, -1, -23.4961, -2.9118, 25.345, -156.711, -95.5095, 55.587
1.46, -1, -23.5755, -2.90019, 25.3238, -156.735, -95.4889, 55.5834
1.464, -1, -23.6548, -2.88858, 25.3026, -156.759, -95.4683, 55.5799
1.468, -1, -23.734, -2.87697, 25.2814, -156.783, -95.4477, 55.5764
1.472, -1, -23.8133, -2.86536, 25.2602, -156.807, -95.4272, 55.5728
1.476, -1, -23.8925, -2.85377, 25.239, -156.83, -95.4066, 55.5693
1.48, -1, -23.9717, -2.84217, 25.2179, -156.854, -95.386, 55.5658
1.484, -1, -24.0509, -2.83058, 25.1967, -156.878, -95.3655, 55.5622
1.488, -1, -24.13, -2.81899, 25.1755, -156.902, -95.3449, 55.5587
1.492, -1, -24.2091, -2.8074, 25.1544, -156.926, -95.3244, 55.5552
1.496, -1, -24.2882, -2.79582, 25.1332, -156.95, -95.3038, 55.5516
1.5, -1, -24.3673, -2.78425, 25.1121, -156.973, -95.2833, 55.5481
1.504, -1, -24.4463, -2.77267, 25.0909, -156.997, -95.2628, 55.5446
1.508, -1, -24.5254, -2.7611, 25.0698, -157.021, -95.2423, 55.541
1.512, -1, -24.6043, -2.74954, 25.0487, -157.045, -95.2218, 55.5375
1.516, -1, -24.6833, -2.73797, 25.0275, -157.068, -95.2013, 55.534
1.52, -1, -24.7622, -2.72642, 25.0064, -157.092, -95.1808, 55.5305
1.524, -1, -24.8412, -2.71486, 24.9853, -157.116, -95.1603, 55.5269
1.528, -1, -24.92, -2.70331, 24.9642, -157.14, -95.1398, 55.5234
1.532, -1, -24.9989, -2.69176, 24.9431, -157.163, -95.1193, 55.5199
1.536, -1, -25.0777, -2.68022, 24.922, -157.187, -95.0989, 55.5164
1.54, -1, -25.1566, -2.66868, 24.901, -157.211, -95.0784, 55.5128
1.544, -1, -25.2353, -2.65714, 24.8799, -157.235, -95.0579, 55.5093
1.548, -1, -25.3141, -2.64561, 24.8588, -157.258, -95.0375, 55.5058
1.552, -1, -25.3928, -2.63408, 24.8378, -157.282, -95.0171, 55.5023
1.556, -1, -25.4715, -2.62256, 24.8167, -157.306, -94.9966, 55.4988
1.56, -1, -25.5502, -2.61104, 24.7957, -157.329, -94.9762, 55.4953
1.564, -1, -25.6289, -2.59952, 24.7746, -157.353, -94.9558, 55.4918
1.568, -1, -25.7075, -2.58801, 24.7536, -157.377, -94.9354, 55.4882
1.572, -1, -25.7861, -2.5765, 24.7326, -157.4, -94.9149, 55.4847
1.576, -1, -25.8647, -2.56499, 24.7116, -157.424, -94.8945, 55.4812
1.58, -1, -25.9433, -2.55349, 24.6906, -157.448, -94.8741, 55.4777
1.584, -1, -26.0218, -2.54199, 24.6696, -157.471, -94.8538, 55.4742
1.588, -1, -26.1003, -2.53049, 24.6486, -157.495, -94.8334, 55.4707
1.592, -1, -26.1788, -2.519, 24.6276, -157.518, -94.813, 55.4672
1.596, -1, -26.2572, -2.50752, 24.6066, -157.542, -94.7926, 55.4637
1.6, -1, -26.3357, -2.49603, 24.5856, -157.566, -94.7723, 55.4602
1.604, -1, -26.4141, -2.48455, 24.5646, -157.589, -94.7519, 55.4567
1.608, -1, -26.4924, -2.47308, 24.5437, -157.613, -94.7316, 55.4532
1.612, -1, -26.5708, -2.4616, 24.5227, -157.636, -94.7112, 55.4497
1.616, -1, -26.6491, -2.45013, 24.5018, -157.66, -94.6909, 55.4462
1.62, -1, -26.7274, -2.43867, 24.4808, -157.684, -94.6706, 55.4427
1.624, -1, -26.8057, -2.42721, 24.4599, -157.707, -94.6502, 55.4392
1.628, -1, -26.884, -2.41575, 24.439, -157.731, -94.6299, 55.4357
1.632, -1, -26.9622, -2.40429, 24.4181, -157.754, -94.6096, 55.4322
1.636, -1, -27.0404, -2.39284, 24.3971, -157.778, -94.5893, 55.4287
1.64, -1, -27.1186, -2.3814, 24.3762, -157.801, -94.569, 55.4252
1.644, -1, -27.1967, -2.36995, 24.3553, -157.825, -94.5487, 55.4217
1.648, -1, -27.2748, -2.35852, 24.3344, -157.848, -94.5284, 55.4183
1.652, -1, -27.3529, -2.34708, 24.3135, -157.872, -94.5082, 55.4148
1.656, -1, -27.431, -2.33565, 24.2927, -157.895, -94.4879, 55.4113
1.66, -1, -27.5091, -2.32422, 24.2718, -157.919, -94.4676, 55.4078
1.664, -1, -27.5871, -2.31279, 24.2509, -157.942, -94.4474, 55.4043
1.668, -1, -27.6651, -2.30137, 24.2301, -157.966, -94.4271, 55.4008
1.672, -1, -27.7431, -2.28996, 24.2092, -157.989, -94.4069, 55.3974
1.676, -1, -27.821, -2.27854, 24.1884, -158.013, -94.3866, 55.3939
1.68, -1, -27.8989, -2.26713, 24.1675, -158.036, -94.3664, 55.3904
1.684, -1, -27.9768, -2.25573, 24.1467, -158.06, -94.3462, 55.3869
1.688, -1, -28.0547, -2.24432, 24.1259, -158.083, -94.326, 55.3834
1.692, -1, -28.1326, -2.23293, 24.105, -158.106, -94.3057, 55.38
1.696, -1, -28.2104, -2.22153, 24.0842, -158.13, -94.2855, 55.3765
1.7, -1, -28.2882, -2.21014, 24.0634, -158.153, -94.2653, 55.373
1.704, -1, -28.366, -2.19875, 24.0426, -158.177, -94.2451, 55.3695
1.708, -1, -28.4437, -2.18737, 24.0218, -158.2, -94.225, 55.3661
1.712, -1, -28.5214, -2.17599, 24.001, -158.224, -94.2048, 55.3626
1.716, -1, -28.5991, -2.16461, 23.9803, -158.247, -94.1846, 55.3591
1.72, -1, -28.6768, -2.15324, 23.9595, -158.27, -94.1644, 55.3557
1.724, -1, -28.7545, -2.14187, 23.9387, -158.294, -94.1443, 55.3522
1.728, -1, -28.8321, -2.1305, 23.918, -158.317, -94.1241, 55.3487
1.732, -1, -28.9097, -2.11914, 23.8972, -158.34, -94.104, 55.3453
1.736, -1, -28.9873, -2.10778, 23.8765, -158.364, -94.0838, 55.3418
1.74, -1, -29.0648, -2.09642, 23.8557, -158.387, -94.0637, 55.3383
1.744, -1, -29.1423, -2.08507, 23.835, -158.41, -94.0436, 55.3349
1.748, -1, -29.2198, -2.07372, 23.8142, -158.434, -94.0235, 55.3314
1.752, -1, -29.2973, -2.06238, 23.7935, -158.457, -94.0033, 55.328
1.756, -1, -29.3748, -2.05104, 23.7728, -158.48, -93.9832, 55.3245
1.76, -1, -29.4522, -2.0397, 23.7521, -158.504, -93.9631, 55.321
1.764, -1, -29.5296, -2.02837, 23.7314, -158.527, -93.943, 55.3176
1.768, -1, -29.607, -2.01704, 23.7107, -158.55, -93.923, 55.3141
1.772, -1, -29.6843, -2.00571, 23.69, -158.573, -93.9029, 55.3107
1.776, -1, -29.7616, -1.99439, 23.6693, -158.597, -93.8828, 55.3072
1.78, -1, -29.8389, -1.98307, 23.6487, -158.62, -93.8627, 55.3038
1.784, -1, -29.9162, -1.97176, 23.628, -158.643, -93.8427, 55.3003
1.788, -1, -29.9935, -1.96045, 23.6073, -158.667, -93.8226, 55.2969
1.792, -1, -30.0707, -1.94914, 23.5867, -158.69, -93.8025, 55.2934
1.796, -1, -30.1479, -1.93783, 23.566, -158.713, -93.7825, 55.29
1.8, -1, -30.2251, -1.92653, 23.5454, -158.736, -93.7625, 55.2865
1.804, -1, -30.3022, -1.91524, 23.5248, -158.759, -93.7424, 55.2831
1.808, -1, -30.3794, -1.90394, 23.5041, -158.783, -93.7224, 55.2796
1.812, -1, -30.4565, -1.89265, 23.4835, -158.806, -93.7024, 55.2762
1.816, -1, -30.5336, -1.88137, 23.4629, -158.829, -93.6824, 55.2728
1.82, -1, -30.6106, -1.87009, 23.4423, -158.852, -93.6624, 55.2693
1.824, -1, -30.6876, -1.85881, 23.4217, -158.875, -93.6424, 55.2659
1.828, -1, -30.7646, -1.84753, 23.4011, -158.899, -93.6224, 55.2624
1.832, -1, -30.8416, -1.83626, 23.3805, -158.922, -93.6024, 55.259
1.836, -1, -30.9186, -1.82499, 23.3599, -158.945, -93.5824, 55.2556
1.84, -1, -30.9955, -1.81373, 23.3393, -158.968, -93.5624, 55.2521
1.844, -1, -31.0724, -1.80246, 23.3188, -158.991, -93.5425, 55.2487
1.848, -1, -31.1493, -1.79121, 23.2982, -159.014, -93.5225, 55.2453
1.852, -1, -31.2262, -1.77995, 23.2777, -159.037, -93.5025, 55.2418
1.856, -1, -31.303, -1.7687, 23.2571, -159.061, -93.4826, 55.2384
1.86, -1, -31.3798, -1.75745, 23.2366, -159.084, -93.4627, 55.235
1.864, -1, -31.4566, -1.74621, 23.216, -159.107, -93.4427, 55.2315
1.868, -1, -31.5334, -1.73497, 23.1955, -159.13, -93.4228, 55.2281
1.872, -1, -31.6101, -1.72373, 23.175, -159.153, -93.4029, 55.2247
1.876, -1, -31.6868, -1.7125, 23.1545, -159.176, -93.3829, 55.2213
1.88, -1, -31.7635, -1.70127, 23.1339, -159.199, -93.363, 55.2178
1.884, -1, -31.8402, -1.69005, 23.1134, -159.222, -93.3431, 55.2144
1.888, -1, -31.9168, -1.67882, 23.0929, -159.245, -93.3232, 55.211
1.892, -1, -31.9935, -1.6676, 23.0724, -159.268, -93.3033, 55.2076
1.896, -1, -32.0701, -1.65639, 23.052, -159.291, -93.2835, 55.2041
1.9, -1, -32.1466, -1.64518, 23.0315, -159.315, -93.2636, 55.2007
1.904, -1, -32.2232, -1.63397, 23.011, -159.338, -93.2437, 55.1973
1.908, -1, -32.2997, -1.62276, 22.9905, -159.361, -93.2238, 55.1939
1.912, -1, -32.3762, -1.61156, 22.9701, -159.384, -93.204, 55.1905
1.916, -1, -32.4527, -1.60036, 22.9496, -159.407, -93.1841, 55.1871
1.92, -1, -32.5292, -1.58917, 22.9292, -159.43, -93.1643, 55.1836
1.924, -1, -32.6056, -1.57798, 22.9087, -159.453, -93.1444, 55.1802
1.928, -1, -32.682, -1.56679, 22.8883, -159.476, -93.1246, 55.1768
1.932, -1, -32.7584, -1.5556, 22.8679, -159.499, -93.1048, 55.1734
1.936, -1, -32.8347, -1.54442, 22.8475, -159.522, -93.0849, 55.17
1.94, -1, -32.9111, -1.53325, 22.827, -159.545, -93.0651, 55.1666
1.944, -1, -32.9874, -1.52207, 22.8066, -159.568, -93.0453, 55.1632
1.948, -1, -33.0637, -1.5109, 22.7862, -159.59, -93.0255, 55.1598
1.952, -1, -33.14, -1.49973, 22.7658, -159.613, -93.0057, 55.1564
1.956, -1, -33.2162, -1.48857, 22.7454, -159.636, -92.9859, 55.153
1.96, -1, -33.2924, -1.47741, 22.725, -159.659, -92.9661, 55.1496
1.964, -1, -33.3686, -1.46625, 22.7047, -159.682, -92.9463, 55.1462
1.968, -1, -33.4448, -1.4551, 22.6843, -159.705, -92.9265, 55.1428
1.972, -1, -33.521, -1.44395, 22.6639, -159.728, -92.9068, 55.1394
1.976, -1, -33.5971, -1.4328, 22.6436, -159.751, -92.887, 55.136
1.98, -1, -33.6732, -1.42166, 22.6232, -159.774, -92.8672, 55.1326
1.984, -1, -33.7493, -1.41052, 22.6029, -159.797, -92.8475, 55.1292
1.988, -1, -33.8253, -1.39938, 22.5825, -159.82, -92.8277, 55.1258
1.992, -1, -33.9014, -1.38825, 22.5622, -159.843, -92.808, 55.1224
1.996, -1, -33.9774, -1.37712, 22.5419, -159.865, -92.7883, 55.119
1.999, -1, -34.0534, -1.36599, 22.5215, -159.888, -92.7685, 55.1156
2.004, -1, -34.1293, -1.35487, 22.5012, -159.911, -92.7488, 55.1122
2.008, -1, -34.2053, -1.34375, 22.4809, -159.934, -92.7291, 55.1088
2.012, -1, -34.2812, -1.33263, 22.4606, -159.957, -92.7094, 55.1054
2.015, -1, -34.3571, -1.32152, 22.4403, -159.98, -92.6897, 55.102
2.019, -1, -34.433, -1.31041, 22.42, -160.003, -92.67, 55.0986
2.024, -1, -34.5088, -1.2993, 22.3997, -160.025, -92.6503, 55.0953
2.028, -1, -34.5846, -1.2882, 22.3794, -160.048, -92.6306, 55.0919
2.031, -1, -34.6604, -1.2771, 22.3592, -160.071, -92.6109, 55.0885
2.036, -1, -34.7362, -1.26601, 22.3389, -160.094, -92.5912, 55.0851
2.04, -1, -34.812, -1.25491, 22.3186, -160.117, -92.5716, 55.0817
2.044, -1, -34.8877, -1.24382, 22.2984, -160.139, -92.5519, 55.0783
2.048, -1, -34.9634, -1.23274, 22.2781, -160.162, -92.5323, 55.075
2.051, -1, -35.0391, -1.22165, 22.2579, -160.185, -92.5126, 55.0716
2.055, -1, -35.1148, -1.21057, 22.2377, -160.208, -92.493, 55.0682
2.06, -1, -35.1904, -1.1995, 22.2174, -160.231, -92.4733, 55.0648
2.064, -1, -35.2661, -1.18843, 22.1972, -160.253, -92.4537, 55.0614
2.068, -1, -35.3417, -1.17736, 22.177, -160.276, -92.4341, 55.0581
2.071, -1, -35.4172, -1.16629, 22.1568, -160.299, -92.4144, 55.0547
2.076, -1, -35.4928, -1.15523, 22.1366, -160.322, -92.3948, 55.0513
2.08, -1, -35.5683, -1.14417, 22.1164, -160.344, -92.3752, 55.0479
2.084, -1, -35.6438, -1.13311, 22.0962, -160.367, -92.3556, 55.0446
2.087, -1, -35.7193, -1.12206, 22.076, -160.39, -92.336, 55.0412
2.092, -1, -35.7946, -1.11103, 22.0558, -160.412, -92.3164, 55.0378
2.096, -1, -35.8697, -1.10001, 22.0357, -160.435, -92.2968, 55.0345
2.1, -1, -35.9444, -1.08903, 22.0156, -160.458, -92.2773, 55.0311
2.104, -1, -36.0187, -1.0781, 21.9956, -160.48, -92.2577, 55.0277
2.107, -1, -36.0926, -1.06722, 21.9756, -160.503, -92.2382, 55.0244
2.111, -1, -36.1658, -1.05643, 21.9558, -160.526, -92.2188, 55.021
2.116, -1, -36.2384, -1.04573, 21.9361, -160.548, -92.1994, 55.0177
2.12, -1, -36.31, -1.03517, 21.9167, -160.57, -92.1801, 55.0144
2.124, -1, -36.3804, -1.0248, 21.8975, -160.593, -92.161, 55.0111
2.127, -1, -36.4493, -1.01468, 21.8787, -160.615, -92.142, 55.0078
2.132, -1, -36.5164, -1.00484, 21.8603, -160.636, -92.1234, 55.0046
2.136, -1, -36.5814, -0.995322, 21.8425, -160.657, -92.1051, 55.0014
2.14, -1, -36.6442, -0.986145, 21.8253, -160.678, -92.0873, 54.9984
2.143, -1, -36.7047, -0.977327, 21.8086, -160.698, -92.07, 54.9954
2.148, -1, -36.7627, -0.968879, 21.7927, -160.717, -92.0535, 54.9925
2.152, -1, -36.818, -0.960823, 21.7776, -160.736, -92.0377, 54.9898
2.156, -1, -36.8703, -0.953194, 21.7632, -160.753, -92.0229, 54.9873
2.16, -1, -36.9195, -0.946023, 21.7498, -160.769, -92.009, 54.9849
2.163, -1, -36.9654, -0.93933, 21.7373, -160.784, -91.9962, 54.9827
2.168, -1, -37.0079, -0.933111, 21.7258, -160.797, -91.9846, 54.9807
2.172, -1, -37.0471, -0.927347, 21.7152, -160.809, -91.9742, 54.9789
2.176, -1, -37.0832, -0.922019, 21.7056, -160.82, -91.9649, 54.9773
2.179, -1, -37.1161, -0.917121, 21.6969, -160.829, -91.9569, 54.9759
2.184, -1, -37.1459, -0.912654, 21.6891, -160.837, -91.95, 54.9747
2.188, -1, -37.1727, -0.908629, 21.6823, -160.844, -91.9443, 54.9737
2.192, -1, -37.1963, -0.90506, 21.6763, -160.849, -91.9395, 54.9729
2.196, -1, -37.2168, -0.901948, 21.6712, -160.854, -91.9356, 54.9723
2.199, -1, -37.2344, -0.899278, 21.6669, -160.857, -91.9325, 54.9717
2.204, -1, -37.2494, -0.897018, 21.6633, -160.86, -91.9301, 54.9713
2.208, -1, -37.2621, -0.895127, 21.6603, -160.862, -91.9282, 54.971
2.212, -1, -37.2728, -0.893568, 21.658, -160.864, -91.9269, 54.9708
2.216, -1, -37.2816, -0.892309, 21.6561, -160.865, -91.9259, 54.9706
2.219, -1, -37.2887, -0.891317, 21.6546, -160.866, -91.9251, 54.9705
2.224, -1, -37.2942, -0.890562, 21.6535, -160.866, -91.9246, 54.9705
2.228, 2, -37.2984, -0.890008, 21.6528, -160.867, -91.9243, 54.9704
2.232, 2, -37.3013, -0.889618, 21.6522, -160.867, -91.924, 54.9704
2.235, 2, -37.3034, -0.88935, 21.6518, -160.867, -91.9239, 54.9703
2.24, 2, -37.3048, -0.889168, 21.6516, -160.867, -91.9238, 54.9703
2.244, 2, -37.3057, -0.889044, 21.6514, -160.868, -91.9237, 54.9703
2.248, 2, -37.3063, -0.888961, 21.6513, -160.868, -91.9237, 54.9703
2.252, 2, -37.3068, -0.888904, 21.6512, -160.868, -91.9236, 54.9703
2.255, 2, -37.3071, -0.888866, 21.6511, -160.868, -91.9236, 54.9703
2.259, 2, -37.3073, -0.88884, 21.6511, -160.868, -91.9236, 54.9703
2.264, 2, -37.3074, -0.888822, 21.6511, -160.868, -91.9236, 54.9703
2.268, 2, -37.3075, -0.88881, 21.651, -160.868, -91.9236, 54.9703
2.272, 2, -37.3076, -0.888802, 21.651, -160.868, -91.9236, 54.9703
2.275, 2, -37.3076, -0.888797, 21.651, -160.868, -91.9236, 54.9703
2.28, 2, -37.3076, -0.888793, 21.651, -160.868, -91.9236, 54.9703
2.284, 2, -37.3076, -0.888791, 21.651, -160.868, -91.9236, 54.9703
2.288, 2, -37.3077, -0.888789, 21.651, -160.868, -91.9236, 54.9703
2.291, 2, -37.3077, -0.888788, 21.651, -160.868, -91.9236, 54.9703
2.296, 2, -37.3077, -0.888787, 21.651, -160.868, -91.9236, 54.9703
2.3, 2, -37.3077, -0.888786, 21.651, -160.868, -91.9236, 54.9703
2.304, 2, -37.3077, -0.888786, 21.651, -160.868, -91.9236, 54.9703
2.308, 2, -37.3077, -0.888786, 21.651, -160.868, -91.9236, 54.9703
2.311, 2, -37.3077, -0.888786, 21.651, -160.868, -91.9236, 54.9703
2.316, 2, -37.3077, -0.888785, 21.651, -160.868, -91.9236, 54.9703
2.32, 2, -37.3077, -0.888785, 21.651, -160.868, -91.9236, 54.9703
2.324, 2, -37.3077, -0.888785, 21.651, -160.868, -91.9236, 54.9703
2.328, 2, -37.3077, -0.888785, 21.651, -160.868, -91.9236, 54.9703
2.331, 2, -37.3077, -0.888785, 21.651, -160.868, -91.9236, 54.9703
2.336, 2, -37.3077, -0.888785, 21.651, -160.868, -91.9236, 54.9703
2.34, 2, -37.3077, -0.888785, 21.651, -160.868, -91.9236, 54.9703
2.344, 2, -37.3077, -0.888785, 21.651, -160.868, -91.9236, 54.9703
2.347, 2, -37.3077, -0.888785, 21.651, -160.868, -91.9236, 54.9703
2.352, 2, -37.3077, -0.888785, 21.651, -160.868, -91.9236, 54.9703
2.356, 2, -37.3077, -0.888785, 21.651, -160.868, -91.9236, 54.9703
2.36, 2, -37.3077, -0.888785, 21.651, -160.868, -91.9236, 54.9703
2.364, 2, -37.3077, -0.888785, 21.651, -160.868, -91.9236, 54.9703
2.367, 2, -37.3077, -0.888785, 21.651, -160.868, -91.9236, 54.9703
2.372, 2, -37.3077, -0.888785, 21.651, -160.868, -91.9236, 54.9703
2.376, 2, -37.3077, -0.888785, 21.651, -160.868, -91.9236, 54.9703
2.38, 2, -37.3077, -0.888785, 21.651, -160.868, -91.9236, 54.9703
2.383, 2, -37.3077, -0.888785, 21.651, -160.868, -91.9236, 54.9703
2.388, 2, -37.3077, -0.888785, 21.651, -160.868, -91.9236, 54.9703
2.392, 2, -37.3077, -0.888785, 21.651, -160.868, -91.9236, 54.9703
2.396, 2, -37.3077, -0.888785, 21.651, -160.868, -91.9236, 54.9703
2.4, 2, -37.3077, -0.888785, 21.651, -160.868, -91.9236, 54.9703
2.403, 2, -37.3077, -0.888785, 21.651, -160.868, -91.9236, 54.9703
2.408, 2, -37.3077, -0.888785, 21.651, -160.868, -91.9236, 54.9703
2.412, 2, -37.3077, -0.888785, 21.651, -160.868, -91.9236, 54.9703
2.416, 2, -37.3077, -0.888785, 21.651, -160.868, -91.9236, 54.9703
2.42, 2, -37.3077, -0.888785, 21.651, -160.868, -91.9236, 54.9703
2.423, 2, -37.3077, -0.888785, 21.651, -160.868, -91.9236, 54.9703
2.428, 2, -37.3077, -0.888785, 21.651, -160.868, -91.9236, 54.9703
2.432, 2, -37.3077, -0.888785, 21.651, -160.868, -91.9236, 54.9703
2.436, 2, -37.3077, -0.888785, 21.651, -160.868, -91.9236, 54.9703
2.439, 2, -37.3077, -0.888785, 21.651, -160.868, -91.9236, 54.9703
2.444, 2, -37.3077, -0.888785, 21.651, -160.868, -91.9236, 54.9703
2.448, 2, -37.3077, -0.888785, 21.651, -160.868, -91.9236, 54.9703
2.452, 2, -37.3077, -0.888785, 21.651, -160.868, -91.9236, 54.9703
2.456, 2, -37.3077, -0.888785, 21.651, -160.868, -91.9236, 54.9703
2.459, 2, -37.3077, -0.888785, 21.651, -160.868, -91.9236, 54.9703
2.464, 2, -37.3077, -0.888785, 21.651, -160.868, -91.9236, 54.9703
2.468, 2, -37.3077, -0.888785, 21.651, -160.868, -91.9236, 54.9703
2.472, 2, -37.3077, -0.888785, 21.651, -160.868, -91.9236, 54.9703
2.476, 2, -37.3077, -0.888785, 21.651, -160.868, -91.9236, 54.9703
2.479, 2, -37.3077, -0.888785, 21.651, -160.868, -91.9236, 54.9703
2.484, 2, -37.3077, -0.888785, 21.651, -160.868, -91.9236, 54.9703
2.488, 2, -37.3077, -0.888785, 21.651, -160.868, -91.9236, 54.9703
2.492, 2, -37.3077, -0.888785, 21.651, -160.868, -91.9236, 54.9703
2.495, 2, -37.3077, -0.888785, 21.651, -160.868, -91.9236, 54.9703
2.5, 2, -37.3077, -0.888785, 21.651, -160.868, -91.9236, 54.9703
2.504, 2, -37.3077, -0.888785, 21.651, -160.868, -91.9236, 54.9703
2.508, 2, -37.3077, -0.888785, 21.651, -160.868, -91.9236, 54.9703
2.512, 2, -37.3077, -0.888785, 21.651, -160.868, -91.9236, 54.9703
2.515, 2, -37.3077, -0.888785, 21.651, -160.868, -91.9236, 54.9703
2.52, 2, -37.3077, -0.888785, 21.651, -160.868, -91.9236, 54.9703
2.524, 2, -37.3077, -0.888785, 21.651, -160.868, -91.9236, 54.9703
2.528, 2, -37.3077, -0.888785, 21.651, -160.868, -91.9236, 54.9703
2.531, 2, -37.3077, -0.888785, 21.651, -160.868, -91.9236, 54.9703
2.536, 2, -37.3077, -0.888785, 21.651, -160.868, -91.9236, 54.9703
2.54, 2, -37.3077, -0.888785, 21.651, -160.868, -91.9236, 54.9703
2.544, 2, -37.3077, -0.888785, 21.651, -160.868, -91.9236, 54.9703
2.548, 2, -37.3077, -0.888785, 21.651, -160.868, -91.9236, 54.9703
2.551, 2, -37.3077, -0.888785, 21.651, -160.868, -91.9236, 54.9703
2.556, 2, -37.3077, -0.888785, 21.651, -160.868, -91.9236, 54.9703
2.56, 2, -37.3077, -0.888785, 21.651, -160.868, -91.9236, 54.9703
2.564, 2, -37.3077, -0.888785, 21.651, -160.868, -91.9236, 54.9703
2.568, 2, -37.3077, -0.888785, 21.651, -160.868, -91.9236, 54.9703
2.571, 2, -37.3077, -0.888785, 21.651, -160.868, -91.9236, 54.9703
2.576, 2, -37.3077, -0.888785, 21.651, -160.868, -91.9236, 54.9703
2.58, 2, -37.3077, -0.888785, 21.651, -160.868, -91.9236, 54.9703
2.584, 2, -37.3077, -0.888785, 21.651, -160.868, -91.9236, 54.9703
2.587, 2, -37.3077, -0.888785, 21.651, -160.868, -91.9236, 54.9703
2.592, 2, -37.3077, -0.888785, 21.651, -160.868, -91.9236, 54.9703
2.596, 2, -37.3077, -0.888785, 21.651, -160.868, -91.9236, 54.9703
2.6, 2, -37.3077, -0.888785, 21.651, -160.868, -91.9236, 54.9703
2.604, 2, -37.3077, -0.888785, 21.651, -160.868, -91.9236, 54.9703
2.607, 2, -37.3077, -0.888785, 21.651, -160.868, -91.9236, 54.9703
2.612, 2, -37.3077, -0.888785, 21.651, -160.868, -91.9236, 54.9703
2.616, 2, -37.3077, -0.888785, 21.651, -160.868, -91.9236, 54.9703
2.62, 2, -37.3077, -0.888785, 21.651, -160.868, -91.9236, 54.9703
2.624, 2, -37.3077, -0.888785, 21.651, -160.868, -91.9236, 54.9703
2.627, 2, -37.3077, -0.888785, 21.651, -160.868, -91.9236, 54.9703
2.632, 2, -37.3077, -0.888785, 21.651, -160.868, -91.9236, 54.9703
2.636, 2, -37.3077, -0.888785, 21.651, -160.868, -91.9236, 54.9703
2.64, 2, -37.3077, -0.888785, 21.651, -160.868, -91.9236, 54.9703
2.643, 2, -37.3077, -0.888785, 21.651, -160.868, -91.9236, 54.9703
2.648, 2, -37.3077, -0.888785, 21.651, -160.868, -91.9236, 54.9703
2.652, 2, -37.3077, -0.888785, 21.651, -160.868, -91.9236, 54.9703
2.656, 2, -37.3077, -0.888785, 21.651, -160.868, -91.9236, 54.9703
2.66, 2, -37.3077, -0.888785, 21.651, -160.868, -91.9236, 54.9703
2.663, 2, -37.3077, -0.888785, 21.651, -160.868, -91.9236, 54.9703
2.668, 2, -37.3077, -0.888785, 21.651, -160.868, -91.9236, 54.9703
2.672, 2, -37.3077, -0.888785, 21.651, -160.868, -91.9236, 54.9703
2.676, 2, -37.3077, -0.888785, 21.651, -160.868, -91.9236, 54.9703
2.679, 2, -37.3077, -0.888785, 21.651, -160.868, -91.9236, 54.9703
2.684, 2, -37.3077, -0.888785, 21.651, -160.868, -91.9236, 54.9703
2.688, 2, -37.3077, -0.888785, 21.651, -160.868, -91.9236, 54.9703
2.692, 2, -37.3077, -0.888785, 21.651, -160.868, -91.9236, 54.9703
2.696, 2, -37.3077, -0.888785, 21.651, -160.868, -91.9236, 54.9703
2.699, 2, -37.3077, -0.888785, 21.651, -160.868, -91.9236, 54.9703
2.704, 2, -37.3077, -0.888785, 21.651, -160.868, -91.9236, 54.9703
2.708, 2, -37.3077, -0.888785, 21.651, -160.868, -91.9236, 54.9703
2.712, 2, -37.3077, -0.888785, 21.651, -160.868, -91.9236, 54.9703
2.716, 2, -37.3077, -0.888785, 21.651, -160.868, -91.9236, 54.9703
2.719, 2, -37.3077, -0.888785, 21.651, -160.868, -91.9236, 54.9703
2.724, 2, -37.3077, -0.888785, 21.651, -160.868, -91.9236, 54.9703
2.728, 2, -37.3077, -0.888785, 21.651, -160.868, -91.9236, 54.9703
2.732, 2, -37.3077, -0.888785, 21.651, -160.868, -91.9236, 54.9703
2.735, 2, -37.3077, -0.888785, 21.651, -160.868, -91.9236, 54.9703
2.74, 2, -37.3077, -0.888785, 21.651, -160.868, -91.9236, 54.9703
2.744, 2, -37.3077, -0.888785, 21.651, -160.868, -91.9236, 54.9703
2.748, 2, -37.3077, -0.888785, 21.651, -160.868, -91.9236, 54.9703
2.752, 2, -37.3077, -0.888785, 21.651, -160.868, -91.9236, 54.9703
2.755, 2, -37.3077, -0.888785, 21.651, -160.868, -91.9236, 54.9703
2.76, 2, -37.3077, -0.888785, 21.651, -160.868, -91.9236, 54.9703
2.764, 2, -37.3077, -0.888785, 21.651, -160.868, -91.9236, 54.9703
2.768, 2, -37.3077, -0.888785, 21.651, -160.868, -91.9236, 54.9703
2.772, 2, -37.3077, -0.888785, 21.651, -160.868, -91.9236, 54.9703
2.775, 2, -37.3077, -0.888785, 21.651, -160.868, -91.9236, 54.9703
2.78, 2, -37.3077, -0.888785, 21.651, -160.868, -91.9236, 54.9703
2.784, 2, -37.3077, -0.888785, 21.651, -160.868, -91.9236, 54.9703
2.788, 2, -37.3077, -0.888785, 21.651, -160.868, -91.9236, 54.9703
2.791, 2, -37.3077, -0.888785, 21.651, -160.868, -91.9236, 54.9703
2.796, 2, -37.3077, -0.888785, 21.651, -160.868, -91.9236, 54.9703
2.8, 2, -37.3077, -0.888785, 21.651, -160.868, -91.9236, 54.9703
2.804, 2, -37.3077, -0.888785, 21.651, -160.868, -91.9236, 54.9703
2.808, 2, -37.3077, -0.888785, 21.651, -160.868, -91.9236, 54.9703
2.811, 2, -37.3077, -0.888785, 21.651, -160.868, -91.9236, 54.9703
2.816, 2, -37.3077, -0.888785, 21.651, -160.868, -91.9236, 54.9703
2.82, 2, -37.3077, -0.888785, 21.651, -160.868, -91.9236, 54.9703
2.824, 2, -37.3077, -0.888785, 21.651, -160.868, -91.9236, 54.9703
2.828, 2, -37.3077, -0.888785, 21.651, -160.868, -91.9236, 54.9703
2.831, 2, -37.3077, -0.888785, 21.651, -160.868, -91.9236, 54.9703
2.836, 2, -37.3077, -0.888785, 21.651, -160.868, -91.9236, 54.9703
2.84, 2, -37.3077, -0.888785, 21.651, -160.868, -91.9236, 54.9703
2.844, 2, -37.3077, -0.888785, 21.651, -160.868, -91.9236, 54.9703
2.847, 2, -37.3077, -0.888785, 21.651, -160.868, -91.9236, 54.9703
2.852, 2, -37.3077, -0.888785, 21.651, -160.868, -91.9236, 54.9703
2.856, 2, -37.3077, -0.888785, 21.651, -160.868, -91.9236, 54.9703
2.86, 2, -37.3077, -0.888785, 21.651, -160.868, -91.9236, 54.9703
2.864, 2, -37.3077, -0.888785, 21.651, -160.868, -91.9236, 54.9703
2.867, 2, -37.3077, -0.888785, 21.651, -160.868, -91.9236, 54.9703
2.872, 2, -37.3077, -0.888785, 21.651, -160.868, -91.9236, 54.9703
2.876, 2, -37.3077, -0.888785, 21.651, -160.868, -91.9236, 54.9703
2.88, 2, -37.3077, -0.888785, 21.651, -160.868, -91.9236, 54.9703
2.883, 2, -37.3077, -0.888785, 21.651, -160.868, -91.9236, 54.9703
2.888, 2, -37.3077, -0.888785, 21.651, -160.868, -91.9236, 54.9703
2.892, 2, -37.3077, -0.888785, 21.651, -160.868, -91.9236, 54.9703
2.896, 2, -37.3077, -0.888785, 21.651, -160.868, -91.9236, 54.9703
2.9, 2, -37.3077, -0.888785, 21.651, -160.868, -91.9236, 54.9703
2.903, 2, -37.3077, -0.888785, 21.651, -160.868, -91.9236, 54.9703
2.908, 2, -37.3077, -0.888785, 21.651, -160.868, -91.9236, 54.9703
2.912, 2, -37.3077, -0.888785, 21.651, -160.868, -91.9236, 54.9703
2.916, 2, -37.3077, -0.888785, 21.651, -160.868, -91.9236, 54.9703
2.92, 2, -37.3077, -0.888785, 21.651, -160.868, -91.9236, 54.9703
2.923, 2, -37.3077, -0.888785, 21.651, -160.868, -91.9236, 54.9703
2.928, 2, -37.3077, -0.888785, 21.651, -160.868, -91.9236, 54.9703
2.932, 2, -37.3077, -0.888785, 21.651, -160.868, -91.9236, 54.9703
2.936, 2, -37.3077, -0.888785, 21.651, -160.868, -91.9236, 54.9703
2.939, 2, -37.3077, -0.888785, 21.651, -160.868, -91.9236, 54.9703
2.944, 2, -37.3077, -0.888785, 21.651, -160.868, -91.9236, 54.9703
2.948, 2, -37.3077, -0.888785, 21.651, -160.868, -91.9236, 54.9703
2.952, 2, -37.3077, -0.888785, 21.651, -160.868, -91.9236, 54.9703
2.956, 2, -37.3077, -0.888785, 21.651, -160.868, -91.9236, 54.9703
2.959, 2, -37.3077, -0.888785, 21.651, -160.868, -91.9236, 54.9703
2.964, 2, -37.3077, -0.888785, 21.651, -160.868, -91.9236, 54.9703
2.968, 2, -37.3077, -0.888785, 21.651, -160.868, -91.9236, 54.9703
2.972, 2, -37.3077, -0.888785, 21.651, -160.868, -91.9236, 54.9703
2.976, 2, -37.3077, -0.888785, 21.651, -160.868, -91.9236, 54.9703
2.98, 2, -37.3077, -0.888785, 21.651, -160.868, -91.9236, 54.9703
2.984, 2, -37.3077, -0.888785, 21.651, -160.868, -91.9236, 54.9703
2.988, 2, -37.3077, -0.888785, 21.651, -160.868, -91.9236, 54.9703
2.992, 2, -37.3077, -0.888785, 21.651, -160.868, -91.9236, 54.9703
2.995, 2, -37.3077, -0.888785, 21.651, -160.868, -91.9236, 54.9703
3, 2, -37.3077, -0.888785, 21.651, -160.868, -91.9236, 54.9703
3.004, 2, -37.3077, -0.888785, 21.651, -160.868, -91.9236, 54.9703
3.008, 2, -37.3077, -0.888785, 21.651, -160.868, -91.9236, 54.9703
3.012, 2, -37.3077, -0.888785, 21.651, -160.868, -91.9236, 54.9703
3.015, 2, -37.3077, -0.888785, 21.651, -160.868, -91.9236, 54.9703
3.02, 2, -37.3077, -0.888785, 21.651, -160.868, -91.9236, 54.9703
3.024, 2, -37.3077, -0.888785, 21.651, -160.868, -91.9236, 54.9703
3.028, 2, -37.3077, -0.888785, 21.651, -160.868, -91.9236, 54.9703
3.031, 2, -37.3077, -0.888785, 21.651, -160.868, -91.9236, 54.9703
3.036, 2, -37.3077, -0.888785, 21.651, -160.868, -91.9236, 54.9703
3.04, 2, -37.3077, -0.888785, 21.651, -160.868, -91.9236, 54.9703
3.044, 2, -37.3077, -0.888785, 21.651, -160.868, -91.9236, 54.9703
3.048, 2, -37.3077, -0.888785, 21.651, -160.868, -91.9236, 54.9703
3.051, 2, -37.3077, -0.888785, 21.651, -160.868, -91.9236, 54.9703
3.056, 2, -37.3077, -0.888785, 21.651, -160.868, -91.9236, 54.9703
3.06, 2, -37.3077, -0.888785, 21.651, -160.868, -91.9236, 54.9703
3.064, 2, -37.3077, -0.888785, 21.651, -160.868, -91.9236, 54.9703
3.068, 2, -37.3077, -0.888785, 21.651, -160.868, -91.9236, 54.9703
3.071, 2, -37.3077, -0.888785, 21.651, -160.868, -91.9236, 54.9703
3.076, 2, -37.3077, -0.888785, 21.651, -160.868, -91.9236, 54.9703
3.08, 2, -37.3077, -0.888785, 21.651, -160.868, -91.9236, 54.9703
3.084, 2, -37.3077, -0.888785, 21.651, -160.868, -91.9236, 54.9703
3.087, 2, -37.3077, -0.888785, 21.651, -160.868, -91.9236, 54.9703
3.092, 2, -37.3077, -0.888785, 21.651, -160.868, -91.9236, 54.9703
3.096, 2, -37.3077, -0.888785, 21.651, -160.868, -91.9236, 54.9703
3.1, 2, -37.3077, -0.888785, 21.651, -160.868, -91.9236, 54.9703
3.104, 2, -37.3077, -0.888785, 21.651, -160.868, -91.9236, 54.9703
3.107, 2, -37.3077, -0.888785, 21.651, -160.868, -91.9236, 54.9703
3.112, 2, -37.3077, -0.888785, 21.651, -160.868, -91.9236, 54.9703
3.116, 2, -37.3077, -0.888785, 21.651, -160.868, -91.9236, 54.9703
3.12, 2, -37.3077, -0.888785, 21.651, -160.868, -91.9236, 54.9703
3.124, 2, -37.3077, -0.888785, 21.651, -160.868, -91.9236, 54.9703
3.128, 2, -37.3077, -0.888785, 21.651, -160.868, -91.9236, 54.9703
3.132, 2, -37.3077, -0.888785, 21.651, -160.868, -91.9236, 54.9703
3.136, 2, -37.3077, -0.888785, 21.651, -160.868, -91.9236, 54.9703
3.14, 2, -37.3077, -0.888785, 21.651, -160.868, -91.9236, 54.9703
3.143, 2, -37.3077, -0.888785, 21.651, -160.868, -91.9236, 54.9703
3.148, 2, -37.3077, -0.888785, 21.651, -160.868, -91.9236, 54.9703
3.152, 2, -37.3077, -0.888785, 21.651, -160.868, -91.9236, 54.9703
3.156, 2, -37.3077, -0.888785, 21.651, -160.868, -91.9236, 54.9703
3.16, 2, -37.3077, -0.888785, 21.651, -160.868, -91.9236, 54.9703
3.163, 2, -37.3077, -0.888785, 21.651, -160.868, -91.9236, 54.9703
3.168, 2, -37.3077, -0.888785, 21.651, -160.868, -91.9236, 54.9703
3.172, 2, -37.3077, -0.888785, 21.651, -160.868, -91.9236, 54.9703
3.176, 2, -37.3077, -0.888785, 21.651, -160.868, -91.9236, 54.9703
3.179, 2, -37.3077, -0.888785, 21.651, -160.868, -91.9236, 54.9703
3.184, 2, -37.3077, -0.888785, 21.651, -160.868, -91.9236, 54.9703
3.188, 2, -37.3077, -0.888785, 21.651, -160.868, -91.9236, 54.9703
3.192, 2, -37.3077, -0.888785, 21.651, -160.868, -91.9236, 54.9703
3.196, 2, -37.3077, -0.888785, 21.651, -160.868, -91.9236, 54.9703
3.199, 2, -37.3077, -0.888785, 21.651, -160.868, -91.9236, 54.9703
3.204, 2, -37.3077, -0.888785, 21.651, -160.868, -91.9236, 54.9703
3.208, 2, -37.3077, -0.888785, 21.651, -160.868, -91.9236, 54.9703
3.212, 2, -37.3077, -0.888785, 21.651, -160.868, -91.9236, 54.9703
3.216, 2, -37.3077, -0.888785, 21.651, -160.868, -91.9236, 54.9703
3.22, 2, -37.3077, -0.888785, 21.651, -160.868, -91.9236, 54.9703
3.224, 2, -37.3077, -0.888785, 21.651, -160.868, -91.9236, 54.9703
3.228, 2, -37.3077, -0.888785, 21.651, -160.868, -91.9236, 54.9703
3.232, 2, -37.3077, -0.888785, 21.651, -160.868, -91.9236, 54.9703
3.235, 2, -37.3077, -0.888785, 21.651, -160.868, -91.9236, 54.9703
3.24, 2, -37.3077, -0.888785, 21.651, -160.868, -91.9236, 54.9703
3.244, 2, -37.3077, -0.888785, 21.651, -160.868, -91.9236, 54.9703
3.248, 2, -37.3077, -0.888785, 21.651, -160.868, -91.9236, 54.9703
3.252, 2, -37.3077, -0.888785, 21.651, -160.868, -91.9236, 54.9703
3.255, 2, -37.3077, -0.888785, 21.651, -160.868, -91.9236, 54.9703
3.26, 2, -37.3077, -0.888785, 21.651, -160.868, -91.9236, 54.9703
3.264, 2, -37.3077, -0.888785, 21.651, -160.868, -91.9236, 54.9703
3.268, 2, -37.3077, -0.888785, 21.651, -160.868, -91.9236, 54.9703
3.272, 2, -37.3077, -0.888785, 21.651, -160.868, -91.9236, 54.9703
3.276, 2, -37.3077, -0.888785, 21.651, -160.868, -91.9236, 54.9703
3.28, 2, -37.3077, -0.888785, 21.651, -160.868, -91.9236, 54.9703
3.284, 2, -37.3077, -0.888785, 21.651, -160.868, -91.9236, 54.9703
3.288, 2, -37.3077, -0.888785, 21.651, -160.868, -91.9236, 54.9703
3.291, 2, -37.3077, -0.888785, 21.651, -160.868, -91.9236, 54.9703
3.296, 2, -37.3077, -0.888785, 21.651, -160.868, -91.9236, 54.9703
3.3, 4, -37.3077, -0.888785, 21.651, -160.868, -91.9236, 54.9703
3.304, 4, -37.3077, -0.888785, 21.651, -160.868, -91.9236, 54.9703
3.308, 4, -37.3077, -0.888785, 21.651, -160.868, -91.9236, 54.9703
3.312, 4, -37.3077, -0.888785, 21.651, -160.868, -91.9236, 54.9703
3.316, 4, -37.3077, -0.888785, 21.651, -160.868, -91.9236, 54.9703
3.32, 4, -37.3077, -0.888785, 21.651, -160.868, -91.9236, 54.9703
3.324, 4, -37.3077, -0.888785, 21.651, -160.868, -91.9236, 54.9703
3.328, 4, -37.3077, -0.888785, 21.651, -160.868, -91.9236, 54.9703
3.332, 4, -37.3077, -0.888785, 21.651, -160.868, -91.9236, 54.9703
3.336, 4, -37.3077, -0.888785, 21.651, -160.868, -91.9236, 54.9703
3.34, 4, -37.3077, -0.888785, 21.651, -160.868, -91.9236, 54.9703
3.344, 4, -37.3077, -0.888785, 21.651, -160.868, -91.9236, 54.9703
3.347, 4, -37.3077, -0.888785, 21.651, -160.868, -91.9236, 54.9703
3.352, 4, -37.3077, -0.888785, 21.651, -160.868, -91.9236, 54.9703
3.356, 4, -37.3077, -0.888785, 21.651, -160.868, -91.9236, 54.9703
3.36, 4, -37.3077, -0.888785, 21.651, -160.868, -91.9236, 54.9703
3.364, 4, -37.3077, -0.888785, 21.651, -160.868, -91.9236, 54.9703
3.368, 4, -37.3077, -0.888785, 21.651, -160.868, -91.9236, 54.9703
3.372, 4, -37.3077, -0.888785, 21.651, -160.868, -91.9236, 54.9703
3.376, 4, -37.3077, -0.888785, 21.651, -160.868, -91.9236, 54.9703
3.38, 4, -37.3077, -0.888785, 21.651, -160.868, -91.9236, 54.9703
3.383, 4, -37.3077, -0.888785, 21.651, -160.868, -91.9236, 54.9703
3.388, 4, -37.3077, -0.888785, 21.651, -160.868, -91.9236, 54.9703
3.392, 4, -37.3077, -0.888785, 21.651, -160.868, -91.9236, 54.9703
3.396, 4, -37.3077, -0.888785, 21.651, -160.868, -91.9236, 54.9703
3.4, 4, -37.3077, -0.888785, 21.651, -160.868, -91.9236, 54.9703
3.405, 4, -37.3077, -0.888785, 21.651, -160.868, -91.9236, 54.9703
3.41, 4, -37.3077, -0.888785, 21.651, -160.868, -91.9236, 54.9703
3.414, 4, -37.3077, -0.888785, 21.651, -160.868, -91.9236, 54.9703
3.418, 4, -37.3077, -0.888785, 21.651, -160.868, -91.9236, 54.9703
3.42, 4, -37.3077, -0.888785, 21.651, -160.868, -91.9236, 54.9703
3.426, 4, -37.3077, -0.888787, 21.651, -160.868, -91.9236, 54.9703
3.43, 4, -37.3076, -0.888802, 21.651, -160.868, -91.9236, 54.9703
3.434, 4, -37.3073, -0.88886, 21.6511, -160.868, -91.9236, 54.9703
3.438, 4, -37.3066, -0.889013, 21.6512, -160.868, -91.9236, 54.9703
3.44, 4, -37.3066, -0.889013, 21.6512, -160.868, -91.9236, 54.9703
3.444, 4, -37.3052, -0.889326, 21.6514, -160.868, -91.9236, 54.9703
3.448, 4, -37.3029, -0.889871, 21.6519, -160.868, -91.9237, 54.9703
3.452, 4, -37.2995, -0.890715, 21.6526, -160.867, -91.9238, 54.9702
3.456, 4, -37.295, -0.891924, 21.6536, -160.867, -91.924, 54.9702
3.46, 4, -37.2891, -0.893556, 21.6552, -160.867, -91.9243, 54.9701
3.464, 4, -37.2818, -0.895664, 21.6572, -160.866, -91.9248, 54.97
3.468, 4, -37.2729, -0.898303, 21.66, -160.865, -91.9255, 54.9697
3.472, 5, -37.2623, -0.901541, 21.6635, -160.864, -91.9265, 54.9694
3.476, 5, -37.2498, -0.905461, 21.668, -160.863, -91.9278, 54.969
3.48, 5, -37.2349, -0.910132, 21.6735, -160.86, -91.9296, 54.9685
3.484, 5, -37.2177, -0.915593, 21.6802, -160.857, -91.9318, 54.9678
3.488, 5, -37.1979, -0.921846, 21.6883, -160.854, -91.9345, 54.9669
3.492, 5, -37.1758, -0.928874, 21.6977, -160.849, -91.9379, 54.9658
3.495, 5, -37.1512, -0.936661, 21.7085, -160.844, -91.9418, 54.9646
3.5, 5, -37.1243, -0.945196, 21.7207, -160.838, -91.9465, 54.9631
3.504, 5, -37.0948, -0.954481, 21.7343, -160.831, -91.9517, 54.9613
3.508, 5, -37.0629, -0.964534, 21.7495, -160.823, -91.9577, 54.9594
3.512, 5, -37.0284, -0.975386, 21.766, -160.814, -91.9643, 54.9573
3.516, 5, -36.9911, -0.987053, 21.784, -160.804, -91.9714, 54.955
3.52, 5, -36.9513, -0.999518, 21.8032, -160.794, -91.9792, 54.9525
3.524, 5, -36.9091, -1.01273, 21.8237, -160.783, -91.9874, 54.9499
3.528, 5, -36.8646, -1.02664, 21.8453, -160.771, -91.996, 54.9471
3.531, 5, -36.8182, -1.04117, 21.8677, -160.758, -92.0051, 54.9442
3.536, 5, -36.7698, -1.0563, 21.891, -160.746, -92.0144, 54.9413
3.54, 5, -36.7195, -1.07196, 21.915, -160.732, -92.0239, 54.9383
3.544, 5, -36.6676, -1.08811, 21.9396, -160.719, -92.0337, 54.9353
3.548, 5, -36.614, -1.10468, 21.9647, -160.705, -92.0436, 54.9322
3.552, 5, -36.5589, -1.1216, 21.9901, -160.691, -92.0535, 54.9292
3.556, 5, -36.5026, -1.1388, 22.0158, -160.677, -92.0635, 54.9261
3.56, 5, -36.4452, -1.15618, 22.0417, -160.663, -92.0736, 54.9231
3.564, 5, -36.3871, -1.17366, 22.0677, -160.649, -92.0836, 54.9201
3.568, 5, -36.3285, -1.19119, 22.0937, -160.635, -92.0937, 54.9171
3.572, 5, -36.2696, -1.20873, 22.1198, -160.62, -92.1038, 54.9141
3.576, 5, -36.2103, -1.22625, 22.1458, -160.606, -92.1138, 54.9112
3.58, 5, -36.1509, -1.24373, 22.1718, -160.591, -92.1238, 54.9083
3.584, 5, -36.0914, -1.26115, 22.1977, -160.577, -92.1339, 54.9054
3.587, 5, -36.0317, -1.27852, 22.2235, -160.562, -92.1438, 54.9025
3.592, 5, -35.9719, -1.29581, 22.2493, -160.548, -92.1538, 54.8997
3.596, 5, -35.9121, -1.31304, 22.275, -160.533, -92.1637, 54.8969
3.6, 5, -35.8521, -1.33019, 22.3007, -160.519, -92.1736, 54.8941
3.604, 5, -35.7922, -1.34726, 22.3263, -160.504, -92.1835, 54.8914
3.608, 5, -35.7321, -1.36426, 22.3518, -160.489, -92.1933, 54.8887
3.612, 5, -35.6721, -1.38118, 22.3772, -160.474, -92.2031, 54.886
3.616, 5, -35.6119, -1.39801, 22.4025, -160.46, -92.2129, 54.8833
3.62, 5, -35.5517, -1.41477, 22.4278, -160.445, -92.2227, 54.8807
3.624, 5, -35.4915, -1.43145, 22.453, -160.43, -92.2324, 54.8781
3.628, 5, -35.4312, -1.44804, 22.4781, -160.415, -92.2421, 54.8755
3.632, 5, -35.3709, -1.46456, 22.5031, -160.4, -92.2518, 54.873
3.636, 5, -35.3105, -1.48099, 22.5281, -160.385, -92.2614, 54.8705
3.64, 5, -35.2501, -1.49735, 22.5529, -160.37, -92.271, 54.868
3.644, 5, -35.1896, -1.51362, 22.5777, -160.355, -92.2806, 54.8655
3.648, 5, -35.1291, -1.52981, 22.6024, -160.34, -92.2902, 54.8631
3.652, 5, -35.0686, -1.54592, 22.6271, -160.325, -92.2997, 54.8607
3.656, 5, -35.008, -1.56195, 22.6516, -160.31, -92.3092, 54.8583
3.66, 5, -34.9473, -1.57789, 22.6761, -160.295, -92.3187, 54.856
3.664, 5, -34.8866, -1.59375, 22.7005, -160.28, -92.3281, 54.8537
3.668, 5, -34.8259, -1.60953, 22.7248, -160.265, -92.3375, 54.8514
3.672, 5, -34.7651, -1.62523, 22.749, -160.25, -92.3469, 54.8491
3.676, 5, -34.7043, -1.64085, 22.7732, -160.234, -92.3562, 54.8469
3.679, 5, -34.6434, -1.65638, 22.7973, -160.219, -92.3656, 54.8447
3.684, 5, -34.5825, -1.67183, 22.8213, -160.204, -92.3748, 54.8425
3.688, 5, -34.5216, -1.6872, 22.8452, -160.188, -92.3841, 54.8403
3.692, 5, -34.4605, -1.70249, 22.869, -160.173, -92.3933, 54.8382
3.696, 5, -34.3995, -1.71769, 22.8928, -160.158, -92.4025, 54.8361
3.7, 5, -34.3384, -1.73281, 22.9165, -160.142, -92.4117, 54.834
3.704, 5, -34.2773, -1.74785, 22.9401, -160.127, -92.4209, 54.832
3.708, 5, -34.2161, -1.7628, 22.9636, -160.111, -92.43, 54.8299
3.712, 5, -34.1549, -1.77767, 22.987, -160.096, -92.439, 54.8279
3.716, 5, -34.0936, -1.79246, 23.0104, -160.08, -92.4481, 54.826
3.72, 5, -34.0323, -1.80716, 23.0337, -160.064, -92.4571, 54.824
3.724, 5, -33.9709, -1.82178, 23.0569, -160.049, -92.4661, 54.8221
3.728, 5, -33.9095, -1.83632, 23.08, -160.033, -92.4751, 54.8202
3.732, 5, -33.8481, -1.8508, 23.103, -160.017, -92.484, 54.8183
3.735, 5, -33.7866, -1.86523, 23.126, -160.002, -92.4929, 54.8164
3.74, 5, -33.7251, -1.87963, 23.1489, -159.986, -92.5018, 54.8146
3.744, 5, -33.6636, -1.89402, 23.1716, -159.97, -92.5106, 54.8128
3.748, 5, -33.6021, -1.90841, 23.1943, -159.954, -92.5194, 54.811
3.752, 5, -33.5405, -1.92283, 23.2168, -159.938, -92.5281, 54.8092
3.756, 5, -33.4789, -1.93728, 23.2393, -159.922, -92.5368, 54.8074
3.76, 5, -33.4173, -1.95177, 23.2617, -159.906, -92.5454, 54.8055
3.764, 5, -33.3557, -1.96631, 23.2839, -159.89, -92.554, 54.8036
3.768, 6, -33.2942, -1.98092, 23.306, -159.874, -92.5625, 54.8017
3.772, 6, -33.2326, -1.99562, 23.328, -159.857, -92.5708, 54.7997
3.776, 6, -33.171, -2.01042, 23.3498, -159.841, -92.579, 54.7976
3.78, 6, -33.1094, -2.02534, 23.3716, -159.824, -92.5871, 54.7953
3.784, 6, -33.0478, -2.04039, 23.3931, -159.807, -92.5951, 54.793
3.788, 6, -32.9863, -2.05557, 23.4145, -159.79, -92.6029, 54.7905
3.792, 6, -32.9247, -2.07091, 23.4357, -159.772, -92.6105, 54.7878
3.796, 6, -32.8632, -2.08641, 23.4568, -159.754, -92.6179, 54.785
3.8, 6, -32.8017, -2.10207, 23.4776, -159.736, -92.6252, 54.782
3.804, 6, -32.7402, -2.11793, 23.4982, -159.718, -92.6323, 54.7788
3.808, 6, -32.6787, -2.134, 23.5186, -159.7, -92.6393, 54.7754
3.812, 6, -32.6173, -2.15028, 23.5387, -159.681, -92.6461, 54.7719
3.816, 7, -32.5559, -2.1668, 23.5585, -159.662, -92.6528, 54.7682
3.82, 7, -32.4945, -2.18356, 23.578, -159.643, -92.6593, 54.7643
3.824, 7, -32.4332, -2.20056, 23.5972, -159.623, -92.6658, 54.7603
3.828, 7, -32.372, -2.21781, 23.616, -159.603, -92.6721, 54.7562
3.832, 7, -32.3108, -2.23529, 23.6345, -159.583, -92.6784, 54.7519
3.836, 7, -32.2497, -2.253, 23.6526, -159.562, -92.6846, 54.7475
3.84, 7, -32.1886, -2.27096, 23.6703, -159.542, -92.6907, 54.743
3.844, 7, -32.1276, -2.28914, 23.6877, -159.521, -92.6967, 54.7384
3.848, 7, -32.0666, -2.30757, 23.7048, -159.499, -92.7026, 54.7336
3.852, 7, -32.0057, -2.32624, 23.7215, -159.478, -92.7085, 54.7287
3.856, 7, -31.9449, -2.34515, 23.7379, -159.456, -92.7142, 54.7237
3.86, 8, -31.8841, -2.36432, 23.754, -159.434, -92.7198, 54.7185
3.864, 8, -31.8234, -2.38375, 23.7698, -159.412, -92.7252, 54.7131
3.868, 8, -31.7628, -2.40344, 23.7855, -159.389, -92.7304, 54.7076
3.872, 8, -31.7022, -2.4234, 23.8009, -159.366, -92.7354, 54.7018
3.876, 8, -31.6417, -2.44363, 23.8162, -159.343, -92.7402, 54.6959
3.88, 8, -31.5813, -2.46414, 23.8313, -159.32, -92.7446, 54.6897
3.884, 8, -31.521, -2.48493, 23.8463, -159.296, -92.7488, 54.6834
3.888, 8, -31.4607, -2.506, 23.8613, -159.272, -92.7527, 54.6767
3.892, 8, -31.4005, -2.52736, 23.8761, -159.248, -92.7563, 54.6699
3.896, 8, -31.3404, -2.54899, 23.8908, -159.224, -92.7595, 54.6628
3.9, 8, -31.2804, -2.57089, 23.9054, -159.199, -92.7625, 54.6555
3.904, 8, -31.2205, -2.59305, 23.9198, -159.175, -92.7652, 54.648
3.908, 9, -31.1607, -2.61546, 23.9341, -159.15, -92.7677, 54.6403
3.912, 9, -31.1009, -2.63812, 23.9482, -159.125, -92.77, 54.6324
3.916, 9, -31.0413, -2.66101, 23.9621, -159.099, -92.772, 54.6243
3.92, 9, -30.9817, -2.68413, 23.9757, -159.073, -92.7739, 54.6161
3.924, 9, -30.9222, -2.70745, 23.9891, -159.048, -92.7756, 54.6077
3.928, 9, -30.8628, -2.73099, 24.0021, -159.021, -92.7773, 54.5992
3.932, 9, -30.8035, -2.75472, 24.0149, -158.995, -92.7788, 54.5905
3.936, 9, -30.7443, -2.77864, 24.0273, -158.969, -92.7802, 54.5817
3.94, 9, -30.6852, -2.80275, 24.0393, -158.942, -92.7816, 54.5729
3.944, 9, -30.6261, -2.82706, 24.051, -158.915, -92.7829, 54.5639
3.948, 9, -30.5672, -2.85155, 24.0624, -158.888, -92.7841, 54.5548
3.952, 9, -30.5083, -2.87623, 24.0735, -158.861, -92.7851, 54.5456
3.956, 10, -30.4495, -2.9011, 24.0842, -158.833, -92.7861, 54.5362
3.96, 10, -30.3908, -2.92618, 24.0947, -158.806, -92.7869, 54.5267
3.964, 10, -30.3322, -2.95145, 24.105, -158.778, -92.7876, 54.5171
3.968, 10, -30.2737, -2.97694, 24.115, -158.75, -92.7881, 54.5073
3.972, 10, -30.2152, -3.00263, 24.1249, -158.721, -92.7884, 54.4974
3.976, 10, -30.1569, -3.02854, 24.1346, -158.693, -92.7885, 54.4873
3.98, 10, -30.0987, -3.05465, 24.1441, -158.664, -92.7883, 54.477
3.984, 10, -30.0406, -3.08098, 24.1535, -158.635, -92.7879, 54.4665
3.988, 10, -29.9825, -3.10752, 24.1628, -158.606, -92.7872, 54.4558
3.992, 10, -29.9246, -3.13426, 24.1719, -158.577, -92.7863, 54.445
3.996, 10, -29.8668, -3.1612, 24.1809, -158.548, -92.7851, 54.4339
3.999, 10, -29.8091, -3.18835, 24.1898, -158.519, -92.7837, 54.4227
4.004, 11, -29.7514, -3.21568, 24.1986, -158.489, -92.7821, 54.4114
4.008, 11, -29.6939, -3.24319, 24.2071, -158.459, -92.7803, 54.3998
4.012, 11, -29.6365, -3.27088, 24.2155, -158.429, -92.7782, 54.3882
4.016, 11, -29.5791, -3.29873, 24.2237, -158.399, -92.776, 54.3764
4.02, 11, -29.5219, -3.32673, 24.2317, -158.369, -92.7737, 54.3644
4.024, 11, -29.4647, -3.35489, 24.2394, -158.338, -92.7712, 54.3524
4.028, 11, -29.4077, -3.38318, 24.2469, -158.308, -92.7685, 54.3402
4.032, 11, -29.3507, -3.41161, 24.2541, -158.277, -92.7658, 54.328
4.036, 11, -29.2938, -3.44018, 24.261, -158.246, -92.7629, 54.3156
4.04, 11, -29.237, -3.46887, 24.2677, -158.215, -92.76, 54.3032
4.044, 11, -29.1802, -3.49767, 24.2741, -158.184, -92.7569, 54.2907
4.048, 11, -29.1236, -3.5266, 24.2802, -158.153, -92.7537, 54.278
4.052, 11, -29.0671, -3.55564, 24.286, -158.122, -92.7504, 54.2653
4.056, 12, -29.0106, -3.58481, 24.2916, -158.09, -92.747, 54.2525
4.06, 12, -28.9543, -3.61408, 24.2969, -158.059, -92.7435, 54.2396
4.064, 12, -28.898, -3.64348, 24.302, -158.027, -92.7398, 54.2266
4.068, 12, -28.8418, -3.67299, 24.3069, -157.995, -92.736, 54.2135
4.072, 12, -28.7857, -3.70263, 24.3116, -157.964, -92.732, 54.2002
4.076, 12, -28.7297, -3.73238, 24.3161, -157.932, -92.7279, 54.1869
4.08, 12, -28.6738, -3.76225, 24.3205, -157.899, -92.7236, 54.1734
4.084, 12, -28.6179, -3.79224, 24.3246, -157.867, -92.7192, 54.1598
4.088, 12, -28.5622, -3.82234, 24.3286, -157.835, -92.7146, 54.1461
4.092, 12, -28.5065, -3.85256, 24.3325, -157.803, -92.7098, 54.1323
4.096, 12, -28.4509, -3.8829, 24.3362, -157.77, -92.7048, 54.1183
4.1, 12, -28.3954, -3.91336, 24.3398, -157.737, -92.6997, 54.1043
4.104, 12, -28.34, -3.94393, 24.3433, -157.705, -92.6943, 54.0901
4.108, 13, -28.2846, -3.97461, 24.3467, -157.672, -92.6888, 54.0758
4.112, 13, -28.2293, -4.00541, 24.3499, -157.639, -92.6831, 54.0614
4.116, 13, -28.1741, -4.03632, 24.353, -157.606, -92.6772, 54.0468
4.12, 13, -28.1189, -4.06734, 24.356, -157.573, -92.6711, 54.0322
4.124, 13, -28.0638, -4.09846, 24.359, -157.54, -92.6649, 54.0175
4.128, 13, -28.0088, -4.12968, 24.3618, -157.507, -92.6585, 54.0026
4.132, 13, -27.9539, -4.16101, 24.3645, -157.473, -92.6519, 53.9876
4.136, 13, -27.899, -4.19243, 24.3671, -157.44, -92.6451, 53.9726
4.14, 13, -27.8441, -4.22394, 24.3696, -157.407, -92.6381, 53.9574
4.144, 13, -27.7894, -4.25554, 24.372, -157.373, -92.631, 53.9422
4.148, 13, -27.7346, -4.28722, 24.3743, -157.34, -92.6236, 53.9268
4.152, 13, -27.68, -4.31898, 24.3765, -157.306, -92.6162, 53.9114
4.156, 13, -27.6254, -4.35082, 24.3786, -157.272, -92.6085, 53.8959
4.16, 14, -27.5708, -4.38274, 24.3807, -157.239, -92.6007, 53.8803
4.164, 14, -27.5163, -4.41472, 24.3826, -157.205, -92.5927, 53.8646
4.168, 14, -27.4619, -4.44678, 24.3844, -157.171, -92.5846, 53.8488
4.172, 14, -27.4074, -4.47891, 24.3861, -157.137, -92.5763, 53.833
4.176, 14, -27.3531, -4.5111, 24.3878, -157.103, -92.5678, 53.8171
4.18, 14, -27.2988, -4.54334, 24.3893, -157.069, -92.5593, 53.8011
4.184, 14, -27.2445, -4.57565, 24.3907, -157.035, -92.5505, 53.785
4.188, 14, -27.1903, -4.608, 24.392, -157.001, -92.5417, 53.7689
4.192, 14, -27.1361, -4.6404, 24.3932, -156.967, -92.5327, 53.7526
4.196, 14, -27.0819, -4.67285, 24.3944, -156.933, -92.5235, 53.7364
4.2, 14, -27.0278, -4.70533, 24.3954, -156.899, -92.5143, 53.72
4.204, 14, -26.9737, -4.73786, 24.3963, -156.865, -92.5048, 53.7036
4.208, 14, -26.9197, -4.77041, 24.3972, -156.831, -92.4953, 53.6872
4.212, 15, -26.8657, -4.80301, 24.3979, -156.796, -92.4856, 53.6707
4.216, 15, -26.8117, -4.83563, 24.3986, -156.762, -92.4758, 53.6541
4.22, 15, -26.7577, -4.86828, 24.3992, -156.728, -92.4659, 53.6375
4.224, 15, -26.7037, -4.90097, 24.3997, -156.694, -92.4559, 53.6208
4.228, 15, -26.6498, -4.93368, 24.4001, -156.659, -92.4457, 53.6041
4.232, 15, -26.5959, -4.96641, 24.4004, -156.625, -92.4354, 53.5873
4.236, 15, -26.5421, -4.99917, 24.4006, -156.591, -92.425, 53.5705
4.24, 15, -26.4882, -5.03194, 24.4008, -156.556, -92.4145, 53.5536
4.244, 15, -26.4344, -5.06473, 24.4009, -156.522, -92.4039, 53.5367
4.248, 15, -26.3806, -5.09753, 24.401, -156.488, -92.3931, 53.5197
4.252, 15, -26.3267, -5.13034, 24.4009, -156.454, -92.3822, 53.5028
4.256, 15, -26.2729, -5.16315, 24.4008, -156.419, -92.3713, 53.4857
4.26, 15, -26.2191, -5.19597, 24.4007, -156.385, -92.3602, 53.4686
4.264, 15, -26.1653, -5.22879, 24.4005, -156.351, -92.349, 53.4515
4.268, 16, -26.1115, -5.26161, 24.4002, -156.316, -92.3377, 53.4344
4.272, 16, -26.0577, -5.29443, 24.3999, -156.282, -92.3263, 53.4172
4.276, 16, -26.004, -5.32725, 24.3995, -156.248, -92.3148, 53.4
4.28, 16, -25.9502, -5.36006, 24.3991, -156.214, -92.3032, 53.3828
4.284, 16, -25.8964, -5.39287, 24.3986, -156.179, -92.2915, 53.3655
4.288, 16, -25.8425, -5.42568, 24.3981, -156.145, -92.2797, 53.3483
4.292, 16, -25.7887, -5.45847, 24.3975, -156.111, -92.2679, 53.331
4.296, 16, -25.7349, -5.49125, 24.3969, -156.077, -92.2559, 53.3136
4.3, 16, -25.6811, -5.52401, 24.3963, -156.043, -92.2438, 53.2963
4.304, 16, -25.6272, -5.55675, 24.3956, -156.009, -92.2317, 53.279
4.308, 16, -25.5733, -5.58947, 24.3949, -155.974, -92.2195, 53.2616
4.312, 16, -25.5194, -5.62217, 24.3941, -155.94, -92.2071, 53.2442
4.316, 16, -25.4655, -5.65483, 24.3934, -155.906, -92.1948, 53.2268
4.32, 17, -25.4116, -5.68747, 24.3926, -155.872, -92.1823, 53.2094
4.324, 17, -25.3576, -5.72009, 24.3918, -155.838, -92.1698, 53.192
4.328, 17, -25.3036, -5.75267, 24.391, -155.805, -92.1571, 53.1746
4.332, 17, -25.2496, -5.78522, 24.3901, -155.771, -92.1445, 53.1572
4.336, 17, -25.1955, -5.81774, 24.3893, -155.737, -92.1317, 53.1397
4.34, 17, -25.1414, -5.85022, 24.3884, -155.703, -92.1189, 53.1223
4.344, 17, -25.0873, -5.88267, 24.3875, -155.669, -92.106, 53.1049
4.348, 17, -25.0331, -5.91508, 24.3866, -155.636, -92.0931, 53.0875
4.352, 17, -24.9789, -5.94744, 24.3858, -155.602, -92.0801, 53.0701
4.356, 17, -24.9246, -5.97976, 24.3849, -155.569, -92.0671, 53.0527
4.36, 17, -24.8703, -6.01202, 24.384, -155.535, -92.054, 53.0353
4.364, 17, -24.8159, -6.04424, 24.3831, -155.502, -92.0409, 53.018
4.368, 17, -24.7615, -6.07641, 24.3822, -155.468, -92.0277, 53.0006
4.372, 18, -24.7071, -6.10851, 24.3814, -155.435, -92.0145, 52.9833
4.376, 18, -24.6526, -6.14057, 24.3805, -155.402, -92.0012, 52.966
4.38, 18, -24.598, -6.17257, 24.3797, -155.369, -91.9879, 52.9487
4.384, 18, -24.5434, -6.2045, 24.3788, -155.335, -91.9746, 52.9314
4.388, 18, -24.4887, -6.23638, 24.378, -155.302, -91.9612, 52.9141
4.392, 18, -24.4339, -6.2682, 24.3773, -155.269, -91.9478, 52.8969
4.396, 18, -24.3791, -6.29995, 24.3765, -155.237, -91.9344, 52.8797
4.4, 18, -24.3242, -6.33164, 24.3758, -155.204, -91.921, 52.8626
4.404, 18, -24.2693, -6.36326, 24.3751, -155.171, -91.9076, 52.8455
4.408, 18, -24.2143, -6.3948, 24.3744, -155.138, -91.8941, 52.8284
4.412, 18, -24.1592, -6.42627, 24.3738, -155.106, -91.8807, 52.8114
4.416, 18, -24.104, -6.45766, 24.3732, -155.073, -91.8672, 52.7944
4.42, 18, -24.0488, -6.48898, 24.3726, -155.041, -91.8538, 52.7775
4.424, 18, -23.9935, -6.52021, 24.3721, -155.009, -91.8403, 52.7606
4.428, 19, -23.9381, -6.55136, 24.3717, -154.976, -91.8268, 52.7437
4.432, 19, -23.8826, -6.58242, 24.3713, -154.944, -91.8134, 52.7269
4.436, 19, -23.827, -6.6134, 24.3709, -154.912, -91.8, 52.7102
4.44, 19, -23.7714, -6.64429, 24.3706, -154.88, -91.7866, 52.6935
4.444, 19, -23.7156, -6.67508, 24.3703, -154.848, -91.7732, 52.6769
4.448, 19, -23.6598, -6.70578, 24.3701, -154.817, -91.7598, 52.6603
4.452, 19, -23.6039, -6.73638, 24.37, -154.785, -91.7465, 52.6439
4.456, 19, -23.5479, -6.76687, 24.3699, -154.753, -91.7332, 52.6274
4.46, 19, -23.4918, -6.79725, 24.3699, -154.722, -91.72, 52.6111
4.464, 19, -23.4356, -6.82752, 24.3699, -154.691, -91.7068, 52.5949
4.468, 19, -23.3794, -6.85766, 24.37, -154.66, -91.6937, 52.5787
4.472, 19, -23.323, -6.88769, 24.3701, -154.628, -91.6807, 52.5626
4.476, 19, -23.2665, -6.91758, 24.3702, -154.597, -91.6677, 52.5466
4.48, 20, -23.21, -6.94733, 24.3704, -154.567, -91.6549, 52.5307
4.484, 20, -23.1533, -6.97695, 24.3706, -154.536, -91.6421, 52.5149
4.488, 20, -23.0966, -7.00641, 24.3708, -154.505, -91.6294, 52.4992
4.492, 20, -23.0397, -7.03573, 24.3711, -154.475, -91.6169, 52.4836
4.496, 20, -22.9828, -7.0649, 24.3714, -154.444, -91.6045, 52.4681
4.5, 20, -22.9257, -7.09391, 24.3716, -154.414, -91.5923, 52.4527
4.504, 20, -22.8685, -7.12276, 24.3719, -154.384, -91.5802, 52.4375
4.508, 20, -22.8112, -7.15146, 24.3722, -154.354, -91.5682, 52.4224
4.512, 20, -22.7538, -7.18, 24.3726, -154.324, -91.5564, 52.4074
4.516, 20, -22.6963, -7.20837, 24.3729, -154.295, -91.5448, 52.3925
4.52, 20, -22.6386, -7.23658, 24.3734, -154.265, -91.5333, 52.3778
4.524, 20, -22.5808, -7.26463, 24.3738, -154.236, -91.522, 52.3632
4.528, 20, -22.523, -7.29252, 24.3744, -154.206, -91.5108, 52.3488
4.532, 21, -22.4649, -7.32025, 24.375, -154.177, -91.4998, 52.3344
4.536, 21, -22.4068, -7.34783, 24.3758, -154.148, -91.489, 52.3203
4.54, 21, -22.3486, -7.37526, 24.3767, -154.119, -91.4783, 52.3062
4.544, 21, -22.2902, -7.40253, 24.3777, -154.091, -91.4678, 52.2923
4.548, 21, -22.2317, -7.42965, 24.3789, -154.062, -91.4573, 52.2785
4.552, 21, -22.1731, -7.45662, 24.3803, -154.034, -91.4471, 52.2649
4.556, 21, -22.1144, -7.48343, 24.3819, -154.006, -91.4369, 52.2514
4.56, 21, -22.0555, -7.51009, 24.3837, -153.978, -91.427, 52.2381
4.564, 21, -21.9965, -7.5366, 24.3857, -153.95, -91.4171, 52.2249
4.568, 21, -21.9374, -7.56295, 24.388, -153.922, -91.4074, 52.2119
4.572, 21, -21.8781, -7.58915, 24.3904, -153.894, -91.3979, 52.199
4.576, 21, -21.8187, -7.61518, 24.3931, -153.867, -91.3886, 52.1863
4.58, 22, -21.7592, -7.64105, 24.3961, -153.84, -91.3794, 52.1738
4.584, 22, -21.6996, -7.66676, 24.3992, -153.813, -91.3704, 52.1615
4.588, 22, -21.6398, -7.69228, 24.4026, -153.786, -91.3616, 52.1494
4.592, 22, -21.5799, -7.71763, 24.4062, -153.759, -91.3531, 52.1375
4.596, 22, -21.5198, -7.74279, 24.41, -153.733, -91.3447, 52.1258
4.6, 22, -21.4596, -7.76775, 24.4141, -153.707, -91.3366, 52.1143
4.604, 22, -21.3993, -7.79251, 24.4183, -153.68, -91.3288, 52.103
4.608, 22, -21.3388, -7.81705, 24.4228, -153.655, -91.3212, 52.092
4.612, 22, -21.2782, -7.84138, 24.4274, -153.629, -91.3139, 52.0812
4.616, 22, -21.2175, -7.86547, 24.4323, -153.603, -91.3068, 52.0706
4.62, 22, -21.1567, -7.88933, 24.4373, -153.578, -91.3001, 52.0603
4.624, 22, -21.0957, -7.91293, 24.4426, -153.553, -91.2937, 52.0503
4.628, 22, -21.0345, -7.93629, 24.448, -153.528, -91.2876, 52.0405
4.632, 23, -20.9733, -7.95937, 24.4535, -153.503, -91.2819, 52.0309
4.636, 23, -20.9119, -7.98219, 24.4593, -153.479, -91.2766, 52.0217
4.64, 23, -20.8504, -8.00473, 24.4652, -153.455, -91.2716, 52.0127
4.644, 23, -20.7888, -8.02698, 24.4712, -153.431, -91.267, 52.004
4.648, 23, -20.7271, -8.04894, 24.4774, -153.407, -91.2628, 51.9955
4.652, 23, -20.6652, -8.07061, 24.4838, -153.383, -91.2591, 51.9874
4.656, 23, -20.6033, -8.09198, 24.4904, -153.36, -91.2558, 51.9795
4.66, 23, -20.5412, -8.11306, 24.4971, -153.337, -91.2529, 51.9719
4.664, 23, -20.479, -8.13383, 24.504, -153.314, -91.2505, 51.9646
4.668, 23, -20.4167, -8.15429, 24.5112, -153.291, -91.2485, 51.9576
4.672, 23, -20.3542, -8.17446, 24.5185, -153.269, -91.247, 51.9509
4.676, 23, -20.2917, -8.19431, 24.5262, -153.247, -91.2459, 51.9446
4.68, 24, -20.2291, -8.21387, 24.5341, -153.225, -91.2453, 51.9385
4.684, 24, -20.1664, -8.23312, 24.5423, -153.203, -91.2451, 51.9327
4.688, 24, -20.1037, -8.25207, 24.5508, -153.182, -91.2454, 51.9272
4.692, 24, -20.0408, -8.27072, 24.5597, -153.161, -91.2461, 51.9221
4.696, 24, -19.9778, -8.28904, 24.569, -153.14, -91.2472, 51.9172
4.7, 24, -19.9148, -8.30705, 24.5787, -153.12, -91.2488, 51.9127
4.704, 24, -19.8517, -8.32472, 24.5887, -153.1, -91.2508, 51.9085
4.708, 24, -19.7885, -8.34204, 24.5992, -153.08, -91.2532, 51.9047
4.712, 24, -19.7252, -8.35901, 24.61, -153.06, -91.2561, 51.9012
4.716, 24, -19.6618, -8.37561, 24.6212, -153.041, -91.2595, 51.8981
4.72, 24, -19.5984, -8.39182, 24.6327, -153.022, -91.2635, 51.8954
4.724, 24, -19.5349, -8.40763, 24.6445, -153.003, -91.268, 51.8932
4.728, 25, -19.4713, -8.42302, 24.6566, -152.984, -91.273, 51.8913
4.732, 25, -19.4077, -8.43796, 24.6689, -152.966, -91.2787, 51.8899
4.736, 25, -19.3439, -8.45244, 24.6813, -152.949, -91.2851, 51.889
4.74, 25, -19.2802, -8.46643, 24.6939, -152.931, -91.2922, 51.8887
4.744, 25, -19.2164, -8.47993, 24.7066, -152.914, -91.3, 51.8888
4.748, 25, -19.1525, -8.49292, 24.7194, -152.897, -91.3085, 51.8895
4.752, 25, -19.0887, -8.5054, 24.7323, -152.88, -91.3179, 51.8907
4.756, 25, -19.0249, -8.51736, 24.7453, -152.864, -91.328, 51.8925
4.76, 25, -18.961, -8.52879, 24.7584, -152.848, -91.339, 51.8948
4.764, 25, -18.8972, -8.5397, 24.7716, -152.833, -91.3507, 51.8976
4.768, 25, -18.8335, -8.55008, 24.7851, -152.818, -91.3632, 51.901
4.772, 26, -18.7697, -8.55993, 24.7987, -152.803, -91.3765, 51.9048
4.776, 26, -18.7061, -8.56927, 24.8126, -152.788, -91.3906, 51.9092
4.78, 26, -18.6425, -8.57811, 24.8269, -152.774, -91.4053, 51.914
4.784, 26, -18.579, -8.58645, 24.8416, -152.76, -91.4208, 51.9192
4.788, 26, -18.5155, -8.59431, 24.8567, -152.747, -91.4369, 51.9248
4.792, 26, -18.4522, -8.6017, 24.8724, -152.734, -91.4537, 51.9308
4.796, 26, -18.3889, -8.60861, 24.8887, -152.722, -91.4711, 51.9371
4.8, 26, -18.3257, -8.61505, 24.9056, -152.71, -91.4891, 51.9438
4.804, 26, -18.2625, -8.62102, 24.923, -152.698, -91.5078, 51.9509
4.808, 26, -18.1995, -8.62652, 24.9411, -152.687, -91.527, 51.9583
4.812, 26, -18.1366, -8.63154, 24.9597, -152.676, -91.5469, 51.9662
4.816, 26, -18.0738, -8.63607, 24.979, -152.666, -91.5675, 51.9744
4.82, 27, -18.0111, -8.6401, 24.9987, -152.656, -91.5887, 51.9831
4.824, 27, -17.9485, -8.64361, 25.0189, -152.646, -91.6106, 51.9923
4.828, 27, -17.8861, -8.64658, 25.0396, -152.637, -91.6332, 52.002
4.832, 27, -17.8239, -8.649, 25.0606, -152.628, -91.6565, 52.0123
4.836, 27, -17.7618, -8.65085, 25.082, -152.62, -91.6806, 52.0232
4.84, 27, -17.6999, -8.65212, 25.1036, -152.612, -91.7055, 52.0348
4.844, 27, -17.6382, -8.65278, 25.1255, -152.604, -91.7312, 52.047
4.848, 27, -17.5767, -8.65283, 25.1476, -152.597, -91.7576, 52.0598
4.852, 27, -17.5156, -8.65226, 25.1698, -152.59, -91.7849, 52.0734
4.856, 27, -17.4547, -8.65105, 25.1923, -152.584, -91.813, 52.0876
4.86, 27, -17.3941, -8.64921, 25.215, -152.578, -91.8419, 52.1025
4.864, 27, -17.3338, -8.64675, 25.2379, -152.573, -91.8716, 52.1179
4.868, 28, -17.2738, -8.64367, 25.2611, -152.568, -91.902, 52.134
4.872, 28, -17.2142, -8.63997, 25.2846, -152.563, -91.9331, 52.1505
4.876, 28, -17.1548, -8.63566, 25.3085, -152.559, -91.965, 52.1675
4.88, 28, -17.0957, -8.63077, 25.3328, -152.555, -91.9976, 52.1849
4.884, 28, -17.037, -8.62531, 25.3576, -152.552, -92.0308, 52.2026
4.888, 28, -16.9785, -8.61928, 25.3829, -152.549, -92.0646, 52.2206
4.892, 28, -16.9204, -8.61271, 25.4088, -152.547, -92.0991, 52.2388
4.896, 28, -16.8627, -8.60562, 25.4353, -152.545, -92.1341, 52.2572
4.9, 28, -16.8053, -8.598, 25.4624, -152.544, -92.1697, 52.2759
4.904, 28, -16.7482, -8.58987, 25.4901, -152.543, -92.2059, 52.2947
4.908, 28, -16.6915, -8.58122, 25.5183, -152.543, -92.2426, 52.3137
4.912, 28, -16.6351, -8.57203, 25.5471, -152.543, -92.2799, 52.3329
4.916, 28, -16.579, -8.56229, 25.5764, -152.544, -92.3177, 52.3524
4.92, 28, -16.5233, -8.55198, 25.6061, -152.545, -92.3561, 52.3721
4.924, 29, -16.468, -8.54111, 25.6362, -152.547, -92.395, 52.3922
4.928, 29, -16.413, -8.52965, 25.6666, -152.549, -92.4345, 52.4126
4.932, 29, -16.3584, -8.51761, 25.6972, -152.551, -92.4746, 52.4335
4.936, 29, -16.3041, -8.50499, 25.7281, -152.554, -92.5152, 52.4548
4.94, 29, -16.2501, -8.49179, 25.7591, -152.557, -92.5564, 52.4766
4.944, 29, -16.1965, -8.47802, 25.7903, -152.561, -92.5983, 52.499
4.948, 29, -16.1433, -8.46367, 25.8215, -152.564, -92.6406, 52.5218
4.952, 29, -16.0904, -8.44874, 25.8528, -152.569, -92.6836, 52.5452
4.956, 29, -16.0378, -8.43322, 25.8842, -152.573, -92.7271, 52.5692
4.96, 29, -15.9855, -8.4171, 25.9156, -152.578, -92.7712, 52.5936
4.964, 29, -15.9335, -8.4004, 25.9471, -152.584, -92.8157, 52.6186
4.968, 29, -15.8819, -8.38313, 25.9787, -152.589, -92.8608, 52.644
4.972, 29, -15.8305, -8.36529, 26.0103, -152.595, -92.9063, 52.6698
4.976, 29, -15.7795, -8.34692, 26.0421, -152.601, -92.9521, 52.6959
4.98, 30, -15.7288, -8.32801, 26.074, -152.608, -92.9984, 52.7225
4.984, 30, -15.6783, -8.30856, 26.1061, -152.615, -93.045, 52.7493
4.988, 30, -15.6282, -8.28859, 26.1384, -152.622, -93.092, 52.7763
4.992, 30, -15.5785, -8.2681, 26.1709, -152.63, -93.1392, 52.8036
4.996, 30, -15.5291, -8.24711, 26.2037, -152.638, -93.1867, 52.8311
5, 30, -15.4799, -8.22566, 26.2367, -152.646, -93.2344, 52.8587
5.004, 30, -15.4311, -8.20377, 26.2701, -152.655, -93.2823, 52.8864
5.008, 30, -15.3825, -8.18144, 26.3037, -152.664, -93.3304, 52.9142
5.012, 30, -15.3342, -8.1587, 26.3376, -152.673, -93.3787, 52.9421
5.016, 30, -15.2862, -8.13554, 26.3717, -152.683, -93.4272, 52.9701
5.02, 30, -15.2384, -8.11194, 26.4062, -152.693, -93.4758, 52.9982
5.024, 30, -15.1909, -8.08789, 26.4409, -152.704, -93.5246, 53.0263
5.028, 30, -15.1438, -8.06337, 26.4759, -152.714, -93.5734, 53.0546
5.032, 30, -15.0969, -8.0384, 26.5111, -152.725, -93.6224, 53.083
5.036, 30, -15.0503, -8.01297, 26.5465, -152.737, -93.6715, 53.1115
5.04, 30, -15.004, -7.98708, 26.5821, -152.748, -93.7207, 53.1401
5.044, 31, -14.9579, -7.96071, 26.6178, -152.76, -93.77, 53.1688
5.048, 31, -14.9122, -7.93386, 26.6537, -152.772, -93.8193, 53.1976
5.052, 31, -14.8667, -7.90652, 26.6897, -152.785, -93.8686, 53.2265
5.056, 31, -14.8216, -7.87869, 26.7258, -152.797, -93.918, 53.2556
5.06, 31, -14.7767, -7.8504, 26.762, -152.81, -93.9674, 53.2847
5.064, 31, -14.732, -7.82164, 26.7983, -152.823, -94.0169, 53.314
5.068, 31, -14.6874, -7.79246, 26.8347, -152.836, -94.0664, 53.3434
5.072, 31, -14.643, -7.76287, 26.8712, -152.849, -94.1159, 53.3729
5.076, 31, -14.5986, -7.73288, 26.9077, -152.863, -94.1655, 53.4025
5.08, 31, -14.5542, -7.7025, 26.9443, -152.877, -94.2151, 53.4322
5.084, 31, -14.5099, -7.6717, 26.981, -152.891, -94.2646, 53.4621
5.088, 31, -14.4657, -7.64048, 27.0178, -152.905, -94.3142, 53.492
5.092, 31, -14.4216, -7.60884, 27.0545, -152.919, -94.3639, 53.5221
5.096, 31, -14.3776, -7.57678, 27.0914, -152.934, -94.4135, 53.5524
5.1, 31, -14.3337, -7.5443, 27.1283, -152.948, -94.4631, 53.5828
5.104, 31, -14.2899, -7.51141, 27.1652, -152.963, -94.5127, 53.6133
5.108, 31, -14.2462, -7.47812, 27.2022, -152.978, -94.5623, 53.644
5.112, 31, -14.2026, -7.44443, 27.2392, -152.993, -94.6118, 53.6747
5.116, 32, -14.1592, -7.41035, 27.2762, -153.008, -94.6613, 53.7056
5.12, 32, -14.1159, -7.37587, 27.3133, -153.023, -94.7108, 53.7366
5.124, 32, -14.0726, -7.34102, 27.3505, -153.039, -94.7602, 53.7677
5.128, 32, -14.0295, -7.30578, 27.3877, -153.054, -94.8095, 53.7988
5.132, 32, -13.9864, -7.27019, 27.425, -153.07, -94.8587, 53.83
5.136, 32, -13.9434, -7.23426, 27.4623, -153.085, -94.9078, 53.8612
5.14, 32, -13.9004, -7.19802, 27.4998, -153.101, -94.9567, 53.8924
5.144, 32, -13.8573, -7.16147, 27.5373, -153.117, -95.0056, 53.9236
5.148, 32, -13.8143, -7.12464, 27.5749, -153.133, -95.0544, 53.9548
5.152, 32, -13.7712, -7.08753, 27.6126, -153.149, -95.103, 53.986
5.156, 32, -13.7281, -7.05013, 27.6503, -153.165, -95.1515, 54.0172
5.16, 32, -13.685, -7.01244, 27.6882, -153.181, -95.1999, 54.0484
5.164, 32, -13.642, -6.97444, 27.7261, -153.198, -95.2482, 54.0796
5.168, 32, -13.5989, -6.93614, 27.764, -153.214, -95.2964, 54.1109
5.172, 32, -13.5558, -6.89751, 27.8021, -153.231, -95.3444, 54.1421
5.176, 32, -13.5126, -6.85855, 27.8402, -153.247, -95.3923, 54.1734
5.18, 32, -13.4695, -6.81926, 27.8783, -153.264, -95.4401, 54.2047
5.184, 32, -13.4263, -6.77964, 27.9165, -153.28, -95.4877, 54.2361
5.188, 32, -13.3831, -6.73968, 27.9547, -153.297, -95.5352, 54.2675
5.192, 32, -13.3398, -6.69938, 27.9929, -153.313, -95.5825, 54.2989
5.196, 33, -13.2965, -6.65873, 28.0312, -153.33, -95.6296, 54.3304
5.2, 33, -13.2532, -6.61771, 28.0694, -153.346, -95.6765, 54.3619
5.204, 33, -13.2097, -6.57634, 28.1076, -153.363, -95.7232, 54.3935
5.208, 33, -13.1662, -6.53461, 28.1458, -153.379, -95.7697, 54.4251
5.212, 33, -13.1226, -6.49254, 28.184, -153.396, -95.8159, 54.4567
5.216, 33, -13.0789, -6.45013, 28.2222, -153.412, -95.8619, 54.4884
5.22, 33, -13.035, -6.4074, 28.2603, -153.428, -95.9077, 54.5201
5.224, 33, -12.9911, -6.36435, 28.2984, -153.444, -95.9531, 54.5518
5.228, 33, -12.9471, -6.32099, 28.3364, -153.46, -95.9983, 54.5836
5.232, 33, -12.9029, -6.27731, 28.3744, -153.477, -96.0433, 54.6153
5.236, 33, -12.8587, -6.23331, 28.4124, -153.493, -96.088, 54.6471
5.24, 33, -12.8143, -6.18897, 28.4503, -153.508, -96.1324, 54.679
5.244, 33, -12.7698, -6.14431, 28.4883, -153.524, -96.1766, 54.7108
5.248, 33, -12.7252, -6.09931, 28.5262, -153.54, -96.2206, 54.7426
5.252, 33, -12.6804, -6.05397, 28.5641, -153.556, -96.2643, 54.7744
5.256, 33, -12.6354, -6.0083, 28.602, -153.572, -96.3078, 54.8062
5.26, 33, -12.5903, -5.9623, 28.6399, -153.587, -96.3511, 54.8379
5.264, 33, -12.545, -5.91598, 28.6778, -153.603, -96.3941, 54.8697
5.268, 33, -12.4995, -5.86933, 28.7157, -153.618, -96.437, 54.9013
5.272, 33, -12.4539, -5.82236, 28.7536, -153.633, -96.4796, 54.933
5.276, 34, -12.4081, -5.77506, 28.7915, -153.648, -96.522, 54.9646
5.28, 34, -12.3622, -5.72745, 28.8294, -153.663, -96.5641, 54.9962
5.284, 34, -12.3161, -5.67952, 28.8672, -153.678, -96.606, 55.0277
5.288, 34, -12.2699, -5.63129, 28.9051, -153.693, -96.6475, 55.0591
5.292, 34, -12.2235, -5.58276, 28.9428, -153.708, -96.6889, 55.0905
5.296, 34, -12.177, -5.53395, 28.9806, -153.722, -96.7299, 55.1219
5.3, 34, -12.1303, -5.48487, 29.0182, -153.736, -96.7706, 55.1533
5.304, 34, -12.0835, -5.43553, 29.0558, -153.75, -96.811, 55.1846
5.308, 34, -12.0366, -5.38594, 29.0933, -153.764, -96.851, 55.2158
5.312, 34, -11.9896, -5.33608, 29.1307, -153.778, -96.8908, 55.2471
5.316, 34, -11.9425, -5.28597, 29.1681, -153.791, -96.9303, 55.2782
5.32, 34, -11.8952, -5.23558, 29.2054, -153.804, -96.9695, 55.3093
5.324, 34, -11.8477, -5.18493, 29.2427, -153.817, -97.0084, 55.3403
5.328, 34, -11.8, -5.13399, 29.2799, -153.83, -97.047, 55.3713
5.332, 34, -11.7521, -5.08278, 29.3171, -153.843, -97.0853, 55.4021
5.336, 34, -11.704, -5.03129, 29.3543, -153.855, -97.1233, 55.4329
5.34, 34, -11.6556, -4.97952, 29.3914, -153.868, -97.1611, 55.4635
5.344, 34, -11.607, -4.92748, 29.4285, -153.88, -97.1986, 55.494
5.348, 34, -11.5582, -4.87515, 29.4656, -153.892, -97.2358, 55.5244
5.352, 34, -11.5091, -4.82256, 29.5026, -153.904, -97.2727, 55.5547
5.356, 35, -11.4598, -4.76968, 29.5395, -153.915, -97.3093, 55.5849
5.36, 35, -11.4103, -4.71651, 29.5764, -153.926, -97.3456, 55.615
5.364, 35, -11.3605, -4.66306, 29.6131, -153.937, -97.3815, 55.645
5.368, 35, -11.3105, -4.60932, 29.6497, -153.948, -97.4172, 55.675
5.372, 35, -11.2602, -4.55532, 29.6861, -153.958, -97.4524, 55.7049
5.376, 35, -11.2097, -4.50105, 29.7224, -153.968, -97.4874, 55.7348
5.38, 35, -11.159, -4.44653, 29.7584, -153.977, -97.5219, 55.7647
5.384, 35, -11.1081, -4.39178, 29.7942, -153.986, -97.5561, 55.7946
5.388, 35, -11.057, -4.33679, 29.8298, -153.995, -97.5899, 55.8244
5.392, 35, -11.0057, -4.28157, 29.8652, -154.004, -97.6233, 55.8543
5.396, 35, -10.9541, -4.22612, 29.9004, -154.012, -97.6563, 55.8841
5.4, 35, -10.9023, -4.17043, 29.9354, -154.019, -97.689, 55.9138
5.404, 35, -10.8501, -4.11453, 29.9702, -154.027, -97.7214, 55.9435
5.408, 35, -10.7977, -4.05842, 30.0048, -154.034, -97.7533, 55.9731
5.412, 35, -10.745, -4.00213, 30.0393, -154.04, -97.7849, 56.0025
5.416, 35, -10.6921, -3.94566, 30.0737, -154.046, -97.8162, 56.0318
5.42, 35, -10.6388, -3.88903, 30.1079, -154.052, -97.8471, 56.0609
5.424, 35, -10.5852, -3.83226, 30.1421, -154.058, -97.8777, 56.0898
5.428, 35, -10.5314, -3.77536, 30.1761, -154.063, -97.908, 56.1185
5.432, 36, -10.4773, -3.71834, 30.21, -154.068, -97.9379, 56.1471
5.436, 36, -10.4228, -3.66121, 30.2438, -154.073, -97.9675, 56.1754
5.44, 36, -10.3681, -3.60399, 30.2775, -154.077, -97.9968, 56.2036
5.444, 36, -10.3132, -3.54668, 30.311, -154.081, -98.0257, 56.2316
5.448, 36, -10.258, -3.48932, 30.3443, -154.084, -98.0543, 56.2594
5.452, 36, -10.2026, -3.43192, 30.3774, -154.087, -98.0826, 56.2871
5.456, 36, -10.147, -3.37448, 30.4104, -154.09, -98.1105, 56.3147
5.46, 36, -10.0913, -3.31704, 30.4431, -154.092, -98.1381, 56.3421
5.464, 36, -10.0354, -3.25962, 30.4756, -154.093, -98.1654, 56.3694
5.468, 36, -9.97924, -3.20221, 30.5078, -154.094, -98.1924, 56.3965
5.472, 36, -9.92282, -3.14486, 30.5399, -154.095, -98.219, 56.4234
5.476, 36, -9.8661, -3.08757, 30.5718, -154.095, -98.2452, 56.4502
5.48, 36, -9.80905, -3.03036, 30.6034, -154.095, -98.2711, 56.4768
5.484, 36, -9.75167, -2.97325, 30.6348, -154.094, -98.2966, 56.5031
5.488, 36, -9.69397, -2.91625, 30.6661, -154.093, -98.3217, 56.5292
5.492, 36, -9.63594, -2.85938, 30.6971, -154.091, -98.3464, 56.5551
5.496, 36, -9.57759, -2.80266, 30.728, -154.089, -98.3707, 56.5807
5.5, 37, -9.51891, -2.7461, 30.7586, -154.087, -98.3946, 56.606
5.504, 37, -9.45988, -2.68971, 30.7889, -154.084, -98.4181, 56.631
5.508, 37, -9.40049, -2.63351, 30.819, -154.08, -98.4411, 56.6558
5.512, 37, -9.34077, -2.57751, 30.8488, -154.076, -98.4637, 56.6803
5.516, 37, -9.28074, -2.52171, 30.8783, -154.071, -98.4858, 56.7046
5.52, 37, -9.22044, -2.46614, 30.9074, -154.066, -98.5075, 56.7286
5.524, 37, -9.15989, -2.41082, 30.9362, -154.06, -98.5287, 56.7524
5.528, 37, -9.0991, -2.35578, 30.9646, -154.054, -98.5494, 56.776
5.532, 37, -9.03805, -2.30108, 30.9926, -154.047, -98.5697, 56.7993
5.536, 37, -8.97668, -2.2468, 31.0202, -154.039, -98.5895, 56.8224
5.54, 37, -8.91496, -2.19298, 31.0474, -154.031, -98.6088, 56.8452
5.544, 37, -8.85285, -2.13971, 31.0742, -154.022, -98.6277, 56.8678
5.548, 37, -8.79033, -2.08703, 31.1007, -154.012, -98.6461, 56.89
5.552, 37, -8.72741, -2.03501, 31.1267, -154.002, -98.664, 56.9119
5.556, 37, -8.66411, -1.98369, 31.1525, -153.992, -98.6816, 56.9335
5.56, 38, -8.60044, -1.93311, 31.1779, -153.981, -98.6987, 56.9546
5.564, 38, -8.53641, -1.88332, 31.2029, -153.969, -98.7155, 56.9753
5.568, 38, -8.47204, -1.83437, 31.2277, -153.957, -98.7318, 56.9956
5.572, 38, -8.40732, -1.78632, 31.2521, -153.944, -98.7478, 57.0154
5.576, 38, -8.34227, -1.73922, 31.2761, -153.93, -98.7635, 57.0347
5.58, 38, -8.27691, -1.69315, 31.2999, -153.916, -98.7788, 57.0535
5.584, 38, -8.21126, -1.6482, 31.3233, -153.902, -98.7938, 57.0719
5.588, 38, -8.14535, -1.60448, 31.3463, -153.887, -98.8085, 57.0897
5.592, 38, -8.07918, -1.56209, 31.369, -153.871, -98.8228, 57.1069
5.596, 38, -8.01275, -1.52115, 31.3914, -153.854, -98.8367, 57.1236
5.6, 38, -7.94608, -1.48177, 31.4134, -153.837, -98.8503, 57.1397
5.604, 38, -7.87916, -1.44404, 31.435, -153.82, -98.8634, 57.1553
5.608, 38, -7.81204, -1.40807, 31.4562, -153.801, -98.8761, 57.1702
5.612, 39, -7.74477, -1.37394, 31.477, -153.782, -98.8883, 57.1846
5.616, 39, -7.67744, -1.34173, 31.4974, -153.763, -98.9, 57.1983
5.62, 39, -7.61008, -1.3115, 31.5175, -153.743, -98.9112, 57.2115
5.624, 39, -7.54272, -1.28332, 31.537, -153.722, -98.9218, 57.224
5.628, 39, -7.47535, -1.25724, 31.5562, -153.7, -98.9317, 57.236
5.632, 39, -7.40794, -1.23335, 31.5748, -153.678, -98.9411, 57.2473
5.636, 39, -7.34047, -1.21174, 31.593, -153.655, -98.9498, 57.258
5.64, 39, -7.27292, -1.19255, 31.6107, -153.632, -98.9579, 57.2681
5.644, 39, -7.20528, -1.17595, 31.6279, -153.608, -98.9653, 57.2776
5.648, 39, -7.13761, -1.16211, 31.6444, -153.584, -98.9722, 57.2863
5.652, 39, -7.06995, -1.15118, 31.6603, -153.559, -98.9785, 57.2944
5.656, 39, -7.00239, -1.14329, 31.6755, -153.533, -98.9844, 57.3017
5.66, 39, -6.93499, -1.13854, 31.69, -153.507, -98.9899, 57.3082
5.664, 40, -6.86779, -1.13696, 31.7036, -153.481, -98.9952, 57.3139
5.668, 40, -6.80087, -1.13861, 31.7163, -153.454, -99.0003, 57.3186
5.672, 40, -6.73428, -1.14354, 31.7281, -153.427, -99.0053, 57.3225
5.676, 40, -6.6681, -1.15181, 31.7388, -153.4, -99.0105, 57.3253
5.68, 40, -6.60242, -1.16346, 31.7485, -153.372, -99.0158, 57.3271
5.684, 40, -6.53733, -1.17852, 31.757, -153.343, -99.0214, 57.3279
5.688, 40, -6.47295, -1.197, 31.7644, -153.315, -99.0273, 57.3276
5.692, 40, -6.4094, -1.21889, 31.7705, -153.286, -99.0336, 57.3261
5.696, 40, -6.34679, -1.24419, 31.7754, -153.257, -99.0402, 57.3235
5.7, 40, -6.28517, -1.27287, 31.779, -153.228, -99.0471, 57.3198
5.704, 41, -6.22462, -1.30494, 31.7813, -153.198, -99.0544, 57.3151
5.708, 41, -6.16513, -1.34042, 31.7824, -153.169, -99.0619, 57.3092
5.712, 41, -6.10672, -1.3793, 31.7823, -153.139, -99.0696, 57.3023
5.716, 41, -6.0494, -1.42158, 31.781, -153.109, -99.0775, 57.2943
5.72, 41, -5.99316, -1.46719, 31.7786, -153.079, -99.0853, 57.2854
5.724, 41, -5.93807, -1.51607, 31.7751, -153.049, -99.0932, 57.2755
5.728, 41, -5.88419, -1.56811, 31.7706, -153.02, -99.1009, 57.2646
5.732, 41, -5.83159, -1.62319, 31.765, -152.99, -99.1084, 57.253
5.736, 41, -5.78035, -1.68118, 31.7584, -152.961, -99.1157, 57.2405
5.74, 41, -5.73052, -1.74194, 31.7509, -152.931, -99.1228, 57.2272
5.744, 41, -5.68214, -1.80534, 31.7425, -152.902, -99.1295, 57.2132
5.748, 41, -5.63521, -1.87122, 31.7332, -152.872, -99.1358, 57.1985
5.752, 41, -5.58974, -1.93944, 31.7231, -152.843, -99.1418, 57.183
5.756, 42, -5.5457, -2.00984, 31.7121, -152.814, -99.1473, 57.1668
5.76, 42, -5.5031, -2.08232, 31.7003, -152.785, -99.1523, 57.1499
5.764, 42, -5.46194, -2.15677, 31.6877, -152.757, -99.1568, 57.1323
5.768, 42, -5.42221, -2.23309, 31.6744, -152.728, -99.1608, 57.1139
5.772, 42, -5.38388, -2.31117, 31.6602, -152.699, -99.1641, 57.0948
5.776, 42, -5.34689, -2.39087, 31.6453, -152.671, -99.1669, 57.0748
5.78, 42, -5.31117, -2.47204, 31.6297, -152.643, -99.169, 57.0541
5.784, 42, -5.27667, -2.55452, 31.6134, -152.614, -99.1705, 57.0326
5.788, 42, -5.24333, -2.63813, 31.5964, -152.586, -99.1713, 57.0102
5.792, 42, -5.21109, -2.72272, 31.5788, -152.558, -99.1715, 56.9871
