hehonglu123/Motion-Primitive-Planning/ILC/recorded_data/realrobot/from_NX/iteration_16/run_4.csv
timestamp, cmd_num, J1, J2, J3, J4, J5, J6
0.000478, -1, 39.6299, 32.447, 11.8319, 12.5453, 113.713, -48.8723
0.006615, -1, 39.6299, 32.447, 11.8319, 12.5453, 113.713, -48.8723
0.009332, -1, 39.6299, 32.447, 11.8319, 12.5453, 113.713, -48.8723
0.030937, -1, 39.6299, 32.447, 11.8319, 12.5453, 113.713, -48.8724
0.034987, -1, 39.6299, 32.447, 11.8319, 12.5453, 113.713, -48.8724
0.037058, -1, 39.6299, 32.447, 11.8319, 12.5454, 113.713, -48.8724
0.040397, -1, 39.6299, 32.447, 11.8319, 12.5454, 113.713, -48.8724
0.047172, -1, 39.6299, 32.447, 11.8319, 12.5453, 113.713, -48.8723
0.056277, -1, 39.6297, 32.447, 11.8319, 12.5453, 113.713, -48.8723
0.063178, -1, 39.6285, 32.4468, 11.8319, 12.5453, 113.713, -48.8724
0.194612, -1, 38.4252, 31.8342, 12.066, 12.555, 113.089, -50.467
0.195806, -1, 38.4252, 31.8342, 12.066, 12.555, 113.089, -50.467
0.19772, -1, 38.3399, 31.7895, 12.0853, 12.5562, 113.04, -50.5903
0.199963, -1, 38.3399, 31.7895, 12.0853, 12.5562, 113.04, -50.5903
0.202214, -1, 38.2529, 31.7439, 12.1048, 12.5573, 112.991, -50.7153
0.203486, -1, 38.2529, 31.7439, 12.1048, 12.5573, 112.991, -50.7153
0.204672, -1, 38.2529, 31.7439, 12.1048, 12.5573, 112.991, -50.7153
0.21028, -1, 38.0744, 31.6507, 12.1439, 12.5597, 112.89, -50.9685
0.211645, -1, 38.0744, 31.6507, 12.1439, 12.5597, 112.89, -50.9685
0.214241, -1, 38.0744, 31.6507, 12.1439, 12.5597, 112.89, -50.9685
0.215529, -1, 37.9832, 31.6033, 12.1633, 12.561, 112.84, -51.0965
0.217659, -1, 37.8908, 31.5553, 12.1828, 12.5622, 112.789, -51.2252
0.219067, -1, 37.8908, 31.5553, 12.1828, 12.5622, 112.789, -51.2252
0.220407, -1, 37.8908, 31.5553, 12.1828, 12.5622, 112.789, -51.2252
0.222383, -1, 37.7974, 31.507, 12.2022, 12.5634, 112.738, -51.3543
0.227074, -1, 37.7033, 31.4584, 12.2216, 12.5645, 112.687, -51.4836
0.228271, -1, 37.7033, 31.4584, 12.2216, 12.5645, 112.687, -51.4836
0.230379, -1, 37.6084, 31.4096, 12.2409, 12.5658, 112.636, -51.6133
0.231609, -1, 37.6084, 31.4096, 12.2409, 12.5658, 112.636, -51.6133
0.23283, -1, 37.6084, 31.4096, 12.2409, 12.5658, 112.636, -51.6133
0.234903, -1, 37.513, 31.3607, 12.2603, 12.567, 112.585, -51.7431
0.240249, -1, 37.4173, 31.3118, 12.2797, 12.5682, 112.533, -51.8729
0.248984, -1, 37.2254, 31.2138, 12.3186, 12.5707, 112.431, -52.1325
0.256185, -1, 37.0332, 31.116, 12.3573, 12.5732, 112.328, -52.3923
0.264274, -1, 36.841, 31.0182, 12.3961, 12.5759, 112.225, -52.6525
0.273039, -1, 36.6492, 30.9205, 12.4349, 12.5783, 112.122, -52.913
0.280235, -1, 36.4575, 30.8228, 12.4738, 12.5809, 112.019, -53.1733
0.288176, -1, 36.266, 30.7251, 12.5126, 12.5835, 111.916, -53.4337
0.29519, -1, 36.0745, 30.6273, 12.5515, 12.586, 111.813, -53.6942
0.304173, -1, 35.8829, 30.5293, 12.5905, 12.5887, 111.71, -53.9549
0.311299, -1, 35.6913, 30.4313, 12.6294, 12.5912, 111.607, -54.2152
0.319173, -1, 35.4993, 30.3332, 12.6682, 12.5938, 111.504, -54.4755
0.32754, -1, 35.3071, 30.235, 12.707, 12.5964, 111.401, -54.736
0.335315, -1, 35.1146, 30.1366, 12.7459, 12.599, 111.298, -54.9968
0.343263, -1, 34.9223, 30.0382, 12.7848, 12.6016, 111.195, -55.2575
0.351739, -1, 34.73, 29.9397, 12.8237, 12.6042, 111.092, -55.518
0.360294, -1, 34.5377, 29.8412, 12.8625, 12.6067, 110.989, -55.7789
0.367294, -1, 34.3455, 29.7428, 12.9015, 12.6093, 110.886, -56.0397
0.3758, -1, 34.1535, 29.6444, 12.9404, 12.6119, 110.783, -56.3008
0.384242, -1, 33.9616, 29.5462, 12.9793, 12.6145, 110.68, -56.5615
0.391208, -1, 33.7699, 29.4478, 13.0183, 12.6173, 110.576, -56.8222
0.400245, -1, 33.5781, 29.3495, 13.0571, 12.6198, 110.473, -57.0831
0.407276, -1, 33.3859, 29.2511, 13.0961, 12.6224, 110.37, -57.3442
0.415289, -1, 33.1934, 29.1526, 13.135, 12.6251, 110.267, -57.605
0.424189, -1, 33.0006, 29.054, 13.1738, 12.6277, 110.164, -57.8661
0.431407, -1, 32.8076, 28.9554, 13.2127, 12.6304, 110.061, -58.1272
0.43951, -1, 32.6143, 28.8568, 13.2516, 12.633, 109.958, -58.3887
0.44854, -1, 32.4207, 28.7581, 13.2905, 12.6357, 109.855, -58.6497
0.455653, -1, 32.2268, 28.6594, 13.3294, 12.6384, 109.752, -58.9107
0.464994, -1, 32.0327, 28.5606, 13.3683, 12.6411, 109.649, -59.1717
0.472562, -1, 31.8388, 28.4618, 13.4071, 12.6438, 109.546, -59.4332
0.479728, -1, 31.6452, 28.3631, 13.4462, 12.6465, 109.443, -59.6945
0.489012, -1, 31.4517, 28.2644, 13.4851, 12.6494, 109.34, -59.9556
0.496909, -1, 31.2587, 28.1658, 13.524, 12.6521, 109.237, -60.217
0.504181, -1, 31.0661, 28.0674, 13.5632, 12.655, 109.134, -60.4784
0.511777, -1, 30.9699, 28.0181, 13.5827, 12.6564, 109.082, -60.6092
0.519211, -1, 30.7778, 27.9195, 13.6216, 12.6592, 108.979, -60.8706
0.655075, -1, 27.4936, 26.2401, 14.2842, 12.7032, 107.223, -65.3184
0.656338, -1, 27.4936, 26.2401, 14.2842, 12.7032, 107.223, -65.3184
0.658323, -1, 27.3976, 26.1906, 14.3037, 12.7044, 107.171, -65.4492
0.661129, -1, 27.3976, 26.1906, 14.3232, 12.7056, 107.12, -65.58
0.662567, -1, 27.3016, 26.1411, 14.3232, 12.7056, 107.12, -65.58
0.663773, -1, 27.3016, 26.1411, 14.3232, 12.7056, 107.12, -65.58
0.665798, -1, 27.2055, 26.0916, 14.3427, 12.7067, 107.068, -65.7108
0.668278, -1, 27.2055, 26.0916, 14.3427, 12.7067, 107.068, -65.7108
0.670295, -1, 27.1093, 26.0421, 14.3621, 12.7078, 107.016, -65.8417
0.671673, -1, 27.1093, 26.0421, 14.3621, 12.7078, 107.016, -65.8417
0.673512, -1, 27.013, 25.9926, 14.3816, 12.709, 106.964, -65.9725
0.674947, -1, 27.013, 25.9926, 14.3816, 12.709, 106.964, -65.9725
0.676137, -1, 27.013, 25.9926, 14.3816, 12.709, 106.964, -65.9725
0.678887, -1, 26.9168, 25.9432, 14.401, 12.7102, 106.913, -66.1035
0.680177, -1, 26.9168, 25.9432, 14.401, 12.7102, 106.913, -66.1035
0.68244, -1, 26.8204, 25.8938, 14.4205, 12.7113, 106.861, -66.2345
0.684562, -1, 26.8204, 25.8938, 14.4205, 12.7113, 106.861, -66.2345
0.68657, -1, 26.724, 25.8444, 14.4401, 12.7124, 106.809, -66.3653
0.687868, -1, 26.724, 25.8444, 14.4401, 12.7124, 106.809, -66.3653
0.69005, -1, 26.6274, 25.7949, 14.4595, 12.7136, 106.758, -66.4961
0.691316, -1, 26.6274, 25.7949, 14.4595, 12.7136, 106.758, -66.4961
0.695155, -1, 26.5306, 25.7455, 14.479, 12.7147, 106.706, -66.6269
0.703172, -1, 26.3369, 25.6467, 14.5178, 12.717, 106.603, -66.8886
0.711226, -1, 26.1429, 25.5479, 14.5569, 12.7192, 106.5, -67.1505
0.719143, -1, 25.9488, 25.449, 14.5958, 12.7215, 106.397, -67.4125
0.727164, -1, 25.7544, 25.3501, 14.6347, 12.7238, 106.294, -67.674
0.735222, -1, 25.5604, 25.2514, 14.6737, 12.7261, 106.19, -67.9355
0.743185, -1, 25.3665, 25.1527, 14.7127, 12.7284, 106.087, -68.1972
0.751166, -1, 25.1729, 25.054, 14.7516, 12.7307, 105.984, -68.4591
0.759219, -1, 24.9795, 24.9552, 14.7907, 12.733, 105.881, -68.7207
0.767154, -1, 24.7864, 24.8563, 14.8297, 12.7354, 105.777, -68.9824
0.775166, -1, 24.5937, 24.7575, 14.8686, 12.7378, 105.674, -69.2442
0.783337, -1, 24.4014, 24.6586, 14.9076, 12.7401, 105.571, -69.5061
0.791157, -1, 24.2089, 24.5597, 14.9466, 12.7426, 105.468, -69.7676
0.799229, -1, 24.0163, 24.4609, 14.9856, 12.7449, 105.364, -70.029
0.80718, -1, 23.8234, 24.362, 15.0245, 12.7473, 105.261, -70.2906
0.81617, -1, 23.6305, 24.2632, 15.0634, 12.7497, 105.157, -70.5523
0.823424, -1, 23.4372, 24.1643, 15.1024, 12.7521, 105.054, -70.8141
0.831193, -1, 23.2436, 24.0654, 15.1413, 12.7545, 104.951, -71.0757
0.839292, -1, 23.0497, 23.9665, 15.1801, 12.7569, 104.847, -71.3376
0.847573, -1, 22.8557, 23.8676, 15.2191, 12.7593, 104.744, -71.5994
0.855255, -1, 22.6617, 23.7689, 15.2581, 12.7618, 104.64, -71.8612
0.863269, -1, 22.468, 23.6702, 15.297, 12.7643, 104.537, -72.1227
0.871732, -1, 22.2745, 23.5715, 15.336, 12.7667, 104.434, -72.384
0.879213, -1, 22.0814, 23.4728, 15.3749, 12.7694, 104.33, -72.6455
0.887153, -1, 21.8883, 23.3741, 15.4139, 12.772, 104.227, -72.9072
0.89595, -1, 21.6959, 23.2754, 15.4529, 12.7747, 104.124, -73.1685
0.904352, -1, 21.5037, 23.1766, 15.4918, 12.7773, 104.021, -73.4299
0.911248, -1, 21.3114, 23.0779, 15.5308, 12.7799, 103.918, -73.6915
0.920025, -1, 21.119, 22.9792, 15.5698, 12.7826, 103.815, -73.9531
0.928237, -1, 20.9267, 22.8806, 15.6086, 12.7853, 103.711, -74.2143
0.935415, -1, 20.7342, 22.782, 15.6476, 12.788, 103.608, -74.4755
0.94437, -1, 20.5416, 22.6834, 15.6865, 12.7907, 103.505, -74.7367
0.951625, -1, 20.3484, 22.5848, 15.7253, 12.7935, 103.402, -74.9982
0.959683, -1, 20.1547, 22.486, 15.7643, 12.7962, 103.299, -75.2594
0.968344, -1, 19.9611, 22.3873, 15.8032, 12.7989, 103.196, -75.5203
0.97573, -1, 19.7673, 22.2886, 15.8419, 12.8016, 103.093, -75.7815
0.984274, -1, 19.5737, 22.1899, 15.8808, 12.8044, 102.99, -76.0427
0.991735, -1, 19.3804, 22.0913, 15.9197, 12.8072, 102.887, -76.3041
1.00031, -1, 19.1874, 21.9927, 15.9585, 12.8099, 102.784, -76.5649
1.00788, -1, 19.0909, 21.894, 15.9974, 12.8127, 102.681, -76.8257
1.01631, -1, 18.8021, 21.7953, 16.0362, 12.8154, 102.578, -77.0867
1.02315, -1, 18.706, 21.746, 16.0556, 12.8167, 102.527, -77.2172
1.03232, -1, 18.4182, 21.598, 16.1139, 12.8207, 102.372, -77.6084
1.03915, -1, 18.3223, 21.5487, 16.1334, 12.8221, 102.321, -77.7387
1.04842, -1, 18.0345, 21.401, 16.1915, 12.8259, 102.167, -78.1299
1.05515, -1, 17.9385, 21.3518, 16.211, 12.8272, 102.115, -78.2603
1.06446, -1, 17.6507, 21.2043, 16.2693, 12.831, 101.961, -78.6513
1.07115, -1, 17.5545, 21.1552, 16.2887, 12.8323, 101.909, -78.7816
1.08066, -1, 17.2654, 21.0077, 16.347, 12.8359, 101.755, -79.1723
1.08862, -1, 17.0723, 20.9094, 16.3857, 12.8383, 101.652, -79.433
1.09515, -1, 16.9758, 20.8603, 16.4051, 12.8396, 101.6, -79.5633
1.10475, -1, 16.6861, 20.713, 16.4633, 12.843, 101.446, -79.9538
1.11279, -1, 16.4931, 20.6148, 16.502, 12.8454, 101.344, -80.2144
1.12091, -1, 16.3002, 20.5165, 16.5407, 12.8477, 101.241, -80.4751
1.12876, -1, 16.204, 20.4673, 16.5601, 12.8489, 101.138, -80.7356
1.13615, -1, 16.0119, 20.3689, 16.5988, 12.8513, 101.087, -80.8656
1.14421, -1, 15.8201, 20.2704, 16.6375, 12.8535, 100.984, -81.1257
1.15215, -1, 15.6285, 20.1719, 16.6762, 12.8558, 100.882, -81.3857
1.16015, -1, 15.4373, 20.0735, 16.7148, 12.8581, 100.779, -81.6459
1.1682, -1, 15.2462, 19.9753, 16.7535, 12.8605, 100.677, -81.906
1.17615, -1, 15.0551, 19.877, 16.7923, 12.8627, 100.574, -82.1657
1.18418, -1, 14.8639, 19.7789, 16.8309, 12.865, 100.472, -82.4255
1.19215, -1, 14.6725, 19.6808, 16.8697, 12.8673, 100.369, -82.6856
1.20015, -1, 14.4808, 19.5827, 16.9083, 12.8696, 100.266, -82.9456
1.20819, -1, 14.2887, 19.4846, 16.947, 12.8719, 100.164, -83.2053
1.21615, -1, 14.0964, 19.3866, 16.9857, 12.8741, 100.061, -83.4646
1.22322, -1, 13.904, 19.2887, 17.0243, 12.8764, 99.9585, -83.7243
1.23114, -1, 13.7115, 19.1909, 17.0629, 12.8787, 99.8562, -83.9841
1.23916, -1, 13.5191, 19.093, 17.1017, 12.881, 99.7536, -84.2434
1.24724, -1, 13.3269, 18.9951, 17.1402, 12.8833, 99.6511, -84.5027
1.25514, -1, 13.1351, 18.8972, 17.1787, 12.8857, 99.549, -84.7619
1.26315, -1, 12.9437, 18.7992, 17.2174, 12.8881, 99.4465, -85.0214
1.27121, -1, 12.7526, 18.7012, 17.256, 12.8904, 99.3441, -85.2806
1.27915, -1, 12.5618, 18.6033, 17.2945, 12.8928, 99.2419, -85.5395
1.28752, -1, 12.3714, 18.5056, 17.3331, 12.8952, 99.1396, -85.7982
1.29514, -1, 12.1813, 18.4078, 17.3716, 12.8976, 99.0374, -86.0573
1.30316, -1, 11.9911, 18.3102, 17.4101, 12.9, 98.9354, -86.3162
1.31252, -1, 11.8006, 18.2126, 17.4488, 12.9024, 98.8334, -86.5749
1.32014, -1, 11.61, 18.1149, 17.4873, 12.9049, 98.7316, -86.8335
1.32722, -1, 11.419, 18.0173, 17.5259, 12.9073, 98.6296, -87.0922
1.33518, -1, 11.2279, 17.9198, 17.5645, 12.9097, 98.5276, -87.3508
1.34417, -1, 11.0365, 17.8223, 17.603, 12.9122, 98.4258, -87.609
1.35123, -1, 10.8449, 17.7248, 17.6415, 12.9147, 98.3238, -87.8673
1.35925, -1, 10.6532, 17.6274, 17.6799, 12.9172, 98.2218, -88.1255
1.36814, -1, 10.4618, 17.5298, 17.7183, 12.9197, 98.1202, -88.384
1.37523, -1, 10.2706, 17.4323, 17.7568, 12.9222, 98.0182, -88.642
1.38314, -1, 10.0797, 17.3347, 17.7952, 12.9248, 97.9163, -88.9
1.39121, -1, 9.88936, 17.2371, 17.8335, 12.9275, 97.8146, -89.1581
1.39918, -1, 9.69921, 17.1396, 17.8719, 12.9301, 97.7125, -89.4163
1.40721, -1, 9.50958, 17.0422, 17.9102, 12.9329, 97.6105, -89.6743
1.4155, -1, 9.32029, 16.9448, 17.9485, 12.9356, 97.5088, -89.9318
1.42327, -1, 9.13095, 16.8475, 17.987, 12.9383, 97.4069, -90.1893
1.43146, -1, 8.94166, 16.7503, 18.0252, 12.9409, 97.3051, -90.4469
1.43941, -1, 8.75212, 16.6531, 18.0636, 12.9436, 97.2034, -90.7045
1.44747, -1, 8.56253, 16.556, 18.1021, 12.9462, 97.1018, -90.9617
1.45566, -1, 8.37282, 16.4589, 18.1404, 12.9489, 97.0003, -91.2188
1.46372, -1, 8.18254, 16.3619, 18.1787, 12.9516, 96.8988, -91.4761
1.47222, -1, 7.992, 16.265, 18.2171, 12.9543, 96.7971, -91.7333
1.47975, -1, 7.80146, 16.1681, 18.2553, 12.957, 96.6957, -91.9903
1.48767, -1, 7.61086, 16.0712, 18.2935, 12.9595, 96.5942, -92.2469
1.49625, -1, 7.42044, 15.9743, 18.3319, 12.962, 96.4927, -92.5037
1.50379, -1, 7.3253, 15.8773, 18.37, 12.9647, 96.3916, -92.7606
1.512, -1, 7.13533, 15.8288, 18.3891, 12.9659, 96.3409, -93.0172
1.51914, -1, 6.94566, 15.7318, 18.4274, 12.9685, 96.2395, -93.1454
1.52901, -1, 6.6621, 15.5865, 18.4846, 12.9723, 96.0883, -93.5299
1.53513, -1, 6.56781, 15.5381, 18.5036, 12.9735, 96.0378, -93.6581
1.54424, -1, 6.2854, 15.393, 18.5608, 12.9774, 95.886, -94.0428
1.55118, -1, 6.19136, 15.3446, 18.5799, 12.9786, 95.8356, -94.1708
1.55913, -1, 6.00324, 15.248, 18.618, 12.981, 95.7347, -94.4267
1.56842, -1, 5.72067, 15.1029, 18.6753, 12.9845, 95.5833, -94.8105
1.57515, -1, 5.62645, 15.0546, 18.6943, 12.9857, 95.533, -94.9386
1.58458, -1, 5.34348, 14.9098, 18.7514, 12.9892, 95.3818, -95.3222
1.59261, -1, 5.15426, 14.8133, 18.7896, 12.9914, 95.2811, -95.5776
1.59914, -1, 5.05955, 14.7652, 18.8086, 12.9925, 95.2309, -95.7054
1.60892, -1, 4.7755, 14.6206, 18.8656, 12.9959, 95.0797, -96.0884
1.61676, -1, 4.58607, 14.5242, 18.9036, 12.9981, 94.9789, -96.3437
1.62605, -1, 4.39685, 14.4279, 18.9417, 13.0004, 94.8782, -96.5986
1.63118, -1, 4.30234, 14.3797, 18.9606, 13.0015, 94.8278, -96.7261
1.64013, -1, 4.11348, 14.2832, 18.9986, 13.0037, 94.7269, -96.9811
1.64819, -1, 3.92505, 14.1869, 19.0365, 13.0061, 94.6262, -97.2362
1.65512, -1, 3.73723, 14.0907, 19.0745, 13.0082, 94.5254, -97.491
1.6632, -1, 3.54988, 13.9945, 19.1125, 13.0105, 94.4246, -97.7458
1.67112, -1, 3.36295, 13.8985, 19.1503, 13.0128, 94.3242, -98.0005
1.67919, -1, 3.17598, 13.8024, 19.1881, 13.0151, 94.2234, -98.2554
1.68718, -1, 2.98904, 13.7064, 19.226, 13.0173, 94.1226, -98.51
1.69514, -1, 2.80209, 13.6104, 19.2639, 13.0196, 94.0222, -98.7642
1.70313, -1, 2.61489, 13.5144, 19.3018, 13.0218, 93.9216, -99.0184
1.71119, -1, 2.42752, 13.4184, 19.3397, 13.0241, 93.8212, -99.2725
1.71913, -1, 2.23985, 13.3226, 19.3774, 13.0264, 93.7209, -99.5268
1.72712, -1, 2.05179, 13.2268, 19.4153, 13.0286, 93.6206, -99.7805
1.7352, -1, 1.86373, 13.1309, 19.4532, 13.0308, 93.5206, -100.034
1.74313, -1, 1.6756, 13.0351, 19.4908, 13.0331, 93.4206, -100.288
1.75115, -1, 1.4873, 12.9393, 19.5287, 13.0353, 93.3204, -100.541
1.75919, -1, 1.29937, 12.8434, 19.5665, 13.0377, 93.2205, -100.795
1.76712, -1, 1.11169, 12.7476, 19.6042, 13.04, 93.1205, -101.048
1.77514, -1, 0.92456, 12.652, 19.6419, 13.0424, 93.0205, -101.301
1.78319, -1, 0.738079, 12.5564, 19.6796, 13.0447, 92.9207, -101.554
1.79112, -1, 0.552035, 12.4608, 19.7172, 13.0472, 92.821, -101.807
1.79912, -1, 0.366244, 12.3655, 19.7549, 13.0496, 92.7211, -102.06
1.80721, -1, 0.180713, 12.2701, 19.7925, 13.0521, 92.6217, -102.312
1.81512, -1, -0.00464312, 12.1748, 19.8301, 13.0546, 92.5221, -102.565
1.82319, -1, -0.190222, 12.0795, 19.8677, 13.0569, 92.4225, -102.818
1.83117, -1, -0.376021, 11.9843, 19.9054, 13.0594, 92.3232, -103.07
1.83918, -1, -0.562074, 11.8892, 19.9429, 13.0619, 92.2237, -103.322
1.84732, -1, -0.748393, 11.7942, 19.9805, 13.0643, 92.1242, -103.574
1.85522, -1, -0.934912, 11.6992, 20.018, 13.0669, 92.0249, -103.826
1.86325, -1, -1.12162, 11.6041, 20.0554, 13.0694, 91.9255, -104.078
1.8713, -1, -1.30863, 11.5091, 20.093, 13.0719, 91.8261, -104.33
1.87922, -1, -1.49551, 11.414, 20.1305, 13.0744, 91.7271, -104.581
1.88712, -1, -1.6821, 11.3188, 20.1679, 13.077, 91.6278, -104.833
1.89527, -1, -1.86833, 11.2238, 20.2053, 13.0795, 91.5285, -105.084
1.90315, -1, -2.05412, 11.1288, 20.2428, 13.0822, 91.4295, -105.335
1.91123, -1, -2.23921, 11.0339, 20.2802, 13.0849, 91.3302, -105.586
1.91937, -1, -2.42405, 10.9391, 20.3176, 13.0875, 91.231, -105.837
1.92732, -1, -2.60854, 10.8443, 20.3549, 13.0902, 91.1321, -106.088
1.93547, -1, -2.79247, 10.7495, 20.3921, 13.0929, 91.033, -106.339
1.94343, -1, -2.9764, 10.6548, 20.4296, 13.0955, 90.9339, -106.59
1.95147, -1, -3.16045, 10.5601, 20.4669, 13.098, 90.8352, -106.84
1.95967, -1, -3.34473, 10.4656, 20.5041, 13.1007, 90.7362, -107.091
1.96827, -1, -3.52941, 10.3711, 20.5414, 13.1032, 90.6373, -107.342
1.97564, -1, -3.71418, 10.2768, 20.5787, 13.1057, 90.5386, -107.592
1.98422, -1, -3.89926, 10.1824, 20.616, 13.1082, 90.4397, -107.842
1.99191, -1, -4.08451, 10.0881, 20.6532, 13.1106, 90.3411, -108.092
2.00023, -1, -4.27002, 9.99379, 20.6904, 13.1131, 90.2426, -108.342
2.00781, -1, -4.36288, 9.89942, 20.7276, 13.1154, 90.1438, -108.592
2.01624, -1, -4.64093, 9.80511, 20.7649, 13.1177, 90.0453, -108.841
2.02316, -1, -4.73344, 9.75801, 20.7835, 13.1189, 89.9961, -108.966
2.03224, -1, -5.0104, 9.61678, 20.8391, 13.1225, 89.8484, -109.34
2.03913, -1, -5.10237, 9.56975, 20.8577, 13.1237, 89.7991, -109.465
2.04825, -1, -5.37752, 9.42865, 20.9134, 13.1272, 89.6517, -109.838
2.05512, -1, -5.46906, 9.38172, 20.9319, 13.1284, 89.6025, -109.963
2.06443, -1, -5.743, 9.24081, 20.9876, 13.1317, 89.455, -110.336
2.07116, -1, -5.83419, 9.19383, 21.0062, 13.1329, 89.4061, -110.46
2.08066, -1, -6.10774, 9.05308, 21.0616, 13.1364, 89.2588, -110.833
2.08863, -1, -6.29043, 8.95929, 21.0987, 13.1386, 89.1608, -111.082
2.09662, -1, -6.47343, 8.86564, 21.1356, 13.1408, 89.0631, -111.33
2.10474, -1, -6.65655, 8.77198, 21.1724, 13.1429, 88.965, -111.578
2.11273, -1, -6.84007, 8.67839, 21.2094, 13.1451, 88.867, -111.826
2.12075, -1, -7.02397, 8.58479, 21.2463, 13.1472, 88.7693, -112.074
2.12877, -1, -7.20816, 8.4912, 21.2831, 13.1493, 88.6714, -112.322
2.13692, -1, -7.3003, 8.4444, 21.3201, 13.1514, 88.5735, -112.569
2.14412, -1, -7.48423, 8.35074, 21.3385, 13.1525, 88.5248, -112.693
2.15218, -1, -7.66789, 8.2572, 21.3753, 13.1547, 88.4271, -112.941
2.16012, -1, -7.85119, 8.16375, 21.412, 13.1569, 88.3297, -113.188
2.16812, -1, -8.03409, 8.07034, 21.4489, 13.1592, 88.2324, -113.435
2.17617, -1, -8.2163, 7.97703, 21.4857, 13.1614, 88.135, -113.682
2.18426, -1, -8.39787, 7.88374, 21.5224, 13.1636, 88.0375, -113.929
2.1912, -1, -8.57907, 7.79049, 21.5593, 13.1658, 87.9402, -114.176
2.19911, -1, -8.75996, 7.69732, 21.5961, 13.1681, 87.8428, -114.423
2.20719, -1, -8.94065, 7.60417, 21.6328, 13.1703, 87.7452, -114.669
2.2151, -1, -9.12155, 7.51107, 21.6696, 13.1726, 87.6482, -114.915
2.22312, -1, -9.30265, 7.41817, 21.7063, 13.1749, 87.551, -115.162
2.23119, -1, -9.48412, 7.32538, 21.7429, 13.177, 87.4538, -115.408
2.2391, -1, -9.66596, 7.23252, 21.7796, 13.1792, 87.3569, -115.654
2.24716, -1, -9.84804, 7.13977, 21.8162, 13.1815, 87.2595, -115.9
2.2552, -1, -10.0305, 7.04704, 21.8528, 13.1837, 87.1623, -116.146
2.26312, -1, -10.2131, 6.9543, 21.8894, 13.186, 87.0654, -116.392
2.27111, -1, -10.3957, 6.86154, 21.926, 13.1882, 86.968, -116.638
2.28012, -1, -10.5782, 6.76878, 21.9625, 13.1904, 86.8709, -116.883
2.28711, -1, -10.7602, 6.67612, 21.9991, 13.1928, 86.7741, -117.129
2.29512, -1, -10.9418, 6.58352, 22.0354, 13.1952, 86.6771, -117.374
2.30332, -1, -11.1226, 6.49096, 22.0719, 13.1975, 86.5803, -117.619
2.31112, -1, -11.3028, 6.39849, 22.1085, 13.1999, 86.4838, -117.864
2.31923, -1, -11.4826, 6.30601, 22.1449, 13.2024, 86.387, -118.109
2.3279, -1, -11.662, 6.2136, 22.1813, 13.2048, 86.2903, -118.354
2.33611, -1, -11.8413, 6.12124, 22.2178, 13.2072, 86.1938, -118.598
2.34345, -1, -12.0205, 6.029, 22.2542, 13.2097, 86.0971, -118.842
2.35207, -1, -12.1998, 5.93682, 22.2906, 13.2122, 86.0006, -119.086
2.36011, -1, -12.3796, 5.8448, 22.3271, 13.2147, 85.9044, -119.331
2.36745, -1, -12.5596, 5.75278, 22.3633, 13.2172, 85.808, -119.575
2.37521, -1, -12.7401, 5.66076, 22.3995, 13.2196, 85.7117, -119.819
2.38326, -1, -12.921, 5.56885, 22.4359, 13.222, 85.6159, -120.062
2.39177, -1, -13.1021, 5.47693, 22.4721, 13.2245, 85.5198, -120.306
2.40018, -1, -13.2833, 5.3849, 22.5083, 13.2269, 85.4238, -120.55
2.40714, -1, -13.4643, 5.29295, 22.5447, 13.2294, 85.3281, -120.793
2.41525, -1, -13.6449, 5.20104, 22.5808, 13.232, 85.2323, -121.036
2.42461, -1, -13.8251, 5.1092, 22.6169, 13.2345, 85.1365, -121.279
2.43167, -1, -14.0047, 5.01741, 22.6532, 13.2371, 85.0408, -121.522
2.43947, -1, -14.1834, 4.92571, 22.6893, 13.2397, 84.9452, -121.765
2.44741, -1, -14.3617, 4.83404, 22.7253, 13.2423, 84.8496, -122.008
2.45558, -1, -14.5396, 4.74241, 22.7616, 13.2448, 84.7541, -122.25
2.46423, -1, -14.7173, 4.65082, 22.7978, 13.2474, 84.6585, -122.493
2.47156, -1, -14.8949, 4.55932, 22.8339, 13.2498, 84.5627, -122.735
2.48002, -1, -15.0727, 4.46786, 22.8701, 13.2523, 84.467, -122.978
2.48827, -1, -15.2507, 4.3766, 22.9062, 13.2547, 84.3714, -123.22
2.49569, -1, -15.4292, 4.28527, 22.9422, 13.2571, 84.2757, -123.461
2.50385, -1, -15.6081, 4.19395, 22.9783, 13.2594, 84.1801, -123.703
2.51228, -1, -15.7873, 4.10269, 23.0143, 13.2617, 84.0846, -123.945
2.51964, -1, -15.8768, 4.0571, 23.0322, 13.2628, 84.0369, -124.066
2.52821, -1, -16.1461, 3.9202, 23.0862, 13.2661, 83.8939, -124.428
2.53509, -1, -16.236, 3.87455, 23.1043, 13.2672, 83.8463, -124.549
2.54511, -1, -16.5052, 3.73776, 23.158, 13.2704, 83.703, -124.911
2.55115, -1, -16.5948, 3.6922, 23.1759, 13.2715, 83.6553, -125.032
2.56039, -1, -16.8626, 3.55555, 23.2298, 13.2749, 83.5122, -125.393
2.5671, -1, -16.9515, 3.51003, 23.2477, 13.276, 83.4645, -125.514
2.5751, -1, -17.1287, 3.41902, 23.2835, 13.2782, 83.3692, -125.754
2.58454, -1, -17.3935, 3.28269, 23.3373, 13.2816, 83.2266, -126.115
2.59257, -1, -17.5698, 3.19182, 23.373, 13.2837, 83.1314, -126.356
2.59911, -1, -17.6579, 3.14648, 23.3909, 13.2848, 83.084, -126.476
2.60863, -1, -17.9219, 3.01055, 23.4449, 13.2879, 82.9419, -126.836
2.61665, -1, -18.0982, 2.92005, 23.4806, 13.29, 82.8469, -127.076
2.62316, -1, -18.1864, 2.87487, 23.4984, 13.2912, 82.7996, -127.197
2.6311, -1, -18.3631, 2.78441, 23.5342, 13.2932, 82.705, -127.436
2.64061, -1, -18.5404, 2.69402, 23.5699, 13.2953, 82.6103, -127.676
2.6487, -1, -18.718, 2.60363, 23.6055, 13.2973, 82.5157, -127.916
2.6561, -1, -18.8958, 2.51327, 23.6412, 13.2993, 82.4213, -128.155
2.66411, -1, -19.074, 2.42278, 23.6769, 13.3013, 82.3268, -128.395
2.67109, -1, -19.2523, 2.33237, 23.7124, 13.3033, 82.2324, -128.634
2.67911, -1, -19.4302, 2.24202, 23.7481, 13.3054, 82.1384, -128.873
2.68815, -1, -19.6075, 2.15165, 23.7837, 13.3075, 82.0442, -129.112
2.69611, -1, -19.7844, 2.06128, 23.8191, 13.3097, 81.95, -129.351
2.70411, -1, -19.9606, 1.97105, 23.8546, 13.3118, 81.8559, -129.59
2.71515, -1, -20.2234, 1.83575, 23.9079, 13.3152, 81.7148, -129.948
2.7191, -1, -20.3109, 1.79069, 23.9256, 13.3162, 81.6678, -130.067
2.72716, -1, -20.4857, 1.70057, 23.9611, 13.3185, 81.5738, -130.305
2.73509, -1, -20.6602, 1.61056, 23.9968, 13.3207, 81.4801, -130.544
2.74317, -1, -20.8347, 1.52065, 24.0321, 13.3228, 81.386, -130.782
2.75131, -1, -21.0095, 1.43084, 24.0676, 13.325, 81.2923, -131.02
2.75909, -1, -21.1847, 1.34111, 24.1032, 13.3272, 81.1988, -131.258
2.7671, -1, -21.3602, 1.25136, 24.1385, 13.3294, 81.1048, -131.496
2.77516, -1, -21.5361, 1.16171, 24.1738, 13.3315, 81.0109, -131.734
2.78315, -1, -21.7122, 1.07208, 24.2093, 13.3337, 80.9172, -131.971
2.79116, -1, -21.8885, 0.982416, 24.2447, 13.3359, 80.8233, -132.208
2.79908, -1, -22.065, 0.892831, 24.2801, 13.3381, 80.7295, -132.445
2.80709, -1, -22.2415, 0.803311, 24.3155, 13.3402, 80.6361, -132.683
2.8161, -1, -22.4178, 0.713804, 24.3508, 13.3424, 80.5423, -132.92
2.82417, -1, -22.5936, 0.624269, 24.3859, 13.3448, 80.4487, -133.157
2.83109, -1, -22.769, 0.53483, 24.4212, 13.3472, 80.3553, -133.393
2.84011, -1, -22.9435, 0.445417, 24.4565, 13.3496, 80.2616, -133.63
2.84818, -1, -23.1172, 0.355977, 24.4916, 13.352, 80.1681, -133.867
2.8552, -1, -23.2907, 0.266618, 24.5267, 13.3544, 80.0747, -134.104
2.86331, -1, -23.4638, 0.177328, 24.5619, 13.3568, 79.9811, -134.34
2.87119, -1, -23.6369, 0.0881816, 24.5971, 13.3592, 79.8879, -134.576
2.8792, -1, -23.8103, -0.000926569, 24.6323, 13.3616, 79.7948, -134.812
2.88726, -1, -23.9838, -0.0899159, 24.6674, 13.3641, 79.7015, -135.048
2.8951, -1, -24.1574, -0.178889, 24.7024, 13.3666, 79.6084, -135.284
2.90319, -1, -24.3314, -0.267877, 24.7376, 13.3691, 79.5155, -135.52
2.91123, -1, -24.5057, -0.356742, 24.7728, 13.3715, 79.4223, -135.755
2.91919, -1, -24.6803, -0.445652, 24.8078, 13.3739, 79.3293, -135.991
2.92724, -1, -24.8552, -0.53454, 24.8428, 13.3763, 79.2362, -136.227
2.93542, -1, -25.0303, -0.623359, 24.8779, 13.3787, 79.1433, -136.462
2.94342, -1, -25.2052, -0.712198, 24.9129, 13.3809, 79.0503, -136.697
2.9514, -1, -25.3798, -0.800936, 24.9479, 13.3833, 78.9576, -136.932
2.95962, -1, -25.5538, -0.889764, 24.9829, 13.3858, 78.865, -137.167
2.96823, -1, -25.7274, -0.978472, 25.0177, 13.3883, 78.7722, -137.402
2.97559, -1, -25.9002, -1.06715, 25.0525, 13.3907, 78.6796, -137.636
2.98425, -1, -26.0728, -1.15587, 25.0876, 13.3932, 78.5874, -137.871
2.99164, -1, -26.2449, -1.24451, 25.1225, 13.3956, 78.4946, -138.106
3.0002, -1, -26.4166, -1.33303, 25.1573, 13.398, 78.402, -138.34
3.00774, -1, -26.5025, -1.37726, 25.1922, 13.4003, 78.3098, -138.575
3.0161, -1, -26.7605, -1.50982, 25.2272, 13.4025, 78.2171, -138.809
3.02387, -1, -26.8466, -1.55394, 25.262, 13.4047, 78.1248, -139.042
3.03221, -1, -27.1053, -1.68619, 25.2968, 13.407, 78.0327, -139.276
3.03908, -1, -27.1915, -1.73033, 25.3143, 13.4081, 77.9866, -139.393
3.04822, -1, -27.4507, -1.86255, 25.3664, 13.4113, 77.8485, -139.744
3.05509, -1, -27.5373, -1.90658, 25.3838, 13.4124, 77.8024, -139.861
3.06435, -1, -27.7971, -2.03887, 25.4361, 13.4155, 77.6644, -140.211
3.07113, -1, -27.8837, -2.08289, 25.4534, 13.4166, 77.6184, -140.328
3.08057, -1, -28.1437, -2.21494, 25.5055, 13.4197, 77.4804, -140.678
3.08712, -1, -28.2302, -2.25893, 25.5229, 13.4207, 77.4345, -140.794
3.09657, -1, -28.4896, -2.39101, 25.575, 13.4238, 77.2962, -141.144
3.10317, -1, -28.5758, -2.435, 25.5923, 13.4248, 77.2501, -141.26
3.11262, -1, -28.8337, -2.567, 25.6443, 13.428, 77.1122, -141.61
3.12068, -1, -29.0047, -2.65498, 25.679, 13.4302, 77.0203, -141.843
3.12909, -1, -29.1753, -2.74287, 25.7135, 13.4324, 76.9284, -142.075
3.13515, -1, -29.2606, -2.78678, 25.7308, 13.4334, 76.8826, -142.191
3.14469, -1, -29.4313, -2.8746, 25.7655, 13.4355, 76.7448, -142.54
3.1521, -1, -29.6021, -2.96223, 25.8001, 13.4376, 76.6989, -142.656
3.16009, -1, -29.7731, -3.04981, 25.8346, 13.4395, 76.6071, -142.889
3.16814, -1, -29.9441, -3.13736, 25.8692, 13.4417, 76.5152, -143.121
3.17608, -1, -30.1151, -3.22483, 25.9038, 13.4438, 76.4235, -143.353
3.18321, -1, -30.2861, -3.31235, 25.9383, 13.4458, 76.3318, -143.584
3.19122, -1, -30.4574, -3.39973, 25.9729, 13.4478, 76.2404, -143.816
3.19909, -1, -30.6291, -3.48725, 26.0074, 13.4498, 76.1488, -144.048
3.20815, -1, -30.8009, -3.57468, 26.0419, 13.4519, 76.0574, -144.28
3.21608, -1, -30.9727, -3.66202, 26.0764, 13.4539, 75.9662, -144.511
3.2241, -1, -31.1445, -3.74939, 26.111, 13.4559, 75.8746, -144.742
3.23108, -1, -31.316, -3.83669, 26.1454, 13.458, 75.7832, -144.974
3.23908, -1, -31.4871, -3.92401, 26.1798, 13.4601, 75.6922, -145.205
3.24811, -1, -31.6578, -4.01125, 26.2143, 13.4623, 75.6007, -145.436
3.25513, -1, -31.828, -4.09853, 26.2487, 13.4644, 75.5095, -145.667
3.26315, -1, -31.9979, -4.18582, 26.283, 13.4667, 75.4186, -145.898
3.27187, -1, -32.1674, -4.27295, 26.3175, 13.4689, 75.3274, -146.129
3.28015, -1, -32.3367, -4.36004, 26.3518, 13.471, 75.2364, -146.359
3.2881, -1, -32.5064, -4.44706, 26.3861, 13.4732, 75.1456, -146.59
3.2959, -1, -32.6761, -4.53397, 26.4205, 13.4753, 75.0546, -146.82
3.30415, -1, -32.8456, -4.62087, 26.4549, 13.4775, 74.9638, -147.051
3.31108, -1, -33.0153, -4.70776, 26.489, 13.4797, 74.8731, -147.281
3.3201, -1, -33.185, -4.79467, 26.5233, 13.4818, 74.7827, -147.511
3.3271, -1, -33.3549, -4.88149, 26.5577, 13.4841, 74.6919, -147.741
3.33516, -1, -33.5251, -4.9684, 26.5919, 13.4863, 74.6013, -147.971
3.34399, -1, -33.6954, -5.05528, 26.6261, 13.4885, 74.5109, -148.201
3.35208, -1, -33.8656, -5.14204, 26.6604, 13.4908, 74.4202, -148.431
3.35926, -1, -34.0359, -5.22877, 26.6945, 13.493, 74.3297, -148.66
3.3686, -1, -34.2061, -5.31552, 26.7286, 13.4952, 74.2394, -148.89
3.37518, -1, -34.3762, -5.40216, 26.7629, 13.4975, 74.1486, -149.119
3.38332, -1, -34.546, -5.4888, 26.797, 13.4998, 74.058, -149.348
3.39109, -1, -34.7153, -5.57551, 26.8311, 13.5022, 73.9676, -149.578
3.40008, -1, -34.884, -5.66209, 26.8653, 13.5046, 73.8769, -149.807
3.40718, -1, -35.0525, -5.74863, 26.8994, 13.5071, 73.7865, -150.036
3.41512, -1, -35.2207, -5.83514, 26.9335, 13.5095, 73.6962, -150.265
3.42331, -1, -35.3891, -5.92151, 26.9676, 13.5119, 73.6059, -150.494
3.43129, -1, -35.5576, -6.00773, 27.0018, 13.5143, 73.5155, -150.723
3.43926, -1, -35.7261, -6.09397, 27.0357, 13.5166, 73.4252, -150.951
3.44808, -1, -35.8946, -6.18015, 27.0698, 13.519, 73.335, -151.18
3.45538, -1, -36.0631, -6.2663, 27.1039, 13.5214, 73.2444, -151.408
3.46345, -1, -36.2316, -6.3524, 27.1378, 13.5238, 73.154, -151.637
3.47165, -1, -36.4002, -6.43862, 27.1718, 13.5262, 73.0638, -151.865
3.48023, -1, -36.5691, -6.52486, 27.2058, 13.5286, 72.9733, -152.094
3.48761, -1, -36.738, -6.61105, 27.2397, 13.5308, 72.8831, -152.322
3.49618, -1, -36.9069, -6.69722, 27.2736, 13.5332, 72.7931, -152.55
3.50373, -1, -37.076, -6.78339, 27.3075, 13.5354, 72.703, -152.778
3.51218, -1, -37.2448, -6.86951, 27.3414, 13.5377, 72.613, -153.006
3.52009, -1, -37.4133, -6.95552, 27.3753, 13.54, 72.5232, -153.233
3.52707, -1, -37.4974, -6.99854, 27.3922, 13.5411, 72.4783, -153.347
3.53612, -1, -37.7492, -7.12762, 27.4432, 13.5445, 72.3434, -153.688
3.54312, -1, -37.833, -7.17065, 27.4601, 13.5456, 72.2985, -153.802
3.55225, -1, -38.0842, -7.29954, 27.5109, 13.5489, 72.1639, -154.143
3.55908, -1, -38.1679, -7.34249, 27.5279, 13.55, 72.119, -154.257
3.56842, -1, -38.4189, -7.47117, 27.5786, 13.5533, 71.9844, -154.598
3.57509, -1, -38.5025, -7.51402, 27.5956, 13.5544, 71.9398, -154.712
3.58312, -1, -38.6698, -7.59975, 27.6294, 13.5564, 71.8501, -154.939
3.59287, -1, -38.9208, -7.72827, 27.6802, 13.5595, 71.7158, -155.279
3.6014, -1, -39.0881, -7.81385, 27.7139, 13.5616, 71.6267, -155.506
3.60713, -1, -39.1719, -7.85667, 27.7308, 13.5626, 71.582, -155.62
3.61665, -1, -39.4232, -7.98525, 27.7816, 13.5655, 71.4478, -155.96
3.62552, -1, -39.5908, -8.07078, 27.8152, 13.5676, 71.3585, -156.186
3.63125, -1, -39.6746, -8.11356, 27.832, 13.5685, 71.314, -156.3
3.64086, -1, -39.8423, -8.19907, 27.8827, 13.5714, 71.1798, -156.639
3.64807, -1, -40.0099, -8.28454, 27.8995, 13.5724, 71.1352, -156.752
3.65514, -1, -40.1774, -8.3699, 27.9331, 13.5743, 71.046, -156.979
3.66412, -1, -40.3448, -8.45526, 27.9669, 13.5763, 70.9566, -157.205
3.67207, -1, -40.5119, -8.54068, 28.0006, 13.5783, 70.8674, -157.431
3.67914, -1, -40.6788, -8.62606, 28.0341, 13.5803, 70.7782, -157.657
3.68707, -1, -40.8455, -8.7114, 28.0677, 13.5822, 70.6891, -157.883
3.69506, -1, -41.0119, -8.79674, 28.1015, 13.5843, 70.5999, -158.109
3.70307, -1, -41.1782, -8.88203, 28.1351, 13.5863, 70.5108, -158.335
3.71108, -1, -41.3445, -8.96723, 28.1686, 13.5883, 70.4217, -158.56
3.72007, -1, -41.5107, -9.05239, 28.2023, 13.5903, 70.3325, -158.786
3.72707, -1, -41.6771, -9.13752, 28.2359, 13.5923, 70.2432, -159.011
3.73507, -1, -41.8434, -9.22262, 28.2694, 13.5943, 70.1544, -159.237
3.74407, -1, -42.0098, -9.30762, 28.303, 13.5963, 70.0652, -159.462
3.7522, -1, -42.1761, -9.39266, 28.3366, 13.5983, 69.9762, -159.688
3.76008, -1, -42.3424, -9.47775, 28.3701, 13.6004, 69.8875, -159.913
3.76809, -1, -42.5087, -9.56273, 28.4036, 13.6024, 69.7984, -160.138
3.77708, -1, -42.6751, -9.64767, 28.4371, 13.6044, 69.7096, -160.363
3.78406, -1, -42.8415, -9.73263, 28.4706, 13.6065, 69.6207, -160.589
3.79208, -1, -43.0079, -9.81755, 28.504, 13.6085, 69.532, -160.814
3.80013, -1, -43.1742, -9.90249, 28.5375, 13.6106, 69.4432, -161.039
3.80708, -1, -43.3403, -9.9874, 28.571, 13.6127, 69.3544, -161.263
3.81607, -1, -43.5064, -10.0723, 28.6044, 13.6147, 69.2661, -161.488
3.82415, -1, -43.6723, -10.1574, 28.6379, 13.6168, 69.1773, -161.713
3.83109, -1, -43.8382, -10.2422, 28.6714, 13.6189, 69.0888, -161.938
3.84007, -1, -44.004, -10.327, 28.7047, 13.6211, 69.0005, -162.162
3.84814, -1, -44.1694, -10.4118, 28.7382, 13.6233, 68.9118, -162.386
3.85515, -1, -44.3346, -10.4964, 28.7717, 13.6254, 68.8232, -162.611
3.86322, -1, -44.4998, -10.5809, 28.805, 13.6276, 68.7346, -162.835
3.87116, -1, -44.665, -10.6654, 28.8384, 13.6298, 68.6459, -163.059
3.87917, -1, -44.8302, -10.7499, 28.8719, 13.632, 68.5574, -163.283
3.88781, -1, -44.9956, -10.8343, 28.9053, 13.6342, 68.4689, -163.507
3.89613, -1, -45.1609, -10.9188, 28.9387, 13.6364, 68.3807, -163.731
3.90308, -1, -45.3262, -11.0033, 28.9721, 13.6386, 68.2922, -163.955
3.91117, -1, -45.4914, -11.0877, 29.0055, 13.6409, 68.2038, -164.179
3.9191, -1, -45.6567, -11.1722, 29.0386, 13.6431, 68.1158, -164.403
3.92724, -1, -45.822, -11.2566, 29.072, 13.6455, 68.0272, -164.627
3.93532, -1, -45.9862, -11.3405, 29.1055, 13.6477, 67.9389, -164.85
3.94339, -1, -46.1475, -11.4228, 29.1389, 13.65, 67.8508, -165.073
3.95171, -1, -46.3046, -11.5022, 29.1725, 13.6524, 67.7634, -165.294
3.96007, -1, -46.455, -11.5772, 29.2061, 13.6548, 67.6782, -165.51
3.96817, -1, -46.5962, -11.6471, 29.2383, 13.6571, 67.5966, -165.716
3.97591, -1, -46.7258, -11.7105, 29.2682, 13.6593, 67.522, -165.906
3.98415, -1, -46.8408, -11.7666, 29.2946, 13.6613, 67.455, -166.074
3.99162, -1, -46.9396, -11.8158, 29.3167, 13.663, 67.3992, -166.216
4.00016, -1, -47.0221, -11.8587, 29.3333, 13.6643, 67.3544, -166.329
4.00778, -1, -47.0893, -11.8955, 29.3446, 13.6651, 67.3208, -166.414
4.01624, -1, -47.1417, -11.925, 29.3518, 13.6655, 67.2974, -166.473
4.02365, -1, -47.1628, -11.9369, 29.3541, 13.6656, 67.289, -166.51
4.03256, -1, -47.2082, -11.9625, 29.3576, 13.6658, 67.2737, -166.533
4.04016, -1, -47.2264, -11.9725, 29.3584, 13.6658, 67.2689, -166.545
4.04707, -1, -47.2326, -11.9759, 29.3586, 13.6659, 67.2675, -166.548
4.05643, 2, -47.2429, -11.9813, 29.359, 13.666, 67.2654, -166.553
4.06305, 2, -47.2443, -11.9821, 29.3591, 13.666, 67.2651, -166.554
4.07237, 2, -47.245, -11.9832, 29.3592, 13.666, 67.2647, -166.555
4.07911, 2, -47.2449, -11.9833, 29.3593, 13.666, 67.2646, -166.555
4.0885, 2, -47.2448, -11.9835, 29.3593, 13.6661, 67.2645, -166.556
4.09512, 2, -47.2449, -11.9835, 29.3593, 13.6661, 67.2645, -166.556
4.10463, 2, -47.246, -11.9838, 29.3594, 13.6661, 67.2644, -166.556
4.11262, 2, -47.2472, -11.9843, 29.3594, 13.666, 67.2645, -166.556
4.12062, 2, -47.249, -11.9851, 29.3594, 13.666, 67.2645, -166.556
4.12867, 2, -47.2506, -11.986, 29.3594, 13.666, 67.2645, -166.556
4.13692, 2, -47.252, -11.9868, 29.3594, 13.666, 67.2644, -166.556
4.14462, 2, -47.2525, -11.9872, 29.3594, 13.666, 67.2645, -166.556
4.15207, 2, -47.2531, -11.9877, 29.3594, 13.666, 67.2645, -166.556
4.16012, 2, -47.2534, -11.988, 29.3594, 13.666, 67.2645, -166.556
4.16902, 2, -47.2535, -11.9881, 29.3594, 13.666, 67.2645, -166.556
4.17512, 2, -47.2534, -11.9881, 29.3594, 13.666, 67.2644, -166.556
4.18305, 2, -47.253, -11.9881, 29.3594, 13.6661, 67.2645, -166.556
4.19207, 2, -47.2525, -11.9881, 29.3594, 13.6661, 67.2645, -166.556
4.20013, 2, -47.2522, -11.9881, 29.3595, 13.6661, 67.2644, -166.556
4.20811, 2, -47.2519, -11.9881, 29.3595, 13.666, 67.2645, -166.556
4.21606, 2, -47.2518, -11.9881, 29.3594, 13.666, 67.2644, -166.556
4.22313, 2, -47.2518, -11.9882, 29.3594, 13.6661, 67.2645, -166.556
4.23105, 2, -47.252, -11.9885, 29.3594, 13.666, 67.2645, -166.556
4.23906, 2, -47.2524, -11.9888, 29.3595, 13.666, 67.2645, -166.556
4.24806, 2, -47.253, -11.9891, 29.3594, 13.666, 67.2645, -166.556
4.25505, 2, -47.2534, -11.9894, 29.3594, 13.666, 67.2645, -166.556
4.26312, 2, -47.2536, -11.9895, 29.3594, 13.666, 67.2644, -166.555
4.27112, 2, -47.2537, -11.9896, 29.3594, 13.666, 67.2644, -166.555
4.27905, 2, -47.2537, -11.9896, 29.3594, 13.666, 67.2645, -166.555
4.28706, 2, -47.2535, -11.9895, 29.3594, 13.666, 67.2645, -166.556
4.29605, 2, -47.2533, -11.9895, 29.3594, 13.666, 67.2645, -166.555
4.30412, 2, -47.2528, -11.9895, 29.3594, 13.666, 67.2645, -166.555
4.31207, 2, -47.2526, -11.9894, 29.3594, 13.666, 67.2645, -166.555
4.31912, 2, -47.2524, -11.9895, 29.3594, 13.6661, 67.2645, -166.555
4.32706, 2, -47.2522, -11.9895, 29.3594, 13.666, 67.2645, -166.555
4.33508, 2, -47.2522, -11.9895, 29.3594, 13.666, 67.2645, -166.555
4.34405, 2, -47.2522, -11.9896, 29.3594, 13.666, 67.2645, -166.555
4.35112, 2, -47.2521, -11.9896, 29.3594, 13.666, 67.2645, -166.555
4.35915, 2, -47.2521, -11.9897, 29.3594, 13.666, 67.2645, -166.555
4.36722, 2, -47.2521, -11.9897, 29.3594, 13.666, 67.2645, -166.555
4.37514, 2, -47.2521, -11.9897, 29.3595, 13.666, 67.2645, -166.555
4.38315, 2, -47.2521, -11.9897, 29.3594, 13.666, 67.2645, -166.555
4.39124, 2, -47.2521, -11.9896, 29.3594, 13.666, 67.2645, -166.555
4.39906, 2, -47.252, -11.9896, 29.3595, 13.666, 67.2645, -166.555
4.40709, 2, -47.2519, -11.9895, 29.3595, 13.666, 67.2645, -166.555
4.4152, 2, -47.2518, -11.9895, 29.3595, 13.666, 67.2645, -166.555
4.42309, 2, -47.2517, -11.9895, 29.3594, 13.666, 67.2646, -166.555
4.43122, 2, -47.2515, -11.9895, 29.3594, 13.666, 67.2645, -166.555
4.43928, 2, -47.2515, -11.9895, 29.3594, 13.666, 67.2645, -166.555
4.44726, 2, -47.2514, -11.9895, 29.3594, 13.666, 67.2645, -166.555
4.45574, 2, -47.2514, -11.9895, 29.3594, 13.666, 67.2645, -166.555
4.46406, 2, -47.2513, -11.9895, 29.3594, 13.666, 67.2645, -166.555
4.47144, 2, -47.2512, -11.9895, 29.3594, 13.666, 67.2646, -166.555
4.47986, 2, -47.2512, -11.9895, 29.3594, 13.666, 67.2645, -166.555
4.48815, 2, -47.2511, -11.9895, 29.3594, 13.666, 67.2645, -166.555
4.49558, 2, -47.2511, -11.9895, 29.3594, 13.666, 67.2645, -166.555
4.50415, 2, -47.251, -11.9894, 29.3595, 13.666, 67.2645, -166.555
4.51179, 2, -47.2509, -11.9894, 29.3595, 13.666, 67.2645, -166.555
4.52022, 2, -47.2508, -11.9893, 29.3595, 13.666, 67.2645, -166.555
4.52786, 2, -47.2507, -11.9893, 29.3594, 13.6659, 67.2646, -166.555
4.53615, 2, -47.2506, -11.9893, 29.3594, 13.6659, 67.2646, -166.555
4.54304, 2, -47.2506, -11.9893, 29.3594, 13.6659, 67.2646, -166.555
4.55214, 2, -47.2504, -11.9893, 29.3594, 13.6659, 67.2646, -166.555
4.55911, 2, -47.2503, -11.9893, 29.3594, 13.6659, 67.2646, -166.555
4.56828, 2, -47.2502, -11.9893, 29.3594, 13.6659, 67.2646, -166.555
4.57504, 2, -47.2501, -11.9893, 29.3594, 13.6659, 67.2646, -166.555
4.58439, 2, -47.25, -11.9893, 29.3594, 13.6659, 67.2646, -166.555
4.59104, 2, -47.2499, -11.9893, 29.3594, 13.6659, 67.2646, -166.555
4.60094, 2, -47.2498, -11.9893, 29.3594, 13.6659, 67.2647, -166.555
4.60869, 2, -47.2497, -11.9892, 29.3594, 13.6659, 67.2647, -166.555
4.6166, 2, -47.2496, -11.9891, 29.3594, 13.6659, 67.2647, -166.555
4.62505, 2, -47.2494, -11.9891, 29.3594, 13.6658, 67.2647, -166.555
4.63261, 2, -47.2494, -11.989, 29.3594, 13.6658, 67.2647, -166.555
4.64065, 2, -47.2493, -11.989, 29.3594, 13.6658, 67.2647, -166.555
4.64893, 2, -47.2492, -11.989, 29.3594, 13.6659, 67.2647, -166.555
4.65604, 2, -47.2492, -11.989, 29.3594, 13.6659, 67.2647, -166.555
4.66411, 2, -47.2491, -11.989, 29.3594, 13.6659, 67.2647, -166.555
4.67294, 2, -47.2491, -11.989, 29.3594, 13.6659, 67.2647, -166.555
4.68004, 2, -47.249, -11.989, 29.3594, 13.6658, 67.2646, -166.555
4.6881, 2, -47.249, -11.989, 29.3594, 13.6659, 67.2647, -166.555
4.69604, 2, -47.249, -11.989, 29.3594, 13.6659, 67.2647, -166.555
4.7041, 2, -47.2489, -11.989, 29.3594, 13.6659, 67.2647, -166.555
4.71103, 2, -47.2489, -11.9889, 29.3594, 13.6659, 67.2647, -166.555
4.72004, 2, -47.2488, -11.9889, 29.3594, 13.6658, 67.2647, -166.555
4.72805, 2, -47.2487, -11.9888, 29.3594, 13.6659, 67.2647, -166.555
4.73609, 2, -47.2486, -11.9887, 29.3594, 13.6658, 67.2647, -166.555
4.74404, 2, -47.2485, -11.9887, 29.3594, 13.6659, 67.2647, -166.555
4.7511, 2, -47.2485, -11.9887, 29.3594, 13.6658, 67.2648, -166.555
4.75903, 2, -47.2484, -11.9887, 29.3594, 13.6658, 67.2647, -166.555
4.76711, 2, -47.2484, -11.9887, 29.3594, 13.6658, 67.2647, -166.555
4.7751, 2, -47.2484, -11.9887, 29.3594, 13.6658, 67.2647, -166.555
4.78303, 2, -47.2483, -11.9887, 29.3594, 13.6658, 67.2647, -166.555
4.79205, 2, -47.2483, -11.9887, 29.3594, 13.6658, 67.2647, -166.555
4.80004, 2, -47.2483, -11.9887, 29.3594, 13.6658, 67.2647, -166.555
4.80811, 2, -47.2483, -11.9886, 29.3594, 13.6657, 67.2647, -166.555
4.81504, 2, -47.2482, -11.9886, 29.3594, 13.6657, 67.2647, -166.555
4.82404, 2, -47.2481, -11.9885, 29.3594, 13.6657, 67.2647, -166.555
4.83213, 2, -47.248, -11.9884, 29.3594, 13.6657, 67.2648, -166.554
4.83906, 2, -47.2479, -11.9884, 29.3594, 13.6656, 67.2648, -166.554
4.84804, 2, -47.2479, -11.9884, 29.3594, 13.6656, 67.2648, -166.554
4.85611, 2, -47.2479, -11.9883, 29.3594, 13.6656, 67.2648, -166.554
4.86318, 2, -47.2478, -11.9883, 29.3594, 13.6657, 67.2648, -166.554
4.87119, 2, -47.2477, -11.9883, 29.3594, 13.6657, 67.2648, -166.554
4.87913, 2, -47.2477, -11.9883, 29.3594, 13.6656, 67.2648, -166.554
4.88716, 2, -47.2477, -11.9883, 29.3594, 13.6656, 67.2648, -166.554
4.89523, 2, -47.2476, -11.9883, 29.3594, 13.6656, 67.2648, -166.554
4.90305, 2, -47.2476, -11.9883, 29.3594, 13.6656, 67.2648, -166.554
4.91106, 2, -47.2476, -11.9883, 29.3594, 13.6656, 67.2648, -166.554
4.91915, 2, -47.2475, -11.9882, 29.3594, 13.6656, 67.2648, -166.554
4.92708, 2, -47.2474, -11.9881, 29.3594, 13.6656, 67.2649, -166.554
4.9352, 2, -47.2474, -11.9881, 29.3594, 13.6656, 67.2649, -166.554
4.94339, 2, -47.2473, -11.988, 29.3594, 13.6655, 67.2649, -166.554
4.95126, 2, -47.2472, -11.988, 29.3594, 13.6655, 67.2649, -166.554
4.95933, 2, -47.2471, -11.988, 29.3594, 13.6655, 67.2649, -166.554
4.96756, 2, -47.2471, -11.988, 29.3594, 13.6655, 67.2649, -166.554
4.97614, 2, -47.2471, -11.988, 29.3594, 13.6655, 67.265, -166.554
4.98352, 2, -47.247, -11.988, 29.3594, 13.6655, 67.265, -166.554
4.99214, 2, -47.247, -11.9879, 29.3594, 13.6654, 67.265, -166.554
4.99957, 2, -47.247, -11.9879, 29.3594, 13.6655, 67.265, -166.554
5.00814, 2, -47.2469, -11.9879, 29.3594, 13.6654, 67.2651, -166.554
5.01573, 2, -47.2469, -11.9879, 29.3594, 13.6655, 67.265, -166.554
5.02422, 2, -47.2469, -11.9878, 29.3594, 13.6655, 67.265, -166.554
5.03103, 2, -47.2468, -11.9878, 29.3594, 13.6655, 67.2651, -166.554
5.04012, 2, -47.2467, -11.9877, 29.3594, 13.6654, 67.265, -166.554
5.04703, 2, -47.2467, -11.9877, 29.3594, 13.6654, 67.265, -166.554
5.0561, 2, -47.2466, -11.9876, 29.3594, 13.6654, 67.2651, -166.554
5.06537, 2, -47.2465, -11.9876, 29.3594, 13.6654, 67.2651, -166.554
5.07105, 2, -47.2465, -11.9876, 29.3594, 13.6654, 67.2651, -166.554
5.08035, 2, -47.2464, -11.9876, 29.3594, 13.6653, 67.2651, -166.554
5.08705, 2, -47.2464, -11.9876, 29.3594, 13.6653, 67.2651, -166.554
5.09643, 2, -47.2464, -11.9876, 29.3594, 13.6653, 67.2651, -166.554
5.10309, 2, -47.2464, -11.9876, 29.3594, 13.6653, 67.2651, -166.554
5.11301, 2, -47.2464, -11.9876, 29.3594, 13.6652, 67.2652, -166.554
5.12055, 2, -47.2463, -11.9875, 29.3594, 13.6652, 67.2652, -166.554
5.12862, 2, -47.2463, -11.9875, 29.3594, 13.6652, 67.2652, -166.554
5.13661, 2, -47.2462, -11.9874, 29.3594, 13.6653, 67.2652, -166.554
5.14455, 4, -47.2462, -11.9874, 29.3594, 13.6652, 67.2652, -166.554
5.15272, 4, -47.2461, -11.9874, 29.3594, 13.6652, 67.2652, -166.554
5.16098, 4, -47.246, -11.9873, 29.3594, 13.6652, 67.2651, -166.554
5.16804, 4, -47.246, -11.9873, 29.3594, 13.6652, 67.2652, -166.554
5.17607, 4, -47.2459, -11.9873, 29.3594, 13.6651, 67.2652, -166.554
5.18402, 4, -47.2459, -11.9873, 29.3594, 13.6651, 67.2651, -166.554
5.19204, 4, -47.2459, -11.9873, 29.3594, 13.6651, 67.2651, -166.554
5.20008, 4, -47.2458, -11.9873, 29.3594, 13.6651, 67.2652, -166.554
5.20809, 4, -47.2458, -11.9872, 29.3594, 13.6651, 67.2652, -166.554
5.21603, 4, -47.2458, -11.9872, 29.3594, 13.6651, 67.2652, -166.554
5.22407, 4, -47.2458, -11.9872, 29.3594, 13.665, 67.2652, -166.554
5.23204, 4, -47.2458, -11.9872, 29.3594, 13.665, 67.2653, -166.554
5.24002, 4, -47.2457, -11.9871, 29.3594, 13.665, 67.2653, -166.554
5.25568, 4, -47.2457, -11.9871, 29.3594, 13.665, 67.2653, -166.553
5.2584, 4, -47.2456, -11.987, 29.3594, 13.665, 67.2653, -166.553
5.26423, 4, -47.2456, -11.987, 29.3594, 13.6651, 67.2652, -166.553
5.2729, 4, -47.2455, -11.987, 29.3594, 13.665, 67.2652, -166.553
5.28225, 4, -47.2454, -11.987, 29.3594, 13.665, 67.2653, -166.553
5.28909, 4, -47.2454, -11.987, 29.3594, 13.665, 67.2653, -166.553
5.29515, 4, -47.2453, -11.987, 29.3594, 13.665, 67.2653, -166.553
5.3039, 4, -47.2453, -11.9869, 29.3594, 13.665, 67.2654, -166.553
5.31226, 4, -47.2453, -11.9869, 29.3594, 13.665, 67.2654, -166.553
5.32091, 4, -47.2453, -11.9869, 29.3594, 13.665, 67.2654, -166.553
5.32817, 4, -47.2453, -11.9869, 29.3594, 13.665, 67.2653, -166.553
5.33625, 4, -47.2452, -11.9868, 29.3594, 13.6649, 67.2653, -166.553
5.34528, 4, -47.2452, -11.9868, 29.3594, 13.6649, 67.2654, -166.553
5.35226, 4, -47.2452, -11.9868, 29.3594, 13.6649, 67.2653, -166.553
5.36351, 4, -47.2451, -11.9867, 29.3594, 13.665, 67.2653, -166.553
5.36823, 4, -47.2451, -11.9867, 29.3594, 13.6649, 67.2653, -166.553
5.37627, 4, -47.2451, -11.9867, 29.3594, 13.665, 67.2653, -166.553
5.38948, 4, -47.245, -11.9867, 29.3594, 13.6649, 67.2654, -166.553
5.39225, 4, -47.2449, -11.9867, 29.3594, 13.665, 67.2654, -166.553
5.40394, 4, -47.2449, -11.9866, 29.3594, 13.6649, 67.2654, -166.553
5.41004, 4, -47.2449, -11.9867, 29.3594, 13.6649, 67.2654, -166.553
5.4154, 4, -47.2453, -11.9868, 29.3595, 13.6649, 67.2654, -166.553
5.42417, 4, -47.2469, -11.9878, 29.3605, 13.6654, 67.2656, -166.553
5.43507, 4, -47.2501, -11.9906, 29.3638, 13.6701, 67.2683, -166.552
5.43949, 4, -47.2556, -11.9971, 29.3724, 13.6866, 67.2708, -166.55
5.44819, 4, -47.2646, -12.0088, 29.3903, 13.722, 67.2804, -166.543
5.45559, 4, -47.2791, -12.0282, 29.4232, 13.7884, 67.2988, -166.528
5.46417, 5, -47.3012, -12.0579, 29.4771, 13.9003, 67.3304, -166.503
5.47393, 5, -47.333, -12.0995, 29.5585, 14.072, 67.3783, -166.463
5.48063, 5, -47.3762, -12.1549, 29.673, 14.3168, 67.4457, -166.406
5.48917, 5, -47.4322, -12.2251, 29.8237, 14.6436, 67.5352, -166.332
5.49579, 5, -47.5009, -12.3105, 30.0128, 15.0546, 67.6459, -166.237
5.50397, 5, -47.5819, -12.4109, 30.2402, 15.5457, 67.7773, -166.125
5.51441, 5, -47.6744, -12.5252, 30.502, 16.1062, 67.9251, -165.998
5.52028, 5, -47.7767, -12.6519, 30.7941, 16.7213, 68.0857, -165.86
5.5309, 5, -47.8873, -12.7892, 31.1105, 17.3771, 68.2535, -165.715
5.53636, 5, -48.0036, -12.9346, 31.445, 18.0574, 68.425, -165.566
5.54536, 5, -48.1236, -13.0855, 31.7909, 18.7498, 68.5961, -165.417
5.55236, 5, -48.2446, -13.2387, 32.1435, 19.4452, 68.765, -165.269
5.56115, 5, -48.3638, -13.3907, 32.4982, 20.1323, 68.9301, -165.121
5.56718, 5, -48.4215, -13.4654, 32.6753, 20.4698, 69.0112, -165.046
5.57731, 6, -48.5806, -13.6801, 33.1964, 21.4428, 69.2513, -164.798
5.58317, 6, -48.627, -13.7471, 33.3643, 21.7488, 69.3311, -164.703
5.59117, 6, -48.7065, -13.8734, 33.6882, 22.328, 69.4924, -164.483
5.60155, 7, -48.7872, -14.046, 34.1385, 23.1066, 69.7436, -164.052
5.6095, 7, -48.8139, -14.1504, 34.4135, 23.5672, 69.9209, -163.68
5.61793, 8, -48.8202, -14.2453, 34.6698, 23.9896, 70.1093, -163.237
5.6232, 8, -48.8163, -14.2891, 34.7923, 24.1894, 70.2077, -162.989
5.63287, 9, -48.7815, -14.4077, 35.141, 24.7575, 70.5206, -162.157
5.64291, 9, -48.7426, -14.4791, 35.3624, 25.1217, 70.7423, -161.548
5.65322, 10, -48.6649, -14.5794, 35.6881, 25.6615, 71.0897, -160.591
5.65757, 10, -48.6649, -14.5794, 35.6881, 25.8413, 71.2082, -160.267
5.66316, 11, -48.6016, -14.6427, 35.9029, 26.0213, 71.3272, -159.942
5.67581, 11, -48.4953, -14.7342, 36.2245, 26.5646, 71.6855, -158.972
5.68217, 12, -48.4189, -14.7954, 36.437, 26.9321, 71.9244, -158.329
5.69331, 12, -48.3003, -14.8879, 36.7518, 27.4943, 72.2837, -157.364
5.6962, 13, -48.3003, -14.8879, 36.7518, 27.4943, 72.2837, -157.364
5.70817, 13, -48.1791, -14.9774, 37.0626, 28.0717, 72.6458, -156.395
5.71115, 14, -48.1379, -15.0068, 37.1651, 28.2674, 72.7673, -156.069
5.71918, 14, -48.0533, -15.0662, 37.3693, 28.6631, 73.0114, -155.417
5.7321, 15, -47.9202, -15.156, 37.6741, 29.264, 73.3802, -154.438
5.73517, 15, -47.874, -15.1856, 37.7745, 29.4654, 73.5031, -154.112
5.74313, 16, -47.7779, -15.2442, 37.9737, 29.8686, 73.7483, -153.462
5.75505, 16, -47.6217, -15.3331, 38.2691, 30.4724, 74.1125, -152.493
5.76022, 17, -47.5663, -15.3636, 38.3662, 30.6726, 74.2324, -152.173
5.77075, 17, -47.3929, -15.4572, 38.6524, 31.2682, 74.5843, -151.218
5.77528, 18, -47.3327, -15.4888, 38.7466, 31.4646, 74.6987, -150.903
5.78719, 18, -47.1448, -15.5849, 39.0259, 32.0473, 75.0324, -149.971
5.79118, 19, -47.0794, -15.6177, 39.1177, 32.2396, 75.1403, -149.665
5.80017, 19, -46.9448, -15.6854, 39.2999, 32.6224, 75.3519, -149.057
5.80823, 20, -46.8052, -15.7554, 39.4811, 33.0035, 75.5584, -148.456
5.81516, 20, -46.6602, -15.8277, 39.6607, 33.3833, 75.7605, -147.863
5.82744, 21, -46.433, -15.9407, 39.9248, 33.9517, 76.0562, -146.985
5.83214, 21, -46.3548, -15.9797, 40.0117, 34.1407, 76.1527, -146.695
5.84412, 22, -46.1133, -16.1004, 40.2694, 34.7054, 76.4351, -145.836
5.84814, 22, -46.0304, -16.1413, 40.3538, 34.8923, 76.5268, -145.553
5.85932, 23, -45.7737, -16.2661, 40.6022, 35.4472, 76.7935, -144.713
5.86755, 23, -45.5946, -16.3513, 40.7646, 35.8115, 76.9639, -144.16
5.8747, 24, -45.4087, -16.4385, 40.9238, 36.1708, 77.1288, -143.613
5.87941, 24, -45.3132, -16.4827, 41.0017, 36.3482, 77.209, -143.342
5.88817, 25, -45.1173, -16.572, 41.1543, 36.698, 77.3656, -142.803
5.89524, 25, -44.915, -16.6622, 41.303, 37.0411, 77.517, -142.267
5.90424, 26, -44.7062, -16.7532, 41.4473, 37.3774, 77.6636, -141.734
5.91357, 26, -44.4904, -16.8451, 41.5866, 37.7063, 77.8058, -141.205
5.9212, 27, -44.2674, -16.9372, 41.7205, 38.0282, 77.9442, -140.677
5.93132, 27, -43.9208, -17.0745, 41.9104, 38.4961, 78.144, -139.889
5.93624, 28, -43.8019, -17.1199, 41.9707, 38.6482, 78.209, -139.627
5.94505, 28, -43.559, -17.2099, 42.0864, 38.946, 78.336, -139.103
5.95225, 29, -43.3092, -17.2984, 42.1952, 39.2349, 78.4597, -138.581
5.96043, 29, -43.0528, -17.3854, 42.2972, 39.5159, 78.5804, -138.058
5.96815, 30, -42.7896, -17.4706, 42.3919, 39.7884, 78.6975, -137.536
5.97644, 30, -42.5182, -17.5539, 42.4795, 40.0523, 78.8121, -137.014
5.9854, 31, -42.2382, -17.6347, 42.5599, 40.3077, 78.9234, -136.494
5.99318, 31, -41.9502, -17.7129, 42.6332, 40.5545, 79.032, -135.973
5.99989, 32, -41.655, -17.7888, 42.6996, 40.7929, 79.1383, -135.454
6.00868, 32, -41.3531, -17.8624, 42.7593, 41.0227, 79.2416, -134.934
6.01696, 33, -41.0447, -17.9332, 42.8119, 41.2446, 79.3426, -134.417
6.0245, 33, -40.7297, -18.0007, 42.8573, 41.4584, 79.4412, -133.9
6.03223, 34, -40.4082, -18.0652, 42.8955, 41.6638, 79.5369, -133.383
6.04295, 34, -40.082, -18.1272, 42.9263, 41.8614, 79.6299, -132.868
6.05108, 35, -39.7507, -18.1864, 42.9499, 42.0509, 79.7208, -132.354
6.05517, 35, -39.5829, -18.2147, 42.9591, 42.143, 79.765, -132.098
6.06445, 36, -39.0695, -18.2944, 42.976, 42.4077, 79.8949, -131.33
6.07637, 36, -38.54, -18.3666, 42.9776, 42.6548, 80.0199, -130.565
6.08057, 37, -38.3604, -18.389, 42.9748, 42.7334, 80.0603, -130.31
6.09033, 37, -37.9968, -18.4311, 42.9639, 42.885, 80.1401, -129.803
6.09691, 38, -37.8129, -18.4507, 42.9462, 43.0292, 80.2177, -129.297
6.10324, 38, -37.4412, -18.4874, 42.9349, 43.0987, 80.2556, -129.045
6.11293, 39, -36.8753, -18.5361, 42.8911, 43.2954, 80.3663, -128.29
6.11922, 39, -36.6844, -18.5506, 42.8731, 43.3573, 80.4021, -128.04
6.12886, 40, -36.104, -18.5883, 42.809, 43.5322, 80.5071, -127.292
6.13758, 40, -35.7098, -18.6088, 42.7582, 43.6398, 80.5748, -126.795
6.14788, 41, -35.3098, -18.6251, 42.7008, 43.7401, 80.6405, -126.3
6.15364, 41, -34.9041, -18.6379, 42.6369, 43.833, 80.7038, -125.807
6.16084, 42, -34.6997, -18.643, 42.6026, 43.9192, 80.7659, -125.317
6.17427, 43, -33.8738, -18.6552, 42.4493, 44.0349, 80.8546, -124.585
6.17697, 43, -33.8738, -18.6552, 42.4493, 44.0698, 80.8837, -124.342
6.18576, 43, -33.4557, -18.6565, 42.3635, 44.1028, 80.9121, -124.1
6.19354, 44, -32.8186, -18.6517, 42.2239, 44.1921, 80.9942, -123.377
6.20013, 44, -32.6031, -18.6482, 42.1745, 44.218, 81.0213, -123.138
6.2083, 45, -32.1671, -18.6383, 42.0714, 44.2645, 81.0733, -122.66
6.2162, 45, -31.7256, -18.6247, 41.9623, 44.3041, 81.1235, -122.185
6.22416, 46, -31.2802, -18.6077, 41.8471, 44.336, 81.1729, -121.712
6.23452, 46, -30.6083, -18.5757, 41.6633, 44.3692, 81.2422, -121.007
6.23991, 47, -30.3831, -18.5632, 41.5991, 44.3764, 81.2647, -120.773
6.25211, 47, -29.7002, -18.5188, 41.3977, 44.3874, 81.3314, -120.074
6.25513, 48, -29.4694, -18.5018, 41.3276, 44.3877, 81.3527, -119.842
6.26644, 48, -29.0028, -18.4645, 41.1079, 44.3753, 81.4155, -119.149
6.27451, 49, -28.2927, -18.4005, 40.9542, 44.3564, 81.4573, -118.69
6.2802, 49, -28.0545, -18.3769, 40.8751, 44.3435, 81.4781, -118.46
6.28819, 50, -27.5762, -18.3265, 40.7122, 44.3101, 81.5186, -118.002
6.29622, 50, -27.095, -18.271, 40.5427, 44.2672, 81.5594, -117.546
6.3045, 51, -26.6083, -18.21, 40.3666, 44.2158, 81.6017, -117.089
6.31225, 51, -26.1141, -18.1435, 40.1843, 44.154, 81.6441, -116.635
6.32021, 52, -25.6125, -18.0714, 39.9946, 44.0829, 81.6866, -116.181
6.3273, 52, -25.1061, -17.994, 39.7975, 44.0012, 81.7306, -115.727
6.33619, 53, -24.5975, -17.9114, 39.5944, 43.9091, 81.7754, -115.274
6.34774, 53, -23.8292, -17.7767, 39.2768, 43.7524, 81.843, -114.595
6.35215, 54, -23.5703, -17.7286, 39.167, 43.695, 81.8666, -114.37
6.36127, 54, -23.0467, -17.6279, 38.9423, 43.5722, 81.9155, -113.918
6.36813, 55, -22.5146, -17.5211, 38.7109, 43.4383, 81.9654, -113.466
6.37896, 55, -21.707, -17.3492, 38.3495, 43.2156, 82.0456, -112.788
6.38324, 56, -21.4367, -17.289, 38.2261, 43.1355, 82.0733, -112.562
6.39336, 56, -20.8939, -17.1643, 37.9738, 42.9667, 82.1291, -112.111
6.40321, 57, -20.0674, -16.9667, 37.5822, 42.6918, 82.2177, -111.435
6.41104, 57, -19.5046, -16.8279, 37.3129, 42.4938, 82.2781, -110.985
6.41702, 58, -19.2202, -16.7562, 37.1754, 42.39, 82.3094, -110.76
6.42551, 58, -18.6483, -16.6083, 36.8963, 42.1733, 82.3735, -110.31
6.43214, 59, -18.0742, -16.4549, 36.6108, 41.944, 82.439, -109.861
6.44081, 59, -17.4967, -16.2967, 36.3188, 41.7023, 82.5077, -109.411
6.44814, 60, -16.9112, -16.134, 36.0208, 41.4478, 82.5777, -108.962
6.45651, 60, -16.3151, -15.9656, 35.7168, 41.1805, 82.6506, -108.513
6.46424, 61, -15.712, -15.7915, 35.4076, 40.8999, 82.7245, -108.064
6.47243, 61, -15.1054, -15.6127, 35.092, 40.6061, 82.8011, -107.616
6.48018, 62, -14.4953, -15.4299, 34.7706, 40.2992, 82.88, -107.167
6.48851, 62, -13.8779, -15.2426, 34.4432, 39.9785, 82.962, -106.717
6.49626, 63, -13.2505, -15.0493, 34.1114, 39.6444, 83.0465, -106.268
6.50607, 63, -12.615, -14.8498, 33.7744, 39.2966, 83.1335, -105.818
6.51174, 64, -11.9748, -14.6455, 33.4332, 38.9357, 83.2235, -105.367
6.52057, 64, -11.3308, -14.4353, 33.0864, 38.5619, 83.3161, -104.916
6.53171, 65, -10.6784, -14.2175, 32.7344, 38.1739, 83.4127, -104.236
6.53651, 65, -10.3481, -14.1058, 32.3767, 37.7698, 83.5144, -104.008
6.54587, 66, -9.3415, -13.7605, 32.0138, 37.3473, 83.622, -103.551
6.55617, 66, -8.3176, -13.3998, 31.4578, 36.6794, 83.7966, -102.862
6.56259, 67, -7.9731, -13.2762, 31.2683, 36.4472, 83.8581, -102.631
6.57011, 67, -7.27718, -13.0242, 30.8843, 35.97, 83.9875, -102.167
6.57808, 68, -6.57243, -12.7648, 30.4951, 35.4763, 84.1236, -101.7
6.58526, 68, -5.86048, -12.4988, 30.1028, 34.9697, 84.2657, -101.232
6.59356, 69, -5.14328, -12.2255, 29.7075, 34.4519, 84.4128, -100.761
6.60133, 69, -4.41992, -11.9435, 29.3097, 33.9228, 84.5645, -100.289
6.61128, 70, -3.68803, -11.6541, 28.9109, 33.3825, 84.7217, -99.8151
6.61519, 70, -3.31863, -11.5063, 28.7111, 33.1066, 84.8026, -99.577
6.62716, 71, -2.19596, -11.05, 28.1075, 32.2546, 85.0573, -98.8593
6.63112, 71, -1.81691, -10.8941, 27.904, 31.9619, 85.1467, -98.6187
6.64141, 72, -0.667977, -10.4162, 27.2869, 31.0558, 85.4315, -97.8914
6.64955, 72, 0.105525, -10.0905, 26.8711, 30.4276, 85.6341, -97.4019
6.65797, 73, 0.883768, -9.75632, 26.4534, 29.7871, 85.8455, -96.9103
6.66319, 73, 1.27462, -9.58607, 26.2446, 29.4627, 85.9541, -96.6642
6.67336, 74, 2.45247, -9.06532, 25.621, 28.4771, 86.2907, -95.9235
6.68414, 75, 3.23988, -8.71278, 25.2103, 27.8124, 86.5234, -95.4287
6.68715, 75, 3.63389, -8.53483, 25.0073, 27.4781, 86.642, -95.181
6.6962, 75, 4.42327, -8.17452, 24.6054, 26.8072, 86.8828, -94.6855
6.70414, 76, 5.21354, -7.80983, 24.2098, 26.1375, 87.1284, -94.1903
6.7111, 76, 6.00293, -7.44045, 23.821, 25.4685, 87.3787, -93.6939
6.72174, 77, 7.18445, -6.87575, 23.2511, 24.4695, 87.7637, -92.9491
6.73633, 78, 8.36588, -6.29411, 22.6936, 23.4729, 88.1657, -92.2034
6.74142, 78, 8.75937, -6.09644, 22.5102, 22.8054, 88.4462, -91.7043
6.75513, 79, 10.3353, -5.28579, 21.7877, 21.7951, 88.8895, -90.9486
6.75633, 79, 10.3353, -5.28579, 21.7877, 21.7951, 88.8895, -90.9486
6.75896, 79, 10.7301, -5.07775, 21.6092, 21.4562, 89.0434, -90.6944
6.76799, 80, 11.5183, -4.65442, 21.2535, 20.7763, 89.3607, -90.1819
6.77597, 80, 12.3023, -4.22136, 20.9007, 20.093, 89.6898, -89.6631
6.78401, 81, 13.0805, -3.77831, 20.5507, 19.4134, 90.0304, -89.1372
6.79303, 81, 13.8539, -3.32681, 20.2051, 18.7419, 90.381, -88.6055
6.79994, 82, 14.6209, -2.86797, 19.865, 18.0817, 90.7401, -88.0693
6.8081, 82, 15.379, -2.4014, 19.5335, 17.4353, 91.1055, -87.5309
6.8162, 83, 16.1273, -1.92746, 19.2113, 16.8055, 91.4759, -86.99
6.82514, 83, 16.8651, -1.4464, 18.9001, 16.1952, 91.8497, -86.4478
6.83204, 83, 17.591, -0.958854, 18.5994, 15.6051, 92.2269, -85.9051
6.83998, 84, 18.3016, -0.466921, 18.3088, 15.0349, 92.6083, -85.3636
6.84811, 84, 18.995, 0.0280457, 18.0271, 14.4851, 92.9957, -84.8224
6.85534, 85, 19.6707, 0.527689, 17.7519, 13.9549, 93.3905, -84.2828
6.86304, 85, 20.3287, 1.0322, 17.4833, 13.4442, 93.7934, -83.7451
6.87196, 86, 20.9699, 1.54047, 17.22, 12.9532, 94.2029, -83.2098
6.88002, 86, 21.5964, 2.05352, 16.963, 12.4819, 94.6184, -82.6748
6.88807, 87, 22.2102, 2.57437, 16.7124, 12.0311, 95.04, -82.1383
6.89515, 87, 22.8125, 3.10572, 16.4664, 11.5995, 95.4679, -81.5977
6.90355, 87, 23.4053, 3.64688, 16.2248, 11.1861, 95.9025, -81.0523
6.91196, 88, 23.9886, 4.19585, 15.9865, 10.7885, 96.3435, -80.4987
6.91997, 88, 24.5608, 4.75325, 15.7518, 10.4067, 96.7911, -79.9353
6.9281, 89, 25.1223, 5.32227, 15.5221, 10.0391, 97.2461, -79.3603
6.93598, 89, 25.6762, 5.90317, 15.2958, 9.68682, 97.7077, -78.7737
6.94396, 90, 26.2265, 6.49472, 15.0722, 9.34927, 98.1758, -78.1734
6.95205, 90, 26.7697, 7.0956, 14.8531, 9.0271, 98.6507, -77.5587
6.95999, 91, 27.3007, 7.70553, 14.6391, 8.72227, 99.132, -76.9307
6.96814, 91, 27.8189, 8.32598, 14.4293, 8.43582, 99.6194, -76.2911
6.97539, 92, 28.3277, 8.95767, 14.2237, 8.17063, 100.112, -75.6391
6.98426, 92, 28.8294, 9.59939, 14.023, 7.92703, 100.608, -74.9784
6.99147, 93, 29.3219, 10.2492, 13.8276, 7.70615, 101.107, -74.3111
7.00034, 93, 29.8017, 10.9049, 13.6395, 7.50864, 101.606, -73.6363
7.00749, 94, 30.2672, 11.5649, 13.4593, 7.33459, 102.104, -72.955
7.01641, 94, 30.7179, 12.2276, 13.286, 7.18438, 102.599, -72.2694
7.02361, 95, 31.1547, 12.8922, 13.1199, 7.05769, 103.091, -71.5784
7.03251, 95, 31.578, 13.5585, 12.9618, 6.95483, 103.58, -70.8811
7.03997, 96, 31.9871, 14.2261, 12.8109, 6.87527, 104.065, -70.1793
7.04698, 96, 32.1857, 14.56, 12.7378, 6.8449, 104.307, -69.8266
7.05494, 97, 32.5705, 15.2285, 12.5963, 6.80122, 104.786, -69.1161
7.06492, 97, 33.1179, 16.2298, 12.3979, 6.77526, 105.495, -68.0409
7.07218, 98, 33.4634, 16.8944, 12.276, 6.78562, 105.959, -67.3208
7.07898, 98, 33.6306, 17.2251, 12.2184, 6.7989, 106.188, -66.9592
7.08836, 99, 34.1119, 18.2088, 12.0594, 6.8677, 106.859, -65.8735
7.09635, 99, 34.4176, 18.8558, 11.9654, 6.9385, 107.292, -65.1526
7.10443, 100, 34.7122, 19.4941, 11.8806, 7.02633, 107.711, -64.4335
7.11098, 100, 34.8552, 19.8099, 11.8416, 7.0771, 107.915, -64.0754
7.12053, 101, 35.2658, 20.7414, 11.7374, 7.2533, 108.503, -63.0132
7.12934, 101, 35.5241, 21.3486, 11.6783, 7.3892, 108.876, -62.3134
7.13504, 101, 35.6486, 21.6475, 11.6519, 7.46185, 109.055, -61.9669
7.14474, 102, 36.0016, 22.5245, 11.585, 7.69586, 109.57, -60.9454
7.15253, 102, 36.1132, 22.81, 11.5668, 7.86294, 109.893, -60.2785
7.16132, 103, 36.33, 23.3697, 11.5367, 7.94922, 110.049, -59.9495
7.16696, 103, 36.5404, 23.9139, 11.5151, 8.12762, 110.348, -59.3012
7.17707, 104, 36.8441, 24.7015, 11.4989, 8.41072, 110.764, -58.3527
7.18304, 104, 36.9422, 24.9562, 11.4971, 8.5095, 110.893, -58.042
7.19201, 104, 37.1339, 25.4533, 11.4983, 8.71401, 111.137, -57.4291
7.19995, 104, 37.3181, 25.9351, 11.5057, 8.92651, 111.36, -56.8281
7.20703, 104, 37.4922, 26.4005, 11.5178, 9.14557, 111.565, -56.2401
7.21497, 104, 37.6562, 26.8497, 11.5328, 9.36906, 111.752, -55.6663
7.22402, 104, 37.8138, 27.2841, 11.5507, 9.59382, 111.926, -55.1099
7.23196, 104, 37.9677, 27.7029, 11.5707, 9.81725, 112.087, -54.5741
7.23996, 104, 38.1179, 28.1057, 11.5913, 10.0372, 112.239, -54.0609
7.24795, 104, 38.2629, 28.4916, 11.6117, 10.2522, 112.383, -53.5703
7.25601, 104, 38.4017, 28.8612, 11.6311, 10.4609, 112.518, -53.1042
7.26296, 104, 38.5333, 29.2126, 11.6494, 10.6625, 112.646, -52.6621
7.27196, 104, 38.6568, 29.5459, 11.6666, 10.8561, 112.766, -52.2452
7.28001, 104, 38.7718, 29.8599, 11.6826, 11.041, 112.878, -51.8534
7.28795, 104, 38.8785, 30.1552, 11.6975, 11.2165, 112.982, -51.4862
7.29597, 104, 38.9774, 30.4319, 11.7116, 11.3821, 113.08, -51.1445
7.30501, 104, 39.0687, 30.6885, 11.7243, 11.5374, 113.169, -50.8284
7.31196, 104, 39.1523, 30.9257, 11.7358, 11.682, 113.251, -50.5372
7.31995, 104, 39.2278, 31.1434, 11.7462, 11.8152, 113.326, -50.2714
7.32802, 104, 39.2952, 31.3408, 11.7559, 11.937, 113.394, -50.0308
7.33497, 104, 39.3547, 31.5188, 11.7647, 12.0468, 113.454, -49.8156
7.34395, 104, 39.4071, 31.6775, 11.7724, 12.1445, 113.507, -49.6253
7.35205, 104, 39.453, 31.817, 11.7793, 12.2303, 113.553, -49.4599
7.35995, 104, 39.4931, 31.9383, 11.7856, 12.3036, 113.592, -49.3189
7.36795, 104, 39.5274, 32.0426, 11.7913, 12.3657, 113.625, -49.2013
7.37601, 104, 39.5555, 32.1304, 11.7962, 12.4158, 113.651, -49.1059
7.38395, 104, 39.5786, 32.2031, 11.8007, 12.4547, 113.671, -49.0307
7.39202, 104, 39.5969, 32.2626, 11.8047, 12.4847, 113.686, -48.9743
7.40002, 104, 39.611, 32.3103, 11.8084, 12.5068, 113.697, -48.9335
7.40794, 104, 39.6219, 32.3475, 11.8117, 12.5224, 113.704, -48.9056
7.41595, 104, 39.6303, 32.3753, 11.8147, 12.5328, 113.709, -48.8874
7.42402, 104, 39.6361, 32.3961, 11.8174, 12.5393, 113.711, -48.8765
7.43196, 104, 39.6397, 32.4114, 11.8195, 12.543, 113.713, -48.8708
7.43995, 104, 39.6419, 32.4215, 11.8211, 12.5449, 113.713, -48.8682
7.44802, 105, 39.6429, 32.4279, 11.8223, 12.5458, 113.714, -48.867
7.45519, 105, 39.6427, 32.432, 11.8234, 12.5463, 113.714, -48.8666
7.4638, 105, 39.6419, 32.4348, 11.8242, 12.5466, 113.714, -48.8665
7.47203, 105, 39.6409, 32.4368, 11.825, 12.5466, 113.714, -48.8666
7.47996, 105, 39.64, 32.4384, 11.8256, 12.5467, 113.714, -48.8668
7.488, 105, 39.6388, 32.4397, 11.8262, 12.5468, 113.714, -48.8671
7.49543, 105, 39.6377, 32.4409, 11.8267, 12.5468, 113.714, -48.8674
7.50405, 105, 39.6371, 32.4421, 11.8273, 12.5468, 113.714, -48.8678
7.51203, 105, 39.6367, 32.4432, 11.8279, 12.5468, 113.714, -48.868
7.52014, 105, 39.6364, 32.4443, 11.8285, 12.5468, 113.714, -48.8684
7.52757, 105, 39.6362, 32.4452, 11.829, 12.5468, 113.714, -48.8686
7.53595, 105, 39.636, 32.4459, 11.8294, 12.5469, 113.714, -48.8689
7.54432, 105, 39.6357, 32.4465, 11.8297, 12.5469, 113.714, -48.8691
7.55095, 105, 39.6356, 32.4467, 11.8299, 12.5469, 113.714, -48.8692
7.56021, 105, 39.6352, 32.447, 11.8303, 12.5469, 113.714, -48.8696
7.56697, 105, 39.635, 32.4471, 11.8304, 12.5468, 113.714, -48.8696
