hehonglu123/Motion-Primitive-Planning/ILC/recorded_data/realrobot/from_NX/iteration_16/run_1.csv
timestamp, cmd_num, J1, J2, J3, J4, J5, J6
0.000371, -1, 39.63, 32.4471, 11.8319, 12.5453, 113.713, -48.8724
0.003059, -1, 39.6301, 32.4471, 11.8319, 12.5453, 113.713, -48.8724
0.007944, -1, 39.6301, 32.4471, 11.8319, 12.5453, 113.713, -48.8724
0.028249, -1, 39.63, 32.4471, 11.8319, 12.5453, 113.713, -48.8723
0.030992, -1, 39.63, 32.4471, 11.8319, 12.5453, 113.713, -48.8723
0.032339, -1, 39.63, 32.4471, 11.8319, 12.5453, 113.713, -48.8723
0.038876, -1, 39.63, 32.4471, 11.8319, 12.5453, 113.713, -48.8723
0.047734, -1, 39.63, 32.4471, 11.8319, 12.5453, 113.713, -48.8724
0.055783, -1, 39.6295, 32.447, 11.8319, 12.5453, 113.713, -48.8724
0.201759, -1, 38.2529, 31.7444, 12.1046, 12.5574, 112.991, -50.7156
0.203673, -1, 38.1643, 31.6982, 12.1241, 12.5587, 112.941, -50.8417
0.205046, -1, 38.1643, 31.6982, 12.1241, 12.5587, 112.941, -50.8417
0.206498, -1, 38.1643, 31.6982, 12.1241, 12.5587, 112.941, -50.8417
0.20861, -1, 38.0744, 31.6513, 12.1436, 12.5599, 112.89, -50.9688
0.209822, -1, 38.0744, 31.6513, 12.1436, 12.5599, 112.89, -50.9688
0.212529, -1, 37.9832, 31.6039, 12.1631, 12.5612, 112.84, -51.0968
0.215504, -1, 37.9832, 31.6039, 12.1631, 12.5612, 112.84, -51.2254
0.216857, -1, 37.8908, 31.5559, 12.1825, 12.5623, 112.789, -51.2254
0.218168, -1, 37.8908, 31.5559, 12.1825, 12.5623, 112.789, -51.2254
0.220205, -1, 37.7975, 31.5076, 12.2019, 12.5635, 112.738, -51.3544
0.222766, -1, 37.7975, 31.5076, 12.2019, 12.5635, 112.738, -51.3544
0.224994, -1, 37.7033, 31.4591, 12.2213, 12.5647, 112.687, -51.4838
0.226188, -1, 37.7033, 31.4591, 12.2213, 12.5647, 112.687, -51.4838
0.228204, -1, 37.6085, 31.4103, 12.2407, 12.5659, 112.636, -51.6135
0.230563, -1, 37.6085, 31.4103, 12.2407, 12.5659, 112.636, -51.6135
0.232586, -1, 37.5131, 31.3614, 12.2601, 12.5672, 112.585, -51.7433
0.233866, -1, 37.5131, 31.3614, 12.2601, 12.5672, 112.585, -51.7433
0.236557, -1, 37.5131, 31.3614, 12.2794, 12.5685, 112.533, -51.873
0.237827, -1, 37.4174, 31.3124, 12.2794, 12.5685, 112.533, -51.873
0.239957, -1, 37.4174, 31.3124, 12.2794, 12.5685, 112.533, -52.0027
0.241342, -1, 37.3214, 31.2634, 12.2988, 12.5697, 112.482, -52.0027
0.249747, -1, 37.1294, 31.1656, 12.3376, 12.5721, 112.379, -52.2625
0.251013, -1, 37.1294, 31.1656, 12.3376, 12.5721, 112.379, -52.2625
0.256025, -1, 36.9371, 31.0678, 12.3764, 12.5747, 112.276, -52.5225
0.262713, -1, 36.841, 31.019, 12.3957, 12.576, 112.224, -52.6526
0.272171, -1, 36.5535, 30.8724, 12.454, 12.5798, 112.07, -53.0432
0.280314, -1, 36.3619, 30.7747, 12.4929, 12.5824, 111.967, -53.3034
0.288616, -1, 36.1704, 30.6768, 12.5317, 12.585, 111.864, -53.5639
0.296297, -1, 35.9789, 30.5789, 12.5706, 12.5876, 111.762, -53.8243
0.304283, -1, 35.7873, 30.4809, 12.6095, 12.5902, 111.659, -54.085
0.312483, -1, 35.5955, 30.3829, 12.6484, 12.5926, 111.555, -54.3451
0.320317, -1, 35.4995, 30.3338, 12.6678, 12.594, 111.504, -54.6056
0.32771, -1, 35.3073, 30.2355, 12.7066, 12.5966, 111.401, -54.7358
0.33577, -1, 35.1148, 30.1372, 12.7455, 12.5992, 111.298, -54.9966
0.343735, -1, 34.9225, 30.0387, 12.7844, 12.6018, 111.195, -55.2574
0.35171, -1, 34.7302, 29.9403, 12.8232, 12.6044, 111.092, -55.5179
0.35979, -1, 34.5379, 29.8418, 12.8621, 12.6069, 110.989, -55.7787
0.367726, -1, 34.3457, 29.7433, 12.9011, 12.6095, 110.886, -56.0396
0.375787, -1, 34.1536, 29.645, 12.94, 12.6121, 110.783, -56.3005
0.383754, -1, 33.9618, 29.5468, 12.9789, 12.6147, 110.68, -56.5612
0.39171, -1, 33.7701, 29.4484, 13.0179, 12.6174, 110.576, -56.822
0.399733, -1, 33.5783, 29.35, 13.0567, 12.62, 110.473, -57.0829
0.407759, -1, 33.3862, 29.2517, 13.0957, 12.6226, 110.37, -57.3441
0.415723, -1, 33.1936, 29.1531, 13.1346, 12.6252, 110.267, -57.605
0.42371, -1, 33.0008, 29.0545, 13.1734, 12.6279, 110.164, -57.8661
0.431783, -1, 32.8079, 28.9559, 13.2124, 12.6305, 110.061, -58.1271
0.439707, -1, 32.6146, 28.8573, 13.2513, 12.6332, 109.958, -58.3885
0.447723, -1, 32.421, 28.7586, 13.2901, 12.6359, 109.855, -58.6496
0.456697, -1, 32.2271, 28.6599, 13.3291, 12.6386, 109.752, -58.9105
0.463705, -1, 32.033, 28.5611, 13.3679, 12.6413, 109.649, -59.1716
0.471706, -1, 31.8391, 28.4623, 13.4068, 12.644, 109.546, -59.4331
0.479757, -1, 31.6455, 28.3635, 13.4459, 12.6467, 109.443, -59.6944
0.488733, -1, 31.4521, 28.2648, 13.4848, 12.6496, 109.34, -59.9555
0.495792, -1, 31.259, 28.1662, 13.5237, 12.6523, 109.237, -60.2168
0.503731, -1, 31.0664, 28.0677, 13.5629, 12.6552, 109.134, -60.4783
0.511725, -1, 30.8741, 27.9692, 13.6019, 12.6579, 109.03, -60.7399
0.519778, -1, 30.6821, 27.8706, 13.6408, 12.6608, 108.927, -61.0011
0.655022, -1, 27.4939, 26.2403, 14.2839, 12.7033, 107.223, -65.3184
0.657164, -1, 27.3979, 26.1909, 14.3034, 12.7045, 107.171, -65.4492
0.659124, -1, 27.3018, 26.1414, 14.323, 12.7057, 107.12, -65.5799
0.660636, -1, 27.3018, 26.1414, 14.323, 12.7057, 107.12, -65.5799
0.66186, -1, 27.3018, 26.1414, 14.323, 12.7057, 107.12, -65.5799
0.663891, -1, 27.2058, 26.0919, 14.3425, 12.7068, 107.068, -65.7107
0.665114, -1, 27.2058, 26.0919, 14.3425, 12.7068, 107.068, -65.7107
0.667879, -1, 27.1096, 26.0424, 14.3619, 12.708, 107.016, -65.8415
0.669216, -1, 27.1096, 26.0424, 14.3619, 12.708, 107.016, -65.8415
0.671196, -1, 27.0133, 25.9929, 14.3813, 12.7091, 106.964, -65.9724
0.672692, -1, 27.0133, 25.9929, 14.3813, 12.7091, 106.964, -65.9724
0.673903, -1, 27.0133, 25.9929, 14.3813, 12.7091, 106.964, -65.9724
0.676791, -1, 26.917, 25.9435, 14.4008, 12.7103, 106.913, -66.1034
0.677984, -1, 26.917, 25.9435, 14.4008, 12.7103, 106.913, -66.1034
0.680076, -1, 26.8206, 25.8941, 14.4203, 12.7114, 106.861, -66.2344
0.684345, -1, 26.7242, 25.8447, 14.4398, 12.7126, 106.809, -66.3651
0.685628, -1, 26.7242, 25.8447, 14.4398, 12.7126, 106.809, -66.3651
0.687564, -1, 26.6276, 25.7953, 14.4593, 12.7137, 106.758, -66.4959
0.688924, -1, 26.6276, 25.7953, 14.4593, 12.7137, 106.758, -66.4959
0.690112, -1, 26.6276, 25.7953, 14.4593, 12.7137, 106.758, -66.4959
0.692253, -1, 26.5309, 25.7458, 14.4787, 12.7149, 106.706, -66.6268
0.695391, -1, 26.5309, 25.7458, 14.4787, 12.7149, 106.654, -66.7577
0.70578, -1, 26.2402, 25.5976, 14.5371, 12.7182, 106.552, -67.0194
0.712694, -1, 26.0461, 25.4987, 14.5761, 12.7205, 106.448, -67.2814
0.719736, -1, 25.8518, 25.3998, 14.615, 12.7228, 106.345, -67.5432
0.727807, -1, 25.6576, 25.301, 14.6541, 12.7251, 106.242, -67.8047
0.735923, -1, 25.4636, 25.2023, 14.693, 12.7274, 106.139, -68.0663
0.743913, -1, 25.2698, 25.1036, 14.7319, 12.7297, 106.036, -68.3282
0.7507, -1, 25.1731, 25.0542, 14.7515, 12.7309, 105.984, -68.4591
0.76002, -1, 24.8832, 24.9059, 14.81, 12.7343, 105.829, -68.8515
0.768133, -1, 24.6903, 24.8071, 14.8489, 12.7367, 105.726, -69.1132
0.774765, -1, 24.5939, 24.7577, 14.8684, 12.7379, 105.674, -69.2441
0.784194, -1, 24.3053, 24.6093, 14.927, 12.7415, 105.519, -69.6369
0.792271, -1, 24.1128, 24.5105, 14.9659, 12.7438, 105.416, -69.8983
0.800332, -1, 23.9201, 24.4117, 15.005, 12.7462, 105.313, -70.1597
0.806691, -1, 23.8237, 24.3623, 15.0244, 12.7474, 105.261, -70.2906
0.816332, -1, 23.6307, 24.2634, 15.0828, 12.751, 105.106, -70.6833
0.825322, -1, 23.4374, 24.1645, 15.1022, 12.7534, 105.002, -70.9448
0.831693, -1, 23.2438, 24.0656, 15.1412, 12.7546, 104.951, -71.0756
0.839691, -1, 23.05, 23.9667, 15.18, 12.7571, 104.847, -71.3374
0.847783, -1, 22.8559, 23.8679, 15.219, 12.7595, 104.744, -71.5992
0.854686, -1, 22.662, 23.7691, 15.258, 12.762, 104.64, -71.8611
0.863686, -1, 22.4682, 23.6704, 15.2969, 12.7644, 104.537, -72.1225
0.871692, -1, 22.2748, 23.5717, 15.3359, 12.767, 104.434, -72.3839
0.878685, -1, 22.0816, 23.473, 15.3748, 12.7695, 104.33, -72.6455
0.887741, -1, 21.8886, 23.3743, 15.4138, 12.7721, 104.227, -72.907
0.895691, -1, 21.6961, 23.2756, 15.4528, 12.7748, 104.124, -73.1684
0.903771, -1, 21.5038, 23.1768, 15.4917, 12.7775, 104.021, -73.4298
0.911707, -1, 21.3116, 23.0781, 15.5307, 12.7801, 103.918, -73.6913
0.919693, -1, 21.1192, 22.9795, 15.5697, 12.7827, 103.815, -73.953
0.929296, -1, 20.8305, 22.8315, 15.628, 12.7868, 103.66, -74.3447
0.935686, -1, 20.7343, 22.7822, 15.6475, 12.7881, 103.608, -74.4753
0.943772, -1, 20.5416, 22.6836, 15.6864, 12.7908, 103.505, -74.7366
0.951697, -1, 20.3485, 22.5849, 15.7253, 12.7936, 103.402, -74.9979
0.958764, -1, 20.1548, 22.4862, 15.7643, 12.7963, 103.299, -75.2592
0.967753, -1, 19.9612, 22.3875, 15.8031, 12.7991, 103.196, -75.5202
0.975683, -1, 19.7676, 22.2888, 15.8418, 12.8018, 103.093, -75.7813
0.983695, -1, 19.574, 22.1902, 15.8808, 12.8045, 102.99, -76.0426
0.99175, -1, 19.3806, 22.0916, 15.9197, 12.8073, 102.887, -76.3039
0.999701, -1, 19.1876, 21.9929, 15.9585, 12.81, 102.784, -76.5648
1.0077, -1, 18.9948, 21.8942, 15.9975, 12.8127, 102.681, -76.8256
1.01585, -1, 18.8023, 21.7956, 16.0363, 12.8154, 102.578, -77.0866
1.0237, -1, 18.6102, 21.6968, 16.075, 12.8182, 102.475, -77.3476
1.03168, -1, 18.4184, 21.5982, 16.114, 12.8208, 102.372, -77.6083
1.03975, -1, 18.2265, 21.4997, 16.1528, 12.8235, 102.269, -77.869
1.04775, -1, 18.0346, 21.4012, 16.1916, 12.826, 102.167, -78.1299
1.05568, -1, 17.8427, 21.3028, 16.2306, 12.8286, 102.064, -78.3907
1.06376, -1, 17.6507, 21.2045, 16.2694, 12.8311, 101.961, -78.6513
1.0717, -1, 17.4583, 21.1062, 16.3082, 12.8336, 101.858, -78.9117
1.07971, -1, 17.2654, 21.0079, 16.3471, 12.8361, 101.755, -79.1722
1.08776, -1, 17.0723, 20.9096, 16.3859, 12.8384, 101.652, -79.4329
1.09568, -1, 16.8794, 20.8114, 16.4247, 12.8408, 101.549, -79.6934
1.10369, -1, 16.6863, 20.7132, 16.4635, 12.8431, 101.446, -79.9539
1.11176, -1, 16.4933, 20.615, 16.5022, 12.8455, 101.344, -80.2143
1.11969, -1, 16.3005, 20.5166, 16.5409, 12.8478, 101.241, -80.475
1.12773, -1, 16.1082, 20.4182, 16.5797, 12.8501, 101.138, -80.7356
1.13571, -1, 15.9162, 20.3198, 16.6184, 12.8524, 101.036, -80.9956
1.1437, -1, 15.7245, 20.2213, 16.6571, 12.8547, 100.933, -81.2556
1.15179, -1, 15.5331, 20.1229, 16.6956, 12.8571, 100.83, -81.5157
1.15978, -1, 15.342, 20.0246, 16.7343, 12.8594, 100.728, -81.776
1.16782, -1, 15.1509, 19.9263, 16.7731, 12.8617, 100.625, -82.0357
1.17585, -1, 14.9597, 19.8281, 16.8117, 12.864, 100.523, -82.2955
1.18396, -1, 14.7684, 19.73, 16.8504, 12.8663, 100.42, -82.5554
1.19179, -1, 14.5769, 19.6319, 16.8891, 12.8685, 100.317, -82.8155
1.19987, -1, 14.385, 19.5338, 16.9278, 12.8708, 100.215, -83.0751
1.20771, -1, 14.1928, 19.4357, 16.9665, 12.8731, 100.112, -83.3346
1.21578, -1, 14.0004, 19.3378, 17.0052, 12.8753, 100.01, -83.5943
1.2238, -1, 13.808, 19.2399, 17.0437, 12.8777, 99.9074, -83.854
1.23174, -1, 13.6155, 19.1421, 17.0824, 12.88, 99.805, -84.1135
1.23989, -1, 13.4232, 19.0442, 17.1211, 12.8823, 99.7024, -84.3727
1.24801, -1, 13.2312, 18.9463, 17.1596, 12.8846, 99.6002, -84.6321
1.25467, -1, 13.1353, 18.8973, 17.1788, 12.8858, 99.5491, -84.7617
1.26419, -1, 12.8484, 18.7503, 17.2368, 12.8893, 99.3953, -85.1509
1.2721, -1, 12.6573, 18.6524, 17.2753, 12.8917, 99.2932, -85.4099
1.28014, -1, 12.4667, 18.5546, 17.3139, 12.8941, 99.1908, -85.6688
1.28822, -1, 12.2765, 18.4568, 17.3524, 12.8966, 99.0885, -85.9276
1.29628, -1, 12.0863, 18.3591, 17.3908, 12.899, 98.9866, -86.1867
1.3052, -1, 11.896, 18.2615, 17.4295, 12.9013, 98.8843, -86.4455
1.31127, -1, 11.8008, 18.2127, 17.4488, 12.9025, 98.8334, -86.5747
1.32034, -1, 11.6101, 18.0663, 17.5065, 12.9062, 98.6807, -86.9628
1.32918, -1, 11.4192, 18.0174, 17.5258, 12.9074, 98.5787, -87.2214
1.33546, -1, 11.2281, 17.9199, 17.5644, 12.9098, 98.5277, -87.3507
1.34267, -1, 11.0367, 17.8224, 17.6029, 12.9122, 98.4259, -87.609
1.35167, -1, 10.8451, 17.725, 17.6413, 12.9148, 98.3238, -87.8671
1.35973, -1, 10.6534, 17.6274, 17.6798, 12.9172, 98.2219, -88.1254
1.36768, -1, 10.462, 17.5299, 17.7181, 12.9198, 98.1202, -88.3838
1.37572, -1, 10.2708, 17.4324, 17.7566, 12.9223, 98.0183, -88.6418
1.38381, -1, 10.08, 17.3348, 17.795, 12.925, 97.9164, -88.8998
1.39168, -1, 9.88957, 17.2372, 17.8333, 12.9277, 97.8147, -89.1579
1.39968, -1, 9.69942, 17.1397, 17.8717, 12.9303, 97.7125, -89.4161
1.40778, -1, 9.5097, 17.0423, 17.91, 12.933, 97.6106, -89.6741
1.41569, -1, 9.32047, 16.9449, 17.9483, 12.9357, 97.5089, -89.9316
1.42368, -1, 9.13114, 16.8476, 17.9868, 12.9384, 97.4069, -90.1891
1.4315, -1, 8.94177, 16.7505, 18.0251, 12.9411, 97.3051, -90.4466
1.43967, -1, 8.75225, 16.6533, 18.0635, 12.9437, 97.2035, -90.7043
1.44767, -1, 8.56266, 16.5561, 18.1019, 12.9464, 97.1018, -90.9615
1.45668, -1, 8.37292, 16.4591, 18.1402, 12.9491, 97.0004, -91.2187
1.46368, -1, 8.18261, 16.362, 18.1785, 12.9517, 96.8988, -91.4759
1.47267, -1, 7.99209, 16.2652, 18.2169, 12.9543, 96.7971, -91.7332
1.47949, -1, 7.80162, 16.1682, 18.2552, 12.957, 96.6958, -91.9901
1.48768, -1, 7.61102, 16.0713, 18.2934, 12.9597, 96.5942, -92.2468
1.49566, -1, 7.42057, 15.9743, 18.3318, 12.9622, 96.4928, -92.5035
1.50369, -1, 7.23042, 15.8774, 18.3699, 12.9648, 96.3917, -92.7604
1.51167, -1, 7.04062, 15.7804, 18.4081, 12.9674, 96.2903, -93.017
1.51974, -1, 6.85117, 15.6835, 18.4464, 12.97, 96.189, -93.2734
1.52768, -1, 6.66221, 15.5866, 18.4845, 12.9725, 96.0884, -93.5299
1.53567, -1, 6.47373, 15.4898, 18.5226, 12.975, 95.9872, -93.7862
1.54374, -1, 6.2855, 15.3931, 18.5608, 12.9775, 95.8861, -94.0427
1.55174, -1, 6.09743, 15.2965, 18.5989, 12.98, 95.7854, -94.2987
1.55967, -1, 5.90922, 15.1998, 18.6371, 12.9823, 95.6843, -94.5545
1.56774, -1, 5.72082, 15.1031, 18.6753, 12.9847, 95.5833, -94.8105
1.5757, -1, 5.5323, 15.0065, 18.7133, 12.987, 95.4828, -95.0665
1.5837, -1, 5.34356, 14.91, 18.7514, 12.9893, 95.3818, -95.322
1.59173, -1, 5.15436, 14.8135, 18.7896, 12.9915, 95.2811, -95.5775
1.59968, -1, 4.96494, 14.7172, 18.8276, 12.9938, 95.1806, -95.8328
1.60767, -1, 4.77554, 14.6208, 18.8656, 12.996, 95.0797, -96.0884
1.61573, -1, 4.58606, 14.5244, 18.9037, 12.9982, 94.979, -96.3437
1.6242, -1, 4.39692, 14.4281, 18.9417, 13.0004, 94.8783, -96.5986
1.63167, -1, 4.20794, 14.3317, 18.9797, 13.0026, 94.7773, -96.8535
1.63974, -1, 4.01926, 14.2353, 19.0177, 13.0049, 94.6766, -97.1085
1.64842, -1, 3.83121, 14.1391, 19.0555, 13.0071, 94.5758, -97.3636
1.65577, -1, 3.64367, 14.0429, 19.0935, 13.0093, 94.4751, -97.6182
1.66405, -1, 3.45653, 13.9468, 19.1315, 13.0117, 94.3745, -97.8729
1.67125, -1, 3.26961, 13.8507, 19.1692, 13.014, 94.2738, -98.1278
1.67928, -1, 3.08261, 13.7547, 19.2071, 13.0163, 94.1731, -98.3826
1.68817, -1, 2.89564, 13.6587, 19.245, 13.0185, 94.0725, -98.637
1.69648, -1, 2.70858, 13.5627, 19.2829, 13.0208, 93.9718, -98.8911
1.70391, -1, 2.52128, 13.4667, 19.3208, 13.023, 93.8714, -99.1452
1.71244, -1, 2.33383, 13.3708, 19.3585, 13.0253, 93.7711, -99.3995
1.72058, -1, 2.14597, 13.275, 19.3963, 13.0276, 93.6708, -99.6534
1.72777, -1, 1.95786, 13.1792, 19.4343, 13.0298, 93.5706, -99.9071
1.73661, -1, 1.76971, 13.0833, 19.472, 13.0321, 93.4707, -100.161
1.74475, -1, 1.58147, 12.9875, 19.5097, 13.0343, 93.3705, -100.414
1.75195, -1, 1.39339, 12.8916, 19.5476, 13.0365, 93.2705, -100.668
1.76077, -1, 1.20559, 12.7958, 19.5853, 13.0388, 93.1706, -100.921
1.76803, -1, 1.01815, 12.7, 19.623, 13.0412, 93.0705, -101.174
1.77613, -1, 0.831377, 12.6044, 19.6608, 13.0435, 92.9705, -101.427
1.78272, -1, 0.738139, 12.5567, 19.6796, 13.0447, 92.9207, -101.554
1.79218, -1, 0.459122, 12.4133, 19.7359, 13.0484, 92.7711, -101.933
1.80026, -1, 0.273493, 12.318, 19.7737, 13.0509, 92.6713, -102.186
1.80911, -1, 0.0880793, 12.2226, 19.8113, 13.0533, 92.5721, -102.438
1.81476, -1, -0.0046337, 12.1749, 19.83, 13.0545, 92.5222, -102.565
1.82432, -1, -0.190183, 12.032, 19.8865, 13.0581, 92.3728, -102.944
1.83321, -1, -0.37592, 11.9844, 19.9241, 13.0607, 92.2735, -103.196
1.83873, -1, -0.561995, 11.8893, 19.9428, 13.0619, 92.2237, -103.322
1.84871, -1, -0.841575, 11.7468, 19.9992, 13.0656, 92.0746, -103.7
1.85565, -1, -0.934867, 11.6992, 20.0179, 13.0669, 92.025, -103.826
1.86272, -1, -1.12159, 11.6042, 20.0554, 13.0694, 91.9255, -104.078
1.87171, -1, -1.30861, 11.5091, 20.0929, 13.0719, 91.8262, -104.329
1.87966, -1, -1.49544, 11.4141, 20.1304, 13.0744, 91.7271, -104.581
1.88665, -1, -1.68198, 11.3189, 20.1678, 13.077, 91.6278, -104.832
1.89567, -1, -1.86819, 11.2239, 20.2053, 13.0796, 91.5286, -105.084
1.90366, -1, -2.05398, 11.1289, 20.2427, 13.0823, 91.4296, -105.335
1.91067, -1, -2.23915, 11.034, 20.2801, 13.0849, 91.3303, -105.586
1.91968, -1, -2.42395, 10.9391, 20.3175, 13.0875, 91.2312, -105.837
1.92765, -1, -2.60841, 10.8444, 20.3548, 13.0902, 91.1322, -106.088
1.93465, -1, -2.79233, 10.7496, 20.392, 13.093, 91.033, -106.339
1.94366, -1, -2.97622, 10.6548, 20.4294, 13.0956, 90.934, -106.589
1.95166, -1, -3.16028, 10.5601, 20.4669, 13.0981, 90.8353, -106.84
1.96067, -1, -3.34454, 10.4656, 20.504, 13.1007, 90.7362, -107.091
1.96666, -1, -3.5292, 10.3711, 20.5413, 13.1032, 90.6373, -107.341
1.97567, -1, -3.71399, 10.2768, 20.5786, 13.1058, 90.5386, -107.591
1.98372, -1, -3.89902, 10.1824, 20.6158, 13.1083, 90.4397, -107.841
1.99165, -1, -4.08434, 10.0881, 20.653, 13.1107, 90.3411, -108.091
1.99966, -1, -4.26987, 9.99377, 20.6902, 13.1131, 90.2427, -108.341
2.00765, -1, -4.45546, 9.89945, 20.7273, 13.1154, 90.1439, -108.591
2.01567, -1, -4.64076, 9.80511, 20.7647, 13.1178, 90.0454, -108.841
2.02372, -1, -4.82562, 9.71088, 20.8018, 13.1202, 89.9471, -109.09
2.03166, -1, -5.01018, 9.61678, 20.8388, 13.1226, 89.8484, -109.34
2.03965, -1, -5.19397, 9.52273, 20.876, 13.125, 89.75, -109.589
2.04773, -1, -5.37735, 9.42868, 20.9131, 13.1273, 89.6518, -109.838
2.05572, -1, -5.56032, 9.33477, 20.9502, 13.1296, 89.5533, -110.087
2.06365, -1, -5.74285, 9.24088, 20.9873, 13.1318, 89.4551, -110.335
2.07173, -1, -5.9252, 9.14694, 21.0243, 13.1342, 89.3571, -110.584
2.07967, -1, -6.10758, 9.0531, 21.0613, 13.1364, 89.2589, -110.833
2.08775, -1, -6.29028, 8.95932, 21.0984, 13.1386, 89.1608, -111.081
2.09572, -1, -6.47325, 8.86565, 21.1353, 13.1409, 89.0631, -111.33
2.10365, -1, -6.65633, 8.77201, 21.1721, 13.1429, 88.965, -111.578
2.11166, -1, -6.8399, 8.67841, 21.2091, 13.1452, 88.8671, -111.826
2.11972, -1, -7.02376, 8.5848, 21.2461, 13.1473, 88.7694, -112.074
2.12766, -1, -7.20791, 8.49124, 21.2829, 13.1494, 88.6715, -112.322
2.1357, -1, -7.39212, 8.3976, 21.3199, 13.1515, 88.5736, -112.569
2.14367, -1, -7.57592, 8.30397, 21.3567, 13.1537, 88.4762, -112.817
2.15168, -1, -7.75943, 8.21053, 21.3934, 13.1558, 88.3784, -113.064
2.15979, -1, -7.94251, 8.11712, 21.4303, 13.1581, 88.281, -113.311
2.16781, -1, -8.12514, 8.02372, 21.4671, 13.1603, 88.1838, -113.559
2.17575, -1, -8.307, 7.93044, 21.5038, 13.1625, 88.0863, -113.806
2.18381, -1, -8.48835, 7.8372, 21.5407, 13.1647, 87.989, -114.053
2.19176, -1, -8.66937, 7.74399, 21.5775, 13.167, 87.8917, -114.299
2.19976, -1, -8.85008, 7.65078, 21.6143, 13.1693, 87.7941, -114.546
2.20791, -1, -9.03087, 7.55767, 21.651, 13.1715, 87.6967, -114.792
2.21566, -1, -9.21195, 7.46468, 21.6878, 13.1738, 87.5996, -115.039
2.22396, -1, -9.39322, 7.37189, 21.7244, 13.176, 87.5024, -115.285
2.23177, -1, -9.57485, 7.27904, 21.7611, 13.1782, 87.4053, -115.531
2.23973, -1, -9.75681, 7.18624, 21.7978, 13.1805, 87.3083, -115.777
2.24798, -1, -9.93912, 7.09355, 21.8343, 13.1827, 87.211, -116.023
2.25596, -1, -10.1216, 7.00082, 21.8709, 13.1849, 87.1138, -116.269
2.26391, -1, -10.3043, 6.90802, 21.9075, 13.1871, 87.0167, -116.515
2.27065, -1, -10.3956, 6.86164, 21.9258, 13.1882, 86.968, -116.638
2.28011, -1, -10.6691, 6.72255, 21.9807, 13.1916, 86.8226, -117.006
2.28816, -1, -10.8509, 6.62993, 22.0171, 13.194, 86.7257, -117.251
2.29627, -1, -11.0322, 6.53732, 22.0535, 13.1964, 86.6287, -117.496
2.30422, -1, -11.2126, 6.44481, 22.0901, 13.1988, 86.5321, -117.741
2.31219, -1, -11.3926, 6.35232, 22.1266, 13.2012, 86.4355, -117.986
2.32044, -1, -11.5722, 6.25986, 22.163, 13.2036, 86.3387, -118.231
2.32826, -1, -11.6619, 6.21365, 22.1813, 13.2049, 86.2421, -118.476
2.33564, -1, -11.8412, 6.12127, 22.2178, 13.2074, 86.1938, -118.598
2.3443, -1, -12.0203, 6.02901, 22.2542, 13.2098, 86.0971, -118.842
2.35165, -1, -12.1997, 5.93685, 22.2906, 13.2123, 86.0007, -119.086
2.35964, -1, -12.3794, 5.84485, 22.3271, 13.2148, 85.9044, -119.331
2.3677, -1, -12.5595, 5.75283, 22.3633, 13.2172, 85.8081, -119.575
2.37564, -1, -12.7399, 5.66087, 22.3995, 13.2197, 85.7118, -119.819
2.38365, -1, -12.9208, 5.56896, 22.4359, 13.2222, 85.616, -120.062
2.39171, -1, -13.1018, 5.47703, 22.4722, 13.2246, 85.5199, -120.306
2.39967, -1, -13.2831, 5.38503, 22.5084, 13.2271, 85.4239, -120.55
2.40669, -1, -13.4641, 5.29309, 22.5447, 13.2295, 85.3282, -120.793
2.41566, -1, -13.6448, 5.20116, 22.5809, 13.2321, 85.2323, -121.036
2.42367, -1, -13.825, 5.10931, 22.617, 13.2346, 85.1365, -121.279
2.43064, -1, -14.0046, 5.0175, 22.6532, 13.2373, 85.041, -121.522
2.43965, -1, -14.1833, 4.92581, 22.6893, 13.2398, 84.9454, -121.765
2.44766, -1, -14.3615, 4.83411, 22.7254, 13.2424, 84.8497, -122.008
2.45719, -1, -14.5395, 4.74245, 22.7616, 13.2449, 84.7542, -122.25
2.46363, -1, -14.7171, 4.65085, 22.7978, 13.2474, 84.6585, -122.493
2.47265, -1, -14.8948, 4.55937, 22.8339, 13.2499, 84.5627, -122.735
2.47866, -1, -15.0725, 4.46793, 22.8701, 13.2523, 84.4671, -122.978
2.48769, -1, -15.2505, 4.37666, 22.9062, 13.2547, 84.3715, -123.219
2.49565, -1, -15.429, 4.28534, 22.9422, 13.2572, 84.2758, -123.461
2.50371, -1, -15.6078, 4.19406, 22.9782, 13.2595, 84.1803, -123.703
2.51163, -1, -15.787, 4.10279, 23.0142, 13.2618, 84.0848, -123.945
2.51967, -1, -15.9663, 4.01155, 23.0502, 13.264, 83.9893, -124.186
2.52765, -1, -16.1458, 3.92027, 23.0862, 13.2662, 83.894, -124.428
2.53565, -1, -16.3256, 3.829, 23.1222, 13.2683, 83.7985, -124.669
2.54372, -1, -16.505, 3.73777, 23.158, 13.2705, 83.7031, -124.91
2.55164, -1, -16.6841, 3.64665, 23.1939, 13.2727, 83.6077, -125.152
2.55972, -1, -16.8625, 3.55552, 23.2297, 13.275, 83.5123, -125.393
2.56814, -1, -17.04, 3.46446, 23.2656, 13.2772, 83.417, -125.634
2.57476, -1, -17.2169, 3.37348, 23.3014, 13.2794, 83.3217, -125.874
2.58366, -1, -17.3935, 3.28258, 23.3373, 13.2817, 83.2267, -126.115
2.59245, -1, -17.5697, 3.19173, 23.373, 13.2837, 83.1315, -126.356
2.59966, -1, -17.7458, 3.10107, 23.4089, 13.2859, 83.0367, -126.596
2.60764, -1, -17.9218, 3.01045, 23.4448, 13.288, 82.942, -126.836
2.61643, -1, -18.098, 2.91997, 23.4805, 13.2901, 82.847, -127.076
2.62364, -1, -18.2746, 2.8296, 23.5162, 13.2923, 82.7523, -127.316
2.63164, -1, -18.4516, 2.73918, 23.552, 13.2943, 82.6578, -127.556
2.64044, -1, -18.629, 2.64881, 23.5877, 13.2963, 82.563, -127.796
2.64764, -1, -18.8066, 2.55851, 23.6233, 13.2984, 82.4684, -128.035
2.65573, -1, -18.9847, 2.46806, 23.6591, 13.3004, 82.3741, -128.275
2.66459, -1, -19.1629, 2.37758, 23.6947, 13.3024, 82.2797, -128.514
2.67173, -1, -19.3411, 2.28722, 23.7302, 13.3044, 82.1853, -128.753
2.67981, -1, -19.5188, 2.19684, 23.7659, 13.3065, 82.0915, -128.992
2.68857, -1, -19.6957, 2.10647, 23.8013, 13.3087, 81.9972, -129.231
2.69574, -1, -19.8723, 2.01616, 23.8367, 13.3108, 81.903, -129.471
2.70381, -1, -20.0481, 1.9259, 23.8724, 13.313, 81.8091, -129.709
2.71254, -1, -20.2233, 1.83569, 23.9079, 13.3152, 81.7148, -129.948
2.71969, -1, -20.3981, 1.74558, 23.9433, 13.3174, 81.6209, -130.186
2.72781, -1, -20.5727, 1.65551, 23.9789, 13.3196, 81.5271, -130.425
2.73656, -1, -20.7472, 1.56554, 24.0144, 13.3218, 81.433, -130.663
2.74379, -1, -20.9218, 1.47566, 24.0498, 13.324, 81.3393, -130.901
2.75195, -1, -21.0968, 1.38596, 24.0853, 13.3262, 81.2457, -131.139
2.75991, -1, -21.2722, 1.29617, 24.1209, 13.3283, 81.1518, -131.376
2.76804, -1, -21.4479, 1.20646, 24.1562, 13.3305, 81.0579, -131.614
2.77464, -1, -21.5359, 1.16165, 24.1738, 13.3316, 81.011, -131.733
2.78675, -1, -21.8002, 1.02719, 24.2271, 13.3348, 80.8703, -132.089
2.79219, -1, -21.9766, 0.937574, 24.2624, 13.337, 80.7765, -132.327
2.80019, -1, -22.1531, 0.847994, 24.2978, 13.3391, 80.683, -132.564
2.80896, -1, -22.3296, 0.758434, 24.3332, 13.3413, 80.5893, -132.801
2.8162, -1, -22.5057, 0.668948, 24.3684, 13.3437, 80.4957, -133.038
2.82423, -1, -22.5935, 0.624183, 24.4036, 13.346, 80.4021, -133.275
2.83311, -1, -22.7689, 0.534731, 24.439, 13.3484, 80.3084, -133.512
2.83863, -1, -22.9433, 0.445297, 24.4566, 13.3496, 80.2616, -133.63
2.84763, -1, -23.117, 0.355854, 24.4917, 13.352, 80.1681, -133.867
2.85569, -1, -23.2905, 0.266518, 24.5269, 13.3545, 80.0748, -134.104
2.86263, -1, -23.4636, 0.177212, 24.5621, 13.3569, 79.9812, -134.34
2.87163, -1, -23.6368, 0.0880414, 24.5972, 13.3593, 79.8879, -134.576
2.87969, -1, -23.8101, -0.00103259, 24.6324, 13.3617, 79.7948, -134.812
2.88762, -1, -23.9836, -0.0899988, 24.6676, 13.3642, 79.7016, -135.048
2.89569, -1, -24.1572, -0.178975, 24.7026, 13.3667, 79.6085, -135.284
2.90368, -1, -24.3312, -0.267941, 24.7377, 13.3691, 79.5155, -135.52
2.91162, -1, -24.5055, -0.356829, 24.7729, 13.3715, 79.4224, -135.755
2.91965, -1, -24.6801, -0.445722, 24.8079, 13.374, 79.3293, -135.991
2.9277, -1, -24.8551, -0.534673, 24.8429, 13.3763, 79.2363, -136.227
2.93463, -1, -25.0302, -0.623544, 24.878, 13.3787, 79.1434, -136.462
2.94363, -1, -25.2051, -0.712351, 24.913, 13.3811, 79.0503, -136.697
2.95169, -1, -25.3796, -0.801086, 24.9479, 13.3835, 78.9576, -136.932
2.95963, -1, -25.5537, -0.889936, 24.9829, 13.3859, 78.8651, -137.167
2.96862, -1, -25.7273, -0.978677, 25.0177, 13.3884, 78.7723, -137.402
2.9757, -1, -25.9002, -1.06734, 25.0525, 13.3907, 78.6797, -137.636
2.98468, -1, -26.0727, -1.15603, 25.0876, 13.3932, 78.5874, -137.871
2.99163, -1, -26.2448, -1.24469, 25.1225, 13.3956, 78.4947, -138.105
2.9997, -1, -26.4165, -1.33319, 25.1572, 13.3979, 78.4021, -138.34
3.00763, -1, -26.5883, -1.42161, 25.1921, 13.4002, 78.3099, -138.574
3.01563, -1, -26.7603, -1.50995, 25.2271, 13.4024, 78.2173, -138.808
3.02369, -1, -26.9326, -1.59816, 25.2619, 13.4047, 78.1249, -139.042
3.03164, -1, -27.1051, -1.68631, 25.2967, 13.407, 78.0328, -139.276
3.03962, -1, -27.2777, -1.77455, 25.3316, 13.4091, 77.9406, -139.51
3.04769, -1, -27.4506, -1.86267, 25.3663, 13.4113, 77.8485, -139.744
3.05562, -1, -27.6238, -1.95076, 25.4011, 13.4134, 77.7566, -139.977
3.06375, -1, -27.797, -2.03898, 25.436, 13.4155, 77.6645, -140.211
3.07164, -1, -27.9703, -2.12699, 25.4707, 13.4176, 77.5724, -140.444
3.07962, -1, -28.1436, -2.21506, 25.5054, 13.4196, 77.4805, -140.678
3.08771, -1, -28.3166, -2.3031, 25.5403, 13.4217, 77.3884, -140.911
3.09563, -1, -28.4894, -2.39115, 25.575, 13.4238, 77.2963, -141.144
3.10373, -1, -28.6618, -2.4791, 25.6096, 13.4259, 77.2043, -141.376
3.11171, -1, -28.8336, -2.56709, 25.6443, 13.4281, 77.1123, -141.609
3.11962, -1, -29.0046, -2.65506, 25.679, 13.4303, 77.0203, -141.842
3.12763, -1, -29.1752, -2.7429, 25.7136, 13.4324, 76.9284, -142.075
3.13569, -1, -29.3458, -2.8307, 25.7482, 13.4344, 76.8368, -142.307
3.14362, -1, -29.5165, -2.91843, 25.783, 13.4365, 76.7448, -142.539
3.15163, -1, -29.6874, -3.006, 25.8175, 13.4386, 76.6529, -142.772
3.15972, -1, -29.8584, -3.09354, 25.8521, 13.4406, 76.5613, -143.005
3.16775, -1, -30.0294, -3.18101, 25.8867, 13.4427, 76.4693, -143.236
3.176, -1, -30.2003, -3.26854, 25.9212, 13.4447, 76.3777, -143.468
3.18374, -1, -30.3715, -3.35596, 25.9558, 13.4468, 76.2863, -143.7
3.19173, -1, -30.543, -3.44337, 25.9904, 13.4489, 76.1945, -143.932
3.20018, -1, -30.7148, -3.53091, 26.0248, 13.4509, 76.1031, -144.164
3.20717, -1, -30.8007, -3.57461, 26.042, 13.452, 76.0119, -144.395
3.21563, -1, -31.0584, -3.70564, 26.0939, 13.4549, 75.9204, -144.626
3.2244, -1, -31.2301, -3.79297, 26.1284, 13.457, 75.829, -144.858
3.23174, -1, -31.4015, -3.8803, 26.1627, 13.4591, 75.7377, -145.089
3.2398, -1, -31.5724, -3.9676, 26.1972, 13.4613, 75.6465, -145.32
3.24862, -1, -31.7428, -4.05481, 26.2317, 13.4634, 75.5552, -145.551
3.25585, -1, -31.9128, -4.14208, 26.266, 13.4656, 75.4641, -145.782
3.2639, -1, -32.0824, -4.22929, 26.3005, 13.4678, 75.3731, -146.013
3.2728, -1, -32.2519, -4.31638, 26.3349, 13.47, 75.282, -146.244
3.27998, -1, -32.4213, -4.40345, 26.3691, 13.4721, 75.1909, -146.474
3.28837, -1, -32.591, -4.49038, 26.4035, 13.4743, 75.1003, -146.705
3.29704, -1, -32.7607, -4.57729, 26.438, 13.4764, 75.0093, -146.935
3.30414, -1, -32.9303, -4.6642, 26.4722, 13.4786, 74.9185, -147.166
3.31219, -1, -33.1, -4.75112, 26.5063, 13.4808, 74.8281, -147.396
3.32101, -1, -33.2698, -4.838, 26.5407, 13.483, 74.7373, -147.626
3.32821, -1, -33.3547, -4.9249, 26.575, 13.4852, 74.6467, -147.856
3.33648, -1, -33.525, -4.9684, 26.5921, 13.4874, 74.5562, -148.086
3.34361, -1, -33.6953, -5.05527, 26.6263, 13.4885, 74.511, -148.201
3.35161, -1, -33.8655, -5.14201, 26.6606, 13.4907, 74.4202, -148.43
3.35968, -1, -34.0358, -5.22871, 26.6947, 13.493, 74.3297, -148.66
3.36762, -1, -34.206, -5.31549, 26.7288, 13.4952, 74.2394, -148.889
3.37561, -1, -34.3761, -5.40212, 26.7632, 13.4975, 74.1486, -149.119
3.38366, -1, -34.5459, -5.48876, 26.7973, 13.4998, 74.0581, -149.348
3.39161, -1, -34.7151, -5.57544, 26.8314, 13.5022, 73.9677, -149.578
3.39973, -1, -34.8838, -5.66204, 26.8655, 13.5046, 73.877, -149.807
3.40761, -1, -35.0523, -5.74857, 26.8997, 13.5071, 73.7866, -150.035
3.41561, -1, -35.2205, -5.83506, 26.9337, 13.5095, 73.6962, -150.265
3.42369, -1, -35.3888, -5.9214, 26.9679, 13.5119, 73.6059, -150.493
3.43163, -1, -35.5574, -6.00763, 27.002, 13.5143, 73.5156, -150.722
3.43961, -1, -35.7258, -6.09389, 27.0359, 13.5167, 73.4252, -150.951
3.44768, -1, -35.8944, -6.18009, 27.07, 13.5191, 73.3351, -151.179
3.45561, -1, -36.0629, -6.26625, 27.1041, 13.5214, 73.2445, -151.408
3.46364, -1, -36.2313, -6.35237, 27.1381, 13.5238, 73.154, -151.637
3.47261, -1, -36.4, -6.4386, 27.172, 13.5263, 73.064, -151.865
3.47961, -1, -36.5689, -6.52484, 27.206, 13.5286, 72.9734, -152.093
3.48763, -1, -36.7378, -6.61098, 27.2399, 13.5309, 72.8832, -152.321
3.49567, -1, -36.9067, -6.69713, 27.2738, 13.5332, 72.7932, -152.549
3.50362, -1, -37.0757, -6.78327, 27.3078, 13.5355, 72.7029, -152.778
3.51445, -1, -37.2445, -6.86937, 27.3417, 13.5377, 72.6131, -153.119
3.51961, -1, -37.4131, -6.9554, 27.3755, 13.54, 72.5233, -153.233
3.52768, -1, -37.5812, -7.04145, 27.4095, 13.5423, 72.4334, -153.461
3.53561, -1, -37.7489, -7.12746, 27.4435, 13.5445, 72.3435, -153.688
3.54361, -1, -37.9166, -7.21345, 27.4773, 13.5467, 72.2537, -153.916
3.55168, -1, -38.084, -7.29935, 27.5111, 13.5489, 72.164, -154.143
3.55961, -1, -38.2515, -7.38524, 27.5451, 13.5511, 72.0741, -154.37
3.56767, -1, -38.4187, -7.47099, 27.5789, 13.5533, 71.9845, -154.598
3.57568, -1, -38.5859, -7.5567, 27.6127, 13.5554, 71.8951, -154.825
3.58361, -1, -38.7533, -7.64243, 27.6466, 13.5575, 71.8053, -155.052
3.59162, -1, -38.9205, -7.72812, 27.6803, 13.5595, 71.7158, -155.279
3.59978, -1, -39.0879, -7.81372, 27.7139, 13.5616, 71.6268, -155.506
3.60765, -1, -39.2554, -7.89938, 27.7478, 13.5636, 71.5372, -155.733
3.61561, -1, -39.4229, -7.98506, 27.7816, 13.5656, 71.4479, -155.959
3.62368, -1, -39.5906, -8.07062, 27.8152, 13.5676, 71.3587, -156.186
3.6316, -1, -39.7583, -8.15615, 27.8489, 13.5695, 71.2693, -156.413
3.63962, -1, -39.9259, -8.2416, 27.8827, 13.5714, 71.1799, -156.639
3.64779, -1, -40.0934, -8.32704, 27.9163, 13.5734, 71.0905, -156.865
3.65561, -1, -40.2609, -8.41242, 27.9499, 13.5753, 71.0014, -157.092
3.66364, -1, -40.4281, -8.49778, 27.9837, 13.5773, 70.912, -157.318
3.67207, -1, -40.5951, -8.58314, 28.0173, 13.5793, 70.8228, -157.544
3.67924, -1, -40.7619, -8.66854, 28.0509, 13.5813, 70.7338, -157.77
3.6877, -1, -40.9285, -8.75389, 28.0846, 13.5833, 70.6446, -157.996
3.69616, -1, -41.0949, -8.83921, 28.1183, 13.5853, 70.5554, -158.222
3.70319, -1, -41.1781, -8.88184, 28.1518, 13.5873, 70.4665, -158.448
3.71176, -1, -41.4274, -9.00963, 28.1853, 13.5893, 70.3771, -158.673
3.72037, -1, -41.5937, -9.0948, 28.219, 13.5913, 70.2879, -158.899
3.72765, -1, -41.76, -9.17989, 28.2526, 13.5933, 70.1989, -159.124
3.7357, -1, -41.9264, -9.26494, 28.2861, 13.5953, 70.1098, -159.349
3.74467, -1, -42.0928, -9.34996, 28.3198, 13.5974, 70.0208, -159.575
3.75182, -1, -42.2591, -9.43503, 28.3533, 13.5994, 69.9318, -159.8
3.75992, -1, -42.4253, -9.52004, 28.3868, 13.6014, 69.843, -160.026
3.76874, -1, -42.5917, -9.605, 28.4204, 13.6034, 69.754, -160.251
3.77592, -1, -42.7581, -9.68994, 28.4539, 13.6054, 69.6651, -160.476
3.78405, -1, -42.9245, -9.77493, 28.4872, 13.6075, 69.5765, -160.701
3.7906, -1, -43.0077, -9.81739, 28.5039, 13.6085, 69.532, -160.814
3.8009, -1, -43.257, -9.94481, 28.5542, 13.6116, 69.3989, -161.151
3.80818, -1, -43.4232, -10.0297, 28.5877, 13.6137, 69.3103, -161.375
3.81622, -1, -43.5892, -10.1146, 28.6212, 13.6159, 69.2217, -161.6
3.8249, -1, -43.7551, -10.1996, 28.6547, 13.6179, 69.1331, -161.825
3.83232, -1, -43.9209, -10.2844, 28.6881, 13.62, 69.0446, -162.05
3.84015, -1, -44.0038, -10.3268, 28.7048, 13.6211, 69.0005, -162.162
3.84759, -1, -44.1692, -10.4115, 28.7382, 13.6233, 68.9118, -162.386
3.85565, -1, -44.3343, -10.4961, 28.7718, 13.6255, 68.8232, -162.61
3.8636, -1, -44.4995, -10.5806, 28.8051, 13.6277, 68.7347, -162.835
3.87165, -1, -44.6647, -10.6652, 28.8385, 13.6299, 68.646, -163.059
3.87965, -1, -44.83, -10.7497, 28.872, 13.632, 68.5576, -163.283
3.88761, -1, -44.9954, -10.8342, 28.9054, 13.6342, 68.4691, -163.507
3.89561, -1, -45.1607, -10.9187, 28.9387, 13.6364, 68.3808, -163.731
3.90371, -1, -45.326, -11.0032, 28.9722, 13.6386, 68.2922, -163.955
3.91164, -1, -45.4913, -11.0877, 29.0055, 13.6409, 68.2038, -164.179
3.91959, -1, -45.6565, -11.1721, 29.0387, 13.6433, 68.1159, -164.403
3.92767, -1, -45.8218, -11.2566, 29.072, 13.6455, 68.0273, -164.626
3.93561, -1, -45.986, -11.3405, 29.1055, 13.6478, 67.9389, -164.85
3.9436, -1, -46.1474, -11.4229, 29.139, 13.6501, 67.8509, -165.073
3.95171, -1, -46.3044, -11.5023, 29.1726, 13.6524, 67.7635, -165.294
3.95959, -1, -46.4548, -11.5774, 29.2061, 13.6548, 67.6783, -165.51
3.9676, -1, -46.596, -11.6473, 29.2384, 13.6571, 67.5967, -165.715
3.97749, -1, -46.7851, -11.7396, 29.2819, 13.6603, 67.4874, -165.992
3.98359, -1, -46.8407, -11.7667, 29.2946, 13.6613, 67.4552, -166.074
3.99262, -1, -46.9395, -11.8159, 29.3168, 13.663, 67.3993, -166.216
3.99968, -1, -47.022, -11.8588, 29.3334, 13.6643, 67.3544, -166.329
4.00759, -1, -47.0893, -11.8956, 29.3447, 13.6651, 67.3208, -166.414
4.01561, -1, -47.1417, -11.925, 29.3519, 13.6655, 67.2975, -166.473
4.02366, -1, -47.1806, -11.9472, 29.3559, 13.6657, 67.2824, -166.51
4.03162, -1, -47.2082, -11.9626, 29.3577, 13.6658, 67.2736, -166.533
4.03959, -1, -47.2263, -11.9726, 29.3585, 13.6659, 67.2689, -166.545
4.04766, -1, -47.2372, -11.9785, 29.3589, 13.6659, 67.2665, -166.55
4.05557, 2, -47.2428, -11.9815, 29.3591, 13.666, 67.2654, -166.553
4.06359, 2, -47.2449, -11.9828, 29.3592, 13.666, 67.2649, -166.554
4.07178, 2, -47.245, -11.9834, 29.3593, 13.666, 67.2646, -166.555
4.07959, 2, -47.2448, -11.9835, 29.3594, 13.666, 67.2645, -166.555
4.08759, 2, -47.2447, -11.9836, 29.3594, 13.6661, 67.2645, -166.555
4.09568, 2, -47.2451, -11.9837, 29.3594, 13.6661, 67.2645, -166.555
4.10359, 2, -47.246, -11.9839, 29.3595, 13.6661, 67.2645, -166.555
4.11165, 2, -47.2472, -11.9844, 29.3595, 13.6661, 67.2645, -166.556
4.11966, 2, -47.249, -11.9852, 29.3595, 13.666, 67.2645, -166.556
4.12764, 2, -47.2506, -11.986, 29.3595, 13.666, 67.2645, -166.555
4.13561, 2, -47.252, -11.9869, 29.3595, 13.666, 67.2644, -166.555
4.14366, 2, -47.2529, -11.9875, 29.3595, 13.6661, 67.2644, -166.556
4.15164, 2, -47.2534, -11.988, 29.3595, 13.6661, 67.2645, -166.556
4.15958, 2, -47.2536, -11.9882, 29.3595, 13.666, 67.2645, -166.556
4.16772, 2, -47.2536, -11.9882, 29.3595, 13.6661, 67.2645, -166.555
4.17569, 2, -47.2533, -11.9882, 29.3595, 13.6661, 67.2644, -166.555
4.18369, 2, -47.2529, -11.9882, 29.3595, 13.6661, 67.2645, -166.555
4.19191, 2, -47.2525, -11.9882, 29.3595, 13.6661, 67.2644, -166.555
4.1997, 2, -47.2521, -11.9882, 29.3595, 13.666, 67.2645, -166.555
4.20771, 2, -47.2519, -11.9882, 29.3595, 13.666, 67.2645, -166.555
4.21578, 2, -47.2519, -11.9882, 29.3595, 13.6661, 67.2645, -166.555
4.22359, 2, -47.252, -11.9884, 29.3595, 13.6661, 67.2645, -166.555
4.23181, 2, -47.2522, -11.9887, 29.3595, 13.6661, 67.2645, -166.555
4.23977, 2, -47.2528, -11.9891, 29.3595, 13.6661, 67.2645, -166.555
4.24765, 2, -47.2533, -11.9894, 29.3595, 13.6661, 67.2645, -166.555
4.25592, 2, -47.2536, -11.9896, 29.3595, 13.6661, 67.2645, -166.555
4.26397, 2, -47.2538, -11.9897, 29.3595, 13.6661, 67.2645, -166.555
4.2719, 2, -47.2538, -11.9897, 29.3595, 13.6661, 67.2645, -166.555
4.2799, 2, -47.2537, -11.9897, 29.3595, 13.666, 67.2645, -166.555
4.28812, 2, -47.2535, -11.9896, 29.3595, 13.6661, 67.2646, -166.555
4.29605, 2, -47.2531, -11.9896, 29.3595, 13.666, 67.2645, -166.555
4.30425, 2, -47.2528, -11.9895, 29.3595, 13.666, 67.2645, -166.555
4.3123, 2, -47.2525, -11.9895, 29.3595, 13.666, 67.2645, -166.555
4.32016, 2, -47.2523, -11.9895, 29.3595, 13.666, 67.2645, -166.555
4.32814, 2, -47.2523, -11.9895, 29.3595, 13.666, 67.2645, -166.555
4.33631, 2, -47.2522, -11.9896, 29.3595, 13.666, 67.2645, -166.555
4.34358, 2, -47.2522, -11.9896, 29.3595, 13.666, 67.2645, -166.555
4.35163, 2, -47.2522, -11.9897, 29.3595, 13.666, 67.2645, -166.555
4.35963, 2, -47.2522, -11.9898, 29.3595, 13.666, 67.2645, -166.555
4.36759, 2, -47.2522, -11.9898, 29.3595, 13.666, 67.2645, -166.555
4.3756, 2, -47.2522, -11.9898, 29.3595, 13.6659, 67.2645, -166.555
4.38364, 2, -47.2522, -11.9898, 29.3595, 13.6659, 67.2645, -166.555
4.39163, 2, -47.2522, -11.9897, 29.3595, 13.666, 67.2645, -166.555
4.39958, 2, -47.252, -11.9896, 29.3595, 13.666, 67.2645, -166.555
4.40775, 2, -47.252, -11.9896, 29.3595, 13.666, 67.2645, -166.555
4.41559, 2, -47.2518, -11.9895, 29.3595, 13.666, 67.2645, -166.555
4.42357, 2, -47.2517, -11.9895, 29.3595, 13.666, 67.2645, -166.555
4.43172, 2, -47.2516, -11.9895, 29.3595, 13.666, 67.2645, -166.555
4.43958, 2, -47.2516, -11.9895, 29.3595, 13.666, 67.2645, -166.555
4.44759, 2, -47.2515, -11.9895, 29.3595, 13.666, 67.2645, -166.555
4.45565, 2, -47.2514, -11.9896, 29.3595, 13.666, 67.2646, -166.555
4.46357, 2, -47.2514, -11.9896, 29.3595, 13.666, 67.2646, -166.555
4.47258, 2, -47.2514, -11.9896, 29.3595, 13.666, 67.2646, -166.555
4.47964, 2, -47.2513, -11.9896, 29.3595, 13.6659, 67.2645, -166.555
4.48864, 2, -47.2512, -11.9896, 29.3595, 13.666, 67.2646, -166.555
4.49559, 2, -47.2511, -11.9895, 29.3595, 13.6659, 67.2646, -166.555
4.50376, 2, -47.251, -11.9894, 29.3595, 13.6659, 67.2646, -166.555
4.51164, 2, -47.251, -11.9894, 29.3595, 13.666, 67.2646, -166.555
4.51958, 2, -47.2509, -11.9893, 29.3595, 13.6659, 67.2647, -166.555
4.52766, 2, -47.2508, -11.9893, 29.3595, 13.6659, 67.2647, -166.555
4.53559, 2, -47.2507, -11.9893, 29.3595, 13.666, 67.2646, -166.555
4.54357, 2, -47.2506, -11.9893, 29.3595, 13.6659, 67.2646, -166.555
4.5517, 2, -47.2505, -11.9893, 29.3595, 13.6659, 67.2647, -166.555
4.55957, 2, -47.2503, -11.9893, 29.3595, 13.6659, 67.2646, -166.555
4.56758, 2, -47.2502, -11.9893, 29.3595, 13.6659, 67.2646, -166.555
4.57572, 2, -47.2501, -11.9893, 29.3595, 13.6659, 67.2646, -166.555
4.58358, 2, -47.25, -11.9893, 29.3595, 13.6659, 67.2646, -166.555
4.59163, 2, -47.2499, -11.9893, 29.3595, 13.6659, 67.2646, -166.555
4.59966, 2, -47.2498, -11.9892, 29.3595, 13.6659, 67.2646, -166.555
4.60758, 2, -47.2497, -11.9891, 29.3595, 13.6659, 67.2647, -166.555
4.61559, 2, -47.2496, -11.989, 29.3595, 13.6659, 67.2647, -166.555
4.62364, 2, -47.2495, -11.989, 29.3595, 13.6659, 67.2647, -166.555
4.63164, 2, -47.2494, -11.9889, 29.3595, 13.6659, 67.2647, -166.555
4.63958, 2, -47.2493, -11.9889, 29.3595, 13.6659, 67.2647, -166.555
4.64765, 2, -47.2492, -11.9889, 29.3595, 13.6658, 67.2647, -166.555
4.65559, 2, -47.2492, -11.9889, 29.3595, 13.6659, 67.2646, -166.555
4.6636, 2, -47.2491, -11.9889, 29.3595, 13.6659, 67.2647, -166.555
4.67179, 2, -47.2491, -11.9889, 29.3595, 13.6659, 67.2647, -166.555
4.67966, 2, -47.249, -11.9889, 29.3595, 13.6659, 67.2646, -166.555
4.68768, 2, -47.249, -11.9889, 29.3595, 13.6658, 67.2647, -166.555
4.69575, 2, -47.249, -11.9889, 29.3595, 13.6658, 67.2647, -166.555
4.70368, 2, -47.2489, -11.9888, 29.3595, 13.6658, 67.2647, -166.555
4.71174, 2, -47.2488, -11.9888, 29.3595, 13.6658, 67.2647, -166.555
4.71975, 2, -47.2488, -11.9887, 29.3595, 13.6658, 67.2647, -166.555
4.72758, 2, -47.2487, -11.9886, 29.3595, 13.6658, 67.2647, -166.555
4.73562, 2, -47.2486, -11.9886, 29.3595, 13.6658, 67.2647, -166.555
4.74375, 2, -47.2485, -11.9886, 29.3595, 13.6658, 67.2647, -166.555
4.7517, 2, -47.2484, -11.9886, 29.3595, 13.6658, 67.2647, -166.555
4.75979, 2, -47.2484, -11.9886, 29.3595, 13.6658, 67.2647, -166.555
4.76823, 2, -47.2484, -11.9885, 29.3595, 13.6658, 67.2647, -166.555
4.77588, 2, -47.2484, -11.9885, 29.3595, 13.6658, 67.2648, -166.555
4.78397, 2, -47.2484, -11.9885, 29.3595, 13.6657, 67.2648, -166.555
4.79249, 2, -47.2483, -11.9885, 29.3595, 13.6657, 67.2648, -166.555
4.80005, 2, -47.2483, -11.9885, 29.3595, 13.6657, 67.2648, -166.555
4.80812, 2, -47.2482, -11.9885, 29.3595, 13.6657, 67.2648, -166.555
4.81652, 2, -47.2482, -11.9884, 29.3595, 13.6657, 67.2648, -166.554
4.82424, 2, -47.2481, -11.9883, 29.3595, 13.6657, 67.2648, -166.554
4.83221, 2, -47.248, -11.9882, 29.3595, 13.6656, 67.2648, -166.554
4.84045, 2, -47.2479, -11.9882, 29.3595, 13.6657, 67.2647, -166.554
4.84757, 2, -47.2479, -11.9882, 29.3595, 13.6656, 67.2647, -166.554
4.85558, 2, -47.2478, -11.9882, 29.3595, 13.6656, 67.2648, -166.554
4.86445, 2, -47.2478, -11.9881, 29.3595, 13.6656, 67.2648, -166.554
4.87162, 2, -47.2478, -11.9881, 29.3595, 13.6656, 67.2648, -166.554
4.87956, 2, -47.2477, -11.9881, 29.3595, 13.6656, 67.2648, -166.554
4.88762, 2, -47.2477, -11.9881, 29.3595, 13.6656, 67.2648, -166.554
4.89558, 2, -47.2476, -11.9881, 29.3595, 13.6656, 67.2648, -166.554
4.90356, 2, -47.2476, -11.9881, 29.3595, 13.6656, 67.2649, -166.554
4.91174, 2, -47.2476, -11.9881, 29.3595, 13.6656, 67.2649, -166.554
4.91956, 2, -47.2475, -11.988, 29.3595, 13.6655, 67.2649, -166.554
4.92757, 2, -47.2475, -11.9879, 29.3595, 13.6655, 67.2649, -166.554
4.93565, 2, -47.2474, -11.9879, 29.3595, 13.6655, 67.265, -166.554
4.94356, 2, -47.2473, -11.9878, 29.3595, 13.6655, 67.265, -166.554
4.95162, 2, -47.2472, -11.9878, 29.3595, 13.6655, 67.265, -166.554
4.95963, 2, -47.2472, -11.9878, 29.3595, 13.6655, 67.265, -166.554
4.96756, 2, -47.2471, -11.9878, 29.3595, 13.6655, 67.265, -166.554
4.97656, 2, -47.2471, -11.9878, 29.3595, 13.6655, 67.265, -166.554
4.98363, 2, -47.247, -11.9878, 29.3595, 13.6655, 67.265, -166.554
4.99161, 2, -47.247, -11.9877, 29.3595, 13.6655, 67.265, -166.554
5.00058, 2, -47.247, -11.9877, 29.3595, 13.6654, 67.265, -166.554
5.00765, 2, -47.247, -11.9877, 29.3595, 13.6654, 67.265, -166.554
5.01558, 2, -47.2469, -11.9877, 29.3595, 13.6654, 67.265, -166.554
5.02356, 2, -47.2469, -11.9876, 29.3595, 13.6654, 67.265, -166.554
5.03168, 2, -47.2469, -11.9876, 29.3595, 13.6654, 67.2651, -166.554
5.03956, 2, -47.2468, -11.9875, 29.3595, 13.6654, 67.2651, -166.554
5.04755, 2, -47.2467, -11.9875, 29.3595, 13.6654, 67.2651, -166.554
5.05581, 2, -47.2466, -11.9874, 29.3595, 13.6653, 67.2651, -166.554
5.06457, 2, -47.2465, -11.9874, 29.3595, 13.6653, 67.2651, -166.554
5.0717, 2, -47.2464, -11.9874, 29.3595, 13.6653, 67.2651, -166.554
5.07962, 2, -47.2465, -11.9874, 29.3595, 13.6653, 67.2651, -166.554
5.08758, 2, -47.2464, -11.9874, 29.3595, 13.6653, 67.2651, -166.554
5.09564, 2, -47.2464, -11.9874, 29.3595, 13.6653, 67.2651, -166.554
5.10358, 2, -47.2464, -11.9874, 29.3595, 13.6652, 67.2651, -166.554
5.11162, 2, -47.2464, -11.9873, 29.3595, 13.6653, 67.2651, -166.554
5.11963, 2, -47.2463, -11.9873, 29.3595, 13.6652, 67.2652, -166.554
5.12756, 2, -47.2463, -11.9872, 29.3595, 13.6652, 67.2651, -166.554
5.13581, 2, -47.2462, -11.9872, 29.3595, 13.6652, 67.2651, -166.554
5.14362, 4, -47.2462, -11.9872, 29.3595, 13.6652, 67.2651, -166.554
5.15161, 4, -47.2461, -11.9871, 29.3595, 13.6652, 67.2651, -166.554
5.15953, 4, -47.2461, -11.9871, 29.3595, 13.6652, 67.2651, -166.554
5.16767, 4, -47.2459, -11.9871, 29.3595, 13.6652, 67.2651, -166.554
5.17566, 4, -47.2459, -11.9871, 29.3594, 13.6651, 67.2652, -166.554
5.18366, 4, -47.2458, -11.9871, 29.3594, 13.6651, 67.2652, -166.554
5.19177, 4, -47.2458, -11.9871, 29.3595, 13.6651, 67.2651, -166.554
5.19966, 4, -47.2458, -11.9871, 29.3595, 13.6651, 67.2652, -166.554
5.20766, 4, -47.2458, -11.987, 29.3595, 13.6651, 67.2652, -166.554
5.2158, 4, -47.2458, -11.987, 29.3594, 13.6651, 67.2652, -166.554
5.22356, 4, -47.2458, -11.987, 29.3594, 13.6651, 67.2652, -166.554
5.23164, 4, -47.2457, -11.9869, 29.3595, 13.665, 67.2652, -166.554
5.23995, 4, -47.2457, -11.9869, 29.3595, 13.665, 67.2652, -166.554
5.2544, 4, -47.2456, -11.9868, 29.3594, 13.665, 67.2652, -166.554
5.25711, 4, -47.2455, -11.9868, 29.3594, 13.665, 67.2652, -166.554
5.26576, 4, -47.2455, -11.9868, 29.3594, 13.665, 67.2653, -166.554
5.27448, 4, -47.2455, -11.9868, 29.3594, 13.665, 67.2653, -166.554
5.28165, 4, -47.2454, -11.9868, 29.3594, 13.665, 67.2653, -166.553
5.28896, 4, -47.2453, -11.9867, 29.3594, 13.6649, 67.2653, -166.553
5.29632, 4, -47.2453, -11.9867, 29.3594, 13.6649, 67.2653, -166.553
5.30488, 4, -47.2453, -11.9867, 29.3594, 13.665, 67.2653, -166.554
5.31253, 4, -47.2453, -11.9867, 29.3595, 13.665, 67.2653, -166.553
5.32059, 4, -47.2452, -11.9867, 29.3594, 13.665, 67.2653, -166.553
5.3287, 4, -47.2452, -11.9866, 29.3594, 13.6649, 67.2653, -166.553
5.33816, 4, -47.2452, -11.9866, 29.3594, 13.6649, 67.2653, -166.553
5.34666, 4, -47.2452, -11.9866, 29.3594, 13.6649, 67.2653, -166.553
5.35302, 4, -47.2451, -11.9866, 29.3594, 13.6649, 67.2654, -166.553
5.36038, 4, -47.2451, -11.9866, 29.3594, 13.6649, 67.2654, -166.553
5.3677, 4, -47.245, -11.9865, 29.3594, 13.6649, 67.2653, -166.553
5.38098, 4, -47.2449, -11.9865, 29.3594, 13.6649, 67.2653, -166.553
5.38369, 4, -47.2449, -11.9865, 29.3594, 13.6649, 67.2653, -166.553
5.39373, 4, -47.2449, -11.9865, 29.3594, 13.6649, 67.2653, -166.553
5.40199, 4, -47.2449, -11.9865, 29.3594, 13.6648, 67.2653, -166.553
5.40781, 4, -47.2449, -11.9865, 29.3594, 13.6648, 67.2653, -166.553
5.42576, 4, -47.2483, -11.9888, 29.3617, 13.6667, 67.266, -166.553
5.42954, 4, -47.2501, -11.9905, 29.3639, 13.6701, 67.2668, -166.553
5.43174, 4, -47.2501, -11.9905, 29.3639, 13.6701, 67.2668, -166.553
5.44267, 4, -47.2596, -12.0021, 29.3799, 13.7013, 67.2747, -166.547
5.44759, 4, -47.2647, -12.0088, 29.3904, 13.7219, 67.2804, -166.543
5.45576, 4, -47.2791, -12.0282, 29.4232, 13.7884, 67.2989, -166.528
5.46355, 5, -47.3012, -12.0579, 29.477, 13.9003, 67.3305, -166.503
5.47311, 5, -47.333, -12.0996, 29.5584, 14.072, 67.3783, -166.464
5.47955, 5, -47.3763, -12.1549, 29.6728, 14.3168, 67.4457, -166.407
5.48855, 5, -47.4323, -12.2251, 29.8234, 14.6436, 67.5351, -166.332
5.49569, 5, -47.501, -12.3105, 30.0124, 15.0546, 67.6459, -166.237
5.50626, 5, -47.5819, -12.4109, 30.2397, 15.5457, 67.7773, -166.064
5.51178, 5, -47.6744, -12.5253, 30.5015, 16.1062, 67.9252, -165.998
5.51995, 5, -47.7768, -12.652, 30.7936, 16.7214, 68.0857, -165.86
5.52768, 5, -47.8872, -12.7893, 31.1099, 17.3769, 68.2536, -165.715
5.53669, 5, -48.0035, -12.9347, 31.4444, 18.0574, 68.425, -165.566
5.54499, 5, -48.1235, -13.0856, 31.7903, 18.7497, 68.5961, -165.417
5.55275, 5, -48.2445, -13.2389, 32.1428, 19.4453, 68.765, -165.27
5.56267, 5, -48.4214, -13.4656, 32.6744, 20.47, 69.0112, -165.046
5.57046, 5, -48.5304, -13.6108, 33.0243, 21.1268, 69.1716, -164.887
5.5797, 6, -48.6269, -13.7472, 33.3633, 21.7487, 69.3311, -164.704
5.58379, 6, -48.6691, -13.8116, 33.5274, 22.044, 69.4114, -164.599
5.59259, 7, -48.7388, -13.9332, 33.842, 22.5999, 69.5746, -164.355
5.59969, 7, -48.7872, -14.0461, 34.1373, 23.1065, 69.7436, -164.052
5.60873, 7, -48.8139, -14.1507, 34.4124, 23.5672, 69.9209, -163.68
5.61569, 8, -48.8201, -14.2455, 34.6687, 23.9896, 70.1093, -163.237
5.62661, 8, -48.8082, -14.3307, 34.9105, 24.3831, 70.4135, -162.448
5.63174, 9, -48.7814, -14.4079, 35.1399, 24.7575, 70.5207, -162.158
5.64069, 9, -48.7426, -14.4792, 35.3612, 25.1216, 70.7423, -161.548
5.65065, 10, -48.6933, -14.5468, 35.5789, 25.4816, 71.0897, -160.591
5.65634, 10, -48.6341, -14.6114, 35.7945, 25.8411, 71.2081, -160.267
5.66556, 11, -48.5675, -14.6735, 36.009, 26.2016, 71.4465, -159.618
5.67356, 11, -48.4953, -14.7343, 36.2233, 26.5646, 71.6854, -158.972
5.68001, 12, -48.4189, -14.7954, 36.4359, 26.9321, 71.9243, -158.329
5.68779, 12, -48.3401, -14.8573, 36.6461, 27.3051, 72.1637, -157.686
5.69578, 13, -48.2603, -14.9183, 36.8548, 27.6851, 72.4039, -157.042
5.70811, 13, -48.1381, -15.0069, 37.1639, 28.2673, 72.7672, -156.07
5.71188, 14, -48.0966, -15.0364, 37.2659, 28.4645, 72.889, -155.744
5.72085, 14, -48.0128, -15.0956, 37.4686, 28.8614, 73.1335, -155.092
5.72973, 15, -47.9296, -15.1536, 37.6674, 29.2588, 73.3771, -154.445
5.73759, 15, -47.8488, -15.2081, 37.8586, 29.6496, 73.6157, -153.812
5.74394, 16, -47.7704, -15.2583, 38.0398, 30.0251, 73.8439, -153.206
5.75369, 16, -47.6945, -15.3045, 38.2077, 30.3749, 74.0564, -152.642
5.76002, 16, -47.6229, -15.3462, 38.3574, 30.6893, 74.2473, -152.136
5.76813, 16, -47.5589, -15.3825, 38.4862, 30.9612, 74.4121, -151.698
5.77633, 16, -47.5028, -15.4128, 38.5933, 31.185, 74.5474, -151.338
5.78433, 16, -47.4547, -15.4371, 38.6786, 31.3597, 74.6531, -151.057
5.79403, 16, -47.415, -15.4563, 38.744, 31.4889, 74.7317, -150.849
5.80076, 16, -47.3837, -15.4704, 38.7918, 31.5792, 74.7869, -150.703
5.80807, 16, -47.3604, -15.4804, 38.8249, 31.6397, 74.8228, -150.607
5.82084, 16, -47.3364, -15.49, 38.8546, 31.6887, 74.8525, -150.528
5.82435, 16, -47.3308, -15.492, 38.8608, 31.6976, 74.8579, -150.513
5.8338, 16, -47.323, -15.4949, 38.8692, 31.7084, 74.8646, -150.495
5.84092, 16, -47.3187, -15.4966, 38.8742, 31.7135, 74.8679, -150.487
5.84848, 16, -47.3174, -15.4976, 38.8773, 31.7159, 74.8696, -150.482
5.85719, 16, -47.3164, -15.4983, 38.8793, 31.717, 74.8703, -150.48
5.86443, 16, -47.3158, -15.4986, 38.8809, 31.7176, 74.8707, -150.48
5.87319, 16, -47.3142, -15.4993, 38.8817, 31.7178, 74.8709, -150.479
5.87964, 16, -47.309, -15.501, 38.8845, 31.7195, 74.872, -150.477
5.88956, 16, -47.2912, -15.5075, 38.8952, 31.7324, 74.8794, -150.458
5.89563, 17, -47.282, -15.5113, 38.902, 31.7424, 74.8852, -150.443
5.90902, 17, -47.2223, -15.5389, 38.9572, 31.8398, 74.9399, -150.292
5.91182, 17, -47.2223, -15.5389, 38.9572, 31.8398, 74.9399, -150.292
5.92274, 17, -47.1473, -15.577, 39.0416, 32.0046, 75.0301, -150.032
5.93173, 18, -47.0814, -15.6107, 39.1229, 32.172, 75.1212, -149.766
5.9388, 18, -47.0019, -15.6515, 39.2251, 32.3883, 75.2376, -149.423
5.94552, 19, -46.908, -15.7003, 39.3471, 32.651, 75.3783, -149.008
5.95214, 19, -46.8557, -15.7276, 39.4147, 32.7975, 75.4561, -148.778
5.95967, 20, -46.7414, -15.787, 39.561, 33.1155, 75.6243, -148.28
5.96756, 20, -46.6153, -15.8519, 39.7181, 33.459, 75.8041, -147.746
5.97848, 21, -46.4053, -15.9584, 39.9653, 34.0023, 76.084, -146.909
5.98376, 21, -46.33, -15.9963, 40.0492, 34.1875, 76.1779, -146.626
5.99434, 22, -46.0908, -16.115, 40.3012, 34.746, 76.4558, -145.778
5.99974, 22, -46.0074, -16.1556, 40.3842, 34.9318, 76.5465, -145.497
6.00768, 23, -45.836, -16.2381, 40.5486, 35.3015, 76.7245, -144.939
6.01586, 23, -45.6587, -16.3223, 40.7108, 35.667, 76.8967, -144.385
6.02375, 24, -45.4754, -16.4086, 40.8699, 36.0277, 77.0637, -143.836
6.03174, 24, -45.2868, -16.4967, 41.0251, 36.3831, 77.2248, -143.293
6.04089, 25, -45.0925, -16.5861, 41.1764, 36.7319, 77.3807, -142.754
6.04769, 25, -44.8923, -16.6762, 41.3239, 37.074, 77.5314, -142.219
6.06046, 26, -44.5782, -16.8128, 41.5368, 37.5745, 77.7488, -141.421
6.06385, 26, -44.4694, -16.8586, 41.6052, 37.7378, 77.8192, -141.157
6.07418, 27, -44.131, -16.9963, 41.8021, 38.2166, 78.0244, -140.367
6.08223, 27, -43.8961, -17.0872, 41.9262, 38.5258, 78.1565, -139.842
6.08895, 28, -43.7759, -17.1324, 41.9859, 38.6775, 78.2213, -139.579
6.09668, 28, -43.5302, -17.2221, 42.1005, 38.9745, 78.3479, -139.055
6.10375, 29, -43.2774, -17.3104, 42.2083, 39.2628, 78.4714, -138.533
6.11188, 29, -43.0182, -17.3971, 42.3092, 39.543, 78.5917, -138.01
6.12266, 30, -42.6164, -17.5239, 42.4469, 39.9471, 78.766, -137.227
6.1287, 30, -42.4788, -17.5652, 42.4893, 40.0776, 78.8229, -136.966
6.13767, 31, -42.1984, -17.6457, 42.5686, 40.3321, 78.9339, -136.445
6.14671, 31, -41.9116, -17.7236, 42.6409, 40.6979, 79.0957, -135.664
6.15277, 32, -41.6183, -17.7993, 42.7063, 40.8156, 79.1483, -135.404
6.1599, 32, -41.3185, -17.8725, 42.7651, 41.0447, 79.2514, -134.885
6.16778, 33, -41.0116, -17.9428, 42.8167, 41.2658, 79.3522, -134.367
6.17593, 33, -40.697, -18.0098, 42.8613, 41.4787, 79.4505, -133.85
6.18385, 34, -40.3747, -18.0739, 42.8986, 41.6836, 79.546, -133.334
6.19359, 34, -40.0467, -18.1355, 42.9286, 41.8803, 79.6387, -132.818
6.20007, 35, -39.713, -18.1942, 42.9513, 42.0692, 79.7294, -132.304
6.21165, 35, -39.3732, -18.2759, 42.9722, 42.3386, 79.8605, -131.536
6.21581, 36, -39.0271, -18.3015, 42.9757, 42.4244, 79.9031, -131.28
6.22492, 36, -38.6744, -18.3502, 42.9776, 42.5904, 79.9867, -130.77
6.23189, 37, -38.3164, -18.3955, 42.9728, 42.7488, 80.0681, -130.26
6.24071, 37, -37.9533, -18.4373, 42.9611, 42.8995, 80.1478, -129.754
6.24779, 38, -37.5853, -18.4753, 42.9427, 43.0431, 80.2251, -129.248
6.25653, 38, -37.2127, -18.5099, 42.9178, 43.1791, 80.3006, -128.743
6.26444, 39, -36.8353, -18.5411, 42.8861, 43.3076, 80.3734, -128.241
6.27646, 39, -36.2589, -18.581, 42.826, 43.487, 80.4796, -127.491
6.28014, 40, -36.0636, -18.5924, 42.8027, 43.5431, 80.5138, -127.242
6.28904, 40, -35.6678, -18.6122, 42.7512, 43.65, 80.5815, -126.745
6.29634, 41, -35.2657, -18.6281, 42.6931, 43.7496, 80.6468, -126.25
6.308, 41, -34.8581, -18.6405, 42.6286, 43.8857, 80.7414, -125.512
6.31243, 42, -34.4472, -18.6495, 42.5576, 43.9274, 80.7719, -125.268
6.32148, 42, -34.0336, -18.6553, 42.4802, 44.0056, 80.8309, -124.779
6.32973, 43, -33.6177, -18.658, 42.3968, 44.0764, 80.8894, -124.294
6.34007, 43, -33.1978, -18.6572, 42.3074, 44.1404, 80.945, -123.569
6.34433, 44, -32.9858, -18.6526, 42.2123, 44.1973, 80.9996, -123.329
6.35295, 44, -32.5571, -18.6489, 42.1115, 44.2465, 81.0529, -122.851
6.36252, 45, -31.9013, -18.632, 42.0047, 44.289, 81.1034, -122.374
6.36902, 45, -31.68, -18.6245, 41.9491, 44.3075, 81.1534, -121.9
6.37661, 46, -31.0106, -18.597, 41.7732, 44.3512, 81.2013, -121.428
6.38367, 46, -30.7863, -18.586, 41.7117, 44.3619, 81.2242, -121.193
6.39244, 47, -30.3353, -18.5613, 41.5842, 44.3776, 81.2692, -120.492
6.39973, 47, -29.88, -18.5323, 41.4509, 44.3858, 81.314, -120.259
6.40767, 48, -29.4187, -18.4988, 41.3115, 44.3874, 81.357, -119.795
6.41568, 48, -28.9513, -18.4611, 41.166, 44.3805, 81.3988, -119.333
6.42374, 49, -28.4786, -18.4191, 41.0145, 44.3648, 81.4407, -118.872
6.43435, 49, -27.7645, -18.3478, 40.7761, 44.3244, 81.5025, -118.185
6.44144, 50, -27.2853, -18.2945, 40.6092, 44.2852, 81.543, -117.727
6.45012, 50, -26.802, -18.2358, 40.4356, 44.2373, 81.5847, -117.271
6.45775, 51, -26.3113, -18.1715, 40.2557, 44.1798, 81.6272, -116.815
6.4641, 51, -26.0628, -18.1372, 40.1633, 44.147, 81.6484, -116.588
6.47178, 52, -25.5604, -18.0645, 39.9729, 44.075, 81.6909, -116.134
6.47981, 52, -25.0532, -17.9866, 39.7752, 43.9921, 81.7351, -115.681
6.48938, 53, -24.5438, -17.9033, 39.5714, 43.8489, 81.8023, -115.001
6.49627, 53, -24.0318, -17.8143, 39.3609, 43.7962, 81.8247, -114.775
6.50374, 54, -23.5147, -17.7192, 39.1424, 43.6829, 81.8716, -114.323
6.51175, 54, -22.99, -17.6178, 38.9172, 43.5589, 81.9206, -113.872
6.51973, 55, -22.4574, -17.5104, 38.685, 43.4239, 81.9707, -113.42
6.52767, 55, -21.9197, -17.3967, 38.445, 43.2771, 82.0237, -112.968
6.53916, 56, -21.1087, -17.2151, 38.0732, 43.035, 82.1067, -112.29
6.54368, 56, -20.8368, -17.1518, 37.9456, 42.9486, 82.1351, -112.065
6.55398, 57, -20.0093, -16.9534, 37.5529, 42.672, 82.2238, -111.389
6.55951, 57, -19.7286, -16.8845, 37.4189, 42.5739, 82.2538, -111.164
6.56775, 58, -19.1611, -16.742, 37.1453, 42.3683, 82.3159, -110.714
6.57989, 58, -18.3016, -16.5172, 36.7236, 42.0364, 82.4125, -110.039
6.58368, 59, -18.014, -16.4395, 36.5796, 41.9196, 82.4459, -109.815
6.59533, 60, -17.1435, -16.1999, 36.1384, 41.5503, 82.5495, -109.14
6.6014, 60, -16.8488, -16.1176, 35.9882, 41.4209, 82.5851, -108.916
6.61085, 61, -15.9504, -15.8619, 35.5298, 41.0131, 82.6948, -108.242
6.61585, 61, -15.6482, -15.7739, 35.3741, 40.8703, 82.7321, -108.018
6.62483, 61, -15.0414, -15.5946, 35.0578, 40.5751, 82.809, -107.57
6.63436, 62, -14.431, -15.4113, 34.7358, 40.2668, 82.8883, -107.121
6.64295, 62, -13.5005, -15.1273, 34.2425, 39.7788, 83.0126, -106.447
6.64766, 63, -13.1853, -15.0296, 34.0757, 39.6093, 83.0554, -106.222
6.65666, 63, -12.5494, -14.8295, 33.7382, 39.2601, 83.1426, -105.771
6.66474, 64, -11.9088, -14.6247, 33.3964, 38.8978, 83.2328, -105.321
6.67204, 64, -11.2641, -14.4137, 33.0492, 38.5227, 83.3258, -104.869
6.68293, 65, -10.6104, -14.195, 32.6967, 37.9323, 83.4734, -104.189
6.69156, 65, -9.60943, -13.8536, 32.1576, 37.5172, 83.5784, -103.733
6.69577, 66, -9.27089, -13.7364, 31.9751, 37.3028, 83.6334, -103.504
6.71132, 67, -7.90111, -13.2508, 31.2279, 36.3989, 83.8711, -102.583
6.71335, 67, -7.90111, -13.2508, 31.2279, 36.3989, 83.8711, -102.583
6.7203, 67, -7.20449, -12.9979, 30.8435, 35.9199, 84.0011, -102.119
6.72784, 68, -6.49927, -12.7379, 30.4539, 35.4247, 84.138, -101.652
6.73834, 68, -5.78709, -12.4712, 30.0614, 34.917, 84.2806, -101.183
6.74541, 69, -5.06954, -12.197, 29.6658, 34.3979, 84.4281, -100.713
6.75362, 69, -4.3454, -11.9142, 29.2678, 33.8678, 84.5804, -100.241
6.75994, 70, -3.61256, -11.624, 28.8688, 33.3259, 84.7382, -99.7661
6.76841, 70, -2.8702, -11.3253, 28.4685, 32.7686, 84.9028, -99.2889
6.77605, 71, -2.1184, -11.0183, 28.0649, 32.1948, 85.0754, -98.8098
6.78571, 71, -1.35718, -10.7039, 27.6564, 31.6029, 85.2582, -98.3272
6.79861, 72, -0.20212, -10.2206, 27.0357, 30.6789, 85.5525, -97.5966
6.80193, 72, 0.185479, -10.0565, 26.8274, 30.3623, 85.6554, -97.3513
6.80841, 73, 0.964151, -9.72139, 26.4096, 29.7204, 85.8678, -96.8595
6.81713, 73, 1.74751, -9.37831, 25.9923, 29.0684, 86.0874, -96.3668
6.82444, 74, 2.53387, -9.02909, 25.5777, 28.409, 86.3145, -95.8726
6.83326, 74, 3.32127, -8.67625, 25.1677, 27.7437, 86.5477, -95.3776
6.84943, 75, 4.89966, -7.95532, 24.3654, 26.4033, 87.0304, -94.3869
6.8514, 75, 4.89966, -7.95532, 24.3654, 26.4033, 87.0304, -94.3869
6.85717, 76, 5.6895, -7.58776, 23.9736, 25.7342, 87.2789, -93.8909
6.86355, 76, 6.08399, -7.40233, 23.7806, 25.3997, 87.4047, -93.6427
6.87154, 77, 6.87167, -7.02711, 23.3999, 24.7333, 87.6604, -93.1462
6.88548, 77, 8.44682, -6.25361, 22.6549, 23.4045, 88.1941, -92.152
6.88746, 78, 8.44682, -6.25361, 22.6549, 23.4045, 88.1941, -92.152
6.89555, 78, 9.23399, -5.85565, 22.2901, 22.7365, 88.4758, -91.6526
6.90347, 79, 10.0218, -5.44946, 21.9294, 22.0637, 88.7695, -91.1497
6.91156, 79, 10.8111, -5.0346, 21.5719, 21.3864, 89.0756, -90.6421
6.92094, 80, 11.9915, -4.39437, 21.0397, 20.3643, 89.5577, -89.87
6.92752, 80, 12.3825, -4.17595, 20.8638, 20.0227, 89.7243, -89.6092
6.93546, 81, 13.1603, -3.73188, 20.5141, 19.3439, 90.066, -89.0826
6.94351, 81, 13.9334, -3.27955, 20.169, 18.6734, 90.4176, -88.5505
6.95161, 82, 14.6997, -2.81997, 19.8296, 18.0145, 90.7774, -88.0142
6.9595, 82, 15.4568, -2.35277, 19.4992, 17.3696, 91.1434, -87.4755
6.9677, 83, 16.2039, -1.87817, 19.1782, 16.7416, 91.5142, -86.9342
6.97557, 83, 16.9404, -1.39641, 18.8682, 16.1338, 91.8884, -86.392
6.98541, 84, 18.0212, -0.662613, 18.4224, 15.2588, 92.4562, -85.5786
6.99161, 84, 18.3734, -0.416007, 18.2789, 14.9774, 92.6478, -85.308
7.00052, 84, 19.0651, 0.079366, 17.9978, 14.4296, 93.0358, -84.7668
7.00751, 85, 19.739, 0.579555, 17.7233, 13.9014, 93.4317, -84.2274
7.0155, 85, 20.3955, 1.08443, 17.4553, 13.3926, 93.8354, -83.6898
7.0236, 86, 21.0351, 1.59308, 17.1926, 12.9039, 94.2455, -83.1549
7.03155, 86, 21.6601, 2.10671, 16.9364, 12.4346, 94.6615, -82.6198
7.04053, 87, 22.2726, 2.62868, 16.6863, 11.9857, 95.0838, -82.0829
7.04756, 87, 22.8738, 3.16125, 16.4408, 11.5561, 95.5124, -81.5419
7.0555, 87, 23.4657, 3.7033, 16.1997, 11.1443, 95.9476, -80.9958
7.06356, 88, 24.0481, 4.25288, 15.9616, 10.7484, 96.3893, -80.4413
7.07156, 88, 24.6193, 4.81143, 15.7273, 10.3681, 96.8375, -79.8767
7.07956, 89, 25.1801, 5.38173, 15.4981, 10.0023, 97.2933, -79.3005
7.08753, 89, 25.7335, 5.9638, 15.2721, 9.65161, 97.7555, -78.7127
7.09553, 90, 26.2832, 6.55621, 15.049, 9.3156, 98.2244, -78.1108
7.10354, 90, 26.8252, 7.15801, 14.8304, 8.99513, 98.7, -77.4946
7.11158, 91, 27.3547, 7.76907, 14.6168, 8.69209, 99.1819, -76.8654
7.11953, 91, 27.872, 8.39076, 14.4074, 8.4077, 99.6699, -76.2243
7.12754, 92, 28.38, 9.02338, 14.2023, 8.14463, 100.163, -75.5716
7.13558, 92, 28.881, 9.66606, 14.002, 7.9034, 100.66, -74.9101
7.1435, 93, 29.3722, 10.3164, 13.8074, 7.68483, 101.158, -74.2421
7.1516, 93, 29.8506, 10.9727, 13.6201, 7.48971, 101.657, -73.5665
7.1596, 94, 30.3145, 11.6331, 13.4407, 7.31805, 102.155, -72.8846
7.16758, 94, 30.7638, 12.2961, 13.2681, 7.17017, 102.65, -72.1984
7.1756, 95, 31.1991, 12.9609, 13.1028, 7.04602, 103.142, -71.507
7.18371, 95, 31.6211, 13.6275, 12.9454, 6.94557, 103.63, -70.8091
7.19165, 96, 32.0287, 14.2951, 12.7952, 6.8685, 104.115, -70.1069
7.19995, 96, 32.42, 14.9634, 12.6512, 6.81595, 104.597, -69.399
7.2076, 97, 32.7949, 15.6319, 12.514, 6.78492, 105.073, -68.6849
7.21593, 97, 33.1541, 16.2987, 12.3845, 6.77518, 105.543, -67.967
7.22367, 98, 33.4979, 16.9627, 12.2636, 6.78788, 106.006, -67.2466
7.23165, 98, 33.8275, 17.6222, 12.1515, 6.82121, 106.46, -66.5225
7.23953, 99, 34.1438, 18.2759, 12.0489, 6.87415, 106.904, -65.7992
7.2476, 99, 34.4483, 18.922, 11.9559, 6.94672, 107.335, -65.0785
7.25569, 100, 34.7418, 19.5595, 11.8721, 7.03644, 107.753, -64.3596
7.26358, 100, 35.0235, 20.1874, 11.7972, 7.14374, 108.156, -63.6462
7.27178, 101, 35.2928, 20.8043, 11.7307, 7.26666, 108.542, -62.9407
7.28053, 101, 35.5498, 21.4103, 11.6725, 7.40385, 108.913, -62.2419
7.28783, 102, 35.794, 22.0037, 11.6227, 7.55326, 109.267, -61.5528
7.29599, 102, 36.0247, 22.5839, 11.581, 7.71272, 109.604, -60.876
7.30407, 103, 36.2447, 23.1496, 11.5475, 7.8806, 109.926, -60.2105
7.31265, 103, 36.4576, 23.6999, 11.5225, 8.05586, 110.231, -59.5568
7.32006, 103, 36.6643, 24.2349, 11.5063, 8.23908, 110.52, -58.9169
7.32809, 104, 36.8645, 24.7544, 11.4983, 8.43091, 110.791, -58.2886
7.33606, 104, 37.0586, 25.2578, 11.497, 8.63177, 111.043, -57.6711
7.34409, 104, 37.2462, 25.7459, 11.502, 8.84124, 111.274, -57.0652
7.35237, 104, 37.3367, 25.9839, 11.5067, 8.94872, 111.486, -56.4722
7.36005, 104, 37.5097, 26.4475, 11.5191, 9.16838, 111.585, -56.1804
7.36754, 104, 37.6729, 26.8951, 11.5343, 9.39217, 111.771, -55.6083
7.37547, 104, 37.8299, 27.328, 11.5525, 9.6169, 111.943, -55.0537
7.38349, 104, 37.9835, 27.7452, 11.5726, 9.84008, 112.104, -54.5203
7.39154, 104, 38.1331, 28.1461, 11.5932, 10.0594, 112.255, -54.0096
7.39949, 104, 38.2775, 28.5302, 11.6137, 10.2739, 112.397, -53.5213
7.4075, 104, 38.4156, 28.898, 11.6329, 10.4819, 112.532, -53.0577
7.41554, 104, 38.5464, 29.2477, 11.6511, 10.6829, 112.659, -52.618
7.42358, 104, 38.669, 29.5791, 11.6682, 10.8755, 112.778, -52.2038
7.43153, 104, 38.7832, 29.8911, 11.6841, 11.0596, 112.889, -51.8144
7.43949, 104, 38.8891, 30.1845, 11.6989, 11.234, 112.993, -51.4497
7.44748, 104, 38.9873, 30.4591, 11.7128, 11.3987, 113.089, -51.1107
7.45557, 104, 39.0778, 30.7137, 11.7254, 11.5529, 113.178, -50.7972
7.46348, 104, 39.1605, 30.9488, 11.7367, 11.6962, 113.259, -50.5086
7.47148, 104, 39.2352, 31.1643, 11.747, 11.8282, 113.333, -50.2455
7.48113, 104, 39.3018, 31.3596, 11.7567, 11.9488, 113.4, -49.8979
7.4875, 104, 39.3605, 31.5357, 11.7654, 12.0575, 113.46, -49.7947
7.49653, 104, 39.4122, 31.6923, 11.773, 12.1539, 113.512, -49.6069
7.50355, 104, 39.4574, 31.8298, 11.7798, 12.2385, 113.557, -49.444
7.51148, 104, 39.497, 31.9493, 11.786, 12.3105, 113.596, -49.3054
7.51948, 104, 39.5307, 32.0518, 11.7916, 12.3714, 113.628, -49.1902
7.52757, 104, 39.5583, 32.1379, 11.7965, 12.4201, 113.653, -49.0971
7.5355, 104, 39.5809, 32.2092, 11.8009, 12.4581, 113.673, -49.0239
7.54348, 104, 39.5987, 32.2674, 11.8049, 12.4873, 113.688, -48.9692
7.55155, 104, 39.6124, 32.3141, 11.8086, 12.5086, 113.698, -48.9299
7.55948, 104, 39.6232, 32.3502, 11.8119, 12.5236, 113.705, -48.903
7.56749, 104, 39.6312, 32.3773, 11.8149, 12.5336, 113.709, -48.8856
7.57557, 104, 39.6369, 32.3975, 11.8175, 12.5397, 113.712, -48.8754
7.58349, 104, 39.6404, 32.4122, 11.8196, 12.5432, 113.713, -48.8701
7.59148, 104, 39.6423, 32.422, 11.8212, 12.545, 113.714, -48.8676
7.59952, 105, 39.6432, 32.4281, 11.8224, 12.5459, 113.714, -48.8665
7.60748, 105, 39.6429, 32.432, 11.8234, 12.5463, 113.714, -48.8661
7.6155, 105, 39.642, 32.4348, 11.8243, 12.5465, 113.714, -48.8662
7.62357, 105, 39.6411, 32.4368, 11.825, 12.5467, 113.714, -48.8664
7.63148, 105, 39.6401, 32.4383, 11.8256, 12.5468, 113.714, -48.8667
7.63948, 105, 39.6388, 32.4397, 11.8262, 12.5469, 113.714, -48.867
7.64755, 105, 39.6377, 32.4409, 11.8268, 12.5469, 113.714, -48.8674
7.6555, 105, 39.637, 32.4421, 11.8274, 12.5469, 113.714, -48.8677
7.66355, 105, 39.6366, 32.4432, 11.828, 12.5469, 113.714, -48.868
7.67155, 105, 39.6364, 32.4443, 11.8285, 12.5469, 113.714, -48.8683
7.67951, 105, 39.6362, 32.4452, 11.829, 12.5469, 113.714, -48.8685
7.68757, 105, 39.636, 32.4459, 11.8294, 12.5469, 113.714, -48.8688
7.69566, 105, 39.6357, 32.4465, 11.8297, 12.5469, 113.714, -48.8689
7.70358, 105, 39.6354, 32.4468, 11.83, 12.5469, 113.714, -48.8692
7.71158, 105, 39.6351, 32.4469, 11.8303, 12.5469, 113.714, -48.8694
7.71992, 105, 39.6348, 32.447, 11.8305, 12.5468, 113.714, -48.8697
