hehonglu123/Motion-Primitive-Planning/ILC/recorded_data/realrobot/from_NX/iteration_16/run_2.csv
timestamp, cmd_num, J1, J2, J3, J4, J5, J6
0.000475, -1, 39.6299, 32.447, 11.8319, 12.5453, 113.713, -48.8724
0.005486, -1, 39.6299, 32.447, 11.8319, 12.5453, 113.713, -48.8724
0.008147, -1, 39.6299, 32.447, 11.8319, 12.5453, 113.713, -48.8724
0.029509, -1, 39.6299, 32.447, 11.8319, 12.5453, 113.713, -48.8724
0.032146, -1, 39.6299, 32.447, 11.8319, 12.5453, 113.713, -48.8723
0.035102, -1, 39.6299, 32.447, 11.8319, 12.5453, 113.713, -48.8722
0.039578, -1, 39.6299, 32.447, 11.8319, 12.5453, 113.713, -48.8723
0.175323, -1, 38.8166, 32.0402, 11.9744, 12.5498, 113.316, -49.892
0.177457, -1, 38.7437, 32.0018, 11.9918, 12.5507, 113.274, -50.0002
0.178656, -1, 38.7437, 32.0018, 11.9918, 12.5507, 113.274, -50.0002
0.18056, -1, 38.6679, 31.9619, 12.0097, 12.5517, 113.23, -50.1123
0.181906, -1, 38.6679, 31.9619, 12.0097, 12.5517, 113.23, -50.1123
0.183308, -1, 38.6679, 31.9619, 12.0097, 12.5517, 113.23, -50.1123
0.185419, -1, 38.5894, 31.9205, 12.028, 12.5528, 113.184, -50.2277
0.191586, -1, 38.5084, 31.878, 12.0467, 12.554, 113.137, -50.3463
0.193612, -1, 38.425, 31.8343, 12.0658, 12.5552, 113.089, -50.4675
0.194862, -1, 38.425, 31.8343, 12.0658, 12.5552, 113.089, -50.4675
0.19688, -1, 38.3398, 31.7896, 12.0851, 12.5564, 113.04, -50.5908
0.198981, -1, 38.3398, 31.7896, 12.0851, 12.5564, 113.04, -50.5908
0.201023, -1, 38.2528, 31.7441, 12.1046, 12.5575, 112.991, -50.7157
0.202308, -1, 38.2528, 31.7441, 12.1046, 12.5575, 112.991, -50.7157
0.203554, -1, 38.2528, 31.7441, 12.1046, 12.5575, 112.991, -50.7157
0.206138, -1, 38.1642, 31.6978, 12.1241, 12.5587, 112.941, -50.8418
0.207461, -1, 38.1642, 31.6978, 12.1241, 12.5587, 112.941, -50.8418
0.209545, -1, 38.0743, 31.6509, 12.1436, 12.56, 112.891, -50.9689
0.210868, -1, 38.0743, 31.6509, 12.1436, 12.56, 112.891, -50.9689
0.213584, -1, 37.9831, 31.6035, 12.1631, 12.5612, 112.84, -51.0969
0.214835, -1, 37.9831, 31.6035, 12.1631, 12.5612, 112.84, -51.0969
0.216888, -1, 37.8907, 31.5556, 12.1825, 12.5624, 112.789, -51.2255
0.225584, -1, 37.7032, 31.4587, 12.2213, 12.5648, 112.687, -51.484
0.231633, -1, 37.6083, 31.4099, 12.2407, 12.566, 112.636, -51.6136
0.239509, -1, 37.4172, 31.312, 12.2794, 12.5685, 112.533, -51.8731
0.247639, -1, 37.2253, 31.2141, 12.3182, 12.5709, 112.431, -52.1326
0.255561, -1, 37.0331, 31.1163, 12.357, 12.5735, 112.328, -52.3925
0.263529, -1, 36.841, 31.0185, 12.3958, 12.5761, 112.225, -52.6527
0.271518, -1, 36.6491, 30.9208, 12.4346, 12.5786, 112.122, -52.9131
0.279568, -1, 36.4575, 30.8231, 12.4735, 12.5812, 112.019, -53.1733
0.287517, -1, 36.266, 30.7253, 12.5123, 12.5838, 111.916, -53.4337
0.295518, -1, 36.0744, 30.6275, 12.5512, 12.5864, 111.813, -53.6942
0.304509, -1, 35.8829, 30.5295, 12.5901, 12.589, 111.71, -53.955
0.311612, -1, 35.6913, 30.4315, 12.629, 12.5915, 111.607, -54.2153
0.320514, -1, 35.4993, 30.3334, 12.6679, 12.5941, 111.504, -54.4755
0.327587, -1, 35.3071, 30.2351, 12.7067, 12.5967, 111.401, -54.736
0.335498, -1, 35.1146, 30.1368, 12.7455, 12.5992, 111.298, -54.9967
0.343517, -1, 34.9223, 30.0383, 12.7844, 12.6018, 111.195, -55.2575
0.35158, -1, 34.73, 29.9398, 12.8233, 12.6044, 111.092, -55.5181
0.359519, -1, 34.5377, 29.8414, 12.8621, 12.6069, 110.989, -55.7788
0.367642, -1, 34.3455, 29.7429, 12.9011, 12.6096, 110.886, -56.0397
0.375583, -1, 34.1535, 29.6446, 12.94, 12.6122, 110.783, -56.3006
0.383503, -1, 33.9616, 29.5463, 12.979, 12.6148, 110.68, -56.5613
0.391517, -1, 33.7699, 29.448, 13.0179, 12.6174, 110.577, -56.8221
0.399642, -1, 33.5781, 29.3497, 13.0567, 12.62, 110.473, -57.0831
0.407507, -1, 33.3859, 29.2513, 13.0957, 12.6226, 110.37, -57.3443
0.415513, -1, 33.1934, 29.1527, 13.1347, 12.6252, 110.267, -57.6051
0.423573, -1, 33.0007, 29.0541, 13.1735, 12.6279, 110.164, -57.8662
0.431523, -1, 32.8077, 28.9556, 13.2124, 12.6306, 110.061, -58.1272
0.439514, -1, 32.6144, 28.8569, 13.2513, 12.6333, 109.958, -58.3886
0.44759, -1, 32.4208, 28.7582, 13.2902, 12.6359, 109.855, -58.6496
0.455499, -1, 32.2269, 28.6595, 13.3291, 12.6386, 109.752, -58.9106
0.463659, -1, 32.0328, 28.5608, 13.3679, 12.6413, 109.649, -59.1717
0.471512, -1, 31.8389, 28.4619, 13.4068, 12.644, 109.546, -59.4331
0.479506, -1, 31.6453, 28.3631, 13.4459, 12.6468, 109.443, -59.6946
0.488352, -1, 31.4518, 28.2645, 13.4849, 12.6496, 109.34, -59.9557
0.495715, -1, 31.2588, 28.1659, 13.5238, 12.6523, 109.237, -60.217
0.632254, -1, 27.9752, 26.4874, 14.1865, 12.6972, 107.481, -64.6639
0.634384, -1, 27.9752, 26.4874, 14.1865, 12.6972, 107.481, -64.6639
0.636529, -1, 27.8788, 26.4379, 14.2061, 12.6984, 107.43, -64.7949
0.637894, -1, 27.8788, 26.4379, 14.2061, 12.6984, 107.43, -64.7949
0.639101, -1, 27.8788, 26.4379, 14.2061, 12.6984, 107.43, -64.7949
0.64114, -1, 27.7824, 26.3885, 14.2256, 12.6997, 107.378, -64.9259
0.642374, -1, 27.7824, 26.3885, 14.2256, 12.6997, 107.378, -64.9259
0.64561, -1, 27.6861, 26.3391, 14.2451, 12.7008, 107.326, -65.0569
0.646927, -1, 27.6861, 26.3391, 14.2451, 12.7008, 107.326, -65.0569
0.648958, -1, 27.5898, 26.2896, 14.2645, 12.702, 107.275, -65.1877
0.650256, -1, 27.5898, 26.2896, 14.2645, 12.702, 107.275, -65.1877
0.652975, -1, 27.4937, 26.2402, 14.284, 12.7032, 107.223, -65.3184
0.654296, -1, 27.4937, 26.2402, 14.284, 12.7032, 107.223, -65.3184
0.656214, -1, 27.3977, 26.1907, 14.3035, 12.7045, 107.171, -65.4492
0.658496, -1, 27.3977, 26.1907, 14.3035, 12.7045, 107.171, -65.4492
0.660998, -1, 27.3017, 26.1412, 14.323, 12.7056, 107.12, -65.5799
0.662328, -1, 27.3017, 26.1412, 14.323, 12.7056, 107.12, -65.5799
0.664113, -1, 27.2056, 26.0917, 14.3426, 12.7068, 107.068, -65.7108
0.665567, -1, 27.2056, 26.0917, 14.3426, 12.7068, 107.068, -65.7108
0.666835, -1, 27.2056, 26.0917, 14.3426, 12.7068, 107.068, -65.7108
0.668934, -1, 27.1094, 26.0422, 14.362, 12.7079, 107.016, -65.8417
0.671441, -1, 27.1094, 26.0422, 14.362, 12.7079, 107.016, -65.8417
0.680102, -1, 26.9168, 25.9434, 14.4009, 12.7103, 106.913, -66.1035
0.68749, -1, 26.724, 25.8446, 14.44, 12.7125, 106.81, -66.3653
0.695512, -1, 26.5306, 25.7457, 14.4788, 12.7148, 106.706, -66.6269
0.703556, -1, 26.3369, 25.6469, 14.5177, 12.7171, 106.603, -66.8887
0.711491, -1, 26.1429, 25.548, 14.5567, 12.7194, 106.5, -67.1506
0.719494, -1, 25.9488, 25.4491, 14.5957, 12.7217, 106.397, -67.4125
0.727494, -1, 25.7545, 25.3503, 14.6346, 12.7239, 106.294, -67.674
0.736844, -1, 25.4635, 25.2021, 14.6932, 12.7274, 106.139, -68.0664
0.743551, -1, 25.3665, 25.1528, 14.7126, 12.7285, 106.087, -68.1973
0.751493, -1, 25.173, 25.0541, 14.7516, 12.7308, 105.984, -68.4593
0.761024, -1, 24.8831, 24.9059, 14.8102, 12.7343, 105.829, -68.8517
0.767627, -1, 24.7866, 24.8565, 14.8296, 12.7355, 105.777, -68.9826
0.775492, -1, 24.5939, 24.7576, 14.8686, 12.7379, 105.674, -69.2442
0.785078, -1, 24.4014, 24.6092, 14.9271, 12.7415, 105.519, -69.6369
0.791574, -1, 24.209, 24.5598, 14.9466, 12.7427, 105.468, -69.7677
0.801992, -1, 24.0163, 24.461, 14.9856, 12.7461, 105.313, -70.1598
0.807484, -1, 23.8235, 24.3622, 15.0245, 12.7473, 105.261, -70.2906
0.815554, -1, 23.6306, 24.2633, 15.0634, 12.7498, 105.158, -70.5523
0.82455, -1, 23.4372, 24.1645, 15.1024, 12.7521, 105.054, -70.8141
0.831485, -1, 23.2436, 24.0656, 15.1413, 12.7546, 104.951, -71.0757
0.839568, -1, 23.0498, 23.9667, 15.1802, 12.757, 104.848, -71.3375
0.847493, -1, 22.8558, 23.8678, 15.2191, 12.7595, 104.744, -71.5995
0.855485, -1, 22.6619, 23.769, 15.2581, 12.762, 104.641, -71.8613
0.863535, -1, 22.4681, 23.6704, 15.2971, 12.7645, 104.537, -72.1227
0.871509, -1, 22.2747, 23.5717, 15.3361, 12.767, 104.434, -72.384
0.879529, -1, 22.0816, 23.473, 15.3749, 12.7696, 104.33, -72.6455
0.887494, -1, 21.8885, 23.3743, 15.4139, 12.7722, 104.227, -72.9072
0.895527, -1, 21.696, 23.2755, 15.4529, 12.7749, 104.124, -73.1686
0.903593, -1, 21.5038, 23.1767, 15.4918, 12.7776, 104.021, -73.43
0.911484, -1, 21.3115, 23.078, 15.5308, 12.7802, 103.918, -73.6915
0.919513, -1, 21.1191, 22.9794, 15.5698, 12.7828, 103.815, -73.9532
0.927525, -1, 20.9266, 22.8807, 15.6087, 12.7855, 103.712, -74.2144
0.935538, -1, 20.7341, 22.7821, 15.6477, 12.7882, 103.608, -74.4754
0.943533, -1, 20.5415, 22.6836, 15.6865, 12.7909, 103.505, -74.7367
0.951522, -1, 20.3484, 22.5849, 15.7254, 12.7937, 103.402, -74.9981
0.959518, -1, 20.1547, 22.4862, 15.7643, 12.7964, 103.299, -75.2593
0.967487, -1, 19.9611, 22.3875, 15.8032, 12.7991, 103.196, -75.5204
0.975539, -1, 19.7674, 22.2888, 15.8419, 12.8018, 103.093, -75.7815
0.983513, -1, 19.5738, 22.1902, 15.8808, 12.8045, 102.99, -76.0428
0.991546, -1, 19.3805, 22.0916, 15.9197, 12.8073, 102.887, -76.304
0.999521, -1, 19.1874, 21.9929, 15.9585, 12.81, 102.784, -76.5649
1.00763, -1, 18.9947, 21.8942, 15.9975, 12.8128, 102.681, -76.8257
1.01563, -1, 18.8022, 21.7956, 16.0363, 12.8155, 102.578, -77.0867
1.02359, -1, 18.6101, 21.6968, 16.075, 12.8182, 102.475, -77.3478
1.03164, -1, 18.4183, 21.5982, 16.1139, 12.8209, 102.372, -77.6085
1.03964, -1, 18.2264, 21.4996, 16.1528, 12.8235, 102.27, -77.8692
1.04749, -1, 18.0345, 21.4012, 16.1916, 12.826, 102.167, -78.1299
1.05553, -1, 17.8426, 21.3028, 16.2305, 12.8286, 102.064, -78.3909
1.06356, -1, 17.6506, 21.2045, 16.2694, 12.8311, 101.961, -78.6514
1.07162, -1, 17.4582, 21.1062, 16.3082, 12.8336, 101.858, -78.9117
1.07966, -1, 17.2653, 21.0078, 16.3471, 12.8361, 101.755, -79.1723
1.08765, -1, 17.0723, 20.9095, 16.3858, 12.8384, 101.652, -79.4329
1.09578, -1, 16.8793, 20.8113, 16.4246, 12.8408, 101.549, -79.6935
1.10389, -1, 16.6861, 20.7131, 16.4634, 12.8431, 101.446, -79.954
1.11181, -1, 16.4931, 20.6149, 16.5021, 12.8454, 101.344, -80.2145
1.11996, -1, 16.3003, 20.5165, 16.5408, 12.8477, 101.241, -80.4751
1.12801, -1, 16.108, 20.4182, 16.5796, 12.8501, 101.138, -80.7356
1.13612, -1, 15.9161, 20.3197, 16.6183, 12.8524, 101.036, -80.9957
1.14417, -1, 15.7243, 20.2212, 16.657, 12.8547, 100.933, -81.2558
1.1521, -1, 15.533, 20.1228, 16.6956, 12.8571, 100.83, -81.5159
1.16005, -1, 15.3419, 20.0245, 16.7342, 12.8594, 100.728, -81.776
1.16812, -1, 15.2463, 19.9262, 16.7731, 12.8617, 100.625, -82.0359
1.17614, -1, 15.0552, 19.8771, 16.7924, 12.8628, 100.574, -82.1657
1.18348, -1, 14.8639, 19.7789, 16.8311, 12.8651, 100.472, -82.4256
1.19152, -1, 14.6726, 19.6809, 16.8698, 12.8674, 100.369, -82.6856
1.19949, -1, 14.4809, 19.5828, 16.9085, 12.8697, 100.266, -82.9456
1.20747, -1, 14.2888, 19.4847, 16.9472, 12.872, 100.164, -83.2051
1.21552, -1, 14.0964, 19.3866, 16.9859, 12.8742, 100.061, -83.4645
1.22348, -1, 13.9041, 19.2887, 17.0245, 12.8765, 99.9586, -83.724
1.23149, -1, 13.7116, 19.1909, 17.063, 12.8788, 99.8563, -83.984
1.23954, -1, 13.5192, 19.093, 17.1018, 12.8812, 99.7536, -84.2433
1.24748, -1, 13.327, 18.9951, 17.1404, 12.8834, 99.6512, -84.5026
1.25554, -1, 13.1352, 18.8972, 17.1788, 12.8858, 99.5491, -84.7619
1.26346, -1, 12.9438, 18.7993, 17.2175, 12.8881, 99.4465, -85.0213
1.27149, -1, 12.7526, 18.7012, 17.2561, 12.8905, 99.3442, -85.2805
1.27954, -1, 12.5618, 18.6034, 17.2946, 12.893, 99.2421, -85.5394
1.28748, -1, 12.3715, 18.5057, 17.3332, 12.8953, 99.1397, -85.7983
1.29556, -1, 12.1813, 18.4079, 17.3716, 12.8977, 99.0375, -86.0573
1.30347, -1, 11.991, 18.3102, 17.4102, 12.9001, 98.9354, -86.3163
1.31249, -1, 11.8006, 18.2126, 17.4488, 12.9025, 98.8334, -86.5749
1.31948, -1, 11.61, 18.115, 17.4873, 12.905, 98.7316, -86.8335
1.32847, -1, 11.4191, 18.0173, 17.5258, 12.9074, 98.6297, -87.0921
1.33627, -1, 11.2279, 17.9198, 17.5644, 12.9098, 98.5277, -87.3508
1.34459, -1, 11.0365, 17.8223, 17.6029, 12.9123, 98.4259, -87.609
1.35148, -1, 10.845, 17.7248, 17.6414, 12.9148, 98.3239, -87.8673
1.36027, -1, 10.6533, 17.6274, 17.6798, 12.9173, 98.2219, -88.1255
1.36749, -1, 10.4618, 17.5298, 17.7182, 12.9199, 98.1202, -88.384
1.37555, -1, 10.2707, 17.4323, 17.7566, 12.9223, 98.0183, -88.6421
1.38428, -1, 10.0799, 17.3347, 17.795, 12.925, 97.9164, -88.9001
1.39147, -1, 9.8894, 17.2371, 17.8333, 12.9276, 97.8147, -89.1582
1.39954, -1, 9.69924, 17.1396, 17.8717, 12.9302, 97.7126, -89.4163
1.40833, -1, 9.50966, 17.0422, 17.91, 12.933, 97.6106, -89.6743
1.41548, -1, 9.32041, 16.9449, 17.9483, 12.9358, 97.5089, -89.9318
1.42354, -1, 9.13107, 16.8476, 17.9867, 12.9384, 97.4069, -90.1894
1.43227, -1, 8.94167, 16.7504, 18.025, 12.941, 97.3051, -90.447
1.43949, -1, 8.75211, 16.6532, 18.0634, 12.9437, 97.2035, -90.7046
1.44754, -1, 8.56248, 16.556, 18.1019, 12.9463, 97.1018, -90.9618
1.45627, -1, 8.37274, 16.4589, 18.1402, 12.949, 97.0004, -91.219
1.46346, -1, 8.18244, 16.3619, 18.1785, 12.9517, 96.8988, -91.4761
1.47154, -1, 7.99204, 16.2651, 18.2169, 12.9544, 96.7972, -91.7333
1.48021, -1, 7.80158, 16.1681, 18.2551, 12.957, 96.6958, -91.9902
1.48754, -1, 7.61092, 16.0712, 18.2934, 12.9596, 96.5943, -92.2468
1.49551, -1, 7.4205, 15.9742, 18.3318, 12.9623, 96.4928, -92.5036
1.50425, -1, 7.23036, 15.8774, 18.3699, 12.9648, 96.3916, -92.7604
1.51164, -1, 7.04051, 15.7803, 18.4081, 12.9673, 96.2902, -93.0171
1.51961, -1, 6.85106, 15.6834, 18.4465, 12.9699, 96.1889, -93.2735
1.52829, -1, 6.66218, 15.5865, 18.4845, 12.9724, 96.0884, -93.5299
1.53567, -1, 6.47375, 15.4897, 18.5226, 12.9749, 95.9872, -93.7863
1.54358, -1, 6.28547, 15.3929, 18.5608, 12.9774, 95.8861, -94.0428
1.55229, -1, 6.09738, 15.2962, 18.599, 12.9799, 95.7854, -94.2988
1.55969, -1, 5.9091, 15.1995, 18.6371, 12.9822, 95.6842, -94.5546
1.56751, -1, 5.7207, 15.1029, 18.6753, 12.9845, 95.5833, -94.8105
1.57651, -1, 5.53222, 15.0062, 18.7133, 12.9869, 95.4827, -95.0666
1.58361, -1, 5.34342, 14.9097, 18.7515, 12.9892, 95.3818, -95.3222
1.59173, -1, 5.15432, 14.8133, 18.7896, 12.9914, 95.2811, -95.5776
1.60063, -1, 4.96491, 14.717, 18.8276, 12.9937, 95.1806, -95.8332
1.60779, -1, 4.77546, 14.6205, 18.8657, 12.996, 95.0798, -96.0887
1.61585, -1, 4.58604, 14.5242, 18.9038, 12.9981, 94.979, -96.3439
1.62394, -1, 4.39681, 14.4278, 18.9418, 13.0004, 94.8783, -96.5988
1.63197, -1, 4.20787, 14.3314, 18.9798, 13.0026, 94.7774, -96.8537
1.64069, -1, 4.01915, 14.235, 19.0178, 13.0048, 94.6766, -97.1089
1.64804, -1, 3.83109, 14.1389, 19.0557, 13.0072, 94.5759, -97.3639
1.65605, -1, 3.64359, 14.0427, 19.0936, 13.0094, 94.4751, -97.6185
1.66483, -1, 3.54996, 13.9466, 19.1316, 13.0117, 94.3745, -97.8732
1.67208, -1, 3.36294, 13.8986, 19.1505, 13.0141, 94.2738, -98.128
1.68004, -1, 3.17598, 13.8025, 19.1883, 13.0152, 94.2234, -98.2554
1.68746, -1, 2.98905, 13.7065, 19.2262, 13.0174, 94.1227, -98.51
1.69549, -1, 2.80206, 13.6105, 19.2642, 13.0197, 94.0223, -98.7643
1.70362, -1, 2.61491, 13.5145, 19.3021, 13.0219, 93.9217, -99.0184
1.71147, -1, 2.42752, 13.4186, 19.3399, 13.0242, 93.8212, -99.2726
1.71948, -1, 2.23991, 13.3228, 19.3776, 13.0265, 93.721, -99.5267
1.72749, -1, 2.05188, 13.227, 19.4155, 13.0287, 93.6207, -99.7805
1.73547, -1, 1.86375, 13.1311, 19.4534, 13.0309, 93.5206, -100.034
1.74357, -1, 1.67548, 13.0353, 19.4911, 13.0332, 93.4207, -100.288
1.75295, -1, 1.39328, 12.8916, 19.5478, 13.0366, 93.2705, -100.668
1.75946, -1, 1.29934, 12.8436, 19.5667, 13.0378, 93.2206, -100.795
1.76899, -1, 1.01806, 12.6999, 19.6232, 13.0413, 93.0705, -101.174
1.77548, -1, 0.924545, 12.6521, 19.6421, 13.0425, 93.0205, -101.301
1.78346, -1, 0.738076, 12.5566, 19.6798, 13.0448, 92.9208, -101.554
1.79304, -1, 0.552055, 12.461, 19.7362, 13.0485, 92.7711, -101.933
1.79946, -1, 0.36622, 12.3656, 19.755, 13.0497, 92.7211, -102.06
1.80847, -1, 0.18065, 12.2703, 19.7927, 13.0522, 92.6217, -102.312
1.81552, -1, -0.00470316, 12.1749, 19.8302, 13.0546, 92.5222, -102.565
1.82517, -1, -0.190202, 12.0797, 19.8678, 13.057, 92.4226, -102.818
1.83147, -1, -0.375965, 11.9844, 19.9055, 13.0595, 92.3232, -103.07
1.83949, -1, -0.562087, 11.8893, 19.943, 13.062, 92.2238, -103.322
1.84746, -1, -0.748363, 11.7943, 19.9806, 13.0645, 92.1242, -103.574
1.85548, -1, -0.934859, 11.6993, 20.0181, 13.067, 92.0249, -103.826
1.86346, -1, -1.12155, 11.6041, 20.0555, 13.0695, 91.9255, -104.078
1.87148, -1, -1.3086, 11.5091, 20.093, 13.072, 91.8262, -104.33
1.87958, -1, -1.49546, 11.4139, 20.1306, 13.0745, 91.7271, -104.581
1.88748, -1, -1.68207, 11.3188, 20.1679, 13.0771, 91.6279, -104.833
1.89546, -1, -1.86832, 11.2237, 20.2054, 13.0796, 91.5286, -105.084
1.90352, -1, -2.05415, 11.1288, 20.2428, 13.0823, 91.4296, -105.335
1.91152, -1, -2.23924, 11.0339, 20.2802, 13.085, 91.3303, -105.586
1.91946, -1, -2.42403, 10.939, 20.3176, 13.0876, 91.2311, -105.837
1.92753, -1, -2.60847, 10.8443, 20.3549, 13.0903, 91.1322, -106.088
1.93545, -1, -2.79242, 10.7495, 20.3922, 13.0929, 91.033, -106.339
1.94348, -1, -2.9763, 10.6548, 20.4296, 13.0955, 90.934, -106.59
1.95152, -1, -3.16037, 10.5601, 20.467, 13.0982, 90.8353, -106.84
1.95946, -1, -3.34466, 10.4656, 20.5042, 13.1008, 90.7362, -107.091
1.96747, -1, -3.52932, 10.3711, 20.5414, 13.1033, 90.6373, -107.341
1.97552, -1, -3.71406, 10.2767, 20.5787, 13.1059, 90.5387, -107.592
1.98346, -1, -3.89911, 10.1823, 20.6159, 13.1083, 90.4397, -107.841
1.99152, -1, -4.08438, 10.0879, 20.6532, 13.1107, 90.3411, -108.091
1.99949, -1, -4.26992, 9.99363, 20.6904, 13.1132, 90.2426, -108.342
2.00753, -1, -4.45557, 9.89928, 20.7275, 13.1155, 90.1438, -108.591
2.01561, -1, -4.64088, 9.8049, 20.7648, 13.1178, 90.0453, -108.841
2.02361, -1, -4.82581, 9.7107, 20.802, 13.1202, 89.9471, -109.09
2.03156, -1, -5.01026, 9.61664, 20.839, 13.1226, 89.8484, -109.34
2.03964, -1, -5.19407, 9.5226, 20.8762, 13.125, 89.75, -109.589
2.04755, -1, -5.37747, 9.42857, 20.9133, 13.1273, 89.6518, -109.838
2.05546, -1, -5.56041, 9.3347, 20.9503, 13.1296, 89.5533, -110.087
2.06372, -1, -5.74295, 9.24078, 20.9875, 13.1319, 89.4551, -110.336
2.07149, -1, -5.9253, 9.14686, 21.0245, 13.1342, 89.3571, -110.584
2.07959, -1, -6.10769, 9.05301, 21.0614, 13.1364, 89.2589, -110.833
2.08773, -1, -6.29038, 8.95921, 21.0986, 13.1387, 89.1609, -111.081
2.09564, -1, -6.47334, 8.86553, 21.1355, 13.1409, 89.0631, -111.33
2.10385, -1, -6.65646, 8.77185, 21.1723, 13.143, 88.9651, -111.578
2.11184, -1, -6.84003, 8.67822, 21.2092, 13.1451, 88.8671, -111.827
2.11982, -1, -7.02391, 8.58461, 21.2462, 13.1473, 88.7694, -112.074
2.12797, -1, -7.2081, 8.49105, 21.283, 13.1494, 88.6714, -112.322
2.13661, -1, -7.3923, 8.39742, 21.3199, 13.1515, 88.5736, -112.569
2.14402, -1, -7.57608, 8.30375, 21.3568, 13.1537, 88.4761, -112.817
2.15206, -1, -7.75956, 8.21033, 21.3935, 13.1558, 88.3784, -113.065
2.16005, -1, -7.94262, 8.11692, 21.4304, 13.1581, 88.281, -113.312
2.16806, -1, -8.03402, 8.02355, 21.4672, 13.1603, 88.1838, -113.559
2.1761, -1, -8.21622, 7.97694, 21.5039, 13.1625, 88.0863, -113.806
2.18345, -1, -8.39786, 7.88365, 21.5223, 13.1637, 88.0375, -113.929
2.19144, -1, -8.57906, 7.79041, 21.5592, 13.1659, 87.9403, -114.176
2.19951, -1, -8.7599, 7.69725, 21.5959, 13.1682, 87.8429, -114.423
2.20746, -1, -8.94054, 7.60412, 21.6326, 13.1704, 87.7453, -114.669
2.21545, -1, -9.1215, 7.51104, 21.6694, 13.1727, 87.6482, -114.915
2.22345, -1, -9.30267, 7.41811, 21.7061, 13.1749, 87.551, -115.162
2.23145, -1, -9.48406, 7.32533, 21.7427, 13.1771, 87.4538, -115.408
2.2395, -1, -9.6659, 7.23246, 21.7794, 13.1793, 87.3569, -115.654
2.2475, -1, -9.84805, 7.13971, 21.816, 13.1816, 87.2595, -115.9
2.25547, -1, -10.0305, 7.047, 21.8525, 13.1838, 87.1624, -116.146
2.26499, -1, -10.3045, 6.90786, 21.9075, 13.1872, 87.0167, -116.515
2.27145, -1, -10.3958, 6.86147, 21.9258, 13.1882, 86.9681, -116.638
2.27947, -1, -10.5782, 6.76878, 21.9623, 13.1904, 86.871, -116.883
2.28751, -1, -10.7602, 6.67612, 21.9989, 13.1928, 86.7742, -117.129
2.29547, -1, -10.9418, 6.58352, 22.0353, 13.1952, 86.6771, -117.374
2.30345, -1, -11.1227, 6.491, 22.0717, 13.1976, 86.5804, -117.619
2.31151, -1, -11.3028, 6.3985, 22.1084, 13.2, 86.4839, -117.864
2.32051, -1, -11.4825, 6.30602, 22.1448, 13.2024, 86.3871, -118.109
2.32745, -1, -11.662, 6.21362, 22.1812, 13.2048, 86.2903, -118.354
2.33564, -1, -11.8413, 6.12123, 22.2178, 13.2073, 86.1938, -118.598
2.34449, -1, -12.0205, 6.02895, 22.2542, 13.2098, 86.0972, -118.842
2.35144, -1, -12.1998, 5.93678, 22.2905, 13.2123, 86.0007, -119.086
2.35951, -1, -12.3795, 5.84476, 22.327, 13.2148, 85.9045, -119.331
2.36744, -1, -12.5596, 5.75274, 22.3632, 13.2172, 85.808, -119.575
2.37552, -1, -12.74, 5.66076, 22.3995, 13.2197, 85.7118, -119.819
2.38344, -1, -12.9208, 5.56883, 22.4359, 13.2221, 85.6158, -120.062
2.39146, -1, -13.1019, 5.47688, 22.4722, 13.2246, 85.5199, -120.306
2.39954, -1, -13.2832, 5.38486, 22.5083, 13.227, 85.424, -120.55
2.40744, -1, -13.4643, 5.29292, 22.5447, 13.2295, 85.3282, -120.793
2.4155, -1, -13.6449, 5.201, 22.5809, 13.232, 85.2324, -121.036
2.42375, -1, -13.8251, 5.10918, 22.6169, 13.2345, 85.1366, -121.279
2.43145, -1, -14.0048, 5.01739, 22.6531, 13.2371, 85.0409, -121.522
2.43944, -1, -14.1835, 4.92567, 22.6892, 13.2397, 84.9453, -121.765
2.44823, -1, -14.3617, 4.83399, 22.7253, 13.2423, 84.8496, -122.008
2.45544, -1, -14.5396, 4.74237, 22.7615, 13.2449, 84.7542, -122.25
2.46344, -1, -14.7173, 4.65077, 22.7978, 13.2475, 84.6585, -122.493
2.47224, -1, -14.8949, 4.55927, 22.8338, 13.2499, 84.5627, -122.735
2.47944, -1, -15.0726, 4.46782, 22.8699, 13.2523, 84.4671, -122.978
2.48749, -1, -15.2506, 4.37656, 22.9061, 13.2547, 84.3714, -123.22
2.49627, -1, -15.429, 4.2852, 22.9421, 13.2571, 84.2757, -123.461
2.50347, -1, -15.6079, 4.1939, 22.9781, 13.2594, 84.1802, -123.703
2.5116, -1, -15.787, 4.10265, 23.0142, 13.2617, 84.0847, -123.945
2.52039, -1, -15.9664, 4.01142, 23.0501, 13.264, 83.9893, -124.186
2.52754, -1, -16.146, 3.92014, 23.0861, 13.2662, 83.8939, -124.428
2.5356, -1, -16.3258, 3.82891, 23.1221, 13.2683, 83.7985, -124.669
2.54435, -1, -16.5052, 3.73771, 23.1579, 13.2705, 83.703, -124.911
2.55156, -1, -16.6842, 3.64656, 23.1937, 13.2727, 83.6076, -125.152
2.55957, -1, -16.8625, 3.55547, 23.2296, 13.275, 83.5122, -125.393
2.56901, -1, -17.0401, 3.46443, 23.2654, 13.2772, 83.4169, -125.634
2.57547, -1, -17.217, 3.37347, 23.3013, 13.2794, 83.3216, -125.875
2.5836, -1, -17.3936, 3.28261, 23.3371, 13.2816, 83.2266, -126.115
2.59158, -1, -17.5698, 3.19176, 23.3729, 13.2838, 83.1314, -126.356
2.59966, -1, -17.7459, 3.10109, 23.4087, 13.2859, 83.0366, -126.596
2.608, -1, -17.9219, 3.01047, 23.4447, 13.288, 82.942, -126.836
2.61575, -1, -18.0981, 2.91998, 23.4804, 13.2901, 82.847, -127.076
2.62391, -1, -18.2746, 2.82958, 23.5161, 13.2923, 82.7523, -127.317
2.63187, -1, -18.4517, 2.73915, 23.5519, 13.2943, 82.6578, -127.556
2.64135, -1, -18.6291, 2.64878, 23.5875, 13.2963, 82.563, -127.796
2.64835, -1, -18.8068, 2.55844, 23.6232, 13.2984, 82.4684, -128.035
2.65623, -1, -18.9848, 2.46801, 23.659, 13.3004, 82.3742, -128.275
2.66399, -1, -19.1631, 2.37754, 23.6945, 13.3024, 82.2796, -128.514
2.67209, -1, -19.3413, 2.28719, 23.7301, 13.3044, 82.1853, -128.753
2.67997, -1, -19.4302, 2.24202, 23.7479, 13.3054, 82.1385, -128.992
2.68805, -1, -19.6075, 2.15166, 23.7836, 13.3076, 82.0443, -129.232
2.69649, -1, -19.8726, 2.01618, 23.8366, 13.3108, 81.9029, -129.471
2.70343, -1, -19.9605, 1.97105, 23.8544, 13.3119, 81.8559, -129.59
2.71149, -1, -20.1359, 1.88084, 23.89, 13.3141, 81.762, -129.829
2.71946, -1, -20.3109, 1.79068, 23.9254, 13.3163, 81.6679, -130.067
2.72744, -1, -20.4857, 1.70055, 23.9609, 13.3186, 81.5739, -130.305
2.73548, -1, -20.6601, 1.61057, 23.9965, 13.3208, 81.4801, -130.544
2.74343, -1, -20.8346, 1.52063, 24.0319, 13.3229, 81.3861, -130.782
2.7515, -1, -21.0094, 1.43082, 24.0674, 13.3251, 81.2924, -131.02
2.75948, -1, -21.1846, 1.34108, 24.103, 13.3273, 81.1988, -131.258
2.76906, -1, -21.4481, 1.20647, 24.1561, 13.3305, 81.0578, -131.615
2.77542, -1, -21.5361, 1.16165, 24.1738, 13.3316, 81.0109, -131.733
2.78766, -1, -21.8003, 1.02723, 24.227, 13.3349, 80.8703, -132.09
2.79139, -1, -21.8885, 0.98241, 24.2447, 13.336, 80.8234, -132.208
2.79949, -1, -22.065, 0.892796, 24.28, 13.3381, 80.7296, -132.445
2.80744, -1, -22.2415, 0.803241, 24.3154, 13.3403, 80.6362, -132.683
2.81645, -1, -22.4178, 0.713742, 24.3507, 13.3425, 80.5424, -132.92
2.82349, -1, -22.5937, 0.624207, 24.3859, 13.3449, 80.4488, -133.157
2.83144, -1, -22.7691, 0.534758, 24.4212, 13.3472, 80.3554, -133.393
2.83945, -1, -22.9435, 0.445355, 24.4565, 13.3496, 80.2616, -133.63
2.84749, -1, -23.1171, 0.355942, 24.4916, 13.352, 80.1681, -133.867
2.85542, -1, -23.2907, 0.266578, 24.5267, 13.3545, 80.0747, -134.104
2.86343, -1, -23.4638, 0.177297, 24.5619, 13.3569, 79.9811, -134.34
2.8715, -1, -23.637, 0.0881197, 24.5971, 13.3593, 79.8879, -134.576
2.87944, -1, -23.8103, -0.00102232, 24.6323, 13.3617, 79.7948, -134.812
2.88745, -1, -23.9837, -0.0899868, 24.6674, 13.3641, 79.7015, -135.048
2.89549, -1, -24.1574, -0.178989, 24.7024, 13.3666, 79.6084, -135.284
2.90342, -1, -24.3314, -0.267965, 24.7375, 13.369, 79.5154, -135.52
2.91143, -1, -24.5056, -0.356845, 24.7727, 13.3714, 79.4224, -135.755
2.91955, -1, -24.6803, -0.44574, 24.8077, 13.3739, 79.3293, -135.991
2.92748, -1, -24.8552, -0.534631, 24.8426, 13.3762, 79.2363, -136.227
2.93543, -1, -25.0303, -0.623477, 24.8778, 13.3787, 79.1433, -136.462
2.94349, -1, -25.2052, -0.712285, 24.9127, 13.381, 79.0504, -136.697
2.95144, -1, -25.3797, -0.801017, 24.9477, 13.3834, 78.9576, -136.932
2.95943, -1, -25.5538, -0.889837, 24.9827, 13.3859, 78.8651, -137.167
2.9675, -1, -25.7274, -0.978584, 25.0176, 13.3884, 78.7722, -137.402
2.97542, -1, -25.9003, -1.06725, 25.0524, 13.3908, 78.6796, -137.636
2.98343, -1, -26.0727, -1.15598, 25.0874, 13.3932, 78.5874, -137.871
2.99149, -1, -26.2449, -1.24465, 25.1223, 13.3956, 78.4946, -138.105
2.99944, -1, -26.4167, -1.33316, 25.1571, 13.398, 78.4021, -138.34
3.00747, -1, -26.5885, -1.42156, 25.192, 13.4003, 78.3098, -138.574
3.01557, -1, -26.7605, -1.50991, 25.227, 13.4025, 78.2173, -138.809
3.02352, -1, -26.9328, -1.59811, 25.2618, 13.4048, 78.1249, -139.043
3.03159, -1, -27.1053, -1.68628, 25.2966, 13.407, 78.0328, -139.276
3.03953, -1, -27.2778, -1.77449, 25.3316, 13.4092, 77.9405, -139.51
3.04759, -1, -27.4507, -1.86258, 25.3663, 13.4114, 77.8484, -139.744
3.0556, -1, -27.6239, -1.95069, 25.4011, 13.4134, 77.7565, -139.977
3.06344, -1, -27.7971, -2.03887, 25.436, 13.4156, 77.6644, -140.211
3.07146, -1, -27.9704, -2.12689, 25.4708, 13.4176, 77.5724, -140.444
3.07955, -1, -28.1436, -2.21491, 25.5055, 13.4197, 77.4804, -140.678
3.08762, -1, -28.3167, -2.30292, 25.5403, 13.4217, 77.3884, -140.911
3.09556, -1, -28.4895, -2.39096, 25.5751, 13.4238, 77.2962, -141.144
3.10374, -1, -28.6619, -2.47892, 25.6097, 13.426, 77.2041, -141.377
3.11174, -1, -28.8337, -2.5669, 25.6444, 13.428, 77.1122, -141.61
3.11975, -1, -29.0047, -2.65491, 25.6791, 13.4302, 77.0203, -141.842
3.12797, -1, -29.1753, -2.74277, 25.7136, 13.4324, 76.9284, -142.075
3.13654, -1, -29.3459, -2.8306, 25.7483, 13.4345, 76.8367, -142.307
3.14392, -1, -29.5166, -2.91832, 25.783, 13.4365, 76.7448, -142.54
3.1526, -1, -29.6876, -3.0059, 25.8175, 13.4385, 76.6529, -142.772
3.16002, -1, -29.8586, -3.09348, 25.8521, 13.4405, 76.5613, -143.005
3.16806, -1, -30.0296, -3.18093, 25.8867, 13.4427, 76.4693, -143.237
3.17684, -1, -30.1151, -3.22468, 25.904, 13.4447, 76.3777, -143.468
3.18397, -1, -30.2861, -3.31219, 25.9385, 13.4458, 76.3318, -143.584
3.19199, -1, -30.4574, -3.39958, 25.9731, 13.4479, 76.2404, -143.816
3.19944, -1, -30.629, -3.48709, 26.0076, 13.4499, 76.1488, -144.048
3.20742, -1, -30.8009, -3.57452, 26.0421, 13.452, 76.0574, -144.28
3.21548, -1, -30.9726, -3.66188, 26.0766, 13.4539, 75.9662, -144.511
3.22343, -1, -31.1444, -3.74924, 26.1112, 13.456, 75.8746, -144.742
3.2315, -1, -31.3159, -3.83658, 26.1456, 13.4581, 75.7833, -144.974
3.23943, -1, -31.487, -3.92394, 26.18, 13.4602, 75.6922, -145.205
3.24742, -1, -31.6577, -4.01119, 26.2145, 13.4623, 75.6008, -145.436
3.25553, -1, -31.828, -4.09849, 26.2489, 13.4645, 75.5096, -145.667
3.26341, -1, -31.9978, -4.18577, 26.2833, 13.4667, 75.4186, -145.898
3.27382, -1, -32.252, -4.31652, 26.3349, 13.47, 75.2819, -146.244
3.27948, -1, -32.3368, -4.36007, 26.3521, 13.471, 75.2364, -146.359
3.28743, -1, -32.5063, -4.44708, 26.3863, 13.4732, 75.1456, -146.59
3.29792, -1, -32.676, -4.57744, 26.438, 13.4764, 75.0092, -146.935
3.30347, -1, -32.8456, -4.6209, 26.4551, 13.4774, 74.9639, -147.051
3.31302, -1, -33.0153, -4.70782, 26.4893, 13.4797, 74.8732, -147.396
3.31944, -1, -33.185, -4.79473, 26.5236, 13.4819, 74.7827, -147.511
3.3284, -1, -33.3548, -4.88157, 26.558, 13.4841, 74.6919, -147.741
3.33541, -1, -33.525, -4.96851, 26.5922, 13.4863, 74.6012, -147.971
3.34343, -1, -33.6953, -5.05539, 26.6264, 13.4884, 74.5109, -148.201
3.35148, -1, -33.8656, -5.14214, 26.6607, 13.4907, 74.4202, -148.431
3.35943, -1, -34.0359, -5.22886, 26.6948, 13.493, 74.3297, -148.66
3.36782, -1, -34.2061, -5.31562, 26.729, 13.4952, 74.2394, -148.889
3.37782, -1, -34.4612, -5.44554, 26.7804, 13.4986, 74.1033, -149.233
3.38343, -1, -34.546, -5.48887, 26.7975, 13.4998, 74.058, -149.348
3.39219, -1, -34.7152, -5.57554, 26.8315, 13.5022, 73.9676, -149.578
3.39941, -1, -34.884, -5.66215, 26.8657, 13.5046, 73.877, -149.807
3.40741, -1, -35.0524, -5.74867, 26.8998, 13.5071, 73.7865, -150.036
3.41554, -1, -35.2206, -5.83516, 26.9338, 13.5095, 73.6962, -150.265
3.42363, -1, -35.389, -5.92154, 26.9679, 13.5119, 73.6058, -150.494
3.43141, -1, -35.5575, -6.00774, 27.0021, 13.5143, 73.5155, -150.723
3.44061, -1, -35.726, -6.09399, 27.036, 13.5166, 73.4251, -150.951
3.44741, -1, -35.8945, -6.18018, 27.0701, 13.519, 73.335, -151.18
3.45551, -1, -36.063, -6.26631, 27.1042, 13.5215, 73.2445, -151.408
3.46341, -1, -36.2315, -6.35241, 27.1381, 13.5238, 73.1541, -151.637
3.47141, -1, -36.4002, -6.43863, 27.172, 13.5262, 73.0639, -151.865
3.47948, -1, -36.5691, -6.52484, 27.2061, 13.5286, 72.9733, -152.094
3.48741, -1, -36.7379, -6.611, 27.24, 13.5308, 72.8831, -152.321
3.49547, -1, -36.9069, -6.69713, 27.2738, 13.5331, 72.7931, -152.55
3.50348, -1, -37.0759, -6.78325, 27.3078, 13.5354, 72.703, -152.778
3.51152, -1, -37.2447, -6.86934, 27.3416, 13.5376, 72.6131, -153.006
3.51949, -1, -37.4132, -6.95536, 27.3755, 13.54, 72.5233, -153.233
3.52756, -1, -37.5814, -7.04143, 27.4095, 13.5422, 72.4333, -153.461
3.53551, -1, -37.7491, -7.12743, 27.4434, 13.5445, 72.3434, -153.688
3.5436, -1, -37.9167, -7.21338, 27.4772, 13.5467, 72.2537, -153.916
3.55166, -1, -38.0841, -7.29931, 27.5111, 13.5489, 72.164, -154.143
3.55947, -1, -38.2515, -7.38518, 27.5451, 13.5511, 72.0742, -154.371
3.56742, -1, -38.4188, -7.47091, 27.5789, 13.5532, 71.9845, -154.598
3.57635, -1, -38.586, -7.55663, 27.6127, 13.5554, 71.8951, -154.825
3.58345, -1, -38.7534, -7.64234, 27.6466, 13.5575, 71.8053, -155.052
3.59162, -1, -38.9207, -7.72801, 27.6804, 13.5595, 71.7158, -155.279
3.60036, -1, -39.0881, -7.81363, 27.7141, 13.5615, 71.6268, -155.506
3.60766, -1, -39.2556, -7.89931, 27.748, 13.5636, 71.5372, -155.733
3.61571, -1, -39.4231, -7.98501, 27.7818, 13.5655, 71.4479, -155.96
3.62471, -1, -39.5907, -8.07056, 27.8154, 13.5675, 71.3586, -156.186
3.63184, -1, -39.7583, -8.15608, 27.8491, 13.5695, 71.2693, -156.413
3.63993, -1, -39.926, -8.24156, 27.8829, 13.5715, 71.1799, -156.639
3.64877, -1, -40.0936, -8.32701, 27.9166, 13.5734, 71.0904, -156.866
3.65596, -1, -40.2611, -8.41238, 27.9502, 13.5753, 71.0014, -157.092
3.66451, -1, -40.4282, -8.49778, 27.984, 13.5773, 70.9119, -157.318
3.67303, -1, -40.5952, -8.58319, 28.0176, 13.5793, 70.8227, -157.544
3.68046, -1, -40.762, -8.66861, 28.0512, 13.5813, 70.7338, -157.77
3.68799, -1, -40.8453, -8.71128, 28.068, 13.5823, 70.6445, -157.996
3.6954, -1, -41.0117, -8.79662, 28.1018, 13.5843, 70.6, -158.109
3.70443, -1, -41.2613, -8.92456, 28.1522, 13.5874, 70.4664, -158.448
3.71152, -1, -41.3444, -8.96714, 28.1689, 13.5884, 70.4218, -158.561
3.71942, -1, -41.5107, -9.05229, 28.2026, 13.5904, 70.3325, -158.786
3.72859, -1, -41.7602, -9.17997, 28.253, 13.5934, 70.1989, -159.124
3.73545, -1, -41.8433, -9.22253, 28.2697, 13.5944, 70.1545, -159.237
3.7434, -1, -42.0097, -9.30752, 28.3033, 13.5964, 70.0652, -159.463
3.75152, -1, -42.176, -9.39261, 28.337, 13.5985, 69.9762, -159.688
3.75946, -1, -42.3423, -9.47774, 28.3704, 13.6004, 69.8876, -159.913
3.7674, -1, -42.5086, -9.56273, 28.404, 13.6025, 69.7984, -160.138
3.77544, -1, -42.6751, -9.64773, 28.4375, 13.6045, 69.7096, -160.364
3.78497, -1, -42.9247, -9.77521, 28.4876, 13.6075, 69.5766, -160.701
3.79295, -1, -43.091, -9.86012, 28.5211, 13.6096, 69.4875, -160.926
3.79947, -1, -43.1741, -9.90259, 28.5379, 13.6106, 69.4432, -161.039
3.8074, -1, -43.3402, -9.98753, 28.5714, 13.6127, 69.3545, -161.263
3.8164, -1, -43.5062, -10.0724, 28.6049, 13.6148, 69.2661, -161.488
3.82346, -1, -43.6722, -10.1574, 28.6384, 13.6169, 69.1773, -161.713
3.83243, -1, -43.8382, -10.2422, 28.6718, 13.619, 69.0889, -161.938
3.8394, -1, -44.0039, -10.327, 28.7051, 13.6212, 69.0005, -162.162
3.84746, -1, -44.1694, -10.4117, 28.7386, 13.6233, 68.9117, -162.386
3.8554, -1, -44.3346, -10.4963, 28.7721, 13.6254, 68.8232, -162.61
3.8634, -1, -44.4998, -10.5809, 28.8054, 13.6277, 68.7346, -162.835
3.87153, -1, -44.6649, -10.6654, 28.8388, 13.6298, 68.646, -163.059
3.8794, -1, -44.8302, -10.7499, 28.8723, 13.632, 68.5574, -163.283
3.88743, -1, -44.9955, -10.8343, 28.9056, 13.6342, 68.469, -163.507
3.89546, -1, -45.1609, -10.9189, 28.939, 13.6364, 68.3807, -163.731
3.90339, -1, -45.3262, -11.0034, 28.9724, 13.6386, 68.2922, -163.955
3.91147, -1, -45.4914, -11.0879, 29.0057, 13.6409, 68.2038, -164.179
3.91946, -1, -45.6566, -11.1723, 29.0389, 13.6432, 68.1159, -164.403
3.92746, -1, -45.8219, -11.2567, 29.0722, 13.6454, 68.0272, -164.626
3.9354, -1, -45.9861, -11.3406, 29.1056, 13.6477, 67.939, -164.85
3.94346, -1, -46.1475, -11.4229, 29.139, 13.65, 67.8509, -165.073
3.95146, -1, -46.3046, -11.5023, 29.1726, 13.6524, 67.7635, -165.294
3.95941, -1, -46.4549, -11.5773, 29.2062, 13.6548, 67.6782, -165.51
3.96746, -1, -46.5962, -11.6472, 29.2384, 13.6571, 67.5967, -165.716
3.97539, -1, -46.7258, -11.7105, 29.2683, 13.6594, 67.5221, -165.905
3.98336, -1, -46.8408, -11.7667, 29.2947, 13.6613, 67.4551, -166.074
3.99153, -1, -46.9396, -11.8158, 29.3168, 13.663, 67.3992, -166.216
3.9994, -1, -47.0221, -11.8588, 29.3334, 13.6643, 67.3544, -166.329
4.00743, -1, -47.0893, -11.8956, 29.3446, 13.665, 67.3208, -166.414
4.01552, -1, -47.1417, -11.9251, 29.3519, 13.6654, 67.2975, -166.473
4.02349, -1, -47.1806, -11.9472, 29.3557, 13.6656, 67.2824, -166.51
4.03154, -1, -47.2082, -11.9627, 29.3575, 13.6657, 67.2737, -166.533
4.03955, -1, -47.2264, -11.9727, 29.3584, 13.6658, 67.2689, -166.545
4.04781, -1, -47.2372, -11.9786, 29.3587, 13.6659, 67.2665, -166.55
4.05552, 2, -47.2428, -11.9815, 29.359, 13.6659, 67.2654, -166.553
4.06357, 2, -47.2449, -11.9828, 29.3591, 13.666, 67.2649, -166.554
4.07155, 2, -47.2449, -11.9833, 29.3592, 13.666, 67.2646, -166.555
4.07943, 2, -47.2447, -11.9835, 29.3593, 13.6661, 67.2645, -166.555
4.08749, 2, -47.2447, -11.9836, 29.3593, 13.6661, 67.2644, -166.555
4.09559, 2, -47.2451, -11.9837, 29.3593, 13.6661, 67.2644, -166.555
4.10356, 2, -47.246, -11.9839, 29.3594, 13.6661, 67.2645, -166.555
4.11179, 2, -47.2472, -11.9844, 29.3594, 13.6661, 67.2645, -166.555
4.11978, 2, -47.249, -11.9852, 29.3594, 13.6661, 67.2644, -166.555
4.12777, 2, -47.2506, -11.9861, 29.3594, 13.6661, 67.2644, -166.555
4.13585, 2, -47.252, -11.987, 29.3593, 13.666, 67.2644, -166.555
4.14394, 2, -47.2529, -11.9876, 29.3594, 13.6661, 67.2644, -166.555
4.15199, 2, -47.2534, -11.988, 29.3594, 13.6661, 67.2644, -166.555
4.1605, 2, -47.2536, -11.9882, 29.3594, 13.6661, 67.2644, -166.555
4.16802, 2, -47.2536, -11.9883, 29.3594, 13.6661, 67.2644, -166.555
4.17602, 2, -47.2533, -11.9883, 29.3594, 13.6661, 67.2644, -166.555
4.18401, 2, -47.2531, -11.9882, 29.3594, 13.6661, 67.2644, -166.555
4.19218, 2, -47.2526, -11.9882, 29.3594, 13.6661, 67.2644, -166.555
4.19939, 2, -47.2522, -11.9882, 29.3594, 13.6661, 67.2644, -166.555
4.20744, 2, -47.2519, -11.9882, 29.3594, 13.6661, 67.2645, -166.555
4.21539, 2, -47.2519, -11.9882, 29.3594, 13.6661, 67.2644, -166.555
4.2234, 2, -47.2519, -11.9883, 29.3594, 13.6661, 67.2644, -166.555
4.2315, 2, -47.252, -11.9886, 29.3594, 13.6661, 67.2645, -166.555
4.23939, 2, -47.2524, -11.9889, 29.3594, 13.6661, 67.2644, -166.555
4.24738, 2, -47.253, -11.9893, 29.3594, 13.6661, 67.2645, -166.555
4.25676, 2, -47.2536, -11.9896, 29.3594, 13.6661, 67.2645, -166.555
4.26345, 2, -47.2537, -11.9897, 29.3594, 13.6661, 67.2645, -166.555
4.27146, 2, -47.2538, -11.9897, 29.3594, 13.666, 67.2645, -166.555
4.28091, 2, -47.2537, -11.9897, 29.3594, 13.666, 67.2645, -166.555
4.28902, 2, -47.2536, -11.9896, 29.3594, 13.6661, 67.2645, -166.555
4.2954, 2, -47.2534, -11.9896, 29.3594, 13.666, 67.2645, -166.555
4.30496, 2, -47.253, -11.9895, 29.3594, 13.666, 67.2645, -166.555
4.31146, 2, -47.2527, -11.9895, 29.3594, 13.666, 67.2645, -166.555
4.31938, 2, -47.2525, -11.9895, 29.3594, 13.666, 67.2645, -166.555
4.32745, 2, -47.2523, -11.9895, 29.3594, 13.666, 67.2645, -166.555
4.33643, 2, -47.2522, -11.9896, 29.3594, 13.666, 67.2645, -166.555
4.34338, 2, -47.2522, -11.9897, 29.3594, 13.6659, 67.2645, -166.555
4.35152, 2, -47.2522, -11.9897, 29.3594, 13.666, 67.2645, -166.555
4.35938, 2, -47.2522, -11.9898, 29.3594, 13.666, 67.2645, -166.555
4.36738, 2, -47.2522, -11.9898, 29.3594, 13.666, 67.2645, -166.555
4.37545, 2, -47.2522, -11.9898, 29.3594, 13.666, 67.2645, -166.555
4.38338, 2, -47.2521, -11.9898, 29.3594, 13.666, 67.2645, -166.555
4.39147, 2, -47.2521, -11.9897, 29.3594, 13.666, 67.2645, -166.555
4.39945, 2, -47.2521, -11.9896, 29.3594, 13.666, 67.2645, -166.555
4.40738, 2, -47.252, -11.9895, 29.3594, 13.666, 67.2645, -166.555
4.41539, 2, -47.2519, -11.9895, 29.3594, 13.666, 67.2645, -166.555
4.42345, 2, -47.2518, -11.9895, 29.3594, 13.666, 67.2646, -166.555
4.43151, 2, -47.2517, -11.9895, 29.3594, 13.666, 67.2645, -166.555
4.43938, 2, -47.2516, -11.9895, 29.3594, 13.666, 67.2645, -166.555
4.44745, 2, -47.2515, -11.9895, 29.3594, 13.666, 67.2646, -166.555
4.45538, 2, -47.2515, -11.9896, 29.3594, 13.666, 67.2645, -166.555
4.4634, 2, -47.2514, -11.9896, 29.3594, 13.666, 67.2645, -166.555
4.47152, 2, -47.2514, -11.9896, 29.3594, 13.666, 67.2645, -166.555
4.47939, 2, -47.2513, -11.9896, 29.3594, 13.666, 67.2645, -166.555
4.48738, 2, -47.2513, -11.9895, 29.3594, 13.666, 67.2645, -166.555
4.49545, 2, -47.2512, -11.9895, 29.3594, 13.6659, 67.2645, -166.555
4.50339, 2, -47.2511, -11.9894, 29.3594, 13.6659, 67.2646, -166.555
4.51149, 2, -47.251, -11.9893, 29.3594, 13.6659, 67.2646, -166.555
4.51951, 2, -47.2508, -11.9893, 29.3594, 13.666, 67.2646, -166.555
4.52748, 2, -47.2507, -11.9893, 29.3594, 13.6659, 67.2646, -166.555
4.53548, 2, -47.2506, -11.9893, 29.3594, 13.666, 67.2646, -166.555
4.54355, 2, -47.2506, -11.9893, 29.3594, 13.666, 67.2646, -166.555
4.55159, 2, -47.2505, -11.9893, 29.3594, 13.6659, 67.2646, -166.555
4.5595, 2, -47.2504, -11.9893, 29.3594, 13.666, 67.2646, -166.555
4.56755, 2, -47.2502, -11.9893, 29.3594, 13.6659, 67.2646, -166.555
4.57541, 2, -47.2501, -11.9893, 29.3594, 13.6659, 67.2646, -166.555
4.58341, 2, -47.25, -11.9893, 29.3594, 13.6659, 67.2646, -166.555
4.59178, 2, -47.2499, -11.9892, 29.3594, 13.6659, 67.2647, -166.555
4.59956, 2, -47.2498, -11.9892, 29.3594, 13.6659, 67.2647, -166.555
4.60754, 2, -47.2497, -11.9891, 29.3594, 13.6659, 67.2647, -166.555
4.61571, 2, -47.2496, -11.989, 29.3594, 13.6659, 67.2647, -166.555
4.624, 2, -47.2495, -11.989, 29.3594, 13.6659, 67.2647, -166.555
4.63237, 2, -47.2494, -11.9889, 29.3594, 13.6659, 67.2647, -166.555
4.63998, 2, -47.2494, -11.9889, 29.3594, 13.6659, 67.2647, -166.555
4.64858, 2, -47.2493, -11.9889, 29.3594, 13.6659, 67.2647, -166.555
4.65589, 2, -47.2492, -11.9889, 29.3594, 13.6659, 67.2647, -166.555
4.66448, 2, -47.2492, -11.9889, 29.3594, 13.6659, 67.2647, -166.555
4.67238, 2, -47.2492, -11.9889, 29.3594, 13.6659, 67.2647, -166.555
4.68005, 2, -47.2492, -11.9889, 29.3594, 13.6659, 67.2647, -166.555
4.68812, 2, -47.2491, -11.9889, 29.3594, 13.6659, 67.2647, -166.555
4.69626, 2, -47.249, -11.9889, 29.3594, 13.6659, 67.2647, -166.555
4.70337, 2, -47.249, -11.9889, 29.3594, 13.6659, 67.2647, -166.555
4.7115, 2, -47.249, -11.9888, 29.3594, 13.6658, 67.2647, -166.555
4.72022, 2, -47.2489, -11.9887, 29.3594, 13.6659, 67.2647, -166.555
4.72739, 2, -47.2488, -11.9887, 29.3594, 13.6658, 67.2647, -166.555
4.73671, 2, -47.2487, -11.9886, 29.3594, 13.6658, 67.2647, -166.555
4.74338, 2, -47.2486, -11.9886, 29.3594, 13.6658, 67.2647, -166.555
4.75144, 2, -47.2486, -11.9886, 29.3594, 13.6658, 67.2648, -166.555
4.75941, 2, -47.2485, -11.9885, 29.3594, 13.6658, 67.2647, -166.555
4.76922, 2, -47.2484, -11.9885, 29.3594, 13.6657, 67.2648, -166.555
4.77537, 2, -47.2484, -11.9885, 29.3594, 13.6658, 67.2648, -166.555
4.78506, 2, -47.2484, -11.9885, 29.3594, 13.6658, 67.2648, -166.555
4.79144, 2, -47.2484, -11.9885, 29.3594, 13.6657, 67.2648, -166.555
4.79938, 2, -47.2484, -11.9885, 29.3594, 13.6657, 67.2648, -166.555
4.80744, 2, -47.2483, -11.9885, 29.3594, 13.6657, 67.2648, -166.555
4.81719, 2, -47.2483, -11.9884, 29.3594, 13.6657, 67.2648, -166.555
4.82344, 2, -47.2482, -11.9883, 29.3594, 13.6657, 67.2648, -166.555
4.83237, 2, -47.2481, -11.9883, 29.3594, 13.6657, 67.2648, -166.555
4.83938, 2, -47.248, -11.9882, 29.3594, 13.6657, 67.2648, -166.555
4.84737, 2, -47.248, -11.9882, 29.3594, 13.6657, 67.2648, -166.554
4.85543, 2, -47.2479, -11.9882, 29.3594, 13.6656, 67.2648, -166.554
4.86337, 2, -47.2479, -11.9882, 29.3594, 13.6657, 67.2649, -166.554
4.87143, 2, -47.2478, -11.9882, 29.3594, 13.6656, 67.2649, -166.554
4.87945, 2, -47.2478, -11.9882, 29.3594, 13.6657, 67.2649, -166.554
4.88736, 2, -47.2478, -11.9881, 29.3594, 13.6657, 67.2648, -166.554
4.89539, 2, -47.2477, -11.9881, 29.3594, 13.6656, 67.2648, -166.554
4.90343, 2, -47.2477, -11.9881, 29.3594, 13.6656, 67.2648, -166.554
4.91143, 2, -47.2477, -11.9881, 29.3594, 13.6656, 67.2648, -166.554
4.91938, 2, -47.2476, -11.988, 29.3594, 13.6656, 67.2649, -166.554
4.92743, 2, -47.2476, -11.9879, 29.3594, 13.6656, 67.2649, -166.554
4.93543, 2, -47.2475, -11.9879, 29.3594, 13.6655, 67.2649, -166.554
4.94337, 2, -47.2474, -11.9878, 29.3594, 13.6655, 67.2649, -166.554
4.95149, 2, -47.2473, -11.9878, 29.3594, 13.6655, 67.2649, -166.554
4.95937, 2, -47.2472, -11.9878, 29.3594, 13.6655, 67.2649, -166.554
4.96738, 2, -47.2472, -11.9878, 29.3594, 13.6655, 67.2649, -166.554
4.97543, 2, -47.2471, -11.9878, 29.3594, 13.6655, 67.265, -166.554
4.98333, 2, -47.2471, -11.9878, 29.3594, 13.6655, 67.265, -166.554
4.99153, 2, -47.2471, -11.9878, 29.3594, 13.6654, 67.265, -166.554
4.99945, 2, -47.2471, -11.9878, 29.3594, 13.6655, 67.265, -166.554
5.00736, 2, -47.247, -11.9877, 29.3594, 13.6655, 67.2651, -166.554
5.0154, 2, -47.247, -11.9877, 29.3594, 13.6654, 67.265, -166.554
5.0235, 2, -47.247, -11.9876, 29.3594, 13.6654, 67.2651, -166.554
5.03151, 2, -47.2469, -11.9876, 29.3594, 13.6654, 67.2651, -166.554
5.03947, 2, -47.2468, -11.9875, 29.3594, 13.6654, 67.2651, -166.554
5.04752, 2, -47.2467, -11.9875, 29.3594, 13.6654, 67.2651, -166.554
5.05784, 2, -47.2467, -11.9875, 29.3594, 13.6653, 67.2651, -166.554
5.06356, 2, -47.2466, -11.9874, 29.3594, 13.6653, 67.2652, -166.554
5.07149, 2, -47.2465, -11.9874, 29.3594, 13.6653, 67.2652, -166.554
5.0794, 2, -47.2465, -11.9874, 29.3594, 13.6653, 67.2652, -166.554
5.08745, 2, -47.2465, -11.9874, 29.3594, 13.6654, 67.2652, -166.554
5.09545, 2, -47.2464, -11.9874, 29.3594, 13.6653, 67.2652, -166.554
5.10352, 2, -47.2464, -11.9874, 29.3594, 13.6653, 67.2652, -166.554
5.11171, 2, -47.2464, -11.9873, 29.3594, 13.6652, 67.2652, -166.554
5.12043, 4, -47.2463, -11.9873, 29.3594, 13.6652, 67.2652, -166.554
5.12769, 4, -47.2463, -11.9873, 29.3594, 13.6652, 67.2652, -166.554
5.13614, 4, -47.2462, -11.9872, 29.3594, 13.6652, 67.2652, -166.554
5.1438, 4, -47.2461, -11.9872, 29.3594, 13.6652, 67.2652, -166.554
5.15244, 4, -47.2461, -11.9872, 29.3594, 13.6652, 67.2652, -166.554
5.16028, 4, -47.246, -11.9871, 29.3594, 13.6652, 67.2652, -166.554
5.16795, 4, -47.2459, -11.9871, 29.3594, 13.6652, 67.2653, -166.554
5.17591, 4, -47.2459, -11.9871, 29.3594, 13.6652, 67.2653, -166.554
5.18446, 4, -47.2459, -11.9871, 29.3594, 13.6652, 67.2653, -166.554
5.19201, 4, -47.2458, -11.9871, 29.3594, 13.6651, 67.2652, -166.554
5.19936, 4, -47.2458, -11.9871, 29.3594, 13.6652, 67.2652, -166.554
5.20844, 4, -47.2458, -11.9871, 29.3594, 13.6651, 67.2653, -166.554
5.21622, 4, -47.2458, -11.987, 29.3594, 13.6651, 67.2653, -166.554
5.23114, 4, -47.2457, -11.987, 29.3594, 13.665, 67.2653, -166.554
5.23385, 4, -47.2457, -11.9869, 29.3594, 13.665, 67.2653, -166.554
5.23957, 4, -47.2456, -11.9869, 29.3594, 13.665, 67.2653, -166.554
5.24876, 4, -47.2456, -11.9868, 29.3594, 13.665, 67.2653, -166.554
5.25749, 4, -47.2455, -11.9868, 29.3594, 13.665, 67.2653, -166.554
5.26473, 4, -47.2455, -11.9868, 29.3594, 13.665, 67.2653, -166.554
5.27165, 4, -47.2455, -11.9868, 29.3594, 13.665, 67.2653, -166.554
5.28525, 4, -47.2454, -11.9868, 29.3594, 13.665, 67.2653, -166.554
5.28756, 4, -47.2454, -11.9868, 29.3594, 13.665, 67.2653, -166.554
5.29964, 4, -47.2453, -11.9868, 29.3594, 13.665, 67.2653, -166.554
5.3035, 4, -47.2453, -11.9867, 29.3594, 13.665, 67.2653, -166.554
5.31157, 4, -47.2453, -11.9867, 29.3594, 13.665, 67.2653, -166.554
5.32131, 4, -47.2453, -11.9867, 29.3594, 13.665, 67.2653, -166.553
5.33155, 4, -47.2452, -11.9867, 29.3594, 13.665, 67.2653, -166.553
5.33787, 4, -47.2452, -11.9866, 29.3594, 13.6649, 67.2653, -166.553
5.34348, 4, -47.2452, -11.9866, 29.3594, 13.6649, 67.2653, -166.553
5.35156, 4, -47.2451, -11.9866, 29.3594, 13.6649, 67.2653, -166.553
5.35949, 4, -47.2451, -11.9866, 29.3594, 13.6649, 67.2653, -166.553
5.36751, 4, -47.2451, -11.9865, 29.3594, 13.6648, 67.2654, -166.553
5.37864, 4, -47.245, -11.9865, 29.3594, 13.6649, 67.2654, -166.553
5.38455, 4, -47.245, -11.9865, 29.3594, 13.6649, 67.2654, -166.553
5.3916, 4, -47.2454, -11.9867, 29.3595, 13.6649, 67.2654, -166.553
5.39951, 4, -47.2469, -11.9877, 29.3604, 13.6654, 67.2656, -166.553
5.40854, 4, -47.2501, -11.9906, 29.3638, 13.6701, 67.2667, -166.553
5.41707, 4, -47.2556, -11.9972, 29.3724, 13.6866, 67.2708, -166.55
5.42456, 4, -47.2647, -12.009, 29.3904, 13.7219, 67.2803, -166.543
5.4325, 5, -47.2793, -12.0284, 29.4232, 13.7883, 67.2988, -166.528
5.4429, 5, -47.316, -12.0773, 29.5139, 13.9777, 67.3523, -166.486
5.44927, 5, -47.3332, -12.0997, 29.5585, 14.0719, 67.3783, -166.464
5.4556, 5, -47.3764, -12.155, 29.673, 14.3168, 67.4457, -166.407
5.46386, 5, -47.4324, -12.2252, 29.8237, 14.6435, 67.5351, -166.332
5.47157, 5, -47.501, -12.3105, 30.0127, 15.0546, 67.6459, -166.238
5.48051, 5, -47.5819, -12.4109, 30.2401, 15.5457, 67.7773, -166.126
5.49089, 5, -47.6744, -12.5253, 30.5019, 16.1062, 68.0043, -165.931
5.49551, 5, -47.7767, -12.6521, 30.7941, 16.7214, 68.0857, -165.86
5.50655, 5, -47.8872, -12.7894, 31.1104, 17.3771, 68.3392, -165.641
5.51459, 5, -48.0035, -12.9348, 31.4448, 18.0573, 68.425, -165.492
5.52064, 5, -48.1236, -13.0858, 31.7908, 18.7498, 68.5961, -165.417
5.52849, 5, -48.2446, -13.239, 32.1433, 19.4453, 68.7649, -165.27
5.53593, 5, -48.3638, -13.3911, 32.498, 20.1322, 68.9301, -165.122
5.5443, 5, -48.4774, -13.5392, 32.8511, 20.8019, 69.0916, -164.969
5.55214, 6, -48.5807, -13.6804, 33.196, 21.4427, 69.2514, -164.799
5.56311, 6, -48.6692, -13.8737, 33.6878, 22.328, 69.4925, -164.484
5.56829, 7, -48.739, -13.9333, 33.8427, 22.5998, 69.5746, -164.355
5.57703, 7, -48.7873, -14.0463, 34.138, 23.1065, 69.7437, -164.052
5.58426, 7, -48.8139, -14.1507, 34.4132, 23.5671, 69.921, -163.68
5.59339, 8, -48.8201, -14.2456, 34.6695, 23.9896, 70.1092, -163.237
5.6015, 8, -48.8082, -14.3308, 34.9111, 24.3832, 70.3091, -162.726
5.6082, 9, -48.7814, -14.408, 35.1405, 24.7574, 70.5207, -162.158
5.61676, 10, -48.7426, -14.4794, 35.3619, 25.1216, 70.7423, -161.548
5.65786, 12, -48.419, -14.7956, 36.4366, 26.9321, 71.9244, -158.329
5.66045, 12, -48.3798, -14.8266, 36.5419, 27.1178, 72.044, -158.008
5.66232, 12, -48.3798, -14.8266, 36.5419, 27.1178, 72.044, -158.008
5.66796, 13, -48.3004, -14.8882, 36.7514, 27.4942, 72.2837, -157.364
5.68291, 13, -48.1792, -14.9777, 37.0623, 28.0717, 72.6458, -156.395
5.68579, 14, -48.1379, -15.0071, 37.1648, 28.2675, 72.7673, -156.069
5.68826, 14, -48.096, -15.0366, 37.2669, 28.4647, 72.8891, -155.743
5.6943, 14, -48.0533, -15.0664, 37.369, 28.6632, 73.0115, -155.417
5.69754, 14, -48.0097, -15.0964, 37.4709, 28.8626, 73.1343, -155.09
5.7, 14, -48.0097, -15.0964, 37.4709, 28.8626, 73.1343, -155.09
5.70626, 15, -47.9201, -15.1562, 37.6737, 29.2639, 73.3802, -154.438
5.71369, 15, -47.8267, -15.2151, 37.8739, 29.667, 73.6258, -153.787
5.7234, 16, -47.7276, -15.2736, 38.0723, 30.0703, 73.8703, -153.138
5.72748, 16, -47.6755, -15.3032, 38.1709, 30.2715, 73.9918, -152.815
5.73755, 17, -47.5098, -15.3946, 38.462, 30.8722, 74.3511, -151.853
5.74557, 17, -47.393, -15.4573, 38.652, 31.2683, 74.5842, -151.219
5.75319, 18, -47.2714, -15.5207, 38.8399, 31.6601, 74.8115, -150.591
5.76346, 18, -47.1448, -15.585, 39.0255, 32.0474, 75.0323, -149.972
5.76753, 19, -47.0794, -15.6178, 39.1172, 32.2397, 75.1402, -149.665
5.77554, 19, -46.9449, -15.6854, 39.2994, 32.6225, 75.3518, -149.057
5.78586, 20, -46.7334, -15.7912, 39.5707, 33.1936, 75.6599, -148.159
5.79155, 20, -46.6603, -15.8276, 39.6602, 33.3833, 75.7604, -147.863
5.79984, 21, -46.5101, -15.9022, 39.8369, 33.7623, 75.9586, -147.277
5.8099, 21, -46.2756, -16.0193, 40.0976, 34.3295, 76.248, -146.407
5.81888, 22, -46.1134, -16.1002, 40.2689, 34.7054, 76.4351, -145.836
5.82603, 22, -46.0305, -16.1824, 40.4368, 35.0782, 76.6171, -145.272
5.83362, 23, -45.7738, -16.2659, 40.6017, 35.4472, 76.7935, -144.713
5.84199, 23, -45.6851, -16.3082, 40.6833, 35.8114, 76.964, -144.161
5.85061, 24, -45.4088, -16.4382, 40.9233, 36.1707, 77.1289, -143.613
5.85547, 24, -45.3133, -16.4824, 41.0013, 36.348, 77.2091, -143.342
5.86545, 25, -45.1174, -16.5717, 41.2288, 36.8704, 77.4419, -142.534
5.87653, 25, -44.8116, -16.7073, 41.3754, 37.2101, 77.5909, -142
5.87953, 26, -44.7064, -16.7529, 41.4469, 37.3774, 77.6636, -141.734
5.89108, 26, -44.38, -16.8908, 41.6539, 37.8683, 77.8755, -140.941
5.89548, 27, -44.2676, -16.9369, 41.7202, 38.0283, 77.9442, -140.678
5.9046, 27, -44.038, -17.0286, 41.8484, 38.3422, 78.0783, -140.152
5.91162, 28, -43.8019, -17.1196, 41.9705, 38.6482, 78.209, -139.627
5.92047, 28, -43.559, -17.2096, 42.0862, 38.9461, 78.3361, -139.103
5.92816, 29, -43.3092, -17.2982, 42.195, 39.2351, 78.4597, -138.581
5.93814, 29, -43.0529, -17.3851, 42.297, 39.5159, 78.5804, -137.797
5.94357, 30, -42.7897, -17.4703, 42.3918, 39.7885, 78.6975, -137.536
5.9522, 30, -42.5183, -17.5537, 42.4794, 40.0524, 78.8121, -137.014
5.96387, 31, -42.0953, -17.6739, 42.5973, 40.4321, 78.978, -136.234
5.96759, 31, -41.9505, -17.7127, 42.6331, 40.5545, 79.032, -135.973
5.97972, 32, -41.5051, -17.8257, 42.7302, 40.909, 79.1902, -135.194
5.98659, 32, -41.1998, -17.898, 42.7863, 41.1347, 79.2924, -134.675
5.99503, 33, -40.8881, -17.9672, 42.8353, 41.3526, 79.3923, -134.158
5.99958, 33, -40.7297, -18.0005, 42.8572, 41.4584, 79.4412, -133.9
6.00854, 34, -40.4081, -18.0651, 42.8954, 41.6639, 79.5369, -133.383
6.01654, 34, -40.0818, -18.1272, 42.9263, 41.8614, 79.6299, -132.868
6.02528, 35, -39.7506, -18.1864, 42.9499, 42.0509, 79.7208, -132.354
6.03209, 35, -39.4134, -18.2421, 42.9664, 42.2331, 79.8087, -131.842
6.04144, 36, -39.0695, -18.2944, 42.9759, 42.4076, 79.8949, -131.33
6.04953, 36, -38.7181, -18.3434, 42.9786, 42.5743, 79.9787, -130.819
6.05757, 37, -38.3605, -18.3891, 42.9747, 42.7335, 80.0603, -130.31
6.06443, 37, -37.9969, -18.4312, 42.9638, 42.885, 80.14, -129.803
6.07262, 38, -37.6276, -18.4696, 42.9461, 43.0293, 80.2177, -129.297
6.08427, 38, -37.0649, -18.5208, 42.9073, 43.2317, 80.3303, -128.542
6.08806, 39, -36.8752, -18.5362, 42.891, 43.2954, 80.3664, -128.291
6.10154, 40, -36.299, -18.5769, 42.8319, 43.4757, 80.4727, -127.541
6.10427, 40, -36.1041, -18.5886, 42.8089, 43.5322, 80.5071, -127.292
6.11262, 40, -35.7097, -18.609, 42.7582, 43.6398, 80.5748, -126.795
6.11993, 41, -35.3097, -18.6254, 42.7007, 43.7401, 80.6405, -126.3
6.12975, 41, -34.904, -18.6382, 42.6369, 43.8331, 80.7039, -125.807
6.13742, 42, -34.4943, -18.6476, 42.5666, 43.9192, 80.766, -125.317
6.14574, 42, -34.0814, -18.6537, 42.4899, 43.9981, 80.8251, -124.829
6.15226, 43, -33.6652, -18.6566, 42.4071, 44.0697, 80.8837, -124.342
6.16455, 43, -33.0323, -18.6545, 42.2718, 44.1643, 80.9669, -123.618
6.16857, 44, -32.8184, -18.6519, 42.2239, 44.1921, 80.9942, -123.377
6.17761, 44, -32.3859, -18.6439, 42.1237, 44.242, 81.0477, -122.899
6.18458, 45, -31.9469, -18.6321, 42.0175, 44.2852, 81.0984, -122.422
6.19319, 45, -31.5032, -18.6168, 41.9054, 44.321, 81.1485, -121.948
6.20008, 46, -31.2802, -18.6078, 41.8471, 44.349, 81.1967, -121.476
6.20896, 46, -30.8328, -18.5874, 41.6633, 44.3691, 81.2422, -121.007
6.21759, 47, -30.1568, -18.5495, 41.5334, 44.3818, 81.2873, -120.54
6.2254, 47, -29.7002, -18.5188, 41.3977, 44.3874, 81.3315, -120.074
6.23389, 48, -29.2368, -18.4836, 41.2559, 44.386, 81.3738, -119.611
6.23956, 48, -29.0028, -18.4645, 41.1827, 44.3817, 81.3947, -119.38
6.24942, 49, -28.2928, -18.4005, 40.9542, 44.3563, 81.4574, -118.69
6.25737, 49, -28.0546, -18.3769, 40.7946, 44.328, 81.4984, -118.231
6.26345, 50, -27.5763, -18.3265, 40.7123, 44.3101, 81.5186, -118.003
6.27152, 50, -27.0951, -18.2711, 40.5427, 44.2672, 81.5594, -117.546
6.27955, 51, -26.6084, -18.2101, 40.3667, 44.2159, 81.6017, -117.089
6.28754, 51, -26.1141, -18.1436, 40.1843, 44.154, 81.6441, -116.635
6.29549, 52, -25.6123, -18.0715, 39.9947, 44.0829, 81.6866, -116.181
6.3035, 52, -25.1059, -17.9941, 39.7976, 44.0012, 81.7305, -115.727
6.31177, 53, -24.5975, -17.9115, 39.5945, 43.9091, 81.7754, -115.274
6.32414, 53, -23.8293, -17.7768, 39.2769, 43.7524, 81.843, -114.595
6.32745, 54, -23.5705, -17.7288, 39.1671, 43.695, 81.8666, -114.37
6.33844, 54, -22.7818, -17.5755, 38.8277, 43.5066, 81.9403, -113.692
6.34353, 55, -22.5148, -17.5213, 38.7111, 43.4383, 81.9654, -113.466
6.35171, 55, -21.9772, -17.4083, 38.4719, 43.2928, 82.0182, -113.014
6.36241, 56, -21.1658, -17.2276, 38.1011, 43.0525, 82.1009, -112.337
6.3714, 56, -20.6206, -17.1001, 37.845, 42.8779, 82.1581, -111.886
6.37651, 57, -20.3452, -17.0343, 37.7144, 42.7863, 82.1878, -111.66
6.38688, 57, -19.5048, -16.8283, 37.3131, 42.4938, 82.278, -110.985
6.39411, 58, -18.9349, -16.6834, 37.0369, 42.2832, 82.3414, -110.535
6.40242, 58, -18.3617, -16.5326, 36.755, 42.0601, 82.4058, -110.085
6.40845, 59, -18.0744, -16.4552, 36.6113, 41.9439, 82.4389, -109.861
6.41951, 60, -17.2052, -16.2163, 36.1708, 41.5767, 82.5423, -109.187
6.42352, 60, -16.911, -16.1343, 36.021, 41.4479, 82.5777, -108.962
6.43245, 60, -16.315, -15.966, 35.717, 41.1806, 82.6505, -108.513
6.43979, 61, -15.7121, -15.7919, 35.408, 40.9, 82.7244, -108.064
6.4485, 61, -15.1056, -15.613, 35.0925, 40.6061, 82.8011, -107.616
6.45548, 62, -14.4955, -15.4301, 34.7711, 40.2991, 82.88, -107.167
6.46661, 62, -13.5659, -15.1469, 34.2784, 39.8132, 83.0038, -106.493
6.47636, 63, -13.2511, -15.0495, 34.1118, 39.6443, 83.0465, -106.043
6.48082, 63, -12.6157, -14.85, 33.7748, 39.2966, 83.1335, -105.818
6.48857, 64, -11.9753, -14.6455, 33.4334, 38.9357, 83.2234, -105.367
6.49559, 64, -11.3312, -14.4353, 33.0868, 38.5619, 83.3161, -104.916
6.50572, 65, -10.6788, -14.2174, 32.7348, 38.1738, 83.4127, -104.463
6.51358, 65, -10.0155, -13.9922, 32.377, 37.7698, 83.5144, -104.008
6.52116, 66, -9.34181, -13.7602, 32.0142, 37.3474, 83.6219, -103.551
6.52792, 66, -8.66051, -13.5215, 31.6454, 36.9069, 83.7364, -103.092
6.53659, 67, -7.97338, -13.2759, 31.2687, 36.4473, 83.858, -102.631
6.54386, 67, -7.27741, -13.0239, 30.8848, 35.9699, 83.9875, -102.167
6.55162, 68, -6.57254, -12.7645, 30.4954, 35.4764, 84.1236, -101.7
6.56493, 69, -5.5028, -12.363, 29.9059, 34.7122, 84.3387, -100.997
6.56773, 69, -5.14355, -12.2253, 29.7079, 34.4518, 84.4128, -100.761
6.57635, 69, -4.42001, -11.9432, 29.31, 33.9228, 84.5644, -100.289
6.58362, 70, -3.6881, -11.6538, 28.9112, 33.3825, 84.7217, -99.815
6.59247, 70, -2.94671, -11.3561, 28.511, 32.8266, 84.8855, -99.3382
6.5997, 71, -2.19585, -11.0497, 28.1078, 32.2547, 85.0573, -98.8593
6.61049, 71, -1.43556, -10.7359, 27.6997, 31.6646, 85.2389, -98.3771
6.61591, 72, -0.667819, -10.4157, 27.2871, 31.0557, 85.4315, -97.8908
6.62755, 72, 0.105474, -10.09, 26.8714, 30.4278, 85.634, -97.156
6.63245, 73, 0.883699, -9.75579, 26.4535, 29.7869, 85.8456, -96.9101
6.64122, 73, 1.66656, -9.41342, 26.0362, 29.136, 86.0644, -96.4177
6.65041, 74, 2.45243, -9.06478, 25.6213, 28.4773, 86.2907, -95.9235
6.65842, 74, 3.23988, -8.71221, 25.2104, 27.8123, 86.5235, -95.4286
6.66425, 75, 4.02854, -8.35463, 24.8057, 27.1426, 86.7619, -94.9331
6.67296, 75, 4.81845, -7.99223, 24.4069, 26.4722, 87.005, -94.4379
6.68016, 76, 5.6082, -7.62523, 24.0146, 25.803, 87.2531, -93.9421
6.69215, 76, 6.79069, -7.06543, 23.4397, 24.8014, 87.6339, -93.1973
6.69609, 77, 7.18431, -6.87521, 23.2511, 24.4693, 87.7638, -92.9488
6.71329, 78, 8.7591, -6.09573, 22.5103, 23.1397, 88.3046, -91.9541
6.71514, 78, 8.7591, -6.09573, 22.5103, 23.1397, 88.3046, -91.9541
6.72941, 79, 10.3343, -5.28538, 21.788, 21.7951, 88.8894, -90.9486
6.73069, 79, 10.3343, -5.28538, 21.788, 21.7951, 88.8894, -90.9486
6.73527, 79, 10.7291, -5.07731, 21.6094, 21.4561, 89.0434, -90.6944
6.7445, 80, 11.9101, -4.43858, 21.0768, 20.4348, 89.5238, -89.9234
6.75145, 80, 12.3014, -4.22087, 20.9009, 20.0932, 89.6898, -89.663
6.75926, 81, 13.0795, -3.77781, 20.5508, 19.4134, 90.0304, -89.137
6.76882, 81, 14.2378, -3.0977, 20.034, 18.4103, 90.5596, -88.3379
6.77758, 82, 15.0004, -2.63524, 19.6979, 17.7567, 90.922, -87.8007
6.78337, 82, 15.3782, -2.40104, 19.5335, 17.4354, 91.1054, -87.5311
6.79367, 83, 16.4966, -1.68738, 19.0543, 16.4977, 91.6623, -86.7191
6.79946, 83, 16.8641, -1.44609, 18.9001, 16.1954, 91.8497, -86.4479
6.80732, 83, 17.5899, -0.958587, 18.5994, 15.6052, 92.2269, -85.9051
6.81713, 84, 18.3007, -0.466587, 18.3088, 14.7576, 92.8012, -85.0929
6.82344, 84, 18.9942, 0.0284012, 18.027, 14.4852, 92.9956, -84.8224
6.83288, 85, 19.67, 0.528073, 17.7518, 13.9549, 93.3906, -84.2828
6.8393, 85, 20.3282, 1.03256, 17.4832, 13.4442, 93.7935, -83.7451
6.84747, 86, 20.9695, 1.54092, 17.2199, 12.9531, 94.203, -83.2098
6.85634, 86, 21.5959, 2.05391, 16.9629, 12.482, 94.6184, -82.6749
6.86425, 87, 22.2096, 2.57482, 16.7123, 12.031, 95.0401, -82.1382
6.87142, 87, 22.8119, 3.10619, 16.4663, 11.5996, 95.4679, -81.5977
6.87929, 87, 23.4047, 3.64722, 16.2248, 11.1861, 95.9024, -81.0523
6.88739, 88, 23.9879, 4.19596, 15.9865, 10.7886, 96.3435, -80.4988
6.89535, 88, 24.5602, 4.75348, 15.7516, 10.4066, 96.7911, -79.9352
6.90337, 89, 25.1218, 5.32256, 15.5219, 10.0392, 97.2461, -79.3604
6.91133, 89, 25.6758, 5.90346, 15.2955, 9.68691, 97.7077, -78.7738
6.91938, 90, 26.2263, 6.49508, 15.072, 9.34935, 98.1759, -78.1734
6.92732, 90, 26.7695, 7.09586, 14.8529, 9.02726, 98.6506, -77.5588
6.93529, 91, 27.3003, 7.70561, 14.639, 8.72236, 99.132, -76.9307
6.94344, 91, 27.8185, 8.32619, 14.4292, 8.43589, 99.6195, -76.291
6.95136, 92, 28.3273, 8.95793, 14.2236, 8.17068, 100.112, -75.6391
6.95934, 92, 28.829, 9.59974, 14.0228, 7.92711, 100.608, -74.9784
6.96747, 93, 29.3214, 10.2493, 13.8275, 7.70626, 101.107, -74.3112
6.9753, 93, 29.8015, 10.9051, 13.6394, 7.50871, 101.606, -73.6364
6.98332, 94, 30.2671, 11.5652, 13.4591, 7.33468, 102.104, -72.9551
6.99145, 94, 30.7177, 12.2278, 13.2858, 7.18442, 102.599, -72.2694
6.99929, 95, 31.1545, 12.8924, 13.1197, 7.05772, 103.092, -71.5784
7.00742, 95, 31.5778, 13.5587, 12.9616, 6.95495, 103.58, -70.8813
7.01536, 96, 31.987, 14.2264, 12.8107, 6.87535, 104.066, -70.1792
7.02358, 96, 32.3801, 14.8947, 12.6661, 6.82038, 104.547, -69.4722
7.03134, 97, 32.757, 15.5631, 12.5281, 6.78723, 105.024, -68.7587
7.03974, 97, 33.118, 16.2301, 12.3978, 6.77521, 105.495, -68.0408
7.0474, 98, 33.4637, 16.8949, 12.2759, 6.78565, 105.959, -67.3207
7.05541, 98, 33.7948, 17.5549, 12.1629, 6.817, 106.414, -66.5971
7.06358, 99, 34.1122, 18.209, 12.0594, 6.86775, 106.859, -65.8735
7.0714, 99, 34.4178, 18.8559, 11.9653, 6.93852, 107.292, -65.1525
7.0794, 100, 34.7125, 19.4944, 11.8805, 7.0264, 107.711, -64.4334
7.08745, 100, 34.9956, 20.1236, 11.8047, 7.13199, 108.115, -63.7192
7.09533, 101, 35.2661, 20.7417, 11.7372, 7.25332, 108.503, -63.0131
7.10424, 101, 35.5244, 21.3486, 11.6781, 7.38916, 108.876, -62.3133
7.11149, 102, 35.7699, 21.9432, 11.6275, 7.53733, 109.231, -61.6232
7.11953, 102, 36.002, 22.5248, 11.5849, 7.69589, 109.57, -60.9452
7.12757, 103, 36.2228, 23.0919, 11.5507, 7.86285, 109.893, -60.2785
7.13635, 103, 36.4361, 23.6437, 11.5246, 8.03741, 110.201, -59.6235
7.14367, 103, 36.6435, 24.1803, 11.5075, 8.21978, 110.491, -58.9822
7.15182, 104, 36.8443, 24.7014, 11.4988, 8.41056, 110.764, -58.3527
7.16045, 104, 37.039, 25.2065, 11.4968, 8.61055, 111.018, -57.7341
7.16785, 104, 37.2274, 25.6962, 11.5013, 8.81929, 111.251, -57.1269
7.17658, 104, 37.4068, 26.1698, 11.5113, 9.03525, 111.465, -56.5325
7.18389, 104, 37.5756, 26.627, 11.5249, 9.25684, 111.661, -55.9512
7.19187, 104, 37.6565, 26.8496, 11.5413, 9.48145, 111.841, -55.3857
7.20035, 104, 37.8914, 27.4953, 11.5605, 9.70583, 112.008, -54.8393
7.20728, 104, 37.9679, 27.7027, 11.5706, 9.81722, 112.087, -54.5741
7.21633, 104, 38.1913, 28.3005, 11.6016, 10.1453, 112.312, -53.8127
7.22334, 104, 38.263, 28.4913, 11.6117, 10.252, 112.383, -53.5704
7.23129, 104, 38.4018, 28.8607, 11.6311, 10.4609, 112.518, -53.1042
7.23931, 104, 38.5335, 29.2121, 11.6494, 10.6625, 112.646, -52.6621
7.24952, 104, 38.7155, 29.7048, 11.6748, 10.9496, 112.823, -52.0464
7.25528, 104, 38.7719, 29.8593, 11.6826, 11.041, 112.878, -51.8535
7.26468, 104, 38.929, 30.2952, 11.7046, 11.3005, 113.032, -51.3121
7.27134, 104, 38.9776, 30.431, 11.7115, 11.3821, 113.08, -51.1444
7.2793, 104, 39.0688, 30.6877, 11.7242, 11.5374, 113.169, -50.8285
7.28917, 104, 39.1911, 31.0362, 11.741, 11.7501, 113.289, -50.4011
7.29535, 104, 39.2279, 31.1425, 11.7461, 11.8153, 113.326, -50.2714
7.30498, 104, 39.3261, 31.4313, 11.7604, 11.9933, 113.424, -49.92
7.31287, 104, 39.3818, 31.5998, 11.7686, 12.0973, 113.481, -49.7171
7.32092, 104, 39.4072, 31.6767, 11.7758, 12.1889, 113.531, -49.5395
7.32892, 104, 39.4531, 31.8162, 11.7792, 12.2686, 113.573, -49.3864
7.33528, 104, 39.4933, 31.9375, 11.7855, 12.3036, 113.592, -49.3188
7.34336, 104, 39.5276, 32.0418, 11.7912, 12.3657, 113.625, -49.2011
7.35236, 104, 39.5557, 32.1296, 11.7962, 12.4159, 113.651, -49.1059
7.3593, 104, 39.5787, 32.2024, 11.8006, 12.4547, 113.671, -49.0306
7.36735, 104, 39.597, 32.2619, 11.8047, 12.4847, 113.686, -48.9744
7.37528, 104, 39.6111, 32.3097, 11.8084, 12.5068, 113.697, -48.9336
7.38328, 104, 39.6221, 32.347, 11.8117, 12.5224, 113.704, -48.9056
7.39135, 104, 39.6304, 32.3749, 11.8147, 12.5329, 113.709, -48.8874
7.39929, 104, 39.6363, 32.3958, 11.8174, 12.5394, 113.711, -48.8765
7.40728, 104, 39.6399, 32.411, 11.8195, 12.543, 113.713, -48.8708
7.41541, 104, 39.6421, 32.4213, 11.8211, 12.5449, 113.713, -48.8682
7.42324, 105, 39.643, 32.4277, 11.8224, 12.5458, 113.714, -48.8669
7.43127, 105, 39.6429, 32.4318, 11.8234, 12.5463, 113.714, -48.8665
7.43937, 105, 39.642, 32.4346, 11.8243, 12.5465, 113.714, -48.8665
7.44728, 105, 39.6411, 32.4366, 11.825, 12.5466, 113.714, -48.8667
7.45535, 105, 39.6401, 32.4382, 11.8257, 12.5467, 113.714, -48.8669
7.46336, 105, 39.6389, 32.4396, 11.8262, 12.5467, 113.714, -48.8672
7.47127, 105, 39.6378, 32.4408, 11.8268, 12.5467, 113.714, -48.8675
7.4793, 105, 39.6371, 32.442, 11.8273, 12.5467, 113.714, -48.8679
7.48738, 105, 39.6367, 32.4431, 11.8279, 12.5467, 113.714, -48.8681
7.49528, 105, 39.6364, 32.4442, 11.8285, 12.5467, 113.714, -48.8684
7.50328, 105, 39.6362, 32.4452, 11.829, 12.5467, 113.714, -48.8686
7.51137, 105, 39.636, 32.4459, 11.8294, 12.5467, 113.714, -48.8688
7.5193, 105, 39.6357, 32.4465, 11.8297, 12.5467, 113.714, -48.8691
7.52732, 105, 39.6354, 32.4468, 11.83, 12.5468, 113.714, -48.8693
7.53549, 105, 39.6352, 32.447, 11.8303, 12.5467, 113.714, -48.8696
7.54365, 105, 39.6349, 32.4471, 11.8305, 12.5467, 113.714, -48.8697
