hehonglu123/Motion-Primitive-Planning/ILC/recorded_data/realrobot/from_NX/iteration_29/run_2.csv
timestamp, cmd_num, J1, J2, J3, J4, J5, J6
0.00037, -1, 39.6291, 32.447, 11.8315, 12.5437, 113.713, -48.8735
0.002964, -1, 39.6291, 32.447, 11.8315, 12.5437, 113.713, -48.8736
0.028564, -1, 39.6291, 32.447, 11.8316, 12.5437, 113.713, -48.8735
0.02982, -1, 39.6291, 32.447, 11.8316, 12.5437, 113.713, -48.8735
0.031908, -1, 39.6291, 32.447, 11.8316, 12.5437, 113.713, -48.8735
0.033179, -1, 39.6291, 32.447, 11.8316, 12.5437, 113.713, -48.8735
0.039825, -1, 39.6291, 32.447, 11.8315, 12.5436, 113.713, -48.8736
0.047801, -1, 39.629, 32.447, 11.8315, 12.5437, 113.713, -48.8736
0.055828, -1, 39.6277, 32.4468, 11.8315, 12.5437, 113.713, -48.8736
0.185154, -1, 38.5067, 31.8776, 12.0465, 12.5522, 113.137, -50.3466
0.186362, -1, 38.5067, 31.8776, 12.0465, 12.5522, 113.137, -50.3466
0.188571, -1, 38.4234, 31.8339, 12.0655, 12.5534, 113.089, -50.4679
0.189786, -1, 38.4234, 31.8339, 12.0655, 12.5534, 113.089, -50.4679
0.191049, -1, 38.4234, 31.8339, 12.0655, 12.5534, 113.089, -50.4679
0.193012, -1, 38.3382, 31.7892, 12.0849, 12.5546, 113.04, -50.5911
0.194287, -1, 38.3382, 31.7892, 12.0849, 12.5546, 113.04, -50.5911
0.197862, -1, 38.2512, 31.7437, 12.1044, 12.5557, 112.991, -50.7161
0.199101, -1, 38.2512, 31.7437, 12.1044, 12.5557, 112.991, -50.7161
0.201213, -1, 38.1626, 31.6974, 12.1239, 12.557, 112.941, -50.8423
0.202494, -1, 38.1626, 31.6974, 12.1239, 12.557, 112.941, -50.8423
0.204499, -1, 38.0727, 31.6505, 12.1434, 12.5582, 112.891, -50.9695
0.205953, -1, 38.0727, 31.6505, 12.1434, 12.5582, 112.891, -50.9695
0.207206, -1, 38.0727, 31.6505, 12.1434, 12.5582, 112.891, -50.9695
0.209903, -1, 37.9815, 31.603, 12.1628, 12.5594, 112.84, -51.0976
0.213561, -1, 37.8891, 31.5551, 12.1823, 12.5606, 112.789, -51.2264
0.214915, -1, 37.8891, 31.5551, 12.1823, 12.5606, 112.789, -51.2264
0.216933, -1, 37.7957, 31.5068, 12.2017, 12.5619, 112.738, -51.3554
0.218233, -1, 37.7957, 31.5068, 12.2017, 12.5619, 112.738, -51.3554
0.220058, -1, 37.7957, 31.5068, 12.2211, 12.5631, 112.688, -51.4848
0.22431, -1, 37.6066, 31.4094, 12.2405, 12.5644, 112.636, -51.6145
0.233038, -1, 37.4154, 31.3115, 12.2793, 12.5668, 112.534, -51.8741
0.238794, -1, 37.3195, 31.2626, 12.2987, 12.568, 112.482, -52.0038
0.248391, -1, 37.0313, 31.1158, 12.3569, 12.5718, 112.328, -52.3935
0.257077, -1, 36.9352, 31.0669, 12.3956, 12.5744, 112.225, -52.6537
0.262755, -1, 36.7431, 30.9692, 12.415, 12.5757, 112.174, -52.7839
0.271746, -1, 36.5514, 30.8714, 12.4539, 12.5783, 112.071, -53.0443
0.279781, -1, 36.3598, 30.7737, 12.4928, 12.5809, 111.968, -53.3046
0.286732, -1, 36.1682, 30.6759, 12.5316, 12.5835, 111.865, -53.565
0.296939, -1, 35.8809, 30.529, 12.59, 12.5874, 111.711, -53.956
0.303741, -1, 35.7851, 30.48, 12.6094, 12.5886, 111.659, -54.0863
0.310759, -1, 35.5933, 30.3819, 12.6483, 12.5911, 111.556, -54.3465
0.319759, -1, 35.4011, 30.2837, 12.6871, 12.5938, 111.453, -54.6068
0.326728, -1, 35.2089, 30.1854, 12.7259, 12.5964, 111.35, -54.8674
0.335792, -1, 35.0164, 30.087, 12.7649, 12.5989, 111.247, -55.1283
0.343744, -1, 34.8242, 29.9886, 12.8038, 12.6015, 111.144, -55.3888
0.350755, -1, 34.6319, 29.8901, 12.8426, 12.604, 111.041, -55.6497
0.359739, -1, 34.4396, 29.7916, 12.8815, 12.6066, 110.938, -55.9104
0.367865, -1, 34.2476, 29.6932, 12.9205, 12.6092, 110.835, -56.1715
0.375815, -1, 34.0555, 29.595, 12.9593, 12.6117, 110.732, -56.4323
0.383738, -1, 33.8638, 29.4967, 12.9983, 12.6145, 110.629, -56.6929
0.391741, -1, 33.6721, 29.3984, 13.0372, 12.6171, 110.525, -56.9539
0.400739, -1, 33.4802, 29.3, 13.0761, 12.6197, 110.422, -57.215
0.40773, -1, 33.2877, 29.2016, 13.1151, 12.6223, 110.319, -57.476
0.415783, -1, 33.0951, 29.1029, 13.1539, 12.6249, 110.216, -57.7368
0.423806, -1, 32.9023, 29.0044, 13.1928, 12.6276, 110.113, -57.998
0.431735, -1, 32.7091, 28.9058, 13.2318, 12.6302, 110.01, -58.2592
0.43974, -1, 32.5157, 28.8071, 13.2706, 12.6329, 109.907, -58.5207
0.447771, -1, 32.322, 28.7084, 13.3095, 12.6356, 109.804, -58.7816
0.455771, -1, 32.1279, 28.6097, 13.3484, 12.6382, 109.701, -59.0425
0.463818, -1, 31.934, 28.5109, 13.3872, 12.641, 109.598, -59.3036
0.471746, -1, 31.7402, 28.4121, 13.4262, 12.6436, 109.495, -59.5651
0.479734, -1, 31.5466, 28.3134, 13.4653, 12.6465, 109.392, -59.8263
0.487816, -1, 31.3534, 28.2147, 13.5042, 12.6493, 109.289, -60.0875
0.495734, -1, 31.1606, 28.1163, 13.5432, 12.652, 109.186, -60.3488
0.503735, -1, 30.9682, 28.0178, 13.5823, 12.6549, 109.082, -60.6105
0.511824, -1, 30.776, 27.9192, 13.6212, 12.6577, 108.979, -60.8718
0.519732, -1, 30.5842, 27.8207, 13.6602, 12.6605, 108.876, -61.133
0.527733, -1, 30.3922, 27.7221, 13.6993, 12.6633, 108.773, -61.3945
0.535825, -1, 30.2001, 27.6233, 13.7382, 12.666, 108.669, -61.6562
0.543738, -1, 30.0077, 27.5246, 13.7773, 12.6688, 108.566, -61.9179
0.551748, -1, 29.815, 27.4259, 13.8162, 12.6715, 108.463, -62.1795
0.559816, -1, 29.6217, 27.3271, 13.855, 12.6741, 108.36, -62.4411
0.567743, -1, 29.4279, 27.2283, 13.894, 12.6768, 108.257, -62.703
0.575738, -1, 29.2338, 27.1295, 13.933, 12.6794, 108.153, -62.9648
0.584473, -1, 29.0395, 27.0306, 13.9719, 12.6819, 108.05, -63.2261
0.591771, -1, 28.8451, 26.9317, 14.0109, 12.6845, 107.947, -63.4876
0.600066, -1, 28.651, 26.8328, 14.0498, 12.6871, 107.843, -63.7493
0.609226, -1, 28.4569, 26.7339, 14.0889, 12.6896, 107.74, -64.0112
0.615687, -1, 28.2632, 26.6353, 14.1279, 12.6921, 107.636, -64.2728
0.624278, -1, 28.0701, 26.5365, 14.1669, 12.6945, 107.533, -64.5344
0.631342, -1, 27.9737, 26.4376, 14.2059, 12.697, 107.43, -64.7963
0.639808, -1, 27.6845, 26.3387, 14.2449, 12.6995, 107.327, -65.0582
0.772974, -1, 24.4963, 24.7078, 14.8877, 12.7378, 105.623, -69.3761
0.774202, -1, 24.4963, 24.7078, 14.8877, 12.7378, 105.623, -69.3761
0.775566, -1, 24.4963, 24.7078, 14.8877, 12.7378, 105.623, -69.3761
0.778369, -1, 24.4001, 24.6584, 14.9073, 12.739, 105.571, -69.507
0.77958, -1, 24.4001, 24.6584, 14.9073, 12.739, 105.571, -69.507
0.781669, -1, 24.3038, 24.6089, 14.9268, 12.7402, 105.519, -69.6379
0.782874, -1, 24.3038, 24.6089, 14.9268, 12.7402, 105.519, -69.6379
0.786844, -1, 24.2076, 24.5595, 14.9463, 12.7414, 105.468, -69.7687
0.788761, -1, 24.1113, 24.5101, 14.9658, 12.7426, 105.416, -69.8994
0.790201, -1, 24.1113, 24.5101, 14.9658, 12.7426, 105.416, -69.8994
0.791441, -1, 24.1113, 24.5101, 14.9658, 12.7426, 105.416, -69.8994
0.794176, -1, 24.015, 24.4607, 14.9853, 12.7437, 105.365, -70.0302
0.795542, -1, 24.015, 24.4607, 14.9853, 12.7437, 105.365, -70.0302
0.797569, -1, 23.9186, 24.4113, 15.0048, 12.7449, 105.313, -70.1609
0.798855, -1, 23.9186, 24.4113, 15.0048, 12.7449, 105.313, -70.1609
0.801955, -1, 23.8221, 24.3619, 15.0242, 12.7461, 105.261, -70.2917
0.803198, -1, 23.8221, 24.3619, 15.0242, 12.7461, 105.261, -70.2917
0.805492, -1, 23.7257, 24.3125, 15.0437, 12.7474, 105.209, -70.4225
0.806715, -1, 23.7257, 24.3125, 15.0437, 12.7474, 105.209, -70.4225
0.807991, -1, 23.7257, 24.3125, 15.0437, 12.7474, 105.209, -70.4225
0.810142, -1, 23.6292, 24.2631, 15.0631, 12.7486, 105.158, -70.5535
0.814822, -1, 23.5326, 24.2136, 15.0826, 12.7497, 105.106, -70.6845
0.823778, -1, 23.3391, 24.1147, 15.1216, 12.7521, 105.003, -70.9461
0.830719, -1, 23.1454, 24.0158, 15.1604, 12.7545, 104.899, -71.2079
0.839725, -1, 22.9515, 23.9169, 15.1993, 12.7569, 104.796, -71.4698
0.84675, -1, 22.7574, 23.818, 15.2383, 12.7594, 104.692, -71.7317
0.855725, -1, 22.5636, 23.7193, 15.2773, 12.7619, 104.589, -71.9934
0.86372, -1, 22.37, 23.6207, 15.3163, 12.7643, 104.486, -72.2546
0.870696, -1, 22.1768, 23.522, 15.3552, 12.7669, 104.382, -72.5161
0.879724, -1, 21.9836, 23.4232, 15.3941, 12.7695, 104.279, -72.7777
0.887749, -1, 21.7908, 23.3246, 15.4332, 12.7721, 104.176, -73.0393
0.894769, -1, 21.5985, 23.2258, 15.4721, 12.7747, 104.073, -73.3005
0.903721, -1, 21.4063, 23.127, 15.511, 12.7774, 103.97, -73.5621
0.912719, -1, 21.214, 23.0284, 15.55, 12.78, 103.867, -73.8237
0.919817, -1, 21.0216, 22.9297, 15.589, 12.7827, 103.763, -74.0852
0.927736, -1, 20.8292, 22.8311, 15.6279, 12.7854, 103.66, -74.3463
0.935717, -1, 20.6366, 22.7325, 15.6668, 12.7881, 103.557, -74.6074
0.94375, -1, 20.4438, 22.6339, 15.7056, 12.7909, 103.454, -74.8686
0.95176, -1, 20.2504, 22.5352, 15.7446, 12.7936, 103.351, -75.1302
0.959805, -1, 20.0566, 22.4364, 15.7835, 12.7963, 103.248, -75.3912
0.967728, -1, 19.863, 22.3377, 15.8222, 12.7991, 103.145, -75.6524
0.975725, -1, 19.6694, 22.239, 15.8611, 12.8017, 103.042, -75.9136
0.983783, -1, 19.4758, 22.1405, 15.9, 12.8045, 102.939, -76.175
0.991716, -1, 19.2827, 22.0418, 15.9389, 12.8073, 102.836, -76.4359
0.999729, -1, 19.0898, 21.9431, 15.9778, 12.81, 102.733, -76.6968
1.00779, -1, 18.8971, 21.8446, 16.0167, 12.8127, 102.63, -76.9577
1.01572, -1, 18.7047, 21.7458, 16.0554, 12.8154, 102.527, -77.2187
1.02372, -1, 18.5129, 21.6472, 16.0943, 12.8182, 102.424, -77.4796
1.03178, -1, 18.3211, 21.5486, 16.1332, 12.8209, 102.321, -77.7403
1.03973, -1, 18.1292, 21.4501, 16.172, 12.8235, 102.218, -78.001
1.04774, -1, 17.9373, 21.3517, 16.2109, 12.826, 102.115, -78.2618
1.05586, -1, 17.7454, 21.2534, 16.2498, 12.8285, 102.012, -78.5226
1.06371, -1, 17.5532, 21.155, 16.2886, 12.8311, 101.91, -78.7831
1.07186, -1, 17.3605, 21.0567, 16.3275, 12.8336, 101.806, -79.0434
1.07974, -1, 17.1675, 20.9584, 16.3663, 12.8361, 101.703, -79.304
1.08778, -1, 16.9745, 20.8601, 16.405, 12.8385, 101.601, -79.5648
1.09608, -1, 16.7815, 20.7619, 16.4439, 12.8409, 101.498, -79.8252
1.1038, -1, 16.5884, 20.6637, 16.4826, 12.8432, 101.395, -80.0857
1.11181, -1, 16.3954, 20.5654, 16.5213, 12.8455, 101.293, -80.3464
1.12022, -1, 16.2028, 20.4671, 16.5601, 12.8478, 101.19, -80.6069
1.12726, -1, 16.0107, 20.3688, 16.5988, 12.8502, 101.087, -80.8672
1.13587, -1, 15.8188, 20.2703, 16.6376, 12.8525, 100.985, -81.1273
1.14451, -1, 15.6273, 20.1718, 16.6763, 12.8548, 100.882, -81.3873
1.15173, -1, 15.4361, 20.0735, 16.7148, 12.8572, 100.779, -81.6475
1.15975, -1, 15.2449, 19.9753, 16.7536, 12.8595, 100.677, -81.9076
1.16862, -1, 15.0538, 19.877, 16.7924, 12.8617, 100.574, -82.1673
1.17584, -1, 14.8626, 19.7788, 16.831, 12.8641, 100.472, -82.4272
1.18386, -1, 14.6712, 19.6807, 16.8697, 12.8664, 100.369, -82.6872
1.19293, -1, 14.4796, 19.5826, 16.9084, 12.8686, 100.266, -82.9472
1.2, -1, 14.2876, 19.4845, 16.947, 12.8709, 100.164, -83.2068
1.20813, -1, 14.0952, 19.3864, 16.9858, 12.8732, 100.061, -83.4662
1.2147, -1, 13.999, 19.3375, 17.0051, 12.8743, 100.01, -83.596
1.22276, -1, 13.8067, 19.2396, 17.0436, 12.8766, 99.9075, -83.8557
1.2323, -1, 13.518, 19.0928, 17.1017, 12.8801, 99.7537, -84.2448
1.24112, -1, 13.3259, 18.9949, 17.1403, 12.8824, 99.6512, -84.504
1.24676, -1, 13.23, 18.946, 17.1595, 12.8835, 99.6002, -84.6337
1.25634, -1, 12.9427, 18.7991, 17.2174, 12.8871, 99.4466, -85.0229
1.26496, -1, 12.8471, 18.7501, 17.2367, 12.8894, 99.3442, -85.2821
1.2717, -1, 12.656, 18.6521, 17.2753, 12.8906, 99.2932, -85.4115
1.27975, -1, 12.4653, 18.5544, 17.3138, 12.893, 99.1907, -85.6704
1.28776, -1, 12.2751, 18.4566, 17.3524, 12.8954, 99.0884, -85.9293
1.29476, -1, 12.0849, 18.3589, 17.3909, 12.8979, 98.9866, -86.1883
1.30376, -1, 11.8945, 18.2613, 17.4295, 12.9002, 98.8843, -86.4472
1.31172, -1, 11.7041, 18.1636, 17.4681, 12.9026, 98.7824, -86.7056
1.31976, -1, 11.5133, 18.0659, 17.5066, 12.9051, 98.6807, -86.9644
1.32772, -1, 11.3223, 17.9683, 17.5452, 12.9075, 98.5786, -87.2231
1.33572, -1, 11.1311, 17.8708, 17.5838, 12.9099, 98.4767, -87.4815
1.34375, -1, 10.9396, 17.7733, 17.6222, 12.9124, 98.3749, -87.7396
1.35171, -1, 10.748, 17.6759, 17.6607, 12.9149, 98.2728, -87.9978
1.35972, -1, 10.5564, 17.5783, 17.6991, 12.9174, 98.171, -88.2562
1.36779, -1, 10.3651, 17.4808, 17.7376, 12.92, 98.0692, -88.5145
1.37573, -1, 10.1741, 17.3833, 17.776, 12.9224, 97.9673, -88.7724
1.38372, -1, 9.98352, 17.2857, 17.8144, 12.9252, 97.8656, -89.0306
1.39176, -1, 9.79317, 17.1881, 17.8527, 12.9278, 97.7635, -89.2887
1.39971, -1, 9.6032, 17.0906, 17.8911, 12.9304, 97.6615, -89.5469
1.4087, -1, 9.41381, 16.9933, 17.9294, 12.9333, 97.5598, -89.8046
1.41576, -1, 9.22453, 16.8959, 17.9678, 12.9359, 97.4578, -90.0622
1.42475, -1, 9.03513, 16.7987, 18.0061, 12.9387, 97.3559, -90.3196
1.43172, -1, 8.84564, 16.7015, 18.0444, 12.9413, 97.2543, -90.5774
1.43977, -1, 8.65611, 16.6043, 18.0828, 12.9439, 97.1525, -90.8348
1.44778, -1, 8.46647, 16.5071, 18.1213, 12.9466, 97.051, -91.0918
1.4558, -1, 8.27651, 16.4101, 18.1595, 12.9493, 96.9497, -91.349
1.46378, -1, 8.08604, 16.3132, 18.1979, 12.9519, 96.8479, -91.6062
1.47171, -1, 7.89556, 16.2163, 18.2362, 12.9546, 96.7464, -91.8634
1.47979, -1, 7.70501, 16.1194, 18.2744, 12.9573, 96.645, -92.1202
1.48771, -1, 7.51447, 16.0225, 18.3127, 12.9599, 96.5435, -92.3769
1.49571, -1, 7.32419, 15.9256, 18.351, 12.9625, 96.4421, -92.6337
1.50378, -1, 7.1342, 15.8286, 18.3891, 12.965, 96.3409, -92.8906
1.5117, -1, 6.94454, 15.7316, 18.4274, 12.9677, 96.2395, -93.147
1.51971, -1, 6.75536, 15.6347, 18.4656, 12.9701, 96.1385, -93.4035
1.5278, -1, 6.56665, 15.5378, 18.5036, 12.9726, 96.0377, -93.6598
1.5357, -1, 6.37832, 15.441, 18.5417, 12.9751, 95.9366, -93.9163
1.54373, -1, 6.19012, 15.3443, 18.5799, 12.9776, 95.8356, -94.1725
1.55178, -1, 6.00197, 15.2476, 18.618, 12.9801, 95.7348, -94.4284
1.5597, -1, 5.81357, 15.1509, 18.6562, 12.9824, 95.6337, -94.6843
1.56773, -1, 5.62515, 15.0542, 18.6943, 12.9847, 95.5329, -94.9402
1.57585, -1, 5.43652, 14.9577, 18.7323, 12.9871, 95.4322, -95.196
1.5837, -1, 5.24763, 14.8612, 18.7705, 12.9894, 95.3314, -95.4515
1.59191, -1, 5.05829, 14.7649, 18.8086, 12.9916, 95.2308, -95.707
1.60066, -1, 4.86891, 14.6686, 18.8465, 12.9939, 95.1301, -95.9625
1.6078, -1, 4.67952, 14.5722, 18.8847, 12.9961, 95.0293, -96.218
1.61604, -1, 4.49015, 14.4758, 18.9227, 12.9983, 94.9286, -96.473
1.62325, -1, 4.30116, 14.3795, 18.9607, 13.0006, 94.8278, -96.728
1.63182, -1, 4.1123, 14.283, 18.9987, 13.0027, 94.7269, -96.983
1.64028, -1, 3.92388, 14.1867, 19.0366, 13.0051, 94.6262, -97.2381
1.6472, -1, 3.82993, 14.1386, 19.0555, 13.0062, 94.5758, -97.3656
1.65571, -1, 3.54868, 13.9943, 19.1125, 13.0095, 94.4246, -97.7476
1.664, -1, 3.36163, 13.8982, 19.1503, 13.0119, 94.3242, -98.0023
1.67177, -1, 3.17465, 13.8022, 19.1881, 13.0142, 94.2234, -98.257
1.67992, -1, 2.98768, 13.7061, 19.2261, 13.0164, 94.1226, -98.5117
1.68797, -1, 2.80074, 13.6101, 19.264, 13.0187, 94.0221, -98.7659
1.69593, -1, 2.61357, 13.5141, 19.3019, 13.0209, 93.9214, -99.02
1.70397, -1, 2.42623, 13.4182, 19.3397, 13.0232, 93.821, -99.2741
1.71216, -1, 2.23857, 13.3224, 19.3775, 13.0255, 93.7208, -99.5284
1.71871, -1, 2.14459, 13.2745, 19.3964, 13.0266, 93.6706, -99.6553
1.72834, -1, 1.86247, 13.1307, 19.4532, 13.03, 93.5205, -100.036
1.73634, -1, 1.67426, 13.0349, 19.4909, 13.0323, 93.4206, -100.289
1.74424, -1, 1.48605, 12.939, 19.5287, 13.0344, 93.3204, -100.543
1.75082, -1, 1.39204, 12.8911, 19.5476, 13.0356, 93.2704, -100.67
1.76038, -1, 1.11048, 12.7474, 19.6041, 13.0391, 93.1204, -101.049
1.76823, -1, 1.01679, 12.6995, 19.623, 13.0403, 93.0203, -101.302
1.77478, -1, 0.829996, 12.6039, 19.6608, 13.0427, 92.9703, -101.429
1.78473, -1, 0.550755, 12.4605, 19.7171, 13.0463, 92.8208, -101.809
1.79179, -1, 0.457789, 12.4128, 19.736, 13.0475, 92.7708, -101.935
1.79971, -1, 0.272069, 12.3174, 19.7737, 13.05, 92.6712, -102.188
1.80774, -1, 0.0866213, 12.2221, 19.8113, 13.0524, 92.5719, -102.44
1.81569, -1, -0.0988281, 12.1268, 19.8488, 13.0548, 92.4722, -102.693
1.82375, -1, -0.284453, 12.0316, 19.8865, 13.0572, 92.3726, -102.946
1.83169, -1, -0.470364, 11.9364, 19.9241, 13.0597, 92.2733, -103.198
1.8397, -1, -0.656584, 11.8413, 19.9617, 13.0622, 92.1737, -103.45
1.84774, -1, -0.842989, 11.7464, 19.9993, 13.0646, 92.0742, -103.702
1.85569, -1, -1.02963, 11.6513, 20.0367, 13.0672, 91.9751, -103.954
1.86369, -1, -1.21642, 11.5562, 20.0742, 13.0697, 91.8756, -104.206
1.87176, -1, -1.40336, 11.4611, 20.1118, 13.0722, 91.7763, -104.457
1.87972, -1, -1.59002, 11.3659, 20.1492, 13.0748, 91.6773, -104.709
1.88769, -1, -1.77646, 11.2708, 20.1866, 13.0774, 91.578, -104.96
1.89576, -1, -1.96248, 11.1757, 20.2241, 13.0801, 91.4789, -105.212
1.9037, -1, -2.14794, 11.0808, 20.2615, 13.0827, 91.3798, -105.463
1.91269, -1, -2.33286, 10.9859, 20.2988, 13.0853, 91.2805, -105.713
1.91869, -1, -2.51753, 10.891, 20.3362, 13.088, 91.1814, -105.964
1.92772, -1, -2.70171, 10.7963, 20.3735, 13.0907, 91.0824, -106.216
1.93569, -1, -2.88563, 10.7015, 20.4108, 13.0933, 90.9833, -106.466
1.94369, -1, -3.06966, 10.6068, 20.4483, 13.0959, 90.8843, -106.717
1.95169, -1, -3.25383, 10.5122, 20.4856, 13.0986, 90.7855, -106.967
1.9598, -1, -3.43834, 10.4177, 20.5228, 13.1011, 90.6865, -107.218
1.96771, -1, -3.62304, 10.3234, 20.5601, 13.1037, 90.5877, -107.469
1.9757, -1, -3.80792, 10.229, 20.5974, 13.1062, 90.489, -107.718
1.98375, -1, -3.9931, 10.1346, 20.6346, 13.1086, 90.3902, -107.968
1.99168, -1, -4.17844, 10.0403, 20.6718, 13.1111, 90.2916, -108.218
1.99978, -1, -4.36407, 9.946, 20.709, 13.1135, 90.193, -108.468
2.00769, -1, -4.54956, 9.85159, 20.7462, 13.1158, 90.0944, -108.718
2.01576, -1, -4.73468, 9.75734, 20.7835, 13.1181, 89.996, -108.967
2.02369, -1, -4.91943, 9.66315, 20.8205, 13.1206, 89.8975, -109.217
2.03169, -1, -5.10359, 9.56912, 20.8576, 13.123, 89.799, -109.466
2.03976, -1, -5.28703, 9.47507, 20.8948, 13.1254, 89.7007, -109.715
2.04771, -1, -5.47023, 9.38112, 20.9318, 13.1277, 89.6022, -109.964
2.05569, -1, -5.65296, 9.28721, 20.9689, 13.13, 89.5039, -110.213
2.06381, -1, -5.83534, 9.19333, 21.006, 13.1323, 89.4059, -110.462
2.0717, -1, -6.01771, 9.09948, 21.043, 13.1346, 89.3076, -110.711
2.07973, -1, -6.20027, 9.00565, 21.08, 13.1368, 89.2095, -110.959
2.08776, -1, -6.38312, 8.91195, 21.1171, 13.139, 89.1118, -111.207
2.09587, -1, -6.56615, 8.81829, 21.1539, 13.1412, 89.0137, -111.456
2.10375, -1, -6.7495, 8.7246, 21.1908, 13.1434, 88.9157, -111.704
2.11184, -1, -6.9333, 8.63099, 21.2277, 13.1455, 88.8179, -111.952
2.12001, -1, -7.11734, 8.53736, 21.2646, 13.1476, 88.72, -112.2
2.12782, -1, -7.30165, 8.44377, 21.3015, 13.1497, 88.6222, -112.447
2.13589, -1, -7.48559, 8.35011, 21.3384, 13.1519, 88.5245, -112.695
2.1442, -1, -7.66926, 8.2566, 21.3751, 13.1541, 88.4269, -112.943
2.1517, -1, -7.8525, 8.16317, 21.412, 13.1562, 88.3294, -113.19
2.15979, -1, -8.03536, 8.06978, 21.4488, 13.1585, 88.2322, -113.437
2.16849, -1, -8.21756, 7.97647, 21.4856, 13.1607, 88.1347, -113.684
2.17574, -1, -8.39919, 7.88322, 21.5224, 13.163, 88.0373, -113.931
2.18411, -1, -8.5804, 7.78999, 21.5593, 13.1652, 87.94, -114.178
2.19072, -1, -8.67086, 7.74342, 21.5777, 13.1664, 87.8913, -114.301
2.19875, -1, -8.85159, 7.65023, 21.6144, 13.1687, 87.7938, -114.548
2.2081, -1, -9.12277, 7.51066, 21.6695, 13.172, 87.6479, -114.917
2.21467, -1, -9.21332, 7.46418, 21.6879, 13.1731, 87.5993, -115.041
2.22272, -1, -9.3946, 7.37134, 21.7245, 13.1754, 87.5021, -115.287
2.23229, -1, -9.66721, 7.23209, 21.7796, 13.1787, 87.3565, -115.656
2.24107, -1, -9.84937, 7.13933, 21.8161, 13.1809, 87.2591, -115.902
2.24824, -1, -10.0318, 7.04662, 21.8527, 13.183, 87.162, -116.148
2.25647, -1, -10.2145, 6.95386, 21.8893, 13.1854, 87.065, -116.394
2.26511, -1, -10.3972, 6.86109, 21.9259, 13.1876, 86.9677, -116.639
2.27074, -1, -10.4884, 6.81473, 21.9442, 13.1887, 86.9192, -116.762
2.28039, -1, -10.6707, 6.72203, 21.9807, 13.191, 86.8222, -117.13
2.28768, -1, -10.8524, 6.62948, 22.0172, 13.1933, 86.7254, -117.253
2.29474, -1, -11.0337, 6.53688, 22.0536, 13.1957, 86.6284, -117.498
2.30479, -1, -11.3042, 6.39814, 22.1085, 13.1992, 86.4836, -117.865
2.31169, -1, -11.3941, 6.35189, 22.1267, 13.2005, 86.4352, -117.988
2.31874, -1, -11.5737, 6.25946, 22.1631, 13.2029, 86.3384, -118.233
2.32768, -1, -11.7529, 6.16704, 22.1996, 13.2054, 86.2417, -118.478
2.33567, -1, -11.9321, 6.07474, 22.236, 13.2079, 86.1452, -118.722
2.34268, -1, -12.1114, 5.98246, 22.2724, 13.2104, 86.0485, -118.966
2.35169, -1, -12.2909, 5.89036, 22.3089, 13.2128, 85.9522, -119.21
2.35968, -1, -12.4708, 5.79836, 22.3452, 13.2153, 85.8559, -119.455
2.36776, -1, -12.6511, 5.7063, 22.3814, 13.2177, 85.7594, -119.699
2.37567, -1, -12.8318, 5.61432, 22.4178, 13.2203, 85.6633, -119.942
2.38369, -1, -13.0128, 5.52247, 22.4541, 13.2227, 85.5675, -120.186
2.39174, -1, -13.194, 5.43044, 22.4903, 13.2251, 85.4715, -120.43
2.40021, -1, -13.3753, 5.33841, 22.5266, 13.2275, 85.3755, -120.673
2.40668, -1, -13.5561, 5.24651, 22.5628, 13.2301, 85.2799, -120.917
2.41667, -1, -13.7365, 5.15465, 22.5989, 13.2326, 85.184, -121.16
2.42447, -1, -13.9165, 5.06278, 22.6351, 13.2352, 85.0881, -121.403
2.43171, -1, -14.0957, 4.97103, 22.6713, 13.2377, 84.9928, -121.646
2.43968, -1, -14.2741, 4.8793, 22.7074, 13.2403, 84.897, -121.889
2.44845, -1, -14.4522, 4.78764, 22.7435, 13.2429, 84.8015, -122.131
2.45467, -1, -14.6299, 4.69604, 22.7798, 13.2454, 84.706, -122.374
2.46371, -1, -14.8075, 4.60448, 22.8159, 13.2479, 84.6102, -122.616
2.47249, -1, -14.9851, 4.51301, 22.8519, 13.2504, 84.5144, -122.859
2.47874, -1, -15.163, 4.42167, 22.8881, 13.2529, 84.4189, -123.101
2.48769, -1, -15.3412, 4.33039, 22.9242, 13.2553, 84.3232, -123.342
2.49646, -1, -15.5199, 4.23904, 22.9602, 13.2577, 84.2275, -123.584
2.50367, -1, -15.699, 4.14775, 22.9962, 13.26, 84.1321, -123.826
2.51167, -1, -15.8781, 4.05654, 23.0322, 13.2622, 84.0366, -124.068
2.52047, -1, -16.0575, 3.96527, 23.0681, 13.2645, 83.941, -124.309
2.52768, -1, -16.2373, 3.87396, 23.1042, 13.2667, 83.8459, -124.551
2.53567, -1, -16.4169, 3.78274, 23.1401, 13.2688, 83.7503, -124.792
2.54504, -1, -16.5962, 3.69159, 23.1758, 13.271, 83.6548, -125.033
2.5517, -1, -16.7749, 3.60046, 23.2117, 13.2732, 83.5596, -125.275
2.55976, -1, -16.953, 3.5094, 23.2476, 13.2756, 83.464, -125.515
2.5677, -1, -17.1302, 3.41839, 23.2834, 13.2777, 83.3688, -125.756
2.57567, -1, -17.3068, 3.32746, 23.3193, 13.28, 83.2737, -125.997
2.58374, -1, -17.4832, 3.23663, 23.3551, 13.2821, 83.1785, -126.237
2.59175, -1, -17.6593, 3.14585, 23.3908, 13.2843, 83.0835, -126.478
2.59974, -1, -17.8353, 3.05523, 23.4268, 13.2865, 82.9889, -126.718
2.60791, -1, -18.0114, 2.96466, 23.4626, 13.2885, 82.894, -126.958
2.61596, -1, -18.1878, 2.87426, 23.4983, 13.2907, 82.7992, -127.198
2.62378, -1, -18.3645, 2.78383, 23.5341, 13.2928, 82.7046, -127.438
2.63187, -1, -18.5417, 2.6934, 23.5698, 13.2948, 82.6098, -127.678
2.64014, -1, -18.7193, 2.60301, 23.6054, 13.2969, 82.5152, -127.918
2.64778, -1, -18.8971, 2.51266, 23.6411, 13.2989, 82.4209, -128.157
2.65584, -1, -19.0754, 2.42212, 23.6768, 13.3009, 82.3263, -128.397
2.66518, -1, -19.2537, 2.33168, 23.7123, 13.3029, 82.2319, -128.636
2.67071, -1, -19.3427, 2.2865, 23.7301, 13.3039, 82.1848, -128.755
2.67977, -1, -19.6089, 2.15093, 23.7836, 13.3072, 82.0437, -129.114
2.68937, -1, -19.7858, 2.0606, 23.8189, 13.3093, 81.9496, -129.353
2.69598, -1, -19.9619, 1.97032, 23.8545, 13.3114, 81.8554, -129.592
2.70398, -1, -20.1373, 1.88009, 23.8901, 13.3136, 81.7614, -129.831
2.71066, -1, -20.2249, 1.835, 23.9078, 13.3147, 81.7143, -129.95
2.72003, -1, -20.4872, 1.6998, 23.961, 13.318, 81.5733, -130.307
2.72666, -1, -20.5745, 1.65479, 23.9788, 13.3192, 81.5265, -130.427
2.73696, -1, -20.8362, 1.51991, 24.032, 13.3223, 81.3856, -130.784
2.74439, -1, -21.011, 1.43009, 24.0674, 13.3246, 81.2919, -131.022
2.75223, -1, -21.1861, 1.3404, 24.103, 13.3267, 81.1983, -131.26
2.76182, -1, -21.3616, 1.25064, 24.1384, 13.3289, 81.1043, -131.497
2.76831, -1, -21.5376, 1.16095, 24.1737, 13.3311, 81.0104, -131.735
2.77617, -1, -21.6256, 1.11613, 24.1914, 13.3322, 80.9636, -131.973
2.78367, -1, -21.8017, 1.02648, 24.2269, 13.3344, 80.8697, -132.092
2.79289, -1, -22.0664, 0.892078, 24.28, 13.3376, 80.729, -132.447
2.7997, -1, -22.1547, 0.847295, 24.2977, 13.3387, 80.6823, -132.566
2.80775, -1, -22.3313, 0.757756, 24.3331, 13.3409, 80.5887, -132.803
2.81567, -1, -22.5073, 0.668263, 24.3682, 13.3431, 80.4951, -133.04
2.82366, -1, -22.6829, 0.578769, 24.4035, 13.3456, 80.4015, -133.277
2.83166, -1, -22.858, 0.489354, 24.4388, 13.3479, 80.3078, -133.514
2.83966, -1, -23.0319, 0.399942, 24.474, 13.3504, 80.2143, -133.751
2.84771, -1, -23.2056, 0.310568, 24.5091, 13.3528, 80.1208, -133.987
2.85566, -1, -23.3789, 0.221235, 24.5443, 13.3552, 80.0274, -134.224
2.86368, -1, -23.552, 0.132043, 24.5795, 13.3576, 79.934, -134.46
2.87173, -1, -23.7252, 0.0428859, 24.6146, 13.36, 79.8406, -134.696
2.87967, -1, -23.8986, -0.0461726, 24.6499, 13.3624, 79.7477, -134.932
2.88768, -1, -24.0721, -0.135086, 24.6849, 13.3649, 79.6544, -135.168
2.89572, -1, -24.2459, -0.224069, 24.72, 13.3674, 79.5614, -135.404
2.90368, -1, -24.42, -0.313008, 24.7551, 13.3698, 79.4685, -135.64
2.91166, -1, -24.5945, -0.401848, 24.7903, 13.3722, 79.3753, -135.875
2.91972, -1, -24.7692, -0.490749, 24.8252, 13.3746, 79.2822, -136.111
2.92766, -1, -24.9444, -0.579657, 24.8603, 13.377, 79.1893, -136.346
2.93569, -1, -25.1194, -0.668456, 24.8954, 13.3794, 79.0962, -136.581
2.94374, -1, -25.2941, -0.757223, 24.9303, 13.3817, 79.0033, -136.816
2.95166, -1, -25.4683, -0.846027, 24.9654, 13.3842, 78.9109, -137.051
2.95969, -1, -25.6423, -0.934778, 25.0004, 13.3867, 78.8179, -137.287
2.96773, -1, -25.8155, -1.0235, 25.0351, 13.3891, 78.7253, -137.521
2.97566, -1, -25.9881, -1.11224, 25.0701, 13.3916, 78.633, -137.756
2.98372, -1, -26.1604, -1.20094, 25.1051, 13.394, 78.5404, -137.99
2.99166, -1, -26.3323, -1.28951, 25.1399, 13.3964, 78.4478, -138.225
2.99968, -1, -26.5041, -1.378, 25.1748, 13.3987, 78.3553, -138.459
3.00772, -1, -26.676, -1.46635, 25.2097, 13.401, 78.2629, -138.694
3.01565, -1, -26.8481, -1.55462, 25.2446, 13.4033, 78.1705, -138.928
3.02367, -1, -27.0205, -1.64278, 25.2794, 13.4055, 78.0781, -139.161
3.03172, -1, -27.193, -1.73099, 25.3143, 13.4077, 77.986, -139.396
3.03968, -1, -27.3656, -1.81921, 25.3491, 13.4099, 77.8938, -139.629
3.04766, -1, -27.5388, -1.90724, 25.3838, 13.412, 77.8018, -139.863
3.05574, -1, -27.712, -1.99545, 25.4186, 13.4141, 77.7099, -140.096
3.06371, -1, -27.8853, -2.08356, 25.4534, 13.4163, 77.6178, -140.33
3.0717, -1, -28.0586, -2.17158, 25.4882, 13.4183, 77.5257, -140.563
3.07973, -1, -28.2318, -2.25963, 25.5229, 13.4203, 77.4339, -140.797
3.0877, -1, -28.4048, -2.34771, 25.5577, 13.4224, 77.3417, -141.03
3.09582, -1, -28.5774, -2.43572, 25.5923, 13.4245, 77.2495, -141.262
3.10372, -1, -28.7495, -2.52369, 25.6269, 13.4267, 77.1577, -141.495
3.11177, -1, -28.9208, -2.61171, 25.6617, 13.4288, 77.0656, -141.728
3.12009, -1, -29.0916, -2.69962, 25.6963, 13.4311, 76.9738, -141.961
3.12727, -1, -29.2622, -2.78747, 25.7308, 13.4331, 76.882, -142.193
3.13585, -1, -29.4328, -2.87522, 25.7656, 13.4352, 76.7901, -142.425
3.14448, -1, -29.6035, -2.96286, 25.8002, 13.4373, 76.6983, -142.658
3.15172, -1, -29.7745, -3.05039, 25.8347, 13.4393, 76.6065, -142.89
3.15985, -1, -29.9455, -3.13789, 25.8693, 13.4414, 76.5146, -143.123
3.16773, -1, -30.1164, -3.22537, 25.9039, 13.4435, 76.4229, -143.355
3.17576, -1, -30.2875, -3.31287, 25.9384, 13.4455, 76.3311, -143.586
3.18372, -1, -30.4589, -3.40026, 25.973, 13.4476, 76.2398, -143.818
3.19185, -1, -30.6305, -3.48777, 26.0075, 13.4496, 76.1482, -144.05
3.19998, -1, -30.8024, -3.57522, 26.0419, 13.4517, 76.0568, -144.282
3.20669, -1, -30.8884, -3.6189, 26.0592, 13.4527, 76.0113, -144.397
3.21604, -1, -31.146, -3.74998, 26.1111, 13.4557, 75.8741, -144.744
3.22266, -1, -31.2318, -3.79363, 26.1283, 13.4568, 75.8284, -144.86
3.2321, -1, -31.4886, -3.92463, 26.1799, 13.4599, 75.6916, -145.207
3.23865, -1, -31.574, -3.96826, 26.1972, 13.461, 75.6459, -145.323
3.24825, -1, -31.8296, -4.09917, 26.2487, 13.4642, 75.5089, -145.669
3.2562, -1, -31.9994, -4.18641, 26.2832, 13.4664, 75.418, -145.9
3.26427, -1, -32.1689, -4.27354, 26.3176, 13.4686, 75.3268, -146.131
3.2725, -1, -32.2535, -4.36065, 26.3519, 13.4708, 75.2357, -146.362
3.28015, -1, -32.4229, -4.40416, 26.3691, 13.4719, 75.1902, -146.477
3.28824, -1, -32.5926, -4.49113, 26.4034, 13.474, 75.0996, -146.707
3.29568, -1, -32.7622, -4.57804, 26.4379, 13.4761, 75.0085, -146.938
3.30368, -1, -32.9319, -4.66496, 26.4722, 13.4783, 74.9178, -147.168
3.31169, -1, -33.1017, -4.7519, 26.5063, 13.4804, 74.8273, -147.398
3.31966, -1, -33.2715, -4.83874, 26.5407, 13.4827, 74.7365, -147.628
3.32765, -1, -33.4416, -4.9256, 26.575, 13.4849, 74.6459, -147.858
3.33573, -1, -33.6119, -5.01257, 26.6092, 13.4871, 74.5554, -148.088
3.34366, -1, -33.7822, -5.09938, 26.6435, 13.4893, 74.4648, -148.318
3.35171, -1, -33.9525, -5.18613, 26.6777, 13.4915, 74.3743, -148.548
3.35965, -1, -34.1226, -5.27286, 26.7118, 13.4938, 74.2838, -148.777
3.36767, -1, -34.2928, -5.35958, 26.746, 13.4961, 74.1933, -149.006
3.37573, -1, -34.4628, -5.44622, 26.7803, 13.4984, 74.1026, -149.236
3.38364, -1, -34.6323, -5.5329, 26.8144, 13.5008, 74.012, -149.465
3.39168, -1, -34.8011, -5.61953, 26.8485, 13.5031, 73.9216, -149.694
3.39971, -1, -34.9697, -5.70611, 26.8827, 13.5056, 73.831, -149.923
3.40764, -1, -35.1381, -5.79263, 26.9168, 13.5081, 73.7405, -150.152
3.41666, -1, -35.3063, -5.87909, 26.9508, 13.5105, 73.6504, -150.381
3.42366, -1, -35.4747, -5.96536, 26.985, 13.5129, 73.5599, -150.61
3.43165, -1, -35.6433, -6.05159, 27.019, 13.5152, 73.4696, -150.839
3.44046, -1, -35.8119, -6.13783, 27.053, 13.5176, 73.3795, -151.067
3.44763, -1, -35.9804, -6.22396, 27.0871, 13.52, 73.2889, -151.296
3.45565, -1, -36.1488, -6.31009, 27.1211, 13.5225, 73.1986, -151.525
3.46444, -1, -36.3175, -6.39627, 27.155, 13.5249, 73.1082, -151.753
3.47064, -1, -36.4863, -6.4825, 27.189, 13.5273, 73.0178, -151.982
3.47964, -1, -36.6552, -6.56869, 27.2229, 13.5296, 72.9276, -152.21
3.49074, -1, -36.9086, -6.69796, 27.2738, 13.533, 72.7924, -152.552
3.49568, -1, -36.9931, -6.74105, 27.2907, 13.5341, 72.7474, -152.666
3.50363, -1, -37.162, -6.82722, 27.3247, 13.5364, 72.6572, -152.894
3.51168, -1, -37.3306, -6.91331, 27.3585, 13.5386, 72.5673, -153.122
3.51969, -1, -37.4989, -6.99933, 27.3924, 13.5409, 72.4776, -153.349
3.52775, -1, -37.6668, -7.08538, 27.4265, 13.5432, 72.3876, -153.577
3.53568, -1, -37.8345, -7.17141, 27.4603, 13.5455, 72.2977, -153.804
3.5437, -1, -38.002, -7.25735, 27.4942, 13.5477, 72.2082, -154.032
3.55163, -1, -38.1694, -7.34322, 27.5281, 13.5499, 72.1183, -154.259
3.5597, -1, -38.3368, -7.42902, 27.562, 13.5521, 72.0286, -154.486
3.5677, -1, -38.5041, -7.51471, 27.5958, 13.5542, 71.9391, -154.713
3.57564, -1, -38.6713, -7.60044, 27.6298, 13.5563, 71.8494, -154.941
3.58367, -1, -38.8386, -7.68617, 27.6637, 13.5583, 71.7598, -155.168
3.5917, -1, -39.006, -7.77185, 27.6974, 13.5605, 71.6705, -155.395
3.59965, -1, -39.1734, -7.85742, 27.7312, 13.5625, 71.5813, -155.621
3.60778, -1, -39.341, -7.94315, 27.7651, 13.5645, 71.4918, -155.848
3.61573, -1, -39.5085, -8.02878, 27.7988, 13.5665, 71.4023, -156.075
3.62374, -1, -39.6762, -8.11435, 27.8325, 13.5684, 71.3133, -156.302
3.6318, -1, -39.8438, -8.19982, 27.8662, 13.5704, 71.2237, -156.528
3.63977, -1, -40.0114, -8.28529, 27.9, 13.5724, 71.1343, -156.755
3.64776, -1, -40.1789, -8.37069, 27.9336, 13.5743, 71.0452, -156.981
3.65582, -1, -40.3463, -8.45605, 27.9673, 13.5763, 70.9558, -157.207
3.66366, -1, -40.5134, -8.54146, 28.0011, 13.5782, 70.8665, -157.433
3.67167, -1, -40.6804, -8.62682, 28.0346, 13.5802, 70.7775, -157.659
3.67974, -1, -40.8471, -8.71217, 28.0682, 13.5822, 70.6884, -157.885
3.68776, -1, -41.0135, -8.79751, 28.102, 13.5842, 70.5991, -158.111
3.69585, -1, -41.1799, -8.8828, 28.1356, 13.5863, 70.51, -158.337
3.70387, -1, -41.3461, -8.96799, 28.1691, 13.5883, 70.421, -158.563
3.71207, -1, -41.5123, -9.05314, 28.2028, 13.5902, 70.3317, -158.788
3.72007, -1, -41.6786, -9.13829, 28.2364, 13.5922, 70.2425, -159.014
3.72664, -1, -41.7618, -9.18085, 28.2532, 13.5932, 70.1981, -159.126
3.73608, -1, -42.0114, -9.30838, 28.3036, 13.5963, 70.0645, -159.465
3.74271, -1, -42.0946, -9.35091, 28.3205, 13.5973, 70.02, -159.578
3.75218, -1, -42.344, -9.47854, 28.3708, 13.6004, 69.8867, -159.915
3.76034, -1, -42.5103, -9.56348, 28.4044, 13.6024, 69.7976, -160.141
3.76829, -1, -42.6767, -9.64845, 28.438, 13.6044, 69.7088, -160.366
3.77622, -1, -42.7599, -9.69094, 28.4714, 13.6064, 69.6199, -160.591
3.78362, -1, -42.9263, -9.77591, 28.4881, 13.6075, 69.5757, -160.703
3.79226, -1, -43.0927, -9.86085, 28.5216, 13.6095, 69.4867, -160.928
3.79963, -1, -43.2588, -9.94579, 28.5551, 13.6116, 69.3981, -161.153
3.80768, -1, -43.4249, -10.0307, 28.5886, 13.6136, 69.3095, -161.378
3.81568, -1, -43.5909, -10.1156, 28.622, 13.6157, 69.2209, -161.603
3.82363, -1, -43.7568, -10.2006, 28.6555, 13.6178, 69.1323, -161.827
3.83161, -1, -43.9227, -10.2854, 28.6889, 13.62, 69.0438, -162.052
3.83968, -1, -44.0882, -10.3702, 28.7223, 13.6222, 68.9554, -162.276
3.84764, -1, -44.2535, -10.4548, 28.7558, 13.6243, 68.8667, -162.5
3.85562, -1, -44.4187, -10.5394, 28.7892, 13.6266, 68.778, -162.725
3.86369, -1, -44.5839, -10.6239, 28.8225, 13.6287, 68.6896, -162.949
3.87169, -1, -44.7491, -10.7085, 28.856, 13.6309, 68.6008, -163.173
3.87965, -1, -44.9145, -10.7929, 28.8895, 13.6331, 68.5123, -163.397
3.88663, -1, -45.0798, -10.8773, 28.9228, 13.6353, 68.4241, -163.621
3.89565, -1, -45.2451, -10.9619, 28.9562, 13.6375, 68.3355, -163.845
3.90361, -1, -45.4104, -11.0464, 28.9897, 13.6397, 68.2471, -164.069
3.91331, -1, -45.5756, -11.1308, 29.0228, 13.642, 68.115, -164.405
3.91962, -1, -45.7409, -11.2153, 29.0561, 13.6443, 68.0706, -164.517
3.92863, -1, -45.9058, -11.2996, 29.0895, 13.6466, 67.9822, -164.74
3.93569, -1, -46.0688, -11.3829, 29.123, 13.6489, 67.8938, -164.964
3.94365, -1, -46.2283, -11.4639, 29.1565, 13.6512, 67.8062, -165.186
3.95162, -1, -46.3821, -11.5412, 29.1901, 13.6536, 67.7196, -165.405
3.9597, -1, -46.5281, -11.6137, 29.2231, 13.6559, 67.636, -165.616
3.96765, -1, -46.6638, -11.6805, 29.2543, 13.6582, 67.5579, -165.815
3.97566, -1, -46.7864, -11.7401, 29.2825, 13.6603, 67.4866, -165.994
3.9837, -1, -46.8932, -11.7926, 29.3068, 13.6622, 67.4251, -166.15
3.99162, -1, -46.9837, -11.8385, 29.3262, 13.6637, 67.3749, -166.278
3.99962, -1, -47.0583, -11.8784, 29.3399, 13.6647, 67.3359, -166.376
4.00771, -1, -47.1179, -11.9116, 29.349, 13.6653, 67.3077, -166.447
4.01561, -1, -47.1631, -11.9372, 29.3544, 13.6656, 67.2889, -166.494
4.02362, -1, -47.196, -11.9558, 29.357, 13.6658, 67.2773, -166.523
4.03169, -1, -47.2185, -11.9683, 29.3582, 13.6658, 67.2708, -166.54
4.03973, -1, -47.2326, -11.976, 29.3588, 13.6659, 67.2674, -166.548
4.04766, -1, -47.2405, -11.9802, 29.3591, 13.6659, 67.2658, -166.552
4.05569, 2, -47.2442, -11.9822, 29.3592, 13.666, 67.2651, -166.554
4.06364, 2, -47.2449, -11.983, 29.3593, 13.666, 67.2647, -166.555
4.07163, 2, -47.2448, -11.9833, 29.3594, 13.666, 67.2645, -166.555
4.07972, 2, -47.2446, -11.9834, 29.3594, 13.6661, 67.2645, -166.555
4.08763, 2, -47.2448, -11.9835, 29.3594, 13.6661, 67.2645, -166.555
4.09562, 2, -47.2454, -11.9837, 29.3594, 13.6661, 67.2644, -166.555
4.10376, 2, -47.2465, -11.9841, 29.3595, 13.6661, 67.2644, -166.555
4.1117, 2, -47.2481, -11.9848, 29.3594, 13.6661, 67.2644, -166.555
4.11972, 2, -47.2498, -11.9856, 29.3595, 13.6661, 67.2645, -166.555
4.12779, 2, -47.2512, -11.9865, 29.3595, 13.6661, 67.2645, -166.555
4.13573, 2, -47.2524, -11.9872, 29.3595, 13.6661, 67.2645, -166.555
4.14376, 2, -47.253, -11.9877, 29.3595, 13.6661, 67.2645, -166.555
4.1518, 2, -47.2533, -11.988, 29.3595, 13.6661, 67.2645, -166.555
4.15962, 2, -47.2535, -11.9881, 29.3595, 13.6661, 67.2645, -166.555
4.16766, 2, -47.2534, -11.9881, 29.3595, 13.6661, 67.2644, -166.555
4.17573, 2, -47.2529, -11.9881, 29.3595, 13.6661, 67.2645, -166.555
4.18366, 2, -47.2525, -11.9881, 29.3595, 13.6661, 67.2645, -166.555
4.19174, 2, -47.2521, -11.9881, 29.3595, 13.6661, 67.2645, -166.555
4.19984, 2, -47.2518, -11.9881, 29.3595, 13.6661, 67.2644, -166.555
4.20817, 2, -47.2517, -11.9881, 29.3595, 13.666, 67.2644, -166.555
4.21599, 2, -47.2518, -11.9882, 29.3595, 13.6661, 67.2645, -166.555
4.22268, 2, -47.2519, -11.9884, 29.3595, 13.6661, 67.2645, -166.555
4.23247, 2, -47.2523, -11.9888, 29.3595, 13.6661, 67.2645, -166.555
4.24012, 2, -47.253, -11.9891, 29.3595, 13.6661, 67.2645, -166.555
4.24662, 2, -47.2532, -11.9893, 29.3595, 13.6661, 67.2645, -166.555
4.2566, 2, -47.2536, -11.9895, 29.3595, 13.6661, 67.2645, -166.555
4.2642, 2, -47.2537, -11.9896, 29.3595, 13.6661, 67.2645, -166.555
4.27221, 2, -47.2536, -11.9896, 29.3595, 13.6661, 67.2645, -166.555
4.28051, 2, -47.2536, -11.9895, 29.3595, 13.6661, 67.2645, -166.555
4.28761, 2, -47.2534, -11.9895, 29.3595, 13.6661, 67.2645, -166.555
4.29622, 2, -47.253, -11.9894, 29.3595, 13.6661, 67.2645, -166.555
4.30451, 2, -47.2527, -11.9894, 29.3595, 13.6661, 67.2644, -166.555
4.31165, 2, -47.2524, -11.9894, 29.3595, 13.6661, 67.2645, -166.555
4.31966, 2, -47.2523, -11.9894, 29.3595, 13.6661, 67.2645, -166.555
4.32761, 2, -47.2522, -11.9894, 29.3595, 13.666, 67.2645, -166.555
4.3356, 2, -47.2521, -11.9895, 29.3595, 13.666, 67.2645, -166.555
4.34367, 2, -47.2521, -11.9895, 29.3595, 13.666, 67.2645, -166.555
4.3516, 2, -47.2521, -11.9896, 29.3595, 13.666, 67.2645, -166.555
4.35961, 2, -47.2521, -11.9896, 29.3595, 13.666, 67.2645, -166.555
4.36768, 2, -47.2521, -11.9896, 29.3595, 13.666, 67.2645, -166.555
4.37556, 2, -47.2521, -11.9896, 29.3595, 13.666, 67.2645, -166.555
4.38362, 2, -47.2521, -11.9896, 29.3595, 13.666, 67.2645, -166.555
4.39168, 2, -47.2521, -11.9895, 29.3595, 13.666, 67.2645, -166.555
4.39962, 2, -47.252, -11.9894, 29.3595, 13.666, 67.2645, -166.555
4.40761, 2, -47.2519, -11.9894, 29.3595, 13.666, 67.2645, -166.555
4.41665, 2, -47.2518, -11.9894, 29.3595, 13.666, 67.2645, -166.555
4.4236, 2, -47.2517, -11.9894, 29.3595, 13.666, 67.2645, -166.555
4.4316, 2, -47.2516, -11.9894, 29.3595, 13.666, 67.2645, -166.555
4.43968, 2, -47.2515, -11.9894, 29.3595, 13.666, 67.2645, -166.555
4.44765, 2, -47.2514, -11.9894, 29.3595, 13.666, 67.2645, -166.555
4.4556, 2, -47.2514, -11.9894, 29.3595, 13.666, 67.2645, -166.555
4.46368, 2, -47.2513, -11.9894, 29.3595, 13.666, 67.2645, -166.555
4.4716, 2, -47.2513, -11.9894, 29.3595, 13.6659, 67.2646, -166.555
4.47963, 2, -47.2512, -11.9894, 29.3595, 13.6659, 67.2646, -166.555
4.48769, 2, -47.2511, -11.9894, 29.3595, 13.6659, 67.2646, -166.555
4.49559, 2, -47.251, -11.9893, 29.3595, 13.666, 67.2646, -166.555
4.5036, 2, -47.2509, -11.9893, 29.3595, 13.666, 67.2646, -166.555
4.51168, 2, -47.2508, -11.9892, 29.3595, 13.6659, 67.2646, -166.555
4.5196, 2, -47.2508, -11.9892, 29.3595, 13.666, 67.2646, -166.555
4.52761, 2, -47.2506, -11.9891, 29.3595, 13.6659, 67.2646, -166.555
4.53568, 2, -47.2505, -11.9892, 29.3595, 13.6659, 67.2646, -166.555
4.5436, 2, -47.2504, -11.9891, 29.3595, 13.6659, 67.2646, -166.555
4.55162, 2, -47.2503, -11.9891, 29.3595, 13.6659, 67.2646, -166.555
4.55976, 2, -47.2502, -11.9892, 29.3595, 13.6659, 67.2646, -166.555
4.56764, 2, -47.2501, -11.9891, 29.3595, 13.6659, 67.2646, -166.555
4.5756, 2, -47.25, -11.9891, 29.3595, 13.6659, 67.2646, -166.555
4.58368, 2, -47.2498, -11.9891, 29.3595, 13.6659, 67.2646, -166.555
4.5916, 2, -47.2497, -11.9891, 29.3595, 13.6659, 67.2647, -166.555
4.5996, 2, -47.2497, -11.989, 29.3595, 13.6659, 67.2647, -166.555
4.60772, 2, -47.2496, -11.989, 29.3595, 13.6659, 67.2647, -166.555
4.61571, 2, -47.2495, -11.9889, 29.3595, 13.6659, 67.2647, -166.555
4.62373, 2, -47.2493, -11.9889, 29.3595, 13.6659, 67.2647, -166.555
4.63176, 2, -47.2492, -11.9889, 29.3595, 13.6659, 67.2647, -166.555
4.63971, 2, -47.2491, -11.9888, 29.3595, 13.6658, 67.2647, -166.555
4.64776, 2, -47.2491, -11.9888, 29.3595, 13.6659, 67.2647, -166.555
4.65578, 2, -47.2491, -11.9888, 29.3595, 13.6659, 67.2647, -166.555
4.66361, 2, -47.2491, -11.9888, 29.3595, 13.6658, 67.2647, -166.555
4.67162, 2, -47.249, -11.9888, 29.3595, 13.6658, 67.2647, -166.555
4.67996, 2, -47.2489, -11.9888, 29.3595, 13.6658, 67.2647, -166.555
4.68775, 2, -47.2489, -11.9888, 29.3595, 13.6658, 67.2647, -166.555
4.69576, 2, -47.2488, -11.9888, 29.3595, 13.6658, 67.2647, -166.555
4.70382, 2, -47.2488, -11.9887, 29.3595, 13.6658, 67.2647, -166.555
4.71182, 2, -47.2487, -11.9886, 29.3595, 13.6658, 67.2647, -166.555
4.72, 2, -47.2486, -11.9886, 29.3595, 13.6658, 67.2647, -166.555
4.72661, 2, -47.2485, -11.9886, 29.3595, 13.6658, 67.2648, -166.555
4.73603, 2, -47.2484, -11.9885, 29.3595, 13.6658, 67.2647, -166.555
4.74415, 2, -47.2484, -11.9885, 29.3595, 13.6658, 67.2647, -166.555
4.7522, 2, -47.2483, -11.9885, 29.3595, 13.6658, 67.2648, -166.555
4.76014, 2, -47.2483, -11.9885, 29.3595, 13.6658, 67.2648, -166.555
4.76823, 2, -47.2483, -11.9885, 29.3595, 13.6658, 67.2647, -166.555
4.77636, 2, -47.2483, -11.9885, 29.3595, 13.6658, 67.2647, -166.555
4.78419, 2, -47.2482, -11.9885, 29.3595, 13.6658, 67.2648, -166.555
4.79159, 2, -47.2482, -11.9885, 29.3595, 13.6657, 67.2648, -166.555
4.79964, 2, -47.2482, -11.9885, 29.3595, 13.6657, 67.2648, -166.555
4.8076, 2, -47.2481, -11.9884, 29.3595, 13.6657, 67.2648, -166.555
4.81563, 2, -47.2481, -11.9883, 29.3595, 13.6657, 67.2648, -166.555
4.82367, 2, -47.248, -11.9883, 29.3595, 13.6657, 67.2648, -166.555
4.83158, 2, -47.2479, -11.9882, 29.3595, 13.6657, 67.2648, -166.554
4.83959, 2, -47.2479, -11.9882, 29.3595, 13.6656, 67.2648, -166.554
4.84766, 2, -47.2478, -11.9882, 29.3595, 13.6656, 67.2648, -166.554
4.85559, 2, -47.2477, -11.9882, 29.3595, 13.6656, 67.2648, -166.554
4.86359, 2, -47.2477, -11.9882, 29.3595, 13.6656, 67.2648, -166.554
4.87164, 2, -47.2477, -11.9882, 29.3595, 13.6656, 67.2648, -166.554
4.87959, 2, -47.2477, -11.9882, 29.3595, 13.6656, 67.2649, -166.554
4.8877, 2, -47.2476, -11.9882, 29.3595, 13.6656, 67.2649, -166.554
4.89566, 2, -47.2476, -11.9881, 29.3595, 13.6656, 67.2649, -166.554
4.90361, 2, -47.2476, -11.9881, 29.3595, 13.6656, 67.2649, -166.554
4.91159, 2, -47.2476, -11.9881, 29.3595, 13.6656, 67.2649, -166.554
4.92063, 2, -47.2475, -11.988, 29.3595, 13.6656, 67.2649, -166.554
4.9276, 2, -47.2474, -11.9879, 29.3595, 13.6656, 67.265, -166.554
4.93559, 2, -47.2474, -11.9879, 29.3595, 13.6656, 67.265, -166.554
4.94366, 2, -47.2473, -11.9879, 29.3595, 13.6656, 67.265, -166.554
4.95161, 2, -47.2472, -11.9878, 29.3595, 13.6655, 67.265, -166.554
4.9596, 2, -47.2471, -11.9878, 29.3595, 13.6655, 67.265, -166.554
4.96768, 2, -47.2471, -11.9878, 29.3595, 13.6655, 67.265, -166.554
4.97558, 2, -47.2471, -11.9878, 29.3595, 13.6655, 67.265, -166.554
4.98362, 2, -47.2471, -11.9878, 29.3595, 13.6655, 67.265, -166.554
4.99166, 2, -47.247, -11.9878, 29.3595, 13.6654, 67.265, -166.554
4.99958, 2, -47.247, -11.9878, 29.3595, 13.6654, 67.265, -166.554
5.0076, 2, -47.247, -11.9877, 29.3595, 13.6654, 67.265, -166.554
5.01566, 2, -47.2469, -11.9877, 29.3595, 13.6654, 67.265, -166.554
5.02359, 2, -47.2469, -11.9876, 29.3595, 13.6654, 67.265, -166.554
5.03158, 2, -47.2469, -11.9876, 29.3595, 13.6654, 67.265, -166.554
5.03966, 2, -47.2468, -11.9875, 29.3595, 13.6654, 67.265, -166.554
5.04759, 2, -47.2467, -11.9875, 29.3595, 13.6654, 67.265, -166.554
5.05686, 2, -47.2466, -11.9875, 29.3595, 13.6654, 67.2651, -166.554
5.06366, 2, -47.2465, -11.9875, 29.3595, 13.6654, 67.2651, -166.554
5.0716, 2, -47.2465, -11.9875, 29.3595, 13.6653, 67.2651, -166.554
5.07961, 2, -47.2464, -11.9875, 29.3595, 13.6653, 67.2651, -166.554
5.08777, 2, -47.2464, -11.9875, 29.3595, 13.6653, 67.2652, -166.554
5.09559, 2, -47.2464, -11.9875, 29.3595, 13.6653, 67.2651, -166.554
5.10359, 2, -47.2464, -11.9874, 29.3595, 13.6652, 67.2651, -166.554
5.11179, 2, -47.2464, -11.9874, 29.3595, 13.6652, 67.2651, -166.554
5.11971, 2, -47.2464, -11.9874, 29.3595, 13.6652, 67.2652, -166.554
5.1277, 2, -47.2463, -11.9873, 29.3595, 13.6652, 67.2652, -166.554
5.13572, 4, -47.2462, -11.9872, 29.3595, 13.6652, 67.2653, -166.554
5.1437, 4, -47.2462, -11.9872, 29.3595, 13.6652, 67.2652, -166.554
5.15175, 4, -47.2461, -11.9872, 29.3595, 13.6652, 67.2652, -166.554
5.15976, 4, -47.246, -11.9872, 29.3595, 13.6652, 67.2652, -166.554
5.16761, 4, -47.246, -11.9872, 29.3595, 13.6652, 67.2652, -166.554
5.17561, 4, -47.2459, -11.9872, 29.3595, 13.6651, 67.2652, -166.554
5.18369, 4, -47.2459, -11.9872, 29.3595, 13.6651, 67.2653, -166.554
5.19162, 4, -47.2459, -11.9871, 29.3595, 13.6651, 67.2653, -166.554
5.19974, 4, -47.2459, -11.9871, 29.3595, 13.6651, 67.2653, -166.554
5.20786, 4, -47.2458, -11.9871, 29.3595, 13.6651, 67.2653, -166.554
5.21593, 4, -47.2458, -11.9871, 29.3595, 13.6651, 67.2652, -166.554
5.22425, 4, -47.2458, -11.987, 29.3595, 13.6651, 67.2653, -166.554
5.23203, 4, -47.2457, -11.987, 29.3595, 13.6651, 67.2653, -166.553
5.23873, 4, -47.2457, -11.987, 29.3595, 13.6651, 67.2653, -166.554
5.25201, 4, -47.2457, -11.9869, 29.3595, 13.6651, 67.2653, -166.553
5.25658, 4, -47.2456, -11.9869, 29.3595, 13.6651, 67.2653, -166.553
5.26695, 4, -47.2455, -11.9869, 29.3595, 13.6651, 67.2653, -166.553
5.27279, 4, -47.2454, -11.9869, 29.3595, 13.6651, 67.2653, -166.553
5.28047, 4, -47.2454, -11.9868, 29.3595, 13.665, 67.2653, -166.553
5.28852, 4, -47.2453, -11.9868, 29.3595, 13.665, 67.2653, -166.553
5.29745, 4, -47.2453, -11.9868, 29.3595, 13.665, 67.2653, -166.553
5.30438, 4, -47.2453, -11.9868, 29.3595, 13.665, 67.2653, -166.553
5.31244, 4, -47.2453, -11.9868, 29.3595, 13.665, 67.2653, -166.553
5.3207, 4, -47.2453, -11.9867, 29.3595, 13.665, 67.2654, -166.553
5.32985, 4, -47.2452, -11.9867, 29.3595, 13.665, 67.2654, -166.553
5.33953, 4, -47.2452, -11.9867, 29.3595, 13.665, 67.2653, -166.553
5.34374, 4, -47.2452, -11.9866, 29.3595, 13.665, 67.2654, -166.553
5.3541, 4, -47.2451, -11.9866, 29.3595, 13.665, 67.2653, -166.553
5.36281, 4, -47.245, -11.9866, 29.3595, 13.6649, 67.2653, -166.553
5.3711, 4, -47.245, -11.9866, 29.3595, 13.6649, 67.2653, -166.553
5.37771, 4, -47.245, -11.9866, 29.3595, 13.6649, 67.2653, -166.553
5.38409, 4, -47.2449, -11.9866, 29.3595, 13.6649, 67.2654, -166.553
5.39177, 4, -47.2449, -11.9866, 29.3595, 13.6648, 67.2654, -166.553
5.40142, 4, -47.2449, -11.9866, 29.3595, 13.6648, 67.2653, -166.553
5.41061, 4, -47.2459, -11.9871, 29.3599, 13.665, 67.2654, -166.553
5.4158, 4, -47.2469, -11.9877, 29.3605, 13.6654, 67.2656, -166.553
5.42376, 4, -47.25, -11.9906, 29.3639, 13.6701, 67.2668, -166.553
5.43179, 5, -47.2556, -11.9971, 29.3724, 13.6866, 67.2709, -166.55
5.43978, 5, -47.2646, -12.0088, 29.3903, 13.722, 67.2804, -166.543
5.448, 5, -47.2791, -12.0282, 29.4231, 13.7884, 67.2989, -166.529
5.45898, 5, -47.3158, -12.0771, 29.5138, 13.9778, 67.3523, -166.486
5.46374, 5, -47.333, -12.0995, 29.5584, 14.0721, 67.3784, -166.464
5.47173, 5, -47.3762, -12.155, 29.6728, 14.3169, 67.4458, -166.407
5.48404, 5, -47.465, -12.2659, 29.9132, 14.8387, 67.5878, -166.288
5.49059, 5, -47.5009, -12.3589, 30.1216, 15.2908, 67.7093, -166.184
5.49973, 5, -47.6267, -12.4664, 30.3668, 15.8184, 67.8492, -166.064
5.5038, 5, -47.6743, -12.5253, 30.5017, 16.1064, 67.9251, -165.999
5.51268, 5, -47.7767, -12.652, 30.7939, 16.7215, 68.0857, -165.86
5.51974, 5, -47.8871, -12.7892, 31.1102, 17.3771, 68.2535, -165.715
5.52874, 5, -48.0032, -12.9345, 31.4446, 18.0574, 68.4249, -165.566
5.53907, 5, -48.1836, -13.1613, 31.9654, 19.0969, 68.6806, -165.344
5.54374, 5, -48.2441, -13.2375, 32.1417, 19.4434, 68.7644, -165.27
5.55272, 5, -48.3638, -13.3882, 32.4948, 20.1283, 68.9289, -165.123
5.5598, 5, -48.4787, -13.5344, 32.8455, 20.7948, 69.0896, -164.972
5.56785, 6, -48.584, -13.6732, 33.1869, 21.4318, 69.2483, -164.806
5.57575, 6, -48.6752, -13.802, 33.5144, 22.0287, 69.4073, -164.613
5.58693, 7, -48.7766, -13.9778, 33.971, 22.8371, 69.6523, -164.24
5.59172, 7, -48.7997, -14.0324, 34.1134, 23.0819, 69.7369, -164.087
5.60036, 7, -48.8292, -14.1355, 34.3834, 23.5373, 69.9117, -163.731
5.60775, 8, -48.8378, -14.2292, 34.6351, 23.9538, 70.0961, -163.305
5.61661, 8, -48.8277, -14.3134, 34.873, 24.3405, 70.2905, -162.812
5.62597, 9, -48.8021, -14.3897, 35.0999, 24.7075, 70.4954, -162.262
5.63221, 9, -48.7638, -14.4605, 35.3194, 25.0642, 70.7099, -161.667
5.63984, 10, -48.7153, -14.5277, 35.5358, 25.4174, 70.9333, -161.043
5.65182, 10, -48.6249, -14.6243, 35.8578, 25.9488, 71.2804, -160.08
5.65849, 11, -48.5907, -14.6557, 35.9648, 26.1273, 71.3982, -159.756
5.66453, 11, -48.5178, -14.7179, 36.1788, 26.4872, 71.635, -159.111
5.67304, 12, -48.4403, -14.7803, 36.3916, 26.8523, 71.8729, -158.469
5.68067, 12, -48.3607, -14.8428, 36.602, 27.2236, 72.1116, -157.827
5.69064, 13, -48.2806, -14.9039, 36.8109, 27.6019, 72.3517, -157.182
5.69693, 13, -48.2004, -14.9626, 37.018, 27.9875, 72.5934, -156.536
5.70663, 14, -48.1186, -15.0205, 37.2229, 28.3803, 72.8375, -155.885
5.7136, 14, -48.0338, -15.0796, 37.4268, 28.7791, 73.084, -155.23
5.7217, 15, -47.9457, -15.1396, 37.6301, 29.1821, 73.332, -154.576
5.72893, 15, -47.8539, -15.1992, 37.8314, 29.587, 73.5799, -153.923
5.73635, 16, -47.7569, -15.2578, 38.0308, 29.9918, 73.826, -153.273
5.74521, 16, -47.6529, -15.317, 38.2287, 30.3947, 74.0691, -152.628
5.75248, 17, -47.5419, -15.378, 38.4235, 30.7941, 74.3075, -151.989
5.76552, 17, -47.4256, -15.4722, 38.7091, 31.3848, 74.654, -151.04
5.76849, 18, -47.3045, -15.5039, 38.8031, 31.5792, 74.7663, -150.727
5.77945, 18, -47.1786, -15.568, 38.9889, 31.9652, 74.9863, -150.108
5.7844, 19, -47.0471, -15.6343, 39.1717, 32.3479, 75.2005, -149.496
5.79446, 19, -46.9099, -15.704, 39.3528, 32.7292, 75.4099, -148.89
5.80044, 20, -46.7672, -15.7762, 39.533, 33.1094, 75.6148, -148.291
5.80907, 20, -46.694, -15.8129, 39.6225, 33.2991, 75.7158, -147.995
5.8167, 20, -46.4674, -15.9254, 39.8871, 33.8673, 76.0123, -147.115
5.82884, 21, -46.2315, -16.0422, 40.1474, 34.4334, 76.2994, -146.249
5.83173, 22, -46.2315, -16.0422, 40.1474, 34.4334, 76.2994, -146.249
5.84201, 22, -45.9863, -16.1627, 40.4027, 34.996, 76.5768, -145.397
5.84942, 23, -45.9024, -16.2035, 40.4861, 35.1823, 76.7564, -144.837
5.85573, 23, -45.7301, -16.2863, 40.6509, 35.5526, 76.8443, -144.558
5.86681, 24, -45.4584, -16.4147, 40.8927, 36.1007, 77.1008, -143.731
5.8717, 24, -45.3639, -16.4588, 40.9711, 36.2806, 77.1835, -143.458
5.87978, 25, -45.1694, -16.5482, 41.1247, 36.6351, 77.3443, -142.915
5.88773, 25, -44.9681, -16.6385, 41.2742, 36.981, 77.4983, -142.378
5.89575, 26, -44.7603, -16.7292, 41.4194, 37.3181, 77.6455, -141.845
5.90378, 26, -44.5455, -16.821, 41.5598, 37.6463, 77.7863, -141.316
5.91334, 27, -44.3235, -16.9136, 41.695, 37.9662, 77.9222, -140.791
5.91972, 27, -44.0947, -17.0065, 41.8246, 38.278, 78.0534, -140.267
5.92773, 28, -43.8596, -17.0991, 41.9482, 38.5824, 78.1815, -139.744
5.93894, 28, -43.4936, -17.236, 42.1213, 39.0252, 78.3682, -138.961
5.94376, 29, -43.3679, -17.2809, 42.1755, 39.169, 78.4294, -138.7
5.95484, 29, -42.9808, -17.4129, 42.3277, 39.5894, 78.6093, -137.916
5.95972, 30, -42.8485, -17.4557, 42.3747, 39.7256, 78.6679, -137.655
5.96787, 30, -42.5784, -17.5394, 42.4633, 39.9917, 78.7835, -137.133
5.97569, 31, -42.3003, -17.6203, 42.5446, 40.2496, 78.8962, -136.612
5.98481, 31, -42.0142, -17.6986, 42.6189, 40.499, 79.0061, -136.091
5.99173, 32, -41.7206, -17.7747, 42.6864, 40.7398, 79.1137, -135.57
5.99972, 32, -41.4202, -17.8482, 42.7471, 40.9719, 79.2181, -135.05
6.01099, 33, -40.9576, -17.9531, 42.8253, 41.3047, 79.37, -134.273
6.0157, 33, -40.7999, -17.9866, 42.8478, 41.4116, 79.4193, -134.015
6.02467, 34, -40.4796, -18.0514, 42.8875, 41.6188, 79.5156, -133.498
6.03171, 34, -40.1541, -18.1138, 42.9199, 41.8181, 79.6093, -132.983
6.03973, 35, -39.8238, -18.1735, 42.9451, 42.0094, 79.7009, -132.468
6.05174, 35, -39.3175, -18.257, 42.9696, 42.2824, 79.8329, -131.699
6.05884, 36, -38.9715, -18.3084, 42.9772, 42.4546, 79.9183, -131.188
6.06375, 36, -38.7956, -18.3329, 42.9784, 42.5379, 79.9601, -130.933
6.07369, 37, -38.4391, -18.3793, 42.976, 42.6987, 80.0425, -130.423
6.08137, 37, -38.0768, -18.4223, 42.9666, 42.852, 80.1224, -129.916
6.08862, 38, -37.7088, -18.4615, 42.9505, 42.9979, 80.2008, -129.41
6.10072, 38, -37.148, -18.5138, 42.9139, 43.2027, 80.314, -128.653
6.10478, 39, -36.9587, -18.5295, 42.8983, 43.2673, 80.3505, -128.402
6.11402, 39, -36.5768, -18.5583, 42.8621, 43.391, 80.4219, -127.901
6.11977, 40, -36.1897, -18.5833, 42.8193, 43.5072, 80.4919, -127.402
6.12859, 40, -35.7966, -18.6046, 42.7699, 43.6164, 80.5598, -126.905
6.14184, 41, -35.1959, -18.6289, 42.6836, 43.7665, 80.6582, -126.163
6.14806, 41, -34.789, -18.6408, 42.618, 43.8577, 80.7214, -125.671
6.15189, 42, -34.5841, -18.6454, 42.5827, 43.9007, 80.7525, -125.426
6.16126, 42, -34.172, -18.6522, 42.5074, 43.9811, 80.812, -124.937
6.16874, 43, -33.7566, -18.6558, 42.4259, 44.0545, 80.8708, -124.45
6.17655, 43, -33.3373, -18.6562, 42.3384, 44.1206, 80.9274, -123.966
6.18388, 44, -32.9125, -18.6529, 42.2451, 44.18, 80.982, -123.484
6.19597, 44, -32.2632, -18.6409, 42.0946, 44.2547, 81.0619, -122.766
6.2, 45, -32.0436, -18.635, 42.0414, 44.2762, 81.0872, -122.528
6.2147, 46, -31.378, -18.6118, 41.8729, 44.3296, 81.1621, -121.817
6.21734, 46, -31.1546, -18.6024, 41.8137, 44.3434, 81.1862, -121.58
6.22838, 46, -30.4818, -18.5688, 41.6275, 44.3733, 81.2547, -120.877
6.23233, 47, -30.256, -18.5557, 41.5625, 44.3795, 81.2772, -120.643
6.24178, 47, -29.8007, -18.526, 41.428, 44.3866, 81.3218, -120.177
6.24879, 48, -29.3389, -18.4918, 41.2876, 44.3869, 81.3645, -119.714
6.25711, 48, -28.8707, -18.4534, 41.1411, 44.3784, 81.4062, -119.251
6.26658, 49, -28.3971, -18.4106, 40.9885, 44.3612, 81.4481, -118.792
6.27316, 49, -27.9206, -18.3633, 40.8302, 44.3352, 81.4894, -118.333
6.28155, 50, -27.4417, -18.3116, 40.6655, 44.299, 81.5298, -117.875
6.28912, 50, -26.9594, -18.2547, 40.4941, 44.2537, 81.571, -117.419
6.29855, 51, -26.4709, -18.1921, 40.3163, 44.1997, 81.6135, -116.963
6.30517, 51, -26.2236, -18.1588, 40.225, 44.135, 81.6558, -116.508
6.31464, 52, -25.4709, -18.0505, 39.9401, 44.0612, 81.6986, -116.054
6.32111, 52, -25.2176, -18.0117, 39.8414, 44.0202, 81.7206, -115.828
6.32995, 53, -24.4544, -17.8875, 39.5364, 43.8817, 81.7879, -115.148
6.33968, 53, -23.9423, -17.7975, 39.3245, 43.777, 81.8328, -114.696
6.34369, 54, -23.6843, -17.7502, 39.2154, 43.7207, 81.8561, -114.47
6.35387, 54, -22.8988, -17.5988, 38.878, 43.5361, 81.9293, -113.793
6.36269, 55, -22.365, -17.4899, 38.644, 43.3992, 81.9797, -113.341
6.36775, 55, -22.0961, -17.4331, 38.5239, 43.3263, 82.0062, -113.115
6.37731, 56, -21.2855, -17.2539, 38.1543, 43.0899, 82.0892, -112.436
6.38369, 56, -21.0139, -17.1913, 38.0276, 43.0052, 82.1173, -112.211
6.39358, 57, -20.1901, -16.9953, 37.637, 42.7339, 82.2058, -111.534
6.39974, 57, -19.9109, -16.9271, 37.5037, 42.6377, 82.2359, -111.309
6.40768, 58, -19.3458, -16.786, 37.2317, 42.436, 82.2973, -110.859
6.41898, 58, -18.488, -16.5626, 36.8115, 42.1096, 82.3938, -110.183
6.42545, 59, -18.2008, -16.4065, 36.5227, 41.8764, 82.461, -109.734
6.4348, 59, -17.3333, -16.2459, 36.2271, 41.6301, 82.531, -109.284
6.44195, 60, -16.7446, -16.0808, 35.925, 41.371, 82.6033, -108.834
6.45058, 60, -16.1458, -15.9103, 35.6176, 41.099, 82.6777, -108.385
6.45602, 61, -15.844, -15.823, 35.4621, 40.9581, 82.7152, -108.16
6.46735, 61, -14.9337, -15.5549, 34.9874, 40.5163, 82.8308, -107.487
6.47171, 62, -14.6289, -15.4637, 34.8269, 40.363, 82.8701, -107.263
6.48372, 62, -13.7038, -15.1837, 34.3385, 39.8838, 82.9909, -106.59
6.48874, 63, -13.3906, -15.0874, 34.174, 39.7177, 83.0321, -106.365
6.49845, 63, -12.4385, -14.7886, 33.6729, 39.1997, 83.1592, -105.691
6.50377, 64, -12.1185, -14.6865, 33.5035, 39.0204, 83.2033, -105.467
6.5127, 64, -11.4756, -14.4779, 33.1596, 38.6512, 83.294, -105.016
6.52413, 65, -10.4955, -14.151, 32.631, 38.0682, 83.4397, -104.336
6.52805, 65, -10.1632, -14.0382, 32.4514, 37.8652, 83.4913, -104.108
6.53673, 66, -9.49065, -13.8075, 32.0876, 37.4445, 83.5991, -103.651
6.54475, 66, -8.81023, -13.5702, 31.7177, 37.0052, 83.7142, -103.193
6.55433, 67, -8.12508, -13.3253, 31.3406, 36.5468, 83.8996, -102.5
6.56265, 67, -7.0828, -12.9438, 30.7619, 35.8267, 84.0325, -102.036
6.56956, 68, -6.73105, -12.8125, 30.5664, 35.5786, 84.1014, -101.803
6.57572, 68, -6.02262, -12.5457, 30.1735, 35.0726, 84.2441, -101.337
6.58383, 69, -5.31009, -12.2738, 29.7773, 34.5551, 84.393, -100.87
6.59277, 69, -4.5932, -11.9953, 29.3787, 34.0268, 84.5465, -100.401
6.59972, 70, -3.86925, -11.7106, 28.9803, 33.4905, 84.7042, -99.9316
6.61393, 70, -2.76824, -11.2688, 28.3848, 32.6652, 84.9484, -99.2243
6.6167, 71, -2.3977, -11.1176, 28.1865, 32.3844, 85.0322, -98.988
6.62472, 71, -1.65109, -10.8102, 27.7879, 31.8119, 85.2055, -98.5135
6.63184, 72, -0.896357, -10.496, 27.3868, 31.2233, 85.3878, -98.0356
6.64201, 72, -0.134687, -10.1763, 26.9825, 30.6158, 85.5796, -97.5543
6.64786, 73, 0.633242, -9.84978, 26.5749, 29.9929, 85.7813, -97.0698
6.65611, 73, 1.40666, -9.51562, 26.1653, 29.3564, 85.9921, -96.5832
6.66385, 74, 2.18494, -9.17471, 25.7546, 28.708, 86.2118, -96.094
6.6733, 74, 2.96643, -8.82825, 25.3458, 28.0509, 86.4394, -95.6029
6.68649, 75, 4.14221, -8.29691, 24.7417, 27.0528, 86.7932, -94.8636
6.68907, 75, 4.53531, -8.11651, 24.5427, 26.7186, 86.914, -94.6169
6.69763, 76, 5.3228, -7.75128, 24.149, 26.0507, 87.1598, -94.1229
6.70397, 76, 6.11025, -7.38029, 23.7612, 25.3819, 87.4109, -93.6275
6.71225, 77, 6.8977, -7.00324, 23.3793, 24.7142, 87.6682, -93.1311
6.72765, 77, 8.08204, -6.42247, 22.8143, 23.7136, 88.0693, -92.3842
6.72956, 78, 8.4777, -6.22412, 22.6277, 23.3788, 88.2081, -92.1346
6.74235, 78, 9.66543, -5.61693, 22.0745, 22.3654, 88.6428, -91.3807
6.74459, 79, 10.0615, -5.4107, 21.8916, 22.0243, 88.7946, -91.1273
6.75212, 79, 10.8537, -4.9936, 21.5284, 21.3385, 89.1078, -90.6165
6.76035, 80, 11.6439, -4.56765, 21.1681, 20.6497, 89.4334, -90.1002
6.7681, 80, 12.43, -4.13149, 20.813, 19.9606, 89.7688, -89.578
6.77715, 81, 13.2089, -3.68605, 20.4632, 19.2794, 90.113, -89.0494
6.78416, 81, 13.9814, -3.23401, 20.1203, 18.6093, 90.4642, -88.5157
6.79316, 82, 14.7474, -2.77541, 19.7855, 17.9543, 90.8207, -87.9782
6.80006, 82, 15.1277, -2.54285, 19.6221, 17.6328, 91.0005, -87.7087
6.80759, 82, 15.8819, -2.07191, 19.3027, 17.0024, 91.3636, -87.1676
6.81553, 83, 16.6255, -1.59359, 18.9926, 16.3903, 91.7311, -86.6248
6.82353, 83, 17.3572, -1.10937, 18.6916, 15.797, 92.1039, -86.0809
6.8316, 84, 18.075, -0.620135, 18.3992, 15.2208, 92.4826, -85.5379
6.83953, 84, 18.7764, -0.126744, 18.1149, 14.6638, 92.8687, -84.9952
6.84753, 85, 19.4606, 0.371799, 17.8362, 14.1254, 93.2628, -84.4531
6.85557, 85, 20.1267, 0.876206, 17.5636, 13.6062, 93.6656, -83.9126
6.8635, 86, 20.7746, 1.38539, 17.2967, 13.1067, 94.0755, -83.374
6.87158, 86, 21.4063, 1.899, 17.0357, 12.6266, 94.4915, -82.8363
6.87976, 87, 22.0239, 2.41948, 16.7814, 12.1666, 94.914, -82.2974
6.88759, 87, 22.6298, 2.95006, 16.5321, 11.7259, 95.3431, -81.7559
6.89552, 87, 23.2257, 3.49096, 16.2873, 11.304, 95.7794, -81.2107
6.90355, 88, 23.8117, 4.03881, 16.046, 10.8984, 96.2226, -80.6597
6.9116, 88, 24.3873, 4.59343, 15.8079, 10.5094, 96.6719, -80.0999
6.91954, 89, 24.9515, 5.15855, 15.5753, 10.1359, 97.1276, -79.5304
6.92753, 89, 25.5065, 5.73498, 15.3475, 9.77885, 97.5882, -78.9502
6.9356, 90, 26.0564, 6.32137, 15.1235, 9.43798, 98.0533, -78.3576
6.94458, 90, 26.6006, 6.9164, 14.9047, 9.1133, 98.5227, -77.7512
6.95154, 91, 27.1338, 7.52015, 14.6919, 8.8062, 98.9969, -77.1311
6.95959, 91, 27.653, 8.13378, 14.4846, 8.51755, 99.4759, -76.4992
6.96757, 92, 28.1614, 8.75816, 14.2817, 8.24883, 99.9603, -75.8548
6.97551, 92, 28.6628, 9.3928, 14.083, 8.0014, 100.45, -75.2
6.98359, 93, 29.1569, 10.0362, 13.8887, 7.77537, 100.943, -74.5375
6.99154, 93, 29.6398, 10.6865, 13.7003, 7.57162, 101.439, -73.8674
6.99962, 94, 30.1094, 11.3422, 13.5189, 7.39067, 101.935, -73.1895
7.00753, 94, 30.5644, 12.0016, 13.3441, 7.23298, 102.43, -72.5058
7.01559, 95, 31.0055, 12.6642, 13.1757, 7.09845, 102.922, -71.8175
7.02352, 95, 31.4327, 13.3289, 13.0151, 6.98771, 103.412, -71.1227
7.03153, 96, 31.8462, 13.9957, 12.8619, 6.89987, 103.898, -70.4222
7.03959, 96, 32.244, 14.6635, 12.7149, 6.83664, 104.381, -69.7173
7.04753, 97, 32.6251, 15.3313, 12.5742, 6.79617, 104.86, -69.0063
7.05554, 97, 32.99, 15.9969, 12.4407, 6.77641, 105.332, -68.2905
7.06359, 98, 33.3392, 16.6586, 12.3155, 6.77824, 105.797, -67.5742
7.07155, 98, 33.6737, 17.3145, 12.1993, 6.80167, 106.253, -66.856
7.07955, 99, 33.9934, 17.9627, 12.093, 6.84417, 106.697, -66.1392
7.08762, 99, 34.2993, 18.6021, 11.9968, 6.90656, 107.127, -65.428
7.09549, 100, 34.5932, 19.2317, 11.9105, 6.98639, 107.542, -64.7215
7.10358, 100, 34.8755, 19.8511, 11.8337, 7.08307, 107.941, -64.0215
7.11187, 101, 35.1448, 20.4585, 11.7656, 7.19511, 108.324, -63.332
7.11956, 101, 35.4009, 21.0526, 11.7052, 7.32094, 108.69, -62.6519
7.12784, 101, 35.644, 21.6328, 11.6528, 7.45848, 109.04, -61.9819
7.13564, 102, 35.8731, 22.1981, 11.6078, 7.60537, 109.375, -61.3251
7.14361, 102, 36.089, 22.7488, 11.5699, 7.75972, 109.694, -60.6817
7.1517, 103, 36.2951, 23.2843, 11.5393, 7.91978, 109.999, -60.0518
7.15963, 103, 36.4947, 23.8049, 11.5164, 8.08548, 110.288, -59.4355
7.16795, 104, 36.6891, 24.3118, 11.502, 8.25752, 110.561, -58.8336
7.17633, 104, 36.8785, 24.8056, 11.4951, 8.43706, 110.817, -58.243
7.18355, 104, 37.0635, 25.2861, 11.4945, 8.62575, 111.055, -57.6613
7.19156, 104, 37.2433, 25.7542, 11.4999, 8.82355, 111.274, -57.0874
7.19965, 104, 37.4139, 26.2086, 11.5103, 9.0298, 111.476, -56.5214
7.20771, 104, 37.5742, 26.6496, 11.5241, 9.24379, 111.664, -55.9623
7.21573, 104, 37.727, 27.0777, 11.5407, 9.46228, 111.838, -55.413
7.22453, 104, 37.8767, 27.4933, 11.5595, 9.68307, 112.001, -54.8768
7.23184, 104, 38.0251, 27.8952, 11.5795, 9.90312, 112.156, -54.3578
7.24059, 104, 38.1708, 28.283, 11.5996, 10.12, 112.302, -53.8578
7.24805, 104, 38.3121, 28.657, 11.6193, 10.3324, 112.442, -53.3791
7.25604, 104, 38.4475, 29.0162, 11.638, 10.5384, 112.574, -52.9235
7.26414, 104, 38.5759, 29.3586, 11.6559, 10.7371, 112.698, -52.4917
7.2731, 104, 38.6964, 29.6833, 11.6728, 10.9276, 112.814, -52.0853
7.28013, 104, 38.809, 29.9888, 11.6884, 11.1092, 112.923, -51.7033
7.28828, 104, 38.9139, 30.2763, 11.7031, 11.2812, 113.025, -51.3462
7.29612, 104, 38.9634, 30.4129, 11.71, 11.3635, 113.118, -51.0148
7.30414, 104, 39.0566, 30.671, 11.7229, 11.5203, 113.163, -50.7086
7.31159, 104, 39.1418, 30.9096, 11.7345, 11.6661, 113.245, -50.5648
7.31954, 104, 39.2186, 31.1286, 11.7451, 11.8008, 113.321, -50.2964
7.32759, 104, 39.2869, 31.3275, 11.7549, 11.924, 113.389, -50.0532
7.33558, 104, 39.3473, 31.5069, 11.7639, 12.0352, 113.449, -49.8354
7.34351, 104, 39.4004, 31.667, 11.7716, 12.1343, 113.504, -49.6426
7.35152, 104, 39.4469, 31.8079, 11.7785, 12.2215, 113.55, -49.4748
7.35955, 104, 39.4875, 31.9305, 11.7849, 12.2962, 113.59, -49.3315
7.36759, 104, 39.522, 32.036, 11.7907, 12.3592, 113.623, -49.2117
7.37554, 104, 39.5503, 32.125, 11.7957, 12.4106, 113.65, -49.1145
7.38355, 104, 39.5735, 32.1988, 11.8003, 12.4503, 113.67, -49.0375
7.39151, 104, 39.5923, 32.2592, 11.8043, 12.4811, 113.686, -48.9795
7.39952, 104, 39.6071, 32.3078, 11.8081, 12.5038, 113.697, -48.9376
7.40765, 104, 39.6188, 32.3459, 11.8115, 12.5198, 113.704, -48.9088
7.41551, 104, 39.6276, 32.3743, 11.8145, 12.5305, 113.709, -48.8901
7.43069, 104, 39.6376, 32.4111, 11.8194, 12.5412, 113.713, -48.873
7.43202, 104, 39.6376, 32.4111, 11.8194, 12.5412, 113.713, -48.873
7.43951, 104, 39.64, 32.4215, 11.821, 12.5432, 113.714, -48.8702
7.4476, 105, 39.6411, 32.428, 11.8222, 12.5441, 113.714, -48.8691
7.45555, 105, 39.6413, 32.4321, 11.8232, 12.5446, 113.714, -48.8686
7.46351, 105, 39.6408, 32.4348, 11.824, 12.5449, 113.714, -48.8684
7.47155, 105, 39.6398, 32.4368, 11.8248, 12.5451, 113.714, -48.8684
7.47956, 105, 39.6387, 32.4383, 11.8254, 12.5451, 113.714, -48.8686
7.48759, 105, 39.6373, 32.4396, 11.826, 12.5451, 113.714, -48.8688
7.49552, 105, 39.6361, 32.4408, 11.8265, 12.5452, 113.714, -48.869
7.50359, 105, 39.6354, 32.442, 11.827, 12.5452, 113.714, -48.8692
7.51151, 105, 39.635, 32.4431, 11.8276, 12.5452, 113.714, -48.8696
7.51952, 105, 39.6347, 32.4442, 11.8282, 12.5452, 113.714, -48.8698
7.52763, 105, 39.6344, 32.4452, 11.8287, 12.5452, 113.714, -48.8701
7.5355, 105, 39.6342, 32.446, 11.8291, 12.5452, 113.714, -48.8704
7.54349, 105, 39.6339, 32.4465, 11.8294, 12.5452, 113.714, -48.8706
7.5516, 105, 39.6336, 32.4469, 11.8297, 12.5451, 113.714, -48.8708
7.55951, 105, 39.6333, 32.4471, 11.8299, 12.5451, 113.714, -48.871
