/JOB
//NAME AAA
//POS
///NPOS 26,0,0,0,0,0
///TOOL 11
///POSTYPE PULSE
///PULSE
C00000=46573,-7957,-17580,-30145,-84606,21192
C00001=46573,-7957,-17580,-30145,-84606,21192
C00002=42578,-9862,-18241,-23199,-86222,22077
C00003=41321,-13053,-19695,-19363,-85894,22602
C00004=40134,-15551,-20520,-15438,-86279,23025
C00005=38948,-18592,-21479,-11412,-86718,23481
C00006=37582,-21707,-22266,-7386,-87516,23894
C00007=35838,-25307,-23042,-3393,-88443,24299
C00008=33535,-30114,-24101,673,-89181,24774
C00009=30088,-36959,-25590,4862,-89340,25414
C00010=22750,-48286,-27589,8934,-87795,26431
C00011=14390,-56524,-28481,9078,-84715,26891
C00012=4314,-62481,-28718,6090,-80688,27081
C00013=-5964,-65344,-28341,907,-76965,26674
C00014=-15999,-65298,-27172,-5545,-74097,25860
C00015=-25269,-62662,-25154,-12401,-72459,24626
C00016=-33349,-57338,-21914,-18966,-72270,23147
C00017=-40072,-49705,-17416,-24860,-73333,21539
C00018=-45579,-40294,-11891,-30088,-75367,19921
C00019=-50122,-29557,-5674,-34995,-78007,18351
C00020=-53979,-18018,816,-40002,-80891,16837
C00021=-57285,-5854,7065,-45526,-83798,15376
C00022=-59970,6620,12997,-51436,-86423,13978
C00023=-62118,19217,17946,-58345,-88572,12617
C00024=-63653,31601,21458,-66231,-89987,11286
C00025=-64024,54527,29307,-79374,-91113,9201
//INST
///DATE 2023/05/01 14:53
///ATTR SC,RW
///GROUP1 RB1
NOP
MOVJ C00000 VJ=5.0
TIMER T=1.00
MOVJ C00001 VJ=1.0
TIMER T=0.10
MOVL C00002 V=333.0
MOVL C00003 V=333.0
MOVL C00004 V=333.0
MOVL C00005 V=333.0
MOVL C00006 V=333.0
MOVL C00007 V=333.0
MOVL C00008 V=333.0
MOVL C00009 V=333.0
MOVL C00010 V=333.0
MOVL C00011 V=333.0
MOVL C00012 V=333.0
MOVL C00013 V=333.0
MOVL C00014 V=333.0
MOVL C00015 V=333.0
MOVL C00016 V=333.0
MOVL C00017 V=333.0
MOVL C00018 V=333.0
MOVL C00019 V=333.0
MOVL C00020 V=333.0
MOVL C00021 V=333.0
MOVL C00022 V=333.0
MOVL C00023 V=333.0
MOVL C00024 V=333.0
MOVL C00025 V=333.0
END
