/JOB
//NAME AAA
//POS
///NPOS 25,0,0,0,0,0
///TOOL 11
///POSTYPE PULSE
///PULSE
C00000=-97889,-122713,-98653,-125681,-123036,-665
C00001=-97889,-122713,-98653,-125681,-123036,-665
C00002=-93031,-103482,-79934,-121511,-117467,1040
C00003=-95164,-96313,-66785,-117513,-113243,2331
C00004=-98832,-89263,-47862,-110680,-106643,4249
C00005=-98392,-84819,-39284,-108048,-103689,4949
C00006=-96258,-79413,-32485,-106640,-101227,5368
C00007=-92874,-73249,-28006,-107280,-99933,5340
C00008=-87936,-65219,-25164,-110028,-99768,4965
C00009=-80257,-53936,-23733,-116615,-101580,3875
C00010=-70009,-40405,-22425,-126151,-105369,2277
C00011=-59946,-27381,-18508,-135721,-109120,660
C00012=-55037,-20005,-13909,-140542,-110355,-38
C00013=-53329,-15713,-9752,-142463,-110142,-256
C00014=-53877,-13064,-5536,-141960,-108889,59
C00015=-57082,-12385,-801,-139009,-106374,768
C00016=-63826,-14260,5921,-131278,-101384,2367
C00017=-71370,-17426,15490,-120577,-95262,4402
C00018=-75920,-18480,26729,-111257,-90342,6271
C00019=-76692,-15701,35007,-107125,-88214,7345
C00020=-76771,-14079,39794,-106793,-87252,7433
C00021=-75901,-8737,45180,-106223,-86849,7492
C00022=-73934,-3441,46547,-110260,-87577,7026
C00023=-69380,4793,46105,-119524,-90061,5710
C00024=-48981,33809,55223,-150911,-96549,-318
//INST
///DATE 2023/05/03 15:31
///ATTR SC,RW
///GROUP1 RB1
NOP
MOVJ C00000 VJ=5.0
TIMER T=1.00
MOVJ C00001 VJ=1.0
TIMER T=0.10
MOVL C00002 V=333.0
MOVL C00003 V=333.0
MOVL C00004 V=333.0
MOVL C00005 V=333.0
MOVL C00006 V=333.0
MOVL C00007 V=333.0
MOVL C00008 V=333.0
MOVL C00009 V=333.0
MOVL C00010 V=333.0
MOVL C00011 V=333.0
MOVL C00012 V=333.0
MOVL C00013 V=333.0
MOVL C00014 V=333.0
MOVL C00015 V=333.0
MOVL C00016 V=333.0
MOVL C00017 V=333.0
MOVL C00018 V=333.0
MOVL C00019 V=333.0
MOVL C00020 V=333.0
MOVL C00021 V=333.0
MOVL C00022 V=333.0
MOVL C00023 V=333.0
MOVL C00024 V=333.0
END
