/JOB
//NAME AAA
//POS
///NPOS 102,0,0,0,0,0
///TOOL 11
///POSTYPE PULSE
///PULSE
C00000=-68986,-25782,-37994,-15375,-67563,75461
C00001=-68986,-25782,-37994,-15375,-67563,75461
C00002=-69624,-31235,-44240,-20273,-69434,74270
C00003=-69416,-32040,-45298,-20964,-69941,73639
C00004=-69097,-32754,-46194,-21439,-70547,72890
C00005=-68685,-33367,-46962,-21883,-71176,72092
C00006=-68300,-33982,-47724,-22364,-71824,71310
C00007=-67896,-34555,-48445,-22899,-72459,70540
C00008=-67490,-35124,-49157,-23476,-73084,69785
C00009=-67085,-35691,-49852,-24076,-73711,69043
C00010=-66649,-36229,-50505,-24687,-74325,68305
C00011=-66200,-36767,-51143,-25301,-74935,67575
C00012=-65710,-37272,-51735,-25922,-75521,66851
C00013=-65211,-37792,-52321,-26542,-76103,66141
C00014=-64684,-38307,-52884,-27170,-76659,65444
C00015=-64128,-38822,-53430,-27803,-77183,64763
C00016=-63556,-39354,-53967,-28441,-77683,64100
C00017=-62955,-39904,-54493,-29079,-78153,63454
C00018=-62334,-40483,-55016,-29710,-78599,62823
C00019=-61682,-41058,-55515,-30343,-79009,62210
C00020=-60994,-41636,-55988,-30956,-79392,61605
C00021=-60266,-42222,-56441,-31529,-79757,61004
C00022=-59499,-42782,-56845,-32093,-80092,60414
C00023=-58697,-43342,-57225,-32616,-80418,59827
C00024=-57856,-43859,-57549,-33124,-80723,59250
C00025=-56976,-44344,-57823,-33608,-81008,58679
C00026=-56058,-44793,-58049,-34059,-81281,58112
C00027=-55095,-45198,-58224,-34473,-81538,57548
C00028=-54095,-45561,-58335,-34861,-81783,56987
C00029=-53063,-45887,-58410,-35217,-82012,56435
C00030=-51993,-46171,-58437,-35542,-82233,55885
C00031=-50892,-46395,-58372,-35845,-82446,55341
C00032=-49762,-46602,-58318,-36117,-82641,54806
C00033=-48595,-46734,-58184,-36366,-82823,54276
C00034=-47405,-46822,-57999,-36592,-82996,53755
C00035=-46188,-46885,-57784,-36787,-83169,53239
C00036=-44940,-46875,-57501,-36959,-83327,52729
C00037=-43663,-46818,-57191,-37103,-83466,52229
C00038=-42365,-46736,-56836,-37221,-83602,51735
C00039=-41046,-46619,-56437,-37312,-83743,51246
C00040=-39694,-46441,-56002,-37376,-83858,50767
C00041=-38320,-46198,-55512,-37419,-83954,50298
C00042=-36928,-45927,-54976,-37432,-84066,49833
C00043=-35505,-45602,-54397,-37409,-84164,49375
C00044=-34056,-45257,-53803,-37352,-84259,48922
C00045=-32592,-44821,-53125,-37272,-84360,48478
C00046=-31103,-44344,-52414,-37158,-84461,48040
C00047=-29585,-43800,-51655,-37007,-84564,47608
C00048=-28041,-43209,-50851,-36815,-84678,47179
C00049=-26468,-42563,-50003,-36585,-84799,46754
C00050=-24872,-41806,-49074,-36318,-84923,46337
C00051=-23247,-41010,-48105,-36008,-85072,45921
C00052=-21600,-40145,-47082,-35660,-85226,45514
C00053=-19916,-39232,-46033,-35263,-85386,45110
C00054=-18203,-38254,-44917,-34815,-85569,44708
C00055=-16460,-37216,-43760,-34326,-85758,44313
C00056=-14687,-36124,-42560,-33785,-85961,43923
C00057=-12884,-34997,-41344,-33203,-86180,43539
C00058=-11049,-33809,-40073,-32567,-86418,43159
C00059=-9184,-32576,-38765,-31880,-86683,42784
C00060=-7278,-31266,-37416,-31136,-86961,42412
C00061=-5338,-29866,-36004,-30338,-87264,42045
C00062=-3357,-28435,-34576,-29478,-87603,41678
C00063=-1340,-26928,-33086,-28559,-87989,41310
C00064=723,-25348,-31595,-27580,-88397,40944
C00065=2812,-23690,-30028,-26550,-88851,40581
C00066=4936,-21994,-28482,-25471,-89337,40221
C00067=7090,-20223,-26899,-24341,-89866,39863
C00068=9276,-18362,-25292,-23163,-90424,39507
C00069=11482,-16461,-23690,-21949,-91021,39154
C00070=13715,-14514,-22085,-20693,-91672,38797
C00071=15959,-12527,-20518,-19413,-92363,38443
C00072=18201,-10437,-18925,-18123,-93085,38093
C00073=20437,-8322,-17390,-16834,-93853,37743
C00074=22661,-6106,-15839,-15543,-94660,37392
C00075=24866,-3812,-14296,-14267,-95513,37039
C00076=27040,-1525,-12850,-13021,-96419,36680
C00077=29175,926,-11354,-11804,-97360,36319
C00078=31250,3415,-9903,-10657,-98350,35953
C00079=33265,5995,-8480,-9564,-99375,35581
C00080=35230,8634,-7065,-8535,-100475,35192
C00081=37100,11362,-5683,-7608,-101606,34796
C00082=38901,14232,-4261,-6748,-102775,34387
C00083=40617,17132,-2907,-5983,-103977,33964
C00084=42257,20005,-1629,-5324,-105232,33518
C00085=43792,22976,-349,-4773,-106481,33064
C00086=45264,25955,889,-4297,-107730,32595
C00087=46636,28952,2067,-3931,-108965,32114
C00088=47935,31912,3190,-3668,-110203,31616
C00089=49151,34916,4279,-3498,-111440,31099
C00090=50283,37907,5326,-3446,-112670,30564
C00091=51328,40895,6314,-3502,-113879,30009
C00092=52309,43870,7258,-3650,-115076,29435
C00093=53213,46817,8129,-3904,-116251,28838
C00094=54054,49735,8956,-4246,-117386,28227
C00095=54817,52603,9719,-4699,-118471,27597
C00096=55544,55413,10381,-5224,-119543,26945
C00097=56223,58126,10965,-5846,-120576,26273
C00098=56858,60711,11459,-6514,-121477,25613
C00099=57470,63172,11853,-7204,-122276,24966
C00100=58019,65807,12287,-8035,-123189,24253
C00101=60386,73942,12456,-11382,-124938,21786
//INST
///DATE 2023/05/09 15:56
///ATTR SC,RW
///GROUP1 RB1
NOP
MOVJ C00000 VJ=5.0
TIMER T=1.00
MOVJ C00001 VJ=1.0
TIMER T=0.10
MOVL C00002 V=300.0
MOVL C00003 V=300.0
MOVL C00004 V=300.0
MOVL C00005 V=300.0
MOVL C00006 V=300.0
MOVL C00007 V=300.0
MOVL C00008 V=300.0
MOVL C00009 V=300.0
MOVL C00010 V=300.0
MOVL C00011 V=300.0
MOVL C00012 V=300.0
MOVL C00013 V=300.0
MOVL C00014 V=300.0
MOVL C00015 V=300.0
MOVL C00016 V=300.0
MOVL C00017 V=300.0
MOVL C00018 V=300.0
MOVL C00019 V=300.0
MOVL C00020 V=300.0
MOVL C00021 V=300.0
MOVL C00022 V=300.0
MOVL C00023 V=300.0
MOVL C00024 V=300.0
MOVL C00025 V=300.0
MOVL C00026 V=300.0
MOVL C00027 V=300.0
MOVL C00028 V=300.0
MOVL C00029 V=300.0
MOVL C00030 V=300.0
MOVL C00031 V=300.0
MOVL C00032 V=300.0
MOVL C00033 V=300.0
MOVL C00034 V=300.0
MOVL C00035 V=300.0
MOVL C00036 V=300.0
MOVL C00037 V=300.0
MOVL C00038 V=300.0
MOVL C00039 V=300.0
MOVL C00040 V=300.0
MOVL C00041 V=300.0
MOVL C00042 V=300.0
MOVL C00043 V=300.0
MOVL C00044 V=300.0
MOVL C00045 V=300.0
MOVL C00046 V=300.0
MOVL C00047 V=300.0
MOVL C00048 V=300.0
MOVL C00049 V=300.0
MOVL C00050 V=300.0
MOVL C00051 V=300.0
MOVL C00052 V=300.0
MOVL C00053 V=300.0
MOVL C00054 V=300.0
MOVL C00055 V=300.0
MOVL C00056 V=300.0
MOVL C00057 V=300.0
MOVL C00058 V=300.0
MOVL C00059 V=300.0
MOVL C00060 V=300.0
MOVL C00061 V=300.0
MOVL C00062 V=300.0
MOVL C00063 V=300.0
MOVL C00064 V=300.0
MOVL C00065 V=300.0
MOVL C00066 V=300.0
MOVL C00067 V=300.0
MOVL C00068 V=300.0
MOVL C00069 V=300.0
MOVL C00070 V=300.0
MOVL C00071 V=300.0
MOVL C00072 V=300.0
MOVL C00073 V=300.0
MOVL C00074 V=300.0
MOVL C00075 V=300.0
MOVL C00076 V=300.0
MOVL C00077 V=300.0
MOVL C00078 V=300.0
MOVL C00079 V=300.0
MOVL C00080 V=300.0
MOVL C00081 V=300.0
MOVL C00082 V=300.0
MOVL C00083 V=300.0
MOVL C00084 V=300.0
MOVL C00085 V=300.0
MOVL C00086 V=300.0
MOVL C00087 V=300.0
MOVL C00088 V=300.0
MOVL C00089 V=300.0
MOVL C00090 V=300.0
MOVL C00091 V=300.0
MOVL C00092 V=300.0
MOVL C00093 V=300.0
MOVL C00094 V=300.0
MOVL C00095 V=300.0
MOVL C00096 V=300.0
MOVL C00097 V=300.0
MOVL C00098 V=300.0
MOVL C00099 V=300.0
MOVL C00100 V=300.0
MOVL C00101 V=300.0
END
