/JOB
//NAME AAA
//POS
///NPOS 25,0,0,0,0,0
///TOOL 11
///POSTYPE PULSE
///PULSE
C00000=-97202,-120671,-97919,-125965,-122632,-570
C00001=-97202,-120671,-97919,-125965,-122632,-570
C00002=-93397,-103296,-80373,-121879,-117614,970
C00003=-95455,-96169,-67301,-117989,-113397,2268
C00004=-99324,-89290,-48386,-111213,-106808,4192
C00005=-98792,-84702,-39813,-108622,-103908,4933
C00006=-96694,-79410,-33071,-107339,-101458,5327
C00007=-93230,-73103,-28621,-107950,-100201,5345
C00008=-88291,-65107,-25769,-110781,-100039,4928
C00009=-80548,-53815,-24330,-117220,-101792,3847
C00010=-70345,-40406,-22911,-126565,-105439,2210
C00011=-60263,-27415,-18968,-135960,-109112,602
C00012=-55443,-20151,-14460,-140577,-110249,-60
C00013=-53676,-15821,-10319,-142450,-110036,-249
C00014=-54283,-13376,-6207,-142032,-108777,22
C00015=-57409,-12599,-1469,-139029,-106202,790
C00016=-63869,-14246,5153,-131889,-101517,2349
C00017=-71219,-17290,14275,-121944,-95693,4404
C00018=-76010,-18272,25648,-112551,-90730,6344
C00019=-77120,-16117,34232,-108071,-88491,7296
C00020=-76954,-12903,40087,-106572,-87417,7663
C00021=-76046,-8693,43965,-107627,-87255,7593
C00022=-74105,-3218,45845,-111665,-87920,7020
C00023=-69809,4644,45576,-120259,-90046,5651
C00024=-52480,24840,45662,-146991,-96086,737
//INST
///DATE 2023/04/27 11:53
///ATTR SC,RW
///GROUP1 RB1
NOP
MOVJ C00000 VJ=5.0
TIMER T=1.00
MOVJ C00001 VJ=1.0
TIMER T=0.10
MOVL C00002 V=333.0
MOVL C00003 V=333.0
MOVL C00004 V=333.0
MOVL C00005 V=333.0
MOVL C00006 V=333.0
MOVL C00007 V=333.0
MOVL C00008 V=333.0
MOVL C00009 V=333.0
MOVL C00010 V=333.0
MOVL C00011 V=333.0
MOVL C00012 V=333.0
MOVL C00013 V=333.0
MOVL C00014 V=333.0
MOVL C00015 V=333.0
MOVL C00016 V=333.0
MOVL C00017 V=333.0
MOVL C00018 V=333.0
MOVL C00019 V=333.0
MOVL C00020 V=333.0
MOVL C00021 V=333.0
MOVL C00022 V=333.0
MOVL C00023 V=333.0
MOVL C00024 V=333.0
END
