/JOB
//NAME AAA
//POS
///NPOS 55,0,0,0,0,0
///TOOL 11
///POSTYPE PULSE
///PULSE
C00000=-69209,-24581,-35638,-12977,-66449,76921
C00001=-69209,-24581,-35638,-12977,-66449,76921
C00002=-69758,-31920,-44656,-20667,-70016,74035
C00003=-69278,-32969,-45961,-21361,-70882,72939
C00004=-68725,-33879,-47105,-22041,-71799,71806
C00005=-68142,-34721,-48168,-22780,-72730,70671
C00006=-67568,-35562,-49214,-23632,-73652,69574
C00007=-66947,-36374,-50207,-24529,-74568,68478
C00008=-66267,-37164,-51152,-25458,-75477,67382
C00009=-65515,-37940,-52048,-26409,-76372,66285
C00010=-64688,-38735,-52921,-27394,-77237,65195
C00011=-63779,-39590,-53796,-28420,-78062,64115
C00012=-62769,-40523,-54679,-29487,-78834,63040
C00013=-61624,-41538,-55558,-30579,-79553,61959
C00014=-60310,-42606,-56397,-31668,-80224,60858
C00015=-58778,-43675,-57140,-32725,-80853,59722
C00016=-56982,-44695,-57740,-33730,-81454,58532
C00017=-54850,-45622,-58147,-34675,-82036,57268
C00018=-52289,-46401,-58300,-35553,-82598,55905
C00019=-49155,-46950,-58105,-36349,-83144,54410
C00020=-45130,-47123,-57386,-37034,-83687,52697
C00021=-39497,-46576,-55710,-37510,-84246,50592
C00022=-33645,-45270,-53347,-37442,-84657,48707
C00023=-28423,-43469,-50765,-36957,-85002,47208
C00024=-23888,-41400,-48171,-36212,-85368,46016
C00025=-19748,-39183,-45582,-35294,-85760,45006
C00026=-15862,-36893,-43015,-34227,-86180,44123
C00027=-12157,-34564,-40482,-33033,-86625,43333
C00028=-8579,-32182,-37970,-31721,-87113,42614
C00029=-5092,-29729,-35466,-30302,-87656,41947
C00030=-1677,-27202,-32974,-28787,-88265,41322
C00031=1677,-24606,-30502,-27193,-88943,40732
C00032=4989,-21941,-28054,-25527,-89685,40169
C00033=8250,-19232,-25662,-23811,-90486,39631
C00034=11482,-16468,-23316,-22049,-91351,39112
C00035=14685,-13632,-21018,-20255,-92280,38607
C00036=17846,-10726,-18782,-18454,-93273,38113
C00037=20961,-7736,-16606,-16662,-94337,37626
C00038=24019,-4649,-14488,-14901,-95476,37140
C00039=27024,-1431,-12413,-13184,-96699,36649
C00040=29950,1924,-10384,-11541,-98009,36149
C00041=32797,5463,-8381,-9990,-99415,35632
C00042=35559,9213,-6382,-8551,-100940,35087
C00043=38214,13200,-4382,-7255,-102585,34507
C00044=40752,17432,-2380,-6125,-104345,33885
C00045=43163,21876,-398,-5185,-106204,33213
C00046=45440,26498,1533,-4450,-108123,32490
C00047=47588,31275,3398,-3939,-110094,31706
C00048=49590,36233,5201,-3679,-112115,30850
C00049=51433,41394,6947,-3716,-114200,29903
C00050=53111,46722,8596,-4079,-116311,28854
C00051=54641,52134,10087,-4790,-118399,27693
C00052=56018,57619,11398,-5872,-120442,26411
C00053=57303,62914,12390,-7271,-122263,25047
C00054=61361,80784,14384,-14576,-127162,19776
//INST
///DATE 2023/04/13 14:27
///ATTR SC,RW
///GROUP1 RB1
NOP
MOVJ C00000 VJ=5.0
TIMER T=1.00
MOVJ C00001 VJ=1.0
TIMER T=0.10
MOVL C00002 V=400.0
MOVL C00003 V=400.0
MOVL C00004 V=400.0
MOVL C00005 V=400.0
MOVL C00006 V=400.0
MOVL C00007 V=400.0
MOVL C00008 V=400.0
MOVL C00009 V=400.0
MOVL C00010 V=400.0
MOVL C00011 V=400.0
MOVL C00012 V=400.0
MOVL C00013 V=400.0
MOVL C00014 V=400.0
MOVL C00015 V=400.0
MOVL C00016 V=400.0
MOVL C00017 V=400.0
MOVL C00018 V=400.0
MOVL C00019 V=400.0
MOVL C00020 V=400.0
MOVL C00021 V=400.0
MOVL C00022 V=400.0
MOVL C00023 V=400.0
MOVL C00024 V=400.0
MOVL C00025 V=400.0
MOVL C00026 V=400.0
MOVL C00027 V=400.0
MOVL C00028 V=400.0
MOVL C00029 V=400.0
MOVL C00030 V=400.0
MOVL C00031 V=400.0
MOVL C00032 V=400.0
MOVL C00033 V=400.0
MOVL C00034 V=400.0
MOVL C00035 V=400.0
MOVL C00036 V=400.0
MOVL C00037 V=400.0
MOVL C00038 V=400.0
MOVL C00039 V=400.0
MOVL C00040 V=400.0
MOVL C00041 V=400.0
MOVL C00042 V=400.0
MOVL C00043 V=400.0
MOVL C00044 V=400.0
MOVL C00045 V=400.0
MOVL C00046 V=400.0
MOVL C00047 V=400.0
MOVL C00048 V=400.0
MOVL C00049 V=400.0
MOVL C00050 V=400.0
MOVL C00051 V=400.0
MOVL C00052 V=400.0
MOVL C00053 V=400.0
MOVL C00054 V=400.0
END
