/JOB
//NAME AAA
//POS
///NPOS 25,0,0,0,0,0
///TOOL 11
///POSTYPE PULSE
///PULSE
C00000=-97684,-122410,-98930,-126026,-123051,-708
C00001=-97684,-122410,-98930,-126026,-123051,-708
C00002=-93142,-103315,-80211,-121753,-117559,1009
C00003=-95204,-96111,-67088,-117775,-113340,2327
C00004=-98969,-89127,-48211,-110973,-106734,4260
C00005=-98464,-84583,-39661,-108356,-103806,4994
C00006=-96361,-79238,-32914,-107031,-101375,5402
C00007=-92941,-73026,-28479,-107645,-100102,5405
C00008=-88005,-65024,-25613,-110484,-99971,4989
C00009=-80311,-53770,-24196,-116980,-101747,3906
C00010=-70087,-40318,-22787,-126455,-105463,2263
C00011=-60020,-27324,-18818,-135943,-109164,635
C00012=-55238,-20061,-14216,-140687,-110337,-84
C00013=-53519,-15743,-10061,-142560,-110137,-284
C00014=-54120,-13253,-5936,-142091,-108877,8
C00015=-57251,-12513,-1266,-139125,-106314,764
C00016=-63799,-14098,5495,-131681,-101484,2372
C00017=-71346,-17222,15004,-121201,-95497,4412
C00018=-75910,-17985,26329,-111860,-90514,6369
C00019=-76886,-15714,34725,-107517,-88355,7351
C00020=-76907,-13425,39939,-106648,-87332,7572
C00021=-76137,-8461,45659,-107074,-86933,7273
C00022=-74003,-3502,45680,-110953,-87808,7128
C00023=-69674,4635,45808,-119744,-90030,5696
C00024=-51225,28071,48911,-147858,-96394,467
//INST
///DATE 2023/05/04 13:45
///ATTR SC,RW
///GROUP1 RB1
NOP
MOVJ C00000 VJ=5.0
TIMER T=1.00
MOVJ C00001 VJ=1.0
TIMER T=0.10
MOVL C00002 V=333.0
MOVL C00003 V=333.0
MOVL C00004 V=333.0
MOVL C00005 V=333.0
MOVL C00006 V=333.0
MOVL C00007 V=333.0
MOVL C00008 V=333.0
MOVL C00009 V=333.0
MOVL C00010 V=333.0
MOVL C00011 V=333.0
MOVL C00012 V=333.0
MOVL C00013 V=333.0
MOVL C00014 V=333.0
MOVL C00015 V=333.0
MOVL C00016 V=333.0
MOVL C00017 V=333.0
MOVL C00018 V=333.0
MOVL C00019 V=333.0
MOVL C00020 V=333.0
MOVL C00021 V=333.0
MOVL C00022 V=333.0
MOVL C00023 V=333.0
MOVL C00024 V=333.0
END
