/JOB
//NAME AAA
//POS
///NPOS 103,0,0,0,0,0
///TOOL 10
///POSTYPE PULSE
///PULSE
C00000=-50133,3180,-14202,-13218,-96471,56018
C00001=-44932,-4570,-20740,-13991,-96319,55770
C00002=-44371,-5316,-21353,-14076,-96309,55734
C00003=-43831,-6146,-22022,-14191,-96256,55714
C00004=-43310,-7059,-22744,-14334,-96163,55710
C00005=-42810,-8055,-23519,-14504,-96030,55720
C00006=-42328,-9135,-24346,-14701,-95856,55744
C00007=-41866,-10300,-25226,-14924,-95642,55783
C00008=-41422,-11551,-26159,-15171,-95387,55836
C00009=-40996,-12890,-27145,-15443,-95093,55904
C00010=-40589,-14317,-28185,-15739,-94759,55985
C00011=-40200,-15832,-29278,-16059,-94387,56080
C00012=-39828,-17437,-30425,-16402,-93976,56188
C00013=-39473,-19131,-31625,-16767,-93527,56309
C00014=-39134,-20913,-32878,-17154,-93043,56441
C00015=-38811,-22782,-34183,-17563,-92524,56585
C00016=-38504,-24738,-35538,-17994,-91971,56739
C00017=-38210,-26778,-36943,-18444,-91387,56902
C00018=-37930,-28899,-38395,-18915,-90774,57072
C00019=-37662,-31096,-39892,-19404,-90135,57248
C00020=-37403,-33366,-41429,-19911,-89472,57427
C00021=-37153,-35703,-43004,-20434,-88788,57608
C00022=-36910,-38100,-44612,-20972,-88087,57787
C00023=-36670,-40550,-46247,-21523,-87373,57961
C00024=-36431,-43046,-47905,-22085,-86648,58127
C00025=-36190,-45577,-49577,-22656,-85916,58280
C00026=-35944,-48134,-51259,-23233,-85182,58417
C00027=-35689,-50707,-52941,-23813,-84448,58532
C00028=-35422,-53286,-54618,-24394,-83718,58620
C00029=-35139,-55857,-56279,-24971,-82995,58676
C00030=-34836,-58410,-57918,-25542,-82280,58694
C00031=-34508,-60933,-59526,-26102,-81577,58668
C00032=-34151,-63412,-61093,-26648,-80888,58592
C00033=-33760,-65832,-62611,-27175,-80213,58460
C00034=-33332,-68181,-64070,-27678,-79554,58264
C00035=-32860,-70444,-65460,-28153,-78912,58001
C00036=-32340,-72602,-66771,-28592,-78287,57662
C00037=-31767,-74639,-67992,-28989,-77681,57244
C00038=-31134,-76534,-69109,-29336,-77094,56742
C00039=-30436,-78264,-70109,-29626,-76528,56152
C00040=-29667,-79802,-70977,-29847,-75987,55471
C00041=-28821,-81120,-71696,-29991,-75474,54700
C00042=-27894,-82185,-72247,-30046,-74997,53839
C00043=-26882,-82961,-72610,-30002,-74562,52889
C00044=-25781,-83407,-72764,-29851,-74183,51858
C00045=-24594,-83482,-72686,-29585,-73875,50752
C00046=-23322,-83141,-72352,-29201,-73656,49581
C00047=-21974,-82344,-71742,-28702,-73547,48356
C00048=-20559,-81051,-70838,-28093,-73573,47091
C00049=-19092,-79232,-69622,-27389,-73758,45800
C00050=-17590,-76861,-68086,-26607,-74129,44497
C00051=-16074,-73930,-66225,-25774,-74707,43198
C00052=-14563,-70441,-64046,-24916,-75511,41916
C00053=-13080,-66414,-61563,-24066,-76551,40666
C00054=-11643,-61890,-58803,-23254,-77831,39457
C00055=-10269,-56929,-55808,-22508,-79340,38303
C00056=-8971,-51611,-52628,-21853,-81057,37211
C00057=-7759,-46030,-49326,-21309,-82952,36191
C00058=-6637,-40298,-45973,-20888,-84981,35253
C00059=-5605,-34525,-42640,-20596,-87097,34407
C00060=-4662,-28828,-39399,-20436,-89248,33666
C00061=-3802,-23303,-36306,-20404,-91388,33042
C00062=-3016,-18029,-33408,-20493,-93480,32554
C00063=-2297,-13077,-30741,-20696,-95488,32220
C00064=-1637,-8486,-28322,-21003,-97394,32061
C00065=-1025,-4285,-26159,-21402,-99184,32098
C00066=-452,-487,-24249,-21881,-100856,32350
C00067=94,2899,-22586,-22422,-102408,32833
C00068=626,5858,-21165,-23002,-103834,33555
C00069=1159,8369,-19979,-23590,-105126,34512
C00070=1707,10392,-19031,-24149,-106260,35683
C00071=2284,11872,-18332,-24639,-107198,37023
C00072=2900,12741,-17900,-25023,-107888,38473
C00073=3558,12917,-17767,-25274,-108267,39962
C00074=4254,12320,-17973,-25380,-108272,41421
C00075=4986,10884,-18561,-25344,-107849,42794
C00076=5749,8557,-19579,-25179,-106960,44043
C00077=6545,5310,-21070,-24904,-105584,45148
C00078=7381,1136,-23072,-24539,-103718,46105
C00079=8269,-3940,-25608,-24101,-101381,46915
C00080=9224,-9852,-28676,-23608,-98614,47582
C00081=10264,-16483,-32238,-23073,-95482,48106
C00082=11401,-23660,-36216,-22507,-92073,48478
C00083=12642,-31166,-40492,-21920,-88494,48677
C00084=13983,-38769,-44929,-21318,-84849,48676
C00085=15410,-46250,-49385,-20712,-81229,48434
C00086=16901,-53427,-53738,-20113,-77701,47905
C00087=18428,-60167,-57894,-19531,-74301,47036
C00088=19971,-66386,-61786,-18968,-71036,45768
C00089=21520,-72007,-65353,-18402,-67900,44039
C00090=23084,-76930,-68519,-17774,-64901,41800
C00091=24682,-80960,-71148,-16987,-62096,39046
C00092=26308,-83804,-73047,-15959,-59623,35869
C00093=27888,-85103,-73979,-14718,-57697,32482
C00094=29271,-84568,-73751,-13465,-56545,29192
C00095=30285,-82122,-72292,-12510,-56309,26293
C00096=30815,-77865,-69644,-12112,-57030,23960
C00097=30838,-72010,-65930,-12366,-58663,22230
C00098=30417,-64820,-61322,-13214,-61118,21029
C00099=29662,-56567,-56017,-14508,-64274,20234
C00100=28708,-47571,-50257,-16079,-67968,19722
C00101=27691,-38211,-44320,-17778,-71992,19404
C00102=21878,40442,807,-35338,-108475,13081
//INST
///DATE 2023/03/29 19:46
///ATTR SC,RW
///GROUP1 RB1
NOP
MOVJ C00000 VJ=5.0
MOVL C00001 V=200.0
MOVL C00002 V=200.0
MOVL C00003 V=200.0
MOVL C00004 V=200.0
MOVL C00005 V=200.0
MOVL C00006 V=200.0
MOVL C00007 V=200.0
MOVL C00008 V=200.0
MOVL C00009 V=200.0
MOVL C00010 V=200.0
MOVL C00011 V=200.0
MOVL C00012 V=200.0
MOVL C00013 V=200.0
MOVL C00014 V=200.0
MOVL C00015 V=200.0
MOVL C00016 V=200.0
MOVL C00017 V=200.0
MOVL C00018 V=200.0
MOVL C00019 V=200.0
MOVL C00020 V=200.0
MOVL C00021 V=200.0
MOVL C00022 V=200.0
MOVL C00023 V=200.0
MOVL C00024 V=200.0
MOVL C00025 V=200.0
MOVL C00026 V=200.0
MOVL C00027 V=200.0
MOVL C00028 V=200.0
MOVL C00029 V=200.0
MOVL C00030 V=200.0
MOVL C00031 V=200.0
MOVL C00032 V=200.0
MOVL C00033 V=200.0
MOVL C00034 V=200.0
MOVL C00035 V=200.0
MOVL C00036 V=200.0
MOVL C00037 V=200.0
MOVL C00038 V=200.0
MOVL C00039 V=200.0
MOVL C00040 V=200.0
MOVL C00041 V=200.0
MOVL C00042 V=200.0
MOVL C00043 V=200.0
MOVL C00044 V=200.0
MOVL C00045 V=200.0
MOVL C00046 V=200.0
MOVL C00047 V=200.0
MOVL C00048 V=200.0
MOVL C00049 V=200.0
MOVL C00050 V=200.0
MOVL C00051 V=200.0
MOVL C00052 V=200.0
MOVL C00053 V=200.0
MOVL C00054 V=200.0
MOVL C00055 V=200.0
MOVL C00056 V=200.0
MOVL C00057 V=200.0
MOVL C00058 V=200.0
MOVL C00059 V=200.0
MOVL C00060 V=200.0
MOVL C00061 V=200.0
MOVL C00062 V=200.0
MOVL C00063 V=200.0
MOVL C00064 V=200.0
MOVL C00065 V=200.0
MOVL C00066 V=200.0
MOVL C00067 V=200.0
MOVL C00068 V=200.0
MOVL C00069 V=200.0
MOVL C00070 V=200.0
MOVL C00071 V=200.0
MOVL C00072 V=200.0
MOVL C00073 V=200.0
MOVL C00074 V=200.0
MOVL C00075 V=200.0
MOVL C00076 V=200.0
MOVL C00077 V=200.0
MOVL C00078 V=200.0
MOVL C00079 V=200.0
MOVL C00080 V=200.0
MOVL C00081 V=200.0
MOVL C00082 V=200.0
MOVL C00083 V=200.0
MOVL C00084 V=200.0
MOVL C00085 V=200.0
MOVL C00086 V=200.0
MOVL C00087 V=200.0
MOVL C00088 V=200.0
MOVL C00089 V=200.0
MOVL C00090 V=200.0
MOVL C00091 V=200.0
MOVL C00092 V=200.0
MOVL C00093 V=200.0
MOVL C00094 V=200.0
MOVL C00095 V=200.0
MOVL C00096 V=200.0
MOVL C00097 V=200.0
MOVL C00098 V=200.0
MOVL C00099 V=200.0
MOVL C00100 V=200.0
MOVL C00101 V=200.0
MOVL C00102 V=200.0
END
