/JOB
//NAME AAA
//POS
///NPOS 25,0,0,0,0,0
///TOOL 11
///POSTYPE PULSE
///PULSE
C00000=-97427,-120892,-97954,-125925,-122653,-598
C00001=-97427,-120892,-97954,-125925,-122653,-598
C00002=-93393,-103285,-80379,-121877,-117613,974
C00003=-95478,-96155,-67277,-117969,-113402,2272
C00004=-99322,-89267,-48356,-111203,-106823,4192
C00005=-98829,-84729,-39789,-108597,-103900,4930
C00006=-96718,-79440,-33031,-107300,-101445,5322
C00007=-93268,-73149,-28569,-107894,-100174,5339
C00008=-88320,-65139,-25703,-110716,-100015,4923
C00009=-80592,-53835,-24296,-117162,-101778,3849
C00010=-70351,-40365,-22944,-126552,-105460,2226
C00011=-60199,-27338,-19026,-136009,-109154,617
C00012=-55336,-20078,-14501,-140676,-110292,-58
C00013=-53550,-15745,-10363,-142566,-110075,-248
C00014=-54141,-13263,-6229,-142164,-108825,23
C00015=-57280,-12468,-1496,-139176,-106259,789
C00016=-63850,-14136,5149,-131944,-101552,2355
C00017=-71313,-17274,14308,-121900,-95699,4402
C00018=-76130,-18370,25723,-112421,-90698,6327
C00019=-77215,-16284,34365,-107867,-88424,7260
C00020=-77003,-13023,40313,-106317,-87324,7619
C00021=-76091,-8729,44195,-107425,-87186,7556
C00022=-74152,-3220,46010,-111537,-87878,6997
C00023=-69892,4725,45732,-120176,-90072,5639
C00024=-52226,26158,46904,-147182,-96229,650
//INST
///DATE 2023/04/18 15:56
///ATTR SC,RW
///GROUP1 RB1
NOP
MOVJ C00000 VJ=5.0
TIMER T=1.00
MOVJ C00001 VJ=1.0
TIMER T=0.10
MOVL C00002 V=333.0
MOVL C00003 V=333.0
MOVL C00004 V=333.0
MOVL C00005 V=333.0
MOVL C00006 V=333.0
MOVL C00007 V=333.0
MOVL C00008 V=333.0
MOVL C00009 V=333.0
MOVL C00010 V=333.0
MOVL C00011 V=333.0
MOVL C00012 V=333.0
MOVL C00013 V=333.0
MOVL C00014 V=333.0
MOVL C00015 V=333.0
MOVL C00016 V=333.0
MOVL C00017 V=333.0
MOVL C00018 V=333.0
MOVL C00019 V=333.0
MOVL C00020 V=333.0
MOVL C00021 V=333.0
MOVL C00022 V=333.0
MOVL C00023 V=333.0
MOVL C00024 V=333.0
END
