/JOB
//NAME AAA
//POS
///NPOS 104,0,0,0,0,0
///TOOL 11
///POSTYPE PULSE
///PULSE
C00000=-50177,3221,-14175,-13196,-96472,56033
C00001=-50177,3221,-14175,-13196,-96472,56033
C00002=-44933,-4588,-20758,-13985,-96316,55770
C00003=-44370,-5324,-21367,-14069,-96305,55734
C00004=-43828,-6151,-22034,-14184,-96251,55714
C00005=-43308,-7066,-22757,-14327,-96159,55709
C00006=-42807,-8060,-23531,-14499,-96023,55719
C00007=-42327,-9142,-24359,-14698,-95848,55744
C00008=-41866,-10310,-25241,-14922,-95633,55784
C00009=-41422,-11561,-26174,-15168,-95381,55837
C00010=-40995,-12898,-27159,-15438,-95087,55904
C00011=-40588,-14325,-28200,-15735,-94752,55985
C00012=-40197,-15840,-29292,-16055,-94379,56080
C00013=-39826,-17444,-30439,-16397,-93967,56188
C00014=-39470,-19140,-31641,-16761,-93521,56308
C00015=-39133,-20923,-32893,-17148,-93038,56441
C00016=-38810,-22792,-34199,-17558,-92517,56585
C00017=-38502,-24748,-35554,-17989,-91963,56739
C00018=-38209,-26788,-36959,-18439,-91380,56902
C00019=-37930,-28912,-38413,-18910,-90768,57073
C00020=-37661,-31110,-39908,-19401,-90126,57249
C00021=-37402,-33378,-41446,-19909,-89460,57428
C00022=-37152,-35718,-43022,-20431,-88779,57609
C00023=-36910,-38116,-44630,-20969,-88079,57788
C00024=-36670,-40567,-46266,-21520,-87364,57962
C00025=-36432,-43066,-47925,-22082,-86641,58128
C00026=-36193,-45598,-49599,-22653,-85909,58282
C00027=-35945,-48156,-51280,-23232,-85171,58419
C00028=-35692,-50732,-52965,-23813,-84437,58535
C00029=-35426,-53312,-54642,-24393,-83709,58623
C00030=-35142,-55884,-56303,-24971,-82985,58679
C00031=-34840,-58440,-57942,-25541,-82273,58697
C00032=-34513,-60963,-59551,-26099,-81574,58670
C00033=-34154,-63442,-61118,-26640,-80887,58592
C00034=-33764,-65865,-62637,-27172,-80208,58461
C00035=-33339,-68220,-64099,-27678,-79550,58267
C00036=-32867,-70484,-65490,-28153,-78907,58004
C00037=-32346,-72644,-66801,-28592,-78281,57665
C00038=-31775,-74687,-68023,-28989,-77678,57247
C00039=-31142,-76584,-69141,-29338,-77091,56745
C00040=-30443,-78313,-70140,-29626,-76526,56154
C00041=-29674,-79853,-71007,-29848,-75985,55474
C00042=-28830,-81177,-71727,-29991,-75477,54702
C00043=-27904,-82240,-72275,-30050,-74999,53842
C00044=-26889,-83022,-72641,-30002,-74565,52891
C00045=-25790,-83466,-72791,-29854,-74186,51860
C00046=-24602,-83531,-72696,-29589,-73880,50754
C00047=-23332,-83202,-72375,-29208,-73659,49584
C00048=-21983,-82417,-71771,-28708,-73551,48359
C00049=-20572,-81161,-70886,-28100,-73586,47093
C00050=-19101,-79340,-69669,-27394,-73771,45800
C00051=-17594,-76943,-68118,-26610,-74132,44498
C00052=-16075,-73996,-66248,-25776,-74704,43199
C00053=-14562,-70499,-64065,-24916,-75506,41916
C00054=-13077,-66461,-61575,-24064,-76546,40665
C00055=-11640,-61930,-58811,-23251,-77824,39457
C00056=-10264,-56957,-55810,-22503,-79333,38302
C00057=-8966,-51622,-52621,-21847,-81052,37210
C00058=-7753,-46028,-49315,-21301,-82948,36190
C00059=-6632,-40281,-45952,-20880,-84979,35252
C00060=-5601,-34494,-42611,-20589,-87103,34404
C00061=-4659,-28777,-39364,-20427,-89253,33663
C00062=-3798,-23240,-36265,-20395,-91401,33039
C00063=-3013,-17963,-33364,-20487,-93495,32551
C00064=-2295,-12986,-30691,-20687,-95506,32217
C00065=-1635,-8388,-28271,-20994,-97414,32058
C00066=-1025,-4183,-26111,-21392,-99195,32097
C00067=-452,-391,-24209,-21870,-100862,32350
C00068=94,2994,-22550,-22415,-102418,32832
C00069=625,5954,-21132,-22996,-103838,33555
C00070=1158,8460,-19953,-23586,-105129,34512
C00071=1707,10486,-19010,-24146,-106259,35684
C00072=2285,11970,-18313,-24637,-107194,37023
C00073=2903,12842,-17883,-25023,-107881,38473
C00074=3562,13011,-17756,-25275,-108258,39962
C00075=4261,12436,-17955,-25384,-108251,41423
C00076=4997,11001,-18533,-25346,-107820,42796
C00077=5759,8670,-19546,-25185,-106938,44043
C00078=6553,5415,-21029,-24912,-105575,45146
C00079=7387,1231,-23020,-24547,-103718,46102
C00080=8274,-3867,-25551,-24107,-101383,46912
C00081=9229,-9803,-28621,-23613,-98610,47580
C00082=10270,-16456,-32195,-23074,-95471,48105
C00083=11408,-23659,-36188,-22507,-92049,48478
C00084=12650,-31189,-40475,-21918,-88465,48679
C00085=13993,-38811,-44919,-21313,-84822,48676
C00086=15421,-46301,-49386,-20704,-81203,48434
C00087=16911,-53502,-53750,-20106,-77669,47906
C00088=18437,-60257,-57916,-19526,-74272,47038
C00089=19978,-66493,-61822,-18963,-71008,45771
C00090=21526,-72141,-65400,-18399,-67881,44041
C00091=23090,-77091,-68574,-17774,-64889,41802
C00092=24695,-81166,-71225,-16986,-62084,39047
C00093=26333,-84052,-73144,-15953,-59609,35866
C00094=27928,-85369,-74090,-14700,-57676,32473
C00095=29322,-84820,-73855,-13434,-56516,29178
C00096=30351,-82346,-72395,-12468,-56284,26270
C00097=30879,-78024,-69727,-12072,-57013,23936
C00098=30879,-72138,-65998,-12338,-58632,22217
C00099=30432,-64882,-61347,-13196,-61094,21025
C00100=29659,-56601,-56026,-14495,-64249,20237
C00101=28693,-47557,-50223,-16074,-67970,19727
C00102=27672,-38114,-44214,-17775,-72044,19403
C00103=21893,40785,1136,-35401,-108624,13029
//INST
///DATE 2023/04/07 14:28
///ATTR SC,RW
///GROUP1 RB1
NOP
MOVJ C00000 VJ=5.0
TIMER T=1.00
MOVJ C00001 VJ=1.0
TIMER T=0.10
MOVL C00002 V=150.0
MOVL C00003 V=150.0
MOVL C00004 V=150.0
MOVL C00005 V=150.0
MOVL C00006 V=150.0
MOVL C00007 V=150.0
MOVL C00008 V=150.0
MOVL C00009 V=150.0
MOVL C00010 V=150.0
MOVL C00011 V=150.0
MOVL C00012 V=150.0
MOVL C00013 V=150.0
MOVL C00014 V=150.0
MOVL C00015 V=150.0
MOVL C00016 V=150.0
MOVL C00017 V=150.0
MOVL C00018 V=150.0
MOVL C00019 V=150.0
MOVL C00020 V=150.0
MOVL C00021 V=150.0
MOVL C00022 V=150.0
MOVL C00023 V=150.0
MOVL C00024 V=150.0
MOVL C00025 V=150.0
MOVL C00026 V=150.0
MOVL C00027 V=150.0
MOVL C00028 V=150.0
MOVL C00029 V=150.0
MOVL C00030 V=150.0
MOVL C00031 V=150.0
MOVL C00032 V=150.0
MOVL C00033 V=150.0
MOVL C00034 V=150.0
MOVL C00035 V=150.0
MOVL C00036 V=150.0
MOVL C00037 V=150.0
MOVL C00038 V=150.0
MOVL C00039 V=150.0
MOVL C00040 V=150.0
MOVL C00041 V=150.0
MOVL C00042 V=150.0
MOVL C00043 V=150.0
MOVL C00044 V=150.0
MOVL C00045 V=150.0
MOVL C00046 V=150.0
MOVL C00047 V=150.0
MOVL C00048 V=150.0
MOVL C00049 V=150.0
MOVL C00050 V=150.0
MOVL C00051 V=150.0
MOVL C00052 V=150.0
MOVL C00053 V=150.0
MOVL C00054 V=150.0
MOVL C00055 V=150.0
MOVL C00056 V=150.0
MOVL C00057 V=150.0
MOVL C00058 V=150.0
MOVL C00059 V=150.0
MOVL C00060 V=150.0
MOVL C00061 V=150.0
MOVL C00062 V=150.0
MOVL C00063 V=150.0
MOVL C00064 V=150.0
MOVL C00065 V=150.0
MOVL C00066 V=150.0
MOVL C00067 V=150.0
MOVL C00068 V=150.0
MOVL C00069 V=150.0
MOVL C00070 V=150.0
MOVL C00071 V=150.0
MOVL C00072 V=150.0
MOVL C00073 V=150.0
MOVL C00074 V=150.0
MOVL C00075 V=150.0
MOVL C00076 V=150.0
MOVL C00077 V=150.0
MOVL C00078 V=150.0
MOVL C00079 V=150.0
MOVL C00080 V=150.0
MOVL C00081 V=150.0
MOVL C00082 V=150.0
MOVL C00083 V=150.0
MOVL C00084 V=150.0
MOVL C00085 V=150.0
MOVL C00086 V=150.0
MOVL C00087 V=150.0
MOVL C00088 V=150.0
MOVL C00089 V=150.0
MOVL C00090 V=150.0
MOVL C00091 V=150.0
MOVL C00092 V=150.0
MOVL C00093 V=150.0
MOVL C00094 V=150.0
MOVL C00095 V=150.0
MOVL C00096 V=150.0
MOVL C00097 V=150.0
MOVL C00098 V=150.0
MOVL C00099 V=150.0
MOVL C00100 V=150.0
MOVL C00101 V=150.0
MOVL C00102 V=150.0
MOVL C00103 V=150.0
END
