/JOB
//NAME AAA
//POS
///NPOS 55,0,0,0,0,0
///TOOL 11
///POSTYPE PULSE
///PULSE
C00000=-69225,-24402,-35457,-12923,-66461,76908
C00001=-69225,-24402,-35457,-12923,-66461,76908
C00002=-69769,-31928,-44665,-20683,-70013,74044
C00003=-69281,-32974,-45966,-21366,-70880,72942
C00004=-68723,-33878,-47103,-22039,-71798,71805
C00005=-68138,-34720,-48166,-22774,-72731,70668
C00006=-67564,-35559,-49210,-23627,-73653,69571
C00007=-66945,-36371,-50204,-24525,-74570,68476
C00008=-66265,-37159,-51147,-25454,-75479,67380
C00009=-65513,-37933,-52042,-26405,-76375,66283
C00010=-64686,-38729,-52916,-27391,-77240,65193
C00011=-63778,-39580,-53789,-28416,-78066,64113
C00012=-62767,-40515,-54673,-29485,-78838,63038
C00013=-61624,-41530,-55553,-30578,-79556,61958
C00014=-60309,-42599,-56392,-31667,-80227,60857
C00015=-58778,-43670,-57137,-32725,-80856,59721
C00016=-56982,-44691,-57738,-33730,-81456,58532
C00017=-54849,-45618,-58145,-34675,-82038,57267
C00018=-52288,-46397,-58298,-35553,-82600,55905
C00019=-49155,-46946,-58103,-36349,-83145,54410
C00020=-45131,-47119,-57385,-37035,-83689,52697
C00021=-39497,-46574,-55709,-37510,-84247,50592
C00022=-33647,-45270,-53348,-37444,-84657,48708
C00023=-28425,-43472,-50768,-36960,-85002,47209
C00024=-23890,-41401,-48173,-36216,-85368,46017
C00025=-19751,-39185,-45585,-35298,-85759,45008
C00026=-15866,-36895,-43018,-34231,-86179,44124
C00027=-12161,-34567,-40486,-33038,-86625,43335
C00028=-8582,-32186,-37974,-31726,-87111,42615
C00029=-5095,-29735,-35471,-30307,-87654,41949
C00030=-1681,-27209,-32980,-28793,-88263,41324
C00031=1673,-24612,-30507,-27198,-88940,40733
C00032=4986,-21949,-28061,-25531,-89681,40170
C00033=8246,-19240,-25668,-23815,-90483,39633
C00034=11479,-16475,-23322,-22052,-91348,39113
C00035=14684,-13641,-21024,-20257,-92276,38608
C00036=17844,-10736,-18789,-18455,-93269,38115
C00037=20960,-7746,-16612,-16663,-94332,37627
C00038=24019,-4660,-14495,-14900,-95470,37142
C00039=27024,-1443,-12421,-13181,-96693,36651
C00040=29952,1914,-10390,-11537,-98003,36150
C00041=32800,5451,-8388,-9986,-99408,35633
C00042=35562,9200,-6390,-8546,-100933,35088
C00043=38219,13192,-4387,-7249,-102580,34508
C00044=40757,17425,-2385,-6118,-104341,33886
C00045=43168,21871,-400,-5178,-106202,33214
C00046=45445,26494,1531,-4444,-108121,32491
C00047=47593,31272,3396,-3931,-110092,31707
C00048=49596,36232,5200,-3671,-112115,30851
C00049=51438,41393,6947,-3708,-114199,29905
C00050=53115,46723,8596,-4071,-116312,28855
C00051=54645,52139,10089,-4782,-118402,27694
C00052=56021,57631,11403,-5867,-120449,26411
C00053=57308,62929,12396,-7264,-122273,25047
C00054=61363,80832,14399,-14573,-127200,19769
//INST
///DATE 2023/04/12 17:01
///ATTR SC,RW
///GROUP1 RB1
NOP
MOVJ C00000 VJ=5.0
TIMER T=1.00
MOVJ C00001 VJ=1.0
TIMER T=0.10
MOVL C00002 V=400.0
MOVL C00003 V=400.0
MOVL C00004 V=400.0
MOVL C00005 V=400.0
MOVL C00006 V=400.0
MOVL C00007 V=400.0
MOVL C00008 V=400.0
MOVL C00009 V=400.0
MOVL C00010 V=400.0
MOVL C00011 V=400.0
MOVL C00012 V=400.0
MOVL C00013 V=400.0
MOVL C00014 V=400.0
MOVL C00015 V=400.0
MOVL C00016 V=400.0
MOVL C00017 V=400.0
MOVL C00018 V=400.0
MOVL C00019 V=400.0
MOVL C00020 V=400.0
MOVL C00021 V=400.0
MOVL C00022 V=400.0
MOVL C00023 V=400.0
MOVL C00024 V=400.0
MOVL C00025 V=400.0
MOVL C00026 V=400.0
MOVL C00027 V=400.0
MOVL C00028 V=400.0
MOVL C00029 V=400.0
MOVL C00030 V=400.0
MOVL C00031 V=400.0
MOVL C00032 V=400.0
MOVL C00033 V=400.0
MOVL C00034 V=400.0
MOVL C00035 V=400.0
MOVL C00036 V=400.0
MOVL C00037 V=400.0
MOVL C00038 V=400.0
MOVL C00039 V=400.0
MOVL C00040 V=400.0
MOVL C00041 V=400.0
MOVL C00042 V=400.0
MOVL C00043 V=400.0
MOVL C00044 V=400.0
MOVL C00045 V=400.0
MOVL C00046 V=400.0
MOVL C00047 V=400.0
MOVL C00048 V=400.0
MOVL C00049 V=400.0
MOVL C00050 V=400.0
MOVL C00051 V=400.0
MOVL C00052 V=400.0
MOVL C00053 V=400.0
MOVL C00054 V=400.0
END
