/JOB
//NAME AAA
//POS
///NPOS 102,0,0,0,0,0
///TOOL 11
///POSTYPE PULSE
///PULSE
C00000=-47524,-870,-18177,-13425,-95723,55975
C00001=-47524,-870,-18177,-13425,-95723,55975
C00002=-44263,-5403,-21760,-13997,-95921,55745
C00003=-43706,-6204,-22434,-14116,-95830,55725
C00004=-43187,-7119,-23153,-14262,-95736,55721
C00005=-42692,-8135,-23941,-14433,-95606,55733
C00006=-42217,-9232,-24772,-14636,-95436,55760
C00007=-41755,-10395,-25648,-14868,-95212,55801
C00008=-41311,-11647,-26588,-15116,-94956,55855
C00009=-40884,-12998,-27584,-15382,-94661,55922
C00010=-40471,-14418,-28606,-15683,-94325,56002
C00011=-40081,-15941,-29702,-16003,-93951,56097
C00012=-39706,-17545,-30857,-16347,-93530,56206
C00013=-39351,-19245,-32064,-16711,-93080,56327
C00014=-39008,-21022,-33294,-17103,-92601,56458
C00015=-38684,-22900,-34616,-17512,-92069,56603
C00016=-38372,-24851,-35967,-17944,-91513,56756
C00017=-38070,-26877,-37354,-18399,-90926,56917
C00018=-37794,-29008,-38825,-18870,-90311,57090
C00019=-37522,-31204,-40302,-19362,-89678,57264
C00020=-37254,-33455,-41842,-19873,-88996,57443
C00021=-36997,-35792,-43395,-20397,-88317,57621
C00022=-36753,-38191,-45007,-20935,-87618,57800
C00023=-36502,-40631,-46657,-21486,-86883,57974
C00024=-36256,-43114,-48280,-22052,-86164,58137
C00025=-36016,-45658,-49975,-22623,-85427,58293
C00026=-35757,-48192,-51648,-23201,-84678,58428
C00027=-35498,-50766,-53324,-23783,-83942,58543
C00028=-35229,-53339,-55003,-24364,-83211,58632
C00029=-34929,-55889,-56644,-24941,-82475,58684
C00030=-34612,-58423,-58250,-25511,-81761,58698
C00031=-34279,-60935,-59870,-26065,-81055,58671
C00032=-33912,-63399,-61427,-26594,-80373,58588
C00033=-33513,-65794,-62919,-27120,-79698,58454
C00034=-33089,-68144,-64377,-27628,-79046,58261
C00035=-32610,-70390,-65765,-28099,-78395,57997
C00036=-32085,-72538,-67072,-28534,-77765,57658
C00037=-31507,-74554,-68274,-28925,-77165,57238
C00038=-30873,-76415,-69366,-29270,-76583,56735
C00039=-30172,-78126,-70367,-29550,-76020,56144
C00040=-29392,-79620,-71191,-29762,-75480,55459
C00041=-28547,-80922,-71897,-29892,-74980,54684
C00042=-27625,-81966,-72428,-29940,-74516,53822
C00043=-26596,-82753,-72805,-29858,-74084,52860
C00044=-25495,-83172,-72951,-29693,-73715,51826
C00045=-24311,-83175,-72795,-29420,-73431,50716
C00046=-23050,-82830,-72488,-29032,-73207,49550
C00047=-21709,-81975,-71843,-28529,-73100,48327
C00048=-20311,-80760,-70994,-27910,-73166,47060
C00049=-18861,-78947,-69786,-27203,-73373,45770
C00050=-17355,-76517,-68215,-26401,-73749,44463
C00051=-15865,-73575,-66344,-25580,-74326,43176
C00052=-14370,-70073,-64172,-24722,-75134,41900
C00053=-12888,-66054,-61672,-23852,-76227,40639
C00054=-11459,-61502,-58915,-23028,-77516,39433
C00055=-10094,-56601,-55947,-22282,-79064,38277
C00056=-8791,-51225,-52743,-21605,-80825,37179
C00057=-7593,-45661,-49464,-21062,-82712,36170
C00058=-6481,-39922,-46087,-20635,-84753,35239
C00059=-5456,-34169,-42752,-20347,-86906,34394
C00060=-4533,-28504,-39563,-20197,-89043,33667
C00061=-3681,-23007,-36474,-20169,-91193,33051
C00062=-2901,-17819,-33607,-20272,-93301,32566
C00063=-2181,-12845,-30963,-20468,-95326,32234
C00064=-1520,-8289,-28529,-20778,-97246,32077
C00065=-909,-4094,-26405,-21168,-99012,32124
C00066=-333,-355,-24523,-21647,-100675,32380
C00067=211,3020,-22869,-22193,-102220,32867
C00068=743,5916,-21491,-22781,-103634,33594
C00069=1277,8404,-20310,-23375,-104917,34553
C00070=1824,10412,-19378,-23945,-106031,35727
C00071=2406,11869,-18686,-24440,-106956,37068
C00072=3019,12710,-18267,-24840,-107627,38519
C00073=3684,12841,-18154,-25093,-107982,40010
C00074=4390,12266,-18374,-25205,-107933,41474
C00075=5138,10703,-18995,-25152,-107478,42846
C00076=5905,8378,-20022,-25001,-106538,44097
C00077=6687,5103,-21535,-24747,-105185,45196
C00078=7524,935,-23498,-24397,-103300,46149
C00079=8424,-4198,-26069,-23954,-100902,46960
C00080=9399,-10198,-29174,-23446,-98067,47627
C00081=10457,-16962,-32830,-22889,-94862,48151
C00082=11603,-24105,-36786,-22332,-91426,48517
C00083=12863,-31659,-41101,-21729,-87791,48712
C00084=14218,-39236,-45502,-21116,-84146,48698
C00085=15651,-46578,-49914,-20505,-80536,48446
C00086=17149,-53773,-54290,-19887,-76989,47911
C00087=18652,-60324,-58317,-19318,-73669,47034
C00088=20178,-66467,-62205,-18748,-70431,45761
C00089=21704,-71964,-65700,-18183,-67335,44030
C00090=23246,-76795,-68799,-17550,-64363,41791
C00091=24810,-80786,-71402,-16770,-61600,39039
C00092=26400,-83571,-73241,-15747,-59167,35866
C00093=27977,-84911,-74224,-14480,-57258,32470
C00094=29335,-84340,-73953,-13201,-56114,29181
C00095=30371,-81912,-72519,-12215,-55928,26260
C00096=30886,-77627,-69903,-11827,-56659,23934
C00097=30924,-71856,-66228,-12076,-58303,22203
C00098=30480,-64681,-61621,-12944,-60773,21019
C00099=29729,-56519,-56351,-14239,-63925,20234
C00100=28770,-47429,-50479,-15824,-67723,19723
C00101=24094,4810,-18352,-25307,-90968,16912
//INST
///DATE 2023/05/11 13:38
///ATTR SC,RW
///GROUP1 RB1
NOP
MOVJ C00000 VJ=5.0
TIMER T=1.00
MOVJ C00001 VJ=1.0
TIMER T=0.10
MOVL C00002 V=150.0
MOVL C00003 V=150.0
MOVL C00004 V=150.0
MOVL C00005 V=150.0
MOVL C00006 V=150.0
MOVL C00007 V=150.0
MOVL C00008 V=150.0
MOVL C00009 V=150.0
MOVL C00010 V=150.0
MOVL C00011 V=150.0
MOVL C00012 V=150.0
MOVL C00013 V=150.0
MOVL C00014 V=150.0
MOVL C00015 V=150.0
MOVL C00016 V=150.0
MOVL C00017 V=150.0
MOVL C00018 V=150.0
MOVL C00019 V=150.0
MOVL C00020 V=150.0
MOVL C00021 V=150.0
MOVL C00022 V=150.0
MOVL C00023 V=150.0
MOVL C00024 V=150.0
MOVL C00025 V=150.0
MOVL C00026 V=150.0
MOVL C00027 V=150.0
MOVL C00028 V=150.0
MOVL C00029 V=150.0
MOVL C00030 V=150.0
MOVL C00031 V=150.0
MOVL C00032 V=150.0
MOVL C00033 V=150.0
MOVL C00034 V=150.0
MOVL C00035 V=150.0
MOVL C00036 V=150.0
MOVL C00037 V=150.0
MOVL C00038 V=150.0
MOVL C00039 V=150.0
MOVL C00040 V=150.0
MOVL C00041 V=150.0
MOVL C00042 V=150.0
MOVL C00043 V=150.0
MOVL C00044 V=150.0
MOVL C00045 V=150.0
MOVL C00046 V=150.0
MOVL C00047 V=150.0
MOVL C00048 V=150.0
MOVL C00049 V=150.0
MOVL C00050 V=150.0
MOVL C00051 V=150.0
MOVL C00052 V=150.0
MOVL C00053 V=150.0
MOVL C00054 V=150.0
MOVL C00055 V=150.0
MOVL C00056 V=150.0
MOVL C00057 V=150.0
MOVL C00058 V=150.0
MOVL C00059 V=150.0
MOVL C00060 V=150.0
MOVL C00061 V=150.0
MOVL C00062 V=150.0
MOVL C00063 V=150.0
MOVL C00064 V=150.0
MOVL C00065 V=150.0
MOVL C00066 V=150.0
MOVL C00067 V=150.0
MOVL C00068 V=150.0
MOVL C00069 V=150.0
MOVL C00070 V=150.0
MOVL C00071 V=150.0
MOVL C00072 V=150.0
MOVL C00073 V=150.0
MOVL C00074 V=150.0
MOVL C00075 V=150.0
MOVL C00076 V=150.0
MOVL C00077 V=150.0
MOVL C00078 V=150.0
MOVL C00079 V=150.0
MOVL C00080 V=150.0
MOVL C00081 V=150.0
MOVL C00082 V=150.0
MOVL C00083 V=150.0
MOVL C00084 V=150.0
MOVL C00085 V=150.0
MOVL C00086 V=150.0
MOVL C00087 V=150.0
MOVL C00088 V=150.0
MOVL C00089 V=150.0
MOVL C00090 V=150.0
MOVL C00091 V=150.0
MOVL C00092 V=150.0
MOVL C00093 V=150.0
MOVL C00094 V=150.0
MOVL C00095 V=150.0
MOVL C00096 V=150.0
MOVL C00097 V=150.0
MOVL C00098 V=150.0
MOVL C00099 V=150.0
MOVL C00100 V=150.0
MOVL C00101 V=150.0
END
