/JOB
//NAME AAA
//POS
///NPOS 26,0,0,0,0,0
///TOOL 11
///POSTYPE PULSE
///PULSE
C00000=46899,-6808,-17083,-33627,-84508,21222
C00001=46899,-6808,-17083,-33627,-84508,21222
C00002=42069,-9674,-17867,-23884,-86429,22146
C00003=40782,-12972,-19401,-20109,-86031,22693
C00004=39601,-15404,-20176,-16190,-86464,23113
C00005=38432,-18487,-21154,-12149,-86862,23574
C00006=37097,-21568,-21907,-8085,-87659,23982
C00007=35390,-25184,-22692,-4057,-88597,24376
C00008=33123,-29957,-23731,42,-89375,24836
C00009=29743,-36799,-25213,4296,-89581,25457
C00010=22599,-48187,-27254,8578,-88127,26431
C00011=14266,-56620,-28195,8743,-85100,26900
C00012=4268,-62803,-28535,5928,-81076,27087
C00013=-6118,-65893,-28229,697,-77288,26731
C00014=-16256,-66027,-27141,-5714,-74409,25943
C00015=-25720,-63534,-25192,-12672,-72718,24767
C00016=-33979,-58269,-22033,-19331,-72476,23335
C00017=-40839,-50571,-17573,-25295,-73532,21752
C00018=-46436,-41035,-12030,-30572,-75565,20143
C00019=-51033,-30187,-5788,-35480,-78203,18568
C00020=-54903,-18487,707,-40476,-81092,17040
C00021=-58216,-6275,6966,-45958,-83936,15559
C00022=-60891,6367,12907,-51924,-86567,14131
C00023=-63026,19006,17851,-58712,-88666,12750
C00024=-64517,31360,21311,-66471,-89970,11394
C00025=-64829,58727,29145,-83427,-91015,8508
//INST
///DATE 2023/04/17 12:26
///ATTR SC,RW
///GROUP1 RB1
NOP
MOVJ C00000 VJ=5.0
TIMER T=1.00
MOVJ C00001 VJ=1.0
TIMER T=0.10
MOVL C00002 V=580.0
MOVL C00003 V=580.0
MOVL C00004 V=580.0
MOVL C00005 V=580.0
MOVL C00006 V=580.0
MOVL C00007 V=580.0
MOVL C00008 V=580.0
MOVL C00009 V=580.0
MOVL C00010 V=580.0
MOVL C00011 V=580.0
MOVL C00012 V=580.0
MOVL C00013 V=580.0
MOVL C00014 V=580.0
MOVL C00015 V=580.0
MOVL C00016 V=580.0
MOVL C00017 V=580.0
MOVL C00018 V=580.0
MOVL C00019 V=580.0
MOVL C00020 V=580.0
MOVL C00021 V=580.0
MOVL C00022 V=580.0
MOVL C00023 V=580.0
MOVL C00024 V=580.0
MOVL C00025 V=580.0
END
