/JOB
//NAME AAA
//POS
///NPOS 102,0,0,0,0,0
///TOOL 11
///POSTYPE PULSE
///PULSE
C00000=-52761,7950,-10142,-12788,-96529,56153
C00001=-52761,7950,-10142,-12788,-96529,56153
C00002=-44337,-5262,-21369,-14063,-96252,55729
C00003=-43795,-6091,-22039,-14179,-96195,55709
C00004=-43276,-7010,-22764,-14324,-96101,55705
C00005=-42775,-8007,-23540,-14496,-95964,55716
C00006=-42296,-9091,-24370,-14696,-95786,55742
C00007=-41835,-10262,-25253,-14921,-95569,55782
C00008=-41392,-11521,-26191,-15169,-95315,55836
C00009=-40966,-12861,-27178,-15440,-95020,55903
C00010=-40559,-14289,-28218,-15738,-94682,55985
C00011=-40168,-15806,-29313,-16059,-94306,56080
C00012=-39797,-17417,-30464,-16403,-93892,56189
C00013=-39442,-19115,-31667,-16768,-93444,56310
C00014=-39105,-20902,-32922,-17156,-92959,56443
C00015=-38783,-22776,-34230,-17567,-92436,56588
C00016=-38474,-24734,-35587,-17999,-91879,56742
C00017=-38181,-26776,-36993,-18451,-91293,56906
C00018=-37903,-28906,-38450,-18922,-90681,57077
C00019=-37634,-31103,-39946,-19414,-90037,57254
C00020=-37373,-33374,-41486,-19923,-89367,57434
C00021=-37124,-35716,-43063,-20446,-88685,57615
C00022=-36882,-38116,-44672,-20984,-87986,57794
C00023=-36639,-40565,-46308,-21536,-87267,57968
C00024=-36401,-43065,-47967,-22097,-86544,58134
C00025=-36161,-45595,-49639,-22669,-85812,58288
C00026=-35912,-48151,-51319,-23247,-85074,58425
C00027=-35655,-50724,-53000,-23829,-84338,58540
C00028=-35390,-53302,-54676,-24408,-83612,58628
C00029=-35103,-55868,-56333,-24985,-82887,58683
C00030=-34798,-58417,-57967,-25554,-82175,58700
C00031=-34469,-60936,-59573,-26111,-81477,58673
C00032=-34108,-63406,-61134,-26650,-80791,58594
C00033=-33715,-65816,-62642,-27178,-80114,58461
C00034=-33287,-68163,-64099,-27682,-79457,58266
C00035=-32810,-70415,-65481,-28154,-78814,58000
C00036=-32287,-72560,-66782,-28590,-78191,57660
C00037=-31715,-74589,-67995,-28984,-77591,57241
C00038=-31079,-76468,-69100,-29328,-77007,56737
C00039=-30376,-78179,-70088,-29613,-76442,56145
C00040=-29605,-79698,-70942,-29830,-75904,55463
C00041=-28760,-81002,-71650,-29970,-75398,54690
C00042=-27833,-82040,-72182,-30023,-74924,53828
C00043=-26819,-82802,-72537,-29973,-74494,52877
C00044=-25720,-83222,-72673,-29821,-74119,51845
C00045=-24534,-83261,-72561,-29554,-73818,50738
C00046=-23269,-82913,-72233,-29171,-73600,49569
C00047=-21926,-82103,-71614,-28671,-73498,48345
C00048=-20518,-80829,-70718,-28062,-73538,47080
C00049=-19055,-79002,-69499,-27356,-73729,45789
C00050=-17557,-76589,-67939,-26575,-74093,44489
C00051=-16045,-73639,-66069,-25741,-74671,43191
C00052=-14540,-70141,-63885,-24884,-75478,41911
C00053=-13062,-66109,-61397,-24034,-76523,40662
C00054=-11631,-61581,-58635,-23221,-77805,39456
C00055=-10261,-56617,-55637,-22476,-79317,38302
C00056=-8967,-51291,-52451,-21821,-81040,37211
C00057=-7760,-45709,-49149,-21277,-82939,36193
C00058=-6643,-39969,-45791,-20856,-84970,35257
C00059=-5614,-34199,-42455,-20565,-87096,34411
C00060=-4672,-28493,-39208,-20404,-89252,33669
C00061=-3813,-22964,-36116,-20372,-91396,33047
C00062=-3029,-17699,-33219,-20464,-93491,32558
C00063=-2310,-12733,-30548,-20665,-95502,32225
C00064=-1648,-8150,-28134,-20972,-97409,32065
C00065=-1036,-3950,-25976,-21370,-99190,32104
C00066=-461,-166,-24076,-21848,-100855,32357
C00067=87,3204,-22423,-22394,-102409,32838
C00068=622,6159,-21007,-22975,-103827,33562
C00069=1159,8652,-19833,-23566,-105114,34518
C00070=1712,10666,-18894,-24127,-106239,35689
C00071=2295,12134,-18204,-24619,-107167,37029
C00072=2917,12987,-17783,-25005,-107847,38479
C00073=3581,13131,-17666,-25257,-108214,39968
C00074=4284,12524,-17884,-25364,-108196,41430
C00075=5023,11074,-18470,-25325,-107751,42804
C00076=5790,8704,-19505,-25160,-106855,44052
C00077=6586,5412,-21011,-24884,-105476,45157
C00078=7423,1199,-23016,-24517,-103604,46113
C00079=8316,-3925,-25574,-24074,-101248,46924
C00080=9278,-9886,-28669,-23576,-98451,47593
C00081=10323,-16562,-32259,-23035,-95301,48117
C00082=11469,-23774,-36265,-22465,-91868,48488
C00083=12714,-31295,-40557,-21873,-88279,48686
C00084=14059,-38895,-44997,-21268,-84636,48682
C00085=15490,-46355,-49455,-20656,-81021,48436
C00086=16976,-53500,-53792,-20059,-77502,47907
C00087=18497,-60206,-57933,-19479,-74117,47037
C00088=20028,-66387,-61811,-18920,-70869,45770
C00089=21560,-71977,-65355,-18362,-67761,44043
C00090=23105,-76877,-68501,-17745,-64787,41808
C00091=24683,-80915,-71128,-16972,-62004,39059
C00092=26295,-83777,-73029,-15953,-59546,35886
C00093=27869,-85093,-73973,-14713,-57625,32500
C00094=29245,-84563,-73746,-13456,-56470,29212
C00095=30271,-82143,-72315,-12488,-56236,26305
C00096=30805,-77878,-69682,-12082,-56957,23969
C00097=30811,-72036,-65977,-12337,-58569,22248
C00098=30374,-64831,-61357,-13183,-61020,21054
C00099=29612,-56575,-56045,-14472,-64174,20262
C00100=28675,-47523,-50201,-16013,-67917,19738
C00101=21395,68807,10478,-48498,-122477,7580
//INST
///DATE 2023/09/08 16:28
///ATTR SC,RW
///GROUP1 RB1
NOP
MOVJ C00000 VJ=5.0
TIMER T=1.00
MOVJ C00001 VJ=1.0
TIMER T=0.10
MOVL C00002 V=150.0
MOVL C00003 V=150.0
MOVL C00004 V=150.0
MOVL C00005 V=150.0
MOVL C00006 V=150.0
MOVL C00007 V=150.0
MOVL C00008 V=150.0
MOVL C00009 V=150.0
MOVL C00010 V=150.0
MOVL C00011 V=150.0
MOVL C00012 V=150.0
MOVL C00013 V=150.0
MOVL C00014 V=150.0
MOVL C00015 V=150.0
MOVL C00016 V=150.0
MOVL C00017 V=150.0
MOVL C00018 V=150.0
MOVL C00019 V=150.0
MOVL C00020 V=150.0
MOVL C00021 V=150.0
MOVL C00022 V=150.0
MOVL C00023 V=150.0
MOVL C00024 V=150.0
MOVL C00025 V=150.0
MOVL C00026 V=150.0
MOVL C00027 V=150.0
MOVL C00028 V=150.0
MOVL C00029 V=150.0
MOVL C00030 V=150.0
MOVL C00031 V=150.0
MOVL C00032 V=150.0
MOVL C00033 V=150.0
MOVL C00034 V=150.0
MOVL C00035 V=150.0
MOVL C00036 V=150.0
MOVL C00037 V=150.0
MOVL C00038 V=150.0
MOVL C00039 V=150.0
MOVL C00040 V=150.0
MOVL C00041 V=150.0
MOVL C00042 V=150.0
MOVL C00043 V=150.0
MOVL C00044 V=150.0
MOVL C00045 V=150.0
MOVL C00046 V=150.0
MOVL C00047 V=150.0
MOVL C00048 V=150.0
MOVL C00049 V=150.0
MOVL C00050 V=150.0
MOVL C00051 V=150.0
MOVL C00052 V=150.0
MOVL C00053 V=150.0
MOVL C00054 V=150.0
MOVL C00055 V=150.0
MOVL C00056 V=150.0
MOVL C00057 V=150.0
MOVL C00058 V=150.0
MOVL C00059 V=150.0
MOVL C00060 V=150.0
MOVL C00061 V=150.0
MOVL C00062 V=150.0
MOVL C00063 V=150.0
MOVL C00064 V=150.0
MOVL C00065 V=150.0
MOVL C00066 V=150.0
MOVL C00067 V=150.0
MOVL C00068 V=150.0
MOVL C00069 V=150.0
MOVL C00070 V=150.0
MOVL C00071 V=150.0
MOVL C00072 V=150.0
MOVL C00073 V=150.0
MOVL C00074 V=150.0
MOVL C00075 V=150.0
MOVL C00076 V=150.0
MOVL C00077 V=150.0
MOVL C00078 V=150.0
MOVL C00079 V=150.0
MOVL C00080 V=150.0
MOVL C00081 V=150.0
MOVL C00082 V=150.0
MOVL C00083 V=150.0
MOVL C00084 V=150.0
MOVL C00085 V=150.0
MOVL C00086 V=150.0
MOVL C00087 V=150.0
MOVL C00088 V=150.0
MOVL C00089 V=150.0
MOVL C00090 V=150.0
MOVL C00091 V=150.0
MOVL C00092 V=150.0
MOVL C00093 V=150.0
MOVL C00094 V=150.0
MOVL C00095 V=150.0
MOVL C00096 V=150.0
MOVL C00097 V=150.0
MOVL C00098 V=150.0
MOVL C00099 V=150.0
MOVL C00100 V=150.0
MOVL C00101 V=150.0
END
