/JOB
//NAME AAA
//POS
///NPOS 56,0,0,0,0,0
///TOOL 11
///POSTYPE PULSE
///PULSE
C00000=-69192,-24452,-35481,-12869,-66474,76882
C00001=-69192,-24452,-35481,-12869,-66474,76882
C00002=-69794,-31949,-44691,-20700,-70010,74057
C00003=-69304,-32997,-45996,-21372,-70877,72952
C00004=-68741,-33899,-47131,-22037,-71797,71811
C00005=-68156,-34739,-48192,-22770,-72731,70674
C00006=-67582,-35580,-49238,-23623,-73654,69577
C00007=-66962,-36393,-50233,-24523,-74571,68481
C00008=-66282,-37182,-51177,-25452,-75481,67385
C00009=-65529,-37956,-52072,-26402,-76377,66288
C00010=-64700,-38751,-52944,-27388,-77243,65198
C00011=-63791,-39607,-53821,-28413,-78069,64117
C00012=-62781,-40539,-54703,-29482,-78841,63043
C00013=-61636,-41557,-55584,-30576,-79560,61962
C00014=-60321,-42628,-56423,-31666,-80232,60861
C00015=-58790,-43698,-57167,-32725,-80860,59725
C00016=-56992,-44722,-57768,-33730,-81460,58536
C00017=-54858,-45651,-58175,-34675,-82042,57270
C00018=-52297,-46428,-58325,-35553,-82605,55907
C00019=-49162,-46974,-58125,-36348,-83151,54411
C00020=-45135,-47145,-57406,-37035,-83693,52698
C00021=-39501,-46596,-55725,-37510,-84251,50593
C00022=-33650,-45292,-53363,-37444,-84660,48709
C00023=-28428,-43486,-50775,-36963,-85004,47209
C00024=-23895,-41413,-48178,-36219,-85372,46018
C00025=-19754,-39194,-45586,-35302,-85763,45008
C00026=-15870,-36901,-43017,-34235,-86184,44125
C00027=-12166,-34570,-40481,-33042,-86629,43336
C00028=-8586,-32187,-37966,-31731,-87116,42616
C00029=-5101,-29732,-35458,-30312,-87659,41950
C00030=-1685,-27204,-32962,-28798,-88268,41324
C00031=1670,-24604,-30486,-27203,-88947,40733
C00032=4982,-21935,-28031,-25536,-89689,40170
C00033=8242,-19225,-25638,-23820,-90491,39633
C00034=11477,-16463,-23290,-22056,-91357,39112
C00035=14683,-13626,-20986,-20260,-92286,38607
C00036=17845,-10720,-18747,-18457,-93280,38113
C00037=20962,-7730,-16569,-16664,-94344,37625
C00038=24022,-4646,-14452,-14901,-95483,37139
C00039=27031,-1430,-12376,-13181,-96706,36648
C00040=29961,1925,-10345,-11535,-98017,36147
C00041=32807,5462,-8347,-9984,-99419,35631
C00042=35571,9207,-6352,-8544,-100944,35086
C00043=38228,13199,-4352,-7246,-102592,34505
C00044=40767,17433,-2351,-6115,-104351,33884
C00045=43179,21878,-368,-5175,-106215,33211
C00046=45454,26505,1562,-4441,-108132,32489
C00047=47603,31280,3424,-3928,-110103,31705
C00048=49606,36241,5227,-3667,-112126,30849
C00049=51447,41403,6973,-3705,-114209,29903
C00050=53122,46740,8621,-4065,-116321,28855
C00051=54651,52155,10111,-4778,-118411,27693
C00052=56025,57651,11423,-5863,-120458,26410
C00053=57312,62920,12405,-7259,-122265,25050
C00054=58479,68155,13214,-9097,-123927,23556
C00055=61616,83455,14000,-14736,-129175,20555
//INST
///DATE 2023/04/10 17:44
///ATTR SC,RW
///GROUP1 RB1
NOP
MOVJ C00000 VJ=5.0
TIMER T=1.00
MOVJ C00001 VJ=1.0
TIMER T=0.10
MOVL C00002 V=400.0
MOVL C00003 V=400.0
MOVL C00004 V=400.0
MOVL C00005 V=400.0
MOVL C00006 V=400.0
MOVL C00007 V=400.0
MOVL C00008 V=400.0
MOVL C00009 V=400.0
MOVL C00010 V=400.0
MOVL C00011 V=400.0
MOVL C00012 V=400.0
MOVL C00013 V=400.0
MOVL C00014 V=400.0
MOVL C00015 V=400.0
MOVL C00016 V=400.0
MOVL C00017 V=400.0
MOVL C00018 V=400.0
MOVL C00019 V=400.0
MOVL C00020 V=400.0
MOVL C00021 V=400.0
MOVL C00022 V=400.0
MOVL C00023 V=400.0
MOVL C00024 V=400.0
MOVL C00025 V=400.0
MOVL C00026 V=400.0
MOVL C00027 V=400.0
MOVL C00028 V=400.0
MOVL C00029 V=400.0
MOVL C00030 V=400.0
MOVL C00031 V=400.0
MOVL C00032 V=400.0
MOVL C00033 V=400.0
MOVL C00034 V=400.0
MOVL C00035 V=400.0
MOVL C00036 V=400.0
MOVL C00037 V=400.0
MOVL C00038 V=400.0
MOVL C00039 V=400.0
MOVL C00040 V=400.0
MOVL C00041 V=400.0
MOVL C00042 V=400.0
MOVL C00043 V=400.0
MOVL C00044 V=400.0
MOVL C00045 V=400.0
MOVL C00046 V=400.0
MOVL C00047 V=400.0
MOVL C00048 V=400.0
MOVL C00049 V=400.0
MOVL C00050 V=400.0
MOVL C00051 V=400.0
MOVL C00052 V=400.0
MOVL C00053 V=400.0
MOVL C00054 V=400.0
MOVL C00055 V=400.0
END
