hehonglu123/Motion-Primitive-Planning/ILC/recorded_data/realrobot/from_NX/iteration_14/run_4.csv
timestamp, cmd_num, J1, J2, J3, J4, J5, J6
0.000425, -1, 39.6302, 32.447, 11.8319, 12.5454, 113.713, -48.8723
0.004337, -1, 39.6302, 32.447, 11.8319, 12.5453, 113.713, -48.8723
0.007749, -1, 39.6302, 32.447, 11.8319, 12.5453, 113.713, -48.8724
0.028511, -1, 39.6302, 32.4471, 11.8319, 12.5454, 113.713, -48.8723
0.031339, -1, 39.6302, 32.4471, 11.8319, 12.5454, 113.713, -48.8723
0.034391, -1, 39.6302, 32.4471, 11.8319, 12.5454, 113.713, -48.8723
0.039612, -1, 39.6302, 32.4471, 11.8319, 12.5454, 113.713, -48.8723
0.047569, -1, 39.6301, 32.447, 11.8319, 12.5454, 113.713, -48.8723
0.055607, -1, 39.6296, 32.447, 11.8319, 12.5454, 113.713, -48.8723
0.063549, -1, 39.6273, 32.4465, 11.8319, 12.5454, 113.713, -48.8723
0.071563, -1, 39.622, 32.4452, 11.8318, 12.5454, 113.713, -48.8725
0.204066, -1, 38.1643, 31.6976, 12.1242, 12.5585, 112.941, -50.842
0.205349, -1, 38.1643, 31.6976, 12.1242, 12.5585, 112.941, -50.842
0.207282, -1, 38.0743, 31.6507, 12.1437, 12.5598, 112.891, -50.969
0.208598, -1, 38.0743, 31.6507, 12.1437, 12.5598, 112.891, -50.969
0.20988, -1, 38.0743, 31.6507, 12.1437, 12.5598, 112.891, -50.969
0.212611, -1, 37.9831, 31.6032, 12.1631, 12.5611, 112.84, -51.0969
0.21382, -1, 37.9831, 31.6032, 12.1631, 12.5611, 112.84, -51.0969
0.217742, -1, 37.8908, 31.5553, 12.1825, 12.5623, 112.789, -51.2255
0.219759, -1, 37.7974, 31.507, 12.2019, 12.5634, 112.738, -51.3545
0.222913, -1, 37.7974, 31.507, 12.2213, 12.5646, 112.687, -51.4839
0.224384, -1, 37.7033, 31.4584, 12.2213, 12.5646, 112.687, -51.4839
0.225655, -1, 37.7033, 31.4584, 12.2213, 12.5646, 112.687, -51.4839
0.227725, -1, 37.6084, 31.4096, 12.2407, 12.5658, 112.636, -51.6135
0.228971, -1, 37.6084, 31.4096, 12.2407, 12.5658, 112.636, -51.6135
0.230163, -1, 37.6084, 31.4096, 12.2407, 12.5658, 112.636, -51.6135
0.232375, -1, 37.513, 31.3607, 12.2601, 12.567, 112.585, -51.7433
0.233658, -1, 37.513, 31.3607, 12.2601, 12.567, 112.585, -51.7433
0.236616, -1, 37.4173, 31.3118, 12.2795, 12.5683, 112.533, -51.873
0.237908, -1, 37.4173, 31.3118, 12.2795, 12.5683, 112.533, -51.873
0.240185, -1, 37.3214, 31.2628, 12.2989, 12.5695, 112.482, -52.0027
0.241394, -1, 37.3214, 31.2628, 12.2989, 12.5695, 112.482, -52.0027
0.247651, -1, 37.1293, 31.1649, 12.3377, 12.572, 112.379, -52.2623
0.255598, -1, 36.9371, 31.0672, 12.3764, 12.5746, 112.276, -52.5224
0.26376, -1, 36.7451, 30.9694, 12.4152, 12.5771, 112.173, -52.7826
0.271567, -1, 36.5535, 30.8717, 12.4541, 12.5797, 112.07, -53.043
0.279571, -1, 36.3618, 30.774, 12.4929, 12.5823, 111.967, -53.3033
0.287951, -1, 36.1702, 30.6763, 12.5318, 12.5849, 111.865, -53.5636
0.295697, -1, 35.9788, 30.5784, 12.5707, 12.5875, 111.762, -53.8243
0.303709, -1, 35.7872, 30.4803, 12.6097, 12.5901, 111.659, -54.0849
0.311887, -1, 35.5954, 30.3823, 12.6485, 12.5927, 111.556, -54.345
0.319881, -1, 35.4034, 30.2841, 12.6873, 12.5953, 111.453, -54.6054
0.327999, -1, 35.2109, 30.1858, 12.7261, 12.5979, 111.349, -54.866
0.334542, -1, 35.1147, 30.1366, 12.7456, 12.5992, 111.298, -54.9964
0.344466, -1, 34.8262, 29.989, 12.8039, 12.603, 111.143, -55.3874
0.352167, -1, 34.6339, 29.8904, 12.8427, 12.6056, 111.04, -55.6481
0.360073, -1, 34.4417, 29.792, 12.8817, 12.6081, 110.937, -55.9089
0.368151, -1, 34.2496, 29.6936, 12.9206, 12.6107, 110.834, -56.17
0.376279, -1, 34.0576, 29.5953, 12.9595, 12.6133, 110.731, -56.4308
0.384347, -1, 33.9617, 29.5461, 12.979, 12.6147, 110.68, -56.6914
0.391536, -1, 33.77, 29.4479, 13.0179, 12.6174, 110.577, -56.8219
0.399595, -1, 33.5782, 29.3495, 13.0568, 12.62, 110.473, -57.0829
0.407526, -1, 33.386, 29.2512, 13.0958, 12.6226, 110.37, -57.3442
0.415531, -1, 33.1935, 29.1527, 13.1347, 12.6252, 110.267, -57.605
0.423582, -1, 33.0008, 29.0541, 13.1735, 12.6278, 110.164, -57.866
0.43152, -1, 32.8078, 28.9555, 13.2124, 12.6304, 110.061, -58.1271
0.439566, -1, 32.6144, 28.8569, 13.2513, 12.6332, 109.958, -58.3884
0.447541, -1, 32.4208, 28.7582, 13.2902, 12.6359, 109.855, -58.6495
0.455527, -1, 32.2269, 28.6595, 13.3291, 12.6385, 109.752, -58.9105
0.463598, -1, 32.0328, 28.5606, 13.368, 12.6412, 109.649, -59.1716
0.471529, -1, 31.839, 28.4619, 13.4069, 12.6439, 109.546, -59.433
0.479532, -1, 31.6453, 28.3631, 13.4459, 12.6467, 109.443, -59.6945
0.487615, -1, 31.4519, 28.2644, 13.4849, 12.6496, 109.34, -59.9555
0.495545, -1, 31.2589, 28.1659, 13.5238, 12.6523, 109.237, -60.2169
0.503587, -1, 31.0662, 28.0674, 13.563, 12.6551, 109.134, -60.4784
0.511692, -1, 30.874, 27.9689, 13.602, 12.6579, 109.03, -60.7399
0.519533, -1, 30.682, 27.8703, 13.6409, 12.6607, 108.927, -61.0011
0.659064, -1, 27.302, 26.1412, 14.3231, 12.7057, 107.12, -65.5798
0.660393, -1, 27.302, 26.1412, 14.3231, 12.7057, 107.12, -65.5798
0.661578, -1, 27.302, 26.1412, 14.3231, 12.7057, 107.12, -65.5798
0.663617, -1, 27.2059, 26.0917, 14.3426, 12.7068, 107.068, -65.7107
0.664807, -1, 27.2059, 26.0917, 14.3426, 12.7068, 107.068, -65.7107
0.666702, -1, 27.1096, 26.0422, 14.362, 12.7079, 107.016, -65.8415
0.668037, -1, 27.1096, 26.0422, 14.362, 12.7079, 107.016, -65.8415
0.670794, -1, 27.0133, 25.9928, 14.3815, 12.7091, 106.964, -65.9724
0.672431, -1, 27.0133, 25.9928, 14.3815, 12.7091, 106.964, -65.9724
0.673673, -1, 27.0133, 25.9928, 14.3815, 12.7091, 106.964, -65.9724
0.676553, -1, 26.917, 25.9434, 14.4009, 12.7102, 106.913, -66.1034
0.678727, -1, 26.8207, 25.894, 14.4204, 12.7114, 106.861, -66.2344
0.680129, -1, 26.8207, 25.894, 14.4204, 12.7114, 106.861, -66.2344
0.682847, -1, 26.7242, 25.8445, 14.44, 12.7125, 106.81, -66.3652
0.684293, -1, 26.7242, 25.8445, 14.44, 12.7125, 106.81, -66.3652
0.687963, -1, 26.6276, 25.7951, 14.4594, 12.7137, 106.758, -66.496
0.689164, -1, 26.6276, 25.7951, 14.4594, 12.7137, 106.758, -66.496
0.691178, -1, 26.5309, 25.7457, 14.4788, 12.7149, 106.706, -66.6268
0.692497, -1, 26.5309, 25.7457, 14.4788, 12.7149, 106.706, -66.6268
0.693778, -1, 26.5309, 25.7457, 14.4788, 12.7149, 106.706, -66.6268
0.695805, -1, 26.4341, 25.6963, 14.4982, 12.716, 106.655, -66.7576
0.697098, -1, 26.4341, 25.6963, 14.4982, 12.716, 106.655, -66.7576
0.705608, -1, 26.2402, 25.5975, 14.5372, 12.7182, 106.552, -67.0194
0.711633, -1, 26.0461, 25.4986, 14.5762, 12.7205, 106.448, -67.2814
0.719607, -1, 25.8517, 25.3997, 14.6151, 12.7228, 106.345, -67.5431
0.727623, -1, 25.6575, 25.3009, 14.6542, 12.7251, 106.242, -67.8047
0.735692, -1, 25.4636, 25.2021, 14.6931, 12.7273, 106.139, -68.0663
0.743628, -1, 25.2698, 25.1034, 14.732, 12.7297, 106.036, -68.3282
0.751632, -1, 25.0763, 25.0046, 14.7712, 12.732, 105.932, -68.59
0.759692, -1, 24.8832, 24.9058, 14.8101, 12.7344, 105.829, -68.8514
0.767534, -1, 24.6903, 24.807, 14.849, 12.7368, 105.726, -69.1132
0.77557, -1, 24.4978, 24.7081, 14.8881, 12.7392, 105.623, -69.375
0.783624, -1, 24.3054, 24.6092, 14.9271, 12.7415, 105.519, -69.6367
0.791614, -1, 24.113, 24.5104, 14.9661, 12.7439, 105.416, -69.8981
0.799713, -1, 23.9202, 24.4116, 15.0051, 12.7462, 105.313, -70.1596
0.807864, -1, 23.7273, 24.3127, 15.0439, 12.7487, 105.209, -70.4212
0.815793, -1, 23.5342, 24.2139, 15.0829, 12.751, 105.106, -70.6832
0.823961, -1, 23.3407, 24.115, 15.1218, 12.7534, 105.002, -70.9447
0.832038, -1, 23.1469, 24.0161, 15.1607, 12.7559, 104.899, -71.2065
0.840079, -1, 22.9529, 23.9172, 15.1996, 12.7583, 104.796, -71.4683
0.84817, -1, 22.7589, 23.8183, 15.2386, 12.7607, 104.692, -71.7302
0.85605, -1, 22.565, 23.7196, 15.2775, 12.7632, 104.589, -71.9918
0.864104, -1, 22.3714, 23.621, 15.3166, 12.7657, 104.486, -72.2531
0.872169, -1, 22.1781, 23.5222, 15.3555, 12.7683, 104.382, -72.5145
0.880129, -1, 22.0815, 23.4728, 15.3749, 12.7709, 104.279, -72.7762
0.887496, -1, 21.8885, 23.3741, 15.4139, 12.7722, 104.227, -72.907
0.896169, -1, 21.696, 23.2754, 15.4529, 12.7748, 104.124, -73.1684
0.903516, -1, 21.5038, 23.1766, 15.4918, 12.7775, 104.021, -73.4298
0.911508, -1, 21.3115, 23.0779, 15.5308, 12.7801, 103.918, -73.6912
0.919563, -1, 21.1192, 22.9793, 15.5697, 12.7828, 103.815, -73.9529
0.927523, -1, 20.9268, 22.8806, 15.6086, 12.7855, 103.712, -74.2142
0.93552, -1, 20.7344, 22.782, 15.6476, 12.7882, 103.608, -74.4752
0.943514, -1, 20.5417, 22.6834, 15.6865, 12.7909, 103.505, -74.7365
0.953719, -1, 20.2518, 22.5354, 15.7448, 12.795, 103.351, -75.1286
0.959664, -1, 20.1549, 22.486, 15.7643, 12.7963, 103.299, -75.2591
0.967507, -1, 19.9613, 22.3873, 15.8032, 12.7991, 103.196, -75.5202
0.975507, -1, 19.7676, 22.2886, 15.8419, 12.8018, 103.093, -75.7814
0.983566, -1, 19.5739, 22.19, 15.8808, 12.8045, 102.99, -76.0426
0.99155, -1, 19.3806, 22.0914, 15.9197, 12.8072, 102.887, -76.3039
0.999509, -1, 19.1876, 21.9927, 15.9585, 12.81, 102.784, -76.5648
1.00912, -1, 18.9948, 21.8941, 15.9975, 12.8127, 102.63, -76.9561
1.01552, -1, 18.8023, 21.7954, 16.0363, 12.8154, 102.578, -77.0866
1.02453, -1, 18.6101, 21.6967, 16.075, 12.8182, 102.475, -77.3477
1.03159, -1, 18.4184, 21.5982, 16.114, 12.8208, 102.372, -77.6084
1.04056, -1, 18.2265, 21.4996, 16.1528, 12.8235, 102.27, -77.8691
1.04751, -1, 18.0346, 21.4012, 16.1916, 12.826, 102.167, -78.1298
1.05553, -1, 17.8428, 21.3028, 16.2306, 12.8286, 102.064, -78.3907
1.06351, -1, 17.6507, 21.2044, 16.2694, 12.8311, 101.961, -78.6513
1.07152, -1, 17.4583, 21.1061, 16.3082, 12.8336, 101.858, -78.9116
1.07951, -1, 17.2655, 21.0078, 16.3471, 12.836, 101.755, -79.1722
1.08754, -1, 17.0724, 20.9095, 16.3858, 12.8384, 101.652, -79.4329
1.09554, -1, 16.8794, 20.8113, 16.4246, 12.8408, 101.549, -79.6935
1.10351, -1, 16.6863, 20.7131, 16.4635, 12.8431, 101.446, -79.9538
1.11155, -1, 16.4933, 20.6148, 16.5021, 12.8455, 101.344, -80.2144
1.11954, -1, 16.3004, 20.5165, 16.5409, 12.8478, 101.241, -80.475
1.12751, -1, 16.1082, 20.4182, 16.5796, 12.8501, 101.138, -80.7356
1.13554, -1, 15.9162, 20.3198, 16.6183, 12.8524, 101.036, -80.9956
1.14354, -1, 15.7245, 20.2213, 16.6571, 12.8547, 100.933, -81.2557
1.15152, -1, 15.5332, 20.1229, 16.6957, 12.8571, 100.83, -81.5159
1.15965, -1, 15.342, 20.0247, 16.7343, 12.8594, 100.728, -81.776
1.16755, -1, 15.1508, 19.9264, 16.7731, 12.8617, 100.625, -82.0358
1.17557, -1, 14.9597, 19.8282, 16.8118, 12.8639, 100.523, -82.2957
1.18356, -1, 14.7683, 19.7301, 16.8505, 12.8663, 100.42, -82.5555
1.19155, -1, 14.5769, 19.6319, 16.8892, 12.8685, 100.318, -82.8156
1.19955, -1, 14.385, 19.5337, 16.9279, 12.8709, 100.215, -83.0754
1.20756, -1, 14.1928, 19.4357, 16.9666, 12.8731, 100.113, -83.3348
1.21555, -1, 14.0004, 19.3377, 17.0053, 12.8753, 100.01, -83.5944
1.22366, -1, 13.808, 19.2399, 17.0438, 12.8777, 99.9074, -83.8541
1.23165, -1, 13.6155, 19.1421, 17.0825, 12.88, 99.8049, -84.1136
1.23966, -1, 13.4232, 19.0442, 17.1212, 12.8824, 99.7023, -84.3729
1.24766, -1, 13.2313, 18.9463, 17.1597, 12.8846, 99.6002, -84.6322
1.25565, -1, 13.0397, 18.8484, 17.1983, 12.887, 99.4978, -84.8916
1.26351, -1, 12.8484, 18.7504, 17.237, 12.8893, 99.3953, -85.151
1.27157, -1, 12.6574, 18.6525, 17.2755, 12.8917, 99.2932, -85.41
1.27962, -1, 12.4668, 18.5547, 17.3141, 12.8941, 99.1908, -85.6688
1.28758, -1, 12.2765, 18.457, 17.3526, 12.8965, 99.0885, -85.9277
1.29563, -1, 12.0863, 18.3592, 17.391, 12.8989, 98.9866, -86.1868
1.3046, -1, 11.896, 18.2616, 17.4297, 12.9013, 98.8844, -86.4455
1.31175, -1, 11.7055, 18.164, 17.4682, 12.9037, 98.7825, -86.7041
1.31986, -1, 11.5147, 18.0663, 17.5067, 12.9062, 98.6808, -86.9626
1.32867, -1, 11.3237, 17.9687, 17.5453, 12.9086, 98.5787, -87.2213
1.33592, -1, 11.1324, 17.8711, 17.5838, 12.911, 98.4769, -87.4798
1.34457, -1, 10.941, 17.7737, 17.6223, 12.9135, 98.375, -87.738
1.35301, -1, 10.7493, 17.6762, 17.6607, 12.916, 98.2729, -87.9961
1.3601, -1, 10.5577, 17.5787, 17.6991, 12.9185, 98.1711, -88.2545
1.3681, -1, 10.3664, 17.4812, 17.7375, 12.9211, 98.0693, -88.5129
1.37689, -1, 10.1754, 17.3837, 17.776, 12.9236, 97.9674, -88.7708
1.3841, -1, 10.08, 17.3349, 17.7952, 12.9263, 97.8657, -89.029
1.39208, -1, 9.88957, 17.2373, 17.8335, 12.9277, 97.7636, -89.2871
1.39955, -1, 9.69947, 17.1398, 17.8718, 12.9302, 97.7126, -89.4161
1.40752, -1, 9.50983, 17.0424, 17.9101, 12.933, 97.6107, -89.6742
1.41554, -1, 9.32056, 16.9451, 17.9485, 12.9358, 97.5089, -89.9317
1.4235, -1, 9.13125, 16.8477, 17.9869, 12.9384, 97.407, -90.1892
1.4315, -1, 8.94187, 16.7505, 18.0251, 12.9411, 97.3052, -90.4467
1.43961, -1, 8.75233, 16.6533, 18.0635, 12.9437, 97.2036, -90.7044
1.4475, -1, 8.56278, 16.5561, 18.1019, 12.9463, 97.1018, -90.9616
1.45564, -1, 8.37303, 16.4591, 18.1402, 12.9491, 97.0004, -91.2187
1.46349, -1, 8.18269, 16.3621, 18.1785, 12.9518, 96.8988, -91.4759
1.47149, -1, 7.99218, 16.2652, 18.2169, 12.9543, 96.7972, -91.7333
1.47962, -1, 7.80167, 16.1683, 18.2551, 12.957, 96.6959, -91.9902
1.4875, -1, 7.61108, 16.0713, 18.2934, 12.9596, 96.5943, -92.2468
1.49551, -1, 7.42067, 15.9744, 18.3317, 12.9622, 96.4929, -92.5035
1.50359, -1, 7.23056, 15.8775, 18.3698, 12.9648, 96.3917, -92.7605
1.51155, -1, 7.04067, 15.7805, 18.408, 12.9673, 96.2903, -93.0171
1.51957, -1, 6.85123, 15.6836, 18.4464, 12.9699, 96.189, -93.2735
1.52852, -1, 6.66231, 15.5867, 18.4844, 12.9724, 96.0883, -93.5298
1.53549, -1, 6.47382, 15.4899, 18.5225, 12.975, 95.9872, -93.7862
1.5435, -1, 6.28556, 15.3932, 18.5607, 12.9774, 95.8861, -94.0427
1.5515, -1, 6.09754, 15.2965, 18.5988, 12.9799, 95.7854, -94.2986
1.55961, -1, 5.90929, 15.1997, 18.637, 12.9823, 95.6843, -94.5545
1.5675, -1, 5.7209, 15.103, 18.6752, 12.9846, 95.5833, -94.8104
1.57551, -1, 5.53246, 15.0064, 18.7132, 12.987, 95.4828, -95.0664
1.58357, -1, 5.34368, 14.9098, 18.7513, 12.9893, 95.3819, -95.322
1.59149, -1, 5.15451, 14.8134, 18.7895, 12.9915, 95.2812, -95.5773
1.59958, -1, 4.96507, 14.7171, 18.8275, 12.9938, 95.1807, -95.8328
1.60756, -1, 4.77573, 14.6207, 18.8656, 12.9961, 95.0798, -96.0883
1.61549, -1, 4.58626, 14.5243, 18.9037, 12.9982, 94.979, -96.3435
1.62379, -1, 4.39709, 14.4279, 18.9417, 13.0004, 94.8784, -96.5984
1.63149, -1, 4.20809, 14.3315, 18.9797, 13.0026, 94.7775, -96.8533
1.63962, -1, 4.01945, 14.2351, 19.0177, 13.0049, 94.6767, -97.1083
1.64829, -1, 3.83136, 14.1389, 19.0556, 13.0072, 94.5759, -97.3635
1.65549, -1, 3.64375, 14.0427, 19.0936, 13.0093, 94.4751, -97.6181
1.66354, -1, 3.4566, 13.9465, 19.1315, 13.0117, 94.3745, -97.8728
1.67227, -1, 3.26969, 13.8505, 19.1693, 13.014, 94.2739, -98.1276
1.67962, -1, 3.08268, 13.7545, 19.2072, 13.0163, 94.1731, -98.3825
1.68756, -1, 2.8957, 13.6584, 19.2451, 13.0185, 94.0726, -98.6369
1.69629, -1, 2.70865, 13.5624, 19.283, 13.0207, 93.972, -98.891
1.70349, -1, 2.52137, 13.4664, 19.3209, 13.023, 93.8715, -99.1452
1.71174, -1, 2.33387, 13.3705, 19.3587, 13.0253, 93.7712, -99.3995
1.7204, -1, 2.14596, 13.2747, 19.3964, 13.0276, 93.6709, -99.6535
1.72759, -1, 1.95781, 13.1789, 19.4344, 13.0298, 93.5706, -99.9071
1.73591, -1, 1.76976, 13.083, 19.4721, 13.0321, 93.4708, -100.161
1.7444, -1, 1.58159, 12.9872, 19.5098, 13.0343, 93.3706, -100.414
1.7516, -1, 1.39347, 12.8913, 19.5477, 13.0366, 93.2705, -100.668
1.76019, -1, 1.20569, 12.7955, 19.5854, 13.0389, 93.1707, -100.921
1.76841, -1, 1.01826, 12.6998, 19.6231, 13.0412, 93.0705, -101.174
1.7755, -1, 0.831563, 12.6043, 19.6609, 13.0436, 92.9706, -101.427
1.7844, -1, 0.645219, 12.5087, 19.6985, 13.046, 92.871, -101.68
1.79153, -1, 0.45936, 12.4132, 19.736, 13.0485, 92.7711, -101.933
1.79964, -1, 0.273733, 12.3179, 19.7738, 13.0509, 92.6714, -102.186
1.80855, -1, 0.0882687, 12.2225, 19.8113, 13.0534, 92.5722, -102.439
1.81649, -1, -0.0972486, 12.1272, 19.8489, 13.0558, 92.4724, -102.691
1.82383, -1, -0.282923, 12.0319, 19.8866, 13.0582, 92.3729, -102.944
1.83269, -1, -0.468829, 11.9368, 19.9241, 13.0607, 92.2736, -103.196
1.83995, -1, -0.655081, 11.8417, 19.9616, 13.0632, 92.1741, -103.448
1.84809, -1, -0.841506, 11.7467, 19.9992, 13.0656, 92.0746, -103.7
1.85686, -1, -1.0281, 11.6516, 20.0366, 13.0681, 91.9754, -103.952
1.86411, -1, -1.21495, 11.5565, 20.0741, 13.0707, 91.8759, -104.204
1.87209, -1, -1.40195, 11.4615, 20.1117, 13.0731, 91.7767, -104.455
1.88097, -1, -1.58869, 11.3663, 20.1491, 13.0757, 91.6776, -104.707
1.88808, -1, -1.68195, 11.3188, 20.1677, 13.077, 91.5783, -104.958
1.89608, -1, -1.86818, 11.2237, 20.2052, 13.0796, 91.5287, -105.21
1.90348, -1, -2.05399, 11.1288, 20.2426, 13.0823, 91.4297, -105.335
1.91148, -1, -2.23901, 11.0339, 20.28, 13.0849, 91.3304, -105.586
1.91959, -1, -2.42375, 10.939, 20.3174, 13.0876, 91.2312, -105.837
1.92749, -1, -2.60817, 10.8443, 20.3547, 13.0903, 91.1323, -106.088
1.9355, -1, -2.79211, 10.7495, 20.392, 13.093, 91.0331, -106.339
1.9435, -1, -2.97603, 10.6548, 20.4294, 13.0955, 90.934, -106.59
1.95148, -1, -3.16011, 10.5601, 20.4667, 13.0982, 90.8353, -106.84
1.95959, -1, -3.34442, 10.4655, 20.5039, 13.1007, 90.7362, -107.091
1.96901, -1, -3.62149, 10.3239, 20.5598, 13.1046, 90.588, -107.467
1.97548, -1, -3.71392, 10.2767, 20.5784, 13.1058, 90.5387, -107.592
1.98353, -1, -3.89897, 10.1824, 20.6156, 13.1082, 90.4398, -107.842
1.99311, -1, -4.17703, 10.0408, 20.6715, 13.1119, 90.2919, -108.217
1.99956, -1, -4.26988, 9.99371, 20.6901, 13.1131, 90.2427, -108.342
2.00754, -1, -4.4555, 9.89936, 20.7272, 13.1155, 90.1439, -108.591
2.01703, -1, -4.64078, 9.80505, 20.7645, 13.1178, 90.0454, -108.841
2.02356, -1, -4.8257, 9.71085, 20.8017, 13.1202, 89.9471, -109.09
2.03254, -1, -5.01019, 9.61675, 20.8387, 13.1226, 89.8485, -109.34
2.03958, -1, -5.19389, 9.52271, 20.8758, 13.1249, 89.75, -109.589
2.04847, -1, -5.37726, 9.42866, 20.9129, 13.1272, 89.6518, -109.838
2.05548, -1, -5.56023, 9.33478, 20.95, 13.1295, 89.5534, -110.087
2.06348, -1, -5.74271, 9.24085, 20.9871, 13.1318, 89.4551, -110.335
2.07154, -1, -5.92504, 9.14696, 21.0242, 13.1342, 89.3572, -110.584
2.07954, -1, -6.10744, 9.05312, 21.0611, 13.1364, 89.2589, -110.833
2.08748, -1, -6.29012, 8.95935, 21.0982, 13.1387, 89.1609, -111.081
2.09554, -1, -6.47304, 8.86571, 21.1352, 13.1408, 89.0632, -111.33
2.10347, -1, -6.65626, 8.77202, 21.1719, 13.143, 88.9651, -111.578
2.11148, -1, -6.83988, 8.67839, 21.2089, 13.1451, 88.8671, -111.826
2.11961, -1, -7.02375, 8.58479, 21.2459, 13.1472, 88.7694, -112.074
2.12748, -1, -7.20801, 8.49121, 21.2827, 13.1494, 88.6715, -112.322
2.13547, -1, -7.39226, 8.39756, 21.3196, 13.1515, 88.5736, -112.569
2.14354, -1, -7.57602, 8.30397, 21.3565, 13.1537, 88.4762, -112.817
2.15148, -1, -7.7595, 8.21054, 21.3932, 13.1558, 88.3785, -113.064
2.15954, -1, -7.94258, 8.11711, 21.4301, 13.1581, 88.2811, -113.311
2.16756, -1, -8.12513, 8.02376, 21.4669, 13.1603, 88.1839, -113.558
2.17548, -1, -8.30693, 7.9305, 21.5036, 13.1626, 88.0864, -113.806
2.18364, -1, -8.48831, 7.83724, 21.5405, 13.1648, 87.989, -114.053
2.19156, -1, -8.66921, 7.74403, 21.5773, 13.1671, 87.8917, -114.299
2.19953, -1, -8.84991, 7.65088, 21.6141, 13.1693, 87.7942, -114.546
2.20755, -1, -9.03066, 7.55777, 21.6508, 13.1715, 87.6967, -114.792
2.21552, -1, -9.21173, 7.46475, 21.6875, 13.1739, 87.5997, -115.039
2.22356, -1, -9.39299, 7.37196, 21.7242, 13.1761, 87.5025, -115.285
2.23163, -1, -9.57467, 7.27912, 21.7609, 13.1782, 87.4053, -115.531
2.23962, -1, -9.75666, 7.18627, 21.7975, 13.1805, 87.3083, -115.777
2.24757, -1, -9.939, 7.09357, 21.834, 13.1827, 87.2111, -116.023
2.25566, -1, -10.1215, 7.00081, 21.8706, 13.1849, 87.1139, -116.269
2.26357, -1, -10.3043, 6.90799, 21.9073, 13.1871, 87.0168, -116.515
2.27151, -1, -10.4869, 6.81524, 21.9438, 13.1893, 86.9197, -116.76
2.27972, -1, -10.6692, 6.72258, 21.9804, 13.1916, 86.8225, -117.006
2.28751, -1, -10.8509, 6.62997, 22.0169, 13.194, 86.7257, -117.251
2.29557, -1, -11.0322, 6.53739, 22.0533, 13.1964, 86.6288, -117.496
2.30365, -1, -11.2126, 6.44487, 22.0899, 13.1988, 86.5321, -117.741
2.31169, -1, -11.3925, 6.35236, 22.1264, 13.2013, 86.4356, -117.986
2.32011, -1, -11.5721, 6.2599, 22.1628, 13.2036, 86.3387, -118.231
2.32778, -1, -11.7514, 6.16749, 22.1993, 13.2061, 86.2421, -118.476
2.33583, -1, -11.9306, 6.07517, 22.2358, 13.2086, 86.1455, -118.72
2.34397, -1, -12.1099, 5.98293, 22.2722, 13.211, 86.049, -118.964
2.35262, -1, -12.2894, 5.89084, 22.3087, 13.2135, 85.9526, -119.208
2.35999, -1, -12.4693, 5.79882, 22.3451, 13.216, 85.8563, -119.453
2.36824, -1, -12.6496, 5.70678, 22.3812, 13.2185, 85.7599, -119.697
2.37603, -1, -12.8302, 5.61485, 22.4176, 13.2209, 85.6638, -119.94
2.38414, -1, -12.9207, 5.5689, 22.454, 13.2233, 85.568, -120.184
2.39219, -1, -13.1019, 5.43093, 22.4902, 13.2258, 85.472, -120.428
2.39946, -1, -13.2831, 5.38493, 22.5083, 13.227, 85.424, -120.549
2.40746, -1, -13.4642, 5.29302, 22.5447, 13.2295, 85.3282, -120.793
2.41551, -1, -13.6448, 5.20115, 22.5809, 13.2321, 85.2323, -121.036
2.42347, -1, -13.825, 5.10931, 22.617, 13.2347, 85.1366, -121.279
2.43147, -1, -14.0046, 5.01749, 22.6532, 13.2372, 85.0409, -121.522
2.43951, -1, -14.1833, 4.92581, 22.6894, 13.2397, 84.9453, -121.765
2.44755, -1, -14.3616, 4.83413, 22.7254, 13.2423, 84.8497, -122.008
2.45551, -1, -14.5395, 4.74249, 22.7617, 13.2449, 84.7543, -122.25
2.46346, -1, -14.7171, 4.65088, 22.7979, 13.2475, 84.6586, -122.493
2.47147, -1, -14.8947, 4.55941, 22.8339, 13.2498, 84.5628, -122.735
2.47952, -1, -15.0724, 4.46795, 22.8701, 13.2523, 84.4672, -122.978
2.48746, -1, -15.2505, 4.37667, 22.9063, 13.2547, 84.3715, -123.22
2.49545, -1, -15.4289, 4.28534, 22.9423, 13.2571, 84.2758, -123.461
2.50355, -1, -15.6078, 4.19407, 22.9783, 13.2594, 84.1803, -123.703
2.51148, -1, -15.787, 4.10283, 23.0143, 13.2618, 84.0847, -123.945
2.51953, -1, -15.9662, 4.01161, 23.0502, 13.264, 83.9894, -124.186
2.52755, -1, -16.1459, 3.9203, 23.0863, 13.2662, 83.894, -124.428
2.53653, -1, -16.3256, 3.82906, 23.1223, 13.2683, 83.7985, -124.669
2.54346, -1, -16.505, 3.73783, 23.1581, 13.2705, 83.7031, -124.911
2.55154, -1, -16.684, 3.64672, 23.1939, 13.2727, 83.6077, -125.152
2.55946, -1, -16.8624, 3.55563, 23.2298, 13.275, 83.5123, -125.393
2.56747, -1, -17.0399, 3.46459, 23.2656, 13.2772, 83.4169, -125.634
2.57547, -1, -17.2168, 3.37362, 23.3015, 13.2794, 83.3217, -125.874
2.58346, -1, -17.3934, 3.28275, 23.3374, 13.2817, 83.2267, -126.115
2.59157, -1, -17.5696, 3.19189, 23.3731, 13.2837, 83.1316, -126.356
2.59946, -1, -17.7457, 3.10127, 23.4089, 13.2859, 83.0368, -126.596
2.60747, -1, -17.9217, 3.01063, 23.4449, 13.2879, 82.9421, -126.836
2.61554, -1, -18.0979, 2.92016, 23.4806, 13.2901, 82.8471, -127.076
2.62346, -1, -18.2745, 2.82981, 23.5163, 13.2923, 82.7524, -127.316
2.63147, -1, -18.4514, 2.73939, 23.5521, 13.2943, 82.6579, -127.556
2.63954, -1, -18.6289, 2.649, 23.5878, 13.2964, 82.5631, -127.796
2.64746, -1, -18.8066, 2.55866, 23.6234, 13.2984, 82.4685, -128.035
2.65545, -1, -18.9846, 2.4682, 23.6592, 13.3004, 82.3742, -128.275
2.66353, -1, -19.1629, 2.3777, 23.6947, 13.3024, 82.2797, -128.514
2.67148, -1, -19.3411, 2.28732, 23.7303, 13.3043, 82.1853, -128.753
2.67946, -1, -19.5187, 2.19688, 23.766, 13.3065, 82.0915, -128.992
2.6876, -1, -19.6957, 2.10648, 23.8015, 13.3087, 81.9972, -129.231
2.69546, -1, -19.8722, 2.0162, 23.8368, 13.3108, 81.903, -129.471
2.70349, -1, -20.048, 1.92593, 23.8724, 13.313, 81.8091, -129.709
2.71169, -1, -20.2232, 1.83568, 23.908, 13.3152, 81.715, -129.948
2.7195, -1, -20.3981, 1.74555, 23.9433, 13.3173, 81.6209, -130.186
2.72761, -1, -20.5727, 1.65547, 23.9789, 13.3196, 81.5272, -130.424
2.73637, -1, -20.7472, 1.56548, 24.0144, 13.3218, 81.433, -130.663
2.74355, -1, -20.9219, 1.4756, 24.0498, 13.324, 81.3393, -130.901
2.75164, -1, -21.0968, 1.38591, 24.0854, 13.3262, 81.2457, -131.139
2.75959, -1, -21.2722, 1.29614, 24.1209, 13.3283, 81.1518, -131.376
2.76758, -1, -21.448, 1.20641, 24.1562, 13.3305, 81.0579, -131.614
2.77558, -1, -21.624, 1.1168, 24.1916, 13.3327, 80.9642, -131.852
2.7859, -1, -21.8001, 1.02713, 24.2271, 13.3348, 80.8703, -132.089
2.79157, -1, -21.9766, 0.937521, 24.2624, 13.337, 80.7766, -132.327
2.79952, -1, -22.1532, 0.847929, 24.2978, 13.3392, 80.6829, -132.564
2.80834, -1, -22.3297, 0.758374, 24.3332, 13.3414, 80.5893, -132.801
2.81573, -1, -22.5057, 0.668901, 24.3684, 13.3436, 80.4957, -133.038
2.82374, -1, -22.6812, 0.579392, 24.4036, 13.346, 80.4022, -133.275
2.83254, -1, -22.8562, 0.490002, 24.4389, 13.3484, 80.3085, -133.512
2.8399, -1, -23.0302, 0.400603, 24.4741, 13.3508, 80.215, -133.748
2.84858, -1, -23.2039, 0.311235, 24.5092, 13.3533, 80.1214, -133.985
2.85678, -1, -23.3772, 0.221893, 24.5444, 13.3557, 80.0281, -134.222
2.86403, -1, -23.5503, 0.132693, 24.5796, 13.3581, 79.9346, -134.458
2.87202, -1, -23.7236, 0.0435869, 24.6148, 13.3605, 79.8413, -134.694
2.88084, -1, -23.897, -0.0454773, 24.65, 13.3629, 79.7483, -134.93
2.88808, -1, -24.0705, -0.134424, 24.685, 13.3654, 79.655, -135.166
2.89628, -1, -24.1573, -0.22342, 24.7201, 13.3679, 79.5619, -135.402
2.90345, -1, -24.3313, -0.267892, 24.7376, 13.3691, 79.5155, -135.52
2.9115, -1, -24.5055, -0.356796, 24.7728, 13.3715, 79.4224, -135.755
2.91945, -1, -24.6802, -0.445665, 24.8078, 13.3739, 79.3294, -135.991
2.92747, -1, -24.8551, -0.534548, 24.8428, 13.3763, 79.2363, -136.226
2.93551, -1, -25.0302, -0.623386, 24.878, 13.3787, 79.1434, -136.462
2.94345, -1, -25.2051, -0.712223, 24.913, 13.381, 79.0504, -136.697
2.95145, -1, -25.3796, -0.800985, 24.9479, 13.3834, 78.9577, -136.932
2.95952, -1, -25.5537, -0.88982, 24.983, 13.3859, 78.8651, -137.167
2.96744, -1, -25.7273, -0.978571, 25.0179, 13.3883, 78.7723, -137.402
2.97546, -1, -25.9002, -1.06724, 25.0527, 13.3907, 78.6797, -137.636
2.98349, -1, -26.0727, -1.15596, 25.0878, 13.3932, 78.5875, -137.871
2.99144, -1, -26.2447, -1.24462, 25.1227, 13.3956, 78.4948, -138.105
2.99945, -1, -26.4165, -1.33313, 25.1574, 13.398, 78.4022, -138.34
3.00748, -1, -26.5883, -1.42153, 25.1924, 13.4003, 78.31, -138.574
3.01546, -1, -26.7603, -1.50987, 25.2273, 13.4025, 78.2173, -138.808
3.02576, -1, -26.9326, -1.59808, 25.2622, 13.4048, 78.1249, -139.042
3.03144, -1, -27.1051, -1.68624, 25.297, 13.407, 78.0329, -139.276
3.04052, -1, -27.2776, -1.77449, 25.3319, 13.4091, 77.9406, -139.51
3.04752, -1, -27.4505, -1.86259, 25.3667, 13.4114, 77.8485, -139.744
3.05546, -1, -27.6237, -1.95071, 25.4014, 13.4135, 77.7566, -139.977
3.06345, -1, -27.7969, -2.03895, 25.4363, 13.4156, 77.6645, -140.211
3.07151, -1, -27.9702, -2.127, 25.4711, 13.4176, 77.5725, -140.444
3.07946, -1, -28.1435, -2.21504, 25.5058, 13.4197, 77.4805, -140.678
3.08746, -1, -28.3166, -2.30309, 25.5406, 13.4217, 77.3884, -140.911
3.09554, -1, -28.4894, -2.39115, 25.5753, 13.4238, 77.2963, -141.143
3.10345, -1, -28.6617, -2.4791, 25.61, 13.4259, 77.2043, -141.376
3.11144, -1, -28.8335, -2.56709, 25.6447, 13.428, 77.1123, -141.609
3.11951, -1, -29.0045, -2.65506, 25.6794, 13.4303, 77.0204, -141.842
3.12744, -1, -29.1751, -2.7429, 25.7139, 13.4324, 76.9284, -142.075
3.13552, -1, -29.3457, -2.83072, 25.7486, 13.4344, 76.8368, -142.307
3.14346, -1, -29.5164, -2.91842, 25.7833, 13.4365, 76.7448, -142.539
3.15144, -1, -29.6873, -3.00598, 25.8178, 13.4385, 76.6529, -142.772
3.15951, -1, -29.8584, -3.09355, 25.8523, 13.4406, 76.5614, -143.004
3.16745, -1, -30.0294, -3.181, 25.887, 13.4427, 76.4694, -143.236
3.17548, -1, -30.2003, -3.26852, 25.9215, 13.4447, 76.3777, -143.468
3.18351, -1, -30.3715, -3.35594, 25.956, 13.4469, 76.2863, -143.7
3.19151, -1, -30.5431, -3.44341, 25.9906, 13.4489, 76.1946, -143.932
3.19953, -1, -30.7149, -3.53094, 26.025, 13.4509, 76.1033, -144.164
3.20744, -1, -30.8867, -3.61828, 26.0595, 13.453, 76.0119, -144.395
3.21546, -1, -31.0585, -3.70568, 26.094, 13.4549, 75.9205, -144.626
3.22371, -1, -31.2301, -3.79301, 26.1285, 13.457, 75.8291, -144.858
3.23153, -1, -31.4014, -3.8803, 26.1628, 13.4591, 75.7378, -145.089
3.23954, -1, -31.5723, -3.96758, 26.1973, 13.4612, 75.6466, -145.32
3.2479, -1, -31.7427, -4.0548, 26.2317, 13.4634, 75.5553, -145.551
3.25555, -1, -31.9127, -4.14202, 26.266, 13.4655, 75.4641, -145.782
3.26357, -1, -32.0824, -4.22923, 26.3004, 13.4678, 75.3731, -146.013
3.27207, -1, -32.2518, -4.31634, 26.3348, 13.47, 75.282, -146.244
3.2806, -1, -32.4212, -4.40339, 26.369, 13.4721, 75.1909, -146.474
3.28751, -1, -32.591, -4.49036, 26.4034, 13.4742, 75.1004, -146.705
3.29638, -1, -32.7606, -4.57727, 26.4378, 13.4764, 75.0093, -146.935
3.30353, -1, -32.9302, -4.66423, 26.472, 13.4786, 74.9185, -147.166
3.31157, -1, -33.0999, -4.75114, 26.5062, 13.4807, 74.8281, -147.396
3.32058, -1, -33.2697, -4.83796, 26.5406, 13.483, 74.7373, -147.626
3.32769, -1, -33.4398, -4.92484, 26.5748, 13.4852, 74.6467, -147.856
3.33621, -1, -33.6101, -5.01179, 26.609, 13.4874, 74.5562, -148.086
3.34469, -1, -33.7805, -5.09855, 26.6432, 13.4896, 74.4656, -148.316
3.35188, -1, -33.9507, -5.18529, 26.6774, 13.4918, 74.375, -148.545
3.36009, -1, -34.1209, -5.272, 26.7115, 13.4941, 74.2846, -148.775
3.36883, -1, -34.291, -5.35873, 26.7457, 13.4963, 74.1941, -149.004
3.37599, -1, -34.461, -5.44533, 26.78, 13.4987, 74.1035, -149.233
3.3842, -1, -34.6304, -5.53197, 26.814, 13.5011, 74.0129, -149.463
3.39284, -1, -34.7149, -5.5753, 26.8311, 13.5035, 73.9225, -149.692
3.39998, -1, -34.8837, -5.66191, 26.8653, 13.5047, 73.8771, -149.807
3.408, -1, -35.0522, -5.74845, 26.8994, 13.5071, 73.7866, -150.035
3.41544, -1, -35.2204, -5.83491, 26.9335, 13.5095, 73.6963, -150.264
3.42343, -1, -35.3888, -5.92124, 26.9676, 13.5119, 73.6059, -150.493
3.4315, -1, -35.5574, -6.00745, 27.0018, 13.5143, 73.5156, -150.722
3.43944, -1, -35.7259, -6.0937, 27.0357, 13.5166, 73.4253, -150.951
3.44748, -1, -35.8944, -6.17986, 27.0698, 13.519, 73.3351, -151.179
3.45543, -1, -36.0629, -6.26601, 27.104, 13.5214, 73.2446, -151.408
3.4634, -1, -36.2314, -6.35211, 27.1379, 13.5238, 73.1542, -151.637
3.4715, -1, -36.4001, -6.43831, 27.1718, 13.5263, 73.064, -151.865
3.47943, -1, -36.569, -6.52456, 27.2059, 13.5286, 72.9734, -152.093
3.48745, -1, -36.7378, -6.61073, 27.2398, 13.5309, 72.8832, -152.321
3.49549, -1, -36.9067, -6.6969, 27.2737, 13.5332, 72.7932, -152.549
3.50343, -1, -37.0758, -6.78307, 27.3077, 13.5355, 72.7031, -152.778
3.51422, -1, -37.3288, -6.91221, 27.3585, 13.5389, 72.5681, -153.12
3.5196, -1, -37.413, -6.95522, 27.3755, 13.54, 72.5233, -153.233
3.52749, -1, -37.5811, -7.04129, 27.4095, 13.5423, 72.4334, -153.461
3.53543, -1, -37.7489, -7.12732, 27.4435, 13.5445, 72.3435, -153.688
3.54444, -1, -37.9165, -7.2133, 27.4773, 13.5467, 72.2537, -153.916
3.55144, -1, -38.084, -7.2992, 27.5112, 13.549, 72.164, -154.143
3.55949, -1, -38.2515, -7.3851, 27.5451, 13.5511, 72.0741, -154.37
3.56744, -1, -38.4188, -7.47085, 27.5789, 13.5533, 71.9845, -154.597
3.57543, -1, -38.586, -7.55654, 27.6127, 13.5554, 71.8951, -154.825
3.58351, -1, -38.7533, -7.64227, 27.6467, 13.5575, 71.8053, -155.052
3.59144, -1, -38.9206, -7.72798, 27.6804, 13.5595, 71.7158, -155.279
3.59945, -1, -39.088, -7.81361, 27.7141, 13.5616, 71.6268, -155.506
3.60749, -1, -39.2555, -7.8993, 27.748, 13.5636, 71.5373, -155.733
3.61543, -1, -39.423, -7.98497, 27.7819, 13.5655, 71.4479, -155.959
3.62344, -1, -39.5906, -8.07055, 27.8155, 13.5675, 71.3587, -156.186
3.63151, -1, -39.7583, -8.15608, 27.8491, 13.5694, 71.2694, -156.413
3.63943, -1, -39.9258, -8.24156, 27.8829, 13.5714, 71.18, -156.639
3.64743, -1, -40.0934, -8.32702, 27.9166, 13.5734, 71.0905, -156.865
3.65549, -1, -40.2609, -8.41237, 27.9503, 13.5753, 71.0015, -157.092
3.66343, -1, -40.428, -8.49776, 27.984, 13.5773, 70.912, -157.318
3.67145, -1, -40.595, -8.58315, 28.0176, 13.5793, 70.8228, -157.544
3.67951, -1, -40.7618, -8.66855, 28.0512, 13.5813, 70.7338, -157.77
3.68743, -1, -40.9285, -8.75389, 28.085, 13.5833, 70.6446, -157.996
3.69554, -1, -41.0949, -8.83923, 28.1186, 13.5853, 70.5554, -158.222
3.70345, -1, -41.2612, -8.92448, 28.1521, 13.5873, 70.4664, -158.448
3.71153, -1, -41.4274, -9.00966, 28.1857, 13.5893, 70.3772, -158.673
3.71967, -1, -41.5936, -9.09482, 28.2194, 13.5914, 70.2879, -158.898
3.72747, -1, -41.7599, -9.1799, 28.2529, 13.5933, 70.1989, -159.124
3.73551, -1, -41.9263, -9.26495, 28.2865, 13.5953, 70.1099, -159.349
3.74398, -1, -42.0928, -9.35001, 28.3202, 13.5974, 70.0208, -159.575
3.75153, -1, -42.2591, -9.4351, 28.3537, 13.5994, 69.9319, -159.8
3.75953, -1, -42.4253, -9.52009, 28.3872, 13.6014, 69.8431, -160.026
3.76805, -1, -42.5917, -9.60508, 28.4207, 13.6034, 69.7541, -160.251
3.77651, -1, -42.7581, -9.69004, 28.4542, 13.6055, 69.6651, -160.476
3.78344, -1, -42.9244, -9.77498, 28.4876, 13.6075, 69.5765, -160.701
3.79153, -1, -43.0908, -9.85985, 28.5211, 13.6096, 69.4875, -160.926
3.80033, -1, -43.2569, -9.94479, 28.5546, 13.6116, 69.399, -161.151
3.80752, -1, -43.4231, -10.0297, 28.5881, 13.6137, 69.3104, -161.375
3.81568, -1, -43.5891, -10.1146, 28.6216, 13.6158, 69.2217, -161.6
3.82448, -1, -43.755, -10.1996, 28.6551, 13.6179, 69.1332, -161.825
3.83171, -1, -43.9209, -10.2844, 28.6884, 13.62, 69.0447, -162.05
3.83986, -1, -44.0865, -10.3691, 28.7218, 13.6222, 68.9563, -162.274
3.84847, -1, -44.2518, -10.4538, 28.7553, 13.6244, 68.8676, -162.498
3.85587, -1, -44.417, -10.5384, 28.7887, 13.6266, 68.7789, -162.723
3.86413, -1, -44.5822, -10.623, 28.8221, 13.6288, 68.6905, -162.947
3.87263, -1, -44.7474, -10.7075, 28.8555, 13.6309, 68.6017, -163.171
3.87999, -1, -44.9127, -10.7918, 28.889, 13.6331, 68.5132, -163.395
3.88854, -1, -45.0781, -10.8763, 28.9223, 13.6353, 68.4249, -163.619
3.89626, -1, -45.1607, -10.9186, 28.939, 13.6364, 68.3365, -163.843
3.90407, -1, -45.3259, -11.003, 28.9724, 13.6387, 68.2923, -164.067
3.91208, -1, -45.4912, -11.0875, 29.0057, 13.6409, 68.2039, -164.179
3.91945, -1, -45.6564, -11.1719, 29.0389, 13.6432, 68.1159, -164.403
3.9284, -1, -45.8217, -11.2984, 29.0889, 13.6466, 67.9832, -164.738
3.93548, -1, -45.9859, -11.3402, 29.1056, 13.6478, 67.939, -164.85
3.94342, -1, -46.1474, -11.4225, 29.139, 13.6501, 67.8509, -165.073
3.95143, -1, -46.3044, -11.5019, 29.1726, 13.6525, 67.7635, -165.294
3.95951, -1, -46.4547, -11.577, 29.2061, 13.6548, 67.6783, -165.51
3.96743, -1, -46.596, -11.6469, 29.2383, 13.6571, 67.5967, -165.715
3.97542, -1, -46.7257, -11.7103, 29.2682, 13.6593, 67.5221, -165.905
3.98346, -1, -46.8407, -11.7664, 29.2946, 13.6613, 67.4551, -166.074
3.99144, -1, -46.9394, -11.8157, 29.3167, 13.663, 67.3992, -166.216
3.99942, -1, -47.022, -11.8587, 29.3333, 13.6643, 67.3544, -166.329
4.00748, -1, -47.0892, -11.8955, 29.3446, 13.6651, 67.3209, -166.414
4.01544, -1, -47.1416, -11.925, 29.3518, 13.6655, 67.2975, -166.473
4.02342, -1, -47.1805, -11.9471, 29.3557, 13.6657, 67.2825, -166.51
4.03156, -1, -47.2082, -11.9626, 29.3575, 13.6658, 67.2736, -166.533
4.03941, -1, -47.2263, -11.9727, 29.3583, 13.6658, 67.2689, -166.545
4.04842, -1, -47.2372, -11.9786, 29.3587, 13.6659, 67.2665, -166.55
4.05548, -1, -47.2428, -11.9816, 29.3589, 13.666, 67.2654, -166.553
4.06342, 2, -47.2449, -11.9829, 29.3591, 13.666, 67.2649, -166.554
4.07143, 2, -47.245, -11.9834, 29.3592, 13.666, 67.2647, -166.555
4.07948, 2, -47.2448, -11.9836, 29.3592, 13.6661, 67.2646, -166.555
4.08742, 2, -47.2448, -11.9836, 29.3593, 13.6661, 67.2645, -166.555
4.09542, 2, -47.2451, -11.9837, 29.3593, 13.6661, 67.2645, -166.555
4.1035, 2, -47.246, -11.984, 29.3593, 13.6661, 67.2645, -166.555
4.11142, 2, -47.2473, -11.9845, 29.3593, 13.6661, 67.2645, -166.555
4.11941, 2, -47.2491, -11.9852, 29.3593, 13.6661, 67.2645, -166.555
4.12748, 2, -47.2506, -11.9861, 29.3593, 13.6661, 67.2645, -166.555
4.13541, 2, -47.252, -11.987, 29.3593, 13.6661, 67.2645, -166.555
4.14342, 2, -47.2529, -11.9876, 29.3593, 13.6661, 67.2645, -166.555
4.15149, 2, -47.2534, -11.988, 29.3593, 13.6661, 67.2645, -166.555
4.15941, 2, -47.2536, -11.9882, 29.3593, 13.6661, 67.2644, -166.555
4.16741, 2, -47.2536, -11.9883, 29.3594, 13.6661, 67.2644, -166.555
4.17548, 2, -47.2533, -11.9883, 29.3594, 13.6661, 67.2645, -166.555
4.18343, 2, -47.2529, -11.9882, 29.3594, 13.666, 67.2644, -166.555
4.19142, 2, -47.2524, -11.9882, 29.3594, 13.6661, 67.2645, -166.555
4.19954, 2, -47.2521, -11.9882, 29.3594, 13.6661, 67.2645, -166.555
4.20742, 2, -47.2519, -11.9882, 29.3594, 13.6661, 67.2645, -166.555
4.21544, 2, -47.2519, -11.9883, 29.3594, 13.6661, 67.2645, -166.555
4.22358, 2, -47.252, -11.9884, 29.3594, 13.6662, 67.2645, -166.555
4.23149, 2, -47.2522, -11.9887, 29.3594, 13.6661, 67.2645, -166.555
4.2395, 2, -47.2528, -11.9891, 29.3594, 13.6661, 67.2645, -166.555
4.24757, 2, -47.2533, -11.9894, 29.3594, 13.6661, 67.2645, -166.555
4.25551, 2, -47.2536, -11.9896, 29.3594, 13.6661, 67.2645, -166.555
4.26352, 2, -47.2538, -11.9897, 29.3594, 13.6661, 67.2645, -166.555
4.27161, 2, -47.2538, -11.9897, 29.3594, 13.6661, 67.2645, -166.555
4.27942, 2, -47.2537, -11.9897, 29.3594, 13.6661, 67.2645, -166.555
4.28743, 2, -47.2536, -11.9896, 29.3594, 13.666, 67.2645, -166.555
4.29551, 2, -47.2531, -11.9896, 29.3594, 13.6661, 67.2645, -166.555
4.30356, 2, -47.2528, -11.9895, 29.3594, 13.666, 67.2645, -166.555
4.31155, 2, -47.2525, -11.9895, 29.3594, 13.666, 67.2645, -166.555
4.31961, 2, -47.2524, -11.9895, 29.3594, 13.6661, 67.2645, -166.555
4.32764, 2, -47.2523, -11.9895, 29.3594, 13.666, 67.2645, -166.555
4.33576, 2, -47.2522, -11.9896, 29.3594, 13.666, 67.2645, -166.555
4.34385, 2, -47.2522, -11.9897, 29.3594, 13.6661, 67.2645, -166.555
4.35196, 2, -47.2522, -11.9897, 29.3594, 13.6661, 67.2645, -166.555
4.35994, 2, -47.2522, -11.9897, 29.3594, 13.666, 67.2645, -166.555
4.36851, 2, -47.2522, -11.9897, 29.3594, 13.666, 67.2645, -166.555
4.37595, 2, -47.2522, -11.9897, 29.3594, 13.666, 67.2645, -166.555
4.384, 2, -47.2521, -11.9897, 29.3594, 13.666, 67.2645, -166.555
4.39202, 2, -47.2521, -11.9896, 29.3594, 13.666, 67.2645, -166.555
4.4002, 2, -47.2521, -11.9896, 29.3594, 13.666, 67.2645, -166.555
4.4074, 2, -47.2519, -11.9895, 29.3594, 13.666, 67.2645, -166.555
4.41545, 2, -47.2518, -11.9895, 29.3594, 13.666, 67.2645, -166.555
4.42341, 2, -47.2517, -11.9894, 29.3594, 13.666, 67.2645, -166.555
4.43141, 2, -47.2516, -11.9894, 29.3594, 13.666, 67.2645, -166.555
4.43947, 2, -47.2515, -11.9895, 29.3594, 13.666, 67.2645, -166.555
4.44741, 2, -47.2515, -11.9895, 29.3594, 13.666, 67.2645, -166.555
4.4554, 2, -47.2514, -11.9895, 29.3594, 13.666, 67.2646, -166.555
4.46343, 2, -47.2514, -11.9895, 29.3594, 13.666, 67.2645, -166.555
4.47292, 2, -47.2513, -11.9895, 29.3594, 13.666, 67.2646, -166.555
4.4809, 2, -47.2512, -11.9895, 29.3594, 13.666, 67.2646, -166.555
4.48745, 2, -47.2511, -11.9895, 29.3594, 13.666, 67.2646, -166.555
4.49714, 2, -47.251, -11.9894, 29.3594, 13.666, 67.2646, -166.555
4.50341, 2, -47.251, -11.9894, 29.3594, 13.666, 67.2646, -166.555
4.51296, 2, -47.2508, -11.9893, 29.3594, 13.666, 67.2646, -166.555
4.52102, 2, -47.2507, -11.9892, 29.3594, 13.666, 67.2646, -166.555
4.52741, 2, -47.2507, -11.9892, 29.3594, 13.666, 67.2646, -166.555
4.53642, 2, -47.2506, -11.9892, 29.3594, 13.666, 67.2646, -166.555
4.54448, 2, -47.2505, -11.9892, 29.3594, 13.666, 67.2646, -166.555
4.55141, 2, -47.2504, -11.9892, 29.3594, 13.666, 67.2647, -166.555
4.55947, 2, -47.2503, -11.9892, 29.3594, 13.666, 67.2646, -166.555
4.5674, 2, -47.2502, -11.9892, 29.3594, 13.6659, 67.2646, -166.555
4.57541, 2, -47.25, -11.9892, 29.3594, 13.6659, 67.2646, -166.555
4.58347, 2, -47.25, -11.9892, 29.3594, 13.6659, 67.2646, -166.555
4.59141, 2, -47.2499, -11.9892, 29.3594, 13.6659, 67.2646, -166.555
4.5994, 2, -47.2498, -11.9892, 29.3594, 13.6659, 67.2646, -166.555
4.60749, 2, -47.2497, -11.9891, 29.3594, 13.6659, 67.2647, -166.555
4.6154, 2, -47.2496, -11.989, 29.3594, 13.6659, 67.2647, -166.555
4.62341, 2, -47.2496, -11.9889, 29.3594, 13.6659, 67.2647, -166.555
4.63147, 2, -47.2495, -11.9889, 29.3594, 13.6659, 67.2646, -166.555
4.6394, 2, -47.2494, -11.9889, 29.3594, 13.6659, 67.2646, -166.555
4.6474, 2, -47.2493, -11.9889, 29.3594, 13.6659, 67.2647, -166.555
4.6555, 2, -47.2492, -11.9889, 29.3594, 13.6658, 67.2647, -166.555
4.66341, 2, -47.2492, -11.9888, 29.3594, 13.6658, 67.2647, -166.555
4.67141, 2, -47.2491, -11.9888, 29.3594, 13.6658, 67.2647, -166.555
4.67946, 2, -47.2492, -11.9888, 29.3594, 13.6658, 67.2647, -166.555
4.68743, 2, -47.2491, -11.9888, 29.3594, 13.6659, 67.2647, -166.555
4.69541, 2, -47.2491, -11.9888, 29.3594, 13.6659, 67.2647, -166.555
4.70353, 2, -47.249, -11.9888, 29.3594, 13.6659, 67.2647, -166.555
4.7114, 2, -47.2489, -11.9887, 29.3594, 13.6659, 67.2647, -166.555
4.71944, 2, -47.2488, -11.9886, 29.3594, 13.6659, 67.2647, -166.555
4.7275, 2, -47.2488, -11.9886, 29.3594, 13.6659, 67.2647, -166.555
4.73545, 2, -47.2487, -11.9885, 29.3594, 13.6658, 67.2647, -166.555
4.7435, 2, -47.2486, -11.9885, 29.3594, 13.6658, 67.2648, -166.555
4.75156, 2, -47.2486, -11.9885, 29.3594, 13.6659, 67.2648, -166.555
4.7595, 2, -47.2486, -11.9885, 29.3594, 13.6658, 67.2647, -166.555
4.76751, 2, -47.2485, -11.9885, 29.3594, 13.6658, 67.2647, -166.555
4.77559, 2, -47.2485, -11.9885, 29.3594, 13.6658, 67.2647, -166.555
4.7834, 2, -47.2485, -11.9885, 29.3594, 13.6658, 67.2647, -166.555
4.79144, 2, -47.2484, -11.9885, 29.3594, 13.6657, 67.2648, -166.555
4.79949, 2, -47.2484, -11.9885, 29.3594, 13.6657, 67.2647, -166.555
4.80746, 2, -47.2484, -11.9884, 29.3594, 13.6657, 67.2647, -166.554
4.81553, 2, -47.2483, -11.9883, 29.3594, 13.6657, 67.2648, -166.554
4.82364, 2, -47.2482, -11.9883, 29.3594, 13.6657, 67.2648, -166.554
4.83168, 2, -47.2481, -11.9882, 29.3594, 13.6656, 67.2648, -166.554
4.83995, 2, -47.248, -11.9882, 29.3594, 13.6656, 67.2648, -166.554
4.84841, 2, -47.2479, -11.9882, 29.3594, 13.6656, 67.2648, -166.554
4.85584, 2, -47.2479, -11.9881, 29.3594, 13.6656, 67.2648, -166.554
4.86449, 2, -47.2479, -11.9881, 29.3594, 13.6656, 67.2648, -166.554
4.87222, 2, -47.2478, -11.9881, 29.3594, 13.6656, 67.2648, -166.554
4.87996, 2, -47.2478, -11.9881, 29.3594, 13.6656, 67.2648, -166.554
4.88816, 2, -47.2477, -11.9881, 29.3594, 13.6656, 67.2648, -166.554
4.89601, 2, -47.2477, -11.9881, 29.3593, 13.6656, 67.2648, -166.554
4.90396, 2, -47.2477, -11.9881, 29.3593, 13.6656, 67.2648, -166.554
4.91222, 2, -47.2476, -11.988, 29.3593, 13.6656, 67.2648, -166.554
4.91944, 2, -47.2476, -11.988, 29.3593, 13.6656, 67.2648, -166.554
4.9274, 2, -47.2476, -11.9879, 29.3594, 13.6656, 67.2649, -166.554
4.9356, 2, -47.2475, -11.9879, 29.3594, 13.6655, 67.2649, -166.554
4.94346, 2, -47.2474, -11.9878, 29.3594, 13.6656, 67.2649, -166.554
4.9514, 2, -47.2473, -11.9878, 29.3594, 13.6655, 67.2649, -166.554
4.95938, 2, -47.2472, -11.9878, 29.3594, 13.6655, 67.265, -166.554
4.96744, 2, -47.2472, -11.9878, 29.3594, 13.6655, 67.265, -166.554
4.97539, 2, -47.2472, -11.9878, 29.3594, 13.6655, 67.265, -166.554
4.98339, 2, -47.2471, -11.9877, 29.3594, 13.6654, 67.265, -166.554
4.99144, 2, -47.2471, -11.9877, 29.3594, 13.6654, 67.265, -166.554
5.001, 2, -47.2471, -11.9877, 29.3594, 13.6654, 67.265, -166.554
5.00739, 2, -47.2471, -11.9877, 29.3594, 13.6654, 67.2651, -166.554
5.01545, 2, -47.247, -11.9877, 29.3594, 13.6654, 67.265, -166.554
5.02504, 2, -47.2469, -11.9876, 29.3594, 13.6653, 67.2651, -166.554
5.03139, 2, -47.2469, -11.9876, 29.3594, 13.6653, 67.2651, -166.554
5.03951, 2, -47.2468, -11.9875, 29.3594, 13.6654, 67.2651, -166.554
5.04846, 2, -47.2467, -11.9875, 29.3594, 13.6653, 67.2651, -166.554
5.05538, 2, -47.2466, -11.9874, 29.3594, 13.6653, 67.2651, -166.554
5.0645, 2, -47.2466, -11.9874, 29.3594, 13.6653, 67.2651, -166.554
5.07143, 2, -47.2465, -11.9874, 29.3594, 13.6653, 67.2651, -166.554
5.07948, 2, -47.2465, -11.9874, 29.3594, 13.6653, 67.2651, -166.554
5.0877, 2, -47.2465, -11.9874, 29.3593, 13.6653, 67.2651, -166.554
5.09644, 2, -47.2464, -11.9874, 29.3594, 13.6653, 67.2652, -166.554
5.10345, 2, -47.2464, -11.9874, 29.3593, 13.6652, 67.2652, -166.554
5.11141, 2, -47.2464, -11.9873, 29.3594, 13.6652, 67.2652, -166.554
5.11938, 2, -47.2464, -11.9873, 29.3594, 13.6652, 67.2652, -166.554
5.12745, 2, -47.2463, -11.9873, 29.3594, 13.6652, 67.2652, -166.554
5.13539, 2, -47.2462, -11.9872, 29.3593, 13.6652, 67.2652, -166.554
5.14338, 4, -47.2462, -11.9872, 29.3594, 13.6652, 67.2653, -166.554
5.15146, 4, -47.2461, -11.9871, 29.3593, 13.6651, 67.2652, -166.554
5.15942, 4, -47.246, -11.9871, 29.3593, 13.6651, 67.2652, -166.554
5.16739, 4, -47.2459, -11.9871, 29.3593, 13.6651, 67.2652, -166.554
5.17551, 4, -47.2459, -11.9871, 29.3593, 13.6651, 67.2652, -166.554
5.18338, 4, -47.2459, -11.9871, 29.3593, 13.6651, 67.2652, -166.554
5.19141, 4, -47.2458, -11.9871, 29.3593, 13.6651, 67.2653, -166.554
5.19945, 4, -47.2458, -11.9871, 29.3593, 13.6651, 67.2652, -166.554
5.20745, 4, -47.2458, -11.987, 29.3594, 13.6651, 67.2653, -166.554
5.21538, 4, -47.2457, -11.987, 29.3594, 13.6651, 67.2653, -166.554
5.22346, 4, -47.2457, -11.987, 29.3594, 13.6651, 67.2653, -166.554
5.23143, 4, -47.2457, -11.9869, 29.3593, 13.6651, 67.2653, -166.554
5.23962, 4, -47.2456, -11.9869, 29.3593, 13.6651, 67.2653, -166.554
5.25497, 4, -47.2456, -11.9869, 29.3593, 13.665, 67.2653, -166.554
5.25698, 4, -47.2455, -11.9869, 29.3593, 13.665, 67.2653, -166.554
5.26383, 4, -47.2454, -11.9868, 29.3593, 13.665, 67.2653, -166.554
5.27253, 4, -47.2454, -11.9868, 29.3593, 13.665, 67.2653, -166.554
5.27966, 4, -47.2454, -11.9868, 29.3593, 13.665, 67.2653, -166.554
5.28854, 4, -47.2454, -11.9868, 29.3593, 13.665, 67.2653, -166.554
5.29657, 4, -47.2453, -11.9868, 29.3594, 13.665, 67.2653, -166.553
5.30495, 4, -47.2453, -11.9868, 29.3593, 13.6649, 67.2653, -166.553
5.3117, 4, -47.2453, -11.9867, 29.3593, 13.6649, 67.2653, -166.553
5.32247, 4, -47.2453, -11.9867, 29.3593, 13.6649, 67.2653, -166.553
5.32827, 4, -47.2452, -11.9867, 29.3593, 13.6649, 67.2653, -166.553
5.33608, 4, -47.2452, -11.9866, 29.3593, 13.6649, 67.2653, -166.553
5.34401, 4, -47.2451, -11.9866, 29.3593, 13.6649, 67.2653, -166.553
5.35215, 4, -47.2451, -11.9866, 29.3593, 13.6649, 67.2653, -166.553
5.36088, 4, -47.245, -11.9866, 29.3593, 13.6649, 67.2653, -166.553
5.36958, 4, -47.245, -11.9866, 29.3593, 13.6649, 67.2653, -166.553
5.37851, 4, -47.2449, -11.9865, 29.3593, 13.6649, 67.2653, -166.553
5.3842, 4, -47.2449, -11.9865, 29.3593, 13.6649, 67.2654, -166.553
5.39217, 4, -47.2449, -11.9865, 29.3593, 13.6649, 67.2654, -166.553
5.40324, 4, -47.2448, -11.9865, 29.3593, 13.6648, 67.2653, -166.553
5.40824, 4, -47.2449, -11.9866, 29.3594, 13.6648, 67.2653, -166.553
5.41745, 4, -47.2459, -11.987, 29.3598, 13.665, 67.2654, -166.553
5.42891, 4, -47.25, -11.9906, 29.3638, 13.6701, 67.2668, -166.553
5.43384, 4, -47.2524, -11.9932, 29.3672, 13.6764, 67.2683, -166.552
5.44512, 4, -47.2555, -11.997, 29.3799, 13.7014, 67.2747, -166.548
5.44755, 4, -47.2645, -12.0088, 29.3903, 13.722, 67.2804, -166.543
5.45693, 5, -47.289, -12.0416, 29.4471, 13.8379, 67.3127, -166.517
5.46352, 5, -47.3011, -12.0579, 29.4771, 13.9004, 67.3304, -166.503
5.47464, 5, -47.3529, -12.1254, 29.6113, 14.1847, 67.4092, -166.438
5.48162, 5, -47.4025, -12.1882, 29.7436, 14.4697, 67.488, -166.372
5.49001, 5, -47.4649, -12.2659, 29.9133, 14.8387, 67.5878, -166.288
5.49563, 5, -47.5008, -12.3105, 30.0126, 15.0546, 67.6459, -166.238
5.50584, 5, -47.6266, -12.4664, 30.367, 15.8184, 67.8493, -166.064
5.51153, 5, -47.6743, -12.5252, 30.5019, 16.1064, 67.9252, -165.999
5.51955, 5, -47.7766, -12.652, 30.7941, 16.7215, 68.0858, -165.861
5.53085, 5, -47.887, -12.861, 31.2757, 17.7153, 68.3392, -165.641
5.53552, 5, -48.0033, -12.9346, 31.4448, 18.0575, 68.425, -165.567
5.54629, 5, -48.1838, -13.162, 31.9665, 19.0979, 68.681, -165.344
5.55351, 5, -48.3039, -13.3152, 32.3205, 19.7905, 68.848, -165.196
5.56135, 5, -48.3628, -13.391, 32.4978, 20.1321, 68.93, -165.122
5.56861, 5, -48.4759, -13.5395, 32.8506, 20.8008, 69.0911, -164.969
5.5764, 6, -48.579, -13.6811, 33.1951, 21.4403, 69.2499, -164.801
5.58352, 6, -48.6678, -13.8122, 33.526, 22.0386, 69.4081, -164.604
5.59154, 7, -48.7383, -13.933, 33.8385, 22.59, 69.5685, -164.365
5.60293, 7, -48.7875, -14.045, 34.1311, 23.0908, 69.7337, -163.901
5.60752, 7, -48.8152, -14.1485, 34.4027, 23.5441, 69.9062, -163.713
5.61923, 8, -48.8194, -14.2858, 34.7752, 24.1549, 70.1852, -163.045
5.62352, 8, -48.8119, -14.3267, 34.8922, 24.345, 70.284, -162.789
5.63264, 9, -48.7857, -14.4028, 35.1177, 24.7128, 70.491, -162.235
5.64599, 10, -48.7237, -14.5068, 35.5502, 25.4291, 70.9368, -161.01
5.64821, 10, -48.6978, -14.5397, 35.5502, 25.4291, 70.9368, -161.01
5.65651, 10, -48.639, -14.6035, 35.7637, 25.7869, 71.1714, -160.366
5.66662, 11, -48.5377, -14.695, 36.0836, 26.328, 71.5295, -159.39
5.6726, 11, -48.5012, -14.725, 36.1904, 26.5101, 71.6491, -159.066
5.68041, 12, -48.4253, -14.7857, 36.4031, 26.878, 71.8888, -158.42
5.68752, 12, -48.3467, -14.8475, 36.6137, 27.2517, 72.1289, -157.773
5.69552, 13, -48.267, -14.9088, 36.823, 27.6321, 72.3699, -157.126
5.7037, 13, -48.1864, -14.9685, 37.0308, 28.0193, 72.6124, -156.476
5.7126, 14, -48.1037, -15.0279, 37.2368, 28.4126, 72.8563, -155.824
5.72014, 14, -48.0173, -15.0885, 37.442, 28.8108, 73.1019, -155.171
5.72753, 15, -47.9274, -15.1493, 37.6464, 29.2121, 73.348, -154.518
5.7358, 15, -47.8341, -15.2093, 37.8482, 29.6148, 73.5934, -153.868
5.74552, 16, -47.7362, -15.2683, 38.0476, 30.0172, 73.8372, -153.22
5.75197, 16, -47.6316, -15.3279, 38.245, 30.4184, 74.0787, -152.576
5.76158, 17, -47.5206, -15.3892, 38.4391, 30.8176, 74.3167, -151.937
5.77126, 17, -47.4044, -15.4519, 38.7236, 31.4102, 74.6647, -150.987
5.77564, 18, -47.2833, -15.5151, 38.8173, 31.6059, 74.7779, -150.673
5.78515, 18, -47.1569, -15.5789, 39.0024, 31.9944, 75.0002, -150.052
5.79356, 19, -47.0251, -15.6445, 39.1845, 32.3795, 75.2163, -149.438
5.80123, 19, -46.8882, -15.7127, 39.3649, 32.7627, 75.427, -148.831
5.80771, 20, -46.7463, -15.7829, 39.5443, 33.1441, 75.6327, -148.231
5.81659, 20, -46.5993, -15.8551, 39.7218, 33.5242, 75.8339, -147.639
5.82855, 21, -46.37, -15.9687, 39.9839, 34.0928, 76.1278, -146.763
5.83287, 21, -46.2913, -16.0081, 40.0706, 34.2818, 76.2237, -146.475
5.84274, 22, -46.1304, -16.0887, 40.2429, 34.6583, 76.4116, -145.903
5.84889, 22, -45.9645, -16.1709, 40.4125, 35.0319, 76.5944, -145.339
5.85602, 23, -45.7931, -16.2544, 40.579, 35.4017, 76.7719, -144.78
5.86486, 23, -45.6153, -16.3397, 40.7429, 35.7669, 76.9432, -144.227
5.87252, 24, -45.4307, -16.4269, 40.9034, 36.127, 77.1089, -143.68
5.88101, 24, -45.2393, -16.5157, 41.0592, 36.481, 77.2688, -143.138
5.88835, 25, -45.0412, -16.6056, 41.2106, 36.8283, 77.4234, -142.6
5.90031, 25, -44.8369, -16.7418, 41.4297, 37.3365, 77.6459, -141.799
5.90421, 26, -44.6258, -16.7877, 41.5004, 37.5023, 77.7177, -141.534
5.91408, 26, -44.4076, -16.8798, 41.6377, 37.8287, 77.8585, -141.006
5.92066, 27, -44.1822, -16.9719, 41.7695, 38.1477, 77.9953, -140.479
5.93248, 27, -43.8314, -17.1088, 41.9561, 38.6112, 78.1932, -139.691
5.93671, 28, -43.7111, -17.154, 42.0151, 38.7616, 78.2574, -139.429
5.94636, 28, -43.4653, -17.2434, 42.1282, 39.0561, 78.383, -138.905
5.95453, 29, -43.2127, -17.3313, 42.2345, 39.342, 78.5057, -138.383
5.96265, 29, -42.9538, -17.4177, 42.3338, 39.6197, 78.6249, -137.861
5.96758, 30, -42.8218, -17.4601, 42.3808, 39.7555, 78.6833, -137.6
5.97766, 30, -42.4132, -17.5846, 42.5108, 40.1497, 78.8545, -136.818
5.98554, 31, -42.1302, -17.6644, 42.5884, 40.4019, 78.9646, -136.297
5.99397, 31, -41.8394, -17.7418, 42.6591, 40.6455, 79.0725, -135.777
5.99955, 32, -41.6915, -17.7796, 42.6919, 40.7642, 79.1255, -135.517
6.00756, 32, -41.3903, -17.8535, 42.7524, 40.9951, 79.2291, -134.998
6.01556, 33, -41.0827, -17.9247, 42.8059, 41.2179, 79.3303, -134.48
6.02352, 33, -40.7685, -17.9926, 42.8522, 41.4326, 79.4293, -133.963
6.03484, 34, -40.4476, -18.089, 42.908, 41.7394, 79.5723, -133.189
6.04246, 34, -39.9572, -18.15, 42.9361, 41.9338, 79.6645, -132.674
6.05087, 35, -39.624, -18.2079, 42.9571, 42.1206, 79.7542, -132.161
6.05725, 35, -39.455, -18.2355, 42.9649, 42.2999, 79.8415, -131.648
6.06656, 36, -38.9377, -18.3133, 42.9779, 42.4714, 79.9266, -131.137
6.07156, 36, -38.7615, -18.3375, 42.9788, 42.5543, 79.9684, -130.882
6.07966, 37, -38.4043, -18.3836, 42.9757, 42.7144, 80.0505, -130.372
6.0875, 37, -38.0413, -18.4262, 42.9657, 42.8668, 80.1303, -129.865
6.0987, 38, -37.4867, -18.4831, 42.9379, 43.0819, 80.2463, -129.107
6.1075, 38, -37.1111, -18.5168, 42.9112, 43.2158, 80.3214, -128.603
6.11524, 39, -36.731, -18.5472, 42.8777, 43.3424, 80.3934, -128.101
6.11952, 39, -36.5392, -18.561, 42.8584, 43.403, 80.429, -127.851
6.12814, 40, -36.1517, -18.5857, 42.8148, 43.5186, 80.4988, -127.353
6.13549, 40, -35.7582, -18.6066, 42.7648, 43.627, 80.5666, -126.856
6.14454, 41, -35.3589, -18.6235, 42.7081, 43.7282, 80.6327, -126.36
6.15158, 41, -34.954, -18.6367, 42.6451, 43.822, 80.6962, -125.867
6.15956, 42, -34.5447, -18.6465, 42.5756, 43.9091, 80.7586, -125.377
6.17065, 42, -33.9248, -18.655, 42.4594, 44.0261, 80.8473, -124.645
6.17668, 43, -33.7165, -18.6563, 42.4176, 44.0614, 80.8766, -124.402
6.18354, 43, -33.2967, -18.6563, 42.3295, 44.1268, 80.933, -123.918
6.19147, 44, -32.8711, -18.6525, 42.2357, 44.1855, 80.9875, -123.436
6.1996, 44, -32.4391, -18.6451, 42.1362, 44.2363, 81.0413, -122.957
6.20759, 45, -32.0008, -18.6338, 42.0308, 44.2804, 81.0923, -122.481
6.22023, 45, -31.3348, -18.6102, 41.8615, 44.3326, 81.167, -121.769
6.22355, 46, -31.1114, -18.6006, 41.802, 44.3461, 81.191, -121.534
6.23553, 46, -30.4382, -18.5665, 41.6149, 44.3748, 81.2592, -120.83
6.2412, 47, -30.2121, -18.5531, 41.5496, 44.3806, 81.2817, -120.597
6.24788, 47, -29.7562, -18.5229, 41.4146, 44.387, 81.3261, -120.131
6.25561, 48, -29.2936, -18.4883, 41.2736, 44.3866, 81.3687, -119.667
6.2669, 48, -28.825, -18.4495, 41.0506, 44.3692, 81.4313, -118.976
6.27168, 49, -28.3511, -18.4062, 40.9733, 44.3592, 81.4523, -118.746
6.28067, 49, -27.8744, -18.3585, 40.8143, 44.332, 81.4934, -118.287
6.29213, 50, -27.1544, -18.2783, 40.5637, 44.2729, 81.5544, -117.602
6.29795, 50, -26.9124, -18.2488, 40.4768, 44.2489, 81.5752, -117.373
6.30373, 51, -26.4229, -18.1857, 40.2985, 44.1938, 81.6178, -116.917
6.31358, 51, -25.9257, -18.1171, 40.1136, 44.1282, 81.66, -116.463
6.31983, 52, -25.4217, -18.043, 39.921, 44.0534, 81.7029, -116.009
6.32857, 52, -24.9142, -17.9637, 39.7215, 43.9676, 81.7475, -115.556
6.3381, 53, -24.4048, -17.879, 39.516, 43.8719, 81.7922, -115.103
6.34462, 53, -23.8923, -17.7884, 39.3033, 43.7662, 81.8373, -114.651
6.35272, 54, -23.3738, -17.6915, 39.0829, 43.6499, 81.885, -114.199
6.36076, 54, -22.8468, -17.5885, 38.856, 43.523, 81.9342, -113.747
6.36837, 55, -22.3123, -17.4793, 38.6216, 43.3848, 81.9848, -113.296
6.38134, 55, -21.5032, -17.3041, 38.2565, 43.1553, 82.0665, -112.618
6.38453, 56, -21.2323, -17.2428, 38.1317, 43.0731, 82.0941, -112.392
6.39289, 56, -20.6877, -17.1159, 37.8765, 42.8999, 82.151, -111.941
6.40011, 57, -20.1357, -16.9836, 37.6147, 42.7151, 82.2104, -111.49
6.40817, 57, -19.5741, -16.8456, 37.3463, 42.5187, 82.2705, -111.04
6.41611, 58, -19.2902, -16.7743, 37.0708, 42.3097, 82.3335, -110.59
6.42419, 58, -18.7188, -16.6271, 36.7896, 42.0881, 82.3978, -110.14
6.4369, 59, -17.8571, -16.3961, 36.5014, 41.8542, 82.4646, -109.466
6.44215, 59, -17.277, -16.2363, 36.2071, 41.6077, 82.5338, -109.242
6.44755, 60, -16.9835, -16.1548, 36.0577, 41.4796, 82.569, -109.017
6.45893, 60, -16.0882, -15.9017, 35.6012, 41.0764, 82.6782, -108.344
6.46542, 61, -15.4838, -15.7267, 35.2902, 40.791, 82.7528, -107.895
6.47514, 61, -14.8769, -15.5476, 34.9736, 40.4933, 82.8296, -107.447
6.47947, 62, -14.5721, -15.4565, 34.8133, 40.3397, 82.8687, -107.222
6.4892, 62, -13.645, -15.1751, 34.3242, 39.859, 82.99, -106.549
6.49549, 63, -13.3308, -15.0781, 34.159, 39.692, 83.0318, -106.325
6.50349, 63, -12.6963, -14.8795, 33.8244, 39.3469, 83.1175, -105.875
6.51478, 64, -11.7345, -14.5718, 33.3125, 38.8026, 83.2526, -105.2
6.51947, 64, -11.4119, -14.4662, 33.1388, 38.6138, 83.2995, -104.974
6.5338, 65, -10.4299, -14.1377, 32.6082, 37.8196, 83.4998, -104.066
6.53576, 65, -10.0971, -14.0246, 32.4282, 37.8196, 83.4998, -104.066
6.54681, 66, -9.08486, -13.6751, 31.8801, 37.179, 83.6648, -103.38
6.55423, 66, -8.74398, -13.5551, 31.6946, 36.7306, 83.7829, -102.92
6.56133, 67, -8.05812, -13.3094, 31.3178, 36.2648, 83.9073, -102.458
6.56758, 67, -7.36393, -13.0571, 30.9342, 36.0258, 83.9724, -102.226
6.57543, 68, -6.66043, -12.7977, 30.5452, 35.5357, 84.1073, -101.759
6.58356, 68, -5.94963, -12.5322, 30.1533, 35.0321, 84.2482, -101.291
6.5965, 69, -4.87312, -12.1208, 29.5599, 34.2546, 84.4691, -100.585
6.59993, 69, -4.51103, -11.9795, 29.3608, 33.9897, 84.5452, -100.349
6.61014, 70, -3.41217, -11.546, 28.7631, 33.1772, 84.7817, -99.6375
6.61553, 70, -3.04156, -11.3975, 28.5635, 32.899, 84.8637, -99.399
6.62644, 71, -1.91624, -10.9391, 27.9607, 32.0407, 85.1211, -98.6809
6.63157, 71, -1.53645, -10.7823, 27.7578, 31.7462, 85.2117, -98.4401
6.63949, 72, -0.771164, -10.4638, 27.3489, 31.1426, 85.4009, -97.9559
6.64992, 72, 0.000430557, -10.1399, 26.9368, 30.2008, 85.7044, -97.2237
6.65659, 73, 0.777805, -9.80753, 26.5217, 29.8798, 85.8106, -96.9783
6.66637, 73, 1.95433, -9.29235, 25.8973, 28.8992, 86.1415, -96.2401
6.67158, 74, 2.3482, -9.11747, 25.6897, 28.5679, 86.2558, -95.993
6.68241, 74, 3.13703, -8.7654, 25.2765, 27.5639, 86.6092, -95.2491
6.68748, 75, 3.92655, -8.4089, 24.8685, 27.227, 86.7297, -95.0006
6.69694, 75, 4.71694, -8.04729, 24.4664, 26.554, 86.9734, -94.5039
6.70452, 76, 5.5068, -7.68126, 24.0719, 25.8848, 87.2209, -94.007
6.7116, 76, 6.29557, -7.31063, 23.6864, 25.2177, 87.471, -93.5098
6.72049, 77, 7.08248, -6.93347, 23.3095, 24.5553, 87.7253, -93.013
6.73608, 78, 8.65673, -6.15498, 22.5745, 23.2329, 88.2568, -92.0192
6.73779, 78, 8.65673, -6.15498, 22.5745, 23.2329, 88.2568, -92.0192
6.7556, 79, 10.6295, -5.13767, 21.675, 21.553, 88.9895, -90.7615
6.75688, 79, 10.6295, -5.13767, 21.675, 21.553, 88.9895, -90.7615
6.75949, 79, 11.0245, -4.92764, 21.4956, 21.213, 89.1466, -90.506
6.76745, 80, 11.812, -4.50042, 21.1372, 20.5298, 89.4708, -89.9908
6.7755, 80, 12.5942, -4.06348, 20.7813, 19.8447, 89.8076, -89.4684
6.78344, 81, 13.3705, -3.61638, 20.4285, 19.1652, 90.1553, -88.9396
6.79155, 81, 14.1422, -3.15993, 20.0814, 18.4957, 90.5118, -88.4057
6.80014, 82, 14.9068, -2.69545, 19.742, 17.839, 90.8749, -87.8682
6.80737, 82, 15.6637, -2.22279, 19.413, 17.1969, 91.2437, -87.3278
6.81617, 83, 16.4121, -1.7429, 19.094, 16.572, 91.6169, -86.7845
6.82348, 83, 17.1507, -1.25657, 18.7862, 15.9667, 91.9943, -86.2391
6.83181, 84, 17.877, -0.764098, 18.4882, 15.3791, 92.3761, -85.6925
6.83974, 84, 18.5872, -0.26743, 18.2003, 14.8109, 92.7637, -85.1456
6.84771, 84, 19.2798, 0.233378, 17.9198, 14.262, 93.1585, -84.5983
6.85637, 85, 19.9543, 0.739674, 17.6454, 13.7326, 93.5619, -84.0525
6.86378, 85, 20.6107, 1.25033, 17.3771, 13.2235, 93.9727, -83.5089
6.87243, 86, 21.2503, 1.76498, 17.1139, 12.7352, 94.3895, -82.9676
6.87986, 86, 21.8755, 2.286, 16.8571, 12.2684, 94.812, -82.4262
6.88845, 87, 22.4886, 2.81638, 16.6054, 11.8231, 95.2403, -81.8834
6.89592, 87, 23.0909, 3.35676, 16.3581, 11.398, 95.6744, -81.3369
6.90448, 88, 23.6835, 3.90551, 16.1149, 10.9906, 96.1148, -80.7852
6.91197, 88, 23.9761, 4.18255, 15.9944, 10.5997, 96.5608, -80.2247
6.92043, 89, 24.8364, 5.02751, 15.6408, 10.2243, 97.0132, -79.6546
6.92733, 89, 25.1172, 5.31471, 15.5259, 10.0421, 97.2419, -79.3652
6.93535, 89, 25.6724, 5.89722, 15.2987, 9.68955, 97.7041, -78.7781
6.94337, 90, 26.2227, 6.48976, 15.0745, 9.35167, 98.1724, -78.1777
6.95132, 90, 26.7658, 7.09112, 14.855, 9.02942, 98.6474, -77.563
6.96057, 91, 27.5575, 8.01011, 14.5354, 8.57861, 99.3717, -76.6167
6.96733, 91, 27.8152, 8.32171, 14.431, 8.43778, 99.6161, -76.2952
6.97533, 92, 28.3238, 8.95294, 14.2253, 8.17227, 100.108, -75.6436
6.98516, 93, 29.0728, 9.91855, 13.9259, 7.81512, 100.854, -74.6501
6.99133, 93, 29.3174, 10.2441, 13.829, 7.70753, 101.103, -74.3158
7.0013, 94, 30.0318, 11.2292, 13.5498, 7.41973, 101.852, -73.301
7.00734, 94, 30.2628, 11.5597, 13.4605, 7.33558, 102.1, -72.9597
7.01712, 95, 30.9342, 12.5544, 13.2031, 7.11885, 102.842, -71.9295
7.02333, 95, 31.1511, 12.8868, 13.121, 7.05841, 103.088, -71.5832
7.03327, 96, 31.7811, 13.887, 12.8865, 6.91257, 103.82, -70.5355
7.03941, 96, 31.9839, 14.221, 12.8119, 6.87573, 104.062, -70.184
7.04908, 96, 32.3773, 14.8895, 12.6672, 6.8206, 104.544, -69.121
7.05538, 97, 32.7545, 15.5581, 12.5292, 6.78728, 105.021, -68.7634
7.06437, 97, 33.1157, 16.2252, 12.3988, 6.7752, 105.492, -68.0457
7.07137, 98, 33.4614, 16.89, 12.2769, 6.78545, 105.956, -67.3256
7.07932, 98, 33.7929, 17.5503, 12.1638, 6.81665, 106.411, -66.6019
7.08733, 99, 34.1107, 18.2051, 12.0601, 6.86738, 106.856, -65.8781
7.09532, 99, 34.4166, 18.8524, 11.966, 6.9381, 107.289, -65.1566
7.10439, 100, 34.7114, 19.4913, 11.881, 7.02599, 107.709, -64.4367
7.11132, 100, 34.9945, 20.121, 11.8049, 7.13164, 108.115, -63.7216
7.11945, 101, 35.2652, 20.7396, 11.737, 7.25303, 108.505, -63.014
7.12737, 101, 35.5238, 21.3472, 11.6774, 7.38908, 108.879, -62.3124
7.13539, 102, 35.7697, 21.9427, 11.6263, 7.53742, 109.237, -61.6204
7.14333, 102, 36.0019, 22.5249, 11.5833, 7.69613, 109.577, -60.941
7.15129, 103, 36.2229, 23.0925, 11.5489, 7.86342, 109.902, -60.2729
7.1594, 103, 36.4366, 23.6451, 11.5231, 8.03812, 110.209, -59.6173
7.16733, 103, 36.6442, 24.1824, 11.5063, 8.22072, 110.499, -58.9759
7.17532, 104, 36.845, 24.7038, 11.4978, 8.41175, 110.771, -58.347
7.1834, 104, 37.0396, 25.2089, 11.4961, 8.61191, 111.022, -57.7287
7.19132, 104, 37.2281, 25.6989, 11.5009, 8.82074, 111.254, -57.1221
7.19934, 104, 37.4076, 26.1725, 11.5112, 9.03673, 111.467, -56.5283
7.20739, 104, 37.5765, 26.6298, 11.5249, 9.2584, 111.662, -55.9473
7.21532, 104, 37.7368, 27.0715, 11.5414, 9.48295, 111.842, -55.382
7.22333, 104, 37.8923, 27.4981, 11.5605, 9.70736, 112.009, -54.8356
7.23139, 104, 38.0445, 27.909, 11.581, 9.92921, 112.166, -54.3114
7.23936, 104, 38.1923, 28.3029, 11.6016, 10.1467, 112.313, -53.8095
7.24747, 104, 38.3342, 28.6805, 11.6216, 10.3588, 112.452, -53.3311
7.25556, 104, 38.4694, 29.0409, 11.6403, 10.564, 112.584, -52.8773
7.26343, 104, 38.5971, 29.3832, 11.6581, 10.7616, 112.708, -52.4478
7.27204, 104, 38.7163, 29.7066, 11.6747, 10.9508, 112.824, -52.0438
7.28049, 104, 38.8271, 30.0108, 11.6901, 11.1311, 112.932, -51.6642
7.2875, 104, 38.9298, 30.2969, 11.7046, 11.3017, 113.033, -51.3099
7.29552, 104, 39.0249, 30.5633, 11.718, 11.4621, 113.126, -50.9812
7.30337, 104, 39.1123, 30.8099, 11.73, 11.612, 113.212, -50.6778
7.31136, 104, 39.1917, 31.0372, 11.7409, 11.7509, 113.29, -50.3993
7.31942, 104, 39.2631, 31.2446, 11.751, 11.8782, 113.361, -50.1463
7.32745, 104, 39.3266, 31.4321, 11.7603, 11.994, 113.425, -49.9186
7.33551, 104, 39.3824, 31.6005, 11.7685, 12.0979, 113.482, -49.7158
7.34416, 104, 39.4314, 31.7493, 11.7757, 12.1895, 113.531, -49.5382
7.35179, 104, 39.4743, 31.8795, 11.7824, 12.2691, 113.573, -49.3851
7.36033, 104, 39.5116, 31.9922, 11.7884, 12.3365, 113.609, -49.256
7.36814, 104, 39.5427, 32.0881, 11.7937, 12.3927, 113.639, -49.1502
7.37582, 104, 39.5682, 32.168, 11.7984, 12.4367, 113.662, -49.0651
7.38442, 104, 39.5888, 32.234, 11.8026, 12.4709, 113.68, -48.9997
7.39192, 104, 39.6049, 32.2874, 11.8065, 12.4967, 113.692, -48.9516
7.40018, 104, 39.6173, 32.3298, 11.81, 12.5154, 113.701, -48.9177
7.40805, 104, 39.6268, 32.3621, 11.8132, 12.5281, 113.707, -48.895
7.41601, 104, 39.6338, 32.3862, 11.816, 12.5365, 113.71, -48.8809
7.42332, 104, 39.6364, 32.3959, 11.8173, 12.5393, 113.711, -48.8762
7.43236, 104, 39.6413, 32.4168, 11.8203, 12.5441, 113.713, -48.869
7.44041, 105, 39.6427, 32.425, 11.8218, 12.5455, 113.714, -48.8673
7.44731, 105, 39.6431, 32.4278, 11.8224, 12.5459, 113.714, -48.8668
7.45538, 105, 39.6429, 32.4319, 11.8234, 12.5463, 113.714, -48.8664
7.4634, 105, 39.642, 32.4347, 11.8243, 12.5465, 113.714, -48.8663
7.47136, 105, 39.641, 32.4367, 11.825, 12.5466, 113.714, -48.8665
7.47931, 105, 39.64, 32.4383, 11.8256, 12.5467, 113.714, -48.8668
7.48878, 105, 39.6382, 32.4403, 11.8264, 12.5468, 113.714, -48.8672
7.49531, 105, 39.6377, 32.4409, 11.8267, 12.5467, 113.714, -48.8674
7.50333, 105, 39.637, 32.442, 11.8273, 12.5467, 113.714, -48.8677
7.51294, 105, 39.6365, 32.4437, 11.8282, 12.5468, 113.714, -48.8681
7.5209, 105, 39.6363, 32.4447, 11.8287, 12.5468, 113.714, -48.8684
7.52888, 105, 39.6361, 32.4456, 11.8291, 12.5467, 113.714, -48.8687
7.53695, 105, 39.6359, 32.4459, 11.8295, 12.5467, 113.714, -48.8689
7.5451, 105, 39.6357, 32.4465, 11.8297, 12.5467, 113.714, -48.8691
7.55131, 105, 39.6354, 32.4468, 11.83, 12.5467, 113.714, -48.8693
7.55938, 105, 39.6351, 32.447, 11.8302, 12.5467, 113.714, -48.8694
