hehonglu123/Motion-Primitive-Planning/ILC/recorded_data/realrobot/from_NX/iteration_9/run_3.csv
timestamp, cmd_num, J1, J2, J3, J4, J5, J6
0.00036, -1, 39.6303, 32.4471, 11.8319, 12.5453, 113.713, -48.8723
0.003752, -1, 39.6303, 32.4471, 11.8319, 12.5453, 113.713, -48.8723
0.008026, -1, 39.6303, 32.4471, 11.8319, 12.5453, 113.713, -48.8723
0.028653, -1, 39.6303, 32.4471, 11.8319, 12.5453, 113.713, -48.8724
0.029902, -1, 39.6303, 32.4471, 11.8319, 12.5453, 113.713, -48.8724
0.032665, -1, 39.6303, 32.4471, 11.8319, 12.5453, 113.713, -48.8724
0.039848, -1, 39.6302, 32.4471, 11.8319, 12.5453, 113.713, -48.8724
0.047745, -1, 39.6301, 32.4471, 11.8319, 12.5453, 113.713, -48.8725
0.055857, -1, 39.6289, 32.4469, 11.8318, 12.5453, 113.713, -48.8724
0.063853, -1, 39.6252, 32.4461, 11.8318, 12.5453, 113.713, -48.8725
0.071853, -1, 39.6181, 32.444, 11.8318, 12.5453, 113.712, -48.873
0.08021, -1, 39.6073, 32.44, 11.8317, 12.5453, 113.711, -48.8757
0.086741, -1, 39.6, 32.437, 11.8317, 12.5453, 113.711, -48.8789
0.094787, -1, 39.5803, 32.4284, 11.8318, 12.5453, 113.707, -48.8903
0.104159, -1, 39.5338, 32.4077, 11.8329, 12.5453, 113.695, -48.9258
0.11075, -1, 39.5134, 32.3982, 11.8343, 12.5453, 113.688, -48.9445
0.1188, -1, 39.464, 32.3744, 11.8392, 12.5453, 113.669, -48.9949
0.128577, -1, 39.3659, 32.3261, 11.8533, 12.5454, 113.624, -49.1108
0.137224, -1, 39.2837, 32.2844, 11.8685, 12.5455, 113.582, -49.2177
0.142815, -1, 39.2374, 32.2606, 11.8781, 12.5456, 113.557, -49.2809
0.152376, -1, 39.0776, 32.1774, 11.9134, 12.5466, 113.468, -49.5083
0.161158, -1, 39.0173, 32.1457, 11.9421, 12.5479, 113.397, -49.6898
0.166819, -1, 38.8867, 32.077, 11.9579, 12.5487, 113.357, -49.7885
0.17673, -1, 38.668, 31.9618, 12.0098, 12.5516, 113.229, -50.1124
0.185348, -1, 38.5895, 31.9204, 12.0282, 12.5527, 113.183, -50.2278
0.191745, -1, 38.4252, 31.8342, 12.0659, 12.555, 113.089, -50.4677
0.199731, -1, 38.2529, 31.7441, 12.1047, 12.5573, 112.991, -50.7158
0.207739, -1, 38.0745, 31.6509, 12.1438, 12.5598, 112.89, -50.9691
0.214728, -1, 37.8909, 31.5555, 12.1827, 12.5622, 112.789, -51.2257
0.223745, -1, 37.7033, 31.4586, 12.2215, 12.5646, 112.687, -51.4841
0.231792, -1, 37.5131, 31.3609, 12.2602, 12.567, 112.585, -51.7435
0.23881, -1, 37.3215, 31.263, 12.299, 12.5695, 112.482, -52.003
0.247768, -1, 37.1295, 31.165, 12.3378, 12.5719, 112.379, -52.2627
0.255794, -1, 36.9373, 31.0673, 12.3765, 12.5746, 112.276, -52.5227
0.262745, -1, 36.7453, 30.9696, 12.4153, 12.5771, 112.173, -52.783
0.271745, -1, 36.5537, 30.8719, 12.4542, 12.5797, 112.07, -53.0433
0.279796, -1, 36.3621, 30.7742, 12.4931, 12.5823, 111.967, -53.3035
0.28673, -1, 36.1706, 30.6764, 12.5319, 12.5849, 111.864, -53.564
0.295763, -1, 35.9791, 30.5785, 12.5708, 12.5874, 111.762, -53.8245
0.30473, -1, 35.7876, 30.4805, 12.6098, 12.5901, 111.659, -54.0851
0.31075, -1, 35.5958, 30.3825, 12.6487, 12.5926, 111.556, -54.3453
0.31974, -1, 35.4037, 30.2843, 12.6874, 12.5952, 111.452, -54.6057
0.327745, -1, 35.2113, 30.1859, 12.7262, 12.5978, 111.349, -54.8663
0.335738, -1, 35.0189, 30.0876, 12.7652, 12.6004, 111.246, -55.1272
0.343868, -1, 34.8266, 29.9891, 12.804, 12.603, 111.143, -55.3877
0.488306, -1, 31.3556, 28.2152, 13.5044, 12.6509, 109.288, -60.0865
0.489654, -1, 31.3556, 28.2152, 13.5044, 12.6509, 109.288, -60.0865
0.492489, -1, 31.2592, 28.1659, 13.5239, 12.6522, 109.237, -60.2172
0.493681, -1, 31.2592, 28.1659, 13.5239, 12.6522, 109.237, -60.2172
0.495723, -1, 31.1628, 28.1167, 13.5434, 12.6536, 109.185, -60.3479
0.496927, -1, 31.1628, 28.1167, 13.5434, 12.6536, 109.185, -60.3479
0.498294, -1, 31.1628, 28.1167, 13.5434, 12.6536, 109.185, -60.3479
0.501772, -1, 31.0666, 28.0675, 13.563, 12.6551, 109.134, -60.4788
0.503869, -1, 30.9704, 28.0182, 13.5825, 12.6565, 109.082, -60.6096
0.505085, -1, 30.9704, 28.0182, 13.5825, 12.6565, 109.082, -60.6096
0.506302, -1, 30.9704, 28.0182, 13.5825, 12.6565, 109.082, -60.6096
0.508375, -1, 30.8743, 27.9689, 13.602, 12.6579, 109.03, -60.7403
0.509657, -1, 30.8743, 27.9689, 13.602, 12.6579, 109.03, -60.7403
0.512567, -1, 30.7783, 27.9197, 13.6214, 12.6593, 108.979, -60.8709
0.513812, -1, 30.7783, 27.9197, 13.6214, 12.6593, 108.979, -60.8709
0.517202, -1, 30.6824, 27.8704, 13.6409, 12.6608, 108.927, -61.0015
0.519228, -1, 30.5864, 27.8211, 13.6605, 12.6622, 108.876, -61.1321
0.520633, -1, 30.5864, 27.8211, 13.6605, 12.6622, 108.876, -61.1321
0.521912, -1, 30.5864, 27.8211, 13.6605, 12.6622, 108.876, -61.1321
0.5239, -1, 30.4905, 27.7718, 13.68, 12.6636, 108.824, -61.2627
0.525193, -1, 30.4905, 27.7718, 13.68, 12.6636, 108.824, -61.2627
0.526379, -1, 30.4905, 27.7718, 13.68, 12.6636, 108.824, -61.2627
0.53142, -1, 30.2985, 27.6731, 13.7189, 12.6663, 108.721, -61.5242
0.53663, -1, 30.2024, 27.6237, 13.7384, 12.6676, 108.669, -61.6552
0.54373, -1, 30.0099, 27.525, 13.7774, 12.6704, 108.566, -61.9169
0.551864, -1, 29.8173, 27.4263, 13.8163, 12.6731, 108.463, -62.1783
0.560627, -1, 29.6239, 27.3275, 13.8552, 12.6757, 108.36, -62.44
0.567806, -1, 29.43, 27.2287, 13.8942, 12.6784, 108.256, -62.7018
0.57589, -1, 29.2359, 27.1299, 13.9332, 12.6809, 108.153, -62.9637
0.585204, -1, 29.0415, 27.031, 13.9721, 12.6835, 108.05, -63.225
0.590721, -1, 28.9442, 26.9815, 13.9916, 12.6848, 107.998, -63.3557
0.600799, -1, 28.653, 26.8331, 14.05, 12.6885, 107.843, -63.7481
0.608092, -1, 28.4589, 26.7343, 14.089, 12.6911, 107.74, -64.0099
0.616189, -1, 28.2653, 26.6356, 14.1281, 12.6936, 107.636, -64.2714
0.624993, -1, 28.0722, 26.5368, 14.1671, 12.696, 107.533, -64.5331
0.632286, -1, 27.8793, 26.438, 14.2061, 12.6984, 107.43, -64.7948
0.640322, -1, 27.6866, 26.3392, 14.2451, 12.7008, 107.326, -65.0568
0.64917, -1, 27.4943, 26.2403, 14.284, 12.7033, 107.223, -65.3184
0.787664, -1, 24.2095, 24.5599, 14.9466, 12.7428, 105.468, -69.7673
0.789519, -1, 24.1132, 24.5105, 14.966, 12.7439, 105.416, -69.898
0.791076, -1, 24.1132, 24.5105, 14.966, 12.7439, 105.416, -69.898
0.792318, -1, 24.1132, 24.5105, 14.966, 12.7439, 105.416, -69.898
0.795034, -1, 24.0168, 24.4611, 14.9855, 12.745, 105.364, -70.0287
0.796244, -1, 24.0168, 24.4611, 14.9855, 12.745, 105.364, -70.0287
0.798362, -1, 23.9204, 24.4117, 15.005, 12.7462, 105.313, -70.1595
0.803749, -1, 23.824, 24.3623, 15.0245, 12.7474, 105.261, -70.2904
0.805988, -1, 23.7276, 24.3128, 15.0439, 12.7486, 105.209, -70.4212
0.807259, -1, 23.7276, 24.3128, 15.0439, 12.7486, 105.209, -70.4212
0.808533, -1, 23.7276, 24.3128, 15.0439, 12.7486, 105.209, -70.4212
0.810539, -1, 23.6311, 24.2634, 15.0633, 12.7498, 105.157, -70.5522
0.811805, -1, 23.6311, 24.2634, 15.0633, 12.7498, 105.157, -70.5522
0.813598, -1, 23.5345, 24.214, 15.0828, 12.751, 105.106, -70.6832
0.815045, -1, 23.5345, 24.214, 15.0828, 12.751, 105.106, -70.6832
0.819322, -1, 23.4378, 24.1645, 15.1023, 12.7522, 105.054, -70.8139
0.82065, -1, 23.4378, 24.1645, 15.1023, 12.7522, 105.054, -70.8139
0.82263, -1, 23.341, 24.1151, 15.1218, 12.7534, 105.002, -70.9447
0.823912, -1, 23.341, 24.1151, 15.1218, 12.7534, 105.002, -70.9447
0.826685, -1, 23.2441, 24.0656, 15.1412, 12.7546, 104.951, -71.0757
0.827961, -1, 23.2441, 24.0656, 15.1412, 12.7546, 104.951, -71.0757
0.829851, -1, 23.1472, 24.0162, 15.1606, 12.7558, 104.899, -71.2066
0.833859, -1, 23.0502, 23.9667, 15.18, 12.7571, 104.847, -71.3374
0.839717, -1, 22.9532, 23.9172, 15.1995, 12.7583, 104.796, -71.4683
0.847791, -1, 22.7591, 23.8184, 15.2385, 12.7607, 104.692, -71.7303
0.855719, -1, 22.5653, 23.7197, 15.2775, 12.7633, 104.589, -71.9919
0.863744, -1, 22.3716, 23.6211, 15.3165, 12.7657, 104.485, -72.2534
0.871729, -1, 22.1784, 23.5224, 15.3554, 12.7683, 104.382, -72.5148
0.879711, -1, 21.9852, 23.4237, 15.3943, 12.7709, 104.279, -72.7765
0.887777, -1, 21.7923, 23.325, 15.4333, 12.7735, 104.176, -73.0379
0.895712, -1, 21.6001, 23.2263, 15.4723, 12.7762, 104.072, -73.2992
0.903711, -1, 21.4079, 23.1275, 15.5111, 12.7788, 103.97, -73.5607
0.911805, -1, 21.2157, 23.0288, 15.5502, 12.7814, 103.866, -73.8223
0.919729, -1, 21.0232, 22.9301, 15.5891, 12.7842, 103.763, -74.0838
0.927705, -1, 20.8308, 22.8315, 15.6279, 12.7868, 103.66, -74.3449
0.935777, -1, 20.6384, 22.7329, 15.6669, 12.7896, 103.557, -74.606
0.943709, -1, 20.4454, 22.6342, 15.7057, 12.7922, 103.454, -74.8674
0.951763, -1, 20.252, 22.5356, 15.7446, 12.795, 103.351, -75.1288
0.959744, -1, 20.0583, 22.4368, 15.7836, 12.7977, 103.248, -75.3898
0.967731, -1, 19.8646, 22.3381, 15.8223, 12.8005, 103.145, -75.651
0.97582, -1, 19.6711, 22.2395, 15.8611, 12.8032, 103.042, -75.9122
0.983723, -1, 19.4775, 22.1409, 15.9001, 12.8059, 102.939, -76.1736
0.991777, -1, 19.2842, 22.0423, 15.9389, 12.8086, 102.836, -76.4345
1.00009, -1, 19.0913, 21.9436, 15.9778, 12.8113, 102.733, -76.6954
1.00779, -1, 18.8987, 21.845, 16.0167, 12.8141, 102.63, -76.9562
1.01586, -1, 18.7064, 21.7462, 16.0555, 12.8168, 102.527, -77.2172
1.02417, -1, 18.5145, 21.6476, 16.0943, 12.8195, 102.424, -77.4782
1.03132, -1, 18.3226, 21.549, 16.1332, 12.8222, 102.321, -77.7388
1.03981, -1, 18.1306, 21.4504, 16.172, 12.8248, 102.218, -77.9995
1.0485, -1, 17.9388, 21.352, 16.2109, 12.8273, 102.115, -78.2604
1.05571, -1, 17.747, 21.2537, 16.2498, 12.8298, 102.012, -78.5211
1.06374, -1, 17.5548, 21.1553, 16.2886, 12.8324, 101.909, -78.7815
1.07263, -1, 17.3621, 21.057, 16.3275, 12.8348, 101.806, -79.0419
1.07979, -1, 17.1692, 20.9587, 16.3662, 12.8373, 101.703, -79.3025
1.08787, -1, 16.9761, 20.8605, 16.405, 12.8396, 101.601, -79.5633
1.09689, -1, 16.783, 20.7622, 16.4439, 12.842, 101.498, -79.8237
1.10398, -1, 16.5899, 20.6641, 16.4826, 12.8443, 101.395, -80.0842
1.11212, -1, 16.397, 20.5658, 16.5213, 12.8467, 101.293, -80.3447
1.11871, -1, 16.3006, 20.5167, 16.5406, 12.8478, 101.241, -80.4751
1.12676, -1, 16.1084, 20.4183, 16.5794, 12.8502, 101.138, -80.7357
1.13632, -1, 15.8205, 20.2706, 16.6375, 12.8536, 100.984, -81.1258
1.14523, -1, 15.6289, 20.1721, 16.6762, 12.8559, 100.882, -81.3857
1.15079, -1, 15.5333, 20.1229, 16.6955, 12.8571, 100.83, -81.5158
1.16032, -1, 15.2466, 19.9754, 16.7535, 12.8606, 100.677, -81.906
1.16913, -1, 15.151, 19.9263, 16.7729, 12.8628, 100.574, -82.1657
1.17477, -1, 14.9598, 19.8281, 16.8116, 12.864, 100.523, -82.2956
1.18472, -1, 14.6728, 19.6809, 16.8696, 12.8674, 100.369, -82.6857
1.19172, -1, 14.577, 19.6318, 16.889, 12.8686, 100.318, -82.8157
1.19976, -1, 14.3852, 19.5337, 16.9276, 12.8708, 100.215, -83.0753
1.2077, -1, 14.193, 19.4357, 16.9663, 12.8731, 100.112, -83.3348
1.2157, -1, 14.0007, 19.3377, 17.0051, 12.8753, 100.01, -83.5944
1.2227, -1, 13.8082, 19.2399, 17.0436, 12.8777, 99.9074, -83.8542
1.23171, -1, 13.6157, 19.1421, 17.0823, 12.8799, 99.8049, -84.1138
1.2397, -1, 13.4234, 19.0442, 17.121, 12.8823, 99.7023, -84.3729
1.24781, -1, 13.2314, 18.9463, 17.1595, 12.8846, 99.6002, -84.6322
1.25571, -1, 13.0398, 18.8483, 17.1981, 12.887, 99.4978, -84.8917
1.2637, -1, 12.8486, 18.7503, 17.2367, 12.8893, 99.3953, -85.151
1.2719, -1, 12.6576, 18.6523, 17.2753, 12.8917, 99.2932, -85.41
1.2797, -1, 12.467, 18.5546, 17.3138, 12.8941, 99.1908, -85.6687
1.28771, -1, 12.2767, 18.4568, 17.3524, 12.8965, 99.0885, -85.9277
1.29576, -1, 12.0866, 18.359, 17.3909, 12.8989, 98.9866, -86.1867
1.30372, -1, 11.8962, 18.2614, 17.4295, 12.9013, 98.8844, -86.4455
1.3127, -1, 11.7058, 18.1638, 17.4681, 12.9038, 98.7825, -86.704
1.31969, -1, 11.515, 18.0662, 17.5066, 12.9062, 98.6808, -86.9626
1.3277, -1, 11.3239, 17.9686, 17.5452, 12.9087, 98.5787, -87.2214
1.33661, -1, 11.1326, 17.8711, 17.5838, 12.9111, 98.4768, -87.4798
1.34369, -1, 10.9412, 17.7736, 17.6223, 12.9136, 98.375, -87.738
1.35177, -1, 10.7495, 17.6762, 17.6608, 12.9161, 98.2729, -87.9962
1.36052, -1, 10.5579, 17.5787, 17.6991, 12.9186, 98.1711, -88.2546
1.36673, -1, 10.3667, 17.4812, 17.7375, 12.9211, 98.0693, -88.5129
1.3757, -1, 10.1757, 17.3836, 17.776, 12.9236, 97.9673, -88.7709
1.38448, -1, 9.9851, 17.286, 17.8144, 12.9263, 97.8656, -89.029
1.39171, -1, 9.79475, 17.1884, 17.8527, 12.9289, 97.7636, -89.2871
1.3997, -1, 9.60478, 17.0909, 17.891, 12.9317, 97.6617, -89.5454
1.40851, -1, 9.41546, 16.9935, 17.9294, 12.9344, 97.5599, -89.803
1.41569, -1, 9.22615, 16.8961, 17.9678, 12.9372, 97.4579, -90.0606
1.42372, -1, 9.03677, 16.7989, 18.0061, 12.9398, 97.356, -90.318
1.4325, -1, 8.84732, 16.7017, 18.0445, 12.9425, 97.2544, -90.5757
1.43969, -1, 8.65776, 16.6046, 18.0829, 12.945, 97.1526, -90.8331
1.4477, -1, 8.46809, 16.5075, 18.1213, 12.9478, 97.0511, -91.0902
1.45654, -1, 8.27806, 16.4104, 18.1596, 12.9505, 96.9497, -91.3474
1.46369, -1, 8.08761, 16.3136, 18.1979, 12.9531, 96.848, -91.6046
1.47186, -1, 7.89714, 16.2167, 18.2362, 12.9558, 96.7465, -91.8618
1.4805, -1, 7.70655, 16.1198, 18.2744, 12.9584, 96.6451, -92.1186
1.48769, -1, 7.51603, 16.0229, 18.3128, 12.9609, 96.5435, -92.3752
1.49593, -1, 7.32575, 15.926, 18.351, 12.9635, 96.4422, -92.632
1.50453, -1, 7.13574, 15.829, 18.3891, 12.9661, 96.341, -92.889
1.5118, -1, 6.94613, 15.732, 18.4274, 12.9687, 96.2396, -93.1453
1.52014, -1, 6.75693, 15.6351, 18.4656, 12.9711, 96.1386, -93.4017
1.52727, -1, 6.56824, 15.5383, 18.5036, 12.9737, 96.0378, -93.6579
1.53534, -1, 6.37997, 15.4415, 18.5418, 12.9762, 95.9367, -93.9145
1.54441, -1, 6.19178, 15.3448, 18.58, 12.9787, 95.8358, -94.1707
1.55261, -1, 6.00366, 15.2481, 18.6181, 12.9811, 95.7349, -94.4266
1.5597, -1, 5.81528, 15.1515, 18.6563, 12.9834, 95.6339, -94.6825
1.56861, -1, 5.62684, 15.0548, 18.6944, 12.9858, 95.5331, -94.9385
1.57669, -1, 5.43822, 14.9583, 18.7324, 12.9881, 95.4324, -95.1944
1.58379, -1, 5.24923, 14.8618, 18.7707, 12.9903, 95.3315, -95.4498
1.59274, -1, 5.05985, 14.7655, 18.8088, 12.9925, 95.231, -95.7053
1.60074, -1, 4.87044, 14.6691, 18.8467, 12.9949, 95.1302, -95.9607
1.60801, -1, 4.68101, 14.5728, 18.8848, 12.9971, 95.0294, -96.2163
1.61684, -1, 4.49164, 14.4764, 18.9229, 12.9992, 94.9287, -96.4713
1.62412, -1, 4.30256, 14.3801, 18.9609, 13.0014, 94.8279, -96.7261
1.63223, -1, 4.11374, 14.2836, 18.9989, 13.0036, 94.727, -96.9811
1.64105, -1, 3.92542, 14.1873, 19.0368, 13.006, 94.6264, -97.2362
1.6483, -1, 3.7377, 14.0911, 19.0747, 13.0082, 94.5255, -97.4912
1.65629, -1, 3.55035, 13.9949, 19.1127, 13.0105, 94.4248, -97.7458
1.66429, -1, 3.45681, 13.8988, 19.1505, 13.0128, 94.3244, -98.0005
1.67249, -1, 3.17634, 13.8028, 19.1884, 13.0151, 94.2235, -98.2553
1.68048, -1, 3.08285, 13.7068, 19.2263, 13.0174, 94.1227, -98.5099
1.68774, -1, 2.89588, 13.6587, 19.2453, 13.0185, 94.0725, -98.637
1.69568, -1, 2.70892, 13.5628, 19.2832, 13.0207, 93.9719, -98.8911
1.70373, -1, 2.52157, 13.4668, 19.321, 13.023, 93.8715, -99.1453
1.7117, -1, 2.33409, 13.3709, 19.3588, 13.0252, 93.7711, -99.3995
1.71968, -1, 2.14624, 13.2752, 19.3966, 13.0275, 93.6708, -99.6535
1.72892, -1, 1.86402, 13.1314, 19.4534, 13.0308, 93.5206, -100.034
1.73569, -1, 1.76994, 13.0835, 19.4722, 13.032, 93.4708, -100.161
1.74369, -1, 1.58169, 12.9876, 19.51, 13.0342, 93.3706, -100.414
1.75178, -1, 1.39361, 12.8918, 19.5478, 13.0365, 93.2705, -100.668
1.7597, -1, 1.20582, 12.7959, 19.5855, 13.0388, 93.1706, -100.921
1.76769, -1, 1.0184, 12.7002, 19.6232, 13.0412, 93.0705, -101.174
1.77575, -1, 0.831701, 12.6046, 19.661, 13.0435, 92.9706, -101.427
1.78368, -1, 0.645449, 12.509, 19.6986, 13.0459, 92.871, -101.68
1.79169, -1, 0.459491, 12.4135, 19.7362, 13.0484, 92.771, -101.933
1.79975, -1, 0.273802, 12.3182, 19.7739, 13.0508, 92.6713, -102.186
1.8093, -1, 0.0883827, 12.2227, 19.8115, 13.0534, 92.5721, -102.438
1.8157, -1, -0.0970396, 12.1274, 19.849, 13.0558, 92.4724, -102.691
1.82375, -1, -0.282711, 12.0321, 19.8867, 13.0582, 92.3728, -102.944
1.8317, -1, -0.468674, 11.9369, 19.9243, 13.0606, 92.2736, -103.196
1.83968, -1, -0.654909, 11.8419, 19.9618, 13.0632, 92.174, -103.448
1.84769, -1, -0.84129, 11.7469, 19.9993, 13.0656, 92.0746, -103.7
1.85573, -1, -1.02794, 11.6518, 20.0368, 13.0681, 91.9753, -103.952
1.86375, -1, -1.21483, 11.5567, 20.0742, 13.0707, 91.8759, -104.204
1.87169, -1, -1.40175, 11.4617, 20.1118, 13.0732, 91.7767, -104.455
1.87969, -1, -1.58849, 11.3666, 20.1492, 13.0757, 91.6777, -104.707
1.88774, -1, -1.77489, 11.2714, 20.1866, 13.0783, 91.5783, -104.958
1.89568, -1, -1.96093, 11.1764, 20.2241, 13.0809, 91.4792, -105.21
1.9037, -1, -2.14634, 11.0815, 20.2615, 13.0836, 91.3801, -105.461
1.91175, -1, -2.33126, 10.9866, 20.2988, 13.0862, 91.2809, -105.711
1.91968, -1, -2.51594, 10.8918, 20.3362, 13.0889, 91.1818, -105.963
1.92771, -1, -2.70006, 10.7971, 20.3734, 13.0916, 91.0827, -106.214
1.93578, -1, -2.88394, 10.7023, 20.4108, 13.0943, 90.9836, -106.464
1.94369, -1, -3.06797, 10.6076, 20.4482, 13.0968, 90.8847, -106.715
1.95173, -1, -3.25212, 10.5129, 20.4854, 13.0995, 90.7858, -106.966
1.95971, -1, -3.43664, 10.4184, 20.5226, 13.1019, 90.6869, -107.216
1.96768, -1, -3.62132, 10.324, 20.5599, 13.1045, 90.5881, -107.467
1.97578, -1, -3.80622, 10.2296, 20.5972, 13.107, 90.4892, -107.717
1.98373, -1, -3.99143, 10.1353, 20.6344, 13.1095, 90.3905, -107.966
1.99169, -1, -4.17683, 10.041, 20.6716, 13.1119, 90.2918, -108.216
2.00004, -1, -4.36254, 9.94668, 20.7087, 13.1143, 90.1932, -108.466
2.00776, -1, -4.54803, 9.85231, 20.746, 13.1167, 90.0947, -108.716
2.01583, -1, -4.7331, 9.75806, 20.7832, 13.119, 89.9963, -108.965
2.02405, -1, -4.91786, 9.66385, 20.8203, 13.1214, 89.8977, -109.215
2.03127, -1, -5.10195, 9.5698, 20.8574, 13.1238, 89.7992, -109.464
2.03992, -1, -5.28541, 9.47573, 20.8946, 13.1261, 89.7009, -109.713
2.0482, -1, -5.46863, 9.38173, 20.9317, 13.1285, 89.6025, -109.962
2.05527, -1, -5.56004, 9.33477, 20.9502, 13.1296, 89.5042, -110.211
2.064, -1, -5.83369, 9.19392, 21.0059, 13.133, 89.4062, -110.46
2.07253, -1, -6.01602, 9.10004, 21.0428, 13.1353, 89.308, -110.709
2.07979, -1, -6.19858, 9.00617, 21.0799, 13.1375, 89.2098, -110.957
2.08787, -1, -6.38138, 8.91249, 21.117, 13.1397, 89.1122, -111.205
2.09668, -1, -6.56441, 8.81887, 21.1538, 13.1419, 89.0141, -111.454
2.10392, -1, -6.74779, 8.72519, 21.1907, 13.1441, 88.9161, -111.702
2.11223, -1, -6.93162, 8.6316, 21.2277, 13.1462, 88.8183, -111.95
2.11868, -1, -7.02358, 8.58478, 21.2461, 13.1472, 88.7694, -112.074
2.12673, -1, -7.20783, 8.49124, 21.283, 13.1494, 88.6715, -112.321
2.13625, -1, -7.48396, 8.35073, 21.3384, 13.1526, 88.525, -112.693
2.14502, -1, -7.66764, 8.25722, 21.3752, 13.1547, 88.4273, -112.94
2.15223, -1, -7.85095, 8.16379, 21.412, 13.1569, 88.3299, -113.188
2.1606, -1, -8.03382, 8.07036, 21.4489, 13.1592, 88.2326, -113.435
2.16906, -1, -8.12498, 8.02371, 21.4856, 13.1614, 88.1351, -113.682
2.17623, -1, -8.30678, 7.93043, 21.504, 13.1625, 88.0377, -113.929
2.18427, -1, -8.48818, 7.83715, 21.5409, 13.1648, 87.989, -114.176
2.19172, -1, -8.66916, 7.74396, 21.5777, 13.1671, 87.8918, -114.299
2.19875, -1, -8.84987, 7.65078, 21.6144, 13.1693, 87.7942, -114.545
2.20772, -1, -9.03061, 7.5577, 21.6512, 13.1716, 87.6968, -114.792
2.21568, -1, -9.21162, 7.46471, 21.6879, 13.1738, 87.5998, -115.038
2.22274, -1, -9.39287, 7.37192, 21.7245, 13.176, 87.5026, -115.285
2.23167, -1, -9.57448, 7.27908, 21.7613, 13.1782, 87.4054, -115.531
2.23967, -1, -9.75649, 7.18628, 21.7979, 13.1805, 87.3084, -115.777
2.24668, -1, -9.93888, 7.09354, 21.8344, 13.1827, 87.2111, -116.023
2.25567, -1, -10.1214, 7.00081, 21.871, 13.1849, 87.1139, -116.269
2.26369, -1, -10.3041, 6.90801, 21.9077, 13.1871, 87.0168, -116.515
2.27067, -1, -10.4868, 6.81523, 21.9442, 13.1893, 86.9197, -116.76
2.27967, -1, -10.669, 6.72254, 21.9808, 13.1916, 86.8226, -117.005
2.28767, -1, -10.8508, 6.62995, 22.0172, 13.194, 86.7258, -117.251
2.29573, -1, -11.032, 6.53732, 22.0536, 13.1965, 86.6288, -117.496
2.30367, -1, -11.2125, 6.4448, 22.0902, 13.1988, 86.5321, -117.741
2.31267, -1, -11.3924, 6.35232, 22.1268, 13.2013, 86.4356, -117.986
2.31975, -1, -11.572, 6.25987, 22.1632, 13.2037, 86.3387, -118.231
2.32874, -1, -11.7513, 6.16742, 22.1996, 13.2061, 86.2421, -118.476
2.33566, -1, -11.9305, 6.07512, 22.2361, 13.2086, 86.1456, -118.72
2.34373, -1, -12.1098, 5.98292, 22.2725, 13.211, 86.049, -118.964
2.35169, -1, -12.2892, 5.89084, 22.3089, 13.2135, 85.9526, -119.208
2.35984, -1, -12.4691, 5.79884, 22.3453, 13.216, 85.8563, -119.453
2.36767, -1, -12.6494, 5.70683, 22.3815, 13.2184, 85.7599, -119.697
2.37566, -1, -12.8301, 5.61489, 22.4179, 13.2209, 85.6637, -119.94
2.38372, -1, -13.0111, 5.52301, 22.4542, 13.2234, 85.568, -120.184
2.39167, -1, -13.1924, 5.43098, 22.4904, 13.2258, 85.4719, -120.428
2.40081, -1, -13.3736, 5.33897, 22.5266, 13.2282, 85.376, -120.672
2.40766, -1, -13.5544, 5.24705, 22.5629, 13.2308, 85.2804, -120.915
2.41573, -1, -13.7348, 5.15519, 22.599, 13.2333, 85.1845, -121.158
2.42367, -1, -13.9148, 5.06332, 22.6352, 13.2359, 85.0887, -121.401
2.43169, -1, -14.0938, 4.97158, 22.6714, 13.2384, 84.9933, -121.644
2.43972, -1, -14.2723, 4.87985, 22.7074, 13.2411, 84.8975, -121.887
2.44767, -1, -14.4504, 4.78821, 22.7435, 13.2436, 84.8019, -122.129
2.45566, -1, -14.6281, 4.69656, 22.7798, 13.2461, 84.7066, -122.371
2.46373, -1, -14.8057, 4.60505, 22.8159, 13.2486, 84.6107, -122.614
2.47169, -1, -14.9833, 4.51358, 22.852, 13.2511, 84.515, -122.856
2.47969, -1, -15.1611, 4.42226, 22.8882, 13.2535, 84.4195, -123.098
2.48775, -1, -15.3394, 4.33097, 22.9242, 13.2559, 84.3237, -123.34
2.49581, -1, -15.5181, 4.23962, 22.9602, 13.2583, 84.2281, -123.582
2.50369, -1, -15.6972, 4.14837, 22.9963, 13.2606, 84.1327, -123.824
2.51181, -1, -15.8764, 4.05714, 23.0322, 13.2629, 84.037, -124.065
2.51999, -1, -16.0557, 3.96585, 23.0681, 13.2651, 83.9416, -124.307
2.52784, -1, -16.2356, 3.87457, 23.1042, 13.2672, 83.8464, -124.548
2.53583, -1, -16.4152, 3.78336, 23.1401, 13.2694, 83.7508, -124.79
2.54419, -1, -16.5944, 3.69215, 23.1758, 13.2716, 83.6553, -125.031
2.55184, -1, -16.7731, 3.60103, 23.2117, 13.2738, 83.5602, -125.272
2.55967, -1, -16.9512, 3.51, 23.2475, 13.2761, 83.4646, -125.513
2.56837, -1, -17.1284, 3.41898, 23.2833, 13.2783, 83.3693, -125.754
2.57577, -1, -17.305, 3.32808, 23.3192, 13.2805, 83.2743, -125.995
2.58372, -1, -17.4814, 3.23724, 23.3549, 13.2826, 83.1791, -126.235
2.59267, -1, -17.6576, 3.14645, 23.3907, 13.2847, 83.0841, -126.476
2.59994, -1, -17.8336, 3.05583, 23.4266, 13.2869, 82.9895, -126.716
2.60791, -1, -18.0097, 2.96529, 23.4624, 13.289, 82.8945, -126.956
2.61677, -1, -18.1861, 2.87488, 23.4981, 13.2911, 82.7997, -127.196
2.6241, -1, -18.3628, 2.78445, 23.5339, 13.2932, 82.7052, -127.436
2.63065, -1, -18.4513, 2.73925, 23.5517, 13.2943, 82.6578, -127.556
2.64091, -1, -18.7176, 2.60368, 23.6052, 13.2974, 82.5158, -127.915
2.64826, -1, -18.8954, 2.51333, 23.6409, 13.2994, 82.4214, -128.155
2.65624, -1, -19.0736, 2.42287, 23.6766, 13.3014, 82.3269, -128.395
2.66504, -1, -19.2519, 2.33246, 23.7121, 13.3034, 82.2325, -128.634
2.67232, -1, -19.4299, 2.24207, 23.7477, 13.3054, 82.1385, -128.873
2.6802, -1, -19.5186, 2.19691, 23.7655, 13.3066, 82.0916, -128.992
2.68765, -1, -19.6957, 2.10653, 23.801, 13.3087, 81.9972, -129.231
2.69626, -1, -19.8722, 2.01624, 23.8364, 13.3108, 81.903, -129.47
2.70365, -1, -20.0479, 1.92597, 23.872, 13.3129, 81.8091, -129.709
2.7117, -1, -20.2231, 1.83578, 23.9075, 13.3152, 81.715, -129.948
2.71972, -1, -20.398, 1.74563, 23.9429, 13.3174, 81.6209, -130.186
2.72765, -1, -20.5726, 1.65557, 23.9785, 13.3197, 81.5272, -130.424
2.73565, -1, -20.747, 1.56563, 24.014, 13.3218, 81.4331, -130.663
2.74267, -1, -20.9217, 1.47572, 24.0494, 13.324, 81.3394, -130.901
2.75165, -1, -21.0967, 1.38602, 24.0849, 13.3262, 81.2458, -131.139
2.75965, -1, -21.2721, 1.29624, 24.1204, 13.3283, 81.1519, -131.376
2.76768, -1, -21.4478, 1.20652, 24.1557, 13.3305, 81.058, -131.614
2.77565, -1, -21.6238, 1.11689, 24.1911, 13.3327, 80.9642, -131.852
2.78372, -1, -21.8, 1.02724, 24.2266, 13.3349, 80.8704, -132.089
2.79165, -1, -21.9764, 0.9376, 24.2619, 13.337, 80.7766, -132.326
2.79972, -1, -22.153, 0.848018, 24.2973, 13.3392, 80.683, -132.563
2.80767, -1, -22.3295, 0.758474, 24.3327, 13.3413, 80.5893, -132.801
2.81665, -1, -22.5055, 0.669016, 24.3678, 13.3436, 80.4958, -133.038
2.82373, -1, -22.6811, 0.579504, 24.4031, 13.346, 80.4022, -133.275
2.83165, -1, -22.856, 0.490079, 24.4384, 13.3484, 80.3086, -133.511
2.83965, -1, -23.03, 0.400656, 24.4735, 13.3508, 80.215, -133.748
2.84773, -1, -23.2036, 0.311297, 24.5086, 13.3533, 80.1215, -133.985
2.85566, -1, -23.3769, 0.221951, 24.5438, 13.3557, 80.0281, -134.222
2.86374, -1, -23.55, 0.13272, 24.5791, 13.3581, 79.9347, -134.458
2.87167, -1, -23.7233, 0.0435882, 24.6142, 13.3605, 79.8413, -134.694
2.87973, -1, -23.8967, -0.0454829, 24.6494, 13.3629, 79.7484, -134.93
2.88772, -1, -24.0702, -0.134403, 24.6845, 13.3654, 79.6551, -135.166
2.89565, -1, -24.2441, -0.223418, 24.7195, 13.3678, 79.562, -135.402
2.90367, -1, -24.4182, -0.312333, 24.7547, 13.3702, 79.4692, -135.637
2.91172, -1, -24.5926, -0.401157, 24.7898, 13.3727, 79.3759, -135.873
2.91965, -1, -24.7675, -0.490062, 24.8248, 13.3751, 79.2828, -136.109
2.92769, -1, -24.9425, -0.578942, 24.8599, 13.3775, 79.19, -136.344
2.93574, -1, -25.1175, -0.667755, 24.895, 13.3799, 79.0969, -136.579
2.94366, -1, -25.2922, -0.756531, 24.9299, 13.3823, 79.004, -136.814
2.95166, -1, -25.4665, -0.845347, 24.965, 13.3846, 78.9115, -137.049
2.95971, -1, -25.6404, -0.934089, 25, 13.3872, 78.8187, -137.284
2.96764, -1, -25.8136, -1.02281, 25.0347, 13.3896, 78.726, -137.519
2.97566, -1, -25.9862, -1.11153, 25.0697, 13.392, 78.6337, -137.754
2.98375, -1, -26.1585, -1.2002, 25.1047, 13.3945, 78.5411, -137.988
2.99175, -1, -26.3304, -1.28874, 25.1395, 13.3968, 78.4485, -138.223
2.99987, -1, -26.5022, -1.37724, 25.1743, 13.3991, 78.3561, -138.457
3.00769, -1, -26.6742, -1.46562, 25.2093, 13.4014, 78.2636, -138.691
3.01573, -1, -26.8463, -1.55387, 25.2442, 13.4036, 78.1712, -138.925
3.02401, -1, -27.0187, -1.64205, 25.279, 13.4058, 78.0788, -139.159
3.03179, -1, -27.1913, -1.73026, 25.3139, 13.4081, 77.9868, -139.393
3.03975, -1, -27.3639, -1.81843, 25.3487, 13.4102, 77.8946, -139.627
3.04822, -1, -27.537, -1.90647, 25.3834, 13.4124, 77.8026, -139.861
3.05527, -1, -27.6236, -1.95055, 25.4008, 13.4145, 77.7107, -140.094
3.06365, -1, -27.8835, -2.08279, 25.4531, 13.4166, 77.6185, -140.327
3.07242, -1, -28.0568, -2.17079, 25.4878, 13.4186, 77.5265, -140.561
3.07981, -1, -28.23, -2.25879, 25.5225, 13.4206, 77.4347, -140.794
3.08772, -1, -28.4029, -2.3469, 25.5573, 13.4227, 77.3424, -141.027
3.09661, -1, -28.5755, -2.43488, 25.592, 13.4248, 77.2503, -141.26
3.10388, -1, -28.7475, -2.52281, 25.6266, 13.427, 77.1585, -141.493
3.1119, -1, -28.9188, -2.61082, 25.6614, 13.4291, 77.0664, -141.726
3.11864, -1, -29.0042, -2.65477, 25.6787, 13.4302, 77.0205, -141.842
3.12671, -1, -29.1749, -2.74268, 25.7132, 13.4324, 76.9285, -142.075
3.13615, -1, -29.4308, -2.87436, 25.7653, 13.4355, 76.7909, -142.423
3.14497, -1, -29.6016, -2.96199, 25.7999, 13.4375, 76.699, -142.656
3.15221, -1, -29.7727, -3.04958, 25.8344, 13.4395, 76.6072, -142.888
3.16023, -1, -29.9437, -3.1371, 25.869, 13.4417, 76.5154, -143.12
3.16827, -1, -30.1146, -3.22456, 25.9036, 13.4437, 76.4237, -143.352
3.17641, -1, -30.2001, -3.26834, 25.9381, 13.4458, 76.332, -143.584
3.18428, -1, -30.3713, -3.35573, 25.9554, 13.4479, 76.2406, -143.816
3.19163, -1, -30.5429, -3.44319, 25.99, 13.4488, 76.1947, -143.932
3.1997, -1, -30.7146, -3.53072, 26.0245, 13.4509, 76.1033, -144.164
3.20768, -1, -30.8865, -3.61808, 26.059, 13.4529, 76.012, -144.395
3.21565, -1, -31.0582, -3.70551, 26.0936, 13.4549, 75.9206, -144.626
3.22366, -1, -31.2298, -3.79284, 26.1281, 13.457, 75.8292, -144.858
3.23169, -1, -31.4012, -3.88014, 26.1624, 13.4591, 75.7379, -145.089
3.23963, -1, -31.572, -3.96743, 26.1969, 13.4612, 75.6466, -145.32
3.24765, -1, -31.7425, -4.05468, 26.2314, 13.4634, 75.5553, -145.551
3.25572, -1, -31.9125, -4.14192, 26.2657, 13.4656, 75.4641, -145.782
3.26364, -1, -32.0822, -4.22912, 26.3001, 13.4678, 75.3732, -146.013
3.27168, -1, -32.2516, -4.31623, 26.3346, 13.47, 75.282, -146.244
3.27969, -1, -32.4211, -4.40329, 26.3688, 13.4721, 75.191, -146.474
3.28764, -1, -32.5907, -4.49026, 26.4031, 13.4742, 75.1004, -146.704
3.29566, -1, -32.7604, -4.57713, 26.4376, 13.4764, 75.0094, -146.935
3.30371, -1, -32.93, -4.66406, 26.4718, 13.4786, 74.9186, -147.165
3.31163, -1, -33.0997, -4.75097, 26.506, 13.4807, 74.8282, -147.396
3.32065, -1, -33.2696, -4.83779, 26.5404, 13.483, 74.7373, -147.626
3.32772, -1, -33.4396, -4.92469, 26.5747, 13.4852, 74.6468, -147.856
3.33668, -1, -33.6099, -5.01163, 26.6089, 13.4874, 74.5562, -148.085
3.34407, -1, -33.7802, -5.09841, 26.6432, 13.4896, 74.4657, -148.315
3.35163, -1, -33.9505, -5.18518, 26.6774, 13.4919, 74.3751, -148.545
3.35964, -1, -34.1207, -5.27194, 26.7115, 13.4941, 74.2847, -148.774
3.36842, -1, -34.2908, -5.35866, 26.7457, 13.4964, 74.1942, -149.004
3.37563, -1, -34.4607, -5.44525, 26.78, 13.4987, 74.1035, -149.233
3.38364, -1, -34.6302, -5.53193, 26.8141, 13.5011, 74.0129, -149.463
3.39177, -1, -34.7992, -5.61859, 26.8482, 13.5034, 73.9225, -149.692
3.39963, -1, -34.9678, -5.70516, 26.8824, 13.5058, 73.8319, -149.921
3.40763, -1, -35.1361, -5.79166, 26.9165, 13.5083, 73.7414, -150.15
3.41682, -1, -35.3044, -5.87809, 26.9505, 13.5107, 73.6513, -150.379
3.42364, -1, -35.4728, -5.96435, 26.9847, 13.5132, 73.5609, -150.608
3.43171, -1, -35.6414, -6.05058, 27.0187, 13.5155, 73.4704, -150.836
3.43969, -1, -35.8099, -6.13681, 27.0527, 13.5178, 73.3804, -151.065
3.44863, -1, -35.9784, -6.22298, 27.0868, 13.5203, 73.2898, -151.294
3.45664, -1, -36.1469, -6.30909, 27.1209, 13.5227, 73.1995, -151.522
3.46365, -1, -36.3155, -6.39527, 27.1548, 13.5251, 73.1091, -151.751
3.47171, -1, -36.4843, -6.48152, 27.1888, 13.5274, 73.0187, -151.979
3.4797, -1, -36.6532, -6.56771, 27.2228, 13.5297, 72.9285, -152.207
3.48769, -1, -36.8221, -6.65394, 27.2567, 13.532, 72.8382, -152.435
3.49565, -1, -36.9911, -6.74006, 27.2906, 13.5343, 72.7483, -152.663
3.50371, -1, -37.16, -6.82623, 27.3246, 13.5366, 72.6581, -152.891
3.51184, -1, -37.3287, -6.91231, 27.3584, 13.5388, 72.5682, -153.119
3.51972, -1, -37.497, -6.9983, 27.3923, 13.5411, 72.4785, -153.347
3.5278, -1, -37.6649, -7.08434, 27.4263, 13.5433, 72.3885, -153.574
3.5359, -1, -37.8326, -7.17035, 27.4602, 13.5456, 72.2986, -153.802
3.54377, -1, -38.0001, -7.25628, 27.494, 13.5479, 72.209, -154.029
3.5518, -1, -38.1675, -7.34219, 27.5279, 13.55, 72.1191, -154.257
3.56025, -1, -38.3349, -7.42802, 27.5618, 13.5522, 72.0294, -154.484
3.56764, -1, -38.5022, -7.51369, 27.5955, 13.5543, 71.94, -154.711
3.57573, -1, -38.6695, -7.59943, 27.6294, 13.5564, 71.8502, -154.938
3.58371, -1, -38.8368, -7.68513, 27.6633, 13.5585, 71.7607, -155.166
3.59172, -1, -39.0041, -7.7708, 27.6969, 13.5605, 71.6714, -155.392
3.5999, -1, -39.1716, -7.85639, 27.7306, 13.5626, 71.5822, -155.619
3.60789, -1, -39.3391, -7.94208, 27.7646, 13.5645, 71.4927, -155.846
3.61592, -1, -39.5066, -8.02771, 27.7982, 13.5665, 71.4033, -156.072
3.62407, -1, -39.6743, -8.11325, 27.8318, 13.5685, 71.3142, -156.299
3.63062, -1, -39.7581, -8.15603, 27.8487, 13.5695, 71.2694, -156.413
3.64017, -1, -40.0095, -8.28426, 27.8993, 13.5724, 71.1353, -156.752
3.64827, -1, -40.177, -8.36967, 27.933, 13.5743, 71.0461, -156.978
3.6562, -1, -40.3443, -8.45504, 27.9667, 13.5763, 70.9567, -157.205
3.6642, -1, -40.5113, -8.54043, 28.0004, 13.5783, 70.8675, -157.431
3.67237, -1, -40.6783, -8.6258, 28.034, 13.5803, 70.7784, -157.657
3.68023, -1, -40.7617, -8.6685, 28.0508, 13.5813, 70.6893, -157.883
3.68815, -1, -40.9283, -8.75385, 28.0845, 13.5833, 70.6447, -157.995
3.69567, -1, -41.0947, -8.83921, 28.1182, 13.5853, 70.5556, -158.221
3.70368, -1, -41.261, -8.92446, 28.1517, 13.5874, 70.4666, -158.447
3.71162, -1, -41.4273, -9.00964, 28.1853, 13.5893, 70.3773, -158.673
3.71967, -1, -41.5935, -9.09484, 28.219, 13.5913, 70.2881, -158.898
3.72763, -1, -41.7598, -9.17994, 28.2526, 13.5934, 70.199, -159.124
3.73562, -1, -41.9262, -9.26496, 28.2861, 13.5953, 70.11, -159.349
3.74362, -1, -42.0926, -9.35, 28.3198, 13.5974, 70.0209, -159.575
3.75162, -1, -42.2589, -9.4351, 28.3534, 13.5995, 69.9319, -159.8
3.75967, -1, -42.4251, -9.5201, 28.3869, 13.6014, 69.8432, -160.025
3.76772, -1, -42.5915, -9.60507, 28.4205, 13.6035, 69.7541, -160.25
3.77565, -1, -42.7579, -9.69001, 28.454, 13.6055, 69.6652, -160.476
3.78369, -1, -42.9243, -9.77498, 28.4874, 13.6075, 69.5766, -160.701
3.79162, -1, -43.0906, -9.85987, 28.5208, 13.6096, 69.4876, -160.926
3.79962, -1, -43.2567, -9.94481, 28.5544, 13.6116, 69.399, -161.15
3.80925, -1, -43.4229, -10.0297, 28.6046, 13.6148, 69.2662, -161.487
3.81562, -1, -43.5889, -10.1147, 28.6213, 13.6158, 69.2218, -161.6
3.82462, -1, -43.7549, -10.1997, 28.6548, 13.6178, 69.1333, -161.825
3.8317, -1, -43.9207, -10.2845, 28.6882, 13.6201, 69.0448, -162.049
3.84067, -1, -44.0864, -10.3692, 28.7216, 13.6222, 68.9563, -162.273
3.84763, -1, -44.2517, -10.4539, 28.7551, 13.6243, 68.8676, -162.498
3.85569, -1, -44.4168, -10.5384, 28.7886, 13.6266, 68.779, -162.722
3.86362, -1, -44.582, -10.623, 28.8219, 13.6287, 68.6906, -162.946
3.87168, -1, -44.7472, -10.7075, 28.8553, 13.6309, 68.6018, -163.17
3.87968, -1, -44.9125, -10.7919, 28.8889, 13.6331, 68.5133, -163.394
3.88763, -1, -45.0779, -10.8764, 28.9222, 13.6353, 68.4251, -163.618
3.89562, -1, -45.2431, -10.9609, 28.9556, 13.6375, 68.3364, -163.843
3.90368, -1, -45.4084, -11.0454, 28.9891, 13.6397, 68.2481, -164.067
3.91162, -1, -45.5736, -11.1299, 29.0222, 13.642, 68.16, -164.291
3.91962, -1, -45.7389, -11.2143, 29.0554, 13.6444, 68.0717, -164.514
3.9277, -1, -45.9039, -11.2985, 29.0889, 13.6467, 67.9832, -164.738
3.93562, -1, -46.0669, -11.3818, 29.1223, 13.6489, 67.8949, -164.961
3.94364, -1, -46.2264, -11.4629, 29.1557, 13.6512, 67.8073, -165.184
3.95176, -1, -46.3804, -11.5402, 29.1894, 13.6536, 67.7206, -165.402
3.95962, -1, -46.5265, -11.6128, 29.2224, 13.6559, 67.637, -165.614
3.96762, -1, -46.6624, -11.6796, 29.2536, 13.6583, 67.5587, -165.813
3.97569, -1, -46.785, -11.7393, 29.2818, 13.6603, 67.4874, -165.993
3.98362, -1, -46.892, -11.7919, 29.3062, 13.6622, 67.4259, -166.148
3.99164, -1, -46.9826, -11.8378, 29.3257, 13.6637, 67.3755, -166.276
3.99971, -1, -47.0574, -11.8779, 29.3395, 13.6648, 67.3363, -166.375
4.00765, -1, -47.1172, -11.9111, 29.3486, 13.6654, 67.3081, -166.446
4.01568, -1, -47.1626, -11.9369, 29.354, 13.6656, 67.2891, -166.494
4.02376, -1, -47.1957, -11.9556, 29.3567, 13.6658, 67.2775, -166.523
4.03181, -1, -47.2184, -11.9682, 29.358, 13.6658, 67.271, -166.54
4.03923, -1, -47.2326, -11.976, 29.3585, 13.6659, 67.2676, -166.548
4.0478, -1, -47.2406, -11.9803, 29.3588, 13.666, 67.2659, -166.552
4.05571, 2, -47.2443, -11.9823, 29.359, 13.666, 67.2651, -166.554
4.06362, 2, -47.2451, -11.9831, 29.3591, 13.666, 67.2648, -166.555
4.07169, 2, -47.2449, -11.9834, 29.3592, 13.666, 67.2646, -166.555
4.07965, 2, -47.2448, -11.9836, 29.3593, 13.6661, 67.2645, -166.556
4.08767, 2, -47.2449, -11.9836, 29.3593, 13.666, 67.2645, -166.556
4.0961, 2, -47.2457, -11.9838, 29.3593, 13.6661, 67.2645, -166.556
4.10273, 2, -47.2461, -11.984, 29.3593, 13.6661, 67.2645, -166.556
4.11189, 2, -47.2482, -11.9848, 29.3593, 13.6661, 67.2645, -166.556
4.12003, 2, -47.2499, -11.9856, 29.3593, 13.6661, 67.2644, -166.556
4.12661, 2, -47.2506, -11.9861, 29.3593, 13.6661, 67.2644, -166.556
4.13603, 2, -47.2526, -11.9873, 29.3593, 13.6661, 67.2644, -166.556
4.14269, 2, -47.253, -11.9876, 29.3593, 13.6661, 67.2644, -166.556
4.15211, 2, -47.2536, -11.9881, 29.3593, 13.6661, 67.2644, -166.556
4.16016, 2, -47.2537, -11.9882, 29.3593, 13.6661, 67.2644, -166.556
4.16831, 2, -47.2536, -11.9883, 29.3593, 13.666, 67.2645, -166.556
4.17622, 2, -47.2534, -11.9883, 29.3593, 13.6661, 67.2645, -166.556
4.18415, 2, -47.2529, -11.9883, 29.3594, 13.6661, 67.2645, -166.556
4.1924, 2, -47.2524, -11.9882, 29.3594, 13.666, 67.2645, -166.556
4.19961, 2, -47.2521, -11.9882, 29.3594, 13.6661, 67.2645, -166.556
4.20849, 2, -47.2519, -11.9883, 29.3594, 13.6661, 67.2645, -166.556
4.21566, 2, -47.2519, -11.9883, 29.3594, 13.6661, 67.2645, -166.556
4.2236, 2, -47.2521, -11.9885, 29.3594, 13.6661, 67.2644, -166.556
4.23161, 2, -47.2522, -11.9888, 29.3594, 13.6662, 67.2644, -166.556
4.23965, 2, -47.2529, -11.9891, 29.3594, 13.6661, 67.2644, -166.556
4.24762, 2, -47.2534, -11.9894, 29.3594, 13.6661, 67.2644, -166.556
4.25561, 2, -47.2537, -11.9896, 29.3594, 13.666, 67.2645, -166.556
4.26366, 2, -47.2538, -11.9897, 29.3594, 13.666, 67.2644, -166.556
4.27161, 2, -47.2538, -11.9897, 29.3594, 13.666, 67.2645, -166.556
4.27968, 2, -47.2537, -11.9897, 29.3594, 13.6661, 67.2645, -166.556
4.28768, 2, -47.2535, -11.9896, 29.3594, 13.6661, 67.2645, -166.556
4.29561, 2, -47.2531, -11.9896, 29.3594, 13.6661, 67.2645, -166.556
4.30361, 2, -47.2528, -11.9896, 29.3594, 13.6661, 67.2645, -166.556
4.31168, 2, -47.2525, -11.9896, 29.3594, 13.6661, 67.2645, -166.556
4.3196, 2, -47.2523, -11.9896, 29.3594, 13.6661, 67.2645, -166.556
4.32949, 2, -47.2523, -11.9896, 29.3594, 13.6661, 67.2645, -166.556
4.33569, 2, -47.2522, -11.9897, 29.3594, 13.666, 67.2645, -166.556
4.34361, 2, -47.2522, -11.9897, 29.3593, 13.666, 67.2645, -166.556
4.3516, 2, -47.2522, -11.9898, 29.3594, 13.666, 67.2646, -166.556
4.35967, 2, -47.2522, -11.9898, 29.3594, 13.666, 67.2645, -166.556
4.3677, 2, -47.2522, -11.9898, 29.3594, 13.666, 67.2645, -166.556
4.37566, 2, -47.2522, -11.9898, 29.3594, 13.666, 67.2645, -166.555
4.38371, 2, -47.2522, -11.9898, 29.3594, 13.6661, 67.2645, -166.555
4.3916, 2, -47.2521, -11.9897, 29.3594, 13.6661, 67.2645, -166.555
4.3996, 2, -47.252, -11.9896, 29.3594, 13.666, 67.2645, -166.556
4.40768, 2, -47.2519, -11.9896, 29.3594, 13.666, 67.2645, -166.556
4.41561, 2, -47.2518, -11.9896, 29.3594, 13.666, 67.2645, -166.556
4.4236, 2, -47.2517, -11.9896, 29.3594, 13.666, 67.2645, -166.555
4.43167, 2, -47.2516, -11.9896, 29.3594, 13.666, 67.2645, -166.555
4.4396, 2, -47.2515, -11.9896, 29.3594, 13.666, 67.2646, -166.555
4.44764, 2, -47.2515, -11.9896, 29.3594, 13.666, 67.2645, -166.555
4.45568, 2, -47.2514, -11.9896, 29.3594, 13.666, 67.2645, -166.556
4.4636, 2, -47.2514, -11.9897, 29.3594, 13.666, 67.2646, -166.555
4.4716, 2, -47.2513, -11.9897, 29.3594, 13.666, 67.2646, -166.555
4.47967, 2, -47.2512, -11.9896, 29.3594, 13.666, 67.2645, -166.555
4.48773, 2, -47.2511, -11.9896, 29.3594, 13.666, 67.2646, -166.555
4.49562, 2, -47.2511, -11.9896, 29.3594, 13.666, 67.2646, -166.555
4.50369, 2, -47.251, -11.9895, 29.3594, 13.666, 67.2646, -166.555
4.51163, 2, -47.2509, -11.9894, 29.3594, 13.666, 67.2646, -166.555
4.51966, 2, -47.2508, -11.9894, 29.3594, 13.6659, 67.2646, -166.555
4.52776, 2, -47.2507, -11.9894, 29.3594, 13.6659, 67.2646, -166.555
4.53571, 2, -47.2505, -11.9894, 29.3594, 13.666, 67.2646, -166.555
4.54375, 2, -47.2504, -11.9894, 29.3594, 13.666, 67.2646, -166.555
4.55176, 2, -47.2503, -11.9894, 29.3594, 13.666, 67.2646, -166.555
4.5597, 2, -47.2502, -11.9894, 29.3594, 13.666, 67.2646, -166.555
4.56762, 2, -47.2501, -11.9894, 29.3594, 13.6659, 67.2646, -166.555
4.57569, 2, -47.25, -11.9894, 29.3594, 13.6659, 67.2646, -166.555
4.58363, 2, -47.2499, -11.9894, 29.3594, 13.6659, 67.2646, -166.555
4.59165, 2, -47.2498, -11.9894, 29.3594, 13.6659, 67.2646, -166.555
4.59986, 2, -47.2497, -11.9893, 29.3593, 13.6659, 67.2646, -166.555
4.60778, 2, -47.2496, -11.9892, 29.3594, 13.666, 67.2646, -166.555
4.61585, 2, -47.2495, -11.9891, 29.3594, 13.666, 67.2646, -166.555
4.62403, 2, -47.2495, -11.9891, 29.3594, 13.6659, 67.2646, -166.555
4.6306, 2, -47.2494, -11.9891, 29.3594, 13.6659, 67.2646, -166.555
4.64004, 2, -47.2493, -11.989, 29.3594, 13.6659, 67.2647, -166.555
4.64661, 2, -47.2492, -11.989, 29.3594, 13.6659, 67.2647, -166.555
4.65614, 2, -47.2492, -11.989, 29.3594, 13.6658, 67.2647, -166.555
4.66416, 2, -47.2491, -11.9891, 29.3594, 13.6659, 67.2646, -166.555
4.67236, 2, -47.2491, -11.9891, 29.3593, 13.6659, 67.2647, -166.555
4.68018, 2, -47.2491, -11.9891, 29.3594, 13.6659, 67.2646, -166.555
4.68815, 2, -47.249, -11.9891, 29.3594, 13.6659, 67.2647, -166.555
4.69632, 2, -47.249, -11.989, 29.3594, 13.6659, 67.2647, -166.555
4.70359, 2, -47.2489, -11.989, 29.3594, 13.6658, 67.2647, -166.555
4.71164, 2, -47.2489, -11.9889, 29.3594, 13.6658, 67.2647, -166.555
4.71964, 2, -47.2488, -11.9888, 29.3594, 13.6658, 67.2647, -166.555
4.7276, 2, -47.2487, -11.9888, 29.3594, 13.6658, 67.2647, -166.555
4.7356, 2, -47.2486, -11.9887, 29.3594, 13.6658, 67.2647, -166.555
4.74365, 2, -47.2486, -11.9887, 29.3594, 13.6658, 67.2647, -166.555
4.75158, 2, -47.2485, -11.9887, 29.3594, 13.6658, 67.2647, -166.555
4.75959, 2, -47.2485, -11.9887, 29.3593, 13.6658, 67.2647, -166.555
4.76765, 2, -47.2484, -11.9887, 29.3594, 13.6658, 67.2647, -166.555
4.7756, 2, -47.2484, -11.9887, 29.3594, 13.6658, 67.2647, -166.555
4.78361, 2, -47.2484, -11.9887, 29.3594, 13.6658, 67.2647, -166.555
4.79164, 2, -47.2484, -11.9887, 29.3594, 13.6658, 67.2647, -166.555
4.79959, 2, -47.2483, -11.9886, 29.3594, 13.6658, 67.2647, -166.555
4.8076, 2, -47.2483, -11.9886, 29.3594, 13.6658, 67.2647, -166.555
4.81566, 2, -47.2483, -11.9885, 29.3594, 13.6657, 67.2647, -166.555
4.82358, 2, -47.2482, -11.9884, 29.3594, 13.6657, 67.2647, -166.555
4.83259, 2, -47.2481, -11.9884, 29.3594, 13.6657, 67.2648, -166.555
4.83967, 2, -47.248, -11.9883, 29.3594, 13.6657, 67.2648, -166.555
4.84764, 2, -47.2479, -11.9883, 29.3594, 13.6656, 67.2648, -166.555
4.8556, 2, -47.2479, -11.9883, 29.3594, 13.6656, 67.2648, -166.554
4.86366, 2, -47.2478, -11.9883, 29.3594, 13.6656, 67.2648, -166.554
4.87159, 2, -47.2478, -11.9883, 29.3594, 13.6656, 67.2648, -166.554
4.87963, 2, -47.2477, -11.9883, 29.3594, 13.6656, 67.2648, -166.554
4.88767, 2, -47.2478, -11.9883, 29.3594, 13.6656, 67.2648, -166.554
4.89559, 2, -47.2477, -11.9883, 29.3594, 13.6656, 67.2648, -166.554
4.90359, 2, -47.2477, -11.9882, 29.3593, 13.6656, 67.2648, -166.554
4.91167, 2, -47.2477, -11.9882, 29.3594, 13.6656, 67.2649, -166.554
4.91959, 2, -47.2476, -11.9881, 29.3594, 13.6656, 67.2649, -166.554
4.9276, 2, -47.2475, -11.988, 29.3594, 13.6655, 67.265, -166.554
4.93566, 2, -47.2474, -11.988, 29.3594, 13.6655, 67.2649, -166.554
4.94359, 2, -47.2473, -11.9879, 29.3594, 13.6655, 67.265, -166.554
4.9516, 2, -47.2473, -11.9879, 29.3594, 13.6655, 67.265, -166.554
4.95965, 2, -47.2472, -11.9879, 29.3594, 13.6655, 67.265, -166.554
4.9676, 2, -47.2471, -11.9879, 29.3594, 13.6655, 67.265, -166.554
4.97559, 2, -47.2471, -11.9879, 29.3593, 13.6655, 67.265, -166.554
4.98366, 2, -47.2471, -11.9879, 29.3594, 13.6655, 67.265, -166.554
4.99159, 2, -47.2471, -11.9879, 29.3594, 13.6654, 67.265, -166.554
4.99961, 2, -47.2471, -11.9879, 29.3594, 13.6655, 67.265, -166.554
5.0077, 2, -47.2471, -11.9878, 29.3594, 13.6655, 67.265, -166.554
5.01562, 2, -47.247, -11.9878, 29.3594, 13.6654, 67.265, -166.554
5.02365, 2, -47.247, -11.9877, 29.3594, 13.6654, 67.265, -166.554
5.03175, 2, -47.2469, -11.9877, 29.3594, 13.6654, 67.265, -166.554
5.03968, 2, -47.2468, -11.9876, 29.3594, 13.6653, 67.265, -166.554
5.04777, 2, -47.2467, -11.9876, 29.3594, 13.6653, 67.2651, -166.554
5.05597, 2, -47.2466, -11.9875, 29.3594, 13.6654, 67.2651, -166.554
5.06471, 2, -47.2466, -11.9875, 29.3594, 13.6654, 67.2651, -166.554
5.07163, 2, -47.2465, -11.9875, 29.3594, 13.6654, 67.2651, -166.554
5.0797, 2, -47.2465, -11.9875, 29.3594, 13.6654, 67.2651, -166.554
5.08772, 2, -47.2465, -11.9875, 29.3594, 13.6653, 67.2651, -166.554
5.09565, 2, -47.2464, -11.9875, 29.3594, 13.6653, 67.2651, -166.554
5.1038, 2, -47.2464, -11.9875, 29.3594, 13.6653, 67.2651, -166.554
5.11246, 2, -47.2464, -11.9874, 29.3594, 13.6652, 67.2651, -166.554
5.11983, 2, -47.2464, -11.9874, 29.3594, 13.6652, 67.2651, -166.554
5.12795, 2, -47.2463, -11.9873, 29.3594, 13.6652, 67.2651, -166.554
5.13615, 4, -47.2462, -11.9873, 29.3594, 13.6652, 67.2651, -166.554
5.14402, 4, -47.2462, -11.9873, 29.3593, 13.6652, 67.2651, -166.554
5.15058, 4, -47.2462, -11.9872, 29.3593, 13.6652, 67.2652, -166.554
5.1605, 4, -47.2461, -11.9872, 29.3593, 13.6652, 67.2652, -166.554
5.16815, 4, -47.246, -11.9872, 29.3594, 13.6652, 67.2653, -166.554
5.17623, 4, -47.246, -11.9872, 29.3594, 13.6652, 67.2653, -166.554
5.18423, 4, -47.2459, -11.9872, 29.3593, 13.6651, 67.2653, -166.554
5.19212, 4, -47.2459, -11.9871, 29.3593, 13.6651, 67.2653, -166.554
5.20014, 4, -47.2459, -11.9871, 29.3593, 13.6651, 67.2653, -166.554
5.20759, 4, -47.2458, -11.9871, 29.3594, 13.6651, 67.2653, -166.553
5.21563, 4, -47.2458, -11.9871, 29.3593, 13.6651, 67.2653, -166.553
5.22362, 4, -47.2458, -11.987, 29.3593, 13.6651, 67.2653, -166.553
5.23158, 4, -47.2458, -11.987, 29.3594, 13.6651, 67.2653, -166.553
5.23973, 4, -47.2457, -11.987, 29.3593, 13.6651, 67.2653, -166.553
5.25511, 4, -47.2456, -11.9869, 29.3594, 13.6651, 67.2653, -166.553
5.25798, 4, -47.2455, -11.9869, 29.3594, 13.6651, 67.2653, -166.553
5.26382, 4, -47.2455, -11.9869, 29.3594, 13.6651, 67.2653, -166.553
5.27371, 4, -47.2454, -11.9868, 29.3593, 13.665, 67.2653, -166.553
5.27971, 4, -47.2454, -11.9868, 29.3593, 13.665, 67.2653, -166.553
5.28776, 4, -47.2454, -11.9868, 29.3593, 13.665, 67.2653, -166.553
5.29973, 4, -47.2454, -11.9868, 29.3593, 13.665, 67.2653, -166.553
5.30582, 4, -47.2453, -11.9868, 29.3593, 13.6649, 67.2653, -166.553
5.31452, 4, -47.2453, -11.9868, 29.3593, 13.6649, 67.2654, -166.553
5.3198, 4, -47.2453, -11.9868, 29.3593, 13.6649, 67.2654, -166.553
5.33094, 4, -47.2452, -11.9867, 29.3593, 13.665, 67.2654, -166.553
5.33573, 4, -47.2452, -11.9867, 29.3593, 13.665, 67.2654, -166.553
5.34412, 4, -47.2452, -11.9867, 29.3593, 13.665, 67.2654, -166.553
5.35171, 4, -47.2451, -11.9866, 29.3593, 13.6649, 67.2653, -166.553
5.35971, 4, -47.2451, -11.9866, 29.3593, 13.665, 67.2654, -166.553
5.37178, 4, -47.245, -11.9866, 29.3593, 13.6649, 67.2654, -166.553
5.37676, 4, -47.245, -11.9866, 29.3594, 13.6649, 67.2654, -166.553
5.38432, 4, -47.2449, -11.9866, 29.3594, 13.6649, 67.2653, -166.553
5.39173, 4, -47.2449, -11.9865, 29.3594, 13.6649, 67.2653, -166.553
5.40379, 4, -47.2451, -11.9866, 29.3594, 13.6649, 67.2653, -166.553
5.40779, 4, -47.2454, -11.9867, 29.3594, 13.6649, 67.2654, -166.553
5.41582, 4, -47.2469, -11.9877, 29.3604, 13.6653, 67.2656, -166.553
5.42614, 4, -47.2501, -11.9905, 29.3637, 13.6764, 67.2683, -166.551
5.43172, 5, -47.2556, -11.9971, 29.3723, 13.6865, 67.2708, -166.55
5.43981, 5, -47.2646, -12.0088, 29.3902, 13.7219, 67.2804, -166.542
5.44777, 5, -47.2791, -12.0282, 29.4231, 13.7883, 67.2988, -166.528
5.45575, 5, -47.3012, -12.0579, 29.477, 13.9002, 67.3304, -166.502
5.46547, 5, -47.333, -12.0996, 29.5584, 14.0719, 67.3783, -166.463
5.47478, 5, -47.4026, -12.1882, 29.7437, 14.4696, 67.4879, -166.371
5.47981, 5, -47.4322, -12.2252, 29.8237, 14.6435, 67.5352, -166.331
5.48779, 5, -47.5009, -12.3105, 30.0129, 15.0546, 67.6459, -166.236
5.49646, 5, -47.5818, -12.4109, 30.2404, 15.5458, 67.7773, -166.125
5.50375, 5, -47.6743, -12.5252, 30.5022, 16.1062, 67.9251, -165.997
5.51184, 5, -47.7766, -12.6519, 30.7944, 16.7214, 68.0857, -165.859
5.52316, 5, -47.9446, -12.861, 31.276, 17.7152, 68.3392, -165.64
5.52781, 5, -48.0034, -12.9345, 31.4452, 18.0575, 68.425, -165.565
5.53674, 5, -48.1233, -13.0854, 31.7912, 18.7498, 68.5961, -165.416
5.54388, 5, -48.2441, -13.2387, 32.1439, 19.4452, 68.765, -165.269
5.55224, 5, -48.3626, -13.391, 32.4985, 20.1319, 68.9299, -165.121
5.56054, 5, -48.4751, -13.5397, 32.8516, 20.8011, 69.0911, -164.968
5.5685, 6, -48.5773, -13.6816, 33.1964, 21.4408, 69.2501, -164.798
5.57841, 6, -48.6649, -13.8133, 33.5279, 22.0398, 69.4085, -164.6
5.58458, 6, -48.7339, -13.9345, 33.8412, 22.5922, 69.5692, -164.359
5.59338, 7, -48.7819, -14.0464, 34.1349, 23.0945, 69.7349, -164.061
5.60061, 7, -48.8089, -14.1492, 34.4076, 23.5503, 69.9085, -163.697
5.60862, 8, -48.8163, -14.2418, 34.6608, 23.9684, 70.0937, -163.261
5.61687, 8, -48.8055, -14.3244, 34.899, 24.3592, 70.2921, -162.756
5.6297, 9, -48.76, -14.4363, 35.236, 24.9181, 70.6164, -161.89
5.63683, 10, -48.7137, -14.506, 35.4544, 25.2857, 70.8482, -161.26
5.64042, 10, -48.6866, -14.5395, 35.5633, 25.47, 70.9679, -160.934
5.65096, 10, -48.6259, -14.6043, 35.7813, 25.8412, 71.2125, -160.27
5.65648, 11, -48.5581, -14.6667, 36.0006, 26.2154, 71.4605, -159.597
5.66558, 11, -48.485, -14.7288, 36.222, 26.593, 71.7085, -158.926
5.67777, 12, -48.3682, -14.8231, 36.5524, 27.1663, 72.0779, -157.925
5.68149, 12, -48.328, -14.8548, 36.6614, 27.3595, 72.2005, -157.593
5.68949, 13, -48.2464, -14.9176, 36.8775, 27.7488, 72.4451, -156.932
5.69707, 13, -48.2048, -14.9488, 37.09, 28.1421, 72.6897, -156.273
5.70572, 14, -48.0762, -15.0422, 37.2986, 28.5393, 72.9349, -155.614
5.7137, 14, -47.9864, -15.1048, 37.5048, 28.9394, 73.1807, -154.958
5.72029, 15, -47.9403, -15.1359, 37.607, 29.1404, 73.3037, -154.631
5.72771, 15, -47.846, -15.197, 37.8089, 29.543, 73.549, -153.978
5.7357, 16, -47.7478, -15.2565, 38.0083, 29.9455, 73.7929, -153.329
5.74372, 16, -47.6444, -15.3161, 38.2062, 30.3471, 74.0349, -152.684
5.75412, 17, -47.4791, -15.4075, 38.4974, 30.9463, 74.3922, -151.725
5.7597, 17, -47.4215, -15.4386, 38.5928, 31.1447, 74.5091, -151.407
5.76778, 18, -47.3024, -15.5012, 38.7817, 31.5394, 74.7395, -150.776
5.77569, 18, -47.1778, -15.5645, 38.9681, 31.9305, 74.9645, -150.153
5.78643, 19, -46.9805, -15.6625, 39.2416, 32.5111, 75.2909, -149.231
5.79367, 19, -46.8425, -15.7308, 39.4215, 32.8951, 75.5013, -148.625
5.80117, 20, -46.7715, -15.7657, 39.6001, 33.2768, 75.7065, -148.028
5.80768, 20, -46.6255, -15.8374, 39.6886, 33.467, 75.8071, -147.732
5.81573, 21, -46.4745, -15.9121, 39.8638, 33.8462, 76.0047, -147.145
5.82377, 21, -46.319, -15.9897, 40.0374, 34.2237, 76.1975, -146.566
5.83575, 22, -46.0768, -16.111, 40.2952, 34.7856, 76.4764, -145.711
5.84619, 22, -45.9085, -16.1942, 40.4636, 35.1563, 76.6558, -144.871
5.84807, 23, -45.8221, -16.2364, 40.5467, 35.3402, 76.7435, -144.871
5.85571, 23, -45.6448, -16.3224, 40.7113, 35.7047, 76.9145, -144.318
5.86371, 24, -45.461, -16.4102, 40.8729, 36.0648, 77.0802, -143.77
5.87377, 24, -45.2707, -16.4993, 41.0303, 36.5946, 77.3188, -142.959
5.87975, 25, -45.074, -16.5895, 41.1832, 36.768, 77.3959, -142.69
5.8887, 25, -44.8708, -16.6807, 41.3319, 37.1102, 77.5466, -142.155
5.89584, 26, -44.661, -16.7725, 41.4759, 37.4455, 77.6927, -141.624
5.91018, 27, -44.2199, -16.9566, 41.7476, 38.0941, 77.9723, -140.568
5.91233, 27, -44.2199, -16.9566, 41.7476, 38.0941, 77.9723, -140.568
5.92272, 27, -43.871, -17.0935, 41.9358, 38.5597, 78.1712, -139.78
5.92776, 28, -43.7514, -17.1387, 41.9955, 38.7108, 78.2358, -139.517
5.93634, 28, -43.5073, -17.2283, 42.1097, 39.0069, 78.3619, -138.994
5.94378, 29, -43.2565, -17.3165, 42.2172, 39.2943, 78.4851, -138.472
5.95182, 29, -42.9992, -17.4031, 42.3177, 39.5735, 78.605, -137.949
5.96287, 30, -42.5991, -17.5297, 42.455, 39.9763, 78.779, -137.166
5.96776, 30, -42.4613, -17.5708, 42.4971, 40.1063, 78.8356, -136.905
5.97673, 31, -42.1794, -17.6511, 42.576, 40.3599, 78.9463, -136.385
5.98399, 31, -41.8898, -17.7288, 42.6478, 40.605, 79.0544, -135.865
5.99347, 32, -41.593, -17.8043, 42.7128, 40.8415, 79.16, -135.345
5.99984, 32, -41.2896, -17.8774, 42.771, 41.0697, 79.2629, -134.826
6.00801, 33, -40.9799, -17.9476, 42.8221, 41.2899, 79.3634, -134.309
6.01592, 33, -40.6634, -18.0144, 42.866, 41.502, 79.4613, -133.792
6.02383, 34, -40.3409, -18.0784, 42.9027, 41.7058, 79.5564, -133.276
6.03512, 34, -40.014, -18.1399, 42.9319, 41.9964, 79.6946, -132.504
6.03986, 35, -39.6817, -18.1983, 42.9541, 42.0895, 79.7393, -132.247
6.04878, 35, -39.3433, -18.2533, 42.9692, 42.2701, 79.8268, -131.735
6.05731, 36, -38.9978, -18.3049, 42.9772, 42.443, 79.9124, -131.223
6.06761, 36, -38.4661, -18.3761, 42.9768, 42.6879, 80.0368, -130.458
6.07187, 37, -38.2858, -18.3982, 42.9733, 42.7657, 80.0769, -130.204
6.08084, 37, -37.9208, -18.4396, 42.961, 42.9157, 80.1565, -129.698
6.08788, 38, -37.5507, -18.4772, 42.9419, 43.0585, 80.2334, -129.192
6.09664, 38, -37.1759, -18.5116, 42.9164, 43.1937, 80.3088, -128.688
6.10648, 39, -36.7966, -18.5425, 42.884, 43.3215, 80.3812, -128.186
6.11278, 39, -36.4126, -18.5697, 42.8449, 43.442, 80.4524, -127.686
6.12096, 40, -36.0233, -18.5932, 42.7992, 43.5553, 80.5212, -127.188
6.1289, 40, -35.6279, -18.6128, 42.747, 43.6613, 80.5888, -126.691
6.1387, 41, -35.2267, -18.6284, 42.6883, 43.76, 80.6538, -126.197
6.14499, 41, -34.82, -18.6405, 42.6231, 43.8516, 80.7171, -125.704
6.1526, 42, -34.4094, -18.6491, 42.5514, 43.9362, 80.7785, -125.215
6.16264, 42, -33.9958, -18.6545, 42.4734, 44.0137, 80.8374, -124.727
6.16881, 43, -33.5787, -18.6568, 42.3893, 44.0837, 80.8957, -124.241
6.17666, 43, -33.1571, -18.6556, 42.2994, 44.1471, 80.951, -123.758
6.18444, 44, -32.7295, -18.6506, 42.2037, 44.2031, 81.0055, -123.277
6.19241, 44, -32.2955, -18.6418, 42.1023, 44.2516, 81.0584, -122.799
6.2017, 45, -31.8554, -18.6293, 41.9949, 44.2933, 81.1089, -122.323
6.21108, 45, -31.6336, -18.6132, 41.8815, 44.3276, 81.1587, -121.849
6.21685, 46, -30.9642, -18.5937, 41.7621, 44.3539, 81.2064, -121.378
6.22739, 46, -30.5154, -18.5707, 41.6369, 44.3724, 81.2516, -120.909
6.23168, 47, -30.2897, -18.5577, 41.5721, 44.3789, 81.2741, -120.676
6.24212, 47, -29.6049, -18.5118, 41.3689, 44.3878, 81.3405, -119.977
6.24774, 48, -29.3733, -18.4943, 41.2982, 44.3873, 81.3616, -119.746
6.25576, 48, -28.9055, -18.4562, 41.1521, 44.3794, 81.4033, -119.283
6.26634, 49, -28.194, -18.3907, 40.9217, 44.3514, 81.4661, -118.594
6.27171, 49, -27.9556, -18.3667, 40.842, 44.3374, 81.4866, -118.365
6.28086, 50, -27.4768, -18.3153, 40.6778, 44.3019, 81.5271, -117.679
6.29073, 51, -26.7514, -18.2285, 40.419, 44.2319, 81.5894, -117.222
6.29994, 51, -26.2595, -18.1636, 40.2385, 44.1732, 81.6318, -116.767
6.30374, 51, -26.0106, -18.1291, 40.1458, 44.14, 81.6529, -116.54
6.31398, 52, -25.2545, -18.0173, 39.8561, 44.0262, 81.7176, -115.859
6.31976, 52, -25.0006, -17.9774, 39.7561, 43.9828, 81.7399, -115.632
6.32813, 53, -24.4916, -17.8936, 39.5517, 43.8887, 81.7847, -115.18
6.3357, 53, -23.9799, -17.8041, 39.3405, 43.7848, 81.8296, -114.727
6.34541, 54, -23.4626, -17.7083, 39.1212, 43.6703, 81.8767, -114.276
6.35457, 54, -22.6711, -17.553, 38.7798, 43.4785, 81.9507, -113.598
6.35978, 55, -22.4036, -17.4982, 38.6624, 43.409, 81.9761, -113.372
6.37066, 56, -21.5951, -17.3244, 38.2991, 43.1825, 82.0572, -112.694
6.37667, 56, -21.3244, -17.2636, 38.1749, 43.1012, 82.0848, -112.468
6.38369, 56, -20.7805, -17.1376, 37.9209, 42.93, 82.1411, -112.018
6.39176, 57, -20.2299, -17.0062, 37.66, 42.7473, 82.2003, -111.567
6.40288, 58, -19.3866, -16.7985, 37.2565, 42.451, 82.2911, -110.891
6.41018, 58, -18.8158, -16.6524, 36.9791, 42.2378, 82.3548, -110.441
6.41883, 59, -18.2423, -16.5004, 36.6956, 42.012, 82.4196, -109.992
6.42381, 59, -17.9548, -16.4225, 36.5512, 41.8946, 82.4531, -109.767
6.43269, 59, -17.3761, -16.2635, 36.2579, 41.6503, 82.5221, -109.318
6.44011, 60, -16.7886, -16.0998, 35.9585, 41.3932, 82.5928, -108.869
6.45255, 61, -15.8893, -15.8439, 35.4994, 40.9835, 82.7026, -108.195
6.45567, 61, -15.5869, -15.7562, 35.3437, 40.8402, 82.74, -107.971
6.4674, 61, -14.9801, -15.5776, 35.0278, 40.3919, 82.8554, -107.298
6.47169, 62, -14.3696, -15.3947, 34.7066, 40.2361, 82.8951, -107.074
6.48174, 62, -13.7507, -15.2063, 34.38, 39.9144, 82.9763, -106.625
6.48768, 63, -13.1211, -15.0112, 34.0488, 39.5785, 83.0603, -106.176
6.49672, 63, -12.4835, -14.8099, 33.7119, 39.2274, 83.1476, -105.726
6.50586, 64, -11.8415, -14.6041, 33.3693, 38.8612, 83.2392, -105.275
6.5118, 64, -11.195, -14.392, 33.0202, 38.4801, 83.3347, -104.823
6.52181, 65, -10.5391, -14.1723, 32.6649, 38.0839, 83.4348, -104.37
6.528, 65, -9.87245, -13.9455, 32.304, 37.6718, 83.54, -103.914
6.53983, 66, -9.19702, -13.7122, 31.938, 37.0232, 83.7081, -103.227
6.54379, 66, -8.51551, -13.4717, 31.5668, 36.7989, 83.7671, -102.997
6.55264, 67, -7.8279, -13.224, 31.1885, 36.3379, 83.8894, -102.535
6.55992, 67, -7.13042, -12.969, 30.8043, 35.8604, 84.0188, -102.072
6.56793, 68, -6.42305, -12.7064, 30.4152, 35.3662, 84.155, -101.605
6.57586, 68, -5.70822, -12.4376, 30.0225, 34.8572, 84.2982, -101.135
6.59157, 69, -4.25931, -11.877, 29.225, 33.7948, 84.6037, -100.191
6.59359, 69, -4.25931, -11.877, 29.225, 33.7948, 84.6037, -100.191
6.60448, 70, -3.52249, -11.4368, 28.6213, 32.9608, 84.85, -99.4765
6.60809, 70, -2.77711, -11.2857, 28.4193, 32.6753, 84.9356, -99.237
6.61787, 71, -2.02398, -10.9777, 28.0128, 32.0934, 85.1121, -98.757
6.62417, 71, -1.26264, -10.6625, 27.603, 31.4965, 85.2976, -98.2736
6.6322, 72, -0.494958, -10.3419, 27.1907, 30.8837, 85.4921, -97.7873
6.64425, 73, 0.666638, -9.8487, 26.5696, 29.9378, 85.7994, -97.0526
6.64949, 73, 1.05618, -9.67988, 26.3627, 29.6177, 85.9054, -96.807
6.65888, 73, 1.83838, -9.33728, 25.9492, 28.9703, 86.123, -96.315
6.66567, 74, 2.62289, -8.99004, 25.5385, 28.3159, 86.3477, -95.8216
6.6763, 75, 3.80238, -8.46258, 24.9312, 27.3243, 86.696, -95.0802
6.68093, 75, 4.19657, -8.28349, 24.7317, 26.9921, 86.8145, -94.8329
6.69108, 75, 4.98712, -7.92111, 24.3371, 26.328, 87.0553, -94.3384
6.69644, 76, 5.77912, -7.553, 23.9489, 25.6629, 87.3011, -93.8424
6.71408, 77, 7.36506, -6.79648, 23.1902, 24.3293, 87.8119, -92.844
6.71728, 77, 7.36506, -6.79648, 23.0028, 23.994, 87.9452, -92.5927
6.73005, 78, 8.95693, -6.00608, 22.4442, 22.9806, 88.3625, -91.8347
6.73135, 78, 8.95693, -6.00608, 22.4442, 22.9806, 88.3625, -91.8347
6.73557, 78, 9.35522, -5.80398, 22.2596, 22.6398, 88.5081, -91.5799
6.74359, 79, 10.1518, -5.39261, 21.8917, 21.9541, 88.8093, -91.0672
6.75154, 79, 10.9483, -4.97103, 21.5259, 21.2652, 89.1233, -90.55
6.75958, 80, 11.743, -4.53882, 21.1626, 20.5757, 89.4495, -90.0289
6.76753, 80, 12.5337, -4.09724, 20.8045, 19.8864, 89.7868, -89.5027
6.77558, 81, 13.3196, -3.64602, 20.4515, 19.2037, 90.1347, -88.9707
6.78353, 81, 14.1006, -3.18604, 20.1048, 18.5308, 90.4911, -88.4339
6.79154, 82, 14.8738, -2.71823, 19.7656, 17.8703, 90.8546, -87.8933
6.7996, 82, 15.6385, -2.24193, 19.4362, 17.2229, 91.2248, -87.3497
6.80752, 83, 16.3927, -1.75844, 19.1157, 16.5907, 91.6012, -86.8032
6.81553, 83, 17.1362, -1.26836, 18.805, 15.9769, 91.9837, -86.2543
6.82357, 84, 17.8665, -0.771872, 18.5029, 15.3808, 92.372, -85.7045
6.83324, 84, 18.5802, -0.270386, 18.2102, 14.8044, 92.967, -84.8785
6.8395, 85, 19.2767, 0.235593, 17.9246, 14.2483, 93.1687, -84.6029
6.84761, 85, 19.9566, 0.747037, 17.6453, 13.7134, 93.5784, -84.0521
6.85556, 85, 20.6196, 1.26326, 17.3721, 13.2001, 93.9941, -83.5023
6.86574, 86, 21.5829, 2.04565, 16.9736, 12.4721, 94.6265, -82.6796
6.87161, 86, 21.8965, 2.30964, 16.8443, 12.2406, 94.8398, -82.405
6.87953, 87, 22.5135, 2.84458, 16.59, 11.7943, 95.2704, -81.8548
6.88753, 87, 23.1192, 3.3892, 16.3408, 11.368, 95.7068, -81.3022
6.89557, 88, 23.7152, 3.94174, 16.0965, 10.9603, 96.1493, -80.7452
6.90352, 88, 24.3011, 4.50133, 15.8561, 10.5691, 96.597, -80.1807
6.91151, 89, 24.8756, 5.0709, 15.6219, 10.1939, 97.0512, -79.6073
6.91952, 89, 25.4388, 5.65151, 15.3931, 9.83419, 97.5114, -79.0237
6.92756, 90, 25.9941, 6.24148, 15.1675, 9.49027, 97.9774, -78.4284
6.93552, 90, 26.5429, 6.83995, 14.946, 9.16103, 98.4499, -77.8192
6.94352, 91, 27.0806, 7.44662, 14.7295, 8.84864, 98.9287, -77.1963
6.95159, 91, 27.6041, 8.06281, 14.5178, 8.55412, 99.4137, -76.5612
6.95952, 92, 28.1155, 8.68953, 14.3103, 8.2796, 99.9043, -75.9143
6.96754, 92, 28.6187, 9.32684, 14.1073, 8.02692, 100.399, -75.2569
6.97554, 93, 29.1146, 9.9732, 13.9092, 7.79622, 100.897, -74.5923
6.98353, 93, 29.5994, 10.6263, 13.7177, 7.58886, 101.396, -73.9208
6.99155, 94, 30.0711, 11.2846, 13.5342, 7.40499, 101.895, -73.242
6.99981, 94, 30.5282, 11.9463, 13.3582, 7.2446, 102.391, -72.558
7.00758, 95, 30.9715, 12.6104, 13.1889, 7.10802, 102.885, -71.8697
7.01556, 95, 31.4008, 13.2761, 13.0274, 6.99526, 103.375, -71.175
7.02363, 96, 31.8162, 13.9435, 12.8736, 6.9057, 103.862, -70.4748
7.03165, 96, 32.2165, 14.6117, 12.7263, 6.8405, 104.345, -69.7703
7.03961, 97, 32.6005, 15.2807, 12.5854, 6.79855, 104.824, -69.0595
7.04769, 97, 32.9684, 15.9488, 12.4518, 6.7776, 105.298, -68.3431
7.05563, 98, 33.3205, 16.6151, 12.3263, 6.77842, 105.765, -67.6241
7.06372, 98, 33.6578, 17.2779, 12.2095, 6.80136, 106.224, -66.9016
7.07233, 99, 33.981, 17.9354, 12.1017, 6.84382, 106.674, -66.177
7.07953, 99, 34.2911, 18.5867, 12.0034, 6.90648, 107.112, -65.4545
7.08839, 100, 34.5897, 19.2299, 11.9141, 6.98711, 107.539, -64.7332
7.09566, 100, 34.8767, 19.8645, 11.8334, 7.08516, 107.952, -64.0147
7.10382, 101, 35.1517, 20.4884, 11.7612, 7.19941, 108.351, -63.3029
7.11174, 101, 35.4149, 21.1016, 11.697, 7.32857, 108.736, -62.5975
7.11977, 101, 35.6665, 21.7032, 11.6415, 7.471, 109.104, -61.9
7.12774, 102, 35.9051, 22.2919, 11.5944, 7.62505, 109.456, -61.2139
7.13585, 102, 36.1311, 22.8671, 11.556, 7.7888, 109.789, -60.5399
7.14414, 103, 36.3483, 23.4268, 11.5266, 7.96105, 110.104, -59.8777
7.15202, 103, 36.5588, 23.9707, 11.5065, 8.14151, 110.4, -59.2288
7.16004, 104, 36.7623, 24.4993, 11.4955, 8.33065, 110.677, -58.5939
7.16879, 104, 36.9587, 25.0119, 11.492, 8.52884, 110.934, -57.97
7.1761, 104, 37.1497, 25.5079, 11.4952, 8.73576, 111.171, -57.3582
7.18411, 104, 37.334, 25.9883, 11.5045, 8.95023, 111.39, -56.7586
7.19229, 104, 37.5086, 26.4525, 11.5179, 9.17073, 111.59, -56.172
7.20018, 104, 37.592, 26.6784, 11.5338, 9.39491, 111.775, -55.6001
7.20753, 104, 37.7531, 27.1189, 11.5428, 9.5075, 111.862, -55.3206
7.21552, 104, 37.9091, 27.5438, 11.5624, 9.73195, 112.027, -54.7764
7.22356, 104, 38.0614, 27.9529, 11.583, 9.95344, 112.183, -54.2547
7.23159, 104, 38.2087, 28.345, 11.6037, 10.1705, 112.329, -53.7553
7.23951, 104, 38.3499, 28.7209, 11.6236, 10.3818, 112.468, -53.2796
7.24755, 104, 38.4843, 29.0793, 11.6422, 10.5862, 112.598, -52.8283
7.25553, 104, 38.611, 29.4197, 11.6599, 10.7831, 112.721, -52.4015
7.26353, 104, 38.7294, 29.7412, 11.6764, 10.9713, 112.836, -52.0002
7.27169, 104, 38.8394, 30.0435, 11.6917, 11.1505, 112.944, -51.6233
7.27952, 104, 38.9413, 30.3276, 11.706, 11.32, 113.044, -51.2718
7.28751, 104, 39.0354, 30.592, 11.7193, 11.4793, 113.136, -50.9459
7.29556, 104, 39.1218, 30.8367, 11.7312, 11.6281, 113.221, -50.6451
7.30352, 104, 39.2003, 31.062, 11.742, 11.7657, 113.298, -50.3696
7.31153, 104, 39.2708, 31.2672, 11.752, 11.8918, 113.369, -50.1194
7.31956, 104, 39.3334, 31.4526, 11.7612, 12.0062, 113.431, -49.8945
7.32752, 104, 39.3885, 31.6189, 11.7692, 12.1087, 113.488, -49.6945
7.33551, 104, 39.4367, 31.7656, 11.7764, 12.1989, 113.536, -49.5196
7.34356, 104, 39.4789, 31.8936, 11.7829, 12.2771, 113.578, -49.3695
7.35165, 104, 39.5155, 32.0043, 11.7888, 12.3433, 113.613, -49.2429
7.36053, 104, 39.5459, 32.0983, 11.794, 12.3981, 113.642, -49.1395
7.36758, 104, 39.5709, 32.1765, 11.7987, 12.4409, 113.664, -49.0568
7.37553, 104, 39.591, 32.2409, 11.8029, 12.4743, 113.681, -48.9935
7.38351, 104, 39.6066, 32.293, 11.8067, 12.4992, 113.694, -48.9471
7.39156, 104, 39.6186, 32.3342, 11.8102, 12.517, 113.702, -48.9145
7.39957, 104, 39.6278, 32.3653, 11.8134, 12.5294, 113.707, -48.8929
7.40751, 104, 39.6345, 32.3886, 11.8161, 12.5371, 113.711, -48.8795
7.41557, 104, 39.639, 32.4059, 11.8185, 12.5418, 113.712, -48.872
7.42353, 104, 39.6417, 32.4181, 11.8204, 12.5443, 113.713, -48.8684
7.43153, 104, 39.643, 32.4258, 11.8217, 12.5455, 113.714, -48.8668
7.43956, 105, 39.6433, 32.4306, 11.8228, 12.5461, 113.714, -48.8662
7.44753, 105, 39.6426, 32.4339, 11.8238, 12.5464, 113.714, -48.866
7.45551, 105, 39.6416, 32.4361, 11.8246, 12.5466, 113.714, -48.8662
7.46355, 105, 39.6406, 32.4379, 11.8252, 12.5466, 113.714, -48.8664
7.47155, 105, 39.6396, 32.4392, 11.8259, 12.5467, 113.714, -48.8667
7.47951, 105, 39.6384, 32.4405, 11.8264, 12.5468, 113.714, -48.867
7.48755, 105, 39.6376, 32.4417, 11.827, 12.5468, 113.714, -48.8673
7.49553, 105, 39.6371, 32.4428, 11.8276, 12.5467, 113.714, -48.8676
7.50351, 105, 39.6368, 32.4439, 11.8282, 12.5467, 113.714, -48.868
7.51157, 105, 39.6365, 32.4448, 11.8287, 12.5468, 113.714, -48.8683
7.51955, 105, 39.6362, 32.4457, 11.8292, 12.5468, 113.714, -48.8685
7.52756, 105, 39.6359, 32.4463, 11.8295, 12.5467, 113.714, -48.8688
7.53575, 105, 39.6356, 32.4468, 11.8298, 12.5467, 113.714, -48.8691
7.54362, 105, 39.6353, 32.447, 11.8301, 12.5467, 113.714, -48.8694
7.55162, 105, 39.635, 32.4471, 11.8303, 12.5467, 113.714, -48.8697
7.55989, 105, 39.6348, 32.4472, 11.8305, 12.5467, 113.714, -48.8698
