hehonglu123/Motion-Primitive-Planning/ILC/recorded_data/realrobot/from_NX/iteration_9/run_0.csv
timestamp, cmd_num, J1, J2, J3, J4, J5, J6
0.000375, -1, 39.6297, 32.4456, 11.832, 12.5455, 113.713, -48.8721
0.00418, -1, 39.6297, 32.4456, 11.832, 12.5455, 113.713, -48.8722
0.007841, -1, 39.6297, 32.4456, 11.832, 12.5455, 113.713, -48.8721
0.03041, -1, 39.6297, 32.4456, 11.832, 12.5456, 113.713, -48.8722
0.034028, -1, 39.6297, 32.4456, 11.832, 12.5456, 113.713, -48.8722
0.035523, -1, 39.6297, 32.4456, 11.832, 12.5456, 113.713, -48.8722
0.039646, -1, 39.6297, 32.4456, 11.832, 12.5456, 113.713, -48.8722
0.047689, -1, 39.6297, 32.4455, 11.832, 12.5455, 113.713, -48.8722
0.055658, -1, 39.6293, 32.4455, 11.8321, 12.5455, 113.713, -48.8722
0.063689, -1, 39.6271, 32.4452, 11.832, 12.5455, 113.713, -48.8722
0.071639, -1, 39.6218, 32.4439, 11.8319, 12.5455, 113.713, -48.8723
0.079635, -1, 39.6131, 32.4411, 11.8317, 12.5455, 113.712, -48.8732
0.08768, -1, 39.5999, 32.4359, 11.8316, 12.5455, 113.711, -48.8775
0.095618, -1, 39.5802, 32.4274, 11.8316, 12.5455, 113.707, -48.8888
0.103628, -1, 39.5516, 32.4149, 11.8319, 12.5455, 113.701, -48.9092
0.111714, -1, 39.5132, 32.3974, 11.8337, 12.5455, 113.688, -48.9426
0.119639, -1, 39.4638, 32.3737, 11.8382, 12.5455, 113.67, -48.9927
0.127627, -1, 39.4018, 32.3434, 11.8462, 12.5456, 113.642, -49.0642
0.135683, -1, 39.3263, 32.3055, 11.8587, 12.5459, 113.605, -49.1585
0.143622, -1, 39.2372, 32.2599, 11.8762, 12.5464, 113.558, -49.2783
0.151802, -1, 39.1342, 32.2063, 11.8985, 12.5474, 113.502, -49.4236
0.159626, -1, 39.017, 32.1448, 11.9251, 12.5489, 113.434, -49.5936
0.16766, -1, 38.8865, 32.0759, 11.9555, 12.5507, 113.358, -49.7861
0.176489, -1, 38.7436, 32.0005, 11.9893, 12.5528, 113.274, -49.9981
0.183707, -1, 38.5892, 31.919, 12.0254, 12.555, 113.184, -50.2257
0.191714, -1, 38.4249, 31.8327, 12.063, 12.5573, 113.089, -50.4657
0.200508, -1, 38.2527, 31.7423, 12.1018, 12.5597, 112.991, -50.7139
0.20775, -1, 38.0743, 31.649, 12.1407, 12.5622, 112.891, -50.9674
0.21572, -1, 37.8908, 31.5535, 12.1795, 12.5646, 112.79, -51.2241
0.224955, -1, 37.7033, 31.4565, 12.2183, 12.5669, 112.688, -51.4827
0.231638, -1, 37.513, 31.3587, 12.257, 12.5694, 112.585, -51.7423
0.239724, -1, 37.3215, 31.2607, 12.2958, 12.5719, 112.482, -52.0018
0.247721, -1, 37.1294, 31.1628, 12.3346, 12.5742, 112.38, -52.2616
0.255729, -1, 36.9371, 31.065, 12.3733, 12.5768, 112.276, -52.5217
0.263899, -1, 36.7451, 30.9672, 12.4121, 12.5793, 112.173, -52.7821
0.271885, -1, 36.5535, 30.8694, 12.4509, 12.5818, 112.07, -53.0425
0.279936, -1, 36.362, 30.7716, 12.4899, 12.5844, 111.968, -53.3029
0.288074, -1, 36.1704, 30.6738, 12.5287, 12.5868, 111.865, -53.5633
0.2946, -1, 36.0746, 30.6248, 12.5481, 12.5881, 111.813, -53.6936
0.304744, -1, 35.7874, 30.4778, 12.6066, 12.5919, 111.659, -54.0847
0.31225, -1, 35.5956, 30.3797, 12.6455, 12.5943, 111.556, -54.3449
0.320205, -1, 35.4035, 30.2814, 12.6843, 12.5969, 111.453, -54.6053
0.328196, -1, 35.2112, 30.1831, 12.7232, 12.5994, 111.349, -54.8658
0.336251, -1, 35.0188, 30.0847, 12.7622, 12.6019, 111.246, -55.1267
0.344217, -1, 34.9226, 30.0355, 12.7817, 12.6032, 111.143, -55.3873
0.350672, -1, 34.7304, 29.9369, 12.8205, 12.6057, 111.092, -55.5176
0.360687, -1, 34.4419, 29.7892, 12.879, 12.6094, 110.937, -55.9089
0.367645, -1, 34.3459, 29.74, 12.8985, 12.6107, 110.886, -56.0394
0.507143, -1, 30.9701, 28.0155, 13.5808, 12.6571, 109.082, -60.6092
0.508403, -1, 30.9701, 28.0155, 13.5808, 12.6571, 109.082, -60.6092
0.510436, -1, 30.874, 27.9662, 13.6003, 12.6584, 109.03, -60.74
0.511699, -1, 30.874, 27.9662, 13.6003, 12.6584, 109.03, -60.74
0.514464, -1, 30.874, 27.9662, 13.6003, 12.6584, 109.03, -60.8707
0.515761, -1, 30.7779, 27.917, 13.6198, 12.6599, 108.979, -60.8707
0.518485, -1, 30.7779, 27.917, 13.6198, 12.6599, 108.979, -61.0013
0.522169, -1, 30.586, 27.8185, 13.6589, 12.6627, 108.876, -61.1318
0.523474, -1, 30.586, 27.8185, 13.6589, 12.6627, 108.876, -61.1318
0.524739, -1, 30.586, 27.8185, 13.6589, 12.6627, 108.876, -61.1318
0.526721, -1, 30.49, 27.7692, 13.6785, 12.664, 108.824, -61.2625
0.527997, -1, 30.49, 27.7692, 13.6785, 12.664, 108.824, -61.2625
0.529822, -1, 30.394, 27.7198, 13.698, 12.6654, 108.772, -61.3932
0.53131, -1, 30.394, 27.7198, 13.698, 12.6654, 108.772, -61.3932
0.532509, -1, 30.394, 27.7198, 13.698, 12.6654, 108.772, -61.3932
0.53492, -1, 30.298, 27.6705, 13.7175, 12.6667, 108.721, -61.524
0.536164, -1, 30.298, 27.6705, 13.7175, 12.6667, 108.721, -61.524
0.538093, -1, 30.2019, 27.6211, 13.737, 12.6681, 108.669, -61.6548
0.540455, -1, 30.2019, 27.6211, 13.737, 12.6681, 108.669, -61.6548
0.543337, -1, 30.1057, 27.5717, 13.7565, 12.6694, 108.618, -61.7857
0.544559, -1, 30.1057, 27.5717, 13.7565, 12.6694, 108.618, -61.7857
0.546612, -1, 30.0095, 27.5224, 13.776, 12.6708, 108.566, -61.9165
0.554095, -1, 29.8167, 27.4237, 13.815, 12.6735, 108.463, -62.1781
0.559642, -1, 29.7201, 27.3743, 13.8344, 12.6749, 108.411, -62.309
0.567656, -1, 29.5265, 27.2755, 13.8734, 12.6775, 108.308, -62.5707
0.575673, -1, 29.3324, 27.1767, 13.9124, 12.68, 108.205, -62.8326
0.583612, -1, 29.1382, 27.0779, 13.9514, 12.6826, 108.101, -63.0942
0.591612, -1, 28.9437, 26.979, 13.9905, 12.6851, 107.998, -63.3556
0.599731, -1, 28.7495, 26.8801, 14.0294, 12.6876, 107.894, -63.6171
0.607624, -1, 28.5553, 26.7812, 14.0684, 12.6901, 107.791, -63.8789
0.615686, -1, 28.3615, 26.6825, 14.1076, 12.6926, 107.688, -64.1406
0.623609, -1, 28.1681, 26.5838, 14.1466, 12.695, 107.584, -64.4022
0.631606, -1, 27.9751, 26.485, 14.1856, 12.6975, 107.481, -64.6638
0.639679, -1, 27.7824, 26.3862, 14.2247, 12.6999, 107.378, -64.9258
0.64761, -1, 27.5899, 26.2874, 14.2636, 12.7023, 107.275, -65.1876
0.655606, -1, 27.3978, 26.1884, 14.3026, 12.7047, 107.171, -65.4492
0.663685, -1, 27.2056, 26.0894, 14.3417, 12.7071, 107.068, -65.7107
0.796834, -1, 24.0164, 24.459, 14.9851, 12.7452, 105.364, -70.0289
0.798093, -1, 24.0164, 24.459, 14.9851, 12.7452, 105.364, -70.0289
0.800067, -1, 23.92, 24.4096, 15.0046, 12.7464, 105.313, -70.1598
0.801505, -1, 23.92, 24.4096, 15.0046, 12.7464, 105.313, -70.1598
0.802777, -1, 23.92, 24.4096, 15.0046, 12.7464, 105.313, -70.1598
0.805634, -1, 23.8235, 24.3602, 15.024, 12.7476, 105.261, -70.2907
0.806862, -1, 23.8235, 24.3602, 15.024, 12.7476, 105.261, -70.2907
0.810638, -1, 23.7271, 24.3108, 15.0435, 12.7488, 105.209, -70.4215
0.812734, -1, 23.6306, 24.2614, 15.0629, 12.75, 105.157, -70.5525
0.814107, -1, 23.6306, 24.2614, 15.0629, 12.75, 105.157, -70.5525
0.816088, -1, 23.5339, 24.2119, 15.0824, 12.7512, 105.106, -70.6834
0.817561, -1, 23.5339, 24.2119, 15.0824, 12.7512, 105.106, -70.6834
0.818854, -1, 23.5339, 24.2119, 15.0824, 12.7512, 105.106, -70.6834
0.821576, -1, 23.4372, 24.1625, 15.1019, 12.7524, 105.054, -70.8142
0.822779, -1, 23.4372, 24.1625, 15.1019, 12.7524, 105.054, -70.8142
0.829934, -1, 23.2435, 24.0637, 15.1408, 12.7548, 104.951, -71.0758
0.831129, -1, 23.2435, 24.0637, 15.1408, 12.7548, 104.951, -71.0758
0.833381, -1, 23.1466, 24.0142, 15.1602, 12.756, 104.899, -71.2067
0.83457, -1, 23.1466, 24.0142, 15.1602, 12.756, 104.899, -71.2067
0.836448, -1, 23.0496, 23.9647, 15.1797, 12.7572, 104.847, -71.3376
0.8378, -1, 23.0496, 23.9647, 15.1797, 12.7572, 104.847, -71.3376
0.840147, -1, 23.0496, 23.9647, 15.1797, 12.7584, 104.796, -71.4685
0.84829, -1, 22.8555, 23.8659, 15.2381, 12.7609, 104.692, -71.7304
0.855592, -1, 22.6615, 23.7672, 15.2576, 12.7621, 104.641, -71.8613
0.8636, -1, 22.4677, 23.6685, 15.2966, 12.7646, 104.537, -72.1228
0.871678, -1, 22.2742, 23.5699, 15.3356, 12.7671, 104.434, -72.3841
0.8796, -1, 22.0811, 23.4712, 15.3745, 12.7697, 104.33, -72.6456
0.887596, -1, 21.888, 23.3725, 15.4135, 12.7723, 104.227, -72.9073
0.89564, -1, 21.6955, 23.2737, 15.4525, 12.7749, 104.124, -73.1685
0.903608, -1, 21.5033, 23.1749, 15.4914, 12.7776, 104.021, -73.43
0.911634, -1, 21.3111, 23.0762, 15.5304, 12.7802, 103.918, -73.6914
0.919597, -1, 21.1189, 22.9776, 15.5694, 12.7829, 103.815, -73.9532
0.927602, -1, 20.9265, 22.879, 15.6083, 12.7856, 103.712, -74.2144
0.935674, -1, 20.7341, 22.7804, 15.6473, 12.7883, 103.608, -74.4755
0.943623, -1, 20.5414, 22.6818, 15.6862, 12.791, 103.505, -74.7368
0.951622, -1, 20.3482, 22.5832, 15.725, 12.7937, 103.402, -74.9981
0.959667, -1, 20.1546, 22.4844, 15.764, 12.7964, 103.299, -75.2593
0.967594, -1, 19.9609, 22.3857, 15.8028, 12.7992, 103.196, -75.5205
0.975604, -1, 19.7672, 22.287, 15.8415, 12.8019, 103.093, -75.7815
0.984579, -1, 19.5735, 22.1884, 15.8805, 12.8047, 102.99, -76.0428
0.991587, -1, 19.3802, 22.0898, 15.9194, 12.8075, 102.887, -76.3041
0.999607, -1, 19.1871, 21.9911, 15.9582, 12.8101, 102.784, -76.5649
1.00766, -1, 18.9943, 21.8925, 15.9972, 12.8129, 102.681, -76.8256
1.01558, -1, 18.8018, 21.7939, 16.036, 12.8156, 102.578, -77.0866
1.02361, -1, 18.6097, 21.6951, 16.0747, 12.8183, 102.475, -77.3476
1.03163, -1, 18.418, 21.5966, 16.1137, 12.821, 102.372, -77.6083
1.03959, -1, 18.2261, 21.4981, 16.1526, 12.8236, 102.269, -77.869
1.04768, -1, 18.0342, 21.3996, 16.1913, 12.8261, 102.167, -78.1297
1.05558, -1, 17.8423, 21.3013, 16.2303, 12.8287, 102.064, -78.3906
1.06363, -1, 17.6503, 21.2029, 16.2692, 12.8312, 101.961, -78.6512
1.07167, -1, 17.4578, 21.1046, 16.308, 12.8338, 101.858, -78.9116
1.07959, -1, 17.265, 21.0063, 16.3469, 12.8362, 101.755, -79.1721
1.08758, -1, 17.072, 20.908, 16.3856, 12.8386, 101.652, -79.4329
1.09566, -1, 16.8789, 20.8098, 16.4245, 12.841, 101.549, -79.6935
1.10363, -1, 16.6858, 20.7116, 16.4633, 12.8432, 101.446, -79.954
1.11161, -1, 16.4928, 20.6134, 16.502, 12.8456, 101.344, -80.2144
1.11968, -1, 16.3, 20.5151, 16.5407, 12.8479, 101.241, -80.4751
1.12759, -1, 16.1077, 20.4168, 16.5795, 12.8502, 101.138, -80.7358
1.13558, -1, 15.9158, 20.3183, 16.6182, 12.8525, 101.036, -80.9958
1.14367, -1, 15.7241, 20.2198, 16.657, 12.8548, 100.933, -81.2559
1.15159, -1, 15.5327, 20.1214, 16.6955, 12.8572, 100.83, -81.516
1.15965, -1, 15.3415, 20.0231, 16.7342, 12.8596, 100.728, -81.7763
1.16784, -1, 15.1504, 19.9249, 16.773, 12.8618, 100.625, -82.0361
1.17562, -1, 14.9591, 19.8267, 16.8117, 12.8641, 100.523, -82.2959
1.18374, -1, 14.7678, 19.7285, 16.8504, 12.8664, 100.42, -82.5557
1.19247, -1, 14.5762, 19.6304, 16.8891, 12.8686, 100.317, -82.8159
1.19968, -1, 14.3844, 19.5323, 16.9278, 12.871, 100.215, -83.0756
1.20775, -1, 14.1923, 19.4343, 16.9665, 12.8732, 100.112, -83.335
1.21649, -1, 13.9999, 19.3363, 17.0052, 12.8754, 100.01, -83.5947
1.2237, -1, 13.8074, 19.2385, 17.0438, 12.8778, 99.9073, -83.8544
1.23179, -1, 13.6149, 19.1407, 17.0825, 12.8801, 99.8048, -84.1139
1.2405, -1, 13.4225, 19.0428, 17.1212, 12.8824, 99.7022, -84.3731
1.24764, -1, 13.2306, 18.9449, 17.1597, 12.8847, 99.6002, -84.6325
1.2557, -1, 13.039, 18.847, 17.1983, 12.8871, 99.4977, -84.8917
1.26458, -1, 12.8478, 18.7491, 17.2369, 12.8894, 99.3952, -85.1511
1.27185, -1, 12.6569, 18.6511, 17.2754, 12.8918, 99.2931, -85.4101
1.2799, -1, 12.4662, 18.5534, 17.314, 12.8942, 99.1907, -85.6689
1.28931, -1, 12.276, 18.4556, 17.3526, 12.8966, 99.0884, -85.9278
1.29633, -1, 12.0859, 18.3579, 17.391, 12.899, 98.9865, -86.1869
1.30488, -1, 11.8955, 18.2603, 17.4296, 12.9014, 98.8843, -86.4456
1.3121, -1, 11.705, 18.1626, 17.4683, 12.9039, 98.7824, -86.704
1.32018, -1, 11.5143, 18.065, 17.5067, 12.9063, 98.6806, -86.9627
1.32897, -1, 11.3232, 17.9674, 17.5453, 12.9088, 98.5786, -87.2214
1.33617, -1, 11.1319, 17.8698, 17.5839, 12.9112, 98.4767, -87.48
1.34417, -1, 10.9404, 17.7724, 17.6223, 12.9136, 98.3749, -87.7382
1.35298, -1, 10.8445, 17.7237, 17.6416, 12.9149, 98.3238, -87.9964
1.35959, -1, 10.6529, 17.6262, 17.68, 12.9174, 98.2218, -88.1256
1.36764, -1, 10.4614, 17.5287, 17.7184, 12.92, 98.1202, -88.384
1.37558, -1, 10.2702, 17.4312, 17.7568, 12.9225, 98.0182, -88.6422
1.38358, -1, 10.0794, 17.3336, 17.7953, 12.925, 97.9163, -88.9002
1.39162, -1, 9.88905, 17.236, 17.8336, 12.9277, 97.8146, -89.1582
1.39961, -1, 9.69895, 17.1385, 17.872, 12.9303, 97.7125, -89.4165
1.40767, -1, 9.50931, 17.0411, 17.9103, 12.9331, 97.6105, -89.6745
1.41559, -1, 9.32006, 16.9438, 17.9486, 12.9358, 97.5088, -89.932
1.42358, -1, 9.13071, 16.8465, 17.9871, 12.9385, 97.4069, -90.1896
1.43162, -1, 8.94133, 16.7493, 18.0254, 12.9412, 97.305, -90.4471
1.43961, -1, 8.75182, 16.6521, 18.0637, 12.9438, 97.2034, -90.7048
1.4476, -1, 8.56217, 16.5549, 18.1022, 12.9464, 97.1017, -90.9619
1.45567, -1, 8.3724, 16.4579, 18.1405, 12.9492, 97.0003, -91.2191
1.46358, -1, 8.18209, 16.3609, 18.1787, 12.9518, 96.8987, -91.4763
1.47157, -1, 7.99154, 16.2641, 18.2171, 12.9544, 96.797, -91.7336
1.48111, -1, 7.80105, 16.1672, 18.2554, 12.9572, 96.6957, -91.9905
1.48757, -1, 7.61044, 16.0703, 18.2936, 12.9597, 96.5942, -92.2472
1.4966, -1, 7.42002, 15.9733, 18.332, 12.9623, 96.4927, -92.5039
1.50369, -1, 7.22992, 15.8765, 18.3701, 12.9649, 96.3916, -92.7608
1.51369, -1, 6.94541, 15.731, 18.4275, 12.9687, 96.2395, -93.1455
1.51957, -1, 6.85075, 15.6825, 18.4466, 12.97, 96.1888, -93.2738
1.52759, -1, 6.66179, 15.5857, 18.4847, 12.9725, 96.0882, -93.5302
1.53558, -1, 6.47335, 15.4889, 18.5227, 12.975, 95.9871, -93.7866
1.54362, -1, 6.28514, 15.3922, 18.561, 12.9775, 95.8859, -94.043
1.55158, -1, 6.09709, 15.2955, 18.5991, 12.9799, 95.7853, -94.2989
1.55958, -1, 5.90878, 15.1988, 18.6372, 12.9823, 95.6842, -94.5548
1.56766, -1, 5.72034, 15.1021, 18.6754, 12.9846, 95.5832, -94.8107
1.57558, -1, 5.53181, 15.0054, 18.7135, 12.9869, 95.4827, -95.0668
1.58358, -1, 5.34305, 14.9089, 18.7516, 12.9892, 95.3818, -95.3224
1.59165, -1, 5.15386, 14.8125, 18.7897, 12.9915, 95.281, -95.5778
1.59957, -1, 4.96442, 14.7162, 18.8277, 12.9938, 95.1806, -95.8333
1.60761, -1, 4.775, 14.6198, 18.8658, 12.996, 95.0797, -96.0888
1.61565, -1, 4.58559, 14.5234, 18.9039, 12.9982, 94.9789, -96.3441
1.62359, -1, 4.39634, 14.4271, 18.9419, 13.0004, 94.8783, -96.599
1.63158, -1, 4.20737, 14.3307, 18.9799, 13.0026, 94.7774, -96.8538
1.63964, -1, 4.01877, 14.2343, 19.0179, 13.0049, 94.6766, -97.109
1.64757, -1, 3.83071, 14.1381, 19.0558, 13.0071, 94.5758, -97.364
1.65557, -1, 3.6432, 14.0419, 19.0938, 13.0094, 94.475, -97.6187
1.66369, -1, 3.45608, 13.9458, 19.1317, 13.0117, 94.3744, -97.8734
1.67158, -1, 3.26918, 13.8497, 19.1695, 13.014, 94.2738, -98.1281
1.67961, -1, 3.08224, 13.7537, 19.2074, 13.0163, 94.173, -98.383
1.68791, -1, 2.89526, 13.6576, 19.2453, 13.0185, 94.0724, -98.6373
1.69566, -1, 2.70814, 13.5616, 19.2832, 13.0208, 93.9718, -98.8915
1.70368, -1, 2.52083, 13.4656, 19.3211, 13.0231, 93.8713, -99.1455
1.71209, -1, 2.33342, 13.3697, 19.3589, 13.0254, 93.771, -99.3998
1.71918, -1, 2.14549, 13.2739, 19.3966, 13.0276, 93.6706, -99.6538
1.72768, -1, 1.95728, 13.1781, 19.4346, 13.0298, 93.5704, -99.9073
1.73631, -1, 1.76908, 13.0822, 19.4723, 13.0321, 93.4706, -100.161
1.7436, -1, 1.58084, 12.9864, 19.5101, 13.0343, 93.3704, -100.415
1.75174, -1, 1.39273, 12.8906, 19.5479, 13.0366, 93.2703, -100.668
1.76053, -1, 1.20494, 12.7948, 19.5856, 13.0389, 93.1705, -100.922
1.76775, -1, 1.01758, 12.6991, 19.6233, 13.0413, 93.0704, -101.175
1.77588, -1, 0.830898, 12.6035, 19.6611, 13.0437, 92.9704, -101.428
1.78465, -1, 0.6446, 12.5079, 19.6987, 13.0461, 92.8708, -101.681
1.79192, -1, 0.45871, 12.4124, 19.7362, 13.0485, 92.771, -101.934
1.80013, -1, 0.273094, 12.3171, 19.774, 13.051, 92.6712, -102.186
1.80884, -1, 0.0876991, 12.2217, 19.8115, 13.0534, 92.572, -102.439
1.81608, -1, -0.0978191, 12.1263, 19.849, 13.0558, 92.4722, -102.691
1.82416, -1, -0.283537, 12.031, 19.8867, 13.0582, 92.3727, -102.944
1.83295, -1, -0.469419, 11.9358, 19.9243, 13.0607, 92.2734, -103.196
1.84015, -1, -0.655622, 11.8408, 19.9618, 13.0633, 92.1738, -103.448
1.84838, -1, -0.842012, 11.7458, 19.9994, 13.0657, 92.0743, -103.7
1.85692, -1, -0.935321, 11.6982, 20.0181, 13.067, 92.0248, -103.826
1.86357, -1, -1.12209, 11.6032, 20.0555, 13.0695, 91.9254, -104.078
1.87161, -1, -1.30913, 11.5081, 20.093, 13.072, 91.8261, -104.33
1.87956, -1, -1.49598, 11.413, 20.1305, 13.0745, 91.727, -104.581
1.88756, -1, -1.68262, 11.3179, 20.1679, 13.0771, 91.6278, -104.833
1.89556, -1, -1.86884, 11.2229, 20.2053, 13.0797, 91.5285, -105.084
1.9036, -1, -2.05458, 11.1279, 20.2428, 13.0823, 91.4295, -105.336
1.91162, -1, -2.2397, 11.033, 20.2801, 13.085, 91.3302, -105.586
1.91956, -1, -2.42447, 10.9382, 20.3175, 13.0877, 91.2311, -105.837
1.92756, -1, -2.60881, 10.8434, 20.3548, 13.0903, 91.1321, -106.088
1.93561, -1, -2.79274, 10.7486, 20.3921, 13.093, 91.033, -106.339
1.9436, -1, -2.97674, 10.6539, 20.4295, 13.0956, 90.9339, -106.59
1.95156, -1, -3.1608, 10.5592, 20.4669, 13.0982, 90.8352, -106.841
1.95966, -1, -3.34505, 10.4646, 20.5041, 13.1008, 90.7361, -107.091
1.96756, -1, -3.52967, 10.3701, 20.5413, 13.1033, 90.6371, -107.342
1.97556, -1, -3.71449, 10.2758, 20.5786, 13.1059, 90.5385, -107.592
1.98457, -1, -3.89964, 10.1814, 20.6159, 13.1083, 90.4396, -107.842
1.99156, -1, -4.08499, 10.087, 20.6532, 13.1108, 90.3409, -108.092
1.99963, -1, -4.27058, 9.99279, 20.6903, 13.1132, 90.2424, -108.342
2.00756, -1, -4.45616, 9.89848, 20.7275, 13.1156, 90.1437, -108.592
2.01579, -1, -4.64146, 9.80417, 20.7648, 13.1179, 90.0452, -108.841
2.0246, -1, -4.82637, 9.70999, 20.8019, 13.1203, 89.9469, -109.09
2.03156, -1, -5.01085, 9.61591, 20.8389, 13.1227, 89.8483, -109.34
2.04036, -1, -5.19459, 9.52187, 20.8761, 13.125, 89.7499, -109.589
2.04756, -1, -5.37785, 9.42782, 20.9132, 13.1274, 89.6516, -109.838
2.05558, -1, -5.56077, 9.33388, 20.9503, 13.1296, 89.5531, -110.087
2.06437, -1, -5.74329, 9.23993, 20.9874, 13.1319, 89.455, -110.336
2.07158, -1, -5.92559, 9.14602, 21.0244, 13.1342, 89.357, -110.585
2.07956, -1, -6.108, 9.0521, 21.0613, 13.1364, 89.2588, -110.833
2.08835, -1, -6.29068, 8.95829, 21.0984, 13.1387, 89.1608, -111.082
2.09557, -1, -6.47364, 8.86462, 21.1353, 13.1409, 89.063, -111.33
2.10354, -1, -6.65683, 8.77093, 21.1721, 13.1431, 88.9649, -111.578
2.11238, -1, -6.8405, 8.67733, 21.2091, 13.1452, 88.8669, -111.826
2.11956, -1, -7.02437, 8.58374, 21.246, 13.1473, 88.7692, -112.074
2.12758, -1, -7.20862, 8.49018, 21.2829, 13.1495, 88.6713, -112.322
2.13635, -1, -7.3929, 8.39653, 21.3199, 13.1516, 88.5734, -112.569
2.14355, -1, -7.57667, 8.30296, 21.3566, 13.1537, 88.476, -112.817
2.15156, -1, -7.76016, 8.20954, 21.3934, 13.1559, 88.3783, -113.065
2.16037, -1, -7.94324, 8.11612, 21.4303, 13.1582, 88.281, -113.312
2.16757, -1, -8.12577, 8.02275, 21.4671, 13.1604, 88.1837, -113.559
2.17558, -1, -8.30761, 7.92948, 21.5038, 13.1626, 88.0862, -113.806
2.18441, -1, -8.48897, 7.83621, 21.5407, 13.1648, 87.9888, -114.053
2.19165, -1, -8.66996, 7.74298, 21.5775, 13.1671, 87.8915, -114.3
2.19965, -1, -8.85062, 7.64982, 21.6142, 13.1695, 87.794, -114.546
2.20843, -1, -9.03134, 7.55671, 21.651, 13.1716, 87.6966, -114.792
2.21571, -1, -9.21235, 7.46373, 21.6877, 13.1739, 87.5996, -115.039
2.22366, -1, -9.39364, 7.37091, 21.7242, 13.1761, 87.5023, -115.285
2.23248, -1, -9.57533, 7.2781, 21.761, 13.1783, 87.4053, -115.531
2.23959, -1, -9.75732, 7.18532, 21.7976, 13.1806, 87.3082, -115.777
2.2476, -1, -9.93971, 7.0926, 21.8341, 13.1827, 87.2109, -116.023
2.25662, -1, -10.1223, 6.99986, 21.8707, 13.1849, 87.1136, -116.27
2.26366, -1, -10.305, 6.90708, 21.9073, 13.1871, 87.0166, -116.515
2.27183, -1, -10.4876, 6.8143, 21.9439, 13.1893, 86.9194, -116.761
2.27981, -1, -10.6698, 6.72158, 21.9805, 13.1916, 86.8224, -117.006
2.28783, -1, -10.8516, 6.62902, 22.0169, 13.194, 86.7256, -117.252
2.29604, -1, -11.0328, 6.53639, 22.0533, 13.1965, 86.6286, -117.497
2.30398, -1, -11.2132, 6.44388, 22.0899, 13.1989, 86.532, -117.742
2.312, -1, -11.3931, 6.35139, 22.1265, 13.2013, 86.4354, -117.987
2.32017, -1, -11.5727, 6.2589, 22.1629, 13.2037, 86.3386, -118.231
2.3281, -1, -11.752, 6.16647, 22.1994, 13.2062, 86.2419, -118.476
2.33615, -1, -11.9312, 6.07419, 22.2359, 13.2086, 86.1454, -118.721
2.3442, -1, -12.1105, 5.98192, 22.2723, 13.2111, 86.0487, -118.965
2.35215, -1, -12.2002, 5.93587, 22.2905, 13.2136, 85.9524, -119.209
2.35867, -1, -12.3799, 5.84387, 22.327, 13.2148, 85.9043, -119.331
2.3676, -1, -12.56, 5.75186, 22.3632, 13.2173, 85.8079, -119.575
2.37554, -1, -12.7405, 5.65987, 22.3995, 13.2198, 85.7116, -119.819
2.38354, -1, -12.9214, 5.56795, 22.4359, 13.2223, 85.6157, -120.063
2.39159, -1, -13.1025, 5.47605, 22.4722, 13.2247, 85.5197, -120.306
2.39954, -1, -13.2838, 5.38403, 22.5084, 13.2271, 85.4237, -120.55
2.40759, -1, -13.4649, 5.29208, 22.5448, 13.2295, 85.328, -120.794
2.41554, -1, -13.6455, 5.2002, 22.5809, 13.2321, 85.2321, -121.037
2.42359, -1, -13.8258, 5.10837, 22.617, 13.2346, 85.1363, -121.28
2.43154, -1, -14.0053, 5.01654, 22.6533, 13.2372, 85.0407, -121.523
2.43954, -1, -14.1839, 4.92484, 22.6894, 13.2398, 84.9452, -121.766
2.44764, -1, -14.3623, 4.83311, 22.7255, 13.2423, 84.8496, -122.008
2.45556, -1, -14.5402, 4.74148, 22.7618, 13.2448, 84.7541, -122.251
2.46355, -1, -14.7177, 4.64992, 22.7979, 13.2474, 84.6584, -122.493
2.4716, -1, -14.8954, 4.55845, 22.834, 13.2499, 84.5626, -122.736
2.47954, -1, -15.0731, 4.46701, 22.8702, 13.2524, 84.467, -122.978
2.48853, -1, -15.251, 4.3758, 22.9063, 13.2548, 84.3713, -123.22
2.49561, -1, -15.4295, 4.28448, 22.9424, 13.2572, 84.2756, -123.462
2.50458, -1, -15.6084, 4.1932, 22.9784, 13.2595, 84.1801, -123.703
2.51154, -1, -15.7877, 4.10196, 23.0144, 13.2617, 84.0846, -123.945
2.51963, -1, -15.9669, 4.01074, 23.0503, 13.264, 83.9891, -124.187
2.52757, -1, -16.1465, 3.91949, 23.0863, 13.2661, 83.8938, -124.428
2.53554, -1, -16.3263, 3.82823, 23.1224, 13.2683, 83.7984, -124.67
2.5436, -1, -16.5057, 3.73698, 23.1582, 13.2705, 83.7029, -124.911
2.55154, -1, -16.6847, 3.64584, 23.194, 13.2727, 83.6075, -125.152
2.55961, -1, -16.8631, 3.55475, 23.2299, 13.275, 83.5122, -125.393
2.56756, -1, -17.0407, 3.46368, 23.2657, 13.2772, 83.4168, -125.634
2.57558, -1, -17.2175, 3.37269, 23.3015, 13.2794, 83.3214, -125.875
2.58361, -1, -17.394, 3.28184, 23.3374, 13.2816, 83.2264, -126.116
2.59154, -1, -17.5702, 3.19099, 23.3731, 13.2838, 83.1312, -126.356
2.59954, -1, -17.7463, 3.10035, 23.409, 13.2859, 83.0365, -126.596
2.60762, -1, -17.9223, 3.00973, 23.4449, 13.2879, 82.9418, -126.836
2.61557, -1, -18.0986, 2.91929, 23.4806, 13.2901, 82.8468, -127.077
2.62354, -1, -18.2751, 2.82896, 23.5163, 13.2923, 82.7521, -127.317
2.6316, -1, -18.4521, 2.73853, 23.5521, 13.2943, 82.6576, -127.557
2.63954, -1, -18.6296, 2.6481, 23.5878, 13.2963, 82.5628, -127.796
2.64757, -1, -18.8073, 2.55777, 23.6234, 13.2984, 82.4683, -128.036
2.65564, -1, -18.9853, 2.46732, 23.6592, 13.3004, 82.3739, -128.276
2.66354, -1, -19.1636, 2.37681, 23.6947, 13.3024, 82.2794, -128.515
2.67154, -1, -19.3417, 2.28643, 23.7303, 13.3044, 82.1851, -128.754
2.67963, -1, -19.5194, 2.19604, 23.7659, 13.3065, 82.0913, -128.993
2.68763, -1, -19.6964, 2.10564, 23.8014, 13.3087, 81.9969, -129.232
2.69568, -1, -19.8729, 2.01533, 23.8367, 13.3109, 81.9027, -129.471
2.70366, -1, -20.0487, 1.92506, 23.8724, 13.313, 81.8089, -129.71
2.71164, -1, -20.2239, 1.83484, 23.9079, 13.3153, 81.7146, -129.948
2.71972, -1, -20.3987, 1.74474, 23.9433, 13.3174, 81.6206, -130.187
2.72766, -1, -20.5733, 1.65469, 23.9789, 13.3197, 81.5269, -130.425
2.73554, -1, -20.7478, 1.56469, 24.0144, 13.3218, 81.4328, -130.663
2.74377, -1, -20.9225, 1.4748, 24.0497, 13.3241, 81.3391, -130.901
2.75157, -1, -21.0975, 1.38513, 24.0853, 13.3262, 81.2455, -131.139
2.75959, -1, -21.2729, 1.29535, 24.1208, 13.3284, 81.1516, -131.377
2.76801, -1, -21.4486, 1.20565, 24.1561, 13.3306, 81.0577, -131.615
2.7757, -1, -21.6246, 1.11603, 24.1915, 13.3328, 80.9639, -131.852
2.78454, -1, -21.8007, 1.02637, 24.227, 13.3349, 80.8701, -132.09
2.79187, -1, -21.9771, 0.936747, 24.2623, 13.3371, 80.7763, -132.327
2.7999, -1, -22.1538, 0.847171, 24.2977, 13.3392, 80.6827, -132.564
2.80879, -1, -22.3303, 0.757618, 24.3331, 13.3414, 80.589, -132.801
2.81617, -1, -22.5063, 0.668141, 24.3683, 13.3438, 80.4955, -133.038
2.82411, -1, -22.6819, 0.578626, 24.4035, 13.3461, 80.4019, -133.275
2.8329, -1, -22.8569, 0.489226, 24.4388, 13.3485, 80.3082, -133.512
2.84014, -1, -23.0308, 0.399811, 24.474, 13.3509, 80.2147, -133.749
2.84815, -1, -23.2045, 0.310439, 24.5091, 13.3534, 80.1212, -133.986
2.85702, -1, -23.2912, 0.265752, 24.5267, 13.3545, 80.0277, -134.222
2.86428, -1, -23.4643, 0.17646, 24.562, 13.357, 79.9809, -134.341
2.87158, -1, -23.6376, 0.0873107, 24.5972, 13.3594, 79.8877, -134.577
2.87953, -1, -23.811, -0.00177931, 24.6324, 13.3617, 79.7946, -134.813
2.88755, -1, -23.9843, -0.0907273, 24.6675, 13.3642, 79.7014, -135.049
2.89558, -1, -24.1579, -0.179658, 24.7026, 13.3667, 79.6083, -135.285
2.90354, -1, -24.3319, -0.268617, 24.7377, 13.3691, 79.5153, -135.52
2.9116, -1, -24.5062, -0.357511, 24.7729, 13.3716, 79.4222, -135.756
2.91956, -1, -24.6807, -0.446362, 24.8079, 13.3739, 79.3291, -135.991
2.92752, -1, -24.8557, -0.535267, 24.8429, 13.3763, 79.2361, -136.227
2.93568, -1, -25.0308, -0.624147, 24.8781, 13.3787, 79.1432, -136.462
2.94352, -1, -25.2057, -0.712961, 24.9131, 13.3811, 79.0502, -136.697
2.95155, -1, -25.3802, -0.801704, 24.9481, 13.3835, 78.9575, -136.932
2.95962, -1, -25.5544, -0.890526, 24.9832, 13.386, 78.8649, -137.167
2.96754, -1, -25.7279, -0.979225, 25.018, 13.3884, 78.7721, -137.402
2.97553, -1, -25.9008, -1.06789, 25.0529, 13.3908, 78.6795, -137.637
2.98507, -1, -26.0733, -1.1566, 25.088, 13.3933, 78.5872, -137.989
2.99152, -1, -26.2453, -1.24522, 25.1228, 13.3956, 78.4945, -138.106
3.00052, -1, -26.4171, -1.3337, 25.1577, 13.398, 78.4019, -138.341
3.0076, -1, -26.589, -1.42211, 25.1926, 13.4003, 78.3096, -138.575
3.01554, -1, -26.761, -1.51041, 25.2276, 13.4025, 78.2171, -138.809
3.0236, -1, -26.9332, -1.5986, 25.2624, 13.4048, 78.1247, -139.043
3.03162, -1, -27.1057, -1.68674, 25.2973, 13.4071, 78.0326, -139.277
3.03954, -1, -27.2782, -1.77497, 25.3322, 13.4092, 77.9403, -139.511
3.04753, -1, -27.451, -1.86307, 25.3669, 13.4115, 77.8483, -139.745
3.05555, -1, -27.6243, -1.9512, 25.4017, 13.4135, 77.7564, -139.978
3.06352, -1, -27.7975, -2.03945, 25.4366, 13.4156, 77.6643, -140.211
3.07159, -1, -27.9709, -2.12747, 25.4713, 13.4177, 77.5722, -140.445
3.07957, -1, -28.1442, -2.21552, 25.506, 13.4197, 77.4803, -140.678
3.08753, -1, -28.3173, -2.30355, 25.5409, 13.4217, 77.3883, -140.911
3.0956, -1, -28.4901, -2.39162, 25.5756, 13.4238, 77.2961, -141.144
3.10353, -1, -28.6624, -2.47958, 25.6102, 13.426, 77.204, -141.377
3.11152, -1, -28.8341, -2.56756, 25.6449, 13.4281, 77.1121, -141.61
3.11963, -1, -29.0051, -2.65553, 25.6795, 13.4303, 77.0201, -141.843
3.12754, -1, -29.1758, -2.74337, 25.714, 13.4324, 76.9282, -142.075
3.13553, -1, -29.3464, -2.83119, 25.7486, 13.4345, 76.8366, -142.308
3.14359, -1, -29.5171, -2.91888, 25.7833, 13.4366, 76.7446, -142.54
3.15158, -1, -29.688, -3.00645, 25.8178, 13.4385, 76.6527, -142.773
3.15953, -1, -29.859, -3.09397, 25.8523, 13.4406, 76.5611, -143.005
3.16759, -1, -30.0299, -3.18143, 25.8869, 13.4427, 76.4691, -143.237
3.17642, -1, -30.2009, -3.26895, 25.9214, 13.4448, 76.3774, -143.469
3.18357, -1, -30.3721, -3.35639, 25.9559, 13.4469, 76.2859, -143.701
3.19169, -1, -30.5436, -3.44385, 25.9905, 13.4489, 76.1942, -143.933
3.20112, -1, -30.7154, -3.5314, 26.0249, 13.4509, 76.1029, -144.165
3.20763, -1, -30.8872, -3.61874, 26.0594, 13.453, 76.0116, -144.396
3.21569, -1, -31.059, -3.70613, 26.094, 13.455, 75.9202, -144.627
3.22405, -1, -31.2307, -3.79344, 26.1284, 13.4571, 75.8288, -144.858
3.23163, -1, -31.4021, -3.88076, 26.1627, 13.4592, 75.7375, -145.09
3.23974, -1, -31.5729, -3.96807, 26.1972, 13.4612, 75.6462, -145.321
3.24906, -1, -31.7433, -4.05531, 26.2316, 13.4634, 75.5549, -145.552
3.25556, -1, -31.9133, -4.14257, 26.2659, 13.4656, 75.4638, -145.783
3.26367, -1, -32.083, -4.22977, 26.3003, 13.4678, 75.3729, -146.014
3.27325, -1, -32.2524, -4.3169, 26.3347, 13.4701, 75.2817, -146.245
3.27974, -1, -32.4218, -4.40394, 26.3689, 13.4722, 75.1907, -146.475
3.28787, -1, -32.5915, -4.4909, 26.4033, 13.4743, 75.1001, -146.705
3.29743, -1, -32.7612, -4.57783, 26.4377, 13.4764, 75.009, -146.936
3.3039, -1, -32.9308, -4.66477, 26.4719, 13.4786, 74.9183, -147.166
3.31206, -1, -33.1005, -4.7517, 26.5061, 13.4808, 74.8279, -147.397
3.3217, -1, -33.2704, -4.83856, 26.5405, 13.483, 74.737, -147.627
3.32811, -1, -33.4405, -4.92545, 26.5747, 13.4852, 74.6464, -147.856
3.33606, -1, -33.6107, -5.01237, 26.6089, 13.4874, 74.5559, -148.086
3.34488, -1, -33.7811, -5.09914, 26.6432, 13.4896, 74.4653, -148.316
3.35271, -1, -33.9514, -5.18591, 26.6773, 13.4919, 74.3748, -148.546
3.36008, -1, -34.0365, -5.22928, 26.6944, 13.493, 74.2844, -148.775
3.36897, -1, -34.2066, -5.316, 26.7285, 13.4953, 74.1939, -149.005
3.37551, -1, -34.3767, -5.40263, 26.7628, 13.4975, 74.1484, -149.119
3.38351, -1, -34.5464, -5.48924, 26.797, 13.4999, 74.0578, -149.349
3.39158, -1, -34.7156, -5.57592, 26.831, 13.5023, 73.9674, -149.578
3.39951, -1, -34.8843, -5.66252, 26.8652, 13.5047, 73.8768, -149.807
3.4075, -1, -35.0528, -5.74907, 26.8993, 13.5071, 73.7864, -150.036
3.41559, -1, -35.221, -5.83556, 26.9334, 13.5095, 73.696, -150.265
3.42351, -1, -35.3894, -5.92188, 26.9675, 13.512, 73.6057, -150.494
3.43157, -1, -35.558, -6.00809, 27.0016, 13.5143, 73.5153, -150.723
3.43951, -1, -35.7264, -6.09432, 27.0356, 13.5166, 73.425, -150.951
3.44759, -1, -35.895, -6.18046, 27.0696, 13.519, 73.3348, -151.18
3.45552, -1, -36.0635, -6.26657, 27.1037, 13.5214, 73.2443, -151.409
3.46352, -1, -36.2321, -6.35265, 27.1377, 13.5239, 73.1538, -151.637
3.47159, -1, -36.4008, -6.43884, 27.1716, 13.5263, 73.0637, -151.866
3.47951, -1, -36.5696, -6.52503, 27.2056, 13.5286, 72.9731, -152.094
3.48752, -1, -36.7385, -6.61119, 27.2395, 13.531, 72.8829, -152.322
3.4965, -1, -36.9074, -6.69733, 27.2734, 13.5332, 72.7929, -152.55
3.50357, -1, -37.0764, -6.78346, 27.3074, 13.5354, 72.7027, -152.778
3.51151, -1, -37.2451, -6.86955, 27.3413, 13.5377, 72.6129, -153.006
3.51953, -1, -37.4136, -6.95553, 27.3751, 13.54, 72.523, -153.234
3.52856, -1, -37.5816, -7.04161, 27.409, 13.5423, 72.4331, -153.461
3.53553, -1, -37.7494, -7.12763, 27.443, 13.5445, 72.3432, -153.689
3.54351, -1, -37.917, -7.2136, 27.4768, 13.5467, 72.2534, -153.916
3.55157, -1, -38.0845, -7.29952, 27.5107, 13.5489, 72.1638, -154.144
3.55951, -1, -38.252, -7.38541, 27.5446, 13.5511, 72.0739, -154.371
3.56752, -1, -38.4194, -7.47116, 27.5784, 13.5533, 71.9842, -154.598
3.57558, -1, -38.5866, -7.55682, 27.6123, 13.5554, 71.8949, -154.826
3.58354, -1, -38.754, -7.64254, 27.6462, 13.5574, 71.805, -155.053
3.59151, -1, -38.9213, -7.7282, 27.6799, 13.5595, 71.7156, -155.28
3.59959, -1, -39.0887, -7.81381, 27.7136, 13.5616, 71.6265, -155.507
3.60753, -1, -39.2561, -7.89949, 27.7475, 13.5636, 71.537, -155.733
3.6155, -1, -39.4236, -7.98519, 27.7813, 13.5656, 71.4476, -155.96
3.62361, -1, -39.5912, -8.07077, 27.8149, 13.5675, 71.3584, -156.187
3.6315, -1, -39.7589, -8.1563, 27.8486, 13.5695, 71.269, -156.413
3.6395, -1, -39.9264, -8.24177, 27.8824, 13.5714, 71.1797, -156.64
3.6476, -1, -40.094, -8.32724, 27.916, 13.5733, 71.0902, -156.866
3.65549, -1, -40.2615, -8.41262, 27.9497, 13.5753, 71.0011, -157.092
3.66351, -1, -40.4286, -8.49799, 27.9835, 13.5773, 70.9117, -157.319
3.67162, -1, -40.5956, -8.58338, 28.0171, 13.5793, 70.8225, -157.545
3.67951, -1, -40.7625, -8.66878, 28.0506, 13.5812, 70.7336, -157.77
3.68765, -1, -40.9291, -8.75413, 28.0844, 13.5833, 70.6443, -157.996
3.69581, -1, -41.0955, -8.83949, 28.1181, 13.5853, 70.5552, -158.222
3.70365, -1, -41.2619, -8.92476, 28.1516, 13.5873, 70.4661, -158.448
3.7116, -1, -41.4281, -9.00992, 28.1852, 13.5893, 70.3769, -158.674
3.71999, -1, -41.5943, -9.09509, 28.2188, 13.5913, 70.2877, -158.899
3.72762, -1, -41.7605, -9.18018, 28.2524, 13.5933, 70.1987, -159.125
3.73561, -1, -41.927, -9.26524, 28.286, 13.5953, 70.1096, -159.35
3.7443, -1, -42.0934, -9.35028, 28.3196, 13.5974, 70.0206, -159.576
3.75157, -1, -42.2597, -9.43537, 28.3532, 13.5994, 69.9315, -159.801
3.75955, -1, -42.4259, -9.52038, 28.3867, 13.6014, 69.8428, -160.026
3.76849, -1, -42.5923, -9.60536, 28.4202, 13.6034, 69.7537, -160.251
3.77565, -1, -42.7586, -9.69032, 28.4538, 13.6055, 69.6648, -160.477
3.78382, -1, -42.9251, -9.77529, 28.4872, 13.6076, 69.5762, -160.702
3.79181, -1, -43.0914, -9.8602, 28.5207, 13.6096, 69.4873, -160.927
3.80064, -1, -43.2576, -9.94517, 28.5542, 13.6117, 69.3986, -161.151
3.80792, -1, -43.4237, -10.0301, 28.5877, 13.6137, 69.3101, -161.376
3.81599, -1, -43.5897, -10.1151, 28.6212, 13.6158, 69.2214, -161.601
3.82481, -1, -43.7556, -10.2, 28.6547, 13.6179, 69.1328, -161.826
3.8324, -1, -43.9215, -10.2848, 28.6881, 13.6201, 69.0444, -162.05
3.84008, -1, -44.0872, -10.3696, 28.7215, 13.6222, 68.9559, -162.275
3.84872, -1, -44.2525, -10.4543, 28.7551, 13.6244, 68.8672, -162.499
3.8561, -1, -44.3351, -10.5388, 28.7885, 13.6266, 68.7786, -162.723
3.86413, -1, -44.5002, -10.5811, 28.8052, 13.6287, 68.6901, -162.948
3.87152, -1, -44.6654, -10.6656, 28.8386, 13.6298, 68.6457, -163.06
3.8795, -1, -44.8307, -10.7501, 28.8721, 13.632, 68.5571, -163.284
3.88755, -1, -44.996, -10.8345, 28.9055, 13.6342, 68.4687, -163.508
3.8955, -1, -45.1613, -10.9191, 28.9389, 13.6364, 68.3804, -163.732
3.90351, -1, -45.3267, -11.0036, 28.9723, 13.6386, 68.2919, -163.956
3.91155, -1, -45.4919, -11.088, 29.0056, 13.6409, 68.2036, -164.18
3.91953, -1, -45.6571, -11.1724, 29.0388, 13.6432, 68.1156, -164.404
3.92753, -1, -45.8223, -11.2569, 29.0721, 13.6455, 68.027, -164.627
3.93554, -1, -45.9866, -11.3408, 29.1055, 13.6478, 67.9386, -164.851
3.94349, -1, -46.148, -11.423, 29.139, 13.6501, 67.8506, -165.074
3.95151, -1, -46.305, -11.5024, 29.1726, 13.6525, 67.7632, -165.295
3.95957, -1, -46.4553, -11.5774, 29.2061, 13.6548, 67.678, -165.51
3.96749, -1, -46.5965, -11.6473, 29.2384, 13.6572, 67.5965, -165.716
3.97551, -1, -46.7261, -11.7107, 29.2682, 13.6593, 67.5219, -165.906
3.98354, -1, -46.8411, -11.7667, 29.2946, 13.6614, 67.4549, -166.074
3.99148, -1, -46.9398, -11.8159, 29.3168, 13.663, 67.3991, -166.217
4.00144, -1, -47.0578, -11.8781, 29.3396, 13.6647, 67.3362, -166.375
4.00756, -1, -47.0896, -11.8956, 29.3446, 13.6651, 67.3208, -166.414
4.01656, -1, -47.1419, -11.9251, 29.3519, 13.6655, 67.2974, -166.473
4.02352, -1, -47.1808, -11.9472, 29.3558, 13.6657, 67.2824, -166.511
4.03253, -1, -47.2084, -11.9627, 29.3576, 13.6659, 67.2736, -166.533
4.03951, -1, -47.2266, -11.9727, 29.3584, 13.6659, 67.2689, -166.545
4.04752, -1, -47.2374, -11.9787, 29.3588, 13.6659, 67.2666, -166.551
4.0555, 2, -47.243, -11.9816, 29.359, 13.666, 67.2654, -166.554
4.06349, 2, -47.245, -11.9829, 29.3592, 13.666, 67.2649, -166.555
4.0715, 2, -47.2451, -11.9834, 29.3593, 13.666, 67.2647, -166.555
4.07954, 2, -47.2449, -11.9836, 29.3593, 13.666, 67.2646, -166.556
4.08754, 2, -47.2449, -11.9837, 29.3594, 13.6661, 67.2645, -166.556
4.0955, 2, -47.2453, -11.9838, 29.3594, 13.6661, 67.2645, -166.556
4.10355, 2, -47.2462, -11.984, 29.3594, 13.6661, 67.2645, -166.556
4.11148, 2, -47.2475, -11.9845, 29.3595, 13.6661, 67.2644, -166.556
4.1195, 2, -47.2493, -11.9853, 29.3595, 13.6661, 67.2644, -166.556
4.12758, 2, -47.2509, -11.9862, 29.3595, 13.6661, 67.2645, -166.556
4.13549, 2, -47.2522, -11.987, 29.3594, 13.6661, 67.2645, -166.556
4.14352, 2, -47.2531, -11.9877, 29.3594, 13.6661, 67.2645, -166.556
4.15155, 2, -47.2536, -11.9881, 29.3594, 13.6661, 67.2645, -166.556
4.15949, 2, -47.2538, -11.9883, 29.3594, 13.6661, 67.2645, -166.556
4.16754, 2, -47.2538, -11.9884, 29.3594, 13.6661, 67.2645, -166.556
4.17556, 2, -47.2535, -11.9884, 29.3595, 13.6661, 67.2645, -166.556
4.1835, 2, -47.2531, -11.9883, 29.3595, 13.6661, 67.2644, -166.556
4.19157, 2, -47.2526, -11.9883, 29.3595, 13.6661, 67.2644, -166.556
4.19965, 2, -47.2523, -11.9883, 29.3595, 13.6661, 67.2645, -166.556
4.20762, 2, -47.2521, -11.9883, 29.3595, 13.6661, 67.2645, -166.556
4.21562, 2, -47.2521, -11.9884, 29.3595, 13.6661, 67.2645, -166.556
4.22365, 2, -47.2522, -11.9885, 29.3595, 13.6661, 67.2645, -166.556
4.23159, 2, -47.2524, -11.9889, 29.3595, 13.6661, 67.2645, -166.556
4.23957, 2, -47.2529, -11.9892, 29.3595, 13.6661, 67.2645, -166.556
4.24767, 2, -47.2534, -11.9895, 29.3595, 13.6661, 67.2645, -166.556
4.25557, 2, -47.2538, -11.9897, 29.3595, 13.666, 67.2645, -166.556
4.2636, 2, -47.2539, -11.9898, 29.3595, 13.666, 67.2645, -166.556
4.27165, 2, -47.2539, -11.9898, 29.3595, 13.666, 67.2645, -166.556
4.27962, 2, -47.2539, -11.9898, 29.3595, 13.6661, 67.2645, -166.556
4.28782, 2, -47.2537, -11.9897, 29.3595, 13.6661, 67.2645, -166.556
4.29581, 2, -47.2532, -11.9897, 29.3595, 13.6661, 67.2645, -166.556
4.30381, 2, -47.2529, -11.9896, 29.3595, 13.6661, 67.2645, -166.556
4.31201, 2, -47.2526, -11.9896, 29.3595, 13.6661, 67.2645, -166.556
4.31999, 2, -47.2524, -11.9896, 29.3595, 13.666, 67.2645, -166.556
4.32803, 2, -47.2524, -11.9897, 29.3595, 13.666, 67.2645, -166.556
4.33612, 2, -47.2523, -11.9897, 29.3595, 13.666, 67.2645, -166.556
4.34406, 2, -47.2523, -11.9898, 29.3595, 13.6661, 67.2645, -166.556
4.35208, 2, -47.2522, -11.9898, 29.3595, 13.666, 67.2646, -166.556
4.36022, 2, -47.2522, -11.9899, 29.3595, 13.6661, 67.2645, -166.556
4.36807, 2, -47.2523, -11.9899, 29.3595, 13.6661, 67.2646, -166.556
4.3755, 2, -47.2523, -11.9899, 29.3595, 13.6661, 67.2646, -166.556
4.38348, 2, -47.2523, -11.9899, 29.3595, 13.666, 67.2645, -166.556
4.39152, 2, -47.2523, -11.9898, 29.3595, 13.666, 67.2645, -166.556
4.39947, 2, -47.2522, -11.9897, 29.3595, 13.666, 67.2646, -166.556
4.40752, 2, -47.2521, -11.9897, 29.3595, 13.666, 67.2645, -166.556
4.41553, 2, -47.252, -11.9896, 29.3595, 13.666, 67.2645, -166.556
4.4235, 2, -47.2518, -11.9896, 29.3595, 13.666, 67.2646, -166.556
4.43148, 2, -47.2518, -11.9896, 29.3595, 13.666, 67.2646, -166.556
4.43951, 2, -47.2517, -11.9896, 29.3595, 13.666, 67.2646, -166.556
4.44748, 2, -47.2516, -11.9896, 29.3595, 13.666, 67.2646, -166.556
4.45549, 2, -47.2516, -11.9897, 29.3595, 13.666, 67.2646, -166.556
4.46355, 2, -47.2515, -11.9897, 29.3595, 13.666, 67.2646, -166.556
4.47147, 2, -47.2515, -11.9897, 29.3595, 13.666, 67.2646, -166.556
4.47948, 2, -47.2514, -11.9897, 29.3595, 13.666, 67.2645, -166.556
4.48755, 2, -47.2513, -11.9897, 29.3595, 13.666, 67.2645, -166.556
4.49701, 2, -47.2513, -11.9896, 29.3595, 13.666, 67.2646, -166.556
4.5035, 2, -47.2511, -11.9895, 29.3595, 13.666, 67.2646, -166.555
4.51249, 2, -47.251, -11.9895, 29.3595, 13.666, 67.2646, -166.556
4.51945, 2, -47.2509, -11.9894, 29.3595, 13.666, 67.2646, -166.555
4.52753, 2, -47.2508, -11.9894, 29.3595, 13.666, 67.2646, -166.555
4.53555, 2, -47.2508, -11.9894, 29.3595, 13.666, 67.2646, -166.555
4.54349, 2, -47.2506, -11.9894, 29.3595, 13.666, 67.2646, -166.555
4.55149, 2, -47.2505, -11.9894, 29.3595, 13.666, 67.2646, -166.555
4.55953, 2, -47.2504, -11.9894, 29.3595, 13.666, 67.2646, -166.555
4.56749, 2, -47.2503, -11.9894, 29.3595, 13.666, 67.2646, -166.555
4.57551, 2, -47.2502, -11.9894, 29.3595, 13.666, 67.2647, -166.555
4.58353, 2, -47.2501, -11.9894, 29.3595, 13.666, 67.2646, -166.555
4.59149, 2, -47.25, -11.9893, 29.3595, 13.666, 67.2646, -166.555
4.59948, 2, -47.2499, -11.9893, 29.3595, 13.6659, 67.2646, -166.555
4.60754, 2, -47.2498, -11.9892, 29.3595, 13.6659, 67.2646, -166.555
4.61547, 2, -47.2497, -11.9891, 29.3595, 13.6659, 67.2646, -166.555
4.62348, 2, -47.2496, -11.9891, 29.3595, 13.6659, 67.2646, -166.555
4.63155, 2, -47.2495, -11.989, 29.3595, 13.666, 67.2647, -166.555
4.63953, 2, -47.2494, -11.989, 29.3595, 13.6659, 67.2647, -166.555
4.6475, 2, -47.2494, -11.989, 29.3595, 13.6659, 67.2647, -166.555
4.65554, 2, -47.2493, -11.989, 29.3595, 13.6659, 67.2647, -166.555
4.66347, 2, -47.2492, -11.989, 29.3595, 13.6659, 67.2647, -166.555
4.67149, 2, -47.2492, -11.989, 29.3595, 13.6659, 67.2647, -166.555
4.67953, 2, -47.2491, -11.989, 29.3595, 13.6659, 67.2647, -166.555
4.6875, 2, -47.2491, -11.989, 29.3595, 13.6659, 67.2647, -166.555
4.69557, 2, -47.2491, -11.989, 29.3595, 13.6659, 67.2647, -166.555
4.70364, 2, -47.249, -11.9889, 29.3595, 13.6658, 67.2647, -166.555
4.71159, 2, -47.2489, -11.9888, 29.3595, 13.6659, 67.2647, -166.555
4.71959, 2, -47.2489, -11.9887, 29.3595, 13.6659, 67.2648, -166.555
4.72765, 2, -47.2488, -11.9887, 29.3595, 13.6659, 67.2648, -166.555
4.73558, 2, -47.2487, -11.9886, 29.3595, 13.6658, 67.2648, -166.555
4.74355, 2, -47.2486, -11.9886, 29.3595, 13.6658, 67.2648, -166.555
4.75155, 2, -47.2486, -11.9886, 29.3595, 13.6658, 67.2648, -166.555
4.75955, 2, -47.2485, -11.9886, 29.3595, 13.6658, 67.2648, -166.555
4.76755, 2, -47.2485, -11.9886, 29.3595, 13.6658, 67.2648, -166.555
4.77568, 2, -47.2485, -11.9886, 29.3595, 13.6658, 67.2647, -166.555
4.78362, 2, -47.2485, -11.9886, 29.3595, 13.6658, 67.2647, -166.555
4.792, 2, -47.2484, -11.9886, 29.3595, 13.6658, 67.2648, -166.555
4.80001, 2, -47.2484, -11.9885, 29.3595, 13.6657, 67.2648, -166.555
4.80854, 2, -47.2484, -11.9885, 29.3595, 13.6657, 67.2648, -166.554
4.81625, 2, -47.2483, -11.9884, 29.3595, 13.6657, 67.2648, -166.554
4.82398, 2, -47.2482, -11.9883, 29.3595, 13.6657, 67.2648, -166.554
4.83261, 2, -47.2481, -11.9883, 29.3595, 13.6656, 67.2648, -166.554
4.84024, 2, -47.248, -11.9882, 29.3595, 13.6656, 67.2648, -166.554
4.84822, 2, -47.2479, -11.9882, 29.3595, 13.6656, 67.2648, -166.554
4.85607, 2, -47.2479, -11.9882, 29.3595, 13.6657, 67.2648, -166.554
4.86431, 2, -47.2478, -11.9882, 29.3595, 13.6656, 67.2648, -166.554
4.87205, 2, -47.2478, -11.9882, 29.3595, 13.6656, 67.2648, -166.554
4.87948, 2, -47.2478, -11.9882, 29.3595, 13.6656, 67.2648, -166.554
4.88832, 2, -47.2478, -11.9882, 29.3595, 13.6656, 67.2648, -166.554
4.8955, 2, -47.2478, -11.9882, 29.3595, 13.6656, 67.2648, -166.554
4.90346, 2, -47.2478, -11.9881, 29.3595, 13.6656, 67.2648, -166.554
4.91146, 2, -47.2477, -11.9881, 29.3595, 13.6656, 67.2648, -166.554
4.91949, 2, -47.2477, -11.988, 29.3595, 13.6656, 67.2649, -166.554
4.9275, 2, -47.2476, -11.988, 29.3595, 13.6655, 67.2649, -166.554
4.93547, 2, -47.2475, -11.9879, 29.3595, 13.6655, 67.2649, -166.554
4.9435, 2, -47.2474, -11.9878, 29.3595, 13.6655, 67.2649, -166.554
4.95146, 2, -47.2473, -11.9878, 29.3595, 13.6655, 67.2649, -166.554
4.95947, 2, -47.2472, -11.9878, 29.3595, 13.6655, 67.2649, -166.554
4.96754, 2, -47.2472, -11.9878, 29.3595, 13.6655, 67.2649, -166.554
4.97557, 2, -47.2471, -11.9878, 29.3595, 13.6654, 67.265, -166.554
4.98347, 2, -47.2471, -11.9877, 29.3595, 13.6654, 67.265, -166.554
4.9915, 2, -47.2471, -11.9877, 29.3595, 13.6654, 67.265, -166.554
5.00099, 2, -47.2471, -11.9877, 29.3595, 13.6655, 67.265, -166.554
5.00748, 2, -47.247, -11.9877, 29.3595, 13.6655, 67.265, -166.554
5.0155, 2, -47.247, -11.9877, 29.3595, 13.6654, 67.265, -166.554
5.02345, 2, -47.2469, -11.9876, 29.3595, 13.6654, 67.2651, -166.554
5.03148, 2, -47.2469, -11.9876, 29.3595, 13.6654, 67.265, -166.554
5.03953, 2, -47.2468, -11.9875, 29.3595, 13.6654, 67.265, -166.554
5.04749, 2, -47.2467, -11.9875, 29.3595, 13.6654, 67.265, -166.554
5.05565, 2, -47.2466, -11.9874, 29.3595, 13.6654, 67.265, -166.554
5.06445, 2, -47.2465, -11.9874, 29.3595, 13.6654, 67.2651, -166.554
5.07252, 2, -47.2465, -11.9874, 29.3595, 13.6654, 67.2651, -166.554
5.07945, 2, -47.2464, -11.9874, 29.3595, 13.6653, 67.2651, -166.554
5.08753, 2, -47.2464, -11.9874, 29.3595, 13.6653, 67.2651, -166.554
5.09551, 2, -47.2464, -11.9874, 29.3595, 13.6653, 67.2651, -166.554
5.10346, 2, -47.2464, -11.9873, 29.3595, 13.6653, 67.265, -166.554
5.11149, 2, -47.2464, -11.9873, 29.3595, 13.6653, 67.2651, -166.554
5.11947, 2, -47.2464, -11.9873, 29.3595, 13.6653, 67.2651, -166.554
5.12747, 2, -47.2463, -11.9872, 29.3595, 13.6653, 67.2651, -166.554
5.13554, 2, -47.2462, -11.9872, 29.3595, 13.6652, 67.2651, -166.554
5.14347, 4, -47.2462, -11.9871, 29.3595, 13.6652, 67.2651, -166.554
5.15145, 4, -47.2461, -11.9871, 29.3595, 13.6652, 67.2652, -166.554
5.15951, 4, -47.2461, -11.9871, 29.3595, 13.6652, 67.2652, -166.554
5.16748, 4, -47.246, -11.9871, 29.3595, 13.6652, 67.2651, -166.554
5.17546, 4, -47.2459, -11.987, 29.3595, 13.6651, 67.2651, -166.554
5.18351, 4, -47.2459, -11.987, 29.3595, 13.6651, 67.2652, -166.554
5.1915, 4, -47.2458, -11.987, 29.3595, 13.6651, 67.2652, -166.554
5.19954, 4, -47.2458, -11.987, 29.3595, 13.6651, 67.2652, -166.554
5.20764, 4, -47.2458, -11.987, 29.3595, 13.6651, 67.2652, -166.554
5.2156, 4, -47.2457, -11.987, 29.3595, 13.6651, 67.2652, -166.554
5.22356, 4, -47.2458, -11.9869, 29.3595, 13.6651, 67.2652, -166.553
5.23161, 4, -47.2458, -11.9869, 29.3595, 13.6651, 67.2653, -166.553
5.23974, 4, -47.2457, -11.9868, 29.3595, 13.665, 67.2652, -166.553
5.25539, 4, -47.2456, -11.9868, 29.3595, 13.665, 67.2652, -166.553
5.25743, 4, -47.2455, -11.9868, 29.3595, 13.665, 67.2652, -166.553
5.26564, 4, -47.2454, -11.9867, 29.3595, 13.665, 67.2652, -166.553
5.30678, 4, -47.2453, -11.9867, 29.3595, 13.665, 67.2653, -166.553
5.30939, 4, -47.2452, -11.9867, 29.3595, 13.665, 67.2653, -166.553
5.3118, 4, -47.2452, -11.9866, 29.3595, 13.665, 67.2653, -166.553
5.31586, 4, -47.2452, -11.9866, 29.3595, 13.665, 67.2653, -166.553
5.3189, 4, -47.2452, -11.9866, 29.3595, 13.665, 67.2653, -166.553
5.32503, 4, -47.2452, -11.9866, 29.3595, 13.665, 67.2653, -166.553
5.32691, 4, -47.2452, -11.9866, 29.3595, 13.665, 67.2653, -166.553
5.33572, 4, -47.2452, -11.9866, 29.3595, 13.665, 67.2653, -166.553
5.33779, 4, -47.2452, -11.9866, 29.3595, 13.665, 67.2653, -166.553
5.34566, 4, -47.2451, -11.9865, 29.3594, 13.6649, 67.2653, -166.553
5.35247, 4, -47.245, -11.9865, 29.3595, 13.6649, 67.2653, -166.553
5.3602, 4, -47.245, -11.9865, 29.3594, 13.6649, 67.2654, -166.553
5.37368, 4, -47.245, -11.9864, 29.3594, 13.6649, 67.2653, -166.553
5.37641, 4, -47.2449, -11.9864, 29.3594, 13.6649, 67.2654, -166.553
5.38692, 4, -47.2449, -11.9864, 29.3595, 13.6649, 67.2653, -166.553
5.39433, 4, -47.2448, -11.9864, 29.3595, 13.6649, 67.2653, -166.553
5.40175, 4, -47.2449, -11.9864, 29.3595, 13.6649, 67.2653, -166.553
5.40838, 4, -47.245, -11.9864, 29.3595, 13.665, 67.2653, -166.553
5.41569, 4, -47.2459, -11.9869, 29.3598, 13.665, 67.2654, -166.553
5.4236, 4, -47.2482, -11.9887, 29.3617, 13.6667, 67.266, -166.553
5.43319, 4, -47.2555, -11.997, 29.3724, 13.6864, 67.2708, -166.55
5.44257, 5, -47.2646, -12.0088, 29.3903, 13.7218, 67.2804, -166.542
5.44802, 5, -47.271, -12.0174, 29.4044, 13.7501, 67.2882, -166.536
5.45848, 5, -47.3012, -12.0579, 29.477, 13.9002, 67.3304, -166.502
5.46362, 5, -47.3158, -12.0771, 29.5139, 13.9776, 67.3522, -166.484
5.47381, 5, -47.3531, -12.155, 29.6729, 14.3167, 67.4458, -166.406
5.47962, 5, -47.4026, -12.1882, 29.7436, 14.4696, 67.488, -166.371
5.48758, 5, -47.465, -12.266, 29.9132, 14.8385, 67.5877, -166.286
5.4957, 5, -47.5398, -12.359, 30.1217, 15.2906, 67.7094, -166.182
5.5041, 5, -47.6267, -12.4665, 30.367, 15.8182, 67.8493, -166.063
5.51159, 5, -47.7243, -12.5872, 30.6445, 16.4078, 68.0043, -165.929
5.51962, 5, -47.8309, -12.7195, 30.9497, 17.0451, 68.1689, -165.787
5.52992, 5, -48.0033, -12.9346, 31.4449, 18.0574, 68.425, -165.565
5.53566, 5, -48.063, -13.0096, 31.6169, 18.4026, 68.5107, -165.491
5.54587, 5, -48.244, -13.2388, 32.1434, 19.4451, 68.765, -165.268
5.55167, 5, -48.3037, -13.3153, 32.3207, 19.7903, 68.848, -165.195
5.55964, 5, -48.4198, -13.4661, 32.6751, 20.4692, 69.0109, -165.045
5.56869, 6, -48.5277, -13.6119, 33.0247, 21.1254, 69.1708, -164.886
5.57581, 6, -48.6231, -13.7489, 33.3634, 21.7458, 69.3292, -164.704
5.58358, 6, -48.7018, -13.8752, 33.6863, 22.3221, 69.4884, -164.486
5.59161, 7, -48.7605, -13.9917, 33.9898, 22.8497, 69.6513, -164.218
5.60283, 7, -48.7979, -14.0991, 34.2731, 23.5502, 69.9085, -163.697
5.6076, 8, -48.8149, -14.197, 34.5356, 23.7633, 69.9995, -163.488
5.61574, 8, -48.813, -14.2843, 34.7807, 24.1665, 70.1911, -163.017
5.62359, 9, -48.7938, -14.363, 35.0126, 24.5476, 70.3966, -162.48
5.6323, 9, -48.7599, -14.4364, 35.2351, 24.9181, 70.6164, -161.89
5.6425, 10, -48.7136, -14.5396, 35.5624, 25.47, 70.9679, -160.934
5.6486, 10, -48.6573, -14.5723, 35.6713, 25.6551, 71.0895, -160.604
5.65559, 11, -48.5927, -14.6357, 35.8898, 26.0279, 71.3364, -159.934
5.66458, 11, -48.5222, -14.6978, 36.1103, 26.4037, 71.5846, -159.261
5.67361, 12, -48.4468, -14.7602, 36.332, 26.7831, 71.8321, -158.592
5.67976, 12, -48.3682, -14.8233, 36.5517, 27.1663, 72.078, -157.925
5.68959, 13, -48.2874, -14.8865, 36.7691, 27.5535, 72.3229, -157.262
5.6957, 13, -48.2049, -14.949, 36.9837, 27.9449, 72.5674, -156.602
5.7046, 14, -48.12, -15.0112, 37.1941, 28.3402, 72.8123, -155.943
5.71267, 14, -48.0318, -15.0738, 37.4014, 28.7389, 73.0578, -155.286
5.72061, 15, -47.9405, -15.1361, 37.6065, 29.1404, 73.3038, -154.63
5.73164, 15, -47.8462, -15.1971, 37.8083, 29.5429, 73.549, -153.978
5.73571, 16, -47.748, -15.2567, 38.0078, 29.9455, 73.793, -153.329
5.74442, 16, -47.6446, -15.3162, 38.2057, 30.3471, 74.0349, -152.683
5.75171, 17, -47.5356, -15.3768, 38.4008, 30.747, 74.274, -152.043
5.76058, 17, -47.4217, -15.4387, 38.5924, 31.1447, 74.5091, -151.407
5.77202, 18, -47.241, -15.5328, 38.8751, 31.7354, 74.8527, -150.463
5.77682, 18, -47.1779, -15.5646, 38.9678, 31.9304, 74.9645, -150.153
5.79248, 19, -46.9123, -15.6964, 39.3314, 32.7033, 75.3968, -148.927
5.79439, 19, -46.9123, -15.6964, 39.3314, 32.7033, 75.3968, -148.927
5.8014, 20, -46.7716, -15.7657, 39.5108, 33.0862, 75.6045, -148.325
5.80875, 20, -46.6256, -15.8374, 39.6884, 33.467, 75.8071, -147.732
5.81637, 21, -46.4746, -15.912, 39.8635, 33.8462, 76.0047, -147.145
5.82492, 21, -46.3192, -15.9897, 40.0371, 34.2237, 76.1975, -146.566
5.83233, 22, -46.159, -16.0701, 40.2096, 34.5989, 76.3848, -145.994
5.84101, 22, -45.9935, -16.1524, 40.3796, 34.9714, 76.5668, -145.429
5.85003, 23, -45.8223, -16.2364, 40.5466, 35.3402, 76.7436, -144.871
5.85725, 23, -45.645, -16.3224, 40.7111, 35.7047, 76.9145, -144.318
5.86461, 24, -45.4613, -16.4101, 40.8727, 36.0648, 77.0803, -143.77
5.87303, 24, -45.2709, -16.4992, 41.0301, 36.4195, 77.2405, -143.228
5.88149, 25, -45.0742, -16.5894, 41.183, 36.768, 77.396, -142.69
5.88896, 25, -44.9734, -16.6349, 41.2579, 36.9399, 77.5466, -142.155
5.89632, 26, -44.767, -16.7264, 41.4045, 37.4454, 77.6927, -141.624
5.9076, 26, -44.4443, -16.8645, 41.6145, 37.7734, 77.8344, -141.095
5.91158, 27, -44.3332, -16.9105, 41.6817, 37.9347, 77.9039, -140.831
5.92169, 27, -43.9894, -17.0478, 41.8745, 38.4066, 78.1057, -140.042
5.92761, 28, -43.8715, -17.0933, 41.9358, 38.5597, 78.1712, -139.779
5.93572, 28, -43.6306, -17.1835, 42.0534, 38.8599, 78.2994, -139.255
5.94364, 29, -43.3831, -17.2724, 42.1643, 39.1517, 78.4239, -138.733
5.95492, 29, -42.9996, -17.403, 42.3177, 39.5734, 78.605, -137.949
5.96149, 30, -42.735, -17.4878, 42.4109, 39.8441, 78.7216, -137.427
5.9677, 30, -42.5995, -17.5295, 42.4549, 39.9762, 78.7789, -137.166
5.97566, 31, -42.3219, -17.6111, 42.5373, 40.2342, 78.8912, -136.645
5.98357, 31, -42.0362, -17.6901, 42.6127, 40.4834, 79.0006, -136.125
5.99312, 32, -41.7429, -17.7667, 42.7127, 40.8415, 79.1601, -135.345
5.99957, 32, -41.4428, -17.841, 42.7427, 40.9567, 79.2117, -135.085
6.0094, 33, -41.1362, -17.9127, 42.7974, 41.1808, 79.3634, -134.309
6.01565, 33, -40.8231, -17.9811, 42.8449, 41.397, 79.4128, -134.05
6.02574, 34, -40.3415, -18.0781, 42.9026, 41.7058, 79.5565, -133.276
6.03258, 34, -40.1786, -18.1092, 42.9181, 41.8047, 79.6031, -133.018
6.03973, 35, -39.849, -18.1693, 42.9438, 41.9964, 79.6946, -132.504
6.0476, 35, -39.5139, -18.226, 42.9625, 42.1808, 79.7833, -131.991
6.05657, 36, -39.1721, -18.2793, 42.974, 42.3576, 79.87, -131.479
6.06676, 36, -38.6456, -18.353, 42.9786, 42.6081, 79.9959, -130.713
6.07158, 37, -38.4667, -18.3759, 42.9768, 42.6878, 80.0368, -130.458
6.08059, 37, -38.1046, -18.4191, 42.968, 42.8416, 80.1169, -129.951
6.08757, 38, -37.7369, -18.4585, 42.9522, 42.988, 80.1954, -129.445
6.09958, 38, -37.1762, -18.5112, 42.9163, 43.1937, 80.3088, -128.688
6.10485, 39, -36.9871, -18.5271, 42.9009, 43.2584, 80.3454, -128.437
6.11157, 39, -36.6055, -18.5562, 42.8652, 43.3826, 80.4169, -127.936
6.11959, 40, -36.2193, -18.5815, 42.8228, 43.4995, 80.4871, -127.437
6.1316, 40, -35.6285, -18.6124, 42.747, 43.6613, 80.5888, -126.691
6.13828, 41, -35.4286, -18.6207, 42.6882, 43.76, 80.6538, -126.197
6.14366, 41, -35.0245, -18.6345, 42.6564, 43.8065, 80.6854, -125.95
6.15266, 42, -34.6158, -18.6448, 42.588, 43.8949, 80.7482, -125.459
6.16373, 42, -33.9966, -18.6541, 42.4734, 44.0137, 80.8374, -124.727
6.16855, 43, -33.7886, -18.6556, 42.4321, 44.0497, 80.8668, -124.484
6.18282, 43, -32.9448, -18.6533, 42.2523, 44.1762, 80.9783, -123.517
6.18481, 44, -32.9448, -18.6533, 42.2523, 44.1762, 80.9783, -123.517
6.19344, 44, -32.514, -18.6465, 42.1537, 44.2282, 81.0324, -123.038
6.2002, 45, -32.0768, -18.6359, 42.0493, 44.2733, 81.0838, -122.561
6.20792, 45, -31.6343, -18.6216, 41.939, 44.3114, 81.1339, -122.086
6.21569, 46, -31.1883, -18.6039, 41.8225, 44.3416, 81.183, -121.613
6.22405, 46, -30.7406, -18.5828, 41.7002, 44.364, 81.2291, -121.143
6.2318, 47, -30.2904, -18.5578, 41.5722, 44.3788, 81.2742, -120.675
6.24139, 47, -29.8355, -18.5285, 41.4381, 44.3864, 81.3188, -120.209
6.24772, 48, -29.3741, -18.4946, 41.2982, 44.3873, 81.3616, -119.746
6.25995, 48, -28.6702, -18.4358, 41.0767, 44.3721, 81.4242, -119.053
6.26372, 49, -28.4329, -18.414, 40.9999, 44.3628, 81.4452, -118.824
6.27338, 49, -27.9564, -18.3671, 40.842, 44.3374, 81.4867, -118.365
6.28056, 50, -27.4776, -18.3157, 40.6778, 44.3019, 81.5272, -117.907
6.28864, 50, -26.9956, -18.2592, 40.5069, 44.2573, 81.5682, -117.45
6.29979, 51, -26.5075, -18.1639, 40.2385, 44.1732, 81.6318, -116.767
6.30471, 51, -26.0115, -18.1294, 40.1458, 44.14, 81.653, -116.54
6.31352, 52, -25.5086, -18.0562, 39.9547, 44.0669, 81.6957, -116.086
6.32087, 52, -25.0016, -17.9777, 39.7562, 43.9828, 81.7399, -115.633
6.33052, 53, -24.4925, -17.8939, 39.5518, 43.8887, 81.7847, -115.18
6.33695, 53, -23.9808, -17.8044, 39.3405, 43.7848, 81.8296, -114.727
6.34435, 54, -23.4632, -17.7086, 39.1213, 43.6703, 81.8767, -114.276
6.35295, 54, -22.9377, -17.6066, 38.8954, 43.5452, 81.9258, -113.824
6.36265, 55, -22.4044, -17.4985, 38.6626, 43.409, 81.9761, -113.372
6.37268, 55, -21.5958, -17.3247, 38.2991, 43.1825, 82.0571, -112.694
6.37679, 56, -21.3251, -17.2639, 38.1749, 43.1012, 82.0847, -112.468
6.38646, 56, -20.7811, -17.138, 37.921, 42.93, 82.1411, -112.018
6.39462, 57, -20.2307, -17.0066, 37.6601, 42.7473, 82.2003, -111.567
6.40457, 57, -19.3874, -16.7987, 37.2565, 42.451, 82.291, -110.891
6.40891, 58, -19.1025, -16.7264, 37.1185, 42.346, 82.3227, -110.666
6.41905, 58, -18.5301, -16.5773, 36.8383, 42.1265, 82.3869, -110.216
6.42353, 59, -18.2432, -16.5007, 36.6958, 42.0121, 82.4195, -109.992
6.43439, 59, -17.3768, -16.2637, 36.258, 41.6503, 82.5221, -109.318
6.43967, 60, -17.0843, -16.1825, 36.1092, 41.5233, 82.557, -109.093
6.45063, 60, -16.1912, -15.9307, 35.6538, 41.1234, 82.6659, -108.42
6.45724, 61, -15.5874, -15.7564, 35.3439, 40.8402, 82.7399, -107.971
6.46626, 61, -14.9807, -15.5778, 35.028, 40.5445, 82.8165, -107.523
6.47407, 62, -14.3701, -15.3948, 34.7068, 40.2361, 82.8951, -107.074
6.4819, 62, -13.7511, -15.2065, 34.3802, 39.9144, 82.9762, -106.625
6.48934, 63, -13.1218, -15.0115, 34.049, 39.5786, 83.0603, -106.176
6.49566, 63, -12.8038, -14.9116, 33.8812, 39.4049, 83.1035, -105.951
6.50358, 64, -12.1635, -14.708, 33.5416, 39.0461, 83.1929, -105.501
6.51157, 64, -11.5197, -14.4993, 33.1956, 38.6725, 83.2863, -105.049
6.51963, 65, -10.8691, -14.2834, 32.8434, 38.2839, 83.3841, -104.596
6.5285, 65, -10.2073, -14.0599, 32.4849, 37.88, 83.4868, -104.142
6.53557, 66, -9.53583, -13.8299, 32.1215, 37.4595, 83.5945, -103.685
6.54833, 66, -8.85705, -13.5932, 31.5669, 36.7989, 83.767, -102.997
6.55163, 67, -8.17313, -13.3491, 31.3787, 36.5702, 83.8274, -102.767
6.56294, 67, -7.13071, -12.9692, 30.8044, 35.8604, 84.0189, -102.071
6.56757, 68, -6.77823, -12.8387, 30.6104, 35.6154, 84.0861, -101.838
6.57844, 68, -5.70892, -12.4379, 30.0227, 34.8572, 84.2983, -101.136
6.58359, 69, -5.34928, -12.3009, 29.8247, 34.597, 84.3723, -100.901
6.59256, 69, -4.62478, -12.0203, 29.4257, 34.0654, 84.525, -100.428
6.59963, 70, -3.89201, -11.7323, 29.0241, 33.5207, 84.6842, -99.9536
6.60863, 70, -3.1508, -11.4369, 28.6214, 32.9608, 84.8501, -99.4765
6.61828, 71, -2.02419, -10.9779, 28.013, 32.0934, 85.1121, -98.757
6.62429, 71, -1.64459, -10.8212, 27.8084, 31.7969, 85.2037, -98.5157
6.63487, 72, -0.87997, -10.503, 27.1909, 30.8836, 85.4921, -97.7872
6.63956, 72, -0.109504, -10.1798, 26.9842, 30.5711, 85.5923, -97.543
6.64859, 73, 0.666207, -9.84891, 26.5698, 29.938, 85.7993, -97.0525
6.65559, 73, 1.4467, -9.50941, 26.1559, 29.295, 86.0132, -96.5612
6.66351, 74, 2.23044, -9.16422, 25.7435, 28.6441, 86.2345, -96.0685
6.67607, 74, 3.40896, -8.64008, 25.1323, 27.6559, 86.5786, -95.3275
6.68094, 75, 3.80245, -8.46283, 24.9315, 27.3242, 86.6959, -95.0802
6.69123, 75, 4.98712, -7.92135, 24.3374, 26.3279, 87.0552, -94.3384
6.6956, 76, 5.38289, -7.73799, 24.1425, 25.9958, 87.1775, -94.0907
6.71491, 77, 6.96801, -6.79679, 23.1903, 24.3292, 87.812, -92.844
6.71682, 77, 7.36502, -6.79679, 23.1903, 24.3292, 87.812, -92.844
6.73021, 78, 8.55874, -6.20678, 22.6299, 23.32, 88.2203, -92.0883
6.73237, 78, 8.95695, -6.0063, 22.4445, 22.9807, 88.3625, -91.8347
6.73552, 78, 9.35519, -5.80419, 22.2599, 22.6398, 88.5081, -91.5799
6.74364, 79, 10.1519, -5.39274, 21.8918, 21.954, 88.8094, -91.0673
6.7514, 79, 10.9483, -4.97123, 21.526, 21.2653, 89.1233, -90.5503
6.75939, 80, 11.7427, -4.53914, 21.1629, 20.5758, 89.4494, -90.0291
6.7675, 80, 12.5336, -4.09733, 20.8047, 19.8862, 89.7869, -89.5026
6.77548, 81, 13.3198, -3.64582, 20.4515, 19.2037, 90.1346, -88.9707
6.78379, 81, 14.1007, -3.18595, 20.1049, 18.531, 90.491, -88.434
6.79246, 82, 14.874, -2.71821, 19.7658, 17.8703, 90.8545, -87.8935
6.79963, 82, 15.6386, -2.24194, 19.4363, 17.2228, 91.2248, -87.3498
6.80851, 83, 16.3931, -1.75825, 19.1159, 16.5906, 91.6013, -86.8032
6.81575, 83, 17.1365, -1.26815, 18.8052, 15.977, 91.9836, -86.2545
6.8239, 83, 17.8664, -0.771806, 18.5033, 15.3808, 92.372, -85.7046
6.83203, 84, 18.5799, -0.270461, 18.2105, 14.8043, 92.7668, -85.1543
6.83995, 84, 19.2766, 0.235628, 17.9247, 14.2482, 93.1688, -84.6028
6.84859, 85, 19.9567, 0.747331, 17.6453, 13.7134, 93.5784, -84.052
6.85599, 85, 20.6198, 1.26362, 17.3722, 13.2001, 93.9941, -83.5023
6.86397, 86, 20.9448, 1.78355, 17.1047, 12.7093, 94.4146, -82.9539
6.87206, 86, 21.5829, 2.30961, 16.8443, 12.2406, 94.8398, -82.405
6.87938, 87, 22.2065, 2.57596, 16.7165, 12.0147, 95.0543, -82.1302
6.88743, 87, 22.8176, 3.1158, 16.4648, 11.5786, 95.4877, -81.5788
6.89545, 88, 23.4184, 3.66478, 16.2183, 11.1619, 95.9271, -81.0245
6.90339, 88, 24.0094, 4.22085, 15.9758, 10.7625, 96.3724, -80.4637
6.91143, 88, 24.5899, 4.78517, 15.7381, 10.3794, 96.8232, -79.8953
6.91944, 89, 25.1584, 5.36011, 15.5071, 10.0121, 97.2805, -79.3168
6.92739, 89, 25.717, 5.94537, 15.2801, 9.66036, 97.7437, -78.7277
6.93541, 90, 26.2693, 6.5398, 15.0563, 9.32361, 98.2128, -78.1255
6.94343, 90, 26.8132, 7.14261, 14.8371, 9.00249, 98.6885, -77.5094
6.9514, 91, 27.3437, 7.75369, 14.6231, 8.69895, 99.1703, -76.8803
6.96138, 92, 28.1149, 8.68964, 14.3102, 8.27961, 99.9043, -75.9143
6.96742, 92, 28.3674, 9.00711, 14.2081, 8.15047, 100.151, -75.5868
6.97545, 92, 28.8673, 9.64946, 14.0075, 7.90869, 100.648, -74.9253
6.98341, 93, 29.3581, 10.2995, 13.8126, 7.68955, 101.146, -74.2577
6.99314, 94, 30.0706, 11.2849, 13.5344, 7.40501, 101.895, -73.2421
6.99943, 94, 30.301, 11.6153, 13.4455, 7.32188, 102.143, -72.9006
7.0074, 94, 30.7513, 12.2784, 13.2727, 7.17345, 102.638, -72.2145
7.0154, 95, 31.1875, 12.9433, 13.1072, 7.04867, 103.13, -71.5233
7.02547, 96, 31.6099, 13.6101, 12.9496, 6.90572, 103.862, -70.4749
7.03139, 96, 32.018, 14.278, 12.7992, 6.86999, 104.104, -70.1233
7.03941, 96, 32.4103, 14.9466, 12.655, 6.81687, 104.585, -69.4158
7.04845, 97, 32.7863, 15.6152, 12.5176, 6.78559, 105.061, -68.702
7.05542, 97, 33.1462, 16.2824, 12.388, 6.77522, 105.532, -67.9839
7.06348, 98, 33.4908, 16.9474, 12.2668, 6.78736, 105.995, -67.2635
7.07141, 98, 33.8211, 17.6077, 12.1545, 6.82021, 106.45, -66.5393
7.07939, 99, 34.1376, 18.2622, 12.0514, 6.87267, 106.895, -65.8156
7.08748, 99, 34.4419, 18.9095, 11.9577, 6.94481, 107.327, -65.0938
7.09539, 100, 34.7349, 19.5486, 11.8726, 7.03389, 107.747, -64.3734
7.10339, 100, 35.016, 20.1783, 11.7963, 7.14042, 108.154, -63.6579
7.11148, 101, 35.2851, 20.7968, 11.728, 7.26216, 108.545, -62.9497
7.1194, 101, 35.5426, 21.4042, 11.6682, 7.39824, 108.922, -62.2477
7.12741, 102, 35.788, 21.9996, 11.6169, 7.54663, 109.282, -61.5554
7.13545, 102, 36.02, 22.5817, 11.5741, 7.70572, 109.624, -60.8756
7.14339, 103, 36.2412, 23.1492, 11.5402, 7.87395, 109.949, -60.2072
7.15141, 103, 36.455, 23.701, 11.5154, 8.05021, 110.255, -59.5515
7.15973, 104, 36.6621, 24.2373, 11.5, 8.23494, 110.542, -58.9099
7.1674, 104, 36.8618, 24.7576, 11.4929, 8.42858, 110.808, -58.2807
7.17539, 104, 37.0555, 25.2617, 11.4928, 8.63124, 111.055, -57.6626
7.18346, 104, 37.2435, 25.7503, 11.4992, 8.84217, 111.283, -57.0567
7.1914, 104, 37.4231, 26.2225, 11.5108, 9.05984, 111.492, -56.4638
7.19941, 104, 37.5924, 26.6783, 11.5255, 9.28253, 111.684, -55.884
7.20753, 104, 37.7535, 27.1187, 11.5428, 9.50754, 111.862, -55.3205
7.21549, 104, 37.9095, 27.5437, 11.5624, 9.73195, 112.027, -54.7764
7.22357, 104, 38.0618, 27.9529, 11.583, 9.95349, 112.183, -54.2547
7.23151, 104, 38.209, 28.345, 11.6037, 10.1705, 112.329, -53.7553
7.23949, 104, 38.3501, 28.7208, 11.6236, 10.3818, 112.468, -53.2796
7.24779, 104, 38.4845, 29.0792, 11.6422, 10.5863, 112.598, -52.8282
7.25539, 104, 38.6113, 29.4195, 11.6599, 10.783, 112.721, -52.4016
7.26427, 104, 38.7297, 29.7409, 11.6764, 10.9713, 112.836, -52.0002
7.27151, 104, 38.8396, 30.0432, 11.6916, 11.1505, 112.944, -51.6233
7.27948, 104, 38.9416, 30.3272, 11.706, 11.32, 113.043, -51.2717
7.28755, 104, 39.0358, 30.5915, 11.7192, 11.4792, 113.136, -50.9459
7.29566, 104, 39.1222, 30.8361, 11.7312, 11.628, 113.221, -50.6451
7.3037, 104, 39.2006, 31.0613, 11.742, 11.7656, 113.298, -50.3695
7.31213, 104, 39.2712, 31.2665, 11.7519, 11.8918, 113.369, -50.1193
7.3204, 104, 39.3338, 31.452, 11.7612, 12.0061, 113.431, -49.8944
7.32783, 104, 39.3888, 31.6182, 11.7692, 12.1087, 113.488, -49.6944
7.33649, 104, 39.4371, 31.765, 11.7764, 12.199, 113.536, -49.5196
7.34398, 104, 39.4793, 31.8931, 11.783, 12.2771, 113.578, -49.3694
7.35256, 104, 39.5159, 32.0038, 11.7889, 12.3433, 113.613, -49.2429
7.36004, 104, 39.5463, 32.0978, 11.7941, 12.3981, 113.642, -49.1394
7.36815, 104, 39.5713, 32.1761, 11.7987, 12.441, 113.664, -49.0567
7.37601, 104, 39.5819, 32.2099, 11.8009, 12.4743, 113.681, -48.9934
7.38403, 104, 39.5997, 32.268, 11.8049, 12.4877, 113.688, -48.947
7.39199, 104, 39.6134, 32.3145, 11.8085, 12.5089, 113.698, -48.9292
7.39943, 104, 39.624, 32.3505, 11.8119, 12.5238, 113.705, -48.9024
7.40741, 104, 39.6319, 32.3775, 11.8148, 12.5336, 113.709, -48.8852
7.41543, 104, 39.6374, 32.3977, 11.8174, 12.5398, 113.712, -48.8751
7.42344, 104, 39.6409, 32.4124, 11.8195, 12.5432, 113.713, -48.8697
7.43138, 104, 39.6429, 32.4221, 11.8211, 12.545, 113.714, -48.8672
7.4394, 105, 39.6437, 32.4282, 11.8223, 12.5459, 113.714, -48.8662
7.44742, 105, 39.6434, 32.4322, 11.8234, 12.5463, 113.714, -48.8658
7.45538, 105, 39.6423, 32.4349, 11.8242, 12.5465, 113.714, -48.8659
7.46343, 105, 39.6413, 32.4369, 11.8249, 12.5466, 113.714, -48.8662
7.47298, 105, 39.6397, 32.4391, 11.8259, 12.5467, 113.714, -48.8667
7.48138, 105, 39.6385, 32.4404, 11.8265, 12.5468, 113.714, -48.867
7.48747, 105, 39.638, 32.441, 11.8267, 12.5468, 113.714, -48.8671
7.49537, 105, 39.6373, 32.4422, 11.8273, 12.5468, 113.714, -48.8674
7.5054, 105, 39.6367, 32.4438, 11.8282, 12.5468, 113.714, -48.8679
7.51144, 105, 39.6366, 32.4444, 11.8285, 12.5468, 113.714, -48.868
7.52043, 105, 39.6363, 32.4453, 11.829, 12.5467, 113.714, -48.8684
7.52739, 105, 39.6361, 32.446, 11.8294, 12.5467, 113.714, -48.8687
7.53544, 105, 39.6358, 32.4465, 11.8297, 12.5467, 113.714, -48.869
7.54446, 105, 39.6355, 32.4468, 11.83, 12.5467, 113.714, -48.8692
7.55139, 105, 39.6352, 32.447, 11.8303, 12.5467, 113.714, -48.8694
7.55947, 105, 39.6349, 32.4471, 11.8304, 12.5467, 113.714, -48.8696
