hehonglu123/Motion-Primitive-Planning/simulation/robotstudio_sim/scripts/fitting_output_new/movel_only/curve_exe_v700_z10.csv
timestamp, cmd_num, J1, J2, J3, J4, J5, J6
0, 1, -22.0242, 43.3372, 24.0922, -32.8525, -59.268, 146.03
0.002, 1, -22.0242, 43.3372, 24.0922, -32.8525, -59.268, 146.03
0.004, 1, -22.0242, 43.3372, 24.0922, -32.8525, -59.268, 146.03
0.008, 1, -22.0242, 43.3372, 24.0922, -32.8525, -59.268, 146.03
0.011, 1, -22.0242, 43.3372, 24.0922, -32.8525, -59.268, 146.03
0.016, 1, -22.0242, 43.3372, 24.0922, -32.8525, -59.268, 146.03
0.02, 1, -22.0242, 43.3372, 24.0922, -32.8525, -59.268, 146.03
0.024, 1, -22.0242, 43.3372, 24.0922, -32.8525, -59.268, 146.03
0.028, 1, -22.0242, 43.3372, 24.0922, -32.8525, -59.268, 146.03
0.032, 1, -22.0242, 43.3372, 24.0922, -32.8525, -59.268, 146.03
0.036, 1, -22.0241, 43.3372, 24.0922, -32.8525, -59.268, 146.03
0.04, 1, -22.0239, 43.3371, 24.0922, -32.8525, -59.268, 146.03
0.044, 1, -22.0233, 43.3371, 24.0922, -32.8525, -59.268, 146.03
0.048, 1, -22.0223, 43.3371, 24.0922, -32.8524, -59.268, 146.03
0.052, 1, -22.0208, 43.337, 24.0922, -32.8522, -59.268, 146.029
0.056, 1, -22.0185, 43.3369, 24.0921, -32.8517, -59.268, 146.029
0.06, 1, -22.0156, 43.3367, 24.0919, -32.8508, -59.268, 146.028
0.064, 1, -22.0118, 43.3366, 24.0916, -32.8492, -59.268, 146.027
0.068, 1, -22.0072, 43.3364, 24.0909, -32.8466, -59.2679, 146.025
0.072, 1, -22.0016, 43.3362, 24.0899, -32.8426, -59.2678, 146.022
0.076, 1, -21.9948, 43.336, 24.0884, -32.8369, -59.2676, 146.017
0.08, 1, -21.9865, 43.3358, 24.0863, -32.8288, -59.2672, 146.011
0.084, 1, -21.9765, 43.3357, 24.0833, -32.8177, -59.2667, 146.002
0.088, 1, -21.9647, 43.3357, 24.0792, -32.8031, -59.266, 145.991
0.092, 1, -21.9508, 43.3359, 24.0739, -32.7841, -59.265, 145.976
0.096, 1, -21.9347, 43.3362, 24.0672, -32.7601, -59.2638, 145.957
0.1, 1, -21.9164, 43.3367, 24.0588, -32.7304, -59.2622, 145.934
0.104, 1, -21.8957, 43.3376, 24.0484, -32.6942, -59.2602, 145.906
0.108, 1, -21.8724, 43.3387, 24.036, -32.651, -59.2577, 145.872
0.112, 1, -21.8464, 43.3402, 24.0213, -32.6002, -59.2548, 145.832
0.116, 1, -21.8177, 43.3421, 24.0043, -32.5414, -59.2514, 145.786
0.12, 1, -21.7863, 43.3444, 23.9848, -32.4743, -59.2475, 145.734
0.124, 1, -21.7522, 43.3471, 23.9628, -32.3988, -59.243, 145.675
0.128, 1, -21.7155, 43.3503, 23.9382, -32.3147, -59.238, 145.609
0.131, 1, -21.6762, 43.3539, 23.9111, -32.2224, -59.2325, 145.537
0.136, 1, -21.6345, 43.3579, 23.8817, -32.122, -59.2264, 145.459
0.139, 1, -21.5902, 43.3622, 23.85, -32.0141, -59.2199, 145.375
0.144, 1, -21.5433, 43.367, 23.8162, -31.8992, -59.213, 145.285
0.148, 1, -21.4939, 43.3719, 23.7806, -31.778, -59.2057, 145.191
0.152, 1, -21.4422, 43.3771, 23.7433, -31.6512, -59.198, 145.092
0.156, 1, -21.3884, 43.3825, 23.7046, -31.5196, -59.1901, 144.989
0.16, 1, -21.3328, 43.3881, 23.6647, -31.3838, -59.1819, 144.883
0.164, 1, -21.2754, 43.3937, 23.6238, -31.2446, -59.1735, 144.775
0.168, 1, -21.2164, 43.3994, 23.5821, -31.1026, -59.165, 144.664
0.172, 1, -21.156, 43.4051, 23.5398, -30.9585, -59.1564, 144.551
0.176, 1, -21.0941, 43.4108, 23.497, -30.8126, -59.1477, 144.438
0.18, 1, -21.031, 43.4165, 23.4539, -30.6656, -59.1389, 144.323
0.184, 1, -20.9668, 43.4222, 23.4106, -30.5177, -59.1301, 144.208
0.188, 1, -20.9016, 43.4278, 23.3671, -30.3691, -59.1213, 144.092
0.192, 1, -20.8357, 43.4335, 23.3235, -30.22, -59.1124, 143.975
0.196, 1, -20.7693, 43.439, 23.2798, -30.0706, -59.1036, 143.859
0.2, 1, -20.7025, 43.4446, 23.236, -29.9209, -59.0947, 143.742
0.204, 1, -20.6355, 43.4502, 23.1922, -29.7711, -59.0858, 143.625
0.208, 1, -20.5683, 43.4558, 23.1483, -29.621, -59.077, 143.508
0.212, 1, -20.501, 43.4614, 23.1044, -29.4708, -59.0681, 143.391
0.216, 1, -20.4336, 43.4669, 23.0604, -29.3205, -59.0592, 143.273
0.22, 1, -20.366, 43.4725, 23.0164, -29.17, -59.0503, 143.156
0.224, 1, -20.2984, 43.4781, 22.9724, -29.0194, -59.0414, 143.038
0.228, 1, -20.2308, 43.4837, 22.9284, -28.8688, -59.0325, 142.921
0.232, 1, -20.163, 43.4893, 22.8843, -28.718, -59.0236, 142.803
0.236, 1, -20.0953, 43.4949, 22.8402, -28.5671, -59.0146, 142.685
0.24, 1, -20.0274, 43.5005, 22.796, -28.4161, -59.0057, 142.568
0.244, 1, -19.9596, 43.5061, 22.7519, -28.265, -58.9968, 142.45
0.248, 1, -19.8916, 43.5117, 22.7077, -28.1138, -58.9878, 142.332
0.252, 1, -19.8237, 43.5173, 22.6634, -27.9625, -58.9789, 142.214
0.256, 1, -19.7556, 43.5229, 22.6192, -27.8112, -58.9699, 142.096
0.26, 1, -19.6876, 43.5285, 22.5749, -27.6597, -58.961, 141.977
0.264, 1, -19.6195, 43.5341, 22.5306, -27.5081, -58.952, 141.859
0.268, 1, -19.5513, 43.5397, 22.4863, -27.3564, -58.943, 141.741
0.272, 1, -19.4831, 43.5454, 22.4419, -27.2047, -58.9341, 141.622
0.276, 1, -19.4149, 43.551, 22.3975, -27.0528, -58.9251, 141.504
0.28, 1, -19.3466, 43.5566, 22.3531, -26.9008, -58.9161, 141.385
0.284, 1, -19.2783, 43.5623, 22.3086, -26.7488, -58.9071, 141.266
0.288, 1, -19.2099, 43.5679, 22.2641, -26.5966, -58.8981, 141.148
0.292, 1, -19.1415, 43.5735, 22.2196, -26.4443, -58.8891, 141.029
0.296, 1, -19.0731, 43.5792, 22.1751, -26.292, -58.8801, 140.91
0.3, 1, -19.0046, 43.5848, 22.1305, -26.1395, -58.8711, 140.791
0.304, 1, -18.936, 43.5905, 22.0859, -25.9869, -58.8621, 140.672
0.308, 1, -18.8674, 43.5961, 22.0413, -25.8343, -58.853, 140.553
0.312, 1, -18.7988, 43.6018, 21.9966, -25.6815, -58.844, 140.434
0.316, 1, -18.7301, 43.6075, 21.9519, -25.5287, -58.835, 140.314
0.32, 1, -18.6614, 43.6131, 21.9072, -25.3757, -58.8259, 140.195
0.324, 1, -18.5926, 43.6188, 21.8625, -25.2226, -58.8169, 140.076
0.328, 1, -18.5238, 43.6245, 21.8177, -25.0695, -58.8078, 139.956
0.332, 1, -18.4549, 43.6301, 21.7729, -24.9162, -58.7987, 139.836
0.336, 1, -18.386, 43.6358, 21.7281, -24.7629, -58.7897, 139.717
0.34, 1, -18.3171, 43.6415, 21.6832, -24.6094, -58.7806, 139.597
0.344, 1, -18.2481, 43.6472, 21.6383, -24.4558, -58.7715, 139.477
0.348, 1, -18.179, 43.6529, 21.5934, -24.3022, -58.7624, 139.357
0.352, 1, -18.1099, 43.6586, 21.5484, -24.1484, -58.7533, 139.237
0.356, 1, -18.0408, 43.6643, 21.5035, -23.9946, -58.7442, 139.117
0.36, 1, -17.9716, 43.67, 21.4585, -23.8406, -58.7351, 138.997
0.364, 1, -17.9024, 43.6757, 21.4134, -23.6865, -58.726, 138.877
0.368, 1, -17.8331, 43.6814, 21.3683, -23.5324, -58.7169, 138.757
0.372, 1, -17.7638, 43.6871, 21.3232, -23.3781, -58.7078, 138.636
0.376, 1, -17.6945, 43.6929, 21.2781, -23.2237, -58.6987, 138.516
0.38, 1, -17.625, 43.6986, 21.233, -23.0692, -58.6895, 138.395
0.384, 1, -17.5556, 43.7043, 21.1878, -22.9147, -58.6804, 138.275
0.388, 1, -17.4861, 43.71, 21.1426, -22.76, -58.6712, 138.154
0.392, 1, -17.4165, 43.7158, 21.0973, -22.6052, -58.6621, 138.033
0.396, 1, -17.347, 43.7215, 21.052, -22.4503, -58.6529, 137.912
0.4, 1, -17.2773, 43.7273, 21.0067, -22.2953, -58.6438, 137.791
0.404, 1, -17.2076, 43.733, 20.9614, -22.1402, -58.6346, 137.67
0.408, 1, -17.1379, 43.7388, 20.916, -21.985, -58.6254, 137.549
0.412, 1, -17.0681, 43.7445, 20.8706, -21.8297, -58.6162, 137.428
0.416, 1, -16.9983, 43.7503, 20.8252, -21.6743, -58.607, 137.307
0.42, 1, -16.9284, 43.756, 20.7797, -21.5188, -58.5979, 137.185
0.424, 1, -16.8585, 43.7618, 20.7342, -21.3632, -58.5886, 137.064
0.428, 1, -16.7886, 43.7676, 20.6887, -21.2075, -58.5794, 136.942
0.432, 1, -16.7186, 43.7733, 20.6432, -21.0517, -58.5702, 136.821
0.436, 1, -16.6485, 43.7791, 20.5976, -20.8958, -58.561, 136.699
0.44, 1, -16.5784, 43.7849, 20.552, -20.7398, -58.5518, 136.577
0.444, 1, -16.5083, 43.7907, 20.5063, -20.5836, -58.5425, 136.455
0.448, 1, -16.4381, 43.7965, 20.4607, -20.4274, -58.5333, 136.334
0.452, 1, -16.3678, 43.8023, 20.415, -20.2711, -58.5241, 136.212
0.456, 1, -16.2976, 43.8081, 20.3692, -20.1147, -58.5148, 136.089
0.46, 1, -16.2272, 43.8138, 20.3235, -19.9581, -58.5056, 135.967
0.464, 1, -16.1569, 43.8197, 20.2777, -19.8015, -58.4963, 135.845
0.468, 1, -16.0864, 43.8255, 20.2319, -19.6447, -58.487, 135.723
0.472, 1, -16.016, 43.8313, 20.186, -19.4879, -58.4778, 135.6
0.476, 1, -15.9454, 43.8371, 20.1401, -19.331, -58.4685, 135.478
0.48, 1, -15.8749, 43.8429, 20.0942, -19.1739, -58.4592, 135.355
0.484, 1, -15.8043, 43.8487, 20.0483, -19.0168, -58.4499, 135.233
0.488, 1, -15.7336, 43.8546, 20.0023, -18.8595, -58.4406, 135.11
0.492, 1, -15.6629, 43.8604, 19.9563, -18.7021, -58.4313, 134.987
0.496, 1, -15.5922, 43.8662, 19.9103, -18.5447, -58.422, 134.864
0.5, 1, -15.5214, 43.8721, 19.8642, -18.3871, -58.4127, 134.741
0.504, 1, -15.4505, 43.8779, 19.8181, -18.2294, -58.4033, 134.618
0.508, 1, -15.3796, 43.8837, 19.772, -18.0716, -58.394, 134.495
0.512, 1, -15.3087, 43.8896, 19.7259, -17.9138, -58.3847, 134.372
0.516, 1, -15.2377, 43.8954, 19.6797, -17.7558, -58.3753, 134.249
0.52, 1, -15.1667, 43.9013, 19.6335, -17.5977, -58.366, 134.125
0.524, 1, -15.0956, 43.9072, 19.5872, -17.4395, -58.3566, 134.002
0.528, 1, -15.0245, 43.913, 19.5409, -17.2812, -58.3473, 133.878
0.532, 1, -14.9533, 43.9189, 19.4946, -17.1228, -58.3379, 133.755
0.536, 1, -14.8821, 43.9248, 19.4483, -16.9643, -58.3285, 133.631
0.54, 1, -14.8109, 43.9306, 19.4019, -16.8057, -58.3192, 133.507
0.544, 1, -14.7396, 43.9365, 19.3555, -16.647, -58.3098, 133.383
0.548, 1, -14.6682, 43.9424, 19.3091, -16.4882, -58.3004, 133.26
0.552, 1, -14.5968, 43.9483, 19.2627, -16.3293, -58.291, 133.136
0.556, 1, -14.5254, 43.9542, 19.2162, -16.1703, -58.2816, 133.011
0.56, 1, -14.4539, 43.9601, 19.1696, -16.0111, -58.2722, 132.887
0.564, 1, -14.3823, 43.966, 19.1231, -15.8519, -58.2628, 132.763
0.568, 1, -14.3107, 43.9719, 19.0765, -15.6926, -58.2533, 132.639
0.572, 1, -14.2391, 43.9778, 19.0299, -15.5331, -58.2439, 132.514
0.576, 1, -14.1674, 43.9837, 18.9833, -15.3736, -58.2345, 132.39
0.58, 1, -14.0957, 43.9896, 18.9366, -15.214, -58.225, 132.265
0.584, 1, -14.0239, 43.9955, 18.8899, -15.0542, -58.2156, 132.141
0.588, 1, -13.9521, 44.0015, 18.8432, -14.8944, -58.2061, 132.016
0.592, 1, -13.8802, 44.0074, 18.7964, -14.7344, -58.1967, 131.891
0.596, 1, -13.8083, 44.0133, 18.7496, -14.5743, -58.1872, 131.766
0.6, 1, -13.7364, 44.0193, 18.7028, -14.4142, -58.1777, 131.641
0.604, 1, -13.6644, 44.0252, 18.656, -14.2539, -58.1683, 131.516
0.608, 1, -13.5923, 44.0311, 18.6091, -14.0935, -58.1588, 131.391
0.612, 1, -13.5202, 44.0371, 18.5622, -13.9331, -58.1493, 131.266
0.616, 1, -13.4481, 44.043, 18.5152, -13.7725, -58.1398, 131.14
0.62, 1, -13.3759, 44.049, 18.4682, -13.6118, -58.1303, 131.015
0.624, 1, -13.3036, 44.0549, 18.4212, -13.451, -58.1208, 130.889
0.628, 1, -13.2313, 44.0609, 18.3742, -13.2901, -58.1113, 130.764
0.632, 1, -13.159, 44.0669, 18.3271, -13.1291, -58.1017, 130.638
0.636, 1, -13.0866, 44.0728, 18.28, -12.968, -58.0922, 130.513
0.64, 1, -13.0142, 44.0788, 18.2329, -12.8068, -58.0827, 130.387
0.644, 1, -12.9417, 44.0848, 18.1858, -12.6455, -58.0731, 130.261
0.648, 1, -12.8692, 44.0908, 18.1386, -12.4841, -58.0636, 130.135
0.652, 1, -12.7967, 44.0967, 18.0914, -12.3225, -58.0541, 130.009
0.656, 1, -12.7241, 44.1027, 18.0441, -12.1609, -58.0445, 129.883
0.66, 1, -12.6514, 44.1087, 17.9968, -11.9992, -58.0349, 129.757
0.664, 1, -12.5787, 44.1147, 17.9495, -11.8374, -58.0254, 129.63
0.668, 1, -12.506, 44.1207, 17.9022, -11.6755, -58.0158, 129.504
0.672, 1, -12.4332, 44.1267, 17.8548, -11.5134, -58.0062, 129.377
0.676, 1, -12.3603, 44.1327, 17.8074, -11.3513, -57.9966, 129.251
0.68, 1, -12.2874, 44.1387, 17.76, -11.1891, -57.987, 129.124
0.684, 1, -12.2145, 44.1448, 17.7125, -11.0268, -57.9774, 128.998
0.688, 1, -12.1415, 44.1508, 17.6651, -10.8643, -57.9678, 128.871
0.692, 1, -12.0685, 44.1568, 17.6176, -10.7018, -57.9582, 128.744
0.696, 1, -11.9955, 44.1628, 17.57, -10.5392, -57.9486, 128.617
0.7, 1, -11.9224, 44.1689, 17.5224, -10.3764, -57.939, 128.49
0.704, 1, -11.8492, 44.1749, 17.4748, -10.2136, -57.9293, 128.363
0.708, 1, -11.776, 44.1809, 17.4272, -10.0507, -57.9197, 128.236
0.712, 1, -11.7028, 44.187, 17.3796, -9.88766, -57.9101, 128.109
0.716, 1, -11.6295, 44.193, 17.3319, -9.72453, -57.9004, 127.981
0.72, 1, -11.5562, 44.1991, 17.2842, -9.56131, -57.8908, 127.854
0.724, 1, -11.4828, 44.2051, 17.2364, -9.39799, -57.8811, 127.727
0.728, 1, -11.4094, 44.2112, 17.1886, -9.23457, -57.8715, 127.599
0.732, 1, -11.3359, 44.2172, 17.1408, -9.07105, -57.8618, 127.472
0.736, 1, -11.2624, 44.2233, 17.093, -8.90744, -57.8521, 127.344
0.74, 1, -11.1889, 44.2294, 17.0451, -8.74373, -57.8424, 127.216
0.744, 1, -11.1153, 44.2354, 16.9973, -8.57992, -57.8327, 127.088
0.748, 1, -11.0416, 44.2415, 16.9493, -8.41602, -57.823, 126.96
0.752, 1, -10.968, 44.2476, 16.9014, -8.25202, -57.8134, 126.832
0.756, 1, -10.8942, 44.2537, 16.8534, -8.08793, -57.8036, 126.704
0.76, 1, -10.8205, 44.2597, 16.8054, -7.92374, -57.7939, 126.576
0.764, 1, -10.7467, 44.2658, 16.7574, -7.75945, -57.7842, 126.448
0.768, 1, -10.6728, 44.2719, 16.7094, -7.59507, -57.7745, 126.32
0.772, 1, -10.5989, 44.278, 16.6613, -7.4306, -57.7648, 126.191
0.776, 1, -10.525, 44.2841, 16.6132, -7.26603, -57.755, 126.063
0.78, 1, -10.451, 44.2902, 16.565, -7.10137, -57.7453, 125.934
0.784, 1, -10.377, 44.2963, 16.5169, -6.93661, -57.7356, 125.806
0.788, 1, -10.303, 44.3024, 16.4687, -6.77176, -57.7258, 125.677
0.792, 1, -10.2289, 44.3085, 16.4205, -6.60682, -57.7161, 125.549
0.796, 1, -10.1547, 44.3146, 16.3722, -6.44179, -57.7063, 125.42
0.8, 1, -10.0805, 44.3208, 16.3239, -6.27666, -57.6965, 125.291
0.804, 1, -10.0063, 44.3269, 16.2756, -6.11144, -57.6868, 125.162
0.808, 1, -9.93205, 44.333, 16.2273, -5.94613, -57.677, 125.033
0.812, 1, -9.85775, 44.3391, 16.179, -5.78073, -57.6672, 124.904
0.816, 1, -9.7834, 44.3453, 16.1306, -5.61524, -57.6574, 124.775
0.82, 1, -9.70901, 44.3514, 16.0822, -5.44966, -57.6476, 124.646
0.824, 1, -9.63459, 44.3575, 16.0337, -5.28398, -57.6378, 124.516
0.828, 1, -9.56012, 44.3637, 15.9853, -5.11822, -57.628, 124.387
0.832, 1, -9.48561, 44.3698, 15.9368, -4.95237, -57.6182, 124.257
0.836, 1, -9.41106, 44.376, 15.8883, -4.78643, -57.6084, 124.128
0.84, 1, -9.33647, 44.3821, 15.8397, -4.62039, -57.5986, 123.998
0.844, 1, -9.26184, 44.3883, 15.7912, -4.45427, -57.5888, 123.869
0.848, 1, -9.18717, 44.3944, 15.7426, -4.28807, -57.5789, 123.739
0.852, 1, -9.11246, 44.4006, 15.694, -4.12177, -57.5691, 123.609
0.856, 1, -9.03772, 44.4068, 15.6453, -3.95538, -57.5593, 123.479
0.86, 1, -8.96293, 44.4129, 15.5967, -3.78891, -57.5494, 123.35
0.864, 1, -8.88811, 44.4191, 15.548, -3.62235, -57.5396, 123.22
0.868, 1, -8.81324, 44.4253, 15.4993, -3.45571, -57.5297, 123.09
0.872, 1, -8.73834, 44.4315, 15.4505, -3.28897, -57.5199, 122.959
0.876, 1, -8.6634, 44.4376, 15.4018, -3.12216, -57.51, 122.829
0.88, 1, -8.58843, 44.4438, 15.353, -2.95525, -57.5001, 122.699
0.884, 1, -8.51341, 44.45, 15.3041, -2.78826, -57.4903, 122.569
0.888, 1, -8.43836, 44.4562, 15.2553, -2.62119, -57.4804, 122.438
0.892, 1, -8.36327, 44.4624, 15.2064, -2.45403, -57.4705, 122.308
0.896, 1, -8.28815, 44.4686, 15.1576, -2.28679, -57.4606, 122.177
0.9, 1, -8.21299, 44.4748, 15.1086, -2.11946, -57.4507, 122.047
0.904, 1, -8.13779, 44.481, 15.0597, -1.95205, -57.4408, 121.916
0.908, 1, -8.06256, 44.4872, 15.0107, -1.78457, -57.4309, 121.785
0.912, 1, -7.98729, 44.4934, 14.9617, -1.617, -57.421, 121.655
0.916, 1, -7.91198, 44.4996, 14.9127, -1.44935, -57.4111, 121.524
0.92, 1, -7.83664, 44.5058, 14.8637, -1.28162, -57.4012, 121.393
0.924, 1, -7.76127, 44.5121, 14.8146, -1.11381, -57.3912, 121.262
0.928, 1, -7.68586, 44.5183, 14.7656, -0.94593, -57.3813, 121.131
0.932, 1, -7.61041, 44.5245, 14.7165, -0.777969, -57.3714, 121
0.936, 1, -7.53493, 44.5307, 14.6673, -0.609932, -57.3615, 120.869
0.94, 1, -7.45942, 44.537, 14.6182, -0.441819, -57.3515, 120.738
0.944, 1, -7.38388, 44.5432, 14.569, -0.273632, -57.3416, 120.606
0.948, 1, -7.3083, 44.5494, 14.5198, -0.10537, -57.3316, 120.475
0.952, 1, -7.23269, 44.5557, 14.4706, 0.0629647, -57.3217, 120.344
0.956, 1, -7.15704, 44.5619, 14.4214, 0.231372, -57.3117, 120.212
0.96, 1, -7.08137, 44.5682, 14.3721, 0.39985, -57.3017, 120.081
0.964, 1, -7.00566, 44.5744, 14.3229, 0.568399, -57.2918, 119.949
0.968, 1, -6.92992, 44.5807, 14.2736, 0.737018, -57.2818, 119.818
0.972, 1, -6.85415, 44.5869, 14.2243, 0.905705, -57.2718, 119.686
0.976, 1, -6.77835, 44.5932, 14.1749, 1.07446, -57.2619, 119.554
0.98, 1, -6.70252, 44.5994, 14.1256, 1.24328, -57.2519, 119.423
0.984, 1, -6.62666, 44.6057, 14.0762, 1.41217, -57.2419, 119.291
0.988, 1, -6.55077, 44.6119, 14.0268, 1.58113, -57.2319, 119.159
0.992, 1, -6.47485, 44.6182, 13.9774, 1.75015, -57.2219, 119.027
0.996, 1, -6.39891, 44.6245, 13.928, 1.91923, -57.2119, 118.895
1, 1, -6.32293, 44.6307, 13.8785, 2.08838, -57.2019, 118.763
1.004, 1, -6.24693, 44.637, 13.8291, 2.25759, -57.1919, 118.631
1.008, 1, -6.1709, 44.6433, 13.7796, 2.42686, -57.1819, 118.499
1.012, 1, -6.09484, 44.6495, 13.7301, 2.5962, -57.1719, 118.367
1.016, 1, -6.01875, 44.6558, 13.6805, 2.76559, -57.1618, 118.235
1.02, 1, -5.94264, 44.6621, 13.631, 2.93504, -57.1518, 118.102
1.024, 1, -5.86651, 44.6684, 13.5815, 3.10455, -57.1418, 117.97
1.027, 1, -5.79034, 44.6747, 13.5319, 3.27412, -57.1318, 117.838
1.032, 1, -5.71415, 44.681, 13.4823, 3.44374, -57.1217, 117.705
1.036, 1, -5.63794, 44.6872, 13.4327, 3.61342, -57.1117, 117.573
1.04, 1, -5.5617, 44.6935, 13.3831, 3.78316, -57.1017, 117.441
1.044, 1, -5.48544, 44.6998, 13.3334, 3.95295, -57.0916, 117.308
1.048, 1, -5.40916, 44.7061, 13.2838, 4.12279, -57.0816, 117.176
1.052, 1, -5.33285, 44.7124, 13.2341, 4.29268, -57.0716, 117.043
1.055, 1, -5.25651, 44.7187, 13.1844, 4.46263, -57.0615, 116.91
1.06, 1, -5.18016, 44.725, 13.1347, 4.63262, -57.0514, 116.778
1.064, 1, -5.10378, 44.7313, 13.085, 4.80267, -57.0414, 116.645
1.068, 1, -5.02738, 44.7376, 13.0353, 4.97276, -57.0313, 116.512
1.072, 1, -4.95096, 44.7439, 12.9856, 5.1429, -57.0213, 116.38
1.076, 1, -4.87452, 44.7502, 12.9358, 5.31309, -57.0112, 116.247
1.08, 1, -4.79806, 44.7565, 12.886, 5.48333, -57.0011, 116.114
1.084, 1, -4.72158, 44.7629, 12.8363, 5.65361, -56.9911, 115.981
1.088, 1, -4.64508, 44.7692, 12.7865, 5.82393, -56.981, 115.848
1.091, 1, -4.56855, 44.7755, 12.7367, 5.9943, -56.9709, 115.715
1.096, 1, -4.49201, 44.7818, 12.6868, 6.16471, -56.9609, 115.582
1.1, 1, -4.41545, 44.7881, 12.637, 6.33516, -56.9508, 115.449
1.104, 1, -4.33888, 44.7944, 12.5872, 6.50566, -56.9407, 115.316
1.108, 1, -4.26228, 44.8008, 12.5373, 6.67619, -56.9306, 115.183
1.112, 1, -4.18566, 44.8071, 12.4875, 6.84676, -56.9205, 115.05
1.116, 1, -4.10903, 44.8134, 12.4376, 7.01737, -56.9104, 114.917
1.119, 1, -4.03239, 44.8197, 12.3877, 7.18802, -56.9003, 114.784
1.124, 1, -3.95572, 44.826, 12.3378, 7.35871, -56.8902, 114.65
1.128, 1, -3.87904, 44.8324, 12.2879, 7.52943, -56.8802, 114.517
1.132, 1, -3.80235, 44.8387, 12.238, 7.70018, -56.8701, 114.384
1.136, 1, -3.72564, 44.845, 12.188, 7.87097, -56.86, 114.251
1.14, 1, -3.64892, 44.8514, 12.1381, 8.04179, -56.8499, 114.117
1.144, 1, -3.57218, 44.8577, 12.0881, 8.21265, -56.8398, 113.984
1.147, 1, -3.49544, 44.864, 12.0382, 8.38353, -56.8296, 113.851
1.152, 1, -3.41868, 44.8704, 11.9882, 8.55445, -56.8195, 113.717
1.156, 1, -3.3419, 44.8767, 11.9382, 8.72539, -56.8094, 113.584
1.16, 1, -3.26512, 44.883, 11.8883, 8.89636, -56.7993, 113.45
1.164, 1, -3.18833, 44.8894, 11.8383, 9.06736, -56.7892, 113.317
1.168, 1, -3.11152, 44.8957, 11.7883, 9.23838, -56.7791, 113.184
1.172, 1, -3.0347, 44.9021, 11.7383, 9.40943, -56.769, 113.05
1.175, 1, -2.95788, 44.9084, 11.6883, 9.58049, -56.7589, 112.917
1.18, 1, -2.88104, 44.9147, 11.6382, 9.75158, -56.7488, 112.783
1.184, 1, -2.8042, 44.9211, 11.5882, 9.92269, -56.7386, 112.65
1.188, 1, -2.72735, 44.9274, 11.5382, 10.0938, -56.7285, 112.516
1.192, 1, -2.65049, 44.9338, 11.4882, 10.265, -56.7184, 112.382
1.196, 1, -2.57362, 44.9401, 11.4381, 10.4361, -56.7083, 112.249
1.2, 1, -2.49675, 44.9465, 11.3881, 10.6073, -56.6981, 112.115
1.204, 1, -2.41987, 44.9528, 11.338, 10.7785, -56.688, 111.982
1.208, 1, -2.34299, 44.9592, 11.288, 10.9497, -56.6779, 111.848
1.212, 1, -2.2661, 44.9655, 11.2379, 11.1209, -56.6678, 111.715
1.216, 1, -2.18921, 44.9718, 11.1879, 11.2921, -56.6577, 111.581
1.22, 1, -2.11231, 44.9782, 11.1378, 11.4634, -56.6475, 111.447
1.224, 1, -2.03541, 44.9845, 11.0878, 11.6346, -56.6374, 111.314
1.228, 1, -1.95851, 44.9909, 11.0377, 11.8058, -56.6273, 111.18
1.232, 1, -1.88161, 44.9972, 10.9876, 11.9771, -56.6171, 111.046
1.236, 1, -1.8047, 45.0036, 10.9376, 12.1483, -56.607, 110.913
1.24, 1, -1.7278, 45.0099, 10.8875, 12.3196, -56.5969, 110.779
1.244, 1, -1.65089, 45.0163, 10.8374, 12.4908, -56.5868, 110.646
1.248, 1, -1.57398, 45.0226, 10.7874, 12.6621, -56.5766, 110.512
1.252, 1, -1.49708, 45.029, 10.7373, 12.8333, -56.5665, 110.378
1.256, 1, -1.42018, 45.0353, 10.6872, 13.0046, -56.5564, 110.245
1.26, 1, -1.34328, 45.0417, 10.6372, 13.1758, -56.5463, 110.111
1.264, 1, -1.26638, 45.048, 10.5871, 13.3471, -56.5361, 109.977
1.267, 1, -1.18949, 45.0544, 10.5371, 13.5183, -56.526, 109.844
1.272, 1, -1.1126, 45.0607, 10.487, 13.6895, -56.5159, 109.71
1.276, 1, -1.03572, 45.0671, 10.437, 13.8607, -56.5058, 109.577
1.28, 1, -0.958837, 45.0734, 10.3869, 14.0319, -56.4956, 109.443
1.284, 1, -0.881964, 45.0798, 10.3369, 14.2031, -56.4855, 109.309
1.288, 1, -0.805097, 45.0861, 10.2868, 14.3742, -56.4754, 109.176
1.292, 1, -0.728237, 45.0924, 10.2368, 14.5454, -56.4653, 109.042
1.295, 1, -0.651385, 45.0988, 10.1868, 14.7165, -56.4552, 108.909
1.3, 1, -0.574541, 45.1051, 10.1367, 14.8876, -56.445, 108.775
1.304, 1, -0.497706, 45.1115, 10.0867, 15.0587, -56.4349, 108.642
1.308, 1, -0.420881, 45.1178, 10.0367, 15.2298, -56.4248, 108.508
1.312, 1, -0.344065, 45.1242, 9.98669, 15.4009, -56.4147, 108.375
1.316, 1, -0.26726, 45.1305, 9.93669, 15.5719, -56.4046, 108.241
1.32, 1, -0.190466, 45.1368, 9.88669, 15.7429, -56.3945, 108.108
1.324, 1, -0.113684, 45.1432, 9.83671, 15.9139, -56.3844, 107.974
1.328, 1, -0.036914, 45.1495, 9.78673, 16.0848, -56.3743, 107.841
1.332, 1, 0.039843, 45.1558, 9.73676, 16.2557, -56.3641, 107.708
1.336, 1, 0.116587, 45.1622, 9.6868, 16.4266, -56.354, 107.574
1.34, 1, 0.193316, 45.1685, 9.63685, 16.5975, -56.3439, 107.441
1.344, 1, 0.270031, 45.1749, 9.58691, 16.7683, -56.3338, 107.308
1.348, 1, 0.346731, 45.1812, 9.53698, 16.9391, -56.3237, 107.174
1.352, 1, 0.423415, 45.1875, 9.48705, 17.1099, -56.3136, 107.041
1.356, 1, 0.500082, 45.1938, 9.43714, 17.2806, -56.3035, 106.908
1.36, 1, 0.576733, 45.2002, 9.38724, 17.4513, -56.2935, 106.775
1.364, 1, 0.653367, 45.2065, 9.33735, 17.6219, -56.2834, 106.641
1.368, 1, 0.729984, 45.2128, 9.28748, 17.7925, -56.2733, 106.508
1.372, 1, 0.806582, 45.2191, 9.23761, 17.9631, -56.2632, 106.375
1.376, 1, 0.883161, 45.2255, 9.18776, 18.1336, -56.2531, 106.242
1.38, 1, 0.959721, 45.2318, 9.13792, 18.3041, -56.243, 106.109
1.384, 1, 1.03626, 45.2381, 9.08809, 18.4746, -56.2329, 105.976
1.388, 1, 1.11278, 45.2444, 9.03828, 18.6449, -56.2229, 105.843
1.392, 1, 1.18928, 45.2507, 8.98848, 18.8153, -56.2128, 105.71
1.396, 1, 1.26575, 45.257, 8.9387, 18.9856, -56.2027, 105.577
1.4, 1, 1.3422, 45.2634, 8.88893, 19.1558, -56.1927, 105.444
1.404, 1, 1.41863, 45.2697, 8.83917, 19.326, -56.1826, 105.312
1.408, 1, 1.49503, 45.276, 8.78943, 19.4961, -56.1725, 105.179
1.412, 1, 1.57141, 45.2823, 8.7397, 19.6662, -56.1625, 105.046
1.416, 1, 1.64777, 45.2886, 8.68999, 19.8363, -56.1524, 104.913
1.42, 1, 1.7241, 45.2949, 8.6403, 20.0062, -56.1424, 104.781
1.424, 1, 1.8004, 45.3012, 8.59063, 20.1762, -56.1323, 104.648
1.428, 1, 1.87667, 45.3075, 8.54097, 20.346, -56.1223, 104.516
1.432, 1, 1.95292, 45.3138, 8.49133, 20.5158, -56.1122, 104.383
1.436, 1, 2.02914, 45.3201, 8.4417, 20.6855, -56.1022, 104.251
1.44, 1, 2.10533, 45.3264, 8.3921, 20.8552, -56.0922, 104.118
1.444, 1, 2.18149, 45.3327, 8.34251, 21.0248, -56.0821, 103.986
1.448, 1, 2.25762, 45.3389, 8.29295, 21.1944, -56.0721, 103.854
1.452, 1, 2.33373, 45.3452, 8.2434, 21.3638, -56.0621, 103.721
1.456, 1, 2.4098, 45.3515, 8.19387, 21.5332, -56.0521, 103.589
1.46, 1, 2.48584, 45.3578, 8.14437, 21.7026, -56.0421, 103.457
1.464, 1, 2.56185, 45.3641, 8.09488, 21.8718, -56.0321, 103.325
1.468, 1, 2.63782, 45.3703, 8.04542, 22.041, -56.0221, 103.193
1.472, 1, 2.71376, 45.3766, 7.99598, 22.2102, -56.0121, 103.061
1.476, 1, 2.78967, 45.3829, 7.94655, 22.3792, -56.0021, 102.929
1.48, 1, 2.86555, 45.3891, 7.89716, 22.5482, -55.9921, 102.797
1.484, 1, 2.94139, 45.3954, 7.84778, 22.7171, -55.9821, 102.665
1.488, 1, 3.01719, 45.4017, 7.79843, 22.8859, -55.9721, 102.534
1.492, 1, 3.09296, 45.4079, 7.7491, 23.0546, -55.9621, 102.402
1.496, 1, 3.16869, 45.4142, 7.6998, 23.2232, -55.9522, 102.27
1.5, 1, 3.24438, 45.4204, 7.65052, 23.3918, -55.9422, 102.139
1.504, 1, 3.32003, 45.4267, 7.60126, 23.5603, -55.9322, 102.007
1.508, 1, 3.39565, 45.4329, 7.55203, 23.7287, -55.9223, 101.876
1.512, 1, 3.47123, 45.4392, 7.50283, 23.897, -55.9123, 101.745
1.516, 1, 3.54676, 45.4454, 7.45365, 24.0652, -55.9024, 101.613
1.52, 1, 3.62226, 45.4516, 7.4045, 24.2333, -55.8924, 101.482
1.524, 1, 3.69772, 45.4579, 7.35537, 24.4013, -55.8825, 101.351
1.528, 1, 3.77313, 45.4641, 7.30627, 24.5693, -55.8726, 101.22
1.532, 1, 3.8485, 45.4703, 7.2572, 24.7371, -55.8626, 101.089
1.536, 1, 3.92383, 45.4765, 7.20816, 24.9049, -55.8527, 100.958
1.54, 1, 3.99912, 45.4827, 7.15915, 25.0725, -55.8428, 100.827
1.544, 1, 4.07436, 45.489, 7.11016, 25.2401, -55.8329, 100.697
1.548, 1, 4.14956, 45.4952, 7.0612, 25.4075, -55.823, 100.566
1.552, 1, 4.22471, 45.5014, 7.01228, 25.5749, -55.8131, 100.435
1.556, 1, 4.29982, 45.5076, 6.96338, 25.7421, -55.8032, 100.305
1.56, 1, 4.37488, 45.5138, 6.91451, 25.9093, -55.7933, 100.174
1.564, 1, 4.4499, 45.52, 6.86567, 26.0763, -55.7834, 100.044
1.568, 1, 4.52487, 45.5262, 6.81686, 26.2433, -55.7736, 99.9137
1.572, 1, 4.59979, 45.5323, 6.76809, 26.4101, -55.7637, 99.7835
1.576, 1, 4.67466, 45.5385, 6.71934, 26.5769, -55.7538, 99.6533
1.58, 1, 4.74949, 45.5447, 6.67063, 26.7435, -55.744, 99.5233
1.584, 1, 4.82426, 45.5509, 6.62195, 26.91, -55.7342, 99.3934
1.588, 1, 4.89899, 45.5571, 6.5733, 27.0764, -55.7243, 99.2635
1.592, 1, 4.97366, 45.5632, 6.52468, 27.2427, -55.7145, 99.1338
1.596, 1, 5.04829, 45.5694, 6.4761, 27.4089, -55.7047, 99.0041
1.6, 1, 5.12286, 45.5755, 6.42755, 27.5749, -55.6948, 98.8745
1.604, 1, 5.19738, 45.5817, 6.37903, 27.7409, -55.685, 98.745
1.608, 1, 5.27185, 45.5878, 6.33055, 27.9067, -55.6752, 98.6156
1.612, 1, 5.34627, 45.594, 6.28211, 28.0724, -55.6654, 98.4863
1.616, 1, 5.42063, 45.6001, 6.23369, 28.238, -55.6556, 98.3571
1.62, 1, 5.49494, 45.6063, 6.18532, 28.4035, -55.6458, 98.2279
1.624, 1, 5.5692, 45.6124, 6.13697, 28.5688, -55.6361, 98.0989
1.628, 1, 5.6434, 45.6185, 6.08867, 28.7341, -55.6263, 97.9699
1.632, 1, 5.71755, 45.6246, 6.0404, 28.8992, -55.6165, 97.8411
1.636, 1, 5.79164, 45.6308, 5.99216, 29.0642, -55.6068, 97.7124
1.64, 1, 5.86568, 45.6369, 5.94396, 29.229, -55.597, 97.5837
1.644, 1, 5.93966, 45.643, 5.8958, 29.3938, -55.5873, 97.4552
1.648, 1, 6.01359, 45.6491, 5.84768, 29.5584, -55.5776, 97.3267
1.652, 1, 6.08746, 45.6552, 5.79959, 29.7228, -55.5678, 97.1983
1.656, 1, 6.16127, 45.6613, 5.75154, 29.8872, -55.5581, 97.0701
1.66, 1, 6.23502, 45.6674, 5.70353, 30.0514, -55.5484, 96.9419
1.664, 1, 6.30871, 45.6735, 5.65556, 30.2155, -55.5387, 96.8139
1.668, 1, 6.38235, 45.6795, 5.60763, 30.3795, -55.529, 96.686
1.672, 1, 6.45592, 45.6856, 5.55973, 30.5433, -55.5193, 96.5581
1.676, 1, 6.52944, 45.6917, 5.51187, 30.707, -55.5096, 96.4304
1.68, 1, 6.60289, 45.6978, 5.46405, 30.8705, -55.5, 96.3027
1.684, 1, 6.67629, 45.7038, 5.41627, 31.034, -55.4903, 96.1752
1.688, 1, 6.74962, 45.7099, 5.36854, 31.1973, -55.4806, 96.0478
1.692, 1, 6.82289, 45.7159, 5.32084, 31.3604, -55.471, 95.9205
1.696, 1, 6.89611, 45.722, 5.27318, 31.5234, -55.4614, 95.7932
1.7, 1, 6.96925, 45.728, 5.22556, 31.6863, -55.4517, 95.6661
1.704, 1, 7.04234, 45.734, 5.17798, 31.849, -55.4421, 95.5391
1.708, 1, 7.11536, 45.7401, 5.13044, 32.0117, -55.4325, 95.4123
1.712, 1, 7.18833, 45.7461, 5.08294, 32.1741, -55.4229, 95.2855
1.716, 1, 7.26122, 45.7521, 5.03549, 32.3364, -55.4133, 95.1588
1.72, 1, 7.33406, 45.7581, 4.98808, 32.4986, -55.4037, 95.0323
1.724, 1, 7.40683, 45.7641, 4.9407, 32.6606, -55.3941, 94.9058
1.728, 1, 7.47953, 45.7701, 4.89338, 32.8225, -55.3845, 94.7795
1.732, 1, 7.55217, 45.7761, 4.84609, 32.9843, -55.375, 94.6533
1.736, 1, 7.62475, 45.7821, 4.79884, 33.1459, -55.3654, 94.5272
1.74, 1, 7.69725, 45.7881, 4.75164, 33.3073, -55.3559, 94.4012
1.744, 1, 7.7697, 45.7941, 4.70448, 33.4686, -55.3463, 94.2753
1.748, 1, 7.84207, 45.8001, 4.65737, 33.6298, -55.3368, 94.1495
1.752, 1, 7.91438, 45.806, 4.6103, 33.7908, -55.3273, 94.0239
1.756, 1, 7.98663, 45.812, 4.56327, 33.9516, -55.3178, 93.8984
1.76, 1, 8.0588, 45.818, 4.51628, 34.1123, -55.3083, 93.773
1.764, 1, 8.13091, 45.8239, 4.46935, 34.2729, -55.2988, 93.6477
1.768, 1, 8.20295, 45.8299, 4.42245, 34.4333, -55.2893, 93.5225
1.772, 1, 8.27492, 45.8358, 4.3756, 34.5936, -55.2798, 93.3974
1.776, 1, 8.34683, 45.8418, 4.32879, 34.7537, -55.2704, 93.2725
1.78, 1, 8.41866, 45.8477, 4.28203, 34.9136, -55.2609, 93.1477
1.784, 1, 8.49043, 45.8536, 4.23532, 35.0734, -55.2515, 93.023
1.788, 1, 8.56212, 45.8595, 4.18865, 35.233, -55.242, 92.8984
1.792, 1, 8.63375, 45.8654, 4.14202, 35.3925, -55.2326, 92.774
1.796, 1, 8.7053, 45.8714, 4.09544, 35.5518, -55.2232, 92.6496
1.8, 1, 8.77678, 45.8773, 4.04891, 35.711, -55.2138, 92.5254
1.804, 1, 8.8482, 45.8832, 4.00242, 35.87, -55.2044, 92.4014
1.808, 1, 8.91954, 45.889, 3.95598, 36.0288, -55.195, 92.2774
1.812, 1, 8.99081, 45.8949, 3.90959, 36.1875, -55.1856, 92.1536
1.816, 1, 9.06201, 45.9008, 3.86324, 36.3461, -55.1762, 92.0299
1.82, 1, 9.13314, 45.9067, 3.81694, 36.5044, -55.1668, 91.9063
1.824, 1, 9.20419, 45.9125, 3.77069, 36.6626, -55.1575, 91.7828
1.828, 1, 9.27518, 45.9184, 3.72448, 36.8207, -55.1481, 91.6595
1.832, 1, 9.34609, 45.9243, 3.67833, 36.9785, -55.1388, 91.5363
1.836, 1, 9.41692, 45.9301, 3.63222, 37.1363, -55.1295, 91.4132
1.84, 1, 9.48769, 45.936, 3.58615, 37.2938, -55.1202, 91.2903
1.844, 1, 9.55838, 45.9418, 3.54014, 37.4512, -55.1109, 91.1674
1.848, 1, 9.62899, 45.9476, 3.49417, 37.6084, -55.1016, 91.0447
1.852, 1, 9.69953, 45.9534, 3.44826, 37.7655, -55.0923, 90.9222
1.856, 1, 9.77, 45.9593, 3.40239, 37.9224, -55.083, 90.7998
1.86, 1, 9.84039, 45.9651, 3.35657, 38.0791, -55.0737, 90.6774
1.864, 1, 9.91071, 45.9709, 3.31079, 38.2357, -55.0645, 90.5553
1.868, 1, 9.98095, 45.9767, 3.26507, 38.3921, -55.0552, 90.4332
1.872, 1, 10.0511, 45.9825, 3.2194, 38.5483, -55.046, 90.3113
1.876, 1, 10.1212, 45.9883, 3.17377, 38.7043, -55.0368, 90.1895
1.88, 1, 10.1912, 45.994, 3.1282, 38.8602, -55.0275, 90.0679
1.884, 1, 10.2612, 45.9998, 3.08267, 39.016, -55.0183, 89.9464
1.888, 1, 10.331, 46.0056, 3.0372, 39.1715, -55.0091, 89.825
1.892, 1, 10.4008, 46.0114, 2.99177, 39.3269, -54.9999, 89.7037
1.896, 1, 10.4705, 46.0171, 2.9464, 39.4821, -54.9908, 89.5826
1.9, 1, 10.5402, 46.0229, 2.90107, 39.6371, -54.9816, 89.4616
1.904, 1, 10.6097, 46.0286, 2.8558, 39.792, -54.9724, 89.3408
1.908, 1, 10.6792, 46.0343, 2.81057, 39.9467, -54.9633, 89.2201
1.912, 1, 10.7486, 46.0401, 2.7654, 40.1012, -54.9542, 89.0995
1.916, 1, 10.8179, 46.0458, 2.72027, 40.2555, -54.945, 88.979
1.92, 1, 10.8872, 46.0515, 2.6752, 40.4097, -54.9359, 88.8587
1.924, 1, 10.9564, 46.0572, 2.63018, 40.5637, -54.9268, 88.7386
1.928, 1, 11.0255, 46.0629, 2.5852, 40.7175, -54.9177, 88.6185
1.932, 1, 11.0945, 46.0686, 2.54028, 40.8712, -54.9086, 88.4986
1.936, 1, 11.1634, 46.0743, 2.49541, 41.0247, -54.8996, 88.3789
1.94, 1, 11.2323, 46.08, 2.4506, 41.178, -54.8905, 88.2592
1.944, 1, 11.3011, 46.0857, 2.40583, 41.3311, -54.8814, 88.1397
1.948, 1, 11.3698, 46.0914, 2.36111, 41.484, -54.8724, 88.0204
1.952, 1, 11.4384, 46.097, 2.31645, 41.6368, -54.8634, 87.9012
1.956, 1, 11.5069, 46.1027, 2.27183, 41.7894, -54.8543, 87.7821
1.96, 1, 11.5754, 46.1083, 2.22727, 41.9418, -54.8453, 87.6631
1.964, 1, 11.6438, 46.114, 2.18276, 42.0941, -54.8363, 87.5443
1.968, 1, 11.7121, 46.1196, 2.1383, 42.2462, -54.8273, 87.4257
1.972, 1, 11.7803, 46.1252, 2.09389, 42.3981, -54.8183, 87.3071
1.976, 1, 11.8485, 46.1309, 2.04954, 42.5498, -54.8094, 87.1887
1.98, 1, 11.9166, 46.1365, 2.00523, 42.7013, -54.8004, 87.0705
1.984, 1, 11.9846, 46.1421, 1.96098, 42.8527, -54.7915, 86.9523
1.988, 1, 12.0525, 46.1477, 1.91678, 43.0039, -54.7825, 86.8344
1.992, 1, 12.1203, 46.1533, 1.87263, 43.1549, -54.7736, 86.7165
1.996, 1, 12.1881, 46.1589, 1.82853, 43.3057, -54.7647, 86.5988
1.999, 1, 12.2558, 46.1645, 1.78448, 43.4564, -54.7558, 86.4812
2.004, 1, 12.3233, 46.1701, 1.74049, 43.6069, -54.7469, 86.3638
2.008, 1, 12.3909, 46.1756, 1.69655, 43.7572, -54.738, 86.2465
2.012, 1, 12.4583, 46.1812, 1.65266, 43.9073, -54.7291, 86.1294
2.015, 1, 12.5257, 46.1868, 1.60882, 44.0572, -54.7202, 86.0124
2.019, 1, 12.5929, 46.1923, 1.56503, 44.207, -54.7114, 85.8955
2.024, 1, 12.6601, 46.1979, 1.5213, 44.3566, -54.7025, 85.7787
2.028, 1, 12.7273, 46.2034, 1.47762, 44.506, -54.6937, 85.6621
2.031, 1, 12.7943, 46.209, 1.43399, 44.6553, -54.6849, 85.5457
2.036, 1, 12.8613, 46.2145, 1.39041, 44.8043, -54.6761, 85.4294
2.04, 1, 12.9281, 46.22, 1.34688, 44.9532, -54.6673, 85.3132
2.044, 1, 12.9949, 46.2255, 1.30341, 45.1019, -54.6585, 85.1972
2.048, 1, 13.0617, 46.231, 1.25999, 45.2504, -54.6497, 85.0812
2.051, 1, 13.1283, 46.2365, 1.21662, 45.3988, -54.6409, 84.9655
2.055, 1, 13.1948, 46.242, 1.1733, 45.5469, -54.6322, 84.8499
2.06, 1, 13.2613, 46.2475, 1.13004, 45.6949, -54.6234, 84.7344
2.064, 1, 13.3277, 46.253, 1.08682, 45.8427, -54.6147, 84.619
2.068, 1, 13.394, 46.2585, 1.04366, 45.9903, -54.6059, 84.5038
2.071, 1, 13.4603, 46.2639, 1.00056, 46.1378, -54.5972, 84.3888
2.076, 1, 13.5264, 46.2694, 0.957501, 46.2851, -54.5885, 84.2738
2.08, 1, 13.5925, 46.2748, 0.914497, 46.4322, -54.5798, 84.1591
2.084, 1, 13.6585, 46.2803, 0.871547, 46.5791, -54.5711, 84.0444
2.087, 1, 13.7244, 46.2857, 0.828648, 46.7258, -54.5625, 83.9299
2.092, 1, 13.7903, 46.2912, 0.785802, 46.8724, -54.5538, 83.8155
2.096, 1, 13.856, 46.2966, 0.743008, 47.0187, -54.5451, 83.7013
2.1, 1, 13.9217, 46.302, 0.700267, 47.1649, -54.5365, 83.5872
2.104, 1, 13.9873, 46.3074, 0.657578, 47.311, -54.5279, 83.4733
2.107, 1, 14.0528, 46.3128, 0.614942, 47.4568, -54.5192, 83.3595
2.111, 1, 14.1182, 46.3182, 0.572357, 47.6024, -54.5106, 83.2458
2.116, 1, 14.1836, 46.3236, 0.529826, 47.7479, -54.502, 83.1323
2.12, 1, 14.2489, 46.329, 0.487346, 47.8932, -54.4934, 83.0189
2.124, 1, 14.3141, 46.3344, 0.444919, 48.0383, -54.4848, 82.9057
2.127, 1, 14.3792, 46.3398, 0.402545, 48.1833, -54.4763, 82.7925
2.132, 1, 14.4442, 46.3451, 0.360223, 48.3281, -54.4677, 82.6796
2.136, 1, 14.5092, 46.3505, 0.317953, 48.4726, -54.4592, 82.5667
2.14, 1, 14.574, 46.3559, 0.275736, 48.617, -54.4506, 82.4541
2.143, 1, 14.6388, 46.3612, 0.233571, 48.7613, -54.4421, 82.3415
2.148, 1, 14.7035, 46.3666, 0.191458, 48.9053, -54.4336, 82.2291
2.152, 1, 14.7682, 46.3719, 0.149398, 49.0492, -54.4251, 82.1168
2.156, 1, 14.8327, 46.3772, 0.10739, 49.1929, -54.4166, 82.0047
2.16, 1, 14.8972, 46.3825, 0.0654343, 49.3364, -54.4081, 81.8927
2.163, 1, 14.9616, 46.3879, 0.0235311, 49.4797, -54.3996, 81.7809
2.168, 1, 15.0259, 46.3932, -0.0183198, 49.6229, -54.3912, 81.6692
2.172, 1, 15.0901, 46.3985, -0.0601185, 49.7658, -54.3827, 81.5576
2.176, 1, 15.1543, 46.4038, -0.101865, 49.9086, -54.3743, 81.4462
2.179, 1, 15.2183, 46.409, -0.143559, 50.0512, -54.3658, 81.3349
2.184, 1, 15.2823, 46.4143, -0.185201, 50.1937, -54.3574, 81.2237
2.188, 1, 15.3462, 46.4196, -0.22679, 50.3359, -54.349, 81.1127
2.192, 1, 15.4101, 46.4249, -0.268328, 50.478, -54.3406, 81.0018
2.196, 1, 15.4738, 46.4301, -0.309813, 50.6199, -54.3322, 80.8911
2.199, 1, 15.5375, 46.4354, -0.351246, 50.7616, -54.3238, 80.7805
2.204, 1, 15.6011, 46.4406, -0.392627, 50.9032, -54.3154, 80.6701
2.208, 1, 15.6646, 46.4459, -0.433956, 51.0445, -54.3071, 80.5597
2.212, 1, 15.728, 46.4511, -0.475232, 51.1857, -54.2987, 80.4496
2.216, 1, 15.7913, 46.4563, -0.516457, 51.3267, -54.2904, 80.3395
2.219, 1, 15.8546, 46.4616, -0.557629, 51.4676, -54.2821, 80.2296
2.224, 1, 15.9178, 46.4668, -0.59875, 51.6082, -54.2738, 80.1199
2.228, 1, 15.9809, 46.472, -0.639818, 51.7487, -54.2655, 80.0102
2.232, 1, 16.0439, 46.4772, -0.680835, 51.889, -54.2572, 79.9008
2.235, 1, 16.1069, 46.4824, -0.721799, 52.0291, -54.2489, 79.7914
2.24, 1, 16.1698, 46.4876, -0.762712, 52.1691, -54.2406, 79.6822
2.244, 1, 16.2326, 46.4928, -0.803573, 52.3088, -54.2323, 79.5731
2.248, 1, 16.2953, 46.4979, -0.844383, 52.4484, -54.2241, 79.4642
2.252, 1, 16.3579, 46.5031, -0.885141, 52.5878, -54.2158, 79.3554
2.255, 1, 16.4205, 46.5083, -0.925847, 52.7271, -54.2076, 79.2468
2.259, 1, 16.483, 46.5134, -0.966502, 52.8661, -54.1994, 79.1382
2.264, 1, 16.5454, 46.5186, -1.00711, 53.005, -54.1912, 79.0299
2.268, 1, 16.6077, 46.5237, -1.04766, 53.1437, -54.183, 78.9216
2.272, 1, 16.6699, 46.5289, -1.08816, 53.2823, -54.1748, 78.8135
2.275, 1, 16.7321, 46.534, -1.12861, 53.4206, -54.1666, 78.7055
2.28, 1, 16.7942, 46.5391, -1.16901, 53.5588, -54.1584, 78.5977
2.284, 1, 16.8562, 46.5442, -1.20936, 53.6968, -54.1503, 78.49
2.288, 1, 16.9181, 46.5493, -1.24965, 53.8347, -54.1421, 78.3824
2.291, 1, 16.9799, 46.5544, -1.2899, 53.9723, -54.134, 78.275
2.296, 1, 17.0417, 46.5595, -1.3301, 54.1098, -54.1258, 78.1677
2.3, 1, 17.1034, 46.5646, -1.37024, 54.2471, -54.1177, 78.0606
2.304, 1, 17.165, 46.5697, -1.41033, 54.3843, -54.1096, 77.9535
2.308, 1, 17.2266, 46.5748, -1.45038, 54.5212, -54.1015, 77.8467
2.311, 1, 17.288, 46.5799, -1.49037, 54.658, -54.0934, 77.7399
2.316, 1, 17.3494, 46.5849, -1.53032, 54.7947, -54.0853, 77.6333
2.32, 1, 17.4107, 46.59, -1.57021, 54.9311, -54.0773, 77.5268
2.324, 1, 17.472, 46.595, -1.61005, 55.0674, -54.0692, 77.4204
2.328, 1, 17.5331, 46.6001, -1.64984, 55.2035, -54.0612, 77.3142
2.331, 1, 17.5942, 46.6051, -1.68959, 55.3395, -54.0531, 77.2081
2.336, 1, 17.6552, 46.6102, -1.72928, 55.4752, -54.0451, 77.1022
2.34, 1, 17.7161, 46.6152, -1.76892, 55.6108, -54.0371, 76.9964
2.344, 1, 17.777, 46.6202, -1.80852, 55.7463, -54.0291, 76.8907
2.347, 1, 17.8377, 46.6252, -1.84806, 55.8815, -54.0211, 76.7851
2.352, 1, 17.8984, 46.6302, -1.88755, 56.0166, -54.0131, 76.6797
2.356, 1, 17.959, 46.6352, -1.927, 56.1515, -54.0051, 76.5744
2.36, 1, 18.0196, 46.6402, -1.96639, 56.2863, -53.9971, 76.4693
2.364, 1, 18.0801, 46.6452, -2.00574, 56.4209, -53.9892, 76.3643
2.367, 1, 18.1404, 46.6502, -2.04504, 56.5553, -53.9812, 76.2594
2.372, 1, 18.2008, 46.6552, -2.08428, 56.6895, -53.9733, 76.1546
2.376, 1, 18.261, 46.6602, -2.12348, 56.8236, -53.9654, 76.05
2.38, 1, 18.3212, 46.6651, -2.16263, 56.9575, -53.9575, 75.9455
2.383, 1, 18.3813, 46.6701, -2.20173, 57.0913, -53.9495, 75.8411
2.388, 1, 18.4413, 46.675, -2.24078, 57.2249, -53.9416, 75.7369
2.392, 1, 18.5012, 46.68, -2.27979, 57.3583, -53.9338, 75.6328
2.396, 1, 18.5611, 46.6849, -2.31874, 57.4915, -53.9259, 75.5288
2.4, 1, 18.6209, 46.6899, -2.35765, 57.6246, -53.918, 75.4249
2.403, 1, 18.6806, 46.6948, -2.3965, 57.7575, -53.9101, 75.3212
2.408, 1, 18.7402, 46.6997, -2.43531, 57.8903, -53.9023, 75.2176
2.412, 1, 18.7998, 46.7046, -2.47407, 58.0228, -53.8945, 75.1142
2.416, 1, 18.8593, 46.7095, -2.51278, 58.1552, -53.8866, 75.0108
2.42, 1, 18.9187, 46.7144, -2.55145, 58.2875, -53.8788, 74.9076
2.423, 1, 18.9781, 46.7193, -2.59006, 58.4196, -53.871, 74.8045
2.428, 1, 19.0373, 46.7242, -2.62863, 58.5515, -53.8632, 74.7016
2.432, 1, 19.0965, 46.7291, -2.66715, 58.6833, -53.8554, 74.5988
2.436, 1, 19.1557, 46.734, -2.70562, 58.8149, -53.8476, 74.4961
2.439, 1, 19.2147, 46.7389, -2.74405, 58.9463, -53.8399, 74.3935
2.444, 1, 19.2737, 46.7437, -2.78242, 59.0776, -53.8321, 74.2911
2.448, 1, 19.3326, 46.7486, -2.82075, 59.2087, -53.8243, 74.1888
2.452, 1, 19.3914, 46.7535, -2.85903, 59.3396, -53.8166, 74.0866
2.456, 1, 19.4502, 46.7583, -2.89727, 59.4704, -53.8089, 73.9845
2.459, 1, 19.5089, 46.7631, -2.93546, 59.601, -53.8011, 73.8826
2.464, 1, 19.5675, 46.768, -2.97359, 59.7315, -53.7934, 73.7808
2.468, 1, 19.626, 46.7728, -3.01169, 59.8618, -53.7857, 73.6791
2.472, 1, 19.6845, 46.7776, -3.04973, 59.9919, -53.778, 73.5776
2.476, 1, 19.7429, 46.7825, -3.08773, 60.1219, -53.7703, 73.4761
2.479, 1, 19.8012, 46.7873, -3.12568, 60.2517, -53.7627, 73.3748
2.484, 1, 19.8595, 46.7921, -3.16359, 60.3813, -53.755, 73.2737
2.488, 1, 19.9177, 46.7969, -3.20144, 60.5108, -53.7473, 73.1726
2.492, 1, 19.9758, 46.8017, -3.23925, 60.6402, -53.7397, 73.0717
2.495, 1, 20.0338, 46.8065, -3.27702, 60.7693, -53.7321, 72.9709
2.5, 1, 20.0918, 46.8113, -3.31474, 60.8984, -53.7244, 72.8702
2.504, 1, 20.1497, 46.816, -3.35241, 61.0272, -53.7168, 72.7696
2.508, 1, 20.2075, 46.8208, -3.39003, 61.1559, -53.7092, 72.6692
2.512, 1, 20.2652, 46.8256, -3.42761, 61.2845, -53.7016, 72.5689
2.515, 1, 20.3229, 46.8303, -3.46515, 61.4128, -53.694, 72.4687
2.52, 1, 20.3805, 46.8351, -3.50263, 61.5411, -53.6864, 72.3687
2.524, 1, 20.4381, 46.8398, -3.54007, 61.6691, -53.6789, 72.2687
2.528, 1, 20.4955, 46.8446, -3.57747, 61.7971, -53.6713, 72.1689
2.531, 1, 20.5529, 46.8493, -3.61482, 61.9248, -53.6637, 72.0692
2.536, 1, 20.6103, 46.854, -3.65212, 62.0524, -53.6562, 71.9696
2.54, 1, 20.6675, 46.8588, -3.68938, 62.1798, -53.6487, 71.8702
2.544, 1, 20.7247, 46.8635, -3.72659, 62.3071, -53.6411, 71.7709
2.548, 1, 20.7818, 46.8682, -3.76376, 62.4343, -53.6336, 71.6716
2.551, 1, 20.8389, 46.8729, -3.80088, 62.5612, -53.6261, 71.5726
2.556, 1, 20.8959, 46.8776, -3.83795, 62.6881, -53.6186, 71.4736
2.56, 1, 20.9528, 46.8823, -3.87498, 62.8147, -53.6111, 71.3748
2.564, 1, 21.0096, 46.887, -3.91197, 62.9412, -53.6036, 71.276
2.568, 1, 21.0664, 46.8917, -3.94891, 63.0676, -53.5962, 71.1774
2.571, 1, 21.1231, 46.8964, -3.98581, 63.1938, -53.5887, 71.0789
2.576, 1, 21.1797, 46.901, -4.02266, 63.3199, -53.5812, 70.9806
2.58, 1, 21.2363, 46.9057, -4.05946, 63.4457, -53.5738, 70.8823
2.584, 1, 21.2928, 46.9104, -4.09622, 63.5715, -53.5664, 70.7842
2.587, 1, 21.3492, 46.915, -4.13294, 63.6971, -53.5589, 70.6862
2.592, 1, 21.4056, 46.9197, -4.16961, 63.8225, -53.5515, 70.5883
2.596, 1, 21.4619, 46.9243, -4.20624, 63.9478, -53.5441, 70.4905
2.6, 1, 21.5181, 46.929, -4.24283, 64.073, -53.5367, 70.3929
2.604, 1, 21.5743, 46.9336, -4.27936, 64.1979, -53.5293, 70.2953
2.607, 1, 21.6304, 46.9382, -4.31586, 64.3228, -53.5219, 70.1979
2.612, 1, 21.6864, 46.9428, -4.35231, 64.4475, -53.5146, 70.1006
2.616, 1, 21.7424, 46.9475, -4.38872, 64.572, -53.5072, 70.0034
2.62, 1, 21.7983, 46.9521, -4.42509, 64.6964, -53.4999, 69.9064
2.624, 1, 21.8541, 46.9567, -4.46141, 64.8206, -53.4925, 69.8094
2.627, 1, 21.9098, 46.9613, -4.49768, 64.9447, -53.4852, 69.7126
2.632, 1, 21.9655, 46.9659, -4.53392, 65.0687, -53.4778, 69.6159
2.636, 1, 22.0212, 46.9705, -4.57011, 65.1925, -53.4705, 69.5193
2.64, 1, 22.0767, 46.975, -4.60626, 65.3161, -53.4632, 69.4228
2.643, 1, 22.1322, 46.9796, -4.64236, 65.4396, -53.4559, 69.3264
2.648, 1, 22.1876, 46.9842, -4.67843, 65.563, -53.4486, 69.2301
2.652, 1, 22.243, 46.9888, -4.71445, 65.6862, -53.4413, 69.134
2.656, 1, 22.2983, 46.9933, -4.75042, 65.8092, -53.434, 69.038
2.66, 1, 22.3535, 46.9979, -4.78636, 65.9322, -53.4268, 68.942
2.663, 1, 22.4087, 47.0024, -4.82225, 66.0549, -53.4195, 68.8462
2.668, 1, 22.4638, 47.007, -4.8581, 66.1776, -53.4123, 68.7505
2.672, 1, 22.5188, 47.0115, -4.89391, 66.3, -53.405, 68.6549
2.676, 1, 22.5738, 47.0161, -4.92968, 66.4224, -53.3978, 68.5595
2.679, 1, 22.6287, 47.0206, -4.9654, 66.5446, -53.3906, 68.4641
2.684, 1, 22.6835, 47.0251, -5.00108, 66.6666, -53.3833, 68.3689
2.688, 1, 22.7383, 47.0296, -5.03672, 66.7885, -53.3761, 68.2737
2.692, 1, 22.793, 47.0341, -5.07232, 66.9103, -53.3689, 68.1787
2.696, 1, 22.8477, 47.0387, -5.10788, 67.0319, -53.3617, 68.0838
2.699, 1, 22.9023, 47.0432, -5.14339, 67.1534, -53.3546, 67.989
2.704, 1, 22.9568, 47.0477, -5.17887, 67.2748, -53.3474, 67.8943
2.708, 1, 23.0112, 47.0522, -5.2143, 67.396, -53.3402, 67.7997
2.712, 1, 23.0656, 47.0566, -5.24969, 67.517, -53.3331, 67.7053
2.716, 1, 23.12, 47.0611, -5.28504, 67.6379, -53.3259, 67.6109
2.719, 1, 23.1742, 47.0656, -5.32035, 67.7587, -53.3188, 67.5167
2.724, 1, 23.2284, 47.0701, -5.35562, 67.8794, -53.3116, 67.4225
2.728, 1, 23.2826, 47.0745, -5.39085, 67.9999, -53.3045, 67.3285
2.732, 1, 23.3367, 47.079, -5.42604, 68.1202, -53.2974, 67.2346
2.735, 1, 23.3907, 47.0835, -5.46118, 68.2404, -53.2903, 67.1407
2.74, 1, 23.4446, 47.0879, -5.49629, 68.3605, -53.2832, 67.047
2.744, 1, 23.4985, 47.0924, -5.53136, 68.4805, -53.2761, 66.9534
2.748, 1, 23.5524, 47.0968, -5.56638, 68.6003, -53.269, 66.8599
2.752, 1, 23.6061, 47.1012, -5.60137, 68.72, -53.2619, 66.7665
2.755, 1, 23.6599, 47.1057, -5.63631, 68.8395, -53.2549, 66.6733
2.76, 1, 23.7135, 47.1101, -5.67122, 68.9589, -53.2478, 66.5801
2.764, 1, 23.7671, 47.1145, -5.70609, 69.0782, -53.2408, 66.487
2.768, 1, 23.8206, 47.1189, -5.74091, 69.1973, -53.2337, 66.3941
2.772, 1, 23.8741, 47.1233, -5.7757, 69.3163, -53.2267, 66.3012
2.775, 1, 23.9275, 47.1278, -5.81045, 69.4351, -53.2196, 66.2085
2.78, 1, 23.9808, 47.1322, -5.84515, 69.5538, -53.2126, 66.1158
2.784, 1, 24.0341, 47.1366, -5.87982, 69.6724, -53.2056, 66.0233
2.788, 1, 24.0873, 47.1409, -5.91445, 69.7909, -53.1986, 65.9308
2.791, 1, 24.1405, 47.1453, -5.94904, 69.9092, -53.1916, 65.8385
2.796, 1, 24.1936, 47.1497, -5.98359, 70.0274, -53.1846, 65.7463
2.8, 1, 24.2466, 47.1541, -6.0181, 70.1454, -53.1776, 65.6542
2.804, 1, 24.2996, 47.1585, -6.05258, 70.2634, -53.1707, 65.5621
2.808, 1, 24.3526, 47.1628, -6.08701, 70.3811, -53.1637, 65.4702
2.811, 1, 24.4054, 47.1672, -6.12141, 70.4988, -53.1567, 65.3784
2.816, 1, 24.4582, 47.1716, -6.15576, 70.6163, -53.1498, 65.2867
2.82, 1, 24.511, 47.1759, -6.19008, 70.7337, -53.1429, 65.1951
2.824, 1, 24.5637, 47.1802, -6.22436, 70.851, -53.1359, 65.1036
2.828, 1, 24.6163, 47.1846, -6.2586, 70.9681, -53.129, 65.0122
2.831, 1, 24.6688, 47.1889, -6.29281, 71.0851, -53.1221, 64.9209
2.836, 1, 24.7214, 47.1933, -6.32697, 71.202, -53.1152, 64.8297
2.84, 1, 24.7738, 47.1976, -6.3611, 71.3187, -53.1083, 64.7386
2.844, 1, 24.8262, 47.2019, -6.39519, 71.4353, -53.1014, 64.6476
2.847, 1, 24.8785, 47.2062, -6.42924, 71.5518, -53.0945, 64.5567
2.852, 1, 24.9308, 47.2105, -6.46325, 71.6681, -53.0876, 64.4659
2.856, 1, 24.983, 47.2149, -6.49723, 71.7843, -53.0807, 64.3752
2.86, 1, 25.0352, 47.2192, -6.53117, 71.9004, -53.0739, 64.2846
2.864, 1, 25.0873, 47.2234, -6.56507, 72.0164, -53.067, 64.1941
2.867, 1, 25.1393, 47.2277, -6.59893, 72.1322, -53.0602, 64.1038
2.872, 1, 25.1913, 47.232, -6.63276, 72.2479, -53.0533, 64.0135
2.876, 1, 25.2433, 47.2363, -6.66655, 72.3635, -53.0465, 63.9233
2.88, 1, 25.2951, 47.2406, -6.7003, 72.479, -53.0397, 63.8332
2.883, 1, 25.347, 47.2449, -6.73401, 72.5943, -53.0328, 63.7432
2.888, 1, 25.3987, 47.2491, -6.76769, 72.7095, -53.026, 63.6533
2.892, 1, 25.4504, 47.2534, -6.80133, 72.8245, -53.0192, 63.5635
2.896, 1, 25.5021, 47.2577, -6.83494, 72.9395, -53.0124, 63.4738
2.9, 1, 25.5537, 47.2619, -6.8685, 73.0543, -53.0056, 63.3842
2.903, 1, 25.6052, 47.2662, -6.90203, 73.169, -52.9989, 63.2947
2.908, 1, 25.6567, 47.2704, -6.93553, 73.2836, -52.9921, 63.2053
2.912, 1, 25.7081, 47.2747, -6.96899, 73.398, -52.9853, 63.116
2.916, 1, 25.7595, 47.2789, -7.00241, 73.5123, -52.9786, 63.0268
2.92, 1, 25.8108, 47.2831, -7.03579, 73.6265, -52.9718, 62.9376
2.923, 1, 25.862, 47.2874, -7.06914, 73.7406, -52.9651, 62.8486
2.928, 1, 25.9132, 47.2916, -7.10245, 73.8546, -52.9583, 62.7597
2.932, 1, 25.9644, 47.2958, -7.13573, 73.9684, -52.9516, 62.6709
2.936, 1, 26.0155, 47.3, -7.16897, 74.0821, -52.9449, 62.5821
2.939, 1, 26.0665, 47.3042, -7.20218, 74.1957, -52.9381, 62.4935
2.944, 1, 26.1175, 47.3085, -7.23535, 74.3091, -52.9314, 62.405
2.948, 1, 26.1684, 47.3127, -7.26848, 74.4225, -52.9247, 62.3165
2.952, 1, 26.2193, 47.3169, -7.30158, 74.5357, -52.918, 62.2282
2.956, 1, 26.2701, 47.321, -7.33464, 74.6488, -52.9114, 62.1399
2.959, 1, 26.3209, 47.3252, -7.36767, 74.7618, -52.9047, 62.0518
2.964, 1, 26.3716, 47.3294, -7.40066, 74.8746, -52.898, 61.9637
2.968, 1, 26.4222, 47.3336, -7.43362, 74.9873, -52.8913, 61.8757
2.972, 1, 26.4728, 47.3378, -7.46654, 75.1, -52.8847, 61.7878
2.976, 1, 26.5234, 47.3419, -7.49942, 75.2124, -52.878, 61.7001
2.98, 1, 26.5739, 47.3461, -7.53228, 75.3248, -52.8714, 61.6124
2.984, 1, 26.6243, 47.3503, -7.56509, 75.4371, -52.8647, 61.5248
2.988, 1, 26.6747, 47.3544, -7.59788, 75.5492, -52.8581, 61.4373
2.992, 1, 26.725, 47.3586, -7.63062, 75.6612, -52.8515, 61.3498
2.995, 1, 26.7753, 47.3627, -7.66334, 75.7731, -52.8449, 61.2625
3, 1, 26.8255, 47.3669, -7.69602, 75.8849, -52.8383, 61.1753
3.004, 1, 26.8757, 47.371, -7.72866, 75.9966, -52.8317, 61.0882
3.008, 1, 26.9258, 47.3751, -7.76127, 76.1081, -52.8251, 61.0011
3.012, 1, 26.9759, 47.3793, -7.79385, 76.2196, -52.8185, 60.9142
3.015, 1, 27.0259, 47.3834, -7.82639, 76.3309, -52.8119, 60.8273
3.02, 1, 27.0759, 47.3875, -7.8589, 76.4421, -52.8053, 60.7405
3.024, 1, 27.1258, 47.3916, -7.89137, 76.5532, -52.7987, 60.6538
3.028, 1, 27.1756, 47.3958, -7.92381, 76.6641, -52.7922, 60.5672
3.031, 1, 27.2255, 47.3999, -7.95622, 76.775, -52.7856, 60.4807
3.036, 1, 27.2752, 47.404, -7.9886, 76.8857, -52.7791, 60.3943
3.04, 1, 27.3249, 47.4081, -8.02094, 76.9963, -52.7725, 60.308
3.044, 1, 27.3746, 47.4122, -8.05324, 77.1068, -52.766, 60.2217
3.048, 1, 27.4242, 47.4163, -8.08552, 77.2172, -52.7595, 60.1356
3.051, 1, 27.4737, 47.4203, -8.11776, 77.3275, -52.753, 60.0495
3.056, 1, 27.5232, 47.4244, -8.14996, 77.4377, -52.7464, 59.9636
3.06, 1, 27.5727, 47.4285, -8.18214, 77.5478, -52.7399, 59.8777
3.064, 1, 27.6221, 47.4326, -8.21428, 77.6577, -52.7334, 59.7919
3.068, 1, 27.6714, 47.4367, -8.24639, 77.7675, -52.7269, 59.7062
3.071, 1, 27.7207, 47.4407, -8.27847, 77.8773, -52.7205, 59.6206
3.076, 1, 27.77, 47.4448, -8.31051, 77.9869, -52.714, 59.535
3.08, 1, 27.8192, 47.4488, -8.34252, 78.0964, -52.7075, 59.4496
3.084, 1, 27.8683, 47.4529, -8.3745, 78.2057, -52.701, 59.3642
3.087, 1, 27.9174, 47.457, -8.40645, 78.315, -52.6946, 59.2789
3.092, 1, 27.9665, 47.461, -8.43836, 78.4242, -52.6881, 59.1938
3.096, 1, 28.0155, 47.465, -8.47024, 78.5332, -52.6817, 59.1086
3.1, 1, 28.0644, 47.4691, -8.50209, 78.6422, -52.6752, 59.0236
3.104, 1, 28.1133, 47.4731, -8.53391, 78.751, -52.6688, 58.9387
3.107, 1, 28.1622, 47.4771, -8.56569, 78.8597, -52.6624, 58.8539
3.112, 1, 28.211, 47.4812, -8.59745, 78.9684, -52.6559, 58.7691
3.116, 1, 28.2598, 47.4852, -8.62917, 79.0769, -52.6495, 58.6844
3.12, 1, 28.3085, 47.4892, -8.66086, 79.1853, -52.6431, 58.5998
3.124, 1, 28.3571, 47.4932, -8.69252, 79.2936, -52.6367, 58.5153
3.128, 1, 28.4057, 47.4972, -8.72415, 79.4018, -52.6303, 58.4309
3.132, 1, 28.4543, 47.5013, -8.75574, 79.5098, -52.6239, 58.3466
3.136, 1, 28.5028, 47.5053, -8.78731, 79.6178, -52.6175, 58.2623
3.14, 1, 28.5513, 47.5093, -8.81884, 79.7257, -52.6112, 58.1781
3.143, 1, 28.5997, 47.5132, -8.85034, 79.8334, -52.6048, 58.094
3.148, 1, 28.6481, 47.5172, -8.88181, 79.9411, -52.5984, 58.01
3.152, 1, 28.6964, 47.5212, -8.91325, 80.0486, -52.5921, 57.9261
3.156, 1, 28.7447, 47.5252, -8.94466, 80.1561, -52.5857, 57.8423
3.16, 1, 28.7929, 47.5292, -8.97604, 80.2634, -52.5794, 57.7585
3.163, 1, 28.8411, 47.5332, -9.00739, 80.3706, -52.573, 57.6748
3.168, 1, 28.8892, 47.5371, -9.03871, 80.4777, -52.5667, 57.5912
3.172, 1, 28.9373, 47.5411, -9.06999, 80.5848, -52.5604, 57.5077
3.176, 1, 28.9853, 47.5451, -9.10125, 80.6917, -52.554, 57.4243
3.179, 1, 29.0333, 47.549, -9.13247, 80.7985, -52.5477, 57.3409
3.184, 1, 29.0813, 47.553, -9.16367, 80.9052, -52.5414, 57.2577
3.188, 1, 29.1292, 47.5569, -9.19483, 81.0118, -52.5351, 57.1745
3.192, 1, 29.177, 47.5609, -9.22597, 81.1183, -52.5288, 57.0914
3.196, 1, 29.2248, 47.5648, -9.25707, 81.2247, -52.5225, 57.0084
3.199, 1, 29.2726, 47.5688, -9.28814, 81.331, -52.5162, 56.9254
3.204, 1, 29.3203, 47.5727, -9.31919, 81.4372, -52.51, 56.8425
3.208, 1, 29.368, 47.5766, -9.3502, 81.5433, -52.5037, 56.7598
3.212, 1, 29.4156, 47.5806, -9.38119, 81.6492, -52.4974, 56.677
3.216, 1, 29.4632, 47.5845, -9.41214, 81.7551, -52.4911, 56.5944
3.22, 1, 29.5107, 47.5884, -9.44307, 81.8609, -52.4849, 56.5119
3.224, 1, 29.5582, 47.5923, -9.47396, 81.9666, -52.4786, 56.4294
3.228, 1, 29.6056, 47.5962, -9.50483, 82.0722, -52.4724, 56.347
3.232, 1, 29.653, 47.6001, -9.53566, 82.1777, -52.4662, 56.2647
3.235, 1, 29.7004, 47.6041, -9.56647, 82.283, -52.4599, 56.1825
3.24, 1, 29.7477, 47.608, -9.59725, 82.3883, -52.4537, 56.1003
3.244, 1, 29.7949, 47.6119, -9.628, 82.4935, -52.4475, 56.0182
3.248, 1, 29.8421, 47.6158, -9.65872, 82.5986, -52.4413, 55.9362
3.252, 1, 29.8893, 47.6196, -9.68941, 82.7035, -52.4351, 55.8543
3.255, 1, 29.9364, 47.6235, -9.72007, 82.8084, -52.4289, 55.7725
3.26, 1, 29.9835, 47.6274, -9.7507, 82.9132, -52.4227, 55.6907
3.264, 1, 30.0305, 47.6313, -9.7813, 83.0179, -52.4165, 55.609
3.268, 1, 30.0775, 47.6352, -9.81188, 83.1225, -52.4103, 55.5274
3.272, 1, 30.1245, 47.639, -9.84243, 83.227, -52.4041, 55.4459
3.276, 1, 30.1714, 47.6429, -9.87294, 83.3313, -52.3979, 55.3644
3.28, 1, 30.2182, 47.6468, -9.90343, 83.4356, -52.3918, 55.283
3.284, 1, 30.2651, 47.6506, -9.93389, 83.5398, -52.3856, 55.2017
3.288, 1, 30.3118, 47.6545, -9.96432, 83.6439, -52.3795, 55.1205
3.291, 1, 30.3586, 47.6584, -9.99473, 83.7479, -52.3733, 55.0393
3.296, 1, 30.4052, 47.6622, -10.0251, 83.8518, -52.3672, 54.9582
3.3, 1, 30.4519, 47.6661, -10.0554, 83.9556, -52.361, 54.8772
3.304, 1, 30.4985, 47.6699, -10.0858, 84.0593, -52.3549, 54.7963
3.308, 1, 30.545, 47.6737, -10.1161, 84.163, -52.3488, 54.7154
3.312, 1, 30.5916, 47.6776, -10.1463, 84.2665, -52.3426, 54.6347
3.316, 1, 30.638, 47.6814, -10.1766, 84.3699, -52.3365, 54.554
3.32, 1, 30.6844, 47.6852, -10.2068, 84.4732, -52.3304, 54.4733
3.324, 1, 30.7308, 47.6891, -10.2369, 84.5764, -52.3243, 54.3928
3.328, 1, 30.7772, 47.6929, -10.2671, 84.6796, -52.3182, 54.3123
3.332, 1, 30.8235, 47.6967, -10.2972, 84.7826, -52.3121, 54.2319
3.336, 1, 30.8697, 47.7005, -10.3273, 84.8856, -52.306, 54.1515
3.34, 1, 30.9159, 47.7043, -10.3574, 84.9884, -52.3, 54.0713
3.344, 1, 30.9621, 47.7082, -10.3874, 85.0912, -52.2939, 53.9911
3.347, 1, 31.0082, 47.712, -10.4174, 85.1939, -52.2878, 53.911
3.352, 1, 31.0543, 47.7158, -10.4474, 85.2964, -52.2817, 53.8309
3.356, 1, 31.1004, 47.7196, -10.4774, 85.3989, -52.2757, 53.751
3.36, 1, 31.1464, 47.7234, -10.5073, 85.5013, -52.2696, 53.6711
3.364, 1, 31.1923, 47.7271, -10.5372, 85.6036, -52.2636, 53.5912
3.368, 1, 31.2383, 47.7309, -10.5671, 85.7058, -52.2575, 53.5115
3.372, 1, 31.2841, 47.7347, -10.5969, 85.8079, -52.2515, 53.4318
3.376, 1, 31.33, 47.7385, -10.6268, 85.9099, -52.2455, 53.3522
3.38, 1, 31.3758, 47.7423, -10.6566, 86.0118, -52.2394, 53.2727
3.383, 1, 31.4215, 47.7461, -10.6863, 86.1137, -52.2334, 53.1932
3.388, 1, 31.4672, 47.7498, -10.7161, 86.2154, -52.2274, 53.1138
3.392, 1, 31.5129, 47.7536, -10.7458, 86.317, -52.2214, 53.0345
3.396, 1, 31.5586, 47.7574, -10.7755, 86.4186, -52.2154, 52.9552
3.4, 1, 31.6041, 47.7611, -10.8051, 86.5201, -52.2094, 52.876
3.403, 1, 31.6497, 47.7649, -10.8348, 86.6215, -52.2034, 52.7969
3.408, 1, 31.6952, 47.7686, -10.8644, 86.7227, -52.1974, 52.7179
3.412, 1, 31.7407, 47.7724, -10.894, 86.8239, -52.1914, 52.6389
3.416, 1, 31.7861, 47.7761, -10.9235, 86.9251, -52.1854, 52.56
3.42, 1, 31.8315, 47.7799, -10.9531, 87.0261, -52.1795, 52.4812
3.424, 1, 31.8769, 47.7836, -10.9826, 87.127, -52.1735, 52.4024
3.428, 1, 31.9222, 47.7874, -11.0121, 87.2278, -52.1675, 52.3237
3.432, 1, 31.9674, 47.7911, -11.0415, 87.3286, -52.1616, 52.2451
3.436, 1, 32.0127, 47.7948, -11.0709, 87.4293, -52.1556, 52.1665
3.439, 1, 32.0579, 47.7986, -11.1003, 87.5298, -52.1497, 52.0881
3.444, 1, 32.103, 47.8023, -11.1297, 87.6303, -52.1437, 52.0096
3.448, 1, 32.1481, 47.806, -11.1591, 87.7307, -52.1378, 51.9313
3.452, 1, 32.1932, 47.8097, -11.1884, 87.831, -52.1319, 51.853
3.456, 1, 32.2382, 47.8134, -11.2177, 87.9313, -52.1259, 51.7748
3.46, 1, 32.2832, 47.8171, -11.247, 88.0314, -52.12, 51.6967
3.464, 1, 32.3282, 47.8209, -11.2762, 88.1315, -52.1141, 51.6186
3.468, 1, 32.3731, 47.8246, -11.3055, 88.2314, -52.1082, 51.5406
3.472, 1, 32.418, 47.8283, -11.3347, 88.3313, -52.1023, 51.4626
3.476, 1, 32.4628, 47.832, -11.3638, 88.4311, -52.0964, 51.3847
3.48, 1, 32.5076, 47.8357, -11.393, 88.5308, -52.0905, 51.3069
3.484, 1, 32.5524, 47.8394, -11.4221, 88.6305, -52.0846, 51.2292
3.488, 1, 32.5971, 47.843, -11.4512, 88.73, -52.0787, 51.1515
3.492, 1, 32.6418, 47.8467, -11.4803, 88.8295, -52.0728, 51.0739
3.495, 1, 32.6864, 47.8504, -11.5093, 88.9288, -52.067, 50.9964
3.5, 1, 32.7311, 47.8541, -11.5384, 89.0281, -52.0611, 50.9189
3.504, 1, 32.7756, 47.8578, -11.5674, 89.1273, -52.0552, 50.8415
3.508, 1, 32.8202, 47.8614, -11.5963, 89.2264, -52.0494, 50.7641
3.512, 1, 32.8647, 47.8651, -11.6253, 89.3255, -52.0435, 50.6868
3.516, 1, 32.9091, 47.8688, -11.6542, 89.4244, -52.0377, 50.6096
3.52, 1, 32.9535, 47.8724, -11.6831, 89.5233, -52.0318, 50.5325
3.524, 1, 32.9979, 47.8761, -11.712, 89.622, -52.026, 50.4554
3.528, 1, 33.0423, 47.8798, -11.7408, 89.7207, -52.0201, 50.3784
3.531, 1, 33.0866, 47.8834, -11.7697, 89.8194, -52.0143, 50.3014
3.536, 1, 33.1309, 47.8871, -11.7985, 89.9179, -52.0085, 50.2245
3.54, 1, 33.1751, 47.8907, -11.8273, 90.0163, -52.0027, 50.1477
3.544, 1, 33.2193, 47.8944, -11.856, 90.1147, -51.9968, 50.0709
3.548, 1, 33.2634, 47.898, -11.8847, 90.213, -51.991, 49.9942
3.552, 1, 33.3076, 47.9017, -11.9135, 90.3112, -51.9852, 49.9176
3.556, 1, 33.3517, 47.9053, -11.9421, 90.4093, -51.9794, 49.841
3.56, 1, 33.3957, 47.9089, -11.9708, 90.5074, -51.9736, 49.7645
3.564, 1, 33.4397, 47.9126, -11.9994, 90.6053, -51.9678, 49.6881
3.568, 1, 33.4837, 47.9162, -12.0281, 90.7032, -51.962, 49.6117
3.572, 1, 33.5276, 47.9198, -12.0566, 90.801, -51.9563, 49.5354
3.576, 1, 33.5715, 47.9234, -12.0852, 90.8987, -51.9505, 49.4591
3.58, 1, 33.6154, 47.9271, -12.1138, 90.9963, -51.9447, 49.3829
3.584, 1, 33.6592, 47.9307, -12.1423, 91.0939, -51.9389, 49.3068
3.587, 1, 33.703, 47.9343, -12.1708, 91.1914, -51.9332, 49.2307
3.592, 1, 33.7468, 47.9379, -12.1992, 91.2888, -51.9274, 49.1547
3.596, 1, 33.7905, 47.9415, -12.2277, 91.3861, -51.9217, 49.0788
3.6, 1, 33.8342, 47.9451, -12.2561, 91.4833, -51.9159, 49.0029
3.604, 1, 33.8779, 47.9487, -12.2845, 91.5805, -51.9102, 48.9271
3.608, 1, 33.9215, 47.9523, -12.3129, 91.6776, -51.9044, 48.8513
3.612, 1, 33.9651, 47.9559, -12.3413, 91.7746, -51.8987, 48.7757
3.616, 1, 34.0086, 47.9595, -12.3696, 91.8715, -51.893, 48.7
3.62, 1, 34.0521, 47.9631, -12.3979, 91.9683, -51.8872, 48.6245
3.624, 1, 34.0956, 47.9667, -12.4262, 92.0651, -51.8815, 48.5489
3.628, 1, 34.1391, 47.9702, -12.4545, 92.1618, -51.8758, 48.4735
3.632, 1, 34.1825, 47.9738, -12.4827, 92.2584, -51.8701, 48.3981
3.636, 1, 34.2258, 47.9774, -12.5109, 92.3549, -51.8644, 48.3228
3.64, 1, 34.2692, 47.981, -12.5391, 92.4514, -51.8587, 48.2475
3.644, 1, 34.3125, 47.9846, -12.5673, 92.5477, -51.853, 48.1723
3.648, 1, 34.3557, 47.9881, -12.5954, 92.644, -51.8473, 48.0972
3.652, 1, 34.399, 47.9917, -12.6236, 92.7402, -51.8416, 48.0221
3.656, 1, 34.4422, 47.9953, -12.6517, 92.8364, -51.8359, 47.947
3.66, 1, 34.4853, 47.9988, -12.6798, 92.9325, -51.8302, 47.8721
3.664, 1, 34.5285, 48.0024, -12.7078, 93.0285, -51.8245, 47.7972
3.668, 1, 34.5716, 48.0059, -12.7359, 93.1244, -51.8189, 47.7223
3.672, 1, 34.6146, 48.0095, -12.7639, 93.2202, -51.8132, 47.6475
3.676, 1, 34.6576, 48.013, -12.7919, 93.316, -51.8075, 47.5728
3.679, 1, 34.7006, 48.0166, -12.8199, 93.4116, -51.8019, 47.4981
3.684, 1, 34.7436, 48.0201, -12.8478, 93.5073, -51.7962, 47.4235
3.688, 1, 34.7865, 48.0237, -12.8757, 93.6028, -51.7906, 47.349
3.692, 1, 34.8294, 48.0272, -12.9036, 93.6982, -51.7849, 47.2745
3.696, 1, 34.8723, 48.0307, -12.9315, 93.7936, -51.7793, 47.2
3.7, 1, 34.9151, 48.0343, -12.9594, 93.8889, -51.7737, 47.1257
3.704, 1, 34.9579, 48.0378, -12.9872, 93.9842, -51.768, 47.0514
3.708, 1, 35.0007, 48.0413, -13.015, 94.0793, -51.7624, 46.9771
3.712, 1, 35.0434, 48.0449, -13.0428, 94.1744, -51.7568, 46.9029
3.716, 1, 35.0861, 48.0484, -13.0706, 94.2694, -51.7512, 46.8288
3.72, 1, 35.1286, 48.0519, -13.0984, 94.3644, -51.7455, 46.7547
3.724, 1, 35.1709, 48.0555, -13.1261, 94.4592, -51.7399, 46.6806
3.728, 1, 35.2129, 48.059, -13.1539, 94.554, -51.7344, 46.6067
3.732, 1, 35.2542, 48.0627, -13.1817, 94.6486, -51.7288, 46.5329
3.735, 1, 35.2948, 48.0664, -13.2095, 94.743, -51.7232, 46.4592
3.74, 1, 35.3346, 48.0703, -13.2374, 94.8371, -51.7177, 46.3857
3.744, 1, 35.3734, 48.0742, -13.2652, 94.9306, -51.7123, 46.3127
3.748, 1, 35.4112, 48.0783, -13.2929, 95.0235, -51.7069, 46.2402
3.752, 1, 35.4478, 48.0825, -13.3205, 95.1153, -51.7016, 46.1684
3.756, 1, 35.4833, 48.0867, -13.3479, 95.2058, -51.6964, 46.0978
3.76, 1, 35.5175, 48.0911, -13.3748, 95.2944, -51.6914, 46.0285
3.764, 1, 35.5503, 48.0954, -13.4011, 95.3808, -51.6864, 45.961
3.768, 1, 35.5818, 48.0996, -13.4267, 95.4645, -51.6817, 45.8956
3.772, 1, 35.6121, 48.1037, -13.4513, 95.5448, -51.6771, 45.8329
3.776, 1, 35.6411, 48.1076, -13.4746, 95.6213, -51.6728, 45.7731
3.78, 1, 35.6688, 48.1112, -13.4966, 95.6935, -51.6687, 45.7167
3.784, 1, 35.6953, 48.1144, -13.5171, 95.7609, -51.6648, 45.664
3.788, 1, 35.7205, 48.1173, -13.5359, 95.8234, -51.6612, 45.6152
3.792, 1, 35.7443, 48.1198, -13.553, 95.8805, -51.6579, 45.5706
3.796, 1, 35.7669, 48.1219, -13.5682, 95.9322, -51.6549, 45.5302
3.8, 1, 35.7882, 48.1235, -13.5816, 95.9783, -51.6521, 45.4942
3.804, 1, 35.8082, 48.1247, -13.5932, 96.019, -51.6497, 45.4625
3.808, 1, 35.827, 48.1255, -13.603, 96.0544, -51.6475, 45.435
3.812, 1, 35.8446, 48.1258, -13.6111, 96.0847, -51.6455, 45.4114
3.816, 1, 35.8607, 48.1259, -13.6177, 96.1103, -51.6439, 45.3915
3.82, 1, 35.8753, 48.1258, -13.623, 96.1317, -51.6424, 45.3749
3.824, 1, 35.8883, 48.1255, -13.6272, 96.1492, -51.6412, 45.3613
3.828, 2, 35.8997, 48.125, -13.6304, 96.1634, -51.6402, 45.3503
3.832, 2, 35.9097, 48.1246, -13.6328, 96.1746, -51.6394, 45.3416
3.836, 2, 35.9184, 48.124, -13.6345, 96.1834, -51.6387, 45.3348
3.84, 2, 35.9261, 48.1235, -13.6357, 96.19, -51.6382, 45.3297
3.844, 2, 35.9329, 48.1229, -13.6364, 96.195, -51.6378, 45.3259
3.848, 2, 35.9387, 48.1224, -13.6368, 96.1987, -51.6374, 45.3231
3.852, 2, 35.9437, 48.122, -13.6371, 96.2013, -51.6372, 45.3211
3.856, 2, 35.9478, 48.1216, -13.6371, 96.2031, -51.637, 45.3197
3.86, 2, 35.9509, 48.1213, -13.6372, 96.2044, -51.6368, 45.3187
3.864, 2, 35.9532, 48.121, -13.6372, 96.2052, -51.6368, 45.3181
3.868, 2, 35.9549, 48.1209, -13.6372, 96.2058, -51.6367, 45.3177
3.872, 2, 35.956, 48.1208, -13.6372, 96.2062, -51.6366, 45.3174
3.876, 2, 35.9567, 48.1207, -13.6372, 96.2065, -51.6366, 45.3172
3.88, 2, 35.9573, 48.1207, -13.6372, 96.2066, -51.6366, 45.317
3.884, 2, 35.9576, 48.1206, -13.6372, 96.2068, -51.6366, 45.3169
3.888, 2, 35.9578, 48.1206, -13.6372, 96.2068, -51.6366, 45.3169
3.892, 2, 35.958, 48.1206, -13.6372, 96.2069, -51.6366, 45.3168
3.896, 2, 35.9581, 48.1206, -13.6372, 96.2069, -51.6366, 45.3168
3.9, 2, 35.9582, 48.1206, -13.6372, 96.207, -51.6366, 45.3168
3.904, 2, 35.9582, 48.1206, -13.6372, 96.207, -51.6366, 45.3168
3.908, 2, 35.9583, 48.1206, -13.6372, 96.207, -51.6366, 45.3168
3.912, 2, 35.9583, 48.1206, -13.6372, 96.207, -51.6365, 45.3167
3.916, 2, 35.9583, 48.1206, -13.6372, 96.207, -51.6365, 45.3167
3.92, 2, 35.9583, 48.1206, -13.6372, 96.207, -51.6365, 45.3167
3.924, 2, 35.9583, 48.1206, -13.6372, 96.207, -51.6365, 45.3167
3.928, 2, 35.9583, 48.1206, -13.6372, 96.207, -51.6365, 45.3167
3.932, 2, 35.9583, 48.1206, -13.6372, 96.207, -51.6365, 45.3167
3.936, 2, 35.9583, 48.1206, -13.6372, 96.207, -51.6365, 45.3167
3.94, 2, 35.9583, 48.1206, -13.6372, 96.207, -51.6365, 45.3167
3.944, 2, 35.9583, 48.1206, -13.6372, 96.207, -51.6365, 45.3167
3.948, 2, 35.9583, 48.1206, -13.6372, 96.207, -51.6365, 45.3167
3.952, 2, 35.9583, 48.1206, -13.6372, 96.207, -51.6365, 45.3167
3.956, 2, 35.9583, 48.1206, -13.6372, 96.207, -51.6365, 45.3167
3.96, 2, 35.9583, 48.1206, -13.6372, 96.207, -51.6365, 45.3167
3.964, 2, 35.9583, 48.1206, -13.6372, 96.207, -51.6365, 45.3167
3.968, 2, 35.9583, 48.1206, -13.6372, 96.207, -51.6365, 45.3167
3.972, 2, 35.9583, 48.1206, -13.6372, 96.207, -51.6365, 45.3167
3.976, 2, 35.9583, 48.1206, -13.6372, 96.207, -51.6365, 45.3167
3.98, 2, 35.9583, 48.1206, -13.6372, 96.207, -51.6365, 45.3167
3.984, 2, 35.9583, 48.1206, -13.6372, 96.207, -51.6365, 45.3167
3.988, 2, 35.9583, 48.1206, -13.6372, 96.207, -51.6365, 45.3167
3.992, 2, 35.9583, 48.1206, -13.6372, 96.207, -51.6365, 45.3167
3.996, 2, 35.9583, 48.1206, -13.6372, 96.207, -51.6365, 45.3167
3.999, 2, 35.9583, 48.1206, -13.6372, 96.207, -51.6365, 45.3167
4.004, 2, 35.9583, 48.1206, -13.6372, 96.207, -51.6365, 45.3167
4.008, 2, 35.9583, 48.1206, -13.6372, 96.207, -51.6365, 45.3167
4.012, 2, 35.9583, 48.1206, -13.6372, 96.207, -51.6365, 45.3167
4.016, 2, 35.9583, 48.1206, -13.6372, 96.207, -51.6365, 45.3167
4.02, 2, 35.9583, 48.1206, -13.6372, 96.207, -51.6365, 45.3167
4.024, 2, 35.9583, 48.1206, -13.6372, 96.207, -51.6365, 45.3167
4.028, 2, 35.9583, 48.1206, -13.6372, 96.207, -51.6365, 45.3167
4.032, 2, 35.9583, 48.1206, -13.6372, 96.207, -51.6365, 45.3167
4.036, 2, 35.9583, 48.1206, -13.6372, 96.207, -51.6365, 45.3167
4.04, 2, 35.9583, 48.1206, -13.6372, 96.207, -51.6365, 45.3167
4.044, 2, 35.9583, 48.1206, -13.6372, 96.207, -51.6365, 45.3167
4.048, 2, 35.9583, 48.1206, -13.6372, 96.207, -51.6365, 45.3167
4.052, 2, 35.9583, 48.1206, -13.6372, 96.207, -51.6365, 45.3167
4.056, 2, 35.9583, 48.1206, -13.6372, 96.207, -51.6365, 45.3167
4.06, 2, 35.9583, 48.1206, -13.6372, 96.207, -51.6365, 45.3167
4.064, 2, 35.9583, 48.1206, -13.6372, 96.207, -51.6365, 45.3167
4.068, 2, 35.9583, 48.1206, -13.6372, 96.207, -51.6365, 45.3167
4.072, 2, 35.9583, 48.1206, -13.6372, 96.207, -51.6365, 45.3167
4.076, 2, 35.9583, 48.1206, -13.6372, 96.207, -51.6365, 45.3167
4.08, 2, 35.9583, 48.1206, -13.6372, 96.207, -51.6365, 45.3167
4.084, 2, 35.9583, 48.1206, -13.6372, 96.207, -51.6365, 45.3167
4.088, 2, 35.9583, 48.1206, -13.6372, 96.207, -51.6365, 45.3167
4.092, 2, 35.9583, 48.1206, -13.6372, 96.207, -51.6365, 45.3167
4.096, 2, 35.9583, 48.1206, -13.6372, 96.207, -51.6365, 45.3167
4.1, 2, 35.9583, 48.1206, -13.6372, 96.207, -51.6365, 45.3167
4.104, 2, 35.9583, 48.1206, -13.6372, 96.207, -51.6365, 45.3167
4.108, 2, 35.9583, 48.1206, -13.6372, 96.207, -51.6365, 45.3167
4.112, 2, 35.9583, 48.1206, -13.6372, 96.207, -51.6365, 45.3167
4.116, 2, 35.9583, 48.1206, -13.6372, 96.207, -51.6365, 45.3167
4.12, 2, 35.9583, 48.1206, -13.6372, 96.207, -51.6365, 45.3167
4.124, 2, 35.9583, 48.1206, -13.6372, 96.207, -51.6365, 45.3167
4.128, 2, 35.9583, 48.1206, -13.6372, 96.207, -51.6365, 45.3167
4.132, 2, 35.9583, 48.1206, -13.6372, 96.207, -51.6365, 45.3167
4.136, 2, 35.9583, 48.1206, -13.6372, 96.207, -51.6365, 45.3167
4.14, 2, 35.9583, 48.1206, -13.6372, 96.207, -51.6365, 45.3167
4.144, 2, 35.9583, 48.1206, -13.6372, 96.207, -51.6365, 45.3167
4.148, 2, 35.9583, 48.1206, -13.6372, 96.207, -51.6365, 45.3167
4.152, 2, 35.9583, 48.1206, -13.6372, 96.207, -51.6365, 45.3167
4.156, 2, 35.9583, 48.1206, -13.6372, 96.207, -51.6365, 45.3167
4.16, 2, 35.9583, 48.1206, -13.6372, 96.207, -51.6365, 45.3167
4.164, 2, 35.9583, 48.1206, -13.6372, 96.207, -51.6365, 45.3167
4.168, 2, 35.9583, 48.1206, -13.6372, 96.207, -51.6365, 45.3167
4.172, 2, 35.9583, 48.1206, -13.6372, 96.207, -51.6365, 45.3167
4.176, 2, 35.9583, 48.1206, -13.6372, 96.207, -51.6365, 45.3167
4.18, 2, 35.9583, 48.1206, -13.6372, 96.207, -51.6365, 45.3167
4.184, 2, 35.9583, 48.1206, -13.6372, 96.207, -51.6365, 45.3167
4.188, 2, 35.9583, 48.1206, -13.6372, 96.207, -51.6365, 45.3167
4.192, 2, 35.9583, 48.1206, -13.6372, 96.207, -51.6365, 45.3167
4.196, 2, 35.9583, 48.1206, -13.6372, 96.207, -51.6365, 45.3167
4.2, 2, 35.9583, 48.1206, -13.6372, 96.207, -51.6365, 45.3167
4.204, 2, 35.9583, 48.1206, -13.6372, 96.207, -51.6365, 45.3167
4.208, 2, 35.9583, 48.1206, -13.6372, 96.207, -51.6365, 45.3167
4.212, 2, 35.9583, 48.1206, -13.6372, 96.207, -51.6365, 45.3167
4.216, 2, 35.9583, 48.1206, -13.6372, 96.207, -51.6365, 45.3167
4.22, 2, 35.9583, 48.1206, -13.6372, 96.207, -51.6365, 45.3167
4.224, 2, 35.9583, 48.1206, -13.6372, 96.207, -51.6365, 45.3167
4.228, 2, 35.9583, 48.1206, -13.6372, 96.207, -51.6365, 45.3167
4.232, 2, 35.9583, 48.1206, -13.6372, 96.207, -51.6365, 45.3167
4.236, 2, 35.9583, 48.1206, -13.6372, 96.207, -51.6365, 45.3167
4.24, 2, 35.9583, 48.1206, -13.6372, 96.207, -51.6365, 45.3167
4.244, 2, 35.9583, 48.1206, -13.6372, 96.207, -51.6365, 45.3167
4.248, 2, 35.9583, 48.1206, -13.6372, 96.207, -51.6365, 45.3167
4.252, 2, 35.9583, 48.1206, -13.6372, 96.207, -51.6365, 45.3167
4.256, 2, 35.9583, 48.1206, -13.6372, 96.207, -51.6365, 45.3167
4.26, 2, 35.9583, 48.1206, -13.6372, 96.207, -51.6365, 45.3167
4.264, 2, 35.9583, 48.1206, -13.6372, 96.207, -51.6365, 45.3167
4.268, 2, 35.9583, 48.1206, -13.6372, 96.207, -51.6365, 45.3167
4.272, 2, 35.9583, 48.1206, -13.6372, 96.207, -51.6365, 45.3167
4.276, 2, 35.9583, 48.1206, -13.6372, 96.207, -51.6365, 45.3167
4.28, 2, 35.9583, 48.1206, -13.6372, 96.207, -51.6365, 45.3167
4.284, 2, 35.9583, 48.1206, -13.6372, 96.207, -51.6365, 45.3167
4.288, 2, 35.9583, 48.1206, -13.6372, 96.207, -51.6365, 45.3167
4.292, 2, 35.9583, 48.1206, -13.6372, 96.207, -51.6365, 45.3167
4.296, 2, 35.9583, 48.1206, -13.6372, 96.207, -51.6365, 45.3167
4.3, 2, 35.9583, 48.1206, -13.6372, 96.207, -51.6365, 45.3167
4.304, 2, 35.9583, 48.1206, -13.6372, 96.207, -51.6365, 45.3167
4.308, 2, 35.9583, 48.1206, -13.6372, 96.207, -51.6365, 45.3167
4.312, 2, 35.9583, 48.1206, -13.6372, 96.207, -51.6365, 45.3167
4.316, 2, 35.9583, 48.1206, -13.6372, 96.207, -51.6365, 45.3167
4.32, 2, 35.9583, 48.1206, -13.6372, 96.207, -51.6365, 45.3167
4.324, 2, 35.9583, 48.1206, -13.6372, 96.207, -51.6365, 45.3167
4.328, 2, 35.9583, 48.1206, -13.6372, 96.207, -51.6365, 45.3167
4.332, 2, 35.9583, 48.1206, -13.6372, 96.207, -51.6365, 45.3167
4.336, 2, 35.9583, 48.1206, -13.6372, 96.207, -51.6365, 45.3167
4.34, 2, 35.9583, 48.1206, -13.6372, 96.207, -51.6365, 45.3167
4.344, 2, 35.9583, 48.1206, -13.6372, 96.207, -51.6365, 45.3167
4.348, 2, 35.9583, 48.1206, -13.6372, 96.207, -51.6365, 45.3167
4.352, 2, 35.9583, 48.1206, -13.6372, 96.207, -51.6365, 45.3167
4.356, 2, 35.9583, 48.1206, -13.6372, 96.207, -51.6365, 45.3167
4.36, 2, 35.9583, 48.1206, -13.6372, 96.207, -51.6365, 45.3167
4.364, 2, 35.9583, 48.1206, -13.6372, 96.207, -51.6365, 45.3167
4.368, 2, 35.9583, 48.1206, -13.6372, 96.207, -51.6365, 45.3167
4.372, 2, 35.9583, 48.1206, -13.6372, 96.207, -51.6365, 45.3167
4.376, 2, 35.9583, 48.1206, -13.6372, 96.207, -51.6365, 45.3167
4.38, 2, 35.9583, 48.1206, -13.6372, 96.207, -51.6365, 45.3167
4.384, 2, 35.9583, 48.1206, -13.6372, 96.207, -51.6365, 45.3167
4.388, 2, 35.9583, 48.1206, -13.6372, 96.207, -51.6365, 45.3167
4.392, 2, 35.9583, 48.1206, -13.6372, 96.207, -51.6365, 45.3167
4.396, 2, 35.9583, 48.1206, -13.6372, 96.207, -51.6365, 45.3167
4.4, 2, 35.9583, 48.1206, -13.6372, 96.207, -51.6365, 45.3167
4.404, 2, 35.9583, 48.1206, -13.6372, 96.207, -51.6365, 45.3167
4.408, 2, 35.9583, 48.1206, -13.6372, 96.207, -51.6365, 45.3167
4.412, 2, 35.9583, 48.1206, -13.6372, 96.207, -51.6365, 45.3167
4.416, 2, 35.9583, 48.1206, -13.6372, 96.207, -51.6365, 45.3167
4.42, 2, 35.9583, 48.1206, -13.6372, 96.207, -51.6365, 45.3167
4.424, 2, 35.9583, 48.1206, -13.6372, 96.207, -51.6365, 45.3167
4.428, 2, 35.9583, 48.1206, -13.6372, 96.207, -51.6365, 45.3167
4.432, 2, 35.9583, 48.1206, -13.6372, 96.207, -51.6365, 45.3167
4.436, 2, 35.9583, 48.1206, -13.6372, 96.207, -51.6365, 45.3167
4.44, 2, 35.9583, 48.1206, -13.6372, 96.207, -51.6365, 45.3167
4.444, 2, 35.9583, 48.1206, -13.6372, 96.207, -51.6365, 45.3167
4.448, 2, 35.9583, 48.1206, -13.6372, 96.207, -51.6365, 45.3167
4.452, 2, 35.9583, 48.1206, -13.6372, 96.207, -51.6365, 45.3167
4.456, 2, 35.9583, 48.1206, -13.6372, 96.207, -51.6365, 45.3167
4.46, 2, 35.9583, 48.1206, -13.6372, 96.207, -51.6365, 45.3167
4.464, 2, 35.9583, 48.1206, -13.6372, 96.207, -51.6365, 45.3167
4.468, 2, 35.9583, 48.1206, -13.6372, 96.207, -51.6365, 45.3167
4.472, 2, 35.9583, 48.1206, -13.6372, 96.207, -51.6365, 45.3167
4.476, 2, 35.9583, 48.1206, -13.6372, 96.207, -51.6365, 45.3167
4.48, 2, 35.9583, 48.1206, -13.6372, 96.207, -51.6365, 45.3167
4.484, 2, 35.9583, 48.1206, -13.6372, 96.207, -51.6365, 45.3167
4.488, 2, 35.9583, 48.1206, -13.6372, 96.207, -51.6365, 45.3167
4.492, 2, 35.9583, 48.1206, -13.6372, 96.207, -51.6365, 45.3167
4.496, 2, 35.9583, 48.1206, -13.6372, 96.207, -51.6365, 45.3167
4.5, 2, 35.9583, 48.1206, -13.6372, 96.207, -51.6365, 45.3167
4.504, 2, 35.9583, 48.1206, -13.6372, 96.207, -51.6365, 45.3167
4.508, 2, 35.9583, 48.1206, -13.6372, 96.207, -51.6365, 45.3167
4.512, 2, 35.9583, 48.1206, -13.6372, 96.207, -51.6365, 45.3167
4.516, 2, 35.9583, 48.1206, -13.6372, 96.207, -51.6365, 45.3167
4.52, 2, 35.9583, 48.1206, -13.6372, 96.207, -51.6365, 45.3167
4.524, 2, 35.9583, 48.1206, -13.6372, 96.207, -51.6365, 45.3167
4.528, 2, 35.9583, 48.1206, -13.6372, 96.207, -51.6365, 45.3167
4.532, 2, 35.9583, 48.1206, -13.6372, 96.207, -51.6365, 45.3167
4.536, 2, 35.9583, 48.1206, -13.6372, 96.207, -51.6365, 45.3167
4.54, 2, 35.9583, 48.1206, -13.6372, 96.207, -51.6365, 45.3167
4.544, 2, 35.9583, 48.1206, -13.6372, 96.207, -51.6365, 45.3167
4.548, 2, 35.9583, 48.1206, -13.6372, 96.207, -51.6365, 45.3167
4.552, 2, 35.9583, 48.1206, -13.6372, 96.207, -51.6365, 45.3167
4.556, 2, 35.9583, 48.1206, -13.6372, 96.207, -51.6365, 45.3167
4.56, 2, 35.9583, 48.1206, -13.6372, 96.207, -51.6365, 45.3167
4.564, 2, 35.9583, 48.1206, -13.6372, 96.207, -51.6365, 45.3167
4.568, 2, 35.9583, 48.1206, -13.6372, 96.207, -51.6365, 45.3167
4.572, 2, 35.9583, 48.1206, -13.6372, 96.207, -51.6365, 45.3167
4.576, 2, 35.9583, 48.1206, -13.6372, 96.207, -51.6365, 45.3167
4.58, 2, 35.9583, 48.1206, -13.6372, 96.207, -51.6365, 45.3167
4.584, 2, 35.9583, 48.1206, -13.6372, 96.207, -51.6365, 45.3167
4.588, 2, 35.9583, 48.1206, -13.6372, 96.207, -51.6365, 45.3167
4.592, 2, 35.9583, 48.1206, -13.6372, 96.207, -51.6365, 45.3167
4.596, 2, 35.9583, 48.1206, -13.6372, 96.207, -51.6365, 45.3167
4.6, 2, 35.9583, 48.1206, -13.6372, 96.207, -51.6365, 45.3167
4.604, 2, 35.9583, 48.1206, -13.6372, 96.207, -51.6365, 45.3167
4.608, 2, 35.9583, 48.1206, -13.6372, 96.207, -51.6365, 45.3167
4.612, 2, 35.9583, 48.1206, -13.6372, 96.207, -51.6365, 45.3167
4.616, 2, 35.9583, 48.1206, -13.6372, 96.207, -51.6365, 45.3167
4.62, 2, 35.9583, 48.1206, -13.6372, 96.207, -51.6365, 45.3167
4.624, 2, 35.9583, 48.1206, -13.6372, 96.207, -51.6365, 45.3167
4.628, 2, 35.9583, 48.1206, -13.6372, 96.207, -51.6365, 45.3167
4.632, 2, 35.9583, 48.1206, -13.6372, 96.207, -51.6365, 45.3167
4.636, 2, 35.9583, 48.1206, -13.6372, 96.207, -51.6365, 45.3167
4.64, 2, 35.9583, 48.1206, -13.6372, 96.207, -51.6365, 45.3167
4.644, 2, 35.9583, 48.1206, -13.6372, 96.207, -51.6365, 45.3167
4.648, 2, 35.9583, 48.1206, -13.6372, 96.207, -51.6365, 45.3167
4.652, 2, 35.9583, 48.1206, -13.6372, 96.207, -51.6365, 45.3167
4.656, 2, 35.9583, 48.1206, -13.6372, 96.207, -51.6365, 45.3167
4.66, 2, 35.9583, 48.1206, -13.6372, 96.207, -51.6365, 45.3167
4.664, 2, 35.9583, 48.1206, -13.6372, 96.207, -51.6365, 45.3167
4.668, 2, 35.9583, 48.1206, -13.6372, 96.207, -51.6365, 45.3167
4.672, 2, 35.9583, 48.1206, -13.6372, 96.207, -51.6365, 45.3167
4.676, 2, 35.9583, 48.1206, -13.6372, 96.207, -51.6365, 45.3167
4.68, 2, 35.9583, 48.1206, -13.6372, 96.207, -51.6365, 45.3167
4.684, 2, 35.9583, 48.1206, -13.6372, 96.207, -51.6365, 45.3167
4.688, 2, 35.9583, 48.1206, -13.6372, 96.207, -51.6365, 45.3167
4.692, 2, 35.9583, 48.1206, -13.6372, 96.207, -51.6365, 45.3167
4.696, 2, 35.9583, 48.1206, -13.6372, 96.207, -51.6365, 45.3167
4.7, 2, 35.9583, 48.1206, -13.6372, 96.207, -51.6365, 45.3167
4.704, 2, 35.9583, 48.1206, -13.6372, 96.207, -51.6365, 45.3167
4.708, 2, 35.9583, 48.1206, -13.6372, 96.207, -51.6365, 45.3167
4.712, 2, 35.9583, 48.1206, -13.6372, 96.207, -51.6365, 45.3167
4.716, 2, 35.9583, 48.1206, -13.6372, 96.207, -51.6365, 45.3167
4.72, 2, 35.9583, 48.1206, -13.6372, 96.207, -51.6365, 45.3167
4.724, 2, 35.9583, 48.1206, -13.6372, 96.207, -51.6365, 45.3167
4.728, 2, 35.9583, 48.1206, -13.6372, 96.207, -51.6365, 45.3167
4.732, 2, 35.9583, 48.1206, -13.6372, 96.207, -51.6365, 45.3167
4.736, 2, 35.9583, 48.1206, -13.6372, 96.207, -51.6365, 45.3167
4.74, 2, 35.9583, 48.1206, -13.6372, 96.207, -51.6365, 45.3167
4.744, 2, 35.9583, 48.1206, -13.6372, 96.207, -51.6365, 45.3167
4.748, 2, 35.9583, 48.1206, -13.6372, 96.207, -51.6365, 45.3167
4.752, 2, 35.9583, 48.1206, -13.6372, 96.207, -51.6365, 45.3167
4.756, 2, 35.9583, 48.1206, -13.6372, 96.207, -51.6365, 45.3167
4.76, 2, 35.9583, 48.1206, -13.6372, 96.207, -51.6365, 45.3167
4.764, 2, 35.9583, 48.1206, -13.6372, 96.207, -51.6365, 45.3167
4.768, 2, 35.9583, 48.1206, -13.6372, 96.207, -51.6365, 45.3167
4.772, 2, 35.9583, 48.1206, -13.6372, 96.207, -51.6365, 45.3167
4.776, 2, 35.9583, 48.1206, -13.6372, 96.207, -51.6365, 45.3167
4.78, 2, 35.9583, 48.1206, -13.6372, 96.207, -51.6365, 45.3167
4.784, 2, 35.9583, 48.1206, -13.6372, 96.207, -51.6365, 45.3167
4.788, 2, 35.9583, 48.1206, -13.6372, 96.207, -51.6365, 45.3167
4.792, 2, 35.9583, 48.1206, -13.6372, 96.207, -51.6365, 45.3167
4.796, 2, 35.9583, 48.1206, -13.6372, 96.207, -51.6365, 45.3167
4.8, 2, 35.9583, 48.1206, -13.6372, 96.207, -51.6365, 45.3167
4.804, 2, 35.9583, 48.1206, -13.6372, 96.207, -51.6365, 45.3167
4.808, 2, 35.9583, 48.1206, -13.6372, 96.207, -51.6365, 45.3167
4.812, 2, 35.9583, 48.1206, -13.6372, 96.207, -51.6365, 45.3167
4.816, 2, 35.9583, 48.1206, -13.6372, 96.207, -51.6365, 45.3167
4.82, 2, 35.9583, 48.1206, -13.6372, 96.207, -51.6365, 45.3167
4.824, 2, 35.9583, 48.1206, -13.6372, 96.207, -51.6365, 45.3167
4.828, 3, 35.9583, 48.1206, -13.6372, 96.207, -51.6365, 45.3167
4.832, 3, 35.9583, 48.1206, -13.6372, 96.207, -51.6365, 45.3167
4.836, 3, 35.9583, 48.1206, -13.6372, 96.207, -51.6365, 45.3167
4.84, 3, 35.9583, 48.1206, -13.6372, 96.207, -51.6365, 45.3167
4.844, 3, 35.9583, 48.1206, -13.6372, 96.207, -51.6365, 45.3167
4.848, 3, 35.9583, 48.1206, -13.6372, 96.207, -51.6365, 45.3167
4.852, 3, 35.9583, 48.1206, -13.6372, 96.207, -51.6365, 45.3167
4.856, 3, 35.9583, 48.1206, -13.6372, 96.207, -51.6365, 45.3167
4.86, 3, 35.9583, 48.1206, -13.6372, 96.207, -51.6365, 45.3167
4.864, 5, 35.9583, 48.1206, -13.6372, 96.207, -51.6365, 45.3167
4.868, 5, 35.9583, 48.1206, -13.6372, 96.207, -51.6365, 45.3167
4.872, 6, 35.9583, 48.1206, -13.6372, 96.207, -51.6365, 45.3167
4.876, 6, 35.9583, 48.1206, -13.6372, 96.207, -51.6365, 45.3167
4.88, 7, 35.9583, 48.1206, -13.6372, 96.207, -51.6365, 45.3167
4.884, 7, 35.9583, 48.1206, -13.6372, 96.207, -51.6365, 45.3167
4.888, 8, 35.9583, 48.1206, -13.6372, 96.207, -51.6365, 45.3167
4.892, 8, 35.9583, 48.1206, -13.6372, 96.207, -51.6365, 45.3167
4.896, 9, 35.9583, 48.1206, -13.6372, 96.207, -51.6365, 45.3167
4.9, 9, 35.9583, 48.1206, -13.6372, 96.207, -51.6365, 45.3167
4.904, 10, 35.9583, 48.1206, -13.6372, 96.207, -51.6365, 45.3167
4.908, 10, 35.9583, 48.1206, -13.6372, 96.207, -51.6365, 45.3167
4.912, 11, 35.9583, 48.1206, -13.6372, 96.207, -51.6365, 45.3167
4.916, 11, 35.9583, 48.1206, -13.6372, 96.207, -51.6365, 45.3167
4.92, 12, 35.9583, 48.1206, -13.6372, 96.207, -51.6365, 45.3167
4.924, 12, 35.9583, 48.1206, -13.6372, 96.207, -51.6365, 45.3167
4.928, 13, 35.9583, 48.1206, -13.6372, 96.207, -51.6365, 45.3167
4.932, 13, 35.9583, 48.1206, -13.6372, 96.207, -51.6365, 45.3167
4.936, 14, 35.9583, 48.1206, -13.6372, 96.207, -51.6365, 45.3167
4.94, 14, 35.9582, 48.1206, -13.6372, 96.207, -51.6365, 45.3167
4.944, 14, 35.9581, 48.1207, -13.6372, 96.207, -51.6366, 45.3167
4.948, 14, 35.9578, 48.1209, -13.6372, 96.207, -51.6366, 45.3167
4.952, 14, 35.9573, 48.1217, -13.6372, 96.207, -51.6367, 45.3167
4.956, 14, 35.9564, 48.1231, -13.6373, 96.2071, -51.637, 45.3164
4.96, 15, 35.9552, 48.1254, -13.6375, 96.2073, -51.6377, 45.3157
4.964, 15, 35.9535, 48.129, -13.6379, 96.2076, -51.6393, 45.3143
4.968, 15, 35.9513, 48.1339, -13.6386, 96.2084, -51.6423, 45.3115
4.972, 15, 35.9486, 48.1404, -13.6396, 96.2097, -51.6474, 45.3068
4.976, 15, 35.9456, 48.1484, -13.6412, 96.2118, -51.6556, 45.2991
4.98, 15, 35.9422, 48.1582, -13.6434, 96.2149, -51.6678, 45.2876
4.984, 16, 35.9386, 48.1696, -13.6464, 96.2194, -51.6853, 45.2713
4.988, 16, 35.9346, 48.1831, -13.6504, 96.2255, -51.7091, 45.2489
4.992, 16, 35.9304, 48.1988, -13.6556, 96.2335, -51.7404, 45.2195
4.996, 16, 35.9258, 48.2169, -13.6621, 96.2436, -51.7805, 45.1819
5, 16, 35.9209, 48.2375, -13.6701, 96.2562, -51.8303, 45.1353
5.004, 16, 35.9158, 48.2605, -13.6797, 96.2714, -51.8909, 45.0785
5.008, 16, 35.9105, 48.2859, -13.6911, 96.2893, -51.9631, 45.0111
5.012, 16, 35.9051, 48.3134, -13.7043, 96.3102, -52.0476, 44.9324
5.016, 16, 35.8996, 48.3432, -13.7194, 96.334, -52.1445, 44.8423
5.02, 16, 35.8941, 48.375, -13.7365, 96.3607, -52.254, 44.7409
5.024, 16, 35.8885, 48.4091, -13.7555, 96.3903, -52.3757, 44.6285
5.028, 16, 35.8827, 48.4455, -13.7765, 96.4226, -52.5091, 44.5059
5.032, 16, 35.8766, 48.4844, -13.7994, 96.4576, -52.6534, 44.3739
5.036, 16, 35.8702, 48.5258, -13.824, 96.4952, -52.8078, 44.2335
5.04, 16, 35.8634, 48.5697, -13.8505, 96.5351, -52.9711, 44.0858
5.044, 16, 35.8563, 48.616, -13.8785, 96.5773, -53.1425, 43.9318
5.048, 16, 35.8488, 48.6644, -13.908, 96.6217, -53.3208, 43.7727
5.052, 16, 35.8409, 48.7149, -13.939, 96.6681, -53.505, 43.6096
5.056, 17, 35.8326, 48.7673, -13.9712, 96.7163, -53.6941, 43.4435
5.06, 17, 35.8239, 48.8218, -14.0045, 96.7664, -53.8872, 43.2753
5.064, 17, 35.8149, 48.8782, -14.0389, 96.8181, -54.0835, 43.1059
5.068, 17, 35.8055, 48.9364, -14.0741, 96.8711, -54.2822, 42.9359
5.072, 17, 35.7961, 48.9963, -14.1101, 96.9251, -54.483, 42.7659
5.076, 17, 35.7866, 49.0577, -14.1465, 96.9798, -54.6853, 42.5963
5.08, 17, 35.7771, 49.1204, -14.1834, 97.0347, -54.8892, 42.4273
5.084, 17, 35.7676, 49.184, -14.2205, 97.0891, -55.0943, 42.259
5.088, 17, 35.7581, 49.2483, -14.2577, 97.1424, -55.301, 42.0915
5.092, 17, 35.7486, 49.3132, -14.2947, 97.1938, -55.5091, 41.9248
5.096, 17, 35.739, 49.3783, -14.3316, 97.2428, -55.7189, 41.7588
5.1, 17, 35.7292, 49.4437, -14.368, 97.2885, -55.9306, 41.5937
5.104, 18, 35.7192, 49.5093, -14.4038, 97.3304, -56.1441, 41.4292
5.108, 18, 35.7092, 49.5749, -14.439, 97.3681, -56.3597, 41.2655
5.112, 18, 35.699, 49.6406, -14.4735, 97.4011, -56.5773, 41.1023
5.116, 18, 35.6886, 49.7064, -14.5071, 97.4292, -56.7971, 40.9398
5.12, 18, 35.6781, 49.7721, -14.54, 97.4525, -57.0188, 40.778
5.124, 18, 35.6674, 49.8378, -14.5721, 97.4712, -57.2425, 40.6168
5.128, 18, 35.6564, 49.9035, -14.6034, 97.4855, -57.4681, 40.4564
5.132, 18, 35.6452, 49.9691, -14.6342, 97.4961, -57.6953, 40.2967
5.136, 18, 35.6339, 50.0348, -14.6646, 97.5036, -57.9239, 40.138
5.14, 18, 35.6225, 50.1005, -14.6947, 97.5088, -58.1537, 39.9802
5.144, 18, 35.6112, 50.1665, -14.7246, 97.5126, -58.3844, 39.8236
5.148, 18, 35.6002, 50.2329, -14.7546, 97.5158, -58.6159, 39.6681
5.152, 19, 35.5893, 50.2997, -14.7848, 97.519, -58.848, 39.514
5.156, 19, 35.5788, 50.3669, -14.8154, 97.5228, -59.0804, 39.3612
5.16, 19, 35.5683, 50.4345, -14.8464, 97.5278, -59.3131, 39.2099
5.164, 19, 35.558, 50.5026, -14.8779, 97.5341, -59.546, 39.0601
5.168, 19, 35.5476, 50.5709, -14.9099, 97.5419, -59.779, 38.9119
5.172, 19, 35.5372, 50.6394, -14.9423, 97.551, -60.012, 38.7654
5.176, 19, 35.5266, 50.7079, -14.975, 97.5614, -60.2449, 38.6207
5.18, 19, 35.5159, 50.7764, -15.0079, 97.5726, -60.4776, 38.4778
5.184, 19, 35.5051, 50.8446, -15.0407, 97.5843, -60.71, 38.3368
5.188, 19, 35.4941, 50.9126, -15.0731, 97.5957, -60.9422, 38.1979
5.192, 19, 35.4829, 50.9801, -15.1048, 97.6065, -61.1738, 38.0611
5.196, 19, 35.4716, 51.047, -15.1357, 97.616, -61.4049, 37.9265
5.2, 20, 35.46, 51.1134, -15.1653, 97.6237, -61.6354, 37.7942
5.204, 20, 35.4483, 51.179, -15.1934, 97.629, -61.8651, 37.6644
5.208, 20, 35.4364, 51.2439, -15.2197, 97.6317, -62.0941, 37.537
5.212, 20, 35.4242, 51.308, -15.2441, 97.6313, -62.3221, 37.4123
5.216, 20, 35.4118, 51.3713, -15.2663, 97.6276, -62.5492, 37.2901
5.22, 20, 35.3991, 51.4338, -15.2861, 97.6204, -62.7753, 37.1707
5.224, 20, 35.3862, 51.4952, -15.3034, 97.6094, -63.0004, 37.054
5.228, 20, 35.3731, 51.5557, -15.318, 97.5947, -63.2243, 36.94
5.232, 20, 35.3597, 51.6152, -15.3299, 97.5759, -63.4471, 36.8288
5.236, 20, 35.3461, 51.6735, -15.3388, 97.553, -63.6686, 36.7204
5.24, 20, 35.3322, 51.7306, -15.3446, 97.5258, -63.8889, 36.6149
5.244, 20, 35.318, 51.7865, -15.3472, 97.4943, -64.1078, 36.5123
5.248, 21, 35.3037, 51.8411, -15.3466, 97.4582, -64.3252, 36.4126
5.252, 21, 35.289, 51.8945, -15.3426, 97.4176, -64.5412, 36.3158
5.256, 21, 35.2742, 51.9466, -15.3352, 97.3723, -64.7556, 36.222
5.26, 21, 35.2591, 51.9976, -15.3244, 97.3223, -64.9685, 36.131
5.264, 21, 35.2438, 52.0474, -15.3103, 97.2678, -65.1798, 36.043
5.268, 21, 35.2284, 52.0961, -15.2928, 97.2089, -65.3896, 35.9578
5.272, 21, 35.2127, 52.1438, -15.2723, 97.1459, -65.5978, 35.8754
5.276, 21, 35.1968, 52.1905, -15.2488, 97.0792, -65.8047, 35.7955
5.28, 21, 35.1807, 52.2363, -15.2228, 97.0092, -66.0104, 35.7179
5.284, 21, 35.1644, 52.2811, -15.1944, 96.9366, -66.2149, 35.6426
5.288, 21, 35.1479, 52.3252, -15.1642, 96.8618, -66.4186, 35.5692
5.292, 21, 35.1313, 52.3685, -15.1325, 96.7856, -66.6215, 35.4976
5.296, 22, 35.1144, 52.4113, -15.0996, 96.7085, -66.8238, 35.4274
5.3, 22, 35.0973, 52.4534, -15.0659, 96.6312, -67.0258, 35.3586
5.304, 22, 35.0799, 52.4951, -15.0318, 96.5541, -67.2275, 35.2908
5.308, 22, 35.0623, 52.5362, -14.9975, 96.4777, -67.4291, 35.224
5.312, 22, 35.0442, 52.5768, -14.9632, 96.4023, -67.6307, 35.158
5.316, 22, 35.0259, 52.6169, -14.929, 96.3283, -67.8322, 35.0929
5.32, 22, 35.0072, 52.6563, -14.8951, 96.2557, -68.0337, 35.0285
5.324, 22, 34.9881, 52.695, -14.8612, 96.1845, -68.2349, 34.9649
5.328, 22, 34.9688, 52.7331, -14.8275, 96.1147, -68.4358, 34.9023
5.332, 22, 34.9492, 52.7703, -14.7937, 96.0463, -68.6361, 34.8407
5.336, 22, 34.9294, 52.8068, -14.7595, 95.979, -68.8356, 34.7803
5.34, 22, 34.9092, 52.8425, -14.7248, 95.9127, -69.0341, 34.7213
5.344, 23, 34.8889, 52.8774, -14.6894, 95.8471, -69.2312, 34.6639
5.348, 23, 34.8683, 52.9114, -14.6529, 95.7822, -69.4267, 34.6082
5.352, 23, 34.8474, 52.9445, -14.6152, 95.7178, -69.6203, 34.5545
5.356, 23, 34.8263, 52.9769, -14.576, 95.6535, -69.8118, 34.5027
5.36, 23, 34.8049, 53.0084, -14.5351, 95.5894, -70.0011, 34.4531
5.364, 23, 34.7833, 53.039, -14.4923, 95.5252, -70.188, 34.4058
5.368, 23, 34.7615, 53.0687, -14.4475, 95.4608, -70.3725, 34.3608
5.372, 23, 34.7394, 53.0974, -14.4006, 95.396, -70.5546, 34.318
5.376, 23, 34.7169, 53.1252, -14.3515, 95.3305, -70.7344, 34.2775
5.38, 23, 34.6942, 53.1519, -14.3001, 95.2642, -70.9119, 34.2392
5.384, 23, 34.6712, 53.1774, -14.2465, 95.1969, -71.0873, 34.203
5.388, 23, 34.6479, 53.2016, -14.1905, 95.1282, -71.2608, 34.1689
5.392, 24, 34.6243, 53.2245, -14.1322, 95.0579, -71.4324, 34.1367
5.396, 24, 34.6003, 53.2461, -14.0714, 94.9859, -71.6025, 34.1065
5.4, 24, 34.5761, 53.2661, -14.0083, 94.9118, -71.7711, 34.0781
5.404, 24, 34.5516, 53.2847, -13.9428, 94.8354, -71.9383, 34.0513
5.408, 24, 34.5267, 53.3018, -13.875, 94.7567, -72.1043, 34.0262
5.412, 24, 34.5016, 53.3174, -13.8048, 94.6756, -72.2693, 34.0027
5.416, 24, 34.4762, 53.3318, -13.7326, 94.592, -72.4332, 33.9807
5.42, 24, 34.4506, 53.345, -13.6582, 94.5063, -72.5963, 33.9601
5.424, 24, 34.4247, 53.3571, -13.5821, 94.4187, -72.7584, 33.9407
5.428, 24, 34.3986, 53.3682, -13.5043, 94.3294, -72.9198, 33.9226
5.432, 24, 34.3723, 53.3785, -13.4251, 94.239, -73.0804, 33.9056
5.436, 24, 34.3458, 53.3881, -13.3449, 94.1479, -73.2404, 33.8895
5.44, 25, 34.3192, 53.3969, -13.2638, 94.0567, -73.3997, 33.8743
5.444, 25, 34.2924, 53.4052, -13.1823, 93.9659, -73.5584, 33.8599
5.448, 25, 34.2654, 53.4129, -13.1005, 93.8759, -73.7166, 33.8461
5.452, 25, 34.2381, 53.4202, -13.0188, 93.7874, -73.8742, 33.8329
5.456, 25, 34.2106, 53.427, -12.9373, 93.7005, -74.0313, 33.8201
5.46, 25, 34.1828, 53.4332, -12.856, 93.6158, -74.1879, 33.8078
5.464, 25, 34.1547, 53.4388, -12.7752, 93.5331, -74.344, 33.7959
5.468, 25, 34.1263, 53.4437, -12.6945, 93.4527, -74.4993, 33.7844
5.472, 25, 34.0975, 53.4479, -12.6141, 93.3742, -74.6539, 33.7736
5.476, 25, 34.0685, 53.4512, -12.5334, 93.2975, -74.8076, 33.7634
5.48, 25, 34.0392, 53.4536, -12.4524, 93.2221, -74.9601, 33.7541
5.484, 25, 34.0096, 53.455, -12.3705, 93.1476, -75.1111, 33.7459
5.488, 26, 33.9798, 53.4552, -12.2873, 93.0735, -75.2605, 33.7389
5.492, 26, 33.9497, 53.4541, -12.2025, 92.9991, -75.408, 33.7333
5.496, 26, 33.9193, 53.4516, -12.1155, 92.9241, -75.5532, 33.7295
5.5, 26, 33.8886, 53.4477, -12.0259, 92.8478, -75.6959, 33.7275
5.504, 26, 33.8577, 53.4422, -11.9334, 92.7698, -75.8359, 33.7275
5.508, 26, 33.8266, 53.4352, -11.8378, 92.6897, -75.973, 33.7297
5.512, 26, 33.7953, 53.4266, -11.7388, 92.6073, -76.1071, 33.7342
5.516, 26, 33.7637, 53.4166, -11.6364, 92.5225, -76.2381, 33.741
5.52, 26, 33.7318, 53.4051, -11.5307, 92.4353, -76.3662, 33.7499
5.524, 26, 33.6997, 53.3923, -11.4217, 92.3458, -76.4914, 33.761
5.528, 26, 33.6674, 53.378, -11.3097, 92.2543, -76.6139, 33.7741
5.532, 26, 33.6348, 53.3624, -11.195, 92.161, -76.7341, 33.7889
5.536, 27, 33.602, 53.3456, -11.078, 92.0663, -76.8521, 33.8053
5.54, 27, 33.5689, 53.3276, -10.959, 91.9705, -76.9684, 33.823
5.544, 27, 33.5357, 53.3084, -10.8385, 91.8742, -77.0832, 33.8418
5.548, 27, 33.5022, 53.288, -10.7168, 91.7775, -77.1967, 33.8615
5.552, 27, 33.4685, 53.2666, -10.5944, 91.681, -77.3094, 33.8818
5.556, 27, 33.4344, 53.244, -10.4714, 91.5848, -77.4215, 33.9026
5.56, 27, 33.3999, 53.2204, -10.3482, 91.4893, -77.5331, 33.9237
5.564, 27, 33.3651, 53.1959, -10.2248, 91.3946, -77.6443, 33.945
5.568, 27, 33.3299, 53.1704, -10.1014, 91.3007, -77.7552, 33.9666
5.572, 27, 33.2944, 53.1442, -9.97796, 91.2076, -77.8657, 33.9884
5.576, 27, 33.2587, 53.1172, -9.85443, 91.1152, -77.9759, 34.0104
5.58, 27, 33.2227, 53.0894, -9.73069, 91.0235, -78.0854, 34.0328
5.584, 28, 33.1866, 53.0607, -9.60656, 90.9323, -78.1943, 34.0555
5.588, 28, 33.1502, 53.0312, -9.48183, 90.8412, -78.3023, 34.0788
5.592, 28, 33.1138, 53.0008, -9.35628, 90.7503, -78.4092, 34.1028
5.596, 28, 33.0771, 52.9695, -9.2297, 90.6591, -78.5148, 34.1275
5.6, 28, 33.0403, 52.9373, -9.10187, 90.5676, -78.619, 34.1531
5.604, 28, 33.0033, 52.9042, -8.97263, 90.4756, -78.7216, 34.1796
5.608, 28, 32.9661, 52.8701, -8.8418, 90.3828, -78.8223, 34.2073
5.612, 28, 32.9287, 52.835, -8.70928, 90.2893, -78.9212, 34.2361
5.616, 28, 32.8911, 52.7986, -8.57499, 90.195, -79.0181, 34.266
5.62, 28, 32.8533, 52.7609, -8.43889, 90.1, -79.1128, 34.2972
5.624, 28, 32.8152, 52.7219, -8.30095, 90.0042, -79.2054, 34.3296
5.628, 28, 32.7768, 52.6813, -8.16122, 89.9079, -79.2957, 34.3632
5.632, 29, 32.7381, 52.6393, -8.01973, 89.8111, -79.3838, 34.398
5.636, 29, 32.6992, 52.5957, -7.87656, 89.7142, -79.4695, 34.434
5.64, 29, 32.66, 52.5506, -7.7318, 89.6171, -79.5528, 34.4712
5.644, 29, 32.6205, 52.504, -7.58552, 89.5203, -79.6336, 34.5095
5.648, 29, 32.5807, 52.4559, -7.4378, 89.4238, -79.7119, 34.549
5.652, 29, 32.5407, 52.4065, -7.28874, 89.3278, -79.7876, 34.5896
5.656, 29, 32.5004, 52.3558, -7.13839, 89.2324, -79.8607, 34.6313
5.66, 29, 32.4598, 52.304, -6.98683, 89.1379, -79.9312, 34.674
5.664, 29, 32.4189, 52.2512, -6.83412, 89.0441, -79.999, 34.7178
5.668, 29, 32.3778, 52.1975, -6.68032, 88.951, -80.0644, 34.7625
5.672, 29, 32.3364, 52.143, -6.52547, 88.8587, -80.1274, 34.8082
5.676, 29, 32.2948, 52.0878, -6.36964, 88.7669, -80.1881, 34.8547
5.68, 29, 32.2529, 52.0317, -6.21285, 88.6755, -80.2469, 34.902
5.684, 29, 32.2108, 51.9748, -6.05515, 88.5843, -80.3039, 34.95
5.688, 29, 32.1685, 51.917, -5.89656, 88.493, -80.3594, 34.9987
5.692, 29, 32.1259, 51.8584, -5.73713, 88.4015, -80.4136, 35.0479
5.696, 29, 32.0832, 51.7987, -5.57686, 88.3094, -80.4669, 35.0975
5.7, 29, 32.0402, 51.738, -5.41581, 88.2167, -80.5193, 35.1476
5.704, 30, 31.9971, 51.6762, -5.254, 88.1231, -80.5712, 35.198
5.708, 30, 31.9537, 51.6133, -5.09147, 88.0284, -80.6227, 35.2486
5.712, 30, 31.9102, 51.5493, -4.92826, 87.9326, -80.6739, 35.2995
5.716, 30, 31.8664, 51.4843, -4.76441, 87.8358, -80.7248, 35.3506
5.72, 30, 31.8225, 51.4183, -4.59996, 87.738, -80.7755, 35.4018
5.724, 30, 31.7784, 51.3513, -4.43498, 87.6393, -80.8258, 35.4533
5.728, 30, 31.7342, 51.2835, -4.26952, 87.54, -80.8757, 35.5049
5.732, 30, 31.6898, 51.2148, -4.10365, 87.4403, -80.9251, 35.5567
5.736, 30, 31.6453, 51.1455, -3.93745, 87.3405, -80.9737, 35.6087
5.74, 30, 31.6006, 51.0754, -3.77101, 87.2409, -81.0215, 35.661
5.744, 30, 31.5557, 51.0048, -3.60439, 87.1418, -81.0681, 35.7135
5.748, 30, 31.5107, 50.9337, -3.43767, 87.0435, -81.1134, 35.7663
5.752, 31, 31.4655, 50.8623, -3.27092, 86.9463, -81.1573, 35.8194
5.756, 31, 31.4202, 50.7905, -3.10417, 86.8504, -81.1996, 35.8729
5.76, 31, 31.3746, 50.7183, -2.93748, 86.756, -81.2402, 35.9266
5.764, 31, 31.3288, 50.6458, -2.77087, 86.6632, -81.2789, 35.9807
5.768, 31, 31.2829, 50.5728, -2.60434, 86.5719, -81.3158, 36.0351
5.772, 31, 31.2366, 50.4992, -2.43788, 86.4823, -81.3509, 36.0899
5.776, 31, 31.1902, 50.425, -2.27148, 86.3941, -81.3841, 36.1451
5.78, 31, 31.1436, 50.35, -2.10509, 86.3074, -81.4155, 36.2006
5.784, 31, 31.0967, 50.2743, -1.93867, 86.2218, -81.4451, 36.2564
5.788, 31, 31.0496, 50.1978, -1.77215, 86.1372, -81.473, 36.3126
5.792, 31, 31.0024, 50.1204, -1.60547, 86.0535, -81.4992, 36.3692
5.796, 31, 30.9549, 50.0422, -1.43858, 85.9704, -81.5239, 36.4261
5.8, 32, 30.9073, 49.9631, -1.27142, 85.8878, -81.547, 36.4834
5.804, 32, 30.8596, 49.8833, -1.10395, 85.8055, -81.5686, 36.541
5.808, 32, 30.8117, 49.8028, -0.936139, 85.7234, -81.5889, 36.599
5.812, 32, 30.7636, 49.7217, -0.767965, 85.6414, -81.6077, 36.6573
5.816, 32, 30.7154, 49.64, -0.599428, 85.5594, -81.6253, 36.7159
5.82, 32, 30.667, 49.5578, -0.430543, 85.4773, -81.6417, 36.7748
5.824, 32, 30.6185, 49.4752, -0.261341, 85.3951, -81.6569, 36.834
5.828, 32, 30.5699, 49.3921, -0.0918689, 85.3128, -81.6712, 36.8933
5.832, 32, 30.5211, 49.3085, 0.077814, 85.2303, -81.6846, 36.9528
5.836, 32, 30.4722, 49.2245, 0.24764, 85.1478, -81.6973, 37.0125
5.84, 32, 30.4232, 49.14, 0.417538, 85.0651, -81.7093, 37.0721
5.844, 32, 30.374, 49.0552, 0.587436, 84.9823, -81.7208, 37.1318
5.848, 33, 30.3246, 48.9699, 0.757267, 84.8994, -81.7319, 37.1915
5.852, 33, 30.2751, 48.8843, 0.926974, 84.8164, -81.7428, 37.251
5.856, 33, 30.2253, 48.7981, 1.09651, 84.7333, -81.7534, 37.3105
5.86, 33, 30.1752, 48.7115, 1.26584, 84.6502, -81.7639, 37.3698
5.864, 33, 30.125, 48.6243, 1.43495, 84.567, -81.7742, 37.4289
5.868, 33, 30.0744, 48.5365, 1.60385, 84.4838, -81.7843, 37.4879
5.872, 33, 30.0237, 48.4482, 1.77254, 84.4006, -81.7942, 37.5468
5.876, 33, 29.9728, 48.3593, 1.94106, 84.3175, -81.8036, 37.6056
5.88, 33, 29.9216, 48.2699, 2.10946, 84.2344, -81.8125, 37.6644
5.884, 33, 29.8704, 48.18, 2.27779, 84.1514, -81.8208, 37.7233
5.888, 33, 29.819, 48.0897, 2.4461, 84.0686, -81.8281, 37.7822
5.892, 33, 29.7674, 47.9989, 2.61446, 83.9859, -81.8344, 37.8412
5.896, 34, 29.7157, 47.9077, 2.78292, 83.9035, -81.8394, 37.9004
5.9, 34, 29.6638, 47.8161, 2.95155, 83.8214, -81.8429, 37.9599
5.904, 34, 29.6117, 47.7242, 3.1204, 83.7396, -81.8449, 38.0196
5.908, 34, 29.5595, 47.6319, 3.28951, 83.658, -81.8452, 38.0797
5.912, 34, 29.507, 47.5392, 3.45892, 83.5768, -81.8437, 38.1402
5.916, 34, 29.4543, 47.4461, 3.62865, 83.4958, -81.8404, 38.201
5.92, 34, 29.4014, 47.3526, 3.79872, 83.415, -81.8354, 38.2622
5.924, 34, 29.3482, 47.2585, 3.96916, 83.3343, -81.8285, 38.3238
5.928, 34, 29.2948, 47.1639, 4.13996, 83.2537, -81.82, 38.3857
5.932, 34, 29.2411, 47.0688, 4.31113, 83.173, -81.81, 38.4479
5.936, 34, 29.1872, 46.9731, 4.48269, 83.0921, -81.7985, 38.5104
5.94, 34, 29.133, 46.8768, 4.65462, 83.0109, -81.7857, 38.5732
5.944, 35, 29.0786, 46.7799, 4.82693, 82.9293, -81.7716, 38.6363
5.948, 35, 29.024, 46.6823, 4.9996, 82.8471, -81.7565, 38.6996
5.952, 35, 28.9691, 46.5841, 5.17263, 82.7642, -81.7405, 38.763
5.956, 35, 28.9141, 46.4852, 5.34598, 82.6807, -81.7236, 38.8267
5.96, 35, 28.8589, 46.3858, 5.51963, 82.5963, -81.7059, 38.8904
5.964, 35, 28.8035, 46.2858, 5.6935, 82.5112, -81.6875, 38.9543
5.968, 35, 28.7481, 46.1854, 5.86754, 82.4254, -81.6685, 39.0183
5.972, 35, 28.6925, 46.0847, 6.04165, 82.339, -81.6489, 39.0823
5.976, 35, 28.6369, 45.9837, 6.21574, 82.2521, -81.6288, 39.1463
5.98, 35, 28.5812, 45.8826, 6.38968, 82.1649, -81.6082, 39.2103
5.984, 35, 28.5253, 45.7813, 6.56334, 82.0776, -81.5872, 39.2742
5.988, 35, 28.4694, 45.6799, 6.7366, 81.9904, -81.5658, 39.3379
5.992, 36, 28.4133, 45.5785, 6.9093, 81.9035, -81.5442, 39.4015
5.996, 36, 28.357, 45.477, 7.08132, 81.8171, -81.5222, 39.4648
6, 36, 28.3005, 45.3755, 7.25257, 81.7313, -81.5, 39.5278
6.004, 36, 28.2436, 45.2737, 7.42294, 81.6465, -81.4776, 39.5905
6.008, 36, 28.1863, 45.1717, 7.59241, 81.5626, -81.4549, 39.6528
6.012, 36, 28.1286, 45.0693, 7.76094, 81.4798, -81.432, 39.7148
6.016, 36, 28.0704, 44.9666, 7.92857, 81.398, -81.4087, 39.7765
6.02, 36, 28.0119, 44.8635, 8.09534, 81.3173, -81.385, 39.8379
6.024, 36, 27.9531, 44.7601, 8.26136, 81.2375, -81.3606, 39.8991
6.028, 36, 27.8941, 44.6563, 8.42677, 81.1585, -81.3355, 39.9601
6.032, 36, 27.8349, 44.5522, 8.59171, 81.0803, -81.3093, 40.0211
6.036, 36, 27.7755, 44.4477, 8.75636, 81.0025, -81.282, 40.0822
6.04, 37, 27.7159, 44.3428, 8.92092, 80.9251, -81.2531, 40.1434
6.044, 37, 27.6562, 44.2373, 9.08557, 80.8478, -81.2226, 40.2049
6.048, 37, 27.5963, 44.1312, 9.25046, 80.7705, -81.1901, 40.2668
6.052, 37, 27.5362, 44.0245, 9.41576, 80.6931, -81.1554, 40.3292
6.056, 37, 27.4759, 43.9172, 9.58156, 80.6153, -81.1185, 40.3921
6.06, 37, 27.4153, 43.8091, 9.74796, 80.5371, -81.0792, 40.4556
6.064, 37, 27.3545, 43.7003, 9.91501, 80.4584, -81.0374, 40.5196
6.068, 37, 27.2934, 43.5908, 10.0827, 80.3793, -80.9931, 40.5843
6.072, 37, 27.2321, 43.4804, 10.251, 80.2996, -80.9464, 40.6496
6.076, 37, 27.1704, 43.3692, 10.4199, 80.2196, -80.8974, 40.7155
6.08, 37, 27.1084, 43.2572, 10.5893, 80.1391, -80.8462, 40.7818
6.084, 37, 27.0461, 43.1445, 10.7591, 80.0583, -80.793, 40.8485
6.088, 38, 26.9835, 43.031, 10.9291, 79.9773, -80.7379, 40.9157
6.092, 38, 26.9206, 42.9168, 11.0993, 79.8961, -80.6811, 40.9831
6.096, 38, 26.8573, 42.8019, 11.2694, 79.8149, -80.6228, 41.0507
6.1, 38, 26.7938, 42.6864, 11.4396, 79.7337, -80.563, 41.1186
6.104, 38, 26.7298, 42.5702, 11.6095, 79.6526, -80.502, 41.1865
6.108, 38, 26.6655, 42.4535, 11.7792, 79.5717, -80.4399, 41.2545
6.112, 38, 26.6008, 42.3363, 11.9486, 79.4909, -80.3767, 41.3225
6.116, 38, 26.5357, 42.2186, 12.1177, 79.4102, -80.3125, 41.3905
6.12, 38, 26.4703, 42.1006, 12.2865, 79.3296, -80.2473, 41.4586
6.124, 38, 26.4045, 41.9823, 12.4549, 79.2491, -80.1813, 41.5266
6.128, 38, 26.3384, 41.8638, 12.6231, 79.1684, -80.1144, 41.5946
6.132, 38, 26.272, 41.7451, 12.791, 79.0874, -80.0467, 41.6627
6.136, 39, 26.2052, 41.6261, 12.9587, 79.0062, -79.9782, 41.7308
6.14, 39, 26.1382, 41.5069, 13.1263, 78.9244, -79.9089, 41.799
6.144, 39, 26.0708, 41.3875, 13.2938, 78.8419, -79.8388, 41.8673
6.148, 39, 26.0031, 41.2678, 13.4613, 78.7587, -79.768, 41.9356
6.152, 39, 25.9351, 41.1477, 13.6288, 78.6745, -79.6965, 42.0041
6.156, 39, 25.8668, 41.0272, 13.7964, 78.5894, -79.6242, 42.0728
6.16, 39, 25.7982, 40.9063, 13.9642, 78.5031, -79.5511, 42.1416
6.164, 39, 25.7292, 40.7849, 14.132, 78.4157, -79.4773, 42.2106
6.168, 39, 25.6599, 40.663, 14.3, 78.3273, -79.4026, 42.2799
6.172, 39, 25.5902, 40.5406, 14.4682, 78.2377, -79.3269, 42.3493
6.176, 39, 25.5201, 40.4177, 14.6366, 78.1471, -79.2502, 42.4191
6.18, 39, 25.4496, 40.2944, 14.8051, 78.0555, -79.1723, 42.4891
6.184, 40, 25.3787, 40.1705, 14.9739, 77.963, -79.093, 42.5595
6.188, 40, 25.3074, 40.0462, 15.1428, 77.8698, -79.0124, 42.6302
6.192, 40, 25.2356, 39.9213, 15.3118, 77.7758, -78.9301, 42.7012
6.196, 40, 25.1633, 39.7958, 15.4811, 77.6812, -78.8461, 42.7727
6.2, 40, 25.0906, 39.6698, 15.6505, 77.5861, -78.7601, 42.8447
6.204, 40, 25.0175, 39.5433, 15.82, 77.4906, -78.6722, 42.917
6.208, 40, 24.9439, 39.4162, 15.9896, 77.3946, -78.5822, 42.9899
