hehonglu123/Motion-Primitive-Planning/ILC/recorded_data/realrobot/wood/iteration_31/run_4.csv
timestamp, cmd_num, J1, J2, J3, J4, J5, J6
0.000386, -1, 11.3762, 13.6176, 17.3314, -145.52, -97.9267, 142.517
0.004457, -1, 11.3762, 13.6176, 17.3314, -145.52, -97.9267, 142.517
0.007862, -1, 11.3763, 13.6176, 17.3314, -145.52, -97.9267, 142.517
0.028699, -1, 11.3762, 13.6176, 17.3314, -145.52, -97.9268, 142.517
0.031429, -1, 11.3762, 13.6176, 17.3314, -145.52, -97.9268, 142.517
0.03454, -1, 11.3762, 13.6176, 17.3314, -145.52, -97.9268, 142.517
0.039683, -1, 11.3762, 13.6176, 17.3314, -145.52, -97.9268, 142.517
0.048837, -1, 11.3762, 13.6176, 17.3314, -145.52, -97.9268, 142.517
0.055778, -1, 11.3756, 13.6175, 17.3313, -145.52, -97.9268, 142.517
0.063653, -1, 11.3729, 13.6173, 17.3313, -145.52, -97.9267, 142.517
0.071703, -1, 11.3664, 13.6166, 17.3311, -145.52, -97.9267, 142.517
0.079715, -1, 11.3552, 13.6149, 17.3306, -145.521, -97.9267, 142.515
0.087663, -1, 11.3376, 13.6115, 17.3298, -145.522, -97.9265, 142.508
0.095655, -1, 11.3107, 13.6056, 17.329, -145.526, -97.9257, 142.488
0.10373, -1, 11.2723, 13.5965, 17.3284, -145.533, -97.9239, 142.448
0.11177, -1, 11.222, 13.5841, 17.3286, -145.544, -97.9205, 142.383
0.119651, -1, 11.1603, 13.5687, 17.3302, -145.562, -97.9149, 142.287
0.128088, -1, 11.0869, 13.5497, 17.3342, -145.585, -97.9072, 142.157
0.135651, -1, 11.0016, 13.5267, 17.3407, -145.614, -97.8969, 141.992
0.14365, -1, 10.9047, 13.5004, 17.3494, -145.647, -97.8847, 141.793
0.152464, -1, 10.797, 13.4707, 17.3597, -145.686, -97.8709, 141.568
0.159651, -1, 10.6785, 13.4379, 17.371, -145.729, -97.8561, 141.321
0.167662, -1, 10.5495, 13.4022, 17.3823, -145.773, -97.8406, 141.06
0.176623, -1, 10.4114, 13.3642, 17.393, -145.819, -97.8247, 140.791
0.183658, -1, 10.2664, 13.3246, 17.4032, -145.866, -97.8085, 140.516
0.191649, -1, 10.1169, 13.2842, 17.4132, -145.914, -97.7919, 140.239
0.200595, -1, 9.96454, 13.2431, 17.4232, -145.961, -97.775, 139.961
0.207714, -1, 9.80983, 13.2016, 17.4333, -146.01, -97.7578, 139.682
0.215737, -1, 9.65429, 13.1602, 17.4435, -146.057, -97.7405, 139.402
0.224722, -1, 9.49907, 13.1189, 17.4535, -146.105, -97.7234, 139.122
0.231758, -1, 9.34433, 13.0777, 17.4634, -146.153, -97.7066, 138.843
0.239901, -1, 9.18989, 13.0366, 17.4734, -146.201, -97.6899, 138.563
0.248196, -1, 9.03596, 12.9955, 17.4835, -146.249, -97.6732, 138.283
0.255824, -1, 8.8822, 12.9544, 17.4937, -146.297, -97.6564, 138.003
0.263671, -1, 8.72859, 12.9134, 17.5039, -146.345, -97.6392, 137.724
0.27251, -1, 8.57557, 12.8723, 17.514, -146.393, -97.6217, 137.443
0.279801, -1, 8.42291, 12.831, 17.5241, -146.441, -97.6043, 137.163
0.287798, -1, 8.26995, 12.7897, 17.5343, -146.489, -97.5869, 136.883
0.296429, -1, 8.11652, 12.7481, 17.5445, -146.537, -97.5699, 136.603
0.304003, -1, 7.96263, 12.7064, 17.5547, -146.585, -97.5531, 136.322
0.310651, -1, 7.88545, 12.6856, 17.5598, -146.609, -97.5448, 136.182
0.320752, -1, 7.65323, 12.623, 17.575, -146.68, -97.5198, 135.762
0.328349, -1, 7.49833, 12.5813, 17.5852, -146.729, -97.503, 135.481
0.336232, -1, 7.34332, 12.5398, 17.5954, -146.777, -97.4859, 135.201
0.344288, -1, 7.18831, 12.4982, 17.6056, -146.824, -97.4685, 134.92
0.352242, -1, 7.03326, 12.4567, 17.616, -146.873, -97.4512, 134.64
0.360291, -1, 6.87814, 12.4153, 17.6263, -146.921, -97.4341, 134.36
0.499256, -1, 4.2419, 11.7093, 17.8026, -147.74, -97.1435, 129.586
0.50057, -1, 4.2419, 11.7093, 17.8026, -147.74, -97.1435, 129.586
0.503244, -1, 4.1643, 11.6886, 17.8079, -147.764, -97.135, 129.446
0.504467, -1, 4.1643, 11.6886, 17.8079, -147.764, -97.135, 129.446
0.506551, -1, 4.0868, 11.6678, 17.8131, -147.788, -97.1265, 129.305
0.507844, -1, 4.0868, 11.6678, 17.8131, -147.788, -97.1265, 129.305
0.509908, -1, 4.00942, 11.6471, 17.8183, -147.811, -97.118, 129.165
0.512683, -1, 4.00942, 11.6471, 17.8183, -147.811, -97.118, 129.165
0.515518, -1, 3.93215, 11.6264, 17.8234, -147.836, -97.1096, 129.024
0.517514, -1, 3.93215, 11.6264, 17.8234, -147.836, -97.1096, 128.884
0.51889, -1, 3.85498, 11.6056, 17.8286, -147.86, -97.1012, 128.884
0.520087, -1, 3.85498, 11.6056, 17.8286, -147.86, -97.1012, 128.884
0.522152, -1, 3.77781, 11.5849, 17.8337, -147.884, -97.0927, 128.743
0.523477, -1, 3.77781, 11.5849, 17.8337, -147.884, -97.0927, 128.743
0.524687, -1, 3.77781, 11.5849, 17.8337, -147.884, -97.0927, 128.743
0.527464, -1, 3.7006, 11.5641, 17.8389, -147.908, -97.0843, 128.602
0.528672, -1, 3.7006, 11.5641, 17.8389, -147.908, -97.0843, 128.602
0.530789, -1, 3.62337, 11.5432, 17.8441, -147.932, -97.0758, 128.461
0.532013, -1, 3.62337, 11.5432, 17.8441, -147.932, -97.0758, 128.461
0.534268, -1, 3.54612, 11.5224, 17.8493, -147.956, -97.0673, 128.321
0.535606, -1, 3.54612, 11.5224, 17.8493, -147.956, -97.0673, 128.321
0.536812, -1, 3.54612, 11.5224, 17.8493, -147.956, -97.0673, 128.321
0.545823, -1, 3.31402, 11.4599, 17.8649, -148.029, -97.0412, 127.899
0.551648, -1, 3.23649, 11.439, 17.8701, -148.053, -97.0324, 127.758
0.559709, -1, 3.08135, 11.3972, 17.8805, -148.101, -97.0149, 127.476
0.567642, -1, 2.92601, 11.3554, 17.891, -148.15, -96.9976, 127.194
0.575643, -1, 2.77052, 11.3137, 17.9013, -148.198, -96.9807, 126.913
0.583706, -1, 2.61477, 11.2719, 17.9116, -148.246, -96.9638, 126.631
0.591637, -1, 2.45858, 11.2301, 17.9221, -148.295, -96.9471, 126.349
0.599649, -1, 2.30211, 11.1884, 17.9325, -148.343, -96.9303, 126.067
0.607704, -1, 2.14555, 11.1466, 17.943, -148.391, -96.9131, 125.785
0.615654, -1, 1.98879, 11.1048, 17.9534, -148.44, -96.8958, 125.504
0.62365, -1, 1.83223, 11.0632, 17.9638, -148.488, -96.8782, 125.222
0.631702, -1, 1.67583, 11.0215, 17.9742, -148.536, -96.8609, 124.94
0.639721, -1, 1.51962, 10.9796, 17.9847, -148.585, -96.8438, 124.658
0.647632, -1, 1.36372, 10.938, 17.9952, -148.633, -96.8269, 124.376
0.655635, -1, 1.20797, 10.8963, 18.0056, -148.681, -96.81, 124.094
0.793464, -1, -1.44646, 10.1848, 18.1828, -149.506, -96.5188, 119.287
0.794683, -1, -1.44646, 10.1848, 18.1828, -149.506, -96.5188, 119.287
0.79675, -1, -1.52481, 10.1639, 18.188, -149.53, -96.5104, 119.145
0.79801, -1, -1.52481, 10.1639, 18.188, -149.53, -96.5104, 119.145
0.799931, -1, -1.60301, 10.143, 18.1933, -149.555, -96.502, 119.004
0.801278, -1, -1.60301, 10.143, 18.1933, -149.555, -96.502, 119.004
0.802581, -1, -1.60301, 10.143, 18.1933, -149.555, -96.502, 119.004
0.806716, -1, -1.68112, 10.1221, 18.1986, -149.579, -96.4935, 118.862
0.809, -1, -1.75916, 10.1011, 18.2038, -149.604, -96.4849, 118.721
0.810252, -1, -1.75916, 10.1011, 18.2038, -149.604, -96.4849, 118.721
0.812249, -1, -1.83708, 10.0801, 18.2091, -149.628, -96.4763, 118.579
0.813494, -1, -1.83708, 10.0801, 18.2091, -149.628, -96.4763, 118.579
0.814764, -1, -1.83708, 10.0801, 18.2091, -149.628, -96.4763, 118.579
0.816725, -1, -1.9149, 10.0592, 18.2143, -149.652, -96.4676, 118.437
0.818082, -1, -1.9149, 10.0592, 18.2143, -149.652, -96.4676, 118.437
0.824111, -1, -2.07024, 10.0172, 18.2248, -149.701, -96.4499, 118.153
0.825525, -1, -2.07024, 10.0172, 18.2248, -149.701, -96.4499, 118.153
0.826855, -1, -2.07024, 10.0172, 18.2248, -149.701, -96.4499, 118.153
0.83036, -1, -2.1478, 9.99628, 18.23, -149.725, -96.4411, 118.012
0.832213, -1, -2.22537, 9.97533, 18.2352, -149.75, -96.4323, 117.87
0.83363, -1, -2.22537, 9.97533, 18.2352, -149.75, -96.4323, 117.87
0.835009, -1, -2.22537, 9.97533, 18.2352, -149.75, -96.4323, 117.87
0.841699, -1, -2.38058, 9.93345, 18.2455, -149.798, -96.415, 117.586
0.84825, -1, -2.53613, 9.89147, 18.2561, -149.846, -96.3979, 117.303
0.856221, -1, -2.69195, 9.84954, 18.2665, -149.895, -96.3811, 117.019
0.864186, -1, -2.84813, 9.80762, 18.2769, -149.944, -96.3643, 116.735
0.87243, -1, -3.00469, 9.76564, 18.2873, -149.992, -96.3473, 116.452
0.880272, -1, -3.08309, 9.74466, 18.2925, -150.017, -96.3302, 116.168
0.888198, -1, -3.2403, 9.70271, 18.3029, -150.065, -96.3214, 116.026
0.895679, -1, -3.39791, 9.66072, 18.3134, -150.113, -96.3039, 115.742
0.903636, -1, -3.55574, 9.6187, 18.3239, -150.162, -96.2863, 115.458
0.911631, -1, -3.71354, 9.5768, 18.3344, -150.211, -96.269, 115.174
0.919683, -1, -3.87151, 9.53478, 18.3448, -150.26, -96.2519, 114.889
0.927632, -1, -4.02942, 9.4927, 18.3552, -150.309, -96.2349, 114.605
0.935643, -1, -4.18727, 9.45075, 18.3656, -150.358, -96.2179, 114.321
0.943673, -1, -4.34505, 9.40873, 18.3759, -150.406, -96.2008, 114.036
0.951658, -1, -4.50255, 9.36668, 18.3863, -150.455, -96.1835, 113.752
0.959633, -1, -4.65951, 9.32465, 18.3967, -150.504, -96.1657, 113.467
0.96767, -1, -4.81614, 9.28259, 18.4071, -150.553, -96.148, 113.182
0.975619, -1, -4.97253, 9.24046, 18.4176, -150.602, -96.1305, 112.898
0.983625, -1, -5.12854, 9.19843, 18.4282, -150.651, -96.1132, 112.613
0.991695, -1, -5.28431, 9.15632, 18.4387, -150.699, -96.0962, 112.328
0.999638, -1, -5.44029, 9.11415, 18.4493, -150.748, -96.0794, 112.043
1.00762, -1, -5.59645, 9.07206, 18.4597, -150.797, -96.0624, 111.758
1.01577, -1, -5.75294, 9.02995, 18.4702, -150.846, -96.0452, 111.474
1.02464, -1, -5.90987, 8.98775, 18.4807, -150.895, -96.0278, 111.189
1.03168, -1, -6.06727, 8.94558, 18.491, -150.944, -96.0102, 110.904
1.03964, -1, -6.22522, 8.90341, 18.5014, -150.992, -95.9927, 110.618
1.04763, -1, -6.38345, 8.86126, 18.5118, -151.042, -95.9753, 110.333
1.05569, -1, -6.54186, 8.81913, 18.5222, -151.09, -95.9582, 110.048
1.06362, -1, -6.70043, 8.77694, 18.5327, -151.139, -95.9412, 109.763
1.07173, -1, -6.85917, 8.73477, 18.5432, -151.189, -95.9243, 109.477
1.07963, -1, -7.01772, 8.69263, 18.5538, -151.237, -95.9071, 109.191
1.08763, -1, -7.17625, 8.65046, 18.5643, -151.286, -95.8897, 108.906
1.0957, -1, -7.3346, 8.60826, 18.5747, -151.336, -95.872, 108.62
1.10362, -1, -7.49266, 8.56593, 18.5852, -151.384, -95.8542, 108.334
1.11163, -1, -7.65026, 8.52361, 18.5957, -151.434, -95.8367, 108.049
1.11973, -1, -7.80756, 8.48132, 18.6061, -151.483, -95.8194, 107.763
1.12762, -1, -7.9645, 8.43904, 18.6166, -151.531, -95.8024, 107.478
1.13563, -1, -8.12122, 8.39667, 18.627, -151.58, -95.7854, 107.192
1.14415, -1, -8.27776, 8.35431, 18.6375, -151.63, -95.7685, 106.906
1.15066, -1, -8.43446, 8.31191, 18.6481, -151.678, -95.7513, 106.62
1.15964, -1, -8.59146, 8.26948, 18.6586, -151.727, -95.7337, 106.334
1.16844, -1, -8.74877, 8.22721, 18.6691, -151.777, -95.716, 106.047
1.17562, -1, -8.90642, 8.18486, 18.6795, -151.826, -95.6984, 105.761
1.18381, -1, -9.06454, 8.14248, 18.6899, -151.875, -95.6811, 105.475
1.19243, -1, -9.22308, 8.1002, 18.7004, -151.924, -95.6639, 105.188
1.19964, -1, -9.38194, 8.05786, 18.7109, -151.973, -95.6468, 104.902
1.20799, -1, -9.54102, 8.0155, 18.7214, -152.022, -95.6297, 104.615
1.21651, -1, -9.70013, 7.97327, 18.7319, -152.072, -95.6124, 104.328
1.22373, -1, -9.85947, 7.93101, 18.7424, -152.121, -95.5949, 104.041
1.23207, -1, -10.0189, 7.88863, 18.7531, -152.17, -95.577, 103.754
1.24054, -1, -10.1781, 7.84621, 18.7637, -152.22, -95.5591, 103.467
1.24773, -1, -10.3372, 7.80368, 18.7743, -152.269, -95.5416, 103.18
1.25627, -1, -10.4962, 7.76116, 18.7849, -152.318, -95.5243, 102.893
1.26455, -1, -10.6547, 7.71871, 18.7953, -152.368, -95.5073, 102.606
1.27166, -1, -10.8128, 7.67616, 18.8058, -152.416, -95.4903, 102.319
1.28054, -1, -10.9706, 7.63356, 18.8164, -152.466, -95.4731, 102.032
1.28867, -1, -11.1282, 7.59104, 18.8268, -152.515, -95.4558, 101.744
1.29575, -1, -11.2856, 7.54856, 18.8373, -152.564, -95.4381, 101.457
1.30467, -1, -11.443, 7.50609, 18.8478, -152.614, -95.4203, 101.17
1.31269, -1, -11.6006, 7.46357, 18.8583, -152.663, -95.4027, 100.882
1.32001, -1, -11.7585, 7.42112, 18.869, -152.712, -95.3853, 100.594
1.32661, -1, -11.8376, 7.39991, 18.8743, -152.737, -95.3766, 100.45
1.33475, -1, -11.9961, 7.35749, 18.8849, -152.786, -95.3594, 100.163
1.34261, -1, -12.1551, 7.31509, 18.8955, -152.836, -95.3422, 99.8748
1.35307, -1, -12.3943, 7.25145, 18.9112, -152.91, -95.3162, 99.4427
1.36019, -1, -12.5541, 7.20902, 18.9218, -152.959, -95.2984, 99.1548
1.36823, -1, -12.7141, 7.16659, 18.9324, -153.009, -95.2804, 98.8669
1.37621, -1, -12.7941, 7.14537, 18.9377, -153.058, -95.2625, 98.5789
1.38499, -1, -12.9543, 7.10285, 18.9482, -153.083, -95.2537, 98.2908
1.3922, -1, -13.1143, 7.06025, 18.9588, -153.132, -95.2363, 98.1467
1.39963, -1, -13.2742, 7.01765, 18.9693, -153.182, -95.219, 97.8587
1.40761, -1, -13.4338, 6.97498, 18.98, -153.231, -95.2019, 97.5705
1.41567, -1, -13.5932, 6.9322, 18.9906, -153.28, -95.1847, 97.2818
1.42362, -1, -13.7523, 6.88948, 19.0012, -153.33, -95.1673, 96.9932
1.43161, -1, -13.9111, 6.84678, 19.0117, -153.38, -95.1496, 96.7048
1.43968, -1, -14.0694, 6.80404, 19.0222, -153.429, -95.1318, 96.4161
1.44761, -1, -14.2276, 6.76142, 19.0328, -153.479, -95.1141, 96.1272
1.45561, -1, -14.3858, 6.71873, 19.0433, -153.528, -95.0966, 95.8381
1.46362, -1, -14.5441, 6.67604, 19.0538, -153.577, -95.0794, 95.5491
1.47162, -1, -14.7027, 6.63348, 19.0644, -153.627, -95.0621, 95.2599
1.47968, -1, -14.8618, 6.59092, 19.075, -153.676, -95.045, 94.9706
1.48761, -1, -15.0211, 6.54822, 19.0857, -153.726, -95.0275, 94.6815
1.49561, -1, -15.1808, 6.50559, 19.0965, -153.776, -95.0097, 94.3924
1.5037, -1, -15.3409, 6.46296, 19.1072, -153.825, -94.9917, 94.1032
1.51161, -1, -15.5014, 6.42018, 19.1179, -153.875, -94.9738, 93.8138
1.52061, -1, -15.662, 6.37747, 19.1285, -153.925, -94.9562, 93.5247
1.52768, -1, -15.8228, 6.33469, 19.1391, -153.974, -94.9389, 93.2354
1.53667, -1, -15.9836, 6.29182, 19.1498, -154.024, -94.9217, 92.9459
1.54362, -1, -16.1445, 6.24892, 19.1604, -154.074, -94.9045, 92.656
1.55168, -1, -16.3052, 6.20599, 19.1709, -154.123, -94.8872, 92.3666
1.55963, -1, -16.4657, 6.16295, 19.1814, -154.173, -94.8697, 92.077
1.56761, -1, -16.626, 6.11997, 19.192, -154.223, -94.8519, 91.7869
1.57567, -1, -16.7858, 6.07701, 19.2027, -154.272, -94.834, 91.4967
1.58362, -1, -16.9453, 6.03402, 19.2133, -154.322, -94.8163, 91.2066
1.59161, -1, -17.1046, 5.99107, 19.224, -154.372, -94.7988, 90.9165
1.5997, -1, -17.2637, 5.94811, 19.2346, -154.421, -94.7815, 90.626
1.60761, -1, -17.4228, 5.90525, 19.2452, -154.471, -94.7642, 90.3356
1.61568, -1, -17.5821, 5.86243, 19.2559, -154.521, -94.7468, 90.0454
1.62362, -1, -17.7414, 5.81963, 19.2666, -154.571, -94.7292, 89.7551
1.63161, -1, -17.901, 5.77684, 19.2773, -154.621, -94.7112, 89.4646
1.63969, -1, -18.0611, 5.73401, 19.288, -154.671, -94.6931, 89.174
1.64761, -1, -18.2216, 5.69121, 19.2986, -154.72, -94.6752, 88.8836
1.65561, -1, -18.3825, 5.64839, 19.3093, -154.771, -94.6575, 88.5927
1.66368, -1, -18.5439, 5.6054, 19.3201, -154.821, -94.6401, 88.3016
1.67163, -1, -18.7054, 5.56241, 19.3307, -154.87, -94.6229, 88.0108
1.67971, -1, -18.8671, 5.51944, 19.3414, -154.921, -94.6056, 87.7199
1.68789, -1, -19.0288, 5.47638, 19.352, -154.97, -94.588, 87.4288
1.69561, -1, -19.1904, 5.43318, 19.3626, -155.02, -94.5702, 87.1373
1.70363, -1, -19.3519, 5.39002, 19.3733, -155.07, -94.5521, 86.846
1.71171, -1, -19.5132, 5.34685, 19.3838, -155.12, -94.5341, 86.5546
1.71976, -1, -19.674, 5.30358, 19.3945, -155.17, -94.5163, 86.263
1.72777, -1, -19.8347, 5.26041, 19.4051, -155.22, -94.4988, 85.9712
1.73571, -1, -19.9952, 5.21722, 19.4159, -155.27, -94.4814, 85.6798
1.74372, -1, -20.1552, 5.17406, 19.4267, -155.32, -94.464, 85.3883
1.7522, -1, -20.3149, 5.13109, 19.4376, -155.37, -94.4464, 85.0965
1.75913, -1, -20.3949, 5.1096, 19.443, -155.395, -94.4376, 84.8046
1.76761, -1, -20.635, 5.04493, 19.4591, -155.47, -94.4105, 84.5129
1.77641, -1, -20.7953, 5.00198, 19.4698, -155.521, -94.3924, 84.2211
1.78365, -1, -20.956, 4.95899, 19.4805, -155.57, -94.3747, 83.9288
1.79181, -1, -21.117, 4.91586, 19.4912, -155.621, -94.3572, 83.6367
1.80065, -1, -21.2785, 4.87279, 19.5019, -155.671, -94.3399, 83.3449
1.80787, -1, -21.4405, 4.82956, 19.5125, -155.721, -94.3227, 83.0526
1.81593, -1, -21.6027, 4.78626, 19.5233, -155.772, -94.3052, 82.7599
1.8248, -1, -21.7649, 4.74305, 19.5341, -155.822, -94.2877, 82.4674
1.83197, -1, -21.9273, 4.69967, 19.5448, -155.871, -94.2697, 82.1748
1.84046, -1, -22.0898, 4.65625, 19.5556, -155.922, -94.2517, 81.8821
1.84898, -1, -22.2524, 4.61292, 19.5663, -155.972, -94.2339, 81.5891
1.85621, -1, -22.4147, 4.56946, 19.577, -156.022, -94.2164, 81.2963
1.86419, -1, -22.5767, 4.52608, 19.5878, -156.073, -94.1989, 81.0037
1.87301, -1, -22.7385, 4.48267, 19.5984, -156.123, -94.1814, 80.7108
1.88024, -1, -22.8998, 4.43925, 19.6091, -156.173, -94.1638, 80.4176
1.88841, -1, -22.9804, 4.41759, 19.6145, -156.224, -94.146, 80.1247
1.8956, -1, -23.1415, 4.37429, 19.6251, -156.249, -94.1369, 79.9782
1.90268, -1, -23.3024, 4.33092, 19.6359, -156.299, -94.1186, 79.6849
1.91165, -1, -23.4633, 4.28765, 19.6468, -156.349, -94.1003, 79.3913
1.91967, -1, -23.6242, 4.24436, 19.6576, -156.4, -94.0824, 79.098
1.92666, -1, -23.7853, 4.20106, 19.6685, -156.45, -94.0648, 78.8048
1.93565, -1, -23.9466, 4.15775, 19.6792, -156.501, -94.0473, 78.5111
1.94361, -1, -24.1083, 4.11437, 19.6899, -156.551, -94.0299, 78.2171
1.95165, -1, -24.2705, 4.07096, 19.7006, -156.601, -94.0123, 77.9233
1.95965, -1, -24.4332, 4.02756, 19.7113, -156.652, -93.9945, 77.6293
1.9676, -1, -24.5961, 3.98404, 19.722, -156.702, -93.9763, 77.3351
1.97566, -1, -24.7593, 3.94045, 19.7327, -156.752, -93.9582, 77.0408
1.9836, -1, -24.9227, 3.89689, 19.7434, -156.803, -93.9404, 76.747
1.9916, -1, -25.0861, 3.85331, 19.7543, -156.853, -93.9228, 76.4528
1.99972, -1, -25.2494, 3.80973, 19.7653, -156.903, -93.9053, 76.1585
2.00762, -1, -25.4125, 3.76612, 19.7761, -156.954, -93.8878, 75.864
2.01563, -1, -25.5754, 3.72246, 19.7869, -157.004, -93.8701, 75.5698
2.02459, -1, -25.738, 3.67884, 19.7976, -157.055, -93.8522, 75.2752
2.03159, -1, -25.9005, 3.63535, 19.8084, -157.106, -93.8339, 74.9803
2.03967, -1, -26.0627, 3.59177, 19.8192, -157.156, -93.8155, 74.6856
2.04766, -1, -26.2245, 3.54829, 19.83, -157.206, -93.7974, 74.391
2.05571, -1, -26.386, 3.50488, 19.8408, -157.257, -93.7796, 74.0962
2.06361, -1, -26.5477, 3.46137, 19.8515, -157.307, -93.7619, 73.8009
2.07163, -1, -26.7097, 3.41787, 19.8624, -157.359, -93.7443, 73.5058
2.07965, -1, -26.8719, 3.37438, 19.8733, -157.409, -93.7266, 73.2106
2.08908, -1, -27.0345, 3.33079, 19.8841, -157.459, -93.7087, 72.9152
2.0956, -1, -27.1973, 3.2872, 19.895, -157.51, -93.6904, 72.6197
2.10366, -1, -27.3605, 3.2436, 19.9057, -157.561, -93.6721, 72.3246
2.11161, -1, -27.5242, 3.1998, 19.9165, -157.611, -93.6541, 72.0293
2.11968, -1, -27.6881, 3.15611, 19.9274, -157.662, -93.6361, 71.7338
2.12767, -1, -27.8522, 3.11248, 19.9381, -157.713, -93.6184, 71.4381
2.1356, -1, -28.0164, 3.06874, 19.9489, -157.763, -93.6007, 71.1425
2.1436, -1, -28.1806, 3.02501, 19.9597, -157.814, -93.5829, 70.8467
2.15167, -1, -28.3449, 2.98127, 19.9706, -157.865, -93.5649, 70.5505
2.15965, -1, -28.5089, 2.93749, 19.9815, -157.916, -93.5465, 70.2545
2.16759, -1, -28.6726, 2.8938, 19.9924, -157.967, -93.528, 69.9586
2.17568, -1, -28.8362, 2.85009, 20.0032, -158.017, -93.5098, 69.6623
2.1836, -1, -28.9992, 2.80634, 20.014, -158.068, -93.4919, 69.3658
2.1916, -1, -29.162, 2.76267, 20.0248, -158.119, -93.4742, 69.0693
2.19972, -1, -29.3247, 2.71897, 20.0356, -158.17, -93.4565, 68.7726
2.20763, -1, -29.4874, 2.67526, 20.0465, -158.221, -93.4388, 68.4757
2.21564, -1, -29.6502, 2.63147, 20.0573, -158.272, -93.4208, 68.1788
2.22376, -1, -29.8132, 2.58765, 20.0681, -158.323, -93.4025, 67.8822
2.23168, -1, -29.9764, 2.54387, 20.079, -158.374, -93.384, 67.5855
2.23975, -1, -30.1396, 2.49998, 20.0901, -158.425, -93.3657, 67.2885
2.24777, -1, -30.3034, 2.45598, 20.1011, -158.475, -93.3478, 66.9913
2.25578, -1, -30.4677, 2.41205, 20.112, -158.527, -93.33, 66.6946
2.26361, -1, -30.6325, 2.368, 20.1228, -158.577, -93.3123, 66.3973
2.27167, -1, -30.7975, 2.32402, 20.1336, -158.628, -93.2945, 66.0997
2.27969, -1, -30.9625, 2.28005, 20.1446, -158.68, -93.2764, 65.8025
2.28768, -1, -31.1275, 2.23594, 20.1555, -158.73, -93.258, 65.5053
2.29578, -1, -31.2927, 2.19198, 20.1664, -158.781, -93.2394, 65.2079
2.30372, -1, -31.4576, 2.1481, 20.1772, -158.833, -93.2211, 64.9102
2.31194, -1, -31.6223, 2.10403, 20.188, -158.883, -93.2031, 64.6124
2.31995, -1, -31.7869, 2.06005, 20.199, -158.935, -93.1854, 64.3145
2.32663, -1, -31.8691, 2.03807, 20.2045, -158.961, -93.1766, 64.1655
2.33611, -1, -32.1152, 1.97205, 20.2209, -159.037, -93.1501, 63.7181
2.34413, -1, -32.2788, 1.92805, 20.2319, -159.089, -93.1322, 63.4205
2.35212, -1, -32.4423, 1.88402, 20.2428, -159.14, -93.1141, 63.1224
2.36036, -1, -32.606, 1.83988, 20.2538, -159.191, -93.0956, 62.8242
2.36902, -1, -32.7698, 1.79576, 20.2647, -159.242, -93.0774, 62.5259
2.37618, -1, -32.9337, 1.75161, 20.2756, -159.293, -93.0594, 62.2277
2.38428, -1, -33.0158, 1.70736, 20.2866, -159.344, -93.0415, 61.9291
2.39158, -1, -33.1803, 1.68525, 20.292, -159.37, -93.0326, 61.7798
2.39964, -1, -33.3451, 1.64109, 20.3029, -159.421, -93.0148, 61.481
2.40763, -1, -33.5103, 1.59684, 20.314, -159.472, -92.9969, 61.1826
2.41559, -1, -33.6759, 1.55255, 20.325, -159.524, -92.9786, 60.8839
2.42265, -1, -33.8417, 1.50831, 20.3359, -159.575, -92.96, 60.5848
2.43163, -1, -34.0076, 1.46409, 20.3468, -159.626, -92.9413, 60.2856
2.43964, -1, -34.1736, 1.4199, 20.3577, -159.678, -92.9229, 59.9864
2.44759, -1, -34.3398, 1.37569, 20.3687, -159.729, -92.9049, 59.6869
2.45563, -1, -34.5058, 1.33147, 20.3796, -159.781, -92.887, 59.3871
2.46359, -1, -34.6715, 1.28726, 20.3906, -159.832, -92.8692, 59.0877
2.47159, -1, -34.8368, 1.24307, 20.4015, -159.883, -92.8513, 58.7884
2.47971, -1, -35.0018, 1.19883, 20.4125, -159.935, -92.8331, 58.4887
2.48758, -1, -35.1666, 1.1545, 20.4237, -159.986, -92.8146, 58.1887
2.49557, -1, -35.3311, 1.11021, 20.4348, -160.037, -92.796, 57.8892
2.50365, -1, -35.4951, 1.06603, 20.4459, -160.089, -92.7777, 57.5894
2.51161, -1, -35.6574, 1.02219, 20.4572, -160.14, -92.7596, 57.2894
2.51965, -1, -35.8168, 0.978952, 20.4687, -160.191, -92.7417, 56.9908
2.52865, -1, -35.9723, 0.936859, 20.4806, -160.242, -92.724, 56.6956
2.53558, -1, -36.1227, 0.896373, 20.4925, -160.291, -92.7065, 56.4065
2.54359, -1, -36.2654, 0.858098, 20.5045, -160.339, -92.6894, 56.1276
2.55165, -1, -36.3984, 0.822799, 20.5161, -160.384, -92.6729, 55.8651
2.55964, -1, -36.5203, 0.790525, 20.5267, -160.424, -92.6577, 55.6253
2.56758, -1, -36.6293, 0.761671, 20.536, -160.46, -92.6445, 55.414
2.57565, -1, -36.724, 0.736603, 20.5433, -160.49, -92.6335, 55.2357
2.58358, -1, -36.804, 0.715391, 20.5484, -160.514, -92.6247, 55.0928
2.59166, -1, -36.8702, 0.697938, 20.5513, -160.533, -92.6183, 54.9845
2.59971, -1, -36.9235, 0.68391, 20.5526, -160.546, -92.6138, 54.9079
2.60758, -1, -36.9639, 0.673049, 20.5529, -160.555, -92.611, 54.8563
2.61558, -1, -36.9934, 0.665296, 20.5527, -160.561, -92.6093, 54.8249
2.62366, -1, -37.0137, 0.660249, 20.5522, -160.564, -92.6084, 54.8071
2.63158, -1, -37.026, 0.657229, 20.5519, -160.566, -92.6079, 54.7982
2.63967, -1, -37.0325, 0.655612, 20.5517, -160.567, -92.6076, 54.794
2.64765, 2, -37.0347, 0.654864, 20.5516, -160.567, -92.6075, 54.792
2.65558, 2, -37.0344, 0.654541, 20.5516, -160.568, -92.6075, 54.7911
2.66358, 2, -37.0338, 0.654398, 20.5515, -160.568, -92.6075, 54.7907
2.67164, 2, -37.0335, 0.654325, 20.5515, -160.568, -92.6075, 54.7906
2.67967, 2, -37.0339, 0.654245, 20.5515, -160.568, -92.6075, 54.7906
2.68759, 2, -37.0349, 0.654219, 20.5514, -160.568, -92.6075, 54.7905
2.69565, 2, -37.0361, 0.654111, 20.5513, -160.568, -92.6076, 54.7905
2.70359, 2, -37.0376, 0.653882, 20.5511, -160.568, -92.6076, 54.7906
2.71161, 2, -37.039, 0.653613, 20.5509, -160.568, -92.6076, 54.7907
2.71977, 2, -37.0402, 0.653371, 20.5507, -160.568, -92.6077, 54.7906
2.72767, 2, -37.0412, 0.653145, 20.5505, -160.568, -92.6077, 54.7907
2.73568, 2, -37.0416, 0.653023, 20.5503, -160.568, -92.6078, 54.7909
2.74375, 2, -37.0416, 0.652954, 20.5502, -160.568, -92.6079, 54.7909
2.7517, 2, -37.0411, 0.652952, 20.55, -160.568, -92.6079, 54.791
2.75983, 2, -37.0402, 0.652958, 20.55, -160.568, -92.6079, 54.7911
2.76775, 2, -37.0392, 0.652992, 20.5499, -160.568, -92.6079, 54.7912
2.77561, 2, -37.0377, 0.653038, 20.5499, -160.568, -92.608, 54.7914
2.78362, 2, -37.0362, 0.653071, 20.5498, -160.568, -92.608, 54.7916
2.79168, 2, -37.0352, 0.653082, 20.5497, -160.567, -92.608, 54.7917
2.79976, 2, -37.0345, 0.653084, 20.5497, -160.567, -92.608, 54.7917
2.8079, 2, -37.0343, 0.653081, 20.5497, -160.567, -92.608, 54.7918
2.81592, 2, -37.0344, 0.653053, 20.5496, -160.568, -92.608, 54.7918
2.82419, 2, -37.0346, 0.652994, 20.5496, -160.567, -92.608, 54.7918
2.83191, 2, -37.0348, 0.652959, 20.5496, -160.567, -92.6081, 54.7919
2.84011, 2, -37.0354, 0.652925, 20.5496, -160.567, -92.6081, 54.7919
2.84847, 2, -37.0361, 0.65292, 20.5496, -160.567, -92.6081, 54.7919
2.85626, 2, -37.0369, 0.652914, 20.5496, -160.567, -92.6081, 54.792
2.86414, 2, -37.0375, 0.652923, 20.5495, -160.567, -92.6081, 54.792
2.87242, 2, -37.0379, 0.652937, 20.5495, -160.567, -92.6081, 54.792
2.88022, 2, -37.0381, 0.652952, 20.5495, -160.567, -92.6081, 54.7921
2.88818, 2, -37.0381, 0.652956, 20.5495, -160.567, -92.6081, 54.7921
2.89652, 2, -37.0381, 0.652968, 20.5495, -160.567, -92.6081, 54.7922
2.9036, 2, -37.0379, 0.652974, 20.5495, -160.567, -92.6081, 54.7922
2.91162, 2, -37.0375, 0.652976, 20.5495, -160.567, -92.6081, 54.7923
2.92053, 2, -37.0371, 0.652974, 20.5495, -160.567, -92.6081, 54.7923
2.92764, 2, -37.0369, 0.652969, 20.5495, -160.567, -92.6081, 54.7923
2.93562, 2, -37.0368, 0.652966, 20.5495, -160.567, -92.6081, 54.7924
2.94358, 2, -37.0367, 0.652954, 20.5495, -160.567, -92.6082, 54.7924
2.95157, 2, -37.0367, 0.652933, 20.5495, -160.567, -92.6081, 54.7925
2.95969, 2, -37.0367, 0.652931, 20.5495, -160.567, -92.6082, 54.7925
2.96756, 2, -37.0367, 0.652949, 20.5495, -160.567, -92.6082, 54.7926
2.97557, 2, -37.0368, 0.652957, 20.5494, -160.567, -92.6082, 54.7926
2.98362, 2, -37.037, 0.652961, 20.5494, -160.567, -92.6082, 54.7927
2.99157, 2, -37.0372, 0.652962, 20.5494, -160.567, -92.6082, 54.7928
2.99965, 2, -37.0374, 0.652963, 20.5494, -160.567, -92.6082, 54.7928
3.00765, 2, -37.0375, 0.652963, 20.5494, -160.567, -92.6083, 54.7928
3.01558, 2, -37.0375, 0.652964, 20.5494, -160.567, -92.6083, 54.7929
3.02357, 2, -37.0375, 0.652964, 20.5494, -160.567, -92.6083, 54.7929
3.03163, 2, -37.0375, 0.652964, 20.5494, -160.567, -92.6083, 54.7929
3.04145, 2, -37.0374, 0.652964, 20.5493, -160.567, -92.6083, 54.793
3.04756, 2, -37.0374, 0.652964, 20.5493, -160.567, -92.6084, 54.7931
3.05563, 2, -37.0374, 0.652934, 20.5493, -160.567, -92.6083, 54.7931
3.06357, 2, -37.0374, 0.652914, 20.5493, -160.567, -92.6083, 54.7932
3.0716, 2, -37.0373, 0.652904, 20.5493, -160.567, -92.6083, 54.7932
3.0797, 2, -37.0373, 0.65291, 20.5493, -160.567, -92.6084, 54.7932
3.08756, 2, -37.0373, 0.652921, 20.5493, -160.567, -92.6083, 54.7933
3.09564, 2, -37.0373, 0.652944, 20.5492, -160.567, -92.6083, 54.7933
3.10363, 2, -37.0373, 0.652955, 20.5492, -160.567, -92.6083, 54.7933
3.11157, 2, -37.0373, 0.652967, 20.5493, -160.567, -92.6083, 54.7934
3.11964, 2, -37.0373, 0.65297, 20.5492, -160.567, -92.6083, 54.7935
3.12763, 2, -37.0373, 0.652967, 20.5492, -160.567, -92.6084, 54.7935
3.13557, 2, -37.0373, 0.652936, 20.5492, -160.567, -92.6084, 54.7936
3.14356, 2, -37.0373, 0.652914, 20.5492, -160.567, -92.6084, 54.7936
3.15163, 2, -37.0373, 0.652923, 20.5492, -160.567, -92.6084, 54.7937
3.15963, 2, -37.0372, 0.652926, 20.5492, -160.567, -92.6084, 54.7937
3.16757, 2, -37.0372, 0.652928, 20.5492, -160.567, -92.6083, 54.7937
3.17563, 2, -37.0372, 0.65294, 20.5492, -160.567, -92.6083, 54.7938
3.18358, 2, -37.0372, 0.652934, 20.5491, -160.567, -92.6084, 54.7938
3.19157, 2, -37.0372, 0.652939, 20.5491, -160.567, -92.6084, 54.7939
3.19971, 2, -37.0372, 0.652945, 20.5491, -160.567, -92.6084, 54.794
3.20757, 2, -37.0372, 0.652955, 20.5491, -160.567, -92.6084, 54.794
3.2156, 2, -37.0372, 0.65296, 20.5491, -160.567, -92.6084, 54.7939
3.22371, 2, -37.0372, 0.652951, 20.5491, -160.567, -92.6084, 54.794
3.23165, 2, -37.0372, 0.65295, 20.5491, -160.567, -92.6084, 54.794
3.23972, 2, -37.0372, 0.652939, 20.5491, -160.567, -92.6084, 54.794
3.24773, 2, -37.0372, 0.652952, 20.5491, -160.567, -92.6084, 54.7941
3.25567, 2, -37.0371, 0.652959, 20.5491, -160.567, -92.6084, 54.7941
3.26374, 2, -37.0371, 0.652932, 20.5491, -160.567, -92.6084, 54.7942
3.27169, 2, -37.0371, 0.652923, 20.549, -160.567, -92.6084, 54.7942
3.27966, 2, -37.0371, 0.652927, 20.549, -160.567, -92.6084, 54.7942
3.28761, 2, -37.037, 0.652947, 20.549, -160.567, -92.6084, 54.7943
3.29567, 2, -37.0371, 0.652945, 20.549, -160.567, -92.6085, 54.7943
3.30368, 2, -37.037, 0.652948, 20.549, -160.567, -92.6085, 54.7943
3.31184, 2, -37.037, 0.652927, 20.549, -160.567, -92.6085, 54.7943
3.31993, 2, -37.037, 0.652939, 20.549, -160.567, -92.6085, 54.7944
3.32789, 2, -37.037, 0.652953, 20.549, -160.567, -92.6085, 54.7944
3.33602, 2, -37.037, 0.652959, 20.549, -160.567, -92.6085, 54.7944
3.34255, 2, -37.037, 0.65296, 20.549, -160.567, -92.6085, 54.7944
3.35207, 2, -37.037, 0.652952, 20.549, -160.567, -92.6085, 54.7944
3.36028, 2, -37.037, 0.652951, 20.5489, -160.567, -92.6084, 54.7944
3.36813, 2, -37.037, 0.652939, 20.5489, -160.567, -92.6084, 54.7945
3.37613, 2, -37.037, 0.652953, 20.5489, -160.567, -92.6085, 54.7945
3.38436, 2, -37.0369, 0.652959, 20.5489, -160.567, -92.6085, 54.7945
3.3922, 2, -37.0369, 0.65296, 20.5489, -160.567, -92.6084, 54.7945
3.40038, 2, -37.0369, 0.652944, 20.5489, -160.567, -92.6084, 54.7945
3.40756, 2, -37.0369, 0.652955, 20.5489, -160.567, -92.6085, 54.7945
3.4156, 2, -37.0369, 0.652959, 20.5489, -160.567, -92.6084, 54.7945
3.42356, 2, -37.0368, 0.652951, 20.5489, -160.567, -92.6084, 54.7945
3.43163, 2, -37.0368, 0.652963, 20.5489, -160.567, -92.6085, 54.7945
3.43968, 2, -37.0368, 0.652975, 20.5489, -160.567, -92.6085, 54.7946
3.44756, 2, -37.0368, 0.652969, 20.5489, -160.567, -92.6085, 54.7947
3.45556, 2, -37.0368, 0.652966, 20.5489, -160.567, -92.6085, 54.7946
3.4636, 2, -37.0368, 0.652965, 20.5489, -160.567, -92.6085, 54.7947
3.47155, 2, -37.0368, 0.652964, 20.5489, -160.567, -92.6086, 54.7947
3.47963, 2, -37.0367, 0.652964, 20.5488, -160.567, -92.6086, 54.7948
3.4876, 2, -37.0367, 0.652945, 20.5488, -160.567, -92.6085, 54.7947
3.49555, 2, -37.0367, 0.652955, 20.5488, -160.566, -92.6085, 54.7948
3.50356, 2, -37.0367, 0.65296, 20.5488, -160.566, -92.6085, 54.7948
3.51163, 2, -37.0367, 0.652962, 20.5488, -160.566, -92.6086, 54.7948
3.51964, 2, -37.0367, 0.65297, 20.5488, -160.566, -92.6086, 54.7948
3.52755, 2, -37.0367, 0.652972, 20.5488, -160.566, -92.6086, 54.7948
3.53562, 2, -37.0367, 0.652967, 20.5488, -160.566, -92.6086, 54.7948
3.5446, 2, -37.0367, 0.652965, 20.5488, -160.566, -92.6086, 54.7948
3.55155, 2, -37.0367, 0.652977, 20.5488, -160.566, -92.6085, 54.7948
3.55968, 2, -37.0367, 0.652959, 20.5487, -160.566, -92.6086, 54.7948
3.56755, 2, -37.0366, 0.652943, 20.5487, -160.566, -92.6086, 54.7949
3.57561, 2, -37.0366, 0.652947, 20.5487, -160.566, -92.6087, 54.7949
3.58362, 2, -37.0366, 0.652956, 20.5487, -160.566, -92.6086, 54.795
3.59155, 2, -37.0366, 0.65296, 20.5487, -160.566, -92.6085, 54.795
3.5997, 2, -37.0366, 0.652969, 20.5487, -160.566, -92.6086, 54.795
3.60761, 2, -37.0366, 0.652971, 20.5487, -160.566, -92.6085, 54.795
3.61554, 2, -37.0366, 0.652967, 20.5487, -160.566, -92.6086, 54.795
3.62355, 2, -37.0365, 0.652965, 20.5487, -160.566, -92.6086, 54.795
3.63161, 2, -37.0366, 0.652972, 20.5487, -160.566, -92.6086, 54.795
3.63962, 2, -37.0366, 0.652985, 20.5487, -160.566, -92.6086, 54.795
3.64869, 2, -37.0365, 0.652981, 20.5487, -160.566, -92.6087, 54.795
3.65562, 2, -37.0365, 0.652989, 20.5487, -160.566, -92.6086, 54.795
3.66355, 2, -37.0365, 0.652975, 20.5486, -160.566, -92.6086, 54.795
3.67155, 2, -37.0365, 0.652976, 20.5486, -160.566, -92.6086, 54.795
3.67969, 2, -37.0365, 0.652982, 20.5486, -160.566, -92.6087, 54.795
3.68757, 2, -37.0365, 0.652977, 20.5486, -160.566, -92.6086, 54.795
3.69555, 2, -37.0365, 0.65297, 20.5486, -160.566, -92.6086, 54.795
3.70379, 2, -37.0365, 0.652974, 20.5486, -160.566, -92.6087, 54.795
3.71155, 2, -37.0365, 0.652973, 20.5486, -160.566, -92.6087, 54.795
3.71966, 2, -37.0365, 0.652975, 20.5486, -160.566, -92.6087, 54.7951
3.72767, 4, -37.0365, 0.652981, 20.5486, -160.566, -92.6087, 54.7951
3.73564, 4, -37.0364, 0.652996, 20.5486, -160.566, -92.6087, 54.7951
3.74364, 4, -37.0364, 0.652991, 20.5486, -160.566, -92.6087, 54.7951
3.75171, 4, -37.0364, 0.653001, 20.5486, -160.566, -92.6086, 54.795
3.75973, 4, -37.0364, 0.653005, 20.5485, -160.566, -92.6086, 54.795
3.76773, 4, -37.0364, 0.653007, 20.5485, -160.566, -92.6086, 54.795
3.77568, 4, -37.0364, 0.653019, 20.5485, -160.566, -92.6086, 54.7951
3.78358, 4, -37.0364, 0.653014, 20.5485, -160.566, -92.6087, 54.7951
3.79158, 4, -37.0363, 0.653017, 20.5485, -160.566, -92.6087, 54.7951
3.79972, 4, -37.0363, 0.653002, 20.5485, -160.566, -92.6087, 54.7951
3.80768, 4, -37.0363, 0.652974, 20.5485, -160.566, -92.6086, 54.7951
3.81591, 4, -37.0363, 0.652988, 20.5485, -160.566, -92.6086, 54.7951
3.82426, 4, -37.0363, 0.652999, 20.5485, -160.566, -92.6087, 54.7952
3.83445, 4, -37.0363, 0.652992, 20.5485, -160.566, -92.6087, 54.7951
3.85477, 4, -37.0363, 0.653007, 20.5485, -160.566, -92.6087, 54.7952
3.85747, 4, -37.0363, 0.653007, 20.5485, -160.566, -92.6087, 54.7951
3.85918, 4, -37.0363, 0.653007, 20.5485, -160.566, -92.6087, 54.7951
3.86576, 4, -37.0363, 0.653008, 20.5485, -160.566, -92.6087, 54.7951
3.87275, 4, -37.0363, 0.65299, 20.5485, -160.566, -92.6087, 54.7951
3.88015, 4, -37.0355, 0.652854, 20.5485, -160.566, -92.6087, 54.7951
3.88815, 4, -37.0345, 0.65193, 20.5486, -160.566, -92.6087, 54.7952
3.89786, 4, -37.0272, 0.649067, 20.5495, -160.566, -92.6087, 54.7951
3.90444, 4, -37.0229, 0.643099, 20.552, -160.566, -92.6087, 54.7951
3.91394, 4, -37.0043, 0.633523, 20.5575, -160.565, -92.6088, 54.7952
3.91963, 4, -36.9959, 0.627231, 20.5617, -160.564, -92.6088, 54.7952
3.92901, 5, -36.9623, 0.601611, 20.5828, -160.56, -92.6086, 54.7951
3.9356, 5, -36.9483, 0.59091, 20.5929, -160.558, -92.6086, 54.7951
3.94356, 5, -36.9166, 0.566034, 20.6183, -160.553, -92.6083, 54.7951
3.95154, 5, -36.8802, 0.536681, 20.6507, -160.546, -92.6077, 54.7951
3.95964, 5, -36.8389, 0.502793, 20.6893, -160.538, -92.6068, 54.795
3.96759, 5, -36.7924, 0.464057, 20.7334, -160.528, -92.6054, 54.795
3.9757, 5, -36.7408, 0.421017, 20.782, -160.517, -92.6038, 54.795
3.98358, 5, -36.6845, 0.374275, 20.8336, -160.505, -92.602, 54.795
3.99154, 5, -36.6241, 0.324697, 20.8874, -160.493, -92.6002, 54.7949
3.99976, 5, -36.56, 0.273005, 20.9424, -160.481, -92.5984, 54.795
4.00759, 5, -36.4934, 0.219868, 20.9978, -160.468, -92.5965, 54.7949
4.01555, 5, -36.4256, 0.166149, 21.0534, -160.456, -92.5945, 54.795
4.02371, 5, -36.3571, 0.112167, 21.109, -160.444, -92.5926, 54.795
4.03152, 5, -36.2884, 0.0581262, 21.1645, -160.432, -92.5905, 54.795
4.03967, 5, -36.2196, 0.00425188, 21.2201, -160.42, -92.5885, 54.7951
4.04971, 5, -36.1165, -0.0761251, 21.3034, -160.402, -92.5855, 54.7952
4.05835, 5, -36.0822, -0.102794, 21.3312, -160.396, -92.5845, 54.7954
4.06362, 5, -36.0136, -0.155971, 21.3865, -160.383, -92.5824, 54.7955
4.07158, 5, -35.9451, -0.208962, 21.4419, -160.37, -92.5802, 54.7959
4.07959, 5, -35.8765, -0.261775, 21.4971, -160.357, -92.5781, 54.7964
4.08761, 5, -35.8078, -0.314464, 21.5522, -160.344, -92.576, 54.7971
4.09554, 5, -35.7388, -0.36721, 21.6073, -160.332, -92.574, 54.798
4.10374, 5, -35.6696, -0.419928, 21.6622, -160.319, -92.5718, 54.7991
4.11156, 5, -35.6001, -0.472711, 21.7168, -160.307, -92.5697, 54.8003
4.11969, 5, -35.5303, -0.525549, 21.7713, -160.294, -92.5676, 54.8017
4.12776, 5, -35.4603, -0.578404, 21.8257, -160.282, -92.5654, 54.8032
4.13672, 5, -35.3901, -0.631265, 21.8798, -160.269, -92.5632, 54.8049
4.14353, 5, -35.3196, -0.684066, 21.9339, -160.256, -92.5611, 54.8067
4.15175, 5, -35.2491, -0.736822, 21.9879, -160.243, -92.5589, 54.8086
4.16058, 5, -35.1786, -0.789243, 22.0417, -160.23, -92.5567, 54.8107
4.16852, 5, -35.108, -0.841491, 22.0955, -160.216, -92.5545, 54.8129
4.17573, 5, -35.0374, -0.893671, 22.1491, -160.203, -92.5522, 54.8152
4.18438, 5, -34.9669, -0.945486, 22.2026, -160.19, -92.5499, 54.8176
4.19157, 5, -34.8964, -0.997145, 22.2561, -160.177, -92.5476, 54.8201
4.20164, 5, -34.826, -1.0486, 22.3094, -160.164, -92.5453, 54.8228
4.20794, 5, -34.7554, -1.10005, 22.3625, -160.151, -92.543, 54.8256
4.21568, 5, -34.6847, -1.1515, 22.4154, -160.138, -92.5407, 54.8285
4.22358, 5, -34.6138, -1.20281, 22.4682, -160.125, -92.5383, 54.8315
4.23169, 5, -34.5428, -1.25424, 22.5207, -160.112, -92.536, 54.8345
4.23968, 5, -34.4717, -1.30566, 22.5731, -160.099, -92.5336, 54.8377
4.2477, 5, -34.4004, -1.35704, 22.6254, -160.085, -92.5312, 54.8411
4.25579, 5, -34.3288, -1.4084, 22.6775, -160.071, -92.5289, 54.8446
4.26452, 5, -34.2571, -1.45968, 22.7295, -160.057, -92.5265, 54.8481
4.27175, 5, -34.1852, -1.51078, 22.7815, -160.044, -92.5242, 54.8518
4.28049, 5, -34.1133, -1.5616, 22.8332, -160.03, -92.5217, 54.8555
4.28758, 5, -34.0411, -1.61232, 22.8849, -160.017, -92.5193, 54.8595
4.29564, 5, -33.969, -1.66277, 22.9365, -160.003, -92.5169, 54.8635
4.30395, 5, -33.8968, -1.713, 22.9879, -159.99, -92.5145, 54.8675
4.31175, 5, -33.8247, -1.76306, 23.0391, -159.976, -92.5121, 54.8716
4.31978, 5, -33.7526, -1.81309, 23.0902, -159.962, -92.5098, 54.8758
4.32818, 5, -33.6803, -1.863, 23.1411, -159.948, -92.5075, 54.88
4.33679, 5, -33.608, -1.91284, 23.1918, -159.933, -92.5051, 54.8843
4.34397, 5, -33.5353, -1.96291, 23.2424, -159.919, -92.5028, 54.8887
4.35204, 5, -33.4624, -2.01324, 23.2929, -159.905, -92.5004, 54.8927
4.36098, 5, -33.3895, -2.06382, 23.3432, -159.891, -92.4981, 54.8959
4.36812, 5, -33.3168, -2.11481, 23.3935, -159.877, -92.4958, 54.8976
4.37651, 6, -33.2443, -2.16627, 23.444, -159.863, -92.4934, 54.8978
4.38564, 6, -33.1723, -2.21859, 23.4946, -159.848, -92.4908, 54.8959
4.39212, 6, -33.1363, -2.24509, 23.5201, -159.833, -92.4877, 54.8906
4.4001, 6, -33.0648, -2.29872, 23.5716, -159.825, -92.4858, 54.8858
4.40758, 7, -32.9938, -2.35347, 23.624, -159.807, -92.4809, 54.8724
4.41552, 7, -32.9232, -2.40934, 23.6776, -159.788, -92.4746, 54.8561
4.42661, 7, -32.8183, -2.49589, 23.7607, -159.758, -92.4615, 54.8286
4.43173, 7, -32.7837, -2.52551, 23.7892, -159.747, -92.4561, 54.8194
4.44149, 8, -32.6807, -2.61683, 23.8768, -159.714, -92.4366, 54.7929
4.44752, 8, -32.6468, -2.64806, 23.9067, -159.702, -92.4291, 54.7843
4.45567, 8, -32.5794, -2.71193, 23.9674, -159.677, -92.4125, 54.7673
4.4635, 8, -32.5127, -2.77757, 24.0292, -159.65, -92.3942, 54.7497
4.47157, 8, -32.4468, -2.84481, 24.0921, -159.623, -92.374, 54.731
4.47952, 8, -32.3816, -2.91352, 24.156, -159.595, -92.3525, 54.7108
4.48752, 9, -32.317, -2.98361, 24.2209, -159.567, -92.33, 54.6888
4.4956, 9, -32.2529, -3.05503, 24.2868, -159.537, -92.3064, 54.6651
4.50369, 9, -32.1894, -3.12778, 24.3537, -159.505, -92.2815, 54.6397
4.51164, 9, -32.1265, -3.20173, 24.4215, -159.473, -92.2547, 54.613
4.51952, 9, -32.0641, -3.27705, 24.4904, -159.441, -92.2262, 54.5851
4.52755, 10, -32.0023, -3.35365, 24.5602, -159.407, -92.1965, 54.5557
4.53561, 10, -31.9412, -3.43161, 24.6311, -159.372, -92.1658, 54.5243
4.54542, 10, -31.8806, -3.51107, 24.7031, -159.336, -92.117, 54.4735
4.55174, 10, -31.8205, -3.59188, 24.7762, -159.3, -92.0997, 54.4558
4.56366, 10, -31.7316, -3.71581, 24.8876, -159.243, -92.046, 54.4011
4.5675, 11, -31.7022, -3.75783, 24.9252, -159.223, -92.0278, 54.3823
4.57664, 11, -31.6437, -3.84308, 25.0012, -159.184, -91.9903, 54.3431
4.58672, 11, -31.5572, -3.97362, 25.1168, -159.124, -91.9304, 54.2807
4.59152, 11, -31.5285, -4.01786, 25.1559, -159.103, -91.9098, 54.2592
4.60036, 11, -31.4717, -4.10746, 25.2348, -159.06, -91.8681, 54.2155
4.60757, 12, -31.4155, -4.19858, 25.3147, -159.017, -91.8248, 54.1704
4.61554, 12, -31.3597, -4.29108, 25.3958, -158.973, -91.7793, 54.123
4.6265, 12, -31.2769, -4.43238, 25.5193, -158.904, -91.71, 54.0494
4.63175, 12, -31.2496, -4.48013, 25.5611, -158.881, -91.6861, 54.0243
4.64077, 12, -31.1953, -4.57674, 25.6452, -158.835, -91.6368, 53.9728
4.64751, 13, -31.1416, -4.67479, 25.7303, -158.786, -91.5868, 53.9192
4.65554, 13, -31.0883, -4.77421, 25.8163, -158.738, -91.5352, 53.8646
4.66352, 13, -31.0356, -4.87509, 25.9033, -158.688, -91.4816, 53.8089
4.67161, 13, -30.9834, -4.9775, 25.9915, -158.637, -91.4276, 53.751
4.67974, 13, -30.9317, -5.08139, 26.0807, -158.586, -91.3717, 53.6918
4.6877, 14, -30.8806, -5.18662, 26.1711, -158.533, -91.3145, 53.6318
4.69572, 14, -30.8301, -5.29339, 26.2625, -158.48, -91.2567, 53.5695
4.70364, 14, -30.7801, -5.4016, 26.3547, -158.426, -91.1964, 53.506
4.715, 14, -30.7306, -5.56676, 26.4948, -158.342, -91.105, 53.4089
4.71954, 14, -30.6815, -5.62259, 26.542, -158.314, -91.0732, 53.3753
4.72783, 14, -30.6331, -5.73529, 26.6372, -158.258, -91.0095, 53.3075
4.73581, 15, -30.585, -5.84936, 26.7336, -158.199, -90.9444, 53.2388
4.74361, 15, -30.5375, -5.96471, 26.8312, -158.141, -90.8776, 53.1678
4.75377, 15, -30.4906, -6.08141, 26.9297, -158.081, -90.8103, 53.0962
4.75984, 15, -30.444, -6.1996, 27.0292, -158.02, -90.7406, 53.0226
4.76763, 15, -30.3981, -6.31914, 27.1296, -157.959, -90.6704, 52.9471
4.77567, 16, -30.3526, -6.44031, 27.2309, -157.896, -90.5981, 52.8709
4.78365, 16, -30.3077, -6.56288, 27.3334, -157.833, -90.5253, 52.792
4.79164, 16, -30.2633, -6.68686, 27.437, -157.769, -90.4506, 52.7128
4.79955, 16, -30.2193, -6.81241, 27.5418, -157.704, -90.375, 52.6318
4.80796, 16, -30.1758, -6.93942, 27.6476, -157.637, -90.2977, 52.5495
4.81572, 17, -30.1328, -7.06811, 27.7542, -157.571, -90.2194, 52.4661
4.8238, 17, -30.0903, -7.19835, 27.8616, -157.503, -90.1396, 52.3812
4.83224, 17, -30.0483, -7.32994, 27.97, -157.434, -90.0583, 52.2955
4.84032, 17, -30.0068, -7.46282, 28.0797, -157.364, -89.9761, 52.2076
4.84804, 17, -29.9659, -7.59709, 28.1906, -157.294, -89.8922, 52.1192
4.85606, 18, -29.9254, -7.73282, 28.3025, -157.222, -89.8072, 52.0289
4.86408, 18, -29.8855, -7.87, 28.4153, -157.15, -89.7207, 51.9377
4.87206, 18, -29.846, -8.00856, 28.5289, -157.077, -89.6334, 51.8445
4.88052, 18, -29.807, -8.14824, 28.6435, -157.002, -89.5446, 51.7504
4.88917, 18, -29.7684, -8.28935, 28.7593, -156.927, -89.4543, 51.6546
4.89602, 19, -29.7493, -8.36041, 28.8177, -156.889, -89.4089, 51.5582
4.90539, 19, -29.6927, -8.57595, 28.9945, -156.774, -89.2708, 51.46
4.91458, 19, -29.6554, -8.7216, 29.1134, -156.697, -89.1768, 51.3611
4.91956, 19, -29.637, -8.79494, 29.1732, -156.658, -89.1295, 51.311
4.92751, 19, -29.6005, -8.9424, 29.2933, -156.578, -89.0342, 51.2107
4.93547, 20, -29.5646, -9.09131, 29.4144, -156.498, -88.9376, 51.1084
4.94357, 20, -29.5291, -9.2417, 29.5368, -156.418, -88.8399, 51.0055
4.95152, 20, -29.4939, -9.39367, 29.6603, -156.336, -88.7414, 50.9011
4.95966, 20, -29.4593, -9.54688, 29.7846, -156.254, -88.6416, 50.7956
4.96755, 20, -29.4252, -9.70114, 29.9097, -156.17, -88.5407, 50.6889
4.97558, 21, -29.3916, -9.85676, 30.0358, -156.086, -88.4388, 50.5809
4.98351, 21, -29.3584, -10.0139, 30.1629, -156, -88.3355, 50.4721
4.99157, 21, -29.3255, -10.1725, 30.2912, -155.914, -88.2314, 50.3621
4.9995, 21, -29.2931, -10.3323, 30.4204, -155.827, -88.1263, 50.2513
5.00813, 21, -29.2612, -10.4928, 30.5504, -155.74, -88.0199, 50.1398
5.01585, 22, -29.2296, -10.6548, 30.6813, -155.651, -87.9128, 50.0272
5.02357, 22, -29.1985, -10.8182, 30.8131, -155.561, -87.8046, 49.9137
5.0335, 22, -29.1676, -10.9828, 30.9459, -155.425, -87.6405, 49.7422
5.04326, 22, -29.1222, -11.2315, 31.1468, -155.333, -87.5297, 49.6262
5.0475, 22, -29.1072, -11.315, 31.2142, -155.287, -87.4738, 49.5682
5.05651, 22, -29.0776, -11.4831, 31.3499, -155.194, -87.3617, 49.4512
5.06357, 23, -29.0483, -11.6529, 31.4862, -155.1, -87.2487, 49.3337
5.07154, 23, -29.0194, -11.8238, 31.6234, -155.005, -87.1346, 49.2152
5.08061, 23, -28.9908, -11.9954, 31.7613, -154.91, -87.0199, 49.0963
5.08766, 23, -28.9627, -12.1682, 31.9001, -154.813, -86.9041, 48.977
5.09551, 23, -28.935, -12.3425, 32.0399, -154.716, -86.7874, 48.8567
5.10428, 24, -28.9076, -12.518, 32.1807, -154.618, -86.6698, 48.7361
5.11155, 24, -28.8805, -12.694, 32.3221, -154.519, -86.5512, 48.615
5.11951, 24, -28.8538, -12.8708, 32.4641, -154.419, -86.432, 48.4929
5.13102, 24, -28.8144, -13.1386, 32.6788, -154.268, -86.2512, 48.3091
5.13565, 24, -28.8014, -13.2285, 32.7508, -154.217, -86.1908, 48.2476
5.14453, 25, -28.7757, -13.4087, 32.8955, -154.114, -86.0692, 48.1242
5.15157, 25, -28.7503, -13.5896, 33.0408, -154.011, -85.9467, 48.0007
5.15969, 25, -28.725, -13.7717, 33.1866, -153.907, -85.8239, 47.8772
5.17097, 25, -28.6874, -14.0473, 33.4068, -153.75, -85.6377, 47.6915
5.17553, 25, -28.6751, -14.1395, 33.4806, -153.697, -85.5756, 47.6295
5.18353, 26, -28.6507, -14.3242, 33.6288, -153.591, -85.4505, 47.5057
5.19157, 26, -28.6265, -14.51, 33.7773, -153.484, -85.3249, 47.3813
5.19952, 26, -28.6027, -14.6973, 33.9265, -153.376, -85.1988, 47.2568
5.2076, 26, -28.579, -14.8851, 34.0767, -153.268, -85.0718, 47.1327
5.21551, 26, -28.5554, -15.0733, 34.2275, -153.158, -84.9446, 47.0084
5.22353, 27, -28.5321, -15.2621, 34.3787, -153.048, -84.8166, 46.8845
5.23202, 27, -28.5091, -15.4518, 34.5304, -152.938, -84.6885, 46.7613
5.23996, 27, -28.4862, -15.642, 34.6828, -152.826, -84.5595, 46.6378
5.24784, 27, -28.4635, -15.8325, 34.836, -152.714, -84.4301, 46.5149
5.25591, 27, -28.4412, -16.024, 34.9894, -152.601, -84.3004, 46.3923
5.26444, 28, -28.4189, -16.217, 35.143, -152.488, -84.1703, 46.2698
5.27205, 28, -28.3965, -16.4106, 35.2972, -152.374, -84.0399, 46.1478
5.28181, 28, -28.3743, -16.6046, 35.4522, -152.259, -83.909, 46.0263
5.28857, 28, -28.3523, -16.7997, 35.6077, -152.143, -83.778, 45.9055
5.29846, 28, -28.3304, -16.9958, 35.7633, -152.027, -83.6464, 45.7853
5.3038, 29, -28.3086, -17.192, 35.9193, -151.91, -83.5149, 45.666
5.31246, 29, -28.287, -17.3884, 36.0761, -151.793, -83.3827, 45.5474
5.3198, 29, -28.2655, -17.5857, 36.2335, -151.674, -83.2503, 45.4295
5.32842, 29, -28.244, -17.7836, 36.3909, -151.556, -83.1173, 45.3125
5.33622, 29, -28.2225, -17.9815, 36.5484, -151.436, -82.9843, 45.196
5.34393, 29, -28.2014, -18.1796, 36.7068, -151.316, -82.8508, 45.0809
5.35275, 30, -28.1802, -18.3785, 36.8657, -151.195, -82.7174, 44.9669
5.36034, 30, -28.1589, -18.5778, 37.0245, -151.073, -82.5839, 44.8542
5.36936, 30, -28.1376, -18.7769, 37.183, -150.951, -82.4501, 44.7433
5.37606, 30, -28.1164, -18.9768, 37.3417, -150.829, -82.3165, 44.634
5.38414, 30, -28.0949, -19.1776, 37.5008, -150.706, -82.1823, 44.5268
5.39293, 31, -28.0841, -19.278, 37.6599, -150.583, -82.0485, 44.4207
5.40001, 31, -28.0625, -19.4787, 37.7394, -150.521, -81.9143, 44.3166
5.409, 31, -28.0411, -19.6793, 37.8983, -150.334, -81.7804, 44.2142
5.41553, 31, -28.0195, -19.8803, 38.058, -150.272, -81.7134, 44.1636
5.4235, 31, -27.9978, -20.0811, 38.2181, -150.146, -81.5788, 44.0631
5.43169, 32, -27.976, -20.2814, 38.378, -150.02, -81.4447, 43.9647
5.44102, 32, -27.954, -20.4821, 38.6173, -149.831, -81.2435, 43.8208
5.44754, 32, -27.9317, -20.6835, 38.6972, -149.767, -81.1765, 43.7738
5.4579, 32, -27.8978, -20.9848, 38.9371, -149.576, -80.9756, 43.6371
5.46371, 32, -27.8864, -21.0851, 39.0167, -149.513, -80.9089, 43.5929
5.47296, 33, -27.8519, -21.3864, 39.2549, -149.321, -80.7092, 43.4645
5.48099, 33, -27.8285, -21.5866, 39.4139, -149.194, -80.5767, 43.3828
5.4895, 33, -27.8046, -21.7859, 39.5726, -149.066, -80.4444, 43.3041
5.49549, 33, -27.7925, -21.8854, 39.6516, -149.002, -80.3786, 43.2662
5.50354, 33, -27.7678, -22.0847, 39.8088, -148.875, -80.2472, 43.1921
5.51152, 34, -27.7427, -22.2832, 39.9655, -148.747, -80.116, 43.1217
5.51951, 34, -27.7171, -22.4807, 40.1223, -148.619, -79.9853, 43.0549
5.52905, 34, -27.691, -22.6777, 40.2786, -148.492, -79.8545, 42.9595
5.53785, 34, -27.6513, -22.9729, 40.5116, -148.3, -79.6586, 42.9006
5.54357, 34, -27.6378, -23.071, 40.5892, -148.236, -79.5932, 42.8723
5.55255, 35, -27.6104, -23.2667, 40.7446, -148.108, -79.4627, 42.8178
5.55952, 35, -27.5828, -23.4624, 40.8997, -147.98, -79.332, 42.7667
5.56753, 35, -27.5552, -23.6585, 41.0541, -147.851, -79.2017, 42.7196
5.57549, 35, -27.5272, -23.8541, 41.2082, -147.722, -79.0716, 42.6756
5.58366, 35, -27.499, -24.0492, 41.3625, -147.592, -78.9415, 42.6345
5.59244, 36, -27.4705, -24.2445, 41.5168, -147.461, -78.812, 42.5969
5.60048, 36, -27.4416, -24.4396, 41.6707, -147.331, -78.6823, 42.5636
5.60872, 36, -27.4125, -24.6338, 41.8238, -147.2, -78.5536, 42.5346
5.61891, 36, -27.3679, -24.924, 42.0531, -147.003, -78.3607, 42.499
5.6235, 36, -27.3526, -25.0207, 42.1293, -146.938, -78.2968, 42.4893
5.63244, 37, -27.3215, -25.2134, 42.2809, -146.807, -78.1692, 42.4732
5.64054, 37, -27.2894, -25.4046, 42.431, -146.677, -78.042, 42.4618
5.64749, 37, -27.2565, -25.5947, 42.5802, -146.547, -77.9154, 42.4555
5.65908, 37, -27.2227, -25.7842, 42.7282, -146.354, -77.7262, 42.4526
5.66368, 37, -27.1878, -25.9723, 42.875, -146.29, -77.6635, 42.4535
5.67152, 37, -27.1519, -26.1586, 43.0204, -146.163, -77.5382, 42.4602
5.67952, 38, -27.1153, -26.3436, 43.1646, -146.036, -77.4136, 42.4731
5.68753, 38, -27.078, -26.528, 43.308, -145.909, -77.2892, 42.491
5.69554, 38, -27.0398, -26.7112, 43.4508, -145.782, -77.1652, 42.5143
5.70353, 38, -27.001, -26.8931, 43.593, -145.656, -77.0415, 42.5429
5.71262, 38, -26.9615, -27.0743, 43.7343, -145.529, -76.9179, 42.5773
5.72053, 39, -26.9213, -27.2555, 43.8751, -145.402, -76.7948, 42.6178
5.72753, 39, -26.8805, -27.4359, 44.0152, -145.275, -76.6714, 42.664
5.73581, 39, -26.8389, -27.6151, 44.1548, -145.148, -76.5482, 42.7155
5.74447, 39, -26.7965, -27.7936, 44.2936, -145.021, -76.4249, 42.7732
5.75164, 39, -26.7534, -27.9718, 44.4311, -144.895, -76.3017, 42.8377
5.7596, 40, -26.7093, -28.1489, 44.5674, -144.769, -76.1787, 42.9076
5.7676, 40, -26.664, -28.3242, 44.7026, -144.644, -76.056, 42.9847
5.77566, 40, -26.6178, -28.498, 44.8364, -144.52, -75.9342, 43.0682
5.78394, 40, -26.5705, -28.6707, 44.9686, -144.397, -75.8125, 43.1577
5.79247, 40, -26.522, -28.8419, 45.0992, -144.275, -75.692, 43.2547
5.79952, 41, -26.4723, -29.0112, 45.2284, -144.154, -75.5719, 43.3578
5.80929, 41, -26.4216, -29.1786, 45.3561, -144.034, -75.4523, 43.4679
5.81562, 41, -26.3696, -29.3449, 45.4825, -143.915, -75.3333, 43.5847
5.82459, 41, -26.3162, -29.51, 45.6076, -143.797, -75.2144, 43.7085
5.83173, 41, -26.2618, -29.6729, 45.7311, -143.68, -75.0964, 43.8393
5.84022, 42, -26.206, -29.8339, 45.8528, -143.564, -74.9785, 43.9775
5.84873, 42, -26.1486, -29.9932, 45.9728, -143.449, -74.861, 44.1232
5.85602, 42, -26.0896, -30.1509, 46.0905, -143.336, -74.7443, 44.2757
5.86484, 42, -26.0289, -30.3064, 46.2062, -143.225, -74.6278, 44.4356
5.87201, 42, -25.9668, -30.4594, 46.3198, -143.116, -74.512, 44.6026
5.88078, 43, -25.9028, -30.6101, 46.4311, -143.009, -74.3968, 44.7767
5.89044, 43, -25.8372, -30.7586, 46.5402, -142.904, -74.2818, 44.9588
5.89604, 43, -25.8037, -30.8321, 46.594, -142.8, -74.1674, 45.1483
5.90505, 43, -25.7356, -30.9774, 46.7523, -142.699, -74.0531, 45.3458
5.91231, 43, -25.6659, -31.1908, 46.8555, -142.599, -73.9397, 45.5507
5.91946, 43, -25.5947, -31.261, 46.9064, -142.55, -73.8831, 45.6561
5.92748, 44, -25.5218, -31.3997, 47.0066, -142.453, -73.7702, 45.8727
5.93564, 44, -25.4472, -31.5362, 47.1045, -142.358, -73.6582, 46.0976
5.94346, 44, -25.3707, -31.6708, 47.1999, -142.265, -73.5467, 46.3304
5.95159, 44, -25.2927, -31.8026, 47.293, -142.175, -73.4356, 46.5713
5.95949, 44, -25.2127, -31.9317, 47.3836, -142.088, -73.3256, 46.8202
5.96748, 45, -25.131, -32.0583, 47.4718, -142.003, -73.2159, 47.0777
5.97553, 45, -25.0472, -32.1819, 47.5576, -141.921, -73.1069, 47.3437
5.98367, 45, -24.9612, -32.3028, 47.6406, -141.842, -72.9983, 47.6179
5.99286, 45, -24.8731, -32.4206, 47.7205, -141.766, -72.8362, 48.0445
5.99949, 45, -24.7826, -32.5353, 47.7975, -141.693, -72.7825, 48.1909
6.00756, 46, -24.6897, -32.6465, 47.8714, -141.623, -72.6754, 48.4905
6.01551, 46, -24.5946, -32.7543, 47.9424, -141.557, -72.5689, 48.7981
6.02348, 46, -24.4969, -32.8588, 48.0104, -141.493, -72.4634, 49.114
6.03383, 46, -24.3463, -33.0085, 48.1064, -141.406, -72.3066, 49.6038
6.0397, 46, -24.2949, -33.0566, 48.1367, -141.379, -72.255, 49.7712
6.0485, 47, -24.1904, -33.1499, 48.1947, -141.328, -72.1527, 50.1118
6.05548, 47, -24.0835, -33.2392, 48.2491, -141.281, -72.0512, 50.4606
6.06347, 47, -23.974, -33.3246, 48.2999, -141.237, -71.9509, 50.818
6.07155, 47, -23.8619, -33.4058, 48.3469, -141.199, -71.8518, 51.1838
6.07956, 47, -23.7471, -33.483, 48.3901, -141.165, -71.7539, 51.5583
6.08763, 48, -23.6295, -33.5559, 48.4294, -141.136, -71.6571, 51.9417
6.09647, 48, -23.5092, -33.6243, 48.4646, -141.111, -71.5623, 52.3334
6.10354, 48, -23.3863, -33.6881, 48.4955, -141.09, -71.4687, 52.735
6.11148, 48, -23.2611, -33.7471, 48.5224, -141.075, -71.3768, 53.146
6.11959, 48, -23.1331, -33.801, 48.545, -141.065, -71.2872, 53.5658
6.12752, 49, -23.0022, -33.8498, 48.5631, -141.06, -71.1992, 53.9949
6.1357, 49, -22.8684, -33.8933, 48.5768, -141.059, -71.1131, 54.4316
6.14444, 49, -22.7315, -33.9312, 48.5858, -141.063, -71.0294, 54.876
6.15254, 49, -22.5918, -33.9636, 48.59, -141.075, -70.9475, 55.3281
6.16065, 49, -22.4493, -33.9902, 48.5899, -141.092, -70.8682, 55.7872
6.16772, 50, -22.3039, -34.0108, 48.5849, -141.116, -70.7912, 56.2542
6.17552, 50, -22.1559, -34.0252, 48.5747, -141.145, -70.7174, 56.7276
6.18427, 50, -22.0053, -34.0334, 48.5595, -141.18, -70.6462, 57.2092
6.19148, 50, -21.8517, -34.0356, 48.5389, -141.222, -70.5784, 57.6986
6.19948, 50, -21.6952, -34.0317, 48.5129, -141.27, -70.5134, 58.1953
6.20852, 51, -21.5355, -34.021, 48.4813, -141.324, -70.4528, 58.6989
6.21668, 51, -21.3729, -34.0036, 48.4445, -141.385, -70.3948, 59.2084
6.22348, 51, -21.2077, -33.9792, 48.402, -141.452, -70.3411, 59.7246
6.23679, 51, -20.955, -33.9294, 48.3279, -141.564, -70.2675, 60.5098
6.24062, 51, -20.8696, -33.9092, 48.3003, -141.604, -70.2446, 60.7744
6.24773, 51, -20.6967, -33.8631, 48.2408, -141.69, -70.2025, 61.3076
6.25582, 52, -20.5211, -33.8091, 48.1753, -141.781, -70.1653, 61.8475
6.26385, 52, -20.3429, -33.7473, 48.1039, -141.88, -70.1324, 62.3938
6.2725, 52, -20.1617, -33.6774, 48.0263, -141.985, -70.104, 62.947
6.27958, 52, -19.9778, -33.5993, 47.9425, -142.096, -70.0807, 63.5057
6.28783, 52, -19.7914, -33.5127, 47.8524, -142.213, -70.0628, 64.0707
6.29581, 53, -19.6029, -33.4176, 47.7561, -142.337, -70.0505, 64.6414
6.3036, 53, -19.4125, -33.3143, 47.6538, -142.466, -70.0436, 65.217
6.3116, 53, -19.2201, -33.2029, 47.5457, -142.602, -70.0416, 65.7957
6.31961, 53, -19.026, -33.0833, 47.4316, -142.743, -70.0446, 66.3783
6.32776, 53, -18.8302, -32.9553, 47.3117, -142.888, -70.0539, 66.9635
6.33704, 54, -18.6326, -32.8191, 47.1859, -143.039, -70.0694, 67.5502
6.34558, 54, -18.4331, -32.6745, 47.0543, -143.194, -70.0916, 68.1377
6.35256, 54, -18.2317, -32.5218, 46.9174, -143.354, -70.1205, 68.7266
6.36002, 54, -18.0288, -32.3609, 46.7747, -143.518, -70.1555, 69.3171
6.36881, 54, -17.8247, -32.191, 46.6262, -143.687, -70.1968, 69.9091
6.37658, 55, -17.6198, -32.0118, 46.4712, -143.86, -70.2466, 70.5039
6.38412, 55, -17.4137, -31.8232, 46.31, -144.038, -70.3037, 71.1029
6.39205, 55, -17.206, -31.6254, 46.1421, -144.221, -70.3688, 71.7067
6.40006, 55, -17.1014, -31.5227, 45.9665, -144.409, -70.4432, 72.3145
6.40817, 55, -16.891, -31.3091, 45.8758, -144.602, -70.526, 72.9274
6.41632, 56, -16.6789, -31.0849, 45.6893, -144.8, -70.6184, 73.5454
6.42351, 56, -16.4653, -30.8504, 45.4961, -144.901, -70.6678, 73.856
6.43153, 56, -16.2505, -30.6049, 45.2952, -145.105, -70.7736, 74.4787
6.44086, 56, -15.9279, -30.2165, 44.9804, -145.419, -70.95, 75.4187
6.44898, 56, -15.8206, -29.9445, 44.7632, -145.632, -71.079, 76.0482
6.45554, 57, -15.6053, -29.8044, 44.6519, -145.74, -71.1472, 76.3632
6.46353, 57, -15.389, -29.5168, 44.4239, -145.958, -71.2903, 76.9932
6.47148, 57, -15.1717, -29.2191, 44.1903, -146.178, -71.4431, 77.6242
6.48166, 57, -14.8447, -28.7546, 43.8281, -146.51, -71.6897, 78.5704
6.49026, 57, -14.6271, -28.4343, 43.5803, -146.734, -71.8658, 79.1984
6.4957, 58, -14.5185, -28.2711, 43.4548, -146.845, -71.9571, 79.5118
6.50344, 58, -14.3021, -27.9393, 43.2002, -147.069, -72.1456, 80.1361
6.51154, 58, -14.0869, -27.5993, 42.9422, -147.291, -72.3419, 80.7555
6.51951, 58, -13.8734, -27.2523, 42.6811, -147.512, -72.5457, 81.3683
6.52745, 58, -13.6612, -26.8984, 42.4166, -147.731, -72.7569, 81.976
6.53698, 58, -13.4501, -26.538, 42.1495, -147.948, -72.9751, 82.5779
6.54348, 59, -13.2404, -26.1704, 41.8784, -148.164, -73.2008, 83.174
6.55246, 59, -13.0326, -25.796, 41.6039, -148.377, -73.4342, 83.7651
6.55953, 59, -12.8264, -25.4149, 41.3259, -148.589, -73.6757, 84.3524
6.56861, 59, -12.6214, -25.0274, 41.0437, -148.799, -73.9254, 84.9359
6.57551, 59, -12.4175, -24.6323, 40.7581, -149.008, -74.1837, 85.5148
6.58347, 60, -12.2148, -24.2302, 40.4679, -149.214, -74.4504, 86.0898
6.59164, 60, -12.0135, -23.8214, 40.1748, -149.418, -74.7253, 86.6609
6.60044, 60, -11.8137, -23.4068, 39.8786, -149.62, -75.0081, 87.2278
6.60846, 60, -11.6157, -22.9858, 39.5805, -149.818, -75.2986, 87.7887
6.61554, 60, -11.42, -22.5597, 39.2808, -150.013, -75.5959, 88.344
6.62351, 61, -11.2266, -22.1294, 38.9796, -150.205, -75.8994, 88.8932
6.63148, 61, -11.0354, -21.6951, 38.6775, -150.392, -76.2083, 89.4345
6.64068, 61, -10.8464, -21.2575, 38.3747, -150.574, -76.5219, 89.9668
6.64763, 61, -10.6596, -20.8162, 38.0718, -150.752, -76.8405, 90.4905
6.65861, 61, -10.3836, -20.1463, 37.6162, -151.009, -77.327, 91.2605
6.66429, 62, -10.2928, -19.9211, 37.4643, -151.092, -77.4917, 91.5133
6.67148, 62, -10.1135, -19.4681, 37.1595, -151.256, -77.825, 92.0128
6.67949, 62, -9.93679, -19.0126, 36.8542, -151.415, -78.164, 92.5047
6.69085, 62, -9.67654, -18.3249, 36.394, -151.646, -78.6827, 93.23
6.69568, 62, -9.59101, -18.0949, 36.2407, -151.72, -78.8581, 93.4678
6.70342, 63, -9.42154, -17.6344, 35.9342, -151.866, -79.2119, 93.9373
6.71154, 63, -9.2543, -17.1727, 35.6291, -152.006, -79.5689, 94.3963
6.71947, 63, -9.08961, -16.7099, 35.326, -152.14, -79.9277, 94.8447
6.72779, 63, -8.9276, -16.2453, 35.0249, -152.269, -80.2883, 95.2822
6.7355, 63, -8.76815, -15.7781, 34.726, -152.391, -80.6499, 95.708
6.74371, 63, -8.6113, -15.309, 34.4287, -152.508, -81.0139, 96.1239
6.75247, 64, -8.4568, -14.8381, 34.1333, -152.621, -81.381, 96.5292
6.75956, 64, -8.30467, -14.3655, 33.8375, -152.728, -81.7523, 96.925
6.76794, 64, -8.15483, -13.8925, 33.5416, -152.831, -82.1292, 97.3128
6.77559, 64, -8.00714, -13.4192, 33.245, -152.93, -82.5113, 97.6912
6.78383, 65, -7.86178, -12.946, 32.949, -153.024, -82.8979, 98.0592
6.79251, 65, -7.71893, -12.4737, 32.6543, -153.112, -83.2875, 98.4162
6.79982, 65, -7.57899, -12.0021, 32.3624, -153.194, -83.6783, 98.76
6.80839, 65, -7.44209, -11.5313, 32.0746, -153.271, -84.0689, 99.0893
6.81655, 65, -7.30825, -11.0613, 31.7908, -153.341, -84.4582, 99.4041
6.82477, 65, -7.1774, -10.593, 31.512, -153.405, -84.8458, 99.7034
6.83245, 66, -7.049, -10.1279, 31.2372, -153.464, -85.2312, 99.9869
6.84195, 66, -6.92286, -9.66733, 30.9671, -153.516, -85.6154, 100.254
6.84847, 66, -6.79894, -9.21272, 30.7016, -153.562, -85.9979, 100.506
6.85588, 66, -6.67716, -8.76493, 30.4398, -153.603, -86.3781, 100.741
6.86476, 67, -6.55768, -8.32363, 30.1834, -153.638, -86.7554, 100.96
6.87342, 67, -6.44106, -7.88937, 29.9324, -153.668, -87.1286, 101.16
6.88, 67, -6.32733, -7.46173, 29.6878, -153.691, -87.497, 101.344
6.88803, 67, -6.21642, -7.04024, 29.4507, -153.709, -87.8597, 101.509
6.8975, 67, -6.10813, -6.6248, 29.22, -153.721, -88.2167, 101.657
6.90403, 67, -6.05491, -6.4196, 29.107, -153.728, -88.5684, 101.787
6.9121, 68, -5.95027, -6.01381, 28.886, -153.731, -88.9157, 101.9
6.92044, 68, -5.84757, -5.61428, 28.6703, -153.731, -89.2597, 101.996
6.92834, 68, -5.74654, -5.21996, 28.4583, -153.723, -89.6017, 102.074
6.93556, 68, -5.64718, -4.83107, 28.2501, -153.718, -89.7723, 102.106
6.94363, 68, -5.54945, -4.44722, 28.0452, -153.705, -90.1131, 102.157
6.95142, 69, -5.4534, -4.06771, 27.843, -153.688, -90.4529, 102.19
6.9595, 69, -5.35904, -3.69137, 27.6446, -153.666, -90.7927, 102.205
6.96749, 69, -5.26638, -3.31858, 27.4506, -153.639, -91.1317, 102.202
6.97545, 69, -5.17559, -2.9494, 27.2595, -153.608, -91.4703, 102.177
6.98346, 69, -5.08652, -2.5839, 27.0718, -153.574, -91.8077, 102.132
6.99165, 70, -4.99887, -2.22138, 26.8884, -153.536, -92.1439, 102.064
7.00328, 70, -4.86987, -1.68564, 26.6202, -153.471, -92.6454, 101.922
7.00743, 70, -4.82751, -1.50956, 26.5324, -153.447, -92.8118, 101.863
7.01789, 70, -4.70189, -0.9895, 26.2759, -153.372, -93.3077, 101.654
7.02349, 70, -4.66056, -0.81882, 26.1926, -153.345, -93.4718, 101.573
7.03141, 71, -4.57866, -0.482499, 26.0287, -153.289, -93.7979, 101.395
7.04042, 71, -4.49789, -0.152531, 25.8688, -153.232, -94.1208, 101.197
7.0476, 71, -4.41819, 0.170364, 25.7144, -153.17, -94.4403, 100.977
7.05544, 71, -4.33933, 0.487028, 25.5654, -153.107, -94.7555, 100.738
7.06717, 71, -4.22261, 0.950039, 25.3509, -153.008, -95.2214, 100.34
7.07164, 71, -4.18415, 1.10088, 25.2817, -152.974, -95.3747, 100.198
7.07955, 72, -4.10751, 1.39777, 25.1466, -152.905, -95.6788, 99.8978
7.08747, 72, -4.0311, 1.68769, 25.0154, -152.834, -95.9797, 99.5779
7.09545, 72, -3.95505, 1.97131, 24.8876, -152.763, -96.2779, 99.2372
7.10346, 72, -3.87904, 2.24897, 24.763, -152.69, -96.5736, 98.876
7.11146, 72, -3.80306, 2.52017, 24.6414, -152.617, -96.867, 98.4931
7.12024, 73, -3.72722, 2.78578, 24.5229, -152.544, -97.158, 98.088
7.12853, 73, -3.65112, 3.04528, 24.4076, -152.47, -97.4465, 97.6607
7.13545, 73, -3.57472, 3.2982, 24.296, -152.396, -97.7324, 97.2105
7.14359, 73, -3.49798, 3.54499, 24.188, -152.323, -98.0153, 96.7391
7.15244, 73, -3.42088, 3.78489, 24.084, -152.251, -98.2946, 96.2463
7.15946, 74, -3.34311, 4.01643, 23.984, -152.18, -98.5699, 95.7343
7.16805, 74, -3.26472, 4.23984, 23.8878, -152.111, -98.8401, 95.2047
7.1765, 74, -3.1857, 4.45461, 23.7957, -152.043, -99.1047, 94.6602
7.18448, 74, -3.10595, 4.65962, 23.7079, -151.977, -99.3627, 94.1032
7.19257, 74, -3.02556, 4.8549, 23.6245, -151.914, -99.6135, 93.5346
7.2036, 75, -2.90333, 5.12974, 23.5075, -151.824, -99.974, 92.6647
7.20746, 75, -2.86209, 5.2161, 23.4706, -151.796, -100.09, 92.3712
7.2202, 75, -2.73698, 5.45861, 23.3658, -151.714, -100.423, 91.4801
7.22359, 75, -2.69484, 5.5341, 23.3328, -151.689, -100.53, 91.1797
7.23166, 75, -2.60984, 5.6769, 23.27, -151.64, -100.735, 90.574
7.23952, 76, -2.52385, 5.80841, 23.2113, -151.594, -100.932, 89.9617
7.24755, 76, -2.43685, 5.92838, 23.1571, -151.553, -101.119, 89.3411
7.25554, 76, -2.349, 6.03661, 23.1071, -151.516, -101.297, 88.711
7.26388, 76, -2.26042, 6.1326, 23.0614, -151.483, -101.465, 88.0732
7.27173, 76, -2.171, 6.21602, 23.0204, -151.452, -101.624, 87.4287
7.27958, 77, -2.08075, 6.28654, 22.9843, -151.427, -101.771, 86.7784
7.28809, 77, -1.98966, 6.34405, 22.9535, -151.405, -101.906, 86.1266
7.29647, 77, -1.89762, 6.38813, 22.9283, -151.387, -102.027, 85.476
7.3043, 77, -1.80463, 6.4181, 22.9088, -151.374, -102.134, 84.8278
7.31148, 77, -1.71084, 6.43403, 22.8952, -151.364, -102.226, 84.1832
7.32076, 78, -1.61628, 6.43559, 22.8874, -151.358, -102.303, 83.5434
7.33186, 78, -1.47307, 6.40951, 22.8859, -151.354, -102.39, 82.591
7.33573, 78, -1.42504, 6.3932, 22.8883, -151.354, -102.411, 82.2753
7.34781, 78, -1.28055, 6.32048, 22.9046, -151.36, -102.45, 81.3353
7.35226, 78, -1.23227, 6.28817, 22.9131, -151.363, -102.456, 81.0247
7.35992, 78, -1.1355, 6.21148, 22.9352, -151.373, -102.455, 80.4073
7.36872, 79, -1.03864, 6.11864, 22.9642, -151.386, -102.436, 79.7966
7.37606, 79, -0.94159, 6.00972, 23.0006, -151.402, -102.399, 79.1945
7.38485, 79, -0.844594, 5.88455, 23.0445, -151.421, -102.345, 78.6018
7.39201, 79, -0.747584, 5.74283, 23.0958, -151.442, -102.273, 78.0186
7.40026, 79, -0.65054, 5.5846, 23.1548, -151.467, -102.183, 77.4453
7.40888, 80, -0.601999, 5.49926, 23.1871, -151.48, -102.075, 76.8831
7.41595, 80, -0.50487, 5.31617, 23.2575, -151.507, -102.013, 76.6061
7.42498, 80, -0.407819, 5.11657, 23.3358, -151.535, -101.877, 75.7892
7.43292, 80, -0.31096, 4.89992, 23.4687, -151.581, -101.638, 75.2564
7.43945, 80, -0.21416, 4.6649, 23.5172, -151.597, -101.549, 74.9935
7.44759, 81, -0.117461, 4.41219, 23.6208, -151.631, -101.356, 74.4756
7.45689, 81, -0.0209341, 4.14292, 23.793, -151.682, -101.03, 73.7153
7.46348, 81, 0.0753346, 3.85642, 23.8551, -151.699, -100.912, 73.4665
7.47394, 81, 0.219376, 3.39559, 24.0556, -151.755, -100.529, 72.7344
7.47965, 81, 0.267241, 3.2332, 24.1275, -151.773, -100.392, 72.4952
7.48975, 82, 0.410544, 2.72076, 24.3576, -151.829, -99.9511, 71.7921
7.49549, 82, 0.458203, 2.54159, 24.4389, -151.848, -99.7945, 71.5623
7.50562, 82, 0.600839, 1.9806, 24.697, -151.904, -99.2969, 70.8876
7.51143, 82, 0.648272, 1.78537, 24.788, -151.923, -99.1222, 70.6675
7.52102, 82, 0.790339, 1.17535, 25.0747, -151.977, -98.5717, 70.0231
7.52976, 83, 0.88504, 0.749477, 25.2771, -152.013, -98.1841, 69.6061
7.53897, 83, 0.979737, 0.308963, 25.49, -152.048, -97.7801, 69.1994
7.54338, 83, 1.02712, 0.08331, 25.6003, -152.065, -97.5724, 69.0002
7.55513, 83, 1.16941, -0.615447, 25.9438, -152.113, -96.9261, 68.4172
7.56129, 83, 1.21688, -0.855445, 26.0629, -152.129, -96.703, 68.0409
7.56763, 84, 1.31192, -1.34621, 26.3087, -152.159, -96.2458, 67.8564
7.57643, 84, 1.40722, -1.85047, 26.564, -152.188, -95.773, 67.4935
7.58343, 84, 1.50274, -2.36771, 26.8298, -152.215, -95.2853, 67.138
7.59147, 84, 1.59862, -2.89888, 27.106, -152.241, -94.7816, 66.7903
7.5995, 84, 1.69481, -3.44354, 27.3924, -152.265, -94.2629, 66.4493
7.60757, 84, 1.79141, -4.00134, 27.6895, -152.287, -93.7294, 66.1151
7.61671, 85, 1.88827, -4.57196, 27.9964, -152.308, -93.1805, 65.7884
7.62344, 85, 1.98543, -5.15373, 28.3136, -152.327, -92.6169, 65.4697
7.63538, 85, 2.13191, -6.0456, 28.8064, -152.351, -91.7496, 65.0063
7.6396, 85, 2.18094, -6.34729, 28.9751, -152.358, -91.4553, 64.8561
7.6486, 86, 2.27957, -6.9565, 29.3189, -152.369, -90.8589, 64.563
7.65552, 86, 2.37884, -7.57308, 29.6707, -152.378, -90.2529, 64.2796
7.66361, 86, 2.47904, -8.1957, 30.0295, -152.383, -89.6379, 64.0065
7.67243, 86, 2.58034, -8.8246, 30.3947, -152.386, -89.0146, 63.7443
7.68043, 86, 2.68231, -9.45892, 30.7654, -152.387, -88.387, 63.4937
7.68747, 86, 2.78548, -10.0974, 31.1414, -152.384, -87.7553, 63.2545
7.69549, 87, 2.88968, -10.7395, 31.523, -152.378, -87.1179, 63.0271
7.70347, 87, 2.99448, -11.3842, 31.9089, -152.368, -86.4751, 62.8118
7.71143, 87, 3.10035, -12.0313, 32.2993, -152.354, -85.8277, 62.609
7.72046, 87, 3.20695, -12.6799, 32.6939, -152.337, -85.1764, 62.4191
7.72743, 87, 3.31417, -13.3304, 33.0934, -152.315, -84.5224, 62.2422
7.73547, 88, 3.42216, -13.9829, 33.4975, -152.29, -83.8638, 62.0783
7.74366, 88, 3.53083, -14.6377, 33.9056, -152.261, -83.2012, 61.9282
7.75152, 88, 3.64027, -15.2942, 34.318, -152.228, -82.5348, 61.792
7.76188, 88, 3.75038, -15.9519, 34.7348, -152.19, -81.8644, 61.6701
7.77022, 88, 3.86097, -16.6106, 35.1559, -152.147, -81.1918, 61.5634
7.77551, 89, 3.97187, -17.2689, 35.5812, -152.1, -80.5162, 61.4728
7.78355, 89, 4.08297, -17.9261, 36.01, -152.047, -79.837, 61.3994
7.79391, 89, 4.19393, -18.5808, 36.4416, -151.989, -79.1536, 61.3438
7.7998, 89, 4.30497, -19.2329, 36.8757, -151.926, -78.4668, 61.3067
7.80749, 89, 4.41585, -19.8807, 37.3103, -151.857, -77.7817, 61.2888
7.81552, 90, 4.5268, -20.5232, 37.7441, -151.783, -77.0993, 61.291
7.82363, 90, 4.63847, -21.1608, 38.177, -151.702, -76.419, 61.3177
7.83157, 90, 4.75053, -21.7936, 38.6079, -151.617, -75.7426, 61.3685
7.8399, 90, 4.8628, -22.4215, 39.0359, -151.526, -75.0723, 61.4434
7.84813, 90, 4.97511, -23.0442, 39.4616, -151.429, -74.4093, 61.5449
7.85623, 91, 5.08741, -23.6623, 39.8852, -151.326, -73.7498, 61.6727
7.86396, 91, 5.19948, -24.2748, 40.3078, -151.218, -73.0915, 61.8285
7.87193, 91, 5.3109, -24.8806, 40.73, -151.102, -72.434, 62.0126
7.88085, 91, 5.42141, -25.48, 41.1515, -150.98, -71.775, 62.2263
7.88819, 91, 5.53111, -26.0724, 41.5728, -150.851, -71.1152, 62.4699
7.89715, 92, 5.64021, -26.6575, 41.993, -150.716, -70.457, 62.7448
7.90401, 92, 5.74947, -27.2352, 42.4114, -150.574, -69.8, 63.0516
7.91205, 92, 5.80429, -27.5211, 42.8264, -150.427, -69.1453, 63.3891
7.91941, 92, 5.91437, -28.0868, 43.0319, -150.352, -68.8192, 63.5696
7.92745, 92, 6.02513, -28.6437, 43.4393, -150.198, -68.1694, 63.9545
7.93547, 92, 6.13698, -29.1901, 43.8403, -150.041, -67.5255, 64.3705
7.94346, 93, 6.25021, -29.7256, 44.2349, -149.881, -66.8884, 64.8182
7.95338, 93, 6.42367, -30.5095, 44.8149, -149.636, -65.9403, 65.5497
7.95942, 93, 6.4826, -30.7662, 45.0053, -149.554, -65.6261, 65.8096
7.96742, 93, 6.60206, -31.2738, 45.3823, -149.39, -64.9994, 66.3555
7.97759, 93, 6.78528, -32.0243, 45.9394, -149.142, -64.0608, 67.2457
7.98343, 94, 6.84745, -32.272, 46.1236, -149.058, -63.7472, 67.5636
7.99142, 94, 6.9736, -32.7637, 46.49, -148.892, -63.1153, 68.2354
8.00262, 94, 7.16672, -33.4897, 47.0366, -148.641, -62.1556, 69.3419
8.00744, 94, 7.23225, -33.728, 47.2177, -148.558, -61.8325, 69.7371
8.01541, 94, 7.36572, -34.1989, 47.5774, -148.396, -61.1817, 70.566
8.02494, 95, 7.50315, -34.8889, 48.1043, -148.164, -60.204, 71.9093
8.03322, 95, 7.71905, -35.336, 48.4437, -148.022, -59.5565, 72.8592
8.03941, 95, 7.79405, -35.5551, 48.6091, -147.955, -59.235, 73.35
8.0475, 95, 7.94888, -35.983, 48.9304, -147.834, -58.5978, 74.3599
8.05643, 95, 8.11056, -36.393, 49.2364, -147.73, -57.9693, 75.403
8.06368, 96, 8.27907, -36.7829, 49.5269, -147.643, -57.3513, 76.4798
8.07259, 96, 8.45439, -37.1515, 49.8005, -147.576, -56.7478, 77.5862
8.07941, 96, 8.63559, -37.4971, 50.0572, -147.53, -56.1584, 78.7212
8.0875, 96, 8.82193, -37.8178, 50.2966, -147.504, -55.5839, 79.8782
8.09544, 96, 9.01299, -38.1128, 50.5166, -147.498, -55.0272, 81.0516
8.10342, 96, 9.20734, -38.3829, 50.7172, -147.513, -54.4906, 82.236
8.11148, 97, 9.40328, -38.6275, 50.8984, -147.551, -53.977, 83.43
8.11944, 97, 9.59957, -38.8468, 51.059, -147.61, -53.4882, 84.6285
8.12743, 97, 9.79499, -39.0415, 51.1991, -147.688, -53.0263, 85.8205
8.1355, 97, 9.9891, -39.2114, 51.3198, -147.783, -52.593, 87.0002
8.14341, 97, 10.1805, -39.3554, 51.4208, -147.894, -52.1898, 88.1587
8.15148, 97, 10.3684, -39.4741, 51.5027, -148.017, -51.8172, 89.2906
8.15937, 98, 10.5525, -39.5676, 51.5664, -148.151, -51.4755, 90.3884
8.16742, 98, 10.7342, -39.637, 51.6122, -148.295, -51.1639, 91.4536
8.17548, 98, 10.9143, -39.6837, 51.6404, -148.448, -50.8803, 92.4937
8.18341, 98, 11.0927, -39.7071, 51.6514, -148.612, -50.6209, 93.5232
8.19141, 98, 11.269, -39.7073, 51.6457, -148.789, -50.3823, 94.5561
8.19954, 98, 11.4441, -39.684, 51.6228, -148.979, -50.1626, 95.6032
8.20743, 98, 11.6197, -39.6368, 51.5822, -149.183, -49.9618, 96.6721
8.21542, 99, 11.7949, -39.5664, 51.5238, -149.399, -49.7815, 97.7614
8.22348, 99, 11.9685, -39.4734, 51.447, -149.627, -49.6243, 98.8671
8.23145, 99, 12.1393, -39.3576, 51.3517, -149.864, -49.4936, 99.9789
8.23944, 99, 12.3066, -39.2196, 51.2383, -150.107, -49.3924, 101.086
8.24757, 99, 12.4683, -39.0594, 51.1075, -150.351, -49.3221, 102.175
8.2555, 99, 12.6228, -38.8768, 50.9607, -150.593, -49.2825, 103.24
8.26373, 100, 12.7687, -38.6703, 50.7983, -150.833, -49.2743, 104.274
8.27153, 100, 12.9058, -38.4396, 50.6193, -151.068, -49.2982, 105.28
8.27951, 100, 13.0338, -38.1862, 50.4232, -151.297, -49.3535, 106.257
8.28761, 100, 13.1534, -37.9108, 50.2108, -151.52, -49.44, 107.21
8.29625, 100, 13.2648, -37.6147, 49.9806, -151.737, -49.5578, 108.14
8.30404, 100, 13.3681, -37.2954, 49.7321, -151.948, -49.7063, 109.048
8.31242, 101, 13.4632, -36.952, 49.467, -152.151, -49.8849, 109.934
8.31953, 101, 13.5503, -36.5826, 49.1845, -152.345, -50.0934, 110.796
8.32766, 101, 13.6295, -36.1867, 48.8848, -152.53, -50.3316, 111.637
8.33652, 101, 13.7006, -35.7649, 48.5667, -152.706, -50.6005, 112.455
8.35429, 101, 13.8178, -34.8502, 47.8754, -153.028, -51.2352, 114.029
8.3566, 102, 13.8419, -34.6067, 47.6912, -153.102, -51.4149, 114.408
8.35988, 102, 13.8636, -34.3571, 47.5024, -153.173, -51.6031, 114.782
8.36789, 102, 13.9, -33.84, 47.1114, -153.305, -52.0046, 115.515
8.37666, 102, 13.9272, -33.2987, 46.7035, -153.424, -52.4398, 116.224
8.38476, 102, 13.9457, -32.7342, 46.2802, -153.529, -52.9078, 116.907
8.39203, 102, 13.9556, -32.1473, 45.8428, -153.621, -53.4056, 117.564
8.4, 103, 13.9576, -31.5387, 45.3916, -153.697, -53.9308, 118.194
8.40897, 103, 13.9524, -30.9107, 44.9278, -153.761, -54.4809, 118.796
8.41649, 103, 13.9404, -30.2658, 44.4532, -153.811, -55.0535, 119.371
8.42396, 103, 13.932, -29.9378, 44.2122, -153.83, -55.347, 119.649
8.43321, 103, 13.8984, -28.9326, 43.4771, -153.871, -56.2549, 120.441
8.43939, 103, 13.8845, -28.5913, 43.2288, -153.878, -56.5655, 120.692
8.44745, 104, 13.8535, -27.9011, 42.7285, -153.886, -57.1962, 121.174
8.45544, 104, 13.8183, -27.2018, 42.2243, -153.883, -57.8393, 121.63
8.4634, 104, 13.7791, -26.4952, 41.7174, -153.869, -58.4958, 122.065
8.47146, 104, 13.7366, -25.7822, 41.2083, -153.847, -59.1649, 122.478
8.47941, 104, 13.6918, -25.0657, 40.6985, -153.817, -59.8444, 122.874
8.48745, 104, 13.6451, -24.3469, 40.1881, -153.779, -60.5316, 123.254
8.49539, 104, 13.5968, -23.6261, 39.678, -153.734, -61.2244, 123.623
8.50346, 104, 13.5469, -22.9038, 39.1689, -153.684, -61.9225, 123.983
8.51311, 104, 13.4704, -21.8192, 38.4075, -153.598, -62.9756, 124.515
8.51939, 104, 13.4447, -21.4573, 38.1544, -153.568, -63.3276, 124.69
8.52748, 104, 13.3927, -20.7341, 37.6492, -153.504, -64.0317, 125.04
8.5371, 104, 13.3143, -19.6496, 36.8945, -153.399, -65.0889, 125.562
8.5434, 104, 13.2881, -19.288, 36.644, -153.363, -65.4423, 125.735
8.55343, 104, 13.2093, -18.2027, 35.8951, -153.246, -66.5038, 126.254
8.55937, 104, 13.1832, -17.8408, 35.6467, -153.205, -66.858, 126.426
8.56839, 104, 13.1311, -17.1167, 35.1519, -153.121, -67.5665, 126.771
8.57548, 104, 13.0793, -16.3925, 34.6585, -153.032, -68.2743, 127.115
8.58339, 104, 13.028, -15.6681, 34.1674, -152.94, -68.9837, 127.459
8.59141, 104, 12.9769, -14.9433, 33.6786, -152.843, -69.6948, 127.802
8.5995, 104, 12.926, -14.218, 33.1921, -152.743, -70.4063, 128.145
8.60741, 104, 12.8755, -13.4927, 32.7084, -152.639, -71.1168, 128.489
8.61539, 104, 12.8254, -12.7669, 32.2273, -152.531, -71.8275, 128.833
8.62349, 104, 12.7754, -12.0413, 31.749, -152.42, -72.5403, 129.177
8.63141, 104, 12.7259, -11.3164, 31.273, -152.304, -73.2533, 129.523
8.63939, 104, 12.6769, -10.5911, 30.7994, -152.185, -73.9666, 129.868
8.64748, 104, 12.6281, -9.86567, 30.329, -152.061, -74.6797, 130.214
8.65539, 104, 12.5796, -9.14023, 29.8616, -151.934, -75.3928, 130.561
8.66339, 104, 12.5318, -8.41442, 29.3972, -151.802, -76.1075, 130.909
8.67148, 104, 12.4844, -7.68844, 28.9362, -151.667, -76.8225, 131.258
8.67943, 104, 12.4376, -6.96298, 28.4784, -151.527, -77.5386, 131.608
8.6874, 104, 12.3914, -6.23778, 28.0237, -151.383, -78.2538, 131.96
8.69548, 104, 12.3457, -5.513, 27.5727, -151.235, -78.9677, 132.312
8.70356, 104, 12.3005, -4.78921, 27.1254, -151.083, -79.6831, 132.665
8.71141, 104, 12.2564, -4.06667, 26.6824, -150.926, -80.3991, 133.021
8.71947, 104, 12.2133, -3.34691, 26.2444, -150.766, -81.1139, 133.377
8.72739, 104, 12.1712, -2.63246, 25.8116, -150.602, -81.8245, 133.733
8.73547, 104, 12.1305, -1.92435, 25.3848, -150.434, -82.5314, 134.09
8.74345, 104, 12.0909, -1.22349, 24.9657, -150.263, -83.2347, 134.446
8.75149, 104, 12.0522, -0.531745, 24.5552, -150.09, -83.9295, 134.799
8.75956, 104, 12.0146, 0.149983, 24.1547, -149.915, -84.6138, 135.149
8.76752, 104, 11.978, 0.820867, 23.7652, -149.74, -85.2848, 135.495
8.7755, 104, 11.9424, 1.47884, 23.3884, -149.563, -85.9411, 135.835
8.78358, 104, 11.9082, 2.12325, 23.0242, -149.387, -86.5834, 136.17
8.79154, 104, 11.875, 2.75206, 22.6724, -149.212, -87.21, 136.499
8.79939, 104, 11.8428, 3.36488, 22.3334, -149.037, -87.8204, 136.82
8.80765, 104, 11.8122, 3.96103, 22.0077, -148.863, -88.4142, 137.135
8.81602, 104, 11.7825, 4.54039, 21.6945, -148.691, -88.9902, 137.443
8.82439, 104, 11.7543, 5.1032, 21.3934, -148.52, -89.5492, 137.744
8.8323, 104, 11.7275, 5.64869, 21.1035, -148.351, -90.093, 138.038
8.83957, 104, 11.7016, 6.17678, 20.8261, -148.184, -90.6204, 138.326
8.8483, 104, 11.677, 6.68849, 20.5601, -148.019, -91.1314, 138.605
8.85597, 104, 11.6536, 7.18325, 20.3059, -147.857, -91.6257, 138.878
8.86447, 104, 11.6312, 7.66105, 20.0632, -147.697, -92.1025, 139.142
8.87198, 104, 11.6101, 8.12262, 19.8309, -147.541, -92.5629, 139.4
8.87988, 104, 11.59, 8.5672, 19.61, -147.387, -93.0065, 139.649
8.8885, 104, 11.5712, 8.9944, 19.3998, -147.237, -93.4338, 139.891
8.89594, 104, 11.5534, 9.40445, 19.1995, -147.091, -93.8439, 140.124
8.90487, 104, 11.5368, 9.7967, 19.0099, -146.95, -94.237, 140.348
8.9125, 104, 11.5212, 10.171, 18.8312, -146.812, -94.6124, 140.564
8.92094, 104, 11.5138, 10.351, 18.7457, -146.745, -94.7932, 140.668
8.92841, 104, 11.4931, 10.862, 18.5046, -146.553, -95.3078, 140.966
8.93547, 104, 11.4867, 11.0228, 18.4297, -146.492, -95.4695, 141.06
8.94343, 104, 11.4747, 11.3289, 18.288, -146.374, -95.7775, 141.24
8.95143, 104, 11.4638, 11.6144, 18.1568, -146.264, -96.0651, 141.409
8.9595, 104, 11.454, 11.8791, 18.0361, -146.16, -96.3313, 141.565
8.96746, 104, 11.4449, 12.1223, 17.9261, -146.064, -96.5761, 141.71
8.9757, 104, 11.4365, 12.3444, 17.8267, -145.976, -96.799, 141.842
8.98345, 104, 11.4289, 12.5458, 17.7376, -145.896, -96.9997, 141.962
8.99139, 104, 11.4221, 12.7258, 17.6588, -145.824, -97.1784, 142.068
8.99938, 104, 11.4161, 12.8848, 17.5902, -145.761, -97.3351, 142.162
9.00744, 104, 11.4106, 13.0239, 17.5312, -145.706, -97.4699, 142.243
9.01698, 104, 11.4033, 13.1969, 17.4604, -145.641, -97.6327, 142.34
9.0253, 104, 11.399, 13.2895, 17.4239, -145.607, -97.7164, 142.39
9.03151, 104, 11.397, 13.3296, 17.4085, -145.592, -97.7515, 142.411
9.03943, 104, 11.3932, 13.3985, 17.3834, -145.569, -97.8086, 142.446
9.04737, 104, 11.3898, 13.454, 17.3648, -145.551, -97.8507, 142.472
9.05545, 104, 11.3868, 13.4976, 17.3515, -145.538, -97.8808, 142.49
9.06445, 104, 11.3844, 13.5305, 17.3426, -145.53, -97.9014, 142.501
9.07143, 104, 11.3824, 13.5549, 17.337, -145.524, -97.9146, 142.509
9.07945, 104, 11.3809, 13.5727, 17.3335, -145.521, -97.9222, 142.513
9.08737, 104, 11.3797, 13.5849, 17.3316, -145.519, -97.9263, 142.515
9.09537, 104, 11.3789, 13.5933, 17.3306, -145.519, -97.9282, 142.516
9.10349, 105, 11.3782, 13.5989, 17.3301, -145.518, -97.9291, 142.516
9.11139, 105, 11.3778, 13.6025, 17.3299, -145.518, -97.9296, 142.516
9.11938, 105, 11.3774, 13.6051, 17.3298, -145.518, -97.9297, 142.517
9.12747, 105, 11.3771, 13.6072, 17.3297, -145.518, -97.9299, 142.517
9.13538, 105, 11.3769, 13.609, 17.3297, -145.518, -97.9299, 142.517
9.14339, 105, 11.3768, 13.6106, 17.3297, -145.518, -97.9299, 142.517
9.15147, 105, 11.3766, 13.6119, 17.3297, -145.518, -97.9298, 142.517
9.15937, 105, 11.3765, 13.6131, 17.3297, -145.518, -97.9297, 142.517
9.1684, 105, 11.3764, 13.6141, 17.3297, -145.518, -97.9297, 142.517
9.17638, 105, 11.3764, 13.6149, 17.3297, -145.518, -97.9295, 142.517
9.18338, 105, 11.3764, 13.6155, 17.3298, -145.518, -97.9294, 142.517
9.19139, 105, 11.3764, 13.616, 17.3298, -145.518, -97.9293, 142.517
9.19943, 105, 11.3763, 13.6163, 17.3298, -145.518, -97.9291, 142.517
9.20743, 105, 11.3763, 13.6164, 17.3299, -145.518, -97.929, 142.517
9.21537, 105, 11.3763, 13.6165, 17.3299, -145.518, -97.9289, 142.517
