hehonglu123/Motion-Primitive-Planning/ILC/recorded_data/realrobot/wood/iteration_31/run_2.csv
timestamp, cmd_num, J1, J2, J3, J4, J5, J6
0.000427, -1, 11.3762, 13.6175, 17.3315, -145.52, -97.9267, 142.517
0.004354, -1, 11.3762, 13.6175, 17.3315, -145.52, -97.9267, 142.517
0.007729, -1, 11.3762, 13.6175, 17.3315, -145.52, -97.9267, 142.517
0.028638, -1, 11.3762, 13.6175, 17.3315, -145.52, -97.9267, 142.517
0.031362, -1, 11.3762, 13.6175, 17.3315, -145.52, -97.9267, 142.517
0.03629, -1, 11.3762, 13.6175, 17.3315, -145.52, -97.9267, 142.517
0.039558, -1, 11.3762, 13.6175, 17.3315, -145.52, -97.9267, 142.517
0.047547, -1, 11.3762, 13.6175, 17.3315, -145.52, -97.9267, 142.517
0.055527, -1, 11.3756, 13.6175, 17.3315, -145.52, -97.9268, 142.517
0.063536, -1, 11.3729, 13.6173, 17.3314, -145.52, -97.9267, 142.517
0.071595, -1, 11.3663, 13.6166, 17.3312, -145.52, -97.9267, 142.516
0.079523, -1, 11.3551, 13.6149, 17.3307, -145.521, -97.9267, 142.515
0.087549, -1, 11.3376, 13.6115, 17.33, -145.522, -97.9265, 142.508
0.095594, -1, 11.3107, 13.6057, 17.3291, -145.526, -97.9258, 142.488
0.103721, -1, 11.2723, 13.5966, 17.3286, -145.533, -97.924, 142.448
0.111552, -1, 11.222, 13.5842, 17.3287, -145.544, -97.9205, 142.383
0.119632, -1, 11.1603, 13.5688, 17.3304, -145.562, -97.9151, 142.287
0.128969, -1, 11.087, 13.5498, 17.3344, -145.585, -97.9072, 142.157
0.135641, -1, 11.0017, 13.5269, 17.3409, -145.614, -97.897, 141.991
0.143694, -1, 10.9048, 13.5006, 17.3496, -145.648, -97.8848, 141.793
0.151965, -1, 10.7972, 13.4709, 17.3599, -145.686, -97.8711, 141.568
0.159636, -1, 10.6787, 13.4381, 17.3712, -145.729, -97.8564, 141.321
0.167777, -1, 10.5496, 13.4024, 17.3824, -145.773, -97.8408, 141.06
0.177007, -1, 10.4115, 13.3645, 17.3931, -145.819, -97.8249, 140.791
0.183569, -1, 10.2666, 13.3249, 17.4034, -145.867, -97.8087, 140.516
0.191667, -1, 10.1171, 13.2844, 17.4134, -145.914, -97.7921, 140.239
0.201236, -1, 9.96466, 13.2433, 17.4235, -145.961, -97.7752, 139.961
0.207703, -1, 9.80996, 13.2018, 17.4335, -146.01, -97.7579, 139.682
0.215828, -1, 9.65437, 13.1603, 17.4436, -146.057, -97.7407, 139.402
0.22529, -1, 9.49915, 13.1191, 17.4536, -146.105, -97.7237, 139.122
0.231885, -1, 9.3444, 13.0778, 17.4635, -146.153, -97.7069, 138.843
0.240042, -1, 9.19001, 13.0367, 17.4735, -146.201, -97.6901, 138.563
0.249977, -1, 9.03606, 12.9956, 17.4836, -146.249, -97.6734, 138.283
0.256104, -1, 8.88233, 12.9545, 17.4938, -146.297, -97.6565, 138.004
0.264092, -1, 8.72876, 12.9135, 17.504, -146.345, -97.6394, 137.724
0.272897, -1, 8.57575, 12.8723, 17.514, -146.393, -97.6219, 137.444
0.280152, -1, 8.42297, 12.8311, 17.5242, -146.441, -97.6044, 137.163
0.288126, -1, 8.34652, 12.8104, 17.5293, -146.489, -97.5871, 136.883
0.296561, -1, 8.19338, 12.7689, 17.5395, -146.513, -97.5785, 136.743
0.304119, -1, 8.03975, 12.7273, 17.5497, -146.561, -97.5616, 136.463
0.311513, -1, 7.88554, 12.6856, 17.56, -146.609, -97.5449, 136.182
0.319532, -1, 7.73077, 12.6438, 17.57, -146.656, -97.5283, 135.902
0.327563, -1, 7.57589, 12.6021, 17.5802, -146.705, -97.5116, 135.622
0.335557, -1, 7.42087, 12.5605, 17.5904, -146.753, -97.4946, 135.341
0.343516, -1, 7.26586, 12.519, 17.6006, -146.8, -97.4773, 135.061
0.483135, -1, 4.55303, 11.7922, 17.7819, -147.643, -97.1782, 130.148
0.484462, -1, 4.55303, 11.7922, 17.7819, -147.643, -97.1782, 130.148
0.486551, -1, 4.47519, 11.7715, 17.7871, -147.667, -97.1695, 130.008
0.48784, -1, 4.47519, 11.7715, 17.7871, -147.667, -97.1695, 130.008
0.489035, -1, 4.47519, 11.7715, 17.7871, -147.667, -97.1695, 130.008
0.491845, -1, 4.39738, 11.7507, 17.7923, -147.691, -97.1608, 129.867
0.493045, -1, 4.39738, 11.7507, 17.7923, -147.691, -97.1608, 129.867
0.498074, -1, 4.24198, 11.7092, 17.8026, -147.739, -97.1436, 129.586
0.499614, -1, 4.24198, 11.7092, 17.8026, -147.739, -97.1436, 129.586
0.500816, -1, 4.24198, 11.7092, 17.8026, -147.739, -97.1436, 129.586
0.5036, -1, 4.16436, 11.6885, 17.8079, -147.764, -97.1351, 129.446
0.504815, -1, 4.16436, 11.6885, 17.8079, -147.764, -97.1351, 129.446
0.506933, -1, 4.08685, 11.6678, 17.8131, -147.788, -97.1266, 129.305
0.50814, -1, 4.08685, 11.6678, 17.8131, -147.788, -97.1266, 129.305
0.510152, -1, 4.00947, 11.6471, 17.8183, -147.811, -97.1181, 129.165
0.51384, -1, 4.00947, 11.6471, 17.8183, -147.811, -97.1181, 129.024
0.516131, -1, 3.9322, 11.6263, 17.8235, -147.836, -97.1097, 129.024
0.518011, -1, 3.85501, 11.6055, 17.8287, -147.86, -97.1013, 128.884
0.519493, -1, 3.85501, 11.6055, 17.8287, -147.86, -97.1013, 128.884
0.520773, -1, 3.85501, 11.6055, 17.8287, -147.86, -97.1013, 128.884
0.522789, -1, 3.77787, 11.5848, 17.8339, -147.884, -97.0929, 128.743
0.52413, -1, 3.77787, 11.5848, 17.8339, -147.884, -97.0929, 128.743
0.530199, -1, 3.62346, 11.5432, 17.8442, -147.932, -97.0759, 128.461
0.535583, -1, 3.54621, 11.5223, 17.8493, -147.956, -97.0674, 128.321
0.543546, -1, 3.39155, 11.4806, 17.8597, -148.005, -97.0501, 128.039
0.551517, -1, 3.2366, 11.4389, 17.8702, -148.053, -97.0325, 127.758
0.559593, -1, 3.0814, 11.3971, 17.8806, -148.101, -97.015, 127.476
0.567507, -1, 2.92609, 11.3553, 17.8911, -148.15, -96.9977, 127.194
0.575516, -1, 2.77057, 11.3135, 17.9014, -148.198, -96.9807, 126.913
0.58358, -1, 2.61469, 11.2717, 17.9117, -148.246, -96.9639, 126.631
0.591514, -1, 2.45866, 11.2299, 17.9221, -148.295, -96.9472, 126.349
0.599604, -1, 2.30223, 11.1882, 17.9326, -148.343, -96.9304, 126.067
0.607556, -1, 2.14555, 11.1464, 17.943, -148.391, -96.9132, 125.786
0.615532, -1, 1.98882, 11.1046, 17.9534, -148.44, -96.8959, 125.504
0.623764, -1, 1.83225, 11.0629, 17.9638, -148.488, -96.8783, 125.222
0.631731, -1, 1.67588, 11.0212, 17.9742, -148.536, -96.861, 124.94
0.63962, -1, 1.51966, 10.9794, 17.9847, -148.585, -96.8438, 124.658
0.778534, -1, -1.13254, 10.2684, 18.1621, -149.409, -96.5525, 119.854
0.78111, -1, -1.21109, 10.2475, 18.1673, -149.433, -96.544, 119.712
0.784589, -1, -1.28959, 10.2266, 18.1725, -149.458, -96.5356, 119.57
0.785894, -1, -1.28959, 10.2266, 18.1725, -149.458, -96.5356, 119.57
0.787085, -1, -1.28959, 10.2266, 18.1725, -149.458, -96.5356, 119.57
0.789131, -1, -1.36801, 10.2056, 18.1777, -149.482, -96.5273, 119.429
0.790362, -1, -1.36801, 10.2056, 18.1777, -149.482, -96.5273, 119.429
0.793585, -1, -1.44645, 10.1847, 18.1828, -149.506, -96.5189, 119.287
0.794913, -1, -1.44645, 10.1847, 18.1828, -149.506, -96.5189, 119.287
0.797046, -1, -1.52484, 10.1638, 18.1881, -149.53, -96.5105, 119.145
0.798411, -1, -1.52484, 10.1638, 18.1881, -149.53, -96.5105, 119.145
0.800451, -1, -1.60306, 10.1428, 18.1933, -149.555, -96.502, 119.004
0.801817, -1, -1.60306, 10.1428, 18.1933, -149.555, -96.502, 119.004
0.803012, -1, -1.60306, 10.1428, 18.1933, -149.555, -96.502, 119.004
0.805722, -1, -1.68114, 10.1219, 18.1986, -149.579, -96.4936, 118.862
0.808823, -1, -1.75912, 10.101, 18.2039, -149.604, -96.485, 118.721
0.810268, -1, -1.75912, 10.101, 18.2039, -149.604, -96.485, 118.721
0.81151, -1, -1.75912, 10.101, 18.2039, -149.604, -96.485, 118.721
0.813555, -1, -1.83699, 10.08, 18.2091, -149.628, -96.4763, 118.579
0.814762, -1, -1.83699, 10.08, 18.2091, -149.628, -96.4763, 118.579
0.81681, -1, -1.91477, 10.0591, 18.2143, -149.652, -96.4676, 118.437
0.818108, -1, -1.91477, 10.0591, 18.2143, -149.652, -96.4676, 118.437
0.827611, -1, -2.07012, 10.0172, 18.2248, -149.701, -96.45, 118.154
0.831499, -1, -2.14768, 9.99627, 18.23, -149.725, -96.4411, 118.012
0.839575, -1, -2.30284, 9.95441, 18.2404, -149.774, -96.4237, 117.728
0.847496, -1, -2.45824, 9.91244, 18.2509, -149.822, -96.4065, 117.445
0.855511, -1, -2.61393, 9.87045, 18.2614, -149.871, -96.3895, 117.161
0.86355, -1, -2.76993, 9.82851, 18.2717, -149.919, -96.3727, 116.877
0.871498, -1, -2.92632, 9.78651, 18.2821, -149.968, -96.3559, 116.594
0.879558, -1, -3.08318, 9.74453, 18.2925, -150.017, -96.3389, 116.31
0.88755, -1, -3.24038, 9.70257, 18.3029, -150.065, -96.3215, 116.026
0.895495, -1, -3.39803, 9.66055, 18.3135, -150.114, -96.3039, 115.742
0.903513, -1, -3.55579, 9.61854, 18.324, -150.162, -96.2864, 115.458
0.911562, -1, -3.71356, 9.57664, 18.3344, -150.211, -96.269, 115.174
0.921128, -1, -3.87161, 9.53464, 18.3448, -150.284, -96.2434, 114.747
0.927508, -1, -4.02959, 9.49259, 18.3552, -150.309, -96.2349, 114.605
0.936504, -1, -4.18737, 9.45065, 18.3656, -150.358, -96.218, 114.321
0.943538, -1, -4.34514, 9.40866, 18.376, -150.406, -96.2009, 114.037
0.952501, -1, -4.50259, 9.36664, 18.3863, -150.455, -96.1835, 113.752
0.959577, -1, -4.65961, 9.32461, 18.3967, -150.504, -96.1658, 113.467
0.967514, -1, -4.8162, 9.28255, 18.4071, -150.553, -96.1481, 113.183
0.975497, -1, -4.97251, 9.24042, 18.4177, -150.602, -96.1306, 112.898
0.983564, -1, -5.12847, 9.19837, 18.4282, -150.651, -96.1134, 112.613
0.991495, -1, -5.28433, 9.15626, 18.4388, -150.699, -96.0963, 112.328
0.999514, -1, -5.44033, 9.11411, 18.4493, -150.748, -96.0794, 112.043
1.00756, -1, -5.59649, 9.072, 18.4598, -150.797, -96.0625, 111.759
1.01551, -1, -5.75301, 9.02988, 18.4702, -150.846, -96.0453, 111.474
1.02387, -1, -5.90993, 8.98765, 18.4807, -150.895, -96.0279, 111.189
1.03149, -1, -6.06735, 8.94549, 18.4911, -150.943, -96.0102, 110.904
1.03952, -1, -6.22523, 8.90331, 18.5015, -150.992, -95.9926, 110.618
1.04837, -1, -6.38347, 8.86115, 18.5118, -151.041, -95.9754, 110.333
1.05549, -1, -6.54185, 8.81906, 18.5222, -151.09, -95.9584, 110.048
1.06351, -1, -6.70041, 8.77689, 18.5328, -151.139, -95.9413, 109.763
1.07231, -1, -6.85912, 8.73472, 18.5433, -151.188, -95.9243, 109.477
1.0795, -1, -7.01767, 8.69258, 18.5538, -151.237, -95.9072, 109.192
1.08756, -1, -7.1762, 8.65042, 18.5643, -151.286, -95.8897, 108.906
1.09631, -1, -7.33458, 8.60822, 18.5747, -151.336, -95.872, 108.62
1.1035, -1, -7.49257, 8.56591, 18.5851, -151.384, -95.8542, 108.335
1.11176, -1, -7.65021, 8.52359, 18.5957, -151.433, -95.8367, 108.049
1.12035, -1, -7.80758, 8.48131, 18.6061, -151.483, -95.8195, 107.763
1.12757, -1, -7.96452, 8.43902, 18.6166, -151.531, -95.8024, 107.478
1.1359, -1, -8.12119, 8.39664, 18.627, -151.58, -95.7855, 107.192
1.14499, -1, -8.2777, 8.35428, 18.6375, -151.63, -95.7685, 106.906
1.15159, -1, -8.43439, 8.31187, 18.6481, -151.678, -95.7513, 106.62
1.16007, -1, -8.5914, 8.26944, 18.6587, -151.727, -95.7338, 106.334
1.1676, -1, -8.74874, 8.22716, 18.6691, -151.777, -95.7161, 106.047
1.17551, -1, -8.9064, 8.1848, 18.6795, -151.826, -95.6985, 105.761
1.18427, -1, -9.06452, 8.14243, 18.69, -151.875, -95.6811, 105.475
1.19153, -1, -9.22304, 8.10017, 18.7005, -151.924, -95.664, 105.188
1.19957, -1, -9.38193, 8.05783, 18.7109, -151.973, -95.6469, 104.901
1.20852, -1, -9.54104, 8.01543, 18.7214, -152.022, -95.6298, 104.615
1.21574, -1, -9.70015, 7.97322, 18.7319, -152.072, -95.6125, 104.328
1.22376, -1, -9.85945, 7.93096, 18.7424, -152.121, -95.595, 104.041
1.23269, -1, -10.0188, 7.88857, 18.7531, -152.17, -95.5771, 103.754
1.2401, -1, -10.1781, 7.84613, 18.7637, -152.22, -95.5592, 103.467
1.24797, -1, -10.3372, 7.80361, 18.7743, -152.269, -95.5417, 103.18
1.25681, -1, -10.4961, 7.76108, 18.7849, -152.318, -95.5244, 102.893
1.26399, -1, -10.6547, 7.71863, 18.7953, -152.368, -95.5074, 102.606
1.27213, -1, -10.8128, 7.6761, 18.8059, -152.416, -95.4903, 102.319
1.28094, -1, -10.9707, 7.63351, 18.8164, -152.466, -95.4732, 102.032
1.28806, -1, -11.0495, 7.59101, 18.8268, -152.515, -95.4558, 101.744
1.29611, -1, -11.207, 7.56979, 18.8374, -152.564, -95.4382, 101.457
1.3035, -1, -11.3644, 7.52731, 18.8426, -152.589, -95.4293, 101.313
1.3115, -1, -11.5218, 7.48479, 18.8531, -152.639, -95.4115, 101.026
1.31954, -1, -11.6795, 7.44231, 18.8637, -152.688, -95.394, 100.738
1.32748, -1, -11.8376, 7.39988, 18.8744, -152.737, -95.3767, 100.45
1.33747, -1, -12.0756, 7.33627, 18.8902, -152.811, -95.3509, 100.019
1.34348, -1, -12.1551, 7.31509, 18.8955, -152.836, -95.3423, 99.875
1.35149, -1, -12.3145, 7.27267, 18.906, -152.885, -95.325, 99.5871
1.35954, -1, -12.4741, 7.23022, 18.9165, -152.935, -95.3074, 99.299
1.36748, -1, -12.634, 7.18781, 18.9272, -152.984, -95.2895, 99.011
1.37548, -1, -12.794, 7.14534, 18.9377, -153.034, -95.2714, 98.7232
1.38357, -1, -12.9543, 7.1028, 18.9483, -153.083, -95.2537, 98.4352
1.39149, -1, -13.1143, 7.06021, 18.9588, -153.132, -95.2363, 98.1469
1.39949, -1, -13.2742, 7.0176, 18.9694, -153.182, -95.2191, 97.8589
1.40754, -1, -13.4338, 6.97497, 18.9801, -153.231, -95.2019, 97.5707
1.41549, -1, -13.5932, 6.93218, 18.9907, -153.281, -95.1848, 97.2819
1.42348, -1, -13.7523, 6.88945, 19.0012, -153.33, -95.1674, 96.9933
1.43248, -1, -13.9111, 6.84675, 19.0118, -153.38, -95.1496, 96.7048
1.43948, -1, -14.0695, 6.80404, 19.0222, -153.429, -95.1318, 96.4162
1.44849, -1, -14.2276, 6.76142, 19.0329, -153.479, -95.1141, 96.1272
1.45555, -1, -14.3858, 6.71873, 19.0434, -153.528, -95.0966, 95.8381
1.46349, -1, -14.5441, 6.67603, 19.0539, -153.577, -95.0794, 95.5492
1.47151, -1, -14.7028, 6.63348, 19.0645, -153.627, -95.0622, 95.26
1.47954, -1, -14.8617, 6.5909, 19.0751, -153.677, -95.045, 94.9706
1.48749, -1, -15.021, 6.54822, 19.0858, -153.726, -95.0276, 94.6815
1.49548, -1, -15.1808, 6.50558, 19.0966, -153.776, -95.0098, 94.3923
1.50355, -1, -15.3409, 6.46299, 19.1073, -153.825, -94.9918, 94.1033
1.51148, -1, -15.5014, 6.42028, 19.118, -153.875, -94.9738, 93.8138
1.51949, -1, -15.6621, 6.37755, 19.1285, -153.925, -94.9562, 93.5247
1.52762, -1, -15.8228, 6.3348, 19.1392, -153.974, -94.9389, 93.2355
1.53554, -1, -15.9837, 6.29188, 19.1499, -154.024, -94.9216, 92.9459
1.54354, -1, -16.1445, 6.24901, 19.1604, -154.074, -94.9045, 92.656
1.55151, -1, -16.3052, 6.20608, 19.171, -154.123, -94.8872, 92.3666
1.55948, -1, -16.4658, 6.16304, 19.1815, -154.173, -94.8697, 92.077
1.56755, -1, -16.6261, 6.12006, 19.1921, -154.223, -94.8519, 91.7868
1.57548, -1, -16.786, 6.07709, 19.2027, -154.272, -94.8341, 91.4966
1.58348, -1, -16.9454, 6.03405, 19.2134, -154.322, -94.8163, 91.2065
1.59159, -1, -17.1047, 5.99107, 19.224, -154.372, -94.7988, 90.9164
1.59949, -1, -17.2638, 5.94812, 19.2346, -154.421, -94.7814, 90.6259
1.60748, -1, -17.4228, 5.90528, 19.2453, -154.471, -94.7642, 90.3355
1.6156, -1, -17.5821, 5.86244, 19.256, -154.521, -94.7468, 90.0453
1.62352, -1, -17.7415, 5.81958, 19.2667, -154.571, -94.7292, 89.7551
1.63156, -1, -17.9011, 5.77676, 19.2774, -154.621, -94.7112, 89.4646
1.63966, -1, -18.0612, 5.73392, 19.288, -154.671, -94.6931, 89.174
1.64758, -1, -18.2216, 5.6911, 19.2986, -154.72, -94.6752, 88.8836
1.65565, -1, -18.3825, 5.64828, 19.3093, -154.771, -94.6575, 88.5928
1.66359, -1, -18.5439, 5.60531, 19.3201, -154.821, -94.6402, 88.3017
1.67161, -1, -18.7055, 5.56234, 19.3308, -154.87, -94.623, 88.0109
1.67965, -1, -18.867, 5.51935, 19.3415, -154.921, -94.6057, 87.72
1.68751, -1, -19.0288, 5.47626, 19.352, -154.97, -94.5881, 87.4288
1.69551, -1, -19.1904, 5.43307, 19.3626, -155.02, -94.5703, 87.1375
1.70367, -1, -19.3518, 5.38993, 19.3733, -155.07, -94.5521, 86.8461
1.71158, -1, -19.5132, 5.34673, 19.3839, -155.12, -94.5342, 86.5546
1.71985, -1, -19.6741, 5.30346, 19.3945, -155.17, -94.5164, 86.2629
1.72776, -1, -19.8348, 5.26029, 19.4052, -155.22, -94.4988, 85.9711
1.73577, -1, -19.9952, 5.21713, 19.4159, -155.27, -94.4814, 85.6797
1.74392, -1, -20.1553, 5.17395, 19.4268, -155.32, -94.464, 85.3883
1.75273, -1, -20.3151, 5.13099, 19.4376, -155.37, -94.4465, 85.0964
1.75996, -1, -20.475, 5.08799, 19.4484, -155.42, -94.4286, 84.8046
1.76857, -1, -20.635, 5.04487, 19.4591, -155.47, -94.4104, 84.5129
1.77686, -1, -20.7953, 5.00193, 19.4699, -155.521, -94.3924, 84.221
1.78411, -1, -20.956, 4.95895, 19.4806, -155.571, -94.3747, 83.9288
1.79208, -1, -21.117, 4.91583, 19.4913, -155.621, -94.3573, 83.6367
1.8009, -1, -21.1977, 4.89428, 19.4966, -155.646, -94.34, 83.3448
1.80746, -1, -21.3595, 4.85112, 19.5072, -155.696, -94.3314, 83.1988
1.81552, -1, -21.5216, 4.80781, 19.5179, -155.746, -94.3141, 82.9062
1.82348, -1, -21.6838, 4.76457, 19.5287, -155.797, -94.2966, 82.6137
1.83147, -1, -21.8461, 4.72126, 19.5394, -155.847, -94.2788, 82.3212
1.83954, -1, -22.0086, 4.67784, 19.5502, -155.897, -94.2607, 82.0285
1.84747, -1, -22.1711, 4.63448, 19.561, -155.947, -94.2428, 81.7355
1.85552, -1, -22.3336, 4.59107, 19.5716, -155.997, -94.2251, 81.4426
1.86347, -1, -22.4958, 4.54766, 19.5824, -156.048, -94.2076, 81.1501
1.87149, -1, -22.6577, 4.50427, 19.5931, -156.098, -94.1901, 80.8573
1.87953, -1, -22.8192, 4.4608, 19.6038, -156.148, -94.1726, 80.5642
1.8875, -1, -22.9804, 4.41746, 19.6145, -156.198, -94.1549, 80.2712
1.89548, -1, -23.1415, 4.37415, 19.6252, -156.249, -94.1368, 79.9782
1.90353, -1, -23.3024, 4.33081, 19.636, -156.299, -94.1186, 79.6849
1.91147, -1, -23.4632, 4.28759, 19.6469, -156.349, -94.1004, 79.3913
1.91949, -1, -23.6242, 4.24428, 19.6577, -156.4, -94.0825, 79.098
1.929, -1, -23.7854, 4.20099, 19.6686, -156.45, -94.0648, 78.8048
1.93546, -1, -23.9466, 4.15772, 19.6792, -156.501, -94.0474, 78.5111
1.94348, -1, -24.1084, 4.1143, 19.69, -156.551, -94.03, 78.2171
1.95157, -1, -24.2706, 4.07092, 19.7007, -156.601, -94.0124, 77.9233
1.95948, -1, -24.4332, 4.02749, 19.7114, -156.652, -93.9945, 77.6293
1.96747, -1, -24.5962, 3.98397, 19.7221, -156.702, -93.9764, 77.335
1.9755, -1, -24.7594, 3.94037, 19.7327, -156.752, -93.9583, 77.0408
1.98346, -1, -24.9228, 3.89678, 19.7435, -156.803, -93.9405, 76.7469
1.99166, -1, -25.0862, 3.85319, 19.7544, -156.853, -93.9228, 76.4528
1.99948, -1, -25.2494, 3.80958, 19.7654, -156.904, -93.9053, 76.1584
2.00746, -1, -25.4125, 3.766, 19.7762, -156.954, -93.8878, 75.864
2.01627, -1, -25.5753, 3.7223, 19.787, -157.004, -93.8701, 75.5698
2.02346, -1, -25.738, 3.67868, 19.7977, -157.055, -93.8522, 75.2752
2.03146, -1, -25.9005, 3.63521, 19.8085, -157.106, -93.8339, 74.9803
2.04036, -1, -26.0627, 3.59167, 19.8193, -157.156, -93.8155, 74.6857
2.04852, -1, -26.2245, 3.54818, 19.8301, -157.207, -93.7974, 74.3911
2.0565, -1, -26.3861, 3.50481, 19.8409, -157.257, -93.7796, 74.0963
2.06449, -1, -26.5478, 3.46131, 19.8516, -157.308, -93.7619, 73.801
2.07146, -1, -26.7097, 3.4178, 19.8625, -157.358, -93.7443, 73.5059
2.07947, -1, -26.8719, 3.37429, 19.8733, -157.409, -93.7266, 73.2106
2.09118, -1, -27.0345, 3.33066, 19.8842, -157.459, -93.6996, 72.7673
2.09553, -1, -27.1973, 3.28704, 19.8951, -157.511, -93.6904, 72.6196
2.10346, -1, -27.3606, 3.24342, 19.9058, -157.561, -93.6721, 72.3245
2.11146, -1, -27.5243, 3.1996, 19.9166, -157.611, -93.654, 72.0291
2.11959, -1, -27.6882, 3.15586, 19.9274, -157.662, -93.6362, 71.7336
2.1275, -1, -27.8522, 3.11221, 19.9382, -157.713, -93.6184, 71.4378
2.13555, -1, -28.0164, 3.06846, 19.949, -157.763, -93.6007, 71.1424
2.14363, -1, -28.1806, 3.0247, 19.9598, -157.814, -93.583, 70.8465
2.15156, -1, -28.3448, 2.98095, 19.9706, -157.865, -93.5649, 70.5504
2.15962, -1, -28.5089, 2.9372, 19.9816, -157.916, -93.5466, 70.2545
2.16764, -1, -28.6727, 2.89353, 19.9924, -157.967, -93.5281, 69.9587
2.17553, -1, -28.8362, 2.84977, 20.0033, -158.017, -93.5099, 69.6624
2.18347, -1, -28.9993, 2.80604, 20.014, -158.068, -93.4919, 69.3659
2.19156, -1, -29.162, 2.76234, 20.0248, -158.119, -93.4742, 69.0693
2.19955, -1, -29.3248, 2.71862, 20.0357, -158.17, -93.4565, 68.7726
2.20755, -1, -29.4874, 2.67488, 20.0465, -158.221, -93.4388, 68.4758
2.21572, -1, -29.6502, 2.63108, 20.0573, -158.272, -93.4208, 68.1789
2.2238, -1, -29.8132, 2.58721, 20.0682, -158.323, -93.4025, 67.8823
2.23247, -1, -29.9764, 2.54342, 20.0791, -158.374, -93.3841, 67.5856
2.23995, -1, -30.1397, 2.49952, 20.0901, -158.425, -93.3658, 67.2885
2.24856, -1, -30.3034, 2.45549, 20.1011, -158.475, -93.3478, 66.9915
2.25589, -1, -30.4677, 2.41153, 20.112, -158.527, -93.3299, 66.6946
2.26406, -1, -30.6325, 2.36749, 20.1228, -158.577, -93.3122, 66.3974
2.27201, -1, -30.7975, 2.32351, 20.1337, -158.628, -93.2944, 66.0998
2.27999, -1, -30.9625, 2.27955, 20.1446, -158.68, -93.2763, 65.8025
2.28819, -1, -31.1277, 2.23543, 20.1555, -158.73, -93.2579, 65.5052
2.29606, -1, -31.2102, 2.21342, 20.1609, -158.781, -93.2394, 65.2079
2.30422, -1, -31.3752, 2.16953, 20.1718, -158.807, -93.2302, 65.059
2.31207, -1, -31.54, 2.12556, 20.1826, -158.858, -93.212, 64.7611
2.31945, -1, -31.7046, 2.08151, 20.1934, -158.909, -93.1942, 64.4634
2.32745, -1, -31.8691, 2.03759, 20.2044, -158.961, -93.1765, 64.1653
2.3355, -1, -32.0332, 1.99362, 20.2154, -159.012, -93.1589, 63.8671
2.34351, -1, -32.197, 1.94955, 20.2264, -159.063, -93.1412, 63.5691
2.35147, -1, -32.3605, 1.90555, 20.2373, -159.114, -93.1231, 63.2713
2.35946, -1, -32.5241, 1.86146, 20.2482, -159.165, -93.1048, 62.9732
2.36746, -1, -32.6878, 1.81731, 20.2592, -159.217, -93.0864, 62.6749
2.37552, -1, -32.8517, 1.77325, 20.2701, -159.268, -93.0683, 62.3766
2.38345, -1, -33.0158, 1.72907, 20.2811, -159.319, -93.0503, 62.0784
2.39149, -1, -33.1803, 1.68483, 20.292, -159.37, -93.0326, 61.7796
2.3995, -1, -33.3452, 1.64068, 20.3029, -159.421, -93.0148, 61.4807
2.40744, -1, -33.5104, 1.59647, 20.3139, -159.472, -92.9968, 61.1822
2.41554, -1, -33.6761, 1.55223, 20.3248, -159.524, -92.9786, 60.8836
2.42503, -1, -33.8418, 1.50809, 20.3358, -159.575, -92.9505, 60.4349
2.43145, -1, -34.0077, 1.46391, 20.3467, -159.626, -92.9413, 60.2852
2.44052, -1, -34.1737, 1.41975, 20.3576, -159.678, -92.923, 59.986
2.44752, -1, -34.3398, 1.3756, 20.3686, -159.729, -92.9049, 59.6865
2.45549, -1, -34.5058, 1.33138, 20.3796, -159.781, -92.887, 59.3868
2.46346, -1, -34.6716, 1.28719, 20.3905, -159.832, -92.8693, 59.0875
2.47152, -1, -34.8368, 1.24299, 20.4015, -159.883, -92.8513, 58.7882
2.47945, -1, -35.0019, 1.19877, 20.4125, -159.935, -92.8331, 58.4886
2.48745, -1, -35.1666, 1.15447, 20.4236, -159.986, -92.8146, 58.1887
2.49552, -1, -35.3311, 1.11014, 20.4347, -160.037, -92.7961, 57.8892
2.50346, -1, -35.495, 1.06598, 20.4458, -160.089, -92.7777, 57.5893
2.51145, -1, -35.6574, 1.02212, 20.4571, -160.14, -92.7597, 57.2894
2.51952, -1, -35.8168, 0.978902, 20.4686, -160.191, -92.7417, 56.9909
2.52745, -1, -35.9724, 0.936793, 20.4805, -160.242, -92.724, 56.6957
2.53544, -1, -36.1227, 0.896334, 20.4925, -160.291, -92.7065, 56.4065
2.54355, -1, -36.2653, 0.858107, 20.5044, -160.338, -92.6894, 56.1276
2.55145, -1, -36.3984, 0.822814, 20.516, -160.383, -92.6729, 55.8651
2.55948, -1, -36.5202, 0.790558, 20.5267, -160.424, -92.6577, 55.6254
2.56751, -1, -36.6293, 0.761679, 20.536, -160.46, -92.6445, 55.4141
2.57545, -1, -36.724, 0.736599, 20.5432, -160.49, -92.6335, 55.2358
2.58346, -1, -36.804, 0.715354, 20.5483, -160.514, -92.6248, 55.0928
2.59152, -1, -36.8702, 0.697885, 20.5512, -160.533, -92.6184, 54.9845
2.59944, -1, -36.9233, 0.683871, 20.5525, -160.546, -92.6139, 54.9079
2.60745, -1, -36.9638, 0.672995, 20.5529, -160.555, -92.611, 54.8564
2.61564, -1, -36.9933, 0.665222, 20.5526, -160.561, -92.6094, 54.825
2.6235, -1, -37.0136, 0.660155, 20.5522, -160.564, -92.6084, 54.8073
2.63148, -1, -37.0259, 0.657142, 20.5518, -160.566, -92.6079, 54.7983
2.63958, 2, -37.0325, 0.65553, 20.5516, -160.567, -92.6077, 54.7941
2.64754, 2, -37.0347, 0.654809, 20.5516, -160.567, -92.6075, 54.7921
2.65554, 2, -37.0344, 0.654508, 20.5515, -160.568, -92.6075, 54.7911
2.66362, 2, -37.0338, 0.65437, 20.5515, -160.568, -92.6076, 54.7908
2.67156, 2, -37.0335, 0.654319, 20.5515, -160.568, -92.6076, 54.7906
2.67945, 2, -37.0339, 0.654258, 20.5515, -160.568, -92.6076, 54.7905
2.68759, 2, -37.0349, 0.654194, 20.5514, -160.568, -92.6076, 54.7905
2.69548, 2, -37.036, 0.654069, 20.5513, -160.568, -92.6076, 54.7905
2.7035, 2, -37.0375, 0.653858, 20.5511, -160.568, -92.6076, 54.7905
2.71163, 2, -37.039, 0.653613, 20.5509, -160.568, -92.6076, 54.7906
2.71957, 2, -37.0402, 0.653367, 20.5507, -160.568, -92.6077, 54.7906
2.72799, 2, -37.0412, 0.653117, 20.5505, -160.568, -92.6077, 54.7907
2.73646, 2, -37.0416, 0.652985, 20.5503, -160.568, -92.6077, 54.7907
2.74377, 2, -37.0416, 0.652932, 20.5502, -160.568, -92.6079, 54.7908
2.75217, 2, -37.0411, 0.652912, 20.55, -160.568, -92.6079, 54.791
2.75995, 2, -37.0403, 0.652951, 20.55, -160.568, -92.6079, 54.7911
2.76794, 2, -37.0393, 0.653019, 20.5499, -160.568, -92.608, 54.7912
2.77619, 2, -37.0377, 0.653099, 20.5498, -160.568, -92.608, 54.7914
2.78418, 2, -37.0363, 0.653168, 20.5498, -160.568, -92.608, 54.7916
2.79204, 2, -37.0352, 0.653185, 20.5497, -160.568, -92.608, 54.7916
2.8003, 2, -37.0345, 0.653177, 20.5497, -160.568, -92.6081, 54.7917
2.80802, 2, -37.0344, 0.653152, 20.5497, -160.568, -92.6081, 54.7917
2.81544, 2, -37.0343, 0.653142, 20.5497, -160.568, -92.6081, 54.7917
2.82428, 2, -37.0345, 0.653049, 20.5496, -160.567, -92.6081, 54.7918
2.83148, 2, -37.0347, 0.653011, 20.5496, -160.567, -92.6081, 54.7918
2.83944, 2, -37.035, 0.652974, 20.5496, -160.567, -92.6081, 54.7918
2.84744, 2, -37.0357, 0.65295, 20.5495, -160.567, -92.6081, 54.7919
2.85549, 2, -37.0365, 0.652939, 20.5495, -160.567, -92.6081, 54.7919
2.86345, 2, -37.0372, 0.652916, 20.5495, -160.567, -92.6081, 54.7919
2.87143, 2, -37.0378, 0.652946, 20.5495, -160.567, -92.6081, 54.792
2.8795, 2, -37.038, 0.652986, 20.5495, -160.567, -92.6081, 54.792
2.88743, 2, -37.0381, 0.653024, 20.5495, -160.567, -92.6081, 54.792
2.89547, 2, -37.0381, 0.653045, 20.5495, -160.567, -92.6081, 54.7921
2.9035, 2, -37.0379, 0.653062, 20.5495, -160.567, -92.6081, 54.7922
2.91306, 2, -37.0373, 0.653061, 20.5495, -160.567, -92.6081, 54.7922
2.91947, 2, -37.0371, 0.653044, 20.5495, -160.567, -92.6081, 54.7922
2.92751, 2, -37.0368, 0.653013, 20.5495, -160.567, -92.6081, 54.7923
2.93543, 2, -37.0367, 0.652991, 20.5495, -160.567, -92.6081, 54.7924
2.94532, 2, -37.0366, 0.652961, 20.5495, -160.567, -92.6082, 54.7925
2.9515, 2, -37.0366, 0.652951, 20.5495, -160.567, -92.6082, 54.7925
2.95948, 2, -37.0366, 0.652958, 20.5494, -160.567, -92.6082, 54.7926
2.96845, 2, -37.0367, 0.652943, 20.5494, -160.567, -92.6082, 54.7926
2.9755, 2, -37.0368, 0.652943, 20.5494, -160.567, -92.6082, 54.7926
2.98345, 2, -37.0369, 0.652966, 20.5494, -160.567, -92.6082, 54.7927
2.99143, 2, -37.0372, 0.652989, 20.5493, -160.567, -92.6082, 54.7927
2.9995, 2, -37.0373, 0.653, 20.5493, -160.567, -92.6082, 54.7928
3.00743, 2, -37.0374, 0.653023, 20.5493, -160.567, -92.6082, 54.7928
3.01544, 2, -37.0374, 0.653014, 20.5493, -160.567, -92.6082, 54.7928
3.02351, 2, -37.0374, 0.653011, 20.5493, -160.567, -92.6083, 54.7929
3.03143, 2, -37.0374, 0.652998, 20.5493, -160.567, -92.6083, 54.7929
3.03943, 2, -37.0374, 0.652979, 20.5493, -160.567, -92.6083, 54.793
3.04756, 2, -37.0374, 0.65299, 20.5493, -160.567, -92.6083, 54.7931
3.05543, 2, -37.0374, 0.652993, 20.5493, -160.567, -92.6083, 54.7931
3.06347, 2, -37.0373, 0.652977, 20.5492, -160.567, -92.6083, 54.7932
3.0715, 2, -37.0373, 0.652977, 20.5493, -160.567, -92.6082, 54.7932
3.07943, 2, -37.0373, 0.652982, 20.5493, -160.567, -92.6083, 54.7932
3.08752, 2, -37.0373, 0.652984, 20.5492, -160.567, -92.6083, 54.7932
3.0955, 2, -37.0373, 0.652998, 20.5492, -160.567, -92.6083, 54.7933
3.10344, 2, -37.0373, 0.653004, 20.5492, -160.567, -92.6083, 54.7933
3.11144, 2, -37.0373, 0.653017, 20.5492, -160.567, -92.6083, 54.7933
3.1195, 2, -37.0373, 0.653039, 20.5492, -160.567, -92.6083, 54.7935
3.1275, 2, -37.0373, 0.653023, 20.5492, -160.567, -92.6084, 54.7935
3.13548, 2, -37.0373, 0.653045, 20.5492, -160.567, -92.6083, 54.7935
3.14359, 2, -37.0373, 0.653033, 20.5492, -160.567, -92.6083, 54.7936
3.15158, 2, -37.0373, 0.653013, 20.5492, -160.567, -92.6084, 54.7936
3.15953, 2, -37.0372, 0.652986, 20.5492, -160.567, -92.6084, 54.7936
3.1676, 2, -37.0372, 0.652974, 20.5492, -160.567, -92.6084, 54.7937
3.17554, 2, -37.0373, 0.652976, 20.5492, -160.567, -92.6084, 54.7937
3.18345, 2, -37.0373, 0.652981, 20.5491, -160.567, -92.6084, 54.7938
3.1915, 2, -37.0372, 0.653015, 20.5491, -160.567, -92.6084, 54.7938
3.19946, 2, -37.0372, 0.653041, 20.5491, -160.567, -92.6084, 54.7939
3.20746, 2, -37.0372, 0.653049, 20.5491, -160.567, -92.6084, 54.7939
3.21578, 2, -37.0372, 0.653057, 20.5491, -160.567, -92.6084, 54.7939
3.22359, 2, -37.0372, 0.653049, 20.5491, -160.567, -92.6084, 54.794
3.23167, 2, -37.0371, 0.653064, 20.5491, -160.567, -92.6084, 54.794
3.23989, 2, -37.0371, 0.653053, 20.5491, -160.567, -92.6085, 54.794
3.24851, 2, -37.0371, 0.653066, 20.5491, -160.567, -92.6085, 54.794
3.25586, 2, -37.0371, 0.653053, 20.5491, -160.567, -92.6085, 54.7941
3.26404, 2, -37.0371, 0.653029, 20.5491, -160.567, -92.6084, 54.7942
3.27192, 2, -37.0371, 0.653024, 20.549, -160.567, -92.6084, 54.7942
3.27997, 2, -37.0371, 0.653042, 20.549, -160.567, -92.6084, 54.7942
3.28814, 2, -37.0371, 0.653035, 20.549, -160.567, -92.6085, 54.7943
3.29604, 2, -37.0371, 0.653016, 20.549, -160.567, -92.6085, 54.7943
3.30404, 2, -37.0371, 0.653025, 20.549, -160.567, -92.6085, 54.7943
3.31215, 2, -37.0371, 0.653035, 20.549, -160.567, -92.6085, 54.7943
3.31942, 2, -37.0371, 0.653057, 20.549, -160.567, -92.6084, 54.7943
3.32742, 2, -37.037, 0.653039, 20.549, -160.567, -92.6084, 54.7943
3.33547, 2, -37.037, 0.653041, 20.549, -160.567, -92.6084, 54.7943
3.34343, 2, -37.037, 0.653024, 20.5489, -160.567, -92.6084, 54.7943
3.35142, 2, -37.037, 0.653034, 20.5489, -160.567, -92.6085, 54.7944
3.35948, 2, -37.037, 0.653039, 20.5489, -160.567, -92.6085, 54.7944
3.36742, 2, -37.037, 0.653015, 20.5489, -160.567, -92.6085, 54.7944
3.37542, 2, -37.0369, 0.653006, 20.5489, -160.567, -92.6085, 54.7944
3.38495, 2, -37.0369, 0.653042, 20.5489, -160.567, -92.6086, 54.7944
3.39296, 2, -37.0369, 0.653043, 20.5489, -160.567, -92.6085, 54.7945
3.40106, 2, -37.0369, 0.65305, 20.5489, -160.567, -92.6085, 54.7945
3.40748, 2, -37.0369, 0.653037, 20.5489, -160.567, -92.6085, 54.7945
3.41543, 2, -37.0369, 0.653051, 20.5489, -160.567, -92.6085, 54.7945
3.42501, 2, -37.0369, 0.653065, 20.5488, -160.567, -92.6085, 54.7946
3.43147, 2, -37.0368, 0.653071, 20.5488, -160.567, -92.6085, 54.7946
3.44116, 2, -37.0368, 0.653074, 20.5488, -160.567, -92.6085, 54.7947
3.44741, 2, -37.0368, 0.653057, 20.5488, -160.567, -92.6085, 54.7947
3.45549, 2, -37.0368, 0.653049, 20.5488, -160.567, -92.6085, 54.7946
3.46346, 2, -37.0368, 0.653064, 20.5488, -160.567, -92.6086, 54.7946
3.47142, 2, -37.0368, 0.653053, 20.5488, -160.567, -92.6086, 54.7947
3.47949, 2, -37.0368, 0.653055, 20.5488, -160.567, -92.6085, 54.7948
3.48742, 2, -37.0367, 0.65303, 20.5488, -160.567, -92.6086, 54.7948
3.49542, 2, -37.0367, 0.653019, 20.5488, -160.567, -92.6086, 54.7948
3.5035, 2, -37.0367, 0.653043, 20.5488, -160.567, -92.6086, 54.7948
3.51142, 2, -37.0367, 0.65305, 20.5488, -160.566, -92.6086, 54.7948
3.51941, 2, -37.0367, 0.653039, 20.5488, -160.566, -92.6086, 54.7949
3.52749, 2, -37.0367, 0.653048, 20.5488, -160.566, -92.6086, 54.7949
3.53542, 2, -37.0367, 0.653056, 20.5487, -160.566, -92.6085, 54.7949
3.54343, 2, -37.0367, 0.653067, 20.5487, -160.566, -92.6086, 54.7949
3.5516, 2, -37.0367, 0.653073, 20.5487, -160.566, -92.6086, 54.7949
3.55942, 2, -37.0367, 0.653075, 20.5487, -160.566, -92.6086, 54.795
3.56745, 2, -37.0366, 0.653058, 20.5487, -160.566, -92.6086, 54.795
3.57548, 2, -37.0366, 0.653068, 20.5487, -160.566, -92.6086, 54.795
3.58342, 2, -37.0366, 0.653073, 20.5487, -160.566, -92.6086, 54.795
3.59141, 2, -37.0366, 0.653075, 20.5487, -160.566, -92.6086, 54.795
3.59949, 2, -37.0366, 0.653076, 20.5487, -160.566, -92.6086, 54.795
3.60741, 2, -37.0366, 0.653076, 20.5487, -160.566, -92.6086, 54.795
3.61543, 2, -37.0366, 0.653077, 20.5487, -160.566, -92.6085, 54.795
3.62351, 2, -37.0366, 0.653077, 20.5486, -160.566, -92.6086, 54.795
3.63149, 2, -37.0365, 0.653058, 20.5486, -160.566, -92.6086, 54.795
3.63966, 2, -37.0365, 0.653068, 20.5486, -160.566, -92.6087, 54.7951
3.64842, 2, -37.0365, 0.653073, 20.5486, -160.566, -92.6087, 54.7951
3.65552, 2, -37.0365, 0.653075, 20.5486, -160.566, -92.6087, 54.7951
3.66352, 2, -37.0365, 0.653076, 20.5486, -160.566, -92.6087, 54.7951
3.67158, 2, -37.0365, 0.653076, 20.5486, -160.566, -92.6087, 54.795
3.67975, 2, -37.0365, 0.653077, 20.5486, -160.566, -92.6086, 54.795
3.68742, 2, -37.0365, 0.653066, 20.5486, -160.566, -92.6087, 54.7951
3.69549, 2, -37.0365, 0.653064, 20.5486, -160.566, -92.6087, 54.7951
3.70381, 4, -37.0365, 0.653071, 20.5486, -160.566, -92.6087, 54.7951
3.71145, 4, -37.0365, 0.653063, 20.5486, -160.566, -92.6087, 54.7951
3.7196, 4, -37.0365, 0.653063, 20.5485, -160.566, -92.6087, 54.7951
3.72764, 4, -37.0364, 0.653071, 20.5485, -160.566, -92.6087, 54.7952
3.73566, 4, -37.0365, 0.653074, 20.5485, -160.566, -92.6087, 54.7952
3.74381, 4, -37.0365, 0.653076, 20.5485, -160.566, -92.6087, 54.7951
3.75203, 4, -37.0364, 0.653076, 20.5485, -160.566, -92.6087, 54.7951
3.75986, 4, -37.0364, 0.653077, 20.5485, -160.566, -92.6086, 54.7951
3.76852, 4, -37.0364, 0.653077, 20.5485, -160.566, -92.6086, 54.7951
3.77607, 4, -37.0364, 0.653077, 20.5485, -160.566, -92.6087, 54.7952
3.78395, 4, -37.0364, 0.653077, 20.5485, -160.566, -92.6087, 54.7951
3.79252, 4, -37.0364, 0.653077, 20.5485, -160.566, -92.6087, 54.7951
3.80042, 4, -37.0364, 0.653066, 20.5485, -160.566, -92.6087, 54.7951
3.80818, 4, -37.0364, 0.653064, 20.5485, -160.566, -92.6087, 54.7951
3.83217, 4, -37.0364, 0.653075, 20.5485, -160.566, -92.6086, 54.7951
3.83422, 4, -37.0364, 0.653076, 20.5485, -160.566, -92.6086, 54.7951
3.83677, 4, -37.0364, 0.653076, 20.5485, -160.566, -92.6087, 54.7952
3.84092, 4, -37.0364, 0.653076, 20.5484, -160.566, -92.6087, 54.7951
3.8486, 4, -37.0363, 0.653066, 20.5484, -160.566, -92.6086, 54.7952
3.85541, 4, -37.0361, 0.653029, 20.5484, -160.566, -92.6086, 54.7951
3.86347, 4, -37.0346, 0.652623, 20.5485, -160.566, -92.6087, 54.7951
3.87373, 4, -37.0272, 0.649192, 20.5495, -160.566, -92.6087, 54.7952
3.88473, 4, -37.0176, 0.63903, 20.5544, -160.566, -92.6087, 54.7951
3.88737, 4, -37.0114, 0.63903, 20.5544, -160.566, -92.6087, 54.7951
3.89918, 4, -36.986, 0.620071, 20.5673, -160.563, -92.6087, 54.7951
3.90358, 5, -36.9748, 0.611489, 20.5743, -160.562, -92.6087, 54.7951
3.91138, 5, -36.9481, 0.59105, 20.5931, -160.558, -92.6086, 54.7951
3.91949, 5, -36.9165, 0.566089, 20.6185, -160.553, -92.6083, 54.7951
3.9274, 5, -36.8801, 0.53663, 20.6508, -160.546, -92.6077, 54.795
3.93693, 5, -36.8388, 0.502647, 20.6894, -160.538, -92.6067, 54.795
3.94348, 5, -36.7924, 0.46387, 20.7335, -160.528, -92.6053, 54.795
3.95321, 5, -36.7408, 0.420752, 20.7821, -160.517, -92.6037, 54.795
3.95951, 5, -36.6846, 0.37395, 20.8337, -160.505, -92.6019, 54.7951
3.96846, 5, -36.6243, 0.324408, 20.8874, -160.493, -92.6001, 54.795
3.97558, 5, -36.5602, 0.272753, 20.9424, -160.481, -92.5982, 54.795
3.98343, 5, -36.4935, 0.219666, 20.9979, -160.468, -92.5963, 54.795
3.9914, 5, -36.4257, 0.165996, 21.0535, -160.456, -92.5944, 54.795
3.99955, 5, -36.3572, 0.112054, 21.1091, -160.444, -92.5924, 54.795
4.00738, 5, -36.2884, 0.0580376, 21.1647, -160.432, -92.5904, 54.7951
4.0155, 5, -36.2196, 0.00414516, 21.2202, -160.42, -92.5884, 54.7951
4.0245, 5, -36.1507, -0.0495374, 21.2758, -160.408, -92.5864, 54.7952
4.03453, 5, -36.0478, -0.129644, 21.359, -160.389, -92.5833, 54.7954
4.03941, 5, -36.0135, -0.156222, 21.3866, -160.383, -92.5823, 54.7956
4.04747, 5, -35.9449, -0.209269, 21.442, -160.37, -92.5801, 54.7959
4.05543, 5, -35.8764, -0.262173, 21.4972, -160.357, -92.5781, 54.7965
4.06342, 5, -35.8076, -0.31489, 21.5524, -160.344, -92.5759, 54.7972
4.07425, 5, -35.7387, -0.367629, 21.6074, -160.326, -92.5727, 54.7987
4.07954, 5, -35.6696, -0.420364, 21.6623, -160.319, -92.5717, 54.7992
4.0875, 5, -35.6001, -0.473159, 21.717, -160.307, -92.5696, 54.8005
4.09541, 5, -35.5304, -0.525997, 21.7715, -160.294, -92.5675, 54.8018
4.10354, 5, -35.4604, -0.578809, 21.8258, -160.282, -92.5653, 54.8034
4.11151, 5, -35.3902, -0.631659, 21.8799, -160.269, -92.5632, 54.805
4.11939, 5, -35.3197, -0.684467, 21.934, -160.256, -92.561, 54.8068
4.12757, 5, -35.2492, -0.737209, 21.988, -160.243, -92.5588, 54.8087
4.13576, 5, -35.1787, -0.789635, 22.0418, -160.229, -92.5566, 54.8108
4.14348, 5, -35.108, -0.841905, 22.0956, -160.216, -92.5544, 54.813
4.15175, 5, -35.0373, -0.894088, 22.1492, -160.203, -92.5521, 54.8153
4.16141, 5, -34.9668, -0.945887, 22.2027, -160.189, -92.5499, 54.8177
4.1684, 5, -34.8964, -0.99753, 22.2562, -160.177, -92.5476, 54.8203
4.1758, 5, -34.8259, -1.04903, 22.3095, -160.164, -92.5453, 54.8228
4.18502, 5, -34.7554, -1.10047, 22.3626, -160.151, -92.543, 54.8257
4.19241, 5, -34.6848, -1.15191, 22.4155, -160.138, -92.5407, 54.8285
4.20037, 5, -34.614, -1.20321, 22.4683, -160.125, -92.5383, 54.8315
4.20743, 5, -34.543, -1.25458, 22.5208, -160.112, -92.5359, 54.8346
4.21549, 5, -34.4718, -1.30595, 22.5732, -160.099, -92.5336, 54.8379
4.22577, 5, -34.4005, -1.3573, 22.6255, -160.085, -92.5312, 54.8412
4.23203, 5, -34.3289, -1.40867, 22.6777, -160.071, -92.5288, 54.8445
4.24141, 5, -34.2574, -1.45991, 22.7297, -160.057, -92.5264, 54.848
4.24769, 5, -34.1855, -1.51098, 22.7816, -160.044, -92.5241, 54.8517
4.2568, 5, -34.1134, -1.56181, 22.8333, -160.03, -92.5217, 54.8555
4.26387, 5, -34.0413, -1.6125, 22.885, -160.017, -92.5193, 54.8594
4.27197, 5, -33.9692, -1.66294, 22.9366, -160.003, -92.5169, 54.8634
4.2866, 5, -33.8608, -1.73821, 23.0136, -159.983, -92.5133, 54.8694
4.28956, 5, -33.8248, -1.76323, 23.0392, -159.976, -92.5122, 54.8715
4.29599, 5, -33.7526, -1.81323, 23.0903, -159.962, -92.5097, 54.8757
4.30433, 5, -33.6804, -1.86312, 23.1412, -159.948, -92.5074, 54.8799
4.31272, 5, -33.6442, -1.88803, 23.1665, -159.941, -92.5062, 54.8821
4.31995, 5, -33.5716, -1.93794, 23.2172, -159.926, -92.5039, 54.8864
4.32739, 5, -33.4989, -1.98813, 23.2677, -159.912, -92.5016, 54.8907
4.33539, 5, -33.4261, -2.03858, 23.3182, -159.898, -92.4993, 54.8944
4.34462, 5, -33.3169, -2.11489, 23.3937, -159.877, -92.4959, 54.8975
4.35157, 6, -33.2806, -2.14055, 23.4189, -159.87, -92.4947, 54.8979
4.36157, 6, -33.2083, -2.2187, 23.4947, -159.848, -92.4908, 54.8959
4.36739, 6, -33.1364, -2.24522, 23.5201, -159.84, -92.4893, 54.8939
4.37541, 6, -33.0649, -2.29888, 23.5716, -159.825, -92.4857, 54.886
4.38344, 7, -32.9938, -2.35364, 23.624, -159.807, -92.481, 54.8725
4.39142, 7, -32.9233, -2.40957, 23.6777, -159.788, -92.4747, 54.8561
4.40198, 7, -32.8185, -2.49612, 23.7608, -159.758, -92.4615, 54.8286
4.40763, 7, -32.7838, -2.52573, 23.7892, -159.747, -92.4561, 54.8195
4.41537, 7, -32.715, -2.58616, 23.8472, -159.725, -92.4436, 54.8017
4.42415, 8, -32.6468, -2.6482, 23.9066, -159.702, -92.4291, 54.7845
4.4314, 8, -32.5794, -2.71206, 23.9674, -159.677, -92.4126, 54.7675
4.44188, 8, -32.5127, -2.77763, 24.0292, -159.65, -92.3941, 54.7498
4.4509, 8, -32.4142, -2.879, 24.1239, -159.609, -92.3634, 54.7212
4.45551, 8, -32.3817, -2.91353, 24.156, -159.595, -92.3525, 54.7109
4.46336, 9, -32.317, -2.98359, 24.2209, -159.567, -92.33, 54.689
4.47153, 9, -32.253, -3.05493, 24.2868, -159.537, -92.3064, 54.6652
4.47954, 9, -32.1895, -3.12763, 24.3536, -159.505, -92.2815, 54.6397
4.488, 9, -32.1266, -3.20161, 24.4215, -159.473, -92.2547, 54.6131
4.49539, 9, -32.0642, -3.27693, 24.4904, -159.441, -92.2262, 54.5852
4.50339, 10, -32.0024, -3.35347, 24.5602, -159.407, -92.1965, 54.5557
4.51148, 10, -31.9413, -3.43141, 24.6311, -159.372, -92.1658, 54.5244
4.51938, 10, -31.8806, -3.51081, 24.7031, -159.336, -92.1337, 54.491
4.52762, 10, -31.8205, -3.59158, 24.7762, -159.3, -92.0996, 54.4558
4.53645, 10, -31.7611, -3.67386, 24.8502, -159.262, -92.064, 54.4197
4.54439, 11, -31.7021, -3.75752, 24.9252, -159.223, -92.0277, 54.3824
4.55241, 11, -31.6437, -3.84274, 25.0012, -159.184, -91.9903, 54.3432
4.55941, 11, -31.5859, -3.92941, 25.0781, -159.144, -91.9508, 54.302
4.56739, 11, -31.5285, -4.01754, 25.1559, -159.103, -91.9098, 54.2593
4.57596, 11, -31.4717, -4.10711, 25.2348, -159.06, -91.8682, 54.2155
4.58464, 12, -31.4155, -4.19823, 25.3148, -159.017, -91.8248, 54.1704
4.59141, 12, -31.3596, -4.29071, 25.3958, -158.973, -91.7794, 54.123
4.60159, 12, -31.3043, -4.38458, 25.4779, -158.927, -91.7334, 54.0742
4.60762, 12, -31.2496, -4.47975, 25.5611, -158.881, -91.6862, 54.0244
4.61656, 12, -31.1953, -4.57634, 25.6453, -158.835, -91.6368, 53.9729
4.62335, 13, -31.1415, -4.67436, 25.7304, -158.786, -91.5868, 53.9193
4.63158, 13, -31.0883, -4.77373, 25.8164, -158.738, -91.5352, 53.8648
4.63946, 13, -31.0356, -4.87457, 25.9034, -158.688, -91.4816, 53.809
4.64769, 13, -30.9834, -4.97702, 25.9916, -158.637, -91.4277, 53.7513
4.65565, 13, -30.9317, -5.08088, 26.0808, -158.586, -91.3717, 53.692
4.66438, 14, -30.8805, -5.18611, 26.1711, -158.534, -91.3145, 53.6319
4.67195, 14, -30.8299, -5.29284, 26.2625, -158.48, -91.2567, 53.5697
4.68064, 14, -30.78, -5.40109, 26.3548, -158.426, -91.1964, 53.5062
4.68893, 14, -30.7304, -5.51079, 26.448, -158.371, -91.136, 53.4421
4.69641, 14, -30.6815, -5.62208, 26.5421, -158.314, -91.0732, 53.3754
4.70343, 14, -30.6331, -5.73478, 26.6373, -158.258, -91.0095, 53.3077
4.71216, 15, -30.585, -5.84891, 26.7336, -158.199, -90.9444, 53.239
4.71963, 15, -30.5376, -5.96426, 26.8312, -158.141, -90.8775, 53.168
4.72791, 15, -30.4906, -6.08098, 26.9298, -158.081, -90.8102, 53.0964
4.73649, 15, -30.4441, -6.19926, 27.0293, -158.02, -90.7405, 53.0227
4.74373, 15, -30.3981, -6.31882, 27.1297, -157.959, -90.6703, 52.9473
4.75172, 16, -30.3527, -6.43997, 27.2309, -157.896, -90.598, 52.8711
4.75988, 16, -30.3078, -6.56259, 27.3334, -157.833, -90.5254, 52.7923
4.76852, 16, -30.2634, -6.68658, 27.4371, -157.768, -90.4506, 52.713
4.77673, 16, -30.2194, -6.81217, 27.5419, -157.704, -90.375, 52.6319
4.78538, 16, -30.176, -6.93925, 27.6477, -157.637, -90.2977, 52.5497
4.79197, 17, -30.1329, -7.06789, 27.7543, -157.571, -90.2194, 52.4663
4.80231, 17, -30.0905, -7.19813, 27.8617, -157.503, -90.1395, 52.3813
4.80828, 17, -30.0485, -7.32981, 27.9701, -157.434, -90.0582, 52.2955
4.81656, 17, -30.0069, -7.4627, 28.0797, -157.364, -89.976, 52.2077
4.82338, 17, -29.9864, -7.52966, 28.135, -157.329, -89.9343, 52.1637
4.83245, 18, -29.9255, -7.73281, 28.3026, -157.222, -89.8072, 52.0289
4.83938, 18, -29.9055, -7.8012, 28.3589, -157.186, -89.764, 51.9836
4.84739, 18, -29.8658, -7.93909, 28.4721, -157.114, -89.6774, 51.8913
4.85754, 18, -29.807, -8.14824, 28.6436, -157.002, -89.5446, 51.7507
4.86477, 18, -29.7684, -8.28934, 28.7594, -156.927, -89.4543, 51.6548
4.8714, 19, -29.7493, -8.36037, 28.8178, -156.889, -89.4089, 51.6068
4.87938, 19, -29.7115, -8.50364, 28.9354, -156.813, -89.3172, 51.5093
4.88739, 19, -29.6741, -8.64856, 29.054, -156.736, -89.2239, 51.411
4.89693, 19, -29.6188, -8.86846, 29.2331, -156.618, -89.082, 51.2611
4.90883, 19, -29.5825, -9.01659, 29.4144, -156.498, -88.9376, 51.1087
4.91136, 20, -29.5646, -9.09126, 29.4144, -156.498, -88.9376, 51.1087
4.91945, 20, -29.5291, -9.24169, 29.5368, -156.418, -88.8399, 51.0059
4.92928, 20, -29.4767, -9.47015, 29.7223, -156.295, -88.6917, 50.849
4.93617, 20, -29.4594, -9.54688, 29.7845, -156.254, -88.6415, 50.7959
4.94338, 20, -29.4252, -9.70117, 29.9096, -156.17, -88.5407, 50.6892
4.95235, 21, -29.3916, -9.85673, 30.0358, -156.086, -88.4388, 50.5812
4.95943, 21, -29.3584, -10.0139, 30.1628, -156, -88.3355, 50.4724
4.96738, 21, -29.3255, -10.1725, 30.2911, -155.914, -88.2315, 50.3622
4.97656, 21, -29.2932, -10.3322, 30.4203, -155.827, -88.1264, 50.2515
4.98352, 21, -29.2611, -10.4928, 30.5503, -155.74, -88.0199, 50.1399
4.99135, 21, -29.2296, -10.6548, 30.6812, -155.651, -87.9128, 50.0271
5.00016, 22, -29.1984, -10.8182, 30.8129, -155.561, -87.8046, 49.9138
5.00737, 22, -29.1675, -10.9828, 30.9458, -155.471, -87.6954, 49.7995
5.01538, 22, -29.1372, -11.1483, 31.0794, -155.379, -87.5852, 49.6843
5.02676, 22, -29.0923, -11.3988, 31.2817, -155.241, -87.4179, 49.5097
5.03375, 22, -29.0776, -11.4831, 31.3497, -155.194, -87.3618, 49.451
5.03937, 23, -29.0483, -11.6528, 31.486, -155.1, -87.2488, 49.3334
5.04743, 23, -29.0193, -11.8237, 31.6231, -155.005, -87.1346, 49.215
5.05553, 23, -28.9908, -11.9952, 31.7611, -154.91, -87.02, 49.0959
5.06345, 23, -28.9627, -12.168, 31.8999, -154.813, -86.9042, 48.9765
5.07137, 23, -28.9349, -12.3423, 32.0397, -154.716, -86.7874, 48.8563
5.07942, 24, -28.9076, -12.5177, 32.1804, -154.618, -86.6698, 48.7358
5.08746, 24, -28.8804, -12.6937, 32.3219, -154.519, -86.5512, 48.6148
5.09537, 24, -28.8537, -12.8704, 32.4639, -154.419, -86.432, 48.4927
5.10352, 24, -28.8273, -13.0486, 32.6067, -154.318, -86.3116, 48.3702
5.11157, 24, -28.8012, -13.2283, 32.7507, -154.217, -86.1908, 48.2473
5.11944, 25, -28.7755, -13.4085, 32.8955, -154.114, -86.0692, 48.1239
5.12824, 25, -28.7501, -13.5895, 33.0407, -154.011, -85.9467, 48.0005
5.13619, 25, -28.7248, -13.7716, 33.1865, -153.907, -85.8239, 47.8771
5.14372, 25, -28.6997, -13.9551, 33.3331, -153.803, -85.6998, 47.7533
5.15227, 25, -28.675, -14.1394, 33.4806, -153.697, -85.5756, 47.6293
5.15946, 26, -28.6506, -14.324, 33.6288, -153.591, -85.4505, 47.5055
5.16784, 26, -28.6264, -14.5098, 33.7774, -153.484, -85.3248, 47.3812
5.17734, 26, -28.6026, -14.6971, 33.9266, -153.376, -85.1989, 47.2568
5.18392, 26, -28.5789, -14.8849, 34.0768, -153.268, -85.0718, 47.1327
5.19238, 26, -28.5553, -15.0729, 34.2276, -153.158, -84.9447, 47.0085
5.19937, 27, -28.5319, -15.2616, 34.3787, -153.048, -84.8167, 46.8845
5.21016, 27, -28.5089, -15.4513, 34.5304, -152.938, -84.6884, 46.7613
5.21551, 27, -28.486, -15.6416, 34.6828, -152.826, -84.5595, 46.6378
5.22756, 27, -28.4522, -15.9275, 34.9127, -152.658, -84.3654, 46.4535
5.23258, 27, -28.441, -16.0235, 34.9894, -152.601, -84.3005, 46.3923
5.23962, 27, -28.4187, -16.2165, 35.1429, -152.488, -84.1704, 46.2698
5.24859, 28, -28.3964, -16.4101, 35.2971, -152.374, -84.0399, 46.1478
5.2561, 28, -28.3742, -16.6042, 35.4521, -152.259, -83.909, 46.0261
5.26467, 28, -28.3523, -16.7994, 35.6076, -152.144, -83.778, 45.9052
5.27189, 28, -28.3304, -16.9955, 35.7631, -152.027, -83.6465, 45.7851
5.28047, 28, -28.3085, -17.1916, 35.9192, -151.91, -83.5149, 45.6658
5.28874, 29, -28.287, -17.388, 36.076, -151.793, -83.3827, 45.5472
5.29597, 29, -28.2655, -17.5854, 36.2333, -151.674, -83.2502, 45.4294
5.30493, 29, -28.2439, -17.7832, 36.3907, -151.555, -83.1173, 45.3124
5.312, 29, -28.2332, -17.8821, 36.5482, -151.436, -82.9842, 45.1959
5.32003, 29, -28.2119, -18.0801, 36.6273, -151.376, -82.8509, 45.0807
5.32895, 30, -28.1908, -18.2786, 36.7861, -151.255, -82.7174, 44.9668
5.33548, 30, -28.1695, -18.4778, 36.9451, -151.134, -82.6507, 44.9104
5.34343, 30, -28.1482, -18.677, 37.1036, -151.012, -82.517, 44.7984
5.35267, 30, -28.1164, -18.9766, 37.3415, -150.829, -82.3165, 44.6338
5.36079, 30, -28.1056, -19.1774, 37.5007, -150.706, -82.1823, 44.5266
5.36736, 31, -28.0841, -19.2779, 37.5803, -150.644, -82.1154, 44.4734
5.37793, 31, -28.0518, -19.5789, 37.8187, -150.459, -81.9143, 44.3165
5.38557, 31, -28.0304, -19.7797, 37.978, -150.334, -81.7803, 44.2143
5.39135, 31, -28.0196, -19.8803, 38.058, -150.272, -81.7133, 44.1637
5.40086, 31, -27.9869, -20.1813, 38.2981, -150.083, -81.5118, 44.014
5.41328, 32, -27.9541, -20.4823, 38.5374, -149.894, -81.3104, 43.8683
5.41711, 32, -27.9429, -20.583, 38.6172, -149.831, -81.2434, 43.8211
5.42335, 32, -27.9317, -20.6837, 38.6972, -149.767, -81.1766, 43.7742
5.43149, 32, -27.9092, -20.8847, 38.8572, -149.64, -81.0425, 43.6821
5.43941, 32, -27.8865, -21.0854, 39.0168, -149.513, -80.9089, 43.593
5.44895, 33, -27.8636, -21.2863, 39.1756, -149.385, -80.7756, 43.4647
5.45537, 33, -27.8403, -21.4869, 39.3345, -149.257, -80.6429, 43.4235
5.46342, 33, -27.8167, -21.6867, 39.4934, -149.13, -80.5105, 43.343
5.47135, 33, -27.7925, -21.8858, 39.6516, -149.002, -80.3786, 43.2662
5.4796, 33, -27.7678, -22.085, 39.8089, -148.875, -80.2472, 43.1922
5.48733, 34, -27.7428, -22.2836, 39.9657, -148.747, -80.116, 43.1218
5.49537, 34, -27.7172, -22.481, 40.1224, -148.62, -79.9853, 43.0549
5.50348, 34, -27.6911, -22.678, 40.2788, -148.492, -79.8545, 42.9903
5.51374, 34, -27.6647, -22.9733, 40.5118, -148.3, -79.6586, 42.9007
5.51935, 34, -27.6378, -23.0714, 40.5894, -148.236, -79.5932, 42.8724
5.52746, 35, -27.6104, -23.267, 40.7446, -148.108, -79.4627, 42.8178
5.53545, 35, -27.5829, -23.4627, 40.8997, -147.98, -79.3319, 42.7667
5.54341, 35, -27.5552, -23.6589, 41.0542, -147.851, -79.2016, 42.7196
5.55414, 35, -27.5131, -23.9521, 41.2854, -147.657, -79.0064, 42.6546
5.55948, 35, -27.499, -24.0496, 41.3626, -147.592, -78.9415, 42.6345
5.56765, 36, -27.4705, -24.2448, 41.517, -147.461, -78.812, 42.5971
5.57543, 36, -27.4416, -24.4399, 41.6708, -147.331, -78.6823, 42.5637
5.58351, 36, -27.4125, -24.6341, 41.8239, -147.2, -78.5536, 42.5347
5.59136, 36, -27.383, -24.8275, 41.9769, -147.069, -78.4248, 42.5098
5.59948, 36, -27.3527, -25.021, 42.1295, -146.938, -78.2968, 42.4893
5.60738, 36, -27.3215, -25.2137, 42.281, -146.807, -78.1691, 42.4732
5.61537, 37, -27.2894, -25.4051, 42.4312, -146.677, -78.0419, 42.462
5.62343, 37, -27.2565, -25.5952, 42.5803, -146.547, -77.9155, 42.4557
5.63158, 37, -27.2227, -25.7847, 42.7283, -146.418, -77.7891, 42.4529
5.63987, 37, -27.1878, -25.9728, 42.8751, -146.29, -77.6635, 42.4535
5.64751, 37, -27.152, -26.1591, 43.0205, -146.163, -77.5381, 42.4602
5.65546, 38, -27.1153, -26.3441, 43.1646, -146.036, -77.4135, 42.473
5.66346, 38, -27.078, -26.5286, 43.308, -145.909, -77.2892, 42.491
5.67152, 38, -27.0398, -26.7119, 43.4509, -145.782, -77.1652, 42.5142
5.6798, 38, -27.001, -26.8937, 43.593, -145.656, -77.0416, 42.5428
5.6895, 38, -26.9615, -27.0748, 43.7343, -145.529, -76.918, 42.5771
5.69637, 39, -26.9214, -27.2559, 43.8751, -145.402, -76.7948, 42.6176
5.70565, 39, -26.8806, -27.4363, 44.0152, -145.275, -76.6713, 42.6638
5.71172, 39, -26.839, -27.6154, 44.1547, -145.148, -76.5482, 42.7153
5.71954, 39, -26.7966, -27.7939, 44.2935, -145.021, -76.4249, 42.7729
5.72746, 39, -26.7535, -27.9721, 44.431, -144.895, -76.3017, 42.8374
5.73584, 40, -26.7093, -28.1491, 44.5673, -144.769, -76.1786, 42.9073
5.74367, 40, -26.664, -28.3243, 44.7026, -144.644, -76.056, 42.9844
5.75162, 40, -26.6178, -28.4981, 44.8363, -144.52, -75.9341, 43.0678
5.76136, 40, -26.5706, -28.6708, 44.9685, -144.397, -75.8125, 43.1574
5.76776, 40, -26.522, -28.842, 45.0991, -144.275, -75.692, 43.2543
5.77585, 41, -26.4724, -29.0112, 45.2282, -144.154, -75.5719, 43.3575
5.78776, 41, -26.4216, -29.1787, 45.356, -144.034, -75.3927, 43.5251
5.79189, 41, -26.3696, -29.345, 45.4825, -143.915, -75.3333, 43.5844
5.80073, 41, -26.3163, -29.51, 45.6075, -143.797, -75.2144, 43.7083
5.80819, 41, -26.2618, -29.6728, 45.731, -143.68, -75.0963, 43.8392
5.81595, 42, -26.2341, -29.7535, 45.7921, -143.621, -74.9784, 43.9776
5.82335, 42, -26.1774, -29.9138, 45.9129, -143.506, -74.9196, 44.0496
5.83136, 42, -26.1193, -30.0722, 46.0318, -143.392, -74.8026, 44.1987
5.83935, 42, -26.0595, -30.2288, 46.1485, -143.28, -74.686, 44.3547
5.84745, 42, -25.9981, -30.383, 46.2632, -143.17, -74.5698, 44.5182
5.85551, 42, -25.935, -30.5349, 46.3756, -143.062, -74.4544, 44.6886
5.8634, 43, -25.8702, -30.6845, 46.4858, -142.956, -74.3392, 44.8667
5.87141, 43, -25.8038, -30.832, 46.5938, -142.852, -74.2246, 45.0526
5.87962, 43, -25.7356, -30.9772, 46.6998, -142.749, -74.1103, 45.246
5.89016, 43, -25.6304, -31.1907, 46.8554, -142.599, -73.9396, 45.5507
5.89535, 43, -25.5946, -31.2608, 46.9063, -142.55, -73.8831, 45.6561
5.90337, 44, -25.5218, -31.3995, 47.0065, -142.453, -73.7703, 45.8727
5.91143, 44, -25.4472, -31.5361, 47.1045, -142.358, -73.6582, 46.0975
5.92181, 44, -25.332, -31.7368, 47.2467, -142.22, -73.4911, 46.4496
5.92989, 44, -25.253, -31.8673, 47.3385, -142.131, -73.3806, 46.6947
5.93557, 44, -25.2128, -31.9316, 47.3836, -142.088, -73.3256, 46.8201
5.94335, 45, -25.131, -32.0581, 47.4718, -142.003, -73.216, 47.0776
5.95235, 45, -25.0472, -32.1817, 47.5576, -141.922, -73.1068, 47.3437
5.96118, 45, -24.9612, -32.3026, 47.6406, -141.842, -72.9442, 47.7582
5.96734, 45, -24.8731, -32.4204, 47.7206, -141.766, -72.89, 47.9004
5.9755, 45, -24.7826, -32.535, 47.7976, -141.693, -72.7824, 48.191
5.98443, 46, -24.6898, -32.6462, 47.8715, -141.623, -72.6754, 48.4904
5.99138, 46, -24.5947, -32.754, 47.9426, -141.556, -72.5688, 48.7981
5.99939, 46, -24.497, -32.8584, 48.0106, -141.493, -72.4634, 49.1139
6.0075, 46, -24.3971, -32.9592, 48.0755, -141.435, -72.3587, 49.4384
6.01634, 46, -24.295, -33.0562, 48.137, -141.379, -72.255, 49.7712
6.0244, 47, -24.1904, -33.1495, 48.195, -141.328, -72.1526, 50.1117
6.03136, 47, -24.0836, -33.2388, 48.2494, -141.281, -72.0511, 50.4606
6.03942, 47, -23.974, -33.3242, 48.3002, -141.237, -71.9508, 50.8182
6.04739, 47, -23.8619, -33.4054, 48.3473, -141.199, -71.8518, 51.1837
6.0555, 47, -23.7471, -33.4826, 48.3905, -141.165, -71.7538, 51.5583
6.06339, 48, -23.6295, -33.5554, 48.4298, -141.136, -71.6572, 51.9417
6.07142, 48, -23.5092, -33.6239, 48.465, -141.111, -71.5622, 52.3336
6.08042, 48, -23.3864, -33.6877, 48.496, -141.09, -71.4687, 52.7349
6.08841, 48, -23.2611, -33.7467, 48.5229, -141.075, -71.3768, 53.1461
6.09636, 48, -23.1331, -33.8006, 48.5456, -141.065, -71.2872, 53.5658
6.10434, 49, -23.0021, -33.8494, 48.5636, -141.06, -71.1993, 53.995
6.11317, 49, -22.8683, -33.8929, 48.5774, -141.059, -71.1131, 54.4317
6.11935, 49, -22.7315, -33.9309, 48.5864, -141.064, -71.0294, 54.8761
6.13073, 49, -22.5209, -33.9772, 48.5911, -141.083, -70.9077, 55.5568
6.13557, 49, -22.4493, -33.9898, 48.5904, -141.092, -70.8683, 55.7873
6.14358, 50, -22.3039, -34.0105, 48.5853, -141.116, -70.7913, 56.2544
6.15165, 50, -22.1559, -34.0249, 48.575, -141.145, -70.7174, 56.7278
6.15943, 50, -22.0053, -34.0331, 48.5596, -141.18, -70.6461, 57.2092
6.16786, 50, -21.8517, -34.0353, 48.539, -141.222, -70.5785, 57.6986
6.17544, 50, -21.6951, -34.0314, 48.5129, -141.27, -70.5134, 58.1952
6.18363, 51, -21.5355, -34.0208, 48.4813, -141.324, -70.4528, 58.6988
6.19237, 51, -21.3729, -34.0034, 48.4444, -141.385, -70.3949, 59.2084
6.19935, 51, -21.2077, -33.9791, 48.4019, -141.452, -70.3412, 59.7245
6.20844, 51, -21.0399, -33.9477, 48.3538, -141.525, -70.2913, 60.2464
6.21632, 51, -20.8696, -33.9092, 48.3, -141.604, -70.2446, 60.7744
6.22344, 51, -20.6967, -33.8632, 48.2405, -141.689, -70.2025, 61.3074
6.23343, 52, -20.5212, -33.8093, 48.175, -141.781, -70.1653, 61.8473
6.23992, 52, -20.3429, -33.7475, 48.1036, -141.88, -70.1324, 62.3938
6.24835, 52, -20.1616, -33.6776, 48.026, -141.985, -70.104, 62.9469
6.25565, 52, -19.9777, -33.5995, 47.9422, -142.096, -70.0808, 63.5056
6.26413, 52, -19.7915, -33.513, 47.8521, -142.213, -70.0629, 64.0708
6.27247, 53, -19.6029, -33.4179, 47.7559, -142.337, -70.0505, 64.6415
6.27995, 53, -19.4126, -33.3146, 47.6536, -142.466, -70.0436, 65.217
6.28849, 53, -19.2202, -33.2032, 47.5455, -142.602, -70.0415, 65.7958
6.29591, 53, -19.026, -33.0835, 47.4314, -142.743, -70.0446, 66.3784
6.3045, 53, -18.8301, -32.9556, 47.3115, -142.888, -70.0539, 66.9636
6.31221, 54, -18.6326, -32.8194, 47.1857, -143.039, -70.0694, 67.5504
6.32047, 54, -18.4331, -32.6748, 47.0542, -143.194, -70.0916, 68.1377
6.32794, 54, -18.3326, -32.5995, 46.9864, -143.273, -70.1206, 68.7266
6.33661, 54, -18.0288, -32.3611, 46.7747, -143.518, -70.1555, 69.3172
6.34478, 54, -17.8248, -32.1913, 46.626, -143.687, -70.1969, 69.9092
6.3513, 55, -17.7224, -32.1028, 46.5494, -143.773, -70.2206, 70.206
6.36055, 55, -17.4137, -31.8235, 46.3099, -144.038, -70.3038, 71.103
6.3674, 55, -17.31, -31.7258, 46.2269, -144.129, -70.335, 71.4044
6.37534, 55, -17.1014, -31.523, 46.0552, -144.314, -70.4051, 72.0101
6.38689, 55, -16.7852, -31.1986, 45.7832, -144.602, -70.526, 72.9276
6.39311, 56, -16.5724, -30.9693, 45.5935, -144.8, -70.6184, 73.5455
6.39931, 56, -16.4654, -30.8508, 45.4961, -144.901, -70.6678, 73.8561
6.40887, 56, -16.1431, -30.4784, 45.1917, -145.209, -70.8301, 74.7915
6.42075, 56, -15.9281, -30.2169, 44.9803, -145.419, -71.0134, 75.7335
6.42336, 56, -15.8207, -30.0823, 44.8725, -145.525, -71.0134, 75.7335
6.43295, 57, -15.4974, -29.6622, 44.5386, -145.849, -71.2176, 76.6782
6.44096, 57, -15.3891, -29.5173, 44.4239, -146.067, -71.3654, 77.3088
6.44746, 57, -15.1716, -29.2195, 44.1903, -146.178, -71.4431, 77.6244
6.45771, 57, -14.9536, -28.9118, 43.9503, -146.399, -71.6051, 78.2556
6.46348, 57, -14.7358, -28.5959, 43.7046, -146.622, -71.7766, 78.8847
6.47356, 58, -14.4102, -28.1063, 43.3281, -146.957, -72.0503, 79.8245
6.4794, 58, -14.3021, -27.9395, 43.2002, -147.069, -72.1455, 80.136
6.48743, 58, -14.087, -27.5996, 42.9423, -147.291, -72.3418, 80.7554
6.49534, 58, -13.8735, -27.2526, 42.6813, -147.512, -72.5457, 81.3683
6.50334, 58, -13.6612, -26.8986, 42.4167, -147.731, -72.7569, 81.9759
6.51133, 58, -13.4502, -26.5383, 42.1496, -147.948, -72.9751, 82.5778
6.5194, 59, -13.2405, -26.1706, 41.8786, -148.164, -73.2008, 83.174
6.52739, 59, -13.0326, -25.7962, 41.604, -148.377, -73.4342, 83.7651
6.53607, 59, -12.8264, -25.4151, 41.3259, -148.589, -73.6757, 84.3524
6.54817, 59, -12.5193, -24.8309, 40.9015, -148.904, -74.0535, 85.226
6.55134, 59, -12.4175, -24.6324, 40.7581, -149.008, -74.1837, 85.5149
6.55945, 60, -12.2147, -24.2303, 40.4681, -149.214, -74.4503, 86.0898
6.56739, 60, -12.0135, -23.8216, 40.1751, -149.418, -74.7253, 86.6609
6.57535, 60, -11.8137, -23.4069, 39.8788, -149.62, -75.0081, 87.2279
6.5875, 60, -11.5175, -22.7734, 39.4312, -149.916, -75.4464, 88.067
6.59148, 60, -11.4199, -22.5597, 39.281, -150.013, -75.5959, 88.3441
6.60033, 61, -11.2266, -22.1294, 38.9798, -150.205, -75.8994, 88.8932
6.60757, 61, -11.0354, -21.6952, 38.6777, -150.392, -76.2083, 89.4344
6.61555, 61, -10.8465, -21.2575, 38.3748, -150.574, -76.5219, 89.9667
6.6235, 61, -10.6596, -20.8161, 38.0719, -150.752, -76.8405, 90.4906
6.63133, 61, -10.475, -20.3707, 37.7682, -150.924, -77.1636, 91.006
6.63937, 62, -10.2929, -19.9213, 37.4646, -151.092, -77.4917, 91.5133
6.64756, 62, -10.1135, -19.4683, 37.1597, -151.256, -77.8251, 92.013
6.65543, 62, -9.93672, -19.0127, 36.8544, -151.415, -78.164, 92.5048
6.66382, 62, -9.76256, -18.5546, 36.5477, -151.57, -78.5085, 92.9903
6.6741, 62, -9.59089, -18.0949, 36.2407, -151.72, -78.8582, 93.4678
6.67947, 63, -9.42142, -17.6345, 35.9342, -151.866, -79.2118, 93.9372
6.68788, 63, -9.25424, -17.1729, 35.6291, -152.006, -79.5688, 94.3964
6.69635, 63, -9.08957, -16.71, 35.3262, -152.14, -79.9277, 94.8446
6.70413, 63, -8.92755, -16.2453, 35.025, -152.268, -80.2882, 95.2822
6.71272, 63, -8.76819, -15.7782, 34.7262, -152.391, -80.6499, 95.7079
6.72129, 63, -8.61131, -15.3091, 34.4289, -152.508, -81.0139, 96.1237
6.72829, 64, -8.45688, -14.8382, 34.1334, -152.621, -81.3809, 96.529
6.73546, 64, -8.3048, -14.3658, 33.8376, -152.728, -81.7523, 96.925
6.74436, 64, -8.15486, -13.8927, 33.5417, -152.831, -82.1292, 97.3127
6.75169, 64, -8.00714, -13.4192, 33.2451, -152.93, -82.5113, 97.691
6.75964, 64, -7.86177, -12.9461, 32.9491, -153.023, -82.8979, 98.0591
6.77206, 65, -7.64852, -12.2379, 32.5079, -153.154, -83.4828, 98.5897
6.77577, 65, -7.57896, -12.0022, 32.3624, -153.195, -83.6784, 98.7598
6.7847, 65, -7.44214, -11.5315, 32.0747, -153.271, -84.0689, 99.0891
6.79237, 65, -7.30828, -11.0614, 31.7908, -153.341, -84.4583, 99.4039
6.80114, 65, -7.17745, -10.5929, 31.512, -153.405, -84.8458, 99.7033
6.80877, 66, -7.049, -10.1279, 31.2373, -153.463, -85.2312, 99.9868
6.81606, 66, -6.92285, -9.66727, 30.9672, -153.516, -85.6153, 100.254
6.82395, 66, -6.86062, -9.43921, 30.834, -153.562, -85.9979, 100.506
6.83132, 66, -6.73779, -8.98773, 30.5704, -153.583, -86.1883, 100.626
6.84108, 66, -6.55777, -8.32341, 30.1837, -153.638, -86.7554, 100.96
6.84747, 67, -6.49905, -8.10541, 30.0574, -153.654, -86.9425, 101.062
6.85537, 67, -6.38382, -7.67432, 29.8093, -153.68, -87.3134, 101.254
6.86332, 67, -6.27159, -7.24985, 29.5684, -153.701, -87.679, 101.429
6.87262, 67, -6.10824, -6.62432, 29.22, -153.721, -88.2166, 101.657
6.87932, 67, -6.05504, -6.41906, 29.1071, -153.725, -88.3931, 101.724
6.88876, 68, -5.89875, -5.81272, 28.7778, -153.731, -88.9156, 101.9
6.89546, 68, -5.84764, -5.61366, 28.6705, -153.731, -89.0879, 101.95
6.9033, 68, -5.74658, -5.21944, 28.4585, -153.727, -89.4309, 102.037
6.91291, 68, -5.59813, -4.63796, 28.1474, -153.712, -89.9428, 102.134
6.92477, 68, -5.50121, -4.2564, 27.9438, -153.688, -90.4529, 102.19
6.92727, 69, -5.45339, -4.06699, 27.8431, -153.688, -90.4529, 102.19
6.93543, 69, -5.35906, -3.69069, 27.6447, -153.666, -90.7926, 102.205
6.94335, 69, -5.26639, -3.318, 27.4506, -153.639, -91.1317, 102.202
6.95284, 69, -5.17555, -2.94893, 27.2596, -153.608, -91.4703, 102.177
6.96037, 69, -5.08646, -2.58344, 27.0719, -153.574, -91.8077, 102.131
6.96922, 70, -4.99885, -2.22105, 26.8885, -153.536, -92.1439, 102.021
6.97612, 70, -4.91251, -1.8629, 26.7089, -153.493, -92.4786, 101.974
6.98331, 70, -4.82745, -1.50936, 26.5324, -153.447, -92.8118, 101.863
6.99233, 70, -4.74342, -1.16143, 26.3602, -153.398, -93.1429, 101.728
7.00038, 70, -4.66055, -0.818674, 26.1926, -153.346, -93.4718, 101.573
7.00827, 71, -4.57865, -0.482438, 26.0287, -153.289, -93.7979, 101.395
7.01633, 71, -4.49789, -0.15246, 25.8689, -153.232, -94.1207, 101.197
7.02347, 71, -4.4182, 0.17045, 25.7144, -153.17, -94.4403, 100.977
7.03232, 71, -4.33933, 0.48708, 25.5654, -153.107, -94.7555, 100.738
7.04285, 71, -4.22262, 0.9501, 25.3509, -153.008, -95.2214, 100.34
7.04746, 71, -4.18413, 1.101, 25.2817, -152.974, -95.3748, 100.198
7.05629, 72, -4.1075, 1.3979, 25.1466, -152.905, -95.6788, 99.898
7.06339, 72, -4.03113, 1.68767, 25.0155, -152.834, -95.9797, 99.578
7.07133, 72, -3.95502, 1.97126, 24.8877, -152.763, -96.278, 99.2373
7.07941, 72, -3.87899, 2.24897, 24.7631, -152.69, -96.5736, 98.8761
7.08733, 72, -3.803, 2.52016, 24.6415, -152.617, -96.867, 98.4931
7.09576, 73, -3.72712, 2.78576, 24.5229, -152.543, -97.1579, 98.0881
7.1043, 73, -3.65104, 3.04517, 24.4077, -152.47, -97.4464, 97.6607
7.11131, 73, -3.57466, 3.2981, 24.296, -152.396, -97.7324, 97.2103
7.11947, 73, -3.49794, 3.54487, 24.188, -152.323, -98.0152, 96.7388
7.12927, 73, -3.42086, 3.78472, 24.0841, -152.251, -98.2946, 96.2461
7.13538, 74, -3.3431, 4.01627, 23.984, -152.18, -98.5699, 95.7339
7.1439, 74, -3.26472, 4.23966, 23.8878, -152.111, -98.8401, 95.2046
7.15238, 74, -3.18569, 4.45447, 23.7958, -152.043, -99.1047, 94.66
7.15943, 74, -3.10598, 4.65956, 23.708, -151.977, -99.3628, 94.1032
7.1684, 74, -3.02565, 4.85489, 23.6246, -151.914, -99.6134, 93.5346
7.17557, 75, -2.94438, 5.04071, 23.5455, -151.853, -99.8561, 92.9566
7.18343, 75, -2.86212, 5.21615, 23.4707, -151.796, -100.09, 92.3712
7.19612, 75, -2.73698, 5.45868, 23.3659, -151.714, -100.423, 91.4801
7.19959, 75, -2.69482, 5.5342, 23.333, -151.688, -100.53, 91.1797
7.20829, 75, -2.60982, 5.677, 23.2702, -151.64, -100.735, 90.5742
7.21542, 76, -2.52382, 5.80845, 23.2116, -151.594, -100.932, 89.9619
7.2234, 76, -2.43682, 5.92843, 23.1573, -151.553, -101.119, 89.3411
7.23139, 76, -2.34899, 6.03666, 23.1073, -151.516, -101.297, 88.7112
7.24024, 76, -2.26043, 6.13262, 23.0617, -151.483, -101.465, 88.0734
7.2481, 76, -2.17101, 6.21607, 23.0207, -151.452, -101.624, 87.429
7.25653, 77, -2.08078, 6.28656, 22.9846, -151.426, -101.771, 86.7786
7.26449, 77, -1.98964, 6.34404, 22.9538, -151.405, -101.905, 86.1266
7.2718, 77, -1.89758, 6.3881, 22.9286, -151.387, -102.027, 85.4762
7.28063, 77, -1.80465, 6.41809, 22.9091, -151.374, -102.134, 84.828
7.28782, 77, -1.71087, 6.43402, 22.8955, -151.364, -102.226, 84.1833
7.2966, 77, -1.61628, 6.43556, 22.8878, -151.358, -102.303, 83.5435
7.30507, 78, -1.52096, 6.42198, 22.8854, -151.354, -102.365, 82.9078
7.31186, 78, -1.42507, 6.39315, 22.8886, -151.354, -102.411, 82.2754
7.32234, 78, -1.32883, 6.34872, 22.8978, -151.357, -102.441, 81.6474
7.32827, 78, -1.23221, 6.28814, 22.9131, -151.363, -102.456, 81.0247
7.34035, 79, -1.08705, 6.16706, 22.9487, -151.379, -102.448, 80.101
7.34325, 79, -1.08705, 6.16706, 22.9487, -151.379, -102.448, 80.101
7.35128, 79, -0.990055, 6.06618, 22.9814, -151.393, -102.419, 79.4943
7.3593, 79, -0.893033, 5.94916, 23.0215, -151.411, -102.374, 78.897
7.36735, 79, -0.796027, 5.8158, 23.069, -151.431, -102.311, 78.3089
7.37531, 79, -0.69903, 5.66583, 23.1242, -151.454, -102.23, 77.7306
7.38331, 80, -0.601957, 5.49938, 23.1869, -151.48, -102.131, 77.1628
7.39143, 80, -0.504858, 5.31642, 23.2572, -151.506, -102.013, 76.6062
7.39944, 80, -0.407808, 5.11692, 23.3356, -151.535, -101.877, 76.0591
7.40735, 80, -0.310955, 4.9003, 23.4222, -151.565, -101.723, 75.5217
7.41689, 80, -0.165789, 4.54108, 23.5677, -151.614, -101.455, 74.7333
7.42592, 81, -0.0691569, 4.28022, 23.6758, -151.647, -101.252, 74.2202
7.43276, 81, -0.0209717, 4.14356, 23.7331, -151.665, -101.03, 73.7154
7.44176, 81, 0.123413, 3.70777, 23.9193, -151.717, -100.789, 73.2202
7.44818, 81, 0.171434, 3.55429, 23.9861, -151.736, -100.662, 72.9762
7.45545, 81, 0.267267, 3.23397, 24.1273, -151.773, -100.392, 72.4953
7.46416, 82, 0.36286, 2.89649, 24.2784, -151.81, -100.103, 72.0242
7.47377, 82, 0.505867, 2.35928, 24.5224, -151.866, -99.6332, 71.3351
7.47934, 82, 0.553377, 2.17245, 24.6084, -151.885, -99.4673, 71.1102
7.4873, 82, 0.64832, 1.78638, 24.7877, -151.923, -99.1222, 70.6675
7.49534, 82, 0.743043, 1.3838, 24.9766, -151.959, -98.7596, 70.2354
7.50345, 83, 0.837771, 0.965111, 25.1745, -151.995, -98.3799, 69.8135
7.51227, 83, 0.932452, 0.53187, 25.3821, -152.031, -97.9841, 69.4016
7.52037, 83, 1.02717, 0.0841127, 25.6002, -152.065, -97.5724, 69.0003
7.53089, 83, 1.16944, -0.614631, 25.9436, -152.113, -96.9262, 68.4174
7.53545, 83, 1.21689, -0.854626, 26.0627, -152.129, -96.7032, 68.228
7.54425, 84, 1.31195, -1.34551, 26.3085, -152.159, -96.2457, 67.8566
7.5523, 84, 1.40726, -1.84998, 26.5639, -152.188, -95.773, 67.4936
7.56037, 84, 1.50275, -2.36733, 26.8298, -152.215, -95.2853, 67.1381
7.56831, 84, 1.59855, -2.89833, 27.1059, -152.241, -94.7816, 66.7902
7.57631, 84, 1.69476, -3.44276, 27.3922, -152.265, -94.2629, 66.4492
7.58851, 85, 1.83977, -4.28442, 27.8415, -152.298, -93.4568, 65.9506
7.59153, 85, 1.8882, -4.57133, 27.9963, -152.308, -93.1804, 65.7884
7.59931, 85, 1.98538, -5.15303, 28.3134, -152.327, -92.6169, 65.4697
7.61166, 85, 2.13178, -6.04467, 28.8063, -152.351, -91.7497, 65.0063
7.61545, 85, 2.18082, -6.34632, 28.9751, -152.358, -91.4554, 64.8561
7.62384, 85, 2.27957, -6.95568, 29.3189, -152.369, -90.8589, 64.563
7.63139, 86, 2.3789, -7.57247, 29.6708, -152.378, -90.2528, 64.2796
7.63942, 86, 2.47907, -8.19514, 30.0295, -152.383, -89.6379, 64.0066
7.64768, 86, 2.58038, -8.82389, 30.3946, -152.386, -89.0147, 63.7443
7.65534, 86, 2.68237, -9.45836, 30.7653, -152.387, -88.387, 63.4936
7.66348, 86, 2.78545, -10.0969, 31.1412, -152.385, -87.7554, 63.2546
7.67145, 87, 2.88966, -10.7392, 31.5227, -152.378, -87.1178, 63.0271
7.67941, 87, 2.99445, -11.384, 31.9087, -152.368, -86.4751, 62.812
7.68883, 87, 3.10035, -12.0311, 32.2991, -152.355, -85.8277, 62.6089
7.69544, 87, 3.2069, -12.6798, 32.6938, -152.337, -85.1765, 62.4191
7.70347, 87, 3.31413, -13.3303, 33.0933, -152.315, -84.5223, 62.242
7.71136, 88, 3.4222, -13.9829, 33.4974, -152.29, -83.8637, 62.0782
7.71941, 88, 3.53086, -14.6376, 33.9053, -152.261, -83.2013, 61.9281
7.72744, 88, 3.64028, -15.2939, 34.3177, -152.228, -82.5348, 61.7916
7.73538, 88, 3.75041, -15.9516, 34.7345, -152.19, -81.8644, 61.6697
7.74452, 88, 3.86095, -16.6101, 35.1555, -152.147, -81.1919, 61.5632
7.75163, 89, 3.9719, -17.2686, 35.5809, -152.1, -80.5161, 61.4725
7.75967, 89, 4.08307, -17.926, 36.0099, -152.047, -79.8368, 61.3993
7.77231, 89, 4.19412, -18.5808, 36.4416, -151.989, -79.1536, 61.3226
7.77607, 89, 4.30513, -19.2329, 36.8757, -151.926, -78.4669, 61.3065
7.78378, 89, 4.41596, -19.8806, 37.3102, -151.856, -77.7818, 61.2887
7.7919, 90, 4.52689, -20.5232, 37.7439, -151.783, -77.0993, 61.2911
7.79986, 90, 4.63852, -21.1611, 38.1767, -151.702, -76.419, 61.318
7.8084, 90, 4.75051, -21.794, 38.6075, -151.617, -75.7426, 61.3687
7.81605, 90, 4.86283, -22.4219, 39.0357, -151.526, -75.0722, 61.4437
7.82414, 90, 4.97513, -23.0445, 39.4615, -151.429, -74.4092, 61.5452
7.8324, 91, 5.08744, -23.6625, 39.8853, -151.326, -73.7496, 61.6729
7.83934, 91, 5.14359, -23.9695, 40.0967, -151.273, -73.4204, 61.7472
7.84839, 91, 5.31097, -24.8806, 40.7299, -151.102, -72.4339, 62.0128
7.85529, 91, 5.36634, -25.1811, 40.9407, -151.042, -72.1047, 62.1158
7.86334, 91, 5.4764, -25.777, 41.3621, -150.916, -71.4449, 62.3444
7.87382, 92, 5.64027, -26.6575, 41.9929, -150.716, -70.4569, 62.7451
7.88051, 92, 5.74948, -27.2353, 42.4114, -150.574, -69.8, 63.0517
7.8873, 92, 5.80428, -27.5212, 42.6194, -150.502, -69.4724, 63.2166
7.89774, 92, 5.96964, -28.3665, 43.236, -150.276, -68.4939, 63.7583
7.90336, 92, 6.02513, -28.6438, 43.4391, -150.198, -68.1693, 63.9547
7.91129, 92, 6.13696, -29.1902, 43.8401, -150.041, -67.5256, 64.3706
7.91927, 93, 6.25026, -29.726, 44.2348, -149.881, -66.8883, 64.8183
7.92886, 93, 6.42369, -30.5101, 44.8148, -149.636, -65.9404, 65.5497
7.93692, 93, 6.54202, -31.0213, 45.1942, -149.472, -65.3127, 66.0781
7.9433, 93, 6.60198, -31.2743, 45.3822, -149.39, -64.9995, 66.3555
7.95353, 93, 6.78521, -32.0248, 45.9391, -149.142, -64.0609, 67.2457
7.95967, 94, 6.8474, -32.2725, 46.1233, -149.058, -63.7472, 67.5637
7.9673, 94, 6.97358, -32.7642, 46.4898, -148.892, -63.1153, 68.2354
7.97628, 94, 7.10188, -33.2501, 46.8548, -148.725, -62.4771, 68.9597
7.98328, 94, 7.23224, -33.7281, 47.2177, -148.558, -61.8327, 69.7369
7.99129, 94, 7.36565, -34.199, 47.5774, -148.396, -61.1817, 70.5661
7.99942, 95, 7.50309, -34.6616, 47.9304, -148.239, -60.5293, 71.4494
8.0073, 95, 7.64555, -35.1139, 48.2752, -148.091, -59.8797, 72.3793
8.01529, 95, 7.794, -35.5554, 48.609, -147.956, -59.235, 73.3501
8.02339, 95, 7.94887, -35.9834, 48.9304, -147.834, -58.5979, 74.3598
8.03129, 95, 8.11051, -36.3932, 49.2363, -147.73, -57.9694, 75.4028
8.03956, 96, 8.27905, -36.7831, 49.5268, -147.643, -57.3513, 76.4798
8.04729, 96, 8.45439, -37.152, 49.8003, -147.576, -56.7478, 77.5862
8.05529, 96, 8.63561, -37.4976, 50.057, -147.53, -56.1584, 78.7213
8.06341, 96, 8.82193, -37.8182, 50.2964, -147.504, -55.584, 79.8781
8.07128, 96, 9.013, -38.1131, 50.5164, -147.498, -55.0273, 81.0513
8.07929, 96, 9.20734, -38.3832, 50.717, -147.513, -54.4908, 82.2359
8.08739, 97, 9.4033, -38.6278, 50.8982, -147.551, -53.9768, 83.4303
8.09527, 97, 9.59953, -38.847, 51.0587, -147.609, -53.4883, 84.6285
8.10331, 97, 9.79502, -39.0417, 51.1989, -147.688, -53.0259, 85.8208
8.11135, 97, 9.98907, -39.2116, 51.3196, -147.783, -52.593, 87.0004
8.11928, 97, 10.1805, -39.3556, 51.4206, -147.894, -52.1896, 88.1588
8.12735, 97, 10.3683, -39.4743, 51.5025, -148.017, -51.8172, 89.2906
8.13549, 98, 10.5525, -39.5678, 51.5662, -148.151, -51.4755, 90.3886
8.14336, 98, 10.7343, -39.6372, 51.6119, -148.295, -51.1639, 91.4537
8.15131, 98, 10.9144, -39.6838, 51.6402, -148.448, -50.8802, 92.4937
8.15935, 98, 11.0928, -39.7073, 51.6511, -148.612, -50.6209, 93.5236
8.16747, 98, 11.2691, -39.7075, 51.6456, -148.789, -50.3824, 94.5563
8.17538, 98, 11.4442, -39.6842, 51.6227, -148.979, -50.1625, 95.6033
8.1834, 98, 11.6196, -39.637, 51.5821, -149.183, -49.9618, 96.672
8.19145, 99, 11.7948, -39.5665, 51.5237, -149.399, -49.7815, 97.7614
8.1994, 99, 11.9685, -39.4735, 51.4469, -149.627, -49.6243, 98.8674
8.20778, 99, 12.1393, -39.3578, 51.3516, -149.864, -49.4937, 99.9788
8.21536, 99, 12.3065, -39.2197, 51.2382, -150.107, -49.3924, 101.086
8.22333, 99, 12.4683, -39.0596, 51.1075, -150.351, -49.3221, 102.175
8.23137, 99, 12.6228, -38.8771, 50.9608, -150.594, -49.2825, 103.24
8.24006, 100, 12.7687, -38.6706, 50.7984, -150.833, -49.2744, 104.274
8.24837, 100, 12.9059, -38.4399, 50.6194, -151.068, -49.2983, 105.28
8.25555, 100, 13.0339, -38.1866, 50.4233, -151.297, -49.3537, 106.257
8.26362, 100, 13.1534, -37.9112, 50.2108, -151.52, -49.4402, 107.211
8.27268, 100, 13.2649, -37.615, 49.9806, -151.737, -49.5579, 108.14
8.2804, 100, 13.368, -37.2958, 49.7322, -151.948, -49.7064, 109.048
8.28794, 101, 13.4631, -36.9524, 49.4672, -152.151, -49.885, 109.934
8.29638, 101, 13.5502, -36.5829, 49.1846, -152.345, -50.0934, 110.796
8.30386, 101, 13.6295, -36.1869, 48.8851, -152.53, -50.3317, 111.637
8.31282, 101, 13.7005, -35.7652, 48.567, -152.706, -50.6005, 112.454
8.32983, 101, 13.8179, -34.8505, 47.8756, -153.028, -51.2352, 114.029
8.3311, 101, 13.8179, -34.8505, 47.8756, -153.028, -51.2352, 114.029
8.33639, 102, 13.8636, -34.3574, 47.5026, -153.173, -51.6031, 114.782
8.34328, 102, 13.883, -34.102, 47.3093, -153.24, -51.7996, 115.151
8.35328, 102, 13.9272, -33.299, 46.7038, -153.424, -52.4399, 116.224
8.35934, 102, 13.9375, -33.0195, 46.4938, -153.478, -52.6698, 116.569
8.36727, 102, 13.9516, -32.4438, 46.0634, -153.576, -53.1531, 117.239
8.37548, 103, 13.9575, -31.8458, 45.6191, -153.661, -53.6648, 117.883
8.38334, 103, 13.9558, -31.2273, 45.1614, -153.731, -54.2027, 118.498
8.39128, 103, 13.9471, -30.5907, 44.692, -153.788, -54.7645, 119.086
8.39932, 103, 13.932, -29.9381, 44.2124, -153.83, -55.3471, 119.649
8.40949, 103, 13.8984, -28.933, 43.4775, -153.871, -56.2547, 120.441
8.4153, 103, 13.8845, -28.5916, 43.2292, -153.878, -56.5653, 120.692
8.4248, 104, 13.8364, -27.5527, 42.4771, -153.886, -57.5161, 121.405
8.43349, 104, 13.7992, -26.8495, 41.9713, -153.878, -58.1657, 121.85
8.43929, 104, 13.7792, -26.4954, 41.7176, -153.87, -58.4957, 122.065
8.44884, 104, 13.7366, -25.7827, 40.9538, -153.833, -59.5033, 122.678
8.45534, 104, 13.6918, -25.0661, 40.6987, -153.817, -59.8443, 122.874
8.4649, 104, 13.6451, -24.3471, 40.1883, -153.779, -60.5315, 123.44
8.47233, 104, 13.5968, -23.6262, 39.6782, -153.734, -61.2243, 123.623
8.47938, 104, 13.5469, -22.904, 39.169, -153.684, -61.9225, 123.983
8.48833, 104, 13.4961, -22.1813, 38.6609, -153.628, -62.6239, 124.339
8.49527, 104, 13.4447, -21.4577, 38.1545, -153.568, -63.3275, 124.69
8.50331, 104, 13.3927, -20.7345, 37.6493, -153.504, -64.0317, 125.04
8.51127, 104, 13.3405, -20.0114, 37.1455, -153.435, -64.7361, 125.389
8.51935, 104, 13.2881, -19.2881, 36.6438, -153.362, -65.4424, 125.735
8.52727, 104, 13.2356, -18.5647, 36.1441, -153.286, -66.1497, 126.081
8.53527, 104, 13.1832, -17.8412, 35.6466, -153.205, -66.8581, 126.426
8.54334, 104, 13.1311, -17.117, 35.1517, -153.121, -67.5667, 126.771
8.55127, 104, 13.0793, -16.3926, 34.6584, -153.032, -68.2743, 127.115
8.55929, 104, 13.0279, -15.6681, 34.1674, -152.94, -68.9837, 127.459
8.56738, 104, 12.9769, -14.9434, 33.6786, -152.843, -69.6947, 127.802
8.57527, 104, 12.926, -14.2181, 33.192, -152.743, -70.4064, 128.145
8.58327, 104, 12.8755, -13.4929, 32.7084, -152.639, -71.1168, 128.489
8.59136, 104, 12.8253, -12.7671, 32.2274, -152.531, -71.8275, 128.833
8.59928, 104, 12.7754, -12.0416, 31.749, -152.42, -72.5403, 129.177
8.60728, 104, 12.7259, -11.3167, 31.273, -152.304, -73.2532, 129.522
8.61535, 104, 12.677, -10.5915, 30.7994, -152.185, -73.9665, 129.868
8.62327, 104, 12.6281, -9.86594, 30.3288, -152.061, -74.6798, 130.214
8.63128, 104, 12.5796, -9.14046, 29.8614, -151.934, -75.3928, 130.561
8.63936, 104, 12.5318, -8.41457, 29.3971, -151.802, -76.1075, 130.909
8.64728, 104, 12.4845, -7.68848, 28.936, -151.667, -76.8225, 131.258
8.65531, 104, 12.4376, -6.96312, 28.4783, -151.527, -77.5384, 131.608
8.66341, 104, 12.3915, -6.23783, 28.0237, -151.383, -78.2538, 131.96
8.67172, 104, 12.3457, -5.51275, 27.5726, -151.235, -78.9679, 132.312
8.68026, 104, 12.3006, -4.78875, 27.1253, -151.083, -79.6831, 132.666
8.68743, 104, 12.2564, -4.06632, 26.6823, -150.926, -80.399, 133.021
8.69538, 104, 12.2133, -3.34685, 26.2445, -150.766, -81.1137, 133.377
8.70338, 104, 12.1712, -2.63259, 25.8117, -150.602, -81.8245, 133.733
8.71144, 104, 12.1305, -1.92442, 25.385, -150.434, -82.5315, 134.09
8.71931, 104, 12.0909, -1.22351, 24.9658, -150.263, -83.2347, 134.446
8.7273, 104, 12.0523, -0.531684, 24.5551, -150.09, -83.9296, 134.799
8.73576, 104, 12.0146, 0.149624, 24.1546, -149.915, -84.6136, 135.149
8.74342, 104, 11.9779, 0.820086, 23.7653, -149.74, -85.2846, 135.495
8.75142, 104, 11.9424, 1.47804, 23.3885, -149.563, -85.9412, 135.835
8.75963, 104, 11.9081, 2.1227, 23.0243, -149.387, -86.5836, 136.17
8.76758, 104, 11.8749, 2.75148, 22.6725, -149.212, -87.2099, 136.499
8.77561, 104, 11.8427, 3.36425, 22.3334, -149.037, -87.8203, 136.82
8.78387, 104, 11.8121, 3.96045, 22.0076, -148.863, -88.4143, 137.135
8.79251, 104, 11.7825, 4.53982, 21.6944, -148.691, -88.9902, 137.443
8.79982, 104, 11.7543, 5.10274, 21.3935, -148.52, -89.5492, 137.744
8.80859, 104, 11.7274, 5.64835, 21.1037, -148.351, -90.093, 138.038
8.81583, 104, 11.7016, 6.17641, 20.8264, -148.184, -90.6203, 138.325
8.82462, 104, 11.677, 6.68817, 20.5603, -148.019, -91.1314, 138.605
8.83212, 104, 11.6651, 6.93767, 20.4317, -147.857, -91.6257, 138.878
8.83986, 104, 11.6422, 7.42374, 20.1835, -147.777, -91.8663, 139.142
8.8473, 104, 11.6205, 7.89358, 19.9459, -147.618, -92.3348, 139.272
8.85634, 104, 11.59, 8.5667, 19.6101, -147.387, -93.0065, 139.649
8.86327, 104, 11.5804, 8.78247, 19.5037, -147.312, -93.2222, 139.771
8.87128, 104, 11.5621, 9.20075, 19.2986, -147.164, -93.641, 140.008
8.8793, 104, 11.5449, 9.60222, 19.1034, -147.02, -94.0426, 140.237
8.88729, 104, 11.5287, 9.98548, 18.9194, -146.88, -94.427, 140.457
8.8976, 104, 11.5065, 10.5254, 18.6629, -146.68, -94.9694, 140.77
8.90335, 104, 11.4996, 10.6958, 18.5825, -146.616, -95.1409, 140.869
8.91287, 104, 11.4804, 11.1779, 18.3576, -146.432, -95.626, 141.152
8.9208, 104, 11.4689, 11.4737, 18.2212, -146.318, -95.9239, 141.326
8.92733, 104, 11.4636, 11.6139, 18.1569, -146.264, -96.0651, 141.408
8.93526, 104, 11.4537, 11.8787, 18.0362, -146.16, -96.3314, 141.565
8.94487, 104, 11.4404, 12.2356, 17.8752, -146.019, -96.6903, 141.777
8.95132, 104, 11.4363, 12.3441, 17.8268, -145.976, -96.799, 141.842
8.95927, 104, 11.4287, 12.5455, 17.7377, -145.896, -96.9996, 141.962
8.96828, 104, 11.4219, 12.7255, 17.6589, -145.824, -97.1783, 142.068
8.97728, 104, 11.4131, 12.9565, 17.5596, -145.733, -97.4052, 142.204
8.98326, 104, 11.4105, 13.0236, 17.5313, -145.706, -97.4699, 142.243
8.99126, 104, 11.4055, 13.1436, 17.4818, -145.66, -97.5837, 142.311
8.99934, 104, 11.401, 13.2451, 17.4412, -145.623, -97.6767, 142.366
9.00729, 104, 11.3969, 13.3292, 17.4085, -145.592, -97.7514, 142.411
9.01526, 104, 11.3931, 13.3982, 17.3834, -145.568, -97.8086, 142.446
9.02333, 104, 11.3897, 13.4537, 17.3648, -145.551, -97.8507, 142.472
9.03126, 104, 11.3867, 13.4974, 17.3515, -145.538, -97.8808, 142.489
9.03927, 104, 11.3843, 13.5303, 17.3427, -145.529, -97.9013, 142.501
9.04733, 104, 11.3824, 13.5548, 17.337, -145.524, -97.9146, 142.509
9.05522, 104, 11.3808, 13.5726, 17.3336, -145.521, -97.9222, 142.513
9.06326, 104, 11.3797, 13.5849, 17.3316, -145.519, -97.9263, 142.515
9.07136, 104, 11.3788, 13.5933, 17.3307, -145.519, -97.9283, 142.516
9.07927, 105, 11.3782, 13.5989, 17.3302, -145.518, -97.9292, 142.516
9.08728, 105, 11.3777, 13.6025, 17.3299, -145.518, -97.9296, 142.517
9.09534, 105, 11.3773, 13.605, 17.3298, -145.518, -97.9298, 142.517
9.10325, 105, 11.3771, 13.6072, 17.3298, -145.518, -97.9299, 142.517
9.11125, 105, 11.3769, 13.609, 17.3297, -145.518, -97.9299, 142.517
9.11934, 105, 11.3768, 13.6105, 17.3298, -145.518, -97.9299, 142.517
9.12725, 105, 11.3767, 13.6119, 17.3298, -145.518, -97.9299, 142.517
9.13526, 105, 11.3766, 13.6131, 17.3298, -145.518, -97.9298, 142.517
9.14332, 105, 11.3765, 13.614, 17.3298, -145.518, -97.9297, 142.517
9.15125, 105, 11.3764, 13.6149, 17.3298, -145.518, -97.9296, 142.517
9.1593, 105, 11.3764, 13.6155, 17.3298, -145.518, -97.9294, 142.517
9.16739, 105, 11.3764, 13.616, 17.3298, -145.518, -97.9293, 142.517
9.17554, 105, 11.3764, 13.6163, 17.3299, -145.518, -97.9292, 142.517
9.18335, 105, 11.3764, 13.6164, 17.3299, -145.518, -97.929, 142.517
9.19142, 105, 11.3764, 13.6165, 17.3299, -145.518, -97.9289, 142.517
9.19963, 105, 11.3763, 13.6166, 17.3299, -145.518, -97.9288, 142.517
