MoveAbsJ [[35.952876472045666,10.291001528494611,29.77535782467298,91.98023628868943,-51.18973047515866,52.558538106882104],[9E+09,9E+09,9E+09,9E+09,9E+09,9E+09]],v500,fine,Paintgun;
MoveC [[2317.00210617,976.82648838,708.30158547],[0.2903839213778442,0.6534962085504111,0.4224305660649816,0.5569311451781834],[1,2,1,0],[9E+09,9E+09,9E+09,9E+09,9E+09,9E+09]],[[2294.06011567,863.53599338,681.65540589],[0.4655883468650102,0.6333324304190955,0.4363081093693458,0.43789582955481027],[1,2,1,0],[9E+09,9E+09,9E+09,9E+09,9E+09,9E+09]],v5000,z10,Paintgun;
MoveC [[2279.6795314,808.59051611,675.74297923],[0.4655883468650102,0.6333324304190955,0.4363081093693458,0.43789582955481027],[1,2,1,0],[9E+09,9E+09,9E+09,9E+09,9E+09,9E+09]],[[2263.39202203,753.97652985,674.41085042],[0.5239336852843504,0.6102264057995129,0.44184665752938945,0.3973521842389618],[1,1,1,0],[9E+09,9E+09,9E+09,9E+09,9E+09,9E+09]],v5000,z10,Paintgun;
MoveL [[2259.29319189,739.87532333,674.1081954],[0.5371677114025927,0.5983890124203319,0.4539224825066581,0.3838434830970995],[1,1,1,0],[9E+09,9E+09,9E+09,9E+09,9E+09,9E+09]],v5000,z10,Paintgun;
MoveC [[2235.09895504,666.50168219,678.17217922],[0.5371677114025927,0.5983890124203319,0.4539224825066581,0.3838434830970995],[1,1,1,0],[9E+09,9E+09,9E+09,9E+09,9E+09,9E+09]],[[2209.78342688,593.80160997,685.87878708],[0.5847775371995646,0.5648466398644623,0.4511077382349652,0.36808329753626773],[1,1,1,0],[9E+09,9E+09,9E+09,9E+09,9E+09,9E+09]],v5000,z10,Paintgun;
MoveC [[2182.60870782,516.7815904,696.24369848],[0.5847775371995646,0.5648466398644623,0.4511077382349652,0.36808329753626773],[1,1,1,0],[9E+09,9E+09,9E+09,9E+09,9E+09,9E+09]],[[2155.76965577,440.11101178,709.6327917],[0.6184815738170767,0.521184126158828,0.4472328029062702,0.3818775582479438],[1,1,1,0],[9E+09,9E+09,9E+09,9E+09,9E+09,9E+09]],v5000,z10,Paintgun;
MoveC [[2141.65675148,399.86490719,716.3163805],[0.6184815738170767,0.521184126158828,0.4472328029062702,0.3818775582479438],[1,1,1,0],[9E+09,9E+09,9E+09,9E+09,9E+09,9E+09]],[[2128.76417499,359.3821077,723.37327679],[0.6274448335894058,0.5011292343875475,0.4456336149464797,0.3957185268266397],[1,1,1,0],[9E+09,9E+09,9E+09,9E+09,9E+09,9E+09]],v5000,z10,Paintgun;
MoveL [[2105.63635408,286.67143227,734.79764451],[0.6275568546850093,0.4877822566726589,0.43943544069304974,0.4184941548888008],[1,1,1,0],[9E+09,9E+09,9E+09,9E+09,9E+09,9E+09]],v5000,z10,Paintgun;
MoveL [[2086.57034911,216.41373289,744.56505025],[0.6221063183779093,0.4767654071146617,0.4298078893981499,0.44826739054294595],[1,1,1,0],[9E+09,9E+09,9E+09,9E+09,9E+09,9E+09]],v5000,z10,Paintgun;
MoveC [[2072.7129796,156.17661351,750.05626178],[0.6221063183779093,0.4767654071146617,0.4298078893981499,0.44826739054294595],[1,1,1,0],[9E+09,9E+09,9E+09,9E+09,9E+09,9E+09]],[[2061.20391104,95.37301223,752.96116166],[0.6021586324070134,0.4589145979722784,0.40715747422356974,0.5109062187618592],[1,1,1,0],[9E+09,9E+09,9E+09,9E+09,9E+09,9E+09]],v5000,z10,Paintgun;
MoveC [[2050.24555817,3.71119544,750.08176995],[0.6021586324070134,0.4589145979722784,0.40715747422356974,0.5109062187618592],[1,1,1,0],[9E+09,9E+09,9E+09,9E+09,9E+09,9E+09]],[[2048.10587422,-87.62089448,736.51210103],[0.5211229995171535,0.44750103062059454,0.32775251266814787,0.6486539427209751],[1,1,2,0],[9E+09,9E+09,9E+09,9E+09,9E+09,9E+09]],v5000,z10,Paintgun;
MoveC [[2051.98021756,-137.88911715,722.65607652],[0.5211229995171535,0.44750103062059454,0.32775251266814787,0.6486539427209751],[1,1,2,0],[9E+09,9E+09,9E+09,9E+09,9E+09,9E+09]],[[2059.13049656,-186.4305845,704.88377149],[0.4747849896355522,0.4333213082725233,0.2623310824703223,0.7197181813624736],[1,1,2,0],[9E+09,9E+09,9E+09,9E+09,9E+09,9E+09]],v5000,z10,Paintgun;
MoveC [[2071.63424438,-238.23347859,679.66359649],[0.4747849896355522,0.4333213082725233,0.2623310824703223,0.7197181813624736],[1,1,2,0],[9E+09,9E+09,9E+09,9E+09,9E+09,9E+09]],[[2088.43387606,-286.11824174,649.84841551],[0.40948862482677967,0.41498283696993915,0.1439575726836883,0.7996152377392981],[0,1,2,0],[9E+09,9E+09,9E+09,9E+09,9E+09,9E+09]],v5000,z10,Paintgun;
MoveC [[2113.02612536,-337.31057966,610.31071115],[0.40948862482677967,0.41498283696993915,0.1439575726836883,0.7996152377392981],[0,1,2,0],[9E+09,9E+09,9E+09,9E+09,9E+09,9E+09]],[[2142.09344288,-382.97397083,567.19911352],[0.3713969258063468,0.37459456209381287,-0.01854556839841889,0.8493522822975865],[0,1,2,0],[9E+09,9E+09,9E+09,9E+09,9E+09,9E+09]],v5000,z10,Paintgun;
MoveL [[2168.18205349,-419.02272851,529.57583203],[0.3868364940135586,0.36323247831688993,-0.06776494672387488,0.8448831905006623],[0,1,2,0],[9E+09,9E+09,9E+09,9E+09,9E+09,9E+09]],v5000,z10,Paintgun;
MoveC [[2178.08675845,-432.77965981,514.94673686],[0.3868364940135586,0.36323247831688993,-0.06776494672387488,0.8448831905006623],[0,1,2,0],[9E+09,9E+09,9E+09,9E+09,9E+09,9E+09]],[[2188.71733854,-445.54690627,499.93491077],[0.35659949590556034,0.35422275577130413,-0.11211007660921772,0.8572014754632417],[0,1,2,0],[9E+09,9E+09,9E+09,9E+09,9E+09,9E+09]],v5000,z10,Paintgun;
MoveL [[2215.78141071,-474.49403798,463.00130664],[0.3746240648092646,0.3241841837259663,-0.15310351366044272,0.8550559859988932],[0,1,2,0],[9E+09,9E+09,9E+09,9E+09,9E+09,9E+09]],v5000,z10,Paintgun;