hehonglu123/Motion-Primitive-Planning/data/curve_1/dual_arm/diffevo_pose2/grad_result/run_0.csv
timestamp,cmd_num,J1,J2,J3,J4,J5,J6,J1_2,J2_2,J3_2,J4_2,J5_2,J6_2
2.760000061243772507e-04,-1.000000000000000000e+00,1.660316228866577148e+00,-1.108225727081298828e+01,5.832103347778320312e+01,1.163504028320312500e+02,7.864352416992187500e+01,-1.760093231201171875e+02,1.119412384033203125e+02,-4.902902984619140625e+01,-1.824981842041015625e+02,1.955355987548828125e+02,-4.837952423095703125e+01,-1.385524291992187500e+02
2.898999955505132675e-03,-1.000000000000000000e+00,1.660316228866577148e+00,-1.108225727081298828e+01,5.832107543945312500e+01,1.163505096435546875e+02,7.864352416992187500e+01,-1.760093231201171875e+02,1.119412384033203125e+02,-4.902902984619140625e+01,-1.824980773925781250e+02,1.955353088378906250e+02,-4.837937927246093750e+01,-1.385521850585937500e+02
4.308999981731176376e-03,-1.000000000000000000e+00,1.660316228866577148e+00,-1.108225727081298828e+01,5.832107543945312500e+01,1.163505096435546875e+02,7.864352416992187500e+01,-1.760093231201171875e+02,1.119412384033203125e+02,-4.902902984619140625e+01,-1.824980773925781250e+02,1.955353088378906250e+02,-4.837937927246093750e+01,-1.385521850585937500e+02
7.826000452041625977e-03,-1.000000000000000000e+00,1.660201430320739746e+00,-1.108230209350585938e+01,5.832103347778320312e+01,1.163504028320312500e+02,7.864352416992187500e+01,-1.760093231201171875e+02,1.119414062500000000e+02,-4.902902984619140625e+01,-1.824980773925781250e+02,1.955353088378906250e+02,-4.837945175170898438e+01,-1.385521850585937500e+02
1.066000014543533325e-02,-1.000000000000000000e+00,1.660086512565612793e+00,-1.108225727081298828e+01,5.832107543945312500e+01,1.163505096435546875e+02,7.864352416992187500e+01,-1.760093231201171875e+02,1.119414062500000000e+02,-4.902902984619140625e+01,-1.824980773925781250e+02,1.955353088378906250e+02,-4.837937927246093750e+01,-1.385521850585937500e+02
1.573999971151351929e-02,-1.000000000000000000e+00,1.660086512565612793e+00,-1.108225727081298828e+01,5.832107543945312500e+01,1.163505096435546875e+02,7.864352416992187500e+01,-1.760093231201171875e+02,1.119414062500000000e+02,-4.902902984619140625e+01,-1.824980773925781250e+02,1.955353088378906250e+02,-4.837937927246093750e+01,-1.385521850585937500e+02
1.965199969708919525e-02,-1.000000000000000000e+00,1.660201430320739746e+00,-1.108225727081298828e+01,5.832107543945312500e+01,1.163505096435546875e+02,7.864352416992187500e+01,-1.760093231201171875e+02,1.119414062500000000e+02,-4.902902984619140625e+01,-1.824981842041015625e+02,1.955353088378906250e+02,-4.837945175170898438e+01,-1.385521850585937500e+02
2.369000017642974854e-02,-1.000000000000000000e+00,1.660143971443176270e+00,-1.108225727081298828e+01,5.832107543945312500e+01,1.163504028320312500e+02,7.864352416992187500e+01,-1.760091094970703125e+02,1.119414062500000000e+02,-4.902912521362304688e+01,-1.824980773925781250e+02,1.955353088378906250e+02,-4.837945175170898438e+01,-1.385521850585937500e+02
2.664100006222724915e-02,-1.000000000000000000e+00,1.660143971443176270e+00,-1.108221149444580078e+01,5.832107543945312500e+01,1.163504028320312500e+02,7.864368438720703125e+01,-1.760093231201171875e+02,1.119414062500000000e+02,-4.902912521362304688e+01,-1.824980773925781250e+02,1.955353088378906250e+02,-4.837952423095703125e+01,-1.385521850585937500e+02
3.180399909615516663e-02,-1.000000000000000000e+00,1.660143971443176270e+00,-1.108221149444580078e+01,5.832107543945312500e+01,1.163504028320312500e+02,7.864368438720703125e+01,-1.760093231201171875e+02,1.119414062500000000e+02,-4.902912521362304688e+01,-1.824980773925781250e+02,1.955353088378906250e+02,-4.837952423095703125e+01,-1.385521850585937500e+02
3.889000043272972107e-02,-1.000000000000000000e+00,1.660258769989013672e+00,-1.108225727081298828e+01,5.832107543945312500e+01,1.163505096435546875e+02,7.864341735839843750e+01,-1.760091094970703125e+02,1.119414062500000000e+02,-4.902902984619140625e+01,-1.824980773925781250e+02,1.955353088378906250e+02,-4.837937927246093750e+01,-1.385521850585937500e+02
4.377999901771545410e-02,2.000000000000000000e+00,1.660316228866577148e+00,-1.108225727081298828e+01,5.832103347778320312e+01,1.163504028320312500e+02,7.864368438720703125e+01,-1.760091094970703125e+02,1.119414062500000000e+02,-4.902902984619140625e+01,-1.824980773925781250e+02,1.955351562500000000e+02,-4.837945175170898438e+01,-1.385521850585937500e+02
4.861100018024444580e-02,2.000000000000000000e+00,1.660258769989013672e+00,-1.108221149444580078e+01,5.832109451293945312e+01,1.163505096435546875e+02,7.864352416992187500e+01,-1.760093231201171875e+02,1.119414062500000000e+02,-4.902902984619140625e+01,-1.824981842041015625e+02,1.955353088378906250e+02,-4.837945175170898438e+01,-1.385521850585937500e+02
5.563500151038169861e-02,2.000000000000000000e+00,1.660143971443176270e+00,-1.108225727081298828e+01,5.832107543945312500e+01,1.163505554199218750e+02,7.864352416992187500e+01,-1.760093231201171875e+02,1.119414062500000000e+02,-4.902902984619140625e+01,-1.824980773925781250e+02,1.955351562500000000e+02,-4.837945175170898438e+01,-1.385521850585937500e+02
9.487599879503250122e-02,2.000000000000000000e+00,1.660316228866577148e+00,-1.108230209350585938e+01,5.832107543945312500e+01,1.163505096435546875e+02,7.864352416992187500e+01,-1.760091094970703125e+02,1.119414062500000000e+02,-4.902912521362304688e+01,-1.824980773925781250e+02,1.955354614257812500e+02,-4.837945175170898438e+01,-1.385521850585937500e+02
9.901200234889984131e-02,2.000000000000000000e+00,1.660316228866577148e+00,-1.108225727081298828e+01,5.832109451293945312e+01,1.163504028320312500e+02,7.864368438720703125e+01,-1.760091094970703125e+02,1.119412384033203125e+02,-4.902902984619140625e+01,-1.824980773925781250e+02,1.955353088378906250e+02,-4.837945175170898438e+01,-1.385524291992187500e+02
1.002700030803680420e-01,2.000000000000000000e+00,1.660316228866577148e+00,-1.108225727081298828e+01,5.832109451293945312e+01,1.163504028320312500e+02,7.864368438720703125e+01,-1.760091094970703125e+02,1.119412384033203125e+02,-4.902902984619140625e+01,-1.824980773925781250e+02,1.955353088378906250e+02,-4.837945175170898438e+01,-1.385524291992187500e+02
1.038049980998039246e-01,2.000000000000000000e+00,1.660143971443176270e+00,-1.108225727081298828e+01,5.832107543945312500e+01,1.163505096435546875e+02,7.864368438720703125e+01,-1.760093231201171875e+02,1.119414062500000000e+02,-4.902912521362304688e+01,-1.824980773925781250e+02,1.955351562500000000e+02,-4.837937927246093750e+01,-1.385521850585937500e+02
1.050779968500137329e-01,2.000000000000000000e+00,1.660143971443176270e+00,-1.108225727081298828e+01,5.832107543945312500e+01,1.163505096435546875e+02,7.864368438720703125e+01,-1.760093231201171875e+02,1.119414062500000000e+02,-4.902912521362304688e+01,-1.824980773925781250e+02,1.955351562500000000e+02,-4.837937927246093750e+01,-1.385521850585937500e+02
1.126980036497116089e-01,2.000000000000000000e+00,1.660000443458557129e+00,-1.108221149444580078e+01,5.832107543945312500e+01,1.163505096435546875e+02,7.864368438720703125e+01,-1.760094604492187500e+02,1.119414062500000000e+02,-4.902912521362304688e+01,-1.824980773925781250e+02,1.955355987548828125e+02,-4.837945175170898438e+01,-1.385521850585937500e+02
1.151539981365203857e-01,2.000000000000000000e+00,1.657790064811706543e+00,-1.108119297027587891e+01,5.832084655761718750e+01,1.163505096435546875e+02,7.864368438720703125e+01,-1.760093231201171875e+02,1.119414062500000000e+02,-4.902902984619140625e+01,-1.824980773925781250e+02,1.955351562500000000e+02,-4.837945175170898438e+01,-1.385524291992187500e+02
1.165399998426437378e-01,2.000000000000000000e+00,1.657790064811706543e+00,-1.108119297027587891e+01,5.832084655761718750e+01,1.163505096435546875e+02,7.864368438720703125e+01,-1.760093231201171875e+02,1.119414062500000000e+02,-4.902902984619140625e+01,-1.824980773925781250e+02,1.955351562500000000e+02,-4.837945175170898438e+01,-1.385524291992187500e+02
1.205540001392364502e-01,2.000000000000000000e+00,1.654861927032470703e+00,-1.107967662811279297e+01,5.832044601440429688e+01,1.163505096435546875e+02,7.864352416992187500e+01,-1.760093231201171875e+02,1.119409713745117188e+02,-4.902889633178710938e+01,-1.824979095458984375e+02,1.955355987548828125e+02,-4.837952423095703125e+01,-1.385521850585937500e+02
1.231390014290809631e-01,2.000000000000000000e+00,1.650699377059936523e+00,-1.107736873626708984e+01,5.831948852539062500e+01,1.163505554199218750e+02,7.864352416992187500e+01,-1.760093231201171875e+02,1.119403076171875000e+02,-4.902834320068359375e+01,-1.824965667724609375e+02,1.955357513427734375e+02,-4.838039779663085938e+01,-1.385521850585937500e+02
1.277229934930801392e-01,2.000000000000000000e+00,1.644814610481262207e+00,-1.107383823394775391e+01,5.831810760498046875e+01,1.163505096435546875e+02,7.864368438720703125e+01,-1.760093231201171875e+02,1.119388809204101562e+02,-4.902770233154296875e+01,-1.824947814941406250e+02,1.955364685058593750e+02,-4.838258361816406250e+01,-1.385524291992187500e+02
1.290230005979537964e-01,2.000000000000000000e+00,1.644814610481262207e+00,-1.107383823394775391e+01,5.831810760498046875e+01,1.163505096435546875e+02,7.864368438720703125e+01,-1.760093231201171875e+02,1.119388809204101562e+02,-4.902770233154296875e+01,-1.824947814941406250e+02,1.955364685058593750e+02,-4.838258361816406250e+01,-1.385524291992187500e+02
1.316290050745010376e-01,2.000000000000000000e+00,1.637121081352233887e+00,-1.106872367858886719e+01,5.831603240966796875e+01,1.163506622314453125e+02,7.864352416992187500e+01,-1.760089721679687500e+02,1.119362411499023438e+02,-4.902715682983398438e+01,-1.824929656982421875e+02,1.955368957519531250e+02,-4.838761138916015625e+01,-1.385529632568359375e+02
1.329610049724578857e-01,2.000000000000000000e+00,1.637121081352233887e+00,-1.106872367858886719e+01,5.831603240966796875e+01,1.163506622314453125e+02,7.864352416992187500e+01,-1.760089721679687500e+02,1.119362411499023438e+02,-4.902715682983398438e+01,-1.824929656982421875e+02,1.955368957519531250e+02,-4.838761138916015625e+01,-1.385529632568359375e+02
1.384139955043792725e-01,2.000000000000000000e+00,1.627676606178283691e+00,-1.106182193756103516e+01,5.831316375732421875e+01,1.163509750366210938e+02,7.864368438720703125e+01,-1.760089721679687500e+02,1.119323425292968750e+02,-4.902651596069335938e+01,-1.824914550781250000e+02,1.955371856689453125e+02,-4.838885116577148438e+01,-1.385535125732421875e+02
1.399739980697631836e-01,2.000000000000000000e+00,1.616480946540832520e+00,-1.105324459075927734e+01,5.830942916870117188e+01,1.163519897460937500e+02,7.864368438720703125e+01,-1.760087738037109375e+02,1.119270706176757812e+02,-4.902527999877929688e+01,-1.824896545410156250e+02,1.955374755859375000e+02,-4.839067077636718750e+01,-1.385557098388671875e+02
1.413429975509643555e-01,2.000000000000000000e+00,1.616480946540832520e+00,-1.105324459075927734e+01,5.830942916870117188e+01,1.163519897460937500e+02,7.864368438720703125e+01,-1.760087738037109375e+02,1.119270706176757812e+02,-4.902527999877929688e+01,-1.824896545410156250e+02,1.955374755859375000e+02,-4.839067077636718750e+01,-1.385557098388671875e+02
1.451189965009689331e-01,2.000000000000000000e+00,1.603247165679931641e+00,-1.104319763183593750e+01,5.830460739135742188e+01,1.163537216186523438e+02,7.864389801025390625e+01,-1.760083007812500000e+02,1.119202575683593750e+02,-4.902354049682617188e+01,-1.824874267578125000e+02,1.955377655029296875e+02,-4.839264297485351562e+01,-1.385568084716796875e+02
1.490799933671951294e-01,2.000000000000000000e+00,1.587285995483398438e+00,-1.103136157989501953e+01,5.829834365844726562e+01,1.163568801879882812e+02,7.864496612548828125e+01,-1.760078277587890625e+02,1.119115753173828125e+02,-4.902120208740234375e+01,-1.824850921630859375e+02,1.955381774902343750e+02,-4.839468002319335938e+01,-1.385573577880859375e+02
1.526529937982559204e-01,2.000000000000000000e+00,1.568224787712097168e+00,-1.101780605316162109e+01,5.829051589965820312e+01,1.163610992431640625e+02,7.864614105224609375e+01,-1.760070037841796875e+02,1.119002609252929688e+02,-4.901868820190429688e+01,-1.824823150634765625e+02,1.955386810302734375e+02,-4.839664840698242188e+01,-1.385579223632812500e+02
1.550810039043426514e-01,2.000000000000000000e+00,1.546091794967651367e+00,-1.100226020812988281e+01,5.828096008300781250e+01,1.163655624389648438e+02,7.864821624755859375e+01,-1.760057220458984375e+02,1.118864746093750000e+02,-4.901543426513671875e+01,-1.824790039062500000e+02,1.955397033691406250e+02,-4.839920043945312500e+01,-1.385587921142578125e+02
1.565250009298324585e-01,2.000000000000000000e+00,1.546091794967651367e+00,-1.100226020812988281e+01,5.828096008300781250e+01,1.163655624389648438e+02,7.864821624755859375e+01,-1.760057220458984375e+02,1.118864746093750000e+02,-4.901543426513671875e+01,-1.824790039062500000e+02,1.955397033691406250e+02,-4.839920043945312500e+01,-1.385587921142578125e+02
1.607470065355300903e-01,2.000000000000000000e+00,1.520915865898132324e+00,-1.098460865020751953e+01,5.826977920532226562e+01,1.163711547851562500e+02,7.865066528320312500e+01,-1.760043792724609375e+02,1.118702697753906250e+02,-4.901145553588867188e+01,-1.824752349853515625e+02,1.955417785644531250e+02,-4.840204238891601562e+01,-1.385598754882812500e+02
1.632360070943832397e-01,2.000000000000000000e+00,1.492438673973083496e+00,-1.096478462219238281e+01,5.825682830810546875e+01,1.163781051635742188e+02,7.865381622314453125e+01,-1.760032196044921875e+02,1.118512649536132812e+02,-4.900641632080078125e+01,-1.824711151123046875e+02,1.955458679199218750e+02,-4.840597534179687500e+01,-1.385613098144531250e+02
1.646289974451065063e-01,2.000000000000000000e+00,1.492438673973083496e+00,-1.096478462219238281e+01,5.825682830810546875e+01,1.163781051635742188e+02,7.865381622314453125e+01,-1.760032196044921875e+02,1.118512649536132812e+02,-4.900641632080078125e+01,-1.824711151123046875e+02,1.955458679199218750e+02,-4.840597534179687500e+01,-1.385613098144531250e+02
1.674470007419586182e-01,2.000000000000000000e+00,1.461004853248596191e+00,-1.094287967681884766e+01,5.824247360229492188e+01,1.163863830566406250e+02,7.865760040283203125e+01,-1.760012512207031250e+02,1.118295669555664062e+02,-4.900046920776367188e+01,-1.824665374755859375e+02,1.955512542724609375e+02,-4.841078186035156250e+01,-1.385626373291015625e+02
1.711139976978302002e-01,2.000000000000000000e+00,1.426929831504821777e+00,-1.091913986206054688e+01,5.822650909423828125e+01,1.163955917358398438e+02,7.866223907470703125e+01,-1.759975128173828125e+02,1.118042449951171875e+02,-4.899337005615234375e+01,-1.824614868164062500e+02,1.955569305419921875e+02,-4.841683197021484375e+01,-1.385646057128906250e+02
1.758069992065429688e-01,2.000000000000000000e+00,1.426929831504821777e+00,-1.091913986206054688e+01,5.822650909423828125e+01,1.163955917358398438e+02,7.866223907470703125e+01,-1.759975128173828125e+02,1.118042449951171875e+02,-4.899337005615234375e+01,-1.824614868164062500e+02,1.955569305419921875e+02,-4.841683197021484375e+01,-1.385646057128906250e+02
1.772930026054382324e-01,2.000000000000000000e+00,1.390185117721557617e+00,-1.089375019073486328e+01,5.820862197875976562e+01,1.164056015014648438e+02,7.866735839843750000e+01,-1.759923706054687500e+02,1.117761154174804688e+02,-4.898545074462890625e+01,-1.824555511474609375e+02,1.955628051757812500e+02,-4.842353439331054688e+01,-1.385668029785156250e+02
1.799129992723464966e-01,2.000000000000000000e+00,1.350971579551696777e+00,-1.086666107177734375e+01,5.818924331665039062e+01,1.164163513183593750e+02,7.867290496826171875e+01,-1.759866638183593750e+02,1.117460174560546875e+02,-4.897666549682617188e+01,-1.824489746093750000e+02,1.955695648193359375e+02,-4.843089294433593750e+01,-1.385697784423828125e+02
1.811960041522979736e-01,2.000000000000000000e+00,1.350971579551696777e+00,-1.086666107177734375e+01,5.818924331665039062e+01,1.164163513183593750e+02,7.867290496826171875e+01,-1.759866638183593750e+02,1.117460174560546875e+02,-4.897666549682617188e+01,-1.824489746093750000e+02,1.955695648193359375e+02,-4.843089294433593750e+01,-1.385697784423828125e+02
1.879130005836486816e-01,2.000000000000000000e+00,1.264363169670104980e+00,-1.080691814422607422e+01,5.814636230468750000e+01,1.164406814575195312e+02,7.868618011474609375e+01,-1.759743194580078125e+02,1.116782836914062500e+02,-4.895688629150390625e+01,-1.824346160888671875e+02,1.955851440429687500e+02,-4.844808959960937500e+01,-1.385767059326171875e+02
1.892070025205612183e-01,2.000000000000000000e+00,1.264363169670104980e+00,-1.080691814422607422e+01,5.814636230468750000e+01,1.164406814575195312e+02,7.868618011474609375e+01,-1.759743194580078125e+02,1.116782836914062500e+02,-4.895688629150390625e+01,-1.824346160888671875e+02,1.955851440429687500e+02,-4.844808959960937500e+01,-1.385767059326171875e+02
1.917449980974197388e-01,2.000000000000000000e+00,1.217140316963195801e+00,-1.077376556396484375e+01,5.812284088134765625e+01,1.164534301757812500e+02,7.869310760498046875e+01,-1.759678192138671875e+02,1.116408767700195312e+02,-4.894612884521484375e+01,-1.824268341064453125e+02,1.955934143066406250e+02,-4.845676040649414062e+01,-1.385805358886718750e+02
1.930000036954879761e-01,2.000000000000000000e+00,1.217140316963195801e+00,-1.077376556396484375e+01,5.812284088134765625e+01,1.164534301757812500e+02,7.869310760498046875e+01,-1.759678192138671875e+02,1.116408767700195312e+02,-4.894612884521484375e+01,-1.824268341064453125e+02,1.955934143066406250e+02,-4.845676040649414062e+01,-1.385805358886718750e+02
1.992069929838180542e-01,2.000000000000000000e+00,1.167592406272888184e+00,-1.073884773254394531e+01,5.809821701049804688e+01,1.164666519165039062e+02,7.870079040527343750e+01,-1.759606323242187500e+02,1.115628738403320312e+02,-4.892310714721679688e+01,-1.824101867675781250e+02,1.956122894287109375e+02,-4.847643280029296875e+01,-1.385893402099609375e+02
2.005439996719360352e-01,2.000000000000000000e+00,1.116063714027404785e+00,-1.070239067077636719e+01,5.807284545898437500e+01,1.164808731079101562e+02,7.870867919921875000e+01,-1.759532318115234375e+02,1.115628738403320312e+02,-4.892310714721679688e+01,-1.824101867675781250e+02,1.956122894287109375e+02,-4.847643280029296875e+01,-1.385893402099609375e+02
2.018709927797317505e-01,2.000000000000000000e+00,1.116063714027404785e+00,-1.070239067077636719e+01,5.807284545898437500e+01,1.164808731079101562e+02,7.870867919921875000e+01,-1.759532318115234375e+02,1.115628738403320312e+02,-4.892310714721679688e+01,-1.824101867675781250e+02,1.956122894287109375e+02,-4.847643280029296875e+01,-1.385893402099609375e+02
2.044640034437179565e-01,2.000000000000000000e+00,1.063099622726440430e+00,-1.066462135314941406e+01,5.804684066772460938e+01,1.164955139160156250e+02,7.871635437011718750e+01,-1.759454498291015625e+02,1.115222244262695312e+02,-4.891110992431640625e+01,-1.824011230468750000e+02,1.956219024658203125e+02,-4.848590469360351562e+01,-1.385939483642578125e+02
2.096450030803680420e-01,2.000000000000000000e+00,1.063099622726440430e+00,-1.066462135314941406e+01,5.804684066772460938e+01,1.164955139160156250e+02,7.871635437011718750e+01,-1.759454498291015625e+02,1.115222244262695312e+02,-4.891110992431640625e+01,-1.824011230468750000e+02,1.956219024658203125e+02,-4.848590469360351562e+01,-1.385939483642578125e+02
2.124059945344924927e-01,2.000000000000000000e+00,9.527794122695922852e-01,-1.058519077301025391e+01,5.799261474609375000e+01,1.165263366699218750e+02,7.873192596435546875e+01,-1.759299774169921875e+02,1.114387893676757812e+02,-4.888652801513671875e+01,-1.823833923339843750e+02,1.956417999267578125e+02,-4.850725173950195312e+01,-1.386040649414062500e+02
2.156990021467208862e-01,2.000000000000000000e+00,9.527794122695922852e-01,-1.058519077301025391e+01,5.799261474609375000e+01,1.165263366699218750e+02,7.873192596435546875e+01,-1.759299774169921875e+02,1.114387893676757812e+02,-4.888652801513671875e+01,-1.823833923339843750e+02,1.956417999267578125e+02,-4.850725173950195312e+01,-1.386040649414062500e+02
2.209800034761428833e-01,2.000000000000000000e+00,8.958536982536315918e-01,-1.054413986206054688e+01,5.796467971801757812e+01,1.165418624877929688e+02,7.873976135253906250e+01,-1.759217071533203125e+02,1.113958816528320312e+02,-4.887384796142578125e+01,-1.823745727539062500e+02,1.956515655517578125e+02,-4.851796340942382812e+01,-1.386088867187500000e+02
2.247070074081420898e-01,2.000000000000000000e+00,8.379520773887634277e-01,-1.050252342224121094e+01,5.793670654296875000e+01,1.165571899414062500e+02,7.874739074707031250e+01,-1.759134979248046875e+02,1.113088684082031250e+02,-4.884839630126953125e+01,-1.823563537597656250e+02,1.956711730957031250e+02,-4.853909301757812500e+01,-1.386195526123046875e+02
2.277140021324157715e-01,2.000000000000000000e+00,7.789308428764343262e-01,-1.046034049987792969e+01,5.790842056274414062e+01,1.165718917846679688e+02,7.875495910644531250e+01,-1.759049530029296875e+02,1.113088684082031250e+02,-4.884839630126953125e+01,-1.823563537597656250e+02,1.956711730957031250e+02,-4.853909301757812500e+01,-1.386195526123046875e+02
2.323610037565231323e-01,2.000000000000000000e+00,7.192780971527099609e-01,-1.041772937774658203e+01,5.788001251220703125e+01,1.165869064331054688e+02,7.876274108886718750e+01,-1.758966064453125000e+02,1.112654800415039062e+02,-4.883603668212890625e+01,-1.823474884033203125e+02,1.956811523437500000e+02,-4.854965972900390625e+01,-1.386243743896484375e+02
2.357600033283233643e-01,2.000000000000000000e+00,6.588215231895446777e-01,-1.037473201751708984e+01,5.785157394409179688e+01,1.166018600463867188e+02,7.877057647705078125e+01,-1.758878021240234375e+02,1.112222442626953125e+02,-4.882372665405273438e+01,-1.823381805419921875e+02,1.956910552978515625e+02,-4.856051635742187500e+01,-1.386295318603515625e+02
2.396869957447052002e-01,2.000000000000000000e+00,5.982788205146789551e-01,-1.033173561096191406e+01,5.782296752929687500e+01,1.166168212890625000e+02,7.877831268310546875e+01,-1.758790435791015625e+02,1.111790161132812500e+02,-4.881090545654296875e+01,-1.823289947509765625e+02,1.957011871337890625e+02,-4.857122421264648438e+01,-1.386344757080078125e+02
2.436980009078979492e-01,2.000000000000000000e+00,5.377936363220214844e-01,-1.028898811340332031e+01,5.779439926147460938e+01,1.166318359375000000e+02,7.878577423095703125e+01,-1.758706359863281250e+02,1.111362762451171875e+02,-4.879850387573242188e+01,-1.823198547363281250e+02,1.957112274169921875e+02,-4.858208084106445312e+01,-1.386395416259765625e+02
2.481659948825836182e-01,2.000000000000000000e+00,4.167656600475311279e-01,-1.020353698730468750e+01,5.773759078979492188e+01,1.166632385253906250e+02,7.880145263671875000e+01,-1.758533477783203125e+02,1.110506362915039062e+02,-4.877304840087890625e+01,-1.823017883300781250e+02,1.957309875488281250e+02,-4.860561752319335938e+01,-1.386493225097656250e+02
2.516590058803558350e-01,2.000000000000000000e+00,4.167656600475311279e-01,-1.020353698730468750e+01,5.773759078979492188e+01,1.166632385253906250e+02,7.880145263671875000e+01,-1.758533477783203125e+02,1.110506362915039062e+02,-4.877304840087890625e+01,-1.823017883300781250e+02,1.957309875488281250e+02,-4.860561752319335938e+01,-1.386493225097656250e+02
2.566120028495788574e-01,2.000000000000000000e+00,3.567397296428680420e-01,-1.016088008880615234e+01,5.770921325683593750e+01,1.166791381835937500e+02,7.880944824218750000e+01,-1.758445129394531250e+02,1.110072937011718750e+02,-4.875996017456054688e+01,-1.822925567626953125e+02,1.957406005859375000e+02,-4.861778640747070312e+01,-1.386541595458984375e+02
2.597329914569854736e-01,2.000000000000000000e+00,2.964266836643218994e-01,-1.011844825744628906e+01,5.768076324462890625e+01,1.166946868896484375e+02,7.881712341308593750e+01,-1.758362579345703125e+02,1.109638442993164062e+02,-4.874741744995117188e+01,-1.822834777832031250e+02,1.957503662109375000e+02,-4.862958908081054688e+01,-1.386592102050781250e+02
2.640680074691772461e-01,2.000000000000000000e+00,2.360849827527999878e-01,-1.007612991333007812e+01,5.765224075317382812e+01,1.167097396850585938e+02,7.882517242431640625e+01,-1.758278350830078125e+02,1.109206161499023438e+02,-4.873500823974609375e+01,-1.822744445800781250e+02,1.957604980468750000e+02,-4.864073562622070312e+01,-1.386637115478515625e+02
2.678700089454650879e-01,2.000000000000000000e+00,1.760016083717346191e-01,-1.003369903564453125e+01,5.762385559082031250e+01,1.167243804931640625e+02,7.883343505859375000e+01,-1.758197631835937500e+02,1.108773880004882812e+02,-4.872255706787109375e+01,-1.822650299072265625e+02,1.957701263427734375e+02,-4.865297698974609375e+01,-1.386685333251953125e+02
2.728320062160491943e-01,2.000000000000000000e+00,1.158034205436706543e-01,-9.991449356079101562e+00,5.759541320800781250e+01,1.167398223876953125e+02,7.884143829345703125e+01,-1.758115081787109375e+02,1.108344268798828125e+02,-4.870996856689453125e+01,-1.822555694580078125e+02,1.957799530029296875e+02,-4.866536331176757812e+01,-1.386735992431640625e+02
2.758370041847229004e-01,2.000000000000000000e+00,5.592099949717521667e-02,-9.949244499206542969e+00,5.756684875488281250e+01,1.167545166015625000e+02,7.884991455078125000e+01,-1.758031616210937500e+02,1.107922439575195312e+02,-4.869738006591796875e+01,-1.822465972900390625e+02,1.957900085449218750e+02,-4.867745590209960938e+01,-1.386786499023437500e+02
2.807979881763458252e-01,2.000000000000000000e+00,-4.076244775205850601e-03,-9.906790733337402344e+00,5.753836059570312500e+01,1.167694778442382812e+02,7.885812377929687500e+01,-1.757947387695312500e+02,1.107501068115234375e+02,-4.868474960327148438e+01,-1.822376251220703125e+02,1.958000030517578125e+02,-4.868933486938476562e+01,-1.386834869384765625e+02
2.839280068874359131e-01,2.000000000000000000e+00,-6.387253850698471069e-02,-9.864608764648437500e+00,5.750988006591796875e+01,1.167849121093750000e+02,7.886602020263671875e+01,-1.757864074707031250e+02,1.107076416015625000e+02,-4.867193222045898438e+01,-1.822284851074218750e+02,1.958097534179687500e+02,-4.870113754272460938e+01,-1.386879882812500000e+02
2.879830002784729004e-01,2.000000000000000000e+00,-1.236114278435707092e-01,-9.822471618652343750e+00,5.748145294189453125e+01,1.168006057739257812e+02,7.887384796142578125e+01,-1.757782745361328125e+02,1.106650695800781250e+02,-4.865906906127929688e+01,-1.822194061279296875e+02,1.958193817138671875e+02,-4.871330642700195312e+01,-1.386929321289062500e+02
2.919000089168548584e-01,2.000000000000000000e+00,-1.835799664258956909e-01,-9.780289649963378906e+00,5.745280456542968750e+01,1.168166198730468750e+02,7.888174438476562500e+01,-1.757700500488281250e+02,1.106228332519531250e+02,-4.864657211303710938e+01,-1.822102661132812500e+02,1.958291473388671875e+02,-4.872510910034179688e+01,-1.386977691650390625e+02
2.958810031414031982e-01,2.000000000000000000e+00,-2.436346113681793213e-01,-9.738017082214355469e+00,5.742426300048828125e+01,1.168324737548828125e+02,7.888952636718750000e+01,-1.757619934082031250e+02,1.105803680419921875e+02,-4.863425827026367188e+01,-1.822012329101562500e+02,1.958388366699218750e+02,-4.873654937744140625e+01,-1.387030487060546875e+02
2.999329864978790283e-01,2.000000000000000000e+00,-3.038902282714843750e-01,-9.695743560791015625e+00,5.739606094360351562e+01,1.168476409912109375e+02,7.889720153808593750e+01,-1.757535858154296875e+02,1.105381240844726562e+02,-4.862171173095703125e+01,-1.821916656494140625e+02,1.958484649658203125e+02,-4.874820709228515625e+01,-1.387079925537109375e+02
3.049780130386352539e-01,2.000000000000000000e+00,-3.641458153724670410e-01,-9.653154373168945312e+00,5.736769485473632812e+01,1.168623352050781250e+02,7.890482330322265625e+01,-1.757453765869140625e+02,1.104957656860351562e+02,-4.860916900634765625e+01,-1.821822509765625000e+02,1.958585205078125000e+02,-4.876044845581054688e+01,-1.387130432128906250e+02
3.082469999790191650e-01,2.000000000000000000e+00,-4.245162606239318848e-01,-9.610677719116210938e+00,5.733909225463867188e+01,1.168769836425781250e+02,7.891266632080078125e+01,-1.757372436523437500e+02,1.104538574218750000e+02,-4.859685897827148438e+01,-1.821731719970703125e+02,1.958685760498046875e+02,-4.877232742309570312e+01,-1.387176513671875000e+02
3.124009966850280762e-01,2.000000000000000000e+00,-4.848005771636962891e-01,-9.568314552307128906e+00,5.731052780151367188e+01,1.168922576904296875e+02,7.892007446289062500e+01,-1.757284851074218750e+02,1.104118957519531250e+02,-4.858454132080078125e+01,-1.821640777587890625e+02,1.958780364990234375e+02,-4.878383636474609375e+01,-1.387229156494140625e+02
3.159579932689666748e-01,2.000000000000000000e+00,-5.449987649917602539e-01,-9.525860786437988281e+00,5.728224182128906250e+01,1.169069519042968750e+02,7.892769622802734375e+01,-1.757198181152343750e+02,1.103698654174804688e+02,-4.857186126708984375e+01,-1.821551818847656250e+02,1.958875885009765625e+02,-4.879513168334960938e+01,-1.387280883789062500e+02
3.201819956302642822e-01,2.000000000000000000e+00,-6.053405404090881348e-01,-9.483362197875976562e+00,5.725397872924804688e+01,1.169220199584960938e+02,7.893543243408203125e+01,-1.757115325927734375e+02,1.103273468017578125e+02,-4.855900192260742188e+01,-1.821460418701171875e+02,1.958972930908203125e+02,-4.880656814575195312e+01,-1.387333679199218750e+02
3.228619992733001709e-01,2.000000000000000000e+00,-6.657683253288269043e-01,-9.440727233886718750e+00,5.722545623779296875e+01,1.169372406005859375e+02,7.894278717041015625e+01,-1.757030487060546875e+02,1.102851104736328125e+02,-4.854655075073242188e+01,-1.821368408203125000e+02,1.959069824218750000e+02,-4.881808090209960938e+01,-1.387387542724609375e+02
3.267939984798431396e-01,2.000000000000000000e+00,-7.262535691261291504e-01,-9.398002624511718750e+00,5.719703292846679688e+01,1.169531555175781250e+02,7.895057678222656250e+01,-1.756941680908203125e+02,1.102424850463867188e+02,-4.853427886962890625e+01,-1.821275482177734375e+02,1.959165954589843750e+02,-4.882981109619140625e+01,-1.387436981201171875e+02
3.322460055351257324e-01,2.000000000000000000e+00,-7.867101430892944336e-01,-9.355434417724609375e+00,5.716865158081054688e+01,1.169691619873046875e+02,7.895835876464843750e+01,-1.756856384277343750e+02,1.101994171142578125e+02,-4.852178573608398438e+01,-1.821180267333984375e+02,1.959260864257812500e+02,-4.884132385253906250e+01,-1.387490844726562500e+02
3.362559974193572998e-01,2.000000000000000000e+00,-8.470231890678405762e-01,-9.312913894653320312e+00,5.714038467407226562e+01,1.169843368530273438e+02,7.896630096435546875e+01,-1.756768798828125000e+02,1.101564559936523438e+02,-4.850923919677734375e+01,-1.821085052490234375e+02,1.959359130859375000e+02,-4.885313034057617188e+01,-1.387547912597656250e+02
3.401579856872558594e-01,2.000000000000000000e+00,-9.072213768959045410e-01,-9.270414352416992188e+00,5.711185836791992188e+01,1.169991302490234375e+02,7.897408294677734375e+01,-1.756684722900390625e+02,1.101139373779296875e+02,-4.849687957763671875e+01,-1.820991516113281250e+02,1.959461212158203125e+02,-4.886486053466796875e+01,-1.387598419189453125e+02
3.443489968776702881e-01,2.000000000000000000e+00,-9.673621654510498047e-01,-9.227892875671386719e+00,5.708353805541992188e+01,1.170139389038085938e+02,7.898219299316406250e+01,-1.756599884033203125e+02,1.100717544555664062e+02,-4.848442840576171875e+01,-1.820902862548828125e+02,1.959557342529296875e+02,-4.887622451782226562e+01,-1.387647857666015625e+02
3.490990102291107178e-01,2.000000000000000000e+00,-1.027187108993530273e+00,-9.185552597045898438e+00,5.705529785156250000e+01,1.170286788940429688e+02,7.899024200439453125e+01,-1.756517181396484375e+02,1.100298385620117188e+02,-4.847156906127929688e+01,-1.820814819335937500e+02,1.959652862548828125e+02,-4.888751983642578125e+01,-1.387698364257812500e+02
3.506590127944946289e-01,2.000000000000000000e+00,-1.087155699729919434e+00,-9.143008232116699219e+00,5.702711868286132812e+01,1.170437469482421875e+02,7.899829101562500000e+01,-1.756433868408203125e+02,1.099874343872070312e+02,-4.845888900756835938e+01,-1.820725097656250000e+02,1.959748992919921875e+02,-4.889852142333984375e+01,-1.387754364013671875e+02
3.563979864120483398e-01,2.000000000000000000e+00,-1.147382616996765137e+00,-9.100554466247558594e+00,5.699863433837890625e+01,1.170587081909179688e+02,7.900634002685546875e+01,-1.756352386474609375e+02,1.099447479248046875e+02,-4.844638824462890625e+01,-1.820634765625000000e+02,1.959846038818359375e+02,-4.891046905517578125e+01,-1.387802734375000000e+02
3.607940077781677246e-01,2.000000000000000000e+00,-1.207236289978027344e+00,-9.058236122131347656e+00,5.697020721435546875e+01,1.170738296508789062e+02,7.901422882080078125e+01,-1.756273040771484375e+02,1.099018478393554688e+02,-4.843416595458984375e+01,-1.820545043945312500e+02,1.959940795898437500e+02,-4.892263793945312500e+01,-1.387853393554687500e+02
3.643369972705841064e-01,2.000000000000000000e+00,-1.267003893852233887e+00,-9.016009330749511719e+00,5.694205093383789062e+01,1.170895233154296875e+02,7.902196502685546875e+01,-1.756191711425781250e+02,1.098586730957031250e+02,-4.842180633544921875e+01,-1.820451507568359375e+02,1.960039215087890625e+02,-4.893400573730468750e+01,-1.387906036376953125e+02
3.686330020427703857e-01,2.000000000000000000e+00,-1.326656699180603027e+00,-8.973939895629882812e+00,5.691395187377929688e+01,1.171055374145507812e+02,7.902980804443359375e+01,-1.756109008789062500e+02,1.098158340454101562e+02,-4.840908432006835938e+01,-1.820358886718750000e+02,1.960136871337890625e+02,-4.894500732421875000e+01,-1.387956542968750000e+02
3.738040030002593994e-01,2.000000000000000000e+00,-1.386309385299682617e+00,-8.931690216064453125e+00,5.688563156127929688e+01,1.171213912963867188e+02,7.903742980957031250e+01,-1.756027526855468750e+02,1.097730941772460938e+02,-4.839690780639648438e+01,-1.820268707275390625e+02,1.960239562988281250e+02,-4.895623016357421875e+01,-1.388006134033203125e+02
3.775329887866973877e-01,2.000000000000000000e+00,-1.446163177490234375e+00,-8.889575958251953125e+00,5.685728836059570312e+01,1.171362457275390625e+02,7.904483795166015625e+01,-1.755949554443359375e+02,1.097306289672851562e+02,-4.838427352905273438e+01,-1.820179443359375000e+02,1.960337982177734375e+02,-4.896767044067382812e+01,-1.388058776855468750e+02
3.808580040931701660e-01,2.000000000000000000e+00,-1.505614876747131348e+00,-8.847483634948730469e+00,5.682906723022460938e+01,1.171510543823242188e+02,7.905283355712890625e+01,-1.755868225097656250e+02,1.096883316040039062e+02,-4.837149810791015625e+01,-1.820089111328125000e+02,1.960428314208984375e+02,-4.897910690307617188e+01,-1.388111572265625000e+02
3.846699893474578857e-01,2.000000000000000000e+00,-1.565382599830627441e+00,-8.805528640747070312e+00,5.680080795288085938e+01,1.171656951904296875e+02,7.906030273437500000e+01,-1.755787506103515625e+02,1.096463699340820312e+02,-4.835868072509765625e+01,-1.820001525878906250e+02,1.960524597167968750e+02,-4.899054718017578125e+01,-1.388165283203125000e+02
3.887119889259338379e-01,2.000000000000000000e+00,-1.625465989112854004e+00,-8.763459205627441406e+00,5.677258300781250000e+01,1.171804885864257812e+02,7.906792449951171875e+01,-1.755704040527343750e+02,1.096040649414062500e+02,-4.834636688232421875e+01,-1.819914093017578125e+02,1.960621490478515625e+02,-4.900205993652343750e+01,-1.388214721679687500e+02
3.928210139274597168e-01,2.000000000000000000e+00,-1.685377001762390137e+00,-8.721299171447753906e+00,5.674428176879882812e+01,1.171952972412109375e+02,7.907554626464843750e+01,-1.755623321533203125e+02,1.095616073608398438e+02,-4.833405685424804688e+01,-1.819822845458984375e+02,1.960715637207031250e+02,-4.901357269287109375e+01,-1.388271942138671875e+02
3.969329893589019775e-01,2.000000000000000000e+00,-1.745230793952941895e+00,-8.679276466369628906e+00,5.671620559692382812e+01,1.172103118896484375e+02,7.908322143554687500e+01,-1.755541229248046875e+02,1.095189208984375000e+02,-4.832160568237304688e+01,-1.819731903076171875e+02,1.960811767578125000e+02,-4.902449798583984375e+01,-1.388321380615234375e+02
4.048539996147155762e-01,2.000000000000000000e+00,-1.864880681037902832e+00,-8.595364570617675781e+00,5.665972137451171875e+01,1.172417526245117188e+02,7.909863281250000000e+01,-1.755372467041015625e+02,1.094336166381835938e+02,-4.829670333862304688e+01,-1.819549102783203125e+02,1.961007843017578125e+02,-4.904730606079101562e+01,-1.388419036865234375e+02
4.062469899654388428e-01,2.000000000000000000e+00,-1.924562215805053711e+00,-8.553068161010742188e+00,5.663131713867187500e+01,1.172575988769531250e+02,7.910652160644531250e+01,-1.755286407470703125e+02,1.093913116455078125e+02,-4.828425216674804688e+01,-1.819456634521484375e+02,1.961106262207031250e+02,-4.905859756469726562e+01,-1.388475189208984375e+02
4.091910123825073242e-01,2.000000000000000000e+00,-1.924562215805053711e+00,-8.553068161010742188e+00,5.663131713867187500e+01,1.172575988769531250e+02,7.910652160644531250e+01,-1.755286407470703125e+02,1.093913116455078125e+02,-4.828425216674804688e+01,-1.819456634521484375e+02,1.961106262207031250e+02,-4.905859756469726562e+01,-1.388475189208984375e+02
4.170530140399932861e-01,2.000000000000000000e+00,-2.103520393371582031e+00,-8.426409721374511719e+00,5.654698181152343750e+01,1.173022689819335938e+02,7.913030242919921875e+01,-1.755032653808593750e+02,1.092665710449218750e+02,-4.824676132202148438e+01,-1.819181976318359375e+02,1.961390686035156250e+02,-4.909364318847656250e+01,-1.388636627197265625e+02
4.184260070323944092e-01,2.000000000000000000e+00,-2.103520393371582031e+00,-8.426409721374511719e+00,5.654698181152343750e+01,1.173022689819335938e+02,7.913030242919921875e+01,-1.755032653808593750e+02,1.092665710449218750e+02,-4.824676132202148438e+01,-1.819181976318359375e+02,1.961390686035156250e+02,-4.909364318847656250e+01,-1.388636627197265625e+02
4.208990037441253662e-01,2.000000000000000000e+00,-2.103520393371582031e+00,-8.426409721374511719e+00,5.654698181152343750e+01,1.173022689819335938e+02,7.913030242919921875e+01,-1.755032653808593750e+02,1.092665710449218750e+02,-4.824676132202148438e+01,-1.819181976318359375e+02,1.961390686035156250e+02,-4.909364318847656250e+01,-1.388636627197265625e+02
4.257670044898986816e-01,2.000000000000000000e+00,-2.163345575332641602e+00,-8.384363174438476562e+00,5.651864242553710938e+01,1.173172302246093750e+02,7.913845825195312500e+01,-1.754945983886718750e+02,1.092238845825195312e+02,-4.823463058471679688e+01,-1.819090728759765625e+02,1.961485443115234375e+02,-4.910486602783203125e+01,-1.388695983886718750e+02
4.296320080757141113e-01,2.000000000000000000e+00,-2.282737255096435547e+00,-8.299930572509765625e+00,5.646221923828125000e+01,1.173469390869140625e+02,7.915451049804687500e+01,-1.754778289794921875e+02,1.091395645141601562e+02,-4.820999908447265625e+01,-1.818907928466796875e+02,1.961679992675781250e+02,-4.912789154052734375e+01,-1.388798065185546875e+02
4.316720068454742432e-01,2.000000000000000000e+00,-2.282737255096435547e+00,-8.299930572509765625e+00,5.646221923828125000e+01,1.173469390869140625e+02,7.915451049804687500e+01,-1.754778289794921875e+02,1.091395645141601562e+02,-4.820999908447265625e+01,-1.818907928466796875e+02,1.961679992675781250e+02,-4.912789154052734375e+01,-1.388798065185546875e+02
4.356279969215393066e-01,2.000000000000000000e+00,-2.342590808868408203e+00,-8.257636070251464844e+00,5.643407821655273438e+01,1.173621139526367188e+02,7.916234588623046875e+01,-1.754694366455078125e+02,1.090975418090820312e+02,-4.819773101806640625e+01,-1.818816528320312500e+02,1.961779785156250000e+02,-4.913882064819335938e+01,-1.388850860595703125e+02
4.396919906139373779e-01,2.000000000000000000e+00,-2.402329683303833008e+00,-8.215565681457519531e+00,5.640597915649414062e+01,1.173776473999023438e+02,7.916997528076171875e+01,-1.754612884521484375e+02,1.090551834106445312e+02,-4.818541717529296875e+01,-1.818725128173828125e+02,1.961874542236328125e+02,-4.915018844604492188e+01,-1.388904571533203125e+02
4.436979889869689941e-01,2.000000000000000000e+00,-2.462212085723876953e+00,-8.173294067382812500e+00,5.637780380249023438e+01,1.173937149047851562e+02,7.917774963378906250e+01,-1.754535675048828125e+02,1.090133895874023438e+02,-4.817296981811523438e+01,-1.818634338378906250e+02,1.961970825195312500e+02,-4.916191864013671875e+01,-1.388954162597656250e+02
4.476270079612731934e-01,2.000000000000000000e+00,-2.522094488143920898e+00,-8.131224632263183594e+00,5.634970474243164062e+01,1.174091491699218750e+02,7.918537902832031250e+01,-1.754451446533203125e+02,1.089716949462890625e+02,-4.816042709350585938e+01,-1.818542327880859375e+02,1.962066192626953125e+02,-4.917299270629882812e+01,-1.389001312255859375e+02
4.541310071945190430e-01,2.000000000000000000e+00,-2.582005739212036133e+00,-8.089268684387207031e+00,5.632152557373046875e+01,1.174238510131835938e+02,7.919284057617187500e+01,-1.754372863769531250e+02,1.089299468994140625e+02,-4.814815521240234375e+01,-1.818455352783203125e+02,1.962161102294921875e+02,-4.918421173095703125e+01,-1.389049682617187500e+02
4.556210041046142578e-01,2.000000000000000000e+00,-2.642031669616699219e+00,-8.047267913818359375e+00,5.629354858398437500e+01,1.174383850097656250e+02,7.920030975341796875e+01,-1.754294281005859375e+02,1.088879776000976562e+02,-4.813593673706054688e+01,-1.818362426757812500e+02,1.962255249023437500e+02,-4.919528961181640625e+01,-1.389103546142578125e+02
4.586359858512878418e-01,2.000000000000000000e+00,-2.701741695404052734e+00,-8.005220413208007812e+00,5.626552963256835938e+01,1.174530792236328125e+02,7.920787811279296875e+01,-1.754213562011718750e+02,1.088455657958984375e+02,-4.812362289428710938e+01,-1.818272247314453125e+02,1.962350616455078125e+02,-4.920621490478515625e+01,-1.389156188964843750e+02
4.636780023574829102e-01,2.000000000000000000e+00,-2.701741695404052734e+00,-8.005220413208007812e+00,5.626552963256835938e+01,1.174530792236328125e+02,7.920787811279296875e+01,-1.754213562011718750e+02,1.088455657958984375e+02,-4.812362289428710938e+01,-1.818272247314453125e+02,1.962350616455078125e+02,-4.920621490478515625e+01,-1.389156188964843750e+02
4.677030146121978760e-01,2.000000000000000000e+00,-2.820961236953735352e+00,-7.921467304229736328e+00,5.620935440063476562e+01,1.174824218750000000e+02,7.922280883789062500e+01,-1.754055480957031250e+02,1.087604827880859375e+02,-4.809908294677734375e+01,-1.818083953857421875e+02,1.962546691894531250e+02,-4.922909927368164062e+01,-1.389248657226562500e+02
4.717850089073181152e-01,2.000000000000000000e+00,-2.880269527435302734e+00,-7.879624843597412109e+00,5.618143844604492188e+01,1.174973831176757812e+02,7.923027038574218750e+01,-1.753975372314453125e+02,1.087180175781250000e+02,-4.808672332763671875e+01,-1.817993621826171875e+02,1.962642211914062500e+02,-4.924024581909179688e+01,-1.389303588867187500e+02
4.756979942321777344e-01,2.000000000000000000e+00,-2.939635038375854492e+00,-7.837714672088623047e+00,5.615338134765625000e+01,1.175123977661132812e+02,7.923783874511718750e+01,-1.753896179199218750e+02,1.086759948730468750e+02,-4.807404327392578125e+01,-1.817903289794921875e+02,1.962736358642578125e+02,-4.925182723999023438e+01,-1.389354095458984375e+02
4.797759950160980225e-01,2.000000000000000000e+00,-2.999144315719604492e+00,-7.795849323272705078e+00,5.612511825561523438e+01,1.175282440185546875e+02,7.924573516845703125e+01,-1.753818817138671875e+02,1.086344680786132812e+02,-4.806113433837890625e+01,-1.817812500000000000e+02,1.962830963134765625e+02,-4.926363372802734375e+01,-1.389398956298828125e+02
4.837239980697631836e-01,2.000000000000000000e+00,-3.058280467987060547e+00,-7.754006385803222656e+00,5.609708023071289062e+01,1.175438385009765625e+02,7.925319671630859375e+01,-1.753740081787109375e+02,1.085928268432617188e+02,-4.804882431030273438e+01,-1.817724456787109375e+02,1.962928009033203125e+02,-4.927507019042968750e+01,-1.389448394775390625e+02
4.877800047397613525e-01,2.000000000000000000e+00,-3.117646217346191406e+00,-7.712209224700927734e+00,5.606914520263671875e+01,1.175588912963867188e+02,7.926097869873046875e+01,-1.753660125732421875e+02,1.085505828857421875e+02,-4.803678131103515625e+01,-1.817636871337890625e+02,1.963020629882812500e+02,-4.928614807128906250e+01,-1.389504394531250000e+02
4.916410148143768311e-01,2.000000000000000000e+00,-3.176954507827758789e+00,-7.670388698577880859e+00,5.604113006591796875e+01,1.175736999511718750e+02,7.926897430419921875e+01,-1.753578033447265625e+02,1.085085678100585938e+02,-4.802442169189453125e+01,-1.817546081542968750e+02,1.963113861083984375e+02,-4.929707717895507812e+01,-1.389558410644531250e+02
4.956260025501251221e-01,2.000000000000000000e+00,-3.236119031906127930e+00,-7.628591537475585938e+00,5.601300811767578125e+01,1.175882949829101562e+02,7.927697753906250000e+01,-1.753496093750000000e+02,1.084663772583007812e+02,-4.801206588745117188e+01,-1.817454681396484375e+02,1.963213043212890625e+02,-4.930873489379882812e+01,-1.389607696533203125e+02
4.996330142021179199e-01,2.000000000000000000e+00,-3.295427560806274414e+00,-7.586635112762451172e+00,5.598482894897460938e+01,1.176031951904296875e+02,7.928507995605468750e+01,-1.753415985107421875e+02,1.084240798950195312e+02,-4.799970626831054688e+01,-1.817364959716796875e+02,1.963307037353515625e+02,-4.932068252563476562e+01,-1.389656066894531250e+02
5.038539767265319824e-01,2.000000000000000000e+00,-3.354821920394897461e+00,-7.544883251190185547e+00,5.595687103271484375e+01,1.176177825927734375e+02,7.929286193847656250e+01,-1.753331909179687500e+02,1.083819503784179688e+02,-4.798734664916992188e+01,-1.817276306152343750e+02,1.963402709960937500e+02,-4.933182907104492188e+01,-1.389706573486328125e+02
5.076509714126586914e-01,2.000000000000000000e+00,-3.414129972457885742e+00,-7.503153324127197266e+00,5.592897796630859375e+01,1.176323852539062500e+02,7.930075836181640625e+01,-1.753249816894531250e+02,1.083398666381835938e+02,-4.797493743896484375e+01,-1.817187194824218750e+02,1.963498077392578125e+02,-4.934290695190429688e+01,-1.389766082763671875e+02
5.116689801216125488e-01,2.000000000000000000e+00,-3.473811626434326172e+00,-7.461197853088378906e+00,5.590091705322265625e+01,1.176475524902343750e+02,7.930847930908203125e+01,-1.753162994384765625e+02,1.082980651855468750e+02,-4.796221542358398438e+01,-1.817099609375000000e+02,1.963591461181640625e+02,-4.935456466674804688e+01,-1.389818725585937500e+02
5.156790018081665039e-01,2.000000000000000000e+00,-3.533521890640258789e+00,-7.419310092926025391e+00,5.587288284301757812e+01,1.176629333496093750e+02,7.931626892089843750e+01,-1.753082885742187500e+02,1.082565917968750000e+02,-4.794976425170898438e+01,-1.817009277343750000e+02,1.963688354492187500e+02,-4.936592864990234375e+01,-1.389868316650390625e+02
5.196300148963928223e-01,2.000000000000000000e+00,-3.593002319335937500e+00,-7.377558231353759766e+00,5.584496688842773438e+01,1.176787338256835938e+02,7.932362365722656250e+01,-1.753000183105468750e+02,1.082152862548828125e+02,-4.793763351440429688e+01,-1.816916809082031250e+02,1.963778839111328125e+02,-4.937678527832031250e+01,-1.389918670654296875e+02
5.236359834671020508e-01,2.000000000000000000e+00,-3.652511596679687500e+00,-7.335759639739990234e+00,5.581707000732421875e+01,1.176941757202148438e+02,7.933119964599609375e+01,-1.752918853759765625e+02,1.081734313964843750e+02,-4.792559432983398438e+01,-1.816828155517578125e+02,1.963873596191406250e+02,-4.938779067993164062e+01,-1.389970245361328125e+02
5.301480293273925781e-01,2.000000000000000000e+00,-3.711877346038818359e+00,-7.293826580047607422e+00,5.578897094726562500e+01,1.177090225219726562e+02,7.933882141113281250e+01,-1.752836151123046875e+02,1.081316223144531250e+02,-4.791318511962890625e+01,-1.816736755371093750e+02,1.963972015380859375e+02,-4.939937591552734375e+01,-1.390019683837890625e+02
5.316069722175598145e-01,2.000000000000000000e+00,-3.771386384963989258e+00,-7.252097606658935547e+00,5.576097488403320312e+01,1.177235031127929688e+02,7.934634399414062500e+01,-1.752758178710937500e+02,1.080893325805664062e+02,-4.790096282958984375e+01,-1.816645965576171875e+02,1.964069061279296875e+02,-4.941117858886718750e+01,-1.390065917968750000e+02
5.356299877166748047e-01,2.000000000000000000e+00,-3.830752134323120117e+00,-7.210254192352294922e+00,5.573322296142578125e+01,1.177378311157226562e+02,7.935385894775390625e+01,-1.752679443359375000e+02,1.080468139648437500e+02,-4.788879013061523438e+01,-1.816557769775390625e+02,1.964160766601562500e+02,-4.942254638671875000e+01,-1.390117492675781250e+02
5.397149920463562012e-01,2.000000000000000000e+00,-3.889974117279052734e+00,-7.168502330780029297e+00,5.570536804199218750e+01,1.177525863647460938e+02,7.936116790771484375e+01,-1.752601470947265625e+02,1.080046768188476562e+02,-4.787633895874023438e+01,-1.816466979980468750e+02,1.964257049560546875e+02,-4.943310928344726562e+01,-1.390170288085937500e+02
5.436530113220214844e-01,2.000000000000000000e+00,-3.949282407760620117e+00,-7.127044200897216797e+00,5.567745208740234375e+01,1.177674331665039062e+02,7.936884307861328125e+01,-1.752523498535156250e+02,1.079628219604492188e+02,-4.786375045776367188e+01,-1.816377258300781250e+02,1.964352569580078125e+02,-4.944433212280273438e+01,-1.390216522216796875e+02
5.476189851760864258e-01,2.000000000000000000e+00,-4.008591175079345703e+00,-7.085178852081298828e+00,5.564933395385742188e+01,1.177819824218750000e+02,7.937635803222656250e+01,-1.752444915771484375e+02,1.079212951660156250e+02,-4.785143661499023438e+01,-1.816287536621093750e+02,1.964448089599609375e+02,-4.945562362670898438e+01,-1.390264739990234375e+02
5.553740262985229492e-01,2.000000000000000000e+00,-4.008591175079345703e+00,-7.085178852081298828e+00,5.564933395385742188e+01,1.177819824218750000e+02,7.937635803222656250e+01,-1.752444915771484375e+02,1.078800354003906250e+02,-4.783948516845703125e+01,-1.816194458007812500e+02,1.964540710449218750e+02,-4.946662902832031250e+01,-1.390314331054687500e+02
5.579559803009033203e-01,2.000000000000000000e+00,-4.127006530761718750e+00,-7.001697540283203125e+00,5.559372711181640625e+01,1.178124694824218750e+02,7.939166259765625000e+01,-1.752287445068359375e+02,1.078386230468750000e+02,-4.782763290405273438e+01,-1.816107482910156250e+02,1.964634094238281250e+02,-4.947872161865234375e+01,-1.390363769531250000e+02
5.594329833984375000e-01,2.000000000000000000e+00,-4.186285972595214844e+00,-6.960035324096679688e+00,5.556595230102539062e+01,1.178280181884765625e+02,7.939939117431640625e+01,-1.752209472656250000e+02,1.077968673706054688e+02,-4.781541061401367188e+01,-1.816011810302734375e+02,1.964730377197265625e+02,-4.949037933349609375e+01,-1.390411987304687500e+02
5.636439919471740723e-01,2.000000000000000000e+00,-4.245364665985107422e+00,-6.918351173400878906e+00,5.553801727294921875e+01,1.178432388305664062e+02,7.940711975097656250e+01,-1.752133483886718750e+02,1.077548446655273438e+02,-4.780337142944335938e+01,-1.815923156738281250e+02,1.964824371337890625e+02,-4.950152587890625000e+01,-1.390454864501953125e+02
5.686380267143249512e-01,2.000000000000000000e+00,-4.304443359375000000e+00,-6.876893043518066406e+00,5.551020431518554688e+01,1.178579330444335938e+02,7.941506195068359375e+01,-1.752057647705078125e+02,1.077127151489257812e+02,-4.779137802124023438e+01,-1.815830688476562500e+02,1.964917755126953125e+02,-4.951296615600585938e+01,-1.390500946044921875e+02
5.720490217208862305e-01,2.000000000000000000e+00,-4.363464832305908203e+00,-6.835277080535888672e+00,5.548247146606445312e+01,1.178725814819335938e+02,7.942305755615234375e+01,-1.751976928710937500e+02,1.076709671020507812e+02,-4.777901840209960938e+01,-1.815739898681640625e+02,1.965011749267578125e+02,-4.952411270141601562e+01,-1.390553741455078125e+02
5.756260156631469727e-01,2.000000000000000000e+00,-4.422715187072753906e+00,-6.793570041656494141e+00,5.545457458496093750e+01,1.178871154785156250e+02,7.943122100830078125e+01,-1.751896820068359375e+02,1.076290588378906250e+02,-4.776660919189453125e+01,-1.815650024414062500e+02,1.965106506347656250e+02,-4.953526306152343750e+01,-1.390603179931640625e+02
5.806789994239807129e-01,2.000000000000000000e+00,-4.422715187072753906e+00,-6.793570041656494141e+00,5.545457458496093750e+01,1.178871154785156250e+02,7.943122100830078125e+01,-1.751896820068359375e+02,1.076290588378906250e+02,-4.776660919189453125e+01,-1.815650024414062500e+02,1.965106506347656250e+02,-4.953526306152343750e+01,-1.390603179931640625e+02
5.834519863128662109e-01,2.000000000000000000e+00,-4.540873050689697266e+00,-6.710563182830810547e+00,5.539886474609375000e+01,1.179162368774414062e+02,7.944699859619140625e+01,-1.751740875244140625e+02,1.075456695556640625e+02,-4.774244308471679688e+01,-1.815469512939453125e+02,1.965295410156250000e+02,-4.955850601196289062e+01,-1.390694274902343750e+02
5.876849889755249023e-01,2.000000000000000000e+00,-4.540873050689697266e+00,-6.710563182830810547e+00,5.539886474609375000e+01,1.179162368774414062e+02,7.944699859619140625e+01,-1.751740875244140625e+02,1.075456695556640625e+02,-4.774244308471679688e+01,-1.815469512939453125e+02,1.965295410156250000e+02,-4.955850601196289062e+01,-1.390694274902343750e+02
5.926669836044311523e-01,2.000000000000000000e+00,-4.599750518798828125e+00,-6.668879032135009766e+00,5.537111663818359375e+01,1.179311523437500000e+02,7.945452117919921875e+01,-1.751660156250000000e+02,1.075041427612304688e+02,-4.773031234741210938e+01,-1.815378112792968750e+02,1.965387420654296875e+02,-4.957016372680664062e+01,-1.390744781494140625e+02
5.962839722633361816e-01,2.000000000000000000e+00,-4.717649459838867188e+00,-6.585849761962890625e+00,5.531546401977539062e+01,1.179616470336914062e+02,7.946992492675781250e+01,-1.751492614746093750e+02,1.074201507568359375e+02,-4.770581817626953125e+01,-1.815196533203125000e+02,1.965579071044921875e+02,-4.959231185913085938e+01,-1.390842590332031250e+02
5.996440052986145020e-01,2.000000000000000000e+00,-4.776239871978759766e+00,-6.544188499450683594e+00,5.528757095336914062e+01,1.179770812988281250e+02,7.947749328613281250e+01,-1.751412658691406250e+02,1.073780212402343750e+02,-4.769359588623046875e+01,-1.815107879638671875e+02,1.965672302246093750e+02,-4.960353469848632812e+01,-1.390887756347656250e+02
6.039339900016784668e-01,2.000000000000000000e+00,-4.776239871978759766e+00,-6.544188499450683594e+00,5.528757095336914062e+01,1.179770812988281250e+02,7.947749328613281250e+01,-1.751412658691406250e+02,1.073780212402343750e+02,-4.769359588623046875e+01,-1.815107879638671875e+02,1.965672302246093750e+02,-4.960353469848632812e+01,-1.390887756347656250e+02
6.086480021476745605e-01,2.000000000000000000e+00,-4.835002422332763672e+00,-6.502685070037841797e+00,5.525985717773437500e+01,1.179919815063476562e+02,7.948480224609375000e+01,-1.751330566406250000e+02,1.073358840942382812e+02,-4.768119430541992188e+01,-1.815019836425781250e+02,1.965769348144531250e+02,-4.961504745483398438e+01,-1.390944824218750000e+02
6.123200058937072754e-01,2.000000000000000000e+00,-4.952183723449707031e+00,-6.419542312622070312e+00,5.520433044433593750e+01,1.180210113525390625e+02,7.949978637695312500e+01,-1.751166381835937500e+02,1.072521133422851562e+02,-4.765610885620117188e+01,-1.814840240478515625e+02,1.965960235595703125e+02,-4.963748931884765625e+01,-1.391044769287109375e+02
6.156650185585021973e-01,2.000000000000000000e+00,-5.011061668395996094e+00,-6.378107070922851562e+00,5.517662048339843750e+01,1.180352325439453125e+02,7.950724792480468750e+01,-1.751085815429687500e+02,1.072108001708984375e+02,-4.764402389526367188e+01,-1.814751129150390625e+02,1.966056518554687500e+02,-4.964878082275390625e+01,-1.391088867187500000e+02
6.197410225868225098e-01,2.000000000000000000e+00,-5.011061668395996094e+00,-6.378107070922851562e+00,5.517662048339843750e+01,1.180352325439453125e+02,7.950724792480468750e+01,-1.751085815429687500e+02,1.072108001708984375e+02,-4.764402389526367188e+01,-1.814751129150390625e+02,1.966056518554687500e+02,-4.964878082275390625e+01,-1.391088867187500000e+02
6.237149834632873535e-01,2.000000000000000000e+00,-5.069881916046142578e+00,-6.336626529693603516e+00,5.514884567260742188e+01,1.180499877929687500e+02,7.951450347900390625e+01,-1.751004333496093750e+02,1.071698303222656250e+02,-4.763180160522460938e+01,-1.814660186767578125e+02,1.966151428222656250e+02,-4.966022109985351562e+01,-1.391141510009765625e+02
6.288620233535766602e-01,2.000000000000000000e+00,-5.128702163696289062e+00,-6.295100688934326172e+00,5.512095260620117188e+01,1.180645217895507812e+02,7.952185821533203125e+01,-1.750925750732421875e+02,1.071283493041992188e+02,-4.761930465698242188e+01,-1.814570465087890625e+02,1.966244659423828125e+02,-4.967180633544921875e+01,-1.391193237304687500e+02
6.315889954566955566e-01,2.000000000000000000e+00,-5.246486186981201172e+00,-6.212162017822265625e+00,5.506550979614257812e+01,1.180948562622070312e+02,7.953705596923828125e+01,-1.750771789550781250e+02,1.070449142456054688e+02,-4.759486007690429688e+01,-1.814393768310546875e+02,1.966437835693359375e+02,-4.969322586059570312e+01,-1.391287536621093750e+02
6.356840133666992188e-01,2.000000000000000000e+00,-5.246486186981201172e+00,-6.212162017822265625e+00,5.506550979614257812e+01,1.180948562622070312e+02,7.953705596923828125e+01,-1.750771789550781250e+02,1.070449142456054688e+02,-4.759486007690429688e+01,-1.814393768310546875e+02,1.966437835693359375e+02,-4.969322586059570312e+01,-1.391287536621093750e+02
6.396780014038085938e-01,2.000000000000000000e+00,-5.305134296417236328e+00,-6.170636177062988281e+00,5.503785705566406250e+01,1.181103515625000000e+02,7.954457092285156250e+01,-1.750694427490234375e+02,1.070032730102539062e+02,-4.758240890502929688e+01,-1.814304046630859375e+02,1.966534881591796875e+02,-4.970481491088867188e+01,-1.391335906982421875e+02
6.437789797782897949e-01,2.000000000000000000e+00,-5.364212989807128906e+00,-6.129042148590087891e+00,5.501014328002929688e+01,1.181256256103515625e+02,7.955214691162109375e+01,-1.750616455078125000e+02,1.069615859985351562e+02,-4.756972885131835938e+01,-1.814214782714843750e+02,1.966631011962890625e+02,-4.971646881103515625e+01,-1.391386413574218750e+02
6.477460265159606934e-01,2.000000000000000000e+00,-5.423148155212402344e+00,-6.087719917297363281e+00,5.498226928710937500e+01,1.181404190063476562e+02,7.955986785888671875e+01,-1.750539093017578125e+02,1.069199371337890625e+02,-4.755736923217773438e+01,-1.814126739501953125e+02,1.966725769042968750e+02,-4.972798156738281250e+01,-1.391426086425781250e+02
6.516889929771423340e-01,2.000000000000000000e+00,-5.482341289520263672e+00,-6.046307086944580078e+00,5.495470046997070312e+01,1.181548538208007812e+02,7.956776428222656250e+01,-1.750463104248046875e+02,1.068786315917968750e+02,-4.754528045654296875e+01,-1.814034729003906250e+02,1.966816253662109375e+02,-4.973927688598632812e+01,-1.391472320556640625e+02
6.556259989738464355e-01,2.000000000000000000e+00,-5.600125312805175781e+00,-5.963572502136230469e+00,5.489947509765625000e+01,1.181839294433593750e+02,7.958332824707031250e+01,-1.750309143066406250e+02,1.067959594726562500e+02,-4.752120590209960938e+01,-1.813854675292968750e+02,1.967003021240234375e+02,-4.976150131225585938e+01,-1.391573181152343750e+02
6.596980094909667969e-01,2.000000000000000000e+00,-5.600125312805175781e+00,-5.963572502136230469e+00,5.489947509765625000e+01,1.181839294433593750e+02,7.958332824707031250e+01,-1.750309143066406250e+02,1.067959594726562500e+02,-4.752120590209960938e+01,-1.813854675292968750e+02,1.967003021240234375e+02,-4.976150131225585938e+01,-1.391573181152343750e+02
6.637099981307983398e-01,2.000000000000000000e+00,-5.658946037292480469e+00,-5.922272682189941406e+00,5.487182617187500000e+01,1.181985702514648438e+02,7.959111785888671875e+01,-1.750231933593750000e+02,1.067544860839843750e+02,-4.750912094116210938e+01,-1.813764953613281250e+02,1.967098541259765625e+02,-4.977220916748046875e+01,-1.391616058349609375e+02
6.677010059356689453e-01,2.000000000000000000e+00,-5.717565059661865234e+00,-5.880837440490722656e+00,5.484433746337890625e+01,1.182131195068359375e+02,7.959884643554687500e+01,-1.750157928466796875e+02,1.067134552001953125e+02,-4.749699020385742188e+01,-1.813674774169921875e+02,1.967191009521484375e+02,-4.978313827514648438e+01,-1.391658935546875000e+02
6.716870069503784180e-01,2.000000000000000000e+00,-5.776098251342773438e+00,-5.839582920074462891e+00,5.481678771972656250e+01,1.182279663085937500e+02,7.960641479492187500e+01,-1.750078582763671875e+02,1.066720962524414062e+02,-4.748485946655273438e+01,-1.813586730957031250e+02,1.967284393310546875e+02,-4.979443359375000000e+01,-1.391709594726562500e+02
6.757119894027709961e-01,2.000000000000000000e+00,-5.834918498992919922e+00,-5.798305988311767578e+00,5.478893280029296875e+01,1.182432403564453125e+02,7.961371612548828125e+01,-1.750001373291015625e+02,1.066302871704101562e+02,-4.747254562377929688e+01,-1.813495330810546875e+02,1.967381439208984375e+02,-4.980579757690429688e+01,-1.391762237548828125e+02
6.801440119743347168e-01,2.000000000000000000e+00,-5.893480300903320312e+00,-5.756983757019042969e+00,5.476134109497070312e+01,1.182589340209960938e+02,7.962145233154296875e+01,-1.749922790527343750e+02,1.065884857177734375e+02,-4.746022796630859375e+01,-1.813402252197265625e+02,1.967474060058593750e+02,-4.981738662719726562e+01,-1.391807250976562500e+02
6.839410066604614258e-01,2.000000000000000000e+00,-5.951984882354736328e+00,-5.715706825256347656e+00,5.473387527465820312e+01,1.182739486694335938e+02,7.962864685058593750e+01,-1.749844055175781250e+02,1.065470123291015625e+02,-4.744809722900390625e+01,-1.813310852050781250e+02,1.967564392089843750e+02,-4.982802200317382812e+01,-1.391852264404296875e+02
6.877980232238769531e-01,2.000000000000000000e+00,-6.010603904724121094e+00,-5.674520492553710938e+00,5.470630645751953125e+01,1.182886428833007812e+02,7.963584899902343750e+01,-1.749764099121093750e+02,1.065059204101562500e+02,-4.743615341186523438e+01,-1.813219451904296875e+02,1.967655029296875000e+02,-4.983909988403320312e+01,-1.391903839111328125e+02
6.916779875755310059e-01,2.000000000000000000e+00,-6.069252490997314453e+00,-5.633424282073974609e+00,5.467856979370117188e+01,1.183029174804687500e+02,7.964331054687500000e+01,-1.749681854248046875e+02,1.064651641845703125e+02,-4.742425155639648438e+01,-1.813129272460937500e+02,1.967747650146484375e+02,-4.985039138793945312e+01,-1.391958770751953125e+02
6.958670020103454590e-01,2.000000000000000000e+00,-6.127613544464111328e+00,-5.591989040374755859e+00,5.465082168579101562e+01,1.183172531127929688e+02,7.965119934082031250e+01,-1.749602508544921875e+02,1.064242401123046875e+02,-4.741202926635742188e+01,-1.813038940429687500e+02,1.967842407226562500e+02,-4.986182785034179688e+01,-1.392008209228515625e+02
6.996849775314331055e-01,2.000000000000000000e+00,-6.186203956604003906e+00,-5.550802707672119141e+00,5.462322998046875000e+01,1.183316726684570312e+02,7.965823364257812500e+01,-1.749521331787109375e+02,1.063829879760742188e+02,-4.740003585815429688e+01,-1.812947998046875000e+02,1.967935638427734375e+02,-4.987268447875976562e+01,-1.392058868408203125e+02
7.049480080604553223e-01,2.000000000000000000e+00,-6.244650840759277344e+00,-5.509548187255859375e+00,5.459582519531250000e+01,1.183460617065429688e+02,7.966527557373046875e+01,-1.749438476562500000e+02,1.063415679931640625e+02,-4.738804244995117188e+01,-1.812858886718750000e+02,1.968031158447265625e+02,-4.988376235961914062e+01,-1.392110443115234375e+02
7.084289789199829102e-01,2.000000000000000000e+00,-6.361860752105712891e+00,-5.427175521850585938e+00,5.454058074951171875e+01,1.183756637573242188e+02,7.968025970458984375e+01,-1.749277648925781250e+02,1.062581863403320312e+02,-4.736336517333984375e+01,-1.812682037353515625e+02,1.968219299316406250e+02,-4.990656661987304688e+01,-1.392214813232421875e+02
7.117859721183776855e-01,2.000000000000000000e+00,-6.361860752105712891e+00,-5.427175521850585938e+00,5.454058074951171875e+01,1.183756637573242188e+02,7.968025970458984375e+01,-1.749277648925781250e+02,1.062581863403320312e+02,-4.736336517333984375e+01,-1.812682037353515625e+02,1.968219299316406250e+02,-4.990656661987304688e+01,-1.392214813232421875e+02
7.156789898872375488e-01,2.000000000000000000e+00,-6.420508861541748047e+00,-5.386034011840820312e+00,5.451301193237304688e+01,1.183909912109375000e+02,7.968809509277343750e+01,-1.749199676513671875e+02,1.062163772583007812e+02,-4.735100936889648438e+01,-1.812592926025390625e+02,1.968307037353515625e+02,-4.991698837280273438e+01,-1.392261047363281250e+02
7.197459936141967773e-01,2.000000000000000000e+00,-6.479013442993164062e+00,-5.344711780548095703e+00,5.448554229736328125e+01,1.184064788818359375e+02,7.969561004638671875e+01,-1.749121856689453125e+02,1.061749038696289062e+02,-4.733914947509765625e+01,-1.812503204345703125e+02,1.968398742675781250e+02,-4.992762374877929688e+01,-1.392310485839843750e+02
7.236880064010620117e-01,2.000000000000000000e+00,-6.537345886230468750e+00,-5.303457736968994141e+00,5.445791244506835938e+01,1.184213867187500000e+02,7.970323944091796875e+01,-1.749041137695312500e+02,1.061335906982421875e+02,-4.732720565795898438e+01,-1.812411956787109375e+02,1.968491516113281250e+02,-4.993891906738281250e+01,-1.392365417480468750e+02
7.277200222015380859e-01,2.000000000000000000e+00,-6.595849990844726562e+00,-5.262429237365722656e+00,5.443032073974609375e+01,1.184356079101562500e+02,7.971112823486328125e+01,-1.748963775634765625e+02,1.060924453735351562e+02,-4.731493759155273438e+01,-1.812321014404296875e+02,1.968586273193359375e+02,-4.995014190673828125e+01,-1.392416992187500000e+02
7.328130006790161133e-01,2.000000000000000000e+00,-6.654067516326904297e+00,-5.221220493316650391e+00,5.440291595458984375e+01,1.184499359130859375e+02,7.971907043457031250e+01,-1.748891906738281250e+02,1.060100021362304688e+02,-4.729058456420898438e+01,-1.812142028808593750e+02,1.968770141601562500e+02,-4.997214508056640625e+01,-1.392508239746093750e+02
7.358620166778564453e-01,2.000000000000000000e+00,-6.712342262268066406e+00,-5.179988861083984375e+00,5.437548446655273438e+01,1.184644165039062500e+02,7.972691345214843750e+01,-1.748817291259765625e+02,1.060100021362304688e+02,-4.729058456420898438e+01,-1.812142028808593750e+02,1.968770141601562500e+02,-4.997214508056640625e+01,-1.392508239746093750e+02
7.397000193595886230e-01,2.000000000000000000e+00,-6.770961761474609375e+00,-5.138847351074218750e+00,5.434793472290039062e+01,1.184789657592773438e+02,7.973469543457031250e+01,-1.748737945556640625e+02,1.059683609008789062e+02,-4.727831268310546875e+01,-1.812054595947265625e+02,1.968866271972656250e+02,-4.998300170898437500e+01,-1.392559814453125000e+02
7.437270283699035645e-01,2.000000000000000000e+00,-6.829236507415771484e+00,-5.097774028778076172e+00,5.432018280029296875e+01,1.184933319091796875e+02,7.974227142333984375e+01,-1.748659362792968750e+02,1.059265594482421875e+02,-4.726577377319335938e+01,-1.811965332031250000e+02,1.968956756591796875e+02,-4.999334716796875000e+01,-1.392614746093750000e+02
7.479419708251953125e-01,2.000000000000000000e+00,-6.887626171112060547e+00,-5.056474685668945312e+00,5.429273605346679688e+01,1.185080337524414062e+02,7.975000000000000000e+01,-1.748583984375000000e+02,1.058849182128906250e+02,-4.725355148315429688e+01,-1.811877288818359375e+02,1.969046630859375000e+02,-5.000413131713867188e+01,-1.392660827636718750e+02
7.516689896583557129e-01,2.000000000000000000e+00,-6.945930004119873047e+00,-5.015401363372802734e+00,5.426544952392578125e+01,1.185231552124023438e+02,7.975751495361328125e+01,-1.748509521484375000e+02,1.058433914184570312e+02,-4.724146652221679688e+01,-1.811786956787109375e+02,1.969139251708984375e+02,-5.001462173461914062e+01,-1.392704772949218750e+02
7.578729987144470215e-01,2.000000000000000000e+00,-7.004319190979003906e+00,-4.974373340606689453e+00,5.423808670043945312e+01,1.185385360717773438e+02,7.976470947265625000e+01,-1.748432159423828125e+02,1.058021392822265625e+02,-4.722937774658203125e+01,-1.811698760986328125e+02,1.969232482910156250e+02,-5.002555084228515625e+01,-1.392753143310546875e+02
7.604339718818664551e-01,2.000000000000000000e+00,-7.121328353881835938e+00,-4.892362594604492188e+00,5.418310546875000000e+01,1.185683975219726562e+02,7.977926635742187500e+01,-1.748279571533203125e+02,1.057204589843750000e+02,-4.720525360107421875e+01,-1.811517181396484375e+02,1.969417724609375000e+02,-5.004850387573242188e+01,-1.392846679687500000e+02
7.638059854507446289e-01,2.000000000000000000e+00,-7.121328353881835938e+00,-4.892362594604492188e+00,5.418310546875000000e+01,1.185683975219726562e+02,7.977926635742187500e+01,-1.748279571533203125e+02,1.057204589843750000e+02,-4.720525360107421875e+01,-1.811517181396484375e+02,1.969417724609375000e+02,-5.004850387573242188e+01,-1.392846679687500000e+02
7.677850127220153809e-01,2.000000000000000000e+00,-7.179603099822998047e+00,-4.851311683654785156e+00,5.415571975708007812e+01,1.185827789306640625e+02,7.978673553466796875e+01,-1.748202209472656250e+02,1.056792526245117188e+02,-4.719326019287109375e+01,-1.811433868408203125e+02,1.969512481689453125e+02,-5.005913925170898438e+01,-1.392891540527343750e+02
7.718690037727355957e-01,2.000000000000000000e+00,-7.238193988800048828e+00,-4.810193061828613281e+00,5.412833404541015625e+01,1.185969467163085938e+02,7.979387664794921875e+01,-1.748122863769531250e+02,1.056376724243164062e+02,-4.718108749389648438e+01,-1.811344757080078125e+02,1.969607391357421875e+02,-5.006985473632812500e+01,-1.392943267822265625e+02
7.766330242156982422e-01,2.000000000000000000e+00,-7.296497344970703125e+00,-4.769074440002441406e+00,5.410090637207031250e+01,1.186115875244140625e+02,7.980123138427734375e+01,-1.748046875000000000e+02,1.055547256469726562e+02,-4.715663909912109375e+01,-1.811167449951171875e+02,1.969793395996093750e+02,-5.009105300903320312e+01,-1.393029022216796875e+02
7.806869745254516602e-01,2.000000000000000000e+00,-7.354772567749023438e+00,-4.728227615356445312e+00,5.407353973388671875e+01,1.186259231567382812e+02,7.980885314941406250e+01,-1.747966918945312500e+02,1.055547256469726562e+02,-4.715663909912109375e+01,-1.811167449951171875e+02,1.969793395996093750e+02,-5.009105300903320312e+01,-1.393029022216796875e+02
7.850840091705322266e-01,2.000000000000000000e+00,-7.471149444580078125e+00,-4.646080970764160156e+00,5.401876449584960938e+01,1.186549530029296875e+02,7.982325744628906250e+01,-1.747807464599609375e+02,1.054727096557617188e+02,-4.713279342651367188e+01,-1.810984039306640625e+02,1.969976501464843750e+02,-5.011386108398437500e+01,-1.393135528564453125e+02
7.878760099411010742e-01,2.000000000000000000e+00,-7.471149444580078125e+00,-4.646080970764160156e+00,5.401876449584960938e+01,1.186549530029296875e+02,7.982325744628906250e+01,-1.747807464599609375e+02,1.054727096557617188e+02,-4.713279342651367188e+01,-1.810984039306640625e+02,1.969976501464843750e+02,-5.011386108398437500e+01,-1.393135528564453125e+02
7.919409871101379395e-01,2.000000000000000000e+00,-7.529195308685302734e+00,-4.605121135711669922e+00,5.399121475219726562e+01,1.186699447631835938e+02,7.983045196533203125e+01,-1.747724151611328125e+02,1.054315109252929688e+02,-4.712070846557617188e+01,-1.810893402099609375e+02,1.970071258544921875e+02,-5.012522506713867188e+01,-1.393184967041015625e+02
7.962489724159240723e-01,2.000000000000000000e+00,-7.587009906768798828e+00,-4.564093112945556641e+00,5.396360397338867188e+01,1.186854400634765625e+02,7.983828735351562500e+01,-1.747645416259765625e+02,1.053908615112304688e+02,-4.710871505737304688e+01,-1.810803680419921875e+02,1.970163879394531250e+02,-5.013600921630859375e+01,-1.393232269287109375e+02
7.999500036239624023e-01,2.000000000000000000e+00,-7.644825935363769531e+00,-4.523245811462402344e+00,5.393642044067382812e+01,1.187006149291992188e+02,7.984596252441406250e+01,-1.747566833496093750e+02,1.053501052856445312e+02,-4.709685516357421875e+01,-1.810716705322265625e+02,1.970258636474609375e+02,-5.014723205566406250e+01,-1.393281555175781250e+02
8.048869967460632324e-01,2.000000000000000000e+00,-7.702871322631835938e+00,-4.482263088226318359e+00,5.390901565551757812e+01,1.187152023315429688e+02,7.985363769531250000e+01,-1.747486724853515625e+02,1.053091278076171875e+02,-4.708477401733398438e+01,-1.810630645751953125e+02,1.970352020263671875e+02,-5.015787124633789062e+01,-1.393332061767578125e+02
8.092569708824157715e-01,2.000000000000000000e+00,-7.760629177093505859e+00,-4.441257476806640625e+00,5.388170623779296875e+01,1.187295379638671875e+02,7.986126708984375000e+01,-1.747403869628906250e+02,1.052680358886718750e+02,-4.707259368896484375e+01,-1.810542602539062500e+02,1.970444641113281250e+02,-5.016843414306640625e+01,-1.393381500244140625e+02
8.121269941329956055e-01,2.000000000000000000e+00,-7.818559646606445312e+00,-4.400274753570556641e+00,5.385432052612304688e+01,1.187436981201171875e+02,7.986899566650390625e+01,-1.747324676513671875e+02,1.052269439697265625e+02,-4.706027984619140625e+01,-1.810453948974609375e+02,1.970538024902343750e+02,-5.017987442016601562e+01,-1.393424377441406250e+02
8.146860003471374512e-01,2.000000000000000000e+00,-7.876546859741210938e+00,-4.359292030334472656e+00,5.382677078247070312e+01,1.187581253051757812e+02,7.987683868408203125e+01,-1.747248687744140625e+02,1.051856384277343750e+02,-4.704837799072265625e+01,-1.810364227294921875e+02,1.970629882812500000e+02,-5.019138717651367188e+01,-1.393472747802734375e+02
8.200749754905700684e-01,2.000000000000000000e+00,-7.934449195861816406e+00,-4.318399906158447266e+00,5.379936599731445312e+01,1.187724533081054688e+02,7.988462066650390625e+01,-1.747172851562500000e+02,1.051442718505859375e+02,-4.703652572631835938e+01,-1.810274963378906250e+02,1.970724639892578125e+02,-5.020253372192382812e+01,-1.393527679443359375e+02
8.226069808006286621e-01,2.000000000000000000e+00,-7.992264747619628906e+00,-4.277553081512451172e+00,5.377205657958984375e+01,1.187869873046875000e+02,7.989203643798828125e+01,-1.747094726562500000e+02,1.051033020019531250e+02,-4.702439498901367188e+01,-1.810185241699218750e+02,1.970819396972656250e+02,-5.021346282958984375e+01,-1.393576049804687500e+02
8.290550112724304199e-01,2.000000000000000000e+00,-8.050223350524902344e+00,-4.236615180969238281e+00,5.374487304687500000e+01,1.188019638061523438e+02,7.989949035644531250e+01,-1.747016143798828125e+02,1.050625915527343750e+02,-4.701221466064453125e+01,-1.810094909667968750e+02,1.970910644531250000e+02,-5.022461318969726562e+01,-1.393622283935546875e+02
8.306149840354919434e-01,2.000000000000000000e+00,-8.108153343200683594e+00,-4.195790767669677734e+00,5.371752929687500000e+01,1.188169174194335938e+02,7.990685272216796875e+01,-1.746940765380859375e+02,1.050220565795898438e+02,-4.700017929077148438e+01,-1.810007934570312500e+02,1.971006164550781250e+02,-5.023604965209960938e+01,-1.393669433593750000e+02
8.362929821014404297e-01,2.000000000000000000e+00,-8.166228294372558594e+00,-4.155147552490234375e+00,5.369022369384765625e+01,1.188322982788085938e+02,7.991410064697265625e+01,-1.746866912841796875e+02,1.049812393188476562e+02,-4.698809051513671875e+01,-1.809918670654296875e+02,1.971098785400390625e+02,-5.024683380126953125e+01,-1.393718872070312500e+02
8.402910232543945312e-01,2.000000000000000000e+00,-8.224358558654785156e+00,-4.114164829254150391e+00,5.366277694702148438e+01,1.188472061157226562e+02,7.992167663574218750e+01,-1.746790313720703125e+02,1.049402008056640625e+02,-4.697591781616210938e+01,-1.809831237792968750e+02,1.971191406250000000e+02,-5.025790786743164062e+01,-1.393766021728515625e+02
8.445969820022583008e-01,2.000000000000000000e+00,-8.282432556152343750e+00,-4.073272705078125000e+00,5.363550949096679688e+01,1.188619613647460938e+02,7.992887878417968750e+01,-1.746714324951171875e+02,1.048992309570312500e+02,-4.696360397338867188e+01,-1.809744720458984375e+02,1.971287536621093750e+02,-5.026905441284179688e+01,-1.393815612792968750e+02
8.483110070228576660e-01,2.000000000000000000e+00,-8.340392112731933594e+00,-4.032448291778564453e+00,5.360834503173828125e+01,1.188759613037109375e+02,7.993644714355468750e+01,-1.746637725830078125e+02,1.048582992553710938e+02,-4.695151519775390625e+01,-1.809658203125000000e+02,1.971380310058593750e+02,-5.028027725219726562e+01,-1.393863830566406250e+02
8.533509969711303711e-01,2.000000000000000000e+00,-8.398236274719238281e+00,-3.991691589355468750e+00,5.358108139038085938e+01,1.188900833129882812e+02,7.994364166259765625e+01,-1.746561126708984375e+02,1.048171005249023438e+02,-4.693970870971679688e+01,-1.809567871093750000e+02,1.971472167968750000e+02,-5.029128265380859375e+01,-1.393906860351562500e+02
8.563309907913208008e-01,2.000000000000000000e+00,-8.456194877624511719e+00,-3.950799226760864258e+00,5.355389785766601562e+01,1.189045104980468750e+02,7.995084381103515625e+01,-1.746486968994140625e+02,1.047760696411132812e+02,-4.692780685424804688e+01,-1.809478759765625000e+02,1.971565551757812500e+02,-5.030213546752929688e+01,-1.393950653076171875e+02
8.606680035591125488e-01,2.000000000000000000e+00,-8.513981819152832031e+00,-3.910133600234985352e+00,5.352659225463867188e+01,1.189187850952148438e+02,7.995819854736328125e+01,-1.746412506103515625e+02,1.047349853515625000e+02,-4.691562652587890625e+01,-1.809386291503906250e+02,1.971658782958984375e+02,-5.031328582763671875e+01,-1.393996887207031250e+02
8.644059896469116211e-01,2.000000000000000000e+00,-8.571884155273437500e+00,-3.869286298751831055e+00,5.349943161010742188e+01,1.189331665039062500e+02,7.996560668945312500e+01,-1.746334381103515625e+02,1.046942214965820312e+02,-4.690372467041015625e+01,-1.809298706054687500e+02,1.971753692626953125e+02,-5.032421112060546875e+01,-1.394040832519531250e+02
8.686010241508483887e-01,2.000000000000000000e+00,-8.629612922668457031e+00,-3.828394174575805664e+00,5.347218704223632812e+01,1.189478149414062500e+02,7.997302246093750000e+01,-1.746255187988281250e+02,1.046536254882812500e+02,-4.689182281494140625e+01,-1.809211120605468750e+02,1.971846313476562500e+02,-5.033514022827148438e+01,-1.394089202880859375e+02
8.725709915161132812e-01,2.000000000000000000e+00,-8.687542915344238281e+00,-3.787818431854248047e+00,5.344479751586914062e+01,1.189629745483398438e+02,7.998052978515625000e+01,-1.746176605224609375e+02,1.046129760742187500e+02,-4.687982940673828125e+01,-1.809125823974609375e+02,1.971940460205078125e+02,-5.034556198120117188e+01,-1.394132995605468750e+02
8.775460124015808105e-01,2.000000000000000000e+00,-8.745272636413574219e+00,-3.747017145156860352e+00,5.341769409179687500e+01,1.189783554077148438e+02,7.998815917968750000e+01,-1.746100616455078125e+02,1.045721130371093750e+02,-4.686756515502929688e+01,-1.809038696289062500e+02,1.972032165527343750e+02,-5.035634613037109375e+01,-1.394181365966796875e+02
8.806859850883483887e-01,2.000000000000000000e+00,-8.803404808044433594e+00,-3.706079483032226562e+00,5.339063262939453125e+01,1.189933166503906250e+02,7.999589538574218750e+01,-1.746018524169921875e+02,1.045311813354492188e+02,-4.685556793212890625e+01,-1.808952331542968750e+02,1.972124938964843750e+02,-5.036814880371093750e+01,-1.394229736328125000e+02
8.849729895591735840e-01,2.000000000000000000e+00,-8.860989570617675781e+00,-3.665526390075683594e+00,5.336339187622070312e+01,1.190075912475585938e+02,8.000357055664062500e+01,-1.745937805175781250e+02,1.044898757934570312e+02,-4.684376144409179688e+01,-1.808863677978515625e+02,1.972217559814453125e+02,-5.037937164306640625e+01,-1.394277038574218750e+02
8.887289762496948242e-01,2.000000000000000000e+00,-8.918949127197265625e+00,-3.624838113784790039e+00,5.333598327636718750e+01,1.190218124389648438e+02,8.001140594482421875e+01,-1.745857086181640625e+02,1.044485092163085938e+02,-4.683199691772460938e+01,-1.808773803710937500e+02,1.972311553955078125e+02,-5.038993453979492188e+01,-1.394325408935546875e+02
8.930199742317199707e-01,2.000000000000000000e+00,-8.976764678955078125e+00,-3.583968400955200195e+00,5.330867767333984375e+01,1.190359954833984375e+02,8.001913452148437500e+01,-1.745776367187500000e+02,1.044071502685546875e+02,-4.682004928588867188e+01,-1.808680877685546875e+02,1.972399902343750000e+02,-5.040035247802734375e+01,-1.394372558593750000e+02
8.946490287780761719e-01,2.000000000000000000e+00,-9.034293174743652344e+00,-3.543302297592163086e+00,5.328161621093750000e+01,1.190504150390625000e+02,8.002696990966796875e+01,-1.745696411132812500e+02,1.043662261962890625e+02,-4.680809783935546875e+01,-1.808593750000000000e+02,1.972494659423828125e+02,-5.041113662719726562e+01,-1.394428558349609375e+02
9.017750024795532227e-01,2.000000000000000000e+00,-9.092022895812988281e+00,-3.502727031707763672e+00,5.325457382202148438e+01,1.190645446777343750e+02,8.003459930419921875e+01,-1.745616302490234375e+02,1.043256301879882812e+02,-4.679624176025390625e+01,-1.808504638671875000e+02,1.972586669921875000e+02,-5.042235946655273438e+01,-1.394479217529296875e+02
9.048579931259155273e-01,2.000000000000000000e+00,-9.150125503540039062e+00,-3.462015628814697266e+00,5.322728729248046875e+01,1.190790786743164062e+02,8.004184722900390625e+01,-1.745536956787109375e+02,1.042852020263671875e+02,-4.678424835205078125e+01,-1.808417053222656250e+02,1.972676391601562500e+02,-5.043365478515625000e+01,-1.394530792236328125e+02
9.100049734115600586e-01,2.000000000000000000e+00,-9.207855224609375000e+00,-3.421349763870239258e+00,5.320004272460937500e+01,1.190937728881835938e+02,8.004930877685546875e+01,-1.745457611083984375e+02,1.042445526123046875e+02,-4.677220916748046875e+01,-1.808330535888671875e+02,1.972770385742187500e+02,-5.044443511962890625e+01,-1.394577026367187500e+02
9.128839969635009766e-01,2.000000000000000000e+00,-9.265612602233886719e+00,-3.380774497985839844e+00,5.317290115356445312e+01,1.191091995239257812e+02,8.005672454833984375e+01,-1.745381011962890625e+02,1.042036819458007812e+02,-4.676012802124023438e+01,-1.808243560791015625e+02,1.972862396240234375e+02,-5.045521926879882812e+01,-1.394625244140625000e+02
9.168559908866882324e-01,2.000000000000000000e+00,-9.323199272155761719e+00,-3.340176105499267578e+00,5.314588165283203125e+01,1.191243743896484375e+02,8.006386566162109375e+01,-1.745302886962890625e+02,1.041628112792968750e+02,-4.674822235107421875e+01,-1.808154907226562500e+02,1.972953643798828125e+02,-5.046636581420898438e+01,-1.394680175781250000e+02
9.206439852714538574e-01,2.000000000000000000e+00,-9.380756378173828125e+00,-3.299532890319824219e+00,5.311855316162109375e+01,1.191391677856445312e+02,8.007138824462890625e+01,-1.745228424072265625e+02,1.041219482421875000e+02,-4.673669052124023438e+01,-1.808065643310546875e+02,1.973043975830078125e+02,-5.047693252563476562e+01,-1.394728393554687500e+02
9.236130118370056152e-01,2.000000000000000000e+00,-9.438398361206054688e+00,-3.259025335311889648e+00,5.309143066406250000e+01,1.191534957885742188e+02,8.007847595214843750e+01,-1.745153045654296875e+02,1.040812377929687500e+02,-4.672506332397460938e+01,-1.807977600097656250e+02,1.973132324218750000e+02,-5.048793411254882812e+01,-1.394780120849609375e+02
9.276210069656372070e-01,2.000000000000000000e+00,-9.495783805847167969e+00,-3.218336820602416992e+00,5.306441116333007812e+01,1.191674041748046875e+02,8.008562469482421875e+01,-1.745075836181640625e+02,1.040403213500976562e+02,-4.671297454833984375e+01,-1.807887268066406250e+02,1.973222808837890625e+02,-5.049908447265625000e+01,-1.394825134277343750e+02
9.317039847373962402e-01,2.000000000000000000e+00,-9.553340911865234375e+00,-3.177693367004394531e+00,5.303736877441406250e+01,1.191816787719726562e+02,8.009287261962890625e+01,-1.744998474121093750e+02,1.039995040893554688e+02,-4.670121002197265625e+01,-1.807798614501953125e+02,1.973316192626953125e+02,-5.051015853881835938e+01,-1.394878997802734375e+02
9.376310110092163086e-01,2.000000000000000000e+00,-9.668369293212890625e+00,-3.096565008163452148e+00,5.298287963867187500e+01,1.192100830078125000e+02,8.010769653320312500e+01,-1.744849243164062500e+02,1.039180908203125000e+02,-4.667754364013671875e+01,-1.807623443603515625e+02,1.973502807617187500e+02,-5.053325271606445312e+01,-1.394969177246093750e+02
9.396209716796875000e-01,2.000000000000000000e+00,-9.668369293212890625e+00,-3.096565008163452148e+00,5.298287963867187500e+01,1.192100830078125000e+02,8.010769653320312500e+01,-1.744849243164062500e+02,1.039180908203125000e+02,-4.667754364013671875e+01,-1.807623443603515625e+02,1.973502807617187500e+02,-5.053325271606445312e+01,-1.394969177246093750e+02
9.426190257072448730e-01,2.000000000000000000e+00,-9.725811004638671875e+00,-3.056170701980590820e+00,5.295584106445312500e+01,1.192246704101562500e+02,8.011467742919921875e+01,-1.744773406982421875e+02,1.038776092529296875e+02,-4.666541290283203125e+01,-1.807538146972656250e+02,1.973593902587890625e+02,-5.054404067993164062e+01,-1.395012969970703125e+02
9.500160217285156250e-01,2.000000000000000000e+00,-9.725811004638671875e+00,-3.056170701980590820e+00,5.295584106445312500e+01,1.192246704101562500e+02,8.011467742919921875e+01,-1.744773406982421875e+02,1.038776092529296875e+02,-4.666541290283203125e+01,-1.807538146972656250e+02,1.973593902587890625e+02,-5.054404067993164062e+01,-1.395012969970703125e+02
9.516209959983825684e-01,2.000000000000000000e+00,-9.840810775756835938e+00,-2.974951982498168945e+00,5.290187835693359375e+01,1.192543640136718750e+02,8.012982177734375000e+01,-1.744618682861328125e+02,1.037958755493164062e+02,-4.664165878295898438e+01,-1.807359771728515625e+02,1.973778533935546875e+02,-5.056553268432617188e+01,-1.395114135742187500e+02
9.556109905242919922e-01,2.000000000000000000e+00,-9.898282051086425781e+00,-2.934444427490234375e+00,5.287473678588867188e+01,1.192693786621093750e+02,8.013739776611328125e+01,-1.744542694091796875e+02,1.037549972534179688e+02,-4.662989425659179688e+01,-1.807271118164062500e+02,1.973869171142578125e+02,-5.057733535766601562e+01,-1.395162506103515625e+02
9.620400071144104004e-01,2.000000000000000000e+00,-9.955810546875000000e+00,-2.893914222717285156e+00,5.284775543212890625e+01,1.192840805053710938e+02,8.014490509033203125e+01,-1.744466857910156250e+02,1.037141265869140625e+02,-4.661808013916015625e+01,-1.807182464599609375e+02,1.973959503173828125e+02,-5.058870315551757812e+01,-1.395207519531250000e+02
9.634339809417724609e-01,2.000000000000000000e+00,-1.001342582702636719e+01,-2.853406667709350586e+00,5.282071304321289062e+01,1.192982559204101562e+02,8.015258789062500000e+01,-1.744389495849609375e+02,1.036730422973632812e+02,-4.660594940185546875e+01,-1.807091064453125000e+02,1.974050750732421875e+02,-5.059984970092773438e+01,-1.395254821777343750e+02
9.676790237426757812e-01,2.000000000000000000e+00,-1.007124042510986328e+01,-2.813102722167968750e+00,5.279367065429687500e+01,1.193124237060546875e+02,8.016048431396484375e+01,-1.744310760498046875e+02,1.036323394775390625e+02,-4.659404754638671875e+01,-1.807002410888671875e+02,1.974142608642578125e+02,-5.061100006103515625e+01,-1.395302124023437500e+02
9.716470241546630859e-01,2.000000000000000000e+00,-1.012882614135742188e+01,-2.772595167160034180e+00,5.276659011840820312e+01,1.193265380859375000e+02,8.016820526123046875e+01,-1.744229583740234375e+02,1.035923461914062500e+02,-4.658219528198242188e+01,-1.806916961669921875e+02,1.974234466552734375e+02,-5.062221908569335938e+01,-1.395350341796875000e+02
9.756199717521667480e-01,2.000000000000000000e+00,-1.018632698059082031e+01,-2.732223510742187500e+00,5.273965072631835938e+01,1.193406982421875000e+02,8.017578125000000000e+01,-1.744150848388671875e+02,1.035523529052734375e+02,-4.657011032104492188e+01,-1.806829986572265625e+02,1.974328002929687500e+02,-5.063263702392578125e+01,-1.395395355224609375e+02
9.797639846801757812e-01,2.000000000000000000e+00,-1.024368190765380859e+01,-2.691851615905761719e+00,5.271277236938476562e+01,1.193550262451171875e+02,8.018303680419921875e+01,-1.744071502685546875e+02,1.035116577148437500e+02,-4.655792999267578125e+01,-1.806744537353515625e+02,1.974423370361328125e+02,-5.064334869384765625e+01,-1.395445861816406250e+02
9.826840162277221680e-01,2.000000000000000000e+00,-1.030126857757568359e+01,-2.651366710662841797e+00,5.268571090698242188e+01,1.193694686889648438e+02,8.019054412841796875e+01,-1.743990020751953125e+02,1.034708404541015625e+02,-4.654607772827148438e+01,-1.806658172607421875e+02,1.974513244628906250e+02,-5.065478897094726562e+01,-1.395498657226562500e+02
9.877240061759948730e-01,2.000000000000000000e+00,-1.030126857757568359e+01,-2.651366710662841797e+00,5.268571090698242188e+01,1.193694686889648438e+02,8.019054412841796875e+01,-1.743990020751953125e+02,1.034708404541015625e+02,-4.654607772827148438e+01,-1.806658172607421875e+02,1.974513244628906250e+02,-5.065478897094726562e+01,-1.395498657226562500e+02
9.916409850120544434e-01,2.000000000000000000e+00,-1.041583728790283203e+01,-2.570487260818481445e+00,5.263138198852539062e+01,1.193992767333984375e+02,8.020553588867187500e+01,-1.743828735351562500e+02,1.033895339965820312e+02,-4.652241134643554688e+01,-1.806480865478515625e+02,1.974694061279296875e+02,-5.067766952514648438e+01,-1.395589904785156250e+02
9.957759976387023926e-01,2.000000000000000000e+00,-1.047299289703369141e+01,-2.530092954635620117e+00,5.260450744628906250e+01,1.194141921997070312e+02,8.021262359619140625e+01,-1.743747253417968750e+02,1.033489990234375000e+02,-4.651050949096679688e+01,-1.806389923095703125e+02,1.974785308837890625e+02,-5.068844985961914062e+01,-1.395641479492187500e+02
9.996619820594787598e-01,2.000000000000000000e+00,-1.053023433685302734e+01,-2.489630699157714844e+00,5.257748413085937500e+01,1.194288787841796875e+02,8.022003173828125000e+01,-1.743670043945312500e+02,1.033082962036132812e+02,-4.649869918823242188e+01,-1.806300811767578125e+02,1.974878540039062500e+02,-5.069923400878906250e+01,-1.395690917968750000e+02
1.002625942230224609e+00,2.000000000000000000e+00,-1.058707332611083984e+01,-2.449417352676391602e+00,5.255056381225585938e+01,1.194428405761718750e+02,8.022727966308593750e+01,-1.743592071533203125e+02,1.032677536010742188e+02,-4.648684310913085938e+01,-1.806211547851562500e+02,1.974972076416015625e+02,-5.071045303344726562e+01,-1.395735931396484375e+02
1.007812023162841797e+00,2.000000000000000000e+00,-1.058707332611083984e+01,-2.449417352676391602e+00,5.255056381225585938e+01,1.194428405761718750e+02,8.022727966308593750e+01,-1.743592071533203125e+02,1.032677536010742188e+02,-4.648684310913085938e+01,-1.806211547851562500e+02,1.974972076416015625e+02,-5.071045303344726562e+01,-1.395735931396484375e+02
1.011922001838684082e+00,2.000000000000000000e+00,-1.070141220092773438e+01,-2.368628501892089844e+00,5.249644088745117188e+01,1.194709625244140625e+02,8.024172973632812500e+01,-1.743436737060546875e+02,1.031868972778320312e+02,-4.646281051635742188e+01,-1.806039733886718750e+02,1.975160827636718750e+02,-5.073202133178710938e+01,-1.395839233398437500e+02
1.014685988426208496e+00,2.000000000000000000e+00,-1.075862598419189453e+01,-2.328234195709228516e+00,5.246942138671875000e+01,1.194850387573242188e+02,8.024893188476562500e+01,-1.743360748291015625e+02,1.031466369628906250e+02,-4.645090866088867188e+01,-1.805954284667968750e+02,1.975254058837890625e+02,-5.074302291870117188e+01,-1.395889739990234375e+02
1.019662022590637207e+00,2.000000000000000000e+00,-1.075862598419189453e+01,-2.328234195709228516e+00,5.246942138671875000e+01,1.194850387573242188e+02,8.024893188476562500e+01,-1.743360748291015625e+02,1.031466369628906250e+02,-4.645090866088867188e+01,-1.805954284667968750e+02,1.975254058837890625e+02,-5.074302291870117188e+01,-1.395889739990234375e+02
1.023645043373107910e+00,2.000000000000000000e+00,-1.087279224395751953e+01,-2.247490644454956055e+00,5.241551971435546875e+01,1.195132751464843750e+02,8.026353454589843750e+01,-1.743208770751953125e+02,1.030661010742187500e+02,-4.642751312255859375e+01,-1.805780334472656250e+02,1.975435791015625000e+02,-5.076488113403320312e+01,-1.395983123779296875e+02
1.027675032615661621e+00,2.000000000000000000e+00,-1.092980480194091797e+01,-2.207028150558471680e+00,5.238864135742187500e+01,1.195279541015625000e+02,8.027089691162109375e+01,-1.743132171630859375e+02,1.030252914428710938e+02,-4.641574859619140625e+01,-1.805688934326171875e+02,1.975527801513671875e+02,-5.077544784545898438e+01,-1.396032562255859375e+02
1.031645059585571289e+00,2.000000000000000000e+00,-1.098701667785644531e+01,-2.166837453842163086e+00,5.236168289184570312e+01,1.195430755615234375e+02,8.027836608886718750e+01,-1.743058929443359375e+02,1.029844207763671875e+02,-4.640403366088867188e+01,-1.805599212646484375e+02,1.975621795654296875e+02,-5.078601074218750000e+01,-1.396082000732421875e+02
1.038254022598266602e+00,2.000000000000000000e+00,-1.104411506652832031e+01,-2.126624345779418945e+00,5.233468246459960938e+01,1.195577774047851562e+02,8.028593444824218750e+01,-1.742983093261718750e+02,1.029442062377929688e+02,-4.639226913452148438e+01,-1.805514373779296875e+02,1.975713806152343750e+02,-5.079643249511718750e+01,-1.396119384765625000e+02
1.039685010910034180e+00,2.000000000000000000e+00,-1.110124111175537109e+01,-2.086229562759399414e+00,5.230778121948242188e+01,1.195726242065429688e+02,8.029355621337890625e+01,-1.742910461425781250e+02,1.029041061401367188e+02,-4.638036727905273438e+01,-1.805428924560546875e+02,1.975807800292968750e+02,-5.080757904052734375e+01,-1.396165466308593750e+02
1.042629957199096680e+00,2.000000000000000000e+00,-1.115833950042724609e+01,-2.045948505401611328e+00,5.228112792968750000e+01,1.195864791870117188e+02,8.030145263671875000e+01,-1.742833099365234375e+02,1.028642272949218750e+02,-4.636827850341796875e+01,-1.805341949462890625e+02,1.975904083251953125e+02,-5.081843566894531250e+01,-1.396211700439453125e+02
1.047703981399536133e+00,2.000000000000000000e+00,-1.115833950042724609e+01,-2.045948505401611328e+00,5.228112792968750000e+01,1.195864791870117188e+02,8.030145263671875000e+01,-1.742833099365234375e+02,1.028642272949218750e+02,-4.636827850341796875e+01,-1.805341949462890625e+02,1.975904083251953125e+02,-5.081843566894531250e+01,-1.396211700439453125e+02
1.051748037338256836e+00,2.000000000000000000e+00,-1.127244853973388672e+01,-1.965385913848876953e+00,5.222728729248046875e+01,1.196148757934570312e+02,8.031653594970703125e+01,-1.742684020996093750e+02,1.027838058471679688e+02,-4.634484100341796875e+01,-1.805167388916015625e+02,1.976084899902343750e+02,-5.083847427368164062e+01,-1.396301727294921875e+02
1.054610013961791992e+00,2.000000000000000000e+00,-1.132943248748779297e+01,-1.925285816192626953e+00,5.220038986206054688e+01,1.196289367675781250e+02,8.032415771484375000e+01,-1.742608032226562500e+02,1.027434387207031250e+02,-4.633321762084960938e+01,-1.805077056884765625e+02,1.976176910400390625e+02,-5.085020446777343750e+01,-1.396342468261718750e+02
1.059659004211425781e+00,2.000000000000000000e+00,-1.132943248748779297e+01,-1.925285816192626953e+00,5.220038986206054688e+01,1.196289367675781250e+02,8.032415771484375000e+01,-1.742608032226562500e+02,1.027434387207031250e+02,-4.633321762084960938e+01,-1.805077056884765625e+02,1.976176910400390625e+02,-5.085020446777343750e+01,-1.396342468261718750e+02
1.066094994544982910e+00,2.000000000000000000e+00,-1.138615703582763672e+01,-1.885004401206970215e+00,5.217365264892578125e+01,1.196431121826171875e+02,8.033145904541015625e+01,-1.742530059814453125e+02,1.026622467041015625e+02,-4.630955123901367188e+01,-1.804894866943359375e+02,1.976356353759765625e+02,-5.087053298950195312e+01,-1.396438140869140625e+02
1.067530035972595215e+00,2.000000000000000000e+00,-1.150009346008300781e+01,-1.804600477218627930e+00,5.211971282958984375e+01,1.196721801757812500e+02,8.034591674804687500e+01,-1.742376098632812500e+02,1.026215362548828125e+02,-4.629778671264648438e+01,-1.804807891845703125e+02,1.976449890136718750e+02,-5.088124084472656250e+01,-1.396481933593750000e+02
1.071725964546203613e+00,2.000000000000000000e+00,-1.150009346008300781e+01,-1.804600477218627930e+00,5.211971282958984375e+01,1.196721801757812500e+02,8.034591674804687500e+01,-1.742376098632812500e+02,1.026215362548828125e+02,-4.629778671264648438e+01,-1.804807891845703125e+02,1.976449890136718750e+02,-5.088124084472656250e+01,-1.396481933593750000e+02
1.076645016670227051e+00,2.000000000000000000e+00,-1.155716228485107422e+01,-1.764454960823059082e+00,5.209293746948242188e+01,1.196871414184570312e+02,8.035332489013671875e+01,-1.742297363281250000e+02,1.025405731201171875e+02,-4.627402496337890625e+01,-1.804634399414062500e+02,1.976634979248046875e+02,-5.090332031250000000e+01,-1.396576385498046875e+02
1.079614043235778809e+00,2.000000000000000000e+00,-1.167118644714355469e+01,-1.683960318565368652e+00,5.203940200805664062e+01,1.197164306640625000e+02,8.036761474609375000e+01,-1.742138671875000000e+02,1.025003051757812500e+02,-4.626194000244140625e+01,-1.804547882080078125e+02,1.976726226806640625e+02,-5.091417694091796875e+01,-1.396627044677734375e+02
1.083732962608337402e+00,2.000000000000000000e+00,-1.167118644714355469e+01,-1.683960318565368652e+00,5.203940200805664062e+01,1.197164306640625000e+02,8.036761474609375000e+01,-1.742138671875000000e+02,1.025003051757812500e+02,-4.626194000244140625e+01,-1.804547882080078125e+02,1.976726226806640625e+02,-5.091417694091796875e+01,-1.396627044677734375e+02
1.090790033340454102e+00,2.000000000000000000e+00,-1.172834205627441406e+01,-1.643769621849060059e+00,5.201240158081054688e+01,1.197306518554687500e+02,8.037448883056640625e+01,-1.742059326171875000e+02,1.024603195190429688e+02,-4.625008773803710938e+01,-1.804461975097656250e+02,1.976815948486328125e+02,-5.092532348632812500e+01,-1.396677551269531250e+02
1.092182993888854980e+00,2.000000000000000000e+00,-1.184225082397460938e+01,-1.563727498054504395e+00,5.195872497558593750e+01,1.197585678100585938e+02,8.038893890380859375e+01,-1.741902770996093750e+02,1.023797912597656250e+02,-4.622682952880859375e+01,-1.804286804199218750e+02,1.976995544433593750e+02,-5.094681930541992188e+01,-1.396765441894531250e+02
1.095754981040954590e+00,2.000000000000000000e+00,-1.189940547943115234e+01,-1.523536801338195801e+00,5.193204879760742188e+01,1.197728500366210938e+02,8.039592742919921875e+01,-1.741826171875000000e+02,1.023390808105468750e+02,-4.621488571166992188e+01,-1.804197082519531250e+02,1.977084503173828125e+02,-5.095774841308593750e+01,-1.396820220947265625e+02
1.099666953086853027e+00,2.000000000000000000e+00,-1.189940547943115234e+01,-1.523536801338195801e+00,5.193204879760742188e+01,1.197728500366210938e+02,8.039592742919921875e+01,-1.741826171875000000e+02,1.023390808105468750e+02,-4.621488571166992188e+01,-1.804197082519531250e+02,1.977084503173828125e+02,-5.095774841308593750e+01,-1.396820220947265625e+02
1.103729963302612305e+00,2.000000000000000000e+00,-1.195658969879150391e+01,-1.483413934707641602e+00,5.190517425537109375e+01,1.197866439819335938e+02,8.040296173095703125e+01,-1.741748809814453125e+02,1.022983779907226562e+02,-4.620316314697265625e+01,-1.804109039306640625e+02,1.977174224853515625e+02,-5.096867752075195312e+01,-1.396869659423828125e+02
1.107671976089477539e+00,2.000000000000000000e+00,-1.201365947723388672e+01,-1.443291068077087402e+00,5.187827301025390625e+01,1.198009719848632812e+02,8.041031646728515625e+01,-1.741668701171875000e+02,1.022576751708984375e+02,-4.619158172607421875e+01,-1.804022979736328125e+02,1.977265472412109375e+02,-5.097967910766601562e+01,-1.396912689208984375e+02
1.112849950790405273e+00,2.000000000000000000e+00,-1.207072830200195312e+01,-1.403145670890808105e+00,5.185149765014648438e+01,1.198155593872070312e+02,8.041772460937500000e+01,-1.741593475341796875e+02,1.022174072265625000e+02,-4.617977523803710938e+01,-1.803935546875000000e+02,1.977360229492187500e+02,-5.099031829833984375e+01,-1.396959838867187500e+02
