hehonglu123/Motion-Primitive-Planning/ILC/recorded_data/realrobot/from_NX/iteration_13/run_0.csv
timestamp, cmd_num, J1, J2, J3, J4, J5, J6
0.00043, -1, 39.6297, 32.4456, 11.8321, 12.5455, 113.713, -48.8722
0.005374, -1, 39.6297, 32.4456, 11.8321, 12.5455, 113.713, -48.8722
0.008129, -1, 39.6297, 32.4456, 11.8321, 12.5455, 113.713, -48.8722
0.029555, -1, 39.6297, 32.4456, 11.832, 12.5455, 113.713, -48.8722
0.032291, -1, 39.6297, 32.4456, 11.832, 12.5455, 113.713, -48.8722
0.035647, -1, 39.6297, 32.4456, 11.832, 12.5455, 113.713, -48.8722
0.039602, -1, 39.6297, 32.4456, 11.832, 12.5455, 113.713, -48.8722
0.048183, -1, 39.6297, 32.4456, 11.832, 12.5455, 113.713, -48.8722
0.055742, -1, 39.6292, 32.4455, 11.832, 12.5455, 113.713, -48.8722
0.193741, -1, 38.4254, 31.8327, 12.0634, 12.5568, 113.089, -50.4655
0.194964, -1, 38.4254, 31.8327, 12.0634, 12.5568, 113.089, -50.4655
0.197021, -1, 38.3401, 31.788, 12.0827, 12.558, 113.041, -50.5889
0.199104, -1, 38.3401, 31.788, 12.0827, 12.558, 113.041, -50.5889
0.201113, -1, 38.2531, 31.7423, 12.1021, 12.5592, 112.991, -50.714
0.202466, -1, 38.2531, 31.7423, 12.1021, 12.5592, 112.991, -50.714
0.203681, -1, 38.2531, 31.7423, 12.1021, 12.5592, 112.991, -50.714
0.207633, -1, 38.1646, 31.696, 12.1216, 12.5604, 112.942, -50.8402
0.209746, -1, 38.0747, 31.649, 12.1411, 12.5616, 112.891, -50.9674
0.21112, -1, 38.0747, 31.649, 12.1411, 12.5616, 112.891, -50.9674
0.213953, -1, 37.9835, 31.6015, 12.1606, 12.5628, 112.84, -51.0954
0.215171, -1, 37.9835, 31.6015, 12.1606, 12.5628, 112.84, -51.0954
0.217285, -1, 37.8911, 31.5535, 12.1799, 12.564, 112.79, -51.2242
0.218506, -1, 37.8911, 31.5535, 12.1799, 12.564, 112.79, -51.2242
0.219779, -1, 37.8911, 31.5535, 12.1799, 12.564, 112.79, -51.2242
0.223639, -1, 37.7978, 31.5052, 12.1993, 12.5652, 112.739, -51.3533
0.225752, -1, 37.7036, 31.4565, 12.2187, 12.5665, 112.688, -51.4827
0.226994, -1, 37.7036, 31.4565, 12.2187, 12.5665, 112.688, -51.4827
0.228998, -1, 37.6087, 31.4077, 12.2381, 12.5677, 112.636, -51.6124
0.230429, -1, 37.6087, 31.4077, 12.2381, 12.5677, 112.636, -51.6124
0.231731, -1, 37.6087, 31.4077, 12.2381, 12.5677, 112.636, -51.6124
0.233751, -1, 37.5133, 31.3588, 12.2575, 12.5689, 112.585, -51.7423
0.242547, -1, 37.3218, 31.2608, 12.2963, 12.5714, 112.482, -52.0019
0.247557, -1, 37.2258, 31.2118, 12.3157, 12.5726, 112.431, -52.1318
0.255585, -1, 37.0336, 31.114, 12.3545, 12.5751, 112.328, -52.3917
0.263536, -1, 36.8415, 31.0161, 12.3932, 12.5777, 112.225, -52.652
0.271547, -1, 36.6497, 30.9183, 12.432, 12.5801, 112.122, -52.9125
0.279596, -1, 36.4581, 30.8205, 12.471, 12.5827, 112.019, -53.1728
0.287544, -1, 36.2666, 30.7227, 12.5098, 12.5853, 111.916, -53.4331
0.295548, -1, 36.0751, 30.6247, 12.5487, 12.5877, 111.813, -53.6938
0.304533, -1, 35.8836, 30.5267, 12.5877, 12.5903, 111.71, -53.9545
0.311602, -1, 35.6919, 30.4287, 12.6266, 12.5928, 111.607, -54.2149
0.320534, -1, 35.5, 30.3306, 12.6655, 12.5953, 111.504, -54.4752
0.32764, -1, 35.3078, 30.2322, 12.7043, 12.5979, 111.401, -54.7357
0.335546, -1, 35.1153, 30.1339, 12.7432, 12.6004, 111.298, -54.9965
0.34354, -1, 34.923, 30.0355, 12.7822, 12.6029, 111.195, -55.2572
0.351631, -1, 34.7307, 29.937, 12.8211, 12.6054, 111.092, -55.5177
0.359529, -1, 34.5384, 29.8385, 12.86, 12.6079, 110.989, -55.7785
0.367556, -1, 34.3462, 29.74, 12.899, 12.6105, 110.886, -56.0393
0.375605, -1, 34.1542, 29.6417, 12.938, 12.613, 110.783, -56.3003
0.383529, -1, 33.9622, 29.5435, 12.977, 12.6156, 110.68, -56.5611
0.391545, -1, 33.7705, 29.4451, 13.016, 12.6182, 110.577, -56.8219
0.399633, -1, 33.5786, 29.3467, 13.0549, 12.6208, 110.473, -57.0828
0.407535, -1, 33.3865, 29.2484, 13.0939, 12.6234, 110.37, -57.3441
0.415541, -1, 33.1939, 29.1498, 13.1329, 12.626, 110.267, -57.6049
0.423605, -1, 33.0012, 29.0512, 13.1717, 12.6286, 110.164, -57.866
0.431528, -1, 32.8082, 28.9526, 13.2107, 12.6312, 110.061, -58.1271
0.43954, -1, 32.6149, 28.854, 13.2497, 12.6338, 109.958, -58.3884
0.447726, -1, 32.4213, 28.7553, 13.2886, 12.6366, 109.855, -58.6496
0.455548, -1, 32.2274, 28.6567, 13.3276, 12.6392, 109.752, -58.9106
0.463624, -1, 32.0332, 28.5579, 13.3665, 12.6418, 109.649, -59.1717
0.471574, -1, 31.8394, 28.4592, 13.4054, 12.6445, 109.546, -59.4331
0.47954, -1, 31.6457, 28.3605, 13.4446, 12.6472, 109.443, -59.6945
0.488356, -1, 31.4523, 28.2618, 13.4836, 12.65, 109.34, -59.9556
0.49573, -1, 31.2592, 28.1633, 13.5225, 12.6528, 109.237, -60.2169
0.503636, -1, 31.0666, 28.0648, 13.5617, 12.6556, 109.134, -60.4783
0.638338, -1, 27.8789, 26.4356, 14.2053, 12.6986, 107.43, -64.7948
0.640171, -1, 27.7826, 26.3862, 14.2249, 12.6998, 107.378, -64.9258
0.641598, -1, 27.7826, 26.3862, 14.2249, 12.6998, 107.378, -64.9258
0.642826, -1, 27.7826, 26.3862, 14.2249, 12.6998, 107.378, -64.9258
0.644928, -1, 27.6862, 26.3368, 14.2443, 12.701, 107.326, -65.0568
0.646132, -1, 27.6862, 26.3368, 14.2443, 12.701, 107.326, -65.0568
0.648155, -1, 27.59, 26.2873, 14.2638, 12.7022, 107.275, -65.1876
0.653148, -1, 27.494, 26.2379, 14.2832, 12.7035, 107.223, -65.3184
0.654425, -1, 27.494, 26.2379, 14.2832, 12.7035, 107.223, -65.3184
0.656345, -1, 27.3979, 26.1884, 14.3027, 12.7047, 107.171, -65.4491
0.658644, -1, 27.3979, 26.1884, 14.3027, 12.7047, 107.171, -65.4491
0.660637, -1, 27.3019, 26.1389, 14.3223, 12.7058, 107.12, -65.5799
0.661928, -1, 27.3019, 26.1389, 14.3223, 12.7058, 107.12, -65.5799
0.663118, -1, 27.3019, 26.1389, 14.3223, 12.7058, 107.12, -65.5799
0.66517, -1, 27.2058, 26.0894, 14.3418, 12.707, 107.068, -65.7107
0.669129, -1, 27.1096, 26.04, 14.3613, 12.7081, 107.016, -65.8416
0.670426, -1, 27.1096, 26.04, 14.3613, 12.7081, 107.016, -65.8416
0.672441, -1, 27.0133, 25.9906, 14.3807, 12.7093, 106.964, -65.9724
0.673903, -1, 27.0133, 25.9906, 14.3807, 12.7093, 106.964, -65.9724
0.67511, -1, 27.0133, 25.9906, 14.3807, 12.7093, 106.964, -65.9724
0.677903, -1, 26.917, 25.9412, 14.4002, 12.7105, 106.913, -66.1033
0.679554, -1, 26.917, 25.9412, 14.4002, 12.7105, 106.913, -66.1033
0.687516, -1, 26.7242, 25.8423, 14.4393, 12.7127, 106.809, -66.3652
0.69552, -1, 26.5308, 25.7435, 14.4782, 12.715, 106.706, -66.6269
0.703583, -1, 26.3371, 25.6448, 14.517, 12.7172, 106.603, -66.8886
0.711525, -1, 26.143, 25.5459, 14.5561, 12.7195, 106.5, -67.1504
0.719534, -1, 25.9487, 25.447, 14.595, 12.7217, 106.397, -67.4123
0.727523, -1, 25.7544, 25.3482, 14.634, 12.724, 106.294, -67.674
0.735526, -1, 25.5603, 25.2494, 14.673, 12.7263, 106.191, -67.9354
0.743577, -1, 25.3664, 25.1507, 14.712, 12.7286, 106.087, -68.1973
0.751552, -1, 25.1728, 25.052, 14.751, 12.7309, 105.984, -68.4591
0.761118, -1, 24.8829, 24.9038, 14.8095, 12.7344, 105.829, -68.8515
0.767573, -1, 24.7864, 24.8544, 14.829, 12.7356, 105.777, -68.9824
0.775519, -1, 24.5937, 24.7556, 14.8679, 12.738, 105.674, -69.2441
0.785114, -1, 24.4013, 24.6072, 14.9265, 12.7416, 105.519, -69.6368
0.791615, -1, 24.2089, 24.5578, 14.946, 12.7429, 105.468, -69.7675
0.799548, -1, 24.0163, 24.4591, 14.985, 12.7451, 105.364, -70.0289
0.80851, -1, 23.8235, 24.3603, 15.0239, 12.7476, 105.261, -70.2905
0.815577, -1, 23.6305, 24.2614, 15.0628, 12.75, 105.157, -70.5524
0.824583, -1, 23.4372, 24.1626, 15.1017, 12.7523, 105.054, -70.8141
0.831535, -1, 23.2436, 24.0637, 15.1407, 12.7548, 104.951, -71.0757
0.839616, -1, 23.0497, 23.9648, 15.1796, 12.7572, 104.848, -71.3375
0.847522, -1, 22.8557, 23.866, 15.2185, 12.7597, 104.744, -71.5993
0.855504, -1, 22.6617, 23.7672, 15.2575, 12.7621, 104.641, -71.8612
0.86354, -1, 22.4679, 23.6686, 15.2965, 12.7646, 104.537, -72.1227
0.871544, -1, 22.2745, 23.57, 15.3355, 12.7672, 104.434, -72.384
0.879558, -1, 22.0812, 23.4712, 15.3744, 12.7697, 104.33, -72.6456
0.887511, -1, 21.8881, 23.3725, 15.4134, 12.7723, 104.227, -72.9073
0.895557, -1, 21.6956, 23.2738, 15.4524, 12.775, 104.124, -73.1686
0.903571, -1, 21.5034, 23.1751, 15.4913, 12.7777, 104.021, -73.43
0.911527, -1, 21.3111, 23.0764, 15.5303, 12.7803, 103.918, -73.6914
0.919577, -1, 21.1188, 22.9777, 15.5693, 12.783, 103.815, -73.9531
0.927546, -1, 20.9264, 22.8791, 15.6082, 12.7856, 103.712, -74.2144
0.935552, -1, 20.7339, 22.7805, 15.6472, 12.7884, 103.608, -74.4755
0.943521, -1, 20.5412, 22.6819, 15.6861, 12.7911, 103.505, -74.7367
0.951546, -1, 20.3482, 22.5833, 15.7249, 12.7938, 103.402, -74.9981
0.95958, -1, 20.1545, 22.4845, 15.764, 12.7965, 103.299, -75.2594
0.967512, -1, 19.9608, 22.3858, 15.8028, 12.7992, 103.196, -75.5205
0.975558, -1, 19.7672, 22.2871, 15.8416, 12.802, 103.094, -75.7816
0.983545, -1, 19.5736, 22.1885, 15.8805, 12.8046, 102.99, -76.0427
0.991566, -1, 19.3801, 22.0899, 15.9194, 12.8074, 102.887, -76.3041
0.999567, -1, 19.1871, 21.9912, 15.9582, 12.8101, 102.784, -76.5651
1.00765, -1, 18.9944, 21.8926, 15.9972, 12.8129, 102.681, -76.8258
1.01565, -1, 18.8019, 21.794, 16.036, 12.8156, 102.578, -77.0868
1.02362, -1, 18.6098, 21.6952, 16.0748, 12.8183, 102.475, -77.3478
1.03165, -1, 18.418, 21.5967, 16.1137, 12.821, 102.372, -77.6085
1.03967, -1, 18.226, 21.4981, 16.1526, 12.8236, 102.27, -77.8693
1.04752, -1, 18.0341, 21.3997, 16.1914, 12.8262, 102.167, -78.13
1.05565, -1, 17.8422, 21.3013, 16.2304, 12.8287, 102.064, -78.391
1.0636, -1, 17.6501, 21.203, 16.2692, 12.8312, 101.961, -78.6515
1.07158, -1, 17.4578, 21.1047, 16.308, 12.8337, 101.858, -78.9118
1.0797, -1, 17.265, 21.0064, 16.3469, 12.8362, 101.755, -79.1724
1.08772, -1, 17.0719, 20.9081, 16.3857, 12.8386, 101.652, -79.433
1.09581, -1, 16.8788, 20.8099, 16.4245, 12.841, 101.549, -79.6936
1.1039, -1, 16.6858, 20.7117, 16.4633, 12.8433, 101.446, -79.954
1.11189, -1, 16.4928, 20.6135, 16.502, 12.8456, 101.344, -80.2145
1.12055, -1, 16.3, 20.5151, 16.5407, 12.8479, 101.241, -80.4751
1.12807, -1, 16.1077, 20.4168, 16.5795, 12.8502, 101.138, -80.7357
1.13611, -1, 15.9158, 20.3184, 16.6182, 12.8525, 101.036, -80.9958
1.14412, -1, 15.7241, 20.2198, 16.657, 12.8549, 100.933, -81.2559
1.15214, -1, 15.5328, 20.1215, 16.6956, 12.8572, 100.83, -81.516
1.16008, -1, 15.4373, 20.0232, 16.7342, 12.8595, 100.728, -81.7763
1.16816, -1, 15.2461, 19.9249, 16.7731, 12.8618, 100.625, -82.036
1.17632, -1, 15.0549, 19.8758, 16.7924, 12.8629, 100.574, -82.2958
1.1835, -1, 14.8636, 19.7777, 16.8311, 12.8652, 100.472, -82.4258
1.19155, -1, 14.6722, 19.6796, 16.8698, 12.8675, 100.369, -82.6859
1.19952, -1, 14.4805, 19.5815, 16.9085, 12.8698, 100.266, -82.9458
1.2075, -1, 14.2885, 19.4834, 16.9472, 12.8721, 100.164, -83.2054
1.21553, -1, 14.0962, 19.3854, 16.9859, 12.8743, 100.061, -83.4648
1.22351, -1, 13.9037, 19.2875, 17.0245, 12.8766, 99.9585, -83.7244
1.23158, -1, 13.7112, 19.1897, 17.0631, 12.8789, 99.8562, -83.9841
1.23961, -1, 13.5188, 19.0919, 17.1019, 12.8812, 99.7536, -84.2434
1.2475, -1, 13.3266, 18.9939, 17.1405, 12.8835, 99.6512, -84.5027
1.25558, -1, 13.1349, 18.896, 17.1789, 12.8859, 99.549, -84.7618
1.2635, -1, 12.9436, 18.7981, 17.2176, 12.8883, 99.4464, -85.0213
1.27152, -1, 12.7525, 18.7, 17.2562, 12.8906, 99.3441, -85.2806
1.27958, -1, 12.5616, 18.6022, 17.2947, 12.893, 99.2419, -85.5394
1.28751, -1, 12.3712, 18.5045, 17.3333, 12.8954, 99.1395, -85.7982
1.29729, -1, 12.1811, 18.4067, 17.3718, 12.8978, 99.0374, -86.1869
1.3035, -1, 11.9908, 18.309, 17.4104, 12.9002, 98.9353, -86.3163
1.31251, -1, 11.8005, 18.2115, 17.449, 12.9026, 98.8333, -86.5749
1.3195, -1, 11.6098, 18.1138, 17.4875, 12.9051, 98.7315, -86.8335
1.3275, -1, 11.4189, 18.0162, 17.526, 12.9075, 98.6296, -87.0922
1.33633, -1, 11.2277, 17.9186, 17.5646, 12.9099, 98.5276, -87.3508
1.34352, -1, 11.0362, 17.8211, 17.6032, 12.9124, 98.4258, -87.6091
1.35152, -1, 10.8446, 17.7237, 17.6416, 12.9149, 98.3238, -87.8672
1.36045, -1, 10.6529, 17.6262, 17.6801, 12.9174, 98.2218, -88.1255
1.3675, -1, 10.4614, 17.5287, 17.7185, 12.92, 98.1202, -88.384
1.37556, -1, 10.2703, 17.4312, 17.7569, 12.9225, 98.0182, -88.6421
1.3843, -1, 10.0795, 17.3336, 17.7953, 12.9251, 97.9164, -88.9001
1.39151, -1, 9.88907, 17.236, 17.8336, 12.9278, 97.8146, -89.1583
1.39959, -1, 9.69892, 17.1385, 17.872, 12.9304, 97.7125, -89.4164
1.40832, -1, 9.50931, 17.0411, 17.9103, 12.9332, 97.6106, -89.6744
1.4155, -1, 9.32003, 16.9437, 17.9486, 12.9359, 97.5088, -89.932
1.42374, -1, 9.13069, 16.8464, 17.987, 12.9386, 97.4069, -90.1895
1.43231, -1, 8.94134, 16.7492, 18.0253, 12.9412, 97.3051, -90.4471
1.4395, -1, 8.75186, 16.652, 18.0637, 12.9439, 97.2034, -90.7047
1.44756, -1, 8.56229, 16.5549, 18.1021, 12.9465, 97.1017, -90.9618
1.45631, -1, 8.37249, 16.4578, 18.1405, 12.9492, 97.0003, -91.219
1.46351, -1, 8.18215, 16.3608, 18.1787, 12.9519, 96.8987, -91.4763
1.47158, -1, 7.9916, 16.264, 18.2171, 12.9545, 96.7971, -91.7335
1.48023, -1, 7.80114, 16.1671, 18.2554, 12.9572, 96.6957, -91.9903
1.48757, -1, 7.61052, 16.0701, 18.2936, 12.9597, 96.5942, -92.2471
1.49553, -1, 7.42009, 15.9731, 18.332, 12.9623, 96.4927, -92.5038
1.50433, -1, 7.22995, 15.8762, 18.3701, 12.9649, 96.3916, -92.7607
1.51169, -1, 7.04018, 15.7792, 18.4083, 12.9675, 96.2902, -93.0173
1.51964, -1, 6.85074, 15.6823, 18.4466, 12.97, 96.1889, -93.2738
1.52836, -1, 6.66178, 15.5854, 18.4846, 12.9725, 96.0882, -93.5301
1.53566, -1, 6.47329, 15.4887, 18.5226, 12.9751, 95.987, -93.7865
1.5436, -1, 6.28514, 15.3919, 18.5608, 12.9775, 95.886, -94.043
1.55234, -1, 6.09704, 15.2952, 18.5989, 12.98, 95.7853, -94.2989
1.55968, -1, 5.90876, 15.1985, 18.6371, 12.9823, 95.6842, -94.5548
1.56755, -1, 5.72032, 15.1019, 18.6753, 12.9846, 95.5833, -94.8105
1.57642, -1, 5.5318, 15.0053, 18.7133, 12.987, 95.4827, -95.0666
1.58365, -1, 5.34303, 14.9088, 18.7514, 12.9893, 95.3817, -95.3222
1.59181, -1, 5.15386, 14.8124, 18.7896, 12.9915, 95.2811, -95.5776
1.60069, -1, 4.96444, 14.7161, 18.8276, 12.9938, 95.1805, -95.8331
1.60777, -1, 4.77514, 14.6198, 18.8656, 12.996, 95.0797, -96.0887
1.6159, -1, 4.58568, 14.5234, 18.9037, 12.9982, 94.9789, -96.344
1.62394, -1, 4.39643, 14.4271, 18.9418, 13.0005, 94.8783, -96.599
1.6321, -1, 4.20747, 14.3307, 18.9798, 13.0026, 94.7773, -96.8539
1.64041, -1, 4.01878, 14.2343, 19.0178, 13.0049, 94.6765, -97.109
1.64808, -1, 3.83073, 14.138, 19.0557, 13.0072, 94.5757, -97.3639
1.65609, -1, 3.6432, 14.0419, 19.0936, 13.0094, 94.475, -97.6186
1.6649, -1, 3.54956, 13.9457, 19.1316, 13.0117, 94.3744, -97.8734
1.67212, -1, 3.36262, 13.8977, 19.1504, 13.0141, 94.2737, -98.1281
1.68028, -1, 3.17565, 13.8017, 19.1883, 13.0152, 94.173, -98.3829
1.68749, -1, 2.9887, 13.7056, 19.2262, 13.0174, 94.1226, -98.5102
1.6955, -1, 2.80168, 13.6096, 19.2642, 13.0197, 94.0221, -98.7643
1.70355, -1, 2.61447, 13.5136, 19.3021, 13.0219, 93.9215, -99.0184
1.7115, -1, 2.42711, 13.4177, 19.3399, 13.0241, 93.8211, -99.2725
1.71949, -1, 2.23953, 13.3219, 19.3777, 13.0264, 93.7209, -99.5267
1.72876, -1, 1.95736, 13.1782, 19.4346, 13.0298, 93.5704, -99.9072
1.73551, -1, 1.86333, 13.1303, 19.4535, 13.0309, 93.5205, -100.034
1.74355, -1, 1.67508, 13.0344, 19.4911, 13.0332, 93.4206, -100.288
1.75149, -1, 1.48685, 12.9386, 19.5289, 13.0354, 93.3204, -100.541
1.75952, -1, 1.29887, 12.8428, 19.5668, 13.0377, 93.2204, -100.795
1.76755, -1, 1.11125, 12.747, 19.6044, 13.04, 93.1205, -101.048
1.77548, -1, 0.924126, 12.6513, 19.6422, 13.0425, 93.0204, -101.301
1.78348, -1, 0.737684, 12.5559, 19.6799, 13.0448, 92.9206, -101.554
1.79155, -1, 0.551662, 12.4603, 19.7174, 13.0472, 92.8208, -101.807
1.80115, -1, 0.365888, 12.3649, 19.7551, 13.0509, 92.6712, -102.186
1.80749, -1, 0.180334, 12.2695, 19.7928, 13.0521, 92.6217, -102.313
1.81649, -1, -0.00503777, 12.1742, 19.8303, 13.0546, 92.5221, -102.565
1.82348, -1, -0.190577, 12.0789, 19.868, 13.057, 92.4225, -102.818
1.83149, -1, -0.376248, 11.9837, 19.9057, 13.0595, 92.3231, -103.07
1.83951, -1, -0.562313, 11.8885, 19.9432, 13.062, 92.2236, -103.322
1.84751, -1, -0.748697, 11.7935, 19.9807, 13.0644, 92.1241, -103.574
1.85553, -1, -0.935224, 11.6984, 20.0182, 13.0669, 92.0248, -103.826
1.8635, -1, -1.1219, 11.6034, 20.0556, 13.0695, 91.9254, -104.078
1.87148, -1, -1.30897, 11.5083, 20.0932, 13.072, 91.8261, -104.33
1.87955, -1, -1.49593, 11.4131, 20.1307, 13.0745, 91.7271, -104.581
1.88748, -1, -1.68252, 11.318, 20.1681, 13.0771, 91.6278, -104.833
1.89548, -1, -1.86875, 11.223, 20.2056, 13.0796, 91.5285, -105.085
1.90358, -1, -2.05452, 11.128, 20.243, 13.0823, 91.4295, -105.336
1.9115, -1, -2.23956, 11.0331, 20.2803, 13.085, 91.3303, -105.586
1.91949, -1, -2.42433, 10.9383, 20.3177, 13.0877, 91.231, -105.837
1.92758, -1, -2.60875, 10.8435, 20.355, 13.0903, 91.1321, -106.089
1.93548, -1, -2.79268, 10.7487, 20.3923, 13.093, 91.0329, -106.339
1.94349, -1, -2.97649, 10.654, 20.4297, 13.0956, 90.9339, -106.59
1.95155, -1, -3.16056, 10.5592, 20.467, 13.0982, 90.8352, -106.841
1.95948, -1, -3.34487, 10.4647, 20.5042, 13.1007, 90.7362, -107.091
1.9675, -1, -3.52951, 10.3702, 20.5415, 13.1033, 90.6372, -107.342
1.97555, -1, -3.71433, 10.2758, 20.5787, 13.1059, 90.5385, -107.592
1.98349, -1, -3.89946, 10.1815, 20.616, 13.1083, 90.4396, -107.842
1.99154, -1, -4.0848, 10.0871, 20.6533, 13.1107, 90.3409, -108.092
1.99954, -1, -4.27043, 9.99281, 20.6904, 13.1132, 90.2425, -108.342
2.00755, -1, -4.45605, 9.89845, 20.7275, 13.1155, 90.1437, -108.592
2.01559, -1, -4.6413, 9.80413, 20.7649, 13.1179, 90.0453, -108.841
2.02363, -1, -4.82629, 9.7099, 20.802, 13.1202, 89.9469, -109.09
2.03165, -1, -5.01075, 9.61583, 20.839, 13.1226, 89.8483, -109.34
2.0396, -1, -5.1945, 9.52178, 20.8762, 13.125, 89.7498, -109.589
2.04753, -1, -5.37789, 9.42773, 20.9133, 13.1273, 89.6516, -109.838
2.05568, -1, -5.56084, 9.33382, 20.9503, 13.1296, 89.5532, -110.087
2.06357, -1, -5.74337, 9.23986, 20.9875, 13.1319, 89.455, -110.336
2.07153, -1, -5.92567, 9.14593, 21.0245, 13.1343, 89.357, -110.585
2.07967, -1, -6.10801, 9.05206, 21.0615, 13.1365, 89.2588, -110.833
2.08763, -1, -6.29075, 8.95826, 21.0986, 13.1387, 89.1607, -111.082
2.09571, -1, -6.47367, 8.86461, 21.1355, 13.1409, 89.063, -111.33
2.10389, -1, -6.65682, 8.77096, 21.1723, 13.143, 88.9649, -111.578
2.11182, -1, -6.84037, 8.67736, 21.2093, 13.1452, 88.8669, -111.826
2.11985, -1, -7.02435, 8.58375, 21.2462, 13.1473, 88.7692, -112.074
2.128, -1, -7.20855, 8.49022, 21.2831, 13.1494, 88.6713, -112.322
2.13602, -1, -7.39273, 8.39661, 21.32, 13.1515, 88.5735, -112.569
2.14406, -1, -7.57657, 8.30297, 21.3569, 13.1537, 88.476, -112.817
2.1521, -1, -7.76006, 8.20954, 21.3936, 13.1558, 88.3783, -113.065
2.16009, -1, -7.94314, 8.11616, 21.4306, 13.1581, 88.2809, -113.312
2.16809, -1, -8.03453, 8.06945, 21.4674, 13.1604, 88.1836, -113.559
2.17612, -1, -8.21679, 7.97614, 21.4857, 13.1626, 88.0862, -113.806
2.18351, -1, -8.39836, 7.88288, 21.5225, 13.1637, 88.0375, -113.93
2.19147, -1, -8.57953, 7.78961, 21.5594, 13.1659, 87.9402, -114.176
2.19953, -1, -8.76036, 7.69643, 21.5961, 13.1683, 87.8428, -114.423
2.20748, -1, -8.94091, 7.60326, 21.6328, 13.1705, 87.7453, -114.669
2.21547, -1, -9.12179, 7.51019, 21.6696, 13.1728, 87.6482, -114.916
2.22347, -1, -9.30301, 7.41725, 21.7062, 13.175, 87.5509, -115.162
2.23153, -1, -9.48448, 7.32446, 21.7429, 13.1772, 87.4537, -115.408
2.23956, -1, -9.66629, 7.23162, 21.7796, 13.1794, 87.3568, -115.655
2.24752, -1, -9.84844, 7.13888, 21.8161, 13.1816, 87.2595, -115.901
2.2555, -1, -10.0309, 7.04616, 21.8526, 13.1838, 87.1622, -116.147
2.26355, -1, -10.2135, 6.95338, 21.8892, 13.1861, 87.0652, -116.393
2.27147, -1, -10.3962, 6.86061, 21.9259, 13.1883, 86.9679, -116.638
2.27947, -1, -10.5786, 6.76789, 21.9624, 13.1905, 86.8708, -116.883
2.28909, -1, -10.8515, 6.62896, 22.0172, 13.194, 86.7256, -117.252
2.29549, -1, -10.9423, 6.58265, 22.0354, 13.1952, 86.677, -117.374
2.30349, -1, -11.1231, 6.4901, 22.0719, 13.1976, 86.5802, -117.619
2.31246, -1, -11.3032, 6.39761, 22.1085, 13.2, 86.4837, -117.864
2.31948, -1, -11.483, 6.30513, 22.145, 13.2024, 86.387, -118.109
2.32847, -1, -11.6624, 6.21271, 22.1814, 13.2049, 86.2902, -118.354
2.33554, -1, -11.8416, 6.12033, 22.2179, 13.2074, 86.1937, -118.598
2.34348, -1, -12.0208, 6.02806, 22.2543, 13.2098, 86.0971, -118.843
2.3515, -1, -12.2002, 5.93591, 22.2907, 13.2123, 86.0006, -119.087
2.35953, -1, -12.3799, 5.8439, 22.3272, 13.2148, 85.9044, -119.331
2.36747, -1, -12.56, 5.7519, 22.3635, 13.2173, 85.808, -119.575
2.37552, -1, -12.7404, 5.65993, 22.3998, 13.2197, 85.7116, -119.819
2.38346, -1, -12.9213, 5.56802, 22.4362, 13.2222, 85.6158, -120.063
2.39148, -1, -13.1024, 5.4761, 22.4725, 13.2247, 85.5197, -120.306
2.39955, -1, -13.2837, 5.38408, 22.5087, 13.2271, 85.4237, -120.55
2.40749, -1, -13.4647, 5.29215, 22.5451, 13.2295, 85.3281, -120.794
2.41548, -1, -13.6453, 5.20025, 22.5813, 13.2321, 85.2322, -121.037
2.42377, -1, -13.8256, 5.10838, 22.6174, 13.2347, 85.1364, -121.28
2.43151, -1, -14.0052, 5.01654, 22.6536, 13.2373, 85.0408, -121.523
2.43947, -1, -14.1838, 4.9248, 22.6897, 13.2398, 84.9452, -121.766
2.44826, -1, -14.3621, 4.8331, 22.7258, 13.2424, 84.8495, -122.008
2.45547, -1, -14.5401, 4.74145, 22.7621, 13.2449, 84.754, -122.251
2.46347, -1, -14.7178, 4.64985, 22.7983, 13.2475, 84.6583, -122.493
2.47229, -1, -14.8954, 4.55835, 22.8343, 13.2499, 84.5626, -122.736
2.47948, -1, -15.0731, 4.4669, 22.8704, 13.2523, 84.467, -122.978
2.48753, -1, -15.2511, 4.37562, 22.9066, 13.2548, 84.3713, -123.22
2.49629, -1, -15.4294, 4.2843, 22.9426, 13.2571, 84.2756, -123.462
2.5035, -1, -15.6083, 4.19306, 22.9786, 13.2595, 84.1801, -123.703
2.51163, -1, -15.7875, 4.10182, 23.0146, 13.2618, 84.0846, -123.945
2.52042, -1, -15.9668, 4.01059, 23.0505, 13.264, 83.9891, -124.187
2.52757, -1, -16.1465, 3.91932, 23.0866, 13.2662, 83.8937, -124.428
2.53563, -1, -16.3261, 3.8281, 23.1226, 13.2683, 83.7983, -124.669
2.54437, -1, -16.5056, 3.73686, 23.1584, 13.2705, 83.7029, -124.911
2.55154, -1, -16.6846, 3.64573, 23.1942, 13.2727, 83.6075, -125.152
2.55965, -1, -16.863, 3.55465, 23.2301, 13.275, 83.5121, -125.393
2.56901, -1, -17.0406, 3.46363, 23.2659, 13.2772, 83.4168, -125.634
2.57552, -1, -17.2174, 3.37268, 23.3017, 13.2795, 83.3214, -125.875
2.5836, -1, -17.394, 3.2818, 23.3376, 13.2817, 83.2264, -126.115
2.59161, -1, -17.5703, 3.19095, 23.3733, 13.2838, 83.1313, -126.356
2.59975, -1, -17.7463, 3.10033, 23.4092, 13.2859, 83.0365, -126.596
2.60798, -1, -17.9223, 3.00977, 23.4451, 13.288, 82.9418, -126.836
2.61576, -1, -18.0986, 2.91933, 23.4808, 13.2902, 82.8469, -127.076
2.62394, -1, -18.2751, 2.82895, 23.5165, 13.2923, 82.7521, -127.317
2.63257, -1, -18.4521, 2.73854, 23.5523, 13.2944, 82.6576, -127.557
2.63999, -1, -18.6295, 2.64819, 23.588, 13.2964, 82.5629, -127.796
2.64812, -1, -18.8072, 2.55788, 23.6236, 13.2984, 82.4683, -128.036
2.65625, -1, -18.9852, 2.46747, 23.6594, 13.3004, 82.3741, -128.275
2.66402, -1, -19.1635, 2.37699, 23.6949, 13.3024, 82.2795, -128.515
2.67213, -1, -19.3416, 2.28663, 23.7305, 13.3044, 82.1851, -128.754
2.67997, -1, -19.4306, 2.24142, 23.7483, 13.3054, 82.1382, -128.873
2.68748, -1, -19.6079, 2.15104, 23.7839, 13.3076, 82.0441, -129.112
2.69551, -1, -19.7847, 2.06072, 23.8192, 13.3097, 81.9499, -129.352
2.70345, -1, -19.9609, 1.97045, 23.8547, 13.3119, 81.8557, -129.591
2.71146, -1, -20.1364, 1.88024, 23.8903, 13.3142, 81.7618, -129.829
2.71951, -1, -20.3114, 1.79008, 23.9258, 13.3164, 81.6678, -130.068
2.72747, -1, -20.4861, 1.70001, 23.9612, 13.3186, 81.5737, -130.306
2.73546, -1, -20.6605, 1.61, 23.9968, 13.3208, 81.48, -130.544
2.74494, -1, -20.9224, 1.47515, 24.0499, 13.324, 81.3391, -130.901
2.75148, -1, -21.0099, 1.43031, 24.0676, 13.3251, 81.2923, -131.02
2.7595, -1, -21.1851, 1.3406, 24.1032, 13.3273, 81.1986, -131.258
2.7691, -1, -21.4486, 1.20597, 24.1562, 13.3306, 81.0577, -131.615
2.77545, -1, -21.5366, 1.16117, 24.1739, 13.3317, 81.0108, -131.734
2.78773, -1, -21.8008, 1.02674, 24.2271, 13.3349, 80.8702, -132.09
2.79142, -1, -21.8889, 0.981915, 24.2447, 13.336, 80.8232, -132.208
2.79953, -1, -22.0655, 0.89231, 24.2801, 13.3381, 80.7294, -132.446
2.80748, -1, -22.2421, 0.802761, 24.3155, 13.3403, 80.636, -132.683
2.81646, -1, -22.4184, 0.713289, 24.3508, 13.3426, 80.5422, -132.92
2.82352, -1, -22.5941, 0.623756, 24.3859, 13.3449, 80.4486, -133.157
2.83146, -1, -22.7694, 0.534306, 24.4212, 13.3472, 80.3552, -133.394
2.83945, -1, -22.9438, 0.44487, 24.4564, 13.3496, 80.2614, -133.63
2.84752, -1, -23.1177, 0.355423, 24.4915, 13.3521, 80.1679, -133.867
2.85547, -1, -23.2912, 0.26609, 24.5267, 13.3545, 80.0746, -134.104
2.86349, -1, -23.4643, 0.176784, 24.5619, 13.357, 79.981, -134.34
2.87152, -1, -23.6375, 0.0876039, 24.5971, 13.3594, 79.8877, -134.577
2.87946, -1, -23.8109, -0.00151736, 24.6322, 13.3618, 79.7946, -134.813
2.88746, -1, -23.9843, -0.0904847, 24.6674, 13.3642, 79.7014, -135.049
2.89552, -1, -24.1579, -0.179438, 24.7024, 13.3667, 79.6083, -135.285
2.90345, -1, -24.3319, -0.268433, 24.7375, 13.3691, 79.5153, -135.52
2.91147, -1, -24.5061, -0.357312, 24.7727, 13.3715, 79.4222, -135.756
2.91953, -1, -24.6808, -0.446188, 24.8077, 13.374, 79.3291, -135.991
2.92746, -1, -24.8557, -0.535102, 24.8427, 13.3764, 79.2361, -136.227
2.93549, -1, -25.0308, -0.623939, 24.8779, 13.3787, 79.1432, -136.462
2.94352, -1, -25.2057, -0.712768, 24.9128, 13.3811, 79.0502, -136.697
2.95145, -1, -25.3802, -0.801515, 24.9478, 13.3835, 78.9575, -136.932
2.95946, -1, -25.5544, -0.890345, 24.9829, 13.3859, 78.8649, -137.167
2.96753, -1, -25.7279, -0.979096, 25.0177, 13.3884, 78.7721, -137.402
2.97546, -1, -25.9008, -1.06781, 25.0525, 13.3908, 78.6795, -137.637
2.98345, -1, -26.0732, -1.15651, 25.0876, 13.3932, 78.5873, -137.871
2.99152, -1, -26.2454, -1.24515, 25.1225, 13.3956, 78.4946, -138.106
2.99945, -1, -26.4171, -1.33368, 25.1572, 13.398, 78.4019, -138.34
3.00756, -1, -26.589, -1.42205, 25.1922, 13.4003, 78.3097, -138.575
3.01553, -1, -26.761, -1.5104, 25.2271, 13.4025, 78.2171, -138.809
3.02357, -1, -26.9333, -1.59859, 25.262, 13.4048, 78.1247, -139.043
3.03161, -1, -27.1057, -1.68673, 25.2968, 13.407, 78.0326, -139.277
3.03962, -1, -27.2782, -1.77498, 25.3317, 13.4092, 77.9403, -139.511
3.04755, -1, -27.4511, -1.86303, 25.3665, 13.4114, 77.8482, -139.745
3.05565, -1, -27.6243, -1.95114, 25.4012, 13.4135, 77.7564, -139.978
3.06347, -1, -27.7975, -2.03935, 25.4362, 13.4156, 77.6642, -140.211
3.07149, -1, -27.9708, -2.12737, 25.4709, 13.4176, 77.5722, -140.445
3.0796, -1, -28.1442, -2.21541, 25.5056, 13.4197, 77.4802, -140.678
3.08758, -1, -28.3173, -2.30344, 25.5404, 13.4217, 77.3882, -140.911
3.09559, -1, -28.49, -2.39155, 25.5752, 13.4238, 77.2961, -141.144
3.10381, -1, -28.6624, -2.47951, 25.6098, 13.426, 77.204, -141.377
3.11176, -1, -28.8341, -2.56752, 25.6445, 13.428, 77.1121, -141.61
3.11976, -1, -29.0051, -2.65549, 25.6792, 13.4303, 77.0202, -141.843
3.12798, -1, -29.1757, -2.74338, 25.7137, 13.4325, 76.9282, -142.075
3.13593, -1, -29.3463, -2.83119, 25.7484, 13.4345, 76.8365, -142.308
3.14404, -1, -29.517, -2.91888, 25.7831, 13.4366, 76.7446, -142.54
3.15205, -1, -29.6879, -3.00648, 25.8176, 13.4385, 76.6527, -142.773
3.16003, -1, -29.8589, -3.09401, 25.8521, 13.4405, 76.5611, -143.005
3.16807, -1, -30.0299, -3.18147, 25.8868, 13.4427, 76.4691, -143.237
3.17687, -1, -30.1154, -3.22523, 25.9041, 13.4437, 76.3774, -143.469
3.18398, -1, -30.2864, -3.31274, 25.9386, 13.4458, 76.3316, -143.585
3.19219, -1, -30.4578, -3.40016, 25.9732, 13.4479, 76.2402, -143.933
3.19947, -1, -30.6294, -3.4877, 26.0077, 13.4499, 76.1486, -144.049
3.20744, -1, -30.8013, -3.57514, 26.0421, 13.452, 76.0572, -144.28
3.21549, -1, -30.9731, -3.66248, 26.0767, 13.454, 75.966, -144.511
3.22345, -1, -31.1449, -3.74985, 26.1113, 13.456, 75.8745, -144.743
3.23149, -1, -31.3163, -3.83721, 26.1456, 13.4581, 75.7831, -144.974
3.23945, -1, -31.4874, -3.92454, 26.18, 13.4602, 75.692, -145.205
3.24747, -1, -31.6581, -4.01179, 26.2145, 13.4623, 75.6006, -145.436
3.25551, -1, -31.8283, -4.0991, 26.2489, 13.4645, 75.5094, -145.667
3.26344, -1, -31.9981, -4.18633, 26.2832, 13.4667, 75.4185, -145.898
3.27148, -1, -32.1677, -4.27349, 26.3177, 13.4689, 75.3273, -146.129
3.27952, -1, -32.3371, -4.3606, 26.352, 13.4711, 75.2362, -146.36
3.28744, -1, -32.5066, -4.44759, 26.3862, 13.4732, 75.1455, -146.59
3.29791, -1, -32.7612, -4.57797, 26.4379, 13.4764, 75.009, -146.936
3.3035, -1, -32.846, -4.62145, 26.4551, 13.4775, 74.9638, -147.051
3.31319, -1, -33.0156, -4.70834, 26.4892, 13.4797, 74.8279, -147.397
3.31947, -1, -33.1854, -4.79521, 26.5235, 13.4819, 74.7825, -147.512
3.32844, -1, -33.3553, -4.88206, 26.5579, 13.4841, 74.6917, -147.742
3.33544, -1, -33.5255, -4.969, 26.5921, 13.4863, 74.601, -147.971
3.34345, -1, -33.6959, -5.05583, 26.6263, 13.4885, 74.5107, -148.201
3.3515, -1, -33.8661, -5.14261, 26.6606, 13.4907, 74.4199, -148.431
3.35948, -1, -34.0363, -5.22932, 26.6947, 13.493, 74.3295, -148.661
3.36791, -1, -34.2065, -5.31606, 26.7288, 13.4953, 74.2391, -148.89
3.37785, -1, -34.4615, -5.446, 26.7802, 13.4987, 74.1032, -149.234
3.38343, -1, -34.5463, -5.48933, 26.7973, 13.4999, 74.0578, -149.349
3.3922, -1, -34.7156, -5.57603, 26.8313, 13.5022, 73.9674, -149.578
3.40051, -1, -34.8843, -5.66263, 26.8655, 13.5046, 73.8768, -149.807
3.40743, -1, -35.0528, -5.74916, 26.8997, 13.5071, 73.7863, -150.036
3.41559, -1, -35.221, -5.83564, 26.9337, 13.5095, 73.696, -150.265
3.42345, -1, -35.3894, -5.92198, 26.9678, 13.512, 73.6057, -150.494
3.43143, -1, -35.558, -6.00817, 27.002, 13.5143, 73.5153, -150.723
3.44067, -1, -35.7264, -6.0944, 27.0359, 13.5166, 73.425, -150.951
3.44843, -1, -35.895, -6.18054, 27.07, 13.5191, 73.3348, -151.18
3.45643, -1, -36.0635, -6.26669, 27.1041, 13.5214, 73.2443, -151.409
3.46343, -1, -36.232, -6.35279, 27.1381, 13.5239, 73.1539, -151.637
3.47144, -1, -36.4007, -6.43896, 27.172, 13.5263, 73.0637, -151.866
3.47952, -1, -36.5695, -6.52517, 27.206, 13.5286, 72.9731, -152.094
3.48744, -1, -36.7384, -6.61132, 27.24, 13.5309, 72.8829, -152.322
3.49544, -1, -36.9074, -6.69746, 27.2739, 13.5332, 72.7929, -152.55
3.50352, -1, -37.0763, -6.78358, 27.3079, 13.5355, 72.7028, -152.778
3.51149, -1, -37.245, -6.8697, 27.3418, 13.5377, 72.6128, -153.006
3.51953, -1, -37.4136, -6.95574, 27.3756, 13.54, 72.523, -153.234
3.52761, -1, -37.5817, -7.0418, 27.4096, 13.5423, 72.4331, -153.461
3.53554, -1, -37.7495, -7.1278, 27.4436, 13.5445, 72.3432, -153.689
3.54354, -1, -37.9171, -7.21377, 27.4773, 13.5467, 72.2534, -153.916
3.55162, -1, -38.0846, -7.29968, 27.5112, 13.5489, 72.1638, -154.144
3.55944, -1, -38.252, -7.38556, 27.5451, 13.5511, 72.074, -154.371
3.56744, -1, -38.4193, -7.4713, 27.5789, 13.5533, 71.9843, -154.598
3.57638, -1, -38.5866, -7.55698, 27.6127, 13.5554, 71.8948, -154.826
3.58349, -1, -38.7539, -7.64268, 27.6466, 13.5575, 71.8051, -155.053
3.5916, -1, -38.9213, -7.72837, 27.6804, 13.5596, 71.7156, -155.28
3.60044, -1, -39.0886, -7.81399, 27.7141, 13.5616, 71.6266, -155.507
3.60768, -1, -39.2561, -7.89968, 27.748, 13.5637, 71.537, -155.733
3.61575, -1, -39.4235, -7.98539, 27.7818, 13.5656, 71.4477, -155.96
3.62473, -1, -39.5911, -8.07092, 27.8154, 13.5676, 71.3584, -156.187
3.63182, -1, -39.7588, -8.15646, 27.8491, 13.5695, 71.269, -156.413
3.63996, -1, -39.9264, -8.2419, 27.8828, 13.5715, 71.1797, -156.64
3.64879, -1, -40.094, -8.32736, 27.9165, 13.5734, 71.0902, -156.866
3.65601, -1, -40.2615, -8.41276, 27.9501, 13.5754, 71.0012, -157.093
3.66401, -1, -40.4287, -8.49812, 27.9839, 13.5773, 70.9117, -157.319
3.67299, -1, -40.5958, -8.58348, 28.0175, 13.5793, 70.8226, -157.545
3.68001, -1, -40.6792, -8.62617, 28.0343, 13.5813, 70.7336, -157.771
3.68801, -1, -40.8459, -8.71156, 28.0678, 13.5823, 70.689, -157.996
3.69545, -1, -41.0124, -8.79689, 28.1016, 13.5843, 70.5998, -158.109
3.70342, -1, -41.1787, -8.88218, 28.1352, 13.5863, 70.5106, -158.335
3.71159, -1, -41.3449, -8.96735, 28.1687, 13.5884, 70.4216, -158.561
3.71942, -1, -41.5112, -9.05254, 28.2023, 13.5904, 70.3323, -158.787
3.72861, -1, -41.7606, -9.18021, 28.2527, 13.5933, 70.1986, -159.125
3.73542, -1, -41.8437, -9.22273, 28.2694, 13.5943, 70.1542, -159.237
3.74342, -1, -42.0101, -9.30771, 28.303, 13.5964, 70.065, -159.463
3.75151, -1, -42.1765, -9.39275, 28.3367, 13.5984, 69.976, -159.688
3.75944, -1, -42.3427, -9.47782, 28.3701, 13.6004, 69.8873, -159.914
3.76742, -1, -42.509, -9.56274, 28.4036, 13.6024, 69.7981, -160.139
3.77554, -1, -42.6755, -9.64772, 28.4371, 13.6044, 69.7093, -160.364
3.78342, -1, -42.8419, -9.73268, 28.4705, 13.6065, 69.6205, -160.589
3.79299, -1, -43.0915, -9.86005, 28.5206, 13.6096, 69.4873, -160.927
3.79949, -1, -43.1746, -9.90254, 28.5374, 13.6106, 69.443, -161.039
3.80742, -1, -43.3407, -9.98753, 28.5709, 13.6126, 69.3542, -161.264
3.81643, -1, -43.5067, -10.0724, 28.6043, 13.6147, 69.2658, -161.489
3.82349, -1, -43.6727, -10.1575, 28.6378, 13.6168, 69.1771, -161.713
3.83247, -1, -43.8385, -10.2423, 28.6712, 13.619, 69.0886, -161.938
3.83943, -1, -44.0043, -10.3271, 28.7046, 13.6211, 69.0003, -162.162
3.84755, -1, -44.1698, -10.4118, 28.738, 13.6232, 68.9116, -162.387
3.85542, -1, -44.335, -10.4964, 28.7716, 13.6254, 68.823, -162.611
3.86344, -1, -44.5002, -10.581, 28.8049, 13.6277, 68.7344, -162.836
3.8715, -1, -44.6653, -10.6655, 28.8383, 13.6299, 68.6457, -163.06
3.87942, -1, -44.8306, -10.75, 28.8718, 13.6321, 68.5572, -163.284
3.88743, -1, -44.9959, -10.8344, 28.9052, 13.6342, 68.4688, -163.508
3.89549, -1, -45.1612, -10.919, 28.9386, 13.6364, 68.3805, -163.732
3.90342, -1, -45.3266, -11.0036, 28.972, 13.6386, 68.292, -163.956
3.91144, -1, -45.4919, -11.0881, 29.0054, 13.6409, 68.2036, -164.18
3.91951, -1, -45.6571, -11.1725, 29.0386, 13.6432, 68.1156, -164.404
3.92743, -1, -45.8223, -11.2569, 29.0719, 13.6455, 68.0271, -164.627
3.93542, -1, -45.9865, -11.3408, 29.1054, 13.6478, 67.9387, -164.851
3.94352, -1, -46.1479, -11.4232, 29.1389, 13.6501, 67.8506, -165.074
3.95144, -1, -46.3049, -11.5026, 29.1725, 13.6525, 67.7632, -165.295
3.95941, -1, -46.4552, -11.5775, 29.2061, 13.6548, 67.6781, -165.51
3.96748, -1, -46.5964, -11.6474, 29.2383, 13.6572, 67.5965, -165.716
3.97543, -1, -46.726, -11.7107, 29.2682, 13.6594, 67.5218, -165.906
3.98344, -1, -46.841, -11.7668, 29.2946, 13.6614, 67.4549, -166.074
3.99151, -1, -46.9397, -11.816, 29.3168, 13.6631, 67.3991, -166.217
3.99944, -1, -47.0223, -11.8589, 29.3334, 13.6644, 67.3543, -166.33
4.00745, -1, -47.0895, -11.8958, 29.3447, 13.6651, 67.3208, -166.414
4.01555, -1, -47.1418, -11.9252, 29.3519, 13.6655, 67.2975, -166.473
4.02352, -1, -47.1808, -11.9473, 29.3558, 13.6657, 67.2823, -166.511
4.03154, -1, -47.2084, -11.9627, 29.3577, 13.6658, 67.2736, -166.533
4.03959, -1, -47.2265, -11.9727, 29.3585, 13.6659, 67.2689, -166.545
4.04752, -1, -47.2373, -11.9786, 29.3589, 13.6659, 67.2665, -166.551
4.05576, -1, -47.2429, -11.9815, 29.3591, 13.666, 67.2654, -166.553
4.06359, 2, -47.245, -11.9828, 29.3592, 13.666, 67.2649, -166.555
4.07145, 2, -47.245, -11.9833, 29.3593, 13.666, 67.2646, -166.555
4.07981, 2, -47.2448, -11.9834, 29.3594, 13.666, 67.2645, -166.555
4.08753, 2, -47.2448, -11.9835, 29.3594, 13.666, 67.2645, -166.556
4.09553, 2, -47.2452, -11.9837, 29.3595, 13.666, 67.2644, -166.556
4.10394, 2, -47.2461, -11.9839, 29.3595, 13.666, 67.2644, -166.556
4.11175, 2, -47.2474, -11.9845, 29.3595, 13.666, 67.2644, -166.556
4.11972, 2, -47.2492, -11.9852, 29.3595, 13.666, 67.2644, -166.556
4.12813, 2, -47.2508, -11.9862, 29.3595, 13.6661, 67.2644, -166.556
4.13588, 2, -47.2522, -11.987, 29.3595, 13.666, 67.2644, -166.556
4.14456, 2, -47.2531, -11.9876, 29.3595, 13.666, 67.2644, -166.556
4.15233, 2, -47.2536, -11.988, 29.3595, 13.6661, 67.2644, -166.556
4.16011, 2, -47.2537, -11.9882, 29.3595, 13.6661, 67.2645, -166.556
4.16797, 2, -47.2538, -11.9883, 29.3595, 13.6661, 67.2644, -166.556
4.17628, 2, -47.2535, -11.9883, 29.3595, 13.6661, 67.2645, -166.556
4.18417, 2, -47.253, -11.9882, 29.3595, 13.666, 67.2644, -166.556
4.19143, 2, -47.2527, -11.9882, 29.3595, 13.6661, 67.2645, -166.556
4.19946, 2, -47.2523, -11.9882, 29.3595, 13.6661, 67.2644, -166.556
4.20747, 2, -47.252, -11.9882, 29.3595, 13.666, 67.2644, -166.556
4.21634, 2, -47.2519, -11.9882, 29.3596, 13.666, 67.2644, -166.556
4.22347, 2, -47.252, -11.9884, 29.3596, 13.666, 67.2645, -166.556
4.23147, 2, -47.2521, -11.9886, 29.3595, 13.666, 67.2645, -166.556
4.23942, 2, -47.2526, -11.989, 29.3595, 13.6661, 67.2645, -166.556
4.24741, 2, -47.2532, -11.9893, 29.3595, 13.666, 67.2645, -166.556
4.25549, 2, -47.2537, -11.9895, 29.3595, 13.666, 67.2644, -166.556
4.26343, 2, -47.2539, -11.9896, 29.3595, 13.666, 67.2645, -166.556
4.27142, 2, -47.254, -11.9897, 29.3595, 13.666, 67.2645, -166.556
4.28096, 2, -47.2539, -11.9897, 29.3595, 13.6661, 67.2645, -166.556
4.28741, 2, -47.2538, -11.9896, 29.3595, 13.6661, 67.2645, -166.556
4.29541, 2, -47.2534, -11.9896, 29.3596, 13.6661, 67.2645, -166.556
4.30501, 2, -47.253, -11.9895, 29.3595, 13.666, 67.2645, -166.556
4.31142, 2, -47.2528, -11.9895, 29.3595, 13.666, 67.2645, -166.556
4.32041, 2, -47.2525, -11.9895, 29.3595, 13.666, 67.2645, -166.556
4.32747, 2, -47.2524, -11.9895, 29.3595, 13.666, 67.2644, -166.556
4.33541, 2, -47.2523, -11.9896, 29.3596, 13.666, 67.2645, -166.556
4.34351, 2, -47.2523, -11.9896, 29.3596, 13.666, 67.2645, -166.555
4.35149, 2, -47.2522, -11.9897, 29.3595, 13.666, 67.2645, -166.555
4.35941, 2, -47.2522, -11.9898, 29.3595, 13.666, 67.2645, -166.556
4.36743, 2, -47.2523, -11.9898, 29.3595, 13.666, 67.2644, -166.555
4.37547, 2, -47.2523, -11.9898, 29.3595, 13.666, 67.2645, -166.555
4.38341, 2, -47.2523, -11.9897, 29.3595, 13.666, 67.2645, -166.556
4.39142, 2, -47.2522, -11.9896, 29.3595, 13.666, 67.2645, -166.555
4.39948, 2, -47.2522, -11.9896, 29.3596, 13.666, 67.2645, -166.555
4.40741, 2, -47.2521, -11.9895, 29.3596, 13.666, 67.2645, -166.555
4.4154, 2, -47.252, -11.9895, 29.3596, 13.666, 67.2645, -166.555
4.4235, 2, -47.2518, -11.9895, 29.3595, 13.6659, 67.2645, -166.555
4.43143, 2, -47.2517, -11.9895, 29.3595, 13.666, 67.2645, -166.555
4.4394, 2, -47.2516, -11.9895, 29.3595, 13.666, 67.2645, -166.555
4.4475, 2, -47.2516, -11.9895, 29.3595, 13.666, 67.2645, -166.555
4.45541, 2, -47.2515, -11.9895, 29.3595, 13.666, 67.2645, -166.555
4.4634, 2, -47.2515, -11.9895, 29.3595, 13.666, 67.2645, -166.555
4.47149, 2, -47.2515, -11.9895, 29.3595, 13.666, 67.2645, -166.555
4.47942, 2, -47.2514, -11.9895, 29.3595, 13.666, 67.2645, -166.555
4.48744, 2, -47.2513, -11.9895, 29.3595, 13.6659, 67.2645, -166.555
4.49547, 2, -47.2512, -11.9894, 29.3595, 13.666, 67.2645, -166.555
4.50341, 2, -47.2511, -11.9894, 29.3596, 13.6659, 67.2646, -166.555
4.51145, 2, -47.2511, -11.9893, 29.3595, 13.666, 67.2646, -166.555
4.51955, 2, -47.2509, -11.9893, 29.3595, 13.666, 67.2646, -166.555
4.5275, 2, -47.2508, -11.9893, 29.3596, 13.6659, 67.2646, -166.555
4.53552, 2, -47.2507, -11.9893, 29.3595, 13.666, 67.2646, -166.555
4.54357, 2, -47.2507, -11.9893, 29.3595, 13.6659, 67.2646, -166.555
4.55153, 2, -47.2506, -11.9893, 29.3595, 13.666, 67.2646, -166.555
4.55947, 2, -47.2505, -11.9893, 29.3595, 13.6659, 67.2646, -166.555
4.56757, 2, -47.2504, -11.9893, 29.3595, 13.6659, 67.2646, -166.555
4.57543, 2, -47.2503, -11.9893, 29.3595, 13.666, 67.2646, -166.555
4.58343, 2, -47.2502, -11.9893, 29.3595, 13.6659, 67.2647, -166.555
4.59178, 2, -47.25, -11.9892, 29.3596, 13.6659, 67.2646, -166.555
4.59956, 2, -47.2499, -11.9892, 29.3595, 13.6659, 67.2647, -166.555
4.60768, 2, -47.2498, -11.9891, 29.3595, 13.6659, 67.2647, -166.555
4.61574, 2, -47.2497, -11.989, 29.3595, 13.6659, 67.2646, -166.555
4.62398, 2, -47.2496, -11.989, 29.3595, 13.6659, 67.2646, -166.555
4.63176, 2, -47.2495, -11.989, 29.3595, 13.6659, 67.2647, -166.555
4.64016, 2, -47.2494, -11.989, 29.3595, 13.6659, 67.2647, -166.555
4.64827, 2, -47.2493, -11.989, 29.3595, 13.6659, 67.2646, -166.555
4.65599, 2, -47.2492, -11.9889, 29.3595, 13.6659, 67.2646, -166.555
4.66451, 2, -47.2492, -11.989, 29.3595, 13.6659, 67.2647, -166.555
4.67247, 2, -47.2491, -11.989, 29.3595, 13.6659, 67.2647, -166.555
4.67997, 2, -47.2491, -11.9889, 29.3595, 13.6659, 67.2647, -166.555
4.68841, 2, -47.249, -11.9889, 29.3595, 13.6658, 67.2647, -166.555
4.69631, 2, -47.2489, -11.9889, 29.3595, 13.6658, 67.2647, -166.555
4.70341, 2, -47.2489, -11.9889, 29.3595, 13.6658, 67.2647, -166.555
4.71146, 2, -47.2488, -11.9888, 29.3595, 13.6658, 67.2647, -166.555
4.71962, 2, -47.2488, -11.9887, 29.3595, 13.6658, 67.2647, -166.555
4.72739, 2, -47.2487, -11.9887, 29.3595, 13.6658, 67.2647, -166.555
4.73547, 2, -47.2486, -11.9886, 29.3595, 13.6658, 67.2647, -166.555
4.74339, 2, -47.2485, -11.9886, 29.3595, 13.6658, 67.2647, -166.555
4.75141, 2, -47.2485, -11.9886, 29.3595, 13.6658, 67.2647, -166.555
4.7608, 2, -47.2484, -11.9886, 29.3595, 13.6658, 67.2648, -166.555
4.76741, 2, -47.2484, -11.9886, 29.3595, 13.6658, 67.2648, -166.555
4.77539, 2, -47.2484, -11.9886, 29.3595, 13.6658, 67.2648, -166.555
4.7851, 2, -47.2483, -11.9886, 29.3595, 13.6657, 67.2648, -166.555
4.79141, 2, -47.2483, -11.9886, 29.3595, 13.6657, 67.2648, -166.555
4.79941, 2, -47.2483, -11.9885, 29.3595, 13.6657, 67.2648, -166.555
4.80746, 2, -47.2482, -11.9885, 29.3595, 13.6657, 67.2648, -166.555
4.81723, 2, -47.2481, -11.9884, 29.3595, 13.6657, 67.2648, -166.554
4.82341, 2, -47.2481, -11.9883, 29.3595, 13.6657, 67.2648, -166.554
4.83147, 2, -47.248, -11.9883, 29.3595, 13.6657, 67.2648, -166.554
4.8413, 2, -47.248, -11.9882, 29.3595, 13.6657, 67.2648, -166.554
4.84739, 2, -47.2479, -11.9882, 29.3595, 13.6657, 67.2648, -166.554
4.85557, 2, -47.2478, -11.9882, 29.3595, 13.6656, 67.2648, -166.554
4.86339, 2, -47.2478, -11.9882, 29.3595, 13.6656, 67.2648, -166.554
4.87143, 2, -47.2477, -11.9882, 29.3595, 13.6656, 67.2649, -166.554
4.87946, 2, -47.2477, -11.9882, 29.3595, 13.6656, 67.2649, -166.554
4.88739, 2, -47.2477, -11.9882, 29.3595, 13.6656, 67.2649, -166.554
4.89539, 2, -47.2477, -11.9882, 29.3595, 13.6656, 67.2648, -166.554
4.90345, 2, -47.2476, -11.9881, 29.3595, 13.6656, 67.2649, -166.554
4.91141, 2, -47.2476, -11.9881, 29.3595, 13.6656, 67.2649, -166.554
4.9194, 2, -47.2476, -11.988, 29.3595, 13.6656, 67.2649, -166.554
4.92748, 2, -47.2475, -11.988, 29.3595, 13.6655, 67.2649, -166.554
4.9354, 2, -47.2474, -11.9879, 29.3595, 13.6655, 67.2649, -166.554
4.94339, 2, -47.2473, -11.9879, 29.3595, 13.6655, 67.2649, -166.554
4.95151, 2, -47.2473, -11.9879, 29.3595, 13.6655, 67.265, -166.554
4.95939, 2, -47.2472, -11.9878, 29.3595, 13.6655, 67.265, -166.554
4.96739, 2, -47.2472, -11.9878, 29.3595, 13.6655, 67.265, -166.554
4.97546, 2, -47.2471, -11.9878, 29.3595, 13.6655, 67.265, -166.554
4.98342, 2, -47.2471, -11.9878, 29.3595, 13.6655, 67.265, -166.554
4.99143, 2, -47.2471, -11.9878, 29.3595, 13.6655, 67.265, -166.554
4.99946, 2, -47.2471, -11.9878, 29.3595, 13.6655, 67.2651, -166.554
5.00739, 2, -47.247, -11.9878, 29.3595, 13.6655, 67.265, -166.554
5.01542, 2, -47.247, -11.9877, 29.3595, 13.6655, 67.265, -166.554
5.02354, 2, -47.2469, -11.9877, 29.3595, 13.6655, 67.2651, -166.554
5.0315, 2, -47.2469, -11.9876, 29.3595, 13.6654, 67.2651, -166.554
5.03951, 2, -47.2468, -11.9876, 29.3595, 13.6654, 67.265, -166.554
5.04756, 2, -47.2467, -11.9875, 29.3595, 13.6654, 67.2651, -166.554
5.05552, 2, -47.2466, -11.9875, 29.3595, 13.6655, 67.2651, -166.554
5.06364, 2, -47.2466, -11.9875, 29.3595, 13.6654, 67.2652, -166.554
5.07522, 2, -47.2465, -11.9874, 29.3595, 13.6653, 67.2651, -166.554
5.07944, 2, -47.2465, -11.9875, 29.3595, 13.6654, 67.2651, -166.554
5.08782, 2, -47.2465, -11.9875, 29.3595, 13.6654, 67.2651, -166.554
5.09559, 2, -47.2465, -11.9874, 29.3595, 13.6653, 67.2652, -166.554
5.10355, 2, -47.2464, -11.9874, 29.3595, 13.6653, 67.2651, -166.554
5.11192, 2, -47.2464, -11.9874, 29.3595, 13.6653, 67.2651, -166.554
5.1199, 2, -47.2464, -11.9873, 29.3595, 13.6653, 67.2651, -166.554
5.12771, 2, -47.2463, -11.9873, 29.3595, 13.6653, 67.2651, -166.554
5.13575, 2, -47.2463, -11.9873, 29.3595, 13.6653, 67.2651, -166.554
5.14392, 4, -47.2462, -11.9872, 29.3595, 13.6653, 67.2652, -166.554
5.15254, 4, -47.2461, -11.9872, 29.3595, 13.6652, 67.2652, -166.554
5.16033, 4, -47.2461, -11.9872, 29.3595, 13.6652, 67.2652, -166.554
5.16801, 4, -47.246, -11.9872, 29.3595, 13.6652, 67.2653, -166.553
5.17594, 4, -47.246, -11.9871, 29.3595, 13.6652, 67.2653, -166.553
5.18431, 4, -47.2459, -11.9871, 29.3595, 13.6652, 67.2653, -166.554
5.19205, 4, -47.2459, -11.9871, 29.3595, 13.6651, 67.2652, -166.554
5.19938, 4, -47.2459, -11.9871, 29.3595, 13.6652, 67.2653, -166.554
5.2074, 4, -47.2459, -11.9871, 29.3595, 13.6652, 67.2653, -166.554
5.21543, 4, -47.2458, -11.9871, 29.3595, 13.6652, 67.2653, -166.553
5.22338, 4, -47.2458, -11.987, 29.3595, 13.6652, 67.2653, -166.553
5.2314, 4, -47.2458, -11.987, 29.3595, 13.6652, 67.2653, -166.553
5.23962, 4, -47.2457, -11.987, 29.3595, 13.6651, 67.2653, -166.553
5.25796, 4, -47.2456, -11.9869, 29.3595, 13.6651, 67.2653, -166.553
5.25976, 4, -47.2456, -11.9869, 29.3595, 13.6651, 67.2653, -166.553
5.2652, 4, -47.2455, -11.9869, 29.3595, 13.6651, 67.2653, -166.553
5.27585, 4, -47.2455, -11.9868, 29.3595, 13.665, 67.2653, -166.553
5.27953, 4, -47.2454, -11.9868, 29.3595, 13.665, 67.2653, -166.553
5.28939, 4, -47.2454, -11.9868, 29.3595, 13.665, 67.2653, -166.553
5.29554, 4, -47.2454, -11.9868, 29.3595, 13.665, 67.2653, -166.553
5.30386, 4, -47.2453, -11.9868, 29.3595, 13.665, 67.2653, -166.553
5.3133, 4, -47.2453, -11.9868, 29.3595, 13.665, 67.2653, -166.553
5.32022, 4, -47.2453, -11.9868, 29.3595, 13.665, 67.2652, -166.553
5.32755, 4, -47.2452, -11.9867, 29.3595, 13.665, 67.2653, -166.553
5.33587, 4, -47.2452, -11.9867, 29.3595, 13.665, 67.2653, -166.553
5.34457, 4, -47.2452, -11.9867, 29.3595, 13.665, 67.2653, -166.553
5.35159, 4, -47.2452, -11.9866, 29.3595, 13.665, 67.2653, -166.553
5.36269, 4, -47.2451, -11.9866, 29.3595, 13.665, 67.2653, -166.553
5.3686, 4, -47.245, -11.9866, 29.3595, 13.665, 67.2653, -166.553
5.37575, 4, -47.245, -11.9866, 29.3595, 13.6649, 67.2653, -166.553
5.38658, 4, -47.2449, -11.9866, 29.3595, 13.6649, 67.2654, -166.553
5.39394, 4, -47.2449, -11.9866, 29.3595, 13.6649, 67.2654, -166.553
5.39952, 4, -47.2449, -11.9866, 29.3595, 13.6649, 67.2654, -166.553
5.40755, 4, -47.2449, -11.9866, 29.3595, 13.6649, 67.2654, -166.553
5.41934, 4, -47.2459, -11.9871, 29.3599, 13.665, 67.2654, -166.553
5.4276, 4, -47.2482, -11.9888, 29.3618, 13.6667, 67.266, -166.553
5.43619, 4, -47.2524, -11.9932, 29.3673, 13.6764, 67.2683, -166.552
5.44052, 4, -47.2555, -11.997, 29.3724, 13.6865, 67.2708, -166.55
5.45054, 4, -47.271, -12.0173, 29.4045, 13.7502, 67.2882, -166.536
5.45568, 5, -47.2791, -12.0282, 29.4232, 13.7883, 67.2988, -166.528
5.4674, 5, -47.3158, -12.0771, 29.5139, 13.9776, 67.3523, -166.485
5.47349, 5, -47.333, -12.0996, 29.5584, 14.0719, 67.3784, -166.463
5.48253, 5, -47.3763, -12.1882, 29.7435, 14.4696, 67.488, -166.371
5.48854, 5, -47.4322, -12.2251, 29.8235, 14.6435, 67.5352, -166.332
5.49659, 5, -47.5009, -12.3105, 30.0124, 15.0546, 67.646, -166.237
5.50751, 5, -47.5818, -12.4109, 30.2398, 15.8182, 67.8494, -166.063
5.5119, 5, -47.6743, -12.5252, 30.5015, 16.1062, 67.9252, -165.998
5.523, 5, -47.831, -12.7194, 30.9492, 17.0452, 68.1689, -165.788
5.52798, 5, -47.8871, -12.7892, 31.1099, 17.3771, 68.2536, -165.714
5.53563, 5, -48.0034, -12.9346, 31.4444, 18.0575, 68.4251, -165.566
5.54395, 5, -48.1233, -13.0855, 31.7903, 18.7499, 68.5962, -165.417
5.55257, 5, -48.2441, -13.2388, 32.1428, 19.4452, 68.765, -165.269
5.56034, 5, -48.3628, -13.391, 32.4972, 20.132, 68.93, -165.121
5.56771, 5, -48.4758, -13.5395, 32.85, 20.8009, 69.0912, -164.968
5.57654, 6, -48.5789, -13.6809, 33.1943, 21.4403, 69.2499, -164.8
5.58376, 6, -48.6677, -13.8121, 33.5254, 22.0387, 69.4082, -164.603
5.59296, 6, -48.7382, -13.9329, 33.838, 22.59, 69.5686, -164.365
5.59977, 7, -48.7874, -14.0449, 34.1307, 23.0907, 69.7337, -164.072
5.61223, 7, -48.8151, -14.1485, 34.4023, 23.5442, 69.9063, -163.507
5.61577, 8, -48.8226, -14.2425, 34.6544, 23.959, 70.0893, -163.284
5.62556, 8, -48.8118, -14.3267, 34.8917, 24.345, 70.284, -162.789
5.63259, 9, -48.7857, -14.4028, 35.1171, 24.7128, 70.491, -162.235
5.64081, 9, -48.7471, -14.4733, 35.3349, 25.0722, 70.7092, -161.637
5.65053, 10, -48.6979, -14.5398, 35.5497, 25.429, 70.9369, -161.01
5.65707, 10, -48.6391, -14.6035, 35.7633, 25.7869, 71.1715, -160.366
5.66532, 11, -48.5729, -14.6648, 35.9764, 26.1469, 71.4098, -159.715
5.67452, 11, -48.5014, -14.725, 36.19, 26.5101, 71.6491, -159.066
5.68023, 11, -48.4254, -14.7856, 36.4026, 26.878, 71.8888, -158.42
5.6896, 12, -48.3467, -14.8474, 36.6131, 27.2517, 72.1289, -157.773
5.69672, 13, -48.2671, -14.9087, 36.8224, 27.6322, 72.3699, -157.125
5.71032, 13, -48.1456, -14.9981, 37.1335, 28.2153, 72.7343, -156.151
5.71298, 14, -48.1039, -15.0279, 37.2363, 28.4127, 72.8564, -155.824
5.71953, 14, -48.0613, -15.0581, 37.3389, 28.6113, 72.979, -155.497
5.73082, 15, -47.9277, -15.1494, 37.6456, 29.2122, 73.3479, -154.518
5.73758, 15, -47.8344, -15.2094, 37.8473, 29.6148, 73.5933, -153.868
5.74626, 16, -47.7364, -15.2684, 38.0468, 30.0173, 73.8372, -153.22
5.75358, 16, -47.685, -15.328, 38.2443, 30.4185, 74.0787, -152.576
5.76352, 17, -47.5208, -15.3894, 38.4383, 30.8176, 74.3166, -151.937
5.7676, 17, -47.4633, -15.4206, 38.5339, 31.016, 74.434, -151.619
5.77778, 18, -47.2835, -15.5152, 38.8164, 31.606, 74.7779, -150.673
5.78586, 18, -47.1572, -15.5789, 39.0016, 31.9944, 75.0002, -150.052
5.79188, 19, -47.092, -15.6112, 39.093, 32.1873, 75.1089, -149.744
5.80393, 19, -46.889, -15.7119, 39.3639, 32.7629, 75.4272, -148.831
5.80924, 20, -46.7476, -15.7814, 39.5431, 33.1447, 75.6332, -148.231
5.81817, 20, -46.6011, -15.8529, 39.7203, 33.5255, 75.8351, -147.638
5.82357, 21, -46.526, -15.8898, 39.808, 33.7158, 75.9346, -147.345
5.83629, 21, -46.2934, -16.0055, 40.0686, 34.2855, 76.2271, -146.472
5.83951, 22, -46.2136, -16.0456, 40.1549, 34.4746, 76.3224, -146.185
5.85087, 22, -45.9668, -16.168, 40.41, 35.0374, 76.5997, -145.334
5.8555, 23, -45.8819, -16.2095, 40.4935, 35.2229, 76.6893, -145.054
5.86702, 23, -45.6175, -16.337, 40.7404, 35.772, 76.9481, -144.223
5.87369, 24, -45.4327, -16.4243, 40.9012, 36.131, 77.1128, -143.676
5.8808, 24, -45.3378, -16.4685, 40.9798, 36.3081, 77.1928, -143.405
5.88758, 25, -45.143, -16.558, 41.1337, 36.6576, 77.3488, -142.866
5.90052, 25, -44.8385, -16.6945, 41.3566, 37.1696, 77.5737, -142.064
5.90349, 26, -44.7337, -16.7405, 41.4286, 37.337, 77.6464, -141.799
5.91485, 26, -44.4086, -16.8794, 41.6368, 37.8289, 77.8587, -141.005
5.91959, 27, -44.2966, -16.9256, 41.7035, 37.9893, 77.9276, -140.742
5.92888, 27, -44.0675, -17.0176, 41.8324, 38.3042, 78.0621, -140.216
5.93799, 28, -43.8319, -17.1087, 41.9554, 38.7617, 78.2576, -139.429
5.94436, 28, -43.5893, -17.1989, 42.0719, 38.91, 78.3207, -139.167
5.9515, 29, -43.34, -17.2876, 42.1816, 39.2001, 78.4447, -138.644
5.95957, 29, -43.0846, -17.3748, 42.2845, 39.4818, 78.5658, -138.122
5.96772, 30, -42.8225, -17.4602, 42.3801, 39.7555, 78.6832, -137.6
5.97656, 30, -42.5524, -17.5437, 42.4686, 40.0205, 78.7982, -137.078
5.98356, 31, -42.2735, -17.6248, 42.5499, 40.2769, 78.9098, -136.557
5.9915, 31, -41.9865, -17.7034, 42.6241, 40.5248, 79.0188, -136.037
5.99952, 32, -41.6922, -17.7796, 42.6914, 40.7642, 79.1255, -135.517
6.00765, 32, -41.3911, -17.8534, 42.7519, 40.9951, 79.2291, -134.998
6.01922, 33, -40.9273, -17.959, 42.8294, 41.3264, 79.3802, -134.221
6.02355, 33, -40.7693, -17.9926, 42.8517, 41.4327, 79.4293, -133.963
6.03166, 34, -40.4485, -18.0574, 42.8908, 41.6392, 79.5253, -133.447
6.04375, 34, -39.9581, -18.15, 42.9357, 41.9338, 79.6645, -132.674
6.05107, 35, -39.6247, -18.2079, 42.9567, 42.1206, 79.7543, -132.161
6.05615, 35, -39.4558, -18.2355, 42.9646, 42.2112, 79.7981, -131.905
6.06367, 36, -39.1128, -18.2882, 42.975, 42.3867, 79.8846, -131.393
6.07563, 36, -38.5847, -18.3611, 42.9778, 42.6353, 80.0099, -130.627
6.08059, 37, -38.4054, -18.3837, 42.9754, 42.7144, 80.0505, -130.373
6.09014, 37, -38.0424, -18.4263, 42.9654, 42.8669, 80.1304, -129.865
6.0965, 38, -37.6738, -18.4651, 42.9486, 43.012, 80.2083, -129.36
6.10448, 38, -37.3004, -18.5005, 42.9252, 43.1498, 80.2842, -128.855
6.11254, 39, -36.9226, -18.5325, 42.8951, 43.2799, 80.3576, -128.352
6.12379, 39, -36.3473, -18.5739, 42.8373, 43.4617, 80.4642, -127.602
6.12809, 40, -36.1528, -18.5858, 42.8147, 43.5186, 80.4987, -127.353
6.1375, 40, -35.7593, -18.6067, 42.7647, 43.627, 80.5666, -126.856
6.14845, 41, -35.1581, -18.6306, 42.6774, 43.776, 80.6645, -126.113
6.1529, 41, -34.9549, -18.6368, 42.645, 43.822, 80.6962, -125.867
6.16271, 42, -34.5456, -18.6466, 42.5756, 43.9091, 80.7585, -125.377
6.16898, 42, -34.133, -18.6531, 42.4996, 43.9888, 80.8179, -124.888
6.17673, 42, -33.7174, -18.6564, 42.4176, 44.0615, 80.8766, -124.402
6.18518, 43, -33.2976, -18.6564, 42.3295, 44.1269, 80.9329, -123.918
6.19242, 43, -32.872, -18.6526, 42.2358, 44.1856, 80.9875, -123.436
6.20091, 44, -32.6569, -18.6493, 42.1363, 44.2363, 81.0413, -122.957
6.20844, 44, -32.2217, -18.6338, 42.0309, 44.2804, 81.0923, -122.48
6.22132, 45, -31.5584, -18.6188, 41.8616, 44.3326, 81.167, -121.769
6.2235, 45, -31.3355, -18.6101, 41.8616, 44.3326, 81.167, -121.769
6.23529, 46, -30.6642, -18.5787, 41.6788, 44.3671, 81.2368, -121.064
6.23952, 47, -30.4392, -18.5664, 41.615, 44.3748, 81.2593, -120.83
6.25016, 47, -29.7571, -18.5227, 41.4147, 44.3871, 81.3262, -120.131
6.25556, 48, -29.5267, -18.506, 41.345, 44.3878, 81.3476, -119.899
6.26354, 48, -29.061, -18.4693, 41.2009, 44.383, 81.3895, -119.436
6.27163, 49, -28.5894, -18.4282, 41.0507, 44.3692, 81.4313, -118.975
6.28192, 49, -27.8751, -18.3583, 40.8146, 44.3321, 81.4934, -118.287
6.29089, 50, -27.3959, -18.3061, 40.6493, 44.2949, 81.5339, -117.83
6.29795, 50, -26.913, -18.2486, 40.4772, 44.2489, 81.5753, -117.373
6.30349, 51, -26.6693, -18.2178, 40.3887, 44.2227, 81.5965, -117.145
6.31383, 51, -25.9265, -18.117, 40.1139, 44.1282, 81.66, -116.463
6.32246, 52, -25.4225, -18.0428, 39.9213, 44.0534, 81.703, -116.009
6.32762, 52, -25.169, -18.0038, 39.8223, 44.0118, 81.7251, -115.782
6.33551, 53, -24.6605, -17.9219, 39.6199, 43.9209, 81.77, -115.33
6.34939, 53, -23.893, -17.7882, 39.3037, 43.7661, 81.8374, -114.425
6.35154, 54, -23.6346, -17.7406, 39.1944, 43.7094, 81.8608, -114.425
6.3605, 54, -23.1119, -17.6406, 38.9705, 43.5878, 81.9095, -113.973
6.37237, 55, -22.3127, -17.4792, 38.6219, 43.3848, 81.9849, -113.296
6.37654, 55, -22.0436, -17.4222, 38.5018, 43.3113, 82.0115, -113.07
6.38639, 56, -21.2328, -17.2426, 38.1322, 43.0731, 82.0941, -112.392
6.39442, 56, -20.9612, -17.1799, 38.0056, 42.8999, 82.151, -111.941
6.40196, 57, -20.1362, -16.9834, 37.6151, 42.7152, 82.2103, -111.491
6.40754, 57, -19.8565, -16.9151, 37.4819, 42.6185, 82.2402, -111.265
6.41547, 58, -19.2906, -16.774, 37.2097, 42.4157, 82.3016, -110.815
6.42358, 58, -18.7191, -16.6268, 36.9314, 42.2004, 82.3656, -110.365
6.43548, 59, -17.8574, -16.3958, 36.5019, 41.8542, 82.4646, -109.691
6.43956, 59, -17.5684, -16.3164, 36.3555, 41.7325, 82.4991, -109.466
6.44859, 60, -16.984, -16.1544, 36.0583, 41.4796, 82.569, -109.017
6.45558, 60, -16.3895, -15.987, 35.7551, 41.214, 82.6415, -108.568
6.46449, 61, -15.7873, -15.8143, 35.4471, 40.9353, 82.7151, -108.119
6.47163, 61, -15.1814, -15.6372, 35.1329, 40.6437, 82.7911, -107.671
6.48051, 62, -14.5726, -15.4559, 34.8137, 40.3397, 82.8688, -107.222
6.48764, 62, -13.957, -15.2698, 34.4888, 40.0224, 82.9491, -106.774
6.49883, 63, -13.0151, -14.9792, 33.993, 39.5212, 83.0743, -106.1
6.50371, 63, -12.697, -14.8791, 33.825, 39.3469, 83.1175, -105.875
6.5149, 64, -11.7354, -14.5716, 33.3132, 38.8025, 83.2526, -105.2
6.5198, 64, -11.4127, -14.4659, 33.1394, 38.6138, 83.2995, -104.974
6.52859, 65, -10.7607, -14.2489, 32.7874, 38.2248, 83.397, -104.521
6.53652, 65, -10.0976, -14.0244, 32.4287, 37.8196, 83.4998, -104.066
6.54359, 66, -9.42462, -13.7932, 32.0646, 37.3967, 83.6081, -103.609
6.55473, 66, -8.74405, -13.5549, 31.6948, 36.957, 83.723, -103.15
6.56306, 67, -8.05817, -13.3094, 31.1271, 36.2647, 83.9074, -102.457
6.57151, 67, -7.01334, -12.9284, 30.7405, 35.7826, 84.0391, -101.993
6.57567, 68, -6.66074, -12.7979, 30.5456, 35.5357, 84.1073, -101.759
6.58469, 68, -5.9504, -12.5324, 30.1537, 35.032, 84.2482, -101.291
6.59774, 69, -4.87555, -12.121, 29.5602, 34.2543, 84.4693, -100.586
6.60237, 69, -4.5143, -11.9798, 29.361, 33.9893, 84.5455, -100.35
6.60781, 70, -3.78619, -11.6931, 28.9628, 33.4511, 84.7023, -99.8773
6.61704, 70, -3.05007, -11.3994, 28.5644, 32.8984, 84.8652, -99.403
6.62406, 71, -2.30569, -11.0969, 28.1648, 32.3314, 85.0351, -98.9279
6.63273, 71, -1.55271, -10.7867, 27.7617, 31.7486, 85.2135, -98.4507
6.64236, 72, -0.791794, -10.4699, 27.3555, 31.1484, 85.402, -97.9701
6.64885, 72, -0.0237305, -10.1478, 26.946, 30.5287, 85.6003, -97.486
6.65692, 73, 0.750673, -9.81716, 26.5337, 29.8949, 85.8081, -96.9985
6.66486, 73, 1.531, -9.47696, 26.1202, 29.2487, 86.0242, -96.5085
6.67639, 74, 2.3158, -9.12974, 25.5, 28.2607, 86.3639, -95.7685
6.68092, 74, 3.10311, -8.77875, 25.2944, 27.9274, 86.4809, -95.5207
6.69223, 75, 4.28749, -8.24255, 24.6847, 26.9193, 86.8409, -94.7754
6.6969, 75, 4.28749, -8.24255, 24.4842, 26.5828, 86.9633, -94.5269
6.7063, 76, 5.47607, -7.69368, 24.0884, 25.9112, 87.2117, -94.029
6.71294, 76, 5.8726, -7.50803, 23.8934, 25.5754, 87.4637, -93.5302
6.72053, 77, 6.6653, -6.94151, 23.3207, 24.5714, 87.721, -93.0303
6.72958, 77, 7.85465, -6.55373, 22.9468, 23.9036, 87.9852, -92.5295
6.7436, 78, 9.04568, -5.95767, 22.3942, 22.8971, 88.4004, -91.7752
6.74756, 78, 9.443, -5.75533, 22.2121, 22.5591, 88.5449, -91.522
6.76184, 79, 11.0326, -4.92296, 21.4876, 21.1963, 89.1559, -90.4987
6.76317, 79, 11.0326, -4.92296, 21.4876, 21.1963, 89.1559, -90.4987
6.76728, 80, 11.4286, -4.70901, 21.3072, 20.8539, 89.317, -90.2398
6.77537, 80, 12.2169, -4.2744, 20.9488, 20.1669, 89.6482, -89.7182
6.78503, 81, 13.3884, -3.60429, 20.418, 19.1447, 90.1662, -88.9248
6.79289, 81, 14.1626, -3.1465, 20.0711, 18.4755, 90.5228, -88.3899
6.80173, 82, 14.9292, -2.68128, 19.7322, 17.8192, 90.8861, -87.8521
6.80739, 82, 15.3094, -2.44553, 19.5666, 17.4964, 91.0698, -87.5822
6.81787, 83, 16.063, -1.9691, 19.2428, 16.5533, 91.6283, -86.7681
6.8234, 83, 16.8067, -1.48583, 18.9298, 16.2485, 91.8166, -86.4956
6.83291, 83, 17.5392, -0.995907, 18.6272, 15.6528, 92.1964, -85.9491
6.83936, 84, 18.2566, -0.501098, 18.3346, 15.0752, 92.5809, -85.4025
6.84739, 84, 18.9563, -0.00272795, 18.051, 14.5174, 92.9723, -84.8552
6.85541, 85, 19.6381, 0.500702, 17.7736, 13.9787, 93.3714, -84.3085
6.86333, 85, 20.3026, 1.00929, 17.5024, 13.4599, 93.7792, -83.7636
6.8714, 86, 20.95, 1.52202, 17.2367, 12.962, 94.1932, -83.2217
6.8794, 86, 21.5819, 2.03974, 16.9769, 12.4848, 94.6131, -82.6804
6.88832, 87, 22.2006, 2.56521, 16.7231, 12.0296, 95.0385, -82.1387
6.89539, 87, 22.808, 3.10094, 16.4736, 11.5951, 95.4699, -81.594
6.90338, 87, 23.4058, 3.64623, 16.2286, 11.1799, 95.9073, -81.0453
6.9114, 88, 23.9936, 4.19898, 15.9873, 10.7812, 96.3507, -80.4891
6.91932, 88, 24.5702, 4.76006, 15.7501, 10.3987, 96.8, -79.9236
6.92741, 89, 25.1348, 5.33199, 15.519, 10.0311, 97.2561, -79.3475
6.93537, 89, 25.6899, 5.91495, 15.2919, 9.67908, 97.7184, -78.7599
6.94332, 90, 26.24, 6.50781, 15.0678, 9.34168, 98.1869, -78.159
6.95142, 90, 26.7827, 7.10939, 14.8485, 9.01986, 98.662, -77.5439
6.95937, 91, 27.3135, 7.71979, 14.6344, 8.71538, 99.1436, -76.9156
6.96736, 91, 27.8314, 8.34046, 14.4247, 8.42939, 99.6312, -76.2755
6.97541, 92, 28.3396, 8.97199, 14.2192, 8.16446, 100.124, -75.6234
6.98337, 92, 28.8406, 9.61382, 14.0184, 7.92153, 100.62, -74.9625
6.99133, 93, 29.3326, 10.2637, 13.8231, 7.70109, 101.119, -74.2951
6.99942, 93, 29.8119, 10.9194, 13.6351, 7.50422, 101.618, -73.6201
7.00741, 94, 30.2771, 11.5793, 13.4551, 7.33079, 102.116, -72.9388
7.01545, 94, 30.7277, 12.242, 13.282, 7.18105, 102.611, -72.2529
7.02342, 95, 31.1645, 12.9066, 13.1161, 7.055, 103.103, -71.5619
7.03166, 95, 31.5877, 13.5732, 12.9581, 6.9527, 103.592, -70.8644
7.03942, 96, 31.9966, 14.2411, 12.8073, 6.87366, 104.077, -70.1623
7.0479, 96, 32.3897, 14.9096, 12.6628, 6.81932, 104.559, -69.4552
7.05634, 97, 32.7663, 15.5781, 12.525, 6.78667, 105.035, -68.7415
7.06379, 97, 33.127, 16.2454, 12.3949, 6.77521, 105.506, -68.0235
7.07148, 98, 33.4723, 16.9102, 12.2733, 6.78605, 105.97, -67.3034
7.07956, 98, 33.8032, 17.5705, 12.1605, 6.81789, 106.425, -66.5794
7.08737, 99, 34.1202, 18.2252, 12.0569, 6.86922, 106.87, -65.8557
7.09548, 99, 34.4251, 18.8728, 11.9627, 6.9403, 107.303, -65.1341
7.10352, 100, 34.719, 19.5118, 11.8775, 7.02838, 107.723, -64.4141
7.11151, 100, 35.0013, 20.1415, 11.8012, 7.13403, 108.13, -63.6988
7.11955, 101, 35.2716, 20.7602, 11.7331, 7.25526, 108.521, -62.9911
7.12837, 101, 35.5301, 21.3681, 11.6734, 7.39104, 108.897, -62.2893
7.13567, 102, 35.7761, 21.9634, 11.6223, 7.53925, 109.255, -61.5975
7.14378, 102, 36.0085, 22.5457, 11.5795, 7.69821, 109.597, -60.9176
7.15178, 103, 36.2296, 23.1136, 11.5454, 7.86601, 109.921, -60.2493
7.16054, 103, 36.4433, 23.6659, 11.52, 8.04165, 110.227, -59.5933
7.1679, 103, 36.6505, 24.2028, 11.5039, 8.22552, 110.515, -58.9515
7.1765, 104, 36.8508, 24.7238, 11.496, 8.4179, 110.784, -58.3222
7.18392, 104, 37.0452, 25.2288, 11.4949, 8.61925, 111.034, -57.7036
7.19246, 104, 37.2338, 25.7183, 11.5003, 8.82893, 111.265, -57.0972
7.20063, 104, 37.3251, 25.957, 11.5052, 8.93651, 111.373, -56.5035
7.20733, 104, 37.4998, 26.4219, 11.5179, 9.15615, 111.575, -56.2115
7.21636, 104, 37.7438, 27.0896, 11.542, 9.49247, 111.849, -55.3584
7.22334, 104, 37.8221, 27.3047, 11.5514, 9.60483, 111.934, -55.083
7.23132, 104, 37.9761, 27.7227, 11.5715, 9.82812, 112.095, -54.5483
7.23937, 104, 38.1262, 28.1246, 11.5921, 10.0477, 112.247, -54.0361
7.24733, 104, 38.2708, 28.5095, 11.6125, 10.2624, 112.39, -53.5468
7.25532, 104, 38.4092, 28.8781, 11.6318, 10.4709, 112.525, -53.0818
7.26337, 104, 38.5404, 29.2285, 11.65, 10.6722, 112.652, -52.6409
7.27131, 104, 38.6635, 29.5609, 11.6673, 10.8654, 112.772, -52.2253
7.2808, 104, 38.8323, 30.0232, 11.6907, 11.1386, 112.937, -51.6484
7.28896, 104, 38.9346, 30.3084, 11.7051, 11.3087, 113.037, -51.295
7.29531, 104, 38.9829, 30.4437, 11.7119, 11.39, 113.084, -51.1281
7.30342, 104, 39.0737, 30.6993, 11.7246, 11.5448, 113.173, -50.8132
7.31131, 104, 39.1568, 30.9355, 11.736, 11.6888, 113.255, -50.5232
7.32096, 104, 39.2319, 31.2529, 11.7513, 11.8835, 113.364, -50.1359
7.32736, 104, 39.2989, 31.3486, 11.7561, 11.9426, 113.397, -50.0194
7.33694, 104, 39.3582, 31.5258, 11.7648, 12.0519, 113.456, -49.8052
7.34436, 104, 39.4102, 31.6835, 11.7725, 12.149, 113.51, -49.6161
7.35138, 104, 39.4558, 31.822, 11.7793, 12.2342, 113.555, -49.452
7.35932, 104, 39.4957, 31.9426, 11.7856, 12.3069, 113.594, -49.3121
7.36731, 104, 39.5297, 32.0461, 11.7912, 12.3684, 113.626, -49.1958
7.37545, 104, 39.5576, 32.1332, 11.7962, 12.418, 113.652, -49.1015
7.38333, 104, 39.5804, 32.2053, 11.8006, 12.4564, 113.672, -49.0273
7.39133, 104, 39.5984, 32.2643, 11.8047, 12.486, 113.687, -48.9717
7.39937, 104, 39.6123, 32.3116, 11.8084, 12.5077, 113.698, -48.9317
7.40731, 104, 39.623, 32.3484, 11.8117, 12.523, 113.705, -48.9042
7.41531, 104, 39.6312, 32.3759, 11.8147, 12.5332, 113.709, -48.8864
7.42341, 104, 39.6369, 32.3966, 11.8173, 12.5396, 113.712, -48.8758
7.43131, 104, 39.6405, 32.4116, 11.8195, 12.5431, 113.713, -48.8702
7.43932, 104, 39.6425, 32.4217, 11.8211, 12.545, 113.714, -48.8675
7.44735, 105, 39.6434, 32.428, 11.8223, 12.5459, 113.714, -48.8664
7.45532, 105, 39.6431, 32.432, 11.8234, 12.5463, 113.714, -48.866
7.46333, 105, 39.6422, 32.4348, 11.8242, 12.5465, 113.714, -48.8661
7.47141, 105, 39.6412, 32.4368, 11.825, 12.5466, 113.714, -48.8663
7.47931, 105, 39.6402, 32.4384, 11.8256, 12.5467, 113.714, -48.8666
7.48731, 105, 39.639, 32.4397, 11.8262, 12.5467, 113.714, -48.8669
7.49542, 105, 39.6379, 32.441, 11.8268, 12.5467, 113.714, -48.8673
7.50333, 105, 39.6371, 32.4421, 11.8273, 12.5468, 113.714, -48.8676
7.51135, 105, 39.6367, 32.4433, 11.8279, 12.5468, 113.714, -48.868
7.51939, 105, 39.6364, 32.4444, 11.8285, 12.5468, 113.714, -48.8682
7.52734, 105, 39.6362, 32.4453, 11.829, 12.5468, 113.714, -48.8685
7.53542, 105, 39.636, 32.4461, 11.8294, 12.5468, 113.714, -48.8688
7.54348, 105, 39.6357, 32.4466, 11.8297, 12.5467, 113.714, -48.869
7.55141, 105, 39.6355, 32.447, 11.83, 12.5467, 113.714, -48.8692
7.55944, 105, 39.6352, 32.4471, 11.8303, 12.5467, 113.714, -48.8695
7.5677, 105, 39.6349, 32.4472, 11.8305, 12.5467, 113.714, -48.8697
