hehonglu123/Motion-Primitive-Planning/ILC/recorded_data/realrobot/wood/iteration_3/run_1.csv
timestamp, cmd_num, J1, J2, J3, J4, J5, J6
0.000702, -1, 11.3758, 13.614, 17.3367, -145.52, -97.9255, 142.516
0.006679, -1, 11.3758, 13.614, 17.3367, -145.52, -97.9255, 142.516
0.009435, -1, 11.3758, 13.614, 17.3368, -145.52, -97.9255, 142.516
0.030846, -1, 11.3758, 13.614, 17.3367, -145.52, -97.9256, 142.516
0.034887, -1, 11.3758, 13.614, 17.3367, -145.52, -97.9256, 142.516
0.036915, -1, 11.3758, 13.614, 17.3367, -145.52, -97.9256, 142.516
0.039448, -1, 11.3758, 13.614, 17.3367, -145.52, -97.9256, 142.516
0.047419, -1, 11.3757, 13.614, 17.3368, -145.52, -97.9255, 142.516
0.056646, -1, 11.3756, 13.614, 17.3368, -145.52, -97.9255, 142.516
0.063424, -1, 11.3742, 13.6139, 17.3368, -145.52, -97.9255, 142.516
0.071406, -1, 11.3697, 13.6135, 17.3366, -145.52, -97.9255, 142.516
0.080941, -1, 11.3548, 13.6114, 17.3361, -145.521, -97.9255, 142.514
0.088999, -1, 11.3372, 13.608, 17.3353, -145.523, -97.9253, 142.505
0.095469, -1, 11.3251, 13.6054, 17.335, -145.524, -97.9251, 142.496
0.105914, -1, 11.2717, 13.5929, 17.334, -145.533, -97.9228, 142.444
0.113017, -1, 11.2214, 13.5806, 17.3341, -145.545, -97.9194, 142.378
0.119418, -1, 11.192, 13.5733, 17.3347, -145.553, -97.9169, 142.335
0.130927, -1, 11.0863, 13.5461, 17.3398, -145.585, -97.906, 142.152
0.135429, -1, 11.0452, 13.5351, 17.3427, -145.599, -97.9012, 142.073
0.144407, -1, 10.9539, 13.5104, 17.3502, -145.63, -97.89, 141.891
0.151503, -1, 10.8516, 13.4824, 17.3598, -145.667, -97.8769, 141.678
0.159414, -1, 10.7385, 13.451, 17.3708, -145.708, -97.8627, 141.441
0.167412, -1, 10.6146, 13.4167, 17.382, -145.751, -97.8475, 141.187
0.175494, -1, 10.4807, 13.3798, 17.393, -145.796, -97.8317, 140.922
0.183416, -1, 10.339, 13.341, 17.4034, -145.843, -97.8158, 140.649
0.191415, -1, 10.1916, 13.301, 17.4135, -145.891, -97.7994, 140.373
0.19948, -1, 10.0405, 13.2601, 17.4236, -145.938, -97.7826, 140.096
0.20742, -1, 9.8868, 13.2189, 17.4336, -145.986, -97.7654, 139.817
0.215492, -1, 9.73143, 13.1775, 17.4437, -146.034, -97.7481, 139.538
0.223416, -1, 9.57595, 13.1361, 17.4537, -146.082, -97.731, 139.258
0.231417, -1, 9.421, 13.095, 17.4635, -146.13, -97.7141, 138.979
0.239471, -1, 9.2664, 13.0538, 17.4735, -146.178, -97.6973, 138.699
0.247412, -1, 9.11219, 13.0127, 17.4835, -146.225, -97.6805, 138.419
0.255495, -1, 8.95839, 12.9716, 17.4936, -146.274, -97.6638, 138.14
0.26345, -1, 8.80467, 12.9306, 17.5037, -146.322, -97.6468, 137.86
0.27141, -1, 8.65131, 12.8896, 17.5138, -146.369, -97.6295, 137.58
0.279487, -1, 8.49852, 12.8484, 17.5239, -146.418, -97.612, 137.3
0.287422, -1, 8.34563, 12.8071, 17.5341, -146.466, -97.5945, 137.02
0.295471, -1, 8.19248, 12.7657, 17.5442, -146.513, -97.5774, 136.74
0.303486, -1, 8.03883, 12.7241, 17.5544, -146.561, -97.5604, 136.46
0.311453, -1, 7.88459, 12.6824, 17.5646, -146.609, -97.5437, 136.179
0.319447, -1, 7.72983, 12.6407, 17.5746, -146.657, -97.5272, 135.899
0.327527, -1, 7.57489, 12.599, 17.5848, -146.705, -97.5105, 135.619
0.335681, -1, 7.4199, 12.5575, 17.595, -146.753, -97.4934, 135.339
0.343519, -1, 7.26489, 12.516, 17.6051, -146.801, -97.4762, 135.058
0.351579, -1, 7.10994, 12.4744, 17.6154, -146.849, -97.4588, 134.778
0.359913, -1, 6.95481, 12.4331, 17.6257, -146.898, -97.4416, 134.498
0.368439, -1, 6.79975, 12.3918, 17.636, -146.945, -97.4247, 134.218
0.503339, -1, 4.24092, 11.7066, 17.8069, -147.74, -97.1425, 129.585
0.50614, -1, 4.16335, 11.6859, 17.8121, -147.764, -97.134, 129.444
0.507335, -1, 4.16335, 11.6859, 17.8121, -147.764, -97.134, 129.444
0.509437, -1, 4.0859, 11.6652, 17.8173, -147.788, -97.1255, 129.303
0.510626, -1, 4.0859, 11.6652, 17.8173, -147.788, -97.1255, 129.303
0.512693, -1, 4.00854, 11.6445, 17.8225, -147.812, -97.1171, 129.163
0.513914, -1, 4.00854, 11.6445, 17.8225, -147.812, -97.1171, 129.163
0.516663, -1, 3.93123, 11.6237, 17.8276, -147.836, -97.1086, 129.022
0.518791, -1, 3.93123, 11.6237, 17.8276, -147.836, -97.1086, 129.022
0.520872, -1, 3.854, 11.603, 17.8328, -147.861, -97.1002, 128.882
0.522143, -1, 3.854, 11.603, 17.8328, -147.861, -97.1002, 128.882
0.523417, -1, 3.854, 11.603, 17.8328, -147.861, -97.1002, 128.882
0.525389, -1, 3.77684, 11.5822, 17.838, -147.885, -97.0918, 128.741
0.526732, -1, 3.77684, 11.5822, 17.838, -147.885, -97.0918, 128.741
0.529463, -1, 3.69966, 11.5614, 17.8431, -147.909, -97.0834, 128.601
0.531158, -1, 3.69966, 11.5614, 17.8431, -147.909, -97.0834, 128.601
0.533228, -1, 3.62248, 11.5406, 17.8483, -147.933, -97.0749, 128.46
0.534431, -1, 3.62248, 11.5406, 17.8483, -147.933, -97.0749, 128.46
0.536349, -1, 3.62248, 11.5406, 17.8483, -147.933, -97.0749, 128.319
0.537759, -1, 3.54527, 11.5197, 17.8534, -147.957, -97.0663, 128.319
0.539033, -1, 3.54527, 11.5197, 17.8534, -147.957, -97.0663, 128.319
0.543408, -1, 3.46799, 11.4989, 17.8586, -147.981, -97.0577, 128.178
0.551414, -1, 3.31322, 11.4572, 17.8691, -148.03, -97.0402, 127.897
0.559456, -1, 3.15813, 11.4155, 17.8795, -148.078, -97.0226, 127.615
0.567403, -1, 3.0029, 11.3736, 17.8899, -148.126, -97.0052, 127.334
0.575406, -1, 2.84746, 11.3318, 17.9003, -148.175, -96.9881, 127.052
0.58347, -1, 2.69176, 11.2901, 17.9106, -148.222, -96.9712, 126.77
0.591409, -1, 2.53577, 11.2483, 17.921, -148.271, -96.9545, 126.489
0.599402, -1, 2.37947, 11.2065, 17.9315, -148.319, -96.9377, 126.207
0.607478, -1, 2.22297, 11.1648, 17.9419, -148.367, -96.9207, 125.925
0.615401, -1, 2.06622, 11.1231, 17.9523, -148.416, -96.9034, 125.643
0.625803, -1, 1.90955, 11.0814, 17.9627, -148.464, -96.886, 125.22
0.631518, -1, 1.7531, 11.0398, 17.9731, -148.512, -96.8685, 125.079
0.640449, -1, 1.59677, 10.9981, 17.9836, -148.561, -96.8513, 124.797
0.647412, -1, 1.44074, 10.9564, 17.994, -148.61, -96.8343, 124.515
0.656389, -1, 1.28494, 10.9148, 18.0044, -148.658, -96.8174, 124.233
0.79647, -1, -1.44736, 10.1829, 18.1867, -149.507, -96.5179, 119.286
0.798463, -1, -1.44736, 10.1829, 18.1919, -149.531, -96.5095, 119.144
0.799957, -1, -1.52569, 10.162, 18.1919, -149.531, -96.5095, 119.144
0.801229, -1, -1.52569, 10.162, 18.1919, -149.531, -96.5095, 119.144
0.803358, -1, -1.6039, 10.141, 18.1972, -149.555, -96.5011, 119.002
0.80457, -1, -1.6039, 10.141, 18.1972, -149.555, -96.5011, 119.002
0.807204, -1, -1.6039, 10.141, 18.1972, -149.555, -96.5011, 118.861
0.810943, -1, -1.76, 10.0991, 18.2077, -149.604, -96.484, 118.719
0.812342, -1, -1.76, 10.0991, 18.2077, -149.604, -96.484, 118.719
0.813528, -1, -1.76, 10.0991, 18.2077, -149.604, -96.484, 118.719
0.815567, -1, -1.8379, 10.0782, 18.2129, -149.628, -96.4754, 118.578
0.816758, -1, -1.8379, 10.0782, 18.2129, -149.628, -96.4754, 118.578
0.818807, -1, -1.9157, 10.0573, 18.2181, -149.653, -96.4666, 118.436
0.820364, -1, -1.9157, 10.0573, 18.2181, -149.653, -96.4666, 118.436
0.82158, -1, -1.9157, 10.0573, 18.2181, -149.653, -96.4666, 118.436
0.827754, -1, -2.07104, 10.0154, 18.2285, -149.701, -96.449, 118.152
0.828948, -1, -2.07104, 10.0154, 18.2285, -149.701, -96.449, 118.152
0.831789, -1, -2.14861, 9.99445, 18.2337, -149.726, -96.4402, 118.01
0.83393, -1, -2.14861, 9.99445, 18.2337, -149.726, -96.4402, 118.01
0.835993, -1, -2.22618, 9.97352, 18.2389, -149.75, -96.4314, 117.869
0.837214, -1, -2.22618, 9.97352, 18.2389, -149.75, -96.4314, 117.869
0.839053, -1, -2.30377, 9.95259, 18.2441, -149.774, -96.4228, 117.727
0.842898, -1, -2.38142, 9.93163, 18.2493, -149.798, -96.4142, 117.585
0.848382, -1, -2.45917, 9.91062, 18.2546, -149.822, -96.4057, 117.443
0.855768, -1, -2.61486, 9.86861, 18.265, -149.871, -96.3887, 117.159
0.863565, -1, -2.77088, 9.82669, 18.2754, -149.92, -96.3719, 116.876
0.871575, -1, -2.92724, 9.78472, 18.2857, -149.968, -96.3551, 116.592
0.881125, -1, -3.08413, 9.74278, 18.2961, -150.017, -96.338, 116.308
0.887434, -1, -3.24139, 9.70084, 18.3066, -150.066, -96.3207, 116.024
0.89549, -1, -3.39897, 9.65885, 18.3171, -150.114, -96.3031, 115.741
0.905038, -1, -3.55674, 9.61687, 18.3276, -150.163, -96.2855, 115.457
0.912394, -1, -3.71452, 9.57501, 18.3379, -150.212, -96.2682, 115.172
0.919597, -1, -3.8725, 9.53302, 18.3483, -150.26, -96.251, 114.888
0.929314, -1, -4.03045, 9.491, 18.3587, -150.309, -96.234, 114.604
0.935836, -1, -4.18826, 9.44908, 18.3691, -150.358, -96.2171, 114.32
0.944396, -1, -4.34603, 9.40709, 18.3794, -150.407, -96.2, 114.035
0.953309, -1, -4.50357, 9.36507, 18.3898, -150.456, -96.1827, 113.75
0.95987, -1, -4.66057, 9.32305, 18.4002, -150.505, -96.165, 113.466
0.968474, -1, -4.81711, 9.28101, 18.4106, -150.553, -96.1472, 113.181
0.976788, -1, -4.97339, 9.23889, 18.4212, -150.602, -96.1298, 112.896
0.983963, -1, -5.12935, 9.19683, 18.4317, -150.651, -96.1125, 112.611
0.992488, -1, -5.28532, 9.15472, 18.4422, -150.699, -96.0955, 112.327
1.00093, -1, -5.36334, 9.13363, 18.4527, -150.749, -96.0786, 112.042
1.00739, -1, -5.51941, 9.09148, 18.4579, -150.773, -96.0702, 111.9
1.01709, -1, -5.75396, 9.02835, 18.4736, -150.846, -96.0445, 111.472
1.02579, -1, -5.91089, 8.98612, 18.484, -150.895, -96.0271, 111.188
1.03147, -1, -5.9895, 8.96503, 18.4892, -150.92, -96.0183, 111.045
1.03939, -1, -6.14713, 8.92293, 18.4996, -150.968, -96.0006, 110.76
1.04856, -1, -6.3845, 8.85972, 18.5151, -151.042, -95.9746, 110.332
1.05544, -1, -6.4637, 8.83868, 18.5202, -151.066, -95.966, 110.19
1.0634, -1, -6.62214, 8.7966, 18.5307, -151.115, -95.949, 109.904
1.07154, -1, -6.78078, 8.75444, 18.5413, -151.164, -95.932, 109.619
1.07938, -1, -6.93941, 8.7123, 18.5518, -151.213, -95.9149, 109.333
1.0897, -1, -7.17717, 8.64911, 18.5674, -151.287, -95.8889, 108.905
1.09545, -1, -7.25637, 8.62803, 18.5726, -151.311, -95.8801, 108.762
1.10497, -1, -7.49353, 8.56465, 18.5883, -151.385, -95.8534, 108.334
1.11378, -1, -7.65114, 8.52233, 18.5988, -151.434, -95.8359, 108.048
1.11945, -1, -7.72984, 8.50118, 18.604, -151.459, -95.8273, 107.905
1.12896, -1, -7.88699, 8.45892, 18.6144, -151.532, -95.8017, 107.477
1.13552, -1, -8.04382, 8.41657, 18.6248, -151.556, -95.7932, 107.334
1.14438, -1, -8.20042, 8.37421, 18.6352, -151.606, -95.7763, 107.048
1.15138, -1, -8.35699, 8.33188, 18.6457, -151.655, -95.7592, 106.762
1.1594, -1, -8.51381, 8.28949, 18.6563, -151.703, -95.7418, 106.476
1.16838, -1, -8.671, 8.24719, 18.6668, -151.753, -95.7241, 106.189
1.17643, -1, -8.82853, 8.2049, 18.6772, -151.802, -95.7065, 105.903
1.1834, -1, -8.9864, 8.16255, 18.6876, -151.851, -95.689, 105.617
1.1914, -1, -9.14468, 8.12031, 18.6981, -151.9, -95.6718, 105.33
1.19939, -1, -9.30341, 8.07803, 18.7085, -151.949, -95.6547, 105.043
1.20745, -1, -9.4624, 8.03565, 18.7189, -151.998, -95.6376, 104.756
1.21538, -1, -9.62152, 7.99339, 18.7294, -152.048, -95.6205, 104.47
1.22339, -1, -9.78068, 7.95116, 18.7399, -152.097, -95.603, 104.183
1.23147, -1, -9.94008, 7.90882, 18.7505, -152.146, -95.5853, 103.896
1.23939, -1, -10.0994, 7.86643, 18.7611, -152.196, -95.5674, 103.609
1.24738, -1, -10.2586, 7.82394, 18.7717, -152.245, -95.5497, 103.322
1.25545, -1, -10.4176, 7.7814, 18.7822, -152.294, -95.5323, 103.035
1.2634, -1, -10.5763, 7.73892, 18.7927, -152.344, -95.5152, 102.748
1.27139, -1, -10.7346, 7.69643, 18.8031, -152.393, -95.4982, 102.461
1.27945, -1, -10.8925, 7.65385, 18.8137, -152.441, -95.4812, 102.174
1.28739, -1, -11.0503, 7.61128, 18.8241, -152.491, -95.4639, 101.887
1.29538, -1, -11.2078, 7.5688, 18.8345, -152.54, -95.4464, 101.599
1.30351, -1, -11.3652, 7.5263, 18.8451, -152.59, -95.4285, 101.312
1.31139, -1, -11.5227, 7.48377, 18.8555, -152.639, -95.4108, 101.025
1.31945, -1, -11.6804, 7.44133, 18.8661, -152.688, -95.3933, 100.737
1.32743, -1, -11.8386, 7.39892, 18.8767, -152.737, -95.376, 100.449
1.3355, -1, -11.9971, 7.35653, 18.8873, -152.787, -95.3588, 100.161
1.34355, -1, -12.156, 7.31416, 18.8978, -152.836, -95.3416, 99.8736
1.35147, -1, -12.3154, 7.27177, 18.9083, -152.886, -95.3243, 99.5857
1.35948, -1, -12.4751, 7.22933, 18.9188, -152.935, -95.3067, 99.2976
1.36756, -1, -12.635, 7.18691, 18.9293, -152.984, -95.2887, 99.0098
1.37544, -1, -12.795, 7.14446, 18.9399, -153.034, -95.2708, 98.7221
1.3834, -1, -12.9551, 7.1019, 18.9504, -153.084, -95.2531, 98.4341
1.39156, -1, -13.1151, 7.05928, 18.961, -153.133, -95.2357, 98.1458
1.39942, -1, -13.275, 7.01669, 18.9715, -153.183, -95.2184, 97.8577
1.40746, -1, -13.4347, 6.97401, 18.9821, -153.232, -95.2013, 97.5695
1.4156, -1, -13.594, 6.9312, 18.9927, -153.281, -95.1842, 97.2809
1.42354, -1, -13.7532, 6.88846, 19.0033, -153.331, -95.1668, 96.9923
1.43166, -1, -13.912, 6.84574, 19.0137, -153.38, -95.1491, 96.7039
1.43993, -1, -14.0703, 6.80302, 19.0242, -153.429, -95.1312, 96.4152
1.44777, -1, -14.2286, 6.76041, 19.0348, -153.479, -95.1135, 96.1262
1.45585, -1, -14.3868, 6.71774, 19.0453, -153.529, -95.0961, 95.8372
1.46391, -1, -14.5451, 6.67505, 19.0558, -153.578, -95.0788, 95.5483
1.47248, -1, -14.7037, 6.6325, 19.0664, -153.628, -95.0616, 95.2589
1.47996, -1, -14.8627, 6.58997, 19.0769, -153.677, -95.0445, 94.9696
1.488, -1, -15.022, 6.54733, 19.0877, -153.726, -95.027, 94.6804
1.49597, -1, -15.1018, 6.52602, 19.0984, -153.777, -95.0093, 94.3914
1.50414, -1, -15.342, 6.46216, 19.1091, -153.826, -94.9912, 94.1022
1.51138, -1, -15.4222, 6.44082, 19.1144, -153.851, -94.9822, 93.9575
1.51937, -1, -15.5827, 6.39814, 19.125, -153.9, -94.9645, 93.6681
1.52743, -1, -15.7434, 6.35546, 19.1356, -153.95, -94.947, 93.3789
1.53538, -1, -15.9042, 6.31263, 19.1462, -154, -94.9297, 93.0896
1.54339, -1, -16.0651, 6.26973, 19.1569, -154.05, -94.9126, 92.7998
1.55259, -1, -16.3062, 6.2054, 19.1727, -154.124, -94.8867, 92.3653
1.5594, -1, -16.3864, 6.1839, 19.1779, -154.148, -94.878, 92.2206
1.56741, -1, -16.5468, 6.14089, 19.1884, -154.198, -94.8604, 91.9307
1.57542, -1, -16.707, 6.09793, 19.199, -154.248, -94.8424, 91.6406
1.58339, -1, -16.8666, 6.05494, 19.2097, -154.297, -94.8246, 91.3504
1.59288, -1, -17.1056, 5.99047, 19.2256, -154.373, -94.7983, 90.9154
1.60092, -1, -17.2647, 5.94755, 19.2362, -154.422, -94.781, 90.6249
1.60896, -1, -17.4238, 5.90472, 19.2468, -154.472, -94.7637, 90.3346
1.61543, -1, -17.5034, 5.88333, 19.2521, -154.497, -94.7551, 90.1896
1.62502, -1, -17.7425, 5.81913, 19.2682, -154.571, -94.7287, 89.7542
1.63139, -1, -17.8222, 5.79774, 19.2735, -154.596, -94.7198, 89.609
1.64037, -1, -17.982, 5.75494, 19.2842, -154.647, -94.7017, 89.3183
1.64739, -1, -18.1424, 5.71219, 19.2947, -154.696, -94.6837, 89.0279
1.65637, -1, -18.303, 5.66942, 19.3054, -154.746, -94.6659, 88.7374
1.66344, -1, -18.4642, 5.62657, 19.3162, -154.796, -94.6484, 88.4464
1.67146, -1, -18.6257, 5.58359, 19.3268, -154.846, -94.6311, 88.1553
1.67937, -1, -18.7872, 5.54061, 19.3375, -154.896, -94.6139, 87.8646
1.68746, -1, -18.949, 5.49761, 19.3481, -154.946, -94.5965, 87.5736
1.69537, -1, -19.1106, 5.4545, 19.3586, -154.996, -94.5788, 87.2822
1.70356, -1, -19.2721, 5.41132, 19.3693, -155.046, -94.5608, 86.9909
1.71137, -1, -19.4336, 5.3682, 19.3798, -155.096, -94.5427, 86.6995
1.71937, -1, -19.5946, 5.32497, 19.3905, -155.145, -94.5248, 86.4079
1.72858, -1, -19.7555, 5.28179, 19.4011, -155.196, -94.5071, 86.1161
1.73536, -1, -19.916, 5.23865, 19.4117, -155.246, -94.4896, 85.8246
1.74344, -1, -20.0763, 5.19546, 19.4225, -155.295, -94.4723, 85.5331
1.75136, -1, -20.2361, 5.15245, 19.4334, -155.346, -94.4548, 85.2415
1.75937, -1, -20.3959, 5.10954, 19.4442, -155.396, -94.4372, 84.9495
1.76744, -1, -20.556, 5.06641, 19.455, -155.445, -94.4191, 84.6578
1.77536, -1, -20.7161, 5.02345, 19.4657, -155.496, -94.401, 84.3661
1.78338, -1, -20.8767, 4.98054, 19.4764, -155.546, -94.3832, 84.0741
1.79143, -1, -21.0376, 4.93748, 19.487, -155.596, -94.3656, 83.7818
1.79937, -1, -21.1987, 4.89447, 19.4977, -155.646, -94.3482, 83.49
1.80742, -1, -21.3604, 4.85134, 19.5083, -155.697, -94.3309, 83.198
1.81544, -1, -21.5225, 4.80809, 19.5189, -155.747, -94.3137, 82.9054
1.82343, -1, -21.6847, 4.76489, 19.5297, -155.797, -94.2962, 82.6128
1.83141, -1, -21.8471, 4.72163, 19.5405, -155.847, -94.2784, 82.3202
1.83955, -1, -22.0095, 4.67825, 19.5512, -155.897, -94.2603, 82.0276
1.84746, -1, -22.1721, 4.63491, 19.562, -155.948, -94.2424, 81.7348
1.85547, -1, -22.3345, 4.59153, 19.5726, -155.998, -94.2247, 81.442
1.86358, -1, -22.4967, 4.54814, 19.5833, -156.048, -94.2072, 81.1494
1.87147, -1, -22.6586, 4.50474, 19.5941, -156.098, -94.1897, 80.8565
1.87947, -1, -22.8202, 4.46132, 19.6047, -156.148, -94.1724, 80.5635
1.88754, -1, -22.9813, 4.41799, 19.6154, -156.199, -94.1546, 80.2704
1.89543, -1, -23.1424, 4.37471, 19.6261, -156.249, -94.1366, 79.9775
1.90436, -1, -23.3033, 4.3314, 19.6368, -156.299, -94.1183, 79.6842
1.91141, -1, -23.4642, 4.28815, 19.6477, -156.35, -94.1002, 79.3905
1.91949, -1, -23.6251, 4.24484, 19.6585, -156.4, -94.0823, 79.0972
1.92765, -1, -23.7862, 4.20157, 19.6693, -156.45, -94.0645, 78.804
1.9356, -1, -23.9475, 4.15828, 19.68, -156.501, -94.0471, 78.5102
1.94397, -1, -24.1093, 4.11486, 19.6907, -156.551, -94.0297, 78.2164
1.95237, -1, -24.2715, 4.07149, 19.7015, -156.602, -94.0121, 77.9225
1.95981, -1, -24.4342, 4.02804, 19.7121, -156.652, -93.9943, 77.6286
1.96845, -1, -24.5972, 3.9845, 19.7227, -156.702, -93.9762, 77.3344
1.97605, -1, -24.7604, 3.94092, 19.7334, -156.753, -93.958, 77.0401
1.98393, -1, -24.9237, 3.89738, 19.7441, -156.804, -93.9403, 76.7463
1.99207, -1, -25.0871, 3.85381, 19.755, -156.854, -93.9226, 76.4521
2, -1, -25.1688, 3.83202, 19.7659, -156.904, -93.9051, 76.1576
2.00797, -1, -25.3319, 3.78845, 19.7714, -156.955, -93.8876, 75.8634
2.01636, -1, -25.5763, 3.72299, 19.7875, -157.005, -93.8699, 75.5691
2.02341, -1, -25.6576, 3.70117, 19.7928, -157.03, -93.861, 75.4219
2.03136, -1, -25.8202, 3.65767, 19.8036, -157.081, -93.8429, 75.1273
2.04059, -1, -26.0635, 3.59247, 19.8197, -157.156, -93.8153, 74.6852
2.04736, -1, -26.1445, 3.57072, 19.8251, -157.181, -93.8063, 74.5381
2.05536, -1, -26.3061, 3.52732, 19.8359, -157.232, -93.7882, 74.2434
2.06464, -1, -26.5487, 3.46215, 19.852, -157.308, -93.7617, 73.8006
2.07137, -1, -26.6296, 3.44039, 19.8574, -157.333, -93.7529, 73.653
2.07937, -1, -26.7917, 3.39691, 19.8683, -157.384, -93.7354, 73.358
2.08895, -1, -27.0355, 3.3315, 19.8845, -157.46, -93.7085, 72.9149
2.09942, -1, -27.1983, 3.28788, 19.8953, -157.511, -93.6903, 72.6194
2.10489, -1, -27.3615, 3.24427, 19.906, -157.561, -93.6719, 72.3242
2.11293, -1, -27.5252, 3.20049, 19.9168, -157.612, -93.6538, 72.0289
2.12101, -1, -27.689, 3.15673, 19.9276, -157.663, -93.636, 71.7331
2.12736, -1, -27.771, 3.13491, 19.933, -157.688, -93.6271, 71.5853
2.13542, -1, -27.9352, 3.09118, 19.9438, -157.738, -93.6094, 71.2898
2.14497, -1, -28.0994, 3.04743, 19.9546, -157.789, -93.5917, 70.994
2.15135, -1, -28.2636, 3.00371, 19.9653, -157.84, -93.5738, 70.6981
2.15944, -1, -28.4278, 2.95995, 19.9762, -157.89, -93.5556, 70.4019
2.16736, -1, -28.5917, 2.91628, 19.9871, -157.942, -93.5371, 70.1061
2.17539, -1, -28.7553, 2.87262, 19.9979, -157.992, -93.5187, 69.8102
2.18346, -1, -28.9186, 2.82886, 20.0087, -158.043, -93.5007, 69.5137
2.19136, -1, -29.0814, 2.78516, 20.0194, -158.094, -93.4829, 69.2172
2.19942, -1, -29.2442, 2.74151, 20.0302, -158.145, -93.4652, 68.9209
2.20735, -1, -29.4069, 2.69779, 20.0411, -158.196, -93.4476, 68.6241
2.21537, -1, -29.5696, 2.65404, 20.0519, -158.247, -93.4298, 68.3271
2.22346, -1, -29.7325, 2.61021, 20.0627, -158.298, -93.4117, 68.0304
2.23136, -1, -29.8956, 2.56636, 20.0736, -158.349, -93.3933, 67.7338
2.23936, -1, -30.0587, 2.52255, 20.0845, -158.4, -93.3749, 67.437
2.24742, -1, -30.2223, 2.4785, 20.0955, -158.45, -93.3567, 67.1398
2.25536, -1, -30.3863, 2.43451, 20.1064, -158.501, -93.3389, 66.8429
2.26341, -1, -30.5509, 2.39053, 20.1173, -158.553, -93.3211, 66.546
2.27141, -1, -30.7158, 2.34645, 20.1281, -158.603, -93.3034, 66.2485
2.27935, -1, -30.8809, 2.30253, 20.1389, -158.654, -93.2854, 65.951
2.28737, -1, -31.0459, 2.2585, 20.1498, -158.705, -93.2672, 65.654
2.29544, -1, -31.211, 2.21444, 20.1607, -158.756, -93.2487, 65.3567
2.30339, -1, -31.376, 2.17058, 20.1715, -158.808, -93.2302, 65.059
2.31147, -1, -31.5408, 2.12661, 20.1823, -158.859, -93.2121, 64.7612
2.31939, -1, -31.7054, 2.08258, 20.1932, -158.91, -93.1942, 64.4635
2.32737, -1, -31.8698, 2.03865, 20.2042, -158.961, -93.1766, 64.1655
2.33547, -1, -32.0339, 1.9947, 20.2151, -159.012, -93.159, 63.8672
2.34351, -1, -32.1977, 1.95069, 20.2261, -159.063, -93.1412, 63.5692
2.35144, -1, -32.3612, 1.90668, 20.237, -159.115, -93.1232, 63.2714
2.35977, -1, -32.5248, 1.8626, 20.2479, -159.166, -93.1048, 62.9733
2.36745, -1, -32.6886, 1.81847, 20.2588, -159.217, -93.0865, 62.6749
2.37547, -1, -32.8525, 1.77438, 20.2697, -159.268, -93.0683, 62.3767
2.38359, -1, -33.0166, 1.73017, 20.2807, -159.319, -93.0504, 62.0784
2.39136, -1, -33.1811, 1.68591, 20.2915, -159.371, -93.0326, 61.7798
2.39939, -1, -33.3459, 1.64172, 20.3024, -159.422, -93.0148, 61.4811
2.40744, -1, -33.5112, 1.59749, 20.3134, -159.473, -92.9968, 61.1826
2.41541, -1, -33.6768, 1.5532, 20.3244, -159.524, -92.9786, 60.8838
2.42361, -1, -33.8426, 1.50901, 20.3353, -159.575, -92.96, 60.5847
2.43162, -1, -34.0084, 1.46481, 20.3461, -159.626, -92.9413, 60.2854
2.43961, -1, -34.1744, 1.42067, 20.3571, -159.678, -92.923, 59.9863
2.44785, -1, -34.3404, 1.37652, 20.3681, -159.729, -92.905, 59.6868
2.45639, -1, -34.5065, 1.3323, 20.379, -159.781, -92.887, 59.387
2.46386, -1, -34.6723, 1.28812, 20.3899, -159.833, -92.8693, 59.0877
2.47282, -1, -34.8375, 1.24393, 20.4008, -159.884, -92.8514, 58.7884
2.47999, -1, -35.0025, 1.19969, 20.4118, -159.935, -92.8332, 58.4888
2.48795, -1, -35.1673, 1.15543, 20.4229, -159.987, -92.8146, 58.1891
2.49597, -1, -35.3318, 1.11115, 20.4339, -160.038, -92.7961, 57.8894
2.50446, -1, -35.4958, 1.067, 20.4451, -160.09, -92.7778, 57.5896
2.51213, -1, -35.5772, 1.02316, 20.4563, -160.141, -92.7597, 57.2897
2.52034, -1, -35.8176, 0.979936, 20.4678, -160.192, -92.7418, 56.9912
2.52741, -1, -35.896, 0.958712, 20.4738, -160.217, -92.7329, 56.843
2.53643, -1, -36.1236, 0.897377, 20.4916, -160.292, -92.7066, 56.4067
2.54435, -1, -36.1961, 0.877922, 20.4976, -160.316, -92.698, 56.1276
2.55138, -1, -36.3342, 0.841089, 20.5094, -160.362, -92.6812, 55.9938
2.55935, -1, -36.4619, 0.807326, 20.5205, -160.405, -92.6652, 55.7419
2.56735, -1, -36.5777, 0.776678, 20.5306, -160.443, -92.651, 55.5155
2.5754, -1, -36.6798, 0.749734, 20.539, -160.476, -92.6388, 55.3199
2.58339, -1, -36.7672, 0.726593, 20.5452, -160.503, -92.6289, 55.1589
2.59134, -1, -36.8402, 0.707264, 20.5491, -160.525, -92.6213, 55.0328
2.60087, -1, -36.9249, 0.685016, 20.5517, -160.547, -92.6139, 54.9062
2.60893, -1, -36.9654, 0.674195, 20.5521, -160.556, -92.611, 54.8542
2.61737, -1, -36.995, 0.666396, 20.5518, -160.562, -92.6093, 54.8227
2.62341, -1, -37.0063, 0.663545, 20.5516, -160.564, -92.6088, 54.8123
2.63295, -1, -37.0225, 0.659563, 20.5511, -160.567, -92.6079, 54.7958
2.64091, -1, -37.0318, 0.657304, 20.5509, -160.567, -92.6078, 54.7932
2.6474, 2, -37.0361, 0.656221, 20.5508, -160.568, -92.6076, 54.7903
2.65537, 2, -37.0368, 0.655752, 20.5507, -160.568, -92.6075, 54.789
2.66339, 2, -37.0363, 0.655559, 20.5507, -160.568, -92.6075, 54.7884
2.67139, 2, -37.0358, 0.655493, 20.5507, -160.568, -92.6076, 54.7881
2.67938, 2, -37.0358, 0.655456, 20.5507, -160.568, -92.6076, 54.788
2.68735, 2, -37.0366, 0.655424, 20.5506, -160.568, -92.6076, 54.7879
2.69539, 2, -37.0377, 0.655365, 20.5505, -160.568, -92.6076, 54.788
2.70342, 2, -37.0389, 0.655218, 20.5503, -160.568, -92.6077, 54.7881
2.71134, 2, -37.0404, 0.655022, 20.5501, -160.568, -92.6077, 54.7881
2.71938, 2, -37.0416, 0.654789, 20.55, -160.568, -92.6077, 54.7882
2.72735, 2, -37.0427, 0.65455, 20.5498, -160.568, -92.6077, 54.7883
2.73535, 2, -37.0434, 0.654389, 20.5496, -160.568, -92.6077, 54.7884
2.74343, 2, -37.0436, 0.654316, 20.5494, -160.568, -92.6078, 54.7885
2.75135, 2, -37.0435, 0.654324, 20.5492, -160.568, -92.6078, 54.7887
2.75934, 2, -37.0428, 0.654342, 20.5491, -160.568, -92.6079, 54.7889
2.76739, 2, -37.0419, 0.654404, 20.5491, -160.568, -92.608, 54.789
2.77537, 2, -37.0407, 0.654476, 20.549, -160.568, -92.608, 54.7892
2.78338, 2, -37.0392, 0.65457, 20.5489, -160.568, -92.608, 54.7894
2.79138, 2, -37.0379, 0.654656, 20.5488, -160.568, -92.608, 54.7896
2.79938, 2, -37.0371, 0.654683, 20.5488, -160.568, -92.608, 54.7897
2.80733, 2, -37.0367, 0.654677, 20.5488, -160.568, -92.608, 54.7898
2.81545, 2, -37.0366, 0.654662, 20.5487, -160.568, -92.608, 54.7899
2.82343, 2, -37.0367, 0.654581, 20.5487, -160.568, -92.6081, 54.7899
2.83137, 2, -37.0369, 0.654514, 20.5487, -160.568, -92.6081, 54.79
2.83942, 2, -37.0372, 0.654483, 20.5487, -160.568, -92.6081, 54.79
2.84748, 2, -37.0378, 0.654469, 20.5487, -160.568, -92.6081, 54.79
2.85544, 2, -37.0385, 0.654433, 20.5486, -160.568, -92.6081, 54.7901
2.86353, 2, -37.0392, 0.65441, 20.5486, -160.568, -92.6081, 54.7902
2.87146, 2, -37.0396, 0.654428, 20.5486, -160.568, -92.6081, 54.7902
2.87943, 2, -37.0399, 0.654463, 20.5486, -160.568, -92.6081, 54.7902
2.88759, 2, -37.0399, 0.654495, 20.5486, -160.568, -92.6081, 54.7903
2.89538, 2, -37.04, 0.654536, 20.5486, -160.568, -92.6081, 54.7903
2.90341, 2, -37.0398, 0.654536, 20.5486, -160.568, -92.6081, 54.7904
2.91153, 2, -37.0394, 0.654555, 20.5486, -160.568, -92.6081, 54.7904
2.91941, 2, -37.0391, 0.654563, 20.5486, -160.568, -92.6082, 54.7905
2.92754, 2, -37.0389, 0.65453, 20.5486, -160.568, -92.6082, 54.7905
2.93558, 2, -37.0388, 0.654503, 20.5485, -160.568, -92.6082, 54.7906
2.94365, 2, -37.0388, 0.654478, 20.5485, -160.568, -92.6082, 54.7906
2.95175, 2, -37.0388, 0.654467, 20.5485, -160.568, -92.6082, 54.7907
2.96038, 2, -37.0388, 0.654462, 20.5485, -160.568, -92.6082, 54.7907
2.96783, 2, -37.0388, 0.654459, 20.5485, -160.568, -92.6083, 54.7907
2.97644, 2, -37.0388, 0.654458, 20.5485, -160.568, -92.6082, 54.7908
2.98397, 2, -37.0389, 0.65447, 20.5485, -160.568, -92.6083, 54.7909
2.99189, 2, -37.0391, 0.654483, 20.5485, -160.568, -92.6082, 54.7909
3.00047, 2, -37.0392, 0.654523, 20.5484, -160.568, -92.6082, 54.791
3.0081, 2, -37.0393, 0.654527, 20.5484, -160.568, -92.6083, 54.791
3.01616, 2, -37.0394, 0.654534, 20.5485, -160.568, -92.6083, 54.7911
3.02338, 2, -37.0394, 0.654535, 20.5485, -160.568, -92.6083, 54.7911
3.03137, 2, -37.0393, 0.654517, 20.5484, -160.568, -92.6083, 54.7912
3.04043, 2, -37.0393, 0.654495, 20.5485, -160.568, -92.6083, 54.7913
3.04733, 2, -37.0393, 0.65449, 20.5484, -160.568, -92.6083, 54.7913
3.05537, 2, -37.0393, 0.654472, 20.5484, -160.568, -92.6083, 54.7913
3.06338, 2, -37.0393, 0.654476, 20.5484, -160.568, -92.6083, 54.7913
3.07133, 2, -37.0393, 0.654473, 20.5484, -160.568, -92.6083, 54.7914
3.07938, 2, -37.0393, 0.654482, 20.5484, -160.568, -92.6083, 54.7915
3.08734, 2, -37.0393, 0.654476, 20.5484, -160.568, -92.6083, 54.7916
3.09534, 2, -37.0393, 0.65449, 20.5484, -160.568, -92.6084, 54.7916
3.10496, 2, -37.0393, 0.65451, 20.5483, -160.568, -92.6083, 54.7916
3.11134, 2, -37.0392, 0.654518, 20.5483, -160.568, -92.6083, 54.7916
3.12096, 2, -37.0393, 0.654531, 20.5483, -160.568, -92.6083, 54.7917
3.12737, 2, -37.0393, 0.654544, 20.5483, -160.568, -92.6083, 54.7917
3.13692, 2, -37.0393, 0.654547, 20.5483, -160.568, -92.6083, 54.7918
3.1449, 2, -37.0392, 0.654541, 20.5483, -160.568, -92.6083, 54.7918
3.15142, 2, -37.0392, 0.654539, 20.5483, -160.568, -92.6083, 54.7919
3.16037, 2, -37.0392, 0.654519, 20.5483, -160.568, -92.6084, 54.7919
3.16833, 2, -37.0392, 0.654498, 20.5483, -160.568, -92.6084, 54.792
3.17538, 2, -37.0392, 0.654488, 20.5483, -160.568, -92.6084, 54.792
3.18342, 2, -37.0392, 0.654476, 20.5482, -160.568, -92.6084, 54.792
3.19132, 2, -37.0392, 0.654486, 20.5482, -160.568, -92.6084, 54.7921
3.19937, 2, -37.0392, 0.654495, 20.5482, -160.568, -92.6084, 54.7921
3.20733, 2, -37.0392, 0.65451, 20.5482, -160.568, -92.6083, 54.7921
3.21534, 2, -37.0392, 0.654513, 20.5482, -160.568, -92.6083, 54.7922
3.22341, 2, -37.0391, 0.654526, 20.5482, -160.568, -92.6084, 54.7923
3.23134, 2, -37.0391, 0.654532, 20.5482, -160.568, -92.6084, 54.7923
3.23933, 2, -37.0391, 0.654527, 20.5482, -160.568, -92.6083, 54.7923
3.24737, 2, -37.0391, 0.654539, 20.5482, -160.568, -92.6083, 54.7924
3.25535, 2, -37.0391, 0.654519, 20.5482, -160.568, -92.6084, 54.7924
3.26337, 2, -37.0391, 0.65451, 20.5482, -160.568, -92.6084, 54.7924
3.27137, 2, -37.0391, 0.654499, 20.5481, -160.568, -92.6084, 54.7924
3.27934, 2, -37.0391, 0.654496, 20.5481, -160.568, -92.6084, 54.7924
3.28739, 2, -37.0391, 0.654499, 20.5481, -160.568, -92.6084, 54.7925
3.29539, 2, -37.039, 0.654501, 20.5481, -160.568, -92.6084, 54.7925
3.30341, 2, -37.039, 0.654502, 20.5481, -160.568, -92.6084, 54.7926
3.31132, 2, -37.039, 0.654513, 20.5481, -160.568, -92.6084, 54.7926
3.31942, 2, -37.039, 0.654544, 20.5481, -160.568, -92.6084, 54.7926
3.32737, 2, -37.039, 0.65454, 20.5481, -160.568, -92.6085, 54.7926
3.33536, 2, -37.039, 0.654556, 20.5481, -160.568, -92.6085, 54.7926
3.34347, 2, -37.039, 0.654546, 20.5481, -160.568, -92.6085, 54.7927
3.35146, 2, -37.039, 0.654541, 20.5481, -160.568, -92.6085, 54.7927
3.35943, 2, -37.039, 0.654527, 20.5481, -160.568, -92.6085, 54.7927
3.36747, 2, -37.039, 0.654532, 20.548, -160.568, -92.6085, 54.7928
3.37545, 2, -37.039, 0.654516, 20.548, -160.568, -92.6085, 54.7928
3.38347, 2, -37.0389, 0.654509, 20.548, -160.568, -92.6085, 54.7928
3.39148, 2, -37.0389, 0.654505, 20.548, -160.568, -92.6085, 54.7928
3.39936, 2, -37.0389, 0.654504, 20.548, -160.568, -92.6085, 54.7928
3.40735, 2, -37.0389, 0.654503, 20.548, -160.568, -92.6085, 54.7929
3.41543, 2, -37.0389, 0.654514, 20.548, -160.567, -92.6085, 54.7929
3.42344, 2, -37.0388, 0.654515, 20.548, -160.567, -92.6085, 54.7929
3.43183, 2, -37.0388, 0.654519, 20.548, -160.567, -92.6085, 54.7929
3.43961, 2, -37.0388, 0.654547, 20.548, -160.567, -92.6085, 54.7929
3.44761, 2, -37.0388, 0.65456, 20.548, -160.567, -92.6085, 54.7929
3.4562, 2, -37.0388, 0.654565, 20.548, -160.567, -92.6086, 54.793
3.46381, 2, -37.0388, 0.654568, 20.5479, -160.567, -92.6085, 54.793
3.47244, 2, -37.0388, 0.654558, 20.5479, -160.567, -92.6085, 54.793
3.48022, 2, -37.0387, 0.654557, 20.5479, -160.567, -92.6085, 54.793
3.48796, 2, -37.0388, 0.654535, 20.5479, -160.567, -92.6086, 54.793
3.49647, 2, -37.0387, 0.654528, 20.5479, -160.567, -92.6085, 54.793
3.50417, 2, -37.0387, 0.654551, 20.5479, -160.567, -92.6085, 54.793
3.51196, 2, -37.0387, 0.654557, 20.5479, -160.567, -92.6085, 54.7931
3.51992, 2, -37.0387, 0.654535, 20.5479, -160.567, -92.6086, 54.7931
3.52816, 2, -37.0387, 0.654536, 20.5479, -160.567, -92.6086, 54.7931
3.53536, 2, -37.0387, 0.654554, 20.5479, -160.567, -92.6085, 54.7931
3.54442, 2, -37.0386, 0.654576, 20.5479, -160.567, -92.6086, 54.7931
3.5513, 2, -37.0386, 0.654582, 20.5479, -160.567, -92.6086, 54.7931
3.55935, 2, -37.0387, 0.654588, 20.5478, -160.567, -92.6085, 54.7931
3.56732, 2, -37.0386, 0.654578, 20.5478, -160.567, -92.6086, 54.7931
3.57697, 2, -37.0386, 0.654573, 20.5478, -160.567, -92.6085, 54.7931
3.58474, 2, -37.0386, 0.654572, 20.5478, -160.567, -92.6086, 54.7931
3.59132, 2, -37.0386, 0.65456, 20.5478, -160.567, -92.6086, 54.7931
3.60121, 2, -37.0386, 0.654562, 20.5478, -160.567, -92.6086, 54.7931
3.60735, 2, -37.0386, 0.654565, 20.5478, -160.567, -92.6087, 54.7931
3.61686, 2, -37.0386, 0.654539, 20.5478, -160.567, -92.6086, 54.7932
3.62526, 2, -37.0386, 0.654549, 20.5478, -160.567, -92.6086, 54.7932
3.63136, 2, -37.0386, 0.654563, 20.5478, -160.567, -92.6086, 54.7932
3.64093, 2, -37.0386, 0.654554, 20.5478, -160.567, -92.6086, 54.7932
3.64746, 2, -37.0385, 0.654575, 20.5478, -160.567, -92.6086, 54.7932
3.65536, 2, -37.0386, 0.654572, 20.5478, -160.567, -92.6087, 54.7932
3.66341, 2, -37.0385, 0.654579, 20.5478, -160.567, -92.6087, 54.7932
3.67236, 2, -37.0385, 0.654579, 20.5477, -160.567, -92.6087, 54.7932
3.6793, 2, -37.0385, 0.654574, 20.5477, -160.567, -92.6087, 54.7932
3.68741, 2, -37.0385, 0.654584, 20.5477, -160.567, -92.6087, 54.7932
3.69532, 2, -37.0384, 0.654577, 20.5477, -160.567, -92.6087, 54.7932
3.70336, 2, -37.0384, 0.654562, 20.5477, -160.567, -92.6087, 54.7932
3.71137, 2, -37.0384, 0.654559, 20.5477, -160.567, -92.6087, 54.7932
3.71929, 2, -37.0384, 0.654573, 20.5477, -160.567, -92.6087, 54.7932
3.72734, 2, -37.0383, 0.654589, 20.5477, -160.567, -92.6087, 54.7932
3.73538, 4, -37.0384, 0.654598, 20.5476, -160.567, -92.6087, 54.7932
3.74335, 4, -37.0383, 0.654595, 20.5476, -160.567, -92.6087, 54.7932
3.7513, 4, -37.0383, 0.654576, 20.5476, -160.567, -92.6087, 54.7932
3.75937, 4, -37.0383, 0.654578, 20.5476, -160.567, -92.6087, 54.7932
3.76741, 4, -37.0383, 0.654581, 20.5476, -160.567, -92.6087, 54.7932
3.77531, 4, -37.0383, 0.65458, 20.5476, -160.567, -92.6087, 54.7932
3.78342, 4, -37.0383, 0.654575, 20.5476, -160.567, -92.6087, 54.7932
3.79129, 4, -37.0382, 0.654585, 20.5476, -160.567, -92.6087, 54.7932
3.7993, 4, -37.0382, 0.654584, 20.5476, -160.567, -92.6087, 54.7932
3.80739, 4, -37.0382, 0.654589, 20.5476, -160.567, -92.6087, 54.7932
3.81531, 4, -37.0382, 0.654584, 20.5476, -160.567, -92.6087, 54.7933
3.8234, 4, -37.0382, 0.654589, 20.5476, -160.567, -92.6087, 54.7932
3.83157, 4, -37.0382, 0.654579, 20.5476, -160.567, -92.6087, 54.7932
3.8608, 4, -37.0382, 0.654592, 20.5475, -160.567, -92.6087, 54.7933
3.86348, 4, -37.0382, 0.654592, 20.5475, -160.567, -92.6087, 54.7932
3.86533, 4, -37.0382, 0.654592, 20.5475, -160.567, -92.6087, 54.7932
3.86794, 4, -37.0382, 0.654585, 20.5475, -160.567, -92.6087, 54.7932
3.87195, 4, -37.0382, 0.654581, 20.5475, -160.567, -92.6087, 54.7933
3.88152, 4, -37.0381, 0.654587, 20.5475, -160.567, -92.6087, 54.7933
3.88757, 4, -37.0374, 0.654434, 20.5476, -160.567, -92.6087, 54.7932
3.89631, 4, -37.0349, 0.653481, 20.5477, -160.567, -92.6087, 54.7932
3.90338, 4, -37.0291, 0.65052, 20.5486, -160.567, -92.6087, 54.7932
3.91172, 4, -37.0197, 0.6445, 20.5511, -160.567, -92.6087, 54.7932
3.91946, 4, -37.0064, 0.634886, 20.5565, -160.566, -92.6088, 54.7932
3.92774, 5, -36.9882, 0.621138, 20.5663, -160.564, -92.6087, 54.7932
3.93547, 5, -36.9644, 0.602835, 20.5818, -160.561, -92.6087, 54.7932
3.94356, 5, -36.9352, 0.580203, 20.6037, -160.557, -92.6085, 54.7931
3.95171, 5, -36.9011, 0.552965, 20.6326, -160.551, -92.6081, 54.7931
3.95985, 5, -36.8622, 0.521432, 20.6681, -160.543, -92.6074, 54.7931
3.9678, 5, -36.8182, 0.485045, 20.7094, -160.534, -92.6063, 54.793
3.97645, 5, -36.769, 0.444181, 20.7558, -160.523, -92.6049, 54.7931
3.98426, 5, -36.7149, 0.399245, 20.806, -160.512, -92.6033, 54.793
3.99186, 5, -36.6564, 0.351017, 20.8587, -160.5, -92.6016, 54.793
4.00041, 5, -36.5941, 0.300421, 20.913, -160.488, -92.5998, 54.793
4.00791, 5, -36.5284, 0.248058, 20.9681, -160.476, -92.598, 54.7929
4.01647, 5, -36.461, 0.194711, 21.0235, -160.463, -92.5962, 54.793
4.02413, 5, -36.427, 0.167877, 21.0512, -160.457, -92.5953, 54.793
4.03213, 5, -36.3585, 0.114045, 21.1068, -160.445, -92.5924, 54.793
4.04212, 5, -36.2553, 0.0332257, 21.1899, -160.428, -92.5905, 54.7931
4.04735, 5, -36.2209, 0.00634736, 21.2176, -160.421, -92.5896, 54.7931
4.05738, 5, -36.1178, -0.0739133, 21.3007, -160.403, -92.5866, 54.7931
4.06539, 5, -36.0491, -0.127133, 21.356, -160.391, -92.5846, 54.7932
4.07129, 5, -36.0147, -0.153645, 21.3836, -160.384, -92.5837, 54.7932
4.07928, 5, -35.9461, -0.206542, 21.4389, -160.371, -92.5817, 54.7933
4.08868, 5, -35.8431, -0.285569, 21.5215, -160.352, -92.5786, 54.7938
4.09534, 5, -35.8087, -0.311876, 21.549, -160.346, -92.5776, 54.7941
4.10336, 5, -35.7396, -0.364522, 21.6039, -160.333, -92.5756, 54.7947
4.11144, 5, -35.6703, -0.417114, 21.6586, -160.32, -92.5736, 54.7957
4.11926, 5, -35.6008, -0.469758, 21.7132, -160.308, -92.5715, 54.7968
4.12886, 5, -35.496, -0.548883, 21.7947, -160.289, -92.5685, 54.7987
4.1401, 5, -35.4259, -0.60161, 21.8488, -160.276, -92.5665, 54.8001
4.14333, 5, -35.3908, -0.627967, 21.8758, -160.27, -92.5654, 54.8009
4.1523, 5, -35.3203, -0.680673, 21.9297, -160.257, -92.5633, 54.8025
4.16113, 5, -35.2497, -0.733317, 21.9836, -160.244, -92.5603, 54.8053
4.16994, 5, -35.1439, -0.8117, 22.0641, -160.224, -92.5582, 54.8073
4.17629, 5, -35.1085, -0.837814, 22.0909, -160.217, -92.5571, 54.8084
4.18447, 5, -35.0379, -0.889931, 22.1444, -160.204, -92.555, 54.8105
4.19447, 5, -34.9321, -0.967435, 22.2245, -160.184, -92.5517, 54.814
4.19935, 5, -34.8969, -0.993218, 22.2511, -160.178, -92.5505, 54.8153
4.21069, 5, -34.791, -1.07024, 22.3308, -160.159, -92.5473, 54.8192
4.21644, 5, -34.7557, -1.0959, 22.3572, -160.152, -92.5462, 54.8206
4.22578, 5, -34.6495, -1.17285, 22.4364, -160.133, -92.5429, 54.8248
4.23128, 5, -34.614, -1.19846, 22.4627, -160.127, -92.5418, 54.8262
4.2393, 5, -34.5431, -1.24981, 22.5151, -160.113, -92.5395, 54.8292
4.24736, 5, -34.4719, -1.30111, 22.5674, -160.1, -92.5373, 54.8324
4.25531, 5, -34.4004, -1.35241, 22.6196, -160.086, -92.535, 54.8356
4.26356, 5, -34.3288, -1.40372, 22.6716, -160.072, -92.5328, 54.839
4.27231, 5, -34.2571, -1.45491, 22.7234, -160.059, -92.5305, 54.8424
4.27929, 5, -34.1852, -1.50597, 22.7752, -160.045, -92.5283, 54.8461
4.28745, 5, -34.1132, -1.55675, 22.8268, -160.032, -92.526, 54.8497
4.29658, 5, -34.0411, -1.60739, 22.8783, -160.018, -92.5237, 54.8535
4.30333, 5, -33.969, -1.65779, 22.9298, -160.005, -92.5214, 54.8574
4.3113, 5, -33.8968, -1.70793, 22.981, -159.991, -92.519, 54.8615
4.31935, 5, -33.8246, -1.75793, 23.0321, -159.978, -92.5167, 54.8656
4.32734, 5, -33.7524, -1.80788, 23.0831, -159.964, -92.5144, 54.8698
4.33751, 5, -33.6801, -1.85774, 23.1339, -159.95, -92.5121, 54.8739
4.3438, 5, -33.6076, -1.90754, 23.1844, -159.935, -92.5099, 54.8782
4.35147, 5, -33.535, -1.95758, 23.2349, -159.921, -92.5076, 54.8824
4.35939, 5, -33.4622, -2.00793, 23.2854, -159.907, -92.5052, 54.8864
4.36782, 5, -33.3894, -2.05864, 23.3357, -159.893, -92.5029, 54.8895
4.37542, 5, -33.3169, -2.1098, 23.3861, -159.879, -92.5005, 54.8911
4.38344, 6, -33.2446, -2.16155, 23.4368, -159.864, -92.4979, 54.8913
4.39206, 6, -33.1726, -2.21419, 23.4878, -159.85, -92.4949, 54.8896
4.40127, 6, -33.1011, -2.26771, 23.5396, -159.834, -92.4912, 54.8847
4.40763, 7, -33.03, -2.32218, 23.5923, -159.817, -92.4864, 54.8743
4.41623, 7, -32.9594, -2.37786, 23.6461, -159.799, -92.4802, 54.8603
4.42345, 7, -32.8893, -2.43472, 23.701, -159.78, -92.4723, 54.8438
4.43225, 7, -32.8197, -2.4931, 23.7575, -159.759, -92.4626, 54.8263
4.43988, 7, -32.7507, -2.55293, 23.8152, -159.737, -92.4508, 54.8089
4.44787, 8, -32.6824, -2.61439, 23.8742, -159.715, -92.4372, 54.7919
4.45641, 8, -32.6148, -2.67742, 23.9345, -159.69, -92.4217, 54.7752
4.46413, 8, -32.548, -2.74221, 23.9959, -159.665, -92.4042, 54.7581
4.47255, 8, -32.4818, -2.80862, 24.0582, -159.638, -92.385, 54.7402
4.48016, 8, -32.4163, -2.87658, 24.1217, -159.61, -92.3641, 54.7208
4.48783, 8, -32.3513, -2.94593, 24.186, -159.582, -92.3422, 54.6997
4.49668, 9, -32.287, -3.01658, 24.2513, -159.553, -92.3191, 54.677
4.50394, 9, -32.2232, -3.08857, 24.3177, -159.522, -92.2949, 54.6524
4.51262, 9, -32.16, -3.16184, 24.385, -159.49, -92.2692, 54.6264
4.52119, 9, -32.0974, -3.23638, 24.4533, -159.458, -92.2416, 54.5993
4.52728, 9, -32.0662, -3.27416, 24.4878, -159.442, -92.2271, 54.5852
4.53528, 10, -32.0044, -3.35065, 24.5576, -159.408, -92.1975, 54.5558
4.54435, 10, -31.9128, -3.46799, 24.6643, -159.355, -92.151, 54.5081
4.55127, 10, -31.8826, -3.50783, 24.7004, -159.337, -92.1348, 54.4912
4.56174, 10, -31.7927, -3.62944, 24.8103, -159.282, -92.0831, 54.4383
4.5675, 10, -31.7631, -3.67071, 24.8474, -159.264, -92.0653, 54.4202
4.57525, 11, -31.7041, -3.75429, 24.9223, -159.225, -92.029, 54.3829
4.58467, 11, -31.6167, -3.88256, 25.0366, -159.165, -91.9722, 54.3236
4.59146, 11, -31.5879, -3.92601, 25.0751, -159.145, -91.9522, 54.3029
4.59925, 11, -31.5305, -4.01401, 25.1528, -159.104, -91.9113, 54.2603
4.60883, 11, -31.4455, -4.14881, 25.2715, -159.04, -91.8482, 54.1945
4.61685, 12, -31.3894, -4.2405, 25.352, -158.997, -91.8038, 54.1486
4.6249, 12, -31.3338, -4.33357, 25.4335, -158.952, -91.7579, 54.1005
4.63134, 12, -31.3062, -4.38064, 25.4747, -158.929, -91.7349, 54.0759
4.64112, 12, -31.2514, -4.52377, 25.5998, -158.86, -91.6633, 54.0009
4.64745, 12, -31.1971, -4.5722, 25.6419, -158.836, -91.6385, 53.975
4.65633, 13, -31.1433, -4.67016, 25.727, -158.788, -91.5885, 53.9214
4.66429, 13, -31.09, -4.76951, 25.8129, -158.739, -91.537, 53.8669
4.67135, 13, -31.0373, -4.87031, 25.8999, -158.69, -91.4834, 53.8111
4.67926, 13, -30.9851, -4.97266, 25.988, -158.639, -91.4296, 53.7533
4.68747, 13, -30.9334, -5.07646, 26.0773, -158.588, -91.3737, 53.6941
4.69543, 14, -30.8822, -5.18162, 26.1676, -158.535, -91.3164, 53.634
4.70332, 14, -30.8316, -5.2883, 26.2589, -158.481, -91.2587, 53.5718
4.71251, 14, -30.7816, -5.39646, 26.3511, -158.428, -91.1984, 53.5084
4.7234, 14, -30.7076, -5.56153, 26.4911, -158.344, -91.1072, 53.4113
4.72728, 14, -30.6832, -5.61731, 26.5383, -158.316, -91.0756, 53.3777
4.73626, 15, -30.6347, -5.72996, 26.6335, -158.26, -91.0117, 53.3099
4.74435, 15, -30.5866, -5.84401, 26.7299, -158.201, -90.9467, 53.2412
4.75126, 15, -30.5391, -5.95927, 26.8274, -158.143, -90.8799, 53.1702
4.76278, 15, -30.4688, -6.13487, 26.9755, -158.053, -90.778, 53.0623
4.76743, 15, -30.4456, -6.19413, 27.0254, -158.023, -90.7431, 53.025
4.77534, 15, -30.3997, -6.3137, 27.1257, -157.961, -90.6729, 52.9496
4.78331, 16, -30.3543, -6.43486, 27.227, -157.898, -90.6006, 52.8735
4.79126, 16, -30.3094, -6.55746, 27.3294, -157.835, -90.5279, 52.795
4.79934, 16, -30.2649, -6.6814, 27.433, -157.771, -90.4532, 52.7158
4.80728, 16, -30.2209, -6.80688, 27.5378, -157.706, -90.3776, 52.6349
4.81543, 16, -30.1774, -6.93387, 27.6435, -157.64, -90.3003, 52.5527
4.82338, 17, -30.1344, -7.0625, 27.7501, -157.573, -90.2221, 52.4694
4.83132, 17, -30.0919, -7.19265, 27.8575, -157.505, -90.1424, 52.3846
4.83951, 17, -30.0499, -7.32427, 27.9659, -157.436, -90.0611, 52.299
4.84912, 17, -30.0084, -7.45711, 28.0755, -157.367, -89.9789, 52.211
4.85543, 17, -29.9675, -7.59137, 28.1864, -157.296, -89.8951, 52.1226
4.86342, 18, -29.9269, -7.7271, 28.2983, -157.225, -89.8101, 52.0323
4.87137, 18, -29.887, -7.86426, 28.4111, -157.152, -89.7236, 51.9412
4.87944, 18, -29.8475, -8.00284, 28.5246, -157.079, -89.6364, 51.8481
4.88774, 18, -29.8084, -8.14253, 28.6392, -157.005, -89.5476, 51.7542
4.89632, 18, -29.7698, -8.28354, 28.755, -156.93, -89.4575, 51.6583
4.90347, 19, -29.7317, -8.42596, 28.872, -156.854, -89.3665, 51.5618
4.91352, 19, -29.694, -8.57002, 28.9901, -156.777, -89.274, 51.4635
4.9196, 19, -29.6567, -8.71567, 29.109, -156.7, -89.1801, 51.3648
4.92822, 19, -29.62, -8.86249, 29.2285, -156.621, -89.0854, 51.2646
4.9354, 19, -29.5838, -9.01055, 29.3491, -156.541, -88.9895, 51.1636
4.94382, 20, -29.5482, -9.16018, 29.4708, -156.461, -88.8922, 51.061
4.95236, 20, -29.5128, -9.31137, 29.5938, -156.38, -88.7943, 50.9573
4.95958, 20, -29.4779, -9.46397, 29.7176, -156.298, -88.6951, 50.8526
4.96882, 20, -29.4436, -9.61763, 29.8423, -156.215, -88.5947, 50.7463
4.97638, 20, -29.4097, -9.77251, 29.9679, -156.131, -88.4935, 50.6392
4.98393, 20, -29.3762, -9.9288, 30.0944, -156.046, -88.391, 50.5305
4.9928, 21, -29.3431, -10.0867, 30.2221, -155.96, -88.2872, 50.4213
4.99986, 21, -29.3105, -10.2459, 30.3508, -155.874, -88.1827, 50.3109
5.00872, 21, -29.2783, -10.4059, 30.4803, -155.787, -88.0771, 50.1996
5.01676, 21, -29.2465, -10.5671, 30.6107, -155.699, -87.9703, 50.0876
5.02447, 21, -29.2151, -10.7296, 30.742, -155.609, -87.8627, 49.9746
5.03129, 22, -29.1995, -10.8115, 30.8081, -155.564, -87.8084, 49.9178
5.04019, 22, -29.1686, -10.9761, 30.9409, -155.474, -87.6992, 49.8036
5.04899, 22, -29.1382, -11.1416, 31.1417, -155.337, -87.5336, 49.6304
5.05526, 22, -29.1082, -11.308, 31.2091, -155.29, -87.4778, 49.5724
5.06481, 23, -29.0639, -11.5608, 31.4127, -155.15, -87.3094, 49.3968
5.07329, 23, -29.0347, -11.7312, 31.5494, -155.056, -87.1958, 49.2787
5.07927, 23, -29.0203, -11.8167, 31.6181, -155.009, -87.1387, 49.2194
5.08985, 23, -28.9776, -12.0744, 31.8254, -154.865, -86.9663, 49.041
5.09671, 23, -28.9636, -12.1609, 31.9647, -154.768, -86.8499, 48.9212
5.10329, 23, -28.9359, -12.3352, 32.0346, -154.719, -86.7915, 48.861
5.11126, 24, -28.9085, -12.5107, 32.1753, -154.621, -86.674, 48.7404
5.11932, 24, -28.8814, -12.6866, 32.3167, -154.522, -86.5553, 48.6194
5.12885, 24, -28.8414, -12.9521, 32.5299, -154.372, -86.3762, 48.4363
5.13781, 24, -28.8151, -13.1311, 32.6734, -154.271, -86.2555, 48.3135
5.14354, 24, -28.8021, -13.221, 32.7455, -154.22, -86.1951, 48.2521
5.15127, 25, -28.7764, -13.4012, 32.8902, -154.118, -86.0735, 48.1287
5.16026, 25, -28.7509, -13.5819, 33.0354, -154.015, -85.951, 48.0052
5.16906, 25, -28.7256, -13.764, 33.1811, -153.911, -85.8281, 47.8199
5.17535, 25, -28.7005, -13.9476, 33.3277, -153.807, -85.7041, 47.7579
5.18337, 25, -28.6758, -14.1318, 33.4752, -153.701, -85.5799, 47.634
5.19125, 26, -28.6514, -14.3163, 33.6234, -153.595, -85.455, 47.5101
5.19927, 26, -28.6272, -14.5021, 33.7719, -153.488, -85.3293, 47.3857
5.20739, 26, -28.6034, -14.6894, 33.9211, -153.38, -85.2034, 47.2613
5.21539, 26, -28.5797, -14.8772, 34.0713, -153.271, -85.0764, 47.1372
5.22426, 26, -28.5561, -15.0652, 34.2221, -153.162, -84.9492, 47.0131
5.23231, 27, -28.5327, -15.2538, 34.3732, -153.052, -84.8213, 46.8891
5.24036, 27, -28.5097, -15.4435, 34.5248, -152.942, -84.693, 46.7658
5.24731, 27, -28.4868, -15.6337, 34.6772, -152.83, -84.5641, 46.6423
5.25525, 27, -28.4641, -15.824, 34.8303, -152.718, -84.4347, 46.5193
5.2635, 27, -28.4417, -16.0154, 34.9837, -152.605, -84.3051, 46.3967
5.27229, 28, -28.4194, -16.2084, 35.1373, -152.492, -84.175, 46.2741
5.28033, 28, -28.397, -16.4019, 35.2915, -152.378, -84.0446, 46.1521
5.28838, 28, -28.3748, -16.5957, 35.4464, -152.263, -83.9136, 46.0305
5.29704, 28, -28.3529, -16.7905, 35.6019, -152.148, -83.7827, 45.9097
5.30427, 28, -28.3308, -16.9863, 35.7573, -152.032, -83.6511, 45.7897
5.31223, 29, -28.3088, -17.182, 35.9132, -151.915, -83.5195, 45.6707
5.31928, 29, -28.287, -17.3777, 36.0697, -151.797, -83.3874, 45.5525
5.32725, 29, -28.2652, -17.5744, 36.2267, -151.679, -83.2551, 45.4353
5.3387, 29, -28.2324, -17.8702, 36.4621, -151.501, -83.056, 45.2612
5.34354, 29, -28.2216, -17.9688, 36.5407, -151.442, -82.9896, 45.2035
5.35252, 30, -28.2001, -18.1662, 36.6985, -151.322, -82.8566, 45.0894
5.35958, 30, -28.1786, -18.3645, 36.8568, -151.202, -82.7234, 44.9764
5.36752, 30, -28.1569, -18.5631, 37.015, -151.081, -82.5903, 44.8645
5.37625, 30, -28.1353, -18.7616, 37.1731, -150.959, -82.4568, 44.7543
5.38341, 30, -28.1137, -18.9607, 37.3314, -150.837, -82.3234, 44.6457
5.39136, 30, -28.0919, -19.1609, 37.4904, -150.715, -82.1894, 44.5387
5.39943, 31, -28.07, -19.3609, 37.6492, -150.592, -82.056, 44.4333
5.40725, 31, -28.0482, -19.5607, 37.8078, -150.469, -81.9221, 44.3296
5.41562, 31, -28.0264, -19.7609, 37.9667, -150.345, -81.7885, 44.2279
5.42433, 31, -28.0044, -19.9614, 38.1263, -150.22, -81.6547, 44.1277
5.43142, 31, -27.9824, -20.1615, 38.2859, -150.095, -81.5209, 44.0291
5.43946, 32, -27.9603, -20.3614, 38.445, -149.97, -81.3871, 43.9322
5.44757, 32, -27.938, -20.5622, 38.6042, -149.843, -81.2532, 43.8373
5.45552, 32, -27.9154, -20.7633, 38.7639, -149.717, -81.1194, 43.7443
5.464, 32, -27.8926, -20.9638, 38.9237, -149.59, -80.9854, 43.6536
5.47267, 32, -27.8697, -21.1643, 39.083, -149.462, -80.8517, 43.5653
5.47972, 33, -27.8465, -21.3651, 39.242, -149.334, -80.7182, 43.4799
5.48909, 33, -27.823, -21.5654, 39.4012, -149.207, -80.5851, 43.3974
5.49671, 33, -27.799, -21.7649, 39.5602, -149.079, -80.4522, 43.3178
5.50388, 33, -27.7746, -21.9644, 39.7182, -148.951, -80.3201, 43.2419
5.51186, 33, -27.7623, -22.164, 39.8754, -148.823, -80.1879, 43.1686
5.51976, 34, -27.7375, -22.2635, 39.954, -148.759, -80.1221, 43.1335
5.52826, 34, -27.6994, -22.5607, 40.1897, -148.567, -79.9253, 43.0329
5.53525, 34, -27.6866, -22.6596, 40.268, -148.503, -79.8596, 43.0004
5.54473, 34, -27.6474, -22.9562, 40.502, -148.31, -79.6631, 42.909
5.55425, 34, -27.6207, -23.153, 40.6579, -148.181, -79.5321, 42.8519
5.55926, 35, -27.6072, -23.2511, 40.7359, -148.117, -79.4668, 42.8243
5.5686, 35, -27.5664, -23.546, 40.9692, -147.923, -79.2706, 42.7474
5.57524, 35, -27.5526, -23.6443, 41.0466, -147.858, -79.2056, 42.7238
5.58873, 35, -27.4965, -24.0356, 41.3552, -147.598, -78.9455, 42.6378
5.59136, 35, -27.4965, -24.0356, 41.3552, -147.598, -78.9455, 42.6378
5.59954, 36, -27.4678, -24.2307, 41.5093, -147.468, -78.8159, 42.6002
5.60724, 36, -27.4387, -24.4255, 41.6627, -147.338, -78.6863, 42.5669
5.6154, 36, -27.4092, -24.6192, 41.8152, -147.208, -78.5576, 42.5381
5.62321, 36, -27.3793, -24.8121, 41.9674, -147.078, -78.4289, 42.5138
5.63131, 36, -27.3487, -25.0049, 42.1192, -146.947, -78.3008, 42.4936
5.64117, 37, -27.3012, -25.2931, 42.3453, -146.752, -78.1092, 42.4715
5.64724, 37, -27.285, -25.3886, 42.4201, -146.686, -78.0456, 42.4664
5.65625, 37, -27.2522, -25.579, 42.5694, -146.557, -77.9186, 42.4598
5.66588, 37, -27.2186, -25.769, 42.718, -146.427, -77.7918, 42.4564
5.67417, 37, -27.1667, -26.0519, 42.9393, -146.233, -77.6023, 42.4587
5.67923, 37, -27.149, -26.1454, 43.0125, -146.169, -77.5392, 42.4622
5.68731, 38, -27.1131, -26.3315, 43.158, -146.04, -77.4136, 42.4739
5.69531, 38, -27.0765, -26.5172, 43.303, -145.912, -77.2883, 42.4906
5.70323, 38, -27.039, -26.7017, 43.4472, -145.784, -77.1633, 42.5131
5.71372, 38, -26.9813, -26.9757, 43.6615, -145.592, -76.9765, 42.557
5.71938, 38, -26.9616, -27.0666, 43.7325, -145.528, -76.9146, 42.5747
5.72822, 39, -26.9217, -27.2484, 43.8737, -145.401, -76.7911, 42.6149
5.73523, 39, -26.881, -27.429, 44.0138, -145.275, -76.6676, 42.661
5.74652, 39, -26.8393, -27.608, 44.153, -145.148, -76.4837, 42.7406
5.75124, 39, -26.7967, -27.7859, 44.291, -145.022, -76.4224, 42.7704
5.7593, 39, -26.7533, -27.9636, 44.4276, -144.897, -76.3004, 42.8352
5.76726, 40, -26.7088, -28.1401, 44.563, -144.773, -76.1786, 42.9052
5.77523, 40, -26.6633, -28.3148, 44.6974, -144.649, -76.0571, 42.9824
5.7833, 40, -26.6168, -28.488, 44.8304, -144.526, -75.9363, 43.0656
5.79149, 40, -26.5693, -28.6602, 44.9622, -144.403, -75.8155, 43.1549
5.80029, 40, -26.5206, -28.8309, 45.0925, -144.282, -75.6954, 43.2514
5.80723, 41, -26.4707, -28.9996, 45.2214, -144.161, -75.5757, 43.3541
5.81537, 41, -26.4197, -29.1664, 45.3487, -144.041, -75.4561, 43.4636
5.82326, 41, -26.3674, -29.3322, 45.4747, -143.922, -75.3373, 43.5796
5.83138, 41, -26.3138, -29.4967, 45.5992, -143.805, -75.2186, 43.7027
5.83972, 41, -26.259, -29.6593, 45.722, -143.688, -75.1007, 43.8329
5.84835, 42, -26.2028, -29.8201, 45.843, -143.573, -74.9831, 43.9706
5.85552, 42, -26.1452, -29.9794, 45.9624, -143.459, -74.8657, 44.1154
5.86547, 42, -26.0862, -30.1372, 46.08, -143.346, -74.7491, 44.2672
5.87183, 42, -26.0258, -30.293, 46.1959, -143.235, -74.6325, 44.4266
5.8794, 42, -25.964, -30.4465, 46.3101, -143.125, -74.5166, 44.5932
5.88732, 43, -25.9007, -30.5978, 46.4222, -143.017, -74.401, 44.7672
5.89578, 43, -25.8358, -30.7473, 46.5324, -142.911, -74.2858, 44.9495
5.90335, 43, -25.7692, -30.8947, 46.6404, -142.806, -74.1711, 45.1393
5.91543, 43, -25.7009, -31.1113, 46.7986, -142.653, -73.9995, 45.4386
5.91957, 43, -25.6311, -31.1824, 46.8504, -142.603, -73.9427, 45.5421
5.92846, 44, -25.5595, -31.3228, 46.9523, -142.504, -73.8294, 45.755
5.93623, 44, -25.4861, -31.461, 47.0519, -142.408, -73.7164, 45.9757
5.94384, 44, -25.4106, -31.5968, 47.1489, -142.314, -73.6041, 46.2046
5.95317, 44, -25.3333, -31.7301, 47.2434, -142.222, -73.492, 46.4414
5.95989, 44, -25.2542, -31.8606, 47.3355, -142.133, -73.3806, 46.6865
5.96831, 44, -25.1731, -31.9883, 47.4251, -142.046, -73.2698, 46.9395
5.97639, 45, -25.0902, -32.1133, 47.5123, -141.963, -73.1595, 47.2014
5.98376, 45, -25.0053, -32.2355, 47.5969, -141.882, -73.0501, 47.4715
5.99253, 45, -24.9182, -32.3548, 47.6786, -141.804, -72.9414, 47.7498
6.00111, 45, -24.829, -32.4711, 47.7572, -141.729, -72.8332, 48.0362
6.00817, 45, -24.7375, -32.5842, 47.8328, -141.657, -72.7261, 48.3313
6.01586, 46, -24.6438, -32.694, 47.9055, -141.589, -72.6195, 48.6351
6.0243, 46, -24.5476, -32.8006, 47.9752, -141.524, -72.5141, 48.947
6.03122, 46, -24.4986, -32.8526, 48.0089, -141.493, -72.4616, 49.1061
6.04166, 46, -24.3484, -33.0032, 48.1053, -141.406, -72.3054, 49.597
6.05083, 46, -24.2453, -33.099, 48.1652, -141.352, -72.2028, 49.9344
6.05519, 47, -24.1929, -33.1455, 48.1939, -141.328, -72.1518, 50.1062
6.06322, 47, -24.0863, -33.2353, 48.2485, -141.28, -72.0504, 50.4559
6.07753, 47, -23.9213, -33.3624, 48.3467, -141.198, -71.8512, 51.1808
6.07917, 47, -23.865, -33.4026, 48.3467, -141.198, -71.8512, 51.1808
6.08855, 47, -23.6919, -33.517, 48.4103, -141.149, -71.7046, 51.7466
6.09519, 48, -23.6327, -33.5529, 48.4295, -141.135, -71.6566, 51.9392
6.10485, 48, -23.4514, -33.6539, 48.4808, -141.099, -71.5147, 52.5293
6.1128, 48, -23.3273, -33.7153, 48.5099, -141.081, -71.4219, 52.9335
6.12608, 48, -23.1364, -33.7981, 48.5457, -141.064, -71.2866, 53.5555
6.1275, 48, -23.1364, -33.7981, 48.5457, -141.064, -71.2866, 53.5555
6.13529, 49, -23.0056, -33.847, 48.5642, -141.059, -71.1987, 53.9807
6.14483, 49, -22.8719, -33.8906, 48.5837, -141.059, -71.0703, 54.6322
6.15129, 49, -22.7353, -33.9288, 48.5878, -141.062, -71.0287, 54.8534
6.16077, 49, -22.5958, -33.9614, 48.5926, -141.073, -70.9467, 55.3016
6.16903, 49, -22.4535, -33.9885, 48.5931, -141.09, -70.8672, 55.7574
6.17548, 50, -22.3085, -34.0097, 48.5888, -141.113, -70.79, 56.2214
6.18428, 50, -22.1608, -34.0247, 48.5795, -141.142, -70.7157, 56.6922
6.19241, 50, -22.0106, -34.0336, 48.5651, -141.176, -70.6442, 57.1709
6.20627, 50, -21.7797, -34.0356, 48.5205, -141.265, -70.5106, 58.1521
6.20844, 50, -21.7012, -34.0332, 48.5205, -141.265, -70.5106, 58.1521
6.21874, 51, -21.4611, -34.0158, 48.4725, -141.347, -70.4201, 58.9068
6.22445, 51, -21.3797, -34.0066, 48.4539, -141.378, -70.3913, 59.1615
6.23223, 51, -21.2148, -33.983, 48.4123, -141.444, -70.3371, 59.6768
6.24023, 51, -21.0472, -33.9522, 48.3651, -141.516, -70.2866, 60.1986
6.24836, 51, -20.8771, -33.9144, 48.3122, -141.595, -70.2394, 60.727
6.25547, 51, -20.7045, -33.8691, 48.2533, -141.68, -70.1968, 61.2607
6.26325, 52, -20.529, -33.8161, 48.1885, -141.772, -70.159, 61.801
6.27131, 52, -20.3509, -33.7553, 48.1179, -141.87, -70.1255, 62.3474
6.27922, 52, -20.17, -33.6864, 48.0413, -141.974, -70.0963, 62.8996
6.28724, 52, -19.9865, -33.6092, 47.9585, -142.084, -70.0724, 63.4566
6.29574, 52, -19.8007, -33.5238, 47.8695, -142.2, -70.0539, 64.0191
6.30337, 53, -19.6126, -33.4297, 47.7744, -142.323, -70.0408, 64.5872
6.31122, 53, -19.4226, -33.3271, 47.6731, -142.451, -70.0332, 65.1606
6.32116, 53, -19.2306, -33.2162, 47.5658, -142.586, -70.0307, 65.7379
6.32723, 53, -19.0365, -33.0966, 47.4522, -142.726, -70.0333, 66.3207
6.3353, 53, -18.8405, -32.9682, 47.3321, -142.873, -70.0424, 66.9081
6.34327, 54, -18.6423, -32.8308, 47.2055, -143.024, -70.0582, 67.4992
6.3514, 54, -18.4419, -32.6843, 47.0724, -143.181, -70.0811, 68.0936
6.36022, 54, -18.2392, -32.5292, 46.9331, -143.344, -70.1117, 68.6916
6.36737, 54, -18.0347, -32.3654, 46.7877, -143.512, -70.1491, 69.2934
6.37638, 54, -17.8288, -32.1925, 46.6359, -143.684, -70.1931, 69.8978
6.38422, 55, -17.622, -32.0104, 46.4778, -143.862, -70.2457, 70.5047
6.39135, 55, -17.4142, -31.8194, 46.3138, -144.044, -70.3058, 71.1154
6.3994, 55, -17.2049, -31.6192, 46.1437, -144.23, -70.3734, 71.7284
6.40788, 55, -16.9943, -31.4093, 45.9667, -144.421, -70.4496, 72.3426
6.41623, 55, -16.7825, -31.1892, 45.7831, -144.615, -70.5335, 72.9592
6.42363, 56, -16.5696, -30.9601, 45.5938, -144.814, -70.6261, 73.5777
6.4323, 56, -16.3556, -30.7217, 45.3985, -145.015, -70.7266, 74.1971
6.43938, 56, -16.1412, -30.4731, 45.1961, -145.22, -70.8359, 74.8169
6.44853, 56, -15.9272, -30.2155, 44.988, -145.428, -70.9538, 75.4379
6.45641, 56, -15.7137, -29.9488, 44.7748, -145.638, -71.0802, 76.0594
6.46369, 57, -15.4995, -29.6723, 44.5549, -145.851, -71.2155, 76.68
6.47242, 57, -15.2845, -29.3868, 44.3291, -146.065, -71.3592, 77.3002
6.47965, 57, -15.0687, -29.0911, 44.0981, -146.281, -71.5124, 77.9204
6.4886, 57, -14.8528, -28.7861, 43.8608, -146.499, -71.6741, 78.5395
6.49671, 57, -14.6371, -28.4719, 43.6183, -146.717, -71.8455, 79.1571
6.50456, 58, -14.4216, -28.1486, 43.371, -146.937, -72.0256, 79.7739
6.51267, 58, -14.2068, -27.8165, 43.1179, -147.157, -72.2146, 80.3896
6.51978, 58, -14.0998, -27.647, 42.8602, -147.377, -72.4129, 81.0025
6.52876, 58, -13.8865, -27.3018, 42.7295, -147.597, -72.6203, 81.6132
6.53623, 58, -13.5679, -26.7692, 42.3299, -147.817, -72.8365, 82.2213
6.54322, 58, -13.462, -26.588, 42.1947, -147.926, -72.9478, 82.5244
6.55314, 59, -13.1465, -26.0324, 41.782, -148.253, -73.2945, 83.4269
6.55928, 59, -13.0422, -25.8434, 41.6425, -148.361, -73.4142, 83.7258
6.57243, 59, -12.6287, -25.0693, 41.0759, -148.79, -73.9131, 84.9108
6.57676, 59, -12.5261, -24.8714, 40.9325, -148.895, -74.0429, 85.2039
6.58326, 59, -12.4238, -24.6714, 40.7883, -149, -74.1746, 85.4954
6.59121, 60, -12.2202, -24.2666, 40.4968, -149.208, -74.4439, 86.0749
6.59937, 60, -12.0183, -23.855, 40.2025, -149.414, -74.7209, 86.6496
6.60721, 60, -11.8178, -23.4375, 39.9051, -149.617, -75.0056, 87.2193
6.61677, 60, -11.5205, -22.7997, 39.4549, -149.915, -75.4467, 88.0625
6.62483, 60, -11.325, -22.3678, 39.1518, -150.109, -75.7497, 88.6181
6.63365, 61, -11.1318, -21.9317, 38.8472, -150.3, -76.0595, 89.1673
6.63928, 61, -11.036, -21.7118, 38.694, -150.394, -76.2169, 89.4395
6.64917, 61, -10.7514, -21.0455, 38.2322, -150.67, -76.6982, 90.244
6.66166, 61, -10.5645, -20.5963, 37.9228, -150.935, -77.1927, 91.0321
6.66315, 61, -10.4719, -20.3702, 37.7679, -150.935, -77.1927, 91.0321
6.67124, 62, -10.2886, -19.9154, 37.4583, -151.107, -77.529, 91.5474
6.67934, 62, -10.1081, -19.457, 37.148, -151.273, -77.8701, 92.0541
6.68827, 62, -9.9304, -18.9959, 36.8382, -151.435, -78.2156, 92.5519
6.69754, 62, -9.66909, -18.2986, 36.3733, -151.667, -78.7416, 93.2829
6.70577, 62, -9.58322, -17.8315, 36.0644, -151.816, -79.0972, 93.7589
6.71127, 63, -9.41311, -17.5975, 35.91, -151.888, -79.2765, 93.9935
6.71923, 63, -9.2453, -17.1284, 35.6023, -152.029, -79.6376, 94.4545
6.72738, 63, -9.0799, -16.6588, 35.2959, -152.165, -80.0019, 94.9057
6.73521, 63, -8.9171, -16.1886, 34.9905, -152.294, -80.3694, 95.3472
6.74327, 63, -8.75699, -15.7181, 34.6865, -152.419, -80.739, 95.7774
6.75117, 64, -8.59954, -15.2478, 34.3843, -152.537, -81.1109, 96.1974
6.75922, 64, -8.44484, -14.7781, 34.0851, -152.65, -81.4843, 96.6053
6.76727, 64, -8.29288, -14.3086, 33.7875, -152.757, -81.859, 97.0017
6.77522, 64, -8.14365, -13.8399, 33.4929, -152.859, -82.2349, 97.3868
6.78337, 64, -7.9971, -13.3725, 33.2005, -152.955, -82.6116, 97.7595
6.79116, 65, -7.85314, -12.9065, 32.9113, -153.045, -82.9889, 98.1196
6.79939, 65, -7.71197, -12.4427, 32.6251, -153.129, -83.3662, 98.4674
6.80752, 65, -7.5734, -11.9808, 32.3423, -153.208, -83.7438, 98.8016
6.81521, 65, -7.4378, -11.5209, 32.0632, -153.28, -84.1208, 99.1218
6.82333, 65, -7.305, -11.0627, 31.787, -153.347, -84.4976, 99.4286
6.83226, 65, -7.17489, -10.6062, 31.5146, -153.409, -84.8738, 99.7215
6.83931, 66, -7.04725, -10.1524, 31.245, -153.465, -85.2493, 99.9997
6.84902, 66, -6.92184, -9.70126, 30.979, -153.516, -85.6244, 100.263
6.85524, 66, -6.79865, -9.25425, 30.7173, -153.56, -85.9987, 100.511
6.86335, 66, -6.67772, -8.81238, 30.4589, -153.6, -86.3714, 100.744
6.87131, 66, -6.55914, -8.37542, 30.2054, -153.635, -86.7417, 100.96
6.88034, 67, -6.44306, -7.94411, 29.9569, -153.664, -87.1089, 101.16
6.88737, 67, -6.32976, -7.51809, 29.7138, -153.687, -87.4724, 101.343
6.89533, 67, -6.21904, -7.09743, 29.4774, -153.704, -87.8314, 101.509
6.9034, 67, -6.11076, -6.68121, 29.2464, -153.717, -88.1863, 101.657
6.91121, 67, -6.00464, -6.27012, 29.0207, -153.724, -88.5378, 101.789
6.91924, 68, -5.90048, -5.86425, 28.8005, -153.727, -88.887, 101.903
6.92772, 68, -5.79809, -5.46301, 28.5836, -153.726, -89.2353, 102
6.93527, 68, -5.69723, -5.06646, 28.3696, -153.72, -89.5839, 102.08
6.94334, 68, -5.59811, -4.67456, 28.1588, -153.71, -89.9335, 102.141
6.95179, 68, -5.50064, -4.28791, 27.9508, -153.695, -90.2836, 102.184
6.95949, 69, -5.40489, -3.90499, 27.7458, -153.676, -90.6335, 102.207
6.96766, 69, -5.31107, -3.52606, 27.5457, -153.652, -90.9824, 102.214
6.97572, 69, -5.21907, -3.15109, 27.3502, -153.623, -91.3288, 102.199
6.98426, 69, -5.12897, -2.78068, 27.1585, -153.59, -91.6721, 102.163
6.9917, 69, -5.04053, -2.4141, 26.9718, -153.554, -92.0116, 102.106
7.00049, 70, -4.95363, -2.05225, 26.7903, -153.514, -92.3476, 102.026
7.00875, 70, -4.86807, -1.69553, 26.6128, -153.469, -92.6801, 101.926
7.01636, 70, -4.78369, -1.34499, 26.4395, -153.421, -93.0096, 101.803
7.02474, 70, -4.70037, -1.00008, 26.2712, -153.371, -93.3363, 101.659
7.03496, 70, -4.61809, -0.661033, 26.1071, -153.316, -93.6607, 101.492
7.04023, 71, -4.53678, -0.328282, 25.9465, -153.26, -93.9826, 101.304
7.0472, 71, -4.49651, -0.164101, 25.8678, -153.23, -94.1429, 101.202
7.0563, 71, -4.37727, 0.318201, 25.639, -153.137, -94.6201, 100.863
7.06321, 71, -4.33797, 0.476143, 25.5651, -153.105, -94.7779, 100.739
7.07125, 71, -4.25999, 0.78751, 25.4204, -153.039, -95.0916, 100.476
7.07933, 72, -4.18292, 1.09206, 25.2801, -152.972, -95.4024, 100.192
7.08718, 72, -4.10644, 1.39047, 25.1439, -152.902, -95.7096, 99.888
7.09527, 72, -4.03018, 1.6818, 25.0116, -152.831, -96.0132, 99.5633
7.10535, 72, -3.91608, 2.10673, 24.8202, -152.723, -96.4612, 99.0392
7.11119, 72, -3.87805, 2.24513, 24.7581, -152.687, -96.6084, 98.8547
7.12124, 72, -3.76416, 2.64956, 24.5772, -152.577, -97.0443, 98.271
7.12934, 73, -3.72623, 2.78117, 24.5187, -152.541, -97.1878, 98.0667
7.13681, 73, -3.61203, 3.16536, 24.3486, -152.43, -97.6129, 97.424
7.14557, 73, -3.57385, 3.41293, 24.24, -152.358, -97.8919, 96.971
7.15135, 73, -3.49725, 3.53448, 24.1871, -152.322, -98.0301, 96.7376
7.16152, 74, -3.3815, 3.88812, 24.0344, -152.215, -98.4395, 96.0083
7.16719, 74, -3.34258, 4.00186, 23.9853, -152.179, -98.5741, 95.756
7.17726, 74, -3.22489, 4.33113, 23.8432, -152.076, -98.971, 94.9727
7.18327, 74, -3.18525, 4.43665, 23.7977, -152.042, -99.1011, 94.7035
7.1934, 74, -3.06527, 4.7388, 23.6667, -151.945, -99.4832, 93.8729
7.20035, 74, -3.02489, 4.83495, 23.6251, -151.913, -99.6077, 93.5887
7.20733, 75, -2.9435, 5.02059, 23.5447, -151.852, -99.8515, 93.0104
7.2152, 75, -2.8611, 5.19665, 23.4683, -151.794, -100.088, 92.4201
7.22648, 75, -2.73581, 5.44081, 23.3612, -151.712, -100.428, 91.5152
7.23121, 75, -2.69364, 5.51706, 23.3276, -151.687, -100.537, 91.2089
7.2392, 75, -2.60863, 5.66159, 23.2636, -151.638, -100.748, 90.5908
7.24723, 76, -2.52269, 5.79482, 23.2042, -151.593, -100.949, 89.9663
7.2576, 76, -2.43572, 5.91648, 23.1494, -151.552, -101.23, 89.0183
7.26321, 76, -2.3478, 6.02615, 23.0992, -151.514, -101.319, 88.6996
7.27125, 76, -2.25903, 6.12348, 23.0537, -151.481, -101.488, 88.0596
7.27933, 76, -2.16938, 6.2081, 23.0129, -151.451, -101.645, 87.4166
7.28822, 77, -2.07882, 6.27957, 22.9771, -151.425, -101.789, 86.7695
7.29519, 77, -1.9874, 6.33762, 22.9465, -151.403, -101.921, 86.1213
7.30326, 77, -1.89507, 6.38205, 22.9213, -151.386, -102.041, 85.4728
7.3112, 77, -1.80196, 6.41219, 22.9017, -151.372, -102.147, 84.8242
7.31919, 77, -1.70819, 6.42812, 22.8879, -151.362, -102.238, 84.1765
7.32741, 78, -1.61371, 6.42972, 22.8799, -151.356, -102.315, 83.5324
7.3356, 78, -1.51853, 6.41635, 22.8774, -151.353, -102.377, 82.8925
7.34326, 78, -1.4227, 6.38797, 22.8807, -151.353, -102.423, 82.2575
7.3515, 78, -1.32647, 6.34389, 22.8902, -151.356, -102.453, 81.6295
7.35923, 78, -1.22982, 6.28355, 22.9059, -151.362, -102.467, 81.0092
7.36749, 79, -1.1329, 6.20688, 22.9283, -151.372, -102.465, 80.396
7.37576, 79, -1.03579, 6.11378, 22.9578, -151.385, -102.445, 79.7891
7.38415, 79, -0.938527, 6.00431, 22.9947, -151.4, -102.407, 79.1897
7.39167, 79, -0.841371, 5.87858, 23.0391, -151.419, -102.351, 78.5976
7.40062, 79, -0.744224, 5.73625, 23.0912, -151.441, -102.278, 78.0122
7.40831, 80, -0.647163, 5.57739, 23.1511, -151.466, -102.186, 77.4352
7.41621, 80, -0.550065, 5.40206, 23.2186, -151.493, -102.076, 76.8682
7.42322, 80, -0.452938, 5.21041, 23.2941, -151.521, -101.947, 76.3122
7.43221, 80, -0.355871, 5.00215, 23.3776, -151.551, -101.8, 75.7663
7.43924, 80, -0.258967, 4.77593, 23.4693, -151.582, -101.634, 75.2316
7.44732, 80, -0.162146, 4.53154, 23.5694, -151.615, -101.448, 74.7081
7.45654, 81, -0.0654582, 4.27056, 23.6781, -151.649, -101.245, 74.1956
7.4642, 81, 0.0309489, 3.99296, 23.7956, -151.684, -101.022, 73.6926
7.47239, 81, 0.12713, 3.69881, 23.9224, -151.719, -100.78, 73.1997
7.48036, 81, 0.223065, 3.38847, 24.0586, -151.756, -100.52, 72.7164
7.48766, 81, 0.318811, 3.0607, 24.2046, -151.792, -100.241, 72.2432
7.4965, 82, 0.414438, 2.71652, 24.36, -151.829, -99.943, 71.7795
7.50428, 82, 0.509843, 2.35569, 24.5242, -151.866, -99.6261, 71.3255
7.51344, 82, 0.605144, 1.9792, 24.6979, -151.904, -99.2908, 70.8809
7.51981, 82, 0.700255, 1.58554, 24.8812, -151.94, -98.9377, 70.4457
7.52829, 82, 0.795278, 1.17496, 25.0739, -151.976, -98.5665, 70.0205
7.53514, 83, 0.842773, 0.963536, 25.1738, -151.993, -98.3745, 69.8113
7.54318, 83, 0.937638, 0.529611, 25.3816, -152.029, -97.9774, 69.3995
7.55841, 83, 1.12753, -0.384161, 25.8289, -152.097, -97.1324, 68.6029
7.56107, 83, 1.17505, -0.622074, 25.9465, -152.112, -96.9107, 68.409
7.56743, 83, 1.22259, -0.863746, 26.0669, -152.128, -96.6849, 68.2173
7.57517, 84, 1.31785, -1.35826, 26.3157, -152.159, -96.2215, 67.8409
7.58604, 84, 1.46114, -2.12647, 26.708, -152.203, -95.4967, 67.2916
7.5914, 84, 1.509, -2.38926, 26.8442, -152.217, -95.2474, 67.1124
7.59914, 84, 1.60494, -2.92537, 27.1239, -152.243, -94.7371, 66.7603
7.60861, 84, 1.74958, -3.75498, 27.5629, -152.279, -93.9445, 66.2464
7.61758, 85, 1.84655, -4.32457, 27.8679, -152.301, -93.3983, 65.9139
7.62319, 85, 1.89511, -4.61383, 28.0241, -152.311, -93.1198, 65.7508
7.63276, 85, 2.04145, -5.49753, 28.507, -152.339, -92.2638, 65.2742
7.64076, 85, 2.1395, -6.09895, 28.8403, -152.354, -91.6796, 64.9667
7.64885, 85, 2.23831, -6.70859, 29.1822, -152.367, -91.0844, 64.6683
7.65665, 86, 2.28791, -7.01643, 29.3564, -152.372, -90.783, 64.5228
7.66711, 86, 2.43768, -7.95002, 29.8904, -152.383, -89.8639, 64.1007
7.67312, 86, 2.48809, -8.26419, 30.0722, -152.385, -89.2396, 63.8325
7.67932, 86, 2.58959, -8.89702, 30.4402, -152.388, -88.9247, 63.7027
7.68819, 86, 2.69183, -9.53495, 30.8139, -152.388, -88.2921, 63.4518
7.6964, 87, 2.79534, -10.1771, 31.1931, -152.385, -87.6544, 63.2125
7.70319, 87, 2.89976, -10.8227, 31.5781, -152.378, -87.0107, 62.9849
7.71124, 87, 3.00481, -11.4706, 31.9676, -152.367, -86.3621, 62.7693
7.71933, 87, 3.11093, -12.1206, 32.3614, -152.353, -85.7091, 62.5662
7.72961, 87, 3.27138, -13.0982, 32.9606, -152.324, -84.7248, 62.2861
7.7352, 87, 3.32522, -13.425, 33.1625, -152.312, -84.3953, 62.1992
7.74324, 88, 3.43347, -14.0796, 33.5692, -152.286, -83.7336, 62.0362
7.75117, 88, 3.54222, -14.7355, 33.9791, -152.256, -83.0687, 61.8872
7.75917, 88, 3.6516, -15.3918, 34.3926, -152.222, -82.4012, 61.7529
7.76876, 88, 3.76157, -16.0478, 34.8095, -152.183, -81.7318, 61.6341
7.777, 88, 3.8719, -16.703, 35.2295, -152.139, -81.0613, 61.5305
7.78325, 89, 3.98256, -17.3565, 35.6527, -152.092, -80.3896, 61.4442
7.79117, 89, 4.09344, -18.0078, 36.0779, -152.038, -79.7166, 61.375
7.79994, 89, 4.20448, -18.6564, 36.5046, -151.98, -79.0414, 61.3238
7.81054, 89, 4.37147, -19.6247, 37.1474, -151.883, -78.0275, 61.2824
7.81624, 89, 4.42713, -19.9456, 37.3618, -151.847, -77.6907, 61.2778
7.82318, 90, 4.53863, -20.5849, 37.7908, -151.773, -77.0175, 61.2847
7.83124, 90, 4.65071, -21.2203, 38.2203, -151.693, -76.344, 61.3153
7.83917, 90, 4.76274, -21.8515, 38.6499, -151.607, -75.6708, 61.3694
7.85054, 90, 4.93039, -22.79, 39.2939, -151.466, -74.6647, 61.4962
7.85632, 90, 4.9861, -23.1006, 39.5087, -151.416, -74.3306, 61.5517
7.86424, 91, 5.09743, -23.7182, 39.9375, -151.312, -73.6627, 61.6823
7.87126, 91, 5.20864, -24.33, 40.365, -151.2, -72.9954, 61.8411
7.87933, 91, 5.3195, -24.9359, 40.7918, -151.082, -72.329, 62.0281
7.88727, 91, 5.42995, -25.5353, 41.2164, -150.958, -71.6635, 62.2441
7.89531, 91, 5.54006, -26.1269, 41.6386, -150.827, -71.0001, 62.4897
7.9033, 92, 5.65005, -26.7104, 42.0582, -150.691, -70.3401, 62.7662
7.91118, 92, 5.76053, -27.2859, 42.4743, -150.549, -69.6833, 63.0739
7.91924, 92, 5.87175, -27.8531, 42.8864, -150.401, -69.03, 63.4124
7.9272, 92, 5.98352, -28.4122, 43.2937, -150.249, -68.3799, 63.7834
7.93527, 92, 6.09608, -28.9631, 43.6966, -150.092, -67.733, 64.1878
7.94362, 92, 6.20976, -29.5059, 44.0949, -149.932, -67.0907, 64.6262
7.95627, 93, 6.38281, -30.3069, 44.6848, -149.684, -66.1292, 65.3525
7.95946, 93, 6.44125, -30.5702, 44.88, -149.6, -65.8084, 65.6129
7.96749, 93, 6.55927, -31.0919, 45.2682, -149.43, -65.1656, 66.1639
7.97626, 93, 6.67875, -31.6072, 45.6535, -149.258, -64.5209, 66.7564
7.9836, 93, 6.80051, -32.1166, 46.0357, -149.085, -63.8751, 67.3925
7.99226, 94, 6.92512, -32.6214, 46.4143, -148.912, -63.2269, 68.0733
7.99974, 94, 7.05298, -33.1202, 46.7889, -148.74, -62.5761, 68.8027
8.00835, 94, 7.18408, -33.6097, 47.1584, -148.571, -61.9237, 69.5807
8.01573, 94, 7.31897, -34.0889, 47.5219, -148.406, -61.2699, 70.4044
8.02429, 94, 7.4588, -34.5575, 47.8765, -148.249, -60.6176, 71.2772
8.03178, 95, 7.53079, -34.7872, 48.0504, -148.174, -59.9701, 72.1941
8.04018, 95, 7.75565, -35.4563, 48.555, -147.966, -59.3282, 73.1498
8.04721, 95, 7.83359, -35.672, 48.7172, -147.903, -59.0098, 73.643
8.05622, 95, 8.07661, -36.293, 49.1823, -147.738, -58.0662, 75.1744
8.06321, 95, 8.16083, -36.4903, 49.3299, -147.691, -57.7558, 75.7026
8.07118, 96, 8.33415, -36.8708, 49.6134, -147.612, -57.1441, 76.7832
8.08036, 96, 8.6047, -37.4014, 50.0069, -147.529, -56.2529, 78.4621
8.08721, 96, 8.69718, -37.5666, 50.1299, -147.513, -55.9628, 79.0353
8.09516, 96, 8.88543, -37.8779, 50.3624, -147.493, -55.3941, 80.198
8.10533, 96, 9.17488, -38.2986, 50.6753, -147.502, -54.5772, 81.9672
8.11116, 96, 9.27249, -38.4267, 50.7701, -147.516, -54.3159, 82.5622
8.12143, 97, 9.5661, -38.7738, 51.0246, -147.589, -53.5689, 84.3539
8.12912, 97, 9.76129, -38.9751, 51.169, -147.663, -53.1032, 85.5455
8.13516, 97, 9.85842, -39.0668, 51.2341, -147.707, -52.8808, 86.1366
8.14524, 97, 10.1467, -39.3032, 51.4005, -147.862, -52.256, 87.8878
8.15115, 97, 10.2413, -39.369, 51.4465, -147.921, -52.0622, 88.4611
8.16072, 97, 10.4275, -39.4816, 51.5248, -148.047, -51.6969, 90.1395
8.16814, 98, 10.6109, -39.5692, 51.585, -148.184, -51.3614, 90.6831
8.17765, 98, 10.8823, -39.6563, 51.6418, -148.409, -50.9125, 92.2761
8.18326, 98, 10.972, -39.674, 51.6518, -148.489, -50.7761, 92.7981
8.19222, 98, 11.15, -39.6919, 51.659, -148.659, -50.5209, 93.8406
8.20017, 98, 11.3258, -39.6862, 51.6491, -148.841, -50.2867, 94.888
8.20717, 98, 11.5009, -39.6568, 51.6214, -149.037, -50.0723, 95.9518
8.21537, 99, 11.6759, -39.6039, 51.5756, -149.245, -49.8784, 97.033
8.22321, 99, 11.8499, -39.5281, 51.5117, -149.466, -49.7068, 98.1323
8.23116, 99, 12.0216, -39.4299, 51.4292, -149.698, -49.5601, 99.2402
8.23918, 99, 12.1902, -39.3095, 51.3283, -149.936, -49.4414, 100.348
8.24723, 99, 12.3547, -39.1671, 51.2098, -150.179, -49.3532, 101.444
8.25517, 99, 12.5132, -39.0031, 51.0745, -150.422, -49.295, 102.518
8.26322, 99, 12.6641, -38.8171, 50.9241, -150.662, -49.2674, 103.564
8.27116, 100, 12.8065, -38.6067, 50.7585, -150.899, -49.2699, 104.579
8.27922, 100, 12.9401, -38.3721, 50.5767, -151.13, -49.3035, 105.564
8.28716, 100, 13.0649, -38.1142, 50.3782, -151.355, -49.3668, 106.522
8.29515, 100, 13.1818, -37.8331, 50.1631, -151.575, -49.4611, 107.459
8.30322, 100, 13.2907, -37.53, 49.9293, -151.79, -49.5861, 108.375
8.31117, 100, 13.3919, -37.2024, 49.6763, -151.998, -49.7425, 109.275
8.31916, 101, 13.4855, -36.8501, 49.4049, -152.199, -49.9305, 110.158
8.32723, 101, 13.5718, -36.4713, 49.1142, -152.393, -50.1502, 111.023
8.33515, 101, 13.6505, -36.0665, 48.805, -152.579, -50.4017, 111.871
8.34338, 101, 13.7209, -35.6365, 48.4766, -152.755, -50.6855, 112.696
8.3604, 102, 13.8353, -34.7047, 47.7665, -153.075, -51.3512, 114.281
8.36165, 102, 13.8353, -34.7047, 47.7665, -153.075, -51.3512, 114.281
8.36722, 102, 13.8781, -34.2035, 47.3865, -153.217, -51.733, 115.033
8.37532, 102, 13.9106, -33.6776, 46.9906, -153.345, -52.1462, 115.759
8.3833, 102, 13.9333, -33.1277, 46.5794, -153.459, -52.5913, 116.456
8.39127, 102, 13.9467, -32.5558, 46.1547, -153.558, -53.0671, 117.125
8.39929, 102, 13.9517, -31.9621, 45.7158, -153.644, -53.5721, 117.769
8.40737, 103, 13.9494, -31.3476, 45.2627, -153.715, -54.1047, 118.386
8.41531, 103, 13.9404, -30.7143, 44.7963, -153.774, -54.6632, 118.977
8.4232, 103, 13.9253, -30.0636, 44.3176, -153.819, -55.2458, 119.545
8.43129, 103, 13.9047, -29.3974, 43.8282, -153.851, -55.8495, 120.088
8.43921, 103, 13.8792, -28.7169, 43.3302, -153.872, -56.4724, 120.606
8.44735, 103, 13.8491, -28.0247, 42.8257, -153.882, -57.1107, 121.098
8.45541, 104, 13.8146, -27.3229, 42.3169, -153.881, -57.7609, 121.563
8.46344, 104, 13.776, -26.614, 41.8056, -153.869, -58.4233, 122.006
8.47153, 104, 13.7337, -25.8989, 41.2929, -153.849, -59.0968, 122.426
8.4796, 104, 13.6889, -25.1804, 40.7803, -153.82, -59.7793, 122.826
8.48823, 104, 13.6421, -24.46, 40.2683, -153.783, -60.4677, 123.209
8.49571, 104, 13.5937, -23.738, 39.7573, -153.738, -61.1607, 123.58
8.50465, 104, 13.5438, -23.0151, 39.2477, -153.689, -61.8582, 123.942
8.51181, 104, 13.4931, -22.2919, 38.7393, -153.634, -62.5587, 124.297
8.5203, 104, 13.4419, -21.5683, 38.2328, -153.574, -63.2614, 124.649
8.52862, 104, 13.3902, -20.8449, 37.7278, -153.511, -63.9646, 124.999
8.53581, 104, 13.3642, -20.122, 37.224, -153.442, -64.668, 125.347
8.5442, 104, 13.2862, -19.3985, 36.7222, -153.371, -65.3735, 125.694
8.55116, 104, 13.26, -19.0366, 36.4722, -153.333, -65.7266, 125.867
8.56021, 104, 13.1817, -17.9513, 35.725, -153.215, -66.7869, 126.385
8.56717, 104, 13.1558, -17.5893, 35.4772, -153.173, -67.1409, 126.557
8.57716, 104, 13.0782, -16.5025, 34.7365, -153.042, -68.2019, 127.073
8.58317, 104, 13.0525, -16.1403, 34.4906, -152.997, -68.5556, 127.245
8.59248, 104, 12.9761, -15.0539, 33.7564, -152.855, -69.62, 127.76
8.59914, 104, 12.9507, -14.6913, 33.5127, -152.805, -69.9755, 127.931
8.60859, 104, 12.8751, -13.6031, 32.7857, -152.652, -71.0407, 128.446
8.61522, 104, 12.8501, -13.2402, 32.5447, -152.598, -71.3956, 128.618
8.62481, 104, 12.7755, -12.1512, 31.8256, -152.433, -72.4624, 129.134
8.63289, 104, 12.7262, -11.4258, 31.3493, -152.318, -73.1745, 129.479
8.64073, 104, 12.6773, -10.7008, 30.8756, -152.199, -73.8869, 129.824
8.64878, 104, 12.6286, -9.97518, 30.4049, -152.076, -74.5995, 130.17
8.6568, 104, 12.6044, -9.24936, 29.937, -151.95, -75.3121, 130.516
8.66469, 104, 12.5563, -8.88638, 29.7043, -151.885, -75.6689, 130.69
8.67288, 104, 12.5089, -8.15987, 29.2409, -151.751, -76.7402, 131.213
8.67915, 104, 12.4619, -7.43395, 28.7811, -151.615, -77.0976, 131.388
8.68814, 104, 12.4155, -6.70907, 28.3246, -151.473, -77.8126, 131.738
8.69625, 104, 12.3699, -5.98449, 27.8712, -151.328, -78.5264, 132.09
8.70417, 104, 12.3245, -5.26042, 27.4218, -151.179, -79.2399, 132.442
8.71214, 104, 12.2799, -4.53756, 26.9766, -151.025, -79.9542, 132.796
8.72027, 104, 12.2364, -3.81657, 26.5357, -150.867, -80.6687, 133.151
8.72814, 104, 12.1939, -3.09945, 26.1002, -150.706, -81.3804, 133.506
8.73615, 104, 12.1525, -2.3882, 25.6701, -150.541, -82.0872, 133.862
8.74428, 104, 12.1125, -1.68359, 25.2467, -150.372, -82.7909, 134.218
8.75214, 104, 12.0733, -0.986893, 24.8316, -150.201, -83.4893, 134.572
8.76015, 104, 12.0352, -0.29955, 24.4251, -150.028, -84.1787, 134.923
8.76822, 104, 11.9981, 0.377419, 24.029, -149.853, -84.8568, 135.271
8.77615, 104, 11.962, 1.04282, 23.6445, -149.677, -85.5212, 135.614
8.78414, 104, 11.9271, 1.69551, 23.2721, -149.501, -86.1717, 135.953
8.79225, 104, 11.8935, 2.33437, 22.9124, -149.325, -86.8078, 136.285
8.8002, 104, 11.8608, 2.95717, 22.5647, -149.15, -87.4278, 136.611
8.80813, 104, 11.8292, 3.56405, 22.2302, -148.976, -88.0323, 136.929
8.81623, 104, 11.7992, 4.15437, 21.9085, -148.803, -88.6196, 137.242
8.82315, 104, 11.7701, 4.72799, 21.5994, -148.631, -89.1889, 137.548
8.83122, 104, 11.7425, 5.28489, 21.3019, -148.461, -89.7423, 137.846
8.83914, 104, 11.7162, 5.82437, 21.0163, -148.292, -90.2799, 138.138
8.84714, 104, 11.6909, 6.34714, 20.7428, -148.126, -90.8014, 138.423
8.85531, 104, 11.6667, 6.85293, 20.4806, -147.962, -91.3065, 138.7
8.86322, 104, 11.6438, 7.34185, 20.2301, -147.801, -91.7944, 138.969
8.87144, 104, 11.622, 7.81416, 19.9907, -147.643, -92.265, 139.231
8.87923, 104, 11.6013, 8.26987, 19.7619, -147.487, -92.7193, 139.486
8.88734, 104, 11.5818, 8.70878, 19.5446, -147.335, -93.1569, 139.732
8.89535, 104, 11.5634, 9.12985, 19.3378, -147.187, -93.5779, 139.971
8.90324, 104, 11.5461, 9.53415, 19.1409, -147.042, -93.9818, 140.201
8.91166, 104, 11.53, 9.92033, 18.9548, -146.902, -94.3689, 140.423
8.91931, 104, 11.5148, 10.2882, 18.7795, -146.766, -94.7378, 140.635
8.9281, 104, 11.5007, 10.6367, 18.6143, -146.636, -95.0883, 140.838
8.93614, 104, 11.4877, 10.9663, 18.4596, -146.511, -95.4196, 141.03
8.94352, 104, 11.4756, 11.2758, 18.3161, -146.392, -95.7309, 141.212
8.95135, 104, 11.4645, 11.5646, 18.183, -146.281, -96.0216, 141.382
8.95949, 104, 11.4546, 11.8327, 18.0605, -146.176, -96.291, 141.541
8.96774, 104, 11.4454, 12.0794, 17.9487, -146.079, -96.539, 141.687
8.97624, 104, 11.4369, 12.305, 17.8474, -145.989, -96.7651, 141.821
8.98352, 104, 11.4292, 12.5099, 17.7565, -145.908, -96.9692, 141.943
8.99166, 104, 11.4224, 12.6935, 17.676, -145.835, -97.1514, 142.052
9.0003, 104, 11.4163, 12.8559, 17.6056, -145.771, -97.3114, 142.147
9.00782, 104, 11.4108, 12.9983, 17.545, -145.715, -97.4497, 142.23
9.01628, 104, 11.4058, 13.1215, 17.494, -145.667, -97.5664, 142.3
9.02374, 104, 11.4012, 13.2261, 17.452, -145.629, -97.6626, 142.357
9.03226, 104, 11.3971, 13.3131, 17.418, -145.597, -97.7401, 142.404
9.03978, 104, 11.3951, 13.3845, 17.3916, -145.572, -97.7998, 142.44
9.04828, 104, 11.3898, 13.4422, 17.3721, -145.553, -97.844, 142.467
9.05521, 104, 11.3882, 13.4665, 17.3644, -145.546, -97.8613, 142.478
9.06325, 104, 11.3855, 13.5065, 17.3526, -145.535, -97.8878, 142.493
9.07226, 104, 11.3823, 13.5483, 17.3423, -145.525, -97.912, 142.507
9.07915, 104, 11.3815, 13.5586, 17.3402, -145.523, -97.9168, 142.51
9.08834, 104, 11.3795, 13.5805, 17.3365, -145.52, -97.9249, 142.514
9.09519, 104, 11.3789, 13.5854, 17.3359, -145.519, -97.9262, 142.514
9.1031, 105, 11.3782, 13.5927, 17.3351, -145.519, -97.9277, 142.515
9.11251, 105, 11.3774, 13.5992, 17.3347, -145.519, -97.9287, 142.516
9.11913, 105, 11.3772, 13.6007, 17.3346, -145.518, -97.9288, 142.516
9.12713, 105, 11.3769, 13.603, 17.3346, -145.518, -97.9289, 142.516
9.13672, 105, 11.3765, 13.6059, 17.3345, -145.518, -97.9289, 142.516
9.14503, 105, 11.3764, 13.6074, 17.3345, -145.518, -97.9289, 142.516
9.15293, 105, 11.3763, 13.6088, 17.3345, -145.518, -97.9289, 142.516
9.1607, 105, 11.3762, 13.6095, 17.3346, -145.518, -97.9287, 142.516
9.16903, 105, 11.3761, 13.611, 17.3346, -145.518, -97.9286, 142.516
9.17518, 105, 11.3761, 13.6114, 17.3346, -145.518, -97.9286, 142.516
9.18414, 105, 11.376, 13.6122, 17.3346, -145.518, -97.9284, 142.516
9.19219, 105, 11.376, 13.6127, 17.3346, -145.519, -97.9283, 142.516
9.20133, 105, 11.376, 13.6131, 17.3347, -145.518, -97.928, 142.516
9.20719, 105, 11.376, 13.6133, 17.3348, -145.519, -97.928, 142.516
9.21518, 105, 11.376, 13.6134, 17.3348, -145.519, -97.9278, 142.516
9.22314, 105, 11.376, 13.6134, 17.3349, -145.519, -97.9276, 142.516
