hehonglu123/Motion-Primitive-Planning/ILC/recorded_data/realrobot/from_NX/iteration_25/run_4.csv
timestamp, cmd_num, J1, J2, J3, J4, J5, J6
0.000369, -1, 39.6288, 32.4466, 11.8313, 12.5436, 113.714, -48.8735
0.003014, -1, 39.6288, 32.4466, 11.8313, 12.5436, 113.714, -48.8734
0.00836, -1, 39.6288, 32.4466, 11.8313, 12.5437, 113.714, -48.8734
0.029649, -1, 39.6288, 32.4466, 11.8313, 12.5437, 113.714, -48.8734
0.032541, -1, 39.6288, 32.4466, 11.8313, 12.5437, 113.714, -48.8734
0.03377, -1, 39.6288, 32.4466, 11.8313, 12.5437, 113.714, -48.8734
0.040267, -1, 39.6288, 32.4466, 11.8313, 12.5436, 113.714, -48.8735
0.047797, -1, 39.6287, 32.4466, 11.8313, 12.5437, 113.714, -48.8735
0.055353, -1, 39.6282, 32.4465, 11.8313, 12.5437, 113.714, -48.8736
0.063493, -1, 39.6259, 32.4461, 11.8313, 12.5436, 113.714, -48.8736
0.072082, -1, 39.6206, 32.4448, 11.8312, 12.5436, 113.714, -48.8738
0.080019, -1, 39.6119, 32.4419, 11.8312, 12.5436, 113.713, -48.8752
0.088343, -1, 39.5987, 32.4366, 11.8311, 12.5436, 113.712, -48.8797
0.095448, -1, 39.5789, 32.4281, 11.8312, 12.5436, 113.708, -48.8908
0.104393, -1, 39.5503, 32.4155, 11.8316, 12.5436, 113.701, -48.9113
0.111542, -1, 39.5119, 32.398, 11.8337, 12.5436, 113.689, -48.9448
0.119864, -1, 39.4625, 32.3743, 11.8386, 12.5436, 113.67, -48.9951
0.129123, -1, 39.4004, 32.3439, 11.8469, 12.5436, 113.643, -49.0667
0.135768, -1, 39.325, 32.3061, 11.8596, 12.5437, 113.605, -49.1609
0.144371, -1, 39.2359, 32.2604, 11.8774, 12.5439, 113.559, -49.2807
0.151817, -1, 39.1328, 32.2069, 11.8999, 12.5445, 113.502, -49.426
0.159865, -1, 39.0157, 32.1455, 11.9266, 12.5455, 113.435, -49.5961
0.167921, -1, 38.8852, 32.0767, 11.9573, 12.547, 113.359, -49.7884
0.177178, -1, 38.7424, 32.0014, 11.9912, 12.5489, 113.275, -50.0003
0.183824, -1, 38.6666, 31.9614, 12.0091, 12.5499, 113.231, -50.1126
0.318387, -1, 35.4975, 30.3329, 12.6674, 12.5924, 111.505, -54.4767
0.319584, -1, 35.4975, 30.3329, 12.6674, 12.5924, 111.505, -54.4767
0.322543, -1, 35.4014, 30.2838, 12.6868, 12.5937, 111.454, -54.6069
0.323798, -1, 35.4014, 30.2838, 12.6868, 12.5937, 111.454, -54.6069
0.326516, -1, 35.3053, 30.2346, 12.7062, 12.595, 111.402, -54.7371
0.327741, -1, 35.3053, 30.2346, 12.7062, 12.595, 111.402, -54.7371
0.329953, -1, 35.2091, 30.1855, 12.7256, 12.5963, 111.351, -54.8674
0.334416, -1, 35.1128, 30.1363, 12.7451, 12.5976, 111.299, -54.9978
0.335734, -1, 35.1128, 30.1363, 12.7451, 12.5976, 111.299, -54.9978
0.33781, -1, 35.0166, 30.0871, 12.7646, 12.5988, 111.248, -55.1283
0.339041, -1, 35.0166, 30.0871, 12.7646, 12.5988, 111.248, -55.1283
0.340297, -1, 35.0166, 30.0871, 12.7646, 12.5988, 111.248, -55.1283
0.342448, -1, 34.9205, 30.0379, 12.784, 12.6001, 111.196, -55.2587
0.343735, -1, 34.9205, 30.0379, 12.784, 12.6001, 111.196, -55.2587
0.345656, -1, 34.8244, 29.9887, 12.8035, 12.6015, 111.144, -55.3889
0.348071, -1, 34.8244, 29.9887, 12.8035, 12.6015, 111.144, -55.3889
0.350806, -1, 34.7283, 29.9394, 12.8229, 12.6027, 111.093, -55.5192
0.35217, -1, 34.7283, 29.9394, 12.8229, 12.6027, 111.093, -55.5192
0.354245, -1, 34.6321, 29.8902, 12.8423, 12.604, 111.041, -55.6496
0.355477, -1, 34.6321, 29.8902, 12.8423, 12.604, 111.041, -55.6496
0.357357, -1, 34.6321, 29.8902, 12.8617, 12.6052, 110.99, -55.78
0.359252, -1, 34.5359, 29.841, 12.8617, 12.6052, 110.99, -55.78
0.36728, -1, 34.3438, 29.7426, 12.9007, 12.6078, 110.887, -56.0409
0.375263, -1, 34.1518, 29.6442, 12.9396, 12.6104, 110.784, -56.3018
0.383326, -1, 33.9599, 29.546, 12.9785, 12.613, 110.681, -56.5626
0.39126, -1, 33.7683, 29.4476, 13.0175, 12.6157, 110.578, -56.8234
0.399269, -1, 33.5765, 29.3492, 13.0563, 12.6183, 110.474, -57.0843
0.407346, -1, 33.3842, 29.2509, 13.0953, 12.6209, 110.371, -57.3456
0.415282, -1, 33.1917, 29.1523, 13.1343, 12.6235, 110.268, -57.6063
0.423267, -1, 32.999, 29.0537, 13.173, 12.6262, 110.165, -57.8674
0.431334, -1, 32.806, 28.9551, 13.212, 12.6288, 110.062, -58.1285
0.439253, -1, 32.6127, 28.8565, 13.2509, 12.6315, 109.959, -58.3899
0.44728, -1, 32.4191, 28.7578, 13.2897, 12.6342, 109.856, -58.651
0.455456, -1, 32.2251, 28.6591, 13.3287, 12.6369, 109.753, -58.912
0.463259, -1, 32.031, 28.5603, 13.3675, 12.6396, 109.65, -59.1731
0.471311, -1, 31.8371, 28.4615, 13.4064, 12.6423, 109.547, -59.4345
0.479329, -1, 31.6435, 28.3627, 13.4455, 12.645, 109.444, -59.696
0.487262, -1, 31.45, 28.2641, 13.4844, 12.6479, 109.341, -59.9571
0.495462, -1, 31.257, 28.1655, 13.5234, 12.6506, 109.238, -60.2185
0.503286, -1, 31.0644, 28.0671, 13.5625, 12.6535, 109.135, -60.4799
0.511325, -1, 30.8721, 27.9684, 13.6015, 12.6563, 109.032, -60.7414
0.519731, -1, 30.6801, 27.8699, 13.6404, 12.6591, 108.928, -61.0026
0.527355, -1, 30.4882, 27.7713, 13.6795, 12.6619, 108.825, -61.2639
0.535357, -1, 30.2962, 27.6726, 13.7184, 12.6647, 108.722, -61.5255
0.543832, -1, 30.104, 27.5738, 13.7574, 12.6674, 108.619, -61.7873
0.551368, -1, 29.9115, 27.4751, 13.7964, 12.6701, 108.515, -62.0487
0.55926, -1, 29.7185, 27.3764, 13.8353, 12.6728, 108.412, -62.3104
0.567818, -1, 29.5249, 27.2776, 13.8742, 12.6755, 108.309, -62.5721
0.575313, -1, 29.3308, 27.1788, 13.9132, 12.6781, 108.206, -62.8341
0.583355, -1, 29.1366, 27.0799, 13.9521, 12.6807, 108.102, -63.0956
0.592222, -1, 28.9422, 26.981, 13.9911, 12.6832, 107.999, -63.3569
0.59946, -1, 28.7481, 26.8821, 14.0301, 12.6858, 107.895, -63.6184
0.607617, -1, 28.5539, 26.7832, 14.069, 12.6883, 107.792, -63.8803
0.615602, -1, 28.3599, 26.6845, 14.1081, 12.6909, 107.689, -64.142
0.623705, -1, 28.1665, 26.5858, 14.1471, 12.6933, 107.585, -64.4036
0.632287, -1, 27.9735, 26.4869, 14.1861, 12.6958, 107.482, -64.6653
0.639762, -1, 27.7807, 26.3881, 14.2251, 12.6982, 107.379, -64.9272
0.648357, -1, 27.5882, 26.2892, 14.264, 12.7007, 107.276, -65.189
0.656052, -1, 27.3961, 26.1902, 14.303, 12.7032, 107.172, -65.4506
0.66388, -1, 27.204, 26.0912, 14.342, 12.7055, 107.069, -65.7122
0.671859, -1, 27.1078, 25.9923, 14.3809, 12.7078, 106.965, -65.9739
0.680386, -1, 26.8188, 25.8935, 14.4199, 12.7101, 106.862, -66.2358
0.687253, -1, 26.7224, 25.844, 14.4394, 12.7113, 106.81, -66.3667
0.696293, -1, 26.4323, 25.6958, 14.4977, 12.7147, 106.656, -66.7592
0.70331, -1, 26.3354, 25.6463, 14.5172, 12.7158, 106.604, -66.8901
0.711264, -1, 26.1413, 25.5475, 14.5562, 12.7181, 106.501, -67.152
0.719278, -1, 25.9471, 25.4486, 14.5951, 12.7204, 106.398, -67.4139
0.727266, -1, 25.7528, 25.3498, 14.6341, 12.7226, 106.295, -67.6754
0.735254, -1, 25.5587, 25.251, 14.6731, 12.7249, 106.191, -67.9369
0.744601, -1, 25.2681, 25.103, 14.7315, 12.7284, 106.036, -68.3296
0.751277, -1, 25.1714, 25.0536, 14.7511, 12.7295, 105.985, -68.4606
0.759252, -1, 24.9781, 24.9547, 14.7902, 12.7318, 105.881, -68.7222
0.768823, -1, 24.6885, 24.8065, 14.8485, 12.7355, 105.727, -69.1147
0.776935, -1, 24.4959, 24.7076, 14.8875, 12.7379, 105.623, -69.3765
0.91233, -1, 21.3098, 23.0774, 15.5303, 12.7787, 103.919, -73.6928
0.91431, -1, 21.2137, 23.0281, 15.5498, 12.78, 103.867, -73.8236
0.915644, -1, 21.2137, 23.0281, 15.5498, 12.78, 103.867, -73.8236
0.916845, -1, 21.2137, 23.0281, 15.5498, 12.78, 103.867, -73.8236
0.919381, -1, 21.1174, 22.9787, 15.5693, 12.7813, 103.815, -73.9546
0.920606, -1, 21.1174, 22.9787, 15.5693, 12.7813, 103.815, -73.9546
0.922756, -1, 21.0212, 22.9294, 15.5887, 12.7827, 103.764, -74.0852
0.925909, -1, 20.925, 22.8801, 15.6082, 12.784, 103.712, -74.2157
0.928552, -1, 20.925, 22.8801, 15.6082, 12.784, 103.712, -74.2157
0.93062, -1, 20.8287, 22.8308, 15.6276, 12.7853, 103.661, -74.3463
0.931845, -1, 20.8287, 22.8308, 15.6276, 12.7853, 103.661, -74.3463
0.933133, -1, 20.8287, 22.8308, 15.6276, 12.7853, 103.661, -74.3463
0.935107, -1, 20.7325, 22.7815, 15.6471, 12.7867, 103.609, -74.4768
0.936429, -1, 20.7325, 22.7815, 15.6471, 12.7867, 103.609, -74.4768
0.938297, -1, 20.6362, 22.7322, 15.6666, 12.7881, 103.557, -74.6075
0.940065, -1, 20.6362, 22.7322, 15.6666, 12.7881, 103.557, -74.6075
0.94279, -1, 20.6362, 22.7322, 15.6666, 12.7894, 103.506, -74.7382
0.944075, -1, 20.5398, 22.6829, 15.6861, 12.7894, 103.506, -74.7382
0.946109, -1, 20.5398, 22.6829, 15.6861, 12.7894, 103.506, -74.7382
0.947498, -1, 20.4433, 22.6336, 15.7054, 12.7908, 103.454, -74.8688
0.948787, -1, 20.4433, 22.6336, 15.7054, 12.7908, 103.454, -74.8688
0.952055, -1, 20.3467, 22.5843, 15.7249, 12.7922, 103.403, -74.9995
0.962305, -1, 20.0563, 22.4362, 15.7834, 12.7963, 103.249, -75.3913
0.967238, -1, 19.9595, 22.3869, 15.8028, 12.7977, 103.197, -75.5219
0.976145, -1, 19.7659, 22.2882, 15.8415, 12.8004, 103.094, -75.7831
0.983259, -1, 19.5723, 22.1896, 15.8804, 12.8031, 102.991, -76.0444
0.991298, -1, 19.379, 22.091, 15.9193, 12.8059, 102.888, -76.3056
1.00006, -1, 19.1859, 21.9923, 15.9581, 12.8086, 102.785, -76.5665
1.00727, -1, 18.9931, 21.8936, 15.9971, 12.8114, 102.682, -76.8273
1.01537, -1, 18.8006, 21.795, 16.0359, 12.8141, 102.579, -77.0883
1.02416, -1, 18.6085, 21.6962, 16.0747, 12.8168, 102.476, -77.3494
1.03136, -1, 18.4167, 21.5976, 16.1136, 12.8195, 102.373, -77.6101
1.03941, -1, 18.2248, 21.499, 16.1525, 12.8221, 102.27, -77.8708
1.04814, -1, 18.0329, 21.4005, 16.1913, 12.8247, 102.168, -78.1316
1.05531, -1, 17.841, 21.3022, 16.2302, 12.8273, 102.064, -78.3926
1.06337, -1, 17.6491, 21.2038, 16.269, 12.8298, 101.961, -78.6531
1.07217, -1, 17.4566, 21.1055, 16.3079, 12.8323, 101.858, -78.9136
1.0793, -1, 17.2637, 21.0072, 16.3467, 12.8348, 101.755, -79.1741
1.0874, -1, 17.0706, 20.9089, 16.3855, 12.8372, 101.653, -79.4347
1.09639, -1, 16.8777, 20.8107, 16.4243, 12.8396, 101.55, -79.6953
1.10351, -1, 16.6846, 20.7125, 16.4631, 12.8419, 101.447, -79.9557
1.11148, -1, 16.4916, 20.6143, 16.5018, 12.8443, 101.344, -80.2162
1.11954, -1, 16.2988, 20.516, 16.5405, 12.8466, 101.242, -80.4767
1.12776, -1, 16.1065, 20.4177, 16.5793, 12.849, 101.139, -80.7373
1.13636, -1, 15.9145, 20.3193, 16.618, 12.8513, 101.036, -80.9974
1.14386, -1, 15.7228, 20.2207, 16.6567, 12.8535, 100.934, -81.2573
1.15188, -1, 15.5315, 20.1223, 16.6953, 12.8559, 100.831, -81.5175
1.16041, -1, 15.3403, 20.024, 16.7339, 12.8582, 100.729, -81.7776
1.16786, -1, 15.1491, 19.9257, 16.7727, 12.8605, 100.626, -82.0375
1.17636, -1, 14.958, 19.8274, 16.8114, 12.8628, 100.523, -82.2974
1.18385, -1, 14.8623, 19.7784, 16.8307, 12.8639, 100.472, -82.5573
1.19329, -1, 14.5751, 19.6312, 16.8888, 12.8674, 100.318, -82.8174
1.19928, -1, 14.4792, 19.5821, 16.9081, 12.8685, 100.267, -82.9473
1.20837, -1, 14.191, 19.435, 16.9661, 12.8719, 100.113, -83.3365
1.21523, -1, 14.0948, 19.386, 16.9855, 12.8731, 100.062, -83.4663
1.22328, -1, 13.9025, 19.2881, 17.0241, 12.8754, 99.9591, -83.7259
1.23253, -1, 13.6138, 19.1414, 17.0821, 12.8788, 99.8054, -84.1155
1.23923, -1, 13.5176, 19.0925, 17.1015, 12.88, 99.7542, -84.245
1.24869, -1, 13.2295, 18.9457, 17.1593, 12.8834, 99.6007, -84.634
1.25525, -1, 13.1337, 18.8967, 17.1785, 12.8847, 99.5496, -84.7636
1.26469, -1, 12.8467, 18.7497, 17.2366, 12.8882, 99.3958, -85.1527
1.27124, -1, 12.7512, 18.7007, 17.2559, 12.8893, 99.3446, -85.2822
1.28079, -1, 12.4651, 18.5539, 17.3137, 12.893, 99.1912, -85.6705
1.2903, -1, 12.2748, 18.4562, 17.3522, 12.8954, 99.0889, -85.9294
1.29525, -1, 12.1798, 18.4073, 17.3714, 12.8966, 99.0379, -86.0589
1.30322, -1, 11.9896, 18.3096, 17.41, 12.899, 98.9359, -86.3179
1.31273, -1, 11.7991, 18.212, 17.4487, 12.9013, 98.8338, -86.5765
1.32149, -1, 11.5131, 18.0656, 17.5064, 12.905, 98.6812, -86.9643
1.32729, -1, 11.4176, 18.0168, 17.5257, 12.9062, 98.6301, -87.0937
1.33635, -1, 11.2264, 17.9192, 17.5643, 12.9087, 98.5281, -87.3523
1.34323, -1, 11.035, 17.8217, 17.6028, 12.9111, 98.4264, -87.6106
1.35138, -1, 10.8434, 17.7243, 17.6413, 12.9136, 98.3243, -87.8688
1.35923, -1, 10.6517, 17.6268, 17.6798, 12.9161, 98.2223, -88.127
1.36723, -1, 10.4603, 17.5293, 17.7182, 12.9187, 98.1207, -88.3856
1.3753, -1, 10.2691, 17.4318, 17.7566, 12.9212, 98.0187, -88.6438
1.38322, -1, 10.0782, 17.3342, 17.7951, 12.9238, 97.9167, -88.9018
1.39124, -1, 9.8878, 17.2366, 17.8333, 12.9265, 97.8151, -89.1599
1.39929, -1, 9.69768, 17.1391, 17.8717, 12.9291, 97.713, -89.418
1.40724, -1, 9.50802, 17.0416, 17.9101, 12.9318, 97.611, -89.676
1.41526, -1, 9.31875, 16.9443, 17.9483, 12.9346, 97.5092, -89.9336
1.42331, -1, 9.12943, 16.8469, 17.9867, 12.9372, 97.4073, -90.1912
1.43123, -1, 8.94004, 16.7497, 18.025, 12.9399, 97.3055, -90.4488
1.43923, -1, 8.75054, 16.6526, 18.0634, 12.9425, 97.2039, -90.7064
1.4473, -1, 8.56095, 16.5554, 18.1018, 12.9452, 97.1022, -90.9636
1.45525, -1, 8.37118, 16.4583, 18.1401, 12.9479, 97.0007, -91.2207
1.46325, -1, 8.18089, 16.3613, 18.1784, 12.9505, 96.8992, -91.478
1.47129, -1, 7.99041, 16.2645, 18.2168, 12.9532, 96.7976, -91.7353
1.47922, -1, 7.79989, 16.1676, 18.255, 12.9559, 96.6961, -91.9921
1.48725, -1, 7.60927, 16.0706, 18.2933, 12.9585, 96.5946, -92.2488
1.4953, -1, 7.41886, 15.9737, 18.3316, 12.9611, 96.4931, -92.5055
1.50324, -1, 7.22873, 15.8767, 18.3697, 12.9636, 96.392, -92.7624
1.51133, -1, 7.03887, 15.7797, 18.4079, 12.9662, 96.2906, -93.0191
1.5193, -1, 6.8494, 15.6828, 18.4463, 12.9688, 96.1893, -93.2755
1.52732, -1, 6.66051, 15.5859, 18.4843, 12.9713, 96.0887, -93.5318
1.53539, -1, 6.47199, 15.4891, 18.5224, 12.9739, 95.9875, -93.7882
1.54339, -1, 6.28376, 15.3924, 18.5605, 12.9764, 95.8864, -94.0447
1.55133, -1, 6.09564, 15.2957, 18.5987, 12.9789, 95.7857, -94.3007
1.5594, -1, 5.90738, 15.199, 18.6368, 12.9813, 95.6846, -94.5566
1.56723, -1, 5.71906, 15.1023, 18.675, 12.9836, 95.5836, -94.8126
1.57526, -1, 5.53058, 15.0057, 18.7131, 12.9859, 95.4831, -95.0685
1.58346, -1, 5.34179, 14.9092, 18.7512, 12.9882, 95.3821, -95.3241
1.59132, -1, 5.15264, 14.8127, 18.7894, 12.9905, 95.2814, -95.5796
1.59946, -1, 4.96322, 14.7164, 18.8274, 12.9928, 95.181, -95.8351
1.60747, -1, 4.77388, 14.62, 18.8654, 12.9951, 95.08, -96.0907
1.61547, -1, 4.5844, 14.5236, 18.9036, 12.9972, 94.9793, -96.3459
1.62383, -1, 4.39527, 14.4273, 18.9416, 12.9995, 94.8786, -96.6007
1.63231, -1, 4.2063, 14.3309, 18.9796, 13.0017, 94.7776, -96.8556
1.63967, -1, 4.01756, 14.2345, 19.0176, 13.004, 94.6768, -97.1107
1.64786, -1, 3.82952, 14.1382, 19.0555, 13.0063, 94.576, -97.3658
1.65639, -1, 3.64198, 14.0421, 19.0935, 13.0085, 94.4752, -97.6204
1.66471, -1, 3.45481, 13.9459, 19.1314, 13.0109, 94.3747, -97.8752
1.67232, -1, 3.26783, 13.8499, 19.1692, 13.0132, 94.274, -98.1299
1.67982, -1, 3.17434, 13.8019, 19.2071, 13.0154, 94.1733, -98.3847
1.68881, -1, 2.89387, 13.6578, 19.2451, 13.0176, 94.0727, -98.6391
1.69624, -1, 2.70681, 13.5618, 19.2829, 13.0199, 93.972, -98.8933
1.70322, -1, 2.61321, 13.5138, 19.3019, 13.021, 93.9218, -99.0204
1.71314, -1, 2.33207, 13.3699, 19.3586, 13.0245, 93.7713, -99.4016
1.71927, -1, 2.23817, 13.322, 19.3775, 13.0256, 93.7212, -99.5286
1.7285, -1, 1.95607, 13.1783, 19.4343, 13.0289, 93.5708, -99.9091
1.73522, -1, 1.86204, 13.1303, 19.4532, 13.0301, 93.5208, -100.036
1.74326, -1, 1.67382, 13.0344, 19.4909, 13.0323, 93.4209, -100.29
1.75124, -1, 1.48568, 12.9386, 19.5287, 13.0346, 93.3207, -100.543
1.76143, -1, 1.20386, 12.7948, 19.5854, 13.0381, 93.1708, -100.923
1.76727, -1, 1.11006, 12.747, 19.6042, 13.0392, 93.1207, -101.05
1.77685, -1, 0.829586, 12.6036, 19.6608, 13.0428, 92.9707, -101.429
1.78568, -1, 0.64326, 12.508, 19.6984, 13.0451, 92.8711, -101.683
1.7913, -1, 0.550272, 12.4602, 19.7172, 13.0464, 92.8211, -101.809
1.80085, -1, 0.271653, 12.3172, 19.7737, 13.0501, 92.6714, -102.188
1.80964, -1, 0.178886, 12.2695, 19.7925, 13.0513, 92.5722, -102.441
1.81529, -1, -0.00647113, 12.1741, 19.83, 13.0537, 92.5223, -102.567
1.82495, -1, -0.192, 12.0788, 19.8677, 13.0561, 92.4227, -102.946
1.83221, -1, -0.377782, 11.9836, 19.9054, 13.0586, 92.3233, -103.072
1.8393, -1, -0.563908, 11.8885, 19.9428, 13.0611, 92.2238, -103.324
1.84722, -1, -0.750232, 11.7935, 19.9804, 13.0635, 92.1243, -103.576
1.85523, -1, -0.936711, 11.6985, 20.0179, 13.066, 92.025, -103.828
1.86327, -1, -1.12343, 11.6033, 20.0553, 13.0685, 91.9256, -104.08
1.87122, -1, -1.31041, 11.5083, 20.0929, 13.071, 91.8263, -104.332
1.87928, -1, -1.49721, 11.4132, 20.1304, 13.0735, 91.7272, -104.583
1.88721, -1, -1.68374, 11.3181, 20.1677, 13.0761, 91.628, -104.835
1.89524, -1, -1.87, 11.223, 20.2052, 13.0787, 91.5287, -105.086
1.90327, -1, -2.05587, 11.128, 20.2426, 13.0814, 91.4297, -105.337
1.91121, -1, -2.24095, 11.0331, 20.28, 13.084, 91.3304, -105.588
1.91924, -1, -2.42576, 10.9383, 20.3174, 13.0867, 91.2311, -105.839
1.92729, -1, -2.61019, 10.8435, 20.3547, 13.0893, 91.1322, -106.09
1.93523, -1, -2.79404, 10.7487, 20.392, 13.092, 91.0331, -106.341
1.94322, -1, -2.97789, 10.6539, 20.4294, 13.0946, 90.934, -106.592
1.95127, -1, -3.16201, 10.5592, 20.4667, 13.0973, 90.8352, -106.842
1.95923, -1, -3.34635, 10.4646, 20.5039, 13.0998, 90.7362, -107.093
1.96734, -1, -3.53111, 10.3702, 20.5412, 13.1024, 90.6373, -107.344
1.97523, -1, -3.71586, 10.2758, 20.5785, 13.1049, 90.5387, -107.594
1.98321, -1, -3.90093, 10.1815, 20.6157, 13.1073, 90.4398, -107.844
1.99197, -1, -4.08627, 10.0871, 20.653, 13.1098, 90.3411, -108.094
2.00028, -1, -4.27174, 9.99289, 20.6902, 13.1123, 90.2427, -108.344
2.00725, -1, -4.45732, 9.89856, 20.7273, 13.1147, 90.1439, -108.594
2.01647, -1, -4.64259, 9.80422, 20.7647, 13.1171, 90.0454, -108.843
2.02329, -1, -4.82749, 9.71005, 20.8018, 13.1194, 89.9471, -109.092
2.03138, -1, -5.01202, 9.61594, 20.8389, 13.1219, 89.8485, -109.342
2.03931, -1, -5.19583, 9.52188, 20.8761, 13.1242, 89.75, -109.591
2.04732, -1, -5.37915, 9.42782, 20.9132, 13.1266, 89.6518, -109.84
2.05539, -1, -5.56209, 9.33392, 20.9503, 13.1289, 89.5533, -110.089
2.06327, -1, -5.7447, 9.23997, 20.9874, 13.1312, 89.455, -110.338
2.07121, -1, -5.92703, 9.14607, 21.0244, 13.1334, 89.3571, -110.587
2.07932, -1, -6.10945, 9.05222, 21.0614, 13.1357, 89.2588, -110.835
2.08727, -1, -6.29221, 8.95845, 21.0985, 13.1379, 89.1608, -111.084
2.09532, -1, -6.47517, 8.8648, 21.1355, 13.1401, 89.0631, -111.332
2.10343, -1, -6.65829, 8.77118, 21.1723, 13.1423, 88.965, -111.58
2.11153, -1, -6.84184, 8.67756, 21.2092, 13.1445, 88.867, -111.829
2.11946, -1, -7.02569, 8.58399, 21.2461, 13.1465, 88.7693, -112.076
2.12767, -1, -7.20988, 8.49041, 21.2829, 13.1487, 88.6713, -112.324
2.13562, -1, -7.3941, 8.39675, 21.3199, 13.1508, 88.5735, -112.571
2.14365, -1, -7.57785, 8.30313, 21.3567, 13.1529, 88.476, -112.819
2.1523, -1, -7.76139, 8.20968, 21.3934, 13.1551, 88.3783, -113.067
2.15986, -1, -7.94449, 8.11626, 21.4303, 13.1574, 88.2809, -113.314
2.16831, -1, -8.12704, 8.0229, 21.4671, 13.1596, 88.1837, -113.561
2.17591, -1, -8.30888, 7.92961, 21.5038, 13.1619, 88.0862, -113.808
2.18516, -1, -8.49025, 7.83632, 21.5407, 13.1641, 87.9888, -114.055
2.19171, -1, -8.58079, 7.78969, 21.5591, 13.1652, 87.9402, -114.178
2.20026, -1, -8.85206, 7.64994, 21.6142, 13.1687, 87.794, -114.548
2.2072, -1, -8.94243, 7.60338, 21.6326, 13.1697, 87.7452, -114.671
2.21625, -1, -9.21394, 7.46385, 21.6877, 13.1731, 87.5995, -115.041
2.22324, -1, -9.30452, 7.4174, 21.706, 13.1743, 87.5509, -115.164
2.23329, -1, -9.57687, 7.27819, 21.761, 13.1775, 87.4051, -115.533
2.23925, -1, -9.66784, 7.23175, 21.7794, 13.1786, 87.3568, -115.656
2.2486, -1, -9.94114, 7.09267, 21.8342, 13.1819, 87.2108, -116.026
2.25522, -1, -10.0324, 7.0463, 21.8524, 13.183, 87.1622, -116.149
2.26464, -1, -10.3063, 6.90711, 21.9074, 13.1864, 87.0166, -116.517
2.27279, -1, -10.4888, 6.81436, 21.9439, 13.1886, 86.9194, -116.763
2.28077, -1, -10.671, 6.72165, 21.9805, 13.1909, 86.8223, -117.008
2.28725, -1, -10.762, 6.67532, 21.9988, 13.1921, 86.774, -117.131
2.29693, -1, -11.0342, 6.53644, 22.0534, 13.1958, 86.6286, -117.499
2.30599, -1, -11.1245, 6.44393, 22.09, 13.1981, 86.5319, -117.744
2.31274, -1, -11.3046, 6.3977, 22.1083, 13.1993, 86.4837, -117.988
2.32086, -1, -11.4843, 6.30521, 22.1448, 13.2018, 86.3869, -118.233
2.32819, -1, -11.6637, 6.21284, 22.1812, 13.2042, 86.2902, -118.356
2.33527, -1, -11.843, 6.12045, 22.2178, 13.2066, 86.1937, -118.6
2.34322, -1, -12.0223, 6.02816, 22.2542, 13.2091, 86.097, -118.845
2.3512, -1, -12.2016, 5.936, 22.2906, 13.2116, 86.0005, -119.089
2.3592, -1, -12.3813, 5.84401, 22.3271, 13.2141, 85.9042, -119.333
2.36722, -1, -12.5614, 5.75194, 22.3633, 13.2165, 85.8078, -119.577
2.37527, -1, -12.7418, 5.65992, 22.3996, 13.219, 85.7115, -119.821
2.38319, -1, -12.9227, 5.56803, 22.436, 13.2215, 85.6157, -120.065
2.3912, -1, -13.1039, 5.47608, 22.4722, 13.2239, 85.5196, -120.308
2.39926, -1, -13.2851, 5.38404, 22.5084, 13.2263, 85.4236, -120.552
2.40726, -1, -13.4662, 5.29211, 22.5448, 13.2287, 85.3279, -120.796
2.4152, -1, -13.6469, 5.20022, 22.581, 13.2313, 85.232, -121.039
2.42321, -1, -13.827, 5.1084, 22.617, 13.2339, 85.1362, -121.282
2.43127, -1, -14.0066, 5.01656, 22.6533, 13.2365, 85.0406, -121.525
2.43919, -1, -14.1853, 4.92484, 22.6894, 13.2391, 84.9451, -121.768
2.44719, -1, -14.3635, 4.83314, 22.7255, 13.2417, 84.8494, -122.01
2.45527, -1, -14.5415, 4.7415, 22.7618, 13.2442, 84.754, -122.253
2.46321, -1, -14.7192, 4.64988, 22.798, 13.2468, 84.6582, -122.495
2.47119, -1, -14.8968, 4.55839, 22.834, 13.2492, 84.5625, -122.738
2.47926, -1, -15.0745, 4.46695, 22.8702, 13.2517, 84.4668, -122.98
2.4872, -1, -15.2526, 4.37566, 22.9063, 13.2541, 84.3711, -123.222
2.49522, -1, -15.431, 4.28434, 22.9423, 13.2565, 84.2754, -123.464
2.50326, -1, -15.6099, 4.19306, 22.9783, 13.2589, 84.1799, -123.705
2.51124, -1, -15.789, 4.10181, 23.0143, 13.2611, 84.0844, -123.947
2.51924, -1, -15.9682, 4.01055, 23.0503, 13.2634, 83.9889, -124.189
2.52735, -1, -16.1479, 3.91929, 23.0863, 13.2656, 83.8935, -124.43
2.53532, -1, -16.3277, 3.82801, 23.1223, 13.2677, 83.7981, -124.672
2.54329, -1, -16.5071, 3.73679, 23.1581, 13.2699, 83.7027, -124.913
2.5513, -1, -16.686, 3.64566, 23.1939, 13.2721, 83.6073, -125.155
2.55929, -1, -16.8645, 3.55457, 23.2298, 13.2745, 83.5119, -125.395
2.56736, -1, -17.0421, 3.46351, 23.2657, 13.2767, 83.4166, -125.636
2.57521, -1, -17.2189, 3.37256, 23.3015, 13.2789, 83.3212, -125.877
2.58322, -1, -17.3955, 3.28167, 23.3374, 13.2811, 83.2263, -126.118
2.59131, -1, -17.5718, 3.19083, 23.3731, 13.2832, 83.1311, -126.358
2.59935, -1, -17.7478, 3.10017, 23.409, 13.2854, 83.0363, -126.598
2.60737, -1, -17.9238, 3.00958, 23.4449, 13.2875, 82.9416, -126.839
2.61549, -1, -18.1, 2.91909, 23.4806, 13.2896, 82.8466, -127.079
2.6235, -1, -18.2765, 2.82873, 23.5163, 13.2917, 82.7519, -127.319
2.63154, -1, -18.4535, 2.7383, 23.5521, 13.2938, 82.6573, -127.559
2.6397, -1, -18.631, 2.64791, 23.5878, 13.2959, 82.5626, -127.798
2.64833, -1, -18.8086, 2.5576, 23.6235, 13.2978, 82.468, -128.038
2.65572, -1, -18.9866, 2.46713, 23.6592, 13.2998, 82.3737, -128.277
2.66429, -1, -19.1649, 2.37662, 23.6948, 13.3019, 82.2792, -128.517
2.67182, -1, -19.3431, 2.28627, 23.7303, 13.3039, 82.1848, -128.756
2.68031, -1, -19.5208, 2.19582, 23.766, 13.3061, 82.091, -128.995
2.68783, -1, -19.6094, 2.10541, 23.8015, 13.3082, 81.9967, -129.234
2.69639, -1, -19.8744, 2.01513, 23.8369, 13.3104, 81.9024, -129.473
2.70318, -1, -19.9624, 1.97, 23.8546, 13.3115, 81.8554, -129.592
2.71222, -1, -20.2253, 1.83464, 23.908, 13.3148, 81.7144, -129.95
2.71919, -1, -20.3128, 1.78958, 23.9257, 13.3159, 81.6674, -130.069
2.72832, -1, -20.5749, 1.65448, 23.979, 13.3192, 81.5267, -130.427
2.73529, -1, -20.6621, 1.6095, 23.9968, 13.3202, 81.4797, -130.546
2.74453, -1, -20.924, 1.47466, 24.0498, 13.3235, 81.3388, -130.903
2.7512, -1, -21.0114, 1.42978, 24.0676, 13.3246, 81.292, -131.022
2.76059, -1, -21.2743, 1.29517, 24.1208, 13.3279, 81.1513, -131.379
2.76722, -1, -21.3621, 1.25029, 24.1385, 13.329, 81.1044, -131.498
2.77671, -1, -21.626, 1.11586, 24.1915, 13.3322, 80.9637, -131.855
2.78558, -1, -21.8022, 1.02619, 24.2269, 13.3344, 80.8698, -132.092
2.79121, -1, -21.8903, 0.981362, 24.2446, 13.3355, 80.8229, -132.21
2.8008, -1, -22.1551, 0.847008, 24.2976, 13.3388, 80.6825, -132.566
2.80963, -1, -22.3317, 0.75743, 24.333, 13.3409, 80.5887, -132.803
2.8152, -1, -22.4198, 0.712716, 24.3506, 13.342, 80.5419, -132.922
2.82325, -1, -22.5956, 0.6232, 24.3857, 13.3444, 80.4483, -133.159
2.83223, -1, -22.771, 0.533728, 24.421, 13.3468, 80.3549, -133.396
2.83919, -1, -22.9454, 0.444295, 24.4562, 13.3492, 80.2611, -133.633
2.84727, -1, -23.1192, 0.354878, 24.4913, 13.3516, 80.1676, -133.87
2.85518, -1, -23.2927, 0.265574, 24.5265, 13.354, 80.0742, -134.106
2.86319, -1, -23.4658, 0.176302, 24.5617, 13.3564, 79.9806, -134.342
2.87126, -1, -23.639, 0.0871246, 24.5969, 13.3589, 79.8873, -134.579
2.87917, -1, -23.8123, -0.00196407, 24.632, 13.3612, 79.7942, -134.815
2.8872, -1, -23.9857, -0.0909148, 24.6672, 13.3637, 79.701, -135.051
2.89525, -1, -24.1594, -0.179904, 24.7022, 13.3661, 79.6079, -135.287
2.90318, -1, -24.3333, -0.268882, 24.7373, 13.3686, 79.5149, -135.522
2.91119, -1, -24.5076, -0.357769, 24.7724, 13.371, 79.4219, -135.758
2.91925, -1, -24.6822, -0.44664, 24.8075, 13.3734, 79.3288, -135.994
2.92721, -1, -24.8572, -0.53556, 24.8424, 13.3758, 79.2357, -136.229
2.93522, -1, -25.0323, -0.624441, 24.8776, 13.3782, 79.1428, -136.464
2.94324, -1, -25.2072, -0.713248, 24.9126, 13.3806, 79.0497, -136.699
2.95118, -1, -25.3818, -0.80201, 24.9475, 13.383, 78.957, -136.935
2.95918, -1, -25.5558, -0.890829, 24.9826, 13.3855, 78.8644, -137.17
2.96727, -1, -25.7294, -0.979591, 25.0174, 13.3879, 78.7716, -137.405
2.97518, -1, -25.9023, -1.06827, 25.0523, 13.3903, 78.6791, -137.639
2.98342, -1, -26.0748, -1.15692, 25.0873, 13.3927, 78.5868, -137.874
2.99118, -1, -26.2468, -1.24557, 25.1223, 13.3952, 78.494, -138.108
2.99919, -1, -26.4186, -1.33409, 25.1571, 13.3976, 78.4015, -138.343
3.00799, -1, -26.5904, -1.42253, 25.192, 13.3999, 78.3092, -138.577
3.01623, -1, -26.7624, -1.51083, 25.227, 13.4021, 78.2166, -138.811
3.02325, -1, -26.9347, -1.59905, 25.2619, 13.4044, 78.1242, -139.045
3.03208, -1, -27.1072, -1.68725, 25.2967, 13.4066, 78.0321, -139.279
3.04028, -1, -27.2798, -1.77552, 25.3316, 13.4088, 77.9398, -139.513
3.04732, -1, -27.4527, -1.8636, 25.3663, 13.411, 77.8478, -139.747
3.05607, -1, -27.6259, -1.95167, 25.401, 13.4131, 77.7559, -139.98
3.0633, -1, -27.7991, -2.03989, 25.4359, 13.4151, 77.6638, -140.214
3.07219, -1, -27.9724, -2.12792, 25.4707, 13.4172, 77.5717, -140.447
3.08015, -1, -28.1457, -2.21592, 25.5054, 13.4193, 77.4798, -140.68
3.08726, -1, -28.3188, -2.30397, 25.5402, 13.4213, 77.3878, -140.914
3.09523, -1, -28.4916, -2.39203, 25.5749, 13.4234, 77.2956, -141.146
3.10428, -1, -28.6639, -2.47999, 25.6095, 13.4256, 77.2035, -141.379
3.11133, -1, -28.8357, -2.56799, 25.6442, 13.4278, 77.1116, -141.612
3.11948, -1, -29.0067, -2.65593, 25.6789, 13.4299, 77.0196, -141.845
3.1278, -1, -29.1774, -2.74383, 25.7134, 13.4321, 76.9277, -142.078
3.13553, -1, -29.348, -2.83161, 25.748, 13.4342, 76.8361, -142.31
3.14367, -1, -29.5186, -2.91928, 25.7828, 13.4363, 76.7441, -142.542
3.1517, -1, -29.6895, -3.00689, 25.8172, 13.4382, 76.6522, -142.775
3.15968, -1, -29.8605, -3.0944, 25.8518, 13.4403, 76.5607, -143.007
3.16832, -1, -30.0315, -3.1819, 25.8864, 13.4424, 76.4687, -143.239
3.17741, -1, -30.2025, -3.26941, 25.921, 13.4445, 76.377, -143.471
3.1839, -1, -30.3737, -3.35682, 25.9555, 13.4466, 76.2855, -143.703
3.19236, -1, -30.5452, -3.44427, 25.9901, 13.4486, 76.1938, -143.935
3.19918, -1, -30.631, -3.48803, 26.0073, 13.4496, 76.1481, -144.051
3.20847, -1, -30.8889, -3.61915, 26.059, 13.4526, 76.0112, -144.398
3.21517, -1, -30.9748, -3.66286, 26.0763, 13.4536, 75.9656, -144.513
3.22518, -1, -31.2323, -3.79386, 26.1281, 13.4567, 75.8284, -144.86
3.23237, -1, -31.4036, -3.8812, 26.1624, 13.4588, 75.7371, -145.092
3.23918, -1, -31.4891, -3.92486, 26.1796, 13.4599, 75.6915, -145.208
3.24925, -1, -31.7449, -4.05576, 26.2313, 13.4631, 75.5545, -145.554
3.25517, -1, -31.83, -4.09942, 26.2485, 13.4642, 75.5089, -145.669
3.26458, -1, -32.0846, -4.23026, 26.3001, 13.4675, 75.3723, -146.016
3.27126, -1, -32.1693, -4.27384, 26.3173, 13.4686, 75.3267, -146.131
3.28082, -1, -32.4234, -4.40445, 26.3687, 13.4719, 75.1901, -146.477
3.28872, -1, -32.5931, -4.49148, 26.4031, 13.474, 75.0995, -146.708
3.29747, -1, -32.7627, -4.5784, 26.4375, 13.4762, 75.0085, -146.938
3.30318, -1, -32.8475, -4.62186, 26.4547, 13.4772, 74.9632, -147.053
3.31276, -1, -33.0172, -4.70876, 26.4888, 13.4804, 74.8272, -147.399
3.32161, -1, -33.187, -4.79567, 26.5231, 13.4816, 74.7818, -147.514
3.32716, -1, -33.3569, -4.88249, 26.5575, 13.4838, 74.6911, -147.744
3.33616, -1, -33.5271, -4.96939, 26.5917, 13.486, 74.6004, -147.973
3.34417, -1, -33.6975, -5.05626, 26.626, 13.4883, 74.5101, -148.203
3.35216, -1, -33.8677, -5.14303, 26.6603, 13.4905, 74.4194, -148.433
3.36017, -1, -34.038, -5.22974, 26.6944, 13.4927, 74.3289, -148.663
3.36823, -1, -34.2081, -5.31647, 26.7286, 13.495, 74.2386, -148.892
3.37518, -1, -34.3782, -5.40314, 26.7629, 13.4973, 74.1478, -149.122
3.38323, -1, -34.548, -5.4898, 26.7971, 13.4996, 74.0572, -149.351
3.39116, -1, -34.7172, -5.57651, 26.8311, 13.502, 73.9668, -149.58
3.39917, -1, -34.8858, -5.66314, 26.8654, 13.5044, 73.8762, -149.809
3.40723, -1, -35.0544, -5.74966, 26.8995, 13.5069, 73.7857, -150.038
3.41517, -1, -35.2226, -5.83617, 26.9336, 13.5093, 73.6954, -150.267
3.42323, -1, -35.3909, -5.92249, 26.9677, 13.5118, 73.605, -150.496
3.43118, -1, -35.5595, -6.00866, 27.0019, 13.5141, 73.5147, -150.725
3.4392, -1, -35.728, -6.09494, 27.0359, 13.5165, 73.4243, -150.954
3.44723, -1, -35.8965, -6.1811, 27.07, 13.5188, 73.3341, -151.182
3.45517, -1, -36.0651, -6.26723, 27.1042, 13.5212, 73.2436, -151.411
3.46316, -1, -36.2335, -6.35332, 27.1382, 13.5236, 73.1532, -151.639
3.47125, -1, -36.4022, -6.43953, 27.1721, 13.526, 73.063, -151.868
3.47916, -1, -36.5711, -6.52577, 27.2061, 13.5284, 72.9724, -152.096
3.48716, -1, -36.7399, -6.61194, 27.2401, 13.5307, 72.8823, -152.324
3.49545, -1, -36.9089, -6.6981, 27.274, 13.533, 72.7923, -152.552
3.50318, -1, -37.0779, -6.78429, 27.308, 13.5353, 72.7021, -152.78
3.51123, -1, -37.2467, -6.87043, 27.3419, 13.5376, 72.6122, -153.008
3.51934, -1, -37.4152, -6.95647, 27.3757, 13.5398, 72.5224, -153.236
3.52724, -1, -37.5834, -7.04256, 27.4097, 13.5421, 72.4325, -153.463
3.53525, -1, -37.7511, -7.12863, 27.4437, 13.5443, 72.3426, -153.691
3.54333, -1, -37.9188, -7.21461, 27.4775, 13.5466, 72.2528, -153.919
3.55133, -1, -38.0862, -7.30049, 27.5114, 13.5488, 72.1631, -154.146
3.55934, -1, -38.2536, -7.38636, 27.5454, 13.5509, 72.0732, -154.373
3.56739, -1, -38.421, -7.4721, 27.5792, 13.5531, 71.9835, -154.6
3.57578, -1, -38.5882, -7.55778, 27.613, 13.5552, 71.8942, -154.828
3.58416, -1, -38.7555, -7.64346, 27.6469, 13.5573, 71.8044, -155.055
3.59148, -1, -38.9228, -7.72915, 27.6807, 13.5594, 71.7149, -155.282
3.60007, -1, -39.0901, -7.81475, 27.7143, 13.5616, 71.6259, -155.509
3.60817, -1, -39.2576, -7.90045, 27.7482, 13.5635, 71.5362, -155.736
3.61544, -1, -39.4251, -7.98615, 27.782, 13.5655, 71.4469, -155.962
3.62429, -1, -39.5927, -8.07171, 27.8156, 13.5674, 71.3576, -156.189
3.63155, -1, -39.7604, -8.15726, 27.8493, 13.5694, 71.2683, -156.416
3.63966, -1, -39.928, -8.24275, 27.8831, 13.5714, 71.1789, -156.642
3.64844, -1, -40.0956, -8.32819, 27.9167, 13.5733, 71.0895, -156.868
3.65569, -1, -40.2631, -8.41358, 27.9504, 13.5753, 71.0004, -157.095
3.66425, -1, -40.4303, -8.49899, 27.9841, 13.5772, 70.911, -157.321
3.6726, -1, -40.5973, -8.58437, 28.0178, 13.5793, 70.8218, -157.547
3.67978, -1, -40.7642, -8.66975, 28.0513, 13.5812, 70.7328, -157.773
3.68826, -1, -40.9307, -8.7551, 28.085, 13.5832, 70.6435, -157.999
3.69657, -1, -41.014, -8.79777, 28.1019, 13.5842, 70.599, -158.225
3.70315, -1, -41.1803, -8.88304, 28.1355, 13.5862, 70.5099, -158.338
3.71224, -1, -41.4296, -9.01081, 28.1858, 13.5893, 70.3761, -158.676
3.71915, -1, -41.5127, -9.05338, 28.2027, 13.5903, 70.3315, -158.789
3.72717, -1, -41.679, -9.13849, 28.2363, 13.5923, 70.2423, -159.014
3.73633, -1, -41.9285, -9.26613, 28.2866, 13.5952, 70.1088, -159.352
3.74315, -1, -42.0118, -9.30861, 28.3035, 13.5963, 70.0642, -159.465
3.75126, -1, -42.1781, -9.39367, 28.3371, 13.5983, 69.9753, -159.691
3.76055, -1, -42.4275, -9.52125, 28.3874, 13.6014, 69.842, -160.028
3.76718, -1, -42.5106, -9.56373, 28.4042, 13.6024, 69.7974, -160.141
3.77524, -1, -42.677, -9.64869, 28.4378, 13.6044, 69.7086, -160.366
3.78472, -1, -42.9266, -9.77611, 28.4879, 13.6075, 69.5755, -160.704
3.79272, -1, -43.093, -9.86102, 28.5214, 13.6095, 69.4864, -160.929
3.80151, -1, -43.2592, -9.94596, 28.5549, 13.6116, 69.3979, -161.154
3.80716, -1, -43.3423, -9.98844, 28.5717, 13.6126, 69.3535, -161.266
3.81673, -1, -43.5084, -10.0734, 28.6052, 13.6147, 69.2207, -161.603
3.82548, -1, -43.6743, -10.1584, 28.6387, 13.6168, 69.1763, -161.716
3.8312, -1, -43.8402, -10.2432, 28.6721, 13.6189, 69.0879, -161.94
3.84015, -1, -44.006, -10.328, 28.7055, 13.6211, 68.9995, -162.165
3.84815, -1, -44.1714, -10.4127, 28.739, 13.6233, 68.9108, -162.389
3.85517, -1, -44.3366, -10.4973, 28.7725, 13.6254, 68.8222, -162.613
3.86415, -1, -44.5018, -10.5819, 28.8058, 13.6277, 68.7336, -162.838
3.87217, -1, -44.667, -10.6664, 28.8392, 13.6298, 68.6449, -163.062
3.87915, -1, -44.8323, -10.7509, 28.8728, 13.632, 68.5564, -163.286
3.88716, -1, -44.9976, -10.8353, 28.9062, 13.6342, 68.4679, -163.51
3.89522, -1, -45.163, -10.9198, 28.9395, 13.6363, 68.3796, -163.734
3.90315, -1, -45.3283, -11.0043, 28.973, 13.6386, 68.2911, -163.958
3.9112, -1, -45.4935, -11.0888, 29.0063, 13.6408, 68.2027, -164.182
3.91931, -1, -45.6587, -11.1732, 29.0394, 13.6432, 68.1147, -164.406
3.92716, -1, -45.824, -11.2576, 29.0728, 13.6455, 68.0261, -164.629
3.93516, -1, -45.9881, -11.3415, 29.1063, 13.6478, 67.9378, -164.853
3.94324, -1, -46.1495, -11.4238, 29.1397, 13.6501, 67.8498, -165.076
3.9512, -1, -46.3065, -11.5031, 29.1733, 13.6524, 67.7623, -165.297
3.95915, -1, -46.4567, -11.5781, 29.2068, 13.6548, 67.6771, -165.512
3.96722, -1, -46.5978, -11.6479, 29.239, 13.6571, 67.5957, -165.718
3.97515, -1, -46.7273, -11.7112, 29.2688, 13.6593, 67.5211, -165.908
3.98315, -1, -46.8421, -11.7672, 29.2951, 13.6613, 67.4542, -166.076
3.99127, -1, -46.9407, -11.8163, 29.3172, 13.663, 67.3986, -166.218
3.99915, -1, -47.0231, -11.8592, 29.3337, 13.6643, 67.3539, -166.331
4.00718, -1, -47.0901, -11.8959, 29.3449, 13.665, 67.3205, -166.415
4.01521, -1, -47.1423, -11.9253, 29.3521, 13.6655, 67.2972, -166.473
4.02321, -1, -47.1811, -11.9473, 29.3559, 13.6657, 67.2822, -166.511
4.03129, -1, -47.2085, -11.9627, 29.3577, 13.6658, 67.2736, -166.533
4.03932, -1, -47.2265, -11.9727, 29.3585, 13.6658, 67.2688, -166.545
4.04757, -1, -47.2373, -11.9785, 29.3589, 13.6659, 67.2665, -166.55
4.05525, 2, -47.2428, -11.9814, 29.3591, 13.666, 67.2654, -166.553
4.06332, 2, -47.2448, -11.9827, 29.3593, 13.666, 67.2649, -166.554
4.0713, 2, -47.2449, -11.9832, 29.3594, 13.666, 67.2646, -166.555
4.07915, 2, -47.2447, -11.9834, 29.3594, 13.666, 67.2645, -166.555
4.08724, 2, -47.2447, -11.9835, 29.3594, 13.666, 67.2645, -166.555
4.09532, 2, -47.245, -11.9836, 29.3594, 13.6661, 67.2645, -166.555
4.10322, 2, -47.2459, -11.9839, 29.3595, 13.6661, 67.2645, -166.555
4.11153, 2, -47.2472, -11.9844, 29.3595, 13.6661, 67.2645, -166.555
4.1194, 2, -47.249, -11.9851, 29.3595, 13.6661, 67.2644, -166.555
4.12739, 2, -47.2505, -11.986, 29.3595, 13.6661, 67.2644, -166.555
4.13551, 2, -47.2519, -11.9868, 29.3595, 13.666, 67.2644, -166.555
4.14371, 2, -47.2528, -11.9875, 29.3595, 13.6661, 67.2645, -166.555
4.1522, 2, -47.2532, -11.9879, 29.3595, 13.6661, 67.2645, -166.555
4.15969, 2, -47.2534, -11.9881, 29.3595, 13.6661, 67.2644, -166.555
4.1683, 2, -47.2535, -11.9881, 29.3595, 13.6661, 67.2644, -166.555
4.17576, 2, -47.2532, -11.9882, 29.3595, 13.6661, 67.2645, -166.555
4.18424, 2, -47.2527, -11.9881, 29.3595, 13.6661, 67.2645, -166.555
4.19209, 2, -47.2523, -11.9881, 29.3595, 13.6661, 67.2645, -166.555
4.19965, 2, -47.2521, -11.9881, 29.3595, 13.6661, 67.2645, -166.555
4.20816, 2, -47.2518, -11.9881, 29.3595, 13.6661, 67.2644, -166.555
4.21514, 2, -47.2518, -11.9881, 29.3595, 13.6661, 67.2645, -166.555
4.22418, 2, -47.252, -11.9883, 29.3595, 13.6661, 67.2645, -166.555
4.23125, 2, -47.252, -11.9885, 29.3595, 13.6661, 67.2645, -166.555
4.24069, 2, -47.2526, -11.989, 29.3595, 13.6661, 67.2645, -166.555
4.24715, 2, -47.2529, -11.9891, 29.3595, 13.6661, 67.2644, -166.555
4.25643, 2, -47.2535, -11.9895, 29.3595, 13.666, 67.2645, -166.555
4.26314, 2, -47.2536, -11.9895, 29.3595, 13.666, 67.2645, -166.555
4.27256, 2, -47.2537, -11.9896, 29.3595, 13.666, 67.2644, -166.555
4.28064, 2, -47.2536, -11.9896, 29.3595, 13.666, 67.2645, -166.555
4.28715, 2, -47.2535, -11.9895, 29.3595, 13.666, 67.2645, -166.555
4.29514, 2, -47.2532, -11.9895, 29.3595, 13.6661, 67.2645, -166.555
4.30472, 2, -47.2527, -11.9894, 29.3595, 13.666, 67.2645, -166.555
4.31289, 2, -47.2524, -11.9894, 29.3595, 13.666, 67.2645, -166.555
4.32067, 2, -47.2523, -11.9894, 29.3595, 13.666, 67.2645, -166.555
4.32813, 2, -47.2522, -11.9894, 29.3595, 13.666, 67.2644, -166.555
4.33619, 2, -47.2521, -11.9895, 29.3595, 13.666, 67.2645, -166.555
4.34413, 2, -47.2521, -11.9895, 29.3595, 13.666, 67.2645, -166.555
4.35215, 2, -47.2521, -11.9896, 29.3595, 13.666, 67.2645, -166.555
4.36019, 2, -47.2521, -11.9896, 29.3595, 13.666, 67.2645, -166.555
4.36814, 2, -47.2521, -11.9896, 29.3595, 13.666, 67.2645, -166.555
4.37616, 2, -47.2521, -11.9896, 29.3595, 13.666, 67.2645, -166.555
4.38422, 2, -47.2521, -11.9896, 29.3596, 13.666, 67.2645, -166.555
4.39125, 2, -47.252, -11.9896, 29.3595, 13.666, 67.2645, -166.555
4.3992, 2, -47.252, -11.9895, 29.3595, 13.666, 67.2645, -166.555
4.40715, 2, -47.2519, -11.9894, 29.3595, 13.666, 67.2645, -166.555
4.41513, 2, -47.2517, -11.9894, 29.3595, 13.666, 67.2645, -166.555
4.4232, 2, -47.2517, -11.9894, 29.3595, 13.666, 67.2645, -166.555
4.4312, 2, -47.2516, -11.9894, 29.3595, 13.666, 67.2645, -166.555
4.43915, 2, -47.2515, -11.9894, 29.3595, 13.666, 67.2645, -166.555
4.44724, 2, -47.2514, -11.9894, 29.3595, 13.666, 67.2646, -166.555
4.45513, 2, -47.2514, -11.9894, 29.3595, 13.666, 67.2646, -166.555
4.46313, 2, -47.2513, -11.9894, 29.3595, 13.6659, 67.2646, -166.555
4.47125, 2, -47.2513, -11.9894, 29.3595, 13.6659, 67.2646, -166.555
4.47913, 2, -47.2512, -11.9894, 29.3595, 13.6659, 67.2646, -166.555
4.48714, 2, -47.2511, -11.9894, 29.3595, 13.6659, 67.2646, -166.555
4.4952, 2, -47.251, -11.9894, 29.3595, 13.6659, 67.2646, -166.555
4.50314, 2, -47.2509, -11.9893, 29.3595, 13.6659, 67.2646, -166.555
4.51121, 2, -47.2508, -11.9892, 29.3595, 13.666, 67.2647, -166.555
4.5192, 2, -47.2507, -11.9892, 29.3595, 13.6659, 67.2646, -166.555
4.5272, 2, -47.2506, -11.9891, 29.3595, 13.6659, 67.2647, -166.555
4.53522, 2, -47.2505, -11.9891, 29.3595, 13.666, 67.2647, -166.555
4.5433, 2, -47.2504, -11.9891, 29.3595, 13.666, 67.2647, -166.555
4.55129, 2, -47.2503, -11.9891, 29.3595, 13.666, 67.2646, -166.555
4.55924, 2, -47.2502, -11.9891, 29.3595, 13.666, 67.2646, -166.555
4.56731, 2, -47.2501, -11.9892, 29.3595, 13.666, 67.2646, -166.555
4.57514, 2, -47.25, -11.9892, 29.3595, 13.6659, 67.2646, -166.555
4.58314, 2, -47.2499, -11.9892, 29.3595, 13.6659, 67.2647, -166.555
4.59134, 2, -47.2499, -11.9891, 29.3595, 13.6659, 67.2647, -166.555
4.59948, 2, -47.2498, -11.9891, 29.3595, 13.6659, 67.2647, -166.555
4.60722, 2, -47.2497, -11.989, 29.3595, 13.6659, 67.2647, -166.555
4.61536, 2, -47.2496, -11.9889, 29.3595, 13.6659, 67.2647, -166.555
4.62371, 2, -47.2495, -11.9889, 29.3595, 13.6659, 67.2647, -166.555
4.63216, 2, -47.2494, -11.9888, 29.3595, 13.6659, 67.2647, -166.555
4.63951, 2, -47.2494, -11.9888, 29.3595, 13.6659, 67.2647, -166.555
4.64797, 2, -47.2493, -11.9888, 29.3595, 13.6659, 67.2647, -166.555
4.65621, 2, -47.2493, -11.9888, 29.3595, 13.6659, 67.2647, -166.555
4.6637, 2, -47.2492, -11.9888, 29.3595, 13.6659, 67.2647, -166.555
4.6723, 2, -47.2492, -11.9888, 29.3595, 13.6659, 67.2647, -166.555
4.6797, 2, -47.2491, -11.9888, 29.3595, 13.6658, 67.2647, -166.555
4.68823, 2, -47.2491, -11.9888, 29.3595, 13.6658, 67.2647, -166.555
4.69604, 2, -47.2491, -11.9888, 29.3595, 13.6659, 67.2647, -166.555
4.70362, 2, -47.2491, -11.9888, 29.3595, 13.6659, 67.2647, -166.555
4.71217, 2, -47.249, -11.9887, 29.3595, 13.6659, 67.2647, -166.555
4.72009, 2, -47.249, -11.9886, 29.3595, 13.6659, 67.2647, -166.555
4.72713, 2, -47.2489, -11.9886, 29.3595, 13.6659, 67.2647, -166.555
4.7364, 2, -47.2487, -11.9885, 29.3595, 13.6659, 67.2647, -166.555
4.74312, 2, -47.2487, -11.9885, 29.3595, 13.6658, 67.2647, -166.555
4.75117, 2, -47.2486, -11.9885, 29.3595, 13.6658, 67.2647, -166.555
4.76043, 2, -47.2486, -11.9885, 29.3595, 13.6658, 67.2648, -166.555
4.76713, 2, -47.2486, -11.9885, 29.3595, 13.6658, 67.2648, -166.555
4.77514, 2, -47.2485, -11.9885, 29.3595, 13.6658, 67.2648, -166.555
4.78462, 2, -47.2485, -11.9885, 29.3595, 13.6658, 67.2647, -166.555
4.79117, 2, -47.2485, -11.9885, 29.3595, 13.6658, 67.2647, -166.555
4.79912, 2, -47.2485, -11.9885, 29.3595, 13.6657, 67.2647, -166.555
4.80869, 2, -47.2484, -11.9884, 29.3595, 13.6657, 67.2648, -166.555
4.81718, 2, -47.2484, -11.9883, 29.3595, 13.6657, 67.2648, -166.554
4.82312, 2, -47.2483, -11.9883, 29.3595, 13.6657, 67.2648, -166.554
4.83124, 2, -47.2483, -11.9882, 29.3595, 13.6656, 67.2648, -166.554
4.84102, 2, -47.2481, -11.9882, 29.3595, 13.6656, 67.2648, -166.554
4.84714, 2, -47.248, -11.9882, 29.3595, 13.6656, 67.2648, -166.554
4.85519, 2, -47.248, -11.9881, 29.3595, 13.6656, 67.2648, -166.554
4.86497, 2, -47.2479, -11.9881, 29.3595, 13.6656, 67.2649, -166.554
4.87117, 2, -47.2479, -11.9881, 29.3595, 13.6656, 67.2649, -166.554
4.8792, 2, -47.2479, -11.9881, 29.3595, 13.6656, 67.265, -166.554
4.88713, 2, -47.2479, -11.9881, 29.3595, 13.6656, 67.265, -166.554
4.89512, 2, -47.2478, -11.9881, 29.3595, 13.6656, 67.2649, -166.554
4.90319, 2, -47.2478, -11.9881, 29.3595, 13.6656, 67.265, -166.554
4.91117, 2, -47.2478, -11.988, 29.3595, 13.6656, 67.2649, -166.554
4.91914, 2, -47.2478, -11.988, 29.3595, 13.6656, 67.2649, -166.554
4.92719, 2, -47.2477, -11.9879, 29.3595, 13.6656, 67.265, -166.554
4.93512, 2, -47.2476, -11.9879, 29.3595, 13.6656, 67.265, -166.554
4.94313, 2, -47.2474, -11.9878, 29.3595, 13.6656, 67.265, -166.554
4.95127, 2, -47.2473, -11.9878, 29.3595, 13.6656, 67.265, -166.554
4.95912, 2, -47.2473, -11.9878, 29.3595, 13.6655, 67.265, -166.554
4.96713, 2, -47.2472, -11.9878, 29.3595, 13.6655, 67.265, -166.554
4.97518, 2, -47.2472, -11.9878, 29.3595, 13.6655, 67.265, -166.554
4.98312, 2, -47.2471, -11.9878, 29.3595, 13.6655, 67.265, -166.554
4.99117, 2, -47.2471, -11.9878, 29.3595, 13.6655, 67.265, -166.554
4.99918, 2, -47.2471, -11.9878, 29.3595, 13.6655, 67.265, -166.554
5.00713, 2, -47.2471, -11.9878, 29.3595, 13.6654, 67.265, -166.554
5.01514, 2, -47.2471, -11.9877, 29.3595, 13.6654, 67.2651, -166.554
5.02321, 2, -47.2471, -11.9877, 29.3595, 13.6654, 67.2651, -166.554
5.03125, 2, -47.247, -11.9876, 29.3595, 13.6654, 67.2651, -166.554
5.03921, 2, -47.2469, -11.9876, 29.3595, 13.6654, 67.265, -166.554
5.0473, 2, -47.2468, -11.9875, 29.3595, 13.6654, 67.265, -166.554
5.05536, 2, -47.2467, -11.9875, 29.3595, 13.6654, 67.2651, -166.554
5.06352, 2, -47.2466, -11.9875, 29.3595, 13.6653, 67.2651, -166.554
5.07133, 2, -47.2465, -11.9875, 29.3595, 13.6653, 67.2651, -166.554
5.07912, 2, -47.2465, -11.9875, 29.3595, 13.6653, 67.2651, -166.554
5.08713, 2, -47.2465, -11.9874, 29.3595, 13.6653, 67.2651, -166.554
5.09521, 2, -47.2464, -11.9875, 29.3595, 13.6653, 67.2651, -166.554
5.10315, 2, -47.2465, -11.9874, 29.3595, 13.6653, 67.2651, -166.554
5.11176, 2, -47.2465, -11.9874, 29.3595, 13.6653, 67.2652, -166.554
5.12013, 4, -47.2464, -11.9874, 29.3595, 13.6653, 67.2651, -166.554
5.12731, 4, -47.2463, -11.9873, 29.3595, 13.6653, 67.2652, -166.554
5.1357, 4, -47.2462, -11.9873, 29.3595, 13.6652, 67.2651, -166.554
5.14411, 4, -47.2462, -11.9872, 29.3595, 13.6652, 67.2651, -166.554
5.15155, 4, -47.2461, -11.9872, 29.3595, 13.6652, 67.2651, -166.554
5.1602, 4, -47.2461, -11.9872, 29.3595, 13.6652, 67.2651, -166.554
5.1678, 4, -47.246, -11.9872, 29.3595, 13.6652, 67.2651, -166.554
5.17628, 4, -47.2459, -11.9872, 29.3595, 13.6652, 67.2651, -166.554
5.1839, 4, -47.2459, -11.9872, 29.3595, 13.6652, 67.2652, -166.554
5.19223, 4, -47.2459, -11.9872, 29.3595, 13.6652, 67.2652, -166.554
5.19976, 4, -47.2459, -11.9871, 29.3595, 13.6651, 67.2653, -166.554
5.20823, 4, -47.2458, -11.9871, 29.3595, 13.6651, 67.2652, -166.554
5.21602, 4, -47.2458, -11.9871, 29.3595, 13.6651, 67.2653, -166.554
5.23078, 4, -47.2458, -11.987, 29.3595, 13.6651, 67.2653, -166.554
5.23356, 4, -47.2457, -11.987, 29.3595, 13.665, 67.2653, -166.554
5.24059, 4, -47.2456, -11.987, 29.3595, 13.6651, 67.2652, -166.554
5.24864, 4, -47.2455, -11.9869, 29.3595, 13.6651, 67.2653, -166.554
5.25699, 4, -47.2455, -11.9869, 29.3595, 13.665, 67.2653, -166.554
5.26455, 4, -47.2454, -11.9869, 29.3595, 13.665, 67.2652, -166.554
5.2755, 4, -47.2454, -11.9869, 29.3595, 13.665, 67.2652, -166.554
5.28106, 4, -47.2453, -11.9869, 29.3595, 13.665, 67.2653, -166.554
5.29131, 4, -47.2453, -11.9869, 29.3595, 13.665, 67.2653, -166.554
5.29735, 4, -47.2453, -11.9868, 29.3595, 13.665, 67.2652, -166.553
5.30749, 4, -47.2452, -11.9868, 29.3595, 13.665, 67.2653, -166.553
5.31287, 4, -47.2452, -11.9868, 29.3595, 13.665, 67.2653, -166.553
5.32113, 4, -47.2452, -11.9868, 29.3595, 13.6649, 67.2653, -166.553
5.33012, 4, -47.2452, -11.9868, 29.3595, 13.665, 67.2653, -166.553
5.33587, 4, -47.2452, -11.9867, 29.3595, 13.665, 67.2653, -166.553
5.3449, 4, -47.2451, -11.9867, 29.3595, 13.665, 67.2653, -166.553
5.3533, 4, -47.2451, -11.9867, 29.3595, 13.6649, 67.2653, -166.553
5.36359, 4, -47.245, -11.9867, 29.3595, 13.6649, 67.2653, -166.553
5.36726, 4, -47.2449, -11.9866, 29.3595, 13.6649, 67.2653, -166.553
5.37629, 4, -47.2449, -11.9866, 29.3595, 13.6649, 67.2653, -166.553
5.38326, 4, -47.2451, -11.9867, 29.3595, 13.6649, 67.2653, -166.553
5.3913, 4, -47.2459, -11.9872, 29.3598, 13.665, 67.2654, -166.553
5.39932, 4, -47.2483, -11.9889, 29.3617, 13.6668, 67.266, -166.553
5.40823, 4, -47.2524, -11.9934, 29.3672, 13.6765, 67.2683, -166.552
5.41532, 5, -47.2596, -12.0023, 29.3798, 13.7014, 67.2747, -166.547
5.42327, 5, -47.2711, -12.0176, 29.4044, 13.7503, 67.2883, -166.537
5.43139, 5, -47.2892, -12.0419, 29.447, 13.838, 67.3127, -166.517
5.44222, 5, -47.3331, -12.0997, 29.5584, 14.072, 67.3783, -166.464
5.44873, 5, -47.3532, -12.1256, 29.6112, 14.1847, 67.4093, -166.438
5.45901, 5, -47.4324, -12.2253, 29.8237, 14.6437, 67.5353, -166.332
5.46324, 5, -47.4651, -12.266, 29.9133, 14.8387, 67.5878, -166.287
5.47228, 5, -47.5399, -12.3589, 30.1218, 15.2908, 67.7094, -166.183
5.47999, 5, -47.6268, -12.4665, 30.3671, 15.8184, 67.8493, -166.064
5.48724, 5, -47.7244, -12.5873, 30.6446, 16.4079, 68.0042, -165.93
5.49524, 5, -47.831, -12.7195, 30.9498, 17.0453, 68.1688, -165.788
5.50651, 5, -48.0032, -12.9346, 31.4448, 18.0574, 68.4249, -165.566
5.51232, 5, -48.0627, -13.0094, 31.6167, 18.4024, 68.5105, -165.492
5.52027, 5, -48.1834, -13.1613, 31.9656, 19.0966, 68.6805, -165.343
5.52839, 5, -48.3042, -13.3132, 32.3184, 19.7871, 68.847, -165.197
5.53625, 5, -48.4222, -13.4616, 32.6704, 20.4632, 69.0093, -165.049
5.54398, 5, -48.5332, -13.6036, 33.0165, 21.1162, 69.1686, -164.892
5.55199, 6, -48.6329, -13.7354, 33.3501, 21.7336, 69.3271, -164.715
5.56341, 6, -48.7521, -13.9131, 33.817, 22.577, 69.5691, -164.38
5.56834, 7, -48.782, -13.968, 33.9619, 22.8334, 69.6521, -164.244
5.57705, 7, -48.8257, -14.0726, 34.2353, 23.3081, 69.8221, -163.929
5.58349, 7, -48.8476, -14.1683, 34.4865, 23.7355, 69.9979, -163.553
5.59231, 8, -48.8492, -14.254, 34.719, 24.1222, 70.1796, -163.121
5.60428, 9, -48.8207, -14.3666, 35.0435, 24.6484, 70.4628, -162.376
5.60964, 9, -48.8044, -14.4009, 35.147, 24.8147, 70.5604, -162.108
5.61631, 9, -48.7636, -14.4658, 35.351, 25.1419, 70.7607, -161.545
5.62389, 10, -48.7132, -14.5278, 35.5552, 25.4686, 70.9691, -160.959
5.63245, 10, -48.6541, -14.5895, 35.761, 25.8004, 71.1853, -160.352
5.64211, 11, -48.5877, -14.6516, 35.9685, 26.1403, 71.409, -159.734
5.64853, 11, -48.5158, -14.714, 36.1785, 26.4899, 71.6381, -159.107
5.65598, 11, -48.4398, -14.777, 36.3893, 26.849, 71.8715, -158.475
5.66831, 12, -48.3217, -14.8716, 36.703, 27.4044, 72.2269, -157.518
5.67304, 12, -48.2821, -14.9022, 36.8071, 27.5938, 72.3466, -157.196
5.6807, 13, -48.2026, -14.9615, 37.0142, 27.9784, 72.5878, -156.551
5.68837, 13, -48.1214, -15.0196, 37.2191, 28.3707, 72.8316, -155.9
5.69803, 14, -48.0369, -15.0788, 37.423, 28.7692, 73.0779, -155.246
5.70524, 15, -47.9486, -15.1388, 37.6262, 29.172, 73.3258, -154.592
5.71393, 15, -47.8567, -15.1982, 37.8274, 29.5769, 73.5737, -153.94
5.72045, 16, -47.7595, -15.2567, 38.0268, 29.9817, 73.8198, -153.289
5.73016, 16, -47.6554, -15.3157, 38.2249, 30.3844, 74.063, -152.644
5.73612, 17, -47.6008, -15.3459, 38.4198, 30.7839, 74.3015, -152.005
5.7486, 17, -47.3687, -15.4706, 38.7056, 31.3748, 74.6483, -151.056
5.75276, 18, -47.3076, -15.5023, 38.7995, 31.5693, 74.7607, -150.743
5.75927, 18, -47.2453, -15.5342, 38.8928, 31.7628, 74.8715, -150.432
5.76734, 19, -47.1167, -15.5993, 39.0771, 32.147, 75.0886, -149.817
5.77523, 19, -46.9826, -15.6672, 39.2588, 32.529, 75.3005, -149.208
5.78707, 20, -46.7712, -15.774, 39.5293, 33.0998, 75.6098, -148.306
5.79127, 20, -46.6983, -15.8103, 39.6187, 33.2896, 75.7108, -148.01
5.80202, 21, -46.4729, -15.9214, 39.8829, 33.8587, 76.0082, -147.129
5.80966, 21, -46.3172, -15.998, 40.0564, 34.2373, 76.2019, -146.549
5.81923, 22, -46.1571, -16.0767, 40.2282, 34.6153, 76.3914, -145.975
5.82323, 22, -46.0754, -16.1167, 40.313, 34.8036, 76.4847, -145.69
5.83419, 23, -45.8232, -16.2386, 40.5626, 35.3645, 76.7576, -144.846
5.84193, 23, -45.6475, -16.3221, 40.7259, 35.7337, 76.9329, -144.29
5.84808, 24, -45.5569, -16.3648, 40.8064, 35.9165, 77.0186, -144.013
5.85523, 24, -45.3699, -16.4523, 40.9647, 36.2775, 77.1852, -143.466
5.86587, 25, -45.1758, -16.5415, 41.1187, 36.6311, 77.3451, -142.924
5.87221, 25, -44.9751, -16.6314, 41.2687, 36.976, 77.4981, -142.388
5.88024, 26, -44.7677, -16.722, 41.4144, 37.3125, 77.6446, -141.856
5.89328, 26, -44.4434, -16.8605, 41.6236, 37.8015, 77.854, -141.064
5.89633, 27, -44.3316, -16.9072, 41.6906, 37.9607, 77.9216, -140.802
5.90697, 27, -43.9863, -17.0465, 41.8827, 38.427, 78.1183, -140.016
5.91127, 28, -43.8679, -17.0926, 41.9436, 38.5786, 78.1825, -139.754
5.92028, 28, -43.6255, -17.1843, 42.0606, 38.8766, 78.3086, -139.231
5.9283, 29, -43.3757, -17.2748, 42.1707, 39.1667, 78.4319, -138.709
5.93543, 29, -43.1192, -17.3632, 42.2739, 39.4488, 78.5527, -138.186
5.94587, 30, -42.7224, -17.4916, 42.4156, 39.8568, 78.7276, -137.403
5.95223, 30, -42.5863, -17.5333, 42.4592, 39.9885, 78.7847, -137.143
5.95932, 31, -42.308, -17.6148, 42.5411, 40.2457, 78.8966, -136.622
5.96725, 31, -42.0218, -17.6936, 42.6161, 40.4945, 79.0056, -136.102
5.97701, 32, -41.7284, -17.7702, 42.6841, 40.7349, 79.1124, -135.582
5.98325, 32, -41.4282, -17.8445, 42.7454, 40.9668, 79.2163, -135.062
5.99189, 33, -41.1215, -17.916, 42.7997, 41.1905, 79.3178, -134.544
6.00427, 33, -40.6488, -18.0174, 42.8678, 41.5112, 79.4656, -133.769
6.00731, 34, -40.4879, -18.0497, 42.8868, 41.6139, 79.5134, -133.511
6.01918, 34, -40.1625, -18.1123, 42.9195, 41.91, 79.6531, -132.738
6.02527, 35, -39.8324, -18.1723, 42.9448, 42.0048, 79.6986, -132.481
6.03544, 35, -39.3261, -18.2559, 42.9695, 42.278, 79.8308, -131.712
6.03935, 36, -39.154, -18.282, 42.9743, 42.3652, 79.8739, -131.456
6.04973, 36, -38.8043, -18.3318, 42.9786, 42.5338, 79.9581, -130.946
6.05627, 37, -38.4478, -18.3783, 42.9763, 42.6949, 80.0405, -130.436
6.06522, 37, -38.0857, -18.4214, 42.9672, 42.8482, 80.1204, -129.929
6.07133, 38, -37.718, -18.4606, 42.9512, 42.9943, 80.1987, -129.422
6.08024, 38, -37.3454, -18.4964, 42.9286, 43.133, 80.2747, -128.918
6.0875, 39, -36.9682, -18.5289, 42.8993, 43.2641, 80.3486, -128.415
6.09952, 39, -36.5864, -18.5578, 42.8633, 43.388, 80.4201, -127.914
6.10421, 40, -36.1996, -18.583, 42.8205, 43.5045, 80.4902, -127.415
6.1123, 40, -35.8067, -18.6044, 42.7713, 43.6139, 80.5582, -126.918
6.12136, 41, -35.4079, -18.6217, 42.7155, 43.7161, 80.6246, -126.422
6.1285, 41, -35.0034, -18.6353, 42.6532, 43.8106, 80.6882, -125.928
6.13797, 42, -34.5944, -18.6455, 42.5845, 43.8986, 80.7509, -125.438
6.14445, 42, -34.1822, -18.6524, 42.5093, 43.9792, 80.8106, -124.949
6.15258, 43, -33.7669, -18.6561, 42.428, 44.0528, 80.8693, -124.462
6.16128, 43, -33.3478, -18.6565, 42.3407, 44.119, 80.926, -123.978
6.16835, 44, -32.923, -18.6533, 42.2476, 44.1786, 80.9807, -123.496
6.17679, 44, -32.4921, -18.6462, 42.1488, 44.2303, 81.0347, -123.017
6.18435, 45, -32.0546, -18.6354, 42.0442, 44.2752, 81.086, -122.54
6.19599, 45, -31.3892, -18.6123, 41.8759, 44.3289, 81.1609, -121.828
6.20071, 46, -31.1659, -18.6029, 41.8168, 44.3428, 81.185, -121.592
6.21227, 46, -30.7181, -18.5816, 41.6943, 44.3649, 81.2312, -120.889
6.21638, 47, -30.2676, -18.5564, 41.566, 44.3793, 81.2761, -120.655
6.22624, 47, -29.8123, -18.5268, 41.4317, 44.3866, 81.3208, -120.189
6.23301, 48, -29.3505, -18.4927, 41.2914, 44.3871, 81.3635, -119.725
6.23924, 48, -29.1172, -18.4741, 41.219, 44.3841, 81.3844, -119.494
6.24859, 49, -28.409, -18.4117, 40.9927, 44.3618, 81.4471, -118.803
6.25527, 49, -28.171, -18.3887, 40.9144, 44.3501, 81.4679, -118.574
6.26474, 50, -27.4536, -18.3129, 40.67, 44.3, 81.5289, -117.887
6.27463, 50, -26.9716, -18.2561, 40.4988, 44.2551, 81.5701, -117.43
6.2792, 51, -26.7285, -18.2256, 40.4107, 44.2294, 81.5912, -117.202
6.28725, 51, -26.2361, -18.1604, 40.23, 44.1702, 81.6337, -116.747
6.29521, 52, -25.7361, -18.0898, 40.0422, 44.1012, 81.6761, -116.293
6.30639, 52, -24.9766, -17.9737, 39.7468, 43.9787, 81.7419, -115.612
6.31308, 53, -24.4674, -17.8896, 39.5421, 43.8841, 81.7867, -115.16
6.31993, 53, -24.2119, -17.8454, 39.4372, 43.8332, 81.809, -114.933
6.32895, 54, -23.4374, -17.7034, 39.1105, 43.6648, 81.8789, -114.256
6.33764, 54, -22.9113, -17.6007, 38.8841, 43.5391, 81.9281, -113.804
6.34683, 55, -22.3772, -17.4916, 38.6502, 43.4019, 81.9788, -113.352
6.35466, 55, -21.8385, -17.3764, 38.4084, 43.2526, 82.0331, -112.9
6.36215, 56, -21.2974, -17.2555, 38.1603, 43.0914, 82.0892, -112.447
6.36773, 56, -21.0257, -17.193, 38.0336, 43.0064, 82.1176, -112.222
6.37632, 57, -20.4786, -17.0638, 37.7748, 42.8277, 82.1766, -111.771
6.3832, 57, -19.9226, -16.929, 37.5098, 42.6379, 82.2369, -111.32
6.39558, 58, -19.0724, -16.7154, 37.0997, 42.3309, 82.33, -110.644
6.40023, 58, -18.7863, -16.6411, 36.9601, 42.2225, 82.362, -110.419
6.41042, 59, -17.9246, -16.4095, 36.5313, 41.8784, 82.4605, -109.745
6.4163, 59, -17.6357, -16.3299, 36.3849, 41.7572, 82.495, -109.52
6.42789, 60, -16.7559, -16.0846, 35.9358, 41.3738, 82.6015, -108.846
6.4322, 60, -16.4575, -16.0003, 35.783, 41.2395, 82.6385, -108.621
6.44424, 61, -15.5525, -15.7394, 35.3167, 40.8162, 82.7515, -107.947
6.44821, 61, -15.2491, -15.6501, 35.1583, 40.6687, 82.7903, -107.723
6.4553, 62, -14.6401, -15.4683, 34.8378, 40.3646, 82.8691, -107.274
6.46322, 62, -14.0253, -15.2821, 34.5121, 40.0479, 82.95, -106.825
6.47401, 63, -13.085, -14.991, 34.0158, 39.5484, 83.0751, -106.151
6.47929, 63, -12.7672, -14.8905, 33.8477, 39.375, 83.118, -105.926
6.48819, 64, -12.127, -14.6855, 33.5077, 39.0173, 83.2068, -105.476
6.49631, 64, -11.4824, -14.4749, 33.1609, 38.6447, 83.2996, -105.024
6.50517, 65, -10.8303, -14.2576, 32.8075, 38.2559, 83.3978, -104.571
6.51122, 65, -10.1674, -14.0337, 32.447, 37.8501, 83.5017, -104.115
6.52006, 66, -9.49444, -13.8032, 32.0813, 37.4265, 83.6112, -103.658
6.52727, 66, -8.81413, -13.5657, 31.7108, 36.9866, 83.7266, -103.199
6.5363, 67, -8.1298, -13.3207, 31.3345, 36.5301, 83.8473, -102.738
6.54421, 67, -7.43893, -13.0688, 30.9523, 36.0583, 83.9742, -102.275
6.55538, 68, -6.38656, -12.6772, 30.3709, 35.323, 84.1765, -101.578
6.56373, 68, -5.67659, -12.409, 29.9791, 34.8166, 84.3196, -101.112
6.56966, 69, -5.32009, -12.2728, 29.7819, 34.5587, 84.3935, -100.879
6.57625, 69, -4.60329, -11.995, 29.3848, 34.0332, 84.5455, -100.41
6.58531, 70, -3.87877, -11.711, 28.9867, 33.4974, 84.7028, -99.9405
6.59208, 70, -3.14522, -11.419, 28.5885, 32.9485, 84.8653, -99.4687
6.60022, 71, -2.40376, -11.1184, 28.19, 32.3864, 85.0336, -98.9951
6.60919, 71, -1.65486, -10.8111, 27.789, 31.8097, 85.2086, -98.5191
6.61544, 72, -0.898428, -10.4971, 27.3858, 31.217, 85.3927, -98.0395
6.62584, 72, -0.135146, -10.1774, 26.9798, 30.6059, 85.586, -97.5564
6.6354, 73, 1.02039, -9.68447, 26.3668, 29.6633, 85.8932, -96.8261
6.64122, 73, 1.40817, -9.51641, 26.1619, 29.3429, 85.9998, -96.582
6.65221, 74, 2.57754, -9.00264, 25.5486, 28.3678, 86.3319, -95.8465
6.65584, 74, 2.96888, -8.82889, 25.3455, 28.039, 86.4461, -95.6008
6.66816, 75, 3.75288, -8.47704, 24.9433, 27.3766, 86.7985, -94.8619
6.67203, 75, 4.53841, -8.11912, 24.5457, 26.7106, 86.9187, -94.6155
6.68006, 76, 5.32463, -7.75625, 24.1535, 26.0446, 87.1635, -94.1221
6.68802, 76, 6.11013, -7.38789, 23.7672, 25.3781, 87.4131, -93.6277
6.70659, 77, 7.67893, -6.63024, 23.0123, 24.0505, 87.9316, -92.6376
6.71004, 77, 8.07167, -6.43514, 22.8263, 23.7186, 88.0666, -92.3899
6.72086, 78, 9.25025, -5.83501, 22.274, 22.7167, 88.4882, -91.6438
6.72566, 78, 9.64356, -5.63117, 22.0914, 22.3796, 88.6355, -91.3934
6.72789, 78, 9.64356, -5.63117, 22.0914, 22.3796, 88.6355, -91.3934
6.73506, 79, 10.4318, -5.21861, 21.7278, 21.7002, 88.9405, -90.8891
6.74526, 80, 11.6148, -4.58583, 21.1863, 20.6722, 89.423, -90.1217
6.75112, 80, 12.0078, -4.3698, 21.0077, 20.328, 89.5893, -89.8629
6.76134, 81, 13.1769, -3.70551, 20.4784, 19.3021, 90.103, -89.075
6.76711, 81, 13.5635, -3.48018, 20.3049, 18.9648, 90.2782, -88.8094
6.77687, 82, 14.7137, -2.7945, 19.797, 17.9746, 90.8125, -88.0054
6.78449, 82, 15.4713, -2.32736, 19.4717, 17.3346, 91.1737, -87.4661
6.79257, 82, 16.2193, -1.85284, 19.156, 16.7124, 91.5389, -86.9239
6.80078, 83, 16.9553, -1.37229, 18.8501, 16.1096, 91.9083, -86.3807
6.80862, 83, 17.6787, -0.886699, 18.5531, 15.5251, 92.2827, -85.8374
6.81666, 84, 18.3875, -0.397191, 18.2655, 14.9593, 92.6633, -85.2959
6.82472, 84, 19.0798, 0.0965584, 17.9849, 14.4129, 93.0511, -84.7551
6.83359, 85, 19.4192, 0.345506, 17.8467, 13.8861, 93.447, -84.2165
6.83913, 85, 20.0836, 0.847248, 17.5753, 13.6298, 93.648, -83.9479
6.84808, 86, 20.73, 1.35337, 17.3101, 13.1324, 94.0548, -83.4127
6.85505, 86, 21.3605, 1.86373, 17.0509, 12.6544, 94.4674, -82.8783
6.86414, 86, 21.9775, 2.38098, 16.7986, 12.1965, 94.886, -82.3429
6.87212, 87, 22.5823, 2.90826, 16.551, 11.7579, 95.3112, -81.8044
6.88005, 87, 23.1765, 3.4458, 16.3075, 11.3375, 95.7436, -81.2616
6.88709, 88, 23.7611, 3.99069, 16.0672, 10.9331, 96.1835, -80.7128
6.89508, 88, 24.3354, 4.54263, 15.8296, 10.5444, 96.6302, -80.1546
6.90307, 89, 24.8984, 5.10462, 15.5971, 10.1707, 97.0837, -79.5869
6.91205, 89, 25.4524, 5.67856, 15.3694, 9.81273, 97.5433, -79.0079
6.91903, 90, 26.0019, 6.26308, 15.1452, 9.47064, 98.0074, -78.4169
6.92806, 90, 26.5467, 6.85686, 14.926, 9.14455, 98.4762, -77.8118
6.93505, 91, 27.0812, 7.45949, 14.7127, 8.83581, 98.9497, -77.1931
6.94407, 91, 27.6019, 8.07213, 14.5048, 8.54521, 99.4282, -76.5625
6.95109, 92, 28.1118, 8.69556, 14.3014, 8.27452, 99.9121, -75.9194
6.9601, 92, 28.6142, 9.32928, 14.1024, 8.02504, 100.401, -75.2654
6.96968, 93, 29.1095, 9.97195, 13.9078, 7.79693, 100.894, -74.6037
6.97606, 93, 29.5939, 10.6217, 13.7188, 7.59088, 101.389, -73.9342
6.9841, 94, 30.0649, 11.277, 13.5367, 7.40763, 101.886, -73.2571
6.99207, 94, 30.5212, 11.9361, 13.3613, 7.24755, 102.381, -72.5739
6.99909, 95, 30.9637, 12.5983, 13.1922, 7.11069, 102.874, -71.8862
7.00708, 95, 31.3924, 13.2628, 13.0307, 6.99756, 103.364, -71.1918
7.01506, 96, 31.8074, 13.9295, 12.8769, 6.90751, 103.85, -70.4918
7.02406, 96, 32.2069, 14.5974, 12.7293, 6.84177, 104.334, -69.7875
7.0321, 97, 32.5899, 15.2662, 12.588, 6.79911, 104.813, -69.077
7.03917, 97, 32.9569, 15.9337, 12.4538, 6.7774, 105.286, -68.3612
7.04761, 98, 33.3082, 16.5981, 12.3276, 6.77724, 105.753, -67.6437
7.05605, 98, 33.6448, 17.2575, 12.2102, 6.79879, 106.211, -66.9237
7.06361, 99, 33.9667, 17.9102, 12.102, 6.83962, 106.659, -66.2033
7.07116, 99, 34.2751, 18.5551, 12.0037, 6.90032, 107.094, -65.4867
7.07914, 100, 34.5718, 19.1908, 11.9151, 6.97904, 107.516, -64.7735
7.08723, 100, 34.8573, 19.8168, 11.8361, 7.07487, 107.923, -64.0655
7.09519, 100, 35.1304, 20.4316, 11.766, 7.18697, 108.313, -63.3665
7.10308, 101, 35.3905, 21.0343, 11.7041, 7.31364, 108.686, -62.6761
7.11116, 101, 35.6375, 21.6236, 11.6506, 7.453, 109.043, -61.9952
7.11914, 102, 35.8706, 22.1986, 11.605, 7.60278, 109.382, -61.3266
7.1272, 102, 36.0906, 22.7592, 11.5669, 7.76079, 109.706, -60.6711
7.13537, 103, 36.301, 23.3045, 11.5364, 7.92528, 110.015, -60.0282
7.14346, 103, 36.505, 23.8345, 11.5139, 8.09601, 110.308, -59.3986
7.15204, 104, 36.7037, 24.3505, 11.4999, 8.27373, 110.586, -58.7831
7.16026, 104, 36.8969, 24.8524, 11.4933, 8.45925, 110.846, -58.1787
7.16751, 104, 37.0853, 25.34, 11.493, 8.65391, 111.087, -57.584
7.1757, 104, 37.2676, 25.814, 11.4989, 8.8573, 111.31, -56.9987
7.18422, 104, 37.4401, 26.2734, 11.5097, 9.0686, 111.514, -56.4232
7.19177, 104, 37.6015, 26.7181, 11.5238, 9.28633, 111.702, -55.8576
7.20021, 104, 37.7558, 27.1491, 11.5408, 9.50754, 111.876, -55.3046
7.20766, 104, 37.8317, 27.3595, 11.5503, 9.7297, 112.039, -54.7677
7.21606, 104, 38.0565, 27.969, 11.5808, 9.94997, 112.192, -54.2504
7.22309, 104, 38.13, 28.1646, 11.5911, 10.0588, 112.266, -53.9994
7.23217, 104, 38.3429, 28.7292, 11.6213, 10.3775, 112.475, -53.2792
7.23909, 104, 38.411, 28.9096, 11.6308, 10.4807, 112.541, -53.0509
7.24817, 104, 38.604, 29.425, 11.6579, 10.7791, 112.727, -52.4022
7.25505, 104, 38.6643, 29.5879, 11.6665, 10.8744, 112.785, -52.1986
7.26428, 104, 38.833, 30.0477, 11.6903, 11.1471, 112.949, -51.6244
7.27105, 104, 38.8853, 30.1918, 11.6977, 11.2331, 112.999, -51.4454
7.28048, 104, 39.0307, 30.5953, 11.7182, 11.4764, 113.14, -50.9473
7.28865, 104, 39.1178, 30.8396, 11.7303, 11.6253, 113.225, -50.6466
7.29665, 104, 39.1968, 31.0646, 11.7412, 11.7632, 113.301, -50.371
7.30458, 104, 39.2675, 31.2695, 11.7513, 11.8896, 113.372, -50.1208
7.31269, 104, 39.3302, 31.4547, 11.7607, 12.0042, 113.434, -49.8957
7.32069, 104, 39.3852, 31.6206, 11.7688, 12.1069, 113.49, -49.6956
7.32865, 104, 39.4337, 31.7671, 11.776, 12.1974, 113.538, -49.5207
7.33689, 104, 39.4556, 31.895, 11.7826, 12.2757, 113.58, -49.3704
7.34461, 104, 39.4951, 31.9523, 11.7857, 12.3101, 113.598, -49.3043
7.35208, 104, 39.5284, 32.0544, 11.7913, 12.3709, 113.63, -49.1893
7.36009, 104, 39.5558, 32.1401, 11.7962, 12.4195, 113.655, -49.0964
7.3681, 104, 39.5781, 32.211, 11.8007, 12.4573, 113.675, -49.0235
7.37605, 104, 39.596, 32.2689, 11.8047, 12.4863, 113.689, -48.9693
7.38307, 104, 39.6099, 32.3152, 11.8083, 12.5075, 113.7, -48.9304
7.39104, 104, 39.6208, 32.3512, 11.8116, 12.5223, 113.706, -48.9039
7.40006, 104, 39.6289, 32.378, 11.8145, 12.5321, 113.711, -48.8869
7.40705, 104, 39.6345, 32.398, 11.8171, 12.5382, 113.713, -48.8769
7.41605, 104, 39.638, 32.4125, 11.8192, 12.5416, 113.714, -48.8718
7.42404, 104, 39.6401, 32.4221, 11.8208, 12.5433, 113.715, -48.8695
7.43205, 105, 39.641, 32.428, 11.8219, 12.5442, 113.715, -48.8685
7.43904, 105, 39.6409, 32.4319, 11.8229, 12.5446, 113.715, -48.8681
7.44709, 105, 39.6402, 32.4345, 11.8238, 12.5449, 113.715, -48.8681
7.45608, 105, 39.6393, 32.4364, 11.8246, 12.545, 113.715, -48.8681
7.46405, 105, 39.6382, 32.4379, 11.8252, 12.5451, 113.715, -48.8683
7.47204, 105, 39.6368, 32.4392, 11.8257, 12.5451, 113.715, -48.8686
7.47906, 105, 39.6358, 32.4404, 11.8263, 12.5451, 113.715, -48.8688
7.48704, 105, 39.6353, 32.4416, 11.8268, 12.5451, 113.715, -48.8691
7.49614, 105, 39.6349, 32.4427, 11.8274, 12.5451, 113.715, -48.8695
7.50306, 105, 39.6346, 32.4438, 11.828, 12.5452, 113.715, -48.8697
7.51103, 105, 39.6344, 32.4447, 11.8285, 12.5452, 113.715, -48.87
7.52005, 105, 39.6341, 32.4454, 11.8289, 12.5451, 113.715, -48.8702
7.52809, 105, 39.6338, 32.446, 11.8292, 12.5451, 113.715, -48.8704
7.5361, 105, 39.6335, 32.4463, 11.8294, 12.5451, 113.715, -48.8706
7.54314, 105, 39.6333, 32.4465, 11.8297, 12.5451, 113.715, -48.8708
7.55117, 105, 39.633, 32.4466, 11.8299, 12.5451, 113.715, -48.8709
