hehonglu123/Motion-Primitive-Planning/ILC/recorded_data/realrobot/from_NX/iteration_25/run_2.csv
timestamp, cmd_num, J1, J2, J3, J4, J5, J6
0.000371, -1, 39.6288, 32.4466, 11.8313, 12.5436, 113.714, -48.8734
0.002836, -1, 39.6288, 32.4466, 11.8313, 12.5436, 113.714, -48.8735
0.008042, -1, 39.6288, 32.4466, 11.8313, 12.5436, 113.714, -48.8735
0.029324, -1, 39.6288, 32.4466, 11.8313, 12.5436, 113.714, -48.8734
0.032005, -1, 39.6288, 32.4466, 11.8313, 12.5436, 113.714, -48.8734
0.033243, -1, 39.6288, 32.4466, 11.8313, 12.5436, 113.714, -48.8734
0.039154, -1, 39.6288, 32.4466, 11.8313, 12.5437, 113.714, -48.8735
0.048024, -1, 39.6287, 32.4466, 11.8313, 12.5436, 113.714, -48.8734
0.055921, -1, 39.6282, 32.4465, 11.8312, 12.5436, 113.714, -48.8735
0.063933, -1, 39.6259, 32.4461, 11.8312, 12.5437, 113.714, -48.8735
0.072052, -1, 39.6207, 32.4448, 11.8312, 12.5436, 113.714, -48.8738
0.08002, -1, 39.6119, 32.4418, 11.8311, 12.5436, 113.714, -48.8752
0.087468, -1, 39.5986, 32.4366, 11.8311, 12.5436, 113.712, -48.8798
0.09608, -1, 39.5789, 32.428, 11.8311, 12.5436, 113.708, -48.8909
0.103502, -1, 39.5503, 32.4154, 11.8316, 12.5436, 113.701, -48.9113
0.111957, -1, 39.5119, 32.3979, 11.8336, 12.5436, 113.689, -48.9448
0.120128, -1, 39.4625, 32.3741, 11.8385, 12.5436, 113.67, -48.9952
0.126905, -1, 39.4331, 32.3598, 11.8422, 12.5436, 113.658, -49.0282
0.135942, -1, 39.325, 32.306, 11.8597, 12.5437, 113.605, -49.1613
0.144083, -1, 39.2359, 32.2603, 11.8775, 12.544, 113.559, -49.2813
0.150905, -1, 39.1861, 32.2346, 11.8882, 12.5442, 113.532, -49.3509
0.160139, -1, 39.0158, 32.1454, 11.9267, 12.5455, 113.435, -49.5966
0.166895, -1, 38.9521, 32.1119, 11.9415, 12.5462, 113.398, -49.6902
0.176236, -1, 38.7425, 32.0013, 11.9912, 12.549, 113.275, -50.0007
0.182944, -1, 38.6667, 31.9614, 12.0092, 12.55, 113.231, -50.1128
0.192611, -1, 38.4237, 31.8338, 12.0653, 12.5533, 113.09, -50.4683
0.200435, -1, 38.2515, 31.7436, 12.1041, 12.5558, 112.992, -50.7165
0.208441, -1, 38.073, 31.6505, 12.1432, 12.5582, 112.892, -50.9697
0.216716, -1, 37.8895, 31.5551, 12.182, 12.5607, 112.791, -51.2264
0.224503, -1, 37.7019, 31.4582, 12.2208, 12.5632, 112.689, -51.4848
0.23254, -1, 37.5116, 31.3605, 12.2596, 12.5656, 112.586, -51.7443
0.240524, -1, 37.4159, 31.3116, 12.279, 12.5668, 112.535, -52.0038
0.247896, -1, 37.224, 31.2136, 12.3178, 12.5693, 112.432, -52.1337
0.256601, -1, 37.0317, 31.1158, 12.3566, 12.5719, 112.329, -52.5235
0.263897, -1, 36.8395, 31.018, 12.3953, 12.5744, 112.226, -52.6537
0.271898, -1, 36.6477, 30.9202, 12.4341, 12.577, 112.123, -52.9142
0.28, -1, 36.4559, 30.8225, 12.473, 12.5795, 112.02, -53.1744
0.287894, -1, 36.2643, 30.7248, 12.5119, 12.5822, 111.917, -53.4348
0.295912, -1, 36.0727, 30.6269, 12.5507, 12.5847, 111.815, -53.6953
0.303938, -1, 35.8812, 30.529, 12.5897, 12.5873, 111.712, -53.9559
0.311926, -1, 35.6896, 30.431, 12.6286, 12.5898, 111.609, -54.2162
0.319899, -1, 35.4976, 30.3329, 12.6675, 12.5924, 111.506, -54.4766
0.327921, -1, 35.3055, 30.2346, 12.7062, 12.595, 111.402, -54.737
0.335911, -1, 35.113, 30.1363, 12.7451, 12.5976, 111.299, -54.9978
0.343965, -1, 34.9207, 30.0378, 12.784, 12.6002, 111.196, -55.2585
0.482516, -1, 31.5467, 28.3133, 13.4649, 12.6464, 109.392, -59.8262
0.483961, -1, 31.5467, 28.3133, 13.4649, 12.6464, 109.392, -59.8262
0.48515, -1, 31.5467, 28.3133, 13.4649, 12.6464, 109.392, -59.8262
0.487979, -1, 31.45, 28.264, 13.4844, 12.6479, 109.341, -59.9568
0.489312, -1, 31.45, 28.264, 13.4844, 12.6479, 109.341, -59.9568
0.491276, -1, 31.3535, 28.2147, 13.5038, 12.6492, 109.289, -60.0876
0.492586, -1, 31.3535, 28.2147, 13.5038, 12.6492, 109.289, -60.0876
0.49582, -1, 31.257, 28.1655, 13.5233, 12.6506, 109.238, -60.2183
0.4971, -1, 31.257, 28.1655, 13.5233, 12.6506, 109.238, -60.2183
0.499156, -1, 31.1607, 28.1162, 13.5429, 12.652, 109.187, -60.349
0.500394, -1, 31.1607, 28.1162, 13.5429, 12.652, 109.187, -60.349
0.501749, -1, 31.1607, 28.1162, 13.5429, 12.652, 109.187, -60.349
0.503835, -1, 31.0644, 28.067, 13.5624, 12.6535, 109.135, -60.4798
0.50503, -1, 31.0644, 28.067, 13.5624, 12.6535, 109.135, -60.4798
0.507106, -1, 30.9683, 28.0177, 13.582, 12.6549, 109.083, -60.6106
0.508616, -1, 30.9683, 28.0177, 13.582, 12.6549, 109.083, -60.6106
0.509941, -1, 30.9683, 28.0177, 13.582, 12.6549, 109.083, -60.6106
0.512752, -1, 30.8722, 27.9684, 13.6015, 12.6563, 109.032, -60.7413
0.513954, -1, 30.8722, 27.9684, 13.6015, 12.6563, 109.032, -60.7413
0.516086, -1, 30.7761, 27.9192, 13.6209, 12.6577, 108.98, -60.8719
0.517358, -1, 30.7761, 27.9192, 13.6209, 12.6577, 108.98, -60.8719
0.520184, -1, 30.6802, 27.8699, 13.6404, 12.6591, 108.928, -61.0025
0.528901, -1, 30.4883, 27.7713, 13.6795, 12.662, 108.825, -61.2638
0.535973, -1, 30.2963, 27.6726, 13.7184, 12.6647, 108.722, -61.5253
0.543977, -1, 30.1041, 27.5738, 13.7574, 12.6675, 108.619, -61.7871
0.551931, -1, 29.9116, 27.4751, 13.7964, 12.6702, 108.516, -62.0487
0.560609, -1, 29.7186, 27.3763, 13.8353, 12.6728, 108.412, -62.3103
0.568005, -1, 29.525, 27.2775, 13.8742, 12.6755, 108.309, -62.572
0.575978, -1, 29.331, 27.1788, 13.9132, 12.6781, 108.206, -62.8339
0.585145, -1, 29.1368, 27.0798, 13.9521, 12.6807, 108.102, -63.0955
0.592275, -1, 28.9423, 26.9809, 13.9911, 12.6833, 107.999, -63.3568
0.599614, -1, 28.7481, 26.882, 14.0301, 12.6858, 107.896, -63.6183
0.60799, -1, 28.554, 26.7832, 14.069, 12.6882, 107.792, -63.8801
0.616072, -1, 28.36, 26.6844, 14.1081, 12.6908, 107.689, -64.1419
0.623889, -1, 28.1666, 26.5857, 14.1471, 12.6932, 107.586, -64.4035
0.631973, -1, 27.9737, 26.4869, 14.1861, 12.6958, 107.482, -64.6653
0.63999, -1, 27.7808, 26.388, 14.2252, 12.6982, 107.379, -64.9272
0.774977, -1, 24.5922, 24.7571, 14.8681, 12.7366, 105.675, -69.2454
0.776881, -1, 24.496, 24.7076, 14.8876, 12.7378, 105.624, -69.3764
0.779116, -1, 24.496, 24.7076, 14.8876, 12.7378, 105.624, -69.3764
0.780943, -1, 24.3998, 24.6582, 14.9072, 12.739, 105.572, -69.5074
0.782384, -1, 24.3998, 24.6582, 14.9072, 12.739, 105.572, -69.5074
0.783757, -1, 24.3998, 24.6582, 14.9072, 12.739, 105.572, -69.5074
0.785838, -1, 24.3036, 24.6087, 14.9267, 12.7402, 105.52, -69.6382
0.789177, -1, 24.2073, 24.5593, 14.9462, 12.7414, 105.469, -69.7689
0.791184, -1, 24.2073, 24.5593, 14.9462, 12.7414, 105.469, -69.7689
0.793025, -1, 24.111, 24.5098, 14.9657, 12.7425, 105.417, -69.8996
0.794462, -1, 24.111, 24.5098, 14.9657, 12.7425, 105.417, -69.8996
0.795786, -1, 24.111, 24.5098, 14.9657, 12.7425, 105.417, -69.8996
0.798671, -1, 24.0146, 24.4604, 14.9852, 12.7436, 105.365, -70.0303
0.800022, -1, 24.0146, 24.4604, 14.9852, 12.7436, 105.365, -70.0303
0.802877, -1, 23.9183, 24.411, 15.0047, 12.7448, 105.314, -70.161
0.807959, -1, 23.8218, 24.3616, 15.0241, 12.7461, 105.262, -70.2918
0.810151, -1, 23.7254, 24.3122, 15.0436, 12.7473, 105.21, -70.4227
0.811391, -1, 23.7254, 24.3122, 15.0436, 12.7473, 105.21, -70.4227
0.813272, -1, 23.6289, 24.2627, 15.063, 12.7485, 105.158, -70.5536
0.814709, -1, 23.6289, 24.2627, 15.063, 12.7485, 105.158, -70.5536
0.816001, -1, 23.6289, 24.2627, 15.063, 12.7485, 105.158, -70.5536
0.818052, -1, 23.5323, 24.2133, 15.0825, 12.7497, 105.107, -70.6846
0.822891, -1, 23.4356, 24.1638, 15.102, 12.7509, 105.055, -70.8155
0.831897, -1, 23.242, 24.065, 15.1409, 12.7532, 104.952, -71.077
0.839922, -1, 23.0482, 23.9661, 15.1797, 12.7557, 104.848, -71.3388
0.847877, -1, 22.8543, 23.8672, 15.2187, 12.7581, 104.745, -71.6006
0.855868, -1, 22.6603, 23.7684, 15.2577, 12.7606, 104.641, -71.8625
0.863922, -1, 22.4665, 23.6697, 15.2966, 12.7631, 104.538, -72.124
0.874401, -1, 22.2732, 23.5711, 15.3356, 12.7655, 104.383, -72.5161
0.879883, -1, 22.08, 23.4723, 15.3745, 12.7682, 104.331, -72.6469
0.888858, -1, 21.887, 23.3736, 15.4135, 12.7708, 104.228, -72.9086
0.895886, -1, 21.6945, 23.2749, 15.4525, 12.7734, 104.125, -73.1699
0.903905, -1, 21.5024, 23.1761, 15.4914, 12.776, 104.022, -73.4314
0.911898, -1, 21.3101, 23.0773, 15.5303, 12.7787, 103.919, -73.6928
0.919868, -1, 21.1176, 22.9787, 15.5693, 12.7814, 103.816, -73.9545
0.927885, -1, 20.9251, 22.88, 15.6082, 12.784, 103.712, -74.2157
0.935891, -1, 20.7326, 22.7814, 15.6472, 12.7867, 103.609, -74.4768
0.943907, -1, 20.5399, 22.6828, 15.6861, 12.7895, 103.506, -74.7381
0.951897, -1, 20.3469, 22.5842, 15.7249, 12.7922, 103.403, -74.9995
0.959867, -1, 20.1532, 22.4854, 15.7639, 12.7949, 103.3, -75.2608
0.967914, -1, 19.9596, 22.3867, 15.8027, 12.7976, 103.197, -75.5219
0.975897, -1, 19.766, 22.2881, 15.8414, 12.8003, 103.094, -75.7831
0.983886, -1, 19.5723, 22.1895, 15.8804, 12.8031, 102.991, -76.0444
0.991899, -1, 19.379, 22.0908, 15.9192, 12.8059, 102.888, -76.3055
0.999924, -1, 19.186, 21.9922, 15.958, 12.8086, 102.785, -76.5664
1.00788, -1, 18.9932, 21.8935, 15.997, 12.8114, 102.682, -76.8272
1.01591, -1, 18.8007, 21.7949, 16.0358, 12.8141, 102.579, -77.0881
1.0239, -1, 18.6086, 21.6961, 16.0745, 12.8169, 102.476, -77.3492
1.03187, -1, 18.4168, 21.5975, 16.1135, 12.8195, 102.373, -77.61
1.0399, -1, 18.2249, 21.499, 16.1524, 12.8222, 102.27, -77.8708
1.04792, -1, 18.033, 21.4005, 16.1911, 12.8248, 102.168, -78.1315
1.05594, -1, 17.8411, 21.3022, 16.2301, 12.8273, 102.065, -78.3925
1.06393, -1, 17.6491, 21.2038, 16.2689, 12.8298, 101.962, -78.6531
1.07191, -1, 17.4567, 21.1056, 16.3077, 12.8324, 101.859, -78.9134
1.07999, -1, 17.2639, 21.0072, 16.3466, 12.8348, 101.755, -79.174
1.08801, -1, 17.0707, 20.9089, 16.3853, 12.8372, 101.653, -79.4347
1.09601, -1, 16.8777, 20.8107, 16.4241, 12.8396, 101.55, -79.6951
1.10401, -1, 16.6846, 20.7125, 16.4629, 12.8419, 101.447, -79.9556
1.11201, -1, 16.4916, 20.6143, 16.5015, 12.8443, 101.345, -80.216
1.11987, -1, 16.2987, 20.516, 16.5403, 12.8466, 101.242, -80.4767
1.12793, -1, 16.1064, 20.4176, 16.579, 12.849, 101.139, -80.7373
1.1362, -1, 15.9145, 20.3192, 16.6178, 12.8513, 101.037, -80.9973
1.1429, -1, 15.8186, 20.2699, 16.6371, 12.8524, 100.985, -81.1273
1.15205, -1, 15.5314, 20.1222, 16.6951, 12.856, 100.831, -81.5174
1.15886, -1, 15.4358, 20.0731, 16.7144, 12.8572, 100.78, -81.6475
1.16817, -1, 15.1491, 19.9257, 16.7726, 12.8606, 100.626, -82.0375
1.17491, -1, 15.0536, 19.8765, 16.7919, 12.8617, 100.575, -82.1674
1.18436, -1, 14.7667, 19.7293, 16.8499, 12.8651, 100.421, -82.5572
1.19232, -1, 14.5752, 19.6312, 16.8887, 12.8675, 100.318, -82.8174
1.19886, -1, 14.4794, 19.5821, 16.908, 12.8686, 100.267, -82.9472
1.20838, -1, 14.1911, 19.435, 16.9661, 12.8721, 100.113, -83.3365
1.21645, -1, 13.9988, 19.337, 17.0048, 12.8743, 100.011, -83.5961
1.22468, -1, 13.8064, 19.2392, 17.0433, 12.8766, 99.9082, -83.8557
1.23265, -1, 13.6139, 19.1414, 17.082, 12.8789, 99.8057, -84.1153
1.2405, -1, 13.5177, 19.0924, 17.1208, 12.8813, 99.703, -84.3745
1.2485, -1, 13.3255, 18.9945, 17.14, 12.8824, 99.6519, -84.6338
1.25585, -1, 13.1337, 18.8967, 17.1785, 12.8847, 99.5498, -84.7635
1.26389, -1, 12.9423, 18.7987, 17.2172, 12.8871, 99.4472, -85.0229
1.27188, -1, 12.7512, 18.7007, 17.2558, 12.8894, 99.3448, -85.2822
1.27986, -1, 12.5603, 18.6028, 17.2943, 12.8919, 99.2426, -85.541
1.28788, -1, 12.3699, 18.5051, 17.3329, 12.8943, 99.1402, -85.7999
1.29586, -1, 12.1798, 18.4073, 17.3714, 12.8966, 99.038, -86.059
1.30388, -1, 11.9896, 18.3097, 17.4099, 12.899, 98.936, -86.3178
1.31122, -1, 11.7992, 18.2121, 17.4486, 12.9014, 98.834, -86.5764
1.31885, -1, 11.6085, 18.1144, 17.4871, 12.9039, 98.7322, -86.835
1.32797, -1, 11.4176, 18.0167, 17.5256, 12.9063, 98.6302, -87.0935
1.33596, -1, 11.2264, 17.9192, 17.5642, 12.9087, 98.5283, -87.3522
1.34385, -1, 11.035, 17.8216, 17.6027, 12.9112, 98.4265, -87.6104
1.35185, -1, 10.8435, 17.7242, 17.6412, 12.9136, 98.3244, -87.8686
1.35965, -1, 10.6518, 17.6267, 17.6797, 12.9161, 98.2224, -88.1269
1.36786, -1, 10.4604, 17.5292, 17.7181, 12.9187, 98.1207, -88.3853
1.37585, -1, 10.2692, 17.4317, 17.7565, 12.9212, 98.0188, -88.6435
1.38589, -1, 9.98305, 17.2853, 17.8141, 12.9251, 97.8661, -89.0306
1.39189, -1, 9.88787, 17.2365, 17.8333, 12.9264, 97.8152, -89.1597
1.40085, -1, 9.69774, 17.139, 17.8716, 12.929, 97.7131, -89.4179
1.40766, -1, 9.50806, 17.0416, 17.91, 12.9319, 97.6111, -89.6761
1.41586, -1, 9.31875, 16.9442, 17.9483, 12.9346, 97.5094, -89.9336
1.42386, -1, 9.12945, 16.8469, 17.9867, 12.9372, 97.4075, -90.1911
1.43186, -1, 8.94008, 16.7497, 18.025, 12.9399, 97.3056, -90.4487
1.43985, -1, 8.7505, 16.6525, 18.0634, 12.9425, 97.204, -90.7064
1.44794, -1, 8.56088, 16.5553, 18.1018, 12.9451, 97.1023, -90.9634
1.45586, -1, 8.37115, 16.4583, 18.1402, 12.9478, 97.0008, -91.2206
1.46385, -1, 8.18087, 16.3613, 18.1785, 12.9505, 96.8993, -91.4778
1.47194, -1, 7.99038, 16.2644, 18.2168, 12.9531, 96.7977, -91.7351
1.47986, -1, 7.79994, 16.1675, 18.2551, 12.9558, 96.6963, -91.992
1.48789, -1, 7.60939, 16.0706, 18.2934, 12.9584, 96.5947, -92.2487
1.49592, -1, 7.41896, 15.9737, 18.3317, 12.961, 96.4933, -92.5055
1.50387, -1, 7.22886, 15.8768, 18.3698, 12.9636, 96.392, -92.7623
1.51185, -1, 7.03901, 15.7798, 18.4081, 12.9662, 96.2907, -93.0191
1.51991, -1, 6.84954, 15.6828, 18.4464, 12.9687, 96.1894, -93.2755
1.52788, -1, 6.66057, 15.586, 18.4845, 12.9713, 96.0888, -93.5318
1.5359, -1, 6.47205, 15.4892, 18.5226, 12.9738, 95.9876, -93.7882
1.54387, -1, 6.28376, 15.3924, 18.5608, 12.9763, 95.8865, -94.0447
1.55206, -1, 6.09568, 15.2957, 18.5989, 12.9788, 95.7858, -94.3006
1.55989, -1, 5.90743, 15.199, 18.637, 12.9812, 95.6846, -94.5566
1.5679, -1, 5.71901, 15.1023, 18.6752, 12.9835, 95.5837, -94.8125
1.57675, -1, 5.53055, 15.0057, 18.7132, 12.9859, 95.4831, -95.0685
1.58394, -1, 5.34178, 14.9091, 18.7514, 12.9882, 95.3822, -95.3242
1.59195, -1, 5.1526, 14.8127, 18.7895, 12.9904, 95.2815, -95.5795
1.6007, -1, 4.96327, 14.7164, 18.8275, 12.9927, 95.181, -95.835
1.60797, -1, 4.77394, 14.62, 18.8656, 12.995, 95.0802, -96.0907
1.61598, -1, 4.58451, 14.5236, 18.9036, 12.9972, 94.9794, -96.3459
1.62485, -1, 4.48993, 14.4755, 18.9226, 12.9983, 94.8787, -96.6008
1.63186, -1, 4.20643, 14.3309, 18.9796, 13.0016, 94.7778, -96.8557
1.63995, -1, 4.01771, 14.2345, 19.0176, 13.0039, 94.6769, -97.1108
1.64792, -1, 3.82972, 14.1384, 19.0555, 13.0062, 94.5763, -97.3659
1.65599, -1, 3.64214, 14.0422, 19.0935, 13.0084, 94.4754, -97.6205
1.66285, -1, 3.54848, 13.9941, 19.1125, 13.0096, 94.4251, -97.7478
1.67089, -1, 3.36149, 13.898, 19.1503, 13.0119, 94.3246, -98.0025
1.68047, -1, 3.08096, 13.7539, 19.2071, 13.0153, 94.1734, -98.3847
1.68907, -1, 2.89396, 13.6578, 19.245, 13.0176, 94.0729, -98.639
1.69626, -1, 2.70684, 13.5618, 19.2829, 13.0198, 93.9722, -98.8931
1.70284, -1, 2.61321, 13.5138, 19.3019, 13.021, 93.9219, -99.0201
1.71321, -1, 2.33208, 13.3699, 19.3586, 13.0244, 93.7715, -99.4014
1.71893, -1, 2.2382, 13.322, 19.3775, 13.0255, 93.7213, -99.5285
1.72847, -1, 1.95613, 13.1783, 19.4343, 13.0289, 93.5709, -99.9091
1.73735, -1, 1.86212, 13.0824, 19.472, 13.0312, 93.471, -100.163
1.74292, -1, 1.67395, 13.0345, 19.4909, 13.0323, 93.421, -100.289
1.75244, -1, 1.48577, 12.9387, 19.5287, 13.0345, 93.3208, -100.67
1.75984, -1, 1.29782, 12.8429, 19.5664, 13.0368, 93.2208, -100.797
1.76692, -1, 1.11019, 12.7471, 19.6041, 13.0391, 93.1208, -101.05
1.77588, -1, 0.923072, 12.6515, 19.6419, 13.0415, 93.0207, -101.303
1.78386, -1, 0.736556, 12.5559, 19.6796, 13.0439, 92.9209, -101.556
1.79091, -1, 0.550429, 12.4603, 19.7171, 13.0463, 92.8212, -101.809
1.79987, -1, 0.364623, 12.3649, 19.7548, 13.0488, 92.7214, -102.062
1.80784, -1, 0.179051, 12.2696, 19.7925, 13.0513, 92.622, -102.314
1.81486, -1, -0.00638902, 12.1742, 19.83, 13.0537, 92.5224, -102.567
1.82386, -1, -0.191969, 12.0789, 19.8677, 13.0561, 92.4228, -102.82
1.83183, -1, -0.377721, 11.9837, 19.9053, 13.0585, 92.3234, -103.072
1.83884, -1, -0.563778, 11.8886, 19.9428, 13.0611, 92.2239, -103.324
1.84784, -1, -0.750141, 11.7936, 19.9804, 13.0635, 92.1244, -103.576
1.85584, -1, -0.936604, 11.6986, 20.0179, 13.066, 92.0251, -103.828
1.86284, -1, -1.12331, 11.6035, 20.0553, 13.0686, 91.9257, -104.08
1.87184, -1, -1.31027, 11.5085, 20.0929, 13.0711, 91.8264, -104.332
1.88084, -1, -1.49707, 11.4134, 20.1304, 13.0736, 91.7273, -104.583
1.88687, -1, -1.68365, 11.3182, 20.1678, 13.0762, 91.6281, -104.835
1.89587, -1, -1.86989, 11.2232, 20.2053, 13.0788, 91.5288, -105.086
1.90484, -1, -2.05572, 11.1282, 20.2427, 13.0814, 91.4298, -105.338
1.91084, -1, -2.24083, 11.0333, 20.28, 13.0841, 91.3305, -105.588
1.91985, -1, -2.42566, 10.9385, 20.3174, 13.0868, 91.2313, -105.839
1.92785, -1, -2.61011, 10.8437, 20.3547, 13.0894, 91.1324, -106.09
1.93585, -1, -2.79406, 10.7489, 20.392, 13.0921, 91.0332, -106.341
1.94384, -1, -2.97799, 10.6541, 20.4294, 13.0947, 90.9341, -106.592
1.95192, -1, -3.16213, 10.5594, 20.4668, 13.0973, 90.8354, -106.842
1.95984, -1, -3.3464, 10.4649, 20.5039, 13.0999, 90.7363, -107.093
1.96784, -1, -3.5311, 10.3704, 20.5412, 13.1025, 90.6374, -107.344
1.97591, -1, -3.71583, 10.2761, 20.5785, 13.105, 90.5388, -107.594
1.98383, -1, -3.9009, 10.1817, 20.6157, 13.1074, 90.4398, -107.844
1.99186, -1, -4.08623, 10.0873, 20.653, 13.1099, 90.3411, -108.094
1.9999, -1, -4.27175, 9.99304, 20.6901, 13.1124, 90.2427, -108.344
2.00786, -1, -4.45729, 9.8987, 20.7273, 13.1147, 90.1439, -108.594
2.01592, -1, -4.64253, 9.80437, 20.7646, 13.1171, 90.0455, -108.843
2.02384, -1, -4.82745, 9.71013, 20.8017, 13.1195, 89.9471, -109.092
2.03183, -1, -5.01205, 9.61601, 20.8387, 13.1219, 89.8486, -109.342
2.03991, -1, -5.19581, 9.52196, 20.8759, 13.1242, 89.7502, -109.591
2.04784, -1, -5.37918, 9.4279, 20.913, 13.1265, 89.6519, -109.84
2.05584, -1, -5.5621, 9.33399, 20.9501, 13.1289, 89.5533, -110.089
2.06395, -1, -5.74465, 9.24008, 20.9872, 13.1312, 89.4551, -110.338
2.07188, -1, -5.92705, 9.14616, 21.0242, 13.1335, 89.3571, -110.587
2.0799, -1, -6.10952, 9.05231, 21.0611, 13.1356, 89.2588, -110.835
2.08807, -1, -6.29224, 8.95852, 21.0982, 13.1379, 89.1608, -111.084
2.09593, -1, -6.47523, 8.86486, 21.1352, 13.1402, 89.0631, -111.332
2.10393, -1, -6.65828, 8.77121, 21.1719, 13.1424, 88.965, -111.58
2.11201, -1, -6.8418, 8.67759, 21.2089, 13.1445, 88.8671, -111.829
2.11996, -1, -7.02567, 8.58396, 21.2458, 13.1467, 88.7693, -112.076
2.12785, -1, -7.20985, 8.49039, 21.2827, 13.1487, 88.6714, -112.324
2.13601, -1, -7.39408, 8.39676, 21.3196, 13.1508, 88.5735, -112.571
2.14283, -1, -7.48602, 8.34992, 21.3381, 13.1519, 88.5248, -112.695
2.15221, -1, -7.76137, 8.2097, 21.3932, 13.1552, 88.3784, -113.066
2.15884, -1, -7.85296, 8.16298, 21.4116, 13.1563, 88.3297, -113.19
2.16802, -1, -8.12701, 8.0229, 21.4669, 13.1597, 88.1838, -113.561
2.17483, -1, -8.21799, 7.97626, 21.4852, 13.1608, 88.135, -113.684
2.18416, -1, -8.4902, 7.83637, 21.5405, 13.1641, 87.9889, -114.055
2.19088, -1, -8.5808, 7.78975, 21.5589, 13.1652, 87.9403, -114.178
2.20061, -1, -8.85204, 7.64999, 21.614, 13.1687, 87.7941, -114.548
2.20837, -1, -9.03278, 7.55692, 21.6508, 13.1708, 87.6967, -114.794
2.21648, -1, -9.21386, 7.46389, 21.6875, 13.1732, 87.5995, -115.041
2.22446, -1, -9.39517, 7.37107, 21.7241, 13.1754, 87.5023, -115.287
2.23242, -1, -9.57679, 7.27824, 21.7609, 13.1775, 87.4052, -115.533
2.24041, -1, -9.66774, 7.2318, 21.7975, 13.1798, 87.3082, -115.779
2.24868, -1, -9.84987, 7.13904, 21.834, 13.182, 87.2109, -116.025
2.25583, -1, -10.0323, 7.04632, 21.8523, 13.1831, 87.1623, -116.149
2.26382, -1, -10.2149, 6.95354, 21.889, 13.1853, 87.0653, -116.394
2.27187, -1, -10.3975, 6.86078, 21.9256, 13.1875, 86.9679, -116.64
2.27983, -1, -10.58, 6.76805, 21.9621, 13.1897, 86.8708, -116.885
2.28785, -1, -10.7619, 6.6754, 21.9987, 13.192, 86.774, -117.131
2.29583, -1, -10.9435, 6.58278, 22.0351, 13.1946, 86.677, -117.376
2.30384, -1, -11.1244, 6.49019, 22.0716, 13.197, 86.5803, -117.621
2.31187, -1, -11.3045, 6.3977, 22.1082, 13.1993, 86.4838, -117.866
2.31983, -1, -11.4843, 6.30519, 22.1446, 13.2018, 86.3869, -118.111
2.32787, -1, -11.6637, 6.21275, 22.1811, 13.2042, 86.2903, -118.356
2.33587, -1, -11.843, 6.12038, 22.2176, 13.2067, 86.1938, -118.6
2.34384, -1, -12.0223, 6.02808, 22.2541, 13.2091, 86.0971, -118.844
2.35183, -1, -12.2016, 5.9359, 22.2905, 13.2116, 86.0005, -119.089
2.35988, -1, -12.3813, 5.84389, 22.327, 13.2141, 85.9043, -119.333
2.36783, -1, -12.5614, 5.75186, 22.3632, 13.2165, 85.8079, -119.577
2.37582, -1, -12.7419, 5.65984, 22.3995, 13.219, 85.7116, -119.821
2.38385, -1, -12.9227, 5.56794, 22.4359, 13.2215, 85.6157, -120.065
2.39182, -1, -13.1039, 5.47599, 22.4722, 13.2239, 85.5197, -120.308
2.40082, -1, -13.2851, 5.38397, 22.5084, 13.2263, 85.4237, -120.552
2.40684, -1, -13.4662, 5.29204, 22.5448, 13.2288, 85.3279, -120.796
2.41582, -1, -13.6468, 5.20014, 22.5809, 13.2314, 85.2321, -121.039
2.42383, -1, -13.827, 5.10831, 22.617, 13.234, 85.1363, -121.282
2.43182, -1, -14.0066, 5.01648, 22.6533, 13.2366, 85.0407, -121.525
2.43982, -1, -14.1853, 4.92477, 22.6894, 13.2391, 84.9451, -121.768
2.44791, -1, -14.3635, 4.83307, 22.7255, 13.2417, 84.8495, -122.01
2.45584, -1, -14.5415, 4.74141, 22.7618, 13.2442, 84.754, -122.253
2.46382, -1, -14.7192, 4.6498, 22.798, 13.2467, 84.6583, -122.495
2.47191, -1, -14.8968, 4.5583, 22.834, 13.2492, 84.5625, -122.738
2.47982, -1, -15.0745, 4.46686, 22.8702, 13.2517, 84.4669, -122.98
2.48789, -1, -15.2525, 4.37557, 22.9063, 13.2542, 84.3712, -123.222
2.49592, -1, -15.4309, 4.28424, 22.9423, 13.2566, 84.2756, -123.464
2.50382, -1, -15.6098, 4.19293, 22.9784, 13.2589, 84.18, -123.706
2.51184, -1, -15.789, 4.10167, 23.0144, 13.2612, 84.0844, -123.947
2.5199, -1, -15.9682, 4.01044, 23.0503, 13.2634, 83.989, -124.189
2.52784, -1, -16.1479, 3.91918, 23.0864, 13.2656, 83.8936, -124.43
2.53585, -1, -16.3276, 3.82794, 23.1224, 13.2677, 83.7982, -124.672
2.5439, -1, -16.507, 3.73675, 23.1582, 13.2699, 83.7027, -124.913
2.55182, -1, -16.686, 3.64562, 23.194, 13.2721, 83.6073, -125.155
2.55986, -1, -16.8644, 3.55454, 23.2299, 13.2745, 83.5119, -125.396
2.56897, -1, -17.042, 3.46354, 23.2657, 13.2768, 83.4166, -125.636
2.57586, -1, -17.2189, 3.37258, 23.3016, 13.2789, 83.3213, -125.877
2.58395, -1, -17.3954, 3.28171, 23.3374, 13.2811, 83.2263, -126.118
2.59273, -1, -17.5717, 3.19084, 23.3731, 13.2832, 83.1312, -126.358
2.59992, -1, -17.7478, 3.10017, 23.409, 13.2854, 83.0364, -126.598
2.608, -1, -17.9237, 3.00959, 23.4449, 13.2874, 82.9417, -126.838
2.61673, -1, -18.0999, 2.91912, 23.4806, 13.2896, 82.8467, -127.079
2.62395, -1, -18.2765, 2.82872, 23.5164, 13.2918, 82.752, -127.319
2.63194, -1, -18.4534, 2.73827, 23.5521, 13.2938, 82.6575, -127.559
2.64076, -1, -18.6309, 2.64788, 23.5878, 13.2958, 82.5627, -127.798
2.64787, -1, -18.8086, 2.55754, 23.6234, 13.2979, 82.4681, -128.038
2.65598, -1, -18.9866, 2.46706, 23.6592, 13.2999, 82.3738, -128.277
2.66485, -1, -19.1649, 2.37654, 23.6947, 13.3019, 82.2793, -128.517
2.67232, -1, -19.343, 2.28619, 23.7303, 13.3039, 82.1849, -128.756
2.68019, -1, -19.5207, 2.19581, 23.7659, 13.306, 82.0911, -128.995
2.68684, -1, -19.6093, 2.15059, 23.7837, 13.3072, 82.0439, -129.114
2.69482, -1, -19.7861, 2.06024, 23.8191, 13.3093, 81.9497, -129.353
2.70429, -1, -20.0501, 1.92482, 23.8724, 13.3125, 81.8086, -129.712
2.71233, -1, -20.2253, 1.83458, 23.9079, 13.3148, 81.7144, -129.95
2.71882, -1, -20.3128, 1.78951, 23.9256, 13.3159, 81.6674, -130.069
2.7284, -1, -20.5748, 1.65434, 23.9789, 13.3191, 81.5266, -130.427
2.73737, -1, -20.7492, 1.56437, 24.0143, 13.3213, 81.4325, -130.665
2.74454, -1, -20.9238, 1.47447, 24.0497, 13.3236, 81.3388, -130.903
2.75239, -1, -21.0113, 1.42959, 24.0674, 13.3246, 81.292, -131.022
2.7598, -1, -21.1865, 1.33985, 24.103, 13.3268, 81.1984, -131.26
2.76787, -1, -21.362, 1.25009, 24.1383, 13.329, 81.1044, -131.498
2.77581, -1, -21.5379, 1.16044, 24.1736, 13.3311, 81.0105, -131.736
2.78381, -1, -21.714, 1.07081, 24.209, 13.3333, 80.9168, -131.973
2.7931, -1, -21.9786, 0.936316, 24.2621, 13.3366, 80.776, -132.329
2.79891, -1, -22.0668, 0.89153, 24.2797, 13.3376, 80.7291, -132.448
2.80791, -1, -22.2434, 0.801967, 24.3151, 13.3398, 80.6357, -132.685
2.81481, -1, -22.4198, 0.712458, 24.3504, 13.342, 80.5419, -132.922
2.82381, -1, -22.5956, 0.622947, 24.3855, 13.3443, 80.4483, -133.159
2.83187, -1, -22.771, 0.533523, 24.4207, 13.3467, 80.3549, -133.396
2.83882, -1, -22.9454, 0.444105, 24.456, 13.3492, 80.2611, -133.633
2.84783, -1, -23.1192, 0.354707, 24.4911, 13.3516, 80.1677, -133.87
2.85587, -1, -23.2926, 0.265402, 24.5263, 13.3541, 80.0743, -134.106
2.86281, -1, -23.4657, 0.176118, 24.5615, 13.3565, 79.9807, -134.343
2.87181, -1, -23.6389, 0.0869629, 24.5966, 13.3589, 79.8874, -134.579
2.88081, -1, -23.8123, -0.00213729, 24.6318, 13.3612, 79.7942, -134.815
2.8878, -1, -23.9857, -0.0911217, 24.667, 13.3637, 79.701, -135.051
2.89682, -1, -24.1593, -0.180105, 24.702, 13.3661, 79.6079, -135.287
2.90392, -1, -24.3333, -0.269084, 24.7371, 13.3686, 79.515, -135.522
2.91181, -1, -24.5075, -0.357966, 24.7723, 13.371, 79.4219, -135.758
2.91981, -1, -24.6821, -0.446842, 24.8073, 13.3734, 79.3288, -135.994
2.92788, -1, -24.8571, -0.535736, 24.8423, 13.3758, 79.2358, -136.229
2.93581, -1, -25.0322, -0.624565, 24.8776, 13.3782, 79.1428, -136.464
2.94381, -1, -25.2072, -0.713341, 24.9126, 13.3806, 79.0498, -136.699
2.95187, -1, -25.3817, -0.802074, 24.9475, 13.383, 78.9571, -136.935
2.95983, -1, -25.5559, -0.890897, 24.9826, 13.3855, 78.8645, -137.17
2.96782, -1, -25.7294, -0.979606, 25.0175, 13.3879, 78.7717, -137.404
2.97588, -1, -25.9023, -1.06829, 25.0524, 13.3903, 78.6792, -137.639
2.98381, -1, -26.0748, -1.15699, 25.0875, 13.3928, 78.5869, -137.874
2.99187, -1, -26.2469, -1.24564, 25.1224, 13.3952, 78.4941, -138.108
2.99985, -1, -26.4186, -1.33415, 25.1572, 13.3976, 78.4016, -138.343
3.00781, -1, -26.5904, -1.42256, 25.1922, 13.3999, 78.3093, -138.577
3.01589, -1, -26.7624, -1.51089, 25.2271, 13.4021, 78.2166, -138.811
3.0238, -1, -26.9347, -1.59907, 25.262, 13.4044, 78.1242, -139.045
3.0318, -1, -27.1071, -1.68724, 25.2968, 13.4066, 78.0322, -139.279
3.03988, -1, -27.2797, -1.77553, 25.3318, 13.4088, 77.9399, -139.513
3.04781, -1, -27.4526, -1.86361, 25.3665, 13.4109, 77.8479, -139.747
3.05581, -1, -27.6258, -1.95171, 25.4013, 13.413, 77.756, -139.98
3.06387, -1, -27.799, -2.03994, 25.4362, 13.4151, 77.6639, -140.213
3.07185, -1, -27.9724, -2.12796, 25.471, 13.4172, 77.5719, -140.447
3.07984, -1, -28.1457, -2.21601, 25.5057, 13.4193, 77.4799, -140.68
3.08795, -1, -28.3188, -2.30404, 25.5406, 13.4214, 77.3878, -140.913
3.09591, -1, -28.4916, -2.39208, 25.5753, 13.4235, 77.2956, -141.146
3.10397, -1, -28.664, -2.48003, 25.61, 13.4256, 77.2036, -141.379
3.11191, -1, -28.8357, -2.56801, 25.6447, 13.4277, 77.1116, -141.612
3.11991, -1, -29.0066, -2.65598, 25.6794, 13.4299, 77.0197, -141.845
3.12801, -1, -29.1773, -2.74385, 25.7139, 13.4321, 76.9277, -142.077
3.13582, -1, -29.3479, -2.8317, 25.7486, 13.4341, 76.8361, -142.31
3.14385, -1, -29.5186, -2.91938, 25.7834, 13.4362, 76.7441, -142.542
3.15193, -1, -29.6894, -3.00697, 25.8179, 13.4383, 76.6522, -142.775
3.15985, -1, -29.8605, -3.09453, 25.8525, 13.4403, 76.5606, -143.007
3.16809, -1, -30.0315, -3.182, 25.8871, 13.4425, 76.4686, -143.239
3.1748, -1, -30.1169, -3.22575, 25.9044, 13.4435, 76.4228, -143.355
3.18285, -1, -30.288, -3.31325, 25.9389, 13.4455, 76.3311, -143.587
3.19231, -1, -30.5452, -3.44438, 25.9908, 13.4486, 76.1938, -143.935
3.20104, -1, -30.717, -3.53193, 26.0252, 13.4507, 76.1025, -144.167
3.20825, -1, -30.8889, -3.61925, 26.0597, 13.4527, 76.0112, -144.398
3.21479, -1, -30.9748, -3.66295, 26.077, 13.4537, 75.9656, -144.513
3.22517, -1, -31.2323, -3.79397, 26.1287, 13.4568, 75.8284, -144.86
3.23088, -1, -31.318, -3.83764, 26.1459, 13.4578, 75.7827, -144.976
3.24043, -1, -31.5744, -3.96857, 26.1976, 13.461, 75.6458, -145.323
3.24923, -1, -31.6597, -4.01218, 26.2148, 13.4631, 75.5545, -145.554
3.25486, -1, -31.83, -4.09948, 26.2491, 13.4642, 75.5089, -145.669
3.26487, -1, -32.0846, -4.23028, 26.3007, 13.4675, 75.3724, -146.016
3.27182, -1, -32.1693, -4.27385, 26.318, 13.4686, 75.3268, -146.131
3.27885, -1, -32.3386, -4.36097, 26.3523, 13.4708, 75.2357, -146.362
3.28784, -1, -32.5082, -4.44794, 26.3865, 13.473, 75.145, -146.592
3.29588, -1, -32.6779, -4.53486, 26.4209, 13.4751, 75.054, -146.823
3.30383, -1, -32.8475, -4.62177, 26.4553, 13.4773, 74.9632, -147.053
3.31184, -1, -33.0172, -4.70869, 26.4894, 13.4794, 74.8724, -147.284
3.3198, -1, -33.187, -4.79559, 26.5237, 13.4816, 74.7819, -147.514
3.32681, -1, -33.3569, -4.8824, 26.558, 13.4838, 74.6911, -147.744
3.33581, -1, -33.5272, -4.96938, 26.5922, 13.4861, 74.6005, -147.973
3.3438, -1, -33.6975, -5.05624, 26.6265, 13.4883, 74.5103, -148.203
3.35079, -1, -33.8678, -5.14297, 26.6608, 13.4905, 74.4195, -148.433
3.35979, -1, -34.038, -5.22968, 26.6949, 13.4927, 74.329, -148.663
3.3678, -1, -34.2081, -5.31644, 26.729, 13.495, 74.2386, -148.892
3.37481, -1, -34.3783, -5.40308, 26.7633, 13.4973, 74.1479, -149.121
3.38386, -1, -34.548, -5.4897, 26.7974, 13.4997, 74.0573, -149.351
3.39182, -1, -34.7173, -5.57638, 26.8315, 13.502, 73.9668, -149.58
3.40081, -1, -34.886, -5.66299, 26.8657, 13.5044, 73.8762, -149.809
3.40783, -1, -35.0544, -5.7495, 26.8998, 13.5069, 73.7857, -150.038
3.41579, -1, -35.2226, -5.83596, 26.9338, 13.5093, 73.6954, -150.267
3.42379, -1, -35.391, -5.9223, 26.9679, 13.5117, 73.605, -150.496
3.43181, -1, -35.5595, -6.00849, 27.0021, 13.5141, 73.5148, -150.725
3.43997, -1, -35.728, -6.09475, 27.036, 13.5164, 73.4244, -150.954
3.4478, -1, -35.8966, -6.18096, 27.07, 13.5189, 73.3342, -151.182
3.45579, -1, -36.0651, -6.26711, 27.1041, 13.5213, 73.2437, -151.411
3.46461, -1, -36.2336, -6.35326, 27.1381, 13.5236, 73.1532, -151.639
3.47179, -1, -36.4023, -6.43951, 27.172, 13.5261, 73.063, -151.868
3.47981, -1, -36.5712, -6.52574, 27.206, 13.5284, 72.9725, -152.096
3.48859, -1, -36.74, -6.61191, 27.2399, 13.5307, 72.8823, -152.324
3.49686, -1, -36.909, -6.69808, 27.2738, 13.5331, 72.7923, -152.552
3.50381, -1, -37.078, -6.78425, 27.3077, 13.5353, 72.7021, -152.78
3.51565, -1, -37.331, -6.91339, 27.3585, 13.5387, 72.5672, -153.122
3.51982, -1, -37.4152, -6.95639, 27.3754, 13.5398, 72.5224, -153.236
3.5278, -1, -37.5834, -7.04248, 27.4094, 13.5421, 72.4324, -153.463
3.53585, -1, -37.7511, -7.12848, 27.4433, 13.5444, 72.3426, -153.691
3.54379, -1, -37.9187, -7.21447, 27.4771, 13.5466, 72.2528, -153.919
3.55179, -1, -38.0862, -7.30037, 27.5109, 13.5488, 72.1631, -154.146
3.55986, -1, -38.2537, -7.38625, 27.5449, 13.551, 72.0733, -154.373
3.56781, -1, -38.421, -7.472, 27.5786, 13.5531, 71.9836, -154.6
3.57606, -1, -38.5882, -7.55771, 27.6125, 13.5552, 71.8942, -154.828
3.58384, -1, -38.7555, -7.64346, 27.6463, 13.5573, 71.8044, -155.055
3.5919, -1, -38.9228, -7.72916, 27.6801, 13.5594, 71.7149, -155.282
3.60029, -1, -39.0902, -7.81481, 27.7138, 13.5615, 71.6258, -155.509
3.60734, -1, -39.2577, -7.9005, 27.7476, 13.5635, 71.5363, -155.736
3.61589, -1, -39.4252, -7.98618, 27.7814, 13.5655, 71.447, -155.962
3.62441, -1, -39.5927, -8.07173, 27.815, 13.5674, 71.3577, -156.189
3.63187, -1, -39.7605, -8.15726, 27.8487, 13.5694, 71.2682, -156.416
3.63981, -1, -39.9281, -8.24274, 27.8825, 13.5713, 71.1789, -156.642
3.64862, -1, -40.0956, -8.32816, 27.9161, 13.5733, 71.0895, -156.868
3.65583, -1, -40.2631, -8.41352, 27.9498, 13.5753, 71.0005, -157.095
3.66388, -1, -40.4303, -8.4989, 27.9836, 13.5772, 70.911, -157.321
3.67288, -1, -40.5973, -8.58426, 28.0172, 13.5792, 70.8219, -157.547
3.68005, -1, -40.7642, -8.66968, 28.0508, 13.5811, 70.7328, -157.773
3.68677, -1, -40.8475, -8.71237, 28.0676, 13.5821, 70.6882, -157.886
3.69703, -1, -41.0972, -8.84037, 28.1182, 13.5853, 70.5544, -158.225
3.70284, -1, -41.1803, -8.88304, 28.135, 13.5863, 70.5099, -158.338
3.71232, -1, -41.4296, -9.01078, 28.1854, 13.5892, 70.3761, -158.676
3.7212, -1, -41.5959, -9.09597, 28.2191, 13.5912, 70.287, -158.901
3.72684, -1, -41.6791, -9.13853, 28.2359, 13.5922, 70.2423, -159.014
3.7364, -1, -41.9286, -9.26609, 28.2862, 13.5953, 70.1088, -159.352
3.74532, -1, -42.095, -9.35111, 28.3199, 13.5973, 70.0198, -159.578
3.75088, -1, -42.1781, -9.39364, 28.3367, 13.5983, 69.9752, -159.691
3.76044, -1, -42.3443, -9.47873, 28.3702, 13.6004, 69.8865, -160.029
3.76778, -1, -42.5106, -9.56365, 28.4037, 13.6024, 69.7974, -160.141
3.77484, -1, -42.677, -9.64863, 28.4373, 13.6044, 69.7086, -160.366
3.78383, -1, -42.8434, -9.73359, 28.4708, 13.6064, 69.6197, -160.591
3.79178, -1, -43.0099, -9.81847, 28.5042, 13.6085, 69.531, -160.817
3.7998, -1, -43.1762, -9.90339, 28.5378, 13.6105, 69.4422, -161.041
3.80681, -1, -43.3423, -9.98833, 28.5713, 13.6126, 69.3535, -161.266
3.81579, -1, -43.5085, -10.0733, 28.6047, 13.6147, 69.2651, -161.491
3.82378, -1, -43.6743, -10.1582, 28.6383, 13.6168, 69.1763, -161.716
3.83078, -1, -43.8402, -10.2431, 28.6717, 13.6189, 69.0879, -161.94
3.83978, -1, -44.0059, -10.3279, 28.7051, 13.6211, 68.9996, -162.165
3.84778, -1, -44.1714, -10.4127, 28.7386, 13.6232, 68.9108, -162.389
3.85588, -1, -44.3366, -10.4974, 28.7721, 13.6254, 68.8222, -162.613
3.86378, -1, -44.5018, -10.5819, 28.8054, 13.6276, 68.7337, -162.838
3.87177, -1, -44.6669, -10.6665, 28.8388, 13.6298, 68.6449, -163.062
3.88139, -1, -44.8322, -10.751, 28.8723, 13.6319, 68.5564, -163.398
3.88778, -1, -44.9975, -10.8353, 28.9057, 13.6342, 68.468, -163.51
3.89678, -1, -45.1628, -10.9199, 28.9391, 13.6364, 68.3797, -163.734
3.90387, -1, -45.3281, -11.0044, 28.9725, 13.6386, 68.2912, -163.958
3.91285, -1, -45.4933, -11.0888, 29.0058, 13.6409, 68.2027, -164.182
3.91977, -1, -45.6586, -11.1732, 29.039, 13.6432, 68.1148, -164.406
3.92785, -1, -45.8239, -11.2576, 29.0723, 13.6455, 68.0261, -164.629
3.93578, -1, -45.9882, -11.3415, 29.1058, 13.6478, 67.9378, -164.853
3.94377, -1, -46.1495, -11.4238, 29.1392, 13.65, 67.8497, -165.076
3.95184, -1, -46.3065, -11.5032, 29.1728, 13.6525, 67.7623, -165.297
3.95977, -1, -46.4567, -11.5782, 29.2063, 13.6548, 67.6772, -165.513
3.96779, -1, -46.5978, -11.648, 29.2385, 13.6572, 67.5957, -165.718
3.97585, -1, -46.7272, -11.7113, 29.2684, 13.6594, 67.5211, -165.908
3.9838, -1, -46.8421, -11.7673, 29.2947, 13.6614, 67.4542, -166.076
3.99177, -1, -46.9407, -11.8164, 29.3167, 13.6631, 67.3986, -166.218
3.99984, -1, -47.023, -11.8592, 29.3333, 13.6643, 67.3539, -166.33
4.00777, -1, -47.09, -11.8959, 29.3445, 13.6651, 67.3204, -166.415
4.01579, -1, -47.1422, -11.9252, 29.3517, 13.6655, 67.2972, -166.473
4.02386, -1, -47.181, -11.9472, 29.3556, 13.6657, 67.2823, -166.511
4.03177, -1, -47.2085, -11.9626, 29.3573, 13.6658, 67.2736, -166.533
4.03977, -1, -47.2265, -11.9726, 29.3582, 13.6659, 67.2689, -166.545
4.04806, -1, -47.2373, -11.9784, 29.3586, 13.6659, 67.2666, -166.551
4.05579, 2, -47.2429, -11.9813, 29.3588, 13.666, 67.2654, -166.553
4.06377, 2, -47.2449, -11.9827, 29.3589, 13.666, 67.2649, -166.554
4.07187, 2, -47.2449, -11.9832, 29.359, 13.6661, 67.2647, -166.555
4.07985, 2, -47.2447, -11.9834, 29.359, 13.6661, 67.2646, -166.555
4.08784, 2, -47.2446, -11.9835, 29.3591, 13.6661, 67.2645, -166.555
4.09594, 2, -47.245, -11.9836, 29.3591, 13.6661, 67.2644, -166.555
4.1039, 2, -47.2459, -11.9838, 29.3591, 13.6661, 67.2645, -166.555
4.11187, 2, -47.2472, -11.9843, 29.3592, 13.6661, 67.2645, -166.555
4.11995, 2, -47.249, -11.9851, 29.3592, 13.6661, 67.2644, -166.555
4.12788, 2, -47.2506, -11.9859, 29.3592, 13.666, 67.2645, -166.556
4.13587, 2, -47.2519, -11.9867, 29.3592, 13.666, 67.2645, -166.555
4.14385, 2, -47.2529, -11.9874, 29.3592, 13.666, 67.2644, -166.555
4.15182, 2, -47.2533, -11.9878, 29.3592, 13.6661, 67.2644, -166.556
4.15981, 2, -47.2535, -11.988, 29.3592, 13.6661, 67.2644, -166.556
4.16802, 2, -47.2536, -11.9881, 29.3592, 13.6661, 67.2644, -166.556
4.17477, 2, -47.2535, -11.9881, 29.3592, 13.6661, 67.2644, -166.556
4.18415, 2, -47.2528, -11.988, 29.3592, 13.6661, 67.2644, -166.555
4.19078, 2, -47.2526, -11.988, 29.3592, 13.6661, 67.2644, -166.556
4.20011, 2, -47.252, -11.988, 29.3592, 13.6661, 67.2644, -166.555
4.20682, 2, -47.2518, -11.988, 29.3592, 13.6661, 67.2644, -166.555
4.21637, 2, -47.2518, -11.9881, 29.3592, 13.6661, 67.2644, -166.555
4.2243, 2, -47.2519, -11.9882, 29.3592, 13.6661, 67.2644, -166.555
4.23255, 2, -47.2521, -11.9886, 29.3592, 13.6661, 67.2644, -166.555
4.2405, 2, -47.2527, -11.9889, 29.3592, 13.6661, 67.2644, -166.555
4.24836, 2, -47.2532, -11.9892, 29.3592, 13.6661, 67.2644, -166.555
4.25636, 2, -47.2534, -11.9893, 29.3592, 13.666, 67.2644, -166.555
4.26449, 2, -47.2537, -11.9894, 29.3592, 13.666, 67.2644, -166.555
4.27176, 2, -47.2537, -11.9895, 29.3592, 13.666, 67.2644, -166.555
4.27976, 2, -47.2537, -11.9895, 29.3592, 13.666, 67.2645, -166.555
4.28781, 2, -47.2536, -11.9894, 29.3592, 13.666, 67.2644, -166.555
4.29577, 2, -47.2532, -11.9894, 29.3592, 13.666, 67.2645, -166.555
4.30378, 2, -47.2528, -11.9893, 29.3592, 13.666, 67.2645, -166.555
4.31182, 2, -47.2525, -11.9893, 29.3593, 13.666, 67.2645, -166.555
4.31978, 2, -47.2523, -11.9893, 29.3593, 13.666, 67.2645, -166.555
4.32777, 2, -47.2522, -11.9893, 29.3593, 13.6661, 67.2645, -166.555
4.33582, 2, -47.2521, -11.9894, 29.3593, 13.666, 67.2645, -166.555
4.34375, 2, -47.2521, -11.9894, 29.3592, 13.666, 67.2645, -166.555
4.35176, 2, -47.2521, -11.9895, 29.3592, 13.666, 67.2645, -166.555
4.35983, 2, -47.252, -11.9896, 29.3592, 13.666, 67.2645, -166.555
4.36777, 2, -47.252, -11.9896, 29.3592, 13.666, 67.2645, -166.555
4.37577, 2, -47.2521, -11.9896, 29.3592, 13.666, 67.2645, -166.555
4.38534, 2, -47.252, -11.9896, 29.3592, 13.666, 67.2645, -166.555
4.39176, 2, -47.252, -11.9895, 29.3592, 13.6659, 67.2645, -166.555
4.40076, 2, -47.2519, -11.9895, 29.3592, 13.6659, 67.2645, -166.555
4.4079, 2, -47.2518, -11.9894, 29.3592, 13.666, 67.2645, -166.555
4.41681, 2, -47.2517, -11.9894, 29.3592, 13.666, 67.2645, -166.555
4.42376, 2, -47.2516, -11.9894, 29.3592, 13.666, 67.2645, -166.555
4.43183, 2, -47.2515, -11.9894, 29.3592, 13.666, 67.2645, -166.555
4.43976, 2, -47.2514, -11.9894, 29.3592, 13.666, 67.2646, -166.555
4.44776, 2, -47.2514, -11.9894, 29.3592, 13.666, 67.2646, -166.555
4.45584, 2, -47.2513, -11.9894, 29.3592, 13.666, 67.2646, -166.555
4.46376, 2, -47.2513, -11.9894, 29.3592, 13.666, 67.2646, -166.555
4.47177, 2, -47.2513, -11.9894, 29.3592, 13.666, 67.2646, -166.555
4.47983, 2, -47.2512, -11.9894, 29.3592, 13.666, 67.2646, -166.555
4.48778, 2, -47.2511, -11.9894, 29.3592, 13.666, 67.2646, -166.555
4.49577, 2, -47.2511, -11.9894, 29.3592, 13.666, 67.2646, -166.555
4.50383, 2, -47.251, -11.9893, 29.3592, 13.666, 67.2646, -166.555
4.51176, 2, -47.2509, -11.9892, 29.3592, 13.666, 67.2646, -166.555
4.51976, 2, -47.2508, -11.9892, 29.3592, 13.6659, 67.2646, -166.555
4.52785, 2, -47.2507, -11.9892, 29.3592, 13.6659, 67.2646, -166.555
4.53577, 2, -47.2506, -11.9892, 29.3592, 13.666, 67.2646, -166.555
4.54375, 2, -47.2505, -11.9892, 29.3592, 13.6659, 67.2646, -166.555
4.55183, 2, -47.2504, -11.9892, 29.3592, 13.6659, 67.2647, -166.555
4.55976, 2, -47.2503, -11.9892, 29.3592, 13.6659, 67.2647, -166.555
4.56776, 2, -47.2502, -11.9892, 29.3592, 13.666, 67.2647, -166.555
4.57586, 2, -47.2501, -11.9892, 29.3592, 13.666, 67.2647, -166.555
4.58382, 2, -47.25, -11.9892, 29.3593, 13.6659, 67.2646, -166.555
4.59183, 2, -47.2498, -11.9892, 29.3592, 13.6659, 67.2646, -166.555
4.59992, 2, -47.2497, -11.9891, 29.3592, 13.6659, 67.2647, -166.555
4.60785, 2, -47.2496, -11.9891, 29.3592, 13.6659, 67.2647, -166.555
4.61587, 2, -47.2495, -11.989, 29.3592, 13.6659, 67.2647, -166.555
4.62393, 2, -47.2495, -11.9889, 29.3592, 13.6659, 67.2647, -166.555
4.63182, 2, -47.2493, -11.9889, 29.3592, 13.6659, 67.2647, -166.555
4.63978, 2, -47.2493, -11.9889, 29.3592, 13.6658, 67.2647, -166.555
4.64786, 2, -47.2492, -11.9889, 29.3592, 13.6658, 67.2646, -166.555
4.65582, 2, -47.2491, -11.9889, 29.3592, 13.6659, 67.2647, -166.555
4.66382, 2, -47.2491, -11.9889, 29.3592, 13.6659, 67.2647, -166.555
4.67196, 2, -47.249, -11.9889, 29.3592, 13.6659, 67.2647, -166.555
4.67993, 2, -47.249, -11.9889, 29.3592, 13.6659, 67.2647, -166.555
4.6868, 2, -47.249, -11.9889, 29.3592, 13.6659, 67.2648, -166.555
4.69651, 2, -47.2489, -11.9889, 29.3592, 13.6659, 67.2647, -166.555
4.70415, 2, -47.2488, -11.9888, 29.3592, 13.6659, 67.2647, -166.555
4.71087, 2, -47.2488, -11.9888, 29.3592, 13.6659, 67.2647, -166.555
4.72066, 2, -47.2487, -11.9887, 29.3592, 13.6658, 67.2647, -166.555
4.7283, 2, -47.2486, -11.9886, 29.3592, 13.6658, 67.2647, -166.555
4.73633, 2, -47.2485, -11.9886, 29.3592, 13.6659, 67.2647, -166.555
4.74462, 2, -47.2485, -11.9886, 29.3592, 13.6658, 67.2647, -166.555
4.75237, 2, -47.2484, -11.9886, 29.3592, 13.6658, 67.2648, -166.555
4.76036, 2, -47.2484, -11.9886, 29.3592, 13.6658, 67.2648, -166.555
4.76872, 2, -47.2483, -11.9886, 29.3592, 13.6658, 67.2647, -166.555
4.77576, 2, -47.2483, -11.9886, 29.3592, 13.6658, 67.2647, -166.555
4.78375, 2, -47.2483, -11.9886, 29.3592, 13.6658, 67.2648, -166.555
4.79263, 2, -47.2483, -11.9886, 29.3592, 13.6658, 67.2648, -166.555
4.79975, 2, -47.2483, -11.9885, 29.3592, 13.6657, 67.2648, -166.555
4.80776, 2, -47.2482, -11.9885, 29.3592, 13.6657, 67.2648, -166.554
4.81581, 2, -47.2482, -11.9884, 29.3592, 13.6657, 67.2648, -166.555
4.82376, 2, -47.2481, -11.9884, 29.3592, 13.6657, 67.2648, -166.554
4.83175, 2, -47.248, -11.9883, 29.3592, 13.6657, 67.2648, -166.554
4.8398, 2, -47.2479, -11.9883, 29.3592, 13.6657, 67.2648, -166.554
4.84774, 2, -47.2479, -11.9883, 29.3592, 13.6657, 67.2649, -166.554
4.85576, 2, -47.2478, -11.9882, 29.3592, 13.6657, 67.2649, -166.554
4.86383, 2, -47.2477, -11.9882, 29.3592, 13.6657, 67.2649, -166.554
4.87174, 2, -47.2477, -11.9882, 29.3592, 13.6657, 67.2649, -166.554
4.87974, 2, -47.2477, -11.9882, 29.3592, 13.6656, 67.2649, -166.554
4.88957, 2, -47.2476, -11.9882, 29.3592, 13.6656, 67.265, -166.554
4.89575, 2, -47.2476, -11.9882, 29.3592, 13.6656, 67.265, -166.554
4.90475, 2, -47.2475, -11.9882, 29.3592, 13.6656, 67.2649, -166.554
4.91183, 2, -47.2475, -11.9881, 29.3592, 13.6656, 67.265, -166.554
4.91978, 2, -47.2475, -11.9881, 29.3592, 13.6655, 67.2649, -166.554
4.92775, 2, -47.2474, -11.988, 29.3592, 13.6655, 67.265, -166.554
4.93582, 2, -47.2473, -11.9879, 29.3592, 13.6655, 67.265, -166.554
4.94374, 2, -47.2472, -11.9879, 29.3592, 13.6655, 67.265, -166.554
4.95174, 2, -47.2471, -11.9879, 29.3592, 13.6655, 67.265, -166.554
4.95981, 2, -47.2471, -11.9879, 29.3592, 13.6655, 67.265, -166.554
4.96775, 2, -47.247, -11.9879, 29.3592, 13.6655, 67.265, -166.554
4.97577, 2, -47.247, -11.9878, 29.3592, 13.6655, 67.265, -166.554
4.98381, 2, -47.2469, -11.9878, 29.3592, 13.6655, 67.2651, -166.554
4.99176, 2, -47.2469, -11.9878, 29.3592, 13.6654, 67.265, -166.554
4.99974, 2, -47.2469, -11.9878, 29.3592, 13.6654, 67.265, -166.554
5.00781, 2, -47.2469, -11.9878, 29.3592, 13.6655, 67.265, -166.554
5.01576, 2, -47.2468, -11.9878, 29.3592, 13.6655, 67.265, -166.554
5.02375, 2, -47.2468, -11.9877, 29.3592, 13.6654, 67.265, -166.554
5.03183, 2, -47.2467, -11.9876, 29.3592, 13.6654, 67.265, -166.554
5.03974, 2, -47.2467, -11.9876, 29.3592, 13.6654, 67.265, -166.554
5.04774, 2, -47.2466, -11.9876, 29.3592, 13.6653, 67.265, -166.554
5.05781, 2, -47.2465, -11.9875, 29.3592, 13.6654, 67.265, -166.554
5.06375, 2, -47.2464, -11.9875, 29.3592, 13.6653, 67.265, -166.554
5.07112, 2, -47.2464, -11.9875, 29.3592, 13.6654, 67.265, -166.554
5.0791, 2, -47.2464, -11.9875, 29.3592, 13.6654, 67.265, -166.554
5.08753, 2, -47.2463, -11.9875, 29.3592, 13.6654, 67.265, -166.554
5.09584, 2, -47.2463, -11.9875, 29.3592, 13.6653, 67.2651, -166.554
5.1039, 2, -47.2463, -11.9875, 29.3592, 13.6653, 67.2651, -166.554
5.11206, 2, -47.2462, -11.9874, 29.3592, 13.6653, 67.2651, -166.554
5.11932, 4, -47.2462, -11.9874, 29.3592, 13.6653, 67.2651, -166.554
5.12792, 4, -47.2462, -11.9873, 29.3592, 13.6652, 67.2651, -166.554
5.13586, 4, -47.2461, -11.9873, 29.3592, 13.6652, 67.2651, -166.554
5.14377, 4, -47.2461, -11.9872, 29.3592, 13.6652, 67.2652, -166.554
5.15198, 4, -47.246, -11.9872, 29.3592, 13.6652, 67.2652, -166.554
5.1598, 4, -47.2459, -11.9872, 29.3592, 13.6652, 67.2652, -166.554
5.16779, 4, -47.2459, -11.9872, 29.3592, 13.6652, 67.2652, -166.554
5.17592, 4, -47.2458, -11.9872, 29.3592, 13.6652, 67.2652, -166.554
5.18274, 4, -47.2458, -11.9872, 29.3592, 13.6652, 67.2652, -166.554
5.19199, 4, -47.2458, -11.9872, 29.3592, 13.6652, 67.2652, -166.554
5.19873, 4, -47.2458, -11.9872, 29.3592, 13.6652, 67.2652, -166.554
5.20818, 4, -47.2457, -11.9871, 29.3592, 13.6651, 67.2652, -166.554
5.2166, 4, -47.2457, -11.9871, 29.3592, 13.6651, 67.2652, -166.553
5.23139, 4, -47.2457, -11.987, 29.3592, 13.6651, 67.2653, -166.553
5.2341, 4, -47.2456, -11.987, 29.3592, 13.6651, 67.2653, -166.553
5.24259, 4, -47.2456, -11.987, 29.3592, 13.6651, 67.2653, -166.553
5.25111, 4, -47.2456, -11.9869, 29.3592, 13.665, 67.2653, -166.553
5.25785, 4, -47.2455, -11.9869, 29.3592, 13.665, 67.2653, -166.553
5.26571, 4, -47.2455, -11.9869, 29.3592, 13.665, 67.2653, -166.553
5.27253, 4, -47.2454, -11.9869, 29.3592, 13.665, 67.2653, -166.553
5.2807, 4, -47.2454, -11.9868, 29.3592, 13.665, 67.2653, -166.553
5.29423, 4, -47.2453, -11.9868, 29.3592, 13.665, 67.2653, -166.553
5.29987, 4, -47.2453, -11.9868, 29.3592, 13.665, 67.2653, -166.553
5.30386, 4, -47.2453, -11.9868, 29.3592, 13.665, 67.2653, -166.553
5.31522, 4, -47.2453, -11.9868, 29.3592, 13.665, 67.2653, -166.553
5.31989, 4, -47.2453, -11.9868, 29.3592, 13.665, 67.2653, -166.553
5.32992, 4, -47.2452, -11.9867, 29.3592, 13.665, 67.2653, -166.553
5.33595, 4, -47.2452, -11.9867, 29.3592, 13.665, 67.2653, -166.553
5.34388, 4, -47.2452, -11.9867, 29.3592, 13.665, 67.2653, -166.553
5.35097, 4, -47.2452, -11.9867, 29.3592, 13.665, 67.2653, -166.553
5.35915, 4, -47.2451, -11.9866, 29.3592, 13.665, 67.2653, -166.553
5.37069, 4, -47.245, -11.9866, 29.3592, 13.665, 67.2653, -166.553
5.3759, 4, -47.245, -11.9866, 29.3592, 13.6649, 67.2653, -166.553
5.38571, 4, -47.245, -11.9866, 29.3592, 13.6648, 67.2653, -166.553
5.39591, 4, -47.2454, -11.9868, 29.3593, 13.6649, 67.2653, -166.553
5.39987, 4, -47.246, -11.9871, 29.3596, 13.665, 67.2654, -166.553
5.41017, 4, -47.2501, -11.9907, 29.3637, 13.6701, 67.2668, -166.553
5.41599, 4, -47.2525, -11.9934, 29.3671, 13.6765, 67.2683, -166.552
5.42391, 4, -47.2597, -12.0023, 29.3798, 13.7014, 67.2748, -166.547
5.43417, 4, -47.2793, -12.0283, 29.4232, 13.7884, 67.2989, -166.528
5.4424, 5, -47.3014, -12.0581, 29.4772, 13.9004, 67.3305, -166.503
5.45039, 5, -47.3332, -12.0997, 29.5587, 14.072, 67.3784, -166.464
5.45603, 5, -47.3533, -12.1256, 29.6117, 14.1847, 67.4093, -166.437
5.46504, 5, -47.4028, -12.1883, 29.7442, 14.4698, 67.488, -166.372
5.47467, 5, -47.501, -12.3106, 30.0136, 15.0546, 67.646, -166.237
5.48388, 5, -47.582, -12.4111, 30.2412, 15.5459, 67.7773, -166.125
5.48736, 5, -47.6268, -12.4666, 30.3683, 15.8183, 67.8493, -166.063
5.49679, 5, -47.7244, -12.5873, 30.6459, 16.4078, 68.0043, -165.93
5.50387, 5, -47.831, -12.7196, 30.9512, 17.0451, 68.1689, -165.788
5.511, 5, -47.9446, -12.8612, 31.2773, 17.7152, 68.3391, -165.641
5.52329, 5, -48.0629, -13.0094, 31.6183, 18.4022, 68.5959, -165.417
5.53072, 5, -48.1836, -13.2375, 32.1435, 19.4431, 68.7644, -165.27
5.53732, 5, -48.3044, -13.3132, 32.3201, 19.787, 68.8471, -165.197
5.54389, 5, -48.4223, -13.4616, 32.6723, 20.4632, 69.0094, -165.049
5.55157, 5, -48.5333, -13.6035, 33.0186, 21.1162, 69.1686, -164.892
5.56038, 6, -48.633, -13.7353, 33.3522, 21.7337, 69.3272, -164.714
5.56797, 6, -48.7171, -13.8561, 33.6688, 22.3078, 69.4875, -164.503
5.57993, 7, -48.8066, -14.0213, 34.1037, 23.077, 69.7364, -164.094
5.58393, 7, -48.8258, -14.0726, 34.2377, 23.3081, 69.8221, -163.929
5.5931, 8, -48.8477, -14.1683, 34.4889, 23.7354, 69.9979, -163.553
5.60339, 8, -48.8437, -14.2934, 34.8324, 24.3035, 70.2725, -162.884
5.60935, 8, -48.834, -14.3309, 34.9405, 24.4785, 70.3669, -162.636
5.61604, 9, -48.8046, -14.4009, 35.1494, 24.8147, 70.5604, -162.108
5.62407, 9, -48.7638, -14.4659, 35.3534, 25.1419, 70.7607, -161.545
5.63199, 10, -48.7134, -14.5279, 35.5576, 25.4686, 70.9691, -160.958
5.64064, 10, -48.6543, -14.5895, 35.7634, 25.8004, 71.1853, -160.353
5.64936, 11, -48.5879, -14.6517, 35.9709, 26.1404, 71.409, -159.734
5.65688, 11, -48.516, -14.714, 36.181, 26.49, 71.6381, -159.107
5.66688, 12, -48.44, -14.7771, 36.3918, 26.8491, 71.8715, -158.475
5.67484, 12, -48.3614, -14.8404, 36.6012, 27.2171, 72.1078, -157.838
5.68095, 13, -48.2823, -14.9022, 36.8095, 27.5937, 72.3466, -157.196
5.68894, 13, -48.2028, -14.9615, 37.0164, 27.9784, 72.5878, -156.551
5.696, 13, -48.1624, -14.9906, 37.1191, 28.3707, 72.8316, -155.9
5.70705, 14, -48.0372, -15.0788, 37.4252, 28.7691, 73.0779, -155.246
5.71254, 15, -47.9489, -15.1388, 37.6283, 29.172, 73.3258, -154.592
5.72175, 15, -47.8569, -15.1982, 37.8294, 29.5769, 73.5736, -153.939
5.72895, 16, -47.7597, -15.2567, 38.0289, 29.9816, 73.8198, -153.29
5.74058, 16, -47.6009, -15.3459, 38.3248, 30.5847, 74.1828, -152.324
5.7445, 17, -47.5448, -15.3765, 38.4218, 30.7839, 74.3015, -152.005
5.75381, 17, -47.4287, -15.439, 38.6129, 31.1791, 74.5342, -151.371
5.76069, 18, -47.3078, -15.5023, 38.8013, 31.5693, 74.7605, -150.743
5.79401, 20, -46.7713, -15.774, 39.5311, 33.0998, 75.6097, -148.306
5.79932, 20, -46.6984, -15.8103, 39.6205, 33.2896, 75.7108, -148.009
5.80279, 20, -46.6244, -15.847, 39.7091, 33.4793, 75.8108, -147.715
5.80786, 20, -46.5493, -15.884, 39.7971, 33.669, 75.91, -147.421
5.81052, 21, -46.473, -15.9214, 39.8845, 33.8587, 76.0082, -147.129
5.8129, 21, -46.3957, -15.9594, 39.9714, 34.0481, 76.1055, -146.838
5.81775, 22, -46.3957, -15.9594, 39.9714, 34.2374, 76.2018, -146.549
5.83402, 22, -45.9927, -16.157, 40.3985, 34.9914, 76.5768, -145.408
5.83584, 22, -45.9927, -16.157, 40.3985, 34.9914, 76.5768, -145.408
5.8418, 23, -45.8233, -16.2386, 40.5641, 35.3645, 76.7576, -144.846
5.84786, 23, -45.7363, -16.2801, 40.646, 35.5495, 76.846, -144.567
5.85592, 24, -45.557, -16.3648, 40.8078, 35.9165, 77.0186, -144.013
5.86634, 24, -45.2738, -16.4968, 41.0435, 36.4554, 77.266, -143.195
5.87455, 25, -45.0764, -16.5863, 41.1954, 36.8045, 77.4225, -142.656
5.88006, 25, -44.9753, -16.6313, 41.2698, 36.976, 77.4981, -142.388
5.89062, 26, -44.6617, -16.7677, 41.4866, 37.4775, 77.7155, -141.591
5.89593, 26, -44.5536, -16.8139, 41.5564, 37.6404, 77.7852, -141.327
5.90656, 27, -44.2183, -16.9536, 41.7573, 38.118, 77.9881, -140.539
5.91194, 27, -44.1031, -17.0001, 41.8213, 38.2734, 78.0536, -140.277
5.91995, 28, -43.868, -17.0925, 41.9447, 38.5786, 78.1825, -139.754
5.92799, 28, -43.6256, -17.1842, 42.0615, 38.8765, 78.3086, -139.231
5.93594, 29, -43.3759, -17.2747, 42.1716, 39.1666, 78.4318, -138.709
5.94394, 29, -43.1193, -17.3631, 42.2748, 39.4489, 78.5527, -138.186
5.95465, 30, -42.8565, -17.4493, 42.4163, 39.8567, 78.7276, -137.403
5.95989, 30, -42.5865, -17.5332, 42.46, 39.9885, 78.7848, -137.143
5.96787, 31, -42.3081, -17.6147, 42.5419, 40.2458, 78.8966, -136.622
5.97922, 31, -41.8761, -17.7321, 42.6516, 40.6157, 79.0593, -135.842
5.98389, 32, -41.7285, -17.7701, 42.6848, 40.7349, 79.1124, -135.582
5.99248, 32, -41.4282, -17.8444, 42.7461, 40.9668, 79.2163, -135.062
5.99988, 33, -41.1216, -17.9159, 42.8004, 41.1905, 79.3178, -134.544
6.00795, 33, -40.8084, -17.9843, 42.8475, 41.4064, 79.4172, -134.027
6.01759, 34, -40.4883, -18.0495, 42.8874, 41.6139, 79.5134, -133.511
6.02885, 34, -39.9984, -18.1426, 42.9336, 41.91, 79.6532, -132.738
6.03196, 35, -39.8327, -18.1722, 42.9454, 42.0048, 79.6987, -132.481
6.04184, 35, -39.4967, -18.2288, 42.9636, 42.1889, 79.7872, -131.968
6.04795, 36, -39.1543, -18.2819, 42.9748, 42.3652, 79.8739, -131.456
6.05647, 36, -38.8045, -18.3317, 42.9791, 42.5338, 79.9581, -130.946
6.06388, 37, -38.448, -18.3782, 42.9768, 42.6949, 80.0405, -130.436
6.07154, 37, -38.0858, -18.4212, 42.9677, 42.8483, 80.1205, -129.928
6.08124, 38, -37.7181, -18.4604, 42.9517, 42.9942, 80.1988, -129.422
6.08989, 38, -37.3455, -18.4962, 42.9292, 43.133, 80.2747, -128.918
6.09811, 39, -36.9683, -18.5286, 42.8999, 43.2641, 80.3486, -128.415
6.1036, 39, -36.5866, -18.5576, 42.8638, 43.388, 80.4201, -127.914
6.11287, 40, -36.1997, -18.5827, 42.821, 43.5045, 80.4902, -127.415
6.12064, 40, -35.8067, -18.6042, 42.7718, 43.6138, 80.5581, -126.918
6.12836, 41, -35.408, -18.6215, 42.716, 43.7161, 80.6247, -126.422
6.13652, 41, -35.0036, -18.6351, 42.6537, 43.8107, 80.6882, -125.928
6.14405, 42, -34.5946, -18.6453, 42.585, 43.8987, 80.7509, -125.438
6.15271, 42, -34.1822, -18.6522, 42.5098, 43.9792, 80.8106, -124.949
6.16014, 43, -33.767, -18.6559, 42.4284, 44.0528, 80.8694, -124.462
6.17212, 43, -33.1362, -18.6552, 42.2952, 44.1498, 80.9534, -123.736
6.17785, 44, -32.9231, -18.6531, 42.248, 44.1787, 80.9807, -123.496
6.18816, 44, -32.4922, -18.6461, 42.1492, 44.2304, 81.0607, -122.778
6.19226, 45, -32.0548, -18.6353, 42.0445, 44.2752, 81.086, -122.54
6.20417, 45, -31.3893, -18.6123, 41.8762, 44.3288, 81.1609, -121.828
6.20842, 46, -31.166, -18.6029, 41.8171, 44.3428, 81.185, -121.592
6.21809, 46, -30.7182, -18.5816, 41.6945, 44.3649, 81.2311, -121.122
6.22834, 47, -30.0406, -18.5421, 41.4997, 44.3837, 81.2986, -120.422
6.23502, 47, -29.8123, -18.5267, 41.4318, 44.3865, 81.3208, -120.189
6.23883, 47, -29.5822, -18.5102, 41.3625, 44.3877, 81.3423, -119.957
6.24919, 48, -28.8824, -18.4544, 41.1452, 44.3787, 81.4052, -119.263
6.25928, 48, -28.4091, -18.4117, 40.9928, 44.3618, 81.4471, -118.803
6.26547, 49, -27.9328, -18.3646, 40.8346, 44.3359, 81.4885, -118.344
6.27424, 50, -27.454, -18.3129, 40.67, 44.3, 81.5288, -117.887
6.28137, 50, -27.2135, -18.2852, 40.4987, 44.255, 81.57, -117.43
6.28874, 50, -26.7286, -18.2256, 40.3211, 44.2012, 81.6125, -116.974
6.29727, 51, -26.2363, -18.1604, 40.2299, 44.1702, 81.6337, -116.747
6.3058, 52, -25.4838, -18.0523, 39.9454, 44.0632, 81.6975, -116.066
6.31185, 52, -25.2305, -18.0136, 39.8469, 44.0223, 81.7195, -115.839
6.31998, 53, -24.7222, -17.9322, 39.6451, 43.9327, 81.7644, -115.386
6.32791, 53, -24.212, -17.8454, 39.4371, 43.8332, 81.809, -114.933
6.33593, 54, -23.6974, -17.7523, 39.2213, 43.7236, 81.8549, -114.481
6.34598, 54, -22.9117, -17.6006, 38.8841, 43.5391, 81.9281, -113.804
6.35191, 55, -22.6455, -17.5469, 38.7682, 43.472, 81.9532, -113.578
6.36356, 55, -21.8387, -17.3764, 38.4085, 43.2527, 82.0331, -112.9
6.36784, 56, -21.5684, -17.3166, 38.2852, 43.1735, 82.0611, -112.673
6.37865, 56, -20.7532, -17.1291, 37.9052, 42.9184, 82.1467, -111.996
6.38592, 57, -20.2022, -16.9972, 37.6432, 42.7342, 82.2068, -111.545
6.39215, 57, -19.9229, -16.929, 37.51, 42.6379, 82.237, -111.32
6.39984, 58, -19.3579, -16.7881, 37.2383, 42.4364, 82.2983, -110.87
6.40794, 58, -18.7867, -16.641, 36.9604, 42.2225, 82.3621, -110.419
6.42065, 59, -17.9249, -16.4094, 36.5316, 41.8784, 82.4605, -109.745
6.42682, 59, -17.3451, -16.2491, 36.2372, 41.6328, 82.5298, -109.296
6.43133, 60, -17.052, -16.1674, 36.0876, 41.5049, 82.5651, -109.071
6.44316, 60, -16.1572, -15.9144, 35.6294, 41.1018, 82.6757, -108.396
6.44786, 61, -15.8554, -15.8273, 35.474, 40.9607, 82.7133, -108.172
6.4567, 61, -15.2489, -15.6498, 35.1586, 40.6687, 82.7903, -107.723
6.46386, 62, -14.6401, -15.4681, 34.8383, 40.3646, 82.869, -107.274
6.47194, 62, -14.0254, -15.2821, 34.5126, 40.0479, 82.95, -106.825
6.48317, 63, -13.0851, -14.9912, 34.0162, 39.5484, 83.0751, -106.151
6.48788, 63, -12.7672, -14.8907, 33.8481, 39.375, 83.118, -105.926
6.4961, 64, -12.1269, -14.6857, 33.5081, 39.0174, 83.2068, -105.476
6.50386, 64, -11.4824, -14.4752, 33.1614, 38.6448, 83.2996, -105.024
6.51422, 65, -10.8307, -14.258, 32.808, 38.2559, 83.3977, -104.571
6.52148, 65, -10.1676, -14.0339, 32.4475, 37.8501, 83.5017, -104.115
6.52886, 66, -9.49448, -13.8035, 32.0817, 37.4265, 83.6112, -103.658
6.53585, 66, -8.81425, -13.566, 31.7113, 36.9866, 83.7265, -103.199
6.54305, 67, -8.13017, -13.3211, 31.3351, 36.5302, 83.8473, -102.738
6.55525, 67, -7.09061, -12.9403, 30.76, 35.8169, 84.0401, -102.043
6.55993, 68, -6.73971, -12.8095, 30.566, 35.5717, 84.1075, -101.811
6.5694, 68, -6.03251, -12.5437, 30.1762, 35.0714, 84.2472, -101.345
6.58089, 69, -4.96269, -12.1347, 29.5842, 34.2973, 84.4687, -100.645
6.58482, 69, -4.60348, -11.9949, 29.3852, 34.0332, 84.5454, -100.41
6.59554, 70, -3.51285, -11.566, 28.7879, 33.2246, 84.7833, -99.7049
6.60463, 70, -2.77532, -11.2695, 28.39, 32.6692, 84.9485, -99.2321
6.60797, 71, -2.40391, -11.1183, 28.1907, 32.3864, 85.0332, -98.9952
6.61778, 71, -1.65551, -10.8111, 27.7898, 31.8097, 85.2085, -98.5191
6.62404, 72, -0.899089, -10.4969, 27.3863, 31.217, 85.3925, -98.0393
6.63201, 72, -0.135776, -10.1773, 26.9803, 30.6059, 85.5863, -97.5563
6.64091, 73, 0.63316, -9.85084, 26.5719, 29.9806, 85.7888, -97.07
6.65047, 73, 1.40747, -9.51655, 26.1623, 29.3427, 85.9999, -96.582
6.65607, 74, 2.18634, -9.17551, 25.7529, 28.6948, 86.2193, -96.0921
6.66835, 74, 2.96836, -8.82909, 25.3459, 27.7085, 86.5621, -95.3546
6.67212, 75, 3.75226, -8.47726, 24.9437, 27.3765, 86.6796, -95.1083
6.68121, 75, 4.5378, -8.11928, 24.546, 26.7104, 86.9186, -94.6154
6.68813, 76, 5.32417, -7.75641, 24.1538, 26.0446, 87.1634, -94.1221
6.70417, 77, 6.89394, -7.01351, 23.3878, 24.7134, 87.6687, -93.1328
6.7061, 77, 6.89394, -7.01351, 23.3878, 24.7134, 87.6687, -93.1328
6.71719, 77, 8.07152, -6.4351, 22.8266, 23.7185, 88.0666, -92.39
6.72465, 78, 8.8571, -6.03704, 22.4574, 23.0522, 88.3447, -91.8934
6.72822, 78, 9.24997, -5.83508, 22.2743, 22.7168, 88.4884, -91.644
6.73666, 79, 10.0371, -5.42571, 21.9096, 22.0407, 88.7864, -91.1419
6.74432, 79, 10.8265, -5.0101, 21.547, 21.3583, 89.0982, -90.6347
6.75329, 80, 11.6149, -4.58593, 21.1866, 20.6723, 89.423, -90.1218
6.7604, 80, 12.3994, -4.151, 20.8304, 19.9843, 89.7583, -89.602
6.76942, 81, 13.1771, -3.7058, 20.4786, 19.3023, 90.103, -89.0751
6.77624, 81, 13.5637, -3.48051, 20.3052, 18.965, 90.2782, -88.8095
6.78377, 81, 14.3326, -3.02509, 19.9642, 18.3007, 90.6333, -88.2744
6.79169, 82, 15.0942, -2.56213, 19.6334, 17.6522, 90.9926, -87.7362
6.79969, 82, 15.8474, -2.09129, 19.3129, 17.0211, 91.3558, -87.1953
6.80773, 83, 16.5895, -1.6134, 19.002, 16.4084, 91.7229, -86.6526
6.81569, 83, 17.3194, -1.13034, 18.7007, 15.8151, 92.0948, -86.1089
6.82372, 84, 18.036, -0.642717, 18.4084, 15.2396, 92.4721, -85.5665
6.83182, 84, 18.7369, -0.151052, 18.1246, 14.6837, 92.8563, -85.0253
6.8397, 85, 19.4202, 0.345175, 17.8468, 14.1471, 93.248, -84.4856
6.84668, 85, 20.0845, 0.846909, 17.5754, 13.6298, 93.6481, -83.948
6.85573, 86, 20.7309, 1.3531, 17.3103, 13.1324, 94.0548, -83.4128
6.86269, 86, 21.3612, 1.86342, 17.0511, 12.6545, 94.4675, -82.8785
6.87169, 86, 21.9782, 2.38075, 16.7986, 12.1965, 94.8861, -82.3429
6.87975, 87, 22.583, 2.90795, 16.5511, 11.7579, 95.3111, -81.8045
6.8877, 87, 23.177, 3.44539, 16.3076, 11.3374, 95.7436, -81.2616
6.89479, 88, 23.7614, 3.99024, 16.0674, 10.933, 96.1834, -80.7128
6.90377, 88, 24.3354, 4.54219, 15.8297, 10.5441, 96.6301, -80.1546
6.91274, 89, 24.8985, 5.10433, 15.5972, 10.1706, 97.0837, -79.587
6.91976, 89, 25.4525, 5.67833, 15.3695, 9.81271, 97.5435, -79.0079
6.92776, 90, 26.002, 6.26284, 15.1453, 9.47067, 98.0075, -78.4169
6.93569, 90, 26.5467, 6.8565, 14.9261, 9.14455, 98.4762, -77.8119
6.9437, 91, 27.081, 7.45888, 14.7129, 8.83573, 98.9497, -77.1931
6.95175, 91, 27.6019, 8.07168, 14.5049, 8.5452, 99.4283, -76.5623
6.95965, 92, 28.1118, 8.69528, 14.3015, 8.27456, 99.9121, -75.9192
6.9677, 92, 28.6142, 9.32903, 14.1024, 8.02508, 100.401, -75.2653
6.97566, 93, 29.1094, 9.97162, 13.9077, 7.79686, 100.894, -74.6036
6.9837, 93, 29.5938, 10.6213, 13.7188, 7.59094, 101.389, -73.9344
6.99168, 94, 30.0649, 11.2768, 13.5368, 7.40763, 101.886, -73.2569
6.99972, 94, 30.5212, 11.936, 13.3614, 7.24755, 102.381, -72.5738
7.00776, 95, 30.9636, 12.5982, 13.1922, 7.11073, 102.874, -71.886
7.01569, 95, 31.3922, 13.2626, 13.0307, 6.99758, 103.364, -71.1918
7.0237, 96, 31.8073, 13.9293, 12.8769, 6.90754, 103.85, -70.4918
7.03175, 96, 32.2068, 14.5973, 12.7294, 6.8418, 104.334, -69.7876
7.03969, 97, 32.5897, 15.2659, 12.5881, 6.79923, 104.812, -69.0771
7.0477, 97, 32.9567, 15.9335, 12.4538, 6.77754, 105.286, -68.361
7.05576, 98, 33.3079, 16.5979, 12.3276, 6.77729, 105.753, -67.6437
7.0637, 98, 33.6444, 17.2573, 12.2101, 6.79887, 106.211, -66.9236
7.07186, 99, 33.9663, 17.9101, 12.102, 6.83967, 106.659, -66.2032
7.07969, 99, 34.2747, 18.5552, 12.0037, 6.90045, 107.094, -65.4866
7.08767, 100, 34.5713, 19.1909, 11.9151, 6.97916, 107.516, -64.7735
7.09581, 100, 34.8568, 19.817, 11.8361, 7.07493, 107.923, -64.0654
7.10409, 101, 35.1299, 20.4319, 11.7661, 7.18705, 108.313, -63.3664
7.11124, 101, 35.39, 21.0346, 11.7042, 7.31368, 108.686, -62.6761
7.11985, 101, 35.6372, 21.6241, 11.6506, 7.45303, 109.043, -61.995
7.12781, 102, 35.8703, 22.1989, 11.605, 7.60275, 109.382, -61.3267
7.1358, 102, 36.0903, 22.7594, 11.567, 7.7608, 109.706, -60.6711
7.14388, 103, 36.3008, 23.3047, 11.5365, 7.92528, 110.015, -60.0282
7.1517, 103, 36.5048, 23.8348, 11.5139, 8.096, 110.308, -59.3987
7.16005, 104, 36.7034, 24.3508, 11.4999, 8.27379, 110.586, -58.783
7.16854, 104, 36.8966, 24.8525, 11.4933, 8.45928, 110.846, -58.1787
7.17574, 104, 37.085, 25.3402, 11.493, 8.65391, 111.087, -57.5839
7.18392, 104, 37.2673, 25.8142, 11.4989, 8.85731, 111.31, -56.9987
7.19194, 104, 37.4398, 26.2735, 11.5098, 9.06863, 111.514, -56.4234
7.19991, 104, 37.6013, 26.7182, 11.5238, 9.28636, 111.702, -55.8577
7.20672, 104, 37.679, 26.9354, 11.5319, 9.39669, 111.79, -55.5795
7.21615, 104, 37.907, 27.5664, 11.5603, 9.72967, 112.039, -54.7677
7.22281, 104, 37.982, 27.7697, 11.5705, 9.84014, 112.116, -54.5064
7.23252, 104, 38.2022, 28.3566, 11.6013, 10.1664, 112.337, -53.7535
7.24021, 104, 38.3429, 28.7294, 11.6212, 10.3775, 112.475, -53.2791
7.24883, 104, 38.4773, 29.0858, 11.64, 10.5821, 112.605, -52.8287
7.2563, 104, 38.604, 29.425, 11.6579, 10.779, 112.727, -52.4022
7.26532, 104, 38.7225, 29.7457, 11.6747, 10.9675, 112.842, -52.0012
7.27221, 104, 38.7788, 29.8989, 11.6826, 11.0585, 112.896, -51.6244
7.28051, 104, 38.8853, 30.1917, 11.6976, 11.3168, 113.048, -51.273
7.28771, 104, 38.9841, 30.4656, 11.7116, 11.3979, 113.095, -51.107
7.29573, 104, 39.0752, 30.7195, 11.7244, 11.5522, 113.183, -50.7937
7.30377, 104, 39.1583, 30.954, 11.7359, 11.6957, 113.264, -50.5054
7.3117, 104, 39.2332, 31.169, 11.7463, 11.8277, 113.338, -50.2426
7.31968, 104, 39.2998, 31.3639, 11.756, 11.9484, 113.404, -50.0049
7.32774, 104, 39.3586, 31.5395, 11.7648, 12.0571, 113.463, -49.7925
7.33571, 104, 39.4104, 31.6957, 11.7724, 12.1536, 113.516, -49.605
7.3437, 104, 39.4557, 31.8328, 11.7793, 12.2381, 113.56, -49.4425
7.35172, 104, 39.4952, 31.9519, 11.7856, 12.3101, 113.598, -49.3043
7.35967, 104, 39.5286, 32.054, 11.7912, 12.3709, 113.63, -49.1895
7.36777, 104, 39.5559, 32.1397, 11.7962, 12.4195, 113.656, -49.0965
7.37574, 104, 39.5782, 32.2107, 11.8006, 12.4573, 113.675, -49.0237
7.3837, 104, 39.5961, 32.2686, 11.8046, 12.4862, 113.689, -48.9694
7.39168, 104, 39.61, 32.3149, 11.8083, 12.5074, 113.7, -48.9304
7.40123, 104, 39.6209, 32.3509, 11.8115, 12.5222, 113.706, -48.8943
7.40769, 104, 39.6291, 32.3777, 11.8145, 12.5321, 113.711, -48.8868
7.41667, 104, 39.6347, 32.3978, 11.8171, 12.5382, 113.713, -48.8768
7.42376, 104, 39.6381, 32.4123, 11.8192, 12.5417, 113.714, -48.8717
7.4317, 104, 39.6402, 32.4219, 11.8208, 12.5434, 113.715, -48.8694
7.4397, 105, 39.6411, 32.4279, 11.822, 12.5443, 113.715, -48.8683
7.44785, 105, 39.641, 32.4318, 11.8229, 12.5447, 113.715, -48.8679
7.45568, 105, 39.6402, 32.4344, 11.8238, 12.5449, 113.715, -48.8678
7.46369, 105, 39.6393, 32.4364, 11.8246, 12.5451, 113.715, -48.8679
7.47174, 105, 39.6382, 32.4379, 11.8252, 12.5451, 113.715, -48.8681
7.47968, 105, 39.6368, 32.4391, 11.8257, 12.5451, 113.715, -48.8684
7.48769, 105, 39.6357, 32.4403, 11.8262, 12.5452, 113.715, -48.8687
7.49575, 105, 39.6352, 32.4415, 11.8268, 12.5452, 113.715, -48.8691
7.50372, 105, 39.6348, 32.4427, 11.8274, 12.5452, 113.715, -48.8693
7.51167, 105, 39.6345, 32.4437, 11.828, 12.5451, 113.715, -48.8696
7.51974, 105, 39.6343, 32.4446, 11.8285, 12.5451, 113.715, -48.8699
7.52769, 105, 39.6341, 32.4454, 11.8288, 12.5451, 113.715, -48.87
7.53565, 105, 39.6338, 32.4459, 11.8291, 12.5451, 113.715, -48.8702
7.54375, 105, 39.6335, 32.4463, 11.8294, 12.5451, 113.715, -48.8705
7.55167, 105, 39.6332, 32.4465, 11.8297, 12.5451, 113.715, -48.8707
