hehonglu123/Motion-Primitive-Planning/ILC/recorded_data/realrobot/from_NX/iteration_41/run_3.csv
timestamp, cmd_num, J1, J2, J3, J4, J5, J6
0.000384, -1, 39.6291, 32.447, 11.8316, 12.5437, 113.713, -48.8736
0.003021, -1, 39.6291, 32.447, 11.8315, 12.5437, 113.713, -48.8736
0.02819, -1, 39.6291, 32.447, 11.8316, 12.5437, 113.713, -48.8736
0.03042, -1, 39.6291, 32.447, 11.8316, 12.5437, 113.713, -48.8736
0.031674, -1, 39.6291, 32.447, 11.8316, 12.5437, 113.713, -48.8736
0.032862, -1, 39.6291, 32.447, 11.8316, 12.5437, 113.713, -48.8736
0.039603, -1, 39.6291, 32.447, 11.8316, 12.5437, 113.713, -48.8736
0.04754, -1, 39.6291, 32.447, 11.8315, 12.5437, 113.713, -48.8736
0.055643, -1, 39.6286, 32.447, 11.8315, 12.5437, 113.713, -48.8736
0.063553, -1, 39.6262, 32.4465, 11.8315, 12.5437, 113.713, -48.8736
0.197074, -1, 38.3382, 31.7895, 12.0851, 12.5546, 113.041, -50.5917
0.19901, -1, 38.2512, 31.744, 12.1046, 12.5558, 112.991, -50.7167
0.200491, -1, 38.2512, 31.744, 12.1046, 12.5558, 112.991, -50.7167
0.201675, -1, 38.2512, 31.744, 12.1046, 12.5558, 112.991, -50.7167
0.20383, -1, 38.1626, 31.6977, 12.1241, 12.5569, 112.942, -50.8429
0.205039, -1, 38.1626, 31.6977, 12.1241, 12.5569, 112.942, -50.8429
0.20687, -1, 38.1626, 31.6977, 12.1241, 12.5569, 112.891, -50.97
0.209608, -1, 38.0726, 31.6507, 12.1436, 12.5582, 112.891, -50.97
0.212416, -1, 37.9814, 31.6033, 12.1631, 12.5595, 112.841, -51.098
0.213641, -1, 37.9814, 31.6033, 12.1631, 12.5595, 112.841, -51.098
0.215713, -1, 37.8891, 31.5554, 12.1825, 12.5607, 112.79, -51.2266
0.216913, -1, 37.8891, 31.5554, 12.1825, 12.5607, 112.79, -51.2266
0.219073, -1, 37.7957, 31.5071, 12.2019, 12.5619, 112.739, -51.3557
0.221878, -1, 37.7957, 31.5071, 12.2019, 12.5619, 112.739, -51.3557
0.223967, -1, 37.7015, 31.4585, 12.2213, 12.5631, 112.688, -51.4851
0.226366, -1, 37.7015, 31.4585, 12.2213, 12.5631, 112.688, -51.4851
0.228378, -1, 37.6066, 31.4097, 12.2407, 12.5644, 112.637, -51.6147
0.229676, -1, 37.6066, 31.4097, 12.2407, 12.5644, 112.637, -51.6147
0.231588, -1, 37.5112, 31.3608, 12.2601, 12.5656, 112.585, -51.7445
0.232924, -1, 37.5112, 31.3608, 12.2601, 12.5656, 112.585, -51.7445
0.23416, -1, 37.5112, 31.3608, 12.2601, 12.5656, 112.585, -51.7445
0.239539, -1, 37.3195, 31.2628, 12.2989, 12.5681, 112.483, -52.004
0.247831, -1, 37.1274, 31.1649, 12.3378, 12.5705, 112.38, -52.2637
0.255567, -1, 36.9351, 31.0671, 12.3765, 12.5732, 112.277, -52.5237
0.263652, -1, 36.743, 30.9693, 12.4152, 12.5757, 112.174, -52.7841
0.271803, -1, 36.5513, 30.8715, 12.4541, 12.5783, 112.071, -53.0444
0.279693, -1, 36.3597, 30.7738, 12.493, 12.5809, 111.968, -53.3047
0.287931, -1, 36.1681, 30.676, 12.5318, 12.5835, 111.865, -53.5651
0.295948, -1, 35.9765, 30.578, 12.5707, 12.586, 111.762, -53.8257
0.303955, -1, 35.785, 30.48, 12.6097, 12.5886, 111.659, -54.0863
0.312128, -1, 35.5931, 30.382, 12.6485, 12.5911, 111.556, -54.3465
0.320067, -1, 35.401, 30.2838, 12.6874, 12.5937, 111.453, -54.6069
0.32814, -1, 35.2087, 30.1855, 12.7262, 12.5964, 111.35, -54.8674
0.336097, -1, 35.0162, 30.0872, 12.7651, 12.5988, 111.247, -55.1283
0.344162, -1, 34.824, 29.9887, 12.804, 12.6015, 111.144, -55.3888
0.352216, -1, 34.6316, 29.8902, 12.8428, 12.604, 111.041, -55.6496
0.36014, -1, 34.5354, 29.8409, 12.8622, 12.6066, 110.938, -55.9104
0.368125, -1, 34.3432, 29.7425, 12.9012, 12.6079, 110.886, -56.0409
0.376341, -1, 34.1512, 29.6442, 12.9401, 12.6118, 110.732, -56.4322
0.383523, -1, 33.9593, 29.5459, 12.9791, 12.6131, 110.68, -56.5626
0.391525, -1, 33.7676, 29.4476, 13.018, 12.6158, 110.577, -56.8234
0.399535, -1, 33.5758, 29.3492, 13.0568, 12.6184, 110.474, -57.0844
0.407519, -1, 33.3837, 29.2509, 13.0958, 12.621, 110.371, -57.3457
0.415521, -1, 33.1911, 29.1523, 13.1348, 12.6236, 110.268, -57.6065
0.423525, -1, 32.9984, 29.0537, 13.1735, 12.6262, 110.165, -57.8675
0.431571, -1, 32.8055, 28.9552, 13.2125, 12.6289, 110.062, -58.1286
0.439565, -1, 32.6122, 28.8566, 13.2514, 12.6316, 109.959, -58.39
0.447521, -1, 32.4187, 28.7579, 13.2902, 12.6343, 109.856, -58.6512
0.455586, -1, 32.2248, 28.6592, 13.3292, 12.6369, 109.753, -58.9121
0.463539, -1, 32.0307, 28.5604, 13.368, 12.6396, 109.649, -59.1731
0.471541, -1, 31.8369, 28.4616, 13.4069, 12.6422, 109.546, -59.4345
0.479589, -1, 31.6432, 28.3629, 13.446, 12.645, 109.443, -59.6959
0.487528, -1, 31.4497, 28.2642, 13.485, 12.6479, 109.34, -59.9571
0.496527, -1, 31.2566, 28.1656, 13.5238, 12.6506, 109.237, -60.2185
0.503591, -1, 31.064, 28.0671, 13.5629, 12.6534, 109.134, -60.4799
0.512603, -1, 30.8716, 27.9685, 13.6019, 12.6562, 109.031, -60.7414
0.519525, -1, 30.6796, 27.87, 13.6409, 12.6591, 108.928, -61.0026
0.655854, -1, 27.3959, 26.1904, 14.3035, 12.7031, 107.172, -65.4507
0.658683, -1, 27.2999, 26.1409, 14.323, 12.7043, 107.12, -65.5814
0.660113, -1, 27.2999, 26.1409, 14.323, 12.7043, 107.12, -65.5814
0.661395, -1, 27.2999, 26.1409, 14.323, 12.7043, 107.12, -65.5814
0.663429, -1, 27.2038, 26.0914, 14.3425, 12.7054, 107.068, -65.7123
0.664629, -1, 27.2038, 26.0914, 14.3425, 12.7054, 107.068, -65.7123
0.6659, -1, 27.2038, 26.0914, 14.3425, 12.7054, 107.068, -65.7123
0.669576, -1, 27.1075, 26.042, 14.362, 12.7066, 107.017, -65.8431
0.671687, -1, 27.0113, 25.9925, 14.3814, 12.7077, 106.965, -65.974
0.672899, -1, 27.0113, 25.9925, 14.3814, 12.7077, 106.965, -65.974
0.675574, -1, 27.0113, 25.9431, 14.4009, 12.7089, 106.913, -66.105
0.676828, -1, 26.9149, 25.9431, 14.4009, 12.7089, 106.913, -66.105
0.678813, -1, 26.9149, 25.9431, 14.4204, 12.7101, 106.862, -66.2359
0.680946, -1, 26.8186, 25.8937, 14.4204, 12.7101, 106.862, -66.2359
0.683024, -1, 26.7222, 25.8443, 14.4399, 12.7112, 106.81, -66.3667
0.685343, -1, 26.7222, 25.8443, 14.4399, 12.7112, 106.81, -66.3667
0.687512, -1, 26.6256, 25.7948, 14.4594, 12.7124, 106.758, -66.4975
0.688746, -1, 26.6256, 25.7948, 14.4594, 12.7124, 106.758, -66.4975
0.689926, -1, 26.6256, 25.7948, 14.4594, 12.7124, 106.758, -66.4975
0.692136, -1, 26.5289, 25.7454, 14.4788, 12.7135, 106.707, -66.6284
0.693428, -1, 26.5289, 25.7454, 14.4788, 12.7135, 106.707, -66.6284
0.695593, -1, 26.4321, 25.696, 14.4982, 12.7146, 106.655, -66.7593
0.708591, -1, 26.1412, 25.5477, 14.5567, 12.718, 106.5, -67.1521
0.711675, -1, 26.0442, 25.4983, 14.5762, 12.7191, 106.449, -67.2831
0.719624, -1, 25.85, 25.3994, 14.6151, 12.7215, 106.346, -67.5448
0.727627, -1, 25.6559, 25.3006, 14.6541, 12.7238, 106.243, -67.8063
0.735707, -1, 25.462, 25.2018, 14.6931, 12.726, 106.139, -68.0679
0.74352, -1, 25.2682, 25.1032, 14.732, 12.7284, 106.036, -68.3298
0.751551, -1, 25.0749, 25.0044, 14.7711, 12.7307, 105.933, -68.5916
0.759623, -1, 24.8816, 24.9055, 14.8101, 12.7331, 105.829, -68.8531
0.767574, -1, 24.6886, 24.8067, 14.849, 12.7354, 105.726, -69.1148
0.775714, -1, 24.4961, 24.7078, 14.888, 12.7378, 105.623, -69.3765
0.783972, -1, 24.3037, 24.6089, 14.927, 12.7402, 105.52, -69.6382
0.791758, -1, 24.1112, 24.5101, 14.966, 12.7426, 105.416, -69.8996
0.799931, -1, 23.9184, 24.4113, 15.005, 12.7448, 105.313, -70.161
0.80796, -1, 23.7255, 24.3124, 15.0439, 12.7474, 105.209, -70.4226
0.815948, -1, 23.5324, 24.2135, 15.0828, 12.7497, 105.106, -70.6846
0.824108, -1, 23.339, 24.1146, 15.1218, 12.752, 105.003, -70.9461
0.832154, -1, 23.1452, 24.0157, 15.1606, 12.7544, 104.899, -71.2079
0.840051, -1, 22.9513, 23.9168, 15.1995, 12.7569, 104.796, -71.4697
0.84816, -1, 22.7573, 23.818, 15.2385, 12.7593, 104.693, -71.7318
0.856111, -1, 22.6604, 23.7686, 15.2774, 12.7618, 104.589, -71.9934
0.864076, -1, 22.4667, 23.67, 15.2969, 12.7631, 104.486, -72.2547
0.873032, -1, 22.2732, 23.5713, 15.3359, 12.7656, 104.382, -72.5161
0.879504, -1, 22.0801, 23.4726, 15.3748, 12.7682, 104.331, -72.6469
0.887492, -1, 21.887, 23.3739, 15.4138, 12.7707, 104.228, -72.9086
0.895555, -1, 21.6945, 23.2752, 15.4528, 12.7734, 104.124, -73.1699
0.903498, -1, 21.5023, 23.1764, 15.4917, 12.776, 104.021, -73.4313
0.91151, -1, 21.31, 23.0777, 15.5306, 12.7787, 103.918, -73.6929
0.919553, -1, 21.1176, 22.979, 15.5696, 12.7813, 103.815, -73.9546
0.927498, -1, 20.9251, 22.8804, 15.6085, 12.784, 103.712, -74.2159
0.935502, -1, 20.7327, 22.7818, 15.6475, 12.7867, 103.609, -74.477
0.943532, -1, 20.5401, 22.6832, 15.6864, 12.7895, 103.506, -74.7383
0.95152, -1, 20.347, 22.5845, 15.7252, 12.7922, 103.403, -74.9997
0.959523, -1, 20.1534, 22.4857, 15.7642, 12.7949, 103.3, -75.2609
0.9675, -1, 19.9597, 22.387, 15.803, 12.7976, 103.196, -75.5219
0.975515, -1, 19.7661, 22.2883, 15.8417, 12.8003, 103.094, -75.783
0.983577, -1, 19.5725, 22.1897, 15.8806, 12.803, 102.991, -76.0443
0.991517, -1, 19.3792, 22.0911, 15.9195, 12.8057, 102.887, -76.3056
1.00051, -1, 19.1862, 21.9924, 15.9583, 12.8085, 102.785, -76.5665
1.00758, -1, 18.9934, 21.8938, 15.9973, 12.8113, 102.681, -76.8272
1.01552, -1, 18.8008, 21.7951, 16.0361, 12.814, 102.578, -77.0883
1.0235, -1, 18.6087, 21.6964, 16.0748, 12.8168, 102.476, -77.3494
1.03154, -1, 18.4169, 21.5978, 16.1138, 12.8194, 102.373, -77.6101
1.03953, -1, 18.225, 21.4993, 16.1526, 12.8221, 102.27, -77.8708
1.0475, -1, 18.033, 21.4008, 16.1913, 12.8247, 102.167, -78.1315
1.0555, -1, 17.8411, 21.3025, 16.2303, 12.8272, 102.064, -78.3924
1.06358, -1, 17.6491, 21.2041, 16.2691, 12.8298, 101.961, -78.6529
1.07153, -1, 17.4568, 21.1058, 16.3079, 12.8323, 101.858, -78.9132
1.07952, -1, 17.264, 21.0075, 16.3468, 12.8347, 101.755, -79.1738
1.08757, -1, 17.0708, 20.9092, 16.3855, 12.8371, 101.652, -79.4344
1.0955, -1, 16.8779, 20.811, 16.4243, 12.8396, 101.549, -79.695
1.1035, -1, 16.6848, 20.7128, 16.4631, 12.8419, 101.446, -79.9554
1.11159, -1, 16.4919, 20.6146, 16.5018, 12.8443, 101.344, -80.216
1.1195, -1, 16.2991, 20.5163, 16.5405, 12.8466, 101.241, -80.4766
1.1275, -1, 16.1068, 20.4179, 16.5793, 12.8489, 101.139, -80.7372
1.13557, -1, 15.9148, 20.3195, 16.618, 12.8513, 101.036, -80.9973
1.14352, -1, 15.7231, 20.221, 16.6567, 12.8536, 100.933, -81.2574
1.15151, -1, 15.5318, 20.1226, 16.6953, 12.8559, 100.831, -81.5174
1.15956, -1, 15.3406, 20.0242, 16.7339, 12.8583, 100.728, -81.7776
1.1675, -1, 15.1494, 19.926, 16.7727, 12.8605, 100.625, -82.0375
1.17557, -1, 14.9582, 19.8277, 16.8114, 12.8628, 100.523, -82.2973
1.18354, -1, 14.7668, 19.7296, 16.85, 12.8651, 100.42, -82.5571
1.19155, -1, 14.5754, 19.6315, 16.8888, 12.8674, 100.318, -82.8173
1.1997, -1, 14.3835, 19.5334, 16.9274, 12.8697, 100.215, -83.0772
1.20762, -1, 14.1912, 19.4353, 16.9661, 12.872, 100.113, -83.3366
1.2156, -1, 13.9989, 19.3374, 17.0048, 12.8742, 100.01, -83.5961
1.22367, -1, 13.8066, 19.2395, 17.0433, 12.8766, 99.9076, -83.8558
1.23161, -1, 13.6141, 19.1417, 17.0819, 12.8789, 99.8051, -84.1153
1.23956, -1, 13.4218, 19.0438, 17.1207, 12.8812, 99.7025, -84.3746
1.24763, -1, 13.2298, 18.9459, 17.1591, 12.8835, 99.6003, -84.6339
1.25553, -1, 13.0382, 18.848, 17.1977, 12.8859, 99.4979, -84.8932
1.26357, -1, 12.847, 18.75, 17.2363, 12.8882, 99.3954, -85.1527
1.27168, -1, 12.656, 18.6521, 17.2749, 12.8906, 99.2933, -85.4117
1.27967, -1, 12.4653, 18.5543, 17.3134, 12.8931, 99.1909, -85.6705
1.28782, -1, 12.2751, 18.4565, 17.3519, 12.8955, 99.0886, -85.9295
1.2958, -1, 12.0849, 18.3587, 17.3904, 12.8979, 98.9867, -86.1886
1.30459, -1, 11.8945, 18.2611, 17.4291, 12.9003, 98.8845, -86.4473
1.31194, -1, 11.7041, 18.1634, 17.4677, 12.9027, 98.7826, -86.7058
1.32008, -1, 11.5133, 18.0658, 17.5061, 12.9052, 98.6808, -86.9644
1.32884, -1, 11.3223, 17.9682, 17.5447, 12.9076, 98.5787, -87.2232
1.33608, -1, 11.131, 17.8707, 17.5833, 12.91, 98.4768, -87.4817
1.34408, -1, 10.9395, 17.7732, 17.6218, 12.9125, 98.375, -87.7399
1.35304, -1, 10.7478, 17.6758, 17.6603, 12.915, 98.2729, -87.998
1.36013, -1, 10.652, 17.6271, 17.6795, 12.9174, 98.1711, -88.2564
1.36814, -1, 10.4606, 17.5295, 17.7372, 12.92, 98.0692, -88.5148
1.37549, -1, 10.2695, 17.432, 17.7564, 12.9212, 98.0183, -88.6438
1.38351, -1, 10.0786, 17.3344, 17.7949, 12.9238, 97.9164, -88.9018
1.39154, -1, 9.88818, 17.2368, 17.8332, 12.9265, 97.8147, -89.1598
1.39949, -1, 9.69803, 17.1393, 17.8716, 12.9291, 97.7127, -89.418
1.40749, -1, 9.50839, 17.0419, 17.9099, 12.9318, 97.6107, -89.676
1.41554, -1, 9.31912, 16.9445, 17.9482, 12.9346, 97.5089, -89.9336
1.4235, -1, 9.1298, 16.8471, 17.9867, 12.9373, 97.407, -90.1911
1.43161, -1, 8.94041, 16.75, 18.025, 12.9399, 97.3052, -90.4487
1.43952, -1, 8.75095, 16.6528, 18.0633, 12.9425, 97.2035, -90.7063
1.44751, -1, 8.56138, 16.5556, 18.1018, 12.9451, 97.1019, -90.9634
1.45556, -1, 8.3716, 16.4586, 18.1402, 12.9479, 97.0004, -91.2206
1.4635, -1, 8.18128, 16.3616, 18.1785, 12.9505, 96.8989, -91.4778
1.47149, -1, 7.99079, 16.2648, 18.2169, 12.9531, 96.7972, -91.7352
1.47959, -1, 7.80034, 16.1679, 18.2551, 12.9558, 96.6958, -91.992
1.48748, -1, 7.60971, 16.071, 18.2934, 12.9584, 96.5943, -92.2487
1.4965, -1, 7.41933, 15.974, 18.3318, 12.9611, 96.4928, -92.5054
1.50356, -1, 7.22919, 15.8771, 18.3699, 12.9636, 96.3917, -92.7623
1.51255, -1, 7.03929, 15.7801, 18.4081, 12.9662, 96.2902, -93.019
1.51952, -1, 6.84984, 15.6832, 18.4464, 12.9688, 96.189, -93.2754
1.52756, -1, 6.66086, 15.5863, 18.4845, 12.9713, 96.0883, -93.5318
1.53551, -1, 6.47234, 15.4895, 18.5226, 12.9738, 95.9871, -93.7882
1.54348, -1, 6.28413, 15.3927, 18.5608, 12.9763, 95.886, -94.0446
1.55149, -1, 6.09606, 15.296, 18.599, 12.9788, 95.7854, -94.3005
1.55956, -1, 5.90779, 15.1993, 18.6372, 12.9812, 95.6843, -94.5564
1.56748, -1, 5.71936, 15.1026, 18.6754, 12.9836, 95.5833, -94.8123
1.57551, -1, 5.5309, 15.006, 18.7134, 12.9858, 95.4828, -95.0684
1.58355, -1, 5.34216, 14.9095, 18.7515, 12.9882, 95.3818, -95.324
1.59148, -1, 5.15301, 14.8131, 18.7897, 12.9904, 95.2811, -95.5794
1.59959, -1, 4.96364, 14.7168, 18.8277, 12.9927, 95.1806, -95.8349
1.60758, -1, 4.77428, 14.6204, 18.8658, 12.9951, 95.0797, -96.0904
1.61551, -1, 4.58487, 14.524, 18.9039, 12.9972, 94.9789, -96.3457
1.62381, -1, 4.39575, 14.4277, 18.9419, 12.9995, 94.8783, -96.6006
1.63148, -1, 4.20682, 14.3313, 18.9799, 13.0016, 94.7774, -96.8554
1.63948, -1, 4.01808, 14.2349, 19.0179, 13.004, 94.6766, -97.1106
1.64831, -1, 3.83, 14.1387, 19.0558, 13.0063, 94.5759, -97.3657
1.6555, -1, 3.6424, 14.0425, 19.0938, 13.0084, 94.475, -97.6204
1.66361, -1, 3.45517, 13.9463, 19.1317, 13.0108, 94.3745, -97.8751
1.67229, -1, 3.26824, 13.8502, 19.1695, 13.0131, 94.2737, -98.1297
1.67948, -1, 3.08118, 13.7542, 19.2074, 13.0154, 94.173, -98.3845
1.6877, -1, 2.89414, 13.6581, 19.2454, 13.0176, 94.0725, -98.6389
1.69634, -1, 2.70711, 13.5621, 19.2833, 13.0199, 93.9718, -98.8931
1.70359, -1, 2.5198, 13.4662, 19.3212, 13.0222, 93.8713, -99.1472
1.71186, -1, 2.33232, 13.3703, 19.3589, 13.0245, 93.771, -99.4014
1.7204, -1, 2.14449, 13.2745, 19.3967, 13.0267, 93.6707, -99.6554
1.7276, -1, 1.95642, 13.1787, 19.4346, 13.0289, 93.5705, -99.9089
1.73609, -1, 1.76833, 13.0828, 19.4724, 13.0312, 93.4707, -100.163
1.74457, -1, 1.58009, 12.987, 19.5101, 13.0334, 93.3705, -100.416
1.75151, -1, 1.39202, 12.8912, 19.5479, 13.0357, 93.2705, -100.67
1.76024, -1, 1.20422, 12.7954, 19.5856, 13.038, 93.1706, -100.923
1.76842, -1, 1.01672, 12.6996, 19.6233, 13.0404, 93.0705, -101.176
1.7756, -1, 0.829933, 12.604, 19.6611, 13.0428, 92.9705, -101.429
1.78448, -1, 0.643637, 12.5084, 19.6986, 13.0451, 92.8709, -101.682
1.79179, -1, 0.457734, 12.4129, 19.7362, 13.0476, 92.771, -101.935
1.79989, -1, 0.271988, 12.3176, 19.774, 13.05, 92.6713, -102.188
1.80866, -1, 0.0865063, 12.2221, 19.8115, 13.0525, 92.572, -102.441
1.8167, -1, -0.098929, 12.1268, 19.8491, 13.0549, 92.4722, -102.693
1.824, -1, -0.284581, 12.0315, 19.8868, 13.0573, 92.3726, -102.946
1.83281, -1, -0.470432, 11.9364, 19.9243, 13.0598, 92.2734, -103.198
1.84002, -1, -0.656688, 11.8413, 19.9618, 13.0623, 92.1738, -103.45
1.84823, -1, -0.843132, 11.7464, 19.9994, 13.0648, 92.0743, -103.702
1.85692, -1, -1.02971, 11.6513, 20.0368, 13.0673, 91.9752, -103.954
1.86408, -1, -1.12307, 11.6038, 20.0555, 13.0698, 91.8757, -104.206
1.87212, -1, -1.31006, 11.5087, 20.0931, 13.0723, 91.7764, -104.457
1.87947, -1, -1.49688, 11.4136, 20.1306, 13.0736, 91.727, -104.583
1.88747, -1, -1.68342, 11.3185, 20.1679, 13.0762, 91.6277, -104.835
1.89554, -1, -1.86964, 11.2234, 20.2054, 13.0788, 91.5285, -105.086
1.90347, -1, -2.05548, 11.1284, 20.2428, 13.0815, 91.4295, -105.337
1.91147, -1, -2.24058, 11.0335, 20.2802, 13.084, 91.3302, -105.588
1.91956, -1, -2.42538, 10.9386, 20.3176, 13.0867, 91.2309, -105.839
1.92747, -1, -2.60986, 10.8438, 20.3549, 13.0894, 91.132, -106.09
1.93553, -1, -2.79385, 10.749, 20.3921, 13.0921, 91.0329, -106.341
1.94522, -1, -3.06978, 10.6069, 20.4482, 13.096, 90.8844, -106.717
1.95149, -1, -3.16182, 10.5596, 20.4669, 13.0973, 90.835, -106.842
1.95952, -1, -3.34606, 10.465, 20.5041, 13.0999, 90.736, -107.093
1.96905, -1, -3.62313, 10.3234, 20.56, 13.1037, 90.5878, -107.469
1.97548, -1, -3.71551, 10.2762, 20.5786, 13.105, 90.5385, -107.594
1.98357, -1, -3.90051, 10.1819, 20.6158, 13.1074, 90.4395, -107.843
1.99329, -1, -4.08575, 10.0875, 20.6717, 13.1111, 90.2916, -108.218
1.99948, -1, -4.27128, 9.9932, 20.6903, 13.1123, 90.2424, -108.343
2.00848, -1, -4.45688, 9.89891, 20.7274, 13.1146, 90.1436, -108.593
2.01648, -1, -4.6422, 9.80457, 20.7647, 13.117, 90.0452, -108.843
2.02356, -1, -4.82711, 9.71037, 20.8018, 13.1194, 89.9469, -109.092
2.03147, -1, -5.01164, 9.6163, 20.8388, 13.1219, 89.8482, -109.342
2.0395, -1, -5.19549, 9.52225, 20.876, 13.1242, 89.7498, -109.591
2.04763, -1, -5.37884, 9.42818, 20.9131, 13.1265, 89.6516, -109.84
2.05548, -1, -5.56181, 9.33423, 20.9502, 13.1288, 89.5531, -110.089
2.06348, -1, -5.74435, 9.24029, 20.9873, 13.1312, 89.4549, -110.338
2.07154, -1, -5.92671, 9.14634, 21.0243, 13.1335, 89.3569, -110.586
2.07949, -1, -6.10907, 9.0525, 21.0613, 13.1357, 89.2587, -110.835
2.08747, -1, -6.29172, 8.95868, 21.0984, 13.1379, 89.1606, -111.083
2.09555, -1, -6.47469, 8.86503, 21.1353, 13.1402, 89.0628, -111.332
2.10347, -1, -6.65782, 8.77139, 21.1721, 13.1423, 88.9647, -111.58
2.11161, -1, -6.84141, 8.67777, 21.2091, 13.1445, 88.8668, -111.828
2.11956, -1, -7.02528, 8.58414, 21.246, 13.1466, 88.769, -112.076
2.12747, -1, -7.20948, 8.4906, 21.2829, 13.1487, 88.6711, -112.324
2.13548, -1, -7.39368, 8.39697, 21.3198, 13.1508, 88.5733, -112.571
2.14354, -1, -7.57747, 8.30334, 21.3567, 13.153, 88.4758, -112.819
2.15149, -1, -7.76097, 8.20991, 21.3934, 13.1551, 88.3781, -113.066
2.15947, -1, -7.94403, 8.11653, 21.4303, 13.1574, 88.2807, -113.314
2.16754, -1, -8.12668, 8.02313, 21.4672, 13.1596, 88.1835, -113.561
2.17547, -1, -8.30859, 7.92985, 21.5039, 13.1618, 88.086, -113.808
2.18354, -1, -8.49001, 7.83658, 21.5408, 13.1641, 87.9886, -114.055
2.19152, -1, -8.67105, 7.74338, 21.5776, 13.1663, 87.8913, -114.301
2.19952, -1, -8.85172, 7.65017, 21.6143, 13.1687, 87.7938, -114.548
2.20764, -1, -9.03246, 7.55708, 21.6511, 13.1708, 87.6964, -114.794
2.21556, -1, -9.2135, 7.46405, 21.6879, 13.1731, 87.5993, -115.041
2.22357, -1, -9.39474, 7.37125, 21.7245, 13.1753, 87.5021, -115.287
2.23165, -1, -9.57635, 7.27843, 21.7613, 13.1775, 87.405, -115.533
2.23964, -1, -9.75831, 7.1856, 21.7979, 13.1797, 87.308, -115.779
2.24747, -1, -9.94068, 7.09288, 21.8345, 13.1819, 87.2107, -116.025
2.25563, -1, -10.1231, 7.00017, 21.8711, 13.1841, 87.1135, -116.271
2.26351, -1, -10.3058, 6.90739, 21.9077, 13.1864, 87.0165, -116.517
2.27157, -1, -10.4884, 6.81463, 21.9443, 13.1886, 86.9192, -116.762
2.27971, -1, -10.6706, 6.72192, 21.9809, 13.1909, 86.8223, -117.008
2.28765, -1, -10.8524, 6.62934, 22.0173, 13.1932, 86.7254, -117.253
2.29581, -1, -11.0337, 6.53675, 22.0537, 13.1958, 86.6285, -117.499
2.30381, -1, -11.2143, 6.44421, 22.0903, 13.1981, 86.5318, -117.743
2.31182, -1, -11.3942, 6.35172, 22.1269, 13.2005, 86.4353, -117.988
2.32, -1, -11.5738, 6.25928, 22.1632, 13.2029, 86.3384, -118.233
2.32862, -1, -11.7531, 6.16683, 22.1997, 13.2054, 86.2418, -118.478
2.33597, -1, -11.9323, 6.07454, 22.2362, 13.2079, 86.1453, -118.722
2.34457, -1, -12.1116, 5.98229, 22.2726, 13.2103, 86.0486, -118.966
2.35208, -1, -12.2911, 5.89024, 22.309, 13.2128, 85.9522, -119.21
2.36002, -1, -12.381, 5.79824, 22.3454, 13.2153, 85.856, -119.455
2.36818, -1, -12.5611, 5.70622, 22.3816, 13.2177, 85.7596, -119.699
2.37602, -1, -12.7415, 5.66022, 22.3997, 13.219, 85.7114, -119.821
2.38346, -1, -12.9223, 5.56831, 22.4362, 13.2214, 85.6155, -120.064
2.39153, -1, -13.1034, 5.47641, 22.4724, 13.2239, 85.5195, -120.308
2.39946, -1, -13.2846, 5.38435, 22.5086, 13.2263, 85.4235, -120.552
2.40745, -1, -13.4657, 5.29242, 22.5449, 13.2288, 85.3278, -120.795
2.4155, -1, -13.6463, 5.20051, 22.5811, 13.2313, 85.2319, -121.038
2.42348, -1, -13.8265, 5.10863, 22.6172, 13.2339, 85.1361, -121.281
2.43153, -1, -14.0061, 5.01678, 22.6534, 13.2365, 85.0406, -121.524
2.43946, -1, -14.1849, 4.92503, 22.6896, 13.2391, 84.945, -121.767
2.44749, -1, -14.3632, 4.8333, 22.7256, 13.2417, 84.8493, -122.01
2.45553, -1, -14.5411, 4.74162, 22.7619, 13.2442, 84.7538, -122.253
2.46345, -1, -14.7188, 4.64999, 22.7981, 13.2467, 84.6581, -122.495
2.47148, -1, -14.8965, 4.5585, 22.8342, 13.2492, 84.5623, -122.738
2.47953, -1, -15.0741, 4.46706, 22.8703, 13.2517, 84.4667, -122.98
2.48745, -1, -15.2521, 4.37578, 22.9065, 13.2541, 84.371, -123.222
2.49545, -1, -15.4305, 4.28444, 22.9425, 13.2565, 84.2753, -123.463
2.50447, -1, -15.6094, 4.19314, 22.9786, 13.2589, 84.1799, -123.705
2.51147, -1, -15.7886, 4.10189, 23.0146, 13.2611, 84.0843, -123.947
2.52046, -1, -15.9678, 4.01067, 23.0505, 13.2634, 83.9889, -124.188
2.52752, -1, -16.1474, 3.91939, 23.0866, 13.2656, 83.8936, -124.43
2.53546, -1, -16.3272, 3.82814, 23.1226, 13.2677, 83.7982, -124.671
2.54348, -1, -16.5066, 3.73694, 23.1584, 13.2699, 83.7027, -124.913
2.55149, -1, -16.6857, 3.64581, 23.1942, 13.2721, 83.6072, -125.154
2.55945, -1, -16.8641, 3.55473, 23.2301, 13.2744, 83.5119, -125.395
2.56753, -1, -17.0418, 3.46369, 23.2659, 13.2766, 83.4165, -125.636
2.57546, -1, -17.2186, 3.37271, 23.3018, 13.2789, 83.3212, -125.876
2.58345, -1, -17.3952, 3.28186, 23.3376, 13.2811, 83.2262, -126.117
2.59157, -1, -17.5715, 3.19098, 23.3734, 13.2832, 83.131, -126.358
2.59946, -1, -17.7475, 3.10037, 23.4092, 13.2854, 83.0362, -126.598
2.60745, -1, -17.9235, 3.00978, 23.4451, 13.2874, 82.9415, -126.838
2.61565, -1, -18.0997, 2.91931, 23.4808, 13.2896, 82.8466, -127.078
2.62347, -1, -18.2762, 2.82893, 23.5166, 13.2918, 82.7518, -127.319
2.63147, -1, -18.4531, 2.73852, 23.5523, 13.2938, 82.6573, -127.558
2.63953, -1, -18.6306, 2.64813, 23.5879, 13.2958, 82.5626, -127.798
2.64746, -1, -18.8083, 2.55786, 23.6236, 13.2979, 82.468, -128.037
2.65545, -1, -18.9864, 2.4674, 23.6594, 13.2999, 82.3737, -128.277
2.66354, -1, -19.1646, 2.37694, 23.6949, 13.3019, 82.2792, -128.516
2.67146, -1, -19.3428, 2.28658, 23.7305, 13.3039, 82.1848, -128.755
2.67955, -1, -19.5205, 2.19619, 23.7661, 13.3061, 82.091, -128.994
2.68764, -1, -19.6975, 2.10579, 23.8015, 13.3082, 81.9966, -129.233
2.69549, -1, -19.8741, 2.01549, 23.8369, 13.3104, 81.9024, -129.473
2.70357, -1, -20.0499, 1.92525, 23.8725, 13.3125, 81.8086, -129.711
2.71238, -1, -20.2251, 1.83504, 23.908, 13.3147, 81.7144, -129.95
2.71957, -1, -20.4, 1.7449, 23.9434, 13.3169, 81.6203, -130.188
2.72763, -1, -20.5746, 1.65487, 23.979, 13.3191, 81.5266, -130.427
2.73636, -1, -20.749, 1.5649, 24.0145, 13.3213, 81.4325, -130.665
2.74355, -1, -20.9236, 1.47506, 24.0498, 13.3235, 81.3387, -130.903
2.75163, -1, -21.0985, 1.38534, 24.0854, 13.3257, 81.2451, -131.141
2.7595, -1, -21.2739, 1.29555, 24.1209, 13.3279, 81.1512, -131.379
2.76768, -1, -21.4496, 1.20583, 24.1562, 13.3301, 81.0573, -131.617
2.77555, -1, -21.6256, 1.1162, 24.1915, 13.3322, 80.9635, -131.854
2.78615, -1, -21.8018, 1.02653, 24.227, 13.3344, 80.8697, -132.092
2.79176, -1, -21.9781, 0.936901, 24.2624, 13.3366, 80.7759, -132.329
2.79968, -1, -22.1547, 0.847308, 24.2977, 13.3388, 80.6823, -132.566
2.80857, -1, -22.3313, 0.757744, 24.3331, 13.3409, 80.5886, -132.803
2.81617, -1, -22.5075, 0.668268, 24.3683, 13.3431, 80.4951, -133.04
2.82387, -1, -22.6831, 0.57874, 24.4035, 13.3455, 80.4015, -133.277
2.83271, -1, -22.858, 0.489326, 24.4388, 13.3479, 80.3079, -133.514
2.84002, -1, -23.0321, 0.399898, 24.474, 13.3503, 80.2143, -133.751
2.84799, -1, -23.2057, 0.310516, 24.5092, 13.3528, 80.1208, -133.988
2.85676, -1, -23.379, 0.221204, 24.5444, 13.3552, 80.0275, -134.224
2.86426, -1, -23.552, 0.131959, 24.5796, 13.3576, 79.934, -134.46
2.87199, -1, -23.6386, 0.0873884, 24.5972, 13.3588, 79.8874, -134.696
2.87947, -1, -23.8119, -0.00167513, 24.6324, 13.3612, 79.7942, -134.814
2.88753, -1, -23.9854, -0.0906549, 24.6676, 13.3637, 79.701, -135.051
2.89543, -1, -24.159, -0.179622, 24.7026, 13.3662, 79.6079, -135.287
2.90346, -1, -24.333, -0.268598, 24.7377, 13.3686, 79.515, -135.522
2.91149, -1, -24.5072, -0.357496, 24.7729, 13.3711, 79.4219, -135.758
2.91944, -1, -24.6818, -0.446375, 24.8079, 13.3736, 79.3288, -135.993
2.92746, -1, -24.8567, -0.535311, 24.843, 13.3758, 79.2358, -136.229
2.93549, -1, -25.0319, -0.62419, 24.8781, 13.3782, 79.1428, -136.464
2.94344, -1, -25.2068, -0.712998, 24.9131, 13.3806, 79.0498, -136.699
2.95449, -1, -25.4684, -0.846166, 24.9656, 13.3842, 78.9109, -137.052
2.9595, -1, -25.5554, -0.890553, 24.9831, 13.3855, 78.8645, -137.169
2.96744, -1, -25.7291, -0.979303, 25.018, 13.3879, 78.7717, -137.404
2.9786, -1, -25.9882, -1.1123, 25.0704, 13.3915, 78.633, -137.756
2.98344, -1, -26.0744, -1.15664, 25.0879, 13.3928, 78.5868, -137.873
2.99144, -1, -26.2465, -1.24527, 25.1228, 13.3952, 78.4941, -138.108
3.00175, -1, -26.4183, -1.33381, 25.1576, 13.3976, 78.4015, -138.342
3.00744, -1, -26.5901, -1.42224, 25.1925, 13.3999, 78.3093, -138.577
3.01645, -1, -26.7621, -1.51056, 25.2275, 13.4021, 78.2167, -138.811
3.02351, -1, -26.9343, -1.59878, 25.2623, 13.4044, 78.1243, -139.045
3.03144, -1, -27.1068, -1.68694, 25.2972, 13.4066, 78.0322, -139.279
3.03945, -1, -27.2793, -1.77516, 25.332, 13.4087, 77.9399, -139.513
3.04759, -1, -27.4522, -1.86325, 25.3668, 13.411, 77.8479, -139.746
3.05547, -1, -27.6254, -1.95134, 25.4015, 13.4131, 77.7559, -139.98
3.06345, -1, -27.7986, -2.03959, 25.4364, 13.4152, 77.6638, -140.213
3.0715, -1, -27.972, -2.12763, 25.4711, 13.4173, 77.5718, -140.447
3.07946, -1, -28.1452, -2.21565, 25.5058, 13.4194, 77.4798, -140.68
3.0875, -1, -28.3184, -2.30374, 25.5406, 13.4214, 77.3877, -140.913
3.09548, -1, -28.4912, -2.39184, 25.5754, 13.4235, 77.2956, -141.146
3.10344, -1, -28.6636, -2.47975, 25.6099, 13.4256, 77.2035, -141.379
3.1115, -1, -28.8353, -2.56775, 25.6446, 13.4278, 77.1116, -141.612
3.11947, -1, -29.0063, -2.65573, 25.6793, 13.43, 77.0196, -141.844
3.12746, -1, -29.1769, -2.74356, 25.7138, 13.4321, 76.9277, -142.077
3.13552, -1, -29.3475, -2.83135, 25.7484, 13.4341, 76.8361, -142.309
3.14344, -1, -29.5182, -2.91907, 25.7831, 13.4362, 76.7442, -142.542
3.15144, -1, -29.6891, -3.00668, 25.8176, 13.4382, 76.6523, -142.774
3.1595, -1, -29.8601, -3.09423, 25.8521, 13.4403, 76.5607, -143.007
3.16744, -1, -30.031, -3.1817, 25.8867, 13.4425, 76.4687, -143.239
3.1756, -1, -30.2019, -3.26929, 25.9212, 13.4444, 76.3769, -143.471
3.18344, -1, -30.3731, -3.35674, 25.9557, 13.4466, 76.2855, -143.703
3.19144, -1, -30.5446, -3.44417, 25.9903, 13.4486, 76.1939, -143.935
3.19973, -1, -30.7165, -3.53175, 26.0247, 13.4506, 76.1025, -144.166
3.20753, -1, -30.8884, -3.61912, 26.0591, 13.4526, 76.0112, -144.397
3.21556, -1, -31.0602, -3.70652, 26.0937, 13.4546, 75.9197, -144.629
3.22395, -1, -31.2319, -3.79386, 26.1282, 13.4567, 75.8284, -144.86
3.23154, -1, -31.4032, -3.88117, 26.1625, 13.4588, 75.7371, -145.091
3.23955, -1, -31.5741, -3.96845, 26.197, 13.461, 75.6459, -145.323
3.24812, -1, -31.7445, -4.05566, 26.2314, 13.4632, 75.5546, -145.553
3.25546, -1, -31.9145, -4.14293, 26.2658, 13.4653, 75.4634, -145.784
3.26349, -1, -32.0842, -4.2301, 26.3002, 13.4675, 75.3725, -146.015
3.27231, -1, -32.2536, -4.31719, 26.3346, 13.4697, 75.2813, -146.246
3.27949, -1, -32.423, -4.40427, 26.3688, 13.4719, 75.1902, -146.477
3.28759, -1, -32.5928, -4.49122, 26.4031, 13.474, 75.0996, -146.707
3.29656, -1, -32.7624, -4.57811, 26.4376, 13.4761, 75.0085, -146.938
3.30371, -1, -32.932, -4.66504, 26.4718, 13.4783, 74.9177, -147.168
3.31182, -1, -33.1017, -4.75203, 26.5059, 13.4805, 74.8274, -147.398
3.32071, -1, -33.2716, -4.83888, 26.5403, 13.4827, 74.7365, -147.628
3.32786, -1, -33.4416, -4.92574, 26.5745, 13.4849, 74.646, -147.858
3.33654, -1, -33.6119, -5.01274, 26.6087, 13.4871, 74.5554, -148.088
3.34481, -1, -33.7822, -5.09955, 26.643, 13.4894, 74.4648, -148.318
3.35199, -1, -33.9524, -5.18628, 26.6771, 13.4916, 74.3743, -148.548
3.36055, -1, -34.1226, -5.27302, 26.7112, 13.4939, 74.2839, -148.777
3.3689, -1, -34.2076, -5.31639, 26.7455, 13.4961, 74.1933, -149.006
3.37598, -1, -34.3778, -5.40302, 26.7627, 13.4973, 74.1479, -149.236
3.38402, -1, -34.5476, -5.48963, 26.7968, 13.4996, 74.0573, -149.351
3.3915, -1, -34.7169, -5.5763, 26.8309, 13.502, 73.9669, -149.58
3.40048, -1, -34.9699, -5.70615, 26.8822, 13.5057, 73.831, -149.923
3.40748, -1, -35.0542, -5.74938, 26.8992, 13.5069, 73.7857, -150.038
3.41542, -1, -35.2224, -5.83587, 26.9333, 13.5093, 73.6955, -150.267
3.42348, -1, -35.3906, -5.92218, 26.9674, 13.5117, 73.6051, -150.496
3.43146, -1, -35.5591, -6.00839, 27.0016, 13.514, 73.5148, -150.725
3.43944, -1, -35.7277, -6.09463, 27.0356, 13.5164, 73.4244, -150.953
3.44748, -1, -35.8962, -6.1808, 27.0697, 13.5188, 73.3343, -151.182
3.45705, -1, -36.149, -6.30999, 27.1208, 13.5224, 73.1986, -151.525
3.46344, -1, -36.2332, -6.35307, 27.1378, 13.5236, 73.1533, -151.639
3.47149, -1, -36.4019, -6.4393, 27.1717, 13.526, 73.0631, -151.868
3.48103, -1, -36.6551, -6.5686, 27.2227, 13.5295, 72.9276, -152.21
3.48743, -1, -36.7395, -6.61168, 27.2397, 13.5306, 72.8824, -152.324
3.49549, -1, -36.9085, -6.69781, 27.2736, 13.5329, 72.7924, -152.552
3.50342, -1, -37.0775, -6.78397, 27.3075, 13.5353, 72.7022, -152.78
3.51418, -1, -37.3306, -6.91314, 27.3584, 13.5387, 72.5673, -153.122
3.5196, -1, -37.4149, -6.95613, 27.3753, 13.5398, 72.5225, -153.236
3.52845, -1, -37.583, -7.04221, 27.4093, 13.5421, 72.4326, -153.463
3.53542, -1, -37.7509, -7.12825, 27.4433, 13.5444, 72.3427, -153.691
3.54344, -1, -37.9185, -7.2142, 27.4771, 13.5466, 72.2529, -153.918
3.55149, -1, -38.0858, -7.30012, 27.5109, 13.5489, 72.1632, -154.146
3.55944, -1, -38.2532, -7.38601, 27.5449, 13.551, 72.0733, -154.373
3.56744, -1, -38.4205, -7.47175, 27.5786, 13.5532, 71.9837, -154.6
3.57547, -1, -38.5877, -7.55747, 27.6124, 13.5553, 71.8943, -154.827
3.58346, -1, -38.7551, -7.6432, 27.6464, 13.5573, 71.8046, -155.055
3.59142, -1, -38.9224, -7.72888, 27.6801, 13.5594, 71.715, -155.282
3.59949, -1, -39.0898, -7.81451, 27.7137, 13.5614, 71.626, -155.508
3.60745, -1, -39.2572, -7.90014, 27.7476, 13.5634, 71.5364, -155.735
3.61542, -1, -39.4247, -7.98587, 27.7814, 13.5654, 71.4471, -155.962
3.62351, -1, -39.5923, -8.07142, 27.815, 13.5675, 71.3578, -156.189
3.63145, -1, -39.76, -8.15696, 27.8487, 13.5694, 71.2684, -156.415
3.63942, -1, -39.9276, -8.24246, 27.8824, 13.5714, 71.179, -156.642
3.64748, -1, -40.0951, -8.32788, 27.9161, 13.5733, 71.0896, -156.868
3.65545, -1, -40.2627, -8.41325, 27.9497, 13.5752, 71.0006, -157.094
3.66343, -1, -40.43, -8.49861, 27.9835, 13.5772, 70.9111, -157.32
3.67147, -1, -40.597, -8.58397, 28.0171, 13.5792, 70.8219, -157.547
3.67945, -1, -40.7639, -8.66936, 28.0507, 13.5811, 70.7329, -157.772
3.68742, -1, -40.9304, -8.75469, 28.0844, 13.5832, 70.6437, -157.998
3.69561, -1, -41.0968, -8.83997, 28.1181, 13.5853, 70.5545, -158.224
3.70347, -1, -41.263, -8.92522, 28.1516, 13.5873, 70.4655, -158.45
3.71151, -1, -41.4292, -9.01043, 28.1852, 13.5893, 70.3763, -158.676
3.71984, -1, -41.5955, -9.09563, 28.2189, 13.5913, 70.287, -158.901
3.72754, -1, -41.7618, -9.18072, 28.2524, 13.5933, 70.198, -159.126
3.73553, -1, -41.9282, -9.26577, 28.286, 13.5953, 70.1089, -159.352
3.74407, -1, -42.0946, -9.35081, 28.3197, 13.5973, 70.02, -159.578
3.7525, -1, -42.2607, -9.43587, 28.3532, 13.5994, 69.9309, -159.803
3.75943, -1, -42.4269, -9.52089, 28.3867, 13.6014, 69.8423, -160.028
3.76821, -1, -42.5933, -9.60587, 28.4203, 13.6034, 69.7532, -160.253
3.77545, -1, -42.7597, -9.69083, 28.4538, 13.6054, 69.6643, -160.478
3.78363, -1, -42.9263, -9.77581, 28.4872, 13.6075, 69.5757, -160.704
3.79164, -1, -43.0927, -9.86073, 28.5207, 13.6095, 69.4867, -160.928
3.80046, -1, -43.259, -9.94571, 28.5543, 13.6115, 69.398, -161.153
3.80767, -1, -43.4251, -10.0306, 28.5878, 13.6136, 69.3095, -161.378
3.8158, -1, -43.5911, -10.1156, 28.6213, 13.6157, 69.2209, -161.603
3.82465, -1, -43.7569, -10.2005, 28.6548, 13.6178, 69.1323, -161.828
3.832, -1, -43.9227, -10.2853, 28.6882, 13.6201, 69.0438, -162.052
3.8402, -1, -44.0883, -10.3701, 28.7216, 13.6221, 68.9554, -162.276
3.84859, -1, -44.2536, -10.4548, 28.7552, 13.6243, 68.8667, -162.501
3.85601, -1, -44.4187, -10.5394, 28.7886, 13.6265, 68.778, -162.725
3.86404, -1, -44.5839, -10.624, 28.822, 13.6287, 68.6896, -162.949
3.87264, -1, -44.6665, -10.6663, 28.8387, 13.6309, 68.6008, -163.173
3.88015, -1, -44.8317, -10.7507, 28.8722, 13.632, 68.5566, -163.285
3.88801, -1, -44.9971, -10.8352, 28.9057, 13.6342, 68.4682, -163.509
3.89542, -1, -45.1624, -10.9197, 28.9391, 13.6363, 68.3799, -163.733
3.90342, -1, -45.3278, -11.0043, 28.9725, 13.6386, 68.2913, -163.958
3.91146, -1, -45.493, -11.0887, 29.0059, 13.6408, 68.203, -164.182
3.91942, -1, -45.6584, -11.1731, 29.0391, 13.6431, 68.115, -164.405
3.92741, -1, -45.8236, -11.2576, 29.0724, 13.6454, 68.0263, -164.629
3.93548, -1, -45.9878, -11.3414, 29.1059, 13.6477, 67.938, -164.852
3.94341, -1, -46.1491, -11.4237, 29.1394, 13.6501, 67.85, -165.075
3.95142, -1, -46.3061, -11.5031, 29.173, 13.6524, 67.7626, -165.296
3.96094, -1, -46.5282, -11.6137, 29.2228, 13.656, 67.6359, -165.616
3.96912, -1, -46.6639, -11.6804, 29.254, 13.6582, 67.5578, -165.815
3.97541, -1, -46.727, -11.7112, 29.2686, 13.6593, 67.5213, -165.907
3.98348, -1, -46.8418, -11.7672, 29.2949, 13.6613, 67.4543, -166.075
3.99141, -1, -46.9404, -11.8163, 29.3169, 13.663, 67.3987, -166.217
3.99941, -1, -47.0229, -11.8591, 29.3335, 13.6643, 67.354, -166.33
4.00747, -1, -47.09, -11.8958, 29.3447, 13.6651, 67.3205, -166.414
4.01701, -1, -47.1422, -11.9252, 29.3518, 13.6655, 67.2972, -166.473
4.02341, -1, -47.181, -11.9472, 29.3557, 13.6657, 67.2823, -166.51
4.0315, -1, -47.2084, -11.9625, 29.3575, 13.6658, 67.2736, -166.532
4.03942, -1, -47.2265, -11.9725, 29.3583, 13.6659, 67.2688, -166.544
4.04742, -1, -47.2372, -11.9783, 29.3587, 13.666, 67.2665, -166.55
4.05549, 2, -47.2427, -11.9812, 29.3589, 13.666, 67.2654, -166.553
4.06342, 2, -47.2447, -11.9825, 29.3591, 13.666, 67.2649, -166.554
4.07141, 2, -47.2448, -11.983, 29.3592, 13.666, 67.2646, -166.555
4.0795, 2, -47.2445, -11.9832, 29.3592, 13.6661, 67.2645, -166.555
4.08741, 2, -47.2445, -11.9833, 29.3592, 13.6661, 67.2645, -166.555
4.09541, 2, -47.2448, -11.9834, 29.3593, 13.6661, 67.2644, -166.555
4.10349, 2, -47.2457, -11.9837, 29.3593, 13.6661, 67.2645, -166.555
4.11141, 2, -47.247, -11.9842, 29.3593, 13.666, 67.2645, -166.555
4.11942, 2, -47.2488, -11.9849, 29.3593, 13.6661, 67.2645, -166.555
4.1275, 2, -47.2504, -11.9858, 29.3593, 13.6661, 67.2644, -166.555
4.13541, 2, -47.2518, -11.9866, 29.3593, 13.6661, 67.2644, -166.555
4.14341, 2, -47.2527, -11.9872, 29.3593, 13.6661, 67.2644, -166.555
4.15147, 2, -47.2532, -11.9876, 29.3593, 13.6661, 67.2644, -166.555
4.15942, 2, -47.2533, -11.9878, 29.3593, 13.6661, 67.2644, -166.555
4.16741, 2, -47.2534, -11.9879, 29.3593, 13.6661, 67.2644, -166.555
4.17548, 2, -47.253, -11.9879, 29.3593, 13.666, 67.2645, -166.555
4.18341, 2, -47.2525, -11.9879, 29.3593, 13.6661, 67.2645, -166.555
4.19141, 2, -47.2521, -11.9878, 29.3594, 13.6661, 67.2645, -166.555
4.19952, 2, -47.2517, -11.9878, 29.3594, 13.6661, 67.2644, -166.555
4.20745, 2, -47.2516, -11.9878, 29.3594, 13.6661, 67.2644, -166.555
4.2155, 2, -47.2516, -11.9879, 29.3594, 13.6661, 67.2645, -166.555
4.22359, 2, -47.2517, -11.9881, 29.3594, 13.6661, 67.2645, -166.555
4.23153, 2, -47.2519, -11.9884, 29.3594, 13.666, 67.2644, -166.555
4.23952, 2, -47.2525, -11.9887, 29.3594, 13.666, 67.2644, -166.555
4.24758, 2, -47.253, -11.989, 29.3594, 13.666, 67.2645, -166.555
4.25541, 2, -47.2534, -11.9892, 29.3593, 13.666, 67.2645, -166.555
4.26341, 2, -47.2536, -11.9893, 29.3594, 13.666, 67.2645, -166.555
4.27152, 2, -47.2536, -11.9893, 29.3594, 13.666, 67.2645, -166.555
4.27945, 2, -47.2535, -11.9893, 29.3594, 13.666, 67.2645, -166.555
4.28758, 2, -47.2533, -11.9893, 29.3594, 13.666, 67.2645, -166.555
4.29563, 2, -47.2528, -11.9892, 29.3594, 13.666, 67.2645, -166.555
4.30363, 2, -47.2524, -11.9892, 29.3594, 13.666, 67.2645, -166.555
4.31177, 2, -47.2522, -11.9892, 29.3594, 13.6661, 67.2645, -166.555
4.3198, 2, -47.252, -11.9892, 29.3594, 13.666, 67.2645, -166.555
4.32778, 2, -47.2519, -11.9893, 29.3594, 13.666, 67.2645, -166.555
4.33596, 2, -47.2518, -11.9893, 29.3594, 13.666, 67.2645, -166.555
4.34451, 2, -47.2518, -11.9894, 29.3594, 13.666, 67.2645, -166.555
4.35199, 2, -47.2518, -11.9894, 29.3594, 13.666, 67.2645, -166.555
4.36026, 2, -47.2519, -11.9895, 29.3594, 13.666, 67.2645, -166.555
4.36803, 2, -47.252, -11.9895, 29.3594, 13.666, 67.2645, -166.555
4.37598, 2, -47.252, -11.9895, 29.3594, 13.666, 67.2645, -166.555
4.3834, 2, -47.2519, -11.9894, 29.3594, 13.666, 67.2645, -166.555
4.39198, 2, -47.2519, -11.9894, 29.3594, 13.666, 67.2645, -166.555
4.39941, 2, -47.2518, -11.9893, 29.3594, 13.666, 67.2645, -166.555
4.4074, 2, -47.2517, -11.9893, 29.3594, 13.6661, 67.2645, -166.555
4.41545, 2, -47.2516, -11.9893, 29.3594, 13.666, 67.2645, -166.555
4.4234, 2, -47.2515, -11.9893, 29.3594, 13.666, 67.2646, -166.555
4.43141, 2, -47.2514, -11.9893, 29.3593, 13.666, 67.2646, -166.555
4.43946, 2, -47.2513, -11.9893, 29.3594, 13.6659, 67.2646, -166.555
4.44739, 2, -47.2513, -11.9893, 29.3594, 13.666, 67.2646, -166.555
4.4554, 2, -47.2512, -11.9893, 29.3594, 13.666, 67.2646, -166.555
4.46491, 2, -47.2512, -11.9893, 29.3594, 13.666, 67.2646, -166.555
4.4731, 2, -47.2511, -11.9893, 29.3594, 13.666, 67.2645, -166.555
4.4794, 2, -47.251, -11.9893, 29.3594, 13.666, 67.2646, -166.555
4.48896, 2, -47.251, -11.9893, 29.3594, 13.666, 67.2646, -166.555
4.49705, 2, -47.2509, -11.9892, 29.3594, 13.6659, 67.2646, -166.555
4.5034, 2, -47.2509, -11.9892, 29.3594, 13.6659, 67.2646, -166.554
4.5124, 2, -47.2508, -11.9892, 29.3594, 13.6659, 67.2646, -166.554
4.52045, 2, -47.2507, -11.9891, 29.3594, 13.666, 67.2647, -166.554
4.52741, 2, -47.2507, -11.9891, 29.3594, 13.666, 67.2647, -166.554
4.53548, 2, -47.2506, -11.9891, 29.3594, 13.6659, 67.2647, -166.554
4.5445, 2, -47.2505, -11.9891, 29.3594, 13.6659, 67.2647, -166.554
4.55141, 2, -47.2504, -11.9891, 29.3594, 13.666, 67.2646, -166.554
4.55948, 2, -47.2503, -11.9891, 29.3594, 13.6659, 67.2646, -166.554
4.56741, 2, -47.2502, -11.9891, 29.3594, 13.6659, 67.2646, -166.554
4.5754, 2, -47.2501, -11.9891, 29.3593, 13.666, 67.2646, -166.554
4.58346, 2, -47.25, -11.9891, 29.3594, 13.6659, 67.2647, -166.554
4.5914, 2, -47.2499, -11.9891, 29.3594, 13.666, 67.2647, -166.554
4.59939, 2, -47.2498, -11.9891, 29.3594, 13.6659, 67.2647, -166.554
4.60748, 2, -47.2497, -11.989, 29.3594, 13.6659, 67.2647, -166.554
4.61539, 2, -47.2496, -11.989, 29.3594, 13.6659, 67.2647, -166.554
4.62339, 2, -47.2495, -11.9889, 29.3594, 13.6659, 67.2647, -166.554
4.63149, 2, -47.2494, -11.9889, 29.3594, 13.6659, 67.2647, -166.554
4.63939, 2, -47.2492, -11.9889, 29.3594, 13.6659, 67.2647, -166.554
4.6474, 2, -47.2491, -11.9889, 29.3594, 13.6659, 67.2647, -166.554
4.65546, 2, -47.2491, -11.9889, 29.3594, 13.6659, 67.2647, -166.554
4.66345, 2, -47.249, -11.9889, 29.3594, 13.6659, 67.2647, -166.554
4.67141, 2, -47.2489, -11.9889, 29.3594, 13.6659, 67.2648, -166.554
4.67946, 2, -47.2488, -11.9888, 29.3594, 13.6659, 67.2648, -166.554
4.68739, 2, -47.2488, -11.9888, 29.3594, 13.6658, 67.2647, -166.554
4.6954, 2, -47.2487, -11.9889, 29.3594, 13.6659, 67.2647, -166.554
4.70351, 2, -47.2487, -11.9888, 29.3594, 13.6659, 67.2647, -166.554
4.71147, 2, -47.2486, -11.9887, 29.3594, 13.6658, 67.2647, -166.554
4.71949, 2, -47.2485, -11.9887, 29.3594, 13.6658, 67.2647, -166.554
4.72759, 2, -47.2484, -11.9886, 29.3594, 13.6658, 67.2647, -166.554
4.73551, 2, -47.2483, -11.9886, 29.3593, 13.6658, 67.2647, -166.554
4.7435, 2, -47.2483, -11.9886, 29.3594, 13.6658, 67.2647, -166.554
4.75158, 2, -47.2482, -11.9886, 29.3594, 13.6658, 67.2648, -166.554
4.7594, 2, -47.2482, -11.9886, 29.3594, 13.6658, 67.2648, -166.554
4.76742, 2, -47.2482, -11.9886, 29.3594, 13.6658, 67.2647, -166.554
4.77552, 2, -47.2482, -11.9886, 29.3594, 13.6658, 67.2648, -166.554
4.78343, 2, -47.2482, -11.9886, 29.3594, 13.6658, 67.2648, -166.554
4.79153, 2, -47.2481, -11.9886, 29.3594, 13.6657, 67.2648, -166.554
4.79982, 2, -47.2481, -11.9885, 29.3594, 13.6657, 67.2648, -166.554
4.80762, 2, -47.2481, -11.9885, 29.3594, 13.6657, 67.2647, -166.554
4.81594, 2, -47.248, -11.9884, 29.3594, 13.6657, 67.2648, -166.554
4.8244, 2, -47.2479, -11.9884, 29.3594, 13.6657, 67.2648, -166.554
4.8318, 2, -47.2478, -11.9883, 29.3594, 13.6657, 67.2648, -166.554
4.8405, 2, -47.2478, -11.9883, 29.3594, 13.6657, 67.2648, -166.554
4.84819, 2, -47.2477, -11.9883, 29.3593, 13.6657, 67.2648, -166.554
4.85595, 2, -47.2476, -11.9883, 29.3594, 13.6657, 67.2648, -166.554
4.86416, 2, -47.2476, -11.9882, 29.3593, 13.6656, 67.2648, -166.554
4.87202, 2, -47.2476, -11.9882, 29.3593, 13.6656, 67.2648, -166.554
4.87992, 2, -47.2476, -11.9882, 29.3594, 13.6656, 67.2649, -166.554
4.8882, 2, -47.2476, -11.9882, 29.3594, 13.6656, 67.2649, -166.554
4.89545, 2, -47.2476, -11.9882, 29.3594, 13.6656, 67.2649, -166.554
4.9034, 2, -47.2475, -11.9882, 29.3594, 13.6656, 67.2649, -166.554
4.91219, 2, -47.2475, -11.9882, 29.3593, 13.6656, 67.2649, -166.554
4.91949, 2, -47.2475, -11.9881, 29.3593, 13.6656, 67.2649, -166.554
4.92738, 2, -47.2474, -11.988, 29.3593, 13.6656, 67.2649, -166.554
4.93539, 2, -47.2473, -11.988, 29.3594, 13.6655, 67.2649, -166.554
4.94345, 2, -47.2473, -11.9879, 29.3594, 13.6655, 67.2649, -166.554
4.9514, 2, -47.2472, -11.9879, 29.3593, 13.6655, 67.265, -166.554
4.95939, 2, -47.2471, -11.9879, 29.3593, 13.6655, 67.2649, -166.554
4.96744, 2, -47.2471, -11.9879, 29.3594, 13.6655, 67.265, -166.554
4.97698, 2, -47.247, -11.9879, 29.3593, 13.6655, 67.265, -166.554
4.98339, 2, -47.247, -11.9879, 29.3593, 13.6655, 67.265, -166.554
4.99146, 2, -47.247, -11.9879, 29.3594, 13.6655, 67.265, -166.554
4.99938, 2, -47.247, -11.9879, 29.3594, 13.6654, 67.265, -166.554
5.00933, 2, -47.2469, -11.9878, 29.3593, 13.6655, 67.265, -166.554
5.01545, 2, -47.2469, -11.9878, 29.3594, 13.6654, 67.265, -166.554
5.02443, 2, -47.2469, -11.9877, 29.3594, 13.6654, 67.2651, -166.554
5.03139, 2, -47.2468, -11.9877, 29.3594, 13.6654, 67.265, -166.554
5.03947, 2, -47.2467, -11.9877, 29.3594, 13.6654, 67.2651, -166.554
5.04748, 2, -47.2466, -11.9876, 29.3593, 13.6653, 67.265, -166.554
5.05626, 2, -47.2465, -11.9876, 29.3593, 13.6653, 67.265, -166.554
5.06372, 2, -47.2465, -11.9876, 29.3593, 13.6653, 67.265, -166.554
5.07242, 2, -47.2464, -11.9876, 29.3593, 13.6653, 67.2651, -166.554
5.07947, 2, -47.2464, -11.9876, 29.3593, 13.6653, 67.2651, -166.554
5.08739, 2, -47.2464, -11.9876, 29.3593, 13.6653, 67.2651, -166.554
5.09538, 2, -47.2464, -11.9876, 29.3593, 13.6653, 67.2651, -166.554
5.10345, 2, -47.2463, -11.9875, 29.3593, 13.6653, 67.2651, -166.554
5.11143, 2, -47.2463, -11.9875, 29.3594, 13.6653, 67.2651, -166.554
5.11939, 4, -47.2463, -11.9875, 29.3593, 13.6652, 67.2652, -166.554
5.12744, 4, -47.2462, -11.9874, 29.3593, 13.6653, 67.2652, -166.554
5.13541, 4, -47.2462, -11.9874, 29.3593, 13.6652, 67.2652, -166.554
5.14338, 4, -47.2461, -11.9873, 29.3594, 13.6652, 67.2652, -166.554
5.15146, 4, -47.246, -11.9873, 29.3593, 13.6651, 67.2652, -166.554
5.15938, 4, -47.246, -11.9873, 29.3593, 13.6651, 67.2652, -166.554
5.16738, 4, -47.2459, -11.9873, 29.3593, 13.6651, 67.2653, -166.554
5.17545, 4, -47.2459, -11.9873, 29.3593, 13.6651, 67.2653, -166.554
5.18338, 4, -47.2458, -11.9873, 29.3593, 13.6651, 67.2652, -166.554
5.19139, 4, -47.2458, -11.9873, 29.3593, 13.6651, 67.2652, -166.554
5.19945, 4, -47.2458, -11.9872, 29.3593, 13.6651, 67.2652, -166.554
5.20743, 4, -47.2458, -11.9872, 29.3593, 13.6651, 67.2653, -166.554
5.21561, 4, -47.2458, -11.9872, 29.3593, 13.665, 67.2652, -166.554
5.23087, 4, -47.2457, -11.9871, 29.3593, 13.665, 67.2653, -166.554
5.23291, 4, -47.2457, -11.9871, 29.3593, 13.665, 67.2653, -166.554
5.2416, 4, -47.2457, -11.9871, 29.3593, 13.665, 67.2653, -166.554
5.2493, 4, -47.2456, -11.987, 29.3593, 13.665, 67.2652, -166.554
5.25569, 4, -47.2455, -11.987, 29.3593, 13.665, 67.2653, -166.554
5.2646, 4, -47.2455, -11.987, 29.3593, 13.6651, 67.2653, -166.554
5.27611, 4, -47.2454, -11.987, 29.3593, 13.665, 67.2653, -166.554
5.28152, 4, -47.2454, -11.987, 29.3593, 13.6651, 67.2653, -166.554
5.28968, 4, -47.2454, -11.987, 29.3593, 13.665, 67.2653, -166.554
5.29577, 4, -47.2453, -11.9869, 29.3593, 13.665, 67.2653, -166.554
5.30758, 4, -47.2453, -11.9869, 29.3593, 13.665, 67.2653, -166.554
5.3129, 4, -47.2453, -11.9869, 29.3593, 13.6649, 67.2653, -166.553
5.3226, 4, -47.2453, -11.9869, 29.3593, 13.6649, 67.2653, -166.554
5.32854, 4, -47.2452, -11.9868, 29.3593, 13.6649, 67.2653, -166.553
5.3373, 4, -47.2452, -11.9868, 29.3593, 13.6649, 67.2653, -166.553
5.34422, 4, -47.2452, -11.9868, 29.3593, 13.6649, 67.2653, -166.553
5.35434, 4, -47.2451, -11.9868, 29.3593, 13.6648, 67.2652, -166.553
5.36018, 4, -47.2451, -11.9867, 29.3593, 13.6648, 67.2653, -166.553
5.36824, 4, -47.245, -11.9867, 29.3593, 13.6648, 67.2653, -166.553
5.37755, 4, -47.245, -11.9867, 29.3594, 13.6648, 67.2653, -166.553
5.38464, 4, -47.2451, -11.9868, 29.3594, 13.6648, 67.2653, -166.553
5.39332, 4, -47.246, -11.9872, 29.3598, 13.6649, 67.2655, -166.553
5.40448, 4, -47.2502, -11.9908, 29.3638, 13.6701, 67.2669, -166.553
5.40961, 4, -47.2525, -11.9934, 29.3672, 13.6765, 67.2683, -166.552
5.41918, 4, -47.2597, -12.0023, 29.3798, 13.7016, 67.2747, -166.548
5.42361, 4, -47.2649, -12.009, 29.3903, 13.7223, 67.2804, -166.544
5.43376, 5, -47.2897, -12.0418, 29.4472, 13.8387, 67.3129, -166.519
5.4415, 5, -47.3167, -12.0772, 29.5142, 13.979, 67.3526, -166.487
5.4492, 5, -47.3543, -12.1254, 29.6119, 14.1867, 67.4098, -166.439
5.45765, 5, -47.4042, -12.188, 29.7445, 14.4728, 67.489, -166.374
5.466, 5, -47.467, -12.2657, 29.9146, 14.843, 67.5892, -166.289
5.47167, 5, -47.5031, -12.3102, 30.0142, 15.0597, 67.6476, -166.239
5.48194, 5, -47.6299, -12.4661, 30.3693, 15.8258, 67.8518, -166.065
5.49065, 5, -47.7283, -12.5868, 30.6473, 16.4169, 68.0073, -165.932
5.49727, 5, -47.8357, -12.719, 30.9529, 17.0556, 68.1725, -165.79
5.50566, 5, -47.9499, -12.8603, 31.2791, 17.727, 68.3433, -165.643
5.51584, 5, -48.0687, -13.0082, 31.6201, 18.4151, 68.5152, -165.494
5.51952, 5, -48.1292, -13.0837, 31.7936, 18.7621, 68.6006, -165.42
5.52768, 5, -48.2507, -13.2353, 32.1444, 19.4559, 68.7693, -165.273
5.53553, 5, -48.3713, -13.3846, 32.4959, 20.1391, 68.9336, -165.127
5.54685, 5, -48.4871, -13.5289, 32.8437, 20.8024, 69.0936, -164.978
5.5515, 6, -48.5936, -13.6658, 33.181, 21.4346, 69.2512, -164.816
5.55993, 6, -48.6861, -13.7931, 33.5033, 22.0252, 69.4085, -164.628
5.5725, 7, -48.7901, -13.9664, 33.9508, 22.8213, 69.649, -164.271
5.5778, 7, -48.814, -14.0717, 34.2244, 23.2895, 69.8151, -163.965
5.58784, 7, -48.845, -14.1212, 34.3538, 23.7138, 69.9881, -163.594
5.59459, 8, -48.8518, -14.2563, 34.7176, 24.1033, 70.1696, -163.156
5.60285, 8, -48.8346, -14.3354, 34.9457, 24.4682, 70.3603, -162.655
5.60819, 9, -48.8205, -14.3722, 35.0563, 24.6446, 70.4596, -162.384
5.61562, 9, -48.7829, -14.4423, 35.2729, 24.992, 70.6658, -161.807
5.62451, 10, -48.7349, -14.5092, 35.487, 25.3377, 70.8822, -161.196
5.63265, 10, -48.6776, -14.5744, 35.7008, 25.6861, 71.1074, -160.563
5.63955, 11, -48.6117, -14.6387, 35.9145, 26.0387, 71.3393, -159.92
5.64752, 11, -48.5391, -14.7022, 36.1283, 26.396, 71.5747, -159.276
5.65552, 11, -48.4618, -14.7651, 36.3416, 26.7588, 71.8118, -158.633
5.66353, 12, -48.3829, -14.8272, 36.5525, 27.1279, 72.0499, -157.992
5.67761, 13, -48.2645, -14.9165, 36.8656, 27.6957, 72.4104, -157.025
5.68042, 13, -48.2253, -14.945, 36.969, 27.8892, 72.5319, -156.702
5.6921, 14, -48.1044, -15.0305, 37.2759, 28.482, 72.9019, -155.722
5.69552, 14, -48.0625, -15.0598, 37.3775, 28.683, 73.0268, -155.393
5.70505, 15, -47.9759, -15.1196, 37.5806, 29.0888, 73.2783, -154.735
5.71253, 15, -47.8853, -15.1797, 37.782, 29.4963, 73.5295, -154.079
5.72351, 16, -47.7389, -15.2684, 38.0809, 30.1048, 73.9002, -153.103
5.72761, 16, -47.6866, -15.2979, 38.1799, 30.3057, 74.0211, -152.781
5.73656, 17, -47.5768, -15.3581, 38.3761, 30.7033, 74.2582, -152.143
5.74585, 17, -47.4614, -15.4203, 38.5689, 31.0956, 74.4884, -151.511
5.75518, 18, -47.2788, -15.5164, 38.8527, 31.675, 74.8217, -150.576
5.76028, 18, -47.2153, -15.5492, 38.946, 31.8663, 74.9302, -150.268
5.7682, 19, -47.0841, -15.6165, 39.1298, 32.2473, 75.1435, -149.656
5.77636, 19, -46.9471, -15.6871, 39.3113, 32.6278, 75.353, -149.05
5.78373, 19, -46.8045, -15.76, 39.4915, 33.0079, 75.5587, -148.449
5.79431, 20, -46.6569, -15.834, 39.6699, 33.3876, 75.7608, -147.855
5.80067, 21, -46.5055, -15.9087, 39.8459, 33.7666, 75.9589, -147.268
5.80909, 21, -46.3509, -15.9844, 40.0199, 34.1451, 76.153, -146.687
5.81631, 21, -46.1931, -16.0616, 40.1925, 34.5231, 76.3432, -146.112
5.82415, 22, -46.0315, -16.1404, 40.3628, 34.9001, 76.5299, -145.543
5.83454, 23, -45.8651, -16.2209, 40.5299, 35.2756, 76.7131, -144.98
5.84067, 23, -45.6925, -16.3034, 40.6944, 35.6482, 76.892, -144.421
5.84865, 24, -45.5122, -16.3882, 40.8558, 36.0168, 77.066, -143.867
5.85669, 24, -45.3238, -16.4755, 41.0127, 36.3791, 77.2336, -143.32
5.86687, 25, -45.1277, -16.5647, 41.1651, 36.7326, 77.3941, -142.778
5.87306, 25, -44.9244, -16.655, 41.3132, 37.0762, 77.5464, -142.241
5.88094, 26, -44.7147, -16.7459, 41.457, 37.4098, 77.6908, -141.71
5.88818, 26, -44.6073, -16.838, 41.5959, 37.7336, 77.8283, -141.184
5.90026, 27, -44.2743, -16.9312, 41.7945, 38.2038, 78.0253, -140.399
5.91044, 27, -43.9256, -17.0716, 41.9198, 38.5083, 78.1521, -139.877
5.91339, 28, -43.806, -17.1181, 41.9802, 38.658, 78.2148, -139.616
5.91952, 28, -43.6846, -17.1643, 42.0389, 38.8062, 78.2769, -139.356
5.92751, 28, -43.4363, -17.2556, 42.1511, 39.0971, 78.3996, -138.834
5.93884, 29, -43.0508, -17.3897, 42.3063, 39.5203, 78.581, -138.051
5.94502, 30, -42.786, -17.4763, 42.4007, 39.793, 78.6988, -137.528
5.9515, 30, -42.6509, -17.5184, 42.4451, 39.9263, 78.7569, -137.267
5.9596, 31, -42.3749, -17.6004, 42.5286, 40.1864, 78.8707, -136.745
5.97145, 31, -41.9457, -17.7184, 42.6405, 40.5601, 79.0353, -135.964
5.97565, 32, -41.7989, -17.7565, 42.6743, 40.6803, 79.0888, -135.704
5.98397, 32, -41.5, -17.8307, 42.7368, 40.914, 79.193, -135.185
5.99358, 33, -41.0397, -17.9364, 42.8174, 41.2488, 79.3443, -134.408
6.00514, 33, -40.7241, -18.0034, 42.8621, 41.4621, 79.4423, -133.891
6.00758, 34, -40.5637, -18.036, 42.8816, 41.5657, 79.4902, -133.633
6.01806, 34, -40.2386, -18.13, 42.9292, 41.8647, 79.6309, -132.859
6.0251, 35, -39.9089, -18.16, 42.9415, 41.9604, 79.6768, -132.345
6.03149, 35, -39.5742, -18.2172, 42.9608, 42.1464, 79.7664, -132.088
6.03975, 36, -39.2334, -18.2706, 42.9732, 42.3248, 79.8537, -131.576
6.05048, 36, -38.7087, -18.3446, 42.9792, 42.5775, 79.9803, -130.809
6.05826, 37, -38.3508, -18.39, 42.975, 42.7365, 80.0619, -130.3
6.06357, 37, -38.1698, -18.4115, 42.9703, 42.8132, 80.1019, -130.046
6.07156, 38, -37.8033, -18.4515, 42.9558, 42.9609, 80.1808, -129.54
6.08344, 38, -37.2443, -18.5049, 42.9217, 43.1687, 80.2948, -128.783
6.08751, 39, -37.0556, -18.5211, 42.907, 43.2342, 80.3318, -128.532
6.09572, 39, -36.6748, -18.5508, 42.8725, 43.3598, 80.4036, -128.03
6.10841, 40, -36.0941, -18.5882, 42.8082, 43.5344, 80.5085, -127.282
6.11147, 40, -35.8975, -18.5989, 42.7835, 43.589, 80.5424, -127.033
6.11955, 41, -35.4998, -18.6171, 42.7293, 43.6929, 80.6095, -126.537
6.12852, 41, -35.0965, -18.6315, 42.6684, 43.7891, 80.6735, -126.043
6.13559, 42, -34.6886, -18.6425, 42.6011, 43.8788, 80.7366, -125.552
6.14457, 42, -34.2771, -18.6501, 42.5274, 43.961, 80.7969, -125.063
6.15488, 43, -33.8626, -18.6556, 42.4052, 44.0711, 80.8848, -124.333
6.16018, 43, -33.4447, -18.6559, 42.3615, 44.1041, 80.9132, -124.09
6.17218, 44, -32.8076, -18.6512, 42.2217, 44.1932, 80.9953, -123.368
6.18141, 44, -32.3749, -18.6433, 42.1213, 44.243, 81.0487, -122.889
6.18426, 45, -32.156, -18.6379, 42.0689, 44.2653, 81.0743, -122.651
6.19251, 45, -31.7144, -18.6243, 41.9597, 44.3048, 81.1245, -122.175
6.20169, 46, -31.2689, -18.6073, 41.8444, 44.3365, 81.1738, -121.702
6.20951, 46, -30.8213, -18.5868, 41.7231, 44.3604, 81.2206, -121.232
6.21899, 47, -30.1449, -18.5489, 41.5304, 44.3818, 81.2881, -120.53
6.2236, 47, -29.9173, -18.5341, 41.4632, 44.3854, 81.3104, -120.297
6.23265, 48, -29.4572, -18.5011, 41.3243, 44.3876, 81.3536, -119.833
6.27897, 50, -26.8409, -18.2402, 40.4513, 44.2415, 81.5812, -117.308
6.28119, 51, -26.5966, -18.2089, 40.3624, 44.2146, 81.6025, -117.08
6.28364, 51, -26.3504, -18.1763, 40.2719, 44.1848, 81.6238, -116.853
6.28826, 52, -26.1022, -18.1423, 40.1798, 44.1525, 81.6449, -116.626
6.31364, 53, -24.5846, -17.9094, 39.5893, 43.9069, 81.7763, -115.265
6.31622, 53, -24.3293, -17.8656, 39.4851, 43.857, 81.7986, -115.038
6.32221, 53, -24.0732, -17.8203, 39.379, 43.8046, 81.8212, -114.812
6.32634, 53, -23.8158, -17.7733, 39.2707, 43.7495, 81.8443, -114.586
6.32894, 54, -23.5568, -17.7248, 39.1603, 43.6917, 81.8682, -114.36
6.33083, 54, -23.5568, -17.7248, 39.1603, 43.6917, 81.8682, -114.36
6.33351, 54, -23.2959, -17.6746, 39.0482, 43.631, 81.8929, -114.134
6.33679, 54, -23.0327, -17.6229, 38.9343, 43.5677, 81.918, -113.908
6.33869, 54, -23.0327, -17.6229, 38.9343, 43.5677, 81.918, -113.908
6.34842, 55, -22.2315, -17.4588, 38.5811, 43.3602, 81.9962, -113.23
6.35283, 55, -21.962, -17.4011, 38.4594, 43.285, 82.024, -113.003
6.36148, 56, -21.4214, -17.2815, 38.2115, 43.126, 82.0808, -112.55
6.3709, 56, -20.8782, -17.1562, 37.957, 42.9562, 82.1381, -112.099
6.3806, 57, -20.0517, -16.9574, 37.5637, 42.6812, 82.2274, -111.422
6.38519, 57, -19.7716, -16.8882, 37.4297, 42.5839, 82.2572, -111.197
6.3952, 58, -19.2049, -16.7452, 37.1563, 42.3801, 82.3187, -110.747
6.40088, 58, -18.9194, -16.6716, 37.0173, 42.2735, 82.3822, -110.296
6.40986, 59, -18.0588, -16.4425, 36.5904, 41.9342, 82.4479, -109.847
6.41707, 59, -17.7706, -16.3636, 36.4445, 41.8147, 82.4822, -109.398
6.42615, 60, -16.8949, -16.1207, 35.9971, 41.4364, 82.5881, -108.948
6.43156, 60, -16.5979, -16.0373, 35.8448, 41.3039, 82.6249, -108.723
6.44109, 61, -15.6955, -15.7788, 35.3813, 40.887, 82.7363, -108.049
6.44753, 61, -15.3926, -15.6899, 35.224, 40.7417, 82.7743, -107.825
6.45882, 62, -14.4796, -15.4166, 34.7448, 40.2877, 82.8904, -107.153
6.46347, 62, -14.1727, -15.3234, 34.5824, 40.1297, 82.9303, -106.928
6.47383, 63, -13.2368, -15.0354, 34.0885, 39.6362, 83.0535, -106.255
6.47958, 63, -12.92, -14.9361, 33.9211, 39.4648, 83.0959, -106.03
6.48751, 64, -12.2813, -14.7327, 33.582, 39.1112, 83.1834, -105.58
6.49555, 64, -11.6384, -14.5234, 33.2362, 38.7434, 83.2749, -105.13
6.50522, 65, -10.9894, -14.3073, 32.8838, 38.1626, 83.4217, -104.449
6.51473, 65, -9.99544, -13.9701, 32.3424, 37.754, 83.5268, -103.993
6.52512, 66, -9.31981, -13.7371, 31.975, 37.1066, 83.6956, -103.306
6.53343, 66, -8.6378, -13.3745, 31.4148, 36.6529, 83.8157, -102.845
6.53554, 67, -8.29523, -13.3745, 31.4148, 36.6529, 83.8157, -102.845
6.54732, 67, -7.25552, -12.9968, 30.8415, 35.9412, 84.0076, -102.151
6.55259, 68, -6.90422, -12.8672, 30.6481, 35.6962, 84.0746, -101.918
6.56357, 68, -5.83932, -12.4686, 30.0633, 34.9412, 84.2848, -101.217
6.56954, 69, -5.48187, -12.1959, 29.6691, 34.4227, 84.4323, -100.748
6.57852, 69, -4.76344, -12.057, 29.2718, 33.8927, 84.5851, -100.277
6.5847, 70, -4.03815, -11.7746, 29.0729, 33.6242, 84.6634, -100.041
6.59262, 70, -3.30506, -11.4847, 28.6752, 33.0779, 84.8238, -99.5669
6.5995, 71, -2.5653, -11.186, 28.2773, 32.519, 84.9895, -99.092
6.61165, 71, -1.44443, -10.725, 27.6765, 31.6547, 85.2519, -98.3778
6.61647, 72, -1.06751, -10.568, 27.4751, 31.3591, 85.3438, -98.1388
6.62723, 72, 0.0713083, -10.0896, 26.8677, 30.4462, 85.6339, -97.4189
6.63148, 73, 0.453089, -9.927, 26.6642, 30.1352, 85.7352, -97.1779
6.64278, 73, 1.21957, -9.59614, 26.2568, 29.5044, 86.0508, -96.4542
6.64753, 74, 1.99036, -9.2592, 25.8495, 28.8638, 86.1599, -96.2124
6.65586, 74, 2.76468, -8.91662, 25.445, 28.2156, 86.3835, -95.7278
6.66362, 75, 3.54155, -8.56849, 25.0451, 27.5609, 86.6133, -95.2418
6.67545, 75, 4.71041, -8.03367, 24.4544, 26.5716, 86.9684, -94.5102
6.6796, 76, 5.10102, -7.85258, 24.2599, 26.2413, 87.0898, -94.2656
6.69847, 77, 6.66676, -7.11377, 23.4936, 24.9151, 87.59, -93.2811
6.70044, 77, 7.05862, -6.92499, 23.3046, 24.5836, 87.7195, -93.0337
6.71144, 77, 8.23765, -6.34489, 22.7422, 23.586, 88.1217, -92.2885
6.71275, 77, 8.23765, -6.34489, 22.7422, 23.586, 88.1217, -92.2885
6.72036, 78, 9.02577, -5.94506, 22.3711, 22.9159, 88.4033, -91.7883
6.72772, 78, 9.81521, -5.53676, 22.0034, 22.2386, 88.6986, -91.284
6.73544, 79, 10.6062, -5.12152, 21.6381, 21.5542, 89.0083, -90.7748
6.74379, 79, 11.3968, -4.69903, 21.2752, 20.8659, 89.3315, -90.2604
6.75237, 80, 12.1843, -4.26612, 20.9169, 20.1752, 89.6657, -89.7407
6.75946, 80, 12.9659, -3.82251, 20.5636, 19.4892, 90.0094, -89.2144
6.76739, 81, 13.741, -3.37175, 20.2171, 18.8135, 90.3603, -88.6833
6.77547, 81, 14.5093, -2.91524, 19.8787, 18.1524, 90.7169, -88.1476
6.78347, 82, 15.2688, -2.45142, 19.5511, 17.5077, 91.077, -87.6101
6.79139, 82, 16.0182, -1.98012, 19.2339, 16.8811, 91.4409, -87.0699
6.80025, 83, 16.7558, -1.50191, 18.9263, 16.2738, 91.8083, -86.5288
6.80749, 83, 17.4805, -1.01834, 18.6279, 15.6856, 92.1807, -85.9875
6.81641, 84, 18.1905, -0.531048, 18.3383, 15.1156, 92.5591, -85.4481
6.82371, 84, 18.8843, -0.0402769, 18.0563, 14.5655, 92.9443, -84.9098
6.83265, 85, 19.5614, 0.456041, 17.78, 14.0347, 93.3371, -84.3727
6.83972, 85, 20.2205, 0.958047, 17.5104, 13.5237, 93.7375, -83.8375
6.84784, 85, 20.862, 1.46434, 17.2466, 13.0322, 94.1442, -83.3038
6.85651, 86, 21.488, 1.97547, 16.9889, 12.5597, 94.5567, -82.7699
6.86388, 86, 22.1002, 2.49435, 16.7377, 12.1065, 94.9755, -82.2345
6.87244, 87, 22.7003, 3.02368, 16.4908, 11.6715, 95.4015, -81.6957
6.88104, 87, 23.2907, 3.56212, 16.2478, 11.254, 95.8352, -81.1529
6.88845, 88, 23.8715, 4.10595, 16.0074, 10.852, 96.2763, -80.6039
6.89673, 88, 24.1581, 4.37978, 15.8882, 10.6572, 96.7237, -80.0462
6.90423, 89, 24.7226, 4.93403, 15.5389, 10.097, 97.1766, -79.4793
6.91134, 89, 25.2772, 5.50005, 15.4253, 9.9187, 97.4045, -79.1917
6.92022, 90, 25.8256, 6.07817, 15.2018, 9.40988, 98.0923, -78.3124
6.92732, 90, 26.3702, 6.66695, 14.9844, 9.24864, 98.323, -78.0126
6.93651, 91, 27.1695, 7.56684, 14.6705, 8.79078, 99.0222, -77.0927
6.94333, 91, 27.4293, 7.87119, 14.5685, 8.647, 99.2583, -76.7798
6.95265, 92, 28.1924, 8.79956, 14.2682, 8.24316, 99.9766, -75.822
6.95935, 92, 28.4432, 9.1145, 14.1697, 8.11827, 100.22, -75.4968
6.96757, 93, 28.9404, 9.75192, 13.9749, 7.88311, 100.71, -74.8391
6.97532, 93, 29.4281, 10.3965, 13.784, 7.6686, 101.206, -74.1733
6.98491, 94, 30.1355, 11.3756, 13.5087, 7.38761, 101.954, -73.1577
6.99368, 94, 30.5888, 12.0355, 13.3333, 7.22921, 102.451, -72.4727
6.9993, 95, 30.8103, 12.367, 13.2481, 7.15881, 102.699, -72.1284
7.0074, 95, 31.2427, 13.0319, 13.0833, 7.03574, 103.193, -71.4349
7.01539, 96, 31.6616, 13.6986, 12.9263, 6.93644, 103.683, -70.7355
7.02333, 96, 32.0654, 14.3665, 12.776, 6.86091, 104.169, -70.0317
7.03229, 97, 32.4523, 15.0347, 12.6319, 6.80983, 104.651, -69.3235
7.04038, 97, 32.823, 15.7017, 12.4946, 6.7799, 105.127, -68.6104
7.04756, 98, 33.1784, 16.3655, 12.3653, 6.77085, 105.596, -67.896
7.05748, 98, 33.6843, 17.3499, 12.1889, 6.79807, 106.28, -66.8246
7.06355, 99, 33.8456, 17.6736, 12.1351, 6.81698, 106.502, -66.4677
7.07235, 99, 34.1573, 18.3144, 12.0352, 6.86935, 106.934, -65.7579
7.07942, 99, 34.4562, 18.9456, 11.9457, 6.94166, 107.351, -65.0539
7.08736, 100, 34.7432, 19.567, 11.866, 7.0305, 107.752, -64.355
7.09539, 100, 35.0174, 20.1771, 11.7956, 7.13622, 108.137, -63.6645
7.10332, 101, 35.2777, 20.7739, 11.733, 7.25636, 108.507, -62.9835
7.11132, 101, 35.5251, 21.3568, 11.6779, 7.38895, 108.862, -62.3113
7.1194, 102, 35.7599, 21.925, 11.6303, 7.53165, 109.203, -61.6505
7.12735, 102, 35.9816, 22.4779, 11.5894, 7.68227, 109.529, -61.0038
7.13561, 103, 36.1914, 23.016, 11.5553, 7.83893, 109.84, -60.3705
7.14338, 103, 36.3926, 23.539, 11.5283, 8.00056, 110.135, -59.7516
7.15132, 103, 36.5876, 24.0473, 11.5094, 8.16775, 110.415, -59.1478
7.15934, 104, 36.7774, 24.5425, 11.4986, 8.34099, 110.678, -58.558
7.16738, 104, 36.9627, 25.0255, 11.4946, 8.52206, 110.924, -57.9782
7.17532, 104, 37.1443, 25.4961, 11.4967, 8.71208, 111.152, -57.4074
7.18334, 104, 37.3192, 25.9543, 11.5043, 8.91089, 111.362, -56.8439
7.19138, 104, 37.4841, 26.3994, 11.5162, 9.11826, 111.556, -56.287
7.19941, 104, 37.6395, 26.8316, 11.5312, 9.33247, 111.736, -55.7366
7.20735, 104, 37.7892, 27.252, 11.5487, 9.55068, 111.904, -55.1962
7.21542, 104, 37.9368, 27.6593, 11.568, 9.77045, 112.063, -54.6692
7.2234, 104, 38.0831, 28.0532, 11.588, 9.98876, 112.214, -54.1593
7.23142, 104, 38.2262, 28.4334, 11.6079, 10.2036, 112.358, -53.6682
7.23947, 104, 38.3648, 28.8007, 11.627, 10.4135, 112.494, -53.199
7.24755, 104, 38.4973, 29.1527, 11.6453, 10.6167, 112.623, -52.7527
7.25545, 104, 38.6225, 29.4882, 11.6629, 10.8123, 112.744, -52.331
7.2635, 104, 38.74, 29.8053, 11.6794, 10.9993, 112.858, -51.9343
7.27134, 104, 38.8494, 30.1037, 11.6946, 11.1772, 112.963, -51.5618
7.27933, 104, 38.9515, 30.3839, 11.7088, 11.3454, 113.062, -51.2146
7.28746, 104, 39.0458, 30.6443, 11.7218, 11.5034, 113.153, -50.8932
7.29537, 104, 39.1321, 30.8851, 11.7336, 11.6505, 113.236, -50.5967
7.3034, 104, 39.2101, 31.1066, 11.7443, 11.7865, 113.312, -50.3256
7.31164, 104, 39.2794, 31.3078, 11.7543, 11.9109, 113.382, -50.0796
7.31956, 104, 39.3407, 31.4894, 11.7633, 12.0234, 113.443, -49.8589
7.32769, 104, 39.3945, 31.6517, 11.7712, 12.124, 113.498, -49.6632
7.33582, 104, 39.4417, 31.7947, 11.7782, 12.2125, 113.545, -49.4927
7.34442, 104, 39.4827, 31.9192, 11.7846, 12.2886, 113.585, -49.3468
7.35181, 104, 39.5178, 32.0265, 11.7905, 12.3529, 113.619, -49.2241
7.36043, 104, 39.5467, 32.1173, 11.7956, 12.4056, 113.647, -49.1245
7.36788, 104, 39.5704, 32.1925, 11.8002, 12.4464, 113.668, -49.0452
7.37642, 104, 39.5896, 32.2542, 11.8042, 12.478, 113.684, -48.9853
7.38422, 104, 39.6048, 32.304, 11.808, 12.5016, 113.696, -48.9419
7.39213, 104, 39.6168, 32.343, 11.8114, 12.5183, 113.704, -48.9117
7.39987, 104, 39.6218, 32.3587, 11.8129, 12.5245, 113.706, -48.9008
7.40842, 104, 39.6326, 32.3942, 11.8172, 12.5369, 113.711, -48.88
7.41533, 104, 39.635, 32.4028, 11.8184, 12.5392, 113.712, -48.8763
7.42333, 104, 39.6382, 32.4161, 11.8203, 12.5421, 113.713, -48.8719
7.43276, 105, 39.6407, 32.4277, 11.8223, 12.544, 113.714, -48.8693
7.43931, 105, 39.6409, 32.4301, 11.8229, 12.5443, 113.714, -48.8689
7.44858, 105, 39.6406, 32.4349, 11.8242, 12.5449, 113.714, -48.8686
7.45541, 105, 39.6403, 32.436, 11.8246, 12.5449, 113.714, -48.8686
7.46333, 105, 39.6394, 32.4376, 11.8253, 12.545, 113.714, -48.8687
7.47276, 105, 39.6373, 32.4396, 11.8261, 12.5451, 113.714, -48.8689
7.48089, 105, 39.6361, 32.4407, 11.8266, 12.5451, 113.714, -48.8691
7.48893, 105, 39.6354, 32.4419, 11.8271, 12.5452, 113.714, -48.8694
7.49685, 105, 39.6349, 32.443, 11.8277, 12.5452, 113.714, -48.8697
7.50495, 105, 39.6346, 32.4441, 11.8283, 12.5452, 113.714, -48.8699
7.51293, 105, 39.6343, 32.445, 11.8288, 12.5452, 113.714, -48.8702
7.52089, 105, 39.6342, 32.4454, 11.829, 12.5452, 113.714, -48.8703
7.52739, 105, 39.634, 32.4461, 11.8293, 12.5452, 113.714, -48.8704
7.53634, 105, 39.6337, 32.4466, 11.8296, 12.5451, 113.714, -48.8707
7.5443, 105, 39.6334, 32.4469, 11.8299, 12.5451, 113.714, -48.8709
7.55231, 105, 39.6332, 32.447, 11.8301, 12.5451, 113.714, -48.871
