hehonglu123/Motion-Primitive-Planning/ILC/recorded_data/realrobot/from_NX/iteration_41/run_2.csv
timestamp, cmd_num, J1, J2, J3, J4, J5, J6
0.000372, -1, 39.6291, 32.447, 11.8316, 12.5436, 113.713, -48.8736
0.003071, -1, 39.6291, 32.447, 11.8316, 12.5436, 113.713, -48.8736
0.025656, -1, 39.6291, 32.447, 11.8316, 12.5436, 113.713, -48.8736
0.028493, -1, 39.6291, 32.447, 11.8316, 12.5436, 113.713, -48.8736
0.029682, -1, 39.6291, 32.447, 11.8316, 12.5436, 113.713, -48.8736
0.033886, -1, 39.6291, 32.447, 11.8316, 12.5437, 113.713, -48.8736
0.040122, -1, 39.6291, 32.447, 11.8316, 12.5436, 113.713, -48.8736
0.047051, -1, 39.629, 32.447, 11.8316, 12.5437, 113.713, -48.8736
0.05516, -1, 39.6277, 32.4468, 11.8316, 12.5436, 113.713, -48.8736
0.188908, -1, 38.4232, 31.8339, 12.0656, 12.5537, 113.089, -50.4682
0.190181, -1, 38.4232, 31.8339, 12.0656, 12.5537, 113.089, -50.4682
0.192042, -1, 38.338, 31.7893, 12.0849, 12.5549, 113.041, -50.5916
0.193487, -1, 38.338, 31.7893, 12.0849, 12.5549, 113.041, -50.5916
0.194674, -1, 38.338, 31.7893, 12.0849, 12.5549, 113.041, -50.5916
0.197507, -1, 38.251, 31.7437, 12.1044, 12.556, 112.991, -50.7166
0.198703, -1, 38.251, 31.7437, 12.1044, 12.556, 112.991, -50.7166
0.202171, -1, 38.1624, 31.6974, 12.124, 12.5572, 112.942, -50.8428
0.204151, -1, 38.0725, 31.6505, 12.1435, 12.5585, 112.891, -50.9699
0.205604, -1, 38.0725, 31.6505, 12.1435, 12.5585, 112.891, -50.9699
0.206836, -1, 38.0725, 31.6505, 12.1435, 12.5585, 112.891, -50.9699
0.209535, -1, 37.9813, 31.603, 12.163, 12.5598, 112.841, -51.098
0.210805, -1, 37.9813, 31.603, 12.163, 12.5598, 112.841, -51.098
0.212892, -1, 37.889, 31.5551, 12.1824, 12.561, 112.79, -51.2267
0.214165, -1, 37.889, 31.5551, 12.1824, 12.561, 112.79, -51.2267
0.216453, -1, 37.7956, 31.5068, 12.2018, 12.5622, 112.739, -51.3558
0.217918, -1, 37.7956, 31.5068, 12.2018, 12.5622, 112.739, -51.3558
0.219133, -1, 37.7956, 31.5068, 12.2018, 12.5622, 112.739, -51.3558
0.222403, -1, 37.7015, 31.4582, 12.2212, 12.5634, 112.688, -51.4851
0.224469, -1, 37.7015, 31.4094, 12.2406, 12.5646, 112.637, -51.6148
0.225876, -1, 37.6066, 31.4094, 12.2406, 12.5646, 112.637, -51.6148
0.23324, -1, 37.4155, 31.3115, 12.2793, 12.5671, 112.534, -51.8744
0.239098, -1, 37.3196, 31.2625, 12.2987, 12.5683, 112.483, -52.0042
0.248707, -1, 37.0313, 31.1157, 12.3569, 12.572, 112.328, -52.3938
0.257412, -1, 36.8391, 31.0179, 12.3956, 12.5747, 112.225, -52.654
0.263106, -1, 36.7431, 30.969, 12.415, 12.576, 112.174, -52.7843
0.272829, -1, 36.4555, 30.8224, 12.4734, 12.5798, 112.019, -53.1747
0.281346, -1, 36.2639, 30.7246, 12.5122, 12.5824, 111.917, -53.4352
0.287168, -1, 36.1681, 30.6757, 12.5316, 12.5837, 111.865, -53.5654
0.296704, -1, 35.9765, 30.5778, 12.5705, 12.5862, 111.711, -53.9563
0.304092, -1, 35.7849, 30.4798, 12.6095, 12.5888, 111.659, -54.0865
0.311192, -1, 35.593, 30.3818, 12.6484, 12.5913, 111.556, -54.3467
0.320088, -1, 35.401, 30.2836, 12.6872, 12.5939, 111.453, -54.607
0.328039, -1, 35.2086, 30.1852, 12.726, 12.5965, 111.35, -54.8676
0.336048, -1, 35.0161, 30.0869, 12.7649, 12.5991, 111.247, -55.1285
0.344032, -1, 34.8238, 29.9884, 12.8038, 12.6017, 111.144, -55.3891
0.351035, -1, 34.6316, 29.8899, 12.8426, 12.6042, 111.041, -55.6498
0.359037, -1, 34.4393, 29.7915, 12.8816, 12.6068, 110.938, -55.9107
0.368041, -1, 34.2472, 29.6931, 12.9205, 12.6094, 110.835, -56.1716
0.376103, -1, 34.0553, 29.5948, 12.9594, 12.6119, 110.732, -56.4326
0.384031, -1, 33.8635, 29.4965, 12.9984, 12.6146, 110.629, -56.6932
0.392097, -1, 33.6718, 29.3982, 13.0373, 12.6172, 110.525, -56.9541
0.399034, -1, 33.4799, 29.2999, 13.0762, 12.6198, 110.422, -57.2151
0.408033, -1, 33.2875, 29.2014, 13.1152, 12.6224, 110.319, -57.4762
0.416048, -1, 33.0949, 29.1028, 13.1541, 12.625, 110.216, -57.7371
0.426047, -1, 32.8055, 28.955, 13.2124, 12.629, 110.062, -58.1288
0.431034, -1, 32.7088, 28.9057, 13.2319, 12.6303, 110.01, -58.2594
0.440039, -1, 32.5155, 28.807, 13.2707, 12.6331, 109.907, -58.5207
0.44812, -1, 32.3218, 28.7083, 13.3096, 12.6357, 109.804, -58.7816
0.455138, -1, 32.1277, 28.6096, 13.3485, 12.6384, 109.701, -59.0425
0.463169, -1, 31.9337, 28.5108, 13.3874, 12.6411, 109.598, -59.3038
0.471038, -1, 31.74, 28.412, 13.4263, 12.6437, 109.495, -59.5654
0.480033, -1, 31.5464, 28.3133, 13.4654, 12.6466, 109.392, -59.8265
0.488113, -1, 31.3531, 28.2147, 13.5043, 12.6494, 109.289, -60.0877
0.495152, -1, 31.1602, 28.1162, 13.5433, 12.6521, 109.186, -60.3491
0.503199, -1, 30.9678, 28.0177, 13.5824, 12.655, 109.083, -60.6107
0.640247, -1, 27.6842, 26.3387, 14.2451, 12.6996, 107.327, -65.0583
0.641461, -1, 27.6842, 26.3387, 14.2451, 12.6996, 107.327, -65.0583
0.642797, -1, 27.6842, 26.3387, 14.2451, 12.6996, 107.327, -65.0583
0.644872, -1, 27.588, 26.2893, 14.2645, 12.7008, 107.275, -65.1891
0.646069, -1, 27.588, 26.2893, 14.2645, 12.7008, 107.275, -65.1891
0.648782, -1, 27.4919, 26.2398, 14.284, 12.702, 107.223, -65.3199
0.649994, -1, 27.4919, 26.2398, 14.284, 12.702, 107.223, -65.3199
0.653082, -1, 27.3958, 26.1903, 14.3035, 12.7032, 107.172, -65.4507
0.654439, -1, 27.3958, 26.1903, 14.3035, 12.7032, 107.172, -65.4507
0.656528, -1, 27.2997, 26.1408, 14.323, 12.7044, 107.12, -65.5814
0.658665, -1, 27.2997, 26.1408, 14.323, 12.7044, 107.12, -65.5814
0.660879, -1, 27.2036, 26.0913, 14.3425, 12.7055, 107.068, -65.7122
0.662088, -1, 27.2036, 26.0913, 14.3425, 12.7055, 107.068, -65.7122
0.664078, -1, 27.1074, 26.0419, 14.3619, 12.7067, 107.017, -65.8431
0.665419, -1, 27.1074, 26.0419, 14.3619, 12.7067, 107.017, -65.8431
0.669028, -1, 27.0112, 25.9925, 14.3814, 12.7078, 106.965, -65.974
0.67023, -1, 27.0112, 25.9925, 14.3814, 12.7078, 106.965, -65.974
0.672889, -1, 26.9149, 25.9431, 14.4008, 12.709, 106.913, -66.105
0.674124, -1, 26.9149, 25.9431, 14.4008, 12.709, 106.913, -66.105
0.676273, -1, 26.8185, 25.8937, 14.4204, 12.7102, 106.862, -66.236
0.677532, -1, 26.8185, 25.8937, 14.4204, 12.7102, 106.862, -66.236
0.680056, -1, 26.7221, 25.8442, 14.4399, 12.7113, 106.81, -66.3668
0.690134, -1, 26.5288, 25.7453, 14.4788, 12.7136, 106.707, -66.6284
0.697027, -1, 26.3352, 25.6465, 14.5176, 12.7158, 106.604, -66.8902
0.704167, -1, 26.1412, 25.5477, 14.5567, 12.7181, 106.5, -67.1521
0.711077, -1, 26.0442, 25.4982, 14.5761, 12.7193, 106.449, -67.2831
0.721266, -1, 25.7529, 25.35, 14.6346, 12.7227, 106.294, -67.6756
0.727089, -1, 25.6559, 25.3006, 14.6541, 12.7238, 106.243, -67.8064
0.736489, -1, 25.365, 25.1525, 14.7125, 12.7272, 106.088, -68.1989
0.743018, -1, 25.2682, 25.1032, 14.732, 12.7284, 106.036, -68.3298
0.751077, -1, 25.0748, 25.0044, 14.7711, 12.7307, 105.933, -68.5915
0.760626, -1, 24.785, 24.8561, 14.8295, 12.7343, 105.778, -68.9838
0.769437, -1, 24.5923, 24.7573, 14.8685, 12.7367, 105.675, -69.2455
0.775145, -1, 24.4961, 24.7079, 14.888, 12.7379, 105.623, -69.3764
0.784661, -1, 24.2074, 24.5595, 14.9465, 12.7415, 105.468, -69.7689
0.793514, -1, 24.1111, 24.5101, 14.966, 12.7427, 105.416, -70.0302
0.800017, -1, 23.9184, 24.4113, 15.005, 12.7449, 105.313, -70.161
0.808072, -1, 23.7255, 24.3125, 15.0439, 12.7474, 105.209, -70.4226
0.81603, -1, 23.5324, 24.2136, 15.0828, 12.7498, 105.106, -70.6845
0.82402, -1, 23.3389, 24.1147, 15.1218, 12.7521, 105.003, -70.9461
0.831037, -1, 23.1452, 24.0158, 15.1606, 12.7545, 104.899, -71.208
0.839017, -1, 22.9513, 23.9169, 15.1995, 12.757, 104.796, -71.4698
0.848058, -1, 22.7573, 23.8181, 15.2385, 12.7594, 104.693, -71.7318
0.855062, -1, 22.5636, 23.7193, 15.2775, 12.7619, 104.589, -71.9934
0.864038, -1, 22.3699, 23.6207, 15.3165, 12.7644, 104.486, -72.2548
0.871013, -1, 22.1767, 23.522, 15.3554, 12.767, 104.382, -72.5162
0.87998, -1, 21.9835, 23.4233, 15.3943, 12.7695, 104.279, -72.7779
0.888021, -1, 21.7907, 23.3246, 15.4333, 12.7721, 104.176, -73.0394
0.895056, -1, 21.5984, 23.2258, 15.4722, 12.7748, 104.073, -73.3006
0.903019, -1, 21.4062, 23.127, 15.5111, 12.7775, 103.97, -73.5621
0.912029, -1, 21.2139, 23.0284, 15.5501, 12.78, 103.867, -73.8237
0.923004, -1, 21.0214, 22.9298, 15.5891, 12.7827, 103.763, -74.0853
0.928013, -1, 20.829, 22.8311, 15.628, 12.7854, 103.66, -74.3464
0.936048, -1, 20.6364, 22.7325, 15.6669, 12.7882, 103.557, -74.6075
0.945034, -1, 20.4436, 22.6338, 15.7057, 12.7909, 103.454, -74.8688
0.953031, -1, 20.2503, 22.5352, 15.7446, 12.7936, 103.351, -75.1303
0.96006, -1, 20.0566, 22.4364, 15.7836, 12.7963, 103.248, -75.3914
0.968029, -1, 19.8629, 22.3377, 15.8223, 12.799, 103.145, -75.6526
0.976055, -1, 19.6693, 22.2391, 15.8611, 12.8017, 103.042, -75.9137
0.984079, -1, 19.4758, 22.1405, 15.9001, 12.8045, 102.939, -76.1751
0.992021, -1, 19.2826, 22.0418, 15.9389, 12.8072, 102.836, -76.4361
1.00002, -1, 19.0897, 21.9431, 15.9778, 12.8099, 102.733, -76.6969
1.00809, -1, 18.897, 21.8445, 16.0167, 12.8127, 102.63, -76.9578
1.01603, -1, 18.7047, 21.7458, 16.0555, 12.8154, 102.527, -77.2189
1.0235, -1, 18.5127, 21.6471, 16.0943, 12.8182, 102.424, -77.4798
1.03113, -1, 18.3209, 21.5486, 16.1332, 12.8209, 102.321, -77.7403
1.03912, -1, 18.1289, 21.4501, 16.172, 12.8235, 102.218, -78.0011
1.04802, -1, 17.9371, 21.3517, 16.2109, 12.826, 102.116, -78.262
1.05609, -1, 17.7452, 21.2533, 16.2498, 12.8286, 102.012, -78.5229
1.06305, -1, 17.553, 21.1549, 16.2886, 12.8311, 101.91, -78.7831
1.07189, -1, 17.3604, 21.0566, 16.3275, 12.8336, 101.807, -79.0436
1.08008, -1, 17.1674, 20.9583, 16.3663, 12.836, 101.703, -79.3042
1.08801, -1, 16.9744, 20.86, 16.405, 12.8385, 101.601, -79.565
1.09628, -1, 16.7814, 20.7618, 16.4439, 12.8409, 101.498, -79.8253
1.1033, -1, 16.5884, 20.6637, 16.4826, 12.8432, 101.395, -80.0857
1.11142, -1, 16.3955, 20.5654, 16.5213, 12.8455, 101.293, -80.3463
1.1203, -1, 16.2029, 20.467, 16.5601, 12.8478, 101.19, -80.6071
1.12755, -1, 16.0108, 20.3687, 16.5988, 12.8502, 101.087, -80.8673
1.13616, -1, 15.8189, 20.2702, 16.6376, 12.8524, 100.985, -81.1274
1.1446, -1, 15.6273, 20.1717, 16.6762, 12.8548, 100.882, -81.3874
1.15158, -1, 15.4361, 20.0734, 16.7148, 12.8572, 100.779, -81.6475
1.16011, -1, 15.2449, 19.9751, 16.7535, 12.8595, 100.677, -81.9076
1.16848, -1, 15.1494, 19.9259, 16.7923, 12.8618, 100.574, -82.1673
1.17501, -1, 14.9582, 19.8277, 16.8116, 12.8629, 100.523, -82.2973
1.18404, -1, 14.6711, 19.6805, 16.8696, 12.8663, 100.369, -82.6873
1.19101, -1, 14.5753, 19.6314, 16.889, 12.8675, 100.318, -82.8174
1.20011, -1, 14.2874, 19.4843, 16.947, 12.871, 100.164, -83.2068
1.20707, -1, 14.1912, 19.4353, 16.9664, 12.8721, 100.113, -83.3365
1.21712, -1, 13.9027, 19.2883, 17.0244, 12.8756, 99.9587, -83.726
1.22306, -1, 13.8065, 19.2395, 17.0436, 12.8767, 99.9076, -83.8558
1.23244, -1, 13.5179, 19.0928, 17.1017, 12.8802, 99.7538, -84.245
1.23901, -1, 13.4218, 19.0438, 17.121, 12.8813, 99.7025, -84.3746
1.24845, -1, 13.134, 18.897, 17.1788, 12.8848, 99.5492, -84.7635
1.255, -1, 13.0382, 18.848, 17.1981, 12.886, 99.4978, -84.8933
1.26524, -1, 12.7515, 18.701, 17.256, 12.8895, 99.3442, -85.2824
1.27105, -1, 12.656, 18.6521, 17.2753, 12.8907, 99.2932, -85.4118
1.28063, -1, 12.3701, 18.5055, 17.3332, 12.8943, 99.1397, -85.8001
1.2896, -1, 12.2751, 18.4077, 17.3716, 12.8967, 99.0376, -86.0591
1.29663, -1, 12.0849, 18.3588, 17.3908, 12.8991, 98.9356, -86.318
1.30459, -1, 11.8945, 18.2612, 17.4295, 12.9003, 98.8845, -86.4474
1.31203, -1, 11.7039, 18.1635, 17.4681, 12.9027, 98.7826, -86.7058
1.32005, -1, 11.5132, 18.0659, 17.5065, 12.9052, 98.6808, -86.9645
1.3281, -1, 11.3222, 17.9683, 17.5451, 12.9076, 98.5788, -87.2233
1.33606, -1, 11.1309, 17.8708, 17.5837, 12.91, 98.4769, -87.4816
1.34405, -1, 10.9395, 17.7733, 17.6222, 12.9125, 98.375, -87.7397
1.35202, -1, 10.7479, 17.6759, 17.6607, 12.915, 98.2729, -87.998
1.36002, -1, 10.5563, 17.5784, 17.6991, 12.9175, 98.1711, -88.2563
1.36804, -1, 10.365, 17.4808, 17.7375, 12.92, 98.0693, -88.5147
1.37606, -1, 10.174, 17.3834, 17.776, 12.9225, 97.9674, -88.7726
1.38401, -1, 9.98341, 17.2857, 17.8143, 12.9252, 97.8657, -89.0308
1.39209, -1, 9.79313, 17.1882, 17.8526, 12.9277, 97.7636, -89.2888
1.40004, -1, 9.60318, 17.0907, 17.891, 12.9305, 97.6616, -89.547
1.40801, -1, 9.41375, 16.9934, 17.9293, 12.9332, 97.5598, -89.8047
1.41611, -1, 9.22443, 16.8961, 17.9677, 12.9359, 97.4578, -90.0623
1.42401, -1, 9.03509, 16.7988, 18.006, 12.9386, 97.356, -90.3197
1.433, -1, 8.84559, 16.7016, 18.0443, 12.9413, 97.2545, -90.5773
1.44009, -1, 8.656, 16.6044, 18.0827, 12.9439, 97.1527, -90.8348
1.44905, -1, 8.46642, 16.5073, 18.1211, 12.9465, 97.0511, -91.0919
1.45608, -1, 8.27641, 16.4102, 18.1594, 12.9493, 96.9497, -91.3492
1.46305, -1, 8.08596, 16.3133, 18.1978, 12.9519, 96.848, -91.6065
1.47103, -1, 7.89551, 16.2165, 18.2361, 12.9545, 96.7465, -91.8636
1.48004, -1, 7.70505, 16.1196, 18.2743, 12.9572, 96.6451, -92.1203
1.48802, -1, 7.51451, 16.0226, 18.3126, 12.9598, 96.5436, -92.377
1.49605, -1, 7.32428, 15.9257, 18.3509, 12.9624, 96.4422, -92.6338
1.50408, -1, 7.13428, 15.8287, 18.389, 12.965, 96.341, -92.8907
1.51109, -1, 6.94458, 15.7317, 18.4273, 12.9676, 96.2396, -93.1471
1.52, -1, 6.75535, 15.6348, 18.4655, 12.9701, 96.1386, -93.4035
1.52807, -1, 6.56665, 15.538, 18.5035, 12.9727, 96.0378, -93.6599
1.53604, -1, 6.37828, 15.4413, 18.5417, 12.9752, 95.9366, -93.9164
1.54359, -1, 6.1902, 15.3445, 18.5798, 12.9777, 95.8357, -94.1726
1.55197, -1, 6.00198, 15.2478, 18.6179, 12.9802, 95.7348, -94.4285
1.56, -1, 5.81357, 15.1511, 18.6561, 12.9825, 95.6338, -94.6843
1.56813, -1, 5.62513, 15.0544, 18.6942, 12.9848, 95.533, -94.9403
1.57604, -1, 5.43648, 14.9578, 18.7322, 12.9872, 95.4323, -95.1962
1.58401, -1, 5.24759, 14.8614, 18.7704, 12.9895, 95.3315, -95.4516
1.59201, -1, 5.05828, 14.765, 18.8085, 12.9917, 95.2309, -95.7072
1.6001, -1, 4.86893, 14.6687, 18.8465, 12.9941, 95.1302, -95.9627
1.60802, -1, 4.67962, 14.5723, 18.8846, 12.9963, 95.0293, -96.2182
1.61616, -1, 4.49024, 14.4759, 18.9226, 12.9984, 94.9287, -96.4732
1.62347, -1, 4.3012, 14.3795, 18.9606, 13.0006, 94.8279, -96.728
1.63208, -1, 4.11235, 14.2831, 18.9987, 13.0028, 94.7269, -96.983
1.6404, -1, 3.92392, 14.1868, 19.0366, 13.0052, 94.6263, -97.2383
1.64761, -1, 3.73613, 14.0906, 19.0745, 13.0073, 94.5254, -97.493
1.65613, -1, 3.54873, 13.9944, 19.1125, 13.0096, 94.4247, -97.7478
1.66364, -1, 3.45518, 13.8983, 19.1503, 13.012, 94.3242, -98.0025
1.67206, -1, 3.17467, 13.8023, 19.1881, 13.0143, 94.2234, -98.2572
1.68, -1, 2.98772, 13.7062, 19.2261, 13.0166, 94.1227, -98.512
1.6881, -1, 2.80075, 13.6102, 19.264, 13.0188, 94.0222, -98.766
1.69499, -1, 2.70718, 13.5622, 19.2829, 13.0199, 93.9718, -98.8931
1.70407, -1, 2.42618, 13.4182, 19.3397, 13.0233, 93.8211, -99.2742
1.71109, -1, 2.33244, 13.3703, 19.3586, 13.0244, 93.7711, -99.4014
1.72022, -1, 2.05057, 13.2267, 19.4154, 13.0278, 93.6206, -99.7822
1.72705, -1, 1.95653, 13.1787, 19.4343, 13.0289, 93.5705, -99.909
1.73659, -1, 1.67433, 13.035, 19.4909, 13.0323, 93.4207, -100.289
1.74443, -1, 1.48612, 12.9391, 19.5287, 13.0345, 93.3205, -100.543
1.75104, -1, 1.39212, 12.8912, 19.5476, 13.0357, 93.2705, -100.67
1.76062, -1, 1.1105, 12.7474, 19.6042, 13.0392, 93.1205, -101.05
1.76866, -1, 0.923249, 12.6518, 19.6419, 13.0416, 93.0204, -101.303
1.77659, -1, 0.736837, 12.5562, 19.6796, 13.0439, 92.9207, -101.556
1.78468, -1, 0.550679, 12.4606, 19.7172, 13.0463, 92.8209, -101.809
1.79262, -1, 0.457729, 12.4129, 19.736, 13.0488, 92.7211, -102.061
1.80051, -1, 0.271961, 12.3175, 19.7737, 13.05, 92.6713, -102.188
1.80804, -1, 0.0864875, 12.2221, 19.8113, 13.0524, 92.572, -102.44
1.81598, -1, -0.0988942, 12.1268, 19.8489, 13.0549, 92.4723, -102.693
1.824, -1, -0.284531, 12.0316, 19.8866, 13.0573, 92.3727, -102.946
1.83206, -1, -0.470425, 11.9364, 19.9242, 13.0598, 92.2734, -103.198
1.83999, -1, -0.656635, 11.8413, 19.9617, 13.0623, 92.1738, -103.45
1.84699, -1, -0.843058, 11.7463, 19.9993, 13.0648, 92.0742, -103.702
1.85599, -1, -1.02962, 11.6513, 20.0368, 13.0673, 91.9751, -103.954
1.864, -1, -1.2163, 11.5562, 20.0742, 13.0698, 91.8756, -104.206
1.87204, -1, -1.40326, 11.4611, 20.1119, 13.0724, 91.7764, -104.457
1.87999, -1, -1.58996, 11.3659, 20.1493, 13.075, 91.6774, -104.709
1.88799, -1, -1.77639, 11.2708, 20.1866, 13.0775, 91.5781, -104.96
1.89758, -1, -2.05531, 11.1283, 20.2429, 13.0815, 91.4294, -105.337
1.90404, -1, -2.14796, 11.0809, 20.2615, 13.0829, 91.3798, -105.463
1.91198, -1, -2.33296, 10.9859, 20.2989, 13.0855, 91.2805, -105.713
1.92011, -1, -2.51763, 10.8911, 20.3364, 13.0882, 91.1814, -105.965
1.92799, -1, -2.70184, 10.7963, 20.3736, 13.0908, 91.0824, -106.216
1.93698, -1, -2.88578, 10.7015, 20.4109, 13.0935, 90.9833, -106.466
1.94408, -1, -3.06975, 10.6068, 20.4483, 13.0961, 90.8844, -106.717
1.95304, -1, -3.25391, 10.5122, 20.4856, 13.0987, 90.7856, -106.968
1.9601, -1, -3.4384, 10.4176, 20.5228, 13.1013, 90.6867, -107.218
1.96799, -1, -3.62313, 10.3233, 20.5601, 13.1039, 90.5878, -107.469
1.97599, -1, -3.80796, 10.2289, 20.5973, 13.1063, 90.489, -107.719
1.98406, -1, -3.99311, 10.1345, 20.6345, 13.1088, 90.3903, -107.968
1.99198, -1, -4.17842, 10.0402, 20.6717, 13.1113, 90.2916, -108.219
2.00005, -1, -4.36406, 9.9459, 20.7088, 13.1137, 90.193, -108.469
2.00798, -1, -4.54952, 9.85155, 20.7461, 13.116, 90.0944, -108.718
2.01508, -1, -4.7346, 9.75726, 20.7833, 13.1183, 89.996, -108.968
2.02339, -1, -4.9193, 9.66308, 20.8203, 13.1208, 89.8975, -109.217
2.03116, -1, -5.10355, 9.56907, 20.8574, 13.1232, 89.799, -109.467
2.03917, -1, -5.28714, 9.47495, 20.8946, 13.1255, 89.7007, -109.716
2.04754, -1, -5.4703, 9.381, 20.9316, 13.1278, 89.6023, -109.964
2.05516, -1, -5.6531, 9.28709, 20.9687, 13.1301, 89.5039, -110.213
2.06307, -1, -5.83558, 9.19315, 21.0058, 13.1325, 89.4059, -110.462
2.07179, -1, -6.01793, 9.09929, 21.0427, 13.1347, 89.3077, -110.711
2.07997, -1, -6.20043, 9.00545, 21.0797, 13.1369, 89.2095, -110.959
2.08805, -1, -6.38328, 8.91174, 21.1167, 13.1392, 89.1118, -111.208
2.09599, -1, -6.56629, 8.81814, 21.1536, 13.1413, 89.0138, -111.456
2.10402, -1, -6.74958, 8.72449, 21.1904, 13.1434, 88.9158, -111.704
2.11207, -1, -6.93327, 8.63092, 21.2274, 13.1456, 88.818, -111.952
2.12018, -1, -7.11721, 8.5373, 21.2642, 13.1477, 88.72, -112.2
2.12748, -1, -7.30153, 8.44372, 21.3011, 13.1498, 88.6222, -112.447
2.13613, -1, -7.48549, 8.35006, 21.3381, 13.152, 88.5246, -112.695
2.14425, -1, -7.66918, 8.25655, 21.3748, 13.1542, 88.4269, -112.943
2.1516, -1, -7.85241, 8.16314, 21.4116, 13.1563, 88.3294, -113.19
2.16022, -1, -8.03536, 8.06973, 21.4485, 13.1586, 88.2322, -113.437
2.16837, -1, -8.12659, 7.97643, 21.4853, 13.1608, 88.1347, -113.684
2.17565, -1, -8.3085, 7.88315, 21.522, 13.163, 88.0373, -113.931
2.18405, -1, -8.58053, 7.78988, 21.559, 13.1653, 87.94, -114.178
2.19099, -1, -8.67101, 7.7433, 21.5774, 13.1664, 87.8913, -114.301
2.19902, -1, -8.85177, 7.65011, 21.6141, 13.1687, 87.7938, -114.548
2.20841, -1, -9.12301, 7.51054, 21.6693, 13.1721, 87.648, -114.917
2.21499, -1, -9.21351, 7.46408, 21.6877, 13.1732, 87.5994, -115.041
2.22308, -1, -9.39475, 7.37127, 21.7243, 13.1754, 87.5021, -115.287
2.23233, -1, -9.66731, 7.23203, 21.7794, 13.1787, 87.3567, -115.656
2.23897, -1, -9.75827, 7.18565, 21.7977, 13.1798, 87.308, -115.779
2.24702, -1, -9.9406, 7.09294, 21.8343, 13.182, 87.2107, -116.025
2.25676, -1, -10.2144, 6.95381, 21.8892, 13.1854, 87.0651, -116.394
2.26532, -1, -10.3971, 6.86105, 21.9258, 13.1876, 86.9677, -116.64
2.27104, -1, -10.4883, 6.81466, 21.9441, 13.1887, 86.9192, -116.762
2.28063, -1, -10.7615, 6.67565, 21.999, 13.1921, 86.7739, -117.13
2.28941, -1, -10.8524, 6.58303, 22.0353, 13.1946, 86.6768, -117.376
2.29504, -1, -11.0337, 6.53675, 22.0535, 13.1958, 86.6285, -117.498
2.30476, -1, -11.2142, 6.44422, 22.0902, 13.1981, 86.5318, -117.866
2.31197, -1, -11.3941, 6.35172, 22.1267, 13.2006, 86.4353, -117.988
2.31904, -1, -11.5738, 6.25929, 22.1631, 13.203, 86.3384, -118.233
2.32802, -1, -11.7531, 6.16687, 22.1996, 13.2055, 86.2418, -118.478
2.33598, -1, -11.9324, 6.07458, 22.2361, 13.2079, 86.1453, -118.722
2.34401, -1, -12.1117, 5.98233, 22.2725, 13.2104, 86.0486, -118.966
2.35197, -1, -12.2911, 5.89023, 22.3089, 13.2129, 85.9523, -119.21
2.35997, -1, -12.4711, 5.79824, 22.3453, 13.2154, 85.856, -119.455
2.36697, -1, -12.6512, 5.70621, 22.3815, 13.2178, 85.7596, -119.699
2.37598, -1, -12.8318, 5.61423, 22.4179, 13.2203, 85.6634, -119.942
2.38397, -1, -13.0128, 5.52234, 22.4543, 13.2227, 85.5676, -120.186
2.39099, -1, -13.194, 5.43032, 22.4904, 13.2253, 85.4716, -120.43
2.40027, -1, -13.3751, 5.33832, 22.5267, 13.2276, 85.3756, -120.674
2.40697, -1, -13.5559, 5.24644, 22.563, 13.2302, 85.2799, -120.917
2.41598, -1, -13.7363, 5.15455, 22.5991, 13.2327, 85.184, -121.16
2.42482, -1, -13.9163, 5.06267, 22.6352, 13.2353, 85.0882, -121.403
2.43098, -1, -14.0955, 4.97091, 22.6715, 13.2378, 84.9929, -121.646
2.43999, -1, -14.274, 4.8792, 22.7075, 13.2404, 84.897, -121.889
2.44898, -1, -14.4522, 4.78752, 22.7437, 13.2429, 84.8015, -122.131
2.45598, -1, -14.63, 4.69587, 22.78, 13.2455, 84.706, -122.374
2.464, -1, -14.8076, 4.60434, 22.8161, 13.248, 84.6102, -122.616
2.47275, -1, -14.9852, 4.51283, 22.8521, 13.2504, 84.5145, -122.859
2.47897, -1, -15.1631, 4.42146, 22.8883, 13.2529, 84.419, -123.101
2.48797, -1, -15.3413, 4.33019, 22.9244, 13.2554, 84.3233, -123.342
2.49676, -1, -15.5199, 4.23888, 22.9604, 13.2577, 84.2275, -123.584
2.50397, -1, -15.699, 4.1476, 22.9965, 13.2601, 84.1322, -123.826
2.51196, -1, -15.8782, 4.05639, 23.0324, 13.2623, 84.0366, -124.068
2.52084, -1, -16.0575, 3.96515, 23.0683, 13.2645, 83.9411, -124.309
2.52708, -1, -16.2373, 3.87388, 23.1044, 13.2667, 83.8459, -124.551
2.53598, -1, -16.4169, 3.78268, 23.1403, 13.2688, 83.7503, -124.792
2.54539, -1, -16.5962, 3.69151, 23.176, 13.2711, 83.6548, -125.034
2.55117, -1, -16.7749, 3.6004, 23.2119, 13.2733, 83.5596, -125.275
2.55897, -1, -16.9529, 3.50938, 23.2477, 13.2756, 83.4641, -125.516
2.5677, -1, -17.1301, 3.41839, 23.2835, 13.2778, 83.3687, -125.756
2.57603, -1, -17.3068, 3.32747, 23.3194, 13.28, 83.2738, -125.997
2.58403, -1, -17.4832, 3.23661, 23.3551, 13.2822, 83.1785, -126.238
2.59203, -1, -17.6594, 3.14583, 23.3908, 13.2843, 83.0836, -126.478
2.59997, -1, -17.8354, 3.05522, 23.4268, 13.2865, 82.9889, -126.718
2.60805, -1, -18.0115, 2.96464, 23.4625, 13.2886, 82.894, -126.958
2.61609, -1, -18.1879, 2.87426, 23.4982, 13.2907, 82.7992, -127.199
2.624, -1, -18.3646, 2.78382, 23.534, 13.2928, 82.7047, -127.438
2.63212, -1, -18.5418, 2.69335, 23.5696, 13.2949, 82.6099, -127.678
2.6403, -1, -18.7194, 2.60298, 23.6052, 13.2969, 82.5153, -127.917
2.64756, -1, -18.8972, 2.51261, 23.641, 13.299, 82.4209, -128.157
2.65613, -1, -19.0753, 2.42212, 23.6766, 13.3009, 82.3264, -128.397
2.66432, -1, -19.2536, 2.33171, 23.7122, 13.3029, 82.232, -128.636
2.67162, -1, -19.4317, 2.24132, 23.7478, 13.305, 82.1379, -128.875
2.68014, -1, -19.609, 2.15094, 23.7834, 13.3072, 82.0438, -129.114
2.68697, -1, -19.6974, 2.10577, 23.801, 13.3082, 81.9967, -129.233
2.69503, -1, -19.8739, 2.01549, 23.8364, 13.3104, 81.9024, -129.473
2.70415, -1, -20.1374, 1.88012, 23.8898, 13.3136, 81.7615, -129.831
2.71096, -1, -20.225, 1.83502, 23.9076, 13.3147, 81.7143, -129.95
2.71901, -1, -20.3999, 1.74487, 23.943, 13.3169, 81.6204, -130.188
2.7283, -1, -20.6617, 1.60984, 23.9964, 13.3203, 81.4796, -130.546
2.73496, -1, -20.7489, 1.56485, 24.0141, 13.3213, 81.4325, -130.665
2.74302, -1, -20.9236, 1.47497, 24.0495, 13.3235, 81.3388, -130.903
2.75247, -1, -21.1861, 1.34037, 24.1028, 13.3268, 81.1983, -131.26
2.76204, -1, -21.3617, 1.2506, 24.1382, 13.329, 81.1043, -131.498
2.76868, -1, -21.5375, 1.16095, 24.1735, 13.3311, 81.0104, -131.736
2.77653, -1, -21.7136, 1.07132, 24.209, 13.3333, 80.9167, -131.973
2.78457, -1, -21.8899, 0.981683, 24.2444, 13.3355, 80.8228, -132.21
2.79261, -1, -22.0663, 0.892076, 24.2798, 13.3376, 80.729, -132.447
2.80057, -1, -22.1547, 0.847312, 24.2975, 13.3387, 80.6356, -132.684
2.80796, -1, -22.3312, 0.757764, 24.3329, 13.3409, 80.5887, -132.803
2.81601, -1, -22.5073, 0.66828, 24.3681, 13.3432, 80.4951, -133.04
2.82395, -1, -22.6829, 0.578783, 24.4033, 13.3456, 80.4015, -133.277
2.83199, -1, -22.858, 0.489348, 24.4386, 13.3479, 80.3078, -133.514
2.84002, -1, -23.032, 0.399898, 24.4738, 13.3504, 80.2143, -133.751
2.84796, -1, -23.2056, 0.310547, 24.5089, 13.3528, 80.1207, -133.988
2.85596, -1, -23.3789, 0.221211, 24.5442, 13.3552, 80.0274, -134.224
2.86401, -1, -23.552, 0.132, 24.5794, 13.3577, 79.934, -134.46
2.87197, -1, -23.7252, 0.0428551, 24.6145, 13.36, 79.8407, -134.696
2.87996, -1, -23.8985, -0.0461793, 24.6498, 13.3624, 79.7477, -134.933
2.88799, -1, -24.0721, -0.135112, 24.6849, 13.3648, 79.6544, -135.169
2.89596, -1, -24.2459, -0.22412, 24.7199, 13.3673, 79.5614, -135.404
2.90396, -1, -24.42, -0.313062, 24.7551, 13.3697, 79.4685, -135.64
2.91355, -1, -24.6817, -0.446342, 24.8077, 13.3735, 79.3288, -135.993
2.91995, -1, -24.7691, -0.490791, 24.8252, 13.3747, 79.2823, -136.111
2.92797, -1, -24.9442, -0.579713, 24.8603, 13.377, 79.1894, -136.346
2.93798, -1, -25.2066, -0.712956, 24.9129, 13.3807, 79.0499, -136.699
2.94296, -1, -25.294, -0.757335, 24.9304, 13.3818, 79.0034, -136.817
2.95198, -1, -25.4683, -0.84615, 24.9655, 13.3842, 78.9109, -137.052
2.95998, -1, -25.6422, -0.934933, 25.0005, 13.3867, 78.818, -137.287
2.96798, -1, -25.8155, -1.02365, 25.0353, 13.3892, 78.7253, -137.521
2.97601, -1, -25.9882, -1.11238, 25.0703, 13.3916, 78.6331, -137.756
2.98395, -1, -26.1605, -1.20105, 25.1053, 13.3941, 78.5404, -137.99
2.99196, -1, -26.3323, -1.28962, 25.1401, 13.3964, 78.4479, -138.225
3.00003, -1, -26.5041, -1.37811, 25.175, 13.3988, 78.3554, -138.46
3.00795, -1, -26.676, -1.46647, 25.21, 13.401, 78.263, -138.694
3.01595, -1, -26.8481, -1.55473, 25.2449, 13.4032, 78.1705, -138.928
3.02406, -1, -27.0205, -1.64292, 25.2797, 13.4055, 78.0781, -139.162
3.03195, -1, -27.193, -1.73112, 25.3147, 13.4077, 77.9861, -139.396
3.03995, -1, -27.3656, -1.8193, 25.3495, 13.4099, 77.8938, -139.63
3.04803, -1, -27.5387, -1.90735, 25.3842, 13.4121, 77.8019, -139.863
3.05595, -1, -27.7119, -1.99554, 25.4191, 13.4142, 77.71, -140.096
3.06396, -1, -27.8852, -2.08367, 25.4539, 13.4163, 77.6179, -140.33
3.07203, -1, -28.0585, -2.17166, 25.4886, 13.4184, 77.5258, -140.563
3.08, -1, -28.2317, -2.25971, 25.5233, 13.4204, 77.4339, -140.796
3.08714, -1, -28.4047, -2.34781, 25.5582, 13.4224, 77.3417, -141.029
3.09595, -1, -28.5774, -2.43579, 25.5929, 13.4245, 77.2495, -141.262
3.10397, -1, -28.7496, -2.52374, 25.6275, 13.4267, 77.1577, -141.495
3.11203, -1, -28.9209, -2.61178, 25.6622, 13.4289, 77.0656, -141.728
3.12012, -1, -29.0916, -2.69972, 25.6968, 13.4311, 76.9737, -141.961
3.12767, -1, -29.2623, -2.78753, 25.7314, 13.4331, 76.8821, -142.193
3.1361, -1, -29.4329, -2.87535, 25.7661, 13.4352, 76.79, -142.425
3.1444, -1, -29.6036, -2.96297, 25.8007, 13.4373, 76.6982, -142.658
3.15156, -1, -29.7746, -3.05054, 25.8351, 13.4393, 76.6064, -142.891
3.16013, -1, -29.9456, -3.13806, 25.8698, 13.4414, 76.5146, -143.123
3.16752, -1, -30.0311, -3.22555, 25.9043, 13.4435, 76.4229, -143.355
3.17613, -1, -30.2875, -3.31306, 25.9388, 13.4455, 76.3311, -143.586
3.18347, -1, -30.3731, -3.35675, 25.9561, 13.4466, 76.2855, -143.702
3.19197, -1, -30.6306, -3.48798, 26.0079, 13.4496, 76.1482, -144.05
3.2, -1, -30.8024, -3.57542, 26.0424, 13.4517, 76.0568, -144.282
3.20699, -1, -30.8883, -3.61906, 26.0596, 13.4527, 76.0113, -144.397
3.21612, -1, -31.146, -3.75015, 26.1115, 13.4556, 75.874, -144.744
3.22296, -1, -31.2318, -3.79382, 26.1287, 13.4567, 75.8284, -144.86
3.23217, -1, -31.4887, -3.92483, 26.1803, 13.4599, 75.6916, -145.207
3.23894, -1, -31.5741, -3.96847, 26.1976, 13.461, 75.6459, -145.323
3.24841, -1, -31.8296, -4.0994, 26.2491, 13.4642, 75.509, -145.669
3.25639, -1, -31.9994, -4.18663, 26.2835, 13.4664, 75.418, -145.9
3.26294, -1, -32.0842, -4.23019, 26.3007, 13.4675, 75.3725, -146.015
3.27287, -1, -32.3383, -4.36085, 26.3522, 13.4708, 75.2357, -146.361
3.28053, -1, -32.5079, -4.44782, 26.3864, 13.4729, 75.145, -146.592
3.28859, -1, -32.6775, -4.53473, 26.4209, 13.475, 75.054, -146.822
3.29658, -1, -32.7623, -4.57819, 26.4552, 13.4773, 74.9632, -147.053
3.3045, -1, -32.932, -4.6651, 26.4723, 13.4784, 74.9177, -147.283
3.3125, -1, -33.1017, -4.75204, 26.5065, 13.4805, 74.8273, -147.398
3.31996, -1, -33.2715, -4.83891, 26.5408, 13.4827, 74.7365, -147.628
3.32794, -1, -33.4415, -4.92577, 26.575, 13.485, 74.646, -147.858
3.33604, -1, -33.6118, -5.01275, 26.6092, 13.4871, 74.5554, -148.088
3.34396, -1, -33.7821, -5.09953, 26.6435, 13.4894, 74.4648, -148.318
3.35199, -1, -33.9523, -5.18627, 26.6776, 13.4916, 74.3743, -148.548
3.35995, -1, -34.1225, -5.27302, 26.7117, 13.4938, 74.2838, -148.777
3.36795, -1, -34.2926, -5.35972, 26.7459, 13.4961, 74.1933, -149.006
3.37601, -1, -34.4627, -5.44635, 26.7802, 13.4984, 74.1026, -149.236
3.38394, -1, -34.6323, -5.533, 26.8142, 13.5008, 74.012, -149.465
3.39194, -1, -34.8013, -5.61963, 26.8483, 13.5032, 73.9216, -149.694
3.40002, -1, -34.9699, -5.70622, 26.8825, 13.5057, 73.831, -149.923
3.40794, -1, -35.1382, -5.79268, 26.9166, 13.5081, 73.7405, -150.152
3.41617, -1, -35.3064, -5.87909, 26.9506, 13.5105, 73.6503, -150.381
3.42394, -1, -35.4748, -5.96534, 26.9848, 13.5129, 73.5599, -150.61
3.43194, -1, -35.6433, -6.05151, 27.0188, 13.5152, 73.4696, -150.839
3.4408, -1, -35.8119, -6.13776, 27.0528, 13.5176, 73.3795, -151.067
3.44693, -1, -35.9804, -6.22389, 27.0869, 13.52, 73.2889, -151.296
3.45598, -1, -36.1489, -6.31002, 27.121, 13.5224, 73.1985, -151.524
3.46475, -1, -36.3174, -6.39617, 27.1549, 13.5249, 73.1082, -151.753
3.47196, -1, -36.4862, -6.48238, 27.1888, 13.5272, 73.0178, -151.982
3.47993, -1, -36.655, -6.56855, 27.2228, 13.5295, 72.9275, -152.21
3.49105, -1, -36.9084, -6.69779, 27.2737, 13.533, 72.7924, -152.552
3.49593, -1, -36.9929, -6.74086, 27.2907, 13.5342, 72.7474, -152.666
3.50394, -1, -37.1618, -6.82703, 27.3247, 13.5364, 72.6573, -152.894
3.51201, -1, -37.3306, -6.9131, 27.3585, 13.5388, 72.5673, -153.122
3.51993, -1, -37.499, -6.99913, 27.3924, 13.5409, 72.4777, -153.349
3.52711, -1, -37.667, -7.08522, 27.4265, 13.5431, 72.3875, -153.577
3.53521, -1, -37.8347, -7.17124, 27.4604, 13.5454, 72.2977, -153.804
3.54305, -1, -38.0022, -7.25715, 27.4942, 13.5477, 72.2082, -154.032
3.55197, -1, -38.1695, -7.34304, 27.5281, 13.5499, 72.1183, -154.259
3.56002, -1, -38.3369, -7.42888, 27.562, 13.5521, 72.0286, -154.486
3.56697, -1, -38.5042, -7.51458, 27.5958, 13.5542, 71.9391, -154.714
3.57594, -1, -38.6714, -7.60032, 27.6298, 13.5563, 71.8493, -154.941
3.58405, -1, -38.8388, -7.68604, 27.6637, 13.5584, 71.7599, -155.168
3.59195, -1, -39.0061, -7.77173, 27.6974, 13.5604, 71.6705, -155.395
3.59994, -1, -39.1734, -7.85733, 27.7312, 13.5625, 71.5813, -155.622
3.608, -1, -39.3409, -7.94302, 27.7651, 13.5645, 71.4918, -155.848
3.61596, -1, -39.5083, -8.02867, 27.7988, 13.5665, 71.4023, -156.075
3.62396, -1, -39.676, -8.11421, 27.8324, 13.5684, 71.3133, -156.302
3.63205, -1, -39.8436, -8.19965, 27.8662, 13.5704, 71.2237, -156.528
3.64003, -1, -40.0113, -8.28513, 27.9, 13.5723, 71.1343, -156.755
3.64765, -1, -40.1789, -8.37055, 27.9336, 13.5743, 71.0452, -156.981
3.6561, -1, -40.3463, -8.45587, 27.9673, 13.5763, 70.9558, -157.207
3.6635, -1, -40.5135, -8.54125, 28.0011, 13.5782, 70.8666, -157.434
3.67206, -1, -40.6805, -8.62662, 28.0347, 13.5802, 70.7775, -157.659
3.68011, -1, -40.8472, -8.71198, 28.0683, 13.5822, 70.6884, -157.885
3.6875, -1, -40.9304, -8.75465, 28.0852, 13.5832, 70.6437, -157.998
3.69596, -1, -41.1798, -8.88258, 28.1357, 13.5863, 70.51, -158.337
3.70403, -1, -41.346, -8.96779, 28.1692, 13.5883, 70.421, -158.563
3.71093, -1, -41.4291, -9.01038, 28.186, 13.5893, 70.3763, -158.676
3.72013, -1, -41.6786, -9.13811, 28.2365, 13.5923, 70.2425, -159.014
3.72694, -1, -41.7618, -9.18067, 28.2533, 13.5933, 70.1981, -159.127
3.73616, -1, -42.0113, -9.30822, 28.3037, 13.5963, 70.0644, -159.465
3.74293, -1, -42.0945, -9.35074, 28.3206, 13.5973, 70.02, -159.578
3.7524, -1, -42.3438, -9.47834, 28.3708, 13.6004, 69.8868, -159.915
3.7604, -1, -42.5101, -9.56332, 28.4044, 13.6024, 69.7977, -160.141
3.76853, -1, -42.6765, -9.6483, 28.438, 13.6044, 69.7088, -160.366
3.7765, -1, -42.843, -9.73329, 28.4714, 13.6064, 69.62, -160.591
3.78453, -1, -43.0095, -9.81822, 28.5048, 13.6085, 69.5312, -160.816
3.79258, -1, -43.1759, -9.90317, 28.5384, 13.6105, 69.4424, -161.041
3.80058, -1, -43.2589, -9.94565, 28.5719, 13.6126, 69.3537, -161.265
3.8085, -1, -43.4251, -10.0305, 28.5886, 13.6136, 69.3096, -161.49
3.81651, -1, -43.591, -10.1155, 28.6221, 13.6158, 69.2208, -161.603
3.82393, -1, -43.7569, -10.2004, 28.6556, 13.6179, 69.1323, -161.827
3.83194, -1, -43.9226, -10.2853, 28.689, 13.62, 69.0439, -162.052
3.83997, -1, -44.0882, -10.37, 28.7223, 13.6222, 68.9554, -162.276
3.84796, -1, -44.2536, -10.4547, 28.7559, 13.6243, 68.8667, -162.5
3.85592, -1, -44.4187, -10.5393, 28.7893, 13.6266, 68.778, -162.725
3.86397, -1, -44.5839, -10.6239, 28.8227, 13.6287, 68.6896, -162.949
3.87194, -1, -44.7491, -10.7084, 28.8561, 13.6309, 68.6009, -163.173
3.87992, -1, -44.9145, -10.7929, 28.8896, 13.6331, 68.5124, -163.397
3.88794, -1, -45.0798, -10.8773, 28.923, 13.6353, 68.4241, -163.621
3.89592, -1, -45.2451, -10.9619, 28.9564, 13.6375, 68.3355, -163.845
3.90392, -1, -45.4104, -11.0464, 28.9898, 13.6397, 68.2471, -164.069
3.91201, -1, -45.5756, -11.1308, 29.023, 13.642, 68.159, -164.293
3.91996, -1, -45.741, -11.2153, 29.0562, 13.6443, 68.0706, -164.517
3.92792, -1, -45.9059, -11.2996, 29.0897, 13.6466, 67.9823, -164.74
3.93752, -1, -46.0688, -11.3828, 29.1231, 13.6489, 67.8938, -165.075
3.94393, -1, -46.2283, -11.4639, 29.1565, 13.6512, 67.8062, -165.186
3.95292, -1, -46.3822, -11.5412, 29.1902, 13.6536, 67.7196, -165.405
3.96001, -1, -46.5282, -11.6137, 29.2232, 13.656, 67.6359, -165.616
3.96792, -1, -46.6639, -11.6805, 29.2543, 13.6582, 67.5578, -165.815
3.97604, -1, -46.7863, -11.7401, 29.2825, 13.6603, 67.4866, -165.994
3.98399, -1, -46.8931, -11.7926, 29.3068, 13.6622, 67.4252, -166.15
3.99193, -1, -46.9836, -11.8385, 29.3262, 13.6636, 67.3749, -166.278
3.99992, -1, -47.0583, -11.8784, 29.3399, 13.6647, 67.3359, -166.375
4.00799, -1, -47.1179, -11.9115, 29.349, 13.6653, 67.3077, -166.447
4.01592, -1, -47.1631, -11.9372, 29.3544, 13.6656, 67.2889, -166.494
4.02388, -1, -47.196, -11.9557, 29.357, 13.6658, 67.2772, -166.523
4.032, -1, -47.2185, -11.9682, 29.3582, 13.6659, 67.2708, -166.54
4.03992, -1, -47.2326, -11.9759, 29.3588, 13.6659, 67.2675, -166.548
4.04789, 2, -47.2405, -11.9802, 29.359, 13.666, 67.2659, -166.552
4.05599, 2, -47.2441, -11.9821, 29.3592, 13.666, 67.2651, -166.553
4.06392, 2, -47.2449, -11.983, 29.3593, 13.666, 67.2647, -166.554
4.07193, 2, -47.2446, -11.9833, 29.3594, 13.6661, 67.2646, -166.555
4.07999, 2, -47.2445, -11.9834, 29.3594, 13.6661, 67.2645, -166.555
4.08797, 2, -47.2446, -11.9835, 29.3594, 13.6661, 67.2644, -166.555
4.09592, 2, -47.2453, -11.9836, 29.3595, 13.6661, 67.2645, -166.555
4.10399, 2, -47.2463, -11.984, 29.3595, 13.6662, 67.2644, -166.555
4.11194, 2, -47.2479, -11.9847, 29.3595, 13.6661, 67.2644, -166.555
4.11995, 2, -47.2497, -11.9855, 29.3595, 13.6661, 67.2644, -166.555
4.12802, 2, -47.2511, -11.9864, 29.3595, 13.6661, 67.2644, -166.555
4.13597, 2, -47.2523, -11.9871, 29.3595, 13.6661, 67.2644, -166.555
4.14403, 2, -47.2529, -11.9876, 29.3595, 13.6661, 67.2644, -166.555
4.15208, 2, -47.2532, -11.9879, 29.3595, 13.6661, 67.2644, -166.555
4.16006, 2, -47.2534, -11.988, 29.3595, 13.6661, 67.2644, -166.555
4.16754, 2, -47.2532, -11.9881, 29.3595, 13.6661, 67.2644, -166.555
4.17609, 2, -47.2528, -11.9881, 29.3595, 13.6661, 67.2645, -166.555
4.18373, 2, -47.2524, -11.988, 29.3595, 13.6661, 67.2645, -166.555
4.19203, 2, -47.252, -11.988, 29.3595, 13.6661, 67.2645, -166.555
4.19891, 2, -47.2518, -11.988, 29.3595, 13.6662, 67.2645, -166.555
4.20796, 2, -47.2516, -11.988, 29.3595, 13.6661, 67.2645, -166.555
4.21497, 2, -47.2516, -11.9881, 29.3595, 13.6661, 67.2644, -166.555
4.22417, 2, -47.2517, -11.9884, 29.3595, 13.6661, 67.2645, -166.555
4.23092, 2, -47.2519, -11.9885, 29.3595, 13.6661, 67.2645, -166.555
4.24029, 2, -47.2528, -11.9891, 29.3595, 13.6661, 67.2645, -166.555
4.24693, 2, -47.2531, -11.9892, 29.3595, 13.6661, 67.2645, -166.555
4.25676, 2, -47.2535, -11.9895, 29.3595, 13.6661, 67.2645, -166.555
4.26437, 2, -47.2536, -11.9895, 29.3595, 13.666, 67.2645, -166.555
4.27091, 2, -47.2536, -11.9895, 29.3595, 13.666, 67.2645, -166.555
4.28086, 2, -47.2534, -11.9895, 29.3595, 13.6661, 67.2645, -166.555
4.28866, 2, -47.253, -11.9894, 29.3595, 13.6661, 67.2645, -166.555
4.29652, 2, -47.2526, -11.9894, 29.3595, 13.6661, 67.2645, -166.555
4.30479, 2, -47.2523, -11.9894, 29.3595, 13.6661, 67.2645, -166.555
4.31248, 2, -47.2522, -11.9894, 29.3595, 13.6661, 67.2645, -166.555
4.31996, 2, -47.252, -11.9894, 29.3595, 13.666, 67.2645, -166.555
4.32881, 2, -47.2519, -11.9894, 29.3595, 13.666, 67.2645, -166.555
4.33591, 2, -47.2518, -11.9894, 29.3595, 13.666, 67.2645, -166.555
4.34403, 2, -47.2518, -11.9895, 29.3595, 13.666, 67.2645, -166.555
4.35196, 2, -47.2518, -11.9896, 29.3595, 13.666, 67.2645, -166.555
4.35991, 2, -47.2519, -11.9896, 29.3595, 13.666, 67.2645, -166.555
4.36795, 2, -47.252, -11.9896, 29.3595, 13.666, 67.2645, -166.555
4.37591, 2, -47.252, -11.9896, 29.3595, 13.6661, 67.2646, -166.555
4.38391, 2, -47.252, -11.9895, 29.3595, 13.666, 67.2646, -166.555
4.39197, 2, -47.2519, -11.9895, 29.3595, 13.666, 67.2646, -166.555
4.39991, 2, -47.2518, -11.9894, 29.3595, 13.666, 67.2646, -166.555
4.40791, 2, -47.2517, -11.9894, 29.3595, 13.666, 67.2646, -166.555
4.41597, 2, -47.2516, -11.9894, 29.3595, 13.666, 67.2646, -166.555
4.42406, 2, -47.2514, -11.9894, 29.3595, 13.666, 67.2646, -166.555
4.43098, 2, -47.2513, -11.9894, 29.3595, 13.666, 67.2646, -166.555
4.43997, 2, -47.2512, -11.9894, 29.3595, 13.666, 67.2646, -166.555
4.44978, 2, -47.2512, -11.9894, 29.3595, 13.666, 67.2646, -166.555
4.45592, 2, -47.2511, -11.9894, 29.3595, 13.666, 67.2646, -166.555
4.46399, 2, -47.2511, -11.9894, 29.3595, 13.666, 67.2646, -166.555
4.47192, 2, -47.2511, -11.9894, 29.3595, 13.666, 67.2646, -166.555
4.47993, 2, -47.251, -11.9894, 29.3595, 13.666, 67.2646, -166.555
4.48797, 2, -47.251, -11.9893, 29.3595, 13.666, 67.2646, -166.555
4.49491, 2, -47.2509, -11.9893, 29.3595, 13.666, 67.2646, -166.555
4.50391, 2, -47.2509, -11.9892, 29.3595, 13.666, 67.2646, -166.555
4.51198, 2, -47.2508, -11.9892, 29.3595, 13.666, 67.2646, -166.555
4.5199, 2, -47.2507, -11.9892, 29.3595, 13.666, 67.2647, -166.555
4.52791, 2, -47.2506, -11.9892, 29.3595, 13.666, 67.2646, -166.555
4.53598, 2, -47.2505, -11.9891, 29.3595, 13.666, 67.2646, -166.555
4.54391, 2, -47.2504, -11.9892, 29.3595, 13.666, 67.2646, -166.555
4.55198, 2, -47.2503, -11.9892, 29.3595, 13.666, 67.2646, -166.555
4.55997, 2, -47.2502, -11.9891, 29.3595, 13.666, 67.2646, -166.555
4.5679, 2, -47.2501, -11.9892, 29.3595, 13.666, 67.2646, -166.554
4.57591, 2, -47.25, -11.9891, 29.3595, 13.666, 67.2647, -166.554
4.58397, 2, -47.2499, -11.9891, 29.3595, 13.666, 67.2647, -166.554
4.59196, 2, -47.2498, -11.9891, 29.3595, 13.666, 67.2647, -166.554
4.59991, 2, -47.2497, -11.9891, 29.3595, 13.6659, 67.2647, -166.554
4.60797, 2, -47.2496, -11.989, 29.3595, 13.666, 67.2647, -166.554
4.61591, 2, -47.2495, -11.9889, 29.3595, 13.666, 67.2646, -166.554
4.62393, 2, -47.2494, -11.9889, 29.3595, 13.6659, 67.2647, -166.554
4.63202, 2, -47.2493, -11.9888, 29.3595, 13.6659, 67.2647, -166.554
4.63996, 2, -47.2492, -11.9888, 29.3595, 13.6659, 67.2647, -166.554
4.64801, 2, -47.2491, -11.9888, 29.3595, 13.6659, 67.2647, -166.554
4.65606, 2, -47.249, -11.9888, 29.3595, 13.6659, 67.2647, -166.554
4.664, 2, -47.2489, -11.9888, 29.3595, 13.6659, 67.2647, -166.554
4.67202, 2, -47.2489, -11.9888, 29.3595, 13.6659, 67.2647, -166.554
4.68008, 2, -47.2488, -11.9888, 29.3595, 13.6659, 67.2647, -166.554
4.68791, 2, -47.2488, -11.9888, 29.3595, 13.6659, 67.2647, -166.554
4.6959, 2, -47.2487, -11.9888, 29.3595, 13.6659, 67.2647, -166.554
4.70401, 2, -47.2486, -11.9887, 29.3595, 13.6659, 67.2647, -166.554
4.71195, 2, -47.2486, -11.9887, 29.3595, 13.6658, 67.2647, -166.554
4.71895, 2, -47.2485, -11.9886, 29.3595, 13.6658, 67.2647, -166.554
4.72812, 2, -47.2484, -11.9885, 29.3595, 13.6658, 67.2647, -166.554
4.7349, 2, -47.2483, -11.9885, 29.3595, 13.6658, 67.2647, -166.554
4.74428, 2, -47.2483, -11.9885, 29.3595, 13.6658, 67.2647, -166.554
4.75089, 2, -47.2483, -11.9885, 29.3595, 13.6658, 67.2647, -166.554
4.76033, 2, -47.2482, -11.9885, 29.3595, 13.6658, 67.2648, -166.554
4.76847, 2, -47.2482, -11.9885, 29.3595, 13.6658, 67.2648, -166.554
4.77648, 2, -47.2481, -11.9885, 29.3595, 13.6658, 67.2648, -166.554
4.78445, 2, -47.2481, -11.9885, 29.3595, 13.6658, 67.2648, -166.554
4.79259, 2, -47.2481, -11.9885, 29.3595, 13.6657, 67.2648, -166.554
4.80053, 2, -47.248, -11.9884, 29.3595, 13.6657, 67.2648, -166.554
4.80852, 2, -47.248, -11.9884, 29.3595, 13.6658, 67.2648, -166.554
4.81654, 2, -47.248, -11.9883, 29.3595, 13.6658, 67.2648, -166.554
4.82395, 2, -47.2479, -11.9883, 29.3595, 13.6657, 67.2648, -166.554
4.8319, 2, -47.2478, -11.9882, 29.3595, 13.6657, 67.2648, -166.554
4.83989, 2, -47.2477, -11.9882, 29.3595, 13.6657, 67.2648, -166.554
4.84794, 2, -47.2477, -11.9882, 29.3595, 13.6656, 67.2648, -166.554
4.85589, 2, -47.2476, -11.9882, 29.3595, 13.6656, 67.2649, -166.554
4.8639, 2, -47.2476, -11.9882, 29.3595, 13.6656, 67.2648, -166.554
4.87197, 2, -47.2476, -11.9882, 29.3595, 13.6656, 67.2649, -166.554
4.87989, 2, -47.2475, -11.9882, 29.3595, 13.6656, 67.2649, -166.554
4.88797, 2, -47.2475, -11.9882, 29.3595, 13.6656, 67.2649, -166.554
4.89594, 2, -47.2475, -11.9881, 29.3595, 13.6656, 67.2648, -166.554
4.90389, 2, -47.2475, -11.9881, 29.3595, 13.6655, 67.2648, -166.554
4.9119, 2, -47.2475, -11.988, 29.3595, 13.6656, 67.2648, -166.554
4.91996, 2, -47.2474, -11.988, 29.3595, 13.6656, 67.2649, -166.554
4.92794, 2, -47.2473, -11.9879, 29.3595, 13.6655, 67.265, -166.554
4.9359, 2, -47.2472, -11.9879, 29.3595, 13.6655, 67.265, -166.554
4.94489, 2, -47.2472, -11.9878, 29.3595, 13.6655, 67.265, -166.554
4.9519, 2, -47.2471, -11.9878, 29.3595, 13.6655, 67.265, -166.554
4.95991, 2, -47.2471, -11.9878, 29.3595, 13.6655, 67.2651, -166.554
4.96798, 2, -47.247, -11.9878, 29.3595, 13.6655, 67.265, -166.554
4.97589, 2, -47.247, -11.9878, 29.3595, 13.6655, 67.265, -166.554
4.98391, 2, -47.247, -11.9878, 29.3595, 13.6654, 67.2651, -166.554
4.99197, 2, -47.2469, -11.9878, 29.3595, 13.6655, 67.265, -166.554
4.99989, 2, -47.2469, -11.9878, 29.3595, 13.6654, 67.2651, -166.554
5.0079, 2, -47.247, -11.9878, 29.3595, 13.6654, 67.265, -166.554
5.01596, 2, -47.2469, -11.9877, 29.3595, 13.6654, 67.265, -166.554
5.02388, 2, -47.2469, -11.9876, 29.3595, 13.6654, 67.265, -166.554
5.0319, 2, -47.2468, -11.9876, 29.3595, 13.6653, 67.265, -166.554
5.03995, 2, -47.2467, -11.9875, 29.3595, 13.6653, 67.2651, -166.554
5.04808, 2, -47.2466, -11.9875, 29.3595, 13.6653, 67.265, -166.554
5.05608, 2, -47.2465, -11.9875, 29.3595, 13.6653, 67.2651, -166.554
5.06389, 2, -47.2465, -11.9875, 29.3595, 13.6653, 67.2651, -166.554
5.0719, 2, -47.2465, -11.9875, 29.3595, 13.6652, 67.2651, -166.554
5.07996, 2, -47.2464, -11.9875, 29.3595, 13.6652, 67.2651, -166.554
5.08789, 2, -47.2464, -11.9875, 29.3595, 13.6653, 67.2651, -166.554
5.09593, 2, -47.2464, -11.9875, 29.3595, 13.6653, 67.2651, -166.554
5.10396, 2, -47.2464, -11.9874, 29.3595, 13.6652, 67.2651, -166.554
5.11201, 2, -47.2464, -11.9874, 29.3595, 13.6652, 67.2651, -166.554
5.11921, 2, -47.2463, -11.9874, 29.3595, 13.6651, 67.2651, -166.554
5.12726, 2, -47.2463, -11.9873, 29.3595, 13.6651, 67.2651, -166.554
5.13545, 4, -47.2462, -11.9873, 29.3595, 13.6652, 67.2651, -166.554
5.14396, 4, -47.2461, -11.9872, 29.3595, 13.6651, 67.2651, -166.554
5.15212, 4, -47.2461, -11.9872, 29.3595, 13.6651, 67.2651, -166.554
5.15972, 4, -47.246, -11.9872, 29.3595, 13.6651, 67.2652, -166.554
5.16799, 4, -47.246, -11.9872, 29.3595, 13.6651, 67.2652, -166.554
5.17607, 4, -47.2459, -11.9872, 29.3595, 13.6651, 67.2651, -166.554
5.18352, 4, -47.2459, -11.9872, 29.3595, 13.6651, 67.2652, -166.554
5.1919, 4, -47.2459, -11.9872, 29.3595, 13.6651, 67.2651, -166.554
5.19996, 4, -47.2458, -11.9871, 29.3595, 13.6651, 67.2652, -166.554
5.2069, 4, -47.2458, -11.9871, 29.3595, 13.6651, 67.2652, -166.554
5.21592, 4, -47.2457, -11.9871, 29.3595, 13.6651, 67.2652, -166.554
5.22433, 4, -47.2457, -11.987, 29.3595, 13.6651, 67.2652, -166.554
5.23088, 4, -47.2457, -11.987, 29.3595, 13.665, 67.2652, -166.554
5.24031, 4, -47.2456, -11.987, 29.3595, 13.665, 67.2652, -166.554
5.25334, 4, -47.2456, -11.987, 29.3595, 13.665, 67.2652, -166.554
5.25676, 4, -47.2455, -11.9869, 29.3595, 13.665, 67.2652, -166.554
5.26827, 4, -47.2455, -11.9869, 29.3595, 13.665, 67.2652, -166.554
5.27302, 4, -47.2454, -11.9869, 29.3595, 13.665, 67.2652, -166.554
5.28224, 4, -47.2454, -11.9869, 29.3595, 13.665, 67.2652, -166.554
5.28876, 4, -47.2454, -11.9869, 29.3595, 13.665, 67.2652, -166.554
5.29754, 4, -47.2453, -11.9868, 29.3595, 13.6649, 67.2653, -166.554
5.30481, 4, -47.2453, -11.9868, 29.3595, 13.6649, 67.2653, -166.554
5.31288, 4, -47.2453, -11.9868, 29.3595, 13.6648, 67.2653, -166.554
5.31903, 4, -47.2453, -11.9868, 29.3595, 13.6648, 67.2652, -166.554
5.32922, 4, -47.2453, -11.9868, 29.3595, 13.6648, 67.2653, -166.554
5.33728, 4, -47.2452, -11.9867, 29.3595, 13.6648, 67.2653, -166.554
5.34497, 4, -47.2452, -11.9867, 29.3595, 13.6648, 67.2653, -166.553
5.35528, 4, -47.2451, -11.9867, 29.3595, 13.6648, 67.2653, -166.553
5.35904, 4, -47.2451, -11.9867, 29.3595, 13.6648, 67.2653, -166.553
5.37144, 4, -47.245, -11.9866, 29.3595, 13.6648, 67.2653, -166.553
5.37602, 4, -47.245, -11.9866, 29.3595, 13.6648, 67.2653, -166.553
5.3831, 4, -47.245, -11.9866, 29.3595, 13.6647, 67.2653, -166.553
5.39209, 4, -47.245, -11.9866, 29.3595, 13.6647, 67.2653, -166.553
5.40025, 4, -47.2449, -11.9866, 29.3595, 13.6647, 67.2654, -166.553
5.40804, 4, -47.2454, -11.9868, 29.3596, 13.6648, 67.2654, -166.553
5.41602, 4, -47.2469, -11.9878, 29.3605, 13.6653, 67.2657, -166.553
5.42553, 4, -47.2501, -11.9933, 29.3672, 13.6765, 67.2684, -166.552
5.43203, 5, -47.2556, -11.9971, 29.3724, 13.6867, 67.2709, -166.551
5.44209, 5, -47.2713, -12.0173, 29.4045, 13.7506, 67.2884, -166.538
5.45077, 5, -47.2795, -12.0281, 29.4232, 13.7889, 67.299, -166.518
5.45683, 5, -47.3018, -12.0578, 29.4772, 13.9013, 67.3308, -166.504
5.46308, 5, -47.3338, -12.0994, 29.5587, 14.0736, 67.3788, -166.465
5.47102, 5, -47.3774, -12.1548, 29.6734, 14.3194, 67.4466, -166.408
5.48329, 5, -47.4668, -12.2657, 29.9141, 14.8431, 67.5892, -166.289
5.48806, 5, -47.5029, -12.3103, 30.0137, 15.0597, 67.6477, -166.239
5.49614, 5, -47.5845, -12.4107, 30.2414, 15.5523, 67.7795, -166.127
5.50403, 5, -47.6777, -12.5249, 30.5035, 16.1143, 67.9279, -166
5.51203, 5, -47.7808, -12.6516, 30.7959, 16.7311, 68.089, -165.862
5.52267, 5, -47.9497, -12.8603, 31.2779, 17.7269, 68.3434, -165.643
5.5281, 5, -48.0086, -12.9336, 31.4469, 18.0696, 68.4294, -165.568
5.53542, 5, -48.129, -13.0836, 31.7922, 18.7622, 68.6007, -165.42
5.54314, 5, -48.2506, -13.2352, 32.143, 19.4559, 68.7693, -165.273
5.55207, 5, -48.3711, -13.3845, 32.4943, 20.1389, 68.9336, -165.127
5.55922, 5, -48.4869, -13.5287, 32.8419, 20.8023, 69.0936, -164.978
5.56805, 6, -48.5934, -13.6657, 33.1791, 21.4346, 69.2513, -164.816
5.57875, 6, -48.6859, -13.793, 33.6556, 22.3031, 69.4878, -164.521
5.58325, 6, -48.7604, -13.9106, 33.8047, 22.5686, 69.5679, -164.402
5.59229, 7, -48.8139, -14.0198, 34.0882, 23.0613, 69.7314, -164.126
5.60491, 7, -48.8521, -14.1684, 34.4769, 23.7138, 69.9881, -163.594
5.60928, 8, -48.8542, -14.2134, 34.5979, 23.9122, 70.0778, -163.383
5.62204, 8, -48.8346, -14.3352, 34.9436, 24.4681, 70.3603, -162.655
5.62474, 9, -48.8205, -14.372, 35.0542, 24.6447, 70.4596, -162.384
5.63213, 9, -48.7829, -14.4421, 35.2709, 24.9921, 70.6658, -161.807
5.64017, 10, -48.7348, -14.509, 35.4852, 25.3377, 70.8822, -161.196
5.64935, 10, -48.6775, -14.5743, 35.699, 25.686, 71.1076, -160.563
5.65622, 11, -48.6116, -14.6386, 35.9126, 26.0387, 71.3394, -159.92
5.66421, 11, -48.539, -14.7021, 36.1264, 26.396, 71.5749, -159.275
5.67554, 11, -48.4617, -14.765, 36.3396, 26.9425, 71.9307, -158.313
5.68215, 12, -48.3828, -14.8272, 36.5505, 27.1279, 72.0499, -157.992
5.68822, 12, -48.3037, -14.8873, 36.7597, 27.5044, 72.2896, -157.348
5.69696, 13, -48.2252, -14.945, 36.9672, 27.8892, 72.5319, -156.702
5.70577, 13, -48.1856, -14.9733, 37.1722, 28.2824, 72.7777, -156.05
5.713, 14, -48.0624, -15.0598, 37.3757, 28.6831, 73.0267, -155.393
5.71904, 14, -48.0196, -15.0895, 37.4774, 28.8854, 73.1524, -155.064
5.72712, 15, -47.9312, -15.1497, 37.6798, 29.2925, 73.4041, -154.407
5.73505, 15, -47.8381, -15.2095, 37.8801, 29.7, 73.6542, -153.753
5.75094, 16, -47.6325, -15.3278, 38.2768, 30.5051, 74.1405, -152.461
5.75368, 17, -47.5768, -15.3582, 38.3745, 30.7033, 74.2582, -152.143
5.76154, 17, -47.4614, -15.4204, 38.5672, 31.0957, 74.4885, -151.511
5.76883, 17, -47.3409, -15.4841, 38.7571, 31.4828, 74.7121, -150.886
5.77865, 18, -47.2153, -15.5493, 38.9443, 31.8663, 74.9302, -150.268
5.78582, 18, -47.0841, -15.6165, 39.1282, 32.2474, 75.1435, -149.656
5.79324, 19, -46.9471, -15.6871, 39.3097, 32.6278, 75.353, -149.05
5.80076, 19, -46.8045, -15.76, 39.4899, 33.0079, 75.5587, -148.449
5.8071, 20, -46.7313, -15.797, 39.5795, 33.1979, 75.6602, -148.151
5.81509, 20, -46.5816, -15.8712, 39.7567, 33.5772, 75.8603, -147.561
5.82306, 21, -46.4286, -15.9463, 39.9316, 33.9559, 76.0564, -146.977
5.83271, 21, -46.2725, -16.0227, 40.1049, 34.3341, 76.3433, -146.112
5.84141, 22, -46.0315, -16.1403, 40.3614, 34.9002, 76.5299, -145.543
5.84894, 22, -45.949, -16.1803, 40.4453, 35.2756, 76.7132, -144.98
5.85602, 23, -45.7796, -16.2617, 40.611, 35.4623, 76.8032, -144.7
5.86313, 24, -45.6034, -16.3453, 40.7741, 35.8331, 76.9797, -144.143
5.87914, 24, -45.2268, -16.5197, 41.0881, 36.5571, 77.3148, -143.048
5.88188, 25, -45.1277, -16.5645, 41.1638, 36.7327, 77.3941, -142.778
5.88702, 25, -45.0269, -16.6096, 41.2384, 36.9057, 77.4712, -142.509
5.89796, 25, -44.7147, -16.7456, 41.4558, 37.4097, 77.6908, -141.71
5.90642, 26, -44.4982, -16.8377, 41.5947, 37.7335, 77.8283, -141.184
5.91608, 27, -44.2744, -16.9308, 41.7285, 38.049, 77.9609, -140.66
5.92383, 27, -44.0436, -17.0246, 41.8567, 38.3568, 78.0889, -140.138
5.92799, 27, -43.9257, -17.0713, 41.9187, 38.5082, 78.1521, -139.877
5.93884, 28, -43.5616, -17.2097, 42.0949, 38.9525, 78.3384, -139.095
5.94368, 28, -43.4365, -17.2551, 42.1501, 39.097, 78.3996, -138.834
5.95505, 29, -43.051, -17.3892, 42.3054, 39.5203, 78.581, -138.051
5.95903, 29, -42.9193, -17.4328, 42.3535, 39.6577, 78.6401, -137.79
5.96805, 30, -42.6509, -17.5179, 42.4442, 39.9263, 78.7568, -137.267
5.97502, 30, -42.3748, -17.5998, 42.5277, 40.1864, 78.8707, -136.745
5.98507, 31, -42.0906, -17.6791, 42.6041, 40.4378, 78.9811, -136.225
5.99201, 31, -41.7988, -17.7559, 42.6735, 40.6804, 79.0889, -135.704
6.00002, 32, -41.5, -17.8302, 42.7361, 40.914, 79.1931, -135.185
6.01099, 33, -41.0398, -17.9359, 42.8167, 41.2488, 79.3443, -134.408
6.01505, 33, -40.8829, -17.9696, 42.8399, 41.3565, 79.3937, -134.149
6.02429, 33, -40.5637, -18.0354, 42.8809, 41.5657, 79.4902, -133.633
6.03112, 34, -40.2386, -18.0987, 42.9145, 41.767, 79.5846, -133.117
6.04004, 35, -39.9089, -18.1594, 42.9409, 41.9605, 79.6768, -132.601
6.04961, 35, -39.5741, -18.2166, 42.9602, 42.1463, 79.7664, -132.088
6.05604, 36, -39.2334, -18.2701, 42.9726, 42.3248, 79.8537, -131.576
6.06517, 36, -38.8854, -18.3202, 42.9782, 42.4952, 79.9385, -131.064
6.07198, 36, -38.5304, -18.3672, 42.9774, 42.658, 80.0215, -130.554
6.08377, 37, -37.9871, -18.4315, 42.9634, 42.888, 80.1417, -129.793
6.08716, 37, -37.8033, -18.451, 42.9554, 42.9609, 80.1809, -129.54
6.09689, 38, -37.4318, -18.4875, 42.9343, 43.1015, 80.2571, -129.035
6.10843, 39, -36.8658, -18.536, 42.8902, 43.2979, 80.3678, -128.281
6.112, 39, -36.6749, -18.5504, 42.8721, 43.3597, 80.4035, -128.03
6.12216, 40, -36.2894, -18.5763, 42.8309, 43.478, 80.4742, -127.531
6.1277, 40, -35.8978, -18.5986, 42.7832, 43.589, 80.5424, -127.033
6.1369, 40, -35.5001, -18.6169, 42.7289, 43.693, 80.6095, -126.537
6.14843, 41, -34.8933, -18.6372, 42.6353, 43.8348, 80.7051, -125.797
6.15675, 42, -34.6887, -18.6423, 42.6008, 43.9208, 80.7671, -125.307
6.16021, 42, -34.2771, -18.65, 42.5271, 43.961, 80.7969, -125.063
6.16818, 43, -33.8626, -18.6545, 42.4472, 44.0363, 80.8557, -124.575
6.17619, 43, -33.4447, -18.6558, 42.3612, 44.1041, 80.9131, -124.09
6.18574, 44, -33.0214, -18.6536, 42.2694, 44.1654, 80.9679, -123.608
6.19275, 44, -32.5921, -18.6476, 42.172, 44.219, 81.0223, -123.128
6.20141, 45, -32.1561, -18.6378, 42.0687, 44.2653, 81.0742, -122.651
6.20815, 45, -31.7145, -18.6242, 41.9594, 44.3047, 81.1244, -122.175
6.21733, 46, -31.2688, -18.6072, 41.8441, 44.3365, 81.1738, -121.702
6.225, 46, -30.8213, -18.5868, 41.7229, 44.3604, 81.2205, -121.232
6.23271, 47, -30.3714, -18.5626, 41.5958, 44.3766, 81.2656, -120.764
6.24039, 47, -29.9174, -18.5341, 41.4629, 44.3854, 81.3104, -120.297
6.2531, 48, -29.2247, -18.483, 41.2523, 44.3857, 81.3746, -119.602
6.25907, 48, -28.9908, -18.4639, 41.179, 44.3814, 81.3955, -119.37
6.26474, 49, -28.5186, -18.4223, 41.028, 44.3664, 81.4373, -118.91
6.27442, 49, -28.0428, -18.3762, 40.8711, 44.3428, 81.4789, -118.451
6.28301, 50, -27.5646, -18.3256, 40.708, 44.3092, 81.5194, -117.993
6.28702, 50, -27.3245, -18.2985, 40.624, 44.2887, 81.5396, -117.765
6.29689, 51, -26.5967, -18.209, 40.3621, 44.2146, 81.6025, -117.08
6.30899, 51, -25.8522, -18.1069, 40.0856, 44.118, 81.6661, -116.399
6.31101, 51, -25.8522, -18.1069, 40.0856, 44.118, 81.6661, -116.399
6.32294, 52, -25.0937, -17.9925, 39.7924, 43.9992, 81.7314, -115.718
6.32873, 53, -24.5849, -17.9094, 39.5891, 43.9069, 81.7763, -115.265
6.33885, 53, -24.0735, -17.8203, 39.3787, 43.8046, 81.8213, -114.812
6.34701, 54, -23.557, -17.7248, 39.1601, 43.6917, 81.8683, -114.36
6.35544, 54, -23.0329, -17.6229, 38.9341, 43.5677, 81.9181, -113.908
6.36002, 55, -22.7674, -17.5697, 38.8184, 43.5015, 81.9435, -113.682
6.37061, 55, -21.962, -17.4011, 38.4591, 43.285, 82.024, -113.003
6.37609, 56, -21.692, -17.3421, 38.3359, 43.2069, 82.0524, -112.777
6.38675, 56, -20.8785, -17.1562, 37.9569, 42.9561, 82.1381, -112.099
6.39211, 57, -20.6052, -17.0914, 37.8272, 42.8672, 82.1677, -111.873
6.40009, 57, -20.0519, -16.9574, 37.5635, 42.6811, 82.2274, -111.422
6.41196, 58, -19.2049, -16.7452, 37.1559, 42.3801, 82.3187, -110.747
6.41497, 58, -18.9194, -16.6716, 37.017, 42.2734, 82.3504, -110.522
6.42304, 59, -18.3462, -16.5202, 36.7343, 42.0505, 82.4144, -110.072
6.43421, 59, -17.7705, -16.3636, 36.4443, 41.6918, 82.5169, -109.398
6.43998, 60, -17.1891, -16.2027, 36.1478, 41.5658, 82.5521, -109.173
6.44751, 60, -16.5979, -16.0374, 35.8447, 41.3039, 82.6249, -108.723
6.45609, 61, -15.9977, -15.8664, 35.5369, 41.0292, 82.6988, -108.274
6.46665, 61, -15.3927, -15.6899, 35.2237, 40.5936, 82.8125, -107.601
6.47111, 61, -14.785, -15.5088, 34.9056, 40.4423, 82.8511, -107.377
6.483, 62, -13.8632, -15.229, 34.4187, 39.9686, 82.9706, -106.704
6.48798, 63, -13.5511, -15.1331, 34.2542, 39.8041, 83.0116, -106.48
6.49596, 63, -12.9196, -14.9361, 33.9208, 39.4647, 83.0959, -106.03
6.50832, 64, -11.9601, -14.6289, 33.4098, 38.9291, 83.2287, -105.355
6.51201, 64, -11.6382, -14.5235, 33.2361, 38.7434, 83.2749, -105.13
6.52142, 65, -10.9894, -14.3074, 32.8837, 38.3603, 83.3713, -104.677
6.528, 65, -10.3295, -14.0843, 32.5242, 37.9607, 83.4735, -104.222
6.53599, 66, -9.65875, -13.8546, 32.1593, 37.5427, 83.5814, -103.764
6.54398, 66, -8.97935, -13.6182, 31.7894, 37.1066, 83.6956, -103.306
6.55346, 67, -8.2951, -13.3747, 31.4146, 36.6529, 83.8157, -102.845
6.56001, 67, -7.60447, -13.1247, 31.0337, 36.1822, 83.942, -102.383
6.56797, 68, -6.90426, -12.8675, 30.648, 35.6962, 84.0747, -101.918
6.5751, 68, -6.19592, -12.603, 30.259, 35.196, 84.2131, -101.451
6.58415, 69, -5.48202, -12.3333, 29.8665, 34.6836, 84.3579, -100.983
6.59119, 69, -4.76358, -12.0573, 29.4705, 34.1588, 84.508, -100.513
6.60003, 70, -4.0383, -11.7749, 29.0726, 33.6243, 84.6634, -100.041
6.60805, 70, -3.3053, -11.4851, 28.6749, 33.078, 84.8238, -99.5668
6.61779, 71, -2.56542, -11.1863, 28.277, 32.5189, 84.9895, -99.0919
6.62564, 71, -1.81982, -10.8806, 27.8769, 31.9466, 85.1622, -98.6163
6.63288, 72, -1.06753, -10.5683, 27.4748, 31.3591, 85.3438, -98.1385
6.6395, 72, -0.309533, -10.2508, 27.0703, 30.7544, 85.5349, -97.6593
6.64826, 73, 0.453168, -9.92726, 26.6638, 30.1352, 85.7352, -97.1779
6.65609, 73, 1.21969, -9.59643, 26.2564, 29.5045, 85.9437, -96.6955
6.66379, 73, 1.99055, -9.25947, 25.8492, 28.8637, 86.16, -96.2124
6.67192, 74, 2.76503, -8.91681, 25.4447, 28.2155, 86.3835, -95.7278
6.68423, 75, 3.93078, -8.39199, 24.8469, 27.2317, 86.7303, -94.9982
6.68809, 75, 4.32044, -8.21358, 24.6499, 26.9016, 86.8486, -94.7543
6.69728, 76, 5.10131, -7.85277, 24.2596, 26.2413, 87.0897, -94.2656
6.70417, 76, 5.8835, -7.48606, 23.8741, 25.5789, 87.3366, -93.7745
6.71217, 76, 6.66658, -7.11412, 23.4936, 24.9151, 87.59, -93.2812
6.72021, 77, 7.45074, -6.73448, 23.1163, 24.2517, 87.8512, -92.7858
6.73674, 78, 9.02548, -5.94533, 22.3711, 22.9159, 88.4033, -91.7884
6.73843, 78, 9.02548, -5.94533, 22.3711, 22.9159, 88.4033, -91.7884
6.75237, 79, 10.6065, -5.12159, 21.6378, 21.5543, 89.0083, -90.7748
6.75377, 79, 10.6065, -5.12159, 21.6378, 21.5543, 89.0083, -90.7748
6.76102, 79, 11.3971, -4.69914, 21.275, 20.8661, 89.3315, -90.2604
6.76829, 80, 12.1846, -4.26611, 20.9167, 20.1751, 89.6657, -89.7405
6.77485, 80, 12.5761, -4.04542, 20.7395, 19.8312, 89.8365, -89.4782
6.78439, 81, 13.7411, -3.37172, 20.2172, 18.8135, 90.3604, -88.6832
6.79238, 81, 14.5094, -2.91516, 19.8787, 18.1524, 90.7168, -88.1476
6.80049, 82, 15.2688, -2.45142, 19.5512, 17.5079, 91.0769, -87.6101
6.80843, 82, 16.0183, -1.98006, 19.2338, 16.881, 91.4408, -87.0699
6.81731, 83, 16.7557, -1.50191, 18.9262, 16.274, 91.8082, -86.5289
6.82283, 83, 17.1196, -1.2608, 18.7761, 15.9777, 91.9938, -86.2581
6.83366, 84, 18.1901, -0.531085, 18.3383, 15.1158, 92.5591, -85.448
6.83985, 84, 18.539, -0.286127, 18.1966, 14.8382, 92.7509, -85.1787
6.84786, 85, 19.2242, 0.206972, 17.9174, 14.2977, 93.1398, -84.641
6.85484, 85, 19.8922, 0.706251, 17.6444, 13.7768, 93.5365, -84.1048
6.86383, 85, 20.5425, 1.21069, 17.3778, 13.2755, 93.9402, -83.5704
6.87183, 86, 21.1759, 1.71893, 17.1169, 12.7937, 94.3497, -83.0372
6.87986, 86, 21.7947, 2.2334, 16.8627, 12.3307, 94.7652, -82.5025
6.88783, 87, 22.4007, 2.75755, 16.6137, 11.8868, 95.1876, -81.9656
6.89586, 87, 22.9959, 3.29205, 16.3689, 11.4607, 95.6173, -81.4248
6.90283, 88, 23.5813, 3.83335, 16.1274, 11.0511, 96.0548, -80.8794
6.91183, 88, 24.1571, 4.37967, 15.8882, 10.6573, 96.4993, -80.326
6.91903, 89, 24.7217, 4.93398, 15.6537, 10.2797, 96.9495, -79.764
6.92781, 89, 25.2763, 5.50001, 15.4253, 9.91873, 97.4046, -79.1917
6.93491, 89, 25.8247, 6.07813, 15.2019, 9.57528, 97.8624, -78.6088
6.94285, 90, 26.3694, 6.66687, 14.9846, 9.24853, 98.323, -78.0124
6.95205, 91, 26.9055, 7.2647, 14.7737, 8.93888, 98.7877, -77.4027
6.95983, 91, 27.4287, 7.87115, 14.5684, 8.6469, 99.2583, -76.7797
6.96792, 91, 27.9397, 8.48751, 14.3673, 8.37281, 99.7355, -76.1445
6.97586, 92, 28.4427, 9.11447, 14.1697, 8.11816, 100.22, -75.4967
6.98385, 92, 28.9398, 9.75172, 13.975, 7.88303, 100.71, -74.8391
6.99281, 93, 29.4276, 10.3964, 13.784, 7.66859, 101.206, -74.1732
6.99883, 93, 29.9028, 11.0476, 13.5988, 7.47563, 101.704, -73.4982
7.00786, 94, 30.3635, 11.705, 13.4202, 7.30542, 102.203, -72.8157
7.01606, 95, 30.8098, 12.367, 13.2481, 7.15879, 102.699, -72.1284
7.02293, 95, 31.2424, 13.0319, 13.0834, 7.0357, 103.193, -71.4349
7.03211, 96, 31.6613, 13.6985, 12.9264, 6.93644, 103.683, -70.7353
7.03983, 96, 32.0651, 14.3662, 12.7761, 6.86088, 104.169, -70.0318
7.04807, 97, 32.4521, 15.0343, 12.6319, 6.80976, 104.651, -69.3234
7.0559, 97, 32.8228, 15.7014, 12.4946, 6.77983, 105.127, -68.6105
7.06404, 98, 33.1782, 16.3652, 12.3654, 6.77087, 105.596, -67.8962
7.07186, 98, 33.519, 17.0234, 12.2453, 6.78381, 106.055, -67.182
7.0799, 98, 33.8454, 17.6731, 12.1351, 6.81697, 106.502, -66.4677
7.08771, 99, 34.1573, 18.3142, 12.0353, 6.86943, 106.934, -65.7579
7.09584, 99, 34.4562, 18.9454, 11.9457, 6.94168, 107.351, -65.0541
7.10391, 100, 34.7432, 19.5666, 11.8661, 7.03054, 107.752, -64.3551
7.11183, 100, 35.0174, 20.1768, 11.7957, 7.13624, 108.137, -63.6644
7.11983, 101, 35.2778, 20.7737, 11.7331, 7.25637, 108.507, -62.9838
7.1279, 101, 35.5252, 21.3566, 11.6781, 7.38894, 108.862, -62.3113
7.13584, 102, 35.76, 21.9247, 11.6304, 7.53163, 109.203, -61.6508
7.14394, 102, 35.9818, 22.4776, 11.5896, 7.68224, 109.529, -61.0038
7.1519, 102, 36.1916, 23.0158, 11.5555, 7.83894, 109.84, -60.3707
7.15941, 103, 36.3927, 23.5387, 11.5284, 8.00057, 110.135, -59.7518
7.16799, 103, 36.5877, 24.0468, 11.5095, 8.16774, 110.415, -59.1478
7.17596, 104, 36.7776, 24.5421, 11.4987, 8.34099, 110.678, -58.5582
7.18394, 104, 36.9628, 25.0251, 11.4947, 8.52203, 110.924, -57.9783
7.19201, 104, 37.1444, 25.4956, 11.4967, 8.71213, 111.152, -57.4074
7.20027, 104, 37.3194, 25.954, 11.5043, 8.91083, 111.362, -56.844
7.20754, 104, 37.4031, 26.1781, 11.5098, 9.01346, 111.461, -56.287
7.21596, 104, 37.6397, 26.8314, 11.5311, 9.3325, 111.736, -55.7367
7.22386, 104, 37.7894, 27.2517, 11.5487, 9.55067, 111.904, -55.1961
7.23195, 104, 37.937, 27.659, 11.568, 9.7705, 112.063, -54.6689
7.24031, 104, 38.0831, 28.053, 11.588, 9.9887, 112.214, -54.1593
7.24682, 104, 38.1552, 28.2448, 11.5979, 10.0966, 112.287, -53.9112
7.25611, 104, 38.3648, 28.8006, 11.627, 10.4135, 112.494, -53.1989
7.26282, 104, 38.4319, 28.9787, 11.6362, 10.516, 112.559, -52.9729
7.27223, 104, 38.6226, 29.4881, 11.6628, 10.8123, 112.744, -52.3308
7.28038, 104, 38.74, 29.8051, 11.6793, 10.9993, 112.858, -51.9343
7.28876, 104, 38.8495, 30.1036, 11.6945, 11.1771, 112.963, -51.5618
7.29637, 104, 38.9515, 30.3838, 11.7087, 11.3454, 113.062, -51.2148
7.30446, 104, 39.0459, 30.6441, 11.7217, 11.5034, 113.153, -50.8932
7.31244, 104, 39.1323, 30.8849, 11.7335, 11.6506, 113.236, -50.5966
7.32041, 104, 39.1723, 30.9981, 11.7442, 11.7865, 113.312, -50.3255
7.32881, 104, 39.2796, 31.3075, 11.7542, 11.911, 113.382, -50.0796
7.33585, 104, 39.3112, 31.4007, 11.7589, 11.9687, 113.413, -49.9661
7.34387, 104, 39.3686, 31.5727, 11.7673, 12.0753, 113.471, -49.7581
7.35279, 104, 39.419, 31.7944, 11.7781, 12.2125, 113.545, -49.4926
7.35982, 104, 39.4631, 31.8589, 11.7814, 12.2522, 113.566, -49.4165
7.36782, 104, 39.5013, 31.9747, 11.7875, 12.322, 113.603, -49.2823
7.37588, 104, 39.5332, 32.0737, 11.793, 12.3809, 113.634, -49.1716
7.38383, 104, 39.5593, 32.1565, 11.7978, 12.4273, 113.658, -49.0824
7.39182, 104, 39.5806, 32.2248, 11.8021, 12.4633, 113.677, -49.0129
7.39989, 104, 39.5977, 32.2804, 11.806, 12.4908, 113.691, -48.9617
7.40785, 104, 39.6112, 32.3247, 11.8096, 12.5108, 113.7, -48.9252
7.41582, 104, 39.6218, 32.3586, 11.8129, 12.5245, 113.706, -48.9007
7.42387, 104, 39.6297, 32.384, 11.8158, 12.5336, 113.71, -48.8852
7.43182, 104, 39.635, 32.4028, 11.8183, 12.5392, 113.712, -48.8763
7.43982, 104, 39.6383, 32.4161, 11.8202, 12.5421, 113.713, -48.8718
7.44789, 104, 39.6402, 32.4247, 11.8216, 12.5436, 113.714, -48.8698
7.45581, 105, 39.641, 32.4301, 11.8227, 12.5443, 113.714, -48.8689
7.46485, 105, 39.641, 32.4335, 11.8236, 12.5447, 113.714, -48.8686
7.47189, 105, 39.6403, 32.4359, 11.8244, 12.5449, 113.714, -48.8685
7.47984, 105, 39.6394, 32.4376, 11.8252, 12.545, 113.714, -48.8686
7.48782, 105, 39.6381, 32.439, 11.8258, 12.5451, 113.714, -48.8688
7.49588, 105, 39.6368, 32.4402, 11.8262, 12.5451, 113.714, -48.8691
7.50382, 105, 39.6358, 32.4413, 11.8267, 12.5451, 113.714, -48.8692
7.51184, 105, 39.6352, 32.4425, 11.8273, 12.5451, 113.714, -48.8695
7.51988, 105, 39.6348, 32.4436, 11.8279, 12.5451, 113.714, -48.8698
7.52782, 105, 39.6346, 32.4446, 11.8285, 12.5451, 113.714, -48.8701
7.53582, 105, 39.6343, 32.4455, 11.8289, 12.5451, 113.714, -48.8703
7.54388, 105, 39.634, 32.4461, 11.8292, 12.5451, 113.714, -48.8705
7.55183, 105, 39.6337, 32.4466, 11.8295, 12.545, 113.714, -48.8707
7.55981, 105, 39.6335, 32.4469, 11.8298, 12.545, 113.714, -48.8708
7.5679, 105, 39.6332, 32.447, 11.83, 12.545, 113.714, -48.871
