hehonglu123/Motion-Primitive-Planning/ILC/recorded_data/realrobot/from_NX/iteration_41/run_4.csv
timestamp, cmd_num, J1, J2, J3, J4, J5, J6
0.00036, -1, 39.6291, 32.4471, 11.8316, 12.5437, 113.713, -48.8735
0.00309, -1, 39.6292, 32.4471, 11.8316, 12.5437, 113.713, -48.8736
0.008062, -1, 39.6292, 32.4471, 11.8316, 12.5437, 113.713, -48.8735
0.028622, -1, 39.6292, 32.4471, 11.8316, 12.5437, 113.713, -48.8736
0.031287, -1, 39.6292, 32.4471, 11.8316, 12.5437, 113.713, -48.8736
0.032547, -1, 39.6292, 32.4471, 11.8316, 12.5437, 113.713, -48.8736
0.038996, -1, 39.6292, 32.4471, 11.8316, 12.5437, 113.713, -48.8736
0.047855, -1, 39.6291, 32.447, 11.8316, 12.5437, 113.713, -48.8736
0.055912, -1, 39.6286, 32.447, 11.8316, 12.5437, 113.713, -48.8736
0.192679, -1, 38.4233, 31.8341, 12.0655, 12.5534, 113.089, -50.4682
0.193961, -1, 38.4233, 31.8341, 12.0655, 12.5534, 113.089, -50.4682
0.19581, -1, 38.338, 31.7894, 12.0848, 12.5546, 113.041, -50.5915
0.197997, -1, 38.338, 31.7894, 12.0848, 12.5546, 113.041, -50.5915
0.20019, -1, 38.251, 31.7439, 12.1043, 12.5557, 112.992, -50.7164
0.201421, -1, 38.251, 31.7439, 12.1043, 12.5557, 112.992, -50.7164
0.202733, -1, 38.251, 31.7439, 12.1043, 12.5557, 112.992, -50.7164
0.205976, -1, 38.1624, 31.6976, 12.1238, 12.5569, 112.942, -50.8426
0.207857, -1, 38.0725, 31.6507, 12.1433, 12.5582, 112.891, -50.9697
0.209301, -1, 38.0725, 31.6507, 12.1433, 12.5582, 112.891, -50.9697
0.210546, -1, 38.0725, 31.6507, 12.1433, 12.5582, 112.891, -50.9697
0.213271, -1, 37.9813, 31.6032, 12.1628, 12.5594, 112.841, -51.0977
0.214608, -1, 37.9813, 31.6032, 12.1628, 12.5594, 112.841, -51.0977
0.216611, -1, 37.8889, 31.5553, 12.1822, 12.5606, 112.79, -51.2263
0.217897, -1, 37.8889, 31.5553, 12.1822, 12.5606, 112.79, -51.2263
0.220394, -1, 37.7955, 31.507, 12.2016, 12.5618, 112.739, -51.3554
0.222968, -1, 37.7955, 31.507, 12.2016, 12.5618, 112.739, -51.3554
0.22505, -1, 37.7013, 31.4584, 12.2211, 12.5631, 112.688, -51.4848
0.226256, -1, 37.7013, 31.4584, 12.2211, 12.5631, 112.688, -51.4848
0.22829, -1, 37.6064, 31.4096, 12.2404, 12.5644, 112.637, -51.6145
0.229553, -1, 37.6064, 31.4096, 12.2404, 12.5644, 112.637, -51.6145
0.231954, -1, 37.511, 31.3607, 12.2598, 12.5656, 112.585, -51.7444
0.240155, -1, 37.3194, 31.2627, 12.2986, 12.568, 112.483, -52.0038
0.246853, -1, 37.2234, 31.2137, 12.318, 12.5692, 112.431, -52.1337
0.256159, -1, 36.9351, 31.067, 12.3762, 12.5732, 112.277, -52.5236
0.262851, -1, 36.839, 31.0181, 12.3955, 12.5744, 112.225, -52.6536
0.272272, -1, 36.5513, 30.8715, 12.4538, 12.5783, 112.071, -53.0442
0.280307, -1, 36.3597, 30.7738, 12.4927, 12.5809, 111.968, -53.3046
0.288525, -1, 36.168, 30.6759, 12.5315, 12.5834, 111.865, -53.565
0.296626, -1, 35.9764, 30.578, 12.5704, 12.586, 111.762, -53.8255
0.304428, -1, 35.7849, 30.48, 12.6094, 12.5885, 111.659, -54.0861
0.312493, -1, 35.5931, 30.3819, 12.6483, 12.5911, 111.556, -54.3464
0.320431, -1, 35.4971, 30.3329, 12.6677, 12.5924, 111.453, -54.6067
0.328443, -1, 35.3048, 30.2346, 12.7065, 12.5951, 111.402, -54.737
0.336455, -1, 35.1123, 30.1363, 12.7453, 12.5976, 111.299, -54.9978
0.343837, -1, 34.92, 30.0379, 12.7843, 12.6002, 111.196, -55.2585
0.351828, -1, 34.7277, 29.9394, 12.8231, 12.6027, 111.092, -55.519
0.35988, -1, 34.5354, 29.8409, 12.862, 12.6053, 110.989, -55.7799
0.367836, -1, 34.3432, 29.7424, 12.9009, 12.6079, 110.887, -56.0409
0.375839, -1, 34.1512, 29.6441, 12.9398, 12.6105, 110.783, -56.3019
0.383879, -1, 33.9593, 29.5459, 12.9788, 12.6131, 110.68, -56.5626
0.391834, -1, 33.7676, 29.4476, 13.0178, 12.6158, 110.577, -56.8233
0.399833, -1, 33.5758, 29.3492, 13.0566, 12.6184, 110.474, -57.0843
0.407882, -1, 33.3837, 29.2509, 13.0956, 12.6209, 110.371, -57.3455
0.415845, -1, 33.1911, 29.1523, 13.1345, 12.6235, 110.268, -57.6064
0.423861, -1, 32.9984, 29.0537, 13.1733, 12.6262, 110.165, -57.8674
0.431896, -1, 32.8055, 28.9552, 13.2122, 12.6289, 110.062, -58.1285
0.439831, -1, 32.6122, 28.8566, 13.2512, 12.6316, 109.959, -58.3898
0.447835, -1, 32.4187, 28.7578, 13.29, 12.6342, 109.856, -58.651
0.457599, -1, 32.2248, 28.6591, 13.3289, 12.6368, 109.753, -59.0424
0.46385, -1, 32.0306, 28.5604, 13.3678, 12.6396, 109.649, -59.173
0.472822, -1, 31.8367, 28.4615, 13.4067, 12.6422, 109.546, -59.4343
0.479889, -1, 31.6431, 28.3628, 13.4458, 12.645, 109.443, -59.6958
0.487834, -1, 31.4496, 28.2641, 13.4847, 12.6479, 109.34, -59.9569
0.496012, -1, 31.2565, 28.1656, 13.5236, 12.6506, 109.237, -60.2182
0.503888, -1, 31.0639, 28.0671, 13.5627, 12.6534, 109.134, -60.4798
0.64476, -1, 27.6843, 26.3388, 14.245, 12.6995, 107.327, -65.0582
0.646044, -1, 27.6843, 26.3388, 14.245, 12.6995, 107.327, -65.0582
0.648014, -1, 27.588, 26.2894, 14.2644, 12.7007, 107.275, -65.1891
0.649307, -1, 27.588, 26.2894, 14.2644, 12.7007, 107.275, -65.1891
0.651972, -1, 27.588, 26.2894, 14.2839, 12.7019, 107.224, -65.3198
0.653367, -1, 27.4919, 26.2399, 14.2839, 12.7019, 107.224, -65.3198
0.655381, -1, 27.3958, 26.1904, 14.3034, 12.7031, 107.172, -65.4505
0.659993, -1, 27.2998, 26.1409, 14.3229, 12.7043, 107.12, -65.5813
0.661397, -1, 27.2998, 26.1409, 14.3229, 12.7043, 107.12, -65.5813
0.663221, -1, 27.2998, 26.0914, 14.3424, 12.7054, 107.068, -65.7122
0.664705, -1, 27.2037, 26.0914, 14.3424, 12.7054, 107.068, -65.7122
0.665934, -1, 27.2037, 26.0914, 14.3424, 12.7054, 107.068, -65.7122
0.66797, -1, 27.1075, 26.042, 14.3619, 12.7066, 107.017, -65.843
0.669187, -1, 27.1075, 26.042, 14.3619, 12.7066, 107.017, -65.843
0.67046, -1, 27.1075, 26.042, 14.3619, 12.7066, 107.017, -65.843
0.673692, -1, 27.0112, 25.9925, 14.3813, 12.7077, 106.965, -65.9738
0.676386, -1, 26.9149, 25.9432, 14.4007, 12.7089, 106.913, -66.1048
0.677654, -1, 26.9149, 25.9432, 14.4007, 12.7089, 106.913, -66.1048
0.679809, -1, 26.8186, 25.8937, 14.4202, 12.7101, 106.862, -66.2358
0.68207, -1, 26.8186, 25.8937, 14.4202, 12.7101, 106.862, -66.2358
0.684189, -1, 26.7221, 25.8443, 14.4398, 12.7112, 106.81, -66.3666
0.685523, -1, 26.7221, 25.8443, 14.4398, 12.7112, 106.81, -66.3666
0.691959, -1, 26.5289, 25.7454, 14.4787, 12.7135, 106.707, -66.6282
0.695875, -1, 26.432, 25.696, 14.4981, 12.7146, 106.655, -66.759
0.703828, -1, 26.2382, 25.5971, 14.537, 12.7169, 106.552, -67.0208
0.711914, -1, 26.0442, 25.4982, 14.576, 12.7192, 106.449, -67.2828
0.719859, -1, 25.85, 25.3994, 14.6149, 12.7214, 106.346, -67.5445
0.726917, -1, 25.7529, 25.35, 14.6344, 12.7226, 106.294, -67.6753
0.736003, -1, 25.4619, 25.2018, 14.693, 12.726, 106.139, -68.0677
0.742834, -1, 25.365, 25.1525, 14.7124, 12.7272, 106.088, -68.1986
0.752231, -1, 25.0748, 25.0044, 14.771, 12.7307, 105.933, -68.5914
0.758833, -1, 24.9782, 24.955, 14.7905, 12.7318, 105.881, -68.722
0.768165, -1, 24.6886, 24.8067, 14.8489, 12.7354, 105.726, -69.1145
0.774828, -1, 24.5923, 24.7573, 14.8684, 12.7366, 105.675, -69.2454
0.784309, -1, 24.3037, 24.609, 14.9269, 12.7402, 105.52, -69.638
0.792385, -1, 24.1111, 24.5101, 14.9659, 12.7425, 105.416, -69.8994
0.801422, -1, 23.9184, 24.4113, 15.0049, 12.7448, 105.313, -70.1609
0.808386, -1, 23.7255, 24.3125, 15.0438, 12.7473, 105.21, -70.4225
0.816407, -1, 23.629, 24.2137, 15.0827, 12.7496, 105.106, -70.6844
0.825346, -1, 23.4357, 24.1147, 15.1217, 12.752, 105.003, -70.9459
0.830822, -1, 23.2421, 24.0653, 15.1411, 12.7533, 104.951, -71.0768
0.840912, -1, 22.9513, 23.9169, 15.1995, 12.7569, 104.796, -71.4697
0.846828, -1, 22.8543, 23.8675, 15.2189, 12.7581, 104.744, -71.6006
0.856942, -1, 22.5636, 23.7194, 15.2774, 12.7618, 104.589, -71.9933
0.863812, -1, 22.4668, 23.6701, 15.2969, 12.763, 104.538, -72.124
0.871868, -1, 22.2734, 23.5714, 15.3359, 12.7656, 104.434, -72.3853
0.87981, -1, 22.0802, 23.4727, 15.3748, 12.7682, 104.331, -72.6468
0.887882, -1, 21.8871, 23.374, 15.4138, 12.7708, 104.228, -72.9084
0.89581, -1, 21.6946, 23.2753, 15.4528, 12.7734, 104.124, -73.1698
0.902905, -1, 21.5023, 23.1765, 15.4916, 12.776, 104.021, -73.4313
0.911859, -1, 21.31, 23.0777, 15.5306, 12.7787, 103.918, -73.6928
0.919809, -1, 21.1176, 22.9791, 15.5696, 12.7813, 103.815, -73.9545
0.927839, -1, 20.9251, 22.8804, 15.6085, 12.784, 103.712, -74.2158
0.935878, -1, 20.7327, 22.7819, 15.6474, 12.7868, 103.609, -74.4768
0.943825, -1, 20.5401, 22.6832, 15.6863, 12.7895, 103.506, -74.7382
0.951817, -1, 20.347, 22.5846, 15.7251, 12.7923, 103.403, -74.9996
0.961395, -1, 20.1534, 22.4858, 15.7641, 12.7949, 103.3, -75.2609
0.967816, -1, 19.9598, 22.3871, 15.803, 12.7977, 103.197, -75.5219
0.976818, -1, 19.7661, 22.2884, 15.8417, 12.8004, 103.094, -75.7831
0.982819, -1, 19.5726, 22.1898, 15.8806, 12.8031, 102.991, -76.0443
0.991808, -1, 19.3793, 22.0912, 15.9195, 12.8059, 102.888, -76.3056
0.999829, -1, 19.1862, 21.9925, 15.9583, 12.8086, 102.785, -76.5665
1.00783, -1, 18.9934, 21.8939, 15.9973, 12.8113, 102.681, -76.8273
1.01581, -1, 18.8009, 21.7952, 16.0361, 12.814, 102.578, -77.0882
1.02388, -1, 18.6087, 21.6964, 16.0748, 12.8168, 102.476, -77.3493
1.03181, -1, 18.4169, 21.5979, 16.1137, 12.8195, 102.373, -77.6101
1.0398, -1, 18.225, 21.4993, 16.1526, 12.8221, 102.27, -77.8708
1.04788, -1, 18.033, 21.4008, 16.1914, 12.8247, 102.167, -78.1316
1.05581, -1, 17.8412, 21.3025, 16.2303, 12.8273, 102.064, -78.3924
1.06389, -1, 17.6492, 21.2041, 16.2692, 12.8298, 101.961, -78.653
1.07188, -1, 17.4568, 21.1058, 16.308, 12.8323, 101.858, -78.9133
1.07982, -1, 17.264, 21.0075, 16.3468, 12.8348, 101.755, -79.1738
1.08781, -1, 17.0709, 20.9092, 16.3856, 12.8372, 101.652, -79.4344
1.0959, -1, 16.8779, 20.811, 16.4244, 12.8396, 101.549, -79.6951
1.10382, -1, 16.6849, 20.7128, 16.4633, 12.842, 101.446, -79.9554
1.1118, -1, 16.4919, 20.6146, 16.5019, 12.8443, 101.344, -80.2159
1.11988, -1, 16.2991, 20.5163, 16.5406, 12.8466, 101.241, -80.4765
1.12783, -1, 16.1068, 20.4179, 16.5794, 12.849, 101.139, -80.7371
1.13584, -1, 15.9149, 20.3195, 16.6181, 12.8513, 101.036, -80.9973
1.14388, -1, 15.7231, 20.221, 16.6568, 12.8536, 100.933, -81.2573
1.15184, -1, 15.5317, 20.1226, 16.6954, 12.856, 100.831, -81.5174
1.15996, -1, 15.3405, 20.0243, 16.734, 12.8583, 100.728, -81.7775
1.16792, -1, 15.1494, 19.926, 16.7728, 12.8606, 100.626, -82.0374
1.17593, -1, 14.9582, 19.8277, 16.8115, 12.8628, 100.523, -82.2972
1.18399, -1, 14.7668, 19.7296, 16.8502, 12.8651, 100.421, -82.5571
1.19191, -1, 14.5754, 19.6315, 16.8889, 12.8674, 100.318, -82.8174
1.19991, -1, 14.3835, 19.5333, 16.9276, 12.8697, 100.215, -83.0771
1.20799, -1, 14.1912, 19.4353, 16.9663, 12.872, 100.113, -83.3364
1.21589, -1, 13.9989, 19.3373, 17.005, 12.8742, 100.01, -83.596
1.22385, -1, 13.8066, 19.2395, 17.0436, 12.8766, 99.9077, -83.8558
1.23191, -1, 13.6141, 19.1417, 17.0822, 12.8788, 99.8052, -84.1153
1.23994, -1, 13.4218, 19.0438, 17.121, 12.8812, 99.7026, -84.3745
1.24686, -1, 13.3258, 18.9948, 17.1402, 12.8823, 99.6514, -84.5041
1.25613, -1, 13.0381, 18.848, 17.198, 12.8859, 99.498, -84.8931
1.26282, -1, 12.9425, 18.799, 17.2173, 12.887, 99.4467, -85.0229
1.27229, -1, 12.6559, 18.652, 17.2752, 12.8905, 99.2933, -85.4116
1.28025, -1, 12.4652, 18.5542, 17.3137, 12.893, 99.1909, -85.6705
1.28832, -1, 12.2751, 18.4565, 17.3522, 12.8954, 99.0886, -85.9294
1.29645, -1, 12.0849, 18.3587, 17.3907, 12.8978, 98.9867, -86.1885
1.3052, -1, 11.8946, 18.2611, 17.4294, 12.9002, 98.8845, -86.4472
1.31119, -1, 11.7994, 18.2123, 17.4487, 12.9014, 98.8335, -86.5765
1.32043, -1, 11.5133, 18.0658, 17.5065, 12.9051, 98.6808, -86.9645
1.32922, -1, 11.4178, 18.017, 17.5257, 12.9063, 98.6298, -87.2231
1.33562, -1, 11.2266, 17.9195, 17.5643, 12.9087, 98.5278, -87.3524
1.34281, -1, 11.0352, 17.822, 17.6029, 12.9112, 98.426, -87.6107
1.35363, -1, 10.7479, 17.6759, 17.6606, 12.9149, 98.273, -87.998
1.35981, -1, 10.652, 17.6271, 17.6798, 12.9162, 98.222, -88.1272
1.36785, -1, 10.4607, 17.5296, 17.7182, 12.9188, 98.1204, -88.3856
1.37579, -1, 10.2696, 17.4321, 17.7566, 12.9212, 98.0183, -88.6436
1.3836, -1, 10.0786, 17.3345, 17.795, 12.9238, 97.9164, -88.9016
1.39081, -1, 9.88817, 17.2369, 17.8334, 12.9265, 97.8148, -89.1597
1.3998, -1, 9.69803, 17.1394, 17.8717, 12.9291, 97.7127, -89.4178
1.40761, -1, 9.50837, 17.042, 17.91, 12.9319, 97.6108, -89.6759
1.41481, -1, 9.31906, 16.9446, 17.9483, 12.9346, 97.509, -89.9334
1.4238, -1, 9.12977, 16.8472, 17.9867, 12.9373, 97.407, -90.1909
1.43163, -1, 8.94041, 16.75, 18.025, 12.9399, 97.3052, -90.4485
1.43979, -1, 8.75088, 16.6529, 18.0634, 12.9425, 97.2036, -90.706
1.44779, -1, 8.5613, 16.5557, 18.1019, 12.9451, 97.1019, -90.9632
1.45559, -1, 8.37152, 16.4586, 18.1402, 12.9478, 97.0005, -91.2204
1.46382, -1, 8.18125, 16.3616, 18.1785, 12.9505, 96.899, -91.4775
1.4728, -1, 7.99081, 16.2648, 18.2168, 12.9532, 96.7973, -91.735
1.47961, -1, 7.80029, 16.1679, 18.2551, 12.9559, 96.6959, -91.9919
1.48779, -1, 7.60969, 16.071, 18.2933, 12.9585, 96.5944, -92.2485
1.49579, -1, 7.4193, 15.974, 18.3317, 12.961, 96.4929, -92.5053
1.50388, -1, 7.22914, 15.8771, 18.3698, 12.9636, 96.3918, -92.7622
1.51181, -1, 7.03929, 15.78, 18.408, 12.9662, 96.2903, -93.0189
1.51982, -1, 6.84987, 15.6831, 18.4463, 12.9688, 96.189, -93.2752
1.52781, -1, 6.66096, 15.5862, 18.4844, 12.9714, 96.0884, -93.5317
1.53579, -1, 6.47243, 15.4894, 18.5224, 12.9739, 95.9872, -93.7881
1.54387, -1, 6.28426, 15.3926, 18.5606, 12.9764, 95.8861, -94.0446
1.5518, -1, 6.09613, 15.2959, 18.5988, 12.9789, 95.7855, -94.3006
1.55979, -1, 5.90783, 15.1992, 18.6369, 12.9813, 95.6843, -94.5564
1.56792, -1, 5.71942, 15.1025, 18.6751, 12.9836, 95.5834, -94.8123
1.5758, -1, 5.53094, 15.0058, 18.7132, 12.986, 95.4828, -95.0683
1.5838, -1, 5.34216, 14.9093, 18.7513, 12.9883, 95.3819, -95.3241
1.59186, -1, 5.15303, 14.8129, 18.7895, 12.9906, 95.2812, -95.5794
1.59983, -1, 4.96362, 14.7166, 18.8275, 12.9928, 95.1806, -95.835
1.60779, -1, 4.77427, 14.6202, 18.8656, 12.9951, 95.0798, -96.0906
1.61586, -1, 4.58482, 14.5238, 18.9037, 12.9972, 94.979, -96.3458
1.6243, -1, 4.39576, 14.4275, 18.9417, 12.9995, 94.8784, -96.6007
1.63181, -1, 4.20679, 14.3311, 18.9797, 13.0017, 94.7775, -96.8555
1.63988, -1, 4.01802, 14.2347, 19.0177, 13.004, 94.6767, -97.1106
1.64865, -1, 3.82997, 14.1385, 19.0556, 13.0063, 94.5759, -97.3657
1.65589, -1, 3.6424, 14.0424, 19.0936, 13.0085, 94.4751, -97.6204
1.66415, -1, 3.45518, 13.9462, 19.1315, 13.0109, 94.3745, -97.8751
1.67142, -1, 3.26821, 13.8502, 19.1693, 13.0131, 94.2738, -98.1298
1.67939, -1, 3.0812, 13.7542, 19.2072, 13.0154, 94.1731, -98.3846
1.68822, -1, 2.89422, 13.6581, 19.2451, 13.0176, 94.0725, -98.639
1.69543, -1, 2.70725, 13.5621, 19.283, 13.0199, 93.9719, -98.893
1.70338, -1, 2.61364, 13.5141, 19.302, 13.0221, 93.8714, -99.1471
1.7126, -1, 2.33243, 13.3702, 19.3587, 13.0244, 93.7711, -99.4014
1.72064, -1, 2.14461, 13.2745, 19.3965, 13.0266, 93.6707, -99.6554
1.72789, -1, 1.95653, 13.1787, 19.4344, 13.0289, 93.5705, -99.909
1.73671, -1, 1.76841, 13.0828, 19.4721, 13.0312, 93.4707, -100.163
1.74486, -1, 1.58018, 12.987, 19.5098, 13.0333, 93.3705, -100.416
1.75203, -1, 1.39209, 12.8912, 19.5477, 13.0356, 93.2705, -100.67
1.75881, -1, 1.29816, 12.8433, 19.5666, 13.0368, 93.2206, -100.797
1.76684, -1, 1.1105, 12.7475, 19.6043, 13.0392, 93.1206, -101.05
1.77632, -1, 0.829951, 12.604, 19.6609, 13.0428, 92.9705, -101.429
1.78516, -1, 0.643698, 12.5084, 19.6985, 13.0451, 92.8709, -101.682
1.79084, -1, 0.550684, 12.4607, 19.7172, 13.0463, 92.8209, -101.809
1.80042, -1, 0.271967, 12.3176, 19.7738, 13.05, 92.6713, -102.188
1.80918, -1, 0.0865231, 12.2222, 19.8113, 13.0525, 92.572, -102.44
1.81487, -1, -0.00613239, 12.1745, 19.8301, 13.0537, 92.5221, -102.567
1.8244, -1, -0.191626, 12.0316, 19.8866, 13.0573, 92.3727, -102.946
1.83317, -1, -0.377379, 11.984, 19.9054, 13.0586, 92.3231, -103.072
1.83887, -1, -0.563473, 11.8889, 19.9429, 13.0611, 92.2236, -103.324
1.84981, -1, -0.843031, 11.7464, 19.9993, 13.0647, 92.0744, -103.702
1.85578, -1, -0.936312, 11.6989, 20.018, 13.066, 92.0248, -103.828
1.86287, -1, -1.12296, 11.6038, 20.0554, 13.0685, 91.9255, -104.08
1.87183, -1, -1.30991, 11.5087, 20.093, 13.071, 91.8261, -104.331
1.87979, -1, -1.49677, 11.4136, 20.1305, 13.0736, 91.7271, -104.583
1.88679, -1, -1.68334, 11.3184, 20.1679, 13.0761, 91.6277, -104.834
1.89578, -1, -1.86951, 11.2234, 20.2053, 13.0787, 91.5286, -105.086
1.90384, -1, -2.05539, 11.1284, 20.2428, 13.0814, 91.4295, -105.337
1.91183, -1, -2.24062, 11.0335, 20.2801, 13.084, 91.3302, -105.588
1.91978, -1, -2.42539, 10.9386, 20.3175, 13.0867, 91.231, -105.839
1.92778, -1, -2.60986, 10.8438, 20.3548, 13.0893, 91.1321, -106.09
1.93479, -1, -2.79384, 10.749, 20.3921, 13.092, 91.0329, -106.341
1.94378, -1, -2.97776, 10.6543, 20.4294, 13.0946, 90.9338, -106.592
1.95177, -1, -3.16179, 10.5596, 20.4668, 13.0972, 90.8351, -106.842
1.96136, -1, -3.34611, 10.465, 20.504, 13.0998, 90.736, -107.093
1.9668, -1, -3.53072, 10.3705, 20.5413, 13.1023, 90.6371, -107.343
1.9758, -1, -3.71547, 10.2762, 20.5786, 13.1049, 90.5385, -107.594
1.98384, -1, -3.90049, 10.1818, 20.6157, 13.1074, 90.4396, -107.843
1.99177, -1, -4.08576, 10.0875, 20.653, 13.1098, 90.3409, -108.094
1.99978, -1, -4.27125, 9.99326, 20.6902, 13.1123, 90.2425, -108.343
2.00782, -1, -4.45682, 9.89894, 20.7273, 13.1146, 90.1437, -108.593
2.01581, -1, -4.64213, 9.80463, 20.7647, 13.117, 90.0452, -108.843
2.02384, -1, -4.82705, 9.71045, 20.8018, 13.1194, 89.9469, -109.092
2.03178, -1, -5.01155, 9.61633, 20.8388, 13.1218, 89.8483, -109.342
2.03978, -1, -5.19543, 9.52227, 20.876, 13.1242, 89.7499, -109.591
2.04784, -1, -5.37882, 9.42821, 20.9131, 13.1266, 89.6517, -109.84
2.05578, -1, -5.56179, 9.33427, 20.9502, 13.1288, 89.5532, -110.089
2.06378, -1, -5.74437, 9.24032, 20.9874, 13.1311, 89.455, -110.337
2.07185, -1, -5.92674, 9.14637, 21.0244, 13.1335, 89.357, -110.586
2.07978, -1, -6.10913, 9.05252, 21.0614, 13.1357, 89.2587, -110.835
2.08777, -1, -6.2918, 8.95871, 21.0985, 13.1379, 89.1606, -111.083
2.09585, -1, -6.47475, 8.86506, 21.1355, 13.1401, 89.0629, -111.332
2.10381, -1, -6.65789, 8.77143, 21.1723, 13.1423, 88.9648, -111.58
2.11179, -1, -6.84144, 8.67781, 21.2093, 13.1444, 88.8668, -111.828
2.11984, -1, -7.02528, 8.58416, 21.2462, 13.1466, 88.7691, -112.076
2.12778, -1, -7.2094, 8.49066, 21.2831, 13.1487, 88.6712, -112.324
2.13581, -1, -7.39357, 8.39703, 21.32, 13.1508, 88.5733, -112.571
2.14385, -1, -7.5774, 8.30338, 21.3569, 13.1529, 88.4759, -112.819
2.15179, -1, -7.76089, 8.20997, 21.3936, 13.1551, 88.3782, -113.066
2.15989, -1, -7.94399, 8.11657, 21.4305, 13.1574, 88.2808, -113.314
2.16792, -1, -8.12669, 8.02317, 21.4674, 13.1596, 88.1835, -113.561
2.17589, -1, -8.30855, 7.92991, 21.5041, 13.1618, 88.086, -113.808
2.18397, -1, -8.4899, 7.83663, 21.541, 13.1641, 87.9886, -114.055
2.19188, -1, -8.67097, 7.74341, 21.5778, 13.1663, 87.8914, -114.302
2.19989, -1, -8.85171, 7.6502, 21.6145, 13.1686, 87.7939, -114.548
2.20816, -1, -9.03239, 7.55711, 21.6513, 13.1709, 87.6964, -114.794
2.21478, -1, -9.12289, 7.51057, 21.6697, 13.172, 87.648, -114.918
2.22381, -1, -9.39468, 7.37128, 21.7247, 13.1754, 87.5021, -115.287
2.23211, -1, -9.57632, 7.27847, 21.7614, 13.1775, 87.405, -115.533
2.2388, -1, -9.66725, 7.23203, 21.7798, 13.1787, 87.3566, -115.656
2.24802, -1, -9.9406, 7.09296, 21.8346, 13.182, 87.2108, -116.025
2.25478, -1, -10.0318, 7.04661, 21.8529, 13.1831, 87.1621, -116.148
2.26406, -1, -10.3057, 6.90748, 21.9078, 13.1864, 87.0165, -116.517
2.27078, -1, -10.397, 6.8611, 21.9261, 13.1875, 86.9678, -116.64
2.28044, -1, -10.6705, 6.72202, 21.981, 13.1909, 86.8222, -117.008
2.28825, -1, -10.8524, 6.62943, 22.0174, 13.1933, 86.7254, -117.253
2.2964, -1, -11.0337, 6.53683, 22.0538, 13.1958, 86.6285, -117.498
2.30436, -1, -11.2142, 6.4443, 22.0904, 13.1981, 86.5319, -117.743
2.31234, -1, -11.3942, 6.35181, 22.1269, 13.2005, 86.4353, -117.988
2.32043, -1, -11.5738, 6.25936, 22.1633, 13.2029, 86.3385, -118.233
2.32867, -1, -11.6635, 6.21313, 22.1815, 13.2054, 86.2418, -118.478
2.33626, -1, -11.8428, 6.12074, 22.218, 13.2067, 86.1936, -118.6
2.3446, -1, -12.022, 6.02848, 22.2544, 13.2091, 86.0969, -118.966
2.35178, -1, -12.2013, 5.93631, 22.2908, 13.2116, 86.0004, -119.088
2.35977, -1, -12.381, 5.84427, 22.3273, 13.2141, 85.9042, -119.332
2.36782, -1, -12.5611, 5.75225, 22.3636, 13.2165, 85.8077, -119.577
2.37582, -1, -12.7415, 5.6603, 22.3998, 13.219, 85.7114, -119.82
2.38378, -1, -12.9223, 5.5684, 22.4362, 13.2214, 85.6156, -120.064
2.39177, -1, -13.1034, 5.47643, 22.4725, 13.2239, 85.5196, -120.308
2.39979, -1, -13.2846, 5.38443, 22.5087, 13.2263, 85.4235, -120.552
2.4068, -1, -13.4657, 5.2925, 22.545, 13.2288, 85.3279, -120.795
2.41576, -1, -13.6463, 5.20058, 22.5812, 13.2313, 85.2319, -121.038
2.42381, -1, -13.8265, 5.10873, 22.6173, 13.2339, 85.1361, -121.281
2.43183, -1, -14.0062, 5.01685, 22.6535, 13.2365, 85.0405, -121.524
2.43984, -1, -14.1849, 4.92514, 22.6896, 13.239, 84.9449, -121.767
2.44778, -1, -14.3631, 4.83343, 22.7257, 13.2416, 84.8493, -122.01
2.45478, -1, -14.5411, 4.74176, 22.7619, 13.2441, 84.7538, -122.252
2.46377, -1, -14.7188, 4.65013, 22.7981, 13.2467, 84.6581, -122.495
2.47277, -1, -14.8965, 4.55862, 22.8342, 13.2492, 84.5624, -122.737
2.47986, -1, -15.0741, 4.46716, 22.8703, 13.2516, 84.4668, -122.98
2.48882, -1, -15.2523, 4.37587, 22.9065, 13.2541, 84.371, -123.222
2.49577, -1, -15.4307, 4.28453, 22.9425, 13.2565, 84.2754, -123.463
2.50383, -1, -15.6096, 4.19327, 22.9785, 13.2589, 84.1799, -123.705
2.51178, -1, -15.7887, 4.10203, 23.0146, 13.2611, 84.0844, -123.947
2.51981, -1, -15.9679, 4.01083, 23.0505, 13.2634, 83.989, -124.188
2.52776, -1, -16.1475, 3.91957, 23.0865, 13.2656, 83.8935, -124.43
2.53576, -1, -16.3272, 3.82833, 23.1225, 13.2678, 83.7981, -124.671
2.54384, -1, -16.5066, 3.73714, 23.1583, 13.2699, 83.7026, -124.913
2.55176, -1, -16.6857, 3.64599, 23.1942, 13.2721, 83.6072, -125.154
2.55978, -1, -16.864, 3.55488, 23.23, 13.2744, 83.5118, -125.395
2.56828, -1, -17.0416, 3.46385, 23.2658, 13.2767, 83.4165, -125.636
2.57491, -1, -17.2185, 3.37289, 23.3017, 13.2789, 83.3212, -125.876
2.58376, -1, -17.3951, 3.28196, 23.3375, 13.2811, 83.2262, -126.117
2.59256, -1, -17.5714, 3.1911, 23.3733, 13.2832, 83.131, -126.358
2.59978, -1, -17.7475, 3.10046, 23.4091, 13.2854, 83.0362, -126.598
2.60779, -1, -17.9234, 3.00984, 23.4451, 13.2875, 82.9416, -126.838
2.61659, -1, -18.0997, 2.91934, 23.4808, 13.2896, 82.8466, -127.078
2.62376, -1, -18.2762, 2.82898, 23.5165, 13.2917, 82.7519, -127.318
2.63183, -1, -18.4531, 2.73857, 23.5522, 13.2938, 82.6573, -127.558
2.64061, -1, -18.6306, 2.64817, 23.5878, 13.2958, 82.5625, -127.798
2.64779, -1, -18.8083, 2.55786, 23.6235, 13.2979, 82.468, -128.037
2.65585, -1, -18.9863, 2.46742, 23.6593, 13.2999, 82.3737, -128.277
2.66467, -1, -19.1646, 2.37693, 23.6948, 13.3019, 82.2792, -128.516
2.67185, -1, -19.3428, 2.28658, 23.7304, 13.3039, 82.1849, -128.755
2.67994, -1, -19.5205, 2.19618, 23.766, 13.306, 82.091, -128.994
2.68868, -1, -19.6975, 2.10576, 23.8014, 13.3082, 81.9967, -129.233
2.69587, -1, -19.8741, 2.01549, 23.8368, 13.3104, 81.9025, -129.473
2.70395, -1, -20.0498, 1.92526, 23.8724, 13.3126, 81.8086, -129.712
2.71271, -1, -20.225, 1.83505, 23.9079, 13.3148, 81.7143, -129.95
2.71979, -1, -20.4, 1.74494, 23.9433, 13.3169, 81.6203, -130.188
2.72786, -1, -20.5746, 1.65488, 23.9789, 13.3191, 81.5265, -130.427
2.73668, -1, -20.7491, 1.5649, 24.0144, 13.3213, 81.4325, -130.665
2.74388, -1, -20.9237, 1.47504, 24.0497, 13.3235, 81.3387, -130.903
2.75198, -1, -21.0986, 1.38533, 24.0852, 13.3257, 81.2451, -131.141
2.76003, -1, -21.2739, 1.29554, 24.1207, 13.3279, 81.1512, -131.379
2.76678, -1, -21.3617, 1.25065, 24.1383, 13.329, 81.1043, -131.498
2.77614, -1, -21.6256, 1.1162, 24.1913, 13.3322, 80.9636, -131.854
2.78281, -1, -21.7136, 1.07139, 24.209, 13.3333, 80.9167, -131.973
2.79228, -1, -21.9781, 0.936928, 24.2621, 13.3366, 80.7759, -132.329
2.80033, -1, -22.1548, 0.847329, 24.2975, 13.3387, 80.6823, -132.566
2.80915, -1, -22.3314, 0.75779, 24.3329, 13.3409, 80.5887, -132.803
2.81477, -1, -22.4194, 0.713073, 24.3505, 13.342, 80.5418, -132.922
2.82434, -1, -22.5952, 0.578808, 24.4032, 13.3456, 80.4016, -133.277
2.83318, -1, -22.7706, 0.489379, 24.4386, 13.348, 80.3079, -133.514
2.84029, -1, -22.9451, 0.444672, 24.4562, 13.3492, 80.2611, -133.632
2.84775, -1, -23.1188, 0.355266, 24.4913, 13.3516, 80.1675, -133.869
2.85585, -1, -23.2924, 0.265943, 24.5265, 13.354, 80.0742, -134.106
2.86276, -1, -23.4655, 0.176653, 24.5617, 13.3564, 79.9806, -134.342
2.87177, -1, -23.6386, 0.0874789, 24.5968, 13.3588, 79.8874, -134.578
2.87981, -1, -23.8119, -0.00164582, 24.632, 13.3612, 79.7943, -134.814
2.88676, -1, -23.9853, -0.0906036, 24.6672, 13.3637, 79.7011, -135.051
2.89575, -1, -24.159, -0.179605, 24.7022, 13.3661, 79.608, -135.287
2.9038, -1, -24.3329, -0.268574, 24.7373, 13.3686, 79.515, -135.522
2.91177, -1, -24.5073, -0.357477, 24.7725, 13.371, 79.4219, -135.758
2.91976, -1, -24.6818, -0.446352, 24.8075, 13.3734, 79.3289, -135.993
2.92779, -1, -24.8567, -0.53524, 24.8424, 13.3758, 79.2358, -136.229
2.93575, -1, -25.0318, -0.624125, 24.8776, 13.3782, 79.1429, -136.464
2.94375, -1, -25.2067, -0.71291, 24.9126, 13.3806, 79.0499, -136.699
2.95181, -1, -25.3813, -0.801663, 24.9475, 13.383, 78.9571, -136.934
2.95876, -1, -25.5555, -0.890523, 24.9826, 13.3854, 78.8645, -137.169
2.96775, -1, -25.7291, -0.979259, 25.0174, 13.3879, 78.7717, -137.404
2.97582, -1, -25.902, -1.06793, 25.0523, 13.3903, 78.6791, -137.639
2.98483, -1, -26.0745, -1.15664, 25.0874, 13.3928, 78.5869, -137.873
2.99174, -1, -26.2466, -1.24528, 25.1222, 13.3952, 78.4941, -138.108
2.99981, -1, -26.4183, -1.33377, 25.157, 13.3976, 78.4016, -138.342
3.00778, -1, -26.5901, -1.42221, 25.192, 13.3999, 78.3093, -138.577
3.01575, -1, -26.762, -1.51058, 25.227, 13.4021, 78.2166, -138.811
3.02383, -1, -26.9343, -1.5988, 25.2618, 13.4044, 78.1242, -139.045
3.03176, -1, -27.1067, -1.68696, 25.2967, 13.4067, 78.0322, -139.279
3.03976, -1, -27.2793, -1.77522, 25.3316, 13.4088, 77.9399, -139.513
3.04782, -1, -27.4522, -1.86331, 25.3664, 13.411, 77.8479, -139.746
3.05575, -1, -27.6254, -1.95138, 25.4011, 13.4131, 77.756, -139.98
3.06381, -1, -27.7986, -2.0396, 25.4361, 13.4152, 77.6638, -140.213
3.07176, -1, -27.9719, -2.12759, 25.4709, 13.4173, 77.5719, -140.446
3.07977, -1, -28.1452, -2.21562, 25.5056, 13.4193, 77.4798, -140.68
3.08781, -1, -28.3183, -2.30369, 25.5405, 13.4213, 77.3878, -140.913
3.09574, -1, -28.4911, -2.39177, 25.5752, 13.4235, 77.2957, -141.146
3.10375, -1, -28.6635, -2.47971, 25.6098, 13.4256, 77.2036, -141.379
3.11183, -1, -28.8354, -2.56773, 25.6446, 13.4277, 77.1117, -141.612
3.11974, -1, -29.0063, -2.65571, 25.6792, 13.43, 77.0197, -141.844
3.12775, -1, -29.177, -2.74362, 25.7138, 13.4321, 76.9278, -142.077
3.13581, -1, -29.3475, -2.83141, 25.7484, 13.4341, 76.8361, -142.309
3.14374, -1, -29.5182, -2.91909, 25.7832, 13.4363, 76.7441, -142.542
3.15177, -1, -29.689, -3.00669, 25.8176, 13.4383, 76.6522, -142.774
3.15984, -1, -29.8601, -3.09424, 25.8522, 13.4403, 76.5606, -143.007
3.16782, -1, -30.031, -3.18171, 25.8869, 13.4424, 76.4686, -143.239
3.17626, -1, -30.2019, -3.26921, 25.9214, 13.4445, 76.377, -143.471
3.18328, -1, -30.3731, -3.35667, 25.9559, 13.4466, 76.2855, -143.702
3.19187, -1, -30.5447, -3.4441, 25.9905, 13.4486, 76.1939, -143.934
3.20044, -1, -30.7165, -3.53161, 26.0249, 13.4507, 76.1025, -144.166
3.20787, -1, -30.8884, -3.61897, 26.0594, 13.4527, 76.0112, -144.397
3.21575, -1, -31.0602, -3.7064, 26.094, 13.4546, 75.9198, -144.629
3.2245, -1, -31.2318, -3.79372, 26.1284, 13.4567, 75.8284, -144.86
3.23178, -1, -31.4031, -3.88104, 26.1627, 13.4588, 75.7371, -145.092
3.2398, -1, -31.5741, -3.96831, 26.1972, 13.4609, 75.6459, -145.323
3.24885, -1, -31.7446, -4.05557, 26.2316, 13.4631, 75.5546, -145.553
3.2559, -1, -31.9146, -4.14285, 26.266, 13.4653, 75.4635, -145.784
3.26403, -1, -32.0843, -4.23003, 26.3004, 13.4675, 75.3726, -146.015
3.27083, -1, -32.169, -4.27358, 26.3176, 13.4686, 75.3269, -146.131
3.27881, -1, -32.3383, -4.36069, 26.3519, 13.4708, 75.2358, -146.361
3.28822, -1, -32.5927, -4.49114, 26.4033, 13.474, 75.0997, -146.707
3.29474, -1, -32.6775, -4.53461, 26.4206, 13.475, 75.0541, -146.822
3.30431, -1, -32.932, -4.66496, 26.472, 13.4783, 74.9178, -147.168
3.31235, -1, -33.1018, -4.75192, 26.5062, 13.4804, 74.8274, -147.398
3.32116, -1, -33.2716, -4.83876, 26.5405, 13.4827, 74.7365, -147.628
3.32681, -1, -33.3565, -4.88218, 26.5577, 13.4838, 74.6912, -147.743
3.33635, -1, -33.5267, -4.96915, 26.609, 13.4871, 74.5554, -148.088
3.34534, -1, -33.697, -5.05605, 26.6261, 13.4882, 74.5102, -148.203
3.35173, -1, -33.8673, -5.14281, 26.6604, 13.4905, 74.4195, -148.433
3.3598, -1, -34.0375, -5.22955, 26.6945, 13.4928, 74.329, -148.662
3.36775, -1, -34.2076, -5.31628, 26.7286, 13.495, 74.2387, -148.892
3.37488, -1, -34.3777, -5.40292, 26.763, 13.4973, 74.1479, -149.121
3.38379, -1, -34.5477, -5.48958, 26.7971, 13.4996, 74.0573, -149.35
3.39173, -1, -34.7169, -5.57625, 26.8312, 13.5019, 73.9669, -149.58
3.39979, -1, -34.8857, -5.66284, 26.8654, 13.5043, 73.8762, -149.809
3.40773, -1, -35.0541, -5.74937, 26.8995, 13.5068, 73.7858, -150.038
3.41573, -1, -35.2223, -5.83587, 26.9335, 13.5093, 73.6955, -150.267
3.42276, -1, -35.3905, -5.92221, 26.9677, 13.5118, 73.6051, -150.496
3.43173, -1, -35.5591, -6.00843, 27.0018, 13.5141, 73.5148, -150.725
3.43974, -1, -35.7276, -6.09472, 27.0358, 13.5165, 73.4245, -150.953
3.4478, -1, -35.8962, -6.18092, 27.0699, 13.5188, 73.3343, -151.182
3.45573, -1, -36.0647, -6.26705, 27.104, 13.5213, 73.2438, -151.41
3.46376, -1, -36.2331, -6.35317, 27.1379, 13.5236, 73.1533, -151.639
3.47273, -1, -36.4018, -6.43939, 27.1718, 13.5261, 73.0631, -151.868
3.47975, -1, -36.5706, -6.52563, 27.2059, 13.5284, 72.9725, -152.096
3.48874, -1, -36.7395, -6.6118, 27.2398, 13.5307, 72.8824, -152.324
3.4958, -1, -36.9084, -6.6979, 27.2736, 13.533, 72.7924, -152.552
3.50375, -1, -37.0774, -6.78406, 27.3076, 13.5353, 72.7022, -152.78
3.51463, -1, -37.2463, -6.91318, 27.3584, 13.5387, 72.5673, -153.122
3.51974, -1, -37.4149, -6.95618, 27.3753, 13.5398, 72.5224, -153.236
3.52782, -1, -37.5831, -7.04225, 27.4093, 13.5421, 72.4325, -153.463
3.53572, -1, -37.7508, -7.1283, 27.4433, 13.5443, 72.3427, -153.691
3.54375, -1, -37.9185, -7.21428, 27.477, 13.5466, 72.2529, -153.918
3.5518, -1, -38.0859, -7.30019, 27.5109, 13.5488, 72.1632, -154.146
3.55974, -1, -38.2533, -7.38607, 27.5448, 13.551, 72.0734, -154.373
3.56773, -1, -38.4205, -7.47176, 27.5787, 13.5531, 71.9837, -154.6
3.57581, -1, -38.5877, -7.55747, 27.6125, 13.5552, 71.8943, -154.827
3.58373, -1, -38.7551, -7.6432, 27.6465, 13.5573, 71.8045, -155.055
3.59173, -1, -38.9224, -7.72887, 27.6802, 13.5593, 71.7151, -155.282
3.59982, -1, -39.0897, -7.81448, 27.714, 13.5615, 71.626, -155.508
3.60772, -1, -39.2571, -7.90015, 27.7478, 13.5635, 71.5364, -155.735
3.61573, -1, -39.4246, -7.98583, 27.7817, 13.5654, 71.4471, -155.962
3.62381, -1, -39.5922, -8.07137, 27.8153, 13.5674, 71.3578, -156.189
3.63174, -1, -39.7599, -8.15689, 27.849, 13.5694, 71.2685, -156.415
3.63974, -1, -39.9275, -8.24236, 27.8829, 13.5713, 71.1791, -156.642
3.64786, -1, -40.0952, -8.32779, 27.9165, 13.5733, 71.0896, -156.868
3.65575, -1, -40.2626, -8.41316, 27.9502, 13.5752, 71.0006, -157.094
3.66376, -1, -40.4299, -8.49856, 27.984, 13.5772, 70.9111, -157.321
3.6721, -1, -40.597, -8.58395, 28.0176, 13.5792, 70.8219, -157.547
3.67986, -1, -40.7639, -8.66936, 28.0512, 13.5812, 70.7329, -157.772
3.68782, -1, -40.9304, -8.75472, 28.0849, 13.5832, 70.6437, -157.998
3.69632, -1, -41.0967, -8.84002, 28.1186, 13.5853, 70.5546, -158.224
3.70335, -1, -41.1799, -8.92529, 28.1521, 13.5873, 70.4655, -158.45
3.71191, -1, -41.4292, -9.01046, 28.1857, 13.5893, 70.3762, -158.676
3.72043, -1, -41.5955, -9.09561, 28.2194, 13.5913, 70.2871, -158.901
3.72776, -1, -41.7618, -9.18073, 28.2529, 13.5933, 70.198, -159.126
3.73576, -1, -41.9282, -9.2658, 28.2865, 13.5953, 70.1089, -159.352
3.74475, -1, -42.0945, -9.35083, 28.3201, 13.5973, 70.02, -159.578
3.75192, -1, -42.2607, -9.43594, 28.3537, 13.5994, 69.931, -159.803
3.75882, -1, -42.3438, -9.47848, 28.3704, 13.6004, 69.8867, -159.915
3.76881, -1, -42.5934, -9.60593, 28.4207, 13.6034, 69.7532, -160.253
3.77609, -1, -42.7598, -9.69086, 28.4542, 13.6054, 69.6642, -160.478
3.78272, -1, -42.843, -9.73336, 28.4709, 13.6064, 69.6199, -160.591
3.7922, -1, -43.0928, -9.86075, 28.5211, 13.6095, 69.4866, -160.928
3.80104, -1, -43.259, -9.94571, 28.5546, 13.6116, 69.398, -161.153
3.80671, -1, -43.3421, -9.98818, 28.5713, 13.6126, 69.3537, -161.266
3.81633, -1, -43.591, -10.1156, 28.6215, 13.6157, 69.2208, -161.603
3.82513, -1, -43.7568, -10.2005, 28.655, 13.6178, 69.1323, -161.828
3.83073, -1, -43.8398, -10.2429, 28.6716, 13.6189, 69.088, -161.94
3.84028, -1, -44.0055, -10.3277, 28.705, 13.6211, 68.9997, -162.276
3.84775, -1, -44.1709, -10.4125, 28.7384, 13.6232, 68.911, -162.388
3.85578, -1, -44.3361, -10.4971, 28.7719, 13.6254, 68.8224, -162.613
3.86373, -1, -44.5013, -10.5817, 28.8052, 13.6276, 68.7338, -162.837
3.87177, -1, -44.6664, -10.6663, 28.8386, 13.6298, 68.6451, -163.061
3.87873, -1, -44.8317, -10.7508, 28.8721, 13.632, 68.5566, -163.285
3.88773, -1, -44.9971, -10.8352, 28.9055, 13.6342, 68.4681, -163.509
3.89574, -1, -45.1625, -10.9198, 28.9388, 13.6364, 68.3799, -163.733
3.90377, -1, -45.3278, -11.0043, 28.9722, 13.6386, 68.2913, -163.958
3.91177, -1, -45.4931, -11.0888, 29.0056, 13.6409, 68.2029, -164.181
3.91972, -1, -45.6584, -11.1732, 29.0387, 13.6432, 68.1149, -164.405
3.92776, -1, -45.8236, -11.2576, 29.072, 13.6455, 68.0263, -164.629
3.93573, -1, -45.9878, -11.3415, 29.1055, 13.6477, 67.938, -164.852
3.94375, -1, -46.1492, -11.4238, 29.1389, 13.6501, 67.85, -165.075
3.95182, -1, -46.3061, -11.5032, 29.1725, 13.6524, 67.7625, -165.296
3.95972, -1, -46.4563, -11.5782, 29.206, 13.6547, 67.6773, -165.512
3.96775, -1, -46.5975, -11.648, 29.2383, 13.6571, 67.5959, -165.717
3.97763, -1, -46.7863, -11.7402, 29.2817, 13.6604, 67.4865, -165.994
3.98374, -1, -46.8418, -11.7673, 29.2944, 13.6614, 67.4543, -166.075
3.99281, -1, -46.9404, -11.8164, 29.3165, 13.663, 67.3986, -166.217
3.99973, -1, -47.0229, -11.8593, 29.3331, 13.6643, 67.354, -166.33
4.00772, -1, -47.09, -11.896, 29.3443, 13.6651, 67.3205, -166.414
4.01592, -1, -47.1422, -11.9253, 29.3515, 13.6655, 67.2973, -166.473
4.02374, -1, -47.181, -11.9474, 29.3554, 13.6658, 67.2823, -166.51
4.03177, -1, -47.2084, -11.9627, 29.3572, 13.6659, 67.2736, -166.533
4.03975, -1, -47.2264, -11.9727, 29.358, 13.6659, 67.2689, -166.544
4.04777, -1, -47.2371, -11.9785, 29.3584, 13.666, 67.2666, -166.55
4.05573, 2, -47.2427, -11.9814, 29.3586, 13.666, 67.2654, -166.553
4.06375, 2, -47.2447, -11.9827, 29.3588, 13.666, 67.2648, -166.554
4.0718, 2, -47.2447, -11.9832, 29.3589, 13.6661, 67.2646, -166.554
4.07971, 2, -47.2446, -11.9833, 29.359, 13.6661, 67.2645, -166.555
4.08775, 2, -47.2445, -11.9835, 29.359, 13.6661, 67.2645, -166.555
4.09578, 2, -47.2449, -11.9835, 29.359, 13.6661, 67.2644, -166.555
4.10371, 2, -47.2458, -11.9838, 29.3591, 13.6661, 67.2644, -166.555
4.11181, 2, -47.2471, -11.9843, 29.3591, 13.6661, 67.2644, -166.555
4.11974, 2, -47.2489, -11.9851, 29.3591, 13.6661, 67.2644, -166.555
4.12771, 2, -47.2505, -11.986, 29.3591, 13.6661, 67.2644, -166.555
4.13577, 2, -47.2518, -11.9868, 29.3591, 13.6661, 67.2644, -166.555
4.14375, 2, -47.2527, -11.9875, 29.3591, 13.6661, 67.2644, -166.555
4.15179, 2, -47.2531, -11.9879, 29.3591, 13.6661, 67.2644, -166.555
4.15977, 2, -47.2533, -11.988, 29.3591, 13.6661, 67.2644, -166.555
4.16778, 2, -47.2533, -11.9881, 29.3591, 13.6661, 67.2644, -166.555
4.17581, 2, -47.253, -11.9881, 29.3591, 13.6661, 67.2644, -166.555
4.18388, 2, -47.2525, -11.988, 29.3591, 13.6661, 67.2644, -166.555
4.19188, 2, -47.2521, -11.988, 29.3591, 13.6661, 67.2644, -166.555
4.19982, 2, -47.2517, -11.988, 29.3591, 13.6662, 67.2644, -166.555
4.20787, 2, -47.2516, -11.988, 29.3591, 13.6662, 67.2644, -166.555
4.21589, 2, -47.2516, -11.9881, 29.3592, 13.6662, 67.2644, -166.555
4.22372, 2, -47.2517, -11.9883, 29.3592, 13.6661, 67.2644, -166.555
4.2319, 2, -47.2519, -11.9886, 29.3592, 13.6661, 67.2645, -166.555
4.2398, 2, -47.2526, -11.9889, 29.3591, 13.6661, 67.2645, -166.555
4.24776, 2, -47.2531, -11.9892, 29.3591, 13.6661, 67.2644, -166.555
4.25589, 2, -47.2535, -11.9894, 29.3591, 13.6661, 67.2644, -166.555
4.26424, 2, -47.2536, -11.9895, 29.3592, 13.6661, 67.2644, -166.555
4.27204, 2, -47.2535, -11.9895, 29.3592, 13.6661, 67.2644, -166.555
4.27874, 2, -47.2535, -11.9895, 29.3592, 13.6661, 67.2644, -166.555
4.28819, 2, -47.2532, -11.9894, 29.3592, 13.6661, 67.2644, -166.555
4.29622, 2, -47.2527, -11.9894, 29.3592, 13.6661, 67.2644, -166.555
4.30424, 2, -47.2524, -11.9893, 29.3592, 13.666, 67.2645, -166.555
4.31267, 2, -47.2521, -11.9893, 29.3592, 13.666, 67.2645, -166.555
4.32027, 2, -47.2519, -11.9893, 29.3592, 13.666, 67.2645, -166.555
4.32843, 2, -47.2518, -11.9894, 29.3592, 13.666, 67.2645, -166.555
4.33644, 2, -47.2518, -11.9894, 29.3592, 13.666, 67.2645, -166.555
4.34422, 2, -47.2518, -11.9894, 29.3592, 13.6661, 67.2645, -166.555
4.35242, 2, -47.2518, -11.9895, 29.3592, 13.6661, 67.2645, -166.555
4.35972, 2, -47.2519, -11.9896, 29.3592, 13.6661, 67.2645, -166.555
4.3677, 2, -47.2519, -11.9896, 29.3592, 13.6661, 67.2645, -166.555
4.37574, 2, -47.252, -11.9896, 29.3592, 13.666, 67.2645, -166.555
4.38374, 2, -47.252, -11.9896, 29.3592, 13.666, 67.2645, -166.555
4.39178, 2, -47.2519, -11.9895, 29.3592, 13.666, 67.2645, -166.555
4.39973, 2, -47.2518, -11.9894, 29.3592, 13.666, 67.2645, -166.555
4.40772, 2, -47.2517, -11.9894, 29.3592, 13.666, 67.2646, -166.555
4.41572, 2, -47.2516, -11.9893, 29.3592, 13.666, 67.2645, -166.555
4.42373, 2, -47.2514, -11.9893, 29.3592, 13.666, 67.2645, -166.555
4.4318, 2, -47.2513, -11.9893, 29.3592, 13.666, 67.2645, -166.554
4.4397, 2, -47.2512, -11.9893, 29.3592, 13.666, 67.2645, -166.554
4.44774, 2, -47.2512, -11.9894, 29.3592, 13.666, 67.2646, -166.555
4.45587, 2, -47.2511, -11.9894, 29.3592, 13.666, 67.2646, -166.555
4.4637, 2, -47.2511, -11.9894, 29.3592, 13.666, 67.2646, -166.554
4.4718, 2, -47.251, -11.9894, 29.3592, 13.666, 67.2646, -166.554
4.48074, 2, -47.251, -11.9894, 29.3592, 13.666, 67.2646, -166.554
4.48772, 2, -47.2509, -11.9893, 29.3592, 13.666, 67.2646, -166.554
4.49577, 2, -47.2509, -11.9893, 29.3592, 13.666, 67.2646, -166.554
4.50372, 2, -47.2508, -11.9892, 29.3592, 13.666, 67.2646, -166.554
4.51176, 2, -47.2508, -11.9892, 29.3592, 13.666, 67.2646, -166.554
4.51979, 2, -47.2507, -11.9892, 29.3592, 13.666, 67.2646, -166.554
4.52773, 2, -47.2506, -11.9891, 29.3592, 13.666, 67.2646, -166.554
4.53572, 2, -47.2505, -11.9891, 29.3592, 13.666, 67.2646, -166.554
4.54374, 2, -47.2504, -11.9891, 29.3592, 13.666, 67.2647, -166.554
4.5518, 2, -47.2504, -11.9891, 29.3592, 13.666, 67.2647, -166.554
4.5597, 2, -47.2503, -11.9891, 29.3592, 13.666, 67.2646, -166.554
4.56774, 2, -47.2502, -11.9891, 29.3592, 13.6659, 67.2647, -166.554
4.57574, 2, -47.2501, -11.9891, 29.3592, 13.666, 67.2647, -166.554
4.58371, 2, -47.25, -11.9891, 29.3592, 13.666, 67.2647, -166.554
4.59179, 2, -47.2499, -11.9891, 29.3592, 13.6659, 67.2647, -166.554
4.59975, 2, -47.2498, -11.9891, 29.3592, 13.6659, 67.2646, -166.554
4.6077, 2, -47.2497, -11.989, 29.3592, 13.6659, 67.2646, -166.554
4.61575, 2, -47.2496, -11.9889, 29.3592, 13.6659, 67.2647, -166.554
4.62374, 2, -47.2495, -11.9889, 29.3592, 13.6659, 67.2647, -166.554
4.63176, 2, -47.2494, -11.9888, 29.3592, 13.6659, 67.2647, -166.554
4.63974, 2, -47.2492, -11.9888, 29.3592, 13.6659, 67.2647, -166.554
4.64774, 2, -47.2491, -11.9888, 29.3592, 13.6659, 67.2647, -166.554
4.65574, 2, -47.249, -11.9888, 29.3592, 13.6659, 67.2647, -166.554
4.66376, 2, -47.2489, -11.9888, 29.3592, 13.6659, 67.2647, -166.554
4.67184, 2, -47.2489, -11.9888, 29.3592, 13.6659, 67.2647, -166.554
4.67978, 2, -47.2488, -11.9888, 29.3592, 13.6659, 67.2647, -166.554
4.68787, 2, -47.2487, -11.9888, 29.3592, 13.6659, 67.2647, -166.554
4.69584, 2, -47.2487, -11.9888, 29.3592, 13.6658, 67.2647, -166.554
4.7038, 2, -47.2486, -11.9887, 29.3592, 13.6659, 67.2647, -166.554
4.71191, 2, -47.2485, -11.9887, 29.3592, 13.6659, 67.2647, -166.554
4.71984, 2, -47.2484, -11.9886, 29.3591, 13.6659, 67.2647, -166.554
4.7277, 2, -47.2484, -11.9885, 29.3592, 13.6658, 67.2647, -166.554
4.73579, 2, -47.2483, -11.9885, 29.3592, 13.6658, 67.2647, -166.554
4.7438, 2, -47.2482, -11.9885, 29.3591, 13.6658, 67.2647, -166.554
4.75181, 2, -47.2482, -11.9885, 29.3592, 13.6658, 67.2647, -166.554
4.75987, 2, -47.2481, -11.9885, 29.3592, 13.6658, 67.2647, -166.554
4.76829, 2, -47.2481, -11.9885, 29.3591, 13.6658, 67.2647, -166.554
4.77597, 2, -47.2481, -11.9885, 29.3592, 13.6658, 67.2647, -166.554
4.78412, 2, -47.2481, -11.9885, 29.3592, 13.6658, 67.2648, -166.554
4.7907, 2, -47.2481, -11.9885, 29.3592, 13.6658, 67.2648, -166.554
4.80015, 2, -47.2481, -11.9884, 29.3592, 13.6658, 67.2648, -166.554
4.80825, 2, -47.248, -11.9884, 29.3592, 13.6657, 67.2648, -166.554
4.81667, 2, -47.248, -11.9883, 29.3592, 13.6657, 67.2648, -166.554
4.82428, 2, -47.2479, -11.9883, 29.3592, 13.6657, 67.2648, -166.554
4.83235, 2, -47.2478, -11.9882, 29.3592, 13.6657, 67.2648, -166.554
4.84067, 2, -47.2477, -11.9882, 29.3592, 13.6657, 67.2648, -166.554
4.84768, 2, -47.2477, -11.9882, 29.3592, 13.6656, 67.2648, -166.554
4.8563, 2, -47.2477, -11.9882, 29.3592, 13.6656, 67.2648, -166.554
4.8637, 2, -47.2476, -11.9882, 29.3592, 13.6656, 67.2648, -166.554
4.87174, 2, -47.2476, -11.9882, 29.3591, 13.6656, 67.2649, -166.554
4.87972, 2, -47.2476, -11.9882, 29.3592, 13.6656, 67.2649, -166.554
4.88772, 2, -47.2476, -11.9882, 29.3592, 13.6656, 67.2649, -166.554
4.89571, 2, -47.2476, -11.9882, 29.3592, 13.6656, 67.2649, -166.554
4.90372, 2, -47.2475, -11.9881, 29.3592, 13.6656, 67.2649, -166.554
4.91177, 2, -47.2475, -11.9881, 29.3592, 13.6655, 67.2649, -166.554
4.91968, 2, -47.2475, -11.988, 29.3592, 13.6655, 67.2649, -166.554
4.92772, 2, -47.2474, -11.9879, 29.3592, 13.6655, 67.265, -166.554
4.93574, 2, -47.2473, -11.9879, 29.3592, 13.6655, 67.265, -166.554
4.94368, 2, -47.2473, -11.9879, 29.3592, 13.6655, 67.2649, -166.554
4.95179, 2, -47.2472, -11.9879, 29.3592, 13.6655, 67.2649, -166.554
4.9597, 2, -47.2471, -11.9879, 29.3591, 13.6654, 67.265, -166.554
4.96768, 2, -47.2471, -11.9878, 29.3591, 13.6654, 67.265, -166.554
4.97575, 2, -47.247, -11.9878, 29.3591, 13.6654, 67.265, -166.554
4.9856, 2, -47.247, -11.9878, 29.3592, 13.6654, 67.2651, -166.554
4.99175, 2, -47.247, -11.9878, 29.3592, 13.6654, 67.2651, -166.554
5.00069, 2, -47.247, -11.9878, 29.3592, 13.6654, 67.2651, -166.554
5.0077, 2, -47.247, -11.9878, 29.3591, 13.6654, 67.2651, -166.554
5.0157, 2, -47.247, -11.9877, 29.3591, 13.6654, 67.2651, -166.554
5.02376, 2, -47.2469, -11.9877, 29.3592, 13.6654, 67.2651, -166.554
5.03181, 2, -47.2469, -11.9876, 29.3592, 13.6654, 67.2651, -166.554
5.03968, 2, -47.2468, -11.9876, 29.3592, 13.6654, 67.2651, -166.554
5.04772, 2, -47.2467, -11.9876, 29.3591, 13.6654, 67.2651, -166.554
5.05702, 2, -47.2466, -11.9875, 29.3592, 13.6653, 67.2651, -166.554
5.06368, 2, -47.2466, -11.9875, 29.3591, 13.6653, 67.2652, -166.554
5.07181, 2, -47.2465, -11.9875, 29.3591, 13.6652, 67.2652, -166.554
5.07968, 2, -47.2465, -11.9875, 29.3591, 13.6652, 67.2652, -166.554
5.08768, 2, -47.2464, -11.9875, 29.3591, 13.6652, 67.2652, -166.554
5.09578, 2, -47.2464, -11.9875, 29.3592, 13.6652, 67.2652, -166.554
5.10376, 2, -47.2465, -11.9875, 29.3592, 13.6652, 67.2652, -166.554
5.11175, 2, -47.2464, -11.9874, 29.3591, 13.6652, 67.2653, -166.554
5.11974, 4, -47.2464, -11.9874, 29.3592, 13.6652, 67.2652, -166.554
5.12768, 4, -47.2463, -11.9874, 29.3592, 13.6652, 67.2653, -166.554
5.1357, 4, -47.2463, -11.9873, 29.3591, 13.6652, 67.2652, -166.554
5.14375, 4, -47.2463, -11.9873, 29.3591, 13.6651, 67.2652, -166.554
5.15174, 4, -47.2462, -11.9873, 29.3592, 13.6651, 67.2653, -166.554
5.1597, 4, -47.2461, -11.9873, 29.3591, 13.6651, 67.2653, -166.554
5.16778, 4, -47.246, -11.9872, 29.3591, 13.6651, 67.2653, -166.554
5.17574, 4, -47.246, -11.9872, 29.3591, 13.665, 67.2652, -166.554
5.18377, 4, -47.2459, -11.9872, 29.3591, 13.665, 67.2653, -166.554
5.19193, 4, -47.2459, -11.9872, 29.3591, 13.665, 67.2653, -166.554
5.19978, 4, -47.2459, -11.9872, 29.3592, 13.665, 67.2653, -166.554
5.20778, 4, -47.2459, -11.9872, 29.3592, 13.665, 67.2652, -166.554
5.21606, 4, -47.2459, -11.9871, 29.3591, 13.665, 67.2653, -166.554
5.23064, 4, -47.2458, -11.9871, 29.3592, 13.665, 67.2653, -166.554
5.23356, 4, -47.2458, -11.987, 29.3592, 13.665, 67.2653, -166.554
5.2409, 4, -47.2457, -11.987, 29.3592, 13.665, 67.2653, -166.554
5.24848, 4, -47.2456, -11.987, 29.3592, 13.665, 67.2653, -166.554
5.25613, 4, -47.2456, -11.987, 29.3592, 13.665, 67.2653, -166.554
5.26417, 4, -47.2455, -11.987, 29.3592, 13.665, 67.2653, -166.554
5.27663, 4, -47.2455, -11.9869, 29.3592, 13.6649, 67.2653, -166.554
5.28185, 4, -47.2454, -11.987, 29.3592, 13.665, 67.2653, -166.554
5.28985, 4, -47.2454, -11.9869, 29.3592, 13.6649, 67.2653, -166.554
5.29629, 4, -47.2454, -11.9869, 29.3592, 13.6649, 67.2653, -166.554
5.30532, 4, -47.2453, -11.9869, 29.3592, 13.6649, 67.2653, -166.554
5.31284, 4, -47.2453, -11.9869, 29.3592, 13.6649, 67.2653, -166.554
5.32213, 4, -47.2453, -11.9869, 29.3592, 13.6649, 67.2653, -166.554
5.32896, 4, -47.2453, -11.9868, 29.3591, 13.6649, 67.2653, -166.554
5.33656, 4, -47.2453, -11.9868, 29.3591, 13.6649, 67.2653, -166.554
5.3445, 4, -47.2452, -11.9867, 29.3591, 13.6649, 67.2653, -166.554
5.3546, 4, -47.2451, -11.9867, 29.3591, 13.6649, 67.2653, -166.554
5.36055, 4, -47.2451, -11.9867, 29.3591, 13.6649, 67.2653, -166.553
5.36781, 4, -47.2451, -11.9867, 29.3591, 13.6648, 67.2653, -166.553
5.37953, 4, -47.245, -11.9867, 29.3591, 13.6648, 67.2653, -166.554
5.38679, 4, -47.2451, -11.9867, 29.3592, 13.6648, 67.2653, -166.554
5.39579, 4, -47.246, -11.9872, 29.3596, 13.665, 67.2654, -166.553
5.40185, 4, -47.2483, -11.989, 29.3615, 13.6667, 67.266, -166.553
5.40974, 4, -47.2526, -11.9934, 29.3671, 13.6765, 67.2683, -166.552
5.41583, 4, -47.2557, -11.9972, 29.3723, 13.6867, 67.2708, -166.551
5.42591, 4, -47.2715, -12.0175, 29.4046, 13.7506, 67.2884, -166.538
5.43366, 5, -47.2897, -12.0417, 29.4474, 13.8386, 67.3129, -166.519
5.43983, 5, -47.302, -12.0579, 29.4775, 13.9013, 67.3307, -166.505
5.44991, 5, -47.3543, -12.1253, 29.6121, 14.1867, 67.4098, -166.439
5.45823, 5, -47.4042, -12.188, 29.7449, 14.4728, 67.489, -166.374
5.46389, 5, -47.434, -12.2249, 29.8252, 14.6473, 67.5364, -166.334
5.47368, 5, -47.5424, -12.3585, 30.1242, 15.2966, 67.7112, -166.185
5.4789, 5, -47.5847, -12.4105, 30.2428, 15.5525, 67.7795, -166.127
5.48783, 5, -47.6779, -12.5248, 30.5053, 16.1144, 67.9279, -166
5.49773, 5, -47.8357, -12.7189, 30.9538, 17.0557, 68.1725, -165.79
5.50382, 5, -47.8921, -12.7886, 31.1147, 17.3882, 68.2575, -165.717
5.51415, 5, -48.0686, -13.0081, 31.6209, 18.415, 68.5152, -165.494
5.52281, 5, -48.1898, -13.1595, 31.9696, 19.1098, 68.6855, -165.346
5.52823, 5, -48.2507, -13.2352, 32.1455, 19.4561, 68.7693, -165.273
5.53582, 5, -48.3712, -13.3845, 32.4971, 20.1389, 68.9336, -165.127
5.54674, 5, -48.5418, -13.5983, 33.0152, 21.1232, 69.1726, -164.899
5.55581, 6, -48.6419, -13.7306, 33.3456, 21.7354, 69.3298, -164.726
5.56063, 6, -48.6861, -13.7929, 33.5047, 22.0251, 69.4085, -164.628
5.56925, 7, -48.7606, -13.9106, 33.8081, 22.5686, 69.568, -164.403
5.57687, 7, -48.814, -14.0198, 34.0914, 23.0613, 69.7313, -164.126
5.58719, 7, -48.845, -14.121, 34.3552, 23.7139, 69.9881, -163.594
5.59188, 8, -48.8543, -14.2135, 34.6012, 23.9123, 70.0777, -163.384
5.60346, 8, -48.8346, -14.3351, 34.9469, 24.4682, 70.3603, -162.655
5.60792, 9, -48.8205, -14.372, 35.0575, 24.6447, 70.4596, -162.384
5.61631, 9, -48.7829, -14.4421, 35.2741, 24.9921, 70.6658, -161.807
5.6238, 10, -48.7348, -14.509, 35.4883, 25.3378, 70.8822, -161.196
5.63121, 10, -48.6775, -14.5743, 35.7021, 25.6861, 71.1075, -160.563
5.64288, 11, -48.6117, -14.6704, 36.0226, 26.2167, 71.4568, -159.597
5.64786, 11, -48.5391, -14.7021, 36.1296, 26.396, 71.5748, -159.275
5.65689, 12, -48.4618, -14.765, 36.3428, 26.7588, 71.8118, -158.634
5.66384, 12, -48.3829, -14.8272, 36.5536, 27.1279, 72.0499, -157.992
5.67516, 13, -48.2646, -14.9164, 36.8667, 27.6957, 72.4103, -157.026
5.68012, 13, -48.2253, -14.945, 36.9701, 27.8892, 72.5319, -156.702
5.68918, 14, -48.1454, -15.0018, 37.1752, 28.2825, 72.7778, -156.05
5.69603, 14, -48.0625, -15.0598, 37.3788, 28.6831, 73.0269, -155.393
5.70401, 15, -47.976, -15.1196, 37.5818, 29.0887, 73.2784, -154.735
5.71445, 15, -47.8853, -15.1798, 37.7831, 29.4963, 73.5295, -154.079
5.72, 16, -47.7894, -15.239, 37.9826, 29.9029, 73.7778, -153.427
5.72825, 16, -47.6866, -15.298, 38.181, 30.3056, 74.0211, -152.781
5.73808, 17, -47.5768, -15.3582, 38.3773, 30.7034, 74.2582, -152.143
5.74399, 17, -47.4614, -15.4205, 38.5701, 31.0957, 74.4884, -151.511
5.75219, 17, -47.3409, -15.4843, 38.7599, 31.4828, 74.7121, -150.886
5.76091, 18, -47.2153, -15.5495, 38.9471, 31.8663, 74.9302, -150.268
5.76818, 18, -47.0842, -15.6168, 39.1309, 32.2474, 75.1435, -149.656
5.77871, 19, -46.9472, -15.6874, 39.3123, 32.6278, 75.353, -149.05
5.7845, 19, -46.8045, -15.7603, 39.4925, 33.0079, 75.5587, -148.449
5.79249, 20, -46.657, -15.8343, 39.671, 33.3876, 75.7607, -147.855
5.80064, 20, -46.5055, -15.9089, 39.8469, 33.7666, 75.9588, -147.268
5.81012, 21, -46.3509, -15.9846, 40.0209, 34.1451, 76.1529, -146.687
5.81668, 21, -46.1931, -16.0618, 40.1935, 34.5231, 76.3433, -146.112
5.82565, 22, -46.0315, -16.1406, 40.3637, 34.9001, 76.5299, -145.543
5.83447, 23, -45.8651, -16.2211, 40.5308, 35.2755, 76.7132, -144.98
5.84101, 23, -45.6924, -16.3035, 40.6952, 35.6482, 76.892, -144.421
5.84852, 24, -45.5122, -16.3884, 40.8565, 36.0167, 77.066, -143.867
5.85656, 24, -45.419, -16.4317, 41.0134, 36.3789, 77.2336, -143.32
5.86576, 25, -45.1276, -16.5649, 41.1658, 36.7326, 77.3941, -142.778
5.87466, 25, -44.9243, -16.6551, 41.3139, 37.0763, 77.5463, -142.241
5.88113, 26, -44.7146, -16.746, 41.4576, 37.4098, 77.6908, -141.71
5.89045, 26, -44.6072, -16.7919, 41.5276, 37.7335, 77.8283, -141.184
5.89787, 27, -44.2743, -16.9312, 41.7301, 38.0491, 77.9608, -140.66
5.90393, 27, -44.1597, -16.9781, 41.795, 38.2039, 78.0253, -140.399
5.91188, 27, -43.9256, -17.0717, 41.9202, 38.5082, 78.1521, -139.878
5.9198, 28, -43.6846, -17.1643, 42.0393, 38.8062, 78.2769, -139.356
5.92789, 28, -43.4362, -17.2556, 42.1515, 39.0972, 78.3996, -138.834
5.93582, 29, -43.1807, -17.3455, 42.2568, 39.3811, 78.5211, -138.312
5.94683, 30, -42.7857, -17.4763, 42.401, 39.793, 78.6987, -137.528
5.95082, 30, -42.6507, -17.5184, 42.4455, 39.9263, 78.7568, -137.267
5.9612, 31, -42.3747, -17.6004, 42.5289, 40.1865, 78.9263, -136.485
5.9678, 31, -42.0906, -17.6796, 42.6053, 40.4378, 78.9811, -136.225
5.97662, 32, -41.7987, -17.7565, 42.6746, 40.6804, 79.0888, -135.704
5.98679, 32, -41.3481, -17.8667, 42.7658, 41.0276, 79.2441, -134.925
5.99488, 33, -41.0396, -17.9365, 42.8177, 41.2488, 79.3443, -134.408
5.99889, 33, -40.8827, -17.9703, 42.8409, 41.3565, 79.3936, -134.149
6.00783, 33, -40.5634, -18.036, 42.8818, 41.5658, 79.4901, -133.633
6.01929, 34, -40.0742, -18.1301, 42.9294, 41.8647, 79.6308, -132.859
6.02386, 35, -39.9088, -18.16, 42.9416, 41.9605, 79.6768, -132.601
6.03242, 35, -39.574, -18.2172, 42.9609, 42.1464, 79.7664, -132.088
6.04087, 36, -39.2333, -18.2707, 42.9733, 42.3247, 79.8537, -131.576
6.05111, 36, -38.7086, -18.3447, 42.9793, 42.5776, 79.9803, -130.809
6.05584, 37, -38.5303, -18.3678, 42.9781, 42.658, 80.0215, -130.554
6.06724, 37, -37.9871, -18.4321, 42.9641, 42.888, 80.1416, -129.793
6.07185, 38, -37.8031, -18.4516, 42.956, 42.961, 80.1808, -129.54
6.07977, 38, -37.4317, -18.4881, 42.9349, 43.1013, 80.2571, -129.035
6.08695, 38, -37.0557, -18.5213, 42.9073, 43.2342, 80.3318, -128.532
6.09581, 39, -36.675, -18.551, 42.8727, 43.3598, 80.4035, -128.03
6.1038, 40, -36.2894, -18.5769, 42.8315, 43.478, 80.4741, -127.531
6.1129, 40, -35.8976, -18.5991, 42.7838, 43.589, 80.5424, -127.033
6.11985, 41, -35.4999, -18.6174, 42.7295, 43.6929, 80.6095, -126.537
6.12787, 41, -35.0965, -18.6318, 42.6686, 43.7891, 80.6736, -126.043
6.13513, 41, -34.6884, -18.6428, 42.6014, 43.8788, 80.7366, -125.552
6.1438, 42, -34.277, -18.6504, 42.5276, 43.961, 80.7969, -125.063
6.15302, 43, -33.8625, -18.6549, 42.4477, 44.0363, 80.8557, -124.575
6.16075, 43, -33.4445, -18.6562, 42.3617, 44.1041, 80.9131, -124.091
6.16882, 44, -33.0214, -18.6539, 42.2699, 44.1654, 80.9679, -123.608
6.1769, 44, -32.5922, -18.6478, 42.1724, 44.2189, 81.0223, -123.128
6.1848, 45, -32.1561, -18.6379, 42.0691, 44.2653, 81.0742, -122.651
6.19191, 45, -31.7144, -18.6243, 41.9598, 44.3047, 81.1245, -122.175
6.20179, 46, -31.2688, -18.6072, 41.8445, 44.3365, 81.1739, -121.702
6.20795, 46, -30.8213, -18.5867, 41.7233, 44.3604, 81.2206, -121.232
6.21589, 47, -30.3714, -18.5624, 41.5963, 44.3766, 81.2656, -120.764
6.224, 47, -29.9174, -18.5339, 41.4633, 44.3853, 81.3105, -120.297
6.23194, 48, -29.4574, -18.5009, 41.3245, 44.3876, 81.3537, -119.833
6.24259, 48, -28.9907, -18.4636, 41.1794, 44.3813, 81.3955, -119.37
6.2508, 49, -28.5183, -18.422, 41.0284, 44.3664, 81.4373, -118.91
6.25605, 49, -28.0423, -18.3759, 40.8715, 44.3427, 81.4789, -118.451
6.2642, 50, -27.5641, -18.3253, 40.7084, 44.3091, 81.5194, -117.993
6.27395, 50, -27.083, -18.2698, 40.5387, 44.2661, 81.5602, -117.536
6.28035, 51, -26.5964, -18.2086, 40.3625, 44.2146, 81.6026, -117.08
6.28953, 51, -26.102, -18.142, 40.1799, 44.1525, 81.6449, -116.626
6.29871, 52, -25.6003, -18.0698, 39.9901, 44.0811, 81.6874, -116.171
6.30569, 52, -25.0936, -17.9921, 39.7928, 43.9992, 81.7313, -115.718
6.31263, 52, -24.5846, -17.909, 39.5894, 43.9069, 81.7763, -115.265
6.32175, 53, -24.0731, -17.8199, 39.3791, 43.8046, 81.8212, -114.812
6.3323, 54, -23.2957, -17.6742, 39.0484, 43.631, 81.8929, -114.135
6.33729, 54, -23.0326, -17.6225, 38.9346, 43.5676, 81.9181, -113.908
6.34479, 54, -22.5001, -17.5146, 38.7012, 43.4322, 81.9694, -113.456
6.35652, 55, -21.9622, -17.4008, 38.3364, 43.2069, 82.0524, -112.777
6.3605, 55, -21.6922, -17.3417, 38.3364, 43.126, 82.0808, -112.551
6.36992, 56, -20.8784, -17.1559, 37.9573, 42.9562, 82.1381, -112.099
6.37655, 56, -20.6049, -17.091, 37.8275, 42.8672, 82.1676, -111.648
6.38378, 57, -20.0515, -16.957, 37.5638, 42.6812, 82.2273, -111.422
6.39186, 58, -19.4887, -16.8171, 37.2939, 42.4836, 82.2875, -110.972
6.40502, 58, -18.3458, -16.5198, 36.7346, 42.0505, 82.4145, -110.072
6.40778, 59, -18.3458, -16.5198, 36.7346, 42.0505, 82.4145, -110.072
6.4158, 59, -17.7702, -16.3631, 36.4445, 41.8146, 82.4822, -109.622
6.42656, 60, -16.8946, -16.1203, 35.9973, 41.4364, 82.5881, -108.948
6.43185, 60, -16.5977, -16.0369, 35.845, 41.3039, 82.6249, -108.723
6.44192, 61, -15.6954, -15.7783, 35.3813, 40.887, 82.7363, -108.049
6.44781, 61, -15.3924, -15.6893, 35.224, 40.7417, 82.7743, -107.825
6.45768, 62, -14.4794, -15.4162, 34.7449, 40.2878, 82.8904, -107.153
6.46382, 62, -14.1725, -15.323, 34.5826, 40.1298, 82.9303, -106.929
6.47198, 63, -13.5511, -15.1327, 34.2546, 39.8041, 83.0116, -106.48
6.47979, 63, -12.9196, -14.9357, 33.9212, 39.4648, 83.0959, -106.03
6.48857, 64, -12.281, -14.7323, 33.5821, 39.1112, 83.1835, -105.581
6.49862, 64, -11.3148, -14.4159, 33.061, 38.5539, 83.3225, -104.903
6.50559, 65, -10.9892, -14.3069, 32.884, 38.3602, 83.4217, -104.449
6.51785, 65, -9.99502, -13.9697, 32.3425, 37.7541, 83.5268, -103.993
6.51999, 66, -9.65836, -13.8542, 32.1595, 37.5427, 83.5814, -103.764
6.53204, 66, -8.63768, -13.497, 31.6033, 36.882, 83.755, -103.076
6.53679, 67, -8.29504, -13.3744, 31.415, 36.6529, 83.8158, -102.845
6.54387, 67, -7.6042, -13.1243, 31.034, 36.1821, 83.942, -102.383
6.55283, 68, -6.9039, -12.867, 30.6481, 35.6962, 84.0746, -101.918
6.5609, 68, -6.19551, -12.6025, 30.2591, 35.196, 84.2131, -101.451
6.5678, 69, -5.4815, -12.3328, 29.8666, 34.6836, 84.3579, -100.983
6.57593, 69, -4.76297, -12.0568, 29.4708, 34.1589, 84.508, -100.513
6.58383, 70, -4.03773, -11.7745, 29.073, 33.6242, 84.6634, -100.041
6.59275, 70, -3.30499, -11.4846, 28.6753, 33.078, 84.8238, -99.567
6.60246, 71, -2.56551, -11.1859, 28.2774, 32.519, 85.0748, -98.8545
6.6086, 71, -1.81994, -10.8802, 27.8772, 31.9465, 85.1622, -98.6165
6.61588, 72, -1.06761, -10.5679, 27.475, 31.359, 85.3438, -98.1389
6.62383, 72, -0.309483, -10.2503, 27.0705, 30.7544, 85.535, -97.6594
6.63107, 73, 0.453132, -9.92689, 26.6641, 30.1352, 85.7352, -97.178
6.64383, 73, 1.60461, -9.42837, 26.0529, 29.1852, 86.0509, -96.4543
6.65151, 74, 2.37745, -9.08841, 25.6467, 28.5404, 86.2709, -95.9702
6.65577, 74, 2.76499, -8.9165, 25.4449, 28.2156, 86.3835, -95.7278
6.66705, 75, 3.93083, -8.39157, 24.847, 27.2315, 86.7303, -94.9982
6.67321, 75, 4.32045, -8.2132, 24.65, 26.9015, 86.8486, -94.7543
6.67987, 76, 5.10123, -7.85244, 24.2598, 26.2414, 87.0898, -94.2656
6.68789, 76, 5.88364, -7.48571, 23.8742, 25.5788, 87.3366, -93.7745
6.69589, 76, 6.66696, -7.11368, 23.4936, 24.9151, 87.59, -93.2812
6.70536, 77, 7.45133, -6.734, 23.1164, 24.2518, 87.8511, -92.7859
6.72378, 78, 9.42026, -5.74181, 22.187, 22.578, 88.5493, -91.5366
6.72565, 78, 9.42026, -5.74181, 22.187, 22.578, 88.5493, -91.5366
6.7402, 79, 11.0023, -4.91112, 21.4561, 21.2104, 89.1684, -90.5181
6.74154, 79, 11.0023, -4.91112, 21.4561, 21.2104, 89.1684, -90.5181
6.74461, 79, 11.3975, -4.69869, 21.275, 20.8659, 89.3315, -90.2603
6.75168, 80, 12.1849, -4.26583, 20.9167, 20.1753, 89.6657, -89.7407
6.7597, 80, 12.9664, -3.82227, 20.5635, 19.4892, 90.0094, -89.2144
6.76786, 81, 13.7415, -3.37145, 20.2171, 18.8135, 90.3603, -88.6834
6.77583, 81, 14.5095, -2.91502, 19.8789, 18.1526, 90.7168, -88.1478
6.78398, 82, 15.2688, -2.45115, 19.5513, 17.5079, 91.077, -87.61
6.79201, 82, 16.0183, -1.97969, 19.2338, 16.8813, 91.4408, -87.0699
6.79867, 83, 16.3886, -1.74123, 19.0787, 16.575, 91.624, -86.7994
6.80665, 83, 17.1199, -1.26038, 18.776, 15.9776, 91.9938, -86.2581
6.81705, 84, 18.1903, -0.530962, 18.3384, 15.1157, 92.5591, -85.4481
6.82421, 84, 18.884, -0.039967, 18.0564, 14.5653, 92.9444, -84.9096
6.83299, 85, 19.5607, 0.45629, 17.7802, 14.0349, 93.337, -84.3728
6.83863, 85, 19.8923, 0.706502, 17.6446, 13.7769, 93.5364, -84.1049
6.84826, 85, 20.5424, 1.21079, 17.378, 13.0323, 94.1442, -83.3036
6.85627, 86, 21.176, 1.71916, 17.1169, 12.5597, 94.5565, -82.77
6.86362, 86, 21.7951, 2.23372, 16.8626, 12.3306, 94.7651, -82.5025
6.87166, 87, 22.4011, 2.75785, 16.6137, 11.8866, 95.1875, -81.9656
6.87968, 87, 22.9962, 3.29211, 16.369, 11.4606, 95.6173, -81.4249
6.8866, 88, 23.5819, 3.83356, 16.1274, 11.051, 96.0549, -80.8794
6.89563, 88, 24.1576, 4.37988, 15.8883, 10.6572, 96.4992, -80.326
6.90285, 89, 24.722, 4.93404, 15.6538, 10.2797, 96.9494, -79.7641
6.91392, 89, 25.5514, 5.78793, 15.313, 9.74493, 97.6331, -78.9017
6.9197, 89, 25.8252, 6.07847, 15.2019, 9.57537, 97.8623, -78.6088
6.92763, 90, 26.3699, 6.66716, 14.9846, 9.24865, 98.323, -78.0125
6.93466, 90, 26.9059, 7.26499, 14.7738, 8.93906, 98.7877, -77.4028
6.94362, 91, 27.429, 7.87134, 14.5686, 8.64698, 99.2583, -76.7798
6.95062, 91, 27.9399, 8.48779, 14.3675, 8.37289, 99.7355, -76.1443
6.95962, 92, 28.4428, 9.11475, 14.1699, 8.11823, 100.219, -75.4968
6.96762, 92, 28.9397, 9.7519, 13.9752, 7.88298, 100.71, -74.839
6.97569, 93, 29.4274, 10.3966, 13.7841, 7.6685, 101.206, -74.1731
6.98363, 93, 29.9026, 11.0478, 13.5989, 7.47558, 101.704, -73.4982
6.99263, 94, 30.3632, 11.705, 13.4204, 7.30542, 102.203, -72.8156
6.99862, 94, 30.8096, 12.3671, 13.2483, 7.15879, 102.699, -72.1282
7.00765, 95, 31.2421, 13.0321, 13.0834, 7.03578, 103.193, -71.4349
7.01583, 96, 31.6611, 13.6988, 12.9264, 6.93646, 103.683, -70.7353
7.02462, 96, 32.0647, 14.3664, 12.7762, 6.86094, 104.169, -70.0318
7.03184, 97, 32.4517, 15.0345, 12.632, 6.80985, 104.651, -69.3234
7.03972, 97, 32.8226, 15.7018, 12.4947, 6.77987, 105.127, -68.6103
7.04783, 98, 33.178, 16.3657, 12.3655, 6.77087, 105.595, -67.8961
7.05562, 98, 33.5189, 17.0239, 12.2455, 6.78384, 106.055, -67.1818
7.06391, 99, 33.8453, 17.6736, 12.1353, 6.81702, 106.502, -66.4678
7.07165, 99, 34.1572, 18.3144, 12.0354, 6.86944, 106.934, -65.758
7.07971, 99, 34.4561, 18.9458, 11.9458, 6.94165, 107.351, -65.0539
7.08767, 100, 34.7431, 19.567, 11.8662, 7.03056, 107.752, -64.3551
7.09562, 100, 35.0173, 20.1771, 11.7957, 7.13623, 108.137, -63.6643
7.10369, 101, 35.2777, 20.7741, 11.7331, 7.25634, 108.507, -62.9836
7.11165, 101, 35.525, 21.3569, 11.6781, 7.38894, 108.862, -62.3112
7.11964, 102, 35.7598, 21.9249, 11.6305, 7.53162, 109.203, -61.6506
7.12769, 102, 35.9815, 22.4778, 11.5896, 7.68229, 109.529, -61.0038
7.13563, 102, 36.1914, 23.016, 11.5555, 7.83895, 109.84, -60.3705
7.14362, 103, 36.3925, 23.5389, 11.5284, 8.00054, 110.135, -59.7517
7.1517, 103, 36.5876, 24.0469, 11.5095, 8.16776, 110.415, -59.1477
7.15962, 104, 36.7775, 24.5422, 11.4987, 8.34095, 110.678, -58.5581
7.16766, 104, 36.9628, 25.0254, 11.4947, 8.52208, 110.924, -57.9782
7.17573, 104, 37.1443, 25.496, 11.4968, 8.71209, 111.152, -57.4076
7.18372, 104, 37.3193, 25.9542, 11.5045, 8.91085, 111.362, -56.8441
7.19172, 104, 37.4841, 26.3993, 11.5163, 9.11825, 111.556, -56.287
7.19978, 104, 37.6395, 26.8315, 11.5312, 9.33249, 111.736, -55.7367
7.20776, 104, 37.7893, 27.2519, 11.5488, 9.55065, 111.904, -55.1962
7.21573, 104, 37.9368, 27.6592, 11.5681, 9.77046, 112.063, -54.6691
7.22379, 104, 38.0831, 28.0532, 11.588, 9.98868, 112.214, -54.1594
7.23169, 104, 38.2262, 28.4334, 11.6079, 10.2036, 112.358, -53.6681
7.23965, 104, 38.3648, 28.8007, 11.627, 10.4135, 112.494, -53.1988
7.24822, 104, 38.4973, 29.1528, 11.6453, 10.6167, 112.623, -52.7528
7.25462, 104, 38.5609, 29.3227, 11.6542, 10.7155, 112.684, -52.5387
7.26406, 104, 38.74, 29.8054, 11.6794, 10.9993, 112.858, -51.9343
7.27182, 104, 38.8496, 30.1039, 11.6946, 11.1771, 112.963, -51.5618
7.27984, 104, 38.9514, 30.3841, 11.7088, 11.3454, 113.062, -51.2147
7.288, 104, 39.0458, 30.6445, 11.7218, 11.5034, 113.153, -50.893
7.29601, 104, 39.1322, 30.8854, 11.7336, 11.6505, 113.236, -50.5966
7.30269, 104, 39.1722, 30.9986, 11.739, 11.72, 113.275, -50.4578
7.3125, 104, 39.2794, 31.308, 11.7543, 11.9109, 113.382, -50.0795
7.32015, 104, 39.3407, 31.4896, 11.7634, 12.0234, 113.443, -49.8588
7.32818, 104, 39.3945, 31.6519, 11.7712, 12.1239, 113.498, -49.6632
7.33658, 104, 39.4417, 31.7949, 11.7782, 12.2125, 113.545, -49.4926
7.34422, 104, 39.4827, 31.9195, 11.7847, 12.2886, 113.585, -49.3467
7.35223, 104, 39.5011, 32.0268, 11.7905, 12.353, 113.619, -49.2241
7.36065, 104, 39.5466, 32.1175, 11.7956, 12.4056, 113.647, -49.1245
7.36761, 104, 39.559, 32.1569, 11.798, 12.4272, 113.658, -49.0823
7.37564, 104, 39.5804, 32.2252, 11.8023, 12.4634, 113.677, -49.0128
7.38367, 104, 39.5975, 32.2807, 11.8062, 12.4908, 113.691, -48.9617
7.39162, 104, 39.611, 32.325, 11.8098, 12.5108, 113.7, -48.9252
7.39961, 104, 39.6216, 32.3588, 11.813, 12.5245, 113.706, -48.9007
7.40771, 104, 39.6294, 32.3841, 11.8159, 12.5337, 113.71, -48.8851
7.41563, 104, 39.6347, 32.4029, 11.8184, 12.5392, 113.712, -48.8762
7.42361, 104, 39.638, 32.4161, 11.8203, 12.5421, 113.713, -48.8717
7.43167, 104, 39.6399, 32.4247, 11.8218, 12.5436, 113.714, -48.8696
7.43961, 105, 39.6408, 32.4301, 11.8229, 12.5443, 113.714, -48.8687
7.44766, 105, 39.6408, 32.4335, 11.8238, 12.5447, 113.714, -48.8684
7.45569, 105, 39.6401, 32.4359, 11.8246, 12.5449, 113.714, -48.8684
7.464, 105, 39.6392, 32.4376, 11.8253, 12.545, 113.714, -48.8685
7.47162, 105, 39.638, 32.4389, 11.8259, 12.5451, 113.714, -48.8687
7.47966, 105, 39.6367, 32.4402, 11.8264, 12.5451, 113.714, -48.869
7.48762, 105, 39.6357, 32.4413, 11.8268, 12.5451, 113.714, -48.8692
7.49754, 105, 39.635, 32.443, 11.8277, 12.5451, 113.714, -48.8695
7.50367, 105, 39.6348, 32.4435, 11.828, 12.5451, 113.714, -48.8697
7.51162, 105, 39.6345, 32.4445, 11.8286, 12.5451, 113.714, -48.87
7.51961, 105, 39.6343, 32.4454, 11.829, 12.5451, 113.714, -48.8702
7.52768, 105, 39.6341, 32.446, 11.8293, 12.5451, 113.714, -48.8704
7.53561, 105, 39.6338, 32.4465, 11.8296, 12.5451, 113.714, -48.8706
7.54364, 105, 39.6335, 32.4468, 11.8299, 12.5451, 113.714, -48.8707
7.55168, 105, 39.6332, 32.447, 11.8301, 12.5451, 113.714, -48.8709
