hehonglu123/Motion-Primitive-Planning/ILC/recorded_data/realrobot/from_NX/iteration_41/run_0.csv
timestamp, cmd_num, J1, J2, J3, J4, J5, J6
0.000376, -1, 39.628, 32.4456, 11.8317, 12.5439, 113.713, -48.8735
0.004363, -1, 39.628, 32.4456, 11.8317, 12.5439, 113.713, -48.8735
0.007776, -1, 39.628, 32.4456, 11.8317, 12.5439, 113.713, -48.8735
0.028608, -1, 39.6281, 32.4456, 11.8317, 12.5438, 113.713, -48.8734
0.031328, -1, 39.6281, 32.4456, 11.8317, 12.5439, 113.713, -48.8734
0.034437, -1, 39.6281, 32.4456, 11.8317, 12.5439, 113.713, -48.8734
0.039652, -1, 39.628, 32.4456, 11.8317, 12.5439, 113.713, -48.8734
0.047604, -1, 39.628, 32.4456, 11.8317, 12.5439, 113.713, -48.8734
0.055652, -1, 39.6276, 32.4456, 11.8317, 12.5439, 113.713, -48.8734
0.063582, -1, 39.6255, 32.4452, 11.8317, 12.5438, 113.713, -48.8735
0.07159, -1, 39.6203, 32.4439, 11.8316, 12.5438, 113.713, -48.8736
0.079638, -1, 39.6116, 32.4411, 11.8314, 12.5439, 113.713, -48.8749
0.087594, -1, 39.5985, 32.4359, 11.8312, 12.5439, 113.712, -48.8789
0.095587, -1, 39.5788, 32.4274, 11.8312, 12.5439, 113.708, -48.8898
0.103631, -1, 39.5503, 32.4149, 11.8316, 12.5439, 113.701, -48.91
0.111598, -1, 39.5119, 32.3974, 11.8334, 12.5438, 113.689, -48.9433
0.119585, -1, 39.4624, 32.3737, 11.8379, 12.5439, 113.67, -48.9934
0.127648, -1, 39.4004, 32.3433, 11.846, 12.544, 113.643, -49.065
0.135605, -1, 39.325, 32.3055, 11.8585, 12.5442, 113.606, -49.1592
0.143581, -1, 39.2359, 32.2598, 11.876, 12.5446, 113.559, -49.279
0.151652, -1, 39.1329, 32.2062, 11.8983, 12.5456, 113.502, -49.4244
0.159599, -1, 39.0158, 32.1447, 11.9249, 12.547, 113.435, -49.5945
0.167599, -1, 38.8853, 32.0758, 11.9553, 12.5487, 113.359, -49.7871
0.17565, -1, 38.7425, 32.0004, 11.9892, 12.5508, 113.275, -49.9991
0.183704, -1, 38.5882, 31.9189, 12.0253, 12.553, 113.185, -50.227
0.191582, -1, 38.4239, 31.8326, 12.0629, 12.5553, 113.09, -50.467
0.199661, -1, 38.2516, 31.7422, 12.1016, 12.5578, 112.992, -50.7153
0.331026, -1, 35.2089, 30.1826, 12.7231, 12.5978, 111.35, -54.8674
0.332973, -1, 35.1127, 30.1334, 12.7426, 12.599, 111.298, -54.9978
0.334287, -1, 35.1127, 30.1334, 12.7426, 12.599, 111.298, -54.9978
0.336109, -1, 35.0164, 30.0842, 12.7621, 12.6003, 111.247, -55.1283
0.337599, -1, 35.0164, 30.0842, 12.7621, 12.6003, 111.247, -55.1283
0.338806, -1, 35.0164, 30.0842, 12.7621, 12.6003, 111.247, -55.1283
0.340854, -1, 34.9202, 30.035, 12.7816, 12.6015, 111.196, -55.2587
0.344703, -1, 34.8241, 29.9858, 12.8011, 12.6028, 111.144, -55.3889
0.346033, -1, 34.8241, 29.9858, 12.8011, 12.6028, 111.144, -55.3889
0.348676, -1, 34.8241, 29.9858, 12.8011, 12.6028, 111.092, -55.5192
0.349969, -1, 34.728, 29.9365, 12.8205, 12.6041, 111.092, -55.5192
0.351167, -1, 34.728, 29.9365, 12.8205, 12.6041, 111.092, -55.5192
0.353343, -1, 34.6318, 29.8872, 12.8399, 12.6053, 111.041, -55.6497
0.354617, -1, 34.6318, 29.8872, 12.8399, 12.6053, 111.041, -55.6497
0.356726, -1, 34.5356, 29.838, 12.8594, 12.6065, 110.989, -55.7802
0.358462, -1, 34.5356, 29.838, 12.8594, 12.6065, 110.989, -55.7802
0.360476, -1, 34.4395, 29.7888, 12.8789, 12.6077, 110.938, -55.9106
0.361741, -1, 34.4395, 29.7888, 12.8789, 12.6077, 110.938, -55.9106
0.362941, -1, 34.4395, 29.7888, 12.8789, 12.6077, 110.938, -55.9106
0.365103, -1, 34.3434, 29.7396, 12.8984, 12.609, 110.886, -56.0411
0.368147, -1, 34.2474, 29.6904, 12.9179, 12.6103, 110.835, -56.1716
0.376276, -1, 34.0554, 29.5922, 12.9569, 12.6128, 110.732, -56.4323
0.384158, -1, 33.9595, 29.4939, 12.996, 12.6155, 110.629, -56.693
0.392193, -1, 33.7678, 29.4448, 13.0155, 12.6168, 110.525, -56.9538
0.400303, -1, 33.576, 29.3463, 13.0543, 12.6193, 110.422, -57.215
0.407573, -1, 33.3837, 29.248, 13.0934, 12.6219, 110.371, -57.3456
0.415572, -1, 33.1912, 29.1494, 13.1324, 12.6245, 110.268, -57.6064
0.423627, -1, 32.9985, 29.0508, 13.1712, 12.6271, 110.165, -57.8674
0.431571, -1, 32.8054, 28.9523, 13.2102, 12.6297, 110.062, -58.1285
0.439595, -1, 32.6121, 28.8536, 13.2492, 12.6324, 109.959, -58.39
0.447589, -1, 32.4186, 28.755, 13.2881, 12.635, 109.855, -58.6511
0.455568, -1, 32.2247, 28.6563, 13.3271, 12.6376, 109.753, -58.9121
0.463624, -1, 32.0305, 28.5575, 13.366, 12.6403, 109.649, -59.1731
0.471563, -1, 31.8366, 28.4587, 13.4049, 12.643, 109.546, -59.4345
0.479587, -1, 31.643, 28.36, 13.4441, 12.6456, 109.443, -59.6961
0.487705, -1, 31.4495, 28.2613, 13.4831, 12.6485, 109.34, -59.9572
0.495574, -1, 31.2564, 28.1628, 13.5221, 12.6511, 109.237, -60.2186
0.503569, -1, 31.0638, 28.0644, 13.5612, 12.6539, 109.134, -60.4801
0.511662, -1, 30.8714, 27.9659, 13.6003, 12.6568, 109.031, -60.7415
0.519652, -1, 30.6793, 27.8673, 13.6392, 12.6596, 108.928, -61.0027
0.527567, -1, 30.4875, 27.7688, 13.6783, 12.6624, 108.824, -61.264
0.53564, -1, 30.2955, 27.6701, 13.7173, 12.6651, 108.721, -61.5255
0.54463, -1, 30.1032, 27.5713, 13.7563, 12.6678, 108.618, -61.7874
0.551571, -1, 29.9106, 27.4726, 13.7954, 12.6706, 108.515, -62.0488
0.559658, -1, 29.7177, 27.3739, 13.8343, 12.6732, 108.412, -62.3105
0.567574, -1, 29.5241, 27.2751, 13.8732, 12.6759, 108.309, -62.5722
0.575567, -1, 29.3301, 27.1763, 13.9122, 12.6784, 108.205, -62.8341
0.583646, -1, 29.1359, 27.0774, 13.9512, 12.681, 108.102, -63.0957
0.591571, -1, 28.9415, 26.9785, 13.9903, 12.6835, 107.998, -63.3571
0.599634, -1, 28.7473, 26.8797, 14.0293, 12.6861, 107.895, -63.6186
0.608011, -1, 28.5532, 26.7809, 14.0683, 12.6886, 107.791, -63.8804
0.615575, -1, 28.3593, 26.6822, 14.1074, 12.6911, 107.688, -64.1422
0.623634, -1, 28.1659, 26.5835, 14.1464, 12.6935, 107.585, -64.4036
0.63237, -1, 27.9728, 26.4847, 14.1854, 12.696, 107.482, -64.6654
0.639565, -1, 27.78, 26.3859, 14.2245, 12.6985, 107.378, -64.9274
0.647634, -1, 27.5874, 26.287, 14.2635, 12.7009, 107.275, -65.1892
0.784626, -1, 24.3028, 24.6069, 14.9264, 12.7404, 105.519, -69.6384
0.785852, -1, 24.3028, 24.6069, 14.9264, 12.7404, 105.519, -69.6384
0.787873, -1, 24.2066, 24.5575, 14.9459, 12.7416, 105.468, -69.7691
0.789092, -1, 24.2066, 24.5575, 14.9459, 12.7416, 105.468, -69.7691
0.790393, -1, 24.2066, 24.5575, 14.9459, 12.7416, 105.468, -69.7691
0.792654, -1, 24.1103, 24.5081, 14.9654, 12.7427, 105.416, -69.8998
0.793874, -1, 24.1103, 24.5081, 14.9654, 12.7427, 105.416, -69.8998
0.79873, -1, 24.014, 24.4588, 14.9849, 12.7438, 105.365, -70.0305
0.804215, -1, 23.8211, 24.3599, 15.0239, 12.7462, 105.261, -70.2921
0.805554, -1, 23.8211, 24.3599, 15.0239, 12.7462, 105.261, -70.2921
0.806753, -1, 23.8211, 24.3599, 15.0239, 12.7462, 105.261, -70.2921
0.808775, -1, 23.7246, 24.3105, 15.0434, 12.7475, 105.209, -70.4229
0.809972, -1, 23.7246, 24.3105, 15.0434, 12.7475, 105.209, -70.4229
0.812025, -1, 23.6281, 24.2611, 15.0628, 12.7486, 105.158, -70.5537
0.813417, -1, 23.6281, 24.2611, 15.0628, 12.7486, 105.158, -70.5537
0.816712, -1, 23.5315, 24.2116, 15.0823, 12.7498, 105.106, -70.6847
0.818045, -1, 23.5315, 24.2116, 15.0823, 12.7498, 105.106, -70.6847
0.820703, -1, 23.4348, 24.1622, 15.1018, 12.751, 105.054, -70.8156
0.821955, -1, 23.4348, 24.1622, 15.1018, 12.751, 105.054, -70.8156
0.82387, -1, 23.3381, 24.1128, 15.1213, 12.7521, 105.003, -70.9464
0.826042, -1, 23.3381, 24.1128, 15.1213, 12.7521, 105.003, -70.9464
0.827979, -1, 23.2412, 24.0633, 15.1407, 12.7534, 104.951, -71.0773
0.831912, -1, 23.1443, 24.0139, 15.1602, 12.7546, 104.899, -71.2081
0.840059, -1, 22.9504, 23.915, 15.1991, 12.757, 104.796, -71.47
0.848116, -1, 22.7564, 23.8162, 15.238, 12.7595, 104.692, -71.732
0.856117, -1, 22.5626, 23.7175, 15.2771, 12.762, 104.589, -71.9936
0.864145, -1, 22.3689, 23.6189, 15.3161, 12.7644, 104.486, -72.255
0.872187, -1, 22.1758, 23.5202, 15.355, 12.767, 104.382, -72.5163
0.880128, -1, 21.9826, 23.4215, 15.3939, 12.7696, 104.279, -72.7781
0.888285, -1, 21.8862, 23.3721, 15.433, 12.7722, 104.176, -73.0396
0.897021, -1, 21.6937, 23.2734, 15.4719, 12.7749, 104.073, -73.3008
0.903554, -1, 21.5014, 23.1746, 15.4913, 12.7762, 104.021, -73.4316
0.911557, -1, 21.3091, 23.0759, 15.5303, 12.7789, 103.918, -73.6931
0.919612, -1, 21.1167, 22.9772, 15.5693, 12.7815, 103.815, -73.9548
0.92758, -1, 20.9243, 22.8786, 15.6082, 12.7842, 103.712, -74.216
0.935568, -1, 20.7318, 22.78, 15.6472, 12.7868, 103.609, -74.4772
0.943596, -1, 20.5391, 22.6814, 15.6861, 12.7896, 103.505, -74.7384
0.951557, -1, 20.3461, 22.5828, 15.7249, 12.7923, 103.403, -74.9998
0.959604, -1, 20.1524, 22.484, 15.7639, 12.795, 103.299, -75.261
0.967549, -1, 19.9588, 22.3853, 15.8028, 12.7978, 103.196, -75.5221
0.977925, -1, 19.6683, 22.2374, 15.8609, 12.8018, 103.042, -75.914
0.983603, -1, 19.5716, 22.1881, 15.8804, 12.8032, 102.99, -76.0446
0.991587, -1, 19.3782, 22.0895, 15.9194, 12.806, 102.887, -76.306
0.999552, -1, 19.1852, 21.9908, 15.9582, 12.8086, 102.784, -76.5668
1.00762, -1, 18.9924, 21.8922, 15.9971, 12.8115, 102.681, -76.8275
1.01556, -1, 18.7999, 21.7936, 16.0359, 12.8142, 102.578, -77.0886
1.02594, -1, 18.6077, 21.6948, 16.0747, 12.817, 102.475, -77.3496
1.03163, -1, 18.4159, 21.5963, 16.1136, 12.8196, 102.372, -77.6103
1.04061, -1, 18.2239, 21.4978, 16.1525, 12.8222, 102.27, -77.871
1.04755, -1, 18.032, 21.3993, 16.1913, 12.8248, 102.167, -78.1318
1.05563, -1, 17.8402, 21.301, 16.2302, 12.8274, 102.064, -78.3928
1.06355, -1, 17.6482, 21.2027, 16.2691, 12.8299, 101.961, -78.6533
1.07155, -1, 17.4558, 21.1044, 16.3079, 12.8324, 101.858, -78.9137
1.07957, -1, 17.263, 21.0061, 16.3468, 12.8349, 101.755, -79.1742
1.08755, -1, 17.0699, 20.9078, 16.3855, 12.8373, 101.652, -79.4348
1.09563, -1, 16.8769, 20.8095, 16.4243, 12.8397, 101.549, -79.6953
1.10355, -1, 16.6838, 20.7114, 16.4632, 12.842, 101.446, -79.9557
1.11155, -1, 16.4909, 20.6132, 16.5018, 12.8444, 101.344, -80.2163
1.11962, -1, 16.2981, 20.5149, 16.5406, 12.8467, 101.241, -80.477
1.12755, -1, 16.1058, 20.4165, 16.5794, 12.8491, 101.138, -80.7376
1.13556, -1, 15.9138, 20.3182, 16.6181, 12.8514, 101.036, -80.9977
1.14361, -1, 15.7221, 20.2196, 16.6568, 12.8537, 100.933, -81.2577
1.15155, -1, 15.5307, 20.1212, 16.6954, 12.8561, 100.83, -81.5179
1.15957, -1, 15.3395, 20.023, 16.7341, 12.8584, 100.728, -81.778
1.16762, -1, 15.1483, 19.9247, 16.7729, 12.8607, 100.625, -82.0379
1.17556, -1, 14.9571, 19.8265, 16.8116, 12.863, 100.523, -82.2978
1.18357, -1, 14.7658, 19.7284, 16.8503, 12.8652, 100.42, -82.5577
1.19168, -1, 14.5743, 19.6302, 16.889, 12.8675, 100.317, -82.8178
1.19955, -1, 14.3825, 19.5321, 16.9277, 12.8698, 100.215, -83.0775
1.20759, -1, 14.1902, 19.4341, 16.9664, 12.8721, 100.112, -83.337
1.21558, -1, 13.9979, 19.3361, 17.0051, 12.8744, 100.01, -83.5966
1.22363, -1, 13.8055, 19.2383, 17.0436, 12.8767, 99.9074, -83.8563
1.23166, -1, 13.6131, 19.1405, 17.0823, 12.8789, 99.8049, -84.1158
1.23972, -1, 13.4207, 19.0425, 17.1211, 12.8813, 99.7023, -84.375
1.24772, -1, 13.2287, 18.9446, 17.1595, 12.8835, 99.6001, -84.6344
1.25568, -1, 13.037, 18.8467, 17.1981, 12.886, 99.4977, -84.8937
1.26365, -1, 12.8459, 18.7488, 17.2368, 12.8883, 99.3952, -85.1532
1.27171, -1, 12.6549, 18.6508, 17.2753, 12.8907, 99.2931, -85.4122
1.27969, -1, 12.4642, 18.553, 17.3139, 12.8932, 99.1906, -85.671
1.28763, -1, 12.274, 18.4553, 17.3524, 12.8956, 99.0883, -85.93
1.29565, -1, 12.0838, 18.3575, 17.3908, 12.898, 98.9864, -86.189
1.3044, -1, 11.8934, 18.2599, 17.4295, 12.9003, 98.8842, -86.4478
1.31172, -1, 11.7029, 18.1623, 17.4681, 12.9027, 98.7823, -86.7062
1.31984, -1, 11.5121, 18.0646, 17.5065, 12.9052, 98.6806, -86.9648
1.32863, -1, 11.321, 17.967, 17.5451, 12.9076, 98.5786, -87.2235
1.33593, -1, 11.1298, 17.8695, 17.5837, 12.9101, 98.4767, -87.482
1.344, -1, 10.9383, 17.772, 17.6222, 12.9126, 98.3748, -87.7402
1.35281, -1, 10.7467, 17.6746, 17.6607, 12.915, 98.2727, -87.9983
1.3602, -1, 10.5551, 17.5771, 17.699, 12.9175, 98.1708, -88.2567
1.36814, -1, 10.3638, 17.4795, 17.7374, 12.9201, 98.069, -88.515
1.37697, -1, 10.1728, 17.382, 17.7759, 12.9226, 97.9671, -88.7729
1.38415, -1, 9.98216, 17.2844, 17.8143, 12.9253, 97.8653, -89.0311
1.39224, -1, 9.79189, 17.1869, 17.8526, 12.9278, 97.7634, -89.2892
1.40098, -1, 9.6969, 17.1381, 17.8718, 12.9305, 97.6614, -89.5475
1.40755, -1, 9.50726, 17.0407, 17.9102, 12.9319, 97.6104, -89.6765
1.41561, -1, 9.31792, 16.9434, 17.9485, 12.9347, 97.5086, -89.9339
1.42354, -1, 9.1286, 16.846, 17.9869, 12.9373, 97.4067, -90.1915
1.43154, -1, 8.93922, 16.7488, 18.0252, 12.94, 97.3049, -90.4492
1.43965, -1, 8.74969, 16.6517, 18.0636, 12.9426, 97.2033, -90.7067
1.44754, -1, 8.56004, 16.5545, 18.102, 12.9452, 97.1016, -90.964
1.45562, -1, 8.37028, 16.4575, 18.1404, 12.9479, 97.0002, -91.2212
1.46354, -1, 8.18, 16.3605, 18.1786, 12.9506, 96.8986, -91.4784
1.47153, -1, 7.98955, 16.2636, 18.217, 12.9532, 96.797, -91.7358
1.47967, -1, 7.79912, 16.1667, 18.2553, 12.9559, 96.6956, -91.9926
1.48753, -1, 7.60854, 16.0698, 18.2935, 12.9586, 96.594, -92.2493
1.49555, -1, 7.41812, 15.9728, 18.3319, 12.9611, 96.4926, -92.5061
1.50362, -1, 7.22799, 15.8759, 18.37, 12.9637, 96.3915, -92.7628
1.51154, -1, 7.03814, 15.7789, 18.4082, 12.9662, 96.29, -93.0196
1.51959, -1, 6.84867, 15.682, 18.4466, 12.9688, 96.1887, -93.2759
1.52767, -1, 6.65976, 15.5851, 18.4846, 12.9713, 96.088, -93.5322
1.53554, -1, 6.47122, 15.4883, 18.5227, 12.9739, 95.9869, -93.7888
1.54454, -1, 6.28299, 15.3916, 18.5609, 12.9765, 95.8858, -94.0451
1.55161, -1, 6.09492, 15.2949, 18.5991, 12.979, 95.7851, -94.3011
1.55961, -1, 5.90661, 15.1982, 18.6372, 12.9813, 95.684, -94.557
1.56753, -1, 5.71818, 15.1015, 18.6754, 12.9836, 95.5831, -94.813
1.57561, -1, 5.52965, 15.0048, 18.7135, 12.9859, 95.4825, -95.069
1.58362, -1, 5.3409, 14.9083, 18.7516, 12.9883, 95.3816, -95.3246
1.59158, -1, 5.15181, 14.8119, 18.7898, 12.9905, 95.2809, -95.58
1.5996, -1, 4.96239, 14.7156, 18.8278, 12.9928, 95.1803, -95.8356
1.6076, -1, 4.77298, 14.6192, 18.8659, 12.9951, 95.0795, -96.0911
1.61554, -1, 4.58358, 14.5228, 18.904, 12.9972, 94.9787, -96.3464
1.62388, -1, 4.3944, 14.4264, 18.942, 12.9995, 94.878, -96.6013
1.63163, -1, 4.20555, 14.33, 18.98, 13.0017, 94.7771, -96.8561
1.63959, -1, 4.01686, 14.2335, 19.018, 13.004, 94.6763, -97.1112
1.64832, -1, 3.82877, 14.1373, 19.0559, 13.0063, 94.5755, -97.3664
1.65554, -1, 3.64121, 14.0411, 19.0939, 13.0085, 94.4748, -97.6211
1.66355, -1, 3.45404, 13.945, 19.1318, 13.0109, 94.3742, -97.8758
1.67231, -1, 3.26707, 13.8489, 19.1696, 13.0131, 94.2735, -98.1305
1.67958, -1, 3.08, 13.7529, 19.2075, 13.0154, 94.1727, -98.3853
1.68754, -1, 2.89298, 13.6568, 19.2455, 13.0176, 94.0721, -98.6396
1.69663, -1, 2.70593, 13.5608, 19.2833, 13.0199, 93.9715, -98.8937
1.70353, -1, 2.51864, 13.4648, 19.3213, 13.0221, 93.871, -99.1478
1.71179, -1, 2.33122, 13.3689, 19.359, 13.0244, 93.7708, -99.402
1.7204, -1, 2.14342, 13.2732, 19.3968, 13.0267, 93.6704, -99.656
1.72759, -1, 1.9553, 13.1773, 19.4347, 13.0289, 93.5702, -99.9096
1.73584, -1, 1.76717, 13.0815, 19.4725, 13.0313, 93.4703, -100.163
1.74443, -1, 1.57894, 12.9857, 19.5102, 13.0334, 93.3701, -100.417
1.75165, -1, 1.39086, 12.8899, 19.5481, 13.0357, 93.2701, -100.671
1.76034, -1, 1.20309, 12.7941, 19.5858, 13.0381, 93.1703, -100.924
1.76844, -1, 1.01561, 12.6983, 19.6235, 13.0405, 93.0701, -101.177
1.7756, -1, 0.828758, 12.6027, 19.6613, 13.0428, 92.9702, -101.43
1.78424, -1, 0.642514, 12.5072, 19.6989, 13.0452, 92.8706, -101.683
1.79158, -1, 0.45656, 12.4117, 19.7365, 13.0476, 92.7706, -101.936
1.79961, -1, 0.270829, 12.3163, 19.7743, 13.05, 92.671, -102.189
1.80856, -1, 0.0853906, 12.2209, 19.8118, 13.0525, 92.5717, -102.441
1.81653, -1, -0.100073, 12.1256, 19.8494, 13.0549, 92.4719, -102.694
1.82382, -1, -0.285695, 12.0304, 19.8871, 13.0574, 92.3723, -102.946
1.83264, -1, -0.471612, 11.9352, 19.9247, 13.0598, 92.2731, -103.198
1.84074, -1, -0.6578, 11.8401, 19.9622, 13.0623, 92.1735, -103.45
1.84799, -1, -0.844226, 11.7451, 19.9997, 13.0648, 92.074, -103.702
1.85693, -1, -1.0309, 11.6501, 20.0372, 13.0673, 91.9748, -103.954
1.86406, -1, -1.21771, 11.555, 20.0747, 13.0698, 91.8753, -104.206
1.87209, -1, -1.40469, 11.4599, 20.1123, 13.0723, 91.7761, -104.458
1.88095, -1, -1.59136, 11.3648, 20.1497, 13.0749, 91.6771, -104.709
1.88814, -1, -1.77779, 11.2697, 20.187, 13.0774, 91.5778, -104.961
1.89453, -1, -1.87088, 11.2222, 20.2058, 13.0787, 91.5281, -105.087
1.90502, -1, -2.05671, 11.1272, 20.2432, 13.0814, 91.429, -105.338
1.91152, -1, -2.24178, 11.0324, 20.2806, 13.0841, 91.3298, -105.589
1.91965, -1, -2.42658, 10.9375, 20.318, 13.0867, 91.2306, -105.84
1.92757, -1, -2.61107, 10.8427, 20.3553, 13.0895, 91.1317, -106.091
1.93552, -1, -2.79507, 10.7479, 20.3926, 13.0921, 91.0326, -106.342
1.94357, -1, -2.97899, 10.6532, 20.43, 13.0947, 90.9335, -106.592
1.95153, -1, -3.16301, 10.5585, 20.4673, 13.0973, 90.8348, -106.843
1.95963, -1, -3.34731, 10.464, 20.5045, 13.0999, 90.7357, -107.093
1.96752, -1, -3.53195, 10.3695, 20.5418, 13.1024, 90.6368, -107.344
1.97552, -1, -3.71669, 10.2751, 20.5791, 13.105, 90.5381, -107.594
1.98358, -1, -3.90173, 10.1808, 20.6163, 13.1075, 90.4392, -107.844
1.99311, -1, -4.17969, 10.0392, 20.6722, 13.1112, 90.2913, -108.219
1.99957, -1, -4.27252, 9.9921, 20.6907, 13.1124, 90.2421, -108.344
2.00759, -1, -4.4581, 9.89776, 20.7279, 13.1147, 90.1433, -108.594
2.01552, -1, -4.64338, 9.80341, 20.7652, 13.1171, 90.0448, -108.844
2.0236, -1, -4.82831, 9.70922, 20.8023, 13.1195, 89.9465, -109.093
2.03154, -1, -5.01288, 9.61514, 20.8393, 13.1219, 89.8479, -109.342
2.03958, -1, -5.19668, 9.5211, 20.8765, 13.1242, 89.7495, -109.592
2.04853, -1, -5.38006, 9.42704, 20.9136, 13.1266, 89.6512, -109.841
2.05552, -1, -5.56307, 9.33309, 20.9507, 13.1289, 89.5527, -110.09
2.06355, -1, -5.74561, 9.23919, 20.9878, 13.1312, 89.4546, -110.338
2.07158, -1, -5.92792, 9.14527, 21.0248, 13.1335, 89.3566, -110.587
2.07958, -1, -6.11033, 9.0514, 21.0617, 13.1357, 89.2583, -110.836
2.08755, -1, -6.29306, 8.95761, 21.0988, 13.138, 89.1602, -111.084
2.09563, -1, -6.47593, 8.86397, 21.1358, 13.1402, 89.0625, -111.333
2.10352, -1, -6.65912, 8.77031, 21.1726, 13.1424, 88.9644, -111.581
2.11152, -1, -6.84271, 8.67666, 21.2095, 13.1445, 88.8664, -111.829
2.11965, -1, -7.02651, 8.58306, 21.2465, 13.1466, 88.7687, -112.077
2.12751, -1, -7.21065, 8.48952, 21.2833, 13.1487, 88.6707, -112.324
2.13552, -1, -7.3948, 8.39588, 21.3202, 13.1508, 88.5729, -112.572
2.14359, -1, -7.57861, 8.30226, 21.357, 13.153, 88.4754, -112.82
2.15152, -1, -7.76213, 8.20883, 21.3938, 13.1551, 88.3778, -113.067
2.15958, -1, -7.94523, 8.11547, 21.4306, 13.1574, 88.2803, -113.314
2.16758, -1, -8.12784, 8.02214, 21.4674, 13.1596, 88.1831, -113.562
2.17552, -1, -8.30971, 7.92885, 21.5041, 13.1619, 88.0856, -113.809
2.18352, -1, -8.49114, 7.83558, 21.541, 13.1641, 87.9882, -114.056
2.19158, -1, -8.67217, 7.74239, 21.5778, 13.1664, 87.891, -114.302
2.19959, -1, -8.85284, 7.64917, 21.6145, 13.1687, 87.7934, -114.548
2.20759, -1, -9.03364, 7.55606, 21.6512, 13.1709, 87.6961, -114.795
2.21553, -1, -9.21466, 7.46305, 21.6879, 13.1732, 87.599, -115.042
2.22354, -1, -9.39589, 7.37025, 21.7245, 13.1754, 87.5018, -115.288
2.23166, -1, -9.5776, 7.2774, 21.7612, 13.1776, 87.4046, -115.534
2.23969, -1, -9.75956, 7.18455, 21.7979, 13.1798, 87.3076, -115.78
2.24761, -1, -9.94187, 7.09182, 21.8343, 13.182, 87.2103, -116.026
2.2557, -1, -10.1243, 6.99911, 21.8709, 13.1843, 87.1131, -116.272
2.26367, -1, -10.3071, 6.90631, 21.9075, 13.1865, 87.016, -116.518
2.27162, -1, -10.4897, 6.81355, 21.9441, 13.1887, 86.9189, -116.763
2.27975, -1, -10.6719, 6.72087, 21.9806, 13.191, 86.8218, -117.009
2.28752, -1, -10.8537, 6.62828, 22.0171, 13.1933, 86.725, -117.254
2.29556, -1, -11.035, 6.5357, 22.0534, 13.1958, 86.628, -117.499
2.30368, -1, -11.2155, 6.44317, 22.09, 13.1981, 86.5313, -117.744
2.31163, -1, -11.3954, 6.35069, 22.1265, 13.2006, 86.4348, -117.989
2.31981, -1, -11.5751, 6.25825, 22.1629, 13.203, 86.338, -118.234
2.32789, -1, -11.7544, 6.16583, 22.1994, 13.2055, 86.2414, -118.479
2.33585, -1, -11.9335, 6.07353, 22.2358, 13.208, 86.1449, -118.723
2.34398, -1, -12.1128, 5.98125, 22.2722, 13.2104, 86.0482, -118.967
2.35195, -1, -12.2922, 5.88917, 22.3086, 13.2129, 85.9518, -119.211
2.36001, -1, -12.4722, 5.79714, 22.345, 13.2154, 85.8556, -119.456
2.36815, -1, -12.6524, 5.7051, 22.3811, 13.2178, 85.7592, -119.7
2.37607, -1, -12.833, 5.61311, 22.4175, 13.2202, 85.663, -119.943
2.38417, -1, -13.014, 5.52128, 22.4539, 13.2227, 85.5672, -120.187
2.39221, -1, -13.1952, 5.42927, 22.49, 13.2252, 85.4712, -120.431
2.40103, -1, -13.2859, 5.38325, 22.5082, 13.2276, 85.3752, -120.675
2.40751, -1, -13.467, 5.29132, 22.5445, 13.2289, 85.3274, -120.796
2.41557, -1, -13.6475, 5.19944, 22.5807, 13.2315, 85.2316, -121.039
2.42354, -1, -13.8277, 5.10761, 22.6168, 13.234, 85.1358, -121.282
2.43156, -1, -14.0074, 5.01578, 22.653, 13.2366, 85.0401, -121.525
2.43956, -1, -14.1861, 4.92407, 22.6891, 13.2391, 84.9445, -121.768
2.44752, -1, -14.3644, 4.83236, 22.7252, 13.2417, 84.8489, -122.011
2.45557, -1, -14.5423, 4.74072, 22.7615, 13.2442, 84.7534, -122.253
2.46353, -1, -14.72, 4.64913, 22.7977, 13.2468, 84.6577, -122.496
2.47152, -1, -14.8976, 4.55761, 22.8337, 13.2493, 84.562, -122.738
2.47956, -1, -15.0754, 4.46616, 22.8699, 13.2517, 84.4663, -122.981
2.4875, -1, -15.2533, 4.37493, 22.906, 13.2542, 84.3707, -123.223
2.49552, -1, -15.4318, 4.28358, 22.9421, 13.2565, 84.275, -123.464
2.50356, -1, -15.6107, 4.19226, 22.9781, 13.2589, 84.1795, -123.706
2.51151, -1, -15.7898, 4.10104, 23.0141, 13.2612, 84.0839, -123.948
2.51951, -1, -15.969, 4.00981, 23.0501, 13.2635, 83.9885, -124.19
2.52757, -1, -16.1486, 3.91854, 23.0861, 13.2656, 83.8931, -124.431
2.53553, -1, -16.3284, 3.82731, 23.1221, 13.2678, 83.7976, -124.672
2.54351, -1, -16.5078, 3.73614, 23.1579, 13.27, 83.7021, -124.914
2.55158, -1, -16.6868, 3.64503, 23.1938, 13.2722, 83.6068, -125.155
2.5595, -1, -16.8653, 3.55393, 23.2297, 13.2745, 83.5114, -125.396
2.56753, -1, -17.0429, 3.46291, 23.2655, 13.2767, 83.416, -125.637
2.57558, -1, -17.2198, 3.37194, 23.3014, 13.2789, 83.3207, -125.877
2.58353, -1, -17.3964, 3.28108, 23.3372, 13.2812, 83.2257, -126.118
2.59154, -1, -17.5727, 3.19023, 23.373, 13.2832, 83.1305, -126.359
2.59954, -1, -17.7487, 3.09958, 23.4089, 13.2854, 83.0358, -126.599
2.60751, -1, -17.9246, 3.00898, 23.4448, 13.2875, 82.9411, -126.839
2.6156, -1, -18.1008, 2.91848, 23.4805, 13.2896, 82.8462, -127.079
2.6235, -1, -18.2773, 2.82811, 23.5162, 13.2918, 82.7515, -127.32
2.63151, -1, -18.4543, 2.73767, 23.552, 13.2939, 82.6569, -127.559
2.63958, -1, -18.6317, 2.64726, 23.5877, 13.2959, 82.5621, -127.799
2.64751, -1, -18.8094, 2.55693, 23.6233, 13.2979, 82.4676, -128.038
2.65551, -1, -18.9876, 2.46648, 23.6591, 13.2999, 82.3733, -128.278
2.66358, -1, -19.1658, 2.37601, 23.6947, 13.3019, 82.2787, -128.517
2.67151, -1, -19.3439, 2.28564, 23.7303, 13.3039, 82.1844, -128.756
2.6795, -1, -19.5216, 2.19526, 23.7659, 13.306, 82.0906, -128.995
2.68757, -1, -19.6987, 2.10486, 23.8014, 13.3082, 81.9962, -129.234
2.69551, -1, -19.8753, 2.01456, 23.8368, 13.3104, 81.9019, -129.474
2.70352, -1, -20.051, 1.92432, 23.8724, 13.3126, 81.8081, -129.713
2.71169, -1, -20.2262, 1.8341, 23.908, 13.3148, 81.7139, -129.951
2.71951, -1, -20.4012, 1.74397, 23.9434, 13.317, 81.6199, -130.189
2.72759, -1, -20.5757, 1.65389, 23.979, 13.3193, 81.5261, -130.428
2.7364, -1, -20.7502, 1.56394, 24.0145, 13.3214, 81.4321, -130.666
2.74359, -1, -20.9248, 1.47407, 24.0498, 13.3236, 81.3383, -130.904
2.75166, -1, -21.0997, 1.38436, 24.0854, 13.3258, 81.2447, -131.142
2.75963, -1, -21.2751, 1.29459, 24.121, 13.3279, 81.1508, -131.38
2.76765, -1, -21.4508, 1.20489, 24.1563, 13.3301, 81.0569, -131.618
2.77569, -1, -21.6268, 1.11528, 24.1916, 13.3323, 80.9631, -131.855
2.7859, -1, -21.803, 1.02566, 24.2271, 13.3345, 80.8692, -132.093
2.79159, -1, -21.9794, 0.936014, 24.2624, 13.3366, 80.7755, -132.33
2.79953, -1, -22.156, 0.846453, 24.2978, 13.3387, 80.6819, -132.567
2.80834, -1, -22.3325, 0.756918, 24.3332, 13.3409, 80.5882, -132.804
2.81566, -1, -22.5086, 0.667434, 24.3684, 13.3432, 80.4946, -133.041
2.8238, -1, -22.6842, 0.577937, 24.4036, 13.3456, 80.4011, -133.278
2.83259, -1, -22.8592, 0.488501, 24.4389, 13.348, 80.3074, -133.515
2.83989, -1, -23.0332, 0.399089, 24.4741, 13.3504, 80.2138, -133.752
2.84857, -1, -23.2069, 0.309736, 24.5092, 13.3528, 80.1203, -133.989
2.85664, -1, -23.3801, 0.220421, 24.5444, 13.3552, 80.0269, -134.225
2.86404, -1, -23.5532, 0.131199, 24.5796, 13.3577, 79.9335, -134.461
2.87241, -1, -23.7264, 0.0420506, 24.6147, 13.36, 79.8401, -134.697
2.88087, -1, -23.8998, -0.0469943, 24.65, 13.3625, 79.7472, -134.934
2.88813, -1, -24.0733, -0.135914, 24.685, 13.365, 79.654, -135.17
2.8963, -1, -24.2472, -0.224935, 24.7201, 13.3674, 79.5609, -135.405
2.90487, -1, -24.3342, -0.269415, 24.7377, 13.3699, 79.468, -135.641
2.91209, -1, -24.5085, -0.358288, 24.7729, 13.3711, 79.4213, -135.876
2.91949, -1, -24.6831, -0.447161, 24.8079, 13.3735, 79.3282, -135.994
2.9275, -1, -24.858, -0.536055, 24.8429, 13.3759, 79.2353, -136.23
2.93558, -1, -25.0331, -0.624932, 24.8781, 13.3783, 79.1423, -136.465
2.94349, -1, -25.208, -0.713734, 24.9131, 13.3806, 79.0493, -136.7
2.9515, -1, -25.3825, -0.802479, 24.9481, 13.383, 78.9567, -136.935
2.95961, -1, -25.5566, -0.891303, 24.9832, 13.3855, 78.864, -137.17
2.96749, -1, -25.7302, -0.980014, 25.0181, 13.3879, 78.7712, -137.405
2.97549, -1, -25.9031, -1.06869, 25.0529, 13.3903, 78.6786, -137.64
2.98354, -1, -26.0756, -1.15742, 25.088, 13.3928, 78.5864, -137.874
2.99149, -1, -26.2476, -1.24605, 25.1229, 13.3952, 78.4936, -138.109
2.99949, -1, -26.4195, -1.33457, 25.1577, 13.3976, 78.401, -138.343
3.0075, -1, -26.5913, -1.423, 25.1927, 13.3999, 78.3089, -138.578
3.01549, -1, -26.7632, -1.51129, 25.2277, 13.4022, 78.2162, -138.812
3.0236, -1, -26.9355, -1.59951, 25.2625, 13.4044, 78.1237, -139.046
3.03159, -1, -27.1079, -1.68771, 25.2974, 13.4067, 78.0316, -139.28
3.03951, -1, -27.2805, -1.77594, 25.3323, 13.4088, 77.9394, -139.514
3.04849, -1, -27.4533, -1.86402, 25.3671, 13.411, 77.8474, -139.748
3.05548, -1, -27.6265, -1.95208, 25.4019, 13.4131, 77.7555, -139.981
3.06349, -1, -27.7998, -2.0403, 25.4368, 13.4152, 77.6634, -140.214
3.07158, -1, -27.9731, -2.12829, 25.4716, 13.4173, 77.5713, -140.448
3.07949, -1, -28.1464, -2.21634, 25.5063, 13.4193, 77.4793, -140.681
3.0875, -1, -28.3195, -2.30437, 25.5411, 13.4214, 77.3873, -140.914
3.09558, -1, -28.4923, -2.39244, 25.5759, 13.4235, 77.2952, -141.147
3.10354, -1, -28.6648, -2.4804, 25.6105, 13.4256, 77.2031, -141.38
3.11149, -1, -28.8365, -2.56843, 25.6452, 13.4278, 77.1111, -141.613
3.11955, -1, -29.0075, -2.6564, 25.6799, 13.43, 77.0191, -141.846
3.12749, -1, -29.1781, -2.74431, 25.7144, 13.4322, 76.9273, -142.078
3.13555, -1, -29.3487, -2.83212, 25.7491, 13.4342, 76.8356, -142.311
3.1435, -1, -29.5194, -2.91985, 25.7838, 13.4363, 76.7436, -142.543
3.15152, -1, -29.6903, -3.00747, 25.8183, 13.4383, 76.6517, -142.776
3.15956, -1, -29.8613, -3.095, 25.8529, 13.4403, 76.5602, -143.008
3.16749, -1, -30.0323, -3.18249, 25.8875, 13.4425, 76.4681, -143.24
3.17549, -1, -30.2032, -3.27004, 25.922, 13.4445, 76.3765, -143.472
3.18356, -1, -30.3743, -3.35748, 25.9565, 13.4466, 76.285, -143.704
3.19155, -1, -30.5458, -3.44496, 25.991, 13.4486, 76.1934, -143.936
3.1995, -1, -30.7177, -3.5325, 26.0254, 13.4507, 76.102, -144.168
3.20758, -1, -30.8895, -3.61985, 26.0599, 13.4527, 76.0107, -144.399
3.2155, -1, -31.0614, -3.70724, 26.0944, 13.4547, 75.9192, -144.63
3.22375, -1, -31.233, -3.79455, 26.1288, 13.4568, 75.8279, -144.862
3.23152, -1, -31.4044, -3.88192, 26.1632, 13.4588, 75.7366, -145.093
3.23962, -1, -31.5753, -3.96921, 26.1977, 13.461, 75.6454, -145.324
3.24787, -1, -31.7458, -4.05649, 26.2321, 13.4632, 75.5541, -145.555
3.25558, -1, -31.9158, -4.14377, 26.2664, 13.4653, 75.463, -145.786
3.26367, -1, -32.0854, -4.23098, 26.3008, 13.4676, 75.3719, -146.017
3.27214, -1, -32.2548, -4.3181, 26.3352, 13.4698, 75.2808, -146.248
3.2796, -1, -32.4242, -4.40515, 26.3695, 13.4719, 75.1897, -146.478
3.28749, -1, -32.5939, -4.49211, 26.4038, 13.474, 75.0991, -146.708
3.29626, -1, -32.7635, -4.57898, 26.4383, 13.4762, 75.008, -146.939
3.30363, -1, -32.9332, -4.66583, 26.4726, 13.4784, 74.9173, -147.169
3.31155, -1, -33.1029, -4.75278, 26.5068, 13.4805, 74.8268, -147.4
3.32045, -1, -33.2727, -4.83962, 26.5411, 13.4827, 74.7359, -147.63
3.32769, -1, -33.4428, -4.92648, 26.5754, 13.485, 74.6454, -147.859
3.33573, -1, -33.6131, -5.01344, 26.6096, 13.4871, 74.5549, -148.089
3.34484, -1, -33.7834, -5.10022, 26.6439, 13.4894, 74.4643, -148.319
3.35192, -1, -33.9536, -5.18699, 26.6781, 13.4916, 74.3738, -148.549
3.36, -1, -34.1238, -5.27373, 26.7121, 13.4938, 74.2833, -148.778
3.36884, -1, -34.2939, -5.36046, 26.7464, 13.4961, 74.1928, -149.008
3.37607, -1, -34.464, -5.44711, 26.7806, 13.4985, 74.1021, -149.237
3.38403, -1, -34.6336, -5.53375, 26.8147, 13.5008, 74.0115, -149.466
3.39292, -1, -34.8025, -5.62039, 26.8488, 13.5032, 73.9211, -149.696
3.40011, -1, -34.8868, -5.70702, 26.883, 13.5057, 73.8305, -149.925
3.40819, -1, -35.1395, -5.7935, 26.917, 13.5081, 73.74, -150.153
3.41548, -1, -35.2235, -5.83673, 26.934, 13.5093, 73.6949, -150.268
3.42348, -1, -35.3917, -5.92308, 26.9681, 13.5118, 73.6046, -150.497
3.43154, -1, -35.5602, -6.00929, 27.0023, 13.5141, 73.5143, -150.726
3.43954, -1, -35.7288, -6.09555, 27.0362, 13.5164, 73.4239, -150.955
3.44752, -1, -35.8974, -6.18171, 27.0703, 13.5188, 73.3337, -151.183
3.45548, -1, -36.0659, -6.26783, 27.1044, 13.5212, 73.2432, -151.412
3.46349, -1, -36.2343, -6.35396, 27.1383, 13.5236, 73.1528, -151.64
3.47155, -1, -36.403, -6.44018, 27.1722, 13.526, 73.0626, -151.869
3.47947, -1, -36.5718, -6.52638, 27.2062, 13.5284, 72.972, -152.097
3.48748, -1, -36.7407, -6.61259, 27.2401, 13.5307, 72.8818, -152.325
3.4956, -1, -36.9096, -6.69873, 27.274, 13.533, 72.7919, -152.553
3.50347, -1, -37.0787, -6.78487, 27.3079, 13.5353, 72.7016, -152.781
3.51435, -1, -37.3318, -6.91402, 27.3587, 13.5387, 72.5668, -153.123
3.51954, -1, -37.4161, -6.95699, 27.3756, 13.5399, 72.5219, -153.237
3.52748, -1, -37.5842, -7.04304, 27.4096, 13.5421, 72.432, -153.465
3.53774, -1, -37.752, -7.12906, 27.4436, 13.5444, 72.3421, -153.692
3.54356, -1, -37.9196, -7.21502, 27.4774, 13.5466, 72.2523, -153.92
3.55252, -1, -38.0871, -7.30092, 27.5113, 13.5488, 72.1627, -154.147
3.55947, -1, -38.2544, -7.38676, 27.5453, 13.551, 72.0729, -154.374
3.56754, -1, -38.4218, -7.47248, 27.5791, 13.5531, 71.9832, -154.601
3.57552, -1, -38.589, -7.55818, 27.6129, 13.5552, 71.8938, -154.829
3.58347, -1, -38.7563, -7.64391, 27.6469, 13.5573, 71.804, -155.056
3.59154, -1, -38.9236, -7.72958, 27.6806, 13.5594, 71.7145, -155.283
3.59951, -1, -39.0909, -7.81515, 27.7144, 13.5615, 71.6255, -155.51
3.60758, -1, -39.2584, -7.90082, 27.7483, 13.5635, 71.5359, -155.736
3.61549, -1, -39.4259, -7.98653, 27.7821, 13.5654, 71.4465, -155.963
3.62348, -1, -39.5935, -8.07209, 27.8157, 13.5674, 71.3572, -156.19
3.63154, -1, -39.7612, -8.15762, 27.8494, 13.5694, 71.2679, -156.417
3.63947, -1, -39.9288, -8.24309, 27.8832, 13.5714, 71.1786, -156.643
3.64748, -1, -40.0964, -8.32855, 27.9168, 13.5733, 71.0891, -156.869
3.65555, -1, -40.2639, -8.41392, 27.9505, 13.5753, 71, -157.096
3.66347, -1, -40.4312, -8.49933, 27.9843, 13.5772, 70.9105, -157.322
3.67148, -1, -40.5982, -8.58468, 28.018, 13.5792, 70.8214, -157.548
3.67954, -1, -40.7651, -8.67008, 28.0515, 13.5812, 70.7324, -157.774
3.68746, -1, -40.9316, -8.75542, 28.0853, 13.5832, 70.6431, -158
3.69557, -1, -41.098, -8.84077, 28.1189, 13.5853, 70.5539, -158.226
3.70347, -1, -41.2642, -8.92603, 28.1525, 13.5873, 70.4649, -158.452
3.71149, -1, -41.4304, -9.0112, 28.186, 13.5893, 70.3756, -158.677
3.71957, -1, -41.5967, -9.09642, 28.2197, 13.5913, 70.2864, -158.903
3.72748, -1, -41.763, -9.18155, 28.2533, 13.5933, 70.1974, -159.128
3.73552, -1, -41.9294, -9.26662, 28.2868, 13.5952, 70.1084, -159.354
3.74405, -1, -42.0957, -9.35167, 28.3205, 13.5973, 70.0194, -159.579
3.75156, -1, -42.262, -9.43671, 28.354, 13.5994, 69.9304, -159.804
3.75957, -1, -42.4282, -9.52172, 28.3875, 13.6013, 69.8416, -160.03
3.76799, -1, -42.5945, -9.60669, 28.4211, 13.6034, 69.7525, -160.254
3.77564, -1, -42.7609, -9.69165, 28.4546, 13.6054, 69.6636, -160.48
3.78353, -1, -42.9274, -9.77662, 28.4879, 13.6075, 69.5751, -160.705
3.79167, -1, -43.0939, -9.86151, 28.5214, 13.6095, 69.4861, -160.93
3.80025, -1, -43.2601, -9.94648, 28.5549, 13.6116, 69.3975, -161.155
3.80751, -1, -43.4263, -10.0314, 28.5884, 13.6137, 69.3089, -161.379
3.81563, -1, -43.5922, -10.1164, 28.6219, 13.6157, 69.2202, -161.604
3.82442, -1, -43.7581, -10.2013, 28.6554, 13.6178, 69.1318, -161.829
3.83166, -1, -43.9239, -10.2861, 28.6887, 13.62, 69.0433, -162.054
3.84003, -1, -44.0894, -10.3709, 28.7221, 13.6221, 68.9548, -162.278
3.84845, -1, -44.2547, -10.4555, 28.7556, 13.6243, 68.8661, -162.502
3.85592, -1, -44.4199, -10.5401, 28.789, 13.6265, 68.7774, -162.726
3.86398, -1, -44.5851, -10.6247, 28.8223, 13.6287, 68.689, -162.951
3.87266, -1, -44.7503, -10.7092, 28.8558, 13.6309, 68.6003, -163.175
3.88001, -1, -44.9156, -10.7936, 28.8892, 13.6331, 68.5118, -163.399
3.88823, -1, -45.081, -10.8781, 28.9226, 13.6353, 68.4235, -163.623
3.89613, -1, -45.2463, -10.9626, 28.956, 13.6375, 68.3349, -163.847
3.90408, -1, -45.329, -11.0471, 28.9894, 13.6398, 68.2465, -164.071
3.91216, -1, -45.4942, -11.1315, 29.0226, 13.6421, 68.1583, -164.295
3.9195, -1, -45.6595, -11.1737, 29.0392, 13.6432, 68.1143, -164.407
3.92842, -1, -45.9071, -11.3002, 29.0892, 13.6466, 67.9816, -164.742
3.93555, -1, -45.9889, -11.342, 29.1059, 13.6478, 67.9374, -164.854
3.9435, -1, -46.1502, -11.4243, 29.1394, 13.6501, 67.8494, -165.077
3.95146, -1, -46.3072, -11.5036, 29.173, 13.6525, 67.762, -165.298
3.95951, -1, -46.4574, -11.5785, 29.2065, 13.6548, 67.6768, -165.513
3.96746, -1, -46.5984, -11.6483, 29.2387, 13.6572, 67.5954, -165.719
3.97548, -1, -46.7278, -11.7116, 29.2685, 13.6594, 67.5208, -165.908
3.98351, -1, -46.8426, -11.7675, 29.2948, 13.6614, 67.454, -166.077
3.99146, -1, -46.9411, -11.8166, 29.3168, 13.6631, 67.3984, -166.218
3.99953, -1, -47.0234, -11.8594, 29.3334, 13.6643, 67.3538, -166.331
4.00751, -1, -47.0903, -11.8961, 29.3445, 13.6651, 67.3204, -166.415
4.01548, -1, -47.1424, -11.9254, 29.3517, 13.6654, 67.2972, -166.473
4.02346, -1, -47.1811, -11.9474, 29.3555, 13.6657, 67.2822, -166.511
4.0315, -1, -47.2085, -11.9627, 29.3573, 13.6658, 67.2736, -166.533
4.04124, -1, -47.2265, -11.9726, 29.3584, 13.6659, 67.2676, -166.548
4.04748, -1, -47.2372, -11.9785, 29.3585, 13.6659, 67.2666, -166.55
4.05643, 2, -47.2427, -11.9813, 29.3587, 13.6659, 67.2655, -166.553
4.06345, 2, -47.2447, -11.9826, 29.3589, 13.666, 67.2649, -166.554
4.07146, 2, -47.2448, -11.9831, 29.359, 13.666, 67.2647, -166.555
4.07955, 2, -47.2446, -11.9833, 29.359, 13.6661, 67.2646, -166.555
4.08746, 2, -47.2446, -11.9834, 29.3591, 13.666, 67.2646, -166.555
4.09547, 2, -47.245, -11.9835, 29.3591, 13.666, 67.2645, -166.555
4.10358, 2, -47.2459, -11.9838, 29.3592, 13.6661, 67.2645, -166.555
4.1115, 2, -47.2472, -11.9843, 29.3592, 13.6661, 67.2645, -166.555
4.11946, 2, -47.249, -11.9851, 29.3592, 13.6661, 67.2645, -166.555
4.12752, 2, -47.2505, -11.9859, 29.3592, 13.6661, 67.2645, -166.555
4.13547, 2, -47.2519, -11.9868, 29.3592, 13.6661, 67.2645, -166.555
4.14345, 2, -47.2529, -11.9874, 29.3592, 13.6662, 67.2645, -166.555
4.15152, 2, -47.2533, -11.9878, 29.3592, 13.6661, 67.2645, -166.555
4.15946, 2, -47.2535, -11.988, 29.3592, 13.6661, 67.2645, -166.555
4.16746, 2, -47.2535, -11.9881, 29.3592, 13.6661, 67.2645, -166.555
4.17554, 2, -47.2532, -11.9881, 29.3592, 13.6661, 67.2645, -166.555
4.18345, 2, -47.2527, -11.988, 29.3592, 13.6661, 67.2645, -166.555
4.19146, 2, -47.2522, -11.988, 29.3592, 13.6661, 67.2645, -166.555
4.19953, 2, -47.2519, -11.988, 29.3592, 13.6661, 67.2645, -166.555
4.20746, 2, -47.2517, -11.988, 29.3592, 13.6661, 67.2645, -166.555
4.2155, 2, -47.2517, -11.9881, 29.3592, 13.6661, 67.2645, -166.555
4.22353, 2, -47.2518, -11.9882, 29.3592, 13.6661, 67.2645, -166.555
4.23155, 2, -47.2521, -11.9886, 29.3592, 13.6661, 67.2645, -166.555
4.23952, 2, -47.2527, -11.9889, 29.3592, 13.6661, 67.2645, -166.555
4.24763, 2, -47.2532, -11.9892, 29.3592, 13.6661, 67.2645, -166.555
4.25556, 2, -47.2535, -11.9894, 29.3592, 13.6661, 67.2645, -166.555
4.26356, 2, -47.2537, -11.9895, 29.3592, 13.6661, 67.2645, -166.555
4.27165, 2, -47.2537, -11.9895, 29.3592, 13.666, 67.2645, -166.555
4.27961, 2, -47.2536, -11.9895, 29.3592, 13.666, 67.2646, -166.555
4.28752, 2, -47.2534, -11.9895, 29.3593, 13.666, 67.2646, -166.555
4.29567, 2, -47.2529, -11.9894, 29.3593, 13.666, 67.2646, -166.555
4.30346, 2, -47.2526, -11.9894, 29.3593, 13.6661, 67.2646, -166.555
4.3115, 2, -47.2523, -11.9893, 29.3592, 13.666, 67.2646, -166.555
4.31963, 2, -47.2521, -11.9894, 29.3592, 13.666, 67.2646, -166.555
4.32759, 2, -47.252, -11.9894, 29.3592, 13.666, 67.2646, -166.555
4.33574, 2, -47.252, -11.9894, 29.3593, 13.666, 67.2645, -166.555
4.3438, 2, -47.2519, -11.9895, 29.3592, 13.666, 67.2645, -166.555
4.35176, 2, -47.2519, -11.9896, 29.3592, 13.666, 67.2646, -166.555
4.35997, 2, -47.252, -11.9896, 29.3592, 13.666, 67.2646, -166.555
4.36851, 2, -47.2521, -11.9896, 29.3592, 13.6661, 67.2646, -166.555
4.37598, 2, -47.2521, -11.9896, 29.3592, 13.666, 67.2646, -166.555
4.38408, 2, -47.2521, -11.9896, 29.3592, 13.666, 67.2646, -166.555
4.39206, 2, -47.252, -11.9895, 29.3592, 13.666, 67.2646, -166.555
4.40004, 2, -47.2519, -11.9894, 29.3593, 13.666, 67.2646, -166.555
4.4081, 2, -47.2519, -11.9894, 29.3592, 13.666, 67.2646, -166.555
4.41616, 2, -47.2517, -11.9894, 29.3593, 13.666, 67.2646, -166.555
4.42345, 2, -47.2515, -11.9894, 29.3593, 13.666, 67.2646, -166.555
4.43145, 2, -47.2514, -11.9894, 29.3592, 13.666, 67.2646, -166.555
4.43951, 2, -47.2514, -11.9894, 29.3592, 13.666, 67.2646, -166.555
4.44749, 2, -47.2513, -11.9894, 29.3592, 13.666, 67.2646, -166.555
4.45547, 2, -47.2512, -11.9894, 29.3592, 13.666, 67.2646, -166.555
4.46349, 2, -47.2512, -11.9894, 29.3592, 13.666, 67.2646, -166.555
4.47145, 2, -47.2512, -11.9894, 29.3592, 13.666, 67.2647, -166.555
4.47945, 2, -47.2511, -11.9894, 29.3592, 13.666, 67.2646, -166.555
4.4875, 2, -47.2511, -11.9894, 29.3592, 13.666, 67.2646, -166.555
4.49546, 2, -47.251, -11.9893, 29.3592, 13.666, 67.2646, -166.555
4.50345, 2, -47.2509, -11.9893, 29.3592, 13.666, 67.2646, -166.555
4.51151, 2, -47.2508, -11.9892, 29.3592, 13.666, 67.2646, -166.555
4.51945, 2, -47.2507, -11.9892, 29.3592, 13.666, 67.2647, -166.555
4.52744, 2, -47.2507, -11.9892, 29.3592, 13.666, 67.2647, -166.555
4.537, 2, -47.2506, -11.9892, 29.3592, 13.666, 67.2647, -166.555
4.54344, 2, -47.2505, -11.9892, 29.3592, 13.666, 67.2647, -166.555
4.55249, 2, -47.2504, -11.9892, 29.3592, 13.666, 67.2647, -166.555
4.5595, 2, -47.2503, -11.9892, 29.3592, 13.6659, 67.2647, -166.555
4.56744, 2, -47.2503, -11.9892, 29.3592, 13.666, 67.2647, -166.555
4.57546, 2, -47.2501, -11.9892, 29.3592, 13.666, 67.2647, -166.555
4.58353, 2, -47.25, -11.9892, 29.3592, 13.666, 67.2647, -166.555
4.59144, 2, -47.2499, -11.9892, 29.3592, 13.666, 67.2647, -166.554
4.59945, 2, -47.2498, -11.9891, 29.3592, 13.6659, 67.2647, -166.554
4.60752, 2, -47.2497, -11.9891, 29.3592, 13.6659, 67.2647, -166.555
4.6155, 2, -47.2496, -11.989, 29.3592, 13.6659, 67.2647, -166.554
4.62345, 2, -47.2495, -11.9889, 29.3592, 13.6659, 67.2647, -166.555
4.63151, 2, -47.2494, -11.9889, 29.3592, 13.6659, 67.2647, -166.554
4.63944, 2, -47.2493, -11.9889, 29.3592, 13.6659, 67.2647, -166.555
4.64744, 2, -47.2492, -11.9889, 29.3592, 13.6659, 67.2647, -166.555
4.65553, 2, -47.2491, -11.9889, 29.3592, 13.6659, 67.2648, -166.555
4.66344, 2, -47.2491, -11.9889, 29.3592, 13.6659, 67.2647, -166.555
4.67148, 2, -47.249, -11.9889, 29.3592, 13.6659, 67.2648, -166.555
4.67951, 2, -47.249, -11.9889, 29.3592, 13.6659, 67.2647, -166.554
4.68744, 2, -47.2489, -11.9889, 29.3592, 13.6659, 67.2647, -166.554
4.69546, 2, -47.2488, -11.9888, 29.3592, 13.6659, 67.2647, -166.554
4.70351, 2, -47.2488, -11.9888, 29.3592, 13.6659, 67.2647, -166.554
4.71144, 2, -47.2487, -11.9887, 29.3592, 13.6659, 67.2648, -166.554
4.71947, 2, -47.2486, -11.9887, 29.3592, 13.6659, 67.2648, -166.554
4.72751, 2, -47.2486, -11.9886, 29.3592, 13.6658, 67.2647, -166.554
4.73548, 2, -47.2485, -11.9886, 29.3592, 13.6659, 67.2647, -166.554
4.74351, 2, -47.2485, -11.9886, 29.3592, 13.6658, 67.2647, -166.554
4.75161, 2, -47.2484, -11.9886, 29.3592, 13.6658, 67.2647, -166.554
4.75953, 2, -47.2483, -11.9886, 29.3592, 13.6658, 67.2648, -166.554
4.76754, 2, -47.2483, -11.9886, 29.3592, 13.6659, 67.2648, -166.554
4.77564, 2, -47.2483, -11.9886, 29.3592, 13.6658, 67.2647, -166.554
4.78359, 2, -47.2483, -11.9886, 29.3592, 13.6658, 67.2648, -166.554
4.7915, 2, -47.2482, -11.9885, 29.3592, 13.6658, 67.2648, -166.554
4.79958, 2, -47.2482, -11.9885, 29.3592, 13.6658, 67.2647, -166.554
4.80764, 2, -47.2482, -11.9885, 29.3592, 13.6657, 67.2647, -166.554
4.81549, 2, -47.2481, -11.9884, 29.3592, 13.6657, 67.2647, -166.554
4.82359, 2, -47.2481, -11.9884, 29.3592, 13.6657, 67.2647, -166.554
4.83158, 2, -47.248, -11.9883, 29.3592, 13.6656, 67.2648, -166.554
4.83983, 2, -47.2478, -11.9883, 29.3592, 13.6656, 67.2648, -166.554
4.84777, 2, -47.2478, -11.9882, 29.3592, 13.6657, 67.2648, -166.554
4.85592, 2, -47.2478, -11.9882, 29.3592, 13.6656, 67.2648, -166.554
4.86422, 2, -47.2477, -11.9882, 29.3592, 13.6657, 67.2648, -166.554
4.87198, 2, -47.2477, -11.9882, 29.3592, 13.6657, 67.2648, -166.554
4.88062, 2, -47.2477, -11.9882, 29.3592, 13.6656, 67.2648, -166.554
4.88838, 2, -47.2476, -11.9882, 29.3592, 13.6656, 67.2648, -166.554
4.89604, 2, -47.2476, -11.9882, 29.3592, 13.6656, 67.2649, -166.554
4.90425, 2, -47.2476, -11.9882, 29.3592, 13.6656, 67.2649, -166.554
4.91221, 2, -47.2476, -11.9882, 29.3592, 13.6656, 67.2649, -166.554
4.92003, 2, -47.2475, -11.9881, 29.3592, 13.6656, 67.2649, -166.554
4.92744, 2, -47.2474, -11.9881, 29.3592, 13.6656, 67.2649, -166.554
4.93628, 2, -47.2473, -11.988, 29.3592, 13.6655, 67.2649, -166.554
4.9435, 2, -47.2472, -11.988, 29.3592, 13.6655, 67.2649, -166.554
4.95147, 2, -47.2472, -11.9879, 29.3592, 13.6656, 67.2649, -166.554
4.95943, 2, -47.2471, -11.9879, 29.3592, 13.6656, 67.265, -166.554
4.96748, 2, -47.2471, -11.9879, 29.3592, 13.6655, 67.265, -166.554
4.97544, 2, -47.2471, -11.9879, 29.3592, 13.6655, 67.265, -166.554
4.98343, 2, -47.2471, -11.9879, 29.3592, 13.6655, 67.265, -166.554
4.99149, 2, -47.247, -11.9879, 29.3592, 13.6655, 67.265, -166.554
4.99943, 2, -47.247, -11.9879, 29.3592, 13.6654, 67.265, -166.554
5.00743, 2, -47.2469, -11.9879, 29.3592, 13.6654, 67.265, -166.554
5.01551, 2, -47.2469, -11.9878, 29.3592, 13.6654, 67.265, -166.554
5.02343, 2, -47.2469, -11.9878, 29.3592, 13.6654, 67.265, -166.554
5.03143, 2, -47.2468, -11.9877, 29.3592, 13.6654, 67.265, -166.554
5.03949, 2, -47.2467, -11.9877, 29.3592, 13.6654, 67.265, -166.554
5.04931, 2, -47.2467, -11.9876, 29.3592, 13.6654, 67.265, -166.554
5.0556, 2, -47.2466, -11.9876, 29.3592, 13.6654, 67.265, -166.554
5.06441, 2, -47.2466, -11.9876, 29.3592, 13.6654, 67.265, -166.554
5.0715, 2, -47.2465, -11.9876, 29.3592, 13.6654, 67.265, -166.554
5.07943, 2, -47.2465, -11.9876, 29.3592, 13.6653, 67.2651, -166.554
5.08746, 2, -47.2464, -11.9876, 29.3592, 13.6653, 67.2651, -166.554
5.09551, 2, -47.2464, -11.9876, 29.3592, 13.6652, 67.2651, -166.554
5.10343, 2, -47.2464, -11.9876, 29.3592, 13.6652, 67.2651, -166.554
5.11146, 2, -47.2464, -11.9875, 29.3592, 13.6652, 67.2651, -166.554
5.11954, 2, -47.2463, -11.9875, 29.3592, 13.6652, 67.2651, -166.554
5.12743, 2, -47.2463, -11.9874, 29.3592, 13.6652, 67.2651, -166.554
5.13548, 2, -47.2462, -11.9874, 29.3592, 13.6652, 67.2651, -166.554
5.1435, 4, -47.2461, -11.9874, 29.3592, 13.6652, 67.2651, -166.554
5.15143, 4, -47.246, -11.9873, 29.3592, 13.6652, 67.2651, -166.554
5.15943, 4, -47.246, -11.9873, 29.3592, 13.6652, 67.2651, -166.554
5.16749, 4, -47.2459, -11.9873, 29.3592, 13.6651, 67.2651, -166.554
5.17544, 4, -47.2459, -11.9873, 29.3592, 13.6651, 67.2651, -166.554
5.18343, 4, -47.2458, -11.9873, 29.3592, 13.6651, 67.2651, -166.554
5.1915, 4, -47.2458, -11.9873, 29.3592, 13.6651, 67.2651, -166.554
5.19943, 4, -47.2458, -11.9873, 29.3592, 13.6651, 67.2651, -166.554
5.20743, 4, -47.2458, -11.9873, 29.3592, 13.6651, 67.2651, -166.554
5.21551, 4, -47.2457, -11.9872, 29.3592, 13.6651, 67.2652, -166.554
5.22345, 4, -47.2458, -11.9872, 29.3592, 13.665, 67.2652, -166.554
5.23143, 4, -47.2458, -11.9872, 29.3592, 13.6651, 67.2652, -166.554
5.23972, 4, -47.2457, -11.9871, 29.3592, 13.6651, 67.2652, -166.554
5.25622, 4, -47.2456, -11.9871, 29.3592, 13.665, 67.2652, -166.553
5.25801, 4, -47.2456, -11.9871, 29.3592, 13.665, 67.2652, -166.553
5.26466, 4, -47.2455, -11.987, 29.3592, 13.665, 67.2652, -166.554
5.27257, 4, -47.2454, -11.987, 29.3592, 13.665, 67.2652, -166.554
5.27971, 4, -47.2454, -11.987, 29.3592, 13.665, 67.2652, -166.553
5.28858, 4, -47.2454, -11.987, 29.3592, 13.665, 67.2652, -166.553
5.29966, 4, -47.2453, -11.987, 29.3592, 13.6649, 67.2652, -166.553
5.30738, 4, -47.2453, -11.987, 29.3592, 13.6649, 67.2652, -166.553
5.31175, 4, -47.2453, -11.9869, 29.3592, 13.6649, 67.2652, -166.553
5.32362, 4, -47.2452, -11.9869, 29.3592, 13.6649, 67.2653, -166.553
5.32908, 4, -47.2452, -11.9869, 29.3592, 13.6649, 67.2653, -166.553
5.33687, 4, -47.2452, -11.9868, 29.3592, 13.6648, 67.2653, -166.553
5.34384, 4, -47.2452, -11.9868, 29.3592, 13.6648, 67.2653, -166.553
5.35219, 4, -47.2451, -11.9868, 29.3592, 13.6648, 67.2653, -166.553
5.36083, 4, -47.245, -11.9868, 29.3592, 13.6648, 67.2653, -166.553
5.36804, 4, -47.245, -11.9867, 29.3592, 13.6647, 67.2653, -166.553
5.37826, 4, -47.245, -11.9867, 29.3592, 13.6648, 67.2653, -166.553
5.38442, 4, -47.245, -11.9867, 29.3592, 13.6648, 67.2653, -166.553
5.39246, 4, -47.2449, -11.9867, 29.3592, 13.6648, 67.2653, -166.553
5.40093, 4, -47.2449, -11.9867, 29.3592, 13.6647, 67.2653, -166.553
5.4102, 4, -47.245, -11.9868, 29.3593, 13.6648, 67.2654, -166.553
5.41996, 4, -47.2454, -11.9872, 29.3596, 13.6649, 67.2654, -166.553
5.42432, 4, -47.2483, -11.9889, 29.3616, 13.6666, 67.2661, -166.553
5.43524, 4, -47.2525, -11.9933, 29.3671, 13.6764, 67.2684, -166.552
5.44079, 4, -47.2556, -11.997, 29.3723, 13.6866, 67.2709, -166.548
5.44946, 4, -47.2713, -12.0172, 29.4046, 13.7506, 67.2884, -166.537
5.45742, 5, -47.2795, -12.028, 29.4474, 13.8386, 67.3129, -166.518
5.46494, 5, -47.3018, -12.0577, 29.4774, 13.9013, 67.3307, -166.504
5.47162, 5, -47.3338, -12.0993, 29.5591, 14.0737, 67.3788, -166.465
5.48056, 5, -47.3775, -12.1547, 29.6739, 14.3195, 67.4466, -166.373
5.48924, 5, -47.4669, -12.2656, 29.9149, 14.843, 67.5892, -166.288
5.49776, 5, -47.5423, -12.3584, 30.1237, 15.2965, 67.7112, -166.184
5.50706, 5, -47.6299, -12.4659, 30.3695, 15.8257, 67.8517, -166.064
5.51156, 5, -47.6778, -12.5247, 30.5047, 16.1145, 67.9279, -165.999
5.52159, 5, -47.8356, -12.7187, 30.9531, 17.0556, 68.1724, -165.789
5.53584, 5, -47.9497, -12.9333, 31.4484, 18.0696, 68.4293, -165.568
5.53852, 5, -48.0686, -13.0079, 31.6202, 18.4151, 68.5151, -165.493
5.54355, 5, -48.129, -13.0833, 31.7938, 18.7622, 68.6007, -165.419
5.55167, 5, -48.2506, -13.2349, 32.1447, 19.4559, 68.7693, -165.272
5.56332, 5, -48.4299, -13.4571, 32.6709, 20.4737, 69.014, -165.053
5.56926, 5, -48.4869, -13.5285, 32.8439, 20.8023, 69.0936, -164.977
5.5781, 6, -48.5934, -13.6654, 33.1812, 21.4347, 69.2513, -164.815
5.58363, 6, -48.6859, -13.7928, 33.5036, 22.0252, 69.4086, -164.628
5.59169, 6, -48.7604, -13.9105, 33.807, 22.5686, 69.568, -164.402
5.60061, 7, -48.8139, -14.0197, 34.0903, 23.0614, 69.7314, -164.125
5.60756, 7, -48.845, -14.1209, 34.3542, 23.5068, 69.9005, -163.787
5.62005, 8, -48.8518, -14.2559, 34.718, 24.1034, 70.1695, -163.156
5.62454, 8, -48.8451, -14.2964, 34.8332, 24.2882, 70.2637, -162.913
5.63486, 9, -48.8205, -14.3719, 35.1654, 24.8189, 70.5615, -162.1
5.64114, 9, -48.7828, -14.4419, 35.2733, 24.9921, 70.6658, -161.806
5.65008, 10, -48.7347, -14.5416, 35.5944, 25.5113, 70.9938, -160.881
5.65563, 10, -48.6774, -14.5741, 35.7012, 25.686, 71.1075, -160.563
5.66357, 11, -48.6116, -14.6384, 35.9148, 26.0387, 71.3394, -159.919
5.67163, 11, -48.5389, -14.7019, 36.1287, 26.396, 71.5748, -159.275
5.68141, 12, -48.4616, -14.7649, 36.3419, 26.7588, 71.8118, -158.633
5.68765, 12, -48.3827, -14.827, 36.5527, 27.1279, 72.05, -157.992
5.69879, 13, -48.2644, -14.9163, 36.8658, 27.6957, 72.4103, -157.025
5.70368, 13, -48.2252, -14.9449, 36.9692, 27.8893, 72.5319, -156.702
5.7126, 14, -48.1453, -15.0017, 37.1742, 28.2825, 72.7777, -156.05
5.7196, 14, -48.0625, -15.0597, 37.3778, 28.6832, 73.0268, -155.393
5.72765, 15, -47.976, -15.1195, 37.5809, 29.0888, 73.2783, -154.735
5.73756, 15, -47.8854, -15.1797, 37.7823, 29.4964, 73.5295, -154.079
5.74558, 16, -47.7894, -15.2389, 37.9818, 29.9029, 73.7778, -153.427
5.75558, 16, -47.6867, -15.2979, 38.1802, 30.5052, 74.1405, -152.461
5.75974, 17, -47.5769, -15.3581, 38.3764, 30.7034, 74.2582, -152.143
5.77197, 17, -47.4019, -15.4521, 38.6644, 31.2898, 74.601, -151.198
5.77571, 18, -47.341, -15.4841, 38.759, 31.4828, 74.712, -150.886
5.78577, 18, -47.2154, -15.5493, 38.9462, 31.8663, 74.9301, -150.268
5.79255, 19, -47.0843, -15.6166, 39.13, 32.2473, 75.1435, -149.656
5.80036, 19, -46.9473, -15.6872, 39.3114, 32.6277, 75.3529, -149.05
5.81034, 20, -46.8047, -15.7601, 39.4917, 33.0079, 75.5587, -148.449
5.8176, 20, -46.6572, -15.8341, 39.6701, 33.3875, 75.7607, -147.855
5.82442, 20, -46.5057, -15.9088, 39.8461, 33.7666, 75.9588, -147.268
5.83187, 21, -46.3511, -15.9845, 40.0201, 34.1451, 76.1529, -146.687
5.84373, 22, -46.113, -16.1008, 40.2782, 34.7118, 76.4369, -145.827
5.84863, 22, -46.0317, -16.1404, 40.3629, 34.9002, 76.5299, -145.543
5.85616, 23, -45.8652, -16.2209, 40.53, 35.2755, 76.7131, -144.98
5.86416, 23, -45.6926, -16.3034, 40.6945, 35.6482, 76.892, -144.421
5.87246, 24, -45.5124, -16.3882, 40.8559, 36.0167, 77.066, -143.867
5.88037, 24, -45.324, -16.4754, 41.0128, 36.379, 77.2336, -143.32
5.88866, 25, -45.1279, -16.5646, 41.1652, 36.7326, 77.3941, -142.778
5.89697, 25, -44.9245, -16.6549, 41.3134, 37.0762, 77.5464, -142.241
5.90426, 26, -44.7148, -16.7458, 41.4571, 37.4098, 77.6908, -141.71
5.91342, 26, -44.4984, -16.8378, 41.596, 37.7336, 77.8283, -141.184
5.92034, 27, -44.2746, -16.931, 41.7298, 38.049, 77.9608, -140.66
5.93106, 27, -44.0439, -17.0248, 41.858, 38.3569, 78.089, -140.138
5.93633, 27, -43.926, -17.0715, 41.9199, 38.5083, 78.1521, -139.617
5.94579, 28, -43.5619, -17.2098, 42.096, 38.9525, 78.3383, -139.095
5.95549, 29, -43.3099, -17.3004, 42.2047, 39.24, 78.4605, -138.574
5.96359, 29, -43.1813, -17.3451, 42.2565, 39.5203, 78.581, -138.051
5.96757, 30, -42.9196, -17.433, 42.3545, 39.6576, 78.6402, -137.79
5.97756, 30, -42.5143, -17.5594, 42.4878, 40.0575, 78.8143, -137.006
5.98358, 31, -42.3753, -17.6, 42.5286, 40.1865, 78.8708, -136.745
5.99156, 31, -42.0912, -17.6793, 42.6049, 40.4379, 78.9812, -136.225
5.99965, 32, -41.7993, -17.7562, 42.6743, 40.6804, 79.0888, -135.704
6.00757, 32, -41.5006, -17.8304, 42.7368, 40.914, 79.1931, -135.185
6.01806, 33, -41.0402, -17.9361, 42.8173, 41.2488, 79.3443, -134.408
6.02917, 33, -40.5642, -18.0356, 42.8815, 41.5657, 79.4902, -133.633
6.03164, 34, -40.5642, -18.0356, 42.8815, 41.5657, 79.4902, -133.633
6.042, 34, -40.075, -18.1297, 42.929, 41.8648, 79.6309, -132.859
6.0503, 35, -39.7429, -18.1887, 42.9518, 42.0543, 79.7221, -132.344
6.05563, 35, -39.5748, -18.2169, 42.9606, 42.1464, 79.7664, -132.088
6.06359, 36, -39.234, -18.2704, 42.973, 42.3247, 79.8537, -131.576
6.07396, 36, -38.886, -18.3205, 42.9786, 42.4952, 79.9386, -131.064
6.07959, 37, -38.5309, -18.3675, 42.9778, 42.6579, 80.0215, -130.554
6.09148, 37, -37.9876, -18.4317, 42.9638, 42.888, 80.1417, -129.793
6.09817, 38, -37.8037, -18.4512, 42.9557, 42.9609, 80.1808, -129.54
6.10784, 38, -37.2448, -18.5047, 42.9217, 43.1687, 80.2948, -128.783
6.11156, 39, -37.0562, -18.5209, 42.907, 43.2341, 80.3318, -128.532
6.12256, 39, -36.4833, -18.5641, 42.8528, 43.4198, 80.4391, -127.78
6.12851, 40, -36.2898, -18.5766, 42.8313, 43.4779, 80.4742, -127.531
6.13559, 40, -35.8982, -18.5988, 42.7836, 43.589, 80.5424, -127.033
6.14357, 41, -35.5004, -18.6171, 42.7293, 43.6929, 80.6095, -126.537
6.15253, 41, -35.0971, -18.6315, 42.6685, 43.7891, 80.6735, -126.043
6.16259, 42, -34.4838, -18.6467, 42.5652, 43.9208, 80.7672, -125.307
6.16763, 42, -34.2778, -18.6502, 42.5275, 43.961, 80.7969, -125.063
6.17897, 43, -33.6548, -18.6557, 42.4053, 44.0711, 80.8848, -124.333
6.18355, 43, -33.4452, -18.6559, 42.3616, 44.1041, 80.9132, -124.091
6.19185, 44, -33.0219, -18.6537, 42.2698, 44.1654, 80.968, -123.608
6.20063, 44, -32.5926, -18.6476, 42.1723, 44.2189, 81.0223, -123.128
6.20776, 45, -32.1567, -18.6377, 42.069, 44.2653, 81.0743, -122.651
6.21999, 45, -31.4925, -18.616, 41.9029, 44.3217, 81.1494, -121.938
6.22559, 46, -31.2694, -18.6071, 41.8445, 44.3365, 81.1739, -121.702
6.23568, 46, -30.5972, -18.5749, 41.6605, 44.3694, 81.2431, -120.997
6.24052, 47, -30.3718, -18.5623, 41.5962, 44.3765, 81.2656, -120.764
6.25222, 47, -29.6886, -18.5178, 41.3946, 44.3874, 81.3322, -120.065
6.25565, 48, -29.4577, -18.5008, 41.3245, 44.3876, 81.3536, -119.833
6.26541, 48, -28.991, -18.4635, 41.1794, 44.3814, 81.3954, -119.37
6.27166, 49, -28.5186, -18.4219, 41.0284, 44.3664, 81.4372, -118.91
6.2821, 49, -28.0428, -18.3759, 40.8715, 44.3427, 81.4788, -118.451
6.28775, 50, -27.5648, -18.3253, 40.7084, 44.3092, 81.5193, -117.993
6.29921, 50, -26.8413, -18.24, 40.4514, 44.2415, 81.5812, -117.308
6.3037, 51, -26.597, -18.2087, 40.3625, 44.2146, 81.6025, -117.08
6.31543, 51, -25.8525, -18.1067, 40.0861, 44.1179, 81.666, -116.398
6.31974, 52, -25.6008, -18.0699, 39.9903, 44.0811, 81.6874, -116.171
6.32894, 52, -25.0941, -17.9923, 39.7929, 43.9992, 81.7314, -115.718
6.33587, 53, -24.5851, -17.9092, 39.5896, 43.9069, 81.7763, -115.265
6.34466, 53, -24.0739, -17.8201, 39.3793, 43.8046, 81.8212, -114.812
6.35428, 54, -23.5574, -17.7246, 39.1607, 43.6917, 81.8682, -114.36
6.36074, 54, -23.0333, -17.6227, 38.9347, 43.5676, 81.918, -113.908
6.36922, 55, -22.5009, -17.5149, 38.7014, 43.4322, 81.9694, -113.456
6.38031, 55, -21.6926, -17.3419, 38.3365, 43.2069, 82.0524, -112.777
6.38842, 56, -21.1509, -17.2195, 38.0855, 43.0424, 82.1092, -112.325
6.39298, 56, -20.8788, -17.1561, 37.9574, 42.9561, 82.1381, -112.099
6.40197, 57, -20.33, -17.025, 37.6965, 42.7755, 82.1976, -111.648
6.409, 57, -19.7721, -16.8881, 37.43, 42.5839, 82.2572, -111.197
6.41624, 58, -19.2054, -16.7452, 37.1565, 42.3801, 82.3187, -110.747
6.42822, 58, -18.6337, -16.5201, 36.735, 42.0505, 82.4145, -110.072
6.43446, 59, -18.0593, -16.4424, 36.5908, 41.9342, 82.4478, -109.847
6.44421, 59, -17.4814, -16.2835, 36.2974, 41.6919, 82.5521, -109.173
6.44824, 60, -17.1896, -16.2025, 36.1483, 41.5658, 82.5521, -109.173
6.46136, 60, -16.2989, -15.8661, 35.5374, 41.0293, 82.6988, -108.274
6.46359, 61, -15.9979, -15.8661, 35.5374, 41.0293, 82.6988, -108.274
6.47539, 61, -15.0893, -15.5996, 35.0659, 40.5936, 82.8125, -107.601
6.47954, 62, -14.7852, -15.5085, 34.9063, 40.4424, 82.8511, -107.377
6.49065, 62, -13.8636, -15.2288, 34.4194, 39.9686, 82.9706, -106.704
6.49855, 63, -13.2369, -15.0352, 34.0889, 39.6362, 83.0535, -106.255
6.50683, 63, -12.6014, -14.8349, 33.7527, 39.2898, 83.1392, -105.806
6.51156, 64, -12.2815, -14.7325, 33.5825, 39.1113, 83.1835, -105.581
6.52147, 64, -11.6387, -14.5233, 33.2368, 38.7435, 83.2749, -105.13
6.52922, 65, -10.6612, -14.1965, 32.7054, 38.1627, 83.4217, -104.449
6.53772, 65, -10.3298, -14.0841, 32.5248, 37.7541, 83.5268, -103.993
6.54354, 66, -9.65922, -13.8545, 32.16, 37.5427, 83.5814, -103.764
6.55397, 66, -8.98, -13.4971, 31.6034, 36.882, 83.755, -103.076
6.56504, 67, -7.95123, -13.2502, 31.2252, 36.4195, 83.878, -102.614
6.56767, 67, -7.60479, -13.1244, 31.0342, 36.1822, 83.9419, -102.383
6.57554, 68, -6.90456, -12.8672, 30.6485, 35.6961, 84.0747, -101.918
6.58635, 68, -5.83966, -12.4686, 30.0637, 34.9413, 84.2847, -101.217
6.59157, 69, -5.48221, -12.3331, 29.867, 34.6836, 84.3578, -100.983
6.60061, 69, -4.76383, -12.057, 29.4712, 34.1589, 84.508, -100.513
6.6076, 70, -4.03863, -11.7746, 29.0733, 33.6242, 84.6635, -100.041
6.61852, 70, -3.30545, -11.4847, 28.6754, 32.8, 84.9059, -99.3296
6.62353, 71, -2.5656, -11.186, 28.2774, 32.5191, 84.9895, -99.0921
6.6355, 71, -1.82006, -10.8803, 27.8774, 31.6548, 85.2519, -98.3778
6.63954, 72, -1.06777, -10.5681, 27.4752, 31.3591, 85.3439, -98.1386
6.65078, 72, 0.0712241, -10.0896, 26.8677, 30.4464, 85.634, -97.4187
6.65556, 73, 0.45299, -9.927, 26.6643, 30.1353, 85.7352, -97.1778
6.66445, 73, 1.21941, -9.59622, 26.2569, 29.5045, 85.9437, -96.6955
6.67154, 74, 1.99013, -9.25933, 25.8496, 28.8637, 86.16, -96.2124
6.68304, 74, 2.76461, -8.74349, 25.2444, 27.889, 86.4977, -95.4848
6.6876, 75, 3.54146, -8.56859, 25.0452, 27.561, 86.6133, -95.2417
6.69959, 75, 4.71036, -8.03378, 24.4544, 26.5715, 86.9684, -94.5101
6.70461, 76, 5.10096, -7.85271, 24.2599, 26.2413, 87.0897, -94.2655
6.71214, 76, 5.88333, -7.486, 23.8742, 25.5788, 87.3366, -93.7744
6.71953, 76, 6.66635, -7.11412, 23.4938, 24.9153, 87.59, -93.2812
6.73577, 77, 8.23684, -6.34531, 22.7424, 23.586, 88.1217, -92.2884
6.73763, 78, 8.23684, -6.34531, 22.7424, 23.586, 88.1217, -92.2884
6.74984, 78, 9.41982, -5.74201, 22.187, 22.5779, 88.5492, -91.5366
6.75261, 78, 9.8149, -5.53684, 22.0034, 22.2385, 88.6987, -91.2839
6.75947, 79, 10.6059, -5.1218, 21.6381, 21.5544, 89.0083, -90.7748
6.76783, 79, 11.3966, -4.6993, 21.2752, 20.8658, 89.3315, -90.2603
6.77647, 80, 12.1842, -4.26627, 20.9168, 20.175, 89.6656, -89.7406
6.78349, 80, 12.9653, -3.82276, 20.5638, 19.4891, 90.0093, -89.2143
6.79159, 81, 13.7402, -3.37202, 20.2174, 18.8134, 90.3603, -88.6832
6.79954, 81, 14.5084, -2.91551, 19.8789, 18.1525, 90.7168, -88.1477
6.8075, 82, 15.2679, -2.4517, 19.5513, 17.5078, 91.077, -87.61
6.81558, 82, 16.0176, -1.98026, 19.234, 16.8811, 91.4408, -87.0699
6.82421, 83, 16.7551, -1.50206, 18.9264, 16.274, 91.8082, -86.5288
6.83147, 83, 17.4798, -1.01851, 18.6279, 15.6857, 92.1808, -85.9876
6.84067, 84, 18.1896, -0.531323, 18.3384, 15.1157, 92.559, -85.4482
6.84762, 84, 18.8833, -0.0404154, 18.0564, 14.5654, 92.9444, -84.9097
6.8565, 85, 19.5603, 0.455952, 17.7801, 14.0348, 93.337, -84.3728
6.8637, 85, 20.2193, 0.957882, 17.5105, 13.5237, 93.7376, -83.8374
6.87183, 85, 20.8609, 1.46429, 17.2466, 13.0323, 94.1442, -83.3037
6.87986, 86, 21.4869, 1.97536, 16.9891, 12.5598, 94.5565, -82.7701
6.88846, 86, 22.0991, 2.49421, 16.7378, 12.1065, 94.9755, -82.2345
6.89599, 87, 22.6996, 3.02373, 16.4909, 11.6715, 95.4015, -81.6957
6.90483, 87, 23.2901, 3.56231, 16.2479, 11.254, 95.8352, -81.153
6.91193, 88, 23.5817, 4.10612, 16.0076, 10.8521, 96.2763, -80.6039
6.9209, 88, 24.441, 4.6556, 15.7703, 10.4665, 96.7236, -80.0462
6.92838, 89, 25.0003, 5.21549, 15.5389, 10.0969, 97.1765, -79.4792
6.9354, 89, 25.2766, 5.50017, 15.4253, 9.91864, 97.4044, -79.1918
6.94427, 90, 25.8251, 6.37154, 15.0923, 9.40979, 98.0922, -78.3124
6.95137, 90, 26.3698, 6.66714, 14.9845, 9.24859, 98.323, -78.0125
6.95961, 91, 26.9059, 7.26504, 14.7736, 8.93896, 98.7877, -77.4026
6.96754, 91, 27.4289, 7.87121, 14.5684, 8.64699, 99.2582, -76.7799
6.97558, 92, 27.9399, 8.48753, 14.3674, 8.37283, 99.7355, -76.1443
6.98337, 92, 28.4431, 9.11459, 14.1697, 8.11817, 100.219, -75.4966
6.99275, 93, 29.1855, 10.0734, 13.8789, 7.77324, 100.958, -74.5072
6.99938, 93, 29.428, 10.3966, 13.784, 7.6686, 101.206, -74.1731
7.00887, 94, 30.1355, 11.3757, 13.5086, 7.38767, 101.954, -73.1578
7.01771, 94, 30.5889, 12.0355, 13.3332, 7.22921, 102.451, -72.4725
7.0234, 95, 30.8104, 12.3672, 13.248, 7.15882, 102.699, -72.1282
7.03313, 95, 31.454, 13.3652, 13.0038, 6.98328, 103.439, -71.0858
7.03934, 96, 31.6616, 13.6987, 12.9263, 6.93643, 103.683, -70.7354
7.0475, 96, 32.0653, 14.3664, 12.776, 6.86095, 104.169, -70.0317
7.05639, 97, 32.4524, 15.0345, 12.6318, 6.80979, 104.651, -69.3235
7.06438, 97, 32.8232, 15.7017, 12.4945, 6.77992, 105.127, -68.6104
7.07167, 98, 33.1787, 16.3655, 12.3653, 6.77087, 105.596, -67.8961
7.08042, 98, 33.5197, 17.0238, 12.2453, 6.78382, 106.055, -67.182
7.08766, 99, 33.8461, 17.6736, 12.1351, 6.81699, 106.502, -66.4677
7.09637, 99, 34.1579, 18.3145, 12.0353, 6.86944, 106.934, -65.758
7.10339, 99, 34.4567, 18.9457, 11.9457, 6.94161, 107.351, -65.0541
7.11138, 100, 34.7436, 19.567, 11.866, 7.03052, 107.752, -64.3551
7.11944, 100, 35.0178, 20.1771, 11.7956, 7.13622, 108.137, -63.6645
7.12746, 101, 35.2783, 20.774, 11.733, 7.2563, 108.507, -62.9837
7.13538, 101, 35.5258, 21.357, 11.6779, 7.38891, 108.862, -62.3115
7.14338, 102, 35.7607, 21.9251, 11.6303, 7.53166, 109.203, -61.6507
7.15137, 102, 35.9824, 22.4781, 11.5894, 7.68225, 109.529, -61.0039
7.15964, 103, 36.1922, 23.0162, 11.5553, 7.83895, 109.84, -60.3706
7.16742, 103, 36.3933, 23.539, 11.5283, 8.00056, 110.135, -59.7518
7.17537, 103, 36.5883, 24.0472, 11.5094, 8.16775, 110.415, -59.1478
7.18345, 104, 36.7782, 24.5426, 11.4986, 8.34098, 110.678, -58.558
7.19137, 104, 36.9635, 25.0258, 11.4946, 8.52204, 110.924, -57.9783
7.19942, 104, 37.145, 25.4963, 11.4966, 8.71208, 111.152, -57.4075
7.2075, 104, 37.32, 25.9546, 11.5043, 8.91091, 111.362, -56.8438
7.21537, 104, 37.4848, 26.3997, 11.5162, 9.11826, 111.556, -56.287
7.22338, 104, 37.6401, 26.8318, 11.5311, 9.33251, 111.736, -55.7368
7.2315, 104, 37.7898, 27.2522, 11.5487, 9.55076, 111.904, -55.1961
7.23944, 104, 37.9374, 27.6595, 11.568, 9.77051, 112.063, -54.6692
7.24752, 104, 38.0836, 28.0534, 11.5879, 9.98875, 112.214, -54.1592
7.25547, 104, 38.2267, 28.4336, 11.6078, 10.2037, 112.358, -53.6681
7.26349, 104, 38.3652, 28.8008, 11.627, 10.4135, 112.494, -53.1989
7.2716, 104, 38.4978, 29.1528, 11.6453, 10.6168, 112.623, -52.7526
7.27947, 104, 38.6229, 29.4882, 11.6628, 10.8123, 112.744, -52.3309
7.28756, 104, 38.7404, 29.8052, 11.6793, 10.9994, 112.858, -51.9342
7.29555, 104, 38.8499, 30.1036, 11.6945, 11.1772, 112.963, -51.5618
7.30344, 104, 38.9518, 30.3838, 11.7088, 11.3454, 113.062, -51.2147
7.31141, 104, 39.0462, 30.6441, 11.7218, 11.5035, 113.153, -50.893
7.31946, 104, 39.1325, 30.8848, 11.7335, 11.6505, 113.236, -50.5966
7.32746, 104, 39.2104, 31.1061, 11.7442, 11.7864, 113.312, -50.3254
7.33556, 104, 39.2797, 31.3072, 11.7542, 11.9108, 113.382, -50.0793
7.34363, 104, 39.341, 31.4887, 11.7633, 12.0233, 113.443, -49.8587
7.35159, 104, 39.3948, 31.6511, 11.7712, 12.1239, 113.498, -49.6631
7.35974, 104, 39.442, 31.794, 11.7782, 12.2125, 113.545, -49.4926
7.36789, 104, 39.4831, 31.9185, 11.7846, 12.2886, 113.585, -49.3465
7.37647, 104, 39.5181, 32.0258, 11.7904, 12.353, 113.619, -49.2239
7.38399, 104, 39.547, 32.1165, 11.7956, 12.4056, 113.647, -49.1244
7.39247, 104, 39.5706, 32.1918, 11.8001, 12.4464, 113.668, -49.0451
7.39991, 104, 39.5897, 32.2536, 11.8042, 12.478, 113.684, -48.9853
7.40847, 104, 39.6049, 32.3033, 11.8079, 12.5016, 113.696, -48.9419
7.41601, 104, 39.6169, 32.3425, 11.8114, 12.5183, 113.704, -48.9117
7.424, 104, 39.6218, 32.3718, 11.8144, 12.5298, 113.709, -48.8919
7.4323, 104, 39.6326, 32.3938, 11.8172, 12.5368, 113.711, -48.8799
7.43941, 104, 39.635, 32.4025, 11.8184, 12.5391, 113.712, -48.8762
7.44744, 104, 39.6383, 32.4159, 11.8203, 12.5421, 113.713, -48.8719
7.45535, 105, 39.6402, 32.4245, 11.8217, 12.5435, 113.714, -48.8698
7.46452, 105, 39.6411, 32.4319, 11.8232, 12.5444, 113.714, -48.8686
7.47136, 105, 39.641, 32.4335, 11.8237, 12.5446, 113.714, -48.8685
7.47937, 105, 39.6404, 32.4359, 11.8245, 12.5448, 113.714, -48.8684
7.48873, 105, 39.6389, 32.4383, 11.8256, 12.545, 113.714, -48.8686
7.49536, 105, 39.6382, 32.439, 11.8258, 12.545, 113.714, -48.8687
7.50339, 105, 39.6368, 32.4402, 11.8263, 12.545, 113.714, -48.8689
7.51295, 105, 39.6355, 32.4419, 11.8271, 12.5451, 113.714, -48.8693
7.52128, 105, 39.635, 32.4431, 11.8276, 12.5451, 113.714, -48.8697
7.52743, 105, 39.6348, 32.4436, 11.828, 12.5451, 113.714, -48.8698
7.53695, 105, 39.6344, 32.445, 11.8287, 12.5451, 113.714, -48.8701
7.54523, 105, 39.6342, 32.4458, 11.8291, 12.5451, 113.714, -48.8704
7.55138, 105, 39.634, 32.4461, 11.8293, 12.5451, 113.714, -48.8705
7.5594, 105, 39.6338, 32.4466, 11.8295, 12.5451, 113.714, -48.8707
7.56841, 105, 39.6335, 32.4469, 11.8298, 12.5451, 113.714, -48.8709
7.5755, 105, 39.6332, 32.4471, 11.8301, 12.545, 113.714, -48.871
