hehonglu123/Motion-Primitive-Planning/ILC/recorded_data/realrobot/wood/iteration_10/run_4.csv
timestamp, cmd_num, J1, J2, J3, J4, J5, J6
0.000483, -1, 11.3755, 13.6142, 17.3366, -145.52, -97.9256, 142.516
0.002237, -1, 11.3755, 13.6142, 17.3366, -145.52, -97.9256, 142.516
0.008015, -1, 11.3755, 13.6142, 17.3366, -145.521, -97.9256, 142.516
0.029866, -1, 11.3755, 13.6142, 17.3366, -145.521, -97.9256, 142.516
0.031744, -1, 11.3755, 13.6142, 17.3366, -145.521, -97.9256, 142.516
0.033186, -1, 11.3755, 13.6142, 17.3366, -145.521, -97.9256, 142.516
0.038657, -1, 11.3755, 13.6141, 17.3365, -145.521, -97.9256, 142.516
0.048112, -1, 11.3753, 13.6142, 17.3366, -145.52, -97.9256, 142.516
0.056235, -1, 11.3739, 13.6141, 17.3365, -145.521, -97.9256, 142.516
0.064856, -1, 11.3695, 13.6136, 17.3364, -145.521, -97.9256, 142.516
0.201716, -1, 9.88634, 13.2184, 17.4335, -145.986, -97.7653, 139.819
0.202943, -1, 9.88634, 13.2184, 17.4335, -145.986, -97.7653, 139.819
0.204231, -1, 9.88634, 13.2184, 17.4335, -145.986, -97.7653, 139.819
0.206244, -1, 9.80879, 13.1977, 17.4385, -146.01, -97.7567, 139.679
0.207662, -1, 9.80879, 13.1977, 17.4385, -146.01, -97.7567, 139.679
0.209845, -1, 9.73102, 13.177, 17.4435, -146.034, -97.7481, 139.54
0.211083, -1, 9.73102, 13.177, 17.4435, -146.034, -97.7481, 139.54
0.213791, -1, 9.65322, 13.1563, 17.4485, -146.058, -97.7395, 139.4
0.215069, -1, 9.65322, 13.1563, 17.4485, -146.058, -97.7395, 139.4
0.216451, -1, 9.65322, 13.1563, 17.4485, -146.058, -97.7395, 139.4
0.21852, -1, 9.57553, 13.1356, 17.4535, -146.082, -97.7309, 139.26
0.219732, -1, 9.57553, 13.1356, 17.4535, -146.082, -97.7309, 139.26
0.223115, -1, 9.49799, 13.115, 17.4585, -146.106, -97.7224, 139.12
0.224515, -1, 9.49799, 13.115, 17.4585, -146.106, -97.7224, 139.12
0.226524, -1, 9.42059, 13.0944, 17.4634, -146.13, -97.714, 138.981
0.228427, -1, 9.42059, 13.0944, 17.4634, -146.13, -97.714, 138.981
0.230524, -1, 9.34327, 13.0738, 17.4684, -146.154, -97.7056, 138.841
0.231724, -1, 9.34327, 13.0738, 17.4684, -146.154, -97.7056, 138.841
0.233826, -1, 9.26602, 13.0533, 17.4733, -146.178, -97.6973, 138.701
0.235107, -1, 9.26602, 13.0533, 17.4733, -146.178, -97.6973, 138.701
0.236538, -1, 9.26602, 13.0533, 17.4733, -146.178, -97.6973, 138.701
0.239753, -1, 9.18884, 13.0327, 17.4784, -146.202, -97.6889, 138.561
0.248714, -1, 9.03487, 12.9916, 17.4884, -146.25, -97.6722, 138.281
0.255748, -1, 8.88109, 12.9505, 17.4985, -146.298, -97.6553, 138.001
0.264601, -1, 8.72748, 12.9095, 17.5087, -146.346, -97.6382, 137.722
0.272337, -1, 8.57444, 12.8684, 17.5187, -146.393, -97.6207, 137.441
0.279636, -1, 8.42163, 12.8272, 17.5289, -146.442, -97.6032, 137.161
0.287609, -1, 8.2687, 12.7859, 17.539, -146.49, -97.5858, 136.881
0.295681, -1, 8.11536, 12.7443, 17.5492, -146.537, -97.5689, 136.601
0.30363, -1, 7.96147, 12.7027, 17.5595, -146.586, -97.5521, 136.321
0.311612, -1, 7.80691, 12.6609, 17.5695, -146.633, -97.5355, 136.04
0.320403, -1, 7.65207, 12.6193, 17.5796, -146.681, -97.5188, 135.76
0.327627, -1, 7.49712, 12.5777, 17.5898, -146.729, -97.502, 135.48
0.335695, -1, 7.34213, 12.5362, 17.6, -146.777, -97.4848, 135.199
0.34434, -1, 7.18719, 12.4946, 17.6102, -146.825, -97.4675, 134.919
0.351628, -1, 7.03213, 12.4531, 17.6205, -146.874, -97.4501, 134.639
0.359625, -1, 6.87696, 12.4118, 17.6308, -146.922, -97.4331, 134.358
0.368344, -1, 6.722, 12.3706, 17.6411, -146.969, -97.4162, 134.078
0.375763, -1, 6.56724, 12.3293, 17.6515, -147.018, -97.3996, 133.798
0.38362, -1, 6.41273, 12.288, 17.6619, -147.066, -97.3828, 133.517
0.39237, -1, 6.25848, 12.2466, 17.6723, -147.114, -97.366, 133.237
0.399634, -1, 6.10425, 12.2051, 17.6825, -147.162, -97.3489, 132.956
0.407613, -1, 5.94981, 12.1637, 17.6927, -147.21, -97.3314, 132.675
0.417083, -1, 5.79517, 12.1221, 17.7031, -147.258, -97.3138, 132.394
0.423627, -1, 5.6404, 12.0804, 17.7133, -147.306, -97.2964, 132.114
0.431735, -1, 5.48539, 12.0388, 17.7235, -147.354, -97.2793, 131.833
0.439684, -1, 5.33014, 11.9971, 17.7338, -147.402, -97.2624, 131.552
0.447687, -1, 5.17463, 11.9555, 17.7442, -147.451, -97.2456, 131.271
0.455822, -1, 5.0189, 11.9138, 17.7546, -147.499, -97.2289, 130.99
0.463695, -1, 4.86322, 11.8722, 17.7651, -147.547, -97.2119, 130.709
0.471686, -1, 4.7075, 11.8307, 17.7755, -147.595, -97.1946, 130.428
0.479782, -1, 4.55178, 11.7892, 17.7859, -147.643, -97.1771, 130.147
0.487632, -1, 4.39616, 11.7477, 17.7963, -147.691, -97.1597, 129.866
0.495701, -1, 4.24073, 11.7062, 17.8067, -147.74, -97.1426, 129.585
0.503756, -1, 4.08562, 11.6648, 17.8171, -147.788, -97.1256, 129.304
0.511695, -1, 3.931, 11.6233, 17.8275, -147.836, -97.1087, 129.022
0.519843, -1, 3.77664, 11.5818, 17.8378, -147.885, -97.0919, 128.741
0.65798, -1, 1.12911, 10.8728, 18.0145, -148.706, -96.8006, 123.951
0.660745, -1, 1.12911, 10.8728, 18.0145, -148.731, -96.7922, 123.81
0.662191, -1, 1.05146, 10.8519, 18.0197, -148.731, -96.7922, 123.81
0.663394, -1, 1.05146, 10.8519, 18.0197, -148.731, -96.7922, 123.81
0.665484, -1, 0.973908, 10.831, 18.0249, -148.755, -96.7837, 123.669
0.6667, -1, 0.973908, 10.831, 18.0249, -148.755, -96.7837, 123.669
0.66796, -1, 0.973908, 10.831, 18.0249, -148.755, -96.7837, 123.669
0.671625, -1, 0.896417, 10.8101, 18.0301, -148.779, -96.7751, 123.528
0.673687, -1, 0.818986, 10.7892, 18.0353, -148.804, -96.7665, 123.387
0.674919, -1, 0.818986, 10.7892, 18.0353, -148.804, -96.7665, 123.387
0.676905, -1, 0.818986, 10.7892, 18.0353, -148.804, -96.7577, 123.245
0.678285, -1, 0.741603, 10.7683, 18.0405, -148.828, -96.7577, 123.245
0.679554, -1, 0.741603, 10.7683, 18.0405, -148.828, -96.7577, 123.245
0.682234, -1, 0.664254, 10.7474, 18.0457, -148.852, -96.7489, 123.104
0.684944, -1, 0.664254, 10.7265, 18.0509, -148.876, -96.7401, 122.963
0.689145, -1, 0.586942, 10.7265, 18.0561, -148.901, -96.7312, 122.821
0.690648, -1, 0.509613, 10.7056, 18.0561, -148.901, -96.7312, 122.821
0.691949, -1, 0.509613, 10.7056, 18.0561, -148.901, -96.7312, 122.821
0.694073, -1, 0.432189, 10.6848, 18.0613, -148.925, -96.7225, 122.68
0.695445, -1, 0.432189, 10.6848, 18.0613, -148.925, -96.7225, 122.68
0.697504, -1, 0.354663, 10.6639, 18.0665, -148.949, -96.7138, 122.538
0.698758, -1, 0.354663, 10.6639, 18.0665, -148.949, -96.7138, 122.538
0.709195, -1, 0.12153, 10.601, 18.0821, -149.022, -96.6882, 122.114
0.711583, -1, 0.12153, 10.601, 18.0821, -149.022, -96.6882, 122.114
0.719582, -1, -0.0344542, 10.5592, 18.0927, -149.07, -96.6714, 121.832
0.729932, -1, -0.190854, 10.5173, 18.1032, -149.118, -96.6547, 121.407
0.735641, -1, -0.347459, 10.4755, 18.1137, -149.167, -96.6379, 121.266
0.743569, -1, -0.50445, 10.4336, 18.1241, -149.215, -96.6208, 120.984
0.751653, -1, -0.661708, 10.3918, 18.1344, -149.263, -96.6034, 120.701
0.759606, -1, -0.819049, 10.3499, 18.1449, -149.313, -96.5859, 120.418
0.767614, -1, -0.976416, 10.3081, 18.1552, -149.361, -96.5686, 120.135
0.775694, -1, -1.13361, 10.2663, 18.1656, -149.409, -96.5516, 119.852
0.783574, -1, -1.29069, 10.2245, 18.1759, -149.458, -96.5347, 119.569
0.791648, -1, -1.4476, 10.1826, 18.1863, -149.507, -96.5179, 119.285
0.799575, -1, -1.60421, 10.1408, 18.1968, -149.555, -96.5011, 119.002
0.807584, -1, -1.7603, 10.0989, 18.2073, -149.604, -96.4841, 118.719
0.815708, -1, -1.91601, 10.057, 18.2177, -149.653, -96.4667, 118.436
0.823608, -1, -2.07135, 10.0151, 18.2282, -149.701, -96.449, 118.152
0.831574, -1, -2.22647, 9.97326, 18.2385, -149.75, -96.4315, 117.869
0.839641, -1, -2.38175, 9.93139, 18.249, -149.799, -96.4142, 117.585
0.847579, -1, -2.5374, 9.88937, 18.2595, -149.847, -96.3971, 117.301
0.855627, -1, -2.69317, 9.84744, 18.2698, -149.896, -96.3803, 117.017
0.863634, -1, -2.84938, 9.80552, 18.2802, -149.944, -96.3635, 116.734
0.871563, -1, -3.00599, 9.76355, 18.2906, -149.993, -96.3465, 116.45
0.879624, -1, -3.16299, 9.72165, 18.301, -150.042, -96.3294, 116.166
0.887645, -1, -3.32043, 9.67969, 18.3115, -150.09, -96.3119, 115.882
0.895669, -1, -3.47816, 9.63766, 18.322, -150.139, -96.2943, 115.599
0.903572, -1, -3.63594, 9.59576, 18.3324, -150.188, -96.2769, 115.315
0.911637, -1, -3.79379, 9.55386, 18.3428, -150.236, -96.2597, 115.03
0.919578, -1, -3.95174, 9.5118, 18.3532, -150.285, -96.2426, 114.746
0.927601, -1, -4.10965, 9.46987, 18.3636, -150.334, -96.2257, 114.462
0.93578, -1, -4.26748, 9.42792, 18.374, -150.383, -96.2087, 114.177
0.943671, -1, -4.42512, 9.38588, 18.3843, -150.431, -96.1914, 113.893
0.95174, -1, -4.58238, 9.3439, 18.3947, -150.48, -96.1739, 113.608
0.9597, -1, -4.73913, 9.30183, 18.405, -150.529, -96.1561, 113.323
0.967676, -1, -4.8956, 9.25974, 18.4155, -150.578, -96.1385, 113.038
0.975815, -1, -5.05183, 9.21766, 18.4261, -150.627, -96.1211, 112.753
0.983587, -1, -5.20773, 9.1756, 18.4366, -150.675, -96.104, 112.469
0.991627, -1, -5.36363, 9.13348, 18.4471, -150.724, -96.0871, 112.184
0.999671, -1, -5.51974, 9.09134, 18.4576, -150.773, -96.0702, 111.9
1.00761, -1, -5.67604, 9.04927, 18.468, -150.822, -96.0531, 111.615
1.01582, -1, -5.83273, 9.00711, 18.4785, -150.871, -96.0359, 111.33
1.02405, -1, -5.98988, 8.96491, 18.4888, -150.92, -96.0183, 111.045
1.03193, -1, -6.14753, 8.92279, 18.4992, -150.968, -96.0007, 110.76
1.03859, -1, -6.22657, 8.9017, 18.5044, -150.993, -95.9919, 110.617
1.048, -1, -6.46399, 8.83848, 18.5199, -151.067, -95.9661, 110.189
1.056, -1, -6.62242, 8.79642, 18.5304, -151.115, -95.9491, 109.904
1.06258, -1, -6.70175, 8.77534, 18.5356, -151.14, -95.9405, 109.761
1.07211, -1, -6.93976, 8.71211, 18.5514, -151.214, -95.915, 109.333
1.08027, -1, -7.09824, 8.67002, 18.5619, -151.262, -95.8977, 109.047
1.08827, -1, -7.25666, 8.62782, 18.5723, -151.311, -95.8801, 108.762
1.09616, -1, -7.33582, 8.60673, 18.5827, -151.361, -95.8624, 108.476
1.10416, -1, -7.49393, 8.56446, 18.5879, -151.385, -95.8535, 108.19
1.11218, -1, -7.6516, 8.52217, 18.5984, -151.434, -95.836, 108.047
1.11956, -1, -7.80885, 8.47992, 18.6089, -151.483, -95.8188, 107.762
1.12755, -1, -7.96586, 8.43763, 18.6193, -151.532, -95.8018, 107.476
1.13562, -1, -8.12258, 8.39526, 18.6297, -151.581, -95.7848, 107.19
1.14357, -1, -8.27906, 8.35292, 18.6401, -151.63, -95.7678, 106.904
1.15157, -1, -8.4357, 8.31058, 18.6507, -151.679, -95.7506, 106.618
1.15959, -1, -8.59273, 8.26821, 18.6612, -151.728, -95.7331, 106.332
1.16757, -1, -8.75004, 8.22595, 18.6717, -151.777, -95.7154, 106.045
1.17568, -1, -8.90764, 8.18364, 18.6821, -151.826, -95.6978, 105.759
1.18357, -1, -9.06581, 8.14131, 18.6925, -151.875, -95.6805, 105.473
1.19157, -1, -9.22434, 8.09905, 18.703, -151.925, -95.6633, 105.186
1.19961, -1, -9.38317, 8.05673, 18.7134, -151.974, -95.6462, 104.9
1.20756, -1, -9.54223, 8.01442, 18.7239, -152.023, -95.6291, 104.613
1.21562, -1, -9.70136, 7.97218, 18.7343, -152.073, -95.6118, 104.326
1.22364, -1, -9.8607, 7.9299, 18.7448, -152.121, -95.5942, 104.039
1.23159, -1, -10.0202, 7.88752, 18.7555, -152.171, -95.5764, 103.752
1.23956, -1, -10.1793, 7.8451, 18.7661, -152.22, -95.5585, 103.465
1.24762, -1, -10.3384, 7.80263, 18.7767, -152.269, -95.5409, 103.179
1.25662, -1, -10.4973, 7.76013, 18.7873, -152.319, -95.5237, 102.892
1.26357, -1, -10.6559, 7.71767, 18.7976, -152.368, -95.5067, 102.605
1.27162, -1, -10.814, 7.67514, 18.8082, -152.417, -95.4897, 102.318
1.27956, -1, -10.9718, 7.63256, 18.8187, -152.466, -95.4726, 102.031
1.28763, -1, -11.1294, 7.59006, 18.8291, -152.516, -95.4552, 101.743
1.29557, -1, -11.2868, 7.54759, 18.8396, -152.565, -95.4375, 101.456
1.30357, -1, -11.4442, 7.50511, 18.8501, -152.615, -95.4196, 101.169
1.31163, -1, -11.6018, 7.46262, 18.8606, -152.664, -95.402, 100.881
1.31956, -1, -11.7597, 7.42021, 18.8712, -152.713, -95.3847, 100.593
1.32759, -1, -11.9181, 7.37779, 18.8818, -152.762, -95.3674, 100.305
1.33563, -1, -12.0768, 7.33541, 18.8924, -152.812, -95.3502, 100.018
1.34357, -1, -12.2359, 7.29304, 18.9029, -152.861, -95.333, 99.7298
1.35156, -1, -12.3955, 7.2506, 18.9134, -152.911, -95.3156, 99.4416
1.35994, -1, -12.5554, 7.20818, 18.924, -152.96, -95.2978, 99.1537
1.36755, -1, -12.7153, 7.16576, 18.9345, -153.009, -95.2798, 98.8659
1.37556, -1, -12.8754, 7.12329, 18.9451, -153.059, -95.262, 98.5779
1.3844, -1, -13.0355, 7.08074, 18.9556, -153.108, -95.2444, 98.2897
1.39155, -1, -13.1955, 7.03813, 18.9661, -153.158, -95.227, 98.0016
1.39957, -1, -13.3552, 6.9955, 18.9768, -153.208, -95.2099, 97.7134
1.40843, -1, -13.5148, 6.95278, 18.9873, -153.257, -95.1927, 97.4248
1.41556, -1, -13.674, 6.90998, 18.9979, -153.306, -95.1755, 97.136
1.42358, -1, -13.833, 6.8673, 19.0084, -153.356, -95.158, 96.8475
1.43267, -1, -13.9916, 6.82459, 19.0189, -153.405, -95.1402, 96.5591
1.43964, -1, -14.1499, 6.7819, 19.0294, -153.454, -95.1224, 96.2703
1.44764, -1, -14.308, 6.73928, 19.04, -153.504, -95.1047, 95.9811
1.45669, -1, -14.4662, 6.69658, 19.0505, -153.553, -95.0875, 95.6923
1.4637, -1, -14.6246, 6.65394, 19.0611, -153.603, -95.0702, 95.4033
1.47174, -1, -14.7834, 6.61144, 19.0716, -153.652, -95.0531, 95.114
1.4801, -1, -14.9427, 6.56884, 19.0822, -153.702, -95.0358, 94.8247
1.48756, -1, -15.1022, 6.52618, 19.093, -153.752, -95.0182, 94.5356
1.4958, -1, -15.2621, 6.48362, 19.1037, -153.801, -95.0003, 94.2466
1.50515, -1, -15.4224, 6.44099, 19.1144, -153.851, -94.9822, 93.9573
1.51163, -1, -15.583, 6.39829, 19.1249, -153.901, -94.9644, 93.668
1.51974, -1, -15.7438, 6.35558, 19.1355, -153.95, -94.9469, 93.3788
1.52933, -1, -15.9045, 6.31276, 19.1462, -154, -94.9297, 93.0894
1.53588, -1, -16.0653, 6.26985, 19.1568, -154.05, -94.9126, 92.7996
1.54393, -1, -16.2262, 6.22701, 19.1673, -154.099, -94.8954, 92.51
1.55353, -1, -16.3867, 6.18404, 19.1778, -154.149, -94.878, 92.2205
1.56002, -1, -16.5472, 6.14103, 19.1883, -154.199, -94.8603, 91.9307
1.56656, -1, -16.6273, 6.11957, 19.1936, -154.223, -94.8514, 91.7855
1.57769, -1, -16.8669, 6.05509, 19.2096, -154.298, -94.8246, 91.3502
1.58416, -1, -17.0263, 6.01214, 19.2203, -154.348, -94.8071, 91.0602
1.59214, -1, -17.1855, 5.96918, 19.2309, -154.397, -94.7897, 90.7699
1.60093, -1, -17.265, 5.94772, 19.2361, -154.447, -94.7723, 90.4793
1.60826, -1, -17.4241, 5.90489, 19.2467, -154.497, -94.7551, 90.1891
1.61555, -1, -17.5834, 5.86212, 19.2575, -154.522, -94.7463, 90.0441
1.62356, -1, -17.7428, 5.8193, 19.2681, -154.571, -94.7287, 89.7538
1.63159, -1, -17.9024, 5.77653, 19.2788, -154.622, -94.7108, 89.4633
1.63954, -1, -18.0625, 5.73373, 19.2894, -154.671, -94.6926, 89.1727
1.64754, -1, -18.2229, 5.69096, 19.3, -154.721, -94.6748, 88.8823
1.65562, -1, -18.3838, 5.64818, 19.3108, -154.771, -94.6572, 88.5915
1.66359, -1, -18.5452, 5.60526, 19.3215, -154.821, -94.6398, 88.3005
1.67154, -1, -18.7068, 5.56229, 19.3322, -154.871, -94.6225, 88.0096
1.67959, -1, -18.8685, 5.5193, 19.3428, -154.921, -94.6052, 87.7188
1.68754, -1, -19.0301, 5.47628, 19.3533, -154.971, -94.5877, 87.4276
1.69554, -1, -19.1917, 5.43311, 19.364, -155.021, -94.5698, 87.1362
1.70356, -1, -19.3532, 5.38993, 19.3746, -155.071, -94.5517, 86.8449
1.71154, -1, -19.5145, 5.34676, 19.3852, -155.121, -94.5338, 86.5534
1.71862, -1, -19.6753, 5.30355, 19.3958, -155.17, -94.516, 86.2618
1.72754, -1, -19.8361, 5.26035, 19.4064, -155.221, -94.4985, 85.97
1.73706, -1, -19.9965, 5.21713, 19.4172, -155.27, -94.481, 85.6785
1.74356, -1, -20.1566, 5.17396, 19.428, -155.32, -94.4636, 85.3871
1.75256, -1, -20.3163, 5.131, 19.4388, -155.371, -94.4461, 85.0953
1.75963, -1, -20.4762, 5.08795, 19.4496, -155.421, -94.4282, 84.8033
1.76754, -1, -20.6363, 5.04489, 19.4603, -155.471, -94.4101, 84.5117
1.77557, -1, -20.7966, 5.00197, 19.471, -155.521, -94.3921, 84.2198
1.78362, -1, -20.9573, 4.95899, 19.4817, -155.571, -94.3743, 83.9276
1.79154, -1, -21.1183, 4.91591, 19.4924, -155.621, -94.3569, 83.6354
1.79954, -1, -21.2798, 4.87285, 19.503, -155.672, -94.3396, 83.3435
1.8076, -1, -21.4418, 4.82964, 19.5136, -155.722, -94.3224, 83.0513
1.81554, -1, -21.6039, 4.78636, 19.5244, -155.772, -94.305, 82.7588
1.82363, -1, -21.7661, 4.74317, 19.5352, -155.822, -94.2874, 82.4662
1.83164, -1, -21.9285, 4.69979, 19.5459, -155.872, -94.2694, 82.1736
1.83954, -1, -22.091, 4.65642, 19.5567, -155.923, -94.2513, 81.8809
1.84756, -1, -22.2536, 4.61308, 19.5673, -155.973, -94.2335, 81.588
1.85561, -1, -22.4159, 4.56964, 19.578, -156.023, -94.216, 81.2954
1.86355, -1, -22.578, 4.52624, 19.5888, -156.074, -94.1984, 81.0028
1.87155, -1, -22.7397, 4.48282, 19.5994, -156.124, -94.1811, 80.7099
1.8796, -1, -22.901, 4.43943, 19.6101, -156.173, -94.1635, 80.4168
1.88759, -1, -23.0623, 4.39615, 19.6208, -156.224, -94.1457, 80.124
1.89562, -1, -23.2233, 4.35288, 19.6314, -156.274, -94.1275, 79.8309
1.90358, -1, -23.3841, 4.3096, 19.6423, -156.325, -94.1091, 79.5375
1.91154, -1, -23.545, 4.26636, 19.6532, -156.375, -94.0911, 79.244
1.91978, -1, -23.7061, 4.22313, 19.664, -156.425, -94.0733, 78.9507
1.92754, -1, -23.8672, 4.17989, 19.6747, -156.476, -94.0557, 78.6571
1.93559, -1, -24.0286, 4.13659, 19.6854, -156.526, -94.0383, 78.3633
1.94388, -1, -24.1906, 4.09319, 19.6961, -156.577, -94.0209, 78.0693
1.95164, -1, -24.3531, 4.0498, 19.7069, -156.627, -94.0032, 77.7755
1.9597, -1, -24.5159, 4.00637, 19.7175, -156.678, -93.9853, 77.4813
1.96805, -1, -24.679, 3.96284, 19.7282, -156.728, -93.9671, 77.1869
1.97565, -1, -24.8423, 3.9193, 19.7388, -156.778, -93.9491, 76.8928
1.9836, -1, -25.0057, 3.87578, 19.7497, -156.829, -93.9314, 76.5988
1.9922, -1, -25.1691, 3.83223, 19.7606, -156.879, -93.9138, 76.3045
1.99975, -1, -25.3322, 3.78867, 19.7715, -156.93, -93.8963, 76.01
2.00764, -1, -25.4953, 3.74506, 19.7823, -156.98, -93.8789, 75.7158
2.01647, -1, -25.658, 3.70142, 19.793, -157.03, -93.861, 75.4214
2.02368, -1, -25.8206, 3.65792, 19.8037, -157.081, -93.8429, 75.1267
2.03182, -1, -25.9829, 3.61447, 19.8146, -157.131, -93.8245, 74.8318
2.04072, -1, -26.1449, 3.57092, 19.8253, -157.182, -93.8062, 74.5372
2.04799, -1, -26.3066, 3.52751, 19.8361, -157.233, -93.7882, 74.2425
2.05602, -1, -26.4681, 3.48415, 19.8469, -157.283, -93.7705, 73.9475
2.06259, -1, -26.549, 3.46238, 19.8522, -157.308, -93.7617, 73.7998
2.07208, -1, -26.792, 3.39715, 19.8685, -157.384, -93.7353, 73.3572
2.0801, -1, -26.9544, 3.35361, 19.8793, -157.435, -93.7175, 73.0619
2.08919, -1, -27.1171, 3.30995, 19.8902, -157.486, -93.6994, 72.7664
2.09633, -1, -27.2801, 3.26643, 19.9009, -157.536, -93.6811, 72.4712
2.10418, -1, -27.3618, 3.22271, 19.9116, -157.586, -93.6628, 72.1761
2.11296, -1, -27.5255, 3.20079, 19.9171, -157.612, -93.6539, 72.0284
2.11953, -1, -27.6894, 3.15708, 19.9279, -157.663, -93.636, 71.7328
2.12758, -1, -27.8533, 3.11344, 19.9386, -157.713, -93.6183, 71.4371
2.13554, -1, -28.0175, 3.06969, 19.9494, -157.764, -93.6006, 71.1415
2.14353, -1, -28.1818, 3.02595, 19.9602, -157.815, -93.5828, 70.8458
2.15157, -1, -28.3461, 2.98224, 19.971, -157.865, -93.5648, 70.5496
2.15957, -1, -28.5101, 2.93849, 19.9819, -157.916, -93.5464, 70.2536
2.16761, -1, -28.6739, 2.89483, 19.9928, -157.967, -93.5279, 69.9578
2.17553, -1, -28.8373, 2.85111, 20.0036, -158.018, -93.5097, 69.6616
2.18352, -1, -29.0004, 2.80741, 20.0143, -158.069, -93.4918, 69.365
2.19159, -1, -29.1631, 2.76378, 20.0251, -158.12, -93.474, 69.0686
2.19953, -1, -29.3258, 2.72012, 20.0359, -158.17, -93.4563, 68.7719
2.20753, -1, -29.4885, 2.67641, 20.0467, -158.222, -93.4387, 68.475
2.2156, -1, -29.6513, 2.63264, 20.0576, -158.273, -93.4207, 68.1782
2.22354, -1, -29.8143, 2.58881, 20.0684, -158.323, -93.4024, 67.8815
2.23154, -1, -29.9774, 2.54505, 20.0793, -158.375, -93.3839, 67.5848
2.24144, -1, -30.1408, 2.50113, 20.0903, -158.425, -93.3567, 67.139
2.24752, -1, -30.3046, 2.45712, 20.1012, -158.476, -93.3478, 66.9906
2.25655, -1, -30.4689, 2.41319, 20.1122, -158.527, -93.3299, 66.6938
2.26359, -1, -30.6337, 2.36912, 20.123, -158.578, -93.3122, 66.3965
2.27154, -1, -30.7987, 2.32511, 20.1337, -158.629, -93.2944, 66.099
2.27952, -1, -30.9637, 2.28113, 20.1447, -158.68, -93.2764, 65.8017
2.28767, -1, -31.1288, 2.23701, 20.1555, -158.731, -93.258, 65.5046
2.29553, -1, -31.2939, 2.19306, 20.1664, -158.782, -93.2394, 65.2072
2.30359, -1, -31.4588, 2.14919, 20.1772, -158.833, -93.2211, 64.9094
2.31152, -1, -31.6234, 2.10513, 20.1879, -158.884, -93.2031, 64.6116
2.31953, -1, -31.788, 2.06114, 20.1989, -158.936, -93.1853, 64.3137
2.3276, -1, -31.9523, 2.01722, 20.2099, -158.987, -93.1677, 64.0157
2.33557, -1, -32.1163, 1.9732, 20.2209, -159.038, -93.1502, 63.7175
2.34352, -1, -32.2799, 1.92921, 20.2318, -159.089, -93.1322, 63.4197
2.35169, -1, -32.4433, 1.88519, 20.2427, -159.14, -93.1141, 63.1217
2.35953, -1, -32.607, 1.84105, 20.2537, -159.191, -93.0957, 62.8234
2.36755, -1, -32.7709, 1.79697, 20.2646, -159.243, -93.0774, 62.525
2.37559, -1, -32.9349, 1.75284, 20.2755, -159.294, -93.0594, 62.2267
2.38352, -1, -33.0992, 1.70857, 20.2864, -159.345, -93.0415, 61.9282
2.39153, -1, -33.2638, 1.66434, 20.2972, -159.396, -93.0237, 61.6294
2.39959, -1, -33.4288, 1.62014, 20.3082, -159.447, -93.0058, 61.3309
2.40756, -1, -33.5943, 1.57584, 20.3192, -159.499, -92.9878, 61.0323
2.41573, -1, -33.76, 1.53159, 20.3301, -159.55, -92.9693, 60.7334
2.42353, -1, -33.9258, 1.48734, 20.341, -159.601, -92.9506, 60.4343
2.43154, -1, -34.0917, 1.44315, 20.3518, -159.653, -92.932, 60.1352
2.43966, -1, -34.2577, 1.39899, 20.3628, -159.704, -92.9138, 59.8359
2.44762, -1, -34.4239, 1.35475, 20.3738, -159.755, -92.8958, 59.5362
2.45565, -1, -34.5898, 1.31056, 20.3847, -159.807, -92.8781, 59.2367
2.46368, -1, -34.7553, 1.2664, 20.3956, -159.858, -92.8603, 58.9375
2.47163, -1, -34.9205, 1.22216, 20.4066, -159.909, -92.8423, 58.6381
2.47962, -1, -35.0854, 1.1779, 20.4176, -159.961, -92.8239, 58.3384
2.48771, -1, -35.25, 1.1336, 20.4287, -160.012, -92.8054, 58.0386
2.49553, -1, -35.4144, 1.08936, 20.4398, -160.064, -92.7869, 57.739
2.50359, -1, -35.5776, 1.04539, 20.451, -160.115, -92.7687, 57.439
2.51162, -1, -35.7387, 1.00178, 20.4623, -160.166, -92.7507, 57.1396
2.51964, -1, -35.8963, 0.959022, 20.4741, -160.217, -92.7329, 56.8426
2.52773, -1, -36.0495, 0.917657, 20.486, -160.267, -92.7154, 56.5501
2.53615, -1, -36.1964, 0.878195, 20.4979, -160.316, -92.698, 56.2652
2.54385, -1, -36.3345, 0.841323, 20.5097, -160.362, -92.6811, 55.9936
2.55191, -1, -36.4621, 0.807522, 20.5208, -160.405, -92.6652, 55.7415
2.56037, -1, -36.5779, 0.776841, 20.5308, -160.443, -92.6509, 55.5151
2.56803, -1, -36.68, 0.749874, 20.5392, -160.476, -92.6387, 55.3197
2.57613, -1, -36.7673, 0.726716, 20.5454, -160.504, -92.6288, 55.1588
2.58411, -1, -36.8404, 0.707395, 20.5493, -160.525, -92.6212, 55.0329
2.59216, -1, -36.9001, 0.691707, 20.5513, -160.541, -92.6159, 54.9412
2.60015, -1, -36.9469, 0.679334, 20.5521, -160.552, -92.6122, 54.8775
2.60825, -1, -36.9816, 0.670067, 20.5521, -160.559, -92.61, 54.8366
2.61548, -1, -36.9952, 0.66655, 20.5519, -160.562, -92.6093, 54.823
2.62357, -1, -37.0155, 0.661439, 20.5515, -160.565, -92.6084, 54.8051
2.63163, -1, -37.0279, 0.65841, 20.5511, -160.567, -92.6079, 54.7961
2.63948, 2, -37.0345, 0.656821, 20.5509, -160.568, -92.6077, 54.7918
2.64752, 2, -37.0367, 0.656105, 20.5508, -160.568, -92.6076, 54.7899
2.65557, 2, -37.0365, 0.655789, 20.5508, -160.568, -92.6075, 54.7891
2.66351, 2, -37.0359, 0.655644, 20.5508, -160.568, -92.6075, 54.7887
2.67155, 2, -37.0357, 0.655585, 20.5507, -160.568, -92.6075, 54.7885
2.67956, 2, -37.0361, 0.655543, 20.5507, -160.568, -92.6076, 54.7884
2.68752, 2, -37.0371, 0.655508, 20.5506, -160.568, -92.6076, 54.7884
2.69551, 2, -37.0382, 0.655411, 20.5505, -160.568, -92.6076, 54.7884
2.70358, 2, -37.0397, 0.655221, 20.5503, -160.568, -92.6076, 54.7884
2.7115, 2, -37.0411, 0.654985, 20.5501, -160.568, -92.6076, 54.7884
2.71951, 2, -37.0422, 0.654726, 20.5499, -160.568, -92.6077, 54.7885
2.72759, 2, -37.0432, 0.654495, 20.5497, -160.568, -92.6078, 54.7886
2.73552, 2, -37.0436, 0.654395, 20.5495, -160.568, -92.6078, 54.7886
2.74353, 2, -37.0437, 0.654342, 20.5492, -160.568, -92.6079, 54.7888
2.75339, 2, -37.0429, 0.654351, 20.5491, -160.568, -92.6079, 54.7889
2.75953, 2, -37.0424, 0.654363, 20.5491, -160.568, -92.6079, 54.789
2.76752, 2, -37.0414, 0.654407, 20.549, -160.568, -92.608, 54.7891
2.77558, 2, -37.0398, 0.654465, 20.5489, -160.568, -92.608, 54.7893
2.7835, 2, -37.0384, 0.654541, 20.5488, -160.568, -92.608, 54.7895
2.79156, 2, -37.0373, 0.654574, 20.5487, -160.568, -92.608, 54.7896
2.79958, 2, -37.0367, 0.654572, 20.5487, -160.568, -92.608, 54.7897
2.80752, 2, -37.0365, 0.65456, 20.5487, -160.568, -92.6081, 54.7897
2.81552, 2, -37.0365, 0.654529, 20.5487, -160.568, -92.6081, 54.7898
2.82359, 2, -37.0367, 0.654466, 20.5487, -160.568, -92.6081, 54.7898
2.83151, 2, -37.037, 0.654417, 20.5486, -160.568, -92.6081, 54.7898
2.83954, 2, -37.0375, 0.654378, 20.5486, -160.568, -92.6081, 54.7898
2.84759, 2, -37.0382, 0.65436, 20.5486, -160.568, -92.6082, 54.7898
2.85555, 2, -37.0389, 0.654351, 20.5486, -160.568, -92.6082, 54.7899
2.86351, 2, -37.0396, 0.654355, 20.5486, -160.568, -92.6082, 54.79
2.87158, 2, -37.04, 0.654372, 20.5486, -160.568, -92.6081, 54.79
2.87951, 2, -37.0401, 0.6544, 20.5486, -160.568, -92.6081, 54.7901
2.88752, 2, -37.0402, 0.654431, 20.5486, -160.568, -92.6081, 54.7902
2.89559, 2, -37.0401, 0.654427, 20.5485, -160.568, -92.6081, 54.7902
2.90351, 2, -37.0397, 0.654443, 20.5485, -160.568, -92.6081, 54.7902
2.91152, 2, -37.0393, 0.65444, 20.5485, -160.568, -92.6082, 54.7903
2.91962, 2, -37.0391, 0.654431, 20.5485, -160.568, -92.6082, 54.7903
2.92752, 2, -37.0389, 0.654408, 20.5485, -160.568, -92.6082, 54.7904
2.93554, 2, -37.0387, 0.654398, 20.5485, -160.568, -92.6082, 54.7904
2.94364, 2, -37.0387, 0.654374, 20.5485, -160.568, -92.6082, 54.7905
2.9516, 2, -37.0387, 0.654365, 20.5485, -160.568, -92.6083, 54.7905
2.95965, 2, -37.0387, 0.654378, 20.5484, -160.568, -92.6082, 54.7906
2.96769, 2, -37.0388, 0.654372, 20.5484, -160.568, -92.6083, 54.7906
2.97562, 2, -37.0389, 0.654369, 20.5484, -160.568, -92.6083, 54.7907
2.98361, 2, -37.0391, 0.654391, 20.5484, -160.568, -92.6083, 54.7907
2.99168, 2, -37.0393, 0.654416, 20.5484, -160.568, -92.6083, 54.7907
2.99952, 2, -37.0394, 0.654413, 20.5484, -160.568, -92.6083, 54.7908
3.00758, 2, -37.0395, 0.654418, 20.5484, -160.568, -92.6083, 54.7908
3.01581, 2, -37.0395, 0.654439, 20.5484, -160.568, -92.6083, 54.7909
3.02361, 2, -37.0394, 0.654438, 20.5484, -160.568, -92.6083, 54.791
3.03165, 2, -37.0394, 0.65443, 20.5484, -160.568, -92.6083, 54.791
3.04011, 2, -37.0394, 0.654396, 20.5484, -160.568, -92.6083, 54.791
3.04784, 2, -37.0394, 0.654385, 20.5483, -160.568, -92.6083, 54.7911
3.05585, 2, -37.0393, 0.654375, 20.5483, -160.568, -92.6083, 54.7912
3.0645, 2, -37.0394, 0.654378, 20.5483, -160.568, -92.6083, 54.7913
3.07197, 2, -37.0394, 0.654384, 20.5483, -160.568, -92.6083, 54.7913
3.08005, 2, -37.0393, 0.654375, 20.5483, -160.568, -92.6083, 54.7913
3.08846, 2, -37.0394, 0.654383, 20.5483, -160.568, -92.6083, 54.7914
3.09607, 2, -37.0393, 0.654397, 20.5483, -160.568, -92.6084, 54.7914
3.10408, 2, -37.0393, 0.65443, 20.5483, -160.568, -92.6084, 54.7914
3.11263, 2, -37.0394, 0.654434, 20.5483, -160.568, -92.6083, 54.7915
3.1195, 2, -37.0394, 0.65443, 20.5483, -160.568, -92.6083, 54.7915
3.12756, 2, -37.0393, 0.654445, 20.5483, -160.568, -92.6083, 54.7915
3.13645, 2, -37.0393, 0.654441, 20.5483, -160.568, -92.6083, 54.7917
3.1435, 2, -37.0393, 0.654446, 20.5483, -160.568, -92.6083, 54.7917
3.15149, 2, -37.0393, 0.654441, 20.5482, -160.568, -92.6084, 54.7917
3.15955, 2, -37.0393, 0.654442, 20.5482, -160.568, -92.6084, 54.7917
3.16751, 2, -37.0393, 0.654421, 20.5482, -160.568, -92.6084, 54.7918
3.17553, 2, -37.0393, 0.654404, 20.5482, -160.568, -92.6083, 54.7918
3.18355, 2, -37.0393, 0.654396, 20.5482, -160.568, -92.6083, 54.7919
3.19158, 2, -37.0392, 0.654403, 20.5482, -160.568, -92.6084, 54.7919
3.19949, 2, -37.0392, 0.654433, 20.5482, -160.568, -92.6084, 54.792
3.20756, 2, -37.0392, 0.654446, 20.5482, -160.568, -92.6084, 54.792
3.2155, 2, -37.0392, 0.654452, 20.5482, -160.568, -92.6084, 54.792
3.2235, 2, -37.0392, 0.654455, 20.5482, -160.568, -92.6084, 54.7921
3.23156, 2, -37.0392, 0.654445, 20.5482, -160.568, -92.6084, 54.7921
3.23949, 2, -37.0392, 0.654444, 20.5482, -160.568, -92.6084, 54.7921
3.24849, 2, -37.0391, 0.65444, 20.5482, -160.568, -92.6084, 54.7921
3.25556, 2, -37.0391, 0.654442, 20.5482, -160.568, -92.6084, 54.7922
3.26349, 2, -37.0391, 0.65445, 20.5481, -160.568, -92.6084, 54.7922
3.27149, 2, -37.0391, 0.654454, 20.5481, -160.568, -92.6084, 54.7923
3.27956, 2, -37.0391, 0.654456, 20.5481, -160.568, -92.6084, 54.7923
3.28759, 2, -37.0391, 0.654438, 20.548, -160.568, -92.6084, 54.7923
3.29555, 2, -37.0391, 0.654449, 20.5481, -160.568, -92.6084, 54.7923
3.30355, 2, -37.0391, 0.654442, 20.548, -160.568, -92.6084, 54.7924
3.31149, 2, -37.0391, 0.654443, 20.548, -160.568, -92.6084, 54.7924
3.31949, 2, -37.039, 0.654451, 20.548, -160.568, -92.6084, 54.7925
3.32757, 2, -37.039, 0.654467, 20.548, -160.568, -92.6084, 54.7925
3.33549, 2, -37.039, 0.654443, 20.548, -160.568, -92.6084, 54.7925
3.34353, 2, -37.039, 0.654451, 20.548, -160.568, -92.6084, 54.7925
3.35156, 2, -37.039, 0.654443, 20.548, -160.568, -92.6085, 54.7926
3.35949, 2, -37.039, 0.654443, 20.548, -160.568, -92.6085, 54.7926
3.3675, 2, -37.039, 0.654451, 20.548, -160.568, -92.6085, 54.7926
3.37558, 2, -37.039, 0.654436, 20.548, -160.568, -92.6085, 54.7926
3.38349, 2, -37.0389, 0.654429, 20.548, -160.567, -92.6085, 54.7926
3.39149, 2, -37.0389, 0.654426, 20.548, -160.567, -92.6085, 54.7927
3.39956, 2, -37.0389, 0.654424, 20.548, -160.567, -92.6085, 54.7927
3.4075, 2, -37.0389, 0.654442, 20.5479, -160.567, -92.6085, 54.7927
3.41551, 2, -37.0388, 0.654463, 20.5479, -160.567, -92.6085, 54.7927
3.42357, 2, -37.0389, 0.654472, 20.5479, -160.567, -92.6085, 54.7927
3.43149, 2, -37.0389, 0.654471, 20.5479, -160.567, -92.6085, 54.7928
3.43958, 2, -37.0388, 0.654469, 20.5479, -160.567, -92.6085, 54.7928
3.44764, 2, -37.0388, 0.654462, 20.5479, -160.567, -92.6085, 54.7929
3.45559, 2, -37.0388, 0.65446, 20.5479, -160.567, -92.6085, 54.7929
3.46364, 2, -37.0387, 0.654478, 20.5479, -160.567, -92.6085, 54.7928
3.47166, 2, -37.0388, 0.654472, 20.5479, -160.567, -92.6085, 54.7929
3.4796, 2, -37.0388, 0.654435, 20.5479, -160.567, -92.6086, 54.7929
3.48761, 2, -37.0388, 0.654439, 20.5479, -160.567, -92.6085, 54.7929
3.49567, 2, -37.0388, 0.654438, 20.5479, -160.567, -92.6085, 54.7929
3.50352, 2, -37.0388, 0.654423, 20.5479, -160.567, -92.6085, 54.793
3.51155, 2, -37.0387, 0.654449, 20.5478, -160.567, -92.6085, 54.793
3.51961, 2, -37.0387, 0.654458, 20.5479, -160.567, -92.6086, 54.793
3.52765, 2, -37.0387, 0.654447, 20.5478, -160.567, -92.6085, 54.793
3.53567, 2, -37.0387, 0.654465, 20.5478, -160.567, -92.6086, 54.793
3.54384, 2, -37.0387, 0.654466, 20.5478, -160.567, -92.6085, 54.793
3.55186, 2, -37.0387, 0.654468, 20.5478, -160.567, -92.6085, 54.793
3.55985, 2, -37.0387, 0.654467, 20.5478, -160.567, -92.6086, 54.793
3.56801, 2, -37.0387, 0.654462, 20.5478, -160.567, -92.6085, 54.7931
3.57605, 2, -37.0387, 0.654459, 20.5478, -160.567, -92.6086, 54.7931
3.58405, 2, -37.0386, 0.654466, 20.5478, -160.567, -92.6086, 54.7931
3.59209, 2, -37.0387, 0.654473, 20.5478, -160.567, -92.6085, 54.7931
3.60011, 2, -37.0386, 0.654477, 20.5478, -160.567, -92.6085, 54.7931
3.60808, 2, -37.0386, 0.654471, 20.5478, -160.567, -92.6085, 54.7931
3.61615, 2, -37.0386, 0.654474, 20.5478, -160.567, -92.6086, 54.7931
3.62349, 2, -37.0386, 0.654482, 20.5478, -160.567, -92.6086, 54.7931
3.63154, 2, -37.0386, 0.654469, 20.5478, -160.567, -92.6086, 54.7931
3.64028, 2, -37.0386, 0.65447, 20.5478, -160.567, -92.6087, 54.7931
3.64749, 2, -37.0386, 0.654487, 20.5477, -160.567, -92.6087, 54.7931
3.65667, 2, -37.0385, 0.654491, 20.5477, -160.567, -92.6087, 54.7931
3.66348, 2, -37.0385, 0.65448, 20.5477, -160.567, -92.6087, 54.7931
3.67148, 2, -37.0385, 0.654487, 20.5477, -160.567, -92.6086, 54.7931
3.67956, 2, -37.0385, 0.654495, 20.5477, -160.567, -92.6086, 54.7932
3.68749, 2, -37.0385, 0.65448, 20.5477, -160.567, -92.6086, 54.7932
3.69549, 2, -37.0385, 0.654487, 20.5477, -160.567, -92.6087, 54.7932
3.70353, 2, -37.0385, 0.654488, 20.5477, -160.567, -92.6087, 54.7932
3.71147, 2, -37.0385, 0.654484, 20.5477, -160.567, -92.6087, 54.7932
3.71948, 2, -37.0384, 0.654482, 20.5476, -160.567, -92.6086, 54.7932
3.72753, 4, -37.0385, 0.654481, 20.5476, -160.567, -92.6086, 54.7932
3.73727, 4, -37.0384, 0.654485, 20.5477, -160.567, -92.6086, 54.7932
3.74348, 4, -37.0384, 0.654483, 20.5477, -160.567, -92.6086, 54.7932
3.75157, 4, -37.0384, 0.654482, 20.5476, -160.567, -92.6086, 54.7932
3.75951, 4, -37.0384, 0.654486, 20.5476, -160.567, -92.6086, 54.7932
3.76848, 4, -37.0384, 0.65449, 20.5476, -160.567, -92.6087, 54.7932
3.77555, 4, -37.0383, 0.654489, 20.5476, -160.567, -92.6086, 54.7932
3.78348, 4, -37.0384, 0.654484, 20.5476, -160.567, -92.6087, 54.7932
3.79148, 4, -37.0383, 0.65447, 20.5476, -160.567, -92.6087, 54.7932
3.79959, 4, -37.0383, 0.65447, 20.5476, -160.567, -92.6087, 54.7932
3.80749, 4, -37.0383, 0.654476, 20.5476, -160.567, -92.6087, 54.7932
3.81548, 4, -37.0383, 0.654478, 20.5476, -160.567, -92.6087, 54.7932
3.82355, 4, -37.0383, 0.654491, 20.5476, -160.567, -92.6087, 54.7931
3.85035, 4, -37.0383, 0.654485, 20.5475, -160.567, -92.6087, 54.7932
3.85235, 4, -37.0382, 0.654484, 20.5475, -160.567, -92.6087, 54.7932
3.85485, 4, -37.0382, 0.65449, 20.5475, -160.567, -92.6087, 54.7932
3.85676, 4, -37.0382, 0.65449, 20.5475, -160.567, -92.6087, 54.7932
3.86908, 4, -37.0382, 0.654499, 20.5475, -160.567, -92.6087, 54.7932
3.87263, 4, -37.0382, 0.654482, 20.5475, -160.567, -92.6087, 54.7932
3.87955, 4, -37.0374, 0.654328, 20.5476, -160.567, -92.6087, 54.7932
3.88749, 4, -37.0348, 0.653415, 20.5477, -160.567, -92.6087, 54.7932
3.89567, 4, -37.029, 0.6505, 20.5485, -160.567, -92.6087, 54.7932
3.90363, 4, -37.0195, 0.644518, 20.5511, -160.567, -92.6088, 54.7932
3.91147, 4, -37.006, 0.634936, 20.5565, -160.566, -92.6088, 54.7932
3.91952, 4, -36.9879, 0.621249, 20.5662, -160.564, -92.6088, 54.7932
3.92756, 5, -36.964, 0.603007, 20.5818, -160.561, -92.6087, 54.7931
3.93549, 5, -36.9348, 0.580407, 20.6037, -160.557, -92.6085, 54.7931
3.94539, 5, -36.9007, 0.553239, 20.6325, -160.551, -92.6081, 54.7931
3.95173, 5, -36.8619, 0.521739, 20.6681, -160.543, -92.6074, 54.7931
3.96111, 5, -36.8179, 0.485417, 20.7095, -160.534, -92.6063, 54.793
3.96948, 5, -36.7688, 0.444543, 20.7559, -160.523, -92.6049, 54.7929
3.97634, 5, -36.7146, 0.39965, 20.806, -160.512, -92.6033, 54.793
3.98365, 5, -36.6562, 0.351429, 20.8587, -160.5, -92.6016, 54.793
3.99154, 5, -36.5939, 0.30082, 20.9131, -160.488, -92.5998, 54.7929
3.99973, 5, -36.5282, 0.248399, 20.9683, -160.476, -92.5981, 54.7929
4.0075, 5, -36.4609, 0.195006, 21.0236, -160.463, -92.5962, 54.7929
4.01555, 5, -36.3926, 0.14125, 21.0791, -160.451, -92.5943, 54.7929
4.024, 5, -36.3239, 0.0873395, 21.1345, -160.439, -92.5925, 54.793
4.03175, 5, -36.2551, 0.0334357, 21.19, -160.427, -92.5906, 54.793
4.03968, 5, -36.1861, -0.0202654, 21.2455, -160.415, -92.5886, 54.7931
4.04818, 5, -36.1175, -0.0737121, 21.3009, -160.403, -92.5867, 54.7932
4.05581, 5, -36.0488, -0.12692, 21.3561, -160.391, -92.5847, 54.7932
4.06402, 5, -35.9802, -0.179912, 21.4114, -160.378, -92.5827, 54.7933
4.07191, 5, -35.9116, -0.232708, 21.4665, -160.365, -92.5807, 54.7935
4.0801, 5, -35.8429, -0.28532, 21.5215, -160.352, -92.5786, 54.7939
4.08817, 5, -35.774, -0.337908, 21.5766, -160.339, -92.5766, 54.7944
4.09622, 5, -35.7049, -0.390529, 21.6314, -160.327, -92.5746, 54.7952
4.10503, 5, -35.6355, -0.443141, 21.686, -160.314, -92.5726, 54.7961
4.11209, 5, -35.6007, -0.469502, 21.7404, -160.302, -92.5705, 54.7973
4.12088, 5, -35.496, -0.548635, 21.7947, -160.289, -92.5685, 54.7986
4.12902, 5, -35.461, -0.601427, 21.8488, -160.277, -92.5665, 54.8001
4.13556, 5, -35.3907, -0.62781, 21.8758, -160.27, -92.5654, 54.8008
4.14521, 5, -35.285, -0.706866, 21.9566, -160.251, -92.5623, 54.8034
4.15521, 5, -35.2144, -0.75945, 22.0103, -160.237, -92.5603, 54.8053
4.15947, 5, -35.1791, -0.785582, 22.0372, -160.231, -92.5593, 54.8063
4.16746, 5, -35.1084, -0.837752, 22.0908, -160.217, -92.5571, 54.8083
4.17562, 5, -35.0378, -0.889816, 22.1443, -160.204, -92.555, 54.8105
4.18347, 5, -34.9672, -0.941556, 22.1977, -160.191, -92.5529, 54.8128
4.19152, 5, -34.8968, -0.993157, 22.251, -160.178, -92.5507, 54.8153
4.19961, 5, -34.8262, -1.04452, 22.3041, -160.165, -92.5485, 54.8178
4.20745, 5, -34.7556, -1.09584, 22.3571, -160.152, -92.5463, 54.8205
4.21703, 5, -34.6494, -1.17279, 22.4363, -160.133, -92.543, 54.8247
4.22348, 5, -34.614, -1.19841, 22.4625, -160.127, -92.5419, 54.8262
4.23147, 5, -34.543, -1.24974, 22.5149, -160.114, -92.5396, 54.8293
4.23952, 5, -34.4718, -1.30108, 22.5672, -160.1, -92.5374, 54.8323
4.24789, 5, -34.4004, -1.35238, 22.6194, -160.086, -92.5351, 54.8356
4.25832, 5, -34.2929, -1.42929, 22.6973, -160.066, -92.5317, 54.8406
4.26346, 5, -34.257, -1.45489, 22.7232, -160.059, -92.5306, 54.8424
4.27224, 5, -34.1852, -1.50594, 22.775, -160.045, -92.5283, 54.846
4.27946, 5, -34.1132, -1.55672, 22.8266, -160.032, -92.526, 54.8496
4.28746, 5, -34.0411, -1.60739, 22.8782, -160.018, -92.5237, 54.8535
4.29827, 5, -33.9328, -1.68285, 22.9553, -159.998, -92.5201, 54.8594
4.30373, 5, -33.8967, -1.70791, 22.981, -159.991, -92.519, 54.8614
4.31386, 5, -33.7884, -1.78287, 23.0576, -159.971, -92.5156, 54.8676
4.31946, 5, -33.7523, -1.80782, 23.0831, -159.964, -92.5144, 54.8696
4.3277, 5, -33.68, -1.85767, 23.1339, -159.95, -92.5121, 54.8738
4.33649, 5, -33.6076, -1.90745, 23.1844, -159.935, -92.5098, 54.8781
4.34353, 5, -33.5349, -1.95747, 23.2349, -159.921, -92.5076, 54.8824
4.35151, 5, -33.4621, -2.00781, 23.2854, -159.907, -92.5053, 54.8864
4.35946, 5, -33.3894, -2.05845, 23.3358, -159.893, -92.503, 54.8895
4.36754, 5, -33.3169, -2.10959, 23.3861, -159.879, -92.5006, 54.8911
4.37558, 6, -33.2445, -2.1613, 23.4369, -159.864, -92.498, 54.8913
4.384, 6, -33.1727, -2.21391, 23.4879, -159.85, -92.4949, 54.8896
4.39147, 6, -33.1011, -2.26742, 23.5397, -159.834, -92.4912, 54.8847
4.39961, 7, -33.0301, -2.32187, 23.5923, -159.817, -92.4864, 54.8745
4.40754, 7, -32.9594, -2.37752, 23.6461, -159.799, -92.4802, 54.8605
4.41547, 7, -32.8893, -2.43437, 23.7011, -159.78, -92.4724, 54.8441
4.4268, 7, -32.7852, -2.52242, 23.7863, -159.748, -92.457, 54.818
4.43169, 7, -32.7508, -2.55251, 23.8153, -159.737, -92.4509, 54.8093
4.43942, 8, -32.6825, -2.61395, 23.8743, -159.715, -92.4372, 54.7924
4.44778, 8, -32.6149, -2.67699, 23.9346, -159.69, -92.4216, 54.7757
4.4557, 8, -32.5481, -2.74176, 23.996, -159.665, -92.4042, 54.7586
4.46446, 8, -32.4819, -2.80814, 24.0584, -159.638, -92.3849, 54.7406
4.4716, 8, -32.4163, -2.87607, 24.1218, -159.61, -92.364, 54.7213
4.47979, 9, -32.3514, -2.94541, 24.1861, -159.582, -92.3421, 54.7003
4.48815, 9, -32.287, -3.01604, 24.2515, -159.553, -92.3191, 54.6776
4.49548, 9, -32.2233, -3.08802, 24.3178, -159.522, -92.2949, 54.6529
4.5038, 9, -32.1601, -3.16132, 24.3852, -159.49, -92.2692, 54.6269
4.51251, 9, -32.0975, -3.23585, 24.4535, -159.458, -92.2416, 54.5997
4.51954, 9, -32.0353, -3.31173, 24.5228, -159.425, -92.2124, 54.5711
4.52767, 10, -31.9739, -3.38888, 24.5931, -159.391, -92.1822, 54.5407
4.53574, 10, -31.913, -3.4675, 24.6645, -159.355, -92.151, 54.5085
4.54366, 10, -31.8525, -3.5476, 24.737, -159.319, -92.118, 54.4742
4.55208, 10, -31.7927, -3.62901, 24.8105, -159.282, -92.0831, 54.4387
4.56081, 10, -31.7335, -3.7119, 24.8849, -159.244, -92.0472, 54.4021
4.56788, 11, -31.6748, -3.79627, 24.9604, -159.205, -92.0104, 54.3639
4.57732, 11, -31.6166, -3.88217, 25.0367, -159.165, -91.9722, 54.3238
4.5849, 11, -31.559, -3.96946, 25.1141, -159.125, -91.9317, 54.2817
4.59221, 11, -31.5019, -4.05826, 25.1924, -159.083, -91.8905, 54.2387
4.60005, 11, -31.4453, -4.14856, 25.2718, -159.04, -91.8483, 54.1943
4.60805, 12, -31.4172, -4.24029, 25.3522, -158.997, -91.8038, 54.1483
4.61612, 12, -31.3614, -4.33343, 25.4337, -158.952, -91.758, 54.1
4.62398, 12, -31.3061, -4.38052, 25.4749, -158.929, -91.7349, 54.0755
4.63283, 12, -31.2241, -4.52376, 25.6, -158.86, -91.6633, 54.0003
4.63948, 12, -31.1971, -4.57222, 25.6422, -158.836, -91.6385, 53.9744
4.64746, 13, -31.1433, -4.67021, 25.7272, -158.788, -91.5885, 53.9208
4.65548, 13, -31.0901, -4.76957, 25.8132, -158.739, -91.5369, 53.8662
4.66346, 13, -31.0373, -4.87039, 25.9001, -158.69, -91.4833, 53.8105
4.67145, 13, -30.9851, -4.97281, 25.9882, -158.639, -91.4294, 53.7527
4.68111, 13, -30.9078, -5.12909, 26.1224, -158.562, -91.3451, 53.6637
4.68752, 14, -30.8822, -5.18188, 26.1677, -158.535, -91.3165, 53.6335
4.69545, 14, -30.8317, -5.28861, 26.2591, -158.481, -91.2587, 53.5714
4.70361, 14, -30.7817, -5.3968, 26.3513, -158.428, -91.1985, 53.5079
4.71142, 14, -30.7321, -5.5065, 26.4444, -158.373, -91.1381, 53.4438
4.71956, 14, -30.6831, -5.61777, 26.5385, -158.316, -91.0755, 53.3772
4.72741, 15, -30.6347, -5.73045, 26.6336, -158.26, -91.0117, 53.3095
4.73546, 15, -30.5867, -5.84453, 26.73, -158.201, -90.9466, 53.2408
4.74352, 15, -30.5392, -5.95985, 26.8275, -158.143, -90.8798, 53.1697
4.75179, 15, -30.4922, -6.07653, 26.9261, -158.083, -90.8126, 53.0981
4.76231, 15, -30.4227, -6.25424, 27.0756, -157.992, -90.7081, 52.9869
4.76746, 15, -30.3997, -6.31418, 27.1258, -157.961, -90.6729, 52.9492
4.77646, 16, -30.3543, -6.43532, 27.2271, -157.898, -90.6006, 52.873
4.78356, 16, -30.3094, -6.55786, 27.3295, -157.836, -90.5279, 52.7944
4.79248, 16, -30.2649, -6.68178, 27.4332, -157.771, -90.4532, 52.7153
4.80294, 16, -30.1992, -6.87055, 27.5907, -157.673, -90.3391, 52.5933
4.80773, 16, -30.1775, -6.93423, 27.6436, -157.64, -90.3004, 52.5523
4.81543, 17, -30.1344, -7.06286, 27.7502, -157.573, -90.2221, 52.4689
4.82345, 17, -30.0919, -7.19308, 27.8575, -157.505, -90.1424, 52.384
4.83161, 17, -30.05, -7.32474, 27.9659, -157.436, -90.0611, 52.2984
4.83943, 17, -30.0085, -7.45759, 28.0755, -157.367, -89.9789, 52.2104
4.84746, 17, -29.9674, -7.59186, 28.1863, -157.296, -89.8951, 52.122
4.85555, 18, -29.9269, -7.72757, 28.2983, -157.225, -89.8102, 52.0317
4.86345, 18, -29.887, -7.86472, 28.411, -157.152, -89.7237, 51.9405
4.87145, 18, -29.8475, -8.00325, 28.5246, -157.079, -89.6365, 51.8474
4.87961, 18, -29.8084, -8.14292, 28.6391, -157.005, -89.5477, 51.7535
4.88749, 18, -29.7698, -8.28396, 28.7549, -156.93, -89.4575, 51.6577
4.89545, 19, -29.7317, -8.42637, 28.8719, -156.854, -89.3665, 51.5612
4.90491, 19, -29.6941, -8.57044, 28.9899, -156.777, -89.274, 51.4632
4.91707, 19, -29.6384, -8.7894, 29.1685, -156.661, -89.1328, 51.3143
4.91992, 19, -29.6201, -8.86297, 29.2284, -156.621, -89.0854, 51.2643
4.92746, 19, -29.5839, -9.01108, 29.3489, -156.542, -88.9895, 51.1633
4.93545, 20, -29.5482, -9.16071, 29.4706, -156.461, -88.8923, 51.0608
4.94366, 20, -29.5128, -9.31187, 29.5936, -156.38, -88.7943, 50.9573
4.9515, 20, -29.478, -9.46453, 29.7175, -156.298, -88.6951, 50.8525
4.96, 20, -29.4436, -9.61822, 29.8422, -156.215, -88.5947, 50.7463
4.96754, 20, -29.4096, -9.77308, 29.9678, -156.131, -88.4935, 50.6392
4.9756, 21, -29.3763, -9.92932, 30.0944, -156.046, -88.391, 50.5307
4.98397, 21, -29.3432, -10.0871, 30.222, -155.96, -88.2872, 50.4215
4.99156, 21, -29.3105, -10.2464, 30.3507, -155.874, -88.1827, 50.311
5.00017, 21, -29.2783, -10.4065, 30.4803, -155.787, -88.0771, 50.1998
5.01257, 21, -29.2307, -10.6488, 30.6763, -155.654, -87.9166, 50.0314
5.01582, 22, -29.2151, -10.7303, 30.7421, -155.609, -87.8626, 49.9749
5.02426, 22, -29.1841, -10.8944, 30.8744, -155.519, -87.7539, 49.8611
5.03191, 22, -29.1534, -11.0595, 31.0077, -155.428, -87.6443, 49.7465
5.04122, 22, -29.1233, -11.2254, 31.1418, -155.337, -87.5336, 49.6307
5.04791, 22, -29.0934, -11.3926, 31.2769, -155.244, -87.4218, 49.5143
5.05625, 23, -29.064, -11.5615, 31.4129, -155.15, -87.3093, 49.397
5.06457, 23, -29.0348, -11.732, 31.5496, -155.056, -87.1957, 49.279
5.07191, 23, -29.006, -11.9031, 31.6872, -154.961, -87.0814, 49.1604
5.081, 23, -28.9777, -12.0752, 31.8255, -154.865, -86.9663, 49.0412
5.08897, 23, -28.9497, -12.2487, 31.9648, -154.768, -86.85, 48.9213
5.0963, 23, -28.9221, -12.4237, 32.1051, -154.67, -86.7328, 48.8011
5.10481, 24, -28.8949, -12.5994, 32.2461, -154.572, -86.6147, 48.6803
5.11206, 24, -28.8679, -12.7757, 32.3878, -154.472, -86.4959, 48.5587
5.12003, 24, -28.8545, -12.8641, 32.4589, -154.422, -86.3762, 48.4366
5.12993, 24, -28.8152, -13.132, 32.6737, -154.271, -86.2554, 48.3138
5.13629, 24, -28.8022, -13.2219, 32.818, -154.169, -86.1344, 48.1907
5.14472, 25, -28.7637, -13.4923, 32.9629, -154.067, -86.0122, 48.0673
5.15144, 25, -28.751, -13.5828, 33.0356, -154.015, -85.9509, 48.0056
5.16218, 25, -28.7132, -13.8566, 33.2545, -153.859, -85.7662, 47.8204
5.16743, 25, -28.7006, -13.9485, 33.3279, -153.807, -85.7041, 47.7584
5.17549, 25, -28.6759, -14.1327, 33.4754, -153.701, -85.5799, 47.6345
5.18351, 26, -28.6514, -14.3173, 33.6236, -153.595, -85.4548, 47.5106
5.19147, 26, -28.6273, -14.503, 33.7721, -153.488, -85.3292, 47.3861
5.19948, 26, -28.6035, -14.6903, 33.9213, -153.38, -85.2033, 47.2617
5.20758, 26, -28.5798, -14.8782, 34.0714, -153.271, -85.0763, 47.1375
5.21549, 26, -28.5561, -15.0661, 34.2222, -153.162, -84.9491, 47.0133
5.22343, 27, -28.5328, -15.2549, 34.3734, -153.052, -84.8211, 46.8893
5.23304, 27, -28.4983, -15.5396, 34.601, -152.886, -84.6287, 46.7043
5.2395, 27, -28.4868, -15.6347, 34.6773, -152.83, -84.5641, 46.6426
5.24743, 27, -28.4641, -15.8251, 34.8304, -152.718, -84.4347, 46.5196
5.25737, 27, -28.4417, -16.0166, 34.9839, -152.549, -84.24, 46.3355
5.26418, 28, -28.4195, -16.2097, 35.1374, -152.492, -84.1749, 46.2743
5.27143, 28, -28.3971, -16.4032, 35.2916, -152.378, -84.0445, 46.1523
5.28056, 28, -28.3749, -16.5972, 35.4466, -152.263, -83.9136, 46.0308
5.28759, 28, -28.353, -16.792, 35.602, -152.148, -83.7826, 45.9098
5.29545, 28, -28.3309, -16.9878, 35.7574, -152.032, -83.651, 45.7898
5.30418, 29, -28.3089, -17.1836, 35.9133, -151.915, -83.5195, 45.6707
5.31149, 29, -28.287, -17.3794, 36.0698, -151.797, -83.3874, 45.5524
5.31949, 29, -28.2652, -17.576, 36.2269, -151.679, -83.2551, 45.4351
5.33092, 29, -28.2323, -17.8719, 36.4623, -151.501, -83.056, 45.2611
5.33557, 29, -28.2215, -17.9704, 36.5408, -151.442, -82.9896, 45.2034
5.34439, 30, -28.2, -18.1677, 36.6986, -151.322, -82.8566, 45.0892
5.35243, 30, -28.1784, -18.366, 36.8569, -151.202, -82.7234, 44.9761
5.36338, 30, -28.146, -18.6638, 37.0941, -151.02, -82.5235, 44.8089
5.36747, 30, -28.1352, -18.763, 37.1731, -150.959, -82.4567, 44.7542
5.37544, 30, -28.1136, -18.9621, 37.3315, -150.837, -82.3234, 44.6454
5.38346, 30, -28.0917, -19.1621, 37.4904, -150.715, -82.1894, 44.5387
5.3915, 31, -28.0698, -19.3621, 37.6493, -150.592, -82.0559, 44.4331
5.39943, 31, -28.048, -19.5619, 37.8079, -150.469, -81.922, 44.3296
5.40765, 31, -28.0262, -19.762, 37.9667, -150.345, -81.7885, 44.2277
5.41553, 31, -28.0042, -19.9625, 38.1263, -150.22, -81.6547, 44.1274
5.42345, 31, -27.9822, -20.1625, 38.2859, -150.095, -81.5208, 44.0289
5.43151, 32, -27.9601, -20.3624, 38.445, -149.969, -81.387, 43.932
5.43947, 32, -27.9377, -20.5631, 38.6041, -149.843, -81.2532, 43.8372
5.44753, 32, -27.9151, -20.7641, 38.7638, -149.717, -81.1193, 43.7442
5.45591, 32, -27.8924, -20.9647, 38.9237, -149.59, -80.9852, 43.6536
5.46442, 32, -27.8695, -21.1651, 39.083, -149.462, -80.8516, 43.5653
5.47159, 33, -27.8463, -21.3658, 39.242, -149.334, -80.7181, 43.4799
5.48168, 33, -27.8228, -21.5661, 39.4012, -149.207, -80.5851, 43.3974
5.49177, 33, -27.7989, -21.7655, 39.5602, -149.079, -80.4521, 43.3178
5.49557, 33, -27.7745, -21.9649, 39.7183, -148.951, -80.32, 43.2418
5.50344, 33, -27.7498, -22.1644, 39.8756, -148.823, -80.1879, 43.1686
5.51166, 34, -27.7248, -22.3632, 40.0327, -148.695, -80.0565, 43.0992
5.51951, 34, -27.6994, -22.5611, 40.1898, -148.567, -79.9253, 43.0328
5.52751, 34, -27.6736, -22.759, 40.3463, -148.438, -79.7941, 42.9689
5.53594, 34, -27.6474, -22.9567, 40.5021, -148.31, -79.6631, 42.9089
5.54363, 34, -27.6206, -23.1535, 40.658, -148.181, -79.5321, 42.8519
5.55168, 35, -27.5936, -23.3498, 40.814, -148.052, -79.4014, 42.7975
5.55984, 35, -27.5663, -23.5465, 40.9693, -147.923, -79.2706, 42.7473
5.56792, 35, -27.5386, -23.743, 41.1239, -147.793, -79.1405, 42.701
5.57661, 35, -27.5106, -23.9386, 41.2782, -147.663, -79.0103, 42.6581
5.58439, 35, -27.4823, -24.1338, 41.4324, -147.533, -78.8807, 42.6185
5.59198, 36, -27.4534, -24.3288, 41.5861, -147.403, -78.7511, 42.5831
5.60081, 36, -27.424, -24.5231, 41.7391, -147.273, -78.6218, 42.5523
5.60819, 36, -27.3944, -24.7162, 41.8913, -147.143, -78.4932, 42.5257
5.6176, 36, -27.3641, -24.9089, 42.0434, -147.012, -78.3647, 42.5034
5.62404, 36, -27.3487, -25.0054, 42.1193, -146.947, -78.3008, 42.4855
5.63245, 37, -27.3012, -25.2935, 42.3453, -146.752, -78.1092, 42.4718
5.63947, 37, -27.285, -25.389, 42.4202, -146.687, -78.0456, 42.4667
5.64748, 37, -27.2521, -25.5792, 42.5694, -146.557, -77.9186, 42.4602
5.6556, 37, -27.2186, -25.7692, 42.7179, -146.427, -77.7917, 42.4572
5.66493, 37, -27.1841, -25.958, 42.939, -146.233, -77.6025, 42.459
5.67142, 37, -27.1488, -26.1451, 43.0121, -146.169, -77.5395, 42.4627
5.67943, 38, -27.1127, -26.3308, 43.1574, -146.041, -77.4142, 42.4746
5.68748, 38, -27.0758, -26.516, 43.3018, -145.913, -77.2894, 42.4915
5.69547, 38, -27.0381, -26.7, 43.4453, -145.786, -77.1651, 42.514
5.70587, 38, -26.9798, -26.9733, 43.6587, -145.595, -76.9796, 42.5583
5.71162, 38, -26.96, -27.064, 43.7292, -145.532, -76.918, 42.5761
5.7194, 39, -26.9199, -27.2453, 43.8697, -145.406, -76.7954, 42.6165
5.72746, 39, -26.879, -27.4256, 44.0093, -145.28, -76.6726, 42.6628
5.73928, 39, -26.816, -27.6933, 44.2173, -145.091, -76.4891, 42.7421
5.74339, 39, -26.7946, -27.7823, 44.2861, -145.028, -76.4279, 42.7718
5.75148, 39, -26.7513, -27.96, 44.4231, -144.903, -76.3054, 42.8362
5.75944, 40, -26.707, -28.1368, 44.559, -144.778, -76.1832, 42.906
5.76842, 40, -26.6616, -28.3118, 44.6939, -144.653, -76.0611, 42.9827
5.77551, 40, -26.6153, -28.4854, 44.8277, -144.529, -75.9395, 43.0658
5.78342, 40, -26.5681, -28.6581, 44.96, -144.406, -75.8179, 43.1548
5.79148, 40, -26.5196, -28.8293, 45.0908, -144.284, -75.6973, 43.2513
5.79941, 41, -26.47, -28.9984, 45.2202, -144.162, -75.577, 43.3539
5.80758, 41, -26.4192, -29.1656, 45.348, -144.042, -75.457, 43.4635
5.8164, 41, -26.3671, -29.3317, 45.4742, -143.923, -75.3379, 43.5797
5.82342, 41, -26.3136, -29.4964, 45.5989, -143.805, -75.219, 43.7027
5.83156, 41, -26.2589, -29.6591, 45.7219, -143.688, -75.1009, 43.8331
5.84062, 42, -26.2027, -29.82, 45.843, -143.573, -74.9832, 43.9707
5.84743, 42, -26.1452, -29.9794, 45.9625, -143.459, -74.8658, 44.1156
5.85645, 42, -26.0862, -30.1371, 46.0802, -143.346, -74.7492, 44.2674
5.86351, 42, -26.0259, -30.2929, 46.1961, -143.235, -74.6325, 44.4269
5.87145, 42, -25.9641, -30.4464, 46.3103, -143.125, -74.5165, 44.5936
5.88039, 43, -25.9007, -30.5978, 46.4225, -143.017, -74.4009, 44.7677
5.88758, 43, -25.8357, -30.7473, 46.5327, -142.911, -74.2857, 44.95
5.89642, 43, -25.7692, -30.8947, 46.6408, -142.806, -74.171, 45.1398
5.90685, 43, -25.6662, -31.1114, 46.799, -142.653, -73.9995, 45.4391
5.91162, 43, -25.6311, -31.1824, 46.8508, -142.603, -73.9427, 45.5426
5.92047, 44, -25.5595, -31.3229, 46.9528, -142.504, -73.8293, 45.7555
5.92751, 44, -25.4861, -31.461, 47.0523, -142.408, -73.7164, 45.9761
5.9356, 44, -25.4106, -31.5968, 47.1494, -142.314, -73.604, 46.2049
5.94365, 44, -25.3333, -31.7301, 47.2439, -142.222, -73.492, 46.4416
5.95144, 44, -25.2542, -31.8605, 47.336, -142.133, -73.3806, 46.6866
5.95971, 45, -25.1732, -31.9882, 47.4256, -142.046, -73.2699, 46.9397
5.96795, 45, -25.0904, -32.1131, 47.5128, -141.963, -73.1595, 47.2016
5.97551, 45, -25.0053, -32.2353, 47.5975, -141.882, -73.0502, 47.4716
5.98381, 45, -24.9183, -32.3545, 47.6791, -141.804, -72.9414, 47.7499
5.99252, 45, -24.8291, -32.4708, 47.7577, -141.729, -72.8332, 48.0364
5.99947, 45, -24.7375, -32.5839, 47.8333, -141.657, -72.7262, 48.3315
6.00758, 46, -24.6438, -32.6937, 47.9059, -141.589, -72.6196, 48.6352
6.01551, 46, -24.5477, -32.8003, 47.9756, -141.524, -72.5142, 48.9473
6.02347, 46, -24.4491, -32.9035, 48.0423, -141.463, -72.4094, 49.2678
6.03183, 46, -24.3484, -33.0029, 48.1057, -141.406, -72.3053, 49.5973
6.04054, 46, -24.2453, -33.0987, 48.1657, -141.352, -72.2028, 49.9348
6.04849, 47, -24.14, -33.1906, 48.2221, -141.304, -72.101, 50.2803
6.05696, 47, -24.0321, -33.2783, 48.2749, -141.258, -72, 50.6346
6.06388, 47, -23.9214, -33.362, 48.324, -141.216, -71.9006, 50.997
6.07187, 47, -23.8081, -33.4414, 48.3692, -141.18, -71.802, 51.3677
6.08144, 47, -23.6919, -33.5166, 48.4106, -141.149, -71.7046, 51.7471
6.09015, 48, -23.5729, -33.5874, 48.448, -141.122, -71.6089, 52.1344
6.09607, 48, -23.4514, -33.6535, 48.4811, -141.099, -71.5146, 52.5298
6.10399, 48, -23.3273, -33.715, 48.5102, -141.081, -71.4218, 52.934
6.11258, 48, -23.2008, -33.7715, 48.5352, -141.068, -71.3312, 53.3465
6.12, 48, -23.1365, -33.7978, 48.5461, -141.061, -71.2424, 53.7675
6.1279, 49, -23.0056, -33.8467, 48.5645, -141.059, -71.1987, 53.9811
6.13826, 49, -22.804, -33.9101, 48.5839, -141.059, -71.0704, 54.6327
6.14341, 49, -22.7353, -33.9285, 48.588, -141.062, -71.0288, 54.854
6.15145, 49, -22.5958, -33.9611, 48.5927, -141.073, -70.9469, 55.3025
6.15955, 49, -22.4535, -33.9881, 48.5929, -141.09, -70.8674, 55.7587
6.16744, 50, -22.3083, -34.0091, 48.5883, -141.113, -70.7901, 56.2236
6.17542, 50, -22.1606, -34.024, 48.5785, -141.142, -70.7162, 56.6959
6.18349, 50, -22.0102, -34.0326, 48.5636, -141.177, -70.6448, 57.1767
6.1914, 50, -21.8569, -34.0353, 48.5434, -141.218, -70.577, 57.6663
6.19947, 50, -21.7005, -34.0321, 48.5178, -141.266, -70.5121, 58.1634
6.20756, 51, -21.5411, -34.0221, 48.4866, -141.32, -70.4515, 58.6675
6.21556, 51, -21.3788, -34.0055, 48.4502, -141.38, -70.3935, 59.1772
6.22497, 51, -21.1304, -33.9676, 48.3855, -141.482, -70.3141, 59.9521
6.23398, 51, -20.9617, -33.9337, 48.3355, -141.557, -70.2653, 60.4751
6.2423, 51, -20.8765, -33.914, 48.3085, -141.597, -70.2201, 61.0027
6.2476, 52, -20.7041, -33.869, 48.2501, -141.682, -70.1993, 61.2683
6.25974, 52, -20.4404, -33.7867, 48.1513, -141.82, -70.144, 62.0755
6.26355, 52, -20.3511, -33.7553, 48.1154, -141.87, -70.1277, 62.348
6.27147, 52, -20.1702, -33.6863, 48.0388, -141.974, -70.0985, 62.8988
6.2794, 52, -19.9867, -33.6089, 47.9557, -142.084, -70.0749, 63.4561
6.28755, 52, -19.8005, -33.5229, 47.8659, -142.201, -70.0567, 64.021
6.2955, 53, -19.6121, -33.4281, 47.7696, -142.324, -70.0443, 64.5927
6.30345, 53, -19.4216, -33.3248, 47.6669, -142.454, -70.0376, 65.1707
6.31142, 53, -19.2289, -33.2132, 47.5581, -142.59, -70.0359, 65.7525
6.31943, 53, -19.0344, -33.0932, 47.4431, -142.732, -70.0396, 66.3391
6.3274, 53, -18.8381, -32.9646, 47.3221, -142.879, -70.0495, 66.9289
6.33866, 54, -18.5403, -32.7559, 47.1294, -143.108, -70.0763, 67.8159
6.34623, 54, -18.4401, -32.6821, 47.0623, -143.187, -70.0886, 68.1121
6.35146, 54, -18.2381, -32.5286, 46.9243, -143.348, -70.1184, 68.7053
6.35942, 54, -18.0346, -32.367, 46.7807, -143.513, -70.154, 69.2996
6.36801, 54, -17.8301, -32.1968, 46.6316, -143.683, -70.1959, 69.8946
6.37648, 55, -17.6249, -32.0175, 46.4765, -143.857, -70.2458, 70.4915
6.38343, 55, -17.4185, -31.8292, 46.3156, -144.035, -70.3029, 71.0917
6.39147, 55, -17.2106, -31.6319, 46.1487, -144.218, -70.3674, 71.6954
6.39941, 55, -17.0013, -31.4247, 45.9747, -144.406, -70.4409, 72.3024
6.40739, 55, -16.7903, -31.2069, 45.7933, -144.598, -70.5224, 72.9137
6.41564, 56, -16.5779, -30.9791, 45.6056, -144.795, -70.6134, 73.5293
6.42447, 56, -16.364, -30.7409, 45.4109, -144.996, -70.7129, 74.1483
6.43143, 56, -16.1493, -30.4915, 45.2081, -145.202, -70.8218, 74.7698
6.4396, 56, -15.9346, -30.2317, 44.9984, -145.411, -70.9405, 75.3949
6.44825, 56, -15.72, -29.9612, 44.7827, -145.623, -71.0684, 76.0225
6.4555, 57, -15.5044, -29.6797, 44.5593, -145.839, -71.2063, 76.6513
6.46379, 57, -15.2876, -29.3881, 44.3288, -146.058, -71.3539, 77.2814
6.47149, 57, -15.0698, -29.0859, 44.0921, -146.278, -71.5117, 77.9133
6.47969, 57, -14.8516, -28.7742, 43.8484, -146.501, -71.6792, 78.545
6.48968, 57, -14.6339, -28.454, 43.5996, -146.725, -71.8563, 79.175
6.49583, 58, -14.4168, -28.1259, 43.3466, -146.949, -72.0421, 79.8033
6.50448, 58, -14.2007, -27.7904, 43.0889, -147.173, -72.2356, 80.4275
6.5114, 58, -13.986, -27.4468, 42.8286, -147.395, -72.4367, 81.0452
6.52023, 58, -13.773, -27.0965, 42.5651, -147.616, -72.6447, 81.6566
6.52743, 58, -13.5612, -26.7392, 42.299, -147.834, -72.8595, 82.2618
6.53585, 59, -13.3507, -26.3757, 42.0302, -148.05, -73.081, 82.8607
6.54441, 59, -13.142, -26.0052, 41.7576, -148.264, -73.3099, 83.4534
6.55161, 59, -12.935, -25.6282, 41.4821, -148.477, -73.5465, 84.0417
6.56048, 59, -12.7296, -25.2446, 41.2025, -148.688, -73.791, 84.6262
6.56809, 59, -12.5252, -24.8544, 40.9196, -148.896, -74.0442, 85.2069
6.57593, 59, -12.3218, -24.4564, 40.6324, -149.104, -74.3059, 85.7833
6.58472, 60, -12.1196, -24.0513, 40.3411, -149.309, -74.5762, 86.3563
6.59197, 60, -11.9191, -23.6397, 40.0469, -149.512, -74.8549, 86.9257
6.6005, 60, -11.7199, -23.2213, 39.7495, -149.712, -75.1418, 87.4907
6.60799, 60, -11.5227, -22.7972, 39.4504, -149.91, -75.4363, 88.05
6.61624, 60, -11.3279, -22.368, 39.1491, -150.104, -75.7377, 88.6039
6.62423, 61, -11.1354, -21.9348, 38.8467, -150.294, -76.0453, 89.1513
6.63197, 61, -11.0399, -21.7163, 38.6948, -150.387, -76.2011, 89.422
6.64143, 61, -10.7566, -21.0552, 38.2381, -150.66, -76.6759, 90.2205
6.64817, 61, -10.6633, -20.8329, 38.0856, -150.749, -76.8367, 90.4825
6.65554, 61, -10.4783, -20.3853, 37.7798, -150.923, -77.1617, 91.0002
6.66336, 62, -10.2957, -19.9338, 37.4741, -151.092, -77.4915, 91.5095
6.67146, 62, -10.116, -19.4786, 37.1672, -151.256, -77.8265, 92.0108
6.67943, 62, -9.93887, -19.0207, 36.8601, -151.416, -78.1669, 92.5041
6.68739, 62, -9.7644, -18.5595, 36.5516, -151.571, -78.513, 92.9909
6.69718, 62, -9.50718, -17.8636, 36.0884, -151.796, -79.0419, 93.7068
6.70338, 63, -9.42251, -17.6308, 35.9339, -151.869, -79.2206, 93.9416
6.71305, 63, -9.17184, -16.9301, 35.4726, -152.078, -79.763, 94.6308
6.72157, 63, -9.00777, -16.4611, 35.1662, -152.212, -80.1287, 95.0787
6.72738, 63, -8.92672, -16.2261, 35.0137, -152.276, -80.3127, 95.2986
6.73699, 63, -8.68755, -15.5192, 34.5588, -152.461, -80.8673, 95.9417
6.74362, 64, -8.6092, -15.2832, 34.4083, -152.52, -81.0532, 96.1508
6.75137, 64, -8.45449, -14.8112, 34.1094, -152.634, -81.426, 96.5599
6.761, 64, -8.30238, -14.3389, 33.8119, -152.742, -81.8003, 97.152
6.76772, 64, -8.15273, -13.8672, 33.5167, -152.844, -82.1764, 97.3439
6.77562, 64, -8.00558, -13.3965, 33.223, -152.941, -82.5539, 97.7185
6.78335, 65, -7.86098, -12.9273, 32.9318, -153.033, -82.9329, 98.0807
6.79445, 65, -7.64914, -12.2271, 32.4999, -153.159, -83.5031, 98.6013
6.79962, 65, -7.57997, -11.9946, 32.3577, -153.199, -83.6936, 98.768
6.80979, 65, -7.37698, -11.2992, 31.9364, -153.308, -84.2653, 99.2483
6.81552, 65, -7.31067, -11.0681, 31.7974, -153.342, -84.4561, 99.4018
6.82363, 66, -7.18033, -10.607, 31.5226, -153.404, -84.8375, 99.6982
6.83139, 66, -7.0524, -10.1487, 31.2507, -153.461, -85.2186, 99.9801
6.83945, 66, -6.92642, -9.6933, 30.9822, -153.513, -85.6, 100.247
6.84746, 66, -6.80246, -9.24222, 30.7176, -153.559, -85.981, 100.499
6.85545, 66, -6.68074, -8.79654, 30.4562, -153.6, -86.3607, 100.735
6.86335, 67, -6.56133, -8.35599, 30.1996, -153.635, -86.7383, 100.954
6.87162, 67, -6.44444, -7.92134, 29.9479, -153.665, -87.1124, 101.156
6.88046, 67, -6.33047, -7.49222, 29.702, -153.689, -87.4825, 101.341
6.88838, 67, -6.21926, -7.06865, 29.4631, -153.707, -87.8475, 101.508
6.89655, 67, -6.11061, -6.6504, 29.2302, -153.719, -88.2073, 101.657
6.90422, 67, -6.00436, -6.23841, 29.0036, -153.727, -88.562, 101.788
6.91139, 68, -5.90024, -5.83297, 28.7834, -153.73, -88.9125, 101.902
6.92127, 68, -5.79797, -5.43351, 28.5677, -153.729, -89.2597, 101.998
6.9284, 68, -5.69741, -5.04021, 28.3559, -153.723, -89.6045, 102.077
6.93552, 68, -5.59859, -4.65291, 28.1484, -153.712, -89.9478, 102.137
6.94341, 68, -5.50146, -4.27181, 27.9443, -153.697, -90.2892, 102.179
6.95249, 69, -5.40617, -3.89553, 27.7442, -153.678, -90.6286, 102.203
6.9595, 69, -5.31272, -3.5239, 27.5493, -153.654, -90.9659, 102.211
6.96747, 69, -5.2211, -3.15616, 27.359, -153.625, -91.3004, 102.2
6.97561, 69, -5.13133, -2.79245, 27.1721, -153.592, -91.6325, 102.167
6.98349, 69, -5.04319, -2.4316, 26.9894, -153.556, -91.9622, 102.115
6.99152, 70, -4.9566, -2.07404, 26.8109, -153.516, -92.2904, 102.04
6.99971, 70, -4.87106, -1.7204, 26.6354, -153.472, -92.6179, 101.944
7.00844, 70, -4.78656, -1.37162, 26.4626, -153.424, -92.9457, 101.825
7.01605, 70, -4.70308, -1.02762, 26.2934, -153.374, -93.2734, 101.683
7.02849, 70, -4.57984, -0.521453, 26.0457, -153.292, -93.7646, 101.426
7.03158, 71, -4.53923, -0.355501, 25.9646, -153.263, -93.9276, 101.33
7.0403, 71, -4.45883, -0.0278335, 25.8057, -153.204, -94.2521, 101.12
7.04754, 71, -4.3794, 0.293818, 25.6523, -153.141, -94.5732, 100.889
7.05641, 71, -4.3009, 0.610525, 25.5041, -153.077, -94.8902, 100.637
7.06368, 71, -4.22334, 0.921063, 25.3609, -153.01, -95.2031, 100.365
7.07215, 72, -4.14666, 1.22513, 25.2223, -152.942, -95.5119, 100.073
7.0809, 72, -4.07019, 1.52244, 25.0879, -152.871, -95.8171, 99.7603
7.08789, 72, -3.9939, 1.81226, 24.9573, -152.8, -96.1191, 99.4275
7.09675, 72, -3.91776, 2.09543, 24.8299, -152.728, -96.4186, 99.0739
7.10401, 72, -3.84154, 2.37149, 24.7057, -152.655, -96.7152, 98.6996
7.11199, 72, -3.76532, 2.64065, 24.5849, -152.581, -97.009, 98.304
7.12089, 73, -3.68927, 2.90342, 24.4674, -152.508, -97.2995, 97.8878
7.12938, 73, -3.61303, 3.1591, 24.3539, -152.434, -97.5864, 97.4507
7.13738, 73, -3.53672, 3.40829, 24.2443, -152.361, -97.8694, 96.9936
7.14583, 73, -3.46016, 3.65108, 24.139, -152.288, -98.1479, 96.518
7.15222, 73, -3.42172, 3.76954, 24.088, -152.217, -98.4223, 96.023
7.15939, 74, -3.34423, 4.00006, 23.9889, -152.182, -98.5577, 95.769
7.16737, 74, -3.26604, 4.22245, 23.8935, -152.112, -98.8247, 95.2479
7.17837, 74, -3.14742, 4.53972, 23.7579, -152.011, -99.2157, 94.4373
7.18342, 74, -3.10753, 4.64059, 23.7146, -151.979, -99.3432, 94.1601
7.19137, 74, -3.02723, 4.83522, 23.631, -151.915, -99.5934, 93.5956
7.19953, 75, -2.94599, 5.02081, 23.5516, -151.854, -99.8364, 93.0194
7.20744, 75, -2.86377, 5.1966, 23.4761, -151.796, -100.071, 92.4337
7.21778, 75, -2.73856, 5.4403, 23.3703, -151.714, -100.408, 91.5388
7.22554, 75, -2.65391, 5.58982, 23.3048, -151.664, -100.621, 90.9325
7.23368, 75, -2.56831, 5.72846, 23.2434, -151.617, -100.824, 90.319
7.24169, 76, -2.48175, 5.85568, 23.1863, -151.573, -101.018, 89.6986
7.24797, 76, -2.43813, 5.91497, 23.1594, -151.553, -101.111, 89.3852
7.25537, 76, -2.35023, 6.02467, 23.109, -151.516, -101.291, 88.752
7.26438, 76, -2.26163, 6.12214, 23.0629, -151.482, -101.461, 88.1117
7.27239, 76, -2.17219, 6.20706, 23.0214, -151.451, -101.62, 87.4658
7.28147, 77, -2.03631, 6.31002, 22.9685, -151.414, -101.838, 86.488
7.28738, 77, -1.99054, 6.33774, 22.9536, -151.404, -101.903, 86.1613
7.29801, 77, -1.85199, 6.40027, 22.9172, -151.379, -102.081, 85.1839
7.30437, 77, -1.80541, 6.41398, 22.9079, -151.372, -102.133, 84.8589
7.31245, 77, -1.7116, 6.43071, 22.8938, -151.362, -102.225, 84.2111
7.31934, 78, -1.61705, 6.43296, 22.8856, -151.356, -102.303, 83.5675
7.32754, 78, -1.52178, 6.41998, 22.8829, -151.353, -102.365, 82.9282
7.33638, 78, -1.42579, 6.3917, 22.8859, -151.352, -102.412, 82.2918
7.34437, 78, -1.32943, 6.34764, 22.8951, -151.355, -102.443, 81.6604
7.35471, 78, -1.18427, 6.251, 22.9206, -151.367, -102.459, 80.7237
7.36041, 79, -1.1358, 6.2106, 22.9326, -151.372, -102.457, 80.4143
7.36837, 79, -1.03876, 6.11754, 22.9617, -151.385, -102.438, 79.8004
7.37541, 79, -0.941508, 6.00817, 22.9984, -151.402, -102.401, 79.1946
7.38344, 79, -0.844422, 5.88258, 23.0425, -151.421, -102.346, 78.5982
7.39139, 79, -0.747388, 5.74041, 23.0942, -151.443, -102.273, 78.0106
7.39933, 80, -0.650424, 5.58188, 23.1536, -151.468, -102.183, 77.4334
7.40746, 80, -0.553351, 5.40695, 23.2205, -151.495, -102.074, 76.8679
7.41537, 80, -0.456199, 5.21569, 23.2952, -151.523, -101.946, 76.3142
7.42754, 80, -0.310765, 4.89758, 23.4222, -151.567, -101.72, 75.5044
7.43153, 80, -0.26234, 4.78262, 23.4686, -151.583, -101.635, 75.2399
7.44035, 80, -0.165589, 4.53926, 23.5677, -151.615, -101.452, 74.7192
7.44753, 81, -0.069043, 4.2793, 23.6755, -151.649, -101.25, 74.2093
7.45565, 81, 0.027145, 4.00292, 23.792, -151.683, -101.029, 73.7084
7.46443, 81, 0.123086, 3.71024, 23.9178, -151.718, -100.79, 73.2174
7.47146, 81, 0.218844, 3.40148, 24.0531, -151.754, -100.531, 72.7356
7.47972, 81, 0.314431, 3.07542, 24.1982, -151.791, -100.254, 72.2639
7.48762, 82, 0.409848, 2.73328, 24.3525, -151.827, -99.958, 71.8018
7.49549, 82, 0.505082, 2.37477, 24.5157, -151.864, -99.6435, 71.3493
7.50347, 82, 0.600196, 2.00048, 24.6882, -151.901, -99.3111, 70.9069
7.51137, 82, 0.695086, 1.60937, 24.8702, -151.937, -98.9613, 70.4741
7.51943, 82, 0.78984, 1.20154, 25.0614, -151.972, -98.594, 70.0517
7.52814, 83, 0.884562, 0.777955, 25.2619, -152.007, -98.2099, 69.6384
7.53821, 83, 0.979132, 0.339403, 25.4733, -152.042, -97.8086, 69.2338
7.54438, 83, 1.07387, -0.11449, 25.6952, -152.076, -97.3908, 68.8382
7.55789, 83, 1.21605, -0.824177, 26.0455, -152.123, -96.733, 68.2598
7.56079, 83, 1.26351, -1.06822, 26.1676, -152.139, -96.5055, 68.0712
7.56851, 84, 1.35875, -1.56734, 26.4197, -152.169, -96.0378, 67.7001
7.57585, 84, 1.45416, -2.08066, 26.6821, -152.198, -95.5543, 67.3363
7.58383, 84, 1.54977, -2.60767, 26.9557, -152.226, -95.0545, 66.9797
7.59244, 84, 1.64578, -3.1485, 27.2392, -152.251, -94.5385, 66.6308
7.59992, 84, 1.74217, -3.703, 27.5335, -152.275, -94.0078, 66.2889
7.60993, 85, 1.83898, -4.2706, 27.8375, -152.297, -93.4623, 65.9549
7.61815, 85, 1.93603, -4.84971, 28.1512, -152.317, -92.9025, 65.6299
7.62397, 85, 1.98472, -5.14317, 28.4741, -152.335, -92.3294, 65.3131
7.632, 85, 2.08247, -5.73765, 28.6388, -152.344, -91.7465, 65.005
7.64531, 85, 2.27979, -6.95153, 29.3189, -152.369, -90.8539, 64.5605
7.64733, 86, 2.27979, -6.95153, 29.3189, -152.369, -90.8539, 64.5605
7.65646, 86, 2.42958, -7.87938, 29.849, -152.381, -89.9409, 64.1393
7.66519, 86, 2.53063, -8.50492, 30.2108, -152.385, -89.322, 63.8718
7.6735, 86, 2.58149, -9.13637, 30.578, -152.387, -88.6968, 63.6158
7.67941, 86, 2.68369, -9.45402, 30.7637, -152.387, -88.383, 63.4922
7.68736, 86, 2.78701, -10.0926, 31.139, -152.384, -87.7521, 63.2536
7.69537, 87, 2.89134, -10.7349, 31.52, -152.378, -87.1156, 63.0267
7.70341, 87, 2.99627, -11.3803, 31.9059, -152.368, -86.473, 62.8116
7.71138, 87, 3.10221, -12.0286, 32.2968, -152.354, -85.8251, 62.6087
7.71936, 87, 3.20891, -12.6793, 32.6928, -152.336, -85.1726, 62.4182
7.72892, 87, 3.37009, -13.6605, 33.2972, -152.302, -84.1852, 62.156
7.73778, 88, 3.47832, -14.3178, 33.7064, -152.275, -83.5202, 61.9975
7.74591, 88, 3.58707, -14.977, 34.1205, -152.244, -82.8505, 61.8524
7.75407, 88, 3.69652, -15.6369, 34.539, -152.208, -82.176, 61.7215
7.75937, 88, 3.75139, -15.9668, 34.75, -152.188, -81.8376, 61.6618
7.76839, 88, 3.86139, -16.626, 35.1743, -152.145, -81.1599, 61.5538
7.77538, 89, 3.97171, -17.2828, 35.6013, -152.098, -80.4815, 61.4627
7.78435, 89, 4.08232, -17.9367, 36.0297, -152.045, -79.8025, 61.3894
7.79884, 89, 4.30472, -19.2344, 36.8876, -151.925, -78.4443, 61.2988
7.80131, 89, 4.30472, -19.2344, 36.8876, -151.925, -78.4443, 61.2988
7.8076, 89, 4.4164, -19.8771, 37.3156, -151.856, -77.7701, 61.2827
7.81535, 90, 4.52845, -20.5148, 37.7424, -151.783, -77.0993, 61.2871
7.82338, 90, 4.6411, -21.1484, 38.1691, -151.704, -76.4296, 61.3153
7.83144, 90, 4.75368, -21.7776, 38.5953, -151.619, -75.761, 61.3668
7.83938, 90, 4.86604, -22.4025, 39.0213, -151.528, -75.094, 61.4419
7.85024, 90, 5.03382, -23.3336, 39.6611, -151.381, -74.0973, 61.6037
7.85559, 91, 5.08963, -23.6424, 39.8745, -151.329, -73.7652, 61.6709
7.8674, 91, 5.25648, -24.5626, 40.5149, -151.161, -72.7673, 61.9156
7.87135, 91, 5.31182, -24.867, 40.7285, -151.102, -72.4344, 62.0118
7.87941, 91, 5.42199, -25.4721, 41.1551, -150.978, -71.7676, 62.2267
7.8874, 91, 5.5315, -26.0705, 41.5806, -150.848, -71.1011, 62.4723
7.89538, 92, 5.64058, -26.6615, 42.0046, -150.711, -70.4368, 62.7495
7.90446, 92, 5.74981, -27.2444, 42.4259, -150.568, -69.7746, 63.0585
7.91242, 92, 5.85964, -27.8182, 42.843, -150.42, -69.1158, 63.3986
7.91945, 92, 5.97005, -28.3821, 43.2542, -150.267, -68.461, 63.7699
7.92736, 92, 6.08138, -28.9351, 43.6593, -150.11, -67.8113, 64.1726
7.93558, 93, 6.19397, -29.476, 44.0573, -149.951, -67.1694, 64.6059
7.94342, 93, 6.30816, -30.0053, 44.4476, -149.789, -66.534, 65.0712
7.95739, 93, 6.4835, -30.7783, 45.0208, -149.544, -65.5907, 65.8266
7.95963, 93, 6.54306, -31.0313, 45.2087, -149.462, -65.2786, 66.0946
7.96743, 93, 6.66379, -31.5323, 45.5806, -149.299, -64.6563, 66.6566
7.97546, 93, 6.78691, -32.027, 45.9476, -149.135, -64.0358, 67.257
7.98349, 94, 6.91234, -32.517, 46.3116, -148.97, -63.4129, 67.8999
7.99146, 94, 7.04002, -33.0021, 46.6732, -148.805, -62.7844, 68.5916
8.00024, 94, 7.16954, -33.48, 47.0334, -148.64, -62.1495, 69.3362
8.00753, 94, 7.30149, -33.9508, 47.3919, -148.477, -61.5077, 70.132
8.01537, 94, 7.43688, -34.4144, 47.7462, -148.319, -60.8607, 70.9811
8.0234, 95, 7.57658, -34.8688, 48.0936, -148.168, -60.2142, 71.8819
8.03144, 95, 7.72175, -35.3131, 48.4316, -148.027, -59.5706, 72.8246
8.03946, 95, 7.87304, -35.7459, 48.7584, -147.898, -58.9327, 73.8086
8.04771, 95, 8.03108, -36.1642, 49.0716, -147.786, -58.3024, 74.8276
8.05554, 95, 8.19604, -36.5638, 49.3695, -147.689, -57.6806, 75.8811
8.06367, 96, 8.36782, -36.9438, 49.6515, -147.612, -57.0708, 76.9666
8.07165, 96, 8.54596, -37.3017, 49.9167, -147.554, -56.4748, 78.0841
8.08031, 96, 8.72926, -37.6359, 50.1656, -147.517, -55.892, 79.2296
8.08786, 96, 8.91739, -37.9444, 50.3964, -147.5, -55.324, 80.3982
8.09651, 96, 9.1093, -38.2275, 50.6076, -147.503, -54.7746, 81.5804
8.10396, 96, 9.30339, -38.4857, 50.7995, -147.529, -54.247, 82.7741
8.11276, 97, 9.49839, -38.7186, 50.9714, -147.575, -53.7441, 83.973
8.11994, 97, 9.69325, -38.9272, 51.1223, -147.642, -53.268, 85.1686
8.12846, 97, 9.88723, -39.1118, 51.2533, -147.728, -52.8207, 86.3508
8.13653, 97, 9.98366, -39.1947, 51.3115, -147.777, -52.6082, 87.5164
8.14334, 97, 10.1746, -39.3406, 51.4132, -147.886, -52.2058, 88.0902
8.15297, 97, 10.4545, -39.5115, 51.5306, -148.074, -51.6584, 89.7726
8.1613, 98, 10.6375, -39.5941, 51.5864, -148.212, -51.3305, 90.8553
8.16737, 98, 10.7282, -39.6266, 51.6077, -148.285, -51.1772, 91.3872
8.17687, 98, 10.998, -39.6899, 51.6456, -148.52, -50.7565, 92.9552
8.18334, 98, 11.0872, -39.6995, 51.6497, -148.604, -50.628, 93.4748
8.1914, 98, 11.2641, -39.7013, 51.6454, -148.782, -50.3866, 94.5174
8.19934, 98, 11.4398, -39.6797, 51.6237, -148.973, -50.1645, 95.5724
8.20735, 98, 11.6156, -39.6342, 51.5843, -149.177, -49.9621, 96.6469
8.21679, 99, 11.8778, -39.5223, 51.4913, -149.506, -49.6989, 98.2924
8.2249, 99, 12.0499, -39.4194, 51.4061, -149.739, -49.5542, 99.402
8.23138, 99, 12.1348, -39.3595, 51.3566, -149.858, -49.4924, 99.9575
8.24117, 99, 12.3834, -39.1462, 51.1812, -150.221, -49.3522, 101.609
8.24741, 99, 12.4634, -39.0641, 51.1141, -150.343, -49.3207, 102.15
8.25535, 99, 12.6179, -38.8834, 50.9682, -150.586, -49.2809, 103.213
8.26487, 100, 12.764, -38.6787, 50.8067, -150.825, -49.2721, 104.244
8.27292, 100, 12.9014, -38.4496, 50.6289, -151.06, -49.2948, 105.248
8.27934, 100, 13.0299, -38.1973, 50.434, -151.288, -49.3488, 106.223
8.28743, 100, 13.15, -37.9222, 50.2225, -151.512, -49.4336, 107.174
8.29637, 100, 13.262, -37.6258, 49.9931, -151.729, -49.5499, 108.103
8.30338, 100, 13.366, -37.3059, 49.7447, -151.94, -49.6972, 109.012
8.31137, 101, 13.4619, -36.9614, 49.4789, -152.144, -49.8755, 109.903
8.31933, 101, 13.5499, -36.5909, 49.1949, -152.34, -50.0848, 110.771
8.32739, 101, 13.6301, -36.1939, 48.8929, -152.527, -50.3251, 111.621
8.33539, 101, 13.7022, -35.771, 48.5721, -152.705, -50.5968, 112.447
8.3434, 101, 13.7657, -35.3241, 48.2331, -152.873, -50.9007, 113.252
8.35871, 102, 13.8658, -34.3603, 47.5021, -153.174, -51.6074, 114.792
8.36008, 102, 13.8658, -34.3603, 47.5021, -153.174, -51.6074, 114.792
8.36834, 102, 13.9012, -33.8423, 47.1109, -153.306, -52.01, 115.526
8.37534, 102, 13.927, -33.2997, 46.7038, -153.424, -52.4451, 116.233
8.38337, 102, 13.9436, -32.7343, 46.2821, -153.529, -52.9123, 116.912
8.39141, 102, 13.9516, -32.1471, 45.8462, -153.619, -53.4091, 117.566
8.39937, 103, 13.952, -31.5385, 45.396, -153.695, -53.9338, 118.192
8.40735, 103, 13.9454, -30.9106, 44.9327, -153.758, -54.4844, 118.792
8.41541, 103, 13.9324, -30.2655, 44.4575, -153.808, -55.0586, 119.367
8.42335, 103, 13.9137, -29.6051, 43.9716, -153.844, -55.6536, 119.917
8.43141, 103, 13.8895, -28.9301, 43.4773, -153.868, -56.2679, 120.441
8.43934, 103, 13.8606, -28.2428, 42.9763, -153.881, -56.8979, 120.938
8.44734, 104, 13.8274, -27.5458, 42.4706, -153.884, -57.5402, 121.41
8.45543, 104, 13.7902, -26.8409, 41.9618, -153.876, -58.1951, 121.859
8.46337, 104, 13.7491, -26.1293, 41.4508, -153.858, -58.8627, 122.284
8.47141, 104, 13.7053, -25.4129, 40.9393, -153.832, -59.5405, 122.69
8.47978, 104, 13.6594, -24.6942, 40.4277, -153.798, -60.2264, 123.078
8.48746, 104, 13.6119, -23.9735, 39.9165, -153.756, -60.9175, 123.452
8.49579, 104, 13.5627, -23.2515, 39.4067, -153.708, -61.6134, 123.817
8.50353, 104, 13.5124, -22.5286, 38.898, -153.656, -62.3136, 124.175
8.51147, 104, 13.4614, -21.8054, 38.391, -153.597, -63.0159, 124.528
8.51998, 104, 13.4098, -21.0819, 37.8855, -153.535, -63.7197, 124.879
8.52833, 104, 13.3578, -20.3589, 37.3811, -153.468, -64.4235, 125.228
8.53537, 104, 13.3058, -19.6358, 36.8787, -153.397, -65.1284, 125.575
8.54429, 104, 13.2535, -18.9122, 36.3782, -153.322, -65.835, 125.921
8.55161, 104, 13.2012, -18.1885, 35.8795, -153.244, -66.5422, 126.267
8.55954, 104, 13.1492, -17.4646, 35.3837, -153.161, -67.2506, 126.611
8.56842, 104, 13.0973, -16.7399, 34.8899, -153.074, -67.9582, 126.956
8.57574, 104, 13.0457, -16.0157, 34.3982, -152.984, -68.6659, 127.3
8.58371, 104, 12.9947, -15.2912, 33.9085, -152.889, -69.3761, 127.643
8.59181, 104, 12.9438, -14.566, 33.421, -152.791, -70.0872, 127.986
8.60076, 104, 12.8934, -13.8404, 32.9361, -152.689, -70.7979, 128.33
8.60785, 104, 12.8434, -13.1148, 32.4539, -152.583, -71.5077, 128.674
8.61646, 104, 12.7936, -12.389, 31.9744, -152.473, -72.2191, 129.018
8.62481, 104, 12.7441, -11.6637, 31.4975, -152.359, -72.9318, 129.362
8.63195, 104, 12.695, -10.9386, 31.0229, -152.242, -73.6445, 129.708
8.6405, 104, 12.6462, -10.213, 30.551, -152.12, -74.3574, 130.053
8.64732, 104, 12.6219, -9.8502, 30.3164, -152.058, -74.7138, 130.226
8.65534, 104, 12.5736, -9.12465, 29.8493, -151.93, -75.4265, 130.573
8.66437, 104, 12.5023, -8.03541, 29.1543, -151.731, -76.4982, 131.096
8.67136, 104, 12.4787, -7.67251, 28.9243, -151.662, -76.8555, 131.27
8.68065, 104, 12.4089, -6.58475, 28.2393, -151.451, -77.9286, 131.796
8.68737, 104, 12.386, -6.22228, 28.0124, -151.378, -78.2859, 131.972
8.69533, 104, 12.3405, -5.49759, 27.5616, -151.23, -78.9995, 132.324
8.70335, 104, 12.2955, -4.77422, 27.1148, -151.078, -79.7139, 132.678
8.71275, 104, 12.2301, -3.69183, 26.4529, -150.842, -80.7868, 133.21
8.71934, 104, 12.2087, -3.33275, 26.2349, -150.761, -81.1432, 133.388
8.72886, 104, 12.1464, -2.2644, 25.589, -150.513, -82.2058, 133.923
8.73696, 104, 12.1065, -1.56034, 25.1664, -150.344, -82.9102, 134.279
8.74496, 104, 12.0675, -0.864632, 24.7524, -150.172, -83.608, 134.632
8.75141, 104, 12.0484, -0.520316, 24.5487, -150.086, -83.9536, 134.809
8.76097, 104, 12.011, 0.497195, 23.9531, -149.823, -84.9734, 135.332
8.76732, 104, 11.9745, 0.830727, 23.7603, -149.735, -85.3065, 135.504
8.77539, 104, 11.9391, 1.48803, 23.3841, -149.559, -85.9619, 135.844
8.78439, 104, 11.905, 2.132, 23.0205, -149.383, -86.6034, 136.179
8.79136, 104, 11.8719, 2.76022, 22.6691, -149.207, -87.229, 136.506
8.79942, 104, 11.8399, 3.37248, 22.3304, -149.033, -87.8386, 136.827
8.80732, 104, 11.8094, 3.96831, 22.005, -148.859, -88.4317, 137.142
8.81534, 104, 11.78, 4.54738, 21.6921, -148.687, -89.007, 137.45
8.8234, 104, 11.7518, 5.10977, 21.3914, -148.516, -89.5652, 137.751
8.83135, 104, 11.7251, 5.65492, 21.102, -148.347, -90.1083, 138.045
8.83939, 104, 11.6993, 6.18288, 20.8249, -148.18, -90.6351, 138.332
8.84734, 104, 11.6748, 6.69436, 20.5592, -148.015, -91.1455, 138.611
8.85539, 104, 11.6514, 7.18884, 20.3053, -147.853, -91.6393, 138.883
8.86332, 104, 11.6293, 7.66624, 20.0627, -147.694, -92.1153, 139.148
8.87134, 104, 11.6082, 8.12736, 19.8307, -147.537, -92.5747, 139.405
8.87939, 104, 11.5883, 8.57168, 19.61, -147.384, -93.0179, 139.654
8.88734, 104, 11.5696, 8.99845, 19.4002, -147.234, -93.4444, 139.895
8.89539, 104, 11.5519, 9.40814, 19.2003, -147.088, -93.854, 140.128
8.90342, 104, 11.5353, 9.80017, 19.0108, -146.947, -94.2466, 140.353
8.91134, 104, 11.5197, 10.1741, 18.8322, -146.809, -94.6214, 140.568
8.91955, 104, 11.5053, 10.5288, 18.664, -146.677, -94.9778, 140.774
8.92732, 104, 11.4918, 10.8644, 18.5061, -146.551, -95.3154, 140.97
8.93532, 104, 11.4794, 11.1805, 18.3593, -146.43, -95.6332, 141.155
8.94339, 104, 11.468, 11.4759, 18.2231, -146.316, -95.9304, 141.329
8.95134, 104, 11.4577, 11.7509, 18.0973, -146.209, -96.2069, 141.491
8.95934, 104, 11.4483, 12.0043, 17.9822, -146.109, -96.4618, 141.642
8.96745, 104, 11.4396, 12.2365, 17.8778, -146.017, -96.695, 141.78
8.97542, 104, 11.4316, 12.4481, 17.7837, -145.933, -96.9061, 141.906
8.98341, 104, 11.4245, 12.6385, 17.7, -145.858, -97.0953, 142.018
8.99149, 104, 11.4182, 12.8076, 17.6266, -145.791, -97.2624, 142.118
8.99943, 104, 11.4125, 12.9563, 17.563, -145.732, -97.4076, 142.205
9.00743, 104, 11.4073, 13.0855, 17.509, -145.682, -97.5311, 142.279
9.01552, 104, 11.4025, 13.196, 17.4643, -145.64, -97.634, 142.34
9.02334, 104, 11.3982, 13.2883, 17.428, -145.607, -97.7171, 142.39
9.03137, 104, 11.3943, 13.3644, 17.3993, -145.58, -97.7825, 142.43
9.03942, 104, 11.3907, 13.4263, 17.3777, -145.559, -97.8313, 142.46
9.04744, 104, 11.3875, 13.4756, 17.362, -145.544, -97.8668, 142.481
9.05549, 104, 11.3849, 13.5135, 17.3511, -145.534, -97.8916, 142.496
9.06383, 104, 11.3828, 13.5417, 17.344, -145.527, -97.9081, 142.505
9.07166, 104, 11.3811, 13.5627, 17.3397, -145.523, -97.9181, 142.51
9.07962, 104, 11.3798, 13.5775, 17.3371, -145.521, -97.9237, 142.513
9.08776, 104, 11.3788, 13.5875, 17.3358, -145.519, -97.9265, 142.515
9.09595, 105, 11.378, 13.5943, 17.3352, -145.519, -97.9278, 142.515
9.10382, 105, 11.3775, 13.5986, 17.3349, -145.519, -97.9284, 142.515
9.11241, 105, 11.377, 13.6015, 17.3347, -145.518, -97.9287, 142.516
9.11992, 105, 11.3768, 13.6038, 17.3347, -145.518, -97.9288, 142.516
9.12793, 105, 11.3765, 13.6056, 17.3346, -145.518, -97.9288, 142.516
9.13643, 105, 11.3763, 13.6072, 17.3346, -145.518, -97.9288, 142.516
9.14382, 105, 11.3763, 13.608, 17.3346, -145.518, -97.9288, 142.516
9.15232, 105, 11.3761, 13.6099, 17.3346, -145.518, -97.9288, 142.516
9.16035, 105, 11.3761, 13.6109, 17.3347, -145.518, -97.9287, 142.516
9.16731, 105, 11.376, 13.6114, 17.3347, -145.518, -97.9286, 142.516
9.17531, 105, 11.376, 13.6121, 17.3347, -145.518, -97.9285, 142.516
9.18483, 105, 11.376, 13.6129, 17.3347, -145.519, -97.9283, 142.516
9.19129, 105, 11.376, 13.6131, 17.3347, -145.519, -97.9281, 142.516
9.20061, 105, 11.376, 13.6134, 17.3348, -145.519, -97.928, 142.516
9.20736, 105, 11.3759, 13.6134, 17.3349, -145.519, -97.9279, 142.516
9.21532, 105, 11.376, 13.6135, 17.3349, -145.519, -97.9278, 142.516
