hehonglu123/Motion-Primitive-Planning/ILC/recorded_data/realrobot/wood/iteration_10/run_1.csv
timestamp, cmd_num, J1, J2, J3, J4, J5, J6
0.000449, -1, 11.3757, 13.6142, 17.3365, -145.521, -97.9256, 142.516
0.003055, -1, 11.3757, 13.6142, 17.3365, -145.521, -97.9256, 142.516
0.007713, -1, 11.3757, 13.6142, 17.3365, -145.52, -97.9256, 142.516
0.028783, -1, 11.3757, 13.6142, 17.3366, -145.52, -97.9256, 142.516
0.03143, -1, 11.3757, 13.6142, 17.3366, -145.52, -97.9256, 142.516
0.034464, -1, 11.3757, 13.6142, 17.3366, -145.521, -97.9256, 142.516
0.039577, -1, 11.3757, 13.6142, 17.3366, -145.521, -97.9256, 142.516
0.047597, -1, 11.3757, 13.6142, 17.3366, -145.52, -97.9256, 142.516
0.185088, -1, 10.2661, 13.3207, 17.4083, -145.867, -97.8077, 140.512
0.187035, -1, 10.1918, 13.3006, 17.4133, -145.891, -97.7994, 140.374
0.18848, -1, 10.1918, 13.3006, 17.4133, -145.891, -97.7994, 140.374
0.189678, -1, 10.1918, 13.3006, 17.4133, -145.891, -97.7994, 140.374
0.191857, -1, 10.1167, 13.2802, 17.4183, -145.914, -97.791, 140.235
0.193077, -1, 10.1167, 13.2802, 17.4183, -145.914, -97.791, 140.235
0.195011, -1, 10.0408, 13.2597, 17.4234, -145.938, -97.7826, 140.096
0.199985, -1, 9.96421, 13.2391, 17.4284, -145.962, -97.774, 139.957
0.202112, -1, 9.96421, 13.2391, 17.4284, -145.962, -97.774, 139.957
0.204187, -1, 9.88706, 13.2185, 17.4334, -145.986, -97.7654, 139.818
0.20562, -1, 9.88706, 13.2185, 17.4334, -145.986, -97.7654, 139.818
0.20771, -1, 9.8095, 13.1978, 17.4384, -146.01, -97.7568, 139.678
0.208918, -1, 9.8095, 13.1978, 17.4384, -146.01, -97.7568, 139.678
0.210192, -1, 9.8095, 13.1978, 17.4384, -146.01, -97.7568, 139.678
0.212165, -1, 9.7317, 13.1771, 17.4435, -146.034, -97.7482, 139.538
0.216127, -1, 9.65391, 13.1564, 17.4486, -146.058, -97.7396, 139.398
0.217423, -1, 9.65391, 13.1564, 17.4486, -146.058, -97.7396, 139.398
0.219435, -1, 9.57621, 13.1358, 17.4536, -146.082, -97.7311, 139.259
0.220707, -1, 9.57621, 13.1358, 17.4536, -146.082, -97.7311, 139.259
0.221974, -1, 9.57621, 13.1358, 17.4536, -146.082, -97.7311, 139.259
0.225432, -1, 9.49867, 13.1152, 17.4585, -146.106, -97.7226, 139.119
0.227584, -1, 9.42126, 13.0946, 17.4634, -146.13, -97.7142, 138.979
0.233634, -1, 9.34392, 13.074, 17.4683, -146.154, -97.7058, 138.84
0.239752, -1, 9.18947, 13.0329, 17.4783, -146.202, -97.689, 138.56
0.249653, -1, 9.03551, 12.9918, 17.4883, -146.25, -97.6723, 138.28
0.25661, -1, 8.88175, 12.9508, 17.4985, -146.298, -97.6554, 138
0.263608, -1, 8.72817, 12.9098, 17.5087, -146.346, -97.6383, 137.721
0.272369, -1, 8.57517, 12.8687, 17.5188, -146.393, -97.6209, 137.441
0.278573, -1, 8.49882, 12.848, 17.5238, -146.418, -97.6121, 137.3
0.287748, -1, 8.26949, 12.7861, 17.539, -146.489, -97.5861, 136.88
0.2965, -1, 8.11609, 12.7445, 17.5492, -146.537, -97.569, 136.6
0.303877, -1, 7.96221, 12.7029, 17.5594, -146.586, -97.5522, 136.32
0.311937, -1, 7.80763, 12.6612, 17.5695, -146.633, -97.5356, 136.04
0.318625, -1, 7.73019, 12.6404, 17.5746, -146.657, -97.5273, 135.899
0.328106, -1, 7.49784, 12.5779, 17.5898, -146.729, -97.5021, 135.479
0.336111, -1, 7.34276, 12.5364, 17.6, -146.777, -97.485, 135.199
0.34427, -1, 7.18774, 12.4948, 17.6102, -146.825, -97.4676, 134.919
0.352168, -1, 7.0327, 12.4534, 17.6205, -146.874, -97.4503, 134.639
0.360154, -1, 6.87753, 12.4121, 17.6308, -146.922, -97.4332, 134.358
0.368176, -1, 6.80001, 12.3914, 17.6412, -146.969, -97.4164, 134.078
0.376237, -1, 6.64518, 12.3502, 17.6464, -147.018, -97.3997, 133.798
0.38357, -1, 6.49065, 12.3089, 17.6568, -147.042, -97.3913, 133.657
0.391569, -1, 6.33624, 12.2676, 17.6671, -147.09, -97.3745, 133.377
0.399623, -1, 6.18203, 12.2262, 17.6774, -147.138, -97.3575, 133.096
0.407586, -1, 6.0277, 12.1847, 17.6876, -147.186, -97.3402, 132.815
0.415599, -1, 5.87314, 12.1432, 17.698, -147.234, -97.3227, 132.535
0.424883, -1, 5.641, 12.0807, 17.7133, -147.306, -97.2965, 132.114
0.43167, -1, 5.56351, 12.0599, 17.7185, -147.33, -97.2879, 131.973
0.439625, -1, 5.4084, 12.0182, 17.7288, -147.378, -97.2709, 131.692
0.44758, -1, 5.25304, 11.9765, 17.739, -147.427, -97.2541, 131.411
0.455591, -1, 5.0974, 11.9347, 17.7494, -147.475, -97.2374, 131.13
0.463631, -1, 4.94162, 11.8931, 17.7599, -147.523, -97.2205, 130.849
0.471568, -1, 4.78591, 11.8516, 17.7703, -147.571, -97.2034, 130.568
0.479587, -1, 4.63016, 11.81, 17.7808, -147.619, -97.186, 130.287
0.487667, -1, 4.47444, 11.7686, 17.7912, -147.667, -97.1685, 130.007
0.495569, -1, 4.31893, 11.7271, 17.8016, -147.716, -97.1512, 129.726
0.63917, -1, 1.51861, 10.977, 17.9887, -148.586, -96.8429, 124.657
0.640488, -1, 1.51861, 10.977, 17.9887, -148.586, -96.8429, 124.657
0.642191, -1, 1.51861, 10.977, 17.9887, -148.586, -96.8429, 124.657
0.6437, -1, 1.44061, 10.9562, 17.9939, -148.61, -96.8345, 124.516
0.644937, -1, 1.44061, 10.9562, 17.9939, -148.61, -96.8345, 124.516
0.646994, -1, 1.36272, 10.9354, 17.9991, -148.634, -96.826, 124.375
0.648223, -1, 1.36272, 10.9354, 17.9991, -148.634, -96.826, 124.375
0.650729, -1, 1.28485, 10.9146, 18.0043, -148.658, -96.8175, 124.233
0.652159, -1, 1.28485, 10.9146, 18.0043, -148.658, -96.8175, 124.233
0.653368, -1, 1.28485, 10.9146, 18.0043, -148.658, -96.8175, 124.233
0.655484, -1, 1.20704, 10.8938, 18.0095, -148.682, -96.8091, 124.092
0.656684, -1, 1.20704, 10.8938, 18.0095, -148.682, -96.8091, 124.092
0.659452, -1, 1.12933, 10.8728, 18.0147, -148.706, -96.8007, 123.951
0.661568, -1, 1.12933, 10.8728, 18.0147, -148.706, -96.8007, 123.951
0.663672, -1, 1.05172, 10.852, 18.0198, -148.731, -96.7922, 123.81
0.665344, -1, 1.05172, 10.852, 18.0198, -148.731, -96.7922, 123.81
0.667428, -1, 0.974178, 10.8311, 18.025, -148.755, -96.7837, 123.669
0.668661, -1, 0.974178, 10.8311, 18.025, -148.755, -96.7837, 123.669
0.670602, -1, 0.974178, 10.8311, 18.025, -148.779, -96.7752, 123.528
0.671969, -1, 0.896684, 10.8102, 18.0302, -148.779, -96.7752, 123.528
0.673271, -1, 0.896684, 10.8102, 18.0302, -148.779, -96.7752, 123.528
0.675209, -1, 0.819231, 10.7893, 18.0354, -148.804, -96.7666, 123.387
0.681578, -1, 0.741839, 10.7684, 18.0406, -148.828, -96.7578, 123.245
0.686965, -1, 0.587218, 10.7266, 18.051, -148.877, -96.7401, 122.963
0.694959, -1, 0.432404, 10.6849, 18.0614, -148.925, -96.7225, 122.68
0.703598, -1, 0.277249, 10.643, 18.0718, -148.973, -96.7054, 122.398
0.711717, -1, 0.12177, 10.6011, 18.0823, -149.022, -96.6883, 122.115
0.719667, -1, -0.0341962, 10.5592, 18.0928, -149.07, -96.6715, 121.832
0.727661, -1, -0.190517, 10.5174, 18.1033, -149.118, -96.6548, 121.549
0.735732, -1, -0.347104, 10.4755, 18.1138, -149.167, -96.638, 121.266
0.743669, -1, -0.50415, 10.4336, 18.1242, -149.215, -96.6208, 120.984
0.751656, -1, -0.661405, 10.3918, 18.1346, -149.263, -96.6034, 120.701
0.759643, -1, -0.818766, 10.35, 18.1451, -149.313, -96.5859, 120.418
0.767594, -1, -0.976128, 10.3082, 18.1554, -149.361, -96.5686, 120.135
0.775618, -1, -1.13334, 10.2664, 18.1658, -149.409, -96.5516, 119.852
0.783689, -1, -1.29042, 10.2245, 18.1761, -149.458, -96.5348, 119.569
0.791779, -1, -1.4473, 10.1827, 18.1864, -149.507, -96.518, 119.286
0.799862, -1, -1.60394, 10.1409, 18.197, -149.555, -96.5012, 119.003
0.807874, -1, -1.7601, 10.099, 18.2075, -149.604, -96.4841, 118.719
0.815914, -1, -1.91584, 10.0572, 18.2179, -149.653, -96.4668, 118.436
0.82429, -1, -2.07117, 10.0152, 18.2284, -149.701, -96.4491, 118.152
0.83206, -1, -2.22625, 9.97337, 18.2387, -149.75, -96.4316, 117.869
0.840074, -1, -2.38152, 9.93146, 18.2491, -149.798, -96.4143, 117.585
0.848149, -1, -2.53708, 9.88943, 18.2596, -149.847, -96.3972, 117.301
0.856147, -1, -2.6929, 9.84751, 18.27, -149.896, -96.3804, 117.018
0.864132, -1, -2.84908, 9.80557, 18.2804, -149.944, -96.3636, 116.734
0.87225, -1, -2.92734, 9.76358, 18.2908, -149.993, -96.3466, 116.45
0.880111, -1, -3.08415, 9.74262, 18.2959, -150.017, -96.3381, 116.309
0.887549, -1, -3.24138, 9.70066, 18.3063, -150.066, -96.3208, 116.024
0.895601, -1, -3.39903, 9.65866, 18.3168, -150.114, -96.3032, 115.741
0.903559, -1, -3.55685, 9.61667, 18.3273, -150.163, -96.2856, 115.457
0.911555, -1, -3.71463, 9.57482, 18.3377, -150.212, -96.2683, 115.172
0.919704, -1, -3.87266, 9.53287, 18.3481, -150.26, -96.2512, 114.888
0.927555, -1, -4.03063, 9.49087, 18.3585, -150.31, -96.2342, 114.604
0.93556, -1, -4.18843, 9.44898, 18.3689, -150.359, -96.2172, 114.32
0.9436, -1, -4.34613, 9.407, 18.3792, -150.407, -96.2002, 114.035
0.951556, -1, -4.50361, 9.36499, 18.3895, -150.456, -96.1828, 113.75
0.959566, -1, -4.6606, 9.32296, 18.3999, -150.505, -96.1651, 113.466
0.967598, -1, -4.81713, 9.28092, 18.4103, -150.553, -96.1474, 113.181
0.975562, -1, -4.97343, 9.23882, 18.4209, -150.603, -96.1298, 112.896
0.98356, -1, -5.12945, 9.19678, 18.4314, -150.651, -96.1127, 112.611
0.991652, -1, -5.28531, 9.1547, 18.4419, -150.7, -96.0957, 112.327
0.99955, -1, -5.44132, 9.11251, 18.4525, -150.749, -96.0788, 112.042
1.00755, -1, -5.59753, 9.0704, 18.4629, -150.798, -96.0618, 111.757
1.01563, -1, -5.75405, 9.02829, 18.4733, -150.846, -96.0446, 111.472
1.02459, -1, -5.91102, 8.98609, 18.4838, -150.896, -96.0272, 111.188
1.03161, -1, -6.06849, 8.94396, 18.4941, -150.944, -96.0095, 110.903
1.03955, -1, -6.2264, 8.90181, 18.5044, -150.993, -95.992, 110.617
1.04756, -1, -6.38465, 8.85964, 18.5148, -151.042, -95.9747, 110.332
1.05562, -1, -6.54305, 8.81755, 18.5252, -151.091, -95.9577, 110.047
1.06355, -1, -6.70163, 8.7754, 18.5357, -151.14, -95.9406, 109.761
1.07162, -1, -6.8603, 8.73323, 18.5462, -151.189, -95.9236, 109.476
1.07955, -1, -7.01885, 8.69116, 18.5567, -151.238, -95.9065, 109.19
1.08758, -1, -7.17737, 8.64898, 18.5672, -151.287, -95.889, 108.905
1.09562, -1, -7.33572, 8.60677, 18.5775, -151.336, -95.8713, 108.619
1.10355, -1, -7.49374, 8.56448, 18.588, -151.385, -95.8536, 108.333
1.11156, -1, -7.65135, 8.52218, 18.5985, -151.434, -95.8361, 108.048
1.11962, -1, -7.80866, 8.47991, 18.609, -151.483, -95.8189, 107.762
1.12758, -1, -7.9656, 8.43763, 18.6194, -151.532, -95.8018, 107.476
1.13556, -1, -8.12228, 8.39529, 18.6298, -151.581, -95.7848, 107.19
1.14407, -1, -8.27881, 8.35296, 18.6403, -151.63, -95.7678, 106.904
1.15157, -1, -8.43548, 8.31059, 18.6508, -151.679, -95.7506, 106.618
1.15958, -1, -8.5925, 8.26821, 18.6614, -151.728, -95.7331, 106.332
1.16835, -1, -8.74985, 8.22597, 18.6718, -151.777, -95.7154, 106.046
1.17554, -1, -8.90755, 8.18363, 18.6822, -151.826, -95.6979, 105.759
1.18365, -1, -9.06568, 8.14131, 18.6926, -151.875, -95.6806, 105.473
1.1924, -1, -9.22426, 8.09907, 18.7031, -151.925, -95.6634, 105.187
1.19958, -1, -9.38312, 8.05674, 18.7136, -151.974, -95.6463, 104.9
1.20781, -1, -9.5422, 8.01441, 18.7241, -152.023, -95.6292, 104.613
1.21642, -1, -9.70131, 7.97217, 18.7345, -152.073, -95.6119, 104.326
1.22365, -1, -9.86058, 7.92992, 18.745, -152.121, -95.5943, 104.039
1.23197, -1, -10.02, 7.88751, 18.7557, -152.171, -95.5764, 103.752
1.24044, -1, -10.1793, 7.84508, 18.7663, -152.22, -95.5586, 103.466
1.24766, -1, -10.3383, 7.80261, 18.7769, -152.269, -95.541, 103.179
1.25628, -1, -10.4973, 7.7601, 18.7874, -152.319, -95.5239, 102.892
1.26451, -1, -10.6558, 7.71763, 18.7978, -152.368, -95.5068, 102.605
1.27167, -1, -10.8139, 7.67511, 18.8083, -152.417, -95.4898, 102.318
1.28041, -1, -10.9717, 7.63252, 18.8188, -152.466, -95.4726, 102.031
1.28851, -1, -11.1293, 7.59004, 18.8292, -152.516, -95.4553, 101.743
1.29573, -1, -11.2867, 7.54757, 18.8397, -152.565, -95.4376, 101.456
1.30463, -1, -11.4441, 7.50511, 18.8502, -152.615, -95.4197, 101.169
1.31279, -1, -11.6017, 7.4626, 18.8607, -152.664, -95.4021, 100.881
1.31998, -1, -11.7595, 7.42017, 18.8713, -152.713, -95.3847, 100.593
1.32891, -1, -11.9179, 7.37773, 18.8819, -152.762, -95.3675, 100.305
1.33606, -1, -12.0766, 7.33533, 18.8925, -152.812, -95.3503, 100.018
1.34413, -1, -12.2359, 7.29292, 18.903, -152.861, -95.333, 99.73
1.3529, -1, -12.3954, 7.25047, 18.9135, -152.911, -95.3156, 99.4418
1.36162, -1, -12.5553, 7.20808, 18.9241, -152.96, -95.2978, 99.1538
1.36815, -1, -12.7152, 7.16563, 18.9346, -153.009, -95.2799, 98.8659
1.37613, -1, -12.7952, 7.14439, 18.9398, -153.034, -95.262, 98.5779
1.38354, -1, -12.9554, 7.10186, 18.9504, -153.084, -95.2532, 98.4338
1.39158, -1, -13.1154, 7.05926, 18.9609, -153.133, -95.2358, 98.1457
1.39954, -1, -13.2752, 7.01665, 18.9715, -153.183, -95.2185, 97.8576
1.40753, -1, -13.4349, 6.974, 18.9821, -153.232, -95.2015, 97.5694
1.41558, -1, -13.5942, 6.93122, 18.9927, -153.281, -95.1843, 97.2807
1.42357, -1, -13.7533, 6.8885, 19.0033, -153.331, -95.1668, 96.992
1.43153, -1, -13.9122, 6.84583, 19.0137, -153.38, -95.1492, 96.7036
1.43958, -1, -14.0706, 6.8031, 19.0242, -153.429, -95.1313, 96.4149
1.44753, -1, -14.2287, 6.76049, 19.0348, -153.479, -95.1136, 96.126
1.45553, -1, -14.3869, 6.71784, 19.0452, -153.529, -95.0962, 95.837
1.46357, -1, -14.5452, 6.67515, 19.0558, -153.578, -95.0789, 95.5481
1.47153, -1, -14.7038, 6.63265, 19.0664, -153.628, -95.0617, 95.2589
1.47855, -1, -14.8629, 6.59011, 19.0769, -153.677, -95.0445, 94.9694
1.48754, -1, -15.0222, 6.54743, 19.0877, -153.726, -95.0271, 94.6804
1.49553, -1, -15.1819, 6.50485, 19.0984, -153.777, -95.0094, 94.3913
1.50603, -1, -15.342, 6.46224, 19.1091, -153.826, -94.9913, 93.9576
1.51153, -1, -15.5024, 6.41954, 19.1197, -153.875, -94.9734, 93.8128
1.52054, -1, -15.6632, 6.37686, 19.1302, -153.926, -94.9557, 93.5237
1.52766, -1, -15.8239, 6.33413, 19.1409, -153.975, -94.9384, 93.2344
1.53659, -1, -15.9848, 6.29125, 19.1515, -154.025, -94.9212, 92.9448
1.54355, -1, -16.1456, 6.2484, 19.162, -154.075, -94.9041, 92.655
1.55159, -1, -16.3063, 6.20548, 19.1726, -154.124, -94.8868, 92.3657
1.55957, -1, -16.4668, 6.16246, 19.1831, -154.173, -94.8692, 92.076
1.56753, -1, -16.6272, 6.11951, 19.1936, -154.223, -94.8515, 91.7858
1.5756, -1, -16.7871, 6.07655, 19.2043, -154.273, -94.8336, 91.4956
1.58353, -1, -16.9465, 6.03357, 19.215, -154.323, -94.8159, 91.2056
1.59159, -1, -17.1058, 5.99059, 19.2256, -154.373, -94.7984, 90.9153
1.59958, -1, -17.2649, 5.94762, 19.2362, -154.422, -94.781, 90.6248
1.60753, -1, -17.424, 5.9048, 19.2468, -154.472, -94.7638, 90.3344
1.61559, -1, -17.5832, 5.862, 19.2575, -154.522, -94.7463, 90.0442
1.62353, -1, -17.7426, 5.81917, 19.2681, -154.571, -94.7287, 89.7539
1.63155, -1, -17.9022, 5.77641, 19.2788, -154.621, -94.7107, 89.4635
1.63961, -1, -18.0623, 5.7336, 19.2894, -154.671, -94.6926, 89.1729
1.64753, -1, -18.2228, 5.6908, 19.3, -154.721, -94.6748, 88.8825
1.65556, -1, -18.3837, 5.64801, 19.3108, -154.771, -94.6572, 88.5917
1.6636, -1, -18.5451, 5.60505, 19.3214, -154.821, -94.6398, 88.3006
1.67152, -1, -18.7066, 5.56207, 19.3321, -154.871, -94.6226, 88.0098
1.67954, -1, -18.8682, 5.5191, 19.3428, -154.921, -94.6053, 87.719
1.68759, -1, -19.0299, 5.47607, 19.3533, -154.971, -94.5877, 87.4278
1.69553, -1, -19.1915, 5.43293, 19.364, -155.021, -94.5698, 87.1363
1.70363, -1, -19.353, 5.38978, 19.3746, -155.071, -94.5518, 86.8451
1.7116, -1, -19.5143, 5.3466, 19.3851, -155.121, -94.5338, 86.5536
1.71968, -1, -19.6753, 5.30336, 19.3957, -155.17, -94.516, 86.2619
1.72771, -1, -19.836, 5.2602, 19.4064, -155.221, -94.4984, 85.97
1.73564, -1, -19.9964, 5.21701, 19.4171, -155.27, -94.481, 85.6787
1.7437, -1, -20.1563, 5.17385, 19.4279, -155.32, -94.4637, 85.3872
1.75209, -1, -20.3161, 5.1309, 19.4387, -155.371, -94.4461, 85.0954
1.75973, -1, -20.476, 5.08787, 19.4496, -155.42, -94.4283, 84.8035
1.76761, -1, -20.636, 5.04477, 19.4603, -155.471, -94.4102, 84.5119
1.77637, -1, -20.7964, 5.00186, 19.471, -155.521, -94.3921, 84.2201
1.78361, -1, -20.9571, 4.95886, 19.4817, -155.571, -94.3744, 83.9279
1.79172, -1, -21.1182, 4.91579, 19.4923, -155.621, -94.3569, 83.6358
1.80065, -1, -21.2796, 4.87273, 19.503, -155.672, -94.3396, 83.3439
1.80776, -1, -21.4417, 4.82953, 19.5136, -155.722, -94.3224, 83.0517
1.8159, -1, -21.6038, 4.78625, 19.5243, -155.772, -94.305, 82.7591
1.82474, -1, -21.766, 4.74302, 19.5351, -155.822, -94.2874, 82.4665
1.83195, -1, -21.9285, 4.69964, 19.5458, -155.872, -94.2695, 82.1739
1.84011, -1, -22.091, 4.65629, 19.5566, -155.923, -94.2515, 81.8812
1.84889, -1, -22.2536, 4.61295, 19.5672, -155.973, -94.2336, 81.5882
1.85609, -1, -22.4159, 4.56953, 19.5779, -156.023, -94.2161, 81.2956
1.86415, -1, -22.5779, 4.52614, 19.5886, -156.073, -94.1985, 81.0031
1.87292, -1, -22.6587, 4.50444, 19.5992, -156.123, -94.1811, 80.7102
1.88012, -1, -22.8203, 4.46097, 19.6046, -156.148, -94.1723, 80.417
1.88811, -1, -22.9815, 4.4176, 19.6153, -156.199, -94.1546, 80.2706
1.89558, -1, -23.1426, 4.37433, 19.6259, -156.249, -94.1367, 79.9777
1.90357, -1, -23.3036, 4.33099, 19.6367, -156.299, -94.1184, 79.6844
1.91152, -1, -23.4644, 4.28773, 19.6476, -156.35, -94.1001, 79.3908
1.91953, -1, -23.6254, 4.24446, 19.6584, -156.4, -94.0822, 79.0974
1.9276, -1, -23.7865, 4.20118, 19.6692, -156.45, -94.0646, 78.8041
1.93552, -1, -23.9478, 4.1579, 19.6799, -156.501, -94.0471, 78.5105
1.94353, -1, -24.1095, 4.11454, 19.6905, -156.552, -94.0297, 78.2166
1.95157, -1, -24.2717, 4.0712, 19.7013, -156.602, -94.0121, 77.9228
1.95952, -1, -24.4343, 4.02783, 19.712, -156.653, -93.9943, 77.6288
1.96755, -1, -24.5973, 3.98432, 19.7226, -156.703, -93.9762, 77.3344
1.97558, -1, -24.7605, 3.94078, 19.7333, -156.753, -93.9581, 77.0401
1.98352, -1, -24.9239, 3.89724, 19.744, -156.804, -93.9403, 76.7461
1.99177, -1, -25.0873, 3.85371, 19.7549, -156.854, -93.9226, 76.452
1.99952, -1, -25.2506, 3.81017, 19.7658, -156.904, -93.9051, 76.1576
2.00752, -1, -25.4137, 3.76659, 19.7767, -156.955, -93.8877, 75.8631
2.01655, -1, -25.5765, 3.72296, 19.7875, -157.005, -93.87, 75.5688
2.02352, -1, -25.7391, 3.67939, 19.7981, -157.055, -93.852, 75.2742
2.0316, -1, -25.9016, 3.63595, 19.809, -157.106, -93.8337, 74.9794
2.04039, -1, -26.0638, 3.5924, 19.8197, -157.156, -93.8153, 74.6847
2.04752, -1, -26.2256, 3.54892, 19.8305, -157.207, -93.7972, 74.3902
2.05552, -1, -26.3871, 3.50553, 19.8413, -157.258, -93.7794, 74.0953
2.06435, -1, -26.5488, 3.46206, 19.852, -157.308, -93.7617, 73.8001
2.07152, -1, -26.7107, 3.41857, 19.8628, -157.359, -93.7441, 73.505
2.07952, -1, -26.873, 3.37508, 19.8737, -157.41, -93.7265, 73.2098
2.09115, -1, -27.117, 3.30969, 19.89, -157.486, -93.6994, 72.7667
2.09555, -1, -27.1984, 3.28792, 19.8954, -157.511, -93.6903, 72.619
2.10351, -1, -27.3616, 3.24433, 19.9061, -157.561, -93.672, 72.3238
2.11159, -1, -27.5253, 3.20054, 19.9168, -157.612, -93.6539, 72.0285
2.11952, -1, -27.6892, 3.15684, 19.9277, -157.663, -93.636, 71.7327
2.12754, -1, -27.8532, 3.11324, 19.9384, -157.713, -93.6183, 71.4371
2.1356, -1, -28.0174, 3.06953, 19.9492, -157.764, -93.6006, 71.1416
2.14351, -1, -28.1817, 3.0258, 19.96, -157.815, -93.5828, 70.8459
2.15153, -1, -28.346, 2.98211, 19.9708, -157.865, -93.5648, 70.5498
2.15959, -1, -28.51, 2.93835, 19.9817, -157.916, -93.5465, 70.2538
2.16752, -1, -28.6737, 2.89471, 19.9926, -157.967, -93.528, 69.9578
2.17552, -1, -28.8372, 2.85104, 20.0034, -158.018, -93.5097, 69.6617
2.18361, -1, -29.0003, 2.80733, 20.0141, -158.069, -93.4918, 69.365
2.19152, -1, -29.163, 2.76371, 20.0249, -158.12, -93.474, 69.0686
2.19958, -1, -29.3257, 2.72002, 20.0357, -158.17, -93.4565, 68.7719
2.20757, -1, -29.4885, 2.67631, 20.0465, -158.222, -93.4387, 68.4752
2.21559, -1, -29.6512, 2.63255, 20.0574, -158.273, -93.4207, 68.1783
2.22367, -1, -29.8142, 2.58873, 20.0682, -158.323, -93.4024, 67.8817
2.23165, -1, -29.9774, 2.54497, 20.0791, -158.375, -93.384, 67.585
2.23962, -1, -30.1407, 2.50112, 20.0901, -158.425, -93.3658, 67.288
2.2477, -1, -30.3045, 2.45713, 20.1011, -158.476, -93.3478, 66.991
2.25557, -1, -30.4688, 2.41323, 20.112, -158.527, -93.3299, 66.6941
2.26361, -1, -30.6335, 2.36923, 20.1228, -158.578, -93.3122, 66.3969
2.27161, -1, -30.7985, 2.32527, 20.1336, -158.629, -93.2944, 66.0994
2.27963, -1, -30.9636, 2.28134, 20.1446, -158.68, -93.2764, 65.802
2.28762, -1, -31.1287, 2.23727, 20.1554, -158.731, -93.258, 65.5049
2.29578, -1, -31.2938, 2.19335, 20.1663, -158.782, -93.2394, 65.2075
2.30374, -1, -31.4587, 2.14949, 20.1771, -158.833, -93.2211, 64.9097
2.31186, -1, -31.6233, 2.10544, 20.1879, -158.884, -93.2031, 64.612
2.31984, -1, -31.7878, 2.06149, 20.1988, -158.936, -93.1854, 64.314
2.32804, -1, -31.9521, 2.0176, 20.2098, -158.987, -93.1678, 64.0158
2.33604, -1, -32.116, 1.97356, 20.2208, -159.037, -93.1502, 63.7177
2.344, -1, -32.2797, 1.92959, 20.2317, -159.089, -93.1322, 63.42
2.35203, -1, -32.4432, 1.88558, 20.2426, -159.14, -93.1141, 63.1219
2.36014, -1, -32.6069, 1.84144, 20.2535, -159.191, -93.0956, 62.8237
2.36896, -1, -32.7707, 1.79737, 20.2645, -159.243, -93.0774, 62.5253
2.37623, -1, -32.8527, 1.77533, 20.2754, -159.294, -93.0594, 62.2271
2.38417, -1, -33.0169, 1.73111, 20.2808, -159.345, -93.0415, 61.9286
2.3915, -1, -33.1814, 1.68685, 20.2917, -159.371, -93.0326, 61.7792
2.39954, -1, -33.3461, 1.64268, 20.3026, -159.422, -93.0148, 61.4805
2.40757, -1, -33.5114, 1.59843, 20.3136, -159.473, -92.9969, 61.1821
2.4155, -1, -33.677, 1.55417, 20.3246, -159.525, -92.9786, 60.8834
2.42355, -1, -33.8428, 1.50997, 20.3355, -159.576, -92.9599, 60.5844
2.43158, -1, -34.0086, 1.46572, 20.3463, -159.627, -92.9413, 60.2851
2.4395, -1, -34.1746, 1.42155, 20.3572, -159.678, -92.923, 59.9861
2.44752, -1, -34.3406, 1.37735, 20.3682, -159.73, -92.9049, 59.6866
2.45555, -1, -34.5066, 1.33316, 20.3791, -159.781, -92.8871, 59.3869
2.4635, -1, -34.6724, 1.28897, 20.39, -159.833, -92.8693, 59.0875
2.47153, -1, -34.8377, 1.24478, 20.4009, -159.884, -92.8514, 58.7882
2.47956, -1, -35.0028, 1.20055, 20.4119, -159.935, -92.8332, 58.4886
2.48753, -1, -35.1676, 1.15625, 20.423, -159.987, -92.8147, 58.1887
2.49552, -1, -35.3321, 1.11195, 20.4341, -160.038, -92.7961, 57.8891
2.50357, -1, -35.4961, 1.06782, 20.4452, -160.09, -92.7778, 57.5893
2.5115, -1, -35.6584, 1.02401, 20.4564, -160.141, -92.7597, 57.2894
2.51951, -1, -35.8179, 0.980781, 20.4679, -160.192, -92.7418, 56.9908
2.52854, -1, -35.9734, 0.938691, 20.4799, -160.243, -92.7241, 56.6956
2.53556, -1, -36.1238, 0.898203, 20.4918, -160.292, -92.7066, 56.4064
2.54451, -1, -36.2666, 0.859931, 20.5037, -160.339, -92.6895, 56.1274
2.55158, -1, -36.3997, 0.824616, 20.5152, -160.384, -92.673, 55.8648
2.5595, -1, -36.5215, 0.792325, 20.5258, -160.425, -92.6578, 55.625
2.56755, -1, -36.6306, 0.763433, 20.5351, -160.46, -92.6446, 55.4134
2.57557, -1, -36.7253, 0.73836, 20.5424, -160.491, -92.6335, 55.235
2.5835, -1, -36.8055, 0.717104, 20.5475, -160.515, -92.6248, 55.0917
2.5915, -1, -36.8718, 0.699583, 20.5504, -160.534, -92.6183, 54.9832
2.5996, -1, -36.9251, 0.685562, 20.5517, -160.547, -92.6139, 54.9064
2.60752, -1, -36.9656, 0.674709, 20.5521, -160.556, -92.611, 54.8546
2.6155, -1, -36.9951, 0.666894, 20.5519, -160.562, -92.6093, 54.823
2.62356, -1, -37.0155, 0.661775, 20.5514, -160.565, -92.6084, 54.8051
2.6315, -1, -37.0279, 0.658699, 20.5511, -160.567, -92.6079, 54.7961
2.63952, -1, -37.0346, 0.657053, 20.5509, -160.568, -92.6077, 54.7918
2.64758, 2, -37.0368, 0.656285, 20.5508, -160.568, -92.6076, 54.7898
2.6555, 2, -37.0366, 0.655974, 20.5508, -160.568, -92.6076, 54.7889
2.66352, 2, -37.0359, 0.655828, 20.5507, -160.568, -92.6076, 54.7885
2.67156, 2, -37.0357, 0.655765, 20.5507, -160.568, -92.6076, 54.7884
2.6795, 2, -37.036, 0.655714, 20.5507, -160.568, -92.6076, 54.7883
2.68752, 2, -37.0371, 0.655675, 20.5506, -160.568, -92.6076, 54.7882
2.69557, 2, -37.0381, 0.65557, 20.5505, -160.568, -92.6076, 54.7882
2.7035, 2, -37.0396, 0.655371, 20.5502, -160.568, -92.6076, 54.7882
2.71153, 2, -37.041, 0.655123, 20.5501, -160.568, -92.6076, 54.7883
2.71965, 2, -37.0422, 0.654868, 20.5499, -160.568, -92.6077, 54.7883
2.7276, 2, -37.0432, 0.654621, 20.5497, -160.568, -92.6077, 54.7885
2.73563, 2, -37.0436, 0.654496, 20.5495, -160.568, -92.6077, 54.7886
2.74366, 2, -37.0437, 0.654438, 20.5493, -160.568, -92.6078, 54.7887
2.7516, 2, -37.0432, 0.654412, 20.5491, -160.568, -92.6078, 54.7888
2.75956, 2, -37.0424, 0.654449, 20.5491, -160.568, -92.6079, 54.789
2.76772, 2, -37.0414, 0.654478, 20.549, -160.568, -92.6079, 54.7892
2.77553, 2, -37.0399, 0.654539, 20.549, -160.568, -92.608, 54.7894
2.78353, 2, -37.0384, 0.654617, 20.5488, -160.568, -92.608, 54.7896
2.79162, 2, -37.0373, 0.654653, 20.5488, -160.568, -92.608, 54.7897
2.79975, 2, -37.0367, 0.654633, 20.5487, -160.568, -92.608, 54.7898
2.80781, 2, -37.0364, 0.654599, 20.5487, -160.568, -92.6081, 54.7898
2.8158, 2, -37.0364, 0.654573, 20.5487, -160.568, -92.6081, 54.7898
2.82409, 2, -37.0366, 0.654516, 20.5487, -160.568, -92.6081, 54.7898
2.83192, 2, -37.0369, 0.65444, 20.5487, -160.568, -92.6081, 54.7899
2.83998, 2, -37.0374, 0.654408, 20.5486, -160.568, -92.6081, 54.7899
2.84844, 2, -37.0381, 0.654398, 20.5486, -160.568, -92.6081, 54.79
2.85605, 2, -37.0388, 0.654386, 20.5486, -160.568, -92.6081, 54.79
2.86412, 2, -37.0395, 0.654383, 20.5486, -160.568, -92.6081, 54.79
2.87239, 2, -37.0399, 0.654397, 20.5486, -160.568, -92.6081, 54.7901
2.88009, 2, -37.04, 0.654417, 20.5486, -160.568, -92.6081, 54.7902
2.88814, 2, -37.0401, 0.654451, 20.5486, -160.568, -92.6081, 54.7902
2.89638, 2, -37.0401, 0.654483, 20.5485, -160.568, -92.6081, 54.7903
2.90352, 2, -37.0399, 0.654482, 20.5486, -160.568, -92.6081, 54.7903
2.91154, 2, -37.0394, 0.654488, 20.5486, -160.568, -92.6081, 54.7903
2.91971, 2, -37.0391, 0.654476, 20.5486, -160.568, -92.6081, 54.7904
2.92753, 2, -37.0389, 0.654448, 20.5486, -160.568, -92.6082, 54.7904
2.93557, 2, -37.0387, 0.654442, 20.5486, -160.568, -92.6082, 54.7905
2.94348, 2, -37.0387, 0.654414, 20.5485, -160.568, -92.6082, 54.7905
2.95149, 2, -37.0386, 0.654393, 20.5485, -160.568, -92.6082, 54.7905
2.95954, 2, -37.0387, 0.654374, 20.5485, -160.568, -92.6082, 54.7906
2.9675, 2, -37.0387, 0.654412, 20.5485, -160.568, -92.6082, 54.7906
2.97551, 2, -37.0388, 0.654407, 20.5485, -160.568, -92.6083, 54.7907
2.98353, 2, -37.0389, 0.654427, 20.5485, -160.568, -92.6083, 54.7908
2.99149, 2, -37.0392, 0.654443, 20.5485, -160.568, -92.6083, 54.7908
2.9995, 2, -37.0393, 0.654463, 20.5485, -160.568, -92.6083, 54.7909
3.00757, 2, -37.0394, 0.65446, 20.5484, -160.568, -92.6083, 54.7909
3.01548, 2, -37.0394, 0.654478, 20.5484, -160.568, -92.6083, 54.791
3.02348, 2, -37.0394, 0.654472, 20.5484, -160.568, -92.6083, 54.791
3.03163, 2, -37.0394, 0.654464, 20.5484, -160.568, -92.6083, 54.791
3.04154, 2, -37.0394, 0.654447, 20.5484, -160.568, -92.6083, 54.7911
3.0475, 2, -37.0394, 0.65445, 20.5484, -160.568, -92.6083, 54.7912
3.05564, 2, -37.0394, 0.654454, 20.5484, -160.568, -92.6084, 54.7913
3.06349, 2, -37.0394, 0.654445, 20.5484, -160.568, -92.6084, 54.7913
3.07152, 2, -37.0394, 0.654415, 20.5483, -160.568, -92.6084, 54.7913
3.07955, 2, -37.0393, 0.65443, 20.5483, -160.568, -92.6084, 54.7913
3.0875, 2, -37.0393, 0.654445, 20.5483, -160.568, -92.6084, 54.7913
3.09549, 2, -37.0394, 0.654452, 20.5483, -160.568, -92.6084, 54.7914
3.10358, 2, -37.0394, 0.654455, 20.5483, -160.568, -92.6084, 54.7915
3.11148, 2, -37.0394, 0.654463, 20.5483, -160.568, -92.6084, 54.7916
3.11949, 2, -37.0393, 0.654477, 20.5483, -160.568, -92.6083, 54.7916
3.12759, 2, -37.0393, 0.654479, 20.5483, -160.568, -92.6084, 54.7916
3.13548, 2, -37.0393, 0.654474, 20.5483, -160.568, -92.6084, 54.7917
3.1435, 2, -37.0393, 0.654482, 20.5483, -160.568, -92.6084, 54.7918
3.15155, 2, -37.0393, 0.654469, 20.5483, -160.568, -92.6084, 54.7917
3.15948, 2, -37.0393, 0.654444, 20.5483, -160.568, -92.6084, 54.7918
3.16751, 2, -37.0393, 0.65444, 20.5483, -160.568, -92.6084, 54.7919
3.17555, 2, -37.0393, 0.654442, 20.5482, -160.568, -92.6084, 54.7919
3.18353, 2, -37.0392, 0.65445, 20.5482, -160.568, -92.6084, 54.7919
3.19149, 2, -37.0392, 0.654454, 20.5482, -160.568, -92.6084, 54.792
3.19955, 2, -37.0392, 0.654445, 20.5482, -160.568, -92.6084, 54.792
3.2076, 2, -37.0392, 0.654476, 20.5482, -160.568, -92.6084, 54.792
3.21553, 2, -37.0392, 0.654471, 20.5482, -160.568, -92.6084, 54.7921
3.22364, 2, -37.0392, 0.654483, 20.5482, -160.568, -92.6084, 54.7921
3.23159, 2, -37.0392, 0.654494, 20.5482, -160.568, -92.6084, 54.7921
3.23962, 2, -37.0392, 0.654486, 20.5482, -160.568, -92.6084, 54.7921
3.24766, 2, -37.0392, 0.654464, 20.5482, -160.568, -92.6084, 54.7921
3.25558, 2, -37.0391, 0.654465, 20.5482, -160.568, -92.6084, 54.7922
3.26349, 2, -37.0391, 0.654462, 20.5482, -160.568, -92.6084, 54.7923
3.27169, 2, -37.0391, 0.654452, 20.5482, -160.568, -92.6084, 54.7924
3.27951, 2, -37.0391, 0.654462, 20.5481, -160.568, -92.6084, 54.7923
3.28755, 2, -37.0391, 0.654464, 20.5481, -160.568, -92.6084, 54.7924
3.29575, 2, -37.0391, 0.654473, 20.5481, -160.568, -92.6084, 54.7924
3.30362, 2, -37.039, 0.654484, 20.5481, -160.568, -92.6084, 54.7924
3.31182, 2, -37.0391, 0.654482, 20.5481, -160.568, -92.6084, 54.7924
3.31981, 2, -37.0391, 0.654493, 20.5481, -160.568, -92.6084, 54.7925
3.3278, 2, -37.0391, 0.654486, 20.5481, -160.568, -92.6084, 54.7925
3.33596, 2, -37.0391, 0.654483, 20.5481, -160.568, -92.6084, 54.7925
3.3446, 2, -37.039, 0.654486, 20.5481, -160.568, -92.6085, 54.7925
3.352, 2, -37.039, 0.654478, 20.5481, -160.568, -92.6085, 54.7926
3.36007, 2, -37.039, 0.654472, 20.548, -160.568, -92.6085, 54.7926
3.36806, 2, -37.039, 0.654471, 20.548, -160.568, -92.6085, 54.7927
3.37613, 2, -37.039, 0.654469, 20.548, -160.568, -92.6085, 54.7927
3.38409, 2, -37.0389, 0.654465, 20.548, -160.568, -92.6085, 54.7927
3.39226, 2, -37.0389, 0.654473, 20.548, -160.568, -92.6085, 54.7927
3.39947, 2, -37.0389, 0.654464, 20.548, -160.567, -92.6085, 54.7927
3.40752, 2, -37.0389, 0.654461, 20.548, -160.567, -92.6085, 54.7928
3.41552, 2, -37.0389, 0.654459, 20.548, -160.567, -92.6085, 54.7928
3.42347, 2, -37.0389, 0.65447, 20.548, -160.567, -92.6085, 54.7928
3.43149, 2, -37.0389, 0.654483, 20.548, -160.567, -92.6085, 54.7929
3.43955, 2, -37.0388, 0.654493, 20.548, -160.567, -92.6086, 54.7929
3.44748, 2, -37.0388, 0.654491, 20.548, -160.567, -92.6086, 54.7928
3.45548, 2, -37.0388, 0.654485, 20.548, -160.567, -92.6085, 54.7929
3.46352, 2, -37.0388, 0.65449, 20.548, -160.567, -92.6085, 54.7929
3.47148, 2, -37.0388, 0.654497, 20.5479, -160.567, -92.6086, 54.7929
3.47949, 2, -37.0388, 0.654488, 20.548, -160.567, -92.6086, 54.793
3.48754, 2, -37.0388, 0.654483, 20.5479, -160.567, -92.6085, 54.7929
3.49547, 2, -37.0388, 0.654463, 20.5479, -160.567, -92.6086, 54.7929
3.50349, 2, -37.0388, 0.654465, 20.5479, -160.567, -92.6086, 54.7929
3.51309, 2, -37.0387, 0.654468, 20.5479, -160.567, -92.6086, 54.7929
3.51947, 2, -37.0387, 0.654479, 20.5479, -160.567, -92.6086, 54.7929
3.52747, 2, -37.0387, 0.654487, 20.5479, -160.567, -92.6087, 54.7929
3.53554, 2, -37.0387, 0.654483, 20.5479, -160.567, -92.6086, 54.793
3.54347, 2, -37.0387, 0.654494, 20.5479, -160.567, -92.6085, 54.7931
3.55148, 2, -37.0387, 0.654498, 20.5479, -160.567, -92.6085, 54.7931
3.55954, 2, -37.0387, 0.654501, 20.5479, -160.567, -92.6086, 54.7931
3.56853, 2, -37.0387, 0.654494, 20.5479, -160.567, -92.6087, 54.793
3.57551, 2, -37.0387, 0.654494, 20.5478, -160.567, -92.6087, 54.793
3.58354, 2, -37.0387, 0.654491, 20.5478, -160.567, -92.6087, 54.7931
3.59148, 2, -37.0386, 0.65448, 20.5478, -160.567, -92.6086, 54.7931
3.59947, 2, -37.0386, 0.654485, 20.5478, -160.567, -92.6086, 54.7931
3.60757, 2, -37.0386, 0.65449, 20.5478, -160.567, -92.6086, 54.7931
3.61547, 2, -37.0386, 0.654497, 20.5478, -160.567, -92.6086, 54.7931
3.62347, 2, -37.0386, 0.6545, 20.5478, -160.567, -92.6086, 54.7931
3.63155, 2, -37.0386, 0.654501, 20.5478, -160.567, -92.6087, 54.7931
3.63947, 2, -37.0386, 0.654502, 20.5478, -160.567, -92.6086, 54.7931
3.64871, 2, -37.0386, 0.654502, 20.5478, -160.567, -92.6086, 54.7931
3.65553, 2, -37.0386, 0.65449, 20.5478, -160.567, -92.6087, 54.7932
3.66346, 2, -37.0386, 0.654497, 20.5478, -160.567, -92.6087, 54.7932
3.67149, 2, -37.0386, 0.6545, 20.5478, -160.567, -92.6087, 54.7932
3.67953, 2, -37.0385, 0.654501, 20.5478, -160.567, -92.6087, 54.7932
3.68749, 2, -37.0385, 0.654502, 20.5477, -160.567, -92.6087, 54.7932
3.69547, 2, -37.0385, 0.654502, 20.5477, -160.567, -92.6086, 54.7932
3.70364, 2, -37.0385, 0.654495, 20.5477, -160.567, -92.6086, 54.7932
3.7115, 2, -37.0385, 0.654494, 20.5477, -160.567, -92.6087, 54.7932
3.71952, 2, -37.0385, 0.654499, 20.5477, -160.567, -92.6087, 54.7932
3.72759, 4, -37.0385, 0.654501, 20.5477, -160.567, -92.6087, 54.7932
3.73556, 4, -37.0385, 0.654502, 20.5477, -160.567, -92.6087, 54.7932
3.7436, 4, -37.0385, 0.654502, 20.5477, -160.567, -92.6087, 54.7932
3.75175, 4, -37.0385, 0.654502, 20.5477, -160.567, -92.6087, 54.7932
3.75957, 4, -37.0385, 0.654502, 20.5477, -160.567, -92.6087, 54.7932
3.76748, 4, -37.0385, 0.65449, 20.5477, -160.567, -92.6087, 54.7932
3.77563, 4, -37.0384, 0.654497, 20.5477, -160.567, -92.6087, 54.7932
3.7835, 4, -37.0384, 0.6545, 20.5477, -160.567, -92.6086, 54.7932
3.79153, 4, -37.0384, 0.654501, 20.5477, -160.567, -92.6086, 54.7932
3.79973, 4, -37.0384, 0.654502, 20.5476, -160.567, -92.6087, 54.7932
3.80763, 4, -37.0384, 0.654502, 20.5476, -160.567, -92.6087, 54.7932
3.81608, 4, -37.0384, 0.654502, 20.5476, -160.567, -92.6087, 54.7932
3.82383, 4, -37.0384, 0.654502, 20.5476, -160.567, -92.6087, 54.7932
3.83222, 4, -37.0383, 0.654503, 20.5476, -160.567, -92.6087, 54.7932
3.85394, 4, -37.0383, 0.654503, 20.5476, -160.567, -92.6087, 54.7932
3.85658, 4, -37.0383, 0.654503, 20.5476, -160.567, -92.6087, 54.7932
3.8584, 4, -37.0383, 0.654503, 20.5476, -160.567, -92.6087, 54.7932
3.86421, 4, -37.0383, 0.654503, 20.5475, -160.567, -92.6087, 54.7932
3.87328, 4, -37.0382, 0.654503, 20.5475, -160.567, -92.6087, 54.7932
3.88083, 4, -37.0375, 0.654376, 20.5476, -160.567, -92.6087, 54.7932
3.88809, 4, -37.0366, 0.654092, 20.5477, -160.567, -92.6087, 54.7932
3.89546, 4, -37.0325, 0.652325, 20.548, -160.567, -92.6087, 54.7932
3.90426, 4, -37.0248, 0.647981, 20.5495, -160.567, -92.6088, 54.7932
3.91148, 4, -37.0133, 0.640216, 20.5534, -160.566, -92.6088, 54.7932
3.91946, 4, -36.9977, 0.628672, 20.5608, -160.565, -92.6088, 54.7932
3.92751, 5, -36.9767, 0.612657, 20.5732, -160.563, -92.6087, 54.7932
3.93546, 5, -36.9501, 0.592237, 20.5919, -160.559, -92.6086, 54.7932
3.94362, 5, -36.9184, 0.567349, 20.6173, -160.554, -92.6083, 54.7931
3.95162, 5, -36.882, 0.53798, 20.6495, -160.547, -92.6078, 54.793
3.96162, 5, -36.818, 0.485277, 20.7094, -160.534, -92.6063, 54.793
3.96746, 5, -36.7941, 0.465365, 20.732, -160.529, -92.6056, 54.7929
3.97594, 5, -36.7424, 0.422399, 20.7805, -160.518, -92.6041, 54.7929
3.98351, 5, -36.6861, 0.375713, 20.832, -160.506, -92.6025, 54.7929
3.99147, 5, -36.6257, 0.326255, 20.8856, -160.494, -92.6007, 54.7929
3.99945, 5, -36.5615, 0.274665, 20.9404, -160.482, -92.599, 54.7929
4.00754, 5, -36.4948, 0.221634, 20.9958, -160.469, -92.5972, 54.7929
4.01546, 5, -36.427, 0.168021, 21.0511, -160.457, -92.5952, 54.7929
4.0236, 5, -36.3584, 0.11416, 21.1066, -160.445, -92.5934, 54.7929
4.03158, 5, -36.2897, 0.0601893, 21.1621, -160.433, -92.5915, 54.7929
4.04051, 5, -36.2208, 0.00637651, 21.2175, -160.421, -92.5896, 54.793
4.0476, 5, -36.1519, -0.0472118, 21.2729, -160.409, -92.5876, 54.7931
4.05627, 5, -36.0832, -0.100561, 21.3283, -160.397, -92.5856, 54.7931
4.06346, 5, -36.0146, -0.153687, 21.3835, -160.384, -92.5836, 54.7932
4.07152, 5, -35.9459, -0.206601, 21.4386, -160.371, -92.5816, 54.7934
4.07949, 5, -35.8773, -0.259345, 21.4937, -160.358, -92.5796, 54.7937
4.08747, 5, -35.8086, -0.311957, 21.5487, -160.346, -92.5776, 54.7941
4.09663, 5, -35.7396, -0.364588, 21.6036, -160.333, -92.5756, 54.7948
4.10605, 5, -35.6356, -0.443496, 21.6856, -160.314, -92.5726, 54.7962
4.1115, 5, -35.6008, -0.469856, 21.7128, -160.308, -92.5716, 54.7968
4.1229, 5, -35.4961, -0.548979, 21.7943, -160.289, -92.5685, 54.7987
4.12764, 5, -35.4611, -0.575378, 21.8214, -160.283, -92.5675, 54.7994
4.13656, 5, -35.3908, -0.628159, 21.8754, -160.27, -92.5654, 54.8009
4.14352, 5, -35.3203, -0.68088, 21.9293, -160.257, -92.5634, 54.8026
4.1517, 5, -35.2497, -0.733567, 21.9832, -160.244, -92.5613, 54.8043
4.16047, 5, -35.1792, -0.785926, 22.0369, -160.231, -92.5592, 54.8063
4.16847, 5, -35.1084, -0.838125, 22.0906, -160.217, -92.5571, 54.8084
4.17566, 5, -35.0378, -0.89025, 22.144, -160.204, -92.555, 54.8105
4.18373, 5, -34.9672, -0.941996, 22.1974, -160.191, -92.5528, 54.8128
4.19145, 5, -34.8967, -0.993565, 22.2507, -160.178, -92.5507, 54.8153
4.19962, 5, -34.8262, -1.04493, 22.3038, -160.165, -92.5485, 54.8178
4.20922, 5, -34.7556, -1.09625, 22.3568, -160.152, -92.5463, 54.8205
4.21549, 5, -34.6848, -1.14759, 22.4096, -160.14, -92.5441, 54.8232
4.22354, 5, -34.6139, -1.19881, 22.4623, -160.127, -92.5418, 54.8261
4.23173, 5, -34.543, -1.25018, 22.5146, -160.114, -92.5396, 54.8292
4.23955, 5, -34.4717, -1.30154, 22.5669, -160.1, -92.5374, 54.8323
4.2483, 5, -34.4003, -1.35284, 22.6191, -160.086, -92.5351, 54.8355
4.25691, 5, -34.3287, -1.40418, 22.6711, -160.073, -92.5329, 54.8389
4.26356, 5, -34.257, -1.45539, 22.723, -160.059, -92.5306, 54.8423
4.27235, 5, -34.1852, -1.50645, 22.7748, -160.045, -92.5284, 54.846
4.27951, 5, -34.1132, -1.55726, 22.8264, -160.032, -92.526, 54.8497
4.28749, 5, -34.0411, -1.60791, 22.878, -160.018, -92.5237, 54.8535
4.29771, 5, -33.9689, -1.65831, 22.9294, -160.005, -92.5213, 54.8573
4.30396, 5, -33.8966, -1.70845, 22.9808, -159.991, -92.5191, 54.8613
4.31178, 5, -33.8244, -1.75846, 23.0319, -159.978, -92.5167, 54.8655
4.31973, 5, -33.7522, -1.80835, 23.0829, -159.964, -92.5144, 54.8696
4.32793, 5, -33.6799, -1.85815, 23.1337, -159.95, -92.5121, 54.8738
4.33671, 5, -33.6074, -1.90792, 23.1844, -159.935, -92.5098, 54.8781
4.34398, 5, -33.5348, -1.95795, 23.2349, -159.921, -92.5076, 54.8824
4.35265, 5, -33.462, -2.0083, 23.2853, -159.907, -92.5052, 54.8864
4.36098, 5, -33.3893, -2.05902, 23.3357, -159.893, -92.5029, 54.8894
4.368, 5, -33.3168, -2.11016, 23.3862, -159.879, -92.5005, 54.8912
4.37627, 6, -33.2445, -2.16191, 23.4369, -159.864, -92.4979, 54.8914
4.38483, 6, -33.2085, -2.18811, 23.488, -159.85, -92.4949, 54.8897
4.39197, 6, -33.1368, -2.24122, 23.5138, -159.842, -92.4931, 54.8848
4.40021, 6, -33.0655, -2.29517, 23.566, -159.826, -92.4864, 54.8745
4.40744, 7, -32.9946, -2.35028, 23.6192, -159.808, -92.4835, 54.8678
4.41649, 7, -32.8893, -2.43508, 23.7012, -159.78, -92.4724, 54.844
4.4236, 7, -32.8544, -2.46408, 23.7293, -159.77, -92.4677, 54.8353
4.43293, 7, -32.7851, -2.55326, 23.8154, -159.737, -92.4509, 54.8091
4.43944, 7, -32.7165, -2.5838, 23.8448, -159.726, -92.4443, 54.8006
4.44748, 8, -32.6486, -2.64602, 23.9045, -159.703, -92.4297, 54.7838
4.45549, 8, -32.5814, -2.70993, 23.9653, -159.678, -92.4132, 54.7671
4.46345, 8, -32.5148, -2.77553, 24.0271, -159.651, -92.3948, 54.7496
4.47392, 8, -32.4163, -2.87686, 24.1218, -159.61, -92.3641, 54.721
4.47965, 8, -32.3838, -2.91139, 24.1539, -159.596, -92.3532, 54.7108
4.48746, 9, -32.3192, -2.98144, 24.2188, -159.568, -92.3308, 54.6888
4.49549, 9, -32.2551, -3.05276, 24.2846, -159.538, -92.3072, 54.6652
4.50732, 9, -32.1601, -3.16223, 24.3852, -159.49, -92.2692, 54.6267
4.51297, 9, -32.1287, -3.19936, 24.4193, -159.458, -92.2416, 54.5995
4.5195, 9, -32.0663, -3.27456, 24.4881, -159.442, -92.2271, 54.5855
4.5291, 10, -32.0044, -3.35105, 24.5578, -159.408, -92.1975, 54.5407
4.53546, 10, -31.9433, -3.42895, 24.6287, -159.373, -92.1668, 54.5249
4.54351, 10, -31.8827, -3.50828, 24.7007, -159.337, -92.1348, 54.4916
4.55159, 10, -31.8226, -3.58896, 24.7737, -159.301, -92.1009, 54.4566
4.55948, 10, -31.7631, -3.67115, 24.8477, -159.264, -92.0652, 54.4205
4.56744, 11, -31.7042, -3.75477, 24.9226, -159.225, -92.0289, 54.3832
4.57547, 11, -31.6457, -3.83992, 24.9985, -159.185, -91.9916, 54.3441
4.58353, 11, -31.5879, -3.92652, 25.0754, -159.145, -91.9522, 54.3029
4.59155, 11, -31.5304, -4.01459, 25.1531, -159.104, -91.9112, 54.2603
4.5996, 11, -31.4736, -4.10408, 25.232, -159.061, -91.8695, 54.2166
4.60748, 12, -31.4173, -4.19509, 25.312, -159.018, -91.8262, 54.1715
4.61546, 12, -31.3614, -4.28752, 25.393, -158.975, -91.7809, 54.1244
4.62471, 12, -31.3061, -4.38129, 25.475, -158.929, -91.735, 54.0755
4.63159, 12, -31.2514, -4.47637, 25.5581, -158.883, -91.6879, 54.0257
4.63949, 12, -31.1971, -4.57288, 25.6423, -158.836, -91.6385, 53.9744
4.64819, 13, -31.1433, -4.67084, 25.7273, -158.788, -91.5885, 53.9209
4.65548, 13, -31.0901, -4.77015, 25.8132, -158.739, -91.537, 53.8663
4.66349, 13, -31.0373, -4.87092, 25.9002, -158.69, -91.4834, 53.8107
4.67475, 13, -30.9592, -5.02496, 26.0328, -158.613, -91.4019, 53.7234
4.68061, 13, -30.9334, -5.07702, 26.0775, -158.588, -91.3736, 53.6938
4.68851, 14, -30.8822, -5.1822, 26.1678, -158.535, -91.3165, 53.6338
4.69555, 14, -30.8316, -5.2889, 26.2591, -158.481, -91.2587, 53.5719
4.70359, 14, -30.7817, -5.39703, 26.3514, -158.428, -91.1985, 53.5084
4.7115, 14, -30.7322, -5.50669, 26.4444, -158.373, -91.138, 53.4443
4.71947, 14, -30.6832, -5.61785, 26.5385, -158.316, -91.0756, 53.3779
4.72757, 14, -30.6347, -5.73048, 26.6337, -158.26, -91.0117, 53.3101
4.73554, 15, -30.5866, -5.84451, 26.7301, -158.202, -90.9467, 53.2414
4.74356, 15, -30.5391, -5.95974, 26.8276, -158.143, -90.8798, 53.1704
4.75177, 15, -30.4922, -6.07633, 26.9261, -158.083, -90.8127, 53.0988
4.76051, 15, -30.4456, -6.1945, 27.0256, -158.023, -90.743, 53.0253
4.76756, 15, -30.3996, -6.31397, 27.126, -157.961, -90.6729, 52.9498
4.77557, 16, -30.3542, -6.43504, 27.2272, -157.898, -90.6006, 52.8736
4.78346, 16, -30.3093, -6.55765, 27.3297, -157.835, -90.5279, 52.7949
4.79149, 16, -30.2648, -6.6816, 27.4333, -157.771, -90.4533, 52.7157
4.79982, 16, -30.2208, -6.80704, 27.538, -157.706, -90.3777, 52.6346
4.80855, 16, -30.1773, -6.93403, 27.6438, -157.64, -90.3004, 52.5524
4.81568, 17, -30.1343, -7.06266, 27.7503, -157.573, -90.2221, 52.469
4.82532, 17, -30.0918, -7.19285, 27.8577, -157.505, -90.1423, 52.3841
4.83348, 17, -30.0498, -7.32446, 27.9661, -157.436, -90.0611, 52.2984
4.84007, 17, -30.0083, -7.45734, 28.0757, -157.367, -89.9788, 52.2105
4.84793, 17, -29.9673, -7.59157, 28.1866, -157.296, -89.8951, 52.1222
4.85593, 18, -29.9268, -7.72727, 28.2985, -157.225, -89.8101, 52.0319
4.86453, 18, -29.8869, -7.86441, 28.4113, -157.152, -89.7236, 51.9407
4.87199, 18, -29.8474, -8.00293, 28.5248, -157.079, -89.6364, 51.8477
4.88026, 18, -29.8083, -8.14263, 28.6394, -157.005, -89.5477, 51.7537
4.88803, 18, -29.789, -8.21297, 28.6972, -156.968, -89.4574, 51.6579
4.8954, 19, -29.7506, -8.35468, 28.8135, -156.892, -89.4121, 51.6099
4.90447, 19, -29.694, -8.57016, 28.9903, -156.777, -89.274, 51.4633
4.91145, 19, -29.6753, -8.64279, 29.0496, -156.738, -89.2273, 51.4142
4.91946, 19, -29.6383, -8.78908, 29.1688, -156.661, -89.1329, 51.3145
4.92762, 19, -29.6018, -8.93648, 29.2888, -156.581, -89.0376, 51.2143
4.93539, 20, -29.5658, -9.08536, 29.4099, -156.501, -88.941, 51.1121
4.94343, 20, -29.5303, -9.23574, 29.5322, -156.421, -88.8433, 51.0094
4.95159, 20, -29.4952, -9.38769, 29.6557, -156.339, -88.7449, 50.905
4.95946, 20, -29.4606, -9.54087, 29.7799, -156.256, -88.645, 50.7997
4.96886, 20, -29.4095, -9.77276, 29.9679, -156.131, -88.4935, 50.6393
4.97544, 20, -29.3928, -9.85069, 30.031, -156.089, -88.4424, 50.585
4.98342, 21, -29.3595, -10.0077, 30.1581, -156.003, -88.3391, 50.4762
4.99151, 21, -29.3266, -10.1664, 30.2863, -155.917, -88.2351, 50.3661
4.99963, 21, -29.2942, -10.3261, 30.4155, -155.83, -88.1301, 50.2553
5.00924, 21, -29.2623, -10.4866, 30.5455, -155.743, -88.0237, 50.0877
5.01546, 21, -29.2307, -10.6485, 30.6763, -155.654, -87.9166, 50.0312
5.02343, 22, -29.1996, -10.8118, 30.8081, -155.564, -87.8084, 49.9179
5.03244, 22, -29.1687, -10.9765, 30.9409, -155.474, -87.6992, 49.8037
5.03942, 22, -29.1383, -11.142, 31.0746, -155.383, -87.5891, 49.6884
5.04981, 22, -29.0934, -11.3923, 31.2768, -155.244, -87.4218, 49.5141
5.05799, 22, -29.0787, -11.5612, 31.4128, -155.15, -87.3094, 49.3968
5.06349, 23, -29.0493, -11.6463, 31.4811, -155.103, -87.2527, 49.3379
5.07144, 23, -29.0203, -11.8172, 31.6183, -155.009, -87.1386, 49.2195
5.07958, 23, -28.9918, -11.9887, 31.7561, -154.913, -87.024, 49.1006
5.08747, 23, -28.9637, -12.1615, 31.895, -154.817, -86.9082, 48.9813
5.0955, 23, -28.936, -12.3358, 32.0348, -154.72, -86.7915, 48.8611
5.10342, 24, -28.9086, -12.5112, 32.1755, -154.621, -86.6738, 48.7404
5.11142, 24, -28.8815, -12.6872, 32.3169, -154.522, -86.5552, 48.6194
5.11949, 24, -28.8547, -12.8638, 32.4589, -154.422, -86.4361, 48.4974
5.12767, 24, -28.8284, -13.0419, 32.6017, -154.322, -86.3157, 48.3748
5.13649, 24, -28.8024, -13.2216, 32.7457, -154.22, -86.195, 48.252
5.14443, 25, -28.7766, -13.4018, 32.8903, -154.118, -86.0734, 48.1286
5.15244, 25, -28.7511, -13.5826, 33.0356, -154.015, -85.9509, 48.0051
5.16059, 25, -28.7259, -13.7647, 33.1813, -153.911, -85.8281, 47.8818
5.16743, 25, -28.7008, -13.9482, 33.3279, -153.807, -85.7041, 47.758
5.17558, 25, -28.676, -14.1325, 33.4753, -153.701, -85.5799, 47.6339
5.18443, 26, -28.6515, -14.317, 33.6235, -153.595, -85.4549, 47.5101
5.1915, 26, -28.6274, -14.5028, 33.7721, -153.488, -85.3292, 47.3857
5.20019, 26, -28.6036, -14.6901, 33.9212, -153.38, -85.2033, 47.2613
5.20938, 26, -28.58, -14.8779, 34.0714, -153.271, -85.0763, 47.1371
5.21542, 26, -28.5563, -15.0659, 34.2222, -153.162, -84.9491, 47.0129
5.22421, 27, -28.5329, -15.2546, 34.3733, -153.052, -84.8212, 46.889
5.23184, 27, -28.5099, -15.4443, 34.5249, -152.942, -84.693, 46.7657
5.23952, 27, -28.487, -15.6345, 34.6773, -152.83, -84.564, 46.6423
5.25114, 27, -28.4531, -15.9204, 34.9072, -152.662, -84.37, 46.458
5.25579, 27, -28.4419, -16.0163, 34.9839, -152.605, -84.3051, 46.3967
5.26449, 28, -28.4197, -16.2093, 35.1375, -152.492, -84.175, 46.2742
5.27198, 28, -28.3972, -16.4029, 35.2916, -152.378, -84.0445, 46.1521
5.27976, 28, -28.375, -16.5968, 35.4466, -152.263, -83.9136, 46.0305
5.28851, 28, -28.353, -16.7917, 35.602, -152.148, -83.7826, 45.9096
5.29545, 28, -28.3309, -16.9875, 35.7575, -152.032, -83.651, 45.7896
5.30351, 28, -28.3089, -17.1833, 35.9133, -151.915, -83.5195, 45.6706
5.31239, 29, -28.287, -17.3791, 36.0699, -151.797, -83.3874, 45.5523
5.31964, 29, -28.2652, -17.5757, 36.2269, -151.679, -83.2551, 45.4351
5.32895, 29, -28.2433, -17.773, 36.3839, -151.561, -83.1224, 45.3189
5.33605, 29, -28.2215, -17.9702, 36.5408, -151.442, -82.9896, 45.2034
5.34386, 29, -28.2, -18.1676, 36.6986, -151.322, -82.8565, 45.0893
5.35287, 30, -28.1785, -18.3658, 36.8569, -151.202, -82.7234, 44.9762
5.35995, 30, -28.1568, -18.5644, 37.0152, -151.081, -82.5903, 44.8644
5.368, 30, -28.1352, -18.7629, 37.1732, -150.959, -82.4567, 44.7542
5.37695, 30, -28.1136, -18.9619, 37.3316, -150.837, -82.3234, 44.6454
5.38483, 30, -28.0918, -19.1619, 37.4905, -150.715, -82.1894, 44.5386
5.39201, 31, -28.0808, -19.262, 37.6494, -150.592, -82.0559, 44.4332
5.39998, 31, -28.0589, -19.4619, 37.7287, -150.53, -81.9891, 44.3812
5.40878, 31, -28.0262, -19.7618, 37.9668, -150.345, -81.7884, 44.2279
5.41546, 31, -28.0153, -19.8621, 38.0465, -150.283, -81.7216, 44.1777
5.42349, 31, -27.9932, -20.0624, 38.2062, -150.158, -81.5877, 44.0779
5.4314, 32, -27.9712, -20.2623, 38.3655, -150.032, -81.4539, 43.9805
5.43942, 32, -27.949, -20.4626, 38.5246, -149.907, -81.32, 43.8844
5.44744, 32, -27.9265, -20.6636, 38.684, -149.78, -81.1864, 43.7906
5.45718, 32, -27.8924, -20.9647, 38.9239, -149.59, -80.9853, 43.6535
5.4634, 32, -27.881, -21.0648, 39.0036, -149.526, -80.9184, 43.6092
5.47143, 33, -27.8579, -21.2654, 39.1627, -149.398, -80.7848, 43.5221
5.4795, 33, -27.8345, -21.466, 39.3217, -149.271, -80.6515, 43.4385
5.48741, 33, -27.8108, -21.6658, 39.481, -149.143, -80.5186, 43.3572
5.49697, 33, -27.7745, -21.9649, 39.7184, -148.951, -80.32, 43.2421
5.50891, 33, -27.7498, -22.1644, 39.8756, -148.823, -80.1879, 43.1337
5.51136, 34, -27.7373, -22.2639, 39.9542, -148.759, -80.1221, 43.1337
5.51952, 34, -27.7121, -22.4621, 40.1114, -148.631, -79.9909, 43.0661
5.52762, 34, -27.6864, -22.6599, 40.2683, -148.503, -79.8596, 43.0006
5.53621, 34, -27.6605, -22.8578, 40.4243, -148.374, -79.7287, 42.9388
5.54353, 34, -27.634, -23.055, 40.58, -148.246, -79.5975, 42.8804
5.55238, 35, -27.607, -23.2514, 40.7361, -148.117, -79.4667, 42.8246
5.55948, 35, -27.5799, -23.4478, 40.8918, -147.987, -79.3359, 42.7723
5.56741, 35, -27.5525, -23.6446, 41.0468, -147.858, -79.2055, 42.7242
5.57654, 35, -27.5246, -23.8406, 41.2012, -147.728, -79.0754, 42.6795
5.58357, 35, -27.4965, -24.0359, 41.3554, -147.598, -78.9454, 42.6382
5.59167, 36, -27.4678, -24.2311, 41.5095, -147.468, -78.8159, 42.6005
5.6002, 36, -27.4386, -24.4259, 41.6628, -147.338, -78.6863, 42.5674
5.60742, 36, -27.4092, -24.6195, 41.8152, -147.208, -78.5575, 42.5386
5.61541, 36, -27.3793, -24.8123, 41.9674, -147.078, -78.4288, 42.5142
5.62687, 36, -27.333, -25.1014, 42.195, -146.882, -78.2369, 42.4857
5.63157, 36, -27.3172, -25.1975, 42.2703, -146.817, -78.173, 42.4784
5.64041, 37, -27.285, -25.3887, 42.4202, -146.686, -78.0456, 42.467
5.64748, 37, -27.2521, -25.579, 42.5694, -146.557, -77.9187, 42.4604
5.65555, 37, -27.2185, -25.7688, 42.7179, -146.427, -77.7919, 42.4574
5.6635, 37, -27.1841, -25.9576, 42.8656, -146.298, -77.6656, 42.4573
5.67142, 37, -27.1488, -26.1447, 43.0121, -146.169, -77.5395, 42.4626
5.67941, 38, -27.1127, -26.3304, 43.1573, -146.041, -77.4143, 42.4743
5.68752, 38, -27.0758, -26.5157, 43.3017, -145.913, -77.2894, 42.4911
5.69541, 38, -27.0381, -26.6997, 43.4452, -145.786, -77.1651, 42.5137
5.70358, 38, -26.9995, -26.8821, 43.5877, -145.659, -77.0414, 42.542
5.71252, 38, -26.9601, -27.0637, 43.729, -145.532, -76.9181, 42.576
5.7195, 39, -26.92, -27.245, 43.8694, -145.406, -76.7954, 42.6165
5.72821, 39, -26.8791, -27.4253, 44.009, -145.28, -76.6725, 42.6626
5.74053, 39, -26.8161, -27.6931, 44.2169, -145.091, -76.489, 42.7421
5.74356, 39, -26.7947, -27.7821, 44.2858, -145.028, -76.4278, 42.7717
5.75229, 39, -26.7513, -27.9598, 44.4227, -144.903, -76.3055, 42.8361
5.75956, 40, -26.7071, -28.1366, 44.5586, -144.778, -76.1832, 42.9059
5.76758, 40, -26.6618, -28.3116, 44.6936, -144.653, -76.0611, 42.9826
5.77741, 40, -26.6154, -28.4853, 44.8273, -144.529, -75.9395, 43.0657
5.78417, 40, -26.5682, -28.6579, 44.9597, -144.406, -75.8179, 43.1548
5.7915, 40, -26.5197, -28.8292, 45.0906, -144.284, -75.6973, 43.2513
5.79947, 41, -26.4701, -28.9982, 45.2199, -144.162, -75.577, 43.3539
5.80918, 41, -26.4192, -29.1655, 45.3478, -144.042, -75.457, 43.4635
5.8156, 41, -26.3671, -29.3315, 45.4741, -143.923, -75.3379, 43.5797
5.82768, 41, -26.2865, -29.5779, 45.6605, -143.747, -75.1598, 43.7671
5.83261, 41, -26.2589, -29.659, 45.7217, -143.689, -75.1009, 43.8332
5.83975, 42, -26.2028, -29.8199, 45.8429, -143.573, -74.9832, 43.9707
5.84864, 42, -26.1452, -29.9793, 45.9624, -143.459, -74.8657, 44.1155
5.85601, 42, -26.0863, -30.137, 46.0801, -143.346, -74.7491, 44.2674
5.86484, 42, -26.0259, -30.2929, 46.196, -143.235, -74.6325, 44.4268
5.87197, 42, -25.9641, -30.4464, 46.3102, -143.125, -74.5166, 44.5934
5.88066, 42, -25.9007, -30.5978, 46.4224, -143.017, -74.4009, 44.7676
5.88897, 43, -25.8358, -30.7472, 46.5326, -142.911, -74.2857, 44.9498
5.89598, 43, -25.8028, -30.8212, 46.5869, -142.806, -74.1711, 45.1397
5.90543, 43, -25.7009, -31.0398, 46.7467, -142.704, -74.0565, 45.3373
5.91285, 43, -25.6662, -31.1824, 46.8507, -142.603, -73.9427, 45.5424
5.91946, 43, -25.5955, -31.2529, 46.902, -142.553, -73.8859, 45.6478
5.92744, 44, -25.523, -31.3923, 47.0028, -142.456, -73.7727, 45.8646
5.93541, 44, -25.4486, -31.5292, 47.1011, -142.361, -73.6602, 46.0893
5.94344, 44, -25.3722, -31.6638, 47.1969, -142.268, -73.548, 46.3222
5.95278, 44, -25.2542, -31.8606, 47.3359, -142.133, -73.3806, 46.6866
5.96085, 44, -25.214, -31.9883, 47.4256, -142.046, -73.2699, 46.9397
5.9674, 45, -25.132, -32.0512, 47.4695, -142.004, -73.2146, 47.0695
5.97827, 45, -25.0054, -32.2355, 47.5974, -141.882, -73.0502, 47.4717
5.98362, 45, -24.9621, -32.2955, 47.6386, -141.843, -72.9957, 47.6098
5.99137, 45, -24.874, -32.4133, 47.7188, -141.766, -72.8871, 47.8922
6.001, 45, -24.7376, -32.5842, 47.8333, -141.657, -72.7261, 48.3316
6.00747, 46, -24.691, -32.6395, 47.8699, -141.623, -72.6728, 48.4824
6.01706, 46, -24.5477, -32.8005, 47.9757, -141.524, -72.5141, 48.9474
6.02343, 46, -24.4987, -32.8526, 48.0094, -141.493, -72.4616, 49.1065
6.03519, 46, -24.3485, -33.0031, 48.1058, -141.406, -72.3054, 49.5972
6.03939, 46, -24.2972, -33.0515, 48.1362, -141.379, -72.2539, 49.765
6.04742, 47, -24.193, -33.1454, 48.1944, -141.327, -72.1517, 50.1064
6.05641, 47, -24.0863, -33.2352, 48.2491, -141.28, -72.0504, 50.4563
6.06346, 47, -23.977, -33.3209, 48.3, -141.236, -71.9502, 50.8148
6.0714, 47, -23.865, -33.4025, 48.3473, -141.198, -71.8512, 51.1813
6.07961, 47, -23.7503, -33.4798, 48.3906, -141.164, -71.7532, 51.5563
6.08844, 48, -23.6327, -33.5528, 48.43, -141.135, -71.6565, 51.9398
6.09551, 48, -23.5124, -33.6213, 48.4653, -141.11, -71.5616, 52.331
6.10341, 48, -23.3896, -33.6851, 48.4964, -141.089, -71.468, 52.7308
6.1115, 48, -23.2644, -33.7441, 48.5235, -141.074, -71.3762, 53.1393
6.1194, 48, -23.1364, -33.798, 48.5464, -141.064, -71.2866, 53.556
6.12758, 49, -23.0056, -33.8468, 48.5648, -141.059, -71.1987, 53.9812
6.1372, 49, -22.872, -33.8904, 48.5789, -141.058, -71.1125, 54.4136
6.14451, 49, -22.7353, -33.9286, 48.5883, -141.062, -71.0288, 54.8541
6.15442, 49, -22.5249, -33.9753, 48.5937, -141.08, -70.9069, 55.5295
6.15962, 49, -22.4534, -33.9881, 48.5932, -141.09, -70.8674, 55.7587
6.16937, 50, -22.3083, -34.0092, 48.5886, -141.113, -70.7902, 56.2236
6.17542, 50, -22.1606, -34.0241, 48.5787, -141.142, -70.7162, 56.6958
6.18343, 50, -22.0102, -34.0328, 48.5637, -141.177, -70.6449, 57.1766
6.1915, 50, -21.8569, -34.0355, 48.5435, -141.218, -70.5771, 57.6661
6.19941, 50, -21.7005, -34.0322, 48.5178, -141.266, -70.5121, 58.1632
6.20764, 51, -21.5411, -34.0223, 48.4865, -141.32, -70.4516, 58.6673
6.21542, 51, -21.3787, -34.0056, 48.4501, -141.38, -70.3935, 59.1771
6.22343, 51, -21.2138, -33.9821, 48.4083, -141.447, -70.3396, 59.6924
6.23161, 51, -21.0464, -33.9515, 48.361, -141.519, -70.2893, 60.2128
6.24431, 51, -20.7907, -33.8925, 48.2798, -141.639, -70.2201, 61.0027
6.24756, 51, -20.7041, -33.869, 48.2499, -141.682, -70.1993, 61.2682
6.25624, 52, -20.529, -33.8162, 48.1856, -141.773, -70.1613, 61.8046
6.26533, 52, -20.3511, -33.7554, 48.1152, -141.87, -70.1276, 62.3479
6.2715, 52, -20.1702, -33.6863, 48.0386, -141.974, -70.0985, 62.8987
6.28225, 52, -19.9866, -33.6089, 47.9555, -142.084, -70.0748, 63.4559
6.28773, 52, -19.8005, -33.5229, 47.8658, -142.201, -70.0567, 64.0208
6.2965, 53, -19.6121, -33.4281, 47.7695, -142.324, -70.0443, 64.5924
6.30346, 53, -19.4216, -33.3247, 47.6669, -142.454, -70.0376, 65.1704
6.31153, 53, -19.229, -33.2131, 47.558, -142.59, -70.0359, 65.7523
6.31959, 53, -19.0344, -33.0931, 47.4431, -142.732, -70.0396, 66.3388
6.32762, 53, -18.8382, -32.9646, 47.3221, -142.879, -70.0495, 66.9285
6.33614, 54, -18.64, -32.8275, 47.1951, -143.031, -70.0658, 67.5199
6.3439, 54, -18.44, -32.6821, 47.0624, -143.187, -70.0887, 68.1119
6.35179, 54, -18.2381, -32.5286, 46.9243, -143.348, -70.1183, 68.7051
6.36025, 54, -18.0347, -32.367, 46.7808, -143.513, -70.154, 69.2995
6.37057, 54, -17.8301, -32.1967, 46.6316, -143.683, -70.1959, 69.8946
6.37594, 55, -17.6248, -32.0174, 46.4766, -143.857, -70.2457, 70.4915
6.38499, 55, -17.4184, -31.8291, 46.3158, -144.035, -70.3028, 71.0918
6.3925, 55, -17.2106, -31.6319, 46.1489, -144.218, -70.3674, 71.6955
6.40002, 55, -17.1062, -31.5295, 45.9748, -144.406, -70.4409, 72.3024
6.40739, 55, -16.896, -31.317, 45.885, -144.501, -70.4804, 72.6074
6.41615, 56, -16.6843, -31.094, 45.7004, -144.696, -70.6133, 73.5292
6.42345, 56, -16.4711, -30.8611, 45.5094, -144.895, -70.662, 73.8384
6.43144, 56, -16.2567, -30.6174, 45.3108, -145.098, -70.7661, 74.4585
6.43953, 56, -16.0419, -30.3627, 45.1043, -145.306, -70.88, 75.0819
6.44736, 56, -15.8274, -30.0978, 44.8916, -145.517, -71.0032, 75.7082
6.45668, 57, -15.5045, -29.6797, 44.5595, -145.839, -71.2063, 76.6511
6.46339, 57, -15.3963, -29.5352, 44.4449, -145.948, -71.2788, 76.9659
6.4714, 57, -15.1789, -29.2384, 44.2114, -146.168, -71.4316, 77.5971
6.48154, 57, -14.8517, -28.7743, 43.8486, -146.501, -71.6791, 78.5451
6.48751, 57, -14.7427, -28.6153, 43.7247, -146.613, -71.7666, 78.8603
6.49566, 58, -14.5252, -28.2909, 43.4739, -146.837, -71.9481, 79.4895
6.50348, 58, -14.3086, -27.9592, 43.2182, -147.061, -72.1378, 80.116
6.51139, 58, -14.0932, -27.6195, 42.9591, -147.284, -72.3352, 80.7373
6.52178, 58, -13.8795, -27.2726, 42.5652, -147.616, -72.6447, 81.6567
6.52749, 58, -13.667, -26.9186, 42.4324, -147.725, -72.7513, 81.9601
6.53739, 58, -13.4559, -26.5583, 42.1652, -148.05, -73.081, 82.8607
6.54339, 59, -13.2463, -26.1912, 41.8945, -148.158, -73.1945, 83.1577
6.55239, 59, -13.0384, -25.8176, 41.6204, -148.371, -73.4271, 83.7481
6.55974, 59, -12.8323, -25.4372, 41.3429, -148.582, -73.6678, 84.3344
6.56817, 59, -12.6274, -25.0504, 41.0615, -148.792, -73.9165, 84.9172
6.57545, 59, -12.4235, -24.6561, 40.7766, -149, -74.1739, 85.4956
6.5835, 60, -12.2207, -24.2549, 40.4873, -149.206, -74.4399, 86.0703
6.59141, 60, -12.0193, -23.8465, 40.1947, -149.41, -74.7145, 86.6415
6.59942, 60, -11.8193, -23.4316, 39.8986, -149.612, -74.9973, 87.209
6.61142, 60, -11.5228, -22.7975, 39.4506, -149.91, -75.4363, 88.0498
6.61553, 60, -11.4251, -22.5834, 39.3001, -150.007, -75.5861, 88.3276
6.62441, 61, -11.2314, -22.1523, 38.9981, -150.199, -75.8908, 88.8786
6.63242, 61, -11.0399, -21.7164, 38.6948, -150.387, -76.201, 89.422
6.63954, 61, -10.8505, -21.2768, 38.3903, -150.57, -76.5163, 89.9565
6.64744, 61, -10.6633, -20.833, 38.0857, -150.749, -76.8367, 90.4826
6.65538, 61, -10.4783, -20.3855, 37.78, -150.923, -77.1616, 91.0001
6.66338, 62, -10.2957, -19.9341, 37.4743, -151.092, -77.4914, 91.5095
6.67149, 62, -10.1159, -19.4789, 37.1674, -151.256, -77.8265, 92.0109
6.67939, 62, -9.93885, -19.0208, 36.8602, -151.416, -78.1668, 92.5042
6.68759, 62, -9.76443, -18.5596, 36.5517, -151.571, -78.513, 92.991
6.69639, 62, -9.59239, -18.0961, 36.2429, -151.722, -78.8643, 93.4702
6.70342, 63, -9.42247, -17.6309, 35.934, -151.869, -79.2205, 93.9416
6.71143, 63, -9.25477, -17.164, 35.626, -152.01, -79.5813, 94.4037
6.71938, 63, -9.08939, -16.6958, 35.3194, -152.146, -79.9454, 94.8561
6.72762, 63, -8.92664, -16.2261, 35.0139, -152.276, -80.3126, 95.2987
6.73676, 63, -8.76655, -15.7551, 34.7101, -152.401, -80.682, 95.73
6.7469, 64, -8.60916, -15.0471, 34.2586, -152.578, -81.2394, 96.3569
6.7524, 64, -8.45442, -14.8112, 34.1094, -152.634, -81.426, 96.56
6.7595, 64, -8.30235, -14.339, 33.812, -152.742, -81.8003, 96.9573
6.76839, 64, -8.15268, -13.8674, 33.5167, -152.844, -82.1764, 97.3439
6.77549, 64, -8.00557, -13.3967, 33.223, -152.941, -82.5539, 97.7183
6.7834, 64, -7.861, -12.9275, 32.9319, -153.033, -82.933, 98.0808
6.7924, 65, -7.71909, -12.4605, 32.6434, -153.119, -83.3129, 98.431
6.79943, 65, -7.57995, -11.9949, 32.3578, -153.199, -83.6937, 98.7681
6.8084, 65, -7.44396, -11.531, 32.0761, -153.273, -84.0747, 99.0916
6.8159, 65, -7.31067, -11.0683, 31.7974, -153.342, -84.456, 99.4019
6.82557, 66, -7.18028, -10.6073, 31.5226, -153.404, -84.8375, 99.6983
6.83242, 66, -7.05228, -10.1488, 31.2506, -153.462, -85.2186, 99.9802
6.83974, 66, -6.92628, -9.69331, 30.9821, -153.513, -85.6, 100.247
6.84784, 66, -6.80236, -9.24235, 30.7177, -153.559, -85.9809, 100.499
6.85581, 66, -6.68068, -8.79676, 30.4564, -153.6, -86.3606, 100.735
6.86473, 66, -6.56134, -8.35616, 30.1997, -153.635, -86.7383, 100.954
6.87238, 67, -6.44455, -7.92135, 29.9479, -153.665, -87.1124, 101.156
6.87997, 67, -6.33061, -7.49213, 29.7019, -153.689, -87.4825, 101.341
6.88914, 67, -6.21935, -7.06879, 29.4631, -153.707, -87.8475, 101.508
6.89598, 67, -6.1647, -6.65062, 29.2302, -153.719, -88.2073, 101.657
6.90453, 67, -6.00442, -6.23857, 29.0036, -153.727, -88.562, 101.788
6.91134, 68, -5.9521, -6.03493, 28.8929, -153.729, -88.7377, 101.847
6.92022, 68, -5.84889, -5.63267, 28.6751, -153.73, -89.2597, 101.998
6.92746, 68, -5.74748, -5.23605, 28.4612, -153.726, -89.4324, 102.04
6.9354, 68, -5.64782, -4.84569, 28.2516, -153.718, -89.7763, 102.109
6.9435, 68, -5.54986, -4.46146, 28.046, -153.705, -90.1188, 102.16
6.95142, 69, -5.45362, -4.08306, 27.8437, -153.688, -90.4592, 102.193
6.95938, 69, -5.35927, -3.70902, 27.6461, -153.666, -90.7977, 102.209
6.96744, 69, -5.26671, -3.33944, 27.4536, -153.64, -91.1335, 102.208
6.97537, 69, -5.17598, -2.97364, 27.265, -153.609, -91.4669, 102.186
6.98487, 69, -5.04312, -2.43156, 26.9894, -153.556, -91.9622, 102.115
6.99336, 70, -4.95654, -2.07413, 26.811, -153.516, -92.2904, 102.04
6.99939, 70, -4.91365, -1.8968, 26.7229, -153.495, -92.4542, 101.995
7.00893, 70, -4.7866, -1.3716, 26.4626, -153.424, -92.9456, 101.825
7.01773, 70, -4.70306, -1.02768, 26.2934, -153.374, -93.2735, 101.683
7.02338, 70, -4.66167, -0.857429, 26.21, -153.347, -93.4375, 101.603
7.03234, 71, -4.57971, -0.521463, 26.0456, -153.292, -93.7646, 101.426
7.04038, 71, -4.4988, -0.190881, 25.8845, -153.234, -94.0901, 101.228
7.04754, 71, -4.41895, 0.13359, 25.7283, -153.173, -94.4131, 101.007
7.05537, 71, -4.33995, 0.452664, 25.5776, -153.109, -94.7322, 100.766
7.06685, 71, -4.2233, 0.921131, 25.3609, -153.01, -95.2032, 100.365
7.07152, 71, -4.18488, 1.07395, 25.291, -152.976, -95.358, 100.221
7.07938, 72, -4.10835, 1.37486, 25.1545, -152.907, -95.6649, 99.9192
7.08738, 72, -4.03198, 1.66824, 25.0222, -152.836, -95.9684, 99.5967
7.09538, 72, -3.95576, 1.9546, 24.8932, -152.764, -96.2692, 99.2532
7.10338, 72, -3.87959, 2.23437, 24.7675, -152.691, -96.5672, 98.8894
7.11137, 72, -3.80337, 2.50678, 24.6449, -152.618, -96.8625, 98.5045
7.11962, 73, -3.72729, 2.77279, 24.5257, -152.544, -97.1547, 98.0985
7.12761, 73, -3.65115, 3.03213, 24.4101, -152.471, -97.4434, 97.6719
7.13537, 73, -3.57485, 3.28446, 24.2985, -152.397, -97.7284, 97.2246
7.14353, 73, -3.4984, 3.53048, 24.1911, -152.324, -98.0092, 96.7583
7.15317, 73, -3.42163, 3.76947, 24.0879, -152.253, -98.2857, 96.2728
7.15936, 74, -3.34413, 4.00014, 23.9888, -152.182, -98.5577, 95.7689
7.16846, 74, -3.26597, 4.2226, 23.8935, -152.112, -98.8247, 95.248
7.17636, 74, -3.18709, 4.43653, 23.802, -152.045, -99.0867, 94.7111
7.18348, 74, -3.10746, 4.64076, 23.7144, -151.979, -99.3432, 94.1602
7.19237, 74, -3.02717, 4.83545, 23.6309, -151.915, -99.5934, 93.5957
7.20054, 75, -2.94597, 5.02108, 23.5515, -151.854, -99.8364, 93.0196
7.20745, 75, -2.86372, 5.19692, 23.4761, -151.797, -100.071, 92.4336
7.22029, 75, -2.73852, 5.44064, 23.3703, -151.714, -100.408, 91.5389
7.22352, 75, -2.6963, 5.51672, 23.337, -151.689, -100.515, 91.2366
7.23163, 75, -2.61119, 5.66093, 23.2735, -151.64, -100.724, 90.6266
7.23945, 76, -2.52511, 5.7939, 23.2142, -151.594, -100.922, 90.0098
7.24748, 76, -2.4381, 5.91537, 23.1593, -151.553, -101.112, 89.3852
7.25547, 76, -2.35023, 6.02502, 23.1089, -151.516, -101.291, 88.752
7.26399, 76, -2.26162, 6.12242, 23.0628, -151.482, -101.461, 88.1119
7.27263, 76, -2.17216, 6.20729, 23.0213, -151.451, -101.62, 87.4658
7.28038, 77, -2.08184, 6.27917, 22.9848, -151.425, -101.768, 86.8144
7.28807, 77, -1.9906, 6.33788, 22.9535, -151.404, -101.903, 86.1613
7.29637, 77, -1.89849, 6.3831, 22.9278, -151.386, -102.025, 85.5093
7.30431, 77, -1.8055, 6.41405, 22.9077, -151.372, -102.133, 84.8588
7.31154, 77, -1.71172, 6.43079, 22.8936, -151.362, -102.225, 84.2111
7.32062, 78, -1.61717, 6.43307, 22.8854, -151.356, -102.303, 83.5677
7.32853, 78, -1.5219, 6.42013, 22.8827, -151.353, -102.365, 82.9282
7.3357, 78, -1.42588, 6.39187, 22.8857, -151.352, -102.412, 82.2918
7.34786, 78, -1.28116, 6.31977, 22.9019, -151.358, -102.452, 81.3468
7.35199, 78, -1.23274, 6.28757, 22.9104, -151.362, -102.458, 81.0346
7.35995, 78, -1.13571, 6.21088, 22.9325, -151.372, -102.457, 80.4142
7.36878, 79, -1.0386, 6.11779, 22.9617, -151.386, -102.438, 79.8003
7.37595, 79, -0.941389, 6.00843, 22.9984, -151.402, -102.4, 79.1944
7.38484, 79, -0.844324, 5.88283, 23.0425, -151.421, -102.346, 78.5979
7.39191, 79, -0.747276, 5.7406, 23.0943, -151.443, -102.273, 78.0104
7.40047, 79, -0.650236, 5.58201, 23.1537, -151.468, -102.183, 77.4332
7.4089, 80, -0.601691, 5.49655, 23.1861, -151.481, -102.131, 76.8678
7.41637, 80, -0.456098, 5.21561, 23.2952, -151.523, -101.946, 76.3141
7.42513, 80, -0.407574, 5.11378, 23.3356, -151.537, -101.875, 76.0414
7.43897, 80, -0.213903, 4.66291, 23.5171, -151.599, -101.546, 74.9781
7.44127, 80, -0.165577, 4.53902, 23.5678, -151.615, -101.452, 74.7193
7.44749, 81, -0.117269, 4.41103, 23.6206, -151.632, -101.354, 74.4633
7.45699, 81, -0.0209232, 4.14301, 23.7921, -151.683, -101.029, 73.7087
7.46475, 81, 0.123219, 3.71, 23.918, -151.718, -100.79, 73.2175
7.47383, 81, 0.219013, 3.40129, 24.0533, -151.754, -100.531, 72.7358
7.47956, 81, 0.266787, 3.24046, 24.1246, -151.773, -100.395, 72.4986
7.48944, 82, 0.409998, 2.7333, 24.3527, -151.827, -99.9579, 71.8017
7.49536, 82, 0.457615, 2.55598, 24.4331, -151.846, -99.803, 71.5742
7.50548, 82, 0.600268, 2.00036, 24.6882, -151.901, -99.3111, 70.9069
7.51137, 82, 0.647723, 1.80693, 24.778, -151.919, -99.1384, 70.6893
7.52095, 82, 0.789926, 1.20162, 25.0613, -151.972, -98.594, 70.0516
7.53054, 83, 0.884627, 0.777958, 25.2619, -152.007, -98.2099, 69.6382
7.53544, 83, 0.931946, 0.56054, 25.3661, -152.025, -98.0114, 69.4347
7.54516, 83, 1.02661, 0.114198, 25.5829, -152.076, -97.391, 68.8379
7.55495, 83, 1.1687, -0.583785, 25.9259, -152.108, -96.9565, 68.4504
7.55949, 83, 1.21613, -0.823923, 26.0452, -152.123, -96.733, 68.2596
7.56736, 84, 1.31112, -1.31582, 26.2923, -152.154, -96.2738, 67.8846
7.57543, 84, 1.40646, -1.82208, 26.5495, -152.184, -95.7981, 67.5172
7.58335, 84, 1.50197, -2.342, 26.8176, -152.213, -95.3064, 67.1568
7.59136, 84, 1.59777, -2.87599, 27.0961, -152.239, -94.7984, 66.8043
7.59943, 84, 1.69382, -3.42352, 27.3849, -152.263, -94.2751, 66.4589
7.60752, 84, 1.79039, -3.98453, 27.6843, -152.286, -93.7369, 66.1208
7.61636, 85, 1.88731, -4.55818, 27.993, -152.307, -93.1841, 65.7912
7.62441, 85, 1.98461, -5.14274, 28.3116, -152.327, -92.6173, 65.4703
7.63537, 85, 2.13145, -6.038, 28.8058, -152.351, -91.7465, 65.0049
7.6395, 85, 2.18071, -6.34059, 28.9748, -152.358, -91.4514, 64.8543
7.64853, 86, 2.27973, -6.95106, 29.3188, -152.369, -90.854, 64.5606
7.65544, 86, 2.37937, -7.56819, 29.6704, -152.378, -90.2474, 64.2771
7.66357, 86, 2.4799, -8.19091, 30.0288, -152.383, -89.6324, 64.0042
7.67239, 86, 2.58137, -8.81944, 30.3934, -152.386, -89.0099, 63.7423
7.68036, 86, 2.68359, -9.45345, 30.7634, -152.387, -88.3832, 63.4922
7.68741, 86, 2.7869, -10.0918, 31.1388, -152.384, -87.7523, 63.2537
7.69536, 87, 2.89126, -10.7342, 31.52, -152.378, -87.1156, 63.0267
7.70339, 87, 2.99622, -11.3796, 31.9057, -152.368, -86.4731, 62.8117
7.71136, 87, 3.1022, -12.028, 32.2966, -152.354, -85.8251, 62.6087
7.71943, 87, 3.20889, -12.6787, 32.6926, -152.336, -85.1725, 62.4183
7.72736, 87, 3.31616, -13.3322, 33.0941, -152.315, -84.5159, 62.2403
7.7354, 88, 3.42413, -13.9882, 33.501, -152.289, -83.8536, 62.0751
7.7435, 88, 3.53265, -14.6467, 33.9124, -152.26, -83.186, 61.9234
7.75144, 88, 3.64178, -15.3066, 34.3289, -152.227, -82.5138, 61.7853
7.76473, 88, 3.80639, -16.2962, 34.9614, -152.167, -81.4992, 61.6061
7.76851, 88, 3.86141, -16.6255, 35.1738, -152.145, -81.1602, 61.5539
7.77547, 89, 3.97171, -17.2823, 35.601, -152.098, -80.4815, 61.4627
7.78341, 89, 4.08232, -17.9362, 36.0294, -152.045, -79.8026, 61.3894
7.79588, 89, 4.19322, -18.5867, 36.4582, -151.987, -79.1233, 61.3343
7.79974, 89, 4.30466, -19.2338, 36.8873, -151.925, -78.4444, 61.2987
7.80843, 89, 4.41636, -19.8764, 37.3154, -151.856, -77.7701, 61.2827
7.81547, 90, 4.52839, -20.5141, 37.7422, -151.783, -77.0994, 61.2871
7.82357, 90, 4.64104, -21.1477, 38.1689, -151.703, -76.4297, 61.3153
7.83155, 90, 4.75367, -21.7769, 38.5951, -151.619, -75.7611, 61.3669
7.83976, 90, 4.86602, -22.402, 39.0211, -151.528, -75.0941, 61.4419
7.84813, 90, 4.97795, -23.0233, 39.4475, -151.432, -74.4296, 61.5433
7.85617, 91, 5.08954, -23.6418, 39.8741, -151.329, -73.7653, 61.671
7.86391, 91, 5.20094, -24.2566, 40.3011, -151.219, -73.1001, 61.8269
7.87249, 91, 5.31175, -24.8665, 40.7283, -151.102, -72.4345, 62.0119
7.88073, 91, 5.42191, -25.4717, 41.1549, -150.978, -71.7675, 62.2269
7.88798, 91, 5.53142, -26.0703, 41.5806, -150.848, -71.1008, 62.4724
7.89729, 92, 5.64053, -26.6613, 42.0046, -150.711, -70.4368, 62.7497
7.90392, 92, 5.6951, -26.9538, 42.2157, -150.568, -69.7748, 63.0586
7.91235, 92, 5.85963, -27.8177, 42.8427, -150.42, -69.1158, 63.3986
7.91934, 92, 5.91476, -28.1009, 43.049, -150.344, -68.7879, 63.5802
7.92734, 92, 6.02558, -28.6596, 43.4573, -150.189, -68.1352, 63.9675
7.93543, 92, 6.13754, -29.2069, 43.8589, -150.031, -67.4892, 64.3854
7.94334, 93, 6.25084, -29.7419, 44.2533, -149.87, -66.8509, 64.8347
7.95308, 93, 6.4244, -30.5227, 44.8313, -149.626, -65.9041, 65.5668
7.9607, 93, 6.54297, -31.0309, 45.2086, -149.462, -65.2786, 66.0946
7.96734, 93, 6.60304, -31.2821, 45.3952, -149.38, -64.9672, 66.3712
7.97753, 93, 6.78682, -32.0266, 45.9471, -149.134, -64.0358, 67.257
7.98336, 94, 6.84925, -32.2722, 46.1295, -149.052, -63.7249, 67.5728
7.99135, 94, 6.97587, -32.7597, 46.4922, -148.887, -63.0994, 68.2393
7.99936, 94, 7.1045, -33.2415, 46.8536, -148.722, -62.4678, 68.9574
8.00737, 94, 7.23508, -33.716, 47.213, -148.558, -61.8295, 69.7277
8.01691, 94, 7.43679, -34.414, 47.746, -148.319, -60.8608, 70.9807
8.02493, 95, 7.57654, -34.8684, 48.0934, -148.168, -60.214, 71.8819
8.033, 95, 7.6484, -35.092, 48.4313, -148.027, -59.5705, 72.8243
8.03938, 95, 7.79655, -35.5309, 48.5961, -147.961, -59.2508, 73.3111
8.04833, 95, 7.95119, -35.957, 48.9167, -147.84, -58.6165, 74.3137
8.05636, 95, 8.11272, -36.3663, 49.2222, -147.735, -57.9903, 75.3495
8.06338, 96, 8.28107, -36.7562, 49.5124, -147.649, -57.3738, 76.4198
8.07134, 96, 8.45614, -37.1254, 49.786, -147.58, -56.771, 77.5211
8.07934, 96, 8.63698, -37.4717, 50.043, -147.533, -56.1815, 78.6537
8.08741, 96, 8.82276, -37.7933, 50.2833, -147.506, -55.606, 79.8111
8.09535, 96, 9.01298, -38.0889, 50.5043, -147.499, -55.0469, 80.9878
8.10341, 96, 9.20616, -38.3596, 50.7059, -147.513, -54.508, 82.176
8.11133, 97, 9.40084, -38.6052, 50.888, -147.549, -53.9923, 83.3732
8.11933, 97, 9.59585, -38.8258, 51.0493, -147.606, -53.5027, 84.5718
8.12742, 97, 9.79039, -39.0225, 51.1901, -147.683, -53.0406, 85.7617
8.13535, 97, 9.9837, -39.1947, 51.3114, -147.777, -52.6082, 86.9364
8.14334, 97, 10.1746, -39.3407, 51.4131, -147.886, -52.2057, 88.0899
8.15133, 97, 10.362, -39.461, 51.4959, -148.008, -51.8333, 89.219
8.1593, 98, 10.5462, -39.5559, 51.5607, -148.142, -51.4907, 90.3174
8.16742, 98, 10.7282, -39.6266, 51.6076, -148.285, -51.1772, 91.3871
8.17539, 98, 10.9083, -39.6745, 51.6373, -148.439, -50.8905, 92.4355
8.18345, 98, 11.0872, -39.6995, 51.6496, -148.605, -50.628, 93.4749
8.19139, 98, 11.264, -39.7013, 51.6453, -148.782, -50.3865, 94.5175
8.19943, 98, 11.4398, -39.6797, 51.6237, -148.973, -50.1644, 95.5727
8.20745, 98, 11.6156, -39.6343, 51.5842, -149.177, -49.9621, 96.647
8.21535, 99, 11.7908, -39.5654, 51.5269, -149.394, -49.7808, 97.7398
8.22368, 99, 11.9643, -39.4738, 51.451, -149.621, -49.6231, 98.8473
8.23241, 99, 12.1349, -39.3597, 51.3565, -149.858, -49.4924, 99.9578
8.2394, 99, 12.3018, -39.2231, 51.244, -150.1, -49.3911, 101.062
8.24863, 99, 12.4634, -39.0643, 51.1141, -150.343, -49.3208, 102.15
8.25543, 99, 12.6179, -38.8835, 50.9682, -150.586, -49.2809, 103.213
8.26365, 100, 12.764, -38.6789, 50.8069, -150.825, -49.2721, 104.244
8.27147, 100, 12.9015, -38.4497, 50.629, -151.059, -49.2947, 105.248
8.28036, 100, 13.03, -38.1974, 50.434, -151.288, -49.3486, 106.223
8.28739, 100, 13.15, -37.9223, 50.2226, -151.512, -49.4334, 107.174
8.29613, 100, 13.262, -37.626, 49.9933, -151.729, -49.5496, 108.103
8.30399, 100, 13.366, -37.3062, 49.745, -151.94, -49.697, 109.013
8.31244, 101, 13.4619, -36.9617, 49.4792, -152.144, -49.8754, 109.903
8.31942, 101, 13.55, -36.5912, 49.1951, -152.34, -50.0847, 110.771
8.32788, 101, 13.6302, -36.1943, 48.8932, -152.527, -50.325, 111.621
8.33641, 101, 13.7022, -35.7714, 48.5723, -152.705, -50.5967, 112.447
8.34363, 101, 13.7657, -35.3244, 48.2334, -152.873, -50.9006, 113.252
8.35715, 101, 13.8442, -34.6105, 47.6916, -153.103, -51.4181, 114.417
8.35981, 102, 13.8657, -34.3607, 47.5024, -153.174, -51.6073, 114.793
8.36777, 102, 13.9013, -33.8427, 47.1113, -153.306, -52.0099, 115.526
8.37644, 102, 13.927, -33.3002, 46.7042, -153.424, -52.4451, 116.233
8.38476, 102, 13.9436, -32.7347, 46.2824, -153.529, -52.9124, 116.912
8.39192, 102, 13.9516, -32.1475, 45.8465, -153.619, -53.4091, 117.566
8.40041, 103, 13.9521, -31.539, 45.3963, -153.695, -53.9338, 118.193
8.40872, 103, 13.9496, -31.2274, 45.1662, -153.758, -54.4843, 118.792
8.41583, 103, 13.9397, -30.5907, 44.6968, -153.785, -54.7686, 119.082
8.42441, 103, 13.9137, -29.6056, 43.9719, -153.844, -55.6536, 119.917
8.43133, 103, 13.9022, -29.2698, 43.7258, -153.857, -55.9585, 120.182
8.43934, 103, 13.8756, -28.5883, 43.2279, -153.876, -56.5812, 120.693
8.44846, 104, 13.8273, -27.5464, 42.4708, -153.884, -57.5402, 121.41
8.45533, 104, 13.8092, -27.1949, 42.2168, -153.881, -57.8659, 121.637
8.46333, 104, 13.7701, -26.4866, 41.7068, -153.868, -58.5275, 122.074
8.47279, 104, 13.7052, -25.4134, 40.9394, -153.832, -59.5406, 122.69
8.47932, 104, 13.6825, -25.0544, 40.6837, -153.816, -59.8826, 122.886
8.48739, 104, 13.6358, -24.3348, 40.1724, -153.778, -60.5712, 123.267
8.49765, 104, 13.5627, -23.2519, 39.4067, -153.708, -61.6136, 123.817
8.50339, 104, 13.5377, -22.8904, 39.1523, -153.683, -61.9633, 123.996
8.51294, 104, 13.4614, -21.8055, 38.3912, -153.597, -63.0158, 124.528
8.51935, 104, 13.4357, -21.4437, 38.1382, -153.566, -63.3677, 124.703
8.52741, 104, 13.3839, -20.7207, 37.6333, -153.502, -64.0716, 125.053
8.53692, 104, 13.3318, -19.9977, 37.1298, -153.397, -65.1283, 125.575
8.54588, 104, 13.2796, -19.2745, 36.6286, -153.36, -65.4815, 125.748
8.55138, 104, 13.2273, -18.5508, 36.1289, -153.283, -66.1886, 126.094
8.56037, 104, 13.1751, -17.827, 35.6316, -153.203, -66.8965, 126.439
8.56831, 104, 13.1232, -17.1029, 35.1369, -153.118, -67.6045, 126.784
8.57535, 104, 13.0715, -16.3786, 34.6439, -153.03, -68.3117, 127.128
8.58439, 104, 13.0202, -15.6542, 34.1531, -152.937, -69.021, 127.472
8.59136, 104, 12.9693, -14.9293, 33.6646, -152.84, -69.7317, 127.815
8.59934, 104, 12.9186, -14.2038, 33.1784, -152.74, -70.4428, 128.158
8.60734, 104, 12.8684, -13.4785, 32.6949, -152.636, -71.1525, 128.502
8.61536, 104, 12.8186, -12.7525, 32.2141, -152.528, -71.8631, 128.846
8.62335, 104, 12.7689, -12.0267, 31.7359, -152.417, -72.5756, 129.19
8.63133, 104, 12.7195, -11.3014, 31.26, -152.301, -73.2881, 129.535
8.63937, 104, 12.6707, -10.5759, 30.7866, -152.181, -74.001, 129.881
8.64737, 104, 12.622, -9.85032, 30.3164, -152.058, -74.7137, 130.226
8.65533, 104, 12.5736, -9.12463, 29.8492, -151.93, -75.4266, 130.573
8.66337, 104, 12.5259, -8.39877, 29.3852, -151.798, -76.1408, 130.921
8.67137, 104, 12.4787, -7.67283, 28.9246, -151.662, -76.8555, 131.27
8.67936, 104, 12.432, -6.94743, 28.467, -151.522, -77.5712, 131.62
8.6874, 104, 12.386, -6.22231, 28.0125, -151.378, -78.2859, 131.972
8.69537, 104, 12.3405, -5.49779, 27.5618, -151.23, -78.9993, 132.324
8.70333, 104, 12.2955, -4.7744, 27.1148, -151.078, -79.714, 132.677
8.7114, 104, 12.2516, -4.05231, 26.6723, -150.921, -80.4294, 133.033
8.71935, 104, 12.2087, -3.33307, 26.235, -150.761, -81.1432, 133.388
8.72733, 104, 12.1668, -2.61928, 25.8028, -150.597, -81.8527, 133.744
8.73541, 104, 12.1263, -1.91174, 25.3768, -150.429, -82.5585, 134.101
8.74339, 104, 12.0869, -1.21167, 24.9586, -150.259, -83.2602, 134.456
8.75173, 104, 12.0484, -0.520535, 24.5488, -150.086, -83.9538, 134.808
8.75942, 104, 12.0109, 0.160454, 24.149, -149.911, -84.6368, 135.158
8.76745, 104, 11.9745, 0.830568, 23.7604, -149.735, -85.3066, 135.504
8.77549, 104, 11.9391, 1.48764, 23.3843, -149.559, -85.9618, 135.844
8.78344, 104, 11.9049, 2.13148, 23.0206, -149.383, -86.6034, 136.179
8.79133, 104, 11.8719, 2.75965, 22.6692, -149.208, -87.2291, 136.507
8.79946, 104, 11.8398, 3.37186, 22.3306, -149.033, -87.8386, 136.828
8.80736, 104, 11.8093, 3.96764, 22.0051, -148.859, -88.4318, 137.142
8.81606, 104, 11.7799, 4.54645, 21.6922, -148.687, -89.007, 137.45
8.82437, 104, 11.7518, 5.10883, 21.3914, -148.516, -89.5654, 137.751
8.83234, 104, 11.7251, 5.65414, 21.1019, -148.347, -90.1085, 138.045
8.83959, 104, 11.6993, 6.18208, 20.8248, -148.18, -90.6351, 138.332
8.84834, 104, 11.6747, 6.69354, 20.5591, -148.015, -91.1455, 138.612
8.85574, 104, 11.6514, 7.188, 20.3052, -147.853, -91.6391, 138.884
8.86377, 104, 11.6292, 7.66541, 20.0629, -147.694, -92.1152, 139.148
8.87245, 104, 11.6081, 8.12673, 19.8308, -147.537, -92.575, 139.405
8.87988, 104, 11.5882, 8.57109, 19.6101, -147.384, -93.0179, 139.654
8.88844, 104, 11.5695, 8.99794, 19.4002, -147.234, -93.4445, 139.895
8.89596, 104, 11.5518, 9.40766, 19.2002, -147.088, -93.854, 140.128
8.90458, 104, 11.5353, 9.79961, 19.0108, -146.947, -94.2466, 140.353
8.91194, 104, 11.5273, 9.98886, 18.8324, -146.809, -94.6213, 140.568
8.92128, 104, 11.5052, 10.5281, 18.6642, -146.677, -94.9779, 140.774
8.9273, 104, 11.4984, 10.6983, 18.5838, -146.613, -95.1491, 140.873
8.93534, 104, 11.4854, 11.0244, 18.4314, -146.49, -95.4768, 141.064
8.94451, 104, 11.4679, 11.4752, 18.2232, -146.316, -95.9305, 141.329
8.95131, 104, 11.4627, 11.6152, 18.159, -146.261, -96.0713, 141.412
8.95937, 104, 11.4529, 11.8795, 18.0385, -146.158, -96.3371, 141.568
8.96733, 104, 11.4438, 12.1222, 17.9288, -146.062, -96.5812, 141.712
8.97532, 104, 11.4355, 12.344, 17.8295, -145.974, -96.8034, 141.844
8.98336, 104, 11.428, 12.5451, 17.7406, -145.895, -97.0035, 141.963
8.99133, 104, 11.4213, 12.7248, 17.6621, -145.823, -97.1816, 142.07
9.00093, 104, 11.4125, 12.9555, 17.5631, -145.732, -97.4076, 142.205
9.00735, 104, 11.4099, 13.0226, 17.5349, -145.706, -97.472, 142.244
9.01692, 104, 11.4026, 13.1953, 17.4643, -145.64, -97.634, 142.34
9.02537, 104, 11.3983, 13.2878, 17.428, -145.607, -97.7171, 142.39
9.03135, 104, 11.3963, 13.3277, 17.4127, -145.592, -97.7521, 142.411
9.04095, 104, 11.3925, 13.3966, 17.3877, -145.559, -97.8314, 142.46
9.04931, 104, 11.3876, 13.4753, 17.362, -145.544, -97.8669, 142.481
9.05542, 104, 11.3862, 13.4956, 17.356, -145.538, -97.8804, 142.489
9.06441, 104, 11.3838, 13.5284, 17.3471, -145.53, -97.9008, 142.501
9.07131, 104, 11.3819, 13.5528, 17.3416, -145.524, -97.9138, 142.508
9.07934, 104, 11.3804, 13.5707, 17.3382, -145.521, -97.9214, 142.512
9.08733, 104, 11.3792, 13.5829, 17.3364, -145.52, -97.9254, 142.514
9.09531, 104, 11.3783, 13.5911, 17.3354, -145.519, -97.9273, 142.515
9.10336, 105, 11.3777, 13.5966, 17.335, -145.519, -97.9282, 142.515
9.11133, 105, 11.3773, 13.6001, 17.3348, -145.518, -97.9286, 142.516
9.11931, 105, 11.3769, 13.6026, 17.3347, -145.518, -97.9288, 142.516
9.12736, 105, 11.3766, 13.6047, 17.3347, -145.518, -97.9289, 142.516
9.13532, 105, 11.3764, 13.6064, 17.3347, -145.518, -97.9289, 142.516
9.14332, 105, 11.3763, 13.6079, 17.3347, -145.518, -97.9289, 142.516
9.15135, 105, 11.3761, 13.6093, 17.3347, -145.518, -97.9288, 142.516
9.15934, 105, 11.376, 13.6104, 17.3347, -145.518, -97.9287, 142.516
9.16731, 105, 11.376, 13.6114, 17.3347, -145.518, -97.9286, 142.516
9.17537, 105, 11.3759, 13.6122, 17.3347, -145.518, -97.9285, 142.516
9.1834, 105, 11.3759, 13.6127, 17.3347, -145.518, -97.9283, 142.516
9.19133, 105, 11.3759, 13.6131, 17.3347, -145.518, -97.9281, 142.516
9.19934, 105, 11.3759, 13.6134, 17.3348, -145.519, -97.928, 142.516
9.20733, 105, 11.3758, 13.6135, 17.3348, -145.519, -97.9279, 142.516
9.21536, 105, 11.3758, 13.6135, 17.3349, -145.519, -97.9277, 142.516
