hehonglu123/Motion-Primitive-Planning/ILC/recorded_data/realrobot/wood/iteration_10/run_2.csv
timestamp, cmd_num, J1, J2, J3, J4, J5, J6
0.001419, -1, 11.3756, 13.6141, 17.3366, -145.52, -97.9256, 142.516
0.00601, -1, 11.3756, 13.6141, 17.3366, -145.52, -97.9256, 142.516
0.007936, -1, 11.3756, 13.6141, 17.3366, -145.52, -97.9256, 142.516
0.031394, -1, 11.3757, 13.6141, 17.3366, -145.521, -97.9256, 142.516
0.032648, -1, 11.3757, 13.6141, 17.3366, -145.521, -97.9256, 142.516
0.036347, -1, 11.3757, 13.6141, 17.3366, -145.52, -97.9256, 142.516
0.040362, -1, 11.3757, 13.6141, 17.3366, -145.52, -97.9257, 142.516
0.047386, -1, 11.3756, 13.6141, 17.3366, -145.521, -97.9256, 142.516
0.055466, -1, 11.375, 13.6141, 17.3366, -145.521, -97.9256, 142.516
0.063411, -1, 11.3723, 13.6139, 17.3365, -145.521, -97.9256, 142.516
0.204303, -1, 9.88685, 13.2185, 17.4334, -145.986, -97.7654, 139.817
0.205483, -1, 9.88685, 13.2185, 17.4334, -145.986, -97.7654, 139.817
0.207703, -1, 9.80926, 13.1978, 17.4384, -146.01, -97.7567, 139.678
0.208904, -1, 9.80926, 13.1978, 17.4384, -146.01, -97.7567, 139.678
0.210819, -1, 9.80926, 13.1771, 17.4435, -146.034, -97.7481, 139.538
0.212284, -1, 9.73145, 13.1771, 17.4435, -146.034, -97.7481, 139.538
0.213506, -1, 9.73145, 13.1771, 17.4435, -146.034, -97.7481, 139.538
0.216469, -1, 9.65366, 13.1564, 17.4486, -146.058, -97.7395, 139.398
0.217691, -1, 9.65366, 13.1564, 17.4486, -146.058, -97.7395, 139.398
0.219746, -1, 9.57599, 13.1358, 17.4535, -146.081, -97.731, 139.258
0.220993, -1, 9.57599, 13.1358, 17.4535, -146.081, -97.731, 139.258
0.223718, -1, 9.49847, 13.1152, 17.4585, -146.105, -97.7225, 139.119
0.225819, -1, 9.49847, 13.1152, 17.4585, -146.105, -97.7225, 139.119
0.227969, -1, 9.42106, 13.0945, 17.4634, -146.13, -97.7141, 138.979
0.229209, -1, 9.42106, 13.0945, 17.4634, -146.13, -97.7141, 138.979
0.231972, -1, 9.3437, 13.074, 17.4684, -146.154, -97.7057, 138.839
0.233324, -1, 9.3437, 13.074, 17.4684, -146.154, -97.7057, 138.839
0.235276, -1, 9.26643, 13.0534, 17.4734, -146.178, -97.6973, 138.7
0.236768, -1, 9.26643, 13.0534, 17.4734, -146.178, -97.6973, 138.7
0.237962, -1, 9.26643, 13.0534, 17.4734, -146.178, -97.6973, 138.7
0.240013, -1, 9.18925, 13.0328, 17.4784, -146.201, -97.689, 138.56
0.241343, -1, 9.18925, 13.0328, 17.4784, -146.201, -97.689, 138.56
0.249613, -1, 9.03533, 12.9918, 17.4883, -146.249, -97.6723, 138.28
0.255685, -1, 8.88161, 12.9507, 17.4985, -146.298, -97.6554, 138
0.263411, -1, 8.72799, 12.9097, 17.5087, -146.345, -97.6382, 137.72
0.27225, -1, 8.57496, 12.8686, 17.5187, -146.393, -97.6208, 137.44
0.280395, -1, 8.42223, 12.8273, 17.5289, -146.441, -97.6033, 137.16
0.28761, -1, 8.26928, 12.786, 17.5391, -146.489, -97.586, 136.88
0.296256, -1, 8.11589, 12.7444, 17.5492, -146.537, -97.569, 136.6
0.303976, -1, 7.96198, 12.7028, 17.5594, -146.585, -97.5522, 136.32
0.312509, -1, 7.80743, 12.6611, 17.5695, -146.633, -97.5355, 136.039
0.320589, -1, 7.65257, 12.6194, 17.5796, -146.681, -97.5189, 135.759
0.328008, -1, 7.49757, 12.5778, 17.5899, -146.729, -97.5021, 135.479
0.335945, -1, 7.34256, 12.5363, 17.6, -146.777, -97.4849, 135.199
0.343947, -1, 7.18762, 12.4948, 17.6102, -146.825, -97.4676, 134.918
0.352487, -1, 7.03253, 12.4533, 17.6206, -146.873, -97.4502, 134.638
0.360005, -1, 6.95492, 12.4327, 17.6257, -146.921, -97.4332, 134.358
0.368009, -1, 6.79983, 12.3915, 17.636, -146.945, -97.4247, 134.078
0.375964, -1, 6.64499, 12.3502, 17.6464, -146.994, -97.408, 133.937
0.383376, -1, 6.49039, 12.3089, 17.6568, -147.042, -97.3912, 133.657
0.39144, -1, 6.33603, 12.2676, 17.6672, -147.09, -97.3744, 133.377
0.400633, -1, 6.10468, 12.2054, 17.6826, -147.162, -97.3489, 132.956
0.407375, -1, 6.02748, 12.1847, 17.6877, -147.186, -97.3402, 132.815
0.41537, -1, 5.87295, 12.1433, 17.698, -147.234, -97.3226, 132.534
0.425374, -1, 5.64079, 12.0807, 17.7134, -147.306, -97.2965, 132.114
0.431384, -1, 5.56331, 12.0598, 17.7185, -147.33, -97.2879, 131.973
0.4408, -1, 5.33057, 11.9974, 17.7339, -147.402, -97.2624, 131.551
0.449177, -1, 5.17508, 11.9557, 17.7443, -147.451, -97.2457, 131.271
0.455374, -1, 5.09721, 11.9349, 17.7495, -147.475, -97.2373, 131.13
0.464926, -1, 4.86358, 11.8724, 17.7652, -147.546, -97.2119, 130.709
0.47303, -1, 4.7079, 11.8309, 17.7756, -147.595, -97.1946, 130.427
0.479372, -1, 4.62999, 11.8101, 17.7808, -147.619, -97.1859, 130.287
0.488971, -1, 4.47429, 11.7686, 17.7912, -147.667, -97.1598, 129.866
0.497194, -1, 4.31878, 11.7271, 17.8016, -147.74, -97.1426, 129.585
0.503371, -1, 4.16346, 11.6857, 17.8121, -147.764, -97.1341, 129.444
0.512378, -1, 4.00852, 11.6443, 17.8225, -147.812, -97.1172, 129.163
0.521597, -1, 3.77683, 11.582, 17.8379, -147.885, -97.0919, 128.741
0.527372, -1, 3.69968, 11.5612, 17.8431, -147.909, -97.0835, 128.601
0.535473, -1, 3.54523, 11.5196, 17.8534, -147.957, -97.0664, 128.319
0.543389, -1, 3.39057, 11.4779, 17.8638, -148.006, -97.0491, 128.038
0.551381, -1, 3.23558, 11.4362, 17.8743, -148.054, -97.0315, 127.756
0.559439, -1, 3.08046, 11.3944, 17.8847, -148.102, -97.0139, 127.475
0.567402, -1, 2.92516, 11.3525, 17.8951, -148.15, -96.9966, 127.193
0.575408, -1, 2.76961, 11.3108, 17.9054, -148.199, -96.9797, 126.911
0.583434, -1, 2.61375, 11.269, 17.9157, -148.246, -96.9628, 126.63
0.591374, -1, 2.45766, 11.2272, 17.9262, -148.295, -96.9462, 126.348
0.599369, -1, 2.30125, 11.1855, 17.9366, -148.343, -96.9293, 126.066
0.607431, -1, 2.14464, 11.1438, 17.947, -148.391, -96.9122, 125.784
0.615361, -1, 1.98788, 11.1021, 17.9574, -148.44, -96.8948, 125.502
0.623376, -1, 1.83132, 11.0605, 17.9678, -148.489, -96.8773, 125.221
0.63144, -1, 1.67485, 11.0188, 17.9782, -148.537, -96.8599, 124.939
0.639436, -1, 1.51857, 10.977, 17.9887, -148.585, -96.8428, 124.657
0.647363, -1, 1.36262, 10.9354, 17.9992, -148.634, -96.8259, 124.375
0.786679, -1, -1.29059, 10.2244, 18.1762, -149.458, -96.5348, 119.569
0.788886, -1, -1.36902, 10.2034, 18.1813, -149.483, -96.5264, 119.427
0.790161, -1, -1.36902, 10.2034, 18.1813, -149.483, -96.5264, 119.427
0.792147, -1, -1.44746, 10.1825, 18.1865, -149.507, -96.518, 119.286
0.793424, -1, -1.44746, 10.1825, 18.1865, -149.507, -96.518, 119.286
0.79462, -1, -1.44746, 10.1825, 18.1865, -149.507, -96.518, 119.286
0.796686, -1, -1.52585, 10.1617, 18.1917, -149.531, -96.5096, 119.144
0.799826, -1, -1.60409, 10.1407, 18.197, -149.555, -96.5011, 119.002
0.801269, -1, -1.60409, 10.1407, 18.197, -149.555, -96.5011, 119.002
0.802581, -1, -1.60409, 10.1407, 18.197, -149.555, -96.5011, 119.002
0.806064, -1, -1.68219, 10.1198, 18.2023, -149.58, -96.4926, 118.861
0.808355, -1, -1.76016, 10.0989, 18.2075, -149.604, -96.4841, 118.719
0.809594, -1, -1.76016, 10.0989, 18.2075, -149.604, -96.4841, 118.719
0.810778, -1, -1.76016, 10.0989, 18.2075, -149.604, -96.4841, 118.719
0.81286, -1, -1.83804, 10.0779, 18.2127, -149.628, -96.4754, 118.578
0.81579, -1, -1.91584, 10.057, 18.2179, -149.653, -96.4667, 118.436
0.817265, -1, -1.91584, 10.057, 18.2179, -149.653, -96.4667, 118.436
0.818476, -1, -1.91584, 10.057, 18.2179, -149.653, -96.4667, 118.436
0.820522, -1, -1.99355, 10.036, 18.2232, -149.677, -96.4578, 118.294
0.821843, -1, -1.99355, 10.036, 18.2232, -149.677, -96.4578, 118.294
0.823735, -1, -1.99355, 10.036, 18.2232, -149.677, -96.449, 118.152
0.825109, -1, -2.07118, 10.0151, 18.2284, -149.701, -96.449, 118.152
0.834366, -1, -2.22635, 9.97318, 18.2388, -149.75, -96.4315, 117.869
0.839957, -1, -2.38162, 9.93126, 18.2492, -149.798, -96.4142, 117.585
0.848463, -1, -2.53713, 9.88926, 18.2596, -149.847, -96.3972, 117.301
0.856008, -1, -2.615, 9.84734, 18.27, -149.896, -96.3803, 117.018
0.863906, -1, -2.77102, 9.82638, 18.2752, -149.92, -96.3635, 116.734
0.872411, -1, -3.00585, 9.76342, 18.2908, -149.993, -96.3466, 116.45
0.879384, -1, -3.08431, 9.74247, 18.296, -150.017, -96.3381, 116.309
0.887355, -1, -3.24153, 9.70052, 18.3064, -150.066, -96.3207, 116.024
0.896434, -1, -3.47804, 9.63748, 18.3221, -150.138, -96.2943, 115.599
0.903402, -1, -3.55693, 9.61652, 18.3273, -150.163, -96.2856, 115.457
0.911369, -1, -3.7147, 9.57467, 18.3378, -150.212, -96.2682, 115.173
0.919401, -1, -3.8727, 9.53266, 18.3481, -150.26, -96.2511, 114.888
0.927361, -1, -4.03067, 9.49064, 18.3585, -150.309, -96.2341, 114.604
0.935353, -1, -4.18845, 9.44876, 18.3689, -150.358, -96.2172, 114.32
0.944815, -1, -4.42497, 9.38576, 18.3844, -150.431, -96.1914, 113.893
0.951395, -1, -4.50364, 9.36477, 18.3896, -150.456, -96.1827, 113.75
0.959357, -1, -4.66057, 9.32275, 18.4, -150.505, -96.165, 113.466
0.968916, -1, -4.89537, 9.2597, 18.4157, -150.578, -96.1385, 113.038
0.977149, -1, -5.05151, 9.21763, 18.4262, -150.627, -96.1212, 112.753
0.983351, -1, -5.12951, 9.1966, 18.4314, -150.651, -96.1125, 112.611
0.992924, -1, -5.28544, 9.15453, 18.442, -150.7, -96.0956, 112.184
1.00099, -1, -5.44146, 9.11234, 18.4525, -150.749, -96.0786, 112.042
1.00735, -1, -5.59761, 9.07024, 18.4629, -150.798, -96.0617, 111.757
1.01543, -1, -5.75409, 9.0281, 18.4733, -150.846, -96.0446, 111.472
1.02336, -1, -5.91106, 8.98588, 18.4838, -150.895, -96.0271, 111.187
1.03142, -1, -6.06844, 8.94373, 18.4941, -150.944, -96.0094, 110.902
1.03941, -1, -6.22643, 8.90158, 18.5045, -150.993, -95.9919, 110.617
1.04744, -1, -6.38472, 8.85944, 18.5148, -151.042, -95.9746, 110.332
1.05535, -1, -6.54315, 8.81737, 18.5252, -151.091, -95.9576, 110.047
1.06335, -1, -6.70165, 8.77522, 18.5358, -151.14, -95.9405, 109.761
1.07143, -1, -6.86036, 8.73307, 18.5463, -151.189, -95.9236, 109.476
1.07934, -1, -7.01889, 8.69102, 18.5568, -151.238, -95.9064, 109.19
1.08737, -1, -7.17741, 8.64886, 18.5672, -151.287, -95.8889, 108.905
1.09543, -1, -7.33571, 8.60669, 18.5776, -151.336, -95.8712, 108.619
1.10335, -1, -7.49376, 8.56442, 18.5881, -151.385, -95.8535, 108.333
1.11136, -1, -7.65142, 8.5221, 18.5985, -151.434, -95.836, 108.047
1.11942, -1, -7.80871, 8.47985, 18.609, -151.483, -95.8188, 107.762
1.12736, -1, -7.96564, 8.43759, 18.6194, -151.532, -95.8018, 107.476
1.13539, -1, -8.12233, 8.39522, 18.6298, -151.581, -95.7848, 107.19
1.144, -1, -8.27889, 8.35289, 18.6402, -151.63, -95.7678, 106.904
1.15245, -1, -8.43555, 8.31051, 18.6508, -151.679, -95.7506, 106.618
1.15949, -1, -8.59252, 8.26814, 18.6614, -151.728, -95.7331, 106.332
1.16816, -1, -8.74983, 8.22589, 18.6719, -151.777, -95.7154, 106.046
1.17535, -1, -8.90759, 8.18353, 18.6822, -151.826, -95.6978, 105.759
1.18358, -1, -9.06569, 8.14122, 18.6926, -151.875, -95.6805, 105.473
1.19218, -1, -9.22425, 8.09899, 18.7031, -151.925, -95.6633, 105.187
1.19942, -1, -9.38313, 8.05668, 18.7135, -151.973, -95.6462, 104.9
1.20771, -1, -9.54224, 8.01436, 18.7241, -152.023, -95.6291, 104.613
1.21626, -1, -9.70137, 7.97215, 18.7345, -152.072, -95.6118, 104.326
1.22352, -1, -9.86063, 7.92994, 18.745, -152.121, -95.5943, 104.039
1.2319, -1, -10.02, 7.88757, 18.7557, -152.171, -95.5764, 103.752
1.24029, -1, -10.1793, 7.84516, 18.7663, -152.22, -95.5585, 103.465
1.24735, -1, -10.3384, 7.8027, 18.7769, -152.269, -95.541, 103.179
1.25609, -1, -10.4973, 7.76021, 18.7874, -152.319, -95.5238, 102.892
1.26445, -1, -10.6558, 7.71776, 18.7978, -152.368, -95.5068, 102.605
1.27152, -1, -10.8139, 7.67522, 18.8084, -152.417, -95.4898, 102.318
1.28029, -1, -10.9718, 7.63261, 18.8188, -152.466, -95.4726, 102.031
1.28841, -1, -11.1294, 7.59012, 18.8292, -152.516, -95.4552, 101.743
1.29563, -1, -11.2868, 7.54766, 18.8397, -152.565, -95.4375, 101.456
1.30457, -1, -11.4442, 7.5052, 18.8502, -152.614, -95.4197, 101.169
1.31254, -1, -11.6018, 7.46271, 18.8607, -152.664, -95.4021, 100.881
1.31995, -1, -11.7596, 7.4203, 18.8714, -152.712, -95.3847, 100.593
1.32878, -1, -11.918, 7.3779, 18.8819, -152.762, -95.3675, 100.305
1.33589, -1, -12.0768, 7.33548, 18.8925, -152.812, -95.3503, 100.018
1.34392, -1, -12.2359, 7.29307, 18.903, -152.861, -95.333, 99.7298
1.35283, -1, -12.3954, 7.25067, 18.9135, -152.911, -95.3156, 99.4416
1.35995, -1, -12.4753, 7.20826, 18.924, -152.96, -95.2978, 99.1536
1.36812, -1, -12.6353, 7.18704, 18.9346, -153.009, -95.2798, 98.8658
1.37535, -1, -12.7953, 7.14461, 18.9399, -153.034, -95.2708, 98.722
1.38593, -1, -13.0354, 7.08079, 18.9557, -153.108, -95.2444, 98.2897
1.39239, -1, -13.1954, 7.03818, 18.9662, -153.158, -95.2271, 98.0016
1.39935, -1, -13.2753, 7.01688, 18.9715, -153.183, -95.2185, 97.8575
1.40734, -1, -13.435, 6.97424, 18.9821, -153.232, -95.2014, 97.5692
1.41548, -1, -13.5943, 6.93146, 18.9927, -153.281, -95.1842, 97.2805
1.42334, -1, -13.7534, 6.88873, 19.0033, -153.331, -95.1668, 96.9918
1.43133, -1, -13.9123, 6.84601, 19.0137, -153.38, -95.1491, 96.7033
1.4394, -1, -14.0706, 6.80327, 19.0242, -153.429, -95.1313, 96.4148
1.44885, -1, -14.3078, 6.7393, 19.04, -153.504, -95.1048, 95.9813
1.45843, -1, -14.466, 6.69659, 19.0505, -153.553, -95.0875, 95.6925
1.46334, -1, -14.5452, 6.67524, 19.0558, -153.578, -95.0789, 95.5479
1.47137, -1, -14.7038, 6.63266, 19.0663, -153.628, -95.0617, 95.2588
1.48173, -1, -14.9425, 6.56882, 19.0823, -153.702, -95.0358, 94.8248
1.48733, -1, -15.0222, 6.54747, 19.0877, -153.726, -95.027, 94.6803
1.49688, -1, -15.1819, 6.50487, 19.0984, -153.776, -95.0093, 94.3913
1.50572, -1, -15.3421, 6.46229, 19.1091, -153.826, -94.9913, 93.9574
1.51133, -1, -15.5025, 6.41957, 19.1197, -153.875, -94.9733, 93.8127
1.52034, -1, -15.6632, 6.37689, 19.1303, -153.925, -94.9556, 93.5235
1.5274, -1, -15.824, 6.33415, 19.1409, -153.975, -94.9383, 93.2343
1.53533, -1, -15.9847, 6.29128, 19.1515, -154.025, -94.9211, 92.9448
1.54347, -1, -16.1456, 6.24843, 19.1621, -154.075, -94.9039, 92.6549
1.55142, -1, -16.3064, 6.20554, 19.1726, -154.124, -94.8867, 92.3655
1.55935, -1, -16.4669, 6.16252, 19.1831, -154.173, -94.8692, 92.0758
1.56734, -1, -16.6272, 6.11956, 19.1937, -154.223, -94.8514, 91.7857
1.57543, -1, -16.7871, 6.0766, 19.2043, -154.273, -94.8335, 91.4955
1.58334, -1, -16.9466, 6.0336, 19.215, -154.323, -94.8158, 91.2054
1.59136, -1, -17.1059, 5.99063, 19.2256, -154.373, -94.7984, 90.9152
1.59939, -1, -17.265, 5.9477, 19.2362, -154.422, -94.781, 90.6247
1.60734, -1, -17.4241, 5.90485, 19.2468, -154.472, -94.7637, 90.3343
1.6154, -1, -17.5834, 5.86206, 19.2575, -154.522, -94.7463, 90.0442
1.62333, -1, -17.7427, 5.81926, 19.2681, -154.571, -94.7287, 89.7539
1.63133, -1, -17.9022, 5.77653, 19.2788, -154.621, -94.7108, 89.4635
1.63945, -1, -18.0623, 5.73375, 19.2894, -154.671, -94.6926, 89.1729
1.64739, -1, -18.2228, 5.691, 19.3, -154.721, -94.6747, 88.8825
1.65533, -1, -18.3837, 5.64822, 19.3107, -154.771, -94.6571, 88.5918
1.66342, -1, -18.5451, 5.6053, 19.3214, -154.821, -94.6398, 88.3007
1.67146, -1, -18.7066, 5.56234, 19.3321, -154.871, -94.6225, 88.0099
1.67934, -1, -18.8683, 5.51937, 19.3428, -154.921, -94.6052, 87.719
1.6874, -1, -19.03, 5.47631, 19.3533, -154.971, -94.5877, 87.4279
1.69538, -1, -19.1915, 5.43314, 19.3639, -155.021, -94.5699, 87.1365
1.70345, -1, -19.353, 5.38999, 19.3745, -155.071, -94.5518, 86.8451
1.71148, -1, -19.5143, 5.34681, 19.3851, -155.12, -94.5338, 86.5535
1.71944, -1, -19.6752, 5.30357, 19.3957, -155.17, -94.5161, 86.2619
1.7275, -1, -19.8359, 5.26044, 19.4064, -155.221, -94.4984, 85.9701
1.73554, -1, -19.9964, 5.21726, 19.4171, -155.27, -94.481, 85.6786
1.74339, -1, -20.1565, 5.1741, 19.4279, -155.32, -94.4636, 85.3872
1.75209, -1, -20.3161, 5.13117, 19.4387, -155.371, -94.446, 85.0954
1.76042, -1, -20.4761, 5.08817, 19.4495, -155.421, -94.4283, 84.8034
1.76737, -1, -20.6362, 5.0451, 19.4603, -155.471, -94.4101, 84.5118
1.77625, -1, -20.7965, 5.00216, 19.471, -155.521, -94.3921, 84.2199
1.78344, -1, -20.9572, 4.95918, 19.4817, -155.571, -94.3744, 83.9277
1.7915, -1, -21.1182, 4.91612, 19.4924, -155.621, -94.3569, 83.6356
1.8005, -1, -21.2797, 4.87307, 19.503, -155.672, -94.3397, 83.3437
1.80771, -1, -21.4417, 4.82986, 19.5136, -155.722, -94.3224, 83.0516
1.81578, -1, -21.6038, 4.78659, 19.5243, -155.772, -94.305, 82.7589
1.82473, -1, -21.7661, 4.74339, 19.5351, -155.822, -94.2873, 82.4664
1.83184, -1, -21.9285, 4.70002, 19.5458, -155.872, -94.2694, 82.1738
1.83993, -1, -22.091, 4.6566, 19.5567, -155.923, -94.2514, 81.8811
1.84882, -1, -22.2535, 4.61329, 19.5673, -155.973, -94.2336, 81.5882
1.85644, -1, -22.4158, 4.56988, 19.5779, -156.023, -94.216, 81.2955
1.86399, -1, -22.5779, 4.5265, 19.5887, -156.073, -94.1985, 81.0029
1.87278, -1, -22.6588, 4.50481, 19.594, -156.098, -94.1898, 80.7099
1.87936, -1, -22.8204, 4.46139, 19.6047, -156.148, -94.1723, 80.5633
1.88837, -1, -23.0621, 4.3964, 19.6208, -156.224, -94.1456, 80.1238
1.89534, -1, -23.1427, 4.37477, 19.6261, -156.249, -94.1366, 79.9773
1.90332, -1, -23.3036, 4.33144, 19.6368, -156.299, -94.1183, 79.684
1.91251, -1, -23.5449, 4.26656, 19.6532, -156.375, -94.0911, 79.2437
1.91933, -1, -23.6254, 4.24493, 19.6585, -156.4, -94.0822, 79.0972
1.92737, -1, -23.7865, 4.20166, 19.6693, -156.45, -94.0646, 78.8039
1.93679, -1, -24.0286, 4.13665, 19.6854, -156.526, -94.0384, 78.3633
1.94333, -1, -24.1095, 4.11493, 19.6907, -156.551, -94.0297, 78.2163
1.95141, -1, -24.2717, 4.07154, 19.7015, -156.602, -94.0121, 77.9224
1.96091, -1, -24.5158, 4.00636, 19.7174, -156.678, -93.9853, 77.4812
1.96975, -1, -24.6789, 3.96281, 19.7281, -156.728, -93.9671, 77.1869
1.97542, -1, -24.7605, 3.94104, 19.7335, -156.753, -93.9581, 77.0399
1.98497, -1, -25.0056, 3.8757, 19.7496, -156.829, -93.9314, 76.5989
1.99134, -1, -25.0873, 3.85391, 19.7551, -156.854, -93.9226, 76.4518
2.00087, -1, -25.2506, 3.81032, 19.766, -156.904, -93.9051, 76.1574
2.00837, -1, -25.4138, 3.7667, 19.7768, -156.955, -93.8876, 75.863
2.01635, -1, -25.5766, 3.72305, 19.7876, -157.005, -93.8699, 75.5689
2.02339, -1, -25.7392, 3.67942, 19.7983, -157.055, -93.852, 75.2742
2.03133, -1, -25.9017, 3.63594, 19.8091, -157.106, -93.8336, 74.9794
2.03933, -1, -26.0639, 3.59238, 19.8199, -157.156, -93.8153, 74.6848
2.04736, -1, -26.2256, 3.54889, 19.8306, -157.207, -93.7971, 74.3903
2.05534, -1, -26.3872, 3.50548, 19.8414, -157.258, -93.7794, 74.0954
2.06342, -1, -26.5489, 3.46197, 19.8521, -157.308, -93.7617, 73.8002
2.07132, -1, -26.7108, 3.41845, 19.863, -157.359, -93.7441, 73.505
2.07932, -1, -26.873, 3.37495, 19.8739, -157.41, -93.7264, 73.2098
2.08879, -1, -27.0356, 3.33134, 19.8847, -157.46, -93.7085, 72.9145
2.09532, -1, -27.1985, 3.28769, 19.8955, -157.511, -93.6903, 72.6191
2.10338, -1, -27.3617, 3.2441, 19.9062, -157.561, -93.6719, 72.324
2.11132, -1, -27.5254, 3.20027, 19.917, -157.612, -93.6539, 72.0287
2.11932, -1, -27.6893, 3.15654, 19.9278, -157.663, -93.636, 71.7332
2.1274, -1, -27.8533, 3.11291, 19.9385, -157.713, -93.6182, 71.4374
2.13531, -1, -28.0175, 3.06918, 19.9494, -157.764, -93.6005, 71.142
2.14335, -1, -28.1818, 3.02544, 19.9601, -157.815, -93.5828, 70.8461
2.15138, -1, -28.346, 2.98172, 19.9709, -157.865, -93.5647, 70.55
2.15932, -1, -28.51, 2.93796, 19.9818, -157.916, -93.5464, 70.254
2.16733, -1, -28.6738, 2.89429, 19.9927, -157.967, -93.5279, 69.958
2.17538, -1, -28.8373, 2.85056, 20.0035, -158.018, -93.5097, 69.6618
2.18331, -1, -29.0003, 2.80685, 20.0142, -158.069, -93.4918, 69.3651
2.19136, -1, -29.1631, 2.76318, 20.025, -158.12, -93.4741, 69.0687
2.19942, -1, -29.3258, 2.71947, 20.0358, -158.17, -93.4563, 68.7722
2.20746, -1, -29.4885, 2.67577, 20.0466, -158.221, -93.4387, 68.4753
2.21544, -1, -29.6513, 2.63198, 20.0574, -158.273, -93.4207, 68.1783
2.2235, -1, -29.8143, 2.58815, 20.0682, -158.323, -93.4024, 67.8817
2.23143, -1, -29.9774, 2.54441, 20.0792, -158.375, -93.3839, 67.585
2.23943, -1, -30.1407, 2.50049, 20.0902, -158.425, -93.3657, 67.2879
2.24756, -1, -30.3045, 2.45649, 20.1011, -158.476, -93.3477, 66.9909
2.25532, -1, -30.4688, 2.41255, 20.1121, -158.527, -93.3299, 66.6939
2.26335, -1, -30.6336, 2.36849, 20.1228, -158.578, -93.3123, 66.3968
2.27142, -1, -30.7986, 2.32452, 20.1336, -158.629, -93.2944, 66.0993
2.27937, -1, -30.9636, 2.28055, 20.1446, -158.68, -93.2764, 65.802
2.28778, -1, -31.1287, 2.23647, 20.1554, -158.731, -93.258, 65.5048
2.29556, -1, -31.2937, 2.19254, 20.1663, -158.782, -93.2394, 65.2073
2.30357, -1, -31.4587, 2.1487, 20.1771, -158.833, -93.2211, 64.9096
2.31178, -1, -31.6233, 2.10467, 20.1879, -158.884, -93.2031, 64.6119
2.31969, -1, -31.7879, 2.06069, 20.1989, -158.936, -93.1853, 64.314
2.32846, -1, -31.9521, 2.01678, 20.2098, -158.987, -93.1678, 64.0159
2.3362, -1, -32.116, 1.97275, 20.2208, -159.037, -93.1501, 63.7177
2.34386, -1, -32.2797, 1.92874, 20.2317, -159.089, -93.1322, 63.4199
2.35242, -1, -32.4432, 1.88471, 20.2425, -159.14, -93.114, 63.122
2.35997, -1, -32.6069, 1.8406, 20.2535, -159.191, -93.0957, 62.8237
2.36897, -1, -32.7707, 1.79652, 20.2644, -159.243, -93.0773, 62.5253
2.37632, -1, -32.9347, 1.75239, 20.2753, -159.294, -93.0594, 62.227
2.38417, -1, -33.0168, 1.73027, 20.2808, -159.319, -93.0504, 61.9285
2.39131, -1, -33.1814, 1.68605, 20.2917, -159.371, -93.0325, 61.7792
2.39933, -1, -33.3462, 1.64189, 20.3025, -159.422, -93.0147, 61.4804
2.40847, -1, -33.5943, 1.57553, 20.319, -159.499, -92.9877, 61.0326
2.4153, -1, -33.6771, 1.55341, 20.3245, -159.525, -92.9785, 60.8832
2.42337, -1, -33.8428, 1.50923, 20.3354, -159.575, -92.9599, 60.5842
2.4313, -1, -34.0087, 1.465, 20.3462, -159.627, -92.9412, 60.285
2.43934, -1, -34.1746, 1.42086, 20.3572, -159.678, -92.9228, 59.9859
2.44736, -1, -34.3407, 1.37671, 20.3681, -159.73, -92.9048, 59.6865
2.45538, -1, -34.5067, 1.33249, 20.3791, -159.781, -92.8869, 59.3867
2.46483, -1, -34.7551, 1.26626, 20.3954, -159.858, -92.8604, 58.9378
2.47291, -1, -34.9203, 1.22206, 20.4063, -159.909, -92.8423, 58.6384
2.48125, -1, -35.0852, 1.1778, 20.4174, -159.961, -92.8239, 58.3386
2.48737, -1, -35.1676, 1.15564, 20.423, -159.987, -92.8147, 58.1887
2.49697, -1, -35.4142, 1.08923, 20.4396, -160.064, -92.7869, 57.7392
2.50339, -1, -35.4961, 1.0672, 20.4452, -160.09, -92.7778, 57.5893
2.51234, -1, -35.6584, 1.02338, 20.4564, -160.141, -92.7597, 57.2893
2.52039, -1, -35.8179, 0.98015, 20.4679, -160.192, -92.7418, 56.9909
2.52834, -1, -35.9734, 0.938086, 20.4798, -160.243, -92.7241, 56.6956
2.53537, -1, -36.1238, 0.897638, 20.4917, -160.292, -92.7066, 56.4064
2.54334, -1, -36.2666, 0.859396, 20.5036, -160.339, -92.6895, 56.1274
2.55134, -1, -36.3996, 0.824092, 20.5152, -160.384, -92.6731, 55.8649
2.55939, -1, -36.5215, 0.791848, 20.5258, -160.425, -92.6579, 55.625
2.56733, -1, -36.6306, 0.762988, 20.5351, -160.46, -92.6446, 55.4134
2.57534, -1, -36.7254, 0.737925, 20.5424, -160.49, -92.6335, 55.2349
2.58337, -1, -36.8055, 0.716678, 20.5475, -160.515, -92.6248, 55.0915
2.5913, -1, -36.8718, 0.699202, 20.5504, -160.534, -92.6183, 54.983
2.59932, -1, -36.9251, 0.685179, 20.5517, -160.547, -92.6138, 54.9062
2.60737, -1, -36.9656, 0.674342, 20.5521, -160.556, -92.6109, 54.8544
2.6153, -1, -36.9951, 0.666549, 20.5518, -160.562, -92.6093, 54.823
2.62332, -1, -37.0155, 0.661449, 20.5514, -160.565, -92.6084, 54.8051
2.63137, -1, -37.0279, 0.658434, 20.551, -160.567, -92.6079, 54.796
2.63932, -1, -37.0345, 0.65685, 20.5508, -160.568, -92.6077, 54.7917
2.6473, 2, -37.0368, 0.656126, 20.5508, -160.568, -92.6075, 54.7897
2.65537, 2, -37.0366, 0.655811, 20.5507, -160.568, -92.6075, 54.7888
2.6633, 2, -37.0359, 0.655677, 20.5507, -160.568, -92.6075, 54.7884
2.6713, 2, -37.0357, 0.655642, 20.5507, -160.568, -92.6075, 54.7883
2.67938, 2, -37.036, 0.655614, 20.5506, -160.568, -92.6076, 54.7882
2.6873, 2, -37.037, 0.655569, 20.5506, -160.568, -92.6075, 54.7882
2.69532, 2, -37.0381, 0.655454, 20.5504, -160.568, -92.6075, 54.7882
2.70341, 2, -37.0396, 0.655256, 20.5502, -160.568, -92.6076, 54.7882
2.71142, 2, -37.041, 0.655009, 20.55, -160.568, -92.6076, 54.7883
2.71944, 2, -37.0422, 0.654755, 20.5499, -160.568, -92.6076, 54.7884
2.72746, 2, -37.0432, 0.654508, 20.5497, -160.568, -92.6077, 54.7885
2.73542, 2, -37.0437, 0.654394, 20.5494, -160.568, -92.6078, 54.7886
2.74341, 2, -37.0437, 0.654367, 20.5493, -160.568, -92.6078, 54.7887
2.75148, 2, -37.0433, 0.654362, 20.5491, -160.568, -92.6078, 54.7888
2.75933, 2, -37.0424, 0.654388, 20.5491, -160.568, -92.6079, 54.789
2.76733, 2, -37.0414, 0.654445, 20.549, -160.568, -92.6079, 54.7892
2.7754, 2, -37.0398, 0.654513, 20.549, -160.568, -92.6079, 54.7894
2.78337, 2, -37.0384, 0.654598, 20.5488, -160.568, -92.608, 54.7896
2.79148, 2, -37.0373, 0.654644, 20.5488, -160.568, -92.6081, 54.7897
2.7999, 2, -37.0366, 0.654666, 20.5487, -160.568, -92.608, 54.7897
2.80837, 2, -37.0364, 0.654646, 20.5487, -160.568, -92.608, 54.7898
2.81566, 2, -37.0365, 0.65463, 20.5487, -160.568, -92.608, 54.7898
2.82439, 2, -37.0367, 0.654566, 20.5487, -160.568, -92.6081, 54.7898
2.83174, 2, -37.0369, 0.654507, 20.5486, -160.568, -92.608, 54.7899
2.84042, 2, -37.0374, 0.654451, 20.5486, -160.568, -92.608, 54.7899
2.84825, 2, -37.0381, 0.654436, 20.5486, -160.568, -92.608, 54.79
2.85587, 2, -37.0389, 0.654411, 20.5486, -160.568, -92.6081, 54.79
2.86442, 2, -37.0395, 0.654399, 20.5486, -160.568, -92.6081, 54.7901
2.87214, 2, -37.0399, 0.65443, 20.5486, -160.568, -92.6081, 54.7902
2.88015, 2, -37.0401, 0.654469, 20.5486, -160.568, -92.6081, 54.7902
2.88732, 2, -37.0401, 0.654491, 20.5486, -160.568, -92.6081, 54.7902
2.89636, 2, -37.0401, 0.654533, 20.5486, -160.568, -92.6082, 54.7904
2.9033, 2, -37.0399, 0.654534, 20.5486, -160.568, -92.6082, 54.7904
2.91129, 2, -37.0395, 0.654517, 20.5486, -160.568, -92.6081, 54.7904
2.92073, 2, -37.0391, 0.654507, 20.5486, -160.568, -92.6082, 54.7905
2.92729, 2, -37.039, 0.654506, 20.5486, -160.568, -92.6082, 54.7905
2.93529, 2, -37.0388, 0.654492, 20.5486, -160.568, -92.6082, 54.7905
2.94505, 2, -37.0387, 0.654469, 20.5485, -160.568, -92.6083, 54.7905
2.95279, 2, -37.0387, 0.654455, 20.5485, -160.568, -92.6083, 54.7906
2.96122, 2, -37.0387, 0.654456, 20.5485, -160.568, -92.6083, 54.7907
2.96734, 2, -37.0388, 0.654457, 20.5485, -160.568, -92.6082, 54.7907
2.97529, 2, -37.0388, 0.654476, 20.5485, -160.568, -92.6083, 54.7907
2.98492, 2, -37.0391, 0.654494, 20.5485, -160.568, -92.6082, 54.7909
2.99135, 2, -37.0392, 0.654497, 20.5485, -160.568, -92.6082, 54.7909
2.9993, 2, -37.0393, 0.6545, 20.5485, -160.568, -92.6083, 54.7909
3.00914, 2, -37.0394, 0.654501, 20.5485, -160.568, -92.6083, 54.791
3.01536, 2, -37.0394, 0.654502, 20.5484, -160.568, -92.6083, 54.791
3.02329, 2, -37.0394, 0.654502, 20.5484, -160.568, -92.6083, 54.791
3.03129, 2, -37.0394, 0.654495, 20.5484, -160.568, -92.6083, 54.7911
3.03937, 2, -37.0394, 0.654494, 20.5484, -160.568, -92.6083, 54.7912
3.04732, 2, -37.0394, 0.654491, 20.5484, -160.568, -92.6084, 54.7912
3.05532, 2, -37.0394, 0.654473, 20.5484, -160.568, -92.6083, 54.7913
3.06335, 2, -37.0393, 0.654477, 20.5484, -160.568, -92.6083, 54.7914
3.07141, 2, -37.0394, 0.654473, 20.5483, -160.568, -92.6083, 54.7914
3.0793, 2, -37.0393, 0.654489, 20.5483, -160.568, -92.6083, 54.7915
3.08735, 2, -37.0393, 0.654496, 20.5483, -160.568, -92.6083, 54.7915
3.09529, 2, -37.0393, 0.6545, 20.5483, -160.568, -92.6084, 54.7915
3.10328, 2, -37.0393, 0.654512, 20.5483, -160.568, -92.6084, 54.7916
3.11135, 2, -37.0393, 0.654514, 20.5483, -160.568, -92.6084, 54.7916
3.1193, 2, -37.0394, 0.654508, 20.5483, -160.568, -92.6084, 54.7916
3.12731, 2, -37.0393, 0.654505, 20.5483, -160.568, -92.6084, 54.7917
3.1354, 2, -37.0393, 0.654504, 20.5483, -160.568, -92.6084, 54.7917
3.14329, 2, -37.0393, 0.654503, 20.5483, -160.568, -92.6084, 54.7918
3.15128, 2, -37.0393, 0.654503, 20.5483, -160.568, -92.6084, 54.7918
3.15937, 2, -37.0393, 0.654503, 20.5483, -160.568, -92.6083, 54.7918
3.16729, 2, -37.0393, 0.65449, 20.5483, -160.568, -92.6084, 54.7918
3.17529, 2, -37.0392, 0.654485, 20.5482, -160.568, -92.6084, 54.7919
3.18336, 2, -37.0392, 0.654494, 20.5482, -160.568, -92.6084, 54.7919
3.19129, 2, -37.0392, 0.654499, 20.5482, -160.568, -92.6084, 54.792
3.19933, 2, -37.0392, 0.654501, 20.5482, -160.568, -92.6083, 54.792
3.20741, 2, -37.0392, 0.654502, 20.5482, -160.568, -92.6084, 54.7921
3.2154, 2, -37.0392, 0.654502, 20.5482, -160.568, -92.6084, 54.7921
3.22341, 2, -37.0392, 0.654502, 20.5482, -160.568, -92.6084, 54.7922
3.23144, 2, -37.0392, 0.654502, 20.5482, -160.568, -92.6084, 54.7922
3.23942, 2, -37.0392, 0.654502, 20.5482, -160.568, -92.6084, 54.7922
3.24739, 2, -37.0392, 0.654503, 20.5482, -160.568, -92.6084, 54.7922
3.25546, 2, -37.0392, 0.654503, 20.5482, -160.568, -92.6084, 54.7923
3.26336, 2, -37.0392, 0.654503, 20.5482, -160.568, -92.6084, 54.7924
3.27132, 2, -37.0391, 0.654503, 20.5481, -160.568, -92.6084, 54.7924
3.2794, 2, -37.0391, 0.654503, 20.5481, -160.568, -92.6084, 54.7924
3.28744, 2, -37.0391, 0.654503, 20.5481, -160.568, -92.6084, 54.7924
3.29544, 2, -37.0391, 0.654503, 20.5481, -160.568, -92.6085, 54.7925
3.30369, 2, -37.0391, 0.654503, 20.5481, -160.568, -92.6085, 54.7925
3.31165, 2, -37.0391, 0.654503, 20.5481, -160.568, -92.6084, 54.7925
3.31963, 2, -37.0391, 0.654503, 20.5481, -160.568, -92.6085, 54.7925
3.3278, 2, -37.039, 0.654503, 20.548, -160.568, -92.6085, 54.7926
3.33645, 2, -37.039, 0.654503, 20.548, -160.568, -92.6084, 54.7926
3.34379, 2, -37.039, 0.654503, 20.548, -160.568, -92.6085, 54.7926
3.3524, 2, -37.039, 0.654503, 20.548, -160.568, -92.6085, 54.7926
3.3599, 2, -37.039, 0.654503, 20.548, -160.568, -92.6085, 54.7927
3.36839, 2, -37.0389, 0.654503, 20.548, -160.567, -92.6085, 54.7927
3.37598, 2, -37.0389, 0.654503, 20.548, -160.567, -92.6085, 54.7927
3.38443, 2, -37.0389, 0.654503, 20.548, -160.567, -92.6085, 54.7927
3.39131, 2, -37.0389, 0.654503, 20.548, -160.567, -92.6085, 54.7927
3.40042, 2, -37.0389, 0.654503, 20.548, -160.567, -92.6085, 54.7928
3.40729, 2, -37.0389, 0.654503, 20.548, -160.567, -92.6085, 54.7927
3.41528, 2, -37.0388, 0.654503, 20.548, -160.567, -92.6085, 54.7927
3.42447, 2, -37.0388, 0.654503, 20.548, -160.567, -92.6085, 54.7927
3.43128, 2, -37.0388, 0.654513, 20.548, -160.567, -92.6085, 54.7927
3.43929, 2, -37.0388, 0.654526, 20.548, -160.567, -92.6086, 54.7928
3.44877, 2, -37.0388, 0.654515, 20.5479, -160.567, -92.6085, 54.7928
3.45685, 2, -37.0388, 0.654519, 20.5479, -160.567, -92.6086, 54.7929
3.46477, 2, -37.0388, 0.654536, 20.5479, -160.567, -92.6086, 54.7929
3.47282, 2, -37.0387, 0.654518, 20.5479, -160.567, -92.6086, 54.7929
3.48091, 2, -37.0387, 0.65451, 20.5479, -160.567, -92.6086, 54.7929
3.48885, 2, -37.0388, 0.654506, 20.5479, -160.567, -92.6085, 54.7929
3.49534, 2, -37.0388, 0.654505, 20.5479, -160.567, -92.6085, 54.7929
3.50501, 2, -37.0388, 0.654504, 20.5479, -160.567, -92.6086, 54.793
3.51127, 2, -37.0388, 0.654503, 20.5479, -160.567, -92.6086, 54.793
3.51936, 2, -37.0387, 0.654514, 20.5479, -160.567, -92.6086, 54.793
3.52832, 2, -37.0387, 0.654515, 20.5478, -160.567, -92.6086, 54.793
3.53527, 2, -37.0387, 0.654527, 20.5479, -160.567, -92.6086, 54.793
3.54334, 2, -37.0387, 0.654525, 20.5479, -160.567, -92.6086, 54.793
3.55131, 2, -37.0387, 0.654531, 20.5478, -160.567, -92.6086, 54.793
3.55932, 2, -37.0387, 0.654523, 20.5478, -160.567, -92.6086, 54.7931
3.56734, 2, -37.0386, 0.654512, 20.5478, -160.567, -92.6087, 54.7931
3.57533, 2, -37.0386, 0.654507, 20.5478, -160.567, -92.6087, 54.7931
3.58328, 2, -37.0386, 0.654504, 20.5478, -160.567, -92.6087, 54.7931
3.59134, 2, -37.0386, 0.654503, 20.5478, -160.567, -92.6087, 54.7931
3.5993, 2, -37.0386, 0.654503, 20.5478, -160.567, -92.6086, 54.7931
3.60727, 2, -37.0386, 0.654514, 20.5478, -160.567, -92.6086, 54.7931
3.61534, 2, -37.0387, 0.654526, 20.5478, -160.567, -92.6086, 54.7931
3.62327, 2, -37.0386, 0.654521, 20.5478, -160.567, -92.6086, 54.7931
3.63129, 2, -37.0387, 0.65454, 20.5478, -160.567, -92.6086, 54.7931
3.63935, 2, -37.0386, 0.654538, 20.5478, -160.567, -92.6086, 54.7931
3.64861, 2, -37.0386, 0.654556, 20.5478, -160.567, -92.6086, 54.7931
3.65527, 2, -37.0386, 0.654564, 20.5477, -160.567, -92.6086, 54.7931
3.66334, 2, -37.0386, 0.654538, 20.5477, -160.567, -92.6086, 54.7932
3.67127, 2, -37.0386, 0.654537, 20.5477, -160.567, -92.6086, 54.7931
3.67929, 2, -37.0386, 0.654537, 20.5477, -160.567, -92.6086, 54.7931
3.68733, 2, -37.0386, 0.654518, 20.5477, -160.567, -92.6086, 54.7932
3.69528, 2, -37.0385, 0.654528, 20.5477, -160.567, -92.6087, 54.7932
3.70338, 2, -37.0385, 0.654544, 20.5477, -160.567, -92.6087, 54.7931
3.7114, 2, -37.0385, 0.65457, 20.5477, -160.567, -92.6087, 54.7932
3.7194, 2, -37.0385, 0.654559, 20.5477, -160.567, -92.6087, 54.7932
3.72736, 4, -37.0385, 0.654547, 20.5477, -160.567, -92.6087, 54.7932
3.73543, 4, -37.0385, 0.654523, 20.5477, -160.567, -92.6086, 54.7932
3.74339, 4, -37.0385, 0.654523, 20.5476, -160.567, -92.6086, 54.7932
3.75137, 4, -37.0385, 0.65453, 20.5477, -160.567, -92.6086, 54.7932
3.75945, 4, -37.0385, 0.654552, 20.5476, -160.567, -92.6086, 54.7932
3.7673, 4, -37.0385, 0.654562, 20.5476, -160.567, -92.6087, 54.7932
3.7753, 4, -37.0384, 0.654548, 20.5476, -160.567, -92.6087, 54.7932
3.78348, 4, -37.0384, 0.654542, 20.5476, -160.567, -92.6087, 54.7932
3.7914, 4, -37.0384, 0.654539, 20.5476, -160.567, -92.6086, 54.7931
3.79946, 4, -37.0384, 0.654556, 20.5476, -160.567, -92.6087, 54.7932
3.80759, 4, -37.0384, 0.654553, 20.5476, -160.567, -92.6086, 54.7932
3.81592, 4, -37.0384, 0.654526, 20.5475, -160.567, -92.6087, 54.7932
3.82432, 4, -37.0384, 0.654542, 20.5475, -160.567, -92.6087, 54.7932
3.85011, 4, -37.0384, 0.654528, 20.5475, -160.567, -92.6087, 54.7932
3.85686, 4, -37.0383, 0.654561, 20.5475, -160.567, -92.6087, 54.7932
3.8587, 4, -37.0383, 0.654561, 20.5475, -160.567, -92.6087, 54.7932
3.86133, 4, -37.0383, 0.654564, 20.5475, -160.567, -92.6087, 54.7932
3.86515, 4, -37.0383, 0.654566, 20.5475, -160.567, -92.6086, 54.7932
3.87454, 4, -37.0383, 0.654539, 20.5475, -160.567, -92.6087, 54.7932
3.88017, 4, -37.0375, 0.654397, 20.5476, -160.567, -92.6087, 54.7932
3.88727, 4, -37.0366, 0.654092, 20.5476, -160.567, -92.6087, 54.7932
3.8963, 4, -37.0292, 0.650533, 20.5486, -160.567, -92.6087, 54.7931
3.90472, 4, -37.0196, 0.644533, 20.5511, -160.567, -92.6087, 54.7931
3.91237, 4, -37.0062, 0.634924, 20.5566, -160.566, -92.6087, 54.7932
3.91929, 4, -36.9978, 0.628625, 20.5608, -160.565, -92.6087, 54.7932
3.92726, 5, -36.9768, 0.612591, 20.5733, -160.563, -92.6087, 54.7932
3.93654, 5, -36.935, 0.580267, 20.6038, -160.557, -92.6085, 54.7931
3.94326, 5, -36.9186, 0.567231, 20.6173, -160.554, -92.6083, 54.7931
3.95304, 5, -36.8621, 0.521563, 20.6681, -160.543, -92.6075, 54.7931
3.95925, 5, -36.8408, 0.503991, 20.6881, -160.539, -92.6069, 54.793
3.96884, 5, -36.7691, 0.444278, 20.7558, -160.523, -92.6049, 54.793
3.97548, 5, -36.7427, 0.422268, 20.7806, -160.518, -92.6041, 54.7929
3.98346, 5, -36.6864, 0.37559, 20.8321, -160.506, -92.6024, 54.7929
3.99127, 5, -36.6261, 0.326117, 20.8857, -160.494, -92.6007, 54.7929
4.0009, 5, -36.5619, 0.248122, 20.9682, -160.476, -92.5981, 54.7929
4.00884, 5, -36.4951, 0.221495, 20.9959, -160.469, -92.5963, 54.7929
4.01526, 5, -36.4273, 0.167886, 21.0513, -160.457, -92.5953, 54.7929
4.02513, 5, -36.3588, 0.11403, 21.1068, -160.445, -92.5925, 54.7929
4.03126, 5, -36.2901, 0.0600749, 21.1622, -160.433, -92.5915, 54.7929
4.03933, 5, -36.2213, 0.00628232, 21.2176, -160.421, -92.5896, 54.793
4.04946, 5, -36.1525, -0.0739948, 21.3007, -160.403, -92.5866, 54.7931
4.05993, 5, -36.0494, -0.127202, 21.356, -160.391, -92.5846, 54.7931
4.06332, 5, -36.0151, -0.153721, 21.3836, -160.384, -92.5837, 54.7932
4.07131, 5, -35.9464, -0.20661, 21.4389, -160.371, -92.5817, 54.7934
4.07928, 5, -35.8778, -0.259326, 21.4939, -160.358, -92.5797, 54.7937
4.08734, 5, -35.8089, -0.311949, 21.5489, -160.346, -92.5777, 54.7942
4.09524, 5, -35.7399, -0.364602, 21.6038, -160.333, -92.5757, 54.7949
4.10341, 5, -35.6707, -0.417223, 21.6586, -160.32, -92.5737, 54.7957
4.11126, 5, -35.6011, -0.469922, 21.7131, -160.308, -92.5716, 54.7968
4.11933, 5, -35.5314, -0.522662, 21.7674, -160.295, -92.5695, 54.798
4.12749, 5, -35.4614, -0.575423, 21.8216, -160.283, -92.5675, 54.7994
4.13631, 5, -35.3912, -0.628222, 21.8756, -160.27, -92.5654, 54.8009
4.14425, 5, -35.3207, -0.680914, 21.9296, -160.257, -92.5634, 54.8026
4.15242, 5, -35.2501, -0.733582, 21.9835, -160.244, -92.5614, 54.8043
4.15944, 5, -35.1796, -0.785923, 22.0371, -160.231, -92.5592, 54.8062
4.16727, 5, -35.109, -0.83809, 22.0908, -160.217, -92.5571, 54.8084
4.17539, 5, -35.0384, -0.89015, 22.1443, -160.204, -92.555, 54.8106
4.1867, 5, -34.9679, -0.967691, 22.2243, -160.184, -92.5517, 54.8141
4.19126, 5, -34.8974, -0.99345, 22.2509, -160.178, -92.5506, 54.8153
4.20145, 5, -34.8269, -1.04481, 22.3041, -160.165, -92.5485, 54.8179
4.20772, 5, -34.7563, -1.09614, 22.357, -160.152, -92.5463, 54.8205
4.21631, 5, -34.6856, -1.14751, 22.4098, -160.14, -92.544, 54.8233
4.22338, 5, -34.6146, -1.19873, 22.4624, -160.127, -92.5418, 54.8263
4.23164, 5, -34.5435, -1.2501, 22.5148, -160.114, -92.5396, 54.8292
4.23936, 5, -34.4723, -1.30143, 22.5671, -160.1, -92.5374, 54.8323
4.24739, 5, -34.4009, -1.35274, 22.6192, -160.086, -92.5351, 54.8356
4.25625, 5, -34.3293, -1.40404, 22.6713, -160.073, -92.5328, 54.8388
4.26529, 5, -34.2577, -1.45524, 22.7231, -160.059, -92.5306, 54.8423
4.27226, 5, -34.1858, -1.50623, 22.7749, -160.045, -92.5282, 54.8458
4.27936, 5, -34.1137, -1.55701, 22.8265, -160.032, -92.5259, 54.8495
4.2873, 5, -34.0415, -1.60761, 22.878, -160.018, -92.5237, 54.8533
4.29536, 5, -33.9692, -1.65797, 22.9295, -160.005, -92.5213, 54.8572
4.30381, 5, -33.8969, -1.7081, 22.9807, -159.991, -92.5191, 54.8612
4.31191, 5, -33.8247, -1.75809, 23.0319, -159.978, -92.5167, 54.8653
4.31972, 5, -33.7525, -1.80803, 23.0828, -159.964, -92.5145, 54.8694
4.32849, 5, -33.6803, -1.85787, 23.1336, -159.95, -92.5122, 54.8737
4.33739, 5, -33.6079, -1.90767, 23.1842, -159.935, -92.5099, 54.8779
4.34379, 5, -33.5353, -1.95768, 23.2347, -159.921, -92.5076, 54.8822
4.35242, 5, -33.4625, -2.00804, 23.2852, -159.907, -92.5053, 54.8861
4.36072, 5, -33.3897, -2.05873, 23.3355, -159.893, -92.503, 54.8892
4.36805, 5, -33.3172, -2.10988, 23.3859, -159.879, -92.5006, 54.8908
4.37637, 6, -33.2449, -2.16162, 23.4367, -159.864, -92.498, 54.8911
4.38546, 6, -33.209, -2.21422, 23.4878, -159.849, -92.495, 54.8895
4.39124, 6, -33.1373, -2.24087, 23.5135, -159.842, -92.4932, 54.8877
4.40097, 7, -33.0306, -2.32218, 23.5922, -159.817, -92.4864, 54.8745
4.4092, 7, -32.9599, -2.3778, 23.646, -159.799, -92.4803, 54.8605
4.4153, 7, -32.9248, -2.40605, 23.6734, -159.789, -92.4765, 54.8525
4.42326, 7, -32.8549, -2.46364, 23.7291, -159.769, -92.4677, 54.8354
4.43139, 7, -32.7855, -2.52273, 23.7862, -159.748, -92.457, 54.8179
4.44056, 7, -32.7169, -2.58334, 23.8743, -159.715, -92.4371, 54.7923
4.44725, 8, -32.6489, -2.64557, 23.9043, -159.703, -92.4296, 54.784
4.45543, 8, -32.5817, -2.70949, 23.9651, -159.678, -92.4131, 54.7672
4.46322, 8, -32.5151, -2.7751, 24.027, -159.651, -92.3947, 54.7497
4.47274, 8, -32.4167, -2.87647, 24.1217, -159.61, -92.3641, 54.7211
4.47924, 8, -32.3842, -2.911, 24.1538, -159.596, -92.3532, 54.7109
4.48972, 9, -32.2874, -3.01652, 24.2514, -159.553, -92.3191, 54.6774
4.49533, 9, -32.2554, -3.05234, 24.2845, -159.538, -92.3071, 54.6653
4.50515, 9, -32.1603, -3.16184, 24.3851, -159.49, -92.2692, 54.6267
4.5135, 9, -32.0975, -3.2364, 24.4534, -159.458, -92.2415, 54.5995
4.52086, 9, -32.0663, -3.27418, 24.488, -159.442, -92.2271, 54.5855
4.52825, 10, -32.0045, -3.35066, 24.5577, -159.408, -92.1975, 54.5561
4.53532, 10, -31.9434, -3.42857, 24.6286, -159.373, -92.1668, 54.525
4.54324, 10, -31.8828, -3.50792, 24.7006, -159.337, -92.1348, 54.4917
4.55354, 10, -31.793, -3.6295, 24.8104, -159.282, -92.0831, 54.4388
4.56199, 10, -31.7634, -3.71243, 24.8849, -159.244, -92.0472, 54.4022
4.56824, 11, -31.7044, -3.75442, 24.9226, -159.225, -92.0289, 54.3834
4.57915, 11, -31.6169, -3.8827, 25.0367, -159.165, -91.9722, 54.3241
4.58341, 11, -31.588, -3.92618, 25.0753, -159.145, -91.9522, 54.3033
4.59221, 11, -31.5305, -4.01422, 25.153, -159.104, -91.9112, 54.2607
4.60025, 11, -31.4737, -4.10377, 25.2319, -159.061, -91.8695, 54.2172
4.60827, 12, -31.4175, -4.19477, 25.3117, -159.018, -91.8262, 54.1722
4.61525, 12, -31.3617, -4.28716, 25.3927, -158.975, -91.7809, 54.1251
4.62334, 12, -31.3063, -4.38097, 25.4748, -158.929, -91.7349, 54.0761
4.63142, 12, -31.2516, -4.47609, 25.558, -158.883, -91.6877, 54.0264
4.63952, 12, -31.1974, -4.57254, 25.6421, -158.836, -91.6384, 53.9749
4.64724, 13, -31.1436, -4.67051, 25.7271, -158.788, -91.5884, 53.9214
4.65528, 13, -31.0902, -4.76982, 25.813, -158.739, -91.537, 53.8667
4.66329, 13, -31.0374, -4.87061, 25.9, -158.69, -91.4834, 53.8109
4.67124, 13, -30.9852, -4.97296, 25.9882, -158.639, -91.4295, 53.753
4.6794, 13, -30.9334, -5.07674, 26.0774, -158.588, -91.3737, 53.6937
4.68823, 14, -30.8822, -5.18195, 26.1677, -158.535, -91.3165, 53.6336
4.6954, 14, -30.8316, -5.28864, 26.2591, -158.481, -91.2587, 53.5714
4.7041, 14, -30.7817, -5.39678, 26.3513, -158.428, -91.1985, 53.5079
4.7121, 14, -30.7322, -5.50642, 26.4444, -158.373, -91.138, 53.4438
4.72026, 14, -30.6833, -5.61761, 26.5385, -158.316, -91.0755, 53.3771
4.72833, 14, -30.6349, -5.73027, 26.6337, -158.26, -91.0116, 53.3094
4.73538, 15, -30.5868, -5.84433, 26.7301, -158.201, -90.9466, 53.2407
4.74334, 15, -30.5394, -5.95957, 26.8276, -158.143, -90.8799, 53.1697
4.7535, 15, -30.4924, -6.07622, 26.9261, -158.083, -90.8127, 53.0981
4.7598, 15, -30.4459, -6.19438, 27.0256, -158.022, -90.7431, 53.0246
4.76725, 15, -30.3998, -6.31385, 27.1259, -157.961, -90.6729, 52.9492
4.77527, 16, -30.3543, -6.43494, 27.2271, -157.898, -90.6005, 52.8731
4.78336, 16, -30.3094, -6.55748, 27.3296, -157.835, -90.5279, 52.7945
4.79134, 16, -30.2648, -6.68141, 27.4333, -157.771, -90.4532, 52.7152
4.79944, 16, -30.2208, -6.80682, 27.538, -157.706, -90.3777, 52.6343
4.80777, 16, -30.1772, -6.93378, 27.6437, -157.64, -90.3004, 52.552
4.8155, 17, -30.1341, -7.06239, 27.7503, -157.573, -90.2221, 52.4686
4.82372, 17, -30.0917, -7.19256, 27.8576, -157.505, -90.1423, 52.3837
4.83203, 17, -30.0497, -7.32417, 27.966, -157.436, -90.0611, 52.298
4.83972, 17, -30.0083, -7.45702, 28.0756, -157.367, -89.9789, 52.2101
4.84833, 17, -29.9673, -7.59125, 28.1865, -157.296, -89.8951, 52.1217
4.85584, 18, -29.9269, -7.72698, 28.2984, -157.225, -89.8101, 52.0314
4.86442, 18, -29.8869, -7.86412, 28.4112, -157.152, -89.7236, 51.9402
4.87183, 18, -29.8474, -8.00265, 28.5247, -157.079, -89.6365, 51.8471
4.88048, 18, -29.8084, -8.14233, 28.6393, -157.005, -89.5477, 51.7532
4.88921, 18, -29.7698, -8.28336, 28.7551, -156.93, -89.4575, 51.6574
4.8952, 19, -29.7507, -8.35437, 28.8134, -156.892, -89.4122, 51.6094
4.90614, 19, -29.6941, -8.56982, 28.9902, -156.777, -89.274, 51.4629
4.91262, 19, -29.6568, -8.71544, 29.109, -156.7, -89.1801, 51.3642
4.92122, 19, -29.6201, -8.86232, 29.2287, -156.621, -89.0854, 51.2641
4.92723, 19, -29.6019, -8.93617, 29.2888, -156.581, -89.0376, 51.2139
4.93649, 20, -29.5481, -9.16005, 29.4709, -156.461, -88.8922, 51.0605
4.94322, 20, -29.5304, -9.23543, 29.5323, -156.421, -88.8433, 51.009
4.95131, 20, -29.4952, -9.38737, 29.6557, -156.339, -88.7449, 50.9047
4.96318, 20, -29.4435, -9.61754, 29.8424, -156.215, -88.5947, 50.7461
4.96725, 20, -29.4265, -9.69484, 29.9051, -156.173, -88.5443, 50.6928
4.97717, 21, -29.3762, -9.92869, 30.0946, -156.046, -88.391, 50.5307
4.98566, 21, -29.3431, -10.0865, 30.2222, -155.96, -88.2872, 50.4214
4.9913, 21, -29.3266, -10.166, 30.2864, -155.917, -88.2352, 50.3663
5.00162, 21, -29.2782, -10.4058, 30.4805, -155.787, -88.0771, 50.1998
5.00737, 21, -29.2623, -10.4862, 30.5456, -155.743, -88.0238, 50.144
5.01538, 21, -29.2307, -10.6481, 30.6764, -155.654, -87.9167, 50.0315
5.02329, 22, -29.1996, -10.8115, 30.8082, -155.564, -87.8085, 49.9182
5.03297, 22, -29.1687, -10.9761, 30.941, -155.474, -87.6992, 49.804
5.04306, 22, -29.1233, -11.2247, 31.1418, -155.337, -87.5336, 49.6308
5.04823, 22, -29.1084, -11.3081, 31.2092, -155.29, -87.4778, 49.5727
5.05601, 22, -29.0787, -11.4762, 31.3448, -155.197, -87.3656, 49.4557
5.06431, 23, -29.0494, -11.6459, 31.4812, -155.103, -87.2527, 49.3382
5.07127, 23, -29.0203, -11.8168, 31.6183, -155.009, -87.1385, 49.2197
5.08281, 23, -28.9777, -12.0746, 31.8255, -154.865, -86.9663, 49.0413
5.08738, 23, -28.9637, -12.1611, 31.8951, -154.817, -86.9083, 48.9816
5.09621, 23, -28.9359, -12.3353, 32.0348, -154.72, -86.7914, 48.8613
5.10492, 24, -28.9085, -12.5109, 32.1755, -154.621, -86.6739, 48.7407
5.11122, 24, -28.8813, -12.6868, 32.3169, -154.522, -86.5553, 48.6197
5.11923, 24, -28.8545, -12.8633, 32.4588, -154.422, -86.4361, 48.4978
5.12734, 24, -28.8283, -13.0415, 32.6017, -154.322, -86.3158, 48.3754
5.13639, 24, -28.8022, -13.2211, 32.7456, -154.22, -86.195, 48.2525
5.14331, 25, -28.7765, -13.4013, 32.8903, -154.118, -86.0734, 48.1291
5.15123, 25, -28.751, -13.5821, 33.0354, -154.015, -85.9509, 48.0056
5.15946, 25, -28.7257, -13.7642, 33.1812, -153.911, -85.8282, 47.8822
5.16911, 25, -28.7006, -13.9477, 33.3278, -153.807, -85.7041, 47.7583
5.17625, 25, -28.6758, -14.132, 33.4753, -153.701, -85.5799, 47.6344
5.18335, 26, -28.6514, -14.3165, 33.6234, -153.595, -85.4549, 47.5105
5.19147, 26, -28.6273, -14.5022, 33.7719, -153.488, -85.3293, 47.3861
5.19923, 26, -28.6035, -14.6895, 33.921, -153.38, -85.2033, 47.2617
5.20766, 26, -28.5798, -14.8774, 34.0712, -153.271, -85.0763, 47.1376
5.21625, 26, -28.5561, -15.0653, 34.222, -153.162, -84.9491, 47.0134
5.22333, 27, -28.5327, -15.254, 34.3732, -153.052, -84.8212, 46.8894
5.2317, 27, -28.5097, -15.4438, 34.5248, -152.942, -84.6929, 46.766
5.23936, 27, -28.4867, -15.634, 34.6772, -152.83, -84.564, 46.6426
5.2477, 27, -28.464, -15.8244, 34.8303, -152.718, -84.4347, 46.5195
5.25668, 27, -28.4416, -16.0159, 34.9838, -152.605, -84.305, 46.3969
5.26436, 28, -28.4192, -16.209, 35.1373, -152.492, -84.175, 46.2743
5.27203, 28, -28.3968, -16.4026, 35.2915, -152.378, -84.0445, 46.1521
5.28301, 28, -28.3746, -16.5966, 35.4465, -152.263, -83.9136, 46.0307
5.28843, 28, -28.3525, -16.7915, 35.6019, -152.148, -83.7827, 45.9099
5.29649, 28, -28.3304, -16.9874, 35.7574, -152.032, -83.651, 45.7898
5.30341, 28, -28.3083, -17.1832, 35.9132, -151.915, -83.5195, 45.6708
5.31234, 29, -28.2865, -17.3791, 36.0698, -151.797, -83.3874, 45.5525
5.31948, 29, -28.2647, -17.5758, 36.2268, -151.679, -83.2551, 45.4353
5.32843, 29, -28.2428, -17.7731, 36.3837, -151.561, -83.1224, 45.319
5.33644, 29, -28.2211, -17.9703, 36.5407, -151.442, -82.9896, 45.2034
5.3437, 29, -28.1996, -18.1677, 36.6984, -151.322, -82.8566, 45.0893
5.3526, 30, -28.178, -18.366, 36.8568, -151.202, -82.7234, 44.9762
5.36059, 30, -28.1564, -18.5646, 37.015, -151.081, -82.5903, 44.8645
5.36847, 30, -28.1348, -18.763, 37.173, -150.959, -82.4567, 44.7542
5.37584, 30, -28.1132, -18.962, 37.3314, -150.837, -82.3234, 44.6455
5.38441, 30, -28.0914, -19.1621, 37.4904, -150.715, -82.1894, 44.5388
5.39118, 31, -28.0804, -19.2622, 37.5698, -150.654, -82.1226, 44.4858
5.40024, 31, -28.0477, -19.562, 37.8078, -150.469, -81.9221, 44.3297
5.40806, 31, -28.0368, -19.662, 37.8871, -150.407, -81.7885, 44.2279
5.41672, 31, -28.015, -19.8623, 38.1262, -150.22, -81.6547, 44.1277
5.42324, 31, -27.993, -20.0627, 38.2061, -150.158, -81.5877, 44.078
5.43275, 32, -27.9599, -20.3626, 38.445, -149.97, -81.387, 43.9321
5.44056, 32, -27.9375, -20.5633, 38.6042, -149.844, -81.2532, 43.8373
5.44721, 32, -27.9262, -20.6639, 38.684, -149.78, -81.1863, 43.7907
5.45761, 32, -27.8923, -20.965, 38.9238, -149.59, -80.9853, 43.6536
5.46558, 32, -27.8694, -21.1653, 39.083, -149.462, -80.8517, 43.5653
5.47118, 33, -27.8579, -21.2657, 39.1625, -149.398, -80.7849, 43.522
5.48305, 33, -27.8228, -21.5663, 39.4013, -149.207, -80.5851, 43.3974
5.48917, 33, -27.7989, -21.7658, 39.5603, -149.079, -80.4522, 43.3178
5.49826, 33, -27.7745, -21.9651, 39.7183, -148.951, -80.32, 43.2418
5.5033, 33, -27.7622, -22.0649, 39.797, -148.887, -80.254, 43.2047
5.51285, 34, -27.7374, -22.2642, 40.0327, -148.695, -80.0565, 43.0993
5.52021, 34, -27.7121, -22.4624, 40.1113, -148.631, -79.9909, 43.0658
5.52823, 34, -27.6865, -22.6602, 40.2682, -148.503, -79.8596, 43.0004
5.53536, 34, -27.6605, -22.8581, 40.4243, -148.374, -79.7286, 42.9386
5.54327, 34, -27.6341, -23.0554, 40.5801, -148.246, -79.5975, 42.8802
5.55141, 35, -27.6071, -23.2517, 40.7361, -148.117, -79.4668, 42.8245
5.56029, 35, -27.58, -23.4481, 40.8918, -147.987, -79.3358, 42.7723
5.56728, 35, -27.5525, -23.6449, 41.0467, -147.858, -79.2055, 42.7241
5.57528, 35, -27.5246, -23.8411, 41.2011, -147.728, -79.0754, 42.6795
5.58337, 35, -27.4965, -24.0363, 41.3554, -147.598, -78.9454, 42.6381
5.59216, 36, -27.4679, -24.2314, 41.5095, -147.468, -78.8159, 42.6005
5.60025, 36, -27.4387, -24.4262, 41.6628, -147.338, -78.6863, 42.5673
5.60847, 36, -27.4093, -24.6199, 41.8153, -147.208, -78.5576, 42.5386
5.61855, 36, -27.3793, -24.909, 42.0435, -147.012, -78.3647, 42.5036
5.62334, 36, -27.3487, -25.0054, 42.1193, -146.947, -78.3008, 42.494
5.63217, 36, -27.3173, -25.1977, 42.2703, -146.817, -78.173, 42.4782
5.63921, 37, -27.285, -25.3889, 42.4202, -146.686, -78.0456, 42.4668
5.64726, 37, -27.2522, -25.5792, 42.5694, -146.556, -77.9187, 42.4602
5.6573, 37, -27.2186, -25.769, 42.7179, -146.427, -77.7919, 42.4571
5.66337, 37, -27.1842, -25.9578, 42.8657, -146.298, -77.6656, 42.4571
5.67127, 37, -27.1489, -26.1449, 43.0121, -146.169, -77.5395, 42.4625
5.6792, 38, -27.1128, -26.3306, 43.1573, -146.041, -77.4142, 42.4744
5.68829, 38, -27.076, -26.5158, 43.3017, -145.913, -77.2894, 42.4913
5.69532, 38, -27.0382, -26.6999, 43.4453, -145.786, -77.1651, 42.514
5.70322, 38, -26.9996, -26.8824, 43.5878, -145.659, -77.0414, 42.5421
5.71159, 38, -26.9602, -27.0639, 43.7291, -145.532, -76.918, 42.5763
5.7202, 39, -26.9202, -27.2452, 43.8696, -145.406, -76.7954, 42.6166
5.7273, 39, -26.8793, -27.4255, 44.0092, -145.28, -76.6725, 42.6629
5.73554, 39, -26.8375, -27.6043, 44.1481, -145.154, -76.5502, 42.7144
5.74426, 39, -26.7949, -27.7822, 44.2861, -145.028, -76.4278, 42.772
5.75134, 39, -26.7515, -27.96, 44.423, -144.903, -76.3055, 42.8365
5.75942, 40, -26.7072, -28.1367, 44.5589, -144.778, -76.1832, 42.9061
5.76721, 40, -26.6618, -28.3118, 44.6938, -144.653, -76.0611, 42.9828
5.77521, 40, -26.6155, -28.4854, 44.8275, -144.529, -75.9396, 43.0659
5.78404, 40, -26.5681, -28.6581, 44.9599, -144.406, -75.8179, 43.1549
5.7922, 40, -26.5196, -28.8293, 45.0907, -144.284, -75.6973, 43.2513
5.79936, 41, -26.47, -28.9984, 45.2201, -144.162, -75.577, 43.3539
5.80846, 41, -26.4192, -29.1656, 45.3479, -144.042, -75.4571, 43.4634
5.81973, 41, -26.367, -29.4143, 45.5367, -143.864, -75.2784, 43.64
5.82432, 41, -26.3136, -29.4965, 45.5989, -143.805, -75.219, 43.7025
5.83265, 41, -26.2589, -29.6592, 45.7218, -143.688, -75.101, 43.8328
5.84046, 42, -26.2028, -29.8201, 45.843, -143.573, -74.9832, 43.9705
5.84855, 42, -26.1452, -29.9795, 45.9625, -143.459, -74.8658, 44.1154
5.85572, 42, -26.0863, -30.1373, 46.0802, -143.346, -74.7492, 44.2674
5.86462, 42, -26.0258, -30.2931, 46.1961, -143.235, -74.6325, 44.4268
5.87177, 42, -25.9641, -30.4465, 46.3103, -143.125, -74.5165, 44.5935
5.88052, 43, -25.9007, -30.5979, 46.4225, -143.017, -74.401, 44.7677
5.89024, 43, -25.8357, -30.7474, 46.5327, -142.911, -74.2857, 44.9498
5.89626, 43, -25.7692, -30.8948, 46.6407, -142.806, -74.171, 45.1397
5.90321, 43, -25.7352, -30.9676, 46.6939, -142.755, -74.1138, 45.2376
5.9121, 43, -25.6663, -31.1114, 46.7989, -142.603, -73.9427, 45.5426
5.91918, 43, -25.5955, -31.2529, 46.9019, -142.553, -73.886, 45.6481
5.92917, 44, -25.4862, -31.461, 47.0521, -142.408, -73.7164, 45.9761
5.93535, 44, -25.4487, -31.5292, 47.1009, -142.361, -73.6602, 46.0895
5.94609, 44, -25.3335, -31.7302, 47.2436, -142.222, -73.492, 46.4418
5.95121, 44, -25.2941, -31.7958, 47.29, -142.177, -73.4361, 46.5633
5.95922, 44, -25.214, -31.9248, 47.3808, -142.089, -73.3252, 46.8123
5.96945, 45, -25.0904, -32.1133, 47.5125, -141.963, -73.1595, 47.2017
5.97521, 45, -25.0482, -32.1747, 47.5551, -141.922, -73.1047, 47.3358
5.98514, 45, -24.9185, -32.3548, 47.6787, -141.804, -72.9414, 47.7501
5.99139, 45, -24.8742, -32.4133, 47.7184, -141.766, -72.8871, 47.8923
5.99919, 45, -24.7839, -32.528, 47.7955, -141.693, -72.7796, 48.183
6.00797, 46, -24.6912, -32.6395, 47.8696, -141.623, -72.6728, 48.4826
6.01521, 46, -24.5963, -32.7477, 47.9408, -141.556, -72.5667, 48.7904
6.0242, 46, -24.4988, -32.8526, 48.009, -141.493, -72.4617, 49.1065
6.03479, 46, -24.3486, -33.0032, 48.1054, -141.406, -72.3054, 49.5974
6.03934, 46, -24.2974, -33.0515, 48.1358, -141.379, -72.2539, 49.7651
6.04751, 47, -24.1931, -33.1454, 48.194, -141.327, -72.1518, 50.1065
6.05619, 47, -24.0865, -33.2353, 48.2486, -141.28, -72.0505, 50.4563
6.06631, 47, -23.9217, -33.3623, 48.3237, -141.216, -71.9007, 50.9969
6.07132, 47, -23.8654, -33.4025, 48.3468, -141.198, -71.8512, 51.1812
6.07923, 47, -23.7507, -33.4799, 48.3901, -141.164, -71.7532, 51.5563
6.08735, 48, -23.6331, -33.5529, 48.4295, -141.135, -71.6565, 51.9397
6.09618, 48, -23.5128, -33.6213, 48.4648, -141.11, -71.5616, 52.3308
6.10424, 48, -23.3898, -33.6851, 48.4959, -141.089, -71.468, 52.7308
6.11219, 48, -23.2646, -33.7441, 48.523, -141.074, -71.3762, 53.1393
6.12027, 48, -23.1366, -33.798, 48.5458, -141.064, -71.2866, 53.5557
6.12817, 49, -23.0058, -33.8468, 48.5643, -141.059, -71.1988, 53.9809
6.13641, 49, -22.8721, -33.8905, 48.5784, -141.058, -71.1126, 54.4136
6.1438, 49, -22.7354, -33.9287, 48.5878, -141.062, -71.0288, 54.8539
6.15219, 49, -22.5959, -33.9612, 48.5925, -141.073, -70.9469, 55.3023
6.16037, 49, -22.4536, -33.9882, 48.5929, -141.09, -70.8674, 55.7586
6.16735, 50, -22.3085, -34.0092, 48.5883, -141.113, -70.7903, 56.2234
6.17522, 50, -22.1606, -34.0241, 48.5786, -141.142, -70.7163, 56.6956
6.18513, 50, -22.0103, -34.0328, 48.5637, -141.177, -70.6449, 57.1764
6.19229, 50, -21.857, -34.0355, 48.5435, -141.218, -70.5771, 57.6658
6.19929, 50, -21.7007, -34.0322, 48.5179, -141.266, -70.5121, 58.1632
6.20742, 51, -21.5412, -34.0222, 48.4867, -141.32, -70.4515, 58.6673
6.21546, 51, -21.3789, -34.0055, 48.4503, -141.38, -70.3935, 59.1769
6.22334, 51, -21.2139, -33.9821, 48.4085, -141.447, -70.3396, 59.6926
6.23128, 51, -21.0464, -33.9515, 48.3612, -141.519, -70.2893, 60.2128
6.24042, 51, -20.8764, -33.914, 48.3085, -141.597, -70.2421, 60.7383
6.24845, 51, -20.7041, -33.869, 48.2501, -141.682, -70.1993, 61.2682
6.25543, 52, -20.529, -33.8161, 48.1858, -141.773, -70.1613, 61.8045
6.26353, 52, -20.3512, -33.7553, 48.1154, -141.87, -70.1276, 62.3478
6.27305, 52, -20.1703, -33.6863, 48.0388, -141.974, -70.0985, 62.8986
6.2802, 52, -19.9867, -33.6088, 47.9557, -142.084, -70.0748, 63.456
6.28801, 52, -19.8005, -33.5228, 47.8659, -142.201, -70.0567, 64.0209
6.29565, 53, -19.612, -33.428, 47.7697, -142.324, -70.0443, 64.5926
6.30346, 53, -19.4215, -33.3246, 47.667, -142.454, -70.0376, 65.1705
6.3122, 53, -19.229, -33.2131, 47.5582, -142.59, -70.0359, 65.7525
6.31948, 53, -19.0344, -33.093, 47.4432, -142.732, -70.0396, 66.3391
6.32748, 53, -18.8381, -32.9644, 47.3222, -142.879, -70.0496, 66.9288
6.33857, 54, -18.6401, -32.8274, 47.1951, -143.031, -70.0658, 67.5201
6.34405, 54, -18.4401, -32.682, 47.0624, -143.187, -70.0887, 68.1121
6.35222, 54, -18.2381, -32.5285, 46.9243, -143.348, -70.1184, 68.7054
6.35979, 54, -18.0346, -32.3669, 46.7807, -143.513, -70.154, 69.2997
6.36877, 54, -17.83, -32.1966, 46.6315, -143.683, -70.1959, 69.8947
6.37576, 55, -17.6248, -32.0173, 46.4765, -143.856, -70.2458, 70.4914
6.38429, 55, -17.4184, -31.8291, 46.3157, -144.035, -70.303, 71.0916
6.39179, 55, -17.3147, -31.7316, 46.2331, -144.126, -70.3674, 71.6955
6.40021, 55, -17.0013, -31.4245, 45.9747, -144.406, -70.4409, 72.3024
6.40718, 55, -16.896, -31.3169, 45.8849, -144.501, -70.4805, 72.6076
6.41672, 56, -16.5779, -30.9787, 45.6057, -144.795, -70.6133, 73.5293
6.42638, 56, -16.364, -30.7406, 45.4111, -144.996, -70.7128, 74.1483
6.43241, 56, -16.1492, -30.4912, 45.2083, -145.202, -70.8218, 74.7699
6.44099, 56, -15.9345, -30.2314, 44.9986, -145.411, -70.9404, 75.395
6.44878, 56, -15.8272, -29.9609, 44.783, -145.623, -71.0684, 76.0224
6.45653, 57, -15.5044, -29.6794, 44.5595, -145.839, -71.2064, 76.6514
6.46318, 57, -15.3962, -29.5349, 44.445, -145.948, -71.2789, 76.9661
6.47123, 57, -15.1788, -29.2381, 44.2115, -146.168, -71.4315, 77.5972
6.4815, 57, -14.8516, -28.7741, 43.8488, -146.501, -71.6791, 78.545
6.48727, 57, -14.7427, -28.615, 43.7249, -146.613, -71.7666, 78.8601
6.5014, 58, -14.3085, -27.959, 43.2185, -147.061, -72.1379, 80.1158
6.50363, 58, -14.3085, -27.959, 43.2185, -147.061, -72.1379, 80.1158
6.51276, 58, -14.0931, -27.6193, 42.829, -147.395, -72.4366, 81.0451
6.5216, 58, -13.8793, -27.2725, 42.5655, -147.616, -72.6446, 81.6566
6.52719, 58, -13.6669, -26.9185, 42.4327, -147.725, -72.7512, 81.96
6.53528, 58, -13.4558, -26.5582, 42.1656, -147.943, -72.9693, 82.5619
6.54423, 59, -13.2461, -26.1911, 41.8948, -148.158, -73.1945, 83.1577
6.55119, 59, -13.0382, -25.8175, 41.6206, -148.371, -73.4272, 83.748
6.5593, 59, -12.8322, -25.437, 41.3431, -148.582, -73.6678, 84.3345
6.56735, 59, -12.6273, -25.0503, 41.0618, -148.792, -73.9165, 84.917
6.57616, 59, -12.4233, -24.656, 40.777, -149, -74.174, 85.4955
6.58321, 60, -12.2205, -24.2547, 40.4876, -149.206, -74.44, 86.0701
6.59119, 60, -12.0192, -23.8461, 40.195, -149.41, -74.7145, 86.6414
6.59926, 60, -11.8193, -23.4314, 39.8991, -149.612, -74.9973, 87.2088
6.60719, 60, -11.6212, -23.0099, 39.6008, -149.811, -75.2881, 87.7708
6.6154, 60, -11.425, -22.583, 39.3005, -150.007, -75.5862, 88.3277
6.62423, 61, -11.2313, -22.1519, 38.9985, -150.199, -75.8908, 88.8784
6.63219, 61, -11.0399, -21.7163, 38.6953, -150.387, -76.2011, 89.4219
6.64046, 61, -10.8504, -21.2766, 38.3907, -150.57, -76.5163, 89.9564
6.65198, 61, -10.5704, -20.6097, 37.9331, -150.836, -76.9986, 90.7424
6.65617, 61, -10.4782, -20.3853, 37.7802, -150.923, -77.1617, 91.0001
6.66419, 62, -10.2956, -19.9337, 37.4745, -151.092, -77.4914, 91.5094
6.67119, 62, -10.1159, -19.4787, 37.1678, -151.256, -77.8264, 92.0107
6.67919, 62, -9.93879, -19.0206, 36.8606, -151.416, -78.1669, 92.5042
6.69075, 62, -9.6781, -18.328, 36.3976, -151.647, -78.688, 93.2317
6.69538, 62, -9.59231, -18.0959, 36.2432, -151.722, -78.8644, 93.4703
6.70343, 63, -9.42236, -17.6307, 35.9343, -151.869, -79.2207, 93.9418
6.7114, 63, -9.25471, -17.1638, 35.6263, -152.01, -79.5813, 94.4038
6.7192, 63, -9.08937, -16.6957, 35.3196, -152.146, -79.9454, 94.8561
6.72744, 63, -8.92659, -16.2261, 35.0141, -152.276, -80.3126, 95.2987
6.73527, 63, -8.76649, -15.7549, 34.7103, -152.401, -80.6819, 95.73
6.74346, 64, -8.60906, -15.2831, 34.4086, -152.52, -81.0531, 96.1509
6.75219, 64, -8.45432, -14.8111, 34.1099, -152.634, -81.4259, 96.5599
6.7593, 64, -8.30216, -14.3388, 33.8123, -152.742, -81.8003, 96.9574
6.76781, 64, -8.15253, -13.8673, 33.517, -152.844, -82.1764, 97.3438
6.77624, 64, -8.00543, -13.3966, 33.2233, -152.941, -82.5539, 97.7184
6.78326, 64, -7.86087, -12.9274, 32.9321, -153.033, -82.9329, 98.0807
6.79234, 65, -7.71894, -12.4604, 32.6436, -153.119, -83.3129, 98.4311
6.79963, 65, -7.5798, -11.9948, 32.3579, -153.199, -83.6937, 98.7682
6.80822, 65, -7.44391, -11.5309, 32.0762, -153.273, -84.0748, 99.0916
6.8173, 65, -7.31071, -11.0683, 31.7976, -153.342, -84.456, 99.4018
6.82511, 65, -7.18027, -10.6072, 31.5228, -153.404, -84.8375, 99.6983
6.83237, 66, -7.05226, -10.1489, 31.2508, -153.462, -85.2186, 99.9802
6.83955, 66, -6.92633, -9.6934, 30.9824, -153.513, -85.5999, 100.247
6.84775, 66, -6.80241, -9.24243, 30.7181, -153.559, -85.9809, 100.499
6.85629, 66, -6.68066, -8.79675, 30.4567, -153.6, -86.3606, 100.735
6.8637, 66, -6.56129, -8.35606, 30.1999, -153.635, -86.7382, 100.954
6.87246, 67, -6.44442, -7.92138, 29.9482, -153.665, -87.1124, 101.156
6.87992, 67, -6.33042, -7.49226, 29.7022, -153.689, -87.4825, 101.341
6.88835, 67, -6.21919, -7.06871, 29.4633, -153.707, -87.8475, 101.508
6.89605, 67, -6.16457, -6.85874, 29.2306, -153.719, -88.2072, 101.657
6.90417, 67, -6.00432, -6.23849, 29.004, -153.727, -88.5619, 101.788
6.91125, 68, -5.95199, -6.03489, 28.8932, -153.729, -88.7376, 101.847
6.92027, 68, -5.79784, -5.43364, 28.5678, -153.729, -89.2597, 101.998
6.92722, 68, -5.74731, -5.23613, 28.4614, -153.726, -89.4324, 102.04
6.93642, 68, -5.59842, -4.65292, 28.1485, -153.712, -89.9478, 102.137
6.9433, 68, -5.54965, -4.46171, 28.0462, -153.705, -90.1188, 102.161
6.95139, 69, -5.45345, -4.08336, 27.8439, -153.688, -90.4592, 102.194
6.96063, 69, -5.31261, -3.52402, 27.5494, -153.654, -90.9659, 102.211
6.96863, 69, -5.22097, -3.15626, 27.359, -153.625, -91.3004, 102.199
6.97517, 69, -5.17586, -2.97399, 27.2651, -153.609, -91.4668, 102.186
6.98469, 69, -5.04304, -2.43187, 26.9894, -153.556, -91.9622, 102.114
6.99304, 70, -4.95649, -2.0744, 26.8109, -153.516, -92.2904, 102.04
6.99931, 70, -4.9136, -1.89711, 26.7229, -153.494, -92.4542, 101.995
7.00875, 70, -4.78651, -1.37193, 26.4625, -153.424, -92.9457, 101.825
7.01935, 70, -4.70303, -1.02787, 26.2933, -153.374, -93.2735, 101.683
7.02332, 70, -4.66169, -0.857611, 26.21, -153.347, -93.4374, 101.603
7.03114, 71, -4.5797, -0.521606, 26.0455, -153.291, -93.7647, 101.426
7.03927, 71, -4.4987, -0.190997, 25.8844, -153.234, -94.0902, 101.228
7.04817, 71, -4.41879, 0.133584, 25.7282, -153.172, -94.4132, 101.007
7.05616, 71, -4.33992, 0.452759, 25.5775, -153.109, -94.7322, 100.765
7.06318, 71, -4.26197, 0.766827, 25.4318, -153.043, -95.0473, 100.503
7.07132, 71, -4.18496, 1.07409, 25.2909, -152.976, -95.358, 100.221
7.08015, 72, -4.10846, 1.37499, 25.1545, -152.907, -95.6649, 99.9191
7.0872, 72, -4.03204, 1.66853, 25.0221, -152.836, -95.9684, 99.5965
7.09523, 72, -3.95582, 1.95503, 24.8932, -152.764, -96.2692, 99.2533
7.1032, 72, -3.87962, 2.2348, 24.7674, -152.691, -96.5672, 98.8896
7.11116, 72, -3.80332, 2.50729, 24.6449, -152.618, -96.8625, 98.5047
7.11938, 73, -3.72721, 2.77342, 24.5256, -152.544, -97.1547, 98.0985
7.12732, 73, -3.65115, 3.03277, 24.4101, -152.471, -97.4434, 97.672
7.13616, 73, -3.57489, 3.28516, 24.2985, -152.397, -97.7284, 97.2244
7.14356, 73, -3.49845, 3.5312, 24.1911, -152.324, -98.0092, 96.7582
7.15302, 73, -3.42162, 3.77022, 24.0879, -152.253, -98.2857, 96.2727
7.16016, 74, -3.34414, 4.00084, 23.9888, -152.182, -98.5577, 95.769
7.16906, 74, -3.26593, 4.22327, 23.8935, -152.112, -98.8247, 95.2477
7.17616, 74, -3.187, 4.43722, 23.8021, -152.045, -99.0868, 94.711
7.18324, 74, -3.10738, 4.64145, 23.7145, -151.979, -99.3432, 94.1602
7.19116, 74, -3.02704, 4.83609, 23.631, -151.915, -99.5935, 93.5956
7.20026, 75, -2.94585, 5.02168, 23.5516, -151.854, -99.8364, 93.0195
7.20726, 75, -2.86369, 5.1975, 23.4761, -151.796, -100.072, 92.4336
7.21517, 75, -2.78045, 5.3626, 23.4046, -151.741, -100.298, 91.8393
7.22432, 75, -2.69628, 5.51727, 23.337, -151.689, -100.515, 91.2366
7.23141, 75, -2.61115, 5.66145, 23.2735, -151.64, -100.724, 90.6267
7.23931, 76, -2.52508, 5.79443, 23.2143, -151.594, -100.922, 90.0099
7.24733, 76, -2.43816, 5.9159, 23.1594, -151.553, -101.112, 89.3852
7.25529, 76, -2.35035, 6.02553, 23.109, -151.516, -101.291, 88.7522
7.26366, 76, -2.26176, 6.12298, 23.0628, -151.482, -101.461, 88.1119
7.27202, 76, -2.17234, 6.20783, 23.0213, -151.451, -101.62, 87.4659
7.27952, 77, -2.08194, 6.27969, 22.9848, -151.425, -101.768, 86.8144
7.28787, 77, -1.99065, 6.33839, 22.9535, -151.404, -101.903, 86.1613
7.29723, 77, -1.89847, 6.3836, 22.9278, -151.386, -102.025, 85.5094
7.30413, 77, -1.80543, 6.41454, 22.9078, -151.372, -102.133, 84.8588
7.31133, 77, -1.7116, 6.43127, 22.8937, -151.362, -102.225, 84.211
7.32068, 78, -1.61702, 6.43348, 22.8854, -151.356, -102.303, 83.5676
7.3293, 78, -1.52175, 6.4205, 22.8828, -151.353, -102.365, 82.9282
7.33616, 78, -1.42575, 6.39216, 22.8858, -151.352, -102.412, 82.2919
7.34759, 78, -1.28104, 6.31994, 22.9019, -151.358, -102.452, 81.3469
7.352, 78, -1.23263, 6.28772, 22.9104, -151.362, -102.458, 81.0347
7.35977, 78, -1.1357, 6.21097, 22.9326, -151.372, -102.457, 80.4142
7.36863, 79, -1.03862, 6.11784, 22.9618, -151.385, -102.438, 79.8003
7.37579, 79, -0.941398, 6.00848, 22.9984, -151.402, -102.4, 79.1946
7.38466, 79, -0.844302, 5.88281, 23.0425, -151.421, -102.346, 78.5979
7.39175, 79, -0.795782, 5.81376, 23.0943, -151.443, -102.273, 78.0104
7.40016, 79, -0.650244, 5.58188, 23.1537, -151.468, -102.183, 77.4332
7.40715, 80, -0.601743, 5.49637, 23.1862, -151.481, -102.131, 77.149
7.41515, 80, -0.504746, 5.31313, 23.257, -151.509, -102.012, 76.5897
7.42331, 80, -0.407761, 5.11352, 23.3356, -151.537, -101.875, 76.0415
7.43278, 80, -0.310861, 4.89706, 23.4687, -151.583, -101.635, 75.2399
7.44036, 80, -0.165695, 4.53858, 23.5678, -151.615, -101.452, 74.7193
7.44729, 81, -0.117381, 4.41061, 23.6206, -151.632, -101.354, 74.4632
7.45654, 81, -0.0209624, 4.14261, 23.7921, -151.683, -101.029, 73.7084
7.46315, 81, 0.0751682, 3.8578, 23.8539, -151.7, -100.912, 73.4617
7.47357, 81, 0.21892, 3.40071, 24.0533, -151.754, -100.531, 72.7356
7.48217, 81, 0.314498, 3.07489, 24.1983, -151.791, -100.254, 72.264
7.48925, 82, 0.409953, 2.73276, 24.3527, -151.827, -99.958, 71.8018
7.49515, 82, 0.457612, 2.55539, 24.4332, -151.846, -99.803, 71.5743
7.50493, 82, 0.600319, 1.9999, 24.6882, -151.901, -99.3111, 70.907
7.51294, 82, 0.647776, 1.80645, 24.8702, -151.937, -98.9612, 70.4741
7.52075, 82, 0.742616, 1.40693, 24.9646, -151.955, -98.5941, 70.0516
7.53029, 83, 0.884759, 0.777336, 25.2618, -152.007, -98.2098, 69.6382
7.53613, 83, 0.932101, 0.55991, 25.3661, -152.025, -98.0113, 69.4347
7.54423, 83, 1.02674, 0.113565, 25.583, -152.059, -97.6019, 69.0347
7.55462, 83, 1.1689, -0.584577, 25.9261, -152.108, -96.9564, 68.4504
7.56038, 83, 1.21634, -0.824802, 26.0454, -152.123, -96.7329, 68.2595
7.5681, 84, 1.31129, -1.31678, 26.2923, -152.154, -96.2738, 67.8845
7.57615, 84, 1.40652, -1.823, 26.5495, -152.184, -95.7981, 67.5172
7.58421, 84, 1.50198, -2.34276, 26.8176, -152.212, -95.3065, 67.1569
7.59215, 84, 1.59775, -2.87661, 27.0961, -152.239, -94.7984, 66.8042
7.60016, 84, 1.69393, -3.42434, 27.3849, -152.264, -94.2749, 66.4588
7.61239, 85, 1.83898, -4.27072, 27.8373, -152.297, -93.4624, 65.955
7.6161, 85, 1.88749, -4.55899, 27.9929, -152.308, -93.1842, 65.7913
7.62319, 85, 1.98479, -5.1434, 28.3116, -152.327, -92.6172, 65.4704
7.6352, 85, 2.13162, -6.03839, 28.8057, -152.351, -91.7466, 65.0049
7.63935, 85, 2.18089, -6.34102, 28.9748, -152.358, -91.4514, 64.8543
7.64836, 86, 2.27992, -6.95166, 29.3189, -152.369, -90.8539, 64.5608
7.65523, 86, 2.37955, -7.56882, 29.6706, -152.378, -90.2475, 64.2771
7.66329, 86, 2.48002, -8.19144, 30.0289, -152.383, -89.6324, 64.0043
7.67212, 86, 2.58146, -8.81992, 30.3935, -152.386, -89.0098, 63.7423
7.67927, 86, 2.68361, -9.45408, 30.7636, -152.387, -88.3831, 63.4922
7.68716, 86, 2.78691, -10.0925, 31.1388, -152.384, -87.7524, 63.2537
7.69516, 87, 2.89129, -10.7348, 31.5199, -152.378, -87.1155, 63.0266
7.70322, 87, 2.99624, -11.3801, 31.9058, -152.368, -86.4731, 62.8116
7.71169, 87, 3.10225, -12.0284, 32.2967, -152.354, -85.8252, 62.6085
7.71922, 87, 3.20896, -12.6791, 32.6927, -152.336, -85.1724, 62.418
7.72727, 87, 3.3161, -13.3325, 33.0942, -152.315, -84.5158, 62.2401
7.73524, 88, 3.42405, -13.9884, 33.501, -152.289, -83.8535, 62.075
7.74324, 88, 3.53266, -14.647, 33.9126, -152.26, -83.1858, 61.9232
7.7513, 88, 3.64182, -15.3069, 34.3291, -152.227, -82.5138, 61.7851
7.76495, 88, 3.80648, -16.2965, 34.9615, -152.167, -81.4991, 61.6059
7.76827, 88, 3.8615, -16.6259, 35.1741, -152.145, -81.16, 61.5538
7.77543, 89, 3.97178, -17.2827, 35.6012, -152.098, -80.4815, 61.4626
7.78414, 89, 4.08245, -17.9368, 36.0296, -152.045, -79.8026, 61.3893
7.79418, 89, 4.19346, -18.5871, 36.4583, -151.987, -79.1233, 61.3342
7.8003, 89, 4.30487, -19.2342, 36.8874, -151.925, -78.4444, 61.2988
7.80728, 89, 4.41658, -19.8769, 37.3155, -151.856, -77.77, 61.2827
7.81531, 90, 4.52853, -20.5148, 37.7424, -151.783, -77.0993, 61.2871
7.82369, 90, 4.6411, -21.1484, 38.169, -151.704, -76.4297, 61.3153
7.83141, 90, 4.75371, -21.7774, 38.5952, -151.619, -75.7611, 61.3669
7.83957, 90, 4.86612, -22.4025, 39.0212, -151.528, -75.0938, 61.442
7.84833, 90, 4.9781, -23.0238, 39.4476, -151.432, -74.4295, 61.5433
7.85627, 91, 5.08972, -23.6423, 39.8742, -151.329, -73.7652, 61.671
7.86377, 91, 5.20105, -24.2571, 40.3012, -151.219, -73.1, 61.8268
7.8723, 91, 5.31185, -24.8671, 40.7284, -151.102, -72.4343, 62.0118
7.88065, 91, 5.42199, -25.4721, 41.1549, -150.978, -71.7677, 62.2268
7.88826, 91, 5.53158, -26.0704, 41.5806, -150.848, -71.101, 62.4723
7.89711, 92, 5.64068, -26.6614, 42.0045, -150.711, -70.4368, 62.7495
7.90415, 92, 5.74994, -27.2444, 42.4258, -150.568, -69.7746, 63.0585
7.9112, 92, 5.80475, -27.5323, 42.6349, -150.495, -69.4447, 63.2245
7.92124, 92, 5.97018, -28.3818, 43.254, -150.267, -68.461, 63.7698
7.92722, 92, 6.02571, -28.6598, 43.4576, -150.189, -68.1351, 63.9673
7.93514, 92, 6.13765, -29.2068, 43.859, -150.031, -67.4893, 64.3852
7.94315, 93, 6.25104, -29.7419, 44.2534, -149.87, -66.851, 64.8346
7.95314, 93, 6.42461, -30.5228, 44.8313, -149.626, -65.904, 65.5669
7.95914, 93, 6.48362, -30.7781, 45.0207, -149.544, -65.5908, 65.8267
7.96854, 93, 6.66387, -31.5321, 45.5805, -149.299, -64.6563, 66.6567
7.97724, 93, 6.78701, -32.0269, 45.9474, -149.135, -64.0358, 67.257
7.98316, 94, 6.84941, -32.2725, 46.1297, -149.052, -63.725, 67.5727
7.99275, 94, 7.04012, -33.002, 46.6731, -148.805, -62.7843, 68.5917
8.00245, 94, 7.16962, -33.48, 47.0335, -148.64, -62.1495, 69.3359
8.00713, 94, 7.23522, -33.7162, 47.2129, -148.558, -61.8296, 69.7275
8.01678, 94, 7.36879, -34.4142, 47.746, -148.319, -60.8606, 70.9811
8.02464, 95, 7.50624, -34.6427, 47.9206, -148.242, -60.5371, 71.4258
8.03284, 95, 7.64856, -35.092, 48.2638, -148.096, -59.5703, 72.8249
8.04018, 95, 7.79677, -35.5311, 48.5963, -147.961, -59.2506, 73.3117
8.04816, 95, 7.95135, -35.9571, 48.9168, -147.84, -58.6165, 74.3139
8.05613, 95, 8.1129, -36.3662, 49.2223, -147.735, -57.9905, 75.3497
8.06411, 96, 8.28128, -36.7562, 49.5125, -147.649, -57.3739, 76.4201
8.07219, 96, 8.45635, -37.1255, 49.786, -147.581, -56.7713, 77.5213
8.08021, 96, 8.63715, -37.4718, 50.043, -147.533, -56.1817, 78.6538
8.08721, 96, 8.82295, -37.7934, 50.2833, -147.506, -55.6058, 79.8114
8.09516, 96, 9.01309, -38.0891, 50.5044, -147.499, -55.0467, 80.9879
8.10322, 96, 9.20627, -38.3598, 50.7059, -147.513, -54.5078, 82.176
8.11114, 97, 9.40094, -38.6052, 50.888, -147.549, -53.9922, 83.3731
8.11913, 97, 9.59603, -38.8259, 51.0493, -147.606, -53.5026, 84.5721
8.1272, 97, 9.79057, -39.0226, 51.1901, -147.683, -53.0405, 85.7618
8.13513, 97, 9.98382, -39.1947, 51.3113, -147.777, -52.6082, 86.936
8.14314, 97, 10.1747, -39.3407, 51.4131, -147.886, -52.2057, 88.0901
8.15113, 97, 10.3622, -39.4609, 51.4959, -148.008, -51.8333, 89.2195
8.15911, 98, 10.5465, -39.5559, 51.5606, -148.142, -51.4907, 90.3177
8.1672, 98, 10.7284, -39.6266, 51.6075, -148.285, -51.1772, 91.3871
8.17514, 98, 10.9086, -39.6745, 51.6371, -148.439, -50.8907, 92.4355
8.18319, 98, 11.0874, -39.6995, 51.6495, -148.604, -50.628, 93.4749
8.19113, 98, 11.2643, -39.7013, 51.6452, -148.782, -50.3865, 94.5176
8.19923, 98, 11.44, -39.6797, 51.6236, -148.973, -50.1643, 95.5726
8.20715, 98, 11.6157, -39.6342, 51.5841, -149.177, -49.962, 96.647
8.21517, 99, 11.791, -39.5653, 51.5268, -149.394, -49.7806, 97.7399
8.22416, 99, 11.9645, -39.4737, 51.4509, -149.621, -49.6231, 98.8472
8.23126, 99, 12.135, -39.3596, 51.3565, -149.858, -49.4923, 99.9576
8.23923, 99, 12.302, -39.223, 51.244, -150.1, -49.391, 101.062
8.24849, 99, 12.4636, -39.0642, 51.114, -150.343, -49.3207, 102.15
8.25523, 99, 12.6181, -38.8833, 50.9682, -150.586, -49.2809, 103.213
8.26353, 100, 12.7642, -38.6787, 50.8068, -150.825, -49.2721, 104.244
8.27124, 100, 12.9016, -38.4496, 50.629, -151.059, -49.2949, 105.248
8.28018, 100, 13.0301, -38.1973, 50.434, -151.288, -49.3488, 106.223
8.28716, 100, 13.1502, -37.9222, 50.2225, -151.512, -49.4336, 107.174
8.29598, 100, 13.2622, -37.6259, 49.9932, -151.729, -49.5498, 108.103
8.30414, 100, 13.3662, -37.306, 49.7449, -151.94, -49.6971, 109.012
8.31124, 101, 13.4621, -36.9615, 49.4791, -152.144, -49.8755, 109.903
8.31928, 101, 13.5502, -36.5909, 49.1949, -152.34, -50.0849, 110.771
8.3274, 101, 13.6305, -36.1938, 48.8929, -152.527, -50.3251, 111.621
8.33653, 101, 13.7024, -35.771, 48.5722, -152.705, -50.5968, 112.447
8.34347, 101, 13.766, -35.3242, 48.2333, -152.873, -50.9008, 113.252
8.35678, 101, 13.8445, -34.6102, 47.6916, -153.104, -51.4182, 114.417
8.36027, 102, 13.8659, -34.3604, 47.5025, -153.174, -51.6074, 114.793
8.36761, 102, 13.9014, -33.8423, 47.1113, -153.306, -52.01, 115.526
8.37623, 102, 13.9272, -33.2998, 46.704, -153.424, -52.445, 116.233
8.38471, 102, 13.9437, -32.7345, 46.2823, -153.529, -52.9122, 116.912
8.39172, 102, 13.9487, -32.1474, 45.8464, -153.619, -53.4091, 117.566
8.40026, 103, 13.9521, -31.5388, 45.3962, -153.695, -53.9338, 118.192
8.40851, 103, 13.9496, -31.2271, 45.1661, -153.728, -54.206, 118.496
8.41518, 103, 13.9398, -30.5903, 44.6967, -153.785, -54.7687, 119.082
8.42417, 103, 13.9139, -29.6052, 43.9718, -153.844, -55.6536, 119.917
8.43119, 103, 13.9025, -29.2694, 43.7257, -153.857, -55.9584, 120.182
8.44034, 103, 13.861, -28.2431, 42.9766, -153.881, -56.8978, 120.938
8.44713, 104, 13.8449, -27.8956, 42.7241, -153.884, -57.2176, 121.177
8.45705, 104, 13.7907, -26.8408, 41.9619, -153.876, -58.1951, 121.858
8.46454, 104, 13.7498, -26.1293, 41.4511, -153.858, -58.8625, 122.284
8.47112, 104, 13.7281, -25.7716, 41.1953, -153.846, -59.2003, 122.489
8.48154, 104, 13.6602, -24.694, 40.4278, -153.798, -60.2264, 123.079
8.48714, 104, 13.6366, -24.3339, 40.1722, -153.778, -60.5712, 123.267
8.49744, 104, 13.5635, -23.2511, 39.4069, -153.708, -61.6134, 123.817
8.50316, 104, 13.5384, -22.8896, 39.1524, -153.683, -61.9632, 123.997
8.51274, 104, 13.4622, -21.8048, 38.3911, -153.597, -63.0158, 124.528
8.52159, 104, 13.4365, -21.0813, 37.8856, -153.535, -63.7196, 124.879
8.52726, 104, 13.3847, -20.7197, 37.6332, -153.502, -64.0716, 125.054
8.53514, 104, 13.3326, -19.9965, 37.1296, -153.433, -64.7757, 125.402
8.54421, 104, 13.2805, -19.2734, 36.6283, -153.36, -65.4814, 125.748
8.55213, 104, 13.228, -18.5499, 36.1288, -153.283, -66.1884, 126.094
8.56016, 104, 13.1758, -17.8261, 35.6316, -153.203, -66.8965, 126.439
8.56813, 104, 13.1238, -17.1017, 35.1369, -153.118, -67.6046, 126.783
8.57519, 104, 13.072, -16.3774, 34.644, -153.029, -68.3116, 127.128
8.58314, 104, 13.0207, -15.6534, 34.1532, -152.937, -69.0208, 127.472
8.59112, 104, 12.9697, -14.9289, 33.6647, -152.84, -69.7316, 127.815
8.5992, 104, 12.9189, -14.2034, 33.1784, -152.74, -70.4429, 128.158
8.60712, 104, 12.8687, -13.4778, 32.6949, -152.636, -71.1527, 128.502
8.61513, 104, 12.8189, -12.752, 32.2141, -152.528, -71.863, 128.846
8.62319, 104, 12.7693, -12.0264, 31.7359, -152.417, -72.5756, 129.19
8.63112, 104, 12.72, -11.3013, 31.26, -152.301, -73.2881, 129.535
8.63912, 104, 12.6712, -10.5759, 30.7868, -152.181, -74.0009, 129.881
8.64718, 104, 12.6225, -9.85026, 30.3167, -152.058, -74.7137, 130.227
8.65522, 104, 12.5742, -9.1245, 29.8496, -151.93, -75.4266, 130.574
8.66312, 104, 12.5264, -8.39829, 29.3853, -151.798, -76.141, 130.922
8.67118, 104, 12.4792, -7.67228, 28.9246, -151.662, -76.8555, 131.27
8.67913, 104, 12.4325, -6.94722, 28.4672, -151.522, -77.571, 131.621
8.68716, 104, 12.3866, -6.22224, 28.0128, -151.378, -78.2859, 131.972
8.69519, 104, 12.3411, -5.4976, 27.5621, -151.23, -78.9994, 132.324
8.70312, 104, 12.2961, -4.77416, 27.1152, -151.078, -79.714, 132.678
8.71116, 104, 12.2522, -4.05207, 26.6726, -150.921, -80.4294, 133.033
8.71918, 104, 12.2093, -3.33296, 26.2352, -150.761, -81.1432, 133.388
8.72715, 104, 12.1674, -2.61912, 25.8029, -150.597, -81.8527, 133.744
8.73528, 104, 12.1269, -1.91147, 25.3769, -150.429, -82.5586, 134.101
8.74325, 104, 12.0875, -1.21153, 24.9588, -150.259, -83.26, 134.456
8.75153, 104, 12.049, -0.520382, 24.549, -150.086, -83.9538, 134.808
8.75928, 104, 12.0115, 0.160531, 24.1493, -149.911, -84.6367, 135.158
8.76725, 104, 11.975, 0.830588, 23.7607, -149.735, -85.3064, 135.504
8.7753, 104, 11.9396, 1.48793, 23.3845, -149.559, -85.9619, 135.844
8.78337, 104, 11.9054, 2.13188, 23.0207, -149.383, -86.6034, 136.178
8.79115, 104, 11.8723, 2.76003, 22.6693, -149.208, -87.229, 136.506
8.79915, 104, 11.8402, 3.37228, 22.3306, -149.033, -87.8386, 136.827
8.80723, 104, 11.8097, 3.96799, 22.0053, -148.859, -88.4317, 137.142
8.81602, 104, 11.7802, 4.547, 21.6923, -148.687, -89.0069, 137.45
8.82415, 104, 11.7521, 5.10955, 21.3916, -148.516, -89.5653, 137.751
8.8321, 104, 11.7254, 5.65487, 21.102, -148.347, -90.1083, 138.045
8.84021, 104, 11.6995, 6.18259, 20.825, -148.18, -90.6349, 138.332
8.8481, 104, 11.6749, 6.69393, 20.5593, -148.015, -91.1455, 138.612
8.85563, 104, 11.6516, 7.18854, 20.3053, -147.853, -91.6391, 138.884
8.86427, 104, 11.6293, 7.66594, 20.063, -147.694, -92.1151, 139.148
8.87172, 104, 11.6083, 8.12709, 19.8309, -147.537, -92.575, 139.405
8.88029, 104, 11.5883, 8.57141, 19.61, -147.384, -93.0179, 139.654
8.88777, 104, 11.5696, 8.99805, 19.4002, -147.234, -93.4444, 139.896
8.89622, 104, 11.5519, 9.40776, 19.2003, -147.088, -93.8541, 140.128
8.90453, 104, 11.5354, 9.79969, 19.0109, -146.947, -94.2465, 140.352
8.91111, 104, 11.5275, 9.98888, 18.9203, -146.878, -94.4362, 140.461
8.92114, 104, 11.5053, 10.5283, 18.6641, -146.677, -94.9779, 140.774
8.92709, 104, 11.4985, 10.6984, 18.5837, -146.613, -95.1491, 140.873
8.93628, 104, 11.4794, 11.1798, 18.3593, -146.43, -95.6332, 141.155
8.94321, 104, 11.4735, 11.33, 18.2899, -146.372, -95.7844, 141.243
8.9524, 104, 11.4576, 11.75, 18.0973, -146.209, -96.207, 141.491
8.95911, 104, 11.4528, 11.8794, 18.0384, -146.158, -96.337, 141.568
8.96857, 104, 11.4395, 12.2355, 17.8778, -146.017, -96.6949, 141.78
8.97511, 104, 11.4354, 12.3438, 17.8295, -145.974, -96.8033, 141.844
8.98462, 104, 11.4244, 12.6374, 17.7, -145.858, -97.0953, 142.018
8.99267, 104, 11.4181, 12.8065, 17.6266, -145.79, -97.2623, 142.118
9.00107, 104, 11.4124, 12.9553, 17.563, -145.732, -97.4076, 142.205
9.00872, 104, 11.4072, 13.0845, 17.509, -145.682, -97.531, 142.279
9.01674, 104, 11.4024, 13.195, 17.4643, -145.64, -97.6339, 142.34
9.02502, 104, 11.3981, 13.2874, 17.4279, -145.607, -97.7171, 142.39
9.03112, 104, 11.3961, 13.3274, 17.4126, -145.592, -97.7521, 142.411
9.04069, 104, 11.3923, 13.3963, 17.3876, -145.569, -97.8088, 142.446
9.04904, 104, 11.3873, 13.4749, 17.362, -145.544, -97.8669, 142.481
9.05514, 104, 11.3859, 13.4953, 17.3559, -145.538, -97.8804, 142.489
9.06322, 104, 11.3835, 13.5281, 17.3471, -145.53, -97.9008, 142.501
9.07114, 104, 11.3817, 13.5526, 17.3415, -145.524, -97.9138, 142.508
9.0791, 104, 11.3802, 13.5705, 17.3381, -145.521, -97.9213, 142.512
9.08811, 104, 11.379, 13.5828, 17.3363, -145.52, -97.9253, 142.514
9.09617, 104, 11.3781, 13.591, 17.3354, -145.519, -97.9272, 142.515
9.1032, 105, 11.3775, 13.5966, 17.335, -145.519, -97.9281, 142.515
9.11118, 105, 11.3771, 13.6001, 17.3348, -145.518, -97.9286, 142.516
9.11912, 105, 11.3768, 13.6026, 17.3346, -145.518, -97.9287, 142.516
9.1271, 105, 11.3765, 13.6047, 17.3346, -145.518, -97.9288, 142.516
9.13612, 105, 11.3764, 13.6064, 17.3346, -145.518, -97.9289, 142.516
9.14415, 105, 11.3762, 13.6079, 17.3346, -145.518, -97.9289, 142.516
9.1521, 105, 11.3761, 13.6092, 17.3346, -145.518, -97.9288, 142.516
9.16014, 105, 11.376, 13.6103, 17.3346, -145.518, -97.9287, 142.516
9.16817, 105, 11.376, 13.6113, 17.3346, -145.518, -97.9286, 142.516
9.17613, 105, 11.3759, 13.6121, 17.3347, -145.518, -97.9285, 142.516
9.1841, 105, 11.3759, 13.6127, 17.3347, -145.518, -97.9283, 142.516
9.19216, 105, 11.3759, 13.6131, 17.3347, -145.518, -97.9282, 142.516
9.19909, 105, 11.3759, 13.6134, 17.3348, -145.518, -97.928, 142.516
9.20813, 105, 11.3759, 13.6135, 17.3348, -145.519, -97.9279, 142.516
9.21511, 105, 11.3759, 13.6136, 17.3349, -145.519, -97.9278, 142.516
