hehonglu123/Motion-Primitive-Planning/realrobot/recorded_data/repeatability/wood/v100_iteration4.csv
timestamp, cmd_num, J1, J2, J3, J4, J5, J6
0.000484, -1, 11.3776, 13.6141, 17.339, -145.519, -97.9229, 142.516
0.004157, -1, 11.3776, 13.6141, 17.339, -145.519, -97.9229, 142.516
0.007174, -1, 11.3776, 13.6141, 17.339, -145.519, -97.9229, 142.516
0.028853, -1, 11.3776, 13.6141, 17.339, -145.519, -97.9229, 142.516
0.030125, -1, 11.3776, 13.6141, 17.339, -145.519, -97.9229, 142.516
0.033964, -1, 11.3776, 13.6141, 17.339, -145.519, -97.9229, 142.516
0.040331, -1, 11.3776, 13.6141, 17.339, -145.519, -97.9229, 142.516
0.047044, -1, 11.3775, 13.6141, 17.339, -145.519, -97.9229, 142.516
0.056576, -1, 11.3758, 13.614, 17.339, -145.519, -97.9229, 142.516
0.06513, -1, 11.3716, 13.6135, 17.3389, -145.519, -97.9229, 142.516
0.212334, -1, 9.73733, 13.1759, 17.4458, -146.033, -97.7465, 139.535
0.214549, -1, 9.65949, 13.1552, 17.4508, -146.057, -97.738, 139.396
0.215881, -1, 9.65949, 13.1552, 17.4508, -146.057, -97.738, 139.396
0.217802, -1, 9.58179, 13.1346, 17.4558, -146.081, -97.7294, 139.256
0.219146, -1, 9.58179, 13.1346, 17.4558, -146.081, -97.7294, 139.256
0.220395, -1, 9.58179, 13.1346, 17.4558, -146.081, -97.7294, 139.256
0.223786, -1, 9.50426, 13.114, 17.4608, -146.105, -97.7209, 139.117
0.226299, -1, 9.42689, 13.0935, 17.4657, -146.129, -97.7125, 138.977
0.227528, -1, 9.42689, 13.0935, 17.4657, -146.129, -97.7125, 138.977
0.228798, -1, 9.42689, 13.0935, 17.4657, -146.129, -97.7125, 138.977
0.230798, -1, 9.34961, 13.0729, 17.4706, -146.153, -97.7042, 138.837
0.232106, -1, 9.34961, 13.0729, 17.4706, -146.153, -97.7042, 138.837
0.233945, -1, 9.27239, 13.0524, 17.4756, -146.177, -97.6958, 138.698
0.235363, -1, 9.27239, 13.0524, 17.4756, -146.177, -97.6958, 138.698
0.236648, -1, 9.27239, 13.0524, 17.4756, -146.177, -97.6958, 138.698
0.239012, -1, 9.1953, 13.0318, 17.4806, -146.201, -97.6874, 138.558
0.240211, -1, 9.1953, 13.0318, 17.4806, -146.201, -97.6874, 138.558
0.242192, -1, 9.11837, 13.0113, 17.4856, -146.225, -97.6791, 138.418
0.24345, -1, 9.11837, 13.0113, 17.4856, -146.225, -97.6791, 138.418
0.244888, -1, 9.11837, 13.0113, 17.4856, -146.225, -97.6791, 138.418
0.248836, -1, 9.04151, 12.9908, 17.4906, -146.249, -97.6707, 138.278
0.250923, -1, 8.96468, 12.9703, 17.4957, -146.273, -97.6623, 138.138
0.257043, -1, 8.88786, 12.9497, 17.5007, -146.297, -97.6538, 137.999
0.259083, -1, 8.81109, 12.9293, 17.5058, -146.321, -97.6452, 137.859
0.263102, -1, 8.73447, 12.9088, 17.5108, -146.345, -97.6366, 137.719
0.272826, -1, 8.58163, 12.8677, 17.5209, -146.392, -97.6192, 137.439
0.279078, -1, 8.42901, 12.8265, 17.5311, -146.441, -97.6016, 137.159
0.288034, -1, 8.27606, 12.7852, 17.5412, -146.488, -97.5843, 136.879
0.296173, -1, 8.12259, 12.7437, 17.5515, -146.536, -97.5673, 136.6
0.303036, -1, 7.96867, 12.7022, 17.5617, -146.584, -97.5505, 136.32
0.312025, -1, 7.81413, 12.6606, 17.5717, -146.632, -97.5339, 136.04
0.320919, -1, 7.65917, 12.619, 17.5818, -146.68, -97.5172, 135.76
0.327127, -1, 7.50405, 12.5775, 17.592, -146.728, -97.5004, 135.48
0.335195, -1, 7.34881, 12.5361, 17.6021, -146.776, -97.4831, 135.2
0.343127, -1, 7.19365, 12.4946, 17.6123, -146.824, -97.4657, 134.919
0.352023, -1, 7.03839, 12.4533, 17.6225, -146.872, -97.4483, 134.639
0.360042, -1, 6.88307, 12.412, 17.6328, -146.92, -97.4313, 134.359
0.368829, -1, 6.7281, 12.3709, 17.6431, -146.968, -97.4145, 134.079
0.376093, -1, 6.5734, 12.3297, 17.6535, -147.017, -97.3977, 133.799
0.383206, -1, 6.41893, 12.2885, 17.6639, -147.065, -97.381, 133.518
0.391121, -1, 6.26469, 12.2472, 17.6742, -147.113, -97.364, 133.238
0.400054, -1, 6.11046, 12.2058, 17.6843, -147.161, -97.3469, 132.957
0.407634, -1, 5.95604, 12.1644, 17.6946, -147.209, -97.3294, 132.676
0.417498, -1, 5.80142, 12.1228, 17.7048, -147.257, -97.3118, 132.396
0.424023, -1, 5.64659, 12.0811, 17.715, -147.305, -97.2944, 132.115
0.431516, -1, 5.49157, 12.0395, 17.7253, -147.353, -97.2774, 131.834
0.440074, -1, 5.3363, 11.9979, 17.7355, -147.401, -97.2605, 131.553
0.448189, -1, 5.18076, 11.9563, 17.7458, -147.45, -97.2438, 131.273
0.456049, -1, 5.02493, 11.9147, 17.7562, -147.497, -97.227, 130.992
0.464132, -1, 4.869, 11.8732, 17.7666, -147.545, -97.21, 130.711
0.472125, -1, 4.71318, 11.8317, 17.777, -147.594, -97.1928, 130.43
0.47969, -1, 4.63526, 11.811, 17.7874, -147.642, -97.1753, 130.149
0.488035, -1, 4.40163, 11.7489, 17.7977, -147.69, -97.1579, 129.868
0.496093, -1, 4.24611, 11.7075, 17.8081, -147.739, -97.1408, 129.587
0.503021, -1, 4.16848, 11.6868, 17.8133, -147.763, -97.1323, 129.447
0.511034, -1, 4.01353, 11.6455, 17.8236, -147.811, -97.1154, 129.166
0.52017, -1, 3.78177, 11.5834, 17.8391, -147.884, -97.0902, 128.744
0.527015, -1, 3.70458, 11.5626, 17.8442, -147.908, -97.0817, 128.603
0.536355, -1, 3.4728, 11.5002, 17.8596, -147.98, -97.0561, 128.181
0.54306, -1, 3.39545, 11.4794, 17.8648, -148.005, -97.0474, 128.04
0.552832, -1, 3.16299, 11.4169, 17.8804, -148.077, -97.021, 127.619
0.560455, -1, 3.00776, 11.3752, 17.8908, -148.125, -97.0037, 127.337
0.567083, -1, 2.93007, 11.3543, 17.896, -148.149, -96.9952, 127.196
0.576886, -1, 2.69655, 11.2918, 17.9114, -148.221, -96.9699, 126.774
0.584626, -1, 2.54034, 11.25, 17.9218, -148.269, -96.9532, 126.492
0.591089, -1, 2.4622, 11.2292, 17.9269, -148.294, -96.9449, 126.351
0.601, -1, 2.22739, 11.1668, 17.9425, -148.366, -96.9194, 125.928
0.608664, -1, 2.14899, 11.1251, 17.9529, -148.414, -96.9022, 125.647
0.616669, -1, 1.99215, 11.1043, 17.958, -148.439, -96.8847, 125.365
0.624068, -1, 1.83552, 11.0627, 17.9683, -148.487, -96.8759, 125.224
0.63201, -1, 1.67903, 11.0211, 17.9788, -148.535, -96.8586, 124.942
0.639021, -1, 1.52287, 10.9794, 17.9892, -148.584, -96.8416, 124.66
0.64708, -1, 1.36685, 10.9378, 17.9996, -148.633, -96.8246, 124.378
0.656133, -1, 1.21101, 10.8961, 18.01, -148.681, -96.8078, 124.096
0.66301, -1, 1.0557, 10.8544, 18.0202, -148.73, -96.7909, 123.813
0.799544, -1, -1.60031, 10.1441, 18.1967, -149.554, -96.5, 119.007
0.800834, -1, -1.60031, 10.1441, 18.1967, -149.554, -96.5, 119.007
0.803446, -1, -1.67846, 10.1232, 18.2019, -149.579, -96.4915, 118.866
0.806227, -1, -1.67846, 10.1232, 18.2019, -149.579, -96.483, 118.724
0.807664, -1, -1.75649, 10.1023, 18.2071, -149.603, -96.483, 118.724
0.808913, -1, -1.75649, 10.1023, 18.2071, -149.603, -96.483, 118.724
0.810989, -1, -1.83439, 10.0814, 18.2123, -149.628, -96.4743, 118.582
0.814551, -1, -1.91217, 10.0604, 18.2175, -149.652, -96.4655, 118.44
0.816076, -1, -1.91217, 10.0604, 18.2175, -149.652, -96.4655, 118.44
0.817375, -1, -1.91217, 10.0604, 18.2175, -149.652, -96.4655, 118.44
0.819475, -1, -1.98986, 10.0395, 18.2228, -149.676, -96.4567, 118.299
0.82074, -1, -1.98986, 10.0395, 18.2228, -149.676, -96.4567, 118.299
0.82257, -1, -2.06748, 10.0186, 18.228, -149.7, -96.4479, 118.157
0.823939, -1, -2.06748, 10.0186, 18.228, -149.7, -96.4479, 118.157
0.827084, -1, -2.06748, 10.0186, 18.228, -149.7, -96.4479, 118.157
0.831677, -1, -2.22264, 9.97678, 18.2383, -149.749, -96.4304, 117.874
0.832885, -1, -2.22264, 9.97678, 18.2383, -149.749, -96.4304, 117.874
0.834756, -1, -2.30027, 9.95588, 18.2435, -149.773, -96.4216, 117.732
0.83615, -1, -2.30027, 9.95588, 18.2435, -149.773, -96.4216, 117.732
0.837412, -1, -2.30027, 9.95588, 18.2435, -149.773, -96.4216, 117.732
0.839444, -1, -2.37795, 9.93496, 18.2487, -149.798, -96.413, 117.59
0.840809, -1, -2.37795, 9.93496, 18.2487, -149.798, -96.413, 117.59
0.849067, -1, -2.53354, 9.89301, 18.2592, -149.846, -96.396, 117.307
0.855185, -1, -2.68934, 9.85112, 18.2695, -149.895, -96.3792, 117.023
0.863011, -1, -2.84546, 9.80921, 18.2798, -149.943, -96.3625, 116.739
0.871009, -1, -3.00213, 9.76729, 18.2902, -149.992, -96.3456, 116.456
0.880021, -1, -3.15919, 9.72543, 18.3006, -150.041, -96.3284, 116.172
0.888111, -1, -3.31669, 9.6835, 18.311, -150.089, -96.3109, 115.888
0.895094, -1, -3.47461, 9.64153, 18.3215, -150.137, -96.2933, 115.604
0.903293, -1, -3.63251, 9.59966, 18.3319, -150.186, -96.2759, 115.32
0.911267, -1, -3.79032, 9.55785, 18.3422, -150.235, -96.2587, 115.036
0.919266, -1, -3.94837, 9.51584, 18.3526, -150.284, -96.2417, 114.752
0.927458, -1, -4.10635, 9.47394, 18.363, -150.333, -96.2248, 114.467
0.935389, -1, -4.26411, 9.43204, 18.3733, -150.382, -96.2078, 114.183
0.944095, -1, -4.42164, 9.39007, 18.3836, -150.43, -96.1906, 113.899
0.951635, -1, -4.57882, 9.34813, 18.394, -150.48, -96.1731, 113.614
0.960166, -1, -4.73555, 9.30614, 18.4043, -150.528, -96.1554, 113.33
0.967604, -1, -4.89192, 9.26413, 18.4147, -150.577, -96.1377, 113.045
0.976183, -1, -5.04803, 9.2221, 18.4252, -150.626, -96.1204, 112.76
0.983526, -1, -5.12598, 9.2011, 18.4305, -150.65, -96.1033, 112.475
0.99201, -1, -5.35992, 9.13795, 18.4463, -150.723, -96.0864, 112.191
0.999049, -1, -5.43797, 9.11686, 18.4515, -150.748, -96.078, 112.048
1.0081, -1, -5.67235, 9.05376, 18.467, -150.821, -96.0526, 111.621
1.01506, -1, -5.75066, 9.03272, 18.4723, -150.845, -96.044, 111.479
1.02423, -1, -5.98624, 8.96947, 18.4878, -150.919, -96.0178, 111.051
1.031, -1, -6.06503, 8.9484, 18.493, -150.943, -96.0089, 110.909
1.04034, -1, -6.30213, 8.88525, 18.5085, -151.016, -95.9828, 110.481
1.047, -1, -6.38132, 8.86421, 18.5136, -151.041, -95.9742, 110.339
1.05637, -1, -6.61908, 8.80116, 18.5292, -151.114, -95.9487, 109.911
1.063, -1, -6.69839, 8.78009, 18.5344, -151.139, -95.9402, 109.768
1.07255, -1, -6.93647, 8.71694, 18.5502, -151.213, -95.9147, 109.34
1.08056, -1, -7.09499, 8.67489, 18.5607, -151.261, -95.8974, 109.054
1.08865, -1, -7.25347, 8.63277, 18.571, -151.311, -95.8798, 108.769
1.09658, -1, -7.41147, 8.5906, 18.5814, -151.36, -95.862, 108.483
1.10459, -1, -7.4903, 8.54833, 18.5919, -151.409, -95.8444, 108.198
1.11266, -1, -7.64798, 8.5272, 18.5971, -151.458, -95.8271, 107.912
1.12001, -1, -7.80536, 8.48499, 18.6074, -151.483, -95.8185, 107.769
1.12799, -1, -7.9622, 8.44278, 18.6178, -151.531, -95.8015, 107.483
1.13604, -1, -8.11886, 8.40043, 18.6282, -151.58, -95.7845, 107.197
1.14401, -1, -8.27543, 8.35816, 18.6386, -151.629, -95.7675, 106.912
1.15204, -1, -8.43212, 8.31582, 18.6491, -151.678, -95.7503, 106.626
1.15999, -1, -8.58908, 8.27349, 18.6596, -151.727, -95.7328, 106.34
1.168, -1, -8.74644, 8.23126, 18.67, -151.776, -95.7151, 106.053
1.17606, -1, -8.90412, 8.18898, 18.6804, -151.825, -95.6975, 105.767
1.18403, -1, -9.06225, 8.14673, 18.6908, -151.874, -95.6802, 105.481
1.192, -1, -9.22088, 8.10455, 18.7012, -151.924, -95.6631, 105.194
1.20005, -1, -9.37977, 8.0623, 18.7116, -151.973, -95.646, 104.907
1.208, -1, -9.53894, 8.02001, 18.7221, -152.022, -95.6289, 104.621
1.216, -1, -9.69823, 7.97782, 18.7325, -152.072, -95.6116, 104.334
1.22408, -1, -9.85743, 7.93568, 18.7429, -152.12, -95.594, 104.048
1.232, -1, -10.0168, 7.89339, 18.7535, -152.17, -95.5762, 103.76
1.24002, -1, -10.1762, 7.85104, 18.7641, -152.22, -95.5583, 103.474
1.24805, -1, -10.3352, 7.80864, 18.7747, -152.268, -95.5408, 103.187
1.25705, -1, -10.4938, 7.76616, 18.7852, -152.318, -95.5236, 102.9
1.26401, -1, -10.6524, 7.72372, 18.7956, -152.367, -95.5065, 102.613
1.27207, -1, -10.8105, 7.68125, 18.806, -152.416, -95.4896, 102.326
1.28001, -1, -10.9683, 7.63871, 18.8165, -152.466, -95.4725, 102.039
1.28807, -1, -11.1257, 7.59623, 18.8268, -152.515, -95.4552, 101.752
1.29499, -1, -11.2831, 7.55377, 18.8373, -152.564, -95.4375, 101.464
1.30401, -1, -11.4405, 7.51134, 18.8478, -152.613, -95.4197, 101.177
1.31207, -1, -11.5981, 7.46887, 18.8582, -152.663, -95.4021, 100.89
1.32009, -1, -11.7561, 7.42647, 18.8688, -152.711, -95.3848, 100.602
1.32764, -1, -11.9145, 7.3841, 18.8794, -152.761, -95.3675, 100.314
1.33607, -1, -12.0733, 7.34175, 18.89, -152.811, -95.3504, 100.027
1.34403, -1, -12.2324, 7.29938, 18.9005, -152.86, -95.3332, 99.739
1.35157, -1, -12.392, 7.25698, 18.9109, -152.91, -95.3158, 99.451
1.36037, -1, -12.5519, 7.2146, 18.9214, -152.959, -95.298, 99.1631
1.367, -1, -12.7119, 7.17222, 18.9319, -153.008, -95.2801, 98.8752
1.376, -1, -12.872, 7.12978, 18.9425, -153.058, -95.2622, 98.5873
1.3848, -1, -13.0321, 7.08724, 18.953, -153.108, -95.2447, 98.2991
1.39201, -1, -13.192, 7.04467, 18.9635, -153.157, -95.2274, 98.0111
1.39999, -1, -13.3517, 7.00209, 18.974, -153.207, -95.2103, 97.723
1.40884, -1, -13.511, 6.9594, 18.9846, -153.256, -95.1932, 97.4348
1.41605, -1, -13.6702, 6.91669, 18.9951, -153.305, -95.176, 97.1462
1.42361, -1, -13.8293, 6.874, 19.0057, -153.355, -95.1585, 96.8577
1.43289, -1, -13.9878, 6.8313, 19.0161, -153.404, -95.1408, 96.5692
1.44004, -1, -14.146, 6.78866, 19.0266, -153.453, -95.123, 96.2805
1.44815, -1, -14.3041, 6.74607, 19.0371, -153.503, -95.1055, 95.9916
1.45705, -1, -14.4624, 6.70342, 19.0475, -153.552, -95.0882, 95.7027
1.4641, -1, -14.6208, 6.6608, 19.0581, -153.601, -95.0709, 95.4138
1.47184, -1, -14.7796, 6.61832, 19.0686, -153.651, -95.0538, 95.1246
1.48123, -1, -14.9388, 6.57577, 19.0791, -153.701, -95.0366, 94.8352
1.4876, -1, -15.0185, 6.55444, 19.0899, -153.75, -95.019, 94.5461
1.49617, -1, -15.2582, 6.49062, 19.1005, -153.8, -95.0011, 94.257
1.50299, -1, -15.3384, 6.46937, 19.1059, -153.825, -94.9921, 94.1123
1.51105, -1, -15.4988, 6.42677, 19.1165, -153.875, -94.9741, 93.823
1.52045, -1, -15.7401, 6.36277, 19.1323, -153.95, -94.9478, 93.3892
1.52698, -1, -15.8205, 6.34142, 19.1376, -153.974, -94.9392, 93.2446
1.53503, -1, -15.9812, 6.29862, 19.1482, -154.024, -94.922, 92.9551
1.54435, -1, -16.2224, 6.23443, 19.164, -154.098, -94.8963, 92.5205
1.55098, -1, -16.3027, 6.21299, 19.1693, -154.123, -94.8876, 92.3758
1.5591, -1, -16.4633, 6.17004, 19.1797, -154.172, -94.8701, 92.0862
1.5688, -1, -16.7034, 6.10563, 19.1955, -154.247, -94.8434, 91.6512
1.57809, -1, -16.863, 6.0627, 19.2061, -154.297, -94.8256, 91.3611
1.58301, -1, -16.9426, 6.04123, 19.2114, -154.322, -94.8168, 91.2162
1.5926, -1, -17.1814, 5.97686, 19.2273, -154.396, -94.7906, 90.7813
1.60132, -1, -17.3404, 5.93405, 19.2378, -154.446, -94.7732, 90.4909
1.60697, -1, -17.42, 5.91266, 19.2431, -154.471, -94.7646, 90.3458
1.61683, -1, -17.5793, 5.86986, 19.2538, -154.521, -94.7471, 90.0557
1.62399, -1, -17.7388, 5.82712, 19.2644, -154.57, -94.7296, 89.7653
1.63097, -1, -17.8984, 5.78439, 19.275, -154.621, -94.7116, 89.475
1.63998, -1, -18.0584, 5.74166, 19.2857, -154.671, -94.6935, 89.1846
1.64798, -1, -18.219, 5.69893, 19.2962, -154.72, -94.6756, 88.8944
1.65497, -1, -18.3799, 5.6562, 19.3068, -154.771, -94.658, 88.6037
1.664, -1, -18.5413, 5.61332, 19.3176, -154.82, -94.6406, 88.3128
1.67197, -1, -18.7028, 5.57039, 19.3282, -154.87, -94.6233, 88.0219
1.67904, -1, -18.8645, 5.52744, 19.3388, -154.921, -94.6061, 87.731
1.68697, -1, -19.0261, 5.48442, 19.3493, -154.97, -94.5886, 87.44
1.69598, -1, -19.1877, 5.44132, 19.3598, -155.02, -94.5708, 87.1485
1.70298, -1, -19.3491, 5.39821, 19.3704, -155.07, -94.5527, 86.8572
1.71198, -1, -19.5103, 5.35508, 19.3809, -155.12, -94.5348, 86.5658
1.72003, -1, -19.6711, 5.31189, 19.3915, -155.169, -94.517, 86.2744
1.72799, -1, -19.8317, 5.26882, 19.4021, -155.22, -94.4995, 85.9825
1.73598, -1, -19.9921, 5.22574, 19.4126, -155.269, -94.4821, 85.691
1.74497, -1, -20.1521, 5.18264, 19.4235, -155.319, -94.4648, 85.3995
1.75198, -1, -20.3119, 5.13973, 19.4343, -155.37, -94.4473, 85.1077
1.76101, -1, -20.4718, 5.0968, 19.445, -155.419, -94.4295, 84.816
1.76805, -1, -20.6319, 5.05379, 19.4558, -155.47, -94.4115, 84.5244
1.77598, -1, -20.7921, 5.01093, 19.4664, -155.52, -94.3934, 84.2327
1.78399, -1, -20.9529, 4.96808, 19.477, -155.57, -94.3757, 83.9406
1.79204, -1, -21.114, 4.92508, 19.4877, -155.621, -94.3582, 83.6484
1.79998, -1, -21.2756, 4.8821, 19.4983, -155.671, -94.341, 83.3565
1.80807, -1, -21.4376, 4.83905, 19.5089, -155.721, -94.3238, 83.0643
1.81598, -1, -21.5998, 4.79584, 19.5195, -155.772, -94.3064, 82.7718
1.824, -1, -21.762, 4.75272, 19.5302, -155.822, -94.2889, 82.4793
1.83205, -1, -21.9244, 4.70944, 19.5409, -155.871, -94.271, 82.1869
1.83998, -1, -22.0869, 4.66609, 19.5517, -155.922, -94.2529, 81.8943
1.84801, -1, -22.2493, 4.62277, 19.5624, -155.972, -94.2352, 81.6016
1.85607, -1, -22.4117, 4.5794, 19.5729, -156.022, -94.2176, 81.3088
1.86399, -1, -22.5735, 4.53604, 19.5836, -156.073, -94.2001, 81.0162
1.87198, -1, -22.7352, 4.49266, 19.5943, -156.122, -94.1827, 80.7235
1.88004, -1, -22.8966, 4.44932, 19.6049, -156.172, -94.1652, 80.4304
1.88802, -1, -23.0577, 4.40608, 19.6156, -156.223, -94.1473, 80.1374
1.8959, -1, -23.2186, 4.36286, 19.6262, -156.273, -94.1292, 79.8444
1.90406, -1, -23.3795, 4.31963, 19.637, -156.324, -94.1109, 79.5511
1.912, -1, -23.5403, 4.27642, 19.6478, -156.375, -94.0928, 79.2577
1.92016, -1, -23.7013, 4.23323, 19.6586, -156.425, -94.0751, 78.9644
1.92724, -1, -23.8626, 4.19005, 19.6693, -156.475, -94.0575, 78.6709
1.93541, -1, -24.0241, 4.14679, 19.68, -156.526, -94.0401, 78.3772
1.94424, -1, -24.1861, 4.10346, 19.6906, -156.576, -94.0227, 78.0834
1.95148, -1, -24.3486, 4.06007, 19.7013, -156.626, -94.0051, 77.7898
1.96013, -1, -24.5115, 4.01665, 19.7119, -156.677, -93.9871, 77.4957
1.96834, -1, -24.6745, 3.97314, 19.7225, -156.727, -93.969, 77.2015
1.97557, -1, -24.8378, 3.92959, 19.7332, -156.777, -93.951, 76.9075
1.98408, -1, -25.0013, 3.88602, 19.7438, -156.828, -93.9332, 76.6134
1.99261, -1, -25.1646, 3.84243, 19.7547, -156.878, -93.9156, 76.3192
2.00011, -1, -25.3277, 3.79888, 19.7655, -156.929, -93.8982, 76.0248
2.00701, -1, -25.4091, 3.7771, 19.7709, -156.954, -93.8894, 75.8777
2.01691, -1, -25.6531, 3.71163, 19.7871, -157.029, -93.8628, 75.4363
2.02405, -1, -25.8157, 3.66809, 19.7977, -157.08, -93.8447, 75.1417
2.03101, -1, -25.8969, 3.64639, 19.8031, -157.105, -93.8356, 74.9943
2.04107, -1, -26.1398, 3.58114, 19.8193, -157.181, -93.8081, 74.5525
2.04823, -1, -26.3015, 3.53773, 19.83, -157.232, -93.7901, 74.258
2.05496, -1, -26.3823, 3.51606, 19.8354, -157.257, -93.7812, 74.1106
2.06523, -1, -26.6249, 3.45095, 19.8514, -157.333, -93.7547, 73.6679
2.07102, -1, -26.7059, 3.42924, 19.8568, -157.358, -93.7459, 73.5206
2.0806, -1, -26.9494, 3.36405, 19.873, -157.434, -93.7194, 73.0781
2.08937, -1, -27.1122, 3.32047, 19.8839, -157.485, -93.7014, 72.7827
2.095, -1, -27.1937, 3.29868, 19.8893, -157.51, -93.6922, 72.635
2.10457, -1, -27.4388, 3.23324, 19.9053, -157.586, -93.6648, 72.1922
2.11333, -1, -27.5207, 3.21137, 19.9107, -157.637, -93.6469, 71.8968
2.119, -1, -27.6846, 3.16764, 19.9215, -157.662, -93.638, 71.749
2.12901, -1, -27.9307, 3.10211, 19.9376, -157.738, -93.6115, 71.3055
2.13504, -1, -28.0128, 3.08026, 19.943, -157.763, -93.6027, 71.1578
2.14503, -1, -28.259, 3.01466, 19.9591, -157.839, -93.576, 70.714
2.151, -1, -28.341, 2.99277, 19.9645, -157.864, -93.567, 70.5661
2.15997, -1, -28.505, 2.94903, 19.9753, -157.915, -93.5487, 70.2702
2.16697, -1, -28.6686, 2.9054, 19.9862, -157.966, -93.5302, 69.9743
2.17597, -1, -28.832, 2.86172, 19.997, -158.017, -93.512, 69.6781
2.18398, -1, -28.9951, 2.81805, 20.0078, -158.068, -93.494, 69.3817
2.19095, -1, -29.1578, 2.77443, 20.0185, -158.119, -93.4763, 69.0854
2.19998, -1, -29.3204, 2.73082, 20.0292, -158.17, -93.4587, 68.789
2.20796, -1, -29.4831, 2.68724, 20.0401, -158.221, -93.4411, 68.4922
2.21495, -1, -29.646, 2.64355, 20.0508, -158.272, -93.4231, 68.1954
2.22402, -1, -29.809, 2.59981, 20.0616, -158.323, -93.4049, 67.8988
2.23199, -1, -29.9722, 2.55611, 20.0724, -158.374, -93.3865, 67.6021
2.23896, -1, -30.1356, 2.51229, 20.0833, -158.425, -93.3683, 67.3051
2.24799, -1, -30.2994, 2.46833, 20.0943, -158.475, -93.3503, 67.0081
2.25697, -1, -30.4638, 2.42442, 20.1052, -158.526, -93.3326, 66.7113
2.26299, -1, -30.6285, 2.38047, 20.1161, -158.577, -93.3148, 66.414
2.27197, -1, -30.7935, 2.33647, 20.1268, -158.628, -93.2971, 66.1168
2.27996, -1, -30.9585, 2.29258, 20.1377, -158.679, -93.2791, 65.8194
2.28803, -1, -31.1234, 2.24857, 20.1485, -158.73, -93.2608, 65.5223
2.29596, -1, -31.2885, 2.2046, 20.1593, -158.781, -93.2423, 65.2249
2.30396, -1, -31.4532, 2.16079, 20.1701, -158.832, -93.2239, 64.9272
2.31197, -1, -31.6179, 2.11685, 20.1808, -158.883, -93.2059, 64.6296
2.31997, -1, -31.7823, 2.07288, 20.1917, -158.935, -93.1881, 64.332
2.32804, -1, -31.9464, 2.02904, 20.2026, -158.986, -93.1705, 64.0341
2.33596, -1, -32.1103, 1.98513, 20.2135, -159.037, -93.1529, 63.736
2.34396, -1, -32.274, 1.94121, 20.2245, -159.088, -93.135, 63.4381
2.35205, -1, -32.4375, 1.89731, 20.2354, -159.14, -93.1169, 63.1403
2.35996, -1, -32.6012, 1.85325, 20.2463, -159.191, -93.0985, 62.842
2.36715, -1, -32.765, 1.80924, 20.2572, -159.242, -93.0802, 62.5437
2.37496, -1, -32.9289, 1.76519, 20.2681, -159.293, -93.0621, 62.2455
2.38299, -1, -33.0933, 1.72098, 20.2789, -159.344, -93.0443, 61.947
2.39198, -1, -33.2581, 1.67678, 20.2898, -159.396, -93.0265, 61.6484
2.40006, -1, -33.4233, 1.63261, 20.3006, -159.446, -93.0086, 61.3498
2.40796, -1, -33.5888, 1.58839, 20.3116, -159.498, -92.9906, 61.0512
2.41599, -1, -33.7545, 1.54419, 20.3226, -159.549, -92.9722, 60.7524
2.42406, -1, -33.9202, 1.50001, 20.3335, -159.6, -92.9536, 60.4534
2.43197, -1, -34.0861, 1.45586, 20.3443, -159.651, -92.935, 60.1546
2.43998, -1, -34.252, 1.41178, 20.3552, -159.703, -92.9168, 59.8555
2.44806, -1, -34.418, 1.36762, 20.3661, -159.754, -92.8988, 59.5561
2.45604, -1, -34.5838, 1.32345, 20.377, -159.806, -92.881, 59.2565
2.4636, -1, -34.7493, 1.27931, 20.3878, -159.857, -92.8632, 58.9573
2.47257, -1, -34.9142, 1.23516, 20.3987, -159.909, -92.8452, 58.658
2.47966, -1, -35.079, 1.19105, 20.4096, -159.96, -92.8269, 58.3582
2.48808, -1, -35.2437, 1.14682, 20.4207, -160.012, -92.8084, 58.0585
2.49613, -1, -35.4081, 1.10259, 20.4318, -160.063, -92.79, 57.7589
2.50297, -1, -35.49, 1.08057, 20.4373, -160.089, -92.7808, 57.6091
2.512, -1, -35.7329, 1.01503, 20.4543, -160.165, -92.7537, 57.1596
2.52013, -1, -35.891, 0.972185, 20.4658, -160.216, -92.736, 56.8623
2.52701, -1, -35.9685, 0.951239, 20.4717, -160.242, -92.7271, 56.715
2.5366, -1, -36.1925, 0.891016, 20.4896, -160.315, -92.701, 56.2833
2.54425, -1, -36.3318, 0.853852, 20.5014, -160.362, -92.6841, 56.0099
2.55094, -1, -36.3976, 0.83641, 20.5072, -160.384, -92.676, 55.88
2.56077, -1, -36.5778, 0.788768, 20.5226, -160.444, -92.6537, 55.5264
2.56844, -1, -36.6813, 0.761431, 20.5311, -160.477, -92.6413, 55.3277
2.57494, -1, -36.7276, 0.749202, 20.5346, -160.492, -92.636, 55.2409
2.585, -1, -36.8445, 0.718091, 20.5418, -160.528, -92.6234, 55.0333
2.59259, -1, -36.9056, 0.70194, 20.5439, -160.544, -92.6177, 54.9381
2.60055, -1, -36.9537, 0.689287, 20.5448, -160.556, -92.6138, 54.8713
2.60859, -1, -36.9898, 0.679803, 20.5448, -160.563, -92.6115, 54.8282
2.61657, -1, -37.0039, 0.676065, 20.5443, -160.568, -92.6102, 54.8027
2.62394, -1, -37.0251, 0.670477, 20.544, -160.569, -92.6098, 54.7946
2.63195, -1, -37.0385, 0.667113, 20.5436, -160.571, -92.6092, 54.7848
2.63891, 2, -37.0459, 0.665315, 20.5434, -160.572, -92.609, 54.78
2.64795, 2, -37.0486, 0.664492, 20.5433, -160.573, -92.6089, 54.7779
2.65616, 2, -37.0487, 0.664156, 20.5433, -160.573, -92.6088, 54.777
2.664, 2, -37.0482, 0.664025, 20.5432, -160.573, -92.6088, 54.7766
2.67196, 2, -37.0479, 0.664003, 20.5432, -160.573, -92.6088, 54.7765
2.67995, 2, -37.0482, 0.663964, 20.5432, -160.573, -92.6089, 54.7766
2.68802, 2, -37.0492, 0.663938, 20.5432, -160.573, -92.6089, 54.7768
2.69594, 2, -37.0503, 0.663847, 20.543, -160.573, -92.6089, 54.777
2.70395, 2, -37.0516, 0.663714, 20.5429, -160.573, -92.609, 54.7772
2.71202, 2, -37.053, 0.663511, 20.5427, -160.573, -92.6091, 54.7775
2.71995, 2, -37.0542, 0.663303, 20.5425, -160.573, -92.6091, 54.7777
2.72795, 2, -37.0552, 0.663139, 20.5424, -160.573, -92.6091, 54.778
2.73603, 2, -37.0557, 0.663044, 20.5422, -160.573, -92.6092, 54.7783
2.74394, 2, -37.0557, 0.663008, 20.542, -160.573, -92.6092, 54.7786
2.75294, 2, -37.0552, 0.663029, 20.5419, -160.573, -92.6092, 54.7789
2.76004, 2, -37.0542, 0.663062, 20.5418, -160.573, -92.6092, 54.7792
2.769, 2, -37.0531, 0.663131, 20.5417, -160.573, -92.6093, 54.7795
2.77595, 2, -37.0515, 0.663227, 20.5417, -160.573, -92.6093, 54.7797
2.784, 2, -37.0499, 0.663377, 20.5416, -160.573, -92.6093, 54.78
2.79195, 2, -37.0487, 0.663442, 20.5416, -160.573, -92.6094, 54.7801
2.79995, 2, -37.048, 0.663462, 20.5416, -160.573, -92.6094, 54.7802
2.80804, 2, -37.0476, 0.663434, 20.5416, -160.573, -92.6094, 54.7803
2.81594, 2, -37.0476, 0.663413, 20.5415, -160.573, -92.6094, 54.7804
2.82391, 2, -37.0478, 0.663366, 20.5415, -160.573, -92.6095, 54.7804
2.83203, 2, -37.048, 0.663304, 20.5415, -160.573, -92.6095, 54.7804
2.83903, 2, -37.0485, 0.663285, 20.5415, -160.573, -92.6095, 54.7804
2.84794, 2, -37.0494, 0.663248, 20.5415, -160.573, -92.6095, 54.7804
2.85603, 2, -37.0502, 0.663248, 20.5415, -160.573, -92.6095, 54.7805
2.86394, 2, -37.051, 0.663249, 20.5415, -160.573, -92.6095, 54.7805
2.87195, 2, -37.0516, 0.663268, 20.5415, -160.573, -92.6094, 54.7805
2.88002, 2, -37.0518, 0.663287, 20.5414, -160.573, -92.6095, 54.7805
2.88794, 2, -37.0518, 0.663321, 20.5414, -160.573, -92.6095, 54.7805
2.89595, 2, -37.0518, 0.663337, 20.5415, -160.573, -92.6095, 54.7805
2.90403, 2, -37.0514, 0.663345, 20.5414, -160.573, -92.6095, 54.7806
2.91195, 2, -37.051, 0.663348, 20.5414, -160.573, -92.6095, 54.7806
2.91998, 2, -37.0506, 0.66335, 20.5414, -160.573, -92.6095, 54.7806
2.92804, 2, -37.0504, 0.663321, 20.5414, -160.573, -92.6095, 54.7807
2.93594, 2, -37.0503, 0.6633, 20.5414, -160.573, -92.6095, 54.7807
2.94398, 2, -37.0502, 0.663291, 20.5414, -160.573, -92.6096, 54.7808
2.95208, 2, -37.0502, 0.663287, 20.5414, -160.573, -92.6095, 54.7808
2.96004, 2, -37.0502, 0.663285, 20.5414, -160.573, -92.6095, 54.7808
2.96792, 2, -37.0502, 0.663284, 20.5414, -160.573, -92.6096, 54.7809
2.9761, 2, -37.0503, 0.663283, 20.5413, -160.573, -92.6096, 54.7809
2.98352, 2, -37.0505, 0.663294, 20.5413, -160.573, -92.6096, 54.7809
2.99206, 2, -37.0507, 0.663325, 20.5414, -160.573, -92.6096, 54.7809
3.00014, 2, -37.0508, 0.663339, 20.5413, -160.573, -92.6096, 54.781
3.00694, 2, -37.0509, 0.663343, 20.5413, -160.573, -92.6096, 54.781
3.01598, 2, -37.0509, 0.66335, 20.5413, -160.573, -92.6096, 54.7811
3.02412, 2, -37.0509, 0.663332, 20.5413, -160.573, -92.6097, 54.7811
3.03093, 2, -37.0509, 0.663327, 20.5413, -160.573, -92.6097, 54.7812
3.04034, 2, -37.0508, 0.663302, 20.5413, -160.573, -92.6097, 54.7812
3.04694, 2, -37.0508, 0.663296, 20.5413, -160.573, -92.6097, 54.7812
3.0562, 2, -37.0507, 0.663287, 20.5413, -160.573, -92.6097, 54.7813
3.06298, 2, -37.0507, 0.663286, 20.5413, -160.573, -92.6097, 54.7813
3.07243, 2, -37.0507, 0.663284, 20.5413, -160.573, -92.6097, 54.7814
3.07893, 2, -37.0507, 0.663283, 20.5413, -160.573, -92.6097, 54.7815
3.08897, 2, -37.0507, 0.663283, 20.5413, -160.573, -92.6097, 54.7815
3.09654, 2, -37.0507, 0.663294, 20.5413, -160.573, -92.6097, 54.7816
3.10452, 2, -37.0507, 0.663332, 20.5413, -160.572, -92.6097, 54.7816
3.11268, 2, -37.0507, 0.663354, 20.5413, -160.572, -92.6097, 54.7816
3.12057, 2, -37.0507, 0.663365, 20.5413, -160.572, -92.6097, 54.7816
3.12793, 2, -37.0507, 0.663357, 20.5413, -160.572, -92.6098, 54.7816
3.13593, 2, -37.0507, 0.663335, 20.5413, -160.572, -92.6098, 54.7816
3.14399, 2, -37.0507, 0.663325, 20.5412, -160.572, -92.6098, 54.7817
3.15193, 2, -37.0506, 0.663332, 20.5412, -160.572, -92.6098, 54.7817
3.15993, 2, -37.0506, 0.663342, 20.5412, -160.572, -92.6098, 54.7818
3.16798, 2, -37.0506, 0.663336, 20.5412, -160.572, -92.6097, 54.7818
3.17593, 2, -37.0506, 0.663326, 20.5412, -160.572, -92.6097, 54.7818
3.18394, 2, -37.0506, 0.663332, 20.5412, -160.572, -92.6097, 54.7818
3.192, 2, -37.0506, 0.663313, 20.5412, -160.572, -92.6097, 54.7818
3.19993, 2, -37.0506, 0.663308, 20.5412, -160.572, -92.6098, 54.7818
3.20793, 2, -37.0506, 0.663331, 20.5412, -160.572, -92.6098, 54.7818
3.216, 2, -37.0506, 0.663361, 20.5412, -160.572, -92.6098, 54.7819
3.22393, 2, -37.0506, 0.663361, 20.5412, -160.572, -92.6098, 54.782
3.23193, 2, -37.0506, 0.663363, 20.5412, -160.572, -92.6098, 54.7821
3.24, 2, -37.0506, 0.663368, 20.5412, -160.572, -92.6098, 54.7821
3.24792, 2, -37.0505, 0.663376, 20.5412, -160.572, -92.6099, 54.782
3.25595, 2, -37.0505, 0.663375, 20.5412, -160.572, -92.6099, 54.7821
3.26403, 2, -37.0505, 0.663362, 20.5411, -160.572, -92.6099, 54.7821
3.27296, 2, -37.0505, 0.663356, 20.5411, -160.572, -92.6099, 54.7822
3.27992, 2, -37.0505, 0.663353, 20.5411, -160.572, -92.6099, 54.7822
3.288, 2, -37.0504, 0.663352, 20.5411, -160.572, -92.6099, 54.7822
3.29592, 2, -37.0505, 0.663351, 20.5411, -160.572, -92.6099, 54.7822
3.30394, 2, -37.0505, 0.663351, 20.5411, -160.572, -92.6099, 54.7822
3.31199, 2, -37.0505, 0.663351, 20.5411, -160.572, -92.6099, 54.7822
3.31992, 2, -37.0504, 0.663351, 20.5411, -160.572, -92.6099, 54.7822
3.32793, 2, -37.0504, 0.663358, 20.5411, -160.572, -92.6099, 54.7823
3.33599, 2, -37.0504, 0.663379, 20.5411, -160.572, -92.6099, 54.7823
3.34394, 2, -37.0504, 0.663388, 20.5411, -160.572, -92.6099, 54.7823
3.35192, 2, -37.0503, 0.663385, 20.5411, -160.572, -92.6099, 54.7823
3.36002, 2, -37.0503, 0.663379, 20.5411, -160.572, -92.6099, 54.7823
3.36792, 2, -37.0503, 0.663383, 20.5411, -160.572, -92.61, 54.7824
3.37592, 2, -37.0504, 0.663371, 20.541, -160.572, -92.61, 54.7824
3.384, 2, -37.0504, 0.66336, 20.541, -160.572, -92.6099, 54.7825
3.39193, 2, -37.0503, 0.663355, 20.541, -160.572, -92.6099, 54.7825
3.39992, 2, -37.0503, 0.663353, 20.541, -160.572, -92.6099, 54.7824
3.40801, 2, -37.0503, 0.663359, 20.541, -160.572, -92.6099, 54.7824
3.41592, 2, -37.0503, 0.663359, 20.541, -160.572, -92.61, 54.7824
3.42397, 2, -37.0502, 0.663362, 20.541, -160.572, -92.61, 54.7825
3.43202, 2, -37.0502, 0.663373, 20.541, -160.572, -92.61, 54.7825
3.43993, 2, -37.0502, 0.663361, 20.541, -160.572, -92.61, 54.7825
3.44796, 2, -37.0502, 0.663375, 20.541, -160.572, -92.61, 54.7825
3.45606, 2, -37.0502, 0.663386, 20.541, -160.572, -92.61, 54.7825
3.46403, 2, -37.0502, 0.663392, 20.541, -160.572, -92.61, 54.7826
3.47148, 2, -37.0502, 0.663394, 20.541, -160.572, -92.6099, 54.7825
3.48009, 2, -37.0502, 0.663395, 20.541, -160.572, -92.6099, 54.7825
3.48757, 2, -37.0502, 0.663376, 20.5409, -160.572, -92.61, 54.7826
3.49603, 2, -37.0502, 0.66337, 20.5409, -160.572, -92.61, 54.7826
3.50417, 2, -37.0501, 0.663384, 20.5409, -160.572, -92.61, 54.7825
3.5109, 2, -37.0501, 0.663381, 20.5409, -160.572, -92.61, 54.7826
3.51996, 2, -37.0501, 0.66336, 20.5409, -160.572, -92.61, 54.7826
3.52692, 2, -37.0501, 0.663364, 20.5409, -160.572, -92.61, 54.7826
3.536, 2, -37.0501, 0.663399, 20.5409, -160.572, -92.61, 54.7826
3.54295, 2, -37.0501, 0.663398, 20.5409, -160.572, -92.61, 54.7826
3.55268, 2, -37.05, 0.663397, 20.5409, -160.572, -92.61, 54.7826
3.56021, 2, -37.0501, 0.663384, 20.5409, -160.572, -92.61, 54.7826
3.56696, 2, -37.05, 0.663388, 20.5409, -160.572, -92.61, 54.7826
3.57666, 2, -37.05, 0.663394, 20.5409, -160.572, -92.6101, 54.7827
3.5844, 2, -37.05, 0.663388, 20.5409, -160.572, -92.6101, 54.7827
3.59245, 2, -37.05, 0.663387, 20.5409, -160.572, -92.61, 54.7827
3.60094, 2, -37.0499, 0.66338, 20.5409, -160.572, -92.61, 54.7827
3.60849, 2, -37.0499, 0.663389, 20.5408, -160.572, -92.61, 54.7827
3.61652, 2, -37.0499, 0.663373, 20.5408, -160.572, -92.61, 54.7827
3.62466, 2, -37.0499, 0.663366, 20.5408, -160.572, -92.6101, 54.7827
3.63191, 2, -37.0499, 0.663377, 20.5408, -160.572, -92.6101, 54.7827
3.64072, 2, -37.0498, 0.663387, 20.5408, -160.572, -92.6101, 54.7828
3.6469, 2, -37.0498, 0.663392, 20.5408, -160.572, -92.61, 54.7828
3.65592, 2, -37.0498, 0.663394, 20.5408, -160.572, -92.6101, 54.7828
3.66391, 2, -37.0498, 0.663406, 20.5408, -160.572, -92.61, 54.7828
3.67196, 2, -37.0498, 0.663408, 20.5408, -160.572, -92.61, 54.7827
3.67992, 2, -37.0498, 0.663402, 20.5408, -160.572, -92.61, 54.7828
3.68792, 2, -37.0497, 0.663399, 20.5408, -160.572, -92.61, 54.7828
3.69598, 2, -37.0497, 0.663397, 20.5408, -160.572, -92.61, 54.7828
3.70287, 2, -37.0497, 0.663408, 20.5408, -160.572, -92.61, 54.7828
3.71191, 2, -37.0497, 0.663409, 20.5408, -160.572, -92.61, 54.7828
3.7189, 2, -37.0496, 0.663413, 20.5408, -160.571, -92.61, 54.7828
3.72788, 4, -37.0496, 0.663399, 20.5407, -160.572, -92.61, 54.7828
3.73591, 4, -37.0496, 0.663397, 20.5407, -160.571, -92.61, 54.7829
3.7429, 4, -37.0496, 0.663397, 20.5407, -160.571, -92.61, 54.7829
3.75191, 4, -37.0496, 0.663407, 20.5407, -160.571, -92.6101, 54.7829
3.76094, 4, -37.0496, 0.663396, 20.5407, -160.571, -92.6101, 54.7829
3.768, 4, -37.0495, 0.663396, 20.5407, -160.571, -92.6101, 54.7829
3.77695, 4, -37.0495, 0.663396, 20.5407, -160.571, -92.6101, 54.7829
3.78391, 4, -37.0495, 0.663396, 20.5407, -160.571, -92.6101, 54.7829
3.79198, 4, -37.0494, 0.663407, 20.5407, -160.571, -92.6102, 54.7828
3.79992, 4, -37.0494, 0.663409, 20.5407, -160.571, -92.6101, 54.7828
3.80793, 4, -37.0494, 0.66339, 20.5407, -160.571, -92.6101, 54.7829
3.81597, 4, -37.0494, 0.663381, 20.5407, -160.571, -92.6101, 54.7829
3.82387, 4, -37.0494, 0.663389, 20.5407, -160.571, -92.6101, 54.7829
3.8504, 4, -37.0493, 0.663396, 20.5406, -160.571, -92.6102, 54.7829
3.85187, 4, -37.0492, 0.663396, 20.5406, -160.571, -92.6102, 54.7829
3.85313, 4, -37.0492, 0.663396, 20.5406, -160.571, -92.6102, 54.7829
3.85591, 4, -37.0492, 0.663407, 20.5406, -160.571, -92.6102, 54.7829
3.864, 4, -37.0492, 0.663419, 20.5406, -160.571, -92.6101, 54.7829
3.87191, 4, -37.0492, 0.663414, 20.5406, -160.571, -92.6101, 54.7829
3.87995, 4, -37.0491, 0.663397, 20.5406, -160.571, -92.6102, 54.7829
3.88794, 4, -37.0485, 0.663257, 20.5406, -160.571, -92.6101, 54.7829
3.8959, 4, -37.0459, 0.662396, 20.5407, -160.571, -92.6102, 54.7829
3.90394, 4, -37.0405, 0.659913, 20.5414, -160.571, -92.6102, 54.7829
3.91196, 4, -37.0328, 0.65562, 20.5433, -160.571, -92.6102, 54.7829
3.91993, 4, -37.0236, 0.649792, 20.5471, -160.571, -92.6102, 54.7829
3.92799, 4, -37.0128, 0.642218, 20.5535, -160.569, -92.6102, 54.7829
3.93596, 5, -36.9997, 0.632367, 20.5629, -160.567, -92.6102, 54.7829
3.94391, 5, -36.9848, 0.62046, 20.5755, -160.565, -92.6101, 54.7828
3.95131, 5, -36.9689, 0.606931, 20.5912, -160.562, -92.6099, 54.7827
3.95935, 5, -36.9517, 0.591981, 20.6093, -160.558, -92.6097, 54.7826
3.9675, 5, -36.9321, 0.575017, 20.629, -160.554, -92.6096, 54.7826
3.97606, 5, -36.9096, 0.555839, 20.6502, -160.549, -92.6094, 54.7824
3.98401, 5, -36.8846, 0.535514, 20.6719, -160.545, -92.6092, 54.7824
3.99207, 5, -36.8583, 0.514691, 20.6939, -160.54, -92.6089, 54.7822
4.00011, 5, -36.8311, 0.493256, 20.7161, -160.535, -92.6086, 54.782
4.00689, 5, -36.8175, 0.482421, 20.7272, -160.533, -92.6085, 54.782
4.01594, 5, -36.7762, 0.450154, 20.7607, -160.525, -92.6078, 54.7819
4.024, 5, -36.7487, 0.428443, 20.7831, -160.52, -92.6073, 54.7817
4.03089, 5, -36.7351, 0.417558, 20.7942, -160.517, -92.6071, 54.7816
4.04012, 5, -36.694, 0.385211, 20.8278, -160.51, -92.6063, 54.7814
4.04689, 5, -36.6804, 0.374401, 20.839, -160.507, -92.606, 54.7813
4.05618, 5, -36.6396, 0.342134, 20.8727, -160.5, -92.6051, 54.7811
4.06289, 5, -36.6259, 0.331488, 20.884, -160.497, -92.6048, 54.7811
4.07229, 5, -36.5849, 0.29947, 20.9175, -160.489, -92.6038, 54.7809
4.07894, 5, -36.5713, 0.28887, 20.9288, -160.487, -92.6034, 54.7809
4.08852, 5, -36.5306, 0.256848, 20.9625, -160.48, -92.6024, 54.7807
4.09641, 5, -36.5036, 0.235333, 20.985, -160.475, -92.6017, 54.7807
4.10448, 5, -36.4767, 0.213924, 21.0074, -160.47, -92.601, 54.7806
4.11258, 5, -36.4496, 0.19238, 21.0296, -160.466, -92.6003, 54.7804
4.12049, 5, -36.4359, 0.181571, 21.052, -160.461, -92.5996, 54.7803
4.12843, 5, -36.4082, 0.160059, 21.0632, -160.459, -92.5992, 54.7802
4.13653, 5, -36.3804, 0.138514, 21.0855, -160.454, -92.5985, 54.7799
4.1439, 5, -36.3526, 0.116822, 21.1079, -160.45, -92.5978, 54.7797
4.15189, 5, -36.3249, 0.0952978, 21.1302, -160.445, -92.5971, 54.7794
4.15999, 5, -36.2972, 0.0738846, 21.1524, -160.441, -92.5964, 54.7791
4.16789, 5, -36.2696, 0.0523602, 21.1747, -160.436, -92.5957, 54.7787
4.17591, 5, -36.2419, 0.0310064, 21.197, -160.432, -92.595, 54.7783
4.1839, 5, -36.2142, 0.00968974, 21.2192, -160.427, -92.5943, 54.7778
4.19191, 5, -36.1866, -0.011679, 21.2414, -160.422, -92.5936, 54.7773
4.19996, 5, -36.159, -0.0328878, 21.2637, -160.418, -92.5929, 54.7768
4.20792, 5, -36.1316, -0.0540829, 21.2859, -160.413, -92.5922, 54.7763
4.2159, 5, -36.1042, -0.0753432, 21.3081, -160.408, -92.5915, 54.7757
4.22397, 5, -36.0767, -0.0965508, 21.3304, -160.404, -92.5909, 54.7751
4.23191, 5, -36.0492, -0.117905, 21.3524, -160.399, -92.5902, 54.7746
4.2399, 5, -36.0216, -0.139237, 21.3745, -160.394, -92.5895, 54.7742
4.24798, 5, -35.9938, -0.160482, 21.3965, -160.389, -92.5889, 54.7737
4.2559, 5, -35.966, -0.181818, 21.4186, -160.383, -92.5883, 54.7732
4.26488, 5, -35.938, -0.203089, 21.4409, -160.378, -92.5876, 54.7727
4.27201, 5, -35.91, -0.22431, 21.4628, -160.373, -92.5869, 54.7723
4.28091, 5, -35.8821, -0.245629, 21.4849, -160.368, -92.5863, 54.7719
4.28807, 5, -35.8543, -0.266864, 21.5069, -160.362, -92.5856, 54.7715
4.29591, 5, -35.8263, -0.287925, 21.5288, -160.357, -92.585, 54.7711
4.30389, 5, -35.7984, -0.309052, 21.5509, -160.352, -92.5844, 54.7708
4.31194, 5, -35.7704, -0.330154, 21.5728, -160.347, -92.5837, 54.7705
4.31993, 5, -35.7425, -0.351176, 21.5947, -160.342, -92.5831, 54.7703
4.32789, 5, -35.7148, -0.3723, 21.6167, -160.337, -92.5824, 54.7701
4.33593, 5, -35.6871, -0.393388, 21.6386, -160.332, -92.5818, 54.7698
4.34392, 5, -35.6594, -0.414411, 21.6605, -160.327, -92.5811, 54.7696
4.35191, 5, -35.6316, -0.435526, 21.6822, -160.322, -92.5805, 54.7695
4.35993, 5, -35.6037, -0.456522, 21.7039, -160.317, -92.5799, 54.7694
4.36795, 5, -35.5757, -0.477621, 21.7257, -160.313, -92.5793, 54.7692
4.37589, 5, -35.5478, -0.498792, 21.7475, -160.308, -92.5787, 54.7691
4.38393, 5, -35.5198, -0.519831, 21.7693, -160.303, -92.578, 54.769
4.39197, 5, -35.4918, -0.540842, 21.7909, -160.298, -92.5774, 54.7689
4.3999, 5, -35.4637, -0.561837, 21.8125, -160.294, -92.5768, 54.7689
4.40793, 5, -35.4355, -0.582738, 21.8342, -160.289, -92.5761, 54.7689
4.41594, 5, -35.4075, -0.603652, 21.8557, -160.284, -92.5755, 54.7689
4.42389, 5, -35.3794, -0.624619, 21.8774, -160.279, -92.5749, 54.7688
4.43203, 5, -35.3513, -0.645451, 21.8989, -160.274, -92.5743, 54.7688
4.43993, 5, -35.3233, -0.666274, 21.9204, -160.269, -92.5737, 54.7688
4.44789, 5, -35.2951, -0.687201, 21.942, -160.264, -92.573, 54.7689
4.4562, 5, -35.2669, -0.708049, 21.9634, -160.259, -92.5724, 54.7689
4.46337, 5, -35.2389, -0.728865, 21.985, -160.254, -92.5718, 54.7688
4.47178, 5, -35.2108, -0.749763, 22.0064, -160.249, -92.5711, 54.7688
4.48034, 5, -35.1826, -0.770517, 22.0276, -160.244, -92.5705, 54.7688
4.48745, 5, -35.1544, -0.791199, 22.0489, -160.238, -92.5699, 54.7688
4.49599, 5, -35.126, -0.81199, 22.0703, -160.233, -92.5693, 54.7689
4.50452, 5, -35.0978, -0.832664, 22.0917, -160.227, -92.5686, 54.7689
4.51191, 5, -35.0696, -0.853382, 22.1131, -160.222, -92.568, 54.7689
4.52, 5, -35.0413, -0.874242, 22.1343, -160.216, -92.5674, 54.7689
4.52689, 5, -35.0272, -0.8846, 22.1449, -160.214, -92.567, 54.7689
4.53487, 5, -34.9989, -0.905194, 22.1661, -160.208, -92.5664, 54.769
4.54406, 5, -34.9562, -0.936259, 22.1979, -160.2, -92.5655, 54.769
4.55088, 5, -34.9421, -0.946585, 22.2086, -160.198, -92.5652, 54.769
4.55895, 5, -34.9139, -0.96716, 22.2297, -160.193, -92.5645, 54.769
4.56857, 5, -34.8715, -0.998119, 22.2614, -160.185, -92.5635, 54.7691
4.57735, 5, -34.8432, -1.01864, 22.2825, -160.18, -92.5629, 54.7692
4.58524, 5, -34.8147, -1.03903, 22.3036, -160.175, -92.5623, 54.7691
4.59087, 5, -34.8004, -1.04929, 22.3142, -160.173, -92.562, 54.7691
4.60126, 5, -34.7579, -1.08008, 22.3457, -160.166, -92.561, 54.7693
4.60694, 5, -34.7437, -1.09029, 22.3561, -160.163, -92.5607, 54.7693
4.61672, 5, -34.7012, -1.12111, 22.3876, -160.156, -92.5597, 54.7694
4.62521, 5, -34.6869, -1.1314, 22.4086, -160.151, -92.559, 54.7695
4.63087, 5, -34.6584, -1.15185, 22.4191, -160.149, -92.5587, 54.7696
4.64095, 5, -34.6155, -1.18257, 22.4506, -160.141, -92.5577, 54.7698
4.64778, 5, -34.6012, -1.19279, 22.461, -160.139, -92.5574, 54.7699
4.65487, 5, -34.5727, -1.21321, 22.4818, -160.134, -92.5568, 54.7701
4.66388, 5, -34.5441, -1.23371, 22.5026, -160.129, -92.5561, 54.7703
4.67205, 5, -34.5155, -1.25417, 22.5233, -160.124, -92.5555, 54.7705
4.68153, 5, -34.4869, -1.27447, 22.5546, -160.116, -92.5544, 54.7711
4.68788, 5, -34.4584, -1.29481, 22.5649, -160.113, -92.5541, 54.7714
4.69565, 5, -34.4298, -1.31514, 22.5856, -160.108, -92.5535, 54.772
4.70288, 5, -34.4013, -1.33534, 22.6064, -160.103, -92.5528, 54.7726
4.71188, 5, -34.3725, -1.35564, 22.6271, -160.097, -92.5522, 54.7734
4.72216, 5, -34.3294, -1.38608, 22.6582, -160.089, -92.5512, 54.7746
4.72687, 5, -34.3151, -1.39614, 22.6685, -160.086, -92.5508, 54.7751
4.73588, 5, -34.2864, -1.41633, 22.689, -160.08, -92.5501, 54.7761
4.74472, 5, -34.2579, -1.43665, 22.7096, -160.074, -92.5495, 54.7772
4.75087, 5, -34.2293, -1.4568, 22.7301, -160.069, -92.5488, 54.7785
4.75987, 5, -34.2004, -1.47698, 22.7507, -160.063, -92.5481, 54.7798
4.76886, 5, -34.1716, -1.49728, 22.7715, -160.058, -92.5475, 54.781
4.77489, 5, -34.1429, -1.51738, 22.7919, -160.052, -92.5468, 54.7823
4.78388, 5, -34.114, -1.53745, 22.8125, -160.047, -92.5462, 54.7836
4.79412, 5, -34.071, -1.56763, 22.8431, -160.039, -92.5451, 54.7856
4.80002, 5, -34.0566, -1.57762, 22.8533, -160.036, -92.5448, 54.7863
4.80797, 5, -34.0277, -1.59768, 22.8738, -160.031, -92.5441, 54.7877
4.81588, 5, -33.9989, -1.61787, 22.8942, -160.026, -92.5434, 54.7891
4.82393, 5, -33.9701, -1.63785, 22.9146, -160.021, -92.5427, 54.7906
4.83187, 5, -33.9412, -1.6578, 22.935, -160.015, -92.542, 54.792
4.83995, 5, -33.9124, -1.6779, 22.9554, -160.01, -92.5413, 54.7934
4.84787, 5, -33.8833, -1.69781, 22.9758, -160.005, -92.5407, 54.7948
4.85587, 5, -33.8543, -1.71772, 22.9961, -160, -92.5399, 54.7963
4.86396, 5, -33.8255, -1.73781, 23.0163, -159.995, -92.5392, 54.7977
4.87268, 5, -33.7966, -1.75772, 23.0364, -159.989, -92.5385, 54.7991
4.87986, 5, -33.7677, -1.77755, 23.0566, -159.984, -92.5378, 54.8006
4.88796, 5, -33.7386, -1.79754, 23.0768, -159.979, -92.5371, 54.802
4.8959, 5, -33.7094, -1.81747, 23.0971, -159.973, -92.5364, 54.8034
4.90388, 5, -33.6804, -1.83732, 23.1172, -159.968, -92.5357, 54.8049
4.91195, 5, -33.6515, -1.85723, 23.1373, -159.962, -92.535, 54.8064
4.91996, 5, -33.6226, -1.87714, 23.1574, -159.956, -92.5343, 54.8079
4.92787, 5, -33.5936, -1.89689, 23.1773, -159.951, -92.5335, 54.8094
4.93617, 5, -33.5644, -1.91671, 23.1975, -159.945, -92.5329, 54.8109
4.9432, 5, -33.5354, -1.9365, 23.2175, -159.939, -92.5321, 54.8124
4.95136, 5, -33.5063, -1.95626, 23.2373, -159.933, -92.5314, 54.814
4.96021, 5, -33.4772, -1.97617, 23.2574, -159.927, -92.5307, 54.8154
4.96764, 5, -33.4482, -1.99616, 23.2774, -159.922, -92.53, 54.8169
4.97597, 5, -33.419, -2.01604, 23.2973, -159.916, -92.5292, 54.8183
4.98403, 5, -33.3898, -2.03608, 23.3175, -159.91, -92.5283, 54.8196
4.9923, 5, -33.3609, -2.05624, 23.3375, -159.904, -92.5274, 54.8209
4.99951, 5, -33.332, -2.07633, 23.3575, -159.899, -92.5263, 54.822
5.00805, 5, -33.3031, -2.09677, 23.3778, -159.893, -92.525, 54.8229
5.01669, 5, -33.2741, -2.11734, 23.3983, -159.887, -92.5235, 54.8236
5.0239, 6, -33.2452, -2.13782, 23.4188, -159.881, -92.5218, 54.8239
5.03197, 6, -33.2165, -2.15866, 23.4397, -159.875, -92.5199, 54.8242
5.04101, 6, -33.1879, -2.17977, 23.4605, -159.869, -92.5178, 54.8243
5.048, 6, -33.1594, -2.20092, 23.4816, -159.862, -92.5154, 54.8244
5.05485, 6, -33.1452, -2.21164, 23.4922, -159.859, -92.5142, 54.8244
5.06502, 6, -33.1026, -2.24425, 23.5241, -159.849, -92.51, 54.8241
5.0722, 6, -33.0743, -2.26604, 23.5457, -159.842, -92.507, 54.8239
5.07886, 6, -33.0603, -2.27708, 23.5565, -159.838, -92.5054, 54.8238
5.08877, 6, -33.0182, -2.31048, 23.5891, -159.827, -92.5004, 54.8231
5.09735, 6, -32.9903, -2.33303, 23.6112, -159.819, -92.4968, 54.8224
5.10286, 6, -32.9763, -2.34448, 23.6222, -159.815, -92.4949, 54.8219
5.11246, 6, -32.9343, -2.37891, 23.6558, -159.803, -92.489, 54.8203
5.12078, 7, -32.9067, -2.40209, 23.6782, -159.794, -92.4848, 54.8193
5.12846, 7, -32.8929, -2.41378, 23.7007, -159.785, -92.4804, 54.8179
5.13644, 7, -32.8653, -2.43719, 23.7121, -159.781, -92.4782, 54.8158
5.14391, 7, -32.8378, -2.46092, 23.7349, -159.772, -92.4735, 54.8145
5.15185, 7, -32.8104, -2.48494, 23.7581, -159.763, -92.4688, 54.8113
5.15987, 7, -32.783, -2.50901, 23.7814, -159.754, -92.4637, 54.8076
5.16791, 7, -32.7558, -2.53342, 23.8046, -159.745, -92.4585, 54.8034
5.17587, 7, -32.7287, -2.558, 23.8282, -159.736, -92.4531, 54.7989
5.184, 7, -32.7017, -2.58284, 23.8518, -159.727, -92.4474, 54.7939
5.1917, 7, -32.6749, -2.60802, 23.8756, -159.717, -92.4416, 54.7886
5.19988, 7, -32.648, -2.63322, 23.8996, -159.708, -92.4355, 54.7831
5.20787, 7, -32.6211, -2.65869, 23.9238, -159.698, -92.4291, 54.7772
5.21591, 7, -32.5945, -2.68438, 23.9481, -159.688, -92.4225, 54.771
5.22546, 8, -32.5547, -2.72344, 23.985, -159.673, -92.412, 54.7612
5.23338, 8, -32.5283, -2.74971, 24.0096, -159.662, -92.4046, 54.7543
5.23986, 8, -32.5151, -2.7629, 24.022, -159.657, -92.4008, 54.7507
5.24786, 8, -32.4888, -2.78949, 24.0469, -159.646, -92.3929, 54.7433
5.25669, 8, -32.4624, -2.81623, 24.0721, -159.635, -92.3847, 54.7357
5.26386, 8, -32.4363, -2.84333, 24.0975, -159.624, -92.3761, 54.7278
5.27285, 8, -32.4102, -2.87048, 24.123, -159.612, -92.3672, 54.7196
5.28091, 8, -32.3843, -2.89789, 24.1486, -159.601, -92.3582, 54.7111
5.287, 8, -32.3585, -2.92558, 24.1743, -159.59, -92.3491, 54.7022
5.29589, 8, -32.3326, -2.95339, 24.2002, -159.579, -92.34, 54.6932
5.30463, 8, -32.3069, -2.98155, 24.2264, -159.567, -92.3307, 54.6836
5.31086, 8, -32.2814, -3.0098, 24.2526, -159.556, -92.3214, 54.6738
5.3199, 8, -32.256, -3.03828, 24.279, -159.544, -92.3119, 54.6637
5.33029, 9, -32.2179, -3.08146, 24.3189, -159.525, -92.2975, 54.648
5.33497, 9, -32.2052, -3.09599, 24.3323, -159.519, -92.2926, 54.6427
5.34391, 9, -32.18, -3.12511, 24.3591, -159.506, -92.2826, 54.632
5.35185, 9, -32.1547, -3.15454, 24.386, -159.493, -92.2723, 54.6212
5.35903, 9, -32.1296, -3.18411, 24.4133, -159.48, -92.2617, 54.6103
5.36792, 9, -32.1047, -3.21399, 24.4407, -159.467, -92.2506, 54.5994
5.37586, 9, -32.0797, -3.24406, 24.4682, -159.454, -92.2391, 54.5883
5.3872, 9, -32.0549, -3.27435, 24.4958, -159.441, -92.2212, 54.5714
5.39099, 9, -32.0302, -3.30488, 24.5236, -159.428, -92.2151, 54.5656
5.39987, 9, -32.0054, -3.33565, 24.5516, -159.415, -92.2029, 54.5538
5.40788, 9, -31.9807, -3.3666, 24.5797, -159.401, -92.1907, 54.5418
5.41591, 9, -31.9563, -3.3978, 24.608, -159.387, -92.1785, 54.5295
5.42388, 9, -31.932, -3.42923, 24.6365, -159.373, -92.166, 54.5168
5.43186, 10, -31.9078, -3.46097, 24.6652, -159.358, -92.1535, 54.5036
5.43989, 10, -31.8837, -3.49285, 24.6939, -159.343, -92.1407, 54.49
5.44834, 10, -31.8597, -3.52496, 24.7228, -159.329, -92.1277, 54.476
5.45532, 10, -31.8356, -3.55729, 24.752, -159.315, -92.1142, 54.4617
5.464, 10, -31.8117, -3.58994, 24.7813, -159.3, -92.1004, 54.4473
5.47211, 10, -31.7879, -3.62267, 24.8107, -159.286, -92.086, 54.4328
5.47976, 10, -31.7642, -3.65566, 24.8403, -159.271, -92.0713, 54.4184
5.48803, 10, -31.7407, -3.68888, 24.8701, -159.256, -92.0567, 54.4038
5.49596, 10, -31.7172, -3.72239, 24.9, -159.24, -92.0419, 54.3891
5.50438, 10, -31.6937, -3.75598, 24.9301, -159.225, -92.0273, 54.3742
5.51171, 10, -31.6702, -3.78978, 24.9604, -159.209, -92.0126, 54.3591
5.51988, 10, -31.647, -3.82392, 24.9909, -159.193, -91.9978, 54.3437
5.52867, 10, -31.6237, -3.85823, 25.0214, -159.177, -91.9826, 54.3279
5.53623, 11, -31.6004, -3.89272, 25.0521, -159.161, -91.9671, 54.3116
5.54291, 11, -31.5888, -3.91004, 25.0675, -159.153, -91.9591, 54.3033
5.55303, 11, -31.5543, -3.96252, 25.1142, -159.129, -91.9345, 54.2778
5.56011, 11, -31.5312, -3.99775, 25.1453, -159.112, -91.9179, 54.2605
5.56683, 11, -31.5197, -4.01544, 25.1609, -159.104, -91.9095, 54.2519
5.57707, 11, -31.4857, -4.06898, 25.2083, -159.078, -91.8845, 54.226
5.5846, 11, -31.4631, -4.10503, 25.2399, -159.061, -91.8677, 54.2087
5.5924, 11, -31.4405, -4.14118, 25.2717, -159.043, -91.8509, 54.1912
5.60078, 11, -31.418, -4.17757, 25.3038, -159.026, -91.8336, 54.1733
5.60934, 11, -31.3956, -4.21436, 25.336, -159.009, -91.8159, 54.1552
5.61483, 11, -31.3843, -4.23282, 25.3521, -159, -91.8069, 54.146
5.62444, 11, -31.3619, -4.28834, 25.4008, -158.974, -91.779, 54.1175
5.63274, 11, -31.3398, -4.307, 25.4337, -158.956, -91.7604, 54.098
5.64045, 12, -31.3178, -4.34453, 25.4501, -158.946, -91.7512, 54.0781
5.64787, 12, -31.2958, -4.38223, 25.4829, -158.928, -91.7326, 54.0681
5.65584, 12, -31.2739, -4.42013, 25.516, -158.909, -91.7141, 54.0483
5.66385, 12, -31.2523, -4.45831, 25.5494, -158.89, -91.6954, 54.0285
5.67192, 12, -31.2304, -4.49665, 25.5828, -158.872, -91.6763, 54.0086
5.67985, 12, -31.2086, -4.53519, 25.6163, -158.853, -91.6566, 53.9885
5.68786, 12, -31.187, -4.57404, 25.6502, -158.835, -91.6365, 53.9681
5.69606, 12, -31.1656, -4.61307, 25.684, -158.815, -91.6163, 53.9471
5.7066, 12, -31.1335, -4.67203, 25.7352, -158.786, -91.5863, 53.9146
5.71183, 12, -31.1228, -4.69182, 25.7524, -158.776, -91.5762, 53.9036
5.71991, 12, -31.1017, -4.73153, 25.7868, -158.756, -91.5559, 53.8816
5.72785, 12, -31.0805, -4.77156, 25.8212, -158.737, -91.5352, 53.8598
5.73581, 13, -31.0592, -4.81182, 25.8559, -158.717, -91.5138, 53.8379
5.74538, 13, -31.038, -4.8523, 25.9083, -158.688, -91.481, 53.8045
5.75183, 13, -31.0172, -4.89304, 25.9258, -158.678, -91.4701, 53.7933
5.75986, 13, -30.9963, -4.9341, 25.961, -158.657, -91.4485, 53.7704
5.76884, 13, -30.9756, -4.97537, 25.9965, -158.637, -91.427, 53.7471
5.77586, 13, -30.955, -5.01684, 26.0319, -158.616, -91.4052, 53.7232
5.78483, 13, -30.9345, -5.05857, 26.0677, -158.595, -91.3829, 53.6993
5.79288, 13, -30.9139, -5.10049, 26.1037, -158.575, -91.36, 53.6756
5.80182, 13, -30.8933, -5.14263, 26.1397, -158.554, -91.3369, 53.6518
5.8069, 13, -30.873, -5.185, 26.1758, -158.533, -91.314, 53.6278
5.81661, 13, -30.8527, -5.22753, 26.2123, -158.512, -91.2909, 53.6036
5.82297, 13, -30.8325, -5.27022, 26.2488, -158.49, -91.2679, 53.5787
5.83187, 13, -30.8124, -5.31323, 26.2855, -158.468, -91.2444, 53.5534
5.84234, 14, -30.7826, -5.37808, 26.341, -158.436, -91.2079, 53.5149
5.84785, 14, -30.7727, -5.39978, 26.3594, -158.425, -91.1957, 53.5023
5.8559, 14, -30.7528, -5.44345, 26.3966, -158.404, -91.1713, 53.4771
5.86384, 14, -30.7329, -5.48735, 26.4341, -158.382, -91.1471, 53.4518
5.87184, 14, -30.7133, -5.53152, 26.4716, -158.359, -91.1228, 53.4262
5.8799, 14, -30.6936, -5.57604, 26.5092, -158.337, -91.0981, 53.4
5.88786, 14, -30.674, -5.62073, 26.5471, -158.314, -91.0726, 53.373
5.89944, 14, -30.645, -5.68823, 26.6041, -158.28, -91.0339, 53.332
5.9039, 14, -30.6354, -5.71089, 26.6232, -158.269, -91.0211, 53.3184
5.91183, 14, -30.6162, -5.75632, 26.6616, -158.246, -90.9955, 53.2911
5.91984, 14, -30.5969, -5.80196, 26.7, -158.223, -90.9697, 53.2638
5.92794, 14, -30.5778, -5.84781, 26.7387, -158.199, -90.9433, 53.2364
5.93584, 14, -30.5588, -5.89388, 26.7776, -158.176, -90.9162, 53.2084
5.94386, 15, -30.5399, -5.94009, 26.8166, -158.153, -90.8893, 53.1797
5.95193, 15, -30.521, -5.9865, 26.8557, -158.129, -90.8625, 53.1508
5.95987, 15, -30.5024, -6.03315, 26.8952, -158.106, -90.8358, 53.1222
5.96798, 15, -30.4839, -6.08002, 26.9347, -158.081, -90.8088, 53.0936
5.97596, 15, -30.4654, -6.12709, 26.9743, -158.057, -90.7809, 53.0645
5.98399, 15, -30.4468, -6.17437, 27.0142, -158.032, -90.7529, 53.0351
5.99198, 15, -30.4283, -6.22187, 27.0541, -158.008, -90.7251, 53.005
5.99999, 15, -30.4099, -6.26975, 27.0943, -157.983, -90.6972, 52.9745
6.00794, 15, -30.3917, -6.31789, 27.1346, -157.959, -90.669, 52.9442
6.0167, 15, -30.3735, -6.36621, 27.1749, -157.933, -90.64, 52.9139
6.02583, 15, -30.3554, -6.41493, 27.2156, -157.908, -90.6106, 52.8835
6.03186, 15, -30.3375, -6.46394, 27.2563, -157.882, -90.5815, 52.8526
6.04067, 15, -30.3197, -6.5131, 27.2973, -157.857, -90.5525, 52.8211
6.04801, 16, -30.3018, -6.56252, 27.3384, -157.832, -90.5235, 52.7892
6.05484, 16, -30.2928, -6.5873, 27.359, -157.819, -90.5086, 52.7732
6.06512, 16, -30.2661, -6.66198, 27.4212, -157.78, -90.4632, 52.7258
6.07082, 16, -30.2573, -6.68698, 27.4421, -157.767, -90.4481, 52.71
6.08018, 16, -30.2309, -6.76209, 27.5047, -157.728, -90.4032, 52.6619
6.08686, 16, -30.2221, -6.78727, 27.5257, -157.715, -90.3881, 52.6455
6.09488, 16, -30.2046, -6.83774, 27.5678, -157.69, -90.3572, 52.6124
6.10439, 16, -30.1787, -6.91382, 27.6313, -157.65, -90.3101, 52.5629
6.11279, 16, -30.1616, -6.9648, 27.6738, -157.623, -90.2791, 52.5301
6.12119, 16, -30.1444, -7.01608, 27.7163, -157.596, -90.2481, 52.497
6.12681, 16, -30.1358, -7.04188, 27.7377, -157.583, -90.2324, 52.4801
6.13643, 16, -30.1186, -7.09359, 27.7807, -157.543, -90.1841, 52.4288
6.14382, 16, -30.1016, -7.14556, 27.8236, -157.53, -90.1681, 52.4117
6.15256, 17, -30.0847, -7.19794, 27.8667, -157.502, -90.1361, 52.361
6.15985, 17, -30.0679, -7.25052, 27.9101, -157.474, -90.1041, 52.344
6.16787, 17, -30.0512, -7.30337, 27.9535, -157.447, -90.0714, 52.3098
6.17584, 17, -30.0347, -7.35645, 27.9972, -157.42, -90.0381, 52.2749
6.18383, 17, -30.0182, -7.40972, 28.0409, -157.392, -90.005, 52.2395
6.19186, 17, -30.0019, -7.4631, 28.0849, -157.364, -89.9723, 52.2041
6.19885, 17, -29.9854, -7.51664, 28.1292, -157.335, -89.9391, 52.1691
6.20809, 17, -29.9691, -7.5704, 28.1735, -157.307, -89.9051, 52.1337
6.21734, 17, -29.9528, -7.62425, 28.2404, -157.265, -89.8543, 52.0798
6.22383, 17, -29.9366, -7.67834, 28.2628, -157.251, -89.8374, 52.0615
6.23183, 17, -29.9206, -7.73269, 28.3076, -157.222, -89.8035, 52.0251
6.2399, 17, -29.9045, -7.78728, 28.3527, -157.192, -89.7687, 51.9889
6.24784, 17, -29.8886, -7.84215, 28.3978, -157.163, -89.7336, 51.9525
6.25584, 18, -29.8729, -7.89737, 28.4432, -157.135, -89.699, 51.9156
6.26396, 18, -29.8572, -7.95291, 28.4886, -157.106, -89.6646, 51.8781
6.27183, 18, -29.8415, -8.00873, 28.5341, -157.076, -89.6294, 51.8407
6.28082, 18, -29.8258, -8.06472, 28.5799, -157.045, -89.5935, 51.8035
6.28793, 18, -29.8101, -8.12103, 28.6259, -157.016, -89.5581, 51.766
6.29583, 18, -29.7946, -8.17755, 28.672, -156.986, -89.5228, 51.728
6.304, 18, -29.7791, -8.23407, 28.7183, -156.956, -89.4867, 51.6893
6.31263, 18, -29.7638, -8.29089, 28.7649, -156.926, -89.4499, 51.6507
6.31882, 18, -29.7485, -8.34776, 28.8115, -156.895, -89.4136, 51.6124
6.32784, 18, -29.7333, -8.40477, 28.8583, -156.865, -89.3775, 51.5741
6.33599, 18, -29.7183, -8.46194, 28.9054, -156.835, -89.3407, 51.535
6.34382, 18, -29.7033, -8.51942, 28.9526, -156.804, -89.3031, 51.4954
6.35325, 19, -29.6884, -8.57714, 28.9999, -156.773, -89.2661, 51.4562
6.35982, 19, -29.6734, -8.63516, 29.0473, -156.742, -89.2291, 51.4171
6.36789, 19, -29.6584, -8.69351, 29.0949, -156.711, -89.1913, 51.3778
6.37583, 19, -29.6436, -8.75212, 29.1426, -156.68, -89.153, 51.3377
6.38382, 19, -29.6288, -8.81107, 29.1904, -156.649, -89.1153, 51.2977
6.39188, 19, -29.6143, -8.87026, 29.2384, -156.617, -89.0776, 51.258
6.39985, 19, -29.5998, -8.92964, 29.2866, -156.586, -89.0391, 51.2182
6.40976, 19, -29.5853, -8.98918, 29.3349, -156.554, -89.0005, 51.1778
6.41487, 19, -29.571, -9.04893, 29.3834, -156.522, -88.9622, 51.1365
6.42382, 19, -29.5568, -9.10877, 29.4322, -156.49, -88.9238, 51.0954
6.43184, 19, -29.5426, -9.16869, 29.4811, -156.457, -88.8844, 51.0545
6.43989, 19, -29.5286, -9.22883, 29.5301, -156.425, -88.8451, 51.0133
6.44784, 19, -29.5144, -9.28915, 29.5794, -156.393, -88.8063, 50.9713
6.45586, 20, -29.5003, -9.34968, 29.6288, -156.36, -88.767, 50.9293
6.46392, 20, -29.4864, -9.41057, 29.6783, -156.327, -88.7269, 50.8875
6.47195, 20, -29.4725, -9.47175, 29.7279, -156.294, -88.6872, 50.8455
6.47998, 20, -29.4587, -9.53316, 29.7777, -156.261, -88.6477, 50.8029
6.48792, 20, -29.445, -9.59484, 29.8276, -156.228, -88.6073, 50.7598
6.49592, 20, -29.4313, -9.65686, 29.8776, -156.194, -88.5666, 50.7171
6.504, 20, -29.4178, -9.71907, 29.9278, -156.16, -88.5265, 50.6745
6.51193, 20, -29.4045, -9.78151, 29.9782, -156.127, -88.4861, 50.6314
6.51982, 20, -29.3911, -9.844, 30.0287, -156.093, -88.4448, 50.5875
6.52819, 20, -29.3779, -9.90671, 30.0795, -156.059, -88.4037, 50.544
6.53586, 20, -29.3646, -9.96953, 30.1306, -156.024, -88.3629, 50.5007
6.54386, 20, -29.3512, -10.0325, 30.1816, -155.99, -88.3213, 50.4571
6.55231, 20, -29.338, -10.0957, 30.2329, -155.956, -88.2792, 50.4129
6.55877, 21, -29.3315, -10.1274, 30.2586, -155.939, -88.2584, 50.3906
6.56806, 21, -29.3118, -10.2228, 30.3359, -155.886, -88.1962, 50.3244
6.57486, 21, -29.3053, -10.2547, 30.3617, -155.869, -88.175, 50.3023
6.58429, 21, -29.286, -10.3508, 30.4393, -155.817, -88.1115, 50.2355
6.59226, 21, -29.2731, -10.4152, 30.4911, -155.782, -88.0696, 50.1905
6.60082, 21, -29.2604, -10.4798, 30.5432, -155.747, -88.0267, 50.1463
6.60835, 21, -29.2479, -10.5447, 30.5954, -155.712, -87.9835, 50.1019
6.61637, 21, -29.2353, -10.6096, 30.6478, -155.677, -87.9409, 50.0568
6.62491, 21, -29.2228, -10.6747, 30.7003, -155.641, -87.8982, 50.0113
6.63097, 21, -29.2165, -10.7073, 30.7266, -155.623, -87.8764, 49.9887
6.63887, 21, -29.2039, -10.7727, 30.7795, -155.587, -87.8327, 49.9439
6.64861, 21, -29.1914, -10.8382, 30.8324, -155.551, -87.7897, 49.8985
6.65581, 21, -29.1789, -10.904, 30.8856, -155.516, -87.7462, 49.8525
6.66391, 22, -29.1666, -10.9699, 30.9389, -155.479, -87.7017, 49.8066
6.67182, 22, -29.1543, -11.036, 30.9923, -155.442, -87.658, 49.7611
6.67985, 22, -29.1421, -11.1024, 31.0458, -155.406, -87.6144, 49.7152
6.68781, 22, -29.1301, -11.169, 31.0994, -155.369, -87.5695, 49.6684
6.69581, 22, -29.118, -11.2359, 31.1531, -155.331, -87.5249, 49.6218
6.70386, 22, -29.1061, -11.3029, 31.207, -155.294, -87.4807, 49.5756
6.7108, 22, -29.0944, -11.3701, 31.261, -155.258, -87.4355, 49.5292
6.71997, 22, -29.0827, -11.4375, 31.3153, -155.22, -87.3903, 49.4819
6.72769, 22, -29.0711, -11.5051, 31.3696, -155.182, -87.3458, 49.4347
6.73481, 22, -29.0595, -11.5728, 31.4243, -155.145, -87.3007, 49.3878
6.74383, 22, -29.0478, -11.6409, 31.479, -155.108, -87.2549, 49.3407
6.75185, 22, -29.0361, -11.709, 31.5337, -155.07, -87.2099, 49.2929
6.75981, 22, -29.0246, -11.7774, 31.5887, -155.031, -87.1643, 49.2453
6.76951, 23, -29.0132, -11.846, 31.6438, -154.994, -87.0949, 49.1745
6.7758, 23, -29.0018, -11.9147, 31.6989, -154.956, -87.0723, 49.1507
6.7848, 23, -28.9904, -11.9836, 31.7542, -154.917, -87.0266, 49.1026
6.79193, 23, -28.9791, -12.0528, 31.8096, -154.879, -86.9799, 49.055
6.80082, 23, -28.9678, -12.122, 31.865, -154.84, -86.9338, 49.0077
6.80792, 23, -28.9566, -12.1914, 31.9207, -154.802, -86.8877, 48.96
6.81595, 23, -28.9455, -12.2611, 31.9766, -154.763, -86.8404, 48.9115
6.82458, 23, -28.9346, -12.3308, 32.0325, -154.724, -86.7935, 48.8634
6.83191, 23, -28.9236, -12.4009, 32.0888, -154.685, -86.747, 48.8156
6.83983, 23, -28.9127, -12.4711, 32.1451, -154.646, -86.6992, 48.7671
6.84785, 23, -28.9019, -12.5414, 32.2015, -154.606, -86.6519, 48.7185
6.85581, 23, -28.8911, -12.612, 32.2581, -154.566, -86.6048, 48.6702
6.86521, 24, -28.8803, -12.6827, 32.3148, -154.527, -86.5567, 48.622
6.87181, 24, -28.8696, -12.7536, 32.3715, -154.487, -86.5089, 48.5731
6.87987, 24, -28.859, -12.8246, 32.4284, -154.446, -86.4618, 48.5239
6.88781, 24, -28.8484, -12.8958, 32.4854, -154.406, -86.4134, 48.4753
6.89684, 24, -28.8378, -12.9672, 32.5425, -154.366, -86.3653, 48.4265
6.9048, 24, -28.8274, -13.0387, 32.5998, -154.325, -86.3176, 48.377
6.91183, 24, -28.8169, -13.1104, 32.6572, -154.285, -86.2687, 48.3276
6.92338, 24, -28.8064, -13.2184, 32.7437, -154.224, -86.1961, 48.2542
6.92693, 24, -28.796, -13.2545, 32.7726, -154.204, -86.1721, 48.2295
6.93582, 24, -28.7858, -13.3268, 32.8304, -154.162, -86.1231, 48.1796
6.94387, 24, -28.7755, -13.3992, 32.8883, -154.122, -86.0742, 48.1301
6.95184, 24, -28.7653, -13.4718, 32.9463, -154.081, -86.0259, 48.0809
6.95985, 24, -28.7552, -13.5445, 33.0044, -154.04, -85.9764, 48.0313
6.96826, 25, -28.7451, -13.6173, 33.0626, -153.998, -85.9272, 47.9814
6.9753, 25, -28.735, -13.6903, 33.121, -153.957, -85.8785, 47.9321
6.9839, 25, -28.7249, -13.7634, 33.1795, -153.916, -85.8288, 47.8829
6.99237, 25, -28.7149, -13.8367, 33.2381, -153.873, -85.7792, 47.8331
6.99938, 25, -28.705, -13.9102, 33.2968, -153.832, -85.7302, 47.7832
7.00791, 25, -28.6951, -13.9838, 33.3556, -153.79, -85.6799, 47.7339
7.01643, 25, -28.6852, -14.0576, 33.4145, -153.748, -85.6302, 47.6847
7.02381, 25, -28.6755, -14.1315, 33.4737, -153.705, -85.5808, 47.6347
7.03183, 25, -28.6658, -14.2057, 33.5328, -153.663, -85.5304, 47.585
7.04032, 25, -28.6561, -14.2799, 33.5921, -153.62, -85.4806, 47.5358
7.05379, 25, -28.6415, -14.3915, 33.6812, -153.556, -85.4055, 47.4612
7.05596, 25, -28.6367, -14.4288, 33.711, -153.535, -85.3801, 47.4361
7.06404, 25, -28.6272, -14.5034, 33.7705, -153.492, -85.33, 47.3864
7.07101, 26, -28.6225, -14.5407, 33.8003, -153.47, -85.3051, 47.3617
7.08011, 26, -28.6083, -14.653, 33.8898, -153.406, -85.229, 47.2872
7.08683, 26, -28.6036, -14.6905, 33.9197, -153.384, -85.2038, 47.262
7.09637, 26, -28.5896, -14.8034, 34.0096, -153.318, -85.1282, 47.1876
7.10439, 26, -28.5802, -14.8786, 34.0698, -153.275, -85.0768, 47.1381
7.11234, 26, -28.5707, -14.954, 34.13, -153.232, -85.0263, 47.088
7.12043, 26, -28.5613, -15.0295, 34.1903, -153.188, -84.9754, 47.038
7.12838, 26, -28.552, -15.1051, 34.2507, -153.144, -84.9239, 46.9888
7.13656, 26, -28.5426, -15.1808, 34.3112, -153.101, -84.8732, 46.9395
7.14449, 26, -28.5379, -15.2187, 34.3717, -153.057, -84.8217, 46.8896
7.15179, 26, -28.5286, -15.2945, 34.4021, -153.035, -84.7958, 46.8648
7.15979, 26, -28.5193, -15.3706, 34.4628, -152.99, -84.7448, 46.8158
7.16796, 26, -28.5102, -15.4467, 34.5235, -152.947, -84.6936, 46.767
7.17575, 27, -28.5009, -15.523, 34.5843, -152.902, -84.6417, 46.7174
7.18386, 27, -28.4917, -15.5995, 34.6453, -152.857, -84.5906, 46.6677
7.19179, 27, -28.4825, -15.6761, 34.7063, -152.813, -84.5389, 46.6187
7.1998, 27, -28.4735, -15.7528, 34.7674, -152.768, -84.4868, 46.5695
7.20779, 27, -28.4646, -15.8296, 34.8287, -152.722, -84.4355, 46.5198
7.21579, 27, -28.4555, -15.9065, 34.89, -152.678, -84.3835, 46.4704
7.22381, 27, -28.4466, -15.9835, 34.9515, -152.633, -84.3314, 46.4216
7.23193, 27, -28.4377, -16.0606, 35.013, -152.587, -84.28, 46.3724
7.24123, 27, -28.4289, -16.1378, 35.1053, -152.519, -84.2011, 46.2981
7.24678, 27, -28.4199, -16.2151, 35.136, -152.496, -84.1753, 46.2736
7.25579, 27, -28.4108, -16.2925, 35.1976, -152.45, -84.1237, 46.2249
7.26386, 27, -28.4018, -16.3701, 35.2593, -152.405, -84.0709, 46.1758
7.27423, 27, -28.3929, -16.4477, 35.3211, -152.36, -84.0189, 46.1022
7.27992, 28, -28.3839, -16.5255, 35.383, -152.313, -83.9667, 46.078
7.28885, 28, -28.375, -16.6034, 35.4451, -152.268, -83.9137, 46.0297
7.29583, 28, -28.366, -16.6813, 35.5072, -152.222, -83.8618, 45.9809
7.30461, 28, -28.3572, -16.7594, 35.5693, -152.175, -83.8095, 45.9322
7.31086, 28, -28.3484, -16.8375, 35.6316, -152.129, -83.7566, 45.8842
7.31985, 28, -28.3396, -16.9157, 35.6938, -152.083, -83.7046, 45.8365
7.32882, 28, -28.3307, -16.9939, 35.7561, -152.036, -83.6516, 45.7883
7.33649, 28, -28.322, -17.0722, 35.8184, -151.989, -83.5987, 45.7402
7.34283, 28, -28.3134, -17.1506, 35.8809, -151.943, -83.5467, 45.6929
7.35181, 28, -28.3048, -17.2291, 35.9433, -151.896, -83.4934, 45.6457
7.35981, 28, -28.2961, -17.3077, 36.0058, -151.848, -83.4408, 45.598
7.36785, 28, -28.2875, -17.3863, 36.0685, -151.802, -83.3883, 45.5506
7.37657, 28, -28.2789, -17.4651, 36.1312, -151.755, -83.3347, 45.504
7.38378, 29, -28.2703, -17.544, 36.1939, -151.707, -83.2822, 45.4571
7.39184, 29, -28.2615, -17.6229, 36.2568, -151.66, -83.2292, 45.41
7.4017, 29, -28.2528, -17.7019, 36.3197, -151.612, -83.1757, 45.3633
7.40688, 29, -28.244, -17.781, 36.3825, -151.565, -83.123, 45.3173
7.41585, 29, -28.2354, -17.86, 36.4453, -151.518, -83.0695, 45.2712
7.42379, 29, -28.2267, -17.9392, 36.5081, -151.47, -83.0162, 45.2245
7.43179, 29, -28.218, -18.0184, 36.5711, -151.422, -82.9634, 45.1783
7.43999, 29, -28.2093, -18.0976, 36.6342, -151.375, -82.9096, 45.1327
7.44779, 29, -28.2008, -18.1769, 36.6974, -151.327, -82.8566, 45.0873
7.45761, 29, -28.1922, -18.2563, 36.7607, -151.278, -82.8035, 45.0416
7.46317, 29, -28.1836, -18.3358, 36.824, -151.231, -82.7497, 44.9961
7.47157, 29, -28.1749, -18.4153, 36.8873, -151.182, -82.697, 44.9513
7.48016, 29, -28.1664, -18.4948, 36.9506, -151.133, -82.6437, 44.9067
7.48729, 30, -28.1579, -18.5744, 37.0139, -151.085, -82.59, 44.8619
7.49589, 30, -28.1494, -18.6541, 37.0773, -151.037, -82.5373, 44.8173
7.50454, 30, -28.1408, -18.7338, 37.1406, -150.987, -82.4834, 44.7735
7.51189, 30, -28.1322, -18.8134, 37.204, -150.939, -82.4298, 44.7299
7.51987, 30, -28.1237, -18.8933, 37.2674, -150.89, -82.3769, 44.6864
7.52849, 30, -28.1151, -18.9732, 37.3308, -150.841, -82.3229, 44.6428
7.53582, 30, -28.1064, -19.053, 37.3944, -150.793, -82.2696, 44.6
7.54384, 30, -28.0976, -19.133, 37.458, -150.743, -82.2161, 44.5578
7.55222, 30, -28.0889, -19.2131, 37.5216, -150.694, -82.162, 44.5154
7.56083, 30, -28.0803, -19.293, 37.5852, -150.646, -82.1089, 44.4728
7.56825, 30, -28.0716, -19.3729, 37.6488, -150.596, -82.0553, 44.4308
7.57477, 30, -28.0672, -19.413, 37.6806, -150.571, -82.0283, 44.4101
7.58498, 30, -28.0539, -19.5329, 37.776, -150.498, -81.9487, 44.3482
7.59083, 31, -28.0495, -19.5728, 37.8077, -150.473, -81.9218, 44.3276
7.60027, 31, -28.0363, -19.6928, 37.903, -150.399, -81.8413, 44.2658
7.60921, 31, -28.0275, -19.7728, 37.9667, -150.35, -81.7882, 44.2255
7.61477, 31, -28.0231, -19.8128, 37.9986, -150.324, -81.7612, 44.2056
7.62433, 31, -28.0098, -19.933, 38.0942, -150.249, -81.6812, 44.1457
7.63316, 31, -28.001, -20.0131, 38.1579, -150.2, -81.6276, 44.1055
7.63877, 31, -27.9966, -20.0531, 38.1898, -150.174, -81.6005, 44.0855
7.6491, 31, -27.9833, -20.1734, 38.2853, -150.099, -81.5207, 44.0269
7.65784, 31, -27.9744, -20.2534, 38.3489, -150.049, -81.4669, 43.9882
7.66382, 31, -27.9699, -20.2935, 38.3808, -150.024, -81.4399, 43.9688
7.67177, 31, -27.961, -20.3736, 38.4444, -149.973, -81.3868, 43.9299
7.67978, 31, -27.952, -20.4538, 38.508, -149.924, -81.3332, 43.8915
7.68803, 32, -27.9428, -20.534, 38.5717, -149.873, -81.2795, 43.854
7.69585, 32, -27.9337, -20.6142, 38.6353, -149.823, -81.2265, 43.8168
7.70377, 32, -27.9247, -20.6943, 38.6989, -149.773, -81.1729, 43.7798
7.71177, 32, -27.9155, -20.7745, 38.7626, -149.722, -81.1195, 43.7427
7.71977, 32, -27.9063, -20.8547, 38.8262, -149.672, -81.0667, 43.7061
7.72777, 32, -27.897, -20.9348, 38.8898, -149.622, -81.0127, 43.6703
7.73579, 32, -27.8878, -21.0149, 38.9534, -149.57, -80.9596, 43.6351
7.74392, 32, -27.8785, -21.095, 39.017, -149.52, -80.9066, 43.6001
7.75083, 32, -27.8692, -21.175, 39.0806, -149.47, -80.8528, 43.5651
7.75978, 32, -27.8597, -21.255, 39.1441, -149.418, -80.8001, 43.5304
7.76778, 32, -27.8505, -21.3351, 39.2075, -149.368, -80.7468, 43.4966
7.77586, 32, -27.8412, -21.415, 39.271, -149.317, -80.6934, 43.4637
7.78482, 32, -27.8318, -21.495, 39.3344, -149.265, -80.6408, 43.4311
7.79288, 33, -27.8223, -21.575, 39.3979, -149.215, -80.5873, 43.3986
7.7998, 33, -27.8129, -21.655, 39.4614, -149.164, -80.5342, 43.366
7.8078, 33, -27.8033, -21.7348, 39.5248, -149.112, -80.4817, 43.3341
7.81675, 33, -27.7937, -21.8146, 39.5881, -149.062, -80.4279, 43.3032
7.82377, 33, -27.7838, -21.8945, 39.6514, -149.01, -80.3752, 43.2729
7.83177, 33, -27.774, -21.9743, 39.7147, -148.959, -80.3226, 43.2429
7.8408, 33, -27.7642, -22.054, 39.7779, -148.908, -80.2693, 43.213
7.84856, 33, -27.7543, -22.1338, 39.841, -148.856, -80.217, 43.1832
7.85578, 33, -27.7444, -22.2135, 39.9041, -148.806, -80.1639, 43.1539
7.86384, 33, -27.7345, -22.2932, 39.9672, -148.754, -80.1109, 43.1255
7.87178, 33, -27.7246, -22.3728, 40.0302, -148.702, -80.0588, 43.0978
7.87986, 33, -27.7146, -22.4525, 40.0932, -148.652, -80.0058, 43.0705
7.88855, 33, -27.7045, -22.5319, 40.1562, -148.6, -79.9531, 43.0438
7.89574, 34, -27.6945, -22.6114, 40.2192, -148.548, -79.9009, 43.0171
7.90377, 34, -27.6845, -22.6908, 40.2822, -148.497, -79.8476, 42.9906
7.91365, 34, -27.6743, -22.7702, 40.345, -148.445, -79.7952, 42.9646
7.91887, 34, -27.6641, -22.8495, 40.4077, -148.393, -79.7428, 42.9396
7.92783, 34, -27.6539, -22.9287, 40.4704, -148.342, -79.6897, 42.9155
7.93576, 34, -27.6435, -23.0078, 40.5329, -148.289, -79.6375, 42.8919
7.94379, 34, -27.6329, -23.087, 40.5954, -148.238, -79.5847, 42.869
7.95185, 34, -27.6223, -23.1661, 40.6579, -148.186, -79.5317, 42.8463
7.95979, 34, -27.6117, -23.2452, 40.7204, -148.134, -79.4799, 42.8238
7.96858, 34, -27.601, -23.3242, 40.7828, -148.083, -79.427, 42.8017
7.9759, 34, -27.5902, -23.4031, 40.8452, -148.031, -79.3745, 42.7801
7.98389, 34, -27.5793, -23.482, 40.9075, -147.979, -79.3224, 42.7595
7.99187, 34, -27.5685, -23.5609, 40.9697, -147.927, -79.2693, 42.7399
7.99994, 35, -27.5575, -23.6396, 41.0318, -147.875, -79.2173, 42.7208
8.00791, 35, -27.5465, -23.7182, 41.0938, -147.823, -79.1654, 42.7024
8.01594, 35, -27.5355, -23.7967, 41.1557, -147.772, -79.1126, 42.6847
8.02377, 35, -27.5245, -23.8751, 41.2175, -147.72, -79.0609, 42.6676
8.03179, 35, -27.5133, -23.9533, 41.2793, -147.667, -79.0089, 42.6507
8.03987, 35, -27.5022, -24.0315, 41.341, -147.616, -78.9562, 42.6342
8.04782, 35, -27.4908, -24.1096, 41.4027, -147.563, -78.9047, 42.6183
8.05586, 35, -27.4793, -24.1876, 41.4643, -147.511, -78.8525, 42.6029
8.06427, 35, -27.4677, -24.2655, 41.5258, -147.459, -78.8003, 42.5884
8.07289, 35, -27.456, -24.3434, 41.5873, -147.407, -78.7489, 42.5747
8.08004, 35, -27.4442, -24.4212, 41.6486, -147.355, -78.6965, 42.5617
8.08677, 35, -27.4383, -24.4601, 41.6792, -147.329, -78.6704, 42.5555
8.09698, 35, -27.4204, -24.5765, 41.7708, -147.251, -78.5934, 42.5383
8.10427, 36, -27.4083, -24.654, 41.8316, -147.199, -78.5413, 42.5275
8.11292, 36, -27.3961, -24.7314, 41.8923, -147.147, -78.49, 42.5176
8.12124, 36, -27.3838, -24.8086, 41.9531, -147.095, -78.4389, 42.5084
8.12678, 36, -27.3777, -24.8472, 41.9834, -147.069, -78.4129, 42.504
8.13637, 36, -27.3593, -24.9629, 42.0744, -146.991, -78.3361, 42.492
8.14511, 36, -27.3531, -25.0014, 42.1047, -146.965, -78.3107, 42.4846
8.15075, 36, -27.3407, -25.0783, 42.1651, -146.914, -78.2592, 42.4812
8.16112, 36, -27.3217, -25.1934, 42.2555, -146.835, -78.1828, 42.4719
8.16772, 36, -27.3152, -25.2317, 42.2856, -146.809, -78.1574, 42.4691
8.17581, 36, -27.3024, -25.3083, 42.3456, -146.757, -78.1058, 42.4641
8.18282, 36, -27.2894, -25.3847, 42.4055, -146.704, -78.055, 42.4598
8.19175, 36, -27.2763, -25.461, 42.4653, -146.652, -78.0046, 42.4562
8.19981, 36, -27.2632, -25.537, 42.5249, -146.601, -77.9533, 42.4533
8.20673, 37, -27.2499, -25.613, 42.5845, -146.548, -77.9028, 42.4512
8.21575, 37, -27.2365, -25.6889, 42.644, -146.497, -77.8523, 42.4498
8.22375, 37, -27.2231, -25.7647, 42.7033, -146.445, -77.8011, 42.449
8.23176, 37, -27.2097, -25.8403, 42.7627, -146.393, -77.7509, 42.4487
8.23976, 37, -27.1962, -25.9158, 42.8218, -146.342, -77.7006, 42.4486
8.24783, 37, -27.1825, -25.9911, 42.8808, -146.29, -77.6498, 42.4486
8.25493, 37, -27.1686, -26.0664, 42.9397, -146.238, -77.5999, 42.4488
8.26463, 37, -27.1546, -26.1414, 42.9984, -146.187, -77.5495, 42.4493
8.27182, 37, -27.1404, -26.2162, 43.0569, -146.135, -77.4988, 42.4507
8.28075, 37, -27.1261, -26.2909, 43.1153, -146.083, -77.449, 42.4539
8.28783, 37, -27.1117, -26.3654, 43.1735, -146.032, -77.3989, 42.4585
8.2968, 37, -27.0973, -26.4398, 43.2316, -145.98, -77.3485, 42.4641
8.30492, 38, -27.0826, -26.5141, 43.2896, -145.929, -77.2991, 42.4711
8.31175, 38, -27.0679, -26.5883, 43.3474, -145.877, -77.249, 42.4791
8.31979, 38, -27.0531, -26.6623, 43.4052, -145.825, -77.1987, 42.488
8.32856, 38, -27.0382, -26.7362, 43.4628, -145.774, -77.1496, 42.4981
8.33475, 38, -27.0232, -26.8099, 43.5202, -145.723, -77.0996, 42.5089
8.34375, 38, -27.0079, -26.8834, 43.5775, -145.671, -77.0496, 42.5206
8.35278, 38, -26.9925, -26.9567, 43.6347, -145.621, -77.0005, 42.5334
8.36082, 38, -26.9769, -27.0297, 43.6916, -145.569, -76.9505, 42.547
8.36875, 38, -26.9613, -27.1026, 43.7484, -145.518, -76.9008, 42.5617
8.37582, 38, -26.9455, -27.1753, 43.805, -145.468, -76.8521, 42.5775
8.38379, 38, -26.9296, -27.2478, 43.8614, -145.417, -76.8024, 42.5944
8.39175, 38, -26.9135, -27.3202, 43.9177, -145.366, -76.7531, 42.6124
8.40056, 38, -26.8974, -27.3926, 43.9738, -145.316, -76.7044, 42.6316
8.40797, 39, -26.8812, -27.4646, 44.0296, -145.264, -76.6547, 42.6518
8.41575, 39, -26.8648, -27.5366, 44.0854, -145.214, -76.6055, 42.6729
8.42566, 39, -26.8481, -27.6084, 44.1409, -145.164, -76.5571, 42.6945
8.43182, 39, -26.8311, -27.6799, 44.1963, -145.113, -76.5077, 42.7171
8.43975, 39, -26.8142, -27.7512, 44.2516, -145.063, -76.4588, 42.7404
8.44778, 39, -26.7972, -27.8223, 44.3066, -145.013, -76.4104, 42.7649
8.45588, 39, -26.78, -27.8932, 44.3614, -144.962, -76.3609, 42.7906
8.46378, 39, -26.7626, -27.964, 44.4161, -144.912, -76.3121, 42.8176
8.47182, 39, -26.7451, -28.0345, 44.4705, -144.862, -76.2638, 42.8454
8.48064, 39, -26.7276, -28.1049, 44.5246, -144.812, -76.2145, 42.8737
8.48789, 39, -26.7099, -28.1752, 44.5787, -144.762, -76.1658, 42.903
8.49591, 39, -26.6919, -28.2452, 44.6325, -144.712, -76.1175, 42.9332
8.50386, 39, -26.6736, -28.3149, 44.6861, -144.663, -76.0683, 42.9647
8.51186, 40, -26.6552, -28.3845, 44.7396, -144.614, -76.0199, 42.9977
8.51991, 40, -26.6367, -28.4537, 44.7929, -144.564, -75.972, 43.0314
8.52775, 40, -26.6179, -28.5226, 44.846, -144.515, -75.9231, 43.0658
8.53598, 40, -26.599, -28.5913, 44.8989, -144.467, -75.875, 43.101
8.54385, 40, -26.58, -28.6598, 44.9515, -144.417, -75.8271, 43.1373
8.55179, 40, -26.5609, -28.728, 45.0039, -144.369, -75.7782, 43.1752
8.55995, 40, -26.5416, -28.7961, 45.056, -144.321, -75.7303, 43.2139
8.56801, 40, -26.5218, -28.864, 45.108, -144.272, -75.6828, 43.2532
8.57488, 40, -26.5118, -28.8979, 45.1338, -144.247, -75.6587, 43.2732
8.58432, 40, -26.4819, -28.9991, 45.211, -144.175, -75.5866, 43.3351
8.59217, 40, -26.4617, -29.0664, 45.2622, -144.126, -75.5393, 43.3783
8.59875, 40, -26.4514, -29.0999, 45.2877, -144.102, -75.5152, 43.4001
8.60828, 40, -26.4205, -29.2, 45.3639, -144.031, -75.4432, 43.4664
8.61684, 41, -26.3998, -29.2664, 45.4144, -143.983, -75.3961, 43.5122
8.62427, 41, -26.3788, -29.3324, 45.4648, -143.935, -75.3482, 43.5595
8.63252, 41, -26.3575, -29.3982, 45.5148, -143.888, -75.3006, 43.6073
8.64044, 41, -26.336, -29.4639, 45.5647, -143.841, -75.2537, 43.6559
8.64828, 41, -26.3253, -29.4966, 45.5895, -143.817, -75.23, 43.706
8.65633, 41, -26.3037, -29.5619, 45.6389, -143.771, -75.1821, 43.7316
8.6638, 41, -26.2818, -29.6269, 45.688, -143.724, -75.1352, 43.7833
8.67189, 41, -26.2597, -29.6918, 45.7369, -143.677, -75.0885, 43.8357
8.67971, 41, -26.2375, -29.7563, 45.7855, -143.631, -75.041, 43.8898
8.68785, 41, -26.215, -29.8205, 45.8337, -143.585, -74.9943, 43.9454
8.69477, 41, -26.1922, -29.8844, 45.8817, -143.539, -74.9477, 44.0014
8.70375, 41, -26.1693, -29.9481, 45.9296, -143.494, -74.9003, 44.0589
8.71179, 41, -26.1462, -30.0114, 45.9772, -143.449, -74.8536, 44.1183
8.71877, 42, -26.1229, -30.0743, 46.0244, -143.403, -74.8075, 44.1781
8.72773, 42, -26.0992, -30.137, 46.0715, -143.358, -74.7604, 44.2391
8.73573, 42, -26.0754, -30.1994, 46.1183, -143.313, -74.7139, 44.3019
8.74375, 42, -26.0512, -30.2616, 46.1646, -143.268, -74.6678, 44.3654
8.75173, 42, -26.0268, -30.3234, 46.2108, -143.223, -74.6208, 44.4299
8.7598, 42, -26.0023, -30.385, 46.2566, -143.18, -74.5741, 44.4964
8.76699, 42, -25.9776, -30.4463, 46.3022, -143.136, -74.5283, 44.563
8.7757, 42, -25.9526, -30.5073, 46.3473, -143.092, -74.4817, 44.6313
8.78473, 42, -25.9274, -30.5679, 46.3923, -143.049, -74.4351, 44.701
8.79172, 42, -25.9017, -30.6281, 46.4369, -143.006, -74.3894, 44.7711
8.80073, 42, -25.8757, -30.688, 46.4811, -142.962, -74.3431, 44.8436
8.80786, 42, -25.8496, -30.7475, 46.5251, -142.92, -74.2965, 44.9165
8.81573, 42, -25.8232, -30.8067, 46.5688, -142.879, -74.2511, 44.9909
8.82378, 43, -25.7967, -30.8655, 46.612, -142.837, -74.2053, 45.0671
8.8318, 43, -25.77, -30.9241, 46.6551, -142.795, -74.159, 45.1437
8.84014, 43, -25.743, -30.9824, 46.6977, -142.754, -74.1137, 45.2224
8.84684, 43, -25.7155, -31.0404, 46.74, -142.713, -74.0681, 45.3018
8.85572, 43, -25.688, -31.0981, 46.782, -142.672, -74.0218, 45.3823
8.86455, 43, -25.6601, -31.1554, 46.8236, -142.632, -73.9765, 45.4643
8.87172, 43, -25.6319, -31.2122, 46.865, -142.592, -73.9315, 45.547
8.87974, 43, -25.6034, -31.2687, 46.906, -142.552, -73.8857, 45.6318
8.88881, 43, -25.5746, -31.3247, 46.9466, -142.512, -73.8403, 45.7167
8.89588, 43, -25.5457, -31.3803, 46.9869, -142.474, -73.7956, 45.8039
8.90373, 43, -25.5165, -31.4354, 47.0267, -142.435, -73.75, 45.8914
8.91254, 43, -25.487, -31.4902, 47.0662, -142.396, -73.7046, 45.9809
8.91973, 43, -25.4572, -31.5446, 47.1054, -142.358, -73.6601, 46.0709
8.92772, 44, -25.4268, -31.5987, 47.1441, -142.321, -73.6152, 46.163
8.9376, 44, -25.3961, -31.6525, 47.1824, -142.284, -73.5698, 46.2558
8.94395, 44, -25.3652, -31.7059, 47.2204, -142.247, -73.5254, 46.3505
8.95175, 44, -25.3342, -31.7591, 47.2579, -142.21, -73.4808, 46.4458
8.95974, 44, -25.3029, -31.8117, 47.295, -142.175, -73.4355, 46.5432
8.96809, 44, -25.2712, -31.8639, 47.3318, -142.139, -73.3912, 46.6414
8.97517, 44, -25.2391, -31.9157, 47.3681, -142.103, -73.3473, 46.7415
8.98325, 44, -25.2068, -31.9668, 47.4041, -142.069, -73.3025, 46.8419
8.9927, 44, -25.1742, -32.0176, 47.4398, -142.035, -73.2583, 46.9444
9.00009, 44, -25.1412, -32.0678, 47.4748, -142.001, -73.2147, 47.0479
9.00731, 44, -25.1078, -32.1175, 47.5096, -141.968, -73.1703, 47.153
9.0159, 44, -25.074, -32.1668, 47.544, -141.934, -73.1259, 47.2595
9.02459, 45, -25.0402, -32.2156, 47.5777, -141.902, -73.0826, 47.3675
9.03173, 45, -25.0059, -32.2641, 47.6111, -141.871, -73.0391, 47.477
9.04075, 45, -24.9712, -32.3121, 47.6441, -141.839, -72.995, 47.5874
9.04874, 45, -24.9361, -32.3598, 47.6764, -141.808, -72.9519, 47.6995
9.05578, 45, -24.9007, -32.407, 47.7083, -141.777, -72.9088, 47.8131
9.06391, 45, -24.8651, -32.4538, 47.7399, -141.748, -72.865, 47.9273
9.07279, 45, -24.8291, -32.5, 47.771, -141.718, -72.8217, 48.0431
9.07998, 45, -24.7926, -32.5457, 47.8015, -141.689, -72.7793, 48.1601
9.08687, 45, -24.7743, -32.5684, 47.8166, -141.674, -72.7579, 48.2191
9.0961, 45, -24.7189, -32.6354, 47.8615, -141.632, -72.6931, 48.3985
9.10272, 45, -24.7002, -32.6575, 47.8761, -141.618, -72.6719, 48.459
9.11227, 45, -24.6436, -32.7226, 47.9193, -141.578, -72.6084, 48.6427
9.12026, 45, -24.6052, -32.7655, 47.9475, -141.551, -72.5652, 48.7666
9.12842, 46, -24.5667, -32.8078, 47.9753, -141.524, -72.5231, 48.8918
9.13629, 46, -24.5277, -32.8495, 48.0024, -141.499, -72.4815, 49.0184
9.14433, 46, -24.508, -32.8906, 48.029, -141.475, -72.439, 49.1462
9.15241, 46, -24.4684, -32.911, 48.0421, -141.451, -72.3969, 49.2756
9.15974, 46, -24.4286, -32.9515, 48.068, -141.439, -72.3763, 49.3408
9.16778, 46, -24.3884, -32.9914, 48.0934, -141.416, -72.3349, 49.4725
9.17579, 46, -24.3478, -33.0307, 48.1181, -141.393, -72.2928, 49.6055
9.18386, 46, -24.3067, -33.0694, 48.1424, -141.371, -72.251, 49.7399
9.19169, 46, -24.2653, -33.1076, 48.1661, -141.35, -72.2102, 49.8755
9.19977, 46, -24.2236, -33.1452, 48.1893, -141.329, -72.1693, 50.0123
9.20778, 46, -24.1813, -33.182, 48.2119, -141.31, -72.1278, 50.1502
9.21571, 46, -24.1387, -33.2182, 48.2339, -141.291, -72.0872, 50.2895
9.22378, 46, -24.0957, -33.2538, 48.2554, -141.272, -72.047, 50.43
9.23329, 47, -24.0304, -33.3058, 48.2866, -141.245, -71.9858, 50.6435
9.23972, 47, -24.0084, -33.3229, 48.2967, -141.236, -71.9656, 50.7153
9.24782, 47, -23.9641, -33.3565, 48.3165, -141.219, -71.9261, 50.8599
9.25571, 47, -23.9195, -33.3896, 48.3354, -141.203, -71.8865, 51.006
9.26272, 47, -23.8743, -33.4219, 48.3539, -141.188, -71.8464, 51.1536
9.27171, 47, -23.8287, -33.4535, 48.3719, -141.174, -71.8069, 51.3022
9.27973, 47, -23.7827, -33.4845, 48.3891, -141.161, -71.768, 51.4524
9.28872, 47, -23.7365, -33.5149, 48.4058, -141.148, -71.7289, 51.604
9.2957, 47, -23.6896, -33.5444, 48.4222, -141.136, -71.6895, 51.7571
9.30426, 47, -23.6425, -33.5732, 48.4376, -141.125, -71.651, 51.9115
9.31194, 47, -23.5949, -33.6012, 48.4523, -141.114, -71.6132, 52.0672
9.32076, 47, -23.5469, -33.6287, 48.4665, -141.104, -71.575, 52.2243
9.32781, 47, -23.4983, -33.6553, 48.4799, -141.094, -71.5368, 52.3825
9.33572, 48, -23.4494, -33.6812, 48.4926, -141.085, -71.4995, 52.5418
9.34371, 48, -23.4, -33.7063, 48.5046, -141.077, -71.4625, 52.7025
9.35173, 48, -23.3501, -33.7307, 48.516, -141.07, -71.4252, 52.8648
9.35972, 48, -23.3, -33.7545, 48.5268, -141.064, -71.3879, 53.0286
9.36784, 48, -23.2493, -33.7772, 48.537, -141.059, -71.3517, 53.1933
9.3757, 48, -23.1982, -33.7994, 48.5464, -141.055, -71.316, 53.3596
9.38371, 48, -23.1467, -33.8206, 48.555, -141.051, -71.2799, 53.5269
9.39179, 48, -23.0947, -33.8409, 48.563, -141.049, -71.2439, 53.6956
9.39985, 48, -23.0421, -33.8608, 48.5704, -141.047, -71.2088, 53.866
9.40751, 48, -22.9893, -33.8796, 48.577, -141.046, -71.1741, 54.0377
9.41579, 48, -22.9359, -33.8974, 48.5829, -141.045, -71.1392, 54.2107
9.42371, 48, -22.8821, -33.9146, 48.5881, -141.045, -71.1042, 54.3847
9.43172, 48, -22.8279, -33.9309, 48.5926, -141.045, -71.0702, 54.5601
9.43979, 49, -22.7732, -33.9462, 48.5962, -141.046, -71.0369, 54.7362
9.44777, 49, -22.718, -33.9605, 48.5991, -141.048, -71.0037, 54.9137
9.4558, 49, -22.6624, -33.974, 48.6011, -141.052, -70.9702, 55.0926
9.46371, 49, -22.6063, -33.9869, 48.6024, -141.056, -70.9374, 55.2725
9.47199, 49, -22.5498, -33.9987, 48.603, -141.062, -70.9054, 55.4539
9.47975, 49, -22.4929, -34.0093, 48.6032, -141.068, -70.8738, 55.6364
9.48786, 49, -22.4354, -34.019, 48.6031, -141.076, -70.8419, 55.82
9.49704, 49, -22.3775, -34.0279, 48.6023, -141.084, -70.8103, 56.0053
9.50576, 49, -22.3191, -34.0359, 48.6007, -141.094, -70.7798, 56.1918
9.5121, 49, -22.2604, -34.0431, 48.5985, -141.106, -70.7498, 56.3797
9.51985, 49, -22.2012, -34.0494, 48.5954, -141.118, -70.7203, 56.5685
9.52787, 49, -22.1415, -34.0546, 48.5913, -141.131, -70.6907, 56.7585
9.53646, 49, -22.0814, -34.0587, 48.5864, -141.145, -70.6615, 56.9493
9.54378, 50, -22.0209, -34.0617, 48.5805, -141.159, -70.6333, 57.1417
9.55271, 50, -21.9599, -34.0637, 48.5738, -141.175, -70.6056, 57.3355
9.56078, 50, -21.8984, -34.0648, 48.5661, -141.191, -70.5784, 57.5304
9.56789, 50, -21.8364, -34.0652, 48.5575, -141.209, -70.5511, 57.7262
9.57603, 50, -21.7739, -34.0649, 48.5481, -141.227, -70.5241, 57.9233
9.58272, 50, -21.7425, -34.0644, 48.5431, -141.237, -70.511, 58.0222
9.59076, 50, -21.6793, -34.0627, 48.5324, -141.258, -70.4854, 58.2211
9.60124, 50, -21.5836, -34.0583, 48.5146, -141.29, -70.4484, 58.5221
9.60821, 50, -21.5194, -34.054, 48.5015, -141.313, -70.4243, 58.7239
9.61633, 50, -21.4547, -34.0486, 48.4876, -141.336, -70.4003, 58.9266
9.62432, 50, -21.3897, -34.0418, 48.4728, -141.36, -70.3767, 59.1304
9.63225, 50, -21.3243, -34.0338, 48.4569, -141.386, -70.3539, 59.3349
9.6406, 51, -21.2583, -34.0248, 48.4401, -141.413, -70.3321, 59.541
9.64862, 51, -21.2252, -34.0198, 48.4226, -141.441, -70.3109, 59.7478
9.65624, 51, -21.1585, -34.0089, 48.4134, -141.455, -70.3006, 59.8517
9.66433, 51, -21.0913, -33.997, 48.3943, -141.484, -70.2802, 60.0603
9.67169, 51, -21.0237, -33.9838, 48.3743, -141.514, -70.2601, 60.2697
9.6797, 51, -20.9555, -33.969, 48.3533, -141.546, -70.2403, 60.4805
9.68784, 51, -20.887, -33.9529, 48.3314, -141.578, -70.2213, 60.6926
9.69585, 51, -20.8181, -33.936, 48.3087, -141.611, -70.2033, 60.9056
9.70368, 51, -20.7488, -33.9179, 48.2849, -141.645, -70.1862, 61.1196
9.71303, 51, -20.644, -33.8882, 48.2477, -141.699, -70.1621, 61.4419
9.7197, 51, -20.6089, -33.8778, 48.2347, -141.718, -70.1545, 61.5499
9.72775, 51, -20.5384, -33.8559, 48.2082, -141.755, -70.1396, 61.7669
9.73575, 51, -20.4674, -33.8326, 48.1806, -141.792, -70.1254, 61.9847
9.74365, 52, -20.396, -33.8082, 48.1521, -141.832, -70.1116, 62.2033
9.7517, 52, -20.3243, -33.7823, 48.1226, -141.872, -70.0984, 62.4229
9.75977, 52, -20.2521, -33.7553, 48.0923, -141.914, -70.086, 62.6435
9.76776, 52, -20.1794, -33.7269, 48.0609, -141.956, -70.0744, 62.8654
9.77575, 52, -20.1064, -33.697, 48.0285, -142, -70.0638, 63.0882
9.78528, 52, -20.0331, -33.6659, 47.9952, -142.043, -70.0541, 63.4236
9.7917, 52, -19.9592, -33.6335, 47.9609, -142.088, -70.0454, 63.5357
9.8007, 52, -19.885, -33.5996, 47.9256, -142.135, -70.0376, 63.7606
9.8078, 52, -19.8104, -33.5645, 47.8894, -142.182, -70.0306, 63.9867
9.81689, 52, -19.7354, -33.5282, 47.8521, -142.23, -70.0246, 64.2132
9.82369, 52, -19.6601, -33.4906, 47.8138, -142.279, -70.0194, 64.4407
9.83173, 52, -19.5845, -33.4515, 47.7746, -142.329, -70.0151, 64.6686
9.83974, 52, -19.5086, -33.4112, 47.7344, -142.38, -70.0117, 64.8976
9.84872, 53, -19.4323, -33.3694, 47.693, -142.432, -70.0091, 65.1278
9.85571, 53, -19.3556, -33.3263, 47.6508, -142.485, -70.0075, 65.3586
9.86377, 53, -19.2784, -33.2818, 47.6076, -142.539, -70.0066, 65.5901
9.87168, 53, -19.2011, -33.2358, 47.5634, -142.594, -70.0063, 65.8221
9.87972, 53, -19.1232, -33.1885, 47.5181, -142.65, -70.0066, 66.0548
9.88783, 53, -19.045, -33.1398, 47.4718, -142.707, -70.0076, 66.2886
9.89569, 53, -18.9666, -33.0896, 47.4246, -142.765, -70.0096, 66.5229
9.90368, 53, -18.8879, -33.0381, 47.3763, -142.824, -70.0126, 66.7578
9.91191, 53, -18.8088, -32.9852, 47.3269, -142.883, -70.0168, 66.9934
9.91967, 53, -18.7295, -32.9308, 47.2765, -142.943, -70.022, 67.2302
9.92775, 53, -18.6497, -32.8749, 47.2251, -143.005, -70.0285, 67.4675
9.9358, 53, -18.5697, -32.8176, 47.1726, -143.066, -70.0362, 67.7051
9.94369, 53, -18.4893, -32.7589, 47.1192, -143.13, -70.045, 67.9433
9.95169, 54, -18.4085, -32.6986, 47.0647, -143.193, -70.0552, 68.1818
9.95969, 54, -18.3276, -32.6369, 47.0092, -143.258, -70.0666, 68.4212
9.96783, 54, -18.2464, -32.5737, 46.9527, -143.324, -70.0794, 68.661
9.97574, 54, -18.165, -32.5091, 46.8953, -143.39, -70.0936, 68.9013
9.98402, 54, -18.0833, -32.443, 46.8368, -143.458, -70.1093, 69.142
9.99179, 54, -18.0012, -32.3755, 46.7772, -143.526, -70.126, 69.3834
9.99983, 54, -17.919, -32.3065, 46.7166, -143.595, -70.1437, 69.6256
10.0089, 54, -17.8363, -32.2359, 46.6549, -143.665, -70.1624, 69.8682
10.0166, 54, -17.7536, -32.1639, 46.5922, -143.735, -70.182, 70.1111
10.0242, 54, -17.6706, -32.0902, 46.5285, -143.806, -70.2029, 70.3543
10.0312, 54, -17.629, -32.0529, 46.4962, -143.842, -70.2139, 70.4761
10.0387, 54, -17.5457, -31.9769, 46.431, -143.914, -70.2371, 70.7203
10.0485, 54, -17.4205, -31.8601, 46.3313, -144.024, -70.2745, 71.087
10.0577, 55, -17.3368, -31.7803, 46.2637, -144.098, -70.3006, 71.3319
10.0638, 55, -17.2529, -31.6991, 46.1951, -144.173, -70.3279, 71.5776
10.0729, 55, -17.1687, -31.6164, 46.1255, -144.249, -70.3562, 71.8239
10.0799, 55, -17.0842, -31.5322, 46.0548, -144.325, -70.3865, 72.07
10.0881, 55, -16.9995, -31.4465, 45.9829, -144.402, -70.4181, 72.3163
10.0947, 55, -16.9572, -31.4031, 45.9466, -144.441, -70.4342, 72.4395
10.1028, 55, -16.8722, -31.3151, 45.8732, -144.519, -70.467, 72.6861
10.1136, 55, -16.7447, -31.1803, 45.7611, -144.636, -70.5189, 73.0569
10.1202, 55, -16.6596, -31.0885, 45.6853, -144.716, -70.5559, 73.3043
10.1298, 55, -16.5745, -30.9953, 45.6086, -144.795, -70.5936, 73.5515
10.1363, 55, -16.4892, -30.9006, 45.5309, -144.876, -70.6322, 73.7991
10.1443, 55, -16.4038, -30.8041, 45.4522, -144.957, -70.6728, 74.0473
10.1531, 55, -16.361, -30.7553, 45.4124, -144.997, -70.7149, 74.2955
10.1586, 56, -16.2753, -30.6566, 45.3322, -145.079, -70.7361, 74.4196
10.1683, 56, -16.1895, -30.5563, 45.2509, -145.161, -70.7793, 74.6677
10.1757, 56, -16.1036, -30.4545, 45.1685, -145.244, -70.8247, 74.9159
10.1827, 56, -16.0174, -30.3513, 45.0853, -145.327, -70.8716, 75.1646
10.1917, 56, -15.9314, -30.2466, 45.0012, -145.411, -70.9191, 75.4131
10.1997, 56, -15.8454, -30.1405, 44.9163, -145.495, -70.9689, 75.6617
10.2068, 56, -15.7595, -30.0328, 44.8304, -145.579, -71.0199, 75.9104
10.2157, 56, -15.6735, -29.9235, 44.7435, -145.664, -71.0714, 76.1595
10.2237, 56, -15.5873, -29.8127, 44.6556, -145.749, -71.1255, 76.4085
10.2317, 56, -15.501, -29.7004, 44.5666, -145.834, -71.1805, 76.6572
10.2397, 56, -15.4146, -29.5867, 44.4767, -145.92, -71.2366, 76.9057
10.2478, 56, -15.3282, -29.4716, 44.3859, -146.007, -71.2949, 77.154
10.2557, 56, -15.2418, -29.355, 44.2944, -146.093, -71.3534, 77.4026
10.2637, 57, -15.1554, -29.2368, 44.202, -146.18, -71.4145, 77.6509
10.2707, 57, -15.0691, -29.117, 44.1088, -146.267, -71.4765, 77.8987
10.2797, 57, -14.9829, -28.9958, 44.0146, -146.354, -71.5401, 78.1466
10.2887, 57, -14.8966, -28.8732, 43.9193, -146.441, -71.6052, 78.3946
10.2957, 57, -14.8103, -28.7491, 43.823, -146.528, -71.6711, 78.6424
10.3047, 57, -14.7241, -28.6237, 43.7261, -146.616, -71.7396, 78.89
10.3119, 57, -14.6378, -28.4966, 43.6284, -146.703, -71.8086, 79.1369
10.3208, 57, -14.5517, -28.3681, 43.53, -146.791, -71.8798, 79.3839
10.3279, 57, -14.4657, -28.2382, 43.4307, -146.88, -71.9515, 79.631
10.3358, 57, -14.3799, -28.107, 43.3304, -146.968, -72.0259, 79.8775
10.3437, 57, -14.294, -27.9747, 43.2292, -147.056, -72.1007, 80.1237
10.3517, 57, -14.2081, -27.8408, 43.1271, -147.144, -72.1776, 80.3697
10.36, 58, -14.1224, -27.7054, 43.0243, -147.233, -72.2551, 80.6157
10.3677, 58, -14.0367, -27.5687, 42.921, -147.321, -72.3348, 80.8611
10.3757, 58, -13.9511, -27.4306, 42.8168, -147.409, -72.4154, 81.1059
10.3837, 58, -13.8657, -27.2914, 42.712, -147.497, -72.4976, 81.3503
10.3917, 58, -13.7805, -27.1509, 42.6062, -147.585, -72.5813, 81.594
10.3998, 58, -13.6956, -27.0086, 42.4995, -147.673, -72.6665, 81.8378
10.4077, 58, -13.6108, -26.8648, 42.3922, -147.761, -72.7531, 82.0809
10.4157, 58, -13.5263, -26.7199, 42.2842, -147.849, -72.8411, 82.3233
10.4239, 58, -13.4418, -26.5739, 42.1757, -147.937, -72.9307, 82.5652
10.4316, 58, -13.3573, -26.4266, 42.0665, -148.025, -73.0217, 82.8069
10.4398, 58, -13.273, -26.2778, 41.9566, -148.112, -73.1138, 83.0481
10.4478, 58, -13.1888, -26.1277, 41.8457, -148.199, -73.2076, 83.2886
10.4557, 58, -13.1049, -25.9765, 41.734, -148.286, -73.3025, 83.5282
10.4636, 59, -13.0212, -25.8244, 41.622, -148.373, -73.3985, 83.7671
10.4717, 59, -12.9377, -25.6711, 41.5095, -148.459, -73.4963, 84.0059
10.4798, 59, -12.8546, -25.5163, 41.3965, -148.546, -73.5955, 84.2439
10.4878, 59, -12.7716, -25.3603, 41.2828, -148.632, -73.6956, 84.481
10.4958, 59, -12.6889, -25.2033, 41.1683, -148.717, -73.7974, 84.7174
10.5038, 59, -12.6064, -25.0454, 41.0532, -148.803, -73.9003, 84.9537
10.5118, 59, -12.5239, -24.8861, 40.9376, -148.888, -74.0046, 85.1893
10.5201, 59, -12.4418, -24.7253, 40.8217, -148.972, -74.1105, 85.424
10.5282, 59, -12.3599, -24.5635, 40.7052, -149.057, -74.2174, 85.6577
10.5353, 59, -12.3191, -24.4823, 40.6468, -149.141, -74.3258, 85.8904
10.5439, 59, -12.1969, -24.2378, 40.4704, -149.224, -74.4355, 86.1225
10.5517, 59, -12.1158, -24.0732, 40.3521, -149.307, -74.5461, 86.3538
10.5597, 59, -12.0351, -23.907, 40.2335, -149.389, -74.6583, 86.5841
10.5685, 60, -11.9546, -23.7401, 40.1147, -149.472, -74.7716, 86.8133
10.5758, 60, -11.8744, -23.5728, 39.9955, -149.553, -74.886, 87.0417
10.5839, 60, -11.7944, -23.4045, 39.8758, -149.634, -75.0018, 87.2695
10.5929, 60, -11.7147, -23.2346, 39.7556, -149.715, -75.1183, 87.4964
10.6, 60, -11.6354, -23.0637, 39.6349, -149.795, -75.2363, 87.7222
10.6067, 60, -11.5959, -22.9781, 39.5744, -149.834, -75.2959, 87.8347
10.6173, 60, -11.4777, -22.7209, 39.3927, -149.953, -75.4756, 88.1704
10.6264, 60, -11.3993, -22.548, 39.2711, -150.031, -75.5972, 88.3934
10.6322, 60, -11.3213, -22.3738, 39.1491, -150.109, -75.7196, 88.6155
10.6418, 60, -11.2436, -22.1989, 39.0266, -150.186, -75.8432, 88.8364
10.6483, 60, -11.1662, -22.0239, 38.9039, -150.262, -75.9676, 89.0561
10.6562, 60, -11.1276, -21.9359, 38.8425, -150.301, -76.0302, 89.2748
10.6637, 60, -11.0507, -21.7589, 38.7196, -150.376, -76.1564, 89.3839
10.6706, 61, -10.9742, -21.5808, 38.5966, -150.451, -76.2834, 89.6013
10.6797, 61, -10.8981, -21.4025, 38.4732, -150.525, -76.4116, 89.8173
10.6877, 61, -10.8222, -21.224, 38.3497, -150.599, -76.5405, 90.032
10.6957, 61, -10.7468, -21.0445, 38.2261, -150.672, -76.6704, 90.2454
10.7037, 61, -10.6718, -20.8638, 38.1022, -150.744, -76.8016, 90.4575
10.7117, 61, -10.5973, -20.6828, 37.9782, -150.815, -76.9336, 90.6689
10.7199, 61, -10.5231, -20.502, 37.854, -150.886, -77.0668, 90.8788
10.7277, 61, -10.4492, -20.3202, 37.7296, -150.955, -77.2007, 91.0877
10.7357, 61, -10.3755, -20.1371, 37.6051, -151.025, -77.3356, 91.2948
10.7437, 61, -10.3024, -19.9537, 37.4806, -151.093, -77.4712, 91.5009
10.7517, 61, -10.2297, -19.7705, 37.3559, -151.161, -77.6078, 91.706
10.7587, 61, -10.1573, -19.5866, 37.2313, -151.228, -77.7449, 91.9096
10.7677, 61, -10.0855, -19.4016, 37.1067, -151.294, -77.883, 92.1116
10.7757, 62, -10.014, -19.2161, 36.9822, -151.36, -78.0215, 92.3123
10.7837, 62, -9.94277, -19.0308, 36.8577, -151.424, -78.1609, 92.5112
10.7927, 62, -9.87206, -18.8451, 36.7333, -151.488, -78.3007, 92.7089
10.7997, 62, -9.80187, -18.6584, 36.6088, -151.551, -78.4415, 92.9055
10.8088, 62, -9.73208, -18.4717, 36.4843, -151.613, -78.5826, 93.1007
10.8157, 62, -9.66269, -18.2855, 36.3598, -151.674, -78.7244, 93.2942
10.8237, 62, -9.59358, -18.099, 36.2355, -151.734, -78.8669, 93.4862
10.8317, 62, -9.52484, -17.9116, 36.1113, -151.794, -79.0099, 93.6767
10.8398, 62, -9.45649, -17.724, 35.9872, -151.852, -79.1538, 93.8663
10.8477, 62, -9.38852, -17.5369, 35.8632, -151.911, -79.298, 94.0543
10.8556, 62, -9.32098, -17.349, 35.7394, -151.967, -79.4429, 94.2406
10.8637, 62, -9.25391, -17.1601, 35.6158, -152.024, -79.5881, 94.4251
10.8717, 62, -9.18737, -16.9711, 35.4925, -152.079, -79.7341, 94.6078
10.8797, 63, -9.12118, -16.7824, 35.3695, -152.133, -79.8804, 94.7888
10.8878, 63, -9.05546, -16.5937, 35.2467, -152.187, -80.0274, 94.9681
10.8957, 63, -8.99015, -16.4041, 35.1239, -152.24, -80.1748, 95.146
10.9037, 63, -8.92527, -16.2149, 35.0015, -152.291, -80.3225, 95.322
10.9117, 63, -8.86095, -16.0263, 34.8793, -152.342, -80.4707, 95.4966
10.9197, 63, -8.79694, -15.8374, 34.7575, -152.392, -80.6194, 95.6689
10.9276, 63, -8.73343, -15.6481, 34.636, -152.44, -80.7684, 95.8396
10.9359, 63, -8.67032, -15.4592, 34.5146, -152.489, -80.9177, 96.0089
10.9432, 63, -8.60757, -15.2709, 34.3936, -152.535, -81.0673, 96.1764
10.9517, 63, -8.54528, -15.0822, 34.2729, -152.582, -81.2169, 96.3426
10.9598, 63, -8.48327, -14.893, 34.1528, -152.627, -81.3669, 96.5063
10.9677, 63, -8.42183, -14.7041, 34.0331, -152.671, -81.5171, 96.6684
10.976, 64, -8.36079, -14.5156, 33.9137, -152.714, -81.6675, 96.8282
10.9837, 64, -8.30012, -14.3266, 33.7947, -152.757, -81.8179, 96.9859
10.9917, 64, -8.24006, -14.1373, 33.6761, -152.799, -81.9686, 97.1422
11.0001, 64, -8.18042, -13.9488, 33.5578, -152.839, -82.119, 97.2966
11.0072, 64, -8.12121, -13.7613, 33.4402, -152.879, -82.27, 97.4492
11.0158, 64, -8.06244, -13.5737, 33.323, -152.918, -82.4209, 97.5997
11.0242, 64, -8.00412, -13.3861, 33.2062, -152.956, -82.5721, 97.7481
11.0315, 64, -7.94618, -13.1992, 33.0897, -152.993, -82.7232, 97.8947
11.04, 64, -7.88868, -13.0129, 32.9737, -153.029, -82.8746, 98.0391
11.0478, 64, -7.83148, -12.8262, 32.8583, -153.065, -83.0259, 98.1817
11.0557, 64, -7.7748, -12.6393, 32.7436, -153.099, -83.1774, 98.3223
11.0637, 64, -7.71854, -12.4532, 32.6294, -153.132, -83.3288, 98.461
11.0719, 64, -7.66267, -12.2678, 32.5155, -153.164, -83.4803, 98.5976
11.0805, 65, -7.60718, -12.0822, 32.4021, -153.196, -83.6316, 98.7319
11.0879, 65, -7.55215, -11.8964, 32.2894, -153.226, -83.7832, 98.8638
11.0959, 65, -7.49765, -11.7117, 32.1773, -153.255, -83.9344, 98.9937
11.105, 65, -7.44362, -11.5277, 32.066, -153.284, -84.0857, 99.1211
11.1121, 65, -7.3899, -11.3437, 31.9553, -153.312, -84.2369, 99.2464
11.1187, 65, -7.36318, -11.2516, 31.9, -153.325, -84.3124, 99.3082
11.1282, 65, -7.28381, -10.9767, 31.7348, -153.365, -84.539, 99.4903
11.1371, 65, -7.23137, -10.7948, 31.6255, -153.389, -84.6898, 99.6091
11.1426, 65, -7.20529, -10.7039, 31.5712, -153.401, -84.7651, 99.6677
11.1522, 65, -7.15357, -10.5219, 31.4093, -153.436, -84.9911, 99.8399
11.1602, 65, -7.1022, -10.3404, 31.3557, -153.447, -85.0663, 99.9515
11.1682, 65, -7.05108, -10.1601, 31.2488, -153.469, -85.2166, 100.007
11.1756, 65, -7.00043, -9.98015, 31.1423, -153.491, -85.3665, 100.115
11.1827, 66, -6.95017, -9.8, 31.0363, -153.511, -85.5165, 100.22
11.1917, 66, -6.90024, -9.62053, 30.9313, -153.53, -85.6659, 100.324
11.1997, 66, -6.85083, -9.44256, 30.8271, -153.548, -85.8155, 100.425
11.2076, 66, -6.80183, -9.26535, 30.7236, -153.565, -85.9645, 100.523
11.2157, 66, -6.75319, -9.08807, 30.6207, -153.581, -86.1136, 100.619
11.2237, 66, -6.70506, -8.91129, 30.5181, -153.597, -86.2621, 100.712
11.2316, 66, -6.65722, -8.73594, 30.4161, -153.612, -86.4105, 100.804
11.2397, 66, -6.60958, -8.56122, 30.315, -153.626, -86.5583, 100.892
11.2477, 66, -6.56245, -8.38644, 30.2148, -153.64, -86.7062, 100.978
11.2558, 66, -6.51587, -8.21207, 30.1155, -153.652, -86.8538, 101.061
11.2636, 66, -6.46955, -8.03894, 30.0167, -153.664, -87.0011, 101.142
11.2707, 66, -6.42348, -7.86686, 29.9184, -153.674, -87.1479, 101.22
11.2796, 66, -6.37794, -7.69485, 29.8205, -153.684, -87.2946, 101.295
11.2867, 67, -6.33277, -7.52316, 29.7234, -153.692, -87.441, 101.368
11.2957, 67, -6.28784, -7.35272, 29.6274, -153.7, -87.5873, 101.437
11.3047, 67, -6.2433, -7.18359, 29.5323, -153.707, -87.7332, 101.505
11.3117, 67, -6.19912, -7.01466, 29.4379, -153.713, -87.8787, 101.569
11.3196, 67, -6.15534, -6.84607, 29.344, -153.719, -88.0239, 101.63
11.3277, 67, -6.11189, -6.67847, 29.2505, -153.723, -88.1686, 101.69
11.3357, 67, -6.06881, -6.51221, 29.1576, -153.727, -88.3131, 101.746
11.3436, 67, -6.02619, -6.34668, 29.0657, -153.73, -88.4571, 101.8
11.3518, 67, -5.98379, -6.18124, 28.9747, -153.732, -88.6009, 101.851
11.3597, 67, -5.94185, -6.01658, 28.8846, -153.734, -88.7441, 101.899
11.3677, 67, -5.90021, -5.8531, 28.7952, -153.735, -88.887, 101.944
11.3757, 67, -5.85891, -5.69051, 28.7063, -153.735, -89.0294, 101.986
11.3837, 67, -5.81773, -5.52811, 28.618, -153.735, -89.1712, 102.025
11.3917, 68, -5.77705, -5.36631, 28.5304, -153.735, -89.3128, 102.062
11.3997, 68, -5.73666, -5.20557, 28.4436, -153.734, -89.4538, 102.096
11.4077, 68, -5.69651, -5.04609, 28.3577, -153.733, -89.5946, 102.126
11.4156, 68, -5.65661, -4.88751, 28.2726, -153.73, -89.7347, 102.153
11.4237, 68, -5.61718, -4.72943, 28.1881, -153.726, -89.8749, 102.177
11.4316, 68, -5.57811, -4.57217, 28.1043, -153.721, -90.0145, 102.197
11.4396, 68, -5.53932, -4.41604, 28.0211, -153.715, -90.1539, 102.216
11.4479, 68, -5.50071, -4.26102, 27.9386, -153.709, -90.2929, 102.231
11.4574, 68, -5.46248, -4.10638, 27.8568, -153.702, -90.4316, 102.243
11.4638, 68, -5.42464, -3.9522, 27.7759, -153.694, -90.5699, 102.253
11.4716, 68, -5.3871, -3.79893, 27.6957, -153.685, -90.7079, 102.259
11.4796, 68, -5.34973, -3.64669, 27.6163, -153.676, -90.8454, 102.262
11.488, 68, -5.31266, -3.49533, 27.5377, -153.666, -90.9828, 102.263
11.4957, 69, -5.27599, -3.34461, 27.4599, -153.655, -91.1196, 102.262
11.5037, 69, -5.23958, -3.19451, 27.3827, -153.643, -91.2562, 102.258
11.5124, 69, -5.20325, -3.04545, 27.3061, -153.63, -91.3923, 102.249
11.5197, 69, -5.16727, -2.8975, 27.2302, -153.616, -91.5281, 102.237
11.5277, 69, -5.1316, -2.75056, 27.1549, -153.602, -91.6633, 102.221
11.5365, 69, -5.09616, -2.60421, 27.0803, -153.587, -91.7981, 102.202
11.5439, 69, -5.06091, -2.45871, 27.0066, -153.572, -91.9326, 102.18
11.5522, 69, -5.02582, -2.3141, 26.9335, -153.556, -92.0665, 102.154
11.5586, 69, -5.00843, -2.24218, 26.8973, -153.548, -92.1334, 102.14
11.5685, 69, -4.95667, -2.02804, 26.7895, -153.523, -92.3331, 102.092
11.5758, 69, -4.92244, -1.88617, 26.7185, -153.506, -92.4659, 102.055
11.5842, 69, -4.88829, -1.74483, 26.6481, -153.488, -92.5978, 102.016
11.5907, 69, -4.87128, -1.67445, 26.6132, -153.478, -92.6638, 101.994
11.5987, 70, -4.83754, -1.53442, 26.5439, -153.459, -92.7956, 101.95
