hehonglu123/Motion-Primitive-Planning/realrobot/recorded_data/repeatability/wood/v100_iteration2.csv
timestamp, cmd_num, J1, J2, J3, J4, J5, J6
0.000384, -1, 11.3778, 13.6141, 17.3391, -145.519, -97.9228, 142.516
0.002931, -1, 11.3778, 13.6141, 17.3391, -145.519, -97.9228, 142.516
0.00767, -1, 11.3778, 13.6141, 17.3391, -145.519, -97.9228, 142.516
0.029375, -1, 11.3778, 13.6141, 17.3391, -145.519, -97.9229, 142.516
0.031507, -1, 11.3778, 13.6141, 17.3391, -145.519, -97.9229, 142.516
0.034594, -1, 11.3778, 13.6141, 17.3391, -145.519, -97.9229, 142.516
0.039546, -1, 11.3778, 13.6142, 17.3391, -145.519, -97.9229, 142.516
0.047753, -1, 11.3777, 13.6141, 17.3391, -145.519, -97.9229, 142.516
0.188963, -1, 10.1979, 13.299, 17.4158, -145.889, -97.7974, 140.371
0.190173, -1, 10.1979, 13.299, 17.4158, -145.889, -97.7974, 140.371
0.192076, -1, 10.1226, 13.2788, 17.4209, -145.913, -97.7891, 140.232
0.193434, -1, 10.1226, 13.2788, 17.4209, -145.913, -97.7891, 140.232
0.194706, -1, 10.1226, 13.2788, 17.4209, -145.913, -97.7891, 140.232
0.19665, -1, 10.0467, 13.2583, 17.4259, -145.937, -97.7807, 140.093
0.19883, -1, 10.0467, 13.2583, 17.4259, -145.937, -97.7807, 140.093
0.204323, -1, 9.89296, 13.2171, 17.436, -145.985, -97.7635, 139.815
0.205643, -1, 9.89296, 13.2171, 17.436, -145.985, -97.7635, 139.815
0.206926, -1, 9.89296, 13.2171, 17.436, -145.985, -97.7635, 139.815
0.208919, -1, 9.81537, 13.1964, 17.441, -146.009, -97.7549, 139.675
0.210219, -1, 9.81537, 13.1964, 17.441, -146.009, -97.7549, 139.675
0.212036, -1, 9.73758, 13.1757, 17.4461, -146.033, -97.7463, 139.536
0.213477, -1, 9.73758, 13.1757, 17.4461, -146.033, -97.7463, 139.536
0.21467, -1, 9.73758, 13.1757, 17.4461, -146.033, -97.7463, 139.536
0.217035, -1, 9.6598, 13.155, 17.4511, -146.057, -97.7377, 139.396
0.218383, -1, 9.6598, 13.155, 17.4511, -146.057, -97.7377, 139.396
0.220172, -1, 9.58213, 13.1344, 17.4561, -146.081, -97.7292, 139.256
0.222416, -1, 9.58213, 13.1344, 17.4561, -146.081, -97.7292, 139.256
0.225242, -1, 9.50458, 13.1138, 17.461, -146.105, -97.7207, 139.117
0.226518, -1, 9.50458, 13.1138, 17.461, -146.105, -97.7207, 139.117
0.228589, -1, 9.42716, 13.0932, 17.466, -146.129, -97.7123, 138.977
0.233595, -1, 9.34987, 13.0727, 17.4709, -146.153, -97.704, 138.838
0.240222, -1, 9.27264, 13.0521, 17.4809, -146.201, -97.6872, 138.558
0.249167, -1, 9.11858, 13.0111, 17.4858, -146.225, -97.6788, 138.418
0.255535, -1, 8.9649, 12.9701, 17.4959, -146.273, -97.662, 138.139
0.263605, -1, 8.81132, 12.9291, 17.5061, -146.321, -97.645, 137.859
0.271486, -1, 8.65817, 12.8881, 17.5161, -146.369, -97.6276, 137.58
0.279576, -1, 8.50545, 12.8469, 17.5263, -146.417, -97.6101, 137.3
0.287535, -1, 8.35269, 12.8057, 17.5365, -146.465, -97.5927, 137.02
0.295551, -1, 8.19947, 12.7643, 17.5466, -146.512, -97.5755, 136.74
0.303573, -1, 8.04577, 12.7228, 17.5568, -146.56, -97.5587, 136.46
0.311642, -1, 7.89152, 12.6812, 17.5669, -146.608, -97.542, 136.18
0.319523, -1, 7.73673, 12.6397, 17.5769, -146.656, -97.5253, 135.9
0.327575, -1, 7.5817, 12.598, 17.5871, -146.704, -97.5086, 135.62
0.335531, -1, 7.42654, 12.5566, 17.5973, -146.752, -97.4915, 135.34
0.343964, -1, 7.27131, 12.5152, 17.6073, -146.8, -97.4742, 135.06
0.351529, -1, 7.11611, 12.4738, 17.6176, -146.848, -97.4568, 134.78
0.359528, -1, 6.96083, 12.4325, 17.6278, -146.896, -97.4397, 134.5
0.369234, -1, 6.80564, 12.3914, 17.6381, -146.944, -97.4143, 134.079
0.375507, -1, 6.65078, 12.3502, 17.6485, -146.993, -97.4059, 133.939
0.384517, -1, 6.49626, 12.309, 17.6589, -147.041, -97.3892, 133.659
0.392366, -1, 6.34193, 12.2678, 17.6692, -147.089, -97.3723, 133.378
0.399508, -1, 6.18767, 12.2264, 17.6794, -147.137, -97.3553, 133.098
0.407524, -1, 6.03334, 12.185, 17.6896, -147.185, -97.338, 132.817
0.417664, -1, 5.87882, 12.1436, 17.705, -147.257, -97.3117, 132.396
0.42351, -1, 5.72408, 12.1019, 17.7101, -147.281, -97.303, 132.256
0.431631, -1, 5.56916, 12.0603, 17.7203, -147.329, -97.2858, 131.975
0.43955, -1, 5.41399, 12.0187, 17.7305, -147.377, -97.2688, 131.694
0.447506, -1, 5.25859, 11.977, 17.7407, -147.425, -97.252, 131.413
0.455611, -1, 5.10285, 11.9353, 17.7511, -147.473, -97.2353, 131.133
0.463495, -1, 4.94695, 11.8938, 17.7615, -147.521, -97.2184, 130.852
0.483199, -1, 4.55744, 11.7902, 17.7875, -147.642, -97.1752, 130.149
0.484395, -1, 4.55744, 11.7902, 17.7875, -147.642, -97.1752, 130.149
0.487488, -1, 4.47955, 11.7695, 17.7927, -147.666, -97.1665, 130.009
0.495509, -1, 4.3239, 11.728, 17.803, -147.714, -97.1492, 129.728
0.503637, -1, 4.16861, 11.6867, 17.8134, -147.763, -97.1322, 129.447
0.511529, -1, 4.0137, 11.6453, 17.8237, -147.811, -97.1154, 129.166
0.519506, -1, 3.85918, 11.604, 17.834, -147.859, -97.0986, 128.885
0.527596, -1, 3.70475, 11.5625, 17.8443, -147.908, -97.0817, 128.603
0.535508, -1, 3.55029, 11.5209, 17.8545, -147.956, -97.0646, 128.322
0.543511, -1, 3.39563, 11.4793, 17.8649, -148.005, -97.0474, 128.041
0.551776, -1, 3.24071, 11.4377, 17.8754, -148.053, -97.0297, 127.759
0.559543, -1, 3.08555, 11.396, 17.8857, -148.101, -97.0123, 127.478
0.567557, -1, 2.93017, 11.3542, 17.8961, -148.149, -96.9951, 127.196
0.575789, -1, 2.77455, 11.3125, 17.9064, -148.197, -96.9782, 126.915
0.583646, -1, 2.61859, 11.2708, 17.9166, -148.245, -96.9614, 126.633
0.591627, -1, 2.46233, 11.2291, 17.927, -148.294, -96.9447, 126.352
0.599854, -1, 2.30583, 11.1875, 17.9374, -148.342, -96.9279, 126.07
0.607628, -1, 2.14907, 11.1458, 17.9478, -148.39, -96.9107, 125.788
0.615578, -1, 1.99224, 11.1042, 17.9581, -148.439, -96.8933, 125.506
0.624235, -1, 1.83561, 11.0626, 17.9684, -148.487, -96.8758, 125.224
0.631581, -1, 1.67916, 11.021, 17.9789, -148.535, -96.8584, 124.942
0.639598, -1, 1.52297, 10.9793, 17.9893, -148.584, -96.8415, 124.66
0.647688, -1, 1.36694, 10.9377, 17.9997, -148.633, -96.8246, 124.378
0.655636, -1, 1.21116, 10.8961, 18.01, -148.681, -96.8078, 124.096
0.663818, -1, 1.05584, 10.8544, 18.0203, -148.73, -96.791, 123.814
0.671843, -1, 0.90094, 10.8127, 18.0307, -148.778, -96.7738, 123.531
0.679824, -1, 0.746102, 10.7709, 18.041, -148.826, -96.7565, 123.249
0.688001, -1, 0.591394, 10.7291, 18.0513, -148.875, -96.7388, 122.967
0.695979, -1, 0.436517, 10.6874, 18.0617, -148.924, -96.7213, 122.684
0.704024, -1, 0.281314, 10.6456, 18.072, -148.972, -96.7041, 122.402
0.71217, -1, 0.125731, 10.6038, 18.0825, -149.02, -96.6871, 122.119
0.720058, -1, -0.0302133, 10.5619, 18.093, -149.069, -96.6703, 121.836
0.728086, -1, -0.186597, 10.5202, 18.1034, -149.117, -96.6537, 121.554
0.736215, -1, -0.343314, 10.4784, 18.1139, -149.166, -96.6368, 121.271
0.744025, -1, -0.421829, 10.4575, 18.1191, -149.19, -96.6282, 121.13
0.752076, -1, -0.579102, 10.4156, 18.1294, -149.238, -96.6109, 120.847
0.759587, -1, -0.736442, 10.3739, 18.1398, -149.287, -96.5934, 120.564
0.767525, -1, -0.893862, 10.3321, 18.1502, -149.335, -96.576, 120.281
0.775491, -1, -1.0512, 10.2903, 18.1604, -149.384, -96.5589, 119.999
0.913565, -1, -3.71122, 9.57868, 18.3371, -150.211, -96.2587, 115.036
0.914966, -1, -3.79014, 9.55774, 18.3422, -150.235, -96.2587, 115.036
0.916148, -1, -3.79014, 9.55774, 18.3422, -150.235, -96.2587, 115.036
0.918306, -1, -3.86913, 9.53677, 18.3474, -150.259, -96.2502, 114.894
0.919614, -1, -3.86913, 9.53677, 18.3474, -150.259, -96.2502, 114.894
0.920849, -1, -3.86913, 9.53677, 18.3474, -150.259, -96.2502, 114.894
0.923683, -1, -3.94815, 9.51576, 18.3525, -150.284, -96.2417, 114.752
0.926929, -1, -4.02719, 9.49479, 18.3577, -150.308, -96.2332, 114.609
0.928565, -1, -4.02719, 9.49479, 18.3577, -150.308, -96.2332, 114.609
0.930607, -1, -4.10622, 9.47386, 18.3629, -150.333, -96.2248, 114.467
0.931808, -1, -4.10622, 9.47386, 18.3629, -150.333, -96.2248, 114.467
0.933686, -1, -4.10622, 9.47386, 18.3629, -150.357, -96.2163, 114.325
0.935032, -1, -4.18514, 9.45291, 18.3681, -150.357, -96.2163, 114.325
0.936466, -1, -4.18514, 9.45291, 18.3681, -150.357, -96.2163, 114.325
0.938609, -1, -4.26397, 9.43197, 18.3732, -150.382, -96.2077, 114.183
0.942153, -1, -4.34276, 9.41099, 18.3784, -150.406, -96.1992, 114.041
0.943431, -1, -4.34276, 9.41099, 18.3784, -150.406, -96.1992, 114.041
0.944685, -1, -4.34276, 9.41099, 18.3784, -150.406, -96.1992, 114.041
0.947425, -1, -4.42146, 9.39, 18.3836, -150.43, -96.1906, 113.899
0.948661, -1, -4.42146, 9.39, 18.3836, -150.43, -96.1906, 113.899
0.95142, -1, -4.50009, 9.36904, 18.3887, -150.455, -96.1818, 113.756
0.952615, -1, -4.50009, 9.36904, 18.3887, -150.455, -96.1818, 113.756
0.959631, -1, -4.65713, 9.32707, 18.3991, -150.504, -96.1642, 113.472
0.967489, -1, -4.81365, 9.28509, 18.4094, -150.552, -96.1465, 113.187
0.975491, -1, -4.96992, 9.24305, 18.4199, -150.602, -96.129, 112.903
0.983582, -1, -5.1259, 9.20105, 18.4304, -150.65, -96.1118, 112.618
0.991499, -1, -5.28179, 9.159, 18.4409, -150.699, -96.0948, 112.333
0.999569, -1, -5.43779, 9.11687, 18.4514, -150.748, -96.078, 112.049
1.00757, -1, -5.59397, 9.07474, 18.4618, -150.796, -96.061, 111.764
1.0155, -1, -5.75049, 9.03267, 18.4722, -150.845, -96.0439, 111.479
1.02354, -1, -5.90736, 8.99051, 18.4826, -150.894, -96.0265, 111.194
1.03157, -1, -6.06476, 8.94838, 18.4929, -150.943, -96.0089, 110.909
1.0395, -1, -6.22272, 8.90631, 18.5032, -150.991, -95.9914, 110.624
1.04749, -1, -6.38101, 8.86421, 18.5135, -151.041, -95.9741, 110.339
1.05557, -1, -6.53949, 8.82219, 18.5238, -151.09, -95.9571, 110.054
1.06365, -1, -6.69807, 8.7801, 18.5343, -151.139, -95.9401, 109.768
1.07156, -1, -6.85684, 8.73801, 18.5448, -151.188, -95.9231, 109.483
1.07965, -1, -7.01552, 8.69594, 18.5553, -151.237, -95.906, 109.197
1.08786, -1, -7.17402, 8.65386, 18.5658, -151.286, -95.8886, 108.912
1.09561, -1, -7.33233, 8.61176, 18.5761, -151.335, -95.8709, 108.627
1.10368, -1, -7.49016, 8.56956, 18.5865, -151.384, -95.8532, 108.341
1.11199, -1, -7.6478, 8.52732, 18.597, -151.433, -95.8356, 108.055
1.11956, -1, -7.80513, 8.48513, 18.6074, -151.483, -95.8185, 107.769
1.12769, -1, -7.96201, 8.4429, 18.6178, -151.531, -95.8014, 107.484
1.13631, -1, -8.11865, 8.40055, 18.6281, -151.58, -95.7845, 107.198
1.14364, -1, -8.27521, 8.35824, 18.6386, -151.629, -95.7675, 106.912
1.15163, -1, -8.43189, 8.31591, 18.6491, -151.678, -95.7503, 106.626
1.16038, -1, -8.58884, 8.27353, 18.6596, -151.727, -95.7328, 106.34
1.16806, -1, -8.74618, 8.2313, 18.6701, -151.776, -95.715, 106.053
1.17576, -1, -8.90387, 8.18901, 18.6804, -151.825, -95.6975, 105.767
1.18457, -1, -9.06201, 8.14672, 18.6908, -151.874, -95.6801, 105.481
1.19203, -1, -9.22062, 8.10452, 18.7012, -151.924, -95.663, 105.194
1.19993, -1, -9.37957, 8.06228, 18.7116, -151.973, -95.6459, 104.908
1.20877, -1, -9.53871, 8.01997, 18.7221, -152.022, -95.6288, 104.621
1.21646, -1, -9.69799, 7.97779, 18.7325, -152.072, -95.6115, 104.335
1.22404, -1, -9.85731, 7.93565, 18.743, -152.121, -95.5939, 104.048
1.23283, -1, -10.0167, 7.89335, 18.7536, -152.17, -95.5761, 103.761
1.24019, -1, -10.0963, 7.85102, 18.7642, -152.219, -95.5582, 103.474
1.24748, -1, -10.2555, 7.82981, 18.7695, -152.244, -95.5494, 103.331
1.2555, -1, -10.4144, 7.78736, 18.78, -152.293, -95.5321, 103.044
1.26354, -1, -10.573, 7.74488, 18.7905, -152.343, -95.515, 102.757
1.27159, -1, -10.7314, 7.70247, 18.8009, -152.392, -95.498, 102.47
1.27948, -1, -10.8893, 7.65994, 18.8114, -152.441, -95.4811, 102.183
1.2875, -1, -11.0469, 7.61741, 18.8218, -152.49, -95.4638, 101.896
1.2955, -1, -11.2042, 7.57497, 18.8322, -152.539, -95.4463, 101.608
1.3035, -1, -11.3615, 7.53252, 18.8426, -152.589, -95.4286, 101.321
1.31149, -1, -11.5191, 7.49007, 18.8531, -152.638, -95.4108, 101.034
1.31949, -1, -11.6768, 7.44763, 18.8636, -152.687, -95.3933, 100.746
1.32983, -1, -11.9143, 7.38406, 18.8795, -152.761, -95.3675, 100.314
1.33548, -1, -11.9936, 7.36287, 18.8847, -152.786, -95.3589, 100.171
1.34348, -1, -12.1526, 7.32053, 18.8953, -152.835, -95.3417, 99.8831
1.35163, -1, -12.312, 7.27814, 18.9057, -152.885, -95.3244, 99.5954
1.35948, -1, -12.4718, 7.23572, 18.9162, -152.935, -95.3069, 99.3075
1.36755, -1, -12.6317, 7.19339, 18.9268, -152.984, -95.289, 99.0196
1.37716, -1, -12.7918, 7.15099, 18.9373, -153.033, -95.2622, 98.5878
1.38347, -1, -12.9519, 7.10852, 18.9478, -153.083, -95.2534, 98.4437
1.39157, -1, -13.112, 7.06595, 18.9583, -153.132, -95.236, 98.1554
1.39949, -1, -13.2717, 7.0234, 18.9688, -153.182, -95.2188, 97.8675
1.40749, -1, -13.4312, 6.9808, 18.9794, -153.231, -95.2017, 97.5793
1.41551, -1, -13.5905, 6.93809, 18.9899, -153.28, -95.1846, 97.2908
1.42351, -1, -13.7496, 6.89537, 19.0005, -153.33, -95.1673, 97.0022
1.43157, -1, -13.9084, 6.85268, 19.0109, -153.379, -95.1496, 96.7139
1.43949, -1, -14.0666, 6.80999, 19.0214, -153.428, -95.1317, 96.4253
1.44747, -1, -14.2248, 6.76738, 19.0319, -153.478, -95.1141, 96.1364
1.45556, -1, -14.383, 6.72476, 19.0424, -153.527, -95.0966, 95.8475
1.46349, -1, -14.5413, 6.68208, 19.0528, -153.576, -95.0794, 95.5586
1.47149, -1, -14.7, 6.63952, 19.0634, -153.626, -95.0622, 95.2696
1.47958, -1, -14.859, 6.59702, 19.0739, -153.676, -95.0451, 94.9802
1.48749, -1, -15.0184, 6.5544, 19.0845, -153.725, -95.0278, 94.6911
1.49547, -1, -15.1781, 6.5118, 19.0952, -153.775, -95.0101, 94.4019
1.50356, -1, -15.3383, 6.46926, 19.1059, -153.825, -94.9921, 94.1128
1.51148, -1, -15.4987, 6.42662, 19.1165, -153.874, -94.9741, 93.8232
1.51947, -1, -15.6595, 6.38397, 19.127, -153.925, -94.9565, 93.5341
1.52756, -1, -15.8203, 6.34129, 19.1376, -153.974, -94.9391, 93.2448
1.53547, -1, -15.9811, 6.2985, 19.1482, -154.024, -94.9219, 92.9553
1.54348, -1, -16.1418, 6.25567, 19.1587, -154.074, -94.9048, 92.6656
1.55165, -1, -16.3026, 6.21284, 19.1692, -154.123, -94.8876, 92.3761
1.55947, -1, -16.463, 6.1699, 19.1796, -154.172, -94.8701, 92.0865
1.56758, -1, -16.6232, 6.12696, 19.1901, -154.222, -94.8523, 91.7964
1.57635, -1, -16.7831, 6.08407, 19.2007, -154.272, -94.8343, 91.5063
1.58357, -1, -16.9425, 6.04113, 19.2113, -154.322, -94.8167, 91.2166
1.59169, -1, -17.1017, 5.9982, 19.2219, -154.372, -94.7992, 90.9266
1.60043, -1, -17.2608, 5.95533, 19.2325, -154.421, -94.7819, 90.6363
1.60761, -1, -17.4199, 5.91253, 19.243, -154.471, -94.7646, 90.3459
1.61565, -1, -17.5792, 5.86976, 19.2537, -154.521, -94.7472, 90.0558
1.62438, -1, -17.7386, 5.82704, 19.2643, -154.57, -94.7295, 89.7656
1.63151, -1, -17.8982, 5.78429, 19.2749, -154.621, -94.7116, 89.4752
1.63969, -1, -18.0583, 5.74159, 19.2855, -154.671, -94.6935, 89.1846
1.64842, -1, -18.2188, 5.69888, 19.296, -154.72, -94.6755, 88.8944
1.65569, -1, -18.3798, 5.65616, 19.3067, -154.77, -94.6579, 88.6037
1.66363, -1, -18.5412, 5.61328, 19.3174, -154.821, -94.6406, 88.3128
1.67255, -1, -18.7028, 5.57035, 19.328, -154.87, -94.6233, 88.022
1.67992, -1, -18.8643, 5.52743, 19.3386, -154.921, -94.606, 87.731
1.68781, -1, -19.026, 5.48441, 19.3491, -154.97, -94.5885, 87.4399
1.69587, -1, -19.1876, 5.4413, 19.3596, -155.02, -94.5707, 87.1484
1.70403, -1, -19.3489, 5.39822, 19.3703, -155.07, -94.5527, 86.8574
1.71198, -1, -19.5101, 5.3551, 19.3808, -155.12, -94.5347, 86.566
1.72003, -1, -19.6709, 5.3119, 19.3914, -155.169, -94.517, 86.2745
1.72811, -1, -19.8315, 5.26885, 19.4019, -155.22, -94.4994, 85.9827
1.73606, -1, -19.9118, 5.22576, 19.4125, -155.269, -94.482, 85.6911
1.74401, -1, -20.072, 5.20417, 19.4179, -155.294, -94.4646, 85.3997
1.75289, -1, -20.2318, 5.16117, 19.4287, -155.345, -94.4559, 85.108
1.75945, -1, -20.3916, 5.11832, 19.4395, -155.395, -94.4384, 84.9621
1.76747, -1, -20.5516, 5.07529, 19.4503, -155.445, -94.4204, 84.6703
1.77554, -1, -20.7118, 5.03235, 19.4609, -155.495, -94.4023, 84.3787
1.78346, -1, -20.8723, 4.98952, 19.4716, -155.545, -94.3845, 84.0868
1.79149, -1, -21.0333, 4.94657, 19.4823, -155.595, -94.3669, 83.7947
1.79958, -1, -21.1946, 4.90357, 19.4928, -155.646, -94.3496, 83.5027
1.80754, -1, -21.3564, 4.86054, 19.5034, -155.696, -94.3324, 83.2108
1.81545, -1, -21.5184, 4.81739, 19.514, -155.746, -94.3151, 82.9184
1.82565, -1, -21.7617, 4.75265, 19.5301, -155.822, -94.2888, 82.4796
1.83145, -1, -21.8429, 4.73103, 19.5354, -155.846, -94.2799, 82.3335
1.83946, -1, -22.0054, 4.68768, 19.5462, -155.896, -94.2619, 82.0411
1.84983, -1, -22.2491, 4.6227, 19.5623, -155.972, -94.2351, 81.6019
1.85555, -1, -22.3303, 4.60102, 19.5676, -155.997, -94.2263, 81.4555
1.86346, -1, -22.4924, 4.55766, 19.5782, -156.047, -94.2089, 81.1629
1.87153, -1, -22.6541, 4.51429, 19.5889, -156.098, -94.1913, 80.8701
1.87945, -1, -22.8157, 4.47091, 19.5994, -156.147, -94.174, 80.5772
1.88846, -1, -22.9769, 4.42762, 19.6101, -156.198, -94.1563, 80.2842
1.89552, -1, -23.138, 4.38436, 19.6208, -156.248, -94.1383, 79.9913
1.90345, -1, -23.2989, 4.34109, 19.6315, -156.298, -94.12, 79.6982
1.91146, -1, -23.4597, 4.2979, 19.6423, -156.349, -94.1018, 79.4048
1.91959, -1, -23.6206, 4.25468, 19.6532, -156.4, -94.0839, 79.1116
1.92747, -1, -23.7817, 4.21151, 19.664, -156.45, -94.0662, 78.8181
1.93549, -1, -23.9431, 4.16835, 19.6747, -156.5, -94.0487, 78.5244
1.94348, -1, -24.1048, 4.12502, 19.6853, -156.551, -94.0314, 78.2307
1.95146, -1, -24.2671, 4.08169, 19.696, -156.601, -94.0139, 77.937
1.95952, -1, -24.4298, 4.03834, 19.7067, -156.652, -93.9961, 77.6432
1.9675, -1, -24.5927, 3.9949, 19.7173, -156.702, -93.978, 77.349
1.97546, -1, -24.7559, 3.95135, 19.728, -156.752, -93.9598, 77.0548
1.98352, -1, -24.9192, 3.90783, 19.7386, -156.803, -93.942, 76.7608
1.9915, -1, -25.0827, 3.8643, 19.7494, -156.853, -93.9243, 76.4667
1.99946, -1, -25.246, 3.82071, 19.7603, -156.903, -93.9068, 76.1723
2.00754, -1, -25.4088, 3.77718, 19.7712, -156.954, -93.8894, 75.878
2.01545, -1, -25.5715, 3.73358, 19.7819, -157.004, -93.8717, 75.5838
2.02352, -1, -25.7342, 3.68995, 19.7926, -157.054, -93.8538, 75.2895
2.03145, -1, -25.8966, 3.64653, 19.8033, -157.105, -93.8355, 74.9947
2.03946, -1, -26.0587, 3.60305, 19.8141, -157.155, -93.8171, 74.7001
2.04753, -1, -26.2205, 3.55956, 19.8248, -157.206, -93.799, 74.4055
2.05545, -1, -26.382, 3.51623, 19.8355, -157.257, -93.7811, 74.1108
2.06353, -1, -26.5437, 3.47284, 19.8462, -157.307, -93.7635, 73.8157
2.07155, -1, -26.7056, 3.42942, 19.857, -157.358, -93.7459, 73.5208
2.07954, -1, -26.8679, 3.38598, 19.8678, -157.409, -93.7283, 73.2258
2.08755, -1, -27.0306, 3.34243, 19.8787, -157.459, -93.7104, 72.9306
2.09563, -1, -27.1935, 3.29884, 19.8895, -157.51, -93.6923, 72.6352
2.10363, -1, -27.3567, 3.25526, 19.9002, -157.561, -93.674, 72.34
2.11159, -1, -27.5204, 3.21152, 19.9109, -157.611, -93.6559, 72.0448
2.11964, -1, -27.6844, 3.16781, 19.9217, -157.662, -93.638, 71.7492
2.12746, -1, -27.8484, 3.12417, 19.9324, -157.712, -93.6203, 71.4535
2.13569, -1, -28.0126, 3.08046, 19.9432, -157.763, -93.6026, 71.1582
2.14369, -1, -28.1767, 3.03677, 19.954, -157.814, -93.5849, 70.8625
2.15149, -1, -28.3409, 2.99304, 19.9647, -157.864, -93.5669, 70.5665
2.15964, -1, -28.5049, 2.94934, 19.9755, -157.915, -93.5487, 70.2706
2.16792, -1, -28.6685, 2.9057, 19.9864, -157.966, -93.5302, 69.9747
2.17569, -1, -28.8319, 2.86201, 19.9972, -158.017, -93.512, 69.6786
2.18413, -1, -28.9949, 2.81838, 20.008, -158.068, -93.4941, 69.3822
2.19191, -1, -29.1576, 2.77474, 20.0187, -158.119, -93.4763, 69.0859
2.19987, -1, -29.3203, 2.73112, 20.0295, -158.169, -93.4587, 68.7895
2.20798, -1, -29.4831, 2.68753, 20.0403, -158.221, -93.441, 68.4927
2.21656, -1, -29.6458, 2.64383, 20.0511, -158.272, -93.423, 68.1958
2.22405, -1, -29.8089, 2.60008, 20.0619, -158.323, -93.4049, 67.8991
2.23225, -1, -29.972, 2.55637, 20.0727, -158.374, -93.3865, 67.6024
2.2401, -1, -30.1353, 2.51259, 20.0836, -158.424, -93.3682, 67.3053
2.24799, -1, -30.2172, 2.49062, 20.0891, -158.45, -93.3592, 67.0083
2.25544, -1, -30.3814, 2.44669, 20.1, -158.501, -93.3414, 66.8599
2.26428, -1, -30.5459, 2.4028, 20.1109, -158.552, -93.3237, 66.4144
2.27144, -1, -30.7109, 2.3588, 20.1217, -158.602, -93.306, 66.2658
2.27946, -1, -30.8759, 2.31489, 20.1324, -158.654, -93.2882, 65.9683
2.28749, -1, -31.0409, 2.27098, 20.1433, -158.705, -93.27, 65.6712
2.29545, -1, -31.2058, 2.22695, 20.1542, -158.755, -93.2515, 65.374
2.30355, -1, -31.3708, 2.18312, 20.1649, -158.807, -93.2331, 65.0764
2.31145, -1, -31.5355, 2.13928, 20.1757, -158.858, -93.2149, 64.7787
2.31945, -1, -31.7001, 2.09526, 20.1864, -158.909, -93.197, 64.4812
2.32916, -1, -31.9463, 2.02946, 20.2028, -158.986, -93.1705, 64.0343
2.33545, -1, -32.0282, 2.00751, 20.2083, -159.011, -93.1617, 63.8852
2.3435, -1, -32.192, 1.96353, 20.2193, -159.062, -93.144, 63.5874
2.35149, -1, -32.3556, 1.91963, 20.2302, -159.114, -93.126, 63.2894
2.35946, -1, -32.5192, 1.87562, 20.2409, -159.165, -93.1077, 62.9914
2.36744, -1, -32.683, 1.83155, 20.2519, -159.216, -93.0893, 62.6929
2.37552, -1, -32.8469, 1.78756, 20.2628, -159.268, -93.0712, 62.3949
2.38349, -1, -33.011, 1.74343, 20.2736, -159.318, -93.0532, 62.0965
2.39244, -1, -33.1756, 1.69925, 20.2845, -159.37, -93.0354, 61.7979
2.39951, -1, -33.3405, 1.6551, 20.2953, -159.421, -93.0177, 61.4992
2.40745, -1, -33.5059, 1.61093, 20.3062, -159.472, -92.9997, 61.2007
2.41544, -1, -33.6715, 1.56675, 20.3172, -159.523, -92.9815, 60.9021
2.42368, -1, -33.8372, 1.52257, 20.3281, -159.574, -92.9629, 60.6032
2.43144, -1, -34.003, 1.4784, 20.339, -159.625, -92.9443, 60.3041
2.43944, -1, -34.1689, 1.43425, 20.3498, -159.677, -92.9259, 60.0053
2.44755, -1, -34.3349, 1.39016, 20.3607, -159.728, -92.9078, 59.706
2.45544, -1, -34.5007, 1.34598, 20.3716, -159.78, -92.8899, 59.4064
2.4635, -1, -34.6663, 1.30183, 20.3825, -159.832, -92.8722, 59.1071
2.47154, -1, -34.8316, 1.25768, 20.3934, -159.883, -92.8543, 58.8078
2.47944, -1, -34.9965, 1.21355, 20.4043, -159.934, -92.8362, 58.5083
2.48744, -1, -35.1612, 1.16937, 20.4153, -159.986, -92.8177, 58.2085
2.49556, -1, -35.3257, 1.12509, 20.4263, -160.037, -92.7991, 57.9089
2.50349, -1, -35.4898, 1.08096, 20.4374, -160.089, -92.7807, 57.6093
2.51143, -1, -35.6524, 1.03716, 20.4487, -160.14, -92.7627, 57.3095
2.5195, -1, -35.8123, 0.993851, 20.4601, -160.191, -92.7448, 57.0109
2.52745, -1, -35.9684, 0.951621, 20.4718, -160.242, -92.7272, 56.7153
2.53544, -1, -36.1194, 0.910972, 20.4837, -160.291, -92.7097, 56.4253
2.54357, -1, -36.2632, 0.872492, 20.4957, -160.339, -92.6926, 56.145
2.55144, -1, -36.3976, 0.836834, 20.5073, -160.384, -92.676, 55.8802
2.55943, -1, -36.5207, 0.804277, 20.5179, -160.425, -92.6607, 55.6379
2.56752, -1, -36.6313, 0.775038, 20.5272, -160.461, -92.6473, 55.4232
2.57548, -1, -36.7275, 0.749606, 20.5347, -160.492, -92.636, 55.2411
2.58358, -1, -36.809, 0.727916, 20.5401, -160.517, -92.627, 55.0939
2.5916, -1, -36.8767, 0.709935, 20.5432, -160.537, -92.6204, 54.9817
2.59954, -1, -36.9313, 0.695534, 20.5446, -160.551, -92.6157, 54.9016
2.60756, -1, -36.9732, 0.684469, 20.5449, -160.56, -92.6126, 54.8472
2.61564, -1, -37.0039, 0.676313, 20.5446, -160.566, -92.6108, 54.8137
2.62361, -1, -37.0252, 0.670663, 20.544, -160.569, -92.6098, 54.7946
2.63144, -1, -37.0385, 0.667267, 20.5436, -160.571, -92.6093, 54.7848
2.63988, -1, -37.0459, 0.665454, 20.5433, -160.572, -92.609, 54.7801
2.64748, 2, -37.0486, 0.664622, 20.5432, -160.572, -92.6089, 54.778
2.65547, 2, -37.0487, 0.66424, 20.5432, -160.573, -92.6089, 54.7771
2.66404, 2, -37.0482, 0.664114, 20.5432, -160.573, -92.6088, 54.7767
2.67252, 2, -37.0479, 0.664068, 20.5431, -160.573, -92.6089, 54.7766
2.67969, 2, -37.0482, 0.664028, 20.5431, -160.573, -92.6089, 54.7766
2.68815, 2, -37.0492, 0.663993, 20.5431, -160.573, -92.6089, 54.7768
2.6958, 2, -37.0503, 0.663914, 20.543, -160.573, -92.609, 54.777
2.70391, 2, -37.0516, 0.663763, 20.5428, -160.573, -92.609, 54.7772
2.71235, 2, -37.053, 0.663561, 20.5426, -160.573, -92.609, 54.7774
2.71997, 2, -37.0541, 0.663354, 20.5424, -160.573, -92.6091, 54.7777
2.72802, 2, -37.0552, 0.66317, 20.5423, -160.573, -92.6091, 54.778
2.73639, 2, -37.0557, 0.663077, 20.5421, -160.573, -92.6091, 54.7782
2.74403, 2, -37.0557, 0.663041, 20.5419, -160.573, -92.6091, 54.7785
2.75196, 2, -37.0554, 0.663032, 20.5419, -160.573, -92.6092, 54.7788
2.76045, 2, -37.0541, 0.663082, 20.5417, -160.573, -92.6092, 54.7791
2.76744, 2, -37.0536, 0.66311, 20.5417, -160.573, -92.6092, 54.7793
2.77543, 2, -37.0522, 0.663179, 20.5417, -160.573, -92.6093, 54.7796
2.78356, 2, -37.0506, 0.663283, 20.5416, -160.573, -92.6093, 54.7798
2.79142, 2, -37.0493, 0.66337, 20.5416, -160.573, -92.6094, 54.78
2.79944, 2, -37.0483, 0.663402, 20.5415, -160.573, -92.6095, 54.7801
2.80751, 2, -37.0478, 0.663399, 20.5415, -160.573, -92.6095, 54.7802
2.81542, 2, -37.0476, 0.66339, 20.5415, -160.573, -92.6095, 54.7803
2.82348, 2, -37.0477, 0.663339, 20.5415, -160.573, -92.6095, 54.7803
2.83152, 2, -37.0479, 0.663289, 20.5415, -160.573, -92.6095, 54.7804
2.83942, 2, -37.0482, 0.663274, 20.5415, -160.573, -92.6095, 54.7804
2.84943, 2, -37.0493, 0.663207, 20.5414, -160.573, -92.6095, 54.7805
2.85548, 2, -37.0497, 0.663206, 20.5414, -160.573, -92.6095, 54.7805
2.86356, 2, -37.0506, 0.663235, 20.5414, -160.573, -92.6095, 54.7805
2.87142, 2, -37.0513, 0.663244, 20.5414, -160.573, -92.6095, 54.7805
2.87949, 2, -37.0516, 0.663265, 20.5414, -160.573, -92.6095, 54.7805
2.88903, 2, -37.0518, 0.663275, 20.5414, -160.573, -92.6095, 54.7805
2.89542, 2, -37.0518, 0.663298, 20.5414, -160.573, -92.6095, 54.7806
2.90353, 2, -37.0516, 0.66329, 20.5414, -160.573, -92.6095, 54.7806
2.91142, 2, -37.0511, 0.663297, 20.5414, -160.573, -92.6095, 54.7806
2.91948, 2, -37.0508, 0.663297, 20.5414, -160.573, -92.6095, 54.7806
2.92751, 2, -37.0505, 0.663289, 20.5414, -160.573, -92.6095, 54.7807
2.93543, 2, -37.0503, 0.663286, 20.5414, -160.573, -92.6095, 54.7808
2.94348, 2, -37.0502, 0.663277, 20.5414, -160.573, -92.6096, 54.7808
2.9515, 2, -37.0502, 0.663268, 20.5414, -160.573, -92.6096, 54.7809
2.95942, 2, -37.0502, 0.663259, 20.5414, -160.573, -92.6096, 54.7809
2.96743, 2, -37.0502, 0.663234, 20.5413, -160.573, -92.6095, 54.7809
2.97552, 2, -37.0502, 0.663236, 20.5413, -160.573, -92.6096, 54.7809
2.98347, 2, -37.0503, 0.663256, 20.5413, -160.573, -92.6096, 54.781
2.99142, 2, -37.0506, 0.663271, 20.5413, -160.573, -92.6096, 54.781
2.99953, 2, -37.0508, 0.663277, 20.5413, -160.573, -92.6096, 54.781
3.00743, 2, -37.0508, 0.66328, 20.5413, -160.573, -92.6096, 54.781
3.01542, 2, -37.0509, 0.663282, 20.5413, -160.573, -92.6096, 54.7811
3.02353, 2, -37.0509, 0.663282, 20.5413, -160.573, -92.6096, 54.7812
3.03142, 2, -37.0509, 0.663283, 20.5413, -160.573, -92.6096, 54.7813
3.03942, 2, -37.0508, 0.663283, 20.5413, -160.573, -92.6096, 54.7813
3.04749, 2, -37.0508, 0.663283, 20.5413, -160.573, -92.6096, 54.7813
3.05545, 2, -37.0508, 0.663271, 20.5413, -160.573, -92.6096, 54.7813
3.06348, 2, -37.0507, 0.663258, 20.5413, -160.573, -92.6096, 54.7814
3.07149, 2, -37.0507, 0.663254, 20.5412, -160.573, -92.6096, 54.7814
3.07945, 2, -37.0507, 0.66327, 20.5412, -160.572, -92.6096, 54.7814
3.08751, 2, -37.0507, 0.663265, 20.5412, -160.572, -92.6096, 54.7815
3.09559, 2, -37.0506, 0.663285, 20.5412, -160.572, -92.6097, 54.7816
3.10359, 2, -37.0506, 0.663292, 20.5412, -160.572, -92.6097, 54.7816
3.11152, 2, -37.0507, 0.663305, 20.5412, -160.572, -92.6098, 54.7816
3.11962, 2, -37.0507, 0.663293, 20.5412, -160.572, -92.6098, 54.7817
3.12749, 2, -37.0507, 0.663288, 20.5412, -160.572, -92.6098, 54.7817
3.13543, 2, -37.0507, 0.663285, 20.5412, -160.572, -92.6098, 54.7817
3.1437, 2, -37.0506, 0.663284, 20.5412, -160.572, -92.6099, 54.7818
3.15167, 2, -37.0506, 0.663283, 20.5412, -160.572, -92.6099, 54.7817
3.15947, 2, -37.0506, 0.663283, 20.5412, -160.572, -92.6098, 54.7817
3.16771, 2, -37.0506, 0.663283, 20.5412, -160.572, -92.6098, 54.7817
3.17565, 2, -37.0506, 0.663283, 20.5412, -160.572, -92.6098, 54.7818
3.18384, 2, -37.0506, 0.663271, 20.5412, -160.572, -92.6099, 54.7819
3.19188, 2, -37.0506, 0.663277, 20.5412, -160.572, -92.6098, 54.7819
3.19996, 2, -37.0506, 0.66328, 20.5411, -160.572, -92.6098, 54.7819
3.20786, 2, -37.0506, 0.663282, 20.5411, -160.572, -92.6098, 54.7819
3.21604, 2, -37.0506, 0.663312, 20.5411, -160.572, -92.6098, 54.7819
3.22403, 2, -37.0505, 0.663322, 20.5411, -160.572, -92.6098, 54.782
3.23198, 2, -37.0505, 0.663319, 20.5411, -160.572, -92.6098, 54.782
3.24053, 2, -37.0505, 0.663318, 20.5411, -160.572, -92.6098, 54.782
3.24831, 2, -37.0505, 0.663307, 20.5411, -160.572, -92.6099, 54.7821
3.25594, 2, -37.0505, 0.663294, 20.5411, -160.572, -92.6099, 54.7821
3.26444, 2, -37.0504, 0.663286, 20.5411, -160.572, -92.6099, 54.7821
3.2714, 2, -37.0504, 0.663296, 20.5411, -160.572, -92.6099, 54.7821
3.27941, 2, -37.0504, 0.663296, 20.5411, -160.572, -92.6099, 54.7822
3.28748, 2, -37.0504, 0.663289, 20.5411, -160.572, -92.6099, 54.7822
3.29541, 2, -37.0504, 0.663286, 20.5411, -160.572, -92.6099, 54.7822
3.30346, 2, -37.0504, 0.663284, 20.5411, -160.572, -92.6099, 54.7823
3.3115, 2, -37.0504, 0.663284, 20.5411, -160.572, -92.6099, 54.7823
3.3194, 2, -37.0504, 0.663283, 20.5411, -160.572, -92.6099, 54.7823
3.32742, 2, -37.0503, 0.663283, 20.5411, -160.572, -92.6099, 54.7823
3.33696, 2, -37.0503, 0.663294, 20.5411, -160.572, -92.6099, 54.7823
3.34529, 2, -37.0503, 0.663325, 20.541, -160.572, -92.6099, 54.7823
3.3514, 2, -37.0503, 0.663322, 20.541, -160.572, -92.6099, 54.7823
3.36103, 2, -37.0503, 0.663326, 20.541, -160.572, -92.6099, 54.7824
3.36742, 2, -37.0503, 0.663312, 20.541, -160.572, -92.6099, 54.7824
3.37695, 2, -37.0503, 0.663296, 20.541, -160.572, -92.6099, 54.7824
3.38352, 2, -37.0503, 0.663289, 20.541, -160.572, -92.6099, 54.7824
3.39324, 2, -37.0503, 0.663286, 20.541, -160.572, -92.6099, 54.7824
3.3994, 2, -37.0503, 0.663284, 20.541, -160.572, -92.6099, 54.7825
3.40748, 2, -37.0503, 0.663283, 20.541, -160.572, -92.61, 54.7825
3.4154, 2, -37.0503, 0.663283, 20.541, -160.572, -92.61, 54.7825
3.42346, 2, -37.0503, 0.663283, 20.5409, -160.572, -92.6099, 54.7825
3.43147, 2, -37.0503, 0.663301, 20.5409, -160.572, -92.61, 54.7825
3.4394, 2, -37.0503, 0.663321, 20.5409, -160.572, -92.6099, 54.7825
3.44741, 2, -37.0503, 0.663337, 20.5409, -160.572, -92.6099, 54.7825
3.4555, 2, -37.0503, 0.663326, 20.5409, -160.572, -92.6099, 54.7825
3.46346, 2, -37.0502, 0.663321, 20.5409, -160.572, -92.6099, 54.7825
3.4714, 2, -37.0502, 0.663337, 20.5409, -160.572, -92.6099, 54.7826
3.47951, 2, -37.0502, 0.663315, 20.5409, -160.572, -92.61, 54.7826
3.48741, 2, -37.0502, 0.663309, 20.5409, -160.572, -92.61, 54.7826
3.49541, 2, -37.0502, 0.663321, 20.5409, -160.572, -92.61, 54.7826
3.50358, 2, -37.0502, 0.663319, 20.5409, -160.572, -92.61, 54.7826
3.5114, 2, -37.0502, 0.663329, 20.5409, -160.572, -92.61, 54.7826
3.5194, 2, -37.0502, 0.663322, 20.5408, -160.572, -92.61, 54.7826
3.52748, 2, -37.0501, 0.663338, 20.5408, -160.572, -92.61, 54.7826
3.53541, 2, -37.0501, 0.663345, 20.5408, -160.572, -92.61, 54.7826
3.54345, 2, -37.0501, 0.663348, 20.5408, -160.572, -92.61, 54.7826
3.55148, 2, -37.0501, 0.663369, 20.5408, -160.572, -92.61, 54.7827
3.55944, 2, -37.0501, 0.663364, 20.5408, -160.572, -92.61, 54.7827
3.56741, 2, -37.0501, 0.663357, 20.5408, -160.572, -92.61, 54.7827
3.57548, 2, -37.05, 0.663354, 20.5408, -160.572, -92.61, 54.7827
3.58349, 2, -37.05, 0.663359, 20.5408, -160.572, -92.61, 54.7827
3.59149, 2, -37.05, 0.66336, 20.5408, -160.572, -92.61, 54.7827
3.59958, 2, -37.05, 0.663344, 20.5408, -160.572, -92.61, 54.7827
3.60751, 2, -37.0499, 0.663329, 20.5408, -160.572, -92.61, 54.7827
3.6155, 2, -37.0499, 0.663334, 20.5408, -160.572, -92.6101, 54.7828
3.62366, 2, -37.0499, 0.663343, 20.5408, -160.572, -92.61, 54.7827
3.6314, 2, -37.0499, 0.663347, 20.5408, -160.572, -92.61, 54.7828
3.6394, 2, -37.0499, 0.663349, 20.5407, -160.572, -92.61, 54.7828
3.64783, 2, -37.0498, 0.66335, 20.5407, -160.571, -92.6101, 54.7828
3.65641, 2, -37.0498, 0.66335, 20.5408, -160.571, -92.6101, 54.7828
3.66354, 2, -37.0498, 0.663351, 20.5408, -160.571, -92.6101, 54.7829
3.67159, 2, -37.0498, 0.66334, 20.5408, -160.572, -92.61, 54.7828
3.67975, 2, -37.0498, 0.663338, 20.5407, -160.571, -92.61, 54.7828
3.68782, 2, -37.0498, 0.663345, 20.5407, -160.571, -92.6101, 54.7828
3.69578, 2, -37.0497, 0.663348, 20.5407, -160.571, -92.6101, 54.7828
3.70433, 2, -37.0497, 0.66335, 20.5407, -160.571, -92.6101, 54.7828
3.71184, 2, -37.0497, 0.66335, 20.5407, -160.571, -92.61, 54.7828
3.72049, 2, -37.0497, 0.663358, 20.5407, -160.571, -92.6101, 54.7829
3.7284, 4, -37.0496, 0.663359, 20.5407, -160.571, -92.61, 54.7829
3.73598, 4, -37.0496, 0.663355, 20.5407, -160.571, -92.6101, 54.7828
3.74399, 4, -37.0496, 0.663352, 20.5407, -160.571, -92.6101, 54.7828
3.75256, 4, -37.0496, 0.663352, 20.5407, -160.571, -92.6101, 54.7828
3.75939, 4, -37.0496, 0.663351, 20.5407, -160.571, -92.6101, 54.7828
3.76822, 4, -37.0495, 0.663363, 20.5407, -160.571, -92.6101, 54.7828
3.77544, 4, -37.0495, 0.663366, 20.5407, -160.571, -92.6101, 54.7828
3.78345, 4, -37.0495, 0.663375, 20.5407, -160.571, -92.6101, 54.7828
3.79164, 4, -37.0495, 0.663362, 20.5406, -160.571, -92.6101, 54.7828
3.79945, 4, -37.0495, 0.663375, 20.5406, -160.571, -92.6101, 54.7828
3.8074, 4, -37.0494, 0.663379, 20.5406, -160.571, -92.6101, 54.7828
3.81543, 4, -37.0494, 0.663376, 20.5406, -160.571, -92.6101, 54.7829
3.82349, 4, -37.0494, 0.663362, 20.5406, -160.571, -92.61, 54.7829
3.83154, 4, -37.0494, 0.663363, 20.5406, -160.571, -92.6101, 54.7829
3.85486, 4, -37.0493, 0.663366, 20.5406, -160.571, -92.6101, 54.7829
3.85614, 4, -37.0493, 0.663366, 20.5406, -160.571, -92.6101, 54.7829
3.85822, 4, -37.0492, 0.663376, 20.5406, -160.571, -92.6101, 54.7829
3.86351, 4, -37.0492, 0.663375, 20.5406, -160.571, -92.6101, 54.7829
3.87139, 4, -37.0492, 0.663362, 20.5405, -160.571, -92.6101, 54.7829
3.88095, 4, -37.0492, 0.663368, 20.5405, -160.571, -92.6101, 54.7829
3.88746, 4, -37.049, 0.66333, 20.5405, -160.571, -92.6101, 54.7829
3.89647, 4, -37.0476, 0.662951, 20.5406, -160.571, -92.6101, 54.7829
3.90345, 4, -37.0436, 0.661371, 20.5409, -160.571, -92.6102, 54.7829
3.91145, 4, -37.0369, 0.657965, 20.5422, -160.571, -92.6101, 54.7829
3.91939, 4, -37.0284, 0.652909, 20.545, -160.571, -92.6102, 54.7829
3.9274, 4, -37.0186, 0.646304, 20.55, -160.57, -92.6102, 54.7829
3.93547, 4, -37.0067, 0.637624, 20.558, -160.569, -92.6102, 54.7828
3.94445, 5, -36.9925, 0.626705, 20.569, -160.566, -92.6101, 54.7828
3.95158, 5, -36.977, 0.61392, 20.5832, -160.563, -92.61, 54.7827
3.9594, 5, -36.9606, 0.599746, 20.6002, -160.56, -92.6099, 54.7827
3.96741, 5, -36.9423, 0.583869, 20.6191, -160.556, -92.6097, 54.7826
3.97617, 5, -36.9212, 0.565756, 20.6396, -160.551, -92.6095, 54.7825
3.98347, 5, -36.8974, 0.545866, 20.6612, -160.547, -92.6093, 54.7824
3.99139, 5, -36.8715, 0.525267, 20.683, -160.542, -92.609, 54.7822
4.0003, 5, -36.8447, 0.504169, 20.7052, -160.538, -92.6088, 54.7821
4.00744, 5, -36.8174, 0.482533, 20.7274, -160.533, -92.6084, 54.7819
4.01539, 5, -36.7899, 0.461004, 20.7497, -160.528, -92.608, 54.7818
4.02424, 5, -36.7624, 0.439437, 20.7722, -160.523, -92.6076, 54.7817
4.03138, 5, -36.7351, 0.417668, 20.7945, -160.517, -92.6071, 54.7815
4.03939, 5, -36.7076, 0.396061, 20.8168, -160.512, -92.6065, 54.7813
4.04818, 5, -36.6805, 0.374475, 20.8393, -160.507, -92.6059, 54.7812
4.05538, 5, -36.6533, 0.352879, 20.8618, -160.502, -92.6053, 54.7811
4.06363, 5, -36.626, 0.331546, 20.8843, -160.497, -92.6047, 54.781
4.07273, 5, -36.5987, 0.31016, 20.9066, -160.492, -92.604, 54.781
4.07941, 5, -36.5714, 0.288875, 20.9291, -160.487, -92.6034, 54.7808
4.08763, 5, -36.5442, 0.26757, 20.9515, -160.482, -92.6027, 54.7807
4.09547, 5, -36.5171, 0.246021, 20.9739, -160.477, -92.602, 54.7807
4.10353, 5, -36.4901, 0.22454, 20.9965, -160.473, -92.6013, 54.7806
4.11183, 5, -36.4632, 0.203095, 21.0187, -160.468, -92.6006, 54.7804
4.11949, 5, -36.4359, 0.18148, 21.041, -160.463, -92.5999, 54.7803
4.12751, 5, -36.4082, 0.159966, 21.0634, -160.459, -92.5992, 54.7801
4.13602, 5, -36.3804, 0.138408, 21.0857, -160.454, -92.5985, 54.7799
4.14517, 5, -36.3526, 0.116717, 21.1081, -160.45, -92.5978, 54.7796
4.15144, 5, -36.3249, 0.0952409, 21.1304, -160.445, -92.597, 54.7792
4.16025, 5, -36.2973, 0.0737838, 21.1526, -160.441, -92.5964, 54.7789
4.16765, 5, -36.2697, 0.0522748, 21.1748, -160.436, -92.5957, 54.7785
4.17557, 5, -36.242, 0.0309194, 21.1971, -160.432, -92.595, 54.7781
4.18448, 5, -36.2143, 0.00960083, 21.2194, -160.427, -92.5943, 54.7776
4.19182, 5, -36.1867, -0.0117443, 21.2416, -160.422, -92.5936, 54.7771
4.1998, 5, -36.159, -0.0329411, 21.2638, -160.418, -92.5929, 54.7766
4.2086, 5, -36.1316, -0.0541562, 21.286, -160.413, -92.5922, 54.776
4.21602, 5, -36.1041, -0.0754002, 21.3083, -160.408, -92.5915, 54.7755
4.2245, 5, -36.0766, -0.096566, 21.3305, -160.404, -92.5909, 54.775
4.23282, 5, -36.0491, -0.117924, 21.3525, -160.399, -92.5902, 54.7745
4.24002, 5, -36.0215, -0.139245, 21.3746, -160.394, -92.5896, 54.774
4.24799, 5, -35.9937, -0.160509, 21.3966, -160.389, -92.5889, 54.7735
4.25716, 5, -35.9659, -0.181838, 21.4187, -160.383, -92.5882, 54.773
4.26513, 5, -35.952, -0.192498, 21.4299, -160.381, -92.5879, 54.7726
4.27142, 5, -35.924, -0.213733, 21.4519, -160.376, -92.5872, 54.7724
4.28127, 5, -35.8821, -0.245683, 21.4849, -160.368, -92.5862, 54.7718
4.28737, 5, -35.8682, -0.25633, 21.4959, -160.365, -92.5859, 54.7716
4.29689, 5, -35.8403, -0.277452, 21.5289, -160.357, -92.585, 54.771
4.30341, 5, -35.8124, -0.298533, 21.5399, -160.355, -92.5846, 54.7709
4.31137, 5, -35.7844, -0.319672, 21.5619, -160.349, -92.584, 54.7706
4.31948, 5, -35.7564, -0.340726, 21.5838, -160.344, -92.5834, 54.7704
4.32737, 5, -35.7286, -0.361796, 21.6057, -160.339, -92.5827, 54.77
4.33841, 5, -35.687, -0.393429, 21.6386, -160.332, -92.5817, 54.7698
4.34346, 5, -35.6732, -0.403947, 21.6496, -160.33, -92.5814, 54.7697
4.35137, 5, -35.6455, -0.425008, 21.6714, -160.325, -92.5809, 54.7695
4.3627, 5, -35.6035, -0.456557, 21.7039, -160.317, -92.5799, 54.7693
4.36737, 5, -35.5896, -0.467085, 21.7148, -160.315, -92.5796, 54.7692
4.37694, 5, -35.5617, -0.488246, 21.7475, -160.308, -92.5786, 54.7691
4.38348, 5, -35.5338, -0.509349, 21.7584, -160.305, -92.5783, 54.769
4.39137, 5, -35.5058, -0.530327, 21.7802, -160.301, -92.5777, 54.769
4.40039, 5, -35.4778, -0.551349, 21.8018, -160.296, -92.5771, 54.7689
4.40743, 5, -35.4496, -0.572298, 21.8234, -160.291, -92.5765, 54.7688
4.41537, 5, -35.4215, -0.593171, 21.845, -160.287, -92.5759, 54.7688
4.42347, 5, -35.3934, -0.614149, 21.8666, -160.282, -92.5752, 54.7688
4.43137, 5, -35.3653, -0.635056, 21.8882, -160.277, -92.5745, 54.7688
4.43938, 5, -35.3373, -0.655853, 21.9096, -160.272, -92.5739, 54.7687
4.44743, 5, -35.3092, -0.676717, 21.9312, -160.267, -92.5733, 54.7688
4.45537, 5, -35.2809, -0.697602, 21.9527, -160.262, -92.5727, 54.7687
4.46343, 5, -35.2528, -0.718426, 21.9742, -160.257, -92.572, 54.7687
4.47143, 5, -35.2247, -0.739281, 21.9957, -160.251, -92.5714, 54.7688
4.47937, 5, -35.1967, -0.76013, 22.017, -160.246, -92.5708, 54.7688
4.4874, 5, -35.1685, -0.780826, 22.0382, -160.241, -92.5701, 54.7687
4.49543, 5, -35.1402, -0.801573, 22.0596, -160.235, -92.5696, 54.7687
4.50341, 5, -35.1119, -0.822276, 22.081, -160.23, -92.569, 54.7688
4.51148, 5, -35.0837, -0.842967, 22.1024, -160.225, -92.5683, 54.7687
4.51938, 5, -35.0555, -0.863792, 22.1236, -160.219, -92.5677, 54.7688
4.52736, 5, -35.0272, -0.884565, 22.1449, -160.214, -92.567, 54.7688
4.53549, 5, -34.9989, -0.905173, 22.1661, -160.208, -92.5663, 54.7688
4.5434, 5, -34.9705, -0.925861, 22.1872, -160.203, -92.5658, 54.7689
4.55136, 5, -34.9422, -0.946538, 22.2085, -160.198, -92.5652, 54.7689
4.55951, 5, -34.914, -0.967103, 22.2296, -160.193, -92.5645, 54.7689
4.56773, 5, -34.8857, -0.987722, 22.2507, -160.188, -92.5639, 54.7689
4.57545, 5, -34.8574, -1.00836, 22.2719, -160.183, -92.5632, 54.769
4.58344, 5, -34.8289, -1.02878, 22.2929, -160.178, -92.5626, 54.7691
4.5915, 5, -34.8005, -1.04924, 22.3141, -160.173, -92.5619, 54.7691
4.59945, 5, -34.7721, -1.06979, 22.3351, -160.168, -92.5613, 54.7691
4.60792, 5, -34.7438, -1.09024, 22.356, -160.163, -92.5607, 54.7692
4.61548, 5, -34.7154, -1.11074, 22.3769, -160.158, -92.5601, 54.7693
4.62351, 5, -34.687, -1.13135, 22.3979, -160.154, -92.5594, 54.7694
4.63229, 5, -34.6584, -1.15181, 22.4189, -160.149, -92.5587, 54.7696
4.63937, 5, -34.6299, -1.17227, 22.4399, -160.144, -92.5581, 54.7697
4.64739, 5, -34.6013, -1.19278, 22.4607, -160.139, -92.5574, 54.7698
4.65655, 5, -34.5728, -1.21319, 22.4815, -160.134, -92.5568, 54.7701
4.66444, 5, -34.5442, -1.23371, 22.5023, -160.129, -92.5561, 54.7703
4.67143, 5, -34.5156, -1.25418, 22.5231, -160.124, -92.5555, 54.7706
4.68049, 5, -34.487, -1.27448, 22.544, -160.119, -92.5548, 54.771
4.68759, 5, -34.4585, -1.2948, 22.5647, -160.113, -92.5541, 54.7714
4.69576, 5, -34.4299, -1.31514, 22.5854, -160.108, -92.5535, 54.772
4.70382, 5, -34.4013, -1.33531, 22.6062, -160.102, -92.5528, 54.7727
4.71241, 5, -34.3726, -1.35561, 22.6268, -160.097, -92.5522, 54.7734
4.71986, 5, -34.3437, -1.37594, 22.6476, -160.091, -92.5514, 54.7743
4.72796, 5, -34.3151, -1.3961, 22.6683, -160.086, -92.5508, 54.7753
4.73655, 5, -34.2864, -1.41633, 22.6887, -160.08, -92.5502, 54.7763
4.74395, 5, -34.2579, -1.43667, 22.7094, -160.074, -92.5496, 54.7774
4.75201, 5, -34.2293, -1.45683, 22.7299, -160.069, -92.5489, 54.7786
4.75992, 5, -34.2148, -1.46689, 22.7402, -160.066, -92.5485, 54.7798
4.76736, 5, -34.1859, -1.48717, 22.7609, -160.06, -92.5478, 54.7805
4.77641, 5, -34.1428, -1.51741, 22.7917, -160.052, -92.5468, 54.7824
4.78523, 5, -34.1284, -1.52743, 22.8019, -160.047, -92.5461, 54.7837
4.79135, 5, -34.0996, -1.5476, 22.8225, -160.044, -92.5458, 54.7843
4.79942, 5, -34.0709, -1.56769, 22.8429, -160.039, -92.5451, 54.7857
4.80736, 5, -34.0421, -1.58767, 22.8633, -160.034, -92.5444, 54.7871
4.81536, 5, -34.0133, -1.60782, 22.8838, -160.028, -92.5437, 54.7885
4.82346, 5, -33.9845, -1.62794, 22.9041, -160.023, -92.543, 54.7899
4.83135, 5, -33.9556, -1.64785, 22.9245, -160.018, -92.5423, 54.7914
4.84165, 5, -33.9122, -1.67796, 22.9551, -160.01, -92.5413, 54.7935
4.84745, 5, -33.8977, -1.68795, 22.9652, -160.008, -92.541, 54.7942
4.85694, 5, -33.8542, -1.71779, 22.9957, -160, -92.5399, 54.7964
4.86585, 5, -33.8253, -1.73791, 23.0159, -159.995, -92.5391, 54.7978
4.87143, 5, -33.8109, -1.74789, 23.0259, -159.992, -92.5388, 54.7985
4.88118, 5, -33.7675, -1.77765, 23.0562, -159.984, -92.5378, 54.8006
4.8932, 5, -33.7384, -1.79766, 23.0764, -159.979, -92.5371, 54.8028
4.89538, 5, -33.7239, -1.80765, 23.0865, -159.976, -92.5367, 54.8028
4.90335, 5, -33.6948, -1.8275, 23.1067, -159.97, -92.536, 54.8042
4.91236, 5, -33.6659, -1.84735, 23.1268, -159.965, -92.5353, 54.8057
4.91942, 5, -33.637, -1.86729, 23.1469, -159.959, -92.5347, 54.8071
4.92735, 5, -33.6081, -1.88708, 23.1669, -159.954, -92.5339, 54.8086
4.93541, 5, -33.579, -1.90685, 23.187, -159.948, -92.5332, 54.8101
4.94335, 5, -33.5499, -1.92673, 23.2071, -159.942, -92.5325, 54.8116
4.95136, 5, -33.5208, -1.94647, 23.227, -159.936, -92.5318, 54.8132
4.95941, 5, -33.4917, -1.96625, 23.247, -159.93, -92.5311, 54.8147
4.96738, 5, -33.4626, -1.98626, 23.267, -159.924, -92.5303, 54.8161
4.97549, 5, -33.4335, -2.00617, 23.2869, -159.919, -92.5295, 54.8176
4.98341, 5, -33.4043, -2.02613, 23.307, -159.913, -92.5288, 54.819
4.99138, 5, -33.3753, -2.04629, 23.3272, -159.907, -92.5278, 54.8203
4.99935, 5, -33.3464, -2.06639, 23.3471, -159.901, -92.5268, 54.8215
5.00742, 5, -33.3175, -2.08661, 23.3673, -159.896, -92.5257, 54.8225
5.0154, 5, -33.2886, -2.10718, 23.3877, -159.89, -92.5243, 54.8233
5.02342, 6, -33.2596, -2.12769, 23.4082, -159.884, -92.5228, 54.8238
5.03135, 6, -33.2308, -2.1483, 23.429, -159.878, -92.5209, 54.8242
5.03935, 6, -33.2022, -2.16932, 23.4499, -159.872, -92.5189, 54.8244
5.04743, 6, -33.1737, -2.19042, 23.4708, -159.866, -92.5166, 54.8244
5.05534, 6, -33.1453, -2.21171, 23.4919, -159.859, -92.5141, 54.8244
5.06335, 6, -33.1169, -2.23342, 23.5132, -159.852, -92.5115, 54.8243
5.07156, 6, -33.0885, -2.25511, 23.5346, -159.846, -92.5086, 54.8241
5.08041, 6, -33.0603, -2.27707, 23.5563, -159.838, -92.5054, 54.8239
5.08739, 6, -33.0323, -2.29929, 23.578, -159.831, -92.5021, 54.8234
5.09566, 6, -33.0042, -2.32165, 23.5999, -159.823, -92.4986, 54.8228
5.10344, 6, -32.9763, -2.34439, 23.622, -159.815, -92.4949, 54.8219
5.11144, 6, -32.9483, -2.36732, 23.6444, -159.807, -92.491, 54.8208
5.11986, 6, -32.9204, -2.39031, 23.6668, -159.799, -92.4869, 54.8199
5.12746, 7, -32.8929, -2.41363, 23.6892, -159.79, -92.4826, 54.8187
5.13547, 7, -32.8653, -2.43702, 23.7119, -159.781, -92.4782, 54.8169
5.14434, 7, -32.8379, -2.46072, 23.7347, -159.772, -92.4735, 54.8143
5.15138, 7, -32.8105, -2.48473, 23.7579, -159.763, -92.4687, 54.8112
5.15948, 7, -32.783, -2.50879, 23.7812, -159.754, -92.4636, 54.8074
5.16829, 7, -32.7558, -2.53319, 23.8045, -159.745, -92.4584, 54.8033
5.17544, 7, -32.7287, -2.55776, 23.828, -159.736, -92.453, 54.7987
5.18392, 7, -32.7017, -2.58255, 23.8516, -159.727, -92.4473, 54.7939
5.19258, 7, -32.6749, -2.60771, 23.8754, -159.717, -92.4415, 54.7886
5.20052, 7, -32.648, -2.63287, 23.8994, -159.708, -92.4354, 54.783
5.20786, 7, -32.6211, -2.65834, 23.9236, -159.698, -92.4291, 54.7772
5.21646, 7, -32.5945, -2.68398, 23.9479, -159.688, -92.4225, 54.7709
5.2247, 7, -32.568, -2.70991, 23.9724, -159.678, -92.4156, 54.7645
5.23246, 8, -32.5415, -2.73613, 23.9971, -159.668, -92.4084, 54.7577
5.23992, 8, -32.5151, -2.76244, 24.0218, -159.657, -92.4008, 54.7507
5.24896, 8, -32.4888, -2.78901, 24.0468, -159.646, -92.3929, 54.7433
5.25652, 8, -32.4624, -2.81572, 24.0719, -159.635, -92.3846, 54.7357
5.26397, 8, -32.4493, -2.82921, 24.0846, -159.629, -92.3804, 54.7279
5.27271, 8, -32.4233, -2.8564, 24.1101, -159.618, -92.3717, 54.7238
5.2794, 8, -32.3972, -2.88362, 24.1356, -159.607, -92.3627, 54.7153
5.2875, 8, -32.3713, -2.91123, 24.1612, -159.596, -92.3537, 54.7067
5.29683, 8, -32.3456, -2.9529, 24.2001, -159.579, -92.34, 54.6931
5.30336, 8, -32.3197, -2.96695, 24.2132, -159.573, -92.3354, 54.6884
5.31134, 8, -32.2941, -2.99519, 24.2393, -159.562, -92.3261, 54.6787
5.3206, 8, -32.256, -3.03777, 24.2789, -159.544, -92.3119, 54.6637
5.32734, 9, -32.2433, -3.05206, 24.2922, -159.538, -92.3071, 54.6585
5.33677, 9, -32.2052, -3.09544, 24.3323, -159.519, -92.2926, 54.6427
5.34339, 9, -32.1926, -3.10998, 24.3457, -159.513, -92.2876, 54.6373
5.35297, 9, -32.1547, -3.15392, 24.3861, -159.493, -92.2723, 54.6213
5.36068, 9, -32.1421, -3.16868, 24.3997, -159.487, -92.267, 54.6103
5.36736, 9, -32.1171, -3.19835, 24.4271, -159.474, -92.2562, 54.6049
5.37722, 9, -32.0798, -3.24339, 24.4683, -159.454, -92.2392, 54.5883
5.38488, 9, -32.0673, -3.25848, 24.482, -159.448, -92.2333, 54.577
5.39215, 9, -32.0426, -3.28894, 24.5098, -159.435, -92.2213, 54.5713
5.39933, 9, -32.0178, -3.31957, 24.5377, -159.421, -92.2091, 54.5596
5.40845, 9, -31.993, -3.35049, 24.5657, -159.408, -92.1969, 54.5478
5.41534, 9, -31.9685, -3.38158, 24.5939, -159.394, -92.1847, 54.5356
5.42333, 9, -31.9442, -3.41288, 24.6223, -159.38, -92.1723, 54.5231
5.43397, 10, -31.9078, -3.46037, 24.6654, -159.358, -92.1536, 54.5036
5.44033, 10, -31.8958, -3.47629, 24.6797, -159.351, -92.1472, 54.4968
5.44839, 10, -31.8718, -3.5083, 24.7085, -159.336, -92.1343, 54.483
5.45638, 10, -31.8476, -3.54053, 24.7375, -159.322, -92.1211, 54.4688
5.46333, 10, -31.8236, -3.57302, 24.7668, -159.307, -92.1075, 54.4544
5.47146, 10, -31.7998, -3.60571, 24.7961, -159.293, -92.0934, 54.4399
5.47933, 10, -31.7761, -3.63859, 24.8256, -159.278, -92.0787, 54.4255
5.48748, 10, -31.7524, -3.67175, 24.8553, -159.263, -92.064, 54.4109
5.49543, 10, -31.729, -3.70517, 24.8852, -159.248, -92.0494, 54.3963
5.50333, 10, -31.7055, -3.73874, 24.9151, -159.232, -92.0347, 54.3815
5.51133, 10, -31.682, -3.77246, 24.9453, -159.216, -92.02, 54.3665
5.51944, 10, -31.6586, -3.80642, 24.9757, -159.2, -92.0052, 54.3513
5.52734, 10, -31.6353, -3.84077, 25.0062, -159.185, -91.9903, 54.3357
5.53535, 11, -31.612, -3.87518, 25.0367, -159.169, -91.975, 54.3196
5.54333, 11, -31.5888, -3.90982, 25.0676, -159.153, -91.9592, 54.3031
5.55138, 11, -31.5658, -3.94474, 25.0987, -159.137, -91.9428, 54.2861
5.55934, 11, -31.5427, -3.97997, 25.1298, -159.121, -91.9262, 54.2688
5.56739, 11, -31.5197, -4.01531, 25.1609, -159.104, -91.9095, 54.2515
5.57533, 11, -31.4971, -4.05094, 25.1924, -159.087, -91.8929, 54.2342
5.58351, 11, -31.4744, -4.0869, 25.2241, -159.069, -91.8762, 54.2169
5.59142, 11, -31.4517, -4.12304, 25.2558, -159.052, -91.8593, 54.1994
5.59941, 11, -31.4291, -4.15937, 25.2877, -159.035, -91.8422, 54.1818
5.60777, 11, -31.4067, -4.19605, 25.3199, -159.017, -91.8248, 54.1637
5.61543, 11, -31.3842, -4.23297, 25.3521, -159, -91.8068, 54.1454
5.62343, 11, -31.3619, -4.27001, 25.3845, -158.983, -91.7883, 54.1266
5.63193, 11, -31.3398, -4.3073, 25.4172, -158.965, -91.7697, 54.1071
5.64041, 12, -31.3178, -4.34488, 25.4501, -158.946, -91.7511, 54.0873
5.64745, 12, -31.2957, -4.38266, 25.483, -158.928, -91.7326, 54.0674
5.65629, 12, -31.2739, -4.42063, 25.516, -158.909, -91.7141, 54.0477
5.66339, 12, -31.2522, -4.45885, 25.5494, -158.891, -91.6954, 54.0279
5.67146, 12, -31.2304, -4.49725, 25.5828, -158.872, -91.6763, 54.0081
5.68031, 12, -31.2086, -4.53583, 25.6164, -158.853, -91.6566, 53.9881
5.68761, 12, -31.187, -4.57471, 25.6502, -158.835, -91.6365, 53.9678
5.6959, 12, -31.1655, -4.61375, 25.6841, -158.815, -91.6163, 53.9469
5.70398, 12, -31.1441, -4.65303, 25.7181, -158.796, -91.5964, 53.9254
5.7125, 12, -31.1227, -4.69252, 25.7524, -158.776, -91.5762, 53.9036
5.71986, 12, -31.1016, -4.73223, 25.7869, -158.756, -91.556, 53.8816
5.72849, 12, -31.0804, -4.77227, 25.8213, -158.737, -91.5351, 53.8598
5.73661, 12, -31.0591, -4.81254, 25.856, -158.717, -91.5138, 53.8379
5.74392, 13, -31.038, -4.85303, 25.891, -158.698, -91.492, 53.8158
5.75246, 13, -31.0171, -4.89371, 25.926, -158.678, -91.4702, 53.7935
5.76086, 13, -31.0067, -4.93476, 25.9612, -158.657, -91.4486, 53.7707
5.76797, 13, -30.9859, -4.95535, 25.9789, -158.636, -91.427, 53.7475
5.77533, 13, -30.9652, -4.99671, 26.0143, -158.626, -91.4161, 53.7356
5.78507, 13, -30.9344, -5.05922, 26.0679, -158.595, -91.3829, 53.6999
5.7925, 13, -30.9138, -5.10113, 26.1039, -158.575, -91.36, 53.6761
5.79945, 13, -30.9036, -5.12215, 26.1219, -158.565, -91.3485, 53.6643
5.80816, 13, -30.8831, -5.16439, 26.1579, -158.544, -91.3254, 53.6405
5.81532, 13, -30.8628, -5.2069, 26.1942, -158.522, -91.3025, 53.6163
5.82334, 13, -30.8426, -5.24948, 26.2307, -158.501, -91.2794, 53.5918
5.83268, 13, -30.8124, -5.31388, 26.2857, -158.468, -91.2443, 53.554
5.83933, 13, -30.8025, -5.33547, 26.3042, -158.457, -91.2323, 53.5412
5.84892, 14, -30.7727, -5.40042, 26.3596, -158.425, -91.1956, 53.503
5.85688, 14, -30.7528, -5.44409, 26.3968, -158.404, -91.1714, 53.4778
5.8649, 14, -30.7329, -5.48799, 26.4343, -158.382, -91.1471, 53.4525
5.87294, 14, -30.7133, -5.53216, 26.4718, -158.359, -91.1228, 53.4268
5.87931, 14, -30.7034, -5.55437, 26.4905, -158.348, -91.1106, 53.4138
5.88894, 14, -30.6838, -5.59898, 26.5283, -158.325, -91.0726, 53.3736
5.89715, 14, -30.6643, -5.64374, 26.5853, -158.292, -91.0468, 53.3462
5.90411, 14, -30.645, -5.68881, 26.6043, -158.281, -91.034, 53.3325
5.91233, 14, -30.6258, -5.73415, 26.6426, -158.258, -91.0082, 53.3052
5.92008, 14, -30.6066, -5.77966, 26.681, -158.235, -90.9826, 53.2779
5.92737, 14, -30.5873, -5.8254, 26.7195, -158.211, -90.9566, 53.2505
5.93534, 14, -30.5683, -5.87137, 26.7584, -158.188, -90.9298, 53.2227
5.94612, 15, -30.54, -5.94066, 26.8168, -158.153, -90.8893, 53.18
5.95138, 15, -30.5305, -5.96383, 26.8363, -158.141, -90.8759, 53.1654
5.95931, 15, -30.5117, -6.01033, 26.8757, -158.118, -90.8491, 53.1367
5.96749, 15, -30.4932, -6.05707, 26.9151, -158.094, -90.8223, 53.1081
5.97534, 15, -30.4747, -6.10401, 26.9547, -158.069, -90.7949, 53.0793
5.98332, 15, -30.4562, -6.15116, 26.9945, -158.044, -90.7668, 53.0501
5.99139, 15, -30.4376, -6.19854, 27.0344, -158.02, -90.7389, 53.0204
5.9995, 15, -30.4192, -6.24619, 27.0744, -157.996, -90.7111, 52.99
6.00832, 15, -30.4009, -6.29416, 27.1147, -157.971, -90.6831, 52.9596
6.01631, 15, -30.3827, -6.34234, 27.155, -157.946, -90.6546, 52.9293
6.02588, 15, -30.3644, -6.39081, 27.1955, -157.92, -90.6252, 52.8989
6.03231, 15, -30.3465, -6.43968, 27.2362, -157.895, -90.596, 52.8683
6.03931, 15, -30.3286, -6.48872, 27.2771, -157.87, -90.567, 52.837
6.04741, 16, -30.3108, -6.538, 27.3181, -157.845, -90.5381, 52.8051
6.05531, 16, -30.2929, -6.58748, 27.3593, -157.819, -90.5086, 52.7733
6.06332, 16, -30.275, -6.6372, 27.4007, -157.793, -90.4782, 52.7417
6.07138, 16, -30.2573, -6.68714, 27.4424, -157.767, -90.4481, 52.71
6.07932, 16, -30.2397, -6.73715, 27.484, -157.741, -90.4181, 52.6779
6.08738, 16, -30.2221, -6.78744, 27.5259, -157.715, -90.3881, 52.6455
6.09559, 16, -30.2046, -6.83792, 27.5681, -157.69, -90.3572, 52.6123
6.10447, 16, -30.1874, -6.88853, 27.6103, -157.663, -90.3257, 52.5793
6.11141, 16, -30.1702, -6.93938, 27.6528, -157.636, -90.2946, 52.5466
6.11947, 16, -30.1531, -6.99049, 27.6953, -157.609, -90.2636, 52.5137
6.12747, 16, -30.1358, -7.04193, 27.738, -157.583, -90.2324, 52.4803
6.13542, 16, -30.1187, -7.09364, 27.781, -157.556, -90.2003, 52.4462
6.14352, 16, -30.1016, -7.14564, 27.8238, -157.53, -90.1681, 52.412
6.15157, 17, -30.0848, -7.19802, 27.867, -157.502, -90.1361, 52.3783
6.15934, 17, -30.068, -7.25057, 27.9103, -157.474, -90.1041, 52.3445
6.16743, 17, -30.0513, -7.30337, 27.9538, -157.447, -90.0714, 52.3103
6.17553, 17, -30.0347, -7.35647, 27.9974, -157.42, -90.038, 52.2754
6.18345, 17, -30.0183, -7.40974, 28.0411, -157.392, -90.005, 52.24
6.19159, 17, -30.0019, -7.46315, 28.0851, -157.364, -89.9722, 52.2047
6.19996, 17, -29.9855, -7.51671, 28.1294, -157.335, -89.9391, 52.1695
6.2084, 17, -29.9691, -7.57049, 28.1736, -157.307, -89.9051, 52.1342
6.21604, 17, -29.9529, -7.62438, 28.2182, -157.279, -89.8711, 52.0984
6.22545, 17, -29.9366, -7.67847, 28.2629, -157.251, -89.8374, 52.062
6.23183, 17, -29.9206, -7.7328, 28.3078, -157.222, -89.8035, 52.0257
6.24041, 17, -29.9046, -7.78739, 28.3527, -157.192, -89.7687, 51.9895
6.24893, 17, -29.8886, -7.8422, 28.3979, -157.163, -89.7336, 51.9531
6.25642, 18, -29.8729, -7.89741, 28.4433, -157.135, -89.6991, 51.9162
6.26403, 18, -29.8572, -7.95292, 28.4886, -157.106, -89.6646, 51.8785
6.2713, 18, -29.8494, -7.98079, 28.5114, -157.091, -89.6471, 51.8596
6.28032, 18, -29.8258, -8.06472, 28.58, -157.045, -89.5936, 51.8037
6.28799, 18, -29.818, -8.09282, 28.6029, -157.03, -89.5759, 51.785
6.2953, 18, -29.8024, -8.14927, 28.6489, -157.001, -89.5405, 51.7472
6.30442, 18, -29.7792, -8.23411, 28.7183, -156.956, -89.4867, 51.6894
6.31144, 18, -29.7715, -8.2625, 28.7415, -156.941, -89.4683, 51.67
6.32069, 18, -29.7562, -8.34783, 28.8115, -156.895, -89.4136, 51.6125
6.3274, 18, -29.7409, -8.37631, 28.8349, -156.88, -89.3955, 51.5932
6.33534, 18, -29.7258, -8.43345, 28.8818, -156.85, -89.3592, 51.5545
6.3433, 18, -29.7108, -8.49075, 28.9289, -156.82, -89.3219, 51.515
6.35147, 18, -29.6958, -8.54837, 28.9762, -156.788, -89.2846, 51.4755
6.36087, 19, -29.6734, -8.6352, 29.0472, -156.742, -89.2291, 51.4169
6.36887, 19, -29.6584, -8.69357, 29.0949, -156.711, -89.1913, 51.3774
6.37783, 19, -29.6436, -8.75215, 29.1426, -156.68, -89.1531, 51.3374
6.38497, 19, -29.6289, -8.81109, 29.1903, -156.649, -89.1153, 51.2973
6.39314, 19, -29.6216, -8.84065, 29.2143, -156.633, -89.0965, 51.2576
6.39937, 19, -29.607, -8.89998, 29.2625, -156.601, -89.0585, 51.2378
6.40919, 19, -29.5925, -8.95945, 29.3349, -156.554, -89.0005, 51.1772
6.41907, 19, -29.571, -9.04902, 29.3834, -156.523, -88.9622, 51.136
6.4243, 19, -29.5639, -9.07893, 29.4078, -156.506, -88.9431, 51.1154
6.43238, 19, -29.5497, -9.13881, 29.4566, -156.474, -88.9042, 51.0746
6.4393, 19, -29.5357, -9.19885, 29.5055, -156.441, -88.8647, 51.0336
6.44741, 19, -29.5216, -9.25909, 29.5547, -156.409, -88.8256, 50.9921
6.45817, 20, -29.5004, -9.34979, 29.6288, -156.36, -88.7669, 50.9291
6.46336, 20, -29.4934, -9.38018, 29.6536, -156.344, -88.7469, 50.9083
6.47131, 20, -29.4794, -9.44117, 29.7032, -156.31, -88.707, 50.8666
6.47933, 20, -29.4656, -9.50244, 29.7529, -156.277, -88.6675, 50.8245
6.48736, 20, -29.4518, -9.56394, 29.8027, -156.245, -88.6276, 50.7815
6.49529, 20, -29.4382, -9.62583, 29.8526, -156.211, -88.5868, 50.7385
6.50341, 20, -29.4246, -9.68791, 29.9028, -156.177, -88.5464, 50.6959
6.51142, 20, -29.4111, -9.75024, 29.9531, -156.143, -88.5064, 50.653
6.51931, 20, -29.3978, -9.81274, 30.0036, -156.11, -88.4656, 50.6095
6.52741, 20, -29.3845, -9.87537, 30.0542, -156.076, -88.4242, 50.5656
6.5353, 20, -29.3712, -9.93816, 30.1051, -156.041, -88.3834, 50.5223
6.54329, 20, -29.3579, -10.0011, 30.1561, -156.007, -88.3423, 50.4789
6.5514, 20, -29.3445, -10.0641, 30.2073, -155.973, -88.3002, 50.435
6.55954, 21, -29.3314, -10.1274, 30.2587, -155.939, -88.2583, 50.3904
6.56735, 21, -29.3183, -10.191, 30.3102, -155.904, -88.217, 50.3463
6.57536, 21, -29.3053, -10.2547, 30.3617, -155.869, -88.175, 50.3022
6.58359, 21, -29.2924, -10.3187, 30.4134, -155.835, -88.1325, 50.2578
6.59136, 21, -29.2796, -10.383, 30.4653, -155.8, -88.0905, 50.2128
6.59935, 21, -29.2667, -10.4475, 30.5171, -155.764, -88.0483, 50.1683
6.60777, 21, -29.2541, -10.5121, 30.5693, -155.729, -88.005, 50.124
6.61643, 21, -29.2415, -10.5771, 30.6216, -155.694, -87.9621, 50.0793
6.62346, 21, -29.2289, -10.6422, 30.674, -155.659, -87.9197, 50.0338
6.63163, 21, -29.2165, -10.7074, 30.7265, -155.623, -87.8764, 49.9885
6.64056, 21, -29.2039, -10.7728, 30.7794, -155.587, -87.8327, 49.9435
6.64747, 21, -29.1913, -10.8384, 30.8323, -155.551, -87.7898, 49.8981
6.65537, 21, -29.1789, -10.9041, 30.8854, -155.515, -87.7462, 49.852
6.66334, 22, -29.1665, -10.97, 30.9387, -155.479, -87.7018, 49.8061
6.67136, 22, -29.1542, -11.0362, 30.992, -155.442, -87.6581, 49.7605
6.6795, 22, -29.1421, -11.1026, 31.0455, -155.406, -87.6144, 49.7145
6.6876, 22, -29.13, -11.1692, 31.0991, -155.369, -87.5696, 49.6677
6.69549, 22, -29.1179, -11.2361, 31.1528, -155.331, -87.5249, 49.6212
6.7036, 22, -29.1061, -11.3031, 31.2066, -155.294, -87.4807, 49.575
6.71172, 22, -29.0944, -11.3703, 31.2606, -155.258, -87.4355, 49.5287
6.71973, 22, -29.0827, -11.4378, 31.3148, -155.22, -87.3903, 49.4815
6.72816, 22, -29.071, -11.5054, 31.3692, -155.182, -87.3458, 49.4345
6.73679, 22, -29.0594, -11.5732, 31.4238, -155.145, -87.3006, 49.3878
6.74448, 22, -29.0477, -11.6412, 31.4785, -155.108, -87.2549, 49.3408
6.75186, 22, -29.036, -11.7094, 31.5333, -155.07, -87.2099, 49.293
6.7604, 22, -29.0246, -11.7778, 31.5883, -155.031, -87.1643, 49.2454
6.76779, 23, -29.0189, -11.8121, 31.6158, -155.012, -87.1411, 49.2218
6.77582, 23, -29.0074, -11.8807, 31.6709, -154.975, -87.0949, 49.1746
6.78434, 23, -28.9903, -11.984, 31.7538, -154.917, -87.0266, 49.1027
6.79128, 23, -28.9847, -12.0185, 31.7815, -154.898, -87.0033, 49.0788
6.79931, 23, -28.9734, -12.0876, 31.8369, -154.859, -86.9567, 49.0314
6.80733, 23, -28.962, -12.1569, 31.8925, -154.821, -86.9108, 48.984
6.81531, 23, -28.9509, -12.2265, 31.9483, -154.782, -86.8641, 48.9357
6.82345, 23, -28.9399, -12.2961, 32.0042, -154.743, -86.8167, 48.8873
6.83268, 23, -28.9289, -12.366, 32.0884, -154.685, -86.7469, 48.8154
6.83932, 23, -28.918, -12.4361, 32.1166, -154.666, -86.7231, 48.7913
6.84735, 23, -28.9072, -12.5064, 32.1729, -154.626, -86.6755, 48.7426
6.85528, 23, -28.8964, -12.5768, 32.2295, -154.586, -86.6285, 48.6941
6.86575, 23, -28.8802, -12.6828, 32.3144, -154.527, -86.5567, 48.6218
6.87277, 24, -28.8748, -12.7537, 32.3711, -154.487, -86.5089, 48.5728
6.87928, 24, -28.8642, -12.7891, 32.3995, -154.466, -86.4854, 48.5482
6.88995, 24, -28.8482, -12.8958, 32.485, -154.406, -86.4134, 48.475
6.89682, 24, -28.8429, -12.9314, 32.5135, -154.386, -86.3892, 48.4262
6.90484, 24, -28.8324, -13.0029, 32.5707, -154.346, -86.3414, 48.4014
6.91227, 24, -28.822, -13.0745, 32.6281, -154.305, -86.2932, 48.3517
6.92033, 24, -28.8115, -13.1464, 32.6856, -154.265, -86.2442, 48.3028
6.93423, 24, -28.8011, -13.2545, 32.7721, -154.183, -86.1478, 48.2043
6.93638, 24, -28.7907, -13.2906, 32.801, -154.183, -86.1478, 48.2043
6.94335, 24, -28.7805, -13.363, 32.8588, -154.142, -86.0986, 48.1545
6.95128, 24, -28.7703, -13.4355, 32.9168, -154.102, -86.0501, 48.1053
6.95934, 24, -28.7601, -13.5082, 32.975, -154.06, -86.0012, 48.0561
6.9681, 24, -28.75, -13.5809, 33.0331, -154.019, -85.9515, 48.0063
6.97529, 25, -28.7399, -13.6539, 33.0915, -153.978, -85.9029, 47.9568
6.9833, 25, -28.7297, -13.7269, 33.1499, -153.937, -85.8538, 47.9078
6.99476, 25, -28.7147, -13.8367, 33.2377, -153.873, -85.7793, 47.8336
6.99929, 25, -28.7098, -13.8735, 33.2671, -153.853, -85.7548, 47.8085
7.00736, 25, -28.6999, -13.947, 33.3259, -153.811, -85.7052, 47.7589
7.01529, 25, -28.69, -14.0207, 33.3848, -153.769, -85.655, 47.7098
7.02428, 25, -28.6802, -14.0946, 33.4439, -153.726, -85.6056, 47.6602
7.03234, 25, -28.6705, -14.1686, 33.5031, -153.684, -85.5557, 47.6101
7.03927, 25, -28.6608, -14.2429, 33.5623, -153.642, -85.5054, 47.5609
7.04918, 25, -28.6511, -14.3171, 33.6218, -153.598, -85.4558, 47.5116
7.0563, 25, -28.6414, -14.3915, 33.6813, -153.556, -85.4054, 47.4617
7.06328, 25, -28.6319, -14.466, 33.7408, -153.513, -85.3547, 47.4115
7.07152, 25, -28.6224, -14.5407, 33.8004, -153.47, -85.3051, 47.3621
7.07928, 26, -28.613, -14.6155, 33.86, -153.427, -85.2545, 47.3125
7.08728, 26, -28.6035, -14.6903, 33.9199, -153.384, -85.2038, 47.2623
7.09635, 26, -28.5942, -14.7655, 33.9798, -153.34, -85.1537, 47.2123
7.10333, 26, -28.5849, -14.8407, 34.0399, -153.297, -85.1024, 47.1628
7.11143, 26, -28.5755, -14.9159, 34.1001, -153.254, -85.0514, 47.1131
7.11985, 26, -28.566, -14.9915, 34.1603, -153.211, -85.0011, 47.0628
7.12743, 26, -28.5566, -15.067, 34.2207, -153.166, -84.9495, 47.0132
7.13538, 26, -28.5473, -15.1426, 34.2811, -153.123, -84.8985, 46.964
7.14356, 26, -28.538, -15.2184, 34.3416, -153.079, -84.8477, 46.9143
7.15229, 26, -28.5286, -15.2943, 34.4022, -153.035, -84.7958, 46.8645
7.1593, 26, -28.5194, -15.3704, 34.4629, -152.991, -84.7448, 46.8155
7.16751, 26, -28.5102, -15.4465, 34.5236, -152.947, -84.6936, 46.7667
7.17638, 26, -28.501, -15.5229, 34.5845, -152.902, -84.6417, 46.7171
7.18341, 27, -28.4918, -15.5994, 34.6454, -152.857, -84.5906, 46.6675
7.19152, 27, -28.4826, -15.676, 34.7064, -152.813, -84.5389, 46.6185
7.20045, 27, -28.4736, -15.7528, 34.7677, -152.768, -84.4867, 46.5694
7.20762, 27, -28.4647, -15.8295, 34.8289, -152.722, -84.4355, 46.5198
7.21583, 27, -28.4557, -15.9065, 34.8902, -152.678, -84.3835, 46.4705
7.22447, 27, -28.4467, -15.9835, 34.9516, -152.632, -84.3314, 46.4217
7.23183, 27, -28.4379, -16.0606, 35.0131, -152.587, -84.28, 46.3725
7.24071, 27, -28.429, -16.1379, 35.0746, -152.542, -84.2275, 46.3229
7.24928, 27, -28.42, -16.2152, 35.1362, -152.496, -84.1754, 46.2738
7.25589, 27, -28.411, -16.2927, 35.1978, -152.45, -84.1237, 46.2251
7.26446, 27, -28.402, -16.3702, 35.2595, -152.405, -84.0709, 46.1759
7.27182, 27, -28.3975, -16.409, 35.2904, -152.382, -84.0188, 46.1265
7.28025, 28, -28.3841, -16.5256, 35.3832, -152.313, -83.9667, 46.0781
7.28729, 28, -28.3796, -16.5645, 35.4143, -152.29, -83.9402, 46.054
7.29531, 28, -28.3706, -16.6424, 35.4764, -152.245, -83.8875, 46.0055
7.30459, 28, -28.3574, -16.7594, 35.5696, -152.175, -83.8095, 45.9323
7.31128, 28, -28.353, -16.7985, 35.6008, -152.152, -83.783, 45.9082
7.31933, 28, -28.3442, -16.8766, 35.663, -152.106, -83.7307, 45.8605
7.32868, 28, -28.3309, -16.9939, 35.7564, -152.036, -83.6517, 45.7883
7.33541, 28, -28.3265, -17.0331, 35.7875, -152.013, -83.6251, 45.7641
7.34473, 28, -28.3179, -17.1506, 35.8811, -151.943, -83.5467, 45.6929
7.35127, 28, -28.3092, -17.1899, 35.9123, -151.92, -83.5202, 45.6693
7.36118, 28, -28.2962, -17.3076, 36.006, -151.848, -83.4408, 45.598
7.36734, 28, -28.2918, -17.3469, 36.0373, -151.825, -83.4147, 45.5741
7.37685, 28, -28.279, -17.4649, 36.1313, -151.755, -83.3347, 45.5038
7.38496, 29, -28.2704, -17.5438, 36.1941, -151.707, -83.2822, 45.4569
7.39126, 29, -28.266, -17.5833, 36.2255, -151.684, -83.2559, 45.4334
7.40077, 29, -28.2573, -17.6622, 36.2884, -151.637, -83.2023, 45.3862
7.40912, 29, -28.2485, -17.7413, 36.3512, -151.588, -83.1493, 45.3399
7.41526, 29, -28.2398, -17.8204, 36.414, -151.541, -83.0964, 45.2939
7.42427, 29, -28.2311, -17.8994, 36.4769, -151.494, -83.0426, 45.2476
7.43243, 29, -28.2224, -17.9786, 36.5397, -151.446, -82.9898, 45.2011
7.44229, 29, -28.2094, -18.0974, 36.6343, -151.375, -82.9096, 45.1327
7.44728, 29, -28.2051, -18.1371, 36.6659, -151.351, -82.883, 45.1101
7.45533, 29, -28.1965, -18.2164, 36.7291, -151.302, -82.8302, 45.0647
7.46327, 29, -28.1879, -18.2958, 36.7924, -151.255, -82.7765, 45.0191
7.47126, 29, -28.1793, -18.3753, 36.8558, -151.207, -82.7233, 44.9742
7.48002, 29, -28.1707, -18.4548, 36.9191, -151.158, -82.6705, 44.9299
7.48728, 30, -28.1622, -18.5343, 36.9824, -151.11, -82.6166, 44.8853
7.49526, 30, -28.1537, -18.6139, 37.0457, -151.061, -82.5636, 44.8403
7.50693, 30, -28.1452, -18.6936, 37.1091, -150.987, -82.4833, 44.7742
7.51127, 30, -28.1365, -18.7733, 37.1724, -150.963, -82.4564, 44.7523
7.51933, 30, -28.128, -18.853, 37.2358, -150.915, -82.4035, 44.7088
7.52726, 30, -28.1194, -18.9329, 37.2992, -150.865, -82.3499, 44.6649
7.53631, 30, -28.1108, -19.0127, 37.3627, -150.817, -82.2961, 44.6215
7.54425, 30, -28.102, -19.0926, 37.4264, -150.768, -82.2431, 44.579
7.55126, 30, -28.0933, -19.1726, 37.49, -150.718, -82.189, 44.5367
7.55941, 30, -28.0847, -19.2526, 37.5536, -150.67, -82.1355, 44.4939
7.56925, 30, -28.076, -19.3325, 37.6173, -150.621, -82.0824, 44.4515
7.57529, 30, -28.0672, -19.4125, 37.6808, -150.571, -82.0283, 44.4098
7.58327, 30, -28.0584, -19.4924, 37.7444, -150.522, -81.9751, 44.3685
7.59228, 31, -28.0496, -19.5722, 37.808, -150.473, -81.9217, 44.3273
7.59934, 31, -28.0408, -19.6522, 37.8715, -150.423, -81.8678, 44.2859
7.60743, 31, -28.032, -19.7321, 37.9352, -150.374, -81.8148, 44.2451
7.61535, 31, -28.0231, -19.8121, 37.9989, -150.324, -81.7611, 44.2051
7.62343, 31, -28.0142, -19.8922, 38.0626, -150.274, -81.7075, 44.1652
7.63136, 31, -28.0055, -19.9722, 38.1265, -150.225, -81.6546, 44.1251
7.63936, 31, -27.9967, -20.0523, 38.1902, -150.174, -81.6005, 44.0851
7.64743, 31, -27.9878, -20.1324, 38.2539, -150.124, -81.5471, 44.0458
7.65554, 31, -27.9789, -20.2125, 38.3176, -150.074, -81.4939, 44.007
7.66631, 31, -27.97, -20.2925, 38.3812, -150.024, -81.4399, 43.9684
7.67225, 31, -27.9611, -20.3727, 38.4449, -149.973, -81.3868, 43.9296
7.68035, 31, -27.9521, -20.4528, 38.5085, -149.924, -81.3332, 43.891
7.68823, 31, -27.9429, -20.533, 38.5721, -149.873, -81.2794, 43.8535
7.69551, 32, -27.9338, -20.6131, 38.6358, -149.823, -81.2265, 43.8164
7.70352, 32, -27.9248, -20.6933, 38.6994, -149.773, -81.1729, 43.7795
7.71259, 32, -27.9156, -20.7735, 38.7631, -149.722, -81.1195, 43.7424
7.71963, 32, -27.9064, -20.8536, 38.8267, -149.672, -81.0666, 43.7057
7.7278, 32, -27.8971, -20.9338, 38.8904, -149.622, -81.0127, 43.6701
7.73658, 32, -27.8879, -21.014, 38.954, -149.57, -80.9597, 43.6349
7.74381, 32, -27.8786, -21.0941, 39.0175, -149.52, -80.9066, 43.5999
7.75252, 32, -27.8692, -21.1742, 39.081, -149.47, -80.8529, 43.565
7.76048, 32, -27.8598, -21.2543, 39.1445, -149.418, -80.8001, 43.5304
7.76876, 32, -27.8505, -21.3345, 39.2079, -149.368, -80.7467, 43.4967
7.77589, 32, -27.8459, -21.3745, 39.2396, -149.317, -80.6933, 43.4637
7.78432, 32, -27.8319, -21.4946, 39.3348, -149.265, -80.6408, 43.4311
7.79125, 32, -27.8271, -21.5346, 39.3666, -149.24, -80.6142, 43.4149
7.80029, 33, -27.8129, -21.6547, 39.4618, -149.163, -80.5342, 43.366
7.8073, 33, -27.8082, -21.6947, 39.4934, -149.138, -80.508, 43.3499
7.81525, 33, -27.7985, -21.7745, 39.5568, -149.087, -80.4548, 43.3184
7.82336, 33, -27.7888, -21.8544, 39.6202, -149.036, -80.4014, 43.2876
7.83258, 33, -27.774, -21.9742, 39.715, -148.959, -80.3226, 43.2424
7.83925, 33, -27.7692, -22.0141, 39.7467, -148.934, -80.2959, 43.2274
7.84744, 33, -27.7594, -22.0939, 39.8098, -148.882, -80.2431, 43.1975
7.85664, 33, -27.7494, -22.1737, 39.9044, -148.806, -80.1639, 43.1532
7.86326, 33, -27.7395, -22.2535, 39.936, -148.78, -80.1372, 43.1388
7.87291, 33, -27.7246, -22.373, 40.0305, -148.702, -80.0588, 43.097
7.88081, 33, -27.7146, -22.4527, 40.0936, -148.652, -80.0057, 43.0699
7.88886, 33, -27.7045, -22.5323, 40.1566, -148.6, -79.9531, 43.0431
7.89696, 33, -27.6995, -22.5721, 40.2195, -148.548, -79.9009, 43.0165
7.90324, 34, -27.6895, -22.6515, 40.251, -148.522, -79.8742, 43.0031
7.91134, 34, -27.6795, -22.731, 40.3139, -148.471, -79.8212, 42.9767
7.92028, 34, -27.6692, -22.8103, 40.3767, -148.418, -79.7693, 42.9513
7.92826, 34, -27.659, -22.8896, 40.4394, -148.367, -79.7162, 42.9267
7.93531, 34, -27.6487, -22.9688, 40.5019, -148.316, -79.6635, 42.9029
7.94421, 34, -27.6383, -23.0479, 40.5644, -148.263, -79.6113, 42.8796
7.95502, 34, -27.6223, -23.1667, 40.6582, -148.186, -79.5316, 42.8455
7.96029, 34, -27.617, -23.2062, 40.6894, -148.16, -79.5058, 42.8342
7.96824, 34, -27.6063, -23.2852, 40.7519, -148.108, -79.4536, 42.8119
7.97531, 34, -27.5956, -23.3642, 40.8143, -148.057, -79.4005, 42.79
7.98324, 34, -27.5847, -23.4431, 40.8766, -148.005, -79.3485, 42.769
7.99195, 34, -27.5739, -23.5221, 40.9389, -147.953, -79.2959, 42.7489
8.00021, 35, -27.563, -23.6008, 41.001, -147.902, -79.2431, 42.7297
8.00724, 35, -27.552, -23.6795, 41.063, -147.849, -79.1915, 42.711
8.01772, 35, -27.541, -23.758, 41.125, -147.798, -79.139, 42.6844
8.02425, 35, -27.53, -23.8365, 41.1868, -147.746, -79.0866, 42.6758
8.03124, 35, -27.5189, -23.9147, 41.2486, -147.693, -79.0351, 42.6589
8.03926, 35, -27.5077, -23.9929, 41.3103, -147.642, -78.9824, 42.6422
8.04732, 35, -27.4965, -24.071, 41.3719, -147.589, -78.9304, 42.626
8.05524, 35, -27.4851, -24.149, 41.4336, -147.537, -78.8788, 42.6104
8.06324, 35, -27.4735, -24.227, 41.4952, -147.486, -78.8263, 42.5954
8.07211, 35, -27.4619, -24.3049, 41.5567, -147.433, -78.7747, 42.5814
8.08025, 35, -27.4502, -24.3826, 41.618, -147.381, -78.7228, 42.5681
8.08731, 35, -27.4384, -24.4604, 41.6792, -147.329, -78.6705, 42.5555
8.09525, 35, -27.4264, -24.5379, 41.7403, -147.277, -78.6192, 42.5438
8.10332, 36, -27.4144, -24.6155, 41.8012, -147.225, -78.5674, 42.5328
8.11139, 36, -27.4022, -24.6929, 41.8619, -147.173, -78.5156, 42.5225
8.12031, 36, -27.39, -24.7701, 41.9227, -147.121, -78.4646, 42.513
8.12734, 36, -27.3778, -24.8473, 41.9834, -147.069, -78.4129, 42.504
8.13542, 36, -27.3656, -24.9244, 42.044, -147.017, -78.3614, 42.4958
8.14335, 36, -27.3532, -25.0014, 42.1046, -146.965, -78.3108, 42.4881
8.15125, 36, -27.3408, -25.0782, 42.165, -146.914, -78.2592, 42.4811
8.15944, 36, -27.3282, -25.155, 42.2253, -146.861, -78.2081, 42.4748
8.16751, 36, -27.3153, -25.2316, 42.2854, -146.809, -78.1574, 42.469
8.17528, 36, -27.3024, -25.3081, 42.3454, -146.757, -78.1059, 42.4641
8.18368, 36, -27.2895, -25.3845, 42.4053, -146.704, -78.055, 42.4598
8.19138, 36, -27.2764, -25.4608, 42.465, -146.653, -78.0046, 42.4561
8.19952, 36, -27.2633, -25.5369, 42.5246, -146.601, -77.9533, 42.4533
8.20829, 37, -27.25, -25.6129, 42.5841, -146.548, -77.9027, 42.4513
8.21624, 37, -27.2366, -25.6888, 42.6436, -146.497, -77.8522, 42.4499
8.22366, 37, -27.2232, -25.7645, 42.7028, -146.445, -77.8011, 42.4492
8.23211, 37, -27.2098, -25.8401, 42.762, -146.393, -77.7509, 42.4489
8.24034, 37, -27.1962, -25.9156, 42.8211, -146.342, -77.7006, 42.4488
8.24779, 37, -27.1826, -25.9909, 42.8801, -146.29, -77.6497, 42.4489
8.25634, 37, -27.1687, -26.0661, 42.9389, -146.238, -77.5999, 42.4491
8.26411, 37, -27.1546, -26.1411, 42.9976, -146.187, -77.5495, 42.4498
8.27285, 37, -27.1404, -26.2159, 43.0561, -146.135, -77.4988, 42.4514
8.28109, 37, -27.1262, -26.2906, 43.1144, -146.083, -77.4492, 42.4549
8.28824, 37, -27.1118, -26.3652, 43.1726, -146.032, -77.3989, 42.4596
8.29523, 37, -27.1046, -26.4024, 43.2017, -146.006, -77.3736, 42.4624
8.30515, 37, -27.0827, -26.514, 43.2888, -145.929, -77.2992, 42.4724
8.31124, 38, -27.0754, -26.5511, 43.3177, -145.903, -77.2742, 42.4764
8.3204, 38, -27.0533, -26.6622, 43.4044, -145.825, -77.1988, 42.4895
8.32736, 38, -27.0458, -26.6991, 43.4333, -145.8, -77.1742, 42.4944
8.33531, 38, -27.0309, -26.7729, 43.4908, -145.749, -77.1248, 42.5047
8.34463, 38, -27.0081, -26.8832, 43.5769, -145.671, -77.0496, 42.522
8.35123, 38, -27.0003, -26.9199, 43.6055, -145.646, -77.025, 42.5282
8.35943, 38, -26.9848, -26.993, 43.6626, -145.595, -76.9756, 42.5415
8.36734, 38, -26.9693, -27.066, 43.7195, -145.543, -76.9254, 42.5555
8.37524, 38, -26.9536, -27.1388, 43.7763, -145.493, -76.8765, 42.5707
8.38329, 38, -26.9377, -27.2115, 43.8328, -145.442, -76.8273, 42.587
8.39123, 38, -26.9216, -27.284, 43.8892, -145.391, -76.7776, 42.6044
8.40086, 38, -26.9056, -27.3564, 43.9454, -145.341, -76.7044, 42.6328
8.40823, 38, -26.8894, -27.4287, 44.0014, -145.29, -76.6796, 42.6427
8.41628, 39, -26.8731, -27.5007, 44.0572, -145.239, -76.6299, 42.6633
8.42422, 39, -26.8565, -27.5726, 44.113, -145.189, -76.5814, 42.6845
8.43217, 39, -26.8397, -27.6443, 44.1685, -145.138, -76.5325, 42.7065
8.43929, 39, -26.8227, -27.7157, 44.2239, -145.088, -76.4831, 42.7293
8.44722, 39, -26.8057, -27.7869, 44.2791, -145.038, -76.4346, 42.7531
8.45604, 39, -26.7886, -27.8578, 44.334, -144.987, -76.3857, 42.7782
8.46322, 39, -26.7714, -27.9287, 44.3888, -144.937, -76.3363, 42.8045
8.47123, 39, -26.7539, -27.9993, 44.4434, -144.887, -76.288, 42.8319
8.48029, 39, -26.7364, -28.0698, 44.4976, -144.837, -76.2392, 42.8599
8.48738, 39, -26.7188, -28.1402, 44.5517, -144.787, -76.19, 42.8886
8.49623, 39, -26.701, -28.2103, 44.6057, -144.738, -76.1418, 42.9181
8.5043, 39, -26.6828, -28.2801, 44.6594, -144.687, -76.0929, 42.949
8.51244, 40, -26.6644, -28.3498, 44.713, -144.638, -76.0439, 42.9813
8.51929, 40, -26.646, -28.4192, 44.7665, -144.589, -75.9961, 43.0148
8.52916, 40, -26.6274, -28.4883, 44.8196, -144.54, -75.9477, 43.0488
8.53622, 40, -26.6085, -28.5571, 44.8726, -144.491, -75.8989, 43.0836
8.54426, 40, -26.5895, -28.6256, 44.9254, -144.442, -75.8511, 43.1192
8.55124, 40, -26.5704, -28.6941, 44.9779, -144.393, -75.8028, 43.1562
8.56022, 40, -26.5512, -28.7622, 45.0301, -144.345, -75.7541, 43.1947
8.56729, 40, -26.5316, -28.8301, 45.0823, -144.296, -75.7067, 43.2335
8.57522, 40, -26.5118, -28.8979, 45.134, -144.247, -75.6587, 43.2732
8.58691, 40, -26.4918, -28.9992, 45.2112, -144.175, -75.5866, 43.3352
8.59222, 40, -26.4718, -29.0329, 45.2368, -144.151, -75.563, 43.3567
8.59924, 40, -26.4514, -29.0999, 45.2879, -144.102, -75.5152, 43.4001
8.60732, 40, -26.4308, -29.1667, 45.3388, -144.054, -75.4669, 43.444
8.61644, 41, -26.4101, -29.2332, 45.3894, -144.007, -75.4196, 43.4889
8.62332, 41, -26.3893, -29.2995, 45.4399, -143.958, -75.3722, 43.5355
8.63222, 41, -26.3681, -29.3654, 45.49, -143.912, -75.3241, 43.5831
8.6398, 41, -26.3467, -29.4311, 45.54, -143.865, -75.2771, 43.6312
8.64822, 41, -26.3252, -29.4966, 45.5897, -143.817, -75.2299, 43.6804
8.65542, 41, -26.3036, -29.562, 45.6391, -143.771, -75.182, 43.7314
8.664, 41, -26.2818, -29.627, 45.6882, -143.724, -75.1352, 43.7831
8.67222, 41, -26.2597, -29.6919, 45.737, -143.677, -75.0886, 43.8356
8.68097, 41, -26.2375, -29.7564, 45.7856, -143.631, -75.0411, 43.8897
8.68828, 41, -26.2149, -29.8207, 45.8339, -143.586, -74.9944, 43.9452
8.69545, 41, -26.1921, -29.8846, 45.8819, -143.539, -74.9478, 44.0014
8.70341, 41, -26.1692, -29.9483, 45.9297, -143.494, -74.9003, 44.0589
8.71149, 41, -26.1461, -30.0116, 45.9773, -143.449, -74.8536, 44.1184
8.7197, 42, -26.1228, -30.0745, 46.0246, -143.403, -74.8075, 44.1781
8.72765, 42, -26.0992, -30.1372, 46.0717, -143.358, -74.7604, 44.239
8.73574, 42, -26.0753, -30.1997, 46.1184, -143.313, -74.7139, 44.3019
8.74435, 42, -26.0511, -30.2618, 46.1648, -143.268, -74.6678, 44.3652
8.75174, 42, -26.0267, -30.3237, 46.2109, -143.223, -74.6208, 44.4299
8.76032, 42, -26.0022, -30.3854, 46.2567, -143.18, -74.5741, 44.4963
8.76783, 42, -25.9775, -30.4467, 46.3023, -143.136, -74.5283, 44.563
8.77654, 42, -25.9525, -30.5078, 46.3474, -143.092, -74.4817, 44.6312
8.7863, 42, -25.9273, -30.5684, 46.3923, -143.049, -74.4352, 44.701
8.79228, 42, -25.9016, -30.6286, 46.437, -143.006, -74.3894, 44.7709
8.79922, 42, -25.8886, -30.6586, 46.4591, -142.984, -74.3664, 44.8069
8.80825, 42, -25.8495, -30.748, 46.5251, -142.92, -74.2965, 44.9163
8.81526, 42, -25.8364, -30.7777, 46.547, -142.899, -74.2737, 44.9531
8.82317, 43, -25.8099, -30.8367, 46.5904, -142.858, -74.2282, 45.0287
8.83245, 43, -25.7699, -30.9248, 46.6551, -142.795, -74.159, 45.1434
8.83923, 43, -25.7564, -30.954, 46.6764, -142.774, -74.1362, 45.1825
8.84868, 43, -25.7155, -31.0411, 46.7399, -142.713, -74.0682, 45.3016
8.85666, 43, -25.6879, -31.0988, 46.782, -142.672, -74.0219, 45.3821
8.8647, 43, -25.6601, -31.1561, 46.8235, -142.632, -73.9765, 45.4641
8.87123, 43, -25.646, -31.1846, 46.8442, -142.612, -73.9541, 45.5051
8.88077, 43, -25.6033, -31.2695, 46.9059, -142.552, -73.8857, 45.6316
8.88878, 43, -25.5746, -31.3255, 46.9465, -142.512, -73.8403, 45.7165
8.89781, 43, -25.5456, -31.3811, 46.9868, -142.474, -73.7956, 45.8036
8.90319, 43, -25.5311, -31.4087, 47.0068, -142.455, -73.7729, 45.8472
8.91129, 43, -25.5018, -31.4636, 47.0464, -142.416, -73.727, 45.9356
8.92029, 43, -25.472, -31.5182, 47.0858, -142.377, -73.6823, 46.0254
8.92721, 44, -25.4419, -31.5724, 47.1248, -142.34, -73.6378, 46.1162
8.93528, 44, -25.4114, -31.6263, 47.1633, -142.303, -73.5924, 46.2089
8.94326, 44, -25.3806, -31.68, 47.2014, -142.265, -73.5475, 46.3025
8.95122, 44, -25.3497, -31.7332, 47.2392, -142.228, -73.5033, 46.3979
8.95928, 44, -25.3185, -31.7861, 47.2765, -142.192, -73.4582, 46.4941
8.96721, 44, -25.287, -31.8385, 47.3135, -142.157, -73.4133, 46.592
8.97521, 44, -25.2551, -31.8906, 47.35, -142.121, -73.3693, 46.6911
8.98324, 44, -25.2229, -31.942, 47.3862, -142.086, -73.325, 46.7912
8.99145, 44, -25.1905, -31.9929, 47.4221, -142.052, -73.2803, 46.8929
9.00025, 44, -25.1577, -32.0434, 47.4574, -142.018, -73.2365, 46.9958
9.00721, 44, -25.1245, -32.0933, 47.4924, -141.984, -73.1926, 47.1002
9.01529, 44, -25.0909, -32.1428, 47.527, -141.951, -73.148, 47.2057
9.02321, 44, -25.0571, -32.1917, 47.5611, -141.918, -73.1042, 47.3132
9.03122, 45, -25.023, -32.2403, 47.5947, -141.887, -73.0609, 47.4218
9.04024, 45, -24.9886, -32.2887, 47.628, -141.855, -73.0169, 47.5318
9.04826, 45, -24.9536, -32.3364, 47.6607, -141.823, -72.9733, 47.6432
9.05722, 45, -24.9184, -32.3839, 47.6928, -141.792, -72.9304, 47.7557
9.06426, 45, -24.883, -32.4309, 47.7246, -141.762, -72.887, 47.8697
9.07121, 45, -24.8472, -32.4774, 47.756, -141.733, -72.8432, 47.9846
9.07926, 45, -24.811, -32.5234, 47.7868, -141.704, -72.8006, 48.101
9.08828, 45, -24.7743, -32.5688, 47.8171, -141.674, -72.7579, 48.2188
9.09709, 45, -24.7375, -32.6137, 47.8471, -141.646, -72.7146, 48.3379
9.10423, 45, -24.7003, -32.6579, 47.8766, -141.618, -72.672, 48.4585
9.11208, 45, -24.6627, -32.7014, 47.9056, -141.591, -72.6298, 48.5807
9.1202, 45, -24.6245, -32.7445, 47.934, -141.564, -72.5869, 48.7039
9.12765, 45, -24.5861, -32.787, 47.9621, -141.538, -72.5441, 48.8286
9.13721, 46, -24.5473, -32.829, 47.9896, -141.512, -72.5024, 48.9547
9.14333, 46, -24.5081, -32.8704, 48.0164, -141.487, -72.4604, 49.0819
9.1522, 46, -24.4685, -32.9112, 48.0428, -141.463, -72.4179, 49.2104
9.15921, 46, -24.4286, -32.9517, 48.0687, -141.439, -72.3763, 49.3406
9.16725, 46, -24.3884, -32.9916, 48.0941, -141.416, -72.3348, 49.4724
9.17607, 46, -24.3478, -33.0309, 48.1188, -141.393, -72.2928, 49.6054
9.18523, 46, -24.3067, -33.0695, 48.1431, -141.371, -72.251, 49.7399
9.19163, 46, -24.2653, -33.1077, 48.1668, -141.35, -72.2103, 49.8755
9.19974, 46, -24.2236, -33.1452, 48.1901, -141.329, -72.1693, 50.0124
9.20893, 46, -24.1814, -33.182, 48.2127, -141.31, -72.1278, 50.1504
9.21626, 46, -24.1387, -33.2182, 48.2347, -141.291, -72.0872, 50.2897
9.22363, 46, -24.0958, -33.2538, 48.2563, -141.272, -72.0471, 50.4302
9.23452, 47, -24.0524, -33.2886, 48.2772, -141.254, -72.0062, 50.5723
9.23983, 47, -24.0085, -33.3229, 48.2976, -141.236, -71.9656, 50.7158
9.24829, 47, -23.9641, -33.3565, 48.3174, -141.219, -71.926, 50.8605
9.25672, 47, -23.9194, -33.3895, 48.3363, -141.203, -71.8865, 51.0066
9.26379, 47, -23.8743, -33.4218, 48.3549, -141.188, -71.8464, 51.1542
9.27234, 47, -23.8287, -33.4533, 48.3728, -141.174, -71.8068, 51.3026
9.28062, 47, -23.7828, -33.4844, 48.39, -141.161, -71.768, 51.4527
9.28808, 47, -23.7597, -33.4996, 48.4068, -141.148, -71.7289, 51.6041
9.29515, 47, -23.7132, -33.5295, 48.415, -141.142, -71.7091, 51.6804
9.30324, 47, -23.6662, -33.5587, 48.4308, -141.13, -71.6701, 51.8342
9.31235, 47, -23.595, -33.6011, 48.4531, -141.114, -71.6132, 52.0672
9.31922, 47, -23.5711, -33.6149, 48.4603, -141.109, -71.5941, 52.1455
9.32725, 47, -23.5227, -33.642, 48.4742, -141.099, -71.5558, 52.3033
9.33655, 48, -23.4495, -33.681, 48.4934, -141.085, -71.4995, 52.5418
9.3432, 48, -23.4248, -33.6937, 48.4995, -141.081, -71.481, 52.6221
9.35124, 48, -23.3752, -33.7184, 48.5112, -141.074, -71.444, 52.7835
9.36069, 48, -23.3, -33.7543, 48.5277, -141.064, -71.3879, 53.0286
9.36874, 48, -23.2494, -33.777, 48.5378, -141.059, -71.3517, 53.1934
9.37682, 48, -23.1982, -33.7991, 48.5472, -141.055, -71.3159, 53.3596
9.38496, 48, -23.1467, -33.8203, 48.5558, -141.051, -71.2799, 53.527
9.39297, 48, -23.0947, -33.8406, 48.5639, -141.049, -71.2438, 53.6957
9.39919, 48, -23.0685, -33.8506, 48.5676, -141.048, -71.2262, 53.7807
9.40904, 48, -23.0158, -33.8792, 48.5778, -141.046, -71.1741, 54.0378
9.41525, 48, -22.9627, -33.8882, 48.5809, -141.045, -71.1567, 54.1241
9.42427, 48, -22.9091, -33.9057, 48.5864, -141.045, -71.1216, 54.2976
9.43219, 48, -22.855, -33.9225, 48.5913, -141.045, -71.0871, 54.4723
9.43923, 49, -22.8007, -33.9383, 48.5954, -141.046, -71.0535, 54.6481
9.44723, 49, -22.7457, -33.953, 48.5986, -141.047, -71.0203, 54.8249
9.4552, 49, -22.6903, -33.9669, 48.601, -141.05, -70.9869, 55.0032
9.4632, 49, -22.6344, -33.9801, 48.6026, -141.054, -70.9537, 55.1828
9.47126, 49, -22.5781, -33.9926, 48.6035, -141.059, -70.9213, 55.3634
9.47919, 49, -22.5214, -34.0037, 48.6039, -141.065, -70.8896, 55.5455
9.4873, 49, -22.4641, -34.0138, 48.6039, -141.072, -70.8579, 55.7283
9.49519, 49, -22.4064, -34.0231, 48.6034, -141.08, -70.826, 55.9127
9.50337, 49, -22.3484, -34.0316, 48.602, -141.089, -70.7949, 56.0984
9.51201, 49, -22.2898, -34.0391, 48.6, -141.1, -70.7647, 56.2857
9.52178, 49, -22.2309, -34.0488, 48.5954, -141.118, -70.7203, 56.5686
9.5282, 49, -22.1715, -34.0516, 48.5935, -141.124, -70.7055, 56.6635
9.53619, 49, -22.1115, -34.0563, 48.5888, -141.138, -70.6759, 56.854
9.54425, 50, -22.0512, -34.0599, 48.5833, -141.152, -70.6473, 57.0455
9.55233, 50, -21.9905, -34.0624, 48.5769, -141.167, -70.6193, 57.2385
9.56019, 50, -21.9292, -34.064, 48.5696, -141.183, -70.5919, 57.4328
9.56728, 50, -21.8676, -34.0647, 48.5614, -141.2, -70.5648, 57.6281
9.57601, 50, -21.8053, -34.0648, 48.5523, -141.218, -70.5375, 57.8247
9.58418, 50, -21.7425, -34.0641, 48.5425, -141.237, -70.511, 58.0223
9.59126, 50, -21.6793, -34.0625, 48.5318, -141.258, -70.4854, 58.2212
9.60023, 50, -21.6156, -34.0598, 48.5201, -141.279, -70.4606, 58.4215
9.608, 50, -21.5516, -34.0561, 48.5075, -141.301, -70.4363, 58.6228
9.61619, 50, -21.4871, -34.0513, 48.4939, -141.324, -70.4122, 58.825
9.62409, 50, -21.4223, -34.0452, 48.4795, -141.348, -70.3883, 59.0283
9.63218, 50, -21.3571, -34.0379, 48.4641, -141.373, -70.3651, 59.2325
9.63968, 50, -21.2913, -34.0294, 48.4477, -141.4, -70.3429, 59.4377
9.6492, 51, -21.2252, -34.0198, 48.4306, -141.427, -70.3213, 59.6443
9.65618, 51, -21.1584, -34.009, 48.4125, -141.455, -70.3006, 59.8518
9.66409, 51, -21.0913, -33.9972, 48.3934, -141.484, -70.2802, 60.0603
9.67303, 51, -21.0236, -33.9839, 48.3734, -141.514, -70.2601, 60.2696
9.68018, 51, -20.9555, -33.9692, 48.3524, -141.546, -70.2403, 60.4803
9.68824, 51, -20.8869, -33.9531, 48.3304, -141.578, -70.2213, 60.6925
9.69527, 51, -20.8181, -33.9362, 48.3077, -141.611, -70.2032, 60.9055
9.70429, 51, -20.7488, -33.9181, 48.2839, -141.645, -70.1861, 61.1194
9.71144, 51, -20.679, -33.8985, 48.2593, -141.681, -70.1699, 61.3341
9.72104, 51, -20.6089, -33.8779, 48.2337, -141.718, -70.1545, 61.5499
9.72828, 51, -20.5384, -33.856, 48.2072, -141.755, -70.1396, 61.7667
9.73624, 51, -20.4674, -33.8327, 48.1796, -141.793, -70.1254, 61.9846
9.74638, 51, -20.396, -33.8082, 48.1511, -141.832, -70.1116, 62.2032
9.75173, 52, -20.3243, -33.7823, 48.1216, -141.872, -70.0984, 62.4229
9.76031, 52, -20.252, -33.7553, 48.0913, -141.914, -70.0859, 62.6435
9.76873, 52, -20.1794, -33.7268, 48.0599, -141.956, -70.0744, 62.8655
9.77576, 52, -20.143, -33.712, 48.0275, -142, -70.0638, 63.0882
9.78425, 52, -20.033, -33.6657, 47.9942, -142.043, -70.0542, 63.3116
9.79257, 52, -19.9961, -33.6496, 47.9772, -142.066, -70.0497, 63.5357
9.80003, 52, -19.9221, -33.6165, 47.9424, -142.111, -70.0376, 63.7606
9.80715, 52, -19.8477, -33.582, 47.9066, -142.158, -70.034, 63.8734
9.81636, 52, -19.7353, -33.5279, 47.8512, -142.23, -70.0246, 64.2131
9.82322, 52, -19.6977, -33.5093, 47.8321, -142.254, -70.0219, 64.3267
9.83117, 52, -19.6223, -33.4709, 47.7934, -142.304, -70.0171, 64.5544
9.84046, 52, -19.5085, -33.4108, 47.7335, -142.38, -70.0116, 64.8974
9.84719, 52, -19.4704, -33.3902, 47.7129, -142.406, -70.0103, 65.0123
9.85519, 53, -19.394, -33.3477, 47.6712, -142.458, -70.0082, 65.2428
9.86462, 53, -19.2784, -33.2814, 47.6067, -142.539, -70.0066, 65.5897
9.87118, 53, -19.2397, -33.2586, 47.5847, -142.567, -70.0064, 65.7056
9.88072, 53, -19.1231, -33.1881, 47.5173, -142.65, -70.0066, 66.0545
9.88879, 53, -19.0449, -33.1394, 47.471, -142.707, -70.0076, 66.2883
9.89678, 53, -18.9665, -33.0892, 47.4238, -142.765, -70.0095, 66.5225
9.90477, 53, -18.9272, -33.0636, 47.3998, -142.824, -70.0126, 66.7575
9.9128, 53, -18.8482, -33.0114, 47.3509, -142.853, -70.0168, 66.9932
9.92102, 53, -18.7691, -32.9578, 47.301, -142.913, -70.022, 67.2301
9.92723, 53, -18.6896, -32.9026, 47.2502, -142.974, -70.0251, 67.3487
9.93622, 53, -18.6097, -32.846, 47.1983, -143.035, -70.0322, 67.5862
9.94417, 53, -18.5295, -32.788, 47.1453, -143.098, -70.0405, 67.8242
9.95214, 54, -18.4489, -32.7285, 47.0914, -143.161, -70.05, 68.0625
9.96023, 54, -18.3681, -32.6675, 47.0364, -143.225, -70.0608, 68.3014
9.96822, 54, -18.287, -32.605, 46.9804, -143.291, -70.0729, 68.5411
9.97617, 54, -18.2057, -32.5411, 46.9235, -143.357, -70.0864, 68.7811
9.98417, 54, -18.1242, -32.4758, 46.8655, -143.424, -70.1013, 69.0216
9.99217, 54, -18.0423, -32.409, 46.8065, -143.492, -70.1176, 69.2627
10.0002, 54, -17.9602, -32.3407, 46.7465, -143.56, -70.1349, 69.5046
10.0082, 54, -17.8777, -32.271, 46.6854, -143.63, -70.153, 69.747
10.0163, 54, -17.795, -32.1997, 46.6232, -143.7, -70.1721, 69.9898
10.024, 54, -17.7121, -32.1268, 46.56, -143.77, -70.1923, 70.2327
10.0338, 54, -17.629, -32.0525, 46.4632, -143.878, -70.2252, 70.5982
10.0402, 54, -17.5458, -31.9765, 46.4306, -143.914, -70.237, 70.7204
10.0482, 54, -17.4624, -31.899, 46.3644, -143.987, -70.2617, 70.9647
10.0551, 55, -17.3788, -31.82, 46.2972, -144.061, -70.2874, 71.2094
10.0643, 55, -17.2949, -31.7396, 46.2291, -144.136, -70.314, 71.4546
10.0722, 55, -17.2109, -31.6577, 46.16, -144.211, -70.3418, 71.7006
10.0792, 55, -17.1265, -31.5742, 46.09, -144.287, -70.3711, 71.9469
10.0872, 55, -17.0419, -31.4893, 46.0187, -144.363, -70.4023, 72.1932
10.0962, 55, -16.9572, -31.4029, 45.9463, -144.441, -70.4342, 72.4395
10.1032, 55, -16.8723, -31.3149, 45.8729, -144.519, -70.467, 72.6862
10.1112, 55, -16.7873, -31.2255, 45.7985, -144.597, -70.501, 72.9334
10.1224, 55, -16.7023, -31.1345, 45.7232, -144.676, -70.5372, 73.1806
10.1273, 55, -16.6171, -31.042, 45.6469, -144.755, -70.5747, 73.428
10.1353, 55, -16.5319, -30.9481, 45.5698, -144.835, -70.6127, 73.6754
10.1442, 55, -16.4465, -30.8526, 45.4917, -144.916, -70.6522, 73.9234
10.1513, 55, -16.361, -30.7554, 45.4125, -144.997, -70.6938, 74.1715
10.1593, 56, -16.2753, -30.6567, 45.3323, -145.079, -70.7362, 74.4198
10.1682, 56, -16.1895, -30.5565, 45.251, -145.161, -70.7793, 74.6678
10.1752, 56, -16.1036, -30.4547, 45.1687, -145.244, -70.8248, 74.9161
10.1832, 56, -16.0175, -30.3515, 45.0855, -145.327, -70.8717, 75.1647
10.1915, 56, -15.9315, -30.2468, 45.0014, -145.411, -70.9191, 75.4133
10.1993, 56, -15.8455, -30.1407, 44.9165, -145.495, -70.9689, 75.6619
10.2074, 56, -15.7595, -30.0331, 44.8307, -145.579, -71.0199, 75.9105
10.2166, 56, -15.6735, -29.9238, 44.7438, -145.664, -71.0714, 76.1598
10.2235, 56, -15.5873, -29.8129, 44.6559, -145.749, -71.1255, 76.4088
10.2324, 56, -15.501, -29.7007, 44.567, -145.834, -71.1805, 76.6575
10.2397, 56, -15.4146, -29.587, 44.477, -145.92, -71.2366, 76.9058
10.2483, 56, -15.3282, -29.472, 44.3863, -146.007, -71.2949, 77.1542
10.2565, 56, -15.2418, -29.3554, 44.2948, -146.093, -71.3535, 77.4027
10.264, 57, -15.1555, -29.2372, 44.2025, -146.18, -71.4145, 77.6508
10.2723, 57, -15.0691, -29.1175, 44.1092, -146.267, -71.4766, 77.8988
10.2808, 57, -15.026, -29.057, 44.015, -146.354, -71.5401, 78.1466
10.2883, 57, -14.8966, -28.8736, 43.9197, -146.441, -71.6052, 78.3945
10.2952, 57, -14.8535, -28.8118, 43.8716, -146.485, -71.6378, 78.5185
10.3049, 57, -14.7241, -28.6242, 43.7265, -146.616, -71.7396, 78.89
10.3167, 57, -14.6378, -28.4972, 43.5797, -146.748, -71.844, 79.2604
10.3192, 57, -14.5947, -28.4331, 43.5797, -146.748, -71.844, 79.2604
10.3284, 57, -14.4657, -28.2388, 43.4311, -146.88, -71.9516, 79.631
10.3352, 57, -14.4227, -28.1734, 43.381, -146.924, -71.9886, 79.7542
10.3432, 57, -14.3368, -28.0417, 43.2803, -147.012, -72.0631, 80.0005
10.3526, 57, -14.208, -27.8414, 43.1274, -147.144, -72.1776, 80.3695
10.3592, 57, -14.1651, -27.7738, 43.076, -147.188, -72.216, 80.4925
10.3686, 58, -14.0366, -27.5692, 42.9212, -147.321, -72.3348, 80.8611
10.3767, 58, -13.9511, -27.4311, 42.8171, -147.409, -72.4154, 81.1059
10.3863, 58, -13.8657, -27.2919, 42.7122, -147.497, -72.4976, 81.3501
10.3912, 58, -13.8231, -27.2217, 42.6594, -147.541, -72.5391, 81.472
10.4008, 58, -13.738, -27.0089, 42.4997, -147.673, -72.6664, 81.8377
10.4097, 58, -13.6531, -26.9371, 42.4461, -147.717, -72.7531, 82.0808
10.4168, 58, -13.5685, -26.7927, 42.3384, -147.805, -72.7968, 82.3233
10.4242, 58, -13.484, -26.6471, 42.2302, -147.893, -72.8857, 82.4442
10.4331, 58, -13.3995, -26.5006, 42.1214, -148.025, -73.0217, 82.8069
10.4391, 58, -13.3151, -26.3524, 42.0118, -148.068, -73.0676, 82.9276
10.4472, 58, -13.2308, -26.2029, 41.9014, -148.156, -73.1606, 83.1684
10.4553, 58, -13.1467, -26.0522, 41.7901, -148.243, -73.2549, 83.4085
10.4632, 58, -13.063, -25.9005, 41.6782, -148.329, -73.3503, 83.6476
10.4712, 59, -12.9793, -25.7479, 41.5659, -148.416, -73.4473, 83.8867
10.4792, 59, -12.896, -25.5939, 41.4532, -148.502, -73.5457, 84.1249
10.4872, 59, -12.8131, -25.4385, 41.34, -148.589, -73.6454, 84.3624
10.4953, 59, -12.7302, -25.2819, 41.2258, -148.674, -73.7464, 84.5992
10.5032, 59, -12.6476, -25.1245, 41.111, -148.76, -73.8487, 84.8355
10.5112, 59, -12.5651, -24.966, 40.9955, -148.845, -73.9522, 85.0715
10.5192, 59, -12.4828, -24.806, 40.8797, -148.93, -74.0574, 85.3066
10.5273, 59, -12.4008, -24.6448, 40.7636, -149.015, -74.1638, 85.5408
10.536, 59, -12.319, -24.4826, 40.6469, -149.099, -74.2714, 85.774
10.5442, 59, -12.2374, -24.3199, 40.5295, -149.182, -74.3805, 86.0063
10.5522, 59, -12.1562, -24.1561, 40.4113, -149.265, -74.4907, 86.2382
10.5602, 59, -12.0753, -23.9907, 40.2929, -149.348, -74.602, 86.469
10.5674, 60, -11.9947, -23.8241, 40.1741, -149.431, -74.7148, 86.6988
10.5763, 60, -11.9144, -23.657, 40.0552, -149.512, -74.8285, 86.9275
10.5832, 60, -11.8343, -23.4894, 39.9358, -149.594, -74.9437, 87.1555
10.5914, 60, -11.7544, -23.3203, 39.8158, -149.675, -75.0599, 87.3829
10.5992, 60, -11.6749, -23.1498, 39.6953, -149.755, -75.177, 87.6091
10.6081, 60, -11.5958, -22.9786, 39.5744, -149.834, -75.2958, 87.8345
10.6154, 60, -11.5169, -22.8074, 39.4533, -149.914, -75.4153, 88.0585
10.6233, 60, -11.4384, -22.6353, 39.3319, -149.992, -75.5363, 88.2819
10.6321, 60, -11.3602, -22.4616, 39.2101, -150.07, -75.6583, 88.5044
10.6393, 60, -11.2824, -22.287, 39.0879, -150.147, -75.7812, 88.7258
10.6473, 60, -11.2049, -22.1121, 38.9653, -150.224, -75.9053, 88.9462
10.6562, 60, -11.1276, -21.9364, 38.8425, -150.301, -76.0302, 89.1655
10.6634, 60, -11.0507, -21.7594, 38.7196, -150.376, -76.1564, 89.384
10.6712, 61, -10.9742, -21.5812, 38.5966, -150.451, -76.2834, 89.6015
10.6802, 61, -10.898, -21.4028, 38.4733, -150.525, -76.4116, 89.8175
10.6872, 61, -10.8222, -21.2243, 38.3498, -150.599, -76.5405, 90.0322
10.6953, 61, -10.7468, -21.0448, 38.2261, -150.672, -76.6705, 90.2454
10.7033, 61, -10.6718, -20.8641, 38.1022, -150.744, -76.8016, 90.4576
10.7114, 61, -10.5974, -20.6832, 37.9782, -150.815, -76.9336, 90.669
10.7195, 61, -10.5231, -20.5023, 37.854, -150.886, -77.0668, 90.8791
10.7285, 61, -10.4493, -20.3205, 37.7296, -150.955, -77.2007, 91.0878
10.7355, 61, -10.3756, -20.1374, 37.6052, -151.025, -77.3356, 91.295
10.7445, 61, -10.3024, -19.954, 37.4806, -151.093, -77.4712, 91.5011
10.7517, 61, -10.2297, -19.7708, 37.3559, -151.161, -77.6078, 91.706
10.7602, 61, -10.1573, -19.587, 37.2313, -151.228, -77.7449, 91.9098
10.7686, 61, -10.0855, -19.4019, 37.1067, -151.294, -77.8829, 92.1119
10.7759, 62, -10.014, -19.2164, 36.9822, -151.36, -78.0215, 92.3126
10.7843, 62, -9.94282, -19.0311, 36.8577, -151.424, -78.1608, 92.5115
10.7929, 62, -9.90737, -18.9383, 36.7955, -151.456, -78.3007, 92.7092
10.8002, 62, -9.80191, -18.6586, 36.6088, -151.551, -78.4416, 92.9058
10.8072, 62, -9.76698, -18.565, 36.5466, -151.582, -78.5121, 93.0036
10.817, 62, -9.66275, -18.2855, 36.3598, -151.674, -78.7244, 93.2944
10.8259, 62, -9.5936, -18.0989, 36.2355, -151.734, -78.8669, 93.4865
10.8313, 62, -9.55916, -18.0053, 36.1734, -151.764, -78.9383, 93.5819
10.8391, 62, -9.49061, -17.8176, 36.0493, -151.823, -79.0819, 93.7721
10.8493, 62, -9.38849, -17.5367, 35.8633, -151.911, -79.2979, 94.0546
10.8552, 62, -9.35471, -17.4429, 35.8013, -151.939, -79.3704, 94.148
10.8646, 62, -9.25395, -17.1599, 35.6159, -152.024, -79.5881, 94.4253
10.8712, 62, -9.2206, -17.0653, 35.5542, -152.052, -79.661, 94.5169
10.8792, 63, -9.15426, -16.8765, 35.431, -152.106, -79.8071, 94.6986
10.8887, 63, -9.0555, -16.5934, 35.2467, -152.187, -80.0274, 94.9682
10.8982, 63, -8.99019, -16.4039, 35.124, -152.24, -80.1748, 95.1461
10.9032, 63, -8.95768, -16.3092, 35.0627, -152.265, -80.2486, 95.2344
10.9128, 63, -8.89305, -16.026, 34.8794, -152.342, -80.4707, 95.4965
10.9201, 63, -8.82893, -15.9316, 34.8184, -152.367, -80.545, 95.5829
10.9272, 63, -8.76517, -15.7425, 34.6967, -152.416, -80.6938, 95.7543
10.9362, 63, -8.70189, -15.5532, 34.5753, -152.465, -80.8429, 95.9244
10.9443, 63, -8.63893, -15.3647, 34.4541, -152.512, -80.9924, 96.0927
10.9512, 63, -8.57639, -15.1763, 34.3333, -152.559, -81.142, 96.2595
10.9592, 63, -8.51422, -14.9873, 34.2129, -152.605, -81.2918, 96.4244
10.9672, 63, -8.45245, -14.7981, 34.0929, -152.649, -81.442, 96.5873
10.9752, 63, -8.3912, -14.6096, 33.9734, -152.693, -81.5922, 96.7484
10.9831, 64, -8.33033, -14.4211, 33.8543, -152.736, -81.7427, 96.907
10.9912, 64, -8.26997, -14.2319, 33.7354, -152.778, -81.8931, 97.064
10.9992, 64, -8.21016, -14.0428, 33.617, -152.819, -82.0439, 97.2193
11.0071, 64, -8.15079, -13.8549, 33.499, -152.859, -82.1945, 97.3727
11.0152, 64, -8.0918, -13.6675, 33.3816, -152.899, -82.3454, 97.5243
11.0231, 64, -8.0332, -13.48, 33.2646, -152.937, -82.4964, 97.6737
11.0311, 64, -7.97505, -13.2926, 33.148, -152.975, -82.6477, 97.8214
11.0394, 64, -7.91734, -13.1062, 33.0317, -153.011, -82.7989, 97.9668
11.0473, 64, -7.85995, -12.9197, 32.916, -153.047, -82.9503, 98.1104
11.0551, 64, -7.80302, -12.7327, 32.8009, -153.082, -83.1016, 98.252
11.0632, 64, -7.7466, -12.5461, 32.6864, -153.116, -83.253, 98.3917
11.0711, 64, -7.69054, -12.3605, 32.5724, -153.148, -83.4046, 98.5295
11.0791, 64, -7.63489, -12.1751, 32.4588, -153.18, -83.5559, 98.6648
11.0872, 65, -7.57961, -11.9893, 32.3457, -153.211, -83.7075, 98.7979
11.0952, 65, -7.52482, -11.804, 32.2333, -153.241, -83.8588, 98.9291
11.1035, 65, -7.47055, -11.6197, 32.1216, -153.27, -84.0101, 99.0576
11.1114, 65, -7.41671, -11.4358, 32.0106, -153.298, -84.1614, 99.184
11.1192, 65, -7.3632, -11.2517, 31.9, -153.325, -84.3124, 99.3081
11.1275, 65, -7.31021, -11.0682, 31.7898, -153.352, -84.4634, 99.43
11.1363, 65, -7.25758, -10.8859, 31.6801, -153.377, -84.6144, 99.55
11.144, 65, -7.20534, -10.704, 31.5712, -153.401, -84.7651, 99.6678
11.1513, 65, -7.15363, -10.522, 31.4631, -153.425, -84.9158, 99.783
11.1604, 65, -7.10222, -10.3405, 31.3557, -153.447, -85.0662, 99.8962
11.1673, 65, -7.05116, -10.1602, 31.2488, -153.469, -85.2165, 100.007
11.1752, 65, -7.00052, -9.98023, 31.1423, -153.491, -85.3665, 100.115
11.1862, 66, -6.95026, -9.80003, 31.0364, -153.511, -85.5164, 100.221
11.1921, 66, -6.9003, -9.62053, 30.9313, -153.53, -85.6659, 100.324
11.1992, 66, -6.85085, -9.44248, 30.8271, -153.548, -85.8155, 100.425
11.2083, 66, -6.80193, -9.2652, 30.7237, -153.565, -85.9645, 100.523
11.2154, 66, -6.75327, -9.08788, 30.6208, -153.581, -86.1135, 100.619
11.2234, 66, -6.70514, -8.91114, 30.5182, -153.597, -86.262, 100.713
11.2325, 66, -6.65732, -8.73577, 30.4162, -153.612, -86.4104, 100.804
11.2421, 66, -6.6097, -8.561, 30.3151, -153.626, -86.5583, 100.892
11.2476, 66, -6.56257, -8.38624, 30.2149, -153.64, -86.7062, 100.978
11.2562, 66, -6.51596, -8.21186, 30.1155, -153.652, -86.8538, 101.061
11.2638, 66, -6.46965, -8.03879, 30.0168, -153.664, -87.0011, 101.142
11.2723, 66, -6.42355, -7.86671, 29.9184, -153.674, -87.148, 101.22
11.2799, 66, -6.40068, -7.69469, 29.8206, -153.684, -87.2947, 101.295
11.2885, 67, -6.33278, -7.523, 29.7235, -153.692, -87.441, 101.368
11.2957, 67, -6.31029, -7.43755, 29.6754, -153.696, -87.5142, 101.438
11.3041, 67, -6.24326, -7.18331, 29.5324, -153.707, -87.7332, 101.505
11.3132, 67, -6.19913, -7.0144, 29.438, -153.713, -87.8787, 101.569
11.3191, 67, -6.1772, -6.93004, 29.391, -153.716, -87.9513, 101.6
11.3285, 67, -6.11184, -6.6782, 29.2506, -153.723, -88.1686, 101.69
11.3352, 67, -6.09027, -6.59494, 29.204, -153.725, -88.2408, 101.719
11.3431, 67, -6.04742, -6.42917, 29.1117, -153.728, -88.3851, 101.773
11.3525, 67, -5.98375, -6.18099, 28.9748, -153.732, -88.6008, 101.851
11.3593, 67, -5.96275, -6.09854, 28.9297, -153.733, -88.6726, 101.875
11.3671, 67, -5.92101, -5.93442, 28.8399, -153.734, -88.8155, 101.922
11.3768, 67, -5.85887, -5.69023, 28.7064, -153.735, -89.0294, 101.986
11.3831, 67, -5.83824, -5.60899, 28.6621, -153.735, -89.1003, 102.006
11.3927, 68, -5.77699, -5.36597, 28.5305, -153.735, -89.3129, 102.062
11.4008, 68, -5.7366, -5.20521, 28.4437, -153.734, -89.4537, 102.095
11.4101, 68, -5.69651, -5.04574, 28.3578, -153.733, -89.5946, 102.125
11.4152, 68, -5.67654, -4.9664, 28.3152, -153.731, -89.6647, 102.139
11.4249, 68, -5.63687, -4.80806, 28.2304, -153.728, -89.8049, 102.165
11.4321, 68, -5.59762, -4.6503, 28.1462, -153.723, -89.9448, 102.187
11.4402, 68, -5.55872, -4.49363, 28.0626, -153.718, -90.0843, 102.207
11.4482, 68, -5.52, -4.33812, 27.9798, -153.712, -90.2235, 102.224
11.4563, 68, -5.48152, -4.18337, 27.8976, -153.706, -90.3623, 102.237
11.4632, 68, -5.44351, -4.02894, 27.8162, -153.698, -90.5008, 102.248
11.4711, 68, -5.40588, -3.87524, 27.7356, -153.69, -90.6389, 102.256
11.4791, 68, -5.36841, -3.72246, 27.6558, -153.681, -90.7768, 102.261
11.4872, 68, -5.33112, -3.57067, 27.5768, -153.671, -90.9141, 102.263
11.4951, 69, -5.29425, -3.41968, 27.4985, -153.66, -91.0512, 102.263
11.5032, 69, -5.2577, -3.26922, 27.4209, -153.649, -91.188, 102.261
11.5111, 69, -5.2214, -3.11964, 27.3439, -153.637, -91.3244, 102.254
11.5191, 69, -5.18525, -2.97112, 27.2676, -153.623, -91.4602, 102.244
11.5272, 69, -5.14941, -2.82374, 27.192, -153.609, -91.5958, 102.229
11.5351, 69, -5.11381, -2.67713, 27.117, -153.595, -91.7307, 102.212
11.5431, 69, -5.07851, -2.53117, 27.0427, -153.579, -91.8654, 102.191
11.5513, 69, -5.04328, -2.38614, 26.9693, -153.564, -91.9995, 102.167
11.5591, 69, -5.00836, -2.24204, 26.8966, -153.548, -92.1334, 102.14
11.5671, 69, -4.97378, -2.09907, 26.8245, -153.532, -92.2666, 102.109
11.5752, 69, -4.93946, -1.95695, 26.7532, -153.515, -92.3996, 102.074
11.5831, 69, -4.90527, -1.81531, 26.6824, -153.497, -92.532, 102.035
11.5911, 69, -4.87119, -1.67437, 26.6124, -153.478, -92.6639, 101.994
