hehonglu123/Motion-Primitive-Planning/realrobot/recorded_data/repeatability/wood/v100_iteration0.csv
timestamp, cmd_num, J1, J2, J3, J4, J5, J6
0.000375, -1, 11.377, 13.6151, 17.3379, -145.519, -97.9227, 142.516
0.004208, -1, 11.377, 13.6151, 17.3379, -145.519, -97.9228, 142.516
0.008219, -1, 11.377, 13.6151, 17.3379, -145.519, -97.9228, 142.516
0.034971, -1, 11.377, 13.6151, 17.3379, -145.519, -97.9227, 142.517
0.186231, -1, 10.1969, 13.2976, 17.4123, -145.889, -97.7971, 140.375
0.187499, -1, 10.1969, 13.2976, 17.4123, -145.889, -97.7971, 140.375
0.189571, -1, 10.1217, 13.2772, 17.4173, -145.913, -97.7887, 140.236
0.190887, -1, 10.1217, 13.2772, 17.4173, -145.913, -97.7887, 140.236
0.19216, -1, 10.1217, 13.2772, 17.4173, -145.913, -97.7887, 140.236
0.194212, -1, 10.0458, 13.2567, 17.4224, -145.936, -97.7803, 140.097
0.195422, -1, 10.0458, 13.2567, 17.4224, -145.936, -97.7803, 140.097
0.205294, -1, 9.81455, 13.1948, 17.4374, -146.009, -97.7545, 139.679
0.206672, -1, 9.81455, 13.1948, 17.4374, -146.009, -97.7545, 139.679
0.207928, -1, 9.81455, 13.1948, 17.4374, -146.009, -97.7545, 139.679
0.210156, -1, 9.73678, 13.1741, 17.4424, -146.033, -97.7459, 139.539
0.211456, -1, 9.73678, 13.1741, 17.4424, -146.033, -97.7459, 139.539
0.213284, -1, 9.65895, 13.1534, 17.4475, -146.057, -97.7373, 139.399
0.214767, -1, 9.65895, 13.1534, 17.4475, -146.057, -97.7373, 139.399
0.216093, -1, 9.65895, 13.1534, 17.4475, -146.057, -97.7373, 139.399
0.218641, -1, 9.58124, 13.1328, 17.4525, -146.08, -97.7288, 139.26
0.219926, -1, 9.58124, 13.1328, 17.4525, -146.08, -97.7288, 139.26
0.223419, -1, 9.50369, 13.1122, 17.4574, -146.104, -97.7204, 139.12
0.225304, -1, 9.42631, 13.0916, 17.4624, -146.129, -97.712, 138.98
0.226768, -1, 9.42631, 13.0916, 17.4624, -146.129, -97.712, 138.98
0.227952, -1, 9.42631, 13.0916, 17.4624, -146.129, -97.712, 138.98
0.22998, -1, 9.34905, 13.0711, 17.4673, -146.153, -97.7036, 138.841
0.23345, -1, 9.27184, 13.0506, 17.4723, -146.177, -97.6952, 138.701
0.234943, -1, 9.27184, 13.0506, 17.4723, -146.177, -97.6952, 138.701
0.236175, -1, 9.27184, 13.0506, 17.4723, -146.177, -97.6952, 138.701
0.238273, -1, 9.1947, 13.03, 17.4773, -146.201, -97.6869, 138.561
0.239481, -1, 9.1947, 13.03, 17.4773, -146.201, -97.6869, 138.561
0.241365, -1, 9.1947, 13.03, 17.4823, -146.225, -97.6785, 138.421
0.248121, -1, 9.04086, 12.989, 17.4873, -146.249, -97.6702, 138.281
0.255896, -1, 8.88731, 12.948, 17.4974, -146.297, -97.6533, 138.002
0.263894, -1, 8.73391, 12.9071, 17.5076, -146.345, -97.6361, 137.722
0.272689, -1, 8.58102, 12.8659, 17.5177, -146.392, -97.6186, 137.442
0.278916, -1, 8.4284, 12.8248, 17.5279, -146.44, -97.6011, 137.162
0.287893, -1, 8.27552, 12.7835, 17.538, -146.488, -97.5839, 136.882
0.295979, -1, 8.12208, 12.7421, 17.5482, -146.536, -97.5669, 136.602
0.304946, -1, 7.96818, 12.7005, 17.5584, -146.584, -97.55, 136.322
0.311907, -1, 7.81367, 12.659, 17.5686, -146.632, -97.5334, 136.042
0.320731, -1, 7.6587, 12.6174, 17.5787, -146.679, -97.5168, 135.762
0.327892, -1, 7.50363, 12.5759, 17.589, -146.728, -97.4999, 135.482
0.335899, -1, 7.34841, 12.5345, 17.5991, -146.776, -97.4828, 135.201
0.34469, -1, 7.19325, 12.4931, 17.6093, -146.824, -97.4653, 134.921
0.350996, -1, 7.038, 12.4518, 17.6196, -146.872, -97.448, 134.641
0.359911, -1, 6.88268, 12.4107, 17.6299, -146.92, -97.431, 134.361
0.368698, -1, 6.72762, 12.3695, 17.6403, -146.968, -97.4141, 134.08
0.375891, -1, 6.57294, 12.3284, 17.6508, -147.017, -97.3974, 133.8
0.38391, -1, 6.41847, 12.2872, 17.6611, -147.065, -97.3807, 133.519
0.392694, -1, 6.2642, 12.246, 17.6715, -147.113, -97.3637, 133.239
0.399892, -1, 6.10997, 12.2045, 17.6817, -147.161, -97.3466, 132.958
0.407893, -1, 5.95553, 12.1632, 17.6919, -147.209, -97.3291, 132.677
0.417464, -1, 5.80091, 12.1217, 17.7023, -147.257, -97.3115, 132.397
0.423063, -1, 5.64611, 12.0801, 17.7125, -147.305, -97.2942, 132.116
0.431047, -1, 5.49108, 12.0385, 17.7227, -147.353, -97.2771, 131.835
0.4391, -1, 5.33585, 11.9969, 17.733, -147.401, -97.2603, 131.554
0.447244, -1, 5.18029, 11.9553, 17.7433, -147.449, -97.2436, 131.273
0.455243, -1, 5.02446, 11.9137, 17.7537, -147.497, -97.2269, 130.993
0.463256, -1, 4.86858, 11.8722, 17.7642, -147.545, -97.2099, 130.712
0.471381, -1, 4.71271, 11.8307, 17.7746, -147.594, -97.1926, 130.431
0.480083, -1, 4.55686, 11.7893, 17.785, -147.642, -97.1751, 130.15
0.488014, -1, 4.40108, 11.7479, 17.7954, -147.69, -97.1577, 129.869
0.49599, -1, 4.24558, 11.7066, 17.8058, -147.739, -97.1406, 129.588
0.504073, -1, 4.09051, 11.6653, 17.8162, -147.787, -97.1237, 129.307
0.512009, -1, 3.93578, 11.6239, 17.8265, -147.835, -97.1069, 129.026
0.519954, -1, 3.78139, 11.5826, 17.8368, -147.884, -97.09, 128.744
0.528085, -1, 3.62699, 11.5411, 17.8471, -147.932, -97.0731, 128.463
0.534884, -1, 3.54972, 11.5203, 17.8523, -147.956, -97.0646, 128.322
0.543953, -1, 3.31759, 11.4579, 17.8679, -148.029, -97.0385, 127.9
0.552096, -1, 3.16254, 11.4163, 17.8783, -148.077, -97.0209, 127.619
0.558887, -1, 3.08495, 11.3954, 17.8835, -148.1, -97.0122, 127.478
0.568068, -1, 2.85189, 11.3329, 17.8991, -148.173, -96.9865, 127.055
0.57489, -1, 2.77404, 11.3121, 17.9042, -148.197, -96.9781, 126.915
0.584204, -1, 2.53995, 11.2495, 17.9197, -148.269, -96.953, 126.492
0.590956, -1, 2.46175, 11.2287, 17.9249, -148.294, -96.9447, 126.352
0.600471, -1, 2.2269, 11.1663, 17.9405, -148.366, -96.9194, 125.929
0.608453, -1, 2.07008, 11.1246, 17.9509, -148.414, -96.9021, 125.647
0.616416, -1, 1.91332, 11.083, 17.9613, -148.463, -96.8846, 125.365
0.624521, -1, 1.75681, 11.0415, 17.9716, -148.511, -96.8672, 125.083
0.635136, -1, 1.60044, 10.9998, 17.9821, -148.559, -96.85, 124.801
0.640455, -1, 1.52238, 10.9789, 17.9874, -148.584, -96.8415, 124.52
0.776787, -1, -1.13047, 10.2695, 18.164, -149.408, -96.5504, 119.857
0.781667, -1, -1.20903, 10.2486, 18.1692, -149.432, -96.5419, 119.574
0.783158, -1, -1.28756, 10.2277, 18.1744, -149.457, -96.5334, 119.574
0.784345, -1, -1.28756, 10.2277, 18.1744, -149.457, -96.5334, 119.574
0.786364, -1, -1.36599, 10.2068, 18.1795, -149.481, -96.5251, 119.432
0.787603, -1, -1.36599, 10.2068, 18.1795, -149.481, -96.5251, 119.432
0.788851, -1, -1.36599, 10.2068, 18.1795, -149.481, -96.5251, 119.432
0.792959, -1, -1.44435, 10.1859, 18.1847, -149.506, -96.5168, 119.291
0.795213, -1, -1.52263, 10.1651, 18.1899, -149.53, -96.5083, 119.149
0.796396, -1, -1.52263, 10.1651, 18.1899, -149.53, -96.5083, 119.149
0.798425, -1, -1.60085, 10.1442, 18.1952, -149.554, -96.4999, 119.007
0.799646, -1, -1.60085, 10.1442, 18.1952, -149.554, -96.4999, 119.007
0.800915, -1, -1.60085, 10.1442, 18.1952, -149.554, -96.4999, 119.007
0.804507, -1, -1.67902, 10.1233, 18.2004, -149.579, -96.4914, 118.866
0.806518, -1, -1.75703, 10.1024, 18.2057, -149.603, -96.4829, 118.724
0.81278, -1, -1.83486, 10.0815, 18.2108, -149.627, -96.4742, 118.583
0.814796, -1, -1.9126, 10.0606, 18.216, -149.652, -96.4654, 118.441
0.816128, -1, -1.9126, 10.0606, 18.216, -149.652, -96.4654, 118.441
0.817924, -1, -1.9126, 10.0397, 18.2213, -149.676, -96.4566, 118.299
0.819349, -1, -1.99028, 10.0397, 18.2213, -149.676, -96.4566, 118.299
0.820538, -1, -1.99028, 10.0397, 18.2213, -149.676, -96.4566, 118.299
0.82269, -1, -2.06789, 10.0188, 18.2265, -149.7, -96.4478, 118.157
0.826956, -1, -2.14545, 9.99789, 18.2317, -149.725, -96.439, 118.015
0.831866, -1, -2.22305, 9.97699, 18.2369, -149.749, -96.4302, 117.874
0.839947, -1, -2.37835, 9.93516, 18.2473, -149.797, -96.413, 117.59
0.847884, -1, -2.53394, 9.89322, 18.2577, -149.846, -96.396, 117.307
0.855877, -1, -2.68973, 9.85131, 18.2681, -149.895, -96.3791, 117.023
0.863965, -1, -2.84594, 9.80938, 18.2784, -149.943, -96.3624, 116.739
0.871893, -1, -3.00261, 9.76747, 18.2888, -149.991, -96.3455, 116.456
0.879059, -1, -3.1596, 9.72559, 18.2992, -150.04, -96.3283, 116.172
0.887993, -1, -3.31711, 9.68366, 18.3096, -150.089, -96.3108, 115.888
0.895873, -1, -3.47504, 9.64168, 18.3201, -150.137, -96.2933, 115.604
0.90388, -1, -3.63294, 9.5998, 18.3306, -150.186, -96.2759, 115.32
0.911942, -1, -3.79082, 9.55797, 18.3409, -150.235, -96.2587, 115.036
0.919873, -1, -3.94884, 9.51601, 18.3513, -150.283, -96.2418, 114.752
0.9279, -1, -4.10676, 9.47414, 18.3616, -150.333, -96.2248, 114.468
0.935946, -1, -4.26456, 9.43227, 18.372, -150.381, -96.2077, 114.183
0.943875, -1, -4.42209, 9.3903, 18.3823, -150.43, -96.1905, 113.899
0.951879, -1, -4.57925, 9.34838, 18.3927, -150.479, -96.173, 113.614
0.959939, -1, -4.73609, 9.30637, 18.403, -150.528, -96.1553, 113.33
0.967899, -1, -4.89241, 9.26438, 18.4134, -150.577, -96.1377, 113.045
0.975923, -1, -5.04843, 9.22235, 18.424, -150.626, -96.1204, 112.76
0.984029, -1, -5.20427, 9.1803, 18.4345, -150.674, -96.1033, 112.475
0.991974, -1, -5.36027, 9.1382, 18.4451, -150.723, -96.0864, 112.191
0.999979, -1, -5.51638, 9.09606, 18.4555, -150.772, -96.0695, 111.906
1.00806, -1, -5.67271, 9.05403, 18.4659, -150.82, -96.0524, 111.621
1.01598, -1, -5.82944, 9.01192, 18.4763, -150.87, -96.0352, 111.336
1.02405, -1, -5.98656, 8.96976, 18.4867, -150.919, -96.0177, 111.052
1.03195, -1, -6.14427, 8.92767, 18.497, -150.967, -96.0001, 110.767
1.0397, -1, -6.22332, 8.90662, 18.5022, -150.991, -95.9827, 110.481
1.04799, -1, -6.4609, 8.8435, 18.5177, -151.065, -95.9656, 110.196
1.05487, -1, -6.54016, 8.8225, 18.5228, -151.089, -95.957, 110.054
1.06407, -1, -6.77808, 8.75937, 18.5386, -151.163, -95.9316, 109.626
1.07087, -1, -6.85748, 8.73833, 18.5439, -151.188, -95.9231, 109.483
1.08039, -1, -7.09538, 8.67525, 18.5596, -151.261, -95.8973, 109.055
1.08831, -1, -7.25376, 8.63315, 18.57, -151.31, -95.8798, 108.769
1.09489, -1, -7.33285, 8.61209, 18.5752, -151.335, -95.8709, 108.626
1.10441, -1, -7.56962, 8.54873, 18.5909, -151.409, -95.8443, 108.198
1.1125, -1, -7.72716, 8.50648, 18.6013, -151.458, -95.827, 107.912
1.12044, -1, -7.88421, 8.46427, 18.6117, -151.507, -95.8099, 107.627
1.12866, -1, -8.04093, 8.42197, 18.6221, -151.555, -95.7929, 107.341
1.13651, -1, -8.19747, 8.37964, 18.6325, -151.605, -95.7759, 107.054
1.14448, -1, -8.27575, 8.35849, 18.6377, -151.654, -95.7589, 106.769
1.15186, -1, -8.43242, 8.31617, 18.6483, -151.678, -95.7502, 106.626
1.15992, -1, -8.58934, 8.27383, 18.6588, -151.727, -95.7327, 106.34
1.16787, -1, -8.74673, 8.23163, 18.6693, -151.776, -95.715, 106.053
1.17586, -1, -8.90448, 8.18935, 18.6796, -151.825, -95.6974, 105.767
1.18393, -1, -9.06262, 8.14706, 18.69, -151.874, -95.6802, 105.481
1.19198, -1, -9.22124, 8.10486, 18.7005, -151.924, -95.663, 105.194
1.19988, -1, -9.38017, 8.06263, 18.7109, -151.972, -95.6459, 104.907
1.20789, -1, -9.53929, 8.0203, 18.7213, -152.022, -95.6288, 104.621
1.21586, -1, -9.69853, 7.97812, 18.7318, -152.071, -95.6115, 104.334
1.22396, -1, -9.85783, 7.93596, 18.7422, -152.12, -95.5939, 104.048
1.23187, -1, -10.0172, 7.89368, 18.7528, -152.17, -95.5761, 103.761
1.23988, -1, -10.1765, 7.85132, 18.7634, -152.219, -95.5583, 103.474
1.24791, -1, -10.3355, 7.80893, 18.774, -152.268, -95.5407, 103.187
1.25585, -1, -10.4941, 7.76644, 18.7845, -152.318, -95.5235, 102.9
1.26391, -1, -10.6526, 7.72401, 18.7949, -152.367, -95.5065, 102.613
1.27193, -1, -10.8108, 7.68154, 18.8053, -152.416, -95.4895, 102.326
1.28148, -1, -10.9685, 7.63901, 18.8158, -152.465, -95.4725, 102.039
1.28786, -1, -11.126, 7.59648, 18.8262, -152.515, -95.4551, 101.752
1.29593, -1, -11.2834, 7.55403, 18.8366, -152.564, -95.4374, 101.464
1.30387, -1, -11.4408, 7.51159, 18.8471, -152.613, -95.4197, 101.177
1.31187, -1, -11.5985, 7.46912, 18.8575, -152.662, -95.4021, 100.89
1.31994, -1, -11.7564, 7.42674, 18.8682, -152.711, -95.3848, 100.602
1.32786, -1, -11.9148, 7.38434, 18.8787, -152.761, -95.3675, 100.314
1.33593, -1, -12.0735, 7.34199, 18.8893, -152.81, -95.3503, 100.027
1.34385, -1, -12.2327, 7.29965, 18.8998, -152.86, -95.3331, 99.7392
1.35189, -1, -12.3923, 7.25725, 18.9102, -152.91, -95.3157, 99.4511
1.36014, -1, -12.5522, 7.21489, 18.9208, -152.959, -95.298, 99.1631
1.36696, -1, -12.7122, 7.17253, 18.9313, -153.008, -95.28, 98.8752
1.37593, -1, -12.8724, 7.13013, 18.9418, -153.058, -95.2622, 98.5873
1.38463, -1, -13.0324, 7.08759, 18.9523, -153.108, -95.2447, 98.2991
1.39191, -1, -13.1923, 7.04502, 18.9628, -153.157, -95.2274, 98.011
1.39986, -1, -13.352, 7.00248, 18.9734, -153.207, -95.2103, 97.7228
1.40864, -1, -13.5113, 6.95981, 18.9839, -153.256, -95.1932, 97.4345
1.41586, -1, -13.6705, 6.91706, 18.9945, -153.305, -95.176, 97.1459
1.42386, -1, -13.8296, 6.87438, 19.005, -153.355, -95.1585, 96.8574
1.43268, -1, -13.9881, 6.83167, 19.0154, -153.404, -95.1407, 96.569
1.43991, -1, -14.1462, 6.789, 19.0259, -153.453, -95.123, 96.2803
1.44786, -1, -14.3044, 6.74643, 19.0365, -153.503, -95.1054, 95.9914
1.4567, -1, -14.4627, 6.70375, 19.0469, -153.552, -95.0881, 95.7025
1.46386, -1, -14.6211, 6.66116, 19.0574, -153.601, -95.0709, 95.4137
1.47188, -1, -14.7799, 6.61865, 19.0679, -153.651, -95.0537, 95.1245
1.48086, -1, -14.9391, 6.57612, 19.0785, -153.7, -95.0365, 94.8351
1.48795, -1, -15.0987, 6.5335, 19.0892, -153.75, -95.0189, 94.5462
1.49596, -1, -15.2586, 6.49097, 19.0999, -153.8, -95.001, 94.2572
1.50507, -1, -15.4189, 6.44842, 19.1105, -153.85, -94.983, 93.9679
1.51197, -1, -15.5796, 6.40575, 19.1211, -153.899, -94.9652, 93.6785
1.52003, -1, -15.7404, 6.3631, 19.1316, -153.949, -94.9477, 93.3894
1.52845, -1, -15.9012, 6.32035, 19.1422, -153.999, -94.9304, 93.1
1.5349, -1, -15.9815, 6.29894, 19.1476, -154.024, -94.9218, 92.9552
1.54396, -1, -16.2227, 6.23469, 19.1633, -154.098, -94.8961, 92.5206
1.55345, -1, -16.3834, 6.19179, 19.1738, -154.148, -94.8788, 92.2311
1.55994, -1, -16.5437, 6.14875, 19.1842, -154.197, -94.8612, 91.9414
1.56834, -1, -16.7037, 6.10583, 19.1948, -154.247, -94.8433, 91.6513
1.57485, -1, -16.7836, 6.08439, 19.2001, -154.272, -94.8344, 91.5063
1.58413, -1, -17.0226, 6.01999, 19.216, -154.347, -94.808, 91.0715
1.59084, -1, -17.1022, 5.99855, 19.2213, -154.371, -94.7992, 90.9265
1.60188, -1, -17.3407, 5.93428, 19.2372, -154.445, -94.7732, 90.491
1.60835, -1, -17.5, 5.89153, 19.2478, -154.496, -94.7558, 90.2008
1.61484, -1, -17.5796, 5.87017, 19.2531, -154.521, -94.7472, 90.0558
1.62602, -1, -17.8189, 5.80607, 19.269, -154.595, -94.7206, 89.6203
1.6325, -1, -17.9787, 5.76337, 19.2797, -154.646, -94.7025, 89.3297
1.64044, -1, -18.0587, 5.72068, 19.2902, -154.695, -94.6845, 89.0393
1.64925, -1, -18.2193, 5.69932, 19.2955, -154.72, -94.6667, 88.7488
1.65645, -1, -18.3803, 5.65657, 19.3061, -154.77, -94.658, 88.458
1.66384, -1, -18.5417, 5.61369, 19.3168, -154.82, -94.6406, 88.3125
1.67185, -1, -18.7032, 5.57077, 19.3275, -154.87, -94.6233, 88.0216
1.67989, -1, -18.8648, 5.52781, 19.3381, -154.92, -94.6061, 87.7307
1.68784, -1, -19.0265, 5.4848, 19.3486, -154.97, -94.5886, 87.4397
1.69585, -1, -19.188, 5.44166, 19.3591, -155.02, -94.5708, 87.1483
1.7039, -1, -19.3495, 5.39855, 19.3697, -155.07, -94.5527, 86.8571
1.71187, -1, -19.5106, 5.35541, 19.3802, -155.12, -94.5347, 86.5657
1.71984, -1, -19.6714, 5.31222, 19.3908, -155.169, -94.5169, 86.2742
1.72785, -1, -19.832, 5.26918, 19.4014, -155.22, -94.4994, 85.9824
1.73584, -1, -19.9923, 5.22609, 19.412, -155.269, -94.4821, 85.6909
1.74389, -1, -20.1523, 5.183, 19.4228, -155.319, -94.4647, 85.3994
1.75184, -1, -20.3121, 5.14011, 19.4336, -155.37, -94.4472, 85.1077
1.75984, -1, -20.472, 5.09718, 19.4444, -155.419, -94.4295, 84.816
1.76684, -1, -20.6321, 5.05416, 19.4551, -155.47, -94.4114, 84.5243
1.77586, -1, -20.7924, 5.01131, 19.4658, -155.52, -94.3934, 84.2326
1.78484, -1, -20.9531, 4.96847, 19.4764, -155.57, -94.3756, 83.9405
1.79195, -1, -21.1143, 4.92546, 19.4871, -155.62, -94.3582, 83.6482
1.80089, -1, -21.2759, 4.88246, 19.4977, -155.671, -94.3409, 83.3564
1.80785, -1, -21.4379, 4.83936, 19.5083, -155.721, -94.3237, 83.0643
1.8159, -1, -21.6, 4.79612, 19.5189, -155.771, -94.3064, 82.7718
1.82385, -1, -21.7623, 4.75296, 19.5296, -155.822, -94.2888, 82.4794
1.83191, -1, -21.9247, 4.70965, 19.5403, -155.871, -94.2709, 82.1871
1.83984, -1, -22.0872, 4.66627, 19.551, -155.922, -94.2528, 81.8945
1.84786, -1, -22.2496, 4.62293, 19.5617, -155.972, -94.2351, 81.6017
1.85591, -1, -22.4119, 4.57956, 19.5723, -156.022, -94.2176, 81.309
1.86383, -1, -22.5738, 4.53619, 19.583, -156.072, -94.2001, 81.0164
1.87184, -1, -22.7355, 4.49281, 19.5936, -156.122, -94.1826, 80.7235
1.88003, -1, -22.8968, 4.44945, 19.6043, -156.172, -94.1651, 80.4304
1.88785, -1, -23.0579, 4.40623, 19.615, -156.223, -94.1473, 80.1374
1.89585, -1, -23.2189, 4.36298, 19.6256, -156.273, -94.1291, 79.8443
1.90391, -1, -23.3798, 4.31973, 19.6364, -156.324, -94.1108, 79.551
1.91184, -1, -23.5406, 4.27655, 19.6472, -156.374, -94.0928, 79.2576
1.91985, -1, -23.7016, 4.23335, 19.658, -156.424, -94.075, 78.9645
1.92797, -1, -23.8628, 4.1902, 19.6688, -156.475, -94.0574, 78.671
1.93587, -1, -24.0243, 4.14695, 19.6794, -156.526, -94.0401, 78.3774
1.944, -1, -24.1864, 4.10359, 19.6901, -156.576, -94.0226, 78.0835
1.95184, -1, -24.3489, 4.06021, 19.7008, -156.626, -94.005, 77.7898
1.95989, -1, -24.5117, 4.0168, 19.7114, -156.677, -93.9871, 77.4959
1.96801, -1, -24.6748, 3.97325, 19.722, -156.727, -93.9689, 77.2016
1.97587, -1, -24.8381, 3.92969, 19.7327, -156.777, -93.9508, 76.9076
1.98392, -1, -25.0015, 3.88613, 19.7434, -156.828, -93.9332, 76.6134
1.99222, -1, -25.1648, 3.84252, 19.7543, -156.878, -93.9155, 76.3193
1.9996, -1, -25.3279, 3.79896, 19.7651, -156.929, -93.8981, 76.0248
2.00794, -1, -25.4906, 3.75539, 19.7759, -156.979, -93.8805, 75.7307
2.01638, -1, -25.6533, 3.71173, 19.7867, -157.029, -93.8627, 75.4365
2.02359, -1, -25.8158, 3.66821, 19.7973, -157.08, -93.8447, 75.1418
2.03184, -1, -25.978, 3.62481, 19.8081, -157.13, -93.8263, 74.847
2.04064, -1, -26.14, 3.58126, 19.8189, -157.181, -93.808, 74.5525
2.04814, -1, -26.3016, 3.53786, 19.8296, -157.232, -93.79, 74.2581
2.05488, -1, -26.3824, 3.51622, 19.835, -157.257, -93.7812, 74.1106
2.06485, -1, -26.6251, 3.45105, 19.851, -157.333, -93.7547, 73.6678
2.07208, -1, -26.7871, 3.40764, 19.8618, -157.384, -93.7372, 73.3731
2.07889, -1, -26.8683, 3.38593, 19.8673, -157.409, -93.7283, 73.2255
2.08919, -1, -27.1124, 3.32056, 19.8835, -157.485, -93.7013, 72.7825
2.09488, -1, -27.1939, 3.29877, 19.8889, -157.51, -93.6922, 72.6349
2.10438, -1, -27.4389, 3.23333, 19.905, -157.586, -93.6648, 72.192
2.11322, -1, -27.6028, 3.18955, 19.9157, -157.636, -93.6469, 71.8967
2.11889, -1, -27.6848, 3.1677, 19.9211, -157.662, -93.638, 71.7488
2.12845, -1, -27.931, 3.10217, 19.9372, -157.738, -93.6114, 71.3054
2.1373, -1, -28.0951, 3.0585, 19.948, -157.789, -93.5938, 71.0099
2.14294, -1, -28.1771, 3.03662, 19.9534, -157.814, -93.5849, 70.8619
2.15248, -1, -28.3413, 2.99287, 19.9641, -157.89, -93.5578, 70.4178
2.15983, -1, -28.5053, 2.94915, 19.9749, -157.915, -93.5486, 70.27
2.16693, -1, -28.6689, 2.9055, 19.9858, -157.966, -93.5301, 69.974
2.17686, -1, -28.9139, 2.83997, 20.002, -158.042, -93.5029, 69.5296
2.18383, -1, -28.9953, 2.81816, 20.0074, -158.068, -93.494, 69.3813
2.19188, -1, -29.158, 2.77454, 20.0181, -158.119, -93.4763, 69.0852
2.19983, -1, -29.3206, 2.73094, 20.0289, -158.169, -93.4587, 68.7887
2.20782, -1, -29.4834, 2.68735, 20.0398, -158.221, -93.441, 68.492
2.21483, -1, -29.6462, 2.64366, 20.0505, -158.272, -93.4231, 68.1951
2.22383, -1, -29.8092, 2.5999, 20.0613, -158.323, -93.4049, 67.8984
2.23183, -1, -29.9724, 2.55618, 20.0721, -158.374, -93.3864, 67.6018
2.23882, -1, -30.1358, 2.51236, 20.083, -158.425, -93.3682, 67.3048
2.24783, -1, -30.2997, 2.4684, 20.094, -158.475, -93.3502, 67.0079
2.25582, -1, -30.464, 2.42446, 20.1049, -158.526, -93.3325, 66.711
2.26288, -1, -30.6288, 2.3805, 20.1158, -158.577, -93.3148, 66.4138
2.27182, -1, -30.7937, 2.33652, 20.1265, -158.628, -93.2971, 66.1165
2.27983, -1, -30.9588, 2.29262, 20.1374, -158.679, -93.2792, 65.8193
2.28883, -1, -31.1238, 2.24863, 20.1483, -158.73, -93.2608, 65.5222
2.29587, -1, -31.2887, 2.2047, 20.1591, -158.781, -93.2423, 65.2248
2.30483, -1, -31.4535, 2.1609, 20.1699, -158.832, -93.2239, 64.927
2.31082, -1, -31.6182, 2.11691, 20.1806, -158.883, -93.2059, 64.6295
2.31983, -1, -31.7826, 2.07298, 20.1914, -158.935, -93.1881, 64.3318
2.32882, -1, -31.9466, 2.02915, 20.2024, -158.986, -93.1705, 64.0339
2.33484, -1, -32.1105, 1.9852, 20.2133, -159.037, -93.1529, 63.7358
2.34382, -1, -32.2742, 1.94128, 20.2243, -159.088, -93.135, 63.4379
2.35182, -1, -32.4378, 1.89737, 20.2352, -159.14, -93.1168, 63.14
2.35983, -1, -32.6015, 1.8533, 20.246, -159.191, -93.0984, 62.8418
2.36782, -1, -32.7653, 1.80929, 20.257, -159.242, -93.0801, 62.5435
2.37582, -1, -32.9293, 1.76523, 20.2678, -159.293, -93.062, 62.2452
2.38394, -1, -33.0936, 1.72105, 20.2787, -159.344, -93.0442, 61.9468
2.39189, -1, -33.2584, 1.67688, 20.2896, -159.396, -93.0264, 61.6482
2.39983, -1, -33.4235, 1.63272, 20.3004, -159.447, -93.0086, 61.3496
2.40782, -1, -33.5891, 1.58853, 20.3114, -159.498, -92.9906, 61.0511
2.41588, -1, -33.7548, 1.54434, 20.3224, -159.549, -92.9721, 60.7522
2.42382, -1, -33.9205, 1.50019, 20.3333, -159.6, -92.9535, 60.4532
2.43182, -1, -34.0864, 1.45605, 20.3442, -159.651, -92.935, 60.1543
2.4399, -1, -34.2522, 1.41199, 20.355, -159.703, -92.9167, 59.8553
2.44782, -1, -34.4182, 1.36786, 20.3659, -159.754, -92.8988, 59.5558
2.45582, -1, -34.584, 1.32372, 20.3768, -159.806, -92.881, 59.2562
2.46393, -1, -34.7494, 1.27961, 20.3877, -159.857, -92.8632, 58.9569
2.47205, -1, -34.9144, 1.23545, 20.3986, -159.909, -92.8453, 58.6575
2.47935, -1, -35.0793, 1.19134, 20.4095, -159.96, -92.827, 58.3579
2.48797, -1, -35.2439, 1.1471, 20.4205, -160.012, -92.8084, 58.0582
2.49591, -1, -35.4083, 1.10286, 20.4316, -160.063, -92.79, 57.7586
2.50396, -1, -35.5718, 1.05886, 20.4428, -160.115, -92.7717, 57.4587
2.512, -1, -35.7331, 1.01527, 20.4542, -160.166, -92.7538, 57.1593
2.51994, -1, -35.8913, 0.97243, 20.4657, -160.216, -92.736, 56.862
2.52788, -1, -36.0451, 0.930887, 20.4776, -160.267, -92.7184, 56.5687
2.53596, -1, -36.1928, 0.89124, 20.4895, -160.315, -92.7011, 56.2829
2.54385, -1, -36.332, 0.854058, 20.5014, -160.362, -92.6842, 56.0096
2.55187, -1, -36.4609, 0.819934, 20.5126, -160.405, -92.6681, 55.7554
2.55994, -1, -36.578, 0.788942, 20.5225, -160.444, -92.6537, 55.5261
2.56796, -1, -36.6815, 0.761593, 20.531, -160.477, -92.6413, 55.3273
2.5749, -1, -36.7277, 0.749363, 20.5346, -160.492, -92.6359, 55.2406
2.58446, -1, -36.8447, 0.718235, 20.5417, -160.528, -92.6233, 55.0331
2.59215, -1, -36.9058, 0.702057, 20.5439, -160.544, -92.6177, 54.9379
2.59886, -1, -36.9315, 0.695305, 20.5444, -160.551, -92.6156, 54.9014
2.6087, -1, -36.99, 0.679836, 20.5447, -160.563, -92.6115, 54.828
2.61636, -1, -37.0157, 0.672949, 20.5443, -160.568, -92.6102, 54.8027
2.62435, -1, -37.0328, 0.668519, 20.5438, -160.57, -92.6095, 54.7887
2.63244, -1, -37.0429, 0.665997, 20.5435, -160.572, -92.6091, 54.7819
2.6404, 2, -37.0479, 0.664774, 20.5434, -160.572, -92.6089, 54.7787
2.6484, 2, -37.0488, 0.664454, 20.5433, -160.573, -92.6088, 54.7773
2.65674, 2, -37.0486, 0.664051, 20.5433, -160.573, -92.6088, 54.7767
2.66381, 2, -37.0483, 0.664008, 20.5433, -160.573, -92.6088, 54.7766
2.67184, 2, -37.048, 0.663969, 20.5433, -160.573, -92.6088, 54.7765
2.67988, 2, -37.0483, 0.663948, 20.5432, -160.573, -92.6088, 54.7765
2.68781, 2, -37.0492, 0.663931, 20.5432, -160.573, -92.6088, 54.7767
2.69581, 2, -37.0503, 0.663855, 20.5431, -160.573, -92.6089, 54.7769
2.70387, 2, -37.0516, 0.663713, 20.5429, -160.573, -92.609, 54.7772
2.71181, 2, -37.053, 0.663493, 20.5427, -160.573, -92.609, 54.7775
2.71984, 2, -37.0542, 0.66328, 20.5426, -160.573, -92.609, 54.7778
2.72786, 2, -37.0552, 0.663075, 20.5424, -160.573, -92.6091, 54.7781
2.73586, 2, -37.0557, 0.662954, 20.5423, -160.573, -92.6091, 54.7784
2.74381, 2, -37.0557, 0.662924, 20.5421, -160.573, -92.6092, 54.7787
2.75186, 2, -37.0552, 0.662917, 20.542, -160.573, -92.6092, 54.779
2.75978, 2, -37.0542, 0.662991, 20.5419, -160.573, -92.6093, 54.7793
2.76781, 2, -37.0532, 0.663071, 20.5418, -160.573, -92.6093, 54.7795
2.77482, 2, -37.0516, 0.663172, 20.5418, -160.573, -92.6093, 54.7798
2.78381, 2, -37.0501, 0.663347, 20.5417, -160.573, -92.6093, 54.78
2.7928, 2, -37.0489, 0.663447, 20.5416, -160.573, -92.6093, 54.7802
2.7999, 2, -37.0481, 0.663482, 20.5416, -160.573, -92.6093, 54.7803
2.80884, 2, -37.0478, 0.663472, 20.5416, -160.573, -92.6094, 54.7804
2.81582, 2, -37.0477, 0.663457, 20.5416, -160.573, -92.6094, 54.7804
2.82387, 2, -37.0479, 0.663393, 20.5416, -160.573, -92.6095, 54.7805
2.83181, 2, -37.0481, 0.663352, 20.5415, -160.573, -92.6095, 54.7805
2.83986, 2, -37.0485, 0.663307, 20.5415, -160.573, -92.6095, 54.7805
2.84786, 2, -37.0493, 0.663289, 20.5415, -160.573, -92.6095, 54.7806
2.8558, 2, -37.0501, 0.663286, 20.5415, -160.573, -92.6095, 54.7806
2.8639, 2, -37.0509, 0.663303, 20.5415, -160.573, -92.6095, 54.7806
2.87185, 2, -37.0515, 0.663303, 20.5415, -160.573, -92.6095, 54.7806
2.87982, 2, -37.0517, 0.663329, 20.5415, -160.573, -92.6095, 54.7806
2.88785, 2, -37.0518, 0.663348, 20.5415, -160.573, -92.6095, 54.7806
2.89585, 2, -37.0518, 0.663367, 20.5415, -160.573, -92.6095, 54.7806
2.90381, 2, -37.0516, 0.66337, 20.5415, -160.573, -92.6095, 54.7807
2.91182, 2, -37.0512, 0.663372, 20.5415, -160.573, -92.6095, 54.7808
2.91987, 2, -37.0509, 0.663361, 20.5414, -160.573, -92.6095, 54.7808
2.9278, 2, -37.0507, 0.663355, 20.5415, -160.573, -92.6095, 54.7808
2.93582, 2, -37.0505, 0.663324, 20.5415, -160.573, -92.6096, 54.7808
2.94386, 2, -37.0504, 0.663302, 20.5415, -160.573, -92.6095, 54.7808
2.9518, 2, -37.0504, 0.663291, 20.5414, -160.573, -92.6096, 54.7809
2.95983, 2, -37.0504, 0.663287, 20.5414, -160.573, -92.6096, 54.7809
2.96791, 2, -37.0504, 0.663285, 20.5414, -160.573, -92.6095, 54.7809
2.9758, 2, -37.0505, 0.663302, 20.5414, -160.573, -92.6095, 54.781
2.98385, 2, -37.0506, 0.663333, 20.5414, -160.573, -92.6095, 54.7811
2.99195, 2, -37.0508, 0.663355, 20.5414, -160.573, -92.6096, 54.7811
2.9999, 2, -37.051, 0.66336, 20.5414, -160.573, -92.6096, 54.7812
3.00799, 2, -37.0511, 0.663367, 20.5414, -160.573, -92.6096, 54.7812
3.01597, 2, -37.0511, 0.663363, 20.5414, -160.573, -92.6096, 54.7812
3.02391, 2, -37.0511, 0.663357, 20.5414, -160.573, -92.6097, 54.7812
3.03193, 2, -37.051, 0.663366, 20.5414, -160.573, -92.6097, 54.7812
3.03993, 2, -37.051, 0.663358, 20.5414, -160.573, -92.6097, 54.7812
3.04784, 2, -37.051, 0.663354, 20.5414, -160.573, -92.6097, 54.7813
3.05587, 2, -37.0509, 0.663334, 20.5413, -160.573, -92.6097, 54.7813
3.06422, 2, -37.0509, 0.663325, 20.5413, -160.573, -92.6097, 54.7813
3.07084, 2, -37.0509, 0.663322, 20.5413, -160.573, -92.6097, 54.7814
3.08007, 2, -37.0509, 0.663324, 20.5413, -160.572, -92.6098, 54.7815
3.0868, 2, -37.0509, 0.663333, 20.5413, -160.572, -92.6098, 54.7815
3.09611, 2, -37.0509, 0.663345, 20.5413, -160.572, -92.6098, 54.7815
3.10289, 2, -37.0509, 0.663354, 20.5413, -160.572, -92.6098, 54.7815
3.11285, 2, -37.0509, 0.663383, 20.5413, -160.572, -92.6097, 54.7816
3.12034, 2, -37.0509, 0.66339, 20.5413, -160.572, -92.6098, 54.7816
3.12831, 2, -37.0509, 0.663386, 20.5413, -160.572, -92.6098, 54.7817
3.13692, 2, -37.0509, 0.663374, 20.5413, -160.572, -92.6098, 54.7817
3.14436, 2, -37.0508, 0.663366, 20.5413, -160.572, -92.6098, 54.7817
3.15241, 2, -37.0508, 0.663358, 20.5413, -160.572, -92.6098, 54.7817
3.161, 2, -37.0508, 0.663354, 20.5413, -160.572, -92.6098, 54.7817
3.16779, 2, -37.0508, 0.663342, 20.5413, -160.572, -92.6098, 54.7817
3.17587, 2, -37.0508, 0.663328, 20.5413, -160.572, -92.6098, 54.7818
3.18473, 2, -37.0508, 0.663322, 20.5412, -160.572, -92.6098, 54.7818
3.19179, 2, -37.0508, 0.663319, 20.5412, -160.572, -92.6098, 54.7818
3.19985, 2, -37.0508, 0.663318, 20.5412, -160.572, -92.6098, 54.7818
3.2078, 2, -37.0508, 0.663328, 20.5412, -160.572, -92.6099, 54.7819
3.21579, 2, -37.0507, 0.66336, 20.5412, -160.572, -92.6099, 54.782
3.22385, 2, -37.0507, 0.663372, 20.5412, -160.572, -92.6098, 54.782
3.2318, 2, -37.0507, 0.663373, 20.5412, -160.572, -92.6099, 54.782
3.2398, 2, -37.0507, 0.663381, 20.5412, -160.572, -92.6098, 54.7821
3.24783, 2, -37.0506, 0.663382, 20.5412, -160.572, -92.6099, 54.7821
3.2558, 2, -37.0506, 0.663372, 20.5412, -160.572, -92.6099, 54.7822
3.26384, 2, -37.0506, 0.663366, 20.5412, -160.572, -92.6099, 54.7821
3.27179, 2, -37.0506, 0.663358, 20.5412, -160.572, -92.6099, 54.7821
3.27981, 2, -37.0506, 0.663354, 20.5412, -160.572, -92.6099, 54.7821
3.28783, 2, -37.0505, 0.663352, 20.5412, -160.572, -92.6099, 54.7821
3.29682, 2, -37.0505, 0.663351, 20.5411, -160.572, -92.6099, 54.7821
3.30385, 2, -37.0505, 0.663358, 20.5411, -160.572, -92.6099, 54.7822
3.31183, 2, -37.0505, 0.663372, 20.5411, -160.572, -92.6099, 54.7823
3.3198, 2, -37.0504, 0.663368, 20.5411, -160.572, -92.6099, 54.7822
3.3278, 2, -37.0504, 0.663371, 20.5411, -160.572, -92.6099, 54.7823
3.33583, 2, -37.0504, 0.663372, 20.5411, -160.572, -92.6099, 54.7823
3.34382, 2, -37.0504, 0.663378, 20.5411, -160.572, -92.6099, 54.7824
3.3518, 2, -37.0504, 0.663383, 20.5411, -160.572, -92.6099, 54.7824
3.35984, 2, -37.0504, 0.66339, 20.5411, -160.572, -92.6099, 54.7824
3.36778, 2, -37.0504, 0.663386, 20.5411, -160.572, -92.6099, 54.7824
3.3758, 2, -37.0504, 0.663387, 20.5411, -160.572, -92.6099, 54.7824
3.38384, 2, -37.0504, 0.663379, 20.5411, -160.572, -92.6099, 54.7824
3.39181, 2, -37.0503, 0.663369, 20.5411, -160.572, -92.6099, 54.7824
3.39981, 2, -37.0503, 0.663366, 20.5411, -160.572, -92.6099, 54.7824
3.40781, 2, -37.0503, 0.663363, 20.5411, -160.572, -92.6099, 54.7824
3.41579, 2, -37.0503, 0.663356, 20.541, -160.572, -92.6099, 54.7824
3.42383, 2, -37.0503, 0.663361, 20.541, -160.572, -92.6099, 54.7825
3.43181, 2, -37.0503, 0.66338, 20.541, -160.572, -92.61, 54.7825
3.4398, 2, -37.0502, 0.663389, 20.541, -160.572, -92.61, 54.7825
3.44794, 2, -37.0502, 0.663393, 20.541, -160.572, -92.61, 54.7825
3.4558, 2, -37.0502, 0.663387, 20.541, -160.572, -92.61, 54.7825
3.46379, 2, -37.0502, 0.663387, 20.541, -160.572, -92.61, 54.7825
3.47188, 2, -37.0502, 0.663385, 20.541, -160.572, -92.61, 54.7825
3.47985, 2, -37.0502, 0.663374, 20.541, -160.572, -92.61, 54.7825
3.48783, 2, -37.0502, 0.663384, 20.541, -160.572, -92.61, 54.7825
3.49591, 2, -37.0501, 0.663386, 20.541, -160.572, -92.61, 54.7825
3.50391, 2, -37.0501, 0.663372, 20.541, -160.572, -92.61, 54.7825
3.51194, 2, -37.0501, 0.663373, 20.541, -160.572, -92.61, 54.7826
3.51995, 2, -37.0501, 0.663373, 20.541, -160.572, -92.61, 54.7826
3.52791, 2, -37.0501, 0.663373, 20.541, -160.572, -92.61, 54.7826
3.53579, 2, -37.0501, 0.663373, 20.541, -160.572, -92.61, 54.7827
3.54401, 2, -37.05, 0.663381, 20.541, -160.572, -92.61, 54.7826
3.55183, 2, -37.05, 0.663389, 20.5409, -160.572, -92.61, 54.7826
3.55984, 2, -37.05, 0.663404, 20.5409, -160.572, -92.61, 54.7826
3.5679, 2, -37.05, 0.663407, 20.5409, -160.572, -92.61, 54.7826
3.57603, 2, -37.05, 0.663401, 20.5409, -160.572, -92.6101, 54.7826
3.58287, 2, -37.05, 0.663399, 20.5409, -160.572, -92.61, 54.7826
3.59208, 2, -37.05, 0.663397, 20.5409, -160.572, -92.6101, 54.7827
3.59877, 2, -37.05, 0.663397, 20.5409, -160.572, -92.61, 54.7828
3.60815, 2, -37.0499, 0.663384, 20.5409, -160.572, -92.6101, 54.7828
3.6148, 2, -37.0499, 0.663381, 20.5409, -160.572, -92.61, 54.7828
3.6244, 2, -37.0499, 0.663388, 20.5409, -160.572, -92.61, 54.7827
3.63232, 2, -37.0499, 0.663392, 20.5409, -160.572, -92.61, 54.7828
3.64075, 2, -37.0498, 0.663394, 20.5409, -160.572, -92.61, 54.7828
3.64677, 2, -37.0498, 0.663395, 20.5409, -160.572, -92.61, 54.7828
3.65629, 2, -37.0498, 0.663414, 20.5409, -160.572, -92.61, 54.7828
3.66434, 2, -37.0498, 0.663434, 20.5409, -160.572, -92.61, 54.7828
3.67238, 2, -37.0498, 0.66345, 20.5408, -160.572, -92.61, 54.7828
3.67978, 2, -37.0498, 0.663439, 20.5408, -160.572, -92.61, 54.7828
3.68777, 2, -37.0497, 0.663453, 20.5408, -160.572, -92.6101, 54.7828
3.69582, 2, -37.0497, 0.663459, 20.5408, -160.572, -92.61, 54.7828
3.70376, 4, -37.0497, 0.663432, 20.5408, -160.572, -92.61, 54.7829
3.71177, 4, -37.0497, 0.663424, 20.5408, -160.572, -92.61, 54.7829
3.71984, 4, -37.0496, 0.663435, 20.5408, -160.572, -92.6101, 54.7828
3.72777, 4, -37.0496, 0.663414, 20.5408, -160.571, -92.6101, 54.7828
3.73577, 4, -37.0496, 0.663433, 20.5408, -160.572, -92.61, 54.7828
3.74383, 4, -37.0495, 0.663421, 20.5408, -160.571, -92.6101, 54.7829
3.75177, 4, -37.0495, 0.663426, 20.5408, -160.571, -92.6101, 54.7829
3.75974, 4, -37.0495, 0.663439, 20.5408, -160.571, -92.6101, 54.7829
3.76677, 4, -37.0495, 0.663423, 20.5408, -160.571, -92.61, 54.7829
3.77577, 4, -37.0494, 0.663438, 20.5408, -160.571, -92.61, 54.7829
3.78377, 4, -37.0494, 0.663434, 20.5408, -160.571, -92.6101, 54.7829
3.79364, 4, -37.0494, 0.663455, 20.5408, -160.571, -92.6101, 54.7829
3.79978, 4, -37.0494, 0.663458, 20.5408, -160.571, -92.6101, 54.7829
3.82724, 4, -37.0493, 0.663434, 20.5407, -160.571, -92.6101, 54.7829
3.82856, 4, -37.0494, 0.663434, 20.5407, -160.571, -92.6101, 54.7829
3.83059, 4, -37.0494, 0.663422, 20.5407, -160.571, -92.6101, 54.7829
3.83188, 4, -37.0494, 0.663422, 20.5407, -160.571, -92.6101, 54.7829
3.83978, 4, -37.0493, 0.663437, 20.5407, -160.571, -92.6101, 54.7829
3.84781, 4, -37.0493, 0.663422, 20.5407, -160.571, -92.6101, 54.7829
3.85576, 4, -37.0492, 0.663408, 20.5407, -160.571, -92.6101, 54.7829
3.86383, 4, -37.0485, 0.663278, 20.5407, -160.571, -92.6101, 54.7829
3.87177, 4, -37.046, 0.662412, 20.5408, -160.571, -92.6102, 54.7829
3.87978, 4, -37.0406, 0.659958, 20.5415, -160.571, -92.6102, 54.7829
3.88783, 4, -37.0328, 0.65572, 20.5434, -160.571, -92.6101, 54.7829
3.89577, 4, -37.0236, 0.649982, 20.5471, -160.571, -92.6102, 54.7829
3.90377, 4, -37.0127, 0.642442, 20.5535, -160.569, -92.6101, 54.7829
3.91183, 5, -36.9995, 0.632619, 20.5629, -160.567, -92.6101, 54.7829
3.91978, 5, -36.9846, 0.620715, 20.5754, -160.565, -92.6101, 54.7828
3.92776, 5, -36.9687, 0.607179, 20.5911, -160.562, -92.6099, 54.7827
3.93583, 5, -36.9516, 0.592174, 20.6091, -160.558, -92.6097, 54.7826
3.94377, 5, -36.9321, 0.575092, 20.6288, -160.554, -92.6096, 54.7826
3.95177, 5, -36.9096, 0.555866, 20.6499, -160.549, -92.6093, 54.7824
3.95987, 5, -36.8848, 0.535446, 20.6716, -160.545, -92.6092, 54.7823
3.96778, 5, -36.8583, 0.51455, 20.6935, -160.54, -92.6089, 54.7822
3.97588, 5, -36.8313, 0.493057, 20.7157, -160.535, -92.6086, 54.782
3.98385, 5, -36.8039, 0.471395, 20.738, -160.53, -92.6083, 54.7819
3.99184, 5, -36.7764, 0.449921, 20.7604, -160.525, -92.6078, 54.7817
3.99993, 5, -36.7489, 0.428216, 20.7828, -160.52, -92.6074, 54.7816
4.00787, 5, -36.7214, 0.406533, 20.8051, -160.515, -92.6068, 54.7814
4.0159, 5, -36.694, 0.385032, 20.8275, -160.51, -92.6063, 54.7814
4.02399, 5, -36.6668, 0.36343, 20.8499, -160.505, -92.6056, 54.7812
4.03188, 5, -36.6395, 0.342042, 20.8725, -160.5, -92.605, 54.7811
4.03978, 5, -36.6122, 0.320723, 20.8949, -160.495, -92.6043, 54.7811
4.04786, 5, -36.5849, 0.299363, 20.9173, -160.489, -92.6037, 54.781
4.0558, 5, -36.5577, 0.278127, 20.9398, -160.485, -92.603, 54.7809
4.06389, 5, -36.5306, 0.256698, 20.9622, -160.48, -92.6023, 54.7808
4.07195, 5, -36.5036, 0.23512, 20.9848, -160.475, -92.6016, 54.7807
4.0801, 5, -36.4767, 0.213671, 21.0072, -160.47, -92.6009, 54.7806
4.08676, 5, -36.4632, 0.202914, 21.0183, -160.468, -92.6005, 54.7805
4.09607, 5, -36.4222, 0.170522, 21.0518, -160.461, -92.5995, 54.7802
4.10281, 5, -36.4084, 0.159785, 21.0629, -160.459, -92.5992, 54.7801
4.11226, 5, -36.3667, 0.127376, 21.0965, -160.452, -92.5981, 54.7797
4.11877, 5, -36.3528, 0.116548, 21.1077, -160.45, -92.5978, 54.7795
4.12864, 5, -36.3112, 0.0844075, 21.1411, -160.443, -92.5967, 54.779
4.13639, 5, -36.2836, 0.0629103, 21.1634, -160.439, -92.596, 54.7787
4.14441, 5, -36.2559, 0.0415038, 21.1857, -160.434, -92.5954, 54.7782
4.15238, 5, -36.242, 0.0202045, 21.208, -160.429, -92.5946, 54.7777
4.16048, 5, -36.2004, -0.00112418, 21.2302, -160.425, -92.5939, 54.7773
4.16776, 5, -36.1866, -0.0117816, 21.2413, -160.422, -92.5936, 54.777
4.17576, 5, -36.159, -0.0329839, 21.2636, -160.418, -92.5929, 54.7764
4.1839, 5, -36.1317, -0.0542371, 21.2858, -160.413, -92.5922, 54.7759
4.19176, 5, -36.1042, -0.075518, 21.3081, -160.408, -92.5915, 54.7753
4.19977, 5, -36.0767, -0.0967535, 21.3303, -160.404, -92.5909, 54.7748
4.20779, 5, -36.0492, -0.11812, 21.3523, -160.399, -92.5902, 54.7743
4.21576, 5, -36.0216, -0.13944, 21.3744, -160.394, -92.5896, 54.7738
4.22385, 5, -35.9939, -0.160719, 21.3965, -160.389, -92.5889, 54.7733
4.23176, 5, -35.9661, -0.182065, 21.4186, -160.383, -92.5882, 54.7729
4.23978, 5, -35.9382, -0.203328, 21.4408, -160.378, -92.5875, 54.7724
4.24781, 5, -35.9102, -0.224538, 21.4628, -160.373, -92.5869, 54.772
4.25575, 5, -35.8823, -0.245819, 21.4848, -160.368, -92.5863, 54.7717
4.26396, 5, -35.8544, -0.26701, 21.5068, -160.362, -92.5856, 54.7713
4.2718, 5, -35.8265, -0.288051, 21.5287, -160.357, -92.585, 54.7709
4.27977, 5, -35.7986, -0.309172, 21.5508, -160.352, -92.5844, 54.7706
4.28776, 5, -35.7706, -0.330273, 21.5726, -160.347, -92.5837, 54.7703
4.29675, 5, -35.7426, -0.351317, 21.5945, -160.342, -92.5831, 54.7701
4.30381, 5, -35.7149, -0.372434, 21.6165, -160.337, -92.5824, 54.7698
4.31275, 5, -35.6872, -0.393535, 21.6383, -160.332, -92.5818, 54.7696
4.31983, 5, -35.6595, -0.414583, 21.6602, -160.327, -92.5812, 54.7694
4.32775, 5, -35.6317, -0.435702, 21.6819, -160.322, -92.5805, 54.7693
4.33576, 5, -35.6038, -0.456724, 21.7036, -160.318, -92.5799, 54.7691
4.34387, 5, -35.5758, -0.477825, 21.7253, -160.313, -92.5793, 54.769
4.35184, 5, -35.5479, -0.498972, 21.7471, -160.308, -92.5786, 54.7689
4.35978, 5, -35.5199, -0.519963, 21.7689, -160.303, -92.578, 54.7689
4.36782, 5, -35.492, -0.540941, 21.7905, -160.298, -92.5774, 54.7688
4.37575, 5, -35.4638, -0.561931, 21.8122, -160.294, -92.5768, 54.7687
4.3847, 5, -35.4357, -0.582793, 21.8338, -160.289, -92.5762, 54.7687
4.39085, 5, -35.4076, -0.603694, 21.8553, -160.284, -92.5755, 54.7686
4.39977, 5, -35.3794, -0.624656, 21.877, -160.279, -92.5749, 54.7687
4.40863, 5, -35.3513, -0.645478, 21.8985, -160.274, -92.5743, 54.7686
4.41575, 5, -35.3233, -0.666302, 21.92, -160.269, -92.5737, 54.7686
4.42381, 5, -35.2951, -0.687207, 21.9416, -160.264, -92.5731, 54.7687
4.43254, 5, -35.267, -0.708046, 21.963, -160.259, -92.5724, 54.7687
4.43976, 5, -35.2389, -0.728864, 21.9845, -160.254, -92.5718, 54.7686
4.44775, 5, -35.2107, -0.749755, 22.0059, -160.249, -92.5712, 54.7686
4.45654, 5, -35.1826, -0.770501, 22.0272, -160.244, -92.5705, 54.7686
4.46382, 5, -35.1543, -0.791188, 22.0485, -160.238, -92.5699, 54.7686
4.47178, 5, -35.1259, -0.811967, 22.0699, -160.233, -92.5693, 54.7687
4.48136, 5, -35.0977, -0.832616, 22.0913, -160.227, -92.5686, 54.7687
4.48778, 5, -35.0696, -0.853323, 22.1127, -160.222, -92.568, 54.7688
4.49589, 5, -35.0413, -0.874175, 22.1339, -160.216, -92.5673, 54.7688
4.50409, 5, -35.0131, -0.894839, 22.1552, -160.211, -92.5666, 54.7688
4.51185, 5, -34.9847, -0.915466, 22.1763, -160.206, -92.566, 54.7688
4.51996, 5, -34.9563, -0.936192, 22.1975, -160.2, -92.5655, 54.7688
4.5282, 5, -34.9281, -0.956799, 22.2188, -160.195, -92.5648, 54.7689
4.53609, 5, -34.8999, -0.977396, 22.2398, -160.19, -92.5642, 54.7689
4.54406, 5, -34.8716, -0.998086, 22.261, -160.185, -92.5636, 54.769
4.5508, 5, -34.8574, -1.00839, 22.2716, -160.183, -92.5633, 54.769
4.55874, 5, -34.829, -1.02883, 22.2926, -160.178, -92.5626, 54.769
4.5678, 5, -34.7863, -1.05957, 22.3243, -160.171, -92.5616, 54.7691
4.57662, 5, -34.758, -1.08008, 22.3453, -160.166, -92.561, 54.7691
4.58397, 5, -34.7296, -1.10048, 22.3662, -160.161, -92.5604, 54.7691
4.59075, 5, -34.7154, -1.11077, 22.3767, -160.158, -92.56, 54.7692
4.60092, 5, -34.6727, -1.14165, 22.4082, -160.151, -92.5591, 54.7694
4.60819, 5, -34.6441, -1.16208, 22.4293, -160.146, -92.5585, 54.7695
4.61474, 5, -34.6298, -1.17233, 22.4398, -160.144, -92.5582, 54.7696
4.62509, 5, -34.587, -1.20305, 22.471, -160.136, -92.5572, 54.7699
4.6309, 5, -34.5728, -1.21327, 22.4814, -160.134, -92.5568, 54.77
4.64027, 5, -34.5299, -1.24404, 22.5126, -160.126, -92.5558, 54.7704
4.64911, 5, -34.5012, -1.26442, 22.5334, -160.121, -92.5551, 54.7708
4.6548, 5, -34.487, -1.27456, 22.5439, -160.118, -92.5548, 54.771
4.66429, 5, -34.4584, -1.29491, 22.5646, -160.113, -92.5541, 54.7718
4.67174, 5, -34.4299, -1.31522, 22.5853, -160.108, -92.5535, 54.7722
4.67878, 5, -34.4013, -1.3354, 22.6061, -160.103, -92.5528, 54.7729
4.68778, 5, -34.3726, -1.35572, 22.6268, -160.097, -92.5521, 54.7736
4.6958, 5, -34.3438, -1.37606, 22.6475, -160.091, -92.5515, 54.7745
4.70275, 5, -34.3151, -1.39621, 22.6681, -160.086, -92.5508, 54.7755
4.71173, 5, -34.2865, -1.41641, 22.6886, -160.08, -92.5502, 54.7766
4.71979, 5, -34.2579, -1.43673, 22.7093, -160.074, -92.5495, 54.7777
4.72673, 5, -34.2293, -1.4569, 22.7298, -160.069, -92.5488, 54.7789
4.73575, 5, -34.2004, -1.47706, 22.7504, -160.063, -92.5481, 54.7801
4.74378, 5, -34.1716, -1.49735, 22.7711, -160.058, -92.5474, 54.7814
4.75094, 5, -34.1428, -1.51748, 22.7915, -160.052, -92.5468, 54.7826
4.75955, 5, -34.1141, -1.53753, 22.8121, -160.047, -92.5461, 54.7839
4.76783, 5, -34.0854, -1.55771, 22.8325, -160.041, -92.5454, 54.7852
4.77575, 5, -34.0566, -1.57771, 22.8529, -160.036, -92.5447, 54.7866
4.78373, 5, -34.0277, -1.59775, 22.8734, -160.031, -92.5441, 54.788
4.79182, 5, -33.999, -1.61794, 22.8938, -160.026, -92.5434, 54.7894
4.79977, 5, -33.9701, -1.63792, 22.9141, -160.021, -92.5426, 54.7907
4.8078, 5, -33.9412, -1.65784, 22.9345, -160.015, -92.542, 54.7921
4.81579, 5, -33.9123, -1.67793, 22.9549, -160.01, -92.5413, 54.7936
4.82375, 5, -33.8833, -1.69782, 22.9752, -160.005, -92.5406, 54.795
4.83181, 5, -33.8543, -1.71775, 22.9956, -160, -92.5398, 54.7965
4.83974, 5, -33.8255, -1.73784, 23.0157, -159.995, -92.5392, 54.7979
4.84804, 5, -33.7966, -1.75774, 23.0358, -159.989, -92.5385, 54.7992
4.8589, 5, -33.7532, -1.78759, 23.0662, -159.981, -92.5375, 54.8014
4.86376, 5, -33.7386, -1.79761, 23.0763, -159.979, -92.5371, 54.8022
4.87162, 5, -33.7094, -1.81752, 23.0966, -159.973, -92.5364, 54.8037
4.87974, 5, -33.6804, -1.83735, 23.1167, -159.968, -92.5357, 54.8051
4.88774, 5, -33.6515, -1.8573, 23.1368, -159.962, -92.5349, 54.8065
4.89675, 5, -33.6226, -1.87719, 23.1569, -159.956, -92.5343, 54.808
4.90374, 5, -33.5936, -1.89694, 23.1769, -159.951, -92.5335, 54.8094
4.91176, 5, -33.5644, -1.91675, 23.197, -159.945, -92.5328, 54.8109
4.92065, 5, -33.5354, -1.93656, 23.2171, -159.939, -92.5321, 54.8124
4.92773, 5, -33.5063, -1.95629, 23.2369, -159.933, -92.5314, 54.814
4.93576, 5, -33.4772, -1.9762, 23.2569, -159.927, -92.5307, 54.8154
4.94476, 5, -33.4481, -1.9962, 23.277, -159.922, -92.53, 54.8169
4.95501, 5, -33.419, -2.01607, 23.2969, -159.913, -92.5288, 54.819
4.95896, 5, -33.3898, -2.03612, 23.317, -159.91, -92.5284, 54.8197
4.96851, 5, -33.3609, -2.05629, 23.3371, -159.904, -92.5274, 54.8209
4.97573, 5, -33.332, -2.0764, 23.3571, -159.899, -92.5263, 54.822
4.9838, 5, -33.3031, -2.09681, 23.3774, -159.893, -92.525, 54.8228
4.99401, 6, -33.2741, -2.11738, 23.3978, -159.887, -92.5236, 54.8235
4.99988, 6, -33.2451, -2.13786, 23.4184, -159.881, -92.5218, 54.8239
5.00783, 6, -33.2164, -2.15871, 23.4393, -159.875, -92.5199, 54.8242
5.01623, 6, -33.1879, -2.17981, 23.4602, -159.869, -92.5178, 54.8244
5.02334, 6, -33.1595, -2.20096, 23.4812, -159.862, -92.5154, 54.8244
5.03185, 6, -33.1311, -2.2225, 23.5024, -159.856, -92.5128, 54.8243
5.04025, 6, -33.1027, -2.24423, 23.5238, -159.849, -92.51, 54.8241
5.04791, 6, -33.0744, -2.26599, 23.5454, -159.842, -92.507, 54.824
5.0547, 6, -33.0603, -2.27702, 23.5562, -159.838, -92.5054, 54.8239
5.06376, 6, -33.0182, -2.31043, 23.5888, -159.827, -92.5004, 54.8231
5.07194, 6, -32.9902, -2.33294, 23.6109, -159.819, -92.4967, 54.8224
5.07985, 6, -32.9623, -2.35585, 23.6331, -159.811, -92.493, 54.8214
5.08791, 6, -32.9343, -2.37879, 23.6555, -159.803, -92.4889, 54.8204
5.09639, 7, -32.9066, -2.40197, 23.6779, -159.794, -92.4847, 54.8194
5.10404, 7, -32.8791, -2.42536, 23.7005, -159.785, -92.4803, 54.818
5.11077, 7, -32.8653, -2.43707, 23.7119, -159.781, -92.4781, 54.817
5.12025, 7, -32.8242, -2.47281, 23.7463, -159.768, -92.4712, 54.8129
5.12822, 7, -32.7968, -2.49683, 23.7696, -159.758, -92.4662, 54.8095
5.13634, 7, -32.7694, -2.52103, 23.7929, -159.75, -92.4611, 54.8056
5.14469, 7, -32.7423, -2.54558, 23.8163, -159.741, -92.4558, 54.8012
5.15234, 7, -32.7152, -2.57022, 23.8399, -159.731, -92.4502, 54.7964
5.16042, 7, -32.6883, -2.59524, 23.8637, -159.722, -92.4445, 54.7912
5.16859, 7, -32.6749, -2.62042, 23.8876, -159.713, -92.4385, 54.7858
5.1757, 7, -32.6481, -2.63303, 23.8996, -159.708, -92.4354, 54.7829
5.1845, 7, -32.6212, -2.6585, 23.9238, -159.698, -92.4291, 54.7739
5.19177, 7, -32.5946, -2.68416, 23.9482, -159.689, -92.4226, 54.7708
5.19969, 8, -32.568, -2.71008, 23.9727, -159.678, -92.4156, 54.7644
5.20777, 8, -32.5415, -2.73632, 23.9974, -159.668, -92.4084, 54.7575
5.21577, 8, -32.5151, -2.76266, 24.0221, -159.657, -92.4009, 54.7505
5.22372, 8, -32.4887, -2.78923, 24.0471, -159.646, -92.393, 54.7431
5.23173, 8, -32.4624, -2.81594, 24.0722, -159.635, -92.3847, 54.7355
5.23972, 8, -32.4363, -2.84305, 24.0976, -159.624, -92.3761, 54.7276
5.24772, 8, -32.4103, -2.87023, 24.1231, -159.612, -92.3672, 54.7193
5.25577, 8, -32.3843, -2.89764, 24.1487, -159.601, -92.3582, 54.7108
5.26388, 8, -32.3585, -2.92531, 24.1744, -159.59, -92.3491, 54.7021
5.27171, 8, -32.3327, -2.95313, 24.2004, -159.579, -92.3399, 54.6928
5.27979, 8, -32.3069, -2.98131, 24.2265, -159.567, -92.3307, 54.6833
5.28772, 8, -32.2814, -3.00957, 24.2527, -159.556, -92.3214, 54.6735
5.29817, 8, -32.256, -3.03805, 24.2792, -159.544, -92.3119, 54.6583
5.30272, 9, -32.2306, -3.06673, 24.3058, -159.532, -92.3023, 54.6531
5.31174, 9, -32.2053, -3.09573, 24.3325, -159.519, -92.2925, 54.6425
5.31983, 9, -32.18, -3.12486, 24.3593, -159.506, -92.2825, 54.6318
5.32772, 9, -32.1547, -3.15427, 24.3862, -159.493, -92.2723, 54.6211
5.33573, 9, -32.1296, -3.18383, 24.4135, -159.48, -92.2617, 54.6103
5.34378, 9, -32.1047, -3.21369, 24.4409, -159.467, -92.2506, 54.5993
5.35173, 9, -32.0797, -3.24379, 24.4684, -159.454, -92.2391, 54.5883
5.35991, 9, -32.0549, -3.27409, 24.496, -159.441, -92.2272, 54.577
5.36854, 9, -32.0302, -3.30464, 24.5238, -159.428, -92.2152, 54.5655
5.37504, 9, -32.0054, -3.33542, 24.5518, -159.415, -92.203, 54.5538
5.38379, 9, -31.9807, -3.3664, 24.5798, -159.401, -92.1908, 54.5417
5.39173, 9, -31.9564, -3.39758, 24.6081, -159.387, -92.1785, 54.5294
5.39972, 9, -31.9321, -3.42897, 24.6366, -159.373, -92.1661, 54.5167
5.4088, 10, -31.9078, -3.46072, 24.6652, -159.358, -92.1536, 54.5035
5.41571, 10, -31.8838, -3.49258, 24.6939, -159.343, -92.1409, 54.4899
5.42379, 10, -31.8597, -3.52466, 24.7227, -159.329, -92.1278, 54.476
5.43172, 10, -31.8356, -3.55697, 24.7519, -159.314, -92.1143, 54.4617
5.43971, 10, -31.8117, -3.5896, 24.7813, -159.3, -92.1004, 54.4472
5.44779, 10, -31.788, -3.62234, 24.8106, -159.285, -92.086, 54.4327
5.45571, 10, -31.7643, -3.65533, 24.8401, -159.271, -92.0713, 54.4182
5.46553, 10, -31.7407, -3.68859, 24.8699, -159.256, -92.0567, 54.4036
5.47179, 10, -31.7173, -3.72213, 24.8999, -159.24, -92.042, 54.3889
5.4798, 10, -31.6937, -3.75576, 24.9299, -159.224, -92.0273, 54.374
5.48777, 10, -31.6702, -3.78956, 24.9601, -159.208, -92.0126, 54.3589
5.49581, 10, -31.647, -3.82373, 24.9906, -159.193, -91.9978, 54.3434
5.50401, 10, -31.6236, -3.8581, 25.0211, -159.177, -91.9827, 54.3276
5.51188, 11, -31.6003, -3.89263, 25.0517, -159.161, -91.9672, 54.3113
5.51982, 11, -31.5773, -3.92733, 25.0827, -159.145, -91.9511, 54.2946
5.5283, 11, -31.5542, -3.96243, 25.1138, -159.129, -91.9345, 54.2775
5.53529, 11, -31.5427, -3.98006, 25.1449, -159.112, -91.9179, 54.2602
5.54372, 11, -31.5083, -4.03317, 25.1763, -159.095, -91.9012, 54.243
5.55236, 11, -31.4857, -4.06893, 25.2079, -159.078, -91.8845, 54.2258
5.56131, 11, -31.4631, -4.10497, 25.2396, -159.061, -91.8678, 54.2085
5.56774, 11, -31.4405, -4.14115, 25.2714, -159.043, -91.8509, 54.1911
5.57577, 11, -31.418, -4.17758, 25.3035, -159.026, -91.8336, 54.1732
5.58393, 11, -31.3956, -4.21438, 25.3357, -159.009, -91.8159, 54.1551
5.59191, 11, -31.3731, -4.25132, 25.368, -158.991, -91.7976, 54.1365
5.59878, 11, -31.3619, -4.26982, 25.3842, -158.983, -91.7884, 54.127
5.60846, 12, -31.3288, -4.32579, 25.4334, -158.956, -91.7604, 54.0977
5.61609, 12, -31.3068, -4.36341, 25.4662, -158.937, -91.742, 54.0778
5.62275, 12, -31.2958, -4.38228, 25.4827, -158.928, -91.7327, 54.0679
5.63227, 12, -31.2631, -4.43927, 25.5325, -158.9, -91.7049, 54.0383
5.64023, 12, -31.2413, -4.47753, 25.5659, -158.881, -91.686, 54.0185
5.64829, 12, -31.2195, -4.51594, 25.5993, -158.863, -91.6665, 53.9986
5.65636, 12, -31.1978, -4.55465, 25.633, -158.844, -91.6466, 53.9785
5.66427, 12, -31.1871, -4.57412, 25.65, -158.825, -91.6264, 53.9579
5.67235, 12, -31.1656, -4.61315, 25.6839, -158.806, -91.6064, 53.9369
5.68058, 12, -31.1442, -4.6524, 25.7179, -158.796, -91.5864, 53.9151
5.68771, 12, -31.123, -4.69189, 25.7523, -158.776, -91.5763, 53.9043
5.69578, 12, -31.1018, -4.73159, 25.7867, -158.756, -91.556, 53.8824
5.70373, 12, -31.0806, -4.77164, 25.8212, -158.737, -91.5352, 53.8606
5.71168, 13, -31.0593, -4.81192, 25.8559, -158.717, -91.5138, 53.8387
5.71975, 13, -31.0382, -4.85242, 25.8909, -158.698, -91.492, 53.8166
5.72776, 13, -31.0173, -4.89315, 25.9259, -158.678, -91.4702, 53.7942
5.7357, 13, -30.9964, -4.93421, 25.9611, -158.657, -91.4486, 53.7713
5.7437, 13, -30.9756, -4.97549, 25.9966, -158.637, -91.4269, 53.748
5.75182, 13, -30.955, -5.01696, 26.0321, -158.616, -91.4052, 53.7242
5.7597, 13, -30.9345, -5.05869, 26.0678, -158.595, -91.3829, 53.7002
5.76777, 13, -30.9139, -5.10061, 26.1039, -158.575, -91.3601, 53.6765
5.77584, 13, -30.8934, -5.14273, 26.1399, -158.554, -91.337, 53.6525
5.78386, 13, -30.873, -5.18511, 26.176, -158.533, -91.314, 53.6284
5.79073, 13, -30.8528, -5.22764, 26.2125, -158.512, -91.2909, 53.604
5.7997, 13, -30.8326, -5.2703, 26.2491, -158.49, -91.2678, 53.5791
5.80875, 13, -30.8125, -5.31333, 26.2858, -158.468, -91.2443, 53.5537
5.8147, 14, -30.7927, -5.35655, 26.3228, -158.447, -91.2202, 53.528
5.82407, 14, -30.7728, -5.3999, 26.3597, -158.425, -91.1957, 53.5025
5.8317, 14, -30.7529, -5.44356, 26.3969, -158.404, -91.1714, 53.4773
5.8397, 14, -30.7331, -5.48747, 26.4344, -158.382, -91.1472, 53.4518
5.84851, 14, -30.7133, -5.53165, 26.4719, -158.359, -91.1229, 53.426
5.8547, 14, -30.6937, -5.57615, 26.5095, -158.337, -91.0982, 53.3998
5.86375, 14, -30.6741, -5.6208, 26.5474, -158.314, -91.0727, 53.3728
5.87274, 14, -30.6547, -5.66569, 26.5854, -158.292, -91.0468, 53.3453
5.88357, 14, -30.6258, -5.73363, 26.6428, -158.258, -91.0083, 53.3042
5.8877, 14, -30.6162, -5.75636, 26.662, -158.246, -90.9955, 53.2905
5.89646, 14, -30.5969, -5.80198, 26.7004, -158.223, -90.9697, 53.2632
5.90371, 14, -30.5778, -5.84783, 26.7391, -158.199, -90.9433, 53.2357
5.91173, 14, -30.5588, -5.89392, 26.778, -158.176, -90.9162, 53.2078
5.9216, 15, -30.54, -5.94015, 26.817, -158.153, -90.8893, 53.1792
5.92769, 15, -30.5211, -5.98656, 26.8561, -158.13, -90.8624, 53.1503
5.93576, 15, -30.5024, -6.0332, 26.8956, -158.106, -90.8358, 53.1216
5.94372, 15, -30.4839, -6.08006, 26.9351, -158.081, -90.8087, 53.0929
5.95174, 15, -30.4654, -6.12712, 26.9748, -158.057, -90.7809, 53.064
5.95973, 15, -30.4469, -6.17442, 27.0146, -158.032, -90.7529, 53.0345
5.96775, 15, -30.4283, -6.22188, 27.0545, -158.008, -90.7251, 53.0045
5.97749, 15, -30.41, -6.26973, 27.0947, -157.983, -90.6971, 52.974
5.98303, 15, -30.3917, -6.31787, 27.135, -157.959, -90.669, 52.9438
5.99201, 15, -30.3735, -6.36618, 27.1754, -157.933, -90.6399, 52.9136
5.99975, 15, -30.3554, -6.41488, 27.216, -157.908, -90.6106, 52.8832
6.00781, 15, -30.3375, -6.4639, 27.2568, -157.882, -90.5815, 52.8523
6.01624, 15, -30.3197, -6.51306, 27.2978, -157.857, -90.5526, 52.8207
6.02326, 16, -30.3019, -6.56247, 27.3388, -157.832, -90.5234, 52.7886
6.03184, 16, -30.284, -6.61208, 27.3801, -157.806, -90.4934, 52.7569
6.04052, 16, -30.2662, -6.66193, 27.4216, -157.78, -90.4631, 52.7254
6.04733, 16, -30.2573, -6.68693, 27.4424, -157.754, -90.4331, 52.6934
6.0557, 16, -30.231, -6.76206, 27.505, -157.728, -90.4032, 52.6613
6.06471, 16, -30.2134, -6.81248, 27.547, -157.703, -90.3728, 52.6284
6.07614, 16, -30.1961, -6.86304, 27.6103, -157.663, -90.3258, 52.5788
6.07865, 16, -30.1874, -6.88838, 27.6103, -157.663, -90.3258, 52.5788
6.08788, 16, -30.1617, -6.96481, 27.674, -157.623, -90.2791, 52.5297
6.09672, 16, -30.1444, -7.01608, 27.7165, -157.596, -90.2481, 52.4966
6.10402, 16, -30.1272, -7.06773, 27.7593, -157.569, -90.2164, 52.463
6.1107, 16, -30.1187, -7.0936, 27.7808, -157.556, -90.2003, 52.4459
6.12086, 16, -30.0932, -7.17175, 27.8452, -157.516, -90.1521, 52.3948
6.12824, 17, -30.0764, -7.22424, 27.8885, -157.488, -90.1201, 52.3611
6.13627, 17, -30.0597, -7.27692, 27.9318, -157.46, -90.0879, 52.3273
6.14522, 17, -30.043, -7.32986, 27.9754, -157.433, -90.0547, 52.2929
6.15071, 17, -30.0348, -7.35642, 27.9972, -157.42, -90.038, 52.2753
6.16056, 17, -30.0102, -7.4364, 28.0629, -157.378, -89.9886, 52.2221
6.16905, 17, -30.002, -7.46311, 28.0849, -157.364, -89.9558, 52.1869
6.17471, 17, -29.9856, -7.51666, 28.1292, -157.335, -89.9392, 52.1694
6.18476, 17, -29.961, -7.59732, 28.1957, -157.293, -89.888, 52.1162
6.19262, 17, -29.9529, -7.62427, 28.218, -157.265, -89.8542, 52.08
6.20122, 17, -29.9287, -7.70546, 28.2851, -157.237, -89.8205, 52.0434
6.20772, 17, -29.9207, -7.73266, 28.3075, -157.222, -89.8035, 52.0253
6.21572, 17, -29.9046, -7.78726, 28.3525, -157.192, -89.7687, 51.9891
6.22371, 17, -29.8887, -7.84208, 28.3976, -157.163, -89.7336, 51.9528
6.2317, 18, -29.8729, -7.89725, 28.4429, -157.135, -89.6991, 51.9158
6.23972, 18, -29.8572, -7.95273, 28.4882, -157.106, -89.6646, 51.8782
6.24768, 18, -29.8415, -8.00853, 28.5337, -157.076, -89.6293, 51.8407
6.25575, 18, -29.8258, -8.06452, 28.5795, -157.045, -89.5936, 51.8036
6.26376, 18, -29.8102, -8.12082, 28.6254, -157.016, -89.5582, 51.766
6.27169, 18, -29.7947, -8.17734, 28.6715, -156.986, -89.5228, 51.728
6.27968, 18, -29.7793, -8.23388, 28.7177, -156.956, -89.4867, 51.6892
6.2879, 18, -29.7639, -8.29072, 28.7643, -156.926, -89.4499, 51.6507
6.29565, 18, -29.7486, -8.34762, 28.8109, -156.895, -89.4135, 51.6124
6.30471, 18, -29.7334, -8.40466, 28.8577, -156.865, -89.3774, 51.574
6.31176, 18, -29.7184, -8.46186, 28.9048, -156.835, -89.3405, 51.5349
6.32075, 18, -29.7034, -8.51931, 28.952, -156.804, -89.3031, 51.4952
6.32769, 19, -29.6884, -8.57705, 28.9994, -156.773, -89.2661, 51.4561
6.33568, 19, -29.6735, -8.63505, 29.0468, -156.742, -89.2291, 51.417
6.3437, 19, -29.6585, -8.6934, 29.0945, -156.711, -89.1913, 51.3777
6.35175, 19, -29.6437, -8.752, 29.1421, -156.68, -89.1531, 51.3377
6.35968, 19, -29.6289, -8.81093, 29.1899, -156.649, -89.1153, 51.2974
6.36776, 19, -29.6143, -8.87011, 29.238, -156.617, -89.0777, 51.2579
6.3757, 19, -29.5998, -8.92951, 29.2861, -156.586, -89.0392, 51.218
6.38394, 19, -29.5854, -8.98905, 29.3345, -156.554, -89.0006, 51.1776
6.3925, 19, -29.5711, -9.04881, 29.383, -156.522, -88.9623, 51.1363
6.39969, 19, -29.557, -9.10864, 29.4318, -156.49, -88.9238, 51.0952
6.40776, 19, -29.5428, -9.1686, 29.4807, -156.457, -88.8844, 51.0544
6.41568, 19, -29.5287, -9.22878, 29.5297, -156.425, -88.8451, 51.0131
6.42367, 19, -29.5145, -9.2891, 29.5791, -156.393, -88.8063, 50.9713
6.43279, 20, -29.5004, -9.34967, 29.6285, -156.36, -88.767, 50.9292
6.44067, 20, -29.4864, -9.41054, 29.678, -156.327, -88.727, 50.8874
6.44868, 20, -29.4726, -9.47167, 29.7277, -156.294, -88.6873, 50.8455
6.45642, 20, -29.4588, -9.53309, 29.7775, -156.261, -88.6477, 50.803
6.46374, 20, -29.4451, -9.59476, 29.8274, -156.228, -88.6074, 50.7598
6.47168, 20, -29.4314, -9.65676, 29.8774, -156.194, -88.5666, 50.717
6.48068, 20, -29.4178, -9.71896, 29.9277, -156.16, -88.5264, 50.6744
6.48941, 20, -29.4044, -9.78139, 29.9781, -156.127, -88.4862, 50.6312
6.49571, 20, -29.3911, -9.8439, 30.0287, -156.093, -88.4448, 50.5874
6.50377, 20, -29.3778, -9.90664, 30.0796, -156.059, -88.4037, 50.5438
6.51184, 20, -29.3645, -9.96946, 30.1306, -156.024, -88.3629, 50.5004
6.51978, 20, -29.3511, -10.0325, 30.1817, -155.99, -88.3213, 50.4568
6.52852, 20, -29.3379, -10.0956, 30.233, -155.956, -88.2792, 50.4126
6.53588, 21, -29.3248, -10.1591, 30.2845, -155.921, -88.2377, 50.3682
6.54381, 21, -29.3118, -10.2228, 30.336, -155.886, -88.1962, 50.3241
6.55365, 21, -29.2988, -10.2867, 30.3877, -155.852, -88.1537, 50.2799
6.56069, 21, -29.2859, -10.3508, 30.4395, -155.817, -88.1115, 50.2352
6.56776, 21, -29.273, -10.4153, 30.4914, -155.782, -88.0696, 50.1904
6.57572, 21, -29.2603, -10.4798, 30.5434, -155.747, -88.0268, 50.1462
6.58388, 21, -29.2477, -10.5447, 30.5956, -155.712, -87.9835, 50.1018
6.59183, 21, -29.2351, -10.6097, 30.648, -155.677, -87.941, 50.0568
6.59993, 21, -29.2225, -10.6748, 30.7005, -155.641, -87.8982, 50.0113
6.61051, 21, -29.21, -10.7401, 30.7532, -155.605, -87.8544, 49.9663
6.61605, 21, -29.1974, -10.8055, 30.8062, -155.569, -87.8111, 49.9213
6.62271, 21, -29.1911, -10.8383, 30.8326, -155.551, -87.7897, 49.8985
6.63296, 21, -29.1725, -10.937, 30.9124, -155.497, -87.724, 49.8296
6.64019, 22, -29.1602, -11.0031, 30.9657, -155.46, -87.6797, 49.784
6.64826, 22, -29.148, -11.0694, 31.0191, -155.424, -87.6363, 49.7384
6.65728, 22, -29.1359, -11.1359, 31.0726, -155.387, -87.592, 49.6921
6.66424, 22, -29.1298, -11.2026, 31.1263, -155.35, -87.5471, 49.6453
6.67229, 22, -29.1178, -11.2361, 31.1801, -155.313, -87.5028, 49.5991
6.67967, 22, -29.1059, -11.3032, 31.207, -155.294, -87.4807, 49.5761
6.68767, 22, -29.0942, -11.3704, 31.2611, -155.258, -87.4355, 49.5297
6.69573, 22, -29.0825, -11.4378, 31.3153, -155.22, -87.3903, 49.4826
6.70573, 22, -29.065, -11.5393, 31.397, -155.164, -87.3234, 49.4123
6.71168, 22, -29.0592, -11.5732, 31.4243, -155.145, -87.3007, 49.3889
6.71867, 22, -29.0476, -11.6412, 31.4789, -155.108, -87.2549, 49.3418
6.72771, 22, -29.0359, -11.7093, 31.5338, -155.07, -87.2099, 49.2939
6.73568, 22, -29.0244, -11.7777, 31.5888, -155.031, -87.1643, 49.2462
6.74373, 23, -29.013, -11.8463, 31.6439, -154.994, -87.1178, 49.1989
6.75373, 23, -28.9958, -11.9494, 31.7266, -154.937, -87.0496, 49.1273
6.75971, 23, -28.9902, -11.9839, 31.7543, -154.917, -87.0266, 49.1032
6.7677, 23, -28.9789, -12.0531, 31.8097, -154.879, -86.9798, 49.0555
6.77572, 23, -28.9676, -12.1223, 31.8652, -154.84, -86.9338, 49.0081
6.78366, 23, -28.9563, -12.1917, 31.9209, -154.802, -86.8876, 48.9602
6.79174, 23, -28.9452, -12.2613, 31.9768, -154.763, -86.8403, 48.9116
6.79982, 23, -28.9343, -12.331, 32.0328, -154.724, -86.7935, 48.8634
6.80766, 23, -28.9233, -12.401, 32.0891, -154.685, -86.7469, 48.8154
6.81671, 23, -28.9125, -12.4712, 32.1454, -154.646, -86.6992, 48.767
6.82366, 23, -28.9017, -12.5415, 32.2018, -154.606, -86.6519, 48.7182
6.8327, 23, -28.8909, -12.6121, 32.2584, -154.566, -86.6048, 48.67
6.83974, 23, -28.88, -12.6828, 32.3151, -154.527, -86.5567, 48.6219
6.84872, 24, -28.8694, -12.7537, 32.3718, -154.487, -86.509, 48.5729
6.85573, 24, -28.8587, -12.8246, 32.4287, -154.446, -86.4618, 48.5238
6.86366, 24, -28.8481, -12.8958, 32.4857, -154.406, -86.4134, 48.4752
6.87175, 24, -28.8375, -12.9671, 32.5427, -154.366, -86.3653, 48.4263
6.87966, 24, -28.8271, -13.0385, 32.6001, -154.325, -86.3175, 48.3768
6.88774, 24, -28.8166, -13.1103, 32.6575, -154.285, -86.2687, 48.3273
6.89594, 24, -28.8061, -13.1822, 32.715, -154.245, -86.2201, 48.2784
6.90365, 24, -28.7957, -13.2543, 32.7728, -154.204, -86.1722, 48.2293
6.91166, 24, -28.7855, -13.3266, 32.8306, -154.163, -86.1231, 48.1794
6.91974, 24, -28.7753, -13.399, 32.8885, -154.122, -86.0742, 48.1299
6.92767, 24, -28.765, -13.4716, 32.9466, -154.081, -86.0259, 48.0808
6.93568, 24, -28.7549, -13.5443, 33.0047, -154.04, -85.9763, 48.0313
6.94398, 25, -28.7448, -13.6171, 33.0629, -153.998, -85.9271, 47.9815
6.95167, 25, -28.7347, -13.6901, 33.1213, -153.957, -85.8785, 47.9324
6.95966, 25, -28.7246, -13.7631, 33.1798, -153.916, -85.8288, 47.8833
6.9678, 25, -28.7145, -13.8364, 33.2384, -153.873, -85.7792, 47.8336
6.97567, 25, -28.7047, -13.9099, 33.2971, -153.832, -85.7302, 47.7837
6.98366, 25, -28.6948, -13.9835, 33.3559, -153.79, -85.68, 47.7344
6.99187, 25, -28.685, -14.0573, 33.4149, -153.748, -85.6302, 47.685
6.99969, 25, -28.6752, -14.1313, 33.474, -153.705, -85.5809, 47.635
7.00774, 25, -28.6655, -14.2054, 33.5332, -153.663, -85.5305, 47.5852
7.01599, 25, -28.6558, -14.2797, 33.5925, -153.62, -85.4806, 47.536
7.02545, 25, -28.6461, -14.3541, 33.6519, -153.577, -85.4309, 47.4864
7.03183, 25, -28.6365, -14.4285, 33.7113, -153.535, -85.38, 47.4362
7.03979, 25, -28.6271, -14.5031, 33.7709, -153.492, -85.33, 47.3865
7.04771, 26, -28.6176, -14.5779, 33.8305, -153.448, -85.2799, 47.3371
7.05579, 26, -28.6082, -14.6528, 33.8902, -153.405, -85.2289, 47.2872
7.06374, 26, -28.5988, -14.7278, 33.9501, -153.362, -85.1787, 47.237
7.07172, 26, -28.5895, -14.8031, 34.01, -153.318, -85.1282, 47.1876
7.08003, 26, -28.5801, -14.8783, 34.0702, -153.275, -85.0768, 47.138
7.08781, 26, -28.5707, -14.9537, 34.1304, -153.232, -85.0263, 47.088
7.09594, 26, -28.5612, -15.0293, 34.1907, -153.188, -84.9755, 47.038
7.10394, 26, -28.5519, -15.1049, 34.2511, -153.144, -84.924, 46.9888
7.11085, 26, -28.5472, -15.1428, 34.2814, -153.123, -84.8986, 46.9642
7.12011, 26, -28.5332, -15.2564, 34.3721, -153.057, -84.8218, 46.8895
7.12671, 26, -28.5285, -15.2944, 34.4025, -153.035, -84.7958, 46.8647
7.13616, 26, -28.5147, -15.4086, 34.4935, -152.969, -84.7193, 46.7913
7.14267, 26, -28.5101, -15.4467, 34.5239, -152.947, -84.6936, 46.7669
7.15225, 27, -28.4963, -15.5612, 34.6151, -152.879, -84.6161, 46.6924
7.16024, 27, -28.4871, -15.6377, 34.6761, -152.835, -84.565, 46.643
7.16832, 27, -28.478, -15.7144, 34.7372, -152.79, -84.5128, 46.5941
7.17652, 27, -28.4735, -15.7528, 34.7678, -152.768, -84.4868, 46.5447
7.18366, 27, -28.4645, -15.8296, 34.829, -152.722, -84.4356, 46.5199
7.1917, 27, -28.4555, -15.9065, 34.8903, -152.678, -84.3835, 46.4706
7.19965, 27, -28.4466, -15.9835, 34.9517, -152.632, -84.3314, 46.4218
7.20784, 27, -28.4378, -16.0607, 35.0132, -152.587, -84.2799, 46.3726
7.21716, 27, -28.4289, -16.1766, 35.1055, -152.519, -84.2013, 46.2983
7.22266, 27, -28.42, -16.2152, 35.1363, -152.496, -84.1754, 46.2739
7.23178, 27, -28.4109, -16.2927, 35.1978, -152.45, -84.1238, 46.2252
7.23964, 27, -28.4019, -16.3702, 35.2595, -152.405, -84.0709, 46.1761
7.24766, 27, -28.393, -16.4479, 35.3213, -152.36, -84.0188, 46.1267
7.25712, 28, -28.3795, -16.5646, 35.4142, -152.29, -83.9402, 46.0542
7.26267, 28, -28.375, -16.6035, 35.4453, -152.268, -83.9138, 46.0299
7.27166, 28, -28.3661, -16.6815, 35.5073, -152.222, -83.8618, 45.9812
7.28111, 28, -28.3574, -16.7595, 35.6006, -152.152, -83.7829, 45.9083
7.28665, 28, -28.3486, -16.8376, 35.6317, -152.129, -83.7566, 45.8844
7.29565, 28, -28.3398, -16.9158, 35.6939, -152.083, -83.7046, 45.8366
7.30542, 28, -28.3309, -16.994, 35.7873, -152.013, -83.625, 45.7642
7.31439, 28, -28.3179, -17.1116, 35.8497, -151.966, -83.5727, 45.7165
7.31965, 28, -28.3136, -17.1508, 35.8809, -151.943, -83.5467, 45.693
7.32773, 28, -28.3049, -17.2293, 35.9432, -151.896, -83.4935, 45.6458
7.33564, 28, -28.2962, -17.3078, 36.0058, -151.848, -83.4408, 45.5981
7.34365, 28, -28.2876, -17.3864, 36.0684, -151.802, -83.3883, 45.5507
7.35242, 28, -28.279, -17.4652, 36.1312, -151.755, -83.3347, 45.5041
7.35965, 29, -28.2704, -17.5441, 36.194, -151.707, -83.2822, 45.4574
7.36766, 29, -28.2616, -17.623, 36.2568, -151.66, -83.2292, 45.4103
7.37906, 29, -28.2485, -17.7416, 36.3511, -151.588, -83.1493, 45.3406
7.38366, 29, -28.2441, -17.7811, 36.3825, -151.565, -83.123, 45.3177
7.39168, 29, -28.2355, -17.8602, 36.4454, -151.518, -83.0694, 45.2717
7.39973, 29, -28.2268, -17.9393, 36.5082, -151.47, -83.0162, 45.2252
7.40765, 29, -28.2181, -18.0186, 36.5712, -151.422, -82.9634, 45.179
7.41568, 29, -28.2094, -18.0978, 36.6342, -151.375, -82.9097, 45.1336
7.42369, 29, -28.2009, -18.177, 36.6974, -151.327, -82.8566, 45.0881
7.43348, 29, -28.1924, -18.2564, 36.7607, -151.278, -82.8035, 45.0424
7.43873, 29, -28.1837, -18.3359, 36.8239, -151.231, -82.7496, 44.9969
7.4477, 29, -28.1751, -18.4154, 36.8872, -151.182, -82.6969, 44.9523
7.45565, 29, -28.1666, -18.4949, 36.9505, -151.134, -82.6436, 44.9075
7.46369, 30, -28.1581, -18.5744, 37.0138, -151.086, -82.5899, 44.8626
7.47168, 30, -28.1495, -18.6541, 37.0771, -151.037, -82.5372, 44.8177
7.47996, 30, -28.1409, -18.7338, 37.1404, -150.987, -82.4833, 44.7738
7.48765, 30, -28.1323, -18.8135, 37.2038, -150.939, -82.4299, 44.7302
7.49571, 30, -28.1237, -18.8933, 37.2672, -150.89, -82.3769, 44.6864
7.50392, 30, -28.1151, -18.9732, 37.3306, -150.841, -82.3228, 44.6426
7.51172, 30, -28.1065, -19.0531, 37.3941, -150.793, -82.2696, 44.5998
7.51975, 30, -28.0977, -19.1331, 37.4578, -150.743, -82.2161, 44.5574
7.52813, 30, -28.0891, -19.2132, 37.5214, -150.694, -82.1621, 44.5149
7.5361, 30, -28.0804, -19.293, 37.5851, -150.646, -82.109, 44.4722
7.54331, 30, -28.0717, -19.373, 37.6487, -150.596, -82.0554, 44.4302
7.55181, 30, -28.0628, -19.453, 37.7123, -150.547, -82.0017, 44.3888
7.56027, 30, -28.054, -19.5329, 37.7759, -150.498, -81.9487, 44.3475
7.56772, 31, -28.0452, -19.6128, 37.8395, -150.448, -81.8947, 44.3061
7.57572, 31, -28.0365, -19.6928, 37.9031, -150.398, -81.8413, 44.2649
7.58471, 31, -28.0276, -19.7728, 37.9669, -150.349, -81.7882, 44.2247
7.5918, 31, -28.0187, -19.8529, 38.0306, -150.299, -81.7342, 44.1849
7.5999, 31, -28.0099, -19.933, 38.0944, -150.249, -81.6811, 44.1449
7.60883, 31, -28.0011, -20.0131, 38.1582, -150.2, -81.6276, 44.1047
7.61602, 31, -27.9923, -20.0932, 38.2219, -150.149, -81.5737, 44.0651
7.62278, 31, -27.9878, -20.1333, 38.2537, -150.124, -81.5471, 44.0456
7.63208, 31, -27.9745, -20.2535, 38.3492, -150.049, -81.4668, 43.9876
7.63864, 31, -27.97, -20.2935, 38.381, -150.024, -81.4398, 43.9683
7.64818, 31, -27.9566, -20.4137, 38.4765, -149.949, -81.3602, 43.91
7.6562, 31, -27.9475, -20.4938, 38.5401, -149.898, -81.3061, 43.8721
7.66451, 32, -27.9384, -20.574, 38.6037, -149.848, -81.2529, 43.8346
7.67222, 32, -27.9339, -20.6141, 38.6355, -149.798, -81.1998, 43.7977
7.68028, 32, -27.9248, -20.6943, 38.7309, -149.748, -81.1461, 43.7608
7.68763, 32, -27.9156, -20.7745, 38.7627, -149.722, -81.1196, 43.7422
7.69564, 32, -27.9063, -20.8546, 38.8263, -149.672, -81.0667, 43.7056
7.70368, 32, -27.8971, -20.9347, 38.8899, -149.622, -81.0127, 43.6699
7.71166, 32, -27.8878, -21.0148, 38.9535, -149.57, -80.9596, 43.6346
7.71979, 32, -27.8786, -21.0949, 39.017, -149.52, -80.9066, 43.5997
7.729, 32, -27.8692, -21.2149, 39.1123, -149.444, -80.8263, 43.5474
7.73465, 32, -27.8598, -21.255, 39.144, -149.418, -80.8001, 43.5301
7.74364, 32, -27.8506, -21.335, 39.2074, -149.368, -80.7468, 43.4964
7.75168, 32, -27.8413, -21.4149, 39.2709, -149.317, -80.6934, 43.4635
7.75964, 32, -27.8318, -21.495, 39.3343, -149.265, -80.6408, 43.4309
7.76956, 33, -27.8176, -21.6149, 39.4295, -149.189, -80.5606, 43.382
7.77565, 33, -27.8129, -21.6548, 39.4612, -149.164, -80.5341, 43.3657
7.78365, 33, -27.8034, -21.7347, 39.5246, -149.112, -80.4816, 43.3338
7.79065, 33, -27.7937, -21.8145, 39.588, -149.062, -80.4279, 43.3028
7.79962, 33, -27.7838, -21.8944, 39.6513, -149.01, -80.3752, 43.2724
7.80762, 33, -27.774, -21.9742, 39.7145, -148.959, -80.3226, 43.2423
7.81748, 33, -27.7643, -22.054, 39.7778, -148.882, -80.243, 43.1975
7.82651, 33, -27.7494, -22.1736, 39.8725, -148.831, -80.1906, 43.1678
7.83163, 33, -27.7444, -22.2135, 39.904, -148.806, -80.1639, 43.1532
7.8397, 33, -27.7345, -22.2931, 39.9671, -148.755, -80.1109, 43.1247
7.84985, 33, -27.7196, -22.4127, 40.0617, -148.677, -80.0324, 43.0834
7.85564, 33, -27.7146, -22.4525, 40.0933, -148.652, -80.0057, 43.0699
7.86439, 33, -27.7045, -22.5319, 40.1563, -148.6, -79.9531, 43.0432
7.87164, 34, -27.6945, -22.6114, 40.2194, -148.548, -79.9009, 43.0166
7.87964, 34, -27.6845, -22.6909, 40.2824, -148.497, -79.8476, 42.99
7.89113, 34, -27.6692, -22.8099, 40.3766, -148.418, -79.7692, 42.9515
7.89479, 34, -27.6641, -22.8496, 40.408, -148.393, -79.7429, 42.9391
7.90374, 34, -27.6539, -22.9288, 40.4707, -148.342, -79.6897, 42.915
7.91164, 34, -27.6435, -23.008, 40.5332, -148.289, -79.6375, 42.8915
7.92063, 34, -27.6329, -23.0872, 40.5957, -148.238, -79.5847, 42.8685
7.92769, 34, -27.6222, -23.1663, 40.6583, -148.186, -79.5317, 42.8459
7.93562, 34, -27.6116, -23.2453, 40.7207, -148.134, -79.4799, 42.8235
7.9479, 34, -27.6009, -23.3638, 40.8145, -148.057, -79.4005, 42.7906
7.95173, 34, -27.5901, -23.4032, 40.8456, -148.031, -79.3744, 42.78
7.95962, 34, -27.5793, -23.4821, 40.9079, -147.979, -79.3224, 42.7594
7.96762, 34, -27.5685, -23.5609, 40.9701, -147.927, -79.2693, 42.7398
7.97569, 35, -27.5575, -23.6396, 41.0322, -147.875, -79.2173, 42.7208
7.98363, 35, -27.5464, -23.7182, 41.0942, -147.823, -79.1654, 42.7025
7.99165, 35, -27.5355, -23.7967, 41.1561, -147.772, -79.1126, 42.6849
7.99963, 35, -27.5244, -23.875, 41.2179, -147.72, -79.0609, 42.6677
8.00772, 35, -27.5133, -23.9533, 41.2797, -147.667, -79.0088, 42.651
8.01571, 35, -27.5021, -24.0314, 41.3414, -147.616, -78.9562, 42.6345
8.02379, 35, -27.4907, -24.1095, 41.4031, -147.563, -78.9047, 42.6184
8.03174, 35, -27.4793, -24.1874, 41.4647, -147.511, -78.8526, 42.6031
8.03988, 35, -27.4677, -24.2654, 41.5262, -147.459, -78.8003, 42.5886
8.04824, 35, -27.4619, -24.3043, 41.5876, -147.407, -78.7489, 42.5749
8.05569, 35, -27.4442, -24.421, 41.649, -147.355, -78.6965, 42.562
8.06363, 35, -27.4324, -24.4986, 41.71, -147.303, -78.6446, 42.5498
8.0725, 35, -27.4204, -24.5763, 41.771, -147.251, -78.5934, 42.5384
8.07965, 36, -27.4083, -24.6538, 41.8318, -147.199, -78.5414, 42.5278
8.08775, 36, -27.396, -24.7311, 41.8925, -147.147, -78.49, 42.5179
8.09694, 36, -27.3838, -24.8083, 41.9533, -147.095, -78.4389, 42.5087
8.10385, 36, -27.3716, -24.8855, 42.0139, -147.043, -78.3871, 42.5001
8.11196, 36, -27.3593, -24.9626, 42.0745, -146.991, -78.3361, 42.4921
8.12086, 36, -27.3469, -25.0396, 42.135, -146.939, -78.2851, 42.4848
8.12804, 36, -27.3344, -25.1164, 42.1954, -146.888, -78.2335, 42.4781
8.13481, 36, -27.3281, -25.1548, 42.2255, -146.861, -78.208, 42.475
8.14448, 36, -27.3088, -25.2697, 42.3157, -146.783, -78.1317, 42.4666
8.15297, 36, -27.296, -25.3462, 42.3756, -146.731, -78.0803, 42.4619
8.16022, 36, -27.2829, -25.4226, 42.4354, -146.678, -78.0299, 42.4579
8.16824, 36, -27.2698, -25.4988, 42.495, -146.627, -77.9789, 42.4547
8.17706, 36, -27.2632, -25.5368, 42.5546, -146.575, -77.9279, 42.4521
8.1828, 37, -27.2499, -25.6128, 42.5843, -146.548, -77.9028, 42.4512
8.19243, 37, -27.2365, -25.6887, 42.6438, -146.497, -77.8522, 42.4498
8.19961, 37, -27.2231, -25.7645, 42.703, -146.445, -77.8011, 42.4491
8.20762, 37, -27.2097, -25.8401, 42.7623, -146.393, -77.7509, 42.4488
8.21568, 37, -27.1962, -25.9156, 42.8213, -146.342, -77.7006, 42.4487
8.22361, 37, -27.1825, -25.9909, 42.8803, -146.29, -77.6497, 42.4487
8.23183, 37, -27.1687, -26.0662, 42.9391, -146.238, -77.5998, 42.4489
8.24141, 37, -27.1546, -26.1786, 43.027, -146.161, -77.524, 42.4502
8.24762, 37, -27.1404, -26.216, 43.0562, -146.135, -77.4988, 42.4512
8.25563, 37, -27.1261, -26.2907, 43.1146, -146.083, -77.4491, 42.4547
8.26363, 37, -27.1118, -26.3652, 43.1727, -146.032, -77.3989, 42.4594
8.27166, 37, -27.0973, -26.4396, 43.2308, -145.98, -77.3485, 42.4652
8.28158, 38, -27.0753, -26.5511, 43.3178, -145.903, -77.2743, 42.4762
8.28763, 38, -27.0679, -26.5881, 43.3467, -145.877, -77.249, 42.4803
8.29566, 38, -27.0532, -26.6622, 43.4045, -145.825, -77.1988, 42.4893
8.30443, 38, -27.0383, -26.7361, 43.4621, -145.774, -77.1496, 42.4993
8.31073, 38, -27.0232, -26.8097, 43.5195, -145.723, -77.0996, 42.5101
8.31965, 38, -27.008, -26.8833, 43.5767, -145.671, -77.0496, 42.5218
8.32945, 38, -26.9925, -26.9565, 43.6339, -145.621, -77.0004, 42.5412
8.33673, 38, -26.977, -27.0296, 43.6908, -145.569, -76.9504, 42.5482
8.34466, 38, -26.9614, -27.1024, 43.7477, -145.518, -76.9007, 42.5629
8.35164, 38, -26.9456, -27.1752, 43.8043, -145.468, -76.8521, 42.5787
8.35961, 38, -26.9297, -27.2478, 43.8607, -145.417, -76.8024, 42.5955
8.36765, 38, -26.9136, -27.3202, 43.917, -145.366, -76.7531, 42.6136
8.37639, 38, -26.8975, -27.3925, 43.9731, -145.316, -76.7044, 42.6328
8.3846, 39, -26.8812, -27.4647, 44.029, -145.264, -76.6547, 42.653
8.39173, 39, -26.8648, -27.5366, 44.0848, -145.214, -76.6056, 42.674
8.40209, 39, -26.8397, -27.6442, 44.1681, -145.138, -76.5325, 42.7066
8.40767, 39, -26.8312, -27.6799, 44.1958, -145.113, -76.5077, 42.718
8.41567, 39, -26.8143, -27.7511, 44.2511, -145.063, -76.4587, 42.7412
8.42361, 39, -26.7973, -27.8222, 44.3061, -145.013, -76.4104, 42.7656
8.43161, 39, -26.78, -27.8931, 44.3609, -144.962, -76.3609, 42.7913
8.43967, 39, -26.7626, -27.9639, 44.4156, -144.912, -76.3121, 42.8182
8.44763, 39, -26.7451, -28.0344, 44.47, -144.862, -76.2638, 42.846
8.45745, 39, -26.7276, -28.1048, 44.5242, -144.812, -76.2145, 42.8742
8.46368, 39, -26.7099, -28.1751, 44.5782, -144.762, -76.1658, 42.9034
8.47161, 39, -26.6919, -28.245, 44.6321, -144.712, -76.1175, 42.9335
8.47961, 39, -26.6736, -28.3148, 44.6857, -144.663, -76.0683, 42.9651
8.48767, 40, -26.6553, -28.3844, 44.7393, -144.614, -76.0199, 42.998
8.4957, 40, -26.6367, -28.4536, 44.7926, -144.564, -75.9721, 43.0317
8.50365, 40, -26.618, -28.5226, 44.8457, -144.515, -75.9231, 43.0661
8.51165, 40, -26.5991, -28.5912, 44.8986, -144.467, -75.8749, 43.1012
8.51976, 40, -26.58, -28.6597, 44.9513, -144.417, -75.8271, 43.1375
8.52771, 40, -26.5608, -28.7279, 45.0037, -144.368, -75.7783, 43.1752
8.53571, 40, -26.5415, -28.796, 45.0559, -144.321, -75.7303, 43.2139
8.54379, 40, -26.5217, -28.8638, 45.108, -144.272, -75.6829, 43.2531
8.55194, 40, -26.5018, -28.9315, 45.1596, -144.223, -75.6344, 43.2933
8.55961, 40, -26.4819, -28.999, 45.2111, -144.175, -75.5866, 43.335
8.56768, 40, -26.4617, -29.0663, 45.2623, -144.126, -75.5393, 43.3782
8.57569, 40, -26.4412, -29.1332, 45.3134, -144.078, -75.4909, 43.4218
8.58366, 40, -26.4205, -29.1998, 45.3641, -144.031, -75.4432, 43.4662
8.59185, 41, -26.3998, -29.2662, 45.4147, -143.983, -75.3961, 43.5118
8.59977, 41, -26.3788, -29.3323, 45.4651, -143.935, -75.3482, 43.5591
8.60785, 41, -26.3575, -29.3981, 45.5152, -143.888, -75.3006, 43.6069
8.61593, 41, -26.3361, -29.4637, 45.565, -143.841, -75.2538, 43.6554
8.62261, 41, -26.3253, -29.4964, 45.5899, -143.817, -75.23, 43.6802
8.632, 41, -26.2929, -29.5942, 45.6639, -143.748, -75.1585, 43.757
8.64017, 41, -26.2709, -29.6591, 45.713, -143.701, -75.112, 43.8091
8.64855, 41, -26.2487, -29.7238, 45.7617, -143.654, -75.0648, 43.8624
8.65614, 41, -26.2263, -29.7882, 45.8101, -143.609, -75.0176, 43.9175
8.66496, 41, -26.2036, -29.8522, 45.8583, -143.562, -74.9711, 43.9736
8.67219, 41, -26.1808, -29.916, 45.9062, -143.516, -74.924, 44.0303
8.68018, 41, -26.1693, -29.9478, 45.9301, -143.494, -74.8768, 44.089
8.68904, 41, -26.1462, -30.0111, 45.9777, -143.426, -74.8306, 44.1487
8.69561, 42, -26.1229, -30.0739, 46.025, -143.403, -74.8075, 44.1787
8.70366, 42, -26.0992, -30.1366, 46.0721, -143.358, -74.7604, 44.2396
8.7116, 42, -26.0754, -30.199, 46.1188, -143.313, -74.7139, 44.3023
8.71968, 42, -26.0511, -30.2611, 46.1652, -143.268, -74.6678, 44.3655
8.72759, 42, -26.0268, -30.323, 46.2114, -143.223, -74.6208, 44.4301
8.73559, 42, -26.0023, -30.3846, 46.2572, -143.18, -74.5741, 44.4963
8.74387, 42, -25.9775, -30.4459, 46.3028, -143.136, -74.5283, 44.5629
8.75311, 42, -25.9526, -30.5372, 46.3704, -143.07, -74.4582, 44.6659
8.75959, 42, -25.9273, -30.5675, 46.3928, -143.049, -74.4351, 44.7006
8.76764, 42, -25.9016, -30.6277, 46.4375, -143.006, -74.3894, 44.7705
8.77557, 42, -25.8756, -30.6876, 46.4816, -142.962, -74.3431, 44.8429
8.78362, 42, -25.8496, -30.7471, 46.5256, -142.92, -74.2965, 44.9159
8.79169, 42, -25.8232, -30.8063, 46.5693, -142.879, -74.2511, 44.9901
8.79961, 43, -25.7966, -30.8651, 46.6126, -142.837, -74.2053, 45.0665
8.8076, 43, -25.77, -30.9238, 46.6556, -142.795, -74.159, 45.143
8.81661, 43, -25.743, -30.982, 46.6982, -142.754, -74.1137, 45.2218
8.82359, 43, -25.7156, -31.04, 46.7405, -142.713, -74.0682, 45.3012
8.8326, 43, -25.688, -31.0977, 46.7825, -142.672, -74.0219, 45.3817
8.83968, 43, -25.6601, -31.155, 46.8241, -142.632, -73.9765, 45.4638
8.8476, 43, -25.6319, -31.2118, 46.8654, -142.592, -73.9315, 45.5465
8.85559, 43, -25.6034, -31.2683, 46.9064, -142.552, -73.8857, 45.6312
8.8638, 43, -25.5746, -31.3244, 46.947, -142.512, -73.8403, 45.7161
8.87233, 43, -25.5457, -31.3799, 46.9873, -142.474, -73.7956, 45.8033
8.87966, 43, -25.5165, -31.435, 47.0271, -142.435, -73.75, 45.8908
8.88762, 43, -25.487, -31.4898, 47.0666, -142.396, -73.7045, 45.9802
8.89583, 44, -25.4572, -31.5441, 47.1058, -142.358, -73.6601, 46.0701
8.90366, 44, -25.4269, -31.5982, 47.1444, -142.321, -73.6152, 46.1621
8.91267, 44, -25.3961, -31.6519, 47.1828, -142.284, -73.5698, 46.2548
8.9196, 44, -25.3653, -31.7053, 47.2207, -142.247, -73.5255, 46.3494
8.92766, 44, -25.3343, -31.7584, 47.2582, -142.21, -73.4808, 46.4448
8.93641, 44, -25.303, -31.811, 47.2953, -142.175, -73.4356, 46.5422
8.9436, 44, -25.2713, -31.8632, 47.332, -142.139, -73.3912, 46.6404
8.95168, 44, -25.2392, -31.915, 47.3682, -142.103, -73.3473, 46.7406
8.96066, 44, -25.2069, -31.9661, 47.4043, -142.069, -73.3026, 46.8413
8.96936, 44, -25.1742, -32.0169, 47.4398, -142.035, -73.2584, 46.9438
8.97569, 44, -25.1413, -32.0671, 47.4749, -142.001, -73.2146, 47.0473
8.98437, 44, -25.1079, -32.1169, 47.5096, -141.968, -73.1703, 47.1526
8.99159, 44, -25.0742, -32.1661, 47.5439, -141.934, -73.1259, 47.2591
9.00059, 45, -25.0403, -32.215, 47.5776, -141.902, -73.0826, 47.3671
9.00952, 45, -25.006, -32.2635, 47.611, -141.871, -73.039, 47.4766
9.01573, 45, -24.9713, -32.3115, 47.644, -141.839, -72.995, 47.587
9.02409, 45, -24.9362, -32.3592, 47.6763, -141.808, -72.9519, 47.6991
9.03168, 45, -24.9009, -32.4065, 47.7082, -141.777, -72.9088, 47.8125
9.0397, 45, -24.8652, -32.4532, 47.7398, -141.748, -72.865, 47.927
9.04813, 45, -24.8293, -32.4996, 47.7708, -141.718, -72.8217, 48.0429
9.05517, 45, -24.8111, -32.5225, 47.7861, -141.689, -72.7793, 48.1601
9.0645, 45, -24.7561, -32.5905, 47.8314, -141.66, -72.7362, 48.2786
9.07169, 45, -24.719, -32.6352, 47.8611, -141.632, -72.6931, 48.3989
9.07967, 45, -24.6816, -32.6791, 47.8902, -141.604, -72.6509, 48.5202
9.08767, 45, -24.6438, -32.7224, 47.9189, -141.578, -72.6084, 48.6429
9.09579, 45, -24.6055, -32.7653, 47.947, -141.551, -72.5652, 48.7669
9.10379, 46, -24.5669, -32.8077, 47.9748, -141.524, -72.5232, 48.8922
9.1126, 46, -24.5279, -32.8494, 48.0019, -141.499, -72.4815, 49.0187
9.11989, 46, -24.4885, -32.8906, 48.0285, -141.475, -72.439, 49.1465
9.12808, 46, -24.4487, -32.9313, 48.0546, -141.451, -72.397, 49.2759
9.13639, 46, -24.4087, -32.9716, 48.0803, -141.428, -72.3557, 49.4067
9.14406, 46, -24.3683, -33.0112, 48.1053, -141.405, -72.314, 49.5391
9.1506, 46, -24.348, -33.0308, 48.1176, -141.393, -72.2928, 49.6058
9.16106, 46, -24.2862, -33.0887, 48.1538, -141.36, -72.2306, 49.8078
9.16813, 46, -24.2447, -33.1266, 48.1772, -141.34, -72.1898, 49.9439
9.17625, 46, -24.2027, -33.1638, 48.2003, -141.319, -72.1485, 50.0814
9.18422, 46, -24.1815, -33.1822, 48.2115, -141.31, -72.1074, 50.2199
9.19158, 46, -24.1388, -33.2184, 48.2334, -141.291, -72.0872, 50.2897
9.20025, 46, -24.0959, -33.254, 48.255, -141.272, -72.047, 50.5009
9.20655, 47, -24.0525, -33.2889, 48.2759, -141.254, -72.0062, 50.5721
9.21565, 47, -24.0085, -33.3232, 48.2964, -141.236, -71.9656, 50.7155
9.22365, 47, -23.9642, -33.3569, 48.3162, -141.219, -71.926, 50.8601
9.23158, 47, -23.9196, -33.3899, 48.3351, -141.203, -71.8866, 51.0063
9.23958, 47, -23.8744, -33.4222, 48.3537, -141.188, -71.8464, 51.154
9.24767, 47, -23.8287, -33.4538, 48.3717, -141.174, -71.8069, 51.3025
9.25565, 47, -23.7828, -33.4849, 48.3889, -141.161, -71.768, 51.4527
9.26357, 47, -23.7365, -33.5152, 48.4057, -141.148, -71.7289, 51.6042
9.27162, 47, -23.6896, -33.5448, 48.4221, -141.136, -71.6894, 51.7572
9.27974, 47, -23.6424, -33.5736, 48.4375, -141.125, -71.651, 51.9117
9.28761, 47, -23.5949, -33.6016, 48.4523, -141.114, -71.6131, 52.0673
9.29568, 47, -23.5468, -33.6292, 48.4666, -141.104, -71.575, 52.2243
9.30358, 47, -23.4983, -33.6558, 48.4801, -141.094, -71.5368, 52.3825
9.31312, 48, -23.4494, -33.6817, 48.4928, -141.085, -71.4995, 52.6222
9.3196, 48, -23.4, -33.7068, 48.5048, -141.077, -71.4625, 52.7028
9.3286, 48, -23.3501, -33.7312, 48.5163, -141.07, -71.4252, 52.8648
9.33564, 48, -23.2998, -33.755, 48.5271, -141.064, -71.3879, 53.0286
9.34458, 48, -23.2492, -33.7778, 48.5373, -141.059, -71.3517, 53.1934
9.35164, 48, -23.198, -33.7999, 48.5468, -141.055, -71.316, 53.3595
9.35957, 48, -23.1465, -33.8211, 48.5554, -141.051, -71.2799, 53.527
9.36757, 48, -23.0946, -33.8414, 48.5635, -141.049, -71.2439, 53.6957
9.37587, 48, -23.0421, -33.8613, 48.5709, -141.047, -71.2088, 53.8661
9.38358, 48, -22.9892, -33.8801, 48.5775, -141.046, -71.1741, 54.0378
9.39161, 48, -22.9358, -33.8979, 48.5834, -141.045, -71.1392, 54.2107
9.39964, 48, -22.882, -33.9151, 48.5887, -141.045, -71.1042, 54.3847
9.40757, 48, -22.8277, -33.9314, 48.5932, -141.045, -71.0702, 54.5599
9.41568, 49, -22.773, -33.9467, 48.5968, -141.046, -71.0369, 54.7362
9.42364, 49, -22.7178, -33.961, 48.5996, -141.048, -71.0037, 54.9136
9.43159, 49, -22.6623, -33.9745, 48.6017, -141.052, -70.9702, 55.0927
9.43957, 49, -22.6062, -33.9874, 48.603, -141.056, -70.9373, 55.2728
9.44763, 49, -22.5497, -33.9993, 48.6036, -141.062, -70.9054, 55.4542
9.45564, 49, -22.4928, -34.0098, 48.6038, -141.068, -70.8738, 55.6368
9.46359, 49, -22.4353, -34.0195, 48.6036, -141.076, -70.8419, 55.8203
9.47181, 49, -22.3774, -34.0285, 48.6027, -141.084, -70.8103, 56.0055
9.47955, 49, -22.3191, -34.0365, 48.6011, -141.094, -70.7797, 56.1921
9.48764, 49, -22.2603, -34.0436, 48.5988, -141.106, -70.7499, 56.38
9.49563, 49, -22.2012, -34.0499, 48.5957, -141.118, -70.7203, 56.5688
9.50358, 49, -22.1414, -34.0551, 48.5916, -141.131, -70.6906, 56.7589
9.51184, 49, -22.0813, -34.0592, 48.5866, -141.145, -70.6615, 56.9498
9.51975, 50, -22.0208, -34.0622, 48.5808, -141.16, -70.6332, 57.1421
9.5277, 50, -21.9598, -34.0643, 48.574, -141.175, -70.6055, 57.3357
9.53611, 50, -21.8984, -34.0653, 48.5663, -141.191, -70.5784, 57.5306
9.54368, 50, -21.8364, -34.0658, 48.5577, -141.209, -70.5511, 57.7264
9.55175, 50, -21.7739, -34.0655, 48.5483, -141.227, -70.5241, 57.9235
9.56013, 50, -21.7109, -34.0643, 48.5381, -141.247, -70.4981, 58.1215
9.56787, 50, -21.6474, -34.062, 48.527, -141.268, -70.4729, 58.3213
9.57612, 50, -21.5836, -34.0588, 48.5149, -141.29, -70.4484, 58.5221
9.58258, 50, -21.5516, -34.0568, 48.5084, -141.301, -70.4364, 58.6229
9.59166, 50, -21.4547, -34.0491, 48.4879, -141.336, -70.4003, 58.9266
9.59973, 50, -21.3898, -34.0423, 48.473, -141.36, -70.3767, 59.1302
9.60776, 50, -21.3243, -34.0344, 48.4571, -141.386, -70.354, 59.3347
9.61642, 51, -21.2583, -34.0253, 48.4403, -141.413, -70.3321, 59.5408
9.62388, 51, -21.1918, -34.015, 48.4228, -141.441, -70.3109, 59.7477
9.63203, 51, -21.1248, -34.0036, 48.4042, -141.469, -70.2904, 59.9558
9.63857, 51, -21.0913, -33.9976, 48.3945, -141.484, -70.2802, 60.0602
9.64805, 51, -20.9896, -33.9771, 48.3642, -141.53, -70.2501, 60.3749
9.65457, 51, -20.9555, -33.9695, 48.3536, -141.546, -70.2403, 60.4803
9.66413, 51, -20.8526, -33.9451, 48.3204, -141.595, -70.2122, 60.7989
9.67301, 51, -20.7835, -33.9277, 48.2972, -141.628, -70.1945, 61.0123
9.67859, 51, -20.7488, -33.9184, 48.2852, -141.645, -70.1861, 61.1194
9.68811, 51, -20.679, -33.8989, 48.2606, -141.681, -70.17, 61.4417
9.69557, 51, -20.6089, -33.8783, 48.235, -141.718, -70.1545, 61.5498
9.70361, 51, -20.5383, -33.8564, 48.2085, -141.754, -70.1396, 61.7666
9.71157, 51, -20.4674, -33.8331, 48.181, -141.792, -70.1253, 61.9844
9.71952, 52, -20.3959, -33.8086, 48.1524, -141.832, -70.1117, 62.203
9.72763, 52, -20.3242, -33.7827, 48.123, -141.872, -70.0984, 62.4227
9.73554, 52, -20.252, -33.7557, 48.0927, -141.914, -70.086, 62.6433
9.74356, 52, -20.1793, -33.7273, 48.0613, -141.956, -70.0744, 62.8653
9.75161, 52, -20.1063, -33.6974, 48.0289, -142, -70.0639, 63.0881
9.75963, 52, -20.033, -33.6662, 47.9956, -142.043, -70.0542, 63.3114
9.76756, 52, -19.9591, -33.6339, 47.9614, -142.088, -70.0454, 63.5356
9.77552, 52, -19.8848, -33.6, 47.926, -142.135, -70.0376, 63.7604
9.78362, 52, -19.8103, -33.5649, 47.8898, -142.182, -70.0306, 63.9865
9.79171, 52, -19.7353, -33.5286, 47.8526, -142.23, -70.0246, 64.2131
9.79955, 52, -19.6601, -33.491, 47.8143, -142.279, -70.0194, 64.4406
9.80762, 52, -19.5845, -33.4519, 47.7751, -142.329, -70.0151, 64.6685
9.81556, 52, -19.5086, -33.4115, 47.7349, -142.38, -70.0116, 64.8976
9.82353, 53, -19.4324, -33.3699, 47.6935, -142.432, -70.0091, 65.1277
9.83163, 53, -19.3556, -33.3267, 47.6513, -142.485, -70.0074, 65.3585
9.84057, 53, -19.2784, -33.2821, 47.6081, -142.539, -70.0066, 65.59
9.84757, 53, -19.201, -33.2362, 47.5638, -142.594, -70.0063, 65.8218
9.85555, 53, -19.1231, -33.1889, 47.5186, -142.65, -70.0065, 66.0546
9.86362, 53, -19.045, -33.1402, 47.4723, -142.707, -70.0076, 66.2883
9.87156, 53, -18.9666, -33.09, 47.4251, -142.765, -70.0095, 66.5228
9.87956, 53, -18.8878, -33.0385, 47.3767, -142.824, -70.0126, 66.7577
9.89457, 53, -18.7295, -32.9311, 47.277, -142.943, -70.022, 67.2302
9.89587, 53, -18.7295, -32.9311, 47.277, -142.943, -70.022, 67.2302
9.90357, 53, -18.6497, -32.8752, 47.2256, -143.005, -70.0285, 67.4676
9.91193, 53, -18.5696, -32.8179, 47.173, -143.066, -70.0362, 67.7052
9.9196, 53, -18.4892, -32.7592, 47.1196, -143.13, -70.045, 67.9434
9.92755, 54, -18.4085, -32.6989, 47.0651, -143.193, -70.0552, 68.1819
9.93563, 54, -18.3276, -32.6371, 47.0095, -143.258, -70.0666, 68.4214
9.94356, 54, -18.2464, -32.5739, 46.9531, -143.324, -70.0794, 68.6611
9.95156, 54, -18.165, -32.5093, 46.8956, -143.39, -70.0936, 68.9015
9.95963, 54, -18.0833, -32.4433, 46.837, -143.458, -70.1093, 69.1422
9.96757, 54, -18.0013, -32.3757, 46.7775, -143.526, -70.1261, 69.3836
9.97556, 54, -17.919, -32.3067, 46.7169, -143.595, -70.1438, 69.6259
9.98381, 54, -17.8364, -32.2362, 46.6552, -143.665, -70.1624, 69.8684
9.99261, 54, -17.7536, -32.1641, 46.5925, -143.735, -70.1821, 70.1113
9.99969, 54, -17.6706, -32.0904, 46.5288, -143.806, -70.2029, 70.3545
10.0076, 54, -17.5874, -32.0153, 46.4641, -143.878, -70.2252, 70.5984
10.0156, 54, -17.5041, -31.9385, 46.3983, -143.951, -70.2492, 70.8427
10.0239, 54, -17.4205, -31.8603, 46.3316, -144.024, -70.2745, 71.0872
10.0316, 55, -17.3368, -31.7806, 46.264, -144.098, -70.3006, 71.3321
10.0397, 55, -17.2529, -31.6994, 46.1954, -144.173, -70.3278, 71.5777
10.0482, 55, -17.1687, -31.6168, 46.1257, -144.249, -70.3562, 71.8238
10.0557, 55, -17.0842, -31.5326, 46.055, -144.325, -70.3865, 72.0701
10.0637, 55, -16.9996, -31.4469, 45.9831, -144.402, -70.4182, 72.3164
10.0724, 55, -16.9147, -31.3596, 45.9103, -144.48, -70.4505, 72.5627
10.08, 55, -16.8297, -31.2709, 45.8363, -144.558, -70.4838, 72.8097
10.0885, 55, -16.7448, -31.1806, 45.7613, -144.636, -70.5189, 73.0568
10.0957, 55, -16.6596, -31.0889, 45.6855, -144.716, -70.5559, 73.3042
10.1046, 55, -16.5745, -30.9956, 45.6088, -144.795, -70.5936, 73.5514
10.1117, 55, -16.4892, -30.9009, 45.5311, -144.876, -70.6323, 73.7991
10.1198, 55, -16.4038, -30.8045, 45.4524, -144.957, -70.6728, 74.0472
10.1289, 55, -16.3182, -30.7065, 45.3727, -145.038, -70.7149, 74.2954
10.136, 56, -16.2325, -30.607, 45.2918, -145.12, -70.7575, 74.5434
10.144, 56, -16.1465, -30.5059, 45.21, -145.203, -70.8017, 74.7914
10.153, 56, -16.0605, -30.4034, 45.1272, -145.286, -70.8482, 75.0399
10.1601, 56, -15.9744, -30.2994, 45.0435, -145.369, -70.8952, 75.2886
10.1681, 56, -15.8885, -30.1941, 44.959, -145.453, -70.9437, 75.537
10.1772, 56, -15.8025, -30.0872, 44.8736, -145.537, -70.9944, 75.7856
10.1842, 56, -15.7165, -29.9786, 44.7872, -145.622, -71.0454, 76.0345
10.1921, 56, -15.6735, -29.9237, 44.7436, -145.664, -71.0714, 76.1592
10.2004, 56, -15.5873, -29.8129, 44.6113, -145.792, -71.153, 76.5327
10.209, 56, -15.501, -29.7006, 44.5218, -145.877, -71.2082, 76.7813
10.2155, 56, -15.4145, -29.5868, 44.4767, -145.92, -71.2365, 76.9055
10.2236, 56, -15.3281, -29.4718, 44.3859, -146.007, -71.2948, 77.1539
10.2316, 56, -15.2417, -29.3551, 44.2944, -146.093, -71.3534, 77.4026
10.2396, 57, -15.1554, -29.2369, 44.2021, -146.18, -71.4146, 77.6507
10.249, 57, -15.026, -29.0566, 44.0618, -146.31, -71.508, 78.0226
10.2546, 57, -14.9829, -28.9958, 44.0145, -146.354, -71.5401, 78.1465
10.2636, 57, -14.8967, -28.8731, 43.9192, -146.441, -71.6052, 78.3945
10.2715, 57, -14.8103, -28.7491, 43.823, -146.528, -71.6711, 78.6424
10.2796, 57, -14.7241, -28.6236, 43.726, -146.616, -71.7395, 78.89
10.2875, 57, -14.6378, -28.4965, 43.6284, -146.704, -71.8085, 79.137
10.2946, 57, -14.5516, -28.368, 43.53, -146.791, -71.8797, 79.384
10.3043, 57, -14.4657, -28.2381, 43.4307, -146.88, -71.9515, 79.6311
10.3115, 57, -14.3798, -28.1069, 43.3303, -146.968, -72.0258, 79.8776
10.3196, 57, -14.2939, -27.9746, 43.2291, -147.056, -72.1006, 80.1237
10.3296, 57, -14.1652, -27.7731, 43.0756, -147.188, -72.216, 80.4926
10.3357, 58, -14.1223, -27.7053, 43.0241, -147.232, -72.2551, 80.6157
10.3446, 58, -14.0366, -27.5685, 42.9208, -147.321, -72.3348, 80.8612
10.3515, 58, -13.9511, -27.4305, 42.8167, -147.409, -72.4154, 81.106
10.3596, 58, -13.8657, -27.2913, 42.7118, -147.497, -72.4976, 81.3502
10.3675, 58, -13.7805, -27.1506, 42.6061, -147.585, -72.5813, 81.594
10.3755, 58, -13.6955, -27.0083, 42.4994, -147.673, -72.6665, 81.8377
10.3836, 58, -13.6108, -26.8646, 42.392, -147.761, -72.7532, 82.0808
10.3915, 58, -13.5263, -26.7196, 42.284, -147.849, -72.8411, 82.3233
10.3997, 58, -13.4418, -26.5736, 42.1755, -147.937, -72.9308, 82.5651
10.4076, 58, -13.3573, -26.4262, 42.0664, -148.025, -73.0217, 82.8068
10.4155, 58, -13.2729, -26.2774, 41.9564, -148.112, -73.1138, 83.0479
10.4236, 58, -13.1887, -26.1273, 41.8455, -148.199, -73.2076, 83.2883
10.4316, 58, -13.1048, -25.9761, 41.7339, -148.286, -73.3025, 83.5279
10.4395, 59, -13.0211, -25.824, 41.6218, -148.373, -73.3985, 83.767
10.4476, 59, -12.9377, -25.6708, 41.5093, -148.459, -73.4963, 84.0058
10.4555, 59, -12.8546, -25.516, 41.3963, -148.546, -73.5954, 84.2438
10.4636, 59, -12.7716, -25.36, 41.2827, -148.632, -73.6956, 84.4809
10.4716, 59, -12.6889, -25.203, 41.1682, -148.717, -73.7974, 84.7173
10.4795, 59, -12.6064, -25.0451, 41.053, -148.803, -73.9003, 84.9535
10.4875, 59, -12.5239, -24.8859, 40.9374, -148.888, -74.0046, 85.1892
10.4958, 59, -12.4418, -24.7252, 40.8215, -148.972, -74.1105, 85.4239
10.5035, 59, -12.3599, -24.5633, 40.705, -149.057, -74.2174, 85.6576
10.5115, 59, -12.2782, -24.4009, 40.588, -149.141, -74.3258, 85.8903
10.5197, 59, -12.1968, -24.2377, 40.4702, -149.224, -74.4354, 86.1223
10.5276, 59, -12.1157, -24.0731, 40.3518, -149.307, -74.5461, 86.3537
10.5356, 59, -12.035, -23.907, 40.2332, -149.389, -74.6582, 86.5841
10.5436, 60, -11.9545, -23.7401, 40.1145, -149.472, -74.7715, 86.8133
10.5516, 60, -11.8743, -23.5729, 39.9954, -149.553, -74.8859, 87.0418
10.5597, 60, -11.7943, -23.4045, 39.8757, -149.634, -75.0018, 87.2695
10.5675, 60, -11.7146, -23.2347, 39.7555, -149.715, -75.1183, 87.4964
10.5756, 60, -11.6353, -23.0639, 39.6347, -149.795, -75.2363, 87.7222
10.5836, 60, -11.5564, -22.8928, 39.5138, -149.874, -75.3555, 87.9469
10.5919, 60, -11.4777, -22.7212, 39.3925, -149.953, -75.4756, 88.1705
10.6014, 60, -11.3993, -22.5484, 39.271, -150.031, -75.5973, 88.3936
10.6077, 60, -11.3213, -22.3742, 39.1489, -150.109, -75.7196, 88.6156
10.6166, 60, -11.2437, -22.1994, 39.0265, -150.186, -75.8432, 88.8364
10.6238, 60, -11.1663, -22.0244, 38.9038, -150.262, -75.9676, 89.0562
10.6319, 60, -11.0892, -21.8481, 38.7809, -150.339, -76.0931, 89.2749
10.6408, 60, -11.0124, -21.6703, 38.658, -150.414, -76.2198, 89.493
10.648, 61, -10.9361, -21.492, 38.5348, -150.489, -76.3474, 89.7096
10.6563, 61, -10.8601, -21.3137, 38.4114, -150.562, -76.476, 89.9251
10.665, 61, -10.7844, -21.1348, 38.2878, -150.636, -76.6053, 90.1391
10.6721, 61, -10.7093, -20.9546, 38.164, -150.708, -76.7359, 90.3517
10.6801, 61, -10.6346, -20.7737, 38.0401, -150.779, -76.8674, 90.5635
10.6889, 61, -10.5974, -20.6833, 37.9781, -150.85, -77.0001, 90.7742
10.6962, 61, -10.5231, -20.5024, 37.8539, -150.921, -77.1336, 90.9835
10.7035, 61, -10.4492, -20.3207, 37.7295, -150.955, -77.2007, 91.0877
10.7123, 61, -10.3756, -20.1376, 37.605, -151.025, -77.3356, 91.3981
10.7211, 61, -10.3024, -19.9542, 37.4181, -151.127, -77.5394, 91.6034
10.7265, 61, -10.2297, -19.771, 37.3558, -151.161, -77.6078, 91.7058
10.7355, 61, -10.1573, -19.5871, 37.2312, -151.228, -77.7449, 91.9095
10.7435, 61, -10.0855, -19.402, 37.1066, -151.294, -77.8829, 92.1115
10.7515, 62, -10.014, -19.2165, 36.9821, -151.36, -78.0214, 92.3121
10.7612, 62, -9.90744, -18.9384, 36.7954, -151.457, -78.2307, 92.6101
10.7675, 62, -9.87215, -18.8454, 36.7332, -151.488, -78.3007, 92.7089
10.7756, 62, -9.80195, -18.6586, 36.6088, -151.551, -78.4415, 92.9054
10.7835, 62, -9.73217, -18.4718, 36.4842, -151.613, -78.5826, 93.1006
10.7916, 62, -9.66276, -18.2856, 36.3597, -151.674, -78.7243, 93.294
10.7996, 62, -9.5936, -18.0991, 36.2354, -151.734, -78.8669, 93.4861
10.8076, 62, -9.52486, -17.9116, 36.1112, -151.794, -79.0099, 93.6766
10.818, 62, -9.42244, -17.6305, 35.9252, -151.882, -79.2257, 93.9603
10.8226, 62, -9.38854, -17.5368, 35.8632, -151.911, -79.2979, 94.0541
10.8315, 62, -9.32105, -17.349, 35.7393, -151.967, -79.4429, 94.2404
10.8396, 62, -9.25395, -17.1602, 35.6158, -152.024, -79.5881, 94.425
10.8475, 62, -9.18737, -16.971, 35.4925, -152.079, -79.7341, 94.6079
10.8565, 63, -9.1212, -16.7825, 35.3694, -152.133, -79.8804, 94.7887
10.8635, 63, -9.05544, -16.5936, 35.2466, -152.187, -80.0274, 94.9681
10.8716, 63, -8.99011, -16.4041, 35.1239, -152.24, -80.1748, 95.1462
10.8795, 63, -8.92526, -16.2149, 35.0014, -152.291, -80.3225, 95.3222
10.8875, 63, -8.86089, -16.0263, 34.8793, -152.342, -80.4707, 95.4968
10.8956, 63, -8.79693, -15.8374, 34.7574, -152.392, -80.6194, 95.6692
10.9035, 63, -8.73344, -15.6479, 34.6359, -152.44, -80.7684, 95.84
10.9117, 63, -8.67033, -15.4589, 34.5146, -152.489, -80.9176, 96.0092
10.9196, 63, -8.60758, -15.2706, 34.3936, -152.535, -81.0672, 96.1767
10.9276, 63, -8.54525, -15.082, 34.2729, -152.581, -81.2168, 96.3428
10.9355, 63, -8.48324, -14.8928, 34.1528, -152.627, -81.3669, 96.5065
10.9436, 63, -8.42178, -14.7039, 34.0331, -152.671, -81.517, 96.6686
10.9518, 64, -8.36074, -14.5154, 33.9138, -152.714, -81.6675, 96.8284
10.9596, 64, -8.30009, -14.3265, 33.7947, -152.757, -81.8178, 96.9862
10.9676, 64, -8.24002, -14.1372, 33.676, -152.799, -81.9685, 97.1423
10.9756, 64, -8.18037, -13.9487, 33.5579, -152.839, -82.119, 97.2968
10.9835, 64, -8.12117, -13.7613, 33.4402, -152.879, -82.2699, 97.4494
10.9915, 64, -8.06246, -13.5737, 33.3231, -152.918, -82.4208, 97.5998
10.9998, 64, -8.00407, -13.386, 33.2062, -152.956, -82.572, 97.7483
11.0077, 64, -7.94615, -13.1991, 33.0898, -152.993, -82.7232, 97.8949
11.0165, 64, -7.88862, -13.0128, 32.9738, -153.029, -82.8746, 98.0393
11.0236, 64, -7.83147, -12.826, 32.8584, -153.065, -83.0259, 98.1819
11.0316, 64, -7.7748, -12.6391, 32.7437, -153.099, -83.1773, 98.3226
11.0397, 64, -7.71855, -12.453, 32.6295, -153.132, -83.3288, 98.4613
11.0476, 64, -7.66269, -12.2676, 32.5157, -153.164, -83.4802, 98.5978
11.0556, 65, -7.60726, -12.082, 32.4023, -153.196, -83.6316, 98.732
11.0637, 65, -7.55223, -11.8962, 32.2895, -153.226, -83.7832, 98.864
11.0715, 65, -7.4977, -11.7115, 32.1774, -153.256, -83.9343, 98.9938
11.0796, 65, -7.44365, -11.5276, 32.0661, -153.284, -84.0857, 99.1212
11.0876, 65, -7.38994, -11.3436, 31.9554, -153.312, -84.2369, 99.2464
11.0959, 65, -7.33667, -11.1596, 31.8449, -153.339, -84.3879, 99.3694
11.104, 65, -7.28388, -10.9767, 31.7349, -153.365, -84.539, 99.4905
11.112, 65, -7.23142, -10.7948, 31.6256, -153.389, -84.6898, 99.6092
11.1198, 65, -7.17939, -10.6128, 31.5171, -153.413, -84.8406, 99.7258
11.1278, 65, -7.12791, -10.4309, 31.4094, -153.436, -84.9911, 99.84
11.136, 65, -7.0766, -10.2502, 31.3022, -153.458, -85.1415, 99.9516
11.1443, 65, -7.02575, -10.0701, 31.1955, -153.48, -85.2915, 100.061
11.152, 65, -6.97535, -9.89002, 31.0892, -153.501, -85.4416, 100.168
11.1602, 66, -6.92517, -9.71002, 30.9837, -153.521, -85.5911, 100.272
11.1681, 66, -6.8755, -9.53124, 30.879, -153.539, -85.7407, 100.374
11.1761, 66, -6.82636, -9.35381, 30.7753, -153.557, -85.89, 100.474
11.1842, 66, -6.77748, -9.17652, 30.6721, -153.573, -86.0391, 100.571
11.1924, 66, -6.75321, -9.08788, 30.6207, -153.581, -86.1878, 100.666
11.2001, 66, -6.70507, -8.91118, 30.5181, -153.597, -86.3363, 100.758
11.2076, 66, -6.65724, -8.73584, 30.4162, -153.612, -86.4104, 100.803
11.2155, 66, -6.60964, -8.5611, 30.315, -153.626, -86.5583, 100.892
11.2237, 66, -6.56251, -8.38634, 30.2148, -153.64, -86.7062, 100.978
11.2336, 66, -6.51591, -8.1253, 30.0661, -153.658, -86.9275, 101.102
11.2395, 66, -6.46962, -8.03893, 30.0167, -153.664, -87.0011, 101.142
11.2475, 66, -6.42353, -7.86683, 29.9184, -153.674, -87.148, 101.22
11.2556, 66, -6.37794, -7.6948, 29.8206, -153.684, -87.2947, 101.295
11.2635, 67, -6.33276, -7.52314, 29.7235, -153.692, -87.441, 101.368
11.273, 67, -6.2655, -7.26803, 29.5798, -153.704, -87.6603, 101.471
11.2795, 67, -6.24326, -7.18351, 29.5324, -153.707, -87.7332, 101.505
11.2876, 67, -6.19915, -7.0146, 29.438, -153.713, -87.8787, 101.569
11.2968, 67, -6.15535, -6.84605, 29.3441, -153.719, -88.0239, 101.63
11.3035, 67, -6.11186, -6.67852, 29.2506, -153.723, -88.1687, 101.69
11.3116, 67, -6.06879, -6.51229, 29.1577, -153.727, -88.313, 101.746
11.3213, 67, -6.02615, -6.34679, 29.0202, -153.731, -88.529, 101.825
11.3304, 67, -5.96274, -6.09902, 28.9297, -153.733, -88.6726, 101.875
11.3356, 67, -5.94183, -6.01682, 28.8848, -153.734, -88.7442, 101.899
11.3446, 67, -5.9002, -5.85334, 28.7954, -153.735, -88.887, 101.944
11.3515, 67, -5.85888, -5.69075, 28.7065, -153.735, -89.0294, 101.986
11.3596, 67, -5.81771, -5.52838, 28.6182, -153.735, -89.1712, 102.025
11.3703, 68, -5.7568, -5.286, 28.4871, -153.735, -89.3833, 102.079
11.3756, 68, -5.73663, -5.20579, 28.4438, -153.734, -89.4537, 102.096
11.3835, 68, -5.69652, -5.04629, 28.3579, -153.733, -89.5947, 102.126
11.3915, 68, -5.65664, -4.88769, 28.2729, -153.73, -89.7347, 102.153
11.3996, 68, -5.6172, -4.72954, 28.1883, -153.726, -89.8749, 102.177
11.4075, 68, -5.57814, -4.57223, 28.1045, -153.721, -90.0145, 102.198
11.4155, 68, -5.53934, -4.41609, 28.0213, -153.715, -90.154, 102.216
11.4237, 68, -5.5007, -4.26101, 27.9389, -153.709, -90.2929, 102.231
11.4316, 68, -5.46245, -4.10639, 27.8572, -153.702, -90.4316, 102.243
11.4396, 68, -5.42464, -3.95226, 27.7762, -153.694, -90.5699, 102.253
11.4475, 68, -5.38708, -3.79894, 27.6961, -153.685, -90.7079, 102.259
11.4556, 68, -5.34972, -3.64671, 27.6167, -153.676, -90.8454, 102.262
11.4635, 68, -5.31268, -3.4954, 27.5381, -153.666, -90.9827, 102.263
11.4716, 69, -5.27599, -3.34472, 27.4603, -153.655, -91.1197, 102.263
11.4796, 69, -5.23955, -3.19456, 27.383, -153.643, -91.2563, 102.258
11.4877, 69, -5.20329, -3.04548, 27.3065, -153.63, -91.3923, 102.249
11.4955, 69, -5.16728, -2.89753, 27.2306, -153.616, -91.5281, 102.237
11.5035, 69, -5.13161, -2.75059, 27.1552, -153.602, -91.6633, 102.221
11.5116, 69, -5.09616, -2.60421, 27.0807, -153.587, -91.7981, 102.202
11.5197, 69, -5.0609, -2.45872, 27.0069, -153.572, -91.9326, 102.18
11.5285, 69, -5.02576, -2.31408, 26.9338, -153.556, -92.0665, 102.154
11.5356, 69, -4.99101, -2.17051, 26.8614, -153.54, -92.2001, 102.125
11.5438, 69, -4.95652, -2.02797, 26.7898, -153.523, -92.3331, 102.092
11.5516, 69, -4.92231, -1.88613, 26.7187, -153.506, -92.4659, 102.055
11.5597, 69, -4.88816, -1.74478, 26.6483, -153.488, -92.5979, 102.015
11.5681, 69, -4.85427, -1.60427, 26.5786, -153.469, -92.7298, 101.972
11.5756, 70, -4.82071, -1.46476, 26.5096, -153.449, -92.8613, 101.925
11.5836, 70, -4.7874, -1.32631, 26.4413, -153.429, -92.9923, 101.874
11.5925, 70, -4.75428, -1.18862, 26.3736, -153.409, -93.1232, 101.82
11.5996, 70, -4.7212, -1.05165, 26.3067, -153.389, -93.2534, 101.763
