hehonglu123/Motion-Primitive-Planning/realrobot/recorded_data/repeatability/wood/v50_iteration1.csv
timestamp, cmd_num, J1, J2, J3, J4, J5, J6
0.000456, -1, 11.3777, 13.6145, 17.3379, -145.519, -97.9227, 142.516
0.006394, -1, 11.3777, 13.6145, 17.3379, -145.519, -97.9227, 142.516
0.008975, -1, 11.3777, 13.6145, 17.338, -145.519, -97.9227, 142.516
0.030439, -1, 11.3777, 13.6145, 17.3379, -145.519, -97.9226, 142.516
0.033113, -1, 11.3777, 13.6145, 17.3379, -145.519, -97.9226, 142.516
0.035516, -1, 11.3777, 13.6145, 17.3379, -145.519, -97.9226, 142.516
0.039735, -1, 11.3777, 13.6145, 17.3379, -145.519, -97.9226, 142.516
0.048545, -1, 11.3777, 13.6145, 17.3379, -145.519, -97.9226, 142.516
0.05581, -1, 11.377, 13.6145, 17.3379, -145.519, -97.9227, 142.516
0.203432, -1, 9.97038, 13.235, 17.4284, -145.961, -97.7714, 139.957
0.205486, -1, 9.89321, 13.2144, 17.4334, -145.985, -97.7628, 139.817
0.20668, -1, 9.89321, 13.2144, 17.4334, -145.985, -97.7628, 139.817
0.207926, -1, 9.89321, 13.2144, 17.4334, -145.985, -97.7628, 139.817
0.209924, -1, 9.81563, 13.1937, 17.4384, -146.009, -97.7542, 139.678
0.211187, -1, 9.81563, 13.1937, 17.4384, -146.009, -97.7542, 139.678
0.213601, -1, 9.73785, 13.173, 17.4435, -146.033, -97.7456, 139.538
0.217214, -1, 9.66003, 13.1523, 17.4486, -146.057, -97.737, 139.398
0.218566, -1, 9.66003, 13.1523, 17.4486, -146.057, -97.737, 139.398
0.219921, -1, 9.66003, 13.1523, 17.4486, -146.057, -97.737, 139.398
0.221886, -1, 9.58232, 13.1317, 17.4536, -146.081, -97.7285, 139.259
0.223158, -1, 9.58232, 13.1317, 17.4536, -146.081, -97.7285, 139.259
0.226529, -1, 9.58232, 13.1111, 17.4585, -146.105, -97.72, 139.119
0.227786, -1, 9.50478, 13.1111, 17.4585, -146.105, -97.72, 139.119
0.230041, -1, 9.42737, 13.0905, 17.4635, -146.129, -97.7116, 138.979
0.233004, -1, 9.42737, 13.0905, 17.4635, -146.129, -97.7032, 138.84
0.23447, -1, 9.35007, 13.0699, 17.4684, -146.153, -97.7032, 138.84
0.235745, -1, 9.35007, 13.0699, 17.4684, -146.153, -97.7032, 138.84
0.237764, -1, 9.27286, 13.0494, 17.4734, -146.177, -97.6949, 138.7
0.239045, -1, 9.27286, 13.0494, 17.4734, -146.177, -97.6949, 138.7
0.24035, -1, 9.27286, 13.0494, 17.4734, -146.177, -97.6949, 138.7
0.242401, -1, 9.19576, 13.0288, 17.4784, -146.201, -97.6866, 138.56
0.245687, -1, 9.11878, 13.0083, 17.4834, -146.225, -97.6782, 138.421
0.247589, -1, 9.11878, 13.0083, 17.4834, -146.225, -97.6782, 138.421
0.257332, -1, 8.96514, 12.9672, 17.4935, -146.273, -97.653, 138.001
0.26364, -1, 8.81161, 12.9263, 17.5037, -146.321, -97.6444, 137.861
0.272618, -1, 8.65849, 12.8853, 17.5137, -146.369, -97.627, 137.581
0.279637, -1, 8.50577, 12.8441, 17.5239, -146.417, -97.6096, 137.301
0.287632, -1, 8.35303, 12.8029, 17.5341, -146.465, -97.5921, 137.021
0.295581, -1, 8.19989, 12.7615, 17.5442, -146.512, -97.575, 136.741
0.303577, -1, 8.04622, 12.7201, 17.5545, -146.56, -97.5582, 136.461
0.31174, -1, 7.89199, 12.6786, 17.5647, -146.608, -97.5415, 136.181
0.319651, -1, 7.73718, 12.637, 17.5747, -146.656, -97.5248, 135.901
0.327571, -1, 7.58213, 12.5954, 17.585, -146.704, -97.5081, 135.621
0.335658, -1, 7.42696, 12.5539, 17.5951, -146.752, -97.4911, 135.341
0.343571, -1, 7.27174, 12.5126, 17.6052, -146.8, -97.4738, 135.061
0.351572, -1, 7.11656, 12.4712, 17.6155, -146.848, -97.4564, 134.78
0.359747, -1, 6.96122, 12.4299, 17.6258, -146.897, -97.4392, 134.5
0.367571, -1, 6.80609, 12.3889, 17.6361, -146.944, -97.4223, 134.22
0.375579, -1, 6.6512, 12.3477, 17.6466, -146.993, -97.4055, 133.94
0.383653, -1, 6.49664, 12.3065, 17.6569, -147.041, -97.3888, 133.659
0.391612, -1, 6.34228, 12.2654, 17.6672, -147.089, -97.372, 133.379
0.399633, -1, 6.18804, 12.224, 17.6775, -147.137, -97.355, 133.098
0.407675, -1, 6.03371, 12.1826, 17.6877, -147.185, -97.3377, 132.818
0.415576, -1, 5.87918, 12.1412, 17.698, -147.233, -97.3201, 132.537
0.423666, -1, 5.72444, 12.0997, 17.7082, -147.281, -97.3026, 132.256
0.431578, -1, 5.56952, 12.058, 17.7184, -147.329, -97.2855, 131.976
0.43977, -1, 5.41435, 12.0165, 17.7287, -147.377, -97.2685, 131.695
0.447643, -1, 5.25899, 11.9749, 17.7389, -147.425, -97.2518, 131.414
0.455918, -1, 5.10329, 11.9333, 17.7493, -147.474, -97.2351, 131.133
0.463618, -1, 4.94741, 11.8918, 17.7597, -147.521, -97.2182, 130.852
0.471724, -1, 4.79149, 11.8503, 17.7702, -147.569, -97.2011, 130.571
0.48002, -1, 4.63562, 11.8089, 17.7806, -147.618, -97.1837, 130.29
0.487155, -1, 4.47983, 11.7676, 17.7909, -147.666, -97.1663, 130.009
0.495751, -1, 4.32418, 11.7262, 17.8013, -147.714, -97.149, 129.729
0.504426, -1, 4.16887, 11.6849, 17.8117, -147.763, -97.132, 129.447
0.511578, -1, 4.01392, 11.6436, 17.822, -147.811, -97.1151, 129.166
0.519815, -1, 3.85939, 11.6023, 17.8323, -147.859, -97.0983, 128.885
0.528554, -1, 3.70502, 11.5609, 17.8426, -147.908, -97.0815, 128.604
0.535616, -1, 3.5505, 11.5194, 17.8529, -147.956, -97.0644, 128.322
0.543758, -1, 3.39582, 11.4778, 17.8633, -148.005, -97.0471, 128.041
0.552745, -1, 3.24092, 11.4362, 17.8737, -148.053, -97.0295, 127.76
0.559829, -1, 3.08574, 11.3945, 17.8841, -148.101, -97.012, 127.478
0.568022, -1, 2.9304, 11.3528, 17.8945, -148.149, -96.9949, 127.196
0.574558, -1, 2.85265, 11.332, 17.8996, -148.173, -96.9864, 127.056
0.583968, -1, 2.61881, 11.2695, 17.915, -148.245, -96.9613, 126.634
0.592165, -1, 2.46257, 11.2279, 17.9255, -148.294, -96.9446, 126.352
0.600976, -1, 2.30602, 11.1863, 17.9358, -148.342, -96.9277, 126.07
0.608127, -1, 2.14925, 11.1447, 17.9462, -148.39, -96.9106, 125.788
0.616163, -1, 1.99249, 11.103, 17.9566, -148.439, -96.8932, 125.506
0.625026, -1, 1.83585, 11.0615, 17.9669, -148.487, -96.8757, 125.224
0.632169, -1, 1.75758, 11.0407, 17.9721, -148.535, -96.8584, 124.942
0.64011, -1, 1.60123, 10.999, 17.9826, -148.56, -96.8498, 124.801
0.647611, -1, 1.44515, 10.9574, 17.993, -148.609, -96.8329, 124.519
0.787337, -1, -1.28684, 10.227, 18.1747, -149.457, -96.5334, 119.574
0.788526, -1, -1.28684, 10.227, 18.1747, -149.457, -96.5334, 119.574
0.79055, -1, -1.36527, 10.2061, 18.1798, -149.482, -96.525, 119.432
0.79179, -1, -1.36527, 10.2061, 18.1798, -149.482, -96.525, 119.432
0.793949, -1, -1.44361, 10.1852, 18.1849, -149.506, -96.5166, 119.291
0.795186, -1, -1.44361, 10.1852, 18.1849, -149.506, -96.5166, 119.291
0.796523, -1, -1.44361, 10.1852, 18.1849, -149.506, -96.5166, 119.291
0.799642, -1, -1.52193, 10.1644, 18.1902, -149.53, -96.5082, 119.149
0.801716, -1, -1.60019, 10.1435, 18.1954, -149.554, -96.4998, 119.008
0.803063, -1, -1.60019, 10.1435, 18.1954, -149.554, -96.4998, 119.008
0.804326, -1, -1.60019, 10.1435, 18.1954, -149.554, -96.4998, 119.008
0.806947, -1, -1.67834, 10.1226, 18.2007, -149.579, -96.4913, 118.866
0.809649, -1, -1.67834, 10.1017, 18.2059, -149.603, -96.4827, 118.725
0.811079, -1, -1.75636, 10.1017, 18.2059, -149.603, -96.4827, 118.725
0.812402, -1, -1.75636, 10.1017, 18.2059, -149.603, -96.4827, 118.725
0.818743, -1, -1.91198, 10.0599, 18.2163, -149.652, -96.4653, 118.441
0.820011, -1, -1.91198, 10.0599, 18.2163, -149.652, -96.4653, 118.441
0.821928, -1, -1.98966, 10.039, 18.2216, -149.676, -96.4565, 118.299
0.823405, -1, -1.98966, 10.039, 18.2216, -149.676, -96.4565, 118.299
0.824591, -1, -1.98966, 10.039, 18.2216, -149.676, -96.4565, 118.299
0.826612, -1, -2.06727, 10.0181, 18.2268, -149.7, -96.4477, 118.157
0.827804, -1, -2.06727, 10.0181, 18.2268, -149.7, -96.4477, 118.157
0.83399, -1, -2.22238, 9.9763, 18.2371, -149.749, -96.4301, 117.874
0.839548, -1, -2.29999, 9.95541, 18.2423, -149.773, -96.4214, 117.733
0.847555, -1, -2.45541, 9.9135, 18.2527, -149.822, -96.4043, 117.449
0.856348, -1, -2.61113, 9.8716, 18.2632, -149.87, -96.3874, 117.165
0.863586, -1, -2.76713, 9.82971, 18.2735, -149.919, -96.3707, 116.881
0.871558, -1, -2.92355, 9.78783, 18.2838, -149.967, -96.3538, 116.598
0.880506, -1, -3.08039, 9.74595, 18.2942, -150.016, -96.3369, 116.314
0.887642, -1, -3.23768, 9.70407, 18.3046, -150.065, -96.3196, 116.03
0.895553, -1, -3.39537, 9.66212, 18.3151, -150.113, -96.3019, 115.746
0.904335, -1, -3.55329, 9.62019, 18.3256, -150.162, -96.2844, 115.462
0.911562, -1, -3.71116, 9.57837, 18.336, -150.211, -96.2671, 115.178
0.91955, -1, -3.86921, 9.53651, 18.3463, -150.259, -96.2501, 114.894
0.928377, -1, -4.02723, 9.49456, 18.3567, -150.308, -96.2332, 114.61
0.935555, -1, -4.18509, 9.45274, 18.3671, -150.357, -96.2162, 114.326
0.943584, -1, -4.34277, 9.41086, 18.3774, -150.406, -96.1991, 114.041
0.95238, -1, -4.50006, 9.36891, 18.3878, -150.455, -96.1818, 113.756
0.959588, -1, -4.65708, 9.32695, 18.3981, -150.504, -96.1641, 113.472
0.967622, -1, -4.81363, 9.28495, 18.4084, -150.552, -96.1463, 113.188
0.975754, -1, -4.96988, 9.24292, 18.4189, -150.602, -96.1289, 112.903
0.983647, -1, -5.12585, 9.20093, 18.4295, -150.65, -96.1117, 112.618
0.991666, -1, -5.28167, 9.15888, 18.44, -150.698, -96.0947, 112.333
1.00012, -1, -5.43769, 9.11674, 18.4505, -150.748, -96.0779, 112.049
1.00766, -1, -5.59392, 9.07467, 18.4609, -150.796, -96.061, 111.764
1.0161, -1, -5.75042, 9.03264, 18.4713, -150.845, -96.0438, 111.479
1.02257, -1, -5.82883, 9.01158, 18.4765, -150.87, -96.0351, 111.337
1.03164, -1, -6.06485, 8.94838, 18.492, -150.943, -96.0088, 110.909
1.0405, -1, -6.22285, 8.90631, 18.5024, -150.991, -95.9912, 110.624
1.04764, -1, -6.38116, 8.86424, 18.5127, -151.041, -95.9741, 110.339
1.05571, -1, -6.53958, 8.82223, 18.523, -151.09, -95.957, 110.054
1.06459, -1, -6.69813, 8.78014, 18.5335, -151.139, -95.94, 109.769
1.07184, -1, -6.85692, 8.73807, 18.5441, -151.188, -95.9231, 109.483
1.07998, -1, -7.01557, 8.69605, 18.5546, -151.237, -95.9059, 109.197
1.08881, -1, -7.17407, 8.65398, 18.565, -151.286, -95.8884, 108.912
1.09605, -1, -7.33232, 8.61189, 18.5754, -151.335, -95.8708, 108.627
1.10411, -1, -7.49015, 8.56968, 18.5858, -151.384, -95.8531, 108.341
1.11294, -1, -7.6478, 8.52741, 18.5962, -151.433, -95.8356, 108.055
1.12012, -1, -7.80508, 8.48521, 18.6066, -151.483, -95.8184, 107.77
1.12814, -1, -7.96196, 8.44299, 18.617, -151.531, -95.8014, 107.484
1.137, -1, -8.0403, 8.42183, 18.6222, -151.555, -95.7844, 107.198
1.14354, -1, -8.19688, 8.37953, 18.6326, -151.605, -95.7759, 107.055
1.15215, -1, -8.35353, 8.33723, 18.6431, -151.654, -95.7588, 106.769
1.15954, -1, -8.51032, 8.29488, 18.6536, -151.702, -95.7415, 106.483
1.16754, -1, -8.66748, 8.25261, 18.6641, -151.752, -95.7238, 106.197
1.17559, -1, -8.82504, 8.21039, 18.6745, -151.801, -95.7061, 105.911
1.18354, -1, -8.98289, 8.16808, 18.6849, -151.849, -95.6887, 105.624
1.19157, -1, -9.14129, 8.12581, 18.6954, -151.899, -95.6715, 105.338
1.1996, -1, -9.30007, 8.08366, 18.7058, -151.948, -95.6544, 105.051
1.20754, -1, -9.45909, 8.04136, 18.7162, -151.997, -95.6373, 104.765
1.21559, -1, -9.61829, 7.99917, 18.7267, -152.047, -95.6201, 104.478
1.22354, -1, -9.77763, 7.95704, 18.7371, -152.096, -95.6027, 104.191
1.23155, -1, -9.93701, 7.91486, 18.7476, -152.145, -95.585, 103.904
1.2396, -1, -10.0964, 7.87258, 18.7583, -152.195, -95.567, 103.618
1.24913, -1, -10.335, 7.80904, 18.7742, -152.268, -95.5406, 103.187
1.25554, -1, -10.4144, 7.78781, 18.7795, -152.293, -95.532, 103.044
1.2651, -1, -10.5729, 7.74531, 18.7899, -152.343, -95.5149, 102.757
1.27154, -1, -10.7313, 7.70291, 18.8003, -152.392, -95.498, 102.47
1.28058, -1, -10.8892, 7.66042, 18.8108, -152.441, -95.481, 102.183
1.2876, -1, -11.0468, 7.61789, 18.8212, -152.49, -95.4637, 101.896
1.29554, -1, -11.2042, 7.57546, 18.8316, -152.539, -95.4462, 101.608
1.30354, -1, -11.3616, 7.53301, 18.8421, -152.588, -95.4284, 101.321
1.31156, -1, -11.5191, 7.49057, 18.8525, -152.638, -95.4108, 101.034
1.31954, -1, -11.6769, 7.44815, 18.863, -152.687, -95.3933, 100.746
1.32758, -1, -11.8351, 7.40576, 18.8736, -152.736, -95.376, 100.458
1.33554, -1, -11.9936, 7.36338, 18.8842, -152.786, -95.3588, 100.171
1.34353, -1, -12.1525, 7.32106, 18.8947, -152.835, -95.3416, 99.8834
1.35161, -1, -12.312, 7.27868, 18.9052, -152.885, -95.3244, 99.5955
1.35954, -1, -12.4717, 7.2363, 18.9157, -152.934, -95.3068, 99.3075
1.36757, -1, -12.6317, 7.19399, 18.9262, -152.984, -95.2889, 99.0195
1.3756, -1, -12.7917, 7.15161, 18.9367, -153.033, -95.271, 98.7316
1.38354, -1, -12.9519, 7.10917, 18.9472, -153.083, -95.2534, 98.4436
1.39155, -1, -13.1119, 7.06663, 18.9577, -153.132, -95.236, 98.1554
1.39959, -1, -13.2717, 7.02408, 18.9682, -153.182, -95.2188, 97.8674
1.40755, -1, -13.4311, 6.9815, 18.9788, -153.231, -95.2018, 97.5793
1.41554, -1, -13.5905, 6.93874, 18.9894, -153.28, -95.1846, 97.2907
1.42361, -1, -13.7496, 6.89602, 19, -153.33, -95.1672, 97.0022
1.43157, -1, -13.9084, 6.85333, 19.0104, -153.379, -95.1495, 96.7137
1.43954, -1, -14.0666, 6.81059, 19.0209, -153.428, -95.1318, 96.4251
1.44763, -1, -14.2248, 6.76799, 19.0314, -153.478, -95.114, 96.1362
1.45554, -1, -14.383, 6.72534, 19.0419, -153.527, -95.0967, 95.8473
1.46357, -1, -14.5413, 6.68268, 19.0523, -153.577, -95.0794, 95.5586
1.47168, -1, -14.7, 6.64011, 19.0629, -153.627, -95.0621, 95.2695
1.47962, -1, -14.859, 6.59758, 19.0734, -153.676, -95.0451, 94.9801
1.48769, -1, -15.0184, 6.55496, 19.0841, -153.725, -95.0277, 94.691
1.49563, -1, -15.1781, 6.51237, 19.0948, -153.776, -95.01, 94.4019
1.50364, -1, -15.3383, 6.46986, 19.1054, -153.825, -94.9921, 94.1128
1.51172, -1, -15.4988, 6.42723, 19.1161, -153.874, -94.9741, 93.8234
1.51956, -1, -15.6596, 6.38456, 19.1266, -153.925, -94.9564, 93.5344
1.52757, -1, -15.8204, 6.34186, 19.1371, -153.974, -94.9391, 93.2451
1.53567, -1, -15.9811, 6.29907, 19.1478, -154.024, -94.9218, 92.9556
1.54362, -1, -16.1418, 6.25624, 19.1583, -154.074, -94.9047, 92.6659
1.55163, -1, -16.3026, 6.21341, 19.1688, -154.123, -94.8875, 92.3765
1.55981, -1, -16.463, 6.17045, 19.1793, -154.172, -94.8701, 92.0869
1.56793, -1, -16.6232, 6.12747, 19.1897, -154.222, -94.8522, 91.7968
1.57582, -1, -16.783, 6.08458, 19.2003, -154.272, -94.8343, 91.5068
1.58401, -1, -16.9423, 6.04161, 19.2109, -154.321, -94.8167, 91.217
1.59053, -1, -17.0219, 6.02016, 19.2162, -154.347, -94.8079, 91.072
1.60003, -1, -17.2607, 5.95581, 19.2322, -154.421, -94.7818, 90.6366
1.60809, -1, -17.4198, 5.91299, 19.2427, -154.471, -94.7645, 90.3462
1.61632, -1, -17.5791, 5.87024, 19.2533, -154.521, -94.7471, 90.0561
1.62414, -1, -17.7385, 5.82748, 19.2639, -154.57, -94.7295, 89.7658
1.63214, -1, -17.8183, 5.78473, 19.2746, -154.62, -94.7115, 89.4754
1.64032, -1, -17.9781, 5.76336, 19.2852, -154.67, -94.6933, 89.185
1.64808, -1, -18.1385, 5.72068, 19.2905, -154.695, -94.6843, 89.0398
1.65554, -1, -18.2993, 5.67797, 19.301, -154.745, -94.6667, 88.7492
1.66353, -1, -18.4605, 5.63516, 19.3117, -154.796, -94.6492, 88.4585
1.67158, -1, -18.6221, 5.59225, 19.3224, -154.845, -94.6319, 88.1675
1.67953, -1, -18.7836, 5.54934, 19.333, -154.895, -94.6147, 87.8767
1.68751, -1, -18.9452, 5.5064, 19.3436, -154.945, -94.5973, 87.5858
1.69557, -1, -19.1069, 5.46331, 19.3541, -154.995, -94.5797, 87.2945
1.70356, -1, -19.2683, 5.42019, 19.3647, -155.045, -94.5617, 87.0032
1.71153, -1, -19.4296, 5.37712, 19.3753, -155.095, -94.5436, 86.7122
1.71967, -1, -19.5905, 5.33395, 19.3858, -155.144, -94.5257, 86.4207
1.72753, -1, -19.7512, 5.29083, 19.3964, -155.195, -94.5081, 86.1288
1.73557, -1, -19.9117, 5.24776, 19.4069, -155.245, -94.4907, 85.8371
1.74352, -1, -20.0718, 5.20462, 19.4176, -155.294, -94.4734, 85.5457
1.75155, -1, -20.2317, 5.16163, 19.4285, -155.345, -94.456, 85.2542
1.75959, -1, -20.3916, 5.11874, 19.4392, -155.395, -94.4383, 84.9623
1.76755, -1, -20.5517, 5.07574, 19.45, -155.444, -94.4204, 84.6707
1.77654, -1, -20.7118, 5.0328, 19.4607, -155.495, -94.4023, 84.379
1.78363, -1, -20.8724, 4.98998, 19.4714, -155.545, -94.3845, 84.0871
1.79257, -1, -21.0334, 4.94704, 19.482, -155.595, -94.3669, 83.7949
1.79953, -1, -21.1947, 4.90407, 19.4926, -155.646, -94.3496, 83.5028
1.80757, -1, -21.3565, 4.86106, 19.5032, -155.696, -94.3323, 83.2108
1.81552, -1, -21.5186, 4.81789, 19.5138, -155.746, -94.3151, 82.9184
1.82354, -1, -21.6808, 4.77471, 19.5245, -155.797, -94.2977, 82.626
1.83153, -1, -21.8431, 4.73152, 19.5352, -155.846, -94.2799, 82.3338
1.83952, -1, -22.0055, 4.68816, 19.5459, -155.896, -94.2619, 82.0412
1.8476, -1, -22.1679, 4.6448, 19.5567, -155.947, -94.244, 81.7484
1.85552, -1, -22.3304, 4.60147, 19.5673, -155.997, -94.2263, 81.4556
1.86352, -1, -22.4924, 4.55808, 19.578, -156.047, -94.2088, 81.1629
1.87163, -1, -22.6541, 4.51468, 19.5886, -156.098, -94.1913, 80.8702
1.87952, -1, -22.8156, 4.47128, 19.5992, -156.147, -94.1739, 80.5772
1.88752, -1, -22.9768, 4.42794, 19.6099, -156.198, -94.1563, 80.2842
1.89559, -1, -23.1379, 4.38467, 19.6205, -156.248, -94.1382, 79.9913
1.90352, -1, -23.2988, 4.3414, 19.6312, -156.298, -94.12, 79.6982
1.91153, -1, -23.4597, 4.29819, 19.6421, -156.349, -94.1018, 79.4047
1.91959, -1, -23.6206, 4.25493, 19.6529, -156.4, -94.0839, 79.1114
1.92751, -1, -23.7818, 4.21173, 19.6637, -156.45, -94.0663, 78.8182
1.93554, -1, -23.9431, 4.16854, 19.6744, -156.5, -94.0487, 78.5246
1.94365, -1, -24.1049, 4.12517, 19.685, -156.551, -94.0313, 78.2308
1.95156, -1, -24.2671, 4.08181, 19.6957, -156.601, -94.0139, 77.9372
1.95958, -1, -24.4298, 4.0384, 19.7064, -156.652, -93.9961, 77.6432
1.96837, -1, -24.5927, 3.99491, 19.717, -156.702, -93.9779, 77.3491
1.9756, -1, -24.7559, 3.95133, 19.7276, -156.752, -93.9598, 77.055
1.98367, -1, -24.9193, 3.90776, 19.7383, -156.803, -93.942, 76.761
1.99239, -1, -25.0828, 3.8642, 19.749, -156.853, -93.9243, 76.4669
1.99961, -1, -25.2459, 3.82061, 19.7599, -156.903, -93.9068, 76.1726
2.0077, -1, -25.4088, 3.77703, 19.7708, -156.954, -93.8893, 75.8782
2.01679, -1, -25.5716, 3.73338, 19.7815, -157.004, -93.8716, 75.5841
2.02353, -1, -25.7342, 3.68973, 19.7922, -157.054, -93.8538, 75.2897
2.03161, -1, -25.8966, 3.64628, 19.8029, -157.105, -93.8355, 74.9951
2.03959, -1, -26.0587, 3.60277, 19.8136, -157.155, -93.8171, 74.7005
2.04765, -1, -26.2204, 3.55925, 19.8244, -157.206, -93.7989, 74.4059
2.0557, -1, -26.3819, 3.51592, 19.8351, -157.257, -93.7811, 74.1113
2.0637, -1, -26.5437, 3.47253, 19.8458, -157.307, -93.7634, 73.8162
2.07185, -1, -26.7056, 3.42908, 19.8565, -157.358, -93.7459, 73.5214
2.07982, -1, -26.8678, 3.38561, 19.8673, -157.409, -93.7283, 73.2261
2.08798, -1, -27.0305, 3.34204, 19.8782, -157.459, -93.7104, 72.9307
2.09605, -1, -27.1934, 3.29844, 19.889, -157.51, -93.6922, 72.6354
2.10407, -1, -27.3567, 3.25484, 19.8997, -157.561, -93.6739, 72.3401
2.11204, -1, -27.5205, 3.21106, 19.9104, -157.611, -93.6558, 72.0449
2.12016, -1, -27.6844, 3.16733, 19.9212, -157.662, -93.6379, 71.7493
2.12807, -1, -27.8484, 3.12369, 19.9319, -157.712, -93.6202, 71.4537
2.13607, -1, -27.9305, 3.10183, 19.9373, -157.763, -93.6026, 71.1581
2.14429, -1, -28.0946, 3.05813, 19.9534, -157.814, -93.5849, 70.8624
2.1515, -1, -28.2587, 3.01438, 19.9588, -157.839, -93.576, 70.7145
2.1596, -1, -28.4228, 2.97062, 19.9695, -157.89, -93.5578, 70.4184
2.16756, -1, -28.5866, 2.92693, 19.9804, -157.941, -93.5394, 70.1226
2.17551, -1, -28.7501, 2.88325, 19.9912, -157.991, -93.521, 69.8267
2.18352, -1, -28.9133, 2.83954, 20.002, -158.042, -93.503, 69.5303
2.19151, -1, -29.0762, 2.7959, 20.0128, -158.093, -93.4851, 69.2339
2.1995, -1, -29.2388, 2.7523, 20.0235, -158.144, -93.4675, 68.9377
2.20759, -1, -29.4016, 2.70868, 20.0343, -158.195, -93.4499, 68.641
2.21551, -1, -29.5644, 2.66503, 20.0451, -158.246, -93.4321, 68.3441
2.22353, -1, -29.7273, 2.62128, 20.0559, -158.297, -93.4141, 68.0473
2.23156, -1, -29.8904, 2.57754, 20.0667, -158.348, -93.3957, 67.7507
2.23951, -1, -30.0536, 2.53381, 20.0775, -158.399, -93.3774, 67.4539
2.2475, -1, -30.2173, 2.48992, 20.0885, -158.45, -93.3593, 67.1569
2.25705, -1, -30.3813, 2.42405, 20.1049, -158.526, -93.3326, 66.7117
2.26352, -1, -30.5459, 2.40209, 20.1103, -158.552, -93.3237, 66.5631
2.27153, -1, -30.7108, 2.3581, 20.1211, -158.602, -93.306, 66.2659
2.27957, -1, -30.8759, 2.31421, 20.1318, -158.654, -93.2882, 65.9685
2.28858, -1, -31.0409, 2.27029, 20.1428, -158.705, -93.27, 65.6713
2.2955, -1, -31.2059, 2.22626, 20.1536, -158.755, -93.2516, 65.3742
2.30358, -1, -31.3708, 2.18241, 20.1644, -158.807, -93.2331, 65.0767
2.31151, -1, -31.5355, 2.13858, 20.1751, -158.858, -93.215, 64.7789
2.3195, -1, -31.7, 2.09459, 20.1859, -158.909, -93.197, 64.4815
2.32756, -1, -31.8642, 2.05073, 20.1969, -158.96, -93.1794, 64.1835
2.3355, -1, -32.0282, 2.00689, 20.2078, -159.011, -93.1617, 63.8854
2.34357, -1, -32.1919, 1.96292, 20.2188, -159.062, -93.144, 63.5875
2.35158, -1, -32.3555, 1.91905, 20.2297, -159.114, -93.126, 63.2896
2.35952, -1, -32.5191, 1.87507, 20.2406, -159.165, -93.1077, 62.9914
2.36757, -1, -32.6829, 1.83102, 20.2515, -159.216, -93.0892, 62.6931
2.37554, -1, -32.8467, 1.78704, 20.2624, -159.268, -93.0711, 62.3951
2.3835, -1, -33.0109, 1.74294, 20.2733, -159.318, -93.0531, 62.0968
2.39157, -1, -33.1755, 1.69876, 20.2842, -159.37, -93.0353, 61.7983
2.39951, -1, -33.3405, 1.65462, 20.295, -159.421, -93.0175, 61.4996
2.40752, -1, -33.5058, 1.61045, 20.3059, -159.472, -92.9996, 61.2012
2.41557, -1, -33.6715, 1.56628, 20.3169, -159.524, -92.9815, 60.9026
2.42351, -1, -33.8372, 1.52209, 20.3279, -159.574, -92.9629, 60.6035
2.4315, -1, -34.003, 1.47791, 20.3388, -159.625, -92.9443, 60.3046
2.43961, -1, -34.1689, 1.43375, 20.3496, -159.677, -92.9259, 60.0058
2.44756, -1, -34.3348, 1.38962, 20.3605, -159.729, -92.9078, 59.7064
2.45553, -1, -34.5007, 1.34545, 20.3715, -159.78, -92.89, 59.4068
2.46358, -1, -34.6663, 1.30135, 20.3824, -159.832, -92.8722, 59.1073
2.47154, -1, -34.8315, 1.25721, 20.3933, -159.883, -92.8543, 58.808
2.47959, -1, -34.9964, 1.21304, 20.4042, -159.934, -92.8362, 58.5084
2.48766, -1, -35.1612, 1.16887, 20.4151, -159.986, -92.8177, 58.2087
2.49561, -1, -35.3257, 1.12458, 20.4262, -160.037, -92.7992, 57.9091
2.5036, -1, -35.4898, 1.08044, 20.4374, -160.089, -92.7809, 57.6094
2.51167, -1, -35.6523, 1.03666, 20.4486, -160.14, -92.7628, 57.3097
2.51957, -1, -35.8122, 0.993365, 20.46, -160.191, -92.7448, 57.011
2.5275, -1, -35.9683, 0.95115, 20.4718, -160.242, -92.7271, 56.7153
2.53578, -1, -36.1194, 0.91053, 20.4837, -160.291, -92.7097, 56.4253
2.54362, -1, -36.2632, 0.872049, 20.4956, -160.339, -92.6925, 56.1448
2.55161, -1, -36.3976, 0.836401, 20.5072, -160.384, -92.676, 55.8802
2.55976, -1, -36.5207, 0.803858, 20.5179, -160.425, -92.6607, 55.6378
2.56775, -1, -36.6312, 0.774603, 20.5272, -160.461, -92.6473, 55.4231
2.57578, -1, -36.7274, 0.74918, 20.5347, -160.492, -92.636, 55.2412
2.5842, -1, -36.8089, 0.727492, 20.5401, -160.517, -92.6271, 55.0941
2.59196, -1, -36.8766, 0.709507, 20.5432, -160.537, -92.6203, 54.9818
2.59996, -1, -36.9312, 0.695136, 20.5446, -160.55, -92.6156, 54.9016
2.60837, -1, -36.9731, 0.684098, 20.5449, -160.56, -92.6126, 54.847
2.61654, -1, -37.0038, 0.675953, 20.5446, -160.566, -92.6108, 54.8136
2.62407, -1, -37.0251, 0.670368, 20.5441, -160.569, -92.6098, 54.7945
2.63246, -1, -37.0385, 0.667009, 20.5436, -160.571, -92.6093, 54.7847
2.64002, -1, -37.0428, 0.665956, 20.5435, -160.572, -92.6091, 54.78
2.64747, 2, -37.0478, 0.66473, 20.5434, -160.572, -92.609, 54.7787
2.65553, 2, -37.0489, 0.664204, 20.5433, -160.573, -92.6089, 54.7773
2.66444, 2, -37.0486, 0.663939, 20.5432, -160.573, -92.6088, 54.7765
2.6715, 2, -37.0481, 0.663917, 20.5432, -160.573, -92.6088, 54.7764
2.67953, 2, -37.0482, 0.663892, 20.5432, -160.573, -92.6088, 54.7764
2.6875, 2, -37.0488, 0.663852, 20.5432, -160.573, -92.6088, 54.7765
2.69549, 2, -37.0498, 0.663806, 20.5431, -160.573, -92.6089, 54.7767
2.70354, 2, -37.051, 0.663713, 20.543, -160.573, -92.609, 54.777
2.71152, 2, -37.0524, 0.663538, 20.5427, -160.573, -92.609, 54.7773
2.71948, 2, -37.0537, 0.663333, 20.5426, -160.573, -92.609, 54.7775
2.72929, 2, -37.0553, 0.663066, 20.5423, -160.573, -92.6091, 54.778
2.73555, 2, -37.0555, 0.663019, 20.5422, -160.573, -92.6091, 54.7782
2.74349, 2, -37.0558, 0.662971, 20.5421, -160.573, -92.6092, 54.7785
2.75155, 2, -37.0555, 0.662951, 20.5419, -160.573, -92.6092, 54.7788
2.75949, 2, -37.0547, 0.662996, 20.5418, -160.573, -92.6092, 54.7792
2.76749, 2, -37.0538, 0.663065, 20.5418, -160.573, -92.6092, 54.7794
2.77558, 2, -37.0525, 0.663158, 20.5417, -160.573, -92.6093, 54.7796
2.78452, 2, -37.0508, 0.663297, 20.5417, -160.573, -92.6094, 54.7799
2.79155, 2, -37.0494, 0.663424, 20.5416, -160.573, -92.6094, 54.7801
2.79956, 2, -37.0484, 0.663482, 20.5416, -160.573, -92.6093, 54.7803
2.8075, 2, -37.0479, 0.66348, 20.5415, -160.573, -92.6094, 54.7803
2.81548, 2, -37.0477, 0.663442, 20.5415, -160.573, -92.6094, 54.7804
2.82355, 2, -37.0478, 0.663398, 20.5415, -160.573, -92.6094, 54.7805
2.83149, 2, -37.0481, 0.663343, 20.5415, -160.573, -92.6094, 54.7805
2.83948, 2, -37.0484, 0.66331, 20.5415, -160.573, -92.6094, 54.7806
2.84756, 2, -37.049, 0.663296, 20.5414, -160.573, -92.6094, 54.7806
2.85548, 2, -37.0498, 0.663289, 20.5414, -160.573, -92.6094, 54.7806
2.86348, 2, -37.0507, 0.663286, 20.5414, -160.573, -92.6095, 54.7806
2.87155, 2, -37.0514, 0.663284, 20.5414, -160.573, -92.6095, 54.7806
2.87951, 2, -37.0518, 0.663313, 20.5414, -160.573, -92.6094, 54.7806
2.88749, 2, -37.0519, 0.663341, 20.5414, -160.573, -92.6094, 54.7807
2.89555, 2, -37.0519, 0.663358, 20.5414, -160.573, -92.6095, 54.7807
2.90348, 2, -37.0518, 0.663372, 20.5414, -160.573, -92.6095, 54.7807
2.91148, 2, -37.0514, 0.66336, 20.5414, -160.573, -92.6095, 54.7808
2.91954, 2, -37.0511, 0.663367, 20.5414, -160.573, -92.6094, 54.7808
2.92749, 2, -37.0508, 0.663358, 20.5414, -160.573, -92.6095, 54.7808
2.93548, 2, -37.0506, 0.663325, 20.5414, -160.573, -92.6095, 54.7808
2.94358, 2, -37.0504, 0.663295, 20.5414, -160.573, -92.6095, 54.7808
2.95148, 2, -37.0504, 0.663283, 20.5413, -160.573, -92.6095, 54.7809
2.95952, 2, -37.0504, 0.663283, 20.5413, -160.573, -92.6094, 54.7809
2.96757, 2, -37.0504, 0.663283, 20.5413, -160.573, -92.6095, 54.781
2.97553, 2, -37.0505, 0.663283, 20.5413, -160.573, -92.6095, 54.7809
2.98357, 2, -37.0506, 0.663294, 20.5413, -160.573, -92.6095, 54.781
2.99164, 2, -37.0508, 0.663325, 20.5413, -160.573, -92.6096, 54.7811
2.99958, 2, -37.051, 0.663346, 20.5413, -160.573, -92.6096, 54.7811
3.00759, 2, -37.0511, 0.663354, 20.5413, -160.573, -92.6096, 54.7812
3.01565, 2, -37.0511, 0.663359, 20.5413, -160.573, -92.6096, 54.7812
3.02349, 2, -37.0511, 0.66336, 20.5413, -160.573, -92.6096, 54.7812
3.03151, 2, -37.0511, 0.663355, 20.5413, -160.573, -92.6096, 54.7812
3.03956, 2, -37.0511, 0.663342, 20.5413, -160.573, -92.6096, 54.7814
3.04767, 2, -37.051, 0.66331, 20.5413, -160.573, -92.6097, 54.7813
3.05559, 2, -37.051, 0.663295, 20.5413, -160.573, -92.6097, 54.7814
3.06367, 2, -37.051, 0.663289, 20.5413, -160.573, -92.6097, 54.7814
3.07176, 2, -37.051, 0.663297, 20.5412, -160.573, -92.6097, 54.7815
3.07975, 2, -37.051, 0.663326, 20.5412, -160.573, -92.6097, 54.7815
3.08786, 2, -37.0509, 0.66331, 20.5413, -160.572, -92.6097, 54.7815
3.09595, 2, -37.051, 0.663325, 20.5412, -160.573, -92.6098, 54.7815
3.10396, 2, -37.051, 0.663351, 20.5412, -160.572, -92.6097, 54.7816
3.11211, 2, -37.0509, 0.663358, 20.5412, -160.572, -92.6098, 54.7816
3.12008, 2, -37.0509, 0.663379, 20.5412, -160.572, -92.6098, 54.7817
3.12805, 2, -37.0509, 0.663376, 20.5412, -160.572, -92.6098, 54.7817
3.13608, 2, -37.0509, 0.663387, 20.5412, -160.572, -92.6098, 54.7816
3.14411, 2, -37.0509, 0.66339, 20.5412, -160.572, -92.6098, 54.7817
3.15147, 2, -37.0509, 0.663355, 20.5412, -160.572, -92.6098, 54.7817
3.15951, 2, -37.0509, 0.663324, 20.5412, -160.572, -92.6098, 54.7817
3.1675, 2, -37.0508, 0.663313, 20.5412, -160.572, -92.6099, 54.7817
3.17548, 2, -37.0508, 0.663322, 20.5412, -160.572, -92.6098, 54.7817
3.1835, 2, -37.0508, 0.66333, 20.5411, -160.572, -92.6099, 54.7817
3.19149, 2, -37.0507, 0.66333, 20.5411, -160.572, -92.6099, 54.7819
3.19947, 2, -37.0508, 0.663317, 20.5411, -160.572, -92.6099, 54.7819
3.20751, 2, -37.0508, 0.66334, 20.5411, -160.572, -92.6099, 54.7819
3.21553, 2, -37.0508, 0.663358, 20.5412, -160.572, -92.6099, 54.782
3.22346, 2, -37.0508, 0.663374, 20.5412, -160.572, -92.6099, 54.782
3.23299, 2, -37.0508, 0.663389, 20.5412, -160.572, -92.6098, 54.782
3.23949, 2, -37.0508, 0.663391, 20.5411, -160.572, -92.6098, 54.782
3.24748, 2, -37.0507, 0.663387, 20.5411, -160.572, -92.6099, 54.7821
3.25704, 2, -37.0506, 0.663374, 20.5411, -160.572, -92.6099, 54.7821
3.26348, 2, -37.0506, 0.663374, 20.5411, -160.572, -92.6099, 54.7821
3.27147, 2, -37.0506, 0.663366, 20.5411, -160.572, -92.6099, 54.7821
3.28047, 2, -37.0506, 0.663358, 20.5411, -160.572, -92.6099, 54.7821
3.28749, 2, -37.0506, 0.663354, 20.5411, -160.572, -92.6099, 54.7821
3.29652, 2, -37.0505, 0.663341, 20.5411, -160.572, -92.6099, 54.7822
3.30351, 2, -37.0505, 0.663328, 20.5411, -160.572, -92.6099, 54.7822
3.31148, 2, -37.0505, 0.663365, 20.5411, -160.572, -92.6099, 54.7822
3.31946, 2, -37.0505, 0.663369, 20.5411, -160.572, -92.6099, 54.7822
3.32752, 2, -37.0505, 0.663377, 20.5411, -160.572, -92.6099, 54.7823
3.33548, 2, -37.0505, 0.663382, 20.5411, -160.572, -92.6099, 54.7823
3.34347, 2, -37.0505, 0.66339, 20.541, -160.572, -92.6099, 54.7824
3.35151, 2, -37.0505, 0.663393, 20.541, -160.572, -92.6099, 54.7824
3.35949, 2, -37.0505, 0.663395, 20.541, -160.572, -92.6099, 54.7824
3.36748, 2, -37.0505, 0.663388, 20.541, -160.572, -92.6099, 54.7823
3.37551, 2, -37.0505, 0.663368, 20.541, -160.572, -92.6099, 54.7823
3.38351, 2, -37.0504, 0.663371, 20.541, -160.572, -92.6099, 54.7824
3.39146, 2, -37.0504, 0.66336, 20.541, -160.572, -92.6099, 54.7824
3.39951, 2, -37.0504, 0.663355, 20.541, -160.572, -92.61, 54.7825
3.40762, 2, -37.0504, 0.663372, 20.541, -160.572, -92.6099, 54.7825
3.41546, 2, -37.0504, 0.663385, 20.541, -160.572, -92.6099, 54.7825
3.42352, 2, -37.0504, 0.663391, 20.541, -160.572, -92.61, 54.7825
3.43149, 2, -37.0504, 0.663394, 20.541, -160.572, -92.61, 54.7825
3.43946, 2, -37.0503, 0.663395, 20.541, -160.572, -92.61, 54.7824
3.44755, 2, -37.0503, 0.663383, 20.541, -160.572, -92.6099, 54.7825
3.45549, 2, -37.0503, 0.66339, 20.541, -160.572, -92.61, 54.7825
3.4635, 2, -37.0503, 0.663412, 20.541, -160.572, -92.61, 54.7825
3.47154, 2, -37.0503, 0.663403, 20.541, -160.572, -92.61, 54.7825
3.47956, 2, -37.0503, 0.663387, 20.541, -160.572, -92.61, 54.7825
3.48757, 2, -37.0503, 0.663392, 20.5409, -160.572, -92.61, 54.7825
3.49561, 2, -37.0502, 0.663394, 20.5409, -160.572, -92.61, 54.7825
3.50359, 2, -37.0502, 0.663395, 20.5409, -160.572, -92.61, 54.7825
3.51156, 2, -37.0502, 0.663383, 20.5409, -160.572, -92.61, 54.7825
3.51962, 2, -37.0502, 0.663378, 20.5409, -160.572, -92.61, 54.7825
3.52756, 2, -37.0502, 0.663388, 20.5409, -160.572, -92.61, 54.7825
3.53548, 2, -37.0501, 0.663411, 20.5409, -160.572, -92.61, 54.7826
3.54355, 2, -37.0501, 0.663432, 20.5409, -160.572, -92.6099, 54.7826
3.55185, 2, -37.0501, 0.66342, 20.5409, -160.572, -92.61, 54.7826
3.55957, 2, -37.05, 0.663407, 20.5409, -160.572, -92.61, 54.7826
3.56766, 2, -37.05, 0.663412, 20.5409, -160.572, -92.61, 54.7826
3.57607, 2, -37.05, 0.663404, 20.5409, -160.572, -92.61, 54.7826
3.58372, 2, -37.05, 0.663395, 20.5408, -160.572, -92.61, 54.7826
3.59184, 2, -37.05, 0.663388, 20.5408, -160.572, -92.6101, 54.7826
3.60047, 2, -37.0499, 0.663387, 20.5408, -160.572, -92.61, 54.7827
3.60793, 2, -37.0499, 0.663392, 20.5408, -160.572, -92.61, 54.7827
3.61608, 2, -37.0499, 0.663382, 20.5408, -160.572, -92.61, 54.7828
3.62446, 2, -37.0499, 0.66339, 20.5408, -160.572, -92.61, 54.7828
3.63203, 2, -37.0499, 0.663381, 20.5408, -160.572, -92.61, 54.7828
3.64005, 2, -37.0499, 0.663389, 20.5408, -160.572, -92.61, 54.7828
3.64881, 2, -37.0498, 0.663393, 20.5408, -160.572, -92.6101, 54.7827
3.6567, 2, -37.0498, 0.663424, 20.5408, -160.572, -92.6101, 54.7828
3.66344, 2, -37.0498, 0.663437, 20.5408, -160.572, -92.6101, 54.7828
3.6715, 2, -37.0498, 0.663441, 20.5408, -160.572, -92.6101, 54.7828
3.67946, 2, -37.0498, 0.663417, 20.5408, -160.572, -92.6102, 54.7828
3.68746, 2, -37.0498, 0.663435, 20.5408, -160.572, -92.6102, 54.7829
3.6955, 2, -37.0497, 0.663451, 20.5408, -160.572, -92.6102, 54.7828
3.70343, 2, -37.0497, 0.663428, 20.5408, -160.572, -92.6102, 54.7828
3.71144, 2, -37.0497, 0.663429, 20.5408, -160.572, -92.6101, 54.7828
3.72092, 2, -37.0496, 0.663406, 20.5408, -160.572, -92.6101, 54.7829
3.72927, 4, -37.0496, 0.663401, 20.5407, -160.572, -92.6101, 54.7828
3.73544, 4, -37.0496, 0.66341, 20.5407, -160.572, -92.6101, 54.7828
3.74352, 4, -37.0496, 0.663421, 20.5407, -160.572, -92.6101, 54.7828
3.75144, 4, -37.0496, 0.663426, 20.5407, -160.572, -92.6101, 54.7828
3.75944, 4, -37.0495, 0.663436, 20.5407, -160.572, -92.6101, 54.7828
3.76752, 4, -37.0495, 0.663425, 20.5407, -160.572, -92.61, 54.7828
3.77703, 4, -37.0495, 0.663446, 20.5407, -160.571, -92.6101, 54.7829
3.78347, 4, -37.0495, 0.663445, 20.5407, -160.571, -92.6101, 54.7829
3.79155, 4, -37.0494, 0.663437, 20.5407, -160.571, -92.6101, 54.7829
3.79957, 4, -37.0494, 0.663444, 20.5407, -160.571, -92.6101, 54.7828
3.80845, 4, -37.0494, 0.663455, 20.5407, -160.571, -92.6101, 54.7828
3.81551, 4, -37.0494, 0.663449, 20.5407, -160.571, -92.6101, 54.7829
3.82454, 4, -37.0494, 0.66342, 20.5407, -160.571, -92.6102, 54.7829
3.83161, 4, -37.0493, 0.663426, 20.5407, -160.571, -92.6102, 54.7829
3.85496, 4, -37.0493, 0.663422, 20.5406, -160.571, -92.6101, 54.783
3.8562, 4, -37.0493, 0.663422, 20.5406, -160.571, -92.6101, 54.783
3.85807, 4, -37.0492, 0.663436, 20.5406, -160.571, -92.6101, 54.783
3.86354, 4, -37.0492, 0.663445, 20.5406, -160.571, -92.6102, 54.783
3.87144, 4, -37.0492, 0.663455, 20.5406, -160.571, -92.6101, 54.7829
3.87947, 4, -37.0491, 0.66346, 20.5406, -160.571, -92.6102, 54.783
3.88754, 4, -37.0492, 0.663433, 20.5406, -160.571, -92.6102, 54.7829
3.89544, 4, -37.049, 0.663395, 20.5406, -160.571, -92.6102, 54.7829
3.90347, 4, -37.0478, 0.663122, 20.5406, -160.571, -92.6102, 54.7829
3.91149, 4, -37.0449, 0.66219, 20.5408, -160.571, -92.6101, 54.7829
3.91945, 4, -37.0408, 0.660305, 20.5414, -160.571, -92.6101, 54.7829
3.92748, 4, -37.036, 0.657695, 20.5428, -160.571, -92.6102, 54.7829
3.9355, 4, -37.0305, 0.654334, 20.5453, -160.571, -92.6102, 54.7829
3.94344, 4, -37.024, 0.649875, 20.5494, -160.57, -92.6101, 54.7829
3.9516, 5, -37.0168, 0.644391, 20.5552, -160.569, -92.6101, 54.7828
3.95944, 5, -37.0092, 0.638035, 20.5626, -160.567, -92.6101, 54.7828
3.96766, 5, -37.0012, 0.630844, 20.5711, -160.565, -92.61, 54.7828
3.97628, 5, -36.9918, 0.622517, 20.5807, -160.563, -92.61, 54.7827
3.98352, 5, -36.9807, 0.613025, 20.591, -160.561, -92.6099, 54.7827
3.99189, 5, -36.9684, 0.602951, 20.6016, -160.559, -92.6098, 54.7826
4.00034, 5, -36.9553, 0.592732, 20.6125, -160.557, -92.6097, 54.7826
4.00756, 5, -36.9419, 0.582278, 20.6234, -160.554, -92.6096, 54.7826
4.01595, 5, -36.9283, 0.571599, 20.6343, -160.552, -92.6095, 54.7825
4.02435, 5, -36.9146, 0.560752, 20.6455, -160.55, -92.6095, 54.7825
4.03144, 5, -36.901, 0.549701, 20.6566, -160.547, -92.6094, 54.7824
4.04017, 5, -36.8875, 0.538796, 20.6677, -160.545, -92.6093, 54.7824
4.04838, 5, -36.874, 0.528099, 20.6788, -160.543, -92.6092, 54.7823
4.05558, 5, -36.8605, 0.517378, 20.6899, -160.54, -92.6091, 54.7822
4.06445, 5, -36.8469, 0.506638, 20.7012, -160.538, -92.6088, 54.7821
4.07252, 5, -36.8331, 0.49583, 20.7124, -160.535, -92.6087, 54.782
4.07971, 5, -36.8194, 0.484997, 20.7237, -160.533, -92.6085, 54.7818
4.08858, 5, -36.8056, 0.474376, 20.7349, -160.53, -92.6082, 54.7817
4.0966, 5, -36.7921, 0.463832, 20.7463, -160.527, -92.6078, 54.7817
4.10399, 5, -36.7788, 0.453165, 20.7578, -160.525, -92.6074, 54.7815
4.11276, 5, -36.7653, 0.442389, 20.7693, -160.522, -92.6072, 54.7814
4.12007, 5, -36.7518, 0.431396, 20.7807, -160.52, -92.6068, 54.7813
4.12805, 5, -36.738, 0.420409, 20.792, -160.517, -92.6064, 54.7813
4.13688, 5, -36.724, 0.409579, 20.8033, -160.514, -92.6061, 54.7813
4.14404, 5, -36.717, 0.404162, 20.8146, -160.512, -92.6057, 54.7812
4.15205, 5, -36.7032, 0.393263, 20.8203, -160.509, -92.6054, 54.7811
4.15942, 5, -36.6894, 0.382351, 20.8315, -160.508, -92.6052, 54.7811
4.16743, 5, -36.6758, 0.371289, 20.8428, -160.505, -92.6047, 54.781
4.17548, 5, -36.6622, 0.360221, 20.8541, -160.503, -92.6043, 54.781
4.18345, 5, -36.6486, 0.349394, 20.8656, -160.5, -92.6039, 54.7809
4.19339, 5, -36.628, 0.333299, 20.8827, -160.497, -92.6033, 54.7808
4.19942, 5, -36.6212, 0.327946, 20.8885, -160.495, -92.6031, 54.7807
4.20742, 5, -36.6076, 0.317203, 20.8997, -160.493, -92.6027, 54.7807
4.21548, 5, -36.594, 0.306272, 20.911, -160.491, -92.6023, 54.7806
4.22346, 5, -36.5805, 0.29542, 20.9225, -160.488, -92.6019, 54.7805
4.23142, 5, -36.5668, 0.284743, 20.9338, -160.486, -92.6015, 54.7804
4.23949, 5, -36.5531, 0.274027, 20.9451, -160.484, -92.6012, 54.7803
4.24905, 5, -36.5325, 0.257751, 20.9621, -160.48, -92.6006, 54.78
4.25542, 5, -36.5255, 0.252259, 20.9677, -160.479, -92.6004, 54.7799
4.2635, 5, -36.5117, 0.241209, 20.9791, -160.477, -92.6, 54.7797
4.27305, 5, -36.4979, 0.224941, 20.9962, -160.473, -92.5995, 54.7793
4.27943, 5, -36.4841, 0.219568, 21.0019, -160.472, -92.5993, 54.7792
4.28843, 5, -36.4705, 0.208781, 21.0131, -160.47, -92.599, 54.7789
4.29542, 5, -36.4569, 0.198021, 21.0244, -160.468, -92.5986, 54.7786
4.30347, 5, -36.4432, 0.187142, 21.0356, -160.466, -92.5982, 54.7782
4.31154, 5, -36.4295, 0.17623, 21.0469, -160.463, -92.5978, 54.7778
4.31943, 5, -36.4156, 0.165579, 21.0581, -160.461, -92.5975, 54.7774
4.32742, 5, -36.4018, 0.154945, 21.0693, -160.459, -92.5972, 54.777
4.33543, 5, -36.388, 0.144265, 21.0806, -160.457, -92.5968, 54.7766
4.34342, 5, -36.3743, 0.133529, 21.0921, -160.455, -92.5964, 54.7762
4.35152, 5, -36.3606, 0.12263, 21.1034, -160.452, -92.5961, 54.7758
4.35942, 5, -36.3469, 0.111785, 21.1148, -160.45, -92.5957, 54.7753
4.36742, 5, -36.3331, 0.101138, 21.126, -160.448, -92.5954, 54.7749
4.37551, 5, -36.3193, 0.0905147, 21.1372, -160.446, -92.5951, 54.7745
4.38342, 5, -36.3056, 0.0798098, 21.1485, -160.443, -92.5948, 54.7741
4.39147, 5, -36.2918, 0.0690566, 21.1596, -160.441, -92.5944, 54.7736
4.39949, 5, -36.2781, 0.0581673, 21.1708, -160.439, -92.5941, 54.7732
4.40744, 5, -36.2643, 0.0473447, 21.1819, -160.437, -92.5938, 54.7727
4.41543, 5, -36.2505, 0.03671, 21.1931, -160.434, -92.5934, 54.7724
4.4235, 5, -36.2366, 0.0260284, 21.2044, -160.432, -92.5931, 54.7721
4.43142, 5, -36.2228, 0.0153051, 21.2156, -160.43, -92.5928, 54.7718
4.43942, 5, -36.2089, 0.00454224, 21.2268, -160.427, -92.5925, 54.7714
4.4475, 5, -36.1952, -0.00631485, 21.2379, -160.425, -92.5922, 54.7711
4.45543, 5, -36.1814, -0.0170442, 21.2491, -160.423, -92.5918, 54.7708
4.4635, 5, -36.1676, -0.0276336, 21.2602, -160.42, -92.5915, 54.7705
4.47146, 5, -36.154, -0.0382579, 21.2714, -160.418, -92.5912, 54.7702
4.47947, 5, -36.1403, -0.0488617, 21.2825, -160.415, -92.5909, 54.7699
4.48758, 5, -36.1266, -0.0596222, 21.2936, -160.413, -92.5906, 54.7697
4.49554, 5, -36.1128, -0.0704246, 21.3047, -160.41, -92.5903, 54.7694
4.50353, 5, -36.0989, -0.0810736, 21.316, -160.408, -92.5899, 54.7692
4.51159, 5, -36.085, -0.0916028, 21.3271, -160.406, -92.5896, 54.769
4.51957, 5, -36.0712, -0.102206, 21.3383, -160.403, -92.5893, 54.7688
4.52749, 5, -36.0574, -0.112852, 21.3492, -160.4, -92.589, 54.7686
4.53558, 5, -36.0436, -0.123637, 21.3603, -160.398, -92.5887, 54.7684
4.54345, 5, -36.0297, -0.134402, 21.3714, -160.395, -92.5883, 54.7682
4.55145, 5, -36.0158, -0.145015, 21.3824, -160.393, -92.5881, 54.768
4.55981, 5, -36.002, -0.155537, 21.3934, -160.39, -92.5878, 54.7678
4.56779, 5, -35.9882, -0.166114, 21.4044, -160.387, -92.5875, 54.7676
4.57566, 5, -35.9744, -0.176717, 21.4156, -160.385, -92.5872, 54.7675
4.58375, 5, -35.9605, -0.187466, 21.4268, -160.382, -92.5869, 54.7673
4.59177, 5, -35.9466, -0.198172, 21.438, -160.379, -92.5865, 54.7672
4.5999, 5, -35.9327, -0.208711, 21.4491, -160.377, -92.5862, 54.7671
4.6079, 5, -35.9187, -0.219251, 21.4601, -160.374, -92.586, 54.767
4.61653, 5, -35.9048, -0.229805, 21.4711, -160.371, -92.5857, 54.7668
4.62408, 5, -35.8909, -0.240428, 21.4821, -160.369, -92.5853, 54.7667
4.632, 5, -35.8769, -0.251185, 21.4931, -160.366, -92.585, 54.7667
4.64004, 5, -35.8629, -0.261811, 21.504, -160.363, -92.5847, 54.7666
4.6481, 5, -35.849, -0.27225, 21.5149, -160.361, -92.5844, 54.7665
4.65596, 5, -35.8422, -0.277466, 21.5204, -160.36, -92.5842, 54.7665
4.6634, 5, -35.8284, -0.287932, 21.5315, -160.357, -92.5839, 54.7664
4.67148, 5, -35.8144, -0.298468, 21.5425, -160.354, -92.5836, 54.7662
4.67941, 5, -35.8005, -0.309142, 21.5536, -160.352, -92.5833, 54.7662
4.68745, 5, -35.7864, -0.319808, 21.5645, -160.349, -92.5831, 54.7661
4.69547, 5, -35.7723, -0.330298, 21.5754, -160.347, -92.5828, 54.7661
4.70341, 5, -35.7584, -0.340762, 21.5864, -160.344, -92.5825, 54.766
4.71141, 5, -35.7444, -0.351304, 21.5973, -160.342, -92.5821, 54.766
4.71941, 5, -35.7306, -0.361913, 21.6082, -160.34, -92.5819, 54.766
4.72747, 5, -35.7167, -0.372629, 21.6191, -160.337, -92.5816, 54.7659
4.73545, 5, -35.7027, -0.383336, 21.63, -160.335, -92.5813, 54.7659
4.74506, 5, -35.682, -0.399014, 21.6465, -160.331, -92.5808, 54.7658
4.75142, 5, -35.6751, -0.404258, 21.6519, -160.33, -92.5807, 54.7657
4.75948, 5, -35.6612, -0.414752, 21.6629, -160.328, -92.5804, 54.7657
4.76742, 5, -35.6473, -0.425287, 21.6738, -160.325, -92.58, 54.7658
4.777, 5, -35.6333, -0.43592, 21.6846, -160.322, -92.5796, 54.7657
4.78347, 5, -35.6192, -0.446465, 21.6955, -160.321, -92.5795, 54.7657
4.79303, 5, -35.6052, -0.45685, 21.7063, -160.318, -92.5792, 54.7657
4.79942, 5, -35.5912, -0.467225, 21.7171, -160.316, -92.5789, 54.7656
4.80752, 5, -35.5772, -0.477696, 21.7279, -160.314, -92.5786, 54.7656
4.8154, 5, -35.5633, -0.488248, 21.7387, -160.312, -92.5783, 54.7656
4.82341, 5, -35.5493, -0.498894, 21.7496, -160.309, -92.5779, 54.7656
4.83148, 5, -35.5353, -0.509448, 21.7606, -160.307, -92.5776, 54.7656
4.8394, 5, -35.5214, -0.519824, 21.7715, -160.305, -92.5773, 54.7657
4.84742, 5, -35.5075, -0.530196, 21.7824, -160.302, -92.577, 54.7656
4.85551, 5, -35.4935, -0.54062, 21.7932, -160.3, -92.5767, 54.7656
4.86341, 5, -35.4795, -0.551129, 21.804, -160.297, -92.5764, 54.7656
4.8716, 5, -35.4653, -0.561705, 21.8148, -160.295, -92.5762, 54.7656
4.8794, 5, -35.4512, -0.572164, 21.8255, -160.293, -92.5758, 54.7656
4.88742, 5, -35.4372, -0.582423, 21.8362, -160.29, -92.5755, 54.7656
4.89621, 5, -35.4231, -0.592763, 21.8469, -160.288, -92.5752, 54.7656
4.9034, 5, -35.4091, -0.603221, 21.8576, -160.285, -92.5749, 54.7656
4.9114, 5, -35.395, -0.613747, 21.8685, -160.283, -92.5746, 54.7656
4.92018, 5, -35.3809, -0.624382, 21.8793, -160.28, -92.5743, 54.7656
4.92741, 5, -35.3669, -0.634849, 21.8901, -160.278, -92.574, 54.7657
4.9354, 5, -35.3529, -0.645142, 21.9008, -160.275, -92.5737, 54.7656
4.94434, 5, -35.3388, -0.65546, 21.9114, -160.273, -92.5733, 54.7656
4.9514, 5, -35.3248, -0.665882, 21.9222, -160.27, -92.5731, 54.7656
4.9594, 5, -35.3106, -0.676386, 21.9329, -160.268, -92.5728, 54.7656
4.96825, 5, -35.2964, -0.686938, 21.9436, -160.265, -92.5725, 54.7656
4.97544, 5, -35.2823, -0.697368, 21.9543, -160.263, -92.5722, 54.7656
4.98344, 5, -35.2682, -0.707643, 21.9649, -160.26, -92.5719, 54.7657
4.99243, 5, -35.2541, -0.717945, 21.9756, -160.257, -92.5715, 54.7656
4.99951, 5, -35.2399, -0.728385, 21.9864, -160.255, -92.5712, 54.7657
5.00756, 5, -35.2258, -0.738895, 21.9972, -160.252, -92.5709, 54.7657
5.01659, 5, -35.2118, -0.749454, 22.0078, -160.249, -92.5706, 54.7657
5.02355, 5, -35.1978, -0.759856, 22.0184, -160.247, -92.5703, 54.7658
5.03158, 5, -35.1838, -0.770071, 22.029, -160.244, -92.57, 54.7658
5.04, 5, -35.1698, -0.780311, 22.0396, -160.241, -92.5697, 54.7658
5.04744, 5, -35.1555, -0.790649, 22.0501, -160.238, -92.5694, 54.7657
5.05551, 5, -35.1414, -0.801089, 22.0608, -160.235, -92.5691, 54.7657
5.06504, 5, -35.1273, -0.811534, 22.0714, -160.233, -92.5688, 54.7658
5.07242, 5, -35.1133, -0.821876, 22.0821, -160.23, -92.5685, 54.7657
5.07966, 5, -35.0993, -0.832028, 22.0928, -160.227, -92.5682, 54.7657
5.08921, 5, -35.0852, -0.842266, 22.1036, -160.224, -92.5679, 54.7658
5.09571, 5, -35.0711, -0.852656, 22.1143, -160.222, -92.5676, 54.7659
5.10386, 5, -35.0571, -0.863114, 22.1248, -160.219, -92.5672, 54.7659
5.11342, 5, -35.0431, -0.873654, 22.1354, -160.216, -92.5669, 54.766
5.11994, 5, -35.029, -0.884016, 22.146, -160.214, -92.5666, 54.766
5.12858, 5, -35.015, -0.894219, 22.1566, -160.211, -92.5663, 54.766
5.13752, 5, -35.0007, -0.904482, 22.1671, -160.208, -92.566, 54.766
5.14404, 5, -34.9865, -0.914839, 22.1775, -160.206, -92.5657, 54.766
5.15199, 5, -34.9794, -0.920032, 22.1828, -160.204, -92.5653, 54.7661
5.15939, 5, -34.9652, -0.930511, 22.1934, -160.202, -92.5652, 54.7661
5.16743, 5, -34.951, -0.940952, 22.204, -160.199, -92.5649, 54.7661
5.17539, 5, -34.9369, -0.95117, 22.2146, -160.197, -92.5646, 54.7661
5.1834, 5, -34.9228, -0.961339, 22.2253, -160.194, -92.5642, 54.7662
5.19147, 5, -34.9087, -0.971617, 22.2357, -160.192, -92.5639, 54.7663
5.19939, 5, -34.8947, -0.981939, 22.2462, -160.19, -92.5636, 54.7663
5.20739, 5, -34.8807, -0.992353, 22.2568, -160.187, -92.5633, 54.7663
5.21543, 5, -34.8666, -1.00268, 22.2673, -160.185, -92.563, 54.7664
5.22339, 5, -34.8524, -1.01276, 22.2778, -160.182, -92.5627, 54.7666
5.23142, 5, -34.838, -1.0228, 22.2883, -160.18, -92.5624, 54.7667
5.23944, 5, -34.8237, -1.03296, 22.2988, -160.178, -92.5621, 54.7668
5.249, 5, -34.8023, -1.04833, 22.3146, -160.174, -92.5616, 54.767
5.2554, 5, -34.7952, -1.05352, 22.3199, -160.173, -92.5614, 54.7671
5.26356, 5, -34.7809, -1.06384, 22.3304, -160.171, -92.5611, 54.7672
5.27298, 5, -34.7667, -1.07396, 22.3461, -160.167, -92.5606, 54.7674
5.27948, 5, -34.7525, -1.08407, 22.3513, -160.166, -92.5605, 54.7675
5.28739, 5, -34.7383, -1.0943, 22.3617, -160.163, -92.5602, 54.7678
5.29642, 5, -34.7242, -1.10461, 22.3721, -160.161, -92.5598, 54.7681
5.30345, 5, -34.7101, -1.11502, 22.3825, -160.159, -92.5595, 54.7685
5.31141, 5, -34.6959, -1.12542, 22.393, -160.156, -92.5592, 54.7688
5.3194, 5, -34.6817, -1.13561, 22.4034, -160.154, -92.5589, 54.7692
5.32745, 5, -34.6675, -1.14575, 22.4139, -160.151, -92.5586, 54.7696
5.33538, 5, -34.6533, -1.15597, 22.4245, -160.149, -92.5583, 54.7701
5.34339, 5, -34.6391, -1.16623, 22.435, -160.146, -92.5579, 54.7706
5.35145, 5, -34.6249, -1.1766, 22.4455, -160.144, -92.5576, 54.7711
5.35943, 5, -34.6106, -1.18691, 22.4559, -160.141, -92.5573, 54.7716
5.36738, 5, -34.5963, -1.19702, 22.4663, -160.139, -92.557, 54.7721
5.37545, 5, -34.5821, -1.20707, 22.4768, -160.136, -92.5567, 54.7727
5.38339, 5, -34.5678, -1.21727, 22.4871, -160.134, -92.5564, 54.7733
5.39145, 5, -34.5535, -1.22749, 22.4974, -160.131, -92.556, 54.7739
5.39959, 5, -34.5392, -1.23777, 22.5078, -160.128, -92.5557, 54.7745
5.4074, 5, -34.5247, -1.24803, 22.5181, -160.126, -92.5554, 54.7751
5.41545, 5, -34.5104, -1.25809, 22.5285, -160.123, -92.5551, 54.7757
5.42338, 5, -34.4961, -1.2681, 22.539, -160.12, -92.5547, 54.7763
5.43138, 5, -34.4819, -1.27821, 22.5495, -160.118, -92.5544, 54.7769
5.43948, 5, -34.4677, -1.28834, 22.5598, -160.115, -92.5541, 54.7775
5.44738, 5, -34.4534, -1.29855, 22.5701, -160.112, -92.5538, 54.7781
5.45539, 5, -34.4391, -1.3088, 22.5804, -160.11, -92.5535, 54.7788
5.46346, 5, -34.425, -1.31885, 22.5907, -160.107, -92.5531, 54.7793
5.47139, 5, -34.4108, -1.32883, 22.601, -160.104, -92.5528, 54.78
5.47945, 5, -34.3965, -1.33892, 22.6113, -160.101, -92.5525, 54.7805
5.4875, 5, -34.3822, -1.34907, 22.6216, -160.098, -92.5521, 54.7812
5.49548, 5, -34.3678, -1.35928, 22.6319, -160.095, -92.5518, 54.7818
5.50355, 5, -34.3533, -1.36954, 22.6423, -160.092, -92.5515, 54.7823
5.51149, 5, -34.339, -1.37962, 22.6527, -160.09, -92.5511, 54.7829
5.5195, 5, -34.3246, -1.38958, 22.663, -160.087, -92.5508, 54.7834
5.52761, 5, -34.3103, -1.39963, 22.6733, -160.084, -92.5505, 54.7841
5.53541, 5, -34.296, -1.40972, 22.6835, -160.081, -92.5502, 54.7846
5.54339, 5, -34.2817, -1.41989, 22.6937, -160.078, -92.5498, 54.7852
5.55142, 5, -34.2675, -1.43014, 22.704, -160.075, -92.5495, 54.7858
5.55943, 5, -34.2534, -1.44022, 22.7142, -160.072, -92.5492, 54.7864
5.56754, 5, -34.2392, -1.45018, 22.7244, -160.069, -92.5489, 54.7869
5.57562, 5, -34.225, -1.46023, 22.7346, -160.067, -92.5486, 54.7875
5.58378, 5, -34.2106, -1.47033, 22.7448, -160.064, -92.5482, 54.7881
5.59175, 5, -34.1962, -1.48052, 22.7552, -160.061, -92.5479, 54.7886
5.59977, 5, -34.1819, -1.49074, 22.7656, -160.058, -92.5476, 54.7891
5.60782, 5, -34.1675, -1.50083, 22.7759, -160.056, -92.5472, 54.7897
5.61593, 5, -34.1532, -1.51078, 22.7862, -160.053, -92.5468, 54.7903
5.62454, 5, -34.1388, -1.52074, 22.7964, -160.05, -92.5465, 54.7909
5.63217, 5, -34.1244, -1.53075, 22.8066, -160.048, -92.5462, 54.7914
5.64009, 5, -34.1101, -1.54082, 22.8168, -160.045, -92.5458, 54.792
5.64827, 5, -34.0957, -1.55099, 22.8269, -160.043, -92.5455, 54.7926
5.656, 5, -34.0885, -1.55604, 22.832, -160.041, -92.5454, 54.7931
5.66397, 5, -34.0742, -1.56601, 22.8421, -160.039, -92.545, 54.7936
5.67258, 5, -34.0524, -1.58085, 22.8574, -160.035, -92.5445, 54.7942
5.67943, 5, -34.0451, -1.58586, 22.8625, -160.034, -92.5444, 54.7945
5.68742, 5, -34.0306, -1.59594, 22.8727, -160.031, -92.544, 54.7951
5.6954, 5, -34.0162, -1.60605, 22.8829, -160.029, -92.5437, 54.7956
5.70342, 5, -34.0018, -1.61625, 22.8932, -160.026, -92.5433, 54.7962
5.71143, 5, -33.9874, -1.62628, 22.9032, -160.024, -92.543, 54.7968
5.71938, 5, -33.9729, -1.63613, 22.9134, -160.021, -92.5427, 54.7973
5.72738, 5, -33.9586, -1.6461, 22.9236, -160.019, -92.5423, 54.7978
5.73545, 5, -33.9442, -1.65609, 22.9336, -160.016, -92.542, 54.7985
5.74494, 5, -33.9226, -1.67119, 22.9489, -160.012, -92.5415, 54.7993
5.75299, 5, -33.9081, -1.68128, 22.959, -160.01, -92.5411, 54.7999
5.75946, 5, -33.9008, -1.68624, 22.964, -160.009, -92.541, 54.8001
5.76901, 5, -33.8789, -1.701, 22.9793, -160.005, -92.5405, 54.8011
5.77537, 5, -33.8717, -1.70597, 22.9844, -160.003, -92.5403, 54.8013
5.78491, 5, -33.8572, -1.71593, 22.9945, -160.001, -92.54, 54.8023
5.79239, 5, -33.8427, -1.72596, 23.0047, -159.998, -92.5396, 54.8026
5.79944, 5, -33.8283, -1.73611, 23.0147, -159.995, -92.5393, 54.8031
5.80842, 5, -33.8138, -1.74611, 23.0247, -159.993, -92.5389, 54.8037
5.81638, 5, -33.7995, -1.75588, 23.0348, -159.99, -92.5386, 54.8043
5.82343, 5, -33.7852, -1.76567, 23.0448, -159.987, -92.5382, 54.805
5.83137, 5, -33.7708, -1.77561, 23.0548, -159.985, -92.5379, 54.8055
5.83938, 5, -33.7564, -1.78558, 23.0649, -159.982, -92.5376, 54.8062
5.84746, 5, -33.7418, -1.79568, 23.0749, -159.979, -92.5372, 54.8067
5.85537, 5, -33.7273, -1.80575, 23.0851, -159.977, -92.5369, 54.8073
5.86338, 5, -33.7128, -1.81556, 23.0953, -159.974, -92.5365, 54.8079
5.87144, 5, -33.6983, -1.82537, 23.1054, -159.971, -92.5362, 54.8085
5.87936, 5, -33.6838, -1.83537, 23.1155, -159.968, -92.5359, 54.8092
5.88756, 5, -33.6693, -1.84536, 23.1255, -159.965, -92.5355, 54.8099
5.89622, 5, -33.6548, -1.85546, 23.1356, -159.962, -92.5352, 54.8105
5.90341, 5, -33.6404, -1.86556, 23.1456, -159.959, -92.5348, 54.8111
5.91137, 5, -33.6259, -1.87541, 23.1556, -159.956, -92.5344, 54.8117
5.91944, 5, -33.6115, -1.88516, 23.1655, -159.954, -92.5341, 54.8124
5.92741, 5, -33.5969, -1.89505, 23.1755, -159.951, -92.5337, 54.8129
5.93593, 5, -33.5822, -1.90494, 23.1854, -159.948, -92.5334, 54.8136
5.94336, 5, -33.5676, -1.91492, 23.1955, -159.945, -92.5331, 54.8143
5.95136, 5, -33.553, -1.92497, 23.2055, -159.942, -92.5328, 54.815
5.96014, 5, -33.5384, -1.9348, 23.2155, -159.939, -92.5324, 54.8156
5.96737, 5, -33.5238, -1.94449, 23.2256, -159.936, -92.532, 54.8163
5.97537, 5, -33.5092, -1.95436, 23.2355, -159.933, -92.5317, 54.8169
5.9853, 5, -33.4946, -1.96426, 23.2455, -159.93, -92.5313, 54.8176
5.99238, 5, -33.4802, -1.97427, 23.2554, -159.927, -92.531, 54.8182
5.99953, 5, -33.4656, -1.98434, 23.2654, -159.924, -92.5306, 54.8189
6.00748, 5, -33.4511, -1.99425, 23.2753, -159.921, -92.5303, 54.8196
6.01547, 5, -33.4364, -2.00399, 23.2852, -159.918, -92.53, 54.8203
6.02354, 5, -33.4217, -2.01383, 23.2951, -159.916, -92.5296, 54.821
6.03149, 5, -33.4071, -2.02375, 23.3051, -159.913, -92.5292, 54.8217
6.03937, 5, -33.3925, -2.03373, 23.3151, -159.91, -92.5289, 54.8225
6.04746, 5, -33.3779, -2.04384, 23.3251, -159.907, -92.5284, 54.8231
6.0554, 5, -33.3634, -2.05385, 23.3351, -159.905, -92.528, 54.8237
6.0634, 5, -33.3488, -2.06368, 23.3451, -159.902, -92.5276, 54.8243
6.07161, 5, -33.3343, -2.07361, 23.3551, -159.899, -92.5271, 54.8247
6.07955, 5, -33.3199, -2.08368, 23.3652, -159.897, -92.5265, 54.8252
6.08851, 5, -33.3056, -2.09386, 23.3752, -159.894, -92.5259, 54.8256
6.09579, 5, -33.2911, -2.10419, 23.3853, -159.891, -92.5252, 54.826
6.10371, 5, -33.2766, -2.11448, 23.3955, -159.888, -92.5245, 54.8263
6.11177, 5, -33.2621, -2.12461, 23.4057, -159.885, -92.5237, 54.8265
6.11997, 5, -33.2477, -2.13479, 23.4161, -159.882, -92.5228, 54.8266
6.12854, 6, -33.2334, -2.14512, 23.4266, -159.88, -92.5219, 54.8267
6.13591, 6, -33.219, -2.15556, 23.437, -159.877, -92.5209, 54.8268
6.14447, 6, -33.2047, -2.16619, 23.4475, -159.874, -92.5198, 54.8269
6.1548, 6, -33.1976, -2.1715, 23.4579, -159.87, -92.5188, 54.827
6.15997, 6, -33.1833, -2.18199, 23.4632, -159.869, -92.5182, 54.827
6.16735, 6, -33.1692, -2.19244, 23.4737, -159.866, -92.5171, 54.827
6.1771, 6, -33.148, -2.20842, 23.4895, -159.861, -92.5152, 54.8269
6.18643, 6, -33.1338, -2.21925, 23.5, -159.858, -92.5139, 54.827
6.19135, 6, -33.1267, -2.22473, 23.5052, -159.856, -92.5132, 54.827
6.19935, 6, -33.1124, -2.23573, 23.5158, -159.853, -92.5118, 54.8269
6.20736, 6, -33.0982, -2.24655, 23.5266, -159.849, -92.5104, 54.8268
6.21539, 6, -33.0841, -2.25735, 23.5375, -159.846, -92.5089, 54.8267
6.22341, 6, -33.0699, -2.2683, 23.5483, -159.842, -92.5073, 54.8266
6.23135, 6, -33.0558, -2.27939, 23.5592, -159.838, -92.5058, 54.8264
6.24083, 6, -33.0347, -2.29626, 23.5754, -159.833, -92.5033, 54.826
6.24972, 6, -33.0207, -2.30735, 23.5864, -159.829, -92.5016, 54.8257
6.25535, 6, -33.0138, -2.31286, 23.5918, -159.827, -92.5007, 54.8256
6.26494, 6, -32.9928, -2.32967, 23.6083, -159.821, -92.498, 54.8251
6.27141, 6, -32.9859, -2.33534, 23.6138, -159.819, -92.4971, 54.8248
6.27961, 6, -32.9719, -2.34686, 23.6248, -159.815, -92.4952, 54.8242
6.28931, 6, -32.9508, -2.36419, 23.6417, -159.808, -92.4923, 54.8231
6.29542, 6, -32.9438, -2.36989, 23.6473, -159.806, -92.4913, 54.8228
6.30442, 6, -32.9298, -2.3813, 23.6585, -159.802, -92.4893, 54.8223
6.31135, 6, -32.9159, -2.39279, 23.6697, -159.797, -92.4872, 54.8218
6.31943, 6, -32.902, -2.40446, 23.6809, -159.793, -92.4851, 54.8212
6.32735, 6, -32.8882, -2.41632, 23.6922, -159.788, -92.4831, 54.8204
6.33535, 7, -32.8745, -2.42807, 23.7035, -159.784, -92.4809, 54.8193
6.34341, 7, -32.8608, -2.4397, 23.7148, -159.779, -92.4786, 54.818
6.35136, 7, -32.8472, -2.45151, 23.7262, -159.775, -92.4763, 54.8163
6.35944, 7, -32.8336, -2.46344, 23.7376, -159.77, -92.474, 54.8144
6.36735, 7, -32.82, -2.47559, 23.7493, -159.766, -92.4716, 54.8123
6.37536, 7, -32.8062, -2.4877, 23.761, -159.761, -92.4691, 54.81
6.38346, 7, -32.7924, -2.49962, 23.7727, -159.757, -92.4666, 54.8077
6.39135, 7, -32.7788, -2.51165, 23.7844, -159.752, -92.4641, 54.8052
6.40043, 7, -32.7652, -2.52382, 23.796, -159.748, -92.4615, 54.8025
6.40835, 7, -32.7516, -2.53617, 23.8078, -159.744, -92.4589, 54.7999
6.41637, 7, -32.7381, -2.54851, 23.8195, -159.739, -92.4562, 54.7971
6.42339, 7, -32.7244, -2.56074, 23.8313, -159.735, -92.4534, 54.7943
6.43141, 7, -32.7109, -2.57304, 23.843, -159.73, -92.4506, 54.7914
6.43941, 7, -32.6975, -2.58553, 23.8548, -159.726, -92.4477, 54.7884
6.44734, 7, -32.684, -2.59821, 23.8668, -159.721, -92.4448, 54.7855
6.4556, 7, -32.6706, -2.61088, 23.8788, -159.717, -92.4417, 54.7824
6.46335, 7, -32.6572, -2.62336, 23.8909, -159.712, -92.4387, 54.7794
6.47136, 7, -32.6437, -2.63593, 23.9029, -159.708, -92.4356, 54.7763
6.47957, 7, -32.6303, -2.64867, 23.9149, -159.703, -92.4323, 54.7731
6.48743, 7, -32.6169, -2.66159, 23.9271, -159.698, -92.4291, 54.77
6.49542, 7, -32.6034, -2.67439, 23.9393, -159.693, -92.4257, 54.7668
6.50529, 7, -32.5901, -2.6871, 23.9515, -159.688, -92.4223, 54.7634
6.51145, 7, -32.5768, -2.70001, 23.9636, -159.683, -92.4189, 54.7601
6.51944, 7, -32.5635, -2.7131, 23.976, -159.678, -92.4153, 54.7566
6.52776, 7, -32.5503, -2.72633, 23.9884, -159.673, -92.4117, 54.7532
6.53541, 7, -32.5372, -2.73938, 24.0008, -159.667, -92.408, 54.7497
6.54337, 8, -32.524, -2.75243, 24.0131, -159.662, -92.4041, 54.7461
6.55232, 8, -32.5108, -2.7656, 24.0255, -159.656, -92.4002, 54.7424
6.55938, 8, -32.4976, -2.77897, 24.038, -159.65, -92.3961, 54.7388
6.56742, 8, -32.4843, -2.79242, 24.0504, -159.645, -92.392, 54.7351
6.57637, 8, -32.4711, -2.80565, 24.0629, -159.639, -92.3878, 54.7313
6.58355, 8, -32.4581, -2.81899, 24.0754, -159.633, -92.3834, 54.7274
6.5917, 8, -32.445, -2.83253, 24.0883, -159.628, -92.379, 54.7234
6.59993, 8, -32.432, -2.84626, 24.1011, -159.622, -92.3745, 54.7194
6.60835, 8, -32.419, -2.85986, 24.1139, -159.617, -92.37, 54.7154
6.6159, 8, -32.406, -2.87332, 24.1266, -159.611, -92.3654, 54.7112
6.62444, 8, -32.3931, -2.88695, 24.1395, -159.606, -92.3608, 54.707
6.63187, 8, -32.3804, -2.90074, 24.1523, -159.6, -92.3562, 54.7027
6.64045, 8, -32.3675, -2.91464, 24.1651, -159.595, -92.3517, 54.6983
6.6482, 8, -32.3546, -2.92839, 24.1779, -159.589, -92.3471, 54.6938
6.65591, 8, -32.3482, -2.93526, 24.1909, -159.584, -92.3426, 54.6892
6.66436, 8, -32.3288, -2.95627, 24.204, -159.578, -92.338, 54.6846
6.67136, 8, -32.3224, -2.96339, 24.2105, -159.575, -92.3357, 54.6823
6.67933, 8, -32.3096, -2.97758, 24.2236, -159.57, -92.3312, 54.6775
6.68738, 8, -32.2968, -2.99159, 24.2366, -159.564, -92.3267, 54.6727
6.69551, 8, -32.284, -3.0057, 24.2497, -159.558, -92.3221, 54.6677
6.70332, 8, -32.2713, -3.01994, 24.263, -159.552, -92.3175, 54.6628
6.71137, 8, -32.2585, -3.03439, 24.2762, -159.546, -92.313, 54.6577
6.71937, 8, -32.2457, -3.04869, 24.2893, -159.54, -92.3083, 54.6527
6.72735, 8, -32.233, -3.06292, 24.3026, -159.534, -92.3036, 54.6477
6.73687, 8, -32.214, -3.08469, 24.3227, -159.525, -92.2965, 54.64
6.7452, 9, -32.2014, -3.0994, 24.3361, -159.518, -92.2917, 54.6349
6.75134, 9, -32.1951, -3.10666, 24.3428, -159.515, -92.2892, 54.6323
6.76094, 9, -32.1759, -3.12845, 24.3629, -159.505, -92.2818, 54.6246
6.76739, 9, -32.1696, -3.13576, 24.3696, -159.502, -92.2793, 54.622
6.7754, 9, -32.1569, -3.15054, 24.3831, -159.495, -92.2742, 54.6169
6.785, 9, -32.1443, -3.17272, 24.4033, -159.485, -92.2663, 54.6091
6.79138, 9, -32.1317, -3.18006, 24.4102, -159.482, -92.2636, 54.6065
6.80141, 9, -32.113, -3.20242, 24.4309, -159.472, -92.2554, 54.5988
6.80735, 9, -32.1067, -3.21, 24.4378, -159.469, -92.2525, 54.5961
6.81621, 9, -32.0942, -3.22517, 24.4515, -159.462, -92.2468, 54.5908
6.82334, 9, -32.0819, -3.24008, 24.4652, -159.456, -92.2409, 54.5855
6.83133, 9, -32.0696, -3.25507, 24.479, -159.449, -92.2349, 54.5802
6.84014, 9, -32.0573, -3.27031, 24.4929, -159.443, -92.2288, 54.5747
6.84734, 9, -32.0449, -3.28567, 24.5066, -159.436, -92.2226, 54.5692
6.85533, 9, -32.0325, -3.30082, 24.5205, -159.43, -92.2164, 54.5636
6.86426, 9, -32.02, -3.31611, 24.5346, -159.423, -92.2102, 54.5579
6.87133, 9, -32.0075, -3.33159, 24.5487, -159.417, -92.204, 54.5522
6.87933, 9, -31.9951, -3.34723, 24.5626, -159.41, -92.1978, 54.5463
6.88818, 9, -31.9828, -3.36267, 24.5766, -159.404, -92.1917, 54.5404
6.89641, 9, -31.9706, -3.37813, 24.5909, -159.397, -92.1856, 54.5344
6.90434, 9, -31.9584, -3.39386, 24.6051, -159.39, -92.1794, 54.5282
6.91251, 9, -31.9462, -3.40969, 24.6192, -159.382, -92.1733, 54.522
6.91947, 9, -31.934, -3.42529, 24.6334, -159.375, -92.1672, 54.5156
6.92735, 9, -31.9221, -3.44103, 24.6479, -159.368, -92.1611, 54.5092
6.93615, 9, -31.9101, -3.45705, 24.6622, -159.36, -92.1549, 54.5026
6.94334, 9, -31.8981, -3.47309, 24.6765, -159.353, -92.1487, 54.4958
6.95132, 10, -31.8862, -3.48892, 24.6908, -159.345, -92.1424, 54.4889
6.9594, 10, -31.8742, -3.50485, 24.7052, -159.338, -92.1361, 54.4819
6.9673, 10, -31.8621, -3.52106, 24.7197, -159.331, -92.1296, 54.4748
6.97547, 10, -31.8501, -3.53724, 24.7341, -159.323, -92.1231, 54.4676
6.98537, 10, -31.8381, -3.55326, 24.7488, -159.316, -92.1163, 54.4606
6.99143, 10, -31.8261, -3.56947, 24.7637, -159.309, -92.1095, 54.4533
6.99961, 10, -31.814, -3.586, 24.7784, -159.302, -92.1024, 54.4461
7.00742, 10, -31.8021, -3.60239, 24.793, -159.295, -92.0952, 54.4389
7.01635, 10, -31.7901, -3.61861, 24.8077, -159.288, -92.0878, 54.4317
7.02379, 10, -31.7781, -3.63507, 24.8226, -159.281, -92.0804, 54.4246
7.03144, 10, -31.7663, -3.65177, 24.8373, -159.273, -92.0728, 54.4176
7.03953, 10, -31.7545, -3.66834, 24.852, -159.266, -92.0654, 54.4104
7.04795, 10, -31.7427, -3.68483, 24.867, -159.258, -92.0579, 54.4034
7.05641, 10, -31.7309, -3.70162, 24.8821, -159.251, -92.0505, 54.3963
7.06348, 10, -31.7192, -3.71858, 24.8969, -159.243, -92.0431, 54.3891
7.07231, 10, -31.7073, -3.73529, 24.9118, -159.235, -92.0358, 54.382
7.07945, 10, -31.6956, -3.75202, 24.927, -159.227, -92.0285, 54.3746
7.08761, 10, -31.684, -3.76905, 24.9421, -159.219, -92.0213, 54.3673
7.09641, 10, -31.6723, -3.78606, 24.9571, -159.211, -92.0141, 54.3598
7.10372, 10, -31.6606, -3.80293, 24.9723, -159.203, -92.0069, 54.3523
7.11258, 10, -31.649, -3.82002, 24.9878, -159.194, -91.9997, 54.3447
7.12062, 10, -31.6373, -3.8374, 25.003, -159.186, -91.9924, 54.337
7.12786, 10, -31.6255, -3.85463, 25.0182, -159.178, -91.9849, 54.3291
7.13643, 10, -31.6139, -3.87174, 25.0335, -159.171, -91.9774, 54.321
7.14458, 10, -31.6024, -3.88907, 25.0489, -159.163, -91.9697, 54.3128
7.15188, 10, -31.5907, -3.90657, 25.0641, -159.155, -91.9617, 54.3044
7.16048, 11, -31.5791, -3.92385, 25.0795, -159.147, -91.9537, 54.2959
7.16874, 11, -31.5734, -3.93251, 25.0874, -159.143, -91.9496, 54.2917
7.17533, 11, -31.5618, -3.95007, 25.1033, -159.135, -91.9411, 54.283
7.1834, 11, -31.5501, -3.96782, 25.1189, -159.127, -91.9326, 54.2743
7.19132, 11, -31.5385, -3.98535, 25.1344, -159.119, -91.9241, 54.2656
7.20042, 11, -31.5214, -4.01176, 25.1579, -159.106, -91.9113, 54.2525
7.20732, 11, -31.5157, -4.02071, 25.1657, -159.102, -91.9071, 54.2482
7.21533, 11, -31.5043, -4.03853, 25.1812, -159.094, -91.8987, 54.2396
7.2246, 11, -31.4874, -4.06524, 25.2051, -159.08, -91.8862, 54.2267
7.23132, 11, -31.4817, -4.07426, 25.2131, -159.076, -91.882, 54.2224
7.24073, 11, -31.4647, -4.1014, 25.2367, -159.062, -91.8696, 54.2095
7.24731, 11, -31.4591, -4.11038, 25.2446, -159.058, -91.8654, 54.2053
7.25689, 11, -31.4424, -4.13749, 25.2687, -159.044, -91.853, 54.1924
7.26486, 11, -31.4311, -4.15575, 25.2845, -159.036, -91.8446, 54.1836
7.27292, 11, -31.42, -4.17388, 25.3004, -159.027, -91.8361, 54.1748
7.28094, 11, -31.4088, -4.19219, 25.3167, -159.019, -91.8274, 54.1658
7.28738, 11, -31.4031, -4.20144, 25.3249, -159.014, -91.823, 54.1613
7.29691, 11, -31.3918, -4.21994, 25.341, -159.006, -91.814, 54.1477
7.30517, 11, -31.3805, -4.23828, 25.357, -158.997, -91.8001, 54.1384
7.31215, 11, -31.3694, -4.25676, 25.3733, -158.989, -91.7954, 54.1337
7.31932, 11, -31.3582, -4.2754, 25.3895, -158.98, -91.7859, 54.1241
7.32835, 11, -31.3471, -4.29388, 25.4056, -158.971, -91.7764, 54.1144
7.33538, 11, -31.3362, -4.3125, 25.422, -158.962, -91.7669, 54.1045
7.34337, 11, -31.3252, -4.3314, 25.4387, -158.953, -91.7575, 54.0945
7.35133, 11, -31.3141, -4.35018, 25.4551, -158.944, -91.7482, 54.0845
7.35959, 12, -31.3031, -4.36889, 25.4715, -158.934, -91.739, 54.0744
7.36731, 12, -31.2923, -4.38789, 25.4881, -158.925, -91.7298, 54.0645
7.37621, 12, -31.2814, -4.40687, 25.5045, -158.915, -91.7207, 54.0546
7.38344, 12, -31.2705, -4.42576, 25.5208, -158.906, -91.7116, 54.0448
7.39136, 12, -31.2597, -4.44488, 25.5376, -158.896, -91.7025, 54.0349
7.40008, 12, -31.2488, -4.46414, 25.5544, -158.887, -91.6933, 54.0252
7.40838, 12, -31.2378, -4.48325, 25.571, -158.878, -91.6839, 54.0156
7.41531, 12, -31.2269, -4.50244, 25.5878, -158.869, -91.6743, 54.0058
7.42525, 12, -31.2161, -4.52183, 25.6047, -158.86, -91.6644, 53.9959
7.43232, 12, -31.2052, -4.54109, 25.6213, -158.851, -91.6544, 53.9861
7.44033, 12, -31.1943, -4.56046, 25.6381, -158.841, -91.6443, 53.9761
7.44731, 12, -31.1836, -4.58011, 25.6552, -158.832, -91.634, 53.966
7.45531, 12, -31.1728, -4.59964, 25.6722, -158.823, -91.6237, 53.9556
7.46343, 12, -31.162, -4.61915, 25.689, -158.813, -91.6135, 53.9451
7.47132, 12, -31.1512, -4.63887, 25.7061, -158.803, -91.6034, 53.9344
7.47934, 12, -31.1406, -4.65855, 25.7231, -158.793, -91.5934, 53.9235
7.48739, 12, -31.13, -4.67819, 25.74, -158.783, -91.5835, 53.9123
7.49535, 12, -31.1193, -4.69809, 25.7572, -158.773, -91.5735, 53.9011
7.50345, 12, -31.1087, -4.71795, 25.7746, -158.763, -91.5635, 53.8902
7.51148, 12, -31.0982, -4.73775, 25.7919, -158.753, -91.5534, 53.8789
7.51941, 12, -31.0876, -4.75778, 25.8092, -158.743, -91.5432, 53.868
7.52816, 12, -31.0769, -4.77791, 25.8266, -158.734, -91.5328, 53.8571
7.53548, 12, -31.0662, -4.79797, 25.8437, -158.724, -91.5222, 53.8462
7.54347, 12, -31.0557, -4.81822, 25.861, -158.715, -91.5113, 53.8353
7.55131, 12, -31.0452, -4.83853, 25.8785, -158.705, -91.5001, 53.8242
7.55951, 12, -31.0346, -4.85872, 25.8959, -158.695, -91.4889, 53.8134
7.56759, 13, -31.024, -4.87908, 25.9134, -158.686, -91.4778, 53.8023
7.5754, 13, -31.0136, -4.8995, 25.9312, -158.676, -91.4668, 53.7912
7.58361, 13, -31.0031, -4.91991, 25.9487, -158.666, -91.4559, 53.78
7.59428, 13, -30.9927, -4.94052, 25.9662, -158.655, -91.4451, 53.7686
7.60033, 13, -30.9825, -4.96115, 25.9841, -158.645, -91.4344, 53.757
7.60768, 13, -30.9723, -4.98171, 26.0018, -158.634, -91.4238, 53.7451
7.61664, 13, -30.9619, -5.00243, 26.0194, -158.624, -91.4131, 53.7332
7.62383, 13, -30.9517, -5.02318, 26.0373, -158.613, -91.4023, 53.7211
7.63241, 13, -30.9415, -5.04392, 26.0552, -158.603, -91.3914, 53.709
7.64071, 13, -30.9312, -5.06487, 26.073, -158.593, -91.3802, 53.697
7.6479, 13, -30.9208, -5.08582, 26.0911, -158.583, -91.3688, 53.6851
7.65642, 13, -30.9106, -5.10667, 26.1092, -158.572, -91.3571, 53.6733
7.66494, 13, -30.9004, -5.12773, 26.1272, -158.562, -91.3454, 53.6616
7.67249, 13, -30.8902, -5.14885, 26.1454, -158.552, -91.3336, 53.6497
7.67931, 13, -30.8851, -5.15937, 26.1545, -158.547, -91.3277, 53.6438
7.68924, 13, -30.8698, -5.19114, 26.1815, -158.531, -91.3104, 53.626
7.69648, 13, -30.8596, -5.21242, 26.1996, -158.52, -91.299, 53.614
7.70337, 13, -30.8545, -5.22302, 26.2088, -158.515, -91.2932, 53.608
7.71134, 13, -30.8443, -5.2443, 26.2271, -158.504, -91.2818, 53.5957
7.72207, 13, -30.8292, -5.27641, 26.2544, -158.487, -91.2647, 53.5768
7.72862, 13, -30.8193, -5.2979, 26.2728, -158.476, -91.2531, 53.5641
7.73533, 13, -30.8143, -5.30872, 26.282, -158.471, -91.2473, 53.5577
7.74338, 13, -30.8042, -5.33038, 26.3003, -158.46, -91.2354, 53.5446
7.75285, 13, -30.7893, -5.3628, 26.3282, -158.444, -91.2171, 53.5252
7.76166, 13, -30.7794, -5.38455, 26.3466, -158.433, -91.2046, 53.5123
7.76732, 13, -30.7744, -5.39542, 26.3558, -158.428, -91.1982, 53.506
7.77689, 14, -30.7596, -5.42808, 26.3836, -158.412, -91.1796, 53.4871
7.78571, 14, -30.7546, -5.43904, 26.4022, -158.402, -91.1674, 53.4747
7.79133, 14, -30.7448, -5.46093, 26.4116, -158.396, -91.1614, 53.4684
7.79934, 14, -30.7349, -5.48283, 26.4304, -158.385, -91.1493, 53.456
7.80836, 14, -30.7251, -5.50486, 26.4493, -158.374, -91.1373, 53.4435
7.81535, 14, -30.7152, -5.52696, 26.4681, -158.363, -91.1253, 53.4308
7.82343, 14, -30.7054, -5.5492, 26.487, -158.351, -91.1132, 53.4179
7.83238, 14, -30.6956, -5.57152, 26.5057, -158.34, -91.101, 53.4048
7.83933, 14, -30.6857, -5.59375, 26.5245, -158.328, -91.0884, 53.3915
7.8473, 14, -30.6759, -5.61618, 26.5435, -158.317, -91.0756, 53.3778
7.85536, 14, -30.6663, -5.6385, 26.5624, -158.306, -91.0625, 53.3639
7.86337, 14, -30.6566, -5.66088, 26.5814, -158.295, -91.0494, 53.3499
7.87137, 14, -30.6469, -5.6836, 26.6005, -158.283, -91.0362, 53.3357
7.87929, 14, -30.6373, -5.70612, 26.6196, -158.272, -91.0233, 53.3218
7.88731, 14, -30.6279, -5.72865, 26.6387, -158.261, -91.0104, 53.3079
7.8954, 14, -30.6183, -5.75149, 26.658, -158.25, -90.9977, 53.2942
7.90336, 14, -30.6086, -5.7741, 26.6772, -158.238, -90.9849, 53.2807
7.9113, 14, -30.5991, -5.79686, 26.6963, -158.226, -90.9721, 53.2671
7.91937, 14, -30.5896, -5.8199, 26.7156, -158.214, -90.9591, 53.2536
7.92729, 14, -30.5801, -5.84265, 26.7349, -158.202, -90.946, 53.24
7.93546, 14, -30.5706, -5.86562, 26.7544, -158.19, -90.9325, 53.2262
7.94429, 14, -30.561, -5.8887, 26.774, -158.178, -90.9188, 53.2124
7.9513, 14, -30.5516, -5.91165, 26.7934, -158.167, -90.905, 53.1981
7.95935, 14, -30.5423, -5.93486, 26.813, -158.155, -90.8913, 53.1837
7.96733, 14, -30.5328, -5.95802, 26.8325, -158.144, -90.8778, 53.1691
7.97552, 15, -30.5233, -5.98115, 26.8519, -158.132, -90.8645, 53.1544
7.98344, 15, -30.5141, -6.00449, 26.8716, -158.121, -90.8512, 53.1398
7.99144, 15, -30.5049, -6.02773, 26.8913, -158.109, -90.838, 53.1253
7.99935, 15, -30.4956, -6.05117, 26.9109, -158.097, -90.8248, 53.1109
8.00893, 15, -30.4864, -6.07474, 26.9308, -158.085, -90.8114, 53.0965
8.0163, 15, -30.4773, -6.0982, 26.9506, -158.072, -90.7978, 53.0821
8.02353, 15, -30.4682, -6.12185, 26.9703, -158.059, -90.7838, 53.0677
8.03141, 15, -30.4589, -6.14547, 26.9903, -158.047, -90.7697, 53.0531
8.0403, 15, -30.4496, -6.16918, 27.0101, -158.034, -90.7554, 53.0383
8.0473, 15, -30.4403, -6.19305, 27.0299, -158.022, -90.7414, 53.0235
8.05531, 15, -30.4311, -6.21677, 27.0499, -158.01, -90.7274, 53.0084
8.0636, 15, -30.4218, -6.24068, 27.0699, -157.998, -90.7136, 52.993
8.07133, 15, -30.4125, -6.26463, 27.0901, -157.986, -90.6996, 52.9776
8.07948, 15, -30.4033, -6.28861, 27.1102, -157.974, -90.6857, 52.9621
8.08744, 15, -30.3942, -6.31277, 27.1303, -157.961, -90.6717, 52.9467
8.09552, 15, -30.3851, -6.33684, 27.1506, -157.949, -90.6574, 52.9314
8.10374, 15, -30.3759, -6.36107, 27.1707, -157.936, -90.6429, 52.9163
8.11243, 15, -30.3667, -6.38529, 27.191, -157.923, -90.628, 52.9011
8.11968, 15, -30.3576, -6.40957, 27.2114, -157.91, -90.6131, 52.8859
8.12785, 15, -30.3488, -6.43413, 27.2316, -157.897, -90.5982, 52.8707
8.14109, 15, -30.3398, -6.45855, 27.252, -157.885, -90.5763, 52.8475
8.14443, 15, -30.3309, -6.48308, 27.2725, -157.872, -90.5691, 52.8396
8.15193, 15, -30.3221, -6.50769, 27.293, -157.86, -90.5547, 52.8237
8.16046, 15, -30.3133, -6.53225, 27.3137, -157.848, -90.5403, 52.8076
8.16783, 15, -30.3088, -6.54464, 27.324, -157.841, -90.5259, 52.7915
8.1763, 15, -30.2952, -6.58169, 27.3546, -157.822, -90.5112, 52.7754
8.18324, 16, -30.2907, -6.59402, 27.3649, -157.816, -90.5038, 52.7674
8.19128, 16, -30.2817, -6.6189, 27.3857, -157.803, -90.4886, 52.7517
8.20045, 16, -30.2683, -6.65619, 27.4169, -157.783, -90.4656, 52.7283
8.20927, 16, -30.2594, -6.68125, 27.4378, -157.77, -90.4504, 52.7126
8.21533, 16, -30.2549, -6.69374, 27.4482, -157.764, -90.4429, 52.7049
8.22467, 16, -30.2417, -6.73125, 27.4794, -157.744, -90.4205, 52.6812
8.23132, 16, -30.2373, -6.7438, 27.4899, -157.738, -90.413, 52.6733
8.23938, 16, -30.2284, -6.76883, 27.5108, -157.725, -90.3982, 52.6574
8.24728, 16, -30.2196, -6.79412, 27.5318, -157.712, -90.3832, 52.6411
8.25765, 16, -30.2064, -6.83204, 27.5634, -157.693, -90.3601, 52.6161
8.26345, 16, -30.2021, -6.8447, 27.5738, -157.687, -90.3523, 52.6077
8.27128, 16, -30.1936, -6.87017, 27.595, -157.674, -90.3364, 52.5911
8.28171, 16, -30.1808, -6.9083, 27.6267, -157.654, -90.3125, 52.5664
8.28735, 16, -30.1765, -6.92114, 27.6373, -157.647, -90.3046, 52.5583
8.29693, 16, -30.168, -6.94672, 27.6586, -157.626, -90.2813, 52.5341
8.30585, 16, -30.1595, -6.97228, 27.6798, -157.619, -90.2735, 52.5179
8.31229, 16, -30.1509, -6.998, 27.701, -157.606, -90.2582, 52.5098
8.32033, 16, -30.1423, -7.02372, 27.7224, -157.593, -90.2428, 52.4933
8.32829, 16, -30.1335, -7.04962, 27.7438, -157.58, -90.2271, 52.4766
8.33534, 16, -30.1249, -7.07546, 27.7653, -157.566, -90.2112, 52.4597
8.34328, 16, -30.1164, -7.10142, 27.7868, -157.553, -90.195, 52.4425
8.35144, 16, -30.1079, -7.12733, 27.8083, -157.54, -90.1787, 52.4253
8.36167, 16, -30.0951, -7.16655, 27.8406, -157.52, -90.1545, 52.3993
8.36728, 16, -30.0909, -7.17965, 27.8514, -157.513, -90.1465, 52.3909
8.37535, 16, -30.0825, -7.20576, 27.8731, -157.499, -90.1305, 52.374
8.38328, 16, -30.0741, -7.23206, 27.8947, -157.485, -90.1146, 52.3572
8.39128, 17, -30.0657, -7.25827, 27.9163, -157.471, -90.0988, 52.3405
8.39939, 17, -30.0573, -7.28464, 27.9381, -157.457, -90.0826, 52.3236
8.40739, 17, -30.049, -7.31109, 27.9599, -157.444, -90.0661, 52.3067
8.41528, 17, -30.0408, -7.33745, 27.9818, -157.43, -90.0494, 52.2893
8.42332, 17, -30.0326, -7.36405, 28.0036, -157.416, -90.0325, 52.2718
8.43128, 17, -30.0244, -7.39053, 28.0254, -157.403, -90.0158, 52.2539
8.43933, 17, -30.0162, -7.41721, 28.0474, -157.389, -89.9993, 52.2358
8.44728, 17, -30.0081, -7.44387, 28.0693, -157.375, -89.983, 52.2178
8.45534, 17, -29.9999, -7.4705, 28.0915, -157.361, -89.9667, 52.1999
8.46328, 17, -29.9917, -7.49722, 28.1137, -157.346, -89.9504, 52.1822
8.47139, 17, -29.9834, -7.52402, 28.1357, -157.332, -89.9338, 52.1646
8.47929, 17, -29.9751, -7.551, 28.1579, -157.317, -89.9169, 52.147
8.48766, 17, -29.967, -7.57787, 28.18, -157.303, -89.8998, 52.1295
8.49612, 17, -29.9588, -7.60488, 28.2023, -157.289, -89.8825, 52.1117
8.50334, 17, -29.9506, -7.63186, 28.2246, -157.275, -89.8655, 52.0938
8.51175, 17, -29.9425, -7.659, 28.2469, -157.261, -89.8487, 52.0754
8.52036, 17, -29.9344, -7.68618, 28.2693, -157.247, -89.8319, 52.0569
8.52738, 17, -29.9263, -7.71333, 28.2917, -157.233, -89.8152, 52.0384
8.53596, 17, -29.9183, -7.74067, 28.3142, -157.218, -89.7983, 52.0202
8.54459, 17, -29.9102, -7.76797, 28.3367, -157.203, -89.781, 52.0021
8.55313, 17, -29.9021, -7.79549, 28.3591, -157.189, -89.7635, 51.9841
8.56008, 17, -29.894, -7.82291, 28.3816, -157.174, -89.7457, 51.9661
8.56836, 17, -29.8861, -7.85042, 28.4042, -157.159, -89.7281, 51.9479
8.57544, 17, -29.8783, -7.87794, 28.427, -157.145, -89.7107, 51.9297
8.58429, 17, -29.8704, -7.90564, 28.4497, -157.131, -89.6935, 51.9111
8.59143, 17, -29.8626, -7.93337, 28.4724, -157.116, -89.6764, 51.8922
8.60028, 18, -29.8548, -7.96108, 28.4951, -157.102, -89.6592, 51.873
8.60847, 18, -29.847, -7.98893, 28.5178, -157.087, -89.6418, 51.854
8.6172, 18, -29.8392, -8.01676, 28.5407, -157.072, -89.6241, 51.835
8.62378, 18, -29.8313, -8.04477, 28.5636, -157.056, -89.606, 51.8165
8.63244, 18, -29.8233, -8.07265, 28.5865, -157.041, -89.5881, 51.798
8.6399, 18, -29.8155, -8.1007, 28.6095, -157.026, -89.5704, 51.7792
8.64789, 18, -29.8077, -8.12879, 28.6325, -157.011, -89.5527, 51.7607
8.65645, 18, -29.7999, -8.15698, 28.6557, -156.997, -89.5352, 51.7419
8.66382, 18, -29.796, -8.17109, 28.6786, -156.982, -89.5176, 51.7228
8.67187, 18, -29.7882, -8.19919, 28.6902, -156.975, -89.5087, 51.7032
8.68052, 18, -29.7766, -8.24152, 28.7249, -156.953, -89.4815, 51.6836
8.68731, 18, -29.7727, -8.25565, 28.7366, -156.945, -89.4722, 51.6738
8.69639, 18, -29.7612, -8.29832, 28.7716, -156.922, -89.4443, 51.6446
8.70337, 18, -29.7573, -8.3125, 28.7833, -156.914, -89.4351, 51.6351
8.71132, 18, -29.7496, -8.34094, 28.8065, -156.899, -89.4169, 51.6161
8.72057, 18, -29.7381, -8.38368, 28.8415, -156.876, -89.3899, 51.5876
8.72726, 18, -29.7343, -8.39802, 28.8532, -156.869, -89.381, 51.5781
8.73535, 18, -29.7268, -8.4267, 28.8767, -156.854, -89.363, 51.5588
8.7448, 18, -29.7156, -8.46974, 28.9118, -156.831, -89.3353, 51.5297
8.75275, 18, -29.7081, -8.49853, 28.9354, -156.816, -89.3165, 51.5098
8.76082, 18, -29.7007, -8.52743, 28.9589, -156.801, -89.2976, 51.4897
8.76921, 18, -29.6933, -8.55638, 28.9826, -156.785, -89.279, 51.47
8.77523, 18, -29.6896, -8.57085, 28.9944, -156.777, -89.2697, 51.4602
8.78483, 18, -29.6783, -8.61428, 29.0297, -156.753, -89.2422, 51.4309
8.79291, 18, -29.6746, -8.64343, 29.0535, -156.738, -89.2238, 51.4115
8.80023, 19, -29.6669, -8.65806, 29.0653, -156.73, -89.2145, 51.4018
8.80733, 19, -29.6594, -8.68728, 29.0892, -156.715, -89.1956, 51.3823
8.81636, 19, -29.652, -8.71654, 29.1131, -156.7, -89.1764, 51.3626
8.82429, 19, -29.6446, -8.74576, 29.1369, -156.685, -89.157, 51.3424
8.83232, 19, -29.6372, -8.77519, 29.1608, -156.67, -89.1379, 51.3221
8.84226, 19, -29.6261, -8.8193, 29.1967, -156.646, -89.1097, 51.2918
8.84732, 19, -29.6224, -8.83405, 29.2087, -156.638, -89.1004, 51.2818
8.85526, 19, -29.6152, -8.86355, 29.2327, -156.622, -89.0818, 51.2619
8.86326, 19, -29.6079, -8.89313, 29.2567, -156.606, -89.0629, 51.2421
8.87127, 19, -29.6006, -8.92275, 29.2808, -156.59, -89.0438, 51.2223
8.87927, 19, -29.5934, -8.95235, 29.3051, -156.574, -89.0243, 51.2024
8.88726, 19, -29.5861, -8.98201, 29.3294, -156.559, -89.0048, 51.1823
8.89532, 19, -29.579, -9.01173, 29.3535, -156.543, -88.9857, 51.1617
8.9033, 19, -29.5719, -9.04158, 29.3778, -156.527, -88.9667, 51.1409
8.91131, 19, -29.5649, -9.07139, 29.4021, -156.511, -88.9477, 51.12
8.91932, 19, -29.5579, -9.10129, 29.4266, -156.494, -88.9286, 51.0992
8.92726, 19, -29.5508, -9.1312, 29.4511, -156.478, -88.9092, 51.0788
8.93526, 19, -29.5438, -9.16129, 29.4755, -156.461, -88.8895, 51.0583
8.94335, 19, -29.5368, -9.19133, 29.5, -156.445, -88.8695, 51.0379
8.95127, 19, -29.5299, -9.22156, 29.5245, -156.429, -88.8497, 51.0175
8.9594, 19, -29.5228, -9.25179, 29.5492, -156.413, -88.8302, 50.9967
8.96731, 19, -29.5157, -9.28211, 29.5737, -156.397, -88.8109, 50.9756
8.97526, 19, -29.5086, -9.3124, 29.5984, -156.381, -88.7916, 50.9543
8.98333, 19, -29.5015, -9.34273, 29.6231, -156.365, -88.7722, 50.9331
8.99127, 19, -29.4945, -9.37318, 29.6479, -156.348, -88.7523, 50.9121
8.9993, 19, -29.4875, -9.40376, 29.6727, -156.331, -88.7321, 50.8913
9.00741, 20, -29.4805, -9.43429, 29.6974, -156.314, -88.712, 50.8706
9.01535, 20, -29.4734, -9.46492, 29.7222, -156.298, -88.6921, 50.8497
9.02336, 20, -29.4665, -9.49558, 29.7472, -156.281, -88.6724, 50.8287
9.03138, 20, -29.4596, -9.52634, 29.7722, -156.265, -88.6527, 50.8075
9.03941, 20, -29.4528, -9.55707, 29.7971, -156.248, -88.6328, 50.786
9.04741, 20, -29.4459, -9.58792, 29.8221, -156.232, -88.6126, 50.7641
9.05584, 20, -29.439, -9.61884, 29.8471, -156.215, -88.5921, 50.7422
9.06328, 20, -29.432, -9.64989, 29.8722, -156.198, -88.5715, 50.7207
9.07134, 20, -29.4252, -9.68086, 29.8972, -156.18, -88.5512, 50.6994
9.08026, 20, -29.4185, -9.71187, 29.9224, -156.164, -88.5311, 50.6783
9.08736, 20, -29.4119, -9.74295, 29.9476, -156.147, -88.5112, 50.657
9.09545, 20, -29.4052, -9.77416, 29.9729, -156.13, -88.4911, 50.6357
9.10445, 20, -29.3985, -9.80527, 29.9982, -156.114, -88.4708, 50.614
9.11157, 20, -29.3919, -9.83649, 30.0234, -156.097, -88.45, 50.5918
9.11968, 20, -29.3853, -9.86775, 30.0488, -156.08, -88.4292, 50.5695
9.12771, 20, -29.3788, -9.89921, 30.0742, -156.063, -88.4085, 50.5474
9.13574, 20, -29.3722, -9.93062, 30.0999, -156.045, -88.3881, 50.5257
9.14436, 20, -29.3654, -9.96213, 30.1253, -156.028, -88.3677, 50.5041
9.15356, 20, -29.3587, -9.9937, 30.1508, -156.011, -88.3472, 50.4825
9.16115, 20, -29.352, -10.0254, 30.1763, -155.994, -88.3264, 50.4611
9.16783, 20, -29.3486, -10.0412, 30.202, -155.977, -88.3052, 50.4393
9.17684, 20, -29.3386, -10.0887, 30.2276, -155.96, -88.2838, 50.4173
9.18384, 20, -29.3353, -10.1045, 30.2404, -155.952, -88.2733, 50.4061
9.19236, 20, -29.3255, -10.1524, 30.2789, -155.926, -88.2421, 50.3724
9.19929, 20, -29.3222, -10.1683, 30.2918, -155.917, -88.2318, 50.3613
9.2073, 20, -29.3156, -10.2002, 30.3177, -155.899, -88.2112, 50.3394
9.21647, 21, -29.3059, -10.2481, 30.3562, -155.873, -88.1799, 50.3066
9.22328, 21, -29.3026, -10.2641, 30.3691, -155.865, -88.1693, 50.2957
9.23126, 21, -29.2962, -10.296, 30.395, -155.847, -88.1479, 50.2738
9.23932, 21, -29.2897, -10.3281, 30.421, -155.83, -88.1265, 50.2517
9.24869, 21, -29.28, -10.3763, 30.4599, -155.805, -88.095, 50.218
9.25525, 21, -29.2767, -10.3924, 30.4729, -155.796, -88.0845, 50.2067
9.26343, 21, -29.2702, -10.4246, 30.4989, -155.778, -88.0637, 50.1842
9.27124, 21, -29.2638, -10.4568, 30.525, -155.76, -88.0425, 50.1621
9.28168, 21, -29.2544, -10.5052, 30.5641, -155.734, -88.01, 50.1293
9.28732, 21, -29.2513, -10.5213, 30.5771, -155.725, -87.999, 50.1183
9.29687, 21, -29.245, -10.5699, 30.6163, -155.699, -87.9666, 50.0853
9.30424, 21, -29.2387, -10.5861, 30.6295, -155.69, -87.9559, 50.0741
9.31131, 21, -29.2325, -10.6186, 30.6558, -155.673, -87.9346, 50.0515
9.3203, 21, -29.2263, -10.6511, 30.682, -155.655, -87.9134, 50.0285
9.32829, 21, -29.2201, -10.6837, 30.7082, -155.637, -87.892, 50.0054
9.33531, 21, -29.2139, -10.7164, 30.7346, -155.619, -87.8702, 49.9826
9.34324, 21, -29.2076, -10.7491, 30.7611, -155.6, -87.8482, 49.96
9.35122, 21, -29.2013, -10.7819, 30.7876, -155.582, -87.8264, 49.9376
9.35924, 21, -29.1949, -10.8147, 30.814, -155.564, -87.8048, 49.915
9.36725, 21, -29.1887, -10.8475, 30.8405, -155.547, -87.7833, 49.8922
9.37547, 21, -29.1825, -10.8805, 30.8671, -155.529, -87.7617, 49.8692
9.38576, 21, -29.1732, -10.93, 30.9069, -155.502, -87.7287, 49.8341
9.39224, 21, -29.1701, -10.9465, 30.9202, -155.492, -87.7175, 49.8225
9.40025, 21, -29.1639, -10.9796, 30.9469, -155.474, -87.6951, 49.7994
9.40729, 21, -29.1578, -11.0127, 30.9736, -155.455, -87.6731, 49.7766
9.41524, 22, -29.1517, -11.0459, 31.0003, -155.437, -87.6513, 49.754
9.42332, 22, -29.1457, -11.0791, 31.027, -155.419, -87.6296, 49.7313
9.43124, 22, -29.1397, -11.1124, 31.0537, -155.401, -87.6077, 49.7084
9.43925, 22, -29.1337, -11.1457, 31.0806, -155.383, -87.5853, 49.6853
9.44732, 22, -29.1276, -11.1789, 31.1075, -155.364, -87.5627, 49.6616
9.45524, 22, -29.1216, -11.2122, 31.1344, -155.345, -87.5402, 49.6379
9.46326, 22, -29.1157, -11.2458, 31.1612, -155.326, -87.518, 49.6144
9.47125, 22, -29.1098, -11.2792, 31.1882, -155.307, -87.4959, 49.5913
9.47931, 22, -29.104, -11.3127, 31.2152, -155.289, -87.4738, 49.5684
9.48736, 22, -29.0982, -11.3463, 31.2421, -155.271, -87.4514, 49.5454
9.49547, 22, -29.0925, -11.38, 31.2692, -155.253, -87.4285, 49.5225
9.50329, 22, -29.0867, -11.4136, 31.2963, -155.234, -87.4056, 49.499
9.51157, 22, -29.0809, -11.4474, 31.3236, -155.215, -87.383, 49.4752
9.52016, 22, -29.0751, -11.4813, 31.3506, -155.196, -87.3607, 49.4512
9.52739, 22, -29.0693, -11.5152, 31.3778, -155.177, -87.3386, 49.4276
9.53582, 22, -29.0636, -11.5492, 31.405, -155.159, -87.3163, 49.4043
9.54415, 22, -29.0578, -11.5831, 31.4324, -155.14, -87.2936, 49.381
9.55131, 22, -29.052, -11.6172, 31.4597, -155.121, -87.2706, 49.3578
9.55996, 22, -29.0461, -11.6513, 31.487, -155.103, -87.2478, 49.3343
9.56849, 22, -29.0402, -11.6854, 31.5144, -155.084, -87.2254, 49.3105
9.57967, 22, -29.0344, -11.7367, 31.5556, -155.055, -87.1916, 49.2744
9.58418, 22, -29.0286, -11.7538, 31.5692, -155.045, -87.1803, 49.2624
9.59223, 22, -29.0228, -11.788, 31.5967, -155.026, -87.1573, 49.2386
9.59961, 22, -29.0171, -11.8224, 31.6242, -155.007, -87.1339, 49.215
9.60822, 22, -29.0113, -11.8567, 31.6518, -154.989, -87.1106, 49.1916
9.61556, 22, -29.0055, -11.8911, 31.6793, -154.97, -87.0876, 49.168
9.62369, 23, -28.9997, -11.9255, 31.7069, -154.951, -87.0649, 49.1443
9.6325, 23, -28.994, -11.9598, 31.7345, -154.932, -87.0423, 49.1203
9.64126, 23, -28.9884, -11.9944, 31.7623, -154.913, -87.0194, 49.0961
9.64824, 23, -28.9828, -12.0289, 31.79, -154.893, -86.9959, 49.0719
9.6558, 23, -28.9771, -12.0634, 31.8177, -154.874, -86.9725, 49.0482
9.66514, 23, -28.9715, -12.098, 31.8455, -154.855, -86.9494, 49.0248
9.67196, 23, -28.9658, -12.1326, 31.8735, -154.836, -86.9264, 49.0013
9.68046, 23, -28.9602, -12.1673, 31.9013, -154.817, -86.9035, 48.9778
9.68782, 23, -28.9573, -12.1847, 31.9152, -154.807, -86.892, 48.9658
9.6966, 23, -28.9491, -12.237, 31.957, -154.778, -86.8568, 48.9295
9.70323, 23, -28.9464, -12.2544, 31.9711, -154.768, -86.8448, 48.9172
9.71238, 23, -28.9383, -12.3067, 32.0131, -154.738, -86.8092, 48.8806
9.71924, 23, -28.9356, -12.3242, 32.0271, -154.728, -86.7975, 48.8685
9.72732, 23, -28.9302, -12.3593, 32.0551, -154.709, -86.7742, 48.8445
9.73527, 23, -28.9248, -12.3944, 32.0833, -154.69, -86.751, 48.8206
9.745, 23, -28.9168, -12.447, 32.1256, -154.661, -86.7154, 48.7845
9.75267, 23, -28.9114, -12.4822, 32.1538, -154.641, -86.6913, 48.7603
9.76069, 23, -28.9061, -12.5173, 32.1821, -154.621, -86.6675, 48.7357
9.76729, 23, -28.9034, -12.5349, 32.1962, -154.611, -86.6557, 48.7234
9.77524, 23, -28.8981, -12.5701, 32.2245, -154.591, -86.6322, 48.6988
9.78329, 23, -28.8926, -12.6054, 32.2528, -154.571, -86.6088, 48.6746
9.79527, 23, -28.8845, -12.6583, 32.2953, -154.541, -86.573, 48.6386
9.80072, 23, -28.8817, -12.6759, 32.3096, -154.531, -86.5608, 48.6266
9.80822, 23, -28.8763, -12.7113, 32.338, -154.512, -86.5365, 48.6026
9.81523, 23, -28.8709, -12.7468, 32.3663, -154.491, -86.5126, 48.5782
9.82422, 23, -28.8655, -12.7822, 32.3948, -154.471, -86.489, 48.5533
9.83129, 24, -28.8601, -12.8176, 32.4234, -154.45, -86.4655, 48.5283
9.83924, 24, -28.8548, -12.8532, 32.4519, -154.43, -86.4418, 48.5037
9.84727, 24, -28.8494, -12.8888, 32.4804, -154.411, -86.4176, 48.4794
9.85526, 24, -28.844, -12.9245, 32.5089, -154.391, -86.3933, 48.4551
9.86323, 24, -28.8387, -12.9602, 32.5376, -154.371, -86.3692, 48.4308
9.8713, 24, -28.8334, -12.996, 32.5662, -154.351, -86.3454, 48.4064
9.87923, 24, -28.8282, -13.0317, 32.5948, -154.33, -86.3216, 48.3815
9.88734, 24, -28.823, -13.0675, 32.6235, -154.309, -86.2976, 48.3563
9.89527, 24, -28.8178, -13.1034, 32.6523, -154.289, -86.2732, 48.3313
9.90323, 24, -28.8126, -13.1394, 32.6809, -154.269, -86.2485, 48.3066
9.91133, 24, -28.8073, -13.1753, 32.7097, -154.249, -86.2241, 48.2823
9.91925, 24, -28.8021, -13.2113, 32.7386, -154.229, -86.2001, 48.258
9.92728, 24, -28.7969, -13.2474, 32.7675, -154.209, -86.1762, 48.2336
9.9353, 24, -28.7918, -13.2834, 32.7963, -154.188, -86.1521, 48.209
9.94322, 24, -28.7867, -13.3195, 32.8252, -154.167, -86.1276, 48.1839
9.95123, 24, -28.7816, -13.3556, 32.8542, -154.147, -86.1029, 48.1587
9.95939, 24, -28.7766, -13.3918, 32.8832, -154.127, -86.0785, 48.134
9.96728, 24, -28.7715, -13.4279, 32.9121, -154.107, -86.0543, 48.1095
9.9752, 24, -28.7664, -13.4641, 32.9411, -154.087, -86.0302, 48.0852
9.98346, 24, -28.7614, -13.5004, 32.9703, -154.066, -86.0059, 48.0609
9.99144, 24, -28.7564, -13.5367, 32.9994, -154.045, -85.981, 48.0364
9.99923, 24, -28.7514, -13.573, 33.0284, -154.024, -85.9559, 48.0116
10.0074, 24, -28.7464, -13.6094, 33.0575, -154.003, -85.9314, 47.9865
10.0153, 24, -28.7414, -13.6458, 33.0868, -153.983, -85.907, 47.9615
10.0234, 24, -28.7364, -13.6824, 33.1159, -153.963, -85.8829, 47.9371
10.0316, 25, -28.7313, -13.7189, 33.145, -153.942, -85.8585, 47.913
10.0393, 25, -28.7263, -13.7556, 33.1742, -153.921, -85.8336, 47.8889
10.0474, 25, -28.7211, -13.7922, 33.2035, -153.9, -85.8086, 47.8646
10.0558, 25, -28.716, -13.8289, 33.2327, -153.879, -85.7839, 47.84
10.0642, 25, -28.711, -13.8657, 33.262, -153.858, -85.7594, 47.815
10.0713, 25, -28.7061, -13.9024, 33.2913, -153.837, -85.735, 47.7898
10.0801, 25, -28.7011, -13.9392, 33.3208, -153.816, -85.7102, 47.7648
10.0875, 25, -28.6961, -13.9761, 33.3501, -153.796, -85.6849, 47.7401
10.0954, 25, -28.6911, -14.013, 33.3795, -153.774, -85.6596, 47.7156
10.1051, 25, -28.6862, -14.0499, 33.409, -153.753, -85.6348, 47.6911
10.1122, 25, -28.6813, -14.0869, 33.4386, -153.731, -85.6101, 47.6664
10.1196, 25, -28.6764, -14.1239, 33.468, -153.71, -85.5856, 47.6414
10.1293, 25, -28.6716, -14.1608, 33.4975, -153.689, -85.5608, 47.616
10.1357, 25, -28.6668, -14.1978, 33.5272, -153.668, -85.5355, 47.5907
10.1438, 25, -28.662, -14.235, 33.5568, -153.647, -85.5103, 47.5659
10.1535, 25, -28.6572, -14.272, 33.5864, -153.625, -85.4854, 47.5412
10.1598, 25, -28.6524, -14.3091, 33.616, -153.604, -85.4606, 47.5167
10.1685, 25, -28.6475, -14.3463, 33.6458, -153.582, -85.436, 47.4921
10.1765, 25, -28.6451, -14.3649, 33.6606, -153.56, -85.4108, 47.4672
10.1841, 25, -28.6379, -14.4208, 33.7051, -153.539, -85.3852, 47.4419
10.1912, 25, -28.6355, -14.4395, 33.7199, -153.529, -85.3725, 47.4291
10.2018, 25, -28.6284, -14.4956, 33.7647, -153.497, -85.3347, 47.3912
10.2073, 25, -28.626, -14.5143, 33.7796, -153.486, -85.3223, 47.3788
10.2164, 25, -28.619, -14.5705, 33.8241, -153.453, -85.2851, 47.3419
10.2232, 25, -28.6167, -14.5893, 33.839, -153.442, -85.2725, 47.3296
10.2313, 25, -28.6121, -14.6269, 33.8689, -153.421, -85.247, 47.305
10.2406, 26, -28.6051, -14.6831, 33.9136, -153.389, -85.2088, 47.2675
10.2472, 26, -28.6028, -14.7019, 33.9286, -153.378, -85.1963, 47.2547
10.2553, 26, -28.5982, -14.7395, 33.9585, -153.357, -85.1712, 47.2293
10.2648, 26, -28.5912, -14.7959, 34.0035, -153.324, -85.1335, 47.1921
10.2728, 26, -28.5865, -14.8336, 34.0334, -153.302, -85.1077, 47.1675
10.2808, 26, -28.5818, -14.8713, 34.0634, -153.28, -85.0818, 47.1429
10.2888, 26, -28.577, -14.9089, 34.0936, -153.259, -85.0563, 47.1183
10.2968, 26, -28.5746, -14.9466, 34.1236, -153.238, -85.0311, 47.0934
10.3062, 26, -28.5673, -14.9843, 34.1537, -153.216, -85.006, 47.068
10.3113, 26, -28.5649, -15.0031, 34.1688, -153.205, -84.9934, 47.0554
10.3203, 26, -28.56, -15.0408, 34.199, -153.183, -84.9677, 47.0304
10.3282, 26, -28.5552, -15.0786, 34.2292, -153.161, -84.9418, 47.0058
10.3363, 26, -28.5505, -15.1164, 34.2593, -153.139, -84.9161, 46.9815
10.3443, 26, -28.5457, -15.1543, 34.2896, -153.118, -84.8907, 46.957
10.3522, 26, -28.5409, -15.1923, 34.3199, -153.096, -84.8655, 46.9324
10.3602, 26, -28.5363, -15.2303, 34.3501, -153.074, -84.84, 46.9076
10.3683, 26, -28.5316, -15.2683, 34.3803, -153.052, -84.814, 46.8824
10.3762, 26, -28.527, -15.3063, 34.4107, -153.029, -84.7879, 46.8574
10.3842, 26, -28.5223, -15.3444, 34.4411, -153.007, -84.7623, 46.8326
10.3923, 26, -28.5177, -15.3826, 34.4714, -152.985, -84.7369, 46.8084
10.4004, 26, -28.5132, -15.4207, 34.5016, -152.963, -84.7116, 46.7841
10.4073, 26, -28.5086, -15.4589, 34.5322, -152.941, -84.6859, 46.7598
10.4152, 26, -28.5041, -15.497, 34.5626, -152.919, -84.6599, 46.7354
10.4232, 26, -28.4995, -15.5352, 34.593, -152.896, -84.6339, 46.7104
10.4313, 26, -28.4948, -15.5734, 34.6235, -152.874, -84.6084, 46.6852
10.4392, 26, -28.4902, -15.6116, 34.6541, -152.851, -84.5828, 46.6603
10.4472, 27, -28.4855, -15.6498, 34.6845, -152.829, -84.5573, 46.6356
10.4553, 27, -28.481, -15.6881, 34.715, -152.807, -84.5312, 46.6112
10.4632, 27, -28.4764, -15.7264, 34.7457, -152.785, -84.5048, 46.5868
10.4713, 27, -28.4719, -15.7647, 34.7764, -152.762, -84.4787, 46.5624
10.4792, 27, -28.4675, -15.8029, 34.807, -152.739, -84.453, 46.5377
10.4872, 27, -28.463, -15.8414, 34.8375, -152.716, -84.4275, 46.5127
10.4952, 27, -28.4586, -15.8798, 34.8683, -152.694, -84.4019, 46.4876
10.5033, 27, -28.4541, -15.9182, 34.899, -152.672, -84.3756, 46.463
10.5113, 27, -28.4497, -15.9568, 34.9296, -152.649, -84.3494, 46.4385
10.5193, 27, -28.4452, -15.9954, 34.9604, -152.627, -84.3235, 46.4143
10.5274, 27, -28.4408, -16.034, 34.9912, -152.604, -84.2978, 46.3899
10.5353, 27, -28.4363, -16.0727, 35.0218, -152.581, -84.2721, 46.3654
10.5433, 27, -28.4319, -16.1114, 35.0526, -152.558, -84.246, 46.3405
10.5514, 27, -28.4275, -16.15, 35.0834, -152.536, -84.2194, 46.3153
10.5592, 27, -28.423, -16.1887, 35.1143, -152.513, -84.1931, 46.2904
10.5674, 27, -28.4184, -16.2275, 35.1451, -152.491, -84.1671, 46.266
10.5753, 27, -28.4138, -16.2663, 35.1759, -152.467, -84.1415, 46.2416
10.5833, 27, -28.4092, -16.305, 35.2068, -152.444, -84.1157, 46.2172
10.5917, 27, -28.4046, -16.3438, 35.2377, -152.421, -84.0894, 46.1929
10.6002, 27, -28.4, -16.3826, 35.2686, -152.399, -84.0628, 46.1681
10.6075, 27, -28.3955, -16.4214, 35.2995, -152.377, -84.0367, 46.1432
10.6159, 27, -28.3911, -16.4602, 35.3305, -152.354, -84.0107, 46.1183
10.6243, 27, -28.3867, -16.499, 35.3614, -152.331, -83.9849, 46.0938
10.6317, 27, -28.3822, -16.5379, 35.3924, -152.308, -83.9587, 46.0699
10.6403, 27, -28.3777, -16.5767, 35.4236, -152.285, -83.932, 46.0458
10.6481, 28, -28.3733, -16.6157, 35.4546, -152.262, -83.9054, 46.0219
10.6558, 28, -28.3688, -16.6547, 35.4855, -152.239, -83.8794, 45.9977
10.6643, 28, -28.3644, -16.6936, 35.5166, -152.217, -83.8535, 45.9732
10.6726, 28, -28.3622, -16.7327, 35.5478, -152.193, -83.8277, 45.9485
10.6798, 28, -28.3578, -16.7522, 35.5633, -152.17, -83.8014, 45.924
10.6882, 28, -28.3514, -16.8109, 35.6099, -152.146, -83.7748, 45.8999
10.6952, 28, -28.3492, -16.8305, 35.6255, -152.135, -83.7616, 45.8879
10.7032, 28, -28.3448, -16.8696, 35.6567, -152.112, -83.7356, 45.8643
10.7129, 28, -28.3381, -16.9283, 35.7032, -152.078, -83.6967, 45.8288
10.7211, 28, -28.3337, -16.9674, 35.7345, -152.054, -83.6705, 45.8049
10.7272, 28, -28.3314, -16.987, 35.7502, -152.042, -83.6571, 45.7928
10.7352, 28, -28.327, -17.0262, 35.7814, -152.018, -83.6303, 45.7684
10.7453, 28, -28.3205, -17.085, 35.8281, -151.983, -83.5907, 45.7324
10.7512, 28, -28.3183, -17.1046, 35.8437, -151.972, -83.5776, 45.7206
10.7608, 28, -28.3119, -17.1633, 35.8906, -151.937, -83.5386, 45.6854
10.7672, 28, -28.3098, -17.183, 35.9062, -151.925, -83.5254, 45.6737
10.7752, 28, -28.3056, -17.2222, 35.9375, -151.901, -83.4986, 45.6505
10.7848, 28, -28.2991, -17.281, 35.9846, -151.865, -83.4588, 45.6151
10.7913, 28, -28.297, -17.3007, 36.0002, -151.854, -83.4457, 45.6032
10.8008, 28, -28.2906, -17.3596, 36.047, -151.819, -83.4065, 45.5671
10.81, 28, -28.2884, -17.3793, 36.0627, -151.807, -83.3934, 45.5551
10.8154, 28, -28.2842, -17.4186, 36.0942, -151.784, -83.3667, 45.5315
10.8242, 28, -28.2799, -17.4581, 36.1256, -151.76, -83.3396, 45.5082
10.8322, 28, -28.2757, -17.4975, 36.1569, -151.736, -83.313, 45.4851
10.8393, 28, -28.2714, -17.537, 36.1883, -151.712, -83.2867, 45.4618
10.8472, 28, -28.2671, -17.5765, 36.2198, -151.689, -83.2606, 45.4385
10.8552, 29, -28.2626, -17.616, 36.2511, -151.666, -83.2342, 45.4149
10.8633, 29, -28.2582, -17.6554, 36.2826, -151.642, -83.2072, 45.3911
10.8712, 29, -28.2537, -17.6949, 36.3141, -151.618, -83.1804, 45.3676
10.8792, 29, -28.2492, -17.7344, 36.3455, -151.594, -83.1539, 45.3445
10.8872, 29, -28.2448, -17.7739, 36.3768, -151.57, -83.1276, 45.3217
10.8953, 29, -28.2404, -17.8135, 36.4083, -151.547, -83.1012, 45.2989
10.9032, 29, -28.236, -17.8529, 36.4399, -151.523, -83.0743, 45.2761
10.9114, 29, -28.2316, -17.8924, 36.4713, -151.5, -83.0472, 45.2531
10.9192, 29, -28.2273, -17.932, 36.5027, -151.476, -83.0205, 45.2299
10.9272, 29, -28.223, -17.9715, 36.5343, -151.452, -82.9941, 45.2063
10.9353, 29, -28.2186, -18.0111, 36.5658, -151.428, -82.9679, 45.1829
10.9432, 29, -28.2143, -18.0506, 36.5973, -151.404, -82.9414, 45.1599
10.9512, 29, -28.21, -18.0901, 36.6289, -151.38, -82.9144, 45.1372
10.9593, 29, -28.2057, -18.1298, 36.6605, -151.357, -82.8876, 45.1147
10.9672, 29, -28.2014, -18.1695, 36.6919, -151.333, -82.8611, 45.0923
10.9753, 29, -28.1972, -18.2092, 36.7235, -151.308, -82.8348, 45.0697
10.9832, 29, -28.193, -18.249, 36.7553, -151.284, -82.8084, 45.0469
10.9912, 29, -28.1887, -18.2888, 36.7869, -151.26, -82.7814, 45.0238
10.9993, 29, -28.1845, -18.3285, 36.8184, -151.237, -82.7543, 45.001
11.0074, 29, -28.1802, -18.3682, 36.85, -151.213, -82.7277, 44.9785
11.0162, 29, -28.1758, -18.4081, 36.8818, -151.189, -82.7013, 44.9563
11.0235, 29, -28.1715, -18.4478, 36.9134, -151.164, -82.6751, 44.9343
11.0313, 29, -28.1672, -18.4876, 36.945, -151.139, -82.6486, 44.9123
11.0393, 29, -28.1629, -18.5273, 36.9767, -151.115, -82.6216, 44.8901
11.0475, 29, -28.1587, -18.5671, 37.0083, -151.091, -82.5947, 44.8678
11.0553, 29, -28.1545, -18.6068, 37.0398, -151.067, -82.5683, 44.8451
11.0632, 30, -28.1503, -18.6466, 37.0716, -151.042, -82.542, 44.8225
11.072, 30, -28.1461, -18.6864, 37.1033, -151.017, -82.5155, 44.8001
11.0803, 30, -28.1419, -18.7262, 37.1349, -150.993, -82.4884, 44.7781
11.0873, 30, -28.1377, -18.7659, 37.1665, -150.969, -82.4611, 44.7563
11.0954, 30, -28.1334, -18.8058, 37.1983, -150.945, -82.4344, 44.7345
11.1034, 30, -28.1292, -18.8457, 37.2299, -150.92, -82.408, 44.7129
11.1115, 30, -28.1249, -18.8856, 37.2615, -150.896, -82.3816, 44.6911
11.1195, 30, -28.1207, -18.9256, 37.2933, -150.871, -82.3549, 44.6692
11.1282, 30, -28.1165, -18.9655, 37.325, -150.846, -82.3277, 44.6469
11.1357, 30, -28.1121, -19.0054, 37.3566, -150.822, -82.3007, 44.6251
11.1443, 30, -28.1078, -19.0454, 37.3883, -150.798, -82.2741, 44.6037
11.1518, 30, -28.1034, -19.0855, 37.4202, -150.774, -82.2477, 44.5825
11.1604, 30, -28.0989, -19.1254, 37.452, -150.749, -82.221, 44.5615
11.1678, 30, -28.0944, -19.1654, 37.4837, -150.724, -82.1939, 44.5405
11.1763, 30, -28.0899, -19.2054, 37.5154, -150.7, -82.1666, 44.5194
11.1838, 30, -28.0877, -19.2254, 37.5314, -150.687, -82.1399, 44.4982
11.1922, 30, -28.0811, -19.2853, 37.5791, -150.651, -82.1135, 44.4768
11.1993, 30, -28.0789, -19.3053, 37.5949, -150.639, -82.1003, 44.4661
11.2083, 30, -28.0723, -19.3652, 37.6427, -150.602, -82.0603, 44.4341
11.2152, 30, -28.0701, -19.3851, 37.6586, -150.589, -82.0467, 44.4238
11.2246, 30, -28.0635, -19.445, 37.7062, -150.552, -82.0064, 44.3926
11.2333, 30, -28.0591, -19.4849, 37.7381, -150.528, -81.9799, 44.3721
11.2392, 30, -28.0569, -19.5049, 37.7541, -150.516, -81.9667, 44.3619
11.2486, 30, -28.0502, -19.5648, 37.8017, -150.479, -81.9269, 44.331
11.2552, 30, -28.0481, -19.5848, 37.8176, -150.467, -81.9134, 44.3206
11.265, 31, -28.0416, -19.6449, 37.8654, -150.429, -81.8728, 44.2894
11.2727, 31, -28.0372, -19.6849, 37.8972, -150.404, -81.8461, 44.2685
11.2808, 31, -28.0328, -19.7249, 37.9289, -150.38, -81.8197, 44.2481
11.2896, 31, -28.0284, -19.765, 37.9608, -150.355, -81.7933, 44.2281
11.2968, 31, -28.0262, -19.8051, 37.9926, -150.331, -81.7665, 44.2081
11.305, 31, -28.0195, -19.8452, 38.0244, -150.305, -81.7394, 44.1884
11.3136, 31, -28.0172, -19.8652, 38.0403, -150.292, -81.726, 44.1785
11.3217, 31, -28.0106, -19.9252, 38.0882, -150.255, -81.6862, 44.1488
11.3273, 31, -28.0083, -19.9452, 38.1041, -150.243, -81.6729, 44.1388
11.3352, 31, -28.0039, -19.9852, 38.1359, -150.218, -81.6464, 44.1186
11.3442, 31, -27.9995, -20.0253, 38.1677, -150.193, -81.6194, 44.0983
11.3512, 31, -27.9952, -20.0653, 38.1997, -150.168, -81.5921, 44.078
11.3592, 31, -27.9908, -20.1052, 38.2315, -150.142, -81.5653, 44.0581
11.3672, 31, -27.9864, -20.1453, 38.2633, -150.117, -81.5387, 44.0384
11.3752, 31, -27.982, -20.1853, 38.2952, -150.092, -81.5123, 44.0191
11.3832, 31, -27.9776, -20.2253, 38.327, -150.067, -81.4857, 43.9999
11.3912, 31, -27.9732, -20.2653, 38.3587, -150.042, -81.4585, 43.9807
11.3992, 31, -27.9688, -20.3054, 38.3906, -150.017, -81.4315, 43.9614
11.4073, 31, -27.9644, -20.3454, 38.4226, -149.992, -81.4048, 43.9419
11.4152, 31, -27.9599, -20.3855, 38.4543, -149.967, -81.3784, 43.9222
11.4234, 31, -27.9554, -20.4257, 38.486, -149.942, -81.3519, 43.9025
11.4313, 31, -27.9509, -20.4658, 38.5178, -149.917, -81.3249, 43.8833
11.4392, 31, -27.9463, -20.5059, 38.5496, -149.892, -81.2977, 43.8643
11.4472, 31, -27.9417, -20.5461, 38.5814, -149.866, -81.2709, 43.8457
11.4552, 31, -27.9371, -20.5863, 38.6131, -149.841, -81.2445, 43.8272
11.4632, 31, -27.9324, -20.6263, 38.645, -149.816, -81.2183, 43.8089
11.4712, 32, -27.9277, -20.6664, 38.6767, -149.791, -81.1917, 43.7906
11.4792, 32, -27.9231, -20.7066, 38.7084, -149.767, -81.1647, 43.7724
11.4872, 32, -27.9185, -20.7467, 38.7403, -149.741, -81.1378, 43.7539
11.4953, 32, -27.914, -20.7868, 38.7722, -149.716, -81.1114, 43.7354
11.5032, 32, -27.9094, -20.8268, 38.804, -149.691, -81.085, 43.7168
11.5112, 32, -27.9048, -20.8669, 38.8357, -149.666, -81.0586, 43.6985
11.5195, 32, -27.9003, -20.9069, 38.8676, -149.641, -81.0316, 43.6806
11.5273, 32, -27.8957, -20.9469, 38.8994, -149.616, -81.0044, 43.663
11.5353, 32, -27.891, -20.9869, 38.9311, -149.59, -80.9777, 43.6457
11.5437, 32, -27.8864, -21.0268, 38.963, -149.564, -80.9514, 43.6283
11.5513, 32, -27.8819, -21.0669, 38.9948, -149.539, -80.9251, 43.6111
11.5593, 32, -27.8772, -21.1069, 39.0265, -149.514, -80.8985, 43.5939
11.5679, 32, -27.8726, -21.147, 39.0582, -149.489, -80.8714, 43.5765
11.5752, 32, -27.868, -21.187, 39.0901, -149.464, -80.8447, 43.5591
11.5834, 32, -27.8633, -21.2271, 39.1219, -149.438, -80.8183, 43.5416
11.5922, 32, -27.8585, -21.2673, 39.1535, -149.412, -80.7921, 43.5244
11.5993, 32, -27.8538, -21.3073, 39.1853, -149.386, -80.7656, 43.5074
11.6074, 32, -27.8491, -21.3474, 39.2171, -149.361, -80.7386, 43.4908
