hehonglu123/Motion-Primitive-Planning/ILC/recorded_data/realrobot/wood/iteration_6/run_2.csv
timestamp, cmd_num, J1, J2, J3, J4, J5, J6
0.000374, -1, 11.3757, 13.6141, 17.3366, -145.52, -97.9257, 142.516
0.00549, -1, 11.3757, 13.6141, 17.3366, -145.52, -97.9256, 142.516
0.00759, -1, 11.3757, 13.6141, 17.3366, -145.52, -97.9256, 142.516
0.031109, -1, 11.3757, 13.6141, 17.3366, -145.52, -97.9257, 142.516
0.034283, -1, 11.3757, 13.6141, 17.3366, -145.52, -97.9257, 142.516
0.035548, -1, 11.3757, 13.6141, 17.3366, -145.52, -97.9257, 142.516
0.03948, -1, 11.3757, 13.6141, 17.3366, -145.521, -97.9257, 142.516
0.047447, -1, 11.3757, 13.6141, 17.3366, -145.521, -97.9257, 142.516
0.05549, -1, 11.3751, 13.6141, 17.3366, -145.521, -97.9256, 142.516
0.063418, -1, 11.3724, 13.6139, 17.3365, -145.521, -97.9257, 142.516
0.071446, -1, 11.3659, 13.6132, 17.3363, -145.521, -97.9256, 142.515
0.079487, -1, 11.3548, 13.6114, 17.3359, -145.521, -97.9256, 142.514
0.087406, -1, 11.3373, 13.608, 17.3352, -145.523, -97.9254, 142.505
0.095406, -1, 11.3103, 13.602, 17.3344, -145.526, -97.9246, 142.484
0.104833, -1, 11.2719, 13.5928, 17.3339, -145.533, -97.9228, 142.444
0.111405, -1, 11.2216, 13.5804, 17.334, -145.545, -97.9193, 142.378
0.119472, -1, 11.1599, 13.565, 17.3357, -145.562, -97.9138, 142.283
0.127416, -1, 11.0865, 13.546, 17.3396, -145.585, -97.906, 142.152
0.135418, -1, 11.0013, 13.523, 17.346, -145.614, -97.8958, 141.986
0.143479, -1, 10.9043, 13.4966, 17.3546, -145.648, -97.8836, 141.788
0.151434, -1, 10.7967, 13.4669, 17.365, -145.687, -97.8699, 141.563
0.159475, -1, 10.6781, 13.434, 17.3763, -145.729, -97.8552, 141.316
0.167532, -1, 10.549, 13.3983, 17.3875, -145.774, -97.8397, 141.055
0.175413, -1, 10.4109, 13.3604, 17.3982, -145.82, -97.8238, 140.786
0.183455, -1, 10.2661, 13.3208, 17.4084, -145.867, -97.8075, 140.511
0.191497, -1, 10.1166, 13.2804, 17.4184, -145.914, -97.7909, 140.234
0.199673, -1, 9.96411, 13.2393, 17.4285, -145.962, -97.774, 139.956
0.207496, -1, 9.80939, 13.1979, 17.4385, -146.01, -97.7567, 139.677
0.215559, -1, 9.6538, 13.1565, 17.4486, -146.058, -97.7396, 139.398
0.223785, -1, 9.49861, 13.1152, 17.4585, -146.106, -97.7225, 139.118
0.231649, -1, 9.34383, 13.0741, 17.4684, -146.154, -97.7057, 138.839
0.239616, -1, 9.1894, 13.033, 17.4784, -146.202, -97.6889, 138.559
0.248003, -1, 9.03549, 12.9919, 17.4884, -146.25, -97.6723, 138.28
0.255556, -1, 8.88174, 12.9508, 17.4985, -146.298, -97.6554, 138
0.263442, -1, 8.72815, 12.9098, 17.5087, -146.346, -97.6383, 137.72
0.272213, -1, 8.57513, 12.8687, 17.5188, -146.393, -97.6208, 137.44
0.2804, -1, 8.42238, 12.8275, 17.5289, -146.442, -97.6033, 137.16
0.28758, -1, 8.26943, 12.7862, 17.5391, -146.489, -97.586, 136.88
0.296204, -1, 8.11599, 12.7446, 17.5493, -146.537, -97.569, 136.6
0.303754, -1, 7.96213, 12.703, 17.5595, -146.586, -97.5522, 136.32
0.311807, -1, 7.8076, 12.6613, 17.5696, -146.633, -97.5356, 136.039
0.320595, -1, 7.65269, 12.6196, 17.5797, -146.681, -97.5189, 135.759
0.327971, -1, 7.49768, 12.578, 17.5899, -146.729, -97.5021, 135.479
0.336603, -1, 7.34261, 12.5365, 17.6001, -146.777, -97.485, 135.199
0.343945, -1, 7.18763, 12.4949, 17.6103, -146.825, -97.4676, 134.918
0.479128, -1, 4.6301, 11.8101, 17.7809, -147.619, -97.1861, 130.287
0.480983, -1, 4.6301, 11.7894, 17.7861, -147.643, -97.1773, 130.147
0.482429, -1, 4.55221, 11.7894, 17.7861, -147.643, -97.1773, 130.147
0.483635, -1, 4.55221, 11.7894, 17.7861, -147.643, -97.1773, 130.147
0.485808, -1, 4.47435, 11.7686, 17.7913, -147.667, -97.1685, 130.006
0.48702, -1, 4.47435, 11.7686, 17.7913, -147.667, -97.1685, 130.006
0.488859, -1, 4.47435, 11.7686, 17.7913, -147.667, -97.1685, 129.866
0.491492, -1, 4.39655, 11.7478, 17.7965, -147.691, -97.1598, 129.866
0.493627, -1, 4.3188, 11.7271, 17.8017, -147.716, -97.1512, 129.725
0.494852, -1, 4.3188, 11.7271, 17.8017, -147.716, -97.1512, 129.725
0.49605, -1, 4.3188, 11.7271, 17.8017, -147.716, -97.1512, 129.725
0.498224, -1, 4.2411, 11.7064, 17.8069, -147.74, -97.1426, 129.585
0.499537, -1, 4.2411, 11.7064, 17.8069, -147.74, -97.1426, 129.585
0.502206, -1, 4.16347, 11.6857, 17.8121, -147.764, -97.1341, 129.444
0.503448, -1, 4.16347, 11.6857, 17.8121, -147.764, -97.1341, 129.444
0.506025, -1, 4.08598, 11.665, 17.8173, -147.788, -97.1256, 129.304
0.507237, -1, 4.08598, 11.665, 17.8173, -147.788, -97.1256, 129.304
0.509145, -1, 4.08598, 11.665, 17.8173, -147.812, -97.1172, 129.163
0.510537, -1, 4.00861, 11.6443, 17.8225, -147.812, -97.1172, 129.163
0.511976, -1, 4.00861, 11.6443, 17.8225, -147.812, -97.1172, 129.163
0.513991, -1, 3.93132, 11.6235, 17.8277, -147.836, -97.1087, 129.023
0.519439, -1, 3.85408, 11.6028, 17.8329, -147.861, -97.1003, 128.882
0.528388, -1, 3.69975, 11.5612, 17.8432, -147.909, -97.0835, 128.601
0.535471, -1, 3.54533, 11.5196, 17.8535, -147.957, -97.0665, 128.319
0.543392, -1, 3.3907, 11.4779, 17.8639, -148.006, -97.0491, 128.038
0.551398, -1, 3.23575, 11.4362, 17.8744, -148.054, -97.0315, 127.756
0.559456, -1, 3.08063, 11.3944, 17.8847, -148.102, -97.014, 127.475
0.567391, -1, 2.92531, 11.3526, 17.8952, -148.15, -96.9968, 127.193
0.575408, -1, 2.76983, 11.3109, 17.9055, -148.199, -96.9798, 126.911
0.583474, -1, 2.61405, 11.2691, 17.9158, -148.246, -96.963, 126.63
0.591393, -1, 2.45793, 11.2273, 17.9262, -148.295, -96.9463, 126.348
0.599401, -1, 2.30147, 11.1856, 17.9366, -148.344, -96.9294, 126.066
0.60746, -1, 2.14486, 11.1439, 17.9471, -148.391, -96.9122, 125.784
0.6154, -1, 1.98804, 11.1022, 17.9575, -148.44, -96.8949, 125.502
0.623401, -1, 1.83147, 11.0605, 17.9678, -148.489, -96.8774, 125.221
0.631449, -1, 1.67509, 11.0189, 17.9783, -148.537, -96.86, 124.939
0.770157, -1, -0.976147, 10.3081, 18.1555, -149.361, -96.5687, 120.135
0.772283, -1, -1.05479, 10.2872, 18.1606, -149.385, -96.5602, 119.994
0.773559, -1, -1.05479, 10.2872, 18.1606, -149.385, -96.5602, 119.994
0.775663, -1, -1.1334, 10.2663, 18.1658, -149.409, -96.5517, 119.852
0.776947, -1, -1.1334, 10.2663, 18.1658, -149.409, -96.5517, 119.852
0.778318, -1, -1.1334, 10.2663, 18.1658, -149.409, -96.5517, 119.852
0.782453, -1, -1.21197, 10.2454, 18.171, -149.434, -96.5432, 119.711
0.786479, -1, -1.29048, 10.2244, 18.1762, -149.458, -96.5348, 119.569
0.788712, -1, -1.36893, 10.2035, 18.1814, -149.483, -96.5264, 119.427
0.789913, -1, -1.36893, 10.2035, 18.1814, -149.483, -96.5264, 119.427
0.792177, -1, -1.44734, 10.1826, 18.1866, -149.507, -96.518, 119.286
0.793503, -1, -1.44734, 10.1826, 18.1866, -149.507, -96.518, 119.286
0.794705, -1, -1.44734, 10.1826, 18.1866, -149.507, -96.518, 119.286
0.796798, -1, -1.5257, 10.1617, 18.1918, -149.531, -96.5097, 119.144
0.798087, -1, -1.5257, 10.1617, 18.1918, -149.531, -96.5097, 119.144
0.801539, -1, -1.60393, 10.1408, 18.1971, -149.555, -96.5012, 119.003
0.804286, -1, -1.68202, 10.1198, 18.2023, -149.58, -96.4927, 118.861
0.806429, -1, -1.68202, 10.1198, 18.2023, -149.58, -96.4927, 118.861
0.80857, -1, -1.76004, 10.0989, 18.2076, -149.604, -96.4841, 118.719
0.809777, -1, -1.76004, 10.0989, 18.2076, -149.604, -96.4841, 118.719
0.811653, -1, -1.83797, 10.078, 18.2127, -149.629, -96.4755, 118.578
0.813018, -1, -1.83797, 10.078, 18.2127, -149.629, -96.4755, 118.578
0.816374, -1, -1.91578, 10.057, 18.218, -149.653, -96.4668, 118.436
0.82412, -1, -2.07111, 10.0151, 18.2284, -149.701, -96.4491, 118.152
0.831989, -1, -2.22619, 9.97325, 18.2388, -149.75, -96.4316, 117.869
0.839894, -1, -2.38145, 9.93134, 18.2492, -149.799, -96.4143, 117.585
0.848472, -1, -2.53696, 9.88934, 18.2597, -149.847, -96.3972, 117.301
0.856035, -1, -2.69273, 9.8474, 18.27, -149.896, -96.3804, 117.017
0.863942, -1, -2.77073, 9.82643, 18.2804, -149.944, -96.3636, 116.734
0.872438, -1, -3.0056, 9.76347, 18.2908, -149.993, -96.3467, 116.45
0.879388, -1, -3.08407, 9.74252, 18.296, -150.017, -96.3382, 116.308
0.887378, -1, -3.24122, 9.70059, 18.3064, -150.066, -96.3208, 116.024
0.896413, -1, -3.47782, 9.63755, 18.3222, -150.139, -96.2944, 115.599
0.903387, -1, -3.55674, 9.61658, 18.3274, -150.163, -96.2857, 115.457
0.911385, -1, -3.71455, 9.57472, 18.3378, -150.212, -96.2683, 115.172
0.919444, -1, -3.87259, 9.53273, 18.3482, -150.26, -96.2512, 114.888
0.927389, -1, -4.03056, 9.49072, 18.3586, -150.309, -96.2342, 114.604
0.935389, -1, -4.1884, 9.44879, 18.369, -150.358, -96.2172, 114.32
0.944745, -1, -4.42496, 9.38581, 18.3844, -150.431, -96.1915, 113.893
0.95139, -1, -4.5036, 9.36482, 18.3896, -150.456, -96.1828, 113.751
0.960955, -1, -4.73885, 9.30179, 18.4052, -150.529, -96.1562, 113.324
0.967429, -1, -4.8171, 9.28076, 18.4104, -150.553, -96.1474, 113.181
0.975481, -1, -4.97337, 9.23865, 18.4209, -150.603, -96.1299, 112.896
0.983374, -1, -5.12926, 9.1966, 18.4315, -150.651, -96.1127, 112.611
0.991467, -1, -5.28512, 9.15446, 18.442, -150.7, -96.0956, 112.327
1.00106, -1, -5.44116, 9.1123, 18.4525, -150.773, -96.0703, 111.9
1.00738, -1, -5.59732, 9.0702, 18.4629, -150.798, -96.0618, 111.757
1.01546, -1, -5.75384, 9.0281, 18.4734, -150.846, -96.0446, 111.472
1.02438, -1, -5.91078, 8.98589, 18.4838, -150.895, -96.0272, 111.187
1.03147, -1, -6.06822, 8.94374, 18.4941, -150.944, -96.0095, 110.902
1.0394, -1, -6.22617, 8.90161, 18.5045, -150.993, -95.9919, 110.617
1.04749, -1, -6.38448, 8.85945, 18.5148, -151.042, -95.9746, 110.332
1.05538, -1, -6.54291, 8.81738, 18.5252, -151.091, -95.9577, 110.047
1.06338, -1, -6.70151, 8.77523, 18.5358, -151.14, -95.9406, 109.761
1.07146, -1, -6.86019, 8.73307, 18.5463, -151.189, -95.9236, 109.476
1.07937, -1, -7.01874, 8.69099, 18.5568, -151.238, -95.9065, 109.19
1.08739, -1, -7.17722, 8.64884, 18.5672, -151.287, -95.8891, 108.905
1.09545, -1, -7.33555, 8.60666, 18.5776, -151.336, -95.8714, 108.619
1.10337, -1, -7.49357, 8.5644, 18.588, -151.385, -95.8536, 108.333
1.1114, -1, -7.6512, 8.52209, 18.5985, -151.434, -95.8361, 108.048
1.11946, -1, -7.80848, 8.47983, 18.609, -151.483, -95.8189, 107.762
1.12738, -1, -7.96548, 8.43754, 18.6194, -151.532, -95.8018, 107.476
1.13539, -1, -8.12212, 8.39519, 18.6297, -151.581, -95.7849, 107.19
1.14393, -1, -8.27866, 8.35287, 18.6402, -151.63, -95.7679, 106.904
1.15138, -1, -8.43538, 8.31053, 18.6508, -151.679, -95.7507, 106.618
1.15944, -1, -8.59239, 8.26817, 18.6613, -151.728, -95.7331, 106.332
1.16817, -1, -8.74974, 8.22591, 18.6718, -151.777, -95.7154, 106.046
1.17537, -1, -8.90744, 8.18359, 18.6821, -151.826, -95.6979, 105.759
1.18352, -1, -9.0655, 8.14129, 18.6926, -151.875, -95.6806, 105.473
1.19224, -1, -9.22404, 8.09906, 18.7031, -151.925, -95.6634, 105.187
1.19941, -1, -9.38294, 8.05676, 18.7135, -151.974, -95.6463, 104.9
1.20773, -1, -9.54203, 8.01441, 18.724, -152.023, -95.6292, 104.613
1.21625, -1, -9.70117, 7.97219, 18.7344, -152.073, -95.6119, 104.326
1.22348, -1, -9.86046, 7.92993, 18.7449, -152.121, -95.5943, 104.039
1.23185, -1, -10.0199, 7.88756, 18.7556, -152.171, -95.5764, 103.752
1.24026, -1, -10.179, 7.84514, 18.7662, -152.22, -95.5586, 103.465
1.24749, -1, -10.3381, 7.80265, 18.7768, -152.269, -95.5411, 103.179
1.25612, -1, -10.497, 7.76011, 18.7873, -152.319, -95.5239, 102.892
1.26445, -1, -10.6556, 7.71765, 18.7977, -152.368, -95.5068, 102.605
1.27141, -1, -10.8137, 7.67511, 18.8082, -152.417, -95.4899, 102.318
1.2803, -1, -10.9716, 7.63252, 18.8187, -152.466, -95.4727, 102.031
1.28837, -1, -11.1291, 7.59003, 18.8291, -152.516, -95.4553, 101.743
1.29554, -1, -11.2866, 7.54753, 18.8397, -152.565, -95.4376, 101.456
1.30446, -1, -11.444, 7.50504, 18.8501, -152.615, -95.4198, 101.169
1.31253, -1, -11.6015, 7.46255, 18.8606, -152.664, -95.4022, 100.881
1.31983, -1, -11.7594, 7.4201, 18.8713, -152.713, -95.3848, 100.593
1.32879, -1, -11.9178, 7.37771, 18.8818, -152.762, -95.3675, 100.305
1.33585, -1, -12.0765, 7.33531, 18.8924, -152.812, -95.3503, 100.018
1.34395, -1, -12.2358, 7.29292, 18.9029, -152.861, -95.333, 99.7299
1.35277, -1, -12.3953, 7.25049, 18.9134, -152.911, -95.3156, 99.4417
1.35997, -1, -12.5551, 7.20806, 18.924, -152.96, -95.2979, 99.1537
1.36799, -1, -12.715, 7.16563, 18.9345, -153.009, -95.2799, 98.8659
1.37654, -1, -12.8752, 7.12317, 18.9451, -153.059, -95.262, 98.578
1.38338, -1, -12.9552, 7.10189, 18.9504, -153.084, -95.2532, 98.4339
1.39141, -1, -13.1152, 7.0593, 18.9609, -153.133, -95.2358, 98.1458
1.39937, -1, -13.2751, 7.01669, 18.9714, -153.183, -95.2185, 97.8577
1.40736, -1, -13.4348, 6.97403, 18.982, -153.232, -95.2014, 97.5695
1.41542, -1, -13.5941, 6.93126, 18.9926, -153.281, -95.1842, 97.2809
1.42339, -1, -13.7532, 6.8885, 19.0032, -153.331, -95.1669, 96.9922
1.43136, -1, -13.912, 6.84582, 19.0137, -153.38, -95.1492, 96.7038
1.43942, -1, -14.0704, 6.80311, 19.0242, -153.429, -95.1313, 96.4152
1.44736, -1, -14.2286, 6.76048, 19.0348, -153.479, -95.1136, 96.1263
1.45536, -1, -14.3868, 6.71784, 19.0452, -153.529, -95.0962, 95.8371
1.46342, -1, -14.5451, 6.67514, 19.0557, -153.578, -95.0789, 95.5482
1.47294, -1, -14.7832, 6.61138, 19.0716, -153.652, -95.0531, 95.1144
1.4794, -1, -14.8628, 6.59012, 19.0769, -153.677, -95.0445, 94.9696
1.48736, -1, -15.0221, 6.54748, 19.0876, -153.726, -95.0271, 94.6805
1.49698, -1, -15.1819, 6.5049, 19.0984, -153.801, -95.0003, 94.2469
1.50344, -1, -15.342, 6.46237, 19.109, -153.826, -94.9913, 94.1023
1.5124, -1, -15.5024, 6.41969, 19.1197, -153.875, -94.9734, 93.8128
1.52035, -1, -15.6631, 6.37701, 19.1302, -153.926, -94.9558, 93.5237
1.52746, -1, -15.8238, 6.33429, 19.1408, -153.975, -94.9384, 93.2343
1.5364, -1, -15.9846, 6.29141, 19.1515, -154.025, -94.9212, 92.9447
1.54337, -1, -16.1454, 6.24859, 19.1621, -154.075, -94.9041, 92.6548
1.55142, -1, -16.3061, 6.20569, 19.1726, -154.124, -94.8867, 92.3653
1.55939, -1, -16.4667, 6.16267, 19.1831, -154.173, -94.8693, 92.0757
1.56736, -1, -16.627, 6.11972, 19.1936, -154.223, -94.8515, 91.7856
1.57542, -1, -16.7869, 6.07676, 19.2043, -154.273, -94.8335, 91.4953
1.58336, -1, -16.9463, 6.03376, 19.2149, -154.323, -94.8159, 91.2053
1.5914, -1, -17.1057, 5.9908, 19.2255, -154.373, -94.7984, 90.9152
1.59942, -1, -17.2648, 5.94785, 19.2361, -154.422, -94.7811, 90.6248
1.60736, -1, -17.4239, 5.90505, 19.2467, -154.472, -94.7637, 90.3345
1.61543, -1, -17.5832, 5.86227, 19.2574, -154.522, -94.7464, 90.0445
1.62336, -1, -17.7426, 5.81944, 19.2681, -154.571, -94.7288, 89.7543
1.63136, -1, -17.9022, 5.77668, 19.2788, -154.622, -94.7108, 89.464
1.63944, -1, -18.0622, 5.73393, 19.2894, -154.671, -94.6926, 89.1735
1.64739, -1, -18.2227, 5.69115, 19.3, -154.721, -94.6748, 88.8831
1.65536, -1, -18.3836, 5.64841, 19.3107, -154.771, -94.6571, 88.5924
1.66342, -1, -18.545, 5.60553, 19.3214, -154.821, -94.6398, 88.3013
1.67136, -1, -18.7065, 5.56259, 19.3321, -154.871, -94.6225, 88.0105
1.67937, -1, -18.8681, 5.51966, 19.3427, -154.921, -94.6052, 87.7196
1.68742, -1, -19.0298, 5.47661, 19.3532, -154.971, -94.5877, 87.4284
1.69538, -1, -19.1913, 5.43345, 19.3639, -155.021, -94.5699, 87.137
1.70342, -1, -19.3528, 5.39032, 19.3745, -155.071, -94.5518, 86.8457
1.71148, -1, -19.5142, 5.34717, 19.3851, -155.121, -94.5338, 86.5541
1.7195, -1, -19.6751, 5.30394, 19.3957, -155.17, -94.516, 86.2624
1.72754, -1, -19.8358, 5.26081, 19.4063, -155.221, -94.4985, 85.9704
1.73549, -1, -19.9962, 5.21768, 19.417, -155.27, -94.4811, 85.6789
1.74347, -1, -20.1562, 5.17455, 19.4279, -155.32, -94.4636, 85.3873
1.75199, -1, -20.316, 5.13162, 19.4387, -155.371, -94.4461, 85.0956
1.76042, -1, -20.476, 5.08865, 19.4495, -155.42, -94.4283, 84.8037
1.76739, -1, -20.6361, 5.0456, 19.4602, -155.471, -94.4101, 84.5119
1.77621, -1, -20.7964, 5.00272, 19.4709, -155.521, -94.3921, 84.22
1.78349, -1, -20.957, 4.95979, 19.4816, -155.571, -94.3744, 83.9278
1.79161, -1, -21.118, 4.91675, 19.4923, -155.621, -94.3569, 83.6357
1.80045, -1, -21.2795, 4.87369, 19.503, -155.672, -94.3397, 83.3438
1.8076, -1, -21.4415, 4.8305, 19.5136, -155.722, -94.3224, 83.0515
1.81576, -1, -21.6036, 4.78726, 19.5243, -155.772, -94.305, 82.7589
1.8246, -1, -21.7658, 4.74408, 19.5351, -155.822, -94.2874, 82.4663
1.83179, -1, -21.9283, 4.7007, 19.5458, -155.872, -94.2695, 82.1738
1.84024, -1, -22.0908, 4.6573, 19.5566, -155.923, -94.2514, 81.8811
1.84873, -1, -22.2533, 4.61394, 19.5673, -155.973, -94.2336, 81.588
1.85591, -1, -22.4156, 4.57049, 19.5779, -156.023, -94.216, 81.2954
1.86449, -1, -22.5777, 4.52708, 19.5887, -156.074, -94.1985, 81.0027
1.87284, -1, -22.6586, 4.50536, 19.594, -156.123, -94.1811, 80.7099
1.8799, -1, -22.8201, 4.46192, 19.6046, -156.148, -94.1724, 80.4168
1.88807, -1, -22.9814, 4.41855, 19.6154, -156.199, -94.1546, 80.2703
1.89539, -1, -23.1425, 4.37528, 19.626, -156.249, -94.1366, 79.9773
1.90335, -1, -23.3034, 4.33194, 19.6368, -156.299, -94.1183, 79.6839
1.91244, -1, -23.5448, 4.26699, 19.6531, -156.375, -94.0911, 79.2438
1.91936, -1, -23.6253, 4.24534, 19.6585, -156.4, -94.0822, 79.0973
1.92745, -1, -23.7864, 4.20206, 19.6693, -156.45, -94.0645, 78.8039
1.93535, -1, -23.9476, 4.1588, 19.68, -156.501, -94.0471, 78.5102
1.94335, -1, -24.1093, 4.11534, 19.6907, -156.552, -94.0297, 78.2163
1.9514, -1, -24.2715, 4.07192, 19.7014, -156.602, -94.0122, 77.9225
1.96087, -1, -24.5155, 4.00671, 19.7174, -156.678, -93.9853, 77.4814
1.96976, -1, -24.6786, 3.96311, 19.7281, -156.727, -93.9671, 77.187
1.97541, -1, -24.7603, 3.94131, 19.7334, -156.753, -93.9581, 77.04
1.98519, -1, -25.0053, 3.87596, 19.7496, -156.829, -93.9315, 76.5991
1.99136, -1, -25.0871, 3.85415, 19.755, -156.854, -93.9226, 76.452
1.9995, -1, -25.2503, 3.81054, 19.7659, -156.904, -93.9051, 76.1576
2.00735, -1, -25.4134, 3.76689, 19.7768, -156.955, -93.8877, 75.8632
2.01635, -1, -25.5763, 3.7232, 19.7876, -157.005, -93.87, 75.569
2.02341, -1, -25.739, 3.67953, 19.7982, -157.055, -93.852, 75.2745
2.03135, -1, -25.9015, 3.63605, 19.8091, -157.106, -93.8337, 74.9797
2.04034, -1, -26.0637, 3.59246, 19.8198, -157.156, -93.8153, 74.6851
2.04741, -1, -26.2254, 3.54897, 19.8306, -157.207, -93.7973, 74.3906
2.05535, -1, -26.387, 3.50557, 19.8414, -157.258, -93.7794, 74.0957
2.06342, -1, -26.5487, 3.46206, 19.8521, -157.308, -93.7618, 73.8006
2.07136, -1, -26.7106, 3.41853, 19.8629, -157.359, -93.7442, 73.5055
2.07935, -1, -26.8729, 3.375, 19.8738, -157.41, -93.7265, 73.2103
2.08882, -1, -27.0355, 3.33138, 19.8846, -157.46, -93.7086, 72.9148
2.0954, -1, -27.1983, 3.28773, 19.8955, -157.511, -93.6903, 72.6193
2.10341, -1, -27.3615, 3.2441, 19.9061, -157.561, -93.672, 72.3241
2.11136, -1, -27.5252, 3.20028, 19.9169, -157.612, -93.6539, 72.0288
2.11935, -1, -27.6891, 3.15653, 19.9277, -157.663, -93.636, 71.7331
2.12741, -1, -27.8531, 3.11284, 19.9384, -157.713, -93.6182, 71.4374
2.13534, -1, -28.0173, 3.06908, 19.9492, -157.764, -93.6006, 71.1418
2.14336, -1, -28.1816, 3.02536, 19.96, -157.815, -93.5828, 70.846
2.15146, -1, -28.3459, 2.9816, 19.9708, -157.865, -93.5648, 70.5499
2.15934, -1, -28.5099, 2.93785, 19.9817, -157.916, -93.5465, 70.2539
2.16735, -1, -28.6736, 2.89418, 19.9926, -157.967, -93.528, 69.9581
2.17541, -1, -28.8371, 2.85048, 20.0034, -158.018, -93.5097, 69.6618
2.18335, -1, -29.0002, 2.80676, 20.0141, -158.069, -93.4918, 69.3652
2.19135, -1, -29.163, 2.76313, 20.0248, -158.12, -93.474, 69.069
2.19943, -1, -29.3256, 2.71943, 20.0357, -158.17, -93.4565, 68.7722
2.2074, -1, -29.4884, 2.67574, 20.0465, -158.222, -93.4388, 68.4754
2.21543, -1, -29.6512, 2.63198, 20.0573, -158.273, -93.4208, 68.1785
2.2235, -1, -29.8142, 2.58816, 20.0681, -158.323, -93.4025, 67.8819
2.23146, -1, -29.9773, 2.54439, 20.079, -158.375, -93.384, 67.5853
2.23945, -1, -30.1406, 2.50045, 20.0901, -158.425, -93.3658, 67.2882
2.24752, -1, -30.3045, 2.45641, 20.101, -158.476, -93.3478, 66.9911
2.2554, -1, -30.4688, 2.41246, 20.1119, -158.527, -93.33, 66.6943
2.2634, -1, -30.6335, 2.36841, 20.1228, -158.578, -93.3123, 66.397
2.27144, -1, -30.7985, 2.32441, 20.1335, -158.629, -93.2945, 66.0996
2.27938, -1, -30.9635, 2.28046, 20.1445, -158.68, -93.2764, 65.8022
2.28749, -1, -31.1287, 2.23637, 20.1553, -158.731, -93.258, 65.505
2.29557, -1, -31.2937, 2.19246, 20.1661, -158.782, -93.2394, 65.2076
2.30353, -1, -31.4586, 2.1486, 20.177, -158.833, -93.2211, 64.9097
2.31172, -1, -31.6232, 2.10456, 20.1878, -158.884, -93.2032, 64.612
2.31972, -1, -31.7878, 2.0606, 20.1988, -158.936, -93.1855, 64.3142
2.32775, -1, -31.9521, 2.01671, 20.2097, -158.987, -93.1679, 64.0161
2.33643, -1, -32.116, 1.97272, 20.2207, -159.037, -93.1502, 63.7179
2.34387, -1, -32.2797, 1.92872, 20.2317, -159.089, -93.1323, 63.4202
2.35243, -1, -32.4431, 1.8847, 20.2425, -159.14, -93.1141, 63.1222
2.35997, -1, -32.6067, 1.84057, 20.2535, -159.191, -93.0957, 62.8239
2.36897, -1, -32.7706, 1.79646, 20.2644, -159.243, -93.0774, 62.5255
2.37643, -1, -32.9346, 1.75233, 20.2753, -159.294, -93.0594, 62.2272
2.38401, -1, -33.0167, 1.73021, 20.2808, -159.345, -93.0415, 61.9287
2.39134, -1, -33.1812, 1.68593, 20.2916, -159.371, -93.0326, 61.7793
2.39936, -1, -33.346, 1.64175, 20.3025, -159.422, -93.0148, 61.4804
2.4084, -1, -33.5941, 1.57534, 20.319, -159.499, -92.9877, 61.0327
2.41533, -1, -33.677, 1.55321, 20.3245, -159.525, -92.9786, 60.8834
2.42337, -1, -33.8427, 1.50898, 20.3354, -159.576, -92.9599, 60.5843
2.43141, -1, -34.0086, 1.46474, 20.3462, -159.627, -92.9413, 60.2851
2.43933, -1, -34.1746, 1.42061, 20.3572, -159.678, -92.923, 59.986
2.44736, -1, -34.3407, 1.37645, 20.3681, -159.73, -92.9049, 59.6866
2.4568, -1, -34.5896, 1.31013, 20.3845, -159.807, -92.8782, 59.2372
2.46335, -1, -34.6724, 1.28807, 20.39, -159.833, -92.8693, 59.0877
2.4729, -1, -34.9201, 1.2218, 20.4064, -159.909, -92.8424, 58.6386
2.47938, -1, -35.0026, 1.19969, 20.4119, -159.935, -92.8332, 58.4888
2.48903, -1, -35.2497, 1.13328, 20.4285, -160.012, -92.8054, 58.0392
2.49533, -1, -35.3319, 1.11111, 20.4341, -160.038, -92.7961, 57.8893
2.50497, -1, -35.4958, 1.06696, 20.4508, -160.115, -92.7686, 57.4396
2.51137, -1, -35.6582, 1.02312, 20.4564, -160.141, -92.7597, 57.2897
2.52035, -1, -35.8177, 0.979854, 20.4679, -160.192, -92.7418, 56.9911
2.52736, -1, -35.9732, 0.937737, 20.4798, -160.243, -92.7242, 56.696
2.53536, -1, -36.1237, 0.897267, 20.4917, -160.292, -92.7067, 56.4068
2.54333, -1, -36.2665, 0.859038, 20.5036, -160.339, -92.6895, 56.1279
2.55136, -1, -36.3995, 0.823746, 20.5152, -160.384, -92.673, 55.8653
2.55938, -1, -36.5215, 0.791502, 20.5258, -160.425, -92.6578, 55.6253
2.56735, -1, -36.6306, 0.762679, 20.5351, -160.46, -92.6446, 55.4135
2.57536, -1, -36.7254, 0.737645, 20.5424, -160.49, -92.6335, 55.2351
2.58336, -1, -36.8055, 0.716442, 20.5475, -160.515, -92.6248, 55.0918
2.59139, -1, -36.8718, 0.698976, 20.5504, -160.534, -92.6184, 54.9832
2.59942, -1, -36.925, 0.685002, 20.5517, -160.547, -92.6139, 54.9064
2.60737, -1, -36.9655, 0.67417, 20.5521, -160.556, -92.6111, 54.8546
2.61532, -1, -36.995, 0.666385, 20.5518, -160.562, -92.6093, 54.8231
2.62336, -1, -37.0154, 0.661294, 20.5514, -160.565, -92.6083, 54.8051
2.63137, -1, -37.0278, 0.658282, 20.5511, -160.567, -92.6079, 54.7961
2.63935, -1, -37.0345, 0.65669, 20.5509, -160.568, -92.6077, 54.7917
2.64735, 2, -37.0367, 0.655967, 20.5508, -160.568, -92.6076, 54.7898
2.65541, 2, -37.0366, 0.655669, 20.5508, -160.568, -92.6076, 54.7889
2.66333, 2, -37.0359, 0.655532, 20.5507, -160.568, -92.6076, 54.7885
2.67135, 2, -37.0357, 0.655515, 20.5507, -160.568, -92.6075, 54.7883
2.67938, 2, -37.0361, 0.655469, 20.5507, -160.568, -92.6075, 54.7882
2.68733, 2, -37.0371, 0.655437, 20.5506, -160.568, -92.6075, 54.7882
2.69536, 2, -37.0382, 0.65533, 20.5505, -160.568, -92.6076, 54.7882
2.7034, 2, -37.0397, 0.655138, 20.5503, -160.568, -92.6076, 54.7883
2.71139, 2, -37.0411, 0.654913, 20.5501, -160.568, -92.6077, 54.7883
2.71945, 2, -37.0422, 0.654685, 20.5499, -160.568, -92.6077, 54.7884
2.72746, 2, -37.0432, 0.654469, 20.5497, -160.568, -92.6079, 54.7885
2.73544, 2, -37.0436, 0.65436, 20.5495, -160.568, -92.6078, 54.7886
2.74346, 2, -37.0436, 0.654344, 20.5493, -160.568, -92.6078, 54.7887
2.75147, 2, -37.0432, 0.654351, 20.5492, -160.568, -92.6079, 54.7888
2.75941, 2, -37.0424, 0.654401, 20.5491, -160.568, -92.608, 54.789
2.76747, 2, -37.0414, 0.654451, 20.5491, -160.568, -92.608, 54.7891
2.77561, 2, -37.0399, 0.654528, 20.549, -160.568, -92.608, 54.7893
2.78338, 2, -37.0384, 0.654612, 20.5489, -160.568, -92.6081, 54.7896
2.79145, 2, -37.0374, 0.654675, 20.5488, -160.568, -92.6081, 54.7897
2.79983, 2, -37.0367, 0.654686, 20.5488, -160.568, -92.6081, 54.7897
2.80766, 2, -37.0365, 0.654648, 20.5488, -160.568, -92.6081, 54.7898
2.81561, 2, -37.0366, 0.654623, 20.5488, -160.568, -92.6081, 54.7898
2.82409, 2, -37.0368, 0.654558, 20.5488, -160.568, -92.6081, 54.7899
2.83239, 2, -37.037, 0.654503, 20.5487, -160.568, -92.6081, 54.7899
2.83989, 2, -37.0375, 0.65446, 20.5487, -160.568, -92.6081, 54.79
2.84844, 2, -37.0382, 0.654429, 20.5487, -160.568, -92.6081, 54.7901
2.85605, 2, -37.0389, 0.654408, 20.5487, -160.568, -92.6081, 54.7901
2.86388, 2, -37.0396, 0.654427, 20.5487, -160.568, -92.6081, 54.7901
2.87249, 2, -37.0399, 0.654463, 20.5487, -160.568, -92.6081, 54.7901
2.87986, 2, -37.04, 0.654487, 20.5486, -160.568, -92.6081, 54.7902
2.88832, 2, -37.04, 0.654503, 20.5486, -160.568, -92.6081, 54.7902
2.89619, 2, -37.04, 0.654514, 20.5486, -160.568, -92.6081, 54.7902
2.90338, 2, -37.0399, 0.654521, 20.5486, -160.568, -92.6082, 54.7902
2.91134, 2, -37.0395, 0.654511, 20.5487, -160.568, -92.6081, 54.7903
2.92047, 2, -37.0391, 0.654498, 20.5486, -160.568, -92.6082, 54.7904
2.92732, 2, -37.039, 0.654485, 20.5486, -160.568, -92.6082, 54.7904
2.93655, 2, -37.0389, 0.654474, 20.5486, -160.568, -92.6082, 54.7904
2.94334, 2, -37.0388, 0.654469, 20.5486, -160.568, -92.6082, 54.7905
2.95131, 2, -37.0388, 0.654452, 20.5486, -160.568, -92.6083, 54.7905
2.95935, 2, -37.0388, 0.654447, 20.5486, -160.568, -92.6082, 54.7906
2.96922, 2, -37.0389, 0.654442, 20.5485, -160.568, -92.6082, 54.7907
2.97531, 2, -37.039, 0.654447, 20.5485, -160.568, -92.6082, 54.7907
2.98485, 2, -37.0391, 0.654454, 20.5485, -160.568, -92.6083, 54.7908
2.99315, 2, -37.0393, 0.654456, 20.5485, -160.568, -92.6083, 54.7908
2.99933, 2, -37.0393, 0.654464, 20.5485, -160.568, -92.6082, 54.7909
3.00886, 2, -37.0394, 0.654485, 20.5485, -160.568, -92.6082, 54.7909
3.01714, 2, -37.0394, 0.654497, 20.5485, -160.568, -92.6083, 54.791
3.02331, 2, -37.0394, 0.654491, 20.5485, -160.568, -92.6083, 54.791
3.03136, 2, -37.0394, 0.654485, 20.5485, -160.568, -92.6083, 54.7911
3.03937, 2, -37.0394, 0.654482, 20.5485, -160.568, -92.6083, 54.7911
3.04734, 2, -37.0394, 0.654469, 20.5485, -160.568, -92.6083, 54.7911
3.05535, 2, -37.0394, 0.654463, 20.5484, -160.568, -92.6083, 54.7912
3.06335, 2, -37.0394, 0.654467, 20.5484, -160.568, -92.6083, 54.7913
3.07133, 2, -37.0394, 0.654479, 20.5484, -160.568, -92.6083, 54.7913
3.07935, 2, -37.0394, 0.654487, 20.5484, -160.568, -92.6083, 54.7914
3.08735, 2, -37.0394, 0.654476, 20.5484, -160.568, -92.6084, 54.7915
3.0953, 2, -37.0393, 0.654485, 20.5484, -160.568, -92.6083, 54.7915
3.10339, 2, -37.0393, 0.654495, 20.5484, -160.568, -92.6083, 54.7916
3.11135, 2, -37.0393, 0.65451, 20.5484, -160.568, -92.6084, 54.7916
3.11933, 2, -37.0393, 0.654513, 20.5484, -160.568, -92.6083, 54.7916
3.12734, 2, -37.0393, 0.654518, 20.5484, -160.568, -92.6083, 54.7917
3.13535, 2, -37.0393, 0.654517, 20.5484, -160.568, -92.6083, 54.7917
3.1433, 2, -37.0393, 0.654509, 20.5484, -160.568, -92.6083, 54.7918
3.15134, 2, -37.0393, 0.654506, 20.5484, -160.568, -92.6083, 54.7918
3.1594, 2, -37.0393, 0.654497, 20.5484, -160.568, -92.6084, 54.7919
3.16732, 2, -37.0393, 0.654483, 20.5484, -160.568, -92.6084, 54.7919
3.17534, 2, -37.0392, 0.654474, 20.5483, -160.568, -92.6084, 54.792
3.18336, 2, -37.0392, 0.654472, 20.5483, -160.568, -92.6084, 54.792
3.19131, 2, -37.0392, 0.654489, 20.5483, -160.568, -92.6084, 54.7921
3.19935, 2, -37.0392, 0.654484, 20.5483, -160.568, -92.6084, 54.7921
3.20739, 2, -37.0392, 0.654494, 20.5483, -160.568, -92.6084, 54.7921
3.21538, 2, -37.0392, 0.654517, 20.5483, -160.568, -92.6085, 54.7921
3.22343, 2, -37.0392, 0.65452, 20.5483, -160.568, -92.6084, 54.7922
3.23145, 2, -37.0392, 0.654536, 20.5483, -160.568, -92.6084, 54.7922
3.23945, 2, -37.0392, 0.654511, 20.5483, -160.568, -92.6084, 54.7922
3.24744, 2, -37.0392, 0.654494, 20.5483, -160.568, -92.6085, 54.7922
3.25546, 2, -37.0391, 0.654494, 20.5483, -160.568, -92.6085, 54.7922
3.2633, 2, -37.0391, 0.654499, 20.5482, -160.568, -92.6085, 54.7923
3.27146, 2, -37.0391, 0.654493, 20.5482, -160.568, -92.6084, 54.7923
3.27941, 2, -37.0391, 0.654493, 20.5482, -160.568, -92.6085, 54.7924
3.28746, 2, -37.0391, 0.654486, 20.5482, -160.568, -92.6085, 54.7924
3.29546, 2, -37.0391, 0.654495, 20.5482, -160.568, -92.6084, 54.7925
3.30351, 2, -37.0391, 0.65448, 20.5481, -160.568, -92.6085, 54.7926
3.31163, 2, -37.0391, 0.654505, 20.5481, -160.568, -92.6085, 54.7926
3.31962, 2, -37.039, 0.654504, 20.5481, -160.568, -92.6085, 54.7925
3.32771, 2, -37.039, 0.654503, 20.5481, -160.568, -92.6085, 54.7925
3.33584, 2, -37.039, 0.654503, 20.5481, -160.568, -92.6085, 54.7926
3.34441, 2, -37.039, 0.654495, 20.5481, -160.568, -92.6085, 54.7926
3.35189, 2, -37.039, 0.654494, 20.5481, -160.568, -92.6085, 54.7926
3.36044, 2, -37.039, 0.654517, 20.5481, -160.568, -92.6085, 54.7927
3.36788, 2, -37.039, 0.654509, 20.5481, -160.568, -92.6085, 54.7926
3.37648, 2, -37.039, 0.654493, 20.5481, -160.568, -92.6085, 54.7926
3.38395, 2, -37.039, 0.654496, 20.5481, -160.568, -92.6085, 54.7927
3.39183, 2, -37.0389, 0.654492, 20.5481, -160.568, -92.6085, 54.7927
3.40037, 2, -37.0389, 0.654489, 20.5481, -160.568, -92.6085, 54.7928
3.40732, 2, -37.0389, 0.654486, 20.5481, -160.568, -92.6085, 54.7928
3.41533, 2, -37.0389, 0.654488, 20.548, -160.568, -92.6085, 54.7928
3.42446, 2, -37.0389, 0.654495, 20.548, -160.567, -92.6085, 54.7928
3.43129, 2, -37.0389, 0.654497, 20.548, -160.567, -92.6085, 54.7928
3.4394, 2, -37.0389, 0.6545, 20.548, -160.567, -92.6085, 54.7929
3.44733, 2, -37.0389, 0.654501, 20.548, -160.567, -92.6086, 54.7928
3.45529, 2, -37.0389, 0.654513, 20.548, -160.567, -92.6086, 54.7929
3.46332, 2, -37.0389, 0.654515, 20.548, -160.567, -92.6085, 54.7929
3.47293, 2, -37.0389, 0.654506, 20.548, -160.567, -92.6085, 54.793
3.48095, 2, -37.0388, 0.654504, 20.548, -160.567, -92.6086, 54.793
3.48733, 2, -37.0388, 0.654504, 20.548, -160.567, -92.6086, 54.793
3.4969, 2, -37.0388, 0.654515, 20.548, -160.567, -92.6085, 54.793
3.50506, 2, -37.0388, 0.654519, 20.548, -160.567, -92.6085, 54.7931
3.51132, 2, -37.0388, 0.654525, 20.548, -160.567, -92.6085, 54.7931
3.52031, 2, -37.0388, 0.654524, 20.548, -160.567, -92.6085, 54.793
3.52729, 2, -37.0387, 0.654538, 20.548, -160.567, -92.6085, 54.7931
3.53532, 2, -37.0387, 0.654519, 20.5479, -160.567, -92.6086, 54.7931
3.54437, 2, -37.0387, 0.65451, 20.5479, -160.567, -92.6085, 54.7931
3.55129, 2, -37.0387, 0.654524, 20.5479, -160.567, -92.6085, 54.7931
3.55934, 2, -37.0387, 0.654531, 20.5479, -160.567, -92.6085, 54.7931
3.56733, 2, -37.0387, 0.654516, 20.5479, -160.567, -92.6086, 54.7931
3.57532, 2, -37.0387, 0.654508, 20.5479, -160.567, -92.6086, 54.7931
3.58332, 2, -37.0386, 0.654505, 20.5479, -160.567, -92.6087, 54.7931
3.59133, 2, -37.0386, 0.654504, 20.5479, -160.567, -92.6086, 54.7931
3.59933, 2, -37.0386, 0.654514, 20.5479, -160.567, -92.6086, 54.7932
3.60737, 2, -37.0386, 0.654526, 20.5479, -160.567, -92.6086, 54.7931
3.61534, 2, -37.0386, 0.654532, 20.5479, -160.567, -92.6086, 54.7932
3.62329, 2, -37.0386, 0.654553, 20.5479, -160.567, -92.6086, 54.7932
3.63132, 2, -37.0386, 0.654526, 20.5478, -160.567, -92.6086, 54.7932
3.63935, 2, -37.0386, 0.654527, 20.5478, -160.567, -92.6086, 54.7932
3.6485, 2, -37.0385, 0.654514, 20.5478, -160.567, -92.6087, 54.7932
3.65532, 2, -37.0385, 0.654537, 20.5478, -160.567, -92.6087, 54.7932
3.66339, 2, -37.0385, 0.654544, 20.5478, -160.567, -92.6087, 54.7931
3.67128, 2, -37.0385, 0.654551, 20.5478, -160.567, -92.6086, 54.7931
3.67935, 2, -37.0385, 0.654543, 20.5478, -160.567, -92.6086, 54.7932
3.68734, 2, -37.0384, 0.654558, 20.5478, -160.567, -92.6087, 54.7932
3.69529, 2, -37.0384, 0.654535, 20.5478, -160.567, -92.6087, 54.7932
3.70341, 2, -37.0384, 0.654518, 20.5478, -160.567, -92.6087, 54.7932
3.71137, 2, -37.0384, 0.654528, 20.5478, -160.567, -92.6087, 54.7932
3.71939, 2, -37.0384, 0.654525, 20.5478, -160.567, -92.6087, 54.7932
3.72738, 4, -37.0384, 0.654531, 20.5477, -160.567, -92.6087, 54.7932
3.7355, 4, -37.0384, 0.654541, 20.5477, -160.567, -92.6087, 54.7932
3.74342, 4, -37.0384, 0.65455, 20.5477, -160.567, -92.6087, 54.7932
3.75144, 4, -37.0384, 0.654561, 20.5477, -160.567, -92.6087, 54.7932
3.75946, 4, -37.0384, 0.654555, 20.5477, -160.567, -92.6087, 54.7932
3.76729, 4, -37.0383, 0.654556, 20.5477, -160.567, -92.6087, 54.7932
3.77553, 4, -37.0383, 0.654564, 20.5477, -160.567, -92.6087, 54.7932
3.78337, 4, -37.0383, 0.654569, 20.5477, -160.567, -92.6087, 54.7932
3.79137, 4, -37.0383, 0.654551, 20.5477, -160.567, -92.6087, 54.7932
3.79957, 4, -37.0383, 0.654554, 20.5477, -160.567, -92.6087, 54.7932
3.80751, 4, -37.0383, 0.654545, 20.5477, -160.567, -92.6088, 54.7932
3.81578, 4, -37.0383, 0.654559, 20.5476, -160.567, -92.6088, 54.7932
3.8243, 4, -37.0383, 0.654565, 20.5476, -160.567, -92.6087, 54.7933
3.84981, 4, -37.0383, 0.654568, 20.5476, -160.567, -92.6087, 54.7933
3.85302, 4, -37.0383, 0.654582, 20.5476, -160.567, -92.6087, 54.7933
3.85476, 4, -37.0383, 0.654582, 20.5476, -160.567, -92.6087, 54.7933
3.85735, 4, -37.0383, 0.654578, 20.5476, -160.567, -92.6087, 54.7932
3.86645, 4, -37.0382, 0.654594, 20.5476, -160.567, -92.6087, 54.7932
3.87245, 4, -37.0382, 0.654575, 20.5476, -160.567, -92.6086, 54.7932
3.87987, 4, -37.0379, 0.654533, 20.5476, -160.567, -92.6087, 54.7933
3.88828, 4, -37.0349, 0.653474, 20.5478, -160.567, -92.6087, 54.7933
3.89613, 4, -37.0325, 0.650565, 20.5486, -160.567, -92.6087, 54.7932
3.90499, 4, -37.0198, 0.644546, 20.551, -160.567, -92.6087, 54.7932
3.91198, 4, -37.0136, 0.640213, 20.5533, -160.566, -92.6087, 54.7932
3.9209, 4, -36.9883, 0.621211, 20.5662, -160.564, -92.6087, 54.7932
3.9273, 5, -36.9771, 0.612608, 20.5731, -160.563, -92.6087, 54.7932
3.93529, 5, -36.9504, 0.592165, 20.5918, -160.559, -92.6086, 54.7932
3.94334, 5, -36.9187, 0.567241, 20.6171, -160.554, -92.6083, 54.7932
3.95129, 5, -36.8822, 0.537856, 20.6493, -160.547, -92.6078, 54.7931
3.95944, 5, -36.8408, 0.50392, 20.6878, -160.539, -92.6069, 54.7931
3.96728, 5, -36.7941, 0.465222, 20.7318, -160.529, -92.6056, 54.793
3.97533, 5, -36.7423, 0.422255, 20.7802, -160.518, -92.604, 54.793
3.98523, 5, -36.6562, 0.351102, 20.8583, -160.5, -92.6016, 54.7929
3.99346, 5, -36.5939, 0.300526, 20.9127, -160.488, -92.5999, 54.793
3.99939, 5, -36.5614, 0.274496, 20.9402, -160.482, -92.5989, 54.793
4.00891, 5, -36.4947, 0.194719, 21.0232, -160.463, -92.5962, 54.7929
4.01714, 5, -36.4269, 0.167879, 21.0509, -160.457, -92.5952, 54.7929
4.02335, 5, -36.3584, 0.114048, 21.1064, -160.445, -92.5933, 54.793
4.03294, 5, -36.2896, 0.0601049, 21.1618, -160.433, -92.5914, 54.793
4.03934, 5, -36.2207, 0.00627054, 21.2173, -160.421, -92.5895, 54.793
4.04731, 5, -36.152, -0.0473217, 21.2727, -160.409, -92.5875, 54.7931
4.05545, 5, -36.0834, -0.100673, 21.3281, -160.397, -92.5855, 54.7931
4.06708, 5, -35.9804, -0.18026, 21.4109, -160.378, -92.5826, 54.7933
4.07233, 5, -35.9461, -0.206687, 21.4385, -160.371, -92.5816, 54.7934
4.08025, 5, -35.8775, -0.259415, 21.4936, -160.358, -92.5796, 54.7937
4.08827, 5, -35.8087, -0.31199, 21.5486, -160.346, -92.5777, 54.7941
4.09632, 5, -35.7396, -0.364629, 21.6036, -160.333, -92.5757, 54.7948
4.10459, 5, -35.6703, -0.417255, 21.6583, -160.32, -92.5736, 54.7957
4.1115, 5, -35.6007, -0.469905, 21.7128, -160.308, -92.5716, 54.7968
4.11931, 5, -35.5309, -0.52265, 21.7672, -160.295, -92.5695, 54.798
4.13064, 5, -35.4258, -0.601764, 21.8484, -160.277, -92.5665, 54.8002
4.13647, 5, -35.3906, -0.62813, 21.8754, -160.27, -92.5655, 54.801
4.14427, 5, -35.3202, -0.680827, 21.9294, -160.257, -92.5634, 54.8026
4.15228, 5, -35.2496, -0.733489, 21.9833, -160.244, -92.5613, 54.8044
4.16049, 5, -35.179, -0.785831, 22.0369, -160.231, -92.5592, 54.8064
4.16731, 5, -35.1084, -0.837997, 22.0906, -160.217, -92.5571, 54.8085
4.17535, 5, -35.0378, -0.89009, 22.1441, -160.204, -92.5549, 54.8106
4.18361, 5, -34.9673, -0.941798, 22.1975, -160.191, -92.5528, 54.8129
4.19232, 5, -34.8968, -0.993335, 22.2508, -160.178, -92.5506, 54.8154
4.19927, 5, -34.8262, -1.0447, 22.304, -160.165, -92.5485, 54.8179
4.20913, 5, -34.7556, -1.09602, 22.3569, -160.152, -92.5462, 54.8206
4.21548, 5, -34.6849, -1.14737, 22.4097, -160.14, -92.544, 54.8234
4.22427, 5, -34.6139, -1.19861, 22.4624, -160.127, -92.5418, 54.8263
4.23185, 5, -34.5429, -1.24995, 22.5148, -160.114, -92.5396, 54.8293
4.24044, 5, -34.4717, -1.30126, 22.5671, -160.1, -92.5373, 54.8324
4.24833, 5, -34.4003, -1.35256, 22.6193, -160.086, -92.5351, 54.8356
4.25592, 5, -34.3287, -1.40385, 22.6713, -160.073, -92.5328, 54.8389
4.26427, 5, -34.257, -1.45503, 22.7231, -160.059, -92.5305, 54.8424
4.27129, 5, -34.1851, -1.50609, 22.7749, -160.045, -92.5283, 54.846
4.27936, 5, -34.113, -1.55685, 22.8265, -160.032, -92.526, 54.8497
4.28761, 5, -34.0409, -1.60746, 22.878, -160.018, -92.5237, 54.8535
4.29628, 5, -33.9687, -1.65782, 22.9295, -160.005, -92.5213, 54.8574
4.30353, 5, -33.8966, -1.70795, 22.9809, -159.991, -92.519, 54.8614
4.31207, 5, -33.8244, -1.75792, 23.032, -159.978, -92.5167, 54.8655
4.32205, 5, -33.7522, -1.80785, 23.083, -159.964, -92.5144, 54.8697
4.32827, 5, -33.6799, -1.85768, 23.1338, -159.95, -92.5121, 54.8738
4.33721, 5, -33.6074, -1.90744, 23.1844, -159.935, -92.5098, 54.8783
4.3438, 5, -33.5348, -1.95745, 23.2349, -159.921, -92.5075, 54.8825
4.35238, 5, -33.4621, -2.00781, 23.2853, -159.907, -92.5053, 54.8864
4.3628, 5, -33.3893, -2.0585, 23.3357, -159.893, -92.503, 54.8895
4.3686, 5, -33.3168, -2.10967, 23.3861, -159.879, -92.5006, 54.8911
4.37639, 6, -33.2445, -2.16143, 23.4368, -159.864, -92.4979, 54.8912
4.38471, 6, -33.1726, -2.21408, 23.4878, -159.85, -92.4949, 54.8895
4.39185, 6, -33.1368, -2.24074, 23.5136, -159.842, -92.4931, 54.8847
4.4003, 6, -33.03, -2.32207, 23.5922, -159.817, -92.4864, 54.8744
4.40731, 7, -32.9946, -2.34977, 23.619, -159.808, -92.4835, 54.8677
4.41613, 7, -32.9242, -2.40601, 23.6734, -159.79, -92.4766, 54.8439
4.4233, 7, -32.8543, -2.46361, 23.729, -159.77, -92.4678, 54.8352
4.43127, 7, -32.7851, -2.52271, 23.7862, -159.748, -92.457, 54.8177
4.44092, 8, -32.6824, -2.61432, 23.8742, -159.715, -92.4372, 54.7921
4.44944, 8, -32.6148, -2.67736, 23.9344, -159.69, -92.4216, 54.7755
4.45533, 8, -32.5813, -2.70954, 23.965, -159.678, -92.4132, 54.767
4.46579, 8, -32.4818, -2.80861, 24.0582, -159.638, -92.3849, 54.7404
4.47369, 8, -32.4162, -2.87658, 24.1216, -159.61, -92.3641, 54.721
4.47926, 8, -32.3837, -2.9111, 24.1536, -159.596, -92.3532, 54.7107
4.48973, 9, -32.287, -3.01667, 24.2513, -159.553, -92.3192, 54.6772
4.49532, 9, -32.255, -3.05251, 24.2843, -159.538, -92.3072, 54.6651
4.50491, 9, -32.16, -3.16202, 24.3849, -159.49, -92.2691, 54.6266
4.51379, 9, -32.0973, -3.23658, 24.4533, -159.458, -92.2415, 54.5994
4.52633, 10, -32.0044, -3.35091, 24.5577, -159.408, -92.1974, 54.5559
4.52902, 10, -32.0044, -3.35091, 24.5577, -159.391, -92.1822, 54.5406
4.53526, 10, -31.9432, -3.42884, 24.6286, -159.373, -92.1667, 54.5247
4.54348, 10, -31.8826, -3.5082, 24.7005, -159.337, -92.1347, 54.4914
4.55129, 10, -31.8225, -3.58891, 24.7736, -159.301, -92.1008, 54.4564
4.55929, 10, -31.763, -3.67113, 24.8476, -159.264, -92.0652, 54.4204
4.56725, 11, -31.7041, -3.75472, 24.9226, -159.225, -92.029, 54.3831
4.57529, 11, -31.6457, -3.83985, 24.9985, -159.185, -91.9916, 54.344
4.58337, 11, -31.5878, -3.92646, 25.0754, -159.145, -91.9522, 54.3029
4.59141, 11, -31.5304, -4.0145, 25.1531, -159.104, -91.9112, 54.2602
4.60166, 11, -31.4736, -4.10403, 25.2719, -159.04, -91.8482, 54.1943
4.60722, 12, -31.4174, -4.19506, 25.312, -159.018, -91.8263, 54.1716
4.61527, 12, -31.3615, -4.28747, 25.3929, -158.975, -91.7809, 54.1245
4.62339, 12, -31.3062, -4.38126, 25.475, -158.929, -91.735, 54.0755
4.63126, 12, -31.2515, -4.47637, 25.5581, -158.883, -91.6878, 54.0258
4.63943, 12, -31.1972, -4.57282, 25.6422, -158.836, -91.6385, 53.9745
4.64755, 13, -31.1434, -4.67075, 25.7273, -158.788, -91.5885, 53.921
4.65725, 13, -31.0901, -4.77008, 25.8132, -158.739, -91.5369, 53.8664
4.66465, 13, -31.0374, -4.87082, 25.9002, -158.69, -91.4834, 53.8107
4.67518, 13, -30.9593, -5.0249, 26.0328, -158.613, -91.4019, 53.7234
4.67938, 13, -30.9335, -5.07695, 26.0775, -158.588, -91.3737, 53.6937
4.68751, 14, -30.8823, -5.18211, 26.1678, -158.535, -91.3165, 53.6337
4.69549, 14, -30.8317, -5.28878, 26.2591, -158.481, -91.2587, 53.5717
4.70331, 14, -30.7817, -5.39694, 26.3514, -158.428, -91.1985, 53.5082
4.71128, 14, -30.7322, -5.50655, 26.4445, -158.373, -91.1381, 53.4441
4.71947, 14, -30.6832, -5.61768, 26.5385, -158.316, -91.0756, 53.3778
4.72845, 15, -30.6348, -5.73034, 26.6337, -158.26, -91.0117, 53.31
4.73536, 15, -30.5867, -5.84438, 26.7301, -158.201, -90.9467, 53.2413
4.74357, 15, -30.5393, -5.95958, 26.8276, -158.143, -90.8799, 53.1704
4.75223, 15, -30.4923, -6.07619, 26.9261, -158.083, -90.8126, 53.0987
4.75943, 15, -30.4457, -6.19438, 27.0256, -158.023, -90.743, 53.0252
4.76725, 15, -30.3998, -6.31386, 27.1259, -157.961, -90.6729, 52.9498
4.77526, 16, -30.3544, -6.43496, 27.2271, -157.898, -90.6005, 52.8736
4.78347, 16, -30.3095, -6.55758, 27.3296, -157.835, -90.5279, 52.7949
4.79219, 16, -30.265, -6.68151, 27.4332, -157.771, -90.4532, 52.7157
4.80128, 16, -30.221, -6.80702, 27.538, -157.706, -90.3776, 52.6347
4.80825, 16, -30.1775, -6.934, 27.6437, -157.64, -90.3003, 52.5524
4.81634, 17, -30.1344, -7.06261, 27.7503, -157.573, -90.2221, 52.469
4.82368, 17, -30.0919, -7.19281, 27.8576, -157.505, -90.1423, 52.3841
4.83159, 17, -30.0499, -7.32443, 27.966, -157.436, -90.0611, 52.2985
4.84259, 17, -30.0084, -7.4573, 28.0756, -157.367, -89.9788, 52.2106
4.84832, 17, -29.9675, -7.59154, 28.1865, -157.296, -89.895, 52.1222
4.85664, 18, -29.927, -7.72729, 28.2984, -157.225, -89.8101, 52.0319
4.86395, 18, -29.887, -7.86445, 28.4112, -157.152, -89.7236, 51.9408
4.87247, 18, -29.8476, -8.00298, 28.5247, -157.079, -89.6365, 51.8477
4.87982, 18, -29.828, -8.07266, 28.6393, -157.005, -89.5477, 51.7538
4.88832, 18, -29.7699, -8.28376, 28.755, -156.93, -89.4575, 51.658
4.89579, 19, -29.7508, -8.35478, 28.8133, -156.892, -89.4121, 51.61
4.90442, 19, -29.6941, -8.57025, 28.9901, -156.777, -89.274, 51.4635
4.91136, 19, -29.6754, -8.6429, 29.0494, -156.738, -89.2272, 51.4143
4.91943, 19, -29.6385, -8.78916, 29.1686, -156.661, -89.1328, 51.3145
4.92876, 19, -29.6019, -9.01076, 29.3491, -156.541, -88.9895, 51.1634
4.93522, 20, -29.566, -9.08536, 29.4098, -156.501, -88.941, 51.1121
4.94331, 20, -29.5305, -9.23572, 29.5321, -156.421, -88.8434, 51.0094
4.9513, 20, -29.4953, -9.38764, 29.6556, -156.339, -88.7449, 50.9051
4.96144, 20, -29.4436, -9.61775, 29.8422, -156.215, -88.5948, 50.7465
4.96869, 20, -29.4097, -9.77264, 29.9678, -156.131, -88.4936, 50.6395
4.97938, 21, -29.3763, -9.92886, 30.0943, -156.046, -88.391, 50.531
4.98575, 21, -29.3431, -10.0868, 30.222, -155.96, -88.2872, 50.4217
4.99407, 21, -29.3105, -10.246, 30.3507, -155.874, -88.1826, 50.3114
4.99948, 21, -29.2943, -10.3259, 30.4154, -155.83, -88.13, 50.2558
5.00721, 21, -29.2623, -10.4864, 30.5454, -155.743, -88.0237, 50.1442
5.01685, 21, -29.2307, -10.6483, 30.6762, -155.654, -87.8627, 49.9751
5.02426, 22, -29.1995, -10.8116, 30.808, -155.564, -87.8084, 49.9183
5.03125, 22, -29.1686, -10.9763, 30.9408, -155.474, -87.6992, 49.8041
5.04024, 22, -29.1383, -11.1418, 31.0744, -155.383, -87.5891, 49.6888
5.04751, 22, -29.1082, -11.3083, 31.209, -155.29, -87.4778, 49.5726
5.05521, 22, -29.0786, -11.4763, 31.3446, -155.197, -87.3657, 49.4555
5.0633, 23, -29.0493, -11.6461, 31.4809, -155.103, -87.2527, 49.338
5.07149, 23, -29.0203, -11.8169, 31.618, -155.009, -87.1386, 49.2195
5.08009, 23, -28.9918, -11.9884, 31.7559, -154.913, -87.024, 49.1005
5.08727, 23, -28.9637, -12.1612, 31.8948, -154.817, -86.9082, 48.9811
5.09525, 23, -28.936, -12.3354, 32.0345, -154.72, -86.7915, 48.8609
5.10344, 24, -28.9086, -12.5109, 32.1752, -154.621, -86.6739, 48.7402
5.11124, 24, -28.8815, -12.6868, 32.3166, -154.522, -86.5552, 48.6191
5.12054, 24, -28.8547, -12.8635, 32.4586, -154.422, -86.4361, 48.4972
5.12741, 24, -28.8283, -13.0416, 32.6015, -154.322, -86.3158, 48.3747
5.13624, 24, -28.8022, -13.2212, 32.7455, -154.22, -86.195, 48.2518
5.14429, 25, -28.7765, -13.4013, 32.8901, -154.118, -86.0735, 48.1284
5.15227, 25, -28.751, -13.5821, 33.0353, -154.015, -85.951, 48.005
5.16024, 25, -28.7257, -13.7641, 33.1812, -153.911, -85.8282, 47.8816
5.17066, 25, -28.6882, -14.0397, 33.4014, -153.754, -85.642, 47.6959
5.17647, 25, -28.6759, -14.1318, 33.4752, -153.701, -85.5799, 47.6339
5.18416, 26, -28.6515, -14.3164, 33.6234, -153.595, -85.4549, 47.51
5.1913, 26, -28.6274, -14.5022, 33.772, -153.488, -85.3293, 47.3856
5.19939, 26, -28.6035, -14.6895, 33.9211, -153.38, -85.2033, 47.2613
5.20742, 26, -28.5799, -14.8773, 34.0713, -153.271, -85.0764, 47.1371
5.21526, 26, -28.5562, -15.0652, 34.2221, -153.162, -84.9492, 47.0128
5.22336, 27, -28.5328, -15.2538, 34.3732, -153.052, -84.8211, 46.889
5.23162, 27, -28.5099, -15.4436, 34.5248, -152.942, -84.6929, 46.7656
5.23937, 27, -28.4869, -15.6337, 34.6773, -152.83, -84.564, 46.6422
5.248, 27, -28.4642, -15.824, 34.8304, -152.718, -84.4347, 46.5193
5.25712, 27, -28.4418, -16.0154, 34.9839, -152.605, -84.305, 46.3966
5.26344, 28, -28.4195, -16.2085, 35.1374, -152.492, -84.175, 46.2741
5.27203, 28, -28.3971, -16.4021, 35.2916, -152.378, -84.0445, 46.152
5.28026, 28, -28.3749, -16.596, 35.4466, -152.263, -83.9136, 46.0306
5.28808, 28, -28.3528, -16.7909, 35.602, -152.148, -83.7827, 45.9098
5.29638, 28, -28.3308, -16.9867, 35.7575, -152.032, -83.6511, 45.7897
5.30445, 29, -28.3087, -17.1825, 35.9134, -151.915, -83.5194, 45.6706
5.31226, 29, -28.2869, -17.3784, 36.0699, -151.797, -83.3874, 45.5523
5.32117, 29, -28.2651, -17.5752, 36.227, -151.679, -83.2551, 45.435
5.32853, 29, -28.2433, -17.7724, 36.3839, -151.561, -83.1224, 45.3187
5.33636, 29, -28.2215, -17.9695, 36.5409, -151.442, -82.9896, 45.2031
5.34373, 29, -28.2, -18.1669, 36.6986, -151.322, -82.8566, 45.0891
5.35253, 30, -28.1784, -18.3651, 36.8569, -151.202, -82.7234, 44.9761
5.35982, 30, -28.1568, -18.5637, 37.0152, -151.081, -82.5903, 44.8644
5.37046, 30, -28.1352, -18.7621, 37.1733, -150.959, -82.4567, 44.7542
5.37607, 30, -28.1136, -18.9611, 37.3317, -150.837, -82.3234, 44.6454
5.38385, 30, -28.0917, -19.1611, 37.4906, -150.715, -82.1894, 44.5386
5.3923, 31, -28.0698, -19.3612, 37.6495, -150.592, -82.056, 44.4331
5.39981, 31, -28.0589, -19.4611, 37.7287, -150.53, -81.9891, 44.3812
5.40832, 31, -28.0263, -19.761, 37.9669, -150.345, -81.7885, 44.2278
5.41525, 31, -28.0153, -19.8613, 38.0466, -150.283, -81.7217, 44.1776
5.42416, 31, -27.9933, -20.0617, 38.2063, -150.095, -81.5208, 44.029
5.4312, 32, -27.9712, -20.2616, 38.3656, -150.032, -81.454, 43.9805
5.44047, 32, -27.9378, -20.5625, 38.6043, -149.844, -81.2532, 43.8373
5.44739, 32, -27.9265, -20.6631, 38.6841, -149.78, -81.1863, 43.7906
5.45671, 32, -27.9038, -20.9642, 38.9238, -149.59, -80.9853, 43.6536
5.4633, 32, -27.881, -21.0643, 39.0036, -149.526, -80.9185, 43.6094
5.4713, 33, -27.8579, -21.265, 39.1626, -149.398, -80.7849, 43.5223
5.48085, 33, -27.8228, -21.5657, 39.4014, -149.207, -80.5851, 43.3978
5.4888, 33, -27.7989, -21.7651, 39.5604, -149.079, -80.4521, 43.3182
5.4976, 33, -27.7745, -21.9645, 39.7184, -148.951, -80.32, 43.2423
5.50567, 33, -27.7499, -22.1641, 39.8756, -148.823, -80.188, 43.169
5.51119, 34, -27.7374, -22.2636, 39.9542, -148.759, -80.1221, 43.1339
5.52322, 34, -27.6994, -22.5607, 40.1898, -148.567, -79.9253, 43.0333
5.52737, 34, -27.6865, -22.6596, 40.2682, -148.503, -79.8597, 43.0009
5.53547, 34, -27.6605, -22.8575, 40.4243, -148.374, -79.7287, 42.939
5.54341, 34, -27.634, -23.0547, 40.5801, -148.246, -79.5976, 42.8806
5.55148, 35, -27.607, -23.2511, 40.7361, -148.117, -79.4668, 42.8247
5.55923, 35, -27.5799, -23.4475, 40.8918, -147.987, -79.3359, 42.7724
5.5673, 35, -27.5525, -23.6442, 41.0467, -147.858, -79.2056, 42.7243
5.57543, 35, -27.5246, -23.8403, 41.2011, -147.728, -79.0754, 42.6797
5.58565, 35, -27.4822, -24.1332, 41.4324, -147.533, -78.8807, 42.6188
5.59148, 36, -27.4678, -24.2307, 41.5094, -147.468, -78.8159, 42.6006
5.59929, 36, -27.4387, -24.4254, 41.6627, -147.338, -78.6863, 42.5674
5.60722, 36, -27.4092, -24.6191, 41.8152, -147.208, -78.5576, 42.5386
5.61522, 36, -27.3792, -24.8119, 41.9675, -147.078, -78.4288, 42.5142
5.62346, 36, -27.3486, -25.0048, 42.1193, -146.947, -78.3008, 42.494
5.6324, 37, -27.3172, -25.1971, 42.2702, -146.817, -78.173, 42.4781
5.63922, 37, -27.285, -25.3883, 42.4202, -146.687, -78.0456, 42.4669
5.64849, 37, -27.2521, -25.5785, 42.5694, -146.557, -77.9187, 42.4602
5.65885, 37, -27.2185, -25.7684, 42.718, -146.427, -77.7918, 42.4572
5.66423, 37, -27.1841, -25.9572, 42.8657, -146.298, -77.6656, 42.457
5.672, 37, -27.1488, -26.1442, 43.0122, -146.169, -77.5395, 42.4623
5.68025, 38, -27.1127, -26.3299, 43.1574, -146.041, -77.4142, 42.474
5.68735, 38, -27.0758, -26.5151, 43.3018, -145.913, -77.2894, 42.4908
5.69736, 38, -27.0381, -26.6991, 43.4454, -145.786, -77.1651, 42.5133
5.70371, 38, -26.9995, -26.8816, 43.5879, -145.659, -77.0413, 42.5415
5.71222, 38, -26.9601, -27.0632, 43.7293, -145.532, -76.918, 42.5755
5.71936, 39, -26.92, -27.2445, 43.8698, -145.406, -76.7953, 42.6158
5.72728, 39, -26.8791, -27.4247, 44.0094, -145.28, -76.6725, 42.662
5.73539, 39, -26.8372, -27.6035, 44.1482, -145.154, -76.5501, 42.7136
5.74343, 39, -26.7946, -27.7815, 44.2862, -145.028, -76.4278, 42.7711
5.75236, 39, -26.7513, -27.9592, 44.423, -144.903, -76.3054, 42.8356
5.75943, 40, -26.707, -28.136, 44.559, -144.778, -76.1831, 42.9053
5.76733, 40, -26.6616, -28.311, 44.6939, -144.653, -76.061, 42.9821
5.7755, 40, -26.6154, -28.4847, 44.8276, -144.529, -75.9395, 43.0652
5.78441, 40, -26.5681, -28.6574, 44.96, -144.406, -75.818, 43.1544
5.79132, 40, -26.5196, -28.8287, 45.0908, -144.284, -75.6973, 43.2508
5.7993, 41, -26.47, -28.9978, 45.2201, -144.162, -75.577, 43.3535
5.80829, 41, -26.4192, -29.1651, 45.3479, -144.042, -75.457, 43.4631
5.81548, 41, -26.3671, -29.3312, 45.4742, -143.923, -75.3379, 43.5792
5.82462, 41, -26.3136, -29.496, 45.5989, -143.805, -75.219, 43.7023
5.83306, 41, -26.2589, -29.6588, 45.7218, -143.689, -75.1009, 43.8326
5.83963, 41, -26.2027, -29.8197, 45.8429, -143.573, -74.9832, 43.97
5.84852, 42, -26.1452, -29.9791, 45.9623, -143.459, -74.8658, 44.115
5.85598, 42, -26.0862, -30.1369, 46.08, -143.346, -74.7491, 44.2669
5.86466, 42, -26.0258, -30.2927, 46.1959, -143.235, -74.6325, 44.4264
5.87268, 42, -25.9641, -30.4462, 46.3102, -143.125, -74.5166, 44.5931
5.88134, 42, -25.9007, -30.5976, 46.4224, -143.017, -74.401, 44.7674
5.88861, 43, -25.8358, -30.7471, 46.5325, -142.911, -74.2857, 44.9496
5.89577, 43, -25.8027, -30.821, 46.5868, -142.858, -74.2283, 45.1395
5.90534, 43, -25.701, -31.0396, 46.7466, -142.703, -74.0565, 45.3372
5.91225, 43, -25.6311, -31.1823, 46.8506, -142.603, -73.9427, 45.5424
5.91927, 43, -25.5955, -31.2528, 46.9018, -142.553, -73.886, 45.6478
5.92917, 44, -25.4861, -31.4609, 47.0522, -142.408, -73.7164, 45.9761
5.93521, 44, -25.4486, -31.5292, 47.101, -142.361, -73.6602, 46.0895
5.9488, 44, -25.2941, -31.7957, 47.29, -142.177, -73.4361, 46.5631
5.95135, 44, -25.2941, -31.7957, 47.29, -142.177, -73.4361, 46.5631
5.95925, 44, -25.214, -31.9247, 47.381, -142.089, -73.3252, 46.8121
5.96721, 45, -25.132, -32.0511, 47.4694, -142.004, -73.2146, 47.0696
5.97539, 45, -25.0481, -32.1746, 47.5554, -141.922, -73.1048, 47.3357
5.98319, 45, -24.9621, -32.2954, 47.6386, -141.843, -72.9957, 47.6099
5.99284, 45, -24.8291, -32.471, 47.7576, -141.729, -72.8333, 48.0365
6.00103, 45, -24.7376, -32.5841, 47.8332, -141.657, -72.7262, 48.3316
6.00728, 46, -24.691, -32.6394, 47.8699, -141.623, -72.6729, 48.4825
6.01695, 46, -24.5477, -32.8005, 47.9756, -141.524, -72.5141, 48.9474
6.02511, 46, -24.4492, -32.9037, 48.0423, -141.463, -72.4094, 49.2679
6.03204, 46, -24.3991, -32.9539, 48.0745, -141.435, -72.3573, 49.4315
6.0392, 46, -24.2972, -33.0516, 48.1362, -141.379, -72.254, 49.7652
6.04728, 47, -24.193, -33.1454, 48.1944, -141.327, -72.1518, 50.1066
6.05528, 47, -24.0863, -33.2353, 48.249, -141.28, -72.0505, 50.4565
6.06321, 47, -23.9769, -33.321, 48.3, -141.236, -71.9503, 50.8149
6.07352, 47, -23.808, -33.4418, 48.3694, -141.18, -71.8021, 51.3678
6.08163, 47, -23.7502, -33.517, 48.4108, -141.149, -71.7046, 51.7473
6.08725, 48, -23.6326, -33.553, 48.43, -141.135, -71.6566, 51.9399
6.09525, 48, -23.5124, -33.6214, 48.4653, -141.11, -71.5616, 52.331
6.10432, 48, -23.3896, -33.6852, 48.4964, -141.089, -71.4681, 52.7308
6.11219, 48, -23.2643, -33.7442, 48.5236, -141.074, -71.3762, 53.1394
6.12022, 48, -23.1363, -33.7982, 48.5464, -141.064, -71.2866, 53.5559
6.12998, 49, -22.9391, -33.8694, 48.5725, -141.057, -71.1554, 54.1964
6.13621, 49, -22.8719, -33.8906, 48.579, -141.057, -71.1125, 54.4136
6.14426, 49, -22.7352, -33.9287, 48.5885, -141.062, -71.0287, 54.8539
6.15421, 49, -22.5249, -33.9755, 48.594, -141.08, -70.9068, 55.529
6.15927, 49, -22.4534, -33.9883, 48.5936, -141.09, -70.8672, 55.7579
6.16717, 50, -22.3084, -34.0094, 48.5891, -141.113, -70.7899, 56.2219
6.1754, 50, -22.1607, -34.0244, 48.5796, -141.142, -70.7157, 56.6927
6.18428, 50, -22.0105, -34.0333, 48.565, -141.176, -70.6441, 57.1714
6.19126, 50, -21.8573, -34.0361, 48.5453, -141.217, -70.576, 57.6583
6.19938, 50, -21.7011, -34.0329, 48.5202, -141.265, -70.5106, 58.1526
6.20839, 51, -21.5418, -34.0231, 48.4895, -141.318, -70.4496, 58.6542
6.21529, 51, -21.3796, -34.0064, 48.4535, -141.378, -70.3912, 59.1622
6.22464, 51, -21.2148, -33.9828, 48.4119, -141.444, -70.337, 59.6772
6.23323, 51, -21.0471, -33.952, 48.3646, -141.516, -70.2866, 60.199
6.23937, 51, -20.877, -33.9142, 48.3116, -141.595, -70.2394, 60.7274
6.24734, 51, -20.7043, -33.869, 48.2528, -141.68, -70.1969, 61.261
6.25555, 52, -20.5289, -33.8159, 48.188, -141.772, -70.1591, 61.8012
6.26678, 52, -20.3508, -33.7551, 48.1173, -141.921, -70.1103, 62.623
6.2722, 52, -20.1699, -33.6862, 48.0407, -141.974, -70.0964, 62.8998
6.28022, 52, -19.9865, -33.6091, 47.958, -142.084, -70.0725, 63.4568
6.28723, 52, -19.8006, -33.5236, 47.869, -142.2, -70.0539, 64.0194
6.29525, 53, -19.6126, -33.4294, 47.7739, -142.323, -70.0408, 64.5874
6.30372, 53, -19.4226, -33.3269, 47.6727, -142.451, -70.0332, 65.1608
6.3163, 53, -19.2305, -33.1572, 47.5093, -142.656, -70.0313, 66.0288
6.31946, 53, -19.0364, -33.0964, 47.4518, -142.726, -70.0334, 66.3209
6.32781, 53, -18.8404, -32.9679, 47.3317, -142.873, -70.0425, 66.9082
6.33596, 54, -18.6423, -32.8305, 47.2051, -143.024, -70.0583, 67.4994
6.34362, 54, -18.4419, -32.6841, 47.072, -143.182, -70.0812, 68.0937
6.3529, 54, -18.2392, -32.529, 46.9328, -143.344, -70.1117, 68.6918
6.36029, 54, -18.0347, -32.3651, 46.7873, -143.512, -70.1491, 69.2936
6.36773, 54, -17.8288, -32.1921, 46.6355, -143.684, -70.1931, 69.8979
6.37731, 55, -17.622, -32.01, 46.4774, -143.862, -70.2458, 70.5049
6.3843, 55, -17.4141, -31.8189, 46.3133, -144.044, -70.3059, 71.1155
6.39178, 55, -17.3097, -31.7199, 46.2291, -144.23, -70.3736, 71.7286
6.40315, 55, -16.9942, -31.4082, 45.9658, -144.421, -70.4498, 72.343
6.40808, 55, -16.8884, -31.2992, 45.8746, -144.518, -70.5338, 72.9599
6.4152, 56, -16.6761, -31.0739, 45.6878, -144.714, -70.5793, 73.2691
6.4243, 56, -16.3553, -30.7185, 45.3963, -145.016, -70.7276, 74.1991
6.43209, 56, -16.248, -30.5949, 45.2954, -145.119, -70.7814, 74.5096
6.43917, 56, -16.0334, -30.3403, 45.0887, -145.326, -70.8958, 75.1317
6.4472, 56, -15.8194, -30.0767, 44.8766, -145.536, -71.0188, 75.7551
6.45652, 57, -15.4978, -29.6626, 44.5464, -145.855, -71.2204, 76.6904
6.46319, 57, -15.3901, -29.5199, 44.433, -145.963, -71.292, 77.0021
6.47126, 57, -15.1741, -29.2272, 44.2023, -146.179, -71.4422, 77.6256
6.48154, 57, -14.8494, -28.7699, 43.8453, -146.507, -71.6845, 78.5596
6.48725, 57, -14.7413, -28.6132, 43.7235, -146.617, -71.7699, 78.8698
6.49706, 58, -14.4177, -28.13, 43.3518, -146.947, -72.0389, 79.7986
6.50571, 58, -14.203, -27.798, 43.0979, -147.168, -72.2286, 80.4148
6.5128, 58, -13.9894, -27.4572, 42.8403, -147.388, -72.4269, 81.027
6.5217, 58, -13.777, -27.1091, 42.5783, -147.607, -72.6332, 81.6352
6.52741, 58, -13.6711, -26.932, 42.4458, -147.716, -72.7393, 81.9379
6.53606, 58, -13.46, -26.5728, 42.1784, -147.933, -72.9575, 82.5402
6.54423, 59, -13.2501, -26.2059, 41.9066, -148.149, -73.1835, 83.1378
6.55232, 59, -13.0419, -25.8315, 41.631, -148.364, -73.4175, 83.7309
6.56, 59, -12.8354, -25.45, 41.3519, -148.577, -73.6599, 84.3204
6.56719, 59, -12.6301, -25.0617, 41.0688, -148.788, -73.91, 84.9057
6.57598, 59, -12.4259, -24.666, 40.7826, -148.996, -74.1688, 85.4863
6.58324, 60, -12.2228, -24.263, 40.4922, -149.203, -74.4357, 86.0626
6.59121, 60, -12.0212, -23.853, 40.1988, -149.408, -74.7109, 86.6349
6.6017, 60, -11.7216, -23.226, 39.7531, -149.71, -75.1389, 87.4854
6.60819, 60, -11.6226, -23.0139, 39.6036, -149.809, -75.2855, 87.766
6.6162, 60, -11.4262, -22.5857, 39.3026, -150.006, -75.5843, 88.3237
6.62584, 61, -11.1359, -21.9346, 38.8478, -150.293, -76.0451, 89.1494
6.63139, 61, -11.0403, -21.7153, 38.6954, -150.387, -76.2018, 89.4212
6.64017, 61, -10.8503, -21.274, 38.3893, -150.572, -76.5194, 89.9584
6.65168, 61, -10.5697, -20.6053, 37.9292, -150.84, -77.0058, 90.7489
6.65634, 61, -10.4773, -20.3807, 37.7755, -150.926, -77.1703, 91.0081
6.664, 62, -10.2944, -19.9294, 37.4686, -151.097, -77.5028, 91.5201
6.67227, 62, -10.1147, -19.4752, 37.1613, -151.261, -77.8394, 92.0231
6.67942, 62, -9.93762, -19.0187, 36.8548, -151.421, -78.18, 92.5167
6.68805, 62, -9.76326, -18.5595, 36.5481, -151.576, -78.5245, 93.0022
6.69619, 62, -9.59166, -18.0982, 36.2423, -151.726, -78.8729, 93.4784
6.70347, 63, -9.42224, -17.6354, 35.937, -151.87, -79.2252, 93.9462
6.71125, 63, -9.25491, -17.1705, 35.6324, -152.01, -79.5818, 94.4044
6.71919, 63, -9.08986, -16.7038, 35.3285, -152.144, -79.9422, 94.8535
6.72861, 63, -8.92725, -16.2356, 35.0246, -152.274, -80.3068, 95.2938
6.74006, 63, -8.68805, -15.5294, 34.5693, -152.459, -80.8607, 95.9362
6.74415, 64, -8.60959, -15.2931, 34.418, -152.518, -81.0471, 96.1457
6.75159, 64, -8.45462, -14.8196, 34.1168, -152.632, -81.4221, 96.5564
6.75937, 64, -8.30223, -14.3449, 33.8162, -152.741, -81.8001, 96.9562
6.7677, 64, -8.1522, -13.87, 33.5171, -152.845, -82.1808, 97.3461
6.77525, 64, -8.00473, -13.3958, 33.2195, -152.943, -82.5633, 97.7239
6.78351, 65, -7.85974, -12.9233, 32.9247, -153.036, -82.9474, 98.0893
6.79221, 65, -7.71754, -12.4535, 32.6331, -153.122, -83.3314, 98.442
6.79929, 65, -7.57828, -11.986, 32.3457, -153.203, -83.7151, 98.7805
6.80844, 65, -7.44207, -11.5212, 32.0633, -153.277, -84.0974, 99.1044
6.81705, 65, -7.30881, -11.0587, 31.7849, -153.346, -84.4784, 99.4141
6.82419, 65, -7.1784, -10.5989, 31.5115, -153.407, -84.8577, 99.7092
6.83232, 66, -7.05047, -10.1433, 31.2421, -153.464, -85.2354, 99.989
6.83952, 66, -6.92478, -9.69172, 30.9768, -153.515, -85.6124, 100.254
6.84768, 66, -6.80137, -9.24535, 30.7159, -153.56, -85.9882, 100.503
6.85604, 66, -6.68011, -8.80491, 30.458, -153.6, -86.3625, 100.738
6.86472, 66, -6.56125, -8.36981, 30.205, -153.634, -86.7345, 100.955
6.87203, 67, -6.44482, -7.9403, 29.9567, -153.663, -87.1032, 101.156
6.88097, 67, -6.33126, -7.51577, 29.7138, -153.687, -87.4679, 101.34
6.89097, 67, -6.22043, -7.09624, 29.4774, -153.704, -87.828, 101.506
6.89578, 67, -6.16593, -6.8877, 29.2464, -153.717, -88.1838, 101.655
6.90512, 67, -6.00592, -6.26915, 29.0207, -153.724, -88.5356, 101.787
6.91115, 68, -5.95367, -6.06526, 28.91, -153.726, -88.7105, 101.846
6.92033, 68, -5.79945, -5.46068, 28.5836, -153.726, -89.2332, 101.998
6.92725, 68, -5.74883, -5.26139, 28.4762, -153.724, -89.4073, 102.04
6.93634, 68, -5.59937, -4.67151, 28.1587, -153.71, -89.9302, 102.138
6.94318, 68, -5.55036, -4.47774, 28.0545, -153.704, -90.1047, 102.161
6.95242, 69, -5.40604, -3.90389, 27.7465, -153.677, -90.6267, 102.204
6.95933, 69, -5.35888, -3.71476, 27.6463, -153.666, -90.7998, 102.209
6.96723, 69, -5.26602, -3.33971, 27.4499, -153.639, -91.1436, 102.206
6.97518, 69, -5.17513, -2.96896, 27.2581, -153.609, -91.4838, 102.182
6.987, 69, -5.04228, -2.42069, 26.9795, -153.555, -91.9863, 102.108
6.9912, 70, -4.99887, -2.23987, 26.8892, -153.536, -92.152, 102.072
7.0008, 70, -4.87036, -1.70496, 26.6243, -153.471, -92.6449, 101.934
7.0088, 70, -4.78603, -1.35579, 26.4521, -153.423, -92.9716, 101.813
7.017, 70, -4.74421, -1.01204, 26.2839, -153.373, -93.2972, 101.671
7.02325, 70, -4.66133, -0.842054, 26.2013, -153.346, -93.4597, 101.592
7.03303, 71, -4.5794, -0.341174, 25.9576, -153.262, -93.9454, 101.319
7.03929, 71, -4.49864, -0.176933, 25.8781, -153.233, -94.1067, 101.217
7.04819, 71, -4.41884, 0.146802, 25.7227, -153.172, -94.4278, 100.997
7.05619, 71, -4.34003, 0.46501, 25.5725, -153.108, -94.746, 100.755
7.0632, 71, -4.26213, 0.777786, 25.4267, -153.042, -95.0616, 100.491
7.0712, 71, -4.18509, 1.08384, 25.2854, -152.975, -95.3736, 100.208
7.07935, 72, -4.10851, 1.38345, 25.1486, -152.906, -95.6819, 99.9042
7.08989, 72, -3.99398, 1.81927, 24.9509, -152.799, -96.1372, 99.411
7.09618, 72, -3.95586, 1.96125, 24.8869, -152.763, -96.2871, 99.2368
7.10563, 72, -3.8417, 2.37669, 24.7003, -152.654, -96.7309, 98.685
7.11131, 72, -3.80367, 2.51143, 24.6399, -152.617, -96.8769, 98.4911
7.11924, 73, -3.72766, 2.77612, 24.5218, -152.544, -97.1661, 98.0886
7.12723, 73, -3.65149, 3.03401, 24.4075, -152.47, -97.4513, 97.6667
7.13629, 73, -3.57512, 3.28466, 24.2972, -152.397, -97.7326, 97.2247
7.14319, 73, -3.49847, 3.52907, 24.1907, -152.324, -98.0102, 96.7637
7.15125, 73, -3.42151, 3.76664, 24.0884, -152.253, -98.2839, 96.2835
7.15932, 74, -3.34396, 3.99605, 23.9899, -152.182, -98.5537, 95.7841
7.16817, 74, -3.2658, 4.21762, 23.8948, -152.113, -98.8193, 95.2664
7.17525, 74, -3.18696, 4.43105, 23.8033, -152.045, -99.0805, 94.7315
7.18333, 74, -3.10741, 4.63507, 23.7156, -151.979, -99.3368, 94.1814
7.19219, 74, -3.0271, 4.82983, 23.6317, -151.916, -99.5875, 93.6161
7.1993, 75, -2.94587, 5.01585, 23.5518, -151.854, -99.8312, 93.0383
7.20933, 75, -2.86366, 5.19233, 23.476, -151.796, -100.067, 92.4499
7.21533, 75, -2.78046, 5.35824, 23.4041, -151.741, -100.295, 91.8526
7.22666, 75, -2.6539, 5.58771, 23.304, -151.664, -100.619, 90.9418
7.2323, 75, -2.61127, 5.65885, 23.2727, -151.64, -100.722, 90.6346
7.23928, 76, -2.52527, 5.79261, 23.2135, -151.594, -100.921, 90.0153
7.2474, 76, -2.43818, 5.91474, 23.1587, -151.553, -101.111, 89.3887
7.25531, 76, -2.3502, 6.02483, 23.1084, -151.516, -101.291, 88.7542
7.26369, 76, -2.26144, 6.12254, 23.0624, -151.482, -101.461, 88.1128
7.27135, 76, -2.17181, 6.20759, 23.021, -151.451, -101.621, 87.4659
7.27919, 77, -2.0814, 6.27956, 22.9846, -151.425, -101.769, 86.8141
7.28815, 77, -1.9902, 6.33831, 22.9533, -151.403, -101.904, 86.1606
7.29527, 77, -1.8981, 6.38354, 22.9276, -151.386, -102.025, 85.5085
7.3041, 77, -1.8052, 6.41447, 22.9076, -151.372, -102.133, 84.8581
7.31239, 77, -1.71156, 6.43121, 22.8934, -151.362, -102.226, 84.211
7.31972, 78, -1.61716, 6.43349, 22.885, -151.356, -102.304, 83.5686
7.32834, 78, -1.52208, 6.42065, 22.8822, -151.353, -102.366, 82.9309
7.33564, 78, -1.42629, 6.39258, 22.8849, -151.352, -102.413, 82.2976
7.34434, 78, -1.33009, 6.34886, 22.8938, -151.355, -102.444, 81.6696
7.35159, 78, -1.23351, 6.28887, 22.9088, -151.361, -102.46, 81.0481
7.36089, 78, -1.13665, 6.21261, 22.9304, -151.37, -102.459, 80.432
7.3694, 79, -1.03958, 6.11986, 22.9591, -151.383, -102.441, 79.8217
7.37627, 79, -0.942307, 6.01081, 22.9953, -151.399, -102.405, 79.2187
7.38638, 79, -0.84515, 5.88542, 23.039, -151.418, -102.351, 78.6236
7.39172, 79, -0.796597, 5.81651, 23.0637, -151.44, -102.279, 78.036
7.40024, 79, -0.650918, 5.58479, 23.1498, -151.465, -102.189, 77.4574
7.40861, 80, -0.602348, 5.49929, 23.1823, -151.479, -102.137, 77.1721
7.41602, 80, -0.505208, 5.316, 23.2531, -151.506, -101.952, 76.3329
7.42319, 80, -0.408081, 5.11628, 23.3321, -151.535, -101.881, 76.0584
7.43122, 80, -0.31104, 4.89953, 23.4193, -151.565, -101.725, 75.518
7.44088, 80, -0.165711, 4.54048, 23.5656, -151.614, -101.456, 74.728
7.44736, 81, -0.117304, 4.4123, 23.6187, -151.631, -101.356, 74.4704
7.4564, 81, 0.0273656, 4.00329, 23.7911, -151.682, -101.031, 73.712
7.46319, 81, 0.0754642, 3.85861, 23.8531, -151.7, -100.913, 73.4642
7.47269, 81, 0.219359, 3.40095, 24.0531, -151.754, -100.531, 72.7355
7.48056, 81, 0.314924, 3.07455, 24.1985, -151.791, -100.253, 72.2626
7.48741, 82, 0.36267, 2.90534, 24.2747, -151.809, -100.107, 72.0299
7.49716, 82, 0.505701, 2.37311, 24.5166, -151.864, -99.6416, 71.3467
7.50473, 82, 0.60082, 1.99844, 24.6893, -151.901, -99.3089, 70.9041
7.51456, 82, 0.695753, 1.60706, 24.8713, -151.937, -98.9589, 70.4712
7.52303, 82, 0.790538, 1.19909, 25.0625, -151.972, -98.5914, 70.0485
7.52871, 83, 0.837932, 0.988919, 25.1616, -151.99, -98.4013, 69.8407
7.53617, 83, 0.93265, 0.557611, 25.3674, -152.025, -98.0085, 69.4317
7.55042, 83, 1.12219, -0.351231, 25.8108, -152.092, -97.1724, 68.64
7.5588, 83, 1.21713, -0.828719, 26.0471, -152.124, -96.7292, 68.2562
7.56151, 83, 1.26466, -1.07326, 26.1695, -152.139, -96.5014, 68.0675
7.56743, 84, 1.31226, -1.32148, 26.2946, -152.154, -96.2693, 67.8808
7.57617, 84, 1.40762, -1.82887, 26.5523, -152.185, -95.7923, 67.5126
7.58418, 84, 1.50307, -2.3501, 26.8213, -152.213, -95.2992, 67.1512
7.59567, 84, 1.64678, -3.15859, 27.2444, -152.252, -94.528, 66.623
7.5993, 84, 1.69482, -3.43495, 27.3908, -152.264, -94.2633, 66.4504
7.60814, 85, 1.79128, -3.99755, 27.6914, -152.288, -93.7226, 66.1108
7.61621, 85, 1.88805, -4.57263, 28.0015, -152.309, -93.1672, 65.7795
7.62417, 85, 1.98523, -5.15849, 28.3213, -152.328, -92.5977, 65.4572
7.63123, 85, 2.08289, -5.75415, 28.6498, -152.345, -92.0174, 65.1436
7.63916, 85, 2.1811, -6.35785, 28.9866, -152.359, -91.4283, 64.8395
7.64776, 85, 2.27993, -6.96811, 29.3309, -152.371, -90.8302, 64.5457
7.65638, 86, 2.37955, -7.58474, 29.6825, -152.379, -90.2237, 64.2627
7.66416, 86, 2.48008, -8.20673, 30.0404, -152.385, -89.6099, 63.991
7.67502, 86, 2.63267, -9.15042, 30.5874, -152.388, -88.6782, 63.6049
7.67932, 86, 2.68391, -9.46754, 30.7724, -152.388, -88.3659, 63.4822
7.68817, 86, 2.78752, -10.1056, 31.1464, -152.385, -87.7375, 63.2453
7.69528, 87, 2.89219, -10.7481, 31.5266, -152.378, -87.1028, 63.0197
7.70328, 87, 2.99731, -11.3937, 31.9118, -152.368, -86.4615, 62.8055
7.71116, 87, 3.10336, -12.0425, 32.303, -152.354, -85.8127, 62.6026
7.71916, 87, 3.2099, -12.6939, 32.7002, -152.336, -85.1577, 62.4117
7.72727, 87, 3.31691, -13.348, 33.1037, -152.315, -84.4974, 62.2327
7.73521, 88, 3.42462, -14.0052, 33.513, -152.289, -83.8306, 62.0666
7.74331, 88, 3.53301, -14.6648, 33.9267, -152.259, -83.1593, 61.9139
7.75386, 88, 3.64211, -15.3261, 34.3449, -152.226, -82.4843, 61.7753
7.75953, 88, 3.75191, -15.9876, 34.7667, -152.187, -81.8065, 61.652
7.76842, 88, 3.86207, -16.6484, 35.1914, -152.144, -81.1285, 61.5443
7.77527, 89, 3.97258, -17.3068, 35.6184, -152.096, -80.4504, 61.454
7.78333, 89, 4.08324, -17.962, 36.0466, -152.043, -79.772, 61.3815
7.79122, 89, 4.19412, -18.613, 36.4754, -151.985, -79.093, 61.3274
7.79919, 89, 4.30539, -19.2599, 36.9046, -151.922, -78.4142, 61.2926
7.80803, 89, 4.41686, -19.9018, 37.333, -151.853, -77.7397, 61.2774
7.8155, 90, 4.52861, -20.5384, 37.7603, -151.779, -77.0683, 61.2827
7.82338, 90, 4.64088, -21.1705, 38.187, -151.7, -76.3986, 61.3116
7.83172, 90, 4.75318, -21.7973, 38.6125, -151.615, -75.7314, 61.364
7.8397, 90, 4.86537, -22.4197, 39.037, -151.525, -75.067, 61.4399
7.84816, 90, 4.97732, -23.0378, 39.4612, -151.428, -74.4064, 61.5416
7.86014, 91, 5.08912, -23.9576, 40.0963, -151.273, -73.4176, 61.7436
7.86408, 91, 5.2007, -24.2619, 40.3079, -151.217, -73.0878, 61.825
7.87207, 91, 5.31177, -24.8669, 40.7316, -151.101, -72.4276, 62.0091
7.8806, 91, 5.42229, -25.467, 41.1547, -150.978, -71.7662, 62.2224
7.88851, 91, 5.53213, -26.0603, 41.5771, -150.849, -71.1043, 62.4655
7.89616, 92, 5.64153, -26.6467, 41.9983, -150.713, -70.4434, 62.7402
7.90371, 92, 5.69627, -26.9375, 42.2083, -150.643, -69.7832, 63.0466
7.91216, 92, 5.86131, -27.7977, 42.8336, -150.423, -69.1247, 63.3845
7.9192, 92, 5.91663, -28.0805, 43.04, -150.347, -68.7962, 63.5654
7.92718, 92, 6.02776, -28.6396, 43.4494, -150.191, -68.141, 63.9519
7.94159, 93, 6.25365, -29.7286, 44.2522, -149.869, -66.8453, 64.8238
7.9431, 93, 6.25365, -29.7286, 44.2522, -149.869, -66.8453, 64.8238
7.95234, 93, 6.42724, -30.5209, 44.8394, -149.62, -65.8838, 65.5667
7.9592, 93, 6.48606, -30.7805, 45.0323, -149.536, -65.5647, 65.8316
7.96926, 93, 6.66529, -31.5478, 45.6038, -149.284, -64.6102, 66.6827
7.9752, 93, 6.72607, -31.8001, 45.7918, -149.199, -64.2929, 66.986
7.98494, 94, 6.91212, -32.5488, 46.3501, -148.946, -63.3415, 67.9593
7.99278, 94, 7.0398, -33.041, 46.7173, -148.778, -62.7042, 68.6666
8.00173, 94, 7.17007, -33.5249, 47.081, -148.612, -62.0637, 69.4237
8.0088, 94, 7.3034, -33.9997, 47.4404, -148.45, -61.4203, 70.2283
8.01674, 94, 7.44084, -34.4653, 47.7931, -148.293, -60.775, 71.0838
8.02475, 95, 7.51138, -34.6942, 48.1381, -148.144, -60.1315, 71.9881
8.033, 95, 7.65663, -35.3634, 48.4729, -148.006, -59.4918, 72.9317
8.04015, 95, 7.80775, -35.58, 48.636, -147.942, -59.174, 73.419
8.04816, 95, 7.96492, -36.002, 48.9529, -147.824, -58.543, 74.4221
8.0562, 95, 8.12866, -36.4058, 49.2552, -147.722, -57.9191, 75.4591
8.06412, 96, 8.29919, -36.791, 49.5425, -147.638, -57.3045, 76.5303
8.0722, 96, 8.47616, -37.1558, 49.8131, -147.573, -56.7033, 77.6327
8.08014, 96, 8.65856, -37.498, 50.0675, -147.528, -56.1148, 78.7665
8.08998, 96, 8.94091, -37.9648, 50.4172, -147.498, -55.2588, 80.5121
8.09615, 96, 9.03715, -38.1078, 50.5243, -147.498, -54.9821, 81.1023
8.10416, 96, 9.23175, -38.3756, 50.7241, -147.514, -54.4443, 82.2926
8.11217, 97, 9.42764, -38.6185, 50.9043, -147.552, -53.9299, 83.4922
8.12015, 97, 9.62395, -38.8369, 51.0639, -147.612, -53.4408, 84.6956
8.12815, 97, 9.81961, -39.0314, 51.2033, -147.692, -52.9794, 85.8915
8.13621, 97, 10.0139, -39.2011, 51.3231, -147.789, -52.5472, 87.0733
8.14315, 97, 10.2057, -39.3447, 51.4233, -147.901, -52.1452, 88.2348
8.15122, 97, 10.394, -39.4627, 51.5046, -148.026, -51.7736, 89.3722
8.15913, 98, 10.5792, -39.5554, 51.5675, -148.162, -51.4322, 90.4781
8.16715, 98, 10.7622, -39.6238, 51.6124, -148.309, -51.1204, 91.5554
8.17523, 98, 10.9433, -39.6693, 51.6397, -148.466, -50.8358, 92.6111
8.18314, 98, 11.1226, -39.6918, 51.6497, -148.635, -50.5754, 93.6593
8.19115, 98, 11.2995, -39.6907, 51.6429, -148.815, -50.3365, 94.71
8.19923, 98, 11.475, -39.6658, 51.6186, -149.009, -50.1174, 95.7737
8.20717, 98, 11.6502, -39.6172, 51.5764, -149.215, -49.9188, 96.8538
8.21525, 99, 11.8244, -39.5453, 51.5161, -149.434, -49.7423, 97.9506
8.22322, 99, 11.9963, -39.4509, 51.4374, -149.663, -49.5903, 99.0572
8.23129, 99, 12.1652, -39.334, 51.3402, -149.9, -49.4661, 100.165
8.2393, 99, 12.3301, -39.1949, 51.2251, -150.142, -49.3719, 101.262
8.24724, 99, 12.4894, -39.0339, 51.0929, -150.384, -49.3081, 102.341
8.25525, 99, 12.6414, -38.851, 50.9451, -150.625, -49.2749, 103.393
8.26354, 100, 12.785, -38.6443, 50.782, -150.862, -49.2721, 104.413
8.27133, 100, 12.9201, -38.4133, 50.6026, -151.095, -49.3004, 105.405
8.27925, 100, 13.0463, -38.1592, 50.4062, -151.321, -49.3589, 106.369
8.28728, 100, 13.1645, -37.8822, 50.1935, -151.542, -49.4481, 107.31
8.29609, 100, 13.2748, -37.5836, 49.9627, -151.757, -49.568, 108.229
8.30416, 100, 13.3773, -37.2611, 49.7128, -151.967, -49.719, 109.131
8.31134, 101, 13.4722, -36.914, 49.4452, -152.169, -49.9011, 110.015
8.31929, 101, 13.5595, -36.5412, 49.1588, -152.364, -50.1142, 110.879
8.32732, 101, 13.6393, -36.1425, 48.8544, -152.55, -50.3583, 111.726
8.33642, 101, 13.7109, -35.7186, 48.5314, -152.727, -50.6339, 112.55
8.34354, 101, 13.7741, -35.271, 48.1907, -152.894, -50.9416, 113.353
8.35163, 101, 13.8281, -34.8003, 47.8325, -153.049, -51.2813, 114.134
8.36675, 102, 13.891, -34.0502, 47.265, -153.258, -51.8517, 115.253
8.3688, 102, 13.9069, -33.7879, 47.0679, -153.321, -52.0576, 115.613
8.37627, 102, 13.9311, -33.245, 46.6621, -153.437, -52.4935, 116.313
8.38455, 102, 13.9459, -32.6798, 46.2426, -153.539, -52.9606, 116.984
8.39178, 102, 13.9521, -32.0925, 45.8091, -153.627, -53.4573, 117.63
8.40025, 103, 13.9507, -31.4841, 45.3608, -153.701, -53.9819, 118.25
8.40855, 103, 13.9474, -31.1726, 45.1315, -153.733, -54.2544, 118.844
8.41514, 103, 13.9359, -30.536, 44.6629, -153.788, -54.8182, 119.132
8.42418, 103, 13.9079, -29.5505, 43.9379, -153.845, -55.7061, 119.96
8.43122, 103, 13.8959, -29.2143, 43.6913, -153.858, -56.0124, 120.224
8.43917, 103, 13.8685, -28.5317, 43.192, -153.875, -56.6386, 120.733
8.44828, 104, 13.8192, -27.4873, 42.4324, -153.882, -57.6029, 121.447
8.45513, 104, 13.8007, -27.1349, 42.1775, -153.879, -57.9303, 121.673
8.46314, 104, 13.7608, -26.4252, 41.6659, -153.864, -58.5948, 122.109
8.47247, 104, 13.6951, -25.3508, 40.897, -153.827, -59.6111, 122.722
8.47914, 104, 13.6722, -24.991, 40.6407, -153.811, -59.954, 122.918
8.48719, 104, 13.6249, -24.2705, 40.1288, -153.772, -60.6434, 123.297
8.49751, 104, 13.5512, -23.1873, 39.3633, -153.702, -61.686, 123.846
8.50319, 104, 13.526, -22.8258, 39.1088, -153.676, -62.0359, 124.025
8.51277, 104, 13.4498, -21.7408, 38.3476, -153.59, -63.0884, 124.556
8.52154, 104, 13.3983, -21.0174, 37.8424, -153.528, -63.7919, 124.907
8.52719, 104, 13.3725, -20.6558, 37.5902, -153.495, -64.1437, 125.082
8.53688, 104, 13.3206, -19.9323, 36.836, -153.389, -65.2005, 125.603
8.54417, 104, 13.2686, -19.2086, 36.5856, -153.352, -65.5536, 125.776
8.5513, 104, 13.2164, -18.4849, 36.0864, -153.275, -66.2601, 126.122
8.56018, 104, 13.1644, -17.7616, 35.5896, -153.194, -66.9678, 126.467
8.56813, 104, 13.1126, -17.0373, 35.0951, -153.109, -67.6758, 126.812
8.5752, 104, 13.0611, -16.3128, 34.6022, -153.02, -68.3828, 127.156
8.58313, 104, 13.0101, -15.5884, 34.1117, -152.928, -69.0918, 127.5
8.59119, 104, 12.9594, -14.8637, 33.6234, -152.831, -69.8024, 127.844
8.59925, 104, 12.909, -14.1384, 33.1372, -152.73, -70.5133, 128.187
8.60716, 104, 12.8591, -13.413, 32.6537, -152.626, -71.2229, 128.531
8.61513, 104, 12.8094, -12.6872, 32.1732, -152.517, -71.9332, 128.875
8.6232, 104, 12.7599, -11.9617, 31.6955, -152.406, -72.6455, 129.219
8.63119, 104, 12.7107, -11.2365, 31.2199, -152.29, -73.358, 129.564
8.63914, 104, 12.662, -10.511, 30.7467, -152.17, -74.0706, 129.91
8.64724, 104, 12.6134, -9.78527, 30.2767, -152.046, -74.7831, 130.256
8.65514, 104, 12.5653, -9.05972, 29.8098, -151.918, -75.496, 130.603
8.66313, 104, 12.5177, -8.33352, 29.3458, -151.785, -76.2101, 130.951
8.67125, 104, 12.4707, -7.60734, 28.8853, -151.65, -76.9247, 131.3
8.67916, 104, 12.4243, -6.88212, 28.4281, -151.509, -77.64, 131.651
8.68716, 104, 12.3785, -6.15727, 27.9741, -151.365, -78.3544, 132.002
8.69521, 104, 12.3332, -5.43312, 27.5238, -151.217, -79.0677, 132.355
8.70313, 104, 12.2885, -4.71004, 27.0774, -151.064, -79.782, 132.708
8.71121, 104, 12.2448, -3.9885, 26.6355, -150.907, -80.4966, 133.063
8.71921, 104, 12.2022, -3.2703, 26.199, -150.747, -81.2094, 133.419
8.72714, 104, 12.1605, -2.55745, 25.7677, -150.582, -81.9176, 133.775
8.73523, 104, 12.1204, -1.85094, 25.3426, -150.415, -82.6222, 134.131
8.74321, 104, 12.0812, -1.15217, 24.9255, -150.244, -83.3223, 134.485
8.75159, 104, 12.0429, -0.462391, 24.5168, -150.071, -84.0142, 134.837
8.75927, 104, 12.0056, 0.217305, 24.1182, -149.896, -84.6955, 135.186
8.76727, 104, 11.9693, 0.885634, 23.7309, -149.721, -85.3633, 135.531
8.77532, 104, 11.9342, 1.54125, 23.3559, -149.545, -86.0172, 135.871
8.78326, 104, 11.9003, 2.18357, 22.9933, -149.369, -86.6573, 136.205
8.79119, 104, 11.8674, 2.81019, 22.6428, -149.193, -87.2812, 136.532
8.79922, 104, 11.8355, 3.42096, 22.3052, -149.018, -87.8893, 136.853
8.80727, 104, 11.8053, 4.01523, 21.9807, -148.845, -88.4807, 137.167
8.81588, 104, 11.776, 4.59272, 21.6688, -148.673, -89.0543, 137.474
8.82414, 104, 11.7482, 5.15397, 21.3689, -148.502, -89.6113, 137.775
8.83214, 104, 11.7216, 5.69798, 21.0804, -148.333, -90.153, 138.068
8.83941, 104, 11.696, 6.22456, 20.8043, -148.167, -90.6782, 138.354
8.84814, 104, 11.6716, 6.73445, 20.5395, -148.002, -91.1872, 138.634
8.85568, 104, 11.6485, 7.22763, 20.2865, -147.84, -91.6795, 138.905
8.86419, 104, 11.6265, 7.70371, 20.0448, -147.681, -92.1541, 139.169
8.87172, 104, 11.6057, 8.16348, 19.8136, -147.525, -92.6121, 139.425
8.88028, 104, 11.5859, 8.60638, 19.5936, -147.372, -93.0539, 139.674
8.88772, 104, 11.5674, 9.03166, 19.3846, -147.222, -93.4789, 139.914
8.89627, 104, 11.5498, 9.43998, 19.1854, -147.077, -93.8869, 140.147
8.90447, 104, 11.5415, 9.63753, 18.9969, -146.936, -94.278, 140.37
8.91192, 104, 11.5256, 10.2028, 18.8191, -146.799, -94.6514, 140.585
8.92111, 104, 11.5037, 10.5559, 18.6516, -146.667, -95.0064, 140.79
8.92711, 104, 11.497, 10.7254, 18.5716, -146.603, -95.1768, 140.889
8.93619, 104, 11.4781, 11.2046, 18.3484, -146.42, -95.6583, 141.169
8.94316, 104, 11.4723, 11.3539, 18.2794, -146.363, -95.8087, 141.257
8.95253, 104, 11.4566, 11.7714, 18.088, -146.2, -96.2285, 141.504
8.95916, 104, 11.4519, 11.9, 18.0295, -146.15, -96.3578, 141.58
8.96846, 104, 11.4387, 12.2538, 17.8701, -146.01, -96.7132, 141.79
8.97512, 104, 11.4347, 12.3613, 17.8221, -145.967, -96.8206, 141.854
8.9846, 104, 11.4239, 12.6523, 17.6938, -145.852, -97.1099, 142.027
8.99264, 104, 11.4176, 12.8197, 17.6211, -145.786, -97.2751, 142.126
9.00105, 104, 11.412, 12.9668, 17.5584, -145.728, -97.4186, 142.212
9.0087, 104, 11.4069, 13.0944, 17.5051, -145.678, -97.5404, 142.285
9.01672, 104, 11.4022, 13.2034, 17.461, -145.637, -97.6415, 142.345
9.025, 104, 11.3979, 13.2944, 17.4253, -145.604, -97.7232, 142.394
9.03121, 104, 11.396, 13.3338, 17.4103, -145.59, -97.7574, 142.415
9.04083, 104, 11.3922, 13.4015, 17.3761, -145.558, -97.8348, 142.462
9.0493, 104, 11.3873, 13.4786, 17.3608, -145.543, -97.8693, 142.483
9.05516, 104, 11.386, 13.4985, 17.355, -145.537, -97.8825, 142.491
9.06416, 104, 11.3836, 13.5306, 17.3465, -145.529, -97.9023, 142.502
9.07214, 104, 11.3818, 13.5545, 17.3411, -145.524, -97.9147, 142.509
9.08012, 104, 11.3803, 13.5718, 17.3379, -145.521, -97.9219, 142.512
9.08815, 104, 11.3791, 13.5837, 17.3362, -145.52, -97.9257, 142.514
9.09614, 104, 11.3782, 13.5917, 17.3353, -145.519, -97.9275, 142.515
9.1032, 105, 11.3776, 13.597, 17.3349, -145.519, -97.9282, 142.516
9.11123, 105, 11.3772, 13.6005, 17.3347, -145.518, -97.9286, 142.516
9.11913, 105, 11.3768, 13.6029, 17.3346, -145.518, -97.9288, 142.516
9.12717, 105, 11.3765, 13.6049, 17.3346, -145.518, -97.9289, 142.516
9.13514, 105, 11.3764, 13.6066, 17.3346, -145.518, -97.9289, 142.516
9.14312, 105, 11.3762, 13.6081, 17.3346, -145.518, -97.9289, 142.516
9.15121, 105, 11.3761, 13.6094, 17.3346, -145.518, -97.9288, 142.516
9.15915, 105, 11.3761, 13.6105, 17.3346, -145.518, -97.9287, 142.516
9.16712, 105, 11.376, 13.6114, 17.3346, -145.518, -97.9286, 142.516
9.17516, 105, 11.376, 13.6122, 17.3346, -145.518, -97.9285, 142.516
9.18316, 105, 11.3759, 13.6128, 17.3346, -145.518, -97.9284, 142.516
9.19117, 105, 11.3759, 13.6132, 17.3347, -145.518, -97.9282, 142.516
9.19914, 105, 11.3759, 13.6134, 17.3347, -145.519, -97.928, 142.516
9.20714, 105, 11.3759, 13.6135, 17.3348, -145.519, -97.9279, 142.516
9.21513, 105, 11.3759, 13.6136, 17.3348, -145.519, -97.9277, 142.516
