hehonglu123/Motion-Primitive-Planning/simulation/robotstudio_sim/scripts/fitting_output/from_NX/threshold0.1/curve_exe_v290.0390625_z10.csv
timestamp, cmd_num, J1, J2, J3, J4, J5, J6
0, -1, 38.5481, 30.5849, 11.532, 10.9725, 113.873, -51.5245
0.003, -1, 38.5481, 30.5849, 11.532, 10.9725, 113.873, -51.5245
0.006, -1, 38.5481, 30.5849, 11.532, 10.9725, 113.873, -51.5245
0.008, -1, 38.5481, 30.5849, 11.532, 10.9725, 113.873, -51.5245
0.011, -1, 38.5481, 30.5849, 11.532, 10.9725, 113.873, -51.5245
0.016, -1, 38.5481, 30.5849, 11.532, 10.9725, 113.873, -51.5245
0.02, -1, 38.5481, 30.5849, 11.532, 10.9725, 113.873, -51.5245
0.024, -1, 38.5481, 30.5849, 11.532, 10.9725, 113.873, -51.5245
0.028, -1, 38.5481, 30.5849, 11.532, 10.9725, 113.873, -51.5245
0.032, -1, 38.5481, 30.5849, 11.532, 10.9725, 113.873, -51.5245
0.036, -1, 38.548, 30.5849, 11.532, 10.9725, 113.873, -51.5245
0.04, -1, 38.5478, 30.5849, 11.5319, 10.9725, 113.873, -51.5245
0.044, -1, 38.5472, 30.5848, 11.5319, 10.9725, 113.873, -51.5245
0.048, -1, 38.546, 30.5845, 11.5318, 10.9725, 113.873, -51.5245
0.052, -1, 38.5442, 30.584, 11.5316, 10.9725, 113.873, -51.5247
0.056, -1, 38.5417, 30.5833, 11.5314, 10.9725, 113.873, -51.525
0.06, -1, 38.5383, 30.5823, 11.5312, 10.9725, 113.873, -51.5257
0.064, -1, 38.534, 30.5809, 11.5309, 10.9726, 113.872, -51.5268
0.068, -1, 38.5287, 30.579, 11.5306, 10.9727, 113.872, -51.5285
0.072, -1, 38.5223, 30.5766, 11.5304, 10.9729, 113.871, -51.5312
0.076, -1, 38.5145, 30.5734, 11.5303, 10.9731, 113.869, -51.5351
0.08, -1, 38.505, 30.5694, 11.5304, 10.9735, 113.867, -51.5406
0.084, -1, 38.4936, 30.5644, 11.5307, 10.974, 113.864, -51.5481
0.088, -1, 38.48, 30.5584, 11.5313, 10.9747, 113.861, -51.558
0.092, -1, 38.4641, 30.5511, 11.5325, 10.9757, 113.856, -51.5708
0.096, -1, 38.4457, 30.5426, 11.5342, 10.9769, 113.849, -51.587
0.1, -1, 38.4245, 30.5326, 11.5367, 10.9785, 113.841, -51.6071
0.104, -1, 38.4004, 30.5211, 11.54, 10.9804, 113.832, -51.6316
0.108, -1, 38.3731, 30.5079, 11.5443, 10.9828, 113.82, -51.661
0.112, -1, 38.3425, 30.4929, 11.5496, 10.9856, 113.807, -51.6957
0.116, -1, 38.3084, 30.4761, 11.5561, 10.9888, 113.791, -51.736
0.12, -1, 38.2707, 30.4573, 11.5637, 10.9926, 113.773, -51.7824
0.124, -1, 38.2292, 30.4365, 11.5727, 10.9969, 113.752, -51.835
0.128, -1, 38.184, 30.4137, 11.5831, 11.0018, 113.728, -51.8941
0.131, -1, 38.135, 30.3888, 11.5948, 11.0072, 113.703, -51.9597
0.136, -1, 38.0822, 30.3618, 11.6078, 11.0132, 113.674, -52.032
0.139, -1, 38.0256, 30.3328, 11.6222, 11.0197, 113.643, -52.1107
0.144, -1, 37.9651, 30.3017, 11.6379, 11.0267, 113.609, -52.1958
0.148, -1, 37.901, 30.2687, 11.6549, 11.0343, 113.573, -52.287
0.152, -1, 37.8333, 30.2338, 11.673, 11.0424, 113.535, -52.3841
0.156, -1, 37.7622, 30.1971, 11.6923, 11.0509, 113.494, -52.4866
0.16, -1, 37.6879, 30.1587, 11.7125, 11.0599, 113.451, -52.5943
0.164, -1, 37.6105, 30.1188, 11.7336, 11.0693, 113.407, -52.7065
0.168, -1, 37.5302, 30.0773, 11.7555, 11.079, 113.361, -52.8229
0.172, -1, 37.4471, 30.0345, 11.778, 11.0889, 113.313, -52.9429
0.176, -1, 37.3615, 29.9904, 11.801, 11.0992, 113.264, -53.0661
0.18, -1, 37.2737, 29.9451, 11.8243, 11.1097, 113.215, -53.1919
0.184, -1, 37.1841, 29.8989, 11.848, 11.1203, 113.164, -53.3199
0.188, -1, 37.0928, 29.8517, 11.8719, 11.1311, 113.113, -53.4498
0.192, -1, 37.0001, 29.8039, 11.896, 11.142, 113.061, -53.5811
0.196, -1, 36.906, 29.7553, 11.9201, 11.1529, 113.008, -53.7135
0.2, -1, 36.8107, 29.7062, 11.9443, 11.164, 112.955, -53.8467
0.204, -1, 36.7142, 29.6567, 11.9685, 11.175, 112.902, -53.9806
0.208, -1, 36.6165, 29.6067, 11.9926, 11.1861, 112.849, -54.1149
0.212, -1, 36.5179, 29.5565, 12.0167, 11.1973, 112.796, -54.2496
0.216, -1, 36.4186, 29.506, 12.0408, 11.2084, 112.743, -54.3845
0.22, -1, 36.3188, 29.4554, 12.0649, 11.2195, 112.689, -54.5195
0.224, -1, 36.2187, 29.4046, 12.0889, 11.2307, 112.636, -54.6547
0.228, -1, 36.1182, 29.3538, 12.113, 11.2419, 112.582, -54.79
0.232, -1, 36.0176, 29.3029, 12.137, 11.253, 112.529, -54.9254
0.236, -1, 35.9169, 29.252, 12.1611, 11.2642, 112.475, -55.0608
0.24, -1, 35.8161, 29.2011, 12.1852, 11.2754, 112.422, -55.1962
0.244, -1, 35.7152, 29.1501, 12.2092, 11.2865, 112.368, -55.3318
0.248, -1, 35.6143, 29.0991, 12.2333, 11.2977, 112.315, -55.4673
0.252, -1, 35.5133, 29.0481, 12.2574, 11.3089, 112.261, -55.6029
0.256, -1, 35.4123, 28.997, 12.2815, 11.3201, 112.208, -55.7386
0.26, -1, 35.3112, 28.946, 12.3056, 11.3313, 112.154, -55.8743
0.264, -1, 35.2101, 28.8949, 12.3296, 11.3425, 112.1, -56.01
0.268, -1, 35.109, 28.8438, 12.3537, 11.3537, 112.047, -56.1457
0.272, -1, 35.0078, 28.7927, 12.3779, 11.3649, 111.993, -56.2815
0.276, -1, 34.9066, 28.7416, 12.402, 11.3761, 111.939, -56.4174
0.28, -1, 34.8054, 28.6905, 12.4261, 11.3873, 111.886, -56.5532
0.284, -1, 34.7042, 28.6393, 12.4502, 11.3985, 111.832, -56.6891
0.288, -1, 34.6029, 28.5882, 12.4743, 11.4097, 111.778, -56.825
0.292, -1, 34.5016, 28.537, 12.4985, 11.4209, 111.724, -56.961
0.296, -1, 34.4003, 28.4858, 12.5226, 11.4321, 111.671, -57.097
0.3, -1, 34.2989, 28.4346, 12.5468, 11.4433, 111.617, -57.233
0.304, -1, 34.1976, 28.3834, 12.5709, 11.4545, 111.563, -57.3691
0.308, -1, 34.0962, 28.3322, 12.5951, 11.4658, 111.509, -57.5052
0.312, -1, 33.9948, 28.281, 12.6193, 11.477, 111.456, -57.6413
0.316, -1, 33.8933, 28.2298, 12.6434, 11.4882, 111.402, -57.7775
0.32, -1, 33.7919, 28.1785, 12.6676, 11.4994, 111.348, -57.9137
0.324, -1, 33.6904, 28.1272, 12.6918, 11.5107, 111.294, -58.0499
0.328, -1, 33.5889, 28.076, 12.716, 11.5219, 111.24, -58.1861
0.332, -1, 33.4873, 28.0247, 12.7402, 11.5332, 111.186, -58.3224
0.336, -1, 33.3858, 27.9734, 12.7644, 11.5444, 111.132, -58.4587
0.34, -1, 33.2842, 27.9221, 12.7886, 11.5556, 111.079, -58.5951
0.344, -1, 33.1826, 27.8707, 12.8128, 11.5669, 111.025, -58.7315
0.348, -1, 33.081, 27.8194, 12.837, 11.5781, 110.971, -58.8679
0.352, -1, 32.9793, 27.7681, 12.8612, 11.5894, 110.917, -59.0043
0.356, -1, 32.8776, 27.7167, 12.8855, 11.6006, 110.863, -59.1408
0.36, -1, 32.7759, 27.6653, 12.9097, 11.6119, 110.809, -59.2773
0.364, -1, 32.6742, 27.614, 12.9339, 11.6232, 110.755, -59.4138
0.368, -1, 32.5725, 27.5626, 12.9582, 11.6344, 110.701, -59.5504
0.372, -1, 32.4707, 27.5112, 12.9824, 11.6457, 110.647, -59.687
0.376, -1, 32.3689, 27.4597, 13.0067, 11.6569, 110.593, -59.8236
0.38, -1, 32.2671, 27.4083, 13.0309, 11.6682, 110.539, -59.9603
0.384, -1, 32.1653, 27.3569, 13.0552, 11.6795, 110.485, -60.097
0.388, -1, 32.0634, 27.3054, 13.0795, 11.6908, 110.431, -60.2337
0.392, -1, 31.9616, 27.254, 13.1037, 11.702, 110.377, -60.3704
0.396, -1, 31.8597, 27.2025, 13.128, 11.7133, 110.323, -60.5072
0.4, -1, 31.7577, 27.151, 13.1523, 11.7246, 110.269, -60.644
0.404, -1, 31.6558, 27.0995, 13.1766, 11.7359, 110.215, -60.7808
0.408, -1, 31.5538, 27.048, 13.2009, 11.7472, 110.161, -60.9177
0.412, -1, 31.4519, 26.9965, 13.2252, 11.7585, 110.106, -61.0545
0.416, -1, 31.3499, 26.945, 13.2495, 11.7697, 110.052, -61.1915
0.42, -1, 31.2478, 26.8935, 13.2738, 11.781, 109.998, -61.3284
0.424, -1, 31.1458, 26.8419, 13.2981, 11.7923, 109.944, -61.4654
0.428, -1, 31.0437, 26.7904, 13.3225, 11.8036, 109.89, -61.6024
0.432, -1, 30.9417, 26.7388, 13.3468, 11.8149, 109.836, -61.7394
0.436, -1, 30.8396, 26.6872, 13.3711, 11.8262, 109.782, -61.8764
0.44, -1, 30.7374, 26.6357, 13.3954, 11.8375, 109.727, -62.0135
0.444, -1, 30.6353, 26.5841, 13.4198, 11.8488, 109.673, -62.1506
0.448, -1, 30.5331, 26.5325, 13.4441, 11.8601, 109.619, -62.2877
0.452, -1, 30.4309, 26.4808, 13.4685, 11.8715, 109.565, -62.4249
0.456, -1, 30.3287, 26.4292, 13.4928, 11.8828, 109.511, -62.5621
0.46, -1, 30.2265, 26.3776, 13.5172, 11.8941, 109.456, -62.6993
0.464, -1, 30.1243, 26.3259, 13.5415, 11.9054, 109.402, -62.8365
0.468, -1, 30.022, 26.2743, 13.5659, 11.9167, 109.348, -62.9738
0.472, -1, 29.9198, 26.2226, 13.5903, 11.928, 109.294, -63.111
0.476, -1, 29.8175, 26.171, 13.6147, 11.9394, 109.239, -63.2483
0.48, -1, 29.7151, 26.1193, 13.639, 11.9507, 109.185, -63.3857
0.484, -1, 29.6128, 26.0676, 13.6634, 11.962, 109.131, -63.523
0.488, -1, 29.5105, 26.0159, 13.6878, 11.9733, 109.076, -63.6604
0.492, -1, 29.4081, 25.9642, 13.7122, 11.9847, 109.022, -63.7978
0.496, -1, 29.3057, 25.9125, 13.7366, 11.996, 108.968, -63.9353
0.5, -1, 29.2033, 25.8607, 13.761, 12.0073, 108.913, -64.0727
0.504, -1, 29.1009, 25.809, 13.7854, 12.0187, 108.859, -64.2102
0.508, -1, 28.9984, 25.7573, 13.8098, 12.03, 108.805, -64.3477
0.512, -1, 28.896, 25.7055, 13.8342, 12.0414, 108.75, -64.4852
0.516, -1, 28.7935, 25.6537, 13.8587, 12.0527, 108.696, -64.6227
0.52, -1, 28.691, 25.602, 13.8831, 12.064, 108.642, -64.7603
0.524, -1, 28.5885, 25.5502, 13.9075, 12.0754, 108.587, -64.8979
0.528, -1, 28.486, 25.4984, 13.9319, 12.0867, 108.533, -65.0355
0.532, -1, 28.3834, 25.4466, 13.9564, 12.0981, 108.479, -65.1732
0.536, -1, 28.2809, 25.3948, 13.9808, 12.1094, 108.424, -65.3108
0.54, -1, 28.1783, 25.343, 14.0052, 12.1208, 108.37, -65.4485
0.544, -1, 28.0757, 25.2912, 14.0297, 12.1321, 108.315, -65.5862
0.548, -1, 27.9731, 25.2393, 14.0541, 12.1435, 108.261, -65.7239
0.552, -1, 27.8705, 25.1875, 14.0786, 12.1549, 108.206, -65.8617
0.556, -1, 27.7679, 25.1357, 14.103, 12.1662, 108.152, -65.9994
0.56, -1, 27.6652, 25.0838, 14.1275, 12.1776, 108.098, -66.1372
0.564, -1, 27.5626, 25.0319, 14.152, 12.189, 108.043, -66.275
0.568, -1, 27.4599, 24.9801, 14.1764, 12.2003, 107.989, -66.4128
0.572, -1, 27.3572, 24.9282, 14.2009, 12.2117, 107.934, -66.5507
0.576, -1, 27.2545, 24.8763, 14.2254, 12.2231, 107.88, -66.6885
0.58, -1, 27.1517, 24.8244, 14.2499, 12.2344, 107.825, -66.8264
0.584, -1, 27.049, 24.7725, 14.2743, 12.2458, 107.771, -66.9643
0.588, -1, 26.9462, 24.7206, 14.2988, 12.2572, 107.716, -67.1022
0.592, -1, 26.8435, 24.6687, 14.3233, 12.2685, 107.662, -67.2402
0.596, -1, 26.7407, 24.6168, 14.3478, 12.2799, 107.607, -67.3781
0.6, -1, 26.6379, 24.5649, 14.3723, 12.2913, 107.552, -67.5161
0.604, -1, 26.5351, 24.513, 14.3968, 12.3027, 107.498, -67.6541
0.608, -1, 26.4323, 24.461, 14.4213, 12.3141, 107.443, -67.7921
0.612, -1, 26.3294, 24.4091, 14.4458, 12.3254, 107.389, -67.9301
0.616, -1, 26.2266, 24.3571, 14.4703, 12.3368, 107.334, -68.0682
0.62, -1, 26.1237, 24.3052, 14.4948, 12.3482, 107.28, -68.2063
0.624, -1, 26.0209, 24.2532, 14.5193, 12.3596, 107.225, -68.3443
0.628, -1, 25.918, 24.2012, 14.5438, 12.371, 107.171, -68.4824
0.632, -1, 25.8151, 24.1493, 14.5684, 12.3824, 107.116, -68.6206
0.636, -1, 25.7122, 24.0973, 14.5929, 12.3938, 107.061, -68.7587
0.64, -1, 25.6092, 24.0453, 14.6174, 12.4052, 107.007, -68.8968
0.644, -1, 25.5063, 23.9933, 14.6419, 12.4165, 106.952, -69.035
0.648, -1, 25.4034, 23.9413, 14.6665, 12.4279, 106.898, -69.1732
0.652, -1, 25.3004, 23.8893, 14.691, 12.4393, 106.843, -69.3114
0.656, -1, 25.1974, 23.8373, 14.7155, 12.4507, 106.788, -69.4496
0.66, -1, 25.0944, 23.7853, 14.7401, 12.4621, 106.734, -69.5878
0.664, -1, 24.9914, 23.7332, 14.7646, 12.4735, 106.679, -69.726
0.668, -1, 24.8884, 23.6812, 14.7892, 12.4849, 106.624, -69.8643
0.672, -1, 24.7854, 23.6292, 14.8137, 12.4963, 106.57, -70.0026
0.676, -1, 24.6824, 23.5771, 14.8383, 12.5077, 106.515, -70.1408
0.68, -1, 24.5794, 23.5251, 14.8628, 12.5191, 106.46, -70.2791
0.684, -1, 24.4763, 23.4731, 14.8874, 12.5306, 106.406, -70.4175
0.688, -1, 24.3733, 23.421, 14.9119, 12.542, 106.351, -70.5558
0.692, -1, 24.2702, 23.3689, 14.9365, 12.5534, 106.296, -70.6941
0.696, -1, 24.1671, 23.3169, 14.961, 12.5648, 106.242, -70.8325
0.7, -1, 24.064, 23.2648, 14.9856, 12.5762, 106.187, -70.9708
0.704, -1, 23.9609, 23.2127, 15.0102, 12.5876, 106.132, -71.1092
0.708, -1, 23.8578, 23.1607, 15.0347, 12.599, 106.078, -71.2476
0.712, -1, 23.7547, 23.1086, 15.0593, 12.6104, 106.023, -71.386
0.716, -1, 23.6516, 23.0565, 15.0839, 12.6218, 105.968, -71.5244
0.72, -1, 23.5485, 23.0044, 15.1084, 12.6333, 105.913, -71.6629
0.724, -1, 23.4453, 22.9523, 15.133, 12.6447, 105.859, -71.8013
0.728, -1, 23.3422, 22.9002, 15.1576, 12.6561, 105.804, -71.9398
0.732, -1, 23.239, 22.8481, 15.1822, 12.6675, 105.749, -72.0782
0.736, -1, 23.1358, 22.796, 15.2068, 12.6789, 105.695, -72.2167
0.74, -1, 23.0327, 22.7439, 15.2314, 12.6903, 105.64, -72.3552
0.744, -1, 22.9295, 22.6917, 15.2559, 12.7018, 105.585, -72.4937
0.748, -1, 22.8263, 22.6396, 15.2805, 12.7132, 105.53, -72.6322
0.752, -1, 22.7231, 22.5875, 15.3051, 12.7246, 105.476, -72.7707
0.756, -1, 22.6199, 22.5354, 15.3297, 12.736, 105.421, -72.9092
0.76, -1, 22.5167, 22.4832, 15.3543, 12.7475, 105.366, -73.0477
0.764, -1, 22.4134, 22.4311, 15.3789, 12.7589, 105.311, -73.1863
0.768, -1, 22.3102, 22.379, 15.4035, 12.7703, 105.257, -73.3248
0.772, -1, 22.207, 22.3268, 15.4281, 12.7817, 105.202, -73.4634
0.776, -1, 22.1037, 22.2747, 15.4527, 12.7932, 105.147, -73.602
0.78, -1, 22.0005, 22.2225, 15.4773, 12.8046, 105.092, -73.7406
0.784, -1, 21.8972, 22.1704, 15.5019, 12.816, 105.038, -73.8791
0.788, -1, 21.794, 22.1182, 15.5265, 12.8274, 104.983, -74.0177
0.792, -1, 21.6907, 22.0661, 15.5511, 12.8389, 104.928, -74.1563
0.796, -1, 21.5874, 22.0139, 15.5757, 12.8503, 104.873, -74.295
0.8, -1, 21.4842, 21.9617, 15.6003, 12.8617, 104.818, -74.4336
0.804, -1, 21.3809, 21.9096, 15.6249, 12.8732, 104.764, -74.5722
0.808, -1, 21.2776, 21.8574, 15.6495, 12.8846, 104.709, -74.7108
0.812, -1, 21.1743, 21.8052, 15.6741, 12.896, 104.654, -74.8495
0.816, -1, 21.071, 21.7531, 15.6988, 12.9075, 104.599, -74.9881
0.82, -1, 20.9677, 21.7009, 15.7234, 12.9189, 104.544, -75.1268
0.824, -1, 20.8644, 21.6487, 15.748, 12.9303, 104.49, -75.2654
0.828, -1, 20.7611, 21.5965, 15.7726, 12.9418, 104.435, -75.4041
0.832, -1, 20.6578, 21.5443, 15.7972, 12.9532, 104.38, -75.5428
0.836, -1, 20.5545, 21.4921, 15.8218, 12.9646, 104.325, -75.6814
0.84, -1, 20.4511, 21.44, 15.8465, 12.9761, 104.27, -75.8201
0.844, -1, 20.3478, 21.3878, 15.8711, 12.9875, 104.216, -75.9588
0.848, -1, 20.2445, 21.3356, 15.8957, 12.9989, 104.161, -76.0975
0.852, -1, 20.1411, 21.2834, 15.9203, 13.0104, 104.106, -76.2362
0.856, -1, 20.0378, 21.2312, 15.9449, 13.0218, 104.051, -76.3749
0.86, -1, 19.9345, 21.179, 15.9696, 13.0333, 103.996, -76.5136
0.864, -1, 19.8311, 21.1268, 15.9942, 13.0447, 103.941, -76.6523
0.868, -1, 19.7278, 21.0746, 16.0188, 13.0561, 103.887, -76.791
0.872, -1, 19.6244, 21.0224, 16.0434, 13.0676, 103.832, -76.9297
0.876, -1, 19.5211, 20.9702, 16.0681, 13.079, 103.777, -77.0684
0.88, -1, 19.4177, 20.918, 16.0927, 13.0905, 103.722, -77.2071
0.884, -1, 19.3144, 20.8658, 16.1173, 13.1019, 103.667, -77.3458
0.888, -1, 19.211, 20.8136, 16.1419, 13.1133, 103.612, -77.4846
0.892, -1, 19.1077, 20.7614, 16.1666, 13.1248, 103.558, -77.6233
0.896, -1, 19.0043, 20.7092, 16.1912, 13.1362, 103.503, -77.762
0.9, -1, 18.901, 20.657, 16.2158, 13.1476, 103.448, -77.9007
0.904, -1, 18.7976, 20.6048, 16.2404, 13.1591, 103.393, -78.0395
0.908, -1, 18.6943, 20.5526, 16.2651, 13.1705, 103.338, -78.1782
0.912, -1, 18.5909, 20.5004, 16.2897, 13.182, 103.283, -78.3169
0.916, -1, 18.4875, 20.4482, 16.3143, 13.1934, 103.229, -78.4557
0.92, -1, 18.3842, 20.396, 16.339, 13.2049, 103.174, -78.5944
0.924, -1, 18.2808, 20.3438, 16.3636, 13.2163, 103.119, -78.7331
0.928, -1, 18.1774, 20.2915, 16.3882, 13.2277, 103.064, -78.8719
0.932, -1, 18.0741, 20.2393, 16.4128, 13.2392, 103.009, -79.0106
0.936, -1, 17.9707, 20.1871, 16.4375, 13.2506, 102.954, -79.1493
0.94, -1, 17.8674, 20.1349, 16.4621, 13.2621, 102.9, -79.288
0.944, -1, 17.764, 20.0827, 16.4867, 13.2735, 102.845, -79.4268
0.948, -1, 17.6606, 20.0305, 16.5113, 13.2849, 102.79, -79.5655
0.952, -1, 17.5573, 19.9783, 16.536, 13.2964, 102.735, -79.7042
0.956, -1, 17.4539, 19.9261, 16.5606, 13.3078, 102.68, -79.843
0.96, -1, 17.3506, 19.8739, 16.5852, 13.3193, 102.625, -79.9817
0.964, -1, 17.2472, 19.8217, 16.6099, 13.3307, 102.571, -80.1204
0.968, -1, 17.1439, 19.7695, 16.6345, 13.3421, 102.516, -80.2591
0.972, -1, 17.0405, 19.7173, 16.6591, 13.3536, 102.461, -80.3978
0.976, -1, 16.9372, 19.6651, 16.6837, 13.365, 102.406, -80.5366
0.98, -1, 16.8338, 19.6129, 16.7084, 13.3764, 102.351, -80.6753
0.984, -1, 16.7305, 19.5607, 16.733, 13.3879, 102.297, -80.814
0.988, -1, 16.6271, 19.5085, 16.7576, 13.3993, 102.242, -80.9527
0.992, -1, 16.5238, 19.4563, 16.7822, 13.4108, 102.187, -81.0914
0.996, -1, 16.4205, 19.4041, 16.8068, 13.4222, 102.132, -81.2301
1, -1, 16.3171, 19.3519, 16.8315, 13.4336, 102.077, -81.3688
1.004, -1, 16.2138, 19.2997, 16.8561, 13.4451, 102.022, -81.5074
1.008, -1, 16.1105, 19.2476, 16.8807, 13.4565, 101.968, -81.6461
1.012, -1, 16.0071, 19.1954, 16.9053, 13.4679, 101.913, -81.7848
1.016, -1, 15.9038, 19.1432, 16.9299, 13.4794, 101.858, -81.9235
1.02, -1, 15.8005, 19.091, 16.9546, 13.4908, 101.803, -82.0621
1.024, -1, 15.6972, 19.0388, 16.9792, 13.5022, 101.748, -82.2008
1.027, -1, 15.5939, 18.9866, 17.0038, 13.5137, 101.694, -82.3395
1.032, -1, 15.4906, 18.9345, 17.0284, 13.5251, 101.639, -82.4781
1.036, -1, 15.3873, 18.8823, 17.053, 13.5365, 101.584, -82.6168
1.04, -1, 15.284, 18.8301, 17.0776, 13.548, 101.529, -82.7554
1.044, -1, 15.1807, 18.778, 17.1022, 13.5594, 101.474, -82.8941
1.048, -1, 15.0774, 18.7258, 17.1268, 13.5708, 101.42, -83.0327
1.052, -1, 14.9741, 18.6736, 17.1515, 13.5823, 101.365, -83.1713
1.055, -1, 14.8708, 18.6215, 17.1761, 13.5937, 101.31, -83.3099
1.06, -1, 14.7676, 18.5693, 17.2007, 13.6051, 101.255, -83.4485
1.064, -1, 14.6643, 18.5171, 17.2253, 13.6166, 101.2, -83.5871
1.068, -1, 14.5611, 18.465, 17.2499, 13.628, 101.146, -83.7257
1.072, -1, 14.4578, 18.4128, 17.2745, 13.6394, 101.091, -83.8643
1.076, -1, 14.3545, 18.3607, 17.2991, 13.6509, 101.036, -84.0029
1.08, -1, 14.2513, 18.3085, 17.3237, 13.6623, 100.981, -84.1414
1.084, -1, 14.1481, 18.2564, 17.3483, 13.6737, 100.927, -84.28
1.088, -1, 14.0448, 18.2043, 17.3729, 13.6851, 100.872, -84.4186
1.091, -1, 13.9416, 18.1521, 17.3975, 13.6966, 100.817, -84.5571
1.096, -1, 13.8384, 18.1, 17.4221, 13.708, 100.762, -84.6956
1.1, -1, 13.7352, 18.0479, 17.4466, 13.7194, 100.708, -84.8342
1.104, -1, 13.632, 17.9957, 17.4712, 13.7308, 100.653, -84.9727
1.108, -1, 13.5288, 17.9436, 17.4958, 13.7422, 100.598, -85.1112
1.112, -1, 13.4256, 17.8915, 17.5204, 13.7537, 100.543, -85.2497
1.116, -1, 13.3224, 17.8394, 17.545, 13.7651, 100.489, -85.3882
1.119, -1, 13.2192, 17.7873, 17.5696, 13.7765, 100.434, -85.5266
1.124, -1, 13.1161, 17.7352, 17.5942, 13.7879, 100.379, -85.6651
1.128, -1, 13.0129, 17.6831, 17.6187, 13.7993, 100.324, -85.8036
1.132, -1, 12.9098, 17.631, 17.6433, 13.8108, 100.27, -85.942
1.136, -1, 12.8066, 17.5789, 17.6679, 13.8222, 100.215, -86.0804
1.14, -1, 12.7035, 17.5268, 17.6925, 13.8336, 100.16, -86.2189
1.144, -1, 12.6004, 17.4747, 17.717, 13.845, 100.106, -86.3573
1.147, -1, 12.4973, 17.4226, 17.7416, 13.8564, 100.051, -86.4957
1.152, -1, 12.3942, 17.3706, 17.7662, 13.8678, 99.9961, -86.6341
1.156, -1, 12.2911, 17.3185, 17.7907, 13.8792, 99.9414, -86.7724
1.16, -1, 12.188, 17.2664, 17.8153, 13.8906, 99.8868, -86.9108
1.164, -1, 12.0849, 17.2144, 17.8398, 13.9021, 99.8321, -87.0491
1.168, -1, 11.9818, 17.1623, 17.8644, 13.9135, 99.7774, -87.1875
1.172, -1, 11.8788, 17.1103, 17.889, 13.9249, 99.7227, -87.3258
1.175, -1, 11.7757, 17.0582, 17.9135, 13.9363, 99.6681, -87.4641
1.18, -1, 11.6727, 17.0062, 17.9381, 13.9477, 99.6134, -87.6024
1.184, -1, 11.5696, 16.9541, 17.9626, 13.9591, 99.5587, -87.7407
1.188, -1, 11.4666, 16.9021, 17.9872, 13.9705, 99.5041, -87.879
1.192, -1, 11.3636, 16.8501, 18.0117, 13.9819, 99.4494, -88.0172
1.196, -1, 11.2606, 16.798, 18.0362, 13.9933, 99.3948, -88.1554
1.2, -1, 11.1576, 16.746, 18.0608, 14.0047, 99.3402, -88.2937
1.204, -1, 11.0547, 16.694, 18.0853, 14.0161, 99.2856, -88.4319
1.208, -1, 10.9517, 16.642, 18.1098, 14.0275, 99.2309, -88.5701
1.212, -1, 10.8487, 16.59, 18.1344, 14.0389, 99.1763, -88.7083
1.216, -1, 10.7458, 16.538, 18.1589, 14.0503, 99.1217, -88.8464
1.22, -1, 10.6429, 16.486, 18.1834, 14.0617, 99.0671, -88.9846
1.224, -1, 10.5399, 16.4341, 18.2079, 14.073, 99.0125, -89.1227
1.228, -1, 10.437, 16.3821, 18.2325, 14.0844, 98.9579, -89.2608
1.232, -1, 10.3341, 16.3301, 18.257, 14.0958, 98.9033, -89.3989
1.236, -1, 10.2313, 16.2782, 18.2815, 14.1072, 98.8487, -89.537
1.24, -1, 10.1284, 16.2262, 18.306, 14.1186, 98.7942, -89.6751
1.244, -1, 10.0255, 16.1742, 18.3305, 14.13, 98.7396, -89.8131
1.248, -1, 9.92269, 16.1223, 18.355, 14.1414, 98.6851, -89.9512
1.252, -1, 9.81986, 16.0704, 18.3795, 14.1527, 98.6305, -90.0892
1.256, -1, 9.71704, 16.0184, 18.404, 14.1641, 98.576, -90.2272
1.26, -1, 9.61423, 15.9665, 18.4285, 14.1755, 98.5214, -90.3652
1.264, -1, 9.51144, 15.9146, 18.453, 14.1869, 98.4669, -90.5031
1.267, -1, 9.40866, 15.8627, 18.4775, 14.1983, 98.4124, -90.6411
1.272, -1, 9.30589, 15.8108, 18.502, 14.2096, 98.3578, -90.779
1.276, -1, 9.20314, 15.7589, 18.5264, 14.221, 98.3033, -90.9169
1.28, -1, 9.1004, 15.707, 18.5509, 14.2324, 98.2488, -91.0548
1.284, -1, 8.99768, 15.6551, 18.5754, 14.2437, 98.1944, -91.1927
1.288, -1, 8.89497, 15.6032, 18.5999, 14.2551, 98.1399, -91.3305
1.292, -1, 8.79227, 15.5514, 18.6243, 14.2665, 98.0854, -91.4684
1.295, -1, 8.68959, 15.4995, 18.6488, 14.2778, 98.0309, -91.6062
1.3, -1, 8.58692, 15.4477, 18.6733, 14.2892, 97.9765, -91.744
1.304, -1, 8.48427, 15.3958, 18.6977, 14.3006, 97.922, -91.8817
1.308, -1, 8.38163, 15.344, 18.7222, 14.3119, 97.8675, -92.0195
1.312, -1, 8.279, 15.2921, 18.7466, 14.3233, 97.8131, -92.1572
1.316, -1, 8.17639, 15.2403, 18.7711, 14.3346, 97.7587, -92.2949
1.32, -1, 8.0738, 15.1885, 18.7955, 14.346, 97.7043, -92.4326
1.324, -1, 7.97122, 15.1367, 18.82, 14.3574, 97.6498, -92.5703
1.328, -1, 7.86866, 15.0849, 18.8444, 14.3687, 97.5954, -92.708
1.332, -1, 7.76611, 15.0331, 18.8688, 14.3801, 97.541, -92.8456
1.336, -1, 7.66358, 14.9813, 18.8933, 14.3914, 97.4866, -92.9832
1.34, -1, 7.56106, 14.9295, 18.9177, 14.4027, 97.4323, -93.1208
1.344, -1, 7.45856, 14.8778, 18.9421, 14.4141, 97.3779, -93.2584
1.348, -1, 7.35608, 14.826, 18.9665, 14.4254, 97.3235, -93.3959
1.352, -1, 7.25361, 14.7743, 18.9909, 14.4368, 97.2692, -93.5334
1.356, -1, 7.15115, 14.7225, 19.0153, 14.4481, 97.2148, -93.671
1.36, -1, 7.04872, 14.6708, 19.0397, 14.4594, 97.1605, -93.8084
1.364, -1, 6.9463, 14.6191, 19.0641, 14.4708, 97.1061, -93.9459
1.368, -1, 6.84389, 14.5673, 19.0885, 14.4821, 97.0518, -94.0833
1.372, -1, 6.74151, 14.5156, 19.1129, 14.4935, 96.9975, -94.2207
1.376, -1, 6.63914, 14.4639, 19.1373, 14.5048, 96.9432, -94.3581
1.38, -1, 6.53678, 14.4122, 19.1617, 14.5161, 96.8889, -94.4955
1.384, -1, 6.43445, 14.3605, 19.1861, 14.5274, 96.8346, -94.6329
1.388, -1, 6.33213, 14.3089, 19.2105, 14.5388, 96.7803, -94.7702
1.392, -1, 6.22983, 14.2572, 19.2348, 14.5501, 96.7261, -94.9075
1.396, -1, 6.12754, 14.2055, 19.2592, 14.5614, 96.6718, -95.0448
1.4, -1, 6.02528, 14.1539, 19.2836, 14.5727, 96.6176, -95.182
1.404, -1, 5.92303, 14.1023, 19.3079, 14.584, 96.5633, -95.3193
1.408, -1, 5.8208, 14.0506, 19.3323, 14.5954, 96.5091, -95.4565
1.412, -1, 5.71858, 13.999, 19.3567, 14.6067, 96.4549, -95.5937
1.416, -1, 5.61639, 13.9474, 19.381, 14.618, 96.4007, -95.7308
1.42, -1, 5.51421, 13.8958, 19.4053, 14.6293, 96.3465, -95.8679
1.424, -1, 5.41205, 13.8442, 19.4297, 14.6406, 96.2923, -96.0051
1.428, -1, 5.30991, 13.7926, 19.454, 14.6519, 96.2381, -96.1421
1.432, -1, 5.20779, 13.741, 19.4784, 14.6632, 96.1839, -96.2792
1.436, -1, 5.10568, 13.6895, 19.5027, 14.6745, 96.1297, -96.4162
1.44, -1, 5.0036, 13.6379, 19.527, 14.6858, 96.0756, -96.5533
1.444, -1, 4.90153, 13.5863, 19.5513, 14.6971, 96.0214, -96.6902
1.448, -1, 4.79948, 13.5348, 19.5756, 14.7084, 95.9673, -96.8272
1.452, -1, 4.69746, 13.4833, 19.5999, 14.7197, 95.9132, -96.9641
1.456, -1, 4.59545, 13.4318, 19.6242, 14.731, 95.8591, -97.101
1.46, -1, 4.49346, 13.3803, 19.6485, 14.7423, 95.805, -97.2379
1.464, -1, 4.39149, 13.3288, 19.6728, 14.7535, 95.7509, -97.3748
1.468, -1, 4.28954, 13.2773, 19.6971, 14.7648, 95.6968, -97.5116
1.472, -1, 4.18761, 13.2258, 19.7214, 14.7761, 95.6427, -97.6484
1.476, -1, 4.0857, 13.1743, 19.7457, 14.7874, 95.5887, -97.7852
1.48, -1, 3.9838, 13.1229, 19.77, 14.7987, 95.5346, -97.9219
1.484, -1, 3.88193, 13.0714, 19.7942, 14.8099, 95.4806, -98.0587
1.488, -1, 3.78008, 13.02, 19.8185, 14.8212, 95.4265, -98.1954
1.492, -1, 3.67825, 12.9685, 19.8428, 14.8325, 95.3725, -98.332
1.496, -1, 3.57644, 12.9171, 19.867, 14.8437, 95.3185, -98.4687
1.5, -1, 3.47465, 12.8657, 19.8913, 14.855, 95.2645, -98.6053
1.504, -1, 3.37288, 12.8143, 19.9155, 14.8663, 95.2105, -98.7419
1.508, -1, 3.27113, 12.7629, 19.9398, 14.8775, 95.1566, -98.8784
1.512, -1, 3.16941, 12.7115, 19.964, 14.8888, 95.1026, -99.015
1.516, -1, 3.0677, 12.6602, 19.9882, 14.9001, 95.0486, -99.1515
1.52, -1, 2.96601, 12.6088, 20.0125, 14.9113, 94.9947, -99.2879
1.524, -1, 2.86435, 12.5575, 20.0367, 14.9226, 94.9408, -99.4244
1.528, -1, 2.76271, 12.5061, 20.0609, 14.9338, 94.8868, -99.5608
1.532, -1, 2.66109, 12.4548, 20.0851, 14.9451, 94.8329, -99.6972
1.536, -1, 2.55949, 12.4035, 20.1093, 14.9563, 94.7791, -99.8335
1.54, -1, 2.45791, 12.3522, 20.1335, 14.9675, 94.7252, -99.9699
1.544, -1, 2.35635, 12.3009, 20.1577, 14.9788, 94.6713, -100.106
1.548, -1, 2.25482, 12.2496, 20.1819, 14.99, 94.6174, -100.242
1.552, -1, 2.1533, 12.1984, 20.2061, 15.0013, 94.5636, -100.379
1.556, -1, 2.05181, 12.1471, 20.2303, 15.0125, 94.5097, -100.515
1.56, -1, 1.95034, 12.0959, 20.2544, 15.0237, 94.4559, -100.651
1.564, -1, 1.8489, 12.0446, 20.2786, 15.0349, 94.4021, -100.787
1.568, -1, 1.74748, 11.9934, 20.3028, 15.0462, 94.3483, -100.923
1.572, -1, 1.64607, 11.9422, 20.3269, 15.0574, 94.2945, -101.059
1.576, -1, 1.5447, 11.891, 20.3511, 15.0686, 94.2407, -101.196
1.58, -1, 1.44334, 11.8398, 20.3752, 15.0798, 94.187, -101.332
1.584, -1, 1.34201, 11.7886, 20.3994, 15.091, 94.1332, -101.468
1.588, -1, 1.2407, 11.7375, 20.4235, 15.1023, 94.0795, -101.604
1.592, -1, 1.13941, 11.6863, 20.4476, 15.1135, 94.0257, -101.739
1.596, -1, 1.03815, 11.6352, 20.4718, 15.1247, 93.972, -101.875
1.6, -1, 0.936907, 11.584, 20.4959, 15.1359, 93.9183, -102.011
1.604, -1, 0.835689, 11.5329, 20.52, 15.1471, 93.8646, -102.147
1.608, -1, 0.734496, 11.4818, 20.5441, 15.1583, 93.8109, -102.283
1.612, -1, 0.633326, 11.4307, 20.5682, 15.1695, 93.7573, -102.419
1.616, -1, 0.53218, 11.3796, 20.5923, 15.1807, 93.7036, -102.554
1.62, -1, 0.431057, 11.3286, 20.6164, 15.1919, 93.65, -102.69
1.624, -1, 0.329958, 11.2775, 20.6405, 15.2031, 93.5964, -102.826
1.628, -1, 0.228882, 11.2264, 20.6646, 15.2142, 93.5427, -102.961
1.632, -1, 0.127831, 11.1754, 20.6886, 15.2254, 93.4891, -103.097
1.636, -1, 0.0268034, 11.1244, 20.7127, 15.2366, 93.4355, -103.233
1.64, -1, -0.0742001, 11.0734, 20.7368, 15.2478, 93.382, -103.368
1.644, -1, -0.175179, 11.0224, 20.7608, 15.259, 93.3284, -103.504
1.648, -1, -0.276135, 10.9714, 20.7849, 15.2701, 93.2748, -103.639
1.652, -1, -0.377065, 10.9204, 20.8089, 15.2813, 93.2213, -103.775
1.656, -1, -0.477972, 10.8695, 20.833, 15.2925, 93.1678, -103.91
1.66, -1, -0.578853, 10.8185, 20.857, 15.3036, 93.1143, -104.046
1.664, -1, -0.679711, 10.7676, 20.881, 15.3148, 93.0608, -104.181
1.668, -1, -0.780543, 10.7167, 20.905, 15.326, 93.0073, -104.316
1.672, -1, -0.881351, 10.6657, 20.9291, 15.3371, 92.9538, -104.451
1.676, -1, -0.982134, 10.6148, 20.9531, 15.3483, 92.9003, -104.587
1.68, -1, -1.08289, 10.564, 20.9771, 15.3594, 92.8469, -104.722
1.684, -1, -1.18363, 10.5131, 21.0011, 15.3706, 92.7935, -104.857
1.688, -1, -1.28433, 10.4622, 21.0251, 15.3817, 92.74, -104.992
1.692, -1, -1.38502, 10.4114, 21.0491, 15.3929, 92.6866, -105.127
1.696, -1, -1.48568, 10.3605, 21.073, 15.404, 92.6332, -105.263
1.7, -1, -1.58631, 10.3097, 21.097, 15.4151, 92.5799, -105.398
1.704, -1, -1.68692, 10.2589, 21.121, 15.4263, 92.5265, -105.533
1.708, -1, -1.7875, 10.2081, 21.1449, 15.4374, 92.4731, -105.668
1.712, -1, -1.88806, 10.1573, 21.1689, 15.4485, 92.4198, -105.803
1.716, -1, -1.98859, 10.1066, 21.1929, 15.4597, 92.3665, -105.938
1.72, -1, -2.0891, 10.0558, 21.2168, 15.4708, 92.3131, -106.072
1.724, -1, -2.18958, 10.005, 21.2407, 15.4819, 92.2598, -106.207
1.728, -1, -2.29003, 9.95431, 21.2647, 15.493, 92.2066, -106.342
1.732, -1, -2.39046, 9.90359, 21.2886, 15.5041, 92.1533, -106.477
1.736, -1, -2.49086, 9.85288, 21.3125, 15.5152, 92.1, -106.612
1.74, -1, -2.59124, 9.80219, 21.3364, 15.5263, 92.0468, -106.746
1.744, -1, -2.69159, 9.75151, 21.3603, 15.5375, 91.9935, -106.881
1.748, -1, -2.79192, 9.70084, 21.3842, 15.5486, 91.9403, -107.016
1.752, -1, -2.89222, 9.65019, 21.4081, 15.5597, 91.8871, -107.15
1.756, -1, -2.99249, 9.59955, 21.432, 15.5708, 91.8339, -107.285
1.76, -1, -3.09274, 9.54892, 21.4559, 15.5818, 91.7807, -107.419
1.764, -1, -3.19296, 9.4983, 21.4798, 15.5929, 91.7276, -107.554
1.768, -1, -3.29316, 9.4477, 21.5037, 15.604, 91.6744, -107.688
1.772, -1, -3.39332, 9.39711, 21.5275, 15.6151, 91.6213, -107.823
1.776, -1, -3.49347, 9.34654, 21.5514, 15.6262, 91.5682, -107.957
1.78, -1, -3.59358, 9.29598, 21.5752, 15.6373, 91.5151, -108.092
1.784, -1, -3.69367, 9.24543, 21.5991, 15.6484, 91.462, -108.226
1.788, -1, -3.79373, 9.19489, 21.6229, 15.6594, 91.4089, -108.36
1.792, -1, -3.89377, 9.14437, 21.6467, 15.6705, 91.3558, -108.494
1.796, -1, -3.99377, 9.09387, 21.6706, 15.6816, 91.3028, -108.629
1.8, -1, -4.09375, 9.04337, 21.6944, 15.6926, 91.2498, -108.763
1.804, -1, -4.19371, 8.99289, 21.7182, 15.7037, 91.1967, -108.897
1.808, -1, -4.29364, 8.94243, 21.742, 15.7148, 91.1437, -109.031
1.812, -1, -4.39354, 8.89197, 21.7658, 15.7258, 91.0907, -109.165
1.816, -1, -4.49341, 8.84153, 21.7896, 15.7369, 91.0378, -109.299
1.82, -1, -4.59325, 8.79111, 21.8134, 15.7479, 90.9848, -109.433
1.824, -1, -4.69307, 8.7407, 21.8372, 15.759, 90.9318, -109.567
1.828, -1, -4.79286, 8.6903, 21.8609, 15.77, 90.8789, -109.701
1.832, -1, -4.89263, 8.63992, 21.8847, 15.781, 90.826, -109.835
1.836, -1, -4.99236, 8.58955, 21.9085, 15.7921, 90.7731, -109.969
1.84, -1, -5.09207, 8.53919, 21.9322, 15.8031, 90.7202, -110.103
1.844, -1, -5.19175, 8.48885, 21.956, 15.8141, 90.6673, -110.236
1.848, -1, -5.2914, 8.43852, 21.9797, 15.8252, 90.6145, -110.37
1.852, -1, -5.39103, 8.38821, 22.0035, 15.8362, 90.5616, -110.504
1.856, -1, -5.49062, 8.33791, 22.0272, 15.8472, 90.5088, -110.638
1.86, -1, -5.59019, 8.28762, 22.0509, 15.8582, 90.456, -110.771
1.864, -1, -5.68973, 8.23735, 22.0746, 15.8693, 90.4032, -110.905
1.868, -1, -5.78925, 8.18709, 22.0983, 15.8803, 90.3504, -111.038
1.872, -1, -5.88873, 8.13685, 22.122, 15.8913, 90.2976, -111.172
1.876, -1, -5.98819, 8.08662, 22.1457, 15.9023, 90.2448, -111.305
1.88, -1, -6.08761, 8.03641, 22.1694, 15.9133, 90.1921, -111.439
1.884, -1, -6.18701, 7.98621, 22.1931, 15.9243, 90.1394, -111.572
1.888, -1, -6.28639, 7.93602, 22.2168, 15.9353, 90.0867, -111.705
1.892, -1, -6.38573, 7.88585, 22.2404, 15.9463, 90.034, -111.839
1.896, -1, -6.48504, 7.8357, 22.2641, 15.9573, 89.9813, -111.972
1.9, -1, -6.58433, 7.78555, 22.2877, 15.9683, 89.9286, -112.105
1.904, -1, -6.68358, 7.73542, 22.3114, 15.9793, 89.876, -112.239
1.908, -1, -6.78281, 7.68531, 22.335, 15.9902, 89.8233, -112.372
1.912, -1, -6.88201, 7.63521, 22.3587, 16.0012, 89.7707, -112.505
1.916, -1, -6.98118, 7.58513, 22.3823, 16.0122, 89.7181, -112.638
1.92, -1, -7.08032, 7.53506, 22.4059, 16.0232, 89.6655, -112.771
1.924, -1, -7.17944, 7.485, 22.4295, 16.0341, 89.6129, -112.904
1.928, -1, -7.27852, 7.43496, 22.4531, 16.0451, 89.5604, -113.037
1.932, -1, -7.37757, 7.38494, 22.4767, 16.0561, 89.5078, -113.17
1.936, -1, -7.4766, 7.33493, 22.5003, 16.067, 89.4553, -113.303
1.94, -1, -7.5756, 7.28493, 22.5239, 16.078, 89.4028, -113.436
1.944, -1, -7.67456, 7.23495, 22.5475, 16.0889, 89.3503, -113.569
1.948, -1, -7.7735, 7.18498, 22.571, 16.0999, 89.2978, -113.701
1.952, -1, -7.87241, 7.13503, 22.5946, 16.1108, 89.2454, -113.834
1.956, -1, -7.97129, 7.08509, 22.6182, 16.1218, 89.1929, -113.967
1.96, -1, -8.07014, 7.03517, 22.6417, 16.1327, 89.1405, -114.099
1.964, -1, -8.16896, 6.98527, 22.6653, 16.1436, 89.088, -114.232
1.968, -1, -8.26775, 6.93537, 22.6888, 16.1546, 89.0356, -114.365
1.972, -1, -8.36652, 6.8855, 22.7123, 16.1655, 88.9832, -114.497
1.976, -1, -8.46525, 6.83563, 22.7358, 16.1764, 88.9309, -114.63
1.98, -1, -8.56395, 6.78579, 22.7594, 16.1874, 88.8785, -114.762
1.984, -1, -8.66263, 6.73595, 22.7829, 16.1983, 88.8262, -114.895
1.988, -1, -8.76127, 6.68613, 22.8064, 16.2092, 88.7738, -115.027
1.992, -1, -8.85989, 6.63633, 22.8299, 16.2201, 88.7215, -115.159
1.996, -1, -8.95847, 6.58654, 22.8533, 16.231, 88.6692, -115.292
1.999, -1, -9.05703, 6.53677, 22.8768, 16.2419, 88.617, -115.424
2.004, -1, -9.15556, 6.48701, 22.9003, 16.2528, 88.5647, -115.556
2.008, -1, -9.25405, 6.43727, 22.9238, 16.2637, 88.5125, -115.688
2.012, -1, -9.35252, 6.38754, 22.9472, 16.2746, 88.4602, -115.82
2.015, -1, -9.45096, 6.33782, 22.9707, 16.2855, 88.408, -115.953
2.019, -1, -9.54937, 6.28813, 22.9941, 16.2964, 88.3558, -116.085
2.024, -1, -9.64775, 6.23844, 23.0176, 16.3073, 88.3036, -116.217
2.028, -1, -9.74609, 6.18877, 23.041, 16.3182, 88.2515, -116.349
2.031, -1, -9.84441, 6.13912, 23.0644, 16.3291, 88.1993, -116.481
2.036, -1, -9.9427, 6.08948, 23.0878, 16.3399, 88.1472, -116.613
2.04, -1, -10.041, 6.03986, 23.1112, 16.3508, 88.095, -116.744
2.044, -1, -10.1392, 5.99025, 23.1346, 16.3617, 88.0429, -116.876
2.048, -1, -10.2374, 5.94065, 23.158, 16.3726, 87.9908, -117.008
2.051, -1, -10.3356, 5.89107, 23.1814, 16.3834, 87.9388, -117.14
2.055, -1, -10.4337, 5.84151, 23.2048, 16.3943, 87.8867, -117.271
2.06, -1, -10.5318, 5.79196, 23.2282, 16.4051, 87.8347, -117.403
2.064, -1, -10.6299, 5.74243, 23.2515, 16.416, 87.7826, -117.535
2.068, -1, -10.728, 5.69291, 23.2749, 16.4268, 87.7306, -117.666
2.071, -1, -10.826, 5.6434, 23.2983, 16.4377, 87.6786, -117.798
2.076, -1, -10.924, 5.59392, 23.3216, 16.4485, 87.6266, -117.929
2.08, -1, -11.0219, 5.54444, 23.3449, 16.4594, 87.5747, -118.061
2.084, -1, -11.1199, 5.49498, 23.3683, 16.4702, 87.5227, -118.192
2.087, -1, -11.2178, 5.44554, 23.3916, 16.4811, 87.4708, -118.324
2.092, -1, -11.3156, 5.39611, 23.4149, 16.4919, 87.4189, -118.455
2.096, -1, -11.4135, 5.3467, 23.4382, 16.5027, 87.367, -118.586
2.1, -1, -11.5113, 5.2973, 23.4615, 16.5135, 87.3151, -118.718
2.104, -1, -11.6091, 5.24792, 23.4848, 16.5244, 87.2632, -118.849
2.107, -1, -11.7068, 5.19855, 23.5081, 16.5352, 87.2114, -118.98
2.111, -1, -11.8045, 5.1492, 23.5314, 16.546, 87.1595, -119.111
2.116, -1, -11.9022, 5.09986, 23.5547, 16.5568, 87.1077, -119.242
2.12, -1, -11.9999, 5.05054, 23.5779, 16.5676, 87.0559, -119.373
2.124, -1, -12.0975, 5.00123, 23.6012, 16.5784, 87.0041, -119.504
2.127, -1, -12.1951, 4.95194, 23.6244, 16.5892, 86.9524, -119.635
2.132, -1, -12.2927, 4.90267, 23.6477, 16.6, 86.9006, -119.766
2.136, -1, -12.3902, 4.85341, 23.6709, 16.6108, 86.8489, -119.897
2.14, -1, -12.4878, 4.80416, 23.6942, 16.6216, 86.7971, -120.028
2.143, -1, -12.5852, 4.75493, 23.7174, 16.6324, 86.7454, -120.159
2.148, -1, -12.6827, 4.70572, 23.7406, 16.6432, 86.6937, -120.29
2.152, -1, -12.7801, 4.65652, 23.7638, 16.654, 86.6421, -120.42
2.156, -1, -12.8775, 4.60733, 23.787, 16.6647, 86.5904, -120.551
2.16, -1, -12.9748, 4.55817, 23.8102, 16.6755, 86.5388, -120.682
2.163, -1, -13.0722, 4.50901, 23.8334, 16.6863, 86.4871, -120.812
2.168, -1, -13.1695, 4.45987, 23.8566, 16.6971, 86.4355, -120.943
2.172, -1, -13.2667, 4.41075, 23.8797, 16.7078, 86.3839, -121.074
2.176, -1, -13.364, 4.36165, 23.9029, 16.7186, 86.3323, -121.204
2.179, -1, -13.4612, 4.31255, 23.9261, 16.7293, 86.2808, -121.335
2.184, -1, -13.5584, 4.26348, 23.9492, 16.7401, 86.2292, -121.465
2.188, -1, -13.6555, 4.21442, 23.9724, 16.7508, 86.1777, -121.595
2.192, -1, -13.7526, 4.16537, 23.9955, 16.7616, 86.1262, -121.726
2.196, -1, -13.8497, 4.11634, 24.0186, 16.7723, 86.0747, -121.856
2.199, -1, -13.9468, 4.06733, 24.0417, 16.7831, 86.0232, -121.986
2.204, -1, -14.0438, 4.01833, 24.0649, 16.7938, 85.9717, -122.116
2.208, -1, -14.1408, 3.96935, 24.088, 16.8045, 85.9203, -122.247
2.212, -1, -14.2377, 3.92038, 24.1111, 16.8153, 85.8689, -122.377
2.216, -1, -14.3347, 3.87143, 24.1341, 16.826, 85.8175, -122.507
2.219, -1, -14.4316, 3.82249, 24.1572, 16.8367, 85.7661, -122.637
2.224, -1, -14.5284, 3.77357, 24.1803, 16.8474, 85.7147, -122.767
2.228, -1, -14.6253, 3.72466, 24.2034, 16.8582, 85.6633, -122.897
2.232, -1, -14.7221, 3.67577, 24.2264, 16.8689, 85.6119, -123.027
2.235, -1, -14.8188, 3.6269, 24.2495, 16.8796, 85.5606, -123.157
2.24, -1, -14.9156, 3.57804, 24.2725, 16.8903, 85.5093, -123.286
2.244, -1, -15.0123, 3.5292, 24.2956, 16.901, 85.458, -123.416
2.248, -1, -15.109, 3.48037, 24.3186, 16.9117, 85.4067, -123.546
2.252, -1, -15.2056, 3.43156, 24.3416, 16.9224, 85.3554, -123.676
2.255, -1, -15.3023, 3.38276, 24.3647, 16.9331, 85.3042, -123.805
2.259, -1, -15.3989, 3.33398, 24.3877, 16.9438, 85.253, -123.935
2.264, -1, -15.4954, 3.28521, 24.4107, 16.9545, 85.2017, -124.065
2.268, -1, -15.5919, 3.23646, 24.4337, 16.9651, 85.1505, -124.194
2.272, -1, -15.6884, 3.18773, 24.4567, 16.9758, 85.0993, -124.324
2.275, -1, -15.7849, 3.13901, 24.4797, 16.9865, 85.0482, -124.453
2.28, -1, -15.8813, 3.09031, 24.5026, 16.9972, 84.997, -124.583
2.284, -1, -15.9777, 3.04162, 24.5256, 17.0078, 84.9459, -124.712
2.288, -1, -16.0741, 2.99295, 24.5486, 17.0185, 84.8948, -124.841
2.291, -1, -16.1705, 2.9443, 24.5715, 17.0292, 84.8437, -124.971
2.296, -1, -16.2668, 2.89566, 24.5944, 17.0398, 84.7926, -125.1
2.3, -1, -16.3631, 2.84703, 24.6174, 17.0505, 84.7415, -125.229
2.304, -1, -16.4593, 2.79843, 24.6403, 17.0611, 84.6904, -125.358
2.308, -1, -16.5555, 2.74983, 24.6632, 17.0718, 84.6394, -125.487
2.311, -1, -16.6517, 2.70126, 24.6862, 17.0824, 84.5884, -125.616
2.316, -1, -16.7479, 2.6527, 24.7091, 17.0931, 84.5374, -125.745
2.32, -1, -16.844, 2.60415, 24.732, 17.1037, 84.4864, -125.874
2.324, -1, -16.9401, 2.55562, 24.7549, 17.1143, 84.4354, -126.003
2.328, -1, -17.0362, 2.50711, 24.7777, 17.125, 84.3845, -126.132
2.331, -1, -17.1322, 2.45861, 24.8006, 17.1356, 84.3335, -126.261
2.336, -1, -17.2282, 2.41012, 24.8235, 17.1462, 84.2826, -126.39
2.34, -1, -17.3242, 2.36165, 24.8463, 17.1568, 84.2317, -126.519
2.344, -1, -17.4201, 2.3132, 24.8692, 17.1675, 84.1808, -126.648
2.347, -1, -17.516, 2.26476, 24.8921, 17.1781, 84.1299, -126.776
2.352, -1, -17.6119, 2.21634, 24.9149, 17.1887, 84.0791, -126.905
2.356, -1, -17.7078, 2.16794, 24.9377, 17.1993, 84.0282, -127.034
2.36, -1, -17.8036, 2.11955, 24.9606, 17.2099, 83.9774, -127.162
2.364, -1, -17.8994, 2.07117, 24.9834, 17.2205, 83.9266, -127.291
2.367, -1, -17.9951, 2.02281, 25.0062, 17.2311, 83.8758, -127.419
2.372, -1, -18.0909, 1.97447, 25.029, 17.2417, 83.825, -127.548
2.376, -1, -18.1866, 1.92614, 25.0518, 17.2523, 83.7742, -127.676
2.38, -1, -18.2822, 1.87782, 25.0746, 17.2629, 83.7235, -127.805
2.383, -1, -18.3779, 1.82952, 25.0974, 17.2735, 83.6728, -127.933
2.388, -1, -18.4735, 1.78124, 25.1201, 17.284, 83.6221, -128.061
2.392, -1, -18.569, 1.73297, 25.1429, 17.2946, 83.5714, -128.189
2.396, -1, -18.6646, 1.68472, 25.1657, 17.3052, 83.5207, -128.318
2.4, -1, -18.7601, 1.63648, 25.1884, 17.3158, 83.47, -128.446
2.403, -1, -18.8556, 1.58826, 25.2112, 17.3263, 83.4194, -128.574
2.408, -1, -18.951, 1.54005, 25.2339, 17.3369, 83.3687, -128.702
2.412, -1, -19.0465, 1.49186, 25.2567, 17.3474, 83.3181, -128.83
2.416, -1, -19.1418, 1.44369, 25.2794, 17.358, 83.2675, -128.958
2.42, -1, -19.2372, 1.39553, 25.3021, 17.3686, 83.2169, -129.086
2.423, -1, -19.3325, 1.34739, 25.3248, 17.3791, 83.1664, -129.214
2.428, -1, -19.4278, 1.29926, 25.3475, 17.3897, 83.1158, -129.342
2.432, -1, -19.5231, 1.25114, 25.3702, 17.4002, 83.0653, -129.47
2.436, -1, -19.6184, 1.20304, 25.3929, 17.4107, 83.0148, -129.598
2.439, -1, -19.7136, 1.15496, 25.4156, 17.4213, 82.9643, -129.725
2.444, -1, -19.8087, 1.10689, 25.4383, 17.4318, 82.9138, -129.853
2.448, -1, -19.9039, 1.05884, 25.4609, 17.4423, 82.8633, -129.981
2.452, -1, -19.999, 1.0108, 25.4836, 17.4529, 82.8128, -130.109
2.456, -1, -20.0941, 0.96278, 25.5062, 17.4634, 82.7624, -130.236
2.459, -1, -20.1892, 0.914774, 25.5289, 17.4739, 82.712, -130.364
2.464, -1, -20.2842, 0.866782, 25.5515, 17.4844, 82.6616, -130.491
2.468, -1, -20.3792, 0.818806, 25.5742, 17.4949, 82.6112, -130.619
2.472, -1, -20.4742, 0.770845, 25.5968, 17.5054, 82.5608, -130.746
2.476, -1, -20.5691, 0.7229, 25.6194, 17.516, 82.5104, -130.874
2.479, -1, -20.664, 0.674969, 25.642, 17.5265, 82.4601, -131.001
2.484, -1, -20.7589, 0.627054, 25.6646, 17.537, 82.4098, -131.128
2.488, -1, -20.8537, 0.579155, 25.6872, 17.5475, 82.3595, -131.256
2.492, -1, -20.9485, 0.53127, 25.7098, 17.5579, 82.3092, -131.383
2.495, -1, -21.0433, 0.483401, 25.7324, 17.5684, 82.2589, -131.51
2.5, -1, -21.1381, 0.435547, 25.7549, 17.5789, 82.2086, -131.637
2.504, -1, -21.2328, 0.387708, 25.7775, 17.5894, 82.1584, -131.764
2.508, -1, -21.3275, 0.339885, 25.8001, 17.5999, 82.1082, -131.891
2.512, -1, -21.4222, 0.292077, 25.8226, 17.6104, 82.0579, -132.019
2.515, -1, -21.5168, 0.244284, 25.8452, 17.6208, 82.0077, -132.146
2.52, -1, -21.6114, 0.196506, 25.8677, 17.6313, 81.9576, -132.272
2.524, -1, -21.706, 0.148743, 25.8902, 17.6418, 81.9074, -132.399
2.528, -1, -21.8005, 0.100996, 25.9128, 17.6522, 81.8572, -132.526
2.531, -1, -21.895, 0.0532642, 25.9353, 17.6627, 81.8071, -132.653
2.536, -1, -21.9895, 0.00554738, 25.9578, 17.6732, 81.757, -132.78
2.54, -1, -22.084, -0.0421542, 25.9803, 17.6836, 81.7069, -132.907
2.544, -1, -22.1784, -0.0898406, 26.0028, 17.6941, 81.6568, -133.033
2.548, -1, -22.2728, -0.137512, 26.0253, 17.7045, 81.6067, -133.16
2.551, -1, -22.3672, -0.185168, 26.0478, 17.7149, 81.5567, -133.287
2.556, -1, -22.4615, -0.232808, 26.0702, 17.7254, 81.5066, -133.413
2.56, -1, -22.5558, -0.280434, 26.0927, 17.7358, 81.4566, -133.54
2.564, -1, -22.6501, -0.328044, 26.1152, 17.7463, 81.4066, -133.666
2.568, -1, -22.7443, -0.37564, 26.1376, 17.7567, 81.3566, -133.793
2.571, -1, -22.8385, -0.42322, 26.1601, 17.7671, 81.3066, -133.919
2.576, -1, -22.9327, -0.470784, 26.1825, 17.7775, 81.2567, -134.046
2.58, -1, -23.0269, -0.518334, 26.2049, 17.788, 81.2067, -134.172
2.584, -1, -23.121, -0.565869, 26.2273, 17.7984, 81.1568, -134.298
2.587, -1, -23.2151, -0.613388, 26.2498, 17.8088, 81.1069, -134.425
2.592, -1, -23.3091, -0.660892, 26.2722, 17.8192, 81.057, -134.551
2.596, -1, -23.4032, -0.708381, 26.2946, 17.8296, 81.0071, -134.677
2.6, -1, -23.4972, -0.755855, 26.317, 17.84, 80.9573, -134.803
2.604, -1, -23.5912, -0.803314, 26.3394, 17.8504, 80.9074, -134.929
2.607, -1, -23.6851, -0.850757, 26.3617, 17.8608, 80.8576, -135.055
2.612, -1, -23.779, -0.898186, 26.3841, 17.8712, 80.8078, -135.182
2.616, -1, -23.8729, -0.945599, 26.4065, 17.8816, 80.758, -135.307
2.62, -1, -23.9668, -0.992997, 26.4288, 17.892, 80.7082, -135.433
2.624, -1, -24.0606, -1.04038, 26.4512, 17.9024, 80.6584, -135.559
2.627, -1, -24.1544, -1.08775, 26.4735, 17.9127, 80.6087, -135.685
2.632, -1, -24.2481, -1.1351, 26.4959, 17.9231, 80.5589, -135.811
2.636, -1, -24.3419, -1.18244, 26.5182, 17.9335, 80.5092, -135.937
2.64, -1, -24.4356, -1.22976, 26.5405, 17.9439, 80.4595, -136.063
2.643, -1, -24.5292, -1.27707, 26.5628, 17.9542, 80.4098, -136.188
2.648, -1, -24.6229, -1.32436, 26.5851, 17.9646, 80.3601, -136.314
2.652, -1, -24.7165, -1.37164, 26.6074, 17.9749, 80.3105, -136.44
2.656, -1, -24.8101, -1.4189, 26.6297, 17.9853, 80.2608, -136.565
2.66, -1, -24.9037, -1.46615, 26.652, 17.9957, 80.2112, -136.691
2.663, -1, -24.9972, -1.51338, 26.6743, 18.006, 80.1616, -136.816
2.668, -1, -25.0907, -1.5606, 26.6966, 18.0164, 80.112, -136.942
2.672, -1, -25.1841, -1.6078, 26.7189, 18.0267, 80.0624, -137.067
2.676, -1, -25.2776, -1.65499, 26.7411, 18.037, 80.0129, -137.193
2.679, -1, -25.371, -1.70217, 26.7634, 18.0474, 79.9633, -137.318
2.684, -1, -25.4644, -1.74933, 26.7856, 18.0577, 79.9138, -137.443
2.688, -1, -25.5577, -1.79647, 26.8078, 18.068, 79.8643, -137.569
2.692, -1, -25.651, -1.8436, 26.8301, 18.0784, 79.8148, -137.694
2.696, -1, -25.7443, -1.89071, 26.8523, 18.0887, 79.7653, -137.819
2.699, -1, -25.8376, -1.93781, 26.8745, 18.099, 79.7158, -137.944
2.704, -1, -25.9308, -1.9849, 26.8967, 18.1093, 79.6664, -138.069
2.708, -1, -26.024, -2.03197, 26.9189, 18.1196, 79.6169, -138.194
2.712, -1, -26.1172, -2.07903, 26.9411, 18.13, 79.5675, -138.319
2.716, -1, -26.2104, -2.12607, 26.9633, 18.1403, 79.5181, -138.444
2.719, -1, -26.3035, -2.1731, 26.9855, 18.1506, 79.4687, -138.569
2.724, -1, -26.3966, -2.22011, 27.0077, 18.1609, 79.4193, -138.694
2.728, -1, -26.4896, -2.26711, 27.0299, 18.1712, 79.3699, -138.819
2.732, -1, -26.5827, -2.31409, 27.052, 18.1815, 79.3206, -138.944
2.735, -1, -26.6757, -2.36106, 27.0742, 18.1918, 79.2713, -139.069
2.74, -1, -26.7687, -2.40801, 27.0963, 18.202, 79.2219, -139.194
2.744, -1, -26.8616, -2.45495, 27.1185, 18.2123, 79.1726, -139.318
2.748, -1, -26.9545, -2.50188, 27.1406, 18.2226, 79.1234, -139.443
2.752, -1, -27.0474, -2.54879, 27.1627, 18.2329, 79.0741, -139.568
2.755, -1, -27.1403, -2.59569, 27.1849, 18.2432, 79.0248, -139.692
2.76, -1, -27.2331, -2.64257, 27.207, 18.2534, 78.9756, -139.817
2.764, -1, -27.3259, -2.68944, 27.2291, 18.2637, 78.9264, -139.942
2.768, -1, -27.4187, -2.7363, 27.2512, 18.274, 78.8771, -140.066
2.772, -1, -27.5114, -2.78314, 27.2733, 18.2843, 78.8279, -140.191
2.775, -1, -27.6042, -2.82996, 27.2954, 18.2945, 78.7788, -140.315
2.78, -1, -27.6968, -2.87677, 27.3175, 18.3048, 78.7296, -140.439
2.784, -1, -27.7895, -2.92357, 27.3395, 18.315, 78.6804, -140.564
2.788, -1, -27.8821, -2.97035, 27.3616, 18.3253, 78.6313, -140.688
2.791, -1, -27.9747, -3.01712, 27.3837, 18.3355, 78.5822, -140.812
2.796, -1, -28.0673, -3.06388, 27.4057, 18.3458, 78.5331, -140.937
2.8, -1, -28.1599, -3.11062, 27.4278, 18.356, 78.484, -141.061
2.804, -1, -28.2524, -3.15734, 27.4498, 18.3663, 78.4349, -141.185
2.808, -1, -28.3449, -3.20405, 27.4718, 18.3765, 78.3858, -141.309
2.811, -1, -28.4374, -3.25075, 27.4939, 18.3867, 78.3368, -141.433
2.816, -1, -28.5298, -3.29744, 27.5159, 18.397, 78.2878, -141.557
2.82, -1, -28.6222, -3.34411, 27.5379, 18.4072, 78.2387, -141.681
2.824, -1, -28.7146, -3.39076, 27.5599, 18.4174, 78.1897, -141.805
2.828, -1, -28.8069, -3.4374, 27.5819, 18.4276, 78.1408, -141.929
2.831, -1, -28.8993, -3.48403, 27.6039, 18.4378, 78.0918, -142.053
2.836, -1, -28.9916, -3.53064, 27.6259, 18.4481, 78.0428, -142.177
2.84, -1, -29.0838, -3.57724, 27.6479, 18.4583, 77.9939, -142.301
2.844, -1, -29.1761, -3.62383, 27.6699, 18.4685, 77.9449, -142.425
2.847, -1, -29.2683, -3.6704, 27.6918, 18.4787, 77.896, -142.548
2.852, -1, -29.3605, -3.71695, 27.7138, 18.4889, 77.8471, -142.672
2.856, -1, -29.4527, -3.7635, 27.7357, 18.4991, 77.7982, -142.796
2.86, -1, -29.5448, -3.81003, 27.7577, 18.5093, 77.7494, -142.919
2.864, -1, -29.6369, -3.85654, 27.7796, 18.5195, 77.7005, -143.043
2.867, -1, -29.729, -3.90304, 27.8016, 18.5297, 77.6517, -143.167
2.872, -1, -29.821, -3.94953, 27.8235, 18.5399, 77.6028, -143.29
2.876, -1, -29.913, -3.996, 27.8454, 18.55, 77.554, -143.414
2.88, -1, -30.005, -4.04246, 27.8673, 18.5602, 77.5052, -143.537
2.883, -1, -30.097, -4.08891, 27.8893, 18.5704, 77.4565, -143.66
2.888, -1, -30.1889, -4.13534, 27.9112, 18.5806, 77.4077, -143.784
2.892, -1, -30.2808, -4.18176, 27.9331, 18.5907, 77.3589, -143.907
2.896, -1, -30.3727, -4.22816, 27.9549, 18.6009, 77.3102, -144.03
2.9, -1, -30.4646, -4.27455, 27.9768, 18.6111, 77.2615, -144.154
2.903, -1, -30.5564, -4.32093, 27.9987, 18.6212, 77.2128, -144.277
2.908, -1, -30.6482, -4.36729, 28.0206, 18.6314, 77.1641, -144.4
2.912, -1, -30.74, -4.41364, 28.0424, 18.6416, 77.1154, -144.523
2.916, -1, -30.8317, -4.45997, 28.0643, 18.6517, 77.0667, -144.647
2.92, -1, -30.9235, -4.5063, 28.0861, 18.6619, 77.0181, -144.77
2.923, -1, -31.0152, -4.5526, 28.108, 18.672, 76.9694, -144.893
2.928, -1, -31.1068, -4.5989, 28.1298, 18.6821, 76.9208, -145.016
2.932, -1, -31.1985, -4.64518, 28.1517, 18.6923, 76.8722, -145.139
2.936, -1, -31.2901, -4.69144, 28.1735, 18.7024, 76.8236, -145.262
2.939, -1, -31.3817, -4.7377, 28.1953, 18.7126, 76.775, -145.385
2.944, -1, -31.4732, -4.78393, 28.2171, 18.7227, 76.7265, -145.507
2.948, -1, -31.5647, -4.83016, 28.2389, 18.7328, 76.6779, -145.63
2.952, -1, -31.6562, -4.87637, 28.2607, 18.743, 76.6294, -145.753
2.956, -1, -31.7477, -4.92257, 28.2825, 18.7531, 76.5808, -145.876
2.959, -1, -31.8392, -4.96875, 28.3043, 18.7632, 76.5323, -145.999
2.964, -1, -31.9306, -5.01492, 28.3261, 18.7733, 76.4838, -146.121
2.968, -1, -32.022, -5.06108, 28.3479, 18.7834, 76.4354, -146.244
2.972, -1, -32.1134, -5.10722, 28.3696, 18.7935, 76.3869, -146.366
2.976, -1, -32.2047, -5.15335, 28.3914, 18.8036, 76.3384, -146.489
2.98, -1, -32.296, -5.19947, 28.4131, 18.8138, 76.29, -146.612
2.984, -1, -32.3873, -5.24557, 28.4349, 18.8239, 76.2416, -146.734
2.988, -1, -32.4786, -5.29166, 28.4566, 18.834, 76.1932, -146.857
2.992, -1, -32.5698, -5.33774, 28.4784, 18.8441, 76.1448, -146.979
2.995, -1, -32.661, -5.3838, 28.5001, 18.8541, 76.0964, -147.101
3, -1, -32.7522, -5.42985, 28.5218, 18.8642, 76.048, -147.224
3.004, -1, -32.8433, -5.47589, 28.5435, 18.8743, 75.9997, -147.346
3.008, -1, -32.9345, -5.52191, 28.5652, 18.8844, 75.9513, -147.468
3.012, -1, -33.0256, -5.56792, 28.5869, 18.8945, 75.903, -147.591
3.015, -1, -33.1166, -5.61391, 28.6086, 18.9046, 75.8547, -147.713
3.02, -1, -33.2077, -5.65989, 28.6303, 18.9146, 75.8064, -147.835
3.024, -1, -33.2987, -5.70586, 28.652, 18.9247, 75.7581, -147.957
3.028, -1, -33.3897, -5.75182, 28.6737, 18.9348, 75.7099, -148.079
3.031, -1, -33.4807, -5.79776, 28.6954, 18.9449, 75.6616, -148.201
3.036, -1, -33.5716, -5.84369, 28.717, 18.9549, 75.6134, -148.324
3.04, -1, -33.6625, -5.88961, 28.7387, 18.965, 75.5651, -148.446
3.044, -1, -33.7534, -5.93551, 28.7603, 18.975, 75.5169, -148.568
3.048, -1, -33.8443, -5.9814, 28.782, 18.9851, 75.4687, -148.689
3.051, -1, -33.9351, -6.02728, 28.8036, 18.9952, 75.4205, -148.811
3.056, -1, -34.026, -6.07314, 28.8253, 19.0052, 75.3724, -148.933
3.06, -1, -34.1168, -6.11899, 28.8469, 19.0153, 75.3242, -149.055
3.064, -1, -34.2075, -6.16483, 28.8685, 19.0253, 75.2761, -149.177
3.068, -1, -34.2983, -6.21066, 28.8901, 19.0353, 75.2279, -149.299
3.071, -1, -34.389, -6.25647, 28.9117, 19.0454, 75.1798, -149.42
3.076, -1, -34.4797, -6.30227, 28.9334, 19.0554, 75.1317, -149.542
3.08, -1, -34.5703, -6.34805, 28.955, 19.0654, 75.0836, -149.664
3.084, -1, -34.661, -6.39383, 28.9765, 19.0755, 75.0355, -149.785
3.087, -1, -34.7516, -6.43959, 28.9981, 19.0855, 74.9875, -149.907
3.092, -1, -34.8422, -6.48534, 29.0197, 19.0955, 74.9394, -150.029
3.096, -1, -34.9327, -6.53108, 29.0413, 19.1056, 74.8914, -150.15
3.1, -1, -35.0233, -6.5768, 29.0629, 19.1156, 74.8434, -150.272
3.104, -1, -35.1138, -6.62251, 29.0844, 19.1256, 74.7954, -150.393
3.107, -1, -35.2043, -6.66821, 29.106, 19.1356, 74.7474, -150.515
3.112, -1, -35.2947, -6.71389, 29.1275, 19.1456, 74.6994, -150.636
3.116, -1, -35.3852, -6.75957, 29.1491, 19.1556, 74.6514, -150.757
3.12, -1, -35.4756, -6.80523, 29.1706, 19.1656, 74.6034, -150.879
3.124, -1, -35.5659, -6.85088, 29.1921, 19.1756, 74.5555, -151
3.128, -1, -35.6563, -6.89651, 29.2137, 19.1856, 74.5076, -151.121
3.132, -1, -35.7466, -6.94213, 29.2352, 19.1956, 74.4596, -151.243
3.136, -1, -35.837, -6.98775, 29.2567, 19.2056, 74.4117, -151.364
3.14, -1, -35.9272, -7.03334, 29.2782, 19.2156, 74.3638, -151.485
3.143, -1, -36.0175, -7.07893, 29.2997, 19.2256, 74.316, -151.606
3.148, -1, -36.1078, -7.1245, 29.3212, 19.2356, 74.2681, -151.727
3.152, -1, -36.198, -7.17006, 29.3427, 19.2456, 74.2202, -151.848
3.156, -1, -36.2882, -7.21561, 29.3642, 19.2556, 74.1724, -151.969
3.16, -1, -36.3783, -7.26115, 29.3857, 19.2655, 74.1246, -152.09
3.163, -1, -36.4685, -7.30667, 29.4072, 19.2755, 74.0768, -152.211
3.168, -1, -36.5586, -7.35219, 29.4286, 19.2855, 74.029, -152.332
3.172, -1, -36.6487, -7.39769, 29.4501, 19.2955, 73.9812, -152.453
3.176, -1, -36.7387, -7.44317, 29.4716, 19.3054, 73.9334, -152.574
3.179, -1, -36.8288, -7.48865, 29.493, 19.3154, 73.8856, -152.695
3.184, -1, -36.9188, -7.53411, 29.5144, 19.3254, 73.8379, -152.816
3.188, -1, -37.0088, -7.57956, 29.5359, 19.3353, 73.7901, -152.936
3.192, -1, -37.0988, -7.625, 29.5573, 19.3453, 73.7424, -153.057
3.196, -1, -37.1887, -7.67043, 29.5788, 19.3552, 73.6947, -153.178
3.199, -1, -37.2787, -7.71584, 29.6002, 19.3652, 73.647, -153.299
3.204, -1, -37.3685, -7.76124, 29.6216, 19.3751, 73.5993, -153.419
3.208, -1, -37.4584, -7.80663, 29.643, 19.3851, 73.5516, -153.54
3.212, -1, -37.5483, -7.85201, 29.6644, 19.395, 73.504, -153.66
3.216, -1, -37.6381, -7.89738, 29.6858, 19.405, 73.4563, -153.781
3.22, -1, -37.7279, -7.94273, 29.7072, 19.4149, 73.4087, -153.901
3.224, -1, -37.8177, -7.98807, 29.7286, 19.4248, 73.3611, -154.022
3.228, -1, -37.9075, -8.0334, 29.75, 19.4348, 73.3135, -154.142
3.232, -1, -37.9972, -8.07872, 29.7714, 19.4447, 73.2659, -154.263
3.235, -1, -38.0869, -8.12403, 29.7927, 19.4546, 73.2183, -154.383
3.24, -1, -38.1766, -8.16932, 29.8141, 19.4645, 73.1707, -154.504
3.244, -1, -38.2662, -8.2146, 29.8355, 19.4745, 73.1231, -154.624
3.248, -1, -38.3559, -8.25987, 29.8568, 19.4844, 73.0756, -154.744
3.252, -1, -38.4455, -8.30513, 29.8782, 19.4943, 73.0281, -154.864
3.255, -1, -38.5351, -8.35038, 29.8995, 19.5042, 72.9805, -154.985
3.26, -1, -38.6247, -8.39561, 29.9208, 19.5141, 72.933, -155.105
3.264, -1, -38.7142, -8.44083, 29.9422, 19.524, 72.8855, -155.225
3.268, -1, -38.8037, -8.48605, 29.9635, 19.534, 72.838, -155.345
3.272, -1, -38.8932, -8.53125, 29.9848, 19.5439, 72.7906, -155.465
3.276, -1, -38.9827, -8.57643, 30.0061, 19.5538, 72.7431, -155.585
3.28, -1, -39.0721, -8.62161, 30.0275, 19.5637, 72.6957, -155.705
3.284, -1, -39.1616, -8.66677, 30.0488, 19.5736, 72.6482, -155.825
3.288, -1, -39.251, -8.71193, 30.0701, 19.5835, 72.6008, -155.945
3.291, -1, -39.3404, -8.75707, 30.0914, 19.5933, 72.5534, -156.065
3.296, -1, -39.4297, -8.8022, 30.1126, 19.6032, 72.506, -156.185
3.3, -1, -39.5191, -8.84731, 30.1339, 19.6131, 72.4586, -156.305
3.304, -1, -39.6084, -8.89242, 30.1552, 19.623, 72.4112, -156.425
3.308, -1, -39.6977, -8.93751, 30.1765, 19.6329, 72.3639, -156.545
3.312, -1, -39.7869, -8.98259, 30.1977, 19.6428, 72.3165, -156.665
3.316, -1, -39.8762, -9.02767, 30.219, 19.6526, 72.2692, -156.785
3.32, -1, -39.9654, -9.07272, 30.2403, 19.6625, 72.2218, -156.904
3.324, -1, -40.0546, -9.11777, 30.2615, 19.6724, 72.1745, -157.024
3.328, -1, -40.1438, -9.16281, 30.2828, 19.6823, 72.1272, -157.144
3.332, -1, -40.2329, -9.20783, 30.304, 19.6921, 72.0799, -157.263
3.336, -1, -40.322, -9.25285, 30.3252, 19.702, 72.0327, -157.383
3.34, -1, -40.4111, -9.29785, 30.3465, 19.7118, 71.9854, -157.502
3.344, -1, -40.5002, -9.34284, 30.3677, 19.7217, 71.9381, -157.622
3.347, -1, -40.5893, -9.38782, 30.3889, 19.7316, 71.8909, -157.742
3.352, -1, -40.6783, -9.43279, 30.4101, 19.7414, 71.8437, -157.861
3.356, -1, -40.7673, -9.47774, 30.4313, 19.7513, 71.7964, -157.981
3.36, -1, -40.8563, -9.52269, 30.4525, 19.7611, 71.7492, -158.1
3.364, -1, -40.9453, -9.56762, 30.4737, 19.771, 71.702, -158.219
3.368, -1, -41.0343, -9.61254, 30.4949, 19.7808, 71.6549, -158.339
3.372, -1, -41.1232, -9.65745, 30.5161, 19.7906, 71.6077, -158.458
3.376, -1, -41.2121, -9.70235, 30.5373, 19.8005, 71.5605, -158.577
3.38, -1, -41.301, -9.74724, 30.5584, 19.8103, 71.5134, -158.697
3.383, -1, -41.3898, -9.79212, 30.5796, 19.8202, 71.4662, -158.816
3.388, -1, -41.4787, -9.83699, 30.6008, 19.83, 71.4191, -158.935
3.392, -1, -41.5675, -9.88184, 30.6219, 19.8398, 71.372, -159.054
3.396, -1, -41.6563, -9.92668, 30.6431, 19.8496, 71.3249, -159.174
3.4, -1, -41.7451, -9.97152, 30.6642, 19.8595, 71.2778, -159.293
3.403, -1, -41.8338, -10.0163, 30.6854, 19.8693, 71.2307, -159.412
3.408, -1, -41.9225, -10.0612, 30.7065, 19.8791, 71.1837, -159.531
3.412, -1, -42.0112, -10.1059, 30.7277, 19.8889, 71.1366, -159.65
3.416, -1, -42.0999, -10.1507, 30.7488, 19.8987, 71.0896, -159.769
3.42, -1, -42.1886, -10.1955, 30.7699, 19.9086, 71.0425, -159.888
3.424, -1, -42.2772, -10.2403, 30.791, 19.9184, 70.9955, -160.007
3.428, -1, -42.3659, -10.285, 30.8121, 19.9282, 70.9485, -160.126
3.432, -1, -42.4545, -10.3298, 30.8332, 19.938, 70.9015, -160.245
3.436, -1, -42.543, -10.3745, 30.8543, 19.9478, 70.8545, -160.364
3.439, -1, -42.6316, -10.4192, 30.8754, 19.9576, 70.8076, -160.482
3.444, -1, -42.7201, -10.464, 30.8965, 19.9674, 70.7606, -160.601
3.448, -1, -42.8086, -10.5087, 30.9176, 19.9772, 70.7136, -160.72
3.452, -1, -42.8971, -10.5534, 30.9387, 19.987, 70.6667, -160.839
3.456, -1, -42.9856, -10.598, 30.9598, 19.9968, 70.6198, -160.958
3.46, -1, -43.0741, -10.6427, 30.9809, 20.0065, 70.5729, -161.076
3.464, -1, -43.1625, -10.6874, 31.0019, 20.0163, 70.526, -161.195
3.468, -1, -43.2509, -10.732, 31.023, 20.0261, 70.4791, -161.314
3.472, -1, -43.3393, -10.7767, 31.044, 20.0359, 70.4322, -161.432
3.476, -1, -43.4277, -10.8213, 31.0651, 20.0457, 70.3853, -161.551
3.48, -1, -43.516, -10.8659, 31.0861, 20.0555, 70.3384, -161.669
3.484, -1, -43.6043, -10.9105, 31.1072, 20.0652, 70.2916, -161.788
3.488, -1, -43.6926, -10.9551, 31.1282, 20.075, 70.2447, -161.906
3.492, -1, -43.7809, -10.9997, 31.1493, 20.0848, 70.1979, -162.025
3.495, -1, -43.8692, -11.0443, 31.1703, 20.0945, 70.1511, -162.143
3.5, -1, -43.9574, -11.0888, 31.1913, 20.1043, 70.1043, -162.262
3.504, -1, -44.0457, -11.1334, 31.2123, 20.1141, 70.0575, -162.38
3.508, -1, -44.1339, -11.1779, 31.2333, 20.1238, 70.0107, -162.499
3.512, -1, -44.222, -11.2225, 31.2544, 20.1336, 69.9639, -162.617
3.516, -1, -44.3102, -11.267, 31.2754, 20.1434, 69.9171, -162.735
3.52, -1, -44.3984, -11.3115, 31.2964, 20.1531, 69.8704, -162.854
3.524, -1, -44.4865, -11.356, 31.3174, 20.1629, 69.8236, -162.972
3.528, -1, -44.5746, -11.4005, 31.3383, 20.1726, 69.7769, -163.09
3.531, -1, -44.6627, -11.445, 31.3593, 20.1824, 69.7302, -163.208
3.536, -1, -44.7507, -11.4895, 31.3803, 20.1921, 69.6835, -163.326
3.54, -1, -44.8388, -11.5339, 31.4013, 20.2018, 69.6368, -163.445
3.544, -1, -44.9268, -11.5784, 31.4223, 20.2116, 69.5901, -163.563
3.548, -1, -45.0148, -11.6228, 31.4432, 20.2213, 69.5434, -163.681
3.552, -1, -45.1028, -11.6673, 31.4642, 20.2311, 69.4967, -163.799
3.556, -1, -45.1908, -11.7117, 31.4851, 20.2408, 69.4501, -163.917
3.56, -1, -45.2787, -11.7561, 31.5061, 20.2505, 69.4034, -164.035
3.564, -1, -45.3666, -11.8005, 31.527, 20.2603, 69.3568, -164.153
3.568, -1, -45.4545, -11.8449, 31.548, 20.27, 69.3102, -164.271
3.572, -1, -45.5424, -11.8893, 31.5689, 20.2797, 69.2635, -164.389
3.576, -1, -45.6303, -11.9337, 31.5898, 20.2894, 69.2169, -164.507
3.58, -1, -45.7181, -11.978, 31.6108, 20.2992, 69.1703, -164.625
3.584, -1, -45.8059, -12.0224, 31.6317, 20.3089, 69.1237, -164.743
3.587, -1, -45.8937, -12.0667, 31.6526, 20.3186, 69.0772, -164.86
3.592, -1, -45.9815, -12.1111, 31.6735, 20.3283, 69.0306, -164.978
3.596, -1, -46.0693, -12.1554, 31.6944, 20.338, 68.984, -165.096
3.6, -1, -46.157, -12.1997, 31.7154, 20.3477, 68.9375, -165.214
3.604, -1, -46.2448, -12.244, 31.7363, 20.3574, 68.891, -165.331
3.608, -1, -46.3325, -12.2883, 31.7571, 20.3672, 68.8444, -165.449
3.612, -1, -46.4202, -12.3326, 31.778, 20.3769, 68.7979, -165.567
3.616, -1, -46.5078, -12.3769, 31.7989, 20.3866, 68.7514, -165.685
3.62, -1, -46.5955, -12.4212, 31.8198, 20.3963, 68.7049, -165.802
3.624, -1, -46.6831, -12.4654, 31.8407, 20.406, 68.6584, -165.92
3.628, -1, -46.7707, -12.5097, 31.8616, 20.4157, 68.612, -166.037
3.632, -1, -46.8583, -12.5539, 31.8824, 20.4254, 68.5655, -166.155
3.636, -1, -46.9459, -12.5981, 31.9033, 20.435, 68.519, -166.272
3.64, -1, -47.0335, -12.6423, 31.9242, 20.4447, 68.4726, -166.39
3.644, -1, -47.121, -12.6866, 31.945, 20.4544, 68.4262, -166.507
3.648, -1, -47.2085, -12.7308, 31.9659, 20.4641, 68.3797, -166.625
3.652, -1, -47.296, -12.775, 31.9867, 20.4738, 68.3333, -166.742
3.656, -1, -47.3835, -12.8191, 32.0075, 20.4835, 68.2869, -166.86
3.66, -1, -47.471, -12.8633, 32.0284, 20.4932, 68.2405, -166.977
3.664, -1, -47.5584, -12.9075, 32.0492, 20.5028, 68.1941, -167.094
3.668, -1, -47.6458, -12.9516, 32.07, 20.5125, 68.1478, -167.212
3.672, -1, -47.7329, -12.9956, 32.0909, 20.5222, 68.1014, -167.329
3.676, -1, -47.8198, -13.0395, 32.1117, 20.5319, 68.0551, -167.446
3.679, -1, -47.9063, -13.0832, 32.1326, 20.5415, 68.0088, -167.563
3.684, -1, -47.9921, -13.1265, 32.1535, 20.5512, 67.9625, -167.68
3.688, -1, -48.0771, -13.1693, 32.1743, 20.5608, 67.9165, -167.797
3.692, -1, -48.1609, -13.2114, 32.1952, 20.5704, 67.8706, -167.913
3.696, -1, -48.2433, -13.2526, 32.216, 20.58, 67.8251, -168.028
3.7, -1, -48.3241, -13.2927, 32.2366, 20.5895, 67.7801, -168.142
3.704, -1, -48.403, -13.3316, 32.257, 20.5988, 67.7358, -168.254
3.708, -1, -48.4798, -13.3693, 32.277, 20.6079, 67.6926, -168.363
3.712, -1, -48.554, -13.4056, 32.2964, 20.6168, 67.6506, -168.469
3.716, -1, -48.6254, -13.4403, 32.3151, 20.6253, 67.6102, -168.572
3.72, -1, -48.6936, -13.4734, 32.333, 20.6334, 67.5716, -168.669
3.724, -1, -48.7581, -13.5046, 32.3498, 20.6411, 67.5352, -168.761
3.728, -1, -48.8187, -13.5339, 32.3655, 20.6483, 67.5013, -168.847
3.732, -1, -48.875, -13.5613, 32.38, 20.6549, 67.4699, -168.926
3.735, -1, -48.927, -13.5868, 32.393, 20.6609, 67.4413, -168.999
3.74, -1, -48.9745, -13.6104, 32.4046, 20.6663, 67.4157, -169.063
3.744, -1, -49.0177, -13.6323, 32.4147, 20.671, 67.3931, -169.121
3.748, -1, -49.0566, -13.6524, 32.4233, 20.675, 67.3734, -169.17
3.752, -1, -49.0911, -13.6707, 32.4304, 20.6785, 67.3565, -169.213
3.756, -1, -49.1214, -13.6871, 32.4363, 20.6814, 67.3424, -169.249
3.76, -1, -49.1476, -13.7016, 32.441, 20.6837, 67.3307, -169.279
3.764, -1, -49.1699, -13.7141, 32.4447, 20.6856, 67.3212, -169.303
3.768, -1, -49.1887, -13.7247, 32.4475, 20.6871, 67.3136, -169.322
3.772, -1, -49.2044, -13.7337, 32.4496, 20.6882, 67.3077, -169.337
3.776, -1, -49.2174, -13.7411, 32.4511, 20.6891, 67.3032, -169.348
3.78, -1, -49.2281, -13.7472, 32.4521, 20.6897, 67.2999, -169.357
3.784, -1, -49.2367, -13.7521, 32.4528, 20.6901, 67.2974, -169.363
3.788, -1, -49.2436, -13.756, 32.4532, 20.6904, 67.2957, -169.367
3.792, 2, -49.249, -13.7589, 32.4535, 20.6906, 67.2945, -169.37
3.796, 2, -49.253, -13.7611, 32.4536, 20.6907, 67.2937, -169.372
3.8, 2, -49.2559, -13.7627, 32.4537, 20.6908, 67.2931, -169.374
3.804, 2, -49.2579, -13.7637, 32.4537, 20.6909, 67.2927, -169.375
3.808, 2, -49.2593, -13.7645, 32.4538, 20.6909, 67.2924, -169.376
3.812, 2, -49.2602, -13.765, 32.4538, 20.691, 67.2923, -169.376
3.816, 2, -49.2608, -13.7653, 32.4538, 20.691, 67.2922, -169.376
3.82, 2, -49.2613, -13.7655, 32.4538, 20.691, 67.2921, -169.376
3.824, 2, -49.2616, -13.7657, 32.4538, 20.691, 67.292, -169.377
3.828, 2, -49.2618, -13.7658, 32.4538, 20.691, 67.292, -169.377
3.832, 2, -49.2619, -13.7658, 32.4538, 20.691, 67.292, -169.377
3.836, 2, -49.262, -13.7659, 32.4538, 20.691, 67.2919, -169.377
3.84, 2, -49.262, -13.7659, 32.4538, 20.691, 67.2919, -169.377
3.844, 2, -49.2621, -13.7659, 32.4538, 20.691, 67.2919, -169.377
3.848, 2, -49.2621, -13.766, 32.4539, 20.691, 67.2919, -169.377
3.852, 2, -49.2621, -13.766, 32.4539, 20.691, 67.2919, -169.377
3.856, 2, -49.2621, -13.766, 32.4539, 20.691, 67.2919, -169.377
3.86, 2, -49.2622, -13.766, 32.4539, 20.691, 67.2919, -169.377
3.864, 2, -49.2622, -13.766, 32.4539, 20.691, 67.2919, -169.377
3.868, 2, -49.2622, -13.766, 32.4539, 20.691, 67.2919, -169.377
3.872, 2, -49.2622, -13.766, 32.4539, 20.691, 67.2919, -169.377
3.876, 2, -49.2622, -13.766, 32.4539, 20.691, 67.2919, -169.377
3.88, 2, -49.2622, -13.766, 32.4539, 20.691, 67.2919, -169.377
3.884, 2, -49.2622, -13.766, 32.4539, 20.691, 67.2919, -169.377
3.888, 2, -49.2622, -13.766, 32.4539, 20.691, 67.2919, -169.377
3.892, 2, -49.2622, -13.766, 32.4539, 20.691, 67.2919, -169.377
3.896, 2, -49.2622, -13.766, 32.4539, 20.691, 67.2919, -169.377
3.9, 2, -49.2622, -13.766, 32.4539, 20.691, 67.2919, -169.377
3.904, 2, -49.2622, -13.766, 32.4539, 20.691, 67.2919, -169.377
3.908, 2, -49.2622, -13.766, 32.4539, 20.691, 67.2919, -169.377
3.912, 2, -49.2622, -13.766, 32.4539, 20.691, 67.2919, -169.377
3.916, 2, -49.2622, -13.766, 32.4539, 20.691, 67.2919, -169.377
3.92, 2, -49.2622, -13.766, 32.4539, 20.691, 67.2919, -169.377
3.924, 2, -49.2622, -13.766, 32.4539, 20.691, 67.2919, -169.377
3.928, 2, -49.2622, -13.766, 32.4539, 20.691, 67.2919, -169.377
3.932, 2, -49.2622, -13.766, 32.4539, 20.691, 67.2919, -169.377
3.936, 2, -49.2622, -13.766, 32.4539, 20.691, 67.2919, -169.377
3.94, 2, -49.2622, -13.766, 32.4539, 20.691, 67.2919, -169.377
3.944, 2, -49.2622, -13.766, 32.4539, 20.691, 67.2919, -169.377
3.948, 2, -49.2622, -13.766, 32.4539, 20.691, 67.2919, -169.377
3.952, 2, -49.2622, -13.766, 32.4539, 20.691, 67.2919, -169.377
3.956, 2, -49.2622, -13.766, 32.4539, 20.691, 67.2919, -169.377
3.96, 2, -49.2622, -13.766, 32.4539, 20.691, 67.2919, -169.377
3.964, 2, -49.2622, -13.766, 32.4539, 20.691, 67.2919, -169.377
3.968, 2, -49.2622, -13.766, 32.4539, 20.691, 67.2919, -169.377
3.972, 2, -49.2622, -13.766, 32.4539, 20.691, 67.2919, -169.377
3.976, 2, -49.2622, -13.766, 32.4539, 20.691, 67.2919, -169.377
3.98, 2, -49.2622, -13.766, 32.4539, 20.691, 67.2919, -169.377
3.984, 2, -49.2622, -13.766, 32.4539, 20.691, 67.2919, -169.377
3.988, 2, -49.2622, -13.766, 32.4539, 20.691, 67.2919, -169.377
3.992, 2, -49.2622, -13.766, 32.4539, 20.691, 67.2919, -169.377
3.996, 2, -49.2622, -13.766, 32.4539, 20.691, 67.2919, -169.377
3.999, 2, -49.2622, -13.766, 32.4539, 20.691, 67.2919, -169.377
4.004, 2, -49.2622, -13.766, 32.4539, 20.691, 67.2919, -169.377
4.008, 2, -49.2622, -13.766, 32.4539, 20.691, 67.2919, -169.377
4.012, 2, -49.2622, -13.766, 32.4539, 20.691, 67.2919, -169.377
4.016, 2, -49.2622, -13.766, 32.4539, 20.691, 67.2919, -169.377
4.02, 2, -49.2622, -13.766, 32.4539, 20.691, 67.2919, -169.377
4.024, 2, -49.2622, -13.766, 32.4539, 20.691, 67.2919, -169.377
4.028, 2, -49.2622, -13.766, 32.4539, 20.691, 67.2919, -169.377
4.032, 2, -49.2622, -13.766, 32.4539, 20.691, 67.2919, -169.377
4.036, 2, -49.2622, -13.766, 32.4539, 20.691, 67.2919, -169.377
4.04, 2, -49.2622, -13.766, 32.4539, 20.691, 67.2919, -169.377
4.044, 2, -49.2622, -13.766, 32.4539, 20.691, 67.2919, -169.377
4.048, 2, -49.2622, -13.766, 32.4539, 20.691, 67.2919, -169.377
4.052, 2, -49.2622, -13.766, 32.4539, 20.691, 67.2919, -169.377
4.056, 2, -49.2622, -13.766, 32.4539, 20.691, 67.2919, -169.377
4.06, 2, -49.2622, -13.766, 32.4539, 20.691, 67.2919, -169.377
4.064, 2, -49.2622, -13.766, 32.4539, 20.691, 67.2919, -169.377
4.068, 2, -49.2622, -13.766, 32.4539, 20.691, 67.2919, -169.377
4.072, 2, -49.2622, -13.766, 32.4539, 20.691, 67.2919, -169.377
4.076, 2, -49.2622, -13.766, 32.4539, 20.691, 67.2919, -169.377
4.08, 2, -49.2622, -13.766, 32.4539, 20.691, 67.2919, -169.377
4.084, 2, -49.2622, -13.766, 32.4539, 20.691, 67.2919, -169.377
4.088, 2, -49.2622, -13.766, 32.4539, 20.691, 67.2919, -169.377
4.092, 2, -49.2622, -13.766, 32.4539, 20.691, 67.2919, -169.377
4.096, 2, -49.2622, -13.766, 32.4539, 20.691, 67.2919, -169.377
4.1, 2, -49.2622, -13.766, 32.4539, 20.691, 67.2919, -169.377
4.104, 2, -49.2622, -13.766, 32.4539, 20.691, 67.2919, -169.377
4.108, 2, -49.2622, -13.766, 32.4539, 20.691, 67.2919, -169.377
4.112, 2, -49.2622, -13.766, 32.4539, 20.691, 67.2919, -169.377
4.116, 2, -49.2622, -13.766, 32.4539, 20.691, 67.2919, -169.377
4.12, 2, -49.2622, -13.766, 32.4539, 20.691, 67.2919, -169.377
4.124, 2, -49.2622, -13.766, 32.4539, 20.691, 67.2919, -169.377
4.128, 2, -49.2622, -13.766, 32.4539, 20.691, 67.2919, -169.377
4.132, 2, -49.2622, -13.766, 32.4539, 20.691, 67.2919, -169.377
4.136, 2, -49.2622, -13.766, 32.4539, 20.691, 67.2919, -169.377
4.14, 2, -49.2622, -13.766, 32.4539, 20.691, 67.2919, -169.377
4.144, 2, -49.2622, -13.766, 32.4539, 20.691, 67.2919, -169.377
4.148, 2, -49.2622, -13.766, 32.4539, 20.691, 67.2919, -169.377
4.152, 2, -49.2622, -13.766, 32.4539, 20.691, 67.2919, -169.377
4.156, 2, -49.2622, -13.766, 32.4539, 20.691, 67.2919, -169.377
4.16, 2, -49.2622, -13.766, 32.4539, 20.691, 67.2919, -169.377
4.164, 2, -49.2622, -13.766, 32.4539, 20.691, 67.2919, -169.377
4.168, 2, -49.2622, -13.766, 32.4539, 20.691, 67.2919, -169.377
4.172, 2, -49.2622, -13.766, 32.4539, 20.691, 67.2919, -169.377
4.176, 2, -49.2622, -13.766, 32.4539, 20.691, 67.2919, -169.377
4.18, 2, -49.2622, -13.766, 32.4539, 20.691, 67.2919, -169.377
4.184, 2, -49.2622, -13.766, 32.4539, 20.691, 67.2919, -169.377
4.188, 2, -49.2622, -13.766, 32.4539, 20.691, 67.2919, -169.377
4.192, 2, -49.2622, -13.766, 32.4539, 20.691, 67.2919, -169.377
4.196, 2, -49.2622, -13.766, 32.4539, 20.691, 67.2919, -169.377
4.2, 2, -49.2622, -13.766, 32.4539, 20.691, 67.2919, -169.377
4.204, 2, -49.2622, -13.766, 32.4539, 20.691, 67.2919, -169.377
4.208, 2, -49.2622, -13.766, 32.4539, 20.691, 67.2919, -169.377
4.212, 2, -49.2622, -13.766, 32.4539, 20.691, 67.2919, -169.377
4.216, 2, -49.2622, -13.766, 32.4539, 20.691, 67.2919, -169.377
4.22, 2, -49.2622, -13.766, 32.4539, 20.691, 67.2919, -169.377
4.224, 2, -49.2622, -13.766, 32.4539, 20.691, 67.2919, -169.377
4.228, 2, -49.2622, -13.766, 32.4539, 20.691, 67.2919, -169.377
4.232, 2, -49.2622, -13.766, 32.4539, 20.691, 67.2919, -169.377
4.236, 2, -49.2622, -13.766, 32.4539, 20.691, 67.2919, -169.377
4.24, 2, -49.2622, -13.766, 32.4539, 20.691, 67.2919, -169.377
4.244, 2, -49.2622, -13.766, 32.4539, 20.691, 67.2919, -169.377
4.248, 2, -49.2622, -13.766, 32.4539, 20.691, 67.2919, -169.377
4.252, 2, -49.2622, -13.766, 32.4539, 20.691, 67.2919, -169.377
4.256, 2, -49.2622, -13.766, 32.4539, 20.691, 67.2919, -169.377
4.26, 2, -49.2622, -13.766, 32.4539, 20.691, 67.2919, -169.377
4.264, 2, -49.2622, -13.766, 32.4539, 20.691, 67.2919, -169.377
4.268, 2, -49.2622, -13.766, 32.4539, 20.691, 67.2919, -169.377
4.272, 2, -49.2622, -13.766, 32.4539, 20.691, 67.2919, -169.377
4.276, 2, -49.2622, -13.766, 32.4539, 20.691, 67.2919, -169.377
4.28, 2, -49.2622, -13.766, 32.4539, 20.691, 67.2919, -169.377
4.284, 2, -49.2622, -13.766, 32.4539, 20.691, 67.2919, -169.377
4.288, 2, -49.2622, -13.766, 32.4539, 20.691, 67.2919, -169.377
4.292, 2, -49.2622, -13.766, 32.4539, 20.691, 67.2919, -169.377
4.296, 2, -49.2622, -13.766, 32.4539, 20.691, 67.2919, -169.377
4.3, 2, -49.2622, -13.766, 32.4539, 20.691, 67.2919, -169.377
4.304, 2, -49.2622, -13.766, 32.4539, 20.691, 67.2919, -169.377
4.308, 2, -49.2622, -13.766, 32.4539, 20.691, 67.2919, -169.377
4.312, 2, -49.2622, -13.766, 32.4539, 20.691, 67.2919, -169.377
4.316, 2, -49.2622, -13.766, 32.4539, 20.691, 67.2919, -169.377
4.32, 2, -49.2622, -13.766, 32.4539, 20.691, 67.2919, -169.377
4.324, 2, -49.2622, -13.766, 32.4539, 20.691, 67.2919, -169.377
4.328, 2, -49.2622, -13.766, 32.4539, 20.691, 67.2919, -169.377
4.332, 2, -49.2622, -13.766, 32.4539, 20.691, 67.2919, -169.377
4.336, 2, -49.2622, -13.766, 32.4539, 20.691, 67.2919, -169.377
4.34, 2, -49.2622, -13.766, 32.4539, 20.691, 67.2919, -169.377
4.344, 2, -49.2622, -13.766, 32.4539, 20.691, 67.2919, -169.377
4.348, 2, -49.2622, -13.766, 32.4539, 20.691, 67.2919, -169.377
4.352, 2, -49.2622, -13.766, 32.4539, 20.691, 67.2919, -169.377
4.356, 2, -49.2622, -13.766, 32.4539, 20.691, 67.2919, -169.377
4.36, 2, -49.2622, -13.766, 32.4539, 20.691, 67.2919, -169.377
4.364, 2, -49.2622, -13.766, 32.4539, 20.691, 67.2919, -169.377
4.368, 2, -49.2622, -13.766, 32.4539, 20.691, 67.2919, -169.377
4.372, 2, -49.2622, -13.766, 32.4539, 20.691, 67.2919, -169.377
4.376, 2, -49.2622, -13.766, 32.4539, 20.691, 67.2919, -169.377
4.38, 2, -49.2622, -13.766, 32.4539, 20.691, 67.2919, -169.377
4.384, 2, -49.2622, -13.766, 32.4539, 20.691, 67.2919, -169.377
4.388, 2, -49.2622, -13.766, 32.4539, 20.691, 67.2919, -169.377
4.392, 2, -49.2622, -13.766, 32.4539, 20.691, 67.2919, -169.377
4.396, 2, -49.2622, -13.766, 32.4539, 20.691, 67.2919, -169.377
4.4, 2, -49.2622, -13.766, 32.4539, 20.691, 67.2919, -169.377
4.404, 2, -49.2622, -13.766, 32.4539, 20.691, 67.2919, -169.377
4.408, 2, -49.2622, -13.766, 32.4539, 20.691, 67.2919, -169.377
4.412, 2, -49.2622, -13.766, 32.4539, 20.691, 67.2919, -169.377
4.416, 2, -49.2622, -13.766, 32.4539, 20.691, 67.2919, -169.377
4.42, 2, -49.2622, -13.766, 32.4539, 20.691, 67.2919, -169.377
4.424, 2, -49.2622, -13.766, 32.4539, 20.691, 67.2919, -169.377
4.428, 2, -49.2622, -13.766, 32.4539, 20.691, 67.2919, -169.377
4.432, 2, -49.2622, -13.766, 32.4539, 20.691, 67.2919, -169.377
4.436, 2, -49.2622, -13.766, 32.4539, 20.691, 67.2919, -169.377
4.44, 2, -49.2622, -13.766, 32.4539, 20.691, 67.2919, -169.377
4.444, 2, -49.2622, -13.766, 32.4539, 20.691, 67.2919, -169.377
4.448, 2, -49.2622, -13.766, 32.4539, 20.691, 67.2919, -169.377
4.452, 2, -49.2622, -13.766, 32.4539, 20.691, 67.2919, -169.377
4.456, 2, -49.2622, -13.766, 32.4539, 20.691, 67.2919, -169.377
4.46, 2, -49.2622, -13.766, 32.4539, 20.691, 67.2919, -169.377
4.464, 2, -49.2622, -13.766, 32.4539, 20.691, 67.2919, -169.377
4.468, 2, -49.2622, -13.766, 32.4539, 20.691, 67.2919, -169.377
4.472, 2, -49.2622, -13.766, 32.4539, 20.691, 67.2919, -169.377
4.476, 2, -49.2622, -13.766, 32.4539, 20.691, 67.2919, -169.377
4.48, 2, -49.2622, -13.766, 32.4539, 20.691, 67.2919, -169.377
4.484, 2, -49.2622, -13.766, 32.4539, 20.691, 67.2919, -169.377
4.488, 2, -49.2622, -13.766, 32.4539, 20.691, 67.2919, -169.377
4.492, 2, -49.2622, -13.766, 32.4539, 20.691, 67.2919, -169.377
4.496, 2, -49.2622, -13.766, 32.4539, 20.691, 67.2919, -169.377
4.5, 2, -49.2622, -13.766, 32.4539, 20.691, 67.2919, -169.377
4.504, 2, -49.2622, -13.766, 32.4539, 20.691, 67.2919, -169.377
4.508, 2, -49.2622, -13.766, 32.4539, 20.691, 67.2919, -169.377
4.512, 2, -49.2622, -13.766, 32.4539, 20.691, 67.2919, -169.377
4.516, 2, -49.2622, -13.766, 32.4539, 20.691, 67.2919, -169.377
4.52, 2, -49.2622, -13.766, 32.4539, 20.691, 67.2919, -169.377
4.524, 2, -49.2622, -13.766, 32.4539, 20.691, 67.2919, -169.377
4.528, 2, -49.2622, -13.766, 32.4539, 20.691, 67.2919, -169.377
4.532, 2, -49.2622, -13.766, 32.4539, 20.691, 67.2919, -169.377
4.536, 2, -49.2622, -13.766, 32.4539, 20.691, 67.2919, -169.377
4.54, 2, -49.2622, -13.766, 32.4539, 20.691, 67.2919, -169.377
4.544, 2, -49.2622, -13.766, 32.4539, 20.691, 67.2919, -169.377
4.548, 2, -49.2622, -13.766, 32.4539, 20.691, 67.2919, -169.377
4.552, 2, -49.2622, -13.766, 32.4539, 20.691, 67.2919, -169.377
4.556, 2, -49.2622, -13.766, 32.4539, 20.691, 67.2919, -169.377
4.56, 2, -49.2622, -13.766, 32.4539, 20.691, 67.2919, -169.377
4.564, 2, -49.2622, -13.766, 32.4539, 20.691, 67.2919, -169.377
4.568, 2, -49.2622, -13.766, 32.4539, 20.691, 67.2919, -169.377
4.572, 2, -49.2622, -13.766, 32.4539, 20.691, 67.2919, -169.377
4.576, 2, -49.2622, -13.766, 32.4539, 20.691, 67.2919, -169.377
4.58, 2, -49.2622, -13.766, 32.4539, 20.691, 67.2919, -169.377
4.584, 2, -49.2622, -13.766, 32.4539, 20.691, 67.2919, -169.377
4.588, 2, -49.2622, -13.766, 32.4539, 20.691, 67.2919, -169.377
4.592, 2, -49.2622, -13.766, 32.4539, 20.691, 67.2919, -169.377
4.596, 2, -49.2622, -13.766, 32.4539, 20.691, 67.2919, -169.377
4.6, 2, -49.2622, -13.766, 32.4539, 20.691, 67.2919, -169.377
4.604, 2, -49.2622, -13.766, 32.4539, 20.691, 67.2919, -169.377
4.608, 2, -49.2622, -13.766, 32.4539, 20.691, 67.2919, -169.377
4.612, 2, -49.2622, -13.766, 32.4539, 20.691, 67.2919, -169.377
4.616, 2, -49.2622, -13.766, 32.4539, 20.691, 67.2919, -169.377
4.62, 2, -49.2622, -13.766, 32.4539, 20.691, 67.2919, -169.377
4.624, 2, -49.2622, -13.766, 32.4539, 20.691, 67.2919, -169.377
4.628, 2, -49.2622, -13.766, 32.4539, 20.691, 67.2919, -169.377
4.632, 2, -49.2622, -13.766, 32.4539, 20.691, 67.2919, -169.377
4.636, 2, -49.2622, -13.766, 32.4539, 20.691, 67.2919, -169.377
4.64, 2, -49.2622, -13.766, 32.4539, 20.691, 67.2919, -169.377
4.644, 2, -49.2622, -13.766, 32.4539, 20.691, 67.2919, -169.377
4.648, 2, -49.2622, -13.766, 32.4539, 20.691, 67.2919, -169.377
4.652, 2, -49.2622, -13.766, 32.4539, 20.691, 67.2919, -169.377
4.656, 2, -49.2622, -13.766, 32.4539, 20.691, 67.2919, -169.377
4.66, 2, -49.2622, -13.766, 32.4539, 20.691, 67.2919, -169.377
4.664, 2, -49.2622, -13.766, 32.4539, 20.691, 67.2919, -169.377
4.668, 2, -49.2622, -13.766, 32.4539, 20.691, 67.2919, -169.377
4.672, 2, -49.2622, -13.766, 32.4539, 20.691, 67.2919, -169.377
4.676, 2, -49.2622, -13.766, 32.4539, 20.691, 67.2919, -169.377
4.68, 2, -49.2622, -13.766, 32.4539, 20.691, 67.2919, -169.377
4.684, 2, -49.2622, -13.766, 32.4539, 20.691, 67.2919, -169.377
4.688, 2, -49.2622, -13.766, 32.4539, 20.691, 67.2919, -169.377
4.692, 2, -49.2622, -13.766, 32.4539, 20.691, 67.2919, -169.377
4.696, 2, -49.2622, -13.766, 32.4539, 20.691, 67.2919, -169.377
4.7, 2, -49.2622, -13.766, 32.4539, 20.691, 67.2919, -169.377
4.704, 2, -49.2622, -13.766, 32.4539, 20.691, 67.2919, -169.377
4.708, 2, -49.2622, -13.766, 32.4539, 20.691, 67.2919, -169.377
4.712, 2, -49.2622, -13.766, 32.4539, 20.691, 67.2919, -169.377
4.716, 2, -49.2622, -13.766, 32.4539, 20.691, 67.2919, -169.377
4.72, 2, -49.2622, -13.766, 32.4539, 20.691, 67.2919, -169.377
4.724, 2, -49.2622, -13.766, 32.4539, 20.691, 67.2919, -169.377
4.728, 2, -49.2622, -13.766, 32.4539, 20.691, 67.2919, -169.377
4.732, 2, -49.2622, -13.766, 32.4539, 20.691, 67.2919, -169.377
4.736, 2, -49.2622, -13.766, 32.4539, 20.691, 67.2919, -169.377
4.74, 2, -49.2622, -13.766, 32.4539, 20.691, 67.2919, -169.377
4.744, 2, -49.2622, -13.766, 32.4539, 20.691, 67.2919, -169.377
4.748, 2, -49.2622, -13.766, 32.4539, 20.691, 67.2919, -169.377
4.752, 2, -49.2622, -13.766, 32.4539, 20.691, 67.2919, -169.377
4.756, 2, -49.2622, -13.766, 32.4539, 20.691, 67.2919, -169.377
4.76, 2, -49.2622, -13.766, 32.4539, 20.691, 67.2919, -169.377
4.764, 2, -49.2622, -13.766, 32.4539, 20.691, 67.2919, -169.377
4.768, 2, -49.2622, -13.766, 32.4539, 20.691, 67.2919, -169.377
4.772, 2, -49.2622, -13.766, 32.4539, 20.691, 67.2919, -169.377
4.776, 2, -49.2622, -13.766, 32.4539, 20.691, 67.2919, -169.377
4.78, 2, -49.2622, -13.766, 32.4539, 20.691, 67.2919, -169.377
4.784, 2, -49.2622, -13.766, 32.4539, 20.691, 67.2919, -169.377
4.788, 2, -49.2622, -13.766, 32.4539, 20.691, 67.2919, -169.377
4.792, 2, -49.2622, -13.766, 32.4539, 20.691, 67.2919, -169.377
4.796, 2, -49.2622, -13.766, 32.4539, 20.691, 67.2919, -169.377
4.8, 2, -49.2622, -13.766, 32.4539, 20.691, 67.2919, -169.377
4.804, 2, -49.2622, -13.766, 32.4539, 20.691, 67.2919, -169.377
4.808, 2, -49.2622, -13.766, 32.4539, 20.691, 67.2919, -169.377
4.812, 2, -49.2622, -13.766, 32.4539, 20.691, 67.2919, -169.377
4.816, 2, -49.2622, -13.766, 32.4539, 20.691, 67.2919, -169.377
4.82, 2, -49.2622, -13.766, 32.4539, 20.691, 67.2919, -169.377
4.824, 2, -49.2622, -13.766, 32.4539, 20.691, 67.2919, -169.377
4.828, 2, -49.2622, -13.766, 32.4539, 20.691, 67.2919, -169.377
4.832, 2, -49.2622, -13.766, 32.4539, 20.691, 67.2919, -169.377
4.836, 2, -49.2622, -13.766, 32.4539, 20.691, 67.2919, -169.377
4.84, 2, -49.2622, -13.766, 32.4539, 20.691, 67.2919, -169.377
4.844, 2, -49.2622, -13.766, 32.4539, 20.691, 67.2919, -169.377
4.848, 2, -49.2622, -13.766, 32.4539, 20.691, 67.2919, -169.377
4.852, 2, -49.2622, -13.766, 32.4539, 20.691, 67.2919, -169.377
4.856, 2, -49.2622, -13.766, 32.4539, 20.691, 67.2919, -169.377
4.86, 2, -49.2622, -13.766, 32.4539, 20.691, 67.2919, -169.377
4.864, 2, -49.2622, -13.766, 32.4539, 20.691, 67.2919, -169.377
4.868, 4, -49.2622, -13.766, 32.4539, 20.691, 67.2919, -169.377
4.872, 4, -49.2622, -13.766, 32.4539, 20.691, 67.2919, -169.377
4.876, 4, -49.2622, -13.766, 32.4539, 20.691, 67.2919, -169.377
4.88, 4, -49.2622, -13.766, 32.4539, 20.691, 67.2919, -169.377
4.884, 4, -49.2622, -13.766, 32.4539, 20.691, 67.2919, -169.377
4.888, 4, -49.2622, -13.766, 32.4539, 20.691, 67.2919, -169.377
4.892, 4, -49.2622, -13.766, 32.4539, 20.691, 67.2919, -169.377
4.896, 4, -49.2622, -13.766, 32.4539, 20.691, 67.2919, -169.377
4.9, 4, -49.2622, -13.766, 32.4539, 20.691, 67.2919, -169.377
4.904, 4, -49.2622, -13.766, 32.4539, 20.691, 67.2919, -169.377
4.908, 4, -49.2622, -13.766, 32.4539, 20.691, 67.2919, -169.377
4.912, 4, -49.2622, -13.766, 32.4539, 20.691, 67.2919, -169.377
4.916, 4, -49.2622, -13.766, 32.4539, 20.691, 67.2919, -169.377
4.92, 4, -49.2622, -13.766, 32.4539, 20.691, 67.2919, -169.377
4.924, 4, -49.2622, -13.766, 32.4539, 20.691, 67.2919, -169.377
4.928, 4, -49.2622, -13.766, 32.4539, 20.691, 67.2919, -169.377
4.932, 4, -49.2622, -13.766, 32.4539, 20.691, 67.2919, -169.377
4.936, 4, -49.2622, -13.766, 32.4539, 20.691, 67.2919, -169.377
4.94, 4, -49.2622, -13.766, 32.4539, 20.691, 67.2919, -169.377
4.944, 4, -49.2622, -13.766, 32.4539, 20.691, 67.2919, -169.377
4.948, 4, -49.2622, -13.766, 32.4539, 20.691, 67.2919, -169.377
4.952, 4, -49.2622, -13.766, 32.4539, 20.691, 67.2919, -169.377
4.956, 4, -49.2622, -13.766, 32.4539, 20.691, 67.2919, -169.377
4.96, 4, -49.2622, -13.766, 32.4539, 20.691, 67.2919, -169.377
4.964, 4, -49.2622, -13.766, 32.4539, 20.691, 67.2919, -169.377
4.968, 4, -49.2622, -13.766, 32.4539, 20.691, 67.2919, -169.377
4.974, 4, -49.2622, -13.766, 32.4539, 20.691, 67.2919, -169.377
4.976, 4, -49.2622, -13.766, 32.4539, 20.691, 67.2919, -169.377
4.98, 4, -49.2622, -13.766, 32.4539, 20.691, 67.2919, -169.377
4.984, 4, -49.2622, -13.766, 32.4539, 20.691, 67.2919, -169.377
4.988, 4, -49.2622, -13.766, 32.4539, 20.691, 67.2919, -169.377
4.992, 4, -49.2622, -13.766, 32.4539, 20.691, 67.2919, -169.377
4.996, 4, -49.2622, -13.766, 32.4539, 20.691, 67.2919, -169.377
5, 4, -49.2622, -13.766, 32.4539, 20.691, 67.2919, -169.377
5.004, 4, -49.2622, -13.766, 32.4539, 20.691, 67.2919, -169.377
5.008, 4, -49.2621, -13.766, 32.4539, 20.691, 67.2919, -169.377
5.012, 4, -49.2619, -13.7661, 32.4541, 20.6911, 67.292, -169.377
5.016, 4, -49.2615, -13.7663, 32.4546, 20.6913, 67.2922, -169.376
5.02, 4, -49.2609, -13.7667, 32.4554, 20.6917, 67.2925, -169.376
5.024, 4, -49.2599, -13.7673, 32.4568, 20.6925, 67.2932, -169.374
5.028, 4, -49.2587, -13.7682, 32.4589, 20.694, 67.2945, -169.371
5.032, 4, -49.2571, -13.7694, 32.462, 20.6965, 67.2966, -169.366
5.036, 4, -49.2554, -13.7709, 32.4663, 20.7004, 67.2997, -169.358
5.04, 4, -49.2535, -13.7729, 32.4719, 20.706, 67.3043, -169.346
5.044, 4, -49.2514, -13.7753, 32.4792, 20.7138, 67.3106, -169.329
5.048, 5, -49.2493, -13.7783, 32.4883, 20.724, 67.3189, -169.307
5.052, 5, -49.247, -13.7818, 32.4995, 20.737, 67.3293, -169.28
5.056, 5, -49.2445, -13.7859, 32.5128, 20.7529, 67.342, -169.246
5.06, 5, -49.2419, -13.7907, 32.5285, 20.7719, 67.3572, -169.205
5.064, 5, -49.2392, -13.7961, 32.5464, 20.794, 67.3748, -169.158
5.068, 5, -49.2363, -13.8021, 32.5665, 20.8192, 67.3948, -169.104
5.072, 5, -49.2333, -13.8087, 32.5888, 20.8473, 67.4171, -169.044
5.076, 5, -49.2302, -13.8158, 32.6129, 20.878, 67.4415, -168.978
5.08, 5, -49.2269, -13.8234, 32.6389, 20.9112, 67.4678, -168.907
5.084, 5, -49.2235, -13.8315, 32.6664, 20.9465, 67.4957, -168.832
5.088, 5, -49.2198, -13.84, 32.6952, 20.9834, 67.5249, -168.754
5.092, 5, -49.2157, -13.8489, 32.7251, 21.0217, 67.5552, -168.672
5.096, 5, -49.2113, -13.8581, 32.756, 21.0609, 67.5862, -168.589
5.1, 5, -49.2066, -13.8675, 32.7876, 21.1009, 67.6178, -168.505
5.104, 5, -49.2017, -13.8771, 32.8196, 21.1415, 67.6498, -168.419
5.108, 5, -49.1965, -13.8869, 32.852, 21.1824, 67.682, -168.333
5.112, 5, -49.1911, -13.8967, 32.8846, 21.2237, 67.7145, -168.246
5.116, 5, -49.1857, -13.9066, 32.9174, 21.2651, 67.7471, -168.16
5.12, 5, -49.1801, -13.9166, 32.9502, 21.3068, 67.7798, -168.073
5.124, 5, -49.1745, -13.9265, 32.9831, 21.3486, 67.8126, -167.985
5.128, 5, -49.1688, -13.9364, 33.016, 21.3905, 67.8454, -167.898
5.132, 5, -49.1631, -13.9464, 33.0489, 21.4326, 67.8783, -167.811
5.136, 5, -49.1573, -13.9563, 33.0818, 21.4747, 67.9112, -167.723
5.14, 5, -49.1515, -13.9663, 33.1146, 21.517, 67.9442, -167.636
5.144, 5, -49.1456, -13.9762, 33.1474, 21.5593, 67.9772, -167.549
5.148, 5, -49.1397, -13.9861, 33.1802, 21.6018, 68.0101, -167.461
5.152, 5, -49.1338, -13.996, 33.213, 21.6443, 68.0432, -167.374
5.156, 5, -49.1278, -14.0059, 33.2458, 21.6869, 68.0762, -167.287
5.16, 5, -49.1218, -14.0158, 33.2784, 21.7296, 68.1092, -167.2
5.164, 5, -49.1158, -14.0257, 33.3111, 21.7724, 68.1423, -167.112
5.168, 5, -49.1097, -14.0355, 33.3437, 21.8153, 68.1754, -167.025
5.172, 5, -49.1036, -14.0454, 33.3763, 21.8582, 68.2085, -166.938
5.176, 5, -49.0975, -14.0552, 33.4089, 21.9013, 68.2416, -166.85
5.18, 5, -49.0913, -14.065, 33.4414, 21.9444, 68.2748, -166.763
5.184, 5, -49.0851, -14.0748, 33.4738, 21.9876, 68.3079, -166.676
5.188, 5, -49.0788, -14.0846, 33.5063, 22.0309, 68.3411, -166.589
5.192, 5, -49.0725, -14.0943, 33.5387, 22.0743, 68.3743, -166.502
5.196, 5, -49.0662, -14.1041, 33.571, 22.1178, 68.4075, -166.415
5.2, 5, -49.0599, -14.1138, 33.6033, 22.1614, 68.4407, -166.327
5.204, 5, -49.0535, -14.1235, 33.6356, 22.205, 68.4739, -166.24
5.208, 5, -49.0471, -14.1332, 33.6678, 22.2488, 68.5071, -166.153
5.212, 5, -49.0406, -14.1429, 33.7, 22.2926, 68.5404, -166.066
5.216, 5, -49.0341, -14.1526, 33.7322, 22.3365, 68.5737, -165.979
5.22, 5, -49.0276, -14.1622, 33.7643, 22.3805, 68.6069, -165.892
5.224, 5, -49.0211, -14.1719, 33.7964, 22.4246, 68.6403, -165.805
5.228, 5, -49.0145, -14.1815, 33.8285, 22.4688, 68.6736, -165.718
5.232, 5, -49.0079, -14.1911, 33.8605, 22.513, 68.7069, -165.631
5.236, 5, -49.0012, -14.2007, 33.8924, 22.5574, 68.7402, -165.544
5.24, 5, -48.9946, -14.2103, 33.9244, 22.6018, 68.7736, -165.457
5.244, 5, -48.9879, -14.2199, 33.9563, 22.6463, 68.8069, -165.37
5.248, 5, -48.9811, -14.2294, 33.9881, 22.6909, 68.8403, -165.283
5.252, 5, -48.9743, -14.239, 34.0199, 22.7356, 68.8737, -165.196
5.256, 5, -48.9675, -14.2485, 34.0517, 22.7804, 68.9071, -165.109
5.26, 5, -48.9607, -14.258, 34.0834, 22.8253, 68.9405, -165.022
5.264, 5, -48.9538, -14.2675, 34.1151, 22.8703, 68.974, -164.936
5.268, 5, -48.9469, -14.277, 34.1468, 22.9153, 69.0074, -164.849
5.272, 5, -48.94, -14.2864, 34.1784, 22.9604, 69.0408, -164.762
5.276, 5, -48.933, -14.2959, 34.21, 23.0057, 69.0743, -164.675
5.28, 5, -48.926, -14.3053, 34.2416, 23.051, 69.1078, -164.588
5.284, 5, -48.9189, -14.3147, 34.2731, 23.0964, 69.1413, -164.502
5.288, 5, -48.9119, -14.3241, 34.3045, 23.1419, 69.1748, -164.415
5.292, 5, -48.9048, -14.3335, 34.336, 23.1874, 69.2083, -164.328
5.296, 5, -48.8976, -14.3429, 34.3674, 23.2331, 69.2418, -164.242
5.3, 5, -48.8905, -14.3522, 34.3987, 23.2789, 69.2753, -164.155
5.304, 5, -48.8833, -14.3615, 34.43, 23.3247, 69.3088, -164.068
5.308, 5, -48.876, -14.3709, 34.4613, 23.3706, 69.3424, -163.982
5.312, 5, -48.8688, -14.3802, 34.4926, 23.4166, 69.3759, -163.895
5.316, 5, -48.8615, -14.3894, 34.5238, 23.4627, 69.4095, -163.808
5.32, 5, -48.8542, -14.3987, 34.5549, 23.5089, 69.4431, -163.722
5.324, 5, -48.8468, -14.408, 34.5861, 23.5552, 69.4767, -163.635
5.328, 5, -48.8394, -14.4172, 34.6171, 23.6016, 69.5103, -163.549
5.332, 5, -48.832, -14.4264, 34.6482, 23.6481, 69.5439, -163.462
5.338, 5, -48.8245, -14.4356, 34.6792, 23.6946, 69.5775, -163.376
5.34, 5, -48.8171, -14.4448, 34.7102, 23.7412, 69.6111, -163.289
5.344, 5, -48.8095, -14.454, 34.7411, 23.788, 69.6447, -163.203
5.348, 5, -48.802, -14.4632, 34.772, 23.8348, 69.6783, -163.116
5.352, 5, -48.7944, -14.4723, 34.8029, 23.8817, 69.712, -163.03
5.356, 5, -48.7868, -14.4814, 34.8337, 23.9287, 69.7456, -162.943
5.36, 5, -48.7792, -14.4905, 34.8645, 23.9758, 69.7793, -162.857
5.364, 5, -48.7715, -14.4996, 34.8952, 24.023, 69.813, -162.771
5.368, 5, -48.7638, -14.5087, 34.9259, 24.0702, 69.8466, -162.684
5.372, 5, -48.7561, -14.5178, 34.9566, 24.1176, 69.8803, -162.598
5.376, 5, -48.7483, -14.5268, 34.9872, 24.165, 69.914, -162.512
5.38, 5, -48.7405, -14.5358, 35.0178, 24.2126, 69.9477, -162.425
5.384, 5, -48.7327, -14.5449, 35.0484, 24.2602, 69.9814, -162.339
5.388, 5, -48.7248, -14.5539, 35.0789, 24.3079, 70.0151, -162.253
5.392, 5, -48.7169, -14.5628, 35.1094, 24.3557, 70.0488, -162.167
5.396, 5, -48.709, -14.5718, 35.1398, 24.4036, 70.0825, -162.081
5.4, 5, -48.7011, -14.5807, 35.1702, 24.4516, 70.1162, -161.994
5.404, 5, -48.6931, -14.5897, 35.2006, 24.4996, 70.1499, -161.908
5.408, 5, -48.6851, -14.5986, 35.2309, 24.5478, 70.1837, -161.822
5.412, 5, -48.6771, -14.6075, 35.2612, 24.5961, 70.2174, -161.736
5.416, 5, -48.669, -14.6163, 35.2914, 24.6444, 70.2511, -161.65
5.42, 5, -48.6609, -14.6252, 35.3216, 24.6928, 70.2849, -161.564
5.424, 5, -48.6528, -14.634, 35.3518, 24.7414, 70.3186, -161.478
5.428, 5, -48.6446, -14.6429, 35.3819, 24.79, 70.3524, -161.392
5.432, 5, -48.6364, -14.6517, 35.412, 24.8387, 70.3861, -161.306
5.436, 5, -48.6282, -14.6605, 35.4421, 24.8875, 70.4199, -161.22
5.44, 5, -48.62, -14.6693, 35.4721, 24.9364, 70.4537, -161.134
5.444, 5, -48.6117, -14.678, 35.5021, 24.9854, 70.4874, -161.048
5.448, 5, -48.6034, -14.6868, 35.5321, 25.0344, 70.5212, -160.962
5.452, 5, -48.595, -14.6955, 35.562, 25.0836, 70.555, -160.876
5.456, 5, -48.5867, -14.7042, 35.5918, 25.1329, 70.5887, -160.79
5.46, 5, -48.5783, -14.7129, 35.6217, 25.1822, 70.6225, -160.704
5.464, 5, -48.5698, -14.7215, 35.6515, 25.2316, 70.6563, -160.618
5.468, 5, -48.5614, -14.7302, 35.6812, 25.2812, 70.6901, -160.532
5.472, 5, -48.5529, -14.7388, 35.7109, 25.3308, 70.7238, -160.447
5.476, 5, -48.5444, -14.7475, 35.7406, 25.3805, 70.7576, -160.361
5.48, 5, -48.5358, -14.7561, 35.7703, 25.4303, 70.7914, -160.275
5.484, 5, -48.5273, -14.7647, 35.7999, 25.4802, 70.8252, -160.189
5.488, 5, -48.5187, -14.7732, 35.8294, 25.5302, 70.859, -160.104
5.492, 5, -48.51, -14.7818, 35.859, 25.5802, 70.8928, -160.018
5.496, 5, -48.5014, -14.7903, 35.8884, 25.6304, 70.9266, -159.932
5.5, 5, -48.4927, -14.7988, 35.9179, 25.6807, 70.9604, -159.847
5.504, 5, -48.484, -14.8073, 35.9473, 25.731, 70.9941, -159.761
5.508, 5, -48.4752, -14.8158, 35.9767, 25.7815, 71.0279, -159.675
5.512, 5, -48.4665, -14.8243, 36.006, 25.832, 71.0617, -159.59
5.516, 5, -48.4576, -14.8327, 36.0353, 25.8826, 71.0955, -159.504
5.52, 5, -48.4488, -14.8411, 36.0646, 25.9334, 71.1293, -159.419
5.524, 5, -48.44, -14.8495, 36.0938, 25.9842, 71.1631, -159.333
5.528, 5, -48.4311, -14.8579, 36.123, 26.0351, 71.1969, -159.248
5.532, 5, -48.4221, -14.8663, 36.1522, 26.0861, 71.2307, -159.162
5.536, 5, -48.4132, -14.8747, 36.1813, 26.1372, 71.2644, -159.077
5.54, 5, -48.4042, -14.883, 36.2103, 26.1884, 71.2982, -158.991
5.544, 5, -48.3952, -14.8913, 36.2394, 26.2397, 71.332, -158.906
5.548, 5, -48.3862, -14.8996, 36.2684, 26.291, 71.3658, -158.821
5.552, 5, -48.3771, -14.9079, 36.2973, 26.3425, 71.3996, -158.735
5.556, 5, -48.368, -14.9162, 36.3263, 26.3941, 71.4333, -158.65
5.56, 5, -48.3589, -14.9244, 36.3552, 26.4457, 71.4671, -158.565
5.564, 5, -48.3498, -14.9326, 36.384, 26.4975, 71.5009, -158.479
5.568, 5, -48.3406, -14.9409, 36.4128, 26.5493, 71.5346, -158.394
5.572, 5, -48.3314, -14.9491, 36.4416, 26.6012, 71.5684, -158.309
5.576, 5, -48.3222, -14.9572, 36.4703, 26.6533, 71.6022, -158.224
5.58, 5, -48.3129, -14.9654, 36.4991, 26.7054, 71.6359, -158.138
5.584, 5, -48.3036, -14.9735, 36.5277, 26.7576, 71.6697, -158.053
5.588, 5, -48.2943, -14.9817, 36.5563, 26.8099, 71.7034, -157.968
5.592, 5, -48.285, -14.9898, 36.5849, 26.8623, 71.7372, -157.883
5.596, 5, -48.2756, -14.9978, 36.6135, 26.9148, 71.7709, -157.798
5.6, 5, -48.2662, -15.0059, 36.642, 26.9674, 71.8046, -157.713
5.604, 5, -48.2568, -15.014, 36.6705, 27.0201, 71.8384, -157.628
5.608, 5, -48.2473, -15.022, 36.6989, 27.0728, 71.8721, -157.542
5.612, 5, -48.2379, -15.03, 36.7273, 27.1257, 71.9058, -157.457
5.616, 5, -48.2284, -15.038, 36.7557, 27.1787, 71.9396, -157.372
5.62, 5, -48.2188, -15.046, 36.784, 27.2317, 71.9733, -157.287
5.624, 5, -48.2093, -15.0539, 36.8123, 27.2849, 72.007, -157.203
5.628, 5, -48.1997, -15.0619, 36.8406, 27.3381, 72.0407, -157.118
5.632, 5, -48.1901, -15.0698, 36.8688, 27.3915, 72.0744, -157.033
5.636, 5, -48.1804, -15.0777, 36.897, 27.4449, 72.1081, -156.948
5.64, 5, -48.1708, -15.0856, 36.9252, 27.4984, 72.1418, -156.863
5.644, 5, -48.1611, -15.0934, 36.9533, 27.5521, 72.1755, -156.778
5.648, 5, -48.1514, -15.1013, 36.9813, 27.6058, 72.2091, -156.693
5.652, 5, -48.1416, -15.1091, 37.0094, 27.6596, 72.2428, -156.608
5.656, 5, -48.1318, -15.1169, 37.0374, 27.7135, 72.2765, -156.524
5.66, 5, -48.122, -15.1247, 37.0654, 27.7675, 72.3101, -156.439
5.664, 5, -48.1122, -15.1325, 37.0933, 27.8216, 72.3438, -156.354
5.668, 5, -48.1023, -15.1402, 37.1212, 27.8758, 72.3774, -156.269
5.672, 5, -48.0925, -15.148, 37.149, 27.9301, 72.411, -156.185
5.676, 5, -48.0826, -15.1557, 37.1769, 27.9844, 72.4447, -156.1
5.68, 5, -48.0726, -15.1634, 37.2046, 28.0389, 72.4783, -156.015
5.684, 5, -48.0627, -15.1711, 37.2324, 28.0935, 72.5119, -155.931
5.688, 5, -48.0527, -15.1787, 37.2601, 28.1481, 72.5455, -155.846
5.692, 5, -48.0427, -15.1864, 37.2878, 28.2029, 72.5791, -155.762
5.698, 5, -48.0326, -15.194, 37.3154, 28.2578, 72.6127, -155.677
5.7, 5, -48.0225, -15.2016, 37.343, 28.3127, 72.6462, -155.593
5.704, 5, -48.0125, -15.2092, 37.3706, 28.3677, 72.6798, -155.508
5.708, 5, -48.0023, -15.2167, 37.3981, 28.4229, 72.7134, -155.424
5.712, 5, -47.9922, -15.2243, 37.4256, 28.4781, 72.7469, -155.339
5.716, 5, -47.982, -15.2318, 37.4531, 28.5334, 72.7804, -155.255
5.72, 5, -47.9718, -15.2393, 37.4805, 28.5888, 72.814, -155.17
5.724, 5, -47.9616, -15.2468, 37.5079, 28.6444, 72.8475, -155.086
5.728, 5, -47.9514, -15.2543, 37.5352, 28.7, 72.881, -155.002
5.732, 5, -47.9411, -15.2617, 37.5625, 28.7557, 72.9145, -154.917
5.736, 5, -47.9308, -15.2692, 37.5898, 28.8115, 72.948, -154.833
5.74, 5, -47.9205, -15.2766, 37.6171, 28.8674, 72.9814, -154.749
5.744, 5, -47.9101, -15.284, 37.6443, 28.9233, 73.0149, -154.665
5.748, 5, -47.8997, -15.2913, 37.6714, 28.9794, 73.0484, -154.58
5.752, 5, -47.8893, -15.2987, 37.6986, 29.0356, 73.0818, -154.496
5.756, 5, -47.8789, -15.306, 37.7257, 29.0919, 73.1152, -154.412
5.76, 5, -47.8684, -15.3133, 37.7527, 29.1482, 73.1487, -154.328
5.764, 5, -47.858, -15.3206, 37.7798, 29.2047, 73.1821, -154.244
5.768, 5, -47.8475, -15.3279, 37.8068, 29.2613, 73.2155, -154.16
5.772, 5, -47.8369, -15.3352, 37.8337, 29.3179, 73.2488, -154.075
5.776, 5, -47.8264, -15.3424, 37.8606, 29.3747, 73.2822, -153.991
5.78, 5, -47.8158, -15.3497, 37.8875, 29.4315, 73.3156, -153.907
5.784, 5, -47.8052, -15.3569, 37.9144, 29.4884, 73.3489, -153.823
5.788, 5, -47.7946, -15.364, 37.9412, 29.5455, 73.3822, -153.739
5.792, 5, -47.7839, -15.3712, 37.9679, 29.6026, 73.4156, -153.655
5.796, 5, -47.7732, -15.3783, 37.9947, 29.6598, 73.4489, -153.572
5.8, 5, -47.7625, -15.3855, 38.0214, 29.7171, 73.4821, -153.488
5.804, 5, -47.7518, -15.3926, 38.0481, 29.7746, 73.5154, -153.404
5.808, 5, -47.741, -15.3997, 38.0747, 29.8321, 73.5487, -153.32
5.812, 5, -47.7303, -15.4067, 38.1013, 29.8897, 73.5819, -153.236
5.816, 5, -47.7195, -15.4138, 38.1279, 29.9474, 73.6152, -153.152
5.82, 5, -47.7086, -15.4208, 38.1544, 30.0052, 73.6484, -153.068
5.824, 5, -47.6978, -15.4278, 38.1809, 30.0631, 73.6816, -152.985
5.828, 5, -47.6869, -15.4348, 38.2073, 30.1211, 73.7148, -152.901
5.832, 5, -47.676, -15.4418, 38.2338, 30.1791, 73.7479, -152.817
5.836, 5, -47.6651, -15.4487, 38.2602, 30.2373, 73.7811, -152.734
5.84, 5, -47.6541, -15.4556, 38.2865, 30.2956, 73.8142, -152.65
5.844, 5, -47.6432, -15.4626, 38.3128, 30.354, 73.8474, -152.566
5.848, 5, -47.6322, -15.4694, 38.3391, 30.4124, 73.8805, -152.483
5.852, 5, -47.6211, -15.4763, 38.3653, 30.471, 73.9136, -152.399
5.856, 5, -47.6101, -15.4832, 38.3916, 30.5297, 73.9466, -152.316
5.86, 5, -47.599, -15.49, 38.4177, 30.5884, 73.9797, -152.232
5.864, 5, -47.5879, -15.4968, 38.4439, 30.6472, 74.0127, -152.149
5.868, 5, -47.5767, -15.5036, 38.47, 30.7062, 74.0458, -152.065
5.872, 5, -47.5654, -15.5104, 38.496, 30.7652, 74.0788, -151.982
5.876, 5, -47.554, -15.5173, 38.5221, 30.8243, 74.1117, -151.898
5.88, 5, -47.5425, -15.5241, 38.548, 30.8834, 74.1447, -151.815
5.884, 5, -47.5308, -15.5309, 38.574, 30.9425, 74.1776, -151.732
5.888, 5, -47.5191, -15.5378, 38.5998, 31.0016, 74.2105, -151.648
5.892, 5, -47.5071, -15.5446, 38.6257, 31.0606, 74.2433, -151.565
5.896, 5, -47.495, -15.5515, 38.6514, 31.1196, 74.276, -151.482
5.9, 5, -47.4827, -15.5585, 38.6771, 31.1783, 74.3087, -151.399
5.904, 5, -47.4702, -15.5654, 38.7027, 31.2368, 74.3413, -151.316
5.908, 5, -47.4574, -15.5724, 38.7282, 31.295, 74.3737, -151.234
5.912, 5, -47.4445, -15.5795, 38.7536, 31.3529, 74.4061, -151.151
5.916, 5, -47.4313, -15.5866, 38.7789, 31.4104, 74.4383, -151.069
5.92, 6, -47.4178, -15.5937, 38.8042, 31.4673, 74.4703, -150.986
5.924, 6, -47.4041, -15.6009, 38.8292, 31.5238, 74.5022, -150.904
5.928, 6, -47.3901, -15.6082, 38.8542, 31.5796, 74.5339, -150.822
5.932, 6, -47.3758, -15.6155, 38.879, 31.6349, 74.5654, -150.741
5.936, 6, -47.3611, -15.6229, 38.9037, 31.6895, 74.5967, -150.659
5.94, 6, -47.3461, -15.6304, 38.9283, 31.7434, 74.6279, -150.578
5.944, 6, -47.3307, -15.638, 38.9527, 31.7966, 74.6588, -150.497
5.948, 6, -47.3149, -15.6456, 38.977, 31.8492, 74.6895, -150.417
5.952, 6, -47.2988, -15.6534, 39.0012, 31.901, 74.72, -150.336
5.956, 6, -47.2822, -15.6612, 39.0252, 31.9521, 74.7503, -150.256
5.96, 6, -47.2654, -15.6691, 39.049, 32.0025, 74.7804, -150.176
5.964, 6, -47.2482, -15.677, 39.0727, 32.0523, 74.8103, -150.096
5.968, 6, -47.2306, -15.685, 39.0963, 32.1014, 74.8401, -150.017
5.972, 6, -47.2128, -15.6931, 39.1197, 32.1498, 74.8696, -149.937
