hehonglu123/Motion-Primitive-Planning/simulation/robotstudio_sim/scripts/fitting_output/threshold1/curve_exe_v500_z1.csv
timestamp, cmd_num, J1, J2, J3, J4, J5, J6
0, 1, -0.805139, 64.4319, 8.47919, 44.5961, -96.4069, 169.864
0.002, 1, -0.805139, 64.4319, 8.47919, 44.5961, -96.4069, 169.864
0.004, 1, -0.805139, 64.4319, 8.47919, 44.5961, -96.4069, 169.864
0.008, 1, -0.805139, 64.4319, 8.47919, 44.5961, -96.4069, 169.864
0.011, 1, -0.805139, 64.4319, 8.47919, 44.5961, -96.4069, 169.864
0.016, 1, -0.805139, 64.4319, 8.47919, 44.5961, -96.4069, 169.864
0.02, 1, -0.805139, 64.4319, 8.47919, 44.5961, -96.4069, 169.864
0.024, 1, -0.805139, 64.4319, 8.47919, 44.5961, -96.4069, 169.864
0.028, 1, -0.805139, 64.4319, 8.47919, 44.5961, -96.4069, 169.864
0.032, 1, -0.805139, 64.4319, 8.47919, 44.5961, -96.4069, 169.864
0.036, 1, -0.80513, 64.4319, 8.47919, 44.5961, -96.4069, 169.864
0.04, 1, -0.805066, 64.4319, 8.47919, 44.5961, -96.4069, 169.864
0.044, 1, -0.804842, 64.4319, 8.4792, 44.5961, -96.4069, 169.864
0.048, 1, -0.804314, 64.4317, 8.47922, 44.5961, -96.4069, 169.864
0.052, 1, -0.803339, 64.4314, 8.47925, 44.5962, -96.4069, 169.864
0.056, 1, -0.801807, 64.4309, 8.47928, 44.5963, -96.4068, 169.864
0.06, 1, -0.799644, 64.4302, 8.4793, 44.5965, -96.4066, 169.863
0.064, 1, -0.7968, 64.4291, 8.47926, 44.597, -96.4062, 169.862
0.068, 1, -0.793241, 64.4276, 8.47913, 44.5978, -96.4056, 169.86
0.072, 1, -0.788919, 64.4258, 8.47882, 44.5991, -96.4045, 169.857
0.076, 1, -0.783737, 64.4234, 8.47827, 44.6011, -96.4029, 169.852
0.08, 1, -0.777539, 64.4205, 8.47738, 44.604, -96.4005, 169.845
0.084, 1, -0.770123, 64.4169, 8.47603, 44.6081, -96.397, 169.836
0.088, 1, -0.761292, 64.4126, 8.47409, 44.6137, -96.3924, 169.823
0.092, 1, -0.750885, 64.4076, 8.47141, 44.6211, -96.3862, 169.805
0.096, 1, -0.738798, 64.4016, 8.46781, 44.6307, -96.3782, 169.783
0.1, 1, -0.724947, 64.3948, 8.46313, 44.6428, -96.368, 169.754
0.104, 1, -0.709233, 64.3871, 8.45718, 44.6579, -96.3554, 169.719
0.108, 1, -0.691526, 64.3785, 8.44978, 44.6764, -96.34, 169.676
0.112, 1, -0.671695, 64.3688, 8.44079, 44.6985, -96.3214, 169.624
0.116, 1, -0.649657, 64.3581, 8.43005, 44.7245, -96.2996, 169.563
0.12, 1, -0.625393, 64.3465, 8.41742, 44.7549, -96.2741, 169.493
0.124, 1, -0.598929, 64.3341, 8.40279, 44.7897, -96.2449, 169.411
0.128, 1, -0.57031, 64.3211, 8.38607, 44.8293, -96.2117, 169.319
0.131, 1, -0.539582, 64.3075, 8.36721, 44.8736, -96.1745, 169.216
0.136, 1, -0.506785, 64.2934, 8.3462, 44.9226, -96.1333, 169.102
0.139, 1, -0.471921, 64.2786, 8.32308, 44.9764, -96.0882, 168.977
0.144, 1, -0.434954, 64.2632, 8.29792, 45.0347, -96.0392, 168.841
0.148, 1, -0.395846, 64.2468, 8.27085, 45.0973, -95.9866, 168.695
0.152, 1, -0.354614, 64.2296, 8.24199, 45.164, -95.9307, 168.54
0.156, 1, -0.311348, 64.2114, 8.21151, 45.2343, -95.8716, 168.376
0.16, 1, -0.26618, 64.1923, 8.17957, 45.308, -95.8098, 168.205
0.164, 1, -0.219228, 64.1723, 8.14636, 45.3845, -95.7455, 168.026
0.168, 1, -0.17057, 64.1515, 8.11208, 45.4636, -95.679, 167.842
0.172, 1, -0.120273, 64.1298, 8.0769, 45.5448, -95.6108, 167.653
0.176, 1, -0.0684324, 64.1074, 8.04103, 45.6278, -95.5412, 167.46
0.18, 1, -0.0151798, 64.0842, 8.00461, 45.7121, -95.4703, 167.264
0.184, 1, 0.0393421, 64.0603, 7.96778, 45.7975, -95.3986, 167.065
0.188, 1, 0.0949878, 64.0357, 7.93067, 45.8838, -95.3262, 166.864
0.192, 1, 0.151603, 64.0107, 7.89336, 45.9706, -95.2533, 166.662
0.196, 1, 0.209032, 63.9852, 7.85591, 46.0579, -95.18, 166.458
0.2, 1, 0.267147, 63.9594, 7.81836, 46.1455, -95.1065, 166.254
0.204, 1, 0.325858, 63.9333, 7.78077, 46.2332, -95.0328, 166.05
0.208, 1, 0.385089, 63.907, 7.74314, 46.3212, -94.959, 165.845
0.212, 1, 0.444746, 63.8806, 7.70551, 46.4091, -94.8851, 165.64
0.216, 1, 0.50472, 63.8541, 7.66787, 46.4972, -94.8113, 165.435
0.22, 1, 0.564908, 63.8275, 7.63025, 46.5852, -94.7374, 165.23
0.224, 1, 0.62523, 63.8009, 7.59264, 46.6732, -94.6635, 165.025
0.228, 1, 0.685633, 63.7742, 7.55504, 46.7612, -94.5896, 164.82
0.232, 1, 0.746079, 63.7476, 7.51746, 46.8491, -94.5158, 164.615
0.236, 1, 0.806543, 63.7209, 7.4799, 46.937, -94.442, 164.41
0.24, 1, 0.867008, 63.6943, 7.44235, 47.0249, -94.3682, 164.205
0.244, 1, 0.927463, 63.6676, 7.40483, 47.1128, -94.2945, 164
0.248, 1, 0.9879, 63.641, 7.36733, 47.2005, -94.2208, 163.796
0.252, 1, 1.04831, 63.6143, 7.32984, 47.2883, -94.1472, 163.591
0.256, 1, 1.1087, 63.5877, 7.29238, 47.376, -94.0736, 163.387
0.26, 1, 1.16906, 63.5611, 7.25495, 47.4636, -94, 163.183
0.264, 1, 1.22938, 63.5345, 7.21753, 47.5512, -93.9265, 162.979
0.268, 1, 1.28967, 63.508, 7.18013, 47.6387, -93.853, 162.775
0.272, 1, 1.34993, 63.4814, 7.14276, 47.7262, -93.7795, 162.571
0.276, 1, 1.41016, 63.4549, 7.1054, 47.8137, -93.7062, 162.367
0.28, 1, 1.47034, 63.4283, 7.06807, 47.9011, -93.6328, 162.164
0.284, 1, 1.5305, 63.4018, 7.03077, 47.9884, -93.5595, 161.96
0.288, 1, 1.59062, 63.3753, 6.99348, 48.0757, -93.4862, 161.757
0.292, 1, 1.6507, 63.3489, 6.95622, 48.1629, -93.413, 161.554
0.296, 1, 1.71075, 63.3224, 6.91897, 48.2501, -93.3398, 161.35
0.3, 1, 1.77076, 63.2959, 6.88175, 48.3372, -93.2667, 161.147
0.304, 1, 1.83074, 63.2695, 6.84456, 48.4243, -93.1936, 160.945
0.308, 1, 1.89067, 63.2431, 6.80738, 48.5113, -93.1206, 160.742
0.312, 1, 1.95058, 63.2167, 6.77023, 48.5983, -93.0476, 160.539
0.316, 1, 2.01044, 63.1903, 6.7331, 48.6852, -92.9746, 160.337
0.32, 1, 2.07027, 63.1639, 6.696, 48.772, -92.9017, 160.134
0.324, 1, 2.13007, 63.1376, 6.65892, 48.8588, -92.8288, 159.932
0.328, 1, 2.18982, 63.1112, 6.62186, 48.9456, -92.756, 159.73
0.332, 1, 2.24954, 63.0849, 6.58482, 49.0323, -92.6832, 159.528
0.336, 1, 2.30922, 63.0586, 6.54781, 49.1189, -92.6105, 159.326
0.34, 1, 2.36887, 63.0323, 6.51081, 49.2055, -92.5378, 159.124
0.344, 1, 2.42847, 63.0061, 6.47385, 49.2921, -92.4652, 158.923
0.348, 1, 2.48804, 62.9798, 6.4369, 49.3785, -92.3926, 158.721
0.352, 1, 2.54757, 62.9536, 6.39998, 49.465, -92.32, 158.52
0.356, 1, 2.60706, 62.9274, 6.36308, 49.5513, -92.2475, 158.318
0.36, 1, 2.66652, 62.9012, 6.32621, 49.6377, -92.1751, 158.117
0.364, 1, 2.72593, 62.875, 6.28936, 49.7239, -92.1027, 157.916
0.368, 1, 2.78531, 62.8488, 6.25253, 49.8101, -92.0303, 157.715
0.372, 1, 2.84465, 62.8226, 6.21573, 49.8963, -91.958, 157.515
0.376, 1, 2.90395, 62.7965, 6.17895, 49.9824, -91.8857, 157.314
0.38, 1, 2.96321, 62.7704, 6.1422, 50.0684, -91.8135, 157.114
0.384, 1, 3.02243, 62.7443, 6.10547, 50.1544, -91.7413, 156.913
0.388, 1, 3.08162, 62.7182, 6.06876, 50.2403, -91.6692, 156.713
0.392, 1, 3.14076, 62.6921, 6.03208, 50.3262, -91.5971, 156.513
0.396, 1, 3.19987, 62.6661, 5.99542, 50.412, -91.5251, 156.313
0.4, 1, 3.25894, 62.6401, 5.95879, 50.4977, -91.4531, 156.113
0.404, 1, 3.31797, 62.614, 5.92218, 50.5834, -91.3812, 155.914
0.408, 1, 3.37695, 62.588, 5.88559, 50.6691, -91.3093, 155.714
0.412, 1, 3.4359, 62.5621, 5.84903, 50.7547, -91.2374, 155.515
0.416, 1, 3.49481, 62.5361, 5.8125, 50.8402, -91.1656, 155.315
0.42, 1, 3.55368, 62.5102, 5.77599, 50.9257, -91.0939, 155.116
0.424, 1, 3.61251, 62.4842, 5.7395, 51.0111, -91.0222, 154.917
0.428, 1, 3.6713, 62.4583, 5.70304, 51.0964, -90.9506, 154.718
0.432, 1, 3.73005, 62.4324, 5.6666, 51.1817, -90.879, 154.52
0.436, 1, 3.78875, 62.4066, 5.63019, 51.2669, -90.8074, 154.321
0.44, 1, 3.84742, 62.3807, 5.59381, 51.3521, -90.7359, 154.123
0.444, 1, 3.90605, 62.3549, 5.55745, 51.4372, -90.6645, 153.924
0.448, 1, 3.96464, 62.329, 5.52111, 51.5223, -90.5931, 153.726
0.452, 1, 4.02318, 62.3032, 5.4848, 51.6073, -90.5217, 153.528
0.456, 1, 4.08169, 62.2774, 5.44852, 51.6922, -90.4504, 153.33
0.46, 1, 4.14015, 62.2517, 5.41226, 51.7771, -90.3792, 153.132
0.464, 1, 4.19857, 62.2259, 5.37602, 51.8619, -90.308, 152.935
0.468, 1, 4.25695, 62.2002, 5.33982, 51.9467, -90.2368, 152.737
0.472, 1, 4.31529, 62.1745, 5.30363, 52.0314, -90.1657, 152.54
0.476, 1, 4.37359, 62.1488, 5.26748, 52.116, -90.0947, 152.343
0.48, 1, 4.43185, 62.1231, 5.23135, 52.2006, -90.0237, 152.146
0.484, 1, 4.49006, 62.0975, 5.19524, 52.2851, -89.9528, 151.949
0.488, 1, 4.54823, 62.0718, 5.15917, 52.3695, -89.8819, 151.752
0.492, 1, 4.60637, 62.0462, 5.12311, 52.4539, -89.811, 151.555
0.496, 1, 4.66445, 62.0206, 5.08709, 52.5383, -89.7402, 151.359
0.5, 1, 4.7225, 61.995, 5.05109, 52.6225, -89.6695, 151.162
0.504, 1, 4.78051, 61.9695, 5.01511, 52.7068, -89.5988, 150.966
0.508, 1, 4.83847, 61.9439, 4.97917, 52.7909, -89.5282, 150.77
0.512, 1, 4.89639, 61.9184, 4.94324, 52.875, -89.4576, 150.574
0.516, 1, 4.95427, 61.8929, 4.90735, 52.959, -89.3871, 150.378
0.52, 1, 5.0121, 61.8674, 4.87148, 53.043, -89.3166, 150.183
0.524, 1, 5.06989, 61.8419, 4.83564, 53.1269, -89.2461, 149.987
0.528, 1, 5.12764, 61.8165, 4.79982, 53.2107, -89.1758, 149.792
0.532, 1, 5.18535, 61.791, 4.76404, 53.2945, -89.1055, 149.597
0.536, 1, 5.24301, 61.7656, 4.72827, 53.3782, -89.0352, 149.402
0.54, 1, 5.30063, 61.7402, 4.69254, 53.4619, -88.965, 149.207
0.544, 1, 5.35821, 61.7149, 4.65683, 53.5454, -88.8948, 149.012
0.548, 1, 5.41574, 61.6895, 4.62115, 53.629, -88.8247, 148.817
0.552, 1, 5.47324, 61.6642, 4.58549, 53.7124, -88.7546, 148.623
0.556, 1, 5.53068, 61.6388, 4.54987, 53.7958, -88.6846, 148.429
0.56, 1, 5.58809, 61.6135, 4.51426, 53.8792, -88.6147, 148.234
0.564, 1, 5.64545, 61.5883, 4.47869, 53.9624, -88.5448, 148.04
0.568, 1, 5.70276, 61.563, 4.44314, 54.0457, -88.4749, 147.847
0.572, 1, 5.76003, 61.5378, 4.40762, 54.1288, -88.4051, 147.653
0.576, 1, 5.81726, 61.5125, 4.37213, 54.2119, -88.3354, 147.459
0.58, 1, 5.87445, 61.4873, 4.33667, 54.2949, -88.2657, 147.266
0.584, 1, 5.93159, 61.4622, 4.30123, 54.3779, -88.1961, 147.073
0.588, 1, 5.98868, 61.437, 4.26582, 54.4607, -88.1265, 146.879
0.592, 1, 6.04573, 61.4119, 4.23044, 54.5436, -88.0569, 146.686
0.596, 1, 6.10274, 61.3867, 4.19508, 54.6263, -87.9875, 146.494
0.6, 1, 6.1597, 61.3616, 4.15975, 54.709, -87.9181, 146.301
0.604, 1, 6.21662, 61.3365, 4.12445, 54.7917, -87.8487, 146.108
0.608, 1, 6.2735, 61.3115, 4.08918, 54.8742, -87.7794, 145.916
0.612, 1, 6.33032, 61.2864, 4.05394, 54.9567, -87.7101, 145.724
0.616, 1, 6.38711, 61.2614, 4.01872, 55.0392, -87.6409, 145.532
0.62, 1, 6.44385, 61.2364, 3.98353, 55.1215, -87.5718, 145.34
0.624, 1, 6.50054, 61.2114, 3.94837, 55.2038, -87.5027, 145.148
0.628, 1, 6.55719, 61.1864, 3.91324, 55.2861, -87.4337, 144.956
0.632, 1, 6.6138, 61.1615, 3.87813, 55.3683, -87.3647, 144.765
0.636, 1, 6.67036, 61.1366, 3.84306, 55.4504, -87.2958, 144.574
0.64, 1, 6.72687, 61.1117, 3.80801, 55.5324, -87.2269, 144.382
0.644, 1, 6.78334, 61.0868, 3.77299, 55.6144, -87.1581, 144.191
0.648, 1, 6.83976, 61.0619, 3.73799, 55.6963, -87.0893, 144.001
0.652, 1, 6.89614, 61.0371, 3.70303, 55.7782, -87.0206, 143.81
0.656, 1, 6.95247, 61.0122, 3.66809, 55.8599, -86.952, 143.619
0.66, 1, 7.00876, 60.9874, 3.63318, 55.9417, -86.8834, 143.429
0.664, 1, 7.065, 60.9626, 3.5983, 56.0233, -86.8148, 143.239
0.668, 1, 7.1212, 60.9379, 3.56345, 56.1049, -86.7464, 143.049
0.672, 1, 7.17735, 60.9131, 3.52863, 56.1864, -86.6779, 142.859
0.676, 1, 7.23345, 60.8884, 3.49384, 56.2678, -86.6096, 142.669
0.68, 1, 7.28951, 60.8637, 3.45907, 56.3492, -86.5413, 142.479
0.684, 1, 7.34552, 60.839, 3.42434, 56.4305, -86.473, 142.29
0.688, 1, 7.40148, 60.8144, 3.38963, 56.5118, -86.4048, 142.1
0.692, 1, 7.4574, 60.7897, 3.35495, 56.593, -86.3366, 141.911
0.696, 1, 7.51328, 60.7651, 3.3203, 56.6741, -86.2686, 141.722
0.7, 1, 7.5691, 60.7405, 3.28567, 56.7551, -86.2005, 141.533
0.704, 1, 7.62488, 60.7159, 3.25108, 56.8361, -86.1326, 141.345
0.708, 1, 7.68062, 60.6913, 3.21652, 56.917, -86.0646, 141.156
0.712, 1, 7.7363, 60.6668, 3.18198, 56.9979, -85.9968, 140.968
0.716, 1, 7.79194, 60.6423, 3.14747, 57.0786, -85.929, 140.78
0.72, 1, 7.84754, 60.6178, 3.113, 57.1593, -85.8612, 140.592
0.724, 1, 7.90308, 60.5933, 3.07855, 57.24, -85.7935, 140.404
0.728, 1, 7.95859, 60.5688, 3.04413, 57.3205, -85.7259, 140.216
0.732, 1, 8.01404, 60.5444, 3.00974, 57.4011, -85.6583, 140.028
0.736, 1, 8.06945, 60.52, 2.97538, 57.4815, -85.5908, 139.841
0.74, 1, 8.12481, 60.4956, 2.94104, 57.5619, -85.5233, 139.654
0.744, 1, 8.18012, 60.4712, 2.90674, 57.6422, -85.4559, 139.467
0.748, 1, 8.23539, 60.4468, 2.87247, 57.7224, -85.3886, 139.28
0.752, 1, 8.2906, 60.4225, 2.83822, 57.8025, -85.3213, 139.093
0.756, 1, 8.34578, 60.3982, 2.80401, 57.8826, -85.2541, 138.906
0.76, 1, 8.4009, 60.3739, 2.76982, 57.9627, -85.1869, 138.72
0.764, 1, 8.45598, 60.3496, 2.73566, 58.0426, -85.1198, 138.534
0.768, 1, 8.51101, 60.3254, 2.70154, 58.1225, -85.0527, 138.347
0.772, 1, 8.56599, 60.3011, 2.66744, 58.2023, -84.9857, 138.161
0.776, 1, 8.62093, 60.2769, 2.63337, 58.2821, -84.9188, 137.976
0.78, 1, 8.67582, 60.2527, 2.59933, 58.3618, -84.8519, 137.79
0.784, 1, 8.73066, 60.2286, 2.56532, 58.4414, -84.7851, 137.604
0.788, 1, 8.78545, 60.2044, 2.53134, 58.5209, -84.7183, 137.419
0.792, 1, 8.8402, 60.1803, 2.49739, 58.6004, -84.6516, 137.234
0.796, 1, 8.8949, 60.1562, 2.46347, 58.6798, -84.5849, 137.049
0.8, 1, 8.94955, 60.1321, 2.42958, 58.7591, -84.5183, 136.864
0.804, 1, 9.00415, 60.108, 2.39571, 58.8384, -84.4518, 136.679
0.808, 1, 9.05871, 60.084, 2.36188, 58.9176, -84.3853, 136.495
0.812, 1, 9.11322, 60.06, 2.32808, 58.9967, -84.3189, 136.31
0.816, 1, 9.16768, 60.036, 2.2943, 59.0758, -84.2525, 136.126
0.82, 1, 9.22209, 60.012, 2.26056, 59.1548, -84.1862, 135.942
0.824, 1, 9.27646, 59.988, 2.22685, 59.2337, -84.12, 135.758
0.828, 1, 9.33078, 59.9641, 2.19316, 59.3125, -84.0538, 135.575
0.832, 1, 9.38505, 59.9402, 2.15951, 59.3913, -83.9877, 135.391
0.836, 1, 9.43927, 59.9163, 2.12588, 59.47, -83.9216, 135.208
0.84, 1, 9.49344, 59.8924, 2.09229, 59.5487, -83.8556, 135.024
0.844, 1, 9.54757, 59.8686, 2.05872, 59.6273, -83.7896, 134.841
0.848, 1, 9.60165, 59.8447, 2.02518, 59.7058, -83.7237, 134.658
0.852, 1, 9.65568, 59.8209, 1.99168, 59.7842, -83.6579, 134.476
0.856, 1, 9.70966, 59.7971, 1.9582, 59.8626, -83.5921, 134.293
0.86, 1, 9.76359, 59.7734, 1.92475, 59.9408, -83.5264, 134.111
0.864, 1, 9.81748, 59.7496, 1.89134, 60.0191, -83.4607, 133.928
0.868, 1, 9.87132, 59.7259, 1.85795, 60.0972, -83.3951, 133.746
0.872, 1, 9.92511, 59.7022, 1.82459, 60.1753, -83.3296, 133.564
0.876, 1, 9.97885, 59.6785, 1.79126, 60.2533, -83.2641, 133.383
0.88, 1, 10.0325, 59.6548, 1.75796, 60.3313, -83.1986, 133.201
0.884, 1, 10.0862, 59.6312, 1.7247, 60.4092, -83.1333, 133.019
0.888, 1, 10.1398, 59.6076, 1.69146, 60.487, -83.068, 132.838
0.892, 1, 10.1933, 59.584, 1.65825, 60.5647, -83.0027, 132.657
0.896, 1, 10.2468, 59.5604, 1.62507, 60.6424, -82.9375, 132.476
0.9, 1, 10.3003, 59.5368, 1.59192, 60.72, -82.8724, 132.295
0.904, 1, 10.3537, 59.5133, 1.5588, 60.7975, -82.8073, 132.115
0.908, 1, 10.4071, 59.4898, 1.52571, 60.8749, -82.7423, 131.934
0.912, 1, 10.4604, 59.4663, 1.49266, 60.9523, -82.6773, 131.754
0.916, 1, 10.5136, 59.4428, 1.45963, 61.0296, -82.6124, 131.574
0.92, 1, 10.5668, 59.4194, 1.42663, 61.1069, -82.5476, 131.394
0.924, 1, 10.62, 59.3959, 1.39366, 61.1841, -82.4828, 131.214
0.928, 1, 10.6731, 59.3725, 1.36072, 61.2612, -82.4181, 131.034
0.932, 1, 10.7262, 59.3492, 1.32781, 61.3382, -82.3534, 130.855
0.936, 1, 10.7792, 59.3258, 1.29493, 61.4152, -82.2888, 130.675
0.94, 1, 10.8322, 59.3024, 1.26208, 61.4921, -82.2243, 130.496
0.944, 1, 10.8851, 59.2791, 1.22926, 61.5689, -82.1598, 130.317
0.948, 1, 10.938, 59.2558, 1.19647, 61.6456, -82.0953, 130.138
0.952, 1, 10.9908, 59.2325, 1.16371, 61.7223, -82.031, 129.96
0.956, 1, 11.0436, 59.2093, 1.13099, 61.7989, -81.9667, 129.781
0.96, 1, 11.0963, 59.186, 1.09829, 61.8755, -81.9024, 129.603
0.964, 1, 11.149, 59.1628, 1.06562, 61.952, -81.8382, 129.425
0.968, 1, 11.2016, 59.1396, 1.03298, 62.0284, -81.7741, 129.247
0.972, 1, 11.2542, 59.1165, 1.00037, 62.1047, -81.71, 129.069
0.976, 1, 11.3068, 59.0933, 0.967788, 62.181, -81.646, 128.891
0.98, 1, 11.3592, 59.0702, 0.935239, 62.2572, -81.582, 128.714
0.984, 1, 11.4117, 59.0471, 0.902719, 62.3333, -81.5181, 128.536
0.988, 1, 11.4641, 59.024, 0.87023, 62.4093, -81.4543, 128.359
0.992, 1, 11.5164, 59.0009, 0.83777, 62.4853, -81.3905, 128.182
0.996, 1, 11.5687, 58.9779, 0.805341, 62.5612, -81.3268, 128.005
1, 1, 11.621, 58.9548, 0.772941, 62.6371, -81.2631, 127.828
1.004, 1, 11.6732, 58.9318, 0.740572, 62.7128, -81.1995, 127.652
1.008, 1, 11.7253, 58.9089, 0.708233, 62.7885, -81.136, 127.475
1.012, 1, 11.7774, 58.8859, 0.675923, 62.8642, -81.0725, 127.299
1.016, 1, 11.8295, 58.8629, 0.643644, 62.9397, -81.009, 127.123
1.02, 1, 11.8815, 58.84, 0.611394, 63.0152, -80.9457, 126.947
1.024, 1, 11.9334, 58.8171, 0.579175, 63.0907, -80.8824, 126.771
1.027, 1, 11.9853, 58.7943, 0.546985, 63.166, -80.8191, 126.596
1.032, 1, 12.0372, 58.7714, 0.514826, 63.2413, -80.7559, 126.42
1.036, 1, 12.089, 58.7486, 0.482696, 63.3165, -80.6928, 126.245
1.04, 1, 12.1408, 58.7258, 0.450597, 63.3916, -80.6297, 126.07
1.044, 1, 12.1925, 58.703, 0.418527, 63.4667, -80.5667, 125.895
1.048, 1, 12.2442, 58.6802, 0.386487, 63.5417, -80.5037, 125.72
1.052, 1, 12.2958, 58.6575, 0.354478, 63.6166, -80.4408, 125.546
1.055, 1, 12.3473, 58.6347, 0.322498, 63.6915, -80.378, 125.371
1.06, 1, 12.3989, 58.612, 0.290548, 63.7663, -80.3152, 125.197
1.064, 1, 12.4503, 58.5893, 0.258628, 63.841, -80.2525, 125.023
1.068, 1, 12.5018, 58.5667, 0.226738, 63.9157, -80.1898, 124.849
1.072, 1, 12.5531, 58.544, 0.194878, 63.9902, -80.1272, 124.675
1.076, 1, 12.6045, 58.5214, 0.163048, 64.0648, -80.0647, 124.502
1.08, 1, 12.6558, 58.4988, 0.131248, 64.1392, -80.0022, 124.328
1.084, 1, 12.707, 58.4762, 0.0994779, 64.2136, -79.9398, 124.155
1.088, 1, 12.7582, 58.4537, 0.0677375, 64.2879, -79.8774, 123.982
1.091, 1, 12.8093, 58.4311, 0.0360269, 64.3621, -79.8151, 123.809
1.096, 1, 12.8604, 58.4086, 0.00434618, 64.4363, -79.7528, 123.636
1.1, 1, 12.9115, 58.3861, -0.0273047, 64.5103, -79.6907, 123.464
1.104, 1, 12.9624, 58.3637, -0.0589259, 64.5844, -79.6285, 123.291
1.108, 1, 13.0134, 58.3412, -0.0905172, 64.6583, -79.5664, 123.119
1.112, 1, 13.0643, 58.3188, -0.122079, 64.7322, -79.5044, 122.947
1.116, 1, 13.1151, 58.2964, -0.153611, 64.806, -79.4425, 122.775
1.119, 1, 13.1659, 58.274, -0.185113, 64.8798, -79.3806, 122.603
1.124, 1, 13.2167, 58.2516, -0.216585, 64.9534, -79.3187, 122.431
1.128, 1, 13.2674, 58.2293, -0.248028, 65.027, -79.2569, 122.26
1.132, 1, 13.3181, 58.207, -0.279441, 65.1006, -79.1952, 122.088
1.136, 1, 13.3687, 58.1847, -0.310825, 65.174, -79.1336, 121.917
1.14, 1, 13.4192, 58.1624, -0.342179, 65.2474, -79.0719, 121.746
1.144, 1, 13.4698, 58.1401, -0.373503, 65.3208, -79.0104, 121.575
1.147, 1, 13.5202, 58.1179, -0.404798, 65.394, -78.9489, 121.405
1.152, 1, 13.5707, 58.0956, -0.436063, 65.4672, -78.8875, 121.234
1.156, 1, 13.621, 58.0735, -0.467299, 65.5403, -78.8261, 121.064
1.16, 1, 13.6714, 58.0513, -0.498506, 65.6134, -78.7648, 120.893
1.164, 1, 13.7216, 58.0291, -0.529682, 65.6863, -78.7035, 120.723
1.168, 1, 13.7719, 58.007, -0.56083, 65.7593, -78.6423, 120.554
1.172, 1, 13.822, 57.9849, -0.591948, 65.8321, -78.5812, 120.384
1.175, 1, 13.8722, 57.9628, -0.623036, 65.9049, -78.5201, 120.214
1.18, 1, 13.9223, 57.9407, -0.654096, 65.9776, -78.459, 120.045
1.184, 1, 13.9723, 57.9187, -0.685126, 66.0502, -78.3981, 119.876
1.188, 1, 14.0223, 57.8966, -0.716126, 66.1228, -78.3371, 119.707
1.192, 1, 14.0723, 57.8746, -0.747097, 66.1953, -78.2763, 119.538
1.196, 1, 14.1222, 57.8526, -0.778039, 66.2677, -78.2155, 119.369
1.2, 1, 14.172, 57.8307, -0.808952, 66.3401, -78.1547, 119.2
1.204, 1, 14.2218, 57.8087, -0.839836, 66.4124, -78.0941, 119.032
1.208, 1, 14.2716, 57.7868, -0.87069, 66.4846, -78.0334, 118.863
1.212, 1, 14.3213, 57.7649, -0.901515, 66.5568, -77.9729, 118.695
1.216, 1, 14.3709, 57.743, -0.932311, 66.6288, -77.9124, 118.527
1.22, 1, 14.4206, 57.7211, -0.963078, 66.7009, -77.8519, 118.36
1.224, 1, 14.4701, 57.6993, -0.993816, 66.7728, -77.7915, 118.192
1.228, 1, 14.5197, 57.6775, -1.02452, 66.8447, -77.7311, 118.024
1.232, 1, 14.5691, 57.6556, -1.0552, 66.9165, -77.6709, 117.857
1.236, 1, 14.6186, 57.6339, -1.08585, 66.9883, -77.6106, 117.69
1.24, 1, 14.668, 57.6121, -1.11648, 67.06, -77.5505, 117.523
1.244, 1, 14.7173, 57.5904, -1.14707, 67.1316, -77.4904, 117.356
1.248, 1, 14.7666, 57.5686, -1.17763, 67.2031, -77.4303, 117.189
1.252, 1, 14.8158, 57.5469, -1.20817, 67.2746, -77.3703, 117.023
1.256, 1, 14.865, 57.5253, -1.23867, 67.346, -77.3104, 116.856
1.26, 1, 14.9142, 57.5036, -1.26915, 67.4173, -77.2505, 116.69
1.264, 1, 14.9633, 57.482, -1.2996, 67.4886, -77.1906, 116.524
1.267, 1, 15.0123, 57.4603, -1.33002, 67.5598, -77.1309, 116.358
1.272, 1, 15.0613, 57.4388, -1.36041, 67.631, -77.0712, 116.192
1.276, 1, 15.1103, 57.4172, -1.39077, 67.702, -77.0115, 116.027
1.28, 1, 15.1592, 57.3956, -1.4211, 67.7731, -76.9519, 115.861
1.284, 1, 15.2081, 57.3741, -1.45141, 67.844, -76.8923, 115.696
1.288, 1, 15.2569, 57.3526, -1.48168, 67.9149, -76.8328, 115.531
1.292, 1, 15.3057, 57.3311, -1.51193, 67.9857, -76.7734, 115.366
1.295, 1, 15.3544, 57.3096, -1.54215, 68.0564, -76.714, 115.201
1.3, 1, 15.4031, 57.2881, -1.57234, 68.1271, -76.6547, 115.036
1.304, 1, 15.4518, 57.2667, -1.6025, 68.1977, -76.5954, 114.872
1.308, 1, 15.5004, 57.2453, -1.63264, 68.2682, -76.5362, 114.708
1.312, 1, 15.5489, 57.2239, -1.66274, 68.3387, -76.4771, 114.543
1.316, 1, 15.5974, 57.2025, -1.69282, 68.4091, -76.418, 114.379
1.32, 1, 15.6459, 57.1812, -1.72286, 68.4794, -76.3589, 114.215
1.324, 1, 15.6943, 57.1598, -1.75288, 68.5497, -76.2999, 114.052
1.328, 1, 15.7427, 57.1385, -1.78288, 68.6199, -76.241, 113.888
1.332, 1, 15.791, 57.1172, -1.81284, 68.69, -76.1822, 113.725
1.336, 1, 15.8393, 57.096, -1.84277, 68.7601, -76.1233, 113.561
1.34, 1, 15.8875, 57.0747, -1.87268, 68.8301, -76.0646, 113.398
1.344, 1, 15.9357, 57.0535, -1.90255, 68.9001, -76.0059, 113.235
1.348, 1, 15.9838, 57.0323, -1.9324, 68.9699, -75.9472, 113.073
1.352, 1, 16.0319, 57.0111, -1.96222, 69.0397, -75.8886, 112.91
1.356, 1, 16.08, 56.9899, -1.99202, 69.1095, -75.8301, 112.747
1.36, 1, 16.128, 56.9687, -2.02178, 69.1792, -75.7716, 112.585
1.364, 1, 16.1759, 56.9476, -2.05152, 69.2488, -75.7132, 112.423
1.368, 1, 16.2238, 56.9265, -2.08123, 69.3183, -75.6548, 112.261
1.372, 1, 16.2717, 56.9054, -2.11091, 69.3878, -75.5965, 112.099
1.376, 1, 16.3195, 56.8843, -2.14056, 69.4572, -75.5382, 111.937
1.38, 1, 16.3673, 56.8633, -2.17018, 69.5265, -75.48, 111.776
1.384, 1, 16.415, 56.8422, -2.19978, 69.5958, -75.4218, 111.614
1.388, 1, 16.4627, 56.8212, -2.22935, 69.665, -75.3637, 111.453
1.392, 1, 16.5103, 56.8002, -2.25889, 69.7342, -75.3057, 111.292
1.396, 1, 16.5579, 56.7793, -2.2884, 69.8033, -75.2477, 111.131
1.4, 1, 16.6055, 56.7583, -2.31788, 69.8723, -75.1897, 110.97
1.404, 1, 16.653, 56.7374, -2.34734, 69.9412, -75.1319, 110.809
1.408, 1, 16.7005, 56.7165, -2.37677, 70.0101, -75.074, 110.649
1.412, 1, 16.7479, 56.6956, -2.40617, 70.079, -75.0163, 110.488
1.416, 1, 16.7953, 56.6747, -2.43554, 70.1477, -74.9585, 110.328
1.42, 1, 16.8426, 56.6538, -2.46489, 70.2164, -74.9009, 110.168
1.424, 1, 16.8899, 56.633, -2.49421, 70.285, -74.8433, 110.008
1.428, 1, 16.9371, 56.6122, -2.5235, 70.3536, -74.7857, 109.849
1.432, 1, 16.9843, 56.5914, -2.55276, 70.4221, -74.7282, 109.689
1.436, 1, 17.0315, 56.5706, -2.582, 70.4906, -74.6708, 109.529
1.44, 1, 17.0786, 56.5498, -2.61121, 70.5589, -74.6134, 109.37
1.444, 1, 17.1256, 56.5291, -2.64039, 70.6272, -74.556, 109.211
1.448, 1, 17.1726, 56.5084, -2.66954, 70.6955, -74.4987, 109.052
1.452, 1, 17.2196, 56.4877, -2.69867, 70.7637, -74.4415, 108.893
1.456, 1, 17.2666, 56.467, -2.72777, 70.8318, -74.3843, 108.734
1.46, 1, 17.3134, 56.4463, -2.75684, 70.8998, -74.3272, 108.576
1.464, 1, 17.3603, 56.4257, -2.78588, 70.9678, -74.2701, 108.417
1.468, 1, 17.4071, 56.4051, -2.8149, 71.0358, -74.2131, 108.259
1.472, 1, 17.4538, 56.3845, -2.84389, 71.1036, -74.1561, 108.101
1.476, 1, 17.5006, 56.3639, -2.87286, 71.1714, -74.0992, 107.943
1.48, 1, 17.5472, 56.3433, -2.90179, 71.2392, -74.0424, 107.785
1.484, 1, 17.5939, 56.3228, -2.9307, 71.3068, -73.9855, 107.627
1.488, 1, 17.6404, 56.3022, -2.95959, 71.3745, -73.9288, 107.47
1.492, 1, 17.687, 56.2817, -2.98844, 71.442, -73.8721, 107.313
1.496, 1, 17.7335, 56.2612, -3.01727, 71.5095, -73.8154, 107.155
1.5, 1, 17.7799, 56.2408, -3.04608, 71.5769, -73.7588, 106.998
1.504, 1, 17.8263, 56.2203, -3.07485, 71.6443, -73.7023, 106.841
1.508, 1, 17.8727, 56.1999, -3.1036, 71.7116, -73.6458, 106.684
1.512, 1, 17.919, 56.1795, -3.13233, 71.7788, -73.5894, 106.528
1.516, 1, 17.9653, 56.1591, -3.16102, 71.846, -73.533, 106.371
1.52, 1, 18.0115, 56.1387, -3.18969, 71.9131, -73.4766, 106.215
1.524, 1, 18.0577, 56.1184, -3.21833, 71.9802, -73.4204, 106.059
1.528, 1, 18.1039, 56.098, -3.24695, 72.0471, -73.3641, 105.903
1.532, 1, 18.15, 56.0777, -3.27554, 72.1141, -73.308, 105.747
1.536, 1, 18.1961, 56.0574, -3.30411, 72.1809, -73.2518, 105.591
1.54, 1, 18.2421, 56.0371, -3.33264, 72.2477, -73.1957, 105.435
1.544, 1, 18.2881, 56.0169, -3.36115, 72.3145, -73.1397, 105.28
1.548, 1, 18.334, 55.9966, -3.38964, 72.3812, -73.0837, 105.124
1.552, 1, 18.3799, 55.9764, -3.4181, 72.4478, -73.0278, 104.969
1.556, 1, 18.4258, 55.9562, -3.44653, 72.5144, -72.972, 104.814
1.56, 1, 18.4716, 55.936, -3.47494, 72.5808, -72.9161, 104.659
1.564, 1, 18.5174, 55.9158, -3.50332, 72.6473, -72.8604, 104.504
1.568, 1, 18.5631, 55.8957, -3.53167, 72.7137, -72.8047, 104.35
1.572, 1, 18.6088, 55.8755, -3.56, 72.78, -72.749, 104.195
1.576, 1, 18.6544, 55.8554, -3.5883, 72.8462, -72.6934, 104.041
1.58, 1, 18.7, 55.8353, -3.61658, 72.9124, -72.6378, 103.886
1.584, 1, 18.7456, 55.8153, -3.64483, 72.9785, -72.5823, 103.732
1.588, 1, 18.7911, 55.7952, -3.67305, 73.0446, -72.5268, 103.578
1.592, 1, 18.8366, 55.7752, -3.70125, 73.1106, -72.4714, 103.425
1.596, 1, 18.882, 55.7551, -3.72943, 73.1766, -72.4161, 103.271
1.6, 1, 18.9274, 55.7351, -3.75757, 73.2425, -72.3608, 103.117
1.604, 1, 18.9728, 55.7151, -3.7857, 73.3083, -72.3055, 102.964
1.608, 1, 19.0181, 55.6952, -3.81379, 73.3741, -72.2503, 102.811
1.612, 1, 19.0634, 55.6752, -3.84186, 73.4398, -72.1951, 102.658
1.616, 1, 19.1086, 55.6553, -3.86991, 73.5054, -72.14, 102.505
1.62, 1, 19.1538, 55.6354, -3.89793, 73.571, -72.085, 102.352
1.624, 1, 19.1989, 55.6155, -3.92592, 73.6366, -72.03, 102.199
1.628, 1, 19.2441, 55.5956, -3.95389, 73.702, -71.975, 102.047
1.632, 1, 19.2891, 55.5757, -3.98183, 73.7674, -71.9201, 101.894
1.636, 1, 19.3341, 55.5559, -4.00975, 73.8328, -71.8652, 101.742
1.64, 1, 19.3791, 55.5361, -4.03764, 73.8981, -71.8104, 101.59
1.644, 1, 19.4241, 55.5163, -4.06551, 73.9633, -71.7557, 101.438
1.648, 1, 19.469, 55.4965, -4.09335, 74.0285, -71.701, 101.286
1.652, 1, 19.5138, 55.4767, -4.12117, 74.0936, -71.6463, 101.134
1.656, 1, 19.5587, 55.457, -4.14896, 74.1587, -71.5917, 100.983
1.66, 1, 19.6035, 55.4372, -4.17673, 74.2237, -71.5371, 100.831
1.664, 1, 19.6482, 55.4175, -4.20447, 74.2886, -71.4826, 100.68
1.668, 1, 19.6929, 55.3978, -4.23219, 74.3535, -71.4281, 100.529
1.672, 1, 19.7376, 55.3781, -4.25988, 74.4183, -71.3737, 100.378
1.676, 1, 19.7822, 55.3585, -4.28755, 74.4831, -71.3194, 100.227
1.68, 1, 19.8268, 55.3388, -4.31519, 74.5478, -71.2651, 100.076
1.684, 1, 19.8713, 55.3192, -4.34281, 74.6124, -71.2108, 99.9254
1.688, 1, 19.9158, 55.2996, -4.3704, 74.677, -71.1566, 99.7749
1.692, 1, 19.9603, 55.28, -4.39797, 74.7416, -71.1024, 99.6245
1.696, 1, 20.0047, 55.2604, -4.42551, 74.806, -71.0483, 99.4743
1.7, 1, 20.0491, 55.2409, -4.45303, 74.8705, -70.9942, 99.3242
1.704, 1, 20.0934, 55.2213, -4.48052, 74.9348, -70.9402, 99.1742
1.708, 1, 20.1377, 55.2018, -4.50799, 74.9991, -70.8862, 99.0244
1.712, 1, 20.182, 55.1823, -4.53544, 75.0634, -70.8323, 98.8747
1.716, 1, 20.2262, 55.1628, -4.56286, 75.1275, -70.7784, 98.7251
1.72, 1, 20.2704, 55.1434, -4.59025, 75.1917, -70.7246, 98.5757
1.724, 1, 20.3145, 55.1239, -4.61762, 75.2557, -70.6708, 98.4264
1.728, 1, 20.3586, 55.1045, -4.64497, 75.3198, -70.6171, 98.2773
1.732, 1, 20.4027, 55.0851, -4.67229, 75.3837, -70.5634, 98.1283
1.736, 1, 20.4467, 55.0657, -4.69959, 75.4476, -70.5097, 97.9794
1.74, 1, 20.4907, 55.0463, -4.72686, 75.5115, -70.4561, 97.8306
1.744, 1, 20.5347, 55.0269, -4.75411, 75.5752, -70.4026, 97.682
1.748, 1, 20.5786, 55.0076, -4.78133, 75.639, -70.3491, 97.5335
1.752, 1, 20.6224, 54.9882, -4.80853, 75.7026, -70.2956, 97.3851
1.756, 1, 20.6663, 54.9689, -4.83571, 75.7663, -70.2422, 97.2369
1.76, 1, 20.7101, 54.9496, -4.86286, 75.8298, -70.1889, 97.0888
1.764, 1, 20.7538, 54.9303, -4.88999, 75.8933, -70.1356, 96.9408
1.768, 1, 20.7975, 54.9111, -4.9171, 75.9568, -70.0823, 96.793
1.772, 1, 20.8412, 54.8918, -4.94418, 76.0202, -70.0291, 96.6453
1.776, 1, 20.8848, 54.8726, -4.97124, 76.0835, -69.9759, 96.4977
1.78, 1, 20.9284, 54.8534, -4.99827, 76.1468, -69.9228, 96.3503
1.784, 1, 20.972, 54.8342, -5.02528, 76.21, -69.8697, 96.2029
1.788, 1, 21.0155, 54.815, -5.05226, 76.2732, -69.8167, 96.0557
1.792, 1, 21.059, 54.7958, -5.07923, 76.3363, -69.7637, 95.9087
1.796, 1, 21.1025, 54.7767, -5.10616, 76.3994, -69.7108, 95.7617
1.8, 1, 21.1459, 54.7576, -5.13308, 76.4624, -69.6579, 95.6149
1.804, 1, 21.1893, 54.7385, -5.15997, 76.5253, -69.6051, 95.4683
1.808, 1, 21.2326, 54.7194, -5.18684, 76.5882, -69.5523, 95.3217
1.812, 1, 21.2759, 54.7003, -5.21368, 76.6511, -69.4995, 95.1753
1.816, 1, 21.3191, 54.6812, -5.24051, 76.7139, -69.4468, 95.029
1.82, 1, 21.3624, 54.6622, -5.2673, 76.7766, -69.3942, 94.8828
1.824, 1, 21.4055, 54.6432, -5.29408, 76.8393, -69.3415, 94.7368
1.828, 1, 21.4487, 54.6241, -5.32083, 76.9019, -69.289, 94.5909
1.832, 1, 21.4918, 54.6051, -5.34756, 76.9645, -69.2365, 94.4451
1.836, 1, 21.5349, 54.5862, -5.37427, 77.027, -69.184, 94.2994
1.84, 1, 21.5779, 54.5672, -5.40095, 77.0894, -69.1316, 94.1539
1.844, 1, 21.6209, 54.5483, -5.42761, 77.1518, -69.0792, 94.0085
1.848, 1, 21.6639, 54.5293, -5.45424, 77.2142, -69.0268, 93.8632
1.852, 1, 21.7068, 54.5104, -5.48086, 77.2765, -68.9745, 93.718
1.856, 1, 21.7497, 54.4915, -5.50745, 77.3387, -68.9223, 93.573
1.86, 1, 21.7925, 54.4726, -5.53402, 77.4009, -68.8701, 93.4281
1.864, 1, 21.8353, 54.4538, -5.56056, 77.4631, -68.8179, 93.2833
1.868, 1, 21.8781, 54.4349, -5.58708, 77.5252, -68.7658, 93.1386
1.872, 1, 21.9209, 54.4161, -5.61358, 77.5872, -68.7137, 92.9941
1.876, 1, 21.9636, 54.3973, -5.64006, 77.6492, -68.6617, 92.8497
1.88, 1, 22.0062, 54.3785, -5.66651, 77.7111, -68.6097, 92.7054
1.884, 1, 22.0489, 54.3597, -5.69295, 77.773, -68.5578, 92.5612
1.888, 1, 22.0915, 54.3409, -5.71936, 77.8348, -68.5059, 92.4172
1.892, 1, 22.134, 54.3222, -5.74574, 77.8966, -68.454, 92.2732
1.896, 1, 22.1765, 54.3034, -5.77211, 77.9583, -68.4022, 92.1294
1.9, 1, 22.219, 54.2847, -5.79845, 78.0199, -68.3505, 91.9858
1.904, 1, 22.2615, 54.266, -5.82477, 78.0816, -68.2987, 91.8422
1.908, 1, 22.3039, 54.2473, -5.85107, 78.1431, -68.2471, 91.6988
1.912, 1, 22.3463, 54.2286, -5.87734, 78.2046, -68.1954, 91.5555
1.916, 1, 22.3886, 54.21, -5.90359, 78.2661, -68.1439, 91.4123
1.92, 1, 22.4309, 54.1913, -5.92983, 78.3275, -68.0923, 91.2692
1.924, 1, 22.4732, 54.1727, -5.95603, 78.3888, -68.0408, 91.1262
1.928, 1, 22.5154, 54.1541, -5.98222, 78.4501, -67.9893, 90.9834
1.932, 1, 22.5576, 54.1355, -6.00839, 78.5114, -67.9379, 90.8407
1.936, 1, 22.5998, 54.1169, -6.03453, 78.5726, -67.8866, 90.6981
1.94, 1, 22.6419, 54.0984, -6.06065, 78.6337, -67.8352, 90.5556
1.944, 1, 22.684, 54.0798, -6.08675, 78.6948, -67.784, 90.4133
1.948, 1, 22.7261, 54.0613, -6.11283, 78.7559, -67.7327, 90.271
1.952, 1, 22.7681, 54.0428, -6.13888, 78.8169, -67.6815, 90.1289
1.956, 1, 22.8101, 54.0243, -6.16491, 78.8778, -67.6304, 89.9869
1.96, 1, 22.852, 54.0058, -6.19093, 78.9387, -67.5792, 89.845
1.964, 1, 22.8939, 53.9873, -6.21692, 78.9995, -67.5282, 89.7033
1.968, 1, 22.9358, 53.9688, -6.24288, 79.0603, -67.4771, 89.5616
1.972, 1, 22.9777, 53.9504, -6.26883, 79.1211, -67.4262, 89.4201
1.976, 1, 23.0195, 53.932, -6.29476, 79.1818, -67.3752, 89.2787
1.98, 1, 23.0613, 53.9136, -6.32066, 79.2424, -67.3243, 89.1374
1.984, 1, 23.103, 53.8952, -6.34654, 79.303, -67.2735, 88.9963
1.988, 1, 23.1447, 53.8768, -6.3724, 79.3635, -67.2226, 88.8552
1.992, 1, 23.1864, 53.8584, -6.39824, 79.424, -67.1719, 88.7143
1.996, 1, 23.228, 53.8401, -6.42406, 79.4844, -67.1211, 88.5734
1.999, 1, 23.2696, 53.8217, -6.44986, 79.5448, -67.0704, 88.4327
2.004, 1, 23.3112, 53.8034, -6.47563, 79.6052, -67.0198, 88.2921
2.008, 1, 23.3527, 53.7851, -6.50139, 79.6655, -66.9692, 88.1517
2.012, 1, 23.3943, 53.7668, -6.52712, 79.7257, -66.9186, 88.0113
2.015, 1, 23.4357, 53.7486, -6.55283, 79.7859, -66.8681, 87.8711
2.019, 1, 23.4772, 53.7303, -6.57852, 79.846, -66.8176, 87.7309
2.024, 1, 23.5186, 53.7121, -6.60419, 79.9061, -66.7672, 87.5909
2.028, 1, 23.5599, 53.6938, -6.62984, 79.9662, -66.7168, 87.451
2.031, 1, 23.6013, 53.6756, -6.65547, 80.0261, -66.6664, 87.3113
2.036, 1, 23.6426, 53.6574, -6.68107, 80.0861, -66.6161, 87.1716
2.04, 1, 23.6838, 53.6392, -6.70666, 80.146, -66.5658, 87.032
2.044, 1, 23.7251, 53.6211, -6.73222, 80.2058, -66.5156, 86.8926
2.048, 1, 23.7663, 53.6029, -6.75777, 80.2656, -66.4654, 86.7533
2.051, 1, 23.8074, 53.5848, -6.78329, 80.3254, -66.4152, 86.614
2.055, 1, 23.8485, 53.5666, -6.80879, 80.3851, -66.3651, 86.4749
2.06, 1, 23.8896, 53.5485, -6.83427, 80.4447, -66.3151, 86.336
2.064, 1, 23.9307, 53.5304, -6.85974, 80.5043, -66.265, 86.1971
2.068, 1, 23.9717, 53.5124, -6.88518, 80.5639, -66.215, 86.0583
2.071, 1, 24.0127, 53.4943, -6.9106, 80.6234, -66.1651, 85.9197
2.076, 1, 24.0537, 53.4762, -6.936, 80.6828, -66.1152, 85.7811
2.08, 1, 24.0946, 53.4582, -6.96137, 80.7422, -66.0653, 85.6427
2.084, 1, 24.1355, 53.4402, -6.98673, 80.8016, -66.0155, 85.5044
2.087, 1, 24.1764, 53.4222, -7.01207, 80.8609, -65.9657, 85.3662
2.092, 1, 24.2172, 53.4042, -7.03739, 80.9202, -65.9159, 85.2281
2.096, 1, 24.258, 53.3862, -7.06269, 80.9794, -65.8662, 85.0901
2.1, 1, 24.2988, 53.3682, -7.08796, 81.0386, -65.8166, 84.9522
2.104, 1, 24.3395, 53.3503, -7.11322, 81.0977, -65.7669, 84.8145
2.107, 1, 24.3802, 53.3324, -7.13846, 81.1568, -65.7174, 84.6768
2.111, 1, 24.4209, 53.3144, -7.16367, 81.2158, -65.6678, 84.5393
2.116, 1, 24.4616, 53.2965, -7.18887, 81.2748, -65.6183, 84.4019
2.12, 1, 24.5022, 53.2786, -7.21404, 81.3337, -65.5688, 84.2645
2.124, 1, 24.5427, 53.2608, -7.2392, 81.3926, -65.5194, 84.1273
2.127, 1, 24.5833, 53.2429, -7.26434, 81.4515, -65.47, 83.9902
2.132, 1, 24.6238, 53.225, -7.28945, 81.5103, -65.4206, 83.8532
2.136, 1, 24.6643, 53.2072, -7.31455, 81.569, -65.3713, 83.7163
2.14, 1, 24.7047, 53.1894, -7.33963, 81.6277, -65.3221, 83.5796
2.143, 1, 24.7451, 53.1716, -7.36468, 81.6864, -65.2728, 83.4429
2.148, 1, 24.7855, 53.1538, -7.38972, 81.745, -65.2236, 83.3063
2.152, 1, 24.8259, 53.136, -7.41474, 81.8035, -65.1745, 83.1699
2.156, 1, 24.8662, 53.1182, -7.43974, 81.8621, -65.1253, 83.0335
2.16, 1, 24.9065, 53.1005, -7.46471, 81.9205, -65.0762, 82.8973
2.163, 1, 24.9467, 53.0827, -7.48967, 81.979, -65.0272, 82.7612
2.168, 1, 24.9869, 53.065, -7.51461, 82.0373, -64.9782, 82.6251
2.172, 1, 25.0271, 53.0473, -7.53953, 82.0957, -64.9292, 82.4892
2.176, 1, 25.0673, 53.0296, -7.56443, 82.154, -64.8803, 82.3534
2.179, 1, 25.1074, 53.0119, -7.58931, 82.2122, -64.8314, 82.2177
2.184, 1, 25.1475, 52.9943, -7.61418, 82.2704, -64.7826, 82.0821
2.188, 1, 25.1876, 52.9766, -7.63902, 82.3286, -64.7337, 81.9466
2.192, 1, 25.2276, 52.959, -7.66384, 82.3867, -64.685, 81.8112
2.196, 1, 25.2676, 52.9413, -7.68865, 82.4447, -64.6362, 81.6759
2.199, 1, 25.3076, 52.9237, -7.71343, 82.5027, -64.5875, 81.5407
2.204, 1, 25.3476, 52.9061, -7.7382, 82.5607, -64.5389, 81.4056
2.208, 1, 25.3875, 52.8885, -7.76294, 82.6187, -64.4902, 81.2706
2.212, 1, 25.4274, 52.871, -7.78767, 82.6765, -64.4416, 81.1358
2.216, 1, 25.4672, 52.8534, -7.81238, 82.7344, -64.3931, 81.001
2.219, 1, 25.507, 52.8358, -7.83707, 82.7922, -64.3446, 80.8663
2.224, 1, 25.5468, 52.8183, -7.86174, 82.8499, -64.2961, 80.7318
2.228, 1, 25.5866, 52.8008, -7.88639, 82.9076, -64.2477, 80.5973
2.232, 1, 25.6263, 52.7833, -7.91103, 82.9653, -64.1992, 80.4629
2.235, 1, 25.666, 52.7658, -7.93564, 83.0229, -64.1509, 80.3287
2.24, 1, 25.7057, 52.7483, -7.96023, 83.0805, -64.1025, 80.1945
2.244, 1, 25.7453, 52.7308, -7.98481, 83.138, -64.0543, 80.0605
2.248, 1, 25.7849, 52.7134, -8.00937, 83.1955, -64.006, 79.9265
2.252, 1, 25.8245, 52.6959, -8.03391, 83.253, -63.9578, 79.7927
2.255, 1, 25.864, 52.6785, -8.05843, 83.3104, -63.9096, 79.6589
2.259, 1, 25.9036, 52.6611, -8.08293, 83.3677, -63.8614, 79.5253
2.264, 1, 25.9431, 52.6437, -8.10742, 83.425, -63.8133, 79.3917
2.268, 1, 25.9825, 52.6263, -8.13188, 83.4823, -63.7653, 79.2583
2.272, 1, 26.0219, 52.6089, -8.15633, 83.5395, -63.7172, 79.1249
2.275, 1, 26.0613, 52.5916, -8.18076, 83.5967, -63.6692, 78.9917
2.28, 1, 26.1007, 52.5742, -8.20517, 83.6539, -63.6213, 78.8586
2.284, 1, 26.1401, 52.5569, -8.22956, 83.711, -63.5733, 78.7255
2.288, 1, 26.1794, 52.5396, -8.25393, 83.768, -63.5254, 78.5926
2.291, 1, 26.2187, 52.5223, -8.27829, 83.825, -63.4776, 78.4597
2.296, 1, 26.2579, 52.505, -8.30263, 83.882, -63.4297, 78.327
2.3, 1, 26.2971, 52.4877, -8.32695, 83.9389, -63.382, 78.1943
2.304, 1, 26.3363, 52.4704, -8.35125, 83.9958, -63.3342, 78.0618
2.308, 1, 26.3755, 52.4532, -8.37553, 84.0527, -63.2865, 77.9293
2.311, 1, 26.4146, 52.4359, -8.3998, 84.1095, -63.2388, 77.797
2.316, 1, 26.4537, 52.4187, -8.42404, 84.1662, -63.1912, 77.6647
2.32, 1, 26.4928, 52.4015, -8.44827, 84.2229, -63.1436, 77.5326
2.324, 1, 26.5319, 52.3843, -8.47248, 84.2796, -63.096, 77.4005
2.328, 1, 26.5709, 52.3671, -8.49668, 84.3363, -63.0484, 77.2685
2.331, 1, 26.6099, 52.3499, -8.52085, 84.3929, -63.0009, 77.1367
2.336, 1, 26.6488, 52.3327, -8.54501, 84.4494, -62.9535, 77.0049
2.34, 1, 26.6878, 52.3156, -8.56915, 84.5059, -62.906, 76.8733
2.344, 1, 26.7267, 52.2984, -8.59327, 84.5624, -62.8586, 76.7417
2.347, 1, 26.7655, 52.2813, -8.61737, 84.6188, -62.8113, 76.6102
2.352, 1, 26.8044, 52.2642, -8.64146, 84.6752, -62.7639, 76.4788
2.356, 1, 26.8432, 52.2471, -8.66553, 84.7315, -62.7166, 76.3475
2.36, 1, 26.882, 52.23, -8.68958, 84.7878, -62.6694, 76.2164
2.364, 1, 26.9208, 52.2129, -8.71362, 84.8441, -62.6221, 76.0853
2.367, 1, 26.9595, 52.1958, -8.73763, 84.9003, -62.575, 75.9543
2.372, 1, 26.9982, 52.1788, -8.76163, 84.9565, -62.5278, 75.8234
2.376, 1, 27.0369, 52.1617, -8.78561, 85.0126, -62.4807, 75.6926
2.38, 1, 27.0755, 52.1447, -8.80958, 85.0687, -62.4336, 75.5619
2.383, 1, 27.1142, 52.1277, -8.83352, 85.1248, -62.3865, 75.4312
2.388, 1, 27.1528, 52.1107, -8.85745, 85.1808, -62.3395, 75.3007
2.392, 1, 27.1913, 52.0937, -8.88137, 85.2368, -62.2925, 75.1703
2.396, 1, 27.2299, 52.0767, -8.90526, 85.2927, -62.2456, 75.04
2.4, 1, 27.2684, 52.0597, -8.92914, 85.3486, -62.1986, 74.9097
2.403, 1, 27.3069, 52.0427, -8.953, 85.4045, -62.1518, 74.7796
2.408, 1, 27.3453, 52.0258, -8.97684, 85.4603, -62.1049, 74.6495
2.412, 1, 27.3837, 52.0089, -9.00067, 85.5161, -62.0581, 74.5196
2.416, 1, 27.4221, 51.9919, -9.02448, 85.5718, -62.0113, 74.3897
2.42, 1, 27.4605, 51.975, -9.04827, 85.6275, -61.9645, 74.2599
2.423, 1, 27.4989, 51.9581, -9.07205, 85.6832, -61.9178, 74.1302
2.428, 1, 27.5372, 51.9413, -9.0958, 85.7388, -61.8711, 74.0007
2.432, 1, 27.5755, 51.9244, -9.11954, 85.7943, -61.8245, 73.8712
2.436, 1, 27.6137, 51.9075, -9.14327, 85.8499, -61.7779, 73.7418
2.439, 1, 27.652, 51.8907, -9.16698, 85.9054, -61.7313, 73.6124
2.444, 1, 27.6902, 51.8738, -9.19067, 85.9608, -61.6847, 73.4832
2.448, 1, 27.7284, 51.857, -9.21434, 86.0163, -61.6382, 73.3541
2.452, 1, 27.7665, 51.8402, -9.238, 86.0716, -61.5917, 73.2251
2.456, 1, 27.8046, 51.8234, -9.26164, 86.127, -61.5453, 73.0961
2.459, 1, 27.8428, 51.8066, -9.28526, 86.1823, -61.4989, 72.9673
2.464, 1, 27.8808, 51.7898, -9.30887, 86.2375, -61.4525, 72.8385
2.468, 1, 27.9189, 51.7731, -9.33246, 86.2928, -61.4061, 72.7098
2.472, 1, 27.9569, 51.7563, -9.35603, 86.3479, -61.3598, 72.5813
2.476, 1, 27.9949, 51.7396, -9.37959, 86.4031, -61.3135, 72.4528
2.479, 1, 28.0329, 51.7228, -9.40313, 86.4582, -61.2672, 72.3244
2.484, 1, 28.0708, 51.7061, -9.42665, 86.5133, -61.221, 72.1961
2.488, 1, 28.1087, 51.6894, -9.45016, 86.5683, -61.1748, 72.0678
2.492, 1, 28.1466, 51.6727, -9.47365, 86.6233, -61.1287, 71.9397
2.495, 1, 28.1845, 51.656, -9.49713, 86.6782, -61.0825, 71.8117
2.5, 1, 28.2223, 51.6394, -9.52059, 86.7332, -61.0364, 71.6837
2.504, 1, 28.2601, 51.6227, -9.54403, 86.788, -60.9904, 71.5558
2.508, 1, 28.2979, 51.606, -9.56745, 86.8429, -60.9443, 71.4281
2.512, 1, 28.3357, 51.5894, -9.59086, 86.8977, -60.8983, 71.3004
2.515, 1, 28.3734, 51.5728, -9.61426, 86.9524, -60.8524, 71.1728
2.52, 1, 28.4111, 51.5562, -9.63764, 87.0072, -60.8064, 71.0453
2.524, 1, 28.4488, 51.5396, -9.661, 87.0618, -60.7605, 70.9178
2.528, 1, 28.4864, 51.523, -9.68434, 87.1165, -60.7147, 70.7905
2.531, 1, 28.524, 51.5064, -9.70767, 87.1711, -60.6688, 70.6633
2.536, 1, 28.5617, 51.4898, -9.73099, 87.2257, -60.623, 70.5361
2.54, 1, 28.5992, 51.4733, -9.75428, 87.2802, -60.5772, 70.409
2.544, 1, 28.6368, 51.4567, -9.77757, 87.3347, -60.5315, 70.282
2.548, 1, 28.6743, 51.4402, -9.80083, 87.3892, -60.4858, 70.1551
2.551, 1, 28.7118, 51.4237, -9.82408, 87.4436, -60.4401, 70.0283
2.556, 1, 28.7493, 51.4071, -9.84732, 87.498, -60.3944, 69.9016
2.56, 1, 28.7867, 51.3906, -9.87053, 87.5524, -60.3488, 69.7749
2.564, 1, 28.8242, 51.3742, -9.89374, 87.6067, -60.3032, 69.6484
2.568, 1, 28.8615, 51.3577, -9.91693, 87.661, -60.2576, 69.5219
2.571, 1, 28.8989, 51.3412, -9.9401, 87.7152, -60.2121, 69.3955
2.576, 1, 28.9363, 51.3247, -9.96325, 87.7694, -60.1666, 69.2692
2.58, 1, 28.9736, 51.3083, -9.98639, 87.8236, -60.1211, 69.143
2.584, 1, 29.0109, 51.2919, -10.0095, 87.8777, -60.0757, 69.0169
2.587, 1, 29.0482, 51.2754, -10.0326, 87.9318, -60.0303, 68.8908
2.592, 1, 29.0854, 51.259, -10.0557, 87.9859, -59.9849, 68.7648
2.596, 1, 29.1226, 51.2426, -10.0788, 88.0399, -59.9395, 68.639
2.6, 1, 29.1598, 51.2262, -10.1019, 88.0939, -59.8942, 68.5132
2.604, 1, 29.197, 51.2099, -10.1249, 88.1478, -59.8489, 68.3875
2.607, 1, 29.2341, 51.1935, -10.1479, 88.2018, -59.8037, 68.2618
2.612, 1, 29.2713, 51.1771, -10.171, 88.2556, -59.7584, 68.1363
2.616, 1, 29.3084, 51.1608, -10.194, 88.3095, -59.7132, 68.0108
2.62, 1, 29.3454, 51.1444, -10.217, 88.3633, -59.6681, 67.8854
2.624, 1, 29.3825, 51.1281, -10.2399, 88.4171, -59.6229, 67.7601
2.627, 1, 29.4195, 51.1118, -10.2629, 88.4708, -59.5778, 67.6349
2.632, 1, 29.4565, 51.0955, -10.2858, 88.5245, -59.5327, 67.5098
2.636, 1, 29.4935, 51.0792, -10.3087, 88.5782, -59.4877, 67.3847
2.64, 1, 29.5305, 51.0629, -10.3317, 88.6318, -59.4427, 67.2598
2.643, 1, 29.5674, 51.0466, -10.3546, 88.6854, -59.3977, 67.1349
2.648, 1, 29.6043, 51.0304, -10.3774, 88.739, -59.3527, 67.0101
2.652, 1, 29.6412, 51.0141, -10.4003, 88.7925, -59.3078, 66.8854
2.656, 1, 29.678, 50.9979, -10.4232, 88.846, -59.2629, 66.7607
2.66, 1, 29.7149, 50.9817, -10.446, 88.8995, -59.218, 66.6362
2.663, 1, 29.7517, 50.9654, -10.4688, 88.9529, -59.1732, 66.5117
2.668, 1, 29.7884, 50.9492, -10.4916, 89.0063, -59.1283, 66.3873
2.672, 1, 29.8252, 50.933, -10.5144, 89.0596, -59.0836, 66.263
2.676, 1, 29.8619, 50.9168, -10.5372, 89.1129, -59.0388, 66.1387
2.679, 1, 29.8987, 50.9007, -10.5599, 89.1662, -58.9941, 66.0146
2.684, 1, 29.9353, 50.8845, -10.5827, 89.2195, -58.9494, 65.8905
2.688, 1, 29.972, 50.8683, -10.6054, 89.2727, -58.9047, 65.7665
2.692, 1, 30.0087, 50.8522, -10.6281, 89.3259, -58.8601, 65.6426
2.696, 1, 30.0453, 50.8361, -10.6509, 89.379, -58.8154, 65.5187
2.699, 1, 30.0819, 50.8199, -10.6735, 89.4321, -58.7709, 65.395
2.704, 1, 30.1184, 50.8038, -10.6962, 89.4852, -58.7263, 65.2713
2.708, 1, 30.155, 50.7877, -10.7189, 89.5383, -58.6818, 65.1477
2.712, 1, 30.1915, 50.7716, -10.7415, 89.5913, -58.6373, 65.0242
2.716, 1, 30.228, 50.7555, -10.7642, 89.6443, -58.5928, 64.9007
2.719, 1, 30.2645, 50.7395, -10.7868, 89.6972, -58.5484, 64.7774
2.724, 1, 30.3009, 50.7234, -10.8094, 89.7501, -58.5039, 64.6541
2.728, 1, 30.3374, 50.7073, -10.832, 89.803, -58.4596, 64.5309
2.732, 1, 30.3738, 50.6913, -10.8545, 89.8558, -58.4152, 64.4078
2.735, 1, 30.4102, 50.6753, -10.8771, 89.9087, -58.3709, 64.2847
2.74, 1, 30.4465, 50.6592, -10.8996, 89.9614, -58.3266, 64.1617
2.744, 1, 30.4829, 50.6432, -10.9222, 90.0142, -58.2823, 64.0388
2.748, 1, 30.5192, 50.6272, -10.9447, 90.0669, -58.238, 63.916
2.752, 1, 30.5555, 50.6112, -10.9672, 90.1196, -58.1938, 63.7933
2.755, 1, 30.5918, 50.5952, -10.9897, 90.1722, -58.1496, 63.6706
2.76, 1, 30.628, 50.5793, -11.0122, 90.2248, -58.1055, 63.548
2.764, 1, 30.6642, 50.5633, -11.0346, 90.2774, -58.0613, 63.4255
2.768, 1, 30.7004, 50.5474, -11.0571, 90.3299, -58.0172, 63.3031
2.772, 1, 30.7366, 50.5314, -11.0795, 90.3825, -57.9731, 63.1807
2.775, 1, 30.7728, 50.5155, -11.1019, 90.435, -57.9291, 63.0584
2.78, 1, 30.8089, 50.4996, -11.1243, 90.4874, -57.8851, 62.9362
2.784, 1, 30.845, 50.4837, -11.1467, 90.5398, -57.8411, 62.8141
2.788, 1, 30.8811, 50.4677, -11.1691, 90.5922, -57.7971, 62.692
2.791, 1, 30.9172, 50.4519, -11.1915, 90.6445, -57.7531, 62.5701
2.796, 1, 30.9532, 50.436, -11.2138, 90.6969, -57.7092, 62.4482
2.8, 1, 30.9893, 50.4201, -11.2361, 90.7492, -57.6653, 62.3263
2.804, 1, 31.0253, 50.4042, -11.2585, 90.8014, -57.6215, 62.2046
2.808, 1, 31.0612, 50.3884, -11.2808, 90.8536, -57.5776, 62.0829
2.811, 1, 31.0972, 50.3725, -11.3031, 90.9058, -57.5338, 61.9613
2.816, 1, 31.1331, 50.3567, -11.3253, 90.958, -57.4901, 61.8398
2.82, 1, 31.169, 50.3409, -11.3476, 91.0101, -57.4463, 61.7183
2.824, 1, 31.2049, 50.3251, -11.3699, 91.0622, -57.4026, 61.5969
2.828, 1, 31.2408, 50.3092, -11.3921, 91.1143, -57.3589, 61.4756
2.831, 1, 31.2766, 50.2935, -11.4143, 91.1663, -57.3152, 61.3544
2.836, 1, 31.3125, 50.2777, -11.4365, 91.2183, -57.2715, 61.2332
2.84, 1, 31.3483, 50.2619, -11.4587, 91.2703, -57.2279, 61.1121
2.844, 1, 31.3841, 50.2461, -11.4809, 91.3222, -57.1843, 60.9911
2.847, 1, 31.4198, 50.2304, -11.5031, 91.3741, -57.1408, 60.8702
2.852, 1, 31.4556, 50.2146, -11.5253, 91.426, -57.0972, 60.7493
2.856, 1, 31.4913, 50.1989, -11.5474, 91.4778, -57.0537, 60.6285
2.86, 1, 31.527, 50.1831, -11.5695, 91.5296, -57.0102, 60.5078
2.864, 1, 31.5626, 50.1674, -11.5917, 91.5814, -56.9667, 60.3872
2.867, 1, 31.5983, 50.1517, -11.6138, 91.6331, -56.9233, 60.2666
2.872, 1, 31.6339, 50.136, -11.6359, 91.6849, -56.8799, 60.1461
2.876, 1, 31.6695, 50.1203, -11.6579, 91.7365, -56.8365, 60.0257
2.88, 1, 31.7051, 50.1046, -11.68, 91.7882, -56.7932, 59.9053
2.883, 1, 31.7407, 50.089, -11.7021, 91.8398, -56.7498, 59.785
2.888, 1, 31.7762, 50.0733, -11.7241, 91.8914, -56.7065, 59.6648
2.892, 1, 31.8118, 50.0576, -11.7461, 91.943, -56.6632, 59.5447
2.896, 1, 31.8473, 50.042, -11.7681, 91.9945, -56.62, 59.4246
2.9, 1, 31.8828, 50.0264, -11.7901, 92.046, -56.5767, 59.3046
2.903, 1, 31.9182, 50.0107, -11.8121, 92.0975, -56.5335, 59.1847
2.908, 1, 31.9537, 49.9951, -11.8341, 92.1489, -56.4904, 59.0648
2.912, 1, 31.9891, 49.9795, -11.8561, 92.2003, -56.4472, 58.945
2.916, 1, 32.0245, 49.9639, -11.878, 92.2517, -56.4041, 58.8253
2.92, 1, 32.0599, 49.9483, -11.8999, 92.3031, -56.361, 58.7057
2.923, 1, 32.0952, 49.9327, -11.9219, 92.3544, -56.3179, 58.5861
2.928, 1, 32.1306, 49.9172, -11.9438, 92.4057, -56.2748, 58.4666
2.932, 1, 32.1659, 49.9016, -11.9657, 92.4569, -56.2318, 58.3472
2.936, 1, 32.2012, 49.8861, -11.9876, 92.5082, -56.1888, 58.2278
2.939, 1, 32.2364, 49.8705, -12.0094, 92.5593, -56.1458, 58.1085
2.944, 1, 32.2717, 49.855, -12.0313, 92.6105, -56.1029, 57.9893
2.948, 1, 32.3069, 49.8395, -12.0531, 92.6617, -56.06, 57.8701
2.952, 1, 32.3421, 49.8239, -12.075, 92.7128, -56.017, 57.751
2.956, 1, 32.3773, 49.8084, -12.0968, 92.7638, -55.9742, 57.632
2.959, 1, 32.4125, 49.7929, -12.1186, 92.8149, -55.9313, 57.5131
2.964, 1, 32.4477, 49.7774, -12.1404, 92.8659, -55.8885, 57.3942
2.968, 1, 32.4828, 49.762, -12.1622, 92.9169, -55.8457, 57.2754
2.972, 1, 32.5179, 49.7465, -12.1839, 92.9679, -55.8029, 57.1566
2.976, 1, 32.553, 49.731, -12.2057, 93.0188, -55.7602, 57.0379
2.98, 1, 32.5881, 49.7156, -12.2274, 93.0697, -55.7174, 56.9193
2.984, 1, 32.6231, 49.7001, -12.2492, 93.1206, -55.6747, 56.8008
2.988, 1, 32.6582, 49.6847, -12.2709, 93.1714, -55.632, 56.6823
2.992, 1, 32.6932, 49.6693, -12.2926, 93.2223, -55.5894, 56.5639
2.995, 1, 32.7282, 49.6538, -12.3143, 93.273, -55.5467, 56.4456
3, 1, 32.7631, 49.6384, -12.336, 93.3238, -55.5041, 56.3273
3.004, 1, 32.7981, 49.623, -12.3577, 93.3745, -55.4616, 56.2091
3.008, 1, 32.833, 49.6076, -12.3793, 93.4252, -55.419, 56.091
3.012, 1, 32.8679, 49.5922, -12.401, 93.4759, -55.3765, 55.9729
3.015, 1, 32.9028, 49.5769, -12.4226, 93.5266, -55.3339, 55.8549
3.02, 1, 32.9377, 49.5615, -12.4442, 93.5772, -55.2915, 55.7369
3.024, 1, 32.9726, 49.5461, -12.4658, 93.6278, -55.249, 55.6191
3.028, 1, 33.0074, 49.5308, -12.4874, 93.6783, -55.2065, 55.5013
3.031, 1, 33.0422, 49.5154, -12.509, 93.7289, -55.1641, 55.3835
3.036, 1, 33.077, 49.5001, -12.5306, 93.7794, -55.1217, 55.2659
3.04, 1, 33.1118, 49.4848, -12.5521, 93.8298, -55.0794, 55.1483
3.044, 1, 33.1465, 49.4695, -12.5737, 93.8803, -55.037, 55.0307
3.048, 1, 33.1813, 49.4542, -12.5952, 93.9307, -54.9947, 54.9132
3.051, 1, 33.216, 49.4389, -12.6168, 93.9811, -54.9524, 54.7958
3.056, 1, 33.2507, 49.4236, -12.6383, 94.0314, -54.9101, 54.6785
3.06, 1, 33.2854, 49.4083, -12.6598, 94.0818, -54.8679, 54.5612
3.064, 1, 33.32, 49.393, -12.6813, 94.1321, -54.8256, 54.444
3.068, 1, 33.3547, 49.3778, -12.7027, 94.1824, -54.7834, 54.3268
3.071, 1, 33.3893, 49.3625, -12.7242, 94.2326, -54.7413, 54.2097
3.076, 1, 33.4239, 49.3473, -12.7457, 94.2828, -54.6991, 54.0927
3.08, 1, 33.4585, 49.332, -12.7671, 94.333, -54.657, 53.9758
3.084, 1, 33.493, 49.3168, -12.7885, 94.3832, -54.6148, 53.8589
3.087, 1, 33.5276, 49.3016, -12.81, 94.4334, -54.5728, 53.742
3.092, 1, 33.5621, 49.2863, -12.8314, 94.4835, -54.5307, 53.6253
3.096, 1, 33.5966, 49.2711, -12.8528, 94.5336, -54.4887, 53.5086
3.1, 1, 33.6311, 49.2559, -12.8741, 94.5836, -54.4466, 53.3919
3.104, 1, 33.6656, 49.2407, -12.8955, 94.6336, -54.4046, 53.2753
3.107, 1, 33.7, 49.2256, -12.9169, 94.6836, -54.3627, 53.1588
3.112, 1, 33.7345, 49.2104, -12.9382, 94.7336, -54.3207, 53.0424
3.116, 1, 33.7689, 49.1952, -12.9596, 94.7836, -54.2788, 52.926
3.12, 1, 33.8033, 49.1801, -12.9809, 94.8335, -54.2369, 52.8097
3.124, 1, 33.8377, 49.1649, -13.0022, 94.8834, -54.195, 52.6934
3.128, 1, 33.872, 49.1498, -13.0235, 94.9333, -54.1531, 52.5772
3.132, 1, 33.9064, 49.1347, -13.0448, 94.9831, -54.1113, 52.4611
3.136, 1, 33.9407, 49.1195, -13.0661, 95.0329, -54.0695, 52.345
3.14, 1, 33.975, 49.1044, -13.0874, 95.0827, -54.0277, 52.229
3.143, 1, 34.0093, 49.0893, -13.1086, 95.1325, -53.9859, 52.113
3.148, 1, 34.0435, 49.0742, -13.1299, 95.1822, -53.9442, 51.9972
3.152, 1, 34.0778, 49.0591, -13.1511, 95.2319, -53.9024, 51.8813
3.156, 1, 34.112, 49.044, -13.1723, 95.2816, -53.8607, 51.7656
3.16, 1, 34.1462, 49.0289, -13.1935, 95.3313, -53.819, 51.6499
3.163, 1, 34.1804, 49.0139, -13.2147, 95.3809, -53.7774, 51.5342
3.168, 1, 34.2146, 48.9988, -13.2359, 95.4305, -53.7357, 51.4187
3.172, 1, 34.2487, 48.9838, -13.2571, 95.4801, -53.6941, 51.3031
3.176, 1, 34.2829, 48.9687, -13.2783, 95.5296, -53.6525, 51.1877
3.179, 1, 34.317, 48.9537, -13.2994, 95.5791, -53.611, 51.0723
3.184, 1, 34.3511, 48.9387, -13.3206, 95.6286, -53.5694, 50.9569
3.188, 1, 34.3852, 48.9236, -13.3417, 95.6781, -53.5279, 50.8417
3.192, 1, 34.4193, 48.9086, -13.3628, 95.7276, -53.4864, 50.7265
3.196, 1, 34.4533, 48.8936, -13.3839, 95.777, -53.4449, 50.6113
3.199, 1, 34.4873, 48.8786, -13.405, 95.8264, -53.4034, 50.4962
3.204, 1, 34.5214, 48.8636, -13.4261, 95.8758, -53.362, 50.3812
3.208, 1, 34.5554, 48.8487, -13.4472, 95.9251, -53.3206, 50.2662
3.212, 1, 34.5893, 48.8337, -13.4683, 95.9744, -53.2792, 50.1513
3.216, 1, 34.6233, 48.8187, -13.4893, 96.0237, -53.2378, 50.0364
3.22, 1, 34.6572, 48.8038, -13.5104, 96.073, -53.1964, 49.9217
3.224, 1, 34.6912, 48.7888, -13.5314, 96.1222, -53.1551, 49.8069
3.228, 1, 34.7251, 48.7739, -13.5524, 96.1714, -53.1138, 49.6922
3.232, 1, 34.759, 48.7589, -13.5734, 96.2206, -53.0725, 49.5776
3.235, 1, 34.7928, 48.744, -13.5944, 96.2698, -53.0312, 49.4631
3.24, 1, 34.8267, 48.7291, -13.6154, 96.3189, -52.99, 49.3486
3.244, 1, 34.8605, 48.7142, -13.6364, 96.368, -52.9487, 49.2341
3.248, 1, 34.8944, 48.6993, -13.6574, 96.4171, -52.9075, 49.1198
3.252, 1, 34.9282, 48.6844, -13.6783, 96.4662, -52.8664, 49.0054
3.255, 1, 34.9619, 48.6695, -13.6993, 96.5152, -52.8252, 48.8912
3.26, 1, 34.9957, 48.6546, -13.7202, 96.5643, -52.784, 48.777
3.264, 1, 35.0295, 48.6397, -13.7412, 96.6132, -52.7429, 48.6628
3.268, 1, 35.0632, 48.6249, -13.7621, 96.6622, -52.7018, 48.5487
3.272, 1, 35.0969, 48.61, -13.783, 96.7111, -52.6607, 48.4347
3.276, 1, 35.1306, 48.5952, -13.8039, 96.7601, -52.6197, 48.3207
3.28, 1, 35.1643, 48.5803, -13.8248, 96.809, -52.5786, 48.2068
3.284, 1, 35.198, 48.5655, -13.8456, 96.8578, -52.5376, 48.093
3.288, 1, 35.2316, 48.5507, -13.8665, 96.9067, -52.4966, 47.9792
3.291, 1, 35.2653, 48.5358, -13.8874, 96.9555, -52.4557, 47.8654
3.296, 1, 35.2989, 48.521, -13.9082, 97.0043, -52.4147, 47.7517
3.3, 1, 35.3324, 48.5062, -13.929, 97.053, -52.3738, 47.6381
3.304, 1, 35.3657, 48.4916, -13.9499, 97.1018, -52.3329, 47.5246
3.308, 1, 35.3986, 48.477, -13.9707, 97.1505, -52.292, 47.4111
3.312, 1, 35.4309, 48.4628, -13.9916, 97.1991, -52.2512, 47.2978
3.316, 1, 35.4624, 48.4489, -14.0126, 97.2476, -52.2105, 47.1847
3.32, 1, 35.493, 48.4354, -14.0335, 97.2959, -52.17, 47.072
3.324, 1, 35.5226, 48.4226, -14.0545, 97.3439, -52.1297, 46.96
3.328, 1, 35.551, 48.4104, -14.0754, 97.3915, -52.0898, 46.8491
3.332, 1, 35.5784, 48.3987, -14.0961, 97.4384, -52.0505, 46.7397
3.336, 1, 35.6047, 48.3877, -14.1166, 97.4844, -52.012, 46.6324
3.34, 1, 35.6301, 48.3771, -14.1366, 97.5293, -51.9745, 46.5277
3.344, 1, 35.6544, 48.3671, -14.156, 97.5726, -51.9382, 46.4265
3.347, 1, 35.6777, 48.3574, -14.1747, 97.6143, -51.9033, 46.3294
3.352, 1, 35.7, 48.3483, -14.1924, 97.6538, -51.8702, 46.237
3.356, 1, 35.7212, 48.3395, -14.209, 97.6911, -51.839, 46.15
3.36, 1, 35.7414, 48.3311, -14.2245, 97.7258, -51.8099, 46.0691
3.364, 1, 35.7605, 48.3231, -14.2386, 97.7577, -51.7832, 45.9946
3.368, 1, 35.7788, 48.3153, -14.2513, 97.7868, -51.7589, 45.927
3.372, 1, 35.7962, 48.3077, -14.2625, 97.8127, -51.7371, 45.8664
3.376, 1, 35.8129, 48.3002, -14.2721, 97.8357, -51.7178, 45.813
3.38, 1, 35.8289, 48.2929, -14.2803, 97.8556, -51.701, 45.7666
3.383, 1, 35.8439, 48.2858, -14.287, 97.8727, -51.6866, 45.7269
3.388, 1, 35.8579, 48.2791, -14.2925, 97.8871, -51.6745, 45.6935
3.392, 1, 35.8707, 48.2729, -14.2969, 97.899, -51.6643, 45.6658
3.396, 2, 35.8822, 48.2672, -14.3002, 97.9087, -51.6561, 45.6433
3.4, 2, 35.8924, 48.2621, -14.3028, 97.9165, -51.6495, 45.6253
3.403, 2, 35.9014, 48.2575, -14.3046, 97.9227, -51.6442, 45.6111
3.408, 2, 35.9095, 48.2535, -14.3059, 97.9274, -51.6402, 45.6003
3.412, 2, 35.9166, 48.25, -14.3068, 97.9309, -51.6371, 45.5922
3.416, 2, 35.9228, 48.247, -14.3073, 97.9335, -51.6349, 45.5862
3.42, 2, 35.9281, 48.2445, -14.3076, 97.9354, -51.6332, 45.5819
3.424, 2, 35.9326, 48.2424, -14.3077, 97.9367, -51.6321, 45.5789
3.428, 2, 35.9361, 48.2408, -14.3078, 97.9376, -51.6313, 45.5768
3.432, 2, 35.9387, 48.2397, -14.3078, 97.9383, -51.6307, 45.5754
3.436, 2, 35.9406, 48.2389, -14.3078, 97.9387, -51.6303, 45.5745
3.439, 2, 35.9418, 48.2383, -14.3078, 97.939, -51.6301, 45.5738
3.444, 2, 35.9427, 48.2379, -14.3078, 97.9392, -51.6299, 45.5734
3.448, 2, 35.9433, 48.2377, -14.3078, 97.9393, -51.6298, 45.5731
3.452, 2, 35.9437, 48.2375, -14.3078, 97.9394, -51.6297, 45.5729
3.456, 2, 35.944, 48.2374, -14.3078, 97.9394, -51.6297, 45.5727
3.46, 2, 35.9442, 48.2373, -14.3078, 97.9395, -51.6296, 45.5726
3.464, 2, 35.9443, 48.2372, -14.3078, 97.9395, -51.6296, 45.5726
3.468, 2, 35.9444, 48.2372, -14.3078, 97.9395, -51.6296, 45.5725
3.472, 2, 35.9444, 48.2372, -14.3078, 97.9395, -51.6296, 45.5725
3.476, 2, 35.9445, 48.2372, -14.3078, 97.9396, -51.6296, 45.5725
3.48, 2, 35.9445, 48.2372, -14.3078, 97.9396, -51.6296, 45.5725
3.484, 2, 35.9445, 48.2371, -14.3078, 97.9396, -51.6296, 45.5725
3.488, 2, 35.9445, 48.2371, -14.3078, 97.9396, -51.6296, 45.5725
3.492, 2, 35.9445, 48.2371, -14.3078, 97.9396, -51.6296, 45.5724
3.495, 2, 35.9445, 48.2371, -14.3078, 97.9396, -51.6295, 45.5724
3.5, 2, 35.9445, 48.2371, -14.3078, 97.9396, -51.6295, 45.5724
3.504, 2, 35.9445, 48.2371, -14.3078, 97.9396, -51.6295, 45.5724
3.508, 2, 35.9445, 48.2371, -14.3078, 97.9396, -51.6295, 45.5724
3.512, 2, 35.9445, 48.2371, -14.3078, 97.9396, -51.6295, 45.5724
3.516, 2, 35.9445, 48.2371, -14.3078, 97.9396, -51.6295, 45.5724
3.52, 2, 35.9445, 48.2371, -14.3078, 97.9396, -51.6295, 45.5724
3.524, 2, 35.9445, 48.2371, -14.3078, 97.9396, -51.6295, 45.5724
3.528, 2, 35.9445, 48.2371, -14.3078, 97.9396, -51.6295, 45.5724
3.531, 2, 35.9445, 48.2371, -14.3078, 97.9396, -51.6295, 45.5724
3.536, 2, 35.9445, 48.2371, -14.3078, 97.9396, -51.6295, 45.5724
3.54, 2, 35.9445, 48.2371, -14.3078, 97.9396, -51.6295, 45.5724
3.544, 2, 35.9445, 48.2371, -14.3078, 97.9396, -51.6295, 45.5724
3.548, 2, 35.9445, 48.2371, -14.3078, 97.9396, -51.6295, 45.5724
3.552, 2, 35.9445, 48.2371, -14.3078, 97.9396, -51.6295, 45.5724
3.556, 2, 35.9445, 48.2371, -14.3078, 97.9396, -51.6295, 45.5724
3.56, 2, 35.9445, 48.2371, -14.3078, 97.9396, -51.6295, 45.5724
3.564, 2, 35.9445, 48.2371, -14.3078, 97.9396, -51.6295, 45.5724
3.568, 2, 35.9445, 48.2371, -14.3078, 97.9396, -51.6295, 45.5724
3.572, 2, 35.9445, 48.2371, -14.3078, 97.9396, -51.6295, 45.5724
3.576, 2, 35.9445, 48.2371, -14.3078, 97.9396, -51.6295, 45.5724
3.58, 2, 35.9445, 48.2371, -14.3078, 97.9396, -51.6295, 45.5724
3.584, 2, 35.9445, 48.2371, -14.3078, 97.9396, -51.6295, 45.5724
3.587, 2, 35.9445, 48.2371, -14.3078, 97.9396, -51.6295, 45.5724
3.592, 2, 35.9445, 48.2371, -14.3078, 97.9396, -51.6295, 45.5724
3.596, 2, 35.9445, 48.2371, -14.3078, 97.9396, -51.6295, 45.5724
3.6, 2, 35.9445, 48.2371, -14.3078, 97.9396, -51.6295, 45.5724
3.604, 2, 35.9445, 48.2371, -14.3078, 97.9396, -51.6295, 45.5724
3.608, 2, 35.9445, 48.2371, -14.3078, 97.9396, -51.6295, 45.5724
3.612, 2, 35.9445, 48.2371, -14.3078, 97.9396, -51.6295, 45.5724
3.616, 2, 35.9445, 48.2371, -14.3078, 97.9396, -51.6295, 45.5724
3.62, 2, 35.9445, 48.2371, -14.3078, 97.9396, -51.6295, 45.5724
3.624, 2, 35.9445, 48.2371, -14.3078, 97.9396, -51.6295, 45.5724
3.628, 2, 35.9445, 48.2371, -14.3078, 97.9396, -51.6295, 45.5724
3.632, 2, 35.9445, 48.2371, -14.3078, 97.9396, -51.6295, 45.5724
3.636, 2, 35.9445, 48.2371, -14.3078, 97.9396, -51.6295, 45.5724
3.64, 2, 35.9445, 48.2371, -14.3078, 97.9396, -51.6295, 45.5724
3.644, 2, 35.9445, 48.2371, -14.3078, 97.9396, -51.6295, 45.5724
3.648, 2, 35.9445, 48.2371, -14.3078, 97.9396, -51.6295, 45.5724
3.652, 2, 35.9445, 48.2371, -14.3078, 97.9396, -51.6295, 45.5724
3.656, 2, 35.9445, 48.2371, -14.3078, 97.9396, -51.6295, 45.5724
3.66, 2, 35.9445, 48.2371, -14.3078, 97.9396, -51.6295, 45.5724
3.664, 2, 35.9445, 48.2371, -14.3078, 97.9396, -51.6295, 45.5724
3.668, 2, 35.9445, 48.2371, -14.3078, 97.9396, -51.6295, 45.5724
3.672, 2, 35.9445, 48.2371, -14.3078, 97.9396, -51.6295, 45.5724
3.676, 2, 35.9445, 48.2371, -14.3078, 97.9396, -51.6295, 45.5724
3.679, 2, 35.9445, 48.2371, -14.3078, 97.9396, -51.6295, 45.5724
3.684, 2, 35.9445, 48.2371, -14.3078, 97.9396, -51.6295, 45.5724
3.688, 2, 35.9445, 48.2371, -14.3078, 97.9396, -51.6295, 45.5724
3.692, 2, 35.9445, 48.2371, -14.3078, 97.9396, -51.6295, 45.5724
3.696, 2, 35.9445, 48.2371, -14.3078, 97.9396, -51.6295, 45.5724
3.7, 2, 35.9445, 48.2371, -14.3078, 97.9396, -51.6295, 45.5724
3.704, 2, 35.9445, 48.2371, -14.3078, 97.9396, -51.6295, 45.5724
3.708, 2, 35.9445, 48.2371, -14.3078, 97.9396, -51.6295, 45.5724
3.712, 2, 35.9445, 48.2371, -14.3078, 97.9396, -51.6295, 45.5724
3.716, 2, 35.9445, 48.2371, -14.3078, 97.9396, -51.6295, 45.5724
3.72, 2, 35.9445, 48.2371, -14.3078, 97.9396, -51.6295, 45.5724
3.724, 2, 35.9445, 48.2371, -14.3078, 97.9396, -51.6295, 45.5724
3.728, 2, 35.9445, 48.2371, -14.3078, 97.9396, -51.6295, 45.5724
3.732, 2, 35.9445, 48.2371, -14.3078, 97.9396, -51.6295, 45.5724
3.735, 2, 35.9445, 48.2371, -14.3078, 97.9396, -51.6295, 45.5724
3.74, 2, 35.9445, 48.2371, -14.3078, 97.9396, -51.6295, 45.5724
3.744, 2, 35.9445, 48.2371, -14.3078, 97.9396, -51.6295, 45.5724
3.748, 2, 35.9445, 48.2371, -14.3078, 97.9396, -51.6295, 45.5724
3.752, 2, 35.9445, 48.2371, -14.3078, 97.9396, -51.6295, 45.5724
3.756, 2, 35.9445, 48.2371, -14.3078, 97.9396, -51.6295, 45.5724
3.76, 2, 35.9445, 48.2371, -14.3078, 97.9396, -51.6295, 45.5724
3.764, 2, 35.9445, 48.2371, -14.3078, 97.9396, -51.6295, 45.5724
3.768, 2, 35.9445, 48.2371, -14.3078, 97.9396, -51.6295, 45.5724
3.772, 2, 35.9445, 48.2371, -14.3078, 97.9396, -51.6295, 45.5724
3.776, 2, 35.9445, 48.2371, -14.3078, 97.9396, -51.6295, 45.5724
3.78, 2, 35.9445, 48.2371, -14.3078, 97.9396, -51.6295, 45.5724
3.784, 2, 35.9445, 48.2371, -14.3078, 97.9396, -51.6295, 45.5724
3.788, 2, 35.9445, 48.2371, -14.3078, 97.9396, -51.6295, 45.5724
3.792, 2, 35.9445, 48.2371, -14.3078, 97.9396, -51.6295, 45.5724
3.796, 2, 35.9445, 48.2371, -14.3078, 97.9396, -51.6295, 45.5724
3.8, 2, 35.9445, 48.2371, -14.3078, 97.9396, -51.6295, 45.5724
3.804, 2, 35.9445, 48.2371, -14.3078, 97.9396, -51.6295, 45.5724
3.808, 2, 35.9445, 48.2371, -14.3078, 97.9396, -51.6295, 45.5724
3.812, 2, 35.9445, 48.2371, -14.3078, 97.9396, -51.6295, 45.5724
3.816, 2, 35.9445, 48.2371, -14.3078, 97.9396, -51.6295, 45.5724
3.82, 2, 35.9445, 48.2371, -14.3078, 97.9396, -51.6295, 45.5724
3.824, 2, 35.9445, 48.2371, -14.3078, 97.9396, -51.6295, 45.5724
3.828, 2, 35.9445, 48.2371, -14.3078, 97.9396, -51.6295, 45.5724
3.832, 2, 35.9445, 48.2371, -14.3078, 97.9396, -51.6295, 45.5724
3.836, 2, 35.9445, 48.2371, -14.3078, 97.9396, -51.6295, 45.5724
3.84, 2, 35.9445, 48.2371, -14.3078, 97.9396, -51.6295, 45.5724
3.844, 2, 35.9445, 48.2371, -14.3078, 97.9396, -51.6295, 45.5724
3.848, 2, 35.9445, 48.2371, -14.3078, 97.9396, -51.6295, 45.5724
3.852, 2, 35.9445, 48.2371, -14.3078, 97.9396, -51.6295, 45.5724
3.856, 2, 35.9445, 48.2371, -14.3078, 97.9396, -51.6295, 45.5724
3.86, 2, 35.9445, 48.2371, -14.3078, 97.9396, -51.6295, 45.5724
3.864, 2, 35.9445, 48.2371, -14.3078, 97.9396, -51.6295, 45.5724
3.868, 2, 35.9445, 48.2371, -14.3078, 97.9396, -51.6295, 45.5724
3.872, 2, 35.9445, 48.2371, -14.3078, 97.9396, -51.6295, 45.5724
3.876, 2, 35.9445, 48.2371, -14.3078, 97.9396, -51.6295, 45.5724
3.88, 2, 35.9445, 48.2371, -14.3078, 97.9396, -51.6295, 45.5724
3.884, 2, 35.9445, 48.2371, -14.3078, 97.9396, -51.6295, 45.5724
3.888, 2, 35.9445, 48.2371, -14.3078, 97.9396, -51.6295, 45.5724
3.892, 2, 35.9445, 48.2371, -14.3078, 97.9396, -51.6295, 45.5724
3.896, 2, 35.9445, 48.2371, -14.3078, 97.9396, -51.6295, 45.5724
3.9, 2, 35.9445, 48.2371, -14.3078, 97.9396, -51.6295, 45.5724
3.904, 2, 35.9445, 48.2371, -14.3078, 97.9396, -51.6295, 45.5724
3.908, 2, 35.9445, 48.2371, -14.3078, 97.9396, -51.6295, 45.5724
3.912, 2, 35.9445, 48.2371, -14.3078, 97.9396, -51.6295, 45.5724
3.916, 2, 35.9445, 48.2371, -14.3078, 97.9396, -51.6295, 45.5724
3.92, 2, 35.9445, 48.2371, -14.3078, 97.9396, -51.6295, 45.5724
3.924, 2, 35.9445, 48.2371, -14.3078, 97.9396, -51.6295, 45.5724
3.928, 2, 35.9445, 48.2371, -14.3078, 97.9396, -51.6295, 45.5724
3.932, 2, 35.9445, 48.2371, -14.3078, 97.9396, -51.6295, 45.5724
3.936, 2, 35.9445, 48.2371, -14.3078, 97.9396, -51.6295, 45.5724
3.94, 2, 35.9445, 48.2371, -14.3078, 97.9396, -51.6295, 45.5724
3.944, 2, 35.9445, 48.2371, -14.3078, 97.9396, -51.6295, 45.5724
3.948, 2, 35.9445, 48.2371, -14.3078, 97.9396, -51.6295, 45.5724
3.952, 2, 35.9445, 48.2371, -14.3078, 97.9396, -51.6295, 45.5724
3.956, 2, 35.9445, 48.2371, -14.3078, 97.9396, -51.6295, 45.5724
3.96, 2, 35.9445, 48.2371, -14.3078, 97.9396, -51.6295, 45.5724
3.964, 2, 35.9445, 48.2371, -14.3078, 97.9396, -51.6295, 45.5724
3.968, 2, 35.9445, 48.2371, -14.3078, 97.9396, -51.6295, 45.5724
3.972, 2, 35.9445, 48.2371, -14.3078, 97.9396, -51.6295, 45.5724
3.976, 2, 35.9445, 48.2371, -14.3078, 97.9396, -51.6295, 45.5724
3.98, 2, 35.9445, 48.2371, -14.3078, 97.9396, -51.6295, 45.5724
3.984, 2, 35.9445, 48.2371, -14.3078, 97.9396, -51.6295, 45.5724
3.988, 2, 35.9445, 48.2371, -14.3078, 97.9396, -51.6295, 45.5724
3.992, 2, 35.9445, 48.2371, -14.3078, 97.9396, -51.6295, 45.5724
3.996, 2, 35.9445, 48.2371, -14.3078, 97.9396, -51.6295, 45.5724
3.999, 2, 35.9445, 48.2371, -14.3078, 97.9396, -51.6295, 45.5724
4.004, 2, 35.9445, 48.2371, -14.3078, 97.9396, -51.6295, 45.5724
4.008, 2, 35.9445, 48.2371, -14.3078, 97.9396, -51.6295, 45.5724
4.012, 2, 35.9445, 48.2371, -14.3078, 97.9396, -51.6295, 45.5724
4.016, 2, 35.9445, 48.2371, -14.3078, 97.9396, -51.6295, 45.5724
4.02, 2, 35.9445, 48.2371, -14.3078, 97.9396, -51.6295, 45.5724
4.024, 2, 35.9445, 48.2371, -14.3078, 97.9396, -51.6295, 45.5724
4.028, 2, 35.9445, 48.2371, -14.3078, 97.9396, -51.6295, 45.5724
4.032, 2, 35.9445, 48.2371, -14.3078, 97.9396, -51.6295, 45.5724
4.036, 2, 35.9445, 48.2371, -14.3078, 97.9396, -51.6295, 45.5724
4.04, 2, 35.9445, 48.2371, -14.3078, 97.9396, -51.6295, 45.5724
4.044, 2, 35.9445, 48.2371, -14.3078, 97.9396, -51.6295, 45.5724
4.048, 2, 35.9445, 48.2371, -14.3078, 97.9396, -51.6295, 45.5724
4.052, 2, 35.9445, 48.2371, -14.3078, 97.9396, -51.6295, 45.5724
4.056, 2, 35.9445, 48.2371, -14.3078, 97.9396, -51.6295, 45.5724
4.06, 2, 35.9445, 48.2371, -14.3078, 97.9396, -51.6295, 45.5724
4.064, 2, 35.9445, 48.2371, -14.3078, 97.9396, -51.6295, 45.5724
4.068, 2, 35.9445, 48.2371, -14.3078, 97.9396, -51.6295, 45.5724
4.072, 2, 35.9445, 48.2371, -14.3078, 97.9396, -51.6295, 45.5724
4.076, 2, 35.9445, 48.2371, -14.3078, 97.9396, -51.6295, 45.5724
4.08, 2, 35.9445, 48.2371, -14.3078, 97.9396, -51.6295, 45.5724
4.084, 2, 35.9445, 48.2371, -14.3078, 97.9396, -51.6295, 45.5724
4.088, 2, 35.9445, 48.2371, -14.3078, 97.9396, -51.6295, 45.5724
4.092, 2, 35.9445, 48.2371, -14.3078, 97.9396, -51.6295, 45.5724
4.096, 2, 35.9445, 48.2371, -14.3078, 97.9396, -51.6295, 45.5724
4.1, 2, 35.9445, 48.2371, -14.3078, 97.9396, -51.6295, 45.5724
4.104, 2, 35.9445, 48.2371, -14.3078, 97.9396, -51.6295, 45.5724
4.108, 2, 35.9445, 48.2371, -14.3078, 97.9396, -51.6295, 45.5724
4.112, 2, 35.9445, 48.2371, -14.3078, 97.9396, -51.6295, 45.5724
4.116, 2, 35.9445, 48.2371, -14.3078, 97.9396, -51.6295, 45.5724
4.12, 2, 35.9445, 48.2371, -14.3078, 97.9396, -51.6295, 45.5724
4.124, 2, 35.9445, 48.2371, -14.3078, 97.9396, -51.6295, 45.5724
4.128, 2, 35.9445, 48.2371, -14.3078, 97.9396, -51.6295, 45.5724
4.132, 2, 35.9445, 48.2371, -14.3078, 97.9396, -51.6295, 45.5724
4.136, 2, 35.9445, 48.2371, -14.3078, 97.9396, -51.6295, 45.5724
4.14, 2, 35.9445, 48.2371, -14.3078, 97.9396, -51.6295, 45.5724
4.144, 2, 35.9445, 48.2371, -14.3078, 97.9396, -51.6295, 45.5724
4.148, 2, 35.9445, 48.2371, -14.3078, 97.9396, -51.6295, 45.5724
4.152, 2, 35.9445, 48.2371, -14.3078, 97.9396, -51.6295, 45.5724
4.156, 2, 35.9445, 48.2371, -14.3078, 97.9396, -51.6295, 45.5724
4.16, 2, 35.9445, 48.2371, -14.3078, 97.9396, -51.6295, 45.5724
4.164, 2, 35.9445, 48.2371, -14.3078, 97.9396, -51.6295, 45.5724
4.168, 2, 35.9445, 48.2371, -14.3078, 97.9396, -51.6295, 45.5724
4.172, 2, 35.9445, 48.2371, -14.3078, 97.9396, -51.6295, 45.5724
4.176, 2, 35.9445, 48.2371, -14.3078, 97.9396, -51.6295, 45.5724
4.18, 2, 35.9445, 48.2371, -14.3078, 97.9396, -51.6295, 45.5724
4.184, 2, 35.9445, 48.2371, -14.3078, 97.9396, -51.6295, 45.5724
4.188, 2, 35.9445, 48.2371, -14.3078, 97.9396, -51.6295, 45.5724
4.192, 2, 35.9445, 48.2371, -14.3078, 97.9396, -51.6295, 45.5724
4.196, 2, 35.9445, 48.2371, -14.3078, 97.9396, -51.6295, 45.5724
4.2, 2, 35.9445, 48.2371, -14.3078, 97.9396, -51.6295, 45.5724
4.204, 2, 35.9445, 48.2371, -14.3078, 97.9396, -51.6295, 45.5724
4.208, 2, 35.9445, 48.2371, -14.3078, 97.9396, -51.6295, 45.5724
4.212, 2, 35.9445, 48.2371, -14.3078, 97.9396, -51.6295, 45.5724
4.216, 2, 35.9445, 48.2371, -14.3078, 97.9396, -51.6295, 45.5724
4.22, 2, 35.9445, 48.2371, -14.3078, 97.9396, -51.6295, 45.5724
4.224, 2, 35.9445, 48.2371, -14.3078, 97.9396, -51.6295, 45.5724
4.228, 2, 35.9445, 48.2371, -14.3078, 97.9396, -51.6295, 45.5724
4.232, 2, 35.9445, 48.2371, -14.3078, 97.9396, -51.6295, 45.5724
4.236, 2, 35.9445, 48.2371, -14.3078, 97.9396, -51.6295, 45.5724
4.24, 2, 35.9445, 48.2371, -14.3078, 97.9396, -51.6295, 45.5724
4.244, 2, 35.9445, 48.2371, -14.3078, 97.9396, -51.6295, 45.5724
4.248, 2, 35.9445, 48.2371, -14.3078, 97.9396, -51.6295, 45.5724
4.252, 2, 35.9445, 48.2371, -14.3078, 97.9396, -51.6295, 45.5724
4.256, 2, 35.9445, 48.2371, -14.3078, 97.9396, -51.6295, 45.5724
4.26, 2, 35.9445, 48.2371, -14.3078, 97.9396, -51.6295, 45.5724
4.264, 2, 35.9445, 48.2371, -14.3078, 97.9396, -51.6295, 45.5724
4.268, 2, 35.9445, 48.2371, -14.3078, 97.9396, -51.6295, 45.5724
4.272, 2, 35.9445, 48.2371, -14.3078, 97.9396, -51.6295, 45.5724
4.276, 2, 35.9445, 48.2371, -14.3078, 97.9396, -51.6295, 45.5724
4.28, 2, 35.9445, 48.2371, -14.3078, 97.9396, -51.6295, 45.5724
4.284, 2, 35.9445, 48.2371, -14.3078, 97.9396, -51.6295, 45.5724
4.288, 2, 35.9445, 48.2371, -14.3078, 97.9396, -51.6295, 45.5724
4.292, 2, 35.9445, 48.2371, -14.3078, 97.9396, -51.6295, 45.5724
4.296, 2, 35.9445, 48.2371, -14.3078, 97.9396, -51.6295, 45.5724
4.3, 2, 35.9445, 48.2371, -14.3078, 97.9396, -51.6295, 45.5724
4.304, 2, 35.9445, 48.2371, -14.3078, 97.9396, -51.6295, 45.5724
4.308, 2, 35.9445, 48.2371, -14.3078, 97.9396, -51.6295, 45.5724
4.312, 2, 35.9445, 48.2371, -14.3078, 97.9396, -51.6295, 45.5724
4.316, 2, 35.9445, 48.2371, -14.3078, 97.9396, -51.6295, 45.5724
4.32, 2, 35.9445, 48.2371, -14.3078, 97.9396, -51.6295, 45.5724
4.324, 2, 35.9445, 48.2371, -14.3078, 97.9396, -51.6295, 45.5724
4.328, 2, 35.9445, 48.2371, -14.3078, 97.9396, -51.6295, 45.5724
4.332, 2, 35.9445, 48.2371, -14.3078, 97.9396, -51.6295, 45.5724
4.336, 2, 35.9445, 48.2371, -14.3078, 97.9396, -51.6295, 45.5724
4.34, 2, 35.9445, 48.2371, -14.3078, 97.9396, -51.6295, 45.5724
4.344, 2, 35.9445, 48.2371, -14.3078, 97.9396, -51.6295, 45.5724
4.348, 2, 35.9445, 48.2371, -14.3078, 97.9396, -51.6295, 45.5724
4.352, 2, 35.9445, 48.2371, -14.3078, 97.9396, -51.6295, 45.5724
4.356, 2, 35.9445, 48.2371, -14.3078, 97.9396, -51.6295, 45.5724
4.36, 2, 35.9445, 48.2371, -14.3078, 97.9396, -51.6295, 45.5724
4.364, 2, 35.9445, 48.2371, -14.3078, 97.9396, -51.6295, 45.5724
4.368, 2, 35.9445, 48.2371, -14.3078, 97.9396, -51.6295, 45.5724
4.372, 2, 35.9445, 48.2371, -14.3078, 97.9396, -51.6295, 45.5724
4.376, 2, 35.9445, 48.2371, -14.3078, 97.9396, -51.6295, 45.5724
4.38, 2, 35.9445, 48.2371, -14.3078, 97.9396, -51.6295, 45.5724
4.384, 2, 35.9445, 48.2371, -14.3078, 97.9396, -51.6295, 45.5724
4.388, 2, 35.9445, 48.2371, -14.3078, 97.9396, -51.6295, 45.5724
4.392, 2, 35.9445, 48.2371, -14.3078, 97.9396, -51.6295, 45.5724
4.396, 3, 35.9445, 48.2371, -14.3078, 97.9396, -51.6295, 45.5724
4.4, 3, 35.9445, 48.2371, -14.3078, 97.9396, -51.6295, 45.5724
4.404, 3, 35.9445, 48.2371, -14.3078, 97.9396, -51.6295, 45.5724
4.408, 3, 35.9445, 48.2371, -14.3078, 97.9396, -51.6295, 45.5724
4.412, 3, 35.9445, 48.2371, -14.3078, 97.9396, -51.6295, 45.5724
4.416, 3, 35.9445, 48.2371, -14.3078, 97.9396, -51.6295, 45.5724
4.42, 3, 35.9445, 48.2371, -14.3078, 97.9396, -51.6295, 45.5724
4.424, 3, 35.9445, 48.2371, -14.3078, 97.9396, -51.6295, 45.5724
4.428, 3, 35.9445, 48.2371, -14.3078, 97.9396, -51.6295, 45.5724
4.432, 3, 35.9445, 48.2371, -14.3078, 97.9396, -51.6295, 45.5724
4.436, 4, 35.9445, 48.2371, -14.3078, 97.9396, -51.6295, 45.5724
4.44, 4, 35.9445, 48.2371, -14.3078, 97.9396, -51.6295, 45.5724
4.444, 4, 35.9445, 48.2371, -14.3078, 97.9396, -51.6295, 45.5724
4.448, 4, 35.9445, 48.2371, -14.3078, 97.9396, -51.6295, 45.5724
4.452, 4, 35.9445, 48.2371, -14.3078, 97.9396, -51.6295, 45.5724
4.456, 4, 35.9445, 48.2371, -14.3078, 97.9396, -51.6295, 45.5724
4.46, 4, 35.9445, 48.2371, -14.3078, 97.9396, -51.6295, 45.5724
4.464, 4, 35.9445, 48.2371, -14.3078, 97.9396, -51.6295, 45.5724
4.468, 4, 35.9445, 48.2371, -14.3078, 97.9396, -51.6295, 45.5724
4.472, 4, 35.9445, 48.2371, -14.3078, 97.9396, -51.6295, 45.5724
4.476, 4, 35.9445, 48.2371, -14.3078, 97.9396, -51.6295, 45.5724
4.48, 4, 35.9445, 48.2371, -14.3078, 97.9396, -51.6295, 45.5724
4.484, 4, 35.9445, 48.2371, -14.3078, 97.9396, -51.6295, 45.5724
4.488, 4, 35.9445, 48.2371, -14.3078, 97.9396, -51.6295, 45.5724
4.492, 4, 35.9445, 48.2371, -14.3078, 97.9396, -51.6295, 45.5724
4.496, 4, 35.9445, 48.2371, -14.3078, 97.9396, -51.6295, 45.5724
4.5, 4, 35.9445, 48.2371, -14.3078, 97.9396, -51.6295, 45.5724
4.504, 4, 35.9445, 48.2371, -14.3078, 97.9396, -51.6295, 45.5724
4.508, 4, 35.9445, 48.2371, -14.3078, 97.9396, -51.6295, 45.5724
4.512, 4, 35.9445, 48.2371, -14.3078, 97.9396, -51.6295, 45.5724
4.516, 4, 35.9445, 48.2371, -14.3078, 97.9396, -51.6295, 45.5724
4.52, 4, 35.9445, 48.2371, -14.3078, 97.9396, -51.6295, 45.5724
4.524, 4, 35.9445, 48.2371, -14.3078, 97.9396, -51.6295, 45.5724
4.528, 4, 35.9445, 48.2371, -14.3078, 97.9396, -51.6295, 45.5724
4.532, 4, 35.9445, 48.2371, -14.3078, 97.9396, -51.6295, 45.5724
4.536, 5, 35.9445, 48.2371, -14.3078, 97.9396, -51.6295, 45.5724
4.54, 5, 35.9445, 48.2371, -14.3078, 97.9396, -51.6295, 45.5724
4.544, 5, 35.9445, 48.2371, -14.3078, 97.9396, -51.6295, 45.5724
4.548, 5, 35.9445, 48.2371, -14.3078, 97.9396, -51.6295, 45.5724
4.552, 5, 35.9445, 48.2371, -14.3078, 97.9396, -51.6295, 45.5724
4.556, 5, 35.9445, 48.2371, -14.3078, 97.9396, -51.6295, 45.5724
4.56, 5, 35.9445, 48.2371, -14.3078, 97.9396, -51.6295, 45.5724
4.564, 5, 35.9445, 48.2371, -14.3078, 97.9396, -51.6295, 45.5724
4.568, 5, 35.9445, 48.2371, -14.3078, 97.9396, -51.6295, 45.5724
4.572, 5, 35.9445, 48.2372, -14.3078, 97.9396, -51.6295, 45.5724
4.576, 5, 35.9445, 48.2373, -14.3078, 97.9396, -51.6296, 45.5724
4.58, 5, 35.9445, 48.2377, -14.3078, 97.9396, -51.6296, 45.5724
4.584, 5, 35.9445, 48.2384, -14.3079, 97.9396, -51.6297, 45.5724
4.588, 6, 35.9444, 48.2397, -14.3079, 97.9395, -51.6301, 45.5723
4.592, 6, 35.9443, 48.2415, -14.308, 97.9395, -51.6307, 45.5721
4.596, 6, 35.9441, 48.2441, -14.3081, 97.9393, -51.632, 45.5717
4.6, 6, 35.9439, 48.2475, -14.3084, 97.9391, -51.6343, 45.571
4.604, 6, 35.9436, 48.2519, -14.3088, 97.9387, -51.6379, 45.5698
4.608, 6, 35.9433, 48.2575, -14.3094, 97.9381, -51.6434, 45.5681
4.612, 6, 35.9429, 48.2645, -14.3103, 97.9372, -51.6514, 45.5656
4.616, 6, 35.9424, 48.2731, -14.3116, 97.9359, -51.6627, 45.5621
4.62, 6, 35.9419, 48.2835, -14.3133, 97.9342, -51.678, 45.5573
4.624, 6, 35.9412, 48.2959, -14.3155, 97.9319, -51.6983, 45.551
4.628, 6, 35.9405, 48.3104, -14.3184, 97.9288, -51.7245, 45.5429
4.632, 6, 35.9398, 48.3268, -14.3221, 97.925, -51.7577, 45.5326
4.636, 6, 35.939, 48.3453, -14.3266, 97.9202, -51.7987, 45.5199
4.64, 6, 35.9381, 48.3659, -14.332, 97.9144, -51.8485, 45.5045
4.644, 6, 35.9373, 48.3887, -14.3384, 97.9073, -51.9077, 45.4863
4.648, 6, 35.9364, 48.4138, -14.3458, 97.899, -51.977, 45.4649
4.652, 6, 35.9356, 48.4411, -14.3543, 97.8894, -52.0567, 45.4404
4.656, 6, 35.9347, 48.4708, -14.3639, 97.8783, -52.1472, 45.4126
4.66, 6, 35.934, 48.5027, -14.3745, 97.8658, -52.2485, 45.3815
4.664, 6, 35.9333, 48.5368, -14.3862, 97.8518, -52.3603, 45.3473
4.668, 6, 35.9327, 48.5729, -14.3988, 97.8363, -52.4825, 45.31
4.672, 6, 35.9322, 48.6112, -14.4122, 97.8194, -52.6143, 45.2698
4.676, 6, 35.9317, 48.6515, -14.4264, 97.8011, -52.755, 45.2271
4.68, 6, 35.9313, 48.694, -14.4413, 97.7815, -52.9038, 45.1819
4.684, 6, 35.9308, 48.7386, -14.4567, 97.7606, -53.0598, 45.1347
4.688, 6, 35.9303, 48.7852, -14.4725, 97.7386, -53.222, 45.0858
4.692, 6, 35.9296, 48.8337, -14.4886, 97.7156, -53.3894, 45.0354
4.696, 6, 35.9289, 48.8839, -14.5049, 97.6916, -53.5612, 44.9838
4.7, 6, 35.928, 48.9355, -14.5212, 97.6668, -53.7365, 44.9313
4.704, 6, 35.927, 48.9884, -14.5376, 97.6412, -53.9145, 44.8781
4.708, 6, 35.9258, 49.0426, -14.5538, 97.6148, -54.0946, 44.8245
4.712, 6, 35.9244, 49.0977, -14.5699, 97.5879, -54.2762, 44.7706
4.716, 6, 35.9229, 49.1537, -14.5858, 97.5603, -54.4589, 44.7165
4.72, 6, 35.9211, 49.2105, -14.6015, 97.5322, -54.6422, 44.6624
4.724, 6, 35.9192, 49.2677, -14.6169, 97.5036, -54.8259, 44.6083
4.728, 6, 35.917, 49.3254, -14.6319, 97.4745, -55.0099, 44.5543
4.732, 6, 35.9147, 49.3832, -14.6467, 97.445, -55.1939, 44.5005
4.736, 6, 35.9123, 49.4411, -14.6611, 97.415, -55.3779, 44.4468
4.74, 6, 35.9097, 49.499, -14.6751, 97.3846, -55.5619, 44.3933
4.744, 6, 35.907, 49.5569, -14.6889, 97.3537, -55.7458, 44.3399
4.748, 6, 35.9041, 49.6146, -14.7023, 97.3224, -55.9295, 44.2868
4.752, 6, 35.9011, 49.6722, -14.7153, 97.2907, -56.1131, 44.2338
4.756, 6, 35.8979, 49.7298, -14.728, 97.2586, -56.2966, 44.181
4.76, 6, 35.8946, 49.7871, -14.7403, 97.2261, -56.4798, 44.1284
4.764, 6, 35.8911, 49.8443, -14.7522, 97.1932, -56.6629, 44.076
4.768, 6, 35.8875, 49.9014, -14.7638, 97.1598, -56.8459, 44.0238
4.772, 6, 35.8838, 49.9582, -14.7751, 97.1261, -57.0286, 43.9717
4.776, 6, 35.8799, 50.0149, -14.7859, 97.092, -57.2112, 43.9199
4.78, 6, 35.8759, 50.0715, -14.7964, 97.0574, -57.3936, 43.8682
4.784, 6, 35.8718, 50.1279, -14.8066, 97.0225, -57.5758, 43.8167
4.788, 6, 35.8675, 50.184, -14.8164, 96.9872, -57.7578, 43.7654
4.792, 6, 35.8631, 50.2401, -14.8258, 96.9515, -57.9396, 43.7142
4.796, 6, 35.8585, 50.2959, -14.8348, 96.9154, -58.1213, 43.6632
4.8, 6, 35.8539, 50.3515, -14.8435, 96.8789, -58.3028, 43.6124
4.804, 6, 35.849, 50.407, -14.8518, 96.8421, -58.4841, 43.5618
4.808, 6, 35.8441, 50.4623, -14.8598, 96.8048, -58.6652, 43.5113
4.812, 6, 35.839, 50.5174, -14.8673, 96.7672, -58.8461, 43.4609
4.816, 6, 35.8337, 50.5723, -14.8745, 96.7292, -59.0269, 43.4108
4.82, 6, 35.8283, 50.6271, -14.8813, 96.6909, -59.2075, 43.3607
4.824, 6, 35.8228, 50.6816, -14.8878, 96.6522, -59.3879, 43.3109
4.828, 6, 35.8172, 50.7359, -14.8938, 96.6131, -59.5681, 43.2612
4.832, 6, 35.8114, 50.7901, -14.8995, 96.5737, -59.7481, 43.2116
4.836, 6, 35.8055, 50.8441, -14.9048, 96.5339, -59.928, 43.1622
4.84, 6, 35.7994, 50.8979, -14.9097, 96.4937, -60.1076, 43.1129
4.844, 6, 35.7932, 50.9514, -14.9143, 96.4532, -60.2871, 43.0637
4.848, 6, 35.7869, 51.0048, -14.9184, 96.4123, -60.4664, 43.0147
4.852, 6, 35.7804, 51.058, -14.9222, 96.3711, -60.6455, 42.9659
4.856, 6, 35.7738, 51.111, -14.9256, 96.3295, -60.8245, 42.9171
4.86, 6, 35.7671, 51.1638, -14.9286, 96.2876, -61.0033, 42.8685
4.864, 6, 35.7602, 51.2164, -14.9313, 96.2453, -61.1818, 42.8201
4.868, 6, 35.7532, 51.2688, -14.9335, 96.2027, -61.3603, 42.7717
4.872, 6, 35.746, 51.321, -14.9353, 96.1598, -61.5385, 42.7235
4.876, 6, 35.7388, 51.373, -14.9368, 96.1165, -61.7165, 42.6754
4.88, 6, 35.7313, 51.4248, -14.9379, 96.0728, -61.8944, 42.6274
4.884, 6, 35.7238, 51.4764, -14.9385, 96.0289, -62.0721, 42.5796
4.888, 6, 35.7161, 51.5277, -14.9388, 95.9846, -62.2496, 42.5318
4.892, 6, 35.7083, 51.5789, -14.9387, 95.94, -62.4269, 42.4842
4.896, 6, 35.7003, 51.6299, -14.9382, 95.895, -62.6041, 42.4367
4.9, 6, 35.6923, 51.6806, -14.9373, 95.8497, -62.7811, 42.3893
4.904, 6, 35.684, 51.7311, -14.936, 95.8041, -62.9578, 42.342
4.908, 6, 35.6757, 51.7815, -14.9343, 95.7582, -63.1345, 42.2948
4.912, 6, 35.6672, 51.8316, -14.9322, 95.712, -63.3109, 42.2477
4.916, 6, 35.6586, 51.8815, -14.9297, 95.6654, -63.4872, 42.2007
4.92, 6, 35.6498, 51.9311, -14.9268, 95.6185, -63.6632, 42.1538
4.924, 6, 35.6409, 51.9806, -14.9235, 95.5713, -63.8391, 42.107
4.928, 6, 35.6319, 52.0298, -14.9198, 95.5238, -64.0148, 42.0603
4.932, 6, 35.6227, 52.0789, -14.9157, 95.476, -64.1904, 42.0137
4.936, 6, 35.6134, 52.1277, -14.9112, 95.4279, -64.3658, 41.9671
4.94, 6, 35.604, 52.1762, -14.9062, 95.3795, -64.5409, 41.9207
4.944, 6, 35.5944, 52.2246, -14.9009, 95.3307, -64.7159, 41.8744
4.948, 6, 35.5847, 52.2727, -14.8951, 95.2817, -64.8908, 41.8281
4.952, 6, 35.5749, 52.3206, -14.889, 95.2323, -65.0654, 41.7819
4.956, 6, 35.565, 52.3683, -14.8824, 95.1827, -65.2399, 41.7358
4.96, 6, 35.5549, 52.4158, -14.8754, 95.1327, -65.4142, 41.6898
4.964, 6, 35.5446, 52.463, -14.868, 95.0825, -65.5883, 41.6439
4.968, 6, 35.5343, 52.51, -14.8602, 95.0319, -65.7623, 41.598
4.972, 6, 35.5238, 52.5568, -14.852, 94.9811, -65.9361, 41.5522
4.976, 6, 35.5131, 52.6033, -14.8433, 94.93, -66.1097, 41.5065
4.98, 6, 35.5024, 52.6496, -14.8343, 94.8786, -66.2831, 41.4608
4.984, 6, 35.4915, 52.6957, -14.8248, 94.8268, -66.4564, 41.4152
4.988, 6, 35.4805, 52.7415, -14.8149, 94.7748, -66.6295, 41.3697
4.992, 6, 35.4693, 52.7871, -14.8045, 94.7225, -66.8024, 41.3243
4.996, 6, 35.458, 52.8325, -14.7938, 94.67, -66.9751, 41.2789
5, 6, 35.4466, 52.8776, -14.7826, 94.6171, -67.1477, 41.2336
5.004, 6, 35.4351, 52.9225, -14.7711, 94.564, -67.3201, 41.1883
5.008, 6, 35.4234, 52.9671, -14.7591, 94.5105, -67.4924, 41.1431
5.012, 6, 35.4116, 53.0116, -14.7467, 94.4568, -67.6644, 41.0979
5.016, 6, 35.3996, 53.0557, -14.7338, 94.4028, -67.8363, 41.0528
5.02, 6, 35.3876, 53.0997, -14.7206, 94.3486, -68.0081, 41.0078
5.024, 6, 35.3753, 53.1434, -14.7069, 94.294, -68.1797, 40.9628
5.028, 6, 35.363, 53.1868, -14.6928, 94.2392, -68.3511, 40.9179
5.032, 6, 35.3505, 53.2301, -14.6783, 94.1841, -68.5223, 40.873
5.036, 6, 35.338, 53.273, -14.6634, 94.1287, -68.6934, 40.8281
5.04, 6, 35.3252, 53.3158, -14.648, 94.0731, -68.8643, 40.7833
5.044, 6, 35.3124, 53.3582, -14.6322, 94.0172, -69.0351, 40.7386
5.048, 6, 35.2994, 53.4005, -14.616, 93.961, -69.2057, 40.6939
5.052, 6, 35.2863, 53.4425, -14.5994, 93.9046, -69.3761, 40.6492
5.056, 6, 35.273, 53.4842, -14.5824, 93.8478, -69.5463, 40.6046
5.06, 6, 35.2597, 53.5257, -14.5649, 93.7909, -69.7164, 40.56
5.064, 6, 35.2462, 53.567, -14.5471, 93.7336, -69.8864, 40.5154
5.068, 6, 35.2325, 53.608, -14.5288, 93.6761, -70.0562, 40.4709
5.072, 6, 35.2188, 53.6487, -14.51, 93.6184, -70.2258, 40.4264
5.076, 6, 35.2049, 53.6893, -14.4909, 93.5603, -70.3952, 40.3819
5.08, 6, 35.1909, 53.7295, -14.4713, 93.5021, -70.5645, 40.3375
5.084, 6, 35.1767, 53.7695, -14.4513, 93.4435, -70.7337, 40.2931
5.088, 6, 35.1625, 53.8093, -14.4309, 93.3847, -70.9026, 40.2487
5.092, 6, 35.1481, 53.8488, -14.4101, 93.3257, -71.0715, 40.2043
5.096, 6, 35.1336, 53.888, -14.3888, 93.2664, -71.2401, 40.16
5.1, 6, 35.1189, 53.927, -14.3672, 93.2068, -71.4086, 40.1157
5.104, 6, 35.1041, 53.9657, -14.3451, 93.147, -71.577, 40.0714
5.108, 6, 35.0892, 54.0042, -14.3225, 93.0869, -71.7451, 40.0271
5.112, 6, 35.0742, 54.0424, -14.2996, 93.0266, -71.9132, 39.9829
5.116, 6, 35.059, 54.0804, -14.2762, 92.9661, -72.081, 39.9386
5.12, 6, 35.0438, 54.1181, -14.2524, 92.9053, -72.2487, 39.8944
5.124, 6, 35.0283, 54.1555, -14.2281, 92.8442, -72.4163, 39.8502
5.128, 6, 35.0128, 54.1927, -14.2035, 92.7829, -72.5837, 39.806
5.132, 6, 34.9972, 54.2295, -14.1784, 92.7214, -72.7509, 39.7618
5.136, 6, 34.9817, 54.2659, -14.1528, 92.6596, -72.918, 39.7176
5.14, 7, 34.9663, 54.3018, -14.1269, 92.5976, -73.0848, 39.6735
5.144, 7, 34.9512, 54.3369, -14.1006, 92.5354, -73.2514, 39.6294
5.148, 7, 34.9366, 54.371, -14.0739, 92.4731, -73.4174, 39.5853
5.152, 7, 34.9226, 54.4038, -14.0468, 92.4108, -73.5828, 39.5415
5.156, 7, 34.9093, 54.435, -14.0195, 92.3486, -73.747, 39.4978
5.16, 7, 34.8967, 54.4647, -13.9921, 92.2868, -73.9096, 39.4546
5.164, 7, 34.8846, 54.4929, -13.9647, 92.2256, -74.0699, 39.412
5.168, 7, 34.873, 54.5195, -13.9374, 92.1654, -74.227, 39.3702
5.172, 7, 34.8616, 54.5449, -13.9104, 92.1065, -74.38, 39.3295
5.176, 7, 34.8501, 54.569, -13.8838, 92.0493, -74.5278, 39.2902
5.18, 7, 34.8382, 54.592, -13.8577, 91.9942, -74.6695, 39.2527
5.184, 7, 34.8257, 54.614, -13.832, 91.9414, -74.804, 39.2174
5.188, 7, 34.8122, 54.635, -13.8066, 91.8911, -74.9305, 39.1849
5.192, 7, 34.7975, 54.655, -13.7813, 91.8433, -75.0484, 39.1555
5.196, 7, 34.7813, 54.674, -13.7557, 91.7978, -75.1575, 39.1297
5.2, 7, 34.7639, 54.692, -13.7291, 91.7543, -75.2576, 39.1081
5.204, 7, 34.7454, 54.7087, -13.7009, 91.7123, -75.3492, 39.091
5.208, 7, 34.726, 54.7239, -13.6705, 91.6711, -75.4328, 39.0787
5.212, 7, 34.7062, 54.7375, -13.6369, 91.6299, -75.5095, 39.0714
5.216, 7, 34.6864, 54.7491, -13.5996, 91.588, -75.5803, 39.0693
5.22, 7, 34.6667, 54.7584, -13.5576, 91.5446, -75.6466, 39.0724
5.224, 7, 34.6473, 54.765, -13.5106, 91.4989, -75.7096, 39.0806
5.228, 7, 34.6282, 54.7687, -13.458, 91.4503, -75.7707, 39.0938
5.232, 7, 34.6094, 54.7693, -13.3996, 91.3984, -75.8309, 39.1115
5.236, 7, 34.5908, 54.7667, -13.3353, 91.3428, -75.8915, 39.1334
5.24, 7, 34.5724, 54.7608, -13.2653, 91.2834, -75.953, 39.1591
5.244, 7, 34.5541, 54.752, -13.1899, 91.2204, -76.0161, 39.1881
5.248, 7, 34.5357, 54.7406, -13.1095, 91.1538, -76.0812, 39.2199
5.252, 7, 34.5172, 54.7269, -13.0248, 91.084, -76.1482, 39.254
5.256, 7, 34.4982, 54.7116, -12.9363, 91.0116, -76.2171, 39.2899
5.26, 7, 34.4785, 54.6951, -12.8447, 90.9369, -76.2878, 39.3272
5.264, 7, 34.458, 54.6778, -12.7506, 90.8604, -76.3599, 39.3656
5.268, 7, 34.4365, 54.66, -12.6546, 90.7827, -76.4331, 39.4046
5.272, 7, 34.4139, 54.6419, -12.5572, 90.704, -76.5071, 39.4442
5.276, 7, 34.3903, 54.6236, -12.4588, 90.6246, -76.5818, 39.4841
5.28, 7, 34.3659, 54.6053, -12.3596, 90.5448, -76.657, 39.5241
5.284, 7, 34.3409, 54.5869, -12.2599, 90.4648, -76.7324, 39.5641
5.288, 7, 34.3154, 54.5684, -12.1599, 90.3846, -76.8081, 39.6042
5.292, 7, 34.2896, 54.5499, -12.0597, 90.3042, -76.884, 39.6441
5.296, 7, 34.2636, 54.5313, -11.9592, 90.2239, -76.9601, 39.684
5.3, 7, 34.2374, 54.5126, -11.8587, 90.1435, -77.0362, 39.7238
5.304, 7, 34.211, 54.4939, -11.7581, 90.0631, -77.1125, 39.7635
5.308, 7, 34.1845, 54.4751, -11.6574, 89.9827, -77.1888, 39.8031
5.312, 7, 34.1579, 54.4563, -11.5567, 89.9024, -77.2653, 39.8425
5.316, 7, 34.1312, 54.4374, -11.4559, 89.8221, -77.3418, 39.8817
5.32, 7, 34.1044, 54.4184, -11.3551, 89.7418, -77.4183, 39.9208
5.324, 7, 34.0776, 54.3994, -11.2543, 89.6616, -77.495, 39.9598
5.328, 7, 34.0507, 54.3803, -11.1534, 89.5814, -77.5717, 39.9986
5.332, 7, 34.0237, 54.3612, -11.0526, 89.5013, -77.6484, 40.0373
5.336, 7, 33.9966, 54.3419, -10.9517, 89.4212, -77.7252, 40.0758
5.34, 7, 33.9695, 54.3227, -10.8508, 89.3412, -77.8021, 40.1142
5.344, 7, 33.9423, 54.3033, -10.7499, 89.2612, -77.8791, 40.1524
5.348, 7, 33.9151, 54.284, -10.649, 89.1813, -77.9561, 40.1904
5.352, 7, 33.8878, 54.2645, -10.548, 89.1014, -78.0331, 40.2283
5.356, 8, 33.8604, 54.245, -10.4471, 89.0215, -78.1102, 40.2661
5.36, 8, 33.833, 54.2254, -10.3461, 88.9417, -78.1874, 40.3037
5.364, 8, 33.8055, 54.2058, -10.2451, 88.862, -78.2646, 40.3411
5.368, 8, 33.7779, 54.1861, -10.1441, 88.7822, -78.3419, 40.3784
5.372, 8, 33.7502, 54.1663, -10.0431, 88.7026, -78.4193, 40.4156
5.376, 8, 33.7225, 54.1465, -9.94205, 88.6229, -78.4967, 40.4526
5.38, 8, 33.6948, 54.1266, -9.841, 88.5434, -78.5742, 40.4894
5.384, 8, 33.667, 54.1066, -9.73994, 88.4638, -78.6517, 40.5261
5.388, 8, 33.6391, 54.0866, -9.63887, 88.3843, -78.7293, 40.5626
5.392, 8, 33.6111, 54.0666, -9.53779, 88.3048, -78.8069, 40.599
5.396, 8, 33.5831, 54.0464, -9.43669, 88.2254, -78.8846, 40.6352
5.4, 8, 33.555, 54.0262, -9.33558, 88.146, -78.9624, 40.6712
5.404, 8, 33.5268, 54.0059, -9.23445, 88.0667, -79.0402, 40.7071
5.408, 8, 33.4986, 53.9856, -9.13332, 87.9874, -79.118, 40.7429
5.412, 8, 33.4703, 53.9652, -9.03216, 87.9082, -79.196, 40.7785
5.416, 8, 33.442, 53.9448, -8.931, 87.8289, -79.2739, 40.8139
5.42, 8, 33.4136, 53.9242, -8.82982, 87.7498, -79.352, 40.8492
5.424, 8, 33.3851, 53.9036, -8.72863, 87.6706, -79.4301, 40.8843
5.428, 8, 33.3566, 53.883, -8.62743, 87.5915, -79.5082, 40.9193
5.432, 8, 33.3279, 53.8622, -8.52622, 87.5125, -79.5864, 40.9541
5.436, 8, 33.2993, 53.8415, -8.42499, 87.4334, -79.6647, 40.9887
5.44, 8, 33.2705, 53.8206, -8.32375, 87.3545, -79.743, 41.0232
5.444, 8, 33.2417, 53.7997, -8.2225, 87.2755, -79.8213, 41.0576
5.448, 8, 33.2129, 53.7787, -8.12124, 87.1966, -79.8998, 41.0917
5.452, 8, 33.1839, 53.7576, -8.01996, 87.1177, -79.9782, 41.1258
5.456, 8, 33.1549, 53.7365, -7.91867, 87.0389, -80.0568, 41.1596
5.46, 8, 33.1259, 53.7153, -7.81737, 86.9601, -80.1353, 41.1933
5.464, 8, 33.0967, 53.6941, -7.71606, 86.8813, -80.214, 41.2269
5.468, 8, 33.0675, 53.6728, -7.61474, 86.8026, -80.2927, 41.2603
5.472, 8, 33.0383, 53.6514, -7.5134, 86.7238, -80.3714, 41.2935
5.476, 8, 33.009, 53.6299, -7.41205, 86.6452, -80.4502, 41.3266
5.48, 8, 32.9796, 53.6084, -7.31069, 86.5665, -80.5291, 41.3595
5.484, 8, 32.9501, 53.5868, -7.20932, 86.4879, -80.608, 41.3922
5.488, 8, 32.9206, 53.5651, -7.10794, 86.4093, -80.6869, 41.4248
5.492, 8, 32.891, 53.5434, -7.00654, 86.3308, -80.7659, 41.4573
5.496, 8, 32.8613, 53.5216, -6.90514, 86.2523, -80.845, 41.4895
5.5, 8, 32.8316, 53.4997, -6.80372, 86.1738, -80.9241, 41.5217
5.504, 8, 32.8018, 53.4778, -6.70229, 86.0953, -81.0033, 41.5536
5.508, 8, 32.772, 53.4558, -6.60085, 86.0169, -81.0825, 41.5854
5.512, 8, 32.7421, 53.4337, -6.4994, 85.9385, -81.1617, 41.617
5.516, 8, 32.7121, 53.4116, -6.39794, 85.8601, -81.2411, 41.6485
5.52, 8, 32.682, 53.3894, -6.29646, 85.7817, -81.3204, 41.6798
5.524, 8, 32.6519, 53.3671, -6.19498, 85.7034, -81.3998, 41.711
5.528, 8, 32.6217, 53.3447, -6.09349, 85.6251, -81.4793, 41.742
5.532, 8, 32.5915, 53.3223, -5.99198, 85.5468, -81.5588, 41.7728
5.536, 8, 32.5611, 53.2998, -5.89047, 85.4686, -81.6384, 41.8035
5.54, 8, 32.5308, 53.2772, -5.78894, 85.3903, -81.718, 41.834
5.544, 8, 32.5003, 53.2546, -5.6874, 85.3121, -81.7977, 41.8643
5.548, 8, 32.4698, 53.2318, -5.58586, 85.234, -81.8774, 41.8945
5.552, 8, 32.4392, 53.2091, -5.4843, 85.1558, -81.9572, 41.9245
5.556, 8, 32.4086, 53.1862, -5.38274, 85.0777, -82.037, 41.9543
5.56, 8, 32.3778, 53.1633, -5.28116, 84.9996, -82.1169, 41.984
5.564, 8, 32.3471, 53.1403, -5.17958, 84.9215, -82.1968, 42.0135
5.568, 8, 32.3162, 53.1172, -5.07798, 84.8434, -82.2767, 42.0429
5.572, 8, 32.2853, 53.094, -4.97638, 84.7654, -82.3567, 42.0721
5.576, 8, 32.2543, 53.0708, -4.87477, 84.6873, -82.4368, 42.1011
5.58, 8, 32.2233, 53.0475, -4.77315, 84.6093, -82.5169, 42.1299
5.584, 8, 32.1922, 53.0241, -4.67151, 84.5313, -82.597, 42.1586
5.588, 8, 32.161, 53.0007, -4.56987, 84.4534, -82.6772, 42.1872
5.592, 8, 32.1297, 52.9772, -4.46823, 84.3754, -82.7575, 42.2155
5.596, 8, 32.0984, 52.9536, -4.36657, 84.2975, -82.8378, 42.2437
5.6, 8, 32.067, 52.9299, -4.2649, 84.2195, -82.9181, 42.2718
5.604, 8, 32.0356, 52.9062, -4.16323, 84.1416, -82.9985, 42.2996
5.608, 8, 32.004, 52.8823, -4.06155, 84.0638, -83.0789, 42.3273
5.612, 8, 31.9725, 52.8584, -3.95986, 83.9859, -83.1594, 42.3548
5.616, 8, 31.9408, 52.8345, -3.85816, 83.908, -83.2399, 42.3822
5.62, 8, 31.9091, 52.8104, -3.75645, 83.8302, -83.3204, 42.4094
5.624, 8, 31.8773, 52.7863, -3.65474, 83.7524, -83.401, 42.4364
5.628, 8, 31.8454, 52.7621, -3.55302, 83.6745, -83.4817, 42.4632
5.632, 8, 31.8135, 52.7378, -3.45129, 83.5967, -83.5624, 42.4899
5.636, 8, 31.7816, 52.7134, -3.34956, 83.5189, -83.6431, 42.5164
5.64, 8, 31.7497, 52.689, -3.24783, 83.4412, -83.7239, 42.5428
5.644, 8, 31.7182, 52.6645, -3.14614, 83.3634, -83.8047, 42.569
5.648, 8, 31.687, 52.6399, -3.04454, 83.2857, -83.8854, 42.5949
5.652, 8, 31.6564, 52.6153, -2.94311, 83.2081, -83.9662, 42.6207
5.656, 8, 31.6264, 52.5906, -2.84198, 83.1308, -84.0467, 42.6463
5.66, 8, 31.597, 52.5659, -2.74134, 83.0537, -84.1269, 42.6716
5.664, 8, 31.5682, 52.5413, -2.64139, 82.9771, -84.2067, 42.6965
5.668, 9, 31.54, 52.5166, -2.5424, 82.9013, -84.2856, 42.7212
5.672, 9, 31.5123, 52.4919, -2.44464, 82.8265, -84.3635, 42.7455
5.676, 9, 31.4848, 52.467, -2.34837, 82.7528, -84.4399, 42.7697
5.68, 9, 31.4575, 52.4421, -2.25382, 82.6806, -84.5143, 42.7939
5.684, 9, 31.4299, 52.417, -2.1611, 82.61, -84.5862, 42.8187
5.688, 9, 31.4019, 52.3918, -2.07024, 82.541, -84.6552, 42.8447
5.692, 9, 31.3729, 52.3664, -1.98107, 82.4735, -84.7208, 42.8726
5.696, 9, 31.3427, 52.3409, -1.89327, 82.4072, -84.7826, 42.9033
5.7, 9, 31.3114, 52.3151, -1.80631, 82.3418, -84.8405, 42.9378
5.704, 9, 31.2793, 52.2889, -1.71954, 82.2766, -84.8945, 42.9771
5.708, 9, 31.2466, 52.2622, -1.63219, 82.211, -84.9447, 43.0222
5.712, 9, 31.2136, 52.2348, -1.54341, 82.1443, -84.9913, 43.0739
5.716, 9, 31.1807, 52.2066, -1.45236, 82.0757, -85.0346, 43.1331
5.72, 9, 31.1479, 52.1775, -1.35826, 82.0047, -85.0751, 43.2003
5.724, 9, 31.1153, 52.1473, -1.26042, 81.9305, -85.1132, 43.2759
5.728, 9, 31.0829, 52.1159, -1.15828, 81.8528, -85.1496, 43.36
5.732, 9, 31.0505, 52.083, -1.05147, 81.7712, -85.1848, 43.4524
5.736, 9, 31.0183, 52.0486, -0.939798, 81.6856, -85.2193, 43.5527
5.74, 9, 30.9863, 52.0125, -0.823291, 81.5959, -85.2536, 43.6601
5.744, 9, 30.9545, 51.9745, -0.702169, 81.5024, -85.2882, 43.774
5.748, 9, 30.9226, 51.9348, -0.576818, 81.4054, -85.3233, 43.8935
5.752, 9, 30.8905, 51.8935, -0.447756, 81.3053, -85.3591, 44.0175
5.756, 9, 30.8578, 51.8508, -0.315577, 81.2026, -85.3956, 44.1452
5.76, 9, 30.8242, 51.8069, -0.180905, 81.0979, -85.4328, 44.2758
5.764, 9, 30.7896, 51.7623, -0.0443403, 80.9917, -85.4707, 44.4085
5.768, 9, 30.754, 51.717, 0.0935825, 80.8843, -85.5092, 44.5426
5.772, 9, 30.7173, 51.6712, 0.23241, 80.7762, -85.5481, 44.6778
5.776, 9, 30.6798, 51.6252, 0.37178, 80.6676, -85.5876, 44.8137
5.78, 9, 30.6416, 51.5792, 0.511414, 80.5586, -85.6275, 44.9499
5.784, 9, 30.6029, 51.5331, 0.651115, 80.4494, -85.6677, 45.0864
5.788, 9, 30.5638, 51.4871, 0.790743, 80.34, -85.7084, 45.2229
5.792, 9, 30.5244, 51.4412, 0.930203, 80.2306, -85.7494, 45.3595
5.796, 9, 30.4847, 51.3956, 1.06943, 80.1212, -85.7907, 45.496
5.8, 9, 30.4448, 51.3501, 1.20838, 80.0118, -85.8323, 45.6325
5.804, 9, 30.4047, 51.3048, 1.34702, 79.9024, -85.8743, 45.7688
5.808, 9, 30.3644, 51.2597, 1.48533, 79.7931, -85.9166, 45.905
5.812, 9, 30.3241, 51.2149, 1.6233, 79.6838, -85.9592, 46.0411
5.816, 9, 30.2835, 51.1703, 1.76091, 79.5746, -86.0022, 46.177
5.82, 9, 30.2429, 51.126, 1.89817, 79.4654, -86.0454, 46.3127
5.824, 9, 30.2021, 51.0819, 2.03507, 79.3564, -86.089, 46.4483
5.828, 9, 30.1612, 51.038, 2.17161, 79.2473, -86.1328, 46.5837
5.832, 9, 30.1202, 50.9944, 2.30778, 79.1384, -86.177, 46.7189
5.836, 9, 30.079, 50.951, 2.44359, 79.0295, -86.2215, 46.854
5.84, 9, 30.0378, 50.9079, 2.57904, 78.9207, -86.2663, 46.9889
5.844, 9, 29.9964, 50.865, 2.71413, 78.812, -86.3114, 47.1236
5.848, 9, 29.9549, 50.8223, 2.84885, 78.7033, -86.3568, 47.2581
5.852, 9, 29.9133, 50.7799, 2.98321, 78.5948, -86.4025, 47.3925
5.856, 9, 29.8716, 50.7378, 3.11721, 78.4863, -86.4485, 47.5267
5.86, 9, 29.8298, 50.6958, 3.25084, 78.3778, -86.4948, 47.6608
5.864, 9, 29.788, 50.6541, 3.38411, 78.2695, -86.5414, 47.7946
5.868, 9, 29.7464, 50.6127, 3.51698, 78.1613, -86.5883, 47.9283
5.872, 9, 29.7051, 50.5716, 3.64939, 78.0531, -86.6355, 48.0618
5.876, 9, 29.6645, 50.5308, 3.78125, 77.9451, -86.6829, 48.195
5.88, 9, 29.6245, 50.4903, 3.91242, 77.8375, -86.7305, 48.3277
5.884, 9, 29.5852, 50.4503, 4.04268, 77.7302, -86.7782, 48.4598
5.888, 9, 29.5467, 50.4108, 4.17176, 77.6237, -86.8259, 48.591
5.892, 9, 29.509, 50.3719, 4.29931, 77.5181, -86.8735, 48.7209
5.896, 9, 29.4718, 50.3337, 4.42492, 77.4139, -86.9207, 48.8491
5.9, 9, 29.4351, 50.2961, 4.54815, 77.3115, -86.9674, 48.975
5.904, 9, 29.3989, 50.2592, 4.66856, 77.2113, -87.0133, 49.0982
5.908, 9, 29.3631, 50.2229, 4.78575, 77.1137, -87.0583, 49.218
5.912, 9, 29.3275, 50.1871, 4.8994, 77.0191, -87.102, 49.3339
5.916, 9, 29.2919, 50.1517, 5.00931, 76.9279, -87.1442, 49.4455
5.92, 9, 29.2561, 50.1166, 5.11544, 76.8401, -87.1848, 49.5524
5.924, 9, 29.2197, 50.0819, 5.21793, 76.756, -87.2236, 49.6544
5.928, 9, 29.1825, 50.0475, 5.31712, 76.6751, -87.2604, 49.7517
5.932, 9, 29.1446, 50.0132, 5.41354, 76.5974, -87.2954, 49.8444
5.936, 9, 29.1062, 49.9791, 5.50786, 76.5222, -87.3286, 49.9331
5.94, 9, 29.0674, 49.945, 5.60089, 76.4488, -87.3601, 50.0184
5.944, 9, 29.0286, 49.9107, 5.6935, 76.3767, -87.3902, 50.101
5.948, 9, 28.99, 49.8759, 5.78657, 76.305, -87.4191, 50.1817
5.952, 9, 28.9519, 49.8407, 5.88093, 76.233, -87.4472, 50.2614
5.956, 9, 28.9142, 49.8048, 5.97733, 76.1601, -87.4747, 50.3409
5.96, 9, 28.8768, 49.7682, 6.07636, 76.0856, -87.5019, 50.4208
5.964, 9, 28.8397, 49.7308, 6.17846, 76.0092, -87.529, 50.5017
5.968, 9, 28.8027, 49.6923, 6.28387, 75.9306, -87.5563, 50.5842
5.972, 9, 28.7658, 49.6526, 6.39263, 75.8496, -87.584, 50.6684
5.976, 9, 28.7288, 49.6116, 6.50463, 75.7662, -87.6122, 50.7545
5.98, 9, 28.6917, 49.5692, 6.61961, 75.6805, -87.641, 50.8425
5.984, 9, 28.654, 49.5253, 6.73721, 75.5928, -87.6705, 50.9322
5.988, 9, 28.6157, 49.4801, 6.85701, 75.5034, -87.7005, 51.0233
5.992, 9, 28.5766, 49.4337, 6.97855, 75.4127, -87.731, 51.1156
5.996, 9, 28.5365, 49.3863, 7.10142, 75.321, -87.7621, 51.2088
6, 9, 28.4954, 49.3382, 7.22522, 75.2284, -87.7935, 51.3027
6.004, 9, 28.4533, 49.2896, 7.34964, 75.1354, -87.8253, 51.3969
6.008, 9, 28.4104, 49.2406, 7.47442, 75.0419, -87.8574, 51.4913
6.012, 9, 28.3669, 49.1913, 7.59937, 74.9482, -87.8897, 51.5858
6.016, 9, 28.3229, 49.142, 7.72434, 74.8543, -87.9223, 51.6804
6.02, 9, 28.2786, 49.0927, 7.84924, 74.7603, -87.9551, 51.775
6.024, 9, 28.2339, 49.0434, 7.97402, 74.6662, -87.9881, 51.8696
6.028, 9, 28.1891, 48.9942, 8.09862, 74.572, -88.0214, 51.964
6.032, 9, 28.1441, 48.9451, 8.22301, 74.4778, -88.0548, 52.0584
