hehonglu123/Motion-Primitive-Planning/simulation/roboguide/ilc_fanuc/data/blade/curve_js_iter0_exe.csv
timestamp,J1,J2,J3,J4,J5,J6
 0, -53.4808,  -3.1690, -13.7938, -16.4239, -76.9456, 169.0871
 8, -53.4808,  -3.1690, -13.7938, -16.4239, -76.9456, 169.0871
 16, -53.4809,  -3.1690, -13.7939, -16.4240, -76.9456, 169.0871
 24, -53.4810,  -3.1692, -13.7942, -16.4245, -76.9457, 169.0869
 32, -53.4813,  -3.1697, -13.7952, -16.4260, -76.9461, 169.0864
 40, -53.4819,  -3.1706, -13.7971, -16.4288, -76.9469, 169.0853
 48, -53.4829,  -3.1721, -13.8003, -16.4334, -76.9481, 169.0836
 56, -53.4844,  -3.1743, -13.8050, -16.4403, -76.9500, 169.0810
 64, -53.4864,  -3.1774, -13.8115, -16.4500, -76.9526, 169.0774
 72, -53.4892,  -3.1815, -13.8203, -16.4628, -76.9560, 169.0727
 88, -53.5025,  -3.2016, -13.8627, -16.5251, -76.9726, 169.0496
 96, -53.5025,  -3.2016, -13.8627, -16.5251, -76.9726, 169.0496
 104, -53.5090,  -3.2114, -13.8833, -16.5554, -76.9807, 169.0385
 112, -53.5167,  -3.2229, -13.9076, -16.5911, -76.9902, 169.0253
 120, -53.5257,  -3.2364, -13.9361, -16.6328, -77.0012, 169.0101
 128, -53.5361,  -3.2519, -13.9690, -16.6809, -77.0139, 168.9924
 136, -53.5479,  -3.2697, -14.0066, -16.7359, -77.0283, 168.9723
 144, -53.5614,  -3.2899, -14.0493, -16.7983, -77.0446, 168.9496
 152, -53.5766,  -3.3126, -14.0973, -16.8684, -77.0630, 168.9241
 160, -53.5935,  -3.3380, -14.1512, -16.9468, -77.0834, 168.8956
 168, -53.6124,  -3.3662, -14.2111, -17.0338, -77.1060, 168.8639
 176, -53.6333,  -3.3975, -14.2775, -17.1300, -77.1309, 168.8290
 184, -53.6563,  -3.4319, -14.3506, -17.2357, -77.1582, 168.7907
 192, -53.6813,  -3.4694, -14.4305, -17.3509, -77.1878, 168.7489
 200, -53.7084,  -3.5100, -14.5170, -17.4753, -77.2197, 168.7038
 216, -53.8008,  -3.6486, -14.8132, -17.8985, -77.3273, 168.5506
 224, -53.8008,  -3.6486, -14.8132, -17.8985, -77.3273, 168.5506
 232, -53.8350,  -3.6999, -14.9233, -18.0548, -77.3667, 168.4941
 240, -53.8706,  -3.7536, -15.0386, -18.2178, -77.4077, 168.4350
 248, -53.9076,  -3.8094, -15.1588, -18.3869, -77.4502, 168.3732
 256, -53.9456,  -3.8671, -15.2834, -18.5615, -77.4941, 168.3086
 264, -53.9845,  -3.9266, -15.4120, -18.7409, -77.5394, 168.2412
 272, -54.0242,  -3.9877, -15.5445, -18.9246, -77.5859, 168.1710
 280, -54.0643,  -4.0502, -15.6802, -19.1118, -77.6336, 168.0977
 288, -54.1046,  -4.1138, -15.8189, -19.3020, -77.6825, 168.0214
 296, -54.1450,  -4.1784, -15.9601, -19.4945, -77.7324, 167.9417
 304, -54.1852,  -4.2438, -16.1034, -19.6886, -77.7834, 167.8586
 312, -54.2249,  -4.3098, -16.2483, -19.8836, -77.8354, 167.7719
 320, -54.2639,  -4.3761, -16.3945, -20.0788, -77.8883, 167.6814
 328, -54.3020,  -4.4425, -16.5414, -20.2737, -77.9422, 167.5869
 344, -54.4082,  -4.6407, -16.9822, -20.8493, -78.1087, 167.2773
 352, -54.4082,  -4.6407, -16.9822, -20.8493, -78.1087, 167.2773
 360, -54.4401,  -4.7056, -17.1276, -21.0361, -78.1658, 167.1647
 368, -54.4698,  -4.7698, -17.2717, -21.2195, -78.2237, 167.0469
 376, -54.4973,  -4.8331, -17.4143, -21.3994, -78.2825, 166.9236
 384, -54.5224,  -4.8955, -17.5553, -21.5755, -78.3423, 166.7942
 392, -54.5449,  -4.9568, -17.6945, -21.7476, -78.4031, 166.6584
 400, -54.5645,  -5.0171, -17.8316, -21.9154, -78.4650, 166.5158
 408, -54.5814,  -5.0762, -17.9666, -22.0790, -78.5282, 166.3663
 416, -54.5954,  -5.1341, -18.0996, -22.2383, -78.5924, 166.2100
 424, -54.6066,  -5.1910, -18.2303, -22.3935, -78.6578, 166.0468
 432, -54.6150,  -5.2466, -18.3589, -22.5445, -78.7243, 165.8768
 440, -54.6207,  -5.3012, -18.4853, -22.6917, -78.7920, 165.7003
 448, -54.6237,  -5.3546, -18.6095, -22.8349, -78.8607, 165.5173
 456, -54.6240,  -5.4068, -18.7315, -22.9745, -78.9306, 165.3280
 472, -54.6103,  -5.5572, -19.0851, -23.3733, -79.1462, 164.7251
 480, -54.6103,  -5.5572, -19.0851, -23.3733, -79.1462, 164.7251
 488, -54.6012,  -5.6053, -19.1991, -23.5003, -79.2200, 164.5136
 496, -54.5900,  -5.6524, -19.3112, -23.6248, -79.2946, 164.2974
 504, -54.5769,  -5.6987, -19.4215, -23.7470, -79.3700, 164.0768
 512, -54.5620,  -5.7441, -19.5301, -23.8670, -79.4462, 163.8522
 520, -54.5454,  -5.7887, -19.6373, -23.9853, -79.5230, 163.6241
 528, -54.5274,  -5.8325, -19.7429, -24.1020, -79.6004, 163.3927
 536, -54.5080,  -5.8757, -19.8473, -24.2175, -79.6784, 163.1586
 544, -54.4874,  -5.9183, -19.9504, -24.3319, -79.7569, 162.9221
 552, -54.4658,  -5.9604, -20.0524, -24.4456, -79.8358, 162.6836
 560, -54.4433,  -6.0019, -20.1535, -24.5588, -79.9151, 162.4436
 568, -54.4200,  -6.0431, -20.2537, -24.6717, -79.9947, 162.2024
 576, -54.3961,  -6.0839, -20.3533, -24.7846, -80.0744, 161.9604
 584, -54.3717,  -6.1244, -20.4522, -24.8975, -80.1544, 161.7178
 600, -54.2957,  -6.2443, -20.7455, -25.2378, -80.3951, 160.9883
 608, -54.2957,  -6.2443, -20.7455, -25.2378, -80.3951, 160.9883
 616, -54.2696,  -6.2839, -20.8424, -25.3519, -80.4755, 160.7450
 624, -54.2433,  -6.3233, -20.9389, -25.4665, -80.5559, 160.5019
 632, -54.2166,  -6.3626, -21.0350, -25.5816, -80.6363, 160.2591
 640, -54.1897,  -6.4018, -21.1308, -25.6972, -80.7166, 160.0166
 648, -54.1624,  -6.4409, -21.2262, -25.8133, -80.7969, 159.7744
 656, -54.1349,  -6.4800, -21.3214, -25.9299, -80.8771, 159.5326
 664, -54.1071,  -6.5189, -21.4162, -26.0470, -80.9572, 159.2912
 672, -54.0790,  -6.5578, -21.5107, -26.1645, -81.0373, 159.0502
 680, -54.0506,  -6.5966, -21.6049, -26.2825, -81.1172, 158.8097
 688, -54.0219,  -6.6354, -21.6989, -26.4009, -81.1969, 158.5696
 696, -53.9929,  -6.6741, -21.7925, -26.5198, -81.2766, 158.3300
 704, -53.9635,  -6.7128, -21.8858, -26.6390, -81.3561, 158.0907
 712, -53.9337,  -6.7515, -21.9787, -26.7585, -81.4354, 157.8519
 728, -53.8421,  -6.8673, -22.2558, -27.1187, -81.6723, 157.1379
 736, -53.8421,  -6.8673, -22.2558, -27.1187, -81.6723, 157.1379
 744, -53.8107,  -6.9058, -22.3475, -27.2392, -81.7509, 156.9007
 752, -53.7788,  -6.9443, -22.4388, -27.3600, -81.8293, 156.6639
 760, -53.7465,  -6.9828, -22.5298, -27.4808, -81.9075, 156.4274
 768, -53.7136,  -7.0213, -22.6204, -27.6018, -81.9854, 156.1913
 776, -53.6803,  -7.0598, -22.7107, -27.7229, -82.0632, 155.9556
 784, -53.6465,  -7.0983, -22.8006, -27.8441, -82.1406, 155.7202
 792, -53.6121,  -7.1367, -22.8902, -27.9653, -82.2179, 155.4852
 800, -53.5772,  -7.1752, -22.9793, -28.0865, -82.2948, 155.2505
 808, -53.5418,  -7.2136, -23.0681, -28.2078, -82.3715, 155.0162
 816, -53.5058,  -7.2521, -23.1566, -28.3290, -82.4479, 154.7823
 824, -53.4692,  -7.2906, -23.2447, -28.4503, -82.5240, 154.5488
 832, -53.4321,  -7.3291, -23.3324, -28.5715, -82.5998, 154.3156
 840, -53.3944,  -7.3677, -23.4197, -28.6927, -82.6753, 154.0829
 856, -53.2778,  -7.4837, -23.6797, -29.0560, -82.8997, 153.3875
 864, -53.2778,  -7.4837, -23.6797, -29.0560, -82.8997, 153.3875
 872, -53.2378,  -7.5226, -23.7657, -29.1770, -82.9737, 153.1566
 880, -53.1972,  -7.5615, -23.8513, -29.2979, -83.0473, 152.9263
 888, -53.1560,  -7.6005, -23.9366, -29.4188, -83.1206, 152.6964
 896, -53.1142,  -7.6396, -24.0216, -29.5396, -83.1934, 152.4672
 904, -53.0718,  -7.6789, -24.1063, -29.6603, -83.2658, 152.2385
 912, -53.0289,  -7.7183, -24.1907, -29.7809, -83.3377, 152.0104
 920, -52.9853,  -7.7578, -24.2748, -29.9015, -83.4092, 151.7829
 928, -52.9412,  -7.7975, -24.3587, -30.0219, -83.4801, 151.5561
 936, -52.8965,  -7.8374, -24.4422, -30.1424, -83.5506, 151.3300
 944, -52.8512,  -7.8774, -24.5255, -30.2627, -83.6206, 151.1045
 952, -52.8053,  -7.9176, -24.6085, -30.3829, -83.6900, 150.8797
 960, -52.7589,  -7.9581, -24.6913, -30.5031, -83.7589, 150.6557
 968, -52.7119,  -7.9988, -24.7739, -30.6232, -83.8273, 150.4324
 984, -52.5673,  -8.1222, -25.0201, -30.9830, -84.0290, 149.7674
 992, -52.5673,  -8.1222, -25.0201, -30.9830, -84.0290, 149.7674
 1000, -52.5180,  -8.1639, -25.1018, -31.1028, -84.0950, 149.5473
 1008, -52.4681,  -8.2058, -25.1833, -31.2224, -84.1605, 149.3280
 1016, -52.4176,  -8.2480, -25.2645, -31.3420, -84.2253, 149.1095
 1024, -52.3665,  -8.2905, -25.3455, -31.4614, -84.2895, 148.8919
 1032, -52.3148,  -8.3333, -25.4263, -31.5808, -84.3531, 148.6752
 1040, -52.2626,  -8.3763, -25.5069, -31.7000, -84.4160, 148.4593
 1048, -52.2097,  -8.4197, -25.5873, -31.8190, -84.4783, 148.2443
 1056, -52.1562,  -8.4633, -25.6675, -31.9380, -84.5400, 148.0301
 1064, -52.1022,  -8.5073, -25.7475, -32.0568, -84.6010, 147.8167
 1072, -52.0475,  -8.5516, -25.8272, -32.1754, -84.6613, 147.6042
 1080, -51.9922,  -8.5961, -25.9068, -32.2938, -84.7210, 147.3926
 1088, -51.9363,  -8.6410, -25.9861, -32.4121, -84.7800, 147.1818
 1096, -51.8798,  -8.6862, -26.0651, -32.5301, -84.8384, 146.9718
 1112, -51.7063,  -8.8235, -26.3008, -32.8829, -85.0095, 146.3467
 1120, -51.7063,  -8.8235, -26.3008, -32.8829, -85.0095, 146.3467
 1128, -51.6472,  -8.8699, -26.3788, -33.0000, -85.0652, 146.1400
 1136, -51.5874,  -8.9166, -26.4566, -33.1169, -85.1202, 145.9340
 1144, -51.5269,  -8.9635, -26.5340, -33.2334, -85.1746, 145.7287
 1152, -51.4658,  -9.0107, -26.6111, -33.3496, -85.2284, 145.5242
 1160, -51.4039,  -9.0581, -26.6879, -33.4655, -85.2815, 145.3203
 1168, -51.3414,  -9.1059, -26.7644, -33.5810, -85.3339, 145.1172
 1176, -51.2781,  -9.1538, -26.8405, -33.6962, -85.3857, 144.9147
 1184, -51.2141,  -9.2020, -26.9162, -33.8109, -85.4369, 144.7130
 1192, -51.1493,  -9.2504, -26.9916, -33.9253, -85.4875, 144.5118
 1200, -51.0838,  -9.2991, -27.0665, -34.0392, -85.5374, 144.3112
 1208, -51.0176,  -9.3479, -27.1410, -34.1527, -85.5867, 144.1112
 1216, -50.9505,  -9.3969, -27.2151, -34.2658, -85.6355, 143.9118
 1224, -50.8827,  -9.4461, -27.2887, -34.3783, -85.6836, 143.7129
 1240, -50.6746,  -9.5946, -27.5066, -34.7129, -85.8244, 143.1192
 1248, -50.6746,  -9.5946, -27.5066, -34.7129, -85.8244, 143.1192
 1256, -50.6036,  -9.6443, -27.5782, -34.8234, -85.8702, 142.9222
 1264, -50.5318,  -9.6942, -27.6493, -34.9333, -85.9155, 142.7257
 1272, -50.4591,  -9.7441, -27.7198, -35.0426, -85.9602, 142.5296
 1280, -50.3856,  -9.7942, -27.7897, -35.1513, -86.0044, 142.3338
 1288, -50.3113,  -9.8443, -27.8590, -35.2594, -86.0480, 142.1385
 1296, -50.2361,  -9.8944, -27.9277, -35.3669, -86.0911, 141.9434
 1304, -50.1601,  -9.9446, -27.9958, -35.4738, -86.1337, 141.7487
 1312, -50.0832,  -9.9948, -28.0632, -35.5800, -86.1758, 141.5543
 1320, -50.0054, -10.0450, -28.1300, -35.6855, -86.2174, 141.3602
 1328, -49.9267, -10.0952, -28.1960, -35.7903, -86.2586, 141.1663
 1336, -49.8471, -10.1453, -28.2614, -35.8945, -86.2992, 140.9727
 1344, -49.7667, -10.1955, -28.3261, -35.9980, -86.3394, 140.7794
 1352, -49.6853, -10.2455, -28.3901, -36.1007, -86.3791, 140.5862
 1368, -49.4359, -10.3952, -28.5774, -36.4046, -86.4955, 140.0080
 1376, -49.4359, -10.3952, -28.5774, -36.4046, -86.4955, 140.0080
 1384, -49.3509, -10.4450, -28.6384, -36.5044, -86.5335, 139.8156
 1392, -49.2650, -10.4945, -28.6985, -36.6034, -86.5710, 139.6233
 1400, -49.1782, -10.5440, -28.7578, -36.7017, -86.6081, 139.4312
 1408, -49.0905, -10.5933, -28.8163, -36.7993, -86.6448, 139.2392
 1416, -49.0019, -10.6424, -28.8740, -36.8960, -86.6811, 139.0474
 1424, -48.9123, -10.6914, -28.9309, -36.9920, -86.7170, 138.8556
 1432, -48.8219, -10.7402, -28.9869, -37.0872, -86.7525, 138.6640
 1440, -48.7305, -10.7888, -29.0421, -37.1816, -86.7876, 138.4724
 1448, -48.6382, -10.8371, -29.0964, -37.2752, -86.8223, 138.2810
 1456, -48.5449, -10.8853, -29.1498, -37.3680, -86.8567, 138.0896
 1464, -48.4508, -10.9332, -29.2024, -37.4600, -86.8907, 137.8983
 1472, -48.3557, -10.9809, -29.2541, -37.5513, -86.9243, 137.7072
 1480, -48.2597, -11.0284, -29.3049, -37.6417, -86.9576, 137.5160
 1496, -47.9662, -11.1692, -29.4519, -37.9082, -87.0553, 136.9430
 1504, -47.9662, -11.1692, -29.4519, -37.9082, -87.0553, 136.9430
 1512, -47.8666, -11.2156, -29.4991, -37.9954, -87.0872, 136.7521
 1520, -47.7660, -11.2617, -29.5454, -38.0818, -87.1187, 136.5614
 1528, -47.6646, -11.3075, -29.5907, -38.1674, -87.1499, 136.3706
 1536, -47.5622, -11.3530, -29.6352, -38.2522, -87.1808, 136.1799
 1544, -47.4590, -11.3982, -29.6788, -38.3362, -87.2113, 135.9893
 1552, -47.3548, -11.4431, -29.7214, -38.4194, -87.2415, 135.7988
 1560, -47.2498, -11.4876, -29.7631, -38.5018, -87.2713, 135.6083
 1568, -47.1438, -11.5319, -29.8038, -38.5834, -87.3009, 135.4178
 1576, -47.0370, -11.5758, -29.8437, -38.6642, -87.3300, 135.2275
 1584, -46.9293, -11.6194, -29.8826, -38.7443, -87.3589, 135.0372
 1592, -46.8207, -11.6626, -29.9207, -38.8235, -87.3875, 134.8470
 1600, -46.7113, -11.7055, -29.9577, -38.9020, -87.4157, 134.6568
 1608, -46.6010, -11.7481, -29.9939, -38.9796, -87.4436, 134.4667
 1624, -46.2649, -11.8735, -30.0968, -39.2079, -87.5254, 133.8970
 1632, -46.2649, -11.8735, -30.0968, -39.2079, -87.5254, 133.8970
 1640, -46.1511, -11.9146, -30.1292, -39.2825, -87.5520, 133.7072
 1648, -46.0366, -11.9553, -30.1607, -39.3563, -87.5783, 133.5176
 1656, -45.9211, -11.9957, -30.1913, -39.4293, -87.6044, 133.3280
 1664, -45.8049, -12.0356, -30.2210, -39.5015, -87.6301, 133.1385
 1672, -45.6878, -12.0752, -30.2497, -39.5730, -87.6555, 132.9492
 1680, -45.5699, -12.1143, -30.2775, -39.6437, -87.6806, 132.7599
 1688, -45.4512, -12.1531, -30.3044, -39.7137, -87.7053, 132.5707
 1696, -45.3316, -12.1915, -30.3304, -39.7829, -87.7298, 132.3817
 1704, -45.2112, -12.2294, -30.3554, -39.8513, -87.7540, 132.1927
 1712, -45.0900, -12.2670, -30.3795, -39.9190, -87.7779, 132.0039
 1720, -44.9681, -12.3041, -30.4027, -39.9859, -87.8015, 131.8151
 1728, -44.8453, -12.3408, -30.4249, -40.0521, -87.8248, 131.6265
 1736, -44.7217, -12.3771, -30.4463, -40.1176, -87.8478, 131.4380
 1752, -44.3462, -12.4834, -30.5048, -40.3094, -87.9150, 130.8732
 1760, -44.3462, -12.4834, -30.5048, -40.3094, -87.9150, 130.8732
 1768, -44.2194, -12.5179, -30.5224, -40.3718, -87.9368, 130.6852
 1776, -44.0919, -12.5520, -30.5392, -40.4335, -87.9584, 130.4973
 1784, -43.9637, -12.5857, -30.5550, -40.4945, -87.9796, 130.3095
 1792, -43.8346, -12.6189, -30.5699, -40.5547, -88.0006, 130.1219
 1800, -43.7048, -12.6517, -30.5839, -40.6142, -88.0213, 129.9344
 1808, -43.5742, -12.6840, -30.5969, -40.6730, -88.0417, 129.7471
 1816, -43.4429, -12.7158, -30.6091, -40.7310, -88.0619, 129.5599
 1824, -43.3108, -12.7472, -30.6203, -40.7883, -88.0817, 129.3728
 1832, -43.1780, -12.7781, -30.6307, -40.8448, -88.1013, 129.1859
 1840, -43.0444, -12.8086, -30.6401, -40.9007, -88.1206, 128.9991
 1848, -42.9101, -12.8386, -30.6486, -40.9557, -88.1396, 128.8125
 1856, -42.7750, -12.8681, -30.6562, -41.0101, -88.1584, 128.6260
 1864, -42.6392, -12.8971, -30.6629, -41.0637, -88.1769, 128.4397
 1880, -42.2275, -12.9812, -30.6776, -41.2202, -88.2307, 127.8817
 1888, -42.2275, -12.9812, -30.6776, -41.2202, -88.2307, 127.8817
 1896, -42.0888, -13.0083, -30.6807, -41.2709, -88.2482, 127.6960
 1904, -41.9494, -13.0348, -30.6829, -41.3209, -88.2653, 127.5105
 1912, -41.8093, -13.0609, -30.6842, -41.3702, -88.2822, 127.3251
 1920, -41.6685, -13.0865, -30.6846, -41.4187, -88.2989, 127.1399
 1928, -41.5271, -13.1116, -30.6841, -41.4665, -88.3153, 126.9550
 1936, -41.3848, -13.1362, -30.6827, -41.5136, -88.3314, 126.7701
 1944, -41.2419, -13.1602, -30.6805, -41.5600, -88.3473, 126.5855
 1952, -41.0984, -13.1838, -30.6773, -41.6056, -88.3629, 126.4010
 1960, -40.9541, -13.2069, -30.6733, -41.6506, -88.3783, 126.2168
 1968, -40.8092, -13.2294, -30.6684, -41.6948, -88.3934, 126.0327
 1976, -40.6635, -13.2515, -30.6626, -41.7383, -88.4082, 125.8488
 1984, -40.5172, -13.2730, -30.6560, -41.7811, -88.4228, 125.6651
 1992, -40.3703, -13.2941, -30.6484, -41.8231, -88.4372, 125.4816
 2008, -39.9254, -13.3541, -30.6207, -41.9450, -88.4787, 124.9324
 2016, -39.9254, -13.3541, -30.6207, -41.9450, -88.4787, 124.9324
 2024, -39.7758, -13.3731, -30.6097, -41.9842, -88.4920, 124.7497
 2032, -39.6255, -13.3916, -30.5979, -42.0227, -88.5051, 124.5673
 2040, -39.4746, -13.4095, -30.5852, -42.0604, -88.5180, 124.3851
 2048, -39.3231, -13.4270, -30.5716, -42.0974, -88.5306, 124.2030
 2056, -39.1709, -13.4439, -30.5572, -42.1337, -88.5430, 124.0213
 2064, -39.0180, -13.4603, -30.5420, -42.1693, -88.5551, 123.8397
 2072, -38.8646, -13.4763, -30.5260, -42.2042, -88.5669, 123.6584
 2080, -38.7105, -13.4916, -30.5090, -42.2384, -88.5786, 123.4773
 2088, -38.5557, -13.5065, -30.4913, -42.2718, -88.5899, 123.2964
 2096, -38.4003, -13.5209, -30.4727, -42.3045, -88.6011, 123.1158
 2104, -38.2444, -13.5347, -30.4533, -42.3365, -88.6120, 122.9354
 2112, -38.0877, -13.5481, -30.4330, -42.3677, -88.6226, 122.7553
 2120, -37.9305, -13.5609, -30.4119, -42.3982, -88.6330, 122.5753
 2136, -37.4551, -13.5963, -30.3437, -42.4854, -88.6628, 122.0371
 2144, -37.4551, -13.5963, -30.3437, -42.4854, -88.6628, 122.0371
 2152, -37.2954, -13.6070, -30.3194, -42.5130, -88.6723, 121.8582
 2160, -37.1351, -13.6172, -30.2942, -42.5398, -88.6815, 121.6796
 2168, -36.9743, -13.6269, -30.2682, -42.5660, -88.6905, 121.5012
 2176, -36.8127, -13.6361, -30.2414, -42.5913, -88.6993, 121.3231
 2184, -36.6506, -13.6448, -30.2137, -42.6159, -88.7078, 121.1452
 2192, -36.4879, -13.6530, -30.1853, -42.6398, -88.7161, 120.9676
 2200, -36.3246, -13.6606, -30.1561, -42.6629, -88.7242, 120.7903
 2208, -36.1607, -13.6677, -30.1260, -42.6853, -88.7321, 120.6132
 2216, -35.9962, -13.6742, -30.0951, -42.7069, -88.7397, 120.4364
 2224, -35.8311, -13.6803, -30.0635, -42.7278, -88.7472, 120.2598
 2232, -35.6654, -13.6858, -30.0310, -42.7478, -88.7544, 120.0835
 2240, -35.4991, -13.6907, -29.9977, -42.7671, -88.7614, 119.9074
 2248, -35.3322, -13.6951, -29.9636, -42.7856, -88.7682, 119.7316
 2264, -34.8280, -13.7051, -29.8564, -42.8365, -88.7874, 119.2058
 2272, -34.8280, -13.7051, -29.8564, -42.8365, -88.7874, 119.2058
 2280, -34.6588, -13.7074, -29.8190, -42.8519, -88.7935, 119.0310
 2288, -34.4889, -13.7091, -29.7808, -42.8664, -88.7993, 118.8565
 2296, -34.3185, -13.7102, -29.7418, -42.8802, -88.8050, 118.6822
 2304, -34.1474, -13.7107, -29.7020, -42.8931, -88.8105, 118.5082
 2312, -33.9758, -13.7107, -29.6614, -42.9052, -88.8158, 118.3344
 2320, -33.8035, -13.7101, -29.6199, -42.9165, -88.8210, 118.1608
 2328, -33.6307, -13.7089, -29.5776, -42.9269, -88.8260, 117.9874
 2336, -33.4572, -13.7071, -29.5344, -42.9365, -88.8309, 117.8143
 2344, -33.2832, -13.7047, -29.4904, -42.9452, -88.8356, 117.6414
 2352, -33.1085, -13.7017, -29.4456, -42.9531, -88.8402, 117.4687
 2360, -32.9333, -13.6981, -29.3999, -42.9601, -88.8447, 117.2962
 2368, -32.7574, -13.6938, -29.3534, -42.9663, -88.8491, 117.1239
 2376, -32.5809, -13.6890, -29.3059, -42.9715, -88.8533, 116.9518
 2392, -32.0478, -13.6706, -29.1585, -42.9818, -88.8656, 116.4367
 2400, -32.0478, -13.6706, -29.1585, -42.9818, -88.8656, 116.4367
 2408, -31.8689, -13.6631, -29.1076, -42.9834, -88.8695, 116.2653
 2416, -31.6894, -13.6550, -29.0558, -42.9841, -88.8734, 116.0941
 2424, -31.5092, -13.6462, -29.0032, -42.9839, -88.8772, 115.9231
 2432, -31.3284, -13.6367, -28.9496, -42.9827, -88.8810, 115.7523
 2440, -31.1470, -13.6266, -28.8951, -42.9806, -88.8847, 115.5816
 2448, -30.9650, -13.6157, -28.8397, -42.9775, -88.8885, 115.4110
 2456, -30.7824, -13.6041, -28.7834, -42.9734, -88.8922, 115.2406
 2464, -30.5991, -13.5918, -28.7262, -42.9684, -88.8959, 115.0703
 2472, -30.4152, -13.5788, -28.6681, -42.9624, -88.8996, 114.9002
 2480, -30.2307, -13.5650, -28.6090, -42.9554, -88.9033, 114.7302
 2488, -30.0455, -13.5505, -28.5490, -42.9474, -88.9071, 114.5603
 2496, -29.8597, -13.5352, -28.4880, -42.9384, -88.9109, 114.3906
 2504, -29.6733, -13.5192, -28.4261, -42.9284, -88.9147, 114.2209
 2520, -29.1101, -13.4664, -28.2347, -42.8921, -88.9267, 113.7126
 2528, -29.1101, -13.4664, -28.2347, -42.8921, -88.9267, 113.7126
 2536, -28.9210, -13.4473, -28.1689, -42.8779, -88.9309, 113.5433
 2544, -28.7314, -13.4273, -28.1022, -42.8627, -88.9351, 113.3742
 2552, -28.5411, -13.4066, -28.0345, -42.8464, -88.9395, 113.2051
 2560, -28.3501, -13.3850, -27.9659, -42.8290, -88.9439, 113.0361
 2568, -28.1585, -13.3626, -27.8962, -42.8106, -88.9485, 112.8672
 2576, -27.9662, -13.3394, -27.8256, -42.7910, -88.9532, 112.6984
 2584, -27.7733, -13.3154, -27.7540, -42.7704, -88.9581, 112.5296
 2592, -27.5797, -13.2905, -27.6814, -42.7487, -88.9631, 112.3609
 2600, -27.3855, -13.2649, -27.6078, -42.7259, -88.9683, 112.1923
 2608, -27.1906, -13.2383, -27.5332, -42.7019, -88.9736, 112.0238
 2616, -26.9950, -13.2109, -27.4577, -42.6768, -88.9791, 111.8553
 2624, -26.7988, -13.1827, -27.3811, -42.6506, -88.9848, 111.6869
 2632, -26.6019, -13.1537, -27.3035, -42.6233, -88.9907, 111.5186
 2648, -26.0073, -13.0614, -27.0648, -42.5345, -89.0096, 111.0139
 2656, -26.0073, -13.0614, -27.0648, -42.5345, -89.0096, 111.0139
 2664, -25.8077, -13.0289, -26.9833, -42.5026, -89.0163, 110.8458
 2672, -25.6075, -12.9956, -26.9007, -42.4695, -89.0232, 110.6777
 2680, -25.4066, -12.9614, -26.8172, -42.4353, -89.0303, 110.5097
 2688, -25.2050, -12.9263, -26.7327, -42.3999, -89.0377, 110.3418
 2696, -25.0028, -12.8904, -26.6471, -42.3633, -89.0452, 110.1740
 2704, -24.7999, -12.8537, -26.5606, -42.3255, -89.0531, 110.0062
 2712, -24.5963, -12.8161, -26.4731, -42.2865, -89.0611, 109.8385
 2720, -24.3920, -12.7777, -26.3847, -42.2463, -89.0694, 109.6708
 2728, -24.1871, -12.7384, -26.2952, -42.2049, -89.0780, 109.5032
 2736, -23.9815, -12.6982, -26.2048, -42.1623, -89.0868, 109.3357
 2744, -23.7752, -12.6572, -26.1134, -42.1185, -89.0959, 109.1683
 2752, -23.5682, -12.6154, -26.0210, -42.0735, -89.1052, 109.0009
 2760, -23.3606, -12.5728, -25.9276, -42.0272, -89.1147, 108.8336
 2776, -22.7334, -12.4398, -25.6418, -41.8810, -89.1451, 108.3321
 2784, -22.7334, -12.4398, -25.6418, -41.8810, -89.1451, 108.3321
 2792, -22.5230, -12.3938, -25.5447, -41.8298, -89.1557, 108.1652
 2800, -22.3119, -12.3470, -25.4465, -41.7773, -89.1666, 107.9983
 2808, -22.1001, -12.2993, -25.3475, -41.7235, -89.1778, 107.8314
 2816, -21.8876, -12.2509, -25.2475, -41.6684, -89.1892, 107.6647
 2824, -21.6744, -12.2016, -25.1465, -41.6121, -89.2010, 107.4981
 2832, -21.4605, -12.1516, -25.0447, -41.5546, -89.2130, 107.3315
 2840, -21.2459, -12.1007, -24.9419, -41.4957, -89.2253, 107.1651
 2848, -21.0306, -12.0490, -24.8381, -41.4355, -89.2379, 106.9987
 2856, -20.8146, -11.9966, -24.7335, -41.3740, -89.2508, 106.8325
 2864, -20.5978, -11.9433, -24.6280, -41.3112, -89.2639, 106.6663
 2872, -20.3804, -11.8893, -24.5215, -41.2471, -89.2774, 106.5003
 2880, -20.1622, -11.8344, -24.4141, -41.1816, -89.2912, 106.3343
 2888, -19.9433, -11.7788, -24.3059, -41.1148, -89.3052, 106.1684
 2904, -19.2823, -11.6071, -23.9756, -40.9064, -89.3493, 105.6714
 2912, -19.2823, -11.6071, -23.9756, -40.9064, -89.3493, 105.6714
 2920, -19.0605, -11.5483, -23.8638, -40.8341, -89.3647, 105.5059
 2928, -18.8380, -11.4888, -23.7510, -40.7606, -89.3803, 105.3405
 2936, -18.6147, -11.4284, -23.6374, -40.6856, -89.3963, 105.1752
 2944, -18.3906, -11.3673, -23.5229, -40.6092, -89.4126, 105.0100
 2952, -18.1658, -11.3054, -23.4075, -40.5314, -89.4293, 104.8449
 2960, -17.9403, -11.2427, -23.2912, -40.4522, -89.4463, 104.6798
 2968, -17.7140, -11.1792, -23.1740, -40.3716, -89.4637, 104.5149
 2976, -17.4869, -11.1149, -23.0560, -40.2896, -89.4815, 104.3500
 2984, -17.2591, -11.0498, -22.9370, -40.2061, -89.4996, 104.1852
 2992, -17.0305, -10.9839, -22.8172, -40.1212, -89.5181, 104.0205
 3000, -16.8011, -10.9172, -22.6965, -40.0348, -89.5371, 103.8558
 3008, -16.5709, -10.8497, -22.5749, -39.9469, -89.5564, 103.6912
 3016, -16.3399, -10.7814, -22.4524, -39.8576, -89.5762, 103.5266
 3032, -15.6423, -10.5716, -22.0797, -39.5806, -89.6381, 103.0332
 3040, -15.6423, -10.5716, -22.0797, -39.5806, -89.6381, 103.0332
 3048, -15.4081, -10.5000, -21.9537, -39.4853, -89.6596, 102.8689
 3056, -15.1731, -10.4275, -21.8268, -39.3884, -89.6817, 102.7045
 3064, -14.9373, -10.3542, -21.6989, -39.2900, -89.7042, 102.5402
 3072, -14.7007, -10.2801, -21.5703, -39.1901, -89.7272, 102.3759
 3080, -14.4633, -10.2050, -21.4407, -39.0886, -89.7508, 102.2116
 3088, -14.2250, -10.1292, -21.3102, -38.9856, -89.7749, 102.0473
 3096, -13.9859, -10.0524, -21.1788, -38.8809, -89.7995, 101.8830
 3104, -13.7460,  -9.9748, -21.0465, -38.7747, -89.8247, 101.7187
 3112, -13.5052,  -9.8962, -20.9134, -38.6670, -89.8505, 101.5543
 3120, -13.2636,  -9.8168, -20.7793, -38.5576, -89.8768, 101.3900
 3128, -13.0211,  -9.7364, -20.6443, -38.4467, -89.9038, 101.2256
 3136, -12.7778,  -9.6552, -20.5084, -38.3341, -89.9314, 101.0612
 3144, -12.5335,  -9.5730, -20.3716, -38.2200, -89.9597, 100.8968
 3160, -11.7957,  -9.3207, -19.9558, -37.8677, -90.0485, 100.4031
 3168, -11.7957,  -9.3207, -19.9558, -37.8677, -90.0485, 100.4031
 3176, -11.5481,  -9.2348, -19.8154, -37.7471, -90.0795, 100.2384
 3184, -11.2995,  -9.1478, -19.6741, -37.6248, -90.1112, 100.0737
 3192, -11.0501,  -9.0599, -19.5318, -37.5008, -90.1436,  99.9088
 3200, -10.7997,  -8.9710, -19.3887, -37.3751, -90.1768,  99.7439
 3208, -10.5485,  -8.8811, -19.2447, -37.2479, -90.2107,  99.5789
 3216, -10.2965,  -8.7902, -19.0998, -37.1190, -90.2455,  99.4138
 3224, -10.0435,  -8.6982, -18.9539, -36.9884, -90.2810,  99.2485
 3232,  -9.7896,  -8.6053, -18.8072, -36.8562, -90.3174,  99.0832
 3240,  -9.5349,  -8.5114, -18.6596, -36.7223, -90.3546,  98.9178
 3248,  -9.2792,  -8.4164, -18.5111, -36.5867, -90.3926,  98.7522
 3256,  -9.0227,  -8.3204, -18.3618, -36.4495, -90.4315,  98.5865
 3264,  -8.7652,  -8.2234, -18.2115, -36.3106, -90.4713,  98.4207
 3272,  -8.5069,  -8.1253, -18.0604, -36.1701, -90.5119,  98.2548
 3288,  -7.7266,  -7.8248, -17.6018, -35.7384, -90.6394,  97.7562
 3296,  -7.7266,  -7.8248, -17.6018, -35.7384, -90.6394,  97.7562
 3304,  -7.4647,  -7.7225, -17.4473, -35.5912, -90.6837,  97.5898
 3312,  -7.2019,  -7.6192, -17.2919, -35.4424, -90.7290,  97.4232
 3320,  -6.9382,  -7.5148, -17.1357, -35.2920, -90.7752,  97.2565
 3328,  -6.6737,  -7.4093, -16.9787, -35.1398, -90.8224,  97.0897
 3336,  -6.4083,  -7.3028, -16.8209, -34.9860, -90.8706,  96.9227
 3344,  -6.1420,  -7.1952, -16.6623, -34.8306, -90.9198,  96.7556
 3352,  -5.8748,  -7.0865, -16.5029, -34.6736, -90.9700,  96.5883
 3360,  -5.6067,  -6.9768, -16.3428, -34.5150, -91.0212,  96.4210
 3368,  -5.3379,  -6.8660, -16.1819, -34.3548, -91.0734,  96.2535
 3376,  -5.0681,  -6.7541, -16.0203, -34.1929, -91.1266,  96.0859
 3384,  -4.7975,  -6.6412, -15.8579, -34.0295, -91.1809,  95.9181
 3392,  -4.5260,  -6.5272, -15.6948, -33.8644, -91.2363,  95.7502
 3400,  -4.2537,  -6.4121, -15.5311, -33.6978, -91.2926,  95.5822
 3416,  -3.4318,  -6.0605, -15.0358, -33.1888, -91.4682,  95.0775
 3424,  -3.4318,  -6.0605, -15.0358, -33.1888, -91.4682,  95.0775
 3432,  -3.1562,  -5.9412, -14.8694, -33.0160, -91.5288,  94.9090
 3440,  -2.8797,  -5.8209, -14.7024, -32.8417, -91.5905,  94.7405
 3448,  -2.6025,  -5.6995, -14.5349, -32.6660, -91.6534,  94.5718
 3456,  -2.3246,  -5.5770, -14.3667, -32.4888, -91.7173,  94.4030
 3464,  -2.0458,  -5.4535, -14.1980, -32.3101, -91.7824,  94.2342
 3472,  -1.7663,  -5.3289, -14.0287, -32.1299, -91.8485,  94.0652
 3480,  -1.4860,  -5.2033, -13.8590, -31.9484, -91.9158,  93.8961
 3488,  -1.2049,  -5.0767, -13.6887, -31.7654, -91.9842,  93.7270
 3496,   -.9231,  -4.9490, -13.5179, -31.5810, -92.0537,  93.5577
 3504,   -.6406,  -4.8202, -13.3467, -31.3953, -92.1243,  93.3884
 3512,   -.3575,  -4.6904, -13.1750, -31.2082, -92.1962,  93.2190
 3520,   -.0736,  -4.5596, -13.0029, -31.0198, -92.2691,  93.0495
 3528,    .2109,  -4.4278, -12.8304, -30.8300, -92.3432,  92.8799
 3544,   1.0686,  -4.0260, -12.3107, -30.2532, -92.5724,  92.3707
 3552,   1.0686,  -4.0260, -12.3107, -30.2532, -92.5724,  92.3707
 3560,   1.3557,  -3.8900, -12.1368, -30.0586, -92.6511,  92.2009
 3568,   1.6435,  -3.7530, -11.9626, -29.8627, -92.7310,  92.0309
 3576,   1.9318,  -3.6150, -11.7881, -29.6656, -92.8121,  91.8609
 3584,   2.2207,  -3.4759, -11.6134, -29.4674, -92.8944,  91.6909
 3592,   2.5101,  -3.3358, -11.4383, -29.2682, -92.9779,  91.5207
 3600,   2.8001,  -3.1946, -11.2631, -29.0678, -93.0626,  91.3505
 3608,   3.0905,  -3.0525, -11.0877, -28.8665, -93.1485,  91.1802
 3616,   3.3815,  -2.9092, -10.9120, -28.6641, -93.2357,  91.0099
 3624,   3.6729,  -2.7650, -10.7362, -28.4608, -93.3240,  90.8395
 3632,   3.9648,  -2.6197, -10.5603, -28.2565, -93.4135,  90.6690
 3640,   4.2571,  -2.4734, -10.3842, -28.0513, -93.5043,  90.4984
 3648,   4.5498,  -2.3260, -10.2080, -27.8453, -93.5964,  90.3278
 3656,   4.8428,  -2.1776, -10.0318, -27.6384, -93.6897,  90.1571
 3672,   5.7241,  -1.7261,  -9.5026, -27.0131, -93.9770,  89.6445
 3680,   5.7241,  -1.7261,  -9.5026, -27.0131, -93.9770,  89.6445
 3688,   6.0184,  -1.5735,  -9.3262, -26.8032, -94.0753,  89.4735
 3696,   6.3130,  -1.4198,  -9.1497, -26.5928, -94.1749,  89.3024
 3704,   6.6078,  -1.2651,  -8.9732, -26.3817, -94.2758,  89.1312
 3712,   6.9028,  -1.1093,  -8.7969, -26.1701, -94.3780,  88.9598
 3720,   7.1980,   -.9523,  -8.6205, -25.9579, -94.4814,  88.7884
 3728,   7.4933,   -.7944,  -8.4442, -25.7453, -94.5862,  88.6169
 3736,   7.7888,   -.6354,  -8.2681, -25.5322, -94.6923,  88.4453
 3744,   8.0843,   -.4753,  -8.0920, -25.3188, -94.7996,  88.2736
 3752,   8.3798,   -.3140,  -7.9160, -25.1051, -94.9084,  88.1017
 3760,   8.6754,   -.1518,  -7.7401, -24.8911, -95.0184,  87.9298
 3768,   8.9710,    .0115,  -7.5645, -24.6768, -95.1297,  87.7577
 3776,   9.2666,    .1760,  -7.3890, -24.4622, -95.2423,  87.5854
 3784,   9.5620,    .3416,  -7.2136, -24.2476, -95.3563,  87.4131
 3800,  10.4477,    .8450,  -6.6888, -23.6033, -95.7064,  86.8952
 3808,  10.4477,    .8450,  -6.6888, -23.6033, -95.7064,  86.8952
 3816,  10.7426,   1.0150,  -6.5144, -23.3885, -95.8258,  86.7222
 3824,  11.0372,   1.1862,  -6.3401, -23.1738, -95.9465,  86.5491
 3832,  11.3316,   1.3584,  -6.1662, -22.9593, -96.0685,  86.3758
 3840,  11.6256,   1.5319,  -5.9925, -22.7450, -96.1920,  86.2023
 3848,  11.9193,   1.7064,  -5.8191, -22.5310, -96.3168,  86.0287
 3856,  12.2127,   1.8821,  -5.6460, -22.3172, -96.4429,  85.8548
 3864,  12.5057,   2.0589,  -5.4733, -22.1038, -96.5704,  85.6808
 3872,  12.7982,   2.2369,  -5.3009, -21.8908, -96.6993,  85.5065
 3880,  13.0902,   2.4160,  -5.1288, -21.6782, -96.8295,  85.3320
 3888,  13.3818,   2.5963,  -4.9570, -21.4662, -96.9611,  85.1573
 3896,  13.6728,   2.7778,  -4.7856, -21.2547, -97.0941,  84.9824
 3904,  13.9632,   2.9604,  -4.6145, -21.0438, -97.2284,  84.8072
 3912,  14.2530,   3.1442,  -4.4439, -20.8335, -97.3641,  84.6318
 3928,  15.1184,   3.7026,  -3.9342, -20.2072, -97.7794,  84.1038
 3936,  15.1184,   3.7026,  -3.9342, -20.2072, -97.7794,  84.1038
 3944,  15.4055,   3.8911,  -3.7650, -20.0001, -97.9206,  83.9272
 3952,  15.6917,   4.0809,  -3.5963, -19.7940, -98.0631,  83.7503
 3960,  15.9771,   4.2718,  -3.4280, -19.5888, -98.2071,  83.5731
 3968,  16.2617,   4.4639,  -3.2602, -19.3846, -98.3523,  83.3955
 3976,  16.5454,   4.6573,  -3.0927, -19.1814, -98.4990,  83.2176
 3984,  16.8281,   4.8518,  -2.9257, -18.9795, -98.6470,  83.0393
 3992,  17.1099,   5.0476,  -2.7590, -18.7787, -98.7964,  82.8607
 4000,  17.3907,   5.2447,  -2.5928, -18.5791, -98.9472,  82.6816
 4008,  17.6705,   5.4429,  -2.4271, -18.3808, -99.0993,  82.5022
 4016,  17.9492,   5.6424,  -2.2618, -18.1838, -99.2529,  82.3223
 4024,  18.2269,   5.8432,  -2.0969, -17.9881, -99.4077,  82.1420
 4032,  18.5034,   6.0452,  -1.9324, -17.7939, -99.5640,  81.9613
 4040,  18.7787,   6.2484,  -1.7684, -17.6012, -99.7216,  81.7800
 4056,  19.5975,   6.8657,  -1.2789, -17.0324, -100.2026,  81.2334
 4064,  19.5975,   6.8657,  -1.2789, -17.0324, -100.2026,  81.2334
 4072,  19.8679,   7.0740,  -1.1166, -16.8461, -100.3656,  81.0501
 4080,  20.1370,   7.2836,   -.9547, -16.6615, -100.5299,  80.8664
 4088,  20.4047,   7.4945,   -.7933, -16.4786, -100.6957,  80.6821
 4096,  20.6711,   7.7066,   -.6324, -16.2976, -100.8627,  80.4972
 4104,  20.9360,   7.9199,   -.4718, -16.1183, -101.0311,  80.3117
 4112,  21.1996,   8.1346,   -.3118, -15.9410, -101.2007,  80.1256
 4120,  21.4616,   8.3505,   -.1522, -15.7656, -101.3717,  79.9389
 4128,  21.7222,   8.5676,    .0069, -15.5922, -101.5439,  79.7516
 4136,  21.9812,   8.7860,    .1656, -15.4209, -101.7174,  79.5637
 4144,  22.2387,   9.0057,    .3239, -15.2515, -101.8921,  79.3751
 4152,  22.4947,   9.2265,    .4816, -15.0843, -102.0681,  79.1858
 4160,  22.7490,   9.4486,    .6388, -14.9192, -102.2453,  78.9959
 4168,  23.0017,   9.6719,    .7956, -14.7563, -102.4237,  78.8053
 4184,  23.7500,  10.3487,   1.2630, -14.2810, -102.9656,  78.2294
 4192,  23.7500,  10.3487,   1.2630, -14.2810, -102.9656,  78.2294
 4200,  23.9960,  10.5767,   1.4177, -14.1271, -103.1485,  78.0360
 4208,  24.2403,  10.8057,   1.5719, -13.9756, -103.3324,  77.8419
 4216,  24.4829,  11.0358,   1.7255, -13.8265, -103.5173,  77.6471
 4224,  24.7237,  11.2670,   1.8786, -13.6797, -103.7032,  77.4516
 4232,  24.9627,  11.4992,   2.0310, -13.5354, -103.8900,  77.2554
 4240,  25.1999,  11.7324,   2.1828, -13.3935, -104.0777,  77.0584
 4248,  25.4353,  11.9666,   2.3340, -13.2542, -104.2663,  76.8608
 4256,  25.6689,  12.2017,   2.4846, -13.1173, -104.4557,  76.6623
 4264,  25.9006,  12.4377,   2.6344, -12.9829, -104.6458,  76.4632
 4272,  26.1305,  12.6746,   2.7836, -12.8511, -104.8367,  76.2634
 4280,  26.3586,  12.9123,   2.9321, -12.7218, -105.0282,  76.0629
 4288,  26.5847,  13.1508,   3.0798, -12.5951, -105.2204,  75.8616
 4296,  26.8090,  13.3901,   3.2268, -12.4710, -105.4131,  75.6597
 4312,  27.4705,  14.1122,   3.6629, -12.1144, -105.9944,  75.0496
 4320,  27.4705,  14.1122,   3.6629, -12.1144, -105.9944,  75.0496
 4328,  27.6873,  14.3541,   3.8066, -12.0008, -106.1890,  74.8448
 4336,  27.9021,  14.5967,   3.9495, -11.8898, -106.3840,  74.6394
 4344,  28.1150,  14.8397,   4.0914, -11.7815, -106.5792,  74.4333
 4352,  28.3260,  15.0833,   4.2325, -11.6758, -106.7747,  74.2264
 4360,  28.5350,  15.3273,   4.3726, -11.5728, -106.9703,  74.0190
 4368,  28.7422,  15.5718,   4.5118, -11.4725, -107.1662,  73.8108
 4376,  28.9475,  15.8166,   4.6500, -11.3748, -107.3621,  73.6020
 4384,  29.1508,  16.0618,   4.7873, -11.2798, -107.5581,  73.3925
 4392,  29.3523,  16.3074,   4.9235, -11.1875, -107.7542,  73.1824
 4400,  29.5518,  16.5532,   5.0588, -11.0979, -107.9502,  72.9715
 4408,  29.7494,  16.7993,   5.1930, -11.0110, -108.1462,  72.7600
 4416,  29.9452,  17.0457,   5.3262, -10.9267, -108.3421,  72.5478
 4424,  30.1390,  17.2923,   5.4584, -10.8451, -108.5380,  72.3349
 4440,  30.7091,  18.0333,   5.8486, -10.6164, -109.1246,  71.6921
 4448,  30.7091,  18.0333,   5.8486, -10.6164, -109.1246,  71.6921
 4456,  30.8954,  18.2806,   5.9766, -10.5456, -109.3198,  71.4764
 4464,  31.0798,  18.5281,   6.1036, -10.4774, -109.5148,  71.2601
 4472,  31.2624,  18.7757,   6.2294, -10.4119, -109.7095,  71.0430
 4480,  31.4430,  19.0234,   6.3542, -10.3491, -109.9040,  70.8251
 4488,  31.6218,  19.2713,   6.4780, -10.2890, -110.0982,  70.6065
 4496,  31.7988,  19.5192,   6.6007, -10.2316, -110.2921,  70.3871
 4504,  31.9738,  19.7672,   6.7223, -10.1769, -110.4858,  70.1670
 4512,  32.1471,  20.0153,   6.8429, -10.1249, -110.6792,  69.9461
 4520,  32.3185,  20.2635,   6.9624, -10.0755, -110.8722,  69.7243
 4528,  32.4880,  20.5118,   7.0809, -10.0289, -111.0650,  69.5018
 4536,  32.6557,  20.7601,   7.1984,  -9.9850, -111.2574,  69.2783
 4544,  32.8215,  21.0085,   7.3148,  -9.9438, -111.4494,  69.0541
 4552,  32.9855,  21.2570,   7.4301,  -9.9054, -111.6412,  68.8289
 4568,  33.4667,  22.0027,   7.7700,  -9.8062, -112.2142,  68.1483
 4576,  33.4667,  22.0027,   7.7700,  -9.8062, -112.2142,  68.1483
 4584,  33.6234,  22.2513,   7.8811,  -9.7787, -112.4045,  67.9195
 4592,  33.7783,  22.4999,   7.9912,  -9.7538, -112.5943,  67.6899
 4600,  33.9315,  22.7485,   8.1003,  -9.7317, -112.7837,  67.4593
 4608,  34.0828,  22.9971,   8.2083,  -9.7123, -112.9726,  67.2278
 4616,  34.2324,  23.2456,   8.3153,  -9.6956, -113.1611,  66.9954
 4624,  34.3801,  23.4941,   8.4211,  -9.6817, -113.3491,  66.7620
 4632,  34.5261,  23.7424,   8.5259,  -9.6705, -113.5365,  66.5276
 4640,  34.6703,  23.9907,   8.6295,  -9.6620, -113.7234,  66.2923
 4648,  34.8128,  24.2389,   8.7320,  -9.6562, -113.9097,  66.0560
 4656,  34.9535,  24.4869,   8.8335,  -9.6531, -114.0954,  65.8188
 4664,  35.0926,  24.7347,   8.9338,  -9.6527, -114.2805,  65.5807
 4672,  35.2298,  24.9823,   9.0329,  -9.6550, -114.4649,  65.3416
 4680,  35.3654,  25.2297,   9.1308,  -9.6600, -114.6486,  65.1016
 4696,  35.7620,  25.9701,   9.4175,  -9.6910, -115.1951,  64.3760
 4704,  35.7620,  25.9701,   9.4175,  -9.6910, -115.1951,  64.3760
 4712,  35.8908,  26.2163,   9.5106,  -9.7066, -115.3756,  64.1323
 4720,  36.0181,  26.4620,   9.6025,  -9.7248, -115.5553,  63.8877
 4728,  36.1436,  26.7074,   9.6931,  -9.7457, -115.7341,  63.6422
 4736,  36.2676,  26.9523,   9.7824,  -9.7691, -115.9119,  63.3958
 4744,  36.3900,  27.1968,   9.8705,  -9.7950, -116.0888,  63.1486
 4752,  36.5109,  27.4409,   9.9573,  -9.8235, -116.2647,  62.9005
 4760,  36.6301,  27.6844,  10.0428,  -9.8545, -116.4396,  62.6515
 4768,  36.7479,  27.9274,  10.1269,  -9.8881, -116.6134,  62.4017
 4776,  36.8641,  28.1698,  10.2097,  -9.9241, -116.7861,  62.1511
 4784,  36.9787,  28.4116,  10.2912,  -9.9626, -116.9577,  61.8997
 4792,  37.0920,  28.6529,  10.3713, -10.0035, -117.1282,  61.6474
 4800,  37.2037,  28.8935,  10.4501, -10.0468, -117.2976,  61.3944
 4808,  37.3140,  29.1335,  10.5275, -10.0925, -117.4657,  61.1407
 4824,  37.6364,  29.8491,  10.7512, -10.2437, -117.9624,  60.3751
 4832,  37.6364,  29.8491,  10.7512, -10.2437, -117.9624,  60.3751
 4840,  37.7411,  30.0861,  10.8229, -10.2987, -118.1253,  60.1185
 4848,  37.8445,  30.3223,  10.8931, -10.3559, -118.2868,  59.8614
 4856,  37.9466,  30.5576,  10.9619, -10.4153, -118.4469,  59.6037
 4864,  38.0474,  30.7919,  11.0291, -10.4768, -118.6054,  59.3455
 4872,  38.1469,  31.0253,  11.0949, -10.5405, -118.7624,  59.0868
 4880,  38.2451,  31.2577,  11.1591, -10.6063, -118.9178,  58.8276
 4888,  38.3422,  31.4891,  11.2217, -10.6740, -119.0715,  58.5681
 4896,  38.4381,  31.7193,  11.2828, -10.7438, -119.2235,  58.3083
 4904,  38.5328,  31.9485,  11.3424, -10.8155, -119.3739,  58.0481
 4912,  38.6263,  32.1766,  11.4003, -10.8892, -119.5225,  57.7877
 4920,  38.7188,  32.4035,  11.4567, -10.9648, -119.6693,  57.5269
 4928,  38.8101,  32.6293,  11.5115, -11.0422, -119.8144,  57.2660
 4936,  38.9004,  32.8539,  11.5647, -11.1214, -119.9576,  57.0048
 4952,  39.1649,  33.5203,  11.7149, -11.3696, -120.3762,  56.2204
 4960,  39.1649,  33.5203,  11.7149, -11.3696, -120.3762,  56.2204
 4968,  39.2510,  33.7399,  11.7618, -11.4558, -120.5119,  55.9588
 4976,  39.3361,  33.9581,  11.8070, -11.5437, -120.6455,  55.6972
 4984,  39.4202,  34.1750,  11.8507, -11.6332, -120.7772,  55.4355
 4992,  39.5034,  34.3907,  11.8928, -11.7244, -120.9070,  55.1738
 5000,  39.5856,  34.6050,  11.9333, -11.8171, -121.0347,  54.9122
 5008,  39.6668,  34.8179,  11.9723, -11.9115, -121.1605,  54.6506
 5016,  39.7470,  35.0295,  12.0098, -12.0075, -121.2843,  54.3891
 5024,  39.8264,  35.2399,  12.0457, -12.1050, -121.4062,  54.1277
 5032,  39.9048,  35.4490,  12.0803, -12.2041, -121.5262,  53.8663
 5040,  39.9822,  35.6568,  12.1134, -12.3047, -121.6443,  53.6050
 5048,  40.0588,  35.8635,  12.1452, -12.4069, -121.7607,  53.3438
 5056,  40.1344,  36.0690,  12.1757, -12.5106, -121.8753,  53.0826
 5064,  40.2091,  36.2733,  12.2049, -12.6158, -121.9881,  52.8214
 5080,  40.4279,  36.8796,  12.2850, -12.9405, -122.3165,  52.0386
 5088,  40.4279,  36.8796,  12.2850, -12.9405, -122.3165,  52.0386
 5096,  40.4991,  37.0795,  12.3094, -13.0516, -122.4226,  51.7779
 5104,  40.5694,  37.2783,  12.3326, -13.1641, -122.5271,  51.5175
 5112,  40.6389,  37.4761,  12.3547, -13.2781, -122.6299,  51.2573
 5120,  40.7077,  37.6728,  12.3759, -13.3933, -122.7313,  50.9973
 5128,  40.7756,  37.8686,  12.3961, -13.5099, -122.8312,  50.7375
 5136,  40.8429,  38.0635,  12.4154, -13.6277, -122.9297,  50.4779
 5144,  40.9094,  38.2575,  12.4340, -13.7468, -123.0270,  50.2186
 5152,  40.9752,  38.4508,  12.4517, -13.8671, -123.1230,  49.9597
 5160,  41.0401,  38.6429,  12.4687, -13.9882, -123.2176,  49.7015
 5168,  41.1042,  38.8335,  12.4851, -14.1100, -123.3108,  49.4448
 5176,  41.1673,  39.0223,  12.5007, -14.2321, -123.4024,  49.1899
 5184,  41.2293,  39.2090,  12.5157, -14.3542, -123.4924,  48.9377
 5192,  41.2900,  39.3931,  12.5300, -14.4760, -123.5805,  48.6884
 5208,  41.4642,  39.9268,  12.5694, -14.8363, -123.8327,  47.9647
 5216,  41.4642,  39.9268,  12.5694, -14.8363, -123.8327,  47.9647
 5224,  41.5192,  40.0971,  12.5813, -14.9534, -123.9122,  47.7333
 5232,  41.5726,  40.2631,  12.5926, -15.0686, -123.9893,  47.5078
 5240,  41.6242,  40.4244,  12.6034, -15.1813, -124.0638,  47.2886
 5248,  41.6739,  40.5806,  12.6135, -15.2913, -124.1356,  47.0763
 5256,  41.7217,  40.7313,  12.6232, -15.3983, -124.2045,  46.8714
 5264,  41.7675,  40.8762,  12.6323, -15.5017, -124.2705,  46.6745
 5272,  41.8112,  41.0149,  12.6409, -15.6014, -124.3335,  46.4860
 5280,  41.8526,  41.1471,  12.6490, -15.6968, -124.3933,  46.3065
 5288,  41.8917,  41.2723,  12.6566, -15.7878, -124.4498,  46.1364
 5296,  41.9284,  41.3901,  12.6636, -15.8738, -124.5028,  45.9764
 5304,  41.9626,  41.5003,  12.6701, -15.9545, -124.5522,  45.8269
 5312,  41.9942,  41.6023,  12.6761, -16.0295, -124.5978,  45.6885
 5320,  42.0231,  41.6958,  12.6814, -16.0987, -124.6395,  45.5617
 5336,  42.0942,  41.9272,  12.6946, -16.2707, -124.7424,  45.2479
 5344,  42.0942,  41.9272,  12.6946, -16.2707, -124.7424,  45.2479
 5352,  42.1131,  41.9892,  12.6981, -16.3171, -124.7699,  45.1639
 5360,  42.1300,  42.0443,  12.7011, -16.3584, -124.7943,  45.0891
 5368,  42.1448,  42.0929,  12.7038, -16.3949, -124.8157,  45.0232
 5376,  42.1578,  42.1354,  12.7061, -16.4269, -124.8345,  44.9654
 5384,  42.1690,  42.1723,  12.7081, -16.4547, -124.8507,  44.9154
 5392,  42.1787,  42.2039,  12.7099, -16.4785, -124.8646,  44.8724
 5400,  42.1868,  42.2307,  12.7113, -16.4988, -124.8764,  44.8361
 5408,  42.1936,  42.2530,  12.7125, -16.5156, -124.8862,  44.8058
 5416,  42.1991,  42.2712,  12.7135, -16.5294, -124.8942,  44.7809
 5424,  42.2036,  42.2859,  12.7143, -16.5405, -124.9006,  44.7610
 5432,  42.2070,  42.2972,  12.7149, -16.5491, -124.9056,  44.7455
 5440,  42.2096,  42.3058,  12.7153, -16.5556, -124.9093,  44.7338
 5448,  42.2115,  42.3119,  12.7156, -16.5603, -124.9120,  44.7255
 5464,  42.2139,  42.3198,  12.7161, -16.5662, -124.9154,  44.7147
 5472,  42.2139,  42.3198,  12.7161, -16.5662, -124.9154,  44.7147
 5480,  42.2140,  42.3203,  12.7161, -16.5666, -124.9156,  44.7140
