hehonglu123/Motion-Primitive-Planning/ILC/recorded_data/realrobot/from_NX/iteration_37/run_4.csv
timestamp, cmd_num, J1, J2, J3, J4, J5, J6
0.000375, -1, 39.6291, 32.447, 11.8316, 12.5438, 113.713, -48.8736
0.004251, -1, 39.6291, 32.447, 11.8316, 12.5438, 113.713, -48.8735
0.007915, -1, 39.6292, 32.447, 11.8316, 12.5438, 113.713, -48.8735
0.030518, -1, 39.6291, 32.447, 11.8316, 12.5438, 113.713, -48.8736
0.034116, -1, 39.6291, 32.447, 11.8316, 12.5438, 113.713, -48.8736
0.035558, -1, 39.6291, 32.447, 11.8316, 12.5438, 113.713, -48.8736
0.039667, -1, 39.6291, 32.447, 11.8316, 12.5438, 113.713, -48.8736
0.047737, -1, 39.6291, 32.4469, 11.8316, 12.5438, 113.713, -48.8735
0.055669, -1, 39.6286, 32.4469, 11.8315, 12.5438, 113.713, -48.8735
0.063737, -1, 39.6262, 32.4465, 11.8315, 12.5437, 113.713, -48.8736
0.071668, -1, 39.621, 32.4452, 11.8315, 12.5437, 113.713, -48.8739
0.079672, -1, 39.6122, 32.4423, 11.8314, 12.5438, 113.713, -48.8754
0.087746, -1, 39.5989, 32.437, 11.8314, 12.5438, 113.711, -48.8799
0.095661, -1, 39.5792, 32.4284, 11.8315, 12.5437, 113.708, -48.8909
0.103679, -1, 39.5505, 32.4158, 11.8319, 12.5437, 113.701, -48.9113
0.111731, -1, 39.5121, 32.3983, 11.834, 12.5436, 113.689, -48.9448
0.119667, -1, 39.4626, 32.3746, 11.8388, 12.5436, 113.67, -48.9953
0.127669, -1, 39.4005, 32.3442, 11.8472, 12.5437, 113.642, -49.0669
0.135727, -1, 39.325, 32.3065, 11.86, 12.5437, 113.605, -49.1611
0.143664, -1, 39.2359, 32.2609, 11.8778, 12.544, 113.558, -49.281
0.151825, -1, 39.1329, 32.2074, 11.9002, 12.5446, 113.501, -49.4264
0.15968, -1, 39.0157, 32.146, 11.927, 12.5456, 113.434, -49.5963
0.167743, -1, 38.8851, 32.0771, 11.9576, 12.5471, 113.358, -49.7887
0.176654, -1, 38.7422, 32.0018, 11.9916, 12.549, 113.274, -50.0007
0.183755, -1, 38.5878, 31.9205, 12.0279, 12.5511, 113.184, -50.2283
0.191758, -1, 38.4234, 31.8343, 12.0656, 12.5535, 113.09, -50.4683
0.200541, -1, 38.2512, 31.7441, 12.1045, 12.5559, 112.992, -50.7165
0.207757, -1, 38.0728, 31.6509, 12.1435, 12.5583, 112.891, -50.9699
0.215775, -1, 37.8892, 31.5555, 12.1824, 12.5608, 112.79, -51.2266
0.225105, -1, 37.7016, 31.4585, 12.2212, 12.5632, 112.688, -51.4851
0.231324, -1, 37.6067, 31.4098, 12.2406, 12.5644, 112.637, -51.7445
0.239791, -1, 37.3197, 31.2629, 12.2988, 12.5681, 112.483, -52.0041
0.247699, -1, 37.1276, 31.165, 12.3377, 12.5706, 112.38, -52.2637
0.255783, -1, 36.9353, 31.0672, 12.3764, 12.5732, 112.277, -52.5238
0.264197, -1, 36.7432, 30.9694, 12.4151, 12.5758, 112.174, -52.7842
0.270679, -1, 36.6473, 30.9205, 12.4345, 12.577, 112.122, -52.9144
0.280693, -1, 36.3598, 30.7739, 12.4929, 12.581, 111.968, -53.3048
0.288126, -1, 36.1682, 30.6761, 12.5317, 12.5835, 111.865, -53.5651
0.294771, -1, 36.0724, 30.6271, 12.5511, 12.5847, 111.814, -53.6954
0.304168, -1, 35.7851, 30.4801, 12.6096, 12.5887, 111.659, -54.0864
0.312618, -1, 35.5933, 30.3821, 12.6484, 12.5912, 111.556, -54.3467
0.320219, -1, 35.4012, 30.2839, 12.6872, 12.5938, 111.453, -54.6069
0.326737, -1, 35.3051, 30.2347, 12.7066, 12.5951, 111.402, -54.7371
0.336319, -1, 35.0164, 30.0872, 12.765, 12.599, 111.247, -55.1284
0.34426, -1, 34.9202, 30.038, 12.7844, 12.6016, 111.144, -55.3889
0.351656, -1, 34.728, 29.9395, 12.8232, 12.6029, 111.092, -55.5192
0.359705, -1, 34.5357, 29.841, 12.8621, 12.6054, 110.989, -55.78
0.367649, -1, 34.3435, 29.7426, 12.9011, 12.608, 110.886, -56.0409
0.507216, -1, 30.9681, 28.0178, 13.5823, 12.655, 109.083, -60.6106
0.508518, -1, 30.9681, 28.0178, 13.5823, 12.655, 109.083, -60.6106
0.510482, -1, 30.872, 27.9685, 13.6018, 12.6564, 109.031, -60.7412
0.511814, -1, 30.872, 27.9685, 13.6018, 12.6564, 109.031, -60.7412
0.514569, -1, 30.872, 27.9685, 13.6018, 12.6564, 108.979, -60.8717
0.51583, -1, 30.7759, 27.9193, 13.6212, 12.6578, 108.979, -60.8717
0.518547, -1, 30.7759, 27.9193, 13.6212, 12.6578, 108.928, -61.0023
0.522154, -1, 30.584, 27.8207, 13.6602, 12.6606, 108.876, -61.1329
0.523453, -1, 30.584, 27.8207, 13.6602, 12.6606, 108.876, -61.1329
0.52477, -1, 30.584, 27.8207, 13.6602, 12.6606, 108.876, -61.1329
0.52681, -1, 30.4881, 27.7714, 13.6797, 12.662, 108.824, -61.2637
0.528092, -1, 30.4881, 27.7714, 13.6797, 12.662, 108.824, -61.2637
0.52993, -1, 30.3921, 27.7221, 13.6992, 12.6634, 108.773, -61.3945
0.53143, -1, 30.3921, 27.7221, 13.6992, 12.6634, 108.773, -61.3945
0.532672, -1, 30.3921, 27.7221, 13.6992, 12.6634, 108.773, -61.3945
0.534974, -1, 30.2961, 27.6727, 13.7187, 12.6648, 108.721, -61.5252
0.536164, -1, 30.2961, 27.6727, 13.7187, 12.6648, 108.721, -61.5252
0.538052, -1, 30.2, 27.6233, 13.7382, 12.6661, 108.67, -61.6561
0.540363, -1, 30.2, 27.6233, 13.7382, 12.6661, 108.67, -61.6561
0.543385, -1, 30.1039, 27.574, 13.7577, 12.6675, 108.618, -61.787
0.544636, -1, 30.1039, 27.574, 13.7577, 12.6675, 108.618, -61.787
0.546746, -1, 30.0076, 27.5247, 13.7772, 12.6689, 108.567, -61.9178
0.55452, -1, 29.8149, 27.4259, 13.8162, 12.6716, 108.463, -62.1794
0.559644, -1, 29.7184, 27.3765, 13.8356, 12.673, 108.412, -62.3103
0.567659, -1, 29.5247, 27.2777, 13.8745, 12.6756, 108.309, -62.5721
0.57571, -1, 29.3308, 27.1789, 13.9134, 12.6782, 108.205, -62.8339
0.583645, -1, 29.1367, 27.08, 13.9524, 12.6808, 108.102, -63.0955
0.591675, -1, 28.9423, 26.9811, 13.9914, 12.6834, 107.998, -63.3569
0.599712, -1, 28.748, 26.8822, 14.0303, 12.686, 107.895, -63.6184
0.607652, -1, 28.5539, 26.7833, 14.0693, 12.6885, 107.792, -63.8801
0.615754, -1, 28.36, 26.6846, 14.1084, 12.691, 107.688, -64.142
0.623644, -1, 28.1666, 26.5859, 14.1474, 12.6935, 107.585, -64.4034
0.631646, -1, 27.9736, 26.4871, 14.1864, 12.6959, 107.482, -64.6652
0.639718, -1, 27.7808, 26.3882, 14.2255, 12.6984, 107.378, -64.9271
0.647655, -1, 27.5882, 26.2894, 14.2644, 12.7008, 107.275, -65.189
0.655647, -1, 27.396, 26.1904, 14.3034, 12.7033, 107.172, -65.4506
0.663715, -1, 27.2038, 26.0914, 14.3424, 12.7056, 107.068, -65.7122
0.806637, -1, 23.8221, 24.3619, 15.0243, 12.7462, 105.261, -70.2919
0.808796, -1, 23.7257, 24.3124, 15.0437, 12.7475, 105.209, -70.4227
0.810005, -1, 23.7257, 24.3124, 15.0437, 12.7475, 105.209, -70.4227
0.811185, -1, 23.7257, 24.3124, 15.0437, 12.7475, 105.209, -70.4227
0.813236, -1, 23.6292, 24.263, 15.0631, 12.7486, 105.158, -70.5537
0.814506, -1, 23.6292, 24.263, 15.0631, 12.7486, 105.158, -70.5537
0.816414, -1, 23.5326, 24.2136, 15.0826, 12.7498, 105.106, -70.6846
0.822675, -1, 23.4359, 24.1641, 15.1021, 12.751, 105.054, -70.8154
0.824788, -1, 23.3391, 24.1146, 15.1216, 12.7522, 105.003, -70.9462
0.825993, -1, 23.3391, 24.1146, 15.1216, 12.7522, 105.003, -70.9462
0.82735, -1, 23.3391, 24.1146, 15.1216, 12.7522, 105.003, -70.9462
0.830149, -1, 23.2422, 24.0652, 15.1411, 12.7534, 104.951, -71.077
0.83136, -1, 23.2422, 24.0652, 15.1411, 12.7534, 104.951, -71.077
0.833423, -1, 23.1454, 24.0157, 15.1605, 12.7546, 104.899, -71.2079
0.83461, -1, 23.1454, 24.0157, 15.1605, 12.7546, 104.899, -71.2079
0.837026, -1, 23.0484, 23.9662, 15.1799, 12.7558, 104.848, -71.3388
0.838238, -1, 23.0484, 23.9662, 15.1799, 12.7558, 104.848, -71.3388
0.840221, -1, 23.0484, 23.9662, 15.1799, 12.7558, 104.796, -71.4698
0.84173, -1, 22.9515, 23.9168, 15.1994, 12.757, 104.796, -71.4698
0.842948, -1, 22.9515, 23.9168, 15.1994, 12.757, 104.796, -71.4698
0.845818, -1, 22.8544, 23.8674, 15.2188, 12.7582, 104.744, -71.6008
0.847008, -1, 22.8544, 23.8674, 15.2188, 12.7582, 104.744, -71.6008
0.85064, -1, 22.7574, 23.818, 15.2383, 12.7594, 104.693, -71.7318
0.855634, -1, 22.6605, 23.7686, 15.2578, 12.7607, 104.641, -71.8626
0.863628, -1, 22.4667, 23.67, 15.2968, 12.7632, 104.538, -72.124
0.871682, -1, 22.2733, 23.5713, 15.3358, 12.7657, 104.434, -72.3853
0.879634, -1, 22.0802, 23.4726, 15.3747, 12.7683, 104.331, -72.6468
0.887694, -1, 21.8871, 23.3739, 15.4137, 12.7709, 104.228, -72.9085
0.89562, -1, 21.6946, 23.2752, 15.4527, 12.7736, 104.124, -73.1698
0.903708, -1, 21.5024, 23.1764, 15.4916, 12.7762, 104.021, -73.4312
0.911683, -1, 21.3101, 23.0777, 15.5305, 12.7788, 103.918, -73.6927
0.919634, -1, 21.1178, 22.979, 15.5695, 12.7815, 103.815, -73.9545
0.927775, -1, 20.9254, 22.8804, 15.6084, 12.7842, 103.712, -74.2157
0.935675, -1, 20.7329, 22.7818, 15.6474, 12.7869, 103.609, -74.4768
0.943652, -1, 20.5403, 22.6832, 15.6863, 12.7896, 103.506, -74.7381
0.951644, -1, 20.3472, 22.5845, 15.7251, 12.7923, 103.403, -74.9995
0.958705, -1, 20.1535, 22.4858, 15.7641, 12.795, 103.3, -75.2608
0.967628, -1, 19.9599, 22.3871, 15.803, 12.7978, 103.196, -75.5218
0.975641, -1, 19.7662, 22.2884, 15.8417, 12.8005, 103.094, -75.783
0.984638, -1, 19.5726, 22.1898, 15.8807, 12.8032, 102.991, -76.0442
0.99165, -1, 19.3793, 22.0912, 15.9196, 12.806, 102.888, -76.3055
0.99964, -1, 19.1862, 21.9925, 15.9584, 12.8086, 102.785, -76.5663
1.00769, -1, 18.9934, 21.8938, 15.9973, 12.8114, 102.681, -76.8271
1.01567, -1, 18.8009, 21.7952, 16.0362, 12.8141, 102.578, -77.0881
1.02366, -1, 18.6087, 21.6964, 16.0749, 12.8169, 102.476, -77.3492
1.03163, -1, 18.4169, 21.5978, 16.1139, 12.8196, 102.373, -77.6099
1.03963, -1, 18.2249, 21.4993, 16.1528, 12.8223, 102.27, -77.8706
1.04771, -1, 18.0331, 21.4008, 16.1915, 12.8248, 102.167, -78.1314
1.05563, -1, 17.8412, 21.3025, 16.2305, 12.8274, 102.064, -78.3924
1.06364, -1, 17.6492, 21.2041, 16.2693, 12.8299, 101.961, -78.6529
1.07176, -1, 17.4568, 21.1058, 16.3082, 12.8324, 101.858, -78.9133
1.07963, -1, 17.2641, 21.0075, 16.347, 12.8349, 101.755, -79.1738
1.08763, -1, 17.071, 20.9092, 16.3858, 12.8373, 101.652, -79.4345
1.09572, -1, 16.878, 20.811, 16.4246, 12.8397, 101.549, -79.695
1.10364, -1, 16.6849, 20.7128, 16.4634, 12.842, 101.446, -79.9554
1.11163, -1, 16.492, 20.6146, 16.5021, 12.8444, 101.344, -80.216
1.11976, -1, 16.2992, 20.5162, 16.5408, 12.8467, 101.241, -80.4766
1.12763, -1, 16.1069, 20.4179, 16.5796, 12.849, 101.139, -80.7371
1.13562, -1, 15.9149, 20.3195, 16.6183, 12.8513, 101.036, -80.9973
1.14383, -1, 15.7231, 20.221, 16.657, 12.8537, 100.933, -81.2573
1.15174, -1, 15.5317, 20.1226, 16.6956, 12.8561, 100.831, -81.5174
1.1597, -1, 15.3406, 20.0243, 16.7342, 12.8584, 100.728, -81.7775
1.16845, -1, 15.1494, 19.9261, 16.773, 12.8607, 100.625, -82.0373
1.17566, -1, 14.9583, 19.8279, 16.8117, 12.8629, 100.523, -82.2971
1.18383, -1, 14.7669, 19.7297, 16.8504, 12.8652, 100.421, -82.5571
1.19251, -1, 14.5754, 19.6316, 16.8891, 12.8675, 100.318, -82.8173
1.19973, -1, 14.3835, 19.5335, 16.9278, 12.8698, 100.215, -83.077
1.20783, -1, 14.1913, 19.4354, 16.9664, 12.8721, 100.113, -83.3364
1.21653, -1, 13.9991, 19.3374, 17.0051, 12.8744, 100.01, -83.596
1.2237, -1, 13.8067, 19.2396, 17.0436, 12.8767, 99.9077, -83.8557
1.23176, -1, 13.6143, 19.1418, 17.0823, 12.8789, 99.8051, -84.1152
1.2406, -1, 13.4219, 19.0439, 17.121, 12.8813, 99.7026, -84.3744
1.24769, -1, 13.2299, 18.9459, 17.1595, 12.8836, 99.6004, -84.6337
1.25575, -1, 13.0383, 18.848, 17.198, 12.886, 99.4979, -84.893
1.26463, -1, 12.8471, 18.7501, 17.2367, 12.8883, 99.3955, -85.1525
1.27187, -1, 12.6561, 18.6521, 17.2752, 12.8907, 99.2934, -85.4114
1.28028, -1, 12.4654, 18.5544, 17.3137, 12.8931, 99.191, -85.6703
1.28935, -1, 12.2752, 18.4566, 17.3523, 12.8955, 99.0887, -85.9292
1.29613, -1, 12.085, 18.3589, 17.3907, 12.8979, 98.9867, -86.1882
1.3049, -1, 11.8946, 18.2612, 17.4293, 12.9003, 98.8845, -86.447
1.31213, -1, 11.704, 18.1636, 17.4679, 12.9027, 98.7826, -86.7054
1.32021, -1, 11.5132, 18.0659, 17.5063, 12.9051, 98.6808, -86.9642
1.32927, -1, 11.3223, 17.9683, 17.5449, 12.9076, 98.5787, -87.2229
1.3362, -1, 11.131, 17.8707, 17.5835, 12.91, 98.4769, -87.4814
1.34424, -1, 11.0353, 17.7733, 17.6219, 12.9125, 98.375, -87.7395
1.35307, -1, 10.8438, 17.7246, 17.6412, 12.9137, 98.324, -87.9978
1.35963, -1, 10.6521, 17.6271, 17.6796, 12.9162, 98.2219, -88.127
1.36767, -1, 10.4607, 17.5295, 17.718, 12.9188, 98.1203, -88.3855
1.37561, -1, 10.2696, 17.432, 17.7564, 12.9213, 98.0183, -88.6436
1.38267, -1, 10.0787, 17.3345, 17.7949, 12.9239, 97.9164, -88.9016
1.39165, -1, 9.88831, 17.2369, 17.8332, 12.9265, 97.8148, -89.1597
1.39963, -1, 9.69817, 17.1394, 17.8715, 12.9291, 97.7127, -89.4179
1.40771, -1, 9.50845, 17.042, 17.9099, 12.9319, 97.6107, -89.676
1.41468, -1, 9.31917, 16.9447, 17.9482, 12.9346, 97.5089, -89.9334
1.42362, -1, 9.1299, 16.8473, 17.9866, 12.9373, 97.4069, -90.1909
1.43168, -1, 8.94046, 16.7501, 18.0249, 12.9399, 97.3052, -90.4485
1.43962, -1, 8.75091, 16.6529, 18.0633, 12.9426, 97.2036, -90.7061
1.44761, -1, 8.56127, 16.5557, 18.1017, 12.9452, 97.1019, -90.9632
1.4558, -1, 8.37154, 16.4586, 18.1401, 12.9479, 97.0005, -91.2204
1.46361, -1, 8.18122, 16.3616, 18.1784, 12.9506, 96.8989, -91.4777
1.47162, -1, 7.99077, 16.2647, 18.2168, 12.9532, 96.7972, -91.7351
1.48116, -1, 7.80029, 16.1678, 18.255, 12.9559, 96.6958, -91.9919
1.48662, -1, 7.60963, 16.0709, 18.2933, 12.9585, 96.5943, -92.2486
1.49563, -1, 7.4192, 15.9739, 18.3317, 12.9611, 96.4929, -92.5054
1.50368, -1, 7.2291, 15.877, 18.3698, 12.9636, 96.3917, -92.7623
1.51162, -1, 7.03924, 15.78, 18.408, 12.9663, 96.2902, -93.019
1.51965, -1, 6.84977, 15.6831, 18.4463, 12.9688, 96.189, -93.2754
1.52761, -1, 6.66086, 15.5862, 18.4844, 12.9713, 96.0883, -93.5318
1.53563, -1, 6.4724, 15.4894, 18.5225, 12.9739, 95.9872, -93.7881
1.54368, -1, 6.28413, 15.3926, 18.5607, 12.9764, 95.8861, -94.0447
1.55163, -1, 6.09602, 15.2959, 18.5989, 12.9789, 95.7854, -94.3005
1.55962, -1, 5.90781, 15.1992, 18.637, 12.9812, 95.6843, -94.5564
1.56768, -1, 5.71945, 15.1025, 18.6752, 12.9836, 95.5833, -94.8123
1.57566, -1, 5.53094, 15.0059, 18.7133, 12.9859, 95.4827, -95.0683
1.58361, -1, 5.34223, 14.9093, 18.7514, 12.9883, 95.3818, -95.3238
1.59179, -1, 5.15307, 14.8129, 18.7896, 12.9906, 95.2811, -95.5792
1.59964, -1, 4.96365, 14.7166, 18.8276, 12.9928, 95.1806, -95.8348
1.60761, -1, 4.77423, 14.6202, 18.8657, 12.9951, 95.0797, -96.0903
1.61568, -1, 4.58476, 14.5238, 18.9038, 12.9973, 94.979, -96.3456
1.62361, -1, 4.39557, 14.4275, 18.9418, 12.9995, 94.8783, -96.6005
1.63162, -1, 4.20666, 14.3311, 18.9798, 13.0017, 94.7774, -96.8554
1.63968, -1, 4.01796, 14.2347, 19.0178, 13.004, 94.6766, -97.1106
1.64762, -1, 3.82986, 14.1385, 19.0557, 13.0063, 94.5758, -97.3657
1.65561, -1, 3.6423, 14.0423, 19.0937, 13.0085, 94.475, -97.6203
1.66382, -1, 3.45512, 13.9462, 19.1316, 13.0108, 94.3744, -97.875
1.67165, -1, 3.26811, 13.8501, 19.1694, 13.0131, 94.2737, -98.1297
1.67966, -1, 3.08115, 13.754, 19.2073, 13.0153, 94.173, -98.3845
1.68801, -1, 2.89421, 13.658, 19.2452, 13.0176, 94.0725, -98.6388
1.69571, -1, 2.70715, 13.5619, 19.2831, 13.0198, 93.9718, -98.893
1.70371, -1, 2.51987, 13.4659, 19.321, 13.0221, 93.8714, -99.147
1.71218, -1, 2.33246, 13.37, 19.3588, 13.0245, 93.7711, -99.4013
1.71924, -1, 2.14462, 13.2742, 19.3966, 13.0267, 93.6707, -99.6552
1.72769, -1, 1.95653, 13.1784, 19.4345, 13.0289, 93.5706, -99.9088
1.73634, -1, 1.76842, 13.0826, 19.4722, 13.0312, 93.4707, -100.162
1.74369, -1, 1.58022, 12.9868, 19.5099, 13.0334, 93.3705, -100.416
1.75169, -1, 1.39215, 12.8909, 19.5478, 13.0357, 93.2705, -100.67
1.76057, -1, 1.20434, 12.7951, 19.5855, 13.038, 93.1706, -100.923
1.7678, -1, 1.01687, 12.6993, 19.6232, 13.0403, 93.0705, -101.176
1.77592, -1, 0.830071, 12.6038, 19.661, 13.0427, 92.9705, -101.429
1.78475, -1, 0.643753, 12.5082, 19.6986, 13.0451, 92.8709, -101.682
1.792, -1, 0.45781, 12.4127, 19.7362, 13.0475, 92.771, -101.935
1.79867, -1, 0.364912, 12.365, 19.755, 13.0488, 92.7211, -102.061
1.80895, -1, 0.0866286, 12.2219, 19.8114, 13.0525, 92.572, -102.44
1.81612, -1, -0.0987627, 12.1266, 19.849, 13.0549, 92.4723, -102.693
1.82422, -1, -0.284377, 12.0314, 19.8867, 13.0573, 92.3727, -102.946
1.83305, -1, -0.470323, 11.9362, 19.9243, 13.0598, 92.2735, -103.198
1.84017, -1, -0.563435, 11.8411, 19.9617, 13.0623, 92.1739, -103.45
1.84824, -1, -0.749808, 11.7462, 19.9993, 13.0647, 92.0743, -103.702
1.85716, -1, -0.936289, 11.6986, 20.0368, 13.0673, 91.9752, -103.954
1.86267, -1, -1.12295, 11.6035, 20.0555, 13.0685, 91.9254, -104.08
1.87165, -1, -1.30992, 11.5085, 20.093, 13.071, 91.826, -104.331
1.8796, -1, -1.49675, 11.4134, 20.1306, 13.0736, 91.727, -104.583
1.8876, -1, -1.68329, 11.3182, 20.1679, 13.0761, 91.6277, -104.834
1.8956, -1, -1.86954, 11.2232, 20.2054, 13.0787, 91.5285, -105.086
1.90361, -1, -2.05533, 11.1282, 20.2428, 13.0814, 91.4295, -105.337
1.9117, -1, -2.24046, 11.0333, 20.2801, 13.084, 91.3302, -105.588
1.91969, -1, -2.42535, 10.9384, 20.3176, 13.0867, 91.2309, -105.839
1.92766, -1, -2.60982, 10.8437, 20.3549, 13.0894, 91.132, -106.09
1.93462, -1, -2.79376, 10.7489, 20.3921, 13.0921, 91.0329, -106.341
1.94361, -1, -2.97771, 10.6541, 20.4295, 13.0947, 90.9338, -106.591
1.9516, -1, -3.1618, 10.5594, 20.4669, 13.0974, 90.8351, -106.842
1.95968, -1, -3.34606, 10.4649, 20.5041, 13.0999, 90.7361, -107.093
1.96761, -1, -3.53071, 10.3704, 20.5414, 13.1025, 90.6371, -107.344
1.9756, -1, -3.71547, 10.2761, 20.5787, 13.105, 90.5386, -107.593
1.98463, -1, -3.90048, 10.1817, 20.6159, 13.1074, 90.4396, -107.843
1.9916, -1, -4.08571, 10.0874, 20.6532, 13.1099, 90.3409, -108.093
1.99968, -1, -4.2712, 9.99314, 20.6903, 13.1123, 90.2425, -108.343
2.0076, -1, -4.45681, 9.89882, 20.7275, 13.1147, 90.1437, -108.593
2.01583, -1, -4.64211, 9.80449, 20.7648, 13.117, 90.0452, -108.843
2.02467, -1, -4.82701, 9.71031, 20.802, 13.1194, 89.9469, -109.092
2.0316, -1, -5.01153, 9.6162, 20.839, 13.1219, 89.8482, -109.341
2.04043, -1, -5.19537, 9.52213, 20.8762, 13.1242, 89.7498, -109.591
2.0477, -1, -5.37876, 9.42808, 20.9133, 13.1266, 89.6516, -109.84
2.05561, -1, -5.56177, 9.33415, 20.9503, 13.1289, 89.5531, -110.088
2.0644, -1, -5.74439, 9.24018, 20.9875, 13.1312, 89.4549, -110.337
2.07159, -1, -5.92674, 9.14625, 21.0245, 13.1335, 89.3569, -110.586
2.07964, -1, -6.10912, 9.05241, 21.0614, 13.1357, 89.2586, -110.835
2.08838, -1, -6.29183, 8.9586, 21.0986, 13.138, 89.1606, -111.083
2.09561, -1, -6.47473, 8.86497, 21.1355, 13.1402, 89.0628, -111.332
2.10361, -1, -6.65788, 8.77135, 21.1723, 13.1423, 88.9648, -111.58
2.11238, -1, -6.8414, 8.67777, 21.2093, 13.1445, 88.8669, -111.828
2.11959, -1, -7.02524, 8.5842, 21.2462, 13.1466, 88.7692, -112.076
2.12759, -1, -7.20938, 8.49066, 21.2831, 13.1487, 88.6712, -112.324
2.13639, -1, -7.39354, 8.39705, 21.32, 13.1508, 88.5733, -112.571
2.14359, -1, -7.57731, 8.3034, 21.3568, 13.153, 88.4758, -112.819
2.1516, -1, -7.76084, 8.20994, 21.3936, 13.1552, 88.3782, -113.066
2.16043, -1, -7.94392, 8.11652, 21.4305, 13.1574, 88.2808, -113.313
2.1676, -1, -8.12653, 8.02312, 21.4673, 13.1596, 88.1835, -113.56
2.17563, -1, -8.30843, 7.92985, 21.504, 13.1619, 88.086, -113.808
2.18452, -1, -8.48987, 7.83656, 21.5409, 13.1641, 87.9886, -114.055
2.19173, -1, -8.67097, 7.74336, 21.5777, 13.1664, 87.8913, -114.301
2.1997, -1, -8.85177, 7.65019, 21.6144, 13.1686, 87.7939, -114.547
2.20852, -1, -9.03245, 7.55712, 21.6512, 13.1709, 87.6965, -114.794
2.2157, -1, -9.21345, 7.46411, 21.6879, 13.1732, 87.5994, -115.04
2.2237, -1, -9.39472, 7.37129, 21.7245, 13.1754, 87.5022, -115.287
2.23251, -1, -9.5763, 7.27848, 21.7612, 13.1775, 87.405, -115.533
2.23961, -1, -9.75822, 7.1857, 21.7979, 13.1799, 87.308, -115.779
2.24788, -1, -9.94057, 7.09297, 21.8344, 13.182, 87.2107, -116.025
2.25655, -1, -10.123, 7.00026, 21.871, 13.1843, 87.1135, -116.271
2.26368, -1, -10.3056, 6.90747, 21.9076, 13.1865, 87.0164, -116.517
2.27184, -1, -10.4882, 6.81472, 21.9442, 13.1887, 86.9193, -116.762
2.28071, -1, -10.6705, 6.72199, 21.9808, 13.191, 86.8222, -117.007
2.28788, -1, -10.8523, 6.62936, 22.0172, 13.1933, 86.7254, -117.253
2.29637, -1, -11.0337, 6.53673, 22.0536, 13.1958, 86.6284, -117.498
2.30404, -1, -11.2143, 6.44419, 22.0902, 13.1981, 86.5318, -117.743
2.31207, -1, -11.3943, 6.35169, 22.1267, 13.2006, 86.4353, -117.988
2.32018, -1, -11.5739, 6.25924, 22.1631, 13.2029, 86.3384, -118.233
2.32813, -1, -11.7532, 6.16683, 22.1996, 13.2054, 86.2418, -118.478
2.33617, -1, -11.9324, 6.07456, 22.2361, 13.2079, 86.1453, -118.722
2.34438, -1, -12.1117, 5.98231, 22.2724, 13.2104, 86.0487, -118.966
2.35212, -1, -12.2014, 5.93624, 22.2907, 13.2116, 86.0005, -119.21
2.35871, -1, -12.381, 5.84424, 22.3271, 13.2141, 85.9043, -119.333
2.36767, -1, -12.561, 5.7522, 22.3634, 13.2166, 85.8078, -119.577
2.37559, -1, -12.7414, 5.66019, 22.3996, 13.219, 85.7115, -119.821
2.38358, -1, -12.9222, 5.56827, 22.436, 13.2215, 85.6157, -120.064
2.39163, -1, -13.1033, 5.47636, 22.4723, 13.224, 85.5196, -120.308
2.39959, -1, -13.2845, 5.38428, 22.5084, 13.2264, 85.4236, -120.552
2.4076, -1, -13.4656, 5.29233, 22.5448, 13.2289, 85.3279, -120.795
2.41563, -1, -13.6462, 5.20042, 22.581, 13.2313, 85.2319, -121.038
2.42363, -1, -13.8264, 5.10857, 22.617, 13.2339, 85.1362, -121.281
2.43159, -1, -14.0061, 5.01674, 22.6533, 13.2366, 85.0406, -121.524
2.4396, -1, -14.1848, 4.92502, 22.6894, 13.2391, 84.945, -121.767
2.44764, -1, -14.3632, 4.83333, 22.7254, 13.2416, 84.8493, -122.01
2.45559, -1, -14.5412, 4.74171, 22.7617, 13.2442, 84.7538, -122.252
2.46358, -1, -14.7188, 4.65014, 22.7978, 13.2468, 84.6581, -122.495
2.47165, -1, -14.8964, 4.55865, 22.8338, 13.2492, 84.5624, -122.738
2.47958, -1, -15.0741, 4.4672, 22.87, 13.2517, 84.4668, -122.98
2.48859, -1, -15.2521, 4.37594, 22.9061, 13.2541, 84.371, -123.222
2.49565, -1, -15.4305, 4.28463, 22.9421, 13.2565, 84.2753, -123.463
2.50464, -1, -15.6094, 4.19332, 22.9781, 13.2589, 84.1799, -123.705
2.51158, -1, -15.7886, 4.10211, 23.0141, 13.2611, 84.0844, -123.947
2.51964, -1, -15.9677, 4.01091, 23.05, 13.2634, 83.9889, -124.188
2.52763, -1, -16.1473, 3.91961, 23.086, 13.2656, 83.8935, -124.43
2.53558, -1, -16.3271, 3.82835, 23.122, 13.2678, 83.798, -124.671
2.54365, -1, -16.5065, 3.73715, 23.1578, 13.27, 83.7026, -124.913
2.55158, -1, -16.6855, 3.64601, 23.1936, 13.2721, 83.6072, -125.154
2.55965, -1, -16.864, 3.55491, 23.2295, 13.2744, 83.5118, -125.395
2.56759, -1, -17.0416, 3.46389, 23.2653, 13.2767, 83.4165, -125.636
2.57558, -1, -17.2185, 3.37292, 23.3011, 13.2789, 83.3212, -125.877
2.58369, -1, -17.395, 3.28208, 23.3369, 13.2812, 83.2262, -126.117
2.59158, -1, -17.5713, 3.19121, 23.3726, 13.2832, 83.131, -126.358
2.59958, -1, -17.7474, 3.10057, 23.4085, 13.2854, 83.0362, -126.598
2.60768, -1, -17.9234, 3.00996, 23.4444, 13.2875, 82.9415, -126.838
2.61558, -1, -18.0996, 2.91952, 23.4801, 13.2897, 82.8466, -127.078
2.62358, -1, -18.2762, 2.82917, 23.5158, 13.2918, 82.7519, -127.319
2.63165, -1, -18.4531, 2.73874, 23.5516, 13.2938, 82.6574, -127.558
2.63958, -1, -18.6305, 2.64832, 23.5872, 13.2959, 82.5626, -127.798
2.64759, -1, -18.8081, 2.55805, 23.6228, 13.2979, 82.4681, -128.037
2.65565, -1, -18.9861, 2.46756, 23.6586, 13.2999, 82.3738, -128.277
2.66358, -1, -19.1644, 2.37705, 23.6941, 13.3019, 82.2793, -128.516
2.67158, -1, -19.3426, 2.28671, 23.7297, 13.3039, 82.1849, -128.755
2.67968, -1, -19.5203, 2.1963, 23.7653, 13.306, 82.091, -128.995
2.68768, -1, -19.6974, 2.10589, 23.8008, 13.3082, 81.9967, -129.234
2.69575, -1, -19.8739, 2.01561, 23.8362, 13.3104, 81.9024, -129.473
2.7037, -1, -20.0497, 1.92537, 23.8718, 13.3126, 81.8086, -129.711
2.71168, -1, -20.2249, 1.83517, 23.9073, 13.3148, 81.7144, -129.95
2.71974, -1, -20.3999, 1.74504, 23.9428, 13.317, 81.6203, -130.188
2.72765, -1, -20.5745, 1.655, 23.9784, 13.3192, 81.5265, -130.426
2.73569, -1, -20.7489, 1.56506, 24.0139, 13.3213, 81.4325, -130.665
2.74368, -1, -20.9236, 1.47519, 24.0493, 13.3235, 81.3388, -130.903
2.75174, -1, -21.0986, 1.38546, 24.0848, 13.3258, 81.2451, -131.141
2.75964, -1, -21.274, 1.29567, 24.1203, 13.3279, 81.1513, -131.378
2.76783, -1, -21.4496, 1.20597, 24.1557, 13.3301, 81.0573, -131.616
2.77579, -1, -21.6255, 1.11635, 24.1911, 13.3322, 80.9636, -131.854
2.7846, -1, -21.8017, 1.02666, 24.2266, 13.3345, 80.8698, -132.091
2.79193, -1, -21.9781, 0.937018, 24.262, 13.3366, 80.7759, -132.329
2.79869, -1, -22.0664, 0.892196, 24.2796, 13.3377, 80.729, -132.447
2.80882, -1, -22.3313, 0.757868, 24.3328, 13.3409, 80.5887, -132.803
2.8161, -1, -22.5073, 0.668378, 24.368, 13.3432, 80.4951, -133.04
2.8242, -1, -22.6829, 0.578885, 24.4033, 13.3455, 80.4015, -133.277
2.83293, -1, -22.8579, 0.489457, 24.4386, 13.348, 80.3079, -133.514
2.84018, -1, -23.0319, 0.400024, 24.4738, 13.3504, 80.2144, -133.751
2.84819, -1, -23.2055, 0.310662, 24.509, 13.3529, 80.1208, -133.988
2.85702, -1, -23.2922, 0.266009, 24.5266, 13.3541, 80.0742, -134.224
2.86417, -1, -23.4654, 0.176731, 24.5618, 13.3565, 79.9806, -134.342
2.87162, -1, -23.6386, 0.08756, 24.597, 13.3588, 79.8874, -134.578
2.87957, -1, -23.8119, -0.0015681, 24.6322, 13.3612, 79.7943, -134.814
2.88758, -1, -23.9853, -0.0905678, 24.6674, 13.3636, 79.7011, -135.051
2.89562, -1, -24.1589, -0.179567, 24.7024, 13.3661, 79.608, -135.286
2.90358, -1, -24.3329, -0.268546, 24.7375, 13.3686, 79.5149, -135.522
2.91159, -1, -24.5072, -0.357464, 24.7727, 13.371, 79.4218, -135.758
2.91965, -1, -24.6818, -0.446368, 24.8077, 13.3735, 79.3288, -135.993
2.92762, -1, -24.8567, -0.535264, 24.8427, 13.3758, 79.2358, -136.229
2.93469, -1, -25.0318, -0.62413, 24.8779, 13.3782, 79.1428, -136.464
2.94358, -1, -25.2068, -0.712936, 24.9129, 13.3806, 79.0499, -136.699
2.95157, -1, -25.3812, -0.801656, 24.9479, 13.383, 78.9571, -136.934
2.95964, -1, -25.5553, -0.890484, 24.983, 13.3854, 78.8645, -137.169
2.96757, -1, -25.729, -0.979201, 25.0178, 13.388, 78.7717, -137.404
2.97556, -1, -25.9019, -1.06788, 25.0526, 13.3903, 78.6791, -137.639
2.98512, -1, -26.0744, -1.15661, 25.0877, 13.3928, 78.5869, -137.873
2.99156, -1, -26.2465, -1.2452, 25.1226, 13.3952, 78.4941, -138.108
3.00064, -1, -26.4182, -1.3337, 25.1574, 13.3976, 78.4015, -138.342
3.00668, -1, -26.5901, -1.42214, 25.1924, 13.3999, 78.3093, -138.577
3.01556, -1, -26.762, -1.51045, 25.2273, 13.4021, 78.2166, -138.811
3.02358, -1, -26.9342, -1.59862, 25.2622, 13.4044, 78.1243, -139.044
3.03165, -1, -27.1067, -1.68678, 25.297, 13.4067, 78.0322, -139.279
3.03959, -1, -27.2793, -1.77504, 25.3319, 13.4089, 77.9399, -139.512
3.04756, -1, -27.4522, -1.86308, 25.3667, 13.411, 77.8479, -139.746
3.05558, -1, -27.6253, -1.95116, 25.4015, 13.4131, 77.7559, -139.98
3.06361, -1, -27.7986, -2.03938, 25.4364, 13.4153, 77.6639, -140.213
3.07161, -1, -27.9719, -2.12737, 25.4712, 13.4173, 77.5718, -140.447
3.07959, -1, -28.1451, -2.2154, 25.5059, 13.4193, 77.4798, -140.68
3.08763, -1, -28.3182, -2.30344, 25.5408, 13.4214, 77.3878, -140.913
3.09561, -1, -28.491, -2.39149, 25.5756, 13.4235, 77.2957, -141.146
3.10358, -1, -28.6634, -2.47943, 25.6102, 13.4257, 77.2036, -141.379
3.1116, -1, -28.8353, -2.56746, 25.6449, 13.4277, 77.1117, -141.612
3.11962, -1, -29.0063, -2.65546, 25.6796, 13.4299, 77.0198, -141.844
3.12761, -1, -29.177, -2.74333, 25.7141, 13.4321, 76.9278, -142.077
3.13559, -1, -29.3475, -2.83119, 25.7488, 13.4342, 76.8362, -142.309
3.14361, -1, -29.5182, -2.91892, 25.7835, 13.4363, 76.7442, -142.542
3.15167, -1, -29.689, -3.00651, 25.818, 13.4382, 76.6523, -142.774
3.15958, -1, -29.86, -3.09405, 25.8526, 13.4403, 76.5606, -143.007
3.16761, -1, -30.031, -3.18156, 25.8872, 13.4424, 76.4687, -143.239
3.17646, -1, -30.202, -3.26909, 25.9218, 13.4444, 76.377, -143.471
3.1836, -1, -30.3731, -3.35653, 25.9563, 13.4466, 76.2856, -143.702
3.19172, -1, -30.5446, -3.44398, 25.9909, 13.4487, 76.1939, -143.934
3.20115, -1, -30.7164, -3.53154, 26.0253, 13.4507, 76.1025, -144.166
3.20713, -1, -30.8883, -3.61889, 26.0598, 13.4527, 76.0112, -144.397
3.21574, -1, -31.0601, -3.70627, 26.0944, 13.4547, 75.9198, -144.629
3.22406, -1, -31.2318, -3.79363, 26.1288, 13.4567, 75.8284, -144.86
3.23163, -1, -31.4031, -3.88097, 26.1632, 13.4588, 75.7371, -145.091
3.23979, -1, -31.574, -3.96828, 26.1977, 13.461, 75.6458, -145.322
3.24822, -1, -31.7445, -4.05555, 26.2321, 13.4631, 75.5546, -145.553
3.25567, -1, -31.9145, -4.14285, 26.2664, 13.4653, 75.4634, -145.784
3.26395, -1, -32.0842, -4.23008, 26.3008, 13.4675, 75.3725, -146.015
3.27326, -1, -32.2536, -4.31722, 26.3352, 13.4697, 75.2812, -146.246
3.27982, -1, -32.423, -4.40427, 26.3694, 13.4719, 75.1902, -146.477
3.28789, -1, -32.5926, -4.49123, 26.4038, 13.4741, 75.0997, -146.707
3.29748, -1, -32.7622, -4.57815, 26.4382, 13.4762, 75.0085, -146.937
3.30395, -1, -32.9319, -4.66506, 26.4724, 13.4784, 74.9178, -147.168
3.31237, -1, -33.1016, -4.75201, 26.5066, 13.4805, 74.8274, -147.398
3.32175, -1, -33.2714, -4.83887, 26.541, 13.4828, 74.7365, -147.628
3.32817, -1, -33.4415, -4.92578, 26.5752, 13.4849, 74.646, -147.858
3.33611, -1, -33.6118, -5.01274, 26.6093, 13.4871, 74.5554, -148.088
3.34492, -1, -33.782, -5.09953, 26.6436, 13.4894, 74.4648, -148.318
3.35208, -1, -33.8671, -5.14291, 26.6607, 13.4905, 74.3743, -148.548
3.36037, -1, -34.0374, -5.22966, 26.6948, 13.4928, 74.329, -148.662
3.36897, -1, -34.2075, -5.31641, 26.7289, 13.4951, 74.2386, -149.006
3.37556, -1, -34.3777, -5.40307, 26.7631, 13.4973, 74.1479, -149.121
3.38357, -1, -34.5476, -5.48973, 26.7972, 13.4997, 74.0573, -149.35
3.39162, -1, -34.7168, -5.57641, 26.8312, 13.502, 73.9669, -149.58
3.39956, -1, -34.8856, -5.66303, 26.8653, 13.5044, 73.8763, -149.809
3.40756, -1, -35.0541, -5.74956, 26.8994, 13.5069, 73.7858, -150.038
3.4156, -1, -35.2223, -5.83603, 26.9334, 13.5093, 73.6955, -150.267
3.42361, -1, -35.3905, -5.92239, 26.9674, 13.5118, 73.6052, -150.496
3.43161, -1, -35.559, -6.00855, 27.0015, 13.5141, 73.5149, -150.725
3.43955, -1, -35.7275, -6.09478, 27.0355, 13.5164, 73.4245, -150.953
3.44766, -1, -35.896, -6.18093, 27.0695, 13.5188, 73.3343, -151.182
3.45556, -1, -36.0646, -6.26705, 27.1036, 13.5212, 73.2438, -151.41
3.46356, -1, -36.2331, -6.35315, 27.1375, 13.5237, 73.1534, -151.639
3.47163, -1, -36.4017, -6.43931, 27.1713, 13.5261, 73.0632, -151.867
3.47956, -1, -36.5706, -6.52554, 27.2054, 13.5284, 72.9727, -152.096
3.48757, -1, -36.7395, -6.61171, 27.2393, 13.5307, 72.8824, -152.324
3.49656, -1, -36.9083, -6.69785, 27.2731, 13.533, 72.7924, -152.552
3.50361, -1, -37.0774, -6.78399, 27.307, 13.5353, 72.7023, -152.78
3.51264, -1, -37.2462, -6.87015, 27.3409, 13.5375, 72.6123, -153.008
3.51956, -1, -37.4148, -6.95615, 27.3747, 13.5398, 72.5225, -153.235
3.52764, -1, -37.583, -7.04218, 27.4087, 13.542, 72.4326, -153.463
3.53559, -1, -37.7508, -7.1282, 27.4426, 13.5443, 72.3427, -153.69
3.54361, -1, -37.9184, -7.21419, 27.4763, 13.5466, 72.2529, -153.918
3.55162, -1, -38.0858, -7.3001, 27.5102, 13.5488, 72.1632, -154.145
3.55956, -1, -38.2532, -7.38597, 27.5441, 13.551, 72.0734, -154.373
3.56757, -1, -38.4204, -7.47171, 27.5779, 13.5532, 71.9838, -154.6
3.57563, -1, -38.5876, -7.5574, 27.6117, 13.5552, 71.8944, -154.827
3.58355, -1, -38.7551, -7.64316, 27.6456, 13.5573, 71.8046, -155.054
3.5916, -1, -38.9223, -7.72885, 27.6794, 13.5594, 71.7151, -155.281
3.59963, -1, -39.0897, -7.81449, 27.7131, 13.5614, 71.626, -155.508
3.60757, -1, -39.2572, -7.90016, 27.747, 13.5635, 71.5364, -155.735
3.61557, -1, -39.4247, -7.98588, 27.7808, 13.5655, 71.4471, -155.962
3.62363, -1, -39.5922, -8.07146, 27.8145, 13.5675, 71.3578, -156.188
3.63155, -1, -39.76, -8.15697, 27.8482, 13.5694, 71.2684, -156.415
3.63955, -1, -39.9276, -8.24246, 27.882, 13.5713, 71.1791, -156.641
3.64764, -1, -40.0952, -8.3279, 27.9157, 13.5733, 71.0897, -156.868
3.65556, -1, -40.2627, -8.41326, 27.9494, 13.5752, 71.0006, -157.094
3.66356, -1, -40.4299, -8.49862, 27.9832, 13.5772, 70.9111, -157.32
3.67172, -1, -40.5969, -8.58405, 28.0169, 13.5792, 70.8219, -157.546
3.67957, -1, -40.7638, -8.66946, 28.0505, 13.5812, 70.733, -157.772
3.6876, -1, -40.9303, -8.7548, 28.0842, 13.5832, 70.6437, -157.998
3.6959, -1, -41.0967, -8.84016, 28.1179, 13.5852, 70.5545, -158.224
3.70368, -1, -41.263, -8.92543, 28.1515, 13.5873, 70.4655, -158.45
3.71166, -1, -41.4292, -9.01061, 28.1851, 13.5893, 70.3763, -158.676
3.72012, -1, -41.5955, -9.09577, 28.2189, 13.5912, 70.2871, -158.901
3.72715, -1, -41.6786, -9.13834, 28.2524, 13.5932, 70.198, -159.127
3.73562, -1, -41.9282, -9.26595, 28.286, 13.5953, 70.109, -159.352
3.74442, -1, -42.0945, -9.35096, 28.3198, 13.5973, 70.02, -159.578
3.75159, -1, -42.2606, -9.43603, 28.3534, 13.5994, 69.931, -159.803
3.75964, -1, -42.4269, -9.52108, 28.3869, 13.6013, 69.8422, -160.028
3.76855, -1, -42.5932, -9.60605, 28.4205, 13.6034, 69.7532, -160.253
3.77567, -1, -42.7597, -9.691, 28.4541, 13.6054, 69.6642, -160.478
3.78378, -1, -42.9262, -9.77597, 28.4876, 13.6074, 69.5758, -160.703
3.79191, -1, -43.0927, -9.8609, 28.5211, 13.6095, 69.4867, -160.928
3.80071, -1, -43.2589, -9.94586, 28.5547, 13.6115, 69.3981, -161.153
3.80797, -1, -43.425, -10.0308, 28.5882, 13.6136, 69.3095, -161.378
3.81612, -1, -43.591, -10.1157, 28.6218, 13.6157, 69.2209, -161.603
3.8249, -1, -43.7569, -10.2007, 28.6553, 13.6178, 69.1323, -161.827
3.8321, -1, -43.9227, -10.2855, 28.6887, 13.62, 69.0439, -162.052
3.84017, -1, -44.0883, -10.3703, 28.7222, 13.6222, 68.9554, -162.276
3.84879, -1, -44.2535, -10.4549, 28.7558, 13.6243, 68.8667, -162.5
3.85613, -1, -44.3361, -10.4972, 28.7725, 13.6265, 68.7781, -162.725
3.86421, -1, -44.5013, -10.5818, 28.8059, 13.6276, 68.6896, -162.949
3.87158, -1, -44.6665, -10.6663, 28.8393, 13.6297, 68.6452, -163.061
3.87955, -1, -44.8317, -10.7508, 28.8728, 13.632, 68.5567, -163.285
3.88761, -1, -44.997, -10.8352, 28.9063, 13.6342, 68.4682, -163.509
3.89558, -1, -45.1623, -10.9198, 28.9396, 13.6364, 68.3799, -163.733
3.90354, -1, -45.3277, -11.0043, 28.9731, 13.6386, 68.2914, -163.957
3.91159, -1, -45.493, -11.0887, 29.0064, 13.6409, 68.203, -164.181
3.91954, -1, -45.6582, -11.1731, 29.0396, 13.6432, 68.115, -164.405
3.92761, -1, -45.8236, -11.2576, 29.073, 13.6455, 68.0263, -164.629
3.9356, -1, -45.9877, -11.3414, 29.1064, 13.6478, 67.938, -164.852
3.94354, -1, -46.1491, -11.4237, 29.1398, 13.65, 67.85, -165.076
3.95157, -1, -46.3061, -11.5031, 29.1735, 13.6524, 67.7626, -165.296
3.95961, -1, -46.4563, -11.5781, 29.207, 13.6548, 67.6774, -165.512
3.96755, -1, -46.5974, -11.6479, 29.2392, 13.6571, 67.596, -165.717
3.97554, -1, -46.7269, -11.7112, 29.269, 13.6594, 67.5214, -165.907
3.98364, -1, -46.8417, -11.7672, 29.2953, 13.6613, 67.4544, -166.075
3.99154, -1, -46.9403, -11.8163, 29.3174, 13.663, 67.3988, -166.218
3.99954, -1, -47.0227, -11.8592, 29.3339, 13.6643, 67.354, -166.33
4.00762, -1, -47.0898, -11.8959, 29.3451, 13.665, 67.3205, -166.414
4.01663, -1, -47.1421, -11.9253, 29.3522, 13.6655, 67.2973, -166.473
4.02354, -1, -47.1809, -11.9473, 29.3561, 13.6657, 67.2822, -166.51
4.03259, -1, -47.2083, -11.9627, 29.3579, 13.6658, 67.2736, -166.533
4.03957, -1, -47.2264, -11.9726, 29.3587, 13.6659, 67.2688, -166.544
4.04757, -1, -47.2371, -11.9784, 29.359, 13.6659, 67.2665, -166.55
4.05561, 2, -47.2426, -11.9813, 29.3592, 13.666, 67.2654, -166.553
4.06354, 2, -47.2447, -11.9826, 29.3594, 13.666, 67.2649, -166.554
4.07155, 2, -47.2447, -11.9831, 29.3594, 13.666, 67.2646, -166.555
4.07961, 2, -47.2445, -11.9833, 29.3595, 13.666, 67.2645, -166.555
4.08755, 2, -47.2445, -11.9834, 29.3595, 13.6661, 67.2644, -166.555
4.0956, 2, -47.2449, -11.9835, 29.3595, 13.666, 67.2644, -166.555
4.1036, 2, -47.2458, -11.9838, 29.3595, 13.6661, 67.2644, -166.555
4.11154, 2, -47.247, -11.9843, 29.3595, 13.6661, 67.2644, -166.555
4.11955, 2, -47.2488, -11.9851, 29.3595, 13.666, 67.2644, -166.555
4.12762, 2, -47.2504, -11.986, 29.3595, 13.666, 67.2644, -166.555
4.13555, 2, -47.2517, -11.9868, 29.3595, 13.666, 67.2644, -166.555
4.14354, 2, -47.2527, -11.9874, 29.3596, 13.666, 67.2644, -166.555
4.15161, 2, -47.2531, -11.9878, 29.3596, 13.666, 67.2644, -166.555
4.15954, 2, -47.2533, -11.988, 29.3596, 13.666, 67.2645, -166.555
4.16755, 2, -47.2534, -11.9881, 29.3596, 13.666, 67.2645, -166.555
4.17562, 2, -47.253, -11.9881, 29.3596, 13.666, 67.2644, -166.555
4.18356, 2, -47.2526, -11.9881, 29.3596, 13.6661, 67.2645, -166.555
4.1916, 2, -47.2521, -11.988, 29.3596, 13.6661, 67.2645, -166.555
4.19969, 2, -47.2518, -11.988, 29.3596, 13.6661, 67.2644, -166.555
4.20767, 2, -47.2516, -11.988, 29.3596, 13.666, 67.2644, -166.555
4.21564, 2, -47.2516, -11.9881, 29.3596, 13.666, 67.2644, -166.555
4.22371, 2, -47.2518, -11.9883, 29.3596, 13.666, 67.2644, -166.555
4.23164, 2, -47.252, -11.9886, 29.3596, 13.666, 67.2644, -166.555
4.23954, 2, -47.2526, -11.989, 29.3596, 13.6661, 67.2645, -166.555
4.24768, 2, -47.2531, -11.9892, 29.3596, 13.666, 67.2644, -166.555
4.25558, 2, -47.2534, -11.9895, 29.3596, 13.666, 67.2644, -166.555
4.26364, 2, -47.2536, -11.9895, 29.3596, 13.666, 67.2645, -166.555
4.27169, 2, -47.2536, -11.9895, 29.3596, 13.666, 67.2645, -166.555
4.27981, 2, -47.2535, -11.9895, 29.3596, 13.666, 67.2645, -166.555
4.28785, 2, -47.2533, -11.9894, 29.3596, 13.666, 67.2645, -166.555
4.29587, 2, -47.2529, -11.9894, 29.3596, 13.666, 67.2645, -166.555
4.30385, 2, -47.2525, -11.9894, 29.3596, 13.666, 67.2644, -166.555
4.31202, 2, -47.2523, -11.9894, 29.3596, 13.666, 67.2645, -166.555
4.32004, 2, -47.2521, -11.9894, 29.3596, 13.666, 67.2645, -166.555
4.32819, 2, -47.2519, -11.9894, 29.3596, 13.666, 67.2645, -166.555
4.33614, 2, -47.2519, -11.9895, 29.3596, 13.666, 67.2645, -166.555
4.34423, 2, -47.2519, -11.9896, 29.3596, 13.666, 67.2645, -166.555
4.35217, 2, -47.2519, -11.9896, 29.3596, 13.666, 67.2645, -166.555
4.36013, 2, -47.2519, -11.9896, 29.3596, 13.666, 67.2646, -166.555
4.36812, 2, -47.252, -11.9896, 29.3596, 13.666, 67.2646, -166.555
4.37557, 2, -47.252, -11.9896, 29.3596, 13.666, 67.2646, -166.555
4.38353, 2, -47.252, -11.9896, 29.3596, 13.666, 67.2645, -166.555
4.39158, 2, -47.252, -11.9895, 29.3596, 13.666, 67.2645, -166.555
4.39953, 2, -47.2519, -11.9895, 29.3596, 13.666, 67.2646, -166.555
4.40755, 2, -47.2518, -11.9894, 29.3596, 13.666, 67.2645, -166.555
4.41559, 2, -47.2517, -11.9894, 29.3596, 13.666, 67.2645, -166.555
4.42353, 2, -47.2516, -11.9894, 29.3596, 13.666, 67.2645, -166.555
4.43158, 2, -47.2514, -11.9894, 29.3596, 13.666, 67.2645, -166.555
4.43958, 2, -47.2514, -11.9894, 29.3596, 13.666, 67.2645, -166.555
4.44754, 2, -47.2513, -11.9894, 29.3596, 13.666, 67.2645, -166.555
4.45556, 2, -47.2513, -11.9895, 29.3596, 13.666, 67.2645, -166.555
4.4636, 2, -47.2512, -11.9895, 29.3596, 13.666, 67.2646, -166.555
4.47155, 2, -47.2511, -11.9895, 29.3596, 13.666, 67.2646, -166.555
4.47953, 2, -47.2511, -11.9895, 29.3596, 13.666, 67.2646, -166.555
4.4876, 2, -47.251, -11.9894, 29.3596, 13.666, 67.2646, -166.555
4.4971, 2, -47.251, -11.9894, 29.3596, 13.666, 67.2646, -166.555
4.50353, 2, -47.2509, -11.9893, 29.3596, 13.6659, 67.2646, -166.555
4.51159, 2, -47.2508, -11.9892, 29.3596, 13.6659, 67.2646, -166.555
4.51953, 2, -47.2507, -11.9892, 29.3596, 13.6659, 67.2646, -166.555
4.52754, 2, -47.2506, -11.9892, 29.3596, 13.6659, 67.2646, -166.555
4.53565, 2, -47.2506, -11.9892, 29.3596, 13.6659, 67.2647, -166.555
4.54356, 2, -47.2505, -11.9892, 29.3596, 13.6659, 67.2647, -166.555
4.55153, 2, -47.2504, -11.9892, 29.3596, 13.666, 67.2646, -166.555
4.55959, 2, -47.2503, -11.9892, 29.3596, 13.6659, 67.2646, -166.555
4.56754, 2, -47.2502, -11.9892, 29.3596, 13.6659, 67.2647, -166.555
4.57554, 2, -47.2501, -11.9892, 29.3596, 13.6659, 67.2646, -166.555
4.58359, 2, -47.25, -11.9892, 29.3596, 13.6659, 67.2647, -166.555
4.59153, 2, -47.2499, -11.9892, 29.3596, 13.6659, 67.2647, -166.555
4.59958, 2, -47.2497, -11.9891, 29.3596, 13.6659, 67.2647, -166.555
4.6076, 2, -47.2496, -11.9891, 29.3596, 13.6659, 67.2647, -166.555
4.61553, 2, -47.2495, -11.989, 29.3596, 13.6659, 67.2647, -166.555
4.62355, 2, -47.2494, -11.9889, 29.3596, 13.6659, 67.2647, -166.555
4.63159, 2, -47.2493, -11.9889, 29.3596, 13.6659, 67.2647, -166.555
4.63952, 2, -47.2492, -11.9889, 29.3596, 13.6659, 67.2647, -166.555
4.64754, 2, -47.2492, -11.9889, 29.3596, 13.6659, 67.2647, -166.555
4.6556, 2, -47.2491, -11.9889, 29.3596, 13.6658, 67.2647, -166.555
4.66353, 2, -47.249, -11.9889, 29.3596, 13.6658, 67.2647, -166.555
4.67153, 2, -47.2489, -11.9889, 29.3596, 13.6658, 67.2647, -166.555
4.67959, 2, -47.2489, -11.9889, 29.3596, 13.6658, 67.2647, -166.555
4.68757, 2, -47.2488, -11.9889, 29.3596, 13.6659, 67.2647, -166.555
4.69561, 2, -47.2488, -11.9889, 29.3596, 13.6659, 67.2647, -166.555
4.70368, 2, -47.2487, -11.9888, 29.3596, 13.6658, 67.2647, -166.555
4.71167, 2, -47.2486, -11.9887, 29.3596, 13.6658, 67.2647, -166.555
4.71963, 2, -47.2486, -11.9887, 29.3596, 13.6658, 67.2647, -166.555
4.72771, 2, -47.2485, -11.9886, 29.3596, 13.6659, 67.2647, -166.555
4.73564, 2, -47.2484, -11.9886, 29.3596, 13.6658, 67.2647, -166.555
4.74353, 2, -47.2484, -11.9886, 29.3596, 13.6659, 67.2647, -166.555
4.75161, 2, -47.2483, -11.9886, 29.3596, 13.6658, 67.2647, -166.555
4.75955, 2, -47.2484, -11.9886, 29.3596, 13.6658, 67.2647, -166.555
4.76763, 2, -47.2483, -11.9886, 29.3596, 13.6657, 67.2647, -166.555
4.77571, 2, -47.2483, -11.9886, 29.3596, 13.6657, 67.2647, -166.555
4.78371, 2, -47.2482, -11.9886, 29.3596, 13.6657, 67.2647, -166.555
4.79211, 2, -47.2482, -11.9886, 29.3596, 13.6657, 67.2647, -166.555
4.79987, 2, -47.2482, -11.9885, 29.3596, 13.6657, 67.2648, -166.555
4.80789, 2, -47.2482, -11.9885, 29.3596, 13.6656, 67.2648, -166.555
4.81631, 2, -47.2481, -11.9884, 29.3596, 13.6656, 67.2648, -166.555
4.82406, 2, -47.2481, -11.9883, 29.3596, 13.6657, 67.2648, -166.555
4.83205, 2, -47.248, -11.9883, 29.3596, 13.6656, 67.2648, -166.555
4.84028, 2, -47.2479, -11.9883, 29.3596, 13.6656, 67.2648, -166.555
4.84812, 2, -47.2478, -11.9882, 29.3596, 13.6657, 67.2648, -166.555
4.85616, 2, -47.2478, -11.9882, 29.3596, 13.6656, 67.2648, -166.554
4.86432, 2, -47.2478, -11.9882, 29.3596, 13.6656, 67.2648, -166.554
4.87211, 2, -47.2478, -11.9883, 29.3596, 13.6656, 67.2648, -166.554
4.87955, 2, -47.2477, -11.9883, 29.3596, 13.6656, 67.2648, -166.554
4.88832, 2, -47.2477, -11.9882, 29.3596, 13.6656, 67.2648, -166.554
4.89557, 2, -47.2477, -11.9882, 29.3595, 13.6656, 67.2648, -166.554
4.90352, 2, -47.2476, -11.9882, 29.3596, 13.6656, 67.2648, -166.554
4.91152, 2, -47.2476, -11.9881, 29.3596, 13.6656, 67.2648, -166.554
4.91959, 2, -47.2476, -11.9881, 29.3596, 13.6656, 67.2649, -166.554
4.92751, 2, -47.2475, -11.988, 29.3596, 13.6655, 67.2649, -166.554
4.93557, 2, -47.2474, -11.988, 29.3596, 13.6655, 67.2649, -166.554
4.94357, 2, -47.2473, -11.9879, 29.3596, 13.6655, 67.265, -166.554
4.95151, 2, -47.2473, -11.9879, 29.3596, 13.6655, 67.2649, -166.554
4.95953, 2, -47.2472, -11.9879, 29.3596, 13.6655, 67.2649, -166.554
4.96759, 2, -47.2472, -11.9879, 29.3596, 13.6655, 67.265, -166.554
4.97552, 2, -47.2471, -11.9879, 29.3596, 13.6655, 67.265, -166.554
4.98355, 2, -47.2471, -11.9879, 29.3596, 13.6655, 67.265, -166.554
4.99158, 2, -47.2471, -11.9879, 29.3596, 13.6655, 67.2651, -166.554
5.00111, 2, -47.2471, -11.9879, 29.3596, 13.6655, 67.2651, -166.554
5.00752, 2, -47.247, -11.9878, 29.3596, 13.6654, 67.265, -166.554
5.01558, 2, -47.247, -11.9878, 29.3596, 13.6654, 67.2651, -166.554
5.02351, 2, -47.247, -11.9877, 29.3596, 13.6654, 67.2651, -166.554
5.03151, 2, -47.2469, -11.9877, 29.3596, 13.6654, 67.2651, -166.554
5.03958, 2, -47.2468, -11.9876, 29.3596, 13.6654, 67.2651, -166.554
5.04758, 2, -47.2467, -11.9876, 29.3596, 13.6654, 67.2651, -166.554
5.05665, 2, -47.2467, -11.9876, 29.3595, 13.6654, 67.2651, -166.554
5.06358, 2, -47.2466, -11.9876, 29.3595, 13.6654, 67.2651, -166.554
5.07151, 2, -47.2466, -11.9875, 29.3596, 13.6654, 67.2651, -166.554
5.07951, 2, -47.2465, -11.9876, 29.3596, 13.6654, 67.2651, -166.554
5.08758, 2, -47.2465, -11.9875, 29.3595, 13.6653, 67.2651, -166.554
5.09548, 2, -47.2465, -11.9875, 29.3595, 13.6653, 67.2651, -166.554
5.10356, 2, -47.2464, -11.9875, 29.3595, 13.6652, 67.2652, -166.554
5.11158, 2, -47.2464, -11.9875, 29.3596, 13.6652, 67.2651, -166.554
5.11948, 4, -47.2464, -11.9875, 29.3595, 13.6652, 67.2652, -166.554
5.12754, 4, -47.2463, -11.9874, 29.3595, 13.6652, 67.2652, -166.554
5.13558, 4, -47.2463, -11.9874, 29.3595, 13.6652, 67.2652, -166.554
5.14351, 4, -47.2462, -11.9873, 29.3595, 13.6652, 67.2652, -166.554
5.15151, 4, -47.2461, -11.9873, 29.3595, 13.6652, 67.2652, -166.554
5.15964, 4, -47.246, -11.9873, 29.3596, 13.6652, 67.2652, -166.554
5.16752, 4, -47.246, -11.9873, 29.3596, 13.6652, 67.2652, -166.554
5.17551, 4, -47.246, -11.9872, 29.3596, 13.6651, 67.2652, -166.554
5.18359, 4, -47.2459, -11.9872, 29.3596, 13.6651, 67.2652, -166.554
5.19154, 4, -47.2459, -11.9872, 29.3596, 13.6651, 67.2652, -166.554
5.19959, 4, -47.2458, -11.9872, 29.3596, 13.6651, 67.2652, -166.554
5.20768, 4, -47.2458, -11.9872, 29.3596, 13.6651, 67.2652, -166.554
5.21563, 4, -47.2458, -11.9872, 29.3596, 13.6651, 67.2652, -166.554
5.22376, 4, -47.2458, -11.9871, 29.3596, 13.6651, 67.2652, -166.554
5.23435, 4, -47.2457, -11.9871, 29.3596, 13.6651, 67.2653, -166.554
5.23984, 4, -47.2457, -11.987, 29.3596, 13.665, 67.2653, -166.554
5.24946, 4, -47.2457, -11.987, 29.3596, 13.665, 67.2652, -166.554
5.2578, 4, -47.2456, -11.987, 29.3596, 13.665, 67.2652, -166.554
5.26478, 4, -47.2455, -11.987, 29.3596, 13.665, 67.2653, -166.554
5.27264, 4, -47.2455, -11.987, 29.3596, 13.665, 67.2653, -166.554
5.28111, 4, -47.2455, -11.9869, 29.3596, 13.665, 67.2653, -166.553
5.28787, 4, -47.2454, -11.9869, 29.3596, 13.665, 67.2653, -166.553
5.29633, 4, -47.2454, -11.9869, 29.3596, 13.665, 67.2653, -166.553
5.30479, 4, -47.2454, -11.9869, 29.3596, 13.665, 67.2653, -166.553
5.31276, 4, -47.2453, -11.9869, 29.3596, 13.665, 67.2653, -166.553
5.32439, 4, -47.2453, -11.9868, 29.3596, 13.665, 67.2653, -166.553
5.32846, 4, -47.2453, -11.9868, 29.3596, 13.665, 67.2653, -166.553
5.33739, 4, -47.2453, -11.9868, 29.3596, 13.6649, 67.2653, -166.553
5.34857, 4, -47.2452, -11.9867, 29.3596, 13.6649, 67.2653, -166.553
5.35668, 4, -47.2451, -11.9867, 29.3596, 13.6649, 67.2653, -166.553
5.36027, 4, -47.2451, -11.9867, 29.3596, 13.6649, 67.2653, -166.553
5.36972, 4, -47.2451, -11.9867, 29.3595, 13.6649, 67.2653, -166.553
5.3775, 4, -47.245, -11.9867, 29.3595, 13.6649, 67.2653, -166.553
5.38472, 4, -47.2452, -11.9867, 29.3596, 13.6649, 67.2653, -166.553
5.39651, 4, -47.2461, -11.9872, 29.3605, 13.6654, 67.2656, -166.553
5.39965, 4, -47.247, -11.9879, 29.3605, 13.6654, 67.2656, -166.553
5.40905, 4, -47.2526, -11.9934, 29.3672, 13.6765, 67.2684, -166.552
5.41576, 4, -47.2558, -11.9972, 29.3723, 13.6867, 67.2708, -166.55
5.42658, 4, -47.2715, -12.0175, 29.4045, 13.7507, 67.2883, -166.537
5.43316, 5, -47.2897, -12.0417, 29.4471, 13.8387, 67.3129, -166.518
5.44278, 5, -47.3167, -12.0772, 29.5141, 13.979, 67.3526, -166.486
5.4493, 5, -47.3543, -12.1254, 29.6117, 14.1868, 67.4099, -166.438
5.45609, 5, -47.3777, -12.1549, 29.6735, 14.3195, 67.4466, -166.407
5.46367, 5, -47.434, -12.225, 29.8246, 14.6474, 67.5364, -166.332
5.47341, 5, -47.5032, -12.3103, 30.0139, 15.0597, 67.7113, -166.184
5.48264, 5, -47.63, -12.4661, 30.3687, 15.8257, 67.8518, -166.064
5.48772, 5, -47.6779, -12.5249, 30.5038, 16.1145, 67.928, -165.999
5.49589, 5, -47.7809, -12.6516, 30.7963, 16.7312, 68.0891, -165.86
5.50365, 5, -47.892, -12.7886, 31.1128, 17.3883, 68.2575, -165.716
5.51498, 5, -48.0686, -13.0082, 31.6189, 18.415, 68.5152, -165.492
5.51966, 5, -48.1291, -13.0836, 31.7924, 18.7621, 68.6007, -165.418
5.52957, 5, -48.2507, -13.2353, 32.1434, 19.7997, 68.8521, -165.199
5.53667, 5, -48.3713, -13.3846, 32.4949, 20.1392, 68.9337, -165.126
5.54396, 5, -48.4871, -13.5288, 32.8427, 20.8027, 69.0938, -164.977
5.55271, 6, -48.5937, -13.6655, 33.1801, 21.4355, 69.2516, -164.814
5.55959, 6, -48.6864, -13.7922, 33.5028, 22.0266, 69.4092, -164.626
5.56869, 7, -48.7611, -13.9092, 33.8062, 22.5712, 69.5693, -164.399
5.578, 7, -48.8335, -14.0693, 34.2231, 23.2936, 69.8178, -163.959
5.58365, 7, -48.8464, -14.1187, 34.3521, 23.5111, 69.9036, -163.781
5.59173, 8, -48.8561, -14.2107, 34.5968, 23.9167, 70.0813, -163.377
5.60313, 8, -48.837, -14.3316, 34.9398, 24.4699, 70.3627, -162.654
5.60777, 9, -48.8231, -14.3683, 35.0493, 24.6448, 70.4611, -162.386
5.61667, 9, -48.7859, -14.4378, 35.2635, 24.988, 70.6648, -161.816
5.6267, 10, -48.7109, -14.5364, 35.5813, 25.4998, 70.9877, -160.903
5.63328, 10, -48.6813, -14.5686, 35.6873, 25.672, 71.0996, -160.589
5.63972, 11, -48.6161, -14.6325, 35.8995, 26.0203, 71.3283, -159.953
5.64785, 11, -48.5443, -14.6955, 36.1124, 26.3745, 71.5614, -159.314
5.65563, 11, -48.4678, -14.7581, 36.3251, 26.7353, 71.7971, -158.675
5.66365, 12, -48.3893, -14.8202, 36.5355, 27.1037, 72.035, -158.034
5.67479, 13, -48.2706, -14.9104, 36.8482, 27.6714, 72.3961, -157.067
5.67983, 13, -48.2311, -14.9394, 36.9515, 27.865, 72.518, -156.743
5.69084, 14, -48.1509, -14.9964, 37.1564, 28.4572, 72.888, -155.763
5.70124, 14, -48.0681, -15.0543, 37.3598, 28.658, 73.0127, -155.106
5.70415, 15, -47.9817, -15.114, 37.5629, 29.0627, 73.2635, -154.777
5.71176, 15, -47.8911, -15.1744, 37.7647, 29.4693, 73.5136, -154.122
5.71979, 16, -47.7955, -15.2338, 37.9647, 29.8747, 73.761, -153.471
5.72787, 16, -47.6934, -15.2927, 38.1636, 30.2767, 74.0036, -152.825
5.73755, 17, -47.5842, -15.353, 38.3605, 30.6744, 74.2406, -152.187
5.74464, 17, -47.469, -15.4157, 38.5539, 31.0672, 74.4712, -151.555
5.7535, 18, -47.3487, -15.4798, 38.7441, 31.4551, 74.6958, -150.929
5.76022, 18, -47.2236, -15.5447, 38.9316, 31.8395, 74.9148, -150.31
5.76938, 18, -47.0932, -15.6113, 39.1156, 32.2214, 75.1291, -149.698
5.77771, 19, -46.9568, -15.6814, 39.2971, 32.6028, 75.3396, -149.09
5.78554, 19, -46.8147, -15.7541, 39.4773, 32.9836, 75.5463, -148.488
5.79264, 20, -46.6677, -15.8279, 39.6558, 33.3638, 75.7492, -147.893
5.80064, 20, -46.5169, -15.9023, 39.8318, 33.7434, 75.9479, -147.306
5.80878, 21, -46.3625, -15.9781, 40.006, 34.1218, 76.1424, -146.724
5.82032, 22, -46.1243, -16.0949, 40.2645, 34.6879, 76.4262, -145.864
5.82699, 22, -46.0429, -16.1346, 40.3494, 34.8759, 76.5188, -145.58
5.83242, 23, -45.8764, -16.2152, 40.5169, 35.2504, 76.7012, -145.017
5.84121, 23, -45.7039, -16.2977, 40.6819, 35.6222, 76.8793, -144.459
5.85067, 24, -45.5239, -16.3827, 40.8437, 35.9898, 77.0526, -143.906
5.85746, 24, -45.3357, -16.4704, 41.0011, 36.3518, 77.2199, -143.359
5.86434, 25, -45.14, -16.56, 41.1538, 36.7057, 77.3804, -142.817
5.87308, 25, -44.9371, -16.6505, 41.3022, 37.0499, 77.5332, -142.28
5.88221, 26, -44.7276, -16.7416, 41.4462, 37.3844, 77.6782, -141.748
5.88882, 26, -44.5112, -16.834, 41.5853, 37.709, 77.8165, -141.221
5.89724, 27, -44.2875, -16.9274, 41.7192, 38.0252, 77.9494, -140.698
5.90369, 27, -44.1731, -16.9742, 41.7841, 38.1803, 78.014, -140.436
5.91175, 27, -43.9395, -17.0675, 41.9097, 38.4851, 78.1409, -139.914
5.92375, 28, -43.5762, -17.2053, 42.0863, 38.9297, 78.327, -139.132
5.93067, 29, -43.3251, -17.2955, 42.1955, 39.2176, 78.4491, -138.611
5.93711, 29, -43.0675, -17.3837, 42.2977, 39.4989, 78.5702, -138.088
5.94533, 30, -42.8037, -17.4695, 42.3924, 39.773, 78.689, -137.565
5.95162, 30, -42.6692, -17.5114, 42.437, 39.907, 78.7477, -137.303
5.96158, 31, -42.394, -17.6328, 42.56, 40.2965, 78.92, -136.52
5.97167, 31, -41.966, -17.7107, 42.633, 40.5452, 79.0308, -135.998
5.97802, 32, -41.6714, -17.786, 42.6991, 40.7846, 79.1384, -135.477
5.9862, 32, -41.37, -17.8586, 42.7586, 41.015, 79.242, -134.958
5.99166, 33, -41.2169, -17.8939, 42.7857, 41.1268, 79.2926, -134.699
6.00288, 33, -40.747, -17.9957, 42.8563, 41.4502, 79.4401, -133.923
6.00839, 33, -40.5868, -18.0284, 42.8763, 41.5538, 79.4877, -133.665
6.01567, 34, -40.2622, -18.092, 42.9108, 41.755, 79.5812, -133.15
6.02381, 34, -39.9332, -18.1531, 42.938, 41.9484, 79.6725, -132.636
6.0346, 35, -39.4293, -18.2388, 42.9658, 42.2246, 79.8049, -131.867
6.04282, 36, -39.0852, -18.2916, 42.9754, 42.3994, 79.891, -131.355
6.04776, 36, -38.9104, -18.3167, 42.9777, 42.4838, 79.933, -131.1
6.05633, 36, -38.5557, -18.3644, 42.9775, 42.6471, 80.016, -130.59
6.06464, 37, -38.1951, -18.4086, 42.9705, 42.8028, 80.0964, -130.082
6.07466, 38, -37.6441, -18.4679, 42.947, 43.0223, 80.214, -129.322
6.08271, 38, -37.4579, -18.4859, 42.936, 43.1595, 80.2896, -128.818
6.08901, 39, -37.0822, -18.5194, 42.9088, 43.2253, 80.3267, -128.566
6.09563, 39, -36.7018, -18.5494, 42.8748, 43.3513, 80.3986, -128.065
6.10375, 40, -36.3167, -18.5756, 42.834, 43.47, 80.4694, -127.565
6.11505, 40, -35.7276, -18.6079, 42.7607, 43.6347, 80.5716, -126.819
6.1206, 41, -35.5283, -18.6166, 42.733, 43.686, 80.605, -126.571
6.13119, 41, -34.9221, -18.6373, 42.6401, 43.8286, 80.7008, -125.831
6.13568, 42, -34.7177, -18.6425, 42.6059, 43.8729, 80.7323, -125.586
6.14556, 42, -34.3062, -18.6503, 42.5326, 43.9556, 80.7928, -125.096
6.15168, 42, -33.8919, -18.655, 42.4531, 44.0314, 80.8516, -124.609
6.15977, 43, -33.4741, -18.6565, 42.3676, 44.0996, 80.9093, -124.124
6.16768, 44, -33.0513, -18.6544, 42.2762, 44.1614, 80.9642, -123.641
6.17981, 44, -32.4054, -18.6442, 42.1284, 44.2397, 81.0451, -122.922
6.18373, 44, -32.1867, -18.6389, 42.0762, 44.2623, 81.0707, -122.683
6.19756, 45, -31.5232, -18.6175, 41.9107, 44.3194, 81.146, -121.971
6.20044, 45, -31.3002, -18.6086, 41.8525, 44.3346, 81.1705, -121.735
6.21196, 46, -30.6283, -18.5768, 41.6691, 44.3682, 81.24, -121.03
6.21574, 46, -30.4031, -18.5643, 41.6051, 44.3757, 81.2625, -120.796
6.22593, 47, -29.9494, -18.5361, 41.4725, 44.385, 81.3074, -120.329
6.23176, 47, -29.4899, -18.5033, 41.3341, 44.3877, 81.3507, -119.865
6.24157, 48, -29.0236, -18.4662, 41.1895, 44.3821, 81.3926, -119.402
6.24782, 48, -28.5515, -18.4249, 41.0389, 44.3677, 81.4343, -118.942
6.25586, 49, -28.0757, -18.3791, 40.8825, 44.3447, 81.476, -118.483
6.26396, 50, -27.5976, -18.3289, 40.7198, 44.3118, 81.5166, -118.025
6.27233, 50, -27.1167, -18.2738, 40.5506, 44.2693, 81.5573, -117.568
6.2849, 51, -26.3847, -18.1806, 40.2846, 44.1891, 81.6209, -116.884
6.28931, 51, -26.1368, -18.1468, 40.1928, 44.1571, 81.642, -116.657
6.29604, 52, -25.6353, -18.0749, 40.0034, 44.0864, 81.6844, -116.203
6.30427, 52, -25.1291, -17.9977, 39.8066, 44.0052, 81.7283, -115.749
6.31305, 53, -24.6203, -17.915, 39.6036, 43.9136, 81.7732, -115.296
6.32661, 53, -23.8519, -17.7796, 39.2859, 43.7573, 81.841, -114.617
6.32931, 54, -23.593, -17.7312, 39.1758, 43.6998, 81.8649, -114.392
6.33697, 54, -23.0693, -17.6297, 38.9503, 43.5766, 81.9146, -113.94
6.34882, 55, -22.2686, -17.4662, 38.598, 43.3703, 81.9925, -113.261
6.35332, 55, -21.9993, -17.4087, 38.4765, 43.2956, 82.0202, -113.035
6.36449, 56, -21.4589, -17.2892, 38.1027, 43.054, 82.1054, -112.356
6.36905, 56, -20.916, -17.164, 37.9748, 42.968, 82.1343, -112.13
6.3791, 57, -20.3677, -17.033, 37.714, 42.7876, 82.1939, -111.679
6.38511, 57, -20.0902, -16.9656, 37.4476, 42.5962, 82.254, -111.228
6.39403, 58, -19.2441, -16.7546, 37.1744, 42.3928, 82.3157, -110.778
6.40364, 58, -18.6726, -16.6066, 36.8955, 42.1771, 82.3792, -110.328
6.40762, 58, -18.3859, -16.5305, 36.7537, 42.0646, 82.4111, -110.103
6.41568, 59, -17.8106, -16.3744, 36.4648, 41.8305, 82.478, -109.654
6.42608, 60, -16.9362, -16.1322, 36.0196, 41.4553, 82.5822, -108.98
6.43169, 60, -16.6398, -16.0492, 35.8681, 41.3237, 82.6185, -108.755
6.44159, 61, -15.7384, -15.7913, 35.4062, 40.9095, 82.7288, -108.082
6.44766, 61, -15.4355, -15.7026, 35.2493, 40.7648, 82.7666, -107.857
6.45883, 62, -14.5227, -15.4299, 34.7706, 40.3116, 82.8827, -107.185
6.4689, 62, -14.2159, -15.3371, 34.6081, 40.1537, 82.9633, -106.736
6.4717, 63, -13.5948, -15.1473, 34.2797, 39.8282, 83.0045, -106.512
6.48192, 63, -12.6454, -14.8498, 33.7771, 39.3145, 83.1324, -105.837
6.49084, 64, -12.0047, -14.6436, 33.435, 38.9546, 83.222, -105.386
6.4956, 64, -11.6829, -14.5382, 33.2612, 38.7694, 83.2681, -105.161
6.50435, 65, -11.0345, -14.3224, 32.9089, 38.3873, 83.3644, -104.708
6.51161, 65, -10.3752, -14.0994, 32.5496, 37.9888, 83.4662, -104.253
6.52048, 66, -9.70452, -13.8693, 32.1847, 37.5718, 83.5739, -103.796
6.5306, 66, -8.68279, -13.5108, 31.6279, 36.9115, 83.7475, -103.107
6.5366, 67, -8.33948, -13.3878, 31.4392, 36.682, 83.8086, -102.876
6.54368, 67, -7.64739, -13.1371, 31.0568, 36.2095, 83.9359, -102.413
6.55163, 68, -6.94569, -12.8794, 30.669, 35.7206, 84.0702, -101.948
6.5631, 68, -5.8788, -12.4802, 30.0808, 34.961, 84.2826, -101.245
6.56758, 69, -5.5207, -12.3446, 29.883, 34.7021, 84.3563, -101.01
6.57673, 69, -4.80158, -12.0688, 29.4857, 34.1759, 84.5071, -100.539
6.58368, 70, -4.07643, -11.7868, 29.0874, 33.6412, 84.6623, -100.066
6.5949, 70, -3.34408, -11.349, 28.4917, 32.8203, 84.9027, -99.3543
6.59965, 71, -2.60605, -11.199, 28.2934, 32.5411, 84.9853, -99.117
6.60833, 71, -1.86367, -10.8948, 27.8955, 31.9726, 85.1558, -98.6423
6.61668, 72, -1.11553, -10.5848, 27.4957, 31.3894, 85.3355, -98.1664
6.62375, 72, -0.362096, -10.27, 27.0938, 30.7897, 85.5248, -97.6899
6.63263, 73, 0.394879, -9.94992, 26.6904, 30.1757, 85.7232, -97.2124
6.63991, 73, 1.15402, -9.62282, 26.2866, 29.5516, 85.9294, -96.7351
6.64762, 73, 1.91664, -9.28983, 25.8835, 28.9183, 86.1429, -96.2576
6.65957, 74, 3.06846, -8.77947, 25.2852, 27.9566, 86.4753, -95.5391
6.66381, 74, 3.45387, -8.6064, 25.0883, 27.6329, 86.589, -95.2987
6.6756, 75, 4.61305, -8.07696, 24.5035, 26.6548, 86.9387, -94.5741
6.68067, 76, 5.00084, -7.89763, 24.3104, 26.3277, 87.0584, -94.3313
6.68907, 76, 5.7784, -7.53429, 23.9269, 25.6702, 87.3024, -93.8433
6.69662, 76, 6.5581, -7.16551, 23.5477, 25.0099, 87.5534, -93.3522
6.70469, 77, 7.33931, -6.7888, 23.1711, 24.3488, 87.8124, -92.8584
6.72406, 78, 9.30272, -5.80208, 22.2414, 22.6787, 88.5055, -91.6117
6.72579, 78, 9.30272, -5.80208, 22.2414, 22.6787, 88.5055, -91.6117
6.74063, 79, 10.8832, -4.97407, 21.5101, 21.313, 89.1203, -90.595
6.742, 79, 10.8832, -4.97407, 21.5101, 21.313, 89.1203, -90.595
6.74486, 79, 11.2788, -4.76204, 21.3288, 20.9687, 89.2826, -90.3375
6.75147, 80, 12.068, -4.32973, 20.9697, 20.2779, 89.6154, -89.8186
6.75972, 80, 12.8517, -3.88634, 20.6154, 19.5897, 89.9583, -89.2931
6.7675, 81, 13.6292, -3.43548, 20.267, 18.9105, 90.3096, -88.762
6.77551, 81, 14.4004, -2.97901, 19.9263, 18.2455, 90.6669, -88.2263
6.78394, 82, 15.1637, -2.51516, 19.5964, 17.5962, 91.0281, -87.6879
6.79167, 82, 15.9179, -2.0432, 19.2769, 16.9647, 91.3928, -87.1465
6.80042, 83, 16.6596, -1.56463, 18.9675, 16.3527, 91.7606, -86.6034
6.80809, 83, 17.3877, -1.08127, 18.6675, 15.7604, 92.1328, -86.0594
6.81675, 84, 18.1012, -0.594036, 18.3765, 15.187, 92.5101, -85.5167
6.82391, 84, 18.7983, -0.103232, 18.0937, 14.6337, 92.8939, -84.9753
6.83309, 85, 19.4775, 0.39211, 17.8165, 14.1004, 93.2849, -84.4358
6.84, 85, 20.1377, 0.892389, 17.546, 13.587, 93.6841, -83.8992
6.84857, 85, 20.7799, 1.39735, 17.2816, 13.0936, 94.0898, -83.3659
6.85601, 86, 21.4065, 1.90705, 17.0237, 12.6195, 94.501, -82.8343
6.86411, 86, 22.0196, 2.42415, 16.7724, 12.1652, 94.9183, -82.302
6.87211, 87, 22.3217, 2.68646, 16.5259, 11.7293, 95.3422, -81.7675
6.87999, 87, 22.9179, 3.21835, 16.4042, 11.5181, 95.557, -81.4986
6.88836, 88, 23.5042, 3.7579, 16.0432, 10.9086, 96.2125, -80.6834
6.89554, 88, 24.0802, 4.30242, 15.924, 10.7132, 96.4343, -80.4072
6.90353, 88, 24.6449, 4.85465, 15.6888, 10.3342, 96.8829, -79.8479
6.91146, 89, 25.1993, 5.41883, 15.4597, 9.97114, 97.3368, -79.2778
6.91948, 89, 25.7467, 5.99524, 15.2353, 9.62511, 97.7946, -78.6964
6.92745, 90, 26.2906, 6.58256, 15.0166, 9.29517, 98.2557, -78.1015
6.93545, 90, 26.8273, 7.17914, 14.8045, 8.98189, 98.7213, -77.4925
6.94356, 91, 27.3526, 7.7844, 14.5982, 8.68642, 99.1924, -76.8699
6.95151, 91, 27.8665, 8.39994, 14.3964, 8.40847, 99.6699, -76.2349
6.95946, 92, 28.372, 9.02603, 14.1983, 8.15055, 100.154, -75.5871
6.96752, 92, 28.8711, 9.66275, 14.0034, 7.91231, 100.644, -74.9292
6.97547, 93, 29.3614, 10.3079, 13.812, 7.69494, 101.139, -74.2634
6.9836, 93, 29.8391, 10.9596, 13.6261, 7.49949, 101.637, -73.5885
6.99147, 94, 30.3029, 11.6175, 13.4468, 7.32646, 102.135, -72.9059
7.00118, 95, 30.7523, 12.2799, 13.189, 7.11075, 102.881, -71.8726
7.00749, 95, 31.1879, 12.9451, 13.1066, 7.05065, 103.128, -71.525
7.0172, 96, 31.6098, 13.6121, 12.9478, 6.94822, 103.619, -70.4739
7.02351, 96, 32.0169, 14.2809, 12.7962, 6.86943, 104.107, -70.1217
7.03267, 97, 32.4074, 14.9506, 12.6512, 6.81559, 104.59, -69.4134
7.03948, 97, 32.7815, 15.6201, 12.5131, 6.78348, 105.066, -68.6994
7.04747, 97, 33.1399, 16.2864, 12.3831, 6.77252, 105.536, -67.983
7.05778, 98, 33.6499, 17.275, 12.2051, 6.79705, 106.223, -66.9074
7.06356, 98, 33.8125, 17.6003, 12.1505, 6.81519, 106.446, -66.5486
7.07149, 99, 34.1267, 18.2447, 12.0491, 6.86604, 106.882, -65.8345
7.07954, 99, 34.4278, 18.8796, 11.9577, 6.93681, 107.303, -65.1259
7.08746, 100, 34.717, 19.505, 11.8763, 7.02419, 107.708, -64.4222
7.09552, 100, 34.9937, 20.1201, 11.8042, 7.12866, 108.099, -63.7264
7.10351, 101, 35.2566, 20.7222, 11.74, 7.24756, 108.473, -63.0406
7.11146, 101, 35.5063, 21.3106, 11.6832, 7.37936, 108.834, -62.3631
7.11954, 102, 35.7434, 21.8844, 11.634, 7.52168, 109.179, -61.6969
7.12745, 102, 35.9674, 22.4431, 11.5917, 7.67231, 109.51, -61.0444
7.13565, 103, 36.1794, 22.987, 11.5566, 7.82941, 109.826, -60.4054
7.14359, 103, 36.3829, 23.5157, 11.5288, 7.99188, 110.125, -59.7803
7.15146, 103, 36.5803, 24.0297, 11.5093, 8.1604, 110.409, -59.1699
7.15945, 104, 36.7724, 24.5306, 11.4983, 8.33552, 110.675, -58.5732
7.16779, 104, 36.9597, 25.0187, 11.4942, 8.51897, 110.923, -57.9863
7.17552, 104, 37.1428, 25.4937, 11.4962, 8.71171, 111.153, -57.4082
7.18376, 104, 37.319, 25.956, 11.5041, 8.91328, 111.365, -56.8377
7.19145, 104, 37.4848, 26.4046, 11.5161, 9.12316, 111.56, -56.2746
7.19948, 104, 37.6415, 26.8398, 11.5312, 9.33958, 111.741, -55.7194
7.20757, 104, 37.7925, 27.2627, 11.5489, 9.55939, 111.911, -55.1753
7.21554, 104, 37.9416, 27.6724, 11.5684, 9.78025, 112.07, -54.6462
7.22367, 104, 38.089, 28.0683, 11.5886, 9.99891, 112.221, -54.1355
7.23159, 104, 38.2329, 28.4498, 11.6086, 10.214, 112.365, -53.6445
7.23955, 104, 38.3719, 28.8174, 11.6279, 10.4238, 112.501, -53.176
7.24786, 104, 38.5045, 29.1691, 11.6462, 10.6268, 112.629, -52.7305
7.25546, 104, 38.6295, 29.5039, 11.6637, 10.822, 112.75, -52.31
7.26361, 104, 38.7466, 29.82, 11.6801, 11.0087, 112.863, -51.9144
7.27155, 104, 38.8557, 30.1174, 11.6952, 11.1861, 112.969, -51.5431
7.27964, 104, 38.9571, 30.3965, 11.7094, 11.3537, 113.067, -51.1973
7.28758, 104, 39.0508, 30.6557, 11.7224, 11.5111, 113.157, -50.8771
7.29571, 104, 39.1365, 30.8954, 11.734, 11.6577, 113.241, -50.5819
7.30373, 104, 39.2137, 31.1157, 11.7447, 11.7931, 113.316, -50.3121
7.31181, 104, 39.2824, 31.3158, 11.7546, 11.9169, 113.385, -50.0674
7.31988, 104, 39.3432, 31.4964, 11.7636, 12.0288, 113.446, -49.8482
7.3283, 104, 39.3967, 31.6577, 11.7714, 12.1287, 113.501, -49.6538
7.33601, 104, 39.4435, 31.7998, 11.7784, 12.2165, 113.547, -49.4846
7.34409, 104, 39.4844, 31.9235, 11.7848, 12.292, 113.587, -49.3398
7.35203, 104, 39.5193, 32.03, 11.7906, 12.3558, 113.621, -49.2184
7.36022, 104, 39.548, 32.12, 11.7957, 12.4079, 113.648, -49.12
7.36807, 104, 39.5715, 32.1947, 11.8002, 12.4482, 113.669, -49.0417
7.37629, 104, 39.5816, 32.2269, 11.8023, 12.4794, 113.685, -48.9828
7.38434, 104, 39.6057, 32.3051, 11.8081, 12.5026, 113.696, -48.9401
7.39207, 104, 39.6119, 32.3257, 11.8098, 12.5115, 113.701, -48.9238
7.39951, 104, 39.6224, 32.3593, 11.813, 12.5251, 113.707, -48.8997
7.40838, 104, 39.63, 32.3843, 11.8159, 12.5339, 113.71, -48.8795
7.41549, 104, 39.6352, 32.4029, 11.8184, 12.5393, 113.712, -48.8759
7.42351, 104, 39.6383, 32.416, 11.8203, 12.5422, 113.713, -48.8717
7.43145, 104, 39.6401, 32.4245, 11.8217, 12.5436, 113.714, -48.8697
7.43949, 105, 39.6409, 32.4298, 11.8228, 12.5443, 113.714, -48.8688
7.44744, 105, 39.6408, 32.4333, 11.8237, 12.5447, 113.714, -48.8685
7.45554, 105, 39.6401, 32.4357, 11.8245, 12.5449, 113.714, -48.8685
7.46357, 105, 39.6391, 32.4374, 11.8252, 12.545, 113.714, -48.8686
7.47143, 105, 39.6377, 32.4388, 11.8258, 12.5451, 113.714, -48.8688
7.47946, 105, 39.6364, 32.4401, 11.8263, 12.5451, 113.714, -48.869
7.4875, 105, 39.6355, 32.4412, 11.8268, 12.5451, 113.714, -48.8692
7.49707, 105, 39.6348, 32.443, 11.8277, 12.5452, 113.714, -48.8696
7.5035, 105, 39.6347, 32.4435, 11.828, 12.5452, 113.714, -48.8698
7.51242, 105, 39.6345, 32.4445, 11.8285, 12.5451, 113.714, -48.87
7.51949, 105, 39.6342, 32.4454, 11.829, 12.5451, 113.714, -48.8703
7.52744, 105, 39.634, 32.4461, 11.8293, 12.5451, 113.714, -48.8705
7.53548, 105, 39.6337, 32.4465, 11.8296, 12.5451, 113.714, -48.8706
7.54351, 105, 39.6334, 32.4468, 11.8298, 12.5451, 113.714, -48.8708
7.55144, 105, 39.6332, 32.447, 11.8301, 12.5451, 113.714, -48.871
