hehonglu123/Motion-Primitive-Planning/ILC/recorded_data/realrobot/wood/iteration_17/run_1.csv
timestamp, cmd_num, J1, J2, J3, J4, J5, J6
0.001011, -1, 11.3762, 13.6155, 17.3341, -145.52, -97.9262, 142.517
0.00496, -1, 11.3762, 13.6155, 17.3341, -145.52, -97.9262, 142.517
0.007849, -1, 11.3762, 13.6155, 17.3341, -145.52, -97.9262, 142.517
0.029871, -1, 11.3761, 13.6155, 17.3341, -145.52, -97.9262, 142.517
0.03124, -1, 11.3761, 13.6155, 17.3341, -145.52, -97.9262, 142.517
0.033591, -1, 11.3761, 13.6155, 17.3341, -145.52, -97.9262, 142.517
0.039746, -1, 11.3761, 13.6155, 17.3341, -145.52, -97.9262, 142.517
0.049488, -1, 11.3761, 13.6155, 17.3341, -145.52, -97.9262, 142.517
0.055734, -1, 11.3755, 13.6155, 17.3341, -145.52, -97.9262, 142.517
0.064713, -1, 11.3729, 13.6153, 17.334, -145.52, -97.9262, 142.517
0.071677, -1, 11.3664, 13.6145, 17.3338, -145.52, -97.9262, 142.516
0.079747, -1, 11.3552, 13.6128, 17.3333, -145.521, -97.9262, 142.515
0.087677, -1, 11.3377, 13.6093, 17.3326, -145.522, -97.926, 142.507
0.095665, -1, 11.3108, 13.6033, 17.3318, -145.526, -97.9253, 142.485
0.103737, -1, 11.2724, 13.5941, 17.3312, -145.533, -97.9235, 142.445
0.1117, -1, 11.2222, 13.5816, 17.3313, -145.545, -97.9201, 142.38
0.119663, -1, 11.1605, 13.5662, 17.333, -145.562, -97.9147, 142.284
0.128108, -1, 11.0872, 13.5471, 17.337, -145.585, -97.9068, 142.153
0.134765, -1, 11.0019, 13.5241, 17.3434, -145.614, -97.8966, 141.988
0.143677, -1, 10.905, 13.4977, 17.352, -145.648, -97.8845, 141.79
0.152469, -1, 10.7974, 13.468, 17.3624, -145.686, -97.8707, 141.564
0.159663, -1, 10.6789, 13.4351, 17.3737, -145.729, -97.8559, 141.318
0.167678, -1, 10.5499, 13.3995, 17.3849, -145.773, -97.8405, 141.057
0.176574, -1, 10.4118, 13.3616, 17.3955, -145.819, -97.8246, 140.788
0.184757, -1, 10.2669, 13.322, 17.4058, -145.867, -97.8083, 140.513
0.19267, -1, 10.1175, 13.2815, 17.4158, -145.914, -97.7917, 140.236
0.200451, -1, 9.96502, 13.2404, 17.4259, -145.961, -97.7748, 139.958
0.33818, -1, 7.34356, 12.5375, 17.5976, -146.777, -97.4856, 135.2
0.340243, -1, 7.26607, 12.5167, 17.6028, -146.801, -97.4769, 135.06
0.341559, -1, 7.26607, 12.5167, 17.6028, -146.801, -97.4769, 135.06
0.342805, -1, 7.26607, 12.5167, 17.6028, -146.801, -97.4769, 135.06
0.345643, -1, 7.18862, 12.4959, 17.6079, -146.825, -97.4682, 134.919
0.346855, -1, 7.18862, 12.4959, 17.6079, -146.825, -97.4682, 134.919
0.348917, -1, 7.11112, 12.4752, 17.6131, -146.849, -97.4595, 134.779
0.352114, -1, 7.03357, 12.4544, 17.6182, -146.873, -97.4509, 134.639
0.353618, -1, 7.03357, 12.4544, 17.6182, -146.873, -97.4509, 134.639
0.354842, -1, 7.03357, 12.4544, 17.6182, -146.873, -97.4509, 134.639
0.357769, -1, 6.95597, 12.4338, 17.6233, -146.897, -97.4423, 134.499
0.358994, -1, 6.95597, 12.4338, 17.6233, -146.897, -97.4423, 134.499
0.361064, -1, 6.87837, 12.4131, 17.6285, -146.921, -97.4339, 134.359
0.362272, -1, 6.87837, 12.4131, 17.6285, -146.921, -97.4339, 134.359
0.364185, -1, 6.80086, 12.3925, 17.6336, -146.945, -97.4254, 134.219
0.366469, -1, 6.80086, 12.3925, 17.6336, -146.945, -97.4254, 134.219
0.36827, -1, 6.72345, 12.3719, 17.6388, -146.969, -97.417, 134.079
0.370591, -1, 6.72345, 12.3719, 17.6388, -146.969, -97.417, 134.079
0.372633, -1, 6.6461, 12.3513, 17.644, -146.993, -97.4086, 133.939
0.373881, -1, 6.6461, 12.3513, 17.644, -146.993, -97.4086, 133.939
0.375183, -1, 6.6461, 12.3513, 17.644, -146.993, -97.4086, 133.939
0.377217, -1, 6.56876, 12.3306, 17.6493, -147.017, -97.4002, 133.798
0.385669, -1, 6.4142, 12.2893, 17.6597, -147.065, -97.3834, 133.518
0.392198, -1, 6.25995, 12.248, 17.67, -147.113, -97.3666, 133.238
0.398743, -1, 6.18287, 12.2273, 17.6752, -147.138, -97.3581, 133.097
0.408315, -1, 5.95132, 12.1651, 17.6905, -147.209, -97.332, 132.676
0.416222, -1, 5.87401, 12.1443, 17.6957, -147.233, -97.3232, 132.395
0.424273, -1, 5.71924, 12.1026, 17.706, -147.282, -97.3057, 132.255
0.431655, -1, 5.56429, 12.0609, 17.7162, -147.33, -97.2884, 131.974
0.439652, -1, 5.40914, 12.0193, 17.7266, -147.378, -97.2714, 131.693
0.447791, -1, 5.25378, 11.9776, 17.7369, -147.426, -97.2545, 131.412
0.455653, -1, 5.09813, 11.9359, 17.7472, -147.474, -97.2378, 131.131
0.463658, -1, 4.94237, 11.8943, 17.7577, -147.522, -97.221, 130.85
0.471698, -1, 4.78669, 11.8527, 17.7681, -147.571, -97.204, 130.569
0.479673, -1, 4.63098, 11.8112, 17.7786, -147.619, -97.1866, 130.288
0.487652, -1, 4.47527, 11.7697, 17.789, -147.667, -97.169, 130.007
0.49717, -1, 4.24198, 11.7075, 17.8046, -147.74, -97.1431, 129.586
0.50366, -1, 4.16436, 11.6868, 17.8099, -147.764, -97.1346, 129.445
0.511666, -1, 4.0095, 11.6453, 17.8203, -147.812, -97.1177, 129.164
0.519715, -1, 3.85503, 11.6039, 17.8306, -147.86, -97.1008, 128.883
0.527654, -1, 3.70065, 11.5623, 17.841, -147.909, -97.084, 128.602
0.535644, -1, 3.54621, 11.5207, 17.8513, -147.957, -97.067, 128.32
0.545207, -1, 3.39156, 11.479, 17.8616, -148.005, -97.0496, 128.039
0.551656, -1, 3.23654, 11.4373, 17.8721, -148.054, -97.032, 127.757
0.560654, -1, 3.08136, 11.3955, 17.8826, -148.101, -97.0145, 127.476
0.566656, -1, 2.92607, 11.3537, 17.893, -148.15, -96.9973, 127.194
0.575659, -1, 2.77051, 11.3119, 17.9033, -148.198, -96.9802, 126.912
0.583679, -1, 2.61473, 11.2702, 17.9136, -148.246, -96.9634, 126.631
0.591648, -1, 2.45861, 11.2285, 17.9241, -148.295, -96.9467, 126.349
0.599651, -1, 2.30214, 11.1868, 17.9345, -148.343, -96.9298, 126.067
0.607718, -1, 2.14551, 11.145, 17.945, -148.391, -96.9127, 125.785
0.615682, -1, 1.98871, 11.1033, 17.9554, -148.44, -96.8953, 125.504
0.623664, -1, 1.83219, 11.0617, 17.9657, -148.488, -96.8779, 125.222
0.631716, -1, 1.67575, 11.02, 17.9762, -148.536, -96.8605, 124.94
0.639723, -1, 1.51953, 10.9783, 17.9866, -148.585, -96.8434, 124.658
0.647663, -1, 1.36365, 10.9366, 17.9971, -148.634, -96.8265, 124.376
0.785854, -1, -1.28973, 10.2257, 18.1742, -149.458, -96.5352, 119.57
0.78793, -1, -1.36816, 10.2048, 18.1794, -149.482, -96.5268, 119.429
0.789196, -1, -1.36816, 10.2048, 18.1794, -149.482, -96.5268, 119.429
0.790465, -1, -1.36816, 10.2048, 18.1794, -149.482, -96.5268, 119.429
0.79262, -1, -1.4466, 10.1839, 18.1846, -149.506, -96.5185, 119.287
0.793944, -1, -1.4466, 10.1839, 18.1846, -149.506, -96.5185, 119.287
0.795954, -1, -1.52498, 10.163, 18.1898, -149.531, -96.5101, 119.145
0.799464, -1, -1.52498, 10.142, 18.1951, -149.555, -96.5017, 119.004
0.800825, -1, -1.60319, 10.142, 18.1951, -149.555, -96.5017, 119.004
0.802007, -1, -1.60319, 10.142, 18.1951, -149.555, -96.5017, 119.004
0.804791, -1, -1.6813, 10.1211, 18.2003, -149.579, -96.4931, 118.862
0.807627, -1, -1.75931, 10.1002, 18.2056, -149.604, -96.4845, 118.721
0.809108, -1, -1.75931, 10.1002, 18.2056, -149.604, -96.4845, 118.721
0.810293, -1, -1.75931, 10.1002, 18.2056, -149.604, -96.4845, 118.721
0.812366, -1, -1.83721, 10.0792, 18.2108, -149.628, -96.4759, 118.579
0.816228, -1, -1.915, 10.0583, 18.216, -149.652, -96.4672, 118.437
0.817555, -1, -1.915, 10.0583, 18.216, -149.652, -96.4672, 118.437
0.819381, -1, -1.915, 10.0583, 18.216, -149.652, -96.4672, 118.437
0.820843, -1, -1.9927, 10.0374, 18.2213, -149.676, -96.4584, 118.295
0.822038, -1, -1.9927, 10.0374, 18.2213, -149.676, -96.4584, 118.295
0.824045, -1, -2.0703, 10.0164, 18.2265, -149.701, -96.4496, 118.153
0.825288, -1, -2.0703, 10.0164, 18.2265, -149.701, -96.4496, 118.153
0.836673, -1, -2.30299, 9.9536, 18.2421, -149.774, -96.4232, 117.728
0.839984, -1, -2.38066, 9.93265, 18.2473, -149.798, -96.4146, 117.586
0.847972, -1, -2.53621, 9.89064, 18.2577, -149.846, -96.3977, 117.302
0.856013, -1, -2.69203, 9.84868, 18.2681, -149.895, -96.3807, 117.019
0.862798, -1, -2.77011, 9.82771, 18.2733, -149.92, -96.3723, 116.877
0.872139, -1, -3.00497, 9.76475, 18.2889, -149.992, -96.3471, 116.452
0.880207, -1, -3.16198, 9.72283, 18.2993, -150.041, -96.3299, 116.168
0.888295, -1, -3.31944, 9.68085, 18.3097, -150.09, -96.3125, 115.884
0.896235, -1, -3.4772, 9.63882, 18.3202, -150.138, -96.2948, 115.6
0.904253, -1, -3.63498, 9.59691, 18.3307, -150.187, -96.2773, 115.316
0.912202, -1, -3.71389, 9.57598, 18.3359, -150.236, -96.2601, 115.032
0.920227, -1, -3.87188, 9.534, 18.3462, -150.284, -96.2431, 114.747
0.927644, -1, -4.02982, 9.49199, 18.3566, -150.309, -96.2346, 114.605
0.935634, -1, -4.18764, 9.4501, 18.3671, -150.358, -96.2176, 114.321
0.943694, -1, -4.34539, 9.40812, 18.3774, -150.406, -96.2006, 114.037
0.951681, -1, -4.50286, 9.36609, 18.3878, -150.455, -96.1832, 113.752
0.959635, -1, -4.65984, 9.32408, 18.3981, -150.504, -96.1656, 113.467
0.96768, -1, -4.81642, 9.28203, 18.4085, -150.553, -96.1477, 113.182
0.975634, -1, -4.97272, 9.23992, 18.4191, -150.602, -96.1302, 112.898
0.983692, -1, -5.12869, 9.19791, 18.4296, -150.651, -96.113, 112.613
0.991677, -1, -5.28453, 9.15583, 18.4402, -150.699, -96.096, 112.328
0.999633, -1, -5.44054, 9.11364, 18.4507, -150.748, -96.0791, 112.044
1.00763, -1, -5.59668, 9.07154, 18.4611, -150.797, -96.0622, 111.759
1.01572, -1, -5.7532, 9.02944, 18.4716, -150.846, -96.0451, 111.474
1.02369, -1, -5.91017, 8.9872, 18.4821, -150.895, -96.0276, 111.189
1.0317, -1, -6.06759, 8.94506, 18.4924, -150.944, -96.01, 110.904
1.03964, -1, -6.22553, 8.9029, 18.5027, -150.992, -95.9924, 110.619
1.04766, -1, -6.38385, 8.86074, 18.5131, -151.042, -95.9751, 110.333
1.05667, -1, -6.54222, 8.81868, 18.5235, -151.091, -95.9581, 110.048
1.06367, -1, -6.70076, 8.77649, 18.534, -151.139, -95.941, 109.763
1.07264, -1, -6.85947, 8.73432, 18.5446, -151.189, -95.924, 109.477
1.0797, -1, -7.01801, 8.69224, 18.5551, -151.238, -95.9069, 109.192
1.08766, -1, -7.1765, 8.6501, 18.5655, -151.286, -95.8894, 108.906
1.09572, -1, -7.33487, 8.60791, 18.5759, -151.336, -95.8717, 108.621
1.10368, -1, -7.49284, 8.56562, 18.5864, -151.385, -95.8539, 108.335
1.11163, -1, -7.65044, 8.52332, 18.5969, -151.434, -95.8364, 108.049
1.11974, -1, -7.80779, 8.48102, 18.6074, -151.483, -95.8192, 107.763
1.12763, -1, -7.96475, 8.43876, 18.6178, -151.532, -95.8022, 107.478
1.13563, -1, -8.12145, 8.39639, 18.6282, -151.581, -95.7852, 107.192
1.14427, -1, -8.27799, 8.35404, 18.6386, -151.63, -95.7682, 106.906
1.15165, -1, -8.43466, 8.31166, 18.6492, -151.679, -95.751, 106.62
1.15964, -1, -8.59168, 8.2693, 18.6598, -151.728, -95.7335, 106.334
1.16845, -1, -8.74902, 8.22703, 18.6703, -151.777, -95.7158, 106.047
1.17563, -1, -8.90666, 8.18468, 18.6807, -151.826, -95.6982, 105.761
1.18366, -1, -9.06479, 8.14232, 18.6911, -151.875, -95.6809, 105.475
1.19245, -1, -9.22332, 8.10005, 18.7016, -151.924, -95.6637, 105.188
1.19963, -1, -9.38217, 8.0577, 18.712, -151.973, -95.6467, 104.901
1.20765, -1, -9.54126, 8.01533, 18.7225, -152.023, -95.6296, 104.615
1.2166, -1, -9.7004, 7.97306, 18.733, -152.072, -95.6123, 104.328
1.22363, -1, -9.85969, 7.93081, 18.7435, -152.121, -95.5948, 104.041
1.23184, -1, -10.0191, 7.8884, 18.7541, -152.17, -95.5769, 103.754
1.24047, -1, -10.1783, 7.84595, 18.7648, -152.22, -95.559, 103.467
1.24768, -1, -10.3374, 7.80345, 18.7754, -152.269, -95.5414, 103.18
1.25596, -1, -10.4964, 7.76091, 18.7859, -152.319, -95.5241, 102.893
1.26453, -1, -10.6549, 7.71845, 18.7963, -152.368, -95.5071, 102.606
1.27173, -1, -10.813, 7.67591, 18.8069, -152.417, -95.4901, 102.319
1.28014, -1, -10.9709, 7.63332, 18.8173, -152.466, -95.473, 102.032
1.28724, -1, -11.0497, 7.61205, 18.8277, -152.515, -95.4557, 101.745
1.29563, -1, -11.2858, 7.54833, 18.8383, -152.564, -95.4379, 101.457
1.30436, -1, -11.4432, 7.50585, 18.8488, -152.614, -95.4201, 101.17
1.31257, -1, -11.6008, 7.46337, 18.8593, -152.663, -95.4025, 100.883
1.31967, -1, -11.7587, 7.42095, 18.8699, -152.712, -95.385, 100.595
1.32869, -1, -11.917, 7.37853, 18.8805, -152.762, -95.3679, 100.307
1.33662, -1, -12.0757, 7.33614, 18.8911, -152.811, -95.3507, 100.019
1.34394, -1, -12.2349, 7.29377, 18.9016, -152.861, -95.3334, 99.7313
1.35275, -1, -12.3945, 7.25135, 18.9121, -152.91, -95.316, 99.4433
1.36124, -1, -12.5543, 7.20893, 18.9227, -152.96, -95.2982, 99.1553
1.36814, -1, -12.7142, 7.1665, 18.9332, -153.009, -95.2803, 98.8675
1.37608, -1, -12.8744, 7.12403, 18.9437, -153.059, -95.2624, 98.5795
1.38569, -1, -13.0345, 7.08145, 18.9543, -153.108, -95.2448, 98.2913
1.39219, -1, -13.1945, 7.03884, 18.9648, -153.157, -95.2274, 98.0033
1.40019, -1, -13.3543, 6.99626, 18.9755, -153.207, -95.2103, 97.7151
1.40978, -1, -13.5138, 6.95353, 18.9861, -153.256, -95.1932, 97.4265
1.41629, -1, -13.5934, 6.91076, 18.9966, -153.305, -95.1759, 97.1378
1.42416, -1, -13.7525, 6.88941, 19.002, -153.33, -95.1672, 96.9935
1.43162, -1, -13.9114, 6.84673, 19.0124, -153.38, -95.1494, 96.7051
1.43968, -1, -14.0697, 6.80401, 19.0229, -153.429, -95.1316, 96.4166
1.44765, -1, -14.2279, 6.76139, 19.0335, -153.479, -95.1139, 96.1277
1.45565, -1, -14.3861, 6.71871, 19.044, -153.528, -95.0964, 95.8386
1.46264, -1, -14.5443, 6.67601, 19.0545, -153.577, -95.0792, 95.5497
1.47162, -1, -14.703, 6.63345, 19.0651, -153.627, -95.062, 95.2605
1.47963, -1, -14.862, 6.59091, 19.0757, -153.677, -95.0448, 94.9711
1.48769, -1, -15.0213, 6.54822, 19.0864, -153.726, -95.0274, 94.6819
1.49562, -1, -15.1811, 6.50562, 19.0971, -153.776, -95.0097, 94.3929
1.50362, -1, -15.3412, 6.46304, 19.1078, -153.826, -94.9916, 94.1037
1.51165, -1, -15.5016, 6.42033, 19.1185, -153.875, -94.9736, 93.8143
1.51962, -1, -15.6623, 6.37764, 19.1291, -153.925, -94.956, 93.5252
1.52764, -1, -15.8231, 6.33488, 19.1397, -153.975, -94.9386, 93.2358
1.53561, -1, -15.9839, 6.29199, 19.1504, -154.024, -94.9214, 92.9462
1.54361, -1, -16.1448, 6.2491, 19.1609, -154.074, -94.9043, 92.6564
1.55169, -1, -16.3055, 6.20619, 19.1715, -154.124, -94.887, 92.367
1.56126, -1, -16.466, 6.16318, 19.182, -154.173, -94.8696, 92.0774
1.56763, -1, -16.6263, 6.12022, 19.1925, -154.223, -94.8517, 91.7873
1.57568, -1, -16.7862, 6.07725, 19.2032, -154.272, -94.8338, 91.4971
1.58363, -1, -16.9456, 6.03429, 19.2138, -154.322, -94.8162, 91.2071
1.59163, -1, -17.1049, 5.99135, 19.2245, -154.372, -94.7987, 90.9169
1.59968, -1, -17.264, 5.94843, 19.2351, -154.422, -94.7813, 90.6265
1.60763, -1, -17.4231, 5.90562, 19.2457, -154.472, -94.7641, 90.3361
1.61561, -1, -17.5824, 5.86281, 19.2564, -154.522, -94.7466, 90.046
1.62371, -1, -17.7417, 5.82, 19.2671, -154.571, -94.729, 89.7558
1.63162, -1, -17.9013, 5.77722, 19.2777, -154.621, -94.7111, 89.4655
1.63961, -1, -18.0613, 5.73442, 19.2884, -154.671, -94.6929, 89.175
1.64768, -1, -18.2219, 5.69163, 19.2989, -154.721, -94.675, 88.8846
1.65563, -1, -18.3828, 5.64883, 19.3097, -154.771, -94.6574, 88.5939
1.66368, -1, -18.5442, 5.60591, 19.3204, -154.821, -94.64, 88.3028
1.67162, -1, -18.7057, 5.5629, 19.3311, -154.871, -94.6228, 88.0119
1.67962, -1, -18.8674, 5.51992, 19.3418, -154.921, -94.6055, 87.7209
1.68769, -1, -19.0291, 5.47687, 19.3523, -154.971, -94.5879, 87.4296
1.69561, -1, -19.1906, 5.43369, 19.3629, -155.02, -94.5701, 87.1381
1.70369, -1, -19.3521, 5.39052, 19.3736, -155.071, -94.552, 86.8468
1.71169, -1, -19.5134, 5.34736, 19.3842, -155.12, -94.5341, 86.5552
1.71963, -1, -19.6743, 5.30411, 19.3948, -155.17, -94.5163, 86.2636
1.72768, -1, -19.835, 5.26095, 19.4054, -155.22, -94.4988, 85.9717
1.73561, -1, -19.9954, 5.21778, 19.4162, -155.27, -94.4813, 85.6802
1.74366, -1, -20.1554, 5.17461, 19.427, -155.32, -94.4639, 85.3888
1.75195, -1, -20.3152, 5.13165, 19.4378, -155.37, -94.4464, 85.097
1.75972, -1, -20.4751, 5.08862, 19.4487, -155.42, -94.4286, 84.8051
1.76771, -1, -20.6352, 5.04554, 19.4594, -155.47, -94.4104, 84.5135
1.77618, -1, -20.7955, 5.00261, 19.4701, -155.521, -94.3925, 84.2216
1.78373, -1, -20.9563, 4.9596, 19.4808, -155.571, -94.3747, 83.9294
1.79176, -1, -21.1173, 4.91653, 19.4915, -155.621, -94.3572, 83.6373
1.80026, -1, -21.2788, 4.87344, 19.5022, -155.671, -94.3399, 83.3454
1.80765, -1, -21.4407, 4.83022, 19.5128, -155.721, -94.3227, 83.0531
1.81564, -1, -21.6029, 4.78693, 19.5235, -155.772, -94.3053, 82.7605
1.82456, -1, -21.7651, 4.74376, 19.5343, -155.822, -94.2877, 82.468
1.83173, -1, -21.9276, 4.7004, 19.545, -155.872, -94.2697, 82.1754
1.83981, -1, -22.0901, 4.657, 19.5558, -155.922, -94.2516, 81.8826
1.84866, -1, -22.2526, 4.61367, 19.5665, -155.973, -94.2339, 81.5897
1.85603, -1, -22.415, 4.57024, 19.5772, -156.023, -94.2163, 81.2971
1.86262, -1, -22.496, 4.54856, 19.5825, -156.048, -94.2076, 81.1509
1.87288, -1, -22.7387, 4.48345, 19.5985, -156.123, -94.1813, 80.7117
1.88009, -1, -22.9001, 4.44006, 19.6093, -156.173, -94.1637, 80.4185
1.88663, -1, -22.9807, 4.41842, 19.6147, -156.198, -94.1548, 80.2721
1.89703, -1, -23.2223, 4.35348, 19.6306, -156.274, -94.1277, 79.8325
1.9044, -1, -23.3831, 4.31016, 19.6415, -156.324, -94.1095, 79.5391
1.91223, -1, -23.544, 4.26687, 19.6524, -156.375, -94.0914, 79.2455
1.92103, -1, -23.6245, 4.24521, 19.6577, -156.4, -94.0736, 78.9523
1.92762, -1, -23.7856, 4.20195, 19.6685, -156.45, -94.0648, 78.8056
1.93565, -1, -23.9469, 4.1587, 19.6792, -156.501, -94.0473, 78.5119
1.94362, -1, -24.1086, 4.11528, 19.6899, -156.551, -94.03, 78.2179
1.9516, -1, -24.2708, 4.07188, 19.7007, -156.601, -94.0124, 77.9241
1.95969, -1, -24.4335, 4.02845, 19.7114, -156.652, -93.9945, 77.6301
1.96761, -1, -24.5964, 3.98493, 19.722, -156.702, -93.9764, 77.3359
1.97565, -1, -24.7596, 3.94136, 19.7327, -156.752, -93.9583, 77.0416
1.98361, -1, -24.923, 3.89782, 19.7435, -156.803, -93.9404, 76.7477
1.99162, -1, -25.0864, 3.85427, 19.7544, -156.853, -93.9228, 76.4535
1.99867, -1, -25.2497, 3.8107, 19.7653, -156.904, -93.9053, 76.1592
2.0076, -1, -25.4127, 3.76712, 19.7761, -156.955, -93.8879, 75.8647
2.01561, -1, -25.5755, 3.72346, 19.7869, -157.004, -93.8702, 75.5705
2.02367, -1, -25.7382, 3.67983, 19.7976, -157.055, -93.8523, 75.276
2.0317, -1, -25.9007, 3.63636, 19.8084, -157.106, -93.8339, 74.9811
2.03962, -1, -26.0629, 3.59281, 19.8192, -157.156, -93.8156, 74.6864
2.04935, -1, -26.2247, 3.5493, 19.83, -157.207, -93.7975, 74.2444
2.05561, -1, -26.3863, 3.50591, 19.8408, -157.258, -93.7796, 74.097
2.06466, -1, -26.548, 3.46242, 19.8515, -157.308, -93.7619, 73.8018
2.07061, -1, -26.7099, 3.41891, 19.8623, -157.359, -93.7443, 73.5067
2.07962, -1, -26.8721, 3.37539, 19.8732, -157.409, -93.7267, 73.2116
2.09029, -1, -27.0347, 3.3318, 19.884, -157.46, -93.7087, 72.7683
2.09562, -1, -27.1975, 3.28819, 19.8949, -157.511, -93.6905, 72.6207
2.10367, -1, -27.3607, 3.24456, 19.9056, -157.561, -93.6721, 72.3255
2.1116, -1, -27.5243, 3.20075, 19.9163, -157.611, -93.6541, 72.0301
2.11961, -1, -27.6883, 3.15702, 19.9272, -157.662, -93.6362, 71.7345
2.1277, -1, -27.8523, 3.11336, 19.9379, -157.713, -93.6185, 71.4388
2.1356, -1, -28.0165, 3.06962, 19.9487, -157.764, -93.6008, 71.1433
2.1436, -1, -28.1807, 3.02588, 19.9595, -157.815, -93.5831, 70.8475
2.15167, -1, -28.3449, 2.98215, 19.9703, -157.865, -93.565, 70.5515
2.15965, -1, -28.509, 2.93839, 19.9812, -157.916, -93.5467, 70.2555
2.1676, -1, -28.6728, 2.89473, 19.9921, -157.967, -93.5282, 69.9597
2.17566, -1, -28.8363, 2.85101, 20.0029, -158.017, -93.51, 69.6636
2.1836, -1, -28.9994, 2.80727, 20.0136, -158.068, -93.492, 69.3671
2.1916, -1, -29.1621, 2.76364, 20.0244, -158.119, -93.4743, 69.0707
2.19968, -1, -29.3249, 2.71996, 20.0352, -158.17, -93.4566, 68.7741
2.20759, -1, -29.4876, 2.67625, 20.0461, -158.221, -93.4389, 68.4773
2.21564, -1, -29.6503, 2.63253, 20.0569, -158.272, -93.4209, 68.1804
2.22378, -1, -29.8133, 2.5887, 20.0677, -158.323, -93.4026, 67.8837
2.2316, -1, -29.9765, 2.54494, 20.0786, -158.374, -93.3842, 67.587
2.2396, -1, -30.1397, 2.50108, 20.0896, -158.425, -93.3659, 67.2899
2.24769, -1, -30.3035, 2.45709, 20.1006, -158.475, -93.3479, 66.9928
2.25571, -1, -30.4678, 2.41318, 20.1115, -158.527, -93.3302, 66.6959
2.26371, -1, -30.6326, 2.36916, 20.1223, -158.577, -93.3124, 66.3986
2.27175, -1, -30.7976, 2.32522, 20.1331, -158.628, -93.2946, 66.1011
2.27975, -1, -30.9626, 2.2813, 20.144, -158.68, -93.2766, 65.8038
2.2877, -1, -31.1278, 2.23722, 20.1549, -158.73, -93.2582, 65.5066
2.29582, -1, -31.2929, 2.19332, 20.1658, -158.782, -93.2396, 65.2092
2.3036, -1, -31.4578, 2.14949, 20.1766, -158.833, -93.2212, 64.9114
2.31163, -1, -31.6224, 2.10547, 20.1874, -158.884, -93.2032, 64.6137
2.31975, -1, -31.7869, 2.0615, 20.1984, -158.935, -93.1854, 64.3158
2.32767, -1, -31.9512, 2.01759, 20.2093, -158.986, -93.1679, 64.0177
2.33582, -1, -32.1151, 1.9736, 20.2203, -159.037, -93.1502, 63.7195
2.34384, -1, -32.2788, 1.92961, 20.2312, -159.089, -93.1324, 63.4217
2.35187, -1, -32.4422, 1.8856, 20.2421, -159.14, -93.1142, 63.1237
2.36008, -1, -32.6059, 1.8415, 20.2531, -159.191, -93.0957, 62.8254
2.36879, -1, -32.7698, 1.79745, 20.264, -159.243, -93.0775, 62.5269
2.37602, -1, -32.9338, 1.75333, 20.2749, -159.294, -93.0595, 62.2287
2.3826, -1, -33.0159, 1.73122, 20.2804, -159.319, -93.0505, 62.0796
2.39296, -1, -33.2627, 1.66492, 20.2967, -159.396, -93.0238, 61.6313
2.40018, -1, -33.4277, 1.62073, 20.3077, -159.447, -93.006, 61.3328
2.40823, -1, -33.5932, 1.57649, 20.3187, -159.498, -92.9878, 61.0344
2.41708, -1, -33.6761, 1.55435, 20.3297, -159.55, -92.9694, 60.7354
2.42267, -1, -33.8418, 1.51015, 20.3351, -159.575, -92.9601, 60.5858
2.43221, -1, -34.0077, 1.46595, 20.346, -159.626, -92.9415, 60.1372
2.43965, -1, -34.1737, 1.4218, 20.3569, -159.678, -92.9231, 59.9876
2.44761, -1, -34.3398, 1.37765, 20.3679, -159.729, -92.905, 59.6881
2.45564, -1, -34.5058, 1.33343, 20.3788, -159.781, -92.8872, 59.3884
2.46362, -1, -34.6716, 1.28928, 20.3897, -159.832, -92.8694, 59.0891
2.47159, -1, -34.8369, 1.2451, 20.4007, -159.883, -92.8515, 58.7898
2.4797, -1, -35.0019, 1.20087, 20.4117, -159.935, -92.8333, 58.4902
2.4876, -1, -35.1666, 1.15659, 20.4228, -159.986, -92.8148, 58.1904
2.4956, -1, -35.3312, 1.11228, 20.4338, -160.037, -92.7962, 57.8908
2.50363, -1, -35.4951, 1.06815, 20.445, -160.089, -92.778, 57.591
2.51159, -1, -35.6575, 1.02433, 20.4562, -160.14, -92.7598, 57.2911
2.51964, -1, -35.817, 0.981095, 20.4677, -160.191, -92.742, 56.9925
2.52766, -1, -35.9725, 0.939004, 20.4796, -160.242, -92.7243, 56.6974
2.53558, -1, -36.1229, 0.898521, 20.4915, -160.291, -92.7068, 56.4081
2.54359, -1, -36.2657, 0.860225, 20.5035, -160.339, -92.6896, 56.129
2.55324, -1, -36.3989, 0.824856, 20.515, -160.384, -92.6654, 55.7431
2.55965, -1, -36.5209, 0.792555, 20.5257, -160.424, -92.658, 55.6263
2.5676, -1, -36.6302, 0.763639, 20.5349, -160.46, -92.6447, 55.4146
2.57664, -1, -36.725, 0.738521, 20.5423, -160.49, -92.6336, 55.2359
2.58358, -1, -36.8052, 0.717231, 20.5474, -160.515, -92.6248, 55.0925
2.5916, -1, -36.8716, 0.699698, 20.5503, -160.533, -92.6184, 54.9838
2.59972, -1, -36.9249, 0.685669, 20.5516, -160.547, -92.6139, 54.9068
2.6076, -1, -36.9655, 0.674758, 20.552, -160.556, -92.6111, 54.8549
2.61555, -1, -36.9951, 0.666882, 20.5517, -160.562, -92.6093, 54.8233
2.62365, -1, -37.0155, 0.661744, 20.5513, -160.565, -92.6084, 54.8053
2.63161, -1, -37.0279, 0.658685, 20.551, -160.567, -92.6079, 54.7963
2.63962, 2, -37.0346, 0.657051, 20.5508, -160.568, -92.6077, 54.7919
2.64766, 2, -37.0368, 0.656272, 20.5507, -160.568, -92.6076, 54.7899
2.65558, 2, -37.0366, 0.655952, 20.5507, -160.568, -92.6075, 54.789
2.6636, 2, -37.0359, 0.655822, 20.5507, -160.568, -92.6075, 54.7887
2.67165, 2, -37.0357, 0.655758, 20.5506, -160.568, -92.6075, 54.7885
2.67964, 2, -37.0361, 0.655696, 20.5506, -160.568, -92.6075, 54.7885
2.68759, 2, -37.0371, 0.655662, 20.5506, -160.569, -92.6075, 54.7885
2.69565, 2, -37.0382, 0.655557, 20.5504, -160.569, -92.6075, 54.7885
2.70358, 2, -37.0396, 0.655331, 20.5502, -160.568, -92.6076, 54.7885
2.71164, 2, -37.041, 0.655074, 20.5501, -160.568, -92.6076, 54.7886
2.7197, 2, -37.0422, 0.65482, 20.5499, -160.568, -92.6077, 54.7886
2.72762, 2, -37.0433, 0.65458, 20.5497, -160.568, -92.6077, 54.7887
2.73559, 2, -37.0437, 0.654464, 20.5495, -160.568, -92.6077, 54.7888
2.74365, 2, -37.0437, 0.654419, 20.5493, -160.568, -92.6078, 54.7889
2.75162, 2, -37.0432, 0.654414, 20.5492, -160.568, -92.6078, 54.7889
2.75974, 2, -37.0424, 0.654445, 20.5491, -160.568, -92.6078, 54.7891
2.76777, 2, -37.0414, 0.654487, 20.5491, -160.568, -92.6079, 54.7892
2.77568, 2, -37.0399, 0.654539, 20.549, -160.568, -92.608, 54.7893
2.78368, 2, -37.0384, 0.654592, 20.5489, -160.568, -92.608, 54.7895
2.79178, 2, -37.0373, 0.65463, 20.5488, -160.568, -92.608, 54.7896
2.79978, 2, -37.0367, 0.654622, 20.5488, -160.568, -92.6081, 54.7897
2.80759, 2, -37.0365, 0.654581, 20.5488, -160.568, -92.608, 54.7897
2.81568, 2, -37.0365, 0.654546, 20.5488, -160.568, -92.608, 54.7897
2.82373, 2, -37.0368, 0.654503, 20.5487, -160.568, -92.608, 54.7897
2.83164, 2, -37.0369, 0.654449, 20.5487, -160.568, -92.608, 54.7898
2.83983, 2, -37.0374, 0.654404, 20.5487, -160.568, -92.6081, 54.7898
2.84807, 2, -37.0381, 0.654396, 20.5487, -160.568, -92.6081, 54.7898
2.85463, 2, -37.0385, 0.654394, 20.5487, -160.568, -92.6081, 54.7898
2.86397, 2, -37.0395, 0.654402, 20.5487, -160.568, -92.6081, 54.79
2.87251, 2, -37.04, 0.654432, 20.5487, -160.568, -92.6081, 54.79
2.8801, 2, -37.0402, 0.654453, 20.5487, -160.568, -92.6081, 54.79
2.88813, 2, -37.0402, 0.654472, 20.5487, -160.568, -92.6081, 54.7901
2.89653, 2, -37.0401, 0.654472, 20.5487, -160.568, -92.6081, 54.7901
2.9041, 2, -37.0397, 0.654476, 20.5487, -160.568, -92.6081, 54.7902
2.9122, 2, -37.0393, 0.65449, 20.5487, -160.568, -92.6082, 54.7902
2.92072, 2, -37.039, 0.654466, 20.5486, -160.568, -92.6082, 54.7903
2.92815, 2, -37.0389, 0.654453, 20.5486, -160.568, -92.6082, 54.7904
2.93616, 2, -37.0388, 0.654426, 20.5486, -160.568, -92.6082, 54.7904
2.94447, 2, -37.0387, 0.654401, 20.5486, -160.568, -92.6082, 54.7905
2.95157, 2, -37.0387, 0.654397, 20.5486, -160.568, -92.6082, 54.7905
2.95968, 2, -37.0388, 0.654386, 20.5485, -160.568, -92.6082, 54.7905
2.96761, 2, -37.0388, 0.654375, 20.5485, -160.568, -92.6083, 54.7905
2.97557, 2, -37.0389, 0.654396, 20.5485, -160.568, -92.6083, 54.7906
2.98362, 2, -37.039, 0.654422, 20.5485, -160.568, -92.6083, 54.7906
2.99157, 2, -37.0392, 0.654453, 20.5485, -160.568, -92.6083, 54.7907
2.99964, 2, -37.0394, 0.654455, 20.5485, -160.568, -92.6083, 54.7907
3.00763, 2, -37.0395, 0.654456, 20.5485, -160.568, -92.6083, 54.7908
3.01557, 2, -37.0395, 0.654469, 20.5485, -160.568, -92.6083, 54.7909
3.02357, 2, -37.0395, 0.654452, 20.5485, -160.568, -92.6083, 54.7909
3.03163, 2, -37.0395, 0.654447, 20.5485, -160.568, -92.6083, 54.791
3.03963, 2, -37.0395, 0.654453, 20.5485, -160.568, -92.6083, 54.791
3.04758, 2, -37.0394, 0.654455, 20.5484, -160.568, -92.6082, 54.7911
3.05564, 2, -37.0394, 0.654427, 20.5484, -160.568, -92.6082, 54.7911
3.06557, 2, -37.0394, 0.654424, 20.5484, -160.568, -92.6083, 54.7912
3.07157, 2, -37.0394, 0.654424, 20.5484, -160.568, -92.6083, 54.7912
3.0797, 2, -37.0394, 0.654424, 20.5484, -160.568, -92.6083, 54.7912
3.08758, 2, -37.0393, 0.654434, 20.5484, -160.568, -92.6083, 54.7913
3.09658, 2, -37.0393, 0.654428, 20.5484, -160.568, -92.6084, 54.7913
3.10365, 2, -37.0393, 0.654444, 20.5484, -160.568, -92.6084, 54.7914
3.11157, 2, -37.0393, 0.654463, 20.5484, -160.568, -92.6084, 54.7914
3.11963, 2, -37.0393, 0.654472, 20.5484, -160.568, -92.6084, 54.7915
3.12764, 2, -37.0393, 0.654453, 20.5483, -160.568, -92.6084, 54.7915
3.13561, 2, -37.0393, 0.65446, 20.5483, -160.568, -92.6084, 54.7916
3.14357, 2, -37.0393, 0.654459, 20.5483, -160.568, -92.6084, 54.7916
3.15163, 2, -37.0393, 0.654458, 20.5483, -160.568, -92.6085, 54.7917
3.15962, 2, -37.0392, 0.654447, 20.5483, -160.568, -92.6084, 54.7917
3.16759, 2, -37.0392, 0.654434, 20.5483, -160.568, -92.6084, 54.7917
3.17563, 2, -37.0392, 0.654439, 20.5483, -160.568, -92.6084, 54.7918
3.18357, 2, -37.0392, 0.654438, 20.5483, -160.568, -92.6084, 54.7918
3.19157, 2, -37.0392, 0.654448, 20.5483, -160.568, -92.6084, 54.7918
3.19969, 2, -37.0392, 0.654465, 20.5483, -160.568, -92.6084, 54.7919
3.20758, 2, -37.0392, 0.654473, 20.5483, -160.568, -92.6084, 54.7919
3.21559, 2, -37.0392, 0.654482, 20.5483, -160.568, -92.6084, 54.792
3.22363, 2, -37.0392, 0.654488, 20.5483, -160.568, -92.6084, 54.792
3.23158, 2, -37.0392, 0.654496, 20.5482, -160.568, -92.6084, 54.792
3.23962, 2, -37.0391, 0.65448, 20.5482, -160.568, -92.6084, 54.792
3.24765, 2, -37.0391, 0.654449, 20.5482, -160.568, -92.6084, 54.7921
3.25561, 2, -37.0391, 0.654454, 20.5482, -160.568, -92.6084, 54.7921
3.26366, 2, -37.0391, 0.654445, 20.5482, -160.568, -92.6084, 54.7921
3.27174, 2, -37.0391, 0.654444, 20.5482, -160.568, -92.6084, 54.7922
3.27972, 2, -37.0391, 0.65444, 20.5481, -160.568, -92.6085, 54.7923
3.28768, 2, -37.039, 0.654454, 20.5481, -160.568, -92.6084, 54.7923
3.29574, 2, -37.039, 0.654456, 20.5481, -160.568, -92.6084, 54.7923
3.3037, 2, -37.039, 0.654476, 20.5481, -160.568, -92.6084, 54.7924
3.31156, 2, -37.039, 0.65449, 20.5481, -160.568, -92.6084, 54.7923
3.31978, 2, -37.039, 0.654497, 20.5481, -160.568, -92.6084, 54.7924
3.32761, 2, -37.039, 0.6545, 20.5481, -160.568, -92.6084, 54.7924
3.3357, 2, -37.039, 0.654489, 20.5481, -160.568, -92.6085, 54.7925
3.34379, 2, -37.039, 0.654484, 20.5481, -160.568, -92.6084, 54.7925
3.35178, 2, -37.039, 0.654487, 20.5481, -160.568, -92.6085, 54.7925
3.35994, 2, -37.039, 0.654471, 20.5481, -160.568, -92.6085, 54.7925
3.36795, 2, -37.039, 0.654471, 20.5481, -160.567, -92.6085, 54.7925
3.37597, 2, -37.0389, 0.654468, 20.5481, -160.567, -92.6085, 54.7926
3.38414, 2, -37.0389, 0.65447, 20.548, -160.567, -92.6085, 54.7925
3.39213, 2, -37.0389, 0.654468, 20.548, -160.567, -92.6085, 54.7926
3.40017, 2, -37.0389, 0.654474, 20.548, -160.567, -92.6085, 54.7926
3.40817, 2, -37.0389, 0.654477, 20.548, -160.567, -92.6085, 54.7926
3.41617, 2, -37.0389, 0.654474, 20.548, -160.567, -92.6085, 54.7926
3.42418, 2, -37.0388, 0.654483, 20.548, -160.567, -92.6085, 54.7927
3.43212, 2, -37.0388, 0.654486, 20.548, -160.567, -92.6085, 54.7927
3.4403, 2, -37.0388, 0.65449, 20.548, -160.567, -92.6086, 54.7928
3.44761, 2, -37.0388, 0.654485, 20.548, -160.567, -92.6086, 54.7928
3.45556, 2, -37.0388, 0.654475, 20.548, -160.567, -92.6086, 54.7928
3.46361, 2, -37.0388, 0.654485, 20.548, -160.567, -92.6086, 54.7928
3.47159, 2, -37.0388, 0.654494, 20.548, -160.567, -92.6085, 54.7928
3.47963, 2, -37.0388, 0.654479, 20.548, -160.567, -92.6085, 54.7928
3.48762, 2, -37.0387, 0.654467, 20.548, -160.567, -92.6085, 54.7929
3.49555, 2, -37.0387, 0.654469, 20.548, -160.567, -92.6085, 54.7928
3.50357, 2, -37.0387, 0.654468, 20.5479, -160.567, -92.6085, 54.7929
3.51163, 2, -37.0387, 0.654462, 20.5479, -160.567, -92.6085, 54.793
3.51967, 2, -37.0387, 0.654472, 20.5479, -160.567, -92.6085, 54.7929
3.52757, 2, -37.0387, 0.654483, 20.5479, -160.567, -92.6086, 54.793
3.53562, 2, -37.0387, 0.654494, 20.5479, -160.567, -92.6086, 54.793
3.54355, 2, -37.0386, 0.654499, 20.5479, -160.567, -92.6086, 54.793
3.55155, 2, -37.0387, 0.654501, 20.5479, -160.567, -92.6086, 54.793
3.56056, 2, -37.0386, 0.654502, 20.5479, -160.567, -92.6086, 54.793
3.56758, 2, -37.0386, 0.654502, 20.5479, -160.567, -92.6086, 54.793
3.57661, 2, -37.0386, 0.65449, 20.5479, -160.567, -92.6086, 54.793
3.58362, 2, -37.0387, 0.65449, 20.5479, -160.567, -92.6086, 54.7931
3.59155, 2, -37.0387, 0.654492, 20.5479, -160.567, -92.6086, 54.793
3.59963, 2, -37.0387, 0.654478, 20.5478, -160.567, -92.6087, 54.7931
3.60765, 2, -37.0387, 0.654486, 20.5478, -160.567, -92.6086, 54.7931
3.61555, 2, -37.0387, 0.654483, 20.5478, -160.567, -92.6086, 54.7931
3.62356, 2, -37.0387, 0.654486, 20.5478, -160.567, -92.6087, 54.7931
3.63161, 2, -37.0387, 0.654478, 20.5478, -160.567, -92.6087, 54.7931
3.63981, 2, -37.0386, 0.654479, 20.5478, -160.567, -92.6087, 54.7931
3.64756, 2, -37.0386, 0.654492, 20.5478, -160.567, -92.6087, 54.7931
3.65562, 2, -37.0386, 0.654485, 20.5478, -160.567, -92.6086, 54.7931
3.66355, 2, -37.0386, 0.654495, 20.5478, -160.567, -92.6086, 54.7931
3.67156, 2, -37.0386, 0.654499, 20.5478, -160.567, -92.6087, 54.7931
3.67965, 2, -37.0386, 0.654494, 20.5478, -160.567, -92.6087, 54.7931
3.68756, 2, -37.0386, 0.654474, 20.5478, -160.567, -92.6086, 54.7931
3.69555, 2, -37.0386, 0.654484, 20.5477, -160.567, -92.6086, 54.7931
3.70358, 4, -37.0385, 0.654494, 20.5477, -160.567, -92.6086, 54.7931
3.71153, 4, -37.0385, 0.654499, 20.5477, -160.567, -92.6087, 54.7932
3.71961, 4, -37.0385, 0.654501, 20.5477, -160.567, -92.6086, 54.7931
3.72763, 4, -37.0385, 0.654494, 20.5477, -160.567, -92.6087, 54.7931
3.73556, 4, -37.0385, 0.654494, 20.5477, -160.567, -92.6086, 54.7931
3.74355, 4, -37.0384, 0.654499, 20.5477, -160.567, -92.6086, 54.7932
3.75164, 4, -37.0384, 0.654501, 20.5477, -160.567, -92.6087, 54.7931
3.75965, 4, -37.0385, 0.654502, 20.5477, -160.567, -92.6087, 54.7932
3.76766, 4, -37.0384, 0.654502, 20.5477, -160.567, -92.6087, 54.7932
3.77572, 4, -37.0384, 0.654502, 20.5477, -160.567, -92.6086, 54.7931
3.78365, 4, -37.0384, 0.654502, 20.5477, -160.567, -92.6087, 54.7931
3.79165, 4, -37.0384, 0.65449, 20.5477, -160.567, -92.6087, 54.7932
3.79977, 4, -37.0384, 0.654485, 20.5476, -160.567, -92.6087, 54.7932
3.80786, 4, -37.0384, 0.654494, 20.5476, -160.567, -92.6087, 54.7932
3.83003, 4, -37.0383, 0.654489, 20.5476, -160.567, -92.6087, 54.7932
3.83271, 4, -37.0383, 0.654493, 20.5476, -160.567, -92.6087, 54.7932
3.83447, 4, -37.0383, 0.654493, 20.5476, -160.567, -92.6087, 54.7932
3.84173, 4, -37.0383, 0.654498, 20.5476, -160.567, -92.6087, 54.7932
3.85077, 4, -37.0382, 0.654501, 20.5476, -160.567, -92.6087, 54.7932
3.85614, 4, -37.0375, 0.654375, 20.5476, -160.567, -92.6087, 54.7932
3.86384, 4, -37.0349, 0.653483, 20.5477, -160.567, -92.6087, 54.7931
3.87198, 4, -37.029, 0.650678, 20.5486, -160.567, -92.6087, 54.7932
3.8787, 4, -37.0247, 0.648171, 20.5496, -160.567, -92.6087, 54.7932
3.88816, 4, -37.0059, 0.635293, 20.5566, -160.566, -92.6087, 54.7932
3.89653, 4, -36.9877, 0.621602, 20.5664, -160.564, -92.6088, 54.7932
3.90418, 5, -36.9638, 0.603364, 20.5819, -160.561, -92.6087, 54.7931
3.91212, 5, -36.9345, 0.580752, 20.6038, -160.557, -92.6085, 54.7931
3.92024, 5, -36.9005, 0.553514, 20.6326, -160.551, -92.6081, 54.7931
3.9284, 5, -36.8617, 0.521937, 20.6681, -160.543, -92.6075, 54.7931
3.93553, 5, -36.8405, 0.504331, 20.6881, -160.538, -92.6069, 54.7931
3.94358, 5, -36.7941, 0.465582, 20.732, -160.528, -92.6056, 54.7931
3.95237, 5, -36.7424, 0.422563, 20.7805, -160.518, -92.6033, 54.793
3.95968, 5, -36.6861, 0.37587, 20.832, -160.506, -92.6024, 54.7929
3.96755, 5, -36.6258, 0.326404, 20.8857, -160.494, -92.6006, 54.7929
3.97563, 5, -36.5616, 0.27482, 20.9405, -160.482, -92.5989, 54.7929
3.98355, 5, -36.4949, 0.221837, 20.9958, -160.469, -92.5971, 54.7929
3.99154, 5, -36.4271, 0.168281, 21.0512, -160.457, -92.5952, 54.7929
3.99981, 5, -36.3584, 0.114428, 21.1068, -160.445, -92.5934, 54.7929
4.00899, 5, -36.2896, 0.0335499, 21.1899, -160.427, -92.5905, 54.793
4.01457, 5, -36.2207, 0.00666553, 21.2176, -160.421, -92.5895, 54.793
4.02663, 5, -36.1174, -0.0736449, 21.3007, -160.403, -92.5866, 54.7931
4.03175, 5, -36.0831, -0.100319, 21.3284, -160.397, -92.5856, 54.7931
4.03965, 5, -36.0145, -0.15345, 21.3836, -160.384, -92.5836, 54.7932
4.04754, 5, -35.9459, -0.206429, 21.4387, -160.371, -92.5817, 54.7934
4.05708, 5, -35.8773, -0.259224, 21.4938, -160.358, -92.5796, 54.7939
4.06354, 5, -35.8085, -0.311865, 21.5488, -160.346, -92.5776, 54.7941
4.07255, 5, -35.7395, -0.364548, 21.6037, -160.333, -92.5756, 54.7948
4.07977, 5, -35.6704, -0.417154, 21.6585, -160.32, -92.5736, 54.7958
4.08852, 5, -35.6009, -0.46984, 21.713, -160.308, -92.5716, 54.7969
4.09558, 5, -35.5311, -0.522639, 21.7674, -160.295, -92.5695, 54.7982
4.10378, 5, -35.4611, -0.575383, 21.8216, -160.283, -92.5675, 54.7995
4.11154, 5, -35.3908, -0.62814, 21.8756, -160.27, -92.5654, 54.8011
4.11966, 5, -35.3204, -0.680837, 21.9296, -160.257, -92.5633, 54.8028
4.12769, 5, -35.2498, -0.733514, 21.9835, -160.244, -92.5613, 54.8046
4.13654, 5, -35.1792, -0.785925, 22.0371, -160.231, -92.5592, 54.8064
4.14365, 5, -35.1085, -0.838117, 22.0908, -160.217, -92.5571, 54.8085
4.15166, 5, -35.0378, -0.890234, 22.1443, -160.204, -92.555, 54.8106
4.16344, 5, -34.9319, -0.967815, 22.2243, -160.184, -92.5517, 54.8142
4.16753, 5, -34.8967, -0.993589, 22.2509, -160.178, -92.5506, 54.8154
4.17816, 5, -34.8262, -1.04499, 22.3042, -160.165, -92.5485, 54.818
4.18368, 5, -34.7557, -1.09635, 22.3571, -160.152, -92.5463, 54.8207
4.1916, 5, -34.685, -1.14771, 22.4099, -160.14, -92.544, 54.8234
4.19959, 5, -34.614, -1.19894, 22.4626, -160.127, -92.5417, 54.8263
4.20754, 5, -34.543, -1.25027, 22.5149, -160.114, -92.5395, 54.8294
4.21563, 5, -34.4718, -1.30156, 22.5673, -160.1, -92.5373, 54.8325
4.22354, 5, -34.4004, -1.35285, 22.6195, -160.086, -92.5351, 54.8357
4.23188, 5, -34.3288, -1.40415, 22.6715, -160.073, -92.5328, 54.8391
4.23961, 5, -34.2571, -1.45535, 22.7233, -160.059, -92.5306, 54.8425
4.24761, 5, -34.1853, -1.50637, 22.7751, -160.045, -92.5283, 54.8461
4.25578, 5, -34.1132, -1.55716, 22.8268, -160.032, -92.526, 54.8498
4.26382, 5, -34.0411, -1.6078, 22.8783, -160.018, -92.5237, 54.8537
4.27172, 5, -33.9689, -1.65821, 22.9297, -160.005, -92.5213, 54.8576
4.2797, 5, -33.8967, -1.70833, 22.981, -159.991, -92.519, 54.8615
4.28763, 5, -33.8245, -1.75832, 23.0321, -159.978, -92.5167, 54.8656
4.2957, 5, -33.7523, -1.80824, 23.0831, -159.964, -92.5143, 54.8698
4.30503, 5, -33.68, -1.85807, 23.1339, -159.95, -92.5121, 54.874
4.31354, 5, -33.6076, -1.90785, 23.1844, -159.935, -92.5098, 54.8784
4.31978, 5, -33.535, -1.95792, 23.2349, -159.921, -92.5075, 54.8826
4.32763, 5, -33.4622, -2.00827, 23.2853, -159.907, -92.5052, 54.8867
4.33647, 5, -33.3895, -2.05893, 23.3357, -159.893, -92.503, 54.8897
4.34391, 5, -33.317, -2.11008, 23.3861, -159.879, -92.5006, 54.8913
4.35175, 6, -33.2447, -2.1618, 23.4369, -159.864, -92.498, 54.8915
4.36083, 6, -33.1727, -2.21441, 23.4879, -159.85, -92.4949, 54.8898
4.36787, 6, -33.1012, -2.26793, 23.5397, -159.834, -92.4912, 54.8849
4.37631, 7, -33.0301, -2.32243, 23.5923, -159.817, -92.4864, 54.8746
4.3848, 7, -32.9595, -2.37809, 23.6461, -159.799, -92.4802, 54.8606
4.39207, 7, -32.8894, -2.43497, 23.7011, -159.78, -92.4724, 54.8441
4.40089, 7, -32.8198, -2.49329, 23.7575, -159.759, -92.4626, 54.8266
4.40853, 7, -32.7508, -2.55312, 23.8153, -159.737, -92.4509, 54.8093
4.4166, 7, -32.6825, -2.61455, 23.8744, -159.715, -92.4372, 54.7924
4.42488, 8, -32.6486, -2.67754, 23.9346, -159.69, -92.4217, 54.7756
4.43233, 8, -32.548, -2.74235, 23.996, -159.665, -92.4042, 54.7586
4.44182, 8, -32.5148, -2.80871, 24.0584, -159.638, -92.3849, 54.7406
4.44757, 8, -32.449, -2.84248, 24.09, -159.624, -92.3746, 54.7311
4.45554, 8, -32.3838, -2.91112, 24.1539, -159.596, -92.3532, 54.711
4.46358, 9, -32.3191, -2.98113, 24.2187, -159.568, -92.3307, 54.6891
4.47158, 9, -32.255, -3.05243, 24.2846, -159.538, -92.3071, 54.6654
4.48148, 9, -32.16, -3.1619, 24.3852, -159.49, -92.2691, 54.6268
4.48768, 9, -32.1287, -3.19902, 24.4193, -159.474, -92.2555, 54.6134
4.49558, 9, -32.0663, -3.27427, 24.4881, -159.442, -92.2271, 54.5856
4.50353, 10, -32.0045, -3.35079, 24.5579, -159.408, -92.1974, 54.5562
4.51156, 10, -31.9433, -3.42869, 24.6287, -159.373, -92.1668, 54.525
4.51953, 10, -31.8827, -3.50804, 24.7007, -159.337, -92.1347, 54.4917
4.52754, 10, -31.8225, -3.58877, 24.7737, -159.301, -92.1008, 54.4566
4.53785, 10, -31.7335, -3.71257, 24.8851, -159.244, -92.0472, 54.4021
4.54358, 11, -31.7041, -3.75456, 24.9227, -159.225, -92.029, 54.3833
4.55155, 11, -31.6456, -3.83972, 24.9986, -159.185, -91.9916, 54.3443
4.55966, 11, -31.5877, -3.92633, 25.0755, -159.145, -91.9522, 54.3031
4.56752, 11, -31.5303, -4.01434, 25.1532, -159.104, -91.9112, 54.2605
4.57561, 11, -31.4736, -4.10385, 25.2321, -159.061, -91.8696, 54.2169
4.58462, 12, -31.4173, -4.19489, 25.3121, -159.018, -91.8263, 54.1718
4.59154, 12, -31.3614, -4.28734, 25.3931, -158.975, -91.7809, 54.1245
4.59965, 12, -31.3061, -4.38116, 25.4752, -158.929, -91.735, 54.0755
4.60985, 12, -31.224, -4.52435, 25.6002, -158.86, -91.6633, 54.0003
4.61599, 12, -31.1969, -4.57279, 25.6424, -158.836, -91.6384, 53.9744
4.62356, 13, -31.1432, -4.67078, 25.7274, -158.788, -91.5885, 53.9208
4.63154, 13, -31.0899, -4.77015, 25.8134, -158.739, -91.5369, 53.8662
4.63968, 13, -31.0372, -4.87092, 25.9003, -158.69, -91.4834, 53.8105
4.64756, 13, -30.985, -4.97332, 25.9884, -158.639, -91.4294, 53.7527
4.65559, 13, -30.9333, -5.07713, 26.0777, -158.588, -91.3737, 53.6935
4.66349, 14, -30.8821, -5.18226, 26.1679, -158.535, -91.3164, 53.6336
4.67155, 14, -30.8316, -5.28893, 26.2593, -158.481, -91.2587, 53.5714
4.67961, 14, -30.7816, -5.39707, 26.3515, -158.428, -91.1985, 53.508
4.68768, 14, -30.7321, -5.50666, 26.4446, -158.372, -91.1381, 53.4439
4.69558, 14, -30.6831, -5.61783, 26.5387, -158.316, -91.0756, 53.3773
4.70374, 15, -30.6347, -5.7305, 26.6339, -158.26, -91.0117, 53.3095
4.71154, 15, -30.5866, -5.84451, 26.7302, -158.201, -90.9467, 53.2408
4.71959, 15, -30.5392, -5.95978, 26.8277, -158.143, -90.8799, 53.1698
4.72753, 15, -30.4922, -6.07647, 26.9262, -158.083, -90.8127, 53.0983
4.73572, 15, -30.4456, -6.19462, 27.0257, -158.022, -90.743, 53.0247
4.74571, 16, -30.3996, -6.31409, 27.126, -157.961, -90.6729, 52.9493
4.75154, 16, -30.3542, -6.43523, 27.2273, -157.898, -90.6006, 52.8732
4.76052, 16, -30.3093, -6.55781, 27.3297, -157.835, -90.5279, 52.7946
4.76841, 16, -30.2648, -6.68171, 27.4333, -157.771, -90.4533, 52.7154
4.77563, 16, -30.2209, -6.80722, 27.538, -157.706, -90.3777, 52.6344
4.78442, 16, -30.1774, -6.9342, 27.6438, -157.64, -90.3003, 52.5522
4.79164, 17, -30.1343, -7.06276, 27.7503, -157.573, -90.2221, 52.4689
4.79964, 17, -30.0918, -7.19292, 27.8577, -157.505, -90.1423, 52.3841
4.80974, 17, -30.0498, -7.32459, 27.9661, -157.436, -90.0611, 52.2985
4.81586, 17, -30.0084, -7.45741, 28.0757, -157.367, -89.9789, 52.2106
4.82389, 17, -29.9673, -7.59162, 28.1865, -157.296, -89.895, 52.1223
4.83157, 18, -29.9269, -7.72738, 28.2985, -157.225, -89.8101, 52.032
4.83963, 18, -29.887, -7.8645, 28.4113, -157.153, -89.7236, 51.941
4.84769, 18, -29.8475, -8.00303, 28.5248, -157.079, -89.6364, 51.8478
4.85595, 18, -29.8084, -8.14271, 28.6393, -157.005, -89.5477, 51.7538
4.86411, 18, -29.7697, -8.28383, 28.7551, -156.93, -89.4575, 51.658
4.87185, 19, -29.7316, -8.42631, 28.8721, -156.854, -89.3665, 51.5616
4.88, 19, -29.694, -8.57036, 28.9902, -156.777, -89.2741, 51.4634
4.88835, 19, -29.6567, -8.716, 29.1091, -156.7, -89.1802, 51.3645
4.89686, 19, -29.62, -8.8629, 29.2287, -156.621, -89.0854, 51.2644
4.9042, 19, -29.5837, -9.01097, 29.3492, -156.541, -88.9895, 51.1633
4.91214, 20, -29.548, -9.16058, 29.4709, -156.461, -88.8922, 51.0608
4.92102, 20, -29.5127, -9.31169, 29.5938, -156.38, -88.7943, 50.9572
4.92809, 20, -29.4952, -9.38788, 29.7177, -156.298, -88.6952, 50.8525
4.93706, 20, -29.4434, -9.61804, 29.8423, -156.215, -88.5948, 50.7463
4.94498, 20, -29.4264, -9.77292, 29.9679, -156.131, -88.4935, 50.6392
4.95258, 21, -29.3928, -9.85087, 30.0944, -156.046, -88.391, 50.5306
4.95953, 21, -29.3595, -10.0079, 30.1581, -156.003, -88.3392, 50.4762
4.96756, 21, -29.3266, -10.1665, 30.2863, -155.917, -88.2352, 50.3662
4.97551, 21, -29.2942, -10.3263, 30.4154, -155.83, -88.1301, 50.2556
4.98598, 21, -29.2464, -10.5676, 30.6106, -155.699, -87.9704, 50.0879
4.99191, 21, -29.2307, -10.6487, 30.6761, -155.654, -87.9167, 50.0314
4.99949, 22, -29.1995, -10.8121, 30.8079, -155.564, -87.8085, 49.9181
5.00758, 22, -29.1686, -10.9768, 30.9407, -155.474, -87.6992, 49.8038
5.01958, 22, -29.1232, -11.2254, 31.1415, -155.337, -87.5337, 49.6306
5.02353, 22, -29.1083, -11.3088, 31.2089, -155.29, -87.4778, 49.5726
5.03151, 22, -29.0786, -11.4769, 31.3445, -155.197, -87.3658, 49.4556
5.03952, 23, -29.0493, -11.6466, 31.4808, -155.103, -87.2528, 49.338
5.04759, 23, -29.0204, -11.8174, 31.6179, -155.009, -87.1386, 49.2196
5.05551, 23, -28.9918, -11.9889, 31.7559, -154.913, -87.024, 49.1007
5.06366, 23, -28.9637, -12.1617, 31.8947, -154.817, -86.9082, 48.9814
5.0715, 23, -28.9359, -12.336, 32.0345, -154.72, -86.7915, 48.8611
5.0796, 24, -28.9085, -12.5114, 32.1752, -154.621, -86.6739, 48.7405
5.0887, 24, -28.8814, -12.6873, 32.3166, -154.522, -86.5553, 48.6195
5.10318, 24, -28.8284, -13.0422, 32.6015, -154.322, -86.3158, 48.3749
5.10451, 24, -28.8284, -13.0422, 32.6015, -154.322, -86.3158, 48.3749
5.11156, 24, -28.8023, -13.2218, 32.7455, -154.22, -86.195, 48.252
5.11958, 25, -28.7765, -13.4021, 32.8902, -154.118, -86.0734, 48.1287
5.12753, 25, -28.7511, -13.5829, 33.0354, -154.015, -85.9509, 48.0052
5.13651, 25, -28.7258, -13.765, 33.1812, -153.911, -85.8282, 47.8818
5.14351, 25, -28.7007, -13.9485, 33.3278, -153.807, -85.7041, 47.7581
5.15161, 25, -28.6759, -14.1328, 33.4753, -153.701, -85.5798, 47.6341
5.1605, 26, -28.6515, -14.3174, 33.6235, -153.595, -85.4549, 47.5102
5.16772, 26, -28.6273, -14.5031, 33.7721, -153.488, -85.3293, 47.3858
5.17556, 26, -28.6035, -14.6904, 33.9213, -153.38, -85.2033, 47.2614
5.18691, 26, -28.568, -14.9722, 34.1468, -153.217, -85.0128, 47.0749
5.19165, 26, -28.5562, -15.0662, 34.2222, -153.162, -84.9492, 47.0129
5.20051, 27, -28.5328, -15.2549, 34.3734, -153.052, -84.8211, 46.8889
5.2076, 27, -28.5098, -15.4446, 34.525, -152.942, -84.693, 46.7659
5.21572, 27, -28.4869, -15.6348, 34.6774, -152.83, -84.564, 46.6424
5.22373, 27, -28.4642, -15.8251, 34.8305, -152.718, -84.4347, 46.5193
5.23166, 27, -28.4419, -16.0166, 34.9841, -152.605, -84.3051, 46.3966
5.23952, 28, -28.4196, -16.2096, 35.1375, -152.492, -84.1751, 46.2742
5.24766, 28, -28.3972, -16.4032, 35.2917, -152.378, -84.0446, 46.1522
5.25551, 28, -28.375, -16.597, 35.4467, -152.263, -83.9136, 46.0307
5.26406, 28, -28.3529, -16.7919, 35.6021, -152.148, -83.7826, 45.9098
5.27189, 28, -28.3309, -16.9878, 35.7576, -152.032, -83.651, 45.7897
5.27983, 29, -28.3088, -17.1836, 35.9135, -151.915, -83.5194, 45.6707
5.28799, 29, -28.287, -17.3795, 36.0701, -151.797, -83.3874, 45.5524
5.29562, 29, -28.2652, -17.5762, 36.2271, -151.679, -83.2551, 45.4351
5.30403, 29, -28.2434, -17.7736, 36.384, -151.561, -83.1224, 45.3188
5.31203, 29, -28.2217, -17.971, 36.5411, -151.442, -82.9895, 45.2031
5.31985, 29, -28.2003, -18.1687, 36.6989, -151.322, -82.8564, 45.0889
5.32821, 30, -28.1789, -18.3674, 36.8574, -151.201, -82.7232, 44.9754
5.33783, 30, -28.1576, -18.5664, 37.0159, -151.08, -82.5899, 44.8632
5.34467, 30, -28.1363, -18.7655, 37.1742, -150.958, -82.4561, 44.7523
5.35166, 30, -28.1151, -18.9654, 37.3331, -150.836, -82.3224, 44.6427
5.35978, 30, -28.0937, -19.1664, 37.4926, -150.713, -82.188, 44.5348
5.3686, 31, -28.0722, -19.3675, 37.6522, -150.589, -82.0541, 44.428
5.37582, 31, -28.0509, -19.5684, 37.8115, -150.465, -81.9196, 44.323
5.38404, 31, -28.0297, -19.7697, 37.9712, -150.34, -81.7854, 44.2199
5.39235, 31, -28.0083, -19.9712, 38.1315, -150.214, -81.651, 44.1181
5.40005, 31, -27.9868, -20.1723, 38.2918, -150.088, -81.5165, 44.0182
5.40812, 32, -27.9652, -20.3732, 38.4516, -149.962, -81.3823, 43.9201
5.4161, 32, -27.9432, -20.5749, 38.6113, -149.835, -81.2481, 43.8246
5.42415, 32, -27.9209, -20.7765, 38.7714, -149.708, -81.1142, 43.731
5.43217, 32, -27.8985, -20.9776, 38.9313, -149.581, -80.9802, 43.6404
5.44408, 32, -27.8757, -21.1784, 39.0906, -149.453, -80.8469, 43.5094
5.44748, 33, -27.8643, -21.279, 39.1699, -149.39, -80.7803, 43.5094
5.45552, 33, -27.8411, -21.4799, 39.3288, -149.262, -80.6475, 43.4262
5.46436, 33, -27.8175, -21.6797, 39.4878, -149.134, -80.5151, 43.3065
5.47296, 33, -27.7934, -21.9785, 39.7248, -148.943, -80.3175, 43.2312
5.47953, 33, -27.7687, -22.0781, 39.8034, -148.879, -80.2518, 43.1944
5.48753, 34, -27.7436, -22.2768, 39.9602, -148.752, -80.1206, 43.1238
5.4955, 34, -27.7181, -22.4743, 40.1169, -148.624, -79.9899, 43.0569
5.50359, 34, -27.692, -22.6712, 40.2732, -148.496, -79.8591, 42.9921
5.51299, 34, -27.6522, -22.9664, 40.5062, -148.305, -79.6631, 42.9024
5.52098, 34, -27.6387, -23.0645, 40.6614, -148.177, -79.5324, 42.8464
5.52746, 35, -27.6112, -23.2599, 40.7391, -148.112, -79.4671, 42.8193
5.53852, 35, -27.5698, -23.5535, 40.9715, -147.92, -79.271, 42.7442
5.54378, 35, -27.5559, -23.6514, 41.0486, -147.855, -79.2059, 42.7209
5.55556, 35, -27.5135, -23.9442, 41.2797, -147.661, -79.0105, 42.6559
5.56109, 35, -27.4993, -24.0415, 41.3569, -147.596, -78.9455, 42.6164
5.56754, 36, -27.4705, -24.2363, 41.511, -147.466, -78.8157, 42.5981
5.57656, 36, -27.4414, -24.4309, 41.6646, -147.336, -78.6858, 42.5649
5.58358, 36, -27.4119, -24.6246, 41.8175, -147.205, -78.5568, 42.5357
5.59523, 36, -27.367, -24.9142, 42.0464, -147.009, -78.3634, 42.5002
5.59953, 36, -27.3517, -25.0107, 42.1225, -146.943, -78.2994, 42.4905
5.60776, 37, -27.3204, -25.2033, 42.2738, -146.812, -78.1715, 42.4744
5.61653, 37, -27.2883, -25.3944, 42.424, -146.682, -78.0439, 42.463
5.62357, 37, -27.2555, -25.5846, 42.5732, -146.552, -77.9169, 42.4564
5.63153, 37, -27.2218, -25.7744, 42.7217, -146.422, -77.7902, 42.4534
5.63972, 37, -27.1871, -25.9628, 42.869, -146.294, -77.6641, 42.4537
5.64854, 37, -27.1515, -26.1493, 43.0151, -146.165, -77.5383, 42.4601
5.65553, 38, -27.115, -26.3345, 43.1598, -146.038, -77.4132, 42.4724
5.66375, 38, -27.0778, -26.5191, 43.3037, -145.911, -77.2887, 42.49
5.67273, 38, -27.0397, -26.7024, 43.4467, -145.784, -77.1647, 42.513
5.68059, 38, -27.0007, -26.8841, 43.5888, -145.658, -77.0412, 42.5416
5.68751, 38, -26.961, -27.065, 43.7298, -145.532, -76.918, 42.576
5.69556, 39, -26.9207, -27.2458, 43.8699, -145.406, -76.7955, 42.6166
5.70355, 39, -26.8796, -27.4256, 44.0094, -145.28, -76.6727, 42.6629
5.71275, 39, -26.8376, -27.6042, 44.1482, -145.154, -76.5504, 42.7145
5.71967, 39, -26.7949, -27.782, 44.286, -145.028, -76.428, 42.7721
5.72754, 39, -26.7515, -27.9597, 44.4229, -144.903, -76.3057, 42.8366
5.73627, 40, -26.7073, -28.1365, 44.5588, -144.778, -76.1835, 42.9063
5.74355, 40, -26.6619, -28.3116, 44.6937, -144.653, -76.0613, 42.983
5.7516, 40, -26.6157, -28.4855, 44.8274, -144.529, -75.9397, 43.0661
5.76291, 40, -26.5447, -28.7444, 45.0255, -144.345, -75.7578, 43.2026
5.76776, 40, -26.5203, -28.83, 45.0909, -144.284, -75.6975, 43.2515
5.77657, 41, -26.4709, -28.9996, 45.2204, -144.162, -75.5772, 43.3542
5.78366, 41, -26.4204, -29.1674, 45.3486, -144.041, -75.4572, 43.4638
5.79162, 41, -26.3686, -29.3339, 45.4753, -143.922, -75.338, 43.5801
5.79996, 41, -26.3155, -29.4992, 45.6005, -143.803, -75.2188, 43.7034
5.8076, 41, -26.261, -29.6624, 45.7239, -143.686, -75.1005, 43.8339
5.81587, 42, -26.2052, -29.8236, 45.8455, -143.57, -74.9826, 43.9717
5.82523, 42, -26.1479, -29.9832, 45.9654, -143.456, -74.8651, 44.1168
5.83153, 42, -26.089, -30.1411, 46.0832, -143.343, -74.7484, 44.269
5.84035, 42, -26.0285, -30.2968, 46.1989, -143.232, -74.6318, 44.4284
5.84756, 42, -25.9666, -30.4502, 46.3128, -143.122, -74.516, 44.5952
5.856, 43, -25.9029, -30.6013, 46.4246, -143.015, -74.4006, 44.7692
5.86484, 43, -25.8376, -30.7502, 46.5342, -142.909, -74.2855, 44.9512
5.87213, 43, -25.7707, -30.8972, 46.6417, -142.805, -74.1711, 45.1407
5.8807, 43, -25.7021, -31.0417, 46.7473, -142.703, -74.0567, 45.338
5.88823, 43, -25.6319, -31.1838, 46.8509, -142.603, -73.943, 45.5428
5.89693, 43, -25.5601, -31.3237, 46.9526, -142.504, -73.8297, 45.7554
5.90492, 44, -25.4865, -31.4614, 47.052, -142.408, -73.7167, 45.9758
5.91329, 44, -25.411, -31.597, 47.149, -142.314, -73.6044, 46.2045
5.92185, 44, -25.3336, -31.7301, 47.2434, -142.222, -73.4923, 46.4412
5.92809, 44, -25.2545, -31.8604, 47.3355, -142.133, -73.3809, 46.6862
5.93607, 44, -25.2142, -31.9245, 47.4252, -142.047, -73.2701, 46.9392
5.94498, 45, -25.1323, -32.0508, 47.4691, -142.004, -73.1597, 47.201
5.95252, 45, -25.0055, -32.2351, 47.5971, -141.882, -73.0503, 47.4711
5.95951, 45, -24.9622, -32.2951, 47.6383, -141.843, -72.9959, 47.6092
5.96906, 45, -24.8293, -32.4707, 47.7574, -141.73, -72.8335, 48.0358
5.97756, 45, -24.7377, -32.5839, 47.833, -141.657, -72.7264, 48.3309
5.98353, 46, -24.6911, -32.6392, 47.8696, -141.623, -72.6731, 48.4817
5.99152, 46, -24.5963, -32.7474, 47.9408, -141.557, -72.5669, 48.7895
5.99948, 46, -24.4989, -32.8523, 48.009, -141.493, -72.4618, 49.1058
6.00893, 46, -24.3486, -33.0029, 48.1054, -141.406, -72.3055, 49.5966
6.01564, 46, -24.2974, -33.0513, 48.1358, -141.379, -72.2541, 49.7644
6.02355, 47, -24.1932, -33.1452, 48.194, -141.328, -72.1519, 50.1059
6.03149, 47, -24.0865, -33.235, 48.2486, -141.28, -72.0507, 50.4558
6.0395, 47, -23.9772, -33.3208, 48.2996, -141.237, -71.9504, 50.8143
6.04757, 47, -23.8652, -33.4024, 48.3468, -141.198, -71.8514, 51.1808
6.05549, 47, -23.7505, -33.4799, 48.39, -141.164, -71.7535, 51.5562
6.06363, 48, -23.633, -33.553, 48.4294, -141.135, -71.6568, 51.94
6.07534, 48, -23.4517, -33.6543, 48.4805, -141.099, -71.5151, 52.5313
6.07949, 48, -23.39, -33.6857, 48.4954, -141.089, -71.4686, 52.7329
6.08987, 48, -23.2012, -33.7726, 48.5342, -141.068, -71.3322, 53.351
6.09742, 48, -23.1369, -33.799, 48.5449, -141.064, -71.2438, 53.7738
6.10345, 49, -23.0061, -33.848, 48.5631, -141.059, -71.2003, 53.9885
6.11149, 49, -22.8724, -33.8918, 48.5768, -141.058, -71.1144, 54.4232
6.11949, 49, -22.7358, -33.93, 48.5859, -141.063, -71.0311, 54.8658
6.1275, 49, -22.5962, -33.9626, 48.5903, -141.074, -70.9495, 55.3162
6.13566, 49, -22.4538, -33.9895, 48.5904, -141.091, -70.8703, 55.7739
6.14361, 50, -22.3086, -34.0104, 48.5855, -141.115, -70.7934, 56.2398
6.15249, 50, -22.1608, -34.0251, 48.5756, -141.144, -70.7196, 56.7124
6.15958, 50, -22.0103, -34.0336, 48.5606, -141.179, -70.6482, 57.1929
6.16748, 50, -21.8569, -34.0361, 48.5404, -141.22, -70.5803, 57.6814
6.17555, 50, -21.7005, -34.0325, 48.5147, -141.268, -70.5151, 58.1772
6.18344, 51, -21.541, -34.0223, 48.4835, -141.322, -70.4543, 58.6797
6.19165, 51, -21.3787, -34.0053, 48.4472, -141.382, -70.3961, 59.1878
6.19954, 51, -21.2137, -33.9815, 48.4053, -141.448, -70.3421, 59.7021
6.20749, 51, -21.0461, -33.9506, 48.3579, -141.521, -70.2917, 60.222
6.21673, 51, -20.8762, -33.9126, 48.305, -141.599, -70.2446, 60.7476
6.22561, 52, -20.7036, -33.8671, 48.2462, -141.684, -70.202, 61.2784
6.23152, 52, -20.5282, -33.8136, 48.1813, -141.775, -70.1644, 61.8165
6.24276, 52, -20.2599, -33.7184, 48.0726, -141.925, -70.1162, 62.6373
6.24769, 52, -20.169, -33.6826, 48.0332, -141.978, -70.1024, 62.9147
6.25552, 52, -19.9851, -33.6047, 47.9495, -142.089, -70.079, 63.4743
6.26359, 52, -19.7987, -33.5183, 47.8593, -142.206, -70.0612, 64.0409
6.27155, 53, -19.61, -33.4232, 47.7628, -142.33, -70.049, 64.6137
6.27958, 53, -19.4194, -33.3198, 47.6601, -142.46, -70.0423, 65.1917
6.28765, 53, -19.2268, -33.2084, 47.5517, -142.596, -70.0404, 65.7725
6.29573, 53, -19.0326, -33.0887, 47.4374, -142.737, -70.0437, 66.3567
6.30358, 53, -18.8366, -32.9608, 47.3173, -142.883, -70.053, 66.9433
6.31166, 54, -18.639, -32.8246, 47.1914, -143.034, -70.0685, 67.5307
6.31998, 54, -18.4396, -32.6802, 47.0599, -143.189, -70.0906, 68.1186
6.3302, 54, -18.2382, -32.5277, 46.9231, -143.349, -70.1195, 68.7078
6.33551, 54, -18.0353, -32.3671, 46.7807, -143.513, -70.1542, 69.2983
6.3446, 54, -17.8313, -32.1977, 46.6325, -143.681, -70.1953, 69.8901
6.35192, 55, -17.6264, -32.0192, 46.4782, -143.854, -70.2445, 70.4844
6.35973, 55, -17.4203, -31.8314, 46.3178, -144.032, -70.3013, 71.0831
6.36973, 55, -17.2126, -31.6344, 46.151, -144.214, -70.3655, 71.686
6.37586, 55, -17.0033, -31.4273, 45.9767, -144.402, -70.4391, 72.2929
6.38382, 55, -16.7923, -31.2093, 45.7949, -144.595, -70.5209, 72.9049
6.39192, 56, -16.5796, -30.981, 45.6065, -144.792, -70.6123, 73.5217
6.40228, 56, -16.3655, -30.7421, 45.4111, -144.994, -70.7125, 74.1425
6.40863, 56, -16.1505, -30.4918, 45.2075, -145.2, -70.8221, 74.766
6.41607, 56, -15.9354, -30.231, 44.9969, -145.41, -70.9414, 75.393
6.42792, 56, -15.7205, -29.9595, 44.7803, -145.623, -71.1381, 76.338
6.432, 57, -15.6127, -29.8194, 44.6692, -145.84, -71.2087, 76.6534
6.44009, 57, -15.3961, -29.5317, 44.4411, -146.059, -71.3569, 77.2855
6.44836, 57, -15.1784, -29.2337, 44.2068, -146.281, -71.5156, 77.9194
6.45549, 57, -14.96, -28.9254, 43.9658, -146.393, -71.5984, 78.2364
6.46349, 57, -14.7417, -28.6085, 43.7185, -146.617, -71.7715, 78.8689
6.47163, 58, -14.5239, -28.2832, 43.467, -146.842, -71.9536, 79.4995
6.47969, 58, -14.3071, -27.9508, 43.2108, -147.066, -72.1438, 80.1268
6.48748, 58, -14.0916, -27.6103, 42.9512, -147.289, -72.3413, 80.7484
6.4955, 58, -13.8779, -27.2628, 42.6892, -147.511, -72.5459, 81.3623
6.50352, 58, -13.6657, -26.9086, 42.4242, -147.73, -72.757, 81.9698
6.51158, 58, -13.4547, -26.5482, 42.1571, -147.946, -72.9745, 82.5707
6.51948, 59, -13.2452, -26.1808, 41.8862, -148.161, -73.199, 83.165
6.52753, 59, -13.0375, -25.8067, 41.612, -148.374, -73.4311, 83.754
6.53547, 59, -12.8316, -25.4258, 41.3344, -148.585, -73.6713, 84.3395
6.54589, 59, -12.5246, -24.8417, 40.9103, -148.899, -74.0477, 85.2116
6.5517, 59, -12.4227, -24.643, 40.7669, -149.003, -74.1777, 85.5002
6.55946, 60, -12.2197, -24.2401, 40.4762, -149.209, -74.4445, 86.076
6.56748, 60, -12.0182, -23.8297, 40.1821, -149.414, -74.7204, 86.6487
6.58262, 60, -11.7184, -22.9896, 39.5842, -149.817, -75.298, 87.7826
6.584, 60, -11.6193, -22.9896, 39.5842, -149.817, -75.298, 87.7826
6.59153, 60, -11.423, -22.5614, 39.2819, -150.014, -75.5982, 88.3418
6.60053, 61, -11.2291, -22.1292, 38.9784, -150.207, -75.9049, 88.8948
6.60751, 61, -11.0374, -21.6931, 38.6743, -150.395, -76.2167, 89.4398
6.6155, 61, -10.848, -21.2535, 38.3697, -150.579, -76.5327, 89.9747
6.62364, 61, -10.661, -20.8106, 38.0658, -150.757, -76.8527, 90.5
6.63245, 61, -10.4763, -20.3643, 37.7617, -150.93, -77.1765, 91.0161
6.63947, 62, -10.2941, -19.9148, 37.4582, -151.098, -77.5042, 91.5227
6.64749, 62, -10.1149, -19.4624, 37.1542, -151.261, -77.8365, 92.021
6.65553, 62, -9.93826, -19.0077, 36.8501, -151.419, -78.1738, 92.511
6.6635, 62, -9.76427, -18.5502, 36.5447, -151.573, -78.5164, 92.9944
6.67163, 62, -9.59284, -18.0908, 36.2391, -151.723, -78.8644, 93.4703
6.6797, 63, -9.42356, -17.6299, 35.9333, -151.868, -79.2169, 93.9386
6.68749, 63, -9.25636, -17.1672, 35.6283, -152.008, -79.5738, 94.3973
6.69654, 63, -9.09146, -16.7029, 35.3245, -152.142, -79.9341, 94.8466
6.70451, 63, -8.92918, -16.2368, 35.0216, -152.272, -80.2975, 95.2862
6.71248, 63, -8.76936, -15.7684, 34.7202, -152.395, -80.6632, 95.7148
6.72053, 64, -8.61218, -15.2985, 34.4202, -152.514, -81.0314, 96.1337
6.72767, 64, -8.45751, -14.8276, 34.1228, -152.627, -81.4018, 96.5415
6.7355, 64, -8.30532, -14.3558, 33.8258, -152.735, -81.7752, 96.9387
6.74731, 64, -8.08154, -13.6478, 33.3827, -152.887, -82.341, 97.5155
6.7527, 64, -8.00816, -13.4122, 33.2354, -152.935, -82.531, 97.7022
6.76066, 65, -7.86323, -12.9417, 32.9425, -153.028, -82.9129, 98.0669
6.7678, 65, -7.72094, -12.4727, 32.6519, -153.115, -83.2962, 98.4198
6.77561, 65, -7.58153, -12.0051, 32.3642, -153.196, -83.6805, 98.7594
6.78376, 65, -7.44525, -11.5392, 32.0807, -153.27, -84.0648, 99.0851
6.79158, 65, -7.31176, -11.0744, 31.8003, -153.34, -84.4486, 99.3972
6.79975, 65, -7.18132, -10.6114, 31.5247, -153.403, -84.8318, 99.6946
6.80822, 66, -7.05325, -10.1516, 31.2523, -153.461, -85.2137, 99.977
6.81564, 66, -6.9273, -9.695, 30.9838, -153.513, -85.5948, 100.244
6.82348, 66, -6.80352, -9.24338, 30.7198, -153.559, -85.9747, 100.495
6.83169, 66, -6.6819, -8.79755, 30.459, -153.599, -86.3529, 100.731
6.83955, 66, -6.5626, -8.35707, 30.2031, -153.635, -86.7284, 100.949
6.8482, 67, -6.44582, -7.92279, 29.9524, -153.664, -87.1006, 101.151
6.85819, 67, -6.33201, -7.49434, 29.7074, -153.688, -87.4688, 101.335
6.86365, 67, -6.22087, -7.07168, 29.4693, -153.706, -87.8322, 101.501
6.87459, 67, -6.11237, -6.65451, 29.2373, -153.719, -88.1907, 101.65
6.88016, 67, -6.00626, -6.24387, 29.0114, -153.726, -88.5442, 101.782
6.88807, 68, -5.90229, -5.83978, 28.7917, -153.729, -88.8937, 101.896
6.89598, 68, -5.80019, -5.44137, 28.5765, -153.729, -89.2397, 101.993
6.9055, 68, -5.6998, -5.0488, 28.3654, -153.722, -89.5831, 102.072
6.91209, 68, -5.60111, -4.6615, 28.1583, -153.712, -89.9249, 102.134
6.92001, 68, -5.50399, -4.27963, 27.9545, -153.697, -90.2651, 102.176
6.92831, 69, -5.40873, -3.90186, 27.754, -153.678, -90.6043, 102.201
6.93629, 69, -5.31521, -3.52814, 27.5583, -153.654, -90.9426, 102.209
6.944, 69, -5.2691, -3.34262, 27.462, -153.64, -91.2798, 102.197
6.95229, 69, -5.17819, -2.97449, 27.2718, -153.593, -91.6161, 102.164
6.96094, 69, -5.08898, -2.42877, 26.9928, -153.556, -91.9511, 102.11
6.96748, 70, -5.00136, -2.2484, 26.9019, -153.537, -92.1183, 102.074
6.97547, 70, -4.91498, -1.89081, 26.7227, -153.495, -92.4518, 101.987
6.98351, 70, -4.82988, -1.53768, 26.5464, -153.449, -92.7847, 101.877
6.99145, 70, -4.74582, -1.18997, 26.3739, -153.4, -93.1162, 101.745
6.99965, 70, -4.66279, -0.847023, 26.2059, -153.348, -93.4464, 101.59
7.0075, 71, -4.58084, -0.510353, 26.0414, -153.292, -93.7742, 101.414
7.01546, 71, -4.49993, -0.179811, 25.8807, -153.234, -94.0992, 101.216
7.02491, 71, -4.38048, 0.303516, 25.6497, -153.141, -94.5799, 100.879
7.03155, 71, -4.34113, 0.461749, 25.5754, -153.109, -94.738, 100.757
7.0395, 71, -4.263, 0.773841, 25.4305, -153.044, -95.0511, 100.497
7.04916, 72, -4.14748, 1.22912, 25.2221, -152.942, -95.5128, 100.07
7.05816, 72, -4.07098, 1.52414, 25.0885, -152.872, -95.8161, 99.7605
7.06353, 72, -4.03282, 1.66897, 25.0231, -152.836, -95.9665, 99.5978
7.07558, 72, -3.91858, 2.09449, 24.8317, -152.729, -96.414, 99.0785
7.07961, 72, -3.88052, 2.2332, 24.7695, -152.692, -96.5619, 98.895
7.0894, 73, -3.80444, 2.6395, 24.5873, -152.582, -97.0022, 98.3115
7.09558, 73, -3.72845, 2.77203, 24.5281, -152.546, -97.1477, 98.106
7.10449, 73, -3.65236, 3.03225, 24.4124, -152.472, -97.4368, 97.6784
7.11152, 73, -3.57604, 3.28576, 24.3004, -152.398, -97.7229, 97.2281
7.11945, 73, -3.49946, 3.53311, 24.1922, -152.325, -98.0059, 96.7573
7.12762, 73, -3.4225, 3.77333, 24.0882, -152.253, -98.285, 96.266
7.1387, 74, -3.30585, 4.11784, 23.9398, -152.147, -98.6954, 95.4945
7.14346, 74, -3.26666, 4.22851, 23.8923, -152.113, -98.8295, 95.229
7.15146, 74, -3.18772, 4.44334, 23.8005, -152.045, -99.0934, 94.6873
7.15947, 74, -3.10811, 4.64843, 23.7129, -151.979, -99.3508, 94.1335
7.16756, 74, -3.02781, 4.84391, 23.6296, -151.916, -99.6011, 93.5676
7.17561, 75, -2.94663, 5.02997, 23.5506, -151.854, -99.8434, 92.992
7.18442, 75, -2.86446, 5.20585, 23.4757, -151.797, -100.077, 92.4078
7.19244, 75, -2.78122, 5.37079, 23.4045, -151.742, -100.302, 91.8155
7.20066, 75, -2.69702, 5.52514, 23.3372, -151.69, -100.518, 91.2154
7.20832, 75, -2.61193, 5.6688, 23.2737, -151.641, -100.725, 90.6077
7.21547, 76, -2.52583, 5.80122, 23.2144, -151.595, -100.923, 89.9926
7.22683, 76, -2.39496, 5.9784, 23.1336, -151.535, -101.202, 89.0536
7.23145, 76, -2.35095, 6.03158, 23.1089, -151.517, -101.291, 88.736
7.23947, 76, -2.26243, 6.12871, 23.0627, -151.483, -101.46, 88.0954
7.24752, 76, -2.17303, 6.21324, 23.0213, -151.453, -101.62, 87.4488
7.2556, 77, -2.08279, 6.28475, 22.9849, -151.427, -101.767, 86.7967
7.26369, 77, -1.99167, 6.34304, 22.9539, -151.405, -101.902, 86.1435
7.27149, 77, -1.89958, 6.3878, 22.9285, -151.388, -102.024, 85.4922
7.27974, 77, -1.80666, 6.41833, 22.9089, -151.374, -102.132, 84.8435
7.28754, 77, -1.71289, 6.43475, 22.8952, -151.364, -102.224, 84.1983
7.29554, 78, -1.61828, 6.43665, 22.8873, -151.358, -102.302, 83.5582
7.30421, 78, -1.52306, 6.42338, 22.8848, -151.355, -102.363, 82.9224
7.3119, 78, -1.42718, 6.39479, 22.8879, -151.354, -102.41, 82.2896
7.31998, 78, -1.33089, 6.35066, 22.8971, -151.356, -102.441, 81.6614
7.32788, 78, -1.23433, 6.29043, 22.9123, -151.363, -102.456, 81.0387
7.33585, 79, -1.13753, 6.21407, 22.9342, -151.373, -102.455, 80.4211
7.34423, 79, -1.04072, 6.12156, 22.963, -151.386, -102.436, 79.8103
7.35353, 79, -0.943687, 6.01295, 22.9992, -151.401, -102.4, 79.2078
7.36037, 79, -0.846712, 5.88814, 23.0429, -151.42, -102.346, 78.6149
7.36766, 79, -0.749713, 5.74681, 23.094, -151.442, -102.275, 78.0315
7.37569, 79, -0.652685, 5.58898, 23.1528, -151.466, -102.185, 77.458
7.38458, 80, -0.555577, 5.41459, 23.2191, -151.492, -102.077, 76.8956
7.39183, 80, -0.458463, 5.22368, 23.2933, -151.52, -101.951, 76.3437
7.40464, 80, -0.313064, 4.90584, 23.4197, -151.564, -101.726, 75.5335
7.40879, 80, -0.264671, 4.79091, 23.466, -151.58, -101.642, 75.2682
7.41613, 80, -0.167979, 4.5473, 23.5649, -151.613, -101.459, 74.7447
7.42483, 81, -0.0714789, 4.28672, 23.6728, -151.647, -101.257, 74.2313
7.43231, 81, 0.024862, 4.00929, 23.7896, -151.681, -101.036, 73.7264
7.44087, 81, 0.0729579, 3.86416, 23.8515, -151.717, -100.795, 73.231
7.44808, 81, 0.169005, 3.40413, 24.0517, -151.754, -100.535, 72.7449
7.4567, 81, 0.312741, 3.07542, 24.1977, -151.791, -100.256, 72.2689
7.46535, 82, 0.408248, 2.73013, 24.3532, -151.828, -99.9582, 71.8022
7.47151, 82, 0.455911, 2.55118, 24.4344, -151.847, -99.8018, 71.5723
7.47946, 82, 0.551073, 2.18161, 24.6039, -151.885, -99.475, 71.12
7.48749, 82, 0.645976, 1.79603, 24.7831, -151.922, -99.1303, 70.6771
7.49545, 82, 0.740791, 1.39391, 24.9717, -151.958, -98.768, 70.2443
7.50523, 83, 0.882927, 0.761022, 25.2717, -152.012, -98.193, 69.6149
7.5116, 83, 0.930277, 0.54285, 25.3767, -152.03, -97.9933, 69.4102
7.51949, 83, 1.02497, 0.095563, 25.5945, -152.064, -97.5819, 69.0088
7.53528, 83, 1.21463, -0.842219, 26.0565, -152.128, -96.7133, 68.2361
7.53798, 83, 1.26209, -1.0857, 26.178, -152.143, -96.4867, 68.0491
7.54364, 84, 1.30961, -1.33262, 26.302, -152.158, -96.2562, 67.8644
7.55144, 84, 1.40488, -1.83669, 26.5572, -152.187, -95.7837, 67.5014
7.5595, 84, 1.50037, -2.35348, 26.8228, -152.215, -95.2965, 67.1458
7.56751, 84, 1.59619, -2.88407, 27.0987, -152.24, -94.7931, 66.7977
7.57715, 84, 1.69242, -3.42823, 27.3848, -152.276, -94.0101, 66.2886
7.58736, 85, 1.83749, -4.26932, 27.8337, -152.297, -93.4691, 65.9578
7.59329, 85, 1.88595, -4.55596, 27.9883, -152.307, -92.9131, 65.6351
7.59961, 85, 1.98321, -5.13742, 28.3053, -152.327, -92.6297, 65.4766
7.60846, 85, 2.08084, -5.72933, 28.6312, -152.343, -92.0545, 65.1655
7.61562, 85, 2.17876, -6.33042, 28.9664, -152.358, -91.4687, 64.8627
7.62463, 86, 2.27744, -6.93943, 29.3099, -152.369, -90.8724, 64.5693
7.63146, 86, 2.37677, -7.55585, 29.6617, -152.378, -90.2665, 64.2857
7.63952, 86, 2.47704, -8.17847, 30.0203, -152.383, -89.6518, 64.0124
7.64744, 86, 2.57824, -8.80701, 30.3853, -152.386, -89.0289, 63.7498
7.65544, 86, 2.68019, -9.44107, 30.7557, -152.387, -88.4013, 63.4989
7.66646, 86, 2.83533, -10.4002, 31.3216, -152.382, -87.4515, 63.144
7.67164, 87, 2.88751, -10.7219, 31.5131, -152.378, -87.132, 63.0316
7.67946, 87, 2.99233, -11.3672, 31.8991, -152.368, -86.4893, 62.816
7.68744, 87, 3.09824, -12.0153, 32.2897, -152.355, -85.8418, 62.6127
7.69544, 87, 3.20497, -12.6656, 32.6848, -152.337, -85.1901, 62.4223
7.7035, 87, 3.31238, -13.3186, 33.0852, -152.316, -84.5346, 62.2445
7.71144, 88, 3.42057, -13.9744, 33.4907, -152.29, -83.8737, 62.0796
7.71958, 88, 3.52925, -14.6325, 33.901, -152.261, -83.2072, 61.9279
7.72748, 88, 3.63838, -15.2918, 34.3167, -152.228, -82.5354, 61.7896
7.73548, 88, 3.74787, -15.9506, 34.7372, -152.19, -81.8592, 61.6658
7.74354, 88, 3.85763, -16.608, 35.1613, -152.147, -81.1817, 61.5573
7.7515, 89, 3.96768, -17.2626, 35.5882, -152.1, -80.5033, 61.4653
7.75944, 89, 4.07801, -17.9144, 36.0159, -152.047, -79.8253, 61.3914
7.77503, 89, 4.30033, -19.2074, 36.8702, -151.928, -78.4743, 61.3
7.77703, 89, 4.30033, -19.2074, 36.8702, -151.928, -78.4743, 61.3
7.78458, 89, 4.41213, -19.8478, 37.2955, -151.86, -77.8053, 61.2838
7.79163, 90, 4.52427, -20.4837, 37.7192, -151.788, -77.1402, 61.2878
7.79955, 90, 4.63707, -21.1157, 38.1431, -151.709, -76.4759, 61.3154
7.80761, 90, 4.74985, -21.743, 38.567, -151.625, -75.8114, 61.366
7.8156, 90, 4.86224, -22.3664, 38.9918, -151.536, -75.1463, 61.4399
7.82521, 90, 4.97411, -22.9865, 39.4179, -151.439, -74.4815, 61.5396
7.83258, 91, 5.08556, -23.604, 39.8448, -151.337, -73.8159, 61.6656
7.84045, 91, 5.19672, -24.2185, 40.2726, -151.227, -73.1486, 61.8199
7.84747, 91, 5.30737, -24.8286, 40.7005, -151.11, -72.4811, 62.0033
7.85643, 91, 5.41744, -25.4339, 41.1275, -150.987, -71.8132, 62.2166
7.86363, 91, 5.527, -26.0328, 41.5531, -150.857, -71.1459, 62.4602
7.87646, 92, 5.63636, -26.6244, 41.9765, -150.721, -70.4821, 62.8845
7.8798, 92, 5.74584, -27.2076, 42.3967, -150.579, -69.8217, 63.0416
7.88775, 92, 5.85595, -27.7814, 42.8124, -150.432, -69.1651, 63.3789
7.89668, 92, 5.9667, -28.3453, 43.2225, -150.281, -68.5128, 63.7471
7.90489, 92, 6.07809, -28.898, 43.6264, -150.125, -67.8657, 64.1464
7.91196, 92, 6.19072, -29.439, 44.0236, -149.966, -67.2258, 64.5765
7.92053, 93, 6.30481, -29.9686, 44.4137, -149.805, -66.5919, 65.0385
7.9329, 93, 6.47977, -30.7421, 44.9869, -149.561, -65.6493, 65.7898
7.93599, 93, 6.5393, -30.9955, 45.175, -149.479, -65.3367, 66.0568
7.94401, 93, 6.59935, -31.2473, 45.5482, -149.315, -64.7126, 66.6169
7.95252, 93, 6.78285, -31.9943, 45.9167, -149.151, -64.0896, 67.2159
7.96029, 94, 6.90782, -32.4861, 46.2827, -148.985, -63.4637, 67.8582
7.96749, 94, 6.97103, -32.7302, 46.4647, -148.902, -63.1484, 68.1975
7.97545, 94, 7.0987, -33.2141, 46.8281, -148.736, -62.5131, 68.9156
7.98348, 94, 7.2281, -33.6907, 47.1896, -148.57, -61.8718, 69.6862
7.99149, 94, 7.36026, -34.1606, 47.5484, -148.408, -61.2244, 70.5077
7.99939, 95, 7.49623, -34.6226, 47.9009, -148.251, -60.575, 71.3832
8.00744, 95, 7.637, -35.0746, 48.2456, -148.103, -59.9285, 72.3054
8.01544, 95, 7.7838, -35.5162, 48.5795, -147.966, -59.2866, 73.2681
8.02348, 95, 7.9371, -35.945, 48.9014, -147.844, -58.6515, 74.2709
8.0315, 95, 8.09743, -36.3564, 49.2084, -147.738, -58.0242, 75.3078
8.03938, 96, 8.26461, -36.7477, 49.5, -147.651, -57.4065, 76.3794
8.04919, 96, 8.5282, -37.2945, 49.906, -147.555, -56.5058, 78.0444
8.05549, 96, 8.61898, -37.4652, 50.0331, -147.533, -56.2126, 78.6133
8.06342, 96, 8.80453, -37.788, 50.2742, -147.506, -55.6371, 79.7676
8.07152, 96, 8.99503, -38.0853, 50.4961, -147.497, -55.0785, 80.94
8.07988, 96, 9.18896, -38.3578, 50.6986, -147.511, -54.5402, 82.1231
8.08743, 97, 9.38476, -38.6048, 50.8818, -147.546, -54.0241, 83.3163
8.09641, 97, 9.58104, -38.8264, 51.0443, -147.603, -53.533, 84.5148
8.1042, 97, 9.77669, -39.0235, 51.1864, -147.679, -53.0683, 85.7081
8.11148, 97, 9.97092, -39.196, 51.3089, -147.773, -52.6325, 86.8885
8.11943, 97, 10.1627, -39.3426, 51.4118, -147.883, -52.2263, 88.0495
8.12864, 97, 10.3508, -39.4637, 51.4956, -148.005, -51.8509, 89.1845
8.13637, 98, 10.5353, -39.5596, 51.561, -148.138, -51.5063, 90.2857
8.14346, 98, 10.7172, -39.6313, 51.6084, -148.281, -51.192, 91.3535
8.15149, 98, 10.8973, -39.6801, 51.6384, -148.433, -50.9058, 92.3956
8.16041, 98, 11.0759, -39.7058, 51.651, -148.596, -50.6443, 93.4255
8.16742, 98, 11.2524, -39.7083, 51.6469, -148.772, -50.4039, 94.4579
8.17543, 98, 11.4276, -39.6873, 51.6257, -148.96, -50.1824, 95.5031
8.1835, 98, 11.6031, -39.6425, 51.5869, -149.163, -49.9798, 96.5694
8.19148, 99, 11.7783, -39.5743, 51.5302, -149.378, -49.7975, 97.6571
8.19942, 99, 11.9522, -39.4835, 51.4552, -149.605, -49.638, 98.7623
8.20845, 99, 12.1233, -39.3701, 51.3616, -149.841, -49.5047, 99.8732
8.21648, 99, 12.2909, -39.2342, 51.2499, -150.083, -49.4005, 100.981
8.22441, 99, 12.4533, -39.0761, 51.1208, -150.328, -49.3273, 102.073
8.23154, 99, 12.6086, -38.896, 50.9756, -150.571, -49.2847, 103.141
8.23946, 100, 12.7553, -38.692, 50.8149, -150.811, -49.2736, 104.178
8.24742, 100, 12.8932, -38.4635, 50.6377, -151.046, -49.2944, 105.186
8.25648, 100, 13.0222, -38.2124, 50.4433, -151.276, -49.3469, 106.166
8.26343, 100, 13.1425, -37.9391, 50.2324, -151.499, -49.4303, 107.121
8.27159, 100, 13.2547, -37.645, 50.0041, -151.717, -49.5453, 108.053
8.27954, 100, 13.3587, -37.3282, 49.7573, -151.928, -49.6908, 108.963
8.28753, 101, 13.4546, -36.9877, 49.4939, -152.132, -49.8665, 109.852
8.29557, 101, 13.5426, -36.6223, 49.2133, -152.327, -50.0721, 110.716
8.30356, 101, 13.6227, -36.2314, 48.916, -152.513, -50.3072, 111.558
8.31159, 101, 13.6948, -35.8155, 48.601, -152.69, -50.5721, 112.376
8.31959, 101, 13.7586, -35.3762, 48.2683, -152.857, -50.868, 113.172
8.33655, 102, 13.8601, -34.4304, 47.5514, -153.157, -51.5558, 114.696
8.33779, 102, 13.8601, -34.4304, 47.5514, -153.157, -51.5558, 114.696
8.34347, 102, 13.897, -33.923, 47.1675, -153.289, -51.9484, 115.423
8.35224, 102, 13.9243, -33.3915, 46.7678, -153.408, -52.373, 116.126
8.35965, 102, 13.9425, -32.8379, 46.3537, -153.513, -52.8296, 116.801
8.36763, 102, 13.9524, -32.2632, 45.9259, -153.605, -53.3158, 117.451
8.37563, 102, 13.9548, -31.6677, 45.4844, -153.683, -53.8291, 118.075
8.38383, 103, 13.9502, -31.053, 45.0303, -153.748, -54.3671, 118.672
8.39183, 103, 13.9391, -30.421, 44.5649, -153.8, -54.927, 119.244
8.40044, 103, 13.9222, -29.7735, 44.0894, -153.838, -55.506, 119.79
8.40804, 103, 13.8999, -29.1111, 43.6056, -153.865, -56.1024, 120.31
8.41595, 103, 13.8726, -28.4358, 43.1148, -153.88, -56.7148, 120.805
8.42397, 104, 13.841, -27.7497, 42.6185, -153.886, -57.34, 121.275
8.43258, 104, 13.8054, -27.0545, 42.118, -153.881, -57.9786, 121.722
8.44001, 104, 13.7661, -26.3512, 41.6137, -153.866, -58.6326, 122.149
8.448, 104, 13.7452, -25.9969, 41.1067, -153.843, -59.2997, 122.556
8.45617, 104, 13.7016, -24.9284, 40.5984, -153.811, -59.9783, 122.947
8.46421, 104, 13.6563, -24.5708, 40.3437, -153.792, -60.3209, 123.324
8.47143, 104, 13.6092, -23.8532, 39.8339, -153.749, -61.0109, 123.508
8.47956, 104, 13.5604, -23.1327, 39.3245, -153.701, -61.7069, 123.871
8.48741, 104, 13.5103, -22.4108, 38.8163, -153.647, -62.4073, 124.228
8.49542, 104, 13.4595, -21.6878, 38.3095, -153.588, -63.1102, 124.581
8.50348, 104, 13.4079, -20.9643, 37.804, -153.526, -63.8144, 124.931
8.5114, 104, 13.3558, -20.2413, 37.2998, -153.458, -64.5185, 125.28
8.51946, 104, 13.3035, -19.5181, 36.7977, -153.387, -65.2241, 125.627
8.52749, 104, 13.2509, -18.7946, 36.2976, -153.311, -65.9313, 125.973
8.53542, 104, 13.1985, -18.0709, 35.7993, -153.232, -66.6393, 126.319
8.54497, 104, 13.1203, -16.9842, 35.0566, -153.105, -67.7022, 126.836
8.55315, 104, 13.0685, -16.2598, 34.5639, -153.016, -68.4097, 127.18
8.55941, 104, 13.0428, -15.8976, 34.3185, -152.97, -68.7643, 127.352
8.56747, 104, 12.9916, -15.1732, 33.829, -152.875, -69.4752, 127.695
8.57713, 104, 12.9406, -14.0854, 33.0992, -152.725, -70.5427, 128.21
8.58342, 104, 12.89, -13.7227, 32.8573, -152.673, -70.8979, 128.382
8.5932, 104, 12.8399, -12.9974, 32.3754, -152.566, -71.9638, 128.898
8.59946, 104, 12.79, -12.2718, 31.8961, -152.456, -72.3204, 129.07
8.60841, 104, 12.7405, -11.5467, 31.4195, -152.342, -73.0334, 129.415
8.61548, 104, 12.6915, -10.8217, 30.9454, -152.223, -73.7464, 129.761
8.6235, 104, 12.6427, -10.0962, 30.4739, -152.101, -74.4597, 130.106
8.63142, 104, 12.5942, -9.37049, 30.0056, -151.975, -75.173, 130.453
8.63948, 104, 12.5461, -8.64481, 29.5405, -151.844, -75.8871, 130.801
8.64748, 104, 12.4986, -7.91856, 29.0784, -151.71, -76.6019, 131.15
8.65553, 104, 12.4514, -7.19263, 28.6194, -151.572, -77.3178, 131.499
8.66347, 104, 12.405, -6.4673, 28.164, -151.429, -78.0333, 131.85
8.67146, 104, 12.3591, -5.74226, 27.7118, -151.282, -78.7477, 132.203
8.67942, 104, 12.3137, -5.01784, 27.2633, -151.131, -79.4626, 132.556
8.68748, 104, 12.2692, -4.29479, 26.8192, -150.976, -80.1782, 132.91
8.69549, 104, 12.2259, -3.57375, 26.3798, -150.817, -80.8939, 133.266
8.70342, 104, 12.1834, -2.85725, 25.9452, -150.654, -81.6062, 133.623
8.71147, 104, 12.1423, -2.14689, 25.5165, -150.487, -82.3139, 133.98
8.7195, 104, 12.1025, -1.44374, 25.0948, -150.317, -83.0188, 134.336
8.7274, 104, 12.0637, -0.748922, 24.6816, -150.144, -83.7168, 134.69
8.73548, 104, 12.0259, -0.0639333, 24.2779, -149.97, -84.4048, 135.041
8.74344, 104, 11.9889, 0.61046, 23.8849, -149.794, -85.0803, 135.389
8.75141, 104, 11.9531, 1.27244, 23.5042, -149.618, -85.7414, 135.731
8.75949, 104, 11.9184, 1.92137, 23.136, -149.442, -86.3883, 136.068
8.76742, 104, 11.8849, 2.55543, 22.7806, -149.266, -87.0196, 136.398
8.77547, 104, 11.8523, 3.17315, 22.4374, -149.091, -87.6347, 136.722
8.78353, 104, 11.8212, 3.77475, 22.1079, -148.917, -88.2338, 137.039
8.7915, 104, 11.7913, 4.35936, 21.7908, -148.744, -88.8153, 137.349
8.7995, 104, 11.7626, 4.92753, 21.4862, -148.573, -89.3793, 137.652
8.80758, 104, 11.7353, 5.47855, 21.1929, -148.403, -89.9277, 137.949
8.81555, 104, 11.7091, 6.01213, 20.9118, -148.235, -90.4602, 138.238
8.82351, 104, 11.6841, 6.52903, 20.6424, -148.07, -90.9763, 138.52
8.83158, 104, 11.6603, 7.02898, 20.3846, -147.907, -91.4759, 138.795
8.83941, 104, 11.6376, 7.51191, 20.1385, -147.746, -91.9581, 139.062
8.84813, 104, 11.6162, 7.97854, 19.9029, -147.589, -92.4232, 139.321
8.85552, 104, 11.5958, 8.42832, 19.6783, -147.434, -92.8721, 139.573
8.86416, 104, 11.5766, 8.86074, 19.4651, -147.283, -93.3042, 139.817
8.87168, 104, 11.5586, 9.27589, 19.262, -147.136, -93.7197, 140.053
8.87967, 104, 11.5416, 9.67399, 19.069, -146.993, -94.1179, 140.28
8.88771, 104, 11.5257, 10.0539, 18.8871, -146.854, -94.499, 140.498
8.89574, 104, 11.5108, 10.415, 18.7156, -146.72, -94.8617, 140.708
8.90405, 104, 11.497, 10.7568, 18.5542, -146.592, -95.2057, 140.907
8.91197, 104, 11.4842, 11.0796, 18.4037, -146.469, -95.5302, 141.096
8.92006, 104, 11.4724, 11.3817, 18.2641, -146.352, -95.8344, 141.273
8.92802, 104, 11.4616, 11.6635, 18.1349, -146.243, -96.1179, 141.439
8.93598, 104, 11.4519, 11.924, 18.0164, -146.141, -96.3801, 141.594
8.944, 104, 11.4429, 12.1631, 17.9085, -146.046, -96.6205, 141.736
8.95203, 104, 11.4347, 12.3814, 17.811, -145.96, -96.8391, 141.866
8.9594, 104, 11.4309, 12.4827, 17.7662, -145.92, -96.9399, 141.926
8.96743, 104, 11.4238, 12.6694, 17.6843, -145.845, -97.1255, 142.037
8.97551, 104, 11.4176, 12.8348, 17.6126, -145.78, -97.2889, 142.134
8.98342, 104, 11.412, 12.9801, 17.5507, -145.723, -97.4305, 142.219
8.99139, 104, 11.4069, 13.1061, 17.4984, -145.674, -97.5505, 142.291
8.99944, 104, 11.4022, 13.2133, 17.4552, -145.634, -97.6498, 142.35
9.0074, 104, 11.398, 13.3028, 17.4201, -145.601, -97.7299, 142.398
9.01541, 104, 11.3941, 13.3764, 17.3927, -145.575, -97.7924, 142.436
9.02344, 104, 11.3906, 13.436, 17.3723, -145.556, -97.8387, 142.465
9.03141, 104, 11.3875, 13.4834, 17.3575, -145.541, -97.8722, 142.485
9.03939, 104, 11.385, 13.5195, 17.3473, -145.532, -97.8955, 142.498
9.04936, 104, 11.382, 13.5573, 17.3386, -145.523, -97.916, 142.51
9.05541, 104, 11.3813, 13.5664, 17.3368, -145.522, -97.9199, 142.512
9.06519, 104, 11.3794, 13.5854, 17.3338, -145.519, -97.9264, 142.515
9.07146, 104, 11.379, 13.5897, 17.3333, -145.519, -97.9274, 142.516
9.07943, 105, 11.3783, 13.5961, 17.3327, -145.518, -97.9285, 142.516
9.0884, 105, 11.3778, 13.6002, 17.3325, -145.518, -97.9291, 142.516
9.0955, 105, 11.3773, 13.603, 17.3324, -145.518, -97.9293, 142.517
9.10339, 105, 11.3771, 13.6051, 17.3323, -145.518, -97.9294, 142.517
9.11142, 105, 11.3769, 13.607, 17.3323, -145.518, -97.9294, 142.517
9.11946, 105, 11.3767, 13.6086, 17.3323, -145.518, -97.9294, 142.517
9.12739, 105, 11.3765, 13.61, 17.3323, -145.518, -97.9294, 142.517
9.13541, 105, 11.3764, 13.6112, 17.3323, -145.518, -97.9294, 142.517
9.14348, 105, 11.3764, 13.6123, 17.3323, -145.518, -97.9293, 142.517
9.15141, 105, 11.3763, 13.6131, 17.3323, -145.518, -97.9291, 142.517
9.1594, 105, 11.3763, 13.6138, 17.3323, -145.518, -97.929, 142.517
9.1675, 105, 11.3763, 13.6143, 17.3324, -145.518, -97.9289, 142.517
9.17544, 105, 11.3763, 13.6146, 17.3324, -145.518, -97.9287, 142.517
9.1834, 105, 11.3763, 13.6147, 17.3324, -145.518, -97.9286, 142.517
9.19145, 105, 11.3763, 13.6148, 17.3325, -145.518, -97.9285, 142.517
