hehonglu123/Motion-Primitive-Planning/ILC/recorded_data/realrobot/wood/iteration_17/run_0.csv
timestamp, cmd_num, J1, J2, J3, J4, J5, J6
0.000394, -1, 11.3765, 13.6143, 17.335, -145.52, -97.9265, 142.516
0.004341, -1, 11.3765, 13.6143, 17.335, -145.52, -97.9265, 142.516
0.00774, -1, 11.3766, 13.6143, 17.335, -145.52, -97.9265, 142.516
0.029387, -1, 11.3766, 13.6144, 17.335, -145.52, -97.9265, 142.516
0.030653, -1, 11.3766, 13.6144, 17.335, -145.52, -97.9265, 142.516
0.034351, -1, 11.3766, 13.6144, 17.335, -145.52, -97.9265, 142.516
0.03967, -1, 11.3766, 13.6144, 17.335, -145.52, -97.9264, 142.516
0.047808, -1, 11.3763, 13.6143, 17.335, -145.52, -97.9265, 142.516
0.055846, -1, 11.375, 13.6142, 17.335, -145.52, -97.9265, 142.516
0.064447, -1, 11.3707, 13.6138, 17.3348, -145.52, -97.9265, 142.516
0.071955, -1, 11.362, 13.6126, 17.3343, -145.52, -97.9264, 142.516
0.080543, -1, 11.3481, 13.6101, 17.3335, -145.52, -97.9264, 142.512
0.088774, -1, 11.3264, 13.6055, 17.3325, -145.522, -97.9261, 142.497
0.096122, -1, 11.2939, 13.598, 17.3316, -145.527, -97.9252, 142.467
0.103993, -1, 11.2733, 13.593, 17.3311, -145.536, -97.9227, 142.415
0.112092, -1, 11.2232, 13.5805, 17.3318, -145.55, -97.9184, 142.335
0.119395, -1, 11.1615, 13.565, 17.3328, -145.559, -97.9154, 142.283
0.127389, -1, 11.0883, 13.5459, 17.3367, -145.583, -97.9077, 142.152
0.135498, -1, 11.0031, 13.5228, 17.3429, -145.611, -97.8975, 141.987
0.143375, -1, 10.9063, 13.4964, 17.3514, -145.645, -97.8854, 141.788
0.151396, -1, 10.7987, 13.4665, 17.3616, -145.684, -97.8716, 141.563
0.159445, -1, 10.6803, 13.4336, 17.3727, -145.727, -97.8568, 141.316
0.167379, -1, 10.5512, 13.3979, 17.3838, -145.771, -97.8413, 141.056
0.175467, -1, 10.4131, 13.3598, 17.3944, -145.817, -97.8254, 140.786
0.18343, -1, 10.2683, 13.3201, 17.4046, -145.865, -97.8091, 140.512
0.321805, -1, 7.57757, 12.5966, 17.581, -146.704, -97.5115, 135.62
0.323248, -1, 7.57757, 12.5966, 17.581, -146.704, -97.5115, 135.62
0.324443, -1, 7.57757, 12.5966, 17.581, -146.704, -97.5115, 135.62
0.326492, -1, 7.50006, 12.5758, 17.5861, -146.728, -97.503, 135.479
0.327728, -1, 7.50006, 12.5758, 17.5861, -146.728, -97.503, 135.479
0.329001, -1, 7.50006, 12.5758, 17.5861, -146.728, -97.503, 135.479
0.331776, -1, 7.42249, 12.555, 17.5912, -146.752, -97.4944, 135.339
0.334629, -1, 7.34491, 12.5343, 17.5963, -146.776, -97.4859, 135.199
0.335956, -1, 7.34491, 12.5343, 17.5963, -146.776, -97.4859, 135.199
0.337854, -1, 7.34491, 12.5343, 17.6014, -146.8, -97.4772, 135.059
0.33933, -1, 7.2674, 12.5135, 17.6014, -146.8, -97.4772, 135.059
0.340647, -1, 7.2674, 12.5135, 17.6014, -146.8, -97.4772, 135.059
0.342597, -1, 7.18992, 12.4927, 17.6066, -146.824, -97.4685, 134.919
0.344722, -1, 7.18992, 12.4927, 17.6066, -146.824, -97.4685, 134.919
0.346831, -1, 7.1124, 12.4719, 17.6118, -146.848, -97.4598, 134.779
0.350921, -1, 7.03484, 12.4512, 17.6169, -146.873, -97.4511, 134.639
0.352214, -1, 7.03484, 12.4512, 17.6169, -146.873, -97.4511, 134.639
0.354802, -1, 6.95724, 12.4305, 17.6221, -146.897, -97.4426, 134.498
0.356241, -1, 6.95724, 12.4305, 17.6221, -146.897, -97.4426, 134.498
0.358163, -1, 6.87967, 12.4099, 17.6272, -146.921, -97.4341, 134.358
0.359748, -1, 6.87967, 12.4099, 17.6272, -146.921, -97.4341, 134.358
0.360958, -1, 6.87967, 12.4099, 17.6272, -146.921, -97.4341, 134.358
0.370505, -1, 6.64735, 12.348, 17.6429, -146.993, -97.4088, 133.938
0.375437, -1, 6.57, 12.3274, 17.6481, -147.017, -97.4004, 133.797
0.38337, -1, 6.41552, 12.2861, 17.6585, -147.065, -97.3837, 133.517
0.392187, -1, 6.26126, 12.2448, 17.6689, -147.113, -97.3669, 133.237
0.39937, -1, 6.10703, 12.2033, 17.6793, -147.161, -97.3497, 132.956
0.407377, -1, 5.95256, 12.1619, 17.6895, -147.209, -97.3323, 132.675
0.416847, -1, 5.79787, 12.1203, 17.6999, -147.257, -97.3147, 132.395
0.424383, -1, 5.64303, 12.0787, 17.7102, -147.306, -97.2972, 132.114
0.431469, -1, 5.48793, 12.0371, 17.7205, -147.353, -97.2801, 131.833
0.439412, -1, 5.33265, 11.9954, 17.7308, -147.402, -97.2632, 131.552
0.44746, -1, 5.17723, 11.9537, 17.7412, -147.45, -97.2464, 131.271
0.455591, -1, 5.02144, 11.9121, 17.7516, -147.498, -97.2297, 130.99
0.463468, -1, 4.86564, 11.8706, 17.7621, -147.546, -97.2127, 130.709
0.47148, -1, 4.70989, 11.829, 17.7726, -147.595, -97.1955, 130.428
0.479548, -1, 4.55412, 11.7876, 17.7831, -147.643, -97.1779, 130.147
0.487436, -1, 4.39842, 11.7461, 17.7935, -147.691, -97.1605, 129.867
0.495552, -1, 4.24299, 11.7047, 17.804, -147.74, -97.1433, 129.585
0.503479, -1, 4.08792, 11.6633, 17.8145, -147.788, -97.1263, 129.304
0.511421, -1, 3.9333, 11.6219, 17.8248, -147.836, -97.1094, 129.023
0.519469, -1, 3.77891, 11.5804, 17.8352, -147.885, -97.0926, 128.742
0.527874, -1, 3.62446, 11.5388, 17.8456, -147.933, -97.0757, 128.461
0.535601, -1, 3.46991, 11.4972, 17.8559, -147.981, -97.0585, 128.179
0.543625, -1, 3.31507, 11.4555, 17.8664, -148.029, -97.041, 127.898
0.551994, -1, 3.16001, 11.4139, 17.8769, -148.077, -97.0234, 127.616
0.561228, -1, 3.00473, 11.372, 17.8874, -148.126, -97.006, 127.335
0.567803, -1, 2.84929, 11.3303, 17.8978, -148.174, -96.9889, 127.053
0.576299, -1, 2.69357, 11.2886, 17.9081, -148.222, -96.972, 126.771
0.583874, -1, 2.53748, 11.2468, 17.9185, -148.27, -96.9552, 126.49
0.591925, -1, 2.38116, 11.2051, 17.929, -148.319, -96.9384, 126.208
0.600485, -1, 2.22461, 11.1634, 17.9394, -148.367, -96.9214, 125.926
0.607954, -1, 2.14625, 11.1425, 17.9498, -148.415, -96.9042, 125.644
0.616014, -1, 1.98951, 11.1008, 17.955, -148.464, -96.8868, 125.362
0.624192, -1, 1.83289, 11.0591, 17.9654, -148.488, -96.878, 125.08
0.631354, -1, 1.67646, 11.0175, 17.9759, -148.536, -96.8606, 124.939
0.639332, -1, 1.52023, 10.9757, 17.9864, -148.585, -96.8435, 124.657
0.779626, -1, -1.21071, 10.2444, 18.1691, -149.433, -96.5438, 119.711
0.781557, -1, -1.28924, 10.2234, 18.1743, -149.458, -96.5354, 119.57
0.783001, -1, -1.28924, 10.2234, 18.1743, -149.458, -96.5354, 119.57
0.784195, -1, -1.28924, 10.2234, 18.1743, -149.458, -96.5354, 119.57
0.786218, -1, -1.36769, 10.2025, 18.1795, -149.482, -96.527, 119.428
0.787443, -1, -1.36769, 10.2025, 18.1795, -149.482, -96.527, 119.428
0.789385, -1, -1.36769, 10.2025, 18.1795, -149.482, -96.527, 119.428
0.792362, -1, -1.44609, 10.1816, 18.1847, -149.506, -96.5186, 119.286
0.797537, -1, -1.52442, 10.1607, 18.1899, -149.555, -96.5018, 119.003
0.798889, -1, -1.60264, 10.1398, 18.1952, -149.555, -96.5018, 119.003
0.800228, -1, -1.60264, 10.1398, 18.1952, -149.555, -96.5018, 119.003
0.80288, -1, -1.68075, 10.1189, 18.2005, -149.579, -96.4933, 118.862
0.805598, -1, -1.68075, 10.098, 18.2057, -149.604, -96.4847, 118.72
0.807128, -1, -1.75874, 10.098, 18.2057, -149.604, -96.4847, 118.72
0.808328, -1, -1.75874, 10.098, 18.2057, -149.604, -96.4847, 118.72
0.811406, -1, -1.83663, 10.077, 18.2109, -149.628, -96.4761, 118.578
0.812733, -1, -1.83663, 10.077, 18.2109, -149.628, -96.4761, 118.578
0.814721, -1, -1.91444, 10.0561, 18.2162, -149.652, -96.4673, 118.437
0.816087, -1, -1.91444, 10.0561, 18.2162, -149.652, -96.4673, 118.437
0.818215, -1, -1.99217, 10.0352, 18.2214, -149.676, -96.4586, 118.295
0.81948, -1, -1.99217, 10.0352, 18.2214, -149.676, -96.4586, 118.295
0.820669, -1, -1.99217, 10.0352, 18.2214, -149.676, -96.4586, 118.295
0.823306, -1, -2.0698, 10.0142, 18.2266, -149.701, -96.4497, 118.153
0.831372, -1, -2.22494, 9.97238, 18.237, -149.75, -96.4321, 117.869
0.839429, -1, -2.38021, 9.93053, 18.2474, -149.798, -96.4148, 117.586
0.847356, -1, -2.53576, 9.88856, 18.2579, -149.846, -96.3978, 117.302
0.855429, -1, -2.69158, 9.84665, 18.2683, -149.895, -96.3809, 117.018
0.86347, -1, -2.8478, 9.80472, 18.2787, -149.944, -96.3641, 116.735
0.871334, -1, -3.00447, 9.76274, 18.2891, -149.992, -96.3473, 116.451
0.879351, -1, -3.16149, 9.72085, 18.2995, -150.041, -96.3301, 116.167
0.887433, -1, -3.31888, 9.67889, 18.31, -150.09, -96.3126, 115.883
0.895407, -1, -3.47666, 9.63686, 18.3205, -150.138, -96.2949, 115.6
0.903347, -1, -3.63446, 9.59498, 18.3309, -150.187, -96.2775, 115.316
0.911426, -1, -3.79236, 9.55309, 18.3413, -150.236, -96.2603, 115.031
0.919379, -1, -3.95035, 9.51107, 18.3517, -150.284, -96.2432, 114.747
0.927353, -1, -4.10827, 9.46918, 18.3621, -150.334, -96.2263, 114.463
0.935506, -1, -4.2661, 9.42727, 18.3725, -150.382, -96.2093, 114.179
0.94341, -1, -4.42375, 9.38527, 18.3829, -150.431, -96.192, 113.894
0.951445, -1, -4.58094, 9.34331, 18.3932, -150.48, -96.1745, 113.609
0.959533, -1, -4.73776, 9.30129, 18.4036, -150.528, -96.1567, 113.325
0.967452, -1, -4.89416, 9.25926, 18.4141, -150.577, -96.139, 113.04
0.975505, -1, -5.05034, 9.21724, 18.4247, -150.626, -96.1217, 112.755
0.983536, -1, -5.20623, 9.17523, 18.4352, -150.675, -96.1046, 112.47
0.991355, -1, -5.36216, 9.13311, 18.4458, -150.723, -96.0876, 112.186
0.999389, -1, -5.51825, 9.091, 18.4563, -150.773, -96.0707, 111.901
1.00746, -1, -5.67453, 9.04897, 18.4667, -150.821, -96.0537, 111.616
1.01545, -1, -5.83124, 9.00682, 18.4772, -150.87, -96.0364, 111.331
1.02358, -1, -5.98837, 8.96463, 18.4876, -150.919, -96.0189, 111.046
1.03166, -1, -6.14606, 8.92254, 18.498, -150.968, -96.0012, 110.761
1.03965, -1, -6.30421, 8.88041, 18.5084, -151.017, -95.9837, 110.476
1.04766, -1, -6.46252, 8.83834, 18.5187, -151.066, -95.9666, 110.191
1.05573, -1, -6.62103, 8.79628, 18.5292, -151.115, -95.9495, 109.905
1.06387, -1, -6.77972, 8.7541, 18.5397, -151.164, -95.9326, 109.62
1.07248, -1, -6.93835, 8.71202, 18.5502, -151.213, -95.9156, 109.334
1.07989, -1, -7.09689, 8.66994, 18.5608, -151.262, -95.8982, 109.049
1.08847, -1, -7.25533, 8.62779, 18.5711, -151.311, -95.8807, 108.763
1.09596, -1, -7.41352, 8.58557, 18.5816, -151.36, -95.8629, 108.478
1.10398, -1, -7.57134, 8.54331, 18.5921, -151.409, -95.8452, 108.192
1.112, -1, -7.65016, 8.50102, 18.6026, -151.458, -95.8279, 107.906
1.12051, -1, -7.88598, 8.45879, 18.613, -151.507, -95.8108, 107.62
1.12735, -1, -7.96444, 8.43763, 18.6182, -151.532, -95.8023, 107.478
1.13644, -1, -8.19934, 8.37412, 18.6338, -151.605, -95.7769, 107.049
1.14336, -1, -8.27761, 8.35297, 18.6391, -151.63, -95.7683, 106.906
1.15134, -1, -8.43426, 8.31061, 18.6497, -151.678, -95.7511, 106.62
1.16062, -1, -8.66991, 8.24709, 18.6654, -151.752, -95.7247, 106.19
1.16735, -1, -8.74862, 8.22595, 18.6707, -151.777, -95.7159, 106.047
1.17666, -1, -8.9853, 8.16244, 18.6862, -151.85, -95.6897, 105.618
1.18334, -1, -9.06445, 8.14129, 18.6915, -151.875, -95.681, 105.475
1.19134, -1, -9.22298, 8.09906, 18.702, -151.924, -95.6639, 105.188
1.20087, -1, -9.46141, 8.03554, 18.7176, -151.998, -95.6382, 104.758
1.209, -1, -9.62054, 7.9933, 18.7282, -152.047, -95.621, 104.471
1.2154, -1, -9.70011, 7.9722, 18.7334, -152.072, -95.6123, 104.328
1.22496, -1, -9.93913, 7.90879, 18.7492, -152.145, -95.5859, 103.897
1.23313, -1, -10.0984, 7.8664, 18.7599, -152.195, -95.5679, 103.61
1.23933, -1, -10.178, 7.84516, 18.7652, -152.22, -95.5591, 103.467
1.24741, -1, -10.3371, 7.80268, 18.7758, -152.269, -95.5415, 103.18
1.25638, -1, -10.4961, 7.76016, 18.7863, -152.318, -95.5243, 102.893
1.26335, -1, -10.6545, 7.7177, 18.7967, -152.368, -95.5072, 102.606
1.27143, -1, -10.8126, 7.67517, 18.8073, -152.417, -95.4902, 102.319
1.27933, -1, -10.9705, 7.6326, 18.8178, -152.466, -95.4731, 102.032
1.28734, -1, -11.128, 7.5901, 18.8282, -152.515, -95.4557, 101.744
1.29547, -1, -11.2855, 7.54759, 18.8387, -152.564, -95.438, 101.457
1.30335, -1, -11.4429, 7.5051, 18.8492, -152.614, -95.4202, 101.17
1.31141, -1, -11.6005, 7.46263, 18.8597, -152.663, -95.4026, 100.882
1.31933, -1, -11.7583, 7.4202, 18.8704, -152.712, -95.3852, 100.594
1.32734, -1, -11.9167, 7.37776, 18.8809, -152.762, -95.3679, 100.306
1.33548, -1, -12.0754, 7.33538, 18.8915, -152.811, -95.3508, 100.019
1.34334, -1, -12.2346, 7.29298, 18.902, -152.861, -95.3335, 99.7309
1.35134, -1, -12.3942, 7.25056, 18.9125, -152.91, -95.316, 99.4428
1.35968, -1, -12.5541, 7.20814, 18.9231, -152.96, -95.2983, 99.1549
1.36739, -1, -12.7141, 7.1657, 18.9337, -153.009, -95.2803, 98.8671
1.37537, -1, -12.8742, 7.12324, 18.9442, -153.059, -95.2625, 98.5791
1.38413, -1, -13.0343, 7.08068, 18.9548, -153.108, -95.2449, 98.2909
1.39132, -1, -13.1942, 7.03809, 18.9653, -153.157, -95.2275, 98.0029
1.39933, -1, -13.354, 6.99546, 18.9759, -153.207, -95.2104, 97.7149
1.40814, -1, -13.5135, 6.95272, 18.9865, -153.256, -95.1933, 97.4264
1.41538, -1, -13.6727, 6.90994, 18.9971, -153.305, -95.176, 97.1375
1.42334, -1, -13.8318, 6.86721, 19.0076, -153.355, -95.1585, 96.8491
1.43226, -1, -13.9903, 6.82451, 19.0181, -153.404, -95.1406, 96.5607
1.43939, -1, -14.1485, 6.7818, 19.0286, -153.454, -95.1228, 96.2719
1.44739, -1, -14.3067, 6.73917, 19.0392, -153.503, -95.1053, 95.9829
1.45637, -1, -14.4649, 6.69647, 19.0497, -153.553, -95.0879, 95.6939
1.46346, -1, -14.6233, 6.65386, 19.0603, -153.602, -95.0707, 95.4049
1.4715, -1, -14.7822, 6.61133, 19.0708, -153.652, -95.0535, 95.1156
1.48054, -1, -14.9414, 6.56873, 19.0815, -153.701, -95.0362, 94.8263
1.48746, -1, -15.1009, 6.5261, 19.0922, -153.751, -95.0186, 94.5373
1.49556, -1, -15.2609, 6.48355, 19.1029, -153.801, -95.0008, 94.2482
1.50481, -1, -15.4211, 6.44093, 19.1136, -153.85, -94.9827, 93.9589
1.51136, -1, -15.5818, 6.39822, 19.1242, -153.9, -94.9649, 93.6696
1.51944, -1, -15.7425, 6.35552, 19.1348, -153.95, -94.9474, 93.3805
1.52903, -1, -15.9032, 6.31271, 19.1455, -153.999, -94.9301, 93.0912
1.53632, -1, -16.0642, 6.26983, 19.1561, -154.049, -94.9129, 92.8015
1.54386, -1, -16.2249, 6.22702, 19.1666, -154.099, -94.8958, 92.5118
1.55321, -1, -16.3855, 6.18404, 19.1771, -154.148, -94.8784, 92.2223
1.55981, -1, -16.546, 6.14103, 19.1876, -154.198, -94.8607, 91.9325
1.56781, -1, -16.7061, 6.09811, 19.1982, -154.248, -94.8428, 91.6423
1.57744, -1, -16.8657, 6.05513, 19.2089, -154.297, -94.8251, 91.3521
1.58391, -1, -17.0251, 6.01217, 19.2196, -154.347, -94.8075, 91.0619
1.59249, -1, -17.1843, 5.96919, 19.2301, -154.397, -94.7901, 90.7717
1.60142, -1, -17.3433, 5.92631, 19.2407, -154.446, -94.7727, 90.4811
1.60798, -1, -17.5025, 5.88349, 19.2514, -154.497, -94.7554, 90.1908
1.61596, -1, -17.5821, 5.86209, 19.2621, -154.546, -94.738, 89.9007
1.62333, -1, -17.7415, 5.8193, 19.2674, -154.571, -94.7291, 89.7554
1.63198, -1, -17.9011, 5.77657, 19.2781, -154.621, -94.7111, 89.3197
1.63932, -1, -18.0612, 5.7338, 19.2887, -154.671, -94.693, 89.1744
1.64732, -1, -18.2217, 5.69102, 19.2993, -154.721, -94.6751, 88.884
1.65537, -1, -18.3826, 5.64826, 19.31, -154.771, -94.6575, 88.5934
1.66333, -1, -18.544, 5.60536, 19.3208, -154.821, -94.6402, 88.3022
1.67133, -1, -18.7055, 5.5624, 19.3315, -154.871, -94.6229, 88.0114
1.67937, -1, -18.8671, 5.51948, 19.3421, -154.921, -94.6056, 87.7205
1.68904, -1, -19.1096, 5.45488, 19.3579, -154.995, -94.5792, 87.2837
1.69838, -1, -19.2712, 5.41174, 19.3686, -155.045, -94.5612, 86.9921
1.70339, -1, -19.3519, 5.3902, 19.3739, -155.071, -94.5521, 86.8464
1.71285, -1, -19.5937, 5.32541, 19.3898, -155.145, -94.5252, 86.4093
1.72282, -1, -19.7544, 5.28222, 19.4004, -155.195, -94.5076, 86.1175
1.72732, -1, -19.8347, 5.26065, 19.4057, -155.22, -94.4988, 85.9717
1.7372, -1, -19.9952, 5.2175, 19.4218, -155.295, -94.4727, 85.5345
1.74341, -1, -20.1552, 5.17434, 19.4273, -155.32, -94.4639, 85.3887
1.75291, -1, -20.315, 5.1314, 19.4381, -155.37, -94.4464, 85.097
1.76032, -1, -20.4749, 5.0884, 19.4489, -155.42, -94.4286, 84.8052
1.76739, -1, -20.635, 5.04534, 19.4596, -155.47, -94.4105, 84.5136
1.77535, -1, -20.7953, 5.00245, 19.4704, -155.521, -94.3925, 84.2217
1.78333, -1, -20.956, 4.9595, 19.4811, -155.571, -94.3747, 83.9295
1.79139, -1, -21.117, 4.91642, 19.4917, -155.621, -94.3573, 83.6374
1.79934, -1, -21.2785, 4.87337, 19.5024, -155.671, -94.3399, 83.3456
1.80739, -1, -21.4405, 4.83019, 19.513, -155.721, -94.3227, 83.0534
1.81532, -1, -21.6026, 4.78694, 19.5237, -155.772, -94.3054, 82.7608
1.82334, -1, -21.7649, 4.74375, 19.5345, -155.822, -94.2877, 82.4681
1.83139, -1, -21.9274, 4.70037, 19.5452, -155.872, -94.2697, 82.1756
1.83931, -1, -22.0899, 4.65696, 19.556, -155.922, -94.2517, 81.8829
1.84732, -1, -22.2524, 4.61362, 19.5667, -155.972, -94.2339, 81.5899
1.85539, -1, -22.4147, 4.57019, 19.5773, -156.022, -94.2164, 81.2972
1.86333, -1, -22.5768, 4.52678, 19.5881, -156.073, -94.1989, 81.0045
1.87137, -1, -22.7385, 4.48332, 19.5987, -156.123, -94.1814, 80.7116
1.87939, -1, -22.8998, 4.43992, 19.6095, -156.173, -94.1638, 80.4184
1.88731, -1, -23.061, 4.39658, 19.6202, -156.224, -94.146, 80.1254
1.89532, -1, -23.222, 4.3533, 19.6309, -156.274, -94.1278, 79.8325
1.90343, -1, -23.3828, 4.30999, 19.6418, -156.324, -94.1095, 79.539
1.91131, -1, -23.5437, 4.26673, 19.6526, -156.375, -94.0915, 79.2455
1.91951, -1, -23.7048, 4.22345, 19.6634, -156.425, -94.0737, 78.9523
1.92732, -1, -23.8659, 4.18019, 19.6742, -156.475, -94.0561, 78.6589
1.93532, -1, -24.0274, 4.13682, 19.6849, -156.526, -94.0387, 78.365
1.9436, -1, -24.1894, 4.09344, 19.6956, -156.576, -94.0213, 78.0711
1.95141, -1, -24.3518, 4.05005, 19.7063, -156.627, -94.0035, 77.7773
1.95948, -1, -24.5147, 4.00655, 19.717, -156.677, -93.9855, 77.4833
1.96776, -1, -24.6777, 3.96296, 19.7276, -156.727, -93.9674, 77.1888
1.97543, -1, -24.841, 3.91938, 19.7383, -156.778, -93.9494, 76.8949
1.98343, -1, -25.0044, 3.87583, 19.7491, -156.828, -93.9316, 76.6009
1.99197, -1, -25.1678, 3.83223, 19.7601, -156.878, -93.9141, 76.3067
2.00038, -1, -25.331, 3.78864, 19.771, -156.929, -93.8966, 76.0121
2.00734, -1, -25.494, 3.745, 19.7818, -156.98, -93.879, 75.7179
2.01616, -1, -25.6567, 3.70132, 19.7925, -157.03, -93.8613, 75.4235
2.0234, -1, -25.8192, 3.65781, 19.8032, -157.081, -93.8431, 75.1286
2.03146, -1, -25.9815, 3.61434, 19.814, -157.131, -93.8247, 74.8339
2.04043, -1, -26.1435, 3.5708, 19.8248, -157.181, -93.8065, 74.5394
2.04758, -1, -26.3051, 3.52739, 19.8356, -157.232, -93.7885, 74.2447
2.05568, -1, -26.4667, 3.48401, 19.8463, -157.282, -93.7708, 73.9496
2.06454, -1, -26.6286, 3.44049, 19.8571, -157.333, -93.7531, 73.6544
2.0718, -1, -26.7907, 3.39705, 19.868, -157.384, -93.7356, 73.3594
2.08047, -1, -26.9531, 3.35352, 19.8788, -157.434, -93.7178, 73.0641
2.08867, -1, -27.1158, 3.3099, 19.8897, -157.485, -93.6996, 72.7685
2.09592, -1, -27.2788, 3.26636, 19.9004, -157.536, -93.6813, 72.4732
2.10448, -1, -27.4423, 3.22263, 19.9111, -157.586, -93.6631, 72.178
2.1127, -1, -27.5242, 3.17884, 19.922, -157.637, -93.6452, 71.8825
2.11997, -1, -27.6881, 3.15701, 19.9327, -157.688, -93.6274, 71.5868
2.1273, -1, -27.8522, 3.11338, 19.9381, -157.713, -93.6185, 71.4389
2.13716, -1, -28.0984, 3.04781, 19.9543, -157.789, -93.592, 70.9955
2.14338, -1, -28.1805, 3.02594, 19.9597, -157.815, -93.5831, 70.8474
2.1513, -1, -28.3448, 2.98224, 19.9705, -157.865, -93.5651, 70.5514
2.1593, -1, -28.5088, 2.93852, 19.9814, -157.916, -93.5467, 70.2555
2.16735, -1, -28.6726, 2.89487, 19.9923, -157.967, -93.5282, 69.9597
2.17667, -1, -28.9177, 2.82926, 20.0085, -158.043, -93.501, 69.5151
2.18331, -1, -28.9991, 2.80739, 20.0138, -158.068, -93.492, 69.3668
2.19135, -1, -29.1619, 2.76374, 20.0246, -158.119, -93.4743, 69.0705
2.20093, -1, -29.4059, 2.69821, 20.0408, -158.195, -93.4478, 68.6256
2.20967, -1, -29.5687, 2.65448, 20.0517, -158.247, -93.43, 68.3286
2.21537, -1, -29.6501, 2.63258, 20.0571, -158.272, -93.421, 68.1801
2.22489, -1, -29.8946, 2.56689, 20.0733, -158.348, -93.3935, 67.7353
2.23374, -1, -30.0578, 2.52309, 20.0843, -158.4, -93.3751, 67.4386
2.23938, -1, -30.1395, 2.50109, 20.0898, -158.425, -93.366, 67.29
2.2473, -1, -30.3034, 2.45708, 20.1007, -158.475, -93.348, 66.9929
2.25631, -1, -30.4677, 2.41314, 20.1117, -158.527, -93.3302, 66.696
2.26338, -1, -30.6324, 2.36908, 20.1225, -158.577, -93.3124, 66.3989
2.27236, -1, -30.7974, 2.32509, 20.1333, -158.628, -93.2946, 66.1015
2.28036, -1, -30.9625, 2.28112, 20.1442, -158.68, -93.2765, 65.8042
2.28736, -1, -31.1276, 2.23703, 20.1551, -158.73, -93.2581, 65.5072
2.29531, -1, -31.2927, 2.19306, 20.1659, -158.782, -93.2396, 65.2097
2.30331, -1, -31.4576, 2.14916, 20.1767, -158.833, -93.2214, 64.9118
2.31131, -1, -31.6222, 2.10512, 20.1875, -158.884, -93.2033, 64.6141
2.3193, -1, -31.7867, 2.06112, 20.1985, -158.935, -93.1855, 64.3163
2.32747, -1, -31.951, 2.01718, 20.2095, -158.986, -93.1679, 64.018
2.3353, -1, -32.1149, 1.97316, 20.2204, -159.037, -93.1503, 63.7198
2.3433, -1, -32.2786, 1.92912, 20.2314, -159.089, -93.1324, 63.422
2.35138, -1, -32.442, 1.8851, 20.2422, -159.14, -93.1142, 63.1242
2.3593, -1, -32.6057, 1.84096, 20.2532, -159.191, -93.0958, 62.8259
2.3673, -1, -32.7696, 1.79689, 20.2641, -159.243, -93.0776, 62.5276
2.37543, -1, -32.9336, 1.75277, 20.275, -159.294, -93.0596, 62.2294
2.3833, -1, -33.0979, 1.70851, 20.2859, -159.344, -93.0417, 61.931
2.39133, -1, -33.2625, 1.66432, 20.2967, -159.396, -93.0239, 61.6321
2.39937, -1, -33.4275, 1.62012, 20.3077, -159.447, -93.006, 61.3336
2.40732, -1, -33.593, 1.57585, 20.3187, -159.498, -92.9879, 61.0352
2.41549, -1, -33.7587, 1.5316, 20.3296, -159.55, -92.9695, 60.7362
2.4233, -1, -33.9246, 1.48736, 20.3405, -159.601, -92.9507, 60.437
2.43131, -1, -34.0905, 1.44316, 20.3514, -159.652, -92.9323, 60.138
2.43937, -1, -34.2565, 1.39901, 20.3623, -159.704, -92.9141, 59.8386
2.44735, -1, -34.4226, 1.35478, 20.3733, -159.755, -92.8962, 59.5389
2.45538, -1, -34.5885, 1.31059, 20.3842, -159.807, -92.8784, 59.2393
2.46346, -1, -34.754, 1.26643, 20.3951, -159.858, -92.8606, 58.9401
2.47144, -1, -34.9191, 1.2222, 20.406, -159.909, -92.8425, 58.6405
2.47946, -1, -35.084, 1.17795, 20.4171, -159.961, -92.8242, 58.3408
2.48744, -1, -35.2486, 1.13364, 20.4282, -160.012, -92.8056, 58.041
2.49535, -1, -35.413, 1.08938, 20.4393, -160.063, -92.7871, 57.7413
2.50342, -1, -35.5762, 1.04539, 20.4505, -160.115, -92.7689, 57.4415
2.51137, -1, -35.7373, 1.0018, 20.4618, -160.166, -92.7509, 57.1419
2.51937, -1, -35.8951, 0.959074, 20.4735, -160.217, -92.7331, 56.8449
2.52743, -1, -36.0483, 0.917746, 20.4854, -160.267, -92.7155, 56.5522
2.53579, -1, -36.1953, 0.878285, 20.4974, -160.315, -92.6981, 56.2673
2.54355, -1, -36.3335, 0.84146, 20.5092, -160.362, -92.6812, 55.9955
2.55162, -1, -36.4613, 0.807657, 20.5203, -160.405, -92.6653, 55.7434
2.56022, -1, -36.5771, 0.777006, 20.5304, -160.443, -92.6511, 55.5169
2.56768, -1, -36.6793, 0.750029, 20.5388, -160.476, -92.6389, 55.321
2.57584, -1, -36.7668, 0.726817, 20.545, -160.503, -92.629, 55.1599
2.58445, -1, -36.8399, 0.707477, 20.5489, -160.525, -92.6214, 55.0338
2.59184, -1, -36.8998, 0.691775, 20.551, -160.541, -92.6159, 54.9418
2.60044, -1, -36.9466, 0.679355, 20.5518, -160.552, -92.6123, 54.8779
2.60811, -1, -36.9815, 0.670044, 20.5519, -160.559, -92.6101, 54.8368
2.61617, -1, -36.9951, 0.663681, 20.5515, -160.564, -92.6088, 54.8127
2.62386, -1, -37.0155, 0.661428, 20.5513, -160.565, -92.6081, 54.7999
2.63236, -1, -37.0318, 0.65746, 20.5509, -160.567, -92.6078, 54.7936
2.63931, 2, -37.0345, 0.656816, 20.5508, -160.568, -92.6077, 54.7918
2.64733, 2, -37.0368, 0.656103, 20.5507, -160.568, -92.6076, 54.7899
2.6553, 2, -37.0366, 0.655795, 20.5507, -160.568, -92.6076, 54.789
2.66329, 2, -37.0359, 0.65567, 20.5507, -160.568, -92.6076, 54.7886
2.67249, 2, -37.0358, 0.6556, 20.5507, -160.568, -92.6076, 54.7884
2.6793, 2, -37.0361, 0.655582, 20.5506, -160.568, -92.6076, 54.7883
2.68729, 2, -37.0371, 0.655543, 20.5506, -160.568, -92.6076, 54.7883
2.6967, 2, -37.0389, 0.655349, 20.5504, -160.568, -92.6076, 54.7884
2.70329, 2, -37.0397, 0.655248, 20.5503, -160.568, -92.6077, 54.7884
2.71135, 2, -37.0411, 0.655005, 20.5501, -160.568, -92.6077, 54.7885
2.72087, 2, -37.0428, 0.654605, 20.5498, -160.568, -92.6077, 54.7886
2.72913, 2, -37.0435, 0.654426, 20.5496, -160.568, -92.6077, 54.7886
2.73529, 2, -37.0437, 0.654388, 20.5495, -160.568, -92.6078, 54.7887
2.74489, 2, -37.0437, 0.654328, 20.5494, -160.568, -92.6079, 54.7889
2.7534, 2, -37.0429, 0.654341, 20.5492, -160.568, -92.6079, 54.789
2.75929, 2, -37.0424, 0.654368, 20.5492, -160.568, -92.6079, 54.7891
2.76828, 2, -37.0415, 0.654434, 20.5491, -160.568, -92.608, 54.7892
2.77531, 2, -37.0399, 0.654515, 20.5491, -160.568, -92.608, 54.7894
2.78331, 2, -37.0384, 0.654606, 20.549, -160.568, -92.608, 54.7896
2.79134, 2, -37.0373, 0.654653, 20.5489, -160.568, -92.608, 54.7897
2.79931, 2, -37.0366, 0.65467, 20.5489, -160.568, -92.6081, 54.7898
2.8073, 2, -37.0364, 0.654648, 20.5488, -160.568, -92.6081, 54.7898
2.81533, 2, -37.0364, 0.654611, 20.5488, -160.568, -92.608, 54.7899
2.8233, 2, -37.0367, 0.654541, 20.5488, -160.568, -92.608, 54.7899
2.83133, 2, -37.0369, 0.654477, 20.5488, -160.568, -92.608, 54.7899
2.83933, 2, -37.0374, 0.65443, 20.5488, -160.568, -92.6081, 54.7899
2.8473, 2, -37.0381, 0.654408, 20.5487, -160.568, -92.6081, 54.79
2.85529, 2, -37.0389, 0.654398, 20.5487, -160.568, -92.6081, 54.79
2.86333, 2, -37.0395, 0.654412, 20.5487, -160.568, -92.6081, 54.7901
2.87131, 2, -37.0399, 0.654429, 20.5487, -160.568, -92.6082, 54.7901
2.87932, 2, -37.0402, 0.654464, 20.5487, -160.568, -92.6082, 54.7901
2.88733, 2, -37.0402, 0.654496, 20.5487, -160.568, -92.6081, 54.7902
2.89531, 2, -37.0402, 0.654507, 20.5487, -160.568, -92.6081, 54.7902
2.90328, 2, -37.0398, 0.654504, 20.5487, -160.568, -92.6082, 54.7903
2.91136, 2, -37.0393, 0.654503, 20.5487, -160.568, -92.6082, 54.7904
2.91932, 2, -37.0391, 0.654496, 20.5487, -160.568, -92.6081, 54.7904
2.92728, 2, -37.0389, 0.654476, 20.5487, -160.568, -92.6082, 54.7904
2.93533, 2, -37.0388, 0.654466, 20.5487, -160.568, -92.6082, 54.7905
2.94332, 2, -37.0387, 0.654478, 20.5487, -160.568, -92.6082, 54.7906
2.95135, 2, -37.0387, 0.654449, 20.5487, -160.568, -92.6083, 54.7906
2.95943, 2, -37.0388, 0.654453, 20.5486, -160.568, -92.6082, 54.7906
2.96741, 2, -37.0388, 0.654455, 20.5486, -160.568, -92.6082, 54.7906
2.97541, 2, -37.0389, 0.654464, 20.5486, -160.568, -92.6082, 54.7908
2.98345, 2, -37.0391, 0.654485, 20.5486, -160.568, -92.6082, 54.7909
2.99144, 2, -37.0393, 0.654494, 20.5486, -160.568, -92.6082, 54.791
2.99935, 2, -37.0394, 0.654499, 20.5486, -160.568, -92.6082, 54.791
3.00734, 2, -37.0395, 0.654501, 20.5486, -160.568, -92.6083, 54.791
3.01534, 2, -37.0395, 0.654502, 20.5486, -160.568, -92.6082, 54.791
3.02331, 2, -37.0395, 0.65449, 20.5486, -160.568, -92.6083, 54.7911
3.03142, 2, -37.0395, 0.654489, 20.5486, -160.568, -92.6083, 54.7911
3.03981, 2, -37.0395, 0.654472, 20.5486, -160.568, -92.6083, 54.7912
3.0483, 2, -37.0394, 0.654464, 20.5485, -160.568, -92.6083, 54.7912
3.05559, 2, -37.0394, 0.654468, 20.5485, -160.568, -92.6083, 54.7912
3.06405, 2, -37.0394, 0.654467, 20.5485, -160.568, -92.6083, 54.7913
3.07232, 2, -37.0394, 0.654474, 20.5485, -160.568, -92.6083, 54.7913
3.07982, 2, -37.0394, 0.654465, 20.5485, -160.568, -92.6083, 54.7914
3.08845, 2, -37.0393, 0.65448, 20.5485, -160.568, -92.6083, 54.7915
3.09579, 2, -37.0393, 0.65448, 20.5485, -160.568, -92.6083, 54.7915
3.10438, 2, -37.0393, 0.654492, 20.5485, -160.568, -92.6084, 54.7916
3.11218, 2, -37.0393, 0.654516, 20.5485, -160.568, -92.6084, 54.7916
3.11989, 2, -37.0393, 0.654512, 20.5485, -160.568, -92.6084, 54.7916
3.12786, 2, -37.0393, 0.654495, 20.5484, -160.568, -92.6084, 54.7917
3.13638, 2, -37.0393, 0.6545, 20.5484, -160.568, -92.6084, 54.7917
3.14329, 2, -37.0393, 0.654501, 20.5484, -160.568, -92.6084, 54.7917
3.15237, 2, -37.0393, 0.654481, 20.5484, -160.568, -92.6084, 54.7918
3.15928, 2, -37.0393, 0.654481, 20.5484, -160.568, -92.6084, 54.7918
3.16727, 2, -37.0393, 0.65448, 20.5484, -160.568, -92.6084, 54.7919
3.17651, 2, -37.0392, 0.65448, 20.5484, -160.568, -92.6084, 54.792
3.18328, 2, -37.0392, 0.65448, 20.5484, -160.568, -92.6084, 54.792
3.19128, 2, -37.0392, 0.654468, 20.5484, -160.568, -92.6084, 54.792
3.20076, 2, -37.0392, 0.654488, 20.5484, -160.568, -92.6084, 54.7921
3.20926, 2, -37.0392, 0.654507, 20.5484, -160.568, -92.6084, 54.7921
3.21533, 2, -37.0392, 0.654516, 20.5484, -160.568, -92.6084, 54.7921
3.22483, 2, -37.0392, 0.654507, 20.5484, -160.568, -92.6084, 54.7921
3.23329, 2, -37.0392, 0.654505, 20.5483, -160.568, -92.6084, 54.7922
3.23927, 2, -37.0392, 0.654504, 20.5483, -160.568, -92.6084, 54.7922
3.24887, 2, -37.0392, 0.654503, 20.5483, -160.568, -92.6084, 54.7922
3.25721, 2, -37.0391, 0.654503, 20.5483, -160.568, -92.6084, 54.7923
3.26327, 2, -37.0391, 0.654503, 20.5483, -160.568, -92.6084, 54.7923
3.27133, 2, -37.0391, 0.654503, 20.5483, -160.568, -92.6084, 54.7923
3.28125, 2, -37.0391, 0.654503, 20.5482, -160.568, -92.6084, 54.7924
3.28729, 2, -37.0391, 0.654503, 20.5482, -160.568, -92.6085, 54.7924
3.29531, 2, -37.0391, 0.654503, 20.5482, -160.568, -92.6085, 54.7924
3.30328, 2, -37.0391, 0.654503, 20.5482, -160.568, -92.6085, 54.7925
3.3113, 2, -37.0391, 0.654503, 20.5482, -160.568, -92.6085, 54.7925
3.31931, 2, -37.0391, 0.654503, 20.5482, -160.568, -92.6085, 54.7925
3.32728, 2, -37.039, 0.654503, 20.5482, -160.568, -92.6085, 54.7925
3.33528, 2, -37.039, 0.654503, 20.5482, -160.568, -92.6085, 54.7925
3.34332, 2, -37.039, 0.654503, 20.5482, -160.568, -92.6085, 54.7926
3.3513, 2, -37.039, 0.654503, 20.5482, -160.568, -92.6085, 54.7927
3.35927, 2, -37.039, 0.654503, 20.5482, -160.568, -92.6085, 54.7926
3.36731, 2, -37.0389, 0.654495, 20.5482, -160.568, -92.6085, 54.7927
3.37529, 2, -37.0389, 0.654494, 20.5481, -160.568, -92.6085, 54.7927
3.38331, 2, -37.0389, 0.654499, 20.5481, -160.567, -92.6085, 54.7927
3.39132, 2, -37.0389, 0.654489, 20.5481, -160.567, -92.6085, 54.7927
3.39933, 2, -37.0389, 0.654496, 20.5481, -160.567, -92.6085, 54.7928
3.40727, 2, -37.0389, 0.6545, 20.5481, -160.567, -92.6084, 54.7928
3.41533, 2, -37.0389, 0.654501, 20.5481, -160.567, -92.6084, 54.7928
3.42329, 2, -37.0388, 0.65452, 20.5481, -160.567, -92.6085, 54.7929
3.43128, 2, -37.0388, 0.654511, 20.5481, -160.567, -92.6085, 54.7929
3.43932, 2, -37.0388, 0.654506, 20.5481, -160.567, -92.6086, 54.7929
3.44729, 2, -37.0388, 0.654504, 20.5481, -160.567, -92.6085, 54.7929
3.45532, 2, -37.0387, 0.654503, 20.5481, -160.567, -92.6085, 54.7929
3.46345, 2, -37.0388, 0.654503, 20.548, -160.567, -92.6085, 54.7929
3.47139, 2, -37.0388, 0.654503, 20.548, -160.567, -92.6085, 54.7929
3.47939, 2, -37.0388, 0.654503, 20.548, -160.567, -92.6086, 54.793
3.48743, 2, -37.0388, 0.654503, 20.548, -160.567, -92.6086, 54.793
3.49538, 2, -37.0387, 0.654503, 20.548, -160.567, -92.6086, 54.793
3.50327, 2, -37.0387, 0.654503, 20.548, -160.567, -92.6086, 54.7929
3.51133, 2, -37.0387, 0.654503, 20.548, -160.567, -92.6086, 54.793
3.51932, 2, -37.0387, 0.654503, 20.548, -160.567, -92.6085, 54.793
3.52767, 2, -37.0387, 0.654503, 20.548, -160.567, -92.6085, 54.793
3.53548, 2, -37.0387, 0.654503, 20.548, -160.567, -92.6085, 54.7931
3.54346, 2, -37.0387, 0.654503, 20.548, -160.567, -92.6086, 54.7931
3.55159, 2, -37.0386, 0.654521, 20.5479, -160.567, -92.6086, 54.7931
3.55958, 2, -37.0387, 0.654511, 20.5479, -160.567, -92.6085, 54.7931
3.56761, 2, -37.0386, 0.654517, 20.5479, -160.567, -92.6085, 54.7931
3.57592, 2, -37.0386, 0.654517, 20.5479, -160.567, -92.6086, 54.7931
3.58434, 2, -37.0387, 0.654509, 20.5479, -160.567, -92.6086, 54.7931
3.59184, 2, -37.0386, 0.654506, 20.5479, -160.567, -92.6086, 54.7931
3.60043, 2, -37.0386, 0.654504, 20.5479, -160.567, -92.6086, 54.7931
3.60785, 2, -37.0386, 0.654514, 20.5479, -160.567, -92.6085, 54.7931
3.61643, 2, -37.0386, 0.654515, 20.5479, -160.567, -92.6086, 54.7931
3.62409, 2, -37.0386, 0.654511, 20.5479, -160.567, -92.6086, 54.7931
3.63184, 2, -37.0386, 0.654506, 20.5479, -160.567, -92.6086, 54.7931
3.64071, 2, -37.0386, 0.654515, 20.5478, -160.567, -92.6086, 54.7931
3.64951, 2, -37.0385, 0.654545, 20.5478, -160.567, -92.6086, 54.7932
3.65533, 2, -37.0385, 0.654542, 20.5478, -160.567, -92.6086, 54.7932
3.66326, 2, -37.0385, 0.65455, 20.5478, -160.567, -92.6086, 54.7931
3.67127, 2, -37.0386, 0.654532, 20.5478, -160.567, -92.6086, 54.7931
3.67931, 2, -37.0385, 0.654527, 20.5478, -160.567, -92.6086, 54.7932
3.68726, 2, -37.0385, 0.654521, 20.5478, -160.567, -92.6087, 54.7931
3.69525, 2, -37.0385, 0.654522, 20.5478, -160.567, -92.6087, 54.7932
3.70328, 2, -37.0385, 0.654548, 20.5478, -160.567, -92.6087, 54.7932
3.71281, 2, -37.0384, 0.654534, 20.5478, -160.567, -92.6087, 54.7931
3.72144, 2, -37.0385, 0.654528, 20.5478, -160.567, -92.6087, 54.7932
3.72729, 4, -37.0385, 0.654542, 20.5478, -160.567, -92.6087, 54.7932
3.73687, 4, -37.0384, 0.654543, 20.5477, -160.567, -92.6087, 54.7932
3.74517, 4, -37.0384, 0.654547, 20.5478, -160.567, -92.6086, 54.7932
3.75134, 4, -37.0384, 0.654562, 20.5477, -160.567, -92.6086, 54.7932
3.76101, 4, -37.0384, 0.654566, 20.5477, -160.567, -92.6087, 54.7932
3.76726, 4, -37.0384, 0.654569, 20.5477, -160.567, -92.6087, 54.7932
3.77532, 4, -37.0384, 0.654559, 20.5477, -160.567, -92.6087, 54.7932
3.78326, 4, -37.0383, 0.65457, 20.5477, -160.567, -92.6087, 54.7932
3.79129, 4, -37.0383, 0.654552, 20.5477, -160.567, -92.6086, 54.7932
3.79932, 4, -37.0383, 0.654551, 20.5477, -160.567, -92.6087, 54.7932
3.80726, 4, -37.0383, 0.654543, 20.5477, -160.567, -92.6087, 54.7932
3.81527, 4, -37.0383, 0.654521, 20.5477, -160.567, -92.6087, 54.7932
3.82331, 4, -37.0382, 0.654529, 20.5477, -160.567, -92.6087, 54.7932
3.85075, 4, -37.0383, 0.654544, 20.5476, -160.567, -92.6087, 54.7932
3.85255, 4, -37.0383, 0.654553, 20.5476, -160.567, -92.6087, 54.7932
3.85534, 4, -37.0383, 0.654558, 20.5476, -160.567, -92.6087, 54.7932
3.85786, 4, -37.0383, 0.654562, 20.5476, -160.567, -92.6087, 54.7932
3.86482, 4, -37.0382, 0.654565, 20.5476, -160.567, -92.6087, 54.7932
3.87513, 4, -37.0379, 0.654521, 20.5476, -160.567, -92.6087, 54.7931
3.87944, 4, -37.0374, 0.654413, 20.5476, -160.567, -92.6087, 54.7931
3.88825, 4, -37.0349, 0.653459, 20.5478, -160.567, -92.6087, 54.7932
3.89627, 4, -37.029, 0.650539, 20.5486, -160.567, -92.6087, 54.7932
3.90346, 4, -37.0194, 0.644572, 20.5511, -160.567, -92.6087, 54.7932
3.91126, 4, -37.006, 0.634985, 20.5565, -160.566, -92.6088, 54.7932
3.91929, 4, -36.9878, 0.621301, 20.5661, -160.564, -92.6088, 54.7932
3.92733, 5, -36.9639, 0.603046, 20.5816, -160.561, -92.6087, 54.7931
3.93525, 5, -36.9347, 0.580437, 20.6036, -160.557, -92.6085, 54.7931
3.94325, 5, -36.9007, 0.553257, 20.6323, -160.551, -92.6081, 54.7931
3.95151, 5, -36.8619, 0.521774, 20.6678, -160.543, -92.6075, 54.7931
3.9604, 5, -36.818, 0.4854, 20.7091, -160.534, -92.6063, 54.7931
3.96734, 5, -36.7689, 0.444523, 20.7554, -160.523, -92.6049, 54.793
3.97558, 5, -36.7148, 0.399604, 20.8056, -160.512, -92.6033, 54.793
3.98431, 5, -36.6564, 0.351402, 20.8583, -160.5, -92.6016, 54.7929
3.99136, 5, -36.594, 0.300807, 20.9126, -160.488, -92.5998, 54.7929
3.99944, 5, -36.5283, 0.248343, 20.9677, -160.476, -92.598, 54.7929
4.00726, 5, -36.4611, 0.194951, 21.0231, -160.463, -92.5962, 54.7929
4.01527, 5, -36.3928, 0.141196, 21.0786, -160.451, -92.5943, 54.7929
4.02364, 5, -36.3241, 0.0872623, 21.1341, -160.439, -92.5924, 54.7929
4.03223, 5, -36.2552, 0.0333722, 21.1895, -160.428, -92.5905, 54.7929
4.03948, 5, -36.1862, -0.0203301, 21.2449, -160.415, -92.5885, 54.793
4.04931, 5, -36.1175, -0.0737674, 21.3003, -160.403, -92.5865, 54.7931
4.05589, 5, -36.0489, -0.127027, 21.3556, -160.391, -92.5846, 54.7932
4.06363, 5, -35.9802, -0.180021, 21.4108, -160.378, -92.5826, 54.7933
4.07161, 5, -35.9117, -0.232834, 21.466, -160.365, -92.5806, 54.7935
4.07969, 5, -35.8431, -0.285443, 21.5211, -160.352, -92.5786, 54.7939
4.08842, 5, -35.7742, -0.338069, 21.5761, -160.339, -92.5766, 54.7944
4.09577, 5, -35.7051, -0.39073, 21.631, -160.327, -92.5746, 54.7952
4.1046, 5, -35.6357, -0.443367, 21.6856, -160.314, -92.5726, 54.7962
4.11184, 5, -35.566, -0.496116, 21.74, -160.302, -92.5705, 54.7973
4.12041, 5, -35.4961, -0.548846, 21.7943, -160.289, -92.5685, 54.7987
4.12854, 5, -35.4259, -0.601614, 21.8484, -160.277, -92.5665, 54.8001
4.13619, 5, -35.3556, -0.654344, 21.9024, -160.264, -92.5644, 54.8017
4.14325, 5, -35.3203, -0.680695, 21.9294, -160.257, -92.5634, 54.8026
4.1526, 5, -35.2145, -0.759626, 22.0101, -160.238, -92.5602, 54.8053
4.1605, 5, -35.1438, -0.811863, 22.0638, -160.224, -92.5581, 54.8073
4.16724, 5, -35.1085, -0.837976, 22.0906, -160.218, -92.5571, 54.8083
4.1768, 5, -35.0025, -0.915984, 22.1708, -160.198, -92.5539, 54.8116
4.18476, 5, -34.9673, -0.967633, 22.2241, -160.185, -92.5518, 54.8141
4.19127, 5, -34.8968, -0.993403, 22.2507, -160.178, -92.5507, 54.8153
4.20179, 5, -34.791, -1.0704, 22.3305, -160.159, -92.5473, 54.8192
4.2074, 5, -34.7557, -1.09607, 22.3569, -160.153, -92.5463, 54.8206
4.21524, 5, -34.685, -1.14743, 22.4097, -160.14, -92.544, 54.8233
4.22481, 5, -34.5786, -1.22429, 22.4886, -160.12, -92.5407, 54.8277
4.23125, 5, -34.543, -1.24998, 22.5147, -160.114, -92.5396, 54.8292
4.24082, 5, -34.4362, -1.32691, 22.5931, -160.094, -92.5362, 54.834
4.2473, 5, -34.4004, -1.35255, 22.6192, -160.087, -92.5351, 54.8356
4.26221, 5, -34.2571, -1.45504, 22.723, -160.059, -92.5306, 54.8424
4.26355, 5, -34.2571, -1.45504, 22.723, -160.059, -92.5306, 54.8424
4.27132, 5, -34.1852, -1.50606, 22.7749, -160.045, -92.5283, 54.8459
4.28111, 5, -34.1132, -1.55686, 22.8265, -160.032, -92.5259, 54.8495
4.2873, 5, -34.0411, -1.60751, 22.878, -160.018, -92.5237, 54.8534
4.2953, 5, -33.9689, -1.65794, 22.9294, -160.005, -92.5213, 54.8572
4.30324, 5, -33.8966, -1.70807, 22.9807, -159.991, -92.5189, 54.8613
4.31125, 5, -33.8245, -1.75806, 23.0318, -159.978, -92.5167, 54.8655
4.31931, 5, -33.7523, -1.80802, 23.0827, -159.964, -92.5144, 54.8697
4.32864, 5, -33.68, -1.85785, 23.1335, -159.95, -92.5121, 54.8739
4.33538, 5, -33.6076, -1.90766, 23.1841, -159.935, -92.5098, 54.8783
4.34336, 5, -33.535, -1.9577, 23.2346, -159.921, -92.5075, 54.8825
4.35124, 5, -33.4622, -2.00802, 23.285, -159.907, -92.5052, 54.8864
4.36025, 5, -33.3894, -2.05868, 23.3354, -159.893, -92.503, 54.8895
4.3682, 6, -33.3169, -2.10984, 23.3858, -159.879, -92.5006, 54.8911
4.37523, 6, -33.2447, -2.16156, 23.4365, -159.864, -92.498, 54.8913
4.38446, 6, -33.1728, -2.21417, 23.4876, -159.85, -92.4949, 54.8895
4.39198, 6, -33.1012, -2.26766, 23.5393, -159.834, -92.4912, 54.8845
4.40021, 7, -33.0301, -2.32214, 23.592, -159.817, -92.4864, 54.8741
4.40724, 7, -32.9594, -2.37779, 23.6458, -159.799, -92.4803, 54.8601
4.41524, 7, -32.8893, -2.43467, 23.7008, -159.78, -92.4724, 54.8436
4.42332, 7, -32.8197, -2.49302, 23.7572, -159.759, -92.4626, 54.8262
4.43149, 7, -32.7507, -2.55287, 23.815, -159.737, -92.4508, 54.8088
4.44026, 8, -32.6825, -2.61437, 23.874, -159.715, -92.4371, 54.7919
4.4476, 8, -32.6149, -2.6774, 23.9343, -159.69, -92.4217, 54.7752
4.45544, 8, -32.548, -2.74218, 23.9957, -159.665, -92.4042, 54.7581
4.4638, 8, -32.4818, -2.80859, 24.0581, -159.638, -92.3849, 54.7402
4.47133, 8, -32.4163, -2.87653, 24.1215, -159.61, -92.3641, 54.7209
4.47955, 9, -32.3514, -2.94588, 24.1858, -159.582, -92.3421, 54.6999
4.48774, 9, -32.287, -3.01654, 24.2512, -159.553, -92.3191, 54.6772
4.49534, 9, -32.2233, -3.08855, 24.3176, -159.522, -92.2948, 54.6526
4.50412, 9, -32.16, -3.16183, 24.385, -159.49, -92.2691, 54.6266
4.51319, 9, -32.0974, -3.23637, 24.4533, -159.458, -92.2414, 54.5994
4.51926, 9, -32.0353, -3.31226, 24.5226, -159.425, -92.2123, 54.5709
4.52818, 10, -31.9738, -3.38941, 24.5929, -159.391, -92.1822, 54.5407
4.53532, 10, -31.9129, -3.46802, 24.6643, -159.355, -92.1509, 54.5083
4.54349, 10, -31.8525, -3.5481, 24.7369, -159.319, -92.118, 54.4741
4.55425, 10, -31.7927, -3.62954, 24.8104, -159.282, -92.0831, 54.4385
4.55993, 10, -31.7335, -3.71245, 24.8849, -159.244, -92.0472, 54.4019
4.56755, 11, -31.6748, -3.79682, 24.9604, -159.205, -92.0105, 54.3639
4.5757, 11, -31.6167, -3.88272, 25.0368, -159.165, -91.9722, 54.3238
4.58406, 11, -31.5591, -3.97001, 25.1141, -159.125, -91.9317, 54.2818
4.59211, 11, -31.502, -4.05879, 25.1924, -159.082, -91.8905, 54.2388
4.59979, 11, -31.4455, -4.14907, 25.2718, -159.04, -91.8482, 54.1946
4.60834, 12, -31.3894, -4.24079, 25.3523, -158.997, -91.8037, 54.1486
4.61587, 12, -31.3338, -4.33387, 25.4338, -158.952, -91.758, 54.1004
4.62441, 12, -31.2787, -4.42833, 25.5164, -158.906, -91.7116, 54.0511
4.63213, 12, -31.2514, -4.52411, 25.6001, -158.86, -91.6633, 54.0006
4.64016, 12, -31.1971, -4.57255, 25.6423, -158.812, -91.6135, 53.9481
4.64728, 13, -31.1433, -4.6705, 25.7273, -158.788, -91.5885, 53.9211
4.6568, 13, -31.0636, -4.82005, 25.8566, -158.715, -91.5103, 53.8387
4.66701, 13, -31.0112, -4.92162, 25.9441, -158.665, -91.4566, 53.782
4.67117, 13, -30.9851, -4.97301, 25.9883, -158.639, -91.4295, 53.7529
4.6805, 13, -30.9078, -5.12923, 26.1225, -158.562, -91.345, 53.6638
4.68726, 14, -30.8822, -5.18198, 26.1678, -158.535, -91.3164, 53.6336
4.69669, 14, -30.8066, -5.34261, 26.3052, -158.454, -91.2289, 53.5397
4.70502, 14, -30.7569, -5.45148, 26.3978, -158.4, -91.1684, 53.4761
4.71339, 14, -30.7322, -5.50649, 26.4914, -158.344, -91.1072, 53.4109
4.71928, 14, -30.6832, -5.6177, 26.5385, -158.316, -91.0755, 53.3773
4.72893, 15, -30.6106, -5.78725, 26.6817, -158.231, -90.9795, 53.2755
4.73787, 15, -30.5628, -5.90192, 26.7787, -158.172, -90.9132, 53.2057
4.74481, 15, -30.5156, -6.01783, 26.8767, -158.114, -90.8465, 53.1343
4.7553, 15, -30.4689, -6.13528, 26.9758, -158.053, -90.778, 53.0621
4.75939, 15, -30.4457, -6.19454, 27.0256, -158.022, -90.7431, 53.0249
4.76721, 15, -30.3997, -6.31404, 27.1259, -157.961, -90.6729, 52.9495
4.77622, 16, -30.3543, -6.43515, 27.2272, -157.898, -90.6006, 52.8734
4.78437, 16, -30.3094, -6.55776, 27.3296, -157.835, -90.5279, 52.7948
4.79127, 16, -30.2649, -6.68168, 27.4332, -157.771, -90.4533, 52.7156
4.79926, 16, -30.2209, -6.8072, 27.538, -157.706, -90.3777, 52.6347
4.80722, 16, -30.1774, -6.93416, 27.6437, -157.64, -90.3004, 52.5525
4.81529, 17, -30.1344, -7.0628, 27.7503, -157.573, -90.2222, 52.4692
4.82325, 17, -30.0919, -7.19299, 27.8577, -157.505, -90.1424, 52.3843
4.8314, 17, -30.0499, -7.32461, 27.966, -157.436, -90.0611, 52.2987
4.84183, 17, -29.9879, -7.52442, 28.1309, -157.331, -89.9372, 52.1666
4.84828, 17, -29.9674, -7.5917, 28.1865, -157.296, -89.8951, 52.1223
4.85524, 18, -29.9269, -7.7274, 28.2984, -157.225, -89.8102, 52.0319
4.86326, 18, -29.887, -7.86452, 28.4112, -157.152, -89.7237, 51.9408
4.87127, 18, -29.8476, -8.00304, 28.5247, -157.079, -89.6365, 51.8477
4.87966, 18, -29.8084, -8.1427, 28.6393, -157.005, -89.5477, 51.7537
4.88921, 18, -29.7698, -8.28372, 28.7551, -156.93, -89.4575, 51.658
4.89527, 19, -29.7317, -8.42618, 28.8721, -156.854, -89.3666, 51.5615
4.90597, 19, -29.6941, -8.57023, 28.9902, -156.777, -89.274, 51.4634
4.91138, 19, -29.6568, -8.71583, 29.1091, -156.7, -89.1802, 51.3646
4.91931, 19, -29.62, -8.86274, 29.2287, -156.621, -89.0854, 51.2646
4.92724, 19, -29.5838, -9.01085, 29.3492, -156.541, -88.9895, 51.1637
4.93522, 20, -29.5481, -9.16049, 29.4708, -156.461, -88.8922, 51.0611
4.94335, 20, -29.5128, -9.31163, 29.5938, -156.38, -88.7943, 50.9575
4.95122, 20, -29.4778, -9.46426, 29.7177, -156.298, -88.6952, 50.8528
4.96037, 20, -29.4435, -9.6179, 29.8423, -156.215, -88.5947, 50.7466
4.96828, 20, -29.4095, -9.77277, 29.9679, -156.131, -88.4935, 50.6396
4.97533, 21, -29.3762, -9.92899, 30.0945, -156.046, -88.391, 50.5309
4.98364, 21, -29.343, -10.0868, 30.2221, -155.96, -88.2872, 50.4216
4.99134, 21, -29.3103, -10.2461, 30.3508, -155.874, -88.1828, 50.3112
4.99981, 21, -29.2781, -10.4062, 30.4804, -155.787, -88.0771, 50.1999
5.01158, 21, -29.2307, -10.6485, 30.6764, -155.654, -87.9166, 50.0315
5.01522, 22, -29.2151, -10.7299, 30.7421, -155.609, -87.8626, 49.9749
5.024, 22, -29.184, -10.894, 30.8744, -155.519, -87.7539, 49.8611
5.03246, 22, -29.1534, -11.0591, 31.0077, -155.428, -87.6443, 49.7465
5.04038, 22, -29.1232, -11.2251, 31.1418, -155.337, -87.5336, 49.6306
5.04744, 22, -29.0933, -11.3923, 31.2769, -155.244, -87.4218, 49.5142
5.05578, 23, -29.0639, -11.5612, 31.4128, -155.151, -87.3094, 49.3969
5.06435, 23, -29.0347, -11.7316, 31.5496, -155.056, -87.1957, 49.2788
5.07162, 23, -29.006, -11.9028, 31.6871, -154.961, -87.0813, 49.1603
5.08068, 23, -28.9776, -12.0748, 31.8255, -154.865, -86.9662, 49.0411
5.08862, 23, -28.9497, -12.2482, 31.9647, -154.768, -86.8499, 48.9212
5.09584, 23, -28.9221, -12.4233, 32.105, -154.671, -86.7328, 48.8008
5.10457, 24, -28.8949, -12.599, 32.2461, -154.572, -86.6147, 48.68
5.1118, 24, -28.8679, -12.7752, 32.3878, -154.472, -86.4958, 48.5584
5.12038, 24, -28.8414, -12.9525, 32.5301, -154.372, -86.3761, 48.4363
5.12966, 24, -28.8152, -13.1315, 32.6735, -154.271, -86.2554, 48.3134
5.13842, 25, -28.7893, -13.3116, 32.8179, -154.169, -86.1343, 48.1902
5.1443, 25, -28.7637, -13.492, 32.9628, -154.067, -86.0121, 48.0668
5.15127, 25, -28.751, -13.5825, 33.0355, -154.015, -85.9509, 48.005
5.16033, 25, -28.7132, -13.8562, 33.2545, -153.859, -85.7663, 47.8198
5.16721, 25, -28.7006, -13.9482, 33.3279, -153.807, -85.7041, 47.7579
5.17639, 25, -28.6637, -14.2247, 33.5494, -153.648, -85.5176, 47.5721
5.18336, 26, -28.6515, -14.317, 33.6235, -153.595, -85.4549, 47.5101
5.19141, 26, -28.6273, -14.5027, 33.7721, -153.488, -85.3293, 47.3858
5.20057, 26, -28.5917, -14.784, 33.9963, -153.326, -85.1399, 47.1993
5.2072, 26, -28.5798, -14.8779, 34.0714, -153.271, -85.0763, 47.1371
5.21674, 26, -28.5444, -15.16, 34.2977, -153.107, -84.8852, 46.9509
5.2248, 27, -28.5213, -15.3493, 34.449, -152.997, -84.7571, 46.8273
5.23325, 27, -28.4984, -15.5393, 34.601, -152.886, -84.6287, 46.704
5.23923, 27, -28.487, -15.6344, 34.6773, -152.83, -84.5641, 46.6423
5.24891, 27, -28.4531, -15.9203, 34.9072, -152.662, -84.3701, 46.4579
5.25709, 27, -28.4419, -16.1126, 35.0607, -152.549, -84.24, 46.3351
5.26346, 28, -28.4196, -16.2092, 35.1375, -152.492, -84.175, 46.274
5.27226, 28, -28.3973, -16.4029, 35.2916, -152.378, -84.0445, 46.152
5.28107, 28, -28.3751, -16.5968, 35.4466, -152.263, -83.9136, 46.0306
5.28736, 28, -28.3531, -16.7916, 35.602, -152.148, -83.7826, 45.9098
5.29619, 28, -28.331, -16.9874, 35.7575, -152.032, -83.651, 45.7897
5.30423, 29, -28.309, -17.1832, 35.9133, -151.915, -83.5195, 45.6706
5.31123, 29, -28.2871, -17.379, 36.0698, -151.797, -83.3874, 45.5523
5.31927, 29, -28.2653, -17.5758, 36.2269, -151.679, -83.2551, 45.4349
5.33063, 29, -28.2326, -17.8719, 36.4624, -151.501, -83.0559, 45.2608
5.33767, 29, -28.2218, -17.9706, 36.5409, -151.442, -82.9895, 45.1457
5.34341, 30, -28.2004, -18.1682, 36.6988, -151.322, -82.8564, 45.0887
5.35129, 30, -28.1791, -18.3668, 36.8572, -151.201, -82.7232, 44.9753
5.35935, 30, -28.1577, -18.5659, 37.0157, -151.08, -82.5899, 44.8631
5.36757, 30, -28.1364, -18.765, 37.1741, -150.958, -82.4561, 44.7522
5.37521, 30, -28.1152, -18.9648, 37.3329, -150.836, -82.3224, 44.6427
5.38343, 31, -28.0938, -19.1658, 37.4924, -150.713, -82.188, 44.5348
5.39129, 31, -28.0723, -19.367, 37.652, -150.589, -82.054, 44.4281
5.39921, 31, -28.051, -19.5679, 37.8113, -150.465, -81.9196, 44.323
5.40744, 31, -28.0298, -19.7692, 37.9709, -150.34, -81.7853, 44.2198
5.41532, 31, -28.0083, -19.9708, 38.1313, -150.214, -81.651, 44.118
5.4232, 31, -27.9868, -20.1719, 38.2917, -150.088, -81.5165, 44.0182
5.4313, 32, -27.9652, -20.3728, 38.4515, -149.962, -81.3823, 43.9201
5.43921, 32, -27.9433, -20.5744, 38.6112, -149.835, -81.2481, 43.8245
5.44728, 32, -27.921, -20.7761, 38.7713, -149.708, -81.1142, 43.7309
5.45573, 32, -27.8985, -20.9772, 38.9313, -149.581, -80.9802, 43.6404
5.46425, 32, -27.8758, -21.1781, 39.0905, -149.453, -80.8469, 43.5522
5.4713, 33, -27.8527, -21.3792, 39.2493, -149.326, -80.7138, 43.4674
5.48149, 33, -27.8293, -21.5796, 39.4084, -149.198, -80.5813, 43.3855
5.48746, 33, -27.8054, -21.779, 39.5671, -149.07, -80.449, 43.3067
5.49885, 33, -27.7686, -22.0779, 39.8034, -148.879, -80.2517, 43.1946
5.50503, 33, -27.7561, -22.1774, 39.8819, -148.815, -80.186, 43.1587
5.5122, 34, -27.7308, -22.3754, 40.0387, -148.688, -80.0552, 43.0903
5.51933, 34, -27.705, -22.5725, 40.1953, -148.56, -79.9245, 43.0245
5.52723, 34, -27.6788, -22.7695, 40.3513, -148.432, -79.7937, 42.9616
5.53638, 34, -27.6521, -22.9662, 40.5064, -148.305, -79.6631, 42.9028
5.5433, 34, -27.6249, -23.162, 40.6616, -148.177, -79.5324, 42.8468
5.55138, 35, -27.5973, -23.3574, 40.8169, -148.048, -79.4019, 42.7936
5.55978, 35, -27.5697, -23.5533, 40.9717, -147.92, -79.2711, 42.7445
5.56751, 35, -27.5417, -23.7491, 41.1259, -147.791, -79.1409, 42.6989
5.57561, 35, -27.5134, -23.9441, 41.28, -147.661, -79.0106, 42.6563
5.58402, 35, -27.4849, -24.1388, 41.4342, -147.531, -78.8807, 42.6168
5.59167, 36, -27.4559, -24.3336, 41.5881, -147.401, -78.7508, 42.5813
5.60031, 36, -27.4266, -24.5278, 41.7413, -147.27, -78.6213, 42.5502
5.60827, 36, -27.397, -24.7211, 41.894, -147.14, -78.4924, 42.5232
5.61735, 36, -27.3669, -24.9142, 42.0465, -147.009, -78.3635, 42.5006
5.62384, 36, -27.336, -25.1071, 42.1983, -146.878, -78.2355, 42.4822
5.63239, 37, -27.3043, -25.2991, 42.3491, -146.747, -78.1075, 42.4683
5.64057, 37, -27.2881, -25.3946, 42.4241, -146.682, -78.0439, 42.4632
5.64778, 37, -27.2553, -25.5848, 42.5733, -146.552, -77.9169, 42.4566
5.65747, 37, -27.2045, -25.8689, 42.7956, -146.358, -77.7271, 42.4532
5.66516, 37, -27.1694, -26.0564, 42.9423, -146.229, -77.6012, 42.4559
5.67119, 37, -27.1514, -26.1494, 43.0151, -146.165, -77.5383, 42.4599
5.6792, 38, -27.115, -26.3346, 43.1599, -146.038, -77.4133, 42.4722
5.68725, 38, -27.0778, -26.5192, 43.3037, -145.911, -77.2888, 42.4897
5.69731, 38, -27.0202, -26.7936, 43.518, -145.721, -77.1029, 42.5264
5.70584, 38, -26.9809, -26.9749, 43.6596, -145.595, -76.9795, 42.5578
5.71138, 38, -26.961, -27.0652, 43.73, -145.532, -76.9181, 42.5757
5.72159, 39, -26.9002, -27.336, 43.94, -145.343, -76.7341, 42.6389
5.72725, 39, -26.8796, -27.4258, 44.0096, -145.28, -76.6727, 42.6627
5.739, 39, -26.8164, -27.6933, 44.2174, -145.091, -76.4893, 42.7423
5.74474, 39, -26.7734, -27.871, 44.3547, -144.966, -76.3669, 42.8034
5.75299, 39, -26.7296, -28.0484, 44.4911, -144.84, -76.2446, 42.8707
5.7592, 40, -26.7073, -28.1366, 44.5589, -144.778, -76.1835, 42.9062
5.76821, 40, -26.6619, -28.3118, 44.6939, -144.653, -76.0613, 42.9829
5.77622, 40, -26.6158, -28.4856, 44.8276, -144.529, -75.9398, 43.066
5.78332, 40, -26.5686, -28.6584, 44.9601, -144.406, -75.8182, 43.155
5.79116, 40, -26.5203, -28.83, 45.0911, -144.284, -75.6975, 43.2514
5.79931, 41, -26.4709, -28.9996, 45.2207, -144.162, -75.5772, 43.3541
5.80721, 41, -26.4204, -29.1673, 45.3489, -144.041, -75.4572, 43.4636
5.81535, 41, -26.3687, -29.3339, 45.4756, -143.922, -75.3379, 43.5798
5.82319, 41, -26.3155, -29.4993, 45.6009, -143.803, -75.2188, 43.703
5.83141, 41, -26.2611, -29.6625, 45.7243, -143.686, -75.1006, 43.8334
5.84023, 42, -26.2052, -29.8237, 45.846, -143.57, -74.9827, 43.9712
5.84819, 42, -26.1479, -29.9833, 45.9658, -143.456, -74.8651, 44.1165
5.8562, 42, -26.089, -30.1412, 46.0836, -143.343, -74.7484, 44.2686
5.86424, 42, -26.0285, -30.297, 46.1994, -143.232, -74.6318, 44.4282
5.87221, 42, -25.9666, -30.4502, 46.3132, -143.122, -74.516, 44.595
5.88034, 43, -25.9029, -30.6012, 46.425, -143.015, -74.4006, 44.7689
5.88736, 43, -25.8377, -30.7502, 46.5345, -142.909, -74.2855, 44.9509
5.89519, 43, -25.7707, -30.8971, 46.642, -142.805, -74.1711, 45.1405
5.90658, 43, -25.6672, -31.113, 46.7995, -142.652, -73.9997, 45.4393
5.91408, 43, -25.6319, -31.1837, 46.8511, -142.603, -73.9429, 45.6481
5.91939, 44, -25.5601, -31.3237, 46.9527, -142.504, -73.8296, 45.7554
5.92728, 44, -25.4865, -31.4614, 47.0521, -142.408, -73.7167, 45.9759
5.93536, 44, -25.411, -31.597, 47.149, -142.314, -73.6043, 46.2046
5.94346, 44, -25.3337, -31.73, 47.2433, -142.222, -73.4922, 46.4413
5.9512, 44, -25.2545, -31.8603, 47.3353, -142.133, -73.3808, 46.6863
5.95942, 45, -25.1735, -31.988, 47.4249, -142.047, -73.2701, 46.9393
5.96755, 45, -25.0906, -32.1129, 47.5121, -141.963, -73.1597, 47.2012
5.97528, 45, -25.0056, -32.2351, 47.5967, -141.882, -73.0504, 47.4713
5.98358, 45, -24.9185, -32.3544, 47.6783, -141.804, -72.9415, 47.7495
5.99223, 45, -24.8293, -32.4706, 47.7569, -141.73, -72.8334, 48.0358
5.99931, 45, -24.7377, -32.5838, 47.8325, -141.657, -72.7263, 48.3309
6.00737, 46, -24.644, -32.6937, 47.9051, -141.59, -72.6198, 48.6346
6.01519, 46, -24.5478, -32.8003, 47.9749, -141.524, -72.5143, 48.9466
6.02326, 46, -24.4494, -32.9034, 48.0415, -141.464, -72.4096, 49.2672
6.03162, 46, -24.3487, -33.0029, 48.105, -141.406, -72.3056, 49.5967
6.04111, 46, -24.2456, -33.0987, 48.165, -141.352, -72.2029, 49.9342
6.04728, 47, -24.1402, -33.1906, 48.2214, -141.304, -72.1012, 50.2798
6.05738, 47, -24.0322, -33.2784, 48.2742, -141.258, -72.0003, 50.634
6.06358, 47, -23.9216, -33.3621, 48.3234, -141.217, -71.9009, 50.9965
6.07149, 47, -23.8083, -33.4417, 48.3686, -141.181, -71.8023, 51.3674
6.07954, 47, -23.6921, -33.5171, 48.41, -141.149, -71.7049, 51.7471
6.08808, 48, -23.5732, -33.588, 48.4473, -141.122, -71.6093, 52.135
6.0963, 48, -23.4517, -33.6543, 48.4803, -141.099, -71.5152, 52.5313
6.10383, 48, -23.3276, -33.7159, 48.5093, -141.081, -71.4225, 52.9369
6.11576, 48, -23.1368, -33.799, 48.5449, -141.064, -71.2878, 53.5613
6.12028, 48, -23.0718, -33.8241, 48.5545, -141.061, -71.2438, 53.7739
6.12779, 49, -22.9396, -33.8706, 48.5704, -141.058, -71.1571, 54.205
6.13653, 49, -22.8045, -33.9116, 48.582, -141.06, -71.0724, 54.6435
6.14421, 49, -22.6663, -33.947, 48.5887, -141.068, -70.99, 55.0901
6.15123, 49, -22.5962, -33.9626, 48.5903, -141.074, -70.9495, 55.3161
6.16063, 49, -22.3816, -34.0008, 48.5887, -141.102, -70.8314, 56.0059
6.169, 50, -22.2351, -34.0187, 48.5813, -141.129, -70.7563, 56.4751
6.17633, 50, -22.0859, -34.0304, 48.5689, -141.161, -70.6834, 56.9514
6.18327, 50, -22.0103, -34.0338, 48.5607, -141.179, -70.6482, 57.1928
6.19117, 50, -21.8569, -34.0363, 48.5406, -141.22, -70.5803, 57.6813
6.20049, 50, -21.6211, -34.0284, 48.5, -141.294, -70.4842, 58.4277
6.20738, 51, -21.541, -34.0224, 48.4837, -141.322, -70.4543, 58.6797
6.21658, 51, -21.3787, -34.0054, 48.4272, -141.415, -70.3684, 59.4442
6.22323, 51, -21.2137, -33.9816, 48.4055, -141.448, -70.3419, 59.7021
6.23539, 51, -20.9614, -33.9325, 48.3324, -141.559, -70.2677, 60.484
6.23933, 51, -20.8761, -33.9126, 48.3052, -141.599, -70.2446, 60.7475
6.2474, 52, -20.7035, -33.8671, 48.2464, -141.684, -70.202, 61.2782
6.25523, 52, -20.5282, -33.8136, 48.1815, -141.775, -70.1643, 61.8164
6.26507, 52, -20.2599, -33.7184, 48.0727, -141.925, -70.1161, 62.6372
6.27117, 52, -20.169, -33.6826, 48.0333, -141.978, -70.1023, 62.9147
6.28018, 52, -19.9851, -33.6047, 47.9496, -142.089, -70.079, 63.4742
6.28905, 53, -19.7987, -33.5183, 47.8593, -142.268, -70.0544, 64.3266
6.29518, 53, -19.61, -33.4232, 47.7628, -142.33, -70.049, 64.6137
6.30335, 53, -19.4194, -33.3199, 47.6601, -142.46, -70.0422, 65.1916
6.31133, 53, -19.2269, -33.2085, 47.5516, -142.596, -70.0404, 65.7725
6.32148, 53, -18.9348, -33.0258, 47.3779, -142.81, -70.0476, 66.6499
6.32718, 53, -18.8366, -32.9608, 47.3171, -142.883, -70.053, 66.9433
6.33831, 54, -18.639, -32.7534, 47.1261, -143.111, -70.0787, 67.8246
6.34616, 54, -18.4395, -32.6801, 46.9919, -143.268, -70.1042, 68.413
6.35217, 54, -18.2381, -32.5277, 46.9228, -143.349, -70.1194, 68.7077
6.35919, 54, -18.0352, -32.3671, 46.7804, -143.513, -70.1542, 69.2983
6.36786, 54, -17.8312, -32.1976, 46.6322, -143.681, -70.1953, 69.89
6.37628, 55, -17.6263, -32.0191, 46.4779, -143.854, -70.2445, 70.4843
6.38425, 55, -17.4203, -31.8314, 46.3175, -144.032, -70.3012, 71.0829
6.39217, 55, -17.2127, -31.6346, 46.1506, -144.214, -70.3656, 71.6859
6.40024, 55, -17.0034, -31.4277, 45.9762, -144.402, -70.4392, 72.2928
6.40822, 55, -16.7923, -31.2098, 45.7944, -144.595, -70.5209, 72.9047
6.41634, 56, -16.5796, -30.9816, 45.6061, -144.792, -70.6124, 73.5217
6.42348, 56, -16.3654, -30.7428, 45.4107, -144.994, -70.7125, 74.1424
6.43118, 56, -16.1504, -30.4926, 45.2071, -145.2, -70.8222, 74.7659
6.43973, 56, -15.9353, -30.2318, 44.9966, -145.41, -70.9414, 75.3929
6.44821, 56, -15.7204, -29.9604, 44.7801, -145.623, -71.07, 76.0225
6.45517, 57, -15.5044, -29.6777, 44.5559, -145.84, -71.2086, 76.6533
6.46338, 57, -15.2874, -29.385, 44.3246, -146.059, -71.3569, 77.2856
6.47127, 57, -15.0692, -29.0814, 44.0872, -146.281, -71.5155, 77.9194
6.47964, 57, -14.8508, -28.7688, 43.8428, -146.505, -71.6837, 78.5529
6.48939, 57, -14.6327, -28.4475, 43.5934, -146.729, -71.8615, 79.1844
6.49553, 58, -14.4153, -28.1185, 43.3396, -146.954, -72.0477, 79.8136
6.50683, 58, -14.0916, -27.6109, 42.9515, -147.289, -72.3414, 80.7484
6.5123, 58, -13.9845, -27.4379, 42.8209, -147.4, -72.4428, 81.0562
6.51972, 58, -13.7716, -27.0871, 42.5573, -147.62, -72.6505, 81.6669
6.52736, 58, -13.5601, -26.7298, 42.2913, -147.838, -72.8649, 82.271
6.5352, 59, -13.3498, -26.3661, 42.0225, -148.054, -73.0858, 82.8688
6.5441, 59, -13.1412, -25.9951, 41.7498, -148.268, -73.3141, 83.4599
6.55134, 59, -12.9344, -25.6177, 41.4742, -148.48, -73.5502, 84.0472
6.56363, 59, -12.6268, -25.039, 41.053, -148.795, -73.9199, 84.9218
6.56778, 59, -12.5246, -24.8424, 40.9107, -148.899, -74.0477, 85.2115
6.57564, 59, -12.3212, -24.443, 40.6225, -149.106, -74.31, 85.7884
6.58443, 60, -12.1188, -24.0361, 40.33, -149.312, -74.5814, 86.3627
6.59199, 60, -11.9179, -23.6224, 40.0341, -149.516, -74.8616, 86.9339
6.59967, 60, -11.7185, -23.2022, 39.7349, -149.717, -75.1505, 87.5011
6.60826, 60, -11.5209, -22.7764, 39.4338, -149.916, -75.4473, 88.0628
6.61575, 60, -11.3258, -22.3459, 39.1307, -150.111, -75.7508, 88.6193
6.62433, 61, -11.133, -21.9119, 38.8271, -150.302, -76.0602, 89.1683
6.63182, 61, -10.9425, -21.4741, 38.5225, -150.488, -76.3741, 89.7086
6.64045, 61, -10.7542, -21.0327, 38.2183, -150.669, -76.6922, 90.2385
6.65001, 61, -10.5684, -20.5882, 37.9141, -150.844, -77.0141, 90.7592
6.65626, 61, -10.3849, -20.1402, 37.6104, -151.014, -77.3397, 91.2703
6.66317, 62, -10.2942, -19.9151, 37.4587, -151.098, -77.5042, 91.5227
6.67122, 62, -10.1149, -19.4627, 37.1547, -151.261, -77.8365, 92.0209
6.67916, 62, -9.93825, -19.0078, 36.8505, -151.419, -78.1738, 92.511
6.68958, 62, -9.67831, -18.3208, 36.3923, -151.648, -78.6898, 93.2334
6.69735, 62, -9.50796, -17.8606, 36.0867, -151.796, -79.04, 93.7053
6.70313, 63, -9.42359, -17.63, 35.9337, -151.868, -79.2169, 93.9384
6.71259, 63, -9.17363, -16.9355, 35.4766, -152.075, -79.7536, 94.623
6.72095, 63, -9.01002, -16.47, 35.1731, -152.208, -80.1154, 95.0677
6.7287, 63, -8.84894, -16.0029, 34.8711, -152.334, -80.48, 95.5018
6.73671, 63, -8.69045, -15.5336, 34.5702, -152.455, -80.8468, 95.9256
6.74523, 64, -8.53454, -15.0631, 34.2717, -152.571, -81.2162, 96.339
6.75277, 64, -8.38109, -14.5918, 33.9745, -152.682, -81.5881, 96.7413
6.76075, 64, -8.30531, -14.3558, 33.6781, -152.787, -81.963, 97.1335
6.76934, 64, -8.08154, -13.6478, 33.383, -152.887, -82.341, 97.5155
6.77526, 64, -8.00816, -13.4122, 33.2356, -152.936, -82.531, 97.7022
6.78424, 65, -7.86331, -12.9416, 32.9428, -153.028, -82.9128, 98.0668
6.79232, 65, -7.72099, -12.4728, 32.6522, -153.115, -83.2962, 98.4199
6.79929, 65, -7.5815, -12.0051, 32.3644, -153.196, -83.6805, 98.7595
6.80816, 65, -7.44519, -11.5391, 32.0808, -153.27, -84.0648, 99.0853
6.81632, 65, -7.31166, -11.0744, 31.8006, -153.34, -84.4486, 99.3972
6.82343, 66, -7.18118, -10.6114, 31.5249, -153.403, -84.8318, 99.6947
6.83116, 66, -7.05318, -10.1515, 31.2525, -153.461, -85.2136, 99.9771
6.84046, 66, -6.9272, -9.695, 30.984, -153.513, -85.5948, 100.244
6.84717, 66, -6.80343, -9.24338, 30.7199, -153.559, -85.9747, 100.495
6.85518, 66, -6.68183, -8.79761, 30.4592, -153.599, -86.3529, 100.731
6.86336, 67, -6.56254, -8.35715, 30.2034, -153.635, -86.7285, 100.949
6.8746, 67, -6.4458, -7.70798, 29.8292, -153.677, -87.2853, 101.245
6.87918, 67, -6.33194, -7.49456, 29.7075, -153.688, -87.4688, 101.334
6.88716, 67, -6.22083, -7.07201, 29.4695, -153.706, -87.8322, 101.501
6.89534, 67, -6.11237, -6.65492, 29.2375, -153.719, -88.1906, 101.65
6.90323, 67, -6.00626, -6.2442, 29.0115, -153.726, -88.5443, 101.782
6.91117, 68, -5.90227, -5.84011, 28.7919, -153.729, -88.8936, 101.896
6.91922, 68, -5.80011, -5.44178, 28.5767, -153.728, -89.2396, 101.993
6.92716, 68, -5.69967, -5.04916, 28.3655, -153.722, -89.583, 102.072
6.93517, 68, -5.60098, -4.66185, 28.1585, -153.712, -89.9248, 102.133
6.9434, 68, -5.50394, -4.28003, 27.9547, -153.697, -90.2652, 102.176
6.95221, 69, -5.40867, -3.90218, 27.7543, -153.678, -90.6043, 102.201
6.95916, 69, -5.31522, -3.52846, 27.5585, -153.654, -90.9426, 102.209
6.9672, 69, -5.2233, -3.15834, 27.3668, -153.625, -91.2798, 102.197
6.97535, 69, -5.13329, -2.79226, 27.1779, -153.592, -91.6161, 102.164
6.98325, 69, -5.04486, -2.4291, 26.9929, -153.556, -91.9511, 102.11
6.99182, 70, -4.95793, -2.06946, 26.812, -153.517, -92.2852, 102.033
7.00185, 70, -4.8722, -1.71398, 26.6344, -153.472, -92.6183, 101.935
7.00726, 70, -4.78766, -1.36362, 26.4598, -153.425, -92.9506, 101.814
7.01904, 70, -4.66274, -0.847342, 26.206, -153.348, -93.4463, 101.59
7.02342, 70, -4.62167, -0.678194, 26.1233, -153.32, -93.6106, 101.505
7.03216, 71, -4.54023, -0.344648, 25.9606, -153.263, -93.937, 101.317
7.04001, 71, -4.45985, -0.0173147, 25.8023, -153.204, -94.2604, 101.109
7.04724, 71, -4.38045, 0.303341, 25.6497, -153.141, -94.5799, 100.879
7.05611, 71, -4.30193, 0.618431, 25.5025, -153.077, -94.895, 100.629
7.06423, 71, -4.2243, 0.926942, 25.36, -153.01, -95.206, 100.36
7.07195, 72, -4.14747, 1.22891, 25.2222, -152.942, -95.5129, 100.07
7.08042, 72, -4.07099, 1.52407, 25.0886, -152.872, -95.816, 99.7603
7.08752, 72, -3.99474, 1.81223, 24.9586, -152.801, -96.1163, 99.4299
7.09653, 72, -3.91859, 2.09442, 24.8318, -152.729, -96.414, 99.0787
7.1037, 72, -3.84248, 2.37007, 24.7081, -152.656, -96.7092, 98.7062
7.11225, 72, -3.76643, 2.63949, 24.5874, -152.582, -97.0023, 98.3117
7.12074, 73, -3.69051, 2.9031, 24.4699, -152.509, -97.2925, 97.8951
7.12795, 73, -3.6143, 3.15991, 24.356, -152.435, -97.5802, 97.4562
7.13662, 73, -3.5379, 3.4103, 24.2459, -152.362, -97.8648, 96.9955
7.14465, 73, -3.46117, 3.65435, 24.1397, -152.289, -98.146, 96.5145
7.15332, 73, -3.38391, 3.89043, 24.0378, -152.218, -98.4231, 96.0134
7.15922, 74, -3.34501, 4.00525, 23.9884, -152.182, -98.56, 95.7561
7.16715, 74, -3.26676, 4.22867, 23.8924, -152.113, -98.8295, 95.2292
7.17701, 74, -3.148, 4.54735, 23.7562, -152.011, -99.223, 94.4121
7.18432, 74, -3.06812, 4.74757, 23.6708, -151.947, -99.4768, 93.8522
7.19116, 74, -3.02785, 4.84411, 23.6297, -151.916, -99.6011, 93.5679
7.20148, 75, -2.90569, 5.11951, 23.5127, -151.825, -99.9613, 92.7008
7.20716, 75, -2.86444, 5.20613, 23.4757, -151.797, -100.077, 92.4077
7.22134, 75, -2.69703, 5.52536, 23.3372, -151.69, -100.518, 91.2152
7.22507, 75, -2.65458, 5.59857, 23.305, -151.665, -100.623, 90.9124
7.23144, 75, -2.61193, 5.66901, 23.2738, -151.641, -100.725, 90.6077
7.23913, 76, -2.52588, 5.80144, 23.2144, -151.595, -100.923, 89.9924
7.24737, 76, -2.43884, 5.92246, 23.1595, -151.554, -101.112, 89.3688
7.25676, 76, -2.3068, 6.08183, 23.0852, -151.5, -101.377, 88.4164
7.26475, 76, -2.26241, 6.12882, 23.0627, -151.468, -101.541, 87.7729
7.27297, 76, -2.17301, 6.25069, 23.0025, -151.439, -101.695, 87.1231
7.2793, 77, -2.08278, 6.28478, 22.9849, -151.427, -101.767, 86.7966
7.28815, 77, -1.99166, 6.34307, 22.9539, -151.405, -101.902, 86.1434
7.29775, 77, -1.85326, 6.40485, 22.918, -151.38, -102.08, 85.1674
7.30425, 77, -1.80668, 6.41835, 22.9089, -151.374, -102.132, 84.8434
7.31221, 77, -1.71292, 6.43475, 22.8951, -151.364, -102.224, 84.1984
7.32014, 78, -1.61837, 6.43668, 22.8872, -151.358, -102.302, 83.5582
7.32828, 78, -1.52309, 6.42347, 22.8847, -151.355, -102.363, 82.9223
7.33615, 78, -1.42715, 6.39495, 22.8879, -151.354, -102.41, 82.2896
7.34415, 78, -1.33098, 6.35085, 22.8971, -151.357, -102.441, 81.6616
7.35229, 78, -1.2344, 6.29061, 22.9123, -151.363, -102.456, 81.0387
7.35959, 79, -1.13764, 6.21426, 22.9342, -151.373, -102.455, 80.4212
7.36717, 79, -1.04077, 6.12175, 22.963, -151.386, -102.436, 79.8102
7.37521, 79, -0.943762, 6.01316, 22.9993, -151.401, -102.4, 79.2078
7.38323, 79, -0.846794, 5.88837, 23.0429, -151.42, -102.346, 78.6151
7.39114, 79, -0.749758, 5.74698, 23.0941, -151.442, -102.275, 78.0316
7.39936, 80, -0.65273, 5.58917, 23.1529, -151.466, -102.185, 77.4582
7.40725, 80, -0.555636, 5.41477, 23.2192, -151.492, -102.077, 76.8955
7.41514, 80, -0.458557, 5.22384, 23.2933, -151.52, -101.951, 76.3438
7.42715, 80, -0.313121, 4.90598, 23.4197, -151.564, -101.726, 75.5336
7.43129, 80, -0.264709, 4.79105, 23.466, -151.58, -101.642, 75.2683
7.44038, 80, -0.168021, 4.54745, 23.565, -151.613, -101.459, 74.7448
7.44745, 81, -0.0715386, 4.28688, 23.6728, -151.647, -101.257, 74.2313
7.45537, 81, 0.0248019, 4.00953, 23.7896, -151.681, -101.036, 73.7265
7.46421, 81, 0.120981, 3.71531, 23.9158, -151.717, -100.795, 73.2311
7.47118, 81, 0.216997, 3.40432, 24.0518, -151.754, -100.535, 72.745
7.47954, 81, 0.312678, 3.07563, 24.1977, -151.791, -100.256, 72.269
7.48901, 82, 0.408215, 2.73049, 24.3532, -151.828, -99.9582, 71.8022
7.49524, 82, 0.503526, 2.36867, 24.518, -151.866, -99.6407, 71.3448
7.50327, 82, 0.598492, 1.99136, 24.6922, -151.903, -99.3049, 70.8974
7.51125, 82, 0.693346, 1.59737, 24.8761, -151.94, -98.9512, 70.4593
7.51931, 82, 0.788107, 1.18701, 25.0693, -151.976, -98.5804, 70.0322
7.52791, 83, 0.882847, 0.761511, 25.2715, -152.012, -98.1931, 69.6151
7.53716, 83, 0.977552, 0.321465, 25.4841, -152.047, -97.7894, 69.2081
7.5433, 83, 1.07232, -0.133097, 25.7066, -152.081, -97.3706, 68.8121
7.55755, 83, 1.21461, -0.841795, 26.0563, -152.128, -96.7133, 68.236
7.56033, 83, 1.26208, -1.08516, 26.1778, -152.143, -96.4867, 68.049
7.56751, 84, 1.35725, -1.58215, 26.4282, -152.173, -96.0218, 67.6818
7.57553, 84, 1.4526, -2.09268, 26.6885, -152.201, -95.5419, 67.3225
7.58345, 84, 1.54821, -2.61649, 26.9595, -152.228, -95.0468, 66.9708
7.59185, 84, 1.64426, -3.1536, 27.2402, -152.252, -94.5359, 66.6264
7.60026, 84, 1.74069, -3.7043, 27.5319, -152.276, -94.01, 66.2887
7.61014, 85, 1.83749, -4.26839, 27.8336, -152.297, -93.4692, 65.9579
7.61614, 85, 1.93451, -4.84441, 28.1454, -152.317, -92.9133, 65.635
7.62618, 85, 2.03194, -5.43107, 28.4668, -152.335, -92.3434, 65.3201
7.63224, 85, 2.12972, -6.02779, 28.7975, -152.351, -91.7629, 65.013
7.64047, 85, 2.22799, -6.6329, 29.137, -152.364, -91.1719, 64.7147
7.64847, 86, 2.32701, -7.24567, 29.4849, -152.374, -90.5707, 64.4263
7.65615, 86, 2.42674, -7.86535, 29.8399, -152.381, -89.9602, 64.1477
7.66314, 86, 2.47697, -8.17729, 30.0201, -152.383, -89.6518, 64.0124
7.67299, 86, 2.62913, -9.12239, 30.5695, -152.387, -88.7155, 63.6229
7.68026, 86, 2.73159, -9.75876, 30.9428, -152.386, -88.0861, 63.3778
7.68924, 87, 2.83536, -10.3993, 31.3214, -152.382, -87.4516, 63.1442
7.69729, 87, 2.93984, -11.0432, 31.7053, -152.374, -86.8114, 62.9223
7.7032, 87, 2.99236, -11.3661, 31.8988, -152.368, -86.4894, 62.8161
7.715, 87, 3.15162, -12.3389, 32.4862, -152.347, -85.5164, 62.516
7.71924, 87, 3.20502, -12.6644, 32.6845, -152.337, -85.1902, 62.4224
7.72864, 87, 3.36641, -13.6453, 33.2871, -152.303, -84.2048, 62.1606
7.73766, 88, 3.47486, -14.3025, 33.6951, -152.276, -83.541, 62.0025
7.74329, 88, 3.52922, -14.6318, 33.901, -152.261, -83.2071, 61.9283
7.75111, 88, 3.63833, -15.291, 34.3167, -152.228, -82.5356, 61.7901
7.7592, 88, 3.74783, -15.9497, 34.7369, -152.19, -81.8595, 61.6662
7.76883, 88, 3.91262, -16.935, 35.3742, -152.124, -80.8423, 61.5094
7.77612, 89, 3.96766, -17.2622, 35.5878, -152.1, -80.5031, 61.4658
7.78324, 89, 4.07803, -17.9139, 36.0154, -152.047, -79.8253, 61.3918
7.79846, 89, 4.30039, -19.2067, 36.8699, -151.928, -78.4744, 61.3005
7.80106, 89, 4.30039, -19.2067, 36.8699, -151.928, -78.4744, 61.29
7.8094, 89, 4.46818, -20.1656, 37.5072, -151.824, -77.4726, 61.283
7.81616, 90, 4.52433, -20.483, 37.7189, -151.788, -77.1403, 61.2878
7.82314, 90, 4.63712, -21.1148, 38.1426, -151.709, -76.476, 61.3152
7.8312, 90, 4.7499, -21.7423, 38.5667, -151.625, -75.8113, 61.3658
7.83914, 90, 4.86225, -22.3658, 38.9916, -151.536, -75.1461, 61.4395
7.85003, 90, 5.02993, -23.2952, 39.6311, -151.389, -74.1491, 61.5989
7.85532, 91, 5.08565, -23.6036, 39.8447, -151.337, -73.816, 61.6653
7.86565, 91, 5.25221, -24.5237, 40.4863, -151.17, -72.8148, 61.9078
7.87214, 91, 5.30749, -24.8283, 40.7003, -151.11, -72.481, 62.0031
7.88019, 91, 5.41762, -25.4337, 41.1273, -150.987, -71.8132, 62.2164
7.88828, 91, 5.52719, -26.0327, 41.5529, -150.857, -71.1459, 62.4601
7.89513, 92, 5.63649, -26.6243, 41.9763, -150.721, -70.4822, 62.7351
7.90313, 92, 5.74591, -27.2074, 42.3966, -150.579, -69.8218, 63.0415
7.91116, 92, 5.85601, -27.7811, 42.8123, -150.432, -69.1651, 63.3787
7.91922, 92, 5.96672, -28.3449, 43.2222, -150.281, -68.513, 63.7468
7.92713, 92, 6.07818, -28.8976, 43.6262, -150.125, -67.8657, 64.1462
7.93521, 92, 6.19077, -29.4386, 44.0234, -149.966, -67.2258, 64.5764
7.9432, 93, 6.30487, -29.968, 44.4135, -149.805, -66.5919, 65.0383
7.95888, 93, 6.53937, -30.9952, 45.175, -149.479, -65.3366, 66.0566
7.96022, 93, 6.53937, -30.9952, 45.175, -149.479, -65.3366, 66.0566
7.96721, 93, 6.65998, -31.4975, 45.5481, -149.315, -64.7126, 66.6168
7.97516, 93, 6.78288, -31.9941, 45.9167, -149.151, -64.0895, 67.2157
7.9836, 94, 6.90786, -32.4859, 46.2824, -148.985, -63.4638, 67.8581
7.99123, 94, 7.03475, -32.9729, 46.6462, -148.819, -62.8315, 68.5499
7.99979, 94, 7.16323, -33.4532, 47.0089, -148.653, -62.1932, 69.2946
8.0082, 94, 7.29387, -33.9265, 47.3694, -148.488, -61.5488, 70.0903
8.01523, 94, 7.42779, -34.3927, 47.7254, -148.328, -60.8995, 70.9388
8.02313, 95, 7.56595, -34.8498, 48.0744, -148.176, -60.2513, 71.8392
8.032, 95, 7.70964, -35.2968, 48.4138, -148.033, -59.6068, 72.7812
8.04019, 95, 7.8596, -35.7323, 48.742, -147.903, -58.968, 73.765
8.04795, 95, 8.01641, -36.1532, 49.0567, -147.789, -58.3367, 74.7848
8.05657, 95, 8.18021, -36.5546, 49.356, -147.692, -57.7138, 75.8393
8.06337, 96, 8.35088, -36.9356, 49.6395, -147.614, -57.1027, 76.9265
8.07138, 96, 8.52821, -37.2945, 49.906, -147.555, -56.5059, 78.0442
8.08152, 96, 8.71119, -37.63, 50.156, -147.517, -55.9229, 79.1878
8.08826, 96, 8.89934, -37.94, 50.3876, -147.499, -55.3555, 80.352
8.09555, 96, 9.09169, -38.2247, 50.5997, -147.501, -54.8067, 81.5298
8.10419, 96, 9.28676, -38.4847, 50.7927, -147.526, -54.2792, 82.7189
8.11166, 97, 9.48298, -38.719, 50.9656, -147.572, -53.7755, 83.9151
8.12022, 97, 9.67905, -38.9283, 51.1178, -147.639, -53.2971, 85.1129
8.12773, 97, 9.87407, -39.1133, 51.2501, -147.724, -52.8467, 86.3
8.1357, 97, 10.0673, -39.2728, 51.3628, -147.826, -52.4255, 87.4721
8.14423, 97, 10.2573, -39.4066, 51.456, -147.942, -52.0348, 88.6202
8.1526, 97, 10.3509, -39.464, 51.4955, -148.07, -51.6747, 89.7394
8.16098, 98, 10.6266, -39.5987, 51.5869, -148.208, -51.3454, 90.8231
8.16821, 98, 10.8075, -39.6588, 51.6256, -148.356, -51.0456, 91.8772
8.17513, 98, 10.8974, -39.6804, 51.6384, -148.433, -50.9058, 92.3954
8.18512, 98, 11.1645, -39.7102, 51.6511, -148.682, -50.5216, 93.941
8.19118, 98, 11.2524, -39.7085, 51.647, -148.772, -50.4038, 94.458
8.20039, 98, 11.5153, -39.6681, 51.6085, -149.06, -50.0787, 96.0336
8.20712, 98, 11.6031, -39.6427, 51.5869, -149.163, -49.9798, 96.5694
8.21651, 99, 11.8656, -39.532, 51.4951, -149.49, -49.7147, 98.2081
8.22313, 99, 11.9522, -39.4837, 51.4552, -149.605, -49.6379, 98.7622
8.23263, 99, 12.2076, -39.3051, 51.3081, -149.962, -49.4486, 100.429
8.24068, 99, 12.3729, -39.1581, 51.1875, -150.206, -49.36, 101.53
8.25177, 99, 12.5319, -38.989, 51.0502, -150.449, -49.302, 102.611
8.25511, 99, 12.6085, -38.8961, 50.9757, -150.571, -49.2847, 103.141
8.26477, 100, 12.7553, -38.5808, 50.7285, -150.929, -49.2799, 104.686
8.27275, 100, 12.8933, -38.4637, 50.5426, -151.161, -49.3168, 105.679
8.28011, 100, 13.0222, -38.2126, 50.4433, -151.276, -49.3468, 106.166
8.28811, 100, 13.1425, -37.9393, 50.2325, -151.499, -49.4303, 107.121
8.29618, 100, 13.2547, -37.6452, 50.0042, -151.717, -49.5451, 108.053
8.30596, 100, 13.4077, -37.1611, 49.6278, -152.031, -49.7749, 109.41
8.31216, 101, 13.4546, -36.9879, 49.4941, -152.132, -49.8665, 109.852
8.32012, 101, 13.5426, -36.6226, 49.2135, -152.327, -50.0721, 110.715
8.32812, 101, 13.6227, -36.2318, 48.9162, -152.513, -50.3072, 111.558
8.33618, 101, 13.6948, -35.8159, 48.6012, -152.69, -50.5721, 112.376
8.34311, 101, 13.7586, -35.3765, 48.2685, -152.857, -50.868, 113.172
8.36008, 102, 13.8601, -34.4308, 47.5515, -153.157, -51.5558, 114.696
8.36226, 102, 13.8798, -34.1801, 47.3616, -153.224, -51.7481, 115.062
8.36712, 102, 13.897, -33.9234, 47.1676, -153.289, -51.9483, 115.423
8.37512, 102, 13.9242, -33.3918, 46.7679, -153.408, -52.373, 116.126
8.38323, 102, 13.9425, -32.8381, 46.3539, -153.513, -52.8295, 116.801
8.39113, 102, 13.9524, -32.2634, 45.926, -153.605, -53.3158, 117.451
8.39909, 103, 13.9548, -31.6681, 45.4847, -153.683, -53.829, 118.075
8.40811, 103, 13.9502, -31.0534, 45.0305, -153.748, -54.3672, 118.673
8.41619, 103, 13.9391, -30.4213, 44.5651, -153.8, -54.927, 119.244
8.42311, 103, 13.9223, -29.7739, 44.0896, -153.838, -55.5059, 119.79
8.43124, 103, 13.8999, -29.1117, 43.6058, -153.865, -56.1024, 120.31
8.43912, 103, 13.8726, -28.4365, 43.115, -153.88, -56.7148, 120.805
8.44715, 104, 13.841, -27.7505, 42.6187, -153.886, -57.3401, 121.275
8.4552, 104, 13.8055, -27.0549, 42.118, -153.881, -57.9788, 121.722
8.46311, 104, 13.7661, -26.3517, 41.6138, -153.866, -58.6325, 122.148
8.47211, 104, 13.7236, -25.6421, 41.1069, -153.843, -59.2995, 122.556
8.48017, 104, 13.6791, -24.929, 40.5984, -153.811, -59.9783, 122.947
8.48725, 104, 13.633, -24.213, 40.0889, -153.772, -60.6651, 123.324
8.49527, 104, 13.585, -23.4939, 39.5794, -153.725, -61.358, 123.691
8.50328, 104, 13.5354, -22.7725, 39.0705, -153.675, -62.0569, 124.05
8.51123, 104, 13.485, -22.0501, 38.5628, -153.618, -62.7584, 124.405
8.51931, 104, 13.4338, -21.3268, 38.0567, -153.557, -63.4622, 124.756
8.52727, 104, 13.3819, -20.6037, 37.5518, -153.492, -64.1665, 125.106
8.53512, 104, 13.3297, -19.8805, 37.0486, -153.422, -64.8711, 125.454
8.54321, 104, 13.2772, -19.1571, 36.5475, -153.349, -65.5777, 125.8
8.55124, 104, 13.2247, -18.4334, 36.0481, -153.272, -66.2851, 126.146
8.55935, 104, 13.1724, -17.7096, 35.5512, -153.191, -66.9938, 126.491
8.56731, 104, 13.1203, -16.985, 35.0566, -153.105, -67.7021, 126.836
8.5754, 104, 13.0685, -16.2605, 34.5639, -153.016, -68.4098, 127.18
8.58347, 104, 13.0172, -15.5359, 34.0733, -152.923, -69.1198, 127.524
8.59152, 104, 12.9661, -14.811, 33.585, -152.826, -69.8311, 127.867
8.59954, 104, 12.9152, -14.0856, 33.099, -152.725, -70.5426, 128.21
8.60818, 104, 12.8649, -13.3605, 32.6159, -152.62, -71.2527, 128.554
8.61563, 104, 12.815, -12.6351, 32.1353, -152.511, -71.9638, 128.898
8.62421, 104, 12.7653, -11.9096, 31.6575, -152.399, -72.6769, 129.243
8.63172, 104, 12.716, -11.1846, 31.1821, -152.283, -73.3897, 129.588
8.64027, 104, 12.6672, -10.4595, 30.7092, -152.163, -74.1031, 129.934
8.6478, 104, 12.6184, -9.73376, 30.2394, -152.038, -74.8164, 130.279
8.65622, 104, 12.5701, -9.00809, 29.7725, -151.91, -75.5299, 130.627
8.6631, 104, 12.5462, -8.64506, 29.5402, -151.844, -75.8872, 130.801
8.67216, 104, 12.475, -7.55604, 28.8485, -151.641, -76.9595, 131.324
8.67916, 104, 12.4514, -7.19323, 28.6195, -151.572, -77.3176, 131.499
8.68835, 104, 12.382, -6.10539, 27.9375, -151.356, -78.3906, 132.027
8.69516, 104, 12.3591, -5.74288, 27.712, -151.282, -78.7477, 132.203
8.70452, 104, 12.2913, -4.65673, 27.0409, -151.054, -79.8203, 132.733
8.71111, 104, 12.2692, -4.29526, 26.8193, -150.976, -80.1783, 132.911
8.72046, 104, 12.2044, -3.21531, 26.1618, -150.736, -81.2507, 133.445
8.72712, 104, 12.1834, -2.85781, 25.9451, -150.654, -81.6061, 133.623
8.73658, 104, 12.1224, -1.79492, 25.3047, -150.402, -82.6669, 134.158
8.74465, 104, 12.083, -1.09555, 24.8872, -150.231, -83.369, 134.513
8.75367, 104, 12.0446, -0.405364, 24.4785, -150.057, -84.0622, 134.866
8.75911, 104, 12.0259, -0.0642074, 24.278, -149.97, -84.4047, 135.041
8.76867, 104, 11.9889, 0.610136, 23.6931, -149.706, -85.4126, 135.561
8.77676, 104, 11.953, 1.27221, 23.3185, -149.53, -86.0667, 135.9
8.7841, 104, 11.9184, 1.92127, 23.136, -149.442, -86.3883, 136.068
8.79211, 104, 11.8849, 2.55539, 22.7807, -149.266, -87.0196, 136.398
8.80015, 104, 11.8523, 3.17303, 22.4375, -149.091, -87.6347, 136.722
8.8081, 104, 11.8212, 3.77454, 22.108, -148.917, -88.2339, 137.038
8.8161, 104, 11.7913, 4.359, 21.791, -148.744, -88.8152, 137.349
8.82313, 104, 11.7625, 4.92709, 21.4864, -148.573, -89.3793, 137.652
8.83109, 104, 11.7353, 5.47822, 21.1931, -148.403, -89.9278, 137.948
8.84016, 104, 11.7091, 6.01184, 20.9119, -148.235, -90.4603, 138.238
8.8481, 104, 11.6841, 6.52876, 20.6425, -148.07, -90.9763, 138.52
8.85511, 104, 11.6603, 7.02878, 20.3845, -147.907, -91.4759, 138.795
8.8631, 104, 11.6376, 7.51173, 20.1385, -147.746, -91.9581, 139.061
8.87211, 104, 11.6161, 7.97836, 19.9031, -147.589, -92.4233, 139.321
8.88017, 104, 11.5957, 8.42821, 19.6786, -147.434, -92.872, 139.573
8.88809, 104, 11.5766, 8.86077, 19.4654, -147.283, -93.3042, 139.817
8.89612, 104, 11.5586, 9.27597, 19.2622, -147.136, -93.7196, 140.053
8.90417, 104, 11.5416, 9.67418, 19.0691, -146.993, -94.118, 140.28
8.91211, 104, 11.5257, 10.0542, 18.8871, -146.854, -94.499, 140.498
8.9201, 104, 11.5108, 10.4154, 18.7156, -146.72, -94.8617, 140.708
8.92814, 104, 11.497, 10.7573, 18.5543, -146.592, -95.2059, 140.907
8.9361, 104, 11.4842, 11.0801, 18.4038, -146.469, -95.5303, 141.096
8.94417, 104, 11.4724, 11.3824, 18.2642, -146.352, -95.8345, 141.273
8.9511, 104, 11.4616, 11.6643, 18.135, -146.243, -96.1179, 141.44
8.96011, 104, 11.4519, 11.925, 18.0164, -146.141, -96.3801, 141.594
8.9671, 104, 11.4429, 12.1642, 17.9085, -146.046, -96.6205, 141.736
8.97514, 104, 11.4347, 12.3825, 17.8111, -145.96, -96.8391, 141.866
8.98324, 104, 11.4272, 12.58, 17.724, -145.881, -97.0355, 141.983
8.99128, 104, 11.4206, 12.7559, 17.6472, -145.811, -97.2099, 142.087
8.99919, 104, 11.4147, 12.9112, 17.5805, -145.75, -97.3625, 142.178
9.00726, 104, 11.4093, 13.0467, 17.5235, -145.697, -97.493, 142.257
9.0152, 104, 11.4044, 13.1632, 17.4758, -145.653, -97.6028, 142.322
9.02323, 104, 11.4, 13.2613, 17.4367, -145.617, -97.692, 142.375
9.03127, 104, 11.396, 13.3425, 17.4056, -145.587, -97.7634, 142.419
9.03911, 104, 11.3923, 13.4088, 17.3818, -145.565, -97.8174, 142.452
9.04713, 104, 11.3889, 13.462, 17.3643, -145.548, -97.857, 142.476
9.05525, 104, 11.3861, 13.5035, 17.3519, -145.536, -97.885, 142.493
9.06326, 104, 11.3838, 13.5346, 17.3437, -145.528, -97.9041, 142.503
9.07164, 104, 11.382, 13.5578, 17.3386, -145.523, -97.9161, 142.51
9.07939, 104, 11.3805, 13.5745, 17.3355, -145.521, -97.9228, 142.513
9.08755, 104, 11.3794, 13.5858, 17.3338, -145.519, -97.9264, 142.515
9.09614, 104, 11.3786, 13.5936, 17.333, -145.519, -97.9281, 142.516
9.1036, 105, 11.378, 13.5986, 17.3326, -145.518, -97.9289, 142.517
9.11224, 105, 11.3775, 13.6019, 17.3324, -145.518, -97.9292, 142.517
9.11991, 105, 11.3772, 13.6043, 17.3323, -145.518, -97.9294, 142.517
9.12822, 105, 11.3769, 13.6063, 17.3323, -145.518, -97.9295, 142.517
9.13569, 105, 11.3767, 13.608, 17.3323, -145.518, -97.9295, 142.517
9.14421, 105, 11.3766, 13.6094, 17.3323, -145.518, -97.9295, 142.517
9.1518, 105, 11.3765, 13.6107, 17.3323, -145.518, -97.9294, 142.517
9.16028, 105, 11.3764, 13.6119, 17.3323, -145.518, -97.9294, 142.517
9.16709, 105, 11.3763, 13.6123, 17.3323, -145.518, -97.9293, 142.517
9.17613, 105, 11.3763, 13.6135, 17.3323, -145.518, -97.9291, 142.517
9.1831, 105, 11.3763, 13.6138, 17.3323, -145.518, -97.929, 142.517
9.19228, 105, 11.3762, 13.6144, 17.3324, -145.518, -97.9288, 142.517
9.20013, 105, 11.3762, 13.6146, 17.3324, -145.518, -97.9287, 142.517
9.20708, 105, 11.3762, 13.6147, 17.3325, -145.518, -97.9286, 142.517
9.21643, 105, 11.3762, 13.6148, 17.3325, -145.518, -97.9284, 142.517
9.22318, 105, 11.3762, 13.6148, 17.3325, -145.518, -97.9283, 142.517
