hehonglu123/Motion-Primitive-Planning/simulation/robotstudio_sim/scripts/fitting_output_new/matlab_qp_movel/curve_exe_v400_z10.csv
timestamp, cmd_num, J1, J2, J3, J4, J5, J6
0, 1, -0.804314, 64.433, 8.47718, 44.6, -96.4084, 169.856
0.002, 1, -0.804314, 64.433, 8.47718, 44.6, -96.4084, 169.856
0.004, 1, -0.804314, 64.433, 8.47718, 44.6, -96.4084, 169.856
0.008, 1, -0.804314, 64.433, 8.47718, 44.6, -96.4084, 169.856
0.011, 1, -0.804314, 64.433, 8.47718, 44.6, -96.4084, 169.856
0.016, 1, -0.804314, 64.433, 8.47718, 44.6, -96.4084, 169.856
0.02, 1, -0.804314, 64.433, 8.47718, 44.6, -96.4084, 169.856
0.024, 1, -0.804314, 64.433, 8.47718, 44.6, -96.4084, 169.856
0.028, 1, -0.804314, 64.433, 8.47718, 44.6, -96.4084, 169.856
0.032, 1, -0.804314, 64.433, 8.47718, 44.6, -96.4084, 169.856
0.036, 1, -0.804305, 64.433, 8.47718, 44.6, -96.4084, 169.856
0.04, 1, -0.804241, 64.433, 8.47718, 44.6, -96.4084, 169.856
0.044, 1, -0.804018, 64.4329, 8.47719, 44.6, -96.4084, 169.856
0.048, 1, -0.803491, 64.4328, 8.4772, 44.5999, -96.4083, 169.856
0.052, 1, -0.802516, 64.4325, 8.47722, 44.5998, -96.4082, 169.856
0.056, 1, -0.800987, 64.432, 8.47724, 44.5995, -96.4078, 169.855
0.06, 1, -0.798832, 64.4312, 8.47724, 44.5988, -96.4072, 169.854
0.064, 1, -0.796026, 64.4302, 8.47718, 44.5976, -96.4058, 169.851
0.068, 1, -0.792599, 64.4288, 8.47701, 44.5956, -96.4036, 169.846
0.072, 1, -0.788612, 64.4271, 8.47666, 44.5924, -96.4, 169.839
0.076, 1, -0.784102, 64.4251, 8.47606, 44.5876, -96.3946, 169.828
0.08, 1, -0.779051, 64.4228, 8.47513, 44.5808, -96.3869, 169.812
0.084, 1, -0.77339, 64.4202, 8.47378, 44.5715, -96.3764, 169.79
0.088, 1, -0.767053, 64.4172, 8.47192, 44.5594, -96.3625, 169.762
0.092, 1, -0.760016, 64.4139, 8.46947, 44.5438, -96.3447, 169.725
0.096, 1, -0.752305, 64.4103, 8.46634, 44.5246, -96.3226, 169.68
0.1, 1, -0.743972, 64.4064, 8.46247, 44.5012, -96.2957, 169.624
0.104, 1, -0.735066, 64.4024, 8.45779, 44.4735, -96.2638, 169.559
0.108, 1, -0.725624, 64.3982, 8.45226, 44.4412, -96.2266, 169.482
0.112, 1, -0.715655, 64.3939, 8.44589, 44.4044, -96.1842, 169.395
0.116, 1, -0.70512, 64.3893, 8.4387, 44.3632, -96.1366, 169.297
0.12, 1, -0.693943, 64.3845, 8.43073, 44.3178, -96.0841, 169.189
0.124, 1, -0.682056, 64.3794, 8.42206, 44.2684, -96.0271, 169.072
0.128, 1, -0.669444, 64.374, 8.41275, 44.2155, -95.9659, 168.946
0.131, 1, -0.656152, 64.3682, 8.40288, 44.1594, -95.9011, 168.813
0.136, 1, -0.642251, 64.3621, 8.39255, 44.1005, -95.8332, 168.673
0.139, 1, -0.627786, 64.3557, 8.38182, 44.0394, -95.7626, 168.528
0.144, 1, -0.612758, 64.3489, 8.37079, 43.9764, -95.6898, 168.378
0.148, 1, -0.597144, 64.3418, 8.35952, 43.9119, -95.6154, 168.225
0.152, 1, -0.580921, 64.3344, 8.34808, 43.8463, -95.5396, 168.069
0.156, 1, -0.564069, 64.3267, 8.33653, 43.7799, -95.4629, 167.911
0.16, 1, -0.546592, 64.3188, 8.3249, 43.7128, -95.3856, 167.752
0.164, 1, -0.528544, 64.3106, 8.31323, 43.6453, -95.3077, 167.592
0.168, 1, -0.510034, 64.3023, 8.30153, 43.5776, -95.2296, 167.431
0.172, 1, -0.491189, 64.2938, 8.28982, 43.5096, -95.1512, 167.27
0.176, 1, -0.472116, 64.2853, 8.2781, 43.4416, -95.0728, 167.109
0.18, 1, -0.452892, 64.2767, 8.26637, 43.3735, -94.9942, 166.947
0.184, 1, -0.433567, 64.2681, 8.25465, 43.3053, -94.9157, 166.786
0.188, 1, -0.414178, 64.2595, 8.24292, 43.2372, -94.8371, 166.624
0.192, 1, -0.394747, 64.2508, 8.2312, 43.169, -94.7585, 166.462
0.196, 1, -0.37529, 64.2422, 8.21947, 43.1009, -94.6799, 166.301
0.2, 1, -0.355819, 64.2335, 8.20776, 43.0327, -94.6013, 166.139
0.204, 1, -0.33634, 64.2249, 8.19604, 42.9646, -94.5228, 165.977
0.208, 1, -0.316859, 64.2162, 8.18433, 42.8965, -94.4443, 165.816
0.212, 1, -0.297379, 64.2075, 8.17263, 42.8285, -94.3658, 165.655
0.216, 1, -0.277903, 64.1989, 8.16093, 42.7604, -94.2874, 165.493
0.22, 1, -0.258431, 64.1902, 8.14923, 42.6924, -94.2089, 165.332
0.224, 1, -0.238964, 64.1816, 8.13754, 42.6244, -94.1305, 165.171
0.228, 1, -0.219504, 64.1729, 8.12585, 42.5564, -94.0522, 165.009
0.232, 1, -0.200051, 64.1643, 8.11417, 42.4885, -93.9738, 164.848
0.236, 1, -0.180604, 64.1556, 8.10249, 42.4206, -93.8955, 164.687
0.24, 1, -0.161165, 64.147, 8.09082, 42.3527, -93.8173, 164.526
0.244, 1, -0.141733, 64.1384, 8.07915, 42.2848, -93.739, 164.365
0.248, 1, -0.122308, 64.1297, 8.06749, 42.217, -93.6608, 164.204
0.252, 1, -0.10289, 64.1211, 8.05583, 42.1492, -93.5826, 164.043
0.256, 1, -0.0834798, 64.1125, 8.04417, 42.0814, -93.5045, 163.883
0.26, 1, -0.0640768, 64.1038, 8.03252, 42.0136, -93.4263, 163.722
0.264, 1, -0.044681, 64.0952, 8.02087, 41.9459, -93.3482, 163.561
0.268, 1, -0.0252924, 64.0866, 8.00923, 41.8782, -93.2702, 163.401
0.272, 1, -0.00591093, 64.078, 7.99759, 41.8105, -93.1921, 163.24
0.276, 1, 0.0134634, 64.0694, 7.98595, 41.7429, -93.1141, 163.08
0.28, 1, 0.0328307, 64.0608, 7.97432, 41.6752, -93.0361, 162.919
0.284, 1, 0.052191, 64.0522, 7.9627, 41.6076, -92.9582, 162.759
0.288, 1, 0.0715443, 64.0436, 7.95108, 41.54, -92.8803, 162.599
0.292, 1, 0.0908908, 64.035, 7.93946, 41.4725, -92.8024, 162.438
0.296, 1, 0.11023, 64.0264, 7.92785, 41.4049, -92.7245, 162.278
0.3, 1, 0.129563, 64.0178, 7.91624, 41.3374, -92.6467, 162.118
0.304, 1, 0.148889, 64.0092, 7.90463, 41.2699, -92.5688, 161.958
0.308, 1, 0.168208, 64.0006, 7.89303, 41.2024, -92.491, 161.798
0.312, 1, 0.187521, 63.992, 7.88143, 41.135, -92.4133, 161.638
0.316, 1, 0.206827, 63.9834, 7.86984, 41.0676, -92.3355, 161.478
0.32, 1, 0.226127, 63.9748, 7.85825, 41.0002, -92.2578, 161.318
0.324, 1, 0.24542, 63.9663, 7.84666, 40.9328, -92.1802, 161.159
0.328, 1, 0.264706, 63.9577, 7.83508, 40.8655, -92.1025, 160.999
0.332, 1, 0.283986, 63.9491, 7.82351, 40.7981, -92.0249, 160.839
0.336, 1, 0.30326, 63.9406, 7.81193, 40.7308, -91.9473, 160.68
0.34, 1, 0.322528, 63.932, 7.80036, 40.6635, -91.8697, 160.52
0.344, 1, 0.341789, 63.9234, 7.78879, 40.5963, -91.7921, 160.36
0.348, 1, 0.361045, 63.9149, 7.77723, 40.529, -91.7146, 160.201
0.352, 1, 0.380294, 63.9063, 7.76567, 40.4618, -91.6371, 160.041
0.356, 1, 0.399537, 63.8978, 7.75412, 40.3946, -91.5596, 159.882
0.36, 1, 0.418774, 63.8892, 7.74257, 40.3274, -91.4822, 159.723
0.364, 1, 0.438006, 63.8807, 7.73102, 40.2603, -91.4047, 159.564
0.368, 1, 0.457231, 63.8721, 7.71947, 40.1931, -91.3273, 159.404
0.372, 1, 0.476451, 63.8636, 7.70793, 40.126, -91.2499, 159.245
0.376, 1, 0.495664, 63.855, 7.69639, 40.0589, -91.1726, 159.086
0.38, 1, 0.514872, 63.8465, 7.68486, 39.9918, -91.0952, 158.927
0.384, 1, 0.534075, 63.838, 7.67333, 39.9248, -91.0179, 158.768
0.388, 1, 0.553271, 63.8294, 7.6618, 39.8577, -90.9406, 158.609
0.392, 1, 0.572462, 63.8209, 7.65028, 39.7907, -90.8633, 158.45
0.396, 1, 0.591647, 63.8124, 7.63876, 39.7237, -90.7861, 158.291
0.4, 1, 0.610827, 63.8039, 7.62724, 39.6567, -90.7089, 158.132
0.404, 1, 0.630001, 63.7953, 7.61573, 39.5898, -90.6317, 157.973
0.408, 1, 0.64917, 63.7868, 7.60421, 39.5228, -90.5545, 157.815
0.412, 1, 0.668334, 63.7783, 7.59271, 39.4559, -90.4773, 157.656
0.416, 1, 0.687492, 63.7698, 7.5812, 39.389, -90.4002, 157.497
0.42, 1, 0.706645, 63.7613, 7.5697, 39.3221, -90.3231, 157.339
0.424, 1, 0.725793, 63.7528, 7.5582, 39.2553, -90.246, 157.18
0.428, 1, 0.744936, 63.7443, 7.54671, 39.1884, -90.1689, 157.021
0.432, 1, 0.764074, 63.7357, 7.53521, 39.1216, -90.0918, 156.863
0.436, 1, 0.783207, 63.7272, 7.52373, 39.0548, -90.0148, 156.704
0.44, 1, 0.802334, 63.7187, 7.51224, 38.988, -89.9378, 156.546
0.444, 1, 0.821457, 63.7102, 7.50076, 38.9212, -89.8608, 156.388
0.448, 1, 0.840575, 63.7017, 7.48928, 38.8544, -89.7838, 156.229
0.452, 1, 0.859688, 63.6932, 7.4778, 38.7877, -89.7068, 156.071
0.456, 1, 0.878797, 63.6848, 7.46632, 38.7209, -89.6299, 155.913
0.46, 1, 0.8979, 63.6763, 7.45485, 38.6542, -89.553, 155.754
0.464, 1, 0.916999, 63.6678, 7.44338, 38.5875, -89.4761, 155.596
0.468, 1, 0.936093, 63.6593, 7.43192, 38.5208, -89.3992, 155.438
0.472, 1, 0.955183, 63.6508, 7.42045, 38.4542, -89.3223, 155.28
0.476, 1, 0.974268, 63.6423, 7.40899, 38.3875, -89.2455, 155.122
0.48, 1, 0.993349, 63.6338, 7.39753, 38.3209, -89.1687, 154.964
0.484, 1, 1.01243, 63.6254, 7.38608, 38.2543, -89.0918, 154.806
0.488, 1, 1.0315, 63.6169, 7.37463, 38.1877, -89.0151, 154.648
0.492, 1, 1.05056, 63.6084, 7.36318, 38.1211, -88.9383, 154.49
0.496, 1, 1.06963, 63.5999, 7.35173, 38.0545, -88.8615, 154.332
0.5, 1, 1.08869, 63.5915, 7.34028, 37.9879, -88.7848, 154.174
0.504, 1, 1.10774, 63.583, 7.32884, 37.9214, -88.7081, 154.016
0.508, 1, 1.12679, 63.5745, 7.3174, 37.8549, -88.6313, 153.859
0.512, 1, 1.14584, 63.5661, 7.30596, 37.7884, -88.5547, 153.701
0.516, 1, 1.16488, 63.5576, 7.29453, 37.7219, -88.478, 153.543
0.52, 1, 1.18392, 63.5491, 7.2831, 37.6554, -88.4013, 153.385
0.524, 1, 1.20295, 63.5407, 7.27167, 37.5889, -88.3247, 153.228
0.528, 1, 1.22198, 63.5322, 7.26024, 37.5224, -88.2481, 153.07
0.532, 1, 1.24101, 63.5238, 7.24881, 37.456, -88.1714, 152.913
0.536, 1, 1.26003, 63.5153, 7.23739, 37.3896, -88.0948, 152.755
0.54, 1, 1.27905, 63.5069, 7.22597, 37.3232, -88.0183, 152.598
0.544, 1, 1.29807, 63.4984, 7.21455, 37.2567, -87.9417, 152.44
0.548, 1, 1.31708, 63.49, 7.20313, 37.1904, -87.8652, 152.283
0.552, 1, 1.33609, 63.4815, 7.19172, 37.124, -87.7886, 152.125
0.556, 1, 1.35509, 63.4731, 7.18031, 37.0576, -87.7121, 151.968
0.56, 1, 1.37409, 63.4646, 7.1689, 36.9913, -87.6356, 151.81
0.564, 1, 1.39309, 63.4562, 7.15749, 36.9249, -87.5591, 151.653
0.568, 1, 1.41208, 63.4477, 7.14608, 36.8586, -87.4826, 151.496
0.572, 1, 1.43107, 63.4393, 7.13468, 36.7923, -87.4062, 151.338
0.576, 1, 1.45006, 63.4309, 7.12328, 36.726, -87.3297, 151.181
0.58, 1, 1.46904, 63.4224, 7.11188, 36.6597, -87.2533, 151.024
0.584, 1, 1.48802, 63.414, 7.10048, 36.5934, -87.1768, 150.867
0.588, 1, 1.507, 63.4055, 7.08908, 36.5271, -87.1004, 150.71
0.592, 1, 1.52597, 63.3971, 7.07769, 36.4608, -87.024, 150.552
0.596, 1, 1.54494, 63.3887, 7.0663, 36.3946, -86.9476, 150.395
0.6, 1, 1.56391, 63.3802, 7.05491, 36.3284, -86.8713, 150.238
0.604, 1, 1.58288, 63.3718, 7.04352, 36.2621, -86.7949, 150.081
0.608, 1, 1.60184, 63.3634, 7.03213, 36.1959, -86.7186, 149.924
0.612, 1, 1.6208, 63.355, 7.02075, 36.1297, -86.6422, 149.767
0.616, 1, 1.63976, 63.3465, 7.00937, 36.0635, -86.5659, 149.61
0.62, 1, 1.65871, 63.3381, 6.99799, 35.9973, -86.4896, 149.453
0.624, 1, 1.67766, 63.3297, 6.98661, 35.9311, -86.4133, 149.296
0.628, 1, 1.69661, 63.3213, 6.97523, 35.865, -86.337, 149.139
0.632, 1, 1.71555, 63.3128, 6.96385, 35.7988, -86.2607, 148.982
0.636, 1, 1.7345, 63.3044, 6.95248, 35.7327, -86.1844, 148.825
0.64, 1, 1.75344, 63.296, 6.9411, 35.6665, -86.1082, 148.668
0.644, 1, 1.77237, 63.2876, 6.92973, 35.6004, -86.0319, 148.512
0.648, 1, 1.79131, 63.2792, 6.91836, 35.5343, -85.9557, 148.355
0.652, 1, 1.81024, 63.2708, 6.90699, 35.4681, -85.8795, 148.198
0.656, 1, 1.82917, 63.2623, 6.89562, 35.402, -85.8032, 148.041
0.66, 1, 1.8481, 63.2539, 6.88426, 35.3359, -85.727, 147.884
0.664, 1, 1.86702, 63.2455, 6.87289, 35.2698, -85.6508, 147.728
0.668, 1, 1.88595, 63.2371, 6.86153, 35.2038, -85.5746, 147.571
0.672, 1, 1.90487, 63.2287, 6.85017, 35.1377, -85.4985, 147.414
0.676, 1, 1.92379, 63.2203, 6.83881, 35.0716, -85.4223, 147.258
0.68, 1, 1.9427, 63.2119, 6.82745, 35.0056, -85.3461, 147.101
0.684, 1, 1.96162, 63.2035, 6.81609, 34.9395, -85.27, 146.944
0.688, 1, 1.98053, 63.1951, 6.80473, 34.8734, -85.1938, 146.788
0.692, 1, 1.99944, 63.1867, 6.79338, 34.8074, -85.1176, 146.631
0.696, 1, 2.01835, 63.1783, 6.78202, 34.7414, -85.0415, 146.474
0.7, 1, 2.03726, 63.1699, 6.77067, 34.6753, -84.9654, 146.318
0.704, 1, 2.05616, 63.1615, 6.75931, 34.6093, -84.8893, 146.161
0.708, 1, 2.07507, 63.153, 6.74796, 34.5433, -84.8131, 146.005
0.712, 1, 2.09397, 63.1446, 6.73661, 34.4773, -84.737, 145.848
0.716, 1, 2.11287, 63.1362, 6.72526, 34.4113, -84.6609, 145.691
0.72, 1, 2.13177, 63.1278, 6.71391, 34.3453, -84.5848, 145.535
0.724, 1, 2.15067, 63.1194, 6.70257, 34.2793, -84.5087, 145.378
0.728, 1, 2.16956, 63.1111, 6.69122, 34.2133, -84.4327, 145.222
0.732, 1, 2.18846, 63.1026, 6.67987, 34.1473, -84.3566, 145.065
0.736, 1, 2.20735, 63.0943, 6.66853, 34.0813, -84.2805, 144.909
0.74, 1, 2.22624, 63.0859, 6.65718, 34.0154, -84.2044, 144.752
0.744, 1, 2.24513, 63.0775, 6.64584, 33.9494, -84.1284, 144.596
0.748, 1, 2.26402, 63.0691, 6.6345, 33.8834, -84.0523, 144.44
0.752, 1, 2.28291, 63.0607, 6.62315, 33.8175, -83.9763, 144.283
0.756, 1, 2.3018, 63.0523, 6.61181, 33.7515, -83.9002, 144.127
0.76, 1, 2.32068, 63.0439, 6.60047, 33.6856, -83.8242, 143.97
0.764, 1, 2.33957, 63.0355, 6.58913, 33.6196, -83.7481, 143.814
0.768, 1, 2.35845, 63.0271, 6.57779, 33.5537, -83.6721, 143.657
0.772, 1, 2.37733, 63.0187, 6.56645, 33.4877, -83.5961, 143.501
0.776, 1, 2.39621, 63.0103, 6.55512, 33.4218, -83.5201, 143.345
0.78, 1, 2.4151, 63.0019, 6.54378, 33.3559, -83.444, 143.188
0.784, 1, 2.43397, 62.9935, 6.53244, 33.2899, -83.368, 143.032
0.788, 1, 2.45285, 62.9851, 6.5211, 33.224, -83.292, 142.876
0.792, 1, 2.47173, 62.9767, 6.50977, 33.1581, -83.216, 142.719
0.796, 1, 2.49061, 62.9684, 6.49843, 33.0922, -83.14, 142.563
0.8, 1, 2.50949, 62.96, 6.4871, 33.0262, -83.064, 142.406
0.804, 1, 2.52836, 62.9516, 6.47576, 32.9603, -82.988, 142.25
0.808, 1, 2.54724, 62.9432, 6.46443, 32.8944, -82.912, 142.094
0.812, 1, 2.56611, 62.9348, 6.45309, 32.8285, -82.836, 141.937
0.816, 1, 2.58499, 62.9264, 6.44176, 32.7626, -82.76, 141.781
0.82, 1, 2.60386, 62.918, 6.43042, 32.6967, -82.684, 141.625
0.824, 1, 2.62274, 62.9096, 6.41909, 32.6307, -82.608, 141.468
0.828, 1, 2.64161, 62.9012, 6.40776, 32.5648, -82.532, 141.312
0.832, 1, 2.66048, 62.8929, 6.39642, 32.4989, -82.456, 141.156
0.836, 1, 2.67935, 62.8845, 6.38509, 32.433, -82.38, 141
0.84, 1, 2.69823, 62.8761, 6.37376, 32.3671, -82.304, 140.843
0.844, 1, 2.7171, 62.8677, 6.36242, 32.3012, -82.228, 140.687
0.848, 1, 2.73597, 62.8593, 6.35109, 32.2353, -82.152, 140.531
0.852, 1, 2.75484, 62.8509, 6.33976, 32.1694, -82.076, 140.374
0.856, 1, 2.77372, 62.8425, 6.32843, 32.1035, -82.0001, 140.218
0.86, 1, 2.79259, 62.8341, 6.31709, 32.0376, -81.9241, 140.062
0.864, 1, 2.81146, 62.8257, 6.30576, 31.9717, -81.8481, 139.905
0.868, 1, 2.83033, 62.8174, 6.29443, 31.9058, -81.7721, 139.749
0.872, 1, 2.84921, 62.809, 6.28309, 31.8399, -81.6961, 139.593
0.876, 1, 2.86808, 62.8006, 6.27176, 31.774, -81.6201, 139.436
0.88, 1, 2.88695, 62.7922, 6.26043, 31.708, -81.5441, 139.28
0.884, 1, 2.90582, 62.7838, 6.24909, 31.6421, -81.4681, 139.124
0.888, 1, 2.9247, 62.7754, 6.23776, 31.5762, -81.3921, 138.967
0.892, 1, 2.94357, 62.767, 6.22643, 31.5103, -81.3161, 138.811
0.896, 1, 2.96245, 62.7586, 6.21509, 31.4444, -81.2401, 138.655
0.9, 1, 2.98132, 62.7502, 6.20376, 31.3785, -81.1641, 138.498
0.904, 1, 3.0002, 62.7419, 6.19242, 31.3126, -81.0881, 138.342
0.908, 1, 3.01907, 62.7335, 6.18109, 31.2466, -81.0121, 138.186
0.912, 1, 3.03795, 62.7251, 6.16975, 31.1807, -80.9361, 138.029
0.916, 1, 3.05683, 62.7167, 6.15842, 31.1148, -80.8601, 137.873
0.92, 1, 3.0757, 62.7083, 6.14708, 31.0489, -80.7841, 137.717
0.924, 1, 3.09458, 62.6999, 6.13575, 30.9829, -80.7081, 137.56
0.928, 1, 3.11346, 62.6915, 6.12441, 30.917, -80.6321, 137.404
0.932, 1, 3.13234, 62.6831, 6.11307, 30.8511, -80.5561, 137.248
0.936, 1, 3.15123, 62.6747, 6.10173, 30.7851, -80.48, 137.091
0.94, 1, 3.17011, 62.6663, 6.09039, 30.7192, -80.404, 136.935
0.944, 1, 3.18899, 62.6579, 6.07906, 30.6533, -80.328, 136.778
0.948, 1, 3.20788, 62.6496, 6.06772, 30.5873, -80.2519, 136.622
0.952, 1, 3.22676, 62.6412, 6.05638, 30.5214, -80.1759, 136.466
0.956, 1, 3.24565, 62.6328, 6.04503, 30.4554, -80.0999, 136.309
0.96, 1, 3.26454, 62.6244, 6.03369, 30.3894, -80.0238, 136.153
0.964, 1, 3.28343, 62.616, 6.02235, 30.3235, -79.9477, 135.996
0.968, 1, 3.30232, 62.6076, 6.011, 30.2575, -79.8717, 135.84
0.972, 1, 3.32121, 62.5992, 5.99966, 30.1915, -79.7956, 135.683
0.976, 1, 3.34011, 62.5908, 5.98832, 30.1256, -79.7195, 135.527
0.98, 1, 3.359, 62.5824, 5.97697, 30.0596, -79.6435, 135.37
0.984, 1, 3.3779, 62.574, 5.96562, 29.9936, -79.5674, 135.214
0.988, 1, 3.3968, 62.5656, 5.95427, 29.9276, -79.4913, 135.057
0.992, 1, 3.4157, 62.5572, 5.94292, 29.8616, -79.4152, 134.901
0.996, 1, 3.4346, 62.5488, 5.93157, 29.7956, -79.3391, 134.744
1, 1, 3.4535, 62.5404, 5.92022, 29.7296, -79.263, 134.588
1.004, 1, 3.47241, 62.532, 5.90887, 29.6635, -79.1868, 134.431
1.008, 1, 3.49132, 62.5236, 5.89752, 29.5975, -79.1107, 134.275
1.012, 1, 3.51023, 62.5152, 5.88616, 29.5315, -79.0346, 134.118
1.016, 1, 3.52914, 62.5068, 5.87481, 29.4654, -78.9584, 133.961
1.02, 1, 3.54805, 62.4984, 5.86345, 29.3994, -78.8823, 133.805
1.024, 1, 3.56696, 62.4899, 5.85209, 29.3333, -78.8061, 133.648
1.027, 1, 3.58588, 62.4815, 5.84073, 29.2673, -78.7299, 133.491
1.032, 1, 3.6048, 62.4731, 5.82937, 29.2012, -78.6538, 133.335
1.036, 1, 3.62372, 62.4647, 5.81801, 29.1351, -78.5776, 133.178
1.04, 1, 3.64265, 62.4563, 5.80664, 29.069, -78.5014, 133.021
1.044, 1, 3.66157, 62.4479, 5.79528, 29.003, -78.4252, 132.864
1.048, 1, 3.6805, 62.4395, 5.78391, 28.9368, -78.349, 132.708
1.052, 1, 3.69943, 62.4311, 5.77254, 28.8707, -78.2727, 132.551
1.055, 1, 3.71837, 62.4227, 5.76117, 28.8046, -78.1965, 132.394
1.06, 1, 3.7373, 62.4142, 5.7498, 28.7385, -78.1203, 132.237
1.064, 1, 3.75624, 62.4058, 5.73843, 28.6724, -78.044, 132.08
1.068, 1, 3.77518, 62.3974, 5.72706, 28.6062, -77.9677, 131.923
1.072, 1, 3.79413, 62.389, 5.71568, 28.54, -77.8915, 131.767
1.076, 1, 3.81308, 62.3806, 5.7043, 28.4739, -77.8152, 131.61
1.08, 1, 3.83203, 62.3721, 5.69292, 28.4077, -77.7389, 131.453
1.084, 1, 3.85098, 62.3637, 5.68154, 28.3415, -77.6626, 131.296
1.088, 1, 3.86993, 62.3553, 5.67016, 28.2753, -77.5862, 131.139
1.091, 1, 3.88889, 62.3469, 5.65878, 28.2091, -77.5099, 130.982
1.096, 1, 3.90785, 62.3384, 5.64739, 28.1429, -77.4336, 130.825
1.1, 1, 3.92682, 62.33, 5.636, 28.0767, -77.3572, 130.668
1.104, 1, 3.94578, 62.3216, 5.62461, 28.0104, -77.2808, 130.51
1.108, 1, 3.96475, 62.3131, 5.61322, 27.9442, -77.2045, 130.353
1.112, 1, 3.98373, 62.3047, 5.60183, 27.8779, -77.1281, 130.196
1.116, 1, 4.00271, 62.2963, 5.59043, 27.8117, -77.0517, 130.039
1.119, 1, 4.02169, 62.2878, 5.57904, 27.7454, -76.9752, 129.882
1.124, 1, 4.04067, 62.2794, 5.56764, 27.6791, -76.8988, 129.725
1.128, 1, 4.05966, 62.271, 5.55624, 27.6128, -76.8223, 129.567
1.132, 1, 4.07865, 62.2625, 5.54483, 27.5465, -76.7459, 129.41
1.136, 1, 4.09764, 62.2541, 5.53343, 27.4801, -76.6694, 129.253
1.14, 1, 4.11664, 62.2456, 5.52202, 27.4138, -76.5929, 129.095
1.144, 1, 4.13564, 62.2372, 5.51061, 27.3474, -76.5164, 128.938
1.147, 1, 4.15464, 62.2287, 5.4992, 27.2811, -76.4399, 128.781
1.152, 1, 4.17365, 62.2203, 5.48778, 27.2147, -76.3633, 128.623
1.156, 1, 4.19266, 62.2118, 5.47637, 27.1483, -76.2868, 128.466
1.16, 1, 4.21168, 62.2034, 5.46495, 27.0819, -76.2102, 128.308
1.164, 1, 4.2307, 62.1949, 5.45353, 27.0155, -76.1337, 128.151
1.168, 1, 4.24972, 62.1865, 5.4421, 26.9491, -76.0571, 127.993
1.172, 1, 4.26875, 62.178, 5.43068, 26.8826, -75.9805, 127.836
1.175, 1, 4.28778, 62.1696, 5.41925, 26.8161, -75.9038, 127.678
1.18, 1, 4.30682, 62.1611, 5.40782, 26.7497, -75.8272, 127.52
1.184, 1, 4.32586, 62.1526, 5.39639, 26.6832, -75.7505, 127.363
1.188, 1, 4.3449, 62.1442, 5.38495, 26.6167, -75.6738, 127.205
1.192, 1, 4.36395, 62.1357, 5.37351, 26.5502, -75.5971, 127.047
1.196, 1, 4.383, 62.1272, 5.36207, 26.4836, -75.5204, 126.889
1.2, 1, 4.40206, 62.1188, 5.35063, 26.4171, -75.4437, 126.731
1.204, 1, 4.42112, 62.1103, 5.33918, 26.3505, -75.367, 126.574
1.208, 1, 4.44018, 62.1018, 5.32774, 26.2839, -75.2902, 126.416
1.212, 1, 4.45925, 62.0934, 5.31629, 26.2173, -75.2134, 126.258
1.216, 1, 4.47833, 62.0849, 5.30483, 26.1507, -75.1366, 126.1
1.22, 1, 4.49741, 62.0764, 5.29338, 26.0841, -75.0598, 125.942
1.224, 1, 4.51649, 62.0679, 5.28192, 26.0175, -74.983, 125.784
1.228, 1, 4.53558, 62.0594, 5.27045, 25.9508, -74.9061, 125.626
1.232, 1, 4.55467, 62.0509, 5.25899, 25.8841, -74.8292, 125.467
1.236, 1, 4.57377, 62.0425, 5.24752, 25.8174, -74.7523, 125.309
1.24, 1, 4.59287, 62.034, 5.23605, 25.7507, -74.6754, 125.151
1.244, 1, 4.61198, 62.0255, 5.22458, 25.684, -74.5985, 124.993
1.248, 1, 4.63109, 62.017, 5.2131, 25.6173, -74.5215, 124.835
1.252, 1, 4.65021, 62.0085, 5.20162, 25.5505, -74.4446, 124.676
1.256, 1, 4.66933, 62, 5.19014, 25.4837, -74.3676, 124.518
1.26, 1, 4.68846, 61.9915, 5.17865, 25.4169, -74.2906, 124.359
1.264, 1, 4.7076, 61.983, 5.16716, 25.3501, -74.2135, 124.201
1.267, 1, 4.72673, 61.9745, 5.15567, 25.2833, -74.1365, 124.042
1.272, 1, 4.74588, 61.966, 5.14418, 25.2164, -74.0594, 123.884
1.276, 1, 4.76503, 61.9575, 5.13268, 25.1496, -73.9823, 123.725
1.28, 1, 4.78418, 61.9489, 5.12118, 25.0827, -73.9052, 123.567
1.284, 1, 4.80334, 61.9404, 5.10967, 25.0158, -73.828, 123.408
1.288, 1, 4.82251, 61.9319, 5.09816, 24.9488, -73.7508, 123.249
1.292, 1, 4.84168, 61.9234, 5.08665, 24.8819, -73.6737, 123.09
1.295, 1, 4.86086, 61.9149, 5.07514, 24.8149, -73.5965, 122.932
1.3, 1, 4.88004, 61.9063, 5.06362, 24.7479, -73.5192, 122.773
1.304, 1, 4.89923, 61.8978, 5.0521, 24.6809, -73.442, 122.614
1.308, 1, 4.91843, 61.8893, 5.04057, 24.6139, -73.3647, 122.455
1.312, 1, 4.93763, 61.8807, 5.02904, 24.5469, -73.2874, 122.296
1.316, 1, 4.95683, 61.8722, 5.01751, 24.4798, -73.21, 122.137
1.32, 1, 4.97605, 61.8637, 5.00597, 24.4127, -73.1327, 121.978
1.324, 1, 4.99527, 61.8551, 4.99443, 24.3456, -73.0553, 121.818
1.328, 1, 5.01449, 61.8466, 4.98289, 24.2785, -72.9779, 121.659
1.332, 1, 5.03372, 61.838, 4.97134, 24.2113, -72.9005, 121.5
1.336, 1, 5.05296, 61.8295, 4.95979, 24.1441, -72.823, 121.341
1.34, 1, 5.0722, 61.8209, 4.94823, 24.0769, -72.7455, 121.181
1.344, 1, 5.09145, 61.8124, 4.93667, 24.0097, -72.668, 121.022
1.348, 1, 5.11071, 61.8038, 4.92511, 23.9424, -72.5905, 120.862
1.352, 1, 5.12998, 61.7952, 4.91354, 23.8752, -72.5129, 120.703
1.356, 1, 5.14925, 61.7867, 4.90197, 23.8079, -72.4353, 120.543
1.36, 1, 5.16852, 61.7781, 4.8904, 23.7406, -72.3577, 120.384
1.364, 1, 5.18781, 61.7695, 4.87882, 23.6732, -72.2801, 120.224
1.368, 1, 5.2071, 61.761, 4.86724, 23.6059, -72.2024, 120.064
1.372, 1, 5.22639, 61.7524, 4.85565, 23.5385, -72.1247, 119.904
1.376, 1, 5.2457, 61.7438, 4.84406, 23.4711, -72.047, 119.744
1.38, 1, 5.26501, 61.7352, 4.83246, 23.4036, -71.9692, 119.584
1.384, 1, 5.28433, 61.7266, 4.82086, 23.3362, -71.8915, 119.424
1.388, 1, 5.30365, 61.7181, 4.80926, 23.2687, -71.8137, 119.264
1.392, 1, 5.32299, 61.7095, 4.79765, 23.2012, -71.7358, 119.104
1.396, 1, 5.34233, 61.7009, 4.78604, 23.1336, -71.6579, 118.944
1.4, 1, 5.36167, 61.6923, 4.77442, 23.0661, -71.58, 118.784
1.404, 1, 5.38103, 61.6837, 4.7628, 22.9985, -71.5021, 118.624
1.408, 1, 5.40039, 61.6751, 4.75117, 22.9309, -71.4242, 118.463
1.412, 1, 5.41976, 61.6665, 4.73954, 22.8633, -71.3462, 118.303
1.416, 1, 5.43914, 61.6578, 4.72791, 22.7956, -71.2682, 118.142
1.42, 1, 5.45852, 61.6492, 4.71627, 22.7279, -71.1901, 117.982
1.424, 1, 5.47791, 61.6406, 4.70462, 22.6602, -71.112, 117.821
1.428, 1, 5.49731, 61.632, 4.69297, 22.5924, -71.0339, 117.66
1.432, 1, 5.51672, 61.6234, 4.68132, 22.5247, -70.9558, 117.5
1.436, 1, 5.53614, 61.6147, 4.66966, 22.4569, -70.8776, 117.339
1.44, 1, 5.55556, 61.6061, 4.658, 22.389, -70.7994, 117.178
1.444, 1, 5.57499, 61.5975, 4.64633, 22.3212, -70.7212, 117.017
1.448, 1, 5.59443, 61.5888, 4.63466, 22.2533, -70.6429, 116.856
1.452, 1, 5.61388, 61.5802, 4.62298, 22.1854, -70.5646, 116.695
1.456, 1, 5.63334, 61.5715, 4.6113, 22.1174, -70.4863, 116.534
1.46, 1, 5.6528, 61.5629, 4.59961, 22.0495, -70.4079, 116.373
1.464, 1, 5.67227, 61.5542, 4.58792, 21.9815, -70.3295, 116.211
1.468, 1, 5.69175, 61.5456, 4.57622, 21.9135, -70.2511, 116.05
1.472, 1, 5.71124, 61.5369, 4.56452, 21.8454, -70.1726, 115.889
1.476, 1, 5.73074, 61.5282, 4.55281, 21.7773, -70.0941, 115.727
1.48, 1, 5.75025, 61.5196, 4.54109, 21.7092, -70.0156, 115.566
1.484, 1, 5.76976, 61.5109, 4.52938, 21.641, -69.937, 115.404
1.488, 1, 5.78929, 61.5022, 4.51765, 21.5729, -69.8584, 115.242
1.492, 1, 5.80882, 61.4935, 4.50593, 21.5047, -69.7797, 115.081
1.496, 1, 5.82836, 61.4848, 4.49419, 21.4364, -69.7011, 114.919
1.5, 1, 5.84791, 61.4762, 4.48245, 21.3682, -69.6224, 114.757
1.504, 1, 5.86747, 61.4675, 4.47071, 21.2999, -69.5436, 114.595
1.508, 1, 5.88704, 61.4588, 4.45896, 21.2315, -69.4648, 114.433
1.512, 1, 5.90662, 61.4501, 4.44721, 21.1632, -69.386, 114.271
1.516, 1, 5.9262, 61.4414, 4.43544, 21.0948, -69.3071, 114.108
1.52, 1, 5.9458, 61.4327, 4.42368, 21.0263, -69.2282, 113.946
1.524, 1, 5.9654, 61.4239, 4.41191, 20.9579, -69.1493, 113.784
1.528, 1, 5.98502, 61.4152, 4.40013, 20.8894, -69.0703, 113.621
1.532, 1, 6.00464, 61.4065, 4.38835, 20.8209, -68.9913, 113.459
1.536, 1, 6.02428, 61.3978, 4.37656, 20.7523, -68.9123, 113.296
1.54, 1, 6.04392, 61.389, 4.36476, 20.6837, -68.8332, 113.134
1.544, 1, 6.06357, 61.3803, 4.35296, 20.6151, -68.7541, 112.971
1.548, 1, 6.08324, 61.3716, 4.34116, 20.5464, -68.6749, 112.808
1.552, 1, 6.10291, 61.3628, 4.32935, 20.4777, -68.5957, 112.645
1.556, 1, 6.12259, 61.3541, 4.31753, 20.409, -68.5165, 112.482
1.56, 1, 6.14229, 61.3453, 4.3057, 20.3402, -68.4372, 112.319
1.564, 1, 6.16199, 61.3366, 4.29387, 20.2714, -68.3578, 112.156
1.568, 1, 6.1817, 61.3278, 4.28204, 20.2026, -68.2785, 111.992
1.572, 1, 6.20143, 61.319, 4.2702, 20.1337, -68.1991, 111.829
1.576, 1, 6.22116, 61.3103, 4.25835, 20.0648, -68.1196, 111.666
1.58, 1, 6.2409, 61.3015, 4.24649, 19.9959, -68.0401, 111.502
1.584, 1, 6.26066, 61.2927, 4.23463, 19.9269, -67.9606, 111.339
1.588, 1, 6.28042, 61.2839, 4.22277, 19.8579, -67.881, 111.175
1.592, 1, 6.3002, 61.2751, 4.21089, 19.7888, -67.8014, 111.011
1.596, 1, 6.31998, 61.2663, 4.19901, 19.7197, -67.7218, 110.847
1.6, 1, 6.33978, 61.2575, 4.18713, 19.6506, -67.6421, 110.683
1.604, 1, 6.35959, 61.2487, 4.17523, 19.5815, -67.5623, 110.519
1.608, 1, 6.37941, 61.2399, 4.16334, 19.5122, -67.4825, 110.355
1.612, 1, 6.39924, 61.2311, 4.15143, 19.443, -67.4027, 110.191
1.616, 1, 6.41908, 61.2223, 4.13952, 19.3737, -67.3228, 110.027
1.62, 1, 6.43893, 61.2135, 4.1276, 19.3044, -67.2429, 109.862
1.624, 1, 6.4588, 61.2047, 4.11567, 19.2351, -67.1629, 109.698
1.628, 1, 6.47867, 61.1958, 4.10374, 19.1657, -67.0829, 109.533
1.632, 1, 6.49856, 61.187, 4.0918, 19.0962, -67.0028, 109.368
1.636, 1, 6.51845, 61.1781, 4.07985, 19.0267, -66.9227, 109.204
1.64, 1, 6.53836, 61.1693, 4.0679, 18.9572, -66.8426, 109.039
1.644, 1, 6.55828, 61.1604, 4.05593, 18.8877, -66.7624, 108.874
1.648, 1, 6.57822, 61.1516, 4.04397, 18.8181, -66.6821, 108.709
1.652, 1, 6.59816, 61.1427, 4.03199, 18.7484, -66.6018, 108.544
1.656, 1, 6.61812, 61.1338, 4.02001, 18.6787, -66.5215, 108.378
1.66, 1, 6.63808, 61.125, 4.00802, 18.609, -66.4411, 108.213
1.664, 1, 6.65806, 61.1161, 3.99602, 18.5392, -66.3607, 108.048
1.668, 1, 6.67806, 61.1072, 3.98402, 18.4694, -66.2802, 107.882
1.672, 1, 6.69806, 61.0983, 3.97201, 18.3996, -66.1996, 107.716
1.676, 1, 6.71808, 61.0894, 3.95999, 18.3297, -66.119, 107.551
1.68, 1, 6.73811, 61.0805, 3.94796, 18.2598, -66.0384, 107.385
1.684, 1, 6.75815, 61.0716, 3.93593, 18.1898, -65.9577, 107.219
1.688, 1, 6.77821, 61.0627, 3.92389, 18.1197, -65.877, 107.053
1.692, 1, 6.79827, 61.0538, 3.91184, 18.0497, -65.7962, 106.886
1.696, 1, 6.81835, 61.0448, 3.89978, 17.9796, -65.7154, 106.72
1.7, 1, 6.83845, 61.0359, 3.88772, 17.9094, -65.6345, 106.554
1.704, 1, 6.85855, 61.027, 3.87565, 17.8392, -65.5535, 106.387
1.708, 1, 6.87867, 61.018, 3.86357, 17.7689, -65.4725, 106.221
1.712, 1, 6.8988, 61.0091, 3.85148, 17.6986, -65.3915, 106.054
1.716, 1, 6.91895, 61.0001, 3.83939, 17.6283, -65.3104, 105.887
1.72, 1, 6.93911, 60.9912, 3.82728, 17.5579, -65.2292, 105.72
1.724, 1, 6.95928, 60.9822, 3.81517, 17.4875, -65.148, 105.553
1.728, 1, 6.97947, 60.9732, 3.80305, 17.417, -65.0667, 105.386
1.732, 1, 6.99966, 60.9643, 3.79092, 17.3465, -64.9854, 105.219
1.736, 1, 7.01988, 60.9553, 3.77879, 17.2759, -64.904, 105.051
1.74, 1, 7.0401, 60.9463, 3.76664, 17.2053, -64.8226, 104.884
1.744, 1, 7.06034, 60.9373, 3.75449, 17.1346, -64.7411, 104.716
1.748, 1, 7.0806, 60.9283, 3.74233, 17.0639, -64.6596, 104.548
1.752, 1, 7.10087, 60.9193, 3.73016, 16.9931, -64.578, 104.381
1.756, 1, 7.12115, 60.9103, 3.71799, 16.9223, -64.4963, 104.213
1.76, 1, 7.14145, 60.9013, 3.7058, 16.8514, -64.4146, 104.044
1.764, 1, 7.16176, 60.8922, 3.69361, 16.7805, -64.3329, 103.876
1.768, 1, 7.18208, 60.8832, 3.6814, 16.7095, -64.251, 103.708
1.772, 1, 7.20242, 60.8742, 3.66919, 16.6385, -64.1691, 103.54
1.776, 1, 7.22278, 60.8651, 3.65697, 16.5674, -64.0872, 103.371
1.78, 1, 7.24314, 60.8561, 3.64474, 16.4963, -64.0052, 103.202
1.784, 1, 7.26353, 60.847, 3.6325, 16.4251, -63.9231, 103.033
1.788, 1, 7.28393, 60.8379, 3.62026, 16.3539, -63.841, 102.865
1.792, 1, 7.30434, 60.8289, 3.608, 16.2826, -63.7588, 102.696
1.796, 1, 7.32477, 60.8198, 3.59574, 16.2113, -63.6766, 102.526
1.8, 1, 7.34521, 60.8107, 3.58346, 16.1399, -63.5943, 102.357
1.804, 1, 7.36567, 60.8016, 3.57118, 16.0685, -63.5119, 102.188
1.808, 1, 7.38614, 60.7925, 3.55889, 15.997, -63.4295, 102.018
1.812, 1, 7.40663, 60.7834, 3.54658, 15.9255, -63.347, 101.848
1.816, 1, 7.42714, 60.7743, 3.53427, 15.8539, -63.2645, 101.679
1.82, 1, 7.44766, 60.7652, 3.52195, 15.7822, -63.1819, 101.509
1.824, 1, 7.4682, 60.756, 3.50962, 15.7105, -63.0992, 101.339
1.828, 1, 7.48875, 60.7469, 3.49729, 15.6388, -63.0165, 101.168
1.832, 1, 7.50932, 60.7378, 3.48494, 15.5669, -62.9337, 100.998
1.836, 1, 7.5299, 60.7286, 3.47258, 15.4951, -62.8508, 100.828
1.84, 1, 7.5505, 60.7195, 3.46021, 15.4231, -62.7679, 100.657
1.844, 1, 7.57112, 60.7103, 3.44783, 15.3512, -62.6849, 100.486
1.848, 1, 7.59175, 60.7011, 3.43545, 15.2791, -62.6018, 100.315
1.852, 1, 7.6124, 60.6919, 3.42305, 15.207, -62.5187, 100.144
1.856, 1, 7.63307, 60.6828, 3.41064, 15.1349, -62.4355, 99.9733
1.86, 1, 7.65375, 60.6736, 3.39822, 15.0627, -62.3522, 99.802
1.864, 1, 7.67445, 60.6644, 3.3858, 14.9904, -62.2689, 99.6306
1.868, 1, 7.69517, 60.6552, 3.37336, 14.918, -62.1855, 99.4591
1.872, 1, 7.7159, 60.646, 3.36091, 14.8457, -62.102, 99.2874
1.876, 1, 7.73665, 60.6367, 3.34845, 14.7732, -62.0185, 99.1156
1.88, 1, 7.75742, 60.6275, 3.33599, 14.7007, -61.9349, 98.9436
1.884, 1, 7.7782, 60.6183, 3.32351, 14.6281, -61.8512, 98.7715
1.888, 1, 7.79901, 60.609, 3.31102, 14.5555, -61.7675, 98.5992
1.892, 1, 7.81983, 60.5998, 3.29852, 14.4828, -61.6837, 98.4268
1.896, 1, 7.84067, 60.5905, 3.28601, 14.41, -61.5998, 98.2542
1.9, 1, 7.86152, 60.5812, 3.27349, 14.3372, -61.5158, 98.0816
1.904, 1, 7.8824, 60.572, 3.26096, 14.2644, -61.4318, 97.9087
1.908, 1, 7.90329, 60.5627, 3.24841, 14.1914, -61.3477, 97.7357
1.912, 1, 7.9242, 60.5534, 3.23586, 14.1184, -61.2635, 97.5626
1.916, 1, 7.94513, 60.5441, 3.2233, 14.0453, -61.1793, 97.3893
1.92, 1, 7.96608, 60.5348, 3.21072, 13.9722, -61.0949, 97.2158
1.924, 1, 7.98705, 60.5255, 3.19814, 13.899, -61.0105, 97.0422
1.928, 1, 8.00803, 60.5161, 3.18554, 13.8257, -60.9261, 96.8684
1.932, 1, 8.02903, 60.5068, 3.17293, 13.7524, -60.8415, 96.6945
1.936, 1, 8.05006, 60.4974, 3.16031, 13.679, -60.7569, 96.5204
1.94, 1, 8.0711, 60.4881, 3.14768, 13.6056, -60.6722, 96.3462
1.944, 1, 8.09216, 60.4787, 3.13503, 13.532, -60.5874, 96.1718
1.948, 1, 8.11324, 60.4694, 3.12238, 13.4584, -60.5026, 95.9973
1.952, 1, 8.13434, 60.46, 3.10971, 13.3848, -60.4176, 95.8226
1.956, 1, 8.15546, 60.4506, 3.09703, 13.311, -60.3326, 95.6477
1.96, 1, 8.17659, 60.4412, 3.08434, 13.2372, -60.2475, 95.4727
1.964, 1, 8.19775, 60.4318, 3.07164, 13.1634, -60.1623, 95.2975
1.968, 1, 8.21893, 60.4224, 3.05893, 13.0894, -60.0771, 95.1221
1.972, 1, 8.24013, 60.413, 3.0462, 13.0154, -59.9918, 94.9466
1.976, 1, 8.26135, 60.4035, 3.03346, 12.9413, -59.9063, 94.7709
1.98, 1, 8.28259, 60.3941, 3.02071, 12.8672, -59.8208, 94.595
1.984, 1, 8.30385, 60.3847, 3.00795, 12.7929, -59.7353, 94.419
1.988, 1, 8.32513, 60.3752, 2.99518, 12.7186, -59.6496, 94.2428
1.992, 1, 8.34643, 60.3657, 2.98239, 12.6443, -59.5639, 94.0664
1.996, 1, 8.36775, 60.3563, 2.96959, 12.5698, -59.478, 93.8898
1.999, 1, 8.38909, 60.3468, 2.95678, 12.4953, -59.3921, 93.7131
2.004, 1, 8.41046, 60.3373, 2.94395, 12.4207, -59.3061, 93.5362
2.008, 1, 8.43184, 60.3278, 2.93111, 12.3461, -59.22, 93.3591
2.012, 1, 8.45325, 60.3183, 2.91826, 12.2713, -59.1339, 93.1819
2.015, 1, 8.47468, 60.3087, 2.9054, 12.1965, -59.0476, 93.0044
2.019, 1, 8.49613, 60.2992, 2.89252, 12.1216, -58.9613, 92.8268
2.024, 1, 8.5176, 60.2897, 2.87963, 12.0467, -58.8748, 92.649
2.028, 1, 8.53909, 60.2801, 2.86673, 11.9716, -58.7883, 92.4711
2.031, 1, 8.56061, 60.2706, 2.85381, 11.8965, -58.7017, 92.2929
2.036, 1, 8.58215, 60.261, 2.84089, 11.8213, -58.615, 92.1146
2.04, 1, 8.60371, 60.2514, 2.82794, 11.7461, -58.5282, 91.9361
2.044, 1, 8.62529, 60.2418, 2.81499, 11.6707, -58.4413, 91.7573
2.048, 1, 8.6469, 60.2322, 2.80202, 11.5953, -58.3544, 91.5784
2.051, 1, 8.66852, 60.2226, 2.78903, 11.5198, -58.2673, 91.3994
2.055, 1, 8.69018, 60.213, 2.77604, 11.4442, -58.1802, 91.2201
2.06, 1, 8.71185, 60.2033, 2.76302, 11.3685, -58.0929, 91.0406
2.064, 1, 8.73355, 60.1937, 2.75, 11.2928, -58.0056, 90.861
2.068, 1, 8.75527, 60.184, 2.73696, 11.2169, -57.9181, 90.6811
2.071, 1, 8.77702, 60.1744, 2.72391, 11.141, -57.8306, 90.5011
2.076, 1, 8.79879, 60.1647, 2.71084, 11.065, -57.743, 90.3208
2.08, 1, 8.82058, 60.155, 2.69776, 10.9889, -57.6553, 90.1404
2.084, 1, 8.84239, 60.1453, 2.68466, 10.9128, -57.5675, 89.9597
2.087, 1, 8.86424, 60.1356, 2.67155, 10.8365, -57.4796, 89.7789
2.092, 1, 8.8861, 60.1259, 2.65843, 10.7602, -57.3915, 89.5979
2.096, 1, 8.90799, 60.1162, 2.64529, 10.6838, -57.3034, 89.4166
2.1, 1, 8.92991, 60.1064, 2.63213, 10.6073, -57.2152, 89.2352
2.104, 1, 8.95185, 60.0967, 2.61896, 10.5307, -57.1269, 89.0535
2.107, 1, 8.97381, 60.0869, 2.60578, 10.454, -57.0385, 88.8717
2.111, 1, 8.9958, 60.0772, 2.59258, 10.3772, -56.95, 88.6896
2.116, 1, 9.01782, 60.0674, 2.57936, 10.3004, -56.8614, 88.5073
2.12, 1, 9.03986, 60.0576, 2.56613, 10.2234, -56.7727, 88.3249
2.124, 1, 9.06192, 60.0478, 2.55289, 10.1464, -56.6839, 88.1422
2.127, 1, 9.08401, 60.038, 2.53963, 10.0693, -56.5949, 87.9593
2.132, 1, 9.10613, 60.0281, 2.52635, 9.99208, -56.5059, 87.7761
2.136, 1, 9.12828, 60.0183, 2.51306, 9.91478, -56.4168, 87.5928
2.14, 1, 9.15045, 60.0084, 2.49975, 9.83739, -56.3276, 87.4092
2.143, 1, 9.17265, 59.9986, 2.48643, 9.7599, -56.2382, 87.2254
2.148, 1, 9.19487, 59.9887, 2.47309, 9.68232, -56.1488, 87.0415
2.152, 1, 9.21712, 59.9788, 2.45973, 9.60464, -56.0592, 86.8572
2.156, 1, 9.2394, 59.9689, 2.44636, 9.52688, -55.9695, 86.6728
2.16, 1, 9.2617, 59.959, 2.43297, 9.44901, -55.8798, 86.4881
2.163, 1, 9.28404, 59.9491, 2.41957, 9.37105, -55.7899, 86.3032
2.168, 1, 9.3064, 59.9391, 2.40615, 9.293, -55.6999, 86.1181
2.172, 1, 9.32879, 59.9292, 2.39271, 9.21485, -55.6098, 85.9327
2.176, 1, 9.3512, 59.9192, 2.37926, 9.1366, -55.5196, 85.7472
2.179, 1, 9.37365, 59.9092, 2.36578, 9.05825, -55.4292, 85.5613
2.184, 1, 9.39612, 59.8993, 2.3523, 8.9798, -55.3388, 85.3753
2.188, 1, 9.41863, 59.8893, 2.33879, 8.90125, -55.2482, 85.189
2.192, 1, 9.44116, 59.8792, 2.32527, 8.82261, -55.1575, 85.0025
2.196, 1, 9.46372, 59.8692, 2.31173, 8.74386, -55.0667, 84.8157
2.199, 1, 9.48631, 59.8592, 2.29817, 8.66501, -54.9758, 84.6287
2.204, 1, 9.50893, 59.8491, 2.28459, 8.58606, -54.8848, 84.4414
2.208, 1, 9.53158, 59.8391, 2.271, 8.507, -54.7936, 84.2539
2.212, 1, 9.55426, 59.829, 2.25739, 8.42784, -54.7024, 84.0662
2.216, 1, 9.57696, 59.8189, 2.24376, 8.34857, -54.611, 83.8782
2.219, 1, 9.5997, 59.8088, 2.23011, 8.26921, -54.5195, 83.69
2.224, 1, 9.62247, 59.7987, 2.21645, 8.18973, -54.4278, 83.5015
2.228, 1, 9.64527, 59.7885, 2.20276, 8.11014, -54.3361, 83.3127
2.232, 1, 9.6681, 59.7784, 2.18906, 8.03045, -54.2442, 83.1237
2.235, 1, 9.69096, 59.7682, 2.17534, 7.95065, -54.1522, 82.9344
2.24, 1, 9.71386, 59.7581, 2.1616, 7.87074, -54.0601, 82.7449
2.244, 1, 9.73678, 59.7479, 2.14784, 7.79072, -53.9678, 82.5551
2.248, 1, 9.75974, 59.7377, 2.13406, 7.71059, -53.8754, 82.3651
2.252, 1, 9.78273, 59.7275, 2.12027, 7.63035, -53.7829, 82.1748
2.255, 1, 9.80575, 59.7172, 2.10645, 7.55, -53.6902, 81.9842
2.259, 1, 9.8288, 59.707, 2.09261, 7.46953, -53.5975, 81.7934
2.264, 1, 9.85189, 59.6967, 2.07876, 7.38895, -53.5045, 81.6022
2.268, 1, 9.87501, 59.6865, 2.06488, 7.30825, -53.4115, 81.4109
2.272, 1, 9.89816, 59.6762, 2.05099, 7.22744, -53.3183, 81.2192
2.275, 1, 9.92135, 59.6659, 2.03707, 7.14651, -53.225, 81.0273
2.28, 1, 9.94457, 59.6556, 2.02314, 7.06547, -53.1316, 80.835
2.284, 1, 9.96782, 59.6452, 2.00918, 6.9843, -53.038, 80.6426
2.288, 1, 9.99111, 59.6349, 1.99521, 6.90302, -52.9443, 80.4498
2.291, 1, 10.0144, 59.6245, 1.98121, 6.82162, -52.8504, 80.2567
2.296, 1, 10.0378, 59.6141, 1.96719, 6.7401, -52.7564, 80.0634
2.3, 1, 10.0612, 59.6037, 1.95316, 6.65846, -52.6623, 79.8698
2.304, 1, 10.0846, 59.5933, 1.9391, 6.5767, -52.568, 79.6758
2.308, 1, 10.1081, 59.5829, 1.92502, 6.49481, -52.4736, 79.4816
2.311, 1, 10.1316, 59.5725, 1.91092, 6.4128, -52.3791, 79.2871
2.316, 1, 10.1551, 59.562, 1.89679, 6.33067, -52.2844, 79.0923
2.32, 1, 10.1787, 59.5515, 1.88265, 6.24841, -52.1895, 78.8972
2.324, 1, 10.2023, 59.541, 1.86848, 6.16602, -52.0945, 78.7018
2.328, 1, 10.2259, 59.5305, 1.8543, 6.08351, -51.9994, 78.5061
2.331, 1, 10.2496, 59.52, 1.84009, 6.00086, -51.9041, 78.3101
2.336, 1, 10.2733, 59.5095, 1.82586, 5.91809, -51.8087, 78.1138
2.34, 1, 10.2971, 59.4989, 1.8116, 5.83519, -51.7131, 77.9172
2.344, 1, 10.3209, 59.4884, 1.79733, 5.75216, -51.6174, 77.7203
2.347, 1, 10.3447, 59.4778, 1.78303, 5.669, -51.5215, 77.523
2.352, 1, 10.3686, 59.4672, 1.7687, 5.5857, -51.4254, 77.3255
2.356, 1, 10.3925, 59.4565, 1.75436, 5.50227, -51.3292, 77.1276
2.36, 1, 10.4164, 59.4459, 1.73999, 5.4187, -51.2329, 76.9294
2.364, 1, 10.4404, 59.4352, 1.7256, 5.335, -51.1364, 76.7309
2.367, 1, 10.4644, 59.4246, 1.71118, 5.25116, -51.0397, 76.5321
2.372, 1, 10.4885, 59.4139, 1.69674, 5.16719, -50.9429, 76.3329
2.376, 1, 10.5126, 59.4032, 1.68228, 5.08307, -50.8459, 76.1334
2.38, 1, 10.5367, 59.3924, 1.6678, 4.99882, -50.7488, 75.9336
2.383, 1, 10.5609, 59.3817, 1.65328, 4.91442, -50.6515, 75.7334
2.388, 1, 10.5851, 59.3709, 1.63875, 4.82989, -50.554, 75.5329
2.392, 1, 10.6094, 59.3602, 1.62419, 4.7452, -50.4564, 75.3321
2.396, 1, 10.6337, 59.3494, 1.6096, 4.66038, -50.3586, 75.1309
2.4, 1, 10.6581, 59.3385, 1.59499, 4.57541, -50.2606, 74.9294
2.403, 1, 10.6824, 59.3277, 1.58036, 4.49029, -50.1624, 74.7275
2.408, 1, 10.7069, 59.3168, 1.5657, 4.40503, -50.0641, 74.5253
2.412, 1, 10.7314, 59.306, 1.55101, 4.31961, -49.9657, 74.3227
2.416, 1, 10.7559, 59.2951, 1.5363, 4.23405, -49.867, 74.1198
2.42, 1, 10.7804, 59.2842, 1.52156, 4.14834, -49.7682, 73.9165
2.423, 1, 10.805, 59.2732, 1.5068, 4.06247, -49.6692, 73.7128
2.428, 1, 10.8297, 59.2623, 1.49201, 3.97645, -49.57, 73.5088
2.432, 1, 10.8544, 59.2513, 1.47719, 3.89028, -49.4706, 73.3044
2.436, 1, 10.8791, 59.2403, 1.46235, 3.80395, -49.3711, 73.0997
2.439, 1, 10.9039, 59.2293, 1.44748, 3.71746, -49.2714, 72.8946
2.444, 1, 10.9288, 59.2183, 1.43258, 3.63082, -49.1715, 72.6891
2.448, 1, 10.9536, 59.2072, 1.41766, 3.54402, -49.0714, 72.4832
2.452, 1, 10.9786, 59.1961, 1.40271, 3.45705, -48.9711, 72.2769
2.456, 1, 11.0035, 59.1851, 1.38773, 3.36992, -48.8707, 72.0703
2.459, 1, 11.0285, 59.1739, 1.37272, 3.28263, -48.77, 71.8633
2.464, 1, 11.0536, 59.1628, 1.35768, 3.19517, -48.6692, 71.6559
2.468, 1, 11.0787, 59.1516, 1.34262, 3.10755, -48.5682, 71.448
2.472, 1, 11.1039, 59.1405, 1.32752, 3.01976, -48.467, 71.2398
2.476, 1, 11.1291, 59.1293, 1.3124, 2.9318, -48.3655, 71.0312
2.479, 1, 11.1544, 59.118, 1.29724, 2.84367, -48.2639, 70.8222
2.484, 1, 11.1797, 59.1068, 1.28206, 2.75537, -48.1621, 70.6128
2.488, 1, 11.205, 59.0955, 1.26685, 2.6669, -48.0601, 70.4029
2.492, 1, 11.2304, 59.0842, 1.25161, 2.57825, -47.9579, 70.1927
2.495, 1, 11.2559, 59.0729, 1.23634, 2.48942, -47.8555, 69.982
2.5, 1, 11.2814, 59.0616, 1.22103, 2.40042, -47.7529, 69.7709
2.504, 1, 11.307, 59.0503, 1.2057, 2.31123, -47.65, 69.5594
2.508, 1, 11.3326, 59.0389, 1.19034, 2.22187, -47.547, 69.3475
2.512, 1, 11.3582, 59.0275, 1.17494, 2.13233, -47.4438, 69.1351
2.515, 1, 11.384, 59.016, 1.15951, 2.0426, -47.3403, 68.9223
2.52, 1, 11.4097, 59.0046, 1.14405, 1.95269, -47.2366, 68.709
2.524, 1, 11.4356, 58.9931, 1.12856, 1.86259, -47.1328, 68.4954
2.528, 1, 11.4614, 58.9816, 1.11304, 1.7723, -47.0287, 68.2812
2.531, 1, 11.4874, 58.9701, 1.09748, 1.68182, -46.9243, 68.0666
2.536, 1, 11.5134, 58.9586, 1.08189, 1.59116, -46.8198, 67.8516
2.54, 1, 11.5394, 58.947, 1.06627, 1.5003, -46.715, 67.6361
2.544, 1, 11.5655, 58.9354, 1.05062, 1.40924, -46.6101, 67.4202
2.548, 1, 11.5917, 58.9238, 1.03493, 1.31799, -46.5049, 67.2037
2.551, 1, 11.6179, 58.9121, 1.01921, 1.22655, -46.3994, 66.9869
2.556, 1, 11.6441, 58.9005, 1.00345, 1.1349, -46.2937, 66.7695
2.56, 1, 11.6705, 58.8888, 0.987657, 1.04305, -46.1879, 66.5517
2.564, 1, 11.6969, 58.877, 0.971831, 0.951005, -46.0817, 66.3334
2.568, 1, 11.7233, 58.8653, 0.955969, 0.858752, -45.9754, 66.1146
2.571, 1, 11.7498, 58.8535, 0.940073, 0.766292, -45.8687, 65.8953
2.576, 1, 11.7764, 58.8417, 0.92414, 0.673625, -45.7619, 65.6755
2.58, 1, 11.803, 58.8299, 0.908172, 0.580748, -45.6548, 65.4552
2.584, 1, 11.8297, 58.818, 0.892167, 0.487659, -45.5475, 65.2344
2.587, 1, 11.8564, 58.8062, 0.876126, 0.394357, -45.4399, 65.0131
2.592, 1, 11.8832, 58.7942, 0.860047, 0.300841, -45.3321, 64.7914
2.596, 1, 11.9101, 58.7823, 0.843932, 0.207107, -45.224, 64.569
2.6, 1, 11.937, 58.7703, 0.827778, 0.113153, -45.1157, 64.3462
2.604, 1, 11.964, 58.7584, 0.811587, 0.0189794, -45.0071, 64.1229
2.607, 1, 11.9911, 58.7463, 0.795358, -0.0754178, -44.8983, 63.899
2.612, 1, 12.0182, 58.7343, 0.779089, -0.17004, -44.7892, 63.6746
2.616, 1, 12.0454, 58.7222, 0.762782, -0.264889, -44.6798, 63.4496
2.62, 1, 12.0727, 58.7101, 0.746435, -0.359968, -44.5702, 63.2241
2.624, 1, 12.1, 58.698, 0.730049, -0.455278, -44.4603, 62.9981
2.627, 1, 12.1274, 58.6858, 0.713622, -0.550821, -44.3501, 62.7715
2.632, 1, 12.1549, 58.6736, 0.697155, -0.6466, -44.2397, 62.5443
2.636, 1, 12.1824, 58.6614, 0.680648, -0.742617, -44.129, 62.3166
2.64, 1, 12.21, 58.6491, 0.664099, -0.838874, -44.018, 62.0883
2.643, 1, 12.2376, 58.6368, 0.647508, -0.935373, -43.9068, 61.8594
2.648, 1, 12.2654, 58.6245, 0.630875, -1.03212, -43.7952, 61.63
2.652, 1, 12.2932, 58.6121, 0.6142, -1.12911, -43.6834, 61.3999
2.656, 1, 12.321, 58.5997, 0.597482, -1.22635, -43.5713, 61.1693
2.66, 1, 12.349, 58.5873, 0.58072, -1.32384, -43.4589, 60.9381
2.663, 1, 12.377, 58.5749, 0.563916, -1.42159, -43.3462, 60.7063
2.668, 1, 12.4051, 58.5624, 0.547067, -1.51959, -43.2332, 60.4738
2.672, 1, 12.4333, 58.5499, 0.530173, -1.61785, -43.1199, 60.2408
2.676, 1, 12.4615, 58.5373, 0.513235, -1.71638, -43.0063, 60.0071
2.679, 1, 12.4898, 58.5247, 0.496251, -1.81516, -42.8924, 59.7728
2.684, 1, 12.5182, 58.5121, 0.479221, -1.91422, -42.7782, 59.5379
2.688, 1, 12.5467, 58.4995, 0.462144, -2.01355, -42.6637, 59.3023
2.692, 1, 12.5753, 58.4868, 0.445021, -2.11315, -42.5488, 59.0661
2.696, 1, 12.6039, 58.4741, 0.427851, -2.21302, -42.4337, 58.8292
2.699, 1, 12.6326, 58.4613, 0.410632, -2.31317, -42.3182, 58.5917
2.704, 1, 12.6614, 58.4485, 0.393365, -2.41361, -42.2024, 58.3535
2.708, 1, 12.6903, 58.4357, 0.37605, -2.51433, -42.0863, 58.1146
2.712, 1, 12.7192, 58.4228, 0.358685, -2.61534, -41.9698, 57.8751
2.716, 1, 12.7483, 58.4099, 0.341269, -2.71663, -41.853, 57.6348
2.719, 1, 12.7774, 58.397, 0.323804, -2.81823, -41.7359, 57.3939
2.724, 1, 12.8066, 58.384, 0.306288, -2.92011, -41.6184, 57.1522
2.728, 1, 12.8359, 58.371, 0.28872, -3.0223, -41.5006, 56.9099
2.732, 1, 12.8653, 58.3579, 0.2711, -3.12479, -41.3824, 56.6668
2.735, 1, 12.8948, 58.3448, 0.253428, -3.22758, -41.2639, 56.423
2.74, 1, 12.9243, 58.3317, 0.235703, -3.33069, -41.145, 56.1785
2.744, 1, 12.954, 58.3185, 0.217924, -3.4341, -41.0258, 55.9332
2.748, 1, 12.9837, 58.3053, 0.200091, -3.53783, -40.9062, 55.6872
2.752, 1, 13.0135, 58.292, 0.182203, -3.64188, -40.7862, 55.4404
2.755, 1, 13.0435, 58.2787, 0.16426, -3.74625, -40.6659, 55.1929
2.76, 1, 13.0735, 58.2654, 0.146261, -3.85095, -40.5452, 54.9446
2.764, 1, 13.1036, 58.252, 0.128206, -3.95598, -40.4241, 54.6955
2.768, 1, 13.1338, 58.2386, 0.110093, -4.06133, -40.3026, 54.4456
2.772, 1, 13.1641, 58.2251, 0.0919233, -4.16703, -40.1808, 54.1949
2.775, 1, 13.1945, 58.2116, 0.0736948, -4.27306, -40.0585, 53.9434
2.78, 1, 13.225, 58.1981, 0.0554074, -4.37944, -39.9358, 53.6911
2.784, 1, 13.2556, 58.1845, 0.0370603, -4.48616, -39.8128, 53.438
2.788, 1, 13.2863, 58.1708, 0.0186529, -4.59324, -39.6893, 53.1841
2.791, 1, 13.3171, 58.1571, 0.000184437, -4.70067, -39.5655, 52.9293
2.796, 1, 13.3481, 58.1434, -0.0183457, -4.80846, -39.4412, 52.6736
2.8, 1, 13.3791, 58.1296, -0.0369382, -4.91661, -39.3165, 52.4171
2.804, 1, 13.4102, 58.1158, -0.0555938, -5.02513, -39.1914, 52.1598
2.808, 1, 13.4414, 58.1019, -0.0743132, -5.13403, -39.0658, 51.9015
2.811, 1, 13.4728, 58.088, -0.0930973, -5.2433, -38.9398, 51.6423
2.816, 1, 13.5042, 58.074, -0.111947, -5.35295, -38.8134, 51.3823
2.82, 1, 13.5358, 58.06, -0.130862, -5.46298, -38.6866, 51.1213
2.824, 1, 13.5674, 58.0459, -0.149845, -5.57341, -38.5592, 50.8594
2.828, 1, 13.5992, 58.0318, -0.168895, -5.68423, -38.4315, 50.5966
2.831, 1, 13.6311, 58.0176, -0.188013, -5.79544, -38.3032, 50.3328
2.836, 1, 13.6631, 58.0034, -0.207202, -5.90707, -38.1745, 50.0681
2.84, 1, 13.6953, 57.9891, -0.22646, -6.0191, -38.0454, 49.8024
2.844, 1, 13.7275, 57.9748, -0.24579, -6.13155, -37.9157, 49.5357
2.847, 1, 13.7599, 57.9604, -0.265191, -6.24442, -37.7856, 49.268
2.852, 1, 13.7924, 57.946, -0.284667, -6.35772, -37.655, 48.9993
2.856, 1, 13.825, 57.9315, -0.304216, -6.47144, -37.5238, 48.7296
2.86, 1, 13.8578, 57.9169, -0.323841, -6.58561, -37.3922, 48.4588
2.864, 1, 13.8907, 57.9023, -0.343541, -6.70022, -37.2601, 48.187
2.867, 1, 13.9237, 57.8877, -0.363319, -6.81527, -37.1274, 47.9141
2.872, 1, 13.9568, 57.8729, -0.383175, -6.93078, -36.9942, 47.6402
2.876, 1, 13.9901, 57.8582, -0.403109, -7.04675, -36.8605, 47.3651
2.88, 1, 14.0235, 57.8433, -0.423124, -7.16319, -36.7263, 47.089
2.883, 1, 14.057, 57.8284, -0.443219, -7.2801, -36.5915, 46.8117
2.888, 1, 14.0907, 57.8134, -0.463397, -7.39748, -36.4561, 46.5333
2.892, 1, 14.1245, 57.7984, -0.483658, -7.51535, -36.3202, 46.2537
2.896, 1, 14.1585, 57.7833, -0.504003, -7.63371, -36.1838, 45.973
2.9, 1, 14.1926, 57.7682, -0.524433, -7.75257, -36.0467, 45.6911
2.903, 1, 14.2268, 57.753, -0.54495, -7.87194, -35.9091, 45.408
2.908, 1, 14.2612, 57.7377, -0.565554, -7.99181, -35.7709, 45.1237
2.912, 1, 14.2958, 57.7223, -0.586248, -8.11221, -35.6321, 44.8382
2.916, 1, 14.3305, 57.7069, -0.607031, -8.23312, -35.4927, 44.5514
2.92, 1, 14.3654, 57.6914, -0.627906, -8.35458, -35.3527, 44.2634
2.923, 1, 14.4004, 57.6759, -0.648875, -8.47657, -35.212, 43.974
2.928, 1, 14.4355, 57.6602, -0.669937, -8.59912, -35.0707, 43.6834
2.932, 1, 14.4709, 57.6445, -0.691096, -8.72222, -34.9288, 43.3914
2.936, 1, 14.5064, 57.6288, -0.712351, -8.84588, -34.7862, 43.0982
2.939, 1, 14.542, 57.6129, -0.733705, -8.97013, -34.643, 42.8035
2.944, 1, 14.5778, 57.597, -0.755159, -9.09495, -34.499, 42.5075
2.948, 1, 14.6138, 57.581, -0.776714, -9.22036, -34.3544, 42.21
2.952, 1, 14.65, 57.5649, -0.798372, -9.34638, -34.2092, 41.9111
2.956, 1, 14.6864, 57.5488, -0.820134, -9.473, -34.0632, 41.6108
2.959, 1, 14.7229, 57.5326, -0.842003, -9.60024, -33.9165, 41.3091
2.964, 1, 14.7596, 57.5162, -0.863979, -9.72811, -33.769, 41.0058
2.968, 1, 14.7965, 57.4998, -0.886064, -9.85661, -33.6209, 40.701
2.972, 1, 14.8335, 57.4834, -0.90826, -9.98576, -33.472, 40.3947
2.976, 1, 14.8708, 57.4668, -0.930569, -10.1156, -33.3223, 40.0869
2.98, 1, 14.9083, 57.4502, -0.952993, -10.2461, -33.1719, 39.7774
2.984, 1, 14.9459, 57.4334, -0.975533, -10.3772, -33.0207, 39.4664
2.988, 1, 14.9838, 57.4166, -0.998191, -10.5091, -32.8686, 39.1537
2.992, 1, 15.0218, 57.3997, -1.02097, -10.6416, -32.7158, 38.8393
2.995, 1, 15.0601, 57.3827, -1.04387, -10.7749, -32.5622, 38.5232
3, 1, 15.0986, 57.3656, -1.0669, -10.9089, -32.4077, 38.2055
3.004, 1, 15.1373, 57.3484, -1.09005, -11.0436, -32.2524, 37.886
3.008, 1, 15.1762, 57.3311, -1.11333, -11.179, -32.0962, 37.5647
3.012, 1, 15.2153, 57.3137, -1.13674, -11.3153, -31.9391, 37.2416
3.015, 1, 15.2547, 57.2962, -1.16028, -11.4523, -31.7811, 36.9166
3.02, 1, 15.2943, 57.2786, -1.18396, -11.5901, -31.6223, 36.5898
3.024, 1, 15.3341, 57.2609, -1.20778, -11.7287, -31.4624, 36.2611
3.028, 1, 15.3741, 57.2431, -1.23174, -11.8681, -31.3017, 35.9304
3.031, 1, 15.4144, 57.2252, -1.25584, -12.0084, -31.14, 35.5977
3.036, 1, 15.455, 57.2072, -1.28008, -12.1495, -30.9773, 35.2631
3.04, 1, 15.4958, 57.189, -1.30448, -12.2915, -30.8136, 34.9263
3.044, 1, 15.5369, 57.1708, -1.32902, -12.4344, -30.6489, 34.5875
3.048, 1, 15.5782, 57.1524, -1.35372, -12.5781, -30.4831, 34.2465
3.051, 1, 15.6198, 57.1339, -1.37858, -12.7228, -30.3163, 33.9034
3.056, 1, 15.6616, 57.1153, -1.4036, -12.8684, -30.1484, 33.558
3.06, 1, 15.7038, 57.0966, -1.42878, -13.015, -29.9794, 33.2104
3.064, 1, 15.7462, 57.0777, -1.45413, -13.1626, -29.8093, 32.8605
3.068, 1, 15.7889, 57.0587, -1.47965, -13.3111, -29.6381, 32.5082
3.071, 1, 15.8319, 57.0396, -1.50535, -13.4607, -29.4656, 32.1535
3.076, 1, 15.8752, 57.0203, -1.53122, -13.6113, -29.292, 31.7963
3.08, 1, 15.9188, 57.001, -1.55727, -13.7629, -29.1172, 31.4366
3.084, 1, 15.9628, 56.9814, -1.58351, -13.9157, -28.9411, 31.0744
3.087, 1, 16.007, 56.9618, -1.60993, -14.0695, -28.7637, 30.7096
3.092, 1, 16.0516, 56.9419, -1.63655, -14.2245, -28.585, 30.3421
3.096, 1, 16.0965, 56.922, -1.66337, -14.3806, -28.4051, 29.9718
3.1, 1, 16.1418, 56.9018, -1.69038, -14.5379, -28.2237, 29.5988
3.104, 1, 16.1874, 56.8816, -1.71761, -14.6963, -28.041, 29.2229
3.107, 1, 16.2333, 56.8611, -1.74504, -14.8561, -27.8569, 28.8441
3.112, 1, 16.2796, 56.8405, -1.77268, -15.017, -27.6713, 28.4624
3.116, 1, 16.3264, 56.8197, -1.80055, -15.1793, -27.4842, 28.0776
3.12, 1, 16.3734, 56.7988, -1.82864, -15.3429, -27.2956, 27.6896
3.124, 1, 16.4209, 56.7777, -1.85696, -15.5078, -27.1055, 27.2985
3.128, 1, 16.4688, 56.7564, -1.88552, -15.6741, -26.9138, 26.9042
3.132, 1, 16.5171, 56.7349, -1.91431, -15.8418, -26.7205, 26.5064
3.136, 1, 16.5658, 56.7132, -1.94336, -16.0109, -26.5255, 26.1053
3.14, 1, 16.615, 56.6913, -1.97265, -16.1815, -26.3287, 25.7006
3.143, 1, 16.6646, 56.6693, -2.00221, -16.3537, -26.1303, 25.2924
3.148, 1, 16.7146, 56.647, -2.03203, -16.5274, -25.93, 24.8804
3.152, 1, 16.7652, 56.6245, -2.06213, -16.7027, -25.7279, 24.4647
3.156, 1, 16.8162, 56.6018, -2.09251, -16.8796, -25.5239, 24.045
3.16, 1, 16.8677, 56.5789, -2.12317, -17.0583, -25.318, 23.6214
3.163, 1, 16.9197, 56.5557, -2.15413, -17.2386, -25.1101, 23.1936
3.168, 1, 16.9723, 56.5323, -2.18539, -17.4208, -24.9001, 22.7617
3.172, 1, 17.0254, 56.5087, -2.21696, -17.6048, -24.688, 22.3253
3.176, 1, 17.079, 56.4848, -2.24886, -17.7906, -24.4737, 21.8845
3.179, 1, 17.1332, 56.4606, -2.28109, -17.9784, -24.2572, 21.4391
3.184, 1, 17.1881, 56.4362, -2.31366, -18.1683, -24.0383, 20.989
3.188, 1, 17.2435, 56.4115, -2.34658, -18.3602, -23.8171, 20.5339
3.192, 1, 17.2995, 56.3865, -2.37987, -18.5542, -23.5934, 20.0737
3.196, 1, 17.3562, 56.3612, -2.41353, -18.7504, -23.3672, 19.6084
3.199, 1, 17.4136, 56.3356, -2.44758, -18.9489, -23.1384, 19.1377
3.204, 1, 17.4717, 56.3097, -2.48203, -19.1498, -22.9069, 18.6614
3.208, 1, 17.5304, 56.2835, -2.51689, -19.353, -22.6726, 18.1793
3.212, 1, 17.5899, 56.2569, -2.55218, -19.5588, -22.4354, 17.6914
3.216, 1, 17.6502, 56.23, -2.58791, -19.7671, -22.1952, 17.1973
3.22, 1, 17.7112, 56.2027, -2.62409, -19.9781, -21.952, 16.6969
3.224, 1, 17.7731, 56.1751, -2.66074, -20.1919, -21.7055, 16.19
3.228, 1, 17.8358, 56.147, -2.69787, -20.4085, -21.4559, 15.6764
3.232, 1, 17.8994, 56.1186, -2.7355, -20.628, -21.2028, 15.1557
3.235, 1, 17.9639, 56.0897, -2.77365, -20.8506, -20.9462, 14.6278
3.24, 1, 18.0293, 56.0604, -2.81234, -21.0764, -20.686, 14.0925
3.244, 1, 18.0958, 56.0306, -2.85158, -21.3054, -20.4219, 13.5494
3.248, 1, 18.1632, 56.0003, -2.8914, -21.5378, -20.154, 12.9982
3.252, 1, 18.2317, 55.9696, -2.93182, -21.7738, -19.882, 12.4386
3.255, 1, 18.3013, 55.9382, -2.97286, -22.0134, -19.6058, 11.8703
3.26, 1, 18.3721, 55.9064, -3.01454, -22.2569, -19.3252, 11.293
3.264, 1, 18.444, 55.8739, -3.0569, -22.5043, -19.04, 10.7063
3.268, 1, 18.5171, 55.8409, -3.09997, -22.7558, -18.7501, 10.1098
3.272, 1, 18.5914, 55.8073, -3.14378, -23.0117, -18.4552, 9.50314
3.276, 1, 18.6668, 55.7733, -3.18838, -23.2719, -18.1552, 8.88596
3.28, 1, 18.7433, 55.7389, -3.23379, -23.5367, -17.8499, 8.25796
3.284, 1, 18.8208, 55.7042, -3.28004, -23.8062, -17.5392, 7.61894
3.288, 1, 18.8993, 55.6691, -3.32714, -24.0803, -17.2232, 6.96877
3.291, 1, 18.9788, 55.6338, -3.3751, -24.3591, -16.9017, 6.30745
3.296, 1, 19.0593, 55.5982, -3.42391, -24.6426, -16.5748, 5.63509
3.3, 1, 19.1407, 55.5623, -3.47355, -24.9306, -16.2426, 4.95194
3.304, 1, 19.223, 55.5262, -3.524, -25.223, -15.9054, 4.25836
3.308, 1, 19.3061, 55.4897, -3.57522, -25.5195, -15.5634, 3.55485
3.312, 1, 19.39, 55.453, -3.62717, -25.82, -15.2167, 2.84202
3.316, 1, 19.4746, 55.4159, -3.67978, -26.1241, -14.866, 2.1206
3.32, 1, 19.5599, 55.3786, -3.73298, -26.4315, -14.5114, 1.3914
3.324, 1, 19.6459, 55.3408, -3.78669, -26.7417, -14.1534, 0.655319
3.328, 1, 19.7326, 55.3027, -3.84083, -27.0545, -13.7926, -0.0867596
3.332, 1, 19.8199, 55.2641, -3.89532, -27.3695, -13.4293, -0.833955
3.336, 1, 19.9079, 55.2252, -3.9501, -27.6863, -13.0639, -1.58544
3.34, 1, 19.9963, 55.1859, -4.00511, -28.0045, -12.6968, -2.34044
3.344, 1, 20.0853, 55.1463, -4.06029, -28.324, -12.3283, -3.09828
3.347, 1, 20.1746, 55.1064, -4.1156, -28.6444, -11.9587, -3.85835
3.352, 1, 20.2645, 55.0663, -4.17101, -28.9656, -11.5883, -4.62015
3.356, 1, 20.3547, 55.0259, -4.22647, -29.2873, -11.2173, -5.38322
3.36, 1, 20.4454, 54.9854, -4.28198, -29.6094, -10.8459, -6.14723
3.364, 1, 20.5366, 54.9447, -4.3375, -29.9318, -10.4741, -6.91189
3.368, 1, 20.6281, 54.9039, -4.39303, -30.2544, -10.1022, -7.67701
3.372, 1, 20.72, 54.8629, -4.44857, -30.5771, -9.73006, -8.44244
3.376, 1, 20.812, 54.822, -4.50411, -30.8999, -9.35785, -9.20808
3.38, 1, 20.9042, 54.7809, -4.55965, -31.2228, -8.98556, -9.97386
3.383, 1, 20.9965, 54.7399, -4.6152, -31.5457, -8.61324, -10.7397
3.388, 1, 21.0888, 54.6988, -4.67074, -31.8687, -8.24088, -11.5057
3.392, 1, 21.1812, 54.6577, -4.72629, -32.1916, -7.8685, -12.2717
3.396, 1, 21.2736, 54.6166, -4.78183, -32.5146, -7.49611, -13.0377
3.4, 1, 21.366, 54.5755, -4.83738, -32.8376, -7.12371, -13.8037
3.403, 1, 21.4585, 54.5344, -4.89293, -33.1606, -6.7513, -14.5698
3.408, 1, 21.551, 54.4933, -4.94847, -33.4836, -6.37889, -15.3358
3.412, 1, 21.6434, 54.4522, -5.00402, -33.8066, -6.00647, -16.1019
3.416, 1, 21.7359, 54.4111, -5.05956, -34.1296, -5.63405, -16.868
3.42, 1, 21.8284, 54.37, -5.11511, -34.4526, -5.26163, -17.634
3.424, 1, 21.9208, 54.3289, -5.17066, -34.7756, -4.88921, -18.4001
3.428, 1, 22.0133, 54.2878, -5.2262, -35.0986, -4.51679, -19.1662
3.432, 1, 22.1057, 54.2467, -5.28176, -35.4216, -4.14437, -19.9323
3.436, 1, 22.1979, 54.2056, -5.33731, -35.7446, -3.77196, -20.6983
3.439, 1, 22.2901, 54.1646, -5.39287, -36.0676, -3.39957, -21.4643
3.444, 1, 22.382, 54.1236, -5.44844, -36.3905, -3.02723, -22.2302
3.448, 1, 22.4737, 54.0827, -5.50401, -36.7133, -2.65497, -22.9959
3.452, 1, 22.5651, 54.0419, -5.55958, -37.036, -2.28285, -23.7613
3.456, 1, 22.6562, 54.0013, -5.61515, -37.3585, -1.91097, -24.5262
3.46, 1, 22.7468, 53.9609, -5.6707, -37.6807, -1.53944, -25.2904
3.464, 1, 22.8371, 53.9207, -5.72622, -38.0024, -1.16844, -26.0535
3.468, 1, 22.9268, 53.8808, -5.78167, -38.3234, -0.798186, -26.815
3.472, 1, 23.016, 53.8412, -5.83701, -38.6435, -0.428952, -27.5743
3.476, 1, 23.1047, 53.8018, -5.89218, -38.9624, -0.0610606, -28.3309
3.48, 1, 23.1929, 53.7628, -5.94712, -39.2799, 0.30513, -29.084
3.484, 1, 23.2806, 53.7239, -6.00176, -39.5955, 0.669237, -29.8328
3.488, 1, 23.3679, 53.6854, -6.05602, -39.909, 1.03087, -30.5765
3.492, 1, 23.4545, 53.6471, -6.10985, -40.2201, 1.38964, -31.3143
3.495, 1, 23.5406, 53.6091, -6.16317, -40.5283, 1.74519, -32.0455
3.5, 1, 23.6261, 53.5713, -6.21594, -40.8335, 2.09717, -32.7694
3.504, 1, 23.711, 53.5338, -6.26809, -41.1353, 2.44529, -33.4854
3.508, 1, 23.7951, 53.4966, -6.31958, -41.4336, 2.78929, -34.1929
3.512, 1, 23.8786, 53.4596, -6.37038, -41.7281, 3.12897, -34.8916
3.516, 1, 23.9614, 53.4229, -6.42046, -42.0188, 3.4642, -35.5811
3.52, 1, 24.0435, 53.3865, -6.46982, -42.3057, 3.79492, -36.2614
3.524, 1, 24.1247, 53.3504, -6.51846, -42.5886, 4.12112, -36.9324
3.528, 1, 24.2051, 53.3146, -6.5664, -42.8677, 4.44283, -37.5942
3.531, 1, 24.2845, 53.2793, -6.61366, -43.1429, 4.76013, -38.247
3.536, 1, 24.3629, 53.2444, -6.66028, -43.4144, 5.07313, -38.8909
3.54, 1, 24.4403, 53.2099, -6.70626, -43.6823, 5.38195, -39.5262
3.544, 1, 24.5167, 53.1759, -6.75163, -43.9467, 5.68669, -40.1531
3.548, 1, 24.5922, 53.1424, -6.79641, -44.2076, 5.98749, -40.7719
3.552, 1, 24.6667, 53.1092, -6.84063, -44.4652, 6.28447, -41.3829
3.556, 1, 24.7402, 53.0765, -6.88429, -44.7197, 6.57775, -41.9862
3.56, 1, 24.8129, 53.0441, -6.92742, -44.971, 6.86745, -42.5822
3.564, 1, 24.8846, 53.0122, -6.97004, -45.2193, 7.15368, -43.171
3.568, 1, 24.9555, 52.9806, -7.01215, -45.4646, 7.43655, -43.753
3.572, 1, 25.0256, 52.9494, -7.05379, -45.7072, 7.71617, -44.3282
3.576, 1, 25.0949, 52.9186, -7.09496, -45.947, 7.99266, -44.897
3.58, 1, 25.1634, 52.8881, -7.13567, -46.1842, 8.26609, -45.4595
3.584, 1, 25.2312, 52.858, -7.17594, -46.4189, 8.53659, -46.016
3.587, 1, 25.2983, 52.8281, -7.2158, -46.6511, 8.80424, -46.5666
3.592, 1, 25.3647, 52.7986, -7.25524, -46.8809, 9.06914, -47.1115
3.596, 1, 25.4303, 52.7694, -7.2943, -47.1083, 9.33138, -47.651
3.6, 1, 25.4954, 52.7405, -7.33297, -47.3336, 9.59105, -48.1852
3.604, 1, 25.5597, 52.7118, -7.37127, -47.5567, 9.84823, -48.7142
3.608, 1, 25.6235, 52.6835, -7.40922, -47.7777, 10.103, -49.2383
3.612, 1, 25.6867, 52.6554, -7.44682, -47.9966, 10.3554, -49.7576
3.616, 1, 25.7492, 52.6276, -7.48408, -48.2136, 10.6056, -50.2723
3.62, 1, 25.8112, 52.6, -7.52102, -48.4287, 10.8535, -50.7823
3.624, 1, 25.8727, 52.5727, -7.55764, -48.6419, 11.0994, -51.288
3.628, 1, 25.9336, 52.5456, -7.59395, -48.8534, 11.3431, -51.7895
3.632, 1, 25.994, 52.5187, -7.62997, -49.0631, 11.5849, -52.2867
3.636, 1, 26.0539, 52.4921, -7.66569, -49.271, 11.8246, -52.78
3.64, 1, 26.1133, 52.4657, -7.70114, -49.4774, 12.0625, -53.2693
3.644, 1, 26.1723, 52.4395, -7.7363, -49.6821, 12.2985, -53.7548
3.648, 1, 26.2307, 52.4135, -7.7712, -49.8852, 12.5327, -54.2366
3.652, 1, 26.2888, 52.3877, -7.80583, -50.0868, 12.7651, -54.7147
3.656, 1, 26.3464, 52.3621, -7.84021, -50.2869, 12.9958, -55.1893
3.66, 1, 26.4035, 52.3367, -7.87434, -50.4856, 13.2248, -55.6604
3.664, 1, 26.4603, 52.3115, -7.90823, -50.6828, 13.4522, -56.1281
3.668, 1, 26.5166, 52.2865, -7.94188, -50.8786, 13.678, -56.5926
3.672, 1, 26.5725, 52.2616, -7.97529, -51.0731, 13.9022, -57.0538
3.676, 1, 26.6281, 52.2369, -8.00848, -51.2663, 14.1249, -57.5119
3.679, 1, 26.6833, 52.2124, -8.04145, -51.4581, 14.3461, -57.9669
3.684, 1, 26.7381, 52.188, -8.07419, -51.6487, 14.5658, -58.4189
3.688, 1, 26.7925, 52.1638, -8.10673, -51.8381, 14.7841, -58.868
3.692, 1, 26.8466, 52.1398, -8.13906, -52.0262, 15.001, -59.3142
3.696, 1, 26.9004, 52.1159, -8.17119, -52.2132, 15.2166, -59.7576
3.7, 1, 26.9538, 52.0922, -8.20312, -52.399, 15.4308, -60.1983
3.704, 1, 27.0069, 52.0686, -8.23485, -52.5837, 15.6438, -60.6363
3.708, 1, 27.0597, 52.0451, -8.2664, -52.7673, 15.8554, -61.0717
3.712, 1, 27.1122, 52.0218, -8.29777, -52.9498, 16.0658, -61.5046
3.716, 1, 27.1643, 51.9986, -8.32895, -53.1312, 16.275, -61.9349
3.72, 1, 27.2161, 51.9756, -8.35995, -53.3116, 16.483, -62.3628
3.724, 1, 27.2677, 51.9527, -8.39079, -53.4911, 16.6899, -62.7883
3.728, 1, 27.319, 51.9299, -8.42145, -53.6695, 16.8956, -63.2114
3.732, 1, 27.3699, 51.9073, -8.45195, -53.8469, 17.1002, -63.6322
3.735, 1, 27.4206, 51.8847, -8.48228, -54.0234, 17.3036, -64.0508
3.74, 1, 27.4711, 51.8623, -8.51245, -54.199, 17.506, -64.4672
3.744, 1, 27.5212, 51.8401, -8.54247, -54.3736, 17.7074, -64.8814
3.748, 1, 27.5711, 51.8179, -8.57233, -54.5473, 17.9077, -65.2934
3.752, 1, 27.6208, 51.7958, -8.60204, -54.7202, 18.107, -65.7034
3.756, 1, 27.6702, 51.7739, -8.63161, -54.8922, 18.3053, -66.1113
3.76, 1, 27.7193, 51.752, -8.66102, -55.0634, 18.5027, -66.5173
3.764, 1, 27.7682, 51.7303, -8.6903, -55.2337, 18.699, -66.9212
3.768, 1, 27.8169, 51.7087, -8.71943, -55.4032, 18.8944, -67.3232
3.772, 1, 27.8653, 51.6872, -8.74843, -55.5719, 19.089, -67.7233
3.776, 1, 27.9135, 51.6657, -8.77729, -55.7398, 19.2825, -68.1215
3.78, 1, 27.9615, 51.6444, -8.80602, -55.9069, 19.4752, -68.5179
3.784, 1, 28.0092, 51.6232, -8.83462, -56.0733, 19.6671, -68.9125
3.788, 1, 28.0568, 51.6021, -8.86309, -56.2389, 19.858, -69.3053
3.792, 1, 28.1041, 51.581, -8.89143, -56.4038, 20.0481, -69.6964
3.796, 1, 28.1512, 51.5601, -8.91965, -56.568, 20.2374, -70.0858
3.8, 1, 28.1981, 51.5393, -8.94775, -56.7315, 20.4259, -70.4734
3.804, 1, 28.2448, 51.5185, -8.97573, -56.8942, 20.6135, -70.8594
3.808, 1, 28.2913, 51.4978, -9.00359, -57.0563, 20.8004, -71.2438
3.812, 1, 28.3376, 51.4773, -9.03133, -57.2177, 20.9864, -71.6265
3.816, 1, 28.3838, 51.4568, -9.05896, -57.3784, 21.1717, -72.0077
3.82, 1, 28.4297, 51.4364, -9.08647, -57.5384, 21.3563, -72.3873
3.824, 1, 28.4754, 51.416, -9.11388, -57.6979, 21.5401, -72.7654
3.828, 1, 28.521, 51.3958, -9.14117, -57.8566, 21.7232, -73.142
3.832, 1, 28.5664, 51.3756, -9.16836, -58.0148, 21.9055, -73.5171
3.836, 1, 28.6116, 51.3555, -9.19545, -58.1723, 22.0871, -73.8907
3.84, 1, 28.6566, 51.3355, -9.22242, -58.3293, 22.2681, -74.2629
3.844, 1, 28.7014, 51.3156, -9.2493, -58.4856, 22.4483, -74.6337
3.848, 1, 28.7461, 51.2958, -9.27607, -58.6414, 22.6279, -75.0031
3.852, 1, 28.7906, 51.276, -9.30275, -58.7965, 22.8068, -75.3711
3.856, 1, 28.835, 51.2563, -9.32932, -58.9511, 22.985, -75.7377
3.86, 1, 28.8792, 51.2366, -9.3558, -59.1051, 23.1626, -76.103
3.864, 1, 28.9232, 51.2171, -9.38219, -59.2586, 23.3396, -76.467
3.868, 1, 28.967, 51.1976, -9.40848, -59.4115, 23.5159, -76.8297
3.872, 1, 29.0108, 51.1782, -9.43467, -59.5639, 23.6916, -77.1911
3.876, 1, 29.0543, 51.1588, -9.46078, -59.7158, 23.8666, -77.5513
3.88, 1, 29.0977, 51.1395, -9.48679, -59.8671, 24.0411, -77.9101
3.884, 1, 29.141, 51.1203, -9.51272, -60.0179, 24.215, -78.2678
3.888, 1, 29.1841, 51.1012, -9.53856, -60.1682, 24.3883, -78.6243
3.892, 1, 29.227, 51.0821, -9.56431, -60.318, 24.561, -78.9795
3.896, 1, 29.2698, 51.0631, -9.58998, -60.4673, 24.7331, -79.3336
3.9, 1, 29.3125, 51.0441, -9.61556, -60.6161, 24.9046, -79.6865
3.904, 1, 29.355, 51.0252, -9.64106, -60.7644, 25.0756, -80.0382
3.908, 1, 29.3974, 51.0064, -9.66647, -60.9122, 25.2461, -80.3888
3.912, 1, 29.4397, 50.9876, -9.6918, -61.0596, 25.416, -80.7383
3.916, 1, 29.4818, 50.9689, -9.71706, -61.2065, 25.5854, -81.0867
3.92, 1, 29.5238, 50.9502, -9.74223, -61.3529, 25.7542, -81.434
3.924, 1, 29.5657, 50.9316, -9.76733, -61.4989, 25.9225, -81.7802
3.928, 1, 29.6074, 50.9131, -9.79235, -61.6444, 26.0903, -82.1254
3.932, 1, 29.649, 50.8946, -9.81729, -61.7895, 26.2576, -82.4694
3.936, 1, 29.6905, 50.8762, -9.84216, -61.9341, 26.4243, -82.8125
3.94, 1, 29.7318, 50.8578, -9.86696, -62.0783, 26.5906, -83.1545
3.944, 1, 29.7731, 50.8395, -9.89168, -62.2221, 26.7564, -83.4955
3.948, 1, 29.8142, 50.8212, -9.91632, -62.3655, 26.9217, -83.8355
3.952, 1, 29.8551, 50.803, -9.9409, -62.5084, 27.0865, -84.1746
3.956, 1, 29.896, 50.7848, -9.96541, -62.651, 27.2508, -84.5126
3.96, 1, 29.9367, 50.7667, -9.98984, -62.7931, 27.4147, -84.8497
3.964, 1, 29.9774, 50.7487, -10.0142, -62.9348, 27.5781, -85.1858
3.968, 1, 30.0179, 50.7307, -10.0385, -63.0761, 27.741, -85.5209
3.972, 1, 30.0583, 50.7127, -10.0627, -63.217, 27.9035, -85.8552
3.976, 1, 30.0986, 50.6948, -10.0869, -63.3576, 28.0655, -86.1884
3.98, 1, 30.1387, 50.677, -10.111, -63.4977, 28.2271, -86.5208
3.984, 1, 30.1788, 50.6592, -10.135, -63.6375, 28.3882, -86.8523
3.988, 1, 30.2188, 50.6414, -10.159, -63.7768, 28.5489, -87.1829
3.992, 1, 30.2586, 50.6237, -10.1829, -63.9159, 28.7092, -87.5126
3.996, 1, 30.2983, 50.6061, -10.2067, -64.0545, 28.869, -87.8414
3.999, 1, 30.338, 50.5885, -10.2305, -64.1928, 29.0285, -88.1693
4.004, 1, 30.3775, 50.5709, -10.2542, -64.3307, 29.1875, -88.4964
4.008, 1, 30.4169, 50.5534, -10.2779, -64.4682, 29.3461, -88.8226
4.012, 1, 30.4563, 50.5359, -10.3014, -64.6054, 29.5042, -89.1479
4.016, 1, 30.4955, 50.5185, -10.325, -64.7422, 29.662, -89.4725
4.02, 1, 30.5346, 50.5011, -10.3484, -64.8787, 29.8194, -89.7962
4.024, 1, 30.5736, 50.4837, -10.3718, -65.0149, 29.9763, -90.1191
4.028, 1, 30.6125, 50.4665, -10.3952, -65.1507, 30.1329, -90.4412
4.032, 1, 30.6514, 50.4492, -10.4185, -65.2861, 30.2891, -90.7624
4.036, 1, 30.6901, 50.432, -10.4417, -65.4213, 30.4449, -91.0829
4.04, 1, 30.7287, 50.4148, -10.4649, -65.556, 30.6003, -91.4026
4.044, 1, 30.7673, 50.3977, -10.488, -65.6905, 30.7553, -91.7215
4.048, 1, 30.8057, 50.3806, -10.5111, -65.8246, 30.91, -92.0396
4.052, 1, 30.8441, 50.3636, -10.5341, -65.9585, 31.0643, -92.357
4.056, 1, 30.8823, 50.3466, -10.557, -66.092, 31.2182, -92.6736
4.06, 1, 30.9205, 50.3296, -10.5799, -66.2251, 31.3717, -92.9895
4.064, 1, 30.9586, 50.3127, -10.6028, -66.358, 31.5249, -93.3046
4.068, 1, 30.9965, 50.2958, -10.6256, -66.4906, 31.6778, -93.619
4.072, 1, 31.0344, 50.279, -10.6483, -66.6228, 31.8302, -93.9326
4.076, 1, 31.0723, 50.2622, -10.671, -66.7547, 31.9824, -94.2455
4.08, 1, 31.11, 50.2454, -10.6936, -66.8864, 32.1341, -94.5577
4.084, 1, 31.1476, 50.2287, -10.7162, -67.0177, 32.2856, -94.8692
4.088, 1, 31.1852, 50.212, -10.7387, -67.1488, 32.4366, -95.18
4.092, 1, 31.2226, 50.1954, -10.7612, -67.2795, 32.5874, -95.4901
4.096, 1, 31.26, 50.1787, -10.7837, -67.41, 32.7378, -95.7995
4.1, 1, 31.2973, 50.1622, -10.806, -67.5401, 32.8879, -96.1082
4.104, 1, 31.3345, 50.1456, -10.8284, -67.67, 33.0376, -96.4162
4.108, 1, 31.3717, 50.1291, -10.8506, -67.7996, 33.187, -96.7236
4.112, 1, 31.4087, 50.1127, -10.8729, -67.9289, 33.3361, -97.0303
4.116, 1, 31.4457, 50.0962, -10.8951, -68.0579, 33.4849, -97.3363
4.12, 1, 31.4826, 50.0798, -10.9172, -68.1867, 33.6333, -97.6417
4.124, 1, 31.5194, 50.0635, -10.9393, -68.3151, 33.7815, -97.9464
4.128, 1, 31.5561, 50.0472, -10.9613, -68.4433, 33.9293, -98.2504
4.132, 1, 31.5928, 50.0309, -10.9833, -68.5713, 34.0768, -98.5538
4.136, 1, 31.6293, 50.0146, -11.0053, -68.6989, 34.224, -98.8566
4.14, 1, 31.6658, 49.9984, -11.0272, -68.8263, 34.3709, -99.1587
4.144, 1, 31.7023, 49.9822, -11.049, -68.9535, 34.5174, -99.4603
4.148, 1, 31.7386, 49.9661, -11.0709, -69.0803, 34.6637, -99.7611
4.152, 1, 31.7749, 49.95, -11.0926, -69.2069, 34.8097, -100.061
4.156, 1, 31.8111, 49.9339, -11.1144, -69.3333, 34.9553, -100.361
4.16, 1, 31.8472, 49.9178, -11.136, -69.4593, 35.1007, -100.66
4.164, 1, 31.8832, 49.9018, -11.1577, -69.5852, 35.2458, -100.958
4.168, 1, 31.9192, 49.8858, -11.1793, -69.7107, 35.3906, -101.256
4.172, 1, 31.9551, 49.8699, -11.2008, -69.8361, 35.5351, -101.554
4.176, 1, 31.991, 49.8539, -11.2223, -69.9611, 35.6793, -101.85
4.18, 1, 32.0267, 49.838, -11.2438, -70.0859, 35.8232, -102.146
4.184, 1, 32.0624, 49.8222, -11.2652, -70.2105, 35.9668, -102.442
4.188, 1, 32.098, 49.8064, -11.2866, -70.3348, 36.1101, -102.736
4.192, 1, 32.1336, 49.7906, -11.3079, -70.4589, 36.2532, -103.031
4.196, 1, 32.1691, 49.7748, -11.3292, -70.5828, 36.396, -103.324
4.2, 1, 32.2045, 49.7591, -11.3504, -70.7064, 36.5385, -103.618
4.204, 1, 32.2398, 49.7434, -11.3717, -70.8297, 36.6807, -103.91
4.208, 1, 32.2751, 49.7277, -11.3928, -70.9528, 36.8227, -104.202
4.212, 1, 32.3103, 49.712, -11.414, -71.0757, 36.9644, -104.494
4.216, 1, 32.3455, 49.6964, -11.435, -71.1984, 37.1058, -104.785
4.22, 1, 32.3805, 49.6808, -11.4561, -71.3208, 37.2469, -105.075
4.224, 1, 32.4156, 49.6653, -11.4771, -71.443, 37.3878, -105.365
4.228, 1, 32.4505, 49.6497, -11.4981, -71.5649, 37.5284, -105.654
4.232, 1, 32.4854, 49.6343, -11.519, -71.6866, 37.6687, -105.943
4.236, 1, 32.5202, 49.6188, -11.5399, -71.8081, 37.8088, -106.231
4.24, 1, 32.5549, 49.6033, -11.5608, -71.9294, 37.9487, -106.518
4.244, 1, 32.5896, 49.5879, -11.5816, -72.0505, 38.0882, -106.805
4.248, 1, 32.6242, 49.5726, -11.6023, -72.1713, 38.2275, -107.092
4.252, 1, 32.6588, 49.5572, -11.6231, -72.2919, 38.3666, -107.378
4.256, 1, 32.6933, 49.5419, -11.6438, -72.4123, 38.5054, -107.664
4.26, 1, 32.7277, 49.5266, -11.6644, -72.5325, 38.644, -107.949
4.264, 1, 32.7621, 49.5113, -11.6851, -72.6524, 38.7823, -108.233
4.268, 1, 32.7964, 49.4961, -11.7057, -72.7721, 38.9203, -108.517
4.272, 1, 32.8306, 49.4809, -11.7262, -72.8917, 39.0581, -108.801
4.276, 1, 32.8648, 49.4657, -11.7467, -73.011, 39.1957, -109.083
4.28, 1, 32.8989, 49.4505, -11.7672, -73.1301, 39.333, -109.366
4.284, 1, 32.933, 49.4354, -11.7876, -73.249, 39.4701, -109.648
4.288, 1, 32.967, 49.4203, -11.8081, -73.3676, 39.6069, -109.929
4.292, 1, 33.0009, 49.4052, -11.8284, -73.4861, 39.7435, -110.21
4.296, 1, 33.0348, 49.3901, -11.8488, -73.6044, 39.8798, -110.491
4.3, 1, 33.0686, 49.3751, -11.8691, -73.7224, 40.0159, -110.771
4.304, 1, 33.1024, 49.3601, -11.8893, -73.8402, 40.1518, -111.05
4.308, 1, 33.1361, 49.3451, -11.9095, -73.9579, 40.2875, -111.329
4.312, 1, 33.1697, 49.3302, -11.9297, -74.0753, 40.4229, -111.608
4.316, 1, 33.2033, 49.3153, -11.9499, -74.1926, 40.558, -111.886
4.32, 1, 33.2368, 49.3004, -11.97, -74.3096, 40.693, -112.163
4.324, 1, 33.2703, 49.2855, -11.9901, -74.4264, 40.8277, -112.441
4.328, 1, 33.3037, 49.2706, -12.0102, -74.5431, 40.9622, -112.717
4.332, 1, 33.3371, 49.2558, -12.0302, -74.6595, 41.0964, -112.993
4.336, 1, 33.3703, 49.241, -12.0502, -74.7757, 41.2304, -113.269
4.34, 1, 33.4036, 49.2262, -12.0701, -74.8918, 41.3642, -113.544
4.344, 1, 33.4368, 49.2115, -12.09, -75.0076, 41.4978, -113.819
4.348, 1, 33.4699, 49.1968, -12.1099, -75.1233, 41.6311, -114.093
4.352, 1, 33.503, 49.1821, -12.1298, -75.2387, 41.7642, -114.367
4.356, 1, 33.536, 49.1674, -12.1496, -75.354, 41.8971, -114.64
4.36, 1, 33.569, 49.1528, -12.1694, -75.4691, 42.0298, -114.913
4.364, 1, 33.6019, 49.1381, -12.1891, -75.584, 42.1623, -115.186
4.368, 1, 33.6347, 49.1235, -12.2089, -75.6986, 42.2945, -115.458
4.372, 1, 33.6675, 49.109, -12.2286, -75.8131, 42.4265, -115.729
4.376, 1, 33.7003, 49.0944, -12.2482, -75.9275, 42.5583, -116.001
4.38, 1, 33.733, 49.0799, -12.2678, -76.0416, 42.6899, -116.271
4.384, 1, 33.7656, 49.0654, -12.2874, -76.1555, 42.8213, -116.541
4.388, 1, 33.7982, 49.0509, -12.307, -76.2693, 42.9524, -116.811
4.392, 1, 33.8307, 49.0365, -12.3265, -76.3829, 43.0834, -117.081
4.396, 1, 33.8632, 49.022, -12.346, -76.4962, 43.2141, -117.35
4.4, 1, 33.8956, 49.0076, -12.3655, -76.6094, 43.3446, -117.618
4.404, 1, 33.928, 48.9932, -12.3849, -76.7225, 43.475, -117.886
4.408, 1, 33.9603, 48.9789, -12.4043, -76.8353, 43.6051, -118.154
4.412, 1, 33.9926, 48.9645, -12.4237, -76.948, 43.7349, -118.421
4.416, 1, 34.0248, 48.9502, -12.443, -77.0604, 43.8646, -118.688
4.42, 1, 34.057, 48.9359, -12.4623, -77.1727, 43.9941, -118.954
4.424, 1, 34.0891, 48.9216, -12.4816, -77.2849, 44.1234, -119.22
4.428, 1, 34.1212, 48.9074, -12.5009, -77.3968, 44.2524, -119.485
4.432, 1, 34.1532, 48.8932, -12.5201, -77.5086, 44.3813, -119.75
4.436, 1, 34.1852, 48.879, -12.5393, -77.6201, 44.51, -120.015
4.44, 1, 34.2171, 48.8648, -12.5584, -77.7316, 44.6384, -120.279
4.444, 1, 34.2489, 48.8506, -12.5776, -77.8428, 44.7667, -120.543
4.448, 1, 34.2807, 48.8365, -12.5967, -77.9539, 44.8947, -120.807
4.452, 1, 34.3125, 48.8224, -12.6157, -78.0648, 45.0226, -121.07
4.456, 1, 34.3442, 48.8083, -12.6348, -78.1755, 45.1503, -121.332
4.46, 1, 34.3759, 48.7942, -12.6538, -78.286, 45.2777, -121.594
4.464, 1, 34.4075, 48.7802, -12.6728, -78.3964, 45.405, -121.856
4.468, 1, 34.4391, 48.7661, -12.6917, -78.5066, 45.5321, -122.118
4.472, 1, 34.4706, 48.7521, -12.7106, -78.6167, 45.6589, -122.379
4.476, 1, 34.5021, 48.7381, -12.7295, -78.7265, 45.7856, -122.639
4.48, 1, 34.5335, 48.7242, -12.7484, -78.8362, 45.9121, -122.899
4.484, 1, 34.5649, 48.7102, -12.7672, -78.9458, 46.0384, -123.159
4.488, 1, 34.5962, 48.6963, -12.786, -79.0551, 46.1645, -123.418
4.492, 1, 34.6275, 48.6824, -12.8048, -79.1643, 46.2904, -123.677
4.496, 1, 34.6587, 48.6685, -12.8236, -79.2734, 46.4161, -123.936
4.5, 1, 34.6899, 48.6547, -12.8423, -79.3822, 46.5416, -124.194
4.504, 1, 34.721, 48.6408, -12.861, -79.4909, 46.667, -124.452
4.508, 1, 34.7521, 48.627, -12.8796, -79.5995, 46.7921, -124.71
4.512, 1, 34.7831, 48.6132, -12.8983, -79.7079, 46.9171, -124.967
4.516, 1, 34.8141, 48.5995, -12.9169, -79.8161, 47.0418, -125.223
4.52, 1, 34.8451, 48.5857, -12.9355, -79.9241, 47.1664, -125.479
4.524, 1, 34.876, 48.572, -12.954, -80.032, 47.2908, -125.735
4.528, 1, 34.9068, 48.5583, -12.9725, -80.1398, 47.415, -125.991
4.532, 1, 34.9376, 48.5446, -12.991, -80.2473, 47.5391, -126.246
4.536, 1, 34.9684, 48.5309, -13.0095, -80.3547, 47.6629, -126.501
4.54, 1, 34.9991, 48.5172, -13.0279, -80.462, 47.7866, -126.755
4.544, 1, 35.0298, 48.5036, -13.0464, -80.5691, 47.91, -127.009
4.548, 1, 35.0604, 48.49, -13.0647, -80.676, 48.0333, -127.263
4.552, 1, 35.091, 48.4764, -13.0831, -80.7828, 48.1564, -127.516
4.556, 1, 35.1215, 48.4628, -13.1014, -80.8894, 48.2794, -127.769
4.56, 1, 35.152, 48.4493, -13.1197, -80.9959, 48.4021, -128.021
4.564, 1, 35.1825, 48.4358, -13.138, -81.1022, 48.5247, -128.273
4.568, 1, 35.2129, 48.4222, -13.1563, -81.2083, 48.6471, -128.525
4.572, 1, 35.2432, 48.4088, -13.1745, -81.3143, 48.7693, -128.777
4.576, 1, 35.2736, 48.3953, -13.1927, -81.4202, 48.8913, -129.028
4.58, 1, 35.3038, 48.3818, -13.2109, -81.5258, 49.0132, -129.278
4.584, 1, 35.334, 48.3684, -13.229, -81.6314, 49.1348, -129.529
4.588, 1, 35.364, 48.3551, -13.2472, -81.7367, 49.2563, -129.778
4.592, 1, 35.3938, 48.3418, -13.2653, -81.8419, 49.3776, -130.028
4.596, 1, 35.4233, 48.3287, -13.2834, -81.9469, 49.4987, -130.277
4.6, 1, 35.4525, 48.3157, -13.3015, -82.0517, 49.6195, -130.526
4.604, 1, 35.4814, 48.3029, -13.3195, -82.1561, 49.74, -130.773
4.608, 1, 35.5098, 48.2903, -13.3376, -82.2602, 49.86, -131.02
4.612, 1, 35.5377, 48.2779, -13.3555, -82.3637, 49.9794, -131.266
4.616, 1, 35.565, 48.266, -13.3735, -82.4666, 50.0981, -131.51
4.62, 1, 35.5915, 48.2545, -13.3914, -82.5685, 50.2157, -131.752
4.624, 1, 35.6169, 48.2436, -13.4091, -82.6691, 50.3319, -131.991
4.628, 1, 35.6413, 48.2333, -13.4267, -82.7681, 50.4462, -132.226
4.632, 1, 35.6647, 48.2236, -13.4441, -82.865, 50.5581, -132.456
4.636, 1, 35.687, 48.2144, -13.461, -82.9592, 50.667, -132.68
4.64, 1, 35.7083, 48.2056, -13.4773, -83.0501, 50.7721, -132.896
4.644, 1, 35.7288, 48.1972, -13.493, -83.1372, 50.8727, -133.103
4.648, 1, 35.7483, 48.1892, -13.5079, -83.2198, 50.9681, -133.299
4.652, 1, 35.7668, 48.1816, -13.5218, -83.2974, 51.0577, -133.484
4.656, 1, 35.7843, 48.1743, -13.5347, -83.3694, 51.141, -133.655
4.66, 1, 35.8009, 48.1674, -13.5465, -83.4356, 51.2174, -133.812
4.664, 1, 35.8165, 48.1607, -13.557, -83.4955, 51.2866, -133.954
4.668, 1, 35.8315, 48.1541, -13.5663, -83.549, 51.3483, -134.081
4.672, 1, 35.8458, 48.1476, -13.5742, -83.596, 51.4024, -134.193
4.676, 1, 35.8595, 48.1412, -13.5809, -83.6367, 51.4492, -134.289
4.68, 1, 35.8724, 48.1349, -13.5864, -83.6713, 51.489, -134.371
4.684, 1, 35.8845, 48.129, -13.5907, -83.7002, 51.5221, -134.439
4.688, 1, 35.8955, 48.1234, -13.5941, -83.724, 51.5493, -134.495
4.692, 1, 35.9055, 48.1183, -13.5967, -83.7431, 51.5711, -134.54
4.696, 2, 35.9144, 48.1136, -13.5986, -83.7583, 51.5883, -134.575
4.7, 2, 35.9224, 48.1095, -13.6, -83.77, 51.6016, -134.603
4.704, 2, 35.9295, 48.1058, -13.6009, -83.7788, 51.6116, -134.623
4.708, 2, 35.9358, 48.1026, -13.6014, -83.7854, 51.619, -134.638
4.712, 2, 35.9412, 48.0999, -13.6017, -83.7901, 51.6243, -134.649
4.716, 2, 35.9458, 48.0976, -13.6019, -83.7935, 51.628, -134.657
4.72, 2, 35.9494, 48.0959, -13.602, -83.7958, 51.6306, -134.662
4.724, 2, 35.9521, 48.0946, -13.602, -83.7974, 51.6324, -134.666
4.728, 2, 35.9541, 48.0937, -13.602, -83.7985, 51.6336, -134.669
4.732, 2, 35.9554, 48.0931, -13.602, -83.7993, 51.6344, -134.67
4.736, 2, 35.9563, 48.0927, -13.602, -83.7998, 51.6349, -134.671
4.74, 2, 35.957, 48.0924, -13.602, -83.8001, 51.6353, -134.672
4.744, 2, 35.9574, 48.0922, -13.602, -83.8003, 51.6356, -134.673
4.748, 2, 35.9577, 48.0921, -13.602, -83.8005, 51.6357, -134.673
4.752, 2, 35.9579, 48.092, -13.602, -83.8006, 51.6359, -134.673
4.756, 2, 35.958, 48.0919, -13.602, -83.8007, 51.6359, -134.673
4.76, 2, 35.9581, 48.0919, -13.602, -83.8007, 51.636, -134.674
4.764, 2, 35.9581, 48.0918, -13.602, -83.8007, 51.636, -134.674
4.768, 2, 35.9582, 48.0918, -13.602, -83.8008, 51.6361, -134.674
4.772, 2, 35.9582, 48.0918, -13.602, -83.8008, 51.6361, -134.674
4.776, 2, 35.9582, 48.0918, -13.602, -83.8008, 51.6361, -134.674
4.78, 2, 35.9582, 48.0918, -13.602, -83.8008, 51.6361, -134.674
4.784, 2, 35.9582, 48.0918, -13.602, -83.8008, 51.6361, -134.674
4.788, 2, 35.9582, 48.0918, -13.602, -83.8008, 51.6361, -134.674
4.792, 2, 35.9583, 48.0918, -13.602, -83.8008, 51.6361, -134.674
4.796, 2, 35.9583, 48.0918, -13.602, -83.8008, 51.6361, -134.674
4.8, 2, 35.9583, 48.0918, -13.602, -83.8008, 51.6361, -134.674
4.804, 2, 35.9583, 48.0918, -13.602, -83.8008, 51.6361, -134.674
4.808, 2, 35.9583, 48.0918, -13.602, -83.8008, 51.6361, -134.674
4.812, 2, 35.9583, 48.0918, -13.602, -83.8008, 51.6361, -134.674
4.816, 2, 35.9583, 48.0918, -13.602, -83.8008, 51.6361, -134.674
4.82, 2, 35.9583, 48.0918, -13.602, -83.8008, 51.6361, -134.674
4.824, 2, 35.9583, 48.0918, -13.602, -83.8008, 51.6361, -134.674
4.828, 2, 35.9583, 48.0918, -13.602, -83.8008, 51.6361, -134.674
4.832, 2, 35.9583, 48.0918, -13.602, -83.8008, 51.6361, -134.674
4.836, 2, 35.9583, 48.0918, -13.602, -83.8008, 51.6361, -134.674
4.84, 2, 35.9583, 48.0918, -13.602, -83.8008, 51.6361, -134.674
4.844, 2, 35.9583, 48.0918, -13.602, -83.8008, 51.6361, -134.674
4.848, 2, 35.9583, 48.0918, -13.602, -83.8008, 51.6361, -134.674
4.852, 2, 35.9583, 48.0918, -13.602, -83.8008, 51.6361, -134.674
4.856, 2, 35.9583, 48.0918, -13.602, -83.8008, 51.6361, -134.674
4.86, 2, 35.9583, 48.0918, -13.602, -83.8008, 51.6361, -134.674
4.864, 2, 35.9583, 48.0918, -13.602, -83.8008, 51.6361, -134.674
4.868, 2, 35.9583, 48.0918, -13.602, -83.8008, 51.6361, -134.674
4.872, 2, 35.9583, 48.0918, -13.602, -83.8008, 51.6361, -134.674
4.876, 2, 35.9583, 48.0918, -13.602, -83.8008, 51.6361, -134.674
4.88, 2, 35.9583, 48.0918, -13.602, -83.8008, 51.6361, -134.674
4.884, 2, 35.9583, 48.0918, -13.602, -83.8008, 51.6361, -134.674
4.888, 2, 35.9583, 48.0918, -13.602, -83.8008, 51.6361, -134.674
4.892, 2, 35.9583, 48.0918, -13.602, -83.8008, 51.6361, -134.674
4.896, 2, 35.9583, 48.0918, -13.602, -83.8008, 51.6361, -134.674
4.9, 2, 35.9583, 48.0918, -13.602, -83.8008, 51.6361, -134.674
4.904, 2, 35.9583, 48.0918, -13.602, -83.8008, 51.6361, -134.674
4.908, 2, 35.9583, 48.0918, -13.602, -83.8008, 51.6361, -134.674
4.912, 2, 35.9583, 48.0918, -13.602, -83.8008, 51.6361, -134.674
4.916, 2, 35.9583, 48.0918, -13.602, -83.8008, 51.6361, -134.674
4.92, 2, 35.9583, 48.0918, -13.602, -83.8008, 51.6361, -134.674
4.924, 2, 35.9583, 48.0918, -13.602, -83.8008, 51.6361, -134.674
4.928, 2, 35.9583, 48.0918, -13.602, -83.8008, 51.6361, -134.674
4.932, 2, 35.9583, 48.0918, -13.602, -83.8008, 51.6361, -134.674
4.936, 2, 35.9583, 48.0918, -13.602, -83.8008, 51.6361, -134.674
4.94, 2, 35.9583, 48.0918, -13.602, -83.8008, 51.6361, -134.674
4.944, 2, 35.9583, 48.0918, -13.602, -83.8008, 51.6361, -134.674
4.948, 2, 35.9583, 48.0918, -13.602, -83.8008, 51.6361, -134.674
4.952, 2, 35.9583, 48.0918, -13.602, -83.8008, 51.6361, -134.674
4.956, 2, 35.9583, 48.0918, -13.602, -83.8008, 51.6361, -134.674
4.96, 2, 35.9583, 48.0918, -13.602, -83.8008, 51.6361, -134.674
4.964, 2, 35.9583, 48.0918, -13.602, -83.8008, 51.6361, -134.674
4.968, 2, 35.9583, 48.0918, -13.602, -83.8008, 51.6361, -134.674
4.972, 2, 35.9583, 48.0918, -13.602, -83.8008, 51.6361, -134.674
4.976, 2, 35.9583, 48.0918, -13.602, -83.8008, 51.6361, -134.674
4.98, 2, 35.9583, 48.0918, -13.602, -83.8008, 51.6361, -134.674
4.984, 2, 35.9583, 48.0918, -13.602, -83.8008, 51.6361, -134.674
4.988, 2, 35.9583, 48.0918, -13.602, -83.8008, 51.6361, -134.674
4.992, 2, 35.9583, 48.0918, -13.602, -83.8008, 51.6361, -134.674
4.996, 2, 35.9583, 48.0918, -13.602, -83.8008, 51.6361, -134.674
5, 2, 35.9583, 48.0918, -13.602, -83.8008, 51.6361, -134.674
5.004, 2, 35.9583, 48.0918, -13.602, -83.8008, 51.6361, -134.674
5.008, 2, 35.9583, 48.0918, -13.602, -83.8008, 51.6361, -134.674
5.012, 2, 35.9583, 48.0918, -13.602, -83.8008, 51.6361, -134.674
5.016, 2, 35.9583, 48.0918, -13.602, -83.8008, 51.6361, -134.674
5.02, 2, 35.9583, 48.0918, -13.602, -83.8008, 51.6361, -134.674
5.024, 2, 35.9583, 48.0918, -13.602, -83.8008, 51.6361, -134.674
5.028, 2, 35.9583, 48.0918, -13.602, -83.8008, 51.6361, -134.674
5.032, 2, 35.9583, 48.0918, -13.602, -83.8008, 51.6361, -134.674
5.036, 2, 35.9583, 48.0918, -13.602, -83.8008, 51.6361, -134.674
5.04, 2, 35.9583, 48.0918, -13.602, -83.8008, 51.6361, -134.674
5.044, 2, 35.9583, 48.0918, -13.602, -83.8008, 51.6361, -134.674
5.048, 2, 35.9583, 48.0918, -13.602, -83.8008, 51.6361, -134.674
5.052, 2, 35.9583, 48.0918, -13.602, -83.8008, 51.6361, -134.674
5.056, 2, 35.9583, 48.0918, -13.602, -83.8008, 51.6361, -134.674
5.06, 2, 35.9583, 48.0918, -13.602, -83.8008, 51.6361, -134.674
5.064, 2, 35.9583, 48.0918, -13.602, -83.8008, 51.6361, -134.674
5.068, 2, 35.9583, 48.0918, -13.602, -83.8008, 51.6361, -134.674
5.072, 2, 35.9583, 48.0918, -13.602, -83.8008, 51.6361, -134.674
5.076, 2, 35.9583, 48.0918, -13.602, -83.8008, 51.6361, -134.674
5.08, 2, 35.9583, 48.0918, -13.602, -83.8008, 51.6361, -134.674
5.084, 2, 35.9583, 48.0918, -13.602, -83.8008, 51.6361, -134.674
5.088, 2, 35.9583, 48.0918, -13.602, -83.8008, 51.6361, -134.674
5.092, 2, 35.9583, 48.0918, -13.602, -83.8008, 51.6361, -134.674
5.096, 2, 35.9583, 48.0918, -13.602, -83.8008, 51.6361, -134.674
5.1, 2, 35.9583, 48.0918, -13.602, -83.8008, 51.6361, -134.674
5.104, 2, 35.9583, 48.0918, -13.602, -83.8008, 51.6361, -134.674
5.108, 2, 35.9583, 48.0918, -13.602, -83.8008, 51.6361, -134.674
5.112, 2, 35.9583, 48.0918, -13.602, -83.8008, 51.6361, -134.674
5.116, 2, 35.9583, 48.0918, -13.602, -83.8008, 51.6361, -134.674
5.12, 2, 35.9583, 48.0918, -13.602, -83.8008, 51.6361, -134.674
5.124, 2, 35.9583, 48.0918, -13.602, -83.8008, 51.6361, -134.674
5.128, 2, 35.9583, 48.0918, -13.602, -83.8008, 51.6361, -134.674
5.132, 2, 35.9583, 48.0918, -13.602, -83.8008, 51.6361, -134.674
5.136, 2, 35.9583, 48.0918, -13.602, -83.8008, 51.6361, -134.674
5.14, 2, 35.9583, 48.0918, -13.602, -83.8008, 51.6361, -134.674
5.144, 2, 35.9583, 48.0918, -13.602, -83.8008, 51.6361, -134.674
5.148, 2, 35.9583, 48.0918, -13.602, -83.8008, 51.6361, -134.674
5.152, 2, 35.9583, 48.0918, -13.602, -83.8008, 51.6361, -134.674
5.156, 2, 35.9583, 48.0918, -13.602, -83.8008, 51.6361, -134.674
5.16, 2, 35.9583, 48.0918, -13.602, -83.8008, 51.6361, -134.674
5.164, 2, 35.9583, 48.0918, -13.602, -83.8008, 51.6361, -134.674
5.168, 2, 35.9583, 48.0918, -13.602, -83.8008, 51.6361, -134.674
5.172, 2, 35.9583, 48.0918, -13.602, -83.8008, 51.6361, -134.674
5.176, 2, 35.9583, 48.0918, -13.602, -83.8008, 51.6361, -134.674
5.18, 2, 35.9583, 48.0918, -13.602, -83.8008, 51.6361, -134.674
5.184, 2, 35.9583, 48.0918, -13.602, -83.8008, 51.6361, -134.674
5.188, 2, 35.9583, 48.0918, -13.602, -83.8008, 51.6361, -134.674
5.192, 2, 35.9583, 48.0918, -13.602, -83.8008, 51.6361, -134.674
5.196, 2, 35.9583, 48.0918, -13.602, -83.8008, 51.6361, -134.674
5.2, 2, 35.9583, 48.0918, -13.602, -83.8008, 51.6361, -134.674
5.204, 2, 35.9583, 48.0918, -13.602, -83.8008, 51.6361, -134.674
5.208, 2, 35.9583, 48.0918, -13.602, -83.8008, 51.6361, -134.674
5.212, 2, 35.9583, 48.0918, -13.602, -83.8008, 51.6361, -134.674
5.216, 2, 35.9583, 48.0918, -13.602, -83.8008, 51.6361, -134.674
5.22, 2, 35.9583, 48.0918, -13.602, -83.8008, 51.6361, -134.674
5.224, 2, 35.9583, 48.0918, -13.602, -83.8008, 51.6361, -134.674
5.228, 2, 35.9583, 48.0918, -13.602, -83.8008, 51.6361, -134.674
5.232, 2, 35.9583, 48.0918, -13.602, -83.8008, 51.6361, -134.674
5.236, 2, 35.9583, 48.0918, -13.602, -83.8008, 51.6361, -134.674
5.24, 2, 35.9583, 48.0918, -13.602, -83.8008, 51.6361, -134.674
5.244, 2, 35.9583, 48.0918, -13.602, -83.8008, 51.6361, -134.674
5.248, 2, 35.9583, 48.0918, -13.602, -83.8008, 51.6361, -134.674
5.252, 2, 35.9583, 48.0918, -13.602, -83.8008, 51.6361, -134.674
5.256, 2, 35.9583, 48.0918, -13.602, -83.8008, 51.6361, -134.674
5.26, 2, 35.9583, 48.0918, -13.602, -83.8008, 51.6361, -134.674
5.264, 2, 35.9583, 48.0918, -13.602, -83.8008, 51.6361, -134.674
5.268, 2, 35.9583, 48.0918, -13.602, -83.8008, 51.6361, -134.674
5.272, 2, 35.9583, 48.0918, -13.602, -83.8008, 51.6361, -134.674
5.276, 2, 35.9583, 48.0918, -13.602, -83.8008, 51.6361, -134.674
5.28, 2, 35.9583, 48.0918, -13.602, -83.8008, 51.6361, -134.674
5.284, 2, 35.9583, 48.0918, -13.602, -83.8008, 51.6361, -134.674
5.288, 2, 35.9583, 48.0918, -13.602, -83.8008, 51.6361, -134.674
5.292, 2, 35.9583, 48.0918, -13.602, -83.8008, 51.6361, -134.674
5.296, 2, 35.9583, 48.0918, -13.602, -83.8008, 51.6361, -134.674
5.3, 2, 35.9583, 48.0918, -13.602, -83.8008, 51.6361, -134.674
5.304, 2, 35.9583, 48.0918, -13.602, -83.8008, 51.6361, -134.674
5.308, 2, 35.9583, 48.0918, -13.602, -83.8008, 51.6361, -134.674
5.312, 2, 35.9583, 48.0918, -13.602, -83.8008, 51.6361, -134.674
5.316, 2, 35.9583, 48.0918, -13.602, -83.8008, 51.6361, -134.674
5.32, 2, 35.9583, 48.0918, -13.602, -83.8008, 51.6361, -134.674
5.324, 2, 35.9583, 48.0918, -13.602, -83.8008, 51.6361, -134.674
5.328, 2, 35.9583, 48.0918, -13.602, -83.8008, 51.6361, -134.674
5.332, 2, 35.9583, 48.0918, -13.602, -83.8008, 51.6361, -134.674
5.336, 2, 35.9583, 48.0918, -13.602, -83.8008, 51.6361, -134.674
5.34, 2, 35.9583, 48.0918, -13.602, -83.8008, 51.6361, -134.674
5.344, 2, 35.9583, 48.0918, -13.602, -83.8008, 51.6361, -134.674
5.348, 2, 35.9583, 48.0918, -13.602, -83.8008, 51.6361, -134.674
5.352, 2, 35.9583, 48.0918, -13.602, -83.8008, 51.6361, -134.674
5.356, 2, 35.9583, 48.0918, -13.602, -83.8008, 51.6361, -134.674
5.36, 2, 35.9583, 48.0918, -13.602, -83.8008, 51.6361, -134.674
5.364, 2, 35.9583, 48.0918, -13.602, -83.8008, 51.6361, -134.674
5.368, 2, 35.9583, 48.0918, -13.602, -83.8008, 51.6361, -134.674
5.372, 2, 35.9583, 48.0918, -13.602, -83.8008, 51.6361, -134.674
5.376, 2, 35.9583, 48.0918, -13.602, -83.8008, 51.6361, -134.674
5.38, 2, 35.9583, 48.0918, -13.602, -83.8008, 51.6361, -134.674
5.384, 2, 35.9583, 48.0918, -13.602, -83.8008, 51.6361, -134.674
5.388, 2, 35.9583, 48.0918, -13.602, -83.8008, 51.6361, -134.674
5.392, 2, 35.9583, 48.0918, -13.602, -83.8008, 51.6361, -134.674
5.396, 2, 35.9583, 48.0918, -13.602, -83.8008, 51.6361, -134.674
5.4, 2, 35.9583, 48.0918, -13.602, -83.8008, 51.6361, -134.674
5.404, 2, 35.9583, 48.0918, -13.602, -83.8008, 51.6361, -134.674
5.408, 2, 35.9583, 48.0918, -13.602, -83.8008, 51.6361, -134.674
5.412, 2, 35.9583, 48.0918, -13.602, -83.8008, 51.6361, -134.674
5.416, 2, 35.9583, 48.0918, -13.602, -83.8008, 51.6361, -134.674
5.42, 2, 35.9583, 48.0918, -13.602, -83.8008, 51.6361, -134.674
5.424, 2, 35.9583, 48.0918, -13.602, -83.8008, 51.6361, -134.674
5.428, 2, 35.9583, 48.0918, -13.602, -83.8008, 51.6361, -134.674
5.432, 2, 35.9583, 48.0918, -13.602, -83.8008, 51.6361, -134.674
5.436, 2, 35.9583, 48.0918, -13.602, -83.8008, 51.6361, -134.674
5.44, 2, 35.9583, 48.0918, -13.602, -83.8008, 51.6361, -134.674
5.444, 2, 35.9583, 48.0918, -13.602, -83.8008, 51.6361, -134.674
5.448, 2, 35.9583, 48.0918, -13.602, -83.8008, 51.6361, -134.674
5.452, 2, 35.9583, 48.0918, -13.602, -83.8008, 51.6361, -134.674
5.456, 2, 35.9583, 48.0918, -13.602, -83.8008, 51.6361, -134.674
5.46, 2, 35.9583, 48.0918, -13.602, -83.8008, 51.6361, -134.674
5.464, 2, 35.9583, 48.0918, -13.602, -83.8008, 51.6361, -134.674
5.468, 2, 35.9583, 48.0918, -13.602, -83.8008, 51.6361, -134.674
5.472, 2, 35.9583, 48.0918, -13.602, -83.8008, 51.6361, -134.674
5.476, 2, 35.9583, 48.0918, -13.602, -83.8008, 51.6361, -134.674
5.48, 2, 35.9583, 48.0918, -13.602, -83.8008, 51.6361, -134.674
5.484, 2, 35.9583, 48.0918, -13.602, -83.8008, 51.6361, -134.674
5.488, 2, 35.9583, 48.0918, -13.602, -83.8008, 51.6361, -134.674
5.492, 2, 35.9583, 48.0918, -13.602, -83.8008, 51.6361, -134.674
5.496, 2, 35.9583, 48.0918, -13.602, -83.8008, 51.6361, -134.674
5.5, 2, 35.9583, 48.0918, -13.602, -83.8008, 51.6361, -134.674
5.504, 2, 35.9583, 48.0918, -13.602, -83.8008, 51.6361, -134.674
5.508, 2, 35.9583, 48.0918, -13.602, -83.8008, 51.6361, -134.674
5.512, 2, 35.9583, 48.0918, -13.602, -83.8008, 51.6361, -134.674
5.516, 2, 35.9583, 48.0918, -13.602, -83.8008, 51.6361, -134.674
5.52, 2, 35.9583, 48.0918, -13.602, -83.8008, 51.6361, -134.674
5.524, 2, 35.9583, 48.0918, -13.602, -83.8008, 51.6361, -134.674
5.528, 2, 35.9583, 48.0918, -13.602, -83.8008, 51.6361, -134.674
5.532, 2, 35.9583, 48.0918, -13.602, -83.8008, 51.6361, -134.674
5.536, 2, 35.9583, 48.0918, -13.602, -83.8008, 51.6361, -134.674
5.54, 2, 35.9583, 48.0918, -13.602, -83.8008, 51.6361, -134.674
5.544, 2, 35.9583, 48.0918, -13.602, -83.8008, 51.6361, -134.674
5.548, 2, 35.9583, 48.0918, -13.602, -83.8008, 51.6361, -134.674
5.552, 2, 35.9583, 48.0918, -13.602, -83.8008, 51.6361, -134.674
5.556, 2, 35.9583, 48.0918, -13.602, -83.8008, 51.6361, -134.674
5.56, 2, 35.9583, 48.0918, -13.602, -83.8008, 51.6361, -134.674
5.564, 2, 35.9583, 48.0918, -13.602, -83.8008, 51.6361, -134.674
5.568, 2, 35.9583, 48.0918, -13.602, -83.8008, 51.6361, -134.674
5.572, 2, 35.9583, 48.0918, -13.602, -83.8008, 51.6361, -134.674
5.576, 2, 35.9583, 48.0918, -13.602, -83.8008, 51.6361, -134.674
5.58, 2, 35.9583, 48.0918, -13.602, -83.8008, 51.6361, -134.674
5.584, 2, 35.9583, 48.0918, -13.602, -83.8008, 51.6361, -134.674
5.588, 2, 35.9583, 48.0918, -13.602, -83.8008, 51.6361, -134.674
5.592, 2, 35.9583, 48.0918, -13.602, -83.8008, 51.6361, -134.674
5.596, 2, 35.9583, 48.0918, -13.602, -83.8008, 51.6361, -134.674
5.6, 2, 35.9583, 48.0918, -13.602, -83.8008, 51.6361, -134.674
5.604, 2, 35.9583, 48.0918, -13.602, -83.8008, 51.6361, -134.674
5.608, 2, 35.9583, 48.0918, -13.602, -83.8008, 51.6361, -134.674
5.612, 2, 35.9583, 48.0918, -13.602, -83.8008, 51.6361, -134.674
5.616, 2, 35.9583, 48.0918, -13.602, -83.8008, 51.6361, -134.674
5.62, 2, 35.9583, 48.0918, -13.602, -83.8008, 51.6361, -134.674
5.624, 2, 35.9583, 48.0918, -13.602, -83.8008, 51.6361, -134.674
5.628, 2, 35.9583, 48.0918, -13.602, -83.8008, 51.6361, -134.674
5.632, 2, 35.9583, 48.0918, -13.602, -83.8008, 51.6361, -134.674
5.636, 2, 35.9583, 48.0918, -13.602, -83.8008, 51.6361, -134.674
5.64, 2, 35.9583, 48.0918, -13.602, -83.8008, 51.6361, -134.674
5.644, 2, 35.9583, 48.0918, -13.602, -83.8008, 51.6361, -134.674
5.648, 2, 35.9583, 48.0918, -13.602, -83.8008, 51.6361, -134.674
5.652, 2, 35.9583, 48.0918, -13.602, -83.8008, 51.6361, -134.674
5.656, 2, 35.9583, 48.0918, -13.602, -83.8008, 51.6361, -134.674
5.66, 2, 35.9583, 48.0918, -13.602, -83.8008, 51.6361, -134.674
5.664, 2, 35.9583, 48.0918, -13.602, -83.8008, 51.6361, -134.674
5.668, 2, 35.9583, 48.0918, -13.602, -83.8008, 51.6361, -134.674
5.672, 2, 35.9583, 48.0918, -13.602, -83.8008, 51.6361, -134.674
5.676, 2, 35.9583, 48.0918, -13.602, -83.8008, 51.6361, -134.674
5.68, 2, 35.9583, 48.0918, -13.602, -83.8008, 51.6361, -134.674
5.684, 2, 35.9583, 48.0918, -13.602, -83.8008, 51.6361, -134.674
5.688, 2, 35.9583, 48.0918, -13.602, -83.8008, 51.6361, -134.674
5.692, 2, 35.9583, 48.0918, -13.602, -83.8008, 51.6361, -134.674
5.696, 3, 35.9583, 48.0918, -13.602, -83.8008, 51.6361, -134.674
5.7, 3, 35.9583, 48.0918, -13.602, -83.8008, 51.6361, -134.674
5.704, 3, 35.9583, 48.0918, -13.602, -83.8008, 51.6361, -134.674
5.708, 3, 35.9583, 48.0918, -13.602, -83.8008, 51.6361, -134.674
5.712, 3, 35.9583, 48.0918, -13.602, -83.8008, 51.6361, -134.674
5.716, 3, 35.9583, 48.0918, -13.602, -83.8008, 51.6361, -134.674
5.72, 3, 35.9583, 48.0918, -13.602, -83.8008, 51.6361, -134.674
5.724, 3, 35.9583, 48.0918, -13.602, -83.8008, 51.6361, -134.674
5.728, 3, 35.9583, 48.0918, -13.602, -83.8008, 51.6361, -134.674
5.732, 3, 35.9583, 48.0918, -13.602, -83.8008, 51.6361, -134.674
5.736, 3, 35.9583, 48.0918, -13.602, -83.8008, 51.6361, -134.674
5.74, 3, 35.9583, 48.0918, -13.602, -83.8008, 51.6361, -134.674
5.744, 3, 35.9583, 48.0918, -13.602, -83.8008, 51.6361, -134.674
5.748, 3, 35.9583, 48.0918, -13.602, -83.8008, 51.6361, -134.674
5.752, 5, 35.9583, 48.0918, -13.602, -83.8008, 51.6361, -134.674
5.756, 5, 35.9583, 48.0918, -13.602, -83.8008, 51.6361, -134.674
5.76, 6, 35.9583, 48.0918, -13.602, -83.8008, 51.6361, -134.674
5.764, 6, 35.9583, 48.0918, -13.602, -83.8008, 51.6361, -134.674
5.768, 7, 35.9583, 48.0918, -13.602, -83.8008, 51.6361, -134.674
5.772, 7, 35.9583, 48.0918, -13.602, -83.8008, 51.6361, -134.674
5.776, 8, 35.9583, 48.0918, -13.602, -83.8008, 51.6361, -134.674
5.78, 8, 35.9583, 48.0918, -13.602, -83.8008, 51.6361, -134.674
5.784, 9, 35.9583, 48.0918, -13.602, -83.8008, 51.6361, -134.674
5.788, 9, 35.9583, 48.0918, -13.602, -83.8008, 51.6361, -134.674
5.792, 10, 35.9583, 48.0918, -13.602, -83.8008, 51.6361, -134.674
5.796, 10, 35.9583, 48.0918, -13.602, -83.8008, 51.6361, -134.674
5.8, 10, 35.9583, 48.0918, -13.602, -83.8008, 51.6361, -134.674
5.804, 10, 35.9583, 48.0918, -13.602, -83.8008, 51.6361, -134.674
5.808, 10, 35.9583, 48.0918, -13.602, -83.8008, 51.6361, -134.674
5.812, 10, 35.9583, 48.0918, -13.602, -83.8008, 51.6361, -134.674
5.816, 11, 35.9583, 48.0918, -13.602, -83.8008, 51.6361, -134.674
5.82, 11, 35.9583, 48.0918, -13.602, -83.8008, 51.6361, -134.674
5.824, 11, 35.9583, 48.0918, -13.602, -83.8008, 51.6361, -134.674
5.828, 11, 35.9585, 48.0917, -13.602, -83.8008, 51.6361, -134.674
5.832, 11, 35.9587, 48.0915, -13.602, -83.8008, 51.6361, -134.674
5.836, 11, 35.9587, 48.0914, -13.6021, -83.8008, 51.6361, -134.674
5.84, 11, 35.9584, 48.0914, -13.6022, -83.8008, 51.6361, -134.674
5.844, 11, 35.9572, 48.0919, -13.6024, -83.8006, 51.6362, -134.674
5.848, 11, 35.9549, 48.0929, -13.6029, -83.8002, 51.6365, -134.674
5.852, 11, 35.9514, 48.0947, -13.6035, -83.7991, 51.6372, -134.675
5.856, 11, 35.9466, 48.0973, -13.6044, -83.7971, 51.6386, -134.676
5.86, 11, 35.9407, 48.1005, -13.6055, -83.7936, 51.6411, -134.677
5.864, 12, 35.9341, 48.1043, -13.6067, -83.788, 51.6451, -134.68
5.868, 12, 35.9272, 48.1084, -13.6079, -83.7796, 51.651, -134.684
5.872, 12, 35.9201, 48.1127, -13.6092, -83.7678, 51.6594, -134.69
5.876, 12, 35.9129, 48.1172, -13.6104, -83.7519, 51.6707, -134.697
5.88, 12, 35.9055, 48.122, -13.6115, -83.7316, 51.6852, -134.707
5.884, 12, 35.8977, 48.1271, -13.6125, -83.7063, 51.7032, -134.718
5.888, 12, 35.8897, 48.1325, -13.6134, -83.6759, 51.7249, -134.733
5.892, 12, 35.8813, 48.1382, -13.6143, -83.6402, 51.7505, -134.749
5.896, 12, 35.8727, 48.1442, -13.615, -83.5992, 51.7798, -134.768
5.9, 12, 35.8641, 48.1502, -13.6156, -83.5532, 51.8127, -134.79
5.904, 12, 35.8555, 48.1564, -13.6161, -83.5025, 51.8491, -134.813
5.908, 12, 35.8468, 48.1628, -13.6165, -83.4475, 51.8885, -134.838
5.912, 12, 35.8379, 48.1695, -13.617, -83.3888, 51.9307, -134.865
5.916, 12, 35.8282, 48.1767, -13.6177, -83.327, 51.975, -134.894
5.92, 12, 35.8176, 48.1846, -13.6187, -83.2627, 52.021, -134.923
5.924, 12, 35.806, 48.1931, -13.62, -83.1963, 52.0684, -134.953
5.928, 12, 35.7931, 48.2024, -13.6217, -83.1284, 52.1168, -134.983
5.932, 12, 35.7792, 48.2121, -13.6238, -83.0592, 52.166, -135.013
5.936, 12, 35.7645, 48.2223, -13.6263, -82.9889, 52.2156, -135.043
5.94, 12, 35.7491, 48.2328, -13.6292, -82.9175, 52.2656, -135.073
5.944, 12, 35.7332, 48.2435, -13.6326, -82.845, 52.316, -135.102
5.948, 12, 35.717, 48.2543, -13.6364, -82.7716, 52.3665, -135.13
5.952, 12, 35.7006, 48.2652, -13.6406, -82.697, 52.4173, -135.158
5.956, 12, 35.684, 48.2761, -13.6452, -82.6212, 52.4683, -135.185
5.96, 12, 35.6673, 48.287, -13.6503, -82.5441, 52.5194, -135.211
5.964, 12, 35.6505, 48.298, -13.6559, -82.4658, 52.5707, -135.236
5.968, 12, 35.6336, 48.3091, -13.6619, -82.386, 52.6222, -135.26
5.972, 12, 35.6167, 48.3204, -13.6684, -82.3048, 52.6738, -135.283
5.976, 12, 35.5996, 48.3319, -13.6754, -82.2221, 52.7255, -135.305
5.98, 12, 35.5826, 48.3435, -13.6829, -82.1379, 52.7774, -135.325
5.984, 13, 35.5655, 48.3554, -13.6909, -82.0523, 52.8295, -135.345
5.988, 13, 35.5484, 48.3673, -13.6993, -81.9652, 52.8816, -135.363
5.992, 13, 35.5312, 48.3794, -13.7082, -81.8767, 52.9339, -135.381
5.996, 13, 35.5141, 48.3915, -13.7176, -81.7869, 52.9863, -135.397
6, 13, 35.4969, 48.4036, -13.7275, -81.6958, 53.0389, -135.412
6.004, 13, 35.4798, 48.4157, -13.7379, -81.6035, 53.0915, -135.427
6.008, 13, 35.4626, 48.4278, -13.7487, -81.51, 53.1443, -135.44
6.012, 13, 35.4455, 48.4398, -13.76, -81.4156, 53.1972, -135.452
6.016, 13, 35.4284, 48.4517, -13.7717, -81.3203, 53.2502, -135.464
6.02, 13, 35.4113, 48.4635, -13.7838, -81.2241, 53.3034, -135.474
6.024, 13, 35.3942, 48.4753, -13.7964, -81.1271, 53.3567, -135.484
6.028, 13, 35.3771, 48.4869, -13.8094, -81.0295, 53.4102, -135.493
6.032, 13, 35.3599, 48.4985, -13.8227, -80.9313, 53.4639, -135.501
6.036, 13, 35.3428, 48.51, -13.8364, -80.8325, 53.5177, -135.508
6.04, 13, 35.3256, 48.5215, -13.8504, -80.7331, 53.5718, -135.514
6.044, 13, 35.3084, 48.533, -13.8647, -80.6333, 53.6261, -135.52
6.048, 13, 35.2912, 48.5444, -13.8793, -80.533, 53.6807, -135.524
6.052, 13, 35.2739, 48.5559, -13.8942, -80.4322, 53.7355, -135.527
6.056, 13, 35.2566, 48.5674, -13.9094, -80.331, 53.7906, -135.53
6.06, 13, 35.2392, 48.579, -13.9248, -80.2292, 53.846, -135.531
6.064, 13, 35.2217, 48.5908, -13.9404, -80.127, 53.9016, -135.531
6.068, 13, 35.2041, 48.6026, -13.9563, -80.0243, 53.9576, -135.53
6.072, 13, 35.1865, 48.6145, -13.9724, -79.9211, 54.0138, -135.528
6.076, 13, 35.1688, 48.6265, -13.9888, -79.8174, 54.0702, -135.525
6.08, 14, 35.151, 48.6386, -14.0054, -79.7133, 54.127, -135.521
6.084, 14, 35.1332, 48.6506, -14.0223, -79.6088, 54.1839, -135.517
6.088, 14, 35.1153, 48.6627, -14.0394, -79.5039, 54.2411, -135.511
6.092, 14, 35.0975, 48.6747, -14.0567, -79.3986, 54.2985, -135.504
6.096, 14, 35.0796, 48.6867, -14.0743, -79.293, 54.356, -135.496
6.1, 14, 35.0617, 48.6986, -14.092, -79.1871, 54.4137, -135.488
6.104, 14, 35.0438, 48.7104, -14.11, -79.0809, 54.4716, -135.478
6.108, 14, 35.0259, 48.722, -14.1282, -78.9746, 54.5295, -135.467
6.112, 14, 35.008, 48.7335, -14.1464, -78.868, 54.5875, -135.456
6.116, 14, 34.9901, 48.7448, -14.1648, -78.7612, 54.6455, -135.443
6.12, 14, 34.9722, 48.7559, -14.1833, -78.6544, 54.7035, -135.429
6.124, 14, 34.9544, 48.7668, -14.2018, -78.5473, 54.7616, -135.414
6.128, 14, 34.9365, 48.7775, -14.2204, -78.4402, 54.8196, -135.398
6.132, 14, 34.9186, 48.7881, -14.2388, -78.333, 54.8776, -135.38
6.136, 14, 34.9007, 48.7984, -14.2573, -78.2257, 54.9355, -135.361
6.14, 14, 34.8828, 48.8087, -14.2756, -78.1183, 54.9934, -135.341
6.144, 14, 34.8647, 48.8188, -14.2938, -78.0109, 55.0512, -135.319
6.148, 14, 34.8466, 48.829, -14.3118, -77.9033, 55.109, -135.295
6.152, 14, 34.8284, 48.8391, -14.3297, -77.7956, 55.1667, -135.27
6.156, 14, 34.81, 48.8492, -14.3474, -77.6879, 55.2243, -135.243
6.16, 14, 34.7916, 48.8593, -14.365, -77.58, 55.2818, -135.214
6.164, 14, 34.7731, 48.8693, -14.3824, -77.4721, 55.3392, -135.184
6.168, 14, 34.7546, 48.8792, -14.3996, -77.3641, 55.3965, -135.152
6.172, 14, 34.736, 48.8889, -14.4167, -77.256, 55.4538, -135.119
6.176, 15, 34.7175, 48.8985, -14.4336, -77.148, 55.5109, -135.085
6.18, 15, 34.6989, 48.9079, -14.4504, -77.04, 55.5679, -135.049
6.184, 15, 34.6804, 48.9171, -14.4671, -76.9321, 55.6249, -135.012
6.188, 15, 34.6619, 48.926, -14.4836, -76.8244, 55.6817, -134.974
6.192, 15, 34.6434, 48.9348, -14.4999, -76.717, 55.7385, -134.934
6.196, 15, 34.6249, 48.9433, -14.5161, -76.6099, 55.7952, -134.894
