hehonglu123/Motion-Primitive-Planning/simulation/robotstudio_sim/scripts/fitting_output_new/matlab_qp_movel/curve_exe_v800_z10.csv
timestamp, cmd_num, J1, J2, J3, J4, J5, J6
0, 1, -21.0969, 43.9252, 25.1167, -207.176, 62.5842, -44.4667
0.002, 1, -21.0969, 43.9252, 25.1167, -207.176, 62.5842, -44.4667
0.004, 1, -21.0969, 43.9252, 25.1167, -207.176, 62.5842, -44.4667
0.008, 1, -21.0969, 43.9252, 25.1167, -207.176, 62.5842, -44.4667
0.011, 1, -21.0969, 43.9252, 25.1167, -207.176, 62.5842, -44.4667
0.016, 1, -21.0969, 43.9252, 25.1167, -207.176, 62.5842, -44.4667
0.02, 1, -21.0969, 43.9252, 25.1167, -207.176, 62.5842, -44.4667
0.024, 1, -21.0969, 43.9252, 25.1167, -207.176, 62.5842, -44.4667
0.028, 1, -21.0969, 43.9252, 25.1167, -207.176, 62.5842, -44.4667
0.032, 1, -21.0969, 43.9252, 25.1167, -207.176, 62.5842, -44.4667
0.036, 1, -21.0969, 43.9252, 25.1167, -207.176, 62.5842, -44.4667
0.04, 1, -21.0968, 43.9252, 25.1168, -207.176, 62.5842, -44.4667
0.044, 1, -21.0966, 43.9252, 25.1168, -207.176, 62.5842, -44.4667
0.048, 1, -21.096, 43.9252, 25.1167, -207.176, 62.5842, -44.4667
0.052, 1, -21.0951, 43.9251, 25.1167, -207.176, 62.5842, -44.4668
0.056, 1, -21.0935, 43.925, 25.1167, -207.175, 62.5842, -44.4669
0.06, 1, -21.0913, 43.9249, 25.1166, -207.175, 62.5842, -44.4673
0.064, 1, -21.0883, 43.9247, 25.1163, -207.174, 62.5842, -44.468
0.068, 1, -21.0846, 43.9245, 25.1159, -207.172, 62.5841, -44.4691
0.072, 1, -21.08, 43.9243, 25.1152, -207.17, 62.5839, -44.471
0.076, 1, -21.0744, 43.924, 25.1141, -207.166, 62.5837, -44.4738
0.08, 1, -21.0676, 43.9237, 25.1124, -207.16, 62.5833, -44.478
0.084, 1, -21.0594, 43.9235, 25.11, -207.152, 62.5827, -44.4838
0.088, 1, -21.0494, 43.9233, 25.1068, -207.141, 62.5818, -44.4917
0.092, 1, -21.0376, 43.9231, 25.1025, -207.127, 62.5807, -44.5022
0.096, 1, -21.0237, 43.9231, 25.0968, -207.108, 62.5792, -44.5157
0.1, 1, -21.0075, 43.9232, 25.0896, -207.085, 62.5773, -44.5329
0.104, 1, -20.9891, 43.9235, 25.0807, -207.056, 62.5748, -44.5541
0.108, 1, -20.9681, 43.9241, 25.0698, -207.02, 62.5718, -44.5799
0.112, 1, -20.9444, 43.9249, 25.0566, -206.978, 62.5682, -44.6109
0.116, 1, -20.9179, 43.9261, 25.0412, -206.928, 62.5639, -44.6472
0.12, 1, -20.8886, 43.9277, 25.0232, -206.87, 62.5588, -44.6894
0.124, 1, -20.8564, 43.9296, 25.0026, -206.804, 62.553, -44.7376
0.128, 1, -20.8214, 43.932, 24.9793, -206.73, 62.5464, -44.7921
0.131, 1, -20.7837, 43.9348, 24.9533, -206.647, 62.539, -44.8528
0.136, 1, -20.7433, 43.9381, 24.9245, -206.555, 62.5308, -44.9197
0.139, 1, -20.7003, 43.9417, 24.8932, -206.456, 62.5219, -44.9926
0.144, 1, -20.6546, 43.9458, 24.8594, -206.348, 62.5123, -45.0712
0.148, 1, -20.6063, 43.9502, 24.8233, -206.234, 62.502, -45.155
0.152, 1, -20.5553, 43.9549, 24.7852, -206.113, 62.4911, -45.2437
0.156, 1, -20.5019, 43.9598, 24.7452, -205.986, 62.4796, -45.3366
0.16, 1, -20.4462, 43.9649, 24.7035, -205.853, 62.4678, -45.4333
0.164, 1, -20.3886, 43.9702, 24.6605, -205.717, 62.4555, -45.5332
0.168, 1, -20.3292, 43.9755, 24.6163, -205.577, 62.4429, -45.6358
0.172, 1, -20.268, 43.9809, 24.5712, -205.433, 62.43, -45.7406
0.176, 1, -20.2053, 43.9863, 24.5254, -205.288, 62.417, -45.8471
0.18, 1, -20.1411, 43.9917, 24.4791, -205.14, 62.4038, -45.9549
0.184, 1, -20.0755, 43.9971, 24.4323, -204.992, 62.3906, -46.0637
0.188, 1, -20.0086, 44.0023, 24.3852, -204.842, 62.3772, -46.1731
0.192, 1, -19.9408, 44.0076, 24.338, -204.691, 62.3638, -46.2831
0.196, 1, -19.8721, 44.0128, 24.2906, -204.541, 62.3504, -46.3935
0.2, 1, -19.803, 44.018, 24.2431, -204.389, 62.337, -46.5041
0.204, 1, -19.7334, 44.0232, 24.1955, -204.238, 62.3235, -46.6149
0.208, 1, -19.6636, 44.0283, 24.1479, -204.086, 62.31, -46.7259
0.212, 1, -19.5935, 44.0335, 24.1002, -203.934, 62.2965, -46.8371
0.216, 1, -19.5233, 44.0386, 24.0524, -203.782, 62.283, -46.9483
0.22, 1, -19.453, 44.0438, 24.0046, -203.63, 62.2695, -47.0596
0.224, 1, -19.3826, 44.0489, 23.9568, -203.477, 62.256, -47.171
0.228, 1, -19.3122, 44.0541, 23.909, -203.325, 62.2425, -47.2825
0.232, 1, -19.2416, 44.0592, 23.8611, -203.172, 62.2289, -47.3941
0.236, 1, -19.171, 44.0644, 23.8132, -203.019, 62.2154, -47.5057
0.24, 1, -19.1004, 44.0696, 23.7652, -202.867, 62.2018, -47.6174
0.244, 1, -19.0297, 44.0747, 23.7172, -202.714, 62.1882, -47.7292
0.248, 1, -18.959, 44.0799, 23.6692, -202.561, 62.1747, -47.8411
0.252, 1, -18.8882, 44.085, 23.6212, -202.408, 62.1611, -47.953
0.256, 1, -18.8173, 44.0902, 23.5731, -202.254, 62.1475, -48.065
0.26, 1, -18.7465, 44.0954, 23.525, -202.101, 62.1339, -48.177
0.264, 1, -18.6755, 44.1006, 23.4769, -201.948, 62.1203, -48.2892
0.268, 1, -18.6046, 44.1058, 23.4287, -201.794, 62.1067, -48.4014
0.272, 1, -18.5336, 44.1109, 23.3806, -201.641, 62.0931, -48.5136
0.276, 1, -18.4625, 44.1161, 23.3323, -201.487, 62.0794, -48.6259
0.28, 1, -18.3914, 44.1213, 23.2841, -201.334, 62.0658, -48.7383
0.284, 1, -18.3203, 44.1265, 23.2358, -201.18, 62.0521, -48.8508
0.288, 1, -18.2491, 44.1317, 23.1875, -201.026, 62.0385, -48.9633
0.292, 1, -18.1779, 44.1369, 23.1392, -200.872, 62.0248, -49.0759
0.296, 1, -18.1067, 44.1421, 23.0909, -200.718, 62.0111, -49.1886
0.3, 1, -18.0354, 44.1473, 23.0425, -200.564, 61.9975, -49.3013
0.304, 1, -17.964, 44.1525, 22.9941, -200.409, 61.9838, -49.4141
0.308, 1, -17.8926, 44.1577, 22.9456, -200.255, 61.9701, -49.5269
0.312, 1, -17.8212, 44.1629, 22.8972, -200.101, 61.9564, -49.6399
0.316, 1, -17.7497, 44.1682, 22.8487, -199.946, 61.9426, -49.7529
0.32, 1, -17.6782, 44.1734, 22.8001, -199.791, 61.9289, -49.8659
0.324, 1, -17.6067, 44.1786, 22.7516, -199.637, 61.9152, -49.979
0.328, 1, -17.5351, 44.1838, 22.703, -199.482, 61.9015, -50.0922
0.332, 1, -17.4634, 44.189, 22.6544, -199.327, 61.8877, -50.2055
0.336, 1, -17.3917, 44.1943, 22.6057, -199.172, 61.874, -50.3188
0.34, 1, -17.32, 44.1995, 22.5571, -199.017, 61.8602, -50.4322
0.344, 1, -17.2482, 44.2048, 22.5084, -198.862, 61.8464, -50.5457
0.348, 1, -17.1764, 44.21, 22.4596, -198.706, 61.8326, -50.6592
0.352, 1, -17.1046, 44.2152, 22.4109, -198.551, 61.8189, -50.7728
0.356, 1, -17.0327, 44.2205, 22.3621, -198.396, 61.8051, -50.8865
0.36, 1, -16.9607, 44.2257, 22.3133, -198.24, 61.7913, -51.0002
0.364, 1, -16.8887, 44.231, 22.2644, -198.084, 61.7774, -51.114
0.368, 1, -16.8167, 44.2362, 22.2156, -197.929, 61.7636, -51.2279
0.372, 1, -16.7446, 44.2415, 22.1667, -197.773, 61.7498, -51.3418
0.376, 1, -16.6725, 44.2468, 22.1177, -197.617, 61.736, -51.4559
0.38, 1, -16.6004, 44.252, 22.0688, -197.461, 61.7221, -51.5699
0.384, 1, -16.5282, 44.2573, 22.0198, -197.305, 61.7083, -51.6841
0.388, 1, -16.4559, 44.2626, 21.9707, -197.149, 61.6944, -51.7983
0.392, 1, -16.3837, 44.2679, 21.9217, -196.992, 61.6805, -51.9126
0.396, 1, -16.3113, 44.2731, 21.8726, -196.836, 61.6666, -52.0269
0.4, 1, -16.239, 44.2784, 21.8235, -196.679, 61.6528, -52.1413
0.404, 1, -16.1666, 44.2837, 21.7744, -196.523, 61.6389, -52.2558
0.408, 1, -16.0941, 44.289, 21.7252, -196.366, 61.625, -52.3703
0.412, 1, -16.0216, 44.2943, 21.676, -196.209, 61.6111, -52.485
0.416, 1, -15.9491, 44.2996, 21.6268, -196.052, 61.5971, -52.5997
0.42, 1, -15.8765, 44.3049, 21.5775, -195.896, 61.5832, -52.7144
0.424, 1, -15.8039, 44.3102, 21.5283, -195.739, 61.5693, -52.8292
0.428, 1, -15.7312, 44.3155, 21.4789, -195.581, 61.5553, -52.9441
0.432, 1, -15.6585, 44.3208, 21.4296, -195.424, 61.5414, -53.0591
0.436, 1, -15.5857, 44.3261, 21.3802, -195.267, 61.5274, -53.1741
0.44, 1, -15.513, 44.3314, 21.3308, -195.109, 61.5135, -53.2892
0.444, 1, -15.4401, 44.3367, 21.2814, -194.952, 61.4995, -53.4043
0.448, 1, -15.3672, 44.3421, 21.232, -194.794, 61.4855, -53.5195
0.452, 1, -15.2943, 44.3474, 21.1825, -194.637, 61.4715, -53.6348
0.456, 1, -15.2214, 44.3527, 21.133, -194.479, 61.4575, -53.7502
0.46, 1, -15.1484, 44.358, 21.0834, -194.321, 61.4435, -53.8656
0.464, 1, -15.0753, 44.3634, 21.0339, -194.163, 61.4295, -53.9811
0.468, 1, -15.0022, 44.3687, 20.9843, -194.005, 61.4155, -54.0966
0.472, 1, -14.9291, 44.374, 20.9346, -193.847, 61.4014, -54.2123
0.476, 1, -14.8559, 44.3794, 20.885, -193.689, 61.3874, -54.3279
0.48, 1, -14.7827, 44.3847, 20.8353, -193.53, 61.3733, -54.4437
0.484, 1, -14.7095, 44.3901, 20.7856, -193.372, 61.3593, -54.5595
0.488, 1, -14.6362, 44.3954, 20.7359, -193.214, 61.3452, -54.6754
0.492, 1, -14.5628, 44.4008, 20.6861, -193.055, 61.3311, -54.7913
0.496, 1, -14.4895, 44.4061, 20.6363, -192.896, 61.3171, -54.9074
0.5, 1, -14.416, 44.4115, 20.5865, -192.738, 61.303, -55.0234
0.504, 1, -14.3426, 44.4169, 20.5366, -192.579, 61.2889, -55.1396
0.508, 1, -14.2691, 44.4222, 20.4867, -192.42, 61.2748, -55.2558
0.512, 1, -14.1955, 44.4276, 20.4368, -192.261, 61.2607, -55.3721
0.516, 1, -14.122, 44.433, 20.3869, -192.102, 61.2465, -55.4884
0.52, 1, -14.0483, 44.4383, 20.3369, -191.942, 61.2324, -55.6048
0.524, 1, -13.9747, 44.4437, 20.287, -191.783, 61.2183, -55.7213
0.528, 1, -13.901, 44.4491, 20.2369, -191.624, 61.2041, -55.8378
0.532, 1, -13.8272, 44.4545, 20.1869, -191.464, 61.19, -55.9544
0.536, 1, -13.7534, 44.4599, 20.1368, -191.305, 61.1758, -56.0711
0.54, 1, -13.6796, 44.4652, 20.0867, -191.145, 61.1617, -56.1878
0.544, 1, -13.6058, 44.4706, 20.0366, -190.985, 61.1475, -56.3046
0.548, 1, -13.5318, 44.476, 19.9864, -190.826, 61.1333, -56.4214
0.552, 1, -13.4579, 44.4814, 19.9363, -190.666, 61.1191, -56.5383
0.556, 1, -13.3839, 44.4868, 19.8861, -190.506, 61.1049, -56.6553
0.56, 1, -13.3099, 44.4922, 19.8358, -190.346, 61.0907, -56.7724
0.564, 1, -13.2358, 44.4976, 19.7856, -190.185, 61.0765, -56.8895
0.568, 1, -13.1617, 44.5031, 19.7353, -190.025, 61.0623, -57.0066
0.572, 1, -13.0876, 44.5085, 19.6849, -189.865, 61.048, -57.1239
0.576, 1, -13.0134, 44.5139, 19.6346, -189.704, 61.0338, -57.2411
0.58, 1, -12.9391, 44.5193, 19.5842, -189.544, 61.0196, -57.3585
0.584, 1, -12.8649, 44.5247, 19.5338, -189.383, 61.0053, -57.4759
0.588, 1, -12.7906, 44.5301, 19.4834, -189.223, 60.9911, -57.5934
0.592, 1, -12.7162, 44.5356, 19.433, -189.062, 60.9768, -57.711
0.596, 1, -12.6418, 44.541, 19.3825, -188.901, 60.9625, -57.8286
0.6, 1, -12.5674, 44.5464, 19.332, -188.74, 60.9482, -57.9462
0.604, 1, -12.4929, 44.5519, 19.2814, -188.579, 60.9339, -58.064
0.608, 1, -12.4184, 44.5573, 19.2309, -188.418, 60.9196, -58.1818
0.612, 1, -12.3439, 44.5628, 19.1803, -188.257, 60.9053, -58.2996
0.616, 1, -12.2693, 44.5682, 19.1297, -188.095, 60.891, -58.4175
0.62, 1, -12.1947, 44.5736, 19.079, -187.934, 60.8767, -58.5355
0.624, 1, -12.12, 44.5791, 19.0284, -187.773, 60.8624, -58.6536
0.628, 1, -12.0453, 44.5845, 18.9777, -187.611, 60.848, -58.7717
0.632, 1, -11.9706, 44.59, 18.927, -187.449, 60.8337, -58.8898
0.636, 1, -11.8958, 44.5955, 18.8762, -187.288, 60.8194, -59.0081
0.64, 1, -11.821, 44.6009, 18.8255, -187.126, 60.805, -59.1264
0.644, 1, -11.7462, 44.6064, 18.7747, -186.964, 60.7906, -59.2447
0.648, 1, -11.6713, 44.6119, 18.7238, -186.802, 60.7763, -59.3631
0.652, 1, -11.5964, 44.6173, 18.673, -186.64, 60.7619, -59.4816
0.656, 1, -11.5214, 44.6228, 18.6221, -186.478, 60.7475, -59.6001
0.66, 1, -11.4464, 44.6283, 18.5712, -186.316, 60.7331, -59.7187
0.664, 1, -11.3714, 44.6338, 18.5203, -186.154, 60.7187, -59.8373
0.668, 1, -11.2963, 44.6392, 18.4693, -185.991, 60.7043, -59.956
0.672, 1, -11.2212, 44.6447, 18.4184, -185.829, 60.6899, -60.0748
0.676, 1, -11.1461, 44.6502, 18.3674, -185.666, 60.6755, -60.1936
0.68, 1, -11.0709, 44.6557, 18.3164, -185.504, 60.661, -60.3125
0.684, 1, -10.9957, 44.6612, 18.2653, -185.341, 60.6466, -60.4314
0.688, 1, -10.9205, 44.6667, 18.2142, -185.178, 60.6322, -60.5504
0.692, 1, -10.8452, 44.6722, 18.1631, -185.016, 60.6177, -60.6694
0.696, 1, -10.7699, 44.6777, 18.112, -184.853, 60.6033, -60.7885
0.7, 1, -10.6945, 44.6832, 18.0609, -184.69, 60.5888, -60.9077
0.704, 1, -10.6191, 44.6887, 18.0097, -184.527, 60.5743, -61.0269
0.708, 1, -10.5437, 44.6942, 17.9585, -184.364, 60.5599, -61.1461
0.712, 1, -10.4683, 44.6997, 17.9073, -184.2, 60.5454, -61.2654
0.716, 1, -10.3928, 44.7052, 17.8561, -184.037, 60.5309, -61.3848
0.72, 1, -10.3172, 44.7107, 17.8048, -183.874, 60.5164, -61.5042
0.724, 1, -10.2417, 44.7162, 17.7536, -183.71, 60.5019, -61.6237
0.728, 1, -10.1661, 44.7218, 17.7023, -183.547, 60.4874, -61.7432
0.732, 1, -10.0905, 44.7273, 17.6509, -183.383, 60.4729, -61.8628
0.736, 1, -10.0148, 44.7328, 17.5996, -183.22, 60.4584, -61.9824
0.74, 1, -9.93916, 44.7383, 17.5482, -183.056, 60.4438, -62.1021
0.744, 1, -9.86344, 44.7439, 17.4968, -182.892, 60.4293, -62.2218
0.748, 1, -9.78769, 44.7494, 17.4454, -182.729, 60.4148, -62.3416
0.752, 1, -9.71192, 44.7549, 17.394, -182.565, 60.4002, -62.4614
0.756, 1, -9.63611, 44.7605, 17.3425, -182.401, 60.3857, -62.5813
0.76, 1, -9.56027, 44.766, 17.2911, -182.237, 60.3711, -62.7012
0.764, 1, -9.4844, 44.7715, 17.2396, -182.073, 60.3566, -62.8212
0.768, 1, -9.4085, 44.7771, 17.1881, -181.908, 60.342, -62.9412
0.772, 1, -9.33257, 44.7826, 17.1365, -181.744, 60.3274, -63.0613
0.776, 1, -9.25661, 44.7882, 17.085, -181.58, 60.3129, -63.1814
0.78, 1, -9.18062, 44.7937, 17.0334, -181.416, 60.2983, -63.3016
0.784, 1, -9.1046, 44.7993, 16.9818, -181.251, 60.2837, -63.4218
0.788, 1, -9.02855, 44.8048, 16.9302, -181.087, 60.2691, -63.542
0.792, 1, -8.95247, 44.8104, 16.8786, -180.922, 60.2545, -63.6623
0.796, 1, -8.87637, 44.8159, 16.8269, -180.758, 60.2399, -63.7827
0.8, 1, -8.80023, 44.8215, 16.7752, -180.593, 60.2253, -63.903
0.804, 1, -8.72407, 44.8271, 16.7235, -180.428, 60.2107, -64.0235
0.808, 1, -8.64789, 44.8326, 16.6718, -180.264, 60.196, -64.144
0.812, 1, -8.57167, 44.8382, 16.6201, -180.099, 60.1814, -64.2645
0.816, 1, -8.49543, 44.8438, 16.5683, -179.934, 60.1668, -64.385
0.82, 1, -8.41916, 44.8493, 16.5166, -179.769, 60.1521, -64.5056
0.824, 1, -8.34286, 44.8549, 16.4648, -179.604, 60.1375, -64.6263
0.828, 1, -8.26654, 44.8605, 16.413, -179.439, 60.1228, -64.747
0.832, 1, -8.19019, 44.8661, 16.3612, -179.274, 60.1082, -64.8677
0.836, 1, -8.11382, 44.8716, 16.3093, -179.108, 60.0935, -64.9885
0.84, 1, -8.03742, 44.8772, 16.2575, -178.943, 60.0789, -65.1093
0.844, 1, -7.96099, 44.8828, 16.2056, -178.778, 60.0642, -65.2301
0.848, 1, -7.88454, 44.8884, 16.1537, -178.613, 60.0495, -65.351
0.852, 1, -7.80807, 44.894, 16.1018, -178.447, 60.0349, -65.472
0.856, 1, -7.73157, 44.8995, 16.0499, -178.282, 60.0202, -65.5929
0.86, 1, -7.65505, 44.9051, 15.998, -178.116, 60.0055, -65.7139
0.864, 1, -7.5785, 44.9107, 15.946, -177.951, 59.9908, -65.835
0.868, 1, -7.50193, 44.9163, 15.894, -177.785, 59.9761, -65.956
0.872, 1, -7.42534, 44.9219, 15.8421, -177.619, 59.9614, -66.0772
0.876, 1, -7.34872, 44.9275, 15.7901, -177.454, 59.9467, -66.1983
0.88, 1, -7.27209, 44.9331, 15.738, -177.288, 59.932, -66.3195
0.884, 1, -7.19543, 44.9387, 15.686, -177.122, 59.9173, -66.4407
0.888, 1, -7.11875, 44.9443, 15.634, -176.956, 59.9026, -66.562
0.892, 1, -7.04205, 44.9499, 15.5819, -176.79, 59.8878, -66.6833
0.896, 1, -6.96533, 44.9555, 15.5298, -176.625, 59.8731, -66.8046
0.9, 1, -6.88859, 44.9611, 15.4777, -176.459, 59.8584, -66.926
0.904, 1, -6.81183, 44.9667, 15.4256, -176.293, 59.8437, -67.0474
0.908, 1, -6.73505, 44.9723, 15.3735, -176.126, 59.8289, -67.1688
0.912, 1, -6.65825, 44.9779, 15.3214, -175.96, 59.8142, -67.2903
0.916, 1, -6.58144, 44.9835, 15.2692, -175.794, 59.7994, -67.4117
0.92, 1, -6.5046, 44.9892, 15.2171, -175.628, 59.7847, -67.5333
0.924, 1, -6.42775, 44.9948, 15.1649, -175.462, 59.7699, -67.6548
0.928, 1, -6.35088, 45.0004, 15.1127, -175.296, 59.7552, -67.7764
0.932, 1, -6.27399, 45.006, 15.0605, -175.129, 59.7404, -67.898
0.936, 1, -6.19708, 45.0116, 15.0083, -174.963, 59.7256, -68.0196
0.94, 1, -6.12016, 45.0172, 14.9561, -174.796, 59.7109, -68.1413
0.944, 1, -6.04322, 45.0229, 14.9039, -174.63, 59.6961, -68.2629
0.948, 1, -5.96627, 45.0285, 14.8516, -174.464, 59.6813, -68.3846
0.952, 1, -5.8893, 45.0341, 14.7994, -174.297, 59.6666, -68.5064
0.956, 1, -5.81232, 45.0397, 14.7471, -174.131, 59.6518, -68.6281
0.96, 1, -5.73533, 45.0454, 14.6949, -173.964, 59.637, -68.7499
0.964, 1, -5.65832, 45.051, 14.6426, -173.797, 59.6222, -68.8717
0.968, 1, -5.5813, 45.0566, 14.5903, -173.631, 59.6074, -68.9935
0.972, 1, -5.50426, 45.0622, 14.538, -173.464, 59.5927, -69.1153
0.976, 1, -5.42722, 45.0679, 14.4857, -173.298, 59.5779, -69.2372
0.98, 1, -5.35016, 45.0735, 14.4334, -173.131, 59.5631, -69.3591
0.984, 1, -5.27309, 45.0791, 14.3811, -172.964, 59.5483, -69.4809
0.988, 1, -5.19601, 45.0848, 14.3288, -172.797, 59.5335, -69.6029
0.992, 1, -5.11892, 45.0904, 14.2764, -172.631, 59.5187, -69.7248
0.996, 1, -5.04182, 45.096, 14.2241, -172.464, 59.5039, -69.8467
1, 1, -4.96471, 45.1017, 14.1717, -172.297, 59.4891, -69.9687
1.004, 1, -4.8876, 45.1073, 14.1194, -172.13, 59.4743, -70.0906
1.008, 1, -4.81047, 45.1129, 14.067, -171.963, 59.4595, -70.2126
1.012, 1, -4.73334, 45.1186, 14.0147, -171.797, 59.4447, -70.3346
1.016, 1, -4.6562, 45.1242, 13.9623, -171.63, 59.4299, -70.4566
1.02, 1, -4.57905, 45.1298, 13.9099, -171.463, 59.4151, -70.5786
1.024, 1, -4.5019, 45.1355, 13.8576, -171.296, 59.4003, -70.7006
1.027, 1, -4.42474, 45.1411, 13.8052, -171.129, 59.3854, -70.8227
1.032, 1, -4.34758, 45.1467, 13.7528, -170.962, 59.3706, -70.9447
1.036, 1, -4.27041, 45.1524, 13.7004, -170.795, 59.3558, -71.0667
1.04, 1, -4.19324, 45.158, 13.648, -170.628, 59.341, -71.1888
1.044, 1, -4.11607, 45.1637, 13.5956, -170.461, 59.3262, -71.3109
1.048, 1, -4.03889, 45.1693, 13.5432, -170.294, 59.3114, -71.4329
1.052, 1, -3.96171, 45.1749, 13.4908, -170.128, 59.2966, -71.555
1.055, 1, -3.88452, 45.1806, 13.4384, -169.961, 59.2817, -71.6771
1.06, 1, -3.80734, 45.1862, 13.386, -169.794, 59.2669, -71.7991
1.064, 1, -3.73015, 45.1918, 13.3337, -169.627, 59.2521, -71.9212
1.068, 1, -3.65297, 45.1975, 13.2813, -169.46, 59.2373, -72.0433
1.072, 1, -3.57578, 45.2031, 13.2289, -169.293, 59.2225, -72.1654
1.076, 1, -3.49859, 45.2088, 13.1765, -169.126, 59.2077, -72.2875
1.08, 1, -3.42141, 45.2144, 13.1241, -168.959, 59.1929, -72.4095
1.084, 1, -3.34422, 45.22, 13.0717, -168.792, 59.178, -72.5316
1.088, 1, -3.26704, 45.2257, 13.0193, -168.625, 59.1632, -72.6537
1.091, 1, -3.18986, 45.2313, 12.9669, -168.458, 59.1484, -72.7757
1.096, 1, -3.11269, 45.237, 12.9145, -168.291, 59.1336, -72.8978
1.1, 1, -3.03551, 45.2426, 12.8621, -168.124, 59.1188, -73.0199
1.104, 1, -2.95834, 45.2482, 12.8097, -167.957, 59.104, -73.1419
1.108, 1, -2.88118, 45.2539, 12.7573, -167.79, 59.0892, -73.264
1.112, 1, -2.80401, 45.2595, 12.7049, -167.623, 59.0743, -73.386
1.116, 1, -2.72686, 45.2652, 12.6525, -167.456, 59.0595, -73.508
1.119, 1, -2.6497, 45.2708, 12.6002, -167.29, 59.0447, -73.6301
1.124, 1, -2.57256, 45.2764, 12.5478, -167.123, 59.0299, -73.7521
1.128, 1, -2.49542, 45.2821, 12.4954, -166.956, 59.0151, -73.8741
1.132, 1, -2.41829, 45.2877, 12.4431, -166.789, 59.0003, -73.9961
1.136, 1, -2.34116, 45.2933, 12.3907, -166.622, 58.9855, -74.118
1.14, 1, -2.26404, 45.299, 12.3384, -166.455, 58.9707, -74.24
1.144, 1, -2.18694, 45.3046, 12.286, -166.288, 58.9559, -74.3619
1.147, 1, -2.10984, 45.3102, 12.2337, -166.122, 58.9411, -74.4839
1.152, 1, -2.03275, 45.3159, 12.1814, -165.955, 58.9263, -74.6058
1.156, 1, -1.95568, 45.3215, 12.129, -165.788, 58.9115, -74.7277
1.16, 1, -1.87861, 45.3271, 12.0767, -165.622, 58.8967, -74.8496
1.164, 1, -1.80156, 45.3328, 12.0244, -165.455, 58.8819, -74.9715
1.168, 1, -1.72452, 45.3384, 11.9721, -165.288, 58.8671, -75.0933
1.172, 1, -1.64749, 45.344, 11.9198, -165.122, 58.8523, -75.2152
1.175, 1, -1.57048, 45.3497, 11.8675, -164.955, 58.8376, -75.337
1.18, 1, -1.49347, 45.3553, 11.8152, -164.788, 58.8228, -75.4588
1.184, 1, -1.41649, 45.3609, 11.763, -164.622, 58.808, -75.5806
1.188, 1, -1.33952, 45.3665, 11.7107, -164.455, 58.7932, -75.7023
1.192, 1, -1.26256, 45.3722, 11.6584, -164.289, 58.7784, -75.824
1.196, 1, -1.18562, 45.3778, 11.6062, -164.122, 58.7637, -75.9457
1.2, 1, -1.10869, 45.3834, 11.554, -163.956, 58.7489, -76.0674
1.204, 1, -1.03178, 45.389, 11.5018, -163.79, 58.7341, -76.1891
1.208, 1, -0.954892, 45.3946, 11.4496, -163.623, 58.7194, -76.3107
1.212, 1, -0.878019, 45.4003, 11.3974, -163.457, 58.7046, -76.4323
1.216, 1, -0.801165, 45.4059, 11.3452, -163.291, 58.6899, -76.5538
1.22, 1, -0.72433, 45.4115, 11.293, -163.124, 58.6751, -76.6754
1.224, 1, -0.647514, 45.4171, 11.2409, -162.958, 58.6604, -76.7969
1.228, 1, -0.570719, 45.4227, 11.1887, -162.792, 58.6456, -76.9184
1.232, 1, -0.493945, 45.4283, 11.1366, -162.626, 58.6309, -77.0398
1.236, 1, -0.417192, 45.4339, 11.0845, -162.46, 58.6162, -77.1612
1.24, 1, -0.340462, 45.4395, 11.0324, -162.294, 58.6014, -77.2826
1.244, 1, -0.263754, 45.4452, 10.9803, -162.128, 58.5867, -77.4039
1.248, 1, -0.18707, 45.4508, 10.9283, -161.962, 58.572, -77.5252
1.252, 1, -0.11041, 45.4564, 10.8762, -161.796, 58.5573, -77.6464
1.256, 1, -0.0337739, 45.462, 10.8242, -161.631, 58.5425, -77.7677
1.26, 1, 0.0428365, 45.4676, 10.7722, -161.465, 58.5278, -77.8888
1.264, 1, 0.119421, 45.4732, 10.7202, -161.299, 58.5131, -78.01
1.267, 1, 0.19598, 45.4788, 10.6682, -161.133, 58.4984, -78.1311
1.272, 1, 0.272511, 45.4844, 10.6162, -160.968, 58.4837, -78.2521
1.276, 1, 0.349015, 45.4899, 10.5643, -160.802, 58.4691, -78.3732
1.28, 1, 0.425491, 45.4955, 10.5124, -160.637, 58.4544, -78.4941
1.284, 1, 0.501939, 45.5011, 10.4605, -160.472, 58.4397, -78.615
1.288, 1, 0.578357, 45.5067, 10.4086, -160.306, 58.425, -78.7359
1.292, 1, 0.654746, 45.5123, 10.3567, -160.141, 58.4104, -78.8567
1.295, 1, 0.731105, 45.5179, 10.3049, -159.976, 58.3957, -78.9775
1.3, 1, 0.807432, 45.5235, 10.253, -159.811, 58.3811, -79.0983
1.304, 1, 0.883728, 45.529, 10.2012, -159.646, 58.3664, -79.2189
1.308, 1, 0.959992, 45.5346, 10.1495, -159.481, 58.3518, -79.3396
1.312, 1, 1.03622, 45.5402, 10.0977, -159.316, 58.3371, -79.4601
1.316, 1, 1.11242, 45.5457, 10.046, -159.151, 58.3225, -79.5807
1.32, 1, 1.18859, 45.5513, 9.99425, -158.986, 58.3079, -79.7011
1.324, 1, 1.26472, 45.5569, 9.94256, -158.821, 58.2933, -79.8216
1.328, 1, 1.34081, 45.5624, 9.8909, -158.657, 58.2787, -79.9419
1.332, 1, 1.41688, 45.568, 9.83926, -158.492, 58.2641, -80.0622
1.336, 1, 1.4929, 45.5736, 9.78764, -158.328, 58.2495, -80.1825
1.34, 1, 1.56889, 45.5791, 9.73605, -158.163, 58.2349, -80.3027
1.344, 1, 1.64484, 45.5847, 9.68448, -157.999, 58.2203, -80.4228
1.348, 1, 1.72076, 45.5902, 9.63294, -157.835, 58.2057, -80.5429
1.352, 1, 1.79663, 45.5958, 9.58143, -157.671, 58.1912, -80.6629
1.356, 1, 1.87247, 45.6013, 9.52994, -157.507, 58.1766, -80.7829
1.36, 1, 1.94827, 45.6068, 9.47848, -157.343, 58.1621, -80.9027
1.364, 1, 2.02403, 45.6124, 9.42704, -157.179, 58.1475, -81.0226
1.368, 1, 2.09975, 45.6179, 9.37563, -157.015, 58.133, -81.1423
1.372, 1, 2.17543, 45.6234, 9.32425, -156.851, 58.1185, -81.2621
1.376, 1, 2.25107, 45.629, 9.2729, -156.688, 58.1039, -81.3817
1.38, 1, 2.32666, 45.6345, 9.22157, -156.524, 58.0894, -81.5013
1.384, 1, 2.40222, 45.64, 9.17028, -156.361, 58.0749, -81.6208
1.388, 1, 2.47773, 45.6455, 9.11901, -156.197, 58.0604, -81.7402
1.392, 1, 2.5532, 45.6511, 9.06777, -156.034, 58.0459, -81.8596
1.396, 1, 2.62863, 45.6566, 9.01656, -155.871, 58.0315, -81.9789
1.4, 1, 2.70401, 45.6621, 8.96538, -155.708, 58.017, -82.0981
1.404, 1, 2.77935, 45.6676, 8.91423, -155.545, 58.0025, -82.2173
1.408, 1, 2.85464, 45.6731, 8.86312, -155.382, 57.9881, -82.3364
1.412, 1, 2.92989, 45.6786, 8.81203, -155.219, 57.9736, -82.4554
1.416, 1, 3.00509, 45.6841, 8.76097, -155.057, 57.9592, -82.5743
1.42, 1, 3.08025, 45.6896, 8.70995, -154.894, 57.9448, -82.6932
1.424, 1, 3.15536, 45.6951, 8.65896, -154.731, 57.9303, -82.812
1.428, 1, 3.23042, 45.7006, 8.608, -154.569, 57.9159, -82.9307
1.432, 1, 3.30544, 45.706, 8.55707, -154.407, 57.9015, -83.0494
1.436, 1, 3.3804, 45.7115, 8.50617, -154.245, 57.8871, -83.1679
1.44, 1, 3.45532, 45.717, 8.45531, -154.083, 57.8728, -83.2864
1.444, 1, 3.53019, 45.7225, 8.40448, -153.921, 57.8584, -83.4048
1.448, 1, 3.60501, 45.7279, 8.35368, -153.759, 57.844, -83.5232
1.452, 1, 3.67978, 45.7334, 8.30292, -153.597, 57.8297, -83.6414
1.456, 1, 3.7545, 45.7389, 8.25219, -153.435, 57.8153, -83.7596
1.46, 1, 3.82916, 45.7443, 8.2015, -153.274, 57.801, -83.8777
1.464, 1, 3.90378, 45.7498, 8.15084, -153.112, 57.7867, -83.9957
1.468, 1, 3.97834, 45.7552, 8.10022, -152.951, 57.7724, -84.1137
1.472, 1, 4.05285, 45.7607, 8.04963, -152.79, 57.7581, -84.2315
1.476, 1, 4.12731, 45.7661, 7.99908, -152.629, 57.7438, -84.3493
1.48, 1, 4.20172, 45.7716, 7.94856, -152.468, 57.7295, -84.467
1.484, 1, 4.27607, 45.777, 7.89808, -152.307, 57.7152, -84.5846
1.488, 1, 4.35037, 45.7824, 7.84764, -152.146, 57.701, -84.7021
1.492, 1, 4.42462, 45.7879, 7.79723, -151.986, 57.6867, -84.8195
1.496, 1, 4.49881, 45.7933, 7.74686, -151.825, 57.6725, -84.9369
1.5, 1, 4.57294, 45.7987, 7.69653, -151.665, 57.6582, -85.0541
1.504, 1, 4.64702, 45.8041, 7.64623, -151.505, 57.644, -85.1713
1.508, 1, 4.72104, 45.8095, 7.59598, -151.345, 57.6298, -85.2884
1.512, 1, 4.79501, 45.8149, 7.54576, -151.185, 57.6156, -85.4054
1.516, 1, 4.86892, 45.8203, 7.49558, -151.025, 57.6014, -85.5223
1.52, 1, 4.94277, 45.8257, 7.44544, -150.865, 57.5872, -85.6391
1.524, 1, 5.01656, 45.8311, 7.39534, -150.705, 57.5731, -85.7558
1.528, 1, 5.0903, 45.8365, 7.34528, -150.546, 57.5589, -85.8724
1.532, 1, 5.16398, 45.8419, 7.29526, -150.386, 57.5448, -85.989
1.536, 1, 5.23759, 45.8473, 7.24528, -150.227, 57.5306, -86.1054
1.54, 1, 5.31115, 45.8527, 7.19534, -150.068, 57.5165, -86.2217
1.544, 1, 5.38465, 45.858, 7.14544, -149.909, 57.5024, -86.338
1.548, 1, 5.45809, 45.8634, 7.09558, -149.75, 57.4883, -86.4541
1.552, 1, 5.53147, 45.8688, 7.04577, -149.591, 57.4742, -86.5702
1.556, 1, 5.60479, 45.8741, 6.99599, -149.433, 57.4602, -86.6862
1.56, 1, 5.67804, 45.8795, 6.94626, -149.274, 57.4461, -86.802
1.564, 1, 5.75124, 45.8848, 6.89657, -149.116, 57.432, -86.9178
1.568, 1, 5.82437, 45.8902, 6.84692, -148.958, 57.418, -87.0335
1.572, 1, 5.89744, 45.8955, 6.79731, -148.8, 57.404, -87.149
1.576, 1, 5.97045, 45.9009, 6.74775, -148.642, 57.39, -87.2645
1.58, 1, 6.04339, 45.9062, 6.69823, -148.484, 57.376, -87.3799
1.584, 1, 6.11627, 45.9115, 6.64875, -148.326, 57.362, -87.4951
1.588, 1, 6.18908, 45.9168, 6.59931, -148.169, 57.348, -87.6103
1.592, 1, 6.26184, 45.9222, 6.54992, -148.011, 57.334, -87.7254
1.596, 1, 6.33452, 45.9275, 6.50058, -147.854, 57.3201, -87.8403
1.6, 1, 6.40715, 45.9328, 6.45127, -147.697, 57.3061, -87.9552
1.604, 1, 6.4797, 45.9381, 6.40202, -147.54, 57.2922, -88.0699
1.608, 1, 6.55219, 45.9434, 6.3528, -147.383, 57.2783, -88.1846
1.612, 1, 6.62462, 45.9487, 6.30364, -147.227, 57.2644, -88.2991
1.616, 1, 6.69698, 45.954, 6.25451, -147.07, 57.2505, -88.4136
1.62, 1, 6.76927, 45.9592, 6.20544, -146.914, 57.2366, -88.5279
1.624, 1, 6.84149, 45.9645, 6.1564, -146.758, 57.2228, -88.6421
1.628, 1, 6.91365, 45.9698, 6.10742, -146.602, 57.2089, -88.7563
1.632, 1, 6.98574, 45.9751, 6.05848, -146.446, 57.1951, -88.8703
1.636, 1, 7.05776, 45.9803, 6.00958, -146.29, 57.1813, -88.9842
1.64, 1, 7.12971, 45.9856, 5.96074, -146.134, 57.1675, -89.098
1.644, 1, 7.2016, 45.9909, 5.91193, -145.979, 57.1537, -89.2117
1.648, 1, 7.27342, 45.9961, 5.86318, -145.823, 57.1399, -89.3252
1.652, 1, 7.34516, 46.0013, 5.81447, -145.668, 57.1261, -89.4387
1.656, 1, 7.41684, 46.0066, 5.76581, -145.513, 57.1123, -89.5521
1.66, 1, 7.48845, 46.0118, 5.7172, -145.358, 57.0986, -89.6653
1.664, 1, 7.55999, 46.017, 5.66864, -145.203, 57.0849, -89.7785
1.668, 1, 7.63145, 46.0223, 5.62012, -145.049, 57.0711, -89.8915
1.672, 1, 7.70285, 46.0275, 5.57165, -144.894, 57.0574, -90.0044
1.676, 1, 7.77418, 46.0327, 5.52323, -144.74, 57.0438, -90.1172
1.68, 1, 7.84544, 46.0379, 5.47486, -144.586, 57.0301, -90.2299
1.684, 1, 7.91662, 46.0431, 5.42654, -144.432, 57.0164, -90.3425
1.688, 1, 7.98773, 46.0483, 5.37826, -144.278, 57.0028, -90.4549
1.692, 1, 8.05878, 46.0535, 5.33004, -144.125, 56.9891, -90.5673
1.696, 1, 8.12975, 46.0587, 5.28186, -143.971, 56.9755, -90.6795
1.7, 1, 8.20065, 46.0639, 5.23373, -143.818, 56.9619, -90.7917
1.704, 1, 8.27148, 46.0691, 5.18565, -143.665, 56.9483, -90.9037
1.708, 1, 8.34223, 46.0742, 5.13762, -143.512, 56.9347, -91.0156
1.712, 1, 8.41291, 46.0794, 5.08964, -143.359, 56.9212, -91.1273
1.716, 1, 8.48352, 46.0846, 5.04171, -143.206, 56.9076, -91.239
1.72, 1, 8.55406, 46.0897, 4.99383, -143.053, 56.8941, -91.3505
1.724, 1, 8.62453, 46.0949, 4.946, -142.901, 56.8805, -91.462
1.728, 1, 8.69491, 46.1, 4.89822, -142.749, 56.867, -91.5733
1.732, 1, 8.76523, 46.1051, 4.85049, -142.597, 56.8535, -91.6845
1.736, 1, 8.83547, 46.1103, 4.80281, -142.445, 56.8401, -91.7956
1.74, 1, 8.90564, 46.1154, 4.75518, -142.293, 56.8266, -91.9065
1.744, 1, 8.97573, 46.1205, 4.7076, -142.141, 56.8131, -92.0174
1.748, 1, 9.04575, 46.1256, 4.66007, -141.99, 56.7997, -92.1281
1.752, 1, 9.1157, 46.1308, 4.61259, -141.839, 56.7863, -92.2387
1.756, 1, 9.18557, 46.1359, 4.56516, -141.688, 56.7729, -92.3492
1.76, 1, 9.25537, 46.141, 4.51779, -141.537, 56.7595, -92.4596
1.764, 1, 9.32509, 46.1461, 4.47046, -141.386, 56.7461, -92.5698
1.768, 1, 9.39473, 46.1512, 4.42318, -141.235, 56.7327, -92.68
1.772, 1, 9.4643, 46.1562, 4.37596, -141.085, 56.7194, -92.79
1.776, 1, 9.5338, 46.1613, 4.32879, -140.934, 56.706, -92.8999
1.78, 1, 9.60322, 46.1664, 4.28167, -140.784, 56.6927, -93.0097
1.784, 1, 9.67257, 46.1715, 4.23459, -140.634, 56.6794, -93.1193
1.788, 1, 9.74183, 46.1765, 4.18758, -140.484, 56.6661, -93.2289
1.792, 1, 9.81103, 46.1816, 4.14061, -140.335, 56.6528, -93.3383
1.796, 1, 9.88015, 46.1866, 4.09369, -140.185, 56.6396, -93.4476
1.8, 1, 9.94919, 46.1917, 4.04683, -140.036, 56.6263, -93.5568
1.804, 1, 10.0182, 46.1967, 4.00002, -139.887, 56.6131, -93.6658
1.808, 1, 10.087, 46.2018, 3.95325, -139.738, 56.5999, -93.7748
1.812, 1, 10.1559, 46.2068, 3.90655, -139.589, 56.5866, -93.8836
1.816, 1, 10.2246, 46.2118, 3.85989, -139.44, 56.5735, -93.9923
1.82, 1, 10.2932, 46.2168, 3.81329, -139.292, 56.5603, -94.1008
1.824, 1, 10.3618, 46.2218, 3.76673, -139.143, 56.5471, -94.2093
1.828, 1, 10.4303, 46.2268, 3.72023, -138.995, 56.534, -94.3176
1.832, 1, 10.4988, 46.2318, 3.67379, -138.847, 56.5208, -94.4258
1.836, 1, 10.5671, 46.2368, 3.62739, -138.7, 56.5077, -94.5339
1.84, 1, 10.6354, 46.2418, 3.58105, -138.552, 56.4946, -94.6419
1.844, 1, 10.7036, 46.2468, 3.53476, -138.404, 56.4815, -94.7497
1.848, 1, 10.7717, 46.2518, 3.48852, -138.257, 56.4685, -94.8574
1.852, 1, 10.8397, 46.2568, 3.44234, -138.11, 56.4554, -94.965
1.856, 1, 10.9077, 46.2617, 3.3962, -137.963, 56.4424, -95.0725
1.86, 1, 10.9756, 46.2667, 3.35013, -137.816, 56.4293, -95.1799
1.864, 1, 11.0434, 46.2717, 3.3041, -137.669, 56.4163, -95.2871
1.868, 1, 11.1111, 46.2766, 3.25813, -137.523, 56.4033, -95.3942
1.872, 1, 11.1788, 46.2815, 3.21221, -137.377, 56.3903, -95.5012
1.876, 1, 11.2464, 46.2865, 3.16634, -137.23, 56.3774, -95.608
1.88, 1, 11.3139, 46.2914, 3.12052, -137.084, 56.3644, -95.7148
1.884, 1, 11.3813, 46.2963, 3.07476, -136.939, 56.3515, -95.8214
1.888, 1, 11.4486, 46.3013, 3.02905, -136.793, 56.3386, -95.9279
1.892, 1, 11.5159, 46.3062, 2.9834, -136.648, 56.3256, -96.0342
1.896, 1, 11.5831, 46.3111, 2.9378, -136.502, 56.3127, -96.1404
1.9, 1, 11.6502, 46.316, 2.89225, -136.357, 56.2999, -96.2466
1.904, 1, 11.7172, 46.3209, 2.84676, -136.212, 56.287, -96.3526
1.908, 1, 11.7842, 46.3258, 2.80131, -136.067, 56.2742, -96.4584
1.912, 1, 11.851, 46.3307, 2.75593, -135.923, 56.2613, -96.5642
1.916, 1, 11.9178, 46.3356, 2.71059, -135.778, 56.2485, -96.6698
1.92, 1, 11.9845, 46.3404, 2.66531, -135.634, 56.2357, -96.7753
1.924, 1, 12.0512, 46.3453, 2.62008, -135.49, 56.2229, -96.8806
1.928, 1, 12.1177, 46.3502, 2.57491, -135.346, 56.2101, -96.9859
1.932, 1, 12.1842, 46.355, 2.52979, -135.202, 56.1974, -97.091
1.936, 1, 12.2506, 46.3599, 2.48472, -135.059, 56.1846, -97.196
1.94, 1, 12.3169, 46.3647, 2.43971, -134.915, 56.1719, -97.3008
1.944, 1, 12.3832, 46.3696, 2.39475, -134.772, 56.1592, -97.4056
1.948, 1, 12.4493, 46.3744, 2.34984, -134.629, 56.1465, -97.5102
1.952, 1, 12.5154, 46.3792, 2.30499, -134.486, 56.1338, -97.6147
1.956, 1, 12.5814, 46.384, 2.26019, -134.343, 56.1212, -97.7191
1.96, 1, 12.6473, 46.3889, 2.21545, -134.201, 56.1085, -97.8233
1.964, 1, 12.7132, 46.3937, 2.17076, -134.058, 56.0959, -97.9274
1.968, 1, 12.7789, 46.3985, 2.12612, -133.916, 56.0833, -98.0314
1.972, 1, 12.8446, 46.4033, 2.08154, -133.774, 56.0706, -98.1353
1.976, 1, 12.9102, 46.4081, 2.03701, -133.632, 56.0581, -98.239
1.98, 1, 12.9758, 46.4129, 1.99253, -133.49, 56.0455, -98.3426
1.984, 1, 13.0412, 46.4176, 1.94811, -133.349, 56.0329, -98.4461
1.988, 1, 13.1066, 46.4224, 1.90374, -133.207, 56.0204, -98.5495
1.992, 1, 13.1719, 46.4272, 1.85943, -133.066, 56.0078, -98.6527
1.996, 1, 13.2371, 46.432, 1.81517, -132.925, 55.9953, -98.7558
1.999, 1, 13.3022, 46.4367, 1.77096, -132.784, 55.9828, -98.8588
2.004, 1, 13.3673, 46.4415, 1.72681, -132.644, 55.9704, -98.9617
2.008, 1, 13.4323, 46.4462, 1.68271, -132.503, 55.9579, -99.0644
2.012, 1, 13.4971, 46.451, 1.63867, -132.363, 55.9454, -99.167
2.015, 1, 13.562, 46.4557, 1.59468, -132.223, 55.933, -99.2695
2.019, 1, 13.6267, 46.4604, 1.55074, -132.083, 55.9206, -99.3719
2.024, 1, 13.6914, 46.4652, 1.50686, -131.943, 55.9082, -99.4741
2.028, 1, 13.756, 46.4699, 1.46303, -131.803, 55.8958, -99.5762
2.031, 1, 13.8205, 46.4746, 1.41925, -131.664, 55.8834, -99.6782
2.036, 1, 13.8849, 46.4793, 1.37553, -131.524, 55.871, -99.7801
2.04, 1, 13.9492, 46.484, 1.33186, -131.385, 55.8587, -99.8818
2.044, 1, 14.0135, 46.4887, 1.28824, -131.246, 55.8464, -99.9834
2.048, 1, 14.0777, 46.4934, 1.24468, -131.107, 55.834, -100.085
2.051, 1, 14.1418, 46.4981, 1.20117, -130.969, 55.8217, -100.186
2.055, 1, 14.2058, 46.5028, 1.15771, -130.83, 55.8094, -100.288
2.06, 1, 14.2698, 46.5074, 1.11431, -130.692, 55.7972, -100.389
2.064, 1, 14.3337, 46.5121, 1.07096, -130.554, 55.7849, -100.49
2.068, 1, 14.3975, 46.5168, 1.02766, -130.416, 55.7727, -100.59
2.071, 1, 14.4612, 46.5214, 0.984416, -130.278, 55.7604, -100.691
2.076, 1, 14.5248, 46.5261, 0.941224, -130.141, 55.7482, -100.792
2.08, 1, 14.5884, 46.5307, 0.898086, -130.003, 55.736, -100.892
2.084, 1, 14.6519, 46.5353, 0.855, -129.866, 55.7239, -100.993
2.087, 1, 14.7153, 46.54, 0.811967, -129.729, 55.7117, -101.093
2.092, 1, 14.7786, 46.5446, 0.768987, -129.592, 55.6995, -101.193
2.096, 1, 14.8419, 46.5492, 0.72606, -129.455, 55.6874, -101.293
2.1, 1, 14.905, 46.5538, 0.683185, -129.318, 55.6753, -101.393
2.104, 1, 14.9681, 46.5584, 0.640362, -129.182, 55.6632, -101.493
2.107, 1, 15.0312, 46.5631, 0.597592, -129.046, 55.6511, -101.592
2.111, 1, 15.0941, 46.5676, 0.554875, -128.91, 55.639, -101.692
2.116, 1, 15.157, 46.5722, 0.51221, -128.774, 55.6269, -101.791
2.12, 1, 15.2198, 46.5768, 0.469597, -128.638, 55.6149, -101.891
2.124, 1, 15.2825, 46.5814, 0.427037, -128.502, 55.6028, -101.99
2.127, 1, 15.3451, 46.586, 0.384528, -128.367, 55.5908, -102.089
2.132, 1, 15.4077, 46.5906, 0.342072, -128.232, 55.5788, -102.188
2.136, 1, 15.4702, 46.5951, 0.299668, -128.096, 55.5668, -102.286
2.14, 1, 15.5326, 46.5997, 0.257316, -127.961, 55.5549, -102.385
2.143, 1, 15.5949, 46.6042, 0.215016, -127.827, 55.5429, -102.484
2.148, 1, 15.6572, 46.6088, 0.172768, -127.692, 55.531, -102.582
2.152, 1, 15.7193, 46.6133, 0.130571, -127.558, 55.519, -102.68
2.156, 1, 15.7814, 46.6179, 0.0884266, -127.423, 55.5071, -102.779
2.16, 1, 15.8435, 46.6224, 0.0463337, -127.289, 55.4952, -102.877
2.163, 1, 15.9054, 46.6269, 0.00429238, -127.155, 55.4833, -102.975
2.168, 1, 15.9673, 46.6314, -0.0376973, -127.021, 55.4715, -103.072
2.172, 1, 16.0291, 46.636, -0.0796355, -126.888, 55.4596, -103.17
2.176, 1, 16.0908, 46.6405, -0.121522, -126.754, 55.4478, -103.268
2.179, 1, 16.1525, 46.645, -0.163358, -126.621, 55.4359, -103.365
2.184, 1, 16.214, 46.6495, -0.205142, -126.488, 55.4241, -103.463
2.188, 1, 16.2755, 46.654, -0.246874, -126.355, 55.4123, -103.56
2.192, 1, 16.3369, 46.6585, -0.288556, -126.222, 55.4005, -103.657
2.196, 1, 16.3983, 46.6629, -0.330186, -126.089, 55.3888, -103.754
2.199, 1, 16.4595, 46.6674, -0.371766, -125.957, 55.377, -103.851
2.204, 1, 16.5207, 46.6719, -0.413294, -125.825, 55.3653, -103.947
2.208, 1, 16.5819, 46.6763, -0.454772, -125.693, 55.3535, -104.044
2.212, 1, 16.6429, 46.6808, -0.496198, -125.561, 55.3418, -104.141
2.216, 1, 16.7039, 46.6853, -0.537574, -125.429, 55.3301, -104.237
2.219, 1, 16.7648, 46.6897, -0.578899, -125.297, 55.3184, -104.333
2.224, 1, 16.8256, 46.6942, -0.620174, -125.165, 55.3068, -104.429
2.228, 1, 16.8863, 46.6986, -0.661398, -125.034, 55.2951, -104.525
2.232, 1, 16.947, 46.703, -0.702571, -124.903, 55.2835, -104.621
2.235, 1, 17.0076, 46.7075, -0.743694, -124.772, 55.2718, -104.717
2.24, 1, 17.0681, 46.7119, -0.784767, -124.641, 55.2602, -104.813
2.244, 1, 17.1286, 46.7163, -0.825789, -124.51, 55.2486, -104.908
2.248, 1, 17.189, 46.7207, -0.866761, -124.38, 55.237, -105.004
2.252, 1, 17.2493, 46.7251, -0.907683, -124.249, 55.2255, -105.099
2.255, 1, 17.3095, 46.7295, -0.948555, -124.119, 55.2139, -105.194
2.259, 1, 17.3696, 46.7339, -0.989376, -123.989, 55.2024, -105.29
2.264, 1, 17.4297, 46.7383, -1.03015, -123.859, 55.1908, -105.385
2.268, 1, 17.4897, 46.7427, -1.07087, -123.729, 55.1793, -105.479
2.272, 1, 17.5497, 46.7471, -1.11154, -123.6, 55.1678, -105.574
2.275, 1, 17.6095, 46.7514, -1.15216, -123.47, 55.1563, -105.669
2.28, 1, 17.6693, 46.7558, -1.19274, -123.341, 55.1449, -105.763
2.284, 1, 17.729, 46.7602, -1.23326, -123.212, 55.1334, -105.858
2.288, 1, 17.7887, 46.7645, -1.27373, -123.083, 55.122, -105.952
2.291, 1, 17.8482, 46.7689, -1.31416, -122.954, 55.1105, -106.046
2.296, 1, 17.9077, 46.7732, -1.35453, -122.826, 55.0991, -106.14
2.3, 1, 17.9671, 46.7776, -1.39486, -122.697, 55.0877, -106.234
2.304, 1, 18.0265, 46.7819, -1.43514, -122.569, 55.0763, -106.328
2.308, 1, 18.0858, 46.7862, -1.47536, -122.441, 55.065, -106.422
2.311, 1, 18.145, 46.7905, -1.51554, -122.313, 55.0536, -106.515
2.316, 1, 18.2041, 46.7949, -1.55567, -122.185, 55.0423, -106.609
2.32, 1, 18.2632, 46.7992, -1.59575, -122.057, 55.0309, -106.702
2.324, 1, 18.3222, 46.8035, -1.63578, -121.929, 55.0196, -106.796
2.328, 1, 18.3811, 46.8078, -1.67576, -121.802, 55.0083, -106.889
2.331, 1, 18.4399, 46.8121, -1.7157, -121.675, 54.997, -106.982
2.336, 1, 18.4987, 46.8164, -1.75558, -121.548, 54.9857, -107.075
2.34, 1, 18.5574, 46.8207, -1.79542, -121.421, 54.9745, -107.167
2.344, 1, 18.616, 46.825, -1.83521, -121.294, 54.9632, -107.26
2.347, 1, 18.6746, 46.8292, -1.87495, -121.167, 54.952, -107.353
2.352, 1, 18.7331, 46.8335, -1.91464, -121.041, 54.9408, -107.445
2.356, 1, 18.7915, 46.8378, -1.95428, -120.915, 54.9296, -107.538
2.36, 1, 18.8499, 46.842, -1.99388, -120.788, 54.9184, -107.63
2.364, 1, 18.9081, 46.8463, -2.03343, -120.662, 54.9072, -107.722
2.367, 1, 18.9664, 46.8506, -2.07293, -120.537, 54.896, -107.814
2.372, 1, 19.0245, 46.8548, -2.11238, -120.411, 54.8848, -107.906
2.376, 1, 19.0826, 46.859, -2.15178, -120.285, 54.8737, -107.998
2.38, 1, 19.1406, 46.8633, -2.19114, -120.16, 54.8626, -108.089
2.383, 1, 19.1985, 46.8675, -2.23045, -120.035, 54.8515, -108.181
2.388, 1, 19.2564, 46.8717, -2.26971, -119.91, 54.8404, -108.272
2.392, 1, 19.3141, 46.876, -2.30893, -119.785, 54.8293, -108.364
2.396, 1, 19.3719, 46.8802, -2.3481, -119.66, 54.8182, -108.455
2.4, 1, 19.4295, 46.8844, -2.38722, -119.535, 54.8071, -108.546
2.403, 1, 19.4871, 46.8886, -2.42629, -119.411, 54.7961, -108.637
2.408, 1, 19.5446, 46.8928, -2.46532, -119.286, 54.785, -108.728
2.412, 1, 19.6021, 46.897, -2.5043, -119.162, 54.774, -108.819
2.416, 1, 19.6594, 46.9012, -2.54324, -119.038, 54.763, -108.91
2.42, 1, 19.7168, 46.9054, -2.58213, -118.914, 54.752, -109
2.423, 1, 19.774, 46.9095, -2.62097, -118.79, 54.741, -109.091
2.428, 1, 19.8312, 46.9137, -2.65976, -118.667, 54.7301, -109.181
2.432, 1, 19.8883, 46.9179, -2.69851, -118.543, 54.7191, -109.271
2.436, 1, 19.9453, 46.9221, -2.73722, -118.42, 54.7082, -109.362
2.439, 1, 20.0023, 46.9262, -2.77588, -118.297, 54.6972, -109.452
2.444, 1, 20.0592, 46.9304, -2.81449, -118.174, 54.6863, -109.542
2.448, 1, 20.116, 46.9345, -2.85306, -118.051, 54.6754, -109.631
2.452, 1, 20.1728, 46.9387, -2.89158, -117.928, 54.6645, -109.721
2.456, 1, 20.2295, 46.9428, -2.93005, -117.805, 54.6537, -109.811
2.459, 1, 20.2861, 46.947, -2.96849, -117.683, 54.6428, -109.9
2.464, 1, 20.3427, 46.9511, -3.00687, -117.561, 54.6319, -109.99
2.468, 1, 20.3992, 46.9552, -3.04521, -117.439, 54.6211, -110.079
2.472, 1, 20.4556, 46.9593, -3.08351, -117.316, 54.6103, -110.168
2.476, 1, 20.512, 46.9635, -3.12176, -117.195, 54.5994, -110.257
2.479, 1, 20.5683, 46.9676, -3.15996, -117.073, 54.5886, -110.346
2.484, 1, 20.6245, 46.9717, -3.19812, -116.951, 54.5779, -110.435
2.488, 1, 20.6807, 46.9758, -3.23624, -116.83, 54.5671, -110.524
2.492, 1, 20.7368, 46.9799, -3.27431, -116.709, 54.5563, -110.613
2.495, 1, 20.7929, 46.984, -3.31234, -116.587, 54.5456, -110.701
2.5, 1, 20.8488, 46.9881, -3.35032, -116.466, 54.5348, -110.79
2.504, 1, 20.9047, 46.9921, -3.38826, -116.345, 54.5241, -110.878
2.508, 1, 20.9606, 46.9962, -3.42616, -116.225, 54.5134, -110.967
2.512, 1, 21.0164, 47.0003, -3.46401, -116.104, 54.5027, -111.055
2.515, 1, 21.0721, 47.0044, -3.50181, -115.984, 54.492, -111.143
2.52, 1, 21.1277, 47.0084, -3.53958, -115.863, 54.4813, -111.231
2.524, 1, 21.1833, 47.0125, -3.5773, -115.743, 54.4706, -111.319
2.528, 1, 21.2388, 47.0165, -3.61497, -115.623, 54.46, -111.407
2.531, 1, 21.2943, 47.0206, -3.65261, -115.503, 54.4493, -111.494
2.536, 1, 21.3497, 47.0246, -3.69019, -115.383, 54.4387, -111.582
2.54, 1, 21.405, 47.0287, -3.72774, -115.264, 54.4281, -111.669
2.544, 1, 21.4603, 47.0327, -3.76524, -115.144, 54.4175, -111.757
2.548, 1, 21.5155, 47.0368, -3.8027, -115.025, 54.4069, -111.844
2.551, 1, 21.5706, 47.0408, -3.84012, -114.906, 54.3963, -111.931
2.556, 1, 21.6257, 47.0448, -3.87749, -114.787, 54.3858, -112.018
2.56, 1, 21.6807, 47.0488, -3.91482, -114.668, 54.3752, -112.105
2.564, 1, 21.7357, 47.0528, -3.95211, -114.549, 54.3647, -112.192
2.568, 1, 21.7906, 47.0568, -3.98936, -114.43, 54.3541, -112.279
2.571, 1, 21.8454, 47.0608, -4.02656, -114.312, 54.3436, -112.365
2.576, 1, 21.9002, 47.0648, -4.06372, -114.193, 54.3331, -112.452
2.58, 1, 21.9549, 47.0688, -4.10084, -114.075, 54.3226, -112.538
2.584, 1, 22.0095, 47.0728, -4.13791, -113.957, 54.3121, -112.625
2.587, 1, 22.0641, 47.0768, -4.17495, -113.839, 54.3017, -112.711
2.592, 1, 22.1186, 47.0808, -4.21194, -113.721, 54.2912, -112.797
2.596, 1, 22.173, 47.0848, -4.24889, -113.603, 54.2808, -112.883
2.6, 1, 22.2274, 47.0887, -4.2858, -113.486, 54.2703, -112.969
2.604, 1, 22.2818, 47.0927, -4.32266, -113.368, 54.2599, -113.055
2.607, 1, 22.336, 47.0967, -4.35949, -113.251, 54.2495, -113.141
2.612, 1, 22.3902, 47.1006, -4.39627, -113.134, 54.2391, -113.227
2.616, 1, 22.4444, 47.1046, -4.43301, -113.016, 54.2287, -113.312
2.62, 1, 22.4985, 47.1086, -4.46971, -112.9, 54.2183, -113.398
2.624, 1, 22.5525, 47.1125, -4.50637, -112.783, 54.2079, -113.483
2.627, 1, 22.6064, 47.1164, -4.54299, -112.666, 54.1976, -113.569
2.632, 1, 22.6603, 47.1204, -4.57956, -112.55, 54.1873, -113.654
2.636, 1, 22.7142, 47.1243, -4.6161, -112.433, 54.1769, -113.739
2.64, 1, 22.768, 47.1282, -4.65259, -112.317, 54.1666, -113.824
2.643, 1, 22.8217, 47.1322, -4.68904, -112.201, 54.1563, -113.909
2.648, 1, 22.8753, 47.1361, -4.72546, -112.085, 54.146, -113.994
2.652, 1, 22.9289, 47.14, -4.76183, -111.969, 54.1357, -114.078
2.656, 1, 22.9825, 47.1439, -4.79816, -111.853, 54.1254, -114.163
2.66, 1, 23.036, 47.1478, -4.83445, -111.737, 54.1152, -114.248
2.663, 1, 23.0894, 47.1517, -4.8707, -111.622, 54.1049, -114.332
2.668, 1, 23.1428, 47.1556, -4.90691, -111.506, 54.0947, -114.416
2.672, 1, 23.1961, 47.1595, -4.94308, -111.391, 54.0845, -114.501
2.676, 1, 23.2493, 47.1634, -4.97921, -111.276, 54.0742, -114.585
2.679, 1, 23.3025, 47.1673, -5.0153, -111.161, 54.064, -114.669
2.684, 1, 23.3556, 47.1712, -5.05135, -111.046, 54.0539, -114.753
2.688, 1, 23.4087, 47.175, -5.08736, -110.931, 54.0437, -114.837
2.692, 1, 23.4617, 47.1789, -5.12333, -110.817, 54.0335, -114.921
2.696, 1, 23.5146, 47.1828, -5.15927, -110.702, 54.0233, -115.004
2.699, 1, 23.5675, 47.1866, -5.19516, -110.588, 54.0132, -115.088
2.704, 1, 23.6204, 47.1905, -5.23101, -110.474, 54.0031, -115.171
2.708, 1, 23.6731, 47.1944, -5.26682, -110.36, 53.9929, -115.255
2.712, 1, 23.7259, 47.1982, -5.30259, -110.246, 53.9828, -115.338
2.716, 1, 23.7785, 47.202, -5.33833, -110.132, 53.9727, -115.422
2.719, 1, 23.8311, 47.2059, -5.37402, -110.018, 53.9626, -115.505
2.724, 1, 23.8837, 47.2097, -5.40968, -109.904, 53.9525, -115.588
2.728, 1, 23.9362, 47.2136, -5.44529, -109.791, 53.9425, -115.671
2.732, 1, 23.9886, 47.2174, -5.48087, -109.678, 53.9324, -115.754
2.735, 1, 24.041, 47.2212, -5.51641, -109.564, 53.9224, -115.836
2.74, 1, 24.0933, 47.225, -5.55191, -109.451, 53.9123, -115.919
2.744, 1, 24.1456, 47.2289, -5.58737, -109.338, 53.9023, -116.002
2.748, 1, 24.1978, 47.2327, -5.6228, -109.225, 53.8923, -116.084
2.752, 1, 24.2499, 47.2365, -5.65818, -109.113, 53.8823, -116.167
2.755, 1, 24.302, 47.2403, -5.69353, -109, 53.8723, -116.249
2.76, 1, 24.354, 47.2441, -5.72884, -108.887, 53.8623, -116.331
2.764, 1, 24.406, 47.2479, -5.76411, -108.775, 53.8523, -116.413
2.768, 1, 24.4579, 47.2517, -5.79934, -108.663, 53.8424, -116.496
2.772, 1, 24.5098, 47.2555, -5.83454, -108.551, 53.8324, -116.578
2.775, 1, 24.5616, 47.2592, -5.8697, -108.439, 53.8225, -116.659
2.78, 1, 24.6134, 47.263, -5.90482, -108.327, 53.8125, -116.741
2.784, 1, 24.6651, 47.2668, -5.9399, -108.215, 53.8026, -116.823
2.788, 1, 24.7167, 47.2706, -5.97494, -108.103, 53.7927, -116.905
2.791, 1, 24.7683, 47.2743, -6.00995, -107.992, 53.7828, -116.986
2.796, 1, 24.8199, 47.2781, -6.04492, -107.88, 53.7729, -117.068
2.8, 1, 24.8713, 47.2819, -6.07986, -107.769, 53.763, -117.149
2.804, 1, 24.9228, 47.2856, -6.11475, -107.658, 53.7532, -117.23
2.808, 1, 24.9741, 47.2894, -6.14961, -107.547, 53.7433, -117.312
2.811, 1, 25.0255, 47.2931, -6.18444, -107.436, 53.7335, -117.393
2.816, 1, 25.0767, 47.2969, -6.21922, -107.325, 53.7236, -117.474
2.82, 1, 25.1279, 47.3006, -6.25397, -107.214, 53.7138, -117.555
2.824, 1, 25.1791, 47.3043, -6.28869, -107.104, 53.704, -117.636
2.828, 1, 25.2302, 47.3081, -6.32337, -106.993, 53.6942, -117.716
2.831, 1, 25.2813, 47.3118, -6.35801, -106.883, 53.6844, -117.797
2.836, 1, 25.3323, 47.3155, -6.39261, -106.772, 53.6746, -117.878
2.84, 1, 25.3832, 47.3192, -6.42718, -106.662, 53.6648, -117.958
2.844, 1, 25.4341, 47.323, -6.46171, -106.552, 53.6551, -118.039
2.847, 1, 25.4849, 47.3267, -6.49621, -106.442, 53.6453, -118.119
2.852, 1, 25.5357, 47.3304, -6.53067, -106.333, 53.6356, -118.199
2.856, 1, 25.5865, 47.3341, -6.56509, -106.223, 53.6258, -118.28
2.86, 1, 25.6371, 47.3378, -6.59948, -106.113, 53.6161, -118.36
2.864, 1, 25.6878, 47.3415, -6.63384, -106.004, 53.6064, -118.44
2.867, 1, 25.7383, 47.3452, -6.66816, -105.894, 53.5967, -118.52
2.872, 1, 25.7889, 47.3489, -6.70244, -105.785, 53.587, -118.6
2.876, 1, 25.8393, 47.3526, -6.73669, -105.676, 53.5773, -118.679
2.88, 1, 25.8898, 47.3562, -6.7709, -105.567, 53.5676, -118.759
2.883, 1, 25.9401, 47.3599, -6.80508, -105.458, 53.558, -118.839
2.888, 1, 25.9904, 47.3636, -6.83922, -105.349, 53.5483, -118.918
2.892, 1, 26.0407, 47.3673, -6.87333, -105.241, 53.5387, -118.998
2.896, 1, 26.0909, 47.3709, -6.9074, -105.132, 53.529, -119.077
2.9, 1, 26.1411, 47.3746, -6.94144, -105.024, 53.5194, -119.156
2.903, 1, 26.1912, 47.3783, -6.97545, -104.915, 53.5098, -119.236
2.908, 1, 26.2413, 47.3819, -7.00942, -104.807, 53.5002, -119.315
2.912, 1, 26.2913, 47.3856, -7.04335, -104.699, 53.4906, -119.394
2.916, 1, 26.3412, 47.3892, -7.07725, -104.591, 53.481, -119.473
2.92, 1, 26.3911, 47.3929, -7.11112, -104.483, 53.4714, -119.552
2.923, 1, 26.441, 47.3965, -7.14495, -104.375, 53.4619, -119.631
2.928, 1, 26.4908, 47.4001, -7.17875, -104.268, 53.4523, -119.709
2.932, 1, 26.5406, 47.4038, -7.21251, -104.16, 53.4428, -119.788
2.936, 1, 26.5903, 47.4074, -7.24624, -104.052, 53.4332, -119.867
2.939, 1, 26.6399, 47.411, -7.27994, -103.945, 53.4237, -119.945
2.944, 1, 26.6896, 47.4147, -7.3136, -103.838, 53.4142, -120.023
2.948, 1, 26.7391, 47.4183, -7.34723, -103.731, 53.4047, -120.102
2.952, 1, 26.7886, 47.4219, -7.38083, -103.624, 53.3952, -120.18
2.956, 1, 26.8381, 47.4255, -7.41439, -103.517, 53.3857, -120.258
2.959, 1, 26.8875, 47.4291, -7.44792, -103.41, 53.3762, -120.336
2.964, 1, 26.9369, 47.4327, -7.48142, -103.303, 53.3667, -120.414
2.968, 1, 26.9862, 47.4363, -7.51488, -103.196, 53.3573, -120.492
2.972, 1, 27.0354, 47.4399, -7.54831, -103.09, 53.3478, -120.57
2.976, 1, 27.0847, 47.4435, -7.5817, -102.984, 53.3384, -120.648
2.98, 1, 27.1338, 47.4471, -7.61507, -102.877, 53.329, -120.726
2.984, 1, 27.1829, 47.4507, -7.6484, -102.771, 53.3195, -120.803
2.988, 1, 27.232, 47.4543, -7.68169, -102.665, 53.3101, -120.881
2.992, 1, 27.281, 47.4579, -7.71496, -102.559, 53.3007, -120.958
2.995, 1, 27.33, 47.4614, -7.74819, -102.453, 53.2913, -121.036
3, 1, 27.3789, 47.465, -7.78139, -102.347, 53.2819, -121.113
3.004, 1, 27.4278, 47.4686, -7.81456, -102.242, 53.2725, -121.191
3.008, 1, 27.4766, 47.4721, -7.84769, -102.136, 53.2632, -121.268
3.012, 1, 27.5254, 47.4757, -7.88079, -102.031, 53.2538, -121.345
3.015, 1, 27.5742, 47.4793, -7.91386, -101.925, 53.2445, -121.422
3.02, 1, 27.6229, 47.4828, -7.9469, -101.82, 53.2351, -121.499
3.024, 1, 27.6715, 47.4864, -7.97991, -101.715, 53.2258, -121.576
3.028, 1, 27.7201, 47.4899, -8.01288, -101.61, 53.2165, -121.653
3.031, 1, 27.7686, 47.4935, -8.04582, -101.505, 53.2072, -121.729
3.036, 1, 27.8171, 47.497, -8.07873, -101.4, 53.1978, -121.806
3.04, 1, 27.8656, 47.5005, -8.11161, -101.295, 53.1886, -121.883
3.044, 1, 27.914, 47.5041, -8.14446, -101.19, 53.1793, -121.959
3.048, 1, 27.9624, 47.5076, -8.17727, -101.086, 53.17, -122.036
3.051, 1, 28.0107, 47.5111, -8.21006, -100.981, 53.1607, -122.112
3.056, 1, 28.0589, 47.5147, -8.24281, -100.877, 53.1515, -122.188
3.06, 1, 28.1072, 47.5182, -8.27553, -100.773, 53.1422, -122.264
3.064, 1, 28.1553, 47.5217, -8.30822, -100.669, 53.133, -122.341
3.068, 1, 28.2035, 47.5252, -8.34088, -100.565, 53.1237, -122.417
3.071, 1, 28.2515, 47.5287, -8.3735, -100.461, 53.1145, -122.493
3.076, 1, 28.2996, 47.5322, -8.4061, -100.357, 53.1053, -122.569
3.08, 1, 28.3476, 47.5357, -8.43867, -100.253, 53.0961, -122.645
3.084, 1, 28.3955, 47.5393, -8.4712, -100.149, 53.0869, -122.72
3.087, 1, 28.4434, 47.5427, -8.5037, -100.046, 53.0777, -122.796
3.092, 1, 28.4913, 47.5462, -8.53617, -99.9422, 53.0685, -122.872
3.096, 1, 28.5391, 47.5497, -8.56862, -99.8389, 53.0593, -122.947
3.1, 1, 28.5868, 47.5532, -8.60103, -99.7356, 53.0502, -123.023
3.104, 1, 28.6346, 47.5567, -8.63341, -99.6324, 53.041, -123.098
3.107, 1, 28.6822, 47.5602, -8.66576, -99.5293, 53.0319, -123.174
3.112, 1, 28.7299, 47.5637, -8.69808, -99.4264, 53.0227, -123.249
3.116, 1, 28.7775, 47.5671, -8.73037, -99.3235, 53.0136, -123.324
3.12, 1, 28.825, 47.5706, -8.76262, -99.2207, 53.0045, -123.399
3.124, 1, 28.8725, 47.5741, -8.79485, -99.118, 52.9954, -123.474
3.128, 1, 28.9199, 47.5776, -8.82705, -99.0154, 52.9863, -123.549
3.132, 1, 28.9673, 47.581, -8.85922, -98.9129, 52.9772, -123.624
3.136, 1, 29.0147, 47.5845, -8.89136, -98.8105, 52.9681, -123.699
3.14, 1, 29.062, 47.5879, -8.92347, -98.7082, 52.959, -123.774
3.143, 1, 29.1093, 47.5914, -8.95555, -98.6059, 52.9499, -123.849
3.148, 1, 29.1565, 47.5948, -8.9876, -98.5038, 52.9409, -123.923
3.152, 1, 29.2037, 47.5983, -9.01962, -98.4018, 52.9318, -123.998
3.156, 1, 29.2509, 47.6017, -9.05161, -98.2999, 52.9228, -124.073
3.16, 1, 29.298, 47.6052, -9.08357, -98.198, 52.9137, -124.147
3.163, 1, 29.345, 47.6086, -9.1155, -98.0963, 52.9047, -124.221
3.168, 1, 29.392, 47.612, -9.1474, -97.9946, 52.8957, -124.296
3.172, 1, 29.439, 47.6155, -9.17927, -97.8931, 52.8867, -124.37
3.176, 1, 29.4859, 47.6189, -9.21111, -97.7916, 52.8777, -124.444
3.179, 1, 29.5328, 47.6223, -9.24293, -97.6902, 52.8687, -124.518
3.184, 1, 29.5797, 47.6257, -9.27471, -97.589, 52.8597, -124.592
3.188, 1, 29.6265, 47.6291, -9.30647, -97.4878, 52.8507, -124.666
3.192, 1, 29.6732, 47.6326, -9.33819, -97.3867, 52.8417, -124.74
3.196, 1, 29.7199, 47.636, -9.36989, -97.2857, 52.8328, -124.814
3.199, 1, 29.7666, 47.6394, -9.40156, -97.1848, 52.8238, -124.888
3.204, 1, 29.8132, 47.6428, -9.4332, -97.0839, 52.8149, -124.962
3.208, 1, 29.8598, 47.6462, -9.46482, -96.9832, 52.8059, -125.035
3.212, 1, 29.9064, 47.6496, -9.4964, -96.8826, 52.797, -125.109
3.216, 1, 29.9529, 47.653, -9.52796, -96.782, 52.7881, -125.182
3.22, 1, 29.9993, 47.6564, -9.55948, -96.6816, 52.7792, -125.256
3.224, 1, 30.0458, 47.6598, -9.59098, -96.5812, 52.7703, -125.329
3.228, 1, 30.0922, 47.6632, -9.62245, -96.4809, 52.7614, -125.403
3.232, 1, 30.1385, 47.6665, -9.6539, -96.3807, 52.7525, -125.476
3.235, 1, 30.1848, 47.6699, -9.68531, -96.2806, 52.7436, -125.549
3.24, 1, 30.231, 47.6733, -9.7167, -96.1806, 52.7347, -125.622
3.244, 1, 30.2773, 47.6767, -9.74806, -96.0807, 52.7258, -125.695
3.248, 1, 30.3234, 47.68, -9.77939, -95.9809, 52.717, -125.768
3.252, 1, 30.3696, 47.6834, -9.81069, -95.8811, 52.7081, -125.841
3.255, 1, 30.4157, 47.6868, -9.84197, -95.7815, 52.6993, -125.914
3.26, 1, 30.4617, 47.6901, -9.87322, -95.6819, 52.6904, -125.987
3.264, 1, 30.5077, 47.6935, -9.90444, -95.5824, 52.6816, -126.059
3.268, 1, 30.5537, 47.6969, -9.93563, -95.483, 52.6728, -126.132
3.272, 1, 30.5996, 47.7002, -9.9668, -95.3837, 52.664, -126.205
3.276, 1, 30.6455, 47.7036, -9.99794, -95.2845, 52.6552, -126.277
3.28, 1, 30.6914, 47.7069, -10.029, -95.1853, 52.6464, -126.35
3.284, 1, 30.7372, 47.7103, -10.0601, -95.0863, 52.6376, -126.422
3.288, 1, 30.7829, 47.7136, -10.0912, -94.9873, 52.6288, -126.495
3.291, 1, 30.8287, 47.7169, -10.1222, -94.8885, 52.62, -126.567
3.296, 1, 30.8744, 47.7203, -10.1532, -94.7897, 52.6113, -126.639
3.3, 1, 30.92, 47.7236, -10.1842, -94.691, 52.6025, -126.711
3.304, 1, 30.9656, 47.727, -10.2152, -94.5923, 52.5938, -126.783
3.308, 1, 31.0112, 47.7303, -10.2461, -94.4938, 52.585, -126.855
3.312, 1, 31.0567, 47.7336, -10.277, -94.3954, 52.5763, -126.927
3.316, 1, 31.1022, 47.7369, -10.3078, -94.297, 52.5676, -126.999
3.32, 1, 31.1477, 47.7402, -10.3387, -94.1987, 52.5588, -127.071
3.324, 1, 31.1931, 47.7436, -10.3695, -94.1005, 52.5501, -127.143
3.328, 1, 31.2385, 47.7469, -10.4003, -94.0024, 52.5414, -127.215
3.332, 1, 31.2838, 47.7502, -10.4311, -93.9044, 52.5327, -127.286
3.336, 1, 31.3291, 47.7535, -10.4618, -93.8064, 52.524, -127.358
3.34, 1, 31.3744, 47.7568, -10.4925, -93.7086, 52.5153, -127.43
3.344, 1, 31.4196, 47.7601, -10.5232, -93.6108, 52.5067, -127.501
3.347, 1, 31.4648, 47.7634, -10.5539, -93.5131, 52.498, -127.572
3.352, 1, 31.5099, 47.7667, -10.5845, -93.4155, 52.4893, -127.644
3.356, 1, 31.555, 47.77, -10.6151, -93.318, 52.4807, -127.715
3.36, 1, 31.6001, 47.7733, -10.6457, -93.2205, 52.472, -127.786
3.364, 1, 31.6451, 47.7766, -10.6762, -93.1232, 52.4634, -127.858
3.368, 1, 31.6901, 47.7799, -10.7068, -93.0259, 52.4548, -127.929
3.372, 1, 31.7351, 47.7831, -10.7373, -92.9287, 52.4461, -128
3.376, 1, 31.78, 47.7864, -10.7677, -92.8316, 52.4375, -128.071
3.38, 1, 31.8249, 47.7897, -10.7982, -92.7345, 52.4289, -128.142
3.383, 1, 31.8697, 47.793, -10.8286, -92.6376, 52.4203, -128.213
3.388, 1, 31.9145, 47.7962, -10.859, -92.5407, 52.4117, -128.283
3.392, 1, 31.9593, 47.7995, -10.8894, -92.4439, 52.4031, -128.354
3.396, 1, 32.004, 47.8028, -10.9198, -92.3472, 52.3945, -128.425
3.4, 1, 32.0487, 47.806, -10.9501, -92.2505, 52.386, -128.496
3.403, 1, 32.0934, 47.8093, -10.9804, -92.154, 52.3774, -128.566
3.408, 1, 32.138, 47.8126, -11.0107, -92.0575, 52.3688, -128.637
3.412, 1, 32.1826, 47.8158, -11.0409, -91.9611, 52.3603, -128.707
3.416, 1, 32.2271, 47.8191, -11.0711, -91.8648, 52.3517, -128.778
3.42, 1, 32.2716, 47.8223, -11.1013, -91.7686, 52.3432, -128.848
3.424, 1, 32.3161, 47.8256, -11.1315, -91.6724, 52.3347, -128.918
3.428, 1, 32.3605, 47.8288, -11.1617, -91.5763, 52.3261, -128.989
3.432, 1, 32.4049, 47.8321, -11.1918, -91.4803, 52.3176, -129.059
3.436, 1, 32.4493, 47.8353, -11.2219, -91.3844, 52.3091, -129.129
3.439, 1, 32.4936, 47.8385, -11.252, -91.2886, 52.3006, -129.199
3.444, 1, 32.5379, 47.8418, -11.282, -91.1928, 52.2921, -129.269
3.448, 1, 32.5822, 47.845, -11.3121, -91.0971, 52.2836, -129.339
3.452, 1, 32.6264, 47.8482, -11.3421, -91.0015, 52.2751, -129.409
3.456, 1, 32.6706, 47.8515, -11.3721, -90.906, 52.2666, -129.479
3.46, 1, 32.7147, 47.8547, -11.402, -90.8106, 52.2582, -129.548
3.464, 1, 32.7588, 47.8579, -11.4319, -90.7152, 52.2497, -129.618
3.468, 1, 32.8029, 47.8611, -11.4618, -90.6199, 52.2413, -129.688
3.472, 1, 32.8469, 47.8643, -11.4917, -90.5247, 52.2328, -129.758
3.476, 1, 32.8909, 47.8676, -11.5216, -90.4295, 52.2244, -129.827
3.48, 1, 32.9349, 47.8708, -11.5514, -90.3344, 52.2159, -129.897
3.484, 1, 32.9788, 47.874, -11.5812, -90.2395, 52.2075, -129.966
3.488, 1, 33.0227, 47.8772, -11.611, -90.1445, 52.1991, -130.035
3.492, 1, 33.0666, 47.8804, -11.6408, -90.0497, 52.1907, -130.105
3.495, 1, 33.1104, 47.8836, -11.6705, -89.9549, 52.1823, -130.174
3.5, 1, 33.1542, 47.8868, -11.7002, -89.8602, 52.1738, -130.243
3.504, 1, 33.198, 47.89, -11.7299, -89.7656, 52.1655, -130.312
3.508, 1, 33.2417, 47.8932, -11.7596, -89.6711, 52.1571, -130.382
3.512, 1, 33.2854, 47.8964, -11.7892, -89.5766, 52.1487, -130.451
3.516, 1, 33.329, 47.8996, -11.8189, -89.4823, 52.1403, -130.52
3.52, 1, 33.3727, 47.9027, -11.8485, -89.3879, 52.1319, -130.589
3.524, 1, 33.4162, 47.9059, -11.878, -89.2937, 52.1236, -130.658
3.528, 1, 33.4598, 47.9091, -11.9076, -89.1995, 52.1152, -130.726
3.531, 1, 33.5033, 47.9123, -11.9371, -89.1055, 52.1069, -130.795
3.536, 1, 33.5468, 47.9155, -11.9666, -89.0114, 52.0985, -130.864
3.54, 1, 33.5902, 47.9186, -11.9961, -88.9175, 52.0902, -130.933
3.544, 1, 33.6336, 47.9218, -12.0256, -88.8236, 52.0819, -131.001
3.548, 1, 33.677, 47.925, -12.055, -88.7298, 52.0735, -131.07
3.552, 1, 33.7204, 47.9281, -12.0844, -88.6361, 52.0652, -131.138
3.556, 1, 33.7637, 47.9313, -12.1138, -88.5425, 52.0569, -131.207
3.56, 1, 33.8069, 47.9345, -12.1432, -88.4489, 52.0486, -131.275
3.564, 1, 33.8502, 47.9376, -12.1725, -88.3554, 52.0403, -131.344
3.568, 1, 33.8934, 47.9408, -12.2018, -88.262, 52.032, -131.412
3.572, 1, 33.9366, 47.9439, -12.2311, -88.1686, 52.0237, -131.48
3.576, 1, 33.9797, 47.9471, -12.2604, -88.0753, 52.0155, -131.548
3.58, 1, 34.0228, 47.9502, -12.2897, -87.9821, 52.0072, -131.617
3.584, 1, 34.0659, 47.9534, -12.3189, -87.889, 51.9989, -131.685
3.587, 1, 34.1089, 47.9565, -12.3481, -87.7959, 51.9907, -131.753
3.592, 1, 34.152, 47.9596, -12.3773, -87.7029, 51.9824, -131.821
3.596, 1, 34.1949, 47.9628, -12.4064, -87.61, 51.9742, -131.889
3.6, 1, 34.2379, 47.9659, -12.4356, -87.5172, 51.9659, -131.956
3.604, 1, 34.2808, 47.9691, -12.4647, -87.4244, 51.9577, -132.024
3.608, 1, 34.3237, 47.9722, -12.4938, -87.3317, 51.9495, -132.092
3.612, 1, 34.3665, 47.9753, -12.5229, -87.239, 51.9412, -132.16
3.616, 1, 34.4093, 47.9784, -12.5519, -87.1465, 51.933, -132.228
3.62, 1, 34.4521, 47.9816, -12.5809, -87.054, 51.9248, -132.295
3.624, 1, 34.4949, 47.9847, -12.61, -86.9615, 51.9166, -132.363
3.628, 1, 34.5376, 47.9878, -12.6389, -86.8692, 51.9084, -132.43
3.632, 1, 34.5803, 47.9909, -12.6679, -86.7769, 51.9002, -132.498
3.636, 1, 34.6229, 47.994, -12.6968, -86.6847, 51.8921, -132.565
3.64, 1, 34.6655, 47.9972, -12.7258, -86.5925, 51.8839, -132.633
3.644, 1, 34.7081, 48.0003, -12.7547, -86.5004, 51.8757, -132.7
3.648, 1, 34.7507, 48.0034, -12.7835, -86.4084, 51.8675, -132.767
3.652, 1, 34.7932, 48.0065, -12.8124, -86.3165, 51.8594, -132.834
3.656, 1, 34.8357, 48.0096, -12.8412, -86.2246, 51.8512, -132.902
3.66, 1, 34.8782, 48.0127, -12.87, -86.1328, 51.8431, -132.969
3.664, 1, 34.9206, 48.0158, -12.8988, -86.0411, 51.8349, -133.036
3.668, 1, 34.963, 48.0189, -12.9276, -85.9494, 51.8268, -133.103
3.672, 1, 35.0053, 48.022, -12.9563, -85.8578, 51.8187, -133.17
3.676, 1, 35.0475, 48.0251, -12.9851, -85.7663, 51.8106, -133.237
3.679, 1, 35.0896, 48.0282, -13.0138, -85.6748, 51.8024, -133.304
3.684, 1, 35.1314, 48.0313, -13.0425, -85.5834, 51.7943, -133.37
3.688, 1, 35.1729, 48.0345, -13.0712, -85.4921, 51.7863, -133.437
3.692, 1, 35.2141, 48.0377, -13.0999, -85.401, 51.7782, -133.504
3.696, 1, 35.2549, 48.0409, -13.1286, -85.31, 51.7701, -133.57
3.7, 1, 35.2953, 48.0442, -13.1572, -85.2193, 51.7621, -133.637
3.704, 1, 35.3351, 48.0475, -13.1858, -85.1289, 51.7542, -133.703
3.708, 1, 35.3741, 48.051, -13.2144, -85.039, 51.7462, -133.768
3.712, 1, 35.4121, 48.0546, -13.2429, -84.9497, 51.7384, -133.834
3.716, 1, 35.449, 48.0583, -13.2713, -84.8613, 51.7307, -133.898
3.72, 1, 35.4846, 48.0622, -13.2994, -84.774, 51.7231, -133.962
3.724, 1, 35.5187, 48.0662, -13.3272, -84.6884, 51.7157, -134.025
3.728, 1, 35.5514, 48.0703, -13.3545, -84.6047, 51.7085, -134.086
3.732, 1, 35.5829, 48.0742, -13.381, -84.5236, 51.7015, -134.145
3.735, 1, 35.6131, 48.0781, -13.4065, -84.4456, 51.6948, -134.202
3.74, 1, 35.6421, 48.0818, -13.4308, -84.3711, 51.6884, -134.256
3.744, 1, 35.6698, 48.0852, -13.4538, -84.3006, 51.6823, -134.308
3.748, 1, 35.6962, 48.0883, -13.4753, -84.2346, 51.6766, -134.356
3.752, 1, 35.7211, 48.0911, -13.4951, -84.1735, 51.6713, -134.401
3.756, 1, 35.7446, 48.0935, -13.5131, -84.1174, 51.6664, -134.442
3.76, 1, 35.7668, 48.0955, -13.5293, -84.0667, 51.6619, -134.479
3.764, 1, 35.7879, 48.097, -13.5435, -84.0214, 51.6579, -134.512
3.768, 1, 35.8078, 48.098, -13.5557, -83.9815, 51.6543, -134.541
3.772, 1, 35.8267, 48.0986, -13.5661, -83.947, 51.6511, -134.566
3.776, 1, 35.8444, 48.0988, -13.5746, -83.9174, 51.6484, -134.588
3.78, 1, 35.8607, 48.0987, -13.5816, -83.8926, 51.646, -134.606
3.784, 1, 35.8755, 48.0983, -13.5871, -83.8719, 51.644, -134.621
3.788, 1, 35.8886, 48.0978, -13.5915, -83.8551, 51.6423, -134.634
3.792, 2, 35.9001, 48.0972, -13.5948, -83.8416, 51.6409, -134.644
3.796, 2, 35.9101, 48.0965, -13.5973, -83.8309, 51.6398, -134.652
3.8, 2, 35.9189, 48.0958, -13.5991, -83.8226, 51.6389, -134.658
3.804, 2, 35.9266, 48.0951, -13.6003, -83.8164, 51.6381, -134.662
3.808, 2, 35.9334, 48.0945, -13.6011, -83.8117, 51.6376, -134.666
3.812, 2, 35.9392, 48.0939, -13.6016, -83.8084, 51.6372, -134.668
3.816, 2, 35.9441, 48.0933, -13.6018, -83.806, 51.6369, -134.67
3.82, 2, 35.9481, 48.0929, -13.6019, -83.8043, 51.6366, -134.671
3.824, 2, 35.9512, 48.0926, -13.602, -83.8032, 51.6365, -134.672
3.828, 2, 35.9534, 48.0923, -13.602, -83.8024, 51.6363, -134.673
3.832, 2, 35.955, 48.0921, -13.602, -83.8019, 51.6363, -134.673
3.836, 2, 35.956, 48.092, -13.602, -83.8016, 51.6362, -134.673
3.84, 2, 35.9567, 48.092, -13.602, -83.8013, 51.6362, -134.673
3.844, 2, 35.9572, 48.0919, -13.602, -83.8011, 51.6362, -134.673
3.848, 2, 35.9576, 48.0919, -13.602, -83.801, 51.6361, -134.674
3.852, 2, 35.9578, 48.0918, -13.602, -83.801, 51.6361, -134.674
3.856, 2, 35.9579, 48.0918, -13.602, -83.8009, 51.6361, -134.674
3.86, 2, 35.958, 48.0918, -13.602, -83.8009, 51.6361, -134.674
3.864, 2, 35.9581, 48.0918, -13.602, -83.8008, 51.6361, -134.674
3.868, 2, 35.9582, 48.0918, -13.602, -83.8008, 51.6361, -134.674
3.872, 2, 35.9582, 48.0918, -13.602, -83.8008, 51.6361, -134.674
3.876, 2, 35.9582, 48.0918, -13.602, -83.8008, 51.6361, -134.674
3.88, 2, 35.9582, 48.0918, -13.602, -83.8008, 51.6361, -134.674
3.884, 2, 35.9582, 48.0918, -13.602, -83.8008, 51.6361, -134.674
3.888, 2, 35.9582, 48.0918, -13.602, -83.8008, 51.6361, -134.674
3.892, 2, 35.9582, 48.0918, -13.602, -83.8008, 51.6361, -134.674
3.896, 2, 35.9583, 48.0918, -13.602, -83.8008, 51.6361, -134.674
3.9, 2, 35.9583, 48.0918, -13.602, -83.8008, 51.6361, -134.674
3.904, 2, 35.9583, 48.0918, -13.602, -83.8008, 51.6361, -134.674
3.908, 2, 35.9583, 48.0918, -13.602, -83.8008, 51.6361, -134.674
3.912, 2, 35.9583, 48.0918, -13.602, -83.8008, 51.6361, -134.674
3.916, 2, 35.9583, 48.0918, -13.602, -83.8008, 51.6361, -134.674
3.92, 2, 35.9583, 48.0918, -13.602, -83.8008, 51.6361, -134.674
3.924, 2, 35.9583, 48.0918, -13.602, -83.8008, 51.6361, -134.674
3.928, 2, 35.9583, 48.0918, -13.602, -83.8008, 51.6361, -134.674
3.932, 2, 35.9583, 48.0918, -13.602, -83.8008, 51.6361, -134.674
3.936, 2, 35.9583, 48.0918, -13.602, -83.8008, 51.6361, -134.674
3.94, 2, 35.9583, 48.0918, -13.602, -83.8008, 51.6361, -134.674
3.944, 2, 35.9583, 48.0918, -13.602, -83.8008, 51.6361, -134.674
3.948, 2, 35.9583, 48.0918, -13.602, -83.8008, 51.6361, -134.674
3.952, 2, 35.9583, 48.0918, -13.602, -83.8008, 51.6361, -134.674
3.956, 2, 35.9583, 48.0918, -13.602, -83.8008, 51.6361, -134.674
3.96, 2, 35.9583, 48.0918, -13.602, -83.8008, 51.6361, -134.674
3.964, 2, 35.9583, 48.0918, -13.602, -83.8008, 51.6361, -134.674
3.968, 2, 35.9583, 48.0918, -13.602, -83.8008, 51.6361, -134.674
3.972, 2, 35.9583, 48.0918, -13.602, -83.8008, 51.6361, -134.674
3.976, 2, 35.9583, 48.0918, -13.602, -83.8008, 51.6361, -134.674
3.98, 2, 35.9583, 48.0918, -13.602, -83.8008, 51.6361, -134.674
3.984, 2, 35.9583, 48.0918, -13.602, -83.8008, 51.6361, -134.674
3.988, 2, 35.9583, 48.0918, -13.602, -83.8008, 51.6361, -134.674
3.992, 2, 35.9583, 48.0918, -13.602, -83.8008, 51.6361, -134.674
3.996, 2, 35.9583, 48.0918, -13.602, -83.8008, 51.6361, -134.674
3.999, 2, 35.9583, 48.0918, -13.602, -83.8008, 51.6361, -134.674
4.004, 2, 35.9583, 48.0918, -13.602, -83.8008, 51.6361, -134.674
4.008, 2, 35.9583, 48.0918, -13.602, -83.8008, 51.6361, -134.674
4.012, 2, 35.9583, 48.0918, -13.602, -83.8008, 51.6361, -134.674
4.016, 2, 35.9583, 48.0918, -13.602, -83.8008, 51.6361, -134.674
4.02, 2, 35.9583, 48.0918, -13.602, -83.8008, 51.6361, -134.674
4.024, 2, 35.9583, 48.0918, -13.602, -83.8008, 51.6361, -134.674
4.028, 2, 35.9583, 48.0918, -13.602, -83.8008, 51.6361, -134.674
4.032, 2, 35.9583, 48.0918, -13.602, -83.8008, 51.6361, -134.674
4.036, 2, 35.9583, 48.0918, -13.602, -83.8008, 51.6361, -134.674
4.04, 2, 35.9583, 48.0918, -13.602, -83.8008, 51.6361, -134.674
4.044, 2, 35.9583, 48.0918, -13.602, -83.8008, 51.6361, -134.674
4.048, 2, 35.9583, 48.0918, -13.602, -83.8008, 51.6361, -134.674
4.052, 2, 35.9583, 48.0918, -13.602, -83.8008, 51.6361, -134.674
4.056, 2, 35.9583, 48.0918, -13.602, -83.8008, 51.6361, -134.674
4.06, 2, 35.9583, 48.0918, -13.602, -83.8008, 51.6361, -134.674
4.064, 2, 35.9583, 48.0918, -13.602, -83.8008, 51.6361, -134.674
4.068, 2, 35.9583, 48.0918, -13.602, -83.8008, 51.6361, -134.674
4.072, 2, 35.9583, 48.0918, -13.602, -83.8008, 51.6361, -134.674
4.076, 2, 35.9583, 48.0918, -13.602, -83.8008, 51.6361, -134.674
4.08, 2, 35.9583, 48.0918, -13.602, -83.8008, 51.6361, -134.674
4.084, 2, 35.9583, 48.0918, -13.602, -83.8008, 51.6361, -134.674
4.088, 2, 35.9583, 48.0918, -13.602, -83.8008, 51.6361, -134.674
4.092, 2, 35.9583, 48.0918, -13.602, -83.8008, 51.6361, -134.674
4.096, 2, 35.9583, 48.0918, -13.602, -83.8008, 51.6361, -134.674
4.1, 2, 35.9583, 48.0918, -13.602, -83.8008, 51.6361, -134.674
4.104, 2, 35.9583, 48.0918, -13.602, -83.8008, 51.6361, -134.674
4.108, 2, 35.9583, 48.0918, -13.602, -83.8008, 51.6361, -134.674
4.112, 2, 35.9583, 48.0918, -13.602, -83.8008, 51.6361, -134.674
4.116, 2, 35.9583, 48.0918, -13.602, -83.8008, 51.6361, -134.674
4.12, 2, 35.9583, 48.0918, -13.602, -83.8008, 51.6361, -134.674
4.124, 2, 35.9583, 48.0918, -13.602, -83.8008, 51.6361, -134.674
4.128, 2, 35.9583, 48.0918, -13.602, -83.8008, 51.6361, -134.674
4.132, 2, 35.9583, 48.0918, -13.602, -83.8008, 51.6361, -134.674
4.136, 2, 35.9583, 48.0918, -13.602, -83.8008, 51.6361, -134.674
4.14, 2, 35.9583, 48.0918, -13.602, -83.8008, 51.6361, -134.674
4.144, 2, 35.9583, 48.0918, -13.602, -83.8008, 51.6361, -134.674
4.148, 2, 35.9583, 48.0918, -13.602, -83.8008, 51.6361, -134.674
4.152, 2, 35.9583, 48.0918, -13.602, -83.8008, 51.6361, -134.674
4.156, 2, 35.9583, 48.0918, -13.602, -83.8008, 51.6361, -134.674
4.16, 2, 35.9583, 48.0918, -13.602, -83.8008, 51.6361, -134.674
4.164, 2, 35.9583, 48.0918, -13.602, -83.8008, 51.6361, -134.674
4.168, 2, 35.9583, 48.0918, -13.602, -83.8008, 51.6361, -134.674
4.172, 2, 35.9583, 48.0918, -13.602, -83.8008, 51.6361, -134.674
4.176, 2, 35.9583, 48.0918, -13.602, -83.8008, 51.6361, -134.674
4.18, 2, 35.9583, 48.0918, -13.602, -83.8008, 51.6361, -134.674
4.184, 2, 35.9583, 48.0918, -13.602, -83.8008, 51.6361, -134.674
4.188, 2, 35.9583, 48.0918, -13.602, -83.8008, 51.6361, -134.674
4.192, 2, 35.9583, 48.0918, -13.602, -83.8008, 51.6361, -134.674
4.196, 2, 35.9583, 48.0918, -13.602, -83.8008, 51.6361, -134.674
4.2, 2, 35.9583, 48.0918, -13.602, -83.8008, 51.6361, -134.674
4.204, 2, 35.9583, 48.0918, -13.602, -83.8008, 51.6361, -134.674
4.208, 2, 35.9583, 48.0918, -13.602, -83.8008, 51.6361, -134.674
4.212, 2, 35.9583, 48.0918, -13.602, -83.8008, 51.6361, -134.674
4.216, 2, 35.9583, 48.0918, -13.602, -83.8008, 51.6361, -134.674
4.22, 2, 35.9583, 48.0918, -13.602, -83.8008, 51.6361, -134.674
4.224, 2, 35.9583, 48.0918, -13.602, -83.8008, 51.6361, -134.674
4.228, 2, 35.9583, 48.0918, -13.602, -83.8008, 51.6361, -134.674
4.232, 2, 35.9583, 48.0918, -13.602, -83.8008, 51.6361, -134.674
4.236, 2, 35.9583, 48.0918, -13.602, -83.8008, 51.6361, -134.674
4.24, 2, 35.9583, 48.0918, -13.602, -83.8008, 51.6361, -134.674
4.244, 2, 35.9583, 48.0918, -13.602, -83.8008, 51.6361, -134.674
4.248, 2, 35.9583, 48.0918, -13.602, -83.8008, 51.6361, -134.674
4.252, 2, 35.9583, 48.0918, -13.602, -83.8008, 51.6361, -134.674
4.256, 2, 35.9583, 48.0918, -13.602, -83.8008, 51.6361, -134.674
4.26, 2, 35.9583, 48.0918, -13.602, -83.8008, 51.6361, -134.674
4.264, 2, 35.9583, 48.0918, -13.602, -83.8008, 51.6361, -134.674
4.268, 2, 35.9583, 48.0918, -13.602, -83.8008, 51.6361, -134.674
4.272, 2, 35.9583, 48.0918, -13.602, -83.8008, 51.6361, -134.674
4.276, 2, 35.9583, 48.0918, -13.602, -83.8008, 51.6361, -134.674
4.28, 2, 35.9583, 48.0918, -13.602, -83.8008, 51.6361, -134.674
4.284, 2, 35.9583, 48.0918, -13.602, -83.8008, 51.6361, -134.674
4.288, 2, 35.9583, 48.0918, -13.602, -83.8008, 51.6361, -134.674
4.292, 2, 35.9583, 48.0918, -13.602, -83.8008, 51.6361, -134.674
4.296, 2, 35.9583, 48.0918, -13.602, -83.8008, 51.6361, -134.674
4.3, 2, 35.9583, 48.0918, -13.602, -83.8008, 51.6361, -134.674
4.304, 2, 35.9583, 48.0918, -13.602, -83.8008, 51.6361, -134.674
4.308, 2, 35.9583, 48.0918, -13.602, -83.8008, 51.6361, -134.674
4.312, 2, 35.9583, 48.0918, -13.602, -83.8008, 51.6361, -134.674
4.316, 2, 35.9583, 48.0918, -13.602, -83.8008, 51.6361, -134.674
4.32, 2, 35.9583, 48.0918, -13.602, -83.8008, 51.6361, -134.674
4.324, 2, 35.9583, 48.0918, -13.602, -83.8008, 51.6361, -134.674
4.328, 2, 35.9583, 48.0918, -13.602, -83.8008, 51.6361, -134.674
4.332, 2, 35.9583, 48.0918, -13.602, -83.8008, 51.6361, -134.674
4.336, 2, 35.9583, 48.0918, -13.602, -83.8008, 51.6361, -134.674
4.34, 2, 35.9583, 48.0918, -13.602, -83.8008, 51.6361, -134.674
4.344, 2, 35.9583, 48.0918, -13.602, -83.8008, 51.6361, -134.674
4.348, 2, 35.9583, 48.0918, -13.602, -83.8008, 51.6361, -134.674
4.352, 2, 35.9583, 48.0918, -13.602, -83.8008, 51.6361, -134.674
4.356, 2, 35.9583, 48.0918, -13.602, -83.8008, 51.6361, -134.674
4.36, 2, 35.9583, 48.0918, -13.602, -83.8008, 51.6361, -134.674
4.364, 2, 35.9583, 48.0918, -13.602, -83.8008, 51.6361, -134.674
4.368, 2, 35.9583, 48.0918, -13.602, -83.8008, 51.6361, -134.674
4.372, 2, 35.9583, 48.0918, -13.602, -83.8008, 51.6361, -134.674
4.376, 2, 35.9583, 48.0918, -13.602, -83.8008, 51.6361, -134.674
4.38, 2, 35.9583, 48.0918, -13.602, -83.8008, 51.6361, -134.674
4.384, 2, 35.9583, 48.0918, -13.602, -83.8008, 51.6361, -134.674
4.388, 2, 35.9583, 48.0918, -13.602, -83.8008, 51.6361, -134.674
4.392, 2, 35.9583, 48.0918, -13.602, -83.8008, 51.6361, -134.674
4.396, 2, 35.9583, 48.0918, -13.602, -83.8008, 51.6361, -134.674
4.4, 2, 35.9583, 48.0918, -13.602, -83.8008, 51.6361, -134.674
4.404, 2, 35.9583, 48.0918, -13.602, -83.8008, 51.6361, -134.674
4.408, 2, 35.9583, 48.0918, -13.602, -83.8008, 51.6361, -134.674
4.412, 2, 35.9583, 48.0918, -13.602, -83.8008, 51.6361, -134.674
4.416, 2, 35.9583, 48.0918, -13.602, -83.8008, 51.6361, -134.674
4.42, 2, 35.9583, 48.0918, -13.602, -83.8008, 51.6361, -134.674
4.424, 2, 35.9583, 48.0918, -13.602, -83.8008, 51.6361, -134.674
4.428, 2, 35.9583, 48.0918, -13.602, -83.8008, 51.6361, -134.674
4.432, 2, 35.9583, 48.0918, -13.602, -83.8008, 51.6361, -134.674
4.436, 2, 35.9583, 48.0918, -13.602, -83.8008, 51.6361, -134.674
4.44, 2, 35.9583, 48.0918, -13.602, -83.8008, 51.6361, -134.674
4.444, 2, 35.9583, 48.0918, -13.602, -83.8008, 51.6361, -134.674
4.448, 2, 35.9583, 48.0918, -13.602, -83.8008, 51.6361, -134.674
4.452, 2, 35.9583, 48.0918, -13.602, -83.8008, 51.6361, -134.674
4.456, 2, 35.9583, 48.0918, -13.602, -83.8008, 51.6361, -134.674
4.46, 2, 35.9583, 48.0918, -13.602, -83.8008, 51.6361, -134.674
4.464, 2, 35.9583, 48.0918, -13.602, -83.8008, 51.6361, -134.674
4.468, 2, 35.9583, 48.0918, -13.602, -83.8008, 51.6361, -134.674
4.472, 2, 35.9583, 48.0918, -13.602, -83.8008, 51.6361, -134.674
4.476, 2, 35.9583, 48.0918, -13.602, -83.8008, 51.6361, -134.674
4.48, 2, 35.9583, 48.0918, -13.602, -83.8008, 51.6361, -134.674
4.484, 2, 35.9583, 48.0918, -13.602, -83.8008, 51.6361, -134.674
4.488, 2, 35.9583, 48.0918, -13.602, -83.8008, 51.6361, -134.674
4.492, 2, 35.9583, 48.0918, -13.602, -83.8008, 51.6361, -134.674
4.496, 2, 35.9583, 48.0918, -13.602, -83.8008, 51.6361, -134.674
4.5, 2, 35.9583, 48.0918, -13.602, -83.8008, 51.6361, -134.674
4.504, 2, 35.9583, 48.0918, -13.602, -83.8008, 51.6361, -134.674
4.508, 2, 35.9583, 48.0918, -13.602, -83.8008, 51.6361, -134.674
4.512, 2, 35.9583, 48.0918, -13.602, -83.8008, 51.6361, -134.674
4.516, 2, 35.9583, 48.0918, -13.602, -83.8008, 51.6361, -134.674
4.52, 2, 35.9583, 48.0918, -13.602, -83.8008, 51.6361, -134.674
4.524, 2, 35.9583, 48.0918, -13.602, -83.8008, 51.6361, -134.674
4.528, 2, 35.9583, 48.0918, -13.602, -83.8008, 51.6361, -134.674
4.532, 2, 35.9583, 48.0918, -13.602, -83.8008, 51.6361, -134.674
4.536, 2, 35.9583, 48.0918, -13.602, -83.8008, 51.6361, -134.674
4.54, 2, 35.9583, 48.0918, -13.602, -83.8008, 51.6361, -134.674
4.544, 2, 35.9583, 48.0918, -13.602, -83.8008, 51.6361, -134.674
4.548, 2, 35.9583, 48.0918, -13.602, -83.8008, 51.6361, -134.674
4.552, 2, 35.9583, 48.0918, -13.602, -83.8008, 51.6361, -134.674
4.556, 2, 35.9583, 48.0918, -13.602, -83.8008, 51.6361, -134.674
4.56, 2, 35.9583, 48.0918, -13.602, -83.8008, 51.6361, -134.674
4.564, 2, 35.9583, 48.0918, -13.602, -83.8008, 51.6361, -134.674
4.568, 2, 35.9583, 48.0918, -13.602, -83.8008, 51.6361, -134.674
4.572, 2, 35.9583, 48.0918, -13.602, -83.8008, 51.6361, -134.674
4.576, 2, 35.9583, 48.0918, -13.602, -83.8008, 51.6361, -134.674
4.58, 2, 35.9583, 48.0918, -13.602, -83.8008, 51.6361, -134.674
4.584, 2, 35.9583, 48.0918, -13.602, -83.8008, 51.6361, -134.674
4.588, 2, 35.9583, 48.0918, -13.602, -83.8008, 51.6361, -134.674
4.592, 2, 35.9583, 48.0918, -13.602, -83.8008, 51.6361, -134.674
4.596, 2, 35.9583, 48.0918, -13.602, -83.8008, 51.6361, -134.674
4.6, 2, 35.9583, 48.0918, -13.602, -83.8008, 51.6361, -134.674
4.604, 2, 35.9583, 48.0918, -13.602, -83.8008, 51.6361, -134.674
4.608, 2, 35.9583, 48.0918, -13.602, -83.8008, 51.6361, -134.674
4.612, 2, 35.9583, 48.0918, -13.602, -83.8008, 51.6361, -134.674
4.616, 2, 35.9583, 48.0918, -13.602, -83.8008, 51.6361, -134.674
4.62, 2, 35.9583, 48.0918, -13.602, -83.8008, 51.6361, -134.674
4.624, 2, 35.9583, 48.0918, -13.602, -83.8008, 51.6361, -134.674
4.628, 2, 35.9583, 48.0918, -13.602, -83.8008, 51.6361, -134.674
4.632, 2, 35.9583, 48.0918, -13.602, -83.8008, 51.6361, -134.674
4.636, 2, 35.9583, 48.0918, -13.602, -83.8008, 51.6361, -134.674
4.64, 2, 35.9583, 48.0918, -13.602, -83.8008, 51.6361, -134.674
4.644, 2, 35.9583, 48.0918, -13.602, -83.8008, 51.6361, -134.674
4.648, 2, 35.9583, 48.0918, -13.602, -83.8008, 51.6361, -134.674
4.652, 2, 35.9583, 48.0918, -13.602, -83.8008, 51.6361, -134.674
4.656, 2, 35.9583, 48.0918, -13.602, -83.8008, 51.6361, -134.674
4.66, 2, 35.9583, 48.0918, -13.602, -83.8008, 51.6361, -134.674
4.664, 2, 35.9583, 48.0918, -13.602, -83.8008, 51.6361, -134.674
4.668, 2, 35.9583, 48.0918, -13.602, -83.8008, 51.6361, -134.674
4.672, 2, 35.9583, 48.0918, -13.602, -83.8008, 51.6361, -134.674
4.676, 2, 35.9583, 48.0918, -13.602, -83.8008, 51.6361, -134.674
4.68, 2, 35.9583, 48.0918, -13.602, -83.8008, 51.6361, -134.674
4.684, 2, 35.9583, 48.0918, -13.602, -83.8008, 51.6361, -134.674
4.688, 2, 35.9583, 48.0918, -13.602, -83.8008, 51.6361, -134.674
4.692, 2, 35.9583, 48.0918, -13.602, -83.8008, 51.6361, -134.674
4.696, 2, 35.9583, 48.0918, -13.602, -83.8008, 51.6361, -134.674
4.7, 2, 35.9583, 48.0918, -13.602, -83.8008, 51.6361, -134.674
4.704, 2, 35.9583, 48.0918, -13.602, -83.8008, 51.6361, -134.674
4.708, 2, 35.9583, 48.0918, -13.602, -83.8008, 51.6361, -134.674
4.712, 2, 35.9583, 48.0918, -13.602, -83.8008, 51.6361, -134.674
4.716, 2, 35.9583, 48.0918, -13.602, -83.8008, 51.6361, -134.674
4.72, 2, 35.9583, 48.0918, -13.602, -83.8008, 51.6361, -134.674
4.724, 2, 35.9583, 48.0918, -13.602, -83.8008, 51.6361, -134.674
4.728, 2, 35.9583, 48.0918, -13.602, -83.8008, 51.6361, -134.674
4.732, 2, 35.9583, 48.0918, -13.602, -83.8008, 51.6361, -134.674
4.736, 2, 35.9583, 48.0918, -13.602, -83.8008, 51.6361, -134.674
4.74, 2, 35.9583, 48.0918, -13.602, -83.8008, 51.6361, -134.674
4.744, 2, 35.9583, 48.0918, -13.602, -83.8008, 51.6361, -134.674
4.748, 2, 35.9583, 48.0918, -13.602, -83.8008, 51.6361, -134.674
4.752, 2, 35.9583, 48.0918, -13.602, -83.8008, 51.6361, -134.674
4.756, 2, 35.9583, 48.0918, -13.602, -83.8008, 51.6361, -134.674
4.76, 2, 35.9583, 48.0918, -13.602, -83.8008, 51.6361, -134.674
4.764, 2, 35.9583, 48.0918, -13.602, -83.8008, 51.6361, -134.674
4.768, 2, 35.9583, 48.0918, -13.602, -83.8008, 51.6361, -134.674
4.772, 2, 35.9583, 48.0918, -13.602, -83.8008, 51.6361, -134.674
4.776, 2, 35.9583, 48.0918, -13.602, -83.8008, 51.6361, -134.674
4.78, 2, 35.9583, 48.0918, -13.602, -83.8008, 51.6361, -134.674
4.784, 2, 35.9583, 48.0918, -13.602, -83.8008, 51.6361, -134.674
4.788, 2, 35.9583, 48.0918, -13.602, -83.8008, 51.6361, -134.674
4.792, 3, 35.9583, 48.0918, -13.602, -83.8008, 51.6361, -134.674
4.796, 3, 35.9583, 48.0918, -13.602, -83.8008, 51.6361, -134.674
4.8, 3, 35.9583, 48.0918, -13.602, -83.8008, 51.6361, -134.674
4.804, 3, 35.9583, 48.0918, -13.602, -83.8008, 51.6361, -134.674
4.808, 3, 35.9583, 48.0918, -13.602, -83.8008, 51.6361, -134.674
4.812, 3, 35.9583, 48.0918, -13.602, -83.8008, 51.6361, -134.674
4.816, 3, 35.9583, 48.0918, -13.602, -83.8008, 51.6361, -134.674
4.82, 3, 35.9583, 48.0918, -13.602, -83.8008, 51.6361, -134.674
4.824, 3, 35.9583, 48.0918, -13.602, -83.8008, 51.6361, -134.674
4.828, 5, 35.9583, 48.0918, -13.602, -83.8008, 51.6361, -134.674
4.832, 5, 35.9583, 48.0918, -13.602, -83.8008, 51.6361, -134.674
4.836, 6, 35.9583, 48.0918, -13.602, -83.8008, 51.6361, -134.674
4.84, 6, 35.9583, 48.0918, -13.602, -83.8008, 51.6361, -134.674
4.844, 7, 35.9583, 48.0918, -13.602, -83.8008, 51.6361, -134.674
4.848, 7, 35.9583, 48.0918, -13.602, -83.8008, 51.6361, -134.674
4.852, 8, 35.9583, 48.0918, -13.602, -83.8008, 51.6361, -134.674
4.856, 8, 35.9583, 48.0918, -13.602, -83.8008, 51.6361, -134.674
4.86, 9, 35.9583, 48.0918, -13.602, -83.8008, 51.6361, -134.674
4.864, 9, 35.9583, 48.0918, -13.602, -83.8008, 51.6361, -134.674
4.868, 10, 35.9583, 48.0918, -13.602, -83.8008, 51.6361, -134.674
4.872, 10, 35.9583, 48.0918, -13.602, -83.8008, 51.6361, -134.674
4.876, 11, 35.9583, 48.0918, -13.602, -83.8008, 51.6361, -134.674
4.88, 11, 35.9583, 48.0918, -13.602, -83.8008, 51.6361, -134.674
4.884, 12, 35.9583, 48.0918, -13.602, -83.8008, 51.6361, -134.674
4.888, 12, 35.9583, 48.0918, -13.602, -83.8008, 51.6361, -134.674
4.892, 13, 35.9583, 48.0918, -13.602, -83.8008, 51.6361, -134.674
4.896, 13, 35.9583, 48.0918, -13.602, -83.8008, 51.6361, -134.674
4.9, 14, 35.9583, 48.0918, -13.602, -83.8008, 51.6361, -134.674
4.904, 14, 35.9583, 48.0918, -13.602, -83.8008, 51.6361, -134.674
4.908, 15, 35.9583, 48.0918, -13.602, -83.8008, 51.6361, -134.674
4.912, 15, 35.9583, 48.0918, -13.602, -83.8008, 51.6361, -134.674
4.916, 15, 35.9583, 48.0918, -13.602, -83.8008, 51.6361, -134.674
4.92, 15, 35.9583, 48.0918, -13.602, -83.8008, 51.6361, -134.674
4.924, 15, 35.9585, 48.0917, -13.602, -83.8008, 51.6361, -134.674
4.928, 15, 35.9587, 48.0915, -13.602, -83.8008, 51.6361, -134.674
4.932, 16, 35.9587, 48.0914, -13.6021, -83.8008, 51.6361, -134.674
4.936, 16, 35.9583, 48.0915, -13.6022, -83.8008, 51.6361, -134.674
4.94, 16, 35.957, 48.092, -13.6025, -83.8006, 51.6362, -134.674
4.944, 16, 35.9546, 48.0931, -13.6029, -83.8001, 51.6366, -134.674
4.948, 16, 35.9508, 48.095, -13.6036, -83.799, 51.6373, -134.675
4.952, 16, 35.9455, 48.0979, -13.6046, -83.7968, 51.6389, -134.676
4.956, 17, 35.9387, 48.1017, -13.6059, -83.7929, 51.6416, -134.678
4.96, 17, 35.9307, 48.1064, -13.6074, -83.7866, 51.6461, -134.681
4.964, 17, 35.9215, 48.1119, -13.6091, -83.777, 51.6529, -134.685
4.968, 17, 35.9113, 48.1182, -13.6109, -83.7631, 51.6628, -134.692
4.972, 17, 35.9001, 48.1253, -13.6128, -83.7438, 51.6766, -134.701
4.976, 17, 35.8878, 48.1332, -13.6149, -83.7183, 51.6948, -134.712
4.98, 18, 35.8744, 48.1419, -13.617, -83.6855, 51.7182, -134.728
4.984, 18, 35.8601, 48.1514, -13.6191, -83.6447, 51.7474, -134.746
4.988, 18, 35.8449, 48.1614, -13.6212, -83.5949, 51.783, -134.769
4.992, 18, 35.8292, 48.1718, -13.6234, -83.5358, 51.8252, -134.796
4.996, 18, 35.8129, 48.1826, -13.6256, -83.4668, 51.8744, -134.827
5, 18, 35.7961, 48.1936, -13.628, -83.3877, 51.9304, -134.862
5.004, 18, 35.7788, 48.2049, -13.6308, -83.2986, 51.9931, -134.9
5.008, 18, 35.7606, 48.2166, -13.634, -83.1995, 52.0623, -134.941
5.012, 18, 35.7414, 48.2288, -13.638, -83.091, 52.1373, -134.984
5.016, 18, 35.7209, 48.2417, -13.643, -82.9733, 52.2177, -135.03
5.02, 18, 35.6988, 48.2555, -13.6491, -82.847, 52.3028, -135.075
5.024, 18, 35.6754, 48.2702, -13.6565, -82.7126, 52.3919, -135.121
5.028, 19, 35.6504, 48.286, -13.6654, -82.5707, 52.4844, -135.167
5.032, 19, 35.624, 48.303, -13.6759, -82.4217, 52.5799, -135.21
5.036, 19, 35.5963, 48.3211, -13.6881, -82.266, 52.6776, -135.252
5.04, 19, 35.5673, 48.3404, -13.7021, -82.1043, 52.7774, -135.292
5.044, 19, 35.5373, 48.3607, -13.7178, -81.9369, 52.8787, -135.328
5.048, 19, 35.5062, 48.3819, -13.7353, -81.7642, 52.9813, -135.361
5.052, 19, 35.4742, 48.404, -13.7545, -81.5867, 53.0852, -135.391
5.056, 19, 35.4415, 48.427, -13.7755, -81.4047, 53.19, -135.417
5.06, 19, 35.4083, 48.4505, -13.7981, -81.2186, 53.2958, -135.44
5.064, 19, 35.3747, 48.4746, -13.8222, -81.0288, 53.4026, -135.459
5.068, 19, 35.3408, 48.4989, -13.8478, -80.8357, 53.5103, -135.474
5.072, 19, 35.3067, 48.5232, -13.8748, -80.6396, 53.6189, -135.485
5.076, 20, 35.2724, 48.5473, -13.9031, -80.4408, 53.7284, -135.492
5.08, 20, 35.2379, 48.571, -13.9326, -80.2396, 53.8388, -135.496
5.084, 20, 35.2032, 48.5941, -13.9632, -80.0364, 53.95, -135.496
5.088, 20, 35.1682, 48.6168, -13.9948, -79.8313, 54.062, -135.492
5.092, 20, 35.1329, 48.639, -14.0274, -79.6246, 54.1748, -135.483
5.096, 20, 35.0973, 48.6609, -14.0607, -79.4165, 54.2881, -135.471
5.1, 21, 35.0616, 48.6826, -14.0946, -79.2071, 54.402, -135.454
5.104, 21, 35.0257, 48.7041, -14.1291, -78.9966, 54.5163, -135.433
5.108, 21, 34.9897, 48.7255, -14.1639, -78.7851, 54.6309, -135.407
5.112, 21, 34.9536, 48.7467, -14.1989, -78.5728, 54.7457, -135.376
5.116, 21, 34.9174, 48.7676, -14.234, -78.3598, 54.8605, -135.34
5.12, 21, 34.8811, 48.7884, -14.2691, -78.1463, 54.9754, -135.299
5.124, 21, 34.8448, 48.8087, -14.304, -77.9325, 55.0902, -135.252
5.128, 21, 34.8084, 48.8288, -14.3385, -77.7187, 55.2049, -135.201
5.132, 21, 34.7721, 48.8485, -14.3726, -77.5051, 55.3194, -135.144
5.136, 21, 34.7358, 48.8679, -14.4061, -77.292, 55.4338, -135.083
5.14, 21, 34.6995, 48.8871, -14.4388, -77.0799, 55.548, -135.016
5.144, 21, 34.6632, 48.9059, -14.4707, -76.869, 55.662, -134.944
5.148, 22, 34.627, 48.9244, -14.5016, -76.6598, 55.7759, -134.868
5.152, 22, 34.5907, 48.9424, -14.5314, -76.4528, 55.8897, -134.787
5.156, 22, 34.5544, 48.9599, -14.56, -76.2483, 56.0034, -134.701
5.16, 22, 34.5182, 48.9766, -14.5872, -76.0467, 56.117, -134.611
5.164, 22, 34.4819, 48.9925, -14.6131, -75.8485, 56.2307, -134.518
5.168, 22, 34.4457, 49.0075, -14.6375, -75.6539, 56.3445, -134.42
5.172, 22, 34.4095, 49.0218, -14.6604, -75.4632, 56.4584, -134.319
5.176, 22, 34.3734, 49.0353, -14.6816, -75.2767, 56.5725, -134.215
5.18, 22, 34.3373, 49.0481, -14.7012, -75.0946, 56.6869, -134.108
5.184, 22, 34.3012, 49.0605, -14.7192, -74.917, 56.8018, -133.998
5.188, 22, 34.2651, 49.0723, -14.7354, -74.744, 56.9172, -133.886
5.192, 22, 34.229, 49.0838, -14.75, -74.5759, 57.0332, -133.771
5.196, 23, 34.1929, 49.095, -14.7629, -74.4127, 57.15, -133.655
5.2, 23, 34.1569, 49.1058, -14.7741, -74.2545, 57.2677, -133.537
5.204, 23, 34.1208, 49.1162, -14.7836, -74.1013, 57.3863, -133.417
5.208, 23, 34.0849, 49.1262, -14.7914, -73.9533, 57.506, -133.297
5.212, 23, 34.0491, 49.1358, -14.7975, -73.8105, 57.6268, -133.175
5.216, 23, 34.0134, 49.1448, -14.8019, -73.673, 57.7487, -133.053
5.22, 23, 33.9779, 49.1533, -14.8044, -73.541, 57.8718, -132.93
5.224, 23, 33.9426, 49.1614, -14.805, -73.4145, 57.996, -132.807
5.228, 23, 33.9075, 49.1691, -14.8036, -73.2937, 58.1212, -132.683
5.232, 23, 33.8725, 49.1763, -14.8002, -73.1787, 58.2473, -132.559
5.236, 23, 33.8378, 49.1832, -14.7946, -73.0697, 58.3744, -132.434
5.24, 23, 33.8032, 49.1896, -14.7867, -72.9667, 58.5021, -132.309
5.244, 24, 33.7688, 49.1955, -14.7764, -72.8699, 58.6306, -132.184
5.248, 24, 33.7347, 49.2009, -14.7638, -72.7792, 58.7595, -132.059
5.252, 24, 33.7008, 49.2057, -14.7486, -72.6947, 58.8889, -131.933
5.256, 24, 33.6673, 49.2099, -14.7309, -72.6163, 59.0187, -131.808
5.26, 24, 33.6342, 49.2135, -14.7107, -72.5441, 59.1488, -131.682
5.264, 24, 33.6014, 49.2165, -14.6879, -72.478, 59.2792, -131.557
5.268, 24, 33.569, 49.219, -14.6626, -72.4178, 59.4099, -131.431
5.272, 24, 33.5368, 49.221, -14.6348, -72.3634, 59.5409, -131.307
5.276, 24, 33.5047, 49.2225, -14.6046, -72.3148, 59.6723, -131.182
5.28, 24, 33.4729, 49.2235, -14.5721, -72.2716, 59.8041, -131.059
5.284, 24, 33.4412, 49.2241, -14.5373, -72.2337, 59.9363, -130.936
5.288, 24, 33.4098, 49.2242, -14.5003, -72.201, 60.0689, -130.815
5.292, 25, 33.3786, 49.2239, -14.4612, -72.1732, 60.2021, -130.694
5.296, 25, 33.3476, 49.223, -14.4199, -72.1501, 60.3358, -130.575
5.3, 25, 33.317, 49.2215, -14.3766, -72.1318, 60.47, -130.457
5.304, 25, 33.2867, 49.2195, -14.3312, -72.1182, 60.6048, -130.341
5.308, 25, 33.2567, 49.2171, -14.2837, -72.1093, 60.7402, -130.227
5.312, 25, 33.227, 49.2141, -14.2341, -72.1052, 60.8761, -130.114
5.316, 25, 33.1974, 49.2108, -14.1822, -72.1061, 61.0126, -130.003
5.32, 25, 33.1681, 49.207, -14.1281, -72.1122, 61.1495, -129.894
5.324, 25, 33.139, 49.2027, -14.0716, -72.1237, 61.287, -129.787
5.328, 25, 33.1101, 49.1979, -14.0127, -72.1406, 61.4249, -129.682
5.332, 25, 33.0813, 49.1925, -13.9512, -72.1633, 61.5632, -129.579
5.336, 25, 33.0527, 49.1863, -13.8872, -72.1916, 61.7018, -129.478
5.34, 26, 33.0241, 49.1793, -13.8206, -72.2258, 61.8407, -129.379
5.344, 26, 32.9956, 49.1715, -13.7514, -72.2657, 61.9798, -129.283
5.348, 26, 32.9672, 49.1627, -13.6796, -72.3112, 62.1191, -129.188
5.352, 26, 32.9387, 49.1529, -13.6052, -72.3621, 62.2584, -129.096
5.356, 26, 32.9101, 49.1423, -13.5282, -72.4181, 62.3977, -129.005
5.36, 26, 32.8813, 49.1309, -13.4488, -72.4789, 62.5367, -128.916
5.364, 27, 32.8524, 49.1186, -13.3669, -72.5439, 62.6754, -128.829
5.368, 27, 32.8234, 49.1056, -13.2827, -72.6128, 62.8137, -128.743
5.372, 27, 32.7944, 49.0918, -13.1964, -72.685, 62.9513, -128.659
5.376, 27, 32.7654, 49.0773, -13.1079, -72.7601, 63.0882, -128.576
5.38, 27, 32.7366, 49.0621, -13.0174, -72.8377, 63.2243, -128.494
5.384, 27, 32.7081, 49.0462, -12.9249, -72.9173, 63.3594, -128.413
5.388, 27, 32.6798, 49.0295, -12.8305, -72.9987, 63.4935, -128.333
5.392, 27, 32.6517, 49.0121, -12.7344, -73.0817, 63.6266, -128.253
5.396, 27, 32.6238, 48.994, -12.6364, -73.1661, 63.7586, -128.175
5.4, 27, 32.5958, 48.9752, -12.5367, -73.252, 63.8895, -128.097
5.404, 27, 32.5678, 48.9557, -12.4353, -73.3392, 64.0193, -128.02
5.408, 27, 32.5397, 48.9355, -12.3322, -73.4278, 64.148, -127.944
5.412, 28, 32.5115, 48.9145, -12.2274, -73.5179, 64.2755, -127.869
5.416, 28, 32.4831, 48.8926, -12.1209, -73.6096, 64.402, -127.795
5.42, 28, 32.4545, 48.8699, -12.0127, -73.703, 64.5275, -127.723
5.424, 28, 32.4258, 48.8461, -11.9027, -73.798, 64.6518, -127.651
5.428, 28, 32.3968, 48.8211, -11.7911, -73.8947, 64.7752, -127.581
5.432, 28, 32.3676, 48.795, -11.6778, -73.9932, 64.8975, -127.511
5.436, 28, 32.3382, 48.7678, -11.5627, -74.0934, 65.0187, -127.443
5.44, 28, 32.3086, 48.7394, -11.446, -74.1952, 65.1387, -127.375
5.444, 28, 32.2786, 48.71, -11.3276, -74.2986, 65.2576, -127.307
5.448, 28, 32.2485, 48.6796, -11.2076, -74.4034, 65.3751, -127.24
5.452, 28, 32.2181, 48.6482, -11.0859, -74.5095, 65.4913, -127.173
5.456, 28, 32.1875, 48.616, -10.9626, -74.6168, 65.606, -127.105
5.46, 29, 32.1567, 48.5829, -10.8376, -74.725, 65.7192, -127.037
5.464, 29, 32.1258, 48.549, -10.7112, -74.834, 65.8308, -126.967
5.468, 29, 32.0948, 48.5144, -10.5832, -74.9438, 65.9409, -126.896
5.472, 29, 32.0638, 48.4791, -10.4538, -75.0542, 66.0493, -126.825
5.476, 29, 32.0327, 48.4432, -10.3229, -75.1652, 66.1563, -126.752
5.48, 29, 32.0017, 48.4069, -10.1908, -75.2767, 66.262, -126.678
5.484, 29, 31.9707, 48.3701, -10.0573, -75.389, 66.3665, -126.603
5.488, 29, 31.9399, 48.3331, -9.92271, -75.502, 66.47, -126.529
5.492, 29, 31.9091, 48.2957, -9.78703, -75.616, 66.5729, -126.456
5.496, 29, 31.8783, 48.2579, -9.65035, -75.731, 66.6754, -126.383
5.5, 29, 31.8475, 48.2197, -9.51278, -75.8472, 66.7779, -126.313
5.504, 29, 31.8166, 48.181, -9.37442, -75.9649, 66.8806, -126.246
5.508, 30, 31.7855, 48.1418, -9.23536, -76.084, 66.9839, -126.182
5.512, 30, 31.7541, 48.102, -9.09568, -76.2049, 67.0879, -126.122
5.516, 30, 31.7225, 48.0618, -8.95546, -76.3275, 67.1929, -126.067
5.52, 30, 31.6906, 48.0213, -8.81476, -76.452, 67.299, -126.017
5.524, 30, 31.6585, 47.9804, -8.67364, -76.5784, 67.4064, -125.972
5.528, 30, 31.6261, 47.9395, -8.53211, -76.7066, 67.5152, -125.933
5.532, 30, 31.5936, 47.8986, -8.39021, -76.8368, 67.6252, -125.899
5.536, 30, 31.5609, 47.8578, -8.24796, -76.9688, 67.7367, -125.872
5.54, 30, 31.528, 47.8171, -8.10535, -77.1027, 67.8494, -125.849
5.544, 30, 31.4949, 47.7766, -7.96237, -77.2382, 67.9634, -125.832
5.548, 30, 31.4617, 47.7362, -7.81901, -77.3755, 68.0787, -125.821
5.552, 30, 31.4285, 47.6959, -7.67524, -77.5145, 68.1951, -125.815
5.556, 31, 31.3952, 47.6557, -7.53103, -77.655, 68.3126, -125.814
5.56, 31, 31.362, 47.6156, -7.38632, -77.7971, 68.4313, -125.818
5.564, 31, 31.3289, 47.5754, -7.24106, -77.9408, 68.5509, -125.826
5.568, 31, 31.2959, 47.5353, -7.09518, -78.0861, 68.6714, -125.84
5.572, 31, 31.2629, 47.4951, -6.94863, -78.233, 68.7927, -125.857
5.576, 31, 31.2299, 47.4548, -6.80132, -78.3816, 68.9147, -125.879
5.58, 32, 31.1969, 47.4145, -6.65318, -78.5318, 69.0374, -125.904
5.584, 32, 31.1638, 47.374, -6.50413, -78.6838, 69.1605, -125.934
5.588, 32, 31.1306, 47.3333, -6.35409, -78.8375, 69.2841, -125.967
5.592, 32, 31.0973, 47.2923, -6.20299, -78.9931, 69.4079, -126.003
5.596, 32, 31.0638, 47.2508, -6.05076, -79.1505, 69.5318, -126.042
5.6, 32, 31.0301, 47.2088, -5.89735, -79.3097, 69.6558, -126.084
5.604, 32, 30.9962, 47.1662, -5.74269, -79.4708, 69.7796, -126.128
5.608, 32, 30.9621, 47.1228, -5.58674, -79.6336, 69.9032, -126.175
5.612, 32, 30.9277, 47.0788, -5.42946, -79.7982, 70.0264, -126.224
5.616, 32, 30.893, 47.034, -5.27082, -79.9644, 70.149, -126.274
5.62, 32, 30.858, 46.9887, -5.11079, -80.1322, 70.2709, -126.326
5.624, 32, 30.8227, 46.9427, -4.94935, -80.3014, 70.3919, -126.379
5.628, 33, 30.7872, 46.896, -4.7865, -80.4719, 70.5119, -126.433
5.632, 33, 30.7514, 46.8487, -4.62223, -80.6436, 70.6306, -126.487
5.636, 33, 30.7153, 46.8007, -4.45657, -80.8162, 70.748, -126.542
5.64, 33, 30.6788, 46.752, -4.28956, -80.9897, 70.8639, -126.597
5.644, 33, 30.6421, 46.7024, -4.12125, -81.1639, 70.9781, -126.652
5.648, 33, 30.605, 46.652, -3.95169, -81.3385, 71.0906, -126.706
5.652, 33, 30.5676, 46.6008, -3.78098, -81.5135, 71.2013, -126.76
5.656, 33, 30.5298, 46.5487, -3.6092, -81.6885, 71.3102, -126.814
5.66, 33, 30.4917, 46.4957, -3.43646, -81.8634, 71.4172, -126.866
5.664, 33, 30.4531, 46.4419, -3.26288, -82.0381, 71.5224, -126.919
5.668, 33, 30.4141, 46.3872, -3.08859, -82.2122, 71.6258, -126.97
5.672, 33, 30.3747, 46.3318, -2.9137, -82.3856, 71.7274, -127.022
5.676, 34, 30.3349, 46.2754, -2.73835, -82.558, 71.8272, -127.072
5.68, 34, 30.2947, 46.2182, -2.56263, -82.7293, 71.9253, -127.122
5.684, 34, 30.254, 46.16, -2.38665, -82.8993, 72.0218, -127.172
5.688, 34, 30.2129, 46.1008, -2.21047, -83.0679, 72.1166, -127.221
5.692, 34, 30.1713, 46.0407, -2.03413, -83.2349, 72.2098, -127.27
5.696, 34, 30.1293, 45.9796, -1.85764, -83.4005, 72.3014, -127.319
5.7, 34, 30.0869, 45.9175, -1.68097, -83.5646, 72.3912, -127.367
5.704, 34, 30.044, 45.8544, -1.50406, -83.7272, 72.4793, -127.414
5.708, 34, 30.0007, 45.7904, -1.32685, -83.8885, 72.5654, -127.461
5.712, 34, 29.957, 45.7254, -1.14923, -84.0487, 72.6496, -127.507
5.716, 34, 29.9128, 45.6594, -0.97109, -84.2079, 72.7317, -127.552
5.72, 34, 29.8681, 45.5924, -0.792334, -84.3663, 72.8116, -127.597
5.724, 35, 29.823, 45.5243, -0.612859, -84.524, 72.8892, -127.64
5.728, 35, 29.7775, 45.4552, -0.432583, -84.6812, 72.9645, -127.682
5.732, 35, 29.7315, 45.3848, -0.25144, -84.8381, 73.0373, -127.723
5.736, 35, 29.685, 45.3133, -0.06939, -84.9948, 73.1077, -127.763
5.74, 35, 29.6381, 45.2406, 0.113586, -85.1512, 73.1756, -127.801
5.744, 35, 29.5908, 45.1668, 0.297483, -85.3074, 73.2411, -127.839
5.748, 35, 29.543, 45.0918, 0.482268, -85.4633, 73.3041, -127.875
5.752, 35, 29.4947, 45.0157, 0.667887, -85.6189, 73.3647, -127.91
5.756, 35, 29.4461, 44.9386, 0.854265, -85.7741, 73.423, -127.944
5.76, 35, 29.397, 44.8604, 1.04131, -85.9288, 73.479, -127.977
5.764, 35, 29.3474, 44.7812, 1.22894, -86.0828, 73.5328, -128.008
5.768, 35, 29.2974, 44.701, 1.41707, -86.2361, 73.5846, -128.04
5.772, 36, 29.247, 44.6198, 1.60559, -86.3887, 73.6343, -128.07
5.776, 36, 29.1962, 44.5375, 1.79446, -86.5403, 73.6822, -128.1
5.78, 36, 29.1449, 44.4544, 1.9836, -86.6912, 73.7282, -128.129
5.784, 36, 29.0932, 44.3704, 2.17298, -86.8411, 73.7724, -128.157
5.788, 36, 29.0411, 44.2855, 2.36257, -86.9903, 73.8149, -128.185
5.792, 36, 28.9885, 44.1999, 2.55236, -87.1388, 73.8557, -128.213
5.796, 37, 28.9356, 44.1135, 2.74237, -87.2866, 73.8949, -128.24
5.8, 37, 28.8822, 44.0264, 2.93261, -87.4341, 73.9324, -128.267
5.804, 37, 28.8284, 43.9387, 3.1231, -87.5812, 73.9685, -128.294
5.808, 37, 28.7742, 43.8504, 3.31387, -87.7282, 74.0031, -128.32
5.812, 37, 28.7197, 43.7614, 3.50496, -87.8752, 74.0362, -128.347
5.816, 37, 28.6648, 43.6717, 3.69638, -88.0225, 74.068, -128.373
5.82, 37, 28.6096, 43.5816, 3.88817, -88.1701, 74.0984, -128.4
5.824, 37, 28.5539, 43.4909, 4.08034, -88.3181, 74.1277, -128.427
5.828, 37, 28.4979, 43.3997, 4.2729, -88.4668, 74.1558, -128.454
5.832, 37, 28.4416, 43.3081, 4.46587, -88.6162, 74.1829, -128.481
5.836, 37, 28.3849, 43.2162, 4.65926, -88.7665, 74.2092, -128.509
5.84, 37, 28.3279, 43.124, 4.85306, -88.9177, 74.2346, -128.538
5.844, 38, 28.2705, 43.0316, 5.04726, -89.0699, 74.2594, -128.567
5.848, 38, 28.2128, 42.9388, 5.24185, -89.2233, 74.2836, -128.598
5.852, 38, 28.1547, 42.8458, 5.43681, -89.3779, 74.3075, -128.63
5.856, 38, 28.0963, 42.7524, 5.63214, -89.5337, 74.3311, -128.663
5.86, 38, 28.0374, 42.6585, 5.8278, -89.691, 74.3546, -128.697
5.864, 38, 27.9782, 42.5641, 6.02381, -89.8496, 74.378, -128.734
5.868, 38, 27.9185, 42.4693, 6.22013, -90.0096, 74.4014, -128.772
5.872, 38, 27.8585, 42.374, 6.41679, -90.171, 74.4248, -128.812
5.876, 38, 27.798, 42.2783, 6.61377, -90.3338, 74.4481, -128.853
5.88, 38, 27.7371, 42.1823, 6.8111, -90.4981, 74.4713, -128.897
5.884, 38, 27.6759, 42.0861, 7.00877, -90.6637, 74.4944, -128.942
5.888, 38, 27.6143, 41.9896, 7.2068, -90.8307, 74.5173, -128.989
5.892, 39, 27.5523, 41.8931, 7.4052, -90.9989, 74.5398, -129.038
5.896, 39, 27.49, 41.7963, 7.60396, -91.1684, 74.5619, -129.089
5.9, 39, 27.4274, 41.6994, 7.8031, -91.339, 74.5835, -129.141
5.904, 39, 27.3644, 41.6022, 8.00258, -91.5108, 74.6045, -129.195
5.908, 39, 27.301, 41.5049, 8.2024, -91.6836, 74.6248, -129.25
5.912, 39, 27.2372, 41.4073, 8.40252, -91.8573, 74.6443, -129.307
5.916, 39, 27.173, 41.3095, 8.60291, -92.0319, 74.6631, -129.365
5.92, 39, 27.1083, 41.2114, 8.80353, -92.2074, 74.6811, -129.424
5.924, 39, 27.0433, 41.113, 9.00433, -92.3836, 74.6983, -129.485
5.928, 39, 26.9779, 41.0143, 9.20526, -92.5604, 74.7146, -129.546
5.932, 39, 26.912, 40.9154, 9.40626, -92.7378, 74.7301, -129.608
5.936, 39, 26.8457, 40.8161, 9.60728, -92.9157, 74.7447, -129.671
5.94, 40, 26.779, 40.7165, 9.80826, -93.094, 74.7586, -129.735
5.944, 40, 26.7118, 40.6166, 10.0092, -93.2727, 74.7716, -129.799
5.948, 40, 26.6441, 40.5163, 10.21, -93.4516, 74.7837, -129.863
5.952, 40, 26.576, 40.4155, 10.4107, -93.6308, 74.795, -129.927
5.956, 40, 26.5073, 40.3143, 10.6113, -93.8102, 74.8054, -129.992
5.96, 40, 26.4381, 40.2126, 10.8119, -93.9899, 74.8149, -130.057
5.964, 40, 26.3684, 40.1105, 11.0124, -94.1699, 74.8233, -130.121
5.968, 40, 26.2981, 40.0078, 11.213, -94.3503, 74.8305, -130.185
5.972, 40, 26.2274, 39.9046, 11.4136, -94.5312, 74.8364, -130.249
5.976, 40, 26.1561, 39.8009, 11.6145, -94.7127, 74.8409, -130.312
5.98, 40, 26.0843, 39.6966, 11.8157, -94.8948, 74.8439, -130.374
5.984, 40, 26.012, 39.5916, 12.0172, -95.0776, 74.8453, -130.436
5.988, 41, 25.9391, 39.4859, 12.2191, -95.2614, 74.8449, -130.497
5.992, 41, 25.8657, 39.3796, 12.4216, -95.4461, 74.8426, -130.556
5.996, 41, 25.7916, 39.2726, 12.6246, -95.6318, 74.8385, -130.615
6, 41, 25.717, 39.165, 12.8283, -95.8186, 74.8324, -130.673
6.004, 41, 25.6417, 39.0566, 13.0325, -96.0066, 74.8244, -130.73
6.008, 41, 25.5658, 38.9475, 13.2373, -96.1957, 74.8143, -130.785
6.012, 41, 25.4892, 38.8377, 13.4428, -96.386, 74.8023, -130.84
6.016, 41, 25.4121, 38.7272, 13.6489, -96.5774, 74.7883, -130.895
6.02, 41, 25.3342, 38.616, 13.8555, -96.7701, 74.7725, -130.948
6.024, 41, 25.2558, 38.5041, 14.0626, -96.9639, 74.7548, -131.001
6.028, 41, 25.1768, 38.3915, 14.2702, -97.159, 74.7354, -131.054
6.032, 41, 25.097, 38.2782, 14.4782, -97.3552, 74.7143, -131.107
6.036, 42, 25.0167, 38.1643, 14.6866, -97.5525, 74.6915, -131.16
6.04, 42, 24.9356, 38.0496, 14.8953, -97.751, 74.6672, -131.213
6.044, 42, 24.8538, 37.9344, 15.1042, -97.9505, 74.6413, -131.265
6.048, 42, 24.7713, 37.8185, 15.3134, -98.1512, 74.6139, -131.318
6.052, 42, 24.6882, 37.702, 15.5227, -98.353, 74.5851, -131.372
6.056, 42, 24.6043, 37.585, 15.7321, -98.5559, 74.5547, -131.425
6.06, 43, 24.5198, 37.4674, 15.9417, -98.7598, 74.5229, -131.478
6.064, 43, 24.4346, 37.3494, 16.1512, -98.9649, 74.4896, -131.531
6.068, 43, 24.3488, 37.2308, 16.3609, -99.1709, 74.4549, -131.585
6.072, 43, 24.2622, 37.1117, 16.5705, -99.378, 74.4187, -131.638
6.076, 43, 24.1749, 36.9921, 16.7801, -99.5862, 74.381, -131.691
6.08, 43, 24.0868, 36.8719, 16.9896, -99.7954, 74.3419, -131.744
6.084, 43, 23.998, 36.751, 17.1991, -100.006, 74.3012, -131.796
6.088, 43, 23.9083, 36.6296, 17.4086, -100.217, 74.2589, -131.848
6.092, 43, 23.8178, 36.5074, 17.6182, -100.43, 74.2149, -131.9
6.096, 43, 23.7265, 36.3846, 17.8278, -100.643, 74.1691, -131.95
6.1, 43, 23.6344, 36.261, 18.0376, -100.858, 74.1213, -132
6.104, 43, 23.5415, 36.1367, 18.2475, -101.075, 74.0714, -132.049
6.108, 44, 23.4477, 36.0115, 18.4578, -101.292, 74.0192, -132.096
6.112, 44, 23.3531, 35.8855, 18.6683, -101.511, 73.9646, -132.142
6.116, 44, 23.2576, 35.7587, 18.8792, -101.732, 73.9075, -132.187
6.12, 44, 23.1613, 35.6308, 19.0905, -101.954, 73.8477, -132.229
6.124, 44, 23.064, 35.502, 19.3023, -102.178, 73.7851, -132.27
6.128, 44, 22.9657, 35.3722, 19.5144, -102.403, 73.7195, -132.309
6.132, 44, 22.8665, 35.2414, 19.7269, -102.63, 73.6509, -132.345
