hehonglu123/Motion-Primitive-Planning/ILC/recorded_data/realrobot/from_NX/iteration_38/run_4.csv
timestamp, cmd_num, J1, J2, J3, J4, J5, J6
0.000445, -1, 39.6291, 32.447, 11.8315, 12.5437, 113.713, -48.8735
0.004351, -1, 39.6291, 32.447, 11.8315, 12.5437, 113.713, -48.8736
0.007766, -1, 39.6291, 32.4471, 11.8315, 12.5437, 113.713, -48.8736
0.028554, -1, 39.6291, 32.447, 11.8315, 12.5437, 113.713, -48.8736
0.031279, -1, 39.6291, 32.447, 11.8315, 12.5437, 113.713, -48.8736
0.034471, -1, 39.6291, 32.447, 11.8315, 12.5437, 113.713, -48.8736
0.039694, -1, 39.6291, 32.447, 11.8315, 12.5437, 113.713, -48.8736
0.047648, -1, 39.6291, 32.447, 11.8315, 12.5437, 113.713, -48.8736
0.056684, -1, 39.6286, 32.447, 11.8315, 12.5437, 113.713, -48.8736
0.063623, -1, 39.6262, 32.4465, 11.8315, 12.5437, 113.713, -48.8736
0.071671, -1, 39.6209, 32.4452, 11.8315, 12.5437, 113.713, -48.8739
0.07969, -1, 39.612, 32.4423, 11.8314, 12.5437, 113.713, -48.8754
0.087677, -1, 39.5987, 32.437, 11.8314, 12.5437, 113.711, -48.8798
0.09563, -1, 39.579, 32.4284, 11.8315, 12.5437, 113.708, -48.8907
0.103694, -1, 39.5504, 32.4158, 11.8319, 12.5437, 113.701, -48.9112
0.111732, -1, 39.512, 32.3982, 11.834, 12.5436, 113.689, -48.9446
0.11969, -1, 39.4626, 32.3745, 11.8388, 12.5436, 113.67, -48.995
0.12771, -1, 39.4005, 32.3441, 11.8471, 12.5437, 113.642, -49.0666
0.135625, -1, 39.325, 32.3063, 11.8599, 12.5437, 113.605, -49.161
0.143628, -1, 39.2359, 32.2607, 11.8777, 12.544, 113.558, -49.281
0.151696, -1, 39.1327, 32.2072, 11.9002, 12.5445, 113.502, -49.4264
0.159624, -1, 39.0155, 32.1458, 11.927, 12.5455, 113.434, -49.5964
0.167648, -1, 38.8849, 32.0771, 11.9576, 12.5471, 113.358, -49.7886
0.17573, -1, 38.742, 32.0018, 11.9916, 12.549, 113.275, -50.0006
0.183627, -1, 38.5875, 31.9205, 12.028, 12.551, 113.185, -50.2282
0.191628, -1, 38.4232, 31.8343, 12.0657, 12.5534, 113.09, -50.4682
0.199725, -1, 38.2509, 31.744, 12.1046, 12.5558, 112.992, -50.7165
0.207699, -1, 38.0724, 31.6508, 12.1437, 12.5582, 112.891, -50.9698
0.215713, -1, 37.8888, 31.5554, 12.1826, 12.5607, 112.79, -51.2265
0.22372, -1, 37.7012, 31.4585, 12.2214, 12.5631, 112.688, -51.485
0.23173, -1, 37.511, 31.3608, 12.2601, 12.5655, 112.585, -51.7445
0.239823, -1, 37.3194, 31.2628, 12.2989, 12.568, 112.483, -52.004
0.247765, -1, 37.1273, 31.1649, 12.3378, 12.5704, 112.38, -52.2637
0.255761, -1, 36.935, 31.0671, 12.3765, 12.5731, 112.277, -52.5237
0.263868, -1, 36.7429, 30.9694, 12.4153, 12.5757, 112.174, -52.784
0.271671, -1, 36.5512, 30.8716, 12.4542, 12.5783, 112.071, -53.0444
0.279659, -1, 36.3596, 30.7739, 12.493, 12.5809, 111.968, -53.3047
0.287886, -1, 36.168, 30.6761, 12.5319, 12.5834, 111.865, -53.565
0.295797, -1, 35.9765, 30.5782, 12.5708, 12.586, 111.762, -53.8256
0.303943, -1, 35.7849, 30.4802, 12.6097, 12.5887, 111.659, -54.0862
0.31227, -1, 35.5931, 30.3822, 12.6486, 12.5911, 111.556, -54.3465
0.320006, -1, 35.401, 30.2839, 12.6875, 12.5937, 111.453, -54.6069
0.326615, -1, 35.3049, 30.2348, 12.7069, 12.595, 111.402, -54.7371
0.336217, -1, 35.0162, 30.0873, 12.7652, 12.5989, 111.247, -55.1284
0.344162, -1, 34.8239, 29.9888, 12.8041, 12.6015, 111.144, -55.3888
0.352227, -1, 34.6316, 29.8902, 12.8429, 12.604, 111.041, -55.6496
0.360548, -1, 34.4394, 29.7918, 12.8818, 12.6066, 110.938, -55.9105
0.368215, -1, 34.2474, 29.6934, 12.9208, 12.6092, 110.835, -56.1716
0.376306, -1, 34.1513, 29.5951, 12.9597, 12.6118, 110.732, -56.4323
0.383614, -1, 33.9595, 29.546, 12.9792, 12.6131, 110.68, -56.5626
0.392219, -1, 33.7678, 29.4476, 13.0181, 12.6158, 110.577, -56.8233
0.399681, -1, 33.576, 29.3493, 13.0569, 12.6184, 110.474, -57.0844
0.407609, -1, 33.3838, 29.2509, 13.0959, 12.621, 110.371, -57.3456
0.415619, -1, 33.1912, 29.1524, 13.1349, 12.6236, 110.268, -57.6065
0.423697, -1, 32.9985, 29.0538, 13.1736, 12.6262, 110.165, -57.8675
0.431621, -1, 32.8054, 28.9552, 13.2126, 12.6288, 110.062, -58.1287
0.439764, -1, 32.6122, 28.8566, 13.2515, 12.6315, 109.959, -58.39
0.447619, -1, 32.4187, 28.7579, 13.2903, 12.6342, 109.856, -58.6512
0.455826, -1, 32.2248, 28.6592, 13.3293, 12.6369, 109.753, -58.9122
0.463683, -1, 32.0307, 28.5604, 13.3681, 12.6396, 109.65, -59.1733
0.471621, -1, 31.8369, 28.4616, 13.407, 12.6423, 109.546, -59.4347
0.47961, -1, 31.6432, 28.3628, 13.446, 12.645, 109.443, -59.6961
0.487685, -1, 31.4498, 28.2641, 13.485, 12.6478, 109.34, -59.9572
0.627575, -1, 28.0698, 26.5364, 14.1671, 12.6945, 107.533, -64.5344
0.628781, -1, 28.0698, 26.5364, 14.1671, 12.6945, 107.533, -64.5344
0.630847, -1, 27.9734, 26.487, 14.1866, 12.6957, 107.482, -64.6653
0.632073, -1, 27.9734, 26.487, 14.1866, 12.6957, 107.482, -64.6653
0.634958, -1, 27.877, 26.4376, 14.2061, 12.697, 107.43, -64.7962
0.636266, -1, 27.877, 26.4376, 14.2061, 12.697, 107.43, -64.7962
0.637539, -1, 27.877, 26.4376, 14.2061, 12.697, 107.43, -64.7962
0.64066, -1, 27.7806, 26.3882, 14.2256, 12.6982, 107.379, -64.9272
0.64259, -1, 27.6843, 26.3387, 14.2451, 12.6995, 107.327, -65.0582
0.643934, -1, 27.6843, 26.3387, 14.2451, 12.6995, 107.327, -65.0582
0.645345, -1, 27.6843, 26.3387, 14.2451, 12.6995, 107.327, -65.0582
0.647433, -1, 27.5881, 26.2893, 14.2645, 12.7007, 107.275, -65.189
0.648663, -1, 27.5881, 26.2893, 14.2645, 12.7007, 107.275, -65.189
0.651413, -1, 27.4919, 26.2399, 14.284, 12.7019, 107.223, -65.3198
0.652682, -1, 27.4919, 26.2399, 14.284, 12.7019, 107.223, -65.3198
0.655207, -1, 27.3959, 26.1904, 14.3035, 12.7031, 107.172, -65.4507
0.657261, -1, 27.3959, 26.1904, 14.3035, 12.7031, 107.172, -65.4507
0.659757, -1, 27.2998, 26.1409, 14.3231, 12.7043, 107.12, -65.5814
0.660992, -1, 27.2998, 26.1409, 14.3231, 12.7043, 107.12, -65.5814
0.663021, -1, 27.2037, 26.0914, 14.3426, 12.7055, 107.068, -65.7122
0.664266, -1, 27.2037, 26.0914, 14.3426, 12.7055, 107.068, -65.7122
0.665625, -1, 27.2037, 26.0914, 14.3426, 12.7055, 107.068, -65.7122
0.673608, -1, 27.0113, 25.9925, 14.3814, 12.7077, 106.965, -65.9739
0.678877, -1, 26.8187, 25.8937, 14.4204, 12.7101, 106.862, -66.2359
0.687766, -1, 26.6257, 25.7948, 14.4594, 12.7124, 106.758, -66.4975
0.695661, -1, 26.4322, 25.696, 14.4982, 12.7147, 106.655, -66.7593
0.703643, -1, 26.2383, 25.5971, 14.5372, 12.7169, 106.552, -67.0211
0.71176, -1, 26.0443, 25.4983, 14.5762, 12.7192, 106.449, -67.2831
0.719709, -1, 25.85, 25.3994, 14.6151, 12.7215, 106.346, -67.5448
0.727815, -1, 25.6558, 25.3006, 14.6541, 12.7238, 106.243, -67.8063
0.735778, -1, 25.4619, 25.2018, 14.6931, 12.7261, 106.139, -68.0678
0.743714, -1, 25.2682, 25.1031, 14.732, 12.7283, 106.036, -68.3296
0.751719, -1, 25.0748, 25.0044, 14.7711, 12.7306, 105.933, -68.5913
0.75983, -1, 24.8815, 24.9055, 14.8101, 12.733, 105.829, -68.8528
0.767627, -1, 24.6886, 24.8067, 14.8489, 12.7354, 105.726, -69.1145
0.775658, -1, 24.4961, 24.7079, 14.888, 12.7378, 105.623, -69.3763
0.783771, -1, 24.3036, 24.609, 14.927, 12.7402, 105.52, -69.638
0.919404, -1, 21.1177, 22.9791, 15.5696, 12.7814, 103.815, -73.9547
0.922612, -1, 21.0215, 22.9298, 15.5891, 12.7827, 103.764, -74.0853
0.923821, -1, 21.0215, 22.9298, 15.5891, 12.7827, 103.764, -74.0853
0.925889, -1, 20.9253, 22.8805, 15.6085, 12.784, 103.712, -74.2158
0.927094, -1, 20.9253, 22.8805, 15.6085, 12.784, 103.712, -74.2158
0.929131, -1, 20.829, 22.8312, 15.628, 12.7853, 103.66, -74.3463
0.930387, -1, 20.829, 22.8312, 15.628, 12.7853, 103.66, -74.3463
0.932959, -1, 20.7327, 22.7819, 15.6475, 12.7867, 103.609, -74.4769
0.934542, -1, 20.7327, 22.7819, 15.6475, 12.7867, 103.609, -74.4769
0.935739, -1, 20.7327, 22.7819, 15.6475, 12.7867, 103.609, -74.4769
0.937865, -1, 20.6364, 22.7326, 15.667, 12.7881, 103.557, -74.6075
0.939145, -1, 20.6364, 22.7326, 15.667, 12.7881, 103.557, -74.6075
0.941961, -1, 20.5401, 22.6832, 15.6864, 12.7894, 103.506, -74.7382
0.943202, -1, 20.5401, 22.6832, 15.6864, 12.7894, 103.506, -74.7382
0.945219, -1, 20.4436, 22.6339, 15.7058, 12.7908, 103.454, -74.8688
0.954546, -1, 20.2503, 22.5352, 15.7446, 12.7936, 103.351, -75.1304
0.955737, -1, 20.2503, 22.5352, 15.7446, 12.7936, 103.351, -75.1304
0.957838, -1, 20.1534, 22.4858, 15.7642, 12.7949, 103.3, -75.2609
0.959042, -1, 20.1534, 22.4858, 15.7642, 12.7949, 103.3, -75.2609
0.961018, -1, 20.0566, 22.4365, 15.7836, 12.7962, 103.248, -75.3914
0.96248, -1, 20.0566, 22.4365, 15.7836, 12.7962, 103.248, -75.3914
0.963671, -1, 20.0566, 22.4365, 15.7836, 12.7962, 103.248, -75.3914
0.970445, -1, 19.863, 22.3378, 15.8223, 12.799, 103.145, -75.6526
0.9756, -1, 19.7661, 22.2884, 15.8417, 12.8004, 103.094, -75.7832
0.98259, -1, 19.5725, 22.1898, 15.8807, 12.8031, 102.991, -76.0445
0.991612, -1, 19.3792, 22.0913, 15.9195, 12.8059, 102.888, -76.3057
0.999599, -1, 19.1861, 21.9926, 15.9583, 12.8086, 102.785, -76.5665
1.00914, -1, 18.9932, 21.8939, 15.9973, 12.8114, 102.681, -76.8273
1.0156, -1, 18.8008, 21.7953, 16.0361, 12.8141, 102.578, -77.0883
1.02459, -1, 18.6086, 21.6965, 16.0749, 12.8168, 102.476, -77.3494
1.03169, -1, 18.4169, 21.598, 16.1138, 12.8196, 102.373, -77.6101
1.04064, -1, 18.225, 21.4994, 16.1526, 12.8222, 102.27, -77.8709
1.04667, -1, 18.033, 21.401, 16.1914, 12.8247, 102.167, -78.1317
1.05566, -1, 17.8412, 21.3026, 16.2303, 12.8273, 102.064, -78.3927
1.06359, -1, 17.6492, 21.2043, 16.2692, 12.8298, 101.961, -78.6531
1.07162, -1, 17.4568, 21.1059, 16.308, 12.8323, 101.858, -78.9136
1.0796, -1, 17.264, 21.0076, 16.3468, 12.8348, 101.755, -79.1742
1.08759, -1, 17.0709, 20.9093, 16.3856, 12.8372, 101.652, -79.4347
1.0957, -1, 16.8779, 20.811, 16.4243, 12.8397, 101.549, -79.6952
1.10359, -1, 16.6848, 20.7128, 16.4632, 12.8419, 101.447, -79.9556
1.11162, -1, 16.4919, 20.6146, 16.5018, 12.8443, 101.344, -80.2161
1.11966, -1, 16.2991, 20.5164, 16.5405, 12.8466, 101.241, -80.4768
1.12766, -1, 16.1067, 20.418, 16.5793, 12.849, 101.139, -80.7374
1.13559, -1, 15.9147, 20.3195, 16.618, 12.8513, 101.036, -80.9974
1.14366, -1, 15.723, 20.221, 16.6567, 12.8536, 100.933, -81.2573
1.15161, -1, 15.5317, 20.1226, 16.6953, 12.8559, 100.831, -81.5175
1.15959, -1, 15.3405, 20.0243, 16.7339, 12.8583, 100.728, -81.7776
1.16766, -1, 15.1493, 19.926, 16.7728, 12.8606, 100.626, -82.0375
1.1756, -1, 14.9581, 19.8278, 16.8114, 12.8629, 100.523, -82.2974
1.1836, -1, 14.7668, 19.7297, 16.8501, 12.8651, 100.421, -82.5573
1.19169, -1, 14.5753, 19.6315, 16.8888, 12.8674, 100.318, -82.8174
1.1996, -1, 14.3834, 19.5334, 16.9275, 12.8697, 100.215, -83.077
1.20769, -1, 14.1912, 19.4353, 16.9662, 12.872, 100.113, -83.3365
1.21567, -1, 13.999, 19.3374, 17.0049, 12.8742, 100.01, -83.5961
1.22369, -1, 13.8066, 19.2396, 17.0435, 12.8766, 99.9077, -83.8558
1.23177, -1, 13.6142, 19.1417, 17.0821, 12.8789, 99.8052, -84.1153
1.23974, -1, 13.4219, 19.0439, 17.1208, 12.8812, 99.7026, -84.3745
1.2477, -1, 13.2299, 18.9459, 17.1593, 12.8834, 99.6004, -84.6338
1.25577, -1, 13.0382, 18.848, 17.1979, 12.8859, 99.4979, -84.8932
1.26368, -1, 12.847, 18.75, 17.2366, 12.8882, 99.3954, -85.1526
1.27166, -1, 12.656, 18.6521, 17.2751, 12.8906, 99.2933, -85.4116
1.27991, -1, 12.4653, 18.5543, 17.3137, 12.8931, 99.1909, -85.6703
1.28768, -1, 12.2751, 18.4565, 17.3522, 12.8955, 99.0887, -85.9292
1.2958, -1, 12.0849, 18.3587, 17.3907, 12.8979, 98.9868, -86.1883
1.30458, -1, 11.8946, 18.2611, 17.4294, 12.9002, 98.8846, -86.4471
1.31187, -1, 11.704, 18.1635, 17.468, 12.9026, 98.7826, -86.7057
1.31995, -1, 11.5132, 18.0659, 17.5065, 12.9051, 98.6809, -86.9642
1.32892, -1, 11.3222, 17.9683, 17.5451, 12.9076, 98.5788, -87.223
1.33603, -1, 11.1309, 17.8707, 17.5837, 12.91, 98.4769, -87.4815
1.34258, -1, 11.0352, 17.822, 17.6029, 12.9112, 98.4261, -87.6106
1.35294, -1, 10.7478, 17.6758, 17.6606, 12.915, 98.273, -87.998
1.36018, -1, 10.5563, 17.5783, 17.699, 12.9175, 98.1712, -88.2563
1.3682, -1, 10.365, 17.4808, 17.7374, 12.9201, 98.0694, -88.5146
1.37713, -1, 10.2695, 17.432, 17.7759, 12.9225, 97.9674, -88.7726
1.38267, -1, 10.0786, 17.3344, 17.7951, 12.9239, 97.9164, -88.9016
1.39217, -1, 9.88819, 17.2368, 17.8334, 12.9265, 97.8148, -89.2888
1.39965, -1, 9.6981, 17.1393, 17.8718, 12.929, 97.7127, -89.4179
1.40667, -1, 9.50837, 17.0419, 17.9101, 12.9319, 97.6107, -89.676
1.41563, -1, 9.31901, 16.9446, 17.9484, 12.9346, 97.509, -89.9335
1.42358, -1, 9.1297, 16.8472, 17.9868, 12.9372, 97.4069, -90.191
1.43059, -1, 8.94034, 16.7501, 18.0252, 12.9399, 97.3053, -90.4486
1.43964, -1, 8.7508, 16.6529, 18.0635, 12.9425, 97.2037, -90.7063
1.44758, -1, 8.56118, 16.5557, 18.102, 12.9452, 97.1019, -90.9634
1.45565, -1, 8.37147, 16.4586, 18.1403, 12.9479, 97.0005, -91.2207
1.46364, -1, 8.18122, 16.3616, 18.1786, 12.9506, 96.8989, -91.4778
1.4716, -1, 7.99074, 16.2648, 18.217, 12.9531, 96.7973, -91.7352
1.47971, -1, 7.80024, 16.1678, 18.2552, 12.9559, 96.6959, -91.9922
1.48758, -1, 7.60963, 16.0709, 18.2935, 12.9585, 96.5943, -92.2488
1.49558, -1, 7.41922, 15.9739, 18.3319, 12.961, 96.4929, -92.5056
1.50372, -1, 7.22909, 15.877, 18.37, 12.9636, 96.3917, -92.7624
1.5116, -1, 7.03923, 15.78, 18.4082, 12.9662, 96.2903, -93.0191
1.52057, -1, 6.84974, 15.6831, 18.4465, 12.9688, 96.189, -93.2755
1.52766, -1, 6.66082, 15.5863, 18.4846, 12.9713, 96.0883, -93.5318
1.53667, -1, 6.47229, 15.4895, 18.5227, 12.9739, 95.9872, -93.7882
1.54359, -1, 6.28402, 15.3928, 18.5609, 12.9763, 95.8861, -94.0447
1.55166, -1, 6.09599, 15.2961, 18.599, 12.9789, 95.7855, -94.3006
1.55963, -1, 5.90772, 15.1994, 18.6371, 12.9812, 95.6843, -94.5565
1.56758, -1, 5.7193, 15.1027, 18.6754, 12.9835, 95.5834, -94.8124
1.57559, -1, 5.53086, 15.0061, 18.7134, 12.9859, 95.4828, -95.0684
1.58364, -1, 5.34209, 14.9096, 18.7515, 12.9882, 95.3819, -95.3241
1.5916, -1, 5.15295, 14.8131, 18.7897, 12.9904, 95.2812, -95.5794
1.59969, -1, 4.96356, 14.7168, 18.8277, 12.9927, 95.1806, -95.8349
1.60765, -1, 4.77415, 14.6204, 18.8657, 12.995, 95.0798, -96.0905
1.61558, -1, 4.58481, 14.5241, 18.9039, 12.9972, 94.979, -96.3457
1.62388, -1, 4.39563, 14.4278, 18.9419, 12.9994, 94.8783, -96.6006
1.63165, -1, 4.20666, 14.3314, 18.9799, 13.0016, 94.7775, -96.8555
1.63963, -1, 4.01795, 14.235, 19.0179, 13.0039, 94.6766, -97.1105
1.64837, -1, 3.82988, 14.1388, 19.0558, 13.0062, 94.5758, -97.3657
1.65558, -1, 3.64232, 14.0427, 19.0938, 13.0084, 94.4751, -97.6204
1.66358, -1, 3.45513, 13.9465, 19.1317, 13.0108, 94.3745, -97.875
1.6724, -1, 3.26818, 13.8505, 19.1695, 13.0131, 94.2738, -98.1298
1.67963, -1, 3.08115, 13.7544, 19.2074, 13.0154, 94.1731, -98.3846
1.68767, -1, 2.89419, 13.6583, 19.2453, 13.0176, 94.0726, -98.6389
1.69638, -1, 2.70716, 13.5623, 19.2832, 13.0198, 93.972, -98.893
1.70358, -1, 2.51987, 13.4663, 19.3211, 13.0221, 93.8715, -99.147
1.71194, -1, 2.3324, 13.3703, 19.3589, 13.0244, 93.7712, -99.4013
1.7205, -1, 2.14452, 13.2746, 19.3967, 13.0266, 93.6708, -99.6553
1.72768, -1, 1.95642, 13.1787, 19.4346, 13.0288, 93.5706, -99.9089
1.736, -1, 1.76836, 13.0829, 19.4723, 13.0312, 93.4707, -100.163
1.74448, -1, 1.58014, 12.987, 19.51, 13.0334, 93.3706, -100.416
1.75169, -1, 1.39209, 12.8913, 19.5479, 13.0357, 93.2705, -100.67
1.7603, -1, 1.2043, 12.7954, 19.5857, 13.0381, 93.1706, -100.923
1.76852, -1, 1.01681, 12.6997, 19.6233, 13.0404, 93.0705, -101.176
1.77561, -1, 0.830002, 12.6041, 19.6611, 13.0428, 92.9705, -101.429
1.78444, -1, 0.643652, 12.5085, 19.6987, 13.0452, 92.8709, -101.682
1.79164, -1, 0.457692, 12.413, 19.7363, 13.0476, 92.771, -101.935
1.7998, -1, 0.272, 12.3176, 19.774, 13.0501, 92.6713, -102.188
1.80863, -1, 0.0865274, 12.2222, 19.8116, 13.0525, 92.5721, -102.441
1.81664, -1, -0.0988838, 12.1268, 19.8491, 13.055, 92.4723, -102.693
1.82397, -1, -0.284481, 12.0315, 19.8868, 13.0574, 92.3727, -102.946
1.83284, -1, -0.470392, 11.9363, 19.9244, 13.0598, 92.2735, -103.198
1.84018, -1, -0.656645, 11.8412, 19.9619, 13.0623, 92.1739, -103.45
1.84813, -1, -0.843044, 11.7462, 19.9995, 13.0648, 92.0744, -103.702
1.85695, -1, -1.02967, 11.6512, 20.0369, 13.0673, 91.9752, -103.954
1.86411, -1, -1.21648, 11.5561, 20.0744, 13.0698, 91.8758, -104.206
1.8722, -1, -1.40342, 11.4611, 20.1119, 13.0723, 91.7765, -104.457
1.88105, -1, -1.59011, 11.3659, 20.1494, 13.0749, 91.6775, -104.709
1.8881, -1, -1.68334, 11.3184, 20.168, 13.0762, 91.6278, -104.96
1.89459, -1, -1.86958, 11.2233, 20.2054, 13.0788, 91.5285, -105.086
1.90548, -1, -2.14804, 11.0809, 20.2615, 13.0828, 91.3799, -105.463
1.91158, -1, -2.24057, 11.0334, 20.2802, 13.084, 91.3302, -105.588
1.91857, -1, -2.42542, 10.9385, 20.3176, 13.0867, 91.231, -105.839
1.92757, -1, -2.60986, 10.8438, 20.3549, 13.0893, 91.132, -106.09
1.93563, -1, -2.79378, 10.749, 20.3921, 13.0921, 91.0329, -106.341
1.9436, -1, -2.97773, 10.6542, 20.4296, 13.0947, 90.9338, -106.592
1.95157, -1, -3.16179, 10.5595, 20.4669, 13.0973, 90.8351, -106.842
1.95967, -1, -3.34611, 10.4649, 20.5041, 13.0998, 90.7361, -107.093
1.96763, -1, -3.53081, 10.3705, 20.5414, 13.1024, 90.6371, -107.343
1.97556, -1, -3.71559, 10.2761, 20.5786, 13.105, 90.5385, -107.594
1.98365, -1, -3.90063, 10.1817, 20.6158, 13.1074, 90.4396, -107.844
1.99318, -1, -4.1786, 10.0403, 20.6717, 13.1111, 90.2917, -108.218
1.99962, -1, -4.27139, 9.99315, 20.6902, 13.1124, 90.2425, -108.343
2.00763, -1, -4.45694, 9.89883, 20.7273, 13.1147, 90.1437, -108.593
2.01557, -1, -4.64226, 9.80449, 20.7647, 13.1171, 90.0451, -108.843
2.02364, -1, -4.82712, 9.71032, 20.8018, 13.1194, 89.9468, -109.092
2.03261, -1, -5.01168, 9.61624, 20.8388, 13.1218, 89.8482, -109.342
2.03962, -1, -5.19552, 9.52218, 20.8759, 13.1242, 89.7499, -109.591
2.04763, -1, -5.37885, 9.42812, 20.913, 13.1265, 89.6516, -109.84
2.05556, -1, -5.56177, 9.33419, 20.95, 13.1288, 89.5531, -110.089
2.06357, -1, -5.7443, 9.24025, 20.9871, 13.1311, 89.4549, -110.338
2.07165, -1, -5.92668, 9.14634, 21.0241, 13.1335, 89.3569, -110.586
2.07962, -1, -6.10911, 9.05251, 21.061, 13.1357, 89.2586, -110.835
2.08757, -1, -6.29187, 8.9587, 21.0981, 13.1379, 89.1606, -111.083
2.09563, -1, -6.47483, 8.86508, 21.135, 13.1401, 89.0629, -111.332
2.1036, -1, -6.65797, 8.77143, 21.1718, 13.1423, 88.9648, -111.58
2.11157, -1, -6.84154, 8.6778, 21.2087, 13.1445, 88.8668, -111.828
2.11969, -1, -7.02536, 8.58419, 21.2456, 13.1466, 88.7691, -112.076
2.12756, -1, -7.2095, 8.49063, 21.2824, 13.1487, 88.6711, -112.324
2.13563, -1, -7.39375, 8.39697, 21.3194, 13.1508, 88.5733, -112.571
2.14363, -1, -7.57755, 8.30333, 21.3562, 13.1529, 88.4758, -112.819
2.15157, -1, -7.76103, 8.20989, 21.3929, 13.1551, 88.3782, -113.067
2.15963, -1, -7.94411, 8.11648, 21.4298, 13.1574, 88.2807, -113.314
2.16763, -1, -8.12677, 8.02311, 21.4666, 13.1597, 88.1835, -113.561
2.17556, -1, -8.30862, 7.92984, 21.5033, 13.1618, 88.086, -113.808
2.18357, -1, -8.49001, 7.83657, 21.5402, 13.1641, 87.9886, -114.055
2.19163, -1, -8.67101, 7.74337, 21.577, 13.1664, 87.8913, -114.301
2.19962, -1, -8.85171, 7.65019, 21.6138, 13.1686, 87.7938, -114.548
2.20765, -1, -9.03249, 7.55711, 21.6505, 13.1708, 87.6964, -114.794
2.21562, -1, -9.21354, 7.46409, 21.6873, 13.1731, 87.5994, -115.041
2.22365, -1, -9.39476, 7.37129, 21.7239, 13.1753, 87.5022, -115.287
2.23173, -1, -9.57646, 7.27847, 21.7606, 13.1775, 87.405, -115.533
2.23971, -1, -9.75842, 7.18564, 21.7973, 13.1798, 87.308, -115.779
2.24767, -1, -9.94074, 7.09293, 21.8338, 13.1819, 87.2108, -116.025
2.25575, -1, -10.1232, 7.00018, 21.8704, 13.1842, 87.1136, -116.271
2.26362, -1, -10.3059, 6.90738, 21.907, 13.1864, 87.0165, -116.517
2.27167, -1, -10.4885, 6.81457, 21.9436, 13.1886, 86.9193, -116.762
2.27982, -1, -10.6708, 6.7219, 21.9802, 13.1909, 86.8223, -117.008
2.2876, -1, -10.8525, 6.6293, 22.0166, 13.1933, 86.7254, -117.253
2.29594, -1, -11.0338, 6.53673, 22.053, 13.1958, 86.6285, -117.498
2.30384, -1, -11.2143, 6.44422, 22.0896, 13.1981, 86.5318, -117.743
2.31181, -1, -11.3942, 6.35168, 22.1262, 13.2005, 86.4353, -117.988
2.31996, -1, -11.5738, 6.25927, 22.1625, 13.2029, 86.3385, -118.233
2.3279, -1, -11.7531, 6.16684, 22.199, 13.2054, 86.2418, -118.478
2.33596, -1, -11.9324, 6.0745, 22.2355, 13.2079, 86.1453, -118.722
2.34435, -1, -12.1116, 5.98227, 22.2718, 13.2104, 86.0486, -118.966
2.3521, -1, -12.2911, 5.89019, 22.3083, 13.2128, 85.9522, -119.21
2.36008, -1, -12.471, 5.79815, 22.3447, 13.2153, 85.856, -119.455
2.36818, -1, -12.6513, 5.70614, 22.3808, 13.2177, 85.7596, -119.699
2.37614, -1, -12.8319, 5.61417, 22.4172, 13.2202, 85.6634, -119.943
2.38408, -1, -12.9224, 5.56824, 22.4354, 13.2227, 85.5676, -120.186
2.39237, -1, -13.1035, 5.47628, 22.4717, 13.2251, 85.4715, -120.43
2.39956, -1, -13.2848, 5.38423, 22.5078, 13.2263, 85.4235, -120.552
2.40756, -1, -13.4658, 5.29231, 22.5441, 13.2287, 85.3279, -120.795
2.4156, -1, -13.6463, 5.2004, 22.5803, 13.2313, 85.232, -121.038
2.42356, -1, -13.8265, 5.10854, 22.6164, 13.2339, 85.1362, -121.281
2.43162, -1, -14.0061, 5.01674, 22.6526, 13.2365, 85.0405, -121.524
2.4396, -1, -14.1848, 4.92501, 22.6887, 13.2391, 84.9449, -121.767
2.44756, -1, -14.3632, 4.8333, 22.7248, 13.2416, 84.8493, -122.01
2.4556, -1, -14.5411, 4.74168, 22.761, 13.2442, 84.7538, -122.252
2.46355, -1, -14.7188, 4.65008, 22.7972, 13.2466, 84.6582, -122.495
2.47164, -1, -14.8964, 4.55858, 22.8332, 13.2491, 84.5624, -122.737
2.47961, -1, -15.074, 4.46712, 22.8694, 13.2516, 84.4668, -122.98
2.48765, -1, -15.2521, 4.37583, 22.9056, 13.254, 84.3711, -123.222
2.49566, -1, -15.4306, 4.2845, 22.9416, 13.2565, 84.2754, -123.463
2.50362, -1, -15.6094, 4.19322, 22.9776, 13.2588, 84.1799, -123.705
2.51156, -1, -15.7886, 4.10196, 23.0136, 13.2611, 84.0844, -123.947
2.51955, -1, -15.9678, 4.01075, 23.0495, 13.2634, 83.9889, -124.188
2.52855, -1, -16.1474, 3.91944, 23.0856, 13.2655, 83.8936, -124.43
2.53555, -1, -16.3271, 3.82817, 23.1216, 13.2677, 83.7981, -124.671
2.54459, -1, -16.5065, 3.73697, 23.1574, 13.2699, 83.7027, -124.913
2.55164, -1, -16.6856, 3.64584, 23.1932, 13.2722, 83.6072, -125.154
2.55955, -1, -16.864, 3.55476, 23.229, 13.2744, 83.5119, -125.395
2.56756, -1, -17.0416, 3.46374, 23.2649, 13.2766, 83.4165, -125.636
2.57555, -1, -17.2185, 3.37278, 23.3007, 13.2788, 83.3212, -125.877
2.58355, -1, -17.3951, 3.28192, 23.3365, 13.2811, 83.2263, -126.117
2.59163, -1, -17.5713, 3.19107, 23.3723, 13.2832, 83.1311, -126.358
2.59955, -1, -17.7474, 3.10046, 23.4081, 13.2855, 83.0362, -126.598
2.60758, -1, -17.9234, 3.00987, 23.444, 13.2875, 82.9415, -126.838
2.61563, -1, -18.0996, 2.9194, 23.4797, 13.2896, 82.8466, -127.079
2.62355, -1, -18.2761, 2.82907, 23.5154, 13.2918, 82.7519, -127.319
2.63159, -1, -18.4531, 2.73864, 23.5512, 13.2939, 82.6573, -127.558
2.63969, -1, -18.6306, 2.64824, 23.5868, 13.2959, 82.5626, -127.798
2.64755, -1, -18.8083, 2.55793, 23.6225, 13.2979, 82.468, -128.037
2.65554, -1, -18.9863, 2.46751, 23.6583, 13.2998, 82.3737, -128.277
2.66363, -1, -19.1645, 2.37705, 23.6939, 13.3019, 82.2792, -128.516
2.67157, -1, -19.3428, 2.28669, 23.7294, 13.3039, 82.1848, -128.756
2.67955, -1, -19.5205, 2.19633, 23.7651, 13.306, 82.091, -128.995
2.68763, -1, -19.6975, 2.10597, 23.8006, 13.3082, 81.9967, -129.234
2.69556, -1, -19.874, 2.01567, 23.836, 13.3104, 81.9025, -129.473
2.70359, -1, -20.0498, 1.9254, 23.8716, 13.3125, 81.8086, -129.712
2.71178, -1, -20.225, 1.83519, 23.9072, 13.3147, 81.7144, -129.95
2.7196, -1, -20.3999, 1.7451, 23.9426, 13.3169, 81.6204, -130.188
2.72771, -1, -20.5745, 1.65502, 23.9782, 13.3191, 81.5266, -130.427
2.73646, -1, -20.749, 1.56506, 24.0138, 13.3213, 81.4325, -130.665
2.74364, -1, -20.9236, 1.4752, 24.0492, 13.3235, 81.3388, -130.903
2.75172, -1, -21.0986, 1.3855, 24.0848, 13.3256, 81.2452, -131.141
2.75966, -1, -21.2739, 1.29571, 24.1203, 13.3279, 81.1512, -131.379
2.76762, -1, -21.4496, 1.20597, 24.1557, 13.33, 81.0573, -131.617
2.77575, -1, -21.6257, 1.11634, 24.1911, 13.3323, 80.9636, -131.854
2.78605, -1, -21.8018, 1.02668, 24.2266, 13.3344, 80.8697, -132.092
2.79167, -1, -21.9782, 0.937029, 24.2621, 13.3366, 80.776, -132.329
2.79967, -1, -22.1547, 0.847438, 24.2975, 13.3387, 80.6824, -132.566
2.8085, -1, -22.3313, 0.757888, 24.3329, 13.3409, 80.5887, -132.803
2.81581, -1, -22.5074, 0.66841, 24.3681, 13.3432, 80.4951, -133.04
2.82388, -1, -22.683, 0.578907, 24.4034, 13.3455, 80.4015, -133.277
2.83266, -1, -22.858, 0.489477, 24.4387, 13.3479, 80.3079, -133.514
2.84003, -1, -23.032, 0.400028, 24.474, 13.3503, 80.2143, -133.751
2.84803, -1, -23.2056, 0.31065, 24.5091, 13.3528, 80.1208, -133.988
2.8568, -1, -23.379, 0.221312, 24.5444, 13.3552, 80.0275, -134.224
2.86411, -1, -23.552, 0.132056, 24.5796, 13.3577, 79.9341, -134.46
2.87214, -1, -23.7253, 0.0429225, 24.6147, 13.36, 79.8407, -134.696
2.88101, -1, -23.8119, -0.0461544, 24.65, 13.3624, 79.7478, -134.932
2.88823, -1, -24.0721, -0.135101, 24.6851, 13.3649, 79.6544, -135.169
2.89553, -1, -24.159, -0.179594, 24.7027, 13.3661, 79.6079, -135.287
2.90354, -1, -24.333, -0.268554, 24.7378, 13.3685, 79.5149, -135.522
2.91159, -1, -24.5073, -0.357439, 24.773, 13.371, 79.4219, -135.758
2.91953, -1, -24.6818, -0.446309, 24.8081, 13.3734, 79.3288, -135.993
2.92755, -1, -24.8567, -0.535199, 24.8431, 13.3758, 79.2358, -136.229
2.93559, -1, -25.0318, -0.624061, 24.8783, 13.3782, 79.1428, -136.464
2.94357, -1, -25.2067, -0.71291, 24.9133, 13.3806, 79.0498, -136.699
2.95155, -1, -25.3812, -0.801651, 24.9483, 13.383, 78.9571, -136.934
2.95958, -1, -25.5554, -0.890513, 24.9834, 13.3854, 78.8645, -137.169
2.96754, -1, -25.729, -0.979258, 25.0183, 13.3879, 78.7717, -137.404
2.9756, -1, -25.9019, -1.06792, 25.0531, 13.3903, 78.6791, -137.639
2.98358, -1, -26.0744, -1.15667, 25.0882, 13.3928, 78.5869, -137.873
2.99153, -1, -26.2465, -1.24531, 25.1231, 13.3952, 78.4942, -138.108
2.99955, -1, -26.4183, -1.33379, 25.1579, 13.3975, 78.4016, -138.342
3.00754, -1, -26.5901, -1.42221, 25.1929, 13.3999, 78.3094, -138.577
3.01556, -1, -26.7621, -1.51052, 25.2279, 13.4021, 78.2166, -138.811
3.02453, -1, -26.9344, -1.59875, 25.2627, 13.4044, 78.1242, -139.045
3.03154, -1, -27.1068, -1.68689, 25.2976, 13.4066, 78.0322, -139.279
3.04059, -1, -27.2793, -1.77515, 25.3325, 13.4088, 77.9398, -139.513
3.0476, -1, -27.4522, -1.86325, 25.3673, 13.411, 77.8478, -139.746
3.05553, -1, -27.6253, -1.95134, 25.402, 13.4131, 77.7559, -139.98
3.06355, -1, -27.7985, -2.03954, 25.4369, 13.4152, 77.6638, -140.213
3.07161, -1, -27.9718, -2.12756, 25.4717, 13.4173, 77.5718, -140.447
3.07963, -1, -28.145, -2.21561, 25.5064, 13.4194, 77.4798, -140.68
3.08754, -1, -28.3182, -2.30369, 25.5412, 13.4214, 77.3878, -140.913
3.0956, -1, -28.4909, -2.39176, 25.5759, 13.4235, 77.2957, -141.146
3.10353, -1, -28.6634, -2.47973, 25.6105, 13.4256, 77.2036, -141.379
3.11158, -1, -28.8353, -2.56774, 25.6452, 13.4278, 77.1116, -141.612
3.11966, -1, -29.0062, -2.65572, 25.6799, 13.43, 77.0198, -141.844
3.12753, -1, -29.1769, -2.74361, 25.7144, 13.4322, 76.9278, -142.077
3.1356, -1, -29.3475, -2.83141, 25.749, 13.4342, 76.8361, -142.309
3.1436, -1, -29.5182, -2.91913, 25.7837, 13.4363, 76.7441, -142.542
3.15153, -1, -29.6891, -3.0067, 25.8182, 13.4382, 76.6522, -142.774
3.15961, -1, -29.8601, -3.09425, 25.8528, 13.4403, 76.5607, -143.007
3.16753, -1, -30.031, -3.18174, 25.8874, 13.4424, 76.4687, -143.239
3.17554, -1, -30.2019, -3.26926, 25.9219, 13.4444, 76.377, -143.471
3.1836, -1, -30.3731, -3.35672, 25.9564, 13.4466, 76.2856, -143.702
3.19154, -1, -30.5446, -3.44419, 25.9909, 13.4486, 76.1939, -143.934
3.19966, -1, -30.7164, -3.53172, 26.0254, 13.4506, 76.1025, -144.166
3.20754, -1, -30.8883, -3.61906, 26.0598, 13.4527, 76.0112, -144.397
3.21556, -1, -31.0601, -3.7065, 26.0944, 13.4546, 75.9197, -144.629
3.22384, -1, -31.2318, -3.79383, 26.1288, 13.4567, 75.8284, -144.86
3.23162, -1, -31.4031, -3.88115, 26.1632, 13.4588, 75.7371, -145.092
3.23964, -1, -31.574, -3.96844, 26.1977, 13.461, 75.6458, -145.323
3.24799, -1, -31.7445, -4.05567, 26.2321, 13.4632, 75.5545, -145.554
3.25563, -1, -31.9145, -4.14296, 26.2665, 13.4653, 75.4634, -145.784
3.26363, -1, -32.0842, -4.23014, 26.3009, 13.4675, 75.3725, -146.015
3.27224, -1, -32.2536, -4.31723, 26.3353, 13.4697, 75.2812, -146.246
3.27959, -1, -32.423, -4.4043, 26.3695, 13.4719, 75.1902, -146.477
3.28757, -1, -32.5927, -4.49126, 26.4038, 13.474, 75.0997, -146.707
3.29641, -1, -32.7623, -4.57817, 26.4382, 13.4761, 75.0086, -146.937
3.30364, -1, -32.9319, -4.66512, 26.4725, 13.4783, 74.9178, -147.168
3.31194, -1, -33.1017, -4.75208, 26.5066, 13.4805, 74.8274, -147.398
3.32066, -1, -33.2715, -4.83894, 26.5409, 13.4827, 74.7365, -147.628
3.32781, -1, -33.4415, -4.92582, 26.5752, 13.485, 74.6459, -147.858
3.33596, -1, -33.6118, -5.01278, 26.6094, 13.4871, 74.5554, -148.088
3.3448, -1, -33.7822, -5.09957, 26.6436, 13.4894, 74.4648, -148.318
3.35201, -1, -33.9525, -5.18631, 26.6778, 13.4916, 74.3743, -148.548
3.36043, -1, -34.1227, -5.27303, 26.7119, 13.4938, 74.2838, -148.777
3.36891, -1, -34.2928, -5.35976, 26.7461, 13.4961, 74.1933, -149.006
3.37608, -1, -34.4629, -5.44638, 26.7803, 13.4984, 74.1026, -149.236
3.38415, -1, -34.6324, -5.53303, 26.8144, 13.5008, 74.012, -149.465
3.39304, -1, -34.7169, -5.57636, 26.8314, 13.502, 73.9669, -149.694
3.39859, -1, -34.8857, -5.66296, 26.8656, 13.5044, 73.8763, -149.809
3.40859, -1, -35.1383, -5.79271, 26.9168, 13.5081, 73.7405, -150.152
3.41552, -1, -35.2224, -5.83593, 26.9338, 13.5093, 73.6955, -150.267
3.42351, -1, -35.3906, -5.92225, 26.9679, 13.5117, 73.6052, -150.496
3.43158, -1, -35.5592, -6.00843, 27.002, 13.5141, 73.5148, -150.725
3.43953, -1, -35.7277, -6.09465, 27.036, 13.5164, 73.4244, -150.953
3.4476, -1, -35.8962, -6.18083, 27.07, 13.5188, 73.3342, -151.182
3.45551, -1, -36.0647, -6.26693, 27.1041, 13.5212, 73.2437, -151.41
3.46354, -1, -36.2332, -6.35305, 27.1381, 13.5236, 73.1533, -151.639
3.4716, -1, -36.4019, -6.43926, 27.172, 13.5261, 73.0631, -151.868
3.47958, -1, -36.5707, -6.52549, 27.206, 13.5284, 72.9726, -152.096
3.48752, -1, -36.7396, -6.61166, 27.24, 13.5307, 72.8823, -152.324
3.49559, -1, -36.9085, -6.69783, 27.2739, 13.533, 72.7924, -152.552
3.50351, -1, -37.0775, -6.78399, 27.3078, 13.5353, 72.7022, -152.78
3.51435, -1, -37.3307, -6.91314, 27.3586, 13.5387, 72.5673, -153.122
3.51962, -1, -37.415, -6.95613, 27.3756, 13.5399, 72.5224, -153.236
3.52751, -1, -37.5831, -7.04218, 27.4096, 13.5421, 72.4325, -153.463
3.53653, -1, -37.7509, -7.12821, 27.4436, 13.5443, 72.3427, -153.69
3.54359, -1, -37.9185, -7.21417, 27.4773, 13.5466, 72.2529, -153.918
3.55152, -1, -38.0859, -7.30007, 27.5112, 13.5488, 72.1632, -154.146
3.55951, -1, -38.2533, -7.38597, 27.5452, 13.551, 72.0734, -154.373
3.56751, -1, -38.4206, -7.47169, 27.579, 13.5531, 71.9837, -154.6
3.57551, -1, -38.5878, -7.55739, 27.6128, 13.5552, 71.8942, -154.827
3.58361, -1, -38.7551, -7.64312, 27.6468, 13.5573, 71.8045, -155.054
3.59154, -1, -38.9224, -7.72881, 27.6805, 13.5594, 71.715, -155.282
3.59951, -1, -39.0898, -7.8144, 27.7142, 13.5615, 71.626, -155.508
3.60758, -1, -39.2573, -7.90002, 27.7481, 13.5635, 71.5364, -155.735
3.6155, -1, -39.4247, -7.98573, 27.7819, 13.5655, 71.4471, -155.962
3.62351, -1, -39.5923, -8.07129, 27.8155, 13.5674, 71.3578, -156.189
3.63159, -1, -39.76, -8.15684, 27.8492, 13.5694, 71.2685, -156.415
3.63951, -1, -39.9277, -8.24235, 27.883, 13.5713, 71.1791, -156.642
3.64762, -1, -40.0953, -8.32783, 27.9167, 13.5733, 71.0897, -156.868
3.65559, -1, -40.2627, -8.41322, 27.9504, 13.5753, 71.0006, -157.094
3.66351, -1, -40.4301, -8.49862, 27.9842, 13.5772, 70.9111, -157.321
3.67156, -1, -40.5971, -8.584, 28.0178, 13.5792, 70.8219, -157.547
3.67962, -1, -40.764, -8.66941, 28.0514, 13.5812, 70.7329, -157.773
3.6875, -1, -40.9305, -8.75475, 28.0851, 13.5833, 70.6436, -157.998
3.69559, -1, -41.0968, -8.84006, 28.1188, 13.5853, 70.5545, -158.224
3.70351, -1, -41.263, -8.92531, 28.1524, 13.5873, 70.4655, -158.45
3.71152, -1, -41.4292, -9.01049, 28.186, 13.5892, 70.3763, -158.676
3.71975, -1, -41.5955, -9.09565, 28.2197, 13.5913, 70.287, -158.901
3.72759, -1, -41.7618, -9.18077, 28.2533, 13.5932, 70.198, -159.127
3.73561, -1, -41.9282, -9.26578, 28.2868, 13.5952, 70.1089, -159.352
3.74407, -1, -42.0946, -9.35082, 28.3205, 13.5972, 70.0199, -159.578
3.75164, -1, -42.2608, -9.43592, 28.3541, 13.5993, 69.931, -159.803
3.75962, -1, -42.427, -9.52093, 28.3876, 13.6014, 69.8423, -160.028
3.76819, -1, -42.5933, -9.6059, 28.4211, 13.6034, 69.7532, -160.253
3.77551, -1, -42.7598, -9.69089, 28.4546, 13.6054, 69.6643, -160.478
3.78355, -1, -42.9263, -9.77586, 28.488, 13.6075, 69.5757, -160.704
3.79163, -1, -43.0928, -9.86079, 28.5215, 13.6095, 69.4867, -160.928
3.80039, -1, -43.259, -9.94577, 28.555, 13.6115, 69.398, -161.153
3.80765, -1, -43.4251, -10.0307, 28.5885, 13.6136, 69.3094, -161.378
3.81583, -1, -43.5911, -10.1157, 28.622, 13.6157, 69.2208, -161.603
3.82457, -1, -43.7569, -10.2006, 28.6555, 13.6178, 69.1323, -161.828
3.83183, -1, -43.9227, -10.2854, 28.6888, 13.6201, 69.0438, -162.052
3.84001, -1, -44.0883, -10.3702, 28.7222, 13.6222, 68.9554, -162.276
3.84865, -1, -44.2536, -10.4549, 28.7557, 13.6243, 68.8667, -162.501
3.85599, -1, -44.4188, -10.5394, 28.7892, 13.6266, 68.778, -162.725
3.86411, -1, -44.5839, -10.624, 28.8224, 13.6287, 68.6895, -162.949
3.8727, -1, -44.7491, -10.7085, 28.8559, 13.6309, 68.6008, -163.173
3.88008, -1, -44.9145, -10.7929, 28.8894, 13.6331, 68.5123, -163.397
3.8882, -1, -45.0799, -10.8774, 28.9227, 13.6353, 68.4241, -163.621
3.89614, -1, -45.1626, -10.9197, 28.9394, 13.6364, 68.3798, -163.845
3.90405, -1, -45.3278, -11.0042, 28.9728, 13.6386, 68.2913, -163.957
3.9122, -1, -45.4931, -11.0887, 29.0062, 13.6409, 68.2029, -164.181
3.91953, -1, -45.6584, -11.1731, 29.0393, 13.6432, 68.115, -164.405
3.92855, -1, -45.9059, -11.2996, 29.0893, 13.6467, 67.9823, -164.74
3.93556, -1, -45.9877, -11.3414, 29.1061, 13.6478, 67.938, -164.852
3.9435, -1, -46.1491, -11.4238, 29.1395, 13.6501, 67.85, -165.075
3.95151, -1, -46.3061, -11.5031, 29.1731, 13.6525, 67.7625, -165.296
3.95955, -1, -46.4564, -11.5781, 29.2066, 13.6548, 67.6774, -165.512
3.9675, -1, -46.5974, -11.6479, 29.2388, 13.6571, 67.5959, -165.717
3.9755, -1, -46.7269, -11.7112, 29.2686, 13.6593, 67.5213, -165.907
3.98361, -1, -46.8418, -11.7673, 29.2949, 13.6613, 67.4544, -166.075
3.99151, -1, -46.9404, -11.8164, 29.317, 13.663, 67.3986, -166.217
3.99949, -1, -47.0228, -11.8592, 29.3335, 13.6643, 67.354, -166.33
4.00757, -1, -47.0899, -11.8959, 29.3447, 13.665, 67.3205, -166.414
4.01552, -1, -47.1421, -11.9253, 29.3518, 13.6654, 67.2973, -166.473
4.02349, -1, -47.1809, -11.9474, 29.3557, 13.6657, 67.2823, -166.51
4.03166, -1, -47.2084, -11.9628, 29.3575, 13.6658, 67.2736, -166.533
4.04055, -1, -47.2264, -11.9727, 29.3583, 13.6659, 67.2689, -166.544
4.0475, -1, -47.2372, -11.9785, 29.3587, 13.6659, 67.2665, -166.55
4.05557, 2, -47.2427, -11.9814, 29.3589, 13.666, 67.2654, -166.553
4.06349, 2, -47.2447, -11.9827, 29.359, 13.666, 67.2649, -166.554
4.07153, 2, -47.2447, -11.9832, 29.3591, 13.666, 67.2646, -166.555
4.07957, 2, -47.2446, -11.9833, 29.3592, 13.6661, 67.2645, -166.555
4.08748, 2, -47.2445, -11.9834, 29.3592, 13.666, 67.2645, -166.555
4.0955, 2, -47.2449, -11.9835, 29.3593, 13.6661, 67.2644, -166.555
4.10356, 2, -47.2458, -11.9838, 29.3593, 13.6661, 67.2644, -166.555
4.1115, 2, -47.2471, -11.9843, 29.3593, 13.6661, 67.2644, -166.555
4.1195, 2, -47.2488, -11.9851, 29.3593, 13.666, 67.2644, -166.555
4.12757, 2, -47.2504, -11.986, 29.3593, 13.666, 67.2644, -166.555
4.13549, 2, -47.2518, -11.9868, 29.3593, 13.6661, 67.2644, -166.555
4.14349, 2, -47.2527, -11.9874, 29.3593, 13.666, 67.2644, -166.555
4.15165, 2, -47.2531, -11.9878, 29.3593, 13.666, 67.2644, -166.555
4.15949, 2, -47.2533, -11.988, 29.3593, 13.6661, 67.2644, -166.555
4.16749, 2, -47.2533, -11.9881, 29.3593, 13.6661, 67.2644, -166.555
4.17556, 2, -47.253, -11.9881, 29.3593, 13.6661, 67.2644, -166.555
4.18353, 2, -47.2526, -11.9881, 29.3593, 13.6661, 67.2644, -166.555
4.1915, 2, -47.2521, -11.9881, 29.3593, 13.6661, 67.2644, -166.555
4.19957, 2, -47.2518, -11.988, 29.3593, 13.666, 67.2644, -166.555
4.20749, 2, -47.2516, -11.988, 29.3593, 13.6661, 67.2644, -166.555
4.2155, 2, -47.2516, -11.9881, 29.3593, 13.6661, 67.2644, -166.555
4.22374, 2, -47.2518, -11.9883, 29.3593, 13.6661, 67.2645, -166.555
4.2316, 2, -47.252, -11.9886, 29.3593, 13.6661, 67.2645, -166.555
4.23959, 2, -47.2526, -11.9889, 29.3593, 13.6661, 67.2645, -166.555
4.24766, 2, -47.2531, -11.9892, 29.3593, 13.6661, 67.2644, -166.555
4.2556, 2, -47.2534, -11.9894, 29.3593, 13.666, 67.2644, -166.555
4.2636, 2, -47.2536, -11.9895, 29.3593, 13.666, 67.2644, -166.555
4.27169, 2, -47.2536, -11.9895, 29.3593, 13.666, 67.2645, -166.555
4.27949, 2, -47.2535, -11.9895, 29.3593, 13.666, 67.2645, -166.555
4.28752, 2, -47.2533, -11.9895, 29.3593, 13.666, 67.2645, -166.555
4.2956, 2, -47.2528, -11.9894, 29.3593, 13.666, 67.2646, -166.555
4.30352, 2, -47.2525, -11.9894, 29.3593, 13.666, 67.2645, -166.555
4.3117, 2, -47.2522, -11.9894, 29.3593, 13.666, 67.2645, -166.555
4.31979, 2, -47.2521, -11.9894, 29.3593, 13.666, 67.2645, -166.555
4.32786, 2, -47.252, -11.9894, 29.3593, 13.666, 67.2645, -166.555
4.33587, 2, -47.2519, -11.9894, 29.3593, 13.666, 67.2644, -166.555
4.34392, 2, -47.2519, -11.9895, 29.3593, 13.666, 67.2645, -166.555
4.35202, 2, -47.2519, -11.9896, 29.3593, 13.666, 67.2645, -166.555
4.36005, 2, -47.2519, -11.9896, 29.3593, 13.666, 67.2645, -166.555
4.36805, 2, -47.252, -11.9896, 29.3593, 13.666, 67.2645, -166.555
4.37626, 2, -47.252, -11.9896, 29.3593, 13.666, 67.2645, -166.555
4.38411, 2, -47.2519, -11.9895, 29.3593, 13.666, 67.2645, -166.555
4.39213, 2, -47.2519, -11.9895, 29.3593, 13.666, 67.2644, -166.555
4.39999, 2, -47.2518, -11.9895, 29.3593, 13.6659, 67.2645, -166.555
4.40748, 2, -47.2518, -11.9894, 29.3593, 13.6659, 67.2645, -166.555
4.41553, 2, -47.2517, -11.9894, 29.3593, 13.666, 67.2646, -166.555
4.42348, 2, -47.2516, -11.9894, 29.3593, 13.666, 67.2646, -166.555
4.43149, 2, -47.2515, -11.9894, 29.3593, 13.666, 67.2646, -166.555
4.43953, 2, -47.2515, -11.9894, 29.3593, 13.666, 67.2646, -166.555
4.44748, 2, -47.2514, -11.9894, 29.3593, 13.666, 67.2646, -166.555
4.45548, 2, -47.2514, -11.9894, 29.3593, 13.666, 67.2646, -166.555
4.46353, 2, -47.2513, -11.9894, 29.3593, 13.666, 67.2646, -166.555
4.4715, 2, -47.2512, -11.9894, 29.3593, 13.6659, 67.2646, -166.555
4.47949, 2, -47.2512, -11.9894, 29.3593, 13.6659, 67.2645, -166.555
4.4876, 2, -47.2511, -11.9894, 29.3593, 13.666, 67.2646, -166.555
4.49548, 2, -47.251, -11.9894, 29.3593, 13.666, 67.2646, -166.555
4.50348, 2, -47.2509, -11.9893, 29.3593, 13.666, 67.2646, -166.555
4.51307, 2, -47.2508, -11.9892, 29.3593, 13.666, 67.2647, -166.555
4.51951, 2, -47.2507, -11.9892, 29.3593, 13.666, 67.2647, -166.555
4.52748, 2, -47.2507, -11.9892, 29.3593, 13.666, 67.2646, -166.555
4.53654, 2, -47.2506, -11.9892, 29.3593, 13.666, 67.2646, -166.555
4.54348, 2, -47.2505, -11.9892, 29.3593, 13.666, 67.2647, -166.555
4.5515, 2, -47.2504, -11.9892, 29.3593, 13.666, 67.2647, -166.555
4.55955, 2, -47.2503, -11.9892, 29.3593, 13.666, 67.2646, -166.555
4.56747, 2, -47.2502, -11.9892, 29.3593, 13.666, 67.2647, -166.555
4.57548, 2, -47.25, -11.9892, 29.3593, 13.666, 67.2647, -166.555
4.58356, 2, -47.2499, -11.9892, 29.3593, 13.6659, 67.2647, -166.555
4.59148, 2, -47.2498, -11.9892, 29.3593, 13.6659, 67.2647, -166.555
4.59952, 2, -47.2497, -11.9891, 29.3593, 13.6659, 67.2647, -166.555
4.60755, 2, -47.2496, -11.9891, 29.3593, 13.6659, 67.2647, -166.555
4.61547, 2, -47.2495, -11.989, 29.3593, 13.6659, 67.2647, -166.555
4.62348, 2, -47.2494, -11.9889, 29.3593, 13.6659, 67.2647, -166.555
4.63157, 2, -47.2493, -11.9889, 29.3593, 13.6659, 67.2647, -166.555
4.63948, 2, -47.2492, -11.9889, 29.3593, 13.6659, 67.2647, -166.555
4.64748, 2, -47.2491, -11.9889, 29.3593, 13.6659, 67.2647, -166.555
4.65561, 2, -47.2491, -11.9889, 29.3593, 13.6658, 67.2647, -166.555
4.66348, 2, -47.249, -11.9889, 29.3593, 13.6658, 67.2647, -166.555
4.6715, 2, -47.249, -11.9889, 29.3593, 13.6659, 67.2647, -166.555
4.67955, 2, -47.249, -11.9889, 29.3593, 13.6659, 67.2647, -166.555
4.68751, 2, -47.2489, -11.9889, 29.3593, 13.6658, 67.2647, -166.555
4.69548, 2, -47.2489, -11.9889, 29.3593, 13.6658, 67.2647, -166.555
4.70354, 2, -47.2488, -11.9888, 29.3594, 13.6659, 67.2647, -166.555
4.7115, 2, -47.2488, -11.9887, 29.3593, 13.6658, 67.2647, -166.555
4.71949, 2, -47.2487, -11.9887, 29.3593, 13.6658, 67.2648, -166.554
4.72762, 2, -47.2486, -11.9886, 29.3593, 13.6658, 67.2647, -166.554
4.73563, 2, -47.2485, -11.9886, 29.3593, 13.6658, 67.2648, -166.555
4.74359, 2, -47.2484, -11.9886, 29.3593, 13.6658, 67.2648, -166.555
4.75166, 2, -47.2484, -11.9886, 29.3593, 13.6658, 67.2647, -166.555
4.75958, 2, -47.2484, -11.9886, 29.3593, 13.6658, 67.2647, -166.555
4.76759, 2, -47.2483, -11.9886, 29.3593, 13.6657, 67.2648, -166.555
4.77566, 2, -47.2484, -11.9886, 29.3593, 13.6657, 67.2648, -166.555
4.78348, 2, -47.2483, -11.9886, 29.3593, 13.6658, 67.2648, -166.555
4.79153, 2, -47.2483, -11.9886, 29.3593, 13.6658, 67.2648, -166.554
4.79959, 2, -47.2484, -11.9885, 29.3593, 13.6658, 67.2648, -166.555
4.80757, 2, -47.2483, -11.9885, 29.3593, 13.6657, 67.2647, -166.554
4.81595, 2, -47.2482, -11.9884, 29.3593, 13.6657, 67.2647, -166.554
4.8238, 2, -47.2481, -11.9883, 29.3593, 13.6656, 67.2647, -166.554
4.83175, 2, -47.248, -11.9883, 29.3593, 13.6656, 67.2647, -166.554
4.84007, 2, -47.2479, -11.9882, 29.3593, 13.6657, 67.2648, -166.554
4.84851, 2, -47.2479, -11.9882, 29.3593, 13.6656, 67.2648, -166.554
4.85604, 2, -47.2478, -11.9882, 29.3593, 13.6656, 67.2648, -166.554
4.86433, 2, -47.2478, -11.9882, 29.3593, 13.6656, 67.2648, -166.554
4.87208, 2, -47.2478, -11.9882, 29.3593, 13.6656, 67.2648, -166.554
4.88006, 2, -47.2477, -11.9882, 29.3593, 13.6656, 67.2648, -166.554
4.88824, 2, -47.2477, -11.9882, 29.3593, 13.6656, 67.2649, -166.554
4.89614, 2, -47.2477, -11.9882, 29.3593, 13.6656, 67.2648, -166.554
4.90346, 2, -47.2477, -11.9882, 29.3593, 13.6656, 67.2648, -166.554
4.91228, 2, -47.2477, -11.9881, 29.3593, 13.6656, 67.2649, -166.554
4.91953, 2, -47.2477, -11.9881, 29.3593, 13.6656, 67.2649, -166.554
4.92842, 2, -47.2476, -11.988, 29.3593, 13.6656, 67.265, -166.554
4.9357, 2, -47.2474, -11.988, 29.3593, 13.6655, 67.265, -166.554
4.94351, 2, -47.2473, -11.9879, 29.3593, 13.6655, 67.265, -166.554
4.95148, 2, -47.2472, -11.9879, 29.3593, 13.6655, 67.265, -166.554
4.95946, 2, -47.2472, -11.9879, 29.3593, 13.6655, 67.265, -166.554
4.96751, 2, -47.2471, -11.9879, 29.3593, 13.6655, 67.265, -166.554
4.97546, 2, -47.2471, -11.9879, 29.3593, 13.6655, 67.265, -166.554
4.98347, 2, -47.2471, -11.9879, 29.3593, 13.6655, 67.265, -166.554
4.9916, 2, -47.2471, -11.9879, 29.3593, 13.6655, 67.265, -166.554
4.99946, 2, -47.247, -11.9879, 29.3593, 13.6655, 67.265, -166.554
5.00746, 2, -47.247, -11.9878, 29.3593, 13.6654, 67.265, -166.554
5.01553, 2, -47.247, -11.9878, 29.3593, 13.6654, 67.265, -166.554
5.0235, 2, -47.2469, -11.9877, 29.3593, 13.6654, 67.2651, -166.554
5.03148, 2, -47.2468, -11.9877, 29.3593, 13.6654, 67.2651, -166.554
5.03953, 2, -47.2468, -11.9876, 29.3593, 13.6654, 67.2651, -166.554
5.04852, 2, -47.2467, -11.9876, 29.3593, 13.6654, 67.2651, -166.554
5.05747, 2, -47.2466, -11.9876, 29.3593, 13.6654, 67.2651, -166.554
5.06353, 2, -47.2466, -11.9875, 29.3593, 13.6654, 67.2651, -166.554
5.07147, 2, -47.2465, -11.9876, 29.3593, 13.6654, 67.2651, -166.554
5.07946, 2, -47.2464, -11.9875, 29.3593, 13.6653, 67.2651, -166.554
5.08754, 2, -47.2464, -11.9875, 29.3593, 13.6653, 67.2652, -166.554
5.09546, 2, -47.2464, -11.9875, 29.3593, 13.6653, 67.2652, -166.554
5.10346, 2, -47.2464, -11.9875, 29.3593, 13.6653, 67.2652, -166.554
5.11155, 2, -47.2464, -11.9875, 29.3593, 13.6652, 67.2652, -166.554
5.11946, 2, -47.2464, -11.9875, 29.3593, 13.6652, 67.2652, -166.554
5.12747, 2, -47.2463, -11.9874, 29.3593, 13.6652, 67.2652, -166.554
5.13554, 2, -47.2462, -11.9874, 29.3593, 13.6652, 67.2652, -166.554
5.14346, 4, -47.2461, -11.9873, 29.3593, 13.6652, 67.2652, -166.554
5.15146, 4, -47.2461, -11.9873, 29.3593, 13.6652, 67.2652, -166.554
5.15959, 4, -47.246, -11.9873, 29.3593, 13.6651, 67.2652, -166.554
5.16747, 4, -47.246, -11.9873, 29.3593, 13.6651, 67.2652, -166.554
5.17546, 4, -47.2459, -11.9873, 29.3593, 13.6651, 67.2652, -166.554
5.18352, 4, -47.2459, -11.9872, 29.3593, 13.6651, 67.2653, -166.554
5.1915, 4, -47.2459, -11.9872, 29.3593, 13.6651, 67.2652, -166.554
5.19946, 4, -47.2458, -11.9872, 29.3593, 13.6651, 67.2652, -166.554
5.20754, 4, -47.2458, -11.9872, 29.3593, 13.6651, 67.2653, -166.554
5.21546, 4, -47.2458, -11.9872, 29.3593, 13.6651, 67.2653, -166.554
5.22347, 4, -47.2457, -11.9871, 29.3593, 13.6651, 67.2652, -166.554
5.23166, 4, -47.2457, -11.9871, 29.3593, 13.6651, 67.2652, -166.554
5.23973, 4, -47.2457, -11.987, 29.3593, 13.6651, 67.2653, -166.554
5.25509, 4, -47.2456, -11.987, 29.3593, 13.665, 67.2653, -166.554
5.25708, 4, -47.2455, -11.987, 29.3593, 13.665, 67.2653, -166.554
5.26939, 4, -47.2454, -11.987, 29.3593, 13.665, 67.2653, -166.553
5.27211, 4, -47.2454, -11.987, 29.3593, 13.665, 67.2653, -166.554
5.27974, 4, -47.2453, -11.987, 29.3593, 13.665, 67.2653, -166.554
5.28782, 4, -47.2453, -11.9869, 29.3593, 13.6651, 67.2653, -166.554
5.29925, 4, -47.2453, -11.9869, 29.3593, 13.665, 67.2653, -166.554
5.30765, 4, -47.2452, -11.9869, 29.3593, 13.665, 67.2653, -166.554
5.31563, 4, -47.2452, -11.9869, 29.3593, 13.6649, 67.2653, -166.553
5.32061, 4, -47.2452, -11.9868, 29.3593, 13.6649, 67.2653, -166.553
5.32984, 4, -47.2452, -11.9868, 29.3593, 13.6649, 67.2653, -166.553
5.3361, 4, -47.2452, -11.9868, 29.3593, 13.665, 67.2653, -166.553
5.34456, 4, -47.2451, -11.9868, 29.3593, 13.6649, 67.2653, -166.553
5.35227, 4, -47.2451, -11.9867, 29.3593, 13.6649, 67.2653, -166.553
5.36039, 4, -47.2451, -11.9867, 29.3593, 13.6649, 67.2653, -166.553
5.3721, 4, -47.2449, -11.9867, 29.3593, 13.6648, 67.2653, -166.553
5.37641, 4, -47.2449, -11.9867, 29.3593, 13.6648, 67.2653, -166.553
5.38473, 4, -47.2449, -11.9866, 29.3593, 13.6649, 67.2654, -166.553
5.39332, 4, -47.2448, -11.9866, 29.3593, 13.6648, 67.2653, -166.553
5.40293, 4, -47.245, -11.9867, 29.3593, 13.6648, 67.2654, -166.553
5.40939, 4, -47.2459, -11.9872, 29.3597, 13.665, 67.2655, -166.553
5.41739, 4, -47.2482, -11.9889, 29.3616, 13.6667, 67.2661, -166.553
5.42894, 4, -47.2557, -11.9971, 29.3723, 13.6867, 67.2709, -166.55
5.43334, 5, -47.2597, -12.0022, 29.3798, 13.7015, 67.2748, -166.548
5.44272, 5, -47.2713, -12.0173, 29.4045, 13.7506, 67.2884, -166.537
5.44861, 5, -47.2894, -12.0416, 29.4472, 13.8386, 67.3129, -166.518
5.45568, 5, -47.3017, -12.0578, 29.4772, 13.9013, 67.3307, -166.504
5.46361, 5, -47.3337, -12.0994, 29.5589, 14.0736, 67.3788, -166.464
5.47162, 5, -47.3773, -12.1548, 29.6736, 14.3195, 67.4466, -166.407
5.48132, 5, -47.4337, -12.225, 29.8247, 14.6473, 67.5364, -166.333
5.48975, 5, -47.5422, -12.3587, 30.1235, 15.2966, 67.7113, -166.184
5.49806, 5, -47.6297, -12.4662, 30.3692, 15.8256, 67.8518, -166.064
5.50357, 5, -47.6776, -12.525, 30.5044, 16.1144, 67.928, -165.999
5.51168, 5, -47.7807, -12.6516, 30.7969, 16.7312, 68.0891, -165.861
5.52165, 5, -47.9497, -12.8603, 31.2791, 17.7269, 68.3433, -165.642
5.52765, 5, -48.0086, -12.9336, 31.4482, 18.0695, 68.4294, -165.568
5.53735, 5, -48.129, -13.0836, 31.7934, 19.1096, 68.6855, -165.345
5.54606, 5, -48.3112, -13.3104, 32.3203, 19.7997, 68.852, -165.199
5.55168, 5, -48.3711, -13.3845, 32.496, 20.1392, 68.9337, -165.126
5.55965, 5, -48.4869, -13.5288, 32.8438, 20.8027, 69.0938, -164.977
5.56771, 6, -48.5935, -13.6654, 33.1813, 21.4354, 69.2516, -164.814
5.5756, 6, -48.6862, -13.7921, 33.5039, 22.0267, 69.4092, -164.626
5.58462, 7, -48.761, -13.9092, 33.8074, 22.5711, 69.5693, -164.399
5.59157, 7, -48.8149, -14.0178, 34.0904, 23.0649, 69.7336, -164.121
5.60391, 8, -48.8538, -14.1659, 34.4777, 23.7184, 69.9915, -163.588
5.60761, 8, -48.8561, -14.2107, 34.598, 23.9166, 70.0813, -163.378
5.61707, 8, -48.8473, -14.2934, 34.8292, 24.2911, 70.2667, -162.91
5.62361, 9, -48.823, -14.3684, 35.0505, 24.6447, 70.4611, -162.386
5.63163, 9, -48.7858, -14.4379, 35.2648, 24.9879, 70.6648, -161.816
5.64398, 10, -48.7108, -14.5364, 35.5825, 25.4998, 70.9877, -160.904
5.6476, 10, -48.6812, -14.5686, 35.6885, 25.672, 71.0996, -160.59
5.66074, 11, -48.5807, -14.664, 36.007, 26.1966, 71.4445, -159.634
5.66471, 11, -48.5441, -14.6955, 36.1136, 26.3744, 71.5614, -159.314
5.67434, 12, -48.4676, -14.758, 36.3263, 26.9186, 71.9159, -158.355
5.67967, 12, -48.389, -14.8202, 36.5369, 27.1037, 72.0351, -158.034
5.69046, 12, -48.31, -14.8809, 36.7457, 27.48, 72.2751, -157.068
5.69566, 13, -48.231, -14.9394, 36.9529, 27.865, 72.518, -156.744
5.70669, 14, -48.1508, -15.0252, 37.2595, 28.4572, 72.888, -155.764
5.7126, 14, -48.0681, -15.0544, 37.3611, 28.658, 73.0127, -155.435
5.7216, 15, -47.9817, -15.1141, 37.5642, 29.0627, 73.2635, -154.777
5.72878, 15, -47.8911, -15.1744, 37.7661, 29.4692, 73.5137, -154.122
5.73769, 16, -47.7955, -15.2339, 37.9662, 29.8747, 73.761, -153.471
5.7437, 16, -47.6934, -15.2928, 38.1651, 30.2767, 74.0036, -152.826
5.75184, 17, -47.5843, -15.3531, 38.3619, 30.6743, 74.2406, -152.188
5.76434, 18, -47.4095, -15.4477, 38.6505, 31.2616, 74.5842, -151.242
5.7779, 18, -47.2236, -15.5447, 38.9328, 31.8395, 74.9148, -150.31
5.78147, 18, -47.1591, -15.5777, 39.0252, 32.0306, 75.0225, -150.003
5.78441, 18, -47.0931, -15.6114, 39.1168, 32.2214, 75.1291, -149.698
5.79243, 20, -46.9567, -15.6814, 39.2982, 32.6027, 75.3396, -149.09
5.81401, 20, -46.5927, -15.8651, 39.7452, 33.5536, 75.8491, -147.599
5.8199, 21, -46.5169, -15.9024, 39.8329, 33.7433, 75.9479, -147.306
5.82188, 21, -46.4402, -15.94, 39.9201, 33.9328, 76.0456, -147.014
5.82649, 21, -46.3626, -15.978, 40.007, 34.1219, 76.1424, -146.724
5.83202, 21, -46.2049, -16.0552, 40.1799, 34.4997, 76.3326, -146.149
5.84, 22, -46.0435, -16.1337, 40.3505, 34.8762, 76.519, -145.58
5.85364, 23, -45.7921, -16.2549, 40.6007, 35.4378, 76.7918, -144.737
5.85673, 23, -45.705, -16.2964, 40.6827, 35.6236, 76.8805, -144.459
5.86782, 24, -45.5251, -16.3815, 40.8445, 35.992, 77.1394, -143.63
5.87244, 24, -45.3371, -16.4689, 41.0019, 36.3546, 77.2225, -143.357
5.88068, 25, -45.1414, -16.5584, 41.1546, 36.7088, 77.3834, -142.815
5.88903, 25, -44.9384, -16.6489, 41.3029, 37.053, 77.5361, -142.278
5.89636, 26, -44.7288, -16.7401, 41.4469, 37.3871, 77.6809, -141.746
5.90703, 26, -44.5123, -16.8325, 41.5861, 37.7112, 77.8186, -141.22
5.91238, 26, -44.4014, -16.8791, 41.6537, 37.8699, 77.9509, -140.697
5.92165, 27, -44.0582, -17.0196, 41.8485, 38.3344, 78.0787, -140.175
5.92859, 27, -43.8211, -17.1128, 41.9711, 38.6354, 78.204, -139.653
5.93561, 28, -43.7, -17.1589, 42.03, 38.7835, 78.2659, -139.392
5.94358, 28, -43.4523, -17.2501, 42.1426, 39.0747, 78.3884, -138.871
5.9547, 29, -43.0681, -17.3834, 42.2985, 39.499, 78.5703, -138.088
5.96129, 30, -42.9368, -17.4267, 42.3468, 39.6369, 78.6891, -137.565
5.96983, 30, -42.5327, -17.5524, 42.4806, 40.0389, 78.806, -137.042
5.97564, 31, -42.394, -17.5928, 42.5215, 40.1688, 78.8635, -136.78
5.98352, 31, -42.1105, -17.6719, 42.5981, 40.4221, 78.9758, -136.259
5.99497, 32, -41.6713, -17.7859, 42.6997, 40.7847, 79.1385, -135.477
6.0039, 32, -41.37, -17.8585, 42.7591, 41.015, 79.2421, -134.957
6.00919, 33, -41.0621, -17.9282, 42.8115, 41.2367, 79.3425, -134.44
6.01815, 33, -40.7471, -17.9954, 42.8568, 41.4502, 79.4402, -133.924
6.02564, 34, -40.4253, -18.0602, 42.8949, 41.6555, 79.5349, -133.408
6.03172, 34, -40.2625, -18.0917, 42.9112, 41.7551, 79.5813, -133.15
6.0396, 35, -39.9333, -18.1528, 42.9384, 41.9485, 79.6725, -132.636
6.04761, 35, -39.5988, -18.2107, 42.9586, 42.1344, 79.7614, -132.123
6.05787, 36, -39.0851, -18.2912, 42.9757, 42.3995, 79.891, -131.355
6.06372, 36, -38.9103, -18.3163, 42.978, 42.4839, 79.933, -131.1
6.07421, 37, -38.5554, -18.364, 42.9778, 42.6471, 80.016, -130.59
6.08058, 37, -38.1948, -18.4082, 42.9708, 42.8028, 80.0964, -130.081
6.09052, 38, -37.6436, -18.4675, 42.9473, 43.0223, 80.2139, -129.322
6.09568, 38, -37.4576, -18.4854, 42.9362, 43.0919, 80.2519, -129.07
6.10417, 39, -37.0819, -18.5189, 42.909, 43.2252, 80.3267, -128.566
6.11161, 39, -36.7016, -18.5488, 42.875, 43.3513, 80.3986, -128.064
6.12244, 40, -36.1217, -18.5867, 42.8114, 43.5267, 80.5037, -127.316
6.13078, 40, -35.7273, -18.6072, 42.7609, 43.6347, 80.5715, -126.819
6.13572, 41, -35.528, -18.6159, 42.7332, 43.686, 80.6049, -126.571
6.15047, 41, -34.9217, -18.6365, 42.606, 43.8729, 80.7322, -125.585
6.15254, 42, -34.7172, -18.6417, 42.606, 43.8729, 80.7322, -125.585
6.16312, 42, -34.0989, -18.6522, 42.4938, 43.9944, 80.8222, -124.852
6.16769, 43, -33.8913, -18.6541, 42.4533, 44.0314, 80.8516, -124.609
6.17692, 43, -33.4736, -18.6556, 42.3677, 44.0996, 80.9093, -124.124
6.18551, 44, -33.0507, -18.6537, 42.2763, 44.1614, 80.9642, -123.641
6.1925, 44, -32.6219, -18.648, 42.1792, 44.2154, 81.0186, -123.161
6.20156, 45, -32.1865, -18.6385, 42.0763, 44.2623, 81.0708, -122.684
6.20776, 45, -31.7452, -18.6251, 41.9674, 44.3022, 81.121, -122.208
6.21987, 46, -31.0764, -18.5987, 41.7929, 44.3478, 81.1943, -121.499
6.22779, 46, -30.6281, -18.5766, 41.6691, 44.3683, 81.24, -121.03
6.23172, 46, -30.4028, -18.5642, 41.6051, 44.3757, 81.2625, -120.796
6.23968, 47, -29.9491, -18.536, 41.4726, 44.385, 81.3074, -120.329
6.25275, 48, -29.2571, -18.4853, 41.2626, 44.3861, 81.3717, -119.633
6.25657, 48, -29.0232, -18.4663, 41.1895, 44.3821, 81.3925, -119.402
6.26377, 48, -28.5511, -18.425, 41.0389, 44.3677, 81.4343, -118.942
6.27175, 49, -28.0754, -18.3792, 40.8825, 44.3447, 81.476, -118.483
6.28128, 50, -27.5974, -18.3291, 40.7198, 44.3118, 81.5166, -118.025
6.28775, 50, -27.1164, -18.274, 40.5505, 44.2694, 81.5573, -117.568
6.29698, 51, -26.6303, -18.2133, 40.3748, 44.2185, 81.5995, -117.112
6.30445, 51, -26.1366, -18.147, 40.1927, 44.1572, 81.642, -116.657
6.31204, 52, -25.6352, -18.0752, 40.0034, 44.0864, 81.6844, -116.203
6.31989, 52, -25.1289, -17.998, 39.8066, 44.0053, 81.7283, -115.749
6.32802, 53, -24.6202, -17.9153, 39.6036, 43.9136, 81.7732, -115.296
6.33996, 53, -23.852, -17.7799, 39.2858, 43.7573, 81.8411, -114.617
6.34414, 54, -23.5932, -17.7315, 39.1758, 43.6999, 81.8649, -114.392
6.35623, 54, -23.0696, -17.63, 38.9503, 43.5108, 81.94, -113.713
6.36036, 55, -22.5374, -17.5225, 38.7175, 43.442, 81.9658, -113.487
6.36946, 55, -21.9994, -17.409, 38.4764, 43.2955, 82.0201, -113.035
6.38138, 56, -21.1877, -17.2276, 38.1026, 43.054, 82.1054, -112.356
6.38569, 56, -20.9158, -17.1642, 37.9747, 42.968, 82.1343, -112.13
6.39666, 57, -20.0899, -16.9659, 37.5815, 42.6933, 82.2239, -111.453
6.40126, 57, -19.81, -16.897, 37.4475, 42.5962, 82.2539, -111.228
6.41124, 58, -19.2438, -16.7549, 37.1743, 42.3928, 82.3157, -110.778
6.41697, 58, -18.9586, -16.6816, 37.0356, 42.2866, 82.3791, -110.327
6.42669, 59, -18.0983, -16.4529, 36.6099, 41.949, 82.4441, -109.878
6.43155, 59, -17.8103, -16.3741, 36.4645, 41.8303, 82.4781, -109.654
6.44076, 60, -16.9354, -16.1311, 36.0185, 41.4543, 82.5828, -108.98
6.44963, 60, -16.3397, -15.963, 35.7135, 41.187, 82.6563, -108.53
6.45677, 61, -15.7366, -15.7893, 35.4034, 40.9061, 82.7309, -108.081
6.46372, 61, -15.4334, -15.7004, 35.246, 40.7607, 82.7692, -107.856
6.47318, 62, -14.5201, -15.4275, 34.7659, 40.3058, 82.8865, -107.184
6.47959, 62, -14.2134, -15.3346, 34.6032, 40.1476, 82.9268, -106.959
6.48754, 63, -13.5925, -15.1447, 34.2746, 39.8219, 83.0087, -106.51
6.49565, 63, -12.9618, -14.9481, 33.9412, 39.4833, 83.093, -106.061
6.50366, 64, -12.3237, -14.7449, 33.6029, 39.1315, 83.1799, -105.611
6.5162, 64, -11.3587, -14.4291, 33.0835, 38.5777, 83.3174, -104.934
6.52163, 65, -10.7058, -14.2101, 32.7288, 38.1887, 83.4155, -104.481
6.53106, 65, -10.041, -13.9841, 32.3673, 37.7822, 83.5197, -104.025
6.53725, 66, -9.36559, -13.7511, 32.0003, 37.3562, 83.6302, -103.567
6.5459, 66, -9.02477, -13.6319, 31.8148, 37.1363, 83.688, -103.107
6.55157, 67, -8.33959, -13.388, 31.4394, 36.6823, 83.8085, -102.877
6.55955, 67, -7.64761, -13.1374, 31.057, 36.2098, 83.9358, -102.413
6.57058, 68, -6.59217, -12.7482, 30.4738, 35.471, 84.1392, -101.714
6.57664, 68, -6.23648, -12.6151, 30.2779, 35.2178, 84.21, -101.48
6.58366, 69, -5.52146, -12.3451, 29.8834, 34.7026, 84.3561, -101.01
6.59181, 69, -4.80245, -12.0693, 29.4861, 34.1764, 84.5069, -100.539
6.59956, 70, -4.07729, -11.7872, 29.0877, 33.6417, 84.6621, -100.066
6.60864, 70, -3.34503, -11.4975, 28.6905, 33.0974, 84.8212, -99.5922
6.6156, 71, -2.60684, -11.1992, 28.2939, 32.5415, 84.9851, -99.1173
6.62363, 71, -1.86404, -10.8948, 27.8958, 31.9732, 85.1557, -98.6427
6.6356, 72, -0.739129, -10.4278, 27.2953, 31.0923, 85.4288, -97.9285
6.64268, 72, 0.0162039, -10.1108, 26.8929, 30.4848, 85.6226, -97.4517
6.64856, 73, 0.394841, -9.94995, 26.691, 30.1765, 85.7229, -97.2129
6.65681, 73, 1.15392, -9.62285, 26.2871, 29.5521, 85.9292, -96.7355
6.66368, 74, 1.91651, -9.28984, 25.884, 28.9189, 86.1426, -96.258
6.67261, 74, 2.68341, -8.95088, 25.4841, 28.2793, 86.3628, -95.7793
6.67957, 74, 3.45345, -8.60649, 25.0887, 27.6336, 86.5888, -95.2991
6.68852, 75, 4.22569, -8.25504, 24.6979, 26.9821, 86.8205, -94.8165
6.69556, 75, 5.00061, -7.89791, 24.3108, 26.3284, 87.0582, -94.3319
6.70456, 76, 5.77801, -7.53478, 23.9275, 25.671, 87.3022, -93.8438
6.71256, 76, 6.55768, -7.16604, 23.5483, 25.0103, 87.5532, -93.3526
6.72734, 77, 7.73011, -6.59749, 22.9844, 24.018, 87.9452, -92.3626
6.73749, 78, 8.90781, -6.00507, 22.4262, 23.0164, 88.3604, -91.8636
6.73962, 78, 9.30159, -5.80274, 22.2419, 22.6793, 88.5052, -91.6123
6.74388, 78, 9.696, -5.59834, 22.0581, 22.3406, 88.6536, -91.36
6.75151, 79, 10.4866, -5.18418, 21.6924, 21.6574, 88.961, -90.8516
6.75979, 79, 11.2777, -4.76273, 21.3293, 20.9695, 89.2822, -90.338
6.76759, 80, 12.0666, -4.33048, 20.9702, 20.2786, 89.615, -89.819
6.77552, 80, 12.8502, -3.88704, 20.6158, 19.5905, 89.958, -89.2934
6.7836, 81, 13.6276, -3.43612, 20.2674, 18.9113, 90.3092, -88.7624
6.79155, 81, 14.3987, -2.97975, 19.9267, 18.2461, 90.6666, -88.2267
6.7995, 82, 15.1613, -2.51632, 19.5968, 17.5971, 91.0277, -87.6884
6.80745, 82, 15.9142, -2.04516, 19.2773, 16.9657, 91.3922, -87.1473
6.81641, 83, 16.6542, -1.56753, 18.9678, 16.3543, 91.7596, -86.6051
6.82363, 83, 17.3801, -1.0853, 18.668, 15.7626, 92.1312, -86.0622
6.8326, 84, 18.0913, -0.599252, 18.3773, 15.1904, 92.5078, -85.5215
6.83979, 84, 18.7855, -0.110168, 18.0951, 14.6386, 92.8905, -84.9828
6.84774, 85, 19.462, 0.383289, 17.8187, 14.1068, 93.2804, -84.4467
6.85588, 85, 20.1195, 0.881468, 17.549, 13.5951, 93.6781, -83.9137
6.86455, 85, 20.7596, 1.38404, 17.2858, 13.1034, 94.082, -83.384
6.87205, 86, 21.3848, 1.89158, 17.0291, 12.6312, 94.4912, -82.8559
6.87996, 86, 21.9968, 2.40633, 16.7792, 12.1785, 94.906, -82.3265
6.88852, 87, 22.5969, 2.93095, 16.5339, 11.7444, 95.3274, -81.794
6.89599, 87, 23.1865, 3.46499, 16.2924, 11.3278, 95.7562, -81.2564
6.90397, 88, 23.4777, 3.73437, 16.1727, 11.1251, 95.9736, -80.7123
6.91211, 88, 24.0522, 4.27711, 15.9344, 10.7311, 96.6363, -80.1584
6.92033, 89, 24.6155, 5.10696, 15.5847, 10.1687, 97.0863, -79.5946
6.9274, 89, 25.169, 5.38978, 15.4709, 9.98921, 97.3134, -79.3085
6.93545, 89, 25.7162, 5.96473, 15.2466, 9.6428, 97.7705, -78.728
6.9434, 90, 26.2606, 6.55095, 15.0278, 9.31222, 98.2312, -78.1339
6.95141, 90, 26.7985, 7.14694, 14.8154, 8.99829, 98.6964, -77.5257
6.95952, 91, 27.3249, 7.75157, 14.6089, 8.70172, 99.1671, -76.9038
6.96746, 91, 27.8395, 8.36654, 14.407, 8.4229, 99.6442, -76.2695
6.9754, 92, 28.3457, 8.99226, 14.2087, 8.16384, 100.128, -75.6223
6.9834, 92, 28.8455, 9.62866, 14.0136, 7.92455, 100.617, -74.9649
6.99141, 93, 29.3364, 10.2732, 13.822, 7.70613, 101.112, -74.2995
7.00137, 94, 30.0487, 11.2528, 13.5452, 7.41928, 101.859, -73.2848
7.00741, 94, 30.279, 11.5823, 13.4561, 7.33507, 102.109, -72.9429
7.01722, 95, 30.9487, 12.5768, 13.1979, 7.11746, 102.854, -71.91
7.02351, 95, 31.165, 12.9095, 13.1153, 7.05674, 103.101, -71.5625
7.03142, 95, 31.5873, 13.5763, 12.956, 6.95312, 103.593, -70.8632
7.0395, 96, 31.9946, 14.2446, 12.8037, 6.87295, 104.081, -70.1596
7.04929, 96, 32.3851, 14.9137, 12.6579, 6.79813, 104.804, -69.0962
7.0554, 97, 32.759, 15.5821, 12.5191, 6.78386, 105.041, -68.7392
7.06346, 97, 33.1174, 16.2477, 12.3882, 6.77103, 105.512, -68.0241
7.07356, 98, 33.6274, 17.2353, 12.2091, 6.79258, 106.2, -66.9515
7.0794, 98, 33.7902, 17.5605, 12.1543, 6.80992, 106.423, -66.5938
7.08749, 99, 34.105, 18.2043, 12.0523, 6.85897, 106.86, -65.8817
7.0954, 99, 34.4067, 18.8388, 11.9608, 6.92829, 107.28, -65.1751
7.1034, 100, 34.6965, 19.4636, 11.8792, 7.01451, 107.685, -64.4731
7.11141, 100, 34.9736, 20.0781, 11.8071, 7.11798, 108.074, -63.7784
7.1194, 101, 35.2368, 20.6799, 11.7429, 7.23629, 108.448, -63.0931
7.12748, 101, 35.4868, 21.2682, 11.6861, 7.36767, 108.808, -62.4155
7.13544, 102, 35.7245, 21.8421, 11.6367, 7.50956, 109.154, -61.749
7.14339, 102, 35.9494, 22.4009, 11.5942, 7.65982, 109.485, -61.0956
7.15148, 102, 36.1625, 22.9453, 11.5587, 7.8166, 109.801, -60.4557
7.1594, 103, 36.3667, 23.4748, 11.5304, 7.97869, 110.102, -59.8296
7.16742, 103, 36.5647, 23.9897, 11.5103, 8.14667, 110.387, -59.2179
7.17546, 104, 36.7574, 24.4916, 11.4986, 8.32131, 110.654, -58.6203
7.18341, 104, 36.9451, 24.9807, 11.4941, 8.50399, 110.904, -58.0327
7.19141, 104, 37.1286, 25.4568, 11.4957, 8.69592, 111.136, -57.4539
7.19947, 104, 37.3055, 25.9202, 11.5032, 8.89684, 111.349, -56.883
7.20745, 104, 37.4724, 26.3697, 11.515, 9.10608, 111.545, -56.3194
7.2155, 104, 37.6296, 26.8058, 11.5299, 9.32218, 111.728, -55.7633
7.22347, 104, 37.781, 27.2298, 11.5474, 9.54175, 111.897, -55.2182
7.23142, 104, 37.9301, 27.6405, 11.5668, 9.76269, 112.058, -54.6877
7.2395, 104, 38.0776, 28.0373, 11.587, 9.98158, 112.209, -54.1755
7.24754, 104, 38.2219, 28.4199, 11.607, 10.1971, 112.354, -53.6827
7.25556, 104, 38.3613, 28.7888, 11.6264, 10.4073, 112.49, -53.2123
7.26355, 104, 38.4943, 29.1419, 11.6448, 10.6109, 112.619, -52.7652
7.27151, 104, 38.6199, 29.4781, 11.6624, 10.8068, 112.741, -52.3426
7.28039, 104, 38.7377, 29.7956, 11.6788, 10.9941, 112.855, -51.9451
7.28755, 104, 38.8474, 30.0946, 11.694, 11.1723, 112.961, -51.5718
7.2954, 104, 38.9494, 30.3754, 11.7083, 11.3408, 113.059, -51.2241
7.30368, 104, 39.0436, 30.6363, 11.7214, 11.499, 113.15, -50.9017
7.31143, 104, 39.13, 30.8776, 11.7332, 11.6464, 113.234, -50.6045
7.31945, 104, 39.208, 31.0995, 11.7439, 11.7828, 113.31, -50.3327
7.32789, 104, 39.2774, 31.3013, 11.7539, 11.9075, 113.38, -50.0859
7.33565, 104, 39.3389, 31.4834, 11.763, 12.0203, 113.441, -49.8646
7.3437, 104, 39.3928, 31.6463, 11.7709, 12.1212, 113.497, -49.6683
7.35215, 104, 39.4402, 31.7899, 11.7779, 12.21, 113.544, -49.4971
7.35981, 104, 39.4816, 31.915, 11.7844, 12.2865, 113.584, -49.3505
7.36793, 104, 39.5169, 32.0228, 11.7902, 12.3511, 113.618, -49.2273
7.37651, 104, 39.5461, 32.1141, 11.7954, 12.4042, 113.646, -49.1271
7.38394, 104, 39.57, 32.1898, 11.8, 12.4454, 113.668, -49.0472
7.39196, 104, 39.5894, 32.2519, 11.804, 12.4773, 113.684, -48.9869
7.40051, 104, 39.6047, 32.302, 11.8078, 12.501, 113.696, -48.943
7.40824, 104, 39.6167, 32.3414, 11.8112, 12.5179, 113.703, -48.9125
7.41598, 104, 39.6216, 32.3573, 11.8128, 12.5243, 113.706, -48.8925
7.42419, 104, 39.6295, 32.3829, 11.8157, 12.5335, 113.71, -48.8803
7.43141, 104, 39.6348, 32.4019, 11.8183, 12.5391, 113.712, -48.8764
7.43939, 104, 39.6381, 32.4154, 11.8202, 12.542, 113.713, -48.8718
7.44875, 105, 39.6406, 32.4273, 11.8222, 12.5439, 113.714, -48.8691
7.45538, 105, 39.6408, 32.4297, 11.8227, 12.5443, 113.714, -48.8687
7.46346, 105, 39.6408, 32.4333, 11.8237, 12.5446, 113.714, -48.8684
7.4715, 105, 39.6401, 32.4357, 11.8245, 12.5448, 113.714, -48.8683
7.47938, 105, 39.6391, 32.4374, 11.8252, 12.545, 113.714, -48.8684
7.48745, 105, 39.6379, 32.4388, 11.8258, 12.545, 113.714, -48.8686
7.49697, 105, 39.636, 32.4407, 11.8265, 12.5451, 113.714, -48.869
7.50496, 105, 39.6353, 32.4418, 11.8271, 12.5451, 113.714, -48.8693
7.51293, 105, 39.6349, 32.4429, 11.8277, 12.5451, 113.714, -48.8696
7.51944, 105, 39.6347, 32.4435, 11.828, 12.5451, 113.714, -48.8697
7.52747, 105, 39.6344, 32.4445, 11.8285, 12.545, 113.714, -48.87
7.53539, 105, 39.6342, 32.4454, 11.829, 12.545, 113.714, -48.8703
7.5435, 105, 39.6339, 32.446, 11.8293, 12.545, 113.714, -48.8705
7.55242, 105, 39.6337, 32.4465, 11.8296, 12.5451, 113.714, -48.8706
7.55939, 105, 39.6334, 32.4468, 11.8298, 12.5451, 113.714, -48.8707
7.56751, 105, 39.6332, 32.447, 11.8301, 12.5451, 113.714, -48.8709
