hehonglu123/Motion-Primitive-Planning/ILC/recorded_data/realrobot/from_NX/iteration_38/run_3.csv
timestamp, cmd_num, J1, J2, J3, J4, J5, J6
0.000387, -1, 39.6292, 32.4471, 11.8316, 12.5437, 113.713, -48.8736
0.003113, -1, 39.6292, 32.4471, 11.8316, 12.5437, 113.713, -48.8736
0.007923, -1, 39.6292, 32.4471, 11.8316, 12.5438, 113.713, -48.8736
0.028933, -1, 39.6292, 32.4471, 11.8316, 12.5438, 113.713, -48.8736
0.031791, -1, 39.6292, 32.4471, 11.8316, 12.5438, 113.713, -48.8736
0.034491, -1, 39.6292, 32.4471, 11.8316, 12.5438, 113.713, -48.8736
0.039688, -1, 39.6292, 32.4471, 11.8316, 12.5437, 113.713, -48.8736
0.047712, -1, 39.6291, 32.4471, 11.8316, 12.5438, 113.713, -48.8735
0.055691, -1, 39.6286, 32.447, 11.8316, 12.5438, 113.713, -48.8736
0.063718, -1, 39.6263, 32.4466, 11.8315, 12.5437, 113.713, -48.8736
0.071799, -1, 39.621, 32.4452, 11.8315, 12.5437, 113.713, -48.874
0.07969, -1, 39.6122, 32.4423, 11.8314, 12.5437, 113.713, -48.8754
0.087767, -1, 39.599, 32.437, 11.8314, 12.5437, 113.711, -48.8799
0.095693, -1, 39.5793, 32.4284, 11.8315, 12.5437, 113.708, -48.8909
0.103747, -1, 39.5506, 32.4158, 11.8319, 12.5437, 113.701, -48.9114
0.111712, -1, 39.5122, 32.3982, 11.834, 12.5437, 113.689, -48.9449
0.119695, -1, 39.4627, 32.3745, 11.8389, 12.5436, 113.67, -48.9953
0.127992, -1, 39.4005, 32.3441, 11.8472, 12.5437, 113.642, -49.067
0.135724, -1, 39.3251, 32.3063, 11.8599, 12.5438, 113.605, -49.1614
0.143775, -1, 39.2359, 32.2607, 11.8777, 12.544, 113.558, -49.2815
0.152574, -1, 39.1328, 32.2072, 11.9002, 12.5447, 113.501, -49.4269
0.159856, -1, 39.0157, 32.1458, 11.9269, 12.5456, 113.434, -49.5969
0.167804, -1, 38.8851, 32.077, 11.9575, 12.5471, 113.358, -49.7892
0.176697, -1, 38.7422, 32.0017, 11.9915, 12.549, 113.274, -50.001
0.183753, -1, 38.5877, 31.9204, 12.0278, 12.5512, 113.184, -50.2287
0.191946, -1, 38.4234, 31.8342, 12.0656, 12.5535, 113.089, -50.4686
0.20064, -1, 38.2512, 31.744, 12.1044, 12.5559, 112.991, -50.7168
0.207723, -1, 38.0727, 31.6508, 12.1434, 12.5583, 112.891, -50.9701
0.215852, -1, 37.8891, 31.5554, 12.1823, 12.5608, 112.79, -51.2268
0.225162, -1, 37.7016, 31.4585, 12.2211, 12.5632, 112.688, -51.4852
0.230733, -1, 37.6067, 31.4097, 12.2405, 12.5644, 112.637, -51.6149
0.240414, -1, 37.3197, 31.2629, 12.2987, 12.5681, 112.483, -52.0041
0.248002, -1, 37.1276, 31.1649, 12.3376, 12.5706, 112.38, -52.2638
0.256059, -1, 36.9353, 31.0672, 12.3763, 12.5732, 112.277, -52.5238
0.262729, -1, 36.8392, 31.0183, 12.3956, 12.5745, 112.225, -52.6539
0.272181, -1, 36.5515, 30.8716, 12.4539, 12.5784, 112.071, -53.0445
0.280259, -1, 36.3598, 30.7739, 12.4928, 12.581, 111.968, -53.3049
0.288503, -1, 36.1682, 30.6761, 12.5316, 12.5836, 111.865, -53.5651
0.296312, -1, 35.9767, 30.5782, 12.5705, 12.5861, 111.762, -53.8257
0.304337, -1, 35.7851, 30.4802, 12.6094, 12.5887, 111.659, -54.0864
0.312324, -1, 35.6893, 30.4312, 12.6289, 12.59, 111.556, -54.3466
0.31968, -1, 35.4973, 30.3331, 12.6678, 12.5925, 111.505, -54.4768
0.327725, -1, 35.3051, 30.2348, 12.7065, 12.5951, 111.402, -54.7373
0.335707, -1, 35.1126, 30.1365, 12.7454, 12.5977, 111.298, -54.998
0.343689, -1, 34.9202, 30.0381, 12.7843, 12.6003, 111.196, -55.2587
0.351712, -1, 34.728, 29.9396, 12.8231, 12.6029, 111.092, -55.5193
0.359697, -1, 34.5357, 29.8411, 12.862, 12.6054, 110.989, -55.78
0.367679, -1, 34.3436, 29.7426, 12.901, 12.608, 110.886, -56.041
0.50748, -1, 30.968, 28.0179, 13.5823, 12.6549, 109.083, -60.6109
0.508663, -1, 30.968, 28.0179, 13.5823, 12.6549, 109.083, -60.6109
0.510698, -1, 30.8719, 27.9686, 13.6018, 12.6563, 109.031, -60.7415
0.511903, -1, 30.8719, 27.9686, 13.6018, 12.6563, 109.031, -60.7415
0.513221, -1, 30.8719, 27.9686, 13.6018, 12.6563, 109.031, -60.7415
0.516064, -1, 30.7758, 27.9193, 13.6213, 12.6577, 108.979, -60.8721
0.51726, -1, 30.7758, 27.9193, 13.6213, 12.6577, 108.979, -60.8721
0.522343, -1, 30.5839, 27.8208, 13.6603, 12.6605, 108.876, -61.1332
0.523683, -1, 30.5839, 27.8208, 13.6603, 12.6605, 108.876, -61.1332
0.524958, -1, 30.5839, 27.8208, 13.6603, 12.6605, 108.876, -61.1332
0.527067, -1, 30.488, 27.7715, 13.6798, 12.662, 108.824, -61.2639
0.52837, -1, 30.488, 27.7715, 13.6798, 12.662, 108.824, -61.2639
0.530294, -1, 30.392, 27.7222, 13.6993, 12.6634, 108.773, -61.3946
0.531782, -1, 30.392, 27.7222, 13.6993, 12.6634, 108.773, -61.3946
0.532975, -1, 30.392, 27.7222, 13.6993, 12.6634, 108.773, -61.3946
0.535244, -1, 30.296, 27.6728, 13.7188, 12.6648, 108.721, -61.5254
0.536537, -1, 30.296, 27.6728, 13.7188, 12.6648, 108.721, -61.5254
0.538339, -1, 30.1999, 27.6234, 13.7382, 12.6661, 108.67, -61.6563
0.540655, -1, 30.1999, 27.6234, 13.7382, 12.6661, 108.67, -61.6563
0.54333, -1, 30.1038, 27.574, 13.7578, 12.6675, 108.618, -61.7872
0.544602, -1, 30.1038, 27.574, 13.7578, 12.6675, 108.618, -61.7872
0.546555, -1, 30.0076, 27.5247, 13.7773, 12.6689, 108.567, -61.9179
0.554282, -1, 29.9112, 27.426, 13.8162, 12.6716, 108.463, -62.1795
0.559678, -1, 29.7183, 27.3766, 13.8356, 12.6729, 108.412, -62.3103
0.567693, -1, 29.5247, 27.2778, 13.8745, 12.6756, 108.309, -62.572
0.575789, -1, 29.3308, 27.179, 13.9135, 12.6782, 108.205, -62.8339
0.583676, -1, 29.1367, 27.0802, 13.9525, 12.6808, 108.102, -63.0955
0.591686, -1, 28.9422, 26.9813, 13.9915, 12.6833, 107.998, -63.3569
0.599743, -1, 28.7481, 26.8824, 14.0304, 12.6859, 107.895, -63.6184
0.607674, -1, 28.554, 26.7835, 14.0693, 12.6883, 107.792, -63.8801
0.615756, -1, 28.3601, 26.6848, 14.1084, 12.6909, 107.688, -64.1419
0.623681, -1, 28.1667, 26.586, 14.1474, 12.6933, 107.585, -64.4034
0.631747, -1, 27.9737, 26.4872, 14.1864, 12.6958, 107.482, -64.6653
0.639781, -1, 27.7809, 26.3884, 14.2255, 12.6983, 107.379, -64.9271
0.647769, -1, 27.5883, 26.2895, 14.2644, 12.7008, 107.275, -65.1891
0.655771, -1, 27.3961, 26.1905, 14.3034, 12.7032, 107.172, -65.4506
0.663837, -1, 27.2039, 26.0915, 14.3424, 12.7055, 107.068, -65.7122
0.798305, -1, 24.0149, 24.4608, 14.9854, 12.7437, 105.365, -70.0303
0.800257, -1, 23.9185, 24.4114, 15.0049, 12.7449, 105.313, -70.161
0.801692, -1, 23.9185, 24.4114, 15.0049, 12.7449, 105.313, -70.161
0.802981, -1, 23.9185, 24.4114, 15.0049, 12.7449, 105.313, -70.161
0.805776, -1, 23.8221, 24.3619, 15.0243, 12.7461, 105.261, -70.2918
0.807034, -1, 23.8221, 24.3619, 15.0243, 12.7461, 105.261, -70.2918
0.80925, -1, 23.7257, 24.3125, 15.0438, 12.7474, 105.209, -70.4227
0.814722, -1, 23.6292, 24.2631, 15.0632, 12.7486, 105.158, -70.5536
0.816622, -1, 23.5326, 24.2136, 15.0827, 12.7497, 105.106, -70.6846
0.818071, -1, 23.5326, 24.2136, 15.0827, 12.7497, 105.106, -70.6846
0.819259, -1, 23.5326, 24.2136, 15.0827, 12.7497, 105.106, -70.6846
0.822197, -1, 23.4359, 24.1642, 15.1022, 12.7509, 105.054, -70.8153
0.82349, -1, 23.4359, 24.1642, 15.1022, 12.7509, 105.054, -70.8153
0.825477, -1, 23.3391, 24.1148, 15.1217, 12.7521, 105.003, -70.946
0.826747, -1, 23.3391, 24.1148, 15.1217, 12.7521, 105.003, -70.946
0.829942, -1, 23.2422, 24.0653, 15.1411, 12.7533, 104.951, -71.077
0.831308, -1, 23.2422, 24.0653, 15.1411, 12.7533, 104.951, -71.077
0.833385, -1, 23.1453, 24.0159, 15.1606, 12.7545, 104.899, -71.2079
0.834585, -1, 23.1453, 24.0159, 15.1606, 12.7545, 104.899, -71.2079
0.836401, -1, 23.1453, 24.0159, 15.1606, 12.7545, 104.899, -71.3388
0.837795, -1, 23.0484, 23.9664, 15.18, 12.7558, 104.848, -71.3388
0.839631, -1, 23.0484, 23.9664, 15.18, 12.7558, 104.848, -71.3388
0.847728, -1, 22.8545, 23.8675, 15.2189, 12.7582, 104.744, -71.6008
0.855669, -1, 22.6605, 23.7687, 15.2579, 12.7607, 104.641, -71.8626
0.863662, -1, 22.4668, 23.6701, 15.2969, 12.7631, 104.538, -72.124
0.871665, -1, 22.2735, 23.5714, 15.3359, 12.7656, 104.434, -72.3853
0.879661, -1, 22.0803, 23.4727, 15.3747, 12.7683, 104.331, -72.6468
0.887776, -1, 21.8872, 23.3739, 15.4137, 12.7708, 104.228, -72.9085
0.895664, -1, 21.6946, 23.2753, 15.4527, 12.7735, 104.124, -73.1698
0.903775, -1, 21.5025, 23.1764, 15.4916, 12.7761, 104.021, -73.4314
0.911752, -1, 21.3102, 23.0777, 15.5306, 12.7787, 103.918, -73.6929
0.91966, -1, 21.1179, 22.979, 15.5695, 12.7814, 103.815, -73.9546
0.92767, -1, 20.9254, 22.8804, 15.6084, 12.7841, 103.712, -74.2158
0.935827, -1, 20.733, 22.7818, 15.6474, 12.7868, 103.609, -74.4769
0.943696, -1, 20.5403, 22.6832, 15.6863, 12.7895, 103.506, -74.7383
0.952668, -1, 20.3471, 22.5845, 15.7251, 12.7922, 103.403, -74.9996
0.958675, -1, 20.1535, 22.4858, 15.764, 12.7949, 103.3, -75.2609
0.967734, -1, 19.9599, 22.387, 15.8029, 12.7977, 103.196, -75.522
0.976663, -1, 19.7662, 22.2883, 15.8416, 12.8005, 103.094, -75.7832
0.982662, -1, 19.5727, 22.1898, 15.8805, 12.8032, 102.991, -76.0445
0.99166, -1, 19.3793, 22.0911, 15.9194, 12.8059, 102.887, -76.3057
0.999671, -1, 19.1862, 21.9925, 15.9582, 12.8086, 102.785, -76.5665
1.00766, -1, 18.9934, 21.8938, 15.9972, 12.8114, 102.681, -76.8273
1.01566, -1, 18.8009, 21.7952, 16.036, 12.8141, 102.578, -77.0883
1.02375, -1, 18.6088, 21.6965, 16.0747, 12.8169, 102.476, -77.3493
1.03166, -1, 18.417, 21.5979, 16.1137, 12.8196, 102.373, -77.6101
1.03966, -1, 18.2251, 21.4993, 16.1525, 12.8222, 102.27, -77.8708
1.04775, -1, 18.0332, 21.4008, 16.1913, 12.8248, 102.167, -78.1315
1.05566, -1, 17.8414, 21.3025, 16.2302, 12.8273, 102.064, -78.3924
1.06376, -1, 17.6493, 21.2041, 16.2691, 12.8298, 101.961, -78.653
1.07174, -1, 17.4569, 21.1059, 16.3079, 12.8323, 101.858, -78.9133
1.07969, -1, 17.2641, 21.0075, 16.3468, 12.8348, 101.755, -79.1739
1.08766, -1, 17.071, 20.9093, 16.3856, 12.8373, 101.652, -79.4345
1.09573, -1, 16.878, 20.8111, 16.4244, 12.8396, 101.549, -79.6951
1.10368, -1, 16.685, 20.7129, 16.4632, 12.8419, 101.446, -79.9554
1.11173, -1, 16.492, 20.6147, 16.5019, 12.8443, 101.344, -80.216
1.11971, -1, 16.2992, 20.5164, 16.5406, 12.8466, 101.241, -80.4766
1.12777, -1, 16.1068, 20.418, 16.5794, 12.849, 101.139, -80.7372
1.13578, -1, 15.9149, 20.3196, 16.6181, 12.8512, 101.036, -80.9972
1.14452, -1, 15.7231, 20.2211, 16.6568, 12.8536, 100.933, -81.2572
1.15174, -1, 15.5318, 20.1227, 16.6954, 12.856, 100.831, -81.5173
1.15981, -1, 15.3406, 20.0243, 16.7341, 12.8583, 100.728, -81.7775
1.1686, -1, 15.1494, 19.9261, 16.7729, 12.8606, 100.625, -82.0373
1.17576, -1, 14.9582, 19.8278, 16.8116, 12.8629, 100.523, -82.2971
1.18385, -1, 14.7669, 19.7297, 16.8502, 12.8652, 100.421, -82.557
1.19258, -1, 14.5754, 19.6316, 16.889, 12.8675, 100.318, -82.8172
1.19966, -1, 14.3835, 19.5335, 16.9276, 12.8698, 100.215, -83.077
1.20807, -1, 14.1913, 19.4355, 16.9664, 12.8721, 100.113, -83.3364
1.21659, -1, 13.9991, 19.3375, 17.0051, 12.8744, 100.01, -83.596
1.22379, -1, 13.8067, 19.2397, 17.0436, 12.8768, 99.9077, -83.8557
1.23187, -1, 13.6143, 19.1419, 17.0823, 12.879, 99.8052, -84.1152
1.24086, -1, 13.422, 19.044, 17.121, 12.8813, 99.7026, -84.3745
1.24807, -1, 13.23, 18.9461, 17.1595, 12.8836, 99.6004, -84.6338
1.25469, -1, 13.1341, 18.8972, 17.1788, 12.8848, 99.5493, -84.7635
1.26404, -1, 12.8471, 18.7502, 17.2368, 12.8883, 99.3954, -85.1526
1.27223, -1, 12.6561, 18.6522, 17.2753, 12.8907, 99.2933, -85.4115
1.28017, -1, 12.4654, 18.5544, 17.3139, 12.8931, 99.1909, -85.6704
1.28819, -1, 12.2751, 18.4566, 17.3524, 12.8955, 99.0886, -85.9293
1.29629, -1, 12.085, 18.3589, 17.3909, 12.8979, 98.9867, -86.1883
1.30526, -1, 11.8947, 18.2612, 17.4296, 12.9003, 98.8844, -86.4471
1.31226, -1, 11.7994, 18.2124, 17.4489, 12.9027, 98.7825, -86.7056
1.32088, -1, 11.5133, 18.066, 17.5066, 12.9052, 98.6808, -86.9642
1.32764, -1, 11.4178, 18.0172, 17.5259, 12.9064, 98.6298, -87.0936
1.33467, -1, 11.2266, 17.9196, 17.5645, 12.9088, 98.5278, -87.3522
1.34373, -1, 11.0353, 17.8221, 17.603, 12.9113, 98.426, -87.6105
1.35164, -1, 10.8439, 17.7247, 17.6415, 12.9138, 98.3239, -87.8688
1.35971, -1, 10.6522, 17.6272, 17.68, 12.9162, 98.2219, -88.1271
1.36766, -1, 10.4608, 17.5297, 17.7183, 12.9189, 98.1203, -88.3855
1.37565, -1, 10.2696, 17.4322, 17.7568, 12.9213, 98.0184, -88.6436
1.38266, -1, 10.0787, 17.3347, 17.7952, 12.9239, 97.9164, -88.9016
1.39165, -1, 9.88835, 17.237, 17.8335, 12.9266, 97.8147, -89.1598
1.39966, -1, 9.69821, 17.1395, 17.8718, 12.9291, 97.7126, -89.4178
1.4077, -1, 9.50855, 17.0421, 17.9102, 12.9319, 97.6107, -89.6759
1.41565, -1, 9.31924, 16.9447, 17.9485, 12.9347, 97.509, -89.9335
1.42365, -1, 9.12985, 16.8473, 17.9869, 12.9374, 97.407, -90.191
1.43171, -1, 8.94048, 16.7501, 18.0252, 12.94, 97.3053, -90.4486
1.43966, -1, 8.75092, 16.653, 18.0635, 12.9426, 97.2036, -90.7062
1.44765, -1, 8.5613, 16.5557, 18.102, 12.9453, 97.1019, -90.9634
1.45665, -1, 8.37153, 16.4587, 18.1403, 12.948, 97.0005, -91.2206
1.46364, -1, 8.1813, 16.3617, 18.1785, 12.9507, 96.8989, -91.4778
1.47171, -1, 7.9908, 16.2649, 18.2169, 12.9533, 96.7972, -91.7352
1.47976, -1, 7.80035, 16.168, 18.2552, 12.956, 96.6959, -91.9921
1.48765, -1, 7.60973, 16.0711, 18.2934, 12.9586, 96.5943, -92.2488
1.49564, -1, 7.4194, 15.9741, 18.3318, 12.9612, 96.4929, -92.5054
1.50364, -1, 7.22928, 15.8772, 18.3699, 12.9637, 96.3917, -92.7623
1.51165, -1, 7.0394, 15.7802, 18.4081, 12.9663, 96.2903, -93.019
1.51972, -1, 6.84992, 15.6832, 18.4464, 12.9689, 96.189, -93.2754
1.52765, -1, 6.66095, 15.5864, 18.4844, 12.9714, 96.0884, -93.5317
1.53564, -1, 6.47245, 15.4896, 18.5225, 12.974, 95.9872, -93.7882
1.54372, -1, 6.28418, 15.3928, 18.5607, 12.9765, 95.8861, -94.0446
1.55165, -1, 6.09607, 15.2961, 18.5988, 12.9789, 95.7855, -94.3005
1.55966, -1, 5.90787, 15.1994, 18.637, 12.9813, 95.6843, -94.5564
1.56775, -1, 5.71947, 15.1027, 18.6752, 12.9837, 95.5834, -94.8123
1.57564, -1, 5.53095, 15.0061, 18.7132, 12.986, 95.4828, -95.0683
1.58364, -1, 5.34225, 14.9095, 18.7513, 12.9883, 95.3818, -95.324
1.59171, -1, 5.1531, 14.8131, 18.7895, 12.9906, 95.2812, -95.5793
1.59965, -1, 4.96372, 14.7168, 18.8275, 12.9929, 95.1806, -95.8348
1.60769, -1, 4.77435, 14.6204, 18.8655, 12.9952, 95.0797, -96.0903
1.61567, -1, 4.58485, 14.524, 18.9036, 12.9973, 94.979, -96.3456
1.62365, -1, 4.3957, 14.4277, 18.9416, 12.9996, 94.8783, -96.6004
1.63171, -1, 4.20677, 14.3313, 18.9797, 13.0017, 94.7774, -96.8553
1.63974, -1, 4.01802, 14.2349, 19.0177, 13.004, 94.6766, -97.1105
1.64773, -1, 3.82993, 14.1387, 19.0556, 13.0063, 94.5759, -97.3656
1.65579, -1, 3.64243, 14.0425, 19.0936, 13.0085, 94.4751, -97.6202
1.66405, -1, 3.45521, 13.9463, 19.1315, 13.0109, 94.3745, -97.875
1.67124, -1, 3.26822, 13.8503, 19.1693, 13.0132, 94.2738, -98.1296
1.67982, -1, 3.08127, 13.7543, 19.2072, 13.0154, 94.1731, -98.3845
1.6882, -1, 2.89432, 13.6582, 19.2451, 13.0177, 94.0725, -98.6388
1.69564, -1, 2.70728, 13.5622, 19.283, 13.02, 93.9718, -98.8928
1.70387, -1, 2.52002, 13.4662, 19.3209, 13.0222, 93.8713, -99.147
1.71248, -1, 2.33254, 13.3703, 19.3587, 13.0245, 93.7711, -99.4013
1.71968, -1, 2.14472, 13.2745, 19.3965, 13.0267, 93.6708, -99.6552
1.72783, -1, 1.95664, 13.1787, 19.4345, 13.0289, 93.5705, -99.9088
1.73665, -1, 1.76851, 13.0828, 19.4722, 13.0313, 93.4707, -100.163
1.7439, -1, 1.58027, 12.987, 19.5099, 13.0334, 93.3705, -100.416
1.75202, -1, 1.39221, 12.8912, 19.5478, 13.0357, 93.2705, -100.67
1.75865, -1, 1.29827, 12.8433, 19.5667, 13.0369, 93.2206, -100.796
1.76669, -1, 1.1106, 12.7475, 19.6043, 13.0392, 93.1205, -101.049
1.77623, -1, 0.830089, 12.6041, 19.661, 13.0429, 92.9705, -101.429
1.78508, -1, 0.643775, 12.5085, 19.6986, 13.0452, 92.8708, -101.682
1.79221, -1, 0.457758, 12.413, 19.7362, 13.0477, 92.771, -101.935
1.80024, -1, 0.272072, 12.3176, 19.7739, 13.0501, 92.6713, -102.188
1.80912, -1, 0.0866289, 12.2222, 19.8114, 13.0525, 92.572, -102.44
1.81471, -1, -0.00607, 12.1746, 19.8302, 13.0538, 92.5221, -102.567
1.8244, -1, -0.191613, 12.0792, 19.8679, 13.0574, 92.3727, -102.946
1.83163, -1, -0.377292, 11.984, 19.9055, 13.0587, 92.3232, -103.072
1.8387, -1, -0.563396, 11.8889, 19.9431, 13.0612, 92.2236, -103.324
1.84769, -1, -0.749762, 11.7938, 19.9807, 13.0636, 92.1242, -103.576
1.85564, -1, -0.936223, 11.6988, 20.0182, 13.0661, 92.0249, -103.828
1.8627, -1, -1.12291, 11.6037, 20.0556, 13.0686, 91.9254, -104.08
1.87163, -1, -1.30991, 11.5086, 20.0931, 13.0711, 91.8261, -104.331
1.87963, -1, -1.49669, 11.4136, 20.1306, 13.0737, 91.727, -104.583
1.88666, -1, -1.68326, 11.3184, 20.168, 13.0763, 91.6277, -104.835
1.89564, -1, -1.8695, 11.2233, 20.2055, 13.0788, 91.5284, -105.086
1.90363, -1, -2.05533, 11.1284, 20.2429, 13.0815, 91.4294, -105.337
1.91063, -1, -2.24048, 11.0335, 20.2802, 13.0841, 91.3302, -105.588
1.91964, -1, -2.42532, 10.9385, 20.3176, 13.0868, 91.2309, -105.839
1.92764, -1, -2.60975, 10.8438, 20.3549, 13.0895, 91.1321, -106.09
1.9357, -1, -2.79363, 10.749, 20.3922, 13.0921, 91.0329, -106.341
1.94364, -1, -2.97758, 10.6543, 20.4296, 13.0948, 90.9338, -106.592
1.95165, -1, -3.16168, 10.5596, 20.467, 13.0974, 90.8351, -106.842
1.96063, -1, -3.34599, 10.465, 20.5042, 13.0999, 90.7361, -107.093
1.96763, -1, -3.53061, 10.3705, 20.5414, 13.1024, 90.6372, -107.343
1.9757, -1, -3.71542, 10.2762, 20.5787, 13.105, 90.5385, -107.594
1.98373, -1, -3.90047, 10.1818, 20.6159, 13.1074, 90.4396, -107.843
1.99164, -1, -4.08571, 10.0875, 20.6532, 13.11, 90.3409, -108.093
1.9997, -1, -4.27119, 9.99319, 20.6903, 13.1124, 90.2425, -108.343
2.00765, -1, -4.45681, 9.89884, 20.7275, 13.1148, 90.1437, -108.593
2.01586, -1, -4.64209, 9.80453, 20.7648, 13.1171, 90.0451, -108.843
2.02363, -1, -4.82697, 9.71034, 20.8019, 13.1195, 89.9468, -109.092
2.0316, -1, -5.01148, 9.61624, 20.839, 13.1219, 89.8482, -109.341
2.04042, -1, -5.19537, 9.52214, 20.8761, 13.1242, 89.7498, -109.591
2.04764, -1, -5.37869, 9.42811, 20.9133, 13.1266, 89.6516, -109.84
2.05563, -1, -5.56167, 9.33421, 20.9503, 13.1289, 89.5531, -110.089
2.06441, -1, -5.74425, 9.24026, 20.9874, 13.1312, 89.4549, -110.337
2.07162, -1, -5.92663, 9.14634, 21.0244, 13.1335, 89.3569, -110.586
2.07962, -1, -6.10905, 9.05249, 21.0614, 13.1357, 89.2586, -110.835
2.08849, -1, -6.29176, 8.95869, 21.0985, 13.1379, 89.1606, -111.083
2.09562, -1, -6.47466, 8.86506, 21.1354, 13.1402, 89.0629, -111.332
2.10363, -1, -6.65783, 8.77142, 21.1722, 13.1423, 88.9648, -111.58
2.11244, -1, -6.84133, 8.6778, 21.2092, 13.1444, 88.8669, -111.828
2.11963, -1, -7.0252, 8.58416, 21.2461, 13.1466, 88.7691, -112.076
2.12763, -1, -7.20936, 8.49062, 21.2829, 13.1487, 88.6712, -112.324
2.13644, -1, -7.39357, 8.39698, 21.3198, 13.1509, 88.5733, -112.571
2.14366, -1, -7.57736, 8.30337, 21.3567, 13.153, 88.4759, -112.819
2.15172, -1, -7.76087, 8.20993, 21.3934, 13.1551, 88.3782, -113.066
2.16051, -1, -7.94396, 8.11652, 21.4303, 13.1574, 88.2808, -113.314
2.16778, -1, -8.12659, 8.02316, 21.4671, 13.1596, 88.1835, -113.561
2.17573, -1, -8.3084, 7.92991, 21.5038, 13.1619, 88.086, -113.808
2.18453, -1, -8.48986, 7.83664, 21.5407, 13.1641, 87.9886, -114.055
2.19172, -1, -8.67087, 7.74345, 21.5776, 13.1664, 87.8913, -114.301
2.19963, -1, -8.85159, 7.65024, 21.6143, 13.1687, 87.7938, -114.547
2.20866, -1, -9.03234, 7.55714, 21.651, 13.1709, 87.6964, -114.794
2.21566, -1, -9.21339, 7.46413, 21.6877, 13.1731, 87.5994, -115.04
2.224, -1, -9.39467, 7.37132, 21.7244, 13.1754, 87.5021, -115.287
2.23261, -1, -9.57628, 7.27848, 21.7611, 13.1775, 87.405, -115.533
2.2398, -1, -9.7582, 7.18565, 21.7978, 13.1798, 87.308, -115.779
2.24809, -1, -9.94054, 7.09293, 21.8343, 13.182, 87.2107, -116.025
2.25463, -1, -10.0318, 7.04658, 21.8526, 13.1831, 87.1621, -116.148
2.26267, -1, -10.2144, 6.95379, 21.8892, 13.1854, 87.065, -116.394
2.27239, -1, -10.4882, 6.81464, 21.944, 13.1887, 86.9193, -116.762
2.28015, -1, -10.6706, 6.72192, 21.9806, 13.1909, 86.8223, -117.008
2.28667, -1, -10.7615, 6.67561, 21.9989, 13.1921, 86.7739, -117.13
2.29625, -1, -11.0337, 6.53673, 22.0534, 13.1958, 86.6285, -117.498
2.30418, -1, -11.2142, 6.44423, 22.09, 13.1981, 86.5318, -117.743
2.31068, -1, -11.3042, 6.39801, 22.1083, 13.1993, 86.4836, -117.866
2.32047, -1, -11.5738, 6.25931, 22.1629, 13.203, 86.3384, -118.233
2.32763, -1, -11.6635, 6.21309, 22.1811, 13.2042, 86.2901, -118.355
2.33561, -1, -11.8427, 6.12071, 22.2177, 13.2067, 86.1936, -118.6
2.34367, -1, -12.0219, 6.02843, 22.2541, 13.2091, 86.0969, -118.844
2.35162, -1, -12.2012, 5.93625, 22.2905, 13.2116, 86.0004, -119.088
2.35869, -1, -12.3809, 5.84424, 22.327, 13.2141, 85.9042, -119.332
2.36767, -1, -12.5609, 5.75221, 22.3632, 13.2166, 85.8078, -119.577
2.37568, -1, -12.7414, 5.66019, 22.3994, 13.219, 85.7115, -119.821
2.38362, -1, -12.9221, 5.56826, 22.4358, 13.2215, 85.6157, -120.064
2.39161, -1, -13.1033, 5.47633, 22.4721, 13.224, 85.5196, -120.308
2.39982, -1, -13.2846, 5.38429, 22.5083, 13.2264, 85.4236, -120.552
2.40671, -1, -13.4656, 5.29239, 22.5446, 13.2289, 85.3279, -120.795
2.41567, -1, -13.6462, 5.20049, 22.5808, 13.2314, 85.2321, -121.038
2.42361, -1, -13.8264, 5.10863, 22.6169, 13.2339, 85.1362, -121.281
2.43065, -1, -14.006, 5.01681, 22.6531, 13.2365, 85.0406, -121.524
2.43965, -1, -14.1848, 4.92507, 22.6892, 13.2391, 84.945, -121.767
2.44761, -1, -14.3631, 4.83333, 22.7253, 13.2416, 84.8494, -122.01
2.45662, -1, -14.5411, 4.74169, 22.7615, 13.2442, 84.7539, -122.252
2.46363, -1, -14.7188, 4.65007, 22.7977, 13.2468, 84.6581, -122.495
2.47263, -1, -14.8964, 4.55858, 22.8338, 13.2492, 84.5624, -122.737
2.47969, -1, -15.074, 4.4671, 22.8699, 13.2516, 84.4667, -122.979
2.48768, -1, -15.252, 4.37582, 22.9061, 13.2541, 84.371, -123.221
2.49562, -1, -15.4305, 4.2845, 22.9421, 13.2565, 84.2754, -123.463
2.50361, -1, -15.6093, 4.1932, 22.9781, 13.2589, 84.1799, -123.705
2.51164, -1, -15.7885, 4.10198, 23.0141, 13.2612, 84.0843, -123.947
2.51967, -1, -15.9677, 4.01075, 23.05, 13.2634, 83.9889, -124.188
2.52762, -1, -16.1473, 3.91946, 23.0861, 13.2655, 83.8936, -124.43
2.53563, -1, -16.3271, 3.82822, 23.1221, 13.2677, 83.7981, -124.671
2.54373, -1, -16.5065, 3.73701, 23.1579, 13.2699, 83.7026, -124.913
2.55161, -1, -16.6854, 3.6459, 23.1937, 13.2721, 83.6073, -125.154
2.5597, -1, -16.8639, 3.55484, 23.2295, 13.2744, 83.5118, -125.395
2.56762, -1, -17.0415, 3.46382, 23.2654, 13.2767, 83.4165, -125.636
2.57561, -1, -17.2184, 3.37287, 23.3012, 13.2788, 83.3212, -125.876
2.58368, -1, -17.3949, 3.282, 23.3371, 13.2811, 83.2263, -126.117
2.59161, -1, -17.5712, 3.19115, 23.3728, 13.2832, 83.1311, -126.358
2.59969, -1, -17.7473, 3.10052, 23.4087, 13.2854, 83.0363, -126.598
2.60768, -1, -17.9233, 3.0099, 23.4446, 13.2875, 82.9415, -126.838
2.61561, -1, -18.0995, 2.91943, 23.4803, 13.2896, 82.8467, -127.078
2.62362, -1, -18.276, 2.82906, 23.516, 13.2917, 82.7519, -127.319
2.63168, -1, -18.453, 2.73862, 23.5519, 13.2938, 82.6574, -127.558
2.63963, -1, -18.6304, 2.64823, 23.5875, 13.2958, 82.5626, -127.798
2.64766, -1, -18.8081, 2.55793, 23.6231, 13.2979, 82.4681, -128.037
2.65578, -1, -18.9861, 2.46749, 23.6589, 13.2999, 82.3737, -128.277
2.6637, -1, -19.1644, 2.37701, 23.6945, 13.302, 82.2792, -128.516
2.67177, -1, -19.3426, 2.28667, 23.7301, 13.3039, 82.1849, -128.755
2.67973, -1, -19.5203, 2.19631, 23.7657, 13.3061, 82.0911, -128.994
2.68771, -1, -19.6973, 2.10591, 23.8012, 13.3083, 81.9967, -129.233
2.69579, -1, -19.8739, 2.01563, 23.8366, 13.3105, 81.9026, -129.472
2.70362, -1, -20.0497, 1.92537, 23.8722, 13.3126, 81.8087, -129.711
2.71169, -1, -20.2249, 1.83513, 23.9077, 13.3148, 81.7144, -129.95
2.71973, -1, -20.3998, 1.74502, 23.9431, 13.317, 81.6204, -130.188
2.7277, -1, -20.5744, 1.65493, 23.9787, 13.3192, 81.5266, -130.427
2.73575, -1, -20.7489, 1.56496, 24.0142, 13.3214, 81.4326, -130.665
2.74392, -1, -20.9235, 1.4751, 24.0496, 13.3236, 81.3388, -130.903
2.75188, -1, -21.0984, 1.38538, 24.0851, 13.3258, 81.2452, -131.141
2.75992, -1, -21.2738, 1.29558, 24.1206, 13.328, 81.1512, -131.378
2.76811, -1, -21.4495, 1.20587, 24.1559, 13.3302, 81.0573, -131.616
2.77468, -1, -21.5375, 1.16105, 24.1735, 13.3313, 81.0104, -131.735
2.78488, -1, -21.8017, 1.0266, 24.2267, 13.3345, 80.8697, -132.091
2.79216, -1, -21.9781, 0.93698, 24.262, 13.3366, 80.7759, -132.328
2.80024, -1, -22.1547, 0.847423, 24.2974, 13.3387, 80.6824, -132.566
2.80897, -1, -22.3313, 0.757874, 24.3328, 13.341, 80.5887, -132.803
2.81621, -1, -22.4194, 0.713141, 24.3679, 13.3432, 80.4951, -133.04
2.82427, -1, -22.5952, 0.623628, 24.3855, 13.3455, 80.4016, -133.277
2.83296, -1, -22.7705, 0.534187, 24.4207, 13.3467, 80.3549, -133.395
2.83963, -1, -22.945, 0.444791, 24.456, 13.3491, 80.2611, -133.632
2.8476, -1, -23.1187, 0.355361, 24.4911, 13.3516, 80.1676, -133.869
2.85566, -1, -23.2922, 0.266024, 24.5262, 13.354, 80.0743, -134.106
2.86361, -1, -23.4654, 0.176738, 24.5614, 13.3565, 79.9807, -134.342
2.8716, -1, -23.6385, 0.0875682, 24.5966, 13.3588, 79.8875, -134.578
2.87973, -1, -23.8119, -0.00154365, 24.6318, 13.3612, 79.7943, -134.814
2.88668, -1, -23.9853, -0.0905064, 24.667, 13.3636, 79.7011, -135.05
2.8956, -1, -24.1589, -0.179481, 24.702, 13.3661, 79.608, -135.286
2.90366, -1, -24.3328, -0.268417, 24.7372, 13.3686, 79.5149, -135.522
2.9116, -1, -24.5072, -0.357312, 24.7724, 13.371, 79.4218, -135.758
2.9196, -1, -24.6817, -0.446193, 24.8075, 13.3735, 79.3288, -135.993
2.92767, -1, -24.8567, -0.535083, 24.8425, 13.3758, 79.2358, -136.229
2.9346, -1, -25.0317, -0.623948, 24.8777, 13.3782, 79.1429, -136.464
2.9436, -1, -25.2067, -0.712759, 24.9127, 13.3806, 79.0499, -136.699
2.9539, -1, -25.3812, -0.801487, 24.9477, 13.383, 78.9571, -136.934
2.95961, -1, -25.5554, -0.890344, 24.9828, 13.3854, 78.8646, -137.169
2.9686, -1, -25.729, -0.979063, 25.0177, 13.3879, 78.7717, -137.404
2.97568, -1, -25.9018, -1.06773, 25.0526, 13.3903, 78.6791, -137.639
2.9836, -1, -26.0743, -1.15646, 25.0877, 13.3928, 78.5869, -137.873
2.99163, -1, -26.2464, -1.24509, 25.1226, 13.3953, 78.4942, -138.108
2.99967, -1, -26.4181, -1.33362, 25.1574, 13.3976, 78.4016, -138.342
3.0076, -1, -26.59, -1.42206, 25.1924, 13.3999, 78.3094, -138.577
3.01567, -1, -26.7619, -1.51036, 25.2274, 13.4022, 78.2167, -138.811
3.0236, -1, -26.9342, -1.59858, 25.2623, 13.4044, 78.1244, -139.044
3.03157, -1, -27.1066, -1.68675, 25.2971, 13.4066, 78.0323, -139.279
3.03967, -1, -27.2792, -1.77497, 25.3321, 13.4087, 77.94, -139.513
3.04766, -1, -27.452, -1.86305, 25.3668, 13.4109, 77.8479, -139.746
3.05561, -1, -27.6252, -1.95115, 25.4016, 13.4131, 77.756, -139.979
3.06366, -1, -27.7984, -2.03936, 25.4366, 13.4152, 77.6639, -140.213
3.07161, -1, -27.9717, -2.12736, 25.4713, 13.4173, 77.5719, -140.446
3.07961, -1, -28.145, -2.21538, 25.506, 13.4193, 77.4799, -140.68
3.08766, -1, -28.3182, -2.30345, 25.5409, 13.4213, 77.3878, -140.913
3.09559, -1, -28.491, -2.39152, 25.5756, 13.4234, 77.2957, -141.146
3.10361, -1, -28.6634, -2.47947, 25.6102, 13.4256, 77.2036, -141.379
3.11168, -1, -28.8352, -2.5675, 25.645, 13.4278, 77.1117, -141.612
3.1196, -1, -29.0062, -2.65547, 25.6796, 13.43, 77.0198, -141.844
3.12779, -1, -29.1769, -2.74339, 25.7142, 13.4322, 76.9278, -142.077
3.1356, -1, -29.3474, -2.83122, 25.7488, 13.4342, 76.8362, -142.309
3.1436, -1, -29.5181, -2.91893, 25.7836, 13.4363, 76.7442, -142.542
3.1525, -1, -29.689, -3.00651, 25.818, 13.4383, 76.6523, -142.774
3.15971, -1, -29.86, -3.09404, 25.8526, 13.4404, 76.5607, -143.007
3.1677, -1, -30.031, -3.18153, 25.8872, 13.4425, 76.4687, -143.239
3.17669, -1, -30.2019, -3.26907, 25.9218, 13.4445, 76.3771, -143.471
3.1837, -1, -30.373, -3.35648, 25.9563, 13.4466, 76.2857, -143.702
3.19176, -1, -30.5446, -3.44391, 25.9909, 13.4487, 76.1939, -143.934
3.20014, -1, -30.7164, -3.53146, 26.0253, 13.4507, 76.1026, -144.166
3.20778, -1, -30.8882, -3.6188, 26.0597, 13.4528, 76.0112, -144.397
3.21569, -1, -31.06, -3.70621, 26.0943, 13.4548, 75.9198, -144.628
3.22435, -1, -31.2317, -3.79355, 26.1287, 13.4568, 75.8284, -144.86
3.23171, -1, -31.403, -3.88087, 26.1631, 13.4589, 75.7372, -145.091
3.23987, -1, -31.5739, -3.96817, 26.1976, 13.4611, 75.6459, -145.323
3.24665, -1, -31.6592, -4.01179, 26.2148, 13.4622, 75.6002, -145.438
3.2559, -1, -31.9144, -4.14272, 26.2663, 13.4654, 75.4635, -145.784
3.2639, -1, -32.0841, -4.22993, 26.3007, 13.4676, 75.3725, -146.015
3.27064, -1, -32.1688, -4.27347, 26.3179, 13.4687, 75.3269, -146.131
3.28011, -1, -32.4229, -4.40411, 26.3693, 13.472, 75.1902, -146.477
3.28845, -1, -32.5926, -4.49107, 26.4036, 13.4741, 75.0997, -146.707
3.29687, -1, -32.7622, -4.57797, 26.438, 13.4763, 75.0086, -146.937
3.30423, -1, -32.9318, -4.66486, 26.4723, 13.4784, 74.9179, -147.168
3.31216, -1, -33.1015, -4.75178, 26.5064, 13.4805, 74.8274, -147.398
3.32097, -1, -33.1864, -4.79521, 26.5236, 13.4828, 74.7366, -147.628
3.3283, -1, -33.3563, -4.92548, 26.575, 13.485, 74.646, -147.858
3.33559, -1, -33.5265, -4.96897, 26.5921, 13.4861, 74.6006, -147.973
3.34359, -1, -33.6969, -5.05588, 26.6263, 13.4883, 74.5103, -148.203
3.35158, -1, -33.8671, -5.14265, 26.6605, 13.4906, 74.4196, -148.433
3.35959, -1, -34.0374, -5.22942, 26.6946, 13.4928, 74.3291, -148.662
3.3677, -1, -34.2076, -5.31619, 26.7288, 13.495, 74.2387, -148.891
3.37559, -1, -34.3777, -5.40284, 26.763, 13.4973, 74.148, -149.121
3.38365, -1, -34.5476, -5.48951, 26.7972, 13.4996, 74.0574, -149.35
3.39164, -1, -34.7168, -5.57624, 26.8312, 13.502, 73.967, -149.58
3.39959, -1, -34.8854, -5.66285, 26.8654, 13.5044, 73.8763, -149.809
3.40765, -1, -35.0539, -5.74937, 26.8995, 13.5069, 73.7859, -150.038
3.41563, -1, -35.2222, -5.83584, 26.9335, 13.5093, 73.6956, -150.267
3.4236, -1, -35.3905, -5.92218, 26.9676, 13.5118, 73.6052, -150.496
3.43166, -1, -35.5589, -6.00836, 27.0018, 13.5141, 73.5149, -150.725
3.43959, -1, -35.7274, -6.09459, 27.0357, 13.5165, 73.4245, -150.953
3.44759, -1, -35.896, -6.18079, 27.0698, 13.5189, 73.3343, -151.182
3.45658, -1, -36.0645, -6.26691, 27.1039, 13.5212, 73.2438, -151.41
3.46359, -1, -36.233, -6.35302, 27.1379, 13.5236, 73.1533, -151.639
3.47258, -1, -36.4017, -6.43926, 27.1718, 13.526, 73.0632, -151.867
3.47966, -1, -36.5705, -6.52549, 27.2058, 13.5284, 72.9727, -152.096
3.48758, -1, -36.7394, -6.61166, 27.2397, 13.5307, 72.8825, -152.324
3.49564, -1, -36.9083, -6.69784, 27.2737, 13.533, 72.7925, -152.552
3.50366, -1, -37.0773, -6.78401, 27.3076, 13.5353, 72.7023, -152.78
3.51158, -1, -37.2462, -6.87016, 27.3415, 13.5376, 72.6124, -153.008
3.51959, -1, -37.4148, -6.95616, 27.3754, 13.5398, 72.5225, -153.235
3.52766, -1, -37.5829, -7.04223, 27.4094, 13.5421, 72.4326, -153.463
3.53558, -1, -37.7508, -7.12826, 27.4434, 13.5443, 72.3427, -153.69
3.54358, -1, -37.9184, -7.21424, 27.4771, 13.5466, 72.2529, -153.918
3.55171, -1, -38.0858, -7.30014, 27.511, 13.5488, 72.1633, -154.145
3.55972, -1, -38.2532, -7.38601, 27.5449, 13.551, 72.0734, -154.373
3.56758, -1, -38.4204, -7.47174, 27.5787, 13.5532, 71.9837, -154.6
3.57565, -1, -38.5876, -7.55744, 27.6126, 13.5553, 71.8943, -154.827
3.58358, -1, -38.7549, -7.64314, 27.6465, 13.5573, 71.8046, -155.054
3.59158, -1, -38.9222, -7.72884, 27.6802, 13.5594, 71.7151, -155.281
3.59968, -1, -39.0896, -7.81446, 27.7139, 13.5615, 71.6261, -155.508
3.60759, -1, -39.2571, -7.90009, 27.7478, 13.5635, 71.5365, -155.735
3.61558, -1, -39.4246, -7.98581, 27.7816, 13.5655, 71.4471, -155.961
3.62366, -1, -39.5922, -8.07138, 27.8152, 13.5675, 71.3579, -156.188
3.63158, -1, -39.7599, -8.15694, 27.8489, 13.5694, 71.2685, -156.415
3.6396, -1, -39.9276, -8.24247, 27.8827, 13.5713, 71.1792, -156.641
3.64779, -1, -40.0951, -8.3279, 27.9163, 13.5732, 71.0898, -156.868
3.65562, -1, -40.2626, -8.41328, 27.95, 13.5752, 71.0006, -157.094
3.6637, -1, -40.4299, -8.49868, 27.9837, 13.5772, 70.9112, -157.32
3.67201, -1, -40.597, -8.58408, 28.0174, 13.5792, 70.822, -157.547
3.67969, -1, -40.7639, -8.66947, 28.0509, 13.5812, 70.733, -157.772
3.68769, -1, -40.9304, -8.75482, 28.0846, 13.5833, 70.6438, -157.998
3.69621, -1, -41.0967, -8.84016, 28.1183, 13.5853, 70.5546, -158.224
3.70358, -1, -41.2629, -8.92539, 28.1518, 13.5873, 70.4656, -158.45
3.71159, -1, -41.4291, -9.01057, 28.1853, 13.5892, 70.3763, -158.676
3.72043, -1, -41.5954, -9.09577, 28.219, 13.5913, 70.2872, -158.901
3.72761, -1, -41.7617, -9.18088, 28.2525, 13.5932, 70.1981, -159.127
3.73566, -1, -41.9281, -9.26599, 28.2861, 13.5953, 70.109, -159.352
3.74474, -1, -42.0944, -9.35101, 28.3198, 13.5973, 70.02, -159.578
3.75183, -1, -42.2607, -9.43612, 28.3533, 13.5993, 69.9311, -159.803
3.75992, -1, -42.4269, -9.52114, 28.3868, 13.6014, 69.8423, -160.028
3.76882, -1, -42.5934, -9.60611, 28.4203, 13.6034, 69.7532, -160.253
3.77595, -1, -42.7597, -9.69105, 28.4538, 13.6054, 69.6643, -160.478
3.78411, -1, -42.9262, -9.77601, 28.4872, 13.6075, 69.5758, -160.704
3.79215, -1, -43.0927, -9.86094, 28.5207, 13.6095, 69.4868, -160.928
3.80086, -1, -43.259, -9.94591, 28.5542, 13.6116, 69.3981, -161.153
3.80818, -1, -43.425, -10.0308, 28.5877, 13.6137, 69.3096, -161.378
3.81619, -1, -43.5909, -10.1157, 28.6212, 13.6157, 69.2209, -161.602
3.82498, -1, -43.6738, -10.1582, 28.638, 13.6178, 69.1324, -161.827
3.83229, -1, -43.8397, -10.2431, 28.6881, 13.62, 69.0439, -162.052
3.83958, -1, -44.0054, -10.3278, 28.7048, 13.6211, 68.9998, -162.164
3.84757, -1, -44.1708, -10.4126, 28.7383, 13.6232, 68.911, -162.388
3.85562, -1, -44.336, -10.4972, 28.7718, 13.6254, 68.8224, -162.612
3.86357, -1, -44.5011, -10.5817, 28.8051, 13.6276, 68.7339, -162.837
3.87157, -1, -44.6663, -10.6663, 28.8385, 13.6298, 68.6452, -163.061
3.87964, -1, -44.8316, -10.7508, 28.8721, 13.632, 68.5566, -163.285
3.88763, -1, -44.997, -10.8352, 28.9055, 13.6342, 68.4682, -163.509
3.89558, -1, -45.1623, -10.9198, 28.9389, 13.6364, 68.3799, -163.733
3.90362, -1, -45.3277, -11.0043, 28.9723, 13.6386, 68.2914, -163.957
3.91157, -1, -45.4929, -11.0887, 29.0056, 13.6409, 68.203, -164.181
3.91957, -1, -45.6582, -11.1731, 29.0388, 13.6432, 68.115, -164.405
3.92763, -1, -45.8235, -11.2576, 29.0722, 13.6455, 68.0264, -164.628
3.93558, -1, -45.9876, -11.3414, 29.1056, 13.6477, 67.9381, -164.852
3.94357, -1, -46.149, -11.4237, 29.1391, 13.6501, 67.85, -165.075
3.95163, -1, -46.306, -11.5031, 29.1726, 13.6524, 67.7626, -165.296
3.95957, -1, -46.4562, -11.5781, 29.2062, 13.6548, 67.6774, -165.512
3.9686, -1, -46.5973, -11.6479, 29.2384, 13.6571, 67.596, -165.717
3.97564, -1, -46.7268, -11.7112, 29.2682, 13.6593, 67.5214, -165.907
3.98357, -1, -46.8416, -11.7673, 29.2946, 13.6614, 67.4545, -166.075
3.99157, -1, -46.9403, -11.8164, 29.3166, 13.6631, 67.3988, -166.217
3.99968, -1, -47.0227, -11.8592, 29.3332, 13.6643, 67.354, -166.33
4.00862, -1, -47.0898, -11.896, 29.3444, 13.665, 67.3206, -166.414
4.01557, -1, -47.1421, -11.9253, 29.3515, 13.6655, 67.2973, -166.473
4.02364, -1, -47.1809, -11.9474, 29.3554, 13.6657, 67.2824, -166.51
4.03156, -1, -47.2083, -11.9627, 29.3572, 13.6658, 67.2736, -166.533
4.03957, -1, -47.2264, -11.9727, 29.358, 13.6658, 67.2689, -166.544
4.04764, -1, -47.2371, -11.9785, 29.3585, 13.6659, 67.2665, -166.55
4.05564, 2, -47.2427, -11.9814, 29.3587, 13.666, 67.2654, -166.553
4.06361, 2, -47.2447, -11.9827, 29.3588, 13.666, 67.2649, -166.554
4.07163, 2, -47.2447, -11.9832, 29.3589, 13.6661, 67.2646, -166.555
4.07957, 2, -47.2445, -11.9833, 29.359, 13.666, 67.2645, -166.555
4.08758, 2, -47.2444, -11.9834, 29.359, 13.666, 67.2645, -166.555
4.09563, 2, -47.2448, -11.9836, 29.3591, 13.666, 67.2644, -166.555
4.10356, 2, -47.2457, -11.9838, 29.3591, 13.6661, 67.2644, -166.555
4.11157, 2, -47.247, -11.9843, 29.3591, 13.6661, 67.2645, -166.555
4.11964, 2, -47.2488, -11.9851, 29.3591, 13.6661, 67.2644, -166.555
4.12756, 2, -47.2504, -11.986, 29.3591, 13.666, 67.2645, -166.555
4.13558, 2, -47.2518, -11.9868, 29.3591, 13.6661, 67.2645, -166.555
4.14364, 2, -47.2527, -11.9875, 29.3591, 13.666, 67.2644, -166.555
4.15159, 2, -47.2532, -11.9878, 29.3591, 13.666, 67.2645, -166.555
4.15962, 2, -47.2533, -11.988, 29.3591, 13.666, 67.2644, -166.555
4.16776, 2, -47.2534, -11.9881, 29.3591, 13.6661, 67.2644, -166.555
4.17566, 2, -47.2531, -11.9881, 29.3591, 13.666, 67.2644, -166.555
4.18366, 2, -47.2526, -11.9881, 29.3591, 13.6661, 67.2644, -166.555
4.19174, 2, -47.2521, -11.988, 29.3591, 13.6661, 67.2645, -166.555
4.19968, 2, -47.2518, -11.988, 29.3591, 13.6661, 67.2644, -166.555
4.20757, 2, -47.2516, -11.988, 29.3591, 13.666, 67.2644, -166.555
4.21582, 2, -47.2516, -11.9881, 29.3592, 13.666, 67.2645, -166.555
4.22366, 2, -47.2518, -11.9883, 29.3591, 13.666, 67.2645, -166.555
4.2316, 2, -47.252, -11.9886, 29.3591, 13.666, 67.2645, -166.555
4.23977, 2, -47.2526, -11.989, 29.3591, 13.666, 67.2645, -166.555
4.24772, 2, -47.2531, -11.9893, 29.3591, 13.666, 67.2645, -166.555
4.25603, 2, -47.2534, -11.9895, 29.3591, 13.666, 67.2644, -166.555
4.26398, 2, -47.2536, -11.9895, 29.3591, 13.666, 67.2644, -166.555
4.27189, 2, -47.2536, -11.9896, 29.3591, 13.666, 67.2645, -166.555
4.2786, 2, -47.2536, -11.9895, 29.3591, 13.666, 67.2645, -166.555
4.28817, 2, -47.2533, -11.9895, 29.3592, 13.666, 67.2645, -166.555
4.29611, 2, -47.2529, -11.9894, 29.3592, 13.666, 67.2645, -166.555
4.30421, 2, -47.2525, -11.9894, 29.3592, 13.666, 67.2645, -166.555
4.31222, 2, -47.2523, -11.9894, 29.3592, 13.666, 67.2645, -166.555
4.32015, 2, -47.2521, -11.9894, 29.3592, 13.666, 67.2645, -166.555
4.32815, 2, -47.252, -11.9894, 29.3592, 13.666, 67.2645, -166.555
4.33632, 2, -47.252, -11.9894, 29.3592, 13.666, 67.2646, -166.555
4.34355, 2, -47.2519, -11.9895, 29.3592, 13.666, 67.2646, -166.555
4.35156, 2, -47.2519, -11.9895, 29.3592, 13.6661, 67.2646, -166.555
4.35961, 2, -47.2519, -11.9896, 29.3592, 13.666, 67.2645, -166.555
4.36755, 2, -47.2519, -11.9896, 29.3592, 13.666, 67.2645, -166.555
4.37556, 2, -47.252, -11.9896, 29.3592, 13.666, 67.2645, -166.555
4.38363, 2, -47.252, -11.9896, 29.3592, 13.666, 67.2646, -166.555
4.39162, 2, -47.2519, -11.9895, 29.3592, 13.666, 67.2646, -166.555
4.39956, 2, -47.2518, -11.9895, 29.3591, 13.666, 67.2646, -166.555
4.40762, 2, -47.2517, -11.9894, 29.3591, 13.666, 67.2645, -166.555
4.41556, 2, -47.2516, -11.9894, 29.3592, 13.666, 67.2645, -166.555
4.42355, 2, -47.2516, -11.9894, 29.3592, 13.666, 67.2646, -166.555
4.43161, 2, -47.2514, -11.9894, 29.3592, 13.666, 67.2645, -166.555
4.43956, 2, -47.2514, -11.9893, 29.3592, 13.666, 67.2645, -166.555
4.44755, 2, -47.2513, -11.9894, 29.3592, 13.666, 67.2646, -166.555
4.45719, 2, -47.2513, -11.9894, 29.3592, 13.666, 67.2646, -166.555
4.46355, 2, -47.2512, -11.9894, 29.3592, 13.666, 67.2646, -166.555
4.47255, 2, -47.2512, -11.9894, 29.3591, 13.666, 67.2646, -166.555
4.47963, 2, -47.2511, -11.9894, 29.3592, 13.666, 67.2646, -166.555
4.48756, 2, -47.251, -11.9894, 29.3592, 13.666, 67.2646, -166.555
4.49557, 2, -47.251, -11.9893, 29.3592, 13.666, 67.2646, -166.555
4.50365, 2, -47.2509, -11.9893, 29.3592, 13.666, 67.2645, -166.555
4.51155, 2, -47.2508, -11.9892, 29.3592, 13.6659, 67.2646, -166.555
4.51956, 2, -47.2508, -11.9892, 29.3592, 13.6659, 67.2646, -166.555
4.52762, 2, -47.2507, -11.9891, 29.3592, 13.666, 67.2646, -166.555
4.53556, 2, -47.2506, -11.9891, 29.3592, 13.666, 67.2646, -166.555
4.54355, 2, -47.2505, -11.9891, 29.3592, 13.6659, 67.2646, -166.555
4.55163, 2, -47.2504, -11.9891, 29.3592, 13.6659, 67.2647, -166.555
4.55962, 2, -47.2502, -11.9891, 29.3592, 13.6659, 67.2647, -166.555
4.56756, 2, -47.2502, -11.9891, 29.3592, 13.6659, 67.2646, -166.555
4.57563, 2, -47.2501, -11.9891, 29.3592, 13.6659, 67.2646, -166.555
4.58355, 2, -47.2499, -11.9891, 29.3592, 13.6659, 67.2647, -166.555
4.59155, 2, -47.2498, -11.9891, 29.3592, 13.6659, 67.2647, -166.555
4.59962, 2, -47.2497, -11.989, 29.3592, 13.6659, 67.2647, -166.555
4.60755, 2, -47.2496, -11.989, 29.3592, 13.6659, 67.2647, -166.555
4.61556, 2, -47.2495, -11.9889, 29.3592, 13.6659, 67.2647, -166.555
4.62363, 2, -47.2495, -11.9888, 29.3592, 13.6659, 67.2647, -166.555
4.63155, 2, -47.2493, -11.9888, 29.3591, 13.6659, 67.2647, -166.555
4.63956, 2, -47.2492, -11.9888, 29.3592, 13.6659, 67.2647, -166.555
4.64764, 2, -47.2491, -11.9888, 29.3592, 13.6659, 67.2647, -166.555
4.65559, 2, -47.2491, -11.9888, 29.3592, 13.6659, 67.2647, -166.555
4.66362, 2, -47.249, -11.9888, 29.3592, 13.6659, 67.2647, -166.555
4.67174, 2, -47.249, -11.9888, 29.3592, 13.6659, 67.2647, -166.555
4.67965, 2, -47.2489, -11.9888, 29.3591, 13.6659, 67.2647, -166.555
4.68765, 2, -47.2488, -11.9888, 29.3592, 13.6658, 67.2647, -166.555
4.69574, 2, -47.2488, -11.9888, 29.3592, 13.6658, 67.2647, -166.555
4.70361, 2, -47.2487, -11.9887, 29.3592, 13.6658, 67.2647, -166.555
4.71155, 2, -47.2487, -11.9886, 29.3592, 13.6658, 67.2647, -166.555
4.71971, 2, -47.2486, -11.9886, 29.3592, 13.6658, 67.2647, -166.555
4.72765, 2, -47.2485, -11.9885, 29.3592, 13.6658, 67.2647, -166.555
4.73561, 2, -47.2484, -11.9885, 29.3592, 13.6658, 67.2647, -166.555
4.74373, 2, -47.2484, -11.9885, 29.3592, 13.6658, 67.2647, -166.555
4.75172, 2, -47.2483, -11.9885, 29.3592, 13.6658, 67.2647, -166.555
4.75982, 2, -47.2483, -11.9885, 29.3592, 13.6658, 67.2647, -166.555
4.76827, 2, -47.2483, -11.9885, 29.3592, 13.6658, 67.2647, -166.555
4.7759, 2, -47.2482, -11.9885, 29.3591, 13.6658, 67.2647, -166.554
4.78259, 2, -47.2482, -11.9885, 29.3592, 13.6658, 67.2647, -166.554
4.79242, 2, -47.2482, -11.9884, 29.3592, 13.6657, 67.2647, -166.554
4.80009, 2, -47.2482, -11.9884, 29.3592, 13.6657, 67.2648, -166.554
4.80813, 2, -47.2481, -11.9884, 29.3592, 13.6657, 67.2648, -166.555
4.81639, 2, -47.2481, -11.9883, 29.3592, 13.6657, 67.2648, -166.554
4.82434, 2, -47.248, -11.9882, 29.3592, 13.6657, 67.2648, -166.554
4.83213, 2, -47.248, -11.9882, 29.3592, 13.6656, 67.2648, -166.554
4.84046, 2, -47.2479, -11.9881, 29.3592, 13.6656, 67.2648, -166.554
4.84754, 2, -47.2478, -11.9881, 29.3592, 13.6656, 67.2648, -166.554
4.85555, 2, -47.2478, -11.9881, 29.3592, 13.6656, 67.2648, -166.554
4.86443, 2, -47.2478, -11.9881, 29.3591, 13.6656, 67.2648, -166.554
4.87154, 2, -47.2477, -11.9881, 29.3592, 13.6656, 67.2648, -166.554
4.87954, 2, -47.2477, -11.9881, 29.3591, 13.6656, 67.2648, -166.554
4.88763, 2, -47.2477, -11.9881, 29.3591, 13.6656, 67.2648, -166.554
4.89561, 2, -47.2477, -11.9881, 29.3592, 13.6656, 67.2648, -166.554
4.90352, 2, -47.2476, -11.988, 29.3591, 13.6656, 67.2648, -166.554
4.91159, 2, -47.2476, -11.988, 29.3591, 13.6656, 67.2649, -166.554
4.91954, 2, -47.2476, -11.9879, 29.3591, 13.6656, 67.2649, -166.554
4.92754, 2, -47.2475, -11.9879, 29.3592, 13.6656, 67.2649, -166.554
4.93561, 2, -47.2474, -11.9878, 29.3592, 13.6656, 67.2649, -166.554
4.94354, 2, -47.2473, -11.9878, 29.3592, 13.6655, 67.2649, -166.554
4.95155, 2, -47.2472, -11.9878, 29.3592, 13.6655, 67.2649, -166.554
4.96135, 2, -47.2471, -11.9878, 29.3591, 13.6654, 67.265, -166.554
4.96755, 2, -47.2471, -11.9878, 29.3591, 13.6654, 67.265, -166.554
4.97653, 2, -47.2471, -11.9877, 29.3592, 13.6655, 67.265, -166.554
4.98361, 2, -47.2471, -11.9877, 29.3592, 13.6654, 67.265, -166.554
4.99154, 2, -47.2471, -11.9877, 29.3592, 13.6654, 67.265, -166.554
4.99955, 2, -47.2471, -11.9877, 29.3592, 13.6654, 67.265, -166.554
5.00764, 2, -47.2471, -11.9877, 29.3592, 13.6654, 67.265, -166.554
5.01556, 2, -47.247, -11.9877, 29.3592, 13.6654, 67.265, -166.554
5.0236, 2, -47.2469, -11.9876, 29.3592, 13.6654, 67.265, -166.554
5.0316, 2, -47.2469, -11.9875, 29.3591, 13.6654, 67.265, -166.554
5.03955, 2, -47.2468, -11.9875, 29.3591, 13.6653, 67.2651, -166.554
5.04755, 2, -47.2467, -11.9874, 29.3591, 13.6653, 67.265, -166.554
5.05691, 2, -47.2466, -11.9874, 29.3592, 13.6654, 67.265, -166.554
5.0636, 2, -47.2466, -11.9874, 29.3591, 13.6653, 67.2651, -166.554
5.07161, 2, -47.2465, -11.9874, 29.3592, 13.6653, 67.2651, -166.554
5.07955, 2, -47.2465, -11.9874, 29.3591, 13.6653, 67.2651, -166.554
5.08754, 2, -47.2464, -11.9874, 29.3592, 13.6653, 67.2651, -166.554
5.09557, 2, -47.2464, -11.9874, 29.3591, 13.6653, 67.2651, -166.554
5.10353, 2, -47.2464, -11.9874, 29.3592, 13.6652, 67.2651, -166.554
5.11159, 2, -47.2464, -11.9874, 29.3591, 13.6652, 67.2651, -166.554
5.11957, 4, -47.2463, -11.9873, 29.3591, 13.6652, 67.2652, -166.554
5.12755, 4, -47.2463, -11.9872, 29.3591, 13.6652, 67.2652, -166.554
5.13561, 4, -47.2463, -11.9872, 29.3591, 13.6652, 67.2652, -166.554
5.14357, 4, -47.2462, -11.9872, 29.3591, 13.6652, 67.2651, -166.554
5.15154, 4, -47.2461, -11.9871, 29.3592, 13.6652, 67.2651, -166.554
5.15963, 4, -47.246, -11.9871, 29.3592, 13.6652, 67.2652, -166.554
5.16763, 4, -47.246, -11.9871, 29.3592, 13.6651, 67.2651, -166.554
5.17567, 4, -47.2459, -11.9871, 29.3592, 13.6651, 67.2652, -166.554
5.18369, 4, -47.2459, -11.9871, 29.3592, 13.6651, 67.2652, -166.554
5.19166, 4, -47.2459, -11.9871, 29.3592, 13.6651, 67.2652, -166.554
5.19965, 4, -47.2458, -11.9871, 29.3592, 13.6651, 67.2652, -166.554
5.20771, 4, -47.2458, -11.987, 29.3592, 13.6651, 67.2652, -166.554
5.21586, 4, -47.2458, -11.987, 29.3592, 13.6651, 67.2652, -166.554
5.23158, 4, -47.2458, -11.9869, 29.3592, 13.6651, 67.2653, -166.554
5.23357, 4, -47.2457, -11.9869, 29.3592, 13.6651, 67.2653, -166.554
5.23998, 4, -47.2457, -11.9869, 29.3591, 13.665, 67.2653, -166.554
5.24798, 4, -47.2456, -11.9869, 29.3591, 13.665, 67.2653, -166.553
5.25966, 4, -47.2456, -11.9868, 29.3591, 13.665, 67.2652, -166.553
5.2649, 4, -47.2455, -11.9868, 29.3591, 13.665, 67.2652, -166.553
5.27384, 4, -47.2455, -11.9868, 29.3591, 13.665, 67.2653, -166.553
5.28078, 4, -47.2454, -11.9868, 29.3591, 13.665, 67.2653, -166.553
5.2888, 4, -47.2454, -11.9868, 29.3591, 13.665, 67.2653, -166.553
5.29687, 4, -47.2454, -11.9868, 29.3591, 13.665, 67.2653, -166.553
5.30569, 4, -47.2453, -11.9868, 29.3591, 13.6649, 67.2653, -166.553
5.31654, 4, -47.2453, -11.9867, 29.3591, 13.6649, 67.2653, -166.553
5.32057, 4, -47.2453, -11.9867, 29.3591, 13.665, 67.2653, -166.553
5.33103, 4, -47.2453, -11.9867, 29.3591, 13.6649, 67.2653, -166.553
5.33694, 4, -47.2453, -11.9866, 29.3591, 13.6649, 67.2653, -166.553
5.34654, 4, -47.2453, -11.9866, 29.3591, 13.6649, 67.2653, -166.553
5.35857, 4, -47.2451, -11.9866, 29.3591, 13.6649, 67.2653, -166.553
5.36112, 4, -47.2451, -11.9866, 29.3591, 13.6649, 67.2653, -166.553
5.36773, 4, -47.2451, -11.9866, 29.3591, 13.6649, 67.2652, -166.553
5.37906, 4, -47.2452, -11.9866, 29.3592, 13.6649, 67.2653, -166.553
5.38582, 4, -47.2461, -11.9871, 29.3596, 13.665, 67.2654, -166.553
5.39338, 4, -47.2484, -11.9889, 29.3615, 13.6667, 67.2661, -166.553
5.405, 4, -47.2527, -11.9972, 29.3723, 13.6867, 67.2709, -166.551
5.40996, 5, -47.2598, -12.0023, 29.3798, 13.7016, 67.2748, -166.548
5.4175, 5, -47.265, -12.009, 29.4046, 13.7507, 67.2884, -166.537
5.42667, 5, -47.2897, -12.0419, 29.4473, 13.8387, 67.313, -166.518
5.43382, 5, -47.3166, -12.0773, 29.5145, 13.9791, 67.3527, -166.486
5.43987, 5, -47.334, -12.0998, 29.5591, 14.0737, 67.3789, -166.464
5.45178, 5, -47.4042, -12.1883, 29.7449, 14.4729, 67.489, -166.373
5.45568, 5, -47.4339, -12.2253, 29.8252, 14.6474, 67.5364, -166.333
5.46617, 5, -47.5423, -12.3589, 30.1241, 15.2967, 67.7112, -166.184
5.47177, 5, -47.5846, -12.4109, 30.2428, 15.5525, 67.7795, -166.126
5.48147, 5, -47.6777, -12.5252, 30.5053, 16.1145, 68.0073, -165.931
5.49086, 5, -47.8354, -12.7192, 30.9539, 17.0557, 68.1725, -165.789
5.49657, 5, -47.8918, -12.7889, 31.1147, 17.3882, 68.2574, -165.716
5.50762, 5, -48.0684, -13.0085, 31.6211, 18.4151, 68.5152, -165.493
5.51176, 5, -48.1289, -13.0839, 31.7946, 18.7621, 68.6007, -165.419
5.5222, 5, -48.3112, -13.3107, 32.3216, 19.7996, 68.8521, -165.199
5.53091, 5, -48.4299, -13.4577, 32.672, 20.4739, 69.0141, -165.053
5.53656, 5, -48.487, -13.5291, 32.8451, 20.8026, 69.0937, -164.977
5.54425, 6, -48.5937, -13.6657, 33.1825, 21.4355, 69.2515, -164.814
5.55267, 6, -48.6864, -13.7924, 33.5053, 22.0266, 69.4093, -164.626
5.56279, 7, -48.7612, -13.9094, 33.8088, 22.571, 69.5693, -164.399
5.56773, 7, -48.8151, -14.018, 34.0918, 23.0649, 69.7336, -164.121
5.57579, 7, -48.8466, -14.1189, 34.3548, 23.5112, 69.9036, -163.781
5.58368, 8, -48.8562, -14.2109, 34.5995, 23.9167, 70.0813, -163.378
5.59335, 8, -48.8473, -14.2935, 34.8307, 24.2911, 70.2668, -162.91
5.60272, 9, -48.8059, -14.4037, 35.1597, 24.8171, 70.5619, -162.106
5.60868, 9, -48.7858, -14.438, 35.2662, 24.988, 70.6648, -161.816
5.61575, 9, -48.7381, -14.5042, 35.4781, 25.3287, 70.8779, -161.214
5.62475, 10, -48.6812, -14.5688, 35.6901, 25.672, 71.0997, -160.589
5.6347, 11, -48.5808, -14.6642, 36.0086, 26.1966, 71.4445, -159.634
5.64066, 11, -48.5442, -14.6956, 36.1151, 26.3745, 71.5615, -159.314
5.65339, 11, -48.4677, -14.7582, 36.3278, 26.9186, 71.9159, -158.355
5.6561, 12, -48.3893, -14.8203, 36.5383, 27.1037, 72.0351, -158.034
5.66534, 12, -48.3102, -14.881, 36.7472, 27.4801, 72.2751, -157.391
5.67177, 13, -48.2311, -14.9395, 36.9544, 27.8649, 72.518, -156.744
5.68031, 13, -48.1509, -14.9966, 37.1592, 28.258, 72.764, -156.091
5.6878, 14, -48.0682, -15.0545, 37.3626, 28.658, 73.0127, -155.435
5.69581, 15, -47.9818, -15.1141, 37.5657, 29.0627, 73.2634, -154.777
5.70549, 15, -47.8912, -15.1744, 37.7674, 29.4692, 73.5136, -154.122
5.71374, 16, -47.7955, -15.2339, 37.9675, 29.8746, 73.761, -153.471
5.72187, 16, -47.6934, -15.2928, 38.1664, 30.2767, 74.0036, -152.825
5.72796, 17, -47.5842, -15.3531, 38.3632, 30.6743, 74.2406, -152.188
5.73692, 17, -47.4691, -15.4157, 38.5565, 31.0671, 74.4713, -151.556
5.74393, 17, -47.3487, -15.4799, 38.7467, 31.4551, 74.6958, -150.929
5.75349, 18, -47.2237, -15.5447, 38.9342, 31.8395, 74.9148, -150.31
5.76173, 19, -47.0933, -15.6114, 39.1181, 32.2214, 75.1291, -149.698
5.76877, 19, -46.9569, -15.6814, 39.2995, 32.6027, 75.3396, -149.09
5.7764, 19, -46.8148, -15.7542, 39.4796, 32.9836, 75.5463, -148.488
5.78427, 20, -46.6678, -15.828, 39.6581, 33.3639, 75.7492, -147.893
5.79266, 20, -46.5169, -15.9023, 39.8341, 33.7433, 75.9479, -147.306
5.80048, 21, -46.3627, -15.978, 40.0081, 34.1218, 76.1424, -146.724
5.80985, 22, -46.205, -16.0551, 40.1809, 34.4997, 76.3327, -146.149
5.81678, 22, -46.0436, -16.1337, 40.3515, 34.8762, 76.519, -145.58
5.833, 23, -45.7921, -16.2549, 40.6015, 35.4378, 76.7919, -144.737
5.83839, 23, -45.6161, -16.3387, 40.7648, 35.8084, 76.9682, -144.181
5.84106, 23, -45.5251, -16.3815, 40.8452, 35.992, 77.0546, -143.905
5.84853, 24, -45.4321, -16.469, 41.0026, 36.3545, 77.2225, -143.357
5.85632, 24, -45.2402, -16.5136, 41.0794, 36.5327, 77.3039, -143.085
5.8651, 25, -45.0408, -16.6037, 41.2299, 36.8822, 77.4608, -142.278
5.87166, 25, -44.8345, -16.6946, 41.3761, 37.2214, 77.6095, -142.012
5.88176, 26, -44.5123, -16.8327, 41.5866, 37.7112, 77.8186, -141.22
5.88769, 26, -44.4013, -16.8793, 41.6542, 37.87, 77.8853, -140.958
5.89571, 27, -44.1741, -16.9728, 41.7855, 38.1815, 78.0151, -140.435
5.90896, 28, -43.6998, -17.159, 42.0305, 38.7835, 78.2659, -139.393
5.91173, 28, -43.6998, -17.159, 42.0305, 38.7835, 78.2659, -139.393
5.9215, 29, -43.3257, -17.2951, 42.1968, 39.2177, 78.4493, -138.611
5.92764, 29, -43.1976, -17.3396, 42.2488, 39.3592, 78.5101, -138.35
5.93569, 30, -42.9367, -17.4268, 42.3472, 39.637, 78.6299, -137.826
5.94614, 30, -42.5327, -17.5525, 42.481, 40.039, 78.8061, -137.042
5.95437, 31, -42.2533, -17.6328, 42.5611, 40.2966, 78.92, -136.52
5.95973, 31, -42.1106, -17.6721, 42.5985, 40.422, 78.9758, -136.259
5.96839, 32, -41.8195, -17.7488, 42.668, 40.6661, 79.0852, -135.738
5.97571, 32, -41.5216, -17.8228, 42.7307, 40.901, 79.1907, -135.217
5.98837, 33, -41.0621, -17.9285, 42.812, 41.2368, 79.3425, -134.44
5.99164, 33, -40.9055, -17.9623, 42.8355, 41.3446, 79.3918, -134.182
6.00265, 34, -40.4252, -18.0604, 42.8954, 41.6554, 79.5348, -133.408
6.01069, 34, -40.0984, -18.1228, 42.9263, 41.8527, 79.6271, -132.893
6.01768, 35, -39.9333, -18.153, 42.939, 41.9484, 79.6725, -132.635
6.02465, 35, -39.5988, -18.2109, 42.9592, 42.1344, 79.7614, -132.123
6.0348, 36, -39.0851, -18.2915, 42.9763, 42.3994, 79.891, -131.355
6.04463, 36, -38.9103, -18.3166, 42.9786, 42.4838, 79.933, -130.844
6.05106, 37, -38.376, -18.3868, 42.9756, 42.7258, 80.0564, -130.335
6.05566, 37, -38.195, -18.4085, 42.9713, 42.8028, 80.0964, -130.081
6.06475, 38, -37.8288, -18.4489, 42.9573, 42.9509, 80.1755, -129.575
6.0717, 38, -37.4578, -18.4857, 42.9367, 43.0919, 80.2519, -129.07
6.07971, 39, -37.0822, -18.5191, 42.9094, 43.2252, 80.3267, -128.566
6.09151, 39, -36.5099, -18.5627, 42.8559, 43.4117, 80.4342, -127.815
6.09751, 40, -36.3167, -18.5753, 42.8347, 43.4701, 80.4694, -127.565
6.10556, 40, -35.9256, -18.5977, 42.7874, 43.5815, 80.5377, -127.067
6.11176, 40, -35.5282, -18.6161, 42.7336, 43.6859, 80.6049, -126.571
6.12561, 41, -34.9218, -18.6368, 42.6407, 43.8287, 80.7008, -125.831
6.12849, 41, -34.7173, -18.6419, 42.6064, 43.8729, 80.7323, -125.586
6.13951, 42, -34.3059, -18.6525, 42.4941, 43.9944, 80.8222, -124.852
6.14375, 42, -33.8915, -18.6544, 42.4536, 44.0314, 80.8516, -124.609
6.15335, 43, -33.4738, -18.6559, 42.368, 44.0997, 80.9093, -124.124
6.16157, 44, -33.051, -18.6539, 42.2766, 44.1614, 80.9642, -123.641
6.1687, 44, -32.6221, -18.6481, 42.1795, 44.2155, 81.0186, -123.161
6.17773, 45, -32.1866, -18.6386, 42.0766, 44.2624, 81.0708, -122.683
6.18457, 45, -31.7452, -18.6252, 41.9678, 44.3023, 81.121, -122.208
6.19977, 46, -30.8525, -18.5881, 41.732, 44.359, 81.2174, -121.264
6.20446, 46, -30.6282, -18.5766, 41.6695, 44.3683, 81.24, -121.03
6.20782, 47, -30.403, -18.5642, 41.6054, 44.3756, 81.2625, -120.796
6.21771, 47, -29.9493, -18.5359, 41.4729, 44.3849, 81.3074, -120.329
6.22386, 48, -29.4896, -18.5032, 41.3344, 44.3876, 81.3507, -119.865
6.23341, 48, -29.0233, -18.4662, 41.1898, 44.3821, 81.3925, -119.402
6.24172, 49, -28.5512, -18.4249, 41.0391, 44.3676, 81.4343, -118.942
6.24869, 49, -28.0753, -18.3792, 40.8826, 44.3447, 81.476, -118.483
6.25664, 50, -27.5973, -18.329, 40.7201, 44.3118, 81.5166, -118.025
6.26465, 50, -27.1164, -18.2739, 40.5509, 44.2694, 81.5574, -117.568
6.2723, 51, -26.6303, -18.2132, 40.3751, 44.2185, 81.5996, -117.112
6.28087, 51, -26.1366, -18.147, 40.193, 44.1571, 81.642, -116.657
6.29103, 51, -25.6351, -18.0752, 40.0036, 44.0864, 81.6844, -116.203
6.29638, 52, -25.1288, -17.998, 39.8068, 44.0052, 81.7282, -115.749
6.30556, 53, -24.62, -17.9152, 39.6038, 43.9136, 81.7732, -115.296
6.31373, 53, -24.1088, -17.8266, 39.3941, 43.812, 81.8181, -114.843
6.32054, 53, -23.5927, -17.7315, 39.1761, 43.6998, 81.8649, -114.392
6.33238, 54, -22.8043, -17.5771, 38.8352, 43.5108, 81.9399, -113.713
6.34016, 55, -22.5373, -17.5226, 38.7178, 43.442, 81.9924, -113.261
6.34511, 55, -21.9995, -17.409, 38.4767, 43.2955, 82.0201, -113.035
6.35247, 55, -21.7294, -17.35, 38.3536, 43.2178, 82.0768, -112.582
6.36422, 56, -20.9161, -17.1643, 37.975, 42.9679, 82.1343, -112.13
6.36767, 57, -20.6429, -17.0994, 37.8453, 42.8791, 82.164, -111.904
6.37792, 57, -19.8101, -16.897, 37.4476, 42.5962, 82.254, -111.228
6.38377, 58, -19.5279, -16.8267, 37.3119, 42.4961, 82.2845, -111.003
6.39164, 58, -18.9585, -16.6816, 37.0357, 42.2865, 82.3474, -110.553
6.39972, 59, -18.3855, -16.5305, 36.7538, 42.0646, 82.4112, -110.103
6.41293, 59, -17.2295, -16.213, 36.1692, 41.5829, 82.5472, -109.204
6.41568, 60, -17.2295, -16.213, 36.1692, 41.5829, 82.5472, -109.204
6.42589, 60, -16.3397, -15.9629, 35.7137, 41.187, 82.6563, -108.53
6.4317, 61, -16.0388, -15.8768, 35.5594, 41.0483, 82.6934, -108.305
6.44211, 61, -15.1296, -15.6104, 35.0873, 40.6123, 82.8078, -107.632
6.44764, 62, -14.8254, -15.5195, 34.9274, 40.4608, 82.8468, -107.408
6.45565, 62, -14.2134, -15.3348, 34.6034, 40.1477, 82.9269, -106.959
6.46696, 63, -13.2784, -15.0476, 34.1089, 39.6542, 83.0506, -106.286
6.47164, 63, -12.9619, -14.9484, 33.9416, 39.4833, 83.093, -106.061
6.48005, 64, -12.3241, -14.7452, 33.6032, 39.1316, 83.1799, -105.611
6.48765, 64, -11.682, -14.5363, 33.2586, 38.766, 83.2704, -105.16
6.49591, 64, -11.034, -14.3208, 32.9073, 38.3853, 83.3658, -104.708
6.50364, 65, -10.3749, -14.0982, 32.5489, 37.9879, 83.4668, -104.253
6.5116, 66, -9.70445, -13.8688, 32.1847, 37.5715, 83.5741, -103.796
6.52065, 66, -9.02482, -13.6321, 31.815, 37.1363, 83.6881, -103.337
6.52766, 67, -8.33944, -13.3881, 31.4395, 36.6823, 83.8086, -102.877
6.5396, 67, -7.2978, -13.0097, 30.8639, 35.9674, 84.0021, -102.181
6.5477, 68, -6.59192, -12.7483, 30.4741, 35.471, 84.1393, -101.714
6.55549, 68, -5.8791, -12.4808, 30.0813, 34.9616, 84.2824, -101.245
6.56032, 69, -5.52106, -12.3452, 29.8835, 34.7025, 84.3562, -101.01
6.56766, 69, -4.80197, -12.0693, 29.4863, 34.1764, 84.5069, -100.539
6.57579, 70, -4.0769, -11.7873, 29.0879, 33.6418, 84.6621, -100.066
6.5868, 70, -3.34477, -11.4977, 28.6907, 33.0973, 84.8212, -99.5922
6.59167, 71, -2.60688, -11.1995, 28.2941, 32.5416, 84.9851, -99.1174
6.60064, 71, -1.86426, -10.8951, 27.8961, 31.9731, 85.1557, -98.6426
6.61341, 72, -0.739654, -10.4281, 27.2954, 31.0922, 85.4288, -97.9286
6.61624, 72, -0.36239, -10.2702, 27.0943, 30.7902, 85.5246, -97.6903
6.62395, 73, 0.394576, -9.95015, 26.6909, 30.1764, 85.723, -97.2128
6.63183, 73, 1.15387, -9.62306, 26.2871, 29.5521, 85.9292, -96.7355
6.64012, 73, 1.91653, -9.29009, 25.8841, 28.9189, 86.1426, -96.2581
6.64765, 74, 2.68336, -8.95115, 25.4842, 28.2793, 86.3627, -95.7793
6.65668, 75, 3.4533, -8.60673, 25.0889, 27.6335, 86.5887, -95.2992
6.66953, 75, 4.61252, -8.07725, 24.504, 26.6553, 86.9385, -94.5744
6.67244, 75, 5.00043, -7.89789, 24.3109, 26.3282, 87.0582, -94.3318
6.67973, 76, 5.77801, -7.53466, 23.9276, 25.671, 87.3021, -93.8438
6.68808, 76, 6.55773, -7.16596, 23.5484, 25.0103, 87.5532, -93.3526
6.69588, 77, 7.33897, -6.78928, 23.1717, 24.3493, 87.8121, -92.859
6.71115, 78, 8.51494, -6.20539, 22.4264, 23.0162, 88.3605, -91.8635
6.71311, 78, 8.90812, -6.00512, 22.4264, 23.0162, 88.3605, -91.8635
6.72572, 79, 10.0912, -5.39206, 21.875, 21.9998, 88.8056, -91.1064
6.72779, 79, 10.4868, -5.18426, 21.6926, 21.6573, 88.961, -90.8517
6.7363, 79, 11.2782, -4.76281, 21.3294, 20.9695, 89.2823, -90.338
6.74366, 80, 12.0674, -4.33055, 20.9702, 20.2786, 89.615, -89.8191
6.75156, 80, 12.8511, -3.88717, 20.6159, 19.5904, 89.9579, -89.2935
6.76048, 81, 13.6285, -3.4363, 20.2676, 18.9113, 90.3091, -88.7625
6.76777, 81, 14.3994, -2.98004, 19.9269, 18.2462, 90.6666, -88.2268
6.77649, 82, 15.1624, -2.5164, 19.5968, 17.5968, 91.0277, -87.6883
6.78384, 82, 15.9154, -2.04519, 19.2773, 16.9658, 91.3921, -87.1475
6.79278, 83, 16.6552, -1.56771, 18.9678, 16.3542, 91.7597, -86.6051
6.80004, 83, 17.3812, -1.08539, 18.6679, 15.7626, 92.1313, -86.0621
6.80885, 83, 18.0922, -0.599332, 18.3773, 15.1904, 92.5077, -85.5214
6.81662, 84, 18.7865, -0.110158, 18.0951, 14.6385, 92.8905, -84.9828
6.82409, 84, 19.4628, 0.383206, 17.8189, 14.1069, 93.2804, -84.4466
6.83206, 85, 19.7937, 0.631688, 17.5492, 13.5951, 93.6781, -83.9137
6.8401, 85, 20.4422, 1.13212, 17.4168, 13.3467, 94.082, -83.384
6.84808, 86, 21.0744, 1.6369, 17.1566, 12.865, 94.2859, -82.8557
6.85554, 86, 21.6928, 2.14765, 16.9035, 12.4024, 94.6979, -82.5913
6.86436, 87, 22.2986, 2.66715, 16.6562, 11.7444, 95.3274, -81.7939
6.87154, 87, 22.8932, 3.19666, 16.4128, 11.534, 95.5409, -81.5258
6.87952, 87, 23.4777, 3.73404, 16.1727, 11.1251, 95.9736, -80.9856
6.88749, 88, 24.052, 4.27676, 15.9344, 10.7311, 96.4138, -80.4366
6.89554, 88, 24.6153, 4.82724, 15.6998, 10.3524, 96.8605, -79.878
6.90349, 89, 25.1688, 5.38957, 15.4709, 9.98918, 97.3134, -79.3085
6.91155, 89, 25.716, 5.96447, 15.2467, 9.64283, 97.7705, -78.728
6.9195, 90, 26.2605, 6.55066, 15.0278, 9.31224, 98.2313, -78.1338
6.92748, 90, 26.7986, 7.14678, 14.8154, 8.99829, 98.6964, -77.5257
6.93555, 91, 27.3251, 7.75146, 14.6089, 8.70172, 99.1671, -76.9037
6.9436, 91, 27.8397, 8.36647, 14.407, 8.42287, 99.6442, -76.2694
6.95148, 92, 28.3456, 8.99198, 14.2088, 8.16385, 100.128, -75.6222
6.95948, 92, 28.8453, 9.62828, 14.0138, 7.9246, 100.617, -74.9648
6.96756, 93, 29.3362, 10.2729, 13.8222, 7.70608, 101.112, -74.2994
6.97738, 94, 30.0487, 11.2527, 13.5452, 7.41927, 101.859, -73.2848
6.98348, 94, 30.279, 11.5821, 13.4561, 7.33506, 102.109, -72.9428
6.99155, 94, 30.7288, 12.2442, 13.2824, 7.18413, 102.606, -72.2555
7.00053, 95, 31.1648, 12.9091, 13.1153, 7.05672, 103.101, -71.5625
7.00748, 95, 31.5871, 13.5759, 12.956, 6.95305, 103.593, -70.8632
7.01563, 96, 31.9944, 14.244, 12.8039, 6.87287, 104.081, -70.1598
7.02348, 96, 32.3848, 14.9131, 12.658, 6.81752, 104.564, -69.452
7.03155, 97, 32.7588, 15.582, 12.5191, 6.78381, 105.041, -68.7392
7.03948, 97, 33.1172, 16.2475, 12.3882, 6.771, 105.512, -68.0243
7.0475, 98, 33.4608, 16.9077, 12.2663, 6.78013, 105.973, -67.3092
7.05561, 98, 33.7902, 17.5603, 12.1543, 6.80998, 106.423, -66.5938
7.06349, 99, 34.105, 18.2042, 12.0524, 6.859, 106.86, -65.8818
7.07151, 99, 34.4067, 18.8388, 11.9609, 6.92827, 107.28, -65.175
7.07962, 100, 34.6965, 19.4637, 11.8793, 7.01452, 107.685, -64.4731
7.08748, 100, 34.9736, 20.0781, 11.8072, 7.118, 108.074, -63.7784
7.09557, 101, 35.2369, 20.6798, 11.743, 7.23637, 108.448, -63.093
7.10352, 101, 35.4869, 21.268, 11.6862, 7.36763, 108.808, -62.4157
7.11145, 102, 35.7245, 21.8416, 11.6369, 7.50963, 109.154, -61.749
7.11951, 102, 35.9495, 22.4005, 11.5944, 7.65984, 109.485, -61.0956
7.12753, 102, 36.1626, 22.9449, 11.5588, 7.81656, 109.801, -60.4557
7.13555, 103, 36.3668, 23.4744, 11.5305, 7.97874, 110.102, -59.8295
7.14351, 103, 36.5648, 23.9892, 11.5105, 8.14665, 110.387, -59.218
7.15153, 104, 36.7575, 24.4913, 11.4988, 8.3213, 110.655, -58.6203
7.1598, 104, 36.9452, 24.9804, 11.4943, 8.504, 110.904, -58.0327
7.1675, 104, 37.1286, 25.4564, 11.4958, 8.69592, 111.135, -57.454
7.17569, 104, 37.3056, 25.9198, 11.5032, 8.89687, 111.349, -56.8829
7.18357, 104, 37.4724, 26.3695, 11.515, 9.10615, 111.545, -56.3194
7.19158, 104, 37.6297, 26.8058, 11.5299, 9.3222, 111.728, -55.7633
7.19964, 104, 37.781, 27.2297, 11.5474, 9.54175, 111.897, -55.2182
7.2076, 104, 37.9301, 27.6404, 11.5668, 9.76265, 112.058, -54.6876
7.21568, 104, 38.0777, 28.0374, 11.5869, 9.98165, 112.209, -54.1755
7.22365, 104, 38.2218, 28.42, 11.607, 10.1972, 112.354, -53.6828
7.2315, 104, 38.3613, 28.7888, 11.6264, 10.4074, 112.49, -53.2125
7.23996, 104, 38.4943, 29.1419, 11.6447, 10.6109, 112.619, -52.7653
7.24765, 104, 38.6199, 29.4782, 11.6623, 10.8068, 112.741, -52.3427
7.25686, 104, 38.7376, 29.7958, 11.6787, 10.9941, 112.855, -51.9451
7.26369, 104, 38.8473, 30.0947, 11.6939, 11.1722, 112.961, -51.5717
7.27184, 104, 38.9493, 30.3754, 11.7082, 11.3406, 113.059, -51.2239
7.2798, 104, 39.0435, 30.6363, 11.7213, 11.4989, 113.15, -50.9017
7.28785, 104, 39.1299, 30.8776, 11.733, 11.6464, 113.234, -50.6045
7.29596, 104, 39.2078, 31.0996, 11.7437, 11.7826, 113.31, -50.3326
7.30457, 104, 39.2773, 31.3013, 11.7537, 11.9074, 113.38, -50.0859
7.31203, 104, 39.3388, 31.4835, 11.7628, 12.0203, 113.441, -49.8646
7.32009, 104, 39.3929, 31.6464, 11.7707, 12.1212, 113.497, -49.6683
7.32806, 104, 39.4402, 31.7899, 11.7778, 12.2101, 113.544, -49.4972
7.33623, 104, 39.4816, 31.9151, 11.7843, 12.2865, 113.584, -49.3505
7.34408, 104, 39.5001, 31.9711, 11.7901, 12.3511, 113.619, -49.2273
7.35233, 104, 39.5323, 32.0705, 11.7927, 12.3792, 113.633, -49.1273
7.35952, 104, 39.5587, 32.1538, 11.7976, 12.4261, 113.658, -49.0848
7.36754, 104, 39.5804, 32.2225, 11.8019, 12.4624, 113.677, -49.0147
7.3755, 104, 39.5976, 32.2785, 11.8057, 12.4901, 113.69, -48.963
7.38353, 104, 39.6112, 32.3231, 11.8094, 12.5101, 113.7, -48.9262
7.3915, 104, 39.6218, 32.3574, 11.8126, 12.5241, 113.706, -48.9013
7.39948, 104, 39.6296, 32.3829, 11.8155, 12.5333, 113.71, -48.8855
7.4075, 104, 39.6349, 32.402, 11.8181, 12.5389, 113.712, -48.8766
7.41555, 104, 39.6382, 32.4155, 11.82, 12.542, 113.713, -48.872
7.42347, 104, 39.6401, 32.4243, 11.8215, 12.5435, 113.714, -48.87
7.43148, 105, 39.6409, 32.4298, 11.8226, 12.5443, 113.714, -48.869
7.44102, 105, 39.6405, 32.4347, 11.824, 12.5449, 113.714, -48.8687
7.44748, 105, 39.6401, 32.4358, 11.8244, 12.5449, 113.714, -48.8687
7.45551, 105, 39.6391, 32.4375, 11.8251, 12.5451, 113.714, -48.8687
7.4635, 105, 39.6378, 32.4389, 11.8257, 12.5451, 113.714, -48.8688
7.47147, 105, 39.6365, 32.4401, 11.8262, 12.5451, 113.714, -48.869
7.47952, 105, 39.6355, 32.4413, 11.8267, 12.5452, 113.714, -48.8693
7.48853, 105, 39.635, 32.4424, 11.8273, 12.5452, 113.714, -48.8695
7.49547, 105, 39.6346, 32.4435, 11.8279, 12.5452, 113.714, -48.8698
7.50446, 105, 39.6344, 32.4445, 11.8285, 12.5451, 113.714, -48.87
7.51149, 105, 39.6341, 32.4454, 11.8289, 12.5451, 113.714, -48.8703
7.51948, 105, 39.6339, 32.4461, 11.8292, 12.5451, 113.714, -48.8705
7.52752, 105, 39.6336, 32.4466, 11.8295, 12.5451, 113.714, -48.8708
7.53657, 105, 39.6334, 32.4469, 11.8298, 12.5451, 113.714, -48.871
7.54346, 105, 39.6331, 32.4471, 11.8301, 12.5452, 113.714, -48.8711
7.55156, 105, 39.6329, 32.4472, 11.8303, 12.5451, 113.714, -48.8712
