hehonglu123/Motion-Primitive-Planning/ILC/recorded_data/realrobot/from_NX/iteration_38/run_0.csv
timestamp, cmd_num, J1, J2, J3, J4, J5, J6
0.001116, -1, 39.628, 32.4456, 11.8317, 12.544, 113.713, -48.8735
0.004319, -1, 39.628, 32.4456, 11.8317, 12.544, 113.713, -48.8735
0.00771, -1, 39.628, 32.4456, 11.8317, 12.5439, 113.713, -48.8734
0.028394, -1, 39.628, 32.4456, 11.8317, 12.5439, 113.713, -48.8734
0.031139, -1, 39.628, 32.4456, 11.8317, 12.5439, 113.713, -48.8734
0.034434, -1, 39.628, 32.4456, 11.8317, 12.5439, 113.713, -48.8734
0.039664, -1, 39.628, 32.4456, 11.8317, 12.5439, 113.713, -48.8734
0.048634, -1, 39.628, 32.4456, 11.8317, 12.5439, 113.713, -48.8734
0.055634, -1, 39.6276, 32.4456, 11.8317, 12.5439, 113.713, -48.8734
0.064565, -1, 39.6255, 32.4452, 11.8317, 12.5439, 113.713, -48.8734
0.071684, -1, 39.6203, 32.4439, 11.8316, 12.5439, 113.713, -48.8736
0.079632, -1, 39.6116, 32.441, 11.8314, 12.5439, 113.713, -48.8748
0.087663, -1, 39.5985, 32.4358, 11.8312, 12.5439, 113.711, -48.8789
0.095595, -1, 39.5788, 32.4274, 11.8312, 12.5439, 113.708, -48.8899
0.103607, -1, 39.5502, 32.4148, 11.8315, 12.5439, 113.701, -48.9101
0.111659, -1, 39.5119, 32.3974, 11.8333, 12.5439, 113.689, -48.9435
0.119596, -1, 39.4625, 32.3737, 11.8379, 12.5439, 113.67, -48.9937
0.127613, -1, 39.4005, 32.3433, 11.8459, 12.5439, 113.643, -49.0652
0.135662, -1, 39.3251, 32.3054, 11.8584, 12.5441, 113.605, -49.1595
0.143589, -1, 39.236, 32.2597, 11.8759, 12.5445, 113.559, -49.2792
0.151603, -1, 39.133, 32.2061, 11.8982, 12.5454, 113.502, -49.4246
0.159675, -1, 39.0159, 32.1446, 11.9247, 12.5466, 113.435, -49.5946
0.167599, -1, 38.8854, 32.0756, 11.9552, 12.5484, 113.359, -49.7873
0.175613, -1, 38.7425, 32.0001, 11.989, 12.5505, 113.275, -49.9993
0.183662, -1, 38.5881, 31.9187, 12.0251, 12.5527, 113.185, -50.2272
0.191593, -1, 38.4238, 31.8323, 12.0627, 12.555, 113.09, -50.4673
0.199762, -1, 38.2515, 31.742, 12.1014, 12.5575, 112.992, -50.7156
0.207603, -1, 38.0731, 31.6487, 12.1404, 12.5599, 112.892, -50.9691
0.215596, -1, 37.8895, 31.5532, 12.1793, 12.5624, 112.79, -51.2259
0.224782, -1, 37.7019, 31.4562, 12.2181, 12.5648, 112.688, -51.4845
0.231656, -1, 37.5116, 31.3584, 12.2568, 12.5673, 112.586, -51.744
0.239734, -1, 37.32, 31.2604, 12.2956, 12.5697, 112.483, -52.0036
0.247724, -1, 37.1279, 31.1624, 12.3344, 12.5721, 112.38, -52.2634
0.255739, -1, 36.9356, 31.0646, 12.3732, 12.5748, 112.277, -52.5235
0.263755, -1, 36.7435, 30.9667, 12.4119, 12.5773, 112.174, -52.7839
0.271694, -1, 36.5518, 30.8689, 12.4508, 12.5798, 112.071, -53.0442
0.279701, -1, 36.3601, 30.771, 12.4897, 12.5824, 111.968, -53.3045
0.287772, -1, 36.1686, 30.6732, 12.5286, 12.585, 111.865, -53.5648
0.295636, -1, 35.9771, 30.5751, 12.5675, 12.5874, 111.762, -53.8255
0.303625, -1, 35.7855, 30.4771, 12.6064, 12.59, 111.659, -54.0861
0.311734, -1, 35.5937, 30.379, 12.6453, 12.5924, 111.556, -54.3464
0.319713, -1, 35.4016, 30.2808, 12.6842, 12.595, 111.453, -54.6068
0.327839, -1, 35.2093, 30.1824, 12.723, 12.5976, 111.35, -54.8674
0.335893, -1, 35.0169, 30.0841, 12.762, 12.6, 111.247, -55.1281
0.343894, -1, 34.8245, 29.9856, 12.801, 12.6026, 111.144, -55.3888
0.479872, -1, 31.6433, 28.3599, 13.4439, 12.6455, 109.443, -59.696
0.481946, -1, 31.5465, 28.3105, 13.4634, 12.647, 109.392, -59.8265
0.48314, -1, 31.5465, 28.3105, 13.4634, 12.647, 109.392, -59.8265
0.485, -1, 31.4498, 28.2612, 13.4829, 12.6483, 109.34, -59.9571
0.486366, -1, 31.4498, 28.2612, 13.4829, 12.6483, 109.34, -59.9571
0.487636, -1, 31.4498, 28.2612, 13.4829, 12.6483, 109.34, -59.9571
0.490443, -1, 31.3533, 28.212, 13.5024, 12.6497, 109.289, -60.0878
0.494047, -1, 31.2568, 28.1627, 13.5219, 12.651, 109.237, -60.2184
0.495356, -1, 31.2568, 28.1627, 13.5219, 12.651, 109.237, -60.2184
0.497625, -1, 31.1604, 28.1135, 13.5414, 12.6524, 109.186, -60.349
0.498868, -1, 31.1604, 28.1135, 13.5414, 12.6524, 109.186, -60.349
0.500206, -1, 31.1604, 28.1135, 13.5414, 12.6524, 109.186, -60.349
0.502196, -1, 31.0641, 28.0643, 13.561, 12.6539, 109.134, -60.4798
0.503491, -1, 31.0641, 28.0643, 13.561, 12.6539, 109.134, -60.4798
0.505511, -1, 30.9679, 28.015, 13.5806, 12.6553, 109.083, -60.6106
0.510046, -1, 30.8718, 27.9657, 13.6001, 12.6566, 109.031, -60.7413
0.511356, -1, 30.8718, 27.9657, 13.6001, 12.6566, 109.031, -60.7413
0.513175, -1, 30.7757, 27.9165, 13.6195, 12.658, 108.979, -60.8719
0.515498, -1, 30.7757, 27.9165, 13.6195, 12.658, 108.979, -60.8719
0.518236, -1, 30.6797, 27.8672, 13.639, 12.6594, 108.928, -61.0025
0.519526, -1, 30.6797, 27.8672, 13.639, 12.6594, 108.928, -61.0025
0.521679, -1, 30.5837, 27.8179, 13.6586, 12.6608, 108.876, -61.1332
0.529764, -1, 30.3918, 27.7193, 13.6976, 12.6637, 108.773, -61.3946
0.535695, -1, 30.2958, 27.6699, 13.7171, 12.665, 108.721, -61.5253
0.545206, -1, 30.1036, 27.5712, 13.7561, 12.6677, 108.618, -61.7873
0.551566, -1, 29.911, 27.4725, 13.7952, 12.6705, 108.515, -62.0488
0.559658, -1, 29.718, 27.3738, 13.8341, 12.6732, 108.412, -62.3104
0.567568, -1, 29.5244, 27.275, 13.873, 12.6758, 108.308, -62.5721
0.575686, -1, 29.3304, 27.1763, 13.9121, 12.6784, 108.205, -62.8341
0.583679, -1, 29.1362, 27.0775, 13.9511, 12.681, 108.102, -63.0957
0.591583, -1, 28.9417, 26.9786, 13.9901, 12.6835, 107.998, -63.3571
0.599645, -1, 28.7475, 26.8797, 14.0291, 12.6861, 107.895, -63.6186
0.607569, -1, 28.5534, 26.7809, 14.0681, 12.6885, 107.791, -63.8803
0.615584, -1, 28.3595, 26.6821, 14.1072, 12.6911, 107.688, -64.1422
0.623643, -1, 28.166, 26.5835, 14.1463, 12.6935, 107.585, -64.4036
0.631593, -1, 27.9729, 26.4847, 14.1853, 12.696, 107.482, -64.6655
0.770191, -1, 24.6879, 24.8046, 14.8482, 12.7355, 105.726, -69.1146
0.772959, -1, 24.5915, 24.7552, 14.8677, 12.7367, 105.675, -69.2455
0.774156, -1, 24.5915, 24.7552, 14.8677, 12.7367, 105.675, -69.2455
0.776268, -1, 24.4953, 24.7058, 14.8872, 12.7379, 105.623, -69.3764
0.777633, -1, 24.4953, 24.7058, 14.8872, 12.7379, 105.623, -69.3764
0.780399, -1, 24.3991, 24.6563, 14.9068, 12.7391, 105.571, -69.5073
0.781674, -1, 24.3991, 24.6563, 14.9068, 12.7391, 105.571, -69.5073
0.784627, -1, 24.3029, 24.6069, 14.9263, 12.7403, 105.519, -69.6382
0.785866, -1, 24.3029, 24.6069, 14.9263, 12.7403, 105.519, -69.6382
0.78797, -1, 24.2066, 24.5575, 14.9458, 12.7415, 105.468, -69.7689
0.789183, -1, 24.2066, 24.5575, 14.9458, 12.7415, 105.468, -69.7689
0.790498, -1, 24.2066, 24.5575, 14.9458, 12.7415, 105.468, -69.7689
0.792563, -1, 24.1104, 24.5081, 14.9653, 12.7427, 105.416, -69.8997
0.793839, -1, 24.1104, 24.5081, 14.9653, 12.7427, 105.416, -69.8997
0.796494, -1, 24.0141, 24.4587, 14.9848, 12.7437, 105.365, -70.0304
0.798424, -1, 24.0141, 24.4587, 14.9848, 12.7437, 105.365, -70.0304
0.800424, -1, 23.9177, 24.4093, 15.0043, 12.7449, 105.313, -70.1611
0.801711, -1, 23.9177, 24.4093, 15.0043, 12.7449, 105.313, -70.1611
0.804466, -1, 23.8213, 24.3599, 15.0237, 12.7462, 105.261, -70.292
0.805729, -1, 23.8213, 24.3599, 15.0237, 12.7462, 105.261, -70.292
0.807634, -1, 23.7248, 24.3105, 15.0432, 12.7474, 105.209, -70.4229
0.809046, -1, 23.7248, 24.3105, 15.0432, 12.7474, 105.209, -70.4229
0.817634, -1, 23.5317, 24.2116, 15.0821, 12.7498, 105.106, -70.6849
0.82374, -1, 23.3383, 24.1128, 15.1211, 12.7522, 105.003, -70.9464
0.831861, -1, 23.1445, 24.0139, 15.16, 12.7546, 104.899, -71.2083
0.839797, -1, 22.9506, 23.915, 15.1989, 12.757, 104.796, -71.4701
0.847984, -1, 22.7566, 23.8162, 15.2379, 12.7595, 104.692, -71.7321
0.855951, -1, 22.5627, 23.7175, 15.2769, 12.762, 104.589, -71.9938
0.864157, -1, 22.369, 23.6189, 15.3159, 12.7645, 104.486, -72.2551
0.872209, -1, 22.1758, 23.5202, 15.3548, 12.767, 104.382, -72.5165
0.880106, -1, 21.9826, 23.4214, 15.3938, 12.7696, 104.279, -72.7781
0.888095, -1, 21.7899, 23.3228, 15.4328, 12.7722, 104.176, -73.0396
0.896244, -1, 21.5976, 23.224, 15.4718, 12.7749, 104.073, -73.3009
0.904183, -1, 21.5015, 23.1252, 15.5107, 12.7775, 103.97, -73.5626
0.91228, -1, 21.3091, 23.0759, 15.5302, 12.7789, 103.918, -73.8241
0.920259, -1, 21.1167, 22.9773, 15.5692, 12.7815, 103.763, -74.0856
0.927561, -1, 20.9243, 22.8787, 15.6081, 12.7841, 103.712, -74.2161
0.935554, -1, 20.7318, 22.7801, 15.6471, 12.7869, 103.609, -74.4773
0.943621, -1, 20.5391, 22.6815, 15.686, 12.7896, 103.505, -74.7386
0.951565, -1, 20.3461, 22.5829, 15.7248, 12.7923, 103.403, -75
0.959557, -1, 20.1524, 22.4841, 15.7638, 12.795, 103.299, -75.2612
0.967613, -1, 19.9588, 22.3854, 15.8027, 12.7978, 103.196, -75.5222
0.975566, -1, 19.7652, 22.2867, 15.8414, 12.8005, 103.094, -75.7834
0.982584, -1, 19.5717, 22.1882, 15.8803, 12.8032, 102.991, -76.0447
0.991556, -1, 19.3783, 22.0895, 15.9192, 12.8059, 102.887, -76.306
0.999576, -1, 19.1852, 21.9908, 15.958, 12.8086, 102.784, -76.5668
1.00761, -1, 18.9924, 21.8922, 15.997, 12.8114, 102.681, -76.8276
1.01554, -1, 18.7999, 21.7935, 16.0358, 12.8141, 102.578, -77.0885
1.02368, -1, 18.6078, 21.6948, 16.0745, 12.8169, 102.475, -77.3497
1.03164, -1, 18.4159, 21.5962, 16.1135, 12.8195, 102.372, -77.6105
1.03961, -1, 18.224, 21.4977, 16.1524, 12.8222, 102.27, -77.8712
1.04756, -1, 18.032, 21.3993, 16.1911, 12.8248, 102.167, -78.1319
1.05655, -1, 17.8402, 21.3009, 16.2301, 12.8273, 102.064, -78.3928
1.06363, -1, 17.6481, 21.2026, 16.2689, 12.8298, 101.961, -78.6533
1.07255, -1, 17.4557, 21.1043, 16.3077, 12.8324, 101.858, -78.9137
1.07963, -1, 17.2629, 21.006, 16.3466, 12.8349, 101.755, -79.1743
1.08759, -1, 17.0698, 20.9078, 16.3854, 12.8373, 101.652, -79.4349
1.09555, -1, 16.8768, 20.8095, 16.4242, 12.8397, 101.549, -79.6954
1.10356, -1, 16.6837, 20.7114, 16.463, 12.8421, 101.446, -79.9558
1.11156, -1, 16.4907, 20.6131, 16.5017, 12.8444, 101.344, -80.2163
1.11964, -1, 16.298, 20.5148, 16.5404, 12.8468, 101.241, -80.4771
1.12755, -1, 16.1057, 20.4164, 16.5792, 12.8491, 101.138, -80.7376
1.13555, -1, 15.9137, 20.318, 16.6179, 12.8514, 101.036, -80.9976
1.14365, -1, 15.722, 20.2195, 16.6567, 12.8537, 100.933, -81.2576
1.15155, -1, 15.5307, 20.1211, 16.6952, 12.8561, 100.83, -81.5177
1.15955, -1, 15.3395, 20.0228, 16.7339, 12.8584, 100.728, -81.778
1.16766, -1, 15.1484, 19.9245, 16.7727, 12.8607, 100.625, -82.0378
1.17556, -1, 14.9571, 19.8264, 16.8114, 12.863, 100.523, -82.2976
1.18356, -1, 14.7658, 19.7283, 16.8501, 12.8652, 100.42, -82.5576
1.19164, -1, 14.5743, 19.6301, 16.8888, 12.8675, 100.317, -82.8177
1.19955, -1, 14.3825, 19.532, 16.9275, 12.8698, 100.215, -83.0774
1.20761, -1, 14.1901, 19.434, 16.9662, 12.8721, 100.112, -83.3369
1.21568, -1, 13.9978, 19.336, 17.005, 12.8744, 100.01, -83.5965
1.22355, -1, 13.8054, 19.2382, 17.0435, 12.8767, 99.9074, -83.8562
1.23163, -1, 13.613, 19.1405, 17.0822, 12.879, 99.8049, -84.1157
1.2406, -1, 13.4206, 19.0426, 17.121, 12.8813, 99.7023, -84.375
1.24765, -1, 13.2287, 18.9446, 17.1595, 12.8836, 99.6002, -84.6342
1.25574, -1, 13.0371, 18.8467, 17.1981, 12.886, 99.4977, -84.8937
1.26442, -1, 12.8459, 18.7487, 17.2368, 12.8883, 99.3952, -85.1531
1.27166, -1, 12.655, 18.6508, 17.2753, 12.8907, 99.2931, -85.4119
1.27979, -1, 12.4643, 18.553, 17.3139, 12.8932, 99.1907, -85.6709
1.28885, -1, 12.2741, 18.4552, 17.3525, 12.8956, 99.0884, -85.9297
1.2956, -1, 12.0839, 18.3575, 17.3909, 12.898, 98.9865, -86.1888
1.30433, -1, 11.8935, 18.2599, 17.4296, 12.9003, 98.8842, -86.4475
1.31158, -1, 11.703, 18.1623, 17.4682, 12.9028, 98.7823, -86.706
1.3198, -1, 11.5122, 18.0647, 17.5067, 12.9053, 98.6806, -86.9647
1.3285, -1, 11.3212, 17.9671, 17.5454, 12.9077, 98.5785, -87.2235
1.33576, -1, 11.1299, 17.8696, 17.5839, 12.9101, 98.4766, -87.4819
1.34391, -1, 10.9385, 17.7722, 17.6224, 12.9125, 98.3748, -87.7401
1.35269, -1, 10.7468, 17.6748, 17.6609, 12.915, 98.2727, -87.9983
1.35999, -1, 10.5553, 17.5772, 17.6993, 12.9176, 98.1708, -88.2567
1.3666, -1, 10.4596, 17.5284, 17.7185, 12.9189, 98.12, -88.3859
1.37693, -1, 10.1729, 17.3822, 17.7762, 12.9226, 97.9671, -88.7731
1.38409, -1, 9.98223, 17.2845, 17.8146, 12.9253, 97.8653, -89.0312
1.39217, -1, 9.792, 17.187, 17.8529, 12.9279, 97.7634, -89.2893
1.40102, -1, 9.60209, 17.0895, 17.8913, 12.9305, 97.6614, -89.5475
1.40816, -1, 9.5073, 17.0408, 17.9296, 12.9334, 97.5596, -89.8052
1.41633, -1, 9.31794, 16.9435, 17.9487, 12.936, 97.4576, -90.0628
1.42358, -1, 9.12868, 16.8461, 17.9872, 12.9374, 97.4067, -90.1915
1.43154, -1, 8.93934, 16.7489, 18.0255, 12.94, 97.3049, -90.4492
1.43967, -1, 8.74976, 16.6518, 18.0638, 12.9426, 97.2033, -90.7068
1.44754, -1, 8.56013, 16.5546, 18.1023, 12.9453, 97.1016, -90.964
1.45554, -1, 8.37032, 16.4575, 18.1406, 12.948, 97.0001, -91.2211
1.46364, -1, 8.18006, 16.3605, 18.1789, 12.9506, 96.8986, -91.4784
1.47153, -1, 7.98963, 16.2637, 18.2172, 12.9532, 96.797, -91.7358
1.47972, -1, 7.79913, 16.1667, 18.2555, 12.956, 96.6956, -91.9927
1.48753, -1, 7.60846, 16.0697, 18.2937, 12.9586, 96.5941, -92.2493
1.49554, -1, 7.41808, 15.9727, 18.332, 12.9611, 96.4926, -92.5061
1.50362, -1, 7.22793, 15.8758, 18.3701, 12.9636, 96.3915, -92.763
1.51154, -1, 7.03804, 15.7787, 18.4083, 12.9663, 96.29, -93.0196
1.5196, -1, 6.8486, 15.6818, 18.4466, 12.9689, 96.1888, -93.276
1.52763, -1, 6.65964, 15.5849, 18.4847, 12.9714, 96.0881, -93.5323
1.53721, -1, 6.47108, 15.4397, 18.5418, 12.9752, 95.9364, -93.917
1.54358, -1, 6.28287, 15.3914, 18.5609, 12.9764, 95.8859, -94.0452
1.55255, -1, 6.0948, 15.2946, 18.599, 12.9789, 95.7852, -94.3011
1.55853, -1, 5.90657, 15.1979, 18.6372, 12.9813, 95.684, -94.557
1.56755, -1, 5.7182, 15.1012, 18.6754, 12.9837, 95.5831, -94.8129
1.57561, -1, 5.52973, 15.0046, 18.7134, 12.986, 95.4826, -95.0688
1.58354, -1, 5.34095, 14.9081, 18.7515, 12.9884, 95.3816, -95.3245
1.59158, -1, 5.15185, 14.8116, 18.7897, 12.9906, 95.2809, -95.58
1.5996, -1, 4.96246, 14.7154, 18.8277, 12.9929, 95.1804, -95.8355
1.60755, -1, 4.77303, 14.6189, 18.8658, 12.9951, 95.0795, -96.0912
1.6156, -1, 4.58358, 14.5225, 18.9039, 12.9973, 94.9787, -96.3464
1.62355, -1, 4.39441, 14.4262, 18.9419, 12.9995, 94.8781, -96.6013
1.63153, -1, 4.20543, 14.3298, 18.9799, 13.0017, 94.7772, -96.8562
1.63967, -1, 4.0167, 14.2334, 19.0179, 13.004, 94.6763, -97.1111
1.64753, -1, 3.82867, 14.1372, 19.0558, 13.0063, 94.5755, -97.3663
1.65567, -1, 3.64111, 14.0411, 19.0938, 13.0085, 94.4748, -97.6209
1.66363, -1, 3.45388, 13.9449, 19.1317, 13.0109, 94.3742, -97.8756
1.67154, -1, 3.26689, 13.8489, 19.1695, 13.0132, 94.2735, -98.1303
1.6796, -1, 3.07993, 13.7529, 19.2073, 13.0155, 94.1727, -98.3851
1.68763, -1, 2.89296, 13.6568, 19.2453, 13.0177, 94.0722, -98.6395
1.69553, -1, 2.7059, 13.5608, 19.2832, 13.0199, 93.9715, -98.8935
1.70355, -1, 2.51868, 13.4649, 19.3211, 13.0223, 93.871, -99.1477
1.71167, -1, 2.33125, 13.3689, 19.3589, 13.0245, 93.7708, -99.402
1.71963, -1, 2.14342, 13.2732, 19.3967, 13.0267, 93.6704, -99.656
1.72754, -1, 1.95527, 13.1773, 19.4346, 13.029, 93.5702, -99.9095
1.73588, -1, 1.76717, 13.0815, 19.4724, 13.0313, 93.4703, -100.163
1.74357, -1, 1.57899, 12.9857, 19.5101, 13.0335, 93.3702, -100.417
1.75163, -1, 1.39089, 12.8898, 19.5479, 13.0357, 93.2702, -100.671
1.76, -1, 1.20311, 12.7939, 19.5856, 13.038, 93.1703, -100.924
1.76764, -1, 1.01563, 12.6982, 19.6233, 13.0404, 93.0701, -101.177
1.77565, -1, 0.828785, 12.6027, 19.6611, 13.0428, 92.9702, -101.43
1.78436, -1, 0.642439, 12.5071, 19.6987, 13.0452, 92.8706, -101.683
1.7916, -1, 0.456446, 12.4116, 19.7363, 13.0476, 92.7707, -101.936
1.79959, -1, 0.270813, 12.3163, 19.774, 13.0501, 92.671, -102.188
1.80832, -1, 0.0853178, 12.2209, 19.8116, 13.0525, 92.5717, -102.441
1.81557, -1, -0.100122, 12.1256, 19.8492, 13.055, 92.4719, -102.694
1.82364, -1, -0.285772, 12.0303, 19.8869, 13.0574, 92.3724, -102.946
1.83263, -1, -0.471679, 11.9351, 19.9245, 13.0598, 92.2731, -103.198
1.8398, -1, -0.657925, 11.8401, 19.962, 13.0623, 92.1735, -103.45
1.84789, -1, -0.84428, 11.7451, 19.9996, 13.0648, 92.074, -103.702
1.85667, -1, -1.0309, 11.65, 20.037, 13.0673, 91.9748, -103.955
1.86393, -1, -1.2177, 11.5549, 20.0745, 13.0699, 91.8753, -104.206
1.87213, -1, -1.40459, 11.4599, 20.1121, 13.0724, 91.7761, -104.458
1.8811, -1, -1.59128, 11.3648, 20.1495, 13.0749, 91.6771, -104.71
1.88806, -1, -1.77772, 11.2696, 20.1869, 13.0774, 91.5778, -104.961
1.89614, -1, -1.96377, 11.1747, 20.2243, 13.0801, 91.4786, -105.213
1.90495, -1, -2.1492, 11.0798, 20.2617, 13.0828, 91.3795, -105.463
1.91214, -1, -2.24173, 11.0323, 20.2804, 13.0854, 91.2802, -105.714
1.92017, -1, -2.42657, 10.9374, 20.3178, 13.0867, 91.1811, -105.965
1.92755, -1, -2.61101, 10.8426, 20.3551, 13.0895, 91.1317, -106.091
1.93552, -1, -2.795, 10.7479, 20.3923, 13.0921, 91.0325, -106.342
1.94358, -1, -2.97898, 10.6531, 20.4297, 13.0947, 90.9335, -106.592
1.95152, -1, -3.16301, 10.5584, 20.4671, 13.0973, 90.8348, -106.843
1.95952, -1, -3.34732, 10.4639, 20.5043, 13.0999, 90.7357, -107.093
1.96752, -1, -3.53194, 10.3694, 20.5415, 13.1025, 90.6367, -107.344
1.97553, -1, -3.7167, 10.275, 20.5788, 13.105, 90.5382, -107.594
1.98358, -1, -3.90176, 10.1806, 20.616, 13.1075, 90.4392, -107.844
1.99153, -1, -4.08699, 10.0863, 20.6533, 13.1099, 90.3405, -108.094
1.99957, -1, -4.27244, 9.99202, 20.6904, 13.1124, 90.2421, -108.344
2.00754, -1, -4.45803, 9.8977, 20.7275, 13.1147, 90.1433, -108.594
2.01572, -1, -4.64329, 9.80334, 20.7648, 13.1171, 90.0448, -108.843
2.02353, -1, -4.8282, 9.70917, 20.8019, 13.1194, 89.9466, -109.093
2.03059, -1, -5.01275, 9.61509, 20.8389, 13.1219, 89.8479, -109.342
2.04032, -1, -5.1966, 9.52102, 20.8761, 13.1242, 89.7495, -109.592
2.04757, -1, -5.37995, 9.42696, 20.9132, 13.1266, 89.6513, -109.841
2.05552, -1, -5.56298, 9.33304, 20.9502, 13.1289, 89.5528, -110.089
2.06433, -1, -5.74559, 9.23911, 20.9873, 13.1312, 89.4546, -110.338
2.07151, -1, -5.92798, 9.1452, 21.0243, 13.1335, 89.3566, -110.587
2.07953, -1, -6.11038, 9.05136, 21.0613, 13.1357, 89.2583, -110.836
2.08833, -1, -6.29306, 8.95757, 21.0983, 13.138, 89.1602, -111.084
2.09657, -1, -6.47593, 8.86395, 21.1352, 13.1402, 89.0626, -111.332
2.10352, -1, -6.65904, 8.77033, 21.172, 13.1424, 88.9645, -111.581
2.11235, -1, -6.84262, 8.67669, 21.2089, 13.1445, 88.8664, -111.829
2.11953, -1, -7.02646, 8.58308, 21.2459, 13.1466, 88.7687, -112.077
2.12752, -1, -7.21062, 8.48952, 21.2827, 13.1487, 88.6708, -112.324
2.13633, -1, -7.3948, 8.39585, 21.3196, 13.1509, 88.5729, -112.572
2.14351, -1, -7.57862, 8.30222, 21.3564, 13.153, 88.4755, -112.82
2.15152, -1, -7.76214, 8.20879, 21.3931, 13.1551, 88.3778, -113.067
2.16032, -1, -7.94519, 8.11542, 21.4301, 13.1574, 88.2804, -113.314
2.16752, -1, -8.12784, 8.02207, 21.4669, 13.1597, 88.1832, -113.561
2.17561, -1, -8.30969, 7.92879, 21.5036, 13.1619, 88.0857, -113.809
2.18434, -1, -8.49114, 7.83553, 21.5405, 13.1642, 87.9883, -114.055
2.19151, -1, -8.67219, 7.74232, 21.5773, 13.1664, 87.891, -114.302
2.19952, -1, -8.85293, 7.64915, 21.614, 13.1687, 87.7935, -114.548
2.20832, -1, -9.03367, 7.55604, 21.6508, 13.1709, 87.6961, -114.795
2.21557, -1, -9.21469, 7.46304, 21.6875, 13.1732, 87.599, -115.041
2.22352, -1, -9.39598, 7.37024, 21.7242, 13.1754, 87.5018, -115.288
2.23231, -1, -9.57763, 7.27742, 21.7609, 13.1776, 87.4046, -115.534
2.23955, -1, -9.75956, 7.18461, 21.7976, 13.1798, 87.3076, -115.78
2.24757, -1, -9.94189, 7.09189, 21.8341, 13.182, 87.2103, -116.026
2.25639, -1, -10.1244, 6.99914, 21.8707, 13.1842, 87.1131, -116.272
2.2637, -1, -10.307, 6.90632, 21.9073, 13.1865, 87.0161, -116.518
2.27162, -1, -10.4896, 6.81355, 21.9439, 13.1887, 86.9189, -116.763
2.28045, -1, -10.6718, 6.72087, 21.9805, 13.1909, 86.8218, -117.008
2.28763, -1, -10.8536, 6.62827, 22.0169, 13.1933, 86.725, -117.254
2.29566, -1, -11.035, 6.53566, 22.0533, 13.1958, 86.6281, -117.499
2.30448, -1, -11.2155, 6.44314, 22.0899, 13.1981, 86.5314, -117.744
2.31155, -1, -11.3954, 6.35068, 22.1265, 13.2006, 86.4349, -117.989
2.3196, -1, -11.5751, 6.25821, 22.1629, 13.2029, 86.3381, -118.234
2.32848, -1, -11.7543, 6.16577, 22.1994, 13.2055, 86.2414, -118.479
2.33572, -1, -11.9336, 6.07342, 22.2359, 13.2079, 86.1449, -118.723
2.3439, -1, -12.1128, 5.98119, 22.2722, 13.2103, 86.0482, -118.967
2.3528, -1, -12.2923, 5.8891, 22.3087, 13.2129, 85.9518, -119.212
2.35992, -1, -12.4722, 5.79711, 22.3451, 13.2154, 85.8557, -119.456
2.36801, -1, -12.6525, 5.70509, 22.3813, 13.2178, 85.7592, -119.7
2.37601, -1, -12.8331, 5.61313, 22.4177, 13.2203, 85.663, -119.944
2.3841, -1, -13.014, 5.52127, 22.4541, 13.2227, 85.5672, -120.187
2.39212, -1, -13.1952, 5.42927, 22.4903, 13.2252, 85.4712, -120.431
2.40264, -1, -13.3764, 5.33728, 22.5266, 13.2276, 85.3752, -120.675
2.40808, -1, -13.4669, 5.29132, 22.5448, 13.2301, 85.2796, -120.918
2.41616, -1, -13.6476, 5.19941, 22.581, 13.2327, 85.1837, -121.161
2.42497, -1, -13.8278, 5.10757, 22.6171, 13.234, 85.1358, -121.404
2.43155, -1, -14.0074, 5.01576, 22.6534, 13.2366, 85.0402, -121.525
2.4395, -1, -14.1861, 4.92403, 22.6896, 13.2391, 84.9446, -121.768
2.44756, -1, -14.3644, 4.83232, 22.7256, 13.2417, 84.849, -122.011
2.45552, -1, -14.5424, 4.7407, 22.7619, 13.2442, 84.7535, -122.253
2.46351, -1, -14.72, 4.64908, 22.7981, 13.2468, 84.6578, -122.496
2.47155, -1, -14.8977, 4.55758, 22.8342, 13.2493, 84.562, -122.738
2.47951, -1, -15.0754, 4.46613, 22.8704, 13.2517, 84.4663, -122.981
2.48751, -1, -15.2534, 4.37487, 22.9066, 13.2542, 84.3707, -123.223
2.49556, -1, -15.4318, 4.28356, 22.9426, 13.2565, 84.275, -123.464
2.50351, -1, -15.6107, 4.19227, 22.9786, 13.2589, 84.1795, -123.706
2.51152, -1, -15.7898, 4.10104, 23.0146, 13.2612, 84.0839, -123.948
2.51957, -1, -15.969, 4.0098, 23.0506, 13.2634, 83.9885, -124.189
2.5275, -1, -16.1486, 3.91853, 23.0866, 13.2656, 83.8931, -124.431
2.53552, -1, -16.3284, 3.82727, 23.1226, 13.2678, 83.7976, -124.672
2.54362, -1, -16.5078, 3.73606, 23.1584, 13.27, 83.7022, -124.914
2.55251, -1, -16.6868, 3.64495, 23.1942, 13.2722, 83.6068, -125.155
2.55957, -1, -16.8652, 3.55385, 23.2301, 13.2745, 83.5114, -125.396
2.56855, -1, -17.0429, 3.46282, 23.266, 13.2767, 83.416, -125.637
2.57552, -1, -17.2197, 3.37188, 23.3018, 13.2789, 83.3208, -125.877
2.58357, -1, -17.3962, 3.28102, 23.3377, 13.2811, 83.2258, -126.118
2.5915, -1, -17.5725, 3.19021, 23.3734, 13.2832, 83.1307, -126.359
2.59953, -1, -17.7485, 3.09959, 23.4093, 13.2854, 83.0358, -126.599
2.60758, -1, -17.9245, 3.00904, 23.4452, 13.2875, 82.9411, -126.839
2.61556, -1, -18.1009, 2.91857, 23.4809, 13.2896, 82.8462, -127.079
2.6235, -1, -18.2774, 2.82822, 23.5167, 13.2918, 82.7514, -127.32
2.63157, -1, -18.4543, 2.73783, 23.5525, 13.2939, 82.6569, -127.559
2.6395, -1, -18.6318, 2.64743, 23.5881, 13.2959, 82.5621, -127.799
2.6475, -1, -18.8094, 2.55713, 23.6238, 13.298, 82.4676, -128.038
2.65557, -1, -18.9874, 2.46674, 23.6595, 13.2999, 82.3733, -128.278
2.6635, -1, -19.1656, 2.37624, 23.6951, 13.3019, 82.2788, -128.517
2.6715, -1, -19.3439, 2.2859, 23.7307, 13.3039, 82.1844, -128.756
2.67958, -1, -19.5215, 2.19557, 23.7664, 13.3061, 82.0906, -128.996
2.6875, -1, -19.6986, 2.10519, 23.8018, 13.3082, 81.9963, -129.235
2.69552, -1, -19.8752, 2.01493, 23.8372, 13.3104, 81.9021, -129.474
2.70357, -1, -20.0509, 1.9247, 23.8728, 13.3126, 81.8082, -129.713
2.7115, -1, -20.2261, 1.83447, 23.9083, 13.3148, 81.7139, -129.951
2.71953, -1, -20.401, 1.74436, 23.9436, 13.317, 81.6199, -130.189
2.72757, -1, -20.5756, 1.65429, 23.9792, 13.3192, 81.5261, -130.428
2.73552, -1, -20.7501, 1.56434, 24.0147, 13.3214, 81.4321, -130.666
2.74353, -1, -20.9248, 1.47452, 24.05, 13.3236, 81.3384, -130.904
2.75164, -1, -21.0997, 1.38478, 24.0855, 13.3257, 81.2448, -131.142
2.75959, -1, -21.2751, 1.29502, 24.121, 13.3279, 81.1508, -131.38
2.76771, -1, -21.4508, 1.20529, 24.1562, 13.3301, 81.0569, -131.618
2.77562, -1, -21.6269, 1.11564, 24.1916, 13.3322, 80.9631, -131.855
2.78401, -1, -21.803, 1.02605, 24.2271, 13.3344, 80.8693, -132.092
2.79162, -1, -21.9794, 0.936365, 24.2624, 13.3366, 80.7755, -132.33
2.7995, -1, -22.156, 0.846756, 24.2977, 13.3387, 80.6819, -132.567
2.80823, -1, -22.3325, 0.757182, 24.3331, 13.3409, 80.5882, -132.804
2.81555, -1, -22.5086, 0.667722, 24.3682, 13.3431, 80.4946, -133.041
2.82354, -1, -22.6842, 0.578229, 24.4034, 13.3456, 80.401, -133.278
2.83243, -1, -22.8592, 0.48883, 24.4387, 13.348, 80.3074, -133.515
2.83972, -1, -23.0331, 0.399423, 24.4739, 13.3504, 80.2139, -133.752
2.84788, -1, -23.2068, 0.310028, 24.509, 13.3528, 80.1203, -133.989
2.8566, -1, -23.3801, 0.220686, 24.5442, 13.3552, 80.0269, -134.225
2.86388, -1, -23.5532, 0.131487, 24.5794, 13.3577, 79.9335, -134.461
2.87198, -1, -23.7265, 0.0423272, 24.6145, 13.3601, 79.8402, -134.697
2.88086, -1, -23.8998, -0.0467375, 24.6497, 13.3625, 79.7472, -134.934
2.88804, -1, -24.0733, -0.135705, 24.6848, 13.365, 79.6539, -135.17
2.89624, -1, -24.2472, -0.224711, 24.7198, 13.3675, 79.5609, -135.405
2.90496, -1, -24.4212, -0.313636, 24.755, 13.3699, 79.468, -135.641
2.91211, -1, -24.5957, -0.402491, 24.7901, 13.3722, 79.3748, -135.876
2.92025, -1, -24.683, -0.446964, 24.8251, 13.3747, 79.2817, -136.112
2.92749, -1, -24.858, -0.535855, 24.8426, 13.3759, 79.2353, -136.23
2.93553, -1, -25.0331, -0.624734, 24.8778, 13.3783, 79.1423, -136.465
2.94354, -1, -25.208, -0.71358, 24.9127, 13.3806, 79.0494, -136.7
2.95155, -1, -25.3825, -0.802352, 24.9477, 13.383, 78.9566, -136.935
2.9595, -1, -25.5566, -0.891182, 24.9828, 13.3855, 78.864, -137.17
2.96754, -1, -25.7303, -0.979922, 25.0177, 13.388, 78.7712, -137.405
2.97549, -1, -25.9031, -1.06861, 25.0526, 13.3903, 78.6786, -137.64
2.98363, -1, -26.0756, -1.15732, 25.0876, 13.3928, 78.5864, -137.874
2.99149, -1, -26.2477, -1.24594, 25.1226, 13.3953, 78.4936, -138.109
2.99949, -1, -26.4194, -1.33446, 25.1574, 13.3976, 78.401, -138.343
3.00757, -1, -26.5912, -1.42289, 25.1923, 13.3999, 78.3088, -138.578
3.01551, -1, -26.7632, -1.51124, 25.2273, 13.4022, 78.2162, -138.812
3.02349, -1, -26.9355, -1.59946, 25.2622, 13.4044, 78.1237, -139.046
3.03156, -1, -27.1079, -1.68761, 25.2971, 13.4066, 78.0317, -139.28
3.03949, -1, -27.2805, -1.77584, 25.332, 13.4088, 77.9394, -139.514
3.04751, -1, -27.4534, -1.86392, 25.3667, 13.411, 77.8473, -139.748
3.05705, -1, -27.6265, -1.95201, 25.4015, 13.4131, 77.7554, -139.981
3.06349, -1, -27.7998, -2.04023, 25.4365, 13.4152, 77.6633, -140.214
3.0725, -1, -27.9731, -2.12824, 25.4713, 13.4173, 77.5713, -140.448
3.07956, -1, -28.1463, -2.21627, 25.506, 13.4194, 77.4793, -140.681
3.0875, -1, -28.3195, -2.30432, 25.5409, 13.4214, 77.3872, -140.914
3.09549, -1, -28.4922, -2.3924, 25.5756, 13.4235, 77.2951, -141.147
3.10353, -1, -28.6647, -2.48038, 25.6103, 13.4256, 77.203, -141.38
3.11159, -1, -28.8365, -2.56837, 25.645, 13.4278, 77.1111, -141.613
3.11954, -1, -29.0075, -2.65634, 25.6797, 13.4299, 77.0192, -141.846
3.12751, -1, -29.1782, -2.74425, 25.7143, 13.4321, 76.9272, -142.078
3.13555, -1, -29.3487, -2.83204, 25.749, 13.4342, 76.8356, -142.311
3.14349, -1, -29.5194, -2.91977, 25.7837, 13.4363, 76.7436, -142.543
3.15153, -1, -29.6903, -3.00738, 25.8182, 13.4383, 76.6517, -142.776
3.15955, -1, -29.8613, -3.09495, 25.8528, 13.4403, 76.5602, -143.008
3.1675, -1, -30.0322, -3.18244, 25.8875, 13.4425, 76.4682, -143.24
3.17597, -1, -30.2032, -3.27002, 25.9221, 13.4445, 76.3765, -143.472
3.1835, -1, -30.3743, -3.35746, 25.9566, 13.4466, 76.285, -143.704
3.19148, -1, -30.5458, -3.44491, 25.9912, 13.4486, 76.1933, -143.936
3.20067, -1, -30.7176, -3.53248, 26.0256, 13.4506, 76.1019, -144.167
3.20851, -1, -30.8894, -3.61982, 26.0601, 13.4527, 76.0107, -144.399
3.21556, -1, -31.0612, -3.70721, 26.0947, 13.4547, 75.9192, -144.63
3.2235, -1, -31.2328, -3.79455, 26.1292, 13.4568, 75.8278, -144.861
3.23149, -1, -31.4042, -3.88188, 26.1635, 13.4588, 75.7366, -145.093
3.23959, -1, -31.5751, -3.96918, 26.198, 13.461, 75.6453, -145.324
3.24769, -1, -31.7457, -4.0564, 26.2324, 13.4632, 75.5541, -145.555
3.25556, -1, -31.9158, -4.14366, 26.2668, 13.4654, 75.463, -145.786
3.26364, -1, -32.0854, -4.23088, 26.3012, 13.4676, 75.3719, -146.017
3.27192, -1, -32.2549, -4.31799, 26.3356, 13.4698, 75.2807, -146.247
3.27959, -1, -32.4243, -4.40507, 26.3698, 13.4719, 75.1897, -146.478
3.28772, -1, -32.5939, -4.49202, 26.4041, 13.474, 75.0991, -146.708
3.29607, -1, -32.7636, -4.57896, 26.4386, 13.4762, 75.008, -146.939
3.30349, -1, -32.9331, -4.6659, 26.4728, 13.4784, 74.9173, -147.169
3.31165, -1, -33.1028, -4.75285, 26.5069, 13.4805, 74.8268, -147.399
3.32105, -1, -33.2726, -4.83973, 26.5413, 13.4827, 74.7359, -147.629
3.32756, -1, -33.4427, -4.9266, 26.5755, 13.485, 74.6454, -147.859
3.33568, -1, -33.6129, -5.01351, 26.6097, 13.4871, 74.5549, -148.089
3.34591, -1, -33.7833, -5.10031, 26.6439, 13.4894, 74.4643, -148.319
3.35249, -1, -33.9536, -5.18702, 26.6781, 13.4916, 74.3738, -148.549
3.35978, -1, -34.1238, -5.27375, 26.7121, 13.4939, 74.2833, -148.778
3.36862, -1, -34.2939, -5.36045, 26.7463, 13.4962, 74.1928, -149.008
3.37627, -1, -34.464, -5.44708, 26.7806, 13.4985, 74.1021, -149.237
3.38399, -1, -34.6336, -5.53376, 26.8146, 13.5008, 74.0115, -149.467
3.39283, -1, -34.8026, -5.62042, 26.8487, 13.5032, 73.9211, -149.696
3.40009, -1, -34.9711, -5.70701, 26.883, 13.5057, 73.8305, -149.925
3.40804, -1, -35.1394, -5.79349, 26.917, 13.5081, 73.74, -150.154
3.41686, -1, -35.2235, -5.83674, 26.951, 13.5105, 73.6499, -150.383
3.42411, -1, -35.3918, -5.9231, 26.9681, 13.5117, 73.6046, -150.612
3.43148, -1, -35.5602, -6.00927, 27.0022, 13.5141, 73.5143, -150.726
3.44092, -1, -35.7287, -6.09552, 27.0361, 13.5165, 73.4239, -150.955
3.44748, -1, -35.8973, -6.18172, 27.0701, 13.5189, 73.3337, -151.183
3.45552, -1, -36.0658, -6.26784, 27.1042, 13.5213, 73.2432, -151.412
3.46354, -1, -36.2342, -6.35393, 27.1382, 13.5237, 73.1527, -151.64
3.47148, -1, -36.4029, -6.4401, 27.1721, 13.5261, 73.0626, -151.869
3.47948, -1, -36.5718, -6.52634, 27.2061, 13.5284, 72.972, -152.097
3.48753, -1, -36.7407, -6.61249, 27.24, 13.5307, 72.8818, -152.325
3.49548, -1, -36.9096, -6.69862, 27.2738, 13.5331, 72.7919, -152.553
3.50347, -1, -37.0786, -6.78477, 27.3077, 13.5353, 72.7017, -152.781
3.51153, -1, -37.2475, -6.87091, 27.3416, 13.5375, 72.6117, -153.009
3.5195, -1, -37.4161, -6.95694, 27.3754, 13.5399, 72.5219, -153.237
3.52747, -1, -37.5842, -7.04301, 27.4094, 13.5421, 72.432, -153.464
3.53555, -1, -37.752, -7.12901, 27.4433, 13.5444, 72.3421, -153.692
3.54347, -1, -37.9196, -7.21499, 27.4771, 13.5466, 72.2523, -153.92
3.55147, -1, -38.087, -7.30093, 27.5109, 13.5488, 72.1627, -154.147
3.55955, -1, -38.2544, -7.38679, 27.5448, 13.551, 72.0728, -154.374
3.56852, -1, -38.4217, -7.47252, 27.5786, 13.5532, 71.9831, -154.601
3.57548, -1, -38.5889, -7.55823, 27.6124, 13.5552, 71.8938, -154.829
3.58353, -1, -38.7563, -7.64396, 27.6463, 13.5574, 71.804, -155.056
3.59147, -1, -38.9235, -7.72965, 27.68, 13.5594, 71.7145, -155.283
3.59949, -1, -39.0908, -7.81526, 27.7137, 13.5615, 71.6255, -155.51
3.60757, -1, -39.2583, -7.90089, 27.7475, 13.5635, 71.5359, -155.736
3.61548, -1, -39.4258, -7.98659, 27.7813, 13.5655, 71.4466, -155.963
3.62352, -1, -39.5933, -8.07211, 27.8149, 13.5675, 71.3573, -156.19
3.63154, -1, -39.7611, -8.15761, 27.8486, 13.5694, 71.2679, -156.417
3.63948, -1, -39.9287, -8.24308, 27.8824, 13.5713, 71.1786, -156.643
3.64748, -1, -40.0963, -8.32851, 27.916, 13.5733, 71.0891, -156.869
3.65554, -1, -40.2638, -8.41386, 27.9497, 13.5753, 71.0001, -157.096
3.66347, -1, -40.4311, -8.49926, 27.9835, 13.5772, 70.9105, -157.322
3.67148, -1, -40.5983, -8.58466, 28.0171, 13.5792, 70.8214, -157.548
3.67955, -1, -40.7651, -8.67004, 28.0507, 13.5811, 70.7324, -157.774
3.68748, -1, -40.9316, -8.75539, 28.0844, 13.5833, 70.6431, -158
3.69548, -1, -41.0979, -8.84071, 28.1181, 13.5853, 70.5539, -158.226
3.70355, -1, -41.2642, -8.92595, 28.1517, 13.5873, 70.465, -158.452
3.71147, -1, -41.4303, -9.01111, 28.1853, 13.5893, 70.3756, -158.677
3.71963, -1, -41.5966, -9.09627, 28.219, 13.5913, 70.2865, -158.903
3.72747, -1, -41.7629, -9.1814, 28.2525, 13.5933, 70.1974, -159.128
3.73548, -1, -41.9294, -9.26647, 28.2861, 13.5953, 70.1083, -159.354
3.7445, -1, -42.0957, -9.35149, 28.3198, 13.5974, 70.0194, -159.579
3.7515, -1, -42.2619, -9.43658, 28.3534, 13.5994, 69.9304, -159.804
3.75955, -1, -42.4281, -9.52163, 28.3868, 13.6014, 69.8416, -160.03
3.76806, -1, -42.5945, -9.60662, 28.4204, 13.6034, 69.7525, -160.255
3.77561, -1, -42.761, -9.69158, 28.4539, 13.6054, 69.6636, -160.48
3.78357, -1, -42.9275, -9.77657, 28.4873, 13.6074, 69.5751, -160.705
3.79169, -1, -43.0939, -9.86149, 28.5208, 13.6095, 69.4861, -160.93
3.80002, -1, -43.2601, -9.94648, 28.5543, 13.6116, 69.3974, -161.155
3.80847, -1, -43.4262, -10.0314, 28.5877, 13.6137, 69.3089, -161.379
3.81571, -1, -43.5921, -10.1164, 28.6212, 13.6158, 69.2202, -161.604
3.82437, -1, -43.758, -10.2013, 28.6547, 13.6179, 69.1317, -161.829
3.83156, -1, -43.9238, -10.2861, 28.6881, 13.62, 69.0432, -162.053
3.83967, -1, -44.0894, -10.3709, 28.7215, 13.6222, 68.9548, -162.278
3.84832, -1, -44.2547, -10.4556, 28.7551, 13.6243, 68.8661, -162.502
3.85573, -1, -44.4199, -10.5401, 28.7885, 13.6265, 68.7774, -162.726
3.86405, -1, -44.5851, -10.6247, 28.8218, 13.6287, 68.689, -162.951
3.87248, -1, -44.7502, -10.7093, 28.8553, 13.6309, 68.6002, -163.175
3.87992, -1, -44.9155, -10.7937, 28.8888, 13.6331, 68.5117, -163.398
3.88808, -1, -45.0808, -10.8783, 28.9221, 13.6353, 68.4236, -163.623
3.89609, -1, -45.2462, -10.9628, 28.9555, 13.6375, 68.335, -163.847
3.90403, -1, -45.4116, -11.0473, 28.989, 13.6398, 68.2467, -164.071
3.91224, -1, -45.5768, -11.1318, 29.0222, 13.6421, 68.1584, -164.295
3.92008, -1, -45.6595, -11.2162, 29.0554, 13.6444, 68.0701, -164.518
3.92839, -1, -45.9071, -11.3005, 29.0888, 13.6467, 67.9816, -164.742
3.93608, -1, -45.989, -11.3423, 29.1055, 13.6478, 67.9373, -164.966
3.94352, -1, -46.1503, -11.4246, 29.139, 13.6501, 67.8494, -165.077
3.95235, -1, -46.3072, -11.5039, 29.1726, 13.6537, 67.719, -165.407
3.95957, -1, -46.4574, -11.5788, 29.2062, 13.6548, 67.6768, -165.514
3.96746, -1, -46.5984, -11.6486, 29.2384, 13.6571, 67.5954, -165.719
3.97547, -1, -46.7278, -11.7118, 29.2682, 13.6593, 67.5208, -165.908
3.98351, -1, -46.8425, -11.7678, 29.2946, 13.6614, 67.4539, -166.076
3.99146, -1, -46.941, -11.8169, 29.3167, 13.6631, 67.3984, -166.218
3.99948, -1, -47.0234, -11.8597, 29.3332, 13.6643, 67.3537, -166.331
4.00752, -1, -47.0904, -11.8963, 29.3444, 13.6651, 67.3203, -166.415
4.01547, -1, -47.1425, -11.9256, 29.3516, 13.6655, 67.2971, -166.473
4.02348, -1, -47.1812, -11.9476, 29.3555, 13.6657, 67.2822, -166.511
4.03149, -1, -47.2086, -11.9629, 29.3573, 13.6658, 67.2735, -166.533
4.04105, -1, -47.2327, -11.9762, 29.3584, 13.6659, 67.2675, -166.548
4.04746, -1, -47.2373, -11.9786, 29.3585, 13.6659, 67.2665, -166.55
4.05644, 2, -47.2429, -11.9815, 29.3587, 13.666, 67.2654, -166.553
4.06346, 2, -47.2448, -11.9827, 29.3589, 13.6661, 67.2649, -166.554
4.07146, 2, -47.2448, -11.9832, 29.359, 13.6661, 67.2647, -166.555
4.07965, 2, -47.2446, -11.9834, 29.359, 13.6662, 67.2646, -166.555
4.08851, 2, -47.2446, -11.9835, 29.3591, 13.6662, 67.2645, -166.555
4.09553, 2, -47.245, -11.9836, 29.3591, 13.6662, 67.2645, -166.555
4.10353, 2, -47.2458, -11.9838, 29.3592, 13.6661, 67.2644, -166.555
4.11149, 2, -47.2471, -11.9844, 29.3592, 13.6661, 67.2644, -166.555
4.11947, 2, -47.2489, -11.9851, 29.3592, 13.6661, 67.2645, -166.555
4.12757, 2, -47.2505, -11.986, 29.3592, 13.6661, 67.2645, -166.555
4.13546, 2, -47.2519, -11.9868, 29.3592, 13.6661, 67.2644, -166.555
4.1435, 2, -47.2529, -11.9875, 29.3592, 13.6661, 67.2644, -166.555
4.15152, 2, -47.2533, -11.9879, 29.3592, 13.6661, 67.2644, -166.555
4.15946, 2, -47.2535, -11.9881, 29.3592, 13.6661, 67.2644, -166.555
4.16746, 2, -47.2535, -11.9881, 29.3592, 13.6661, 67.2645, -166.555
4.17553, 2, -47.2532, -11.9881, 29.3592, 13.6661, 67.2645, -166.555
4.18345, 2, -47.2527, -11.9881, 29.3592, 13.6661, 67.2645, -166.555
4.19147, 2, -47.2523, -11.988, 29.3592, 13.6661, 67.2645, -166.555
4.19953, 2, -47.2519, -11.988, 29.3592, 13.6661, 67.2645, -166.555
4.20749, 2, -47.2517, -11.988, 29.3592, 13.6661, 67.2645, -166.555
4.21546, 2, -47.2517, -11.9881, 29.3592, 13.6662, 67.2645, -166.555
4.22353, 2, -47.2518, -11.9883, 29.3592, 13.6662, 67.2645, -166.555
4.23145, 2, -47.252, -11.9886, 29.3592, 13.6661, 67.2645, -166.555
4.23947, 2, -47.2526, -11.9889, 29.3592, 13.6661, 67.2645, -166.555
4.24752, 2, -47.2532, -11.9892, 29.3592, 13.6661, 67.2645, -166.555
4.25549, 2, -47.2536, -11.9894, 29.3592, 13.6661, 67.2645, -166.555
4.26354, 2, -47.2537, -11.9895, 29.3592, 13.6661, 67.2645, -166.555
4.27166, 2, -47.2537, -11.9895, 29.3592, 13.6661, 67.2645, -166.555
4.2796, 2, -47.2536, -11.9895, 29.3592, 13.666, 67.2645, -166.555
4.28756, 2, -47.2534, -11.9894, 29.3592, 13.666, 67.2645, -166.555
4.29572, 2, -47.2529, -11.9894, 29.3592, 13.6661, 67.2645, -166.555
4.30346, 2, -47.2526, -11.9893, 29.3592, 13.666, 67.2645, -166.555
4.31145, 2, -47.2523, -11.9893, 29.3592, 13.6661, 67.2645, -166.555
4.31956, 2, -47.2521, -11.9893, 29.3592, 13.6661, 67.2645, -166.555
4.32749, 2, -47.252, -11.9894, 29.3593, 13.6661, 67.2645, -166.555
4.33562, 2, -47.252, -11.9894, 29.3592, 13.666, 67.2645, -166.555
4.34372, 2, -47.2519, -11.9895, 29.3592, 13.666, 67.2645, -166.555
4.35168, 2, -47.2519, -11.9896, 29.3592, 13.666, 67.2645, -166.555
4.35982, 2, -47.252, -11.9896, 29.3592, 13.6661, 67.2646, -166.555
4.36787, 2, -47.252, -11.9896, 29.3592, 13.666, 67.2646, -166.555
4.37583, 2, -47.252, -11.9896, 29.3592, 13.666, 67.2645, -166.555
4.38397, 2, -47.252, -11.9895, 29.3592, 13.666, 67.2645, -166.555
4.39207, 2, -47.2519, -11.9895, 29.3593, 13.666, 67.2645, -166.555
4.4001, 2, -47.2519, -11.9894, 29.3592, 13.6661, 67.2645, -166.555
4.40808, 2, -47.2518, -11.9893, 29.3593, 13.666, 67.2645, -166.555
4.41609, 2, -47.2517, -11.9893, 29.3593, 13.666, 67.2645, -166.555
4.42402, 2, -47.2516, -11.9893, 29.3592, 13.6661, 67.2645, -166.555
4.43208, 2, -47.2515, -11.9893, 29.3592, 13.666, 67.2645, -166.555
4.4395, 2, -47.2514, -11.9893, 29.3592, 13.666, 67.2646, -166.555
4.44748, 2, -47.2513, -11.9894, 29.3592, 13.666, 67.2646, -166.555
4.45545, 2, -47.2513, -11.9894, 29.3592, 13.666, 67.2646, -166.555
4.46357, 2, -47.2513, -11.9894, 29.3593, 13.666, 67.2646, -166.555
4.47145, 2, -47.2512, -11.9894, 29.3593, 13.666, 67.2646, -166.555
4.47946, 2, -47.2512, -11.9894, 29.3593, 13.666, 67.2646, -166.555
4.48749, 2, -47.2511, -11.9894, 29.3593, 13.666, 67.2646, -166.555
4.49544, 2, -47.2511, -11.9893, 29.3592, 13.666, 67.2646, -166.555
4.50345, 2, -47.251, -11.9893, 29.3592, 13.666, 67.2646, -166.555
4.51149, 2, -47.2509, -11.9892, 29.3593, 13.666, 67.2646, -166.555
4.51945, 2, -47.2508, -11.9892, 29.3593, 13.666, 67.2646, -166.555
4.52746, 2, -47.2507, -11.9891, 29.3593, 13.666, 67.2646, -166.555
4.53551, 2, -47.2506, -11.9891, 29.3593, 13.666, 67.2646, -166.555
4.54344, 2, -47.2505, -11.9891, 29.3593, 13.666, 67.2647, -166.555
4.55144, 2, -47.2504, -11.9891, 29.3592, 13.666, 67.2647, -166.555
4.56044, 2, -47.2504, -11.9891, 29.3592, 13.666, 67.2646, -166.555
4.56744, 2, -47.2502, -11.9891, 29.3593, 13.6659, 67.2647, -166.555
4.57644, 2, -47.2501, -11.9891, 29.3592, 13.6659, 67.2647, -166.555
4.5835, 2, -47.2501, -11.9891, 29.3592, 13.6659, 67.2647, -166.555
4.59144, 2, -47.25, -11.9891, 29.3593, 13.666, 67.2647, -166.555
4.59946, 2, -47.2498, -11.9891, 29.3593, 13.666, 67.2647, -166.555
4.60751, 2, -47.2497, -11.989, 29.3593, 13.666, 67.2647, -166.555
4.61548, 2, -47.2496, -11.9889, 29.3593, 13.6659, 67.2647, -166.555
4.62345, 2, -47.2495, -11.9888, 29.3593, 13.6659, 67.2647, -166.555
4.63156, 2, -47.2494, -11.9888, 29.3593, 13.6659, 67.2647, -166.555
4.63944, 2, -47.2492, -11.9888, 29.3593, 13.6659, 67.2647, -166.555
4.64745, 2, -47.2491, -11.9888, 29.3593, 13.6659, 67.2647, -166.555
4.65552, 2, -47.2491, -11.9888, 29.3593, 13.6659, 67.2647, -166.555
4.66344, 2, -47.249, -11.9888, 29.3593, 13.6659, 67.2647, -166.555
4.67144, 2, -47.249, -11.9888, 29.3592, 13.6659, 67.2647, -166.555
4.67951, 2, -47.2489, -11.9888, 29.3592, 13.6659, 67.2647, -166.555
4.68744, 2, -47.2488, -11.9888, 29.3593, 13.6659, 67.2647, -166.555
4.69546, 2, -47.2487, -11.9888, 29.3593, 13.6659, 67.2647, -166.555
4.70351, 2, -47.2487, -11.9887, 29.3592, 13.6659, 67.2647, -166.555
4.71143, 2, -47.2487, -11.9886, 29.3592, 13.6659, 67.2647, -166.555
4.71949, 2, -47.2486, -11.9886, 29.3592, 13.6658, 67.2647, -166.555
4.72751, 2, -47.2485, -11.9885, 29.3593, 13.6659, 67.2647, -166.555
4.73545, 2, -47.2484, -11.9885, 29.3593, 13.6659, 67.2648, -166.555
4.74345, 2, -47.2483, -11.9885, 29.3593, 13.6659, 67.2648, -166.555
4.75152, 2, -47.2483, -11.9885, 29.3592, 13.6659, 67.2647, -166.555
4.75949, 2, -47.2483, -11.9885, 29.3593, 13.6658, 67.2647, -166.555
4.76753, 2, -47.2482, -11.9885, 29.3593, 13.6658, 67.2647, -166.555
4.7756, 2, -47.2482, -11.9885, 29.3592, 13.6658, 67.2647, -166.555
4.78357, 2, -47.2482, -11.9885, 29.3593, 13.6658, 67.2648, -166.555
4.79154, 2, -47.2482, -11.9885, 29.3593, 13.6658, 67.2648, -166.555
4.79968, 2, -47.2482, -11.9884, 29.3592, 13.6658, 67.2648, -166.554
4.80744, 2, -47.2481, -11.9884, 29.3593, 13.6658, 67.2648, -166.554
4.81546, 2, -47.2481, -11.9883, 29.3593, 13.6658, 67.2648, -166.554
4.82354, 2, -47.248, -11.9882, 29.3592, 13.6657, 67.2647, -166.554
4.83159, 2, -47.2479, -11.9882, 29.3592, 13.6657, 67.2648, -166.554
4.83953, 2, -47.2478, -11.9882, 29.3592, 13.6657, 67.2648, -166.554
4.84766, 2, -47.2478, -11.9881, 29.3592, 13.6656, 67.2648, -166.554
4.85567, 2, -47.2478, -11.9881, 29.3592, 13.6656, 67.2648, -166.554
4.86405, 2, -47.2477, -11.9881, 29.3592, 13.6657, 67.2648, -166.554
4.87184, 2, -47.2477, -11.9881, 29.3592, 13.6657, 67.2648, -166.554
4.87997, 2, -47.2477, -11.9881, 29.3592, 13.6656, 67.2648, -166.554
4.88825, 2, -47.2476, -11.9881, 29.3592, 13.6656, 67.2648, -166.554
4.89606, 2, -47.2476, -11.9881, 29.3592, 13.6656, 67.2649, -166.554
4.9041, 2, -47.2477, -11.988, 29.3592, 13.6656, 67.2649, -166.554
4.91222, 2, -47.2476, -11.988, 29.3593, 13.6655, 67.2649, -166.554
4.92005, 2, -47.2475, -11.9879, 29.3592, 13.6655, 67.2649, -166.554
4.92823, 2, -47.2475, -11.9879, 29.3592, 13.6655, 67.2649, -166.554
4.93628, 2, -47.2473, -11.9878, 29.3592, 13.6655, 67.265, -166.554
4.94348, 2, -47.2473, -11.9878, 29.3592, 13.6655, 67.265, -166.554
4.95146, 2, -47.2472, -11.9878, 29.3592, 13.6655, 67.265, -166.554
4.96022, 2, -47.2472, -11.9878, 29.3593, 13.6656, 67.265, -166.554
4.96752, 2, -47.2471, -11.9878, 29.3593, 13.6655, 67.265, -166.554
4.97544, 2, -47.2471, -11.9878, 29.3592, 13.6655, 67.265, -166.554
4.98343, 2, -47.247, -11.9878, 29.3592, 13.6654, 67.2651, -166.554
4.99148, 2, -47.247, -11.9877, 29.3592, 13.6654, 67.2651, -166.554
4.99944, 2, -47.247, -11.9877, 29.3592, 13.6654, 67.265, -166.554
5.00743, 2, -47.247, -11.9877, 29.3592, 13.6654, 67.265, -166.554
5.01549, 2, -47.2469, -11.9877, 29.3592, 13.6654, 67.265, -166.554
5.02343, 2, -47.2469, -11.9876, 29.3592, 13.6654, 67.265, -166.554
5.03144, 2, -47.2468, -11.9876, 29.3592, 13.6654, 67.265, -166.554
5.0395, 2, -47.2467, -11.9875, 29.3592, 13.6653, 67.265, -166.554
5.04742, 2, -47.2467, -11.9875, 29.3592, 13.6653, 67.2651, -166.554
5.05765, 2, -47.2466, -11.9875, 29.3592, 13.6653, 67.2651, -166.554
5.06341, 2, -47.2465, -11.9875, 29.3592, 13.6653, 67.2651, -166.554
5.07247, 2, -47.2465, -11.9874, 29.3592, 13.6653, 67.2651, -166.554
5.07945, 2, -47.2464, -11.9875, 29.3592, 13.6653, 67.2651, -166.554
5.08743, 2, -47.2464, -11.9874, 29.3592, 13.6652, 67.2651, -166.554
5.09548, 2, -47.2464, -11.9874, 29.3592, 13.6652, 67.2651, -166.554
5.10344, 2, -47.2464, -11.9874, 29.3592, 13.6652, 67.2651, -166.554
5.11143, 2, -47.2464, -11.9874, 29.3592, 13.6652, 67.2651, -166.554
5.11952, 2, -47.2463, -11.9873, 29.3592, 13.6652, 67.2651, -166.554
5.12744, 2, -47.2463, -11.9873, 29.3592, 13.6652, 67.2651, -166.554
5.1355, 2, -47.2462, -11.9872, 29.3592, 13.6651, 67.2651, -166.554
5.14347, 4, -47.2461, -11.9872, 29.3592, 13.6652, 67.2651, -166.554
5.15144, 4, -47.2461, -11.9872, 29.3592, 13.6652, 67.2651, -166.554
5.15945, 4, -47.246, -11.9871, 29.3592, 13.6651, 67.2651, -166.554
5.16747, 4, -47.2459, -11.9871, 29.3592, 13.6651, 67.2651, -166.554
5.17545, 4, -47.2459, -11.9871, 29.3593, 13.6651, 67.2651, -166.554
5.18342, 4, -47.2458, -11.9871, 29.3592, 13.6651, 67.2652, -166.554
5.19147, 4, -47.2458, -11.9871, 29.3592, 13.6651, 67.2652, -166.554
5.19947, 4, -47.2458, -11.9871, 29.3592, 13.665, 67.2652, -166.554
5.20743, 4, -47.2458, -11.9871, 29.3592, 13.665, 67.2652, -166.554
5.21548, 4, -47.2458, -11.9871, 29.3592, 13.665, 67.2652, -166.554
5.22345, 4, -47.2457, -11.987, 29.3592, 13.665, 67.2652, -166.554
5.23143, 4, -47.2457, -11.987, 29.3592, 13.665, 67.2652, -166.553
5.23964, 4, -47.2456, -11.9869, 29.3592, 13.665, 67.2652, -166.553
5.25472, 4, -47.2455, -11.9869, 29.3592, 13.665, 67.2652, -166.553
5.25677, 4, -47.2455, -11.9869, 29.3592, 13.665, 67.2652, -166.553
5.2695, 4, -47.2454, -11.9869, 29.3592, 13.665, 67.2653, -166.553
5.27226, 4, -47.2454, -11.9869, 29.3592, 13.665, 67.2652, -166.553
5.2797, 4, -47.2454, -11.9868, 29.3592, 13.665, 67.2652, -166.553
5.28781, 4, -47.2453, -11.9868, 29.3592, 13.665, 67.2653, -166.553
5.29573, 4, -47.2453, -11.9868, 29.3592, 13.665, 67.2653, -166.553
5.30471, 4, -47.2453, -11.9868, 29.3592, 13.6649, 67.2653, -166.553
5.31356, 4, -47.2453, -11.9868, 29.3592, 13.6649, 67.2653, -166.553
5.31987, 4, -47.2452, -11.9868, 29.3592, 13.6649, 67.2653, -166.553
5.32832, 4, -47.2452, -11.9867, 29.3592, 13.6649, 67.2653, -166.553
5.33589, 4, -47.2452, -11.9867, 29.3592, 13.6649, 67.2653, -166.553
5.34652, 4, -47.2451, -11.9867, 29.3592, 13.6649, 67.2653, -166.553
5.35255, 4, -47.2451, -11.9866, 29.3592, 13.6649, 67.2653, -166.553
5.36228, 4, -47.245, -11.9866, 29.3592, 13.6648, 67.2653, -166.553
5.3692, 4, -47.245, -11.9866, 29.3592, 13.6648, 67.2653, -166.553
5.37851, 4, -47.245, -11.9866, 29.3592, 13.6648, 67.2653, -166.553
5.38434, 4, -47.2449, -11.9866, 29.3592, 13.6648, 67.2653, -166.553
5.39229, 4, -47.2449, -11.9866, 29.3592, 13.6648, 67.2653, -166.553
5.40408, 4, -47.2449, -11.9866, 29.3592, 13.6648, 67.2653, -166.553
5.40843, 4, -47.245, -11.9866, 29.3593, 13.6648, 67.2654, -166.553
5.41757, 4, -47.2459, -11.9871, 29.3597, 13.6649, 67.2654, -166.553
5.42869, 4, -47.2501, -11.9906, 29.3637, 13.6701, 67.2669, -166.553
5.43486, 4, -47.2525, -11.9932, 29.3671, 13.6764, 67.2684, -166.552
5.4412, 4, -47.2596, -12.0021, 29.3798, 13.7015, 67.2748, -166.547
5.44958, 4, -47.2713, -12.0173, 29.4046, 13.7506, 67.2884, -166.537
5.45685, 5, -47.2895, -12.0415, 29.4474, 13.8386, 67.313, -166.517
5.46356, 5, -47.3017, -12.0578, 29.4774, 13.9012, 67.3308, -166.503
5.47167, 5, -47.3338, -12.0995, 29.5591, 14.0735, 67.3789, -166.463
5.48126, 5, -47.3774, -12.1549, 29.6739, 14.3193, 67.489, -166.372
5.49017, 5, -47.4668, -12.2659, 29.9149, 14.843, 67.5892, -166.287
5.4986, 5, -47.5422, -12.3589, 30.124, 15.2965, 67.7113, -166.183
5.50779, 5, -47.6298, -12.4664, 30.3698, 15.8255, 67.8518, -166.063
5.51197, 5, -47.6777, -12.5252, 30.5049, 16.1143, 67.9279, -165.998
5.52333, 5, -47.8355, -12.7192, 30.9535, 17.0555, 68.1725, -165.788
5.52756, 5, -47.8919, -12.7889, 31.1144, 17.3881, 68.2574, -165.715
5.53772, 5, -48.0686, -13.0084, 31.6207, 18.415, 68.5152, -165.492
5.54527, 5, -48.1898, -13.1597, 31.9692, 19.1095, 68.6856, -165.344
5.55156, 5, -48.2506, -13.2354, 32.1452, 19.456, 68.7694, -165.271
5.55964, 5, -48.3711, -13.3847, 32.4969, 20.1393, 68.9337, -165.125
5.56756, 5, -48.4869, -13.5289, 32.8449, 20.8027, 69.0938, -164.976
5.57555, 6, -48.5934, -13.6656, 33.1824, 21.4355, 69.2516, -164.814
5.58363, 6, -48.6861, -13.7923, 33.5051, 22.0266, 69.4092, -164.626
5.59204, 6, -48.7608, -13.9093, 33.8085, 22.5711, 69.5693, -164.398
5.602, 7, -48.8334, -14.0694, 34.2256, 23.2936, 69.8178, -163.959
5.61007, 7, -48.8463, -14.1187, 34.3546, 23.5112, 69.9037, -163.781
5.61568, 8, -48.856, -14.2107, 34.5994, 23.9167, 70.0813, -163.377
5.62662, 8, -48.8472, -14.2934, 34.9424, 24.4699, 70.3628, -162.654
5.63261, 9, -48.823, -14.3684, 35.0519, 24.6448, 70.4611, -162.386
5.63967, 9, -48.7858, -14.4379, 35.2661, 24.988, 70.6648, -161.816
5.65192, 10, -48.7108, -14.5365, 35.584, 25.4999, 70.9878, -160.903
5.65657, 10, -48.6813, -14.5687, 35.69, 25.672, 71.0997, -160.589
5.66516, 11, -48.616, -14.6325, 35.9022, 26.0202, 71.3283, -159.954
5.67156, 11, -48.5442, -14.6955, 36.115, 26.3745, 71.5614, -159.314
5.67994, 11, -48.4677, -14.7581, 36.3277, 26.7353, 71.7972, -158.675
5.68757, 12, -48.3892, -14.8203, 36.5382, 27.1037, 72.0351, -158.034
5.69821, 13, -48.3102, -14.8811, 36.7471, 27.4801, 72.3961, -157.067
5.70366, 13, -48.2311, -14.9395, 36.9543, 27.8649, 72.5179, -156.744
5.71268, 14, -48.151, -14.9966, 37.159, 28.258, 72.764, -156.091
5.71958, 14, -48.0682, -15.0546, 37.3624, 28.658, 73.0127, -155.435
5.72759, 15, -47.9818, -15.1142, 37.5656, 29.0628, 73.2635, -154.777
5.73926, 15, -47.8913, -15.1746, 37.7673, 29.4691, 73.6378, -153.796
5.74715, 16, -47.7455, -15.2635, 38.067, 30.0762, 73.883, -153.147
5.75156, 16, -47.6935, -15.293, 38.1663, 30.2767, 74.0037, -152.825
5.76054, 17, -47.5843, -15.3533, 38.3631, 30.6742, 74.2406, -152.188
5.77171, 17, -47.4691, -15.4479, 38.6518, 31.2616, 74.5843, -151.242
5.77655, 18, -47.3488, -15.48, 38.7466, 31.455, 74.6958, -150.929
5.78504, 18, -47.2237, -15.5449, 38.9341, 31.8395, 74.9148, -150.31
5.79259, 19, -47.0933, -15.6115, 39.118, 32.2213, 75.1291, -149.698
5.80053, 19, -46.9569, -15.6815, 39.2994, 32.6026, 75.3396, -149.09
5.80792, 20, -46.8148, -15.7543, 39.4796, 32.9835, 75.5463, -148.488
5.81569, 20, -46.6679, -15.8281, 39.6581, 33.3639, 75.7492, -147.893
5.8238, 21, -46.5171, -15.9025, 39.834, 33.7433, 75.9479, -147.306
5.83262, 21, -46.3628, -15.9781, 40.0081, 34.1218, 76.1424, -146.724
5.84429, 22, -46.2052, -16.0552, 40.1809, 34.6881, 76.4263, -145.864
5.84816, 22, -46.0438, -16.1338, 40.3515, 34.8762, 76.519, -145.58
5.85594, 23, -45.8775, -16.214, 40.5189, 35.2512, 76.7019, -145.017
5.86412, 23, -45.7052, -16.2965, 40.6837, 35.6236, 76.8806, -144.458
5.87321, 24, -45.5252, -16.3815, 40.8454, 35.992, 77.0546, -143.905
5.88014, 24, -45.3372, -16.469, 41.0027, 36.3546, 77.2225, -143.357
5.88846, 25, -45.1415, -16.5584, 41.1553, 36.7088, 77.3834, -142.815
5.89713, 25, -44.9386, -16.649, 41.3037, 37.053, 77.5362, -142.278
5.9056, 26, -44.7289, -16.7403, 41.4477, 37.3871, 77.6809, -141.746
5.91238, 26, -44.5124, -16.8326, 41.5868, 37.7111, 77.8185, -141.22
5.92028, 26, -44.2888, -16.926, 41.7207, 38.0266, 77.9509, -140.697
5.92829, 27, -44.0585, -17.0197, 41.8491, 38.3344, 78.0786, -140.175
5.93626, 27, -43.9408, -17.0664, 41.9716, 38.6354, 78.204, -139.653
5.94553, 28, -43.5774, -17.2049, 42.0877, 38.93, 78.3273, -139.132
5.95635, 28, -43.4526, -17.2502, 42.1969, 39.2177, 78.5101, -138.35
5.96029, 29, -43.198, -17.3396, 42.2488, 39.3592, 78.5703, -138.088
5.96868, 30, -42.8043, -17.4694, 42.3937, 39.773, 78.689, -137.565
5.97789, 30, -42.533, -17.5525, 42.4811, 40.039, 78.8061, -137.042
5.98554, 31, -42.2537, -17.6327, 42.5611, 40.2965, 78.92, -136.52
5.99152, 31, -42.1111, -17.672, 42.5985, 40.422, 78.9758, -136.259
6.00493, 32, -41.5221, -17.8227, 42.7307, 40.901, 79.1907, -135.217
6.00753, 32, -41.5221, -17.8227, 42.7307, 40.901, 79.1907, -135.217
6.01565, 33, -41.2176, -17.8939, 42.7867, 41.1269, 79.2927, -134.698
6.02967, 33, -40.5876, -18.0283, 42.8772, 41.5539, 79.4878, -133.665
6.03561, 34, -40.4259, -18.0604, 42.8953, 41.6554, 79.5348, -133.407
6.03955, 34, -40.2631, -18.092, 42.9117, 41.7551, 79.5813, -133.15
6.04975, 35, -39.7675, -18.1825, 42.9499, 42.0423, 79.7174, -132.379
6.0579, 35, -39.43, -18.2387, 42.9666, 42.2247, 79.8049, -131.867
6.06358, 35, -39.2589, -18.2656, 42.9723, 42.313, 79.8482, -131.611
6.07168, 36, -38.9111, -18.3167, 42.9785, 42.4838, 79.933, -131.1
6.07955, 36, -38.5564, -18.3644, 42.9782, 42.6471, 80.016, -130.59
6.09071, 37, -38.0135, -18.4294, 42.965, 42.8778, 80.1362, -129.828
6.10341, 38, -37.4586, -18.486, 42.9366, 43.092, 80.2519, -129.07
6.10673, 38, -37.2713, -18.5031, 42.9239, 43.1596, 80.2897, -128.818
6.11205, 39, -37.0828, -18.5194, 42.9094, 43.2253, 80.3268, -128.566
6.12453, 39, -36.5106, -18.563, 42.8558, 43.4117, 80.4342, -127.815
6.12761, 40, -36.3174, -18.5757, 42.8346, 43.4701, 80.4694, -127.565
6.13887, 40, -35.7284, -18.608, 42.7613, 43.6346, 80.5715, -126.819
6.14625, 41, -35.3284, -18.6244, 42.7042, 43.7352, 80.6373, -126.324
6.15625, 41, -35.1262, -18.6314, 42.6406, 43.8285, 80.7008, -125.831
6.15955, 42, -34.7182, -18.6426, 42.6064, 43.8729, 80.7323, -125.585
6.16761, 43, -34.3067, -18.6504, 42.5332, 43.9555, 80.7928, -125.096
6.18303, 43, -33.6839, -18.6563, 42.368, 44.0997, 80.9093, -124.124
6.18491, 43, -33.4745, -18.6566, 42.368, 44.0997, 80.9093, -124.124
6.19262, 44, -33.0517, -18.6545, 42.2766, 44.1615, 80.9642, -123.641
6.20694, 44, -32.1874, -18.6389, 42.0766, 44.2623, 81.0708, -122.683
6.20887, 45, -32.1874, -18.6389, 42.0766, 44.2623, 81.0708, -122.683
6.21666, 45, -31.7461, -18.6254, 41.9678, 44.3023, 81.121, -122.208
6.22358, 46, -31.3008, -18.6085, 41.8529, 44.3346, 81.1705, -121.735
6.23257, 46, -30.8533, -18.5882, 41.732, 44.359, 81.2174, -121.264
6.23956, 47, -30.4036, -18.5641, 41.6054, 44.3757, 81.2625, -120.796
6.26823, 48, -28.7887, -18.4459, 41.1153, 44.3759, 81.4134, -119.171
6.27087, 48, -28.7887, -18.4247, 41.0392, 44.3677, 81.4343, -118.942
6.27293, 49, -28.552, -18.4247, 41.0392, 44.3677, 81.4343, -118.942
6.27741, 49, -28.3144, -18.4023, 40.9617, 44.3573, 81.4553, -118.712
6.28022, 49, -28.0763, -18.3789, 40.8828, 44.3447, 81.476, -118.483
6.28815, 50, -27.5981, -18.3287, 40.7201, 44.3118, 81.5166, -118.025
6.29754, 50, -27.1173, -18.2736, 40.5509, 44.2693, 81.5574, -117.568
6.30627, 51, -26.6312, -18.2129, 40.3752, 44.2184, 81.5996, -117.112
6.31228, 51, -26.1374, -18.1467, 40.1931, 44.1571, 81.642, -116.657
6.3208, 52, -25.6361, -18.0748, 40.0038, 44.0864, 81.6844, -116.203
6.3297, 52, -25.1298, -17.9976, 39.807, 44.0052, 81.7283, -115.749
6.33699, 53, -24.6209, -17.9148, 39.6039, 43.9136, 81.7732, -115.296
6.34455, 53, -24.1097, -17.8262, 39.3942, 43.812, 81.818, -114.843
6.35255, 54, -23.5937, -17.731, 39.1762, 43.6999, 81.8649, -114.392
6.36064, 54, -23.0702, -17.6296, 38.9507, 43.5766, 81.9146, -113.94
6.36855, 55, -22.5381, -17.5221, 38.718, 43.442, 81.9658, -113.487
6.37974, 55, -22.0002, -17.4085, 38.4769, 43.2955, 82.0202, -112.808
6.38419, 56, -21.4596, -17.2891, 38.2292, 43.1373, 82.077, -112.582
6.39368, 56, -20.9166, -17.1638, 37.9751, 42.968, 82.1343, -112.13
6.40403, 57, -20.0906, -16.9654, 37.5818, 42.6933, 82.2239, -111.453
6.41048, 57, -19.8105, -16.8966, 37.4478, 42.5961, 82.2539, -111.228
6.41641, 58, -19.2443, -16.7545, 37.1747, 42.3928, 82.3156, -110.778
6.42492, 58, -18.673, -16.6065, 36.8959, 42.1771, 82.3791, -110.327
6.43224, 59, -18.099, -16.4526, 36.6104, 41.949, 82.4441, -109.878
6.44096, 59, -17.5216, -16.2936, 36.3179, 41.7083, 82.5125, -109.429
6.44976, 60, -16.9361, -16.1307, 36.019, 41.4543, 82.5828, -108.98
6.45731, 60, -16.3403, -15.9626, 35.714, 41.187, 82.6564, -108.53
6.46436, 61, -16.0394, -15.8764, 35.5597, 40.9062, 82.731, -108.081
6.47355, 61, -15.1304, -15.61, 35.0876, 40.6123, 82.8078, -107.632
6.48257, 62, -14.5206, -15.4271, 34.7662, 40.3058, 82.8866, -107.184
6.48757, 62, -14.2137, -15.3341, 34.6035, 40.1476, 82.9269, -106.959
6.4958, 63, -13.593, -15.1443, 34.275, 39.8219, 83.0087, -106.51
6.50354, 63, -12.9624, -14.9478, 33.9417, 39.4834, 83.093, -106.061
6.51318, 64, -12.3246, -14.7446, 33.6033, 39.1315, 83.18, -105.611
6.52273, 64, -11.3597, -14.4289, 33.084, 38.5777, 83.3174, -104.934
6.52968, 65, -10.7065, -14.2098, 32.7292, 38.1887, 83.4156, -104.481
6.54137, 65, -9.705, -13.8683, 32.1849, 37.5716, 83.5741, -103.796
6.54361, 66, -9.705, -13.8683, 32.1849, 37.5716, 83.5741, -103.796
6.55462, 66, -8.68334, -13.5106, 31.6283, 36.9118, 83.7474, -103.107
6.56117, 67, -7.99526, -13.2633, 31.2493, 36.4482, 83.8712, -102.645
6.56757, 67, -7.64817, -13.1372, 31.0574, 36.2098, 83.9358, -102.413
6.57886, 68, -6.94656, -12.8796, 30.6696, 35.471, 84.1393, -101.714
6.5874, 68, -5.87998, -12.4805, 30.0815, 34.9616, 84.2824, -101.245
6.59151, 69, -5.522, -12.3449, 29.8837, 34.7026, 84.3562, -101.01
6.59954, 69, -4.80305, -12.0692, 29.4865, 34.1765, 84.507, -100.539
6.6117, 70, -3.71243, -11.6434, 28.8894, 33.371, 84.7412, -99.8294
6.61593, 70, -3.34552, -11.4975, 28.6909, 33.0974, 84.8212, -99.5922
6.62357, 71, -2.60757, -11.1992, 28.2943, 32.5416, 84.9852, -99.1174
6.63166, 71, -1.86497, -10.8949, 27.8962, 31.9732, 85.1557, -98.6427
6.64274, 72, -0.740037, -10.4279, 27.2956, 31.0923, 85.429, -97.9286
6.6486, 72, -0.362774, -10.27, 27.0945, 30.7903, 85.5247, -97.6903
6.65787, 73, 0.394179, -9.94999, 26.4892, 29.8656, 85.8253, -96.9741
6.66353, 73, 1.15353, -9.62281, 26.2873, 29.5521, 85.9292, -96.7356
6.67253, 74, 1.9161, -9.28983, 25.8842, 28.919, 86.1427, -96.2582
6.67955, 74, 2.68272, -8.951, 25.4845, 28.2795, 86.3628, -95.7794
6.69145, 75, 3.83829, -8.43168, 24.8933, 27.3083, 86.7039, -95.0581
6.69553, 75, 4.22468, -8.25507, 24.6983, 26.9821, 86.8204, -94.8165
6.70616, 76, 4.99961, -7.89786, 24.3111, 26.3284, 87.0581, -94.0882
6.71164, 76, 5.77735, -7.53466, 23.9276, 25.6709, 87.3022, -93.8436
6.72813, 77, 7.33838, -6.78935, 23.1718, 24.3496, 87.8122, -92.8588
6.73063, 77, 7.73005, -6.59747, 22.9845, 24.0179, 87.9452, -92.6108
6.74136, 78, 8.51495, -6.20517, 22.6116, 23.3515, 88.219, -92.1135
6.74546, 78, 8.90809, -6.00494, 22.4264, 23.0164, 88.3603, -91.8635
6.75158, 78, 9.696, -5.59829, 22.0584, 22.3408, 88.6535, -91.3598
6.75941, 79, 10.4862, -5.18416, 21.6927, 21.6574, 88.9609, -90.8518
6.76782, 79, 11.2775, -4.76264, 21.3295, 20.9694, 89.2822, -90.3381
6.77546, 80, 12.0668, -4.33026, 20.9702, 20.2785, 89.615, -89.8191
6.78347, 80, 12.851, -3.88669, 20.6158, 19.5903, 89.958, -89.2934
6.79154, 81, 13.6284, -3.43591, 20.2675, 18.9114, 90.3091, -88.7625
6.79953, 81, 14.3992, -2.97979, 19.9268, 18.2462, 90.6666, -88.2268
6.80748, 82, 15.1621, -2.51628, 19.5968, 17.5969, 91.0277, -87.6884
6.81561, 82, 15.9151, -2.04496, 19.2773, 16.9657, 91.3921, -87.1475
6.82416, 83, 16.655, -1.56731, 18.9679, 16.3542, 91.7596, -86.6051
6.8314, 83, 17.3808, -1.08507, 18.6681, 15.7626, 92.1313, -86.0622
6.84024, 84, 18.0919, -0.599092, 18.3773, 15.1904, 92.5077, -85.5214
6.84748, 84, 18.7862, -0.109985, 18.0951, 14.6386, 92.8904, -84.9828
6.85553, 85, 19.4628, 0.383539, 17.8188, 14.1067, 93.2804, -84.4466
6.86391, 85, 20.1203, 0.881754, 17.5492, 13.595, 93.678, -83.9138
6.87164, 85, 20.7601, 1.38428, 17.286, 13.1033, 94.082, -83.3841
6.87982, 86, 21.3851, 1.89168, 17.0292, 12.6311, 94.4911, -82.8557
6.88779, 86, 21.9969, 2.40639, 16.7792, 12.1785, 94.9061, -82.3264
6.89643, 87, 22.5972, 2.93108, 16.5339, 11.7443, 95.3274, -81.7938
6.90392, 87, 23.1867, 3.46503, 16.2924, 11.3277, 95.7561, -81.2564
6.91215, 88, 23.7663, 4.00503, 16.0534, 10.9261, 96.1929, -80.7122
6.91996, 88, 24.3353, 4.55105, 15.8164, 10.54, 96.6362, -80.1584
6.92823, 89, 24.8933, 5.10697, 15.5847, 10.1688, 97.0862, -79.5946
6.936, 89, 25.1689, 5.38971, 15.3584, 9.81397, 97.5414, -79.0195
6.94393, 89, 25.716, 5.96467, 15.2468, 9.64277, 97.7705, -78.7278
6.95136, 90, 26.2604, 6.55095, 15.028, 9.31224, 98.2312, -78.1338
6.95941, 90, 26.7982, 7.14696, 14.8155, 8.99829, 98.6965, -77.5255
6.96742, 91, 27.3248, 7.75168, 14.609, 8.70177, 99.1671, -76.9036
6.97537, 91, 27.8394, 8.36659, 14.407, 8.42283, 99.6442, -76.2693
6.98345, 92, 28.3455, 8.99225, 14.2087, 8.16382, 100.128, -75.6221
6.99135, 92, 28.8453, 9.62866, 14.0136, 7.92458, 100.617, -74.9648
6.99938, 93, 29.3362, 10.2731, 13.8222, 7.7061, 101.112, -74.2995
7.00737, 93, 29.8147, 10.9246, 13.636, 7.50922, 101.61, -73.625
7.01538, 94, 30.2791, 11.5823, 13.4561, 7.33508, 102.109, -72.9429
7.02537, 95, 30.9489, 12.5766, 13.1978, 7.11746, 102.854, -71.9099
7.03138, 95, 31.1653, 12.9094, 13.1152, 7.05674, 103.101, -71.5625
7.0394, 95, 31.5876, 13.5761, 12.9559, 6.95307, 103.593, -70.8632
7.04738, 96, 31.9949, 14.2444, 12.8037, 6.87288, 104.081, -70.1597
7.05749, 97, 32.5743, 15.2479, 12.5876, 6.79808, 104.804, -69.0962
7.06339, 97, 32.7593, 15.582, 12.5191, 6.78382, 105.041, -68.7392
7.07238, 98, 33.1177, 16.2476, 12.3881, 6.77102, 105.512, -68.0242
7.0794, 98, 33.4615, 16.908, 12.2663, 6.78013, 105.973, -67.3094
7.08738, 98, 33.7908, 17.5604, 12.1542, 6.80996, 106.423, -66.594
7.09642, 99, 34.1057, 18.2041, 12.0523, 6.85902, 106.86, -65.8818
7.1034, 99, 34.4074, 18.8386, 11.9608, 6.92831, 107.28, -65.1752
7.1114, 100, 34.6971, 19.4636, 11.8792, 7.01449, 107.685, -64.4731
7.11937, 100, 34.9741, 20.0781, 11.8071, 7.118, 108.074, -63.7784
7.1274, 101, 35.2373, 20.6796, 11.7429, 7.23631, 108.448, -63.0931
7.13542, 101, 35.4873, 21.2679, 11.6861, 7.36764, 108.808, -62.4157
7.14333, 102, 35.725, 21.8417, 11.6367, 7.50961, 109.154, -61.749
7.15146, 102, 35.9499, 22.4007, 11.5942, 7.65982, 109.485, -61.0957
7.15941, 102, 36.163, 22.9451, 11.5587, 7.8166, 109.801, -60.4558
7.16736, 103, 36.3672, 23.4746, 11.5303, 7.97871, 110.102, -59.8297
7.1754, 103, 36.5652, 23.9894, 11.5102, 8.14669, 110.387, -59.218
7.18339, 104, 36.7579, 24.4914, 11.4986, 8.32131, 110.655, -58.6203
7.19139, 104, 36.9456, 24.9805, 11.494, 8.50403, 110.904, -58.0327
7.1994, 104, 37.1291, 25.4566, 11.4956, 8.69594, 111.136, -57.454
7.2074, 104, 37.306, 25.9199, 11.5031, 8.89687, 111.349, -56.883
7.21538, 104, 37.4728, 26.3695, 11.5149, 9.10612, 111.545, -56.3194
7.22342, 104, 37.63, 26.8057, 11.5298, 9.32215, 111.727, -55.7633
7.23141, 104, 37.7813, 27.2297, 11.5473, 9.5418, 111.897, -55.2182
7.23937, 104, 37.9305, 27.6406, 11.5667, 9.76268, 112.058, -54.6877
7.2474, 104, 38.0779, 28.0375, 11.5868, 9.98171, 112.209, -54.1757
7.25539, 104, 38.222, 28.4199, 11.6069, 10.1972, 112.354, -53.6829
7.26343, 104, 38.3614, 28.7887, 11.6263, 10.4074, 112.49, -53.2125
7.27144, 104, 38.4945, 29.1418, 11.6447, 10.611, 112.619, -52.7653
7.27947, 104, 38.6201, 29.478, 11.6623, 10.8068, 112.74, -52.3426
7.28798, 104, 38.7378, 29.7955, 11.6787, 10.9942, 112.855, -51.9451
7.29642, 104, 38.8475, 30.0944, 11.694, 11.1723, 112.961, -51.5719
7.30353, 104, 38.9494, 30.3751, 11.7082, 11.3407, 113.059, -51.224
7.31153, 104, 39.0437, 30.636, 11.7213, 11.4989, 113.15, -50.9017
7.31951, 104, 39.1301, 30.8773, 11.7331, 11.6465, 113.234, -50.6045
7.32751, 104, 39.208, 31.0993, 11.7438, 11.7827, 113.31, -50.3326
7.33544, 104, 39.2775, 31.3011, 11.7537, 11.9074, 113.38, -50.086
7.34344, 104, 39.339, 31.4832, 11.7629, 12.0203, 113.441, -49.8646
7.35149, 104, 39.3929, 31.6462, 11.7708, 12.1212, 113.497, -49.6684
7.35995, 104, 39.4403, 31.7898, 11.7778, 12.21, 113.544, -49.4971
7.36841, 104, 39.4816, 31.915, 11.7843, 12.2865, 113.584, -49.3504
7.3757, 104, 39.517, 32.0228, 11.7901, 12.3511, 113.619, -49.2271
7.38416, 104, 39.5462, 32.1141, 11.7953, 12.4042, 113.646, -49.127
7.39187, 104, 39.5701, 32.1899, 11.7999, 12.4454, 113.668, -49.0472
7.40044, 104, 39.5894, 32.252, 11.8039, 12.4773, 113.684, -48.9869
7.40793, 104, 39.6048, 32.3021, 11.8077, 12.501, 113.696, -48.943
7.41655, 104, 39.6168, 32.3415, 11.8112, 12.5178, 113.703, -48.9124
7.42396, 104, 39.6261, 32.3711, 11.8142, 12.5294, 113.708, -48.8923
7.43201, 104, 39.6326, 32.3932, 11.817, 12.5367, 113.711, -48.8802
7.44009, 104, 39.635, 32.402, 11.8182, 12.539, 113.713, -48.8738
7.4479, 104, 39.6383, 32.4155, 11.8202, 12.5421, 113.713, -48.8719
7.45643, 104, 39.6407, 32.4273, 11.8222, 12.544, 113.714, -48.8693
7.46332, 105, 39.641, 32.4297, 11.8227, 12.5443, 113.714, -48.8689
7.47142, 105, 39.641, 32.4333, 11.8236, 12.5446, 113.714, -48.8685
7.47943, 105, 39.6402, 32.4357, 11.8245, 12.5449, 113.714, -48.8684
7.4874, 105, 39.6392, 32.4374, 11.8252, 12.545, 113.714, -48.8685
7.49537, 105, 39.6379, 32.4388, 11.8258, 12.545, 113.714, -48.8687
7.50338, 105, 39.6366, 32.4401, 11.8263, 12.5451, 113.714, -48.869
7.51137, 105, 39.6356, 32.4413, 11.8268, 12.5451, 113.714, -48.8693
7.51937, 105, 39.6351, 32.4424, 11.8273, 12.5451, 113.714, -48.8695
7.5294, 105, 39.6346, 32.4441, 11.8282, 12.5451, 113.714, -48.8699
7.53535, 105, 39.6344, 32.4446, 11.8285, 12.5451, 113.714, -48.8701
7.54501, 105, 39.6341, 32.4458, 11.8291, 12.5451, 113.714, -48.8704
7.55141, 105, 39.634, 32.4461, 11.8293, 12.5451, 113.714, -48.8705
7.55935, 105, 39.6337, 32.4466, 11.8295, 12.5451, 113.714, -48.8707
7.56737, 105, 39.6335, 32.4469, 11.8298, 12.5451, 113.714, -48.8709
7.57705, 105, 39.6332, 32.447, 11.8301, 12.5451, 113.714, -48.8711
7.58335, 105, 39.633, 32.4471, 11.8303, 12.5451, 113.714, -48.8712
