hehonglu123/Motion-Primitive-Planning/realrobot/recorded_data/repeatibility/wood/v200_iteration0.csv
timestamp, cmd_num, J1, J2, J3, J4, J5, J6
0.000377, -1, 11.3779, 13.6141, 17.3391, -145.519, -97.9228, 142.516
0.004413, -1, 11.3778, 13.6141, 17.3391, -145.519, -97.9228, 142.516
0.028133, -1, 11.3778, 13.6141, 17.3391, -145.519, -97.9228, 142.516
0.029448, -1, 11.3778, 13.6141, 17.3391, -145.519, -97.9228, 142.516
0.031501, -1, 11.3778, 13.6141, 17.3391, -145.519, -97.9228, 142.516
0.034623, -1, 11.3778, 13.6141, 17.3391, -145.519, -97.9228, 142.516
0.039735, -1, 11.3778, 13.614, 17.3391, -145.519, -97.9228, 142.516
0.047715, -1, 11.3777, 13.614, 17.3391, -145.519, -97.9227, 142.516
0.055758, -1, 11.3763, 13.6139, 17.3391, -145.519, -97.9228, 142.516
0.063659, -1, 11.372, 13.6135, 17.339, -145.519, -97.9228, 142.516
0.209399, -1, 9.73615, 13.1759, 17.4462, -146.033, -97.7461, 139.534
0.210582, -1, 9.73615, 13.1759, 17.4462, -146.033, -97.7461, 139.534
0.212591, -1, 9.65836, 13.1553, 17.4512, -146.057, -97.7375, 139.394
0.213808, -1, 9.65836, 13.1553, 17.4512, -146.057, -97.7375, 139.394
0.214974, -1, 9.65836, 13.1553, 17.4512, -146.057, -97.7375, 139.394
0.216986, -1, 9.58069, 13.1346, 17.4562, -146.081, -97.729, 139.255
0.218185, -1, 9.58069, 13.1346, 17.4562, -146.081, -97.729, 139.255
0.221118, -1, 9.50318, 13.114, 17.4611, -146.105, -97.7206, 139.115
0.223185, -1, 9.50318, 13.114, 17.4611, -146.105, -97.7206, 139.115
0.225231, -1, 9.4258, 13.0934, 17.4661, -146.129, -97.7122, 138.976
0.226416, -1, 9.4258, 13.0934, 17.4661, -146.129, -97.7122, 138.976
0.228429, -1, 9.34851, 13.0729, 17.471, -146.153, -97.7039, 138.836
0.229762, -1, 9.34851, 13.0729, 17.471, -146.153, -97.7039, 138.836
0.231018, -1, 9.34851, 13.0729, 17.471, -146.153, -97.7039, 138.836
0.232954, -1, 9.27129, 13.0523, 17.476, -146.177, -97.6955, 138.697
0.2344, -1, 9.27129, 13.0523, 17.476, -146.177, -97.6955, 138.697
0.236429, -1, 9.19415, 13.0318, 17.481, -146.201, -97.6871, 138.557
0.237783, -1, 9.19415, 13.0318, 17.481, -146.201, -97.6871, 138.557
0.23905, -1, 9.19415, 13.0318, 17.481, -146.201, -97.6871, 138.557
0.2411, -1, 9.11715, 13.0113, 17.486, -146.225, -97.6787, 138.417
0.242429, -1, 9.11715, 13.0113, 17.486, -146.225, -97.6787, 138.417
0.244981, -1, 9.11715, 13.0113, 17.486, -146.249, -97.6704, 138.277
0.250683, -1, 8.96342, 12.9703, 17.496, -146.273, -97.662, 138.137
0.256627, -1, 8.80973, 12.9293, 17.5062, -146.321, -97.6449, 137.858
0.263609, -1, 8.73306, 12.9089, 17.5112, -146.345, -97.6363, 137.718
0.271614, -1, 8.5801, 12.8678, 17.5213, -146.392, -97.6189, 137.439
0.279649, -1, 8.42742, 12.8266, 17.5315, -146.441, -97.6013, 137.158
0.287597, -1, 8.27445, 12.7854, 17.5416, -146.488, -97.584, 136.879
0.295594, -1, 8.12101, 12.7439, 17.5517, -146.536, -97.567, 136.599
0.303667, -1, 7.96712, 12.7023, 17.562, -146.584, -97.5503, 136.319
0.311594, -1, 7.81261, 12.6607, 17.572, -146.632, -97.5336, 136.039
0.319611, -1, 7.6577, 12.6191, 17.5821, -146.68, -97.517, 135.759
0.327653, -1, 7.50269, 12.5775, 17.5923, -146.728, -97.5001, 135.479
0.334609, -1, 7.34753, 12.5361, 17.6023, -146.776, -97.483, 135.199
0.343607, -1, 7.19245, 12.4946, 17.6125, -146.824, -97.4656, 134.919
0.351655, -1, 7.03733, 12.4532, 17.6228, -146.872, -97.4482, 134.639
0.359599, -1, 6.88214, 12.4121, 17.633, -146.92, -97.4312, 134.359
0.367632, -1, 6.72713, 12.3709, 17.6434, -146.968, -97.4143, 134.079
0.376596, -1, 6.57245, 12.3297, 17.6538, -147.017, -97.3976, 133.798
0.382634, -1, 6.41795, 12.2886, 17.6641, -147.065, -97.3808, 133.518
0.391603, -1, 6.26363, 12.2473, 17.6744, -147.113, -97.3639, 133.238
0.399673, -1, 6.10939, 12.2059, 17.6846, -147.161, -97.3468, 132.957
0.407622, -1, 5.955, 12.1646, 17.6948, -147.209, -97.3293, 132.676
0.416046, -1, 5.80033, 12.123, 17.7051, -147.257, -97.3117, 132.396
0.424653, -1, 5.64554, 12.0813, 17.7152, -147.305, -97.2943, 132.115
0.431591, -1, 5.49051, 12.0397, 17.7255, -147.353, -97.2773, 131.834
0.4404, -1, 5.33522, 11.998, 17.7357, -147.401, -97.2604, 131.553
0.447596, -1, 5.17972, 11.9564, 17.7459, -147.449, -97.2437, 131.272
0.45559, -1, 5.02393, 11.9147, 17.7564, -147.497, -97.227, 130.992
0.464392, -1, 4.86804, 11.8731, 17.7668, -147.545, -97.21, 130.711
0.471592, -1, 4.71228, 11.8316, 17.7772, -147.594, -97.1927, 130.43
0.47956, -1, 4.55655, 11.7903, 17.7875, -147.642, -97.1752, 130.149
0.488394, -1, 4.40078, 11.7488, 17.7979, -147.69, -97.1578, 129.868
0.495603, -1, 4.24527, 11.7075, 17.8082, -147.739, -97.1407, 129.587
0.503593, -1, 4.09019, 11.6662, 17.8186, -147.787, -97.1238, 129.306
0.512421, -1, 3.93551, 11.6248, 17.8289, -147.835, -97.1068, 129.025
0.519624, -1, 3.78114, 11.5834, 17.8392, -147.884, -97.0902, 128.744
0.527642, -1, 3.6268, 11.5419, 17.8495, -147.932, -97.0732, 128.462
0.536456, -1, 3.47228, 11.5003, 17.8598, -147.98, -97.056, 128.181
0.543659, -1, 3.31751, 11.4586, 17.8702, -148.029, -97.0385, 127.9
0.551588, -1, 3.16246, 11.4169, 17.8805, -148.077, -97.021, 127.618
0.560413, -1, 3.00715, 11.3751, 17.891, -148.125, -97.0037, 127.337
0.567616, -1, 2.85169, 11.3334, 17.9013, -148.173, -96.9867, 127.055
0.575751, -1, 2.69594, 11.2917, 17.9115, -148.221, -96.9698, 126.774
0.584472, -1, 2.53981, 11.25, 17.9219, -148.269, -96.9531, 126.492
0.591702, -1, 2.38338, 11.2083, 17.9322, -148.318, -96.9364, 126.21
0.599698, -1, 2.22676, 11.1667, 17.9426, -148.366, -96.9194, 125.928
0.607773, -1, 2.07002, 11.125, 17.953, -148.414, -96.9021, 125.647
0.615694, -1, 1.9133, 11.0833, 17.9633, -148.463, -96.8846, 125.365
0.623595, -1, 1.75678, 11.0418, 17.9736, -148.511, -96.8671, 125.083
0.634226, -1, 1.60046, 11.0001, 17.9841, -148.56, -96.85, 124.801
0.639928, -1, 1.44442, 10.9584, 17.9945, -148.608, -96.833, 124.519
0.647638, -1, 1.28849, 10.9168, 18.0049, -148.657, -96.8161, 124.237
0.656494, -1, 1.13295, 10.8751, 18.0152, -148.705, -96.7994, 123.955
0.66385, -1, 0.977923, 10.8334, 18.0255, -148.754, -96.7824, 123.672
0.671836, -1, 0.823115, 10.7917, 18.0359, -148.802, -96.7651, 123.39
0.807784, -1, -1.75665, 10.102, 18.2073, -149.603, -96.4829, 118.724
0.809856, -1, -1.83455, 10.0811, 18.2125, -149.628, -96.4742, 118.583
0.811043, -1, -1.83455, 10.0811, 18.2125, -149.628, -96.4742, 118.583
0.812937, -1, -1.91234, 10.0602, 18.2177, -149.652, -96.4655, 118.441
0.814378, -1, -1.91234, 10.0602, 18.2177, -149.652, -96.4655, 118.441
0.815569, -1, -1.91234, 10.0602, 18.2177, -149.652, -96.4655, 118.441
0.817655, -1, -1.99005, 10.0393, 18.2229, -149.676, -96.4567, 118.299
0.821146, -1, -2.06765, 10.0184, 18.2282, -149.7, -96.4478, 118.157
0.822554, -1, -2.06765, 10.0184, 18.2282, -149.7, -96.4478, 118.157
0.823804, -1, -2.06765, 10.0184, 18.2282, -149.7, -96.4478, 118.157
0.82723, -1, -2.14518, 9.99747, 18.2333, -149.725, -96.439, 118.015
0.829123, -1, -2.22274, 9.97657, 18.2385, -149.749, -96.4303, 117.874
0.830581, -1, -2.22274, 9.97657, 18.2385, -149.749, -96.4303, 117.874
0.8318, -1, -2.22274, 9.97657, 18.2385, -149.749, -96.4303, 117.874
0.83402, -1, -2.30036, 9.95566, 18.2437, -149.773, -96.4216, 117.732
0.838077, -1, -2.37804, 9.93472, 18.2489, -149.798, -96.413, 117.59
0.839592, -1, -2.37804, 9.93472, 18.2489, -149.798, -96.413, 117.59
0.841634, -1, -2.45582, 9.91375, 18.2541, -149.822, -96.4045, 117.449
0.84284, -1, -2.45582, 9.91375, 18.2541, -149.822, -96.4045, 117.449
0.844027, -1, -2.45582, 9.91375, 18.2541, -149.822, -96.4045, 117.449
0.846039, -1, -2.53367, 9.89277, 18.2593, -149.846, -96.396, 117.307
0.847602, -1, -2.53367, 9.89277, 18.2593, -149.846, -96.396, 117.307
0.861214, -1, -2.84566, 9.80896, 18.28, -149.943, -96.3624, 116.74
0.863521, -1, -2.84566, 9.80896, 18.28, -149.943, -96.3624, 116.74
0.871664, -1, -3.00228, 9.76704, 18.2904, -149.992, -96.3455, 116.456
0.879633, -1, -3.1593, 9.72516, 18.3007, -150.041, -96.3284, 116.172
0.888579, -1, -3.31672, 9.68321, 18.3111, -150.089, -96.3109, 115.888
0.895642, -1, -3.47457, 9.64124, 18.3216, -150.137, -96.2933, 115.604
0.903575, -1, -3.63248, 9.59935, 18.3321, -150.187, -96.2758, 115.32
0.911608, -1, -3.79038, 9.5575, 18.3424, -150.235, -96.2587, 115.036
0.919718, -1, -3.94838, 9.51552, 18.3527, -150.284, -96.2416, 114.752
0.927589, -1, -4.10634, 9.47364, 18.3631, -150.333, -96.2247, 114.467
0.935574, -1, -4.2641, 9.43175, 18.3734, -150.382, -96.2077, 114.183
0.943681, -1, -4.42159, 9.3898, 18.3837, -150.43, -96.1906, 113.899
0.951573, -1, -4.57877, 9.34787, 18.3941, -150.48, -96.1731, 113.614
0.95957, -1, -4.73555, 9.30587, 18.4044, -150.528, -96.1553, 113.329
0.967651, -1, -4.89196, 9.26387, 18.4148, -150.577, -96.1377, 113.045
0.975573, -1, -5.04807, 9.22187, 18.4253, -150.626, -96.1204, 112.76
0.983576, -1, -5.20391, 9.17987, 18.4359, -150.674, -96.1033, 112.475
0.991637, -1, -5.3599, 9.13775, 18.4464, -150.723, -96.0863, 112.191
0.999572, -1, -5.51604, 9.0956, 18.4568, -150.772, -96.0695, 111.906
1.00758, -1, -5.67231, 9.05359, 18.4672, -150.821, -96.0525, 111.621
1.01564, -1, -5.829, 9.01146, 18.4776, -150.87, -96.0353, 111.336
1.02357, -1, -5.98623, 8.96931, 18.488, -150.919, -96.0177, 111.051
1.03164, -1, -6.14391, 8.92726, 18.4983, -150.967, -96.0001, 110.767
1.0396, -1, -6.3021, 8.88514, 18.5086, -151.016, -95.9827, 110.481
1.04761, -1, -6.46043, 8.8431, 18.5189, -151.065, -95.9657, 110.196
1.05564, -1, -6.61895, 8.80108, 18.5293, -151.114, -95.9486, 109.911
1.06358, -1, -6.77762, 8.75895, 18.5398, -151.163, -95.9317, 109.626
1.07166, -1, -6.93634, 8.71691, 18.5503, -151.212, -95.9146, 109.34
1.07968, -1, -7.09489, 8.67488, 18.5608, -151.261, -95.8973, 109.055
1.08767, -1, -7.2533, 8.63278, 18.5712, -151.31, -95.8797, 108.769
1.09573, -1, -7.41136, 8.59062, 18.5815, -151.36, -95.8619, 108.483
1.10369, -1, -7.5691, 8.54837, 18.592, -151.409, -95.8443, 108.198
1.11173, -1, -7.72656, 8.50617, 18.6024, -151.458, -95.827, 107.912
1.1198, -1, -7.88369, 8.46397, 18.6128, -151.507, -95.8099, 107.626
1.12758, -1, -8.04039, 8.42169, 18.6232, -151.555, -95.7929, 107.341
1.13558, -1, -8.19695, 8.3794, 18.6336, -151.605, -95.776, 107.055
1.1437, -1, -8.35356, 8.3371, 18.6441, -151.654, -95.7589, 106.769
1.1516, -1, -8.51037, 8.29473, 18.6546, -151.702, -95.7415, 106.483
1.15976, -1, -8.6675, 8.25247, 18.6651, -151.752, -95.7239, 106.196
1.16791, -1, -8.82508, 8.21023, 18.6754, -151.801, -95.7062, 105.91
1.17582, -1, -8.98303, 8.16791, 18.6858, -151.849, -95.6888, 105.624
1.18396, -1, -9.14142, 8.12567, 18.6962, -151.899, -95.6715, 105.338
1.19194, -1, -9.30018, 8.08352, 18.7066, -151.948, -95.6544, 105.051
1.19862, -1, -9.37968, 8.06238, 18.7118, -151.972, -95.6459, 104.908
1.20815, -1, -9.61842, 7.99897, 18.7275, -152.047, -95.6202, 104.478
1.21615, -1, -9.77768, 7.95683, 18.7379, -152.096, -95.6027, 104.191
1.22412, -1, -9.93701, 7.91462, 18.7484, -152.145, -95.585, 103.904
1.23229, -1, -10.0963, 7.8723, 18.759, -152.195, -95.5671, 103.617
1.24017, -1, -10.2555, 7.82993, 18.7696, -152.244, -95.5495, 103.331
1.24811, -1, -10.3349, 7.80872, 18.7749, -152.268, -95.5321, 103.044
1.25626, -1, -10.4936, 7.76624, 18.7854, -152.318, -95.5236, 102.757
1.26357, -1, -10.6521, 7.72382, 18.7958, -152.367, -95.5065, 102.613
1.27156, -1, -10.8102, 7.68135, 18.8062, -152.416, -95.4896, 102.326
1.27966, -1, -10.968, 7.63881, 18.8167, -152.465, -95.4725, 102.039
1.28756, -1, -11.1255, 7.59633, 18.8271, -152.515, -95.4551, 101.752
1.29556, -1, -11.2828, 7.55388, 18.8375, -152.564, -95.4374, 101.465
1.30356, -1, -11.4403, 7.51143, 18.848, -152.613, -95.4196, 101.177
1.31169, -1, -11.598, 7.46896, 18.8584, -152.662, -95.402, 100.89
1.31962, -1, -11.7559, 7.42658, 18.869, -152.711, -95.3847, 100.602
1.32756, -1, -11.9143, 7.38422, 18.8795, -152.761, -95.3675, 100.314
1.33558, -1, -12.073, 7.34188, 18.8901, -152.811, -95.3503, 100.027
1.34365, -1, -12.2322, 7.29953, 18.9006, -152.86, -95.3331, 99.7392
1.35156, -1, -12.3918, 7.25713, 18.9111, -152.91, -95.3157, 99.4512
1.35956, -1, -12.5516, 7.2148, 18.9216, -152.959, -95.2979, 99.1633
1.36656, -1, -12.7117, 7.17246, 18.9321, -153.008, -95.28, 98.8755
1.37558, -1, -12.8718, 7.13002, 18.9426, -153.058, -95.2622, 98.5876
1.38456, -1, -13.0319, 7.08752, 18.9531, -153.108, -95.2447, 98.2995
1.39163, -1, -13.1918, 7.04498, 18.9636, -153.157, -95.2274, 98.0113
1.39955, -1, -13.3515, 7.00242, 18.9742, -153.207, -95.2103, 97.7232
1.40756, -1, -13.5108, 6.95976, 18.9847, -153.256, -95.1932, 97.4347
1.41564, -1, -13.67, 6.91703, 18.9953, -153.305, -95.1759, 97.1462
1.42356, -1, -13.8291, 6.8743, 19.0058, -153.355, -95.1585, 96.8576
1.43157, -1, -13.9876, 6.83161, 19.0162, -153.404, -95.1407, 96.5691
1.43962, -1, -14.1458, 6.78894, 19.0267, -153.453, -95.123, 96.2804
1.44755, -1, -14.304, 6.74636, 19.0372, -153.503, -95.1054, 95.9915
1.45558, -1, -14.4623, 6.70367, 19.0477, -153.552, -95.0881, 95.7027
1.46362, -1, -14.6207, 6.66106, 19.0582, -153.601, -95.0708, 95.4137
1.47156, -1, -14.7795, 6.61852, 19.0687, -153.651, -95.0537, 95.1246
1.47981, -1, -14.9387, 6.57598, 19.0792, -153.701, -95.0365, 94.8354
1.48756, -1, -15.0981, 6.53335, 19.09, -153.75, -95.019, 94.5464
1.49557, -1, -15.2581, 6.49081, 19.1006, -153.8, -95.001, 94.2574
1.50434, -1, -15.4184, 6.44826, 19.1112, -153.85, -94.9831, 93.968
1.51161, -1, -15.579, 6.40558, 19.1218, -153.9, -94.9652, 93.6787
1.51956, -1, -15.7399, 6.36293, 19.1323, -153.949, -94.9478, 93.3896
1.52834, -1, -15.9005, 6.32019, 19.1429, -153.999, -94.9306, 93.1002
1.53557, -1, -16.0613, 6.27735, 19.1535, -154.049, -94.9134, 92.8107
1.54357, -1, -16.2221, 6.23453, 19.164, -154.098, -94.8963, 92.5211
1.55236, -1, -16.3828, 6.19162, 19.1745, -154.148, -94.8789, 92.2315
1.55956, -1, -16.5431, 6.14864, 19.185, -154.197, -94.8613, 91.9417
1.56762, -1, -16.7031, 6.10573, 19.1955, -154.247, -94.8433, 91.6517
1.57653, -1, -16.8628, 6.06279, 19.2061, -154.296, -94.8255, 91.3616
1.58363, -1, -17.0221, 6.01988, 19.2167, -154.347, -94.8079, 91.0716
1.59165, -1, -17.1813, 5.97697, 19.2273, -154.396, -94.7906, 90.7816
1.60069, -1, -17.3404, 5.93414, 19.2378, -154.445, -94.7732, 90.4912
1.60765, -1, -17.4996, 5.89137, 19.2484, -154.496, -94.7559, 90.2011
1.61573, -1, -17.6589, 5.84865, 19.2591, -154.545, -94.7384, 89.9109
1.62417, -1, -17.8184, 5.80591, 19.2697, -154.595, -94.7207, 89.6205
1.63157, -1, -17.9782, 5.7632, 19.2803, -154.646, -94.7026, 89.3299
1.63964, -1, -18.1385, 5.7205, 19.2909, -154.695, -94.6845, 89.0395
1.64912, -1, -18.2992, 5.67777, 19.3015, -154.745, -94.6667, 88.7491
1.6546, -1, -18.3797, 5.65641, 19.3068, -154.77, -94.658, 88.6036
1.66374, -1, -18.6218, 5.5921, 19.3229, -154.845, -94.632, 88.1672
1.6733, -1, -18.7834, 5.54919, 19.3335, -154.895, -94.6148, 87.8763
1.67988, -1, -18.945, 5.50627, 19.344, -154.945, -94.5974, 87.5855
1.68803, -1, -19.1066, 5.46323, 19.3545, -154.995, -94.5798, 87.2942
1.69455, -1, -19.1874, 5.44167, 19.3598, -155.02, -94.5708, 87.1485
1.70424, -1, -19.4295, 5.37701, 19.3757, -155.095, -94.5436, 86.7116
1.71213, -1, -19.5905, 5.33386, 19.3862, -155.144, -94.5258, 86.4202
1.72218, -1, -19.7512, 5.29072, 19.3968, -155.195, -94.5082, 86.1285
1.72817, -1, -19.9117, 5.24766, 19.4074, -155.245, -94.4907, 85.8371
1.73609, -1, -20.0719, 5.20457, 19.4181, -155.294, -94.4734, 85.5456
1.74413, -1, -20.1519, 5.18304, 19.4289, -155.345, -94.456, 85.254
1.75244, -1, -20.3917, 5.11872, 19.4396, -155.395, -94.4384, 84.9621
1.75954, -1, -20.4717, 5.09724, 19.445, -155.419, -94.4295, 84.8163
1.76754, -1, -20.6317, 5.05425, 19.4558, -155.47, -94.4114, 84.5246
1.77559, -1, -20.792, 5.01135, 19.4664, -155.52, -94.3934, 84.2328
1.78354, -1, -20.9527, 4.96852, 19.4771, -155.57, -94.3756, 83.9408
1.79156, -1, -21.1138, 4.92552, 19.4877, -155.62, -94.3582, 83.6487
1.79958, -1, -21.2753, 4.88251, 19.4983, -155.671, -94.3409, 83.3567
1.80754, -1, -21.4373, 4.83943, 19.5089, -155.721, -94.3238, 83.0646
1.81559, -1, -21.5994, 4.7962, 19.5195, -155.771, -94.3065, 82.7721
1.82354, -1, -21.7616, 4.75304, 19.5302, -155.822, -94.2889, 82.4796
1.83156, -1, -21.9241, 4.70973, 19.5409, -155.871, -94.2709, 82.1872
1.83958, -1, -22.0865, 4.66635, 19.5517, -155.922, -94.2529, 81.8947
1.84759, -1, -22.2491, 4.62298, 19.5624, -155.972, -94.2351, 81.602
1.85554, -1, -22.4114, 4.57959, 19.573, -156.022, -94.2176, 81.3094
1.86254, -1, -22.5733, 4.53623, 19.5837, -156.072, -94.2001, 81.0168
1.87156, -1, -22.7349, 4.4928, 19.5943, -156.122, -94.1827, 80.724
1.87955, -1, -22.8963, 4.44942, 19.6049, -156.172, -94.1652, 80.431
1.88763, -1, -23.0575, 4.40615, 19.6156, -156.223, -94.1473, 80.1381
1.8966, -1, -23.2184, 4.36289, 19.6262, -156.273, -94.1292, 79.8452
1.90354, -1, -23.3792, 4.31963, 19.637, -156.324, -94.1109, 79.5519
1.91162, -1, -23.5401, 4.27641, 19.6479, -156.375, -94.0928, 79.2584
1.91955, -1, -23.7011, 4.23319, 19.6586, -156.425, -94.0751, 78.9651
1.92754, -1, -23.8624, 4.19003, 19.6694, -156.475, -94.0575, 78.6716
1.9356, -1, -24.0239, 4.14673, 19.68, -156.526, -94.0401, 78.3778
1.94354, -1, -24.1859, 4.10337, 19.6907, -156.576, -94.0227, 78.0838
1.95161, -1, -24.3483, 4.06, 19.7014, -156.627, -94.005, 77.7902
1.95954, -1, -24.5111, 4.01658, 19.712, -156.677, -93.9871, 77.4963
1.96756, -1, -24.6741, 3.97302, 19.7226, -156.727, -93.9689, 77.202
1.9756, -1, -24.8375, 3.92945, 19.7332, -156.777, -93.9509, 76.9079
1.98356, -1, -25.0009, 3.88586, 19.7439, -156.828, -93.9332, 76.6138
1.99155, -1, -25.1643, 3.84225, 19.7548, -156.878, -93.9156, 76.3196
1.99961, -1, -25.3274, 3.79867, 19.7656, -156.929, -93.8981, 76.0251
2.00755, -1, -25.4902, 3.75508, 19.7764, -156.979, -93.8806, 75.7309
2.0156, -1, -25.6529, 3.71139, 19.7871, -157.029, -93.8628, 75.4367
2.02361, -1, -25.8154, 3.66785, 19.7978, -157.08, -93.8447, 75.1421
2.03154, -1, -25.9777, 3.62442, 19.8085, -157.13, -93.8263, 74.8473
2.03955, -1, -26.1397, 3.58088, 19.8193, -157.181, -93.808, 74.5528
2.04763, -1, -26.3012, 3.53749, 19.83, -157.232, -93.7901, 74.2583
2.05556, -1, -26.4628, 3.49413, 19.8407, -157.282, -93.7723, 73.9633
2.064, -1, -26.6246, 3.45066, 19.8514, -157.333, -93.7547, 73.6681
2.07155, -1, -26.7866, 3.40722, 19.8622, -157.384, -93.7372, 73.3732
2.07957, -1, -26.9491, 3.36374, 19.8731, -157.434, -93.7194, 73.0782
2.08785, -1, -27.1119, 3.32013, 19.8839, -157.485, -93.7013, 72.7829
2.09564, -1, -27.275, 3.27655, 19.8947, -157.536, -93.6831, 72.4877
2.10369, -1, -27.4385, 3.23286, 19.9053, -157.586, -93.6648, 72.1925
2.11202, -1, -27.6024, 3.18908, 19.916, -157.636, -93.6469, 71.8972
2.11965, -1, -27.7663, 3.1454, 19.9268, -157.687, -93.6291, 71.6015
2.1276, -1, -27.9304, 3.1017, 19.9375, -157.737, -93.6115, 71.3059
2.13623, -1, -28.0946, 3.05799, 19.9483, -157.789, -93.5938, 71.0104
2.14364, -1, -28.2587, 3.01428, 19.959, -157.839, -93.576, 70.7145
2.15159, -1, -28.4229, 2.97055, 19.9697, -157.89, -93.5579, 70.4185
2.16045, -1, -28.5866, 2.92688, 19.9806, -157.941, -93.5394, 70.1225
2.16765, -1, -28.7502, 2.88325, 19.9915, -157.992, -93.521, 69.8266
2.17572, -1, -28.9134, 2.83955, 20.0023, -158.042, -93.503, 69.5302
2.18475, -1, -29.0762, 2.79593, 20.013, -158.094, -93.4852, 69.2336
2.19184, -1, -29.2389, 2.75233, 20.0237, -158.144, -93.4675, 68.9374
2.20004, -1, -29.4016, 2.70867, 20.0345, -158.195, -93.4499, 68.6408
2.20652, -1, -29.483, 2.68688, 20.0399, -158.221, -93.441, 68.4924
2.21606, -1, -29.7273, 2.62133, 20.0561, -158.297, -93.414, 68.0473
2.22415, -1, -29.8904, 2.57757, 20.0669, -158.348, -93.3957, 67.7507
2.2329, -1, -30.0536, 2.53385, 20.0777, -158.399, -93.3774, 67.4539
2.24012, -1, -30.2171, 2.48996, 20.0886, -158.45, -93.3592, 67.1567
2.2482, -1, -30.3813, 2.446, 20.0996, -158.501, -93.3414, 66.8599
2.25706, -1, -30.4635, 2.42406, 20.105, -158.526, -93.3325, 66.563
2.26353, -1, -30.6283, 2.38011, 20.1159, -158.577, -93.3148, 66.4144
2.27158, -1, -30.7933, 2.33613, 20.1266, -158.628, -93.2972, 66.117
2.27954, -1, -30.9584, 2.29226, 20.1375, -158.679, -93.2791, 65.8198
2.28753, -1, -31.1233, 2.24829, 20.1483, -158.73, -93.2608, 65.5226
2.29558, -1, -31.2883, 2.20435, 20.1591, -158.781, -93.2423, 65.2252
2.30353, -1, -31.4531, 2.16058, 20.1699, -158.832, -93.224, 64.9276
2.31158, -1, -31.6177, 2.11665, 20.1806, -158.883, -93.2059, 64.6299
2.31955, -1, -31.7821, 2.07269, 20.1915, -158.935, -93.1881, 64.3322
2.32753, -1, -31.9462, 2.02882, 20.2025, -158.986, -93.1705, 64.0343
2.33559, -1, -32.11, 1.98489, 20.2134, -159.037, -93.1529, 63.7363
2.34353, -1, -32.2738, 1.94098, 20.2244, -159.088, -93.135, 63.4386
2.35153, -1, -32.4373, 1.89702, 20.2352, -159.139, -93.1168, 63.1406
2.3596, -1, -32.601, 1.85295, 20.246, -159.191, -93.0984, 62.8424
2.36753, -1, -32.7648, 1.80896, 20.257, -159.242, -93.0801, 62.5441
2.3756, -1, -32.9288, 1.76491, 20.2678, -159.293, -93.0621, 62.2459
2.38365, -1, -33.0931, 1.72072, 20.2787, -159.344, -93.0443, 61.9474
2.39155, -1, -33.2579, 1.67656, 20.2896, -159.395, -93.0265, 61.649
2.40053, -1, -33.4231, 1.63243, 20.3004, -159.446, -93.0087, 61.3503
2.40759, -1, -33.5886, 1.58825, 20.3114, -159.498, -92.9906, 61.0518
2.41559, -1, -33.7543, 1.54407, 20.3223, -159.549, -92.9723, 60.753
2.42353, -1, -33.92, 1.49992, 20.3333, -159.6, -92.9536, 60.454
2.4316, -1, -34.0859, 1.45576, 20.3441, -159.651, -92.935, 60.155
2.43952, -1, -34.2518, 1.41169, 20.355, -159.703, -92.9168, 59.856
2.44753, -1, -34.4178, 1.36755, 20.3659, -159.754, -92.8988, 59.5565
2.45561, -1, -34.5835, 1.3234, 20.3768, -159.806, -92.8809, 59.257
2.46352, -1, -34.7489, 1.27927, 20.3877, -159.857, -92.8632, 58.9579
2.47153, -1, -34.914, 1.23509, 20.3986, -159.908, -92.8452, 58.6584
2.4796, -1, -35.0788, 1.19095, 20.4095, -159.96, -92.827, 58.3587
2.48755, -1, -35.2434, 1.14672, 20.4205, -160.011, -92.8084, 58.0589
2.49554, -1, -35.4078, 1.1025, 20.4316, -160.063, -92.7899, 57.7594
2.50359, -1, -35.5713, 1.05852, 20.4428, -160.115, -92.7717, 57.4596
2.51152, -1, -35.7326, 1.01493, 20.4541, -160.165, -92.7537, 57.1602
2.51953, -1, -35.8908, 0.972118, 20.4657, -160.216, -92.736, 56.8628
2.5276, -1, -36.0446, 0.930653, 20.4776, -160.267, -92.7184, 56.5695
2.53554, -1, -36.1924, 0.891017, 20.4895, -160.315, -92.7011, 56.2838
2.54353, -1, -36.3317, 0.853885, 20.5013, -160.362, -92.6842, 56.0103
2.55161, -1, -36.4606, 0.819814, 20.5125, -160.405, -92.6682, 55.756
2.55956, -1, -36.5776, 0.788865, 20.5225, -160.444, -92.6537, 55.5267
2.56753, -1, -36.6812, 0.761558, 20.531, -160.477, -92.6413, 55.3278
2.57561, -1, -36.77, 0.738033, 20.5375, -160.505, -92.6312, 55.163
2.58362, -1, -36.8444, 0.718241, 20.5417, -160.528, -92.6234, 55.0333
2.59161, -1, -36.9055, 0.702103, 20.5438, -160.544, -92.6178, 54.938
2.59968, -1, -36.9537, 0.689439, 20.5447, -160.556, -92.6139, 54.8713
2.60762, -1, -36.9898, 0.679905, 20.5447, -160.563, -92.6115, 54.8282
2.61578, -1, -37.0156, 0.673073, 20.5443, -160.568, -92.6102, 54.8028
2.62371, -1, -37.0326, 0.668648, 20.5438, -160.57, -92.6095, 54.7889
2.63159, -1, -37.0427, 0.666155, 20.5435, -160.572, -92.6092, 54.7821
2.63964, 2, -37.0477, 0.66495, 20.5434, -160.572, -92.609, 54.7789
2.64763, 2, -37.0487, 0.664435, 20.5433, -160.573, -92.6089, 54.7775
2.65569, 2, -37.0484, 0.664216, 20.5433, -160.573, -92.6089, 54.7769
2.66358, 2, -37.048, 0.664133, 20.5433, -160.573, -92.6089, 54.7766
2.67201, 2, -37.048, 0.664096, 20.5433, -160.573, -92.6089, 54.7766
2.68004, 2, -37.0487, 0.66406, 20.5432, -160.573, -92.6089, 54.7768
2.68779, 2, -37.0497, 0.664013, 20.5432, -160.573, -92.609, 54.777
2.69595, 2, -37.0508, 0.663886, 20.543, -160.573, -92.609, 54.7771
2.70431, 2, -37.0523, 0.663667, 20.5428, -160.573, -92.609, 54.7774
2.71196, 2, -37.0535, 0.663453, 20.5427, -160.573, -92.6091, 54.7776
2.72049, 2, -37.0546, 0.663262, 20.5425, -160.573, -92.6091, 54.7779
2.72851, 2, -37.0554, 0.663126, 20.5424, -160.573, -92.6092, 54.7781
2.73607, 2, -37.0556, 0.663064, 20.5422, -160.573, -92.6092, 54.7784
2.74417, 2, -37.0554, 0.663043, 20.542, -160.573, -92.6092, 54.7787
2.75243, 2, -37.0545, 0.663069, 20.542, -160.573, -92.6092, 54.779
2.76004, 2, -37.0541, 0.663101, 20.5419, -160.573, -92.6093, 54.7792
2.76832, 2, -37.0531, 0.663168, 20.5419, -160.573, -92.6093, 54.7795
2.77648, 2, -37.0506, 0.663314, 20.5418, -160.573, -92.6094, 54.7797
2.78351, 2, -37.0499, 0.663392, 20.5417, -160.573, -92.6094, 54.7798
2.79156, 2, -37.0488, 0.663454, 20.5417, -160.573, -92.6095, 54.78
2.79952, 2, -37.048, 0.663467, 20.5416, -160.573, -92.6095, 54.7801
2.80751, 2, -37.0477, 0.663465, 20.5416, -160.573, -92.6094, 54.7802
2.81558, 2, -37.0477, 0.663454, 20.5416, -160.573, -92.6094, 54.7803
2.82353, 2, -37.0478, 0.663403, 20.5416, -160.573, -92.6095, 54.7803
2.83151, 2, -37.0481, 0.663345, 20.5416, -160.573, -92.6095, 54.7803
2.83956, 2, -37.0485, 0.663304, 20.5415, -160.573, -92.6095, 54.7804
2.84752, 2, -37.0492, 0.663276, 20.5415, -160.573, -92.6095, 54.7805
2.85553, 2, -37.0501, 0.66326, 20.5415, -160.573, -92.6095, 54.7805
2.86357, 2, -37.0509, 0.663278, 20.5415, -160.573, -92.6095, 54.7805
2.87151, 2, -37.0513, 0.663318, 20.5415, -160.573, -92.6095, 54.7805
2.87951, 2, -37.0516, 0.663336, 20.5415, -160.573, -92.6095, 54.7805
2.8885, 2, -37.0516, 0.663356, 20.5415, -160.573, -92.6095, 54.7805
2.89555, 2, -37.0516, 0.663373, 20.5415, -160.573, -92.6095, 54.7806
2.9045, 2, -37.0513, 0.663378, 20.5415, -160.573, -92.6095, 54.7806
2.91159, 2, -37.0509, 0.663363, 20.5415, -160.573, -92.6096, 54.7806
2.91956, 2, -37.0506, 0.663338, 20.5415, -160.573, -92.6095, 54.7806
2.92751, 2, -37.0504, 0.663316, 20.5415, -160.573, -92.6095, 54.7807
2.93558, 2, -37.0502, 0.663309, 20.5415, -160.573, -92.6095, 54.7808
2.94352, 2, -37.0502, 0.663302, 20.5415, -160.573, -92.6095, 54.7808
2.95151, 2, -37.0502, 0.66328, 20.5415, -160.573, -92.6095, 54.7809
2.95957, 2, -37.0502, 0.663281, 20.5415, -160.573, -92.6095, 54.7809
2.96752, 2, -37.0503, 0.663282, 20.5414, -160.573, -92.6096, 54.781
2.97554, 2, -37.0503, 0.663283, 20.5414, -160.573, -92.6096, 54.781
2.98358, 2, -37.0504, 0.663312, 20.5414, -160.573, -92.6096, 54.781
2.99156, 2, -37.0506, 0.663333, 20.5414, -160.573, -92.6096, 54.781
2.99951, 2, -37.0508, 0.663343, 20.5414, -160.573, -92.6096, 54.7811
3.00758, 2, -37.0508, 0.663347, 20.5414, -160.573, -92.6096, 54.7811
3.01553, 2, -37.0508, 0.663338, 20.5414, -160.573, -92.6096, 54.7812
3.02355, 2, -37.0508, 0.663345, 20.5414, -160.573, -92.6096, 54.7813
3.03158, 2, -37.0508, 0.663342, 20.5414, -160.573, -92.6096, 54.7813
3.03951, 2, -37.0508, 0.66331, 20.5414, -160.573, -92.6096, 54.7813
3.04751, 2, -37.0508, 0.663295, 20.5414, -160.573, -92.6096, 54.7814
3.05561, 2, -37.0507, 0.663289, 20.5414, -160.573, -92.6096, 54.7814
3.06353, 2, -37.0507, 0.663286, 20.5414, -160.573, -92.6096, 54.7815
3.07151, 2, -37.0507, 0.663284, 20.5414, -160.573, -92.6096, 54.7814
3.07958, 2, -37.0507, 0.663283, 20.5414, -160.573, -92.6096, 54.7815
3.08764, 2, -37.0507, 0.66332, 20.5413, -160.573, -92.6096, 54.7815
3.09561, 2, -37.0507, 0.663349, 20.5413, -160.572, -92.6097, 54.7816
3.10366, 2, -37.0507, 0.663355, 20.5413, -160.573, -92.6097, 54.7816
3.11161, 2, -37.0507, 0.663365, 20.5413, -160.572, -92.6097, 54.7816
3.11961, 2, -37.0507, 0.663377, 20.5413, -160.572, -92.6097, 54.7817
3.12768, 2, -37.0507, 0.663368, 20.5413, -160.572, -92.6097, 54.7817
3.13559, 2, -37.0506, 0.663359, 20.5413, -160.572, -92.6098, 54.7817
3.14351, 2, -37.0506, 0.663325, 20.5413, -160.572, -92.6097, 54.7817
3.15161, 2, -37.0506, 0.663332, 20.5413, -160.572, -92.6097, 54.7818
3.15957, 2, -37.0506, 0.663331, 20.5413, -160.572, -92.6097, 54.7818
3.16757, 2, -37.0506, 0.663316, 20.5413, -160.572, -92.6097, 54.7819
3.1757, 2, -37.0506, 0.663324, 20.5413, -160.572, -92.6097, 54.7819
3.1841, 2, -37.0506, 0.663302, 20.5412, -160.572, -92.6098, 54.782
3.19177, 2, -37.0506, 0.663302, 20.5412, -160.572, -92.6098, 54.782
3.1999, 2, -37.0506, 0.663336, 20.5412, -160.572, -92.6098, 54.7819
3.2083, 2, -37.0505, 0.663349, 20.5412, -160.572, -92.6098, 54.782
3.21597, 2, -37.0505, 0.663369, 20.5412, -160.572, -92.6099, 54.782
3.22413, 2, -37.0505, 0.663372, 20.5412, -160.572, -92.6099, 54.782
3.23249, 2, -37.0505, 0.663385, 20.5412, -160.572, -92.6099, 54.7821
3.24006, 2, -37.0504, 0.663371, 20.5412, -160.572, -92.6099, 54.7821
3.2481, 2, -37.0504, 0.66336, 20.5412, -160.572, -92.6098, 54.7821
3.2564, 2, -37.0504, 0.663355, 20.5412, -160.572, -92.6098, 54.7821
3.26349, 2, -37.0504, 0.663354, 20.5412, -160.572, -92.6098, 54.7822
3.27155, 2, -37.0504, 0.663352, 20.5412, -160.572, -92.6098, 54.7822
3.28041, 2, -37.0504, 0.663322, 20.5411, -160.572, -92.6098, 54.7822
3.2875, 2, -37.0504, 0.663312, 20.5411, -160.572, -92.6097, 54.7822
3.29556, 2, -37.0504, 0.663322, 20.5411, -160.572, -92.6098, 54.7822
3.30349, 2, -37.0503, 0.66333, 20.5411, -160.572, -92.6099, 54.7822
3.3115, 2, -37.0503, 0.663341, 20.5411, -160.572, -92.6099, 54.7823
3.31954, 2, -37.0503, 0.663354, 20.5411, -160.572, -92.6099, 54.7823
3.32752, 2, -37.0503, 0.663369, 20.5411, -160.572, -92.6099, 54.7824
3.33551, 2, -37.0503, 0.663367, 20.5411, -160.572, -92.6099, 54.7824
3.34354, 2, -37.0503, 0.663375, 20.5411, -160.572, -92.6099, 54.7824
3.35149, 2, -37.0503, 0.663362, 20.5411, -160.572, -92.6099, 54.7824
3.35949, 2, -37.0502, 0.663375, 20.5411, -160.572, -92.6099, 54.7824
3.36756, 2, -37.0502, 0.663367, 20.541, -160.572, -92.61, 54.7824
3.37551, 2, -37.0502, 0.663371, 20.541, -160.572, -92.6099, 54.7824
3.38349, 2, -37.0502, 0.663367, 20.541, -160.572, -92.6099, 54.7824
3.39157, 2, -37.0502, 0.663371, 20.541, -160.572, -92.6099, 54.7824
3.40137, 2, -37.0502, 0.66336, 20.541, -160.572, -92.61, 54.7824
3.4075, 2, -37.0502, 0.663375, 20.541, -160.572, -92.61, 54.7825
3.41557, 2, -37.0502, 0.663387, 20.541, -160.572, -92.61, 54.7824
3.42354, 2, -37.0502, 0.66338, 20.541, -160.572, -92.61, 54.7825
3.4325, 2, -37.0502, 0.663364, 20.541, -160.572, -92.61, 54.7825
3.43956, 2, -37.0501, 0.663376, 20.541, -160.572, -92.6099, 54.7825
3.44749, 2, -37.0501, 0.663398, 20.541, -160.572, -92.61, 54.7825
3.45551, 2, -37.0501, 0.663404, 20.541, -160.572, -92.61, 54.7825
3.46355, 2, -37.0501, 0.663393, 20.541, -160.572, -92.6099, 54.7825
3.47153, 2, -37.0501, 0.66337, 20.541, -160.572, -92.61, 54.7825
3.47949, 2, -37.0501, 0.663372, 20.541, -160.572, -92.61, 54.7826
3.48756, 2, -37.0501, 0.663373, 20.541, -160.572, -92.61, 54.7826
3.49553, 2, -37.0501, 0.663361, 20.541, -160.572, -92.61, 54.7826
3.50349, 2, -37.0501, 0.663368, 20.5409, -160.572, -92.61, 54.7826
3.51155, 2, -37.0501, 0.663378, 20.5409, -160.572, -92.61, 54.7826
3.51948, 2, -37.0501, 0.663381, 20.5409, -160.572, -92.61, 54.7827
3.52749, 2, -37.05, 0.663384, 20.5409, -160.572, -92.61, 54.7827
3.53558, 2, -37.05, 0.663378, 20.5409, -160.572, -92.61, 54.7826
3.54349, 2, -37.05, 0.663388, 20.5409, -160.572, -92.61, 54.7826
3.55149, 2, -37.05, 0.663392, 20.5409, -160.572, -92.61, 54.7826
3.55957, 2, -37.05, 0.663394, 20.5409, -160.572, -92.61, 54.7826
3.56751, 2, -37.05, 0.663395, 20.5409, -160.572, -92.61, 54.7826
3.57551, 2, -37.05, 0.663396, 20.5409, -160.572, -92.61, 54.7826
3.58357, 2, -37.0499, 0.663376, 20.5409, -160.572, -92.61, 54.7826
3.59158, 2, -37.0499, 0.663382, 20.5409, -160.572, -92.6101, 54.7826
3.59958, 2, -37.0499, 0.66339, 20.5409, -160.572, -92.61, 54.7826
3.60765, 2, -37.0499, 0.663393, 20.5408, -160.572, -92.61, 54.7827
3.61561, 2, -37.0499, 0.663387, 20.5408, -160.572, -92.6101, 54.7827
3.6236, 2, -37.0499, 0.663375, 20.5408, -160.572, -92.6101, 54.7827
3.63166, 2, -37.0499, 0.663386, 20.5408, -160.572, -92.6101, 54.7827
3.6398, 2, -37.0498, 0.663392, 20.5408, -160.572, -92.6101, 54.7828
3.64856, 2, -37.0498, 0.663394, 20.5408, -160.572, -92.6101, 54.7828
3.65556, 2, -37.0497, 0.663413, 20.5408, -160.572, -92.6101, 54.7828
3.66368, 2, -37.0498, 0.663397, 20.5408, -160.572, -92.6101, 54.7828
3.67201, 2, -37.0498, 0.663421, 20.5408, -160.572, -92.6101, 54.7828
3.68049, 2, -37.0498, 0.663415, 20.5408, -160.572, -92.6101, 54.7828
3.68808, 2, -37.0497, 0.663405, 20.5408, -160.572, -92.61, 54.7829
3.69613, 2, -37.0497, 0.6634, 20.5408, -160.572, -92.6101, 54.7829
3.70384, 2, -37.0496, 0.663398, 20.5408, -160.572, -92.6101, 54.7829
3.71198, 2, -37.0496, 0.663397, 20.5408, -160.572, -92.6101, 54.7829
3.71993, 2, -37.0496, 0.663384, 20.5408, -160.572, -92.6101, 54.7829
3.72803, 4, -37.0496, 0.663391, 20.5408, -160.571, -92.61, 54.7829
3.73641, 4, -37.0496, 0.663404, 20.5407, -160.571, -92.6101, 54.7829
3.74439, 4, -37.0496, 0.663407, 20.5407, -160.572, -92.6101, 54.7829
3.75205, 4, -37.0496, 0.663401, 20.5407, -160.572, -92.6101, 54.7828
3.76021, 4, -37.0495, 0.663428, 20.5407, -160.572, -92.6101, 54.7828
3.76844, 4, -37.0495, 0.663418, 20.5407, -160.572, -92.6102, 54.7828
3.7755, 4, -37.0495, 0.663422, 20.5407, -160.571, -92.6101, 54.7828
3.78353, 4, -37.0495, 0.663434, 20.5407, -160.571, -92.6101, 54.7828
3.79151, 4, -37.0495, 0.663432, 20.5407, -160.571, -92.6101, 54.7828
3.79948, 4, -37.0495, 0.663412, 20.5407, -160.572, -92.6101, 54.7828
3.80753, 4, -37.0494, 0.663404, 20.5407, -160.572, -92.6101, 54.7828
3.8155, 4, -37.0494, 0.66341, 20.5407, -160.571, -92.6101, 54.7828
3.82367, 4, -37.0494, 0.663403, 20.5406, -160.571, -92.6101, 54.7829
3.85149, 4, -37.0494, 0.663392, 20.5406, -160.571, -92.6101, 54.7829
3.85412, 4, -37.0493, 0.663393, 20.5406, -160.571, -92.6101, 54.7829
3.85592, 4, -37.0493, 0.663393, 20.5406, -160.571, -92.6101, 54.7829
3.85858, 4, -37.0493, 0.663405, 20.5406, -160.571, -92.6101, 54.7829
3.86643, 4, -37.0492, 0.663419, 20.5406, -160.571, -92.6102, 54.7829
3.87149, 4, -37.0492, 0.663415, 20.5406, -160.571, -92.6101, 54.7829
3.87948, 4, -37.0485, 0.663277, 20.5406, -160.571, -92.6101, 54.7829
3.88751, 4, -37.0459, 0.662374, 20.5408, -160.571, -92.6101, 54.7829
3.8965, 4, -37.0399, 0.659473, 20.5415, -160.571, -92.6102, 54.7829
3.9035, 4, -37.0302, 0.653726, 20.544, -160.571, -92.6102, 54.7829
3.91247, 4, -37.0171, 0.644925, 20.5491, -160.57, -92.6102, 54.7829
3.91951, 4, -37.0004, 0.632675, 20.5582, -160.569, -92.6102, 54.7828
3.92847, 5, -36.9791, 0.61654, 20.5723, -160.566, -92.6102, 54.7828
3.93556, 5, -36.9535, 0.596792, 20.5921, -160.562, -92.6101, 54.7827
3.94348, 5, -36.9244, 0.573664, 20.6177, -160.557, -92.6099, 54.7826
3.95148, 5, -36.8918, 0.546895, 20.6485, -160.55, -92.6096, 54.7825
3.95955, 5, -36.8552, 0.516484, 20.6836, -160.543, -92.609, 54.7823
3.96748, 5, -36.8142, 0.482281, 20.7222, -160.534, -92.6084, 54.782
3.97555, 5, -36.7689, 0.445024, 20.7635, -160.525, -92.6075, 54.7818
3.98348, 5, -36.7202, 0.405426, 20.8063, -160.516, -92.6066, 54.7815
3.99154, 5, -36.6688, 0.364239, 20.8499, -160.506, -92.6056, 54.7813
3.99971, 5, -36.6154, 0.322096, 20.8941, -160.496, -92.6047, 54.7812
4.00853, 5, -36.561, 0.279462, 20.9384, -160.486, -92.6036, 54.7809
4.01547, 5, -36.5061, 0.236468, 20.9827, -160.476, -92.6025, 54.7808
4.02364, 5, -36.4512, 0.193393, 21.027, -160.467, -92.6013, 54.7807
4.03241, 5, -36.3961, 0.150485, 21.0713, -160.457, -92.6002, 54.7806
4.03949, 5, -36.3413, 0.107659, 21.1157, -160.448, -92.5989, 54.7805
4.04747, 5, -36.2865, 0.0649278, 21.1599, -160.439, -92.5977, 54.7803
4.05555, 5, -36.2317, 0.0224124, 21.2041, -160.429, -92.5965, 54.7801
4.06348, 5, -36.1769, -0.0199436, 21.2483, -160.42, -92.5952, 54.7798
4.07185, 5, -36.1223, -0.0621713, 21.2924, -160.41, -92.5939, 54.7794
4.08354, 5, -36.0675, -0.104303, 21.3585, -160.396, -92.592, 54.7789
4.08757, 5, -36.0126, -0.146446, 21.3805, -160.391, -92.5914, 54.7787
4.09751, 5, -35.9576, -0.188589, 21.4245, -160.381, -92.5901, 54.7783
4.1036, 5, -35.9023, -0.230726, 21.4684, -160.371, -92.5888, 54.7779
4.1116, 5, -35.8467, -0.272875, 21.5121, -160.36, -92.5875, 54.7775
4.11957, 5, -35.7908, -0.315097, 21.5558, -160.35, -92.5862, 54.777
4.12804, 5, -35.7346, -0.357389, 21.5994, -160.34, -92.5849, 54.7767
4.13709, 5, -35.6785, -0.399617, 21.643, -160.33, -92.5836, 54.7764
4.14348, 5, -35.6223, -0.441794, 21.6864, -160.321, -92.5823, 54.7761
4.15163, 5, -35.5661, -0.483982, 21.7296, -160.311, -92.5811, 54.7759
4.15951, 5, -35.5099, -0.526017, 21.7728, -160.301, -92.5797, 54.7757
4.16752, 5, -35.4537, -0.567925, 21.8159, -160.291, -92.5785, 54.7756
4.17596, 5, -35.3976, -0.609734, 21.8589, -160.281, -92.5772, 54.7754
4.18365, 5, -35.3417, -0.651414, 21.9019, -160.272, -92.5759, 54.7754
4.19168, 5, -35.2856, -0.693062, 21.9449, -160.262, -92.5746, 54.7753
4.19991, 5, -35.2297, -0.73463, 21.9877, -160.251, -92.5733, 54.7753
4.20783, 5, -35.1737, -0.776042, 22.0304, -160.241, -92.5721, 54.7753
4.2165, 5, -35.1173, -0.817315, 22.0731, -160.23, -92.5708, 54.7753
4.22398, 5, -35.0611, -0.858735, 22.1158, -160.22, -92.5695, 54.7753
4.23198, 5, -35.0047, -0.900077, 22.1582, -160.209, -92.5681, 54.7753
4.24006, 5, -34.948, -0.941292, 22.2006, -160.199, -92.5668, 54.7754
4.24831, 5, -34.8913, -0.982505, 22.2429, -160.188, -92.5655, 54.7754
4.25603, 5, -34.8628, -1.0031, 22.2852, -160.178, -92.5642, 54.7754
4.26424, 5, -34.7773, -1.06473, 22.3274, -160.168, -92.5629, 54.7755
4.27237, 5, -34.7487, -1.08527, 22.3484, -160.158, -92.5616, 54.7756
4.2803, 5, -34.6916, -1.12638, 22.3903, -160.148, -92.5602, 54.7757
4.28752, 5, -34.6343, -1.16734, 22.4322, -160.143, -92.5595, 54.7757
4.2955, 5, -34.5772, -1.20822, 22.474, -160.133, -92.5582, 54.7758
4.3035, 5, -34.5201, -1.2491, 22.5156, -160.123, -92.5568, 54.7759
4.31146, 5, -34.463, -1.28989, 22.5573, -160.113, -92.5555, 54.7761
4.31963, 5, -34.406, -1.33057, 22.5988, -160.102, -92.5542, 54.7765
4.32888, 5, -34.3488, -1.39148, 22.661, -160.086, -92.5521, 54.7772
4.33548, 5, -34.2917, -1.41181, 22.6817, -160.081, -92.5514, 54.7775
4.34491, 5, -34.2058, -1.47249, 22.7435, -160.064, -92.5493, 54.7789
4.35146, 5, -34.177, -1.49266, 22.7642, -160.059, -92.5486, 54.7794
4.35946, 5, -34.1196, -1.53301, 22.8054, -160.048, -92.5472, 54.7807
4.36911, 5, -34.0331, -1.59332, 22.8668, -160.032, -92.5451, 54.7832
4.37625, 5, -34.0043, -1.61339, 22.8873, -160.027, -92.5444, 54.7841
4.38346, 5, -33.9464, -1.65355, 22.9282, -160.016, -92.543, 54.7862
4.39404, 5, -33.8593, -1.71339, 22.9892, -160, -92.5408, 54.7895
4.39952, 5, -33.8302, -1.73333, 23.0095, -159.995, -92.5401, 54.7908
4.40851, 5, -33.7721, -1.77321, 23.05, -159.984, -92.5386, 54.7933
4.41547, 5, -33.7138, -1.81303, 23.0905, -159.973, -92.5372, 54.7959
4.42418, 5, -33.6557, -1.85288, 23.1309, -159.963, -92.5357, 54.7987
4.4315, 5, -33.5976, -1.89279, 23.171, -159.951, -92.5343, 54.8015
4.43946, 5, -33.5396, -1.93278, 23.2112, -159.94, -92.5327, 54.8043
4.44745, 5, -33.4817, -1.97312, 23.2515, -159.928, -92.5311, 54.8071
4.45552, 5, -33.4238, -2.01364, 23.2918, -159.917, -92.5292, 54.8096
4.46372, 6, -33.3662, -2.0545, 23.3323, -159.905, -92.5268, 54.8117
4.47178, 6, -33.3088, -2.09586, 23.3731, -159.893, -92.524, 54.8134
4.48049, 6, -33.2515, -2.13761, 23.4144, -159.881, -92.5206, 54.8144
4.48746, 6, -33.1945, -2.17991, 23.4563, -159.868, -92.5164, 54.8149
4.49552, 6, -33.1376, -2.22293, 23.4985, -159.855, -92.5114, 54.815
4.50349, 6, -33.0809, -2.26658, 23.5416, -159.841, -92.5056, 54.8146
4.51146, 6, -33.0246, -2.31096, 23.5852, -159.826, -92.499, 54.8137
4.51967, 7, -32.9686, -2.35628, 23.6294, -159.81, -92.4915, 54.8123
4.52744, 7, -32.9128, -2.40237, 23.6743, -159.793, -92.4833, 54.8103
4.53556, 7, -32.8575, -2.44926, 23.7198, -159.776, -92.4744, 54.8065
4.54347, 7, -32.8026, -2.49706, 23.766, -159.758, -92.4647, 54.8008
4.55152, 7, -32.748, -2.5458, 23.8127, -159.74, -92.454, 54.7937
4.55953, 7, -32.6938, -2.59547, 23.86, -159.722, -92.4426, 54.7853
4.56867, 8, -32.6401, -2.64597, 23.9081, -159.703, -92.4304, 54.7757
4.57667, 8, -32.5866, -2.69745, 23.9567, -159.683, -92.417, 54.7647
4.58555, 8, -32.5337, -2.74989, 24.006, -159.662, -92.4027, 54.7525
4.5936, 8, -32.4811, -2.80311, 24.056, -159.64, -92.3871, 54.7391
4.59965, 8, -32.4289, -2.85724, 24.1066, -159.618, -92.3704, 54.7243
4.60757, 8, -32.377, -2.91219, 24.1578, -159.595, -92.3529, 54.7084
4.61556, 8, -32.3255, -2.96801, 24.2096, -159.573, -92.3348, 54.6911
4.62363, 9, -32.2742, -3.02458, 24.2622, -159.549, -92.3161, 54.6725
4.63159, 9, -32.2234, -3.08198, 24.3154, -159.525, -92.2967, 54.6527
4.63956, 9, -32.1728, -3.14028, 24.3692, -159.499, -92.2764, 54.6319
4.64782, 9, -32.1225, -3.19936, 24.4236, -159.473, -92.2549, 54.6104
4.65651, 9, -32.0725, -3.25935, 24.4786, -159.447, -92.2322, 54.5882
4.66354, 9, -32.0229, -3.32027, 24.5342, -159.421, -92.2085, 54.565
4.67184, 10, -31.9736, -3.38213, 24.5905, -159.394, -92.1843, 54.5408
4.67989, 10, -31.9247, -3.44499, 24.6476, -159.365, -92.1594, 54.5153
4.68771, 10, -31.8763, -3.50879, 24.7051, -159.336, -92.1337, 54.4884
4.69574, 10, -31.828, -3.57358, 24.7635, -159.307, -92.1066, 54.4602
4.70409, 10, -31.7803, -3.63925, 24.8224, -159.278, -92.0783, 54.4315
4.71185, 10, -31.733, -3.70585, 24.8819, -159.247, -92.0494, 54.4021
4.72167, 11, -31.686, -3.77326, 24.9421, -159.216, -92.0201, 54.3718
4.72809, 11, -31.6394, -3.84162, 25.003, -159.184, -91.9901, 54.3403
4.73602, 11, -31.5933, -3.91073, 25.0644, -159.152, -91.9587, 54.3076
4.74527, 11, -31.5474, -3.9807, 25.1265, -159.12, -91.926, 54.2735
4.75308, 11, -31.5018, -4.05155, 25.1892, -159.086, -91.893, 54.239
4.76006, 11, -31.4565, -4.12328, 25.2526, -159.052, -91.8593, 54.2038
4.76814, 11, -31.434, -4.19608, 25.3167, -159.017, -91.8245, 54.1677
4.77546, 12, -31.3891, -4.23282, 25.349, -159, -91.8065, 54.1491
4.78345, 12, -31.3445, -4.30696, 25.4141, -158.965, -91.7698, 54.1109
4.79158, 12, -31.3003, -4.38216, 25.4799, -158.928, -91.733, 54.0717
4.80122, 12, -31.2565, -4.4583, 25.5798, -158.872, -91.6763, 54.0119
4.80747, 12, -31.2128, -4.5353, 25.6134, -158.854, -91.6565, 53.9915
4.81692, 12, -31.1482, -4.65262, 25.715, -158.796, -91.5966, 53.9281
4.82365, 13, -31.1268, -4.69214, 25.7492, -158.776, -91.5765, 53.9064
4.83151, 13, -31.0842, -4.77189, 25.8181, -158.737, -91.5352, 53.8628
4.83944, 13, -31.042, -4.85252, 25.8876, -158.698, -91.4923, 53.8184
4.8499, 13, -31.0002, -4.93415, 25.9933, -158.637, -91.4275, 53.7493
4.85545, 13, -30.9589, -5.01669, 26.0288, -158.616, -91.4055, 53.7257
4.86345, 13, -30.9179, -5.10009, 26.1005, -158.575, -91.3602, 53.6782
4.87464, 14, -30.857, -5.22695, 26.2092, -158.512, -91.2915, 53.6054
4.87944, 14, -30.8368, -5.26972, 26.2458, -158.49, -91.2684, 53.5804
4.88753, 14, -30.7968, -5.35593, 26.3193, -158.447, -91.2206, 53.5296
4.89863, 14, -30.7371, -5.48697, 26.4308, -158.382, -91.148, 53.4532
4.90343, 14, -30.7173, -5.53119, 26.4683, -158.359, -91.1236, 53.4271
4.91153, 14, -30.6781, -5.62025, 26.5438, -158.314, -91.0731, 53.3736
4.92043, 14, -30.6392, -5.71025, 26.6199, -158.269, -91.022, 53.3196
4.9284, 15, -30.6006, -5.80124, 26.6968, -158.223, -90.9707, 53.2651
4.93648, 15, -30.5624, -5.89307, 26.7743, -158.176, -90.9173, 53.2093
4.94361, 15, -30.5246, -5.9857, 26.8526, -158.13, -90.8639, 53.1522
4.95242, 15, -30.4871, -6.07929, 26.9315, -158.081, -90.81, 53.0949
4.95944, 15, -30.4498, -6.17375, 27.011, -158.032, -90.7542, 53.0363
4.96755, 15, -30.4129, -6.26906, 27.0911, -157.984, -90.6986, 52.9761
4.97543, 15, -30.3764, -6.36537, 27.1717, -157.934, -90.6413, 52.9158
4.98444, 16, -30.3403, -6.46271, 27.2531, -157.883, -90.5832, 52.8544
4.99166, 16, -30.3045, -6.56096, 27.3352, -157.833, -90.5252, 52.7913
4.99968, 16, -30.2689, -6.66014, 27.4181, -157.781, -90.465, 52.7282
5.00745, 16, -30.2336, -6.76029, 27.5016, -157.729, -90.4052, 52.664
5.01545, 16, -30.1987, -6.86136, 27.5858, -157.677, -90.3436, 52.5983
5.02351, 16, -30.1641, -6.96343, 27.6705, -157.623, -90.2814, 52.5326
5.03141, 17, -30.1298, -7.06647, 27.7558, -157.57, -90.2188, 52.4654
5.03969, 17, -30.0957, -7.17053, 27.8417, -157.516, -90.1546, 52.3974
5.05145, 17, -30.0454, -7.3283, 27.9718, -157.434, -90.0573, 52.2945
5.05548, 17, -30.0288, -7.38128, 28.0156, -157.406, -90.0242, 52.2593
5.06463, 17, -29.9958, -7.48787, 28.1038, -157.35, -89.9585, 52.1889
5.07146, 17, -29.963, -7.59537, 28.1925, -157.294, -89.8909, 52.1179
5.07965, 17, -29.9305, -7.7038, 28.2819, -157.237, -89.8233, 52.0455
5.08746, 18, -29.8985, -7.81312, 28.3719, -157.178, -89.7541, 51.9729
5.09877, 18, -29.8669, -7.92344, 28.4624, -157.091, -89.6501, 51.8615
5.10394, 18, -29.8354, -8.03463, 28.5535, -157.061, -89.6145, 51.8242
5.11153, 18, -29.8042, -8.14665, 28.6454, -157.002, -89.5435, 51.749
5.11961, 18, -29.7734, -8.25952, 28.7381, -156.942, -89.4713, 51.6721
5.12756, 18, -29.7429, -8.37332, 28.8314, -156.881, -89.3987, 51.5955
5.13557, 19, -29.7127, -8.48808, 28.9254, -156.82, -89.325, 51.5174
5.14377, 19, -29.6828, -8.60388, 29.02, -156.758, -89.2507, 51.4389
5.15444, 19, -29.653, -8.72068, 29.115, -156.696, -89.1752, 51.3598
5.15948, 19, -29.6236, -8.83819, 29.2106, -156.633, -89.0996, 51.2795
5.16749, 19, -29.5946, -8.95647, 29.3069, -156.57, -89.0229, 51.1996
5.17553, 19, -29.5659, -9.07558, 29.404, -156.506, -88.9457, 51.1174
5.18474, 20, -29.5375, -9.19568, 29.5019, -156.442, -88.8675, 51.0357
5.19203, 20, -29.5092, -9.31672, 29.6004, -156.377, -88.7892, 50.9523
5.19973, 20, -29.4813, -9.43868, 29.6994, -156.311, -88.7098, 50.8687
5.20868, 20, -29.4537, -9.56137, 29.7988, -156.245, -88.6298, 50.7838
5.21584, 20, -29.4265, -9.68477, 29.8988, -156.178, -88.5491, 50.6984
5.22386, 20, -29.3995, -9.80912, 29.9996, -156.111, -88.4678, 50.6123
5.23198, 20, -29.3729, -9.93434, 30.1011, -156.042, -88.3856, 50.5253
5.24078, 21, -29.3463, -10.0606, 30.2033, -155.974, -88.3026, 50.438
5.24898, 21, -29.32, -10.1878, 30.3063, -155.905, -88.2193, 50.3496
5.25653, 21, -29.2942, -10.3158, 30.4095, -155.836, -88.1352, 50.2612
5.26406, 21, -29.2814, -10.3799, 30.5131, -155.765, -88.0504, 50.1718
5.27212, 21, -29.2559, -10.5735, 30.6173, -155.695, -87.9647, 50.0825
5.27944, 21, -29.2307, -10.6385, 30.6697, -155.659, -87.922, 50.0372
5.28824, 22, -29.2058, -10.7691, 30.7752, -155.588, -87.8354, 49.9013
5.29756, 22, -29.1686, -10.9666, 30.9348, -155.48, -87.7047, 49.8096
5.30344, 22, -29.1564, -11.0327, 30.9882, -155.443, -87.6608, 49.7639
5.31305, 22, -29.1202, -11.2322, 31.1489, -155.333, -87.5279, 49.625
5.32064, 22, -29.0963, -11.3661, 31.2566, -155.259, -87.4385, 49.5324
5.32747, 22, -29.0844, -11.4335, 31.3108, -155.221, -87.3936, 49.4853
5.33543, 22, -29.061, -11.5689, 31.4195, -155.146, -87.3038, 49.3915
5.34361, 23, -29.0377, -11.7052, 31.5291, -155.071, -87.213, 49.297
5.35143, 23, -29.0146, -11.8422, 31.6394, -154.995, -87.1215, 49.2022
5.36363, 23, -28.9807, -12.0488, 31.8052, -154.88, -86.9836, 49.0592
5.36739, 23, -28.9695, -12.1181, 31.8606, -154.842, -86.9373, 49.0116
5.37548, 23, -28.9471, -12.2571, 31.9718, -154.764, -86.844, 48.9154
5.38342, 23, -28.9251, -12.397, 32.0838, -154.686, -86.7503, 48.8192
5.39139, 24, -28.9033, -12.5375, 32.1967, -154.607, -86.656, 48.7224
5.3995, 24, -28.8817, -12.6784, 32.3102, -154.528, -86.561, 48.6258
5.40849, 24, -28.8603, -12.82, 32.4239, -154.448, -86.4659, 48.5282
5.41563, 24, -28.839, -12.9624, 32.5379, -154.368, -86.3698, 48.4309
5.42428, 24, -28.8181, -13.1057, 32.6523, -154.287, -86.2731, 48.3324
5.43142, 24, -28.7972, -13.2496, 32.7674, -154.205, -86.1765, 48.2344
5.4395, 24, -28.7765, -13.3939, 32.8833, -154.124, -86.0791, 48.1353
5.44978, 25, -28.746, -13.612, 33.058, -154, -85.9321, 47.987
5.45549, 25, -28.7358, -13.685, 33.1163, -153.959, -85.8831, 47.9375
5.46356, 25, -28.7156, -13.8316, 33.2331, -153.875, -85.7843, 47.8385
5.47423, 25, -28.6858, -14.0525, 33.4091, -153.749, -85.6351, 47.6894
5.47943, 25, -28.676, -14.1263, 33.4681, -153.707, -85.5855, 47.6397
5.48845, 25, -28.6566, -14.2743, 33.5867, -153.622, -85.4855, 47.5407
5.49643, 26, -28.6373, -14.4231, 33.7058, -153.536, -85.385, 47.441
5.50443, 26, -28.6182, -14.5725, 33.825, -153.45, -85.2846, 47.3417
5.51245, 26, -28.5992, -14.7225, 33.9445, -153.364, -85.1834, 47.2419
5.51959, 26, -28.5802, -14.8726, 34.0644, -153.277, -85.0817, 47.1427
5.52842, 26, -28.5613, -15.0231, 34.1848, -153.19, -84.98, 47.043
5.53736, 26, -28.5426, -15.1744, 34.3059, -153.102, -84.8778, 46.9441
5.54444, 27, -28.5242, -15.3264, 34.4273, -153.014, -84.7753, 46.8449
5.55149, 27, -28.5059, -15.4787, 34.5489, -152.926, -84.6727, 46.7468
5.55943, 27, -28.4876, -15.6312, 34.6707, -152.836, -84.5695, 46.6475
5.56779, 27, -28.4694, -15.7842, 34.7928, -152.747, -84.466, 46.5492
5.57649, 27, -28.4514, -15.9379, 34.9155, -152.657, -84.3623, 46.4504
5.58345, 27, -28.4335, -16.0925, 35.0385, -152.566, -84.2583, 46.3523
5.59144, 27, -28.4155, -16.2473, 35.1617, -152.475, -84.1544, 46.2543
5.60042, 28, -28.3975, -16.4023, 35.2852, -152.384, -84.0499, 46.1567
5.60766, 28, -28.3797, -16.5578, 35.409, -152.292, -83.9452, 46.0592
5.61568, 28, -28.3621, -16.7138, 35.5329, -152.2, -83.8406, 45.9622
5.62441, 28, -28.3445, -16.8702, 35.6573, -152.108, -83.7356, 45.8658
5.63152, 28, -28.327, -17.0267, 35.7821, -152.015, -83.6303, 45.7698
5.63962, 28, -28.3095, -17.1831, 35.907, -151.921, -83.525, 45.6747
5.64853, 29, -28.2921, -17.3399, 36.0322, -151.827, -83.4194, 45.5798
5.65544, 29, -28.2748, -17.4973, 36.1575, -151.733, -83.3135, 45.4858
5.66378, 29, -28.2573, -17.655, 36.2831, -151.638, -83.2076, 45.392
5.67257, 29, -28.2398, -17.8127, 36.4089, -151.543, -83.1012, 45.2994
5.67948, 29, -28.2225, -17.9706, 36.5348, -151.448, -82.9951, 45.2068
5.68763, 29, -28.2053, -18.129, 36.661, -151.353, -82.8887, 45.1156
5.69649, 29, -28.188, -18.288, 36.7873, -151.257, -82.782, 45.0244
5.70375, 30, -28.1707, -18.4471, 36.9137, -151.16, -82.6757, 44.9348
5.71226, 30, -28.1535, -18.6061, 37.0403, -151.063, -82.5691, 44.8454
5.72182, 30, -28.1363, -18.7653, 37.167, -150.966, -82.4622, 44.7574
5.72798, 30, -28.1191, -18.9249, 37.2938, -150.868, -82.3555, 44.67
5.73651, 30, -28.1017, -19.085, 37.4207, -150.77, -82.2484, 44.5839
5.74406, 30, -28.0842, -19.2448, 37.5478, -150.672, -82.1413, 44.499
5.75242, 31, -28.0668, -19.4043, 37.6749, -150.574, -82.0345, 44.4146
5.76016, 31, -28.0494, -19.564, 37.802, -150.475, -81.9273, 44.3321
5.76916, 31, -28.0319, -19.7241, 37.9293, -150.376, -81.8204, 44.25
5.77606, 31, -28.0231, -19.8042, 37.9929, -150.327, -81.7135, 44.1699
5.78498, 31, -27.9965, -20.0439, 38.184, -150.177, -81.6063, 44.0899
5.79248, 31, -27.9788, -20.2036, 38.3114, -150.077, -81.4994, 44.0121
5.79948, 31, -27.9699, -20.2836, 38.3751, -150.027, -81.4459, 43.9734
5.80747, 32, -27.9519, -20.4439, 38.5023, -149.926, -81.3388, 43.8965
5.81701, 32, -27.9336, -20.6046, 38.6931, -149.775, -81.1787, 43.7851
5.82351, 32, -27.9153, -20.7649, 38.7567, -149.725, -81.1254, 43.7481
5.83469, 32, -27.8877, -21.0051, 38.9474, -149.573, -80.9652, 43.6408
5.8394, 32, -27.8785, -21.0853, 39.011, -149.523, -80.912, 43.6058
5.84746, 32, -27.8597, -21.2458, 39.1379, -149.421, -80.8055, 43.5364
5.8575, 33, -27.8315, -21.486, 39.3284, -149.268, -80.646, 43.4367
5.86355, 33, -27.8221, -21.5658, 39.3918, -149.217, -80.5929, 43.404
5.87193, 33, -27.8031, -21.7252, 39.5186, -149.115, -80.4867, 43.34
5.8794, 33, -27.7837, -21.8848, 39.6453, -149.013, -80.3807, 43.2784
5.88747, 33, -27.764, -22.0446, 39.7718, -148.91, -80.275, 43.2182
5.89695, 33, -27.7444, -22.2039, 39.8981, -148.808, -80.1692, 43.1314
5.90503, 33, -27.7246, -22.3628, 40.0242, -148.705, -80.0638, 43.0766
5.91164, 34, -27.7044, -22.5217, 40.1502, -148.602, -79.9585, 43.0496
5.92037, 34, -27.684, -22.6808, 40.276, -148.499, -79.8531, 42.9967
5.92839, 34, -27.6634, -22.8399, 40.4015, -148.396, -79.748, 42.9462
5.93541, 34, -27.6427, -22.9983, 40.5267, -148.292, -79.6429, 42.8984
5.94346, 34, -27.6215, -23.1563, 40.6518, -148.189, -79.5378, 42.8523
5.95148, 34, -27.6001, -23.3142, 40.7766, -148.085, -79.4329, 42.8079
5.96053, 35, -27.5787, -23.4721, 40.9011, -147.982, -79.3281, 42.7661
5.96751, 35, -27.5569, -23.6296, 41.0255, -147.878, -79.2236, 42.7272
5.97544, 35, -27.5348, -23.7864, 41.1494, -147.774, -79.1193, 42.6907
5.98439, 35, -27.5125, -23.9428, 41.2731, -147.67, -79.015, 42.6562
5.99244, 35, -27.49, -24.0991, 41.3964, -147.566, -78.911, 42.6239
6.0004, 35, -27.4668, -24.2551, 41.5195, -147.462, -78.8071, 42.594
6.00846, 36, -27.4433, -24.4105, 41.6421, -147.358, -78.7031, 42.5673
6.01804, 36, -27.4197, -24.5653, 41.8254, -147.202, -78.5483, 42.5325
6.0234, 36, -27.3956, -24.7197, 41.8863, -147.15, -78.4967, 42.5224
6.03328, 36, -27.3711, -24.8741, 42.0077, -147.046, -78.3936, 42.5042
6.04039, 36, -27.3462, -25.0283, 42.1287, -146.942, -78.2911, 42.4886
6.04751, 36, -27.321, -25.1819, 42.2493, -146.838, -78.1887, 42.4758
6.0554, 36, -27.2952, -25.3349, 42.3695, -146.734, -78.0864, 42.4659
6.06341, 37, -27.2692, -25.4876, 42.4891, -146.63, -77.9847, 42.4588
6.07148, 37, -27.2428, -25.6399, 42.6083, -146.526, -77.8831, 42.4547
6.07941, 37, -27.216, -25.7917, 42.7269, -146.422, -77.7816, 42.4528
6.08762, 37, -27.1887, -25.9425, 42.8451, -146.319, -77.6806, 42.4527
6.0955, 37, -27.1609, -26.0926, 42.9629, -146.215, -77.5797, 42.4554
6.10348, 37, -27.1326, -26.2421, 43.0801, -146.112, -77.4791, 42.4624
6.11161, 38, -27.1038, -26.3912, 43.1967, -146.009, -77.3789, 42.4728
6.1195, 38, -27.0746, -26.5398, 43.3127, -145.906, -77.2788, 42.4868
6.12755, 38, -27.0449, -26.6875, 43.4281, -145.803, -77.1791, 42.5043
6.13574, 38, -27.0147, -26.8345, 43.5429, -145.7, -77.0795, 42.5253
6.14444, 38, -26.9839, -26.9812, 43.6573, -145.598, -76.9802, 42.55
6.15141, 38, -26.9526, -27.1274, 43.7708, -145.496, -76.8814, 42.5786
6.16035, 39, -26.9207, -27.273, 43.8835, -145.395, -76.7829, 42.6114
6.16755, 39, -26.8884, -27.4175, 43.9956, -145.293, -76.6842, 42.6483
6.17544, 39, -26.8554, -27.5612, 44.107, -145.192, -76.586, 42.6885
6.18456, 39, -26.8217, -27.7041, 44.2178, -145.091, -76.4882, 42.7324
6.19242, 39, -26.7875, -27.8465, 44.3281, -144.99, -76.3903, 42.7805
6.19975, 39, -26.7528, -27.9882, 44.4374, -144.89, -76.2928, 42.8332
6.20774, 39, -26.7174, -28.1289, 44.5457, -144.79, -76.1953, 42.8892
6.21584, 40, -26.6813, -28.2685, 44.6533, -144.691, -76.0979, 42.9493
6.22379, 40, -26.6446, -28.4073, 44.7602, -144.592, -76.0012, 43.0142
6.2322, 40, -26.6071, -28.5454, 44.8663, -144.494, -75.9044, 43.0822
6.2409, 40, -26.5691, -28.6828, 44.9717, -144.396, -75.8079, 43.1546
6.24796, 40, -26.5301, -28.8191, 45.0762, -144.299, -75.7118, 43.2317
6.25602, 40, -26.4904, -28.9541, 45.1796, -144.202, -75.6159, 43.3123
6.26408, 41, -26.4501, -29.0883, 45.2819, -144.106, -75.5201, 43.3981
6.27194, 41, -26.4296, -29.1549, 45.3327, -144.058, -75.4248, 43.4871
6.28021, 41, -26.367, -29.3538, 45.484, -143.915, -75.3297, 43.5813
6.28892, 41, -26.3457, -29.4197, 45.5838, -143.821, -75.2347, 43.6791
6.29539, 41, -26.3025, -29.5508, 45.6334, -143.774, -75.1873, 43.7299
6.30493, 41, -26.2362, -29.745, 45.7801, -143.635, -75.0462, 43.889
6.31143, 41, -26.2137, -29.8092, 45.8283, -143.589, -74.9992, 43.9446
6.31945, 42, -26.1679, -29.9367, 45.924, -143.497, -74.905, 44.059
6.32746, 42, -26.1214, -30.0632, 46.0186, -143.407, -74.8117, 44.1782
6.33739, 42, -26.0739, -30.1886, 46.1124, -143.317, -74.7184, 44.3018
6.34339, 42, -26.0255, -30.3126, 46.2053, -143.228, -74.6251, 44.4302
6.35283, 42, -25.9513, -30.496, 46.3422, -143.096, -74.486, 44.6314
6.35939, 42, -25.926, -30.5565, 46.3871, -143.053, -74.4398, 44.7009
6.36957, 43, -25.8485, -30.736, 46.5196, -142.925, -74.3012, 44.9168
6.37545, 43, -25.8221, -30.7952, 46.5631, -142.883, -74.2554, 44.9915
6.38562, 43, -25.7415, -30.971, 46.692, -142.758, -74.1179, 45.2226
6.39157, 43, -25.7141, -31.029, 46.7345, -142.717, -74.0721, 45.3021
6.39946, 43, -25.6586, -31.1438, 46.8184, -142.636, -73.9809, 45.4648
6.40838, 43, -25.602, -31.257, 46.9008, -142.556, -73.89, 45.6323
6.41545, 43, -25.5442, -31.3687, 46.9816, -142.478, -73.7995, 45.8046
6.42543, 44, -25.4552, -31.5335, 47.0997, -142.363, -73.6643, 46.0726
6.43154, 44, -25.4249, -31.5876, 47.1384, -142.325, -73.6192, 46.1645
6.43944, 44, -25.3636, -31.6947, 47.2146, -142.251, -73.5295, 46.352
6.44749, 44, -25.301, -31.8, 47.2895, -142.179, -73.44, 46.5449
6.45539, 44, -25.2371, -31.9035, 47.3628, -142.108, -73.3512, 46.743
6.46339, 44, -25.1721, -32.0052, 47.4344, -142.039, -73.2626, 46.9464
6.47139, 45, -25.1059, -32.1052, 47.5042, -141.972, -73.1743, 47.1554
6.47958, 45, -25.0382, -32.2034, 47.5722, -141.907, -73.0866, 47.3699
6.48749, 45, -24.9693, -32.2997, 47.6386, -141.844, -72.9993, 47.5895
6.49539, 45, -24.899, -32.3944, 47.7031, -141.782, -72.9124, 47.8146
6.50439, 45, -24.8272, -32.487, 47.7658, -141.723, -72.8259, 48.0446
6.51243, 45, -24.754, -32.5776, 47.8265, -141.665, -72.7401, 48.2802
6.52036, 46, -24.6794, -32.666, 47.8853, -141.609, -72.6547, 48.5215
6.52858, 46, -24.6033, -32.7524, 47.942, -141.556, -72.5695, 48.7678
6.53619, 46, -24.5256, -32.8365, 47.9968, -141.505, -72.4852, 49.0196
6.54347, 46, -24.4464, -32.9183, 48.0496, -141.457, -72.4012, 49.2768
6.55333, 46, -24.3659, -32.9976, 48.1005, -141.41, -72.3177, 49.5399
6.56038, 46, -24.2838, -33.0747, 48.1491, -141.366, -72.2348, 49.8083
6.5675, 46, -24.2001, -33.1493, 48.1955, -141.325, -72.1528, 50.0818
6.57739, 47, -24.1149, -33.2214, 48.2397, -141.287, -72.0713, 50.3602
6.58361, 47, -24.028, -33.291, 48.2814, -141.251, -71.9903, 50.6443
6.59247, 47, -23.9395, -33.3582, 48.3209, -141.217, -71.9106, 50.9338
6.59942, 47, -23.8493, -33.4227, 48.3579, -141.188, -71.8311, 51.2285
6.60837, 47, -23.7573, -33.4846, 48.3925, -141.161, -71.7528, 51.5288
6.61552, 47, -23.6637, -33.5437, 48.4247, -141.137, -71.6749, 51.8348
6.62396, 48, -23.5683, -33.5998, 48.4541, -141.115, -71.5987, 52.1459
6.63165, 48, -23.4713, -33.653, 48.481, -141.096, -71.5228, 52.4621
6.6395, 48, -23.3727, -33.7031, 48.5053, -141.081, -71.4483, 52.7838
6.64817, 48, -23.2723, -33.7501, 48.5271, -141.069, -71.3745, 53.1108
6.65759, 48, -23.1702, -33.794, 48.5461, -141.06, -71.3024, 53.4428
6.66355, 48, -23.0663, -33.8344, 48.5621, -141.055, -71.231, 53.7805
6.67231, 48, -22.9605, -33.8718, 48.5755, -141.052, -71.1613, 54.1234
6.67978, 49, -22.8528, -33.9058, 48.586, -141.052, -71.0922, 54.471
6.68837, 49, -22.7434, -33.9364, 48.5935, -141.055, -71.0252, 54.8235
6.69646, 49, -22.6321, -33.9633, 48.5979, -141.062, -70.9588, 55.181
6.70364, 49, -22.5192, -33.9869, 48.5995, -141.073, -70.8947, 55.5435
6.71173, 49, -22.4044, -34.0066, 48.5983, -141.089, -70.8314, 55.9112
6.72017, 49, -22.2879, -34.0224, 48.594, -141.109, -70.7703, 56.2841
6.72864, 50, -22.1697, -34.0344, 48.5866, -141.132, -70.711, 56.6615
6.73723, 50, -22.0496, -34.0425, 48.5759, -141.159, -70.653, 57.0434
6.74395, 50, -21.9278, -34.0467, 48.5618, -141.19, -70.5975, 57.4305
6.75252, 50, -21.8041, -34.047, 48.5444, -141.224, -70.5432, 57.8221
6.76003, 50, -21.6783, -34.0432, 48.5236, -141.264, -70.4913, 58.2186
6.76797, 50, -21.5506, -34.035, 48.4991, -141.307, -70.4421, 58.6198
6.77692, 50, -21.486, -34.0293, 48.4856, -141.329, -70.4179, 59.0248
6.78436, 51, -21.3557, -34.0059, 48.4399, -141.405, -70.349, 59.4341
6.7914, 51, -21.2238, -33.996, 48.4228, -141.432, -70.3276, 59.6405
6.79952, 51, -21.0901, -33.9726, 48.3858, -141.488, -70.2862, 60.0563
6.80896, 51, -20.9548, -33.9444, 48.3235, -141.582, -70.228, 60.6886
6.81541, 51, -20.8178, -33.9116, 48.3008, -141.615, -70.2102, 60.9013
6.82496, 51, -20.6087, -33.8534, 48.2274, -141.721, -70.1614, 61.5451
6.8329, 52, -20.4671, -33.8081, 48.1738, -141.796, -70.1322, 61.9795
6.84071, 52, -20.3239, -33.7578, 48.1164, -141.876, -70.1055, 62.4178
6.84744, 52, -20.2518, -33.7308, 48.0862, -141.917, -70.0933, 62.6384
6.85552, 52, -20.1062, -33.6727, 48.0228, -142.002, -70.0714, 63.0824
6.86338, 52, -19.9589, -33.6094, 47.9556, -142.092, -70.0531, 63.5291
6.87288, 52, -19.7354, -33.5044, 47.8473, -142.233, -70.032, 64.2061
6.87934, 53, -19.6602, -33.4667, 47.8093, -142.282, -70.0266, 64.4334
6.88741, 53, -19.5087, -33.3873, 47.7302, -142.384, -70.0188, 64.8907
6.89693, 53, -19.3559, -33.3025, 47.6471, -142.543, -70.0134, 65.5824
6.90528, 53, -19.124, -33.1653, 47.5152, -142.654, -70.0137, 66.0469
6.91236, 53, -19.0461, -33.1168, 47.4691, -142.711, -70.0151, 66.2806
6.91944, 53, -18.8891, -33.0155, 47.3739, -142.827, -70.021, 66.7497
6.92839, 53, -18.731, -32.9084, 47.2746, -142.947, -70.0312, 67.2218
6.93537, 54, -18.5715, -32.7954, 47.171, -143.07, -70.0458, 67.6962
6.94338, 54, -18.4106, -32.6766, 47.0633, -143.197, -70.0651, 68.1725
6.95167, 54, -18.2484, -32.552, 46.9518, -143.327, -70.0892, 68.6514
6.95935, 54, -18.0851, -32.4217, 46.8363, -143.461, -70.1185, 69.1324
6.96741, 54, -17.9208, -32.2852, 46.7167, -143.598, -70.1519, 69.6158
6.97546, 54, -17.7558, -32.1426, 46.5928, -143.738, -70.1895, 70.1006
6.98433, 55, -17.5901, -31.994, 46.4646, -143.881, -70.2326, 70.5874
6.99236, 55, -17.4233, -31.8396, 46.3324, -144.027, -70.2812, 71.0761
7.00049, 55, -17.2557, -31.6798, 46.1965, -144.176, -70.3337, 71.5665
7.00781, 55, -17.0873, -31.514, 46.0564, -144.327, -70.3922, 72.058
7.01537, 55, -16.918, -31.3417, 45.9124, -144.482, -70.4555, 72.5504
7.02445, 55, -16.7481, -31.1634, 45.7643, -144.638, -70.5239, 73.044
7.03138, 55, -16.5776, -30.9798, 45.6123, -144.797, -70.5983, 73.5385
7.03945, 56, -16.4067, -30.7906, 45.4564, -144.958, -70.6773, 74.0342
7.04841, 56, -16.2357, -30.5948, 45.2964, -145.121, -70.7619, 74.53
7.05615, 56, -16.0645, -30.3926, 45.1326, -145.286, -70.8523, 75.0264
7.06344, 56, -15.8933, -30.1852, 44.9657, -145.453, -70.9482, 75.5236
7.07325, 56, -15.7217, -29.9722, 44.7953, -145.622, -71.0496, 76.0208
7.07938, 56, -15.5495, -29.7526, 44.6203, -145.791, -71.1568, 76.5179
7.08747, 57, -15.3769, -29.5269, 44.441, -145.963, -71.2695, 77.0146
7.09538, 57, -15.204, -29.2954, 44.2587, -146.136, -71.3878, 77.511
7.11176, 57, -14.8586, -28.8133, 43.8832, -146.483, -71.6418, 78.503
7.113, 57, -14.8586, -28.8133, 43.8832, -146.483, -71.6418, 78.503
7.11951, 57, -14.6864, -28.5638, 43.6897, -146.658, -71.7778, 78.9973
7.12756, 57, -14.5145, -28.308, 43.4938, -146.834, -71.9191, 79.4911
7.13616, 58, -14.3428, -28.0468, 43.2943, -147.01, -72.0664, 79.9841
7.14347, 58, -14.1714, -27.7798, 43.0907, -147.186, -72.2192, 80.476
7.15176, 58, -14.0002, -27.5066, 42.8847, -147.362, -72.378, 80.9662
7.16017, 58, -13.8294, -27.2288, 42.6756, -147.538, -72.5424, 81.4545
7.16744, 58, -13.6592, -26.9459, 42.4628, -147.714, -72.7127, 81.9413
7.1754, 58, -13.4896, -26.658, 42.2475, -147.889, -72.8885, 82.4261
7.1835, 58, -13.3208, -26.3655, 42.0296, -148.064, -73.07, 82.9094
7.19151, 59, -13.1531, -26.0668, 41.8081, -148.238, -73.257, 83.3897
7.20036, 59, -12.9864, -25.7634, 41.5846, -148.411, -73.4493, 83.8678
7.20766, 59, -12.8203, -25.4552, 41.3591, -148.584, -73.6472, 84.3438
7.21575, 59, -12.6549, -25.1423, 41.1304, -148.755, -73.8503, 84.817
7.22377, 59, -12.4904, -24.8249, 40.9001, -148.925, -74.0588, 85.2875
7.23243, 59, -12.3265, -24.5023, 40.6675, -149.093, -74.2726, 85.7544
7.23998, 60, -12.1635, -24.1759, 40.4323, -149.259, -74.4913, 86.2183
7.24867, 60, -12.0019, -23.8452, 40.1958, -149.424, -74.7151, 86.6788
7.2565, 60, -11.8415, -23.5109, 39.9574, -149.587, -74.9436, 87.1361
7.26401, 60, -11.6823, -23.1722, 39.7171, -149.748, -75.177, 87.5896
7.27195, 60, -11.6032, -22.8296, 39.4761, -149.907, -75.4149, 88.0387
7.28036, 60, -11.3678, -22.4838, 39.2332, -150.063, -75.6572, 88.4846
7.28892, 60, -11.2899, -22.3099, 39.1112, -150.14, -75.9039, 88.9263
7.29666, 61, -11.0582, -21.7842, 38.7441, -150.369, -76.1547, 89.3637
7.30618, 61, -10.9053, -21.4296, 38.4972, -150.518, -76.4096, 89.7968
7.31136, 61, -10.8293, -21.2514, 38.3735, -150.591, -76.5385, 90.0113
7.32101, 61, -10.604, -20.7127, 38.0025, -150.807, -76.9314, 90.648
7.32856, 61, -10.4558, -20.3507, 37.754, -150.948, -77.1978, 91.0664
7.3354, 61, -10.3823, -20.1683, 37.6298, -151.017, -77.3323, 91.2737
7.34581, 62, -10.1644, -19.6183, 37.2568, -151.22, -77.7408, 91.8883
7.35364, 62, -10.0213, -19.249, 37.0075, -151.351, -78.0169, 92.2907
7.35937, 62, -9.95027, -19.0638, 36.8831, -151.416, -78.156, 92.4899
7.36892, 62, -9.73957, -18.5046, 36.51, -151.604, -78.5774, 93.0792
7.37692, 62, -9.60098, -18.1304, 36.2616, -151.726, -78.8615, 93.4648
7.38492, 62, -9.46391, -17.7558, 36.0138, -151.844, -79.1478, 93.8447
7.39142, 62, -9.39596, -17.5685, 35.8898, -151.902, -79.2919, 94.0325
7.40166, 63, -9.19454, -17.0046, 35.5195, -152.07, -79.7275, 94.5854
7.4074, 63, -9.12833, -16.8164, 35.3965, -152.125, -79.8737, 94.7665
7.41635, 63, -8.99733, -16.4397, 35.1506, -152.231, -80.1677, 95.1239
7.42331, 63, -8.8679, -16.0633, 34.9059, -152.333, -80.4634, 95.4745
7.43142, 63, -8.74021, -15.6861, 34.6624, -152.432, -80.7605, 95.818
7.43935, 63, -8.61421, -15.3092, 34.4198, -152.527, -81.0588, 96.155
7.44755, 64, -8.48974, -14.9321, 34.1797, -152.618, -81.3579, 96.4843
7.45547, 64, -8.36696, -14.5556, 33.9408, -152.706, -81.6581, 96.806
7.46335, 64, -8.24607, -14.1786, 33.7027, -152.79, -81.9588, 97.1203
7.47136, 64, -8.12716, -13.8025, 33.467, -152.871, -82.2602, 97.4273
7.47935, 64, -8.0101, -13.4272, 33.2326, -152.948, -82.5622, 97.7262
7.48749, 64, -7.89474, -13.0538, 33.0001, -153.021, -82.8645, 98.017
7.49578, 65, -7.78109, -12.6812, 32.7703, -153.09, -83.167, 98.3002
7.50457, 65, -7.66891, -12.3103, 32.5418, -153.156, -83.4697, 98.575
7.51137, 65, -7.55829, -11.9409, 32.3155, -153.218, -83.7724, 98.8409
7.52123, 65, -7.44933, -11.5738, 32.0921, -153.276, -84.0748, 99.0981
7.52835, 65, -7.34196, -11.2076, 31.8701, -153.331, -84.3768, 99.3463
7.53638, 65, -7.2364, -10.8433, 31.6505, -153.382, -84.6785, 99.5861
7.54441, 65, -7.13261, -10.4808, 31.4342, -153.429, -84.9795, 99.8166
7.55244, 66, -7.03043, -10.1205, 31.2197, -153.473, -85.2798, 100.038
7.56039, 66, -6.93005, -9.76148, 31.008, -153.513, -85.5793, 100.249
7.56739, 66, -6.8313, -9.40495, 30.7995, -153.55, -85.8781, 100.451
7.5755, 66, -6.73414, -9.05068, 30.5932, -153.582, -86.1758, 100.643
7.58434, 66, -6.63843, -8.69951, 30.3889, -153.612, -86.4725, 100.825
7.59136, 66, -6.54427, -8.35046, 30.1881, -153.639, -86.768, 100.997
7.60043, 67, -6.45164, -8.00435, 29.9901, -153.662, -87.0625, 101.158
7.60743, 67, -6.36046, -7.66102, 29.7942, -153.681, -87.356, 101.309
7.61552, 67, -6.2706, -7.321, 29.6016, -153.697, -87.6483, 101.449
7.62407, 67, -6.18202, -6.98382, 29.4121, -153.71, -87.9394, 101.578
7.63148, 67, -6.09486, -6.64904, 29.2247, -153.719, -88.2289, 101.696
7.63945, 67, -6.00902, -6.31786, 29.0401, -153.725, -88.517, 101.803
7.64815, 67, -5.92456, -5.98947, 28.8594, -153.729, -88.8035, 101.899
7.6555, 68, -5.84146, -5.66438, 28.6815, -153.73, -89.0884, 101.983
7.66347, 68, -5.75967, -5.3413, 28.5058, -153.729, -89.3718, 102.056
7.6725, 68, -5.67918, -5.0213, 28.3332, -153.724, -89.6535, 102.117
7.67974, 68, -5.60012, -4.70434, 28.1638, -153.716, -89.9339, 102.165
7.68755, 68, -5.5223, -4.39095, 27.997, -153.705, -90.2129, 102.201
7.6955, 68, -5.44581, -4.08133, 27.8327, -153.691, -90.4903, 102.226
7.70392, 69, -5.37063, -3.7746, 27.672, -153.674, -90.7665, 102.238
7.7116, 69, -5.29652, -3.47181, 27.5144, -153.654, -91.0411, 102.24
7.72035, 69, -5.22333, -3.17224, 27.3592, -153.631, -91.3142, 102.228
7.72886, 69, -5.15109, -2.87638, 27.2065, -153.605, -91.5858, 102.203
7.7358, 69, -5.07983, -2.58386, 27.0568, -153.576, -91.8556, 102.165
7.74579, 69, -5.00943, -2.29402, 26.9102, -153.546, -92.1236, 102.113
7.7532, 70, -4.94002, -2.00815, 26.7662, -153.513, -92.3902, 102.048
7.7599, 70, -4.87155, -1.72555, 26.6251, -153.477, -92.6549, 101.969
7.76847, 70, -4.80396, -1.44626, 26.4867, -153.438, -92.9183, 101.876
7.77825, 70, -4.73708, -1.17076, 26.3511, -153.399, -93.1801, 101.77
7.78329, 70, -4.7039, -1.03399, 26.2844, -153.378, -93.3105, 101.712
7.79238, 70, -4.60557, -0.628484, 26.088, -153.312, -93.6994, 101.515
7.80064, 70, -4.5409, -0.363372, 25.9604, -153.266, -93.9567, 101.367
7.80741, 71, -4.50883, -0.231973, 25.8975, -153.243, -94.0848, 101.287
7.81538, 71, -4.44521, 0.0279351, 25.7737, -153.194, -94.3402, 101.118
7.82492, 71, -4.35093, 0.410051, 25.5931, -153.118, -94.7198, 100.838
7.83156, 71, -4.31974, 0.535857, 25.5342, -153.093, -94.8456, 100.737
7.83938, 71, -4.25771, 0.784607, 25.4182, -153.039, -95.096, 100.526
7.84887, 71, -4.16545, 1.14963, 25.2491, -152.958, -95.4686, 100.183
7.85685, 72, -4.10422, 1.38866, 25.1393, -152.902, -95.7146, 99.9375
7.8648, 72, -4.04315, 1.62337, 25.0319, -152.844, -95.9589, 99.6783
7.87328, 72, -3.98226, 1.85392, 24.9272, -152.787, -96.2015, 99.4053
7.87931, 72, -3.95187, 1.96791, 24.8758, -152.758, -96.322, 99.2639
7.88891, 72, -3.86088, 2.30391, 24.7252, -152.67, -96.6808, 98.8197
7.89718, 72, -3.80021, 2.52176, 24.6278, -152.61, -96.9175, 98.5071
7.90335, 72, -3.76992, 2.62916, 24.5799, -152.58, -97.035, 98.3458
7.91233, 73, -3.70943, 2.84117, 24.4858, -152.521, -97.2683, 98.0138
7.9212, 73, -3.64875, 3.04872, 24.3941, -152.432, -97.6144, 97.4921
7.92738, 73, -3.58787, 3.25127, 24.3051, -152.403, -97.7286, 97.3119
7.93636, 73, -3.52684, 3.44966, 24.2185, -152.344, -97.9549, 96.9425
7.94433, 73, -3.46555, 3.64395, 24.1345, -152.285, -98.1786, 96.5616
7.95133, 73, -3.40409, 3.83297, 24.0527, -152.229, -98.3995, 96.1686
7.95934, 74, -3.3422, 4.01637, 23.973, -152.171, -98.6173, 95.7645
7.96758, 74, -3.28002, 4.19497, 23.8957, -152.115, -98.8319, 95.3497
7.97615, 74, -3.21742, 4.36839, 23.8209, -152.061, -99.043, 94.9245
7.98335, 74, -3.15417, 4.53577, 23.7487, -152.006, -99.2503, 94.4899
7.99236, 74, -3.09039, 4.69715, 23.679, -151.954, -99.454, 94.0458
7.99935, 74, -3.026, 4.85315, 23.6118, -151.903, -99.6534, 93.5927
8.00744, 74, -2.961, 5.00322, 23.5471, -151.854, -99.8483, 93.1309
8.01634, 75, -2.89549, 5.14683, 23.4849, -151.807, -100.039, 92.6609
8.02424, 75, -2.82926, 5.28393, 23.4253, -151.761, -100.224, 92.1841
8.03137, 75, -2.76253, 5.41447, 23.3683, -151.717, -100.405, 91.6998
8.04352, 75, -2.6612, 5.5978, 23.2881, -151.657, -100.666, 90.9617
8.04753, 75, -2.62711, 5.65543, 23.2627, -151.637, -100.75, 90.7128
8.05631, 75, -2.55846, 5.76519, 23.2139, -151.6, -100.913, 90.2114
8.06341, 76, -2.48917, 5.86749, 23.168, -151.565, -101.07, 89.7058
8.07133, 76, -2.4193, 5.9621, 23.1251, -151.533, -101.222, 89.196
8.07934, 76, -2.34882, 6.04884, 23.0851, -151.504, -101.366, 88.6826
8.08748, 76, -2.27781, 6.12756, 23.0481, -151.477, -101.503, 88.1663
8.09553, 76, -2.20615, 6.19817, 23.0143, -151.452, -101.632, 87.6484
8.10432, 76, -2.13384, 6.26037, 22.9837, -151.43, -101.755, 87.128
8.11253, 77, -2.06089, 6.31397, 22.9562, -151.411, -101.869, 86.6066
8.11942, 77, -1.98738, 6.35887, 22.9321, -151.394, -101.974, 86.0847
8.12751, 77, -1.91321, 6.39486, 22.9114, -151.38, -102.072, 85.5634
8.1359, 77, -1.83851, 6.42164, 22.8944, -151.369, -102.16, 85.0428
8.14526, 77, -1.76338, 6.4396, 22.881, -151.36, -102.239, 84.5231
8.15159, 77, -1.68778, 6.44841, 22.8713, -151.353, -102.308, 84.0046
8.15955, 77, -1.61177, 6.44777, 22.8652, -151.349, -102.368, 83.4888
8.1674, 78, -1.5354, 6.43739, 22.8629, -151.347, -102.418, 82.9754
8.17537, 78, -1.45861, 6.417, 22.8643, -151.346, -102.459, 82.4645
8.18344, 78, -1.3816, 6.38681, 22.8696, -151.347, -102.488, 81.9574
8.19145, 78, -1.30444, 6.34647, 22.8791, -151.351, -102.507, 81.4538
8.19981, 78, -1.22701, 6.29575, 22.8927, -151.357, -102.516, 80.9551
8.20838, 78, -1.1495, 6.23466, 22.9106, -151.365, -102.515, 80.4603
8.21563, 79, -1.07195, 6.16296, 22.9333, -151.375, -102.503, 79.9705
8.22374, 79, -0.994138, 6.08058, 22.9605, -151.387, -102.479, 79.4853
8.23172, 79, -0.916212, 5.98744, 22.9923, -151.401, -102.444, 79.0059
8.23988, 79, -0.838265, 5.88371, 23.0289, -151.417, -102.396, 78.5319
8.24862, 79, -0.760137, 5.7692, 23.0704, -151.434, -102.338, 78.0631
8.25681, 79, -0.68212, 5.64371, 23.1168, -151.454, -102.267, 77.6003
8.26477, 79, -0.604023, 5.50734, 23.1683, -151.475, -102.184, 77.1436
8.27245, 80, -0.525916, 5.35989, 23.225, -151.498, -102.089, 76.6935
8.28007, 80, -0.447898, 5.20192, 23.2869, -151.521, -101.982, 76.2496
8.28732, 80, -0.408905, 5.11909, 23.3199, -151.533, -101.924, 76.0299
8.29778, 80, -0.291985, 4.85504, 23.427, -151.57, -101.732, 75.3809
8.30521, 80, -0.214119, 4.66483, 23.5053, -151.597, -101.588, 74.956
8.31132, 80, -0.175211, 4.56537, 23.5466, -151.611, -101.512, 74.7463
8.32044, 81, -0.0586098, 4.25118, 23.6789, -151.652, -101.264, 74.127
8.32741, 81, -0.0198328, 4.14108, 23.7258, -151.666, -101.175, 73.9235
8.3354, 81, 0.0575898, 3.91216, 23.824, -151.695, -100.989, 73.5218
8.34463, 81, 0.173483, 3.54866, 23.9825, -151.739, -100.686, 72.9313
8.35147, 81, 0.212024, 3.4223, 24.0383, -151.754, -100.579, 72.7378
8.35941, 81, 0.289012, 3.16081, 24.1549, -151.784, -100.355, 72.3561
8.36895, 82, 0.404259, 2.74851, 24.3415, -151.829, -99.9973, 71.795
8.37683, 82, 0.48097, 2.46005, 24.4732, -151.859, -99.7435, 71.4287
8.38486, 82, 0.557458, 2.16112, 24.6112, -151.889, -99.4777, 71.0687
8.39296, 82, 0.633881, 1.85177, 24.7554, -151.919, -99.2002, 70.7146
8.40096, 82, 0.67203, 1.69275, 24.9061, -151.948, -98.9111, 70.3667
8.40739, 82, 0.748355, 1.3667, 24.9839, -151.963, -98.7622, 70.1952
8.41773, 82, 0.824701, 1.02982, 25.1438, -151.992, -98.4558, 69.8564
8.42354, 83, 0.901081, 0.682975, 25.3102, -152.021, -98.1384, 69.5233
8.43153, 83, 0.977463, 0.326212, 25.4834, -152.05, -97.8097, 69.1957
8.43931, 83, 1.05388, -0.0407782, 25.6628, -152.077, -97.47, 68.8741
8.44733, 83, 1.13034, -0.417393, 25.8481, -152.104, -97.1191, 68.5578
8.45539, 83, 1.20679, -0.802863, 26.0405, -152.13, -96.7573, 68.2472
8.46333, 83, 1.28335, -1.19764, 26.2404, -152.155, -96.3853, 67.9426
8.47242, 84, 1.36004, -1.6015, 26.4461, -152.179, -96.0026, 67.6437
8.48036, 84, 1.43687, -2.01443, 26.6577, -152.203, -95.6102, 67.3499
8.48836, 84, 1.51371, -2.43519, 26.8768, -152.225, -95.2083, 67.0615
8.49646, 84, 1.59094, -2.86439, 27.1017, -152.246, -94.797, 66.7786
8.50571, 84, 1.66844, -3.30199, 27.3324, -152.275, -94.1635, 66.3642
8.51132, 84, 1.74621, -3.74729, 27.5702, -152.284, -93.948, 66.2288
8.52333, 85, 1.86345, -4.42919, 27.9376, -152.31, -93.2883, 65.8307
8.52816, 85, 1.90262, -4.66016, 28.0631, -152.318, -93.0641, 65.7011
8.53648, 85, 1.98132, -5.12755, 28.3187, -152.332, -92.6095, 65.4458
8.54338, 85, 2.06052, -5.60161, 28.5795, -152.346, -92.1474, 65.1963
8.55133, 85, 2.1399, -6.08129, 28.8464, -152.357, -91.6785, 64.9522
8.55933, 85, 2.21961, -6.56649, 29.1188, -152.367, -91.2025, 64.714
8.56738, 85, 2.29984, -7.05692, 29.3967, -152.375, -90.7202, 64.482
8.57545, 86, 2.38041, -7.5526, 29.68, -152.381, -90.2311, 64.2558
8.58355, 86, 2.46158, -8.05351, 29.9676, -152.385, -89.7357, 64.0357
8.59132, 86, 2.54341, -8.55908, 30.2605, -152.388, -89.2345, 63.8219
8.60122, 86, 2.62583, -9.06848, 30.5573, -152.389, -88.7283, 63.6149
8.60735, 86, 2.70887, -9.58132, 30.859, -152.389, -88.2181, 63.4146
8.61543, 86, 2.79248, -10.0977, 31.1647, -152.387, -87.7032, 63.2214
8.62341, 87, 2.87652, -10.6171, 31.4746, -152.382, -87.1844, 63.035
8.63493, 87, 3.00346, -11.4004, 31.9457, -152.371, -86.3985, 62.7692
8.63946, 87, 3.04598, -11.6626, 32.1046, -152.366, -86.1348, 62.6844
8.64748, 87, 3.13139, -12.1886, 32.4246, -152.354, -85.6054, 62.5211
8.65554, 87, 3.2172, -12.7154, 32.748, -152.339, -85.0735, 62.3661
8.66509, 87, 3.30354, -13.2435, 33.0742, -152.321, -84.5393, 62.2194
8.67239, 87, 3.3904, -13.7727, 33.4028, -152.301, -84.0032, 62.0816
8.67936, 88, 3.47771, -14.3017, 33.7335, -152.278, -83.4656, 61.9529
8.68741, 88, 3.56541, -14.8311, 34.0661, -152.254, -82.926, 61.8335
8.69643, 88, 3.65346, -15.3602, 34.4009, -152.226, -82.3855, 61.724
8.70542, 88, 3.74184, -15.8881, 34.7375, -152.195, -81.8438, 61.625
8.71313, 88, 3.83022, -16.4155, 35.0755, -152.16, -81.3023, 61.5367
8.71995, 88, 3.91898, -16.9414, 35.415, -152.123, -80.761, 61.4592
8.72933, 89, 4.00798, -17.4654, 35.7553, -152.083, -80.2199, 61.393
8.73576, 89, 4.09729, -17.9879, 36.0963, -152.04, -79.6784, 61.3377
8.74388, 89, 4.18715, -18.5081, 36.4381, -151.993, -79.1367, 61.2943
8.76031, 89, 4.36727, -19.5427, 37.1228, -151.89, -78.0546, 61.245
8.76218, 89, 4.36727, -19.5427, 37.1228, -151.89, -78.0546, 61.245
8.76877, 89, 4.45729, -20.056, 37.4655, -151.834, -77.5159, 61.2385
8.7769, 89, 4.54702, -20.5664, 37.8079, -151.774, -76.978, 61.2452
8.78442, 90, 4.63671, -21.0745, 38.1507, -151.71, -76.4406, 61.267
8.7913, 90, 4.6816, -21.3272, 38.3221, -151.677, -76.1722, 61.2832
8.79932, 90, 4.77122, -21.8298, 38.6644, -151.608, -75.6358, 61.3275
8.80976, 90, 4.90576, -22.5782, 39.1767, -151.498, -74.834, 61.4223
8.81912, 90, 4.99543, -23.0724, 39.5178, -151.419, -74.3018, 61.5058
8.82325, 90, 5.04023, -23.3184, 39.688, -151.379, -74.0358, 61.554
8.83251, 91, 5.17446, -24.0516, 40.1974, -151.25, -73.2398, 61.7234
8.83939, 91, 5.21908, -24.2939, 40.3667, -151.205, -72.9751, 61.7889
8.8473, 91, 5.30808, -24.775, 40.7047, -151.113, -72.4465, 61.9329
8.8553, 91, 5.39699, -25.2529, 41.0417, -151.016, -71.9184, 62.095
8.8663, 91, 5.52991, -25.9623, 41.5452, -150.863, -71.129, 62.374
8.8713, 91, 5.57422, -26.1966, 41.7123, -150.81, -70.8666, 62.4766
8.87933, 91, 5.66289, -26.6628, 42.0461, -150.702, -70.3422, 62.6973
8.88934, 92, 5.79611, -27.3542, 42.544, -150.531, -69.5579, 63.0674
8.89535, 92, 5.8406, -27.5823, 42.7091, -150.472, -69.2965, 63.2012
8.90493, 92, 5.97432, -28.2617, 43.2016, -150.29, -68.5127, 63.6347
8.91131, 92, 6.01897, -28.4865, 43.3652, -150.228, -68.2517, 63.7907
8.92031, 92, 6.10841, -28.9321, 43.6914, -150.1, -67.7299, 64.1195
8.92839, 92, 6.19815, -29.3735, 44.0153, -149.97, -67.2089, 64.4712
8.93645, 93, 6.28849, -29.8107, 44.3371, -149.837, -66.6883, 64.8469
8.94387, 93, 6.37954, -30.2434, 44.6568, -149.701, -66.168, 65.2472
8.9523, 93, 6.47183, -30.6711, 44.9748, -149.563, -65.6469, 65.6718
8.96666, 93, 6.66042, -31.5134, 45.6029, -149.283, -64.6044, 66.5977
8.96808, 93, 6.66042, -31.5134, 45.6029, -149.283, -64.6044, 66.5977
8.97536, 93, 6.75651, -31.9265, 45.9124, -149.142, -64.083, 67.0999
8.98333, 93, 6.85427, -32.3346, 46.219, -149.002, -63.562, 67.6285
8.99252, 94, 6.95379, -32.7372, 46.5217, -148.862, -63.041, 68.1847
8.99933, 94, 7.0556, -33.1346, 46.8212, -148.723, -62.5202, 68.7694
9.00739, 94, 7.16012, -33.5254, 47.1163, -148.586, -61.9993, 69.3828
9.01532, 94, 7.26757, -33.9095, 47.4069, -148.452, -61.4785, 70.0242
9.0233, 94, 7.37807, -34.2859, 47.6926, -148.321, -60.9579, 70.6946
9.0314, 94, 7.49187, -34.6553, 47.9726, -148.196, -60.4386, 71.3945
9.0393, 95, 7.6092, -35.0162, 48.2476, -148.077, -59.9207, 72.1217
9.0473, 95, 7.73034, -35.3694, 48.5158, -147.965, -59.4051, 72.8769
9.05538, 95, 7.85538, -35.7139, 48.7775, -147.861, -58.8917, 73.6619
9.0633, 95, 7.98456, -36.049, 49.0317, -147.767, -58.3802, 74.474
9.07129, 95, 8.11798, -36.3734, 49.277, -147.681, -57.8716, 75.3143
9.07938, 95, 8.25586, -36.6864, 49.5146, -147.607, -57.3666, 76.1837
9.0875, 96, 8.39852, -36.9882, 49.7429, -147.545, -56.8675, 77.0762
9.09541, 96, 8.54584, -37.2772, 49.961, -147.497, -56.3747, 77.9948
9.1033, 96, 8.69804, -37.5538, 50.1693, -147.463, -55.8889, 78.9389
9.11133, 96, 8.85494, -37.8169, 50.3663, -147.443, -55.4109, 79.9058
9.11946, 96, 9.01609, -38.0643, 50.5507, -147.437, -54.9414, 80.8966
9.12738, 96, 9.18141, -38.2962, 50.7233, -147.448, -54.4812, 81.9064
9.13541, 96, 9.35039, -38.5113, 50.8834, -147.475, -54.0323, 82.9368
9.1441, 97, 9.52285, -38.7087, 51.0296, -147.518, -53.5965, 83.9838
9.15236, 97, 9.6987, -38.8888, 51.1616, -147.58, -53.1745, 85.0473
9.1594, 97, 9.87756, -39.0519, 51.2792, -147.658, -52.768, 86.1218
9.16781, 97, 10.0589, -39.196, 51.3816, -147.753, -52.3782, 87.2094
9.17535, 97, 10.242, -39.32, 51.4685, -147.865, -52.0056, 88.3067
9.18404, 97, 10.4259, -39.4233, 51.54, -147.992, -51.6517, 89.4125
9.19283, 98, 10.6099, -39.5054, 51.5954, -148.134, -51.3173, 90.5217
9.19947, 98, 10.7935, -39.5661, 51.6346, -148.291, -51.0041, 91.6343
9.20752, 98, 10.976, -39.6055, 51.6567, -148.46, -50.7134, 92.7462
9.21552, 98, 11.157, -39.6239, 51.6625, -148.642, -50.4466, 93.8561
9.22363, 98, 11.3357, -39.6209, 51.6517, -148.834, -50.2043, 94.9589
9.2317, 98, 11.5115, -39.5958, 51.6244, -149.036, -49.9872, 96.0551
9.23975, 98, 11.6841, -39.5481, 51.5805, -149.245, -49.7955, 97.1409
9.24842, 99, 11.8529, -39.4772, 51.5202, -149.461, -49.6296, 98.2171
9.2558, 99, 12.0175, -39.3839, 51.443, -149.681, -49.4906, 99.2791
9.26561, 99, 12.1778, -39.2688, 51.3489, -149.906, -49.3789, 100.328
9.27191, 99, 12.3334, -39.1324, 51.2378, -150.134, -49.2946, 101.362
9.28048, 99, 12.4833, -38.9747, 51.1101, -150.363, -49.2387, 102.381
9.2887, 99, 12.5559, -38.8879, 51.0404, -150.478, -49.2214, 103.383
9.29525, 100, 12.6965, -38.6979, 50.8898, -150.706, -49.2058, 103.877
9.30328, 100, 12.8302, -38.4862, 50.7239, -150.933, -49.2177, 104.851
9.31232, 100, 13.0176, -38.1296, 50.445, -151.266, -49.2889, 106.271
9.31928, 100, 13.0765, -38.0001, 50.3444, -151.375, -49.3271, 106.734
9.32727, 100, 13.1888, -37.726, 50.1325, -151.587, -49.424, 107.641
9.33649, 100, 13.3428, -37.2778, 49.7858, -151.894, -49.6219, 108.955
9.34332, 100, 13.3903, -37.1185, 49.663, -151.993, -49.7015, 109.381
9.35138, 101, 13.4794, -36.7856, 49.4075, -152.183, -49.8807, 110.213
9.35933, 101, 13.5608, -36.433, 49.1376, -152.365, -50.0865, 111.021
9.36877, 101, 13.6682, -35.8707, 48.7085, -152.62, -50.4438, 112.185
9.37691, 101, 13.7303, -35.4748, 48.4059, -152.778, -50.7135, 112.928
9.38479, 101, 13.7849, -35.0612, 48.0916, -152.925, -51.0078, 113.647
9.39285, 101, 13.8316, -34.6309, 47.7653, -153.062, -51.3258, 114.34
9.40169, 102, 13.8711, -34.1841, 47.4283, -153.187, -51.6671, 115.009
9.40728, 102, 13.8882, -33.9548, 47.2552, -153.246, -51.8461, 115.334
9.41528, 102, 13.9175, -33.4844, 46.9013, -153.355, -52.2207, 115.967
9.42429, 102, 13.9403, -32.9994, 46.5371, -153.454, -52.6169, 116.575
9.43137, 102, 13.9568, -32.5003, 46.1641, -153.542, -53.0338, 117.161
9.44036, 102, 13.9671, -31.9876, 45.782, -153.619, -53.4698, 117.724
9.44748, 103, 13.9713, -31.4618, 45.3912, -153.686, -53.9245, 118.266
9.45629, 103, 13.9698, -30.9234, 44.9923, -153.743, -54.3967, 118.786
9.46429, 103, 13.963, -30.3735, 44.5857, -153.79, -54.8855, 119.286
9.47128, 103, 13.9514, -29.8131, 44.1722, -153.827, -55.3909, 119.766
9.47927, 103, 13.9352, -29.2426, 43.7521, -153.854, -55.9122, 120.226
9.48736, 103, 13.9146, -28.6621, 43.3263, -153.873, -56.4483, 120.668
9.49527, 103, 13.8899, -28.0723, 42.8955, -153.883, -56.9971, 121.092
9.50332, 104, 13.8612, -27.4733, 42.4603, -153.886, -57.5574, 121.498
9.51182, 104, 13.8288, -26.8662, 42.0214, -153.881, -58.1285, 121.887
9.51928, 104, 13.7934, -26.252, 41.579, -153.867, -58.711, 122.259
9.52727, 104, 13.7557, -25.6327, 41.1336, -153.846, -59.3038, 122.616
9.54397, 104, 13.675, -24.3829, 40.2377, -153.784, -60.5126, 123.29
9.54524, 104, 13.675, -24.3829, 40.2377, -153.784, -60.5126, 123.29
9.55241, 104, 13.6326, -23.7535, 39.7885, -153.744, -61.1235, 123.611
9.56028, 104, 13.5891, -23.1218, 39.3399, -153.7, -61.7375, 123.926
9.5674, 104, 13.5443, -22.4886, 38.893, -153.652, -62.3534, 124.237
9.57527, 104, 13.4987, -21.8548, 38.4477, -153.6, -62.9698, 124.545
9.58328, 104, 13.4528, -21.2217, 38.0043, -153.545, -63.586, 124.85
9.59144, 104, 13.4065, -20.5902, 37.5632, -153.487, -64.2009, 125.153
9.5993, 104, 13.3601, -19.9599, 37.1242, -153.426, -64.8148, 125.455
9.60735, 104, 13.3139, -19.331, 36.6879, -153.363, -65.4279, 125.755
9.61541, 104, 13.2679, -18.7032, 36.2542, -153.296, -66.0406, 126.053
9.62336, 104, 13.2224, -18.0766, 35.823, -153.227, -66.6525, 126.35
9.63144, 104, 13.1771, -17.4512, 35.3951, -153.155, -67.2635, 126.647
9.63943, 104, 13.1321, -16.8274, 34.9696, -153.08, -67.8723, 126.941
9.64739, 104, 13.0874, -16.2057, 34.5463, -153.002, -68.4793, 127.236
9.65546, 104, 13.0427, -15.5857, 34.1261, -152.923, -69.0863, 127.529
9.66345, 104, 12.9984, -14.9673, 33.7085, -152.84, -69.6925, 127.821
9.67139, 104, 12.9542, -14.3501, 33.2938, -152.755, -70.2979, 128.112
9.67947, 104, 12.9104, -13.7344, 32.8825, -152.667, -70.9008, 128.402
9.6876, 104, 12.8671, -13.1203, 32.4739, -152.577, -71.5018, 128.692
9.69613, 104, 12.8244, -12.5077, 32.0682, -152.484, -72.1019, 128.982
9.70351, 104, 12.782, -11.8976, 31.6658, -152.389, -72.7009, 129.27
9.71156, 104, 12.74, -11.2895, 31.2661, -152.292, -73.2985, 129.559
9.72028, 104, 12.6987, -10.6829, 30.8696, -152.192, -73.8948, 129.847
9.72762, 104, 12.6575, -10.0781, 30.4762, -152.09, -74.489, 130.134
9.7361, 104, 12.6167, -9.47491, 30.0867, -151.986, -75.0813, 130.421
9.74452, 104, 12.5764, -8.87335, 29.7002, -151.878, -75.6724, 130.709
9.75186, 104, 12.5365, -8.27344, 29.3167, -151.769, -76.2617, 130.995
9.76043, 104, 12.4972, -7.67541, 28.937, -151.657, -76.8497, 131.282
9.76848, 104, 12.4582, -7.07982, 28.5609, -151.542, -77.4368, 131.568
9.77588, 104, 12.4197, -6.48655, 28.1883, -151.426, -78.0213, 131.854
9.78447, 104, 12.3817, -5.89558, 27.8184, -151.307, -78.603, 132.141
9.79262, 104, 12.3628, -5.60058, 27.6351, -151.247, -78.8932, 132.426
9.79984, 104, 12.3254, -5.01196, 27.271, -151.124, -79.4729, 132.569
9.80917, 104, 12.2703, -4.13276, 26.7318, -150.935, -80.3402, 132.999
9.81527, 104, 12.2523, -3.84072, 26.5538, -150.871, -80.6287, 133.142
9.82436, 104, 12.1991, -2.96867, 26.026, -150.676, -81.4897, 133.571
9.83133, 104, 12.1815, -2.67915, 25.8517, -150.61, -81.7754, 133.714
9.84047, 104, 12.1299, -1.81419, 25.3348, -150.407, -82.6299, 134.145
9.84728, 104, 12.113, -1.52718, 25.1644, -150.338, -82.914, 134.289
9.85754, 104, 12.063, -0.668828, 24.6598, -150.128, -83.7632, 134.719
9.86332, 104, 12.0467, -0.383715, 24.4933, -150.057, -84.0454, 134.863
9.87285, 104, 11.998, 0.46822, 24.0003, -149.84, -84.8885, 135.295
9.88118, 104, 11.9664, 1.03374, 23.6769, -149.692, -85.4473, 135.583
9.88732, 104, 11.9508, 1.31551, 23.517, -149.617, -85.7259, 135.727
9.89684, 104, 11.9049, 2.15652, 23.0428, -149.389, -86.5589, 136.161
9.9049, 104, 11.875, 2.71306, 22.7318, -149.234, -87.1115, 136.451
9.91128, 104, 11.8602, 2.98966, 22.5778, -149.156, -87.387, 136.596
9.91926, 104, 11.8314, 3.54001, 22.274, -148.998, -87.9362, 136.885
9.92731, 104, 11.8036, 4.08499, 21.9754, -148.838, -88.4813, 137.175
9.9363, 104, 11.7767, 4.62352, 21.6821, -148.676, -89.0213, 137.464
9.94433, 104, 11.7508, 5.15435, 21.3954, -148.512, -89.5549, 137.751
9.95229, 104, 11.7259, 5.67585, 21.1151, -148.348, -90.081, 138.035
9.95927, 104, 11.7017, 6.18686, 20.8438, -148.185, -90.5979, 138.316
9.96728, 104, 11.6783, 6.68705, 20.581, -148.022, -91.1035, 138.593
9.97533, 104, 11.6558, 7.17449, 20.3279, -147.861, -91.5952, 138.864
9.98326, 104, 11.6341, 7.64818, 20.0856, -147.702, -92.0714, 139.128
9.99126, 104, 11.6134, 8.10795, 19.8531, -147.546, -92.5321, 139.385
9.99931, 104, 11.5936, 8.55202, 19.6314, -147.392, -92.9764, 139.635
10.0073, 104, 11.575, 8.97925, 19.4208, -147.243, -93.4046, 139.877
10.0153, 104, 11.5573, 9.38965, 19.2199, -147.097, -93.8157, 140.11
10.0233, 104, 11.5406, 9.78201, 19.0294, -146.955, -94.2099, 140.335
10.0313, 104, 11.525, 10.1563, 18.8501, -146.817, -94.5863, 140.551
10.0393, 104, 11.5103, 10.5114, 18.6809, -146.685, -94.9441, 140.758
10.0473, 104, 11.4966, 10.8474, 18.5219, -146.558, -95.2832, 140.954
10.0553, 104, 11.4838, 11.164, 18.3739, -146.437, -95.6024, 141.14
10.0633, 104, 11.472, 11.4599, 18.2368, -146.323, -95.9014, 141.315
10.0713, 104, 11.4612, 11.7357, 18.11, -146.216, -96.1796, 141.478
10.0793, 104, 11.4514, 11.9901, 17.9939, -146.115, -96.4365, 141.63
10.0873, 104, 11.4422, 12.2234, 17.8883, -146.023, -96.6717, 141.769
10.0954, 104, 11.4339, 12.4362, 17.7931, -145.938, -96.8851, 141.896
10.1033, 104, 11.4264, 12.6282, 17.7082, -145.862, -97.0764, 142.01
10.1113, 104, 11.4198, 12.7987, 17.6337, -145.794, -97.2456, 142.111
10.1194, 104, 11.414, 12.9488, 17.5692, -145.735, -97.3931, 142.199
10.1274, 104, 11.4088, 13.0795, 17.5143, -145.684, -97.5185, 142.275
10.1354, 104, 11.4041, 13.1912, 17.4687, -145.642, -97.6233, 142.337
10.1434, 104, 11.3999, 13.2847, 17.4316, -145.607, -97.7082, 142.388
10.1514, 104, 11.396, 13.3619, 17.4021, -145.58, -97.7752, 142.429
10.1594, 104, 11.3926, 13.4246, 17.3799, -145.559, -97.8254, 142.46
10.1675, 104, 11.3894, 13.4746, 17.3638, -145.543, -97.8619, 142.482
10.1754, 104, 11.3868, 13.5132, 17.3525, -145.533, -97.8875, 142.497
10.1833, 104, 11.3847, 13.5419, 17.3452, -145.526, -97.9045, 142.507
10.1914, 104, 11.383, 13.5632, 17.3407, -145.522, -97.915, 142.513
10.1993, 104, 11.3816, 13.5782, 17.338, -145.519, -97.9208, 142.516
10.2074, 104, 11.3805, 13.5884, 17.3367, -145.518, -97.9238, 142.517
10.2158, 105, 11.3797, 13.5954, 17.3361, -145.518, -97.9253, 142.518
10.2235, 105, 11.3792, 13.5999, 17.3358, -145.517, -97.9259, 142.518
10.2316, 105, 11.3787, 13.6029, 17.3357, -145.517, -97.9262, 142.518
10.2398, 105, 11.3784, 13.6051, 17.3357, -145.517, -97.9263, 142.518
10.2478, 105, 11.3782, 13.6069, 17.3356, -145.517, -97.9264, 142.518
10.2563, 105, 11.3781, 13.6084, 17.3357, -145.517, -97.9263, 142.518
10.2639, 105, 11.3779, 13.6097, 17.3357, -145.517, -97.9263, 142.518
10.2724, 105, 11.3779, 13.6108, 17.3359, -145.517, -97.9262, 142.518
10.2798, 105, 11.3778, 13.6117, 17.336, -145.517, -97.9261, 142.518
10.2884, 105, 11.3778, 13.6124, 17.3362, -145.517, -97.926, 142.518
10.2958, 105, 11.3778, 13.6126, 17.3362, -145.517, -97.9259, 142.518
10.3043, 105, 11.3778, 13.6132, 17.3365, -145.517, -97.9257, 142.518
10.3113, 105, 11.3777, 13.6133, 17.3365, -145.517, -97.9256, 142.518
10.3204, 105, 11.3778, 13.6135, 17.3368, -145.517, -97.9253, 142.518
10.3273, 105, 11.3778, 13.6135, 17.3369, -145.517, -97.9252, 142.518
10.3367, 105, 11.3777, 13.6135, 17.3371, -145.517, -97.925, 142.518
