hehonglu123/Motion-Primitive-Planning/realrobot/recorded_data/repeatibility/wood/v50_iteration3.csv
timestamp, cmd_num, J1, J2, J3, J4, J5, J6
0.000382, -1, 11.3769, 13.615, 17.3378, -145.519, -97.9227, 142.516
0.004103, -1, 11.3769, 13.615, 17.3379, -145.519, -97.9228, 142.516
0.008283, -1, 11.3769, 13.615, 17.3379, -145.519, -97.9227, 142.516
0.029525, -1, 11.3769, 13.615, 17.3378, -145.519, -97.9227, 142.517
0.032357, -1, 11.3769, 13.615, 17.3379, -145.519, -97.9228, 142.517
0.035409, -1, 11.3769, 13.615, 17.3379, -145.519, -97.9228, 142.517
0.039643, -1, 11.3769, 13.615, 17.3379, -145.519, -97.9227, 142.517
0.047684, -1, 11.3769, 13.615, 17.3378, -145.519, -97.9227, 142.516
0.055643, -1, 11.3763, 13.615, 17.3378, -145.519, -97.9227, 142.516
0.206806, -1, 9.89212, 13.2154, 17.4333, -145.985, -97.7631, 139.818
0.208884, -1, 9.8146, 13.1947, 17.4383, -146.009, -97.7545, 139.678
0.210208, -1, 9.8146, 13.1947, 17.4383, -146.009, -97.7545, 139.678
0.21207, -1, 9.73683, 13.174, 17.4433, -146.033, -97.746, 139.539
0.21352, -1, 9.73683, 13.174, 17.4433, -146.033, -97.746, 139.539
0.214696, -1, 9.73683, 13.174, 17.4433, -146.033, -97.746, 139.539
0.216745, -1, 9.659, 13.1533, 17.4484, -146.057, -97.7374, 139.399
0.218872, -1, 9.659, 13.1533, 17.4484, -146.057, -97.7374, 139.399
0.221009, -1, 9.58129, 13.1327, 17.4534, -146.081, -97.7289, 139.259
0.22229, -1, 9.58129, 13.1327, 17.4534, -146.081, -97.7289, 139.259
0.225589, -1, 9.50378, 13.1121, 17.4584, -146.105, -97.7205, 139.12
0.226951, -1, 9.50378, 13.1121, 17.4584, -146.105, -97.7205, 139.12
0.229076, -1, 9.42641, 13.0915, 17.4633, -146.129, -97.7121, 138.98
0.230257, -1, 9.42641, 13.0915, 17.4633, -146.129, -97.7121, 138.98
0.232151, -1, 9.34911, 13.0709, 17.4682, -146.153, -97.7037, 138.84
0.234585, -1, 9.34911, 13.0709, 17.4682, -146.153, -97.7037, 138.84
0.236673, -1, 9.27188, 13.0504, 17.4732, -146.177, -97.6953, 138.701
0.237897, -1, 9.27188, 13.0504, 17.4732, -146.177, -97.6953, 138.701
0.23917, -1, 9.27188, 13.0504, 17.4732, -146.177, -97.6953, 138.701
0.241284, -1, 9.19479, 13.0298, 17.4782, -146.201, -97.6869, 138.561
0.24256, -1, 9.19479, 13.0298, 17.4782, -146.201, -97.6869, 138.561
0.244679, -1, 9.11784, 13.0093, 17.4832, -146.225, -97.6786, 138.421
0.252223, -1, 9.04099, 12.9683, 17.4933, -146.273, -97.6618, 138.141
0.253682, -1, 8.96416, 12.9683, 17.4933, -146.273, -97.6618, 138.141
0.256233, -1, 8.88731, 12.9478, 17.4984, -146.297, -97.6533, 138.001
0.264174, -1, 8.8105, 12.9273, 17.5034, -146.321, -97.6361, 137.722
0.271628, -1, 8.65734, 12.8863, 17.5135, -146.368, -97.6274, 137.582
0.279687, -1, 8.50461, 12.8452, 17.5236, -146.416, -97.6099, 137.302
0.287619, -1, 8.35184, 12.804, 17.5339, -146.465, -97.5925, 137.021
0.295641, -1, 8.19867, 12.7626, 17.544, -146.512, -97.5754, 136.742
0.303733, -1, 8.04502, 12.7211, 17.5542, -146.56, -97.5585, 136.462
0.311632, -1, 7.89084, 12.6796, 17.5644, -146.608, -97.5418, 136.182
0.319638, -1, 7.73607, 12.638, 17.5744, -146.656, -97.5251, 135.901
0.327675, -1, 7.58103, 12.5964, 17.5846, -146.704, -97.5084, 135.621
0.335634, -1, 7.42588, 12.5549, 17.5948, -146.752, -97.4914, 135.341
0.343628, -1, 7.27077, 12.5136, 17.6049, -146.8, -97.474, 135.061
0.351685, -1, 7.11556, 12.4721, 17.6152, -146.848, -97.4566, 134.781
0.359632, -1, 6.96025, 12.4309, 17.6255, -146.896, -97.4395, 134.501
0.367638, -1, 6.80511, 12.3898, 17.6358, -146.944, -97.4225, 134.22
0.375729, -1, 6.6503, 12.3486, 17.6462, -146.992, -97.4057, 133.94
0.383629, -1, 6.4957, 12.3075, 17.6566, -147.041, -97.389, 133.66
0.391626, -1, 6.3413, 12.2663, 17.6669, -147.089, -97.3722, 133.379
0.400625, -1, 6.18703, 12.2249, 17.6772, -147.137, -97.3552, 133.099
0.40764, -1, 6.03273, 12.1835, 17.6874, -147.185, -97.3379, 132.818
0.416616, -1, 5.87815, 12.1421, 17.6977, -147.233, -97.3203, 132.537
0.423621, -1, 5.72343, 12.1005, 17.7079, -147.281, -97.3028, 132.257
0.431632, -1, 5.56854, 12.0589, 17.7182, -147.329, -97.2857, 131.976
0.4397, -1, 5.41339, 12.0174, 17.7284, -147.377, -97.2687, 131.695
0.447673, -1, 5.25799, 11.9758, 17.7387, -147.425, -97.2519, 131.414
0.455631, -1, 5.10226, 11.9342, 17.749, -147.473, -97.2353, 131.133
0.463689, -1, 4.94638, 11.8927, 17.7595, -147.521, -97.2184, 130.852
0.471674, -1, 4.79057, 11.8512, 17.7699, -147.569, -97.2013, 130.571
0.479634, -1, 4.63472, 11.8098, 17.7803, -147.618, -97.1839, 130.29
0.48769, -1, 4.47887, 11.7684, 17.7907, -147.666, -97.1664, 130.009
0.495622, -1, 4.32322, 11.727, 17.801, -147.714, -97.1491, 129.728
0.503668, -1, 4.16798, 11.6857, 17.8114, -147.763, -97.1322, 129.447
0.511692, -1, 4.01311, 11.6444, 17.8217, -147.811, -97.1152, 129.166
0.519628, -1, 3.85857, 11.6031, 17.832, -147.859, -97.0984, 128.885
0.527631, -1, 3.7042, 11.5617, 17.8424, -147.908, -97.0816, 128.604
0.535692, -1, 3.54972, 11.5201, 17.8527, -147.956, -97.0646, 128.322
0.543634, -1, 3.39503, 11.4785, 17.863, -148.005, -97.0472, 128.041
0.551633, -1, 3.24007, 11.437, 17.8735, -148.053, -97.0297, 127.76
0.559689, -1, 3.08494, 11.3953, 17.8839, -148.101, -97.0122, 127.478
0.567726, -1, 2.92961, 11.3536, 17.8943, -148.149, -96.995, 127.196
0.575763, -1, 2.77399, 11.3119, 17.9046, -148.197, -96.9782, 126.915
0.583637, -1, 2.61797, 11.2703, 17.9148, -148.245, -96.9613, 126.633
0.591657, -1, 2.46169, 11.2286, 17.9253, -148.294, -96.9446, 126.352
0.599798, -1, 2.30509, 11.187, 17.9356, -148.342, -96.9278, 126.07
0.607713, -1, 2.1483, 11.1454, 17.946, -148.39, -96.9107, 125.788
0.615749, -1, 1.99155, 11.1037, 17.9564, -148.439, -96.8933, 125.506
0.624095, -1, 1.83495, 11.0622, 17.9667, -148.487, -96.8758, 125.224
0.631389, -1, 1.67847, 11.0206, 17.9771, -148.535, -96.8585, 124.942
0.639863, -1, 1.52228, 10.9789, 17.9876, -148.584, -96.8415, 124.66
0.647623, -1, 1.36627, 10.9373, 17.998, -148.633, -96.8246, 124.378
0.655691, -1, 1.21054, 10.8958, 18.0084, -148.681, -96.8078, 124.096
0.663655, -1, 1.05533, 10.8541, 18.0187, -148.729, -96.791, 123.814
0.803583, -1, -1.60084, 10.144, 18.1954, -149.554, -96.4999, 119.008
0.806237, -1, -1.679, 10.1231, 18.2006, -149.579, -96.4914, 118.866
0.809146, -1, -1.75702, 10.1022, 18.2059, -149.603, -96.4828, 118.724
0.810457, -1, -1.75702, 10.1022, 18.2059, -149.603, -96.4828, 118.724
0.811625, -1, -1.75702, 10.1022, 18.2059, -149.603, -96.4828, 118.724
0.813642, -1, -1.83487, 10.0813, 18.2111, -149.627, -96.4741, 118.583
0.814838, -1, -1.83487, 10.0813, 18.2111, -149.627, -96.4741, 118.583
0.817702, -1, -1.91261, 10.0604, 18.2163, -149.652, -96.4654, 118.441
0.819001, -1, -1.91261, 10.0604, 18.2163, -149.652, -96.4654, 118.441
0.821105, -1, -1.99028, 10.0395, 18.2215, -149.676, -96.4566, 118.299
0.822464, -1, -1.99028, 10.0395, 18.2215, -149.676, -96.4566, 118.299
0.823637, -1, -1.99028, 10.0395, 18.2215, -149.676, -96.4566, 118.299
0.825886, -1, -2.0679, 10.0186, 18.2267, -149.7, -96.4477, 118.157
0.827075, -1, -2.0679, 10.0186, 18.2267, -149.7, -96.4477, 118.157
0.829782, -1, -2.14548, 9.99769, 18.2319, -149.725, -96.4389, 118.016
0.835363, -1, -2.22307, 9.97681, 18.2371, -149.749, -96.4302, 117.874
0.837376, -1, -2.3007, 9.95592, 18.2422, -149.773, -96.4215, 117.732
0.838596, -1, -2.3007, 9.95592, 18.2422, -149.773, -96.4215, 117.732
0.84002, -1, -2.3007, 9.95592, 18.2422, -149.773, -96.4215, 117.732
0.841962, -1, -2.37838, 9.93499, 18.2474, -149.798, -96.4129, 117.591
0.843241, -1, -2.37838, 9.93499, 18.2474, -149.798, -96.4129, 117.591
0.845009, -1, -2.45616, 9.91402, 18.2527, -149.822, -96.4044, 117.449
0.849184, -1, -2.53401, 9.89305, 18.2579, -149.846, -96.396, 117.307
0.855621, -1, -2.61191, 9.8721, 18.2631, -149.87, -96.3876, 117.165
0.863658, -1, -2.76792, 9.83021, 18.2734, -149.919, -96.3708, 116.881
0.871597, -1, -2.92434, 9.7883, 18.2838, -149.967, -96.354, 116.598
0.879701, -1, -3.08116, 9.74641, 18.2941, -150.016, -96.337, 116.314
0.887667, -1, -3.23843, 9.70451, 18.3045, -150.065, -96.3196, 116.03
0.895602, -1, -3.39612, 9.66256, 18.315, -150.113, -96.3021, 115.746
0.904626, -1, -3.55404, 9.62059, 18.3255, -150.162, -96.2846, 115.462
0.911668, -1, -3.71185, 9.57873, 18.3359, -150.211, -96.2673, 115.178
0.920654, -1, -3.86981, 9.53681, 18.3463, -150.259, -96.2502, 114.894
0.927616, -1, -4.02782, 9.49481, 18.3566, -150.308, -96.2332, 114.61
0.935671, -1, -4.18566, 9.45295, 18.367, -150.357, -96.2163, 114.325
0.943605, -1, -4.34334, 9.41101, 18.3773, -150.406, -96.1992, 114.041
0.951651, -1, -4.50064, 9.36902, 18.3877, -150.455, -96.1818, 113.756
0.959731, -1, -4.65768, 9.32706, 18.398, -150.504, -96.1642, 113.472
0.967606, -1, -4.81428, 9.28506, 18.4084, -150.552, -96.1465, 113.187
0.975666, -1, -4.97054, 9.24301, 18.4189, -150.602, -96.129, 112.903
0.983668, -1, -5.1265, 9.20102, 18.4294, -150.65, -96.1118, 112.618
0.991601, -1, -5.28237, 9.15895, 18.4399, -150.698, -96.0948, 112.333
0.999687, -1, -5.43843, 9.11682, 18.4504, -150.748, -96.0779, 112.049
1.00767, -1, -5.59463, 9.07473, 18.4608, -150.796, -96.061, 111.764
1.0156, -1, -5.75109, 9.03266, 18.4712, -150.845, -96.0439, 111.479
1.024, -1, -5.90799, 8.99053, 18.4817, -150.894, -96.0265, 111.194
1.0316, -1, -6.06547, 8.9484, 18.492, -150.943, -96.0089, 110.909
1.03969, -1, -6.22346, 8.90631, 18.5023, -150.991, -95.9913, 110.624
1.0484, -1, -6.38174, 8.86422, 18.5126, -151.041, -95.9741, 110.339
1.0556, -1, -6.54021, 8.82217, 18.5229, -151.09, -95.9571, 110.054
1.06361, -1, -6.6988, 8.78008, 18.5334, -151.138, -95.9401, 109.768
1.07239, -1, -6.85755, 8.73799, 18.544, -151.188, -95.9232, 109.483
1.07967, -1, -7.01617, 8.69593, 18.5544, -151.237, -95.906, 109.197
1.08775, -1, -7.17466, 8.65386, 18.5649, -151.286, -95.8886, 108.912
1.09655, -1, -7.33294, 8.61177, 18.5753, -151.335, -95.8709, 108.626
1.10367, -1, -7.49076, 8.56955, 18.5857, -151.384, -95.8531, 108.341
1.11192, -1, -7.64845, 8.52733, 18.5961, -151.433, -95.8356, 108.055
1.12059, -1, -7.80577, 8.48516, 18.6065, -151.483, -95.8184, 107.769
1.12771, -1, -7.96261, 8.44298, 18.6169, -151.531, -95.8014, 107.484
1.13612, -1, -8.11928, 8.40066, 18.6273, -151.58, -95.7845, 107.198
1.14325, -1, -8.19757, 8.35839, 18.6377, -151.629, -95.7675, 106.912
1.15161, -1, -8.43258, 8.31609, 18.6483, -151.678, -95.7503, 106.626
1.16051, -1, -8.58955, 8.27375, 18.6588, -151.727, -95.7328, 106.34
1.16764, -1, -8.74687, 8.23154, 18.6693, -151.776, -95.715, 106.053
1.17564, -1, -8.90458, 8.18923, 18.6796, -151.825, -95.6974, 105.767
1.18455, -1, -9.0627, 8.14695, 18.69, -151.874, -95.6801, 105.481
1.19177, -1, -9.22131, 8.10475, 18.7004, -151.924, -95.6629, 105.194
1.19992, -1, -9.38019, 8.06253, 18.7108, -151.972, -95.6459, 104.908
1.20872, -1, -9.53932, 8.02023, 18.7213, -152.022, -95.6288, 104.621
1.21594, -1, -9.69856, 7.97807, 18.7318, -152.071, -95.6115, 104.335
1.22411, -1, -9.85788, 7.93594, 18.7422, -152.12, -95.594, 104.048
1.23291, -1, -10.0173, 7.89368, 18.7528, -152.17, -95.576, 103.761
1.24019, -1, -10.1766, 7.85134, 18.7634, -152.219, -95.5583, 103.474
1.24659, -1, -10.2562, 7.83015, 18.7687, -152.244, -95.5495, 103.331
1.25697, -1, -10.4943, 7.76653, 18.7846, -152.318, -95.5235, 102.9
1.26417, -1, -10.5735, 7.7453, 18.795, -152.367, -95.5065, 102.613
1.27059, -1, -10.7319, 7.7029, 18.8001, -152.392, -95.498, 102.47
1.28132, -1, -10.9687, 7.63914, 18.8159, -152.465, -95.4724, 102.039
1.28763, -1, -11.0474, 7.6179, 18.8211, -152.49, -95.4638, 101.896
1.2946, -1, -11.2048, 7.57549, 18.8315, -152.539, -95.4463, 101.608
1.30359, -1, -11.3621, 7.53304, 18.8419, -152.588, -95.4285, 101.321
1.31165, -1, -11.5197, 7.49059, 18.8524, -152.638, -95.4109, 101.034
1.31859, -1, -11.6774, 7.44818, 18.8629, -152.687, -95.3933, 100.746
1.32759, -1, -11.8356, 7.40578, 18.8735, -152.736, -95.3761, 100.458
1.33564, -1, -11.9941, 7.36341, 18.884, -152.786, -95.3589, 100.171
1.34359, -1, -12.1531, 7.32108, 18.8946, -152.835, -95.3417, 99.883
1.35159, -1, -12.3126, 7.27872, 18.905, -152.885, -95.3244, 99.5951
1.35971, -1, -12.4723, 7.23632, 18.9155, -152.934, -95.3069, 99.3071
1.36916, -1, -12.7123, 7.17281, 18.9313, -153.008, -95.28, 98.8753
1.37558, -1, -12.7923, 7.15162, 18.9366, -153.033, -95.2711, 98.7314
1.38259, -1, -12.9524, 7.10917, 18.9471, -153.083, -95.2534, 98.4432
1.39159, -1, -13.1124, 7.06663, 18.9576, -153.132, -95.236, 98.155
1.39966, -1, -13.2723, 7.02407, 18.9681, -153.182, -95.2188, 97.8671
1.40859, -1, -13.4317, 6.9815, 18.9787, -153.231, -95.2017, 97.5788
1.41559, -1, -13.591, 6.93878, 18.9893, -153.28, -95.1846, 97.2903
1.4246, -1, -13.7502, 6.89606, 18.9998, -153.33, -95.1673, 97.0016
1.43165, -1, -13.909, 6.85339, 19.0103, -153.379, -95.1496, 96.7132
1.43966, -1, -14.0672, 6.8107, 19.0207, -153.428, -95.1318, 96.4247
1.44758, -1, -14.2254, 6.76809, 19.0312, -153.478, -95.1141, 96.1358
1.45569, -1, -14.3836, 6.72546, 19.0417, -153.527, -95.0967, 95.8468
1.46359, -1, -14.542, 6.68279, 19.0521, -153.577, -95.0794, 95.5581
1.47159, -1, -14.7005, 6.64024, 19.0627, -153.627, -95.0623, 95.2691
1.47978, -1, -14.8596, 6.59774, 19.0732, -153.676, -95.0451, 94.9797
1.48758, -1, -15.0189, 6.55512, 19.0838, -153.725, -95.0277, 94.6906
1.49565, -1, -15.1786, 6.51251, 19.0946, -153.775, -95.01, 94.4016
1.50358, -1, -15.3387, 6.46999, 19.1052, -153.825, -94.992, 94.1124
1.51159, -1, -15.4992, 6.42738, 19.1158, -153.874, -94.9741, 93.823
1.51972, -1, -15.6601, 6.38474, 19.1264, -153.925, -94.9564, 93.534
1.52759, -1, -15.8208, 6.34207, 19.1369, -153.974, -94.9391, 93.2448
1.53559, -1, -15.9816, 6.29929, 19.1476, -154.024, -94.9219, 92.9553
1.54365, -1, -16.1423, 6.25647, 19.1581, -154.074, -94.9048, 92.6656
1.55159, -1, -16.3031, 6.21364, 19.1686, -154.123, -94.8876, 92.3761
1.55966, -1, -16.4636, 6.17069, 19.1791, -154.172, -94.8701, 92.0865
1.56765, -1, -16.6237, 6.12773, 19.1895, -154.222, -94.8523, 91.7964
1.57559, -1, -16.7836, 6.08486, 19.2001, -154.272, -94.8344, 91.5063
1.58359, -1, -16.943, 6.04189, 19.2107, -154.322, -94.8167, 91.2164
1.59165, -1, -17.1023, 5.99897, 19.2214, -154.372, -94.7992, 90.9264
1.59973, -1, -17.2613, 5.95611, 19.232, -154.421, -94.7819, 90.6362
1.60773, -1, -17.4204, 5.91329, 19.2425, -154.471, -94.7645, 90.3459
1.61567, -1, -17.5797, 5.87052, 19.2531, -154.521, -94.7471, 90.0557
1.62371, -1, -17.7391, 5.82779, 19.2637, -154.57, -94.7295, 89.7654
1.63175, -1, -17.8988, 5.78503, 19.2744, -154.62, -94.7116, 89.475
1.63976, -1, -18.0588, 5.74227, 19.285, -154.67, -94.6935, 89.1845
1.64782, -1, -18.2194, 5.69955, 19.2955, -154.72, -94.6755, 88.8942
1.65571, -1, -18.3804, 5.65677, 19.3061, -154.77, -94.6579, 88.6034
1.66361, -1, -18.5417, 5.61387, 19.3169, -154.82, -94.6406, 88.3124
1.67162, -1, -18.7033, 5.57093, 19.3275, -154.87, -94.6233, 88.0215
1.67982, -1, -18.8649, 5.52797, 19.3381, -154.92, -94.6061, 87.7307
1.6877, -1, -19.0265, 5.48497, 19.3486, -154.97, -94.5885, 87.4396
1.69594, -1, -19.1881, 5.44184, 19.3592, -155.02, -94.5708, 87.1482
1.70395, -1, -19.3495, 5.39873, 19.3698, -155.07, -94.5527, 86.857
1.71189, -1, -19.5107, 5.35558, 19.3803, -155.12, -94.5347, 86.5657
1.71999, -1, -19.6715, 5.31236, 19.3909, -155.169, -94.517, 86.2742
1.72814, -1, -19.8321, 5.26928, 19.4015, -155.22, -94.4995, 85.9824
1.73608, -1, -19.9924, 5.22615, 19.4121, -155.269, -94.482, 85.6909
1.7444, -1, -20.1524, 5.18301, 19.4228, -155.319, -94.4647, 85.3994
1.75305, -1, -20.3122, 5.14007, 19.4337, -155.37, -94.4472, 85.1076
1.76013, -1, -20.4722, 5.09714, 19.4445, -155.419, -94.4294, 84.8159
1.76823, -1, -20.6323, 5.05409, 19.4552, -155.47, -94.4113, 84.5243
1.777, -1, -20.7123, 5.03262, 19.4605, -155.495, -94.4023, 84.2325
1.78357, -1, -20.8729, 4.9898, 19.4712, -155.545, -94.3845, 84.0864
1.79168, -1, -21.0338, 4.94683, 19.4819, -155.595, -94.3669, 83.7943
1.79958, -1, -21.1951, 4.90383, 19.4925, -155.646, -94.3495, 83.5023
1.80757, -1, -21.357, 4.86078, 19.5031, -155.696, -94.3324, 83.2104
1.81568, -1, -21.5191, 4.8176, 19.5137, -155.746, -94.3151, 82.9179
1.82358, -1, -21.6813, 4.7744, 19.5243, -155.797, -94.2977, 82.6255
1.83162, -1, -21.8436, 4.73122, 19.5351, -155.847, -94.2799, 82.3333
1.83957, -1, -22.0061, 4.68784, 19.5458, -155.896, -94.2619, 82.0406
1.84758, -1, -22.1685, 4.64447, 19.5566, -155.947, -94.244, 81.7479
1.85564, -1, -22.3309, 4.60114, 19.5672, -155.997, -94.2263, 81.4551
1.86357, -1, -22.493, 4.55776, 19.5778, -156.047, -94.2088, 81.1626
1.87158, -1, -22.6548, 4.51437, 19.5885, -156.098, -94.1914, 80.8698
1.87964, -1, -22.8163, 4.47099, 19.5991, -156.147, -94.174, 80.5768
1.88757, -1, -22.9774, 4.42765, 19.6098, -156.198, -94.1563, 80.2838
1.89558, -1, -23.1384, 4.38437, 19.6205, -156.248, -94.1383, 79.9909
1.90364, -1, -23.2993, 4.3411, 19.6312, -156.298, -94.12, 79.6976
1.91262, -1, -23.4601, 4.2979, 19.642, -156.349, -94.1018, 79.4043
1.91957, -1, -23.621, 4.25466, 19.6528, -156.4, -94.0839, 79.111
1.92858, -1, -23.7822, 4.21148, 19.6636, -156.45, -94.0662, 78.8177
1.93558, -1, -23.9436, 4.16828, 19.6744, -156.5, -94.0487, 78.5241
1.94357, -1, -24.1054, 4.12493, 19.685, -156.551, -94.0314, 78.2304
1.95157, -1, -24.2676, 4.08157, 19.6957, -156.601, -94.0138, 77.9368
1.9596, -1, -24.4303, 4.0382, 19.7064, -156.652, -93.9961, 77.6429
1.96765, -1, -24.5933, 3.99472, 19.7169, -156.702, -93.9779, 77.3488
1.97558, -1, -24.7565, 3.95116, 19.7276, -156.752, -93.9598, 77.0545
1.98363, -1, -24.9198, 3.90761, 19.7382, -156.803, -93.9419, 76.7604
1.99164, -1, -25.0833, 3.86404, 19.749, -156.853, -93.9242, 76.4663
1.99957, -1, -25.2465, 3.82044, 19.7599, -156.903, -93.9067, 76.172
2.00757, -1, -25.4093, 3.7769, 19.7707, -156.954, -93.8893, 75.8777
2.01585, -1, -25.5721, 3.73328, 19.7815, -157.004, -93.8716, 75.5835
2.02357, -1, -25.7346, 3.68966, 19.7922, -157.054, -93.8537, 75.289
2.03156, -1, -25.897, 3.64624, 19.8029, -157.105, -93.8354, 74.9943
2.04045, -1, -26.0591, 3.60275, 19.8137, -157.155, -93.8171, 74.6997
2.04757, -1, -26.2209, 3.55925, 19.8244, -157.206, -93.7989, 74.4052
2.05559, -1, -26.3825, 3.51591, 19.8352, -157.257, -93.7811, 74.1104
2.06441, -1, -26.5442, 3.4725, 19.8459, -157.307, -93.7634, 73.8153
2.07157, -1, -26.7061, 3.42907, 19.8566, -157.358, -93.7459, 73.5205
2.07957, -1, -26.8684, 3.38567, 19.8674, -157.409, -93.7283, 73.2253
2.09192, -1, -27.1125, 3.32035, 19.8837, -157.485, -93.7013, 72.7824
2.09559, -1, -27.194, 3.29856, 19.8891, -157.51, -93.6922, 72.6347
2.10369, -1, -27.3573, 3.25497, 19.8998, -157.561, -93.6739, 72.3395
2.11167, -1, -27.5211, 3.21124, 19.9105, -157.611, -93.6558, 72.0442
2.11973, -1, -27.685, 3.16753, 19.9213, -157.662, -93.6379, 71.7486
2.12776, -1, -27.8491, 3.1239, 19.932, -157.712, -93.6203, 71.4529
2.13567, -1, -28.0132, 3.08021, 19.9428, -157.763, -93.6026, 71.1574
2.14367, -1, -28.1772, 3.0365, 19.9536, -157.814, -93.5849, 70.8617
2.15182, -1, -28.3413, 2.99278, 19.9643, -157.864, -93.567, 70.5657
2.15957, -1, -28.5053, 2.94908, 19.9752, -157.915, -93.5487, 70.2698
2.1676, -1, -28.6689, 2.90546, 19.986, -157.966, -93.5302, 69.9739
2.17566, -1, -28.8323, 2.86178, 19.9968, -158.017, -93.512, 69.6778
2.18367, -1, -28.9953, 2.81813, 20.0077, -158.068, -93.494, 69.3814
2.19177, -1, -29.1579, 2.77453, 20.0183, -158.119, -93.4763, 69.0852
2.19981, -1, -29.3207, 2.7309, 20.0291, -158.17, -93.4587, 68.7886
2.20784, -1, -29.4835, 2.68729, 20.0399, -158.221, -93.441, 68.4919
2.21598, -1, -29.6463, 2.64359, 20.0507, -158.272, -93.4231, 68.1949
2.22393, -1, -29.8094, 2.59982, 20.0615, -158.323, -93.4049, 67.8982
2.23061, -1, -29.891, 2.57795, 20.0669, -158.348, -93.3957, 67.75
2.24018, -1, -30.136, 2.51228, 20.0832, -158.425, -93.3682, 67.3046
2.24814, -1, -30.2999, 2.46834, 20.0942, -158.475, -93.3503, 67.0076
2.25612, -1, -30.4643, 2.42442, 20.1051, -158.527, -93.3325, 66.7108
2.2642, -1, -30.6289, 2.38048, 20.1159, -158.577, -93.3148, 66.4137
2.27208, -1, -30.7114, 2.35849, 20.1213, -158.628, -93.2971, 66.1164
2.28006, -1, -30.8764, 2.31456, 20.1321, -158.654, -93.2881, 65.9676
2.28817, -1, -31.0414, 2.27062, 20.143, -158.705, -93.27, 65.6705
2.29559, -1, -31.2063, 2.22659, 20.1539, -158.755, -93.2515, 65.3733
2.30356, -1, -31.3712, 2.18273, 20.1646, -158.807, -93.233, 65.0757
2.31163, -1, -31.5359, 2.13888, 20.1754, -158.858, -93.2148, 64.778
2.31961, -1, -31.7005, 2.09487, 20.1862, -158.909, -93.1969, 64.4806
2.32757, -1, -31.8647, 2.05098, 20.1971, -158.961, -93.1793, 64.1827
2.3356, -1, -32.0287, 2.00713, 20.208, -159.011, -93.1617, 63.8846
2.34355, -1, -32.1924, 1.96316, 20.219, -159.062, -93.144, 63.5867
2.35155, -1, -32.3561, 1.91928, 20.2299, -159.114, -93.1259, 63.2888
2.35956, -1, -32.5197, 1.87529, 20.2408, -159.165, -93.1076, 62.9907
2.36756, -1, -32.6835, 1.83122, 20.2517, -159.216, -93.0892, 62.6923
2.37557, -1, -32.8474, 1.78722, 20.2626, -159.268, -93.0711, 62.3942
2.38356, -1, -33.0115, 1.74308, 20.2734, -159.318, -93.0531, 62.0959
2.39159, -1, -33.1761, 1.69889, 20.2843, -159.37, -93.0353, 61.7973
2.39957, -1, -33.341, 1.65475, 20.2951, -159.421, -93.0176, 61.4987
2.40756, -1, -33.5063, 1.61056, 20.306, -159.472, -92.9997, 61.2002
2.4156, -1, -33.672, 1.56636, 20.3171, -159.524, -92.9814, 60.9016
2.42357, -1, -33.8377, 1.52219, 20.328, -159.575, -92.9629, 60.6026
2.4316, -1, -34.0035, 1.47799, 20.3389, -159.626, -92.9442, 60.3037
2.44066, -1, -34.1694, 1.43385, 20.3497, -159.677, -92.9258, 60.0049
2.44758, -1, -34.3354, 1.38971, 20.3606, -159.729, -92.9078, 59.7055
2.45566, -1, -34.5012, 1.34557, 20.3715, -159.78, -92.8899, 59.4059
2.46358, -1, -34.6668, 1.30145, 20.3824, -159.832, -92.8722, 59.1065
2.47156, -1, -34.832, 1.25732, 20.3933, -159.883, -92.8543, 58.8072
2.47954, -1, -34.997, 1.21319, 20.4042, -159.935, -92.8362, 58.5076
2.48762, -1, -35.1618, 1.16905, 20.4151, -159.986, -92.8177, 58.2078
2.49572, -1, -35.3263, 1.1248, 20.4262, -160.037, -92.7991, 57.9082
2.50355, -1, -35.4904, 1.08067, 20.4374, -160.089, -92.7808, 57.6086
2.51155, -1, -35.6529, 1.03689, 20.4486, -160.14, -92.7628, 57.3088
2.51962, -1, -35.8127, 0.993566, 20.46, -160.191, -92.7448, 57.01
2.52755, -1, -35.9688, 0.951324, 20.4717, -160.242, -92.7271, 56.7143
2.53555, -1, -36.1199, 0.910683, 20.4837, -160.291, -92.7097, 56.4244
2.54362, -1, -36.2636, 0.872193, 20.4956, -160.339, -92.6926, 56.1441
2.55155, -1, -36.3979, 0.836515, 20.5072, -160.384, -92.676, 55.8795
2.55954, -1, -36.521, 0.80396, 20.5178, -160.425, -92.6607, 55.6373
2.56762, -1, -36.6315, 0.774714, 20.5271, -160.461, -92.6472, 55.4225
2.57555, -1, -36.7277, 0.749293, 20.5347, -160.492, -92.6359, 55.2405
2.58356, -1, -36.8092, 0.727623, 20.54, -160.517, -92.627, 55.0935
2.59162, -1, -36.8768, 0.70966, 20.5431, -160.537, -92.6202, 54.9814
2.59957, -1, -36.9314, 0.695272, 20.5445, -160.551, -92.6156, 54.9014
2.60761, -1, -36.9733, 0.684252, 20.5449, -160.56, -92.6126, 54.8468
2.61584, -1, -37.004, 0.676127, 20.5446, -160.566, -92.6108, 54.8134
2.62373, -1, -37.0252, 0.670529, 20.544, -160.569, -92.6098, 54.7944
2.63168, -1, -37.0385, 0.667132, 20.5436, -160.571, -92.6093, 54.7846
2.63968, 2, -37.0459, 0.665323, 20.5434, -160.572, -92.6091, 54.78
2.64766, 2, -37.0486, 0.664484, 20.5433, -160.573, -92.6089, 54.7779
2.65571, 2, -37.0487, 0.664145, 20.5432, -160.573, -92.6089, 54.777
2.66379, 2, -37.0482, 0.664004, 20.5432, -160.573, -92.6089, 54.7766
2.67157, 2, -37.048, 0.663957, 20.5431, -160.573, -92.6089, 54.7765
2.67959, 2, -37.0483, 0.663917, 20.5431, -160.573, -92.6089, 54.7766
2.68778, 2, -37.0493, 0.663897, 20.5431, -160.573, -92.6089, 54.7767
2.69568, 2, -37.0503, 0.663836, 20.543, -160.573, -92.6089, 54.7769
2.70408, 2, -37.0516, 0.663678, 20.5428, -160.573, -92.609, 54.7772
2.71219, 2, -37.053, 0.663495, 20.5427, -160.573, -92.609, 54.7774
2.71988, 2, -37.0543, 0.663289, 20.5425, -160.573, -92.6091, 54.7777
2.72659, 2, -37.0548, 0.663188, 20.5424, -160.573, -92.6091, 54.7778
2.73611, 2, -37.0558, 0.663011, 20.5422, -160.573, -92.6092, 54.7783
2.74406, 2, -37.0558, 0.662986, 20.542, -160.573, -92.6092, 54.7786
2.75248, 2, -37.0552, 0.663007, 20.5419, -160.573, -92.6092, 54.7789
2.76058, 2, -37.0542, 0.663063, 20.5418, -160.573, -92.6092, 54.7793
2.7681, 2, -37.0538, 0.663115, 20.5418, -160.573, -92.6092, 54.7795
2.77633, 2, -37.0516, 0.663199, 20.5417, -160.573, -92.6093, 54.7798
2.78423, 2, -37.0508, 0.663267, 20.5417, -160.573, -92.6093, 54.78
2.79154, 2, -37.0494, 0.663403, 20.5416, -160.573, -92.6093, 54.7801
2.80044, 2, -37.0484, 0.663468, 20.5415, -160.573, -92.6094, 54.7802
2.80758, 2, -37.0479, 0.663456, 20.5415, -160.573, -92.6094, 54.7803
2.81554, 2, -37.0477, 0.663442, 20.5415, -160.573, -92.6094, 54.7804
2.82361, 2, -37.0478, 0.663399, 20.5415, -160.573, -92.6095, 54.7804
2.83159, 2, -37.048, 0.663336, 20.5415, -160.573, -92.6094, 54.7805
2.83953, 2, -37.0483, 0.663307, 20.5415, -160.573, -92.6095, 54.7805
2.84753, 2, -37.0489, 0.663275, 20.5414, -160.573, -92.6095, 54.7805
2.85558, 2, -37.0497, 0.663255, 20.5414, -160.573, -92.6095, 54.7806
2.86355, 2, -37.0506, 0.663258, 20.5414, -160.573, -92.6095, 54.7806
2.87153, 2, -37.0513, 0.663266, 20.5414, -160.573, -92.6095, 54.7806
2.87959, 2, -37.0517, 0.663294, 20.5414, -160.573, -92.6095, 54.7806
2.88754, 2, -37.0519, 0.663317, 20.5414, -160.573, -92.6095, 54.7807
2.89553, 2, -37.0519, 0.663324, 20.5414, -160.573, -92.6095, 54.7807
2.90361, 2, -37.0518, 0.663331, 20.5414, -160.573, -92.6096, 54.7807
2.91153, 2, -37.0514, 0.663331, 20.5414, -160.573, -92.6096, 54.7808
2.92149, 2, -37.0509, 0.663298, 20.5414, -160.573, -92.6095, 54.7808
2.9276, 2, -37.0508, 0.663293, 20.5414, -160.573, -92.6095, 54.7809
2.93662, 2, -37.0506, 0.663288, 20.5414, -160.573, -92.6096, 54.7809
2.94355, 2, -37.0505, 0.663285, 20.5414, -160.573, -92.6096, 54.7808
2.9516, 2, -37.0505, 0.663284, 20.5414, -160.573, -92.6096, 54.7808
2.95954, 2, -37.0505, 0.663283, 20.5414, -160.573, -92.6096, 54.7808
2.96757, 2, -37.0505, 0.663283, 20.5413, -160.573, -92.6095, 54.7809
2.9756, 2, -37.0505, 0.663283, 20.5413, -160.573, -92.6096, 54.781
2.98354, 2, -37.0506, 0.663283, 20.5413, -160.573, -92.6096, 54.781
2.9916, 2, -37.0507, 0.663283, 20.5413, -160.573, -92.6097, 54.7811
2.99959, 2, -37.051, 0.663312, 20.5413, -160.573, -92.6097, 54.7812
3.00753, 2, -37.0511, 0.663333, 20.5413, -160.573, -92.6097, 54.7813
3.01553, 2, -37.0512, 0.663324, 20.5413, -160.573, -92.6096, 54.7813
3.02361, 2, -37.0512, 0.663328, 20.5413, -160.573, -92.6096, 54.7812
3.03153, 2, -37.0511, 0.663303, 20.5413, -160.573, -92.6097, 54.7813
3.03953, 2, -37.0511, 0.663292, 20.5413, -160.573, -92.6097, 54.7813
3.0476, 2, -37.0511, 0.663287, 20.5413, -160.573, -92.6097, 54.7813
3.05563, 2, -37.051, 0.663285, 20.5412, -160.572, -92.6097, 54.7813
3.06354, 2, -37.051, 0.663276, 20.5412, -160.572, -92.6097, 54.7814
3.07159, 2, -37.051, 0.663275, 20.5412, -160.572, -92.6097, 54.7815
3.07953, 2, -37.051, 0.663279, 20.5412, -160.572, -92.6098, 54.7815
3.08753, 2, -37.051, 0.663292, 20.5412, -160.572, -92.6098, 54.7815
3.0956, 2, -37.0509, 0.663295, 20.5412, -160.572, -92.6098, 54.7816
3.10358, 2, -37.0509, 0.663318, 20.5412, -160.572, -92.6098, 54.7816
3.1116, 2, -37.0509, 0.663325, 20.5412, -160.572, -92.6098, 54.7816
3.11968, 2, -37.0509, 0.663344, 20.5412, -160.572, -92.6098, 54.7817
3.12762, 2, -37.0509, 0.663348, 20.5412, -160.572, -92.6098, 54.7817
3.13566, 2, -37.0509, 0.663331, 20.5412, -160.572, -92.6098, 54.7817
3.14371, 2, -37.0508, 0.663342, 20.5412, -160.572, -92.6098, 54.7817
3.15163, 2, -37.0508, 0.663347, 20.5412, -160.572, -92.6098, 54.7817
3.15969, 2, -37.0508, 0.66332, 20.5412, -160.572, -92.6098, 54.7818
3.1676, 2, -37.0508, 0.6633, 20.5412, -160.572, -92.6099, 54.7818
3.17566, 2, -37.0508, 0.663291, 20.5411, -160.572, -92.6099, 54.7818
3.18358, 2, -37.0508, 0.663286, 20.5411, -160.572, -92.6099, 54.7818
3.19174, 2, -37.0508, 0.663285, 20.5411, -160.572, -92.6099, 54.7818
3.19967, 2, -37.0507, 0.663284, 20.5411, -160.572, -92.6098, 54.7819
3.20773, 2, -37.0507, 0.663294, 20.5411, -160.572, -92.6098, 54.782
3.21596, 2, -37.0507, 0.663325, 20.5411, -160.572, -92.6098, 54.782
3.22389, 2, -37.0507, 0.663339, 20.5411, -160.572, -92.6098, 54.782
3.23192, 2, -37.0507, 0.663327, 20.5411, -160.572, -92.6098, 54.782
3.24012, 2, -37.0507, 0.663329, 20.5411, -160.572, -92.6099, 54.782
3.24806, 2, -37.0507, 0.663333, 20.5411, -160.572, -92.6099, 54.7821
3.25607, 2, -37.0506, 0.663313, 20.5411, -160.572, -92.6099, 54.7821
3.26432, 2, -37.0506, 0.663315, 20.5411, -160.572, -92.6099, 54.7822
3.27208, 2, -37.0506, 0.663309, 20.5411, -160.572, -92.6099, 54.7822
3.28006, 2, -37.0506, 0.663322, 20.5411, -160.572, -92.6099, 54.7822
3.28823, 2, -37.0506, 0.663327, 20.5411, -160.572, -92.6099, 54.7822
3.29552, 2, -37.0506, 0.663303, 20.541, -160.572, -92.6099, 54.7822
3.30357, 2, -37.0505, 0.663292, 20.541, -160.572, -92.6099, 54.7823
3.31159, 2, -37.0505, 0.663306, 20.541, -160.572, -92.6099, 54.7823
3.31952, 2, -37.0505, 0.663312, 20.541, -160.572, -92.6099, 54.7822
3.32757, 2, -37.0506, 0.663333, 20.541, -160.572, -92.6099, 54.7823
3.33557, 2, -37.0505, 0.663347, 20.541, -160.572, -92.6099, 54.7823
3.34353, 2, -37.0505, 0.663357, 20.541, -160.572, -92.6099, 54.7824
3.35152, 2, -37.0504, 0.663358, 20.541, -160.572, -92.6099, 54.7823
3.35957, 2, -37.0504, 0.663354, 20.541, -160.572, -92.6099, 54.7823
3.36752, 2, -37.0504, 0.663323, 20.541, -160.572, -92.6099, 54.7824
3.37552, 2, -37.0504, 0.663331, 20.541, -160.572, -92.6099, 54.7825
3.38358, 2, -37.0505, 0.663342, 20.541, -160.572, -92.6099, 54.7825
3.39152, 2, -37.0505, 0.663336, 20.541, -160.572, -92.6099, 54.7825
3.39951, 2, -37.0504, 0.663307, 20.541, -160.572, -92.6099, 54.7824
3.40922, 2, -37.0504, 0.663305, 20.541, -160.572, -92.6099, 54.7825
3.41551, 2, -37.0504, 0.66333, 20.5409, -160.572, -92.6099, 54.7825
3.42452, 2, -37.0504, 0.66333, 20.5409, -160.572, -92.6099, 54.7825
3.43159, 2, -37.0504, 0.663354, 20.5409, -160.572, -92.6099, 54.7825
3.43951, 2, -37.0503, 0.663357, 20.5409, -160.572, -92.61, 54.7825
3.44752, 2, -37.0503, 0.663343, 20.5409, -160.572, -92.61, 54.7825
3.45559, 2, -37.0503, 0.663352, 20.5409, -160.572, -92.61, 54.7825
3.46353, 2, -37.0503, 0.663359, 20.5409, -160.572, -92.61, 54.7825
3.47155, 2, -37.0503, 0.663367, 20.5409, -160.572, -92.61, 54.7825
3.47959, 2, -37.0503, 0.663345, 20.5409, -160.572, -92.61, 54.7825
3.48751, 2, -37.0503, 0.663348, 20.5409, -160.572, -92.61, 54.7825
3.49558, 2, -37.0502, 0.663339, 20.5409, -160.572, -92.61, 54.7825
3.5036, 2, -37.0502, 0.663319, 20.5409, -160.572, -92.6099, 54.7825
3.51151, 2, -37.0502, 0.663336, 20.5409, -160.572, -92.61, 54.7825
3.51951, 2, -37.0502, 0.663344, 20.5408, -160.572, -92.61, 54.7825
3.52758, 2, -37.0502, 0.663329, 20.5408, -160.572, -92.61, 54.7825
3.53551, 2, -37.0502, 0.663353, 20.5409, -160.572, -92.61, 54.7825
3.54352, 2, -37.0502, 0.663359, 20.5408, -160.572, -92.6101, 54.7825
3.55158, 2, -37.0501, 0.66336, 20.5408, -160.572, -92.61, 54.7826
3.55953, 2, -37.0501, 0.663362, 20.5408, -160.572, -92.61, 54.7826
3.56752, 2, -37.0501, 0.663373, 20.5408, -160.572, -92.61, 54.7826
3.57559, 2, -37.05, 0.66335, 20.5408, -160.572, -92.61, 54.7826
3.58353, 2, -37.05, 0.663368, 20.5408, -160.572, -92.61, 54.7826
3.59151, 2, -37.05, 0.663348, 20.5408, -160.572, -92.61, 54.7826
3.59959, 2, -37.05, 0.663342, 20.5408, -160.572, -92.61, 54.7826
3.60755, 2, -37.05, 0.663336, 20.5408, -160.572, -92.61, 54.7826
3.61559, 2, -37.05, 0.663336, 20.5408, -160.572, -92.61, 54.7827
3.62369, 2, -37.0499, 0.663352, 20.5408, -160.572, -92.61, 54.7827
3.63161, 2, -37.0499, 0.663356, 20.5408, -160.572, -92.6101, 54.7827
3.63979, 2, -37.0499, 0.663353, 20.5408, -160.572, -92.61, 54.7827
3.64799, 2, -37.0498, 0.663352, 20.5408, -160.572, -92.61, 54.7827
3.65557, 2, -37.0498, 0.663371, 20.5408, -160.572, -92.61, 54.7828
3.66369, 2, -37.0498, 0.663365, 20.5407, -160.572, -92.61, 54.7828
3.6716, 2, -37.0497, 0.663377, 20.5407, -160.572, -92.61, 54.7828
3.6801, 2, -37.0497, 0.663387, 20.5407, -160.572, -92.61, 54.7827
3.68758, 2, -37.0497, 0.663373, 20.5407, -160.572, -92.6101, 54.7827
3.69567, 2, -37.0497, 0.66338, 20.5407, -160.572, -92.61, 54.7828
3.70403, 4, -37.0497, 0.663377, 20.5407, -160.572, -92.61, 54.7828
3.71252, 4, -37.0496, 0.663387, 20.5407, -160.572, -92.61, 54.7828
3.71988, 4, -37.0496, 0.663374, 20.5407, -160.572, -92.61, 54.7829
3.7283, 4, -37.0496, 0.663373, 20.5407, -160.572, -92.6101, 54.7829
3.73591, 4, -37.0496, 0.663366, 20.5407, -160.572, -92.6101, 54.7829
3.74405, 4, -37.0495, 0.66337, 20.5407, -160.572, -92.6101, 54.7829
3.75213, 4, -37.0495, 0.663372, 20.5406, -160.572, -92.6101, 54.7829
3.76006, 4, -37.0495, 0.66338, 20.5406, -160.572, -92.6101, 54.7828
3.7681, 4, -37.0494, 0.663389, 20.5406, -160.571, -92.6101, 54.7828
3.7764, 4, -37.0494, 0.663391, 20.5406, -160.571, -92.6101, 54.7828
3.78403, 4, -37.0494, 0.663394, 20.5406, -160.571, -92.6101, 54.7828
3.79206, 4, -37.0494, 0.663395, 20.5406, -160.571, -92.6101, 54.7828
3.7995, 4, -37.0494, 0.663388, 20.5406, -160.571, -92.6101, 54.7828
3.80827, 4, -37.0493, 0.663388, 20.5406, -160.571, -92.6101, 54.7829
3.83399, 4, -37.0493, 0.663366, 20.5406, -160.571, -92.6102, 54.7829
3.83525, 4, -37.0493, 0.663366, 20.5406, -160.571, -92.6102, 54.7829
3.83729, 4, -37.0493, 0.663368, 20.5406, -160.571, -92.6102, 54.7829
3.83952, 4, -37.0493, 0.663368, 20.5406, -160.571, -92.6102, 54.7829
3.8475, 4, -37.0492, 0.663383, 20.5406, -160.571, -92.6101, 54.7829
3.8555, 4, -37.0492, 0.663378, 20.5406, -160.571, -92.6101, 54.7829
3.86497, 4, -37.0492, 0.663403, 20.5406, -160.571, -92.6101, 54.7829
3.87151, 4, -37.049, 0.663375, 20.5406, -160.571, -92.6101, 54.7829
3.87951, 4, -37.0478, 0.663119, 20.5406, -160.571, -92.6101, 54.7829
3.88907, 4, -37.043, 0.661454, 20.541, -160.571, -92.6101, 54.7829
3.8955, 4, -37.0407, 0.660446, 20.5414, -160.571, -92.6102, 54.7829
3.9035, 4, -37.0357, 0.657911, 20.5428, -160.571, -92.6102, 54.7829
3.91157, 4, -37.0302, 0.654612, 20.5453, -160.571, -92.6101, 54.7828
3.92177, 4, -37.02, 0.647579, 20.5522, -160.569, -92.6101, 54.7828
3.92749, 5, -37.0163, 0.644724, 20.5554, -160.569, -92.6101, 54.7828
3.93558, 5, -37.0088, 0.638343, 20.5627, -160.567, -92.6101, 54.7828
3.94457, 5, -37.0009, 0.631127, 20.5713, -160.565, -92.61, 54.7828
3.95149, 5, -36.9915, 0.62274, 20.5808, -160.563, -92.61, 54.7828
3.95951, 5, -36.9805, 0.613171, 20.5911, -160.561, -92.6099, 54.7827
3.9675, 5, -36.9684, 0.603042, 20.6017, -160.559, -92.6098, 54.7827
3.9756, 5, -36.9554, 0.592835, 20.6126, -160.557, -92.6097, 54.7826
3.9835, 5, -36.942, 0.582393, 20.6235, -160.554, -92.6096, 54.7825
3.9915, 5, -36.9284, 0.571676, 20.6345, -160.552, -92.6096, 54.7825
3.99963, 5, -36.9147, 0.560869, 20.6456, -160.55, -92.6094, 54.7825
4.0075, 5, -36.9012, 0.549886, 20.6568, -160.547, -92.6093, 54.7824
4.01552, 5, -36.8876, 0.539011, 20.6679, -160.545, -92.6092, 54.7823
4.02357, 5, -36.8741, 0.528342, 20.679, -160.543, -92.6092, 54.7823
4.0315, 5, -36.8606, 0.517671, 20.6901, -160.54, -92.609, 54.7822
4.0395, 5, -36.8469, 0.506957, 20.7014, -160.538, -92.6089, 54.7821
4.04756, 5, -36.8331, 0.496117, 20.7127, -160.535, -92.6086, 54.782
4.0555, 5, -36.8193, 0.485266, 20.7239, -160.533, -92.6084, 54.7819
4.06356, 5, -36.8055, 0.474631, 20.7352, -160.53, -92.6081, 54.7817
4.07155, 5, -36.792, 0.464066, 20.7465, -160.527, -92.6078, 54.7816
4.07949, 5, -36.7788, 0.453394, 20.7581, -160.525, -92.6075, 54.7815
4.08758, 5, -36.7654, 0.442599, 20.7695, -160.522, -92.6072, 54.7814
4.09551, 5, -36.7519, 0.431631, 20.781, -160.52, -92.6068, 54.7813
4.10351, 5, -36.7382, 0.420617, 20.7923, -160.517, -92.6064, 54.7813
4.11173, 5, -36.7242, 0.409812, 20.8036, -160.515, -92.606, 54.7812
4.11958, 5, -36.7103, 0.39902, 20.8149, -160.512, -92.6057, 54.7811
4.12759, 5, -36.6965, 0.388137, 20.8262, -160.509, -92.6053, 54.7811
4.1359, 5, -36.6828, 0.377163, 20.8375, -160.507, -92.6049, 54.781
4.14364, 5, -36.6692, 0.366088, 20.8488, -160.504, -92.6045, 54.781
4.15162, 5, -36.6556, 0.355134, 20.8602, -160.502, -92.6041, 54.7809
4.1601, 5, -36.6418, 0.344423, 20.8717, -160.499, -92.6037, 54.7808
4.16762, 5, -36.6281, 0.333688, 20.8831, -160.497, -92.6032, 54.7807
4.17553, 5, -36.6145, 0.322964, 20.8945, -160.494, -92.6028, 54.7807
4.18432, 5, -36.6009, 0.312091, 20.9058, -160.492, -92.6025, 54.7806
4.1916, 5, -36.5873, 0.301118, 20.9172, -160.489, -92.6021, 54.7806
4.19963, 5, -36.5737, 0.290339, 20.9286, -160.487, -92.6017, 54.7805
4.2085, 5, -36.56, 0.279696, 20.9399, -160.485, -92.6013, 54.7803
4.21577, 5, -36.5464, 0.268885, 20.9512, -160.482, -92.601, 54.7802
4.22391, 5, -36.5326, 0.258034, 20.9625, -160.48, -92.6006, 54.78
4.23271, 5, -36.5188, 0.247026, 20.9739, -160.478, -92.6002, 54.7798
4.23992, 5, -36.505, 0.236012, 20.9853, -160.475, -92.5998, 54.7795
4.24808, 5, -36.4911, 0.225244, 20.9966, -160.473, -92.5994, 54.7793
4.25682, 5, -36.4774, 0.214481, 21.0079, -160.471, -92.599, 54.779
4.26406, 5, -36.4638, 0.203701, 21.0191, -160.469, -92.5987, 54.7788
4.27211, 5, -36.4501, 0.192909, 21.0304, -160.467, -92.5983, 54.7784
4.28094, 5, -36.4433, 0.18743, 21.036, -160.464, -92.5979, 54.778
4.28805, 5, -36.4295, 0.176465, 21.0473, -160.463, -92.5978, 54.7776
4.29553, 5, -36.4156, 0.165788, 21.0585, -160.461, -92.5974, 54.7774
4.30349, 5, -36.4017, 0.155147, 21.0697, -160.459, -92.5971, 54.777
4.31152, 5, -36.388, 0.144413, 21.081, -160.457, -92.5967, 54.7766
4.31954, 5, -36.3743, 0.133654, 21.0924, -160.455, -92.5964, 54.7762
4.32749, 5, -36.3607, 0.122721, 21.1038, -160.452, -92.5961, 54.7758
4.33554, 5, -36.347, 0.111813, 21.1151, -160.45, -92.5957, 54.7753
4.34349, 5, -36.3332, 0.101151, 21.1263, -160.448, -92.5954, 54.7749
4.35148, 5, -36.3194, 0.0905182, 21.1375, -160.446, -92.595, 54.7745
4.35953, 5, -36.3057, 0.0798163, 21.1488, -160.443, -92.5947, 54.7741
4.36749, 5, -36.292, 0.0690596, 21.1599, -160.441, -92.5944, 54.7736
4.37548, 5, -36.2783, 0.0581478, 21.1711, -160.439, -92.5941, 54.7732
4.38355, 5, -36.2645, 0.0473211, 21.1822, -160.436, -92.5937, 54.7728
4.39148, 5, -36.2506, 0.0366796, 21.1934, -160.434, -92.5934, 54.7724
4.39948, 5, -36.2367, 0.0260168, 21.2047, -160.432, -92.593, 54.772
4.40755, 5, -36.2228, 0.0153071, 21.216, -160.43, -92.5927, 54.7717
4.4171, 5, -36.209, 0.0045189, 21.2271, -160.427, -92.5924, 54.7712
4.42356, 5, -36.1952, -0.00636359, 21.2382, -160.425, -92.5921, 54.7711
4.43254, 5, -36.1814, -0.0171229, 21.2494, -160.423, -92.5918, 54.7708
4.43949, 5, -36.1677, -0.0277125, 21.2606, -160.42, -92.5915, 54.7704
4.44755, 5, -36.154, -0.0383187, 21.2717, -160.418, -92.5912, 54.7701
4.45548, 5, -36.1404, -0.0489385, 21.2828, -160.415, -92.5909, 54.7699
4.4635, 5, -36.1267, -0.0597039, 21.2939, -160.413, -92.5906, 54.7696
4.47155, 5, -36.1129, -0.0704892, 21.305, -160.41, -92.5903, 54.7693
4.47953, 5, -36.099, -0.0811142, 21.3163, -160.408, -92.5899, 54.7691
4.48749, 5, -36.0852, -0.0916472, 21.3274, -160.405, -92.5896, 54.7689
4.49555, 5, -36.0713, -0.102255, 21.3385, -160.403, -92.5893, 54.7687
4.50354, 5, -36.0575, -0.112882, 21.3495, -160.4, -92.589, 54.7685
4.51149, 5, -36.0437, -0.123651, 21.3605, -160.398, -92.5886, 54.7683
4.51955, 5, -36.0298, -0.134413, 21.3716, -160.395, -92.5883, 54.7681
4.52748, 5, -36.0159, -0.144997, 21.3826, -160.393, -92.588, 54.7679
4.53598, 5, -36.002, -0.155539, 21.3937, -160.39, -92.5877, 54.7677
4.54348, 5, -35.9882, -0.16613, 21.4047, -160.387, -92.5874, 54.7676
4.55148, 5, -35.9744, -0.176744, 21.4158, -160.385, -92.5871, 54.7675
4.56036, 5, -35.9605, -0.187515, 21.4269, -160.382, -92.5868, 54.7673
4.56747, 5, -35.9467, -0.198224, 21.4381, -160.379, -92.5865, 54.7672
4.57549, 5, -35.9327, -0.208767, 21.4492, -160.377, -92.5862, 54.7671
4.58431, 5, -35.9188, -0.219332, 21.4602, -160.374, -92.5859, 54.767
4.59148, 5, -35.9048, -0.229913, 21.4713, -160.371, -92.5856, 54.7669
4.59948, 5, -35.8909, -0.240534, 21.4822, -160.369, -92.5853, 54.7668
4.60836, 5, -35.877, -0.251261, 21.4931, -160.366, -92.5851, 54.7667
4.61553, 5, -35.863, -0.261875, 21.5041, -160.363, -92.5847, 54.7666
4.62357, 5, -35.849, -0.272337, 21.515, -160.361, -92.5844, 54.7664
4.63241, 5, -35.8352, -0.282749, 21.526, -160.358, -92.5841, 54.7664
4.63958, 5, -35.8214, -0.293233, 21.5371, -160.356, -92.5838, 54.7662
4.64762, 5, -35.8074, -0.303859, 21.5481, -160.353, -92.5835, 54.7661
4.65638, 5, -35.7934, -0.314551, 21.5591, -160.351, -92.5832, 54.7661
4.66348, 5, -35.7794, -0.325129, 21.57, -160.348, -92.5829, 54.766
4.67155, 5, -35.7654, -0.335596, 21.5809, -160.346, -92.5826, 54.766
4.68046, 5, -35.7514, -0.346128, 21.5919, -160.343, -92.5823, 54.7659
4.68752, 5, -35.7374, -0.356716, 21.6028, -160.341, -92.582, 54.7659
4.69593, 5, -35.7235, -0.367354, 21.6137, -160.338, -92.5817, 54.7659
4.70454, 5, -35.7096, -0.378076, 21.6246, -160.336, -92.5814, 54.7658
4.7117, 5, -35.6958, -0.388646, 21.6354, -160.334, -92.5811, 54.7657
4.7199, 5, -35.682, -0.399076, 21.6464, -160.331, -92.5808, 54.7657
4.72869, 5, -35.6681, -0.409549, 21.6574, -160.329, -92.5805, 54.7657
4.73587, 5, -35.6542, -0.420024, 21.6683, -160.327, -92.5802, 54.7657
4.74432, 5, -35.6403, -0.430654, 21.6791, -160.324, -92.5798, 54.7656
4.752, 5, -35.6263, -0.441281, 21.6899, -160.322, -92.5796, 54.7656
4.76004, 5, -35.6123, -0.451728, 21.7008, -160.32, -92.5793, 54.7656
4.76816, 5, -35.5983, -0.462076, 21.7115, -160.317, -92.5791, 54.7656
4.77606, 5, -35.5843, -0.472537, 21.7223, -160.315, -92.5787, 54.7655
4.78459, 5, -35.5703, -0.483047, 21.7331, -160.313, -92.5784, 54.7655
4.7923, 5, -35.5633, -0.488336, 21.7385, -160.311, -92.5781, 54.7655
4.79947, 5, -35.5492, -0.498976, 21.7495, -160.309, -92.578, 54.7656
4.80852, 5, -35.5283, -0.514742, 21.7659, -160.306, -92.5775, 54.7655
4.81556, 5, -35.5214, -0.51991, 21.7714, -160.304, -92.5774, 54.7655
4.82348, 5, -35.5075, -0.53026, 21.7822, -160.302, -92.5771, 54.7655
4.83149, 5, -35.4935, -0.540698, 21.793, -160.3, -92.5768, 54.7655
4.83955, 5, -35.4795, -0.551215, 21.8038, -160.297, -92.5764, 54.7655
4.84747, 5, -35.4653, -0.561799, 21.8146, -160.295, -92.5761, 54.7654
4.85551, 5, -35.4512, -0.572247, 21.8253, -160.293, -92.5758, 54.7654
4.86346, 5, -35.4371, -0.582507, 21.8361, -160.29, -92.5755, 54.7655
4.87148, 5, -35.4231, -0.592854, 21.8468, -160.288, -92.5752, 54.7655
4.87958, 5, -35.409, -0.603313, 21.8575, -160.285, -92.5749, 54.7655
4.88747, 5, -35.3949, -0.613873, 21.8683, -160.283, -92.5745, 54.7656
4.89547, 5, -35.3808, -0.6245, 21.8791, -160.28, -92.5742, 54.7656
4.90505, 5, -35.3668, -0.640117, 21.8953, -160.277, -92.5738, 54.7655
4.91147, 5, -35.3529, -0.64525, 21.9006, -160.275, -92.5736, 54.7655
4.9221, 5, -35.3389, -0.655562, 21.9167, -160.272, -92.5732, 54.7656
4.92847, 5, -35.3248, -0.666, 21.9221, -160.27, -92.5731, 54.7656
4.93546, 5, -35.3106, -0.676503, 21.9328, -160.268, -92.5727, 54.7656
4.94347, 5, -35.2964, -0.687055, 21.9435, -160.265, -92.5725, 54.7656
4.95147, 5, -35.2823, -0.697491, 21.9542, -160.263, -92.5722, 54.7656
4.95947, 5, -35.2682, -0.70776, 21.9648, -160.26, -92.5718, 54.7656
4.96753, 5, -35.2541, -0.718055, 21.9756, -160.257, -92.5716, 54.7656
4.97546, 5, -35.24, -0.728489, 21.9863, -160.255, -92.5713, 54.7656
4.98349, 5, -35.2259, -0.738997, 21.9971, -160.252, -92.5709, 54.7656
4.99155, 5, -35.2119, -0.749537, 22.0078, -160.249, -92.5706, 54.7656
4.99946, 5, -35.1979, -0.759963, 22.0183, -160.247, -92.5703, 54.7656
5.00748, 5, -35.1839, -0.770172, 22.0289, -160.244, -92.57, 54.7656
5.01554, 5, -35.1698, -0.780419, 22.0395, -160.241, -92.5697, 54.7657
5.02347, 5, -35.1556, -0.790743, 22.0501, -160.238, -92.5694, 54.7657
5.03147, 5, -35.1414, -0.80117, 22.0607, -160.235, -92.5691, 54.7657
5.03954, 5, -35.1274, -0.811596, 22.0713, -160.233, -92.5688, 54.7657
5.04746, 5, -35.1134, -0.821915, 22.082, -160.23, -92.5685, 54.7658
5.05546, 5, -35.0994, -0.832046, 22.0928, -160.227, -92.5682, 54.7658
5.06354, 5, -35.0853, -0.842274, 22.1035, -160.224, -92.5679, 54.7658
5.07151, 5, -35.0712, -0.852631, 22.1142, -160.222, -92.5676, 54.7658
5.07946, 5, -35.0572, -0.863088, 22.1247, -160.219, -92.5672, 54.7659
5.08754, 5, -35.0431, -0.873619, 22.1354, -160.216, -92.5669, 54.7659
5.09546, 5, -35.0291, -0.884016, 22.146, -160.214, -92.5666, 54.7659
5.10353, 5, -35.015, -0.894238, 22.1565, -160.211, -92.5663, 54.7659
5.11161, 5, -35.0008, -0.904498, 22.167, -160.208, -92.566, 54.766
5.11952, 5, -34.9866, -0.914826, 22.1774, -160.206, -92.5657, 54.766
5.12761, 5, -34.9724, -0.925249, 22.1879, -160.203, -92.5653, 54.766
5.13589, 5, -34.9583, -0.93576, 22.1985, -160.201, -92.565, 54.7661
5.14356, 5, -34.9441, -0.946091, 22.2091, -160.198, -92.5647, 54.7661
5.15167, 5, -34.93, -0.956254, 22.2197, -160.196, -92.5644, 54.7661
5.15997, 5, -34.9158, -0.966478, 22.2303, -160.193, -92.5641, 54.7662
5.16747, 5, -34.9018, -0.976749, 22.2408, -160.191, -92.5638, 54.7663
5.17561, 5, -34.8878, -0.987101, 22.2514, -160.188, -92.5635, 54.7664
5.18423, 5, -34.8737, -0.997519, 22.2619, -160.186, -92.5631, 54.7664
5.19154, 5, -34.8596, -1.00774, 22.2724, -160.184, -92.5628, 54.7665
5.19972, 5, -34.8453, -1.01776, 22.2829, -160.181, -92.5625, 54.7667
5.20844, 5, -34.8309, -1.02787, 22.2933, -160.179, -92.5622, 54.7668
5.21576, 5, -34.8166, -1.038, 22.3039, -160.176, -92.5619, 54.7669
5.22373, 5, -34.8024, -1.04828, 22.3145, -160.174, -92.5616, 54.7671
5.2326, 5, -34.7881, -1.05865, 22.325, -160.172, -92.5612, 54.7672
5.24037, 5, -34.7738, -1.06885, 22.3355, -160.169, -92.5609, 54.7674
5.24795, 5, -34.7596, -1.07893, 22.3459, -160.167, -92.5606, 54.7676
5.25677, 5, -34.7454, -1.0891, 22.3563, -160.165, -92.5603, 54.7678
5.26405, 5, -34.7313, -1.09937, 22.3667, -160.162, -92.56, 54.7681
5.27203, 5, -34.7172, -1.10971, 22.3771, -160.16, -92.5597, 54.7684
5.28089, 5, -34.7031, -1.12011, 22.3875, -160.157, -92.5594, 54.7687
5.28808, 5, -34.696, -1.12527, 22.398, -160.155, -92.559, 54.7692
5.29544, 5, -34.6817, -1.13545, 22.4032, -160.154, -92.5589, 54.7694
5.30348, 5, -34.6675, -1.14557, 22.4137, -160.151, -92.5586, 54.7698
5.31147, 5, -34.6533, -1.15579, 22.4243, -160.149, -92.5582, 54.7703
5.31948, 5, -34.6391, -1.16606, 22.4347, -160.146, -92.5579, 54.7707
5.32757, 5, -34.6248, -1.17639, 22.4452, -160.144, -92.5576, 54.7712
5.33547, 5, -34.6105, -1.1867, 22.4556, -160.141, -92.5573, 54.7717
5.34346, 5, -34.5963, -1.19682, 22.466, -160.139, -92.557, 54.7723
5.35147, 5, -34.5821, -1.20684, 22.4765, -160.136, -92.5567, 54.7729
5.35946, 5, -34.5678, -1.21704, 22.4869, -160.134, -92.5563, 54.7735
5.36749, 5, -34.5536, -1.22724, 22.4972, -160.131, -92.556, 54.7741
5.37776, 5, -34.532, -1.24268, 22.5126, -160.127, -92.5555, 54.775
5.3835, 5, -34.5248, -1.24779, 22.5178, -160.126, -92.5554, 54.7753
5.39145, 5, -34.5105, -1.25786, 22.5282, -160.123, -92.5551, 54.7759
5.39946, 5, -34.4962, -1.26785, 22.5387, -160.12, -92.5547, 54.7765
5.40754, 5, -34.4819, -1.27794, 22.5491, -160.118, -92.5544, 54.7772
5.41544, 5, -34.4677, -1.28807, 22.5595, -160.115, -92.5541, 54.7778
5.42583, 5, -34.4535, -1.29832, 22.5697, -160.112, -92.5537, 54.7784
5.4315, 5, -34.4392, -1.30856, 22.58, -160.11, -92.5534, 54.779
5.44054, 5, -34.4251, -1.31861, 22.5904, -160.107, -92.5531, 54.7795
5.44756, 5, -34.4109, -1.32857, 22.6007, -160.104, -92.5528, 54.7802
5.45647, 5, -34.3967, -1.33866, 22.611, -160.101, -92.5524, 54.7808
5.46345, 5, -34.3824, -1.34882, 22.6213, -160.098, -92.5521, 54.7813
5.47146, 5, -34.3679, -1.35904, 22.6315, -160.095, -92.5518, 54.7819
5.47947, 5, -34.3536, -1.36932, 22.6419, -160.092, -92.5515, 54.7825
5.48755, 5, -34.3392, -1.3794, 22.6523, -160.09, -92.5512, 54.7831
5.49544, 5, -34.3248, -1.38935, 22.6627, -160.087, -92.5509, 54.7837
5.50345, 5, -34.3105, -1.3994, 22.673, -160.084, -92.5505, 54.7843
5.51153, 5, -34.2961, -1.40949, 22.6831, -160.081, -92.5502, 54.7848
5.51945, 5, -34.2818, -1.41966, 22.6934, -160.078, -92.5498, 54.7854
5.52798, 5, -34.2677, -1.42991, 22.7036, -160.075, -92.5495, 54.7859
5.53544, 5, -34.2536, -1.43999, 22.7138, -160.072, -92.5491, 54.7865
5.54344, 5, -34.2394, -1.44993, 22.724, -160.069, -92.5488, 54.7871
5.55223, 5, -34.2252, -1.45998, 22.7343, -160.067, -92.5485, 54.7877
5.55945, 5, -34.2107, -1.47009, 22.7445, -160.064, -92.5481, 54.7882
5.56744, 5, -34.1963, -1.48027, 22.7549, -160.061, -92.5478, 54.7887
5.57635, 5, -34.182, -1.49049, 22.7653, -160.058, -92.5475, 54.7893
5.58344, 5, -34.1677, -1.5006, 22.7756, -160.056, -92.5471, 54.7899
5.59144, 5, -34.1534, -1.51052, 22.7859, -160.053, -92.5468, 54.7904
5.60033, 5, -34.139, -1.52048, 22.7961, -160.05, -92.5465, 54.791
5.60744, 5, -34.1246, -1.5305, 22.8063, -160.048, -92.5462, 54.7915
5.61548, 5, -34.1103, -1.54061, 22.8165, -160.045, -92.5458, 54.7921
5.62452, 5, -34.096, -1.55078, 22.8267, -160.043, -92.5455, 54.7926
5.63236, 5, -34.0816, -1.56088, 22.8368, -160.04, -92.5452, 54.7931
5.63954, 5, -34.0671, -1.57074, 22.8469, -160.038, -92.5449, 54.7937
5.64833, 5, -34.0526, -1.58063, 22.8571, -160.035, -92.5445, 54.7943
5.65559, 5, -34.0381, -1.59069, 22.8674, -160.033, -92.5441, 54.7949
5.66355, 5, -34.0236, -1.60078, 22.8776, -160.03, -92.5438, 54.7954
5.67234, 5, -34.0092, -1.61098, 22.8879, -160.028, -92.5435, 54.7959
5.67948, 5, -33.9948, -1.62112, 22.898, -160.025, -92.5432, 54.7965
5.68753, 5, -33.9802, -1.63105, 22.9081, -160.023, -92.5428, 54.7971
5.69643, 5, -33.9658, -1.64092, 22.9183, -160.02, -92.5425, 54.7976
5.70357, 5, -33.9515, -1.65092, 22.9285, -160.017, -92.5422, 54.7981
5.71177, 5, -33.937, -1.66092, 22.9386, -160.015, -92.5419, 54.7987
5.71976, 5, -33.9226, -1.67106, 22.9487, -160.012, -92.5415, 54.7994
5.72775, 5, -33.9081, -1.68117, 22.9588, -160.01, -92.5411, 54.7999
5.73586, 5, -33.8934, -1.69102, 22.969, -160.007, -92.5408, 54.8005
5.74474, 5, -33.8789, -1.70088, 22.9792, -160.005, -92.5405, 54.8011
5.75202, 5, -33.8644, -1.71083, 22.9893, -160.002, -92.5401, 54.8017
5.76042, 5, -33.8499, -1.7208, 22.9995, -159.999, -92.5398, 54.8023
5.76798, 5, -33.8354, -1.7309, 23.0095, -159.997, -92.5394, 54.8029
5.7761, 5, -33.821, -1.74101, 23.0196, -159.994, -92.5391, 54.8035
5.78405, 5, -33.8137, -1.7509, 23.0297, -159.992, -92.5388, 54.8041
5.79198, 5, -33.7994, -1.7558, 23.0347, -159.99, -92.5386, 54.8047
5.80006, 5, -33.7851, -1.76564, 23.0447, -159.987, -92.5382, 54.8053
5.80743, 5, -33.7707, -1.77558, 23.0548, -159.985, -92.5378, 54.8056
5.81544, 5, -33.7562, -1.78557, 23.0648, -159.982, -92.5375, 54.8062
5.82352, 5, -33.7416, -1.79568, 23.0749, -159.979, -92.5372, 54.8068
5.83144, 5, -33.727, -1.80577, 23.0851, -159.977, -92.5369, 54.8074
5.83943, 5, -33.7125, -1.8156, 23.0952, -159.974, -92.5365, 54.808
5.84745, 5, -33.698, -1.82543, 23.1054, -159.971, -92.5362, 54.8086
5.85544, 5, -33.6836, -1.83541, 23.1155, -159.968, -92.5359, 54.8092
5.86348, 5, -33.669, -1.84541, 23.1255, -159.965, -92.5355, 54.8098
5.87429, 5, -33.6473, -1.86057, 23.1405, -159.961, -92.535, 54.8108
5.87943, 5, -33.6401, -1.8656, 23.1456, -159.959, -92.5349, 54.8112
5.88756, 5, -33.6257, -1.87545, 23.1555, -159.956, -92.5345, 54.8118
5.89707, 5, -33.6039, -1.89014, 23.1705, -159.952, -92.5339, 54.8127
5.90343, 5, -33.5966, -1.8951, 23.1755, -159.951, -92.5338, 54.8131
5.91153, 5, -33.582, -1.905, 23.1854, -159.948, -92.5334, 54.8138
5.92201, 5, -33.5601, -1.92004, 23.2005, -159.943, -92.5329, 54.8147
5.92742, 5, -33.5528, -1.92504, 23.2055, -159.942, -92.5327, 54.8151
5.9355, 5, -33.5382, -1.93489, 23.2155, -159.939, -92.5324, 54.8158
5.94343, 5, -33.5236, -1.94457, 23.2256, -159.936, -92.532, 54.8164
5.95143, 5, -33.5089, -1.9544, 23.2355, -159.933, -92.5317, 54.8171
5.9595, 5, -33.4944, -1.96433, 23.2455, -159.93, -92.5314, 54.8177
5.96743, 5, -33.48, -1.97433, 23.2555, -159.927, -92.531, 54.8184
5.97544, 5, -33.4654, -1.98442, 23.2654, -159.924, -92.5307, 54.8191
5.98343, 5, -33.4509, -1.99434, 23.2753, -159.921, -92.5303, 54.8198
5.99149, 5, -33.4362, -2.00408, 23.2853, -159.918, -92.53, 54.8204
5.99942, 5, -33.4215, -2.01394, 23.2952, -159.916, -92.5296, 54.821
6.00742, 5, -33.4069, -2.02387, 23.3052, -159.913, -92.5292, 54.8218
6.01552, 5, -33.3923, -2.03384, 23.3153, -159.91, -92.5288, 54.8225
6.02343, 5, -33.3777, -2.04395, 23.3253, -159.907, -92.5284, 54.8232
6.03142, 5, -33.3632, -2.05397, 23.3353, -159.905, -92.528, 54.8237
6.03949, 5, -33.3487, -2.06383, 23.3452, -159.902, -92.5276, 54.8243
6.04743, 5, -33.3342, -2.07374, 23.3552, -159.899, -92.5271, 54.8248
6.05547, 5, -33.3199, -2.08383, 23.3653, -159.897, -92.5265, 54.8252
6.06365, 5, -33.3055, -2.09397, 23.3753, -159.894, -92.5258, 54.8257
6.07141, 5, -33.2911, -2.10431, 23.3855, -159.891, -92.5252, 54.826
6.07946, 5, -33.2766, -2.11464, 23.3957, -159.888, -92.5245, 54.8263
6.0875, 5, -33.2621, -2.12476, 23.4059, -159.885, -92.5237, 54.8265
6.09542, 5, -33.2477, -2.13493, 23.4163, -159.883, -92.5228, 54.8266
6.1035, 6, -33.2334, -2.14528, 23.4267, -159.88, -92.5219, 54.8268
6.11149, 6, -33.2191, -2.15573, 23.4371, -159.877, -92.5209, 54.8269
6.11946, 6, -33.2048, -2.16635, 23.4476, -159.874, -92.5199, 54.827
6.12771, 6, -33.1905, -2.17695, 23.458, -159.871, -92.5188, 54.827
6.13553, 6, -33.1763, -2.18741, 23.4685, -159.867, -92.5177, 54.827
6.14352, 6, -33.1622, -2.19795, 23.4791, -159.864, -92.5165, 54.827
6.15191, 6, -33.148, -2.20866, 23.4895, -159.861, -92.5152, 54.8269
6.15954, 6, -33.1338, -2.2195, 23.5001, -159.858, -92.5139, 54.8269
6.16748, 6, -33.1196, -2.23051, 23.5106, -159.854, -92.5125, 54.8269
6.17611, 6, -33.1053, -2.24147, 23.5213, -159.851, -92.5111, 54.8268
6.18454, 6, -33.0912, -2.25226, 23.5321, -159.847, -92.5097, 54.8267
6.19145, 6, -33.0771, -2.26315, 23.543, -159.844, -92.5082, 54.8266
6.20042, 6, -33.063, -2.27418, 23.5539, -159.84, -92.5065, 54.8265
6.20756, 6, -33.0489, -2.28537, 23.5646, -159.837, -92.5049, 54.8263
6.21566, 6, -33.0348, -2.29665, 23.5755, -159.833, -92.5033, 54.826
6.22461, 6, -33.0208, -2.30774, 23.5864, -159.829, -92.5016, 54.8257
6.23176, 6, -33.0069, -2.31879, 23.5974, -159.825, -92.4998, 54.8254
6.23986, 6, -32.9929, -2.33005, 23.6084, -159.821, -92.498, 54.8249
6.24872, 6, -32.979, -2.34149, 23.6195, -159.817, -92.4962, 54.8244
6.25628, 6, -32.965, -2.35306, 23.6305, -159.813, -92.4943, 54.8237
6.26435, 6, -32.9509, -2.36457, 23.6418, -159.808, -92.4923, 54.823
6.27281, 6, -32.9369, -2.37598, 23.653, -159.804, -92.4903, 54.8224
6.28001, 6, -32.923, -2.38746, 23.6643, -159.8, -92.4882, 54.8219
6.28807, 6, -32.9091, -2.39904, 23.6754, -159.795, -92.4861, 54.8213
6.29664, 6, -32.9022, -2.40493, 23.681, -159.793, -92.4851, 54.8206
6.30341, 6, -32.8885, -2.4168, 23.6923, -159.788, -92.483, 54.8202
6.31246, 7, -32.8678, -2.43432, 23.7093, -159.781, -92.4796, 54.8186
6.31941, 7, -32.861, -2.44015, 23.7149, -159.779, -92.4785, 54.8178
6.32742, 7, -32.8474, -2.45196, 23.7263, -159.775, -92.4762, 54.8162
6.33547, 7, -32.8338, -2.46388, 23.7377, -159.77, -92.474, 54.8143
6.34341, 7, -32.8201, -2.47604, 23.7494, -159.766, -92.4716, 54.8122
6.35145, 7, -32.8064, -2.48813, 23.7611, -159.761, -92.4691, 54.8099
6.35941, 7, -32.7926, -2.50004, 23.7729, -159.757, -92.4667, 54.8075
6.36742, 7, -32.779, -2.51207, 23.7845, -159.752, -92.4641, 54.8049
6.37692, 7, -32.7585, -2.53039, 23.802, -159.746, -92.4602, 54.801
6.38342, 7, -32.7517, -2.53658, 23.8079, -159.744, -92.4589, 54.7997
6.39299, 7, -32.7313, -2.55503, 23.8255, -159.737, -92.4548, 54.7955
6.4002, 7, -32.7245, -2.56113, 23.8314, -159.735, -92.4534, 54.7941
6.40743, 7, -32.711, -2.57347, 23.8431, -159.73, -92.4506, 54.7912
6.41705, 7, -32.6976, -2.59226, 23.8609, -159.724, -92.4463, 54.7868
6.4242, 7, -32.6841, -2.59862, 23.8669, -159.721, -92.4448, 54.7853
6.43142, 7, -32.6708, -2.61128, 23.879, -159.717, -92.4417, 54.7823
6.44042, 7, -32.6574, -2.62379, 23.891, -159.712, -92.4387, 54.7793
6.44821, 7, -32.6438, -2.63639, 23.903, -159.708, -92.4356, 54.7762
6.45546, 7, -32.6303, -2.64911, 23.915, -159.703, -92.4323, 54.773
6.46342, 7, -32.6169, -2.66203, 23.9272, -159.698, -92.4291, 54.7698
6.47246, 7, -32.6035, -2.67483, 23.9394, -159.693, -92.4258, 54.7665
6.47958, 7, -32.5902, -2.68753, 23.9515, -159.688, -92.4224, 54.7632
6.48889, 7, -32.5769, -2.70045, 23.9637, -159.683, -92.4189, 54.7598
6.49625, 7, -32.5635, -2.71355, 23.9761, -159.678, -92.4153, 54.7565
6.50343, 7, -32.5504, -2.72679, 23.9885, -159.673, -92.4117, 54.7531
6.51168, 8, -32.5373, -2.73984, 24.0009, -159.667, -92.4079, 54.7496
6.51942, 8, -32.524, -2.75288, 24.0131, -159.662, -92.4041, 54.7459
6.52742, 8, -32.5109, -2.76605, 24.0256, -159.656, -92.4002, 54.7423
6.53548, 8, -32.4976, -2.77941, 24.038, -159.651, -92.3961, 54.7386
6.54596, 8, -32.4843, -2.79285, 24.0505, -159.645, -92.392, 54.733
6.55242, 8, -32.4712, -2.8061, 24.063, -159.639, -92.3878, 54.731
6.56045, 8, -32.4581, -2.81941, 24.0755, -159.633, -92.3835, 54.7272
6.57097, 8, -32.4384, -2.83979, 24.0948, -159.625, -92.3768, 54.7213
6.57541, 8, -32.4319, -2.84666, 24.1012, -159.622, -92.3745, 54.7193
6.58349, 8, -32.4189, -2.86023, 24.1139, -159.616, -92.37, 54.7152
6.59148, 8, -32.4059, -2.87371, 24.1266, -159.611, -92.3654, 54.7111
6.59942, 8, -32.393, -2.88734, 24.1395, -159.605, -92.3608, 54.707
6.60749, 8, -32.3803, -2.90114, 24.1524, -159.6, -92.3562, 54.7027
6.61542, 8, -32.3674, -2.91504, 24.1652, -159.594, -92.3516, 54.6982
6.62356, 8, -32.3546, -2.92877, 24.178, -159.589, -92.3471, 54.6937
6.63149, 8, -32.3417, -2.94259, 24.191, -159.584, -92.3426, 54.6892
6.63951, 8, -32.3287, -2.95662, 24.204, -159.578, -92.338, 54.6846
6.64758, 8, -32.3158, -2.97083, 24.2171, -159.573, -92.3335, 54.6799
6.65552, 8, -32.3031, -2.98494, 24.2301, -159.567, -92.329, 54.6751
6.66354, 8, -32.2903, -2.99894, 24.2431, -159.561, -92.3244, 54.6702
6.67173, 8, -32.2776, -3.01312, 24.2564, -159.555, -92.3199, 54.6652
6.68048, 8, -32.2648, -3.02749, 24.2696, -159.549, -92.3152, 54.6602
6.68745, 8, -32.252, -3.04189, 24.2828, -159.543, -92.3106, 54.6552
6.69551, 8, -32.2393, -3.05605, 24.296, -159.537, -92.306, 54.6501
6.70354, 8, -32.2267, -3.07041, 24.3094, -159.531, -92.3013, 54.645
6.71156, 8, -32.214, -3.085, 24.3228, -159.525, -92.2965, 54.6399
6.71969, 9, -32.2013, -3.0997, 24.3362, -159.518, -92.2917, 54.6348
6.72791, 9, -32.1886, -3.1142, 24.3495, -159.512, -92.2868, 54.6297
6.73642, 9, -32.1759, -3.12871, 24.3629, -159.505, -92.2818, 54.6245
6.74465, 9, -32.1632, -3.14343, 24.3764, -159.498, -92.2767, 54.6194
6.75194, 9, -32.1506, -3.15831, 24.3899, -159.492, -92.2716, 54.6142
6.7605, 9, -32.138, -3.17302, 24.4034, -159.485, -92.2663, 54.6092
6.76877, 9, -32.1254, -3.18774, 24.4172, -159.478, -92.261, 54.604
6.77614, 9, -32.1129, -3.20271, 24.431, -159.472, -92.2554, 54.5988
6.78403, 9, -32.1004, -3.21788, 24.4448, -159.465, -92.2497, 54.5936
6.79287, 9, -32.088, -3.2329, 24.4584, -159.459, -92.2439, 54.5883
6.80005, 9, -32.0818, -3.24034, 24.4653, -159.456, -92.241, 54.583
6.80794, 9, -32.0696, -3.25535, 24.4791, -159.449, -92.2349, 54.5803
6.8154, 9, -32.0572, -3.27058, 24.493, -159.443, -92.2288, 54.5748
6.8234, 9, -32.0448, -3.28596, 24.5068, -159.436, -92.2226, 54.5694
6.83145, 9, -32.0324, -3.30113, 24.5206, -159.43, -92.2163, 54.5637
6.83942, 9, -32.0199, -3.31636, 24.5347, -159.423, -92.2101, 54.5581
6.84749, 9, -32.0075, -3.33184, 24.5487, -159.417, -92.204, 54.5524
6.8554, 9, -31.9951, -3.34746, 24.5627, -159.41, -92.1978, 54.5466
6.8634, 9, -31.9828, -3.36284, 24.5767, -159.404, -92.1917, 54.5406
6.87145, 9, -31.9705, -3.3783, 24.5909, -159.397, -92.1856, 54.5346
6.8794, 9, -31.9584, -3.39401, 24.6051, -159.39, -92.1795, 54.5285
6.88997, 9, -31.9401, -3.41762, 24.6262, -159.379, -92.1703, 54.5191
6.89688, 9, -31.934, -3.42539, 24.6406, -159.372, -92.1641, 54.5127
6.90339, 9, -31.922, -3.44111, 24.6478, -159.368, -92.1611, 54.5094
6.91365, 9, -31.9041, -3.46514, 24.6693, -159.357, -92.1518, 54.4993
6.91952, 9, -31.8981, -3.47314, 24.6764, -159.353, -92.1487, 54.4959
6.9274, 10, -31.8862, -3.48898, 24.6907, -159.345, -92.1425, 54.4891
6.9364, 10, -31.8742, -3.5049, 24.7051, -159.338, -92.1361, 54.4821
6.94346, 10, -31.8621, -3.52107, 24.7196, -159.331, -92.1297, 54.4751
6.9514, 10, -31.8501, -3.53728, 24.734, -159.323, -92.1231, 54.4679
6.95958, 10, -31.8381, -3.5533, 24.7486, -159.316, -92.1164, 54.4608
6.96845, 10, -31.826, -3.56949, 24.7635, -159.309, -92.1094, 54.4535
6.97546, 10, -31.814, -3.58601, 24.7782, -159.302, -92.1024, 54.4464
6.98584, 10, -31.7961, -3.61049, 24.8001, -159.291, -92.0915, 54.4356
6.99146, 10, -31.7901, -3.61858, 24.8076, -159.288, -92.0878, 54.432
6.9994, 10, -31.7781, -3.63499, 24.8224, -159.28, -92.0803, 54.4249
7.00746, 10, -31.7663, -3.65169, 24.8371, -159.273, -92.0728, 54.4178
7.01541, 10, -31.7545, -3.66821, 24.8517, -159.266, -92.0653, 54.4107
7.0234, 10, -31.7427, -3.68469, 24.8668, -159.258, -92.0579, 54.4036
7.03146, 10, -31.7309, -3.70144, 24.8819, -159.251, -92.0505, 54.3966
7.0394, 10, -31.7192, -3.7184, 24.8968, -159.243, -92.0432, 54.3894
7.04741, 10, -31.7073, -3.73507, 24.9117, -159.235, -92.0359, 54.3823
7.05547, 10, -31.6955, -3.75179, 24.9268, -159.227, -92.0286, 54.375
7.0634, 10, -31.6839, -3.7688, 24.9419, -159.219, -92.0213, 54.3677
7.0714, 10, -31.6722, -3.78581, 24.9569, -159.211, -92.0141, 54.3603
7.07946, 10, -31.6605, -3.80265, 24.9722, -159.203, -92.0069, 54.3528
7.08761, 10, -31.6489, -3.8197, 24.9877, -159.194, -91.9996, 54.3452
7.09547, 10, -31.6372, -3.83709, 25.0029, -159.186, -91.9924, 54.3374
7.10343, 10, -31.6255, -3.85432, 25.0181, -159.178, -91.985, 54.3295
7.1114, 10, -31.6139, -3.87144, 25.0334, -159.171, -91.9774, 54.3215
7.11947, 10, -31.6023, -3.88877, 25.0488, -159.163, -91.9697, 54.3133
7.12748, 10, -31.5907, -3.90627, 25.064, -159.155, -91.9617, 54.305
7.13549, 11, -31.5791, -3.92356, 25.0795, -159.147, -91.9536, 54.2965
7.14379, 11, -31.5676, -3.94096, 25.0953, -159.139, -91.9454, 54.2879
7.15149, 11, -31.5559, -3.95867, 25.1111, -159.131, -91.9368, 54.2792
7.15951, 11, -31.5442, -3.97632, 25.1266, -159.123, -91.9284, 54.2705
7.16751, 11, -31.5327, -3.99382, 25.1422, -159.115, -91.9198, 54.2618
7.17558, 11, -31.5213, -4.0115, 25.1579, -159.106, -91.9113, 54.253
7.18398, 11, -31.5099, -4.02939, 25.1735, -159.098, -91.9029, 54.2444
7.19143, 11, -31.4986, -4.04716, 25.189, -159.089, -91.8945, 54.2359
7.19943, 11, -31.4873, -4.06496, 25.205, -159.08, -91.8862, 54.2273
7.2084, 11, -31.476, -4.08304, 25.221, -159.071, -91.8779, 54.2187
7.21554, 11, -31.4646, -4.10112, 25.2367, -159.062, -91.8696, 54.2101
7.22365, 11, -31.4535, -4.11907, 25.2527, -159.053, -91.8613, 54.2016
7.23262, 11, -31.4424, -4.13719, 25.2688, -159.044, -91.853, 54.1929
7.2397, 11, -31.4311, -4.1554, 25.2846, -159.036, -91.8446, 54.1841
7.24785, 11, -31.4199, -4.17355, 25.3005, -159.027, -91.8361, 54.1754
7.25595, 11, -31.4087, -4.19185, 25.3168, -159.019, -91.8274, 54.1665
7.26396, 11, -31.3974, -4.21034, 25.3331, -159.01, -91.8185, 54.1574
7.27249, 11, -31.386, -4.22875, 25.3491, -159.002, -91.8094, 54.1483
7.27996, 11, -31.3749, -4.24712, 25.3653, -158.993, -91.8001, 54.1389
7.28883, 11, -31.3637, -4.2657, 25.3816, -158.984, -91.7906, 54.1293
7.29609, 11, -31.3526, -4.28424, 25.3977, -158.976, -91.7811, 54.1197
7.30503, 11, -31.3416, -4.30274, 25.4139, -158.967, -91.7716, 54.1099
7.31241, 11, -31.3306, -4.32151, 25.4306, -158.958, -91.7622, 54.0998
7.31943, 11, -31.3251, -4.33096, 25.439, -158.953, -91.7575, 54.0948
7.32739, 11, -31.314, -4.34972, 25.4554, -158.944, -91.7482, 54.0847
7.33536, 12, -31.3031, -4.36846, 25.4718, -158.934, -91.7389, 54.0746
7.34454, 12, -31.2868, -4.39693, 25.4967, -158.92, -91.7252, 54.0596
7.35138, 12, -31.2813, -4.4064, 25.5048, -158.915, -91.7207, 54.0546
7.35945, 12, -31.2705, -4.4253, 25.5212, -158.906, -91.7116, 54.0448
7.36738, 12, -31.2596, -4.44443, 25.5379, -158.897, -91.7024, 54.0349
7.37538, 12, -31.2488, -4.46367, 25.5548, -158.887, -91.6932, 54.0251
7.38562, 12, -31.2323, -4.49236, 25.5797, -158.874, -91.6791, 54.0104
7.39139, 12, -31.2269, -4.50198, 25.5881, -158.869, -91.6743, 54.0054
7.40094, 12, -31.2107, -4.531, 25.6134, -158.855, -91.6595, 53.9907
7.40974, 12, -31.1998, -4.55027, 25.63, -158.846, -91.6494, 53.9808
7.41545, 12, -31.1943, -4.55999, 25.6384, -158.841, -91.6443, 53.9757
7.42349, 12, -31.1835, -4.57962, 25.6555, -158.832, -91.6339, 53.9655
7.4314, 12, -31.1728, -4.59915, 25.6726, -158.823, -91.6237, 53.9551
7.44039, 12, -31.162, -4.61865, 25.6894, -158.813, -91.6136, 53.9445
7.44843, 12, -31.1513, -4.63837, 25.7065, -158.803, -91.6035, 53.9337
7.45538, 12, -31.1406, -4.65804, 25.7235, -158.793, -91.5935, 53.9228
7.46354, 12, -31.13, -4.67769, 25.7404, -158.783, -91.5835, 53.9117
7.47139, 12, -31.1194, -4.69758, 25.7576, -158.773, -91.5735, 53.9004
7.47942, 12, -31.1088, -4.71746, 25.775, -158.763, -91.5635, 53.8893
7.4874, 12, -31.0982, -4.73725, 25.7922, -158.753, -91.5534, 53.8782
7.49538, 12, -31.0876, -4.75728, 25.8096, -158.743, -91.5433, 53.8671
7.50367, 12, -31.0769, -4.77739, 25.8269, -158.734, -91.5328, 53.8563
7.51388, 12, -31.061, -4.80754, 25.8526, -158.719, -91.5168, 53.8399
7.51937, 12, -31.0557, -4.81769, 25.8613, -158.715, -91.5112, 53.8345
7.52746, 12, -31.0452, -4.83799, 25.8789, -158.705, -91.5002, 53.8236
7.53538, 12, -31.0346, -4.85818, 25.8963, -158.695, -91.489, 53.8126
7.54351, 13, -31.0241, -4.87856, 25.9138, -158.686, -91.4778, 53.8016
7.55144, 13, -31.0137, -4.89897, 25.9316, -158.676, -91.4668, 53.7905
7.55938, 13, -31.0032, -4.91939, 25.9491, -158.666, -91.4559, 53.7792
7.5674, 13, -30.9928, -4.94001, 25.9666, -158.655, -91.4451, 53.7678
7.57545, 13, -30.9825, -4.96066, 25.9844, -158.645, -91.4344, 53.7561
7.58344, 13, -30.9723, -4.98123, 26.0021, -158.634, -91.4238, 53.7444
7.59145, 13, -30.9621, -5.00197, 26.0198, -158.624, -91.4131, 53.7324
7.59938, 13, -30.9518, -5.02275, 26.0376, -158.613, -91.4023, 53.7203
7.60752, 13, -30.9416, -5.04352, 26.0555, -158.603, -91.3912, 53.7083
7.61547, 13, -30.9313, -5.06448, 26.0733, -158.593, -91.3802, 53.6963
7.62373, 13, -30.9209, -5.08544, 26.0914, -158.583, -91.3688, 53.6843
7.63146, 13, -30.9107, -5.10629, 26.1095, -158.573, -91.3571, 53.6725
7.6397, 13, -30.9005, -5.12739, 26.1275, -158.562, -91.3454, 53.6608
7.64828, 13, -30.8903, -5.14853, 26.1457, -158.552, -91.3336, 53.649
7.65548, 13, -30.8801, -5.1696, 26.1638, -158.542, -91.3219, 53.6372
7.66401, 13, -30.8699, -5.19086, 26.1817, -158.531, -91.3104, 53.6254
7.67247, 13, -30.8597, -5.21215, 26.1999, -158.52, -91.2989, 53.6134
7.67938, 13, -30.8495, -5.23339, 26.2182, -158.509, -91.2875, 53.6012
7.68811, 13, -30.8393, -5.2548, 26.2364, -158.498, -91.2761, 53.5889
7.6967, 13, -30.8292, -5.27623, 26.2546, -158.487, -91.2647, 53.5764
7.70522, 13, -30.8193, -5.29775, 26.273, -158.476, -91.2531, 53.5637
7.71235, 13, -30.8093, -5.3194, 26.2912, -158.465, -91.2413, 53.5508
7.72047, 13, -30.7993, -5.34105, 26.3097, -158.455, -91.2293, 53.5378
7.72759, 13, -30.7895, -5.36271, 26.3283, -158.444, -91.217, 53.5248
7.73636, 13, -30.7796, -5.38445, 26.3467, -158.433, -91.2046, 53.512
7.74403, 13, -30.7696, -5.40619, 26.3652, -158.423, -91.192, 53.4993
7.75176, 14, -30.7597, -5.42804, 26.3836, -158.412, -91.1797, 53.4868
7.76072, 14, -30.7498, -5.44996, 26.4022, -158.402, -91.1674, 53.4745
7.76794, 14, -30.74, -5.47186, 26.421, -158.391, -91.1553, 53.462
7.77596, 14, -30.7301, -5.49385, 26.4398, -158.38, -91.1433, 53.4495
7.78454, 14, -30.7202, -5.51595, 26.4586, -158.368, -91.1313, 53.4369
7.79217, 14, -30.7103, -5.5381, 26.4775, -158.357, -91.1193, 53.4242
7.80051, 14, -30.7006, -5.56044, 26.4962, -158.345, -91.1071, 53.4111
7.80789, 14, -30.6956, -5.57158, 26.5056, -158.34, -91.101, 53.4046
7.81641, 14, -30.6808, -5.60501, 26.5338, -158.323, -91.0821, 53.3846
7.82448, 14, -30.6711, -5.62747, 26.5528, -158.311, -91.0691, 53.3707
7.83137, 14, -30.6663, -5.6386, 26.5622, -158.306, -91.0625, 53.3637
7.83941, 14, -30.6566, -5.66096, 26.5812, -158.295, -91.0494, 53.3497
7.84739, 14, -30.647, -5.68366, 26.6003, -158.283, -91.0363, 53.3356
7.85536, 14, -30.6374, -5.70618, 26.6193, -158.272, -91.0233, 53.3216
7.86499, 14, -30.6232, -5.74014, 26.6481, -158.255, -91.004, 53.3009
7.87286, 14, -30.6135, -5.76287, 26.6673, -158.244, -90.9913, 53.2873
7.88077, 14, -30.6039, -5.7855, 26.6864, -158.232, -90.9785, 53.2738
7.88744, 14, -30.5991, -5.79697, 26.696, -158.226, -90.9721, 53.2671
7.89538, 14, -30.5896, -5.81998, 26.7153, -158.214, -90.9591, 53.2536
7.90493, 14, -30.5753, -5.85416, 26.7443, -158.196, -90.9393, 53.2331
7.91143, 14, -30.5705, -5.8657, 26.754, -158.19, -90.9326, 53.2262
7.92122, 14, -30.5563, -5.90024, 26.7833, -158.173, -90.9119, 53.2053
7.92748, 14, -30.5516, -5.91174, 26.793, -158.167, -90.905, 53.1982
7.93543, 14, -30.5423, -5.93496, 26.8125, -158.155, -90.8914, 53.1837
7.94442, 14, -30.5327, -5.9581, 26.832, -158.144, -90.8779, 53.1692
7.95132, 15, -30.5233, -5.98123, 26.8515, -158.132, -90.8645, 53.1545
7.95943, 15, -30.5141, -6.00452, 26.8712, -158.121, -90.8512, 53.14
7.9674, 15, -30.5048, -6.02773, 26.8908, -158.109, -90.838, 53.1255
7.97537, 15, -30.4955, -6.05118, 26.9105, -158.097, -90.8248, 53.1112
7.98345, 15, -30.4863, -6.07472, 26.9304, -158.085, -90.8114, 53.0969
7.99145, 15, -30.4772, -6.09816, 26.9501, -158.072, -90.7978, 53.0825
7.99943, 15, -30.4681, -6.12182, 26.9699, -158.059, -90.7838, 53.068
8.00736, 15, -30.4589, -6.14543, 26.9899, -158.047, -90.7697, 53.0535
8.01543, 15, -30.4495, -6.16912, 27.0097, -158.034, -90.7554, 53.0387
8.02343, 15, -30.4402, -6.19302, 27.0296, -158.022, -90.7414, 53.0238
8.03136, 15, -30.431, -6.21677, 27.0496, -158.01, -90.7274, 53.0088
8.03943, 15, -30.4217, -6.24069, 27.0696, -157.998, -90.7136, 52.9933
8.04736, 15, -30.4124, -6.26464, 27.0898, -157.986, -90.6997, 52.9778
8.05536, 15, -30.4032, -6.28864, 27.1099, -157.974, -90.6858, 52.9624
8.0635, 15, -30.3942, -6.31281, 27.1301, -157.961, -90.6718, 52.947
8.07136, 15, -30.385, -6.33683, 27.1503, -157.949, -90.6575, 52.9318
8.07936, 15, -30.3758, -6.36107, 27.1705, -157.936, -90.6429, 52.9166
8.08744, 15, -30.3667, -6.38531, 27.1908, -157.923, -90.628, 52.9015
8.09543, 15, -30.3576, -6.4096, 27.2112, -157.91, -90.613, 52.8863
8.10344, 15, -30.3488, -6.43414, 27.2314, -157.897, -90.5982, 52.871
8.11196, 15, -30.3398, -6.45853, 27.2519, -157.885, -90.5836, 52.8555
8.12149, 15, -30.3309, -6.48307, 27.2724, -157.872, -90.5691, 52.8399
8.12739, 15, -30.3222, -6.50767, 27.2929, -157.86, -90.5547, 52.824
8.13554, 15, -30.3132, -6.53223, 27.3136, -157.848, -90.5403, 52.8077
8.14351, 15, -30.3043, -6.55702, 27.3341, -157.835, -90.5259, 52.7915
8.15146, 15, -30.2952, -6.58167, 27.3546, -157.822, -90.5112, 52.7753
8.15952, 16, -30.2862, -6.60642, 27.3753, -157.81, -90.4962, 52.7594
8.16747, 16, -30.2773, -6.63128, 27.396, -157.797, -90.4809, 52.7437
8.17547, 16, -30.2683, -6.65615, 27.4169, -157.784, -90.4656, 52.7281
8.18413, 16, -30.2594, -6.6812, 27.4378, -157.77, -90.4504, 52.7125
8.19138, 16, -30.2505, -6.70617, 27.4586, -157.757, -90.4354, 52.697
8.19946, 16, -30.2417, -6.73121, 27.4795, -157.744, -90.4205, 52.6812
8.20823, 16, -30.233, -6.75627, 27.5003, -157.731, -90.4057, 52.6653
8.21548, 16, -30.2241, -6.78143, 27.5213, -157.719, -90.3908, 52.6491
8.22365, 16, -30.2153, -6.80683, 27.5424, -157.706, -90.3756, 52.6326
8.23324, 16, -30.2065, -6.83208, 27.5634, -157.693, -90.3602, 52.6159
8.23969, 16, -30.1979, -6.85747, 27.5844, -157.68, -90.3444, 52.5991
8.24776, 16, -30.1894, -6.88289, 27.6056, -157.667, -90.3284, 52.5825
8.25746, 16, -30.1808, -6.90835, 27.6267, -157.654, -90.3125, 52.5661
8.26416, 16, -30.1722, -6.93399, 27.648, -157.64, -90.2968, 52.5499
8.27185, 16, -30.1638, -6.95953, 27.6692, -157.626, -90.2813, 52.5338
8.28077, 16, -30.1552, -6.98521, 27.6904, -157.613, -90.2658, 52.5175
8.28796, 16, -30.1466, -7.01092, 27.7117, -157.599, -90.2505, 52.5012
8.29653, 16, -30.1379, -7.03674, 27.7331, -157.586, -90.235, 52.4846
8.30478, 16, -30.1293, -7.06265, 27.7546, -157.573, -90.2192, 52.4677
8.31443, 16, -30.1207, -7.08856, 27.7761, -157.56, -90.2031, 52.4506
8.31935, 16, -30.1165, -7.10157, 27.7868, -157.553, -90.195, 52.442
8.32735, 16, -30.1079, -7.1275, 27.8083, -157.54, -90.1787, 52.4246
8.3354, 16, -30.0994, -7.15359, 27.8298, -157.527, -90.1625, 52.4073
8.34453, 16, -30.0867, -7.19292, 27.8622, -157.506, -90.1385, 52.3817
8.35135, 16, -30.0826, -7.20599, 27.8731, -157.499, -90.1306, 52.3733
8.3594, 16, -30.0741, -7.23227, 27.8947, -157.485, -90.1146, 52.3565
8.36879, 17, -30.0615, -7.27164, 27.9273, -157.464, -90.0907, 52.3313
8.37535, 17, -30.0573, -7.28488, 27.9382, -157.457, -90.0826, 52.3229
8.38343, 17, -30.049, -7.31134, 27.96, -157.444, -90.0661, 52.3059
8.39288, 17, -30.0367, -7.351, 27.9928, -157.423, -90.0409, 52.2799
8.40087, 17, -30.0285, -7.37756, 28.0146, -157.41, -90.0241, 52.2621
8.40894, 17, -30.0204, -7.4041, 28.0365, -157.396, -90.0076, 52.2441
8.41696, 17, -30.0122, -7.43083, 28.0584, -157.382, -89.9911, 52.2261
8.42347, 17, -30.0081, -7.44414, 28.0695, -157.375, -89.983, 52.2171
8.43287, 17, -30, -7.47084, 28.0916, -157.361, -89.9667, 52.1993
8.44035, 17, -29.9918, -7.49757, 28.1138, -157.346, -89.9504, 52.1816
8.44842, 17, -29.9834, -7.52438, 28.1359, -157.332, -89.9338, 52.1641
8.45535, 17, -29.9752, -7.55137, 28.158, -157.317, -89.9169, 52.1466
8.46349, 17, -29.967, -7.57826, 28.1801, -157.303, -89.8997, 52.129
8.47138, 17, -29.9589, -7.60528, 28.2024, -157.289, -89.8825, 52.1114
8.47935, 17, -29.9507, -7.63227, 28.2247, -157.275, -89.8655, 52.0934
8.48742, 17, -29.9425, -7.65942, 28.247, -157.262, -89.8487, 52.0751
8.49535, 17, -29.9344, -7.68662, 28.2694, -157.247, -89.8319, 52.0566
8.5034, 17, -29.9263, -7.71379, 28.2919, -157.233, -89.8152, 52.0383
8.51142, 17, -29.9183, -7.74115, 28.3144, -157.218, -89.7982, 52.02
8.51933, 17, -29.9102, -7.76846, 28.3368, -157.203, -89.781, 52.002
8.5275, 17, -29.902, -7.79597, 28.3592, -157.189, -89.7635, 51.9839
8.53543, 17, -29.894, -7.82339, 28.3819, -157.174, -89.7457, 51.966
8.5434, 17, -29.8861, -7.85091, 28.4045, -157.159, -89.728, 51.9478
8.55134, 17, -29.8783, -7.87847, 28.4273, -157.145, -89.7106, 51.9296
8.55942, 17, -29.8704, -7.90618, 28.45, -157.131, -89.6934, 51.911
8.56756, 18, -29.8625, -7.93394, 28.4727, -157.116, -89.6763, 51.8922
8.57535, 18, -29.8547, -7.96167, 28.4954, -157.102, -89.6593, 51.8731
8.58349, 18, -29.8469, -7.9895, 28.5183, -157.087, -89.6418, 51.8539
8.59134, 18, -29.8391, -8.01735, 28.5412, -157.072, -89.6241, 51.8351
8.59947, 18, -29.8312, -8.04534, 28.5641, -157.056, -89.6061, 51.8165
8.60734, 18, -29.8233, -8.07323, 28.587, -157.041, -89.5881, 51.7981
8.61536, 18, -29.8154, -8.10128, 28.61, -157.026, -89.5704, 51.7795
8.62344, 18, -29.8076, -8.12932, 28.633, -157.011, -89.5528, 51.7609
8.63144, 18, -29.7998, -8.15749, 28.6562, -156.997, -89.5352, 51.7422
8.63946, 18, -29.7919, -8.18563, 28.6792, -156.982, -89.5176, 51.723
8.64744, 18, -29.7842, -8.21377, 28.7024, -156.968, -89.4997, 51.7036
8.65551, 18, -29.7764, -8.242, 28.7256, -156.953, -89.4815, 51.6839
8.66351, 18, -29.7688, -8.27033, 28.7489, -156.937, -89.4629, 51.6643
8.67146, 18, -29.7611, -8.2988, 28.7724, -156.922, -89.4443, 51.645
8.67951, 18, -29.7534, -8.3272, 28.7956, -156.907, -89.426, 51.626
8.68735, 18, -29.7456, -8.35571, 28.819, -156.891, -89.4079, 51.607
8.69566, 18, -29.738, -8.3842, 28.8423, -156.876, -89.39, 51.5881
8.7035, 18, -29.7305, -8.41291, 28.8658, -156.861, -89.372, 51.5689
8.71155, 18, -29.723, -8.44155, 28.8893, -156.846, -89.3538, 51.5497
8.71981, 18, -29.7156, -8.47027, 28.9128, -156.831, -89.3353, 51.5301
8.72787, 18, -29.7081, -8.49908, 28.9364, -156.816, -89.3165, 51.5101
8.73562, 18, -29.7006, -8.52799, 28.96, -156.801, -89.2977, 51.49
8.7438, 18, -29.6932, -8.5569, 28.9838, -156.785, -89.279, 51.4702
8.75241, 18, -29.6858, -8.58582, 29.0074, -156.769, -89.2606, 51.4505
8.76018, 18, -29.6782, -8.61475, 29.031, -156.753, -89.2422, 51.431
8.76818, 18, -29.6707, -8.64391, 29.0547, -156.738, -89.2238, 51.4117
8.77587, 19, -29.6631, -8.6731, 29.0786, -156.723, -89.205, 51.3923
8.7845, 19, -29.6557, -8.7023, 29.1025, -156.707, -89.186, 51.3727
8.79198, 19, -29.6483, -8.73157, 29.1263, -156.692, -89.1666, 51.3528
8.80091, 19, -29.6408, -8.76088, 29.1502, -156.677, -89.1474, 51.3326
8.80811, 19, -29.6371, -8.77562, 29.1621, -156.662, -89.1284, 51.3122
8.81602, 19, -29.6297, -8.80499, 29.1861, -156.654, -89.1097, 51.292
8.82341, 19, -29.6223, -8.83445, 29.2101, -156.638, -89.1004, 51.2819
8.8324, 19, -29.6115, -8.87868, 29.2461, -156.614, -89.0724, 51.2522
8.84092, 19, -29.6043, -8.90833, 29.2702, -156.598, -89.0534, 51.2324
8.84733, 19, -29.6006, -8.92312, 29.2822, -156.59, -89.0438, 51.2225
8.85539, 19, -29.5933, -8.95274, 29.3065, -156.574, -89.0243, 51.2025
8.86333, 19, -29.5861, -8.98239, 29.3307, -156.559, -89.0048, 51.1824
8.87138, 19, -29.579, -9.01214, 29.3548, -156.543, -88.9857, 51.1617
8.87933, 19, -29.572, -9.04199, 29.3791, -156.527, -88.9666, 51.1409
8.88735, 19, -29.5649, -9.07183, 29.4034, -156.511, -88.9476, 51.1199
8.8977, 19, -29.5544, -9.11666, 29.4401, -156.486, -88.9189, 51.0888
8.90333, 19, -29.5508, -9.13167, 29.4523, -156.478, -88.9092, 51.0785
8.91133, 19, -29.5438, -9.16179, 29.4767, -156.461, -88.8894, 51.0581
8.92171, 19, -29.5334, -9.20698, 29.5133, -156.437, -88.8595, 51.0274
8.92732, 19, -29.5299, -9.22211, 29.5256, -156.429, -88.8496, 51.0172
8.93632, 19, -29.5228, -9.25231, 29.5503, -156.413, -88.8302, 50.9965
8.94353, 19, -29.5157, -9.28263, 29.5748, -156.397, -88.8108, 50.9754
8.95134, 19, -29.5086, -9.31296, 29.5994, -156.381, -88.7916, 50.954
8.96037, 19, -29.5015, -9.34331, 29.6241, -156.365, -88.7721, 50.9327
8.96739, 19, -29.4945, -9.37374, 29.6489, -156.348, -88.7523, 50.9116
8.97538, 19, -29.4875, -9.40428, 29.6736, -156.331, -88.7321, 50.8908
8.98333, 20, -29.4805, -9.4348, 29.6983, -156.314, -88.712, 50.87
8.99139, 20, -29.4735, -9.46541, 29.7231, -156.297, -88.6922, 50.8492
8.99933, 20, -29.4665, -9.49608, 29.7479, -156.281, -88.6724, 50.8283
9.00733, 20, -29.4596, -9.52686, 29.7729, -156.265, -88.6528, 50.8071
9.01535, 20, -29.4528, -9.55757, 29.7978, -156.248, -88.6328, 50.7856
9.02339, 20, -29.4459, -9.58842, 29.8227, -156.232, -88.6126, 50.7638
9.03133, 20, -29.439, -9.61934, 29.8477, -156.215, -88.5921, 50.7421
9.03939, 20, -29.4321, -9.65037, 29.8727, -156.198, -88.5715, 50.7206
9.04733, 20, -29.4252, -9.68132, 29.8978, -156.181, -88.5511, 50.6994
9.05534, 20, -29.4185, -9.7123, 29.9228, -156.164, -88.5311, 50.6782
9.06339, 20, -29.4119, -9.74335, 29.948, -156.147, -88.5112, 50.657
9.07133, 20, -29.4052, -9.7746, 29.9733, -156.13, -88.4911, 50.6357
9.07933, 20, -29.3985, -9.80571, 29.9986, -156.114, -88.4708, 50.614
9.0874, 20, -29.3919, -9.83689, 30.0237, -156.097, -88.4501, 50.5919
9.09533, 20, -29.3853, -9.86813, 30.049, -156.08, -88.4292, 50.5697
9.10339, 20, -29.3787, -9.89958, 30.0744, -156.063, -88.4085, 50.5477
9.11139, 20, -29.3721, -9.93096, 30.1, -156.045, -88.388, 50.5261
9.11933, 20, -29.3654, -9.96246, 30.1254, -156.028, -88.3676, 50.5046
9.12752, 20, -29.3586, -9.99402, 30.1508, -156.011, -88.3472, 50.4831
9.13552, 20, -29.3519, -10.0257, 30.1763, -155.994, -88.3264, 50.4616
9.14437, 20, -29.3452, -10.0573, 30.2019, -155.977, -88.3053, 50.4399
9.15167, 20, -29.3387, -10.0889, 30.2275, -155.961, -88.2839, 50.4178
9.15943, 20, -29.3321, -10.1207, 30.2531, -155.943, -88.2628, 50.3953
9.16744, 20, -29.3255, -10.1526, 30.2788, -155.926, -88.242, 50.373
9.17564, 20, -29.3189, -10.1845, 30.3045, -155.908, -88.2214, 50.3508
9.18345, 20, -29.3123, -10.2163, 30.3303, -155.89, -88.2008, 50.3289
9.19133, 21, -29.3058, -10.2482, 30.3559, -155.873, -88.1799, 50.307
9.20016, 21, -29.2993, -10.2802, 30.3817, -155.856, -88.1586, 50.2852
9.20822, 21, -29.2929, -10.3122, 30.4076, -155.839, -88.1371, 50.2631
9.21537, 21, -29.2864, -10.3442, 30.4336, -155.822, -88.116, 50.2409
9.22357, 21, -29.2798, -10.3764, 30.4595, -155.805, -88.095, 50.2184
9.23237, 21, -29.2733, -10.4086, 30.4854, -155.787, -88.0741, 50.1958
9.23956, 21, -29.267, -10.4407, 30.5114, -155.769, -88.0532, 50.1735
9.2477, 21, -29.2606, -10.4729, 30.5375, -155.751, -88.0318, 50.1514
9.25653, 21, -29.2544, -10.5052, 30.5635, -155.734, -88.01, 50.1295
9.26392, 21, -29.2481, -10.5376, 30.5896, -155.716, -87.9882, 50.1076
9.27246, 21, -29.2418, -10.57, 30.6157, -155.699, -87.9665, 50.0854
9.28065, 21, -29.2356, -10.6023, 30.6421, -155.682, -87.9453, 50.063
9.28791, 21, -29.2294, -10.6348, 30.6683, -155.664, -87.9241, 50.0403
9.2965, 21, -29.2232, -10.6673, 30.6945, -155.646, -87.9028, 50.0172
9.30488, 21, -29.2201, -10.6836, 30.7207, -155.628, -87.8812, 49.9942
9.31232, 21, -29.2107, -10.7325, 30.7472, -155.609, -87.8593, 49.9716
9.31933, 21, -29.2076, -10.7489, 30.7605, -155.6, -87.8482, 49.9604
9.32916, 21, -29.1981, -10.798, 30.8001, -155.573, -87.8156, 49.9267
9.33536, 21, -29.1949, -10.8144, 30.8133, -155.565, -87.8048, 49.9154
9.34452, 21, -29.1855, -10.8638, 30.853, -155.538, -87.7726, 49.8814
9.35146, 21, -29.1824, -10.8803, 30.8663, -155.529, -87.7618, 49.8698
9.36067, 21, -29.1762, -10.9132, 30.9061, -155.502, -87.7287, 49.8349
9.36733, 21, -29.17, -10.9462, 30.9194, -155.492, -87.7174, 49.8232
9.37739, 21, -29.1607, -10.9958, 30.9593, -155.464, -87.684, 49.7889
9.38336, 21, -29.1576, -11.0124, 30.9727, -155.455, -87.673, 49.7775
9.39285, 22, -29.1486, -11.062, 31.0128, -155.428, -87.6404, 49.7434
9.40166, 22, -29.1426, -11.0952, 31.0395, -155.41, -87.6187, 49.7205
9.4074, 22, -29.1396, -11.1119, 31.0528, -155.401, -87.6077, 49.709
9.41695, 22, -29.1306, -11.1618, 31.0932, -155.373, -87.5741, 49.674
9.42497, 22, -29.1246, -11.195, 31.1201, -155.355, -87.5514, 49.6501
9.43131, 22, -29.1216, -11.2117, 31.1335, -155.345, -87.5402, 49.6382
9.44031, 22, -29.1156, -11.2452, 31.1604, -155.326, -87.518, 49.6146
9.44985, 22, -29.1068, -11.2955, 31.201, -155.298, -87.4848, 49.5799
9.45538, 22, -29.1039, -11.3122, 31.2145, -155.289, -87.4738, 49.5683
9.46331, 22, -29.0982, -11.3458, 31.2414, -155.271, -87.4514, 49.5454
9.47132, 22, -29.0924, -11.3795, 31.2685, -155.252, -87.4285, 49.5223
9.47942, 22, -29.0866, -11.4131, 31.2957, -155.234, -87.4056, 49.4987
9.48734, 22, -29.0808, -11.4469, 31.323, -155.215, -87.3831, 49.4747
9.49538, 22, -29.075, -11.4807, 31.3501, -155.196, -87.3608, 49.4507
9.50331, 22, -29.0692, -11.5146, 31.3772, -155.177, -87.3386, 49.427
9.51131, 22, -29.0635, -11.5485, 31.4045, -155.159, -87.3163, 49.4037
9.51938, 22, -29.0577, -11.5823, 31.4319, -155.14, -87.2936, 49.3803
9.52732, 22, -29.0519, -11.6165, 31.4592, -155.121, -87.2707, 49.3569
9.53532, 22, -29.046, -11.6505, 31.4866, -155.103, -87.2479, 49.3336
9.54338, 22, -29.0401, -11.6846, 31.514, -155.084, -87.2254, 49.3098
9.55145, 22, -29.0343, -11.7187, 31.5415, -155.065, -87.2028, 49.2857
9.56031, 22, -29.0285, -11.753, 31.5689, -155.045, -87.1804, 49.2616
9.5683, 22, -29.0227, -11.7872, 31.5963, -155.026, -87.1573, 49.2379
9.57531, 22, -29.0169, -11.8215, 31.6239, -155.007, -87.134, 49.2144
9.58332, 22, -29.0112, -11.8559, 31.6516, -154.989, -87.1106, 49.191
9.59137, 22, -29.0054, -11.8903, 31.6791, -154.97, -87.0876, 49.1677
9.59938, 23, -28.9996, -11.9246, 31.7067, -154.951, -87.0648, 49.1441
9.60743, 23, -28.9939, -11.959, 31.7344, -154.932, -87.0422, 49.1202
9.61535, 23, -28.9883, -11.9935, 31.7622, -154.913, -87.0193, 49.096
9.62338, 23, -28.9827, -12.0279, 31.7899, -154.893, -86.9959, 49.072
9.63132, 23, -28.977, -12.0625, 31.8177, -154.874, -86.9724, 49.0484
9.63934, 23, -28.9714, -12.097, 31.8456, -154.855, -86.9494, 49.0249
9.64743, 23, -28.9657, -12.1317, 31.8735, -154.836, -86.9264, 49.0015
9.65541, 23, -28.96, -12.1664, 31.9013, -154.817, -86.9035, 48.978
9.66348, 23, -28.9545, -12.2012, 31.9291, -154.797, -86.8803, 48.9542
9.67142, 23, -28.949, -12.236, 31.9571, -154.778, -86.8567, 48.9299
9.67942, 23, -28.9436, -12.2709, 31.9852, -154.758, -86.8327, 48.9052
9.68749, 23, -28.9382, -12.3058, 32.0131, -154.738, -86.8091, 48.8809
9.69532, 23, -28.9328, -12.3408, 32.041, -154.719, -86.7858, 48.8568
9.70335, 23, -28.9274, -12.3759, 32.0691, -154.699, -86.7626, 48.833
9.71141, 23, -28.922, -12.4109, 32.0974, -154.68, -86.7392, 48.8091
9.71942, 23, -28.9167, -12.446, 32.1255, -154.661, -86.7154, 48.7852
9.72781, 23, -28.9113, -12.4812, 32.1537, -154.641, -86.6913, 48.7609
9.73557, 23, -28.906, -12.5163, 32.1819, -154.621, -86.6675, 48.7363
9.74393, 23, -28.9007, -12.5515, 32.2102, -154.601, -86.6439, 48.7117
9.75206, 23, -28.8952, -12.5867, 32.2384, -154.581, -86.6205, 48.6875
9.76033, 23, -28.8898, -12.622, 32.2667, -154.561, -86.5969, 48.6634
9.76782, 23, -28.8843, -12.6573, 32.295, -154.541, -86.5729, 48.6395
9.7764, 23, -28.8789, -12.6926, 32.3235, -154.522, -86.5486, 48.6154
9.78385, 23, -28.8735, -12.7281, 32.3518, -154.502, -86.5245, 48.5912
9.79187, 23, -28.8681, -12.7635, 32.3802, -154.481, -86.5008, 48.5667
9.80062, 24, -28.8627, -12.799, 32.4086, -154.461, -86.4773, 48.5415
9.80794, 24, -28.86, -12.8344, 32.4371, -154.44, -86.4538, 48.5167
9.8163, 24, -28.8519, -12.8701, 32.4656, -154.42, -86.4298, 48.4922
9.82335, 24, -28.8493, -12.8878, 32.4798, -154.411, -86.4176, 48.48
9.83241, 24, -28.8413, -12.9413, 32.5227, -154.381, -86.3812, 48.4436
9.83932, 24, -28.8386, -12.9592, 32.537, -154.371, -86.3692, 48.4315
9.8493, 24, -28.8307, -13.0129, 32.5798, -154.34, -86.3335, 48.3945
9.8553, 24, -28.8281, -13.0308, 32.5941, -154.33, -86.3216, 48.382
9.86491, 24, -28.8203, -13.0846, 32.6372, -154.299, -86.2854, 48.3442
9.8736, 24, -28.8151, -13.1206, 32.6659, -154.279, -86.2608, 48.3193
9.87936, 24, -28.8125, -13.1386, 32.6802, -154.269, -86.2484, 48.307
9.8873, 24, -28.8072, -13.1746, 32.7089, -154.249, -86.2241, 48.2826
9.89534, 24, -28.802, -13.2106, 32.7377, -154.229, -86.2001, 48.2582
9.9033, 24, -28.7968, -13.2467, 32.7667, -154.209, -86.1762, 48.2338
9.91287, 24, -28.7892, -13.3008, 32.8098, -154.178, -86.14, 48.1967
9.91938, 24, -28.7866, -13.3189, 32.8243, -154.167, -86.1276, 48.1842
9.92892, 24, -28.779, -13.3732, 32.8678, -154.137, -86.0906, 48.1464
9.93683, 24, -28.7765, -13.3913, 32.8822, -154.127, -86.0785, 48.1219
9.94341, 24, -28.7714, -13.4275, 32.9111, -154.107, -86.0543, 48.1097
9.95129, 24, -28.7663, -13.4637, 32.9401, -154.087, -86.0302, 48.0853
9.95931, 24, -28.7613, -13.5, 32.9692, -154.066, -86.0058, 48.0609
9.96808, 24, -28.7563, -13.5364, 32.9983, -154.045, -85.981, 48.0363
9.97533, 24, -28.7513, -13.5727, 33.0273, -154.024, -85.9559, 48.0114
9.9834, 24, -28.7463, -13.6091, 33.0564, -154.003, -85.9313, 47.9862
9.99129, 24, -28.7413, -13.6456, 33.0857, -153.983, -85.907, 47.9611
9.99929, 24, -28.7363, -13.6822, 33.1149, -153.963, -85.8829, 47.9365
10.0073, 25, -28.7311, -13.7188, 33.144, -153.942, -85.8585, 47.9122
10.0153, 25, -28.7261, -13.7555, 33.1732, -153.921, -85.8336, 47.8881
10.0233, 25, -28.7209, -13.7921, 33.2026, -153.9, -85.8086, 47.8637
10.0314, 25, -28.7159, -13.8289, 33.2318, -153.879, -85.7839, 47.8392
10.0394, 25, -28.7108, -13.8658, 33.2611, -153.858, -85.7594, 47.814
10.0473, 25, -28.7058, -13.9026, 33.2905, -153.837, -85.7349, 47.7889
10.0553, 25, -28.7009, -13.9394, 33.32, -153.816, -85.7102, 47.7639
10.0633, 25, -28.696, -13.9763, 33.3493, -153.796, -85.6849, 47.7394
10.0714, 25, -28.691, -14.0132, 33.3787, -153.774, -85.6596, 47.7151
10.0793, 25, -28.6861, -14.0502, 33.4083, -153.753, -85.6347, 47.6907
10.0873, 25, -28.6812, -14.0872, 33.438, -153.731, -85.6101, 47.6661
10.0954, 25, -28.6763, -14.1242, 33.4675, -153.71, -85.5856, 47.6411
10.1033, 25, -28.6715, -14.1611, 33.497, -153.689, -85.5607, 47.6159
10.1114, 25, -28.6667, -14.1981, 33.5268, -153.668, -85.5355, 47.5908
10.1193, 25, -28.6619, -14.2353, 33.5565, -153.647, -85.5102, 47.5662
10.1275, 25, -28.6571, -14.2723, 33.5861, -153.625, -85.4854, 47.5416
10.1361, 25, -28.6522, -14.3094, 33.6158, -153.604, -85.4607, 47.5171
10.1443, 25, -28.6474, -14.3467, 33.6456, -153.582, -85.436, 47.4925
10.1517, 25, -28.6425, -14.3839, 33.6753, -153.56, -85.4108, 47.4675
10.1604, 25, -28.6378, -14.4211, 33.7049, -153.539, -85.3852, 47.4423
10.1708, 25, -28.633, -14.4585, 33.7347, -153.508, -85.3473, 47.4043
10.1763, 25, -28.6283, -14.4959, 33.7646, -153.497, -85.3348, 47.3918
10.1843, 25, -28.6236, -14.5333, 33.7944, -153.475, -85.3099, 47.367
10.1913, 25, -28.6189, -14.5708, 33.8242, -153.453, -85.2851, 47.3425
10.1998, 25, -28.6143, -14.6083, 33.8541, -153.432, -85.2598, 47.3179
10.2073, 25, -28.6096, -14.6459, 33.884, -153.41, -85.2341, 47.2932
10.2153, 26, -28.605, -14.6833, 33.9138, -153.389, -85.2088, 47.2681
10.2243, 26, -28.6003, -14.7209, 33.9437, -153.368, -85.1837, 47.2426
10.2331, 26, -28.5957, -14.7585, 33.9738, -153.346, -85.1587, 47.2174
10.2403, 26, -28.591, -14.7962, 34.0038, -153.324, -85.1335, 47.1927
10.2475, 26, -28.5864, -14.8338, 34.0337, -153.302, -85.1078, 47.168
10.2556, 26, -28.5817, -14.8714, 34.0638, -153.28, -85.0818, 47.1433
10.2638, 26, -28.5769, -14.909, 34.094, -153.259, -85.0563, 47.1186
10.2724, 26, -28.572, -14.9467, 34.1241, -153.238, -85.0311, 47.0935
10.2799, 26, -28.5672, -14.9844, 34.1542, -153.216, -85.006, 47.0682
10.2893, 26, -28.5624, -15.0222, 34.1844, -153.194, -84.9806, 47.043
10.2958, 26, -28.5575, -15.0599, 34.2147, -153.172, -84.9548, 47.018
10.3045, 26, -28.5527, -15.0977, 34.2448, -153.15, -84.929, 46.9936
10.312, 26, -28.548, -15.1355, 34.275, -153.128, -84.9034, 46.9691
10.3205, 26, -28.5432, -15.1734, 34.3054, -153.107, -84.8781, 46.9446
10.3273, 26, -28.5408, -15.1924, 34.3206, -153.096, -84.8655, 46.9323
10.3363, 26, -28.5338, -15.2494, 34.3659, -153.063, -84.827, 46.8949
10.3433, 26, -28.5315, -15.2684, 34.3811, -153.052, -84.814, 46.8823
10.3513, 26, -28.5268, -15.3065, 34.4115, -153.029, -84.7879, 46.8573
10.3606, 26, -28.52, -15.3637, 34.4571, -152.996, -84.7495, 46.8204
10.3673, 26, -28.5177, -15.3828, 34.4722, -152.985, -84.7368, 46.8083
10.3766, 26, -28.5109, -15.44, 34.5178, -152.952, -84.6988, 46.7719
10.3834, 26, -28.5086, -15.4591, 34.533, -152.941, -84.6859, 46.7597
10.3934, 26, -28.5017, -15.5163, 34.5787, -152.908, -84.6468, 46.7227
10.3993, 26, -28.4994, -15.5354, 34.5939, -152.896, -84.6339, 46.7101
10.4089, 26, -28.4925, -15.5928, 34.6396, -152.862, -84.5955, 46.6725
10.4173, 27, -28.4878, -15.6309, 34.6701, -152.84, -84.57, 46.6476
10.4233, 27, -28.4855, -15.65, 34.6853, -152.829, -84.5573, 46.6353
10.433, 27, -28.4787, -15.7075, 34.7311, -152.796, -84.518, 46.5986
10.4417, 27, -28.4764, -15.7267, 34.7465, -152.785, -84.5048, 46.5864
10.4474, 27, -28.4719, -15.765, 34.7771, -152.762, -84.4787, 46.5618
10.4583, 27, -28.4653, -15.8225, 34.8229, -152.727, -84.4403, 46.5246
10.4633, 27, -28.463, -15.8417, 34.8382, -152.716, -84.4276, 46.5121
10.4713, 27, -28.4586, -15.8802, 34.8689, -152.694, -84.4018, 46.4871
10.4793, 27, -28.4542, -15.9186, 34.8995, -152.672, -84.3757, 46.4625
10.4875, 27, -28.4497, -15.9572, 34.9301, -152.649, -84.3494, 46.438
10.4953, 27, -28.4453, -15.9957, 34.9609, -152.627, -84.3235, 46.4138
10.5033, 27, -28.4409, -16.0342, 34.9916, -152.604, -84.2977, 46.3894
10.5114, 27, -28.4365, -16.0729, 35.0222, -152.581, -84.272, 46.3648
10.5193, 27, -28.432, -16.1117, 35.0529, -152.558, -84.2459, 46.34
10.5273, 27, -28.4275, -16.1503, 35.0838, -152.536, -84.2194, 46.3148
10.5353, 27, -28.423, -16.189, 35.1146, -152.513, -84.1931, 46.29
10.5433, 27, -28.4185, -16.2278, 35.1453, -152.491, -84.1672, 46.2656
10.5513, 27, -28.4139, -16.2666, 35.176, -152.467, -84.1415, 46.2413
10.5593, 27, -28.4093, -16.3054, 35.207, -152.444, -84.1157, 46.217
10.5673, 27, -28.4047, -16.3441, 35.2378, -152.421, -84.0894, 46.1929
10.5754, 27, -28.4001, -16.3829, 35.2686, -152.399, -84.0629, 46.1682
10.5833, 27, -28.3956, -16.4217, 35.2996, -152.376, -84.0367, 46.1433
10.5913, 27, -28.3911, -16.4605, 35.3305, -152.354, -84.0107, 46.1183
10.5993, 27, -28.3867, -16.4993, 35.3614, -152.331, -83.9849, 46.0939
10.6074, 27, -28.3822, -16.5381, 35.3924, -152.308, -83.9587, 46.07
10.6153, 27, -28.3778, -16.5769, 35.4235, -152.285, -83.932, 46.046
10.6232, 28, -28.3733, -16.6158, 35.4545, -152.262, -83.9054, 46.0221
10.6313, 28, -28.3689, -16.6548, 35.4854, -152.239, -83.8793, 45.998
10.6393, 28, -28.3644, -16.6938, 35.5165, -152.217, -83.8535, 45.9737
10.6477, 28, -28.3601, -16.7328, 35.5476, -152.193, -83.8277, 45.9488
10.6554, 28, -28.3557, -16.7719, 35.5786, -152.17, -83.8015, 45.9243
10.6634, 28, -28.3513, -16.811, 35.6097, -152.146, -83.7749, 45.9002
10.6718, 28, -28.3469, -16.8501, 35.6409, -152.123, -83.7487, 45.8764
10.6803, 28, -28.3425, -16.8892, 35.6719, -152.1, -83.7226, 45.8528
10.6874, 28, -28.3381, -16.9284, 35.7029, -152.078, -83.6967, 45.8292
10.6962, 28, -28.3337, -16.9675, 35.7341, -152.054, -83.6705, 45.8052
10.7033, 28, -28.3292, -17.0067, 35.7653, -152.03, -83.6436, 45.781
10.7114, 28, -28.3248, -17.0459, 35.7965, -152.007, -83.6169, 45.7567
10.7202, 28, -28.3204, -17.085, 35.8275, -151.983, -83.5906, 45.7326
10.7274, 28, -28.3161, -17.1241, 35.8588, -151.96, -83.5646, 45.709
10.7356, 28, -28.3119, -17.1633, 35.8901, -151.937, -83.5386, 45.6856
10.7446, 28, -28.3077, -17.2026, 35.9212, -151.913, -83.5121, 45.6622
10.7515, 28, -28.3034, -17.2417, 35.9525, -151.889, -83.4852, 45.6389
10.7597, 28, -28.2991, -17.2809, 35.984, -151.865, -83.4588, 45.6152
10.7686, 28, -28.2949, -17.3202, 36.0152, -151.842, -83.4326, 45.5912
10.7758, 28, -28.2906, -17.3595, 36.0464, -151.819, -83.4066, 45.5672
10.7839, 28, -28.2863, -17.3988, 36.0779, -151.796, -83.3801, 45.5433
10.7931, 28, -28.2821, -17.4382, 36.1094, -151.772, -83.3532, 45.5199
10.8008, 28, -28.2779, -17.4775, 36.1407, -151.748, -83.3263, 45.4967
10.8079, 28, -28.2736, -17.5169, 36.1721, -151.724, -83.2998, 45.4736
10.8168, 28, -28.2693, -17.5564, 36.2036, -151.701, -83.2737, 45.4504
10.8233, 28, -28.2672, -17.5761, 36.2193, -151.689, -83.2606, 45.4387
10.8323, 29, -28.2605, -17.6353, 36.2663, -151.654, -83.2208, 45.4031
10.8393, 29, -28.2583, -17.6551, 36.282, -151.642, -83.2073, 45.3913
10.8483, 29, -28.2516, -17.7143, 36.3293, -151.606, -83.1671, 45.3561
10.8553, 29, -28.2493, -17.734, 36.345, -151.594, -83.1539, 45.3445
10.8646, 29, -28.2427, -17.7933, 36.3921, -151.558, -83.1145, 45.3102
10.8713, 29, -28.2405, -17.813, 36.4079, -151.546, -83.1012, 45.2987
10.8807, 29, -28.234, -17.8722, 36.4552, -151.511, -83.0607, 45.2643
10.8891, 29, -28.2297, -17.9118, 36.4866, -151.488, -83.0338, 45.2412
10.8953, 29, -28.2275, -17.9315, 36.5023, -151.476, -83.0205, 45.2294
10.9049, 29, -28.221, -17.9909, 36.5497, -151.44, -82.981, 45.1941
10.9137, 29, -28.2167, -18.0304, 36.5812, -151.416, -82.9547, 45.1707
10.9193, 29, -28.2145, -18.0502, 36.597, -151.404, -82.9415, 45.1592
10.9289, 29, -28.208, -18.1096, 36.6444, -151.369, -82.901, 45.1253
10.938, 29, -28.2059, -18.1294, 36.6602, -151.345, -82.8744, 45.1028
10.9448, 29, -28.2017, -18.1691, 36.6917, -151.333, -82.8612, 45.0915
10.9529, 29, -28.1974, -18.2088, 36.7233, -151.308, -82.8348, 45.0574
10.9603, 29, -28.1932, -18.2485, 36.7551, -151.284, -82.8084, 45.0459
10.9673, 29, -28.189, -18.2883, 36.7867, -151.26, -82.7814, 45.0228
10.9753, 29, -28.1847, -18.328, 36.8182, -151.237, -82.7543, 44.9998
10.9833, 29, -28.1803, -18.3677, 36.8498, -151.213, -82.7276, 44.9773
10.9914, 29, -28.1759, -18.4076, 36.8816, -151.189, -82.7014, 44.9552
10.9992, 29, -28.1716, -18.4473, 36.9132, -151.164, -82.6752, 44.9331
11.0073, 29, -28.1672, -18.4871, 36.9448, -151.139, -82.6486, 44.9111
11.0153, 29, -28.163, -18.5269, 36.9766, -151.115, -82.6216, 44.889
11.0233, 29, -28.1588, -18.5667, 37.0082, -151.091, -82.5948, 44.8667
11.0313, 29, -28.1545, -18.6064, 37.0397, -151.067, -82.5683, 44.8441
11.0393, 30, -28.1504, -18.6463, 37.0715, -151.042, -82.542, 44.8214
11.0473, 30, -28.1462, -18.6861, 37.1033, -151.017, -82.5155, 44.7993
11.0554, 30, -28.1419, -18.7259, 37.1349, -150.993, -82.4884, 44.7773
11.0633, 30, -28.1376, -18.7657, 37.1665, -150.969, -82.4612, 44.7557
11.0713, 30, -28.1334, -18.8055, 37.1983, -150.945, -82.4344, 44.7342
11.0793, 30, -28.1291, -18.8454, 37.23, -150.92, -82.4079, 44.7127
11.0873, 30, -28.1249, -18.8853, 37.2616, -150.896, -82.3817, 44.6911
11.0953, 30, -28.1206, -18.9253, 37.2934, -150.871, -82.3549, 44.6691
11.1033, 30, -28.1164, -18.9653, 37.3252, -150.846, -82.3277, 44.6472
11.1113, 30, -28.1121, -19.0052, 37.3568, -150.822, -82.3008, 44.6253
11.1193, 30, -28.1077, -19.0453, 37.3885, -150.798, -82.2742, 44.604
11.1273, 30, -28.1033, -19.0854, 37.4204, -150.774, -82.2477, 44.5828
11.1355, 30, -28.0988, -19.1254, 37.4521, -150.749, -82.2211, 44.5619
11.1433, 30, -28.0943, -19.1654, 37.4838, -150.724, -82.1939, 44.5409
11.1513, 30, -28.0899, -19.2055, 37.5156, -150.699, -82.1666, 44.5199
11.1602, 30, -28.0854, -19.2455, 37.5475, -150.675, -82.1399, 44.4988
11.1674, 30, -28.081, -19.2855, 37.5793, -150.651, -82.1134, 44.4773
11.1754, 30, -28.0766, -19.3254, 37.611, -150.627, -82.0871, 44.4558
11.1844, 30, -28.0722, -19.3654, 37.6429, -150.602, -82.0602, 44.4346
11.1931, 30, -28.0678, -19.4054, 37.6747, -150.577, -82.0331, 44.4137
11.1993, 30, -28.0635, -19.4453, 37.7065, -150.552, -82.0064, 44.3931
11.2082, 30, -28.059, -19.4853, 37.7384, -150.528, -81.9799, 44.3726
11.2153, 30, -28.0546, -19.5252, 37.7703, -150.504, -81.9536, 44.3522
11.2233, 30, -28.0502, -19.5651, 37.802, -150.479, -81.927, 44.3315
11.2315, 30, -28.0459, -19.6052, 37.8337, -150.454, -81.8997, 44.3108
11.2398, 31, -28.0416, -19.6452, 37.8656, -150.429, -81.8727, 44.2899
11.2475, 31, -28.0372, -19.6852, 37.8974, -150.404, -81.846, 44.269
11.2573, 31, -28.0328, -19.7253, 37.9292, -150.38, -81.8196, 44.2486
11.2645, 31, -28.0285, -19.7654, 37.9611, -150.355, -81.7934, 44.2284
11.2717, 31, -28.024, -19.8055, 37.9929, -150.331, -81.7665, 44.2085
11.2798, 31, -28.0195, -19.8455, 38.0247, -150.305, -81.7394, 44.1887
11.2886, 31, -28.015, -19.8856, 38.0566, -150.28, -81.7127, 44.1689
11.2958, 31, -28.0106, -19.9256, 38.0885, -150.255, -81.6861, 44.149
11.3063, 31, -28.0062, -19.9656, 38.1203, -150.23, -81.6597, 44.1289
11.3128, 31, -28.0018, -20.0057, 38.1521, -150.206, -81.633, 44.1086
11.32, 31, -27.9996, -20.0258, 38.168, -150.193, -81.6194, 44.0882
11.3278, 31, -27.9952, -20.0658, 38.2, -150.168, -81.5921, 44.0781
11.337, 31, -27.9887, -20.1257, 38.2477, -150.129, -81.5519, 44.0482
11.3444, 31, -27.9843, -20.1657, 38.2796, -150.105, -81.5255, 44.0288
11.3513, 31, -27.9821, -20.1857, 38.2955, -150.092, -81.5123, 44.0191
11.3613, 31, -27.9755, -20.2457, 38.3432, -150.055, -81.4721, 43.9902
11.3673, 31, -27.9733, -20.2657, 38.3591, -150.042, -81.4585, 43.9806
11.3765, 31, -27.9667, -20.3258, 38.4069, -150.004, -81.4181, 43.9514
11.3833, 31, -27.9645, -20.3459, 38.4229, -149.992, -81.4048, 43.9416
11.3913, 31, -27.96, -20.386, 38.4546, -149.967, -81.3784, 43.922
11.3992, 31, -27.9556, -20.4261, 38.4863, -149.942, -81.352, 43.9024
11.4104, 31, -27.9488, -20.4863, 38.534, -149.905, -81.3113, 43.8736
11.4153, 31, -27.9465, -20.5064, 38.5499, -149.892, -81.2977, 43.8642
11.4248, 31, -27.9395, -20.5666, 38.5975, -149.853, -81.2577, 43.8363
11.4313, 31, -27.9371, -20.5867, 38.6133, -149.841, -81.2445, 43.8271
11.4393, 31, -27.9324, -20.6268, 38.6452, -149.816, -81.2183, 43.8089
11.4489, 32, -27.9278, -20.6668, 38.6769, -149.791, -81.1782, 43.7814
11.4563, 32, -27.9233, -20.707, 38.7086, -149.767, -81.1647, 43.7723
11.4633, 32, -27.9187, -20.7471, 38.7405, -149.741, -81.1378, 43.7539
11.4712, 32, -27.9141, -20.7872, 38.7724, -149.716, -81.1114, 43.7353
11.4792, 32, -27.9096, -20.8272, 38.8041, -149.691, -81.085, 43.7167
11.4873, 32, -27.905, -20.8672, 38.8359, -149.666, -81.0586, 43.6984
11.4953, 32, -27.9004, -20.9072, 38.8677, -149.641, -81.0316, 43.6805
11.5032, 32, -27.8957, -20.9472, 38.8995, -149.616, -81.0044, 43.6629
11.5112, 32, -27.8911, -20.9872, 38.9313, -149.59, -80.9777, 43.6454
11.5194, 32, -27.8865, -21.0272, 38.9631, -149.564, -80.9513, 43.6281
11.5272, 32, -27.882, -21.0672, 38.9949, -149.539, -80.9251, 43.6107
11.5353, 32, -27.8773, -21.1072, 39.0265, -149.514, -80.8985, 43.5934
11.5433, 32, -27.8727, -21.1472, 39.0582, -149.489, -80.8715, 43.576
11.5513, 32, -27.8681, -21.1872, 39.09, -149.464, -80.8447, 43.5585
11.5593, 32, -27.8633, -21.2273, 39.1217, -149.438, -80.8183, 43.5411
11.5672, 32, -27.8586, -21.2675, 39.1534, -149.412, -80.792, 43.5237
11.5753, 32, -27.8539, -21.3075, 39.1851, -149.386, -80.7655, 43.5068
11.5833, 32, -27.8492, -21.3476, 39.2168, -149.361, -80.7386, 43.4901
11.5913, 32, -27.8446, -21.3876, 39.2485, -149.336, -80.7115, 43.4738
11.5994, 32, -27.84, -21.4276, 39.2801, -149.31, -80.6849, 43.4575
11.6075, 32, -27.8354, -21.4676, 39.3119, -149.284, -80.6587, 43.4413
11.6154, 32, -27.8308, -21.5076, 39.3436, -149.259, -80.6326, 43.4254
