hehonglu123/Motion-Primitive-Planning/realrobot/recorded_data/repeatibility/wood/v50_iteration2.csv
timestamp, cmd_num, J1, J2, J3, J4, J5, J6
0.000375, -1, 11.3777, 13.6145, 17.338, -145.519, -97.9227, 142.516
0.003001, -1, 11.3777, 13.6145, 17.338, -145.519, -97.9227, 142.516
0.007744, -1, 11.3777, 13.6145, 17.338, -145.519, -97.9227, 142.516
0.02845, -1, 11.3777, 13.6145, 17.338, -145.519, -97.9226, 142.516
0.03112, -1, 11.3777, 13.6145, 17.338, -145.519, -97.9226, 142.516
0.034315, -1, 11.3777, 13.6145, 17.338, -145.519, -97.9226, 142.516
0.039605, -1, 11.3777, 13.6145, 17.338, -145.519, -97.9227, 142.516
0.047557, -1, 11.3776, 13.6145, 17.338, -145.519, -97.9227, 142.516
0.201884, -1, 9.97022, 13.2351, 17.4277, -145.961, -97.7718, 139.957
0.20398, -1, 9.89308, 13.2144, 17.4327, -145.985, -97.7632, 139.818
0.205159, -1, 9.89308, 13.2144, 17.4327, -145.985, -97.7632, 139.818
0.207079, -1, 9.81553, 13.1937, 17.4377, -146.009, -97.7546, 139.679
0.20844, -1, 9.81553, 13.1937, 17.4377, -146.009, -97.7546, 139.679
0.209681, -1, 9.81553, 13.1937, 17.4377, -146.009, -97.7546, 139.679
0.211644, -1, 9.73773, 13.173, 17.4427, -146.033, -97.746, 139.539
0.215163, -1, 9.6599, 13.1523, 17.4477, -146.057, -97.7375, 139.399
0.216616, -1, 9.6599, 13.1523, 17.4477, -146.057, -97.7375, 139.399
0.217885, -1, 9.6599, 13.1523, 17.4477, -146.057, -97.7375, 139.399
0.219945, -1, 9.58217, 13.1317, 17.4527, -146.081, -97.7289, 139.259
0.221184, -1, 9.58217, 13.1317, 17.4527, -146.081, -97.7289, 139.259
0.224546, -1, 9.50462, 13.1111, 17.4577, -146.105, -97.7205, 139.12
0.225809, -1, 9.50462, 13.1111, 17.4577, -146.105, -97.7205, 139.12
0.228317, -1, 9.42728, 13.0905, 17.4626, -146.129, -97.7121, 138.98
0.231071, -1, 9.35003, 13.07, 17.4675, -146.153, -97.7037, 138.84
0.232435, -1, 9.35003, 13.07, 17.4675, -146.153, -97.7037, 138.84
0.233694, -1, 9.35003, 13.07, 17.4675, -146.153, -97.7037, 138.84
0.235655, -1, 9.27281, 13.0494, 17.4725, -146.177, -97.6953, 138.701
0.236944, -1, 9.27281, 13.0494, 17.4725, -146.177, -97.6953, 138.701
0.238205, -1, 9.27281, 13.0494, 17.4725, -146.177, -97.6953, 138.701
0.240451, -1, 9.19571, 13.0289, 17.4775, -146.201, -97.6869, 138.561
0.243644, -1, 9.11875, 13.0084, 17.4825, -146.225, -97.6786, 138.421
0.244887, -1, 9.11875, 13.0084, 17.4825, -146.225, -97.6786, 138.421
0.248183, -1, 9.04189, 12.9879, 17.4875, -146.249, -97.6702, 138.281
0.255733, -1, 8.88826, 12.9469, 17.4976, -146.297, -97.6533, 138.001
0.263544, -1, 8.73486, 12.9059, 17.5077, -146.345, -97.6361, 137.722
0.27227, -1, 8.58203, 12.8648, 17.5178, -146.393, -97.6186, 137.442
0.279652, -1, 8.42943, 12.8236, 17.528, -146.441, -97.6012, 137.162
0.28767, -1, 8.27649, 12.7823, 17.5382, -146.488, -97.5839, 136.882
0.296293, -1, 8.12308, 12.7408, 17.5483, -146.536, -97.5669, 136.602
0.303845, -1, 7.96921, 12.6993, 17.5585, -146.584, -97.5501, 136.322
0.311979, -1, 7.8146, 12.6578, 17.5686, -146.632, -97.5334, 136.041
0.320682, -1, 7.65958, 12.6162, 17.5787, -146.68, -97.5168, 135.761
0.328034, -1, 7.50446, 12.5747, 17.5889, -146.728, -97.4999, 135.482
0.336046, -1, 7.34925, 12.5333, 17.5991, -146.776, -97.4827, 135.201
0.344051, -1, 7.19406, 12.492, 17.6093, -146.824, -97.4653, 134.921
0.352122, -1, 7.03881, 12.4507, 17.6196, -146.873, -97.4481, 134.641
0.36019, -1, 6.88353, 12.4095, 17.6299, -146.92, -97.431, 134.361
0.368163, -1, 6.72847, 12.3684, 17.6403, -146.968, -97.4141, 134.08
0.376249, -1, 6.57374, 12.3272, 17.6507, -147.017, -97.3974, 133.8
0.383533, -1, 6.4965, 12.3066, 17.6559, -147.041, -97.389, 133.66
0.391524, -1, 6.34218, 12.2654, 17.6662, -147.089, -97.3722, 133.379
0.399576, -1, 6.18795, 12.2241, 17.6765, -147.137, -97.3552, 133.099
0.407538, -1, 6.03369, 12.1828, 17.6867, -147.185, -97.3379, 132.818
0.41557, -1, 5.87913, 12.1414, 17.697, -147.233, -97.3203, 132.537
0.423526, -1, 5.72438, 12.0998, 17.7073, -147.281, -97.3028, 132.257
0.431532, -1, 5.56951, 12.0582, 17.7176, -147.329, -97.2857, 131.976
0.439598, -1, 5.41435, 12.0167, 17.7278, -147.377, -97.2687, 131.695
0.447527, -1, 5.25896, 11.975, 17.7381, -147.425, -97.252, 131.414
0.455592, -1, 5.10328, 11.9335, 17.7484, -147.473, -97.2352, 131.133
0.463568, -1, 4.94745, 11.892, 17.7589, -147.521, -97.2184, 130.852
0.471523, -1, 4.79153, 11.8505, 17.7694, -147.57, -97.2012, 130.571
0.479558, -1, 4.63565, 11.809, 17.7798, -147.618, -97.1838, 130.29
0.487589, -1, 4.47989, 11.7677, 17.7902, -147.666, -97.1663, 130.01
0.495535, -1, 4.32421, 11.7263, 17.8006, -147.714, -97.1491, 129.729
0.503529, -1, 4.16888, 11.685, 17.811, -147.763, -97.1321, 129.448
0.51252, -1, 4.01391, 11.6437, 17.8214, -147.811, -97.1152, 129.166
0.519524, -1, 3.85933, 11.6024, 17.8317, -147.859, -97.0984, 128.885
0.528534, -1, 3.70494, 11.561, 17.8421, -147.908, -97.0816, 128.604
0.53563, -1, 3.5504, 11.5195, 17.8524, -147.956, -97.0645, 128.323
0.543522, -1, 3.39573, 11.4778, 17.8627, -148.005, -97.0472, 128.041
0.551528, -1, 3.24085, 11.4363, 17.8732, -148.053, -97.0297, 127.76
0.559588, -1, 3.08575, 11.3946, 17.8836, -148.101, -97.0122, 127.478
0.567523, -1, 2.93044, 11.3529, 17.894, -148.149, -96.995, 127.197
0.575539, -1, 2.77479, 11.3112, 17.9043, -148.197, -96.9781, 126.915
0.583625, -1, 2.61888, 11.2696, 17.9147, -148.245, -96.9614, 126.634
0.591517, -1, 2.46259, 11.228, 17.9251, -148.294, -96.9447, 126.352
0.599525, -1, 2.30599, 11.1864, 17.9355, -148.342, -96.9279, 126.07
0.607588, -1, 2.14926, 11.1447, 17.9459, -148.39, -96.9108, 125.788
0.61553, -1, 1.99247, 11.103, 17.9563, -148.439, -96.8933, 125.506
0.623531, -1, 1.83577, 11.0615, 17.9666, -148.487, -96.8759, 125.225
0.631587, -1, 1.67931, 11.0199, 17.9771, -148.535, -96.8586, 124.942
0.639588, -1, 1.52311, 10.9782, 17.9876, -148.584, -96.8416, 124.661
0.647549, -1, 1.3671, 10.9367, 17.998, -148.633, -96.8247, 124.379
0.784852, -1, -1.28689, 10.227, 18.1748, -149.457, -96.5336, 119.574
0.786047, -1, -1.28689, 10.227, 18.1748, -149.457, -96.5336, 119.574
0.788064, -1, -1.36533, 10.2061, 18.18, -149.482, -96.5252, 119.432
0.789331, -1, -1.36533, 10.2061, 18.18, -149.482, -96.5252, 119.432
0.790605, -1, -1.36533, 10.2061, 18.18, -149.482, -96.5252, 119.432
0.79253, -1, -1.44367, 10.1852, 18.1852, -149.506, -96.5168, 119.291
0.793849, -1, -1.44367, 10.1852, 18.1852, -149.506, -96.5168, 119.291
0.796674, -1, -1.52198, 10.1643, 18.1904, -149.53, -96.5084, 119.149
0.797966, -1, -1.52198, 10.1643, 18.1904, -149.53, -96.5084, 119.149
0.799867, -1, -1.60022, 10.1434, 18.1956, -149.554, -96.5, 119.008
0.80124, -1, -1.60022, 10.1434, 18.1956, -149.554, -96.5, 119.008
0.802483, -1, -1.60022, 10.1434, 18.1956, -149.554, -96.5, 119.008
0.80512, -1, -1.67836, 10.1226, 18.2009, -149.579, -96.4915, 118.866
0.808096, -1, -1.75639, 10.1017, 18.2061, -149.603, -96.4829, 118.724
0.809481, -1, -1.75639, 10.1017, 18.2061, -149.603, -96.4829, 118.724
0.812209, -1, -1.83427, 10.0808, 18.2113, -149.627, -96.4742, 118.583
0.813483, -1, -1.83427, 10.0808, 18.2113, -149.627, -96.4742, 118.583
0.814792, -1, -1.83427, 10.0808, 18.2113, -149.627, -96.4742, 118.583
0.816802, -1, -1.91203, 10.0599, 18.2165, -149.652, -96.4655, 118.441
0.818129, -1, -1.91203, 10.0599, 18.2165, -149.652, -96.4655, 118.441
0.819942, -1, -1.9897, 10.039, 18.2218, -149.676, -96.4567, 118.299
0.824076, -1, -2.0673, 10.0181, 18.227, -149.7, -96.4478, 118.157
0.832036, -1, -2.22244, 9.97633, 18.2374, -149.749, -96.4302, 117.874
0.840008, -1, -2.37768, 9.93451, 18.2477, -149.798, -96.4129, 117.591
0.846504, -1, -2.45544, 9.91355, 18.253, -149.822, -96.4044, 117.449
0.856534, -1, -2.68906, 9.85069, 18.2686, -149.895, -96.3791, 117.023
0.864083, -1, -2.84524, 9.80879, 18.2789, -149.943, -96.3624, 116.74
0.87213, -1, -3.00196, 9.76687, 18.2893, -149.992, -96.3455, 116.456
0.880163, -1, -3.08047, 9.74593, 18.2944, -150.016, -96.337, 116.172
0.887503, -1, -3.2377, 9.70402, 18.3049, -150.065, -96.3197, 116.03
0.895592, -1, -3.39542, 9.66207, 18.3154, -150.113, -96.3021, 115.746
0.903519, -1, -3.55336, 9.62013, 18.3258, -150.162, -96.2846, 115.463
0.911507, -1, -3.71123, 9.5783, 18.3362, -150.211, -96.2673, 115.178
0.919588, -1, -3.86922, 9.53641, 18.3465, -150.259, -96.2502, 114.894
0.927519, -1, -4.0273, 9.49446, 18.3569, -150.308, -96.2332, 114.61
0.93555, -1, -4.18508, 9.45261, 18.3673, -150.357, -96.2163, 114.326
0.94355, -1, -4.34275, 9.41071, 18.3776, -150.406, -96.1992, 114.041
0.951512, -1, -4.50008, 9.3688, 18.388, -150.455, -96.1819, 113.756
0.959573, -1, -4.65715, 9.32685, 18.3983, -150.504, -96.1642, 113.472
0.967555, -1, -4.81371, 9.28487, 18.4087, -150.552, -96.1464, 113.188
0.975517, -1, -4.96995, 9.24285, 18.4192, -150.602, -96.129, 112.903
0.98353, -1, -5.12587, 9.20086, 18.4297, -150.65, -96.1118, 112.618
0.991562, -1, -5.28169, 9.15881, 18.4402, -150.698, -96.0948, 112.333
0.999514, -1, -5.43776, 9.11667, 18.4507, -150.748, -96.0779, 112.049
1.0075, -1, -5.59395, 9.07457, 18.4611, -150.796, -96.061, 111.764
1.01562, -1, -5.75041, 9.03253, 18.4715, -150.845, -96.0439, 111.479
1.02455, -1, -5.90737, 8.99039, 18.4819, -150.894, -96.0265, 111.194
1.03157, -1, -6.06482, 8.94824, 18.4922, -150.943, -96.0089, 110.909
1.03952, -1, -6.22283, 8.90615, 18.5025, -150.991, -95.9913, 110.624
1.04752, -1, -6.38119, 8.86408, 18.5128, -151.041, -95.9741, 110.339
1.05559, -1, -6.53966, 8.82206, 18.5231, -151.09, -95.9571, 110.054
1.06351, -1, -6.69824, 8.77998, 18.5337, -151.138, -95.9401, 109.769
1.07159, -1, -6.85703, 8.73793, 18.5442, -151.188, -95.9232, 109.483
1.07961, -1, -7.01565, 8.69593, 18.5546, -151.237, -95.906, 109.197
1.08757, -1, -7.17412, 8.65387, 18.5651, -151.286, -95.8886, 108.912
1.09558, -1, -7.33239, 8.61179, 18.5754, -151.335, -95.8709, 108.627
1.10351, -1, -7.49019, 8.56961, 18.5859, -151.384, -95.8531, 108.341
1.11152, -1, -7.64783, 8.52737, 18.5963, -151.433, -95.8356, 108.055
1.11958, -1, -7.80511, 8.48518, 18.6067, -151.483, -95.8185, 107.77
1.1275, -1, -7.96196, 8.44295, 18.6171, -151.531, -95.8014, 107.484
1.13551, -1, -8.11862, 8.40061, 18.6274, -151.58, -95.7845, 107.198
1.14416, -1, -8.27524, 8.35833, 18.6379, -151.629, -95.7675, 106.912
1.15154, -1, -8.43195, 8.31601, 18.6484, -151.678, -95.7503, 106.626
1.15951, -1, -8.58892, 8.27367, 18.6589, -151.727, -95.7328, 106.34
1.16833, -1, -8.74625, 8.23144, 18.6693, -151.776, -95.7151, 106.054
1.1755, -1, -8.90396, 8.18919, 18.6797, -151.825, -95.6975, 105.767
1.18354, -1, -9.06212, 8.1469, 18.6901, -151.874, -95.6802, 105.481
1.19235, -1, -9.22075, 8.10472, 18.7005, -151.924, -95.663, 105.195
1.19951, -1, -9.37969, 8.0625, 18.7109, -151.972, -95.6459, 104.908
1.20781, -1, -9.53881, 8.02022, 18.7214, -152.022, -95.6288, 104.622
1.21639, -1, -9.69806, 7.97808, 18.7318, -152.072, -95.6115, 104.335
1.22359, -1, -9.85739, 7.93596, 18.7422, -152.12, -95.594, 104.048
1.23193, -1, -10.0168, 7.89368, 18.7528, -152.17, -95.5761, 103.761
1.24041, -1, -10.1761, 7.85138, 18.7634, -152.219, -95.5583, 103.474
1.24762, -1, -10.3351, 7.80896, 18.774, -152.268, -95.5407, 103.188
1.25615, -1, -10.4938, 7.7665, 18.7845, -152.318, -95.5235, 102.9
1.26446, -1, -10.6523, 7.72406, 18.7949, -152.367, -95.5065, 102.613
1.27153, -1, -10.8104, 7.68162, 18.8053, -152.416, -95.4895, 102.327
1.28032, -1, -10.9681, 7.63908, 18.8158, -152.465, -95.4724, 102.039
1.28846, -1, -11.1256, 7.5966, 18.8262, -152.515, -95.4551, 101.752
1.29562, -1, -11.2829, 7.55414, 18.8366, -152.564, -95.4374, 101.465
1.3045, -1, -11.4404, 7.51169, 18.8471, -152.613, -95.4196, 101.177
1.31264, -1, -11.598, 7.46921, 18.8575, -152.663, -95.4021, 100.89
1.31986, -1, -11.756, 7.42683, 18.8681, -152.711, -95.3847, 100.602
1.32884, -1, -11.9144, 7.38445, 18.8786, -152.761, -95.3675, 100.315
1.33601, -1, -12.0731, 7.34211, 18.8892, -152.811, -95.3503, 100.027
1.34409, -1, -12.2323, 7.29974, 18.8997, -152.86, -95.3331, 99.7394
1.35286, -1, -12.3919, 7.25735, 18.9102, -152.91, -95.3158, 99.4513
1.36006, -1, -12.5518, 7.21497, 18.9207, -152.959, -95.298, 99.1634
1.36813, -1, -12.7118, 7.17259, 18.9312, -153.008, -95.2801, 98.8756
1.37606, -1, -12.7919, 7.15139, 18.9364, -153.058, -95.2623, 98.5877
1.38484, -1, -12.952, 7.10891, 18.9469, -153.083, -95.2535, 98.4436
1.39153, -1, -13.112, 7.06636, 18.9574, -153.132, -95.236, 98.1553
1.3995, -1, -13.2717, 7.02378, 18.9679, -153.182, -95.2188, 97.8674
1.40749, -1, -13.4312, 6.98119, 18.9785, -153.231, -95.2018, 97.5791
1.41554, -1, -13.5905, 6.93847, 18.989, -153.28, -95.1846, 97.2907
1.42353, -1, -13.7496, 6.89578, 18.9996, -153.33, -95.1672, 97.0021
1.43149, -1, -13.9084, 6.85311, 19.0101, -153.379, -95.1496, 96.7136
1.43955, -1, -14.0667, 6.8104, 19.0205, -153.428, -95.1318, 96.425
1.44748, -1, -14.2248, 6.76778, 19.0311, -153.478, -95.1141, 96.1362
1.45549, -1, -14.383, 6.72515, 19.0415, -153.527, -95.0967, 95.8473
1.4635, -1, -14.5414, 6.68247, 19.052, -153.577, -95.0794, 95.5586
1.47149, -1, -14.7, 6.6399, 19.0626, -153.627, -95.0623, 95.2696
1.47955, -1, -14.8591, 6.59737, 19.073, -153.676, -95.0451, 94.9802
1.48752, -1, -15.0184, 6.55474, 19.0837, -153.725, -95.0277, 94.6911
1.49548, -1, -15.1781, 6.51216, 19.0944, -153.776, -95.01, 94.4021
1.5036, -1, -15.3383, 6.46964, 19.1051, -153.825, -94.992, 94.113
1.51149, -1, -15.4988, 6.42703, 19.1157, -153.874, -94.9741, 93.8235
1.52048, -1, -15.6595, 6.38438, 19.1263, -153.925, -94.9565, 93.5344
1.5276, -1, -15.8204, 6.3417, 19.1368, -153.974, -94.9391, 93.2452
1.53654, -1, -15.9811, 6.29892, 19.1474, -154.024, -94.9219, 92.9557
1.5435, -1, -16.1419, 6.25609, 19.158, -154.074, -94.9048, 92.666
1.55155, -1, -16.3026, 6.21325, 19.1685, -154.123, -94.8876, 92.3765
1.55949, -1, -16.463, 6.17032, 19.179, -154.172, -94.8701, 92.0869
1.56753, -1, -16.6232, 6.12735, 19.1894, -154.222, -94.8522, 91.7968
1.57555, -1, -16.783, 6.08447, 19.2001, -154.272, -94.8344, 91.5068
1.5835, -1, -16.9424, 6.04152, 19.2107, -154.322, -94.8167, 91.217
1.59151, -1, -17.1017, 5.99861, 19.2213, -154.372, -94.7992, 90.9269
1.59966, -1, -17.2608, 5.95577, 19.2319, -154.421, -94.7818, 90.6366
1.60749, -1, -17.4199, 5.91296, 19.2424, -154.471, -94.7645, 90.3462
1.61555, -1, -17.5792, 5.87019, 19.253, -154.521, -94.7471, 90.056
1.62349, -1, -17.7387, 5.82746, 19.2636, -154.57, -94.7295, 89.7658
1.63148, -1, -17.8982, 5.78471, 19.2743, -154.62, -94.7116, 89.4754
1.63956, -1, -18.0583, 5.74199, 19.2849, -154.67, -94.6935, 89.1848
1.64748, -1, -18.2188, 5.69928, 19.2954, -154.72, -94.6756, 88.8945
1.65551, -1, -18.3798, 5.65655, 19.306, -154.77, -94.6579, 88.6039
1.6636, -1, -18.5412, 5.61365, 19.3167, -154.821, -94.6406, 88.3129
1.67152, -1, -18.7028, 5.57069, 19.3274, -154.87, -94.6233, 88.022
1.67949, -1, -18.8644, 5.52775, 19.338, -154.921, -94.606, 87.7312
1.68755, -1, -19.026, 5.48473, 19.3486, -154.97, -94.5886, 87.4401
1.69549, -1, -19.1876, 5.44159, 19.3591, -155.02, -94.5708, 87.1487
1.70349, -1, -19.349, 5.39847, 19.3697, -155.07, -94.5527, 86.8576
1.71158, -1, -19.5102, 5.35531, 19.3802, -155.12, -94.5347, 86.5662
1.71963, -1, -19.6709, 5.31209, 19.3908, -155.169, -94.517, 86.2746
1.72765, -1, -19.8315, 5.269, 19.4014, -155.22, -94.4994, 85.9829
1.73558, -1, -19.9918, 5.22589, 19.412, -155.269, -94.482, 85.6914
1.74358, -1, -20.1519, 5.1828, 19.4228, -155.319, -94.4647, 85.3999
1.75214, -1, -20.3117, 5.13989, 19.4336, -155.37, -94.4472, 85.1081
1.75969, -1, -20.4716, 5.09696, 19.4444, -155.419, -94.4295, 84.8164
1.76748, -1, -20.6317, 5.05393, 19.4552, -155.47, -94.4114, 84.5248
1.77646, -1, -20.792, 5.01105, 19.4658, -155.52, -94.3934, 84.2331
1.78352, -1, -20.9528, 4.96821, 19.4765, -155.57, -94.3757, 83.941
1.79159, -1, -21.1139, 4.9252, 19.4872, -155.62, -94.3582, 83.6489
1.8006, -1, -21.2754, 4.88221, 19.4977, -155.671, -94.341, 83.3569
1.80767, -1, -21.4375, 4.8391, 19.5083, -155.721, -94.3238, 83.0648
1.81581, -1, -21.5996, 4.79587, 19.5189, -155.771, -94.3065, 82.7723
1.82486, -1, -21.7619, 4.75272, 19.5297, -155.822, -94.2889, 82.4799
1.83189, -1, -21.9244, 4.7094, 19.5404, -155.871, -94.2709, 82.1876
1.84003, -1, -22.0868, 4.66605, 19.5512, -155.922, -94.2529, 81.8949
1.84887, -1, -22.2493, 4.62271, 19.5619, -155.972, -94.2351, 81.6021
1.85606, -1, -22.4117, 4.57933, 19.5725, -156.022, -94.2176, 81.3094
1.86408, -1, -22.5735, 4.53595, 19.5832, -156.072, -94.2001, 81.0168
1.8731, -1, -22.7351, 4.49257, 19.5939, -156.122, -94.1827, 80.724
1.88066, -1, -22.8964, 4.44922, 19.6045, -156.172, -94.1652, 80.4308
1.88808, -1, -22.977, 4.42758, 19.6098, -156.198, -94.1473, 80.138
1.89548, -1, -23.138, 4.38437, 19.6205, -156.248, -94.1383, 79.9915
1.90347, -1, -23.2989, 4.3411, 19.6312, -156.298, -94.12, 79.6983
1.91152, -1, -23.4597, 4.29791, 19.6421, -156.349, -94.1019, 79.4048
1.91947, -1, -23.6206, 4.25466, 19.6529, -156.399, -94.0839, 79.1115
1.92755, -1, -23.7818, 4.21151, 19.6637, -156.45, -94.0663, 78.8182
1.93547, -1, -23.9431, 4.16833, 19.6744, -156.5, -94.0488, 78.5247
1.94347, -1, -24.1049, 4.12499, 19.685, -156.551, -94.0314, 78.2308
1.95153, -1, -24.2672, 4.08163, 19.6957, -156.601, -94.0139, 77.9372
1.95947, -1, -24.4299, 4.03823, 19.7064, -156.652, -93.9961, 77.6433
1.96748, -1, -24.5928, 3.99476, 19.717, -156.702, -93.978, 77.3492
1.97551, -1, -24.756, 3.95121, 19.7277, -156.752, -93.9598, 77.055
1.98347, -1, -24.9194, 3.90766, 19.7383, -156.803, -93.942, 76.7609
1.99152, -1, -25.0829, 3.86413, 19.7491, -156.853, -93.9243, 76.4669
1.99953, -1, -25.2461, 3.82055, 19.76, -156.903, -93.9068, 76.1725
2.0091, -1, -25.4089, 3.77697, 19.7762, -156.979, -93.8805, 75.7311
2.01548, -1, -25.5716, 3.73335, 19.7816, -157.004, -93.8716, 75.584
2.02447, -1, -25.7342, 3.68973, 19.7923, -157.054, -93.8538, 75.2895
2.03148, -1, -25.8966, 3.64628, 19.803, -157.105, -93.8355, 74.9949
2.04048, -1, -26.0587, 3.60281, 19.8137, -157.155, -93.8171, 74.7002
2.04852, -1, -26.2204, 3.55932, 19.8245, -157.206, -93.799, 74.4057
2.05547, -1, -26.382, 3.516, 19.8352, -157.257, -93.7812, 74.1109
2.06353, -1, -26.5436, 3.47262, 19.8459, -157.307, -93.7635, 73.8158
2.07148, -1, -26.7056, 3.42918, 19.8566, -157.358, -93.7459, 73.5209
2.07947, -1, -26.8678, 3.38572, 19.8675, -157.409, -93.7283, 73.2259
2.09085, -1, -27.112, 3.32037, 19.8837, -157.485, -93.7013, 72.7829
2.0955, -1, -27.1934, 3.29857, 19.8891, -157.51, -93.6922, 72.6353
2.10347, -1, -27.3568, 3.255, 19.8999, -157.561, -93.6739, 72.34
2.11155, -1, -27.5206, 3.21124, 19.9105, -157.611, -93.6558, 72.0447
2.11946, -1, -27.6845, 3.1675, 19.9213, -157.662, -93.6379, 71.7492
2.12747, -1, -27.8485, 3.12386, 19.932, -157.712, -93.6202, 71.4536
2.13553, -1, -28.0127, 3.08015, 19.9428, -157.763, -93.6026, 71.1581
2.14346, -1, -28.1768, 3.03643, 19.9536, -157.814, -93.5849, 70.8624
2.15147, -1, -28.3409, 2.99272, 19.9642, -157.864, -93.567, 70.5665
2.15956, -1, -28.5049, 2.94899, 19.9751, -157.915, -93.5487, 70.2705
2.16748, -1, -28.6685, 2.90536, 19.986, -157.966, -93.5302, 69.9746
2.17556, -1, -28.8319, 2.86169, 19.9967, -158.017, -93.512, 69.6785
2.18347, -1, -28.9949, 2.81803, 20.0076, -158.068, -93.494, 69.3819
2.19147, -1, -29.1576, 2.77442, 20.0182, -158.119, -93.4763, 69.0858
2.19953, -1, -29.3202, 2.73083, 20.029, -158.169, -93.4587, 68.7893
2.20751, -1, -29.483, 2.68724, 20.0398, -158.221, -93.441, 68.4926
2.21551, -1, -29.6458, 2.64356, 20.0506, -158.272, -93.4231, 68.1957
2.22362, -1, -29.8089, 2.59983, 20.0614, -158.323, -93.4049, 67.8989
2.23156, -1, -29.9721, 2.55609, 20.0722, -158.374, -93.3865, 67.6023
2.23957, -1, -30.1354, 2.5123, 20.0831, -158.425, -93.3683, 67.3054
2.24764, -1, -30.2993, 2.46836, 20.0941, -158.475, -93.3504, 67.0084
2.25558, -1, -30.4637, 2.42445, 20.105, -158.526, -93.3326, 66.7116
2.26357, -1, -30.6285, 2.3805, 20.1159, -158.577, -93.3149, 66.4145
2.27153, -1, -30.7935, 2.33654, 20.1266, -158.628, -93.2972, 66.1171
2.27949, -1, -30.9585, 2.29265, 20.1374, -158.679, -93.2792, 65.8198
2.28754, -1, -31.1235, 2.24868, 20.1484, -158.73, -93.2608, 65.5227
2.29566, -1, -31.2884, 2.20474, 20.1591, -158.781, -93.2423, 65.2253
2.30361, -1, -31.4532, 2.16094, 20.1699, -158.832, -93.2239, 64.9276
2.3118, -1, -31.6178, 2.11699, 20.1807, -158.883, -93.2059, 64.6301
2.31972, -1, -31.7822, 2.07304, 20.1915, -158.935, -93.1881, 64.3325
2.32783, -1, -31.9462, 2.02923, 20.2025, -158.986, -93.1705, 64.0345
2.33599, -1, -32.1101, 1.98531, 20.2134, -159.037, -93.1528, 63.7364
2.34461, -1, -32.2738, 1.94138, 20.2244, -159.088, -93.1349, 63.4385
2.35197, -1, -32.4373, 1.89747, 20.2352, -159.139, -93.1168, 63.1405
2.36056, -1, -32.601, 1.85341, 20.2461, -159.191, -93.0984, 62.8423
2.36803, -1, -32.7649, 1.8094, 20.2571, -159.242, -93.0801, 62.5441
2.3761, -1, -32.9289, 1.76536, 20.2679, -159.293, -93.0621, 62.2459
2.38412, -1, -33.011, 1.72117, 20.2788, -159.344, -93.0443, 61.9474
2.39145, -1, -33.1756, 1.69907, 20.2842, -159.37, -93.0353, 61.7981
2.39946, -1, -33.3406, 1.65492, 20.295, -159.421, -93.0176, 61.4996
2.40751, -1, -33.5059, 1.61072, 20.3059, -159.472, -92.9996, 61.2011
2.41545, -1, -33.6716, 1.56653, 20.3169, -159.524, -92.9814, 60.9025
2.42348, -1, -33.8373, 1.52235, 20.3279, -159.574, -92.9629, 60.6035
2.43154, -1, -34.003, 1.4782, 20.3388, -159.625, -92.9443, 60.3046
2.43945, -1, -34.169, 1.43407, 20.3496, -159.677, -92.9259, 60.0057
2.44745, -1, -34.3349, 1.38998, 20.3605, -159.728, -92.9078, 59.7064
2.45551, -1, -34.5007, 1.3458, 20.3714, -159.78, -92.8899, 59.4067
2.46346, -1, -34.6664, 1.30166, 20.3823, -159.832, -92.8722, 59.1073
2.47145, -1, -34.8315, 1.25753, 20.3933, -159.883, -92.8543, 58.808
2.4795, -1, -34.9965, 1.21336, 20.4041, -159.934, -92.8362, 58.5084
2.48745, -1, -35.1612, 1.1692, 20.4151, -159.986, -92.8177, 58.2087
2.49548, -1, -35.3257, 1.12493, 20.4262, -160.037, -92.7992, 57.9089
2.50353, -1, -35.4898, 1.08077, 20.4373, -160.089, -92.7809, 57.6092
2.51149, -1, -35.6524, 1.03696, 20.4486, -160.14, -92.7628, 57.3095
2.51945, -1, -35.8122, 0.993647, 20.46, -160.191, -92.7449, 57.0108
2.52752, -1, -35.9684, 0.951404, 20.4717, -160.242, -92.7272, 56.7151
2.53658, -1, -36.1195, 0.910738, 20.4837, -160.291, -92.7097, 56.4251
2.54347, -1, -36.2633, 0.872253, 20.4956, -160.339, -92.6926, 56.1447
2.55151, -1, -36.3975, 0.83661, 20.5072, -160.384, -92.676, 55.8801
2.55945, -1, -36.5207, 0.804061, 20.5178, -160.425, -92.6607, 55.6378
2.56745, -1, -36.6312, 0.77479, 20.5271, -160.461, -92.6473, 55.423
2.57551, -1, -36.7274, 0.749387, 20.5347, -160.492, -92.636, 55.2408
2.58347, -1, -36.8088, 0.727691, 20.54, -160.517, -92.627, 55.0937
2.59145, -1, -36.8765, 0.709704, 20.5431, -160.537, -92.6203, 54.9816
2.59955, -1, -36.9312, 0.695292, 20.5445, -160.55, -92.6156, 54.9015
2.60744, -1, -36.9731, 0.684243, 20.5449, -160.56, -92.6126, 54.847
2.61545, -1, -37.0037, 0.676099, 20.5447, -160.566, -92.6108, 54.8136
2.62353, -1, -37.0249, 0.670485, 20.5441, -160.569, -92.6098, 54.7945
2.63145, -1, -37.0383, 0.667098, 20.5437, -160.571, -92.6093, 54.7846
2.63945, -1, -37.0458, 0.665296, 20.5435, -160.572, -92.6091, 54.78
2.64751, 2, -37.0486, 0.664471, 20.5434, -160.572, -92.6089, 54.7778
2.65546, 2, -37.0487, 0.664121, 20.5434, -160.573, -92.6089, 54.7769
2.6635, 2, -37.0482, 0.663993, 20.5434, -160.573, -92.6088, 54.7765
2.67153, 2, -37.048, 0.663952, 20.5433, -160.573, -92.6088, 54.7764
2.67949, 2, -37.0484, 0.663913, 20.5433, -160.573, -92.6089, 54.7765
2.68745, 2, -37.0493, 0.66388, 20.5433, -160.573, -92.6089, 54.7766
2.69552, 2, -37.0504, 0.663808, 20.5432, -160.573, -92.6089, 54.7768
2.70346, 2, -37.0517, 0.663677, 20.5429, -160.573, -92.609, 54.7771
2.71149, 2, -37.053, 0.663502, 20.5428, -160.573, -92.609, 54.7774
2.71956, 2, -37.0542, 0.663309, 20.5426, -160.573, -92.6091, 54.7777
2.72754, 2, -37.0552, 0.663088, 20.5424, -160.573, -92.6091, 54.778
2.73555, 2, -37.0557, 0.662978, 20.5423, -160.573, -92.6091, 54.7783
2.74363, 2, -37.0557, 0.662954, 20.5421, -160.573, -92.6092, 54.7786
2.75156, 2, -37.0552, 0.662959, 20.542, -160.573, -92.6092, 54.779
2.75955, 2, -37.0541, 0.663006, 20.5419, -160.573, -92.6092, 54.7793
2.76766, 2, -37.0531, 0.66309, 20.5418, -160.573, -92.6092, 54.7795
2.77548, 2, -37.0516, 0.663181, 20.5418, -160.573, -92.6093, 54.7798
2.78349, 2, -37.0501, 0.663321, 20.5417, -160.573, -92.6093, 54.7799
2.79183, 2, -37.0488, 0.663399, 20.5416, -160.573, -92.6094, 54.7802
2.79958, 2, -37.048, 0.663434, 20.5416, -160.573, -92.6094, 54.7802
2.80762, 2, -37.0477, 0.663439, 20.5416, -160.573, -92.6094, 54.7803
2.81576, 2, -37.0476, 0.663398, 20.5416, -160.573, -92.6094, 54.7804
2.82406, 2, -37.0478, 0.663347, 20.5416, -160.573, -92.6094, 54.7804
2.83182, 2, -37.048, 0.66332, 20.5416, -160.573, -92.6095, 54.7804
2.84023, 2, -37.0484, 0.663262, 20.5416, -160.573, -92.6095, 54.7805
2.84837, 2, -37.0492, 0.663261, 20.5415, -160.573, -92.6095, 54.7805
2.85597, 2, -37.05, 0.663268, 20.5415, -160.573, -92.6095, 54.7805
2.86455, 2, -37.0508, 0.663269, 20.5415, -160.573, -92.6095, 54.7805
2.87245, 2, -37.0513, 0.66329, 20.5415, -160.573, -92.6095, 54.7805
2.88003, 2, -37.0515, 0.663288, 20.5415, -160.573, -92.6095, 54.7805
2.88827, 2, -37.0517, 0.663314, 20.5415, -160.573, -92.6095, 54.7806
2.89633, 2, -37.0517, 0.663339, 20.5415, -160.573, -92.6095, 54.7806
2.90345, 2, -37.0516, 0.663343, 20.5415, -160.573, -92.6095, 54.7807
2.91149, 2, -37.0512, 0.663318, 20.5415, -160.573, -92.6095, 54.7807
2.92032, 2, -37.0508, 0.663328, 20.5415, -160.573, -92.6095, 54.7807
2.92744, 2, -37.0505, 0.663322, 20.5415, -160.573, -92.6095, 54.7808
2.93552, 2, -37.0503, 0.663308, 20.5415, -160.573, -92.6095, 54.7808
2.94345, 2, -37.0502, 0.663295, 20.5415, -160.573, -92.6095, 54.7808
2.95143, 2, -37.0502, 0.663281, 20.5415, -160.573, -92.6095, 54.7808
2.95948, 2, -37.0501, 0.663277, 20.5415, -160.573, -92.6096, 54.7809
2.96744, 2, -37.0502, 0.66328, 20.5414, -160.573, -92.6096, 54.7809
2.97543, 2, -37.0502, 0.663282, 20.5414, -160.573, -92.6096, 54.7809
2.9835, 2, -37.0503, 0.663282, 20.5414, -160.573, -92.6096, 54.781
2.9915, 2, -37.0504, 0.663312, 20.5414, -160.573, -92.6096, 54.781
2.99946, 2, -37.0506, 0.663315, 20.5414, -160.573, -92.6096, 54.7811
3.00906, 2, -37.0508, 0.663334, 20.5414, -160.573, -92.6096, 54.7812
3.01547, 2, -37.0508, 0.663343, 20.5414, -160.573, -92.6096, 54.7812
3.02345, 2, -37.0508, 0.663347, 20.5414, -160.573, -92.6096, 54.7812
3.03149, 2, -37.0508, 0.663338, 20.5414, -160.573, -92.6096, 54.7813
3.03943, 2, -37.0508, 0.663308, 20.5414, -160.573, -92.6097, 54.7813
3.04743, 2, -37.0507, 0.663295, 20.5414, -160.573, -92.6096, 54.7813
3.05561, 2, -37.0507, 0.663299, 20.5414, -160.573, -92.6097, 54.7813
3.06345, 2, -37.0507, 0.663298, 20.5414, -160.573, -92.6097, 54.7814
3.07143, 2, -37.0507, 0.66329, 20.5414, -160.573, -92.6097, 54.7814
3.0795, 2, -37.0507, 0.663286, 20.5414, -160.573, -92.6097, 54.7814
3.08746, 2, -37.0507, 0.663284, 20.5414, -160.573, -92.6097, 54.7815
3.09543, 2, -37.0507, 0.663284, 20.5413, -160.573, -92.6098, 54.7815
3.10354, 2, -37.0507, 0.663313, 20.5413, -160.573, -92.6098, 54.7815
3.11144, 2, -37.0507, 0.663341, 20.5413, -160.572, -92.6098, 54.7816
3.11943, 2, -37.0506, 0.663351, 20.5413, -160.572, -92.6098, 54.7816
3.12749, 2, -37.0506, 0.663351, 20.5413, -160.572, -92.6098, 54.7816
3.13543, 2, -37.0506, 0.663351, 20.5413, -160.572, -92.6098, 54.7817
3.14345, 2, -37.0506, 0.66334, 20.5413, -160.572, -92.6098, 54.7817
3.1515, 2, -37.0506, 0.663338, 20.5413, -160.572, -92.6098, 54.7817
3.15943, 2, -37.0506, 0.663316, 20.5413, -160.572, -92.6098, 54.7817
3.16746, 2, -37.0506, 0.663298, 20.5413, -160.572, -92.6098, 54.7818
3.17549, 2, -37.0506, 0.66329, 20.5413, -160.572, -92.6098, 54.7818
3.18354, 2, -37.0506, 0.663286, 20.5413, -160.572, -92.6098, 54.7818
3.19143, 2, -37.0506, 0.663295, 20.5412, -160.572, -92.6099, 54.7819
3.1995, 2, -37.0506, 0.663296, 20.5412, -160.572, -92.6099, 54.782
3.20743, 2, -37.0506, 0.663318, 20.5412, -160.572, -92.6099, 54.7819
3.21546, 2, -37.0505, 0.663336, 20.5412, -160.572, -92.6099, 54.782
3.22359, 2, -37.0505, 0.663351, 20.5412, -160.572, -92.6098, 54.782
3.23152, 2, -37.0505, 0.663375, 20.5412, -160.572, -92.6099, 54.782
3.23953, 2, -37.0505, 0.663367, 20.5412, -160.572, -92.6099, 54.782
3.24761, 2, -37.0505, 0.663358, 20.5412, -160.572, -92.6099, 54.782
3.25554, 2, -37.0505, 0.663354, 20.5412, -160.572, -92.6099, 54.7821
3.26351, 2, -37.0504, 0.663334, 20.5412, -160.572, -92.6099, 54.7821
3.27164, 2, -37.0504, 0.663314, 20.5412, -160.572, -92.6099, 54.7821
3.27946, 2, -37.0504, 0.663315, 20.5412, -160.572, -92.6099, 54.7821
3.28746, 2, -37.0504, 0.663316, 20.5411, -160.572, -92.6099, 54.7821
3.29553, 2, -37.0504, 0.663317, 20.5411, -160.572, -92.6099, 54.7822
3.30355, 2, -37.0504, 0.663317, 20.5412, -160.572, -92.6099, 54.7822
3.31167, 2, -37.0504, 0.663317, 20.5411, -160.572, -92.6099, 54.7822
3.31971, 2, -37.0504, 0.663328, 20.5411, -160.572, -92.6099, 54.7823
3.32771, 2, -37.0503, 0.663329, 20.5411, -160.572, -92.6099, 54.7822
3.3359, 2, -37.0503, 0.663346, 20.5411, -160.572, -92.6099, 54.7823
3.34394, 2, -37.0503, 0.663348, 20.5411, -160.572, -92.6099, 54.7824
3.35258, 2, -37.0503, 0.663362, 20.5411, -160.572, -92.6099, 54.7824
3.36001, 2, -37.0503, 0.663363, 20.5411, -160.572, -92.6099, 54.7824
3.36863, 2, -37.0503, 0.663361, 20.5411, -160.572, -92.61, 54.7824
3.376, 2, -37.0503, 0.663337, 20.5411, -160.572, -92.61, 54.7824
3.38409, 2, -37.0503, 0.663345, 20.5411, -160.572, -92.61, 54.7824
3.39204, 2, -37.0502, 0.663347, 20.5411, -160.572, -92.61, 54.7824
3.39942, 2, -37.0502, 0.663349, 20.5411, -160.572, -92.61, 54.7824
3.40742, 2, -37.0502, 0.66335, 20.5411, -160.572, -92.61, 54.7824
3.41547, 2, -37.0502, 0.663321, 20.5411, -160.572, -92.61, 54.7825
3.42343, 2, -37.0502, 0.663319, 20.5411, -160.572, -92.61, 54.7825
3.43142, 2, -37.0502, 0.663336, 20.5411, -160.572, -92.61, 54.7824
3.4395, 2, -37.0502, 0.663349, 20.5411, -160.572, -92.61, 54.7825
3.44742, 2, -37.0501, 0.663369, 20.5411, -160.572, -92.61, 54.7825
3.45543, 2, -37.0501, 0.663377, 20.541, -160.572, -92.6101, 54.7825
3.46348, 2, -37.0501, 0.663363, 20.541, -160.572, -92.61, 54.7825
3.47141, 2, -37.0501, 0.663356, 20.541, -160.572, -92.61, 54.7825
3.481, 2, -37.0501, 0.66336, 20.541, -160.572, -92.6101, 54.7825
3.48747, 2, -37.0501, 0.663364, 20.541, -160.572, -92.61, 54.7825
3.49705, 2, -37.0501, 0.663343, 20.541, -160.572, -92.61, 54.7825
3.50346, 2, -37.0501, 0.663352, 20.541, -160.572, -92.61, 54.7825
3.51299, 2, -37.0501, 0.663357, 20.541, -160.572, -92.61, 54.7825
3.51945, 2, -37.05, 0.663353, 20.541, -160.572, -92.61, 54.7825
3.52842, 2, -37.05, 0.663341, 20.5409, -160.572, -92.61, 54.7826
3.53548, 2, -37.05, 0.663339, 20.5409, -160.572, -92.61, 54.7826
3.54343, 2, -37.05, 0.663353, 20.5409, -160.572, -92.61, 54.7826
3.55142, 2, -37.05, 0.663376, 20.5409, -160.572, -92.61, 54.7826
3.55947, 2, -37.0499, 0.66338, 20.5409, -160.572, -92.61, 54.7826
3.56742, 2, -37.0499, 0.663413, 20.5409, -160.572, -92.6099, 54.7826
3.57542, 2, -37.0499, 0.663399, 20.5409, -160.572, -92.61, 54.7826
3.5835, 2, -37.0499, 0.663385, 20.5409, -160.572, -92.61, 54.7826
3.59141, 2, -37.0499, 0.663372, 20.5409, -160.572, -92.61, 54.7826
3.59942, 2, -37.0498, 0.66336, 20.5409, -160.572, -92.61, 54.7826
3.60751, 2, -37.0498, 0.663367, 20.5409, -160.572, -92.61, 54.7827
3.61541, 2, -37.0498, 0.663358, 20.5409, -160.572, -92.6101, 54.7827
3.62343, 2, -37.0498, 0.663374, 20.5409, -160.572, -92.61, 54.7827
3.63147, 2, -37.0498, 0.663379, 20.5409, -160.572, -92.6101, 54.7827
3.63941, 2, -37.0498, 0.663376, 20.5408, -160.572, -92.61, 54.7828
3.64865, 2, -37.0497, 0.663362, 20.5408, -160.572, -92.6101, 54.7828
3.65548, 2, -37.0497, 0.663363, 20.5408, -160.572, -92.6101, 54.7828
3.66343, 2, -37.0497, 0.663361, 20.5408, -160.572, -92.6101, 54.7828
3.67155, 2, -37.0497, 0.663375, 20.5408, -160.572, -92.61, 54.7827
3.67948, 2, -37.0497, 0.663374, 20.5408, -160.572, -92.6101, 54.7827
3.68745, 2, -37.0496, 0.663386, 20.5408, -160.572, -92.61, 54.7828
3.69541, 2, -37.0496, 0.663391, 20.5408, -160.572, -92.6101, 54.7828
3.70367, 2, -37.0496, 0.663412, 20.5408, -160.572, -92.6101, 54.7829
3.71142, 2, -37.0496, 0.663415, 20.5408, -160.572, -92.6101, 54.7829
3.71945, 2, -37.0496, 0.6634, 20.5408, -160.572, -92.6101, 54.7829
3.72753, 4, -37.0495, 0.663385, 20.5408, -160.572, -92.6101, 54.7828
3.7355, 4, -37.0495, 0.663391, 20.5408, -160.572, -92.6101, 54.7829
3.74353, 4, -37.0495, 0.663374, 20.5408, -160.572, -92.6101, 54.7829
3.75157, 4, -37.0495, 0.663381, 20.5408, -160.572, -92.6101, 54.7829
3.75952, 4, -37.0494, 0.663389, 20.5408, -160.572, -92.6101, 54.7829
3.76747, 4, -37.0494, 0.663386, 20.5407, -160.572, -92.6101, 54.7829
3.77562, 4, -37.0495, 0.663386, 20.5407, -160.572, -92.6101, 54.7829
3.78346, 4, -37.0494, 0.663392, 20.5407, -160.572, -92.61, 54.7829
3.79145, 4, -37.0494, 0.663382, 20.5407, -160.572, -92.61, 54.7829
3.79952, 4, -37.0493, 0.66339, 20.5407, -160.572, -92.61, 54.7829
3.80792, 4, -37.0493, 0.663393, 20.5407, -160.572, -92.61, 54.7829
3.81641, 4, -37.0493, 0.663395, 20.5407, -160.572, -92.61, 54.7829
3.82372, 4, -37.0493, 0.663395, 20.5407, -160.571, -92.6101, 54.7829
3.83201, 4, -37.0493, 0.663396, 20.5407, -160.571, -92.6101, 54.7829
3.8527, 4, -37.0492, 0.663388, 20.5407, -160.572, -92.6102, 54.7829
3.85392, 4, -37.0492, 0.663388, 20.5407, -160.572, -92.6102, 54.7829
3.85634, 4, -37.0492, 0.66339, 20.5407, -160.572, -92.6102, 54.7829
3.86393, 4, -37.0492, 0.663393, 20.5406, -160.572, -92.6102, 54.7828
3.87199, 4, -37.0492, 0.663395, 20.5406, -160.572, -92.6102, 54.7828
3.88056, 4, -37.0492, 0.663414, 20.5406, -160.572, -92.6101, 54.7829
3.88797, 4, -37.0492, 0.663408, 20.5406, -160.572, -92.6102, 54.7829
3.89599, 4, -37.049, 0.663364, 20.5406, -160.571, -92.6101, 54.783
3.90419, 4, -37.0477, 0.663114, 20.5407, -160.571, -92.6101, 54.7829
3.91141, 4, -37.0449, 0.662212, 20.5408, -160.571, -92.6102, 54.7829
3.91941, 4, -37.0407, 0.660344, 20.5414, -160.571, -92.6102, 54.783
3.92854, 4, -37.0333, 0.656151, 20.5438, -160.571, -92.6102, 54.7829
3.93552, 4, -37.0304, 0.654356, 20.5453, -160.571, -92.6102, 54.7829
3.9434, 5, -37.024, 0.649908, 20.5493, -160.57, -92.6101, 54.7829
3.95145, 5, -37.0167, 0.644432, 20.5552, -160.569, -92.6101, 54.7829
3.9594, 5, -37.0092, 0.638072, 20.5625, -160.567, -92.61, 54.7828
3.9674, 5, -37.0012, 0.63091, 20.571, -160.565, -92.61, 54.7828
3.97692, 5, -36.9865, 0.617957, 20.5857, -160.562, -92.6099, 54.7827
3.98498, 5, -36.9747, 0.608094, 20.5961, -160.56, -92.6099, 54.7826
3.99146, 5, -36.9684, 0.603041, 20.6014, -160.559, -92.6099, 54.7826
4.00157, 5, -36.9487, 0.587659, 20.6177, -160.556, -92.6097, 54.7826
4.00742, 5, -36.942, 0.58239, 20.6231, -160.555, -92.6096, 54.7826
4.01695, 5, -36.9283, 0.571675, 20.6341, -160.552, -92.6095, 54.7825
4.02349, 5, -36.9146, 0.560811, 20.6452, -160.55, -92.6094, 54.7825
4.03244, 5, -36.901, 0.549773, 20.6563, -160.547, -92.6094, 54.7825
4.03941, 5, -36.8875, 0.538858, 20.6674, -160.545, -92.6093, 54.7824
4.04746, 5, -36.874, 0.528118, 20.6785, -160.543, -92.6092, 54.7823
4.05542, 5, -36.8605, 0.517389, 20.6896, -160.54, -92.609, 54.7821
4.06342, 5, -36.8469, 0.506631, 20.7009, -160.538, -92.6088, 54.7821
4.07139, 5, -36.8332, 0.495808, 20.7121, -160.535, -92.6087, 54.782
4.07941, 5, -36.8194, 0.484981, 20.7234, -160.533, -92.6084, 54.7819
4.08749, 5, -36.8057, 0.474369, 20.7346, -160.53, -92.6081, 54.7818
4.0954, 5, -36.7921, 0.463845, 20.746, -160.528, -92.6078, 54.7816
4.1034, 5, -36.7788, 0.453199, 20.7575, -160.525, -92.6074, 54.7815
4.11152, 5, -36.7654, 0.44242, 20.769, -160.522, -92.6072, 54.7814
4.1194, 5, -36.7519, 0.431448, 20.7805, -160.52, -92.6068, 54.7813
4.1274, 5, -36.7382, 0.420459, 20.7918, -160.517, -92.6064, 54.7813
4.13547, 5, -36.7243, 0.409625, 20.8031, -160.515, -92.606, 54.7812
4.1434, 5, -36.7103, 0.398788, 20.8144, -160.512, -92.6057, 54.7811
4.1514, 5, -36.6964, 0.387861, 20.8257, -160.509, -92.6053, 54.7811
4.15947, 5, -36.6827, 0.376873, 20.837, -160.507, -92.6049, 54.781
4.1674, 5, -36.6691, 0.365771, 20.8482, -160.504, -92.6045, 54.781
4.17543, 5, -36.6555, 0.354818, 20.8597, -160.502, -92.6042, 54.7809
4.18347, 5, -36.6418, 0.344095, 20.8711, -160.499, -92.6037, 54.7809
4.19144, 5, -36.6281, 0.333365, 20.8826, -160.497, -92.6033, 54.7808
4.19947, 5, -36.6145, 0.322646, 20.894, -160.494, -92.6029, 54.7807
4.20748, 5, -36.6009, 0.311806, 20.9053, -160.492, -92.6025, 54.7806
4.21541, 5, -36.5873, 0.300896, 20.9166, -160.489, -92.6021, 54.7806
4.2235, 5, -36.5737, 0.290158, 20.9281, -160.487, -92.6017, 54.7804
4.23163, 5, -36.56, 0.279495, 20.9394, -160.485, -92.6013, 54.7804
4.2395, 5, -36.5464, 0.268697, 20.9508, -160.482, -92.601, 54.7803
4.24757, 5, -36.5326, 0.257855, 20.962, -160.48, -92.6006, 54.78
4.25588, 5, -36.5187, 0.246845, 20.9734, -160.478, -92.6002, 54.7798
4.2635, 5, -36.5049, 0.235848, 20.9848, -160.476, -92.5998, 54.7796
4.27157, 5, -36.4911, 0.225042, 20.9962, -160.473, -92.5995, 54.7793
4.28006, 5, -36.4773, 0.214264, 21.0075, -160.471, -92.5991, 54.779
4.28743, 5, -36.4637, 0.203473, 21.0187, -160.469, -92.5987, 54.7788
4.29549, 5, -36.4501, 0.19268, 21.03, -160.467, -92.5984, 54.7785
4.30431, 5, -36.4363, 0.181739, 21.0412, -160.464, -92.598, 54.7781
4.31165, 5, -36.4225, 0.170963, 21.0525, -160.462, -92.5976, 54.7777
4.31963, 5, -36.4087, 0.160381, 21.0637, -160.46, -92.5973, 54.7774
4.32845, 5, -36.3949, 0.149714, 21.0749, -160.458, -92.5969, 54.777
4.3358, 5, -36.3811, 0.139014, 21.0863, -160.456, -92.5966, 54.7766
4.34389, 5, -36.3674, 0.128191, 21.0977, -160.453, -92.5963, 54.7761
4.35271, 5, -36.3537, 0.117269, 21.1091, -160.451, -92.5959, 54.7757
4.36002, 5, -36.34, 0.106527, 21.1204, -160.449, -92.5956, 54.7752
4.36793, 5, -36.3263, 0.0959033, 21.1315, -160.447, -92.5952, 54.7748
4.37676, 5, -36.3125, 0.0852312, 21.1428, -160.445, -92.5949, 54.7743
4.38405, 5, -36.2988, 0.0745138, 21.154, -160.442, -92.5946, 54.7739
4.39199, 5, -36.2919, 0.0691099, 21.1595, -160.441, -92.5942, 54.7735
4.4007, 5, -36.2782, 0.0582101, 21.1707, -160.439, -92.5941, 54.7733
4.40743, 5, -36.2644, 0.0473912, 21.1818, -160.437, -92.5938, 54.7729
4.41538, 5, -36.2505, 0.0367607, 21.193, -160.434, -92.5934, 54.7726
4.42339, 5, -36.2366, 0.0260834, 21.2043, -160.432, -92.5931, 54.7722
4.43139, 5, -36.2227, 0.0153744, 21.2156, -160.43, -92.5928, 54.7718
4.43939, 5, -36.2089, 0.00461456, 21.2268, -160.427, -92.5924, 54.7715
4.44943, 5, -36.1882, -0.0116413, 21.2434, -160.424, -92.592, 54.771
4.45549, 5, -36.1813, -0.0169822, 21.249, -160.423, -92.5919, 54.7709
4.46338, 5, -36.1676, -0.0275672, 21.2602, -160.42, -92.5915, 54.7705
4.47355, 5, -36.1472, -0.043455, 21.2769, -160.417, -92.591, 54.7701
4.4794, 5, -36.1404, -0.0487607, 21.2825, -160.415, -92.5909, 54.77
4.48897, 5, -36.1198, -0.0649269, 21.2991, -160.412, -92.5904, 54.7696
4.49544, 5, -36.1129, -0.0703032, 21.3047, -160.41, -92.5902, 54.7695
4.50338, 5, -36.0989, -0.0809493, 21.3159, -160.408, -92.59, 54.7692
4.51301, 5, -36.0782, -0.0967643, 21.3327, -160.404, -92.5895, 54.7688
4.51946, 5, -36.0713, -0.102098, 21.3382, -160.403, -92.5893, 54.7687
4.52898, 5, -36.0575, -0.112784, 21.3492, -160.4, -92.589, 54.7685
4.53538, 5, -36.0436, -0.123542, 21.3602, -160.398, -92.5887, 54.7683
4.54344, 5, -36.0298, -0.134292, 21.3713, -160.395, -92.5884, 54.7681
4.55139, 5, -36.0158, -0.144904, 21.3823, -160.393, -92.5881, 54.7679
4.55945, 5, -36.0019, -0.155446, 21.3934, -160.39, -92.5878, 54.7678
4.56738, 5, -35.9881, -0.166021, 21.4044, -160.387, -92.5875, 54.7676
4.57542, 5, -35.9743, -0.176624, 21.4155, -160.385, -92.5872, 54.7674
4.58345, 5, -35.9605, -0.187411, 21.4267, -160.382, -92.5869, 54.7673
4.59138, 5, -35.9466, -0.198107, 21.4379, -160.379, -92.5865, 54.7671
4.5994, 5, -35.9326, -0.208645, 21.449, -160.377, -92.5862, 54.7671
4.60744, 5, -35.9187, -0.219196, 21.46, -160.374, -92.586, 54.7669
4.61541, 5, -35.9048, -0.229756, 21.4711, -160.371, -92.5856, 54.7668
4.62339, 5, -35.8909, -0.240381, 21.4821, -160.369, -92.5853, 54.7667
4.63144, 5, -35.8769, -0.251129, 21.493, -160.366, -92.585, 54.7666
4.63939, 5, -35.863, -0.261748, 21.504, -160.363, -92.5847, 54.7665
4.64739, 5, -35.8491, -0.272207, 21.5149, -160.361, -92.5844, 54.7664
4.65545, 5, -35.8353, -0.282656, 21.5259, -160.358, -92.5842, 54.7663
4.66338, 5, -35.8214, -0.29315, 21.5369, -160.356, -92.5839, 54.7662
4.67139, 5, -35.8074, -0.30375, 21.548, -160.353, -92.5836, 54.7661
4.6795, 5, -35.7935, -0.314447, 21.559, -160.351, -92.5832, 54.7661
4.68737, 5, -35.7794, -0.325033, 21.5699, -160.348, -92.5829, 54.766
4.69555, 5, -35.7654, -0.335503, 21.5809, -160.346, -92.5826, 54.766
4.70348, 5, -35.7514, -0.346032, 21.5918, -160.343, -92.5823, 54.7658
4.71139, 5, -35.7375, -0.3566, 21.6027, -160.341, -92.582, 54.7658
4.72025, 5, -35.7236, -0.367233, 21.6136, -160.338, -92.5817, 54.7658
4.72744, 5, -35.7097, -0.377937, 21.6245, -160.336, -92.5814, 54.7658
4.73547, 5, -35.6958, -0.388521, 21.6354, -160.334, -92.5811, 54.7657
4.74428, 5, -35.682, -0.398975, 21.6464, -160.331, -92.5808, 54.7657
4.75148, 5, -35.6681, -0.409441, 21.6574, -160.329, -92.5805, 54.7657
4.75948, 5, -35.6542, -0.419914, 21.6683, -160.327, -92.5802, 54.7657
4.76833, 5, -35.6403, -0.430531, 21.6791, -160.324, -92.5799, 54.7656
4.77555, 5, -35.6263, -0.441179, 21.69, -160.322, -92.5796, 54.7656
4.78341, 5, -35.6122, -0.451646, 21.7009, -160.32, -92.5793, 54.7656
4.79148, 5, -35.5983, -0.461977, 21.7117, -160.317, -92.5791, 54.7656
4.79954, 5, -35.5843, -0.47245, 21.7225, -160.315, -92.5787, 54.7656
4.80746, 5, -35.5703, -0.48297, 21.7333, -160.313, -92.5784, 54.7656
4.81639, 5, -35.5563, -0.493596, 21.7441, -160.31, -92.5781, 54.7655
4.82394, 5, -35.5423, -0.504245, 21.7551, -160.308, -92.5778, 54.7655
4.83181, 5, -35.5284, -0.514701, 21.7661, -160.306, -92.5775, 54.7656
4.84059, 5, -35.5145, -0.52503, 21.777, -160.303, -92.5772, 54.7656
4.84793, 5, -35.5006, -0.535439, 21.7878, -160.301, -92.5768, 54.7656
4.85652, 5, -35.4866, -0.545893, 21.7985, -160.299, -92.5766, 54.7655
4.86393, 5, -35.4725, -0.556436, 21.8094, -160.296, -92.5763, 54.7656
4.87224, 5, -35.4584, -0.566981, 21.8202, -160.294, -92.576, 54.7655
4.87993, 5, -35.4443, -0.577341, 21.8309, -160.291, -92.5757, 54.7655
4.88794, 5, -35.4373, -0.58762, 21.8416, -160.289, -92.5753, 54.7656
4.89614, 5, -35.4161, -0.598028, 21.8523, -160.287, -92.575, 54.7655
4.90337, 5, -35.4091, -0.603248, 21.8577, -160.285, -92.5749, 54.7655
4.9114, 5, -35.3951, -0.613794, 21.8685, -160.283, -92.5746, 54.7655
4.91942, 5, -35.381, -0.624429, 21.8794, -160.28, -92.5743, 54.7655
4.92736, 5, -35.367, -0.634905, 21.8901, -160.278, -92.5739, 54.7656
4.93538, 5, -35.353, -0.645209, 21.9008, -160.275, -92.5736, 54.7656
4.9434, 5, -35.339, -0.655527, 21.9114, -160.273, -92.5734, 54.7656
4.9514, 5, -35.3249, -0.665932, 21.9222, -160.27, -92.5731, 54.7656
4.95939, 5, -35.3107, -0.676452, 21.9329, -160.268, -92.5728, 54.7656
4.96918, 5, -35.2894, -0.69223, 21.949, -160.264, -92.5723, 54.7656
4.97537, 5, -35.2824, -0.697416, 21.9543, -160.263, -92.5721, 54.7656
4.98486, 5, -35.2612, -0.71282, 21.9702, -160.259, -92.5717, 54.7656
4.99137, 5, -35.2542, -0.717981, 21.9757, -160.257, -92.5715, 54.7656
4.99936, 5, -35.24, -0.728394, 21.9864, -160.255, -92.5712, 54.7656
5.00743, 5, -35.2259, -0.738919, 21.9971, -160.252, -92.5709, 54.7656
5.01729, 5, -35.2049, -0.754697, 22.013, -160.248, -92.5705, 54.7657
5.02337, 5, -35.1979, -0.75988, 22.0183, -160.247, -92.5704, 54.7657
5.03146, 5, -35.1839, -0.77008, 22.0289, -160.244, -92.57, 54.7657
5.04042, 5, -35.1698, -0.78031, 22.0395, -160.241, -92.5698, 54.7657
5.04736, 5, -35.1556, -0.790649, 22.0501, -160.238, -92.5695, 54.7657
5.05544, 5, -35.1414, -0.801076, 22.0607, -160.236, -92.5691, 54.7657
5.06336, 5, -35.1273, -0.811529, 22.0713, -160.233, -92.5688, 54.7657
5.07138, 5, -35.1132, -0.82185, 22.082, -160.23, -92.5684, 54.7657
5.07943, 5, -35.0992, -0.831948, 22.0927, -160.227, -92.5681, 54.7657
5.08739, 5, -35.0851, -0.842191, 22.1034, -160.224, -92.5679, 54.7657
5.09543, 5, -35.071, -0.852575, 22.1141, -160.222, -92.5675, 54.7657
5.10336, 5, -35.057, -0.863033, 22.1246, -160.219, -92.5672, 54.7658
5.11139, 5, -35.043, -0.873561, 22.1352, -160.216, -92.5669, 54.7659
5.11946, 5, -35.029, -0.883936, 22.1458, -160.214, -92.5666, 54.7659
5.12736, 5, -35.0149, -0.894165, 22.1563, -160.211, -92.5663, 54.766
5.13537, 5, -35.0007, -0.904408, 22.1668, -160.208, -92.566, 54.766
5.14342, 5, -34.9865, -0.914742, 22.1772, -160.206, -92.5657, 54.766
5.15137, 5, -34.9723, -0.92519, 22.1877, -160.203, -92.5654, 54.766
5.15937, 5, -34.9581, -0.935684, 22.1984, -160.201, -92.5651, 54.7661
5.16742, 5, -34.944, -0.94602, 22.2089, -160.198, -92.5648, 54.7661
5.17536, 5, -34.9298, -0.956184, 22.2195, -160.196, -92.5645, 54.7661
5.18337, 5, -34.9157, -0.966411, 22.2301, -160.193, -92.5642, 54.7662
5.19143, 5, -34.9017, -0.976717, 22.2405, -160.191, -92.5638, 54.7662
5.19939, 5, -34.8877, -0.987077, 22.2511, -160.188, -92.5635, 54.7663
5.20759, 5, -34.8736, -0.997508, 22.2616, -160.186, -92.5631, 54.7664
5.21536, 5, -34.8595, -1.00771, 22.2721, -160.184, -92.5628, 54.7666
5.2234, 5, -34.8452, -1.01773, 22.2826, -160.181, -92.5625, 54.7667
5.23164, 5, -34.8308, -1.02785, 22.2931, -160.179, -92.5622, 54.7668
5.23945, 5, -34.8166, -1.03801, 22.3036, -160.176, -92.5619, 54.7669
5.2475, 5, -34.8023, -1.04829, 22.3142, -160.174, -92.5616, 54.767
5.25587, 5, -34.788, -1.05868, 22.3247, -160.172, -92.5612, 54.7671
5.26347, 5, -34.7738, -1.06892, 22.3352, -160.169, -92.5609, 54.7673
5.27148, 5, -34.7595, -1.07903, 22.3456, -160.167, -92.5606, 54.7675
5.28029, 5, -34.7454, -1.08919, 22.356, -160.165, -92.5603, 54.7678
5.28742, 5, -34.7313, -1.09947, 22.3664, -160.162, -92.56, 54.768
5.29539, 5, -34.7172, -1.10983, 22.3768, -160.16, -92.5597, 54.7684
5.30434, 5, -34.7031, -1.12025, 22.3873, -160.157, -92.5594, 54.7687
5.31147, 5, -34.6889, -1.13055, 22.3977, -160.155, -92.5591, 54.7691
5.31953, 5, -34.6747, -1.1407, 22.4081, -160.152, -92.5587, 54.7695
5.32843, 5, -34.6605, -1.15091, 22.4187, -160.15, -92.5584, 54.77
5.33577, 5, -34.6463, -1.16117, 22.4293, -160.148, -92.5581, 54.7704
5.34375, 5, -34.632, -1.17148, 22.4398, -160.145, -92.5577, 54.7709
5.35265, 5, -34.6177, -1.18185, 22.4503, -160.143, -92.5575, 54.7713
5.35987, 5, -34.6034, -1.19211, 22.4606, -160.14, -92.5571, 54.7719
5.36797, 5, -34.5892, -1.20213, 22.4711, -160.138, -92.5568, 54.7724
5.37679, 5, -34.575, -1.21227, 22.4816, -160.135, -92.5565, 54.773
5.38393, 5, -34.5607, -1.22249, 22.4919, -160.132, -92.5562, 54.7736
5.3925, 5, -34.5464, -1.23274, 22.5022, -160.13, -92.5559, 54.7742
5.40086, 5, -34.5393, -1.23789, 22.5125, -160.127, -92.5555, 54.7748
5.40811, 5, -34.5248, -1.24818, 22.5177, -160.125, -92.5552, 54.7753
5.41542, 5, -34.5105, -1.25825, 22.5281, -160.123, -92.555, 54.7757
5.4252, 5, -34.4891, -1.2733, 22.5438, -160.119, -92.5545, 54.7766
5.43134, 5, -34.482, -1.27837, 22.549, -160.118, -92.5544, 54.7769
5.44049, 5, -34.4607, -1.29363, 22.5646, -160.114, -92.5539, 54.7779
5.44735, 5, -34.4535, -1.29877, 22.5697, -160.112, -92.5537, 54.7782
5.45544, 5, -34.4393, -1.30901, 22.58, -160.11, -92.5534, 54.7788
5.46336, 5, -34.4251, -1.31907, 22.5904, -160.107, -92.5531, 54.7793
5.47135, 5, -34.4109, -1.32903, 22.6007, -160.104, -92.5528, 54.7799
5.47939, 5, -34.3967, -1.33915, 22.6111, -160.101, -92.5524, 54.7805
5.48897, 5, -34.3751, -1.3544, 22.6265, -160.097, -92.552, 54.7814
5.49775, 5, -34.3606, -1.36466, 22.6368, -160.094, -92.5516, 54.782
5.50342, 5, -34.3535, -1.3698, 22.642, -160.092, -92.5515, 54.7823
5.51297, 5, -34.3319, -1.38484, 22.6576, -160.088, -92.551, 54.7832
5.5219, 5, -34.3248, -1.39482, 22.6679, -160.085, -92.5507, 54.7839
5.5289, 5, -34.3105, -1.39985, 22.6731, -160.084, -92.5505, 54.7844
5.53639, 5, -34.2961, -1.40993, 22.6832, -160.081, -92.5502, 54.7846
5.54435, 5, -34.2819, -1.4201, 22.6935, -160.078, -92.5498, 54.7852
5.55141, 5, -34.2678, -1.43035, 22.7037, -160.075, -92.5495, 54.7857
5.55934, 5, -34.2536, -1.44043, 22.7139, -160.072, -92.5492, 54.7863
5.56778, 5, -34.2394, -1.45036, 22.7242, -160.069, -92.5489, 54.7869
5.57534, 5, -34.2252, -1.46042, 22.7344, -160.067, -92.5486, 54.7875
5.58338, 5, -34.2107, -1.47052, 22.7446, -160.064, -92.5482, 54.788
5.59214, 5, -34.1963, -1.4807, 22.755, -160.061, -92.5478, 54.7886
5.59935, 5, -34.1819, -1.49094, 22.7654, -160.058, -92.5475, 54.7892
5.6074, 5, -34.1676, -1.50103, 22.7757, -160.056, -92.5471, 54.7897
5.61614, 5, -34.1533, -1.51096, 22.786, -160.053, -92.5468, 54.7903
5.62441, 5, -34.1388, -1.52093, 22.7962, -160.05, -92.5465, 54.7909
5.63235, 5, -34.1244, -1.53096, 22.8064, -160.048, -92.5461, 54.7914
5.64039, 5, -34.1101, -1.54106, 22.8166, -160.045, -92.5458, 54.792
5.64734, 5, -34.0957, -1.55126, 22.8267, -160.043, -92.5455, 54.7926
5.65535, 5, -34.0814, -1.56131, 22.8369, -160.04, -92.5452, 54.7932
5.66439, 5, -34.0669, -1.57119, 22.8469, -160.038, -92.5449, 54.7937
5.67148, 5, -34.0524, -1.5811, 22.8571, -160.035, -92.5446, 54.7943
5.67935, 5, -34.0379, -1.59114, 22.8674, -160.033, -92.5442, 54.7948
5.68825, 5, -34.0235, -1.60123, 22.8776, -160.03, -92.5439, 54.7954
5.69534, 5, -34.0091, -1.61144, 22.8879, -160.028, -92.5436, 54.796
5.70344, 5, -33.9947, -1.6216, 22.898, -160.025, -92.5432, 54.7965
5.71217, 5, -33.9802, -1.63149, 22.9081, -160.023, -92.5428, 54.797
5.71935, 5, -33.9657, -1.64136, 22.9183, -160.02, -92.5425, 54.7976
5.72744, 5, -33.9515, -1.65137, 22.9284, -160.017, -92.5422, 54.7981
5.73623, 5, -33.937, -1.66134, 22.9385, -160.015, -92.5418, 54.7987
5.74343, 5, -33.9226, -1.6715, 22.9487, -160.012, -92.5415, 54.7993
5.75153, 5, -33.9081, -1.68159, 22.9588, -160.01, -92.5411, 54.7999
5.76029, 5, -33.8935, -1.69142, 22.9689, -160.007, -92.5408, 54.8004
5.76745, 5, -33.879, -1.70128, 22.9791, -160.005, -92.5404, 54.801
5.77554, 5, -33.8645, -1.71125, 22.9892, -160.002, -92.5401, 54.8016
5.78545, 5, -33.85, -1.72123, 22.9994, -159.999, -92.5397, 54.8021
5.79236, 5, -33.8356, -1.73131, 23.0094, -159.997, -92.5395, 54.8028
5.79938, 5, -33.8211, -1.74144, 23.0195, -159.994, -92.5391, 54.8033
5.80738, 5, -33.8068, -1.7513, 23.0296, -159.992, -92.5388, 54.804
5.81559, 5, -33.7924, -1.76108, 23.0396, -159.989, -92.5384, 54.8045
5.82357, 5, -33.778, -1.77095, 23.0496, -159.986, -92.5381, 54.8051
5.83157, 5, -33.7636, -1.78091, 23.0596, -159.983, -92.5377, 54.8058
5.84, 5, -33.7491, -1.79095, 23.0697, -159.981, -92.5374, 54.8063
5.84852, 5, -33.7345, -1.80105, 23.0798, -159.978, -92.537, 54.8069
5.85579, 5, -33.72, -1.811, 23.09, -159.975, -92.5367, 54.8076
5.86397, 5, -33.7055, -1.82077, 23.1001, -159.972, -92.5364, 54.8082
5.87249, 5, -33.691, -1.83069, 23.1103, -159.969, -92.536, 54.8088
5.87989, 5, -33.6765, -1.84069, 23.1203, -159.967, -92.5356, 54.8095
5.88932, 5, -33.662, -1.85073, 23.1303, -159.964, -92.5353, 54.8101
5.89597, 5, -33.6547, -1.86086, 23.1404, -159.961, -92.5349, 54.8107
5.90389, 5, -33.6403, -1.86588, 23.1454, -159.959, -92.5348, 54.811
5.91239, 5, -33.6186, -1.88057, 23.1602, -159.955, -92.5343, 54.812
5.91936, 5, -33.6114, -1.88548, 23.1652, -159.954, -92.5341, 54.8124
5.92733, 5, -33.5969, -1.89536, 23.1752, -159.951, -92.5338, 54.813
5.93733, 5, -33.5749, -1.91023, 23.1901, -159.946, -92.5333, 54.814
5.94332, 5, -33.5676, -1.91525, 23.1952, -159.945, -92.5331, 54.8143
5.95138, 5, -33.553, -1.92526, 23.2052, -159.942, -92.5328, 54.815
5.96073, 5, -33.5311, -1.93989, 23.2203, -159.937, -92.5322, 54.8159
5.96949, 5, -33.5165, -1.94964, 23.2302, -159.934, -92.5319, 54.8166
5.97542, 5, -33.5092, -1.9546, 23.2352, -159.933, -92.5317, 54.817
5.98333, 5, -33.4947, -1.96454, 23.2451, -159.93, -92.5314, 54.8176
5.99138, 5, -33.4802, -1.97452, 23.2551, -159.927, -92.531, 54.8183
5.99932, 5, -33.4656, -1.98459, 23.265, -159.924, -92.5306, 54.819
6.00895, 5, -33.4437, -1.99937, 23.2799, -159.92, -92.5301, 54.8201
6.01541, 5, -33.4364, -2.00424, 23.2849, -159.918, -92.5299, 54.8204
6.02333, 5, -33.4216, -2.01407, 23.2948, -159.916, -92.5296, 54.8211
6.03232, 5, -33.407, -2.02398, 23.3048, -159.913, -92.5292, 54.8218
6.03943, 5, -33.3924, -2.03397, 23.3148, -159.91, -92.5288, 54.8224
6.04936, 5, -33.3706, -2.0491, 23.3297, -159.906, -92.5283, 54.8235
6.05535, 5, -33.3633, -2.05408, 23.3347, -159.905, -92.5281, 54.8238
6.06339, 5, -33.3487, -2.06389, 23.3447, -159.902, -92.5276, 54.8244
6.07132, 5, -33.3343, -2.07381, 23.3546, -159.899, -92.5271, 54.8249
6.07949, 5, -33.3199, -2.08388, 23.3647, -159.897, -92.5265, 54.8253
6.0883, 5, -33.3055, -2.09403, 23.3747, -159.894, -92.5259, 54.8257
6.09533, 5, -33.2911, -2.10436, 23.3848, -159.891, -92.5252, 54.826
6.10342, 5, -33.2766, -2.11464, 23.395, -159.888, -92.5245, 54.8263
6.11139, 5, -33.2621, -2.12476, 23.4052, -159.885, -92.5237, 54.8265
6.11933, 5, -33.2477, -2.13491, 23.4156, -159.883, -92.5228, 54.8267
6.12736, 6, -33.2333, -2.14523, 23.426, -159.88, -92.5219, 54.8269
6.13541, 6, -33.219, -2.15565, 23.4365, -159.877, -92.5209, 54.8269
6.14332, 6, -33.2047, -2.16626, 23.4469, -159.873, -92.5199, 54.827
6.1514, 6, -33.1904, -2.17685, 23.4574, -159.87, -92.5188, 54.827
6.15932, 6, -33.1763, -2.18729, 23.4679, -159.867, -92.5177, 54.827
6.16733, 6, -33.1621, -2.19782, 23.4784, -159.864, -92.5165, 54.827
6.17542, 6, -33.148, -2.20851, 23.4889, -159.861, -92.5152, 54.827
6.18333, 6, -33.1338, -2.21932, 23.4995, -159.858, -92.5139, 54.8271
6.19132, 6, -33.1196, -2.23032, 23.51, -159.854, -92.5125, 54.827
6.20016, 6, -33.1053, -2.24123, 23.5207, -159.851, -92.5111, 54.8269
6.20736, 6, -33.0912, -2.25199, 23.5315, -159.847, -92.5097, 54.8268
6.21534, 6, -33.077, -2.26287, 23.5423, -159.844, -92.5081, 54.8267
6.2242, 6, -33.0629, -2.27388, 23.5532, -159.84, -92.5066, 54.8266
6.23136, 6, -33.0489, -2.28505, 23.564, -159.837, -92.5049, 54.8264
6.2394, 6, -33.0347, -2.29631, 23.5748, -159.833, -92.5033, 54.8262
6.24851, 6, -33.0207, -2.30739, 23.5858, -159.829, -92.5015, 54.8258
6.25548, 6, -33.0068, -2.31842, 23.5968, -159.825, -92.4997, 54.8255
6.26349, 6, -32.9928, -2.32968, 23.6078, -159.821, -92.498, 54.8251
6.27178, 6, -32.9788, -2.34108, 23.6189, -159.817, -92.4961, 54.8246
6.28229, 6, -32.9648, -2.35263, 23.6299, -159.813, -92.4943, 54.8239
6.28831, 6, -32.9507, -2.36414, 23.6412, -159.808, -92.4923, 54.8233
6.29691, 6, -32.9367, -2.37556, 23.6524, -159.804, -92.4903, 54.8226
6.30432, 6, -32.9228, -2.38706, 23.6636, -159.8, -92.4883, 54.8221
6.31144, 6, -32.909, -2.3986, 23.6748, -159.795, -92.4861, 54.8216
6.32013, 6, -32.8952, -2.41039, 23.686, -159.791, -92.484, 54.8209
6.32752, 6, -32.8814, -2.42225, 23.6973, -159.786, -92.4819, 54.82
6.33565, 7, -32.8677, -2.4339, 23.7087, -159.781, -92.4797, 54.8188
6.34579, 7, -32.8541, -2.44559, 23.72, -159.777, -92.4774, 54.8173
6.35244, 7, -32.8405, -2.45745, 23.7314, -159.772, -92.4751, 54.8154
6.35979, 7, -32.8268, -2.46946, 23.7429, -159.768, -92.4728, 54.8134
6.36841, 7, -32.8131, -2.48165, 23.7546, -159.763, -92.4704, 54.8113
6.37594, 7, -32.7993, -2.4936, 23.7664, -159.759, -92.4679, 54.809
6.38448, 7, -32.7856, -2.50556, 23.7781, -159.755, -92.4654, 54.8065
6.39189, 7, -32.772, -2.51767, 23.7897, -159.75, -92.4628, 54.8039
6.40139, 7, -32.7584, -2.52993, 23.8014, -159.746, -92.4602, 54.8013
6.40789, 7, -32.7516, -2.53613, 23.8073, -159.744, -92.4589, 54.7999
6.41635, 7, -32.7311, -2.55457, 23.8249, -159.737, -92.4548, 54.7957
6.42334, 7, -32.7243, -2.56067, 23.8308, -159.735, -92.4534, 54.7943
6.43133, 7, -32.7108, -2.57299, 23.8425, -159.73, -92.4506, 54.7915
6.4404, 7, -32.6907, -2.59178, 23.8603, -159.724, -92.4462, 54.787
6.44731, 7, -32.684, -2.59813, 23.8663, -159.721, -92.4447, 54.7855
6.45531, 7, -32.6706, -2.61079, 23.8783, -159.717, -92.4417, 54.7825
6.46459, 7, -32.6505, -2.62958, 23.8964, -159.71, -92.4371, 54.7779
6.47132, 7, -32.6437, -2.6359, 23.9023, -159.708, -92.4355, 54.7763
6.48089, 7, -32.6236, -2.65508, 23.9205, -159.7, -92.4308, 54.7716
6.48737, 7, -32.6169, -2.66157, 23.9266, -159.698, -92.4291, 54.7699
6.49756, 7, -32.5968, -2.68072, 23.9449, -159.691, -92.4241, 54.765
6.50631, 7, -32.5835, -2.6935, 23.957, -159.686, -92.4207, 54.7617
6.51138, 7, -32.5768, -2.69999, 23.9631, -159.683, -92.4189, 54.76
6.52093, 7, -32.5569, -2.71969, 23.9817, -159.675, -92.4136, 54.7548
6.52732, 7, -32.5503, -2.72631, 23.9879, -159.673, -92.4117, 54.7531
6.53627, 8, -32.5372, -2.73937, 24.0004, -159.667, -92.408, 54.7496
6.54437, 8, -32.524, -2.75243, 24.0127, -159.662, -92.404, 54.746
6.55232, 8, -32.5109, -2.76561, 24.0251, -159.656, -92.4002, 54.7424
6.55937, 8, -32.4977, -2.77899, 24.0376, -159.651, -92.3961, 54.7386
6.56733, 8, -32.4844, -2.79244, 24.0501, -159.645, -92.392, 54.7349
6.57537, 8, -32.4713, -2.80568, 24.0625, -159.639, -92.3877, 54.7311
6.58331, 8, -32.4582, -2.819, 24.0751, -159.633, -92.3835, 54.7272
6.59133, 8, -32.4451, -2.83253, 24.0879, -159.628, -92.379, 54.7233
6.59932, 8, -32.4321, -2.84627, 24.1008, -159.622, -92.3745, 54.7192
6.60742, 8, -32.4191, -2.85987, 24.1136, -159.617, -92.37, 54.7151
6.61532, 8, -32.406, -2.87333, 24.1262, -159.611, -92.3654, 54.711
6.62337, 8, -32.3932, -2.88696, 24.1391, -159.606, -92.3608, 54.7068
6.63134, 8, -32.3804, -2.90077, 24.152, -159.6, -92.3562, 54.7026
6.63932, 8, -32.3675, -2.91467, 24.1648, -159.595, -92.3517, 54.6981
6.64738, 8, -32.3547, -2.92842, 24.1776, -159.589, -92.3471, 54.6937
6.6553, 8, -32.3419, -2.94224, 24.1906, -159.584, -92.3425, 54.6892
6.66331, 8, -32.3289, -2.9563, 24.2037, -159.578, -92.338, 54.6845
6.67137, 8, -32.316, -2.97053, 24.2168, -159.573, -92.3335, 54.6799
6.6793, 8, -32.3033, -2.98463, 24.2298, -159.567, -92.3289, 54.6751
6.68756, 8, -32.2905, -2.99864, 24.2428, -159.561, -92.3244, 54.6702
6.69635, 8, -32.2777, -3.01282, 24.2561, -159.555, -92.3198, 54.6653
6.70331, 8, -32.265, -3.02719, 24.2693, -159.549, -92.3152, 54.6604
6.71168, 8, -32.2521, -3.04156, 24.2826, -159.543, -92.3106, 54.6553
6.71931, 8, -32.2395, -3.05571, 24.2958, -159.537, -92.3059, 54.6503
6.72734, 8, -32.2268, -3.07006, 24.3092, -159.531, -92.3012, 54.6453
6.73542, 8, -32.2141, -3.08465, 24.3226, -159.525, -92.2965, 54.6402
6.74339, 9, -32.2014, -3.09934, 24.336, -159.518, -92.2916, 54.635
6.7514, 9, -32.1888, -3.1138, 24.3493, -159.512, -92.2868, 54.63
6.76083, 9, -32.176, -3.1283, 24.3628, -159.505, -92.2818, 54.6249
6.76831, 9, -32.1632, -3.14299, 24.3763, -159.498, -92.2768, 54.6197
6.77559, 9, -32.1507, -3.15785, 24.3898, -159.492, -92.2716, 54.6145
6.78337, 9, -32.138, -3.17258, 24.4033, -159.485, -92.2664, 54.6093
6.79203, 9, -32.1255, -3.18728, 24.4171, -159.478, -92.2609, 54.6041
6.8003, 9, -32.1131, -3.20225, 24.431, -159.472, -92.2554, 54.599
6.80751, 9, -32.1005, -3.21741, 24.4448, -159.465, -92.2497, 54.5937
6.81631, 9, -32.0881, -3.23245, 24.4584, -159.459, -92.2439, 54.5884
6.82345, 9, -32.0758, -3.24735, 24.4722, -159.452, -92.2379, 54.583
6.83156, 9, -32.0635, -3.26245, 24.4861, -159.446, -92.2319, 54.5776
6.84039, 9, -32.0511, -3.27779, 24.4999, -159.44, -92.2257, 54.5721
6.84764, 9, -32.0388, -3.29306, 24.5136, -159.433, -92.2195, 54.5665
6.85607, 9, -32.0263, -3.30819, 24.5277, -159.427, -92.2133, 54.5609
6.8647, 9, -32.0137, -3.32352, 24.5418, -159.42, -92.2071, 54.5552
6.87183, 9, -32.0013, -3.3391, 24.5558, -159.414, -92.2009, 54.5493
6.88043, 9, -31.989, -3.35463, 24.5698, -159.407, -92.1947, 54.5435
6.8887, 9, -31.9767, -3.37001, 24.5839, -159.4, -92.1886, 54.5376
6.89588, 9, -31.9645, -3.38558, 24.5981, -159.393, -92.1825, 54.5314
6.90445, 9, -31.9523, -3.40137, 24.6122, -159.386, -92.1764, 54.5253
6.91526, 9, -31.9462, -3.40926, 24.6263, -159.379, -92.1703, 54.5189
6.91925, 9, -31.9341, -3.42482, 24.6334, -159.375, -92.1672, 54.5158
6.92833, 9, -31.9161, -3.4485, 24.6552, -159.364, -92.158, 54.5059
6.93529, 9, -31.9101, -3.45653, 24.6624, -159.36, -92.1549, 54.5026
6.94333, 9, -31.8981, -3.47256, 24.6766, -159.353, -92.1487, 54.4959
6.95274, 10, -31.8802, -3.49633, 24.6981, -159.342, -92.1393, 54.4855
6.95929, 10, -31.8742, -3.5043, 24.7054, -159.338, -92.1361, 54.4819
6.96738, 10, -31.8621, -3.52047, 24.7198, -159.331, -92.1297, 54.4748
6.97541, 10, -31.8501, -3.53667, 24.7342, -159.323, -92.1231, 54.4677
6.98331, 10, -31.8381, -3.55265, 24.7489, -159.316, -92.1163, 54.4605
6.99282, 10, -31.82, -3.57706, 24.7712, -159.305, -92.106, 54.4497
7.00128, 10, -31.808, -3.59358, 24.7859, -159.298, -92.0989, 54.4425
7.00727, 10, -31.8021, -3.60172, 24.7932, -159.295, -92.0953, 54.4389
7.01535, 10, -31.7901, -3.61791, 24.808, -159.288, -92.0879, 54.4317
7.025, 10, -31.7721, -3.64263, 24.8302, -159.277, -92.0766, 54.4211
7.03293, 10, -31.7662, -3.65099, 24.8376, -159.27, -92.0691, 54.4141
7.03946, 10, -31.7545, -3.66755, 24.8522, -159.266, -92.0654, 54.4106
7.04918, 10, -31.7426, -3.68399, 24.8672, -159.258, -92.0579, 54.4036
7.05529, 10, -31.7309, -3.70073, 24.8824, -159.251, -92.0505, 54.3965
7.06336, 10, -31.7192, -3.71769, 24.8973, -159.243, -92.0431, 54.3893
7.0713, 10, -31.7073, -3.73441, 24.9122, -159.235, -92.0358, 54.3821
7.07934, 10, -31.6956, -3.75113, 24.9274, -159.227, -92.0286, 54.3749
7.08733, 10, -31.684, -3.76814, 24.9425, -159.219, -92.0214, 54.3676
7.09532, 10, -31.6723, -3.78518, 24.9574, -159.211, -92.0141, 54.3601
7.1035, 10, -31.6606, -3.80205, 24.9726, -159.203, -92.007, 54.3526
7.11233, 10, -31.649, -3.81912, 24.9882, -159.194, -91.9997, 54.345
7.12029, 10, -31.6373, -3.83651, 25.0035, -159.186, -91.9923, 54.3372
7.12735, 10, -31.6255, -3.85377, 25.0186, -159.178, -91.985, 54.3294
7.13529, 10, -31.6138, -3.87088, 25.0339, -159.171, -91.9774, 54.3213
7.14329, 10, -31.6023, -3.88821, 25.0493, -159.163, -91.9697, 54.3131
7.15156, 11, -31.5907, -3.90571, 25.0645, -159.155, -91.9618, 54.3049
7.1593, 11, -31.5791, -3.92301, 25.0799, -159.147, -91.9537, 54.2964
7.1673, 11, -31.5676, -3.94041, 25.0958, -159.139, -91.9454, 54.2878
7.17535, 11, -31.556, -3.95814, 25.1115, -159.131, -91.9369, 54.2791
7.18329, 11, -31.5443, -3.97582, 25.127, -159.123, -91.9284, 54.2704
7.19129, 11, -31.5329, -3.9933, 25.1426, -159.115, -91.9198, 54.2617
7.1994, 11, -31.5215, -4.011, 25.1583, -159.106, -91.9114, 54.253
7.20729, 11, -31.5101, -4.02891, 25.1738, -159.098, -91.9029, 54.2444
7.21529, 11, -31.4988, -4.04668, 25.1893, -159.089, -91.8945, 54.2359
7.22335, 11, -31.4875, -4.0645, 25.2053, -159.08, -91.8862, 54.2273
7.23139, 11, -31.4762, -4.0826, 25.2213, -159.071, -91.8779, 54.2188
7.23936, 11, -31.4649, -4.1007, 25.2371, -159.062, -91.8696, 54.2102
7.24771, 11, -31.4536, -4.11868, 25.253, -159.053, -91.8614, 54.2018
7.25538, 11, -31.4425, -4.13683, 25.2691, -159.044, -91.853, 54.1931
7.26348, 11, -31.4312, -4.15509, 25.2849, -159.036, -91.8446, 54.1844
7.2722, 11, -31.42, -4.17322, 25.3007, -159.027, -91.8361, 54.1757
7.27944, 11, -31.4089, -4.19155, 25.317, -159.019, -91.8274, 54.1667
7.28746, 11, -31.3976, -4.21009, 25.3333, -159.01, -91.8185, 54.1577
7.29619, 11, -31.3862, -4.2285, 25.3494, -159.002, -91.8095, 54.1484
7.30332, 11, -31.3751, -4.24689, 25.3655, -158.993, -91.8001, 54.1391
7.3114, 11, -31.3639, -4.26551, 25.3818, -158.984, -91.7906, 54.1297
7.32049, 11, -31.3528, -4.28405, 25.3979, -158.976, -91.7812, 54.12
7.32911, 11, -31.3418, -4.30256, 25.4142, -158.967, -91.7716, 54.1101
7.33628, 11, -31.3308, -4.32134, 25.4308, -158.958, -91.7622, 54.1001
7.34446, 11, -31.3198, -4.34022, 25.4475, -158.949, -91.7528, 54.09
7.35165, 11, -31.3088, -4.35895, 25.4638, -158.939, -91.7436, 54.08
7.35976, 12, -31.2979, -4.37779, 25.4804, -158.93, -91.7344, 54.07
7.36778, 12, -31.287, -4.39682, 25.4969, -158.92, -91.7252, 54.06
7.37593, 12, -31.2761, -4.41575, 25.5132, -158.911, -91.7161, 54.0501
7.38472, 12, -31.2653, -4.43475, 25.5298, -158.901, -91.707, 54.0403
7.39185, 12, -31.2544, -4.45399, 25.5466, -158.892, -91.6978, 54.0305
7.40046, 12, -31.2435, -4.47319, 25.5633, -158.883, -91.6885, 54.0208
7.4086, 12, -31.238, -4.48275, 25.5716, -158.878, -91.6791, 54.0111
7.4159, 12, -31.2271, -4.50193, 25.5884, -158.869, -91.6743, 54.0013
7.42631, 12, -31.2108, -4.53097, 25.6136, -158.855, -91.6595, 53.9915
7.43318, 12, -31.1999, -4.55028, 25.6303, -158.846, -91.6493, 53.9815
7.43934, 12, -31.1945, -4.56002, 25.6387, -158.841, -91.6442, 53.9765
7.44846, 12, -31.1783, -4.58947, 25.6643, -158.827, -91.6288, 53.9612
7.45527, 12, -31.1729, -4.59922, 25.6728, -158.823, -91.6237, 53.9559
7.46333, 12, -31.1622, -4.61873, 25.6897, -158.813, -91.6136, 53.9454
7.47269, 12, -31.146, -4.64834, 25.7152, -158.798, -91.5984, 53.9293
7.47929, 12, -31.1407, -4.65816, 25.7237, -158.793, -91.5934, 53.9239
7.48871, 12, -31.1248, -4.68778, 25.7492, -158.778, -91.5785, 53.9071
7.49528, 12, -31.1195, -4.69778, 25.7579, -158.773, -91.5735, 53.9016
7.50563, 12, -31.1036, -4.72758, 25.7839, -158.758, -91.5585, 53.8849
7.51135, 12, -31.0983, -4.73749, 25.7925, -158.753, -91.5534, 53.8793
7.52166, 12, -31.0823, -4.76761, 25.8185, -158.739, -91.5381, 53.8628
7.52725, 12, -31.077, -4.77767, 25.8272, -158.734, -91.5328, 53.8574
7.53691, 12, -31.0663, -4.79775, 25.8443, -158.724, -91.5168, 53.841
7.54486, 12, -31.0559, -4.81798, 25.8616, -158.715, -91.5113, 53.8355
7.55231, 12, -31.0453, -4.83827, 25.8791, -158.705, -91.5001, 53.8245
7.55935, 12, -31.0347, -4.8585, 25.8966, -158.695, -91.4889, 53.8136
7.56727, 13, -31.0242, -4.87887, 25.9141, -158.686, -91.4778, 53.8025
7.57527, 13, -31.0138, -4.89929, 25.9318, -158.676, -91.4667, 53.7913
7.58327, 13, -31.0033, -4.91968, 25.9493, -158.666, -91.4558, 53.7801
7.59128, 13, -30.9929, -4.94031, 25.9669, -158.655, -91.4451, 53.7688
7.59937, 13, -30.9826, -4.96097, 25.9847, -158.645, -91.4343, 53.7571
7.60727, 13, -30.9724, -4.98154, 26.0024, -158.634, -91.4237, 53.7452
7.61533, 13, -30.9621, -5.00229, 26.02, -158.624, -91.413, 53.7331
7.62334, 13, -30.9518, -5.02308, 26.0378, -158.613, -91.4022, 53.7209
7.63127, 13, -30.9416, -5.04383, 26.0556, -158.603, -91.3913, 53.7088
7.63935, 13, -30.9313, -5.06479, 26.0735, -158.593, -91.3802, 53.6967
7.64727, 13, -30.9209, -5.08578, 26.0916, -158.583, -91.3688, 53.6848
7.65528, 13, -30.9107, -5.10663, 26.1097, -158.573, -91.3571, 53.6729
7.66335, 13, -30.9005, -5.12773, 26.1277, -158.562, -91.3454, 53.661
7.67127, 13, -30.8904, -5.14886, 26.1459, -158.552, -91.3336, 53.6491
7.67927, 13, -30.8801, -5.16992, 26.164, -158.542, -91.322, 53.6372
7.68734, 13, -30.8699, -5.19117, 26.1819, -158.531, -91.3104, 53.6252
7.69528, 13, -30.8597, -5.21246, 26.2001, -158.52, -91.2989, 53.6131
7.70331, 13, -30.8495, -5.23367, 26.2184, -158.509, -91.2875, 53.6009
7.71136, 13, -30.8393, -5.25507, 26.2365, -158.498, -91.2761, 53.5884
7.71927, 13, -30.8293, -5.2765, 26.2548, -158.487, -91.2646, 53.5758
7.72727, 13, -30.8194, -5.29798, 26.2732, -158.476, -91.253, 53.563
7.73572, 13, -30.8093, -5.31965, 26.2914, -158.465, -91.2413, 53.5502
7.74442, 13, -30.7993, -5.34133, 26.31, -158.455, -91.2293, 53.537
7.75137, 13, -30.7894, -5.36296, 26.3285, -158.444, -91.217, 53.524
7.75952, 13, -30.7795, -5.38472, 26.347, -158.433, -91.2046, 53.5112
7.76762, 14, -30.7695, -5.40647, 26.3655, -158.423, -91.192, 53.4985
7.77539, 14, -30.7596, -5.42829, 26.384, -158.412, -91.1797, 53.4861
7.78389, 14, -30.7497, -5.45022, 26.4025, -158.402, -91.1674, 53.4737
7.79233, 14, -30.7399, -5.47208, 26.4214, -158.391, -91.1553, 53.4613
7.7993, 14, -30.7301, -5.49404, 26.4402, -158.38, -91.1433, 53.4488
7.80731, 14, -30.7201, -5.51612, 26.459, -158.368, -91.1314, 53.4363
7.81535, 14, -30.7103, -5.53828, 26.4779, -158.357, -91.1193, 53.4235
7.82375, 14, -30.7005, -5.56059, 26.4967, -158.345, -91.1072, 53.4105
7.83199, 14, -30.6906, -5.58282, 26.5153, -158.334, -91.0947, 53.3974
7.84033, 14, -30.6807, -5.60514, 26.5343, -158.323, -91.0821, 53.3839
7.84771, 14, -30.6711, -5.62758, 26.5533, -158.311, -91.0691, 53.3701
7.85651, 14, -30.6614, -5.64985, 26.5722, -158.3, -91.0559, 53.3562
7.86368, 14, -30.6518, -5.67242, 26.5913, -158.289, -91.0428, 53.3422
7.87231, 14, -30.6422, -5.69508, 26.6103, -158.278, -91.0298, 53.3282
7.87982, 14, -30.6326, -5.71753, 26.6294, -158.267, -91.0169, 53.3144
7.8884, 14, -30.6231, -5.74024, 26.6486, -158.255, -91.004, 53.3006
7.89599, 14, -30.6135, -5.76299, 26.6678, -158.244, -90.9912, 53.287
7.90516, 14, -30.6038, -5.78559, 26.687, -158.232, -90.9784, 53.2735
7.9118, 14, -30.599, -5.79704, 26.6966, -158.226, -90.9656, 53.2599
7.92049, 14, -30.5848, -5.83147, 26.7255, -158.208, -90.9527, 53.2462
7.92726, 14, -30.58, -5.84283, 26.7352, -158.202, -90.946, 53.2394
7.93829, 14, -30.5657, -5.87736, 26.7644, -158.184, -90.9258, 53.2187
7.94327, 14, -30.561, -5.88887, 26.7741, -158.178, -90.9189, 53.2118
7.95327, 14, -30.5469, -5.92339, 26.8034, -158.161, -90.8982, 53.1903
7.95928, 14, -30.5422, -5.93502, 26.8132, -158.155, -90.8914, 53.1831
7.96887, 14, -30.5279, -5.96972, 26.8424, -158.138, -90.8712, 53.1612
7.97522, 15, -30.5233, -5.98131, 26.8521, -158.132, -90.8646, 53.154
7.98464, 15, -30.5094, -6.01621, 26.8817, -158.115, -90.8447, 53.1321
7.99127, 15, -30.5048, -6.02783, 26.8915, -158.109, -90.8381, 53.125
7.99926, 15, -30.4955, -6.05127, 26.9112, -158.097, -90.8248, 53.1107
8.00726, 15, -30.4864, -6.07482, 26.931, -158.085, -90.8114, 53.0964
8.01532, 15, -30.4772, -6.09825, 26.9508, -158.072, -90.7978, 53.082
8.02326, 15, -30.4681, -6.12189, 26.9706, -158.059, -90.7838, 53.0676
8.03133, 15, -30.4588, -6.14552, 26.9906, -158.047, -90.7696, 53.0531
8.04091, 15, -30.4495, -6.1692, 27.0104, -158.034, -90.7555, 53.0311
8.04732, 15, -30.4402, -6.19304, 27.0303, -158.022, -90.7413, 53.0237
8.05636, 15, -30.431, -6.21678, 27.0503, -158.01, -90.7274, 53.0086
8.06426, 15, -30.4217, -6.24067, 27.0704, -157.998, -90.7135, 52.9932
8.07133, 15, -30.4124, -6.26462, 27.0905, -157.986, -90.6996, 52.9778
8.07926, 15, -30.4032, -6.28861, 27.1107, -157.974, -90.6857, 52.9624
8.08737, 15, -30.3942, -6.31276, 27.1308, -157.961, -90.6717, 52.9471
8.09525, 15, -30.385, -6.33682, 27.1511, -157.949, -90.6574, 52.9318
8.10329, 15, -30.3758, -6.36103, 27.1713, -157.936, -90.6428, 52.9168
8.11142, 15, -30.3666, -6.38524, 27.1916, -157.923, -90.628, 52.9016
8.11929, 15, -30.3576, -6.40953, 27.212, -157.91, -90.613, 52.8864
8.1275, 15, -30.3487, -6.43405, 27.2322, -157.897, -90.5982, 52.8712
8.13642, 15, -30.3397, -6.45842, 27.2526, -157.885, -90.5836, 52.8558
8.14325, 15, -30.3308, -6.48298, 27.2732, -157.872, -90.5691, 52.8402
8.15126, 15, -30.3221, -6.50757, 27.2937, -157.86, -90.5547, 52.8243
8.15932, 15, -30.3132, -6.53214, 27.3144, -157.848, -90.5403, 52.8081
8.16726, 15, -30.3042, -6.55692, 27.3349, -157.835, -90.5259, 52.7919
8.17525, 15, -30.2952, -6.58156, 27.3553, -157.822, -90.5112, 52.7757
8.18332, 16, -30.2861, -6.60633, 27.376, -157.81, -90.4962, 52.7597
8.19125, 16, -30.2772, -6.63124, 27.3967, -157.797, -90.4809, 52.7441
8.19988, 16, -30.2683, -6.6561, 27.4176, -157.784, -90.4655, 52.7286
8.20835, 16, -30.2594, -6.68118, 27.4385, -157.77, -90.4504, 52.713
8.21526, 16, -30.2505, -6.70615, 27.4593, -157.757, -90.4354, 52.6973
8.22406, 16, -30.2416, -6.7312, 27.4801, -157.744, -90.4205, 52.6815
8.23234, 16, -30.2329, -6.75628, 27.501, -157.731, -90.4057, 52.6656
8.23929, 16, -30.224, -6.78146, 27.5219, -157.719, -90.3907, 52.6494
8.2494, 16, -30.2152, -6.80682, 27.543, -157.706, -90.3756, 52.6331
8.25627, 16, -30.2065, -6.83206, 27.564, -157.693, -90.3602, 52.6163
8.26336, 16, -30.1978, -6.85747, 27.585, -157.68, -90.3444, 52.5995
8.27138, 16, -30.1893, -6.88289, 27.6062, -157.667, -90.3285, 52.5831
8.27978, 16, -30.1807, -6.90835, 27.6273, -157.654, -90.3125, 52.5667
8.28741, 16, -30.1722, -6.93401, 27.6486, -157.64, -90.2968, 52.5504
8.29526, 16, -30.1637, -6.95954, 27.6698, -157.626, -90.2813, 52.5343
8.30411, 16, -30.1552, -6.98523, 27.6909, -157.613, -90.2659, 52.5179
8.31235, 16, -30.1465, -7.01092, 27.7122, -157.599, -90.2505, 52.5016
8.31933, 16, -30.1378, -7.03674, 27.7336, -157.586, -90.235, 52.4851
8.32819, 16, -30.1291, -7.06264, 27.755, -157.573, -90.2192, 52.4683
8.33543, 16, -30.1206, -7.08848, 27.7765, -157.56, -90.2031, 52.4512
8.3435, 16, -30.1121, -7.11445, 27.798, -157.547, -90.1868, 52.4339
8.35316, 16, -30.1036, -7.14043, 27.8194, -157.533, -90.1705, 52.4167
8.35962, 16, -30.0951, -7.16665, 27.8409, -157.52, -90.1545, 52.3994
8.36773, 16, -30.0866, -7.19282, 27.8625, -157.506, -90.1385, 52.3825
8.37655, 16, -30.0783, -7.21901, 27.8842, -157.492, -90.1226, 52.3656
8.38379, 16, -30.0698, -7.24531, 27.9058, -157.478, -90.1067, 52.3489
8.39239, 17, -30.0614, -7.27151, 27.9275, -157.464, -90.0907, 52.3321
8.40065, 17, -30.053, -7.298, 27.9492, -157.451, -90.0744, 52.3152
8.40783, 17, -30.0489, -7.31121, 27.9711, -157.437, -90.0578, 52.2981
8.41626, 17, -30.0366, -7.35086, 27.9929, -157.423, -90.0409, 52.2806
8.42321, 17, -30.0325, -7.36415, 28.0038, -157.417, -90.0324, 52.2717
8.43229, 17, -30.0202, -7.40394, 28.0365, -157.396, -90.0075, 52.2448
8.43929, 17, -30.0161, -7.4173, 28.0475, -157.389, -89.9993, 52.2357
8.44835, 17, -30.004, -7.45727, 28.0805, -157.368, -89.9749, 52.2088
8.45528, 17, -29.9999, -7.47063, 28.0916, -157.361, -89.9667, 52.1998
8.4645, 17, -29.9875, -7.5107, 28.1247, -157.339, -89.9422, 52.1733
8.47124, 17, -29.9833, -7.52411, 28.1358, -157.332, -89.9339, 52.1645
8.48061, 17, -29.971, -7.56456, 28.169, -157.31, -89.9083, 52.1381
8.48726, 17, -29.9669, -7.578, 28.18, -157.303, -89.8997, 52.1292
8.49673, 17, -29.9547, -7.61854, 28.2135, -157.282, -89.874, 52.1024
8.50482, 17, -29.9465, -7.64558, 28.2357, -157.268, -89.8572, 52.0842
8.51286, 17, -29.9383, -7.67283, 28.258, -157.254, -89.8403, 52.0658
8.52082, 17, -29.9303, -7.69993, 28.2804, -157.24, -89.8236, 52.0472
8.52882, 17, -29.9222, -7.72726, 28.3028, -157.226, -89.8067, 52.0289
8.53699, 17, -29.9141, -7.7546, 28.3254, -157.211, -89.7897, 52.0109
8.54513, 17, -29.9101, -7.78199, 28.3477, -157.196, -89.7723, 51.9927
8.55209, 17, -29.9019, -7.79575, 28.3589, -157.189, -89.7635, 51.9837
8.55924, 17, -29.8939, -7.82315, 28.3815, -157.174, -89.7458, 51.9658
8.56823, 17, -29.886, -7.85067, 28.4041, -157.16, -89.7281, 51.9476
8.57624, 17, -29.8782, -7.8782, 28.4268, -157.145, -89.7106, 51.9294
8.58428, 17, -29.8703, -7.90588, 28.4495, -157.131, -89.6934, 51.9108
8.5912, 18, -29.8624, -7.9336, 28.4722, -157.116, -89.6764, 51.892
8.5993, 18, -29.8547, -7.96135, 28.4948, -157.102, -89.6592, 51.873
8.60728, 18, -29.8469, -7.98914, 28.5176, -157.087, -89.6418, 51.8539
8.61532, 18, -29.8391, -8.01701, 28.5405, -157.072, -89.6241, 51.835
8.62328, 18, -29.8312, -8.04502, 28.5633, -157.056, -89.6061, 51.8165
8.63124, 18, -29.8232, -8.07293, 28.5862, -157.041, -89.5882, 51.798
8.63931, 18, -29.8153, -8.101, 28.6092, -157.026, -89.5704, 51.7793
8.64723, 18, -29.8076, -8.12908, 28.6322, -157.011, -89.5528, 51.7607
8.65524, 18, -29.7998, -8.15729, 28.6553, -156.997, -89.5351, 51.7418
8.6643, 18, -29.792, -8.18545, 28.6783, -156.982, -89.5175, 51.7226
8.67123, 18, -29.7841, -8.21363, 28.7014, -156.968, -89.4997, 51.7031
8.6793, 18, -29.7764, -8.24186, 28.7246, -156.953, -89.4815, 51.6835
8.68806, 18, -29.7688, -8.27018, 28.7478, -156.937, -89.4629, 51.664
8.69623, 18, -29.7611, -8.29865, 28.7713, -156.922, -89.4444, 51.6447
8.70331, 18, -29.7534, -8.32703, 28.7945, -156.907, -89.426, 51.6256
8.71212, 18, -29.7456, -8.35553, 28.8178, -156.891, -89.4079, 51.6066
8.71924, 18, -29.738, -8.38404, 28.8412, -156.876, -89.3899, 51.5877
8.7273, 18, -29.7305, -8.41274, 28.8646, -156.861, -89.372, 51.5686
8.73606, 18, -29.7231, -8.44135, 28.8881, -156.846, -89.3538, 51.5493
8.74424, 18, -29.7156, -8.47006, 28.9115, -156.831, -89.3353, 51.5298
8.75138, 18, -29.7081, -8.49886, 28.9351, -156.816, -89.3164, 51.5099
8.76036, 18, -29.7006, -8.52779, 28.9587, -156.801, -89.2976, 51.4898
8.76747, 18, -29.6932, -8.55674, 28.9825, -156.785, -89.279, 51.47
8.77623, 18, -29.6858, -8.58565, 29.0061, -156.769, -89.2605, 51.4504
8.78416, 18, -29.6782, -8.61461, 29.0297, -156.753, -89.2422, 51.4311
8.79139, 18, -29.6707, -8.64376, 29.0535, -156.738, -89.2238, 51.4118
8.79941, 19, -29.6631, -8.67295, 29.0773, -156.723, -89.2051, 51.3923
8.80727, 19, -29.6556, -8.70216, 29.1012, -156.707, -89.186, 51.3727
8.81532, 19, -29.6482, -8.73139, 29.1251, -156.692, -89.1666, 51.3529
8.82418, 19, -29.6408, -8.76069, 29.1489, -156.677, -89.1474, 51.3327
8.83347, 19, -29.6334, -8.79014, 29.1728, -156.662, -89.1285, 51.3124
8.84029, 19, -29.626, -8.81952, 29.1968, -156.646, -89.1097, 51.2922
8.84833, 19, -29.6187, -8.84904, 29.2208, -156.63, -89.0911, 51.2722
8.85555, 19, -29.6115, -8.87852, 29.2448, -156.614, -89.0724, 51.2524
8.86367, 19, -29.6042, -8.90817, 29.2689, -156.598, -89.0534, 51.2326
8.87249, 19, -29.597, -8.93776, 29.293, -156.582, -89.0341, 51.2127
8.87983, 19, -29.5897, -8.96742, 29.3172, -156.566, -89.0145, 51.1927
8.88833, 19, -29.5825, -8.99711, 29.3414, -156.551, -88.9952, 51.1723
8.89665, 19, -29.5754, -9.02694, 29.3655, -156.535, -88.9761, 51.1516
8.9038, 19, -29.5684, -9.05674, 29.3898, -156.519, -88.9571, 51.1307
8.91234, 19, -29.5614, -9.08664, 29.4142, -156.503, -88.9382, 51.1097
8.92073, 19, -29.5578, -9.10159, 29.4265, -156.494, -88.9286, 51.0993
8.92721, 19, -29.5508, -9.13151, 29.4509, -156.478, -88.9092, 51.0788
8.93644, 19, -29.5403, -9.17662, 29.4875, -156.453, -88.8794, 51.0481
8.94327, 19, -29.5368, -9.19165, 29.4997, -156.445, -88.8695, 51.0378
8.95123, 19, -29.5299, -9.22187, 29.5243, -156.429, -88.8497, 51.0172
8.96067, 19, -29.5192, -9.26728, 29.5612, -156.405, -88.8205, 50.986
8.96718, 19, -29.5157, -9.28244, 29.5734, -156.397, -88.8108, 50.9754
8.97527, 19, -29.5085, -9.31271, 29.5981, -156.381, -88.7916, 50.9542
8.98503, 19, -29.4979, -9.35831, 29.6352, -156.356, -88.7623, 50.9223
8.99324, 19, -29.4909, -9.38885, 29.66, -156.339, -88.7422, 50.9013
8.99928, 19, -29.4874, -9.40414, 29.6724, -156.331, -88.7321, 50.891
9.00887, 20, -29.4769, -9.45, 29.7094, -156.306, -88.702, 50.8598
9.0176, 20, -29.4699, -9.48064, 29.7343, -156.289, -88.6823, 50.839
9.0233, 20, -29.4664, -9.49598, 29.7468, -156.281, -88.6724, 50.8286
9.03129, 20, -29.4595, -9.52677, 29.7718, -156.265, -88.6527, 50.8072
9.04084, 20, -29.4526, -9.5575, 29.8092, -156.24, -88.6228, 50.7748
9.04965, 20, -29.4458, -9.58836, 29.8217, -156.232, -88.6127, 50.7638
9.05522, 20, -29.4389, -9.61926, 29.8468, -156.215, -88.5921, 50.7421
9.06427, 20, -29.432, -9.6503, 29.8719, -156.198, -88.5715, 50.7206
9.07222, 20, -29.4252, -9.68128, 29.897, -156.181, -88.5512, 50.6993
9.07923, 20, -29.4185, -9.71226, 29.9222, -156.164, -88.5311, 50.6781
9.08727, 20, -29.4119, -9.74333, 29.9474, -156.147, -88.5112, 50.6568
9.09527, 20, -29.4052, -9.77456, 29.9727, -156.13, -88.4911, 50.6355
9.10324, 20, -29.3985, -9.80569, 29.9981, -156.114, -88.4708, 50.6137
9.11131, 20, -29.3918, -9.83688, 30.0233, -156.097, -88.45, 50.5916
9.11923, 20, -29.3853, -9.86813, 30.0487, -156.08, -88.4292, 50.5693
9.12726, 20, -29.3787, -9.8996, 30.0742, -156.063, -88.4085, 50.5472
9.13529, 20, -29.372, -9.93097, 30.0998, -156.045, -88.3881, 50.5255
9.14328, 20, -29.3653, -9.96248, 30.1253, -156.028, -88.3677, 50.504
9.15166, 20, -29.3587, -9.99401, 30.1508, -156.011, -88.3472, 50.4824
9.16102, 20, -29.3519, -10.0257, 30.1763, -155.994, -88.3264, 50.4609
9.16721, 20, -29.3452, -10.0573, 30.202, -155.977, -88.3052, 50.4392
9.176, 20, -29.3386, -10.0889, 30.2276, -155.96, -88.2839, 50.4171
9.18429, 20, -29.3321, -10.1207, 30.2532, -155.943, -88.2628, 50.3947
9.19222, 20, -29.3256, -10.1526, 30.2789, -155.926, -88.242, 50.3723
9.19931, 20, -29.3189, -10.1845, 30.3047, -155.908, -88.2214, 50.3502
9.20723, 20, -29.3124, -10.2163, 30.3306, -155.89, -88.2009, 50.3284
9.21525, 21, -29.3059, -10.2482, 30.3562, -155.873, -88.1799, 50.3066
9.2247, 21, -29.2994, -10.2802, 30.382, -155.856, -88.1586, 50.2848
9.23226, 21, -29.293, -10.3122, 30.4079, -155.839, -88.1371, 50.263
9.23924, 21, -29.2865, -10.3443, 30.434, -155.822, -88.116, 50.2407
9.2473, 21, -29.28, -10.3764, 30.4599, -155.805, -88.095, 50.2182
9.25558, 21, -29.2735, -10.4087, 30.4858, -155.787, -88.0741, 50.1956
9.26336, 21, -29.267, -10.4408, 30.5118, -155.769, -88.0531, 50.1733
9.27132, 21, -29.2607, -10.473, 30.5379, -155.751, -88.0318, 50.1512
9.27978, 21, -29.2545, -10.5053, 30.564, -155.734, -88.01, 50.1293
9.28732, 21, -29.2482, -10.5376, 30.5901, -155.716, -87.9881, 50.1074
9.29536, 21, -29.2419, -10.57, 30.6163, -155.699, -87.9665, 50.0853
9.304, 21, -29.2357, -10.6024, 30.6426, -155.682, -87.9452, 50.063
9.31228, 21, -29.2295, -10.6349, 30.6689, -155.664, -87.9241, 50.0401
9.31926, 21, -29.2233, -10.6674, 30.695, -155.646, -87.9029, 50.0171
9.32821, 21, -29.2171, -10.7, 30.7213, -155.628, -87.8812, 49.9941
9.33536, 21, -29.2108, -10.7327, 30.7478, -155.609, -87.8592, 49.9714
9.34346, 21, -29.2045, -10.7655, 30.7743, -155.591, -87.8373, 49.9491
9.35231, 21, -29.1981, -10.7982, 30.8007, -155.573, -87.8156, 49.9266
9.35953, 21, -29.1918, -10.831, 30.8272, -155.556, -87.794, 49.9041
9.36764, 21, -29.1855, -10.8639, 30.8538, -155.538, -87.7725, 49.8813
9.37725, 21, -29.1794, -10.8969, 30.8804, -155.52, -87.7508, 49.8582
9.38383, 21, -29.1732, -10.9298, 30.907, -155.502, -87.7287, 49.8348
9.39231, 21, -29.167, -10.9628, 30.9336, -155.483, -87.7062, 49.8117
9.40045, 21, -29.1608, -10.9959, 30.9603, -155.464, -87.684, 49.7889
9.40778, 21, -29.1578, -11.029, 30.9872, -155.446, -87.6621, 49.7663
9.41632, 22, -29.1486, -11.0622, 31.0138, -155.428, -87.6404, 49.7437
9.42467, 22, -29.1456, -11.0788, 31.0272, -155.419, -87.6186, 49.7209
9.43122, 22, -29.1396, -11.1121, 31.054, -155.401, -87.6077, 49.7095
9.44025, 22, -29.1306, -11.162, 31.0944, -155.373, -87.574, 49.6747
9.44721, 22, -29.1276, -11.1786, 31.1078, -155.364, -87.5627, 49.6629
9.45644, 22, -29.1186, -11.2287, 31.1482, -155.335, -87.5291, 49.6275
9.46331, 22, -29.1157, -11.2455, 31.1616, -155.326, -87.518, 49.6158
9.47126, 22, -29.1098, -11.279, 31.1887, -155.307, -87.4959, 49.5927
9.48056, 22, -29.1011, -11.3292, 31.2292, -155.28, -87.4627, 49.5582
9.48721, 22, -29.0982, -11.346, 31.2427, -155.271, -87.4514, 49.5468
9.49672, 22, -29.0895, -11.3965, 31.2833, -155.243, -87.417, 49.512
9.50469, 22, -29.0837, -11.4302, 31.3106, -155.225, -87.3943, 49.4884
9.51285, 22, -29.0779, -11.4639, 31.3378, -155.206, -87.3719, 49.4644
9.52078, 22, -29.0722, -11.4978, 31.3649, -155.187, -87.3497, 49.4405
9.5288, 22, -29.0664, -11.5318, 31.3921, -155.168, -87.3276, 49.4169
9.53685, 22, -29.0607, -11.5657, 31.4195, -155.149, -87.3051, 49.3935
9.54476, 22, -29.0578, -11.5826, 31.4332, -155.14, -87.2936, 49.37
9.55223, 22, -29.052, -11.6167, 31.4605, -155.121, -87.2706, 49.3583
9.56025, 22, -29.0461, -11.6508, 31.4878, -155.103, -87.2478, 49.3347
9.56902, 22, -29.0402, -11.685, 31.5152, -155.084, -87.2253, 49.3107
9.57524, 22, -29.0343, -11.7191, 31.5427, -155.065, -87.2028, 49.2866
9.58327, 22, -29.0285, -11.7533, 31.5701, -155.045, -87.1803, 49.2623
9.59122, 22, -29.0228, -11.7876, 31.5975, -155.026, -87.1573, 49.2384
9.59927, 22, -29.017, -11.8219, 31.625, -155.007, -87.1339, 49.2147
9.6072, 22, -29.0112, -11.8562, 31.6527, -154.989, -87.1106, 49.191
9.61523, 22, -29.0054, -11.8906, 31.6802, -154.97, -87.0876, 49.1674
9.62332, 23, -28.9996, -11.925, 31.7077, -154.951, -87.0649, 49.1436
9.63125, 23, -28.9939, -11.9594, 31.7354, -154.932, -87.0423, 49.1195
9.63969, 23, -28.9883, -11.9939, 31.7632, -154.913, -87.0194, 49.0953
9.6472, 23, -28.9827, -12.0284, 31.7909, -154.893, -86.996, 49.0711
9.6552, 23, -28.977, -12.0629, 31.8186, -154.874, -86.9725, 49.0475
9.66401, 23, -28.9714, -12.0975, 31.8465, -154.855, -86.9494, 49.024
9.67226, 23, -28.9657, -12.1321, 31.8744, -154.836, -86.9264, 49.0005
9.6802, 23, -28.9601, -12.1668, 31.9021, -154.817, -86.9035, 48.9769
9.68909, 23, -28.9545, -12.2016, 31.93, -154.797, -86.8804, 48.953
9.69619, 23, -28.949, -12.2364, 31.9579, -154.778, -86.8567, 48.9286
9.70332, 23, -28.9436, -12.2713, 31.986, -154.758, -86.8328, 48.9041
9.71122, 23, -28.9382, -12.3062, 32.0139, -154.738, -86.8092, 48.8798
9.72024, 23, -28.9328, -12.3412, 32.0419, -154.719, -86.7858, 48.8558
9.72727, 23, -28.9274, -12.3762, 32.0699, -154.699, -86.7626, 48.832
9.73521, 23, -28.922, -12.4113, 32.0982, -154.68, -86.7392, 48.8083
9.74328, 23, -28.9166, -12.4463, 32.1263, -154.661, -86.7154, 48.7843
9.75133, 23, -28.9113, -12.4816, 32.1545, -154.641, -86.6913, 48.76
9.75929, 23, -28.906, -12.5167, 32.1827, -154.621, -86.6675, 48.7355
9.76729, 23, -28.9007, -12.5519, 32.211, -154.601, -86.6439, 48.711
9.77536, 23, -28.8953, -12.5871, 32.2391, -154.581, -86.6204, 48.6867
9.78343, 23, -28.8898, -12.6224, 32.2674, -154.561, -86.5969, 48.6627
9.79167, 23, -28.8844, -12.6577, 32.2958, -154.541, -86.573, 48.6388
9.79974, 23, -28.8789, -12.693, 32.3242, -154.521, -86.5487, 48.6148
9.80728, 23, -28.8735, -12.7285, 32.3525, -154.502, -86.5245, 48.5906
9.81523, 23, -28.8681, -12.7639, 32.3809, -154.481, -86.5008, 48.5661
9.82336, 23, -28.8627, -12.7993, 32.4094, -154.461, -86.4773, 48.5411
9.83134, 24, -28.8573, -12.8347, 32.4379, -154.44, -86.4538, 48.5163
9.83938, 24, -28.852, -12.8703, 32.4663, -154.42, -86.4298, 48.4918
9.84825, 24, -28.8466, -12.9059, 32.4948, -154.401, -86.4055, 48.4675
9.85568, 24, -28.8412, -12.9416, 32.5234, -154.381, -86.3812, 48.4432
9.86381, 24, -28.836, -12.9774, 32.552, -154.361, -86.3573, 48.4188
9.87242, 24, -28.8308, -13.0132, 32.5806, -154.34, -86.3335, 48.3941
9.8797, 24, -28.8256, -13.049, 32.6092, -154.32, -86.3097, 48.3691
9.88838, 24, -28.8203, -13.0849, 32.6379, -154.299, -86.2854, 48.3438
9.89648, 24, -28.8151, -13.1209, 32.6667, -154.279, -86.2607, 48.3188
9.90411, 24, -28.8098, -13.1569, 32.6953, -154.259, -86.2362, 48.2944
9.91177, 24, -28.8072, -13.1928, 32.7241, -154.239, -86.2121, 48.2701
9.92074, 24, -28.7994, -13.2289, 32.7531, -154.219, -86.1881, 48.2457
9.92821, 24, -28.7943, -13.265, 32.782, -154.198, -86.1643, 48.2212
9.93519, 24, -28.7917, -13.283, 32.7963, -154.188, -86.1522, 48.2089
9.94509, 24, -28.7841, -13.3373, 32.8397, -154.157, -86.1153, 48.1712
9.95133, 24, -28.7816, -13.3554, 32.8542, -154.147, -86.103, 48.1587
9.95919, 24, -28.7765, -13.3916, 32.8833, -154.127, -86.0785, 48.1339
9.9692, 24, -28.7689, -13.4459, 32.9267, -154.097, -86.0422, 48.0973
9.97523, 24, -28.7663, -13.464, 32.9412, -154.087, -86.0302, 48.0852
9.98543, 24, -28.7588, -13.5185, 32.9849, -154.055, -85.9934, 48.0487
9.99115, 24, -28.7563, -13.5366, 32.9994, -154.045, -85.9809, 48.0364
10.0008, 24, -28.7489, -13.5911, 33.0429, -154.014, -85.9436, 47.999
10.0088, 24, -28.7439, -13.6275, 33.0722, -153.993, -85.9192, 47.9739
10.0174, 24, -28.7389, -13.6641, 33.1014, -153.973, -85.895, 47.9492
10.0233, 24, -28.7364, -13.6823, 33.116, -153.963, -85.8829, 47.937
10.0328, 25, -28.7287, -13.7372, 33.1597, -153.932, -85.8462, 47.9007
10.0416, 25, -28.7261, -13.7556, 33.189, -153.911, -85.8211, 47.8764
10.0473, 25, -28.721, -13.7922, 33.2037, -153.9, -85.8086, 47.8642
10.057, 25, -28.716, -13.829, 33.2329, -153.879, -85.7717, 47.8269
10.0633, 25, -28.7109, -13.8658, 33.2622, -153.858, -85.7594, 47.8143
10.0723, 25, -28.706, -13.9026, 33.2915, -153.837, -85.735, 47.789
10.0802, 25, -28.701, -13.9394, 33.321, -153.816, -85.7102, 47.7639
10.0882, 25, -28.696, -13.9763, 33.3503, -153.796, -85.6849, 47.7393
10.0962, 25, -28.6911, -14.0131, 33.3797, -153.774, -85.6596, 47.7148
10.1033, 25, -28.6861, -14.0501, 33.4092, -153.753, -85.6347, 47.6903
10.1113, 25, -28.6812, -14.0871, 33.4388, -153.731, -85.6101, 47.6657
10.1192, 25, -28.6764, -14.1241, 33.4683, -153.71, -85.5856, 47.6407
10.1272, 25, -28.6716, -14.161, 33.4978, -153.689, -85.5608, 47.6153
10.1353, 25, -28.6668, -14.1981, 33.5275, -153.668, -85.5355, 47.5902
10.1432, 25, -28.662, -14.2353, 33.5571, -153.647, -85.5103, 47.5654
10.1514, 25, -28.6571, -14.2724, 33.5867, -153.625, -85.4854, 47.5408
10.1592, 25, -28.6523, -14.3095, 33.6164, -153.604, -85.4607, 47.5164
10.1672, 25, -28.6475, -14.3468, 33.6462, -153.582, -85.436, 47.4918
10.1762, 25, -28.6426, -14.384, 33.6758, -153.56, -85.4108, 47.4669
10.1871, 25, -28.6355, -14.4399, 33.7204, -153.529, -85.3724, 47.4289
10.1912, 25, -28.6331, -14.4587, 33.7353, -153.518, -85.3598, 47.4163
10.2, 25, -28.6283, -14.4962, 33.7652, -153.497, -85.3347, 47.3912
10.2083, 25, -28.6236, -14.5335, 33.7949, -153.475, -85.31, 47.3665
10.2152, 25, -28.6189, -14.5711, 33.8247, -153.453, -85.2851, 47.342
10.2234, 25, -28.6143, -14.6087, 33.8545, -153.432, -85.2598, 47.3175
10.2312, 25, -28.6097, -14.6462, 33.8844, -153.41, -85.2342, 47.2927
10.2392, 26, -28.605, -14.6837, 33.9142, -153.389, -85.2088, 47.2676
10.2489, 26, -28.6004, -14.7213, 33.9441, -153.368, -85.1838, 47.2422
10.2562, 26, -28.5957, -14.759, 33.9741, -153.346, -85.1588, 47.2171
10.2634, 26, -28.5911, -14.7966, 34.0041, -153.324, -85.1335, 47.1925
10.2713, 26, -28.5864, -14.8343, 34.0341, -153.302, -85.1078, 47.1678
10.2802, 26, -28.5817, -14.8719, 34.0641, -153.28, -85.0818, 47.1431
10.2874, 26, -28.5769, -14.9094, 34.0943, -153.259, -85.0563, 47.1185
10.2952, 26, -28.5721, -14.9471, 34.1243, -153.238, -85.0311, 47.0936
10.3042, 26, -28.5672, -14.9848, 34.1544, -153.216, -85.006, 47.0684
10.3112, 26, -28.5623, -15.0226, 34.1846, -153.194, -84.9806, 47.043
10.3192, 26, -28.5575, -15.0603, 34.2149, -153.172, -84.9547, 47.0182
10.3273, 26, -28.5527, -15.0981, 34.2449, -153.15, -84.9289, 46.9938
10.3353, 26, -28.5479, -15.1359, 34.2751, -153.128, -84.9034, 46.9694
10.3434, 26, -28.5432, -15.1738, 34.3054, -153.107, -84.878, 46.9449
10.3515, 26, -28.5385, -15.2118, 34.3356, -153.085, -84.8527, 46.9203
10.3595, 26, -28.5338, -15.2498, 34.3657, -153.063, -84.827, 46.8952
10.3675, 26, -28.5292, -15.2878, 34.3961, -153.041, -84.8009, 46.8701
10.3757, 26, -28.5246, -15.3259, 34.4265, -153.018, -84.775, 46.8451
10.3843, 26, -28.5199, -15.364, 34.4568, -152.996, -84.7495, 46.8206
10.3917, 26, -28.5154, -15.4021, 34.487, -152.974, -84.7242, 46.7964
10.4012, 26, -28.5108, -15.4403, 34.5173, -152.952, -84.6988, 46.7721
10.4078, 26, -28.5063, -15.4784, 34.5478, -152.93, -84.6729, 46.7477
10.4163, 26, -28.5017, -15.5166, 34.5781, -152.908, -84.6468, 46.7229
10.4238, 26, -28.4971, -15.5548, 34.6085, -152.885, -84.6211, 46.6978
10.4323, 26, -28.4925, -15.593, 34.639, -152.862, -84.5956, 46.6726
10.4392, 26, -28.4902, -15.6121, 34.6543, -152.851, -84.5828, 46.6601
10.4472, 27, -28.4856, -15.6502, 34.6847, -152.829, -84.5573, 46.6354
10.4564, 27, -28.4787, -15.7077, 34.7305, -152.796, -84.518, 46.5987
10.4632, 27, -28.4764, -15.7268, 34.7459, -152.785, -84.5048, 46.5865
10.4712, 27, -28.4719, -15.7651, 34.7765, -152.762, -84.4787, 46.562
10.4805, 27, -28.4652, -15.8226, 34.8224, -152.727, -84.4402, 46.5246
10.4872, 27, -28.463, -15.8418, 34.8376, -152.716, -84.4275, 46.5121
10.4953, 27, -28.4585, -15.8802, 34.8683, -152.694, -84.4018, 46.487
10.5032, 27, -28.4541, -15.9187, 34.899, -152.672, -84.3756, 46.4623
10.5136, 27, -28.4474, -15.9766, 34.945, -152.638, -84.3364, 46.4258
10.5192, 27, -28.4452, -15.9958, 34.9603, -152.627, -84.3234, 46.4136
10.5288, 27, -28.4386, -16.0537, 35.0064, -152.592, -84.2849, 46.377
10.5376, 27, -28.4342, -16.0924, 35.037, -152.569, -84.2591, 46.3523
10.5433, 27, -28.432, -16.1118, 35.0524, -152.558, -84.246, 46.3398
10.5527, 27, -28.4275, -16.1504, 35.0833, -152.536, -84.2061, 46.3023
10.5619, 27, -28.423, -16.1891, 35.1141, -152.513, -84.1801, 46.2774
10.5682, 27, -28.4185, -16.2279, 35.1449, -152.491, -84.1672, 46.2652
10.5763, 27, -28.4139, -16.2667, 35.1756, -152.467, -84.1415, 46.241
10.5842, 27, -28.4093, -16.3054, 35.2066, -152.444, -84.1158, 46.2168
10.5914, 27, -28.4047, -16.3442, 35.2374, -152.421, -84.0894, 46.1925
10.5991, 27, -28.4001, -16.383, 35.2682, -152.399, -84.0629, 46.168
10.6072, 27, -28.3956, -16.4218, 35.2992, -152.376, -84.0367, 46.143
10.6152, 27, -28.3911, -16.4606, 35.3302, -152.354, -84.0107, 46.1181
10.6233, 27, -28.3867, -16.4994, 35.361, -152.331, -83.9849, 46.0937
10.6312, 27, -28.3822, -16.5382, 35.3921, -152.308, -83.9587, 46.0697
10.6392, 27, -28.3778, -16.577, 35.4232, -152.285, -83.932, 46.0458
10.6471, 28, -28.3733, -16.6159, 35.4542, -152.262, -83.9055, 46.0218
10.6552, 28, -28.3688, -16.6549, 35.4852, -152.239, -83.8794, 45.9978
10.6632, 28, -28.3644, -16.6938, 35.5162, -152.217, -83.8535, 45.9733
10.6712, 28, -28.3601, -16.7328, 35.5474, -152.193, -83.8277, 45.9485
10.6792, 28, -28.3557, -16.7719, 35.5784, -152.17, -83.8014, 45.924
10.6872, 28, -28.3514, -16.811, 35.6095, -152.146, -83.7749, 45.9
10.6952, 28, -28.347, -16.8501, 35.6407, -152.123, -83.7486, 45.8762
10.7033, 28, -28.3426, -16.8892, 35.6718, -152.1, -83.7226, 45.8526
10.7112, 28, -28.3382, -16.9284, 35.7028, -152.078, -83.6967, 45.829
10.7192, 28, -28.3338, -16.9675, 35.734, -152.054, -83.6705, 45.805
10.7272, 28, -28.3293, -17.0066, 35.7653, -152.03, -83.6437, 45.7809
10.7353, 28, -28.3249, -17.0459, 35.7964, -152.007, -83.617, 45.7566
10.7434, 28, -28.3205, -17.085, 35.8275, -151.983, -83.5907, 45.7326
10.7512, 28, -28.3162, -17.1241, 35.8588, -151.96, -83.5646, 45.709
10.7601, 28, -28.3119, -17.1633, 35.89, -151.937, -83.5386, 45.6855
10.7675, 28, -28.3077, -17.2026, 35.9212, -151.913, -83.5121, 45.6622
10.7753, 28, -28.3035, -17.2417, 35.9525, -151.889, -83.4852, 45.6389
10.7841, 28, -28.2992, -17.2809, 35.9838, -151.865, -83.4588, 45.6153
10.7917, 28, -28.295, -17.3202, 36.015, -151.842, -83.4326, 45.5913
10.7992, 28, -28.2907, -17.3595, 36.0462, -151.819, -83.4065, 45.5673
10.8083, 28, -28.2864, -17.3988, 36.0776, -151.796, -83.3802, 45.5434
10.8201, 28, -28.28, -17.4579, 36.1247, -151.76, -83.3396, 45.5084
10.8242, 28, -28.2779, -17.4776, 36.1403, -151.748, -83.3263, 45.4968
10.8322, 28, -28.2736, -17.517, 36.1716, -151.724, -83.2998, 45.4737
10.8399, 28, -28.2694, -17.5565, 36.2031, -151.701, -83.2737, 45.4505
10.8482, 28, -28.265, -17.596, 36.2344, -151.677, -83.2475, 45.427
10.8555, 29, -28.2606, -17.6354, 36.2658, -151.654, -83.2208, 45.4033
10.8644, 29, -28.2561, -17.6749, 36.2972, -151.63, -83.1938, 45.3796
10.8717, 29, -28.2516, -17.7144, 36.3287, -151.606, -83.1672, 45.3564
10.8817, 29, -28.2471, -17.7539, 36.36, -151.582, -83.1407, 45.3336
10.8877, 29, -28.2427, -17.7934, 36.3914, -151.558, -83.1145, 45.3108
10.8964, 29, -28.2383, -17.8329, 36.423, -151.535, -83.0878, 45.2881
10.9038, 29, -28.2339, -17.8723, 36.4545, -151.511, -83.0606, 45.2654
10.9124, 29, -28.2296, -17.9118, 36.4859, -151.488, -83.0337, 45.2423
10.9199, 29, -28.2275, -17.9316, 36.5175, -151.464, -83.0072, 45.2188
10.9278, 29, -28.2231, -17.9711, 36.5333, -151.44, -82.981, 45.1954
10.9363, 29, -28.2166, -18.0304, 36.5805, -151.416, -82.9548, 45.1722
10.9431, 29, -28.2144, -18.0501, 36.5963, -151.404, -82.9414, 45.1607
10.9522, 29, -28.2079, -18.1095, 36.6438, -151.369, -82.9009, 45.1267
10.9592, 29, -28.2058, -18.1293, 36.6596, -151.357, -82.8876, 45.1154
10.9685, 29, -28.1994, -18.1888, 36.7069, -151.32, -82.848, 45.0816
10.9752, 29, -28.1973, -18.2086, 36.7227, -151.308, -82.8348, 45.0702
10.9845, 29, -28.191, -18.2682, 36.7703, -151.272, -82.7951, 45.0356
10.9912, 29, -28.1889, -18.2881, 36.7861, -151.26, -82.7815, 45.024
11.0007, 29, -28.1824, -18.3477, 36.8334, -151.225, -82.741, 44.9896
11.0096, 29, -28.1781, -18.3875, 36.8652, -151.201, -82.7145, 44.9671
11.0152, 29, -28.1759, -18.4074, 36.881, -151.189, -82.7013, 44.956
11.0231, 29, -28.1716, -18.4472, 36.9126, -151.164, -82.6752, 44.9336
11.0327, 29, -28.1652, -18.5069, 36.9601, -151.127, -82.6351, 44.9004
11.0408, 29, -28.1609, -18.5467, 36.9918, -151.103, -82.6081, 44.878
11.0488, 29, -28.1588, -18.5864, 37.0233, -151.079, -82.5815, 44.8553
11.0567, 29, -28.1546, -18.6063, 37.0391, -151.067, -82.5683, 44.8439
11.0633, 30, -28.1505, -18.6461, 37.0708, -151.042, -82.542, 44.8212
11.0712, 30, -28.1463, -18.6859, 37.1026, -151.017, -82.5155, 44.7988
11.0792, 30, -28.1421, -18.7257, 37.1342, -150.993, -82.4884, 44.7768
11.0873, 30, -28.1378, -18.7655, 37.1658, -150.969, -82.4611, 44.755
11.0952, 30, -28.1335, -18.8053, 37.1975, -150.945, -82.4344, 44.7334
11.1031, 30, -28.1293, -18.8452, 37.2292, -150.92, -82.408, 44.7119
11.1112, 30, -28.125, -18.8852, 37.2608, -150.896, -82.3817, 44.6902
11.1191, 30, -28.1208, -18.9252, 37.2925, -150.871, -82.3549, 44.6683
11.1272, 30, -28.1166, -18.9652, 37.3243, -150.846, -82.3278, 44.6463
11.1351, 30, -28.1123, -19.0051, 37.3558, -150.822, -82.3008, 44.6244
11.1433, 30, -28.1079, -19.0452, 37.3875, -150.798, -82.2742, 44.6031
11.1511, 30, -28.1035, -19.0852, 37.4194, -150.774, -82.2477, 44.582
11.1591, 30, -28.099, -19.1252, 37.4511, -150.749, -82.221, 44.561
11.1672, 30, -28.0945, -19.1652, 37.4828, -150.724, -82.1939, 44.5401
11.1751, 30, -28.09, -19.2053, 37.5145, -150.699, -82.1666, 44.5191
11.1831, 30, -28.0856, -19.2453, 37.5463, -150.675, -82.1399, 44.498
11.1912, 30, -28.0812, -19.2853, 37.5781, -150.651, -82.1134, 44.4766
11.1991, 30, -28.0768, -19.3252, 37.6098, -150.627, -82.0871, 44.4552
11.2072, 30, -28.0724, -19.3652, 37.6416, -150.602, -82.0603, 44.4341
11.2152, 30, -28.068, -19.4052, 37.6734, -150.577, -82.0331, 44.4132
11.2233, 30, -28.0636, -19.4451, 37.7051, -150.552, -82.0064, 44.3926
11.2322, 30, -28.0592, -19.4851, 37.7369, -150.528, -81.9799, 44.3722
11.2392, 30, -28.0547, -19.525, 37.7688, -150.504, -81.9536, 44.3518
11.2472, 30, -28.0504, -19.5649, 37.8005, -150.479, -81.927, 44.3312
11.2552, 30, -28.046, -19.605, 37.8322, -150.454, -81.8998, 44.3104
11.2633, 31, -28.0417, -19.6451, 37.8641, -150.429, -81.8727, 44.2895
11.2712, 31, -28.0373, -19.6851, 37.8959, -150.404, -81.846, 44.2687
11.2792, 31, -28.033, -19.7251, 37.9277, -150.38, -81.8196, 44.2483
11.2877, 31, -28.0286, -19.7653, 37.9595, -150.355, -81.7933, 44.2282
11.2953, 31, -28.0241, -19.8054, 37.9914, -150.331, -81.7665, 44.2084
11.3032, 31, -28.0196, -19.8454, 38.0231, -150.305, -81.7395, 44.1886
11.3119, 31, -28.0151, -19.8855, 38.055, -150.28, -81.7127, 44.1688
11.3202, 31, -28.0107, -19.9255, 38.087, -150.255, -81.6861, 44.1489
11.3272, 31, -28.0063, -19.9655, 38.1189, -150.23, -81.6597, 44.1289
11.336, 31, -28.0019, -20.0056, 38.1507, -150.206, -81.633, 44.1086
11.3443, 31, -27.9976, -20.0457, 38.1826, -150.18, -81.6057, 44.0882
11.3513, 31, -27.9932, -20.0856, 38.2146, -150.155, -81.5786, 44.068
11.3602, 31, -27.9888, -20.1256, 38.2464, -150.129, -81.5519, 44.0483
11.3683, 31, -27.9844, -20.1657, 38.2783, -150.104, -81.5255, 44.0287
11.3756, 31, -27.98, -20.2057, 38.3102, -150.08, -81.499, 44.0094
11.3846, 31, -27.9756, -20.2457, 38.342, -150.055, -81.4721, 43.9903
11.3916, 31, -27.9712, -20.2857, 38.3739, -150.03, -81.4449, 43.971
11.3997, 31, -27.9668, -20.3258, 38.4059, -150.004, -81.4182, 43.9516
11.4086, 31, -27.9623, -20.3659, 38.4378, -149.979, -81.3916, 43.932
11.4157, 31, -27.9579, -20.406, 38.4696, -149.954, -81.3652, 43.9122
11.4251, 31, -27.9534, -20.4461, 38.5014, -149.93, -81.3384, 43.8927
11.4325, 31, -27.9511, -20.4662, 38.5173, -149.917, -81.3248, 43.8831
11.4391, 31, -27.9465, -20.5064, 38.5492, -149.892, -81.2976, 43.8641
11.4472, 31, -27.9419, -20.5466, 38.581, -149.866, -81.2709, 43.8455
11.4569, 31, -27.9348, -20.6068, 38.6288, -149.829, -81.2314, 43.8179
11.4643, 31, -27.9302, -20.6469, 38.6607, -149.804, -81.205, 43.7998
11.4712, 32, -27.9278, -20.6669, 38.6765, -149.791, -81.1917, 43.7906
11.4812, 32, -27.9209, -20.7271, 38.7242, -149.754, -81.1512, 43.7633
11.4872, 32, -27.9187, -20.7471, 38.7402, -149.741, -81.1378, 43.7541
11.4951, 32, -27.9141, -20.7872, 38.7722, -149.716, -81.1114, 43.7355
11.5046, 32, -27.9072, -20.8472, 38.8199, -149.678, -81.0718, 43.7077
11.5126, 32, -27.9026, -20.8873, 38.8517, -149.653, -81.0452, 43.6895
11.5192, 32, -27.9003, -20.9073, 38.8677, -149.641, -81.0316, 43.6806
11.5271, 32, -27.8957, -20.9473, 38.8995, -149.616, -81.0044, 43.663
11.5367, 32, -27.8888, -21.0073, 38.9473, -149.577, -80.9645, 43.637
11.5449, 32, -27.8842, -21.0473, 38.9792, -149.551, -80.9382, 43.6197
11.5527, 32, -27.8819, -21.0673, 38.9951, -149.539, -80.9119, 43.6024
11.5607, 32, -27.8773, -21.1074, 39.0268, -149.514, -80.8985, 43.5938
11.569, 32, -27.8726, -21.1475, 39.0746, -149.476, -80.858, 43.5677
11.5761, 32, -27.8679, -21.1875, 39.0905, -149.463, -80.8447, 43.559
11.5843, 32, -27.8632, -21.2277, 39.1223, -149.438, -80.8183, 43.5415
11.5921, 32, -27.8585, -21.2678, 39.154, -149.412, -80.792, 43.5241
11.6001, 32, -27.8538, -21.3079, 39.1859, -149.386, -80.7656, 43.5072
11.6082, 32, -27.8491, -21.3479, 39.2176, -149.361, -80.7386, 43.4905
11.6175, 32, -27.8422, -21.408, 39.2652, -149.323, -80.6982, 43.4659
11.6232, 32, -27.8399, -21.428, 39.2811, -149.31, -80.685, 43.4578
