hehonglu123/Motion-Primitive-Planning/simulation/robotstudio_sim/scripts/tests/log.csv
timestamp, cmd_num, J1, J2, J3, J4, J5, J6
0, 1, -0.804314, 64.433, 8.47718, 44.6, -96.4084, 169.856
0.002, 1, -0.804314, 64.433, 8.47718, 44.6, -96.4084, 169.856
0.004, 1, -0.804314, 64.433, 8.47718, 44.6, -96.4084, 169.856
0.008, 1, -0.804314, 64.433, 8.47718, 44.6, -96.4084, 169.856
0.011, 1, -0.804314, 64.433, 8.47718, 44.6, -96.4084, 169.856
0.016, 1, -0.804314, 64.433, 8.47718, 44.6, -96.4084, 169.856
0.02, 1, -0.804314, 64.433, 8.47718, 44.6, -96.4084, 169.856
0.024, 1, -0.804314, 64.433, 8.47718, 44.6, -96.4084, 169.856
0.028, 1, -0.804314, 64.433, 8.47718, 44.6, -96.4084, 169.856
0.032, 1, -0.804305, 64.433, 8.47718, 44.6, -96.4084, 169.856
0.036, 1, -0.804241, 64.433, 8.47718, 44.6, -96.4084, 169.856
0.04, 1, -0.804018, 64.4329, 8.47719, 44.6, -96.4084, 169.856
0.044, 1, -0.80349, 64.4328, 8.47721, 44.6, -96.4084, 169.856
0.048, 1, -0.802514, 64.4325, 8.47724, 44.6001, -96.4083, 169.856
0.052, 1, -0.800982, 64.432, 8.47727, 44.6002, -96.4082, 169.856
0.056, 1, -0.798819, 64.4312, 8.47729, 44.6004, -96.408, 169.855
0.06, 1, -0.795975, 64.4301, 8.47725, 44.6009, -96.4077, 169.854
0.064, 1, -0.792416, 64.4287, 8.47712, 44.6017, -96.407, 169.852
0.068, 1, -0.788094, 64.4268, 8.47681, 44.603, -96.4059, 169.849
0.072, 1, -0.782912, 64.4245, 8.47626, 44.605, -96.4043, 169.844
0.076, 1, -0.776713, 64.4216, 8.47537, 44.6079, -96.4019, 169.837
0.08, 1, -0.769298, 64.418, 8.47402, 44.612, -96.3985, 169.828
0.084, 1, -0.760467, 64.4137, 8.47208, 44.6175, -96.3938, 169.815
0.088, 1, -0.75006, 64.4086, 8.4694, 44.6249, -96.3876, 169.797
0.092, 1, -0.737972, 64.4027, 8.4658, 44.6345, -96.3796, 169.775
0.096, 1, -0.724122, 64.3959, 8.46112, 44.6467, -96.3694, 169.746
0.1, 1, -0.708408, 64.3882, 8.45517, 44.6618, -96.3568, 169.711
0.104, 1, -0.690701, 64.3795, 8.44778, 44.6802, -96.3414, 169.668
0.108, 1, -0.67087, 64.3698, 8.43878, 44.7023, -96.3228, 169.616
0.112, 1, -0.648833, 64.3591, 8.42804, 44.7284, -96.301, 169.555
0.116, 1, -0.624569, 64.3475, 8.41542, 44.7588, -96.2755, 169.485
0.12, 1, -0.598105, 64.3351, 8.40079, 44.7936, -96.2463, 169.403
0.124, 1, -0.569486, 64.3221, 8.38407, 44.8331, -96.2131, 169.311
0.128, 1, -0.538759, 64.3085, 8.36521, 44.8774, -96.1759, 169.208
0.131, 1, -0.505962, 64.2944, 8.34421, 44.9265, -96.1347, 169.094
0.136, 1, -0.471099, 64.2797, 8.32108, 44.9803, -96.0896, 168.968
0.139, 1, -0.434133, 64.2642, 8.29593, 45.0386, -96.0406, 168.833
0.144, 1, -0.395026, 64.2479, 8.26885, 45.1012, -95.988, 168.687
0.148, 1, -0.353794, 64.2306, 8.24, 45.1678, -95.9321, 168.532
0.152, 1, -0.310529, 64.2124, 8.20952, 45.2381, -95.873, 168.368
0.156, 1, -0.265362, 64.1933, 8.17759, 45.3118, -95.8111, 168.197
0.16, 1, -0.218411, 64.1733, 8.14438, 45.3884, -95.7468, 168.018
0.164, 1, -0.169754, 64.1525, 8.1101, 45.4674, -95.6804, 167.834
0.168, 1, -0.119457, 64.1309, 8.07493, 45.5486, -95.6122, 167.645
0.172, 1, -0.0676176, 64.1084, 8.03905, 45.6316, -95.5425, 167.452
0.176, 1, -0.0143659, 64.0852, 8.00263, 45.7159, -95.4717, 167.256
0.18, 1, 0.0401552, 64.0613, 7.96582, 45.8013, -95.4, 167.057
0.184, 1, 0.0958, 64.0368, 7.92871, 45.8876, -95.3276, 166.856
0.188, 1, 0.152414, 64.0117, 7.8914, 45.9744, -95.2547, 166.654
0.192, 1, 0.209843, 63.9862, 7.85395, 46.0617, -95.1814, 166.45
0.196, 1, 0.267956, 63.9604, 7.81641, 46.1492, -95.1079, 166.246
0.2, 1, 0.326666, 63.9343, 7.77881, 46.237, -95.0342, 166.042
0.204, 1, 0.385896, 63.9081, 7.74119, 46.3249, -94.9604, 165.837
0.208, 1, 0.445553, 63.8816, 7.70356, 46.4129, -94.8865, 165.632
0.212, 1, 0.505526, 63.8551, 7.66593, 46.5009, -94.8126, 165.427
0.216, 1, 0.565713, 63.8285, 7.62831, 46.5889, -94.7387, 165.222
0.22, 1, 0.626034, 63.8019, 7.5907, 46.6769, -94.6648, 165.017
0.224, 1, 0.686436, 63.7752, 7.5531, 46.7649, -94.591, 164.812
0.228, 1, 0.746881, 63.7486, 7.51552, 46.8529, -94.5171, 164.607
0.232, 1, 0.807344, 63.7219, 7.47797, 46.9408, -94.4433, 164.402
0.236, 1, 0.867809, 63.6953, 7.44042, 47.0286, -94.3696, 164.197
0.24, 1, 0.928263, 63.6686, 7.4029, 47.1165, -94.2958, 163.993
0.244, 1, 0.988699, 63.642, 7.36541, 47.2043, -94.2221, 163.788
0.248, 1, 1.04911, 63.6153, 7.32793, 47.292, -94.1485, 163.584
0.252, 1, 1.1095, 63.5887, 7.29047, 47.3797, -94.0749, 163.379
0.256, 1, 1.16985, 63.5621, 7.25303, 47.4673, -94.0013, 163.175
0.26, 1, 1.23018, 63.5355, 7.21562, 47.5549, -93.9278, 162.971
0.264, 1, 1.29047, 63.509, 7.17822, 47.6424, -93.8543, 162.767
0.268, 1, 1.35073, 63.4824, 7.14085, 47.7299, -93.7809, 162.563
0.272, 1, 1.41095, 63.4558, 7.1035, 47.8173, -93.7075, 162.36
0.276, 1, 1.47114, 63.4293, 7.06618, 47.9047, -93.6341, 162.156
0.28, 1, 1.53129, 63.4028, 7.02887, 47.992, -93.5608, 161.953
0.284, 1, 1.59141, 63.3763, 6.99159, 48.0793, -93.4875, 161.749
0.288, 1, 1.65149, 63.3498, 6.95433, 48.1665, -93.4143, 161.546
0.292, 1, 1.71154, 63.3234, 6.91709, 48.2537, -93.3411, 161.343
0.296, 1, 1.77155, 63.2969, 6.87987, 48.3408, -93.268, 161.14
0.3, 1, 1.83152, 63.2705, 6.84268, 48.4279, -93.1949, 160.937
0.304, 1, 1.89146, 63.2441, 6.80551, 48.5149, -93.1218, 160.734
0.308, 1, 1.95136, 63.2177, 6.76836, 48.6019, -93.0488, 160.532
0.312, 1, 2.01123, 63.1913, 6.73123, 48.6888, -92.9759, 160.329
0.316, 1, 2.07106, 63.1649, 6.69413, 48.7756, -92.903, 160.127
0.32, 1, 2.13085, 63.1385, 6.65705, 48.8624, -92.8301, 159.924
0.324, 1, 2.1906, 63.1122, 6.61999, 48.9492, -92.7573, 159.722
0.328, 1, 2.25032, 63.0859, 6.58296, 49.0359, -92.6845, 159.52
0.332, 1, 2.31, 63.0596, 6.54595, 49.1225, -92.6117, 159.318
0.336, 1, 2.36965, 63.0333, 6.50896, 49.2091, -92.5391, 159.117
0.34, 1, 2.42925, 63.007, 6.472, 49.2956, -92.4664, 158.915
0.344, 1, 2.48882, 62.9808, 6.43506, 49.3821, -92.3938, 158.714
0.348, 1, 2.54835, 62.9545, 6.39814, 49.4685, -92.3213, 158.512
0.352, 1, 2.60784, 62.9283, 6.36124, 49.5549, -92.2488, 158.311
0.356, 1, 2.66729, 62.9021, 6.32437, 49.6412, -92.1763, 158.11
0.36, 1, 2.72671, 62.8759, 6.28752, 49.7275, -92.1039, 157.909
0.364, 1, 2.78608, 62.8497, 6.2507, 49.8137, -92.0315, 157.708
0.368, 1, 2.84542, 62.8236, 6.2139, 49.8998, -91.9592, 157.507
0.372, 1, 2.90472, 62.7974, 6.17713, 49.9859, -91.8869, 157.307
0.376, 1, 2.96398, 62.7713, 6.14037, 50.0719, -91.8147, 157.106
0.38, 1, 3.0232, 62.7452, 6.10365, 50.1579, -91.7425, 156.906
0.384, 1, 3.08239, 62.7191, 6.06694, 50.2438, -91.6704, 156.706
0.388, 1, 3.14153, 62.6931, 6.03026, 50.3297, -91.5983, 156.506
0.392, 1, 3.20064, 62.667, 5.99361, 50.4155, -91.5263, 156.306
0.396, 1, 3.2597, 62.641, 5.95698, 50.5012, -91.4543, 156.106
0.4, 1, 3.31873, 62.615, 5.92037, 50.5869, -91.3824, 155.906
0.404, 1, 3.37772, 62.589, 5.88379, 50.6726, -91.3105, 155.707
0.408, 1, 3.43667, 62.563, 5.84723, 50.7581, -91.2386, 155.507
0.412, 1, 3.49557, 62.537, 5.8107, 50.8437, -91.1668, 155.308
0.416, 1, 3.55444, 62.5111, 5.77419, 50.9291, -91.0951, 155.109
0.42, 1, 3.61327, 62.4851, 5.73771, 51.0145, -91.0234, 154.91
0.424, 1, 3.67206, 62.4592, 5.70125, 51.0999, -90.9518, 154.711
0.428, 1, 3.73081, 62.4333, 5.66482, 51.1852, -90.8802, 154.512
0.432, 1, 3.78951, 62.4075, 5.62841, 51.2704, -90.8086, 154.314
0.436, 1, 3.84818, 62.3816, 5.59203, 51.3555, -90.7371, 154.115
0.44, 1, 3.90681, 62.3558, 5.55567, 51.4407, -90.6657, 153.917
0.444, 1, 3.96539, 62.3299, 5.51934, 51.5257, -90.5943, 153.719
0.448, 1, 4.02394, 62.3041, 5.48303, 51.6107, -90.5229, 153.521
0.452, 1, 4.08244, 62.2783, 5.44675, 51.6956, -90.4516, 153.323
0.456, 1, 4.1409, 62.2526, 5.41049, 51.7805, -90.3804, 153.125
0.46, 1, 4.19932, 62.2268, 5.37426, 51.8653, -90.3092, 152.928
0.464, 1, 4.2577, 62.2011, 5.33806, 51.9501, -90.238, 152.73
0.468, 1, 4.31604, 62.1754, 5.30188, 52.0348, -90.1669, 152.533
0.472, 1, 4.37434, 62.1497, 5.26573, 52.1194, -90.0959, 152.336
0.476, 1, 4.43259, 62.124, 5.2296, 52.204, -90.0249, 152.139
0.48, 1, 4.49081, 62.0984, 5.1935, 52.2885, -89.9539, 151.942
0.484, 1, 4.54898, 62.0727, 5.15742, 52.3729, -89.883, 151.745
0.488, 1, 4.60711, 62.0471, 5.12137, 52.4573, -89.8122, 151.548
0.492, 1, 4.6652, 62.0215, 5.08535, 52.5416, -89.7414, 151.352
0.496, 1, 4.72324, 61.9959, 5.04935, 52.6259, -89.6706, 151.155
0.5, 1, 4.78125, 61.9703, 5.01338, 52.7101, -89.6, 150.959
0.504, 1, 4.83921, 61.9448, 4.97744, 52.7943, -89.5293, 150.763
0.508, 1, 4.89713, 61.9193, 4.94152, 52.8783, -89.4587, 150.567
0.512, 1, 4.95501, 61.8937, 4.90563, 52.9623, -89.3882, 150.371
0.516, 1, 5.01284, 61.8683, 4.86976, 53.0463, -89.3177, 150.176
0.52, 1, 5.07063, 61.8428, 4.83392, 53.1302, -89.2473, 149.98
0.524, 1, 5.12838, 61.8173, 4.79811, 53.214, -89.1769, 149.785
0.528, 1, 5.18609, 61.7919, 4.76232, 53.2978, -89.1066, 149.59
0.532, 1, 5.24375, 61.7665, 4.72656, 53.3815, -89.0363, 149.395
0.536, 1, 5.30137, 61.7411, 4.69083, 53.4652, -88.9661, 149.2
0.54, 1, 5.35894, 61.7157, 4.65513, 53.5487, -88.8959, 149.005
0.544, 1, 5.41648, 61.6903, 4.61945, 53.6323, -88.8258, 148.811
0.548, 1, 5.47397, 61.665, 4.5838, 53.7157, -88.7557, 148.616
0.552, 1, 5.53141, 61.6397, 4.54817, 53.7991, -88.6857, 148.422
0.556, 1, 5.58882, 61.6144, 4.51257, 53.8824, -88.6158, 148.228
0.56, 1, 5.64617, 61.5891, 4.477, 53.9657, -88.5459, 148.034
0.564, 1, 5.70349, 61.5639, 4.44146, 54.0489, -88.476, 147.84
0.568, 1, 5.76076, 61.5386, 4.40594, 54.1321, -88.4062, 147.646
0.572, 1, 5.81799, 61.5134, 4.37045, 54.2151, -88.3365, 147.452
0.576, 1, 5.87517, 61.4882, 4.33499, 54.2981, -88.2668, 147.259
0.58, 1, 5.93231, 61.463, 4.29956, 54.3811, -88.1972, 147.066
0.584, 1, 5.9894, 61.4378, 4.26415, 54.464, -88.1276, 146.873
0.588, 1, 6.04645, 61.4127, 4.22877, 54.5468, -88.058, 146.68
0.592, 1, 6.10346, 61.3876, 4.19342, 54.6296, -87.9886, 146.487
0.596, 1, 6.16042, 61.3625, 4.15809, 54.7122, -87.9191, 146.294
0.6, 1, 6.21734, 61.3374, 4.1228, 54.7949, -87.8498, 146.102
0.604, 1, 6.27421, 61.3123, 4.08753, 54.8774, -87.7805, 145.909
0.608, 1, 6.33104, 61.2873, 4.05228, 54.9599, -87.7112, 145.717
0.612, 1, 6.38782, 61.2622, 4.01707, 55.0424, -87.642, 145.525
0.616, 1, 6.44456, 61.2372, 3.98188, 55.1247, -87.5729, 145.333
0.62, 1, 6.50126, 61.2122, 3.94673, 55.207, -87.5038, 145.141
0.624, 1, 6.55791, 61.1873, 3.9116, 55.2893, -87.4347, 144.95
0.628, 1, 6.61451, 61.1623, 3.87649, 55.3714, -87.3658, 144.758
0.632, 1, 6.67107, 61.1374, 3.84142, 55.4535, -87.2968, 144.567
0.636, 1, 6.72758, 61.1125, 3.80637, 55.5356, -87.2279, 144.376
0.64, 1, 6.78405, 61.0876, 3.77136, 55.6176, -87.1591, 144.185
0.644, 1, 6.84047, 61.0627, 3.73637, 55.6995, -87.0904, 143.994
0.648, 1, 6.89685, 61.0379, 3.7014, 55.7813, -87.0217, 143.803
0.652, 1, 6.95318, 61.013, 3.66647, 55.8631, -86.953, 143.613
0.656, 1, 7.00946, 60.9882, 3.63157, 55.9448, -86.8844, 143.422
0.66, 1, 7.0657, 60.9634, 3.59669, 56.0264, -86.8159, 143.232
0.664, 1, 7.1219, 60.9387, 3.56184, 56.108, -86.7474, 143.042
0.668, 1, 7.17805, 60.9139, 3.52702, 56.1895, -86.679, 142.852
0.672, 1, 7.23415, 60.8892, 3.49223, 56.271, -86.6106, 142.662
0.676, 1, 7.29021, 60.8645, 3.45747, 56.3523, -86.5423, 142.473
0.68, 1, 7.34622, 60.8398, 3.42274, 56.4336, -86.474, 142.283
0.684, 1, 7.40218, 60.8151, 3.38803, 56.5149, -86.4058, 142.094
0.688, 1, 7.4581, 60.7905, 3.35335, 56.5961, -86.3377, 141.905
0.692, 1, 7.51397, 60.7659, 3.31871, 56.6772, -86.2696, 141.716
0.696, 1, 7.5698, 60.7413, 3.28409, 56.7582, -86.2016, 141.527
0.7, 1, 7.62557, 60.7167, 3.2495, 56.8392, -86.1336, 141.338
0.704, 1, 7.68131, 60.6921, 3.21493, 56.9201, -86.0657, 141.15
0.708, 1, 7.73699, 60.6676, 3.1804, 57.0009, -85.9978, 140.961
0.712, 1, 7.79263, 60.6431, 3.1459, 57.0817, -85.93, 140.773
0.716, 1, 7.84823, 60.6185, 3.11142, 57.1624, -85.8622, 140.585
0.72, 1, 7.90377, 60.5941, 3.07698, 57.243, -85.7945, 140.397
0.724, 1, 7.95927, 60.5696, 3.04256, 57.3236, -85.7269, 140.21
0.728, 1, 8.01473, 60.5452, 3.00817, 57.4041, -85.6593, 140.022
0.732, 1, 8.07013, 60.5207, 2.97382, 57.4845, -85.5918, 139.835
0.736, 1, 8.12549, 60.4963, 2.93949, 57.5649, -85.5243, 139.647
0.74, 1, 8.1808, 60.472, 2.90519, 57.6452, -85.4569, 139.46
0.744, 1, 8.23607, 60.4476, 2.87091, 57.7254, -85.3896, 139.273
0.748, 1, 8.29129, 60.4233, 2.83667, 57.8055, -85.3223, 139.087
0.752, 1, 8.34646, 60.399, 2.80246, 57.8856, -85.2551, 138.9
0.756, 1, 8.40158, 60.3747, 2.76828, 57.9657, -85.1879, 138.714
0.76, 1, 8.45666, 60.3504, 2.73412, 58.0456, -85.1208, 138.527
0.764, 1, 8.51169, 60.3261, 2.7, 58.1255, -85.0537, 138.341
0.768, 1, 8.56667, 60.3019, 2.6659, 58.2053, -84.9867, 138.155
0.772, 1, 8.6216, 60.2777, 2.63184, 58.285, -84.9198, 137.969
0.776, 1, 8.67649, 60.2535, 2.5978, 58.3647, -84.8529, 137.784
0.78, 1, 8.73133, 60.2293, 2.56379, 58.4443, -84.786, 137.598
0.784, 1, 8.78612, 60.2052, 2.52982, 58.5239, -84.7193, 137.413
0.788, 1, 8.84087, 60.181, 2.49587, 58.6033, -84.6525, 137.228
0.792, 1, 8.89557, 60.1569, 2.46195, 58.6827, -84.5859, 137.043
0.796, 1, 8.95022, 60.1329, 2.42806, 58.7621, -84.5193, 136.858
0.8, 1, 9.00482, 60.1088, 2.3942, 58.8413, -84.4528, 136.673
0.804, 1, 9.05938, 60.0847, 2.36037, 58.9205, -84.3863, 136.489
0.808, 1, 9.11388, 60.0607, 2.32657, 58.9996, -84.3198, 136.304
0.812, 1, 9.16834, 60.0367, 2.2928, 59.0787, -84.2535, 136.12
0.816, 1, 9.22276, 60.0127, 2.25906, 59.1577, -84.1872, 135.936
0.82, 1, 9.27712, 59.9888, 2.22535, 59.2366, -84.1209, 135.752
0.824, 1, 9.33144, 59.9648, 2.19167, 59.3154, -84.0547, 135.568
0.828, 1, 9.38571, 59.9409, 2.15801, 59.3942, -83.9886, 135.385
0.832, 1, 9.43993, 59.917, 2.12439, 59.4729, -83.9225, 135.202
0.836, 1, 9.4941, 59.8931, 2.0908, 59.5516, -83.8565, 135.018
0.84, 1, 9.54822, 59.8693, 2.05724, 59.6301, -83.7906, 134.835
0.844, 1, 9.6023, 59.8455, 2.0237, 59.7086, -83.7246, 134.652
0.848, 1, 9.65633, 59.8216, 1.9902, 59.7871, -83.6588, 134.47
0.852, 1, 9.71031, 59.7979, 1.95672, 59.8654, -83.593, 134.287
0.856, 1, 9.76425, 59.7741, 1.92328, 59.9437, -83.5273, 134.105
0.86, 1, 9.81813, 59.7503, 1.88987, 60.0219, -83.4616, 133.922
0.864, 1, 9.87197, 59.7266, 1.85648, 60.1001, -83.396, 133.74
0.868, 1, 9.92576, 59.7029, 1.82313, 60.1782, -83.3305, 133.558
0.872, 1, 9.9795, 59.6792, 1.7898, 60.2562, -83.265, 133.377
0.876, 1, 10.0332, 59.6555, 1.75651, 60.3341, -83.1996, 133.195
0.88, 1, 10.0868, 59.6319, 1.72324, 60.412, -83.1342, 133.014
0.884, 1, 10.1404, 59.6083, 1.69001, 60.4898, -83.0689, 132.832
0.888, 1, 10.194, 59.5847, 1.6568, 60.5675, -83.0036, 132.651
0.892, 1, 10.2475, 59.5611, 1.62363, 60.6452, -82.9384, 132.47
0.896, 1, 10.3009, 59.5375, 1.59048, 60.7228, -82.8733, 132.289
0.9, 1, 10.3543, 59.514, 1.55736, 60.8003, -82.8082, 132.109
0.904, 1, 10.4077, 59.4905, 1.52428, 60.8777, -82.7432, 131.928
0.908, 1, 10.461, 59.467, 1.49122, 60.9551, -82.6782, 131.748
0.912, 1, 10.5143, 59.4435, 1.4582, 61.0324, -82.6133, 131.568
0.916, 1, 10.5675, 59.4201, 1.4252, 61.1097, -82.5485, 131.388
0.92, 1, 10.6206, 59.3966, 1.39223, 61.1868, -82.4837, 131.208
0.924, 1, 10.6738, 59.3732, 1.3593, 61.2639, -82.419, 131.028
0.928, 1, 10.7268, 59.3498, 1.32639, 61.341, -82.3543, 130.849
0.932, 1, 10.7798, 59.3265, 1.29351, 61.4179, -82.2897, 130.67
0.936, 1, 10.8328, 59.3031, 1.26067, 61.4948, -82.2251, 130.49
0.94, 1, 10.8857, 59.2798, 1.22785, 61.5716, -82.1607, 130.311
0.944, 1, 10.9386, 59.2565, 1.19506, 61.6484, -82.0962, 130.133
0.948, 1, 10.9914, 59.2332, 1.16231, 61.7251, -82.0318, 129.954
0.952, 1, 11.0442, 59.21, 1.12958, 61.8017, -81.9675, 129.775
0.956, 1, 11.0969, 59.1867, 1.09689, 61.8782, -81.9033, 129.597
0.96, 1, 11.1496, 59.1635, 1.06422, 61.9547, -81.8391, 129.419
0.964, 1, 11.2023, 59.1403, 1.03158, 62.0311, -81.7749, 129.241
0.968, 1, 11.2548, 59.1171, 0.998975, 62.1074, -81.7109, 129.063
0.972, 1, 11.3074, 59.094, 0.966399, 62.1837, -81.6469, 128.885
0.976, 1, 11.3599, 59.0709, 0.933852, 62.2599, -81.5829, 128.708
0.98, 1, 11.4123, 59.0477, 0.901336, 62.336, -81.519, 128.531
0.984, 1, 11.4647, 59.0246, 0.868849, 62.412, -81.4551, 128.353
0.988, 1, 11.517, 59.0016, 0.836392, 62.488, -81.3914, 128.176
0.992, 1, 11.5693, 58.9785, 0.803966, 62.5639, -81.3276, 127.999
0.996, 1, 11.6216, 58.9555, 0.771569, 62.6397, -81.264, 127.823
1, 1, 11.6738, 58.9325, 0.739203, 62.7155, -81.2004, 127.646
1.004, 1, 11.7259, 58.9095, 0.706866, 62.7912, -81.1368, 127.47
1.008, 1, 11.778, 58.8866, 0.674559, 62.8668, -81.0733, 127.294
1.012, 1, 11.8301, 58.8636, 0.642283, 62.9424, -81.0099, 127.118
1.016, 1, 11.8821, 58.8407, 0.610036, 63.0179, -80.9465, 126.942
1.02, 1, 11.934, 58.8178, 0.577819, 63.0933, -80.8832, 126.766
1.024, 1, 11.9859, 58.7949, 0.545633, 63.1686, -80.82, 126.59
1.027, 1, 12.0378, 58.7721, 0.513476, 63.2439, -80.7568, 126.415
1.032, 1, 12.0896, 58.7492, 0.481349, 63.3191, -80.6936, 126.24
1.036, 1, 12.1414, 58.7264, 0.449252, 63.3942, -80.6306, 126.065
1.04, 1, 12.1931, 58.7036, 0.417186, 63.4693, -80.5675, 125.89
1.044, 1, 12.2448, 58.6809, 0.385149, 63.5443, -80.5046, 125.715
1.048, 1, 12.2964, 58.6581, 0.353142, 63.6192, -80.4417, 125.54
1.052, 1, 12.3479, 58.6354, 0.321165, 63.6941, -80.3788, 125.366
1.055, 1, 12.3995, 58.6127, 0.289218, 63.7689, -80.3161, 125.192
1.06, 1, 12.4509, 58.59, 0.257301, 63.8436, -80.2533, 125.018
1.064, 1, 12.5024, 58.5673, 0.225414, 63.9182, -80.1907, 124.844
1.068, 1, 12.5537, 58.5447, 0.193557, 63.9928, -80.1281, 124.67
1.072, 1, 12.6051, 58.5221, 0.161729, 64.0673, -80.0655, 124.496
1.076, 1, 12.6564, 58.4995, 0.129932, 64.1417, -80.003, 124.323
1.08, 1, 12.7076, 58.4769, 0.0981644, 64.2161, -79.9406, 124.15
1.084, 1, 12.7588, 58.4543, 0.0664267, 64.2904, -79.8782, 123.977
1.088, 1, 12.8099, 58.4318, 0.0347189, 64.3646, -79.8159, 123.804
1.091, 1, 12.861, 58.4093, 0.00304095, 64.4388, -79.7537, 123.631
1.096, 1, 12.912, 58.3868, -0.0286072, 64.5129, -79.6915, 123.458
1.1, 1, 12.963, 58.3643, -0.0602256, 64.5869, -79.6293, 123.286
1.104, 1, 13.014, 58.3418, -0.0918142, 64.6608, -79.5672, 123.113
1.108, 1, 13.0649, 58.3194, -0.123373, 64.7347, -79.5052, 122.941
1.112, 1, 13.1157, 58.297, -0.154902, 64.8085, -79.4433, 122.769
1.116, 1, 13.1665, 58.2746, -0.186402, 64.8823, -79.3814, 122.598
1.119, 1, 13.2173, 58.2522, -0.217871, 64.9559, -79.3195, 122.426
1.124, 1, 13.268, 58.2299, -0.249311, 65.0295, -79.2577, 122.254
1.128, 1, 13.3186, 58.2076, -0.280722, 65.1031, -79.196, 122.083
1.132, 1, 13.3693, 58.1853, -0.312103, 65.1765, -79.1343, 121.912
1.136, 1, 13.4198, 58.163, -0.343454, 65.2499, -79.0727, 121.741
1.14, 1, 13.4703, 58.1407, -0.374775, 65.3232, -79.0112, 121.57
1.144, 1, 13.5208, 58.1185, -0.406068, 65.3965, -78.9497, 121.399
1.147, 1, 13.5712, 58.0963, -0.43733, 65.4697, -78.8882, 121.229
1.152, 1, 13.6216, 58.0741, -0.468563, 65.5428, -78.8269, 121.059
1.156, 1, 13.6719, 58.0519, -0.499767, 65.6158, -78.7655, 120.888
1.16, 1, 13.7222, 58.0297, -0.530941, 65.6888, -78.7043, 120.718
1.164, 1, 13.7724, 58.0076, -0.562086, 65.7617, -78.6431, 120.548
1.168, 1, 13.8226, 57.9855, -0.593201, 65.8345, -78.5819, 120.379
1.172, 1, 13.8727, 57.9634, -0.624287, 65.9073, -78.5208, 120.209
1.175, 1, 13.9228, 57.9413, -0.655343, 65.98, -78.4598, 120.04
1.18, 1, 13.9729, 57.9193, -0.68637, 66.0526, -78.3988, 119.871
1.184, 1, 14.0229, 57.8972, -0.717368, 66.1252, -78.3379, 119.701
1.188, 1, 14.0728, 57.8752, -0.748337, 66.1977, -78.277, 119.533
1.192, 1, 14.1227, 57.8532, -0.779276, 66.2701, -78.2162, 119.364
1.196, 1, 14.1726, 57.8312, -0.810186, 66.3425, -78.1555, 119.195
1.2, 1, 14.2224, 57.8093, -0.841067, 66.4148, -78.0948, 119.027
1.204, 1, 14.2721, 57.7874, -0.871919, 66.487, -78.0342, 118.858
1.208, 1, 14.3218, 57.7655, -0.902741, 66.5591, -77.9736, 118.69
1.212, 1, 14.3715, 57.7436, -0.933534, 66.6312, -77.9131, 118.522
1.216, 1, 14.4211, 57.7217, -0.964298, 66.7032, -77.8526, 118.355
1.22, 1, 14.4707, 57.6999, -0.995034, 66.7752, -77.7922, 118.187
1.224, 1, 14.5202, 57.678, -1.02574, 66.8471, -77.7319, 118.019
1.228, 1, 14.5697, 57.6562, -1.05642, 66.9189, -77.6716, 117.852
1.232, 1, 14.6191, 57.6344, -1.08706, 66.9906, -77.6114, 117.685
1.236, 1, 14.6685, 57.6127, -1.11768, 67.0623, -77.5512, 117.518
1.24, 1, 14.7178, 57.5909, -1.14827, 67.1339, -77.4911, 117.351
1.244, 1, 14.7671, 57.5692, -1.17883, 67.2054, -77.431, 117.184
1.248, 1, 14.8164, 57.5475, -1.20937, 67.2769, -77.371, 117.018
1.252, 1, 14.8656, 57.5258, -1.23987, 67.3483, -77.3111, 116.851
1.256, 1, 14.9147, 57.5042, -1.27034, 67.4197, -77.2512, 116.685
1.26, 1, 14.9638, 57.4825, -1.30079, 67.4909, -77.1914, 116.519
1.264, 1, 15.0129, 57.4609, -1.33121, 67.5621, -77.1316, 116.353
1.267, 1, 15.0619, 57.4393, -1.36159, 67.6333, -77.0719, 116.188
1.272, 1, 15.1108, 57.4177, -1.39195, 67.7043, -77.0122, 116.022
1.276, 1, 15.1598, 57.3962, -1.42228, 67.7753, -76.9526, 115.857
1.28, 1, 15.2086, 57.3746, -1.45259, 67.8463, -76.8931, 115.691
1.284, 1, 15.2575, 57.3531, -1.48286, 67.9171, -76.8336, 115.526
1.288, 1, 15.3062, 57.3316, -1.5131, 67.9879, -76.7741, 115.361
1.292, 1, 15.355, 57.3102, -1.54332, 68.0587, -76.7147, 115.196
1.295, 1, 15.4037, 57.2887, -1.57351, 68.1293, -76.6554, 115.032
1.3, 1, 15.4523, 57.2673, -1.60367, 68.1999, -76.5961, 114.867
1.304, 1, 15.5009, 57.2458, -1.6338, 68.2705, -76.5369, 114.703
1.308, 1, 15.5494, 57.2245, -1.6639, 68.3409, -76.4778, 114.539
1.312, 1, 15.598, 57.2031, -1.69397, 68.4113, -76.4187, 114.375
1.316, 1, 15.6464, 57.1817, -1.72402, 68.4817, -76.3596, 114.211
1.32, 1, 15.6948, 57.1604, -1.75404, 68.5519, -76.3007, 114.047
1.324, 1, 15.7432, 57.1391, -1.78402, 68.6221, -76.2417, 113.883
1.328, 1, 15.7915, 57.1178, -1.81398, 68.6923, -76.1828, 113.72
1.332, 1, 15.8398, 57.0965, -1.84391, 68.7623, -76.124, 113.557
1.336, 1, 15.888, 57.0753, -1.87382, 68.8323, -76.0653, 113.394
1.34, 1, 15.9362, 57.054, -1.90369, 68.9023, -76.0065, 113.231
1.344, 1, 15.9843, 57.0328, -1.93354, 68.9721, -75.9479, 113.068
1.348, 1, 16.0324, 57.0116, -1.96336, 69.0419, -75.8893, 112.905
1.352, 1, 16.0805, 56.9904, -1.99315, 69.1117, -75.8307, 112.743
1.356, 1, 16.1285, 56.9693, -2.02291, 69.1813, -75.7723, 112.58
1.36, 1, 16.1764, 56.9481, -2.05264, 69.2509, -75.7138, 112.418
1.364, 1, 16.2243, 56.927, -2.08235, 69.3205, -75.6554, 112.256
1.368, 1, 16.2722, 56.9059, -2.11202, 69.39, -75.5971, 112.094
1.372, 1, 16.32, 56.8849, -2.14167, 69.4594, -75.5389, 111.933
1.376, 1, 16.3678, 56.8638, -2.1713, 69.5287, -75.4806, 111.771
1.38, 1, 16.4155, 56.8428, -2.20089, 69.598, -75.4225, 111.61
1.384, 1, 16.4632, 56.8218, -2.23045, 69.6672, -75.3644, 111.448
1.388, 1, 16.5109, 56.8008, -2.25999, 69.7363, -75.3063, 111.287
1.392, 1, 16.5584, 56.7798, -2.2895, 69.8054, -75.2483, 111.126
1.396, 1, 16.606, 56.7588, -2.31898, 69.8744, -75.1904, 110.966
1.4, 1, 16.6535, 56.7379, -2.34844, 69.9434, -75.1325, 110.805
1.404, 1, 16.701, 56.717, -2.37786, 70.0123, -75.0747, 110.644
1.408, 1, 16.7484, 56.6961, -2.40726, 70.0811, -75.0169, 110.484
1.412, 1, 16.7958, 56.6752, -2.43663, 70.1498, -74.9592, 110.324
1.416, 1, 16.8431, 56.6543, -2.46598, 70.2185, -74.9015, 110.164
1.42, 1, 16.8904, 56.6335, -2.49529, 70.2872, -74.8439, 110.004
1.424, 1, 16.9376, 56.6127, -2.52458, 70.3557, -74.7864, 109.844
1.428, 1, 16.9848, 56.5919, -2.55384, 70.4242, -74.7289, 109.684
1.432, 1, 17.032, 56.5711, -2.58308, 70.4927, -74.6714, 109.525
1.436, 1, 17.0791, 56.5504, -2.61228, 70.561, -74.614, 109.366
1.44, 1, 17.1261, 56.5296, -2.64146, 70.6293, -74.5567, 109.207
1.444, 1, 17.1731, 56.5089, -2.67061, 70.6976, -74.4994, 109.048
1.448, 1, 17.2201, 56.4882, -2.69974, 70.7658, -74.4421, 108.889
1.452, 1, 17.267, 56.4675, -2.72883, 70.8339, -74.385, 108.73
1.456, 1, 17.3139, 56.4468, -2.7579, 70.9019, -74.3278, 108.571
1.46, 1, 17.3608, 56.4262, -2.78694, 70.9699, -74.2708, 108.413
1.464, 1, 17.4076, 56.4056, -2.81596, 71.0378, -74.2137, 108.255
1.468, 1, 17.4543, 56.385, -2.84495, 71.1057, -74.1568, 108.097
1.472, 1, 17.501, 56.3644, -2.87391, 71.1735, -74.0998, 107.939
1.476, 1, 17.5477, 56.3438, -2.90285, 71.2412, -74.043, 107.781
1.48, 1, 17.5943, 56.3233, -2.93175, 71.3089, -73.9862, 107.623
1.484, 1, 17.6409, 56.3027, -2.96063, 71.3765, -73.9294, 107.466
1.488, 1, 17.6875, 56.2822, -2.98949, 71.444, -73.8727, 107.308
1.492, 1, 17.734, 56.2617, -3.01831, 71.5115, -73.8161, 107.151
1.496, 1, 17.7804, 56.2413, -3.04711, 71.5789, -73.7595, 106.994
1.5, 1, 17.8268, 56.2208, -3.07589, 71.6463, -73.7029, 106.837
1.504, 1, 17.8732, 56.2004, -3.10464, 71.7136, -73.6464, 106.68
1.508, 1, 17.9195, 56.18, -3.13336, 71.7808, -73.59, 106.524
1.512, 1, 17.9658, 56.1596, -3.16205, 71.848, -73.5336, 106.367
1.516, 1, 18.012, 56.1392, -3.19072, 71.9151, -73.4772, 106.211
1.52, 1, 18.0582, 56.1188, -3.21936, 71.9822, -73.421, 106.054
1.524, 1, 18.1044, 56.0985, -3.24797, 72.0491, -73.3647, 105.898
1.528, 1, 18.1505, 56.0782, -3.27656, 72.1161, -73.3085, 105.742
1.532, 1, 18.1965, 56.0579, -3.30512, 72.1829, -73.2524, 105.587
1.536, 1, 18.2426, 56.0376, -3.33366, 72.2497, -73.1963, 105.431
1.54, 1, 18.2886, 56.0173, -3.36216, 72.3165, -73.1403, 105.275
1.544, 1, 18.3345, 55.9971, -3.39065, 72.3831, -73.0843, 105.12
1.548, 1, 18.3804, 55.9769, -3.4191, 72.4497, -73.0284, 104.965
1.552, 1, 18.4262, 55.9566, -3.44753, 72.5163, -72.9725, 104.81
1.556, 1, 18.4721, 55.9365, -3.47594, 72.5828, -72.9167, 104.655
1.56, 1, 18.5178, 55.9163, -3.50431, 72.6492, -72.861, 104.5
1.564, 1, 18.5636, 55.8961, -3.53267, 72.7156, -72.8052, 104.345
1.568, 1, 18.6092, 55.876, -3.56099, 72.7819, -72.7496, 104.191
1.572, 1, 18.6549, 55.8559, -3.58929, 72.8481, -72.694, 104.037
1.576, 1, 18.7005, 55.8358, -3.61757, 72.9143, -72.6384, 103.882
1.58, 1, 18.7461, 55.8157, -3.64582, 72.9805, -72.5829, 103.728
1.584, 1, 18.7916, 55.7957, -3.67404, 73.0465, -72.5274, 103.574
1.588, 1, 18.8371, 55.7756, -3.70223, 73.1125, -72.472, 103.421
1.592, 1, 18.8825, 55.7556, -3.7304, 73.1785, -72.4166, 103.267
1.596, 1, 18.9279, 55.7356, -3.75855, 73.2444, -72.3613, 103.113
1.6, 1, 18.9732, 55.7156, -3.78667, 73.3102, -72.3061, 102.96
1.604, 1, 19.0186, 55.6956, -3.81476, 73.376, -72.2509, 102.807
1.608, 1, 19.0638, 55.6757, -3.84283, 73.4417, -72.1957, 102.654
1.612, 1, 19.1091, 55.6557, -3.87087, 73.5073, -72.1406, 102.501
1.616, 1, 19.1542, 55.6358, -3.89889, 73.5729, -72.0855, 102.348
1.62, 1, 19.1994, 55.6159, -3.92688, 73.6384, -72.0305, 102.195
1.624, 1, 19.2445, 55.5961, -3.95485, 73.7039, -71.9756, 102.043
1.628, 1, 19.2896, 55.5762, -3.98279, 73.7693, -71.9206, 101.89
1.632, 1, 19.3346, 55.5563, -4.01071, 73.8346, -71.8658, 101.738
1.636, 1, 19.3796, 55.5365, -4.0386, 73.8999, -71.811, 101.586
1.64, 1, 19.4245, 55.5167, -4.06646, 73.9652, -71.7562, 101.434
1.644, 1, 19.4694, 55.4969, -4.0943, 74.0303, -71.7015, 101.282
1.648, 1, 19.5143, 55.4772, -4.12211, 74.0955, -71.6468, 101.13
1.652, 1, 19.5591, 55.4574, -4.1499, 74.1605, -71.5922, 100.979
1.656, 1, 19.6039, 55.4377, -4.17767, 74.2255, -71.5377, 100.827
1.66, 1, 19.6486, 55.418, -4.20541, 74.2904, -71.4831, 100.676
1.664, 1, 19.6933, 55.3983, -4.23312, 74.3553, -71.4287, 100.525
1.668, 1, 19.738, 55.3786, -4.26081, 74.4201, -71.3743, 100.374
1.672, 1, 19.7826, 55.3589, -4.28848, 74.4849, -71.3199, 100.223
1.676, 1, 19.8272, 55.3393, -4.31612, 74.5496, -71.2656, 100.072
1.68, 1, 19.8717, 55.3196, -4.34373, 74.6142, -71.2113, 99.9216
1.684, 1, 19.9162, 55.3, -4.37132, 74.6788, -71.1571, 99.7711
1.688, 1, 19.9607, 55.2804, -4.39889, 74.7433, -71.1029, 99.6207
1.692, 1, 20.0051, 55.2609, -4.42643, 74.8078, -71.0488, 99.4705
1.696, 1, 20.0495, 55.2413, -4.45394, 74.8722, -70.9947, 99.3204
1.7, 1, 20.0938, 55.2218, -4.48144, 74.9366, -70.9407, 99.1705
1.704, 1, 20.1381, 55.2022, -4.5089, 75.0009, -70.8867, 99.0207
1.708, 1, 20.1824, 55.1827, -4.53634, 75.0651, -70.8328, 98.871
1.712, 1, 20.2266, 55.1632, -4.56376, 75.1293, -70.7789, 98.7214
1.716, 1, 20.2708, 55.1438, -4.59115, 75.1934, -70.7251, 98.572
1.72, 1, 20.3149, 55.1243, -4.61852, 75.2575, -70.6713, 98.4227
1.724, 1, 20.359, 55.1049, -4.64587, 75.3215, -70.6176, 98.2736
1.728, 1, 20.4031, 55.0855, -4.67318, 75.3855, -70.5639, 98.1246
1.732, 1, 20.4471, 55.0661, -4.70048, 75.4494, -70.5102, 97.9757
1.736, 1, 20.4911, 55.0467, -4.72775, 75.5132, -70.4566, 97.827
1.74, 1, 20.5351, 55.0273, -4.755, 75.577, -70.4031, 97.6783
1.744, 1, 20.579, 55.008, -4.78222, 75.6407, -70.3496, 97.5298
1.748, 1, 20.6229, 54.9886, -4.80942, 75.7044, -70.2961, 97.3815
1.752, 1, 20.6667, 54.9693, -4.83659, 75.768, -70.2427, 97.2333
1.756, 1, 20.7105, 54.95, -4.86374, 75.8315, -70.1894, 97.0852
1.76, 1, 20.7542, 54.9307, -4.89087, 75.895, -70.1361, 96.9372
1.764, 1, 20.7979, 54.9115, -4.91797, 75.9585, -70.0828, 96.7894
1.768, 1, 20.8416, 54.8922, -4.94505, 76.0219, -70.0296, 96.6417
1.772, 1, 20.8853, 54.873, -4.9721, 76.0852, -69.9764, 96.4941
1.776, 1, 20.9289, 54.8538, -4.99914, 76.1485, -69.9233, 96.3467
1.78, 1, 20.9724, 54.8346, -5.02614, 76.2117, -69.8702, 96.1994
1.784, 1, 21.0159, 54.8154, -5.05313, 76.2749, -69.8172, 96.0522
1.788, 1, 21.0594, 54.7962, -5.08009, 76.338, -69.7642, 95.9051
1.792, 1, 21.1029, 54.7771, -5.10702, 76.401, -69.7113, 95.7582
1.796, 1, 21.1463, 54.758, -5.13394, 76.464, -69.6584, 95.6114
1.8, 1, 21.1897, 54.7388, -5.16082, 76.527, -69.6056, 95.4647
1.804, 1, 21.233, 54.7198, -5.18769, 76.5899, -69.5527, 95.3182
1.808, 1, 21.2763, 54.7007, -5.21453, 76.6527, -69.5, 95.1718
1.812, 1, 21.3195, 54.6816, -5.24135, 76.7155, -69.4473, 95.0255
1.816, 1, 21.3628, 54.6626, -5.26815, 76.7782, -69.3946, 94.8794
1.82, 1, 21.4059, 54.6435, -5.29492, 76.8409, -69.342, 94.7333
1.824, 1, 21.4491, 54.6245, -5.32167, 76.9035, -69.2895, 94.5874
1.828, 1, 21.4922, 54.6055, -5.3484, 76.9661, -69.2369, 94.4416
1.832, 1, 21.5353, 54.5865, -5.3751, 77.0286, -69.1844, 94.296
1.836, 1, 21.5783, 54.5676, -5.40178, 77.0911, -69.132, 94.1505
1.84, 1, 21.6213, 54.5486, -5.42844, 77.1535, -69.0796, 94.0051
1.844, 1, 21.6643, 54.5297, -5.45507, 77.2158, -69.0273, 93.8598
1.848, 1, 21.7072, 54.5108, -5.48168, 77.2781, -68.975, 93.7146
1.852, 1, 21.7501, 54.4919, -5.50827, 77.3403, -68.9227, 93.5696
1.856, 1, 21.7929, 54.473, -5.53484, 77.4025, -68.8705, 93.4247
1.86, 1, 21.8357, 54.4541, -5.56138, 77.4647, -68.8184, 93.2799
1.864, 1, 21.8785, 54.4353, -5.5879, 77.5267, -68.7662, 93.1353
1.868, 1, 21.9212, 54.4164, -5.6144, 77.5888, -68.7142, 92.9907
1.872, 1, 21.964, 54.3976, -5.64087, 77.6508, -68.6621, 92.8463
1.876, 1, 22.0066, 54.3788, -5.66732, 77.7127, -68.6102, 92.702
1.88, 1, 22.0492, 54.36, -5.69375, 77.7746, -68.5582, 92.5579
1.884, 1, 22.0918, 54.3413, -5.72016, 77.8364, -68.5063, 92.4138
1.888, 1, 22.1344, 54.3225, -5.74655, 77.8981, -68.4545, 92.2699
1.892, 1, 22.1769, 54.3038, -5.77291, 77.9598, -68.4027, 92.1261
1.896, 1, 22.2194, 54.2851, -5.79925, 78.0215, -68.3509, 91.9825
1.9, 1, 22.2619, 54.2663, -5.82556, 78.0831, -68.2992, 91.8389
1.904, 1, 22.3043, 54.2477, -5.85186, 78.1447, -68.2475, 91.6955
1.908, 1, 22.3466, 54.229, -5.87813, 78.2062, -68.1959, 91.5522
1.912, 1, 22.389, 54.2103, -5.90438, 78.2676, -68.1443, 91.409
1.916, 1, 22.4313, 54.1917, -5.93061, 78.329, -68.0927, 91.2659
1.92, 1, 22.4736, 54.1731, -5.95682, 78.3904, -68.0412, 91.123
1.924, 1, 22.5158, 54.1544, -5.983, 78.4517, -67.9898, 90.9802
1.928, 1, 22.558, 54.1358, -6.00917, 78.5129, -67.9384, 90.8375
1.932, 1, 22.6002, 54.1173, -6.03531, 78.5741, -67.887, 90.6949
1.936, 1, 22.6423, 54.0987, -6.06142, 78.6352, -67.8357, 90.5524
1.94, 1, 22.6844, 54.0801, -6.08752, 78.6963, -67.7844, 90.4101
1.944, 1, 22.7264, 54.0616, -6.1136, 78.7574, -67.7331, 90.2679
1.948, 1, 22.7685, 54.0431, -6.13965, 78.8184, -67.6819, 90.1257
1.952, 1, 22.8104, 54.0246, -6.16568, 78.8793, -67.6308, 89.9838
1.956, 1, 22.8524, 54.0061, -6.19169, 78.9402, -67.5797, 89.8419
1.96, 1, 22.8943, 53.9876, -6.21768, 79.001, -67.5286, 89.7001
1.964, 1, 22.9362, 53.9692, -6.24364, 79.0618, -67.4776, 89.5585
1.968, 1, 22.978, 53.9507, -6.26959, 79.1225, -67.4266, 89.417
1.972, 1, 23.0199, 53.9323, -6.29551, 79.1832, -67.3756, 89.2756
1.976, 1, 23.0616, 53.9139, -6.32141, 79.2439, -67.3247, 89.1343
1.98, 1, 23.1034, 53.8955, -6.34729, 79.3044, -67.2739, 88.9932
1.984, 1, 23.1451, 53.8771, -6.37315, 79.365, -67.223, 88.8521
1.988, 1, 23.1868, 53.8588, -6.39899, 79.4255, -67.1723, 88.7112
1.992, 1, 23.2284, 53.8404, -6.4248, 79.4859, -67.1215, 88.5704
1.996, 1, 23.27, 53.8221, -6.4506, 79.5463, -67.0708, 88.4297
1.999, 1, 23.3116, 53.8038, -6.47637, 79.6066, -67.0202, 88.2891
2.004, 1, 23.3531, 53.7854, -6.50212, 79.6669, -66.9696, 88.1486
2.008, 1, 23.3946, 53.7672, -6.52785, 79.7271, -66.919, 88.0083
2.012, 1, 23.4361, 53.7489, -6.55356, 79.7873, -66.8685, 87.868
2.015, 1, 23.4775, 53.7306, -6.57925, 79.8475, -66.818, 87.7279
2.019, 1, 23.5189, 53.7124, -6.60492, 79.9075, -66.7676, 87.5879
2.024, 1, 23.5603, 53.6941, -6.63057, 79.9676, -66.7172, 87.448
2.028, 1, 23.6016, 53.6759, -6.65619, 80.0276, -66.6668, 87.3083
2.031, 1, 23.6429, 53.6577, -6.6818, 80.0875, -66.6165, 87.1686
2.036, 1, 23.6842, 53.6395, -6.70738, 80.1474, -66.5662, 87.0291
2.04, 1, 23.7254, 53.6214, -6.73294, 80.2072, -66.516, 86.8896
2.044, 1, 23.7666, 53.6032, -6.75848, 80.267, -66.4658, 86.7503
2.048, 1, 23.8078, 53.5851, -6.784, 80.3268, -66.4156, 86.6111
2.051, 1, 23.8489, 53.567, -6.8095, 80.3865, -66.3655, 86.472
2.055, 1, 23.89, 53.5488, -6.83498, 80.4461, -66.3154, 86.333
2.06, 1, 23.9311, 53.5308, -6.86044, 80.5057, -66.2654, 86.1942
2.064, 1, 23.9721, 53.5127, -6.88588, 80.5653, -66.2154, 86.0554
2.068, 1, 24.0131, 53.4946, -6.9113, 80.6248, -66.1655, 85.9168
2.071, 1, 24.0541, 53.4765, -6.9367, 80.6842, -66.1155, 85.7782
2.076, 1, 24.095, 53.4585, -6.96207, 80.7436, -66.0657, 85.6398
2.08, 1, 24.1359, 53.4405, -6.98743, 80.803, -66.0158, 85.5015
2.084, 1, 24.1768, 53.4225, -7.01276, 80.8623, -65.966, 85.3633
2.087, 1, 24.2176, 53.4045, -7.03808, 80.9215, -65.9163, 85.2252
2.092, 1, 24.2584, 53.3865, -7.06337, 80.9808, -65.8666, 85.0873
2.096, 1, 24.2992, 53.3685, -7.08865, 81.0399, -65.8169, 84.9494
2.1, 1, 24.3399, 53.3506, -7.1139, 81.099, -65.7673, 84.8117
2.104, 1, 24.3806, 53.3326, -7.13914, 81.1581, -65.7177, 84.674
2.107, 1, 24.4213, 53.3147, -7.16435, 81.2171, -65.6681, 84.5365
2.111, 1, 24.4619, 53.2968, -7.18955, 81.2761, -65.6186, 84.3991
2.116, 1, 24.5025, 53.2789, -7.21472, 81.3351, -65.5692, 84.2617
2.12, 1, 24.5431, 53.261, -7.23988, 81.3939, -65.5197, 84.1245
2.124, 1, 24.5836, 53.2432, -7.26501, 81.4528, -65.4703, 83.9874
2.127, 1, 24.6241, 53.2253, -7.29012, 81.5116, -65.421, 83.8505
2.132, 1, 24.6646, 53.2075, -7.31522, 81.5703, -65.3717, 83.7136
2.136, 1, 24.705, 53.1897, -7.34029, 81.629, -65.3224, 83.5768
2.14, 1, 24.7455, 53.1719, -7.36535, 81.6877, -65.2731, 83.4401
2.143, 1, 24.7858, 53.1541, -7.39038, 81.7463, -65.2239, 83.3036
2.148, 1, 24.8262, 53.1363, -7.4154, 81.8048, -65.1748, 83.1671
2.152, 1, 24.8665, 53.1185, -7.44039, 81.8633, -65.1257, 83.0308
2.156, 1, 24.9068, 53.1008, -7.46537, 81.9218, -65.0766, 82.8946
2.16, 1, 24.9471, 53.083, -7.49033, 81.9802, -65.0275, 82.7584
2.163, 1, 24.9873, 53.0653, -7.51526, 82.0386, -64.9785, 82.6224
2.168, 1, 25.0275, 53.0476, -7.54018, 82.0969, -64.9296, 82.4865
2.172, 1, 25.0676, 53.0299, -7.56508, 82.1552, -64.8806, 82.3507
2.176, 1, 25.1078, 53.0122, -7.58996, 82.2135, -64.8317, 82.215
2.179, 1, 25.1479, 52.9945, -7.61482, 82.2717, -64.7829, 82.0794
2.184, 1, 25.1879, 52.9769, -7.63966, 82.3298, -64.734, 81.9439
2.188, 1, 25.228, 52.9592, -7.66448, 82.3879, -64.6853, 81.8085
2.192, 1, 25.268, 52.9416, -7.68928, 82.446, -64.6365, 81.6732
2.196, 1, 25.3079, 52.924, -7.71407, 82.504, -64.5878, 81.5381
2.199, 1, 25.3479, 52.9064, -7.73883, 82.562, -64.5392, 81.403
2.204, 1, 25.3878, 52.8888, -7.76357, 82.6199, -64.4905, 81.268
2.208, 1, 25.4277, 52.8712, -7.7883, 82.6778, -64.4419, 81.1331
2.212, 1, 25.4675, 52.8537, -7.81301, 82.7356, -64.3934, 80.9984
2.216, 1, 25.5073, 52.8361, -7.83769, 82.7934, -64.3449, 80.8637
2.219, 1, 25.5471, 52.8186, -7.86236, 82.8511, -64.2964, 80.7292
2.224, 1, 25.5869, 52.801, -7.88701, 82.9089, -64.2479, 80.5947
2.228, 1, 25.6266, 52.7835, -7.91164, 82.9665, -64.1995, 80.4604
2.232, 1, 25.6663, 52.766, -7.93625, 83.0241, -64.1512, 80.3261
2.235, 1, 25.706, 52.7486, -7.96085, 83.0817, -64.1028, 80.192
2.24, 1, 25.7456, 52.7311, -7.98542, 83.1392, -64.0545, 80.0579
2.244, 1, 25.7852, 52.7136, -8.00998, 83.1967, -64.0063, 79.924
2.248, 1, 25.8248, 52.6962, -8.03452, 83.2542, -63.9581, 79.7901
2.252, 1, 25.8644, 52.6788, -8.05904, 83.3115, -63.9099, 79.6564
2.255, 1, 25.9039, 52.6614, -8.08354, 83.3689, -63.8617, 79.5228
2.259, 1, 25.9434, 52.644, -8.10802, 83.4262, -63.8136, 79.3892
2.264, 1, 25.9828, 52.6266, -8.13248, 83.4835, -63.7655, 79.2558
2.268, 1, 26.0223, 52.6092, -8.15693, 83.5407, -63.7175, 79.1225
2.272, 1, 26.0617, 52.5918, -8.18135, 83.5979, -63.6695, 78.9892
2.275, 1, 26.101, 52.5745, -8.20576, 83.655, -63.6215, 78.8561
2.28, 1, 26.1404, 52.5571, -8.23015, 83.7121, -63.5736, 78.723
2.284, 1, 26.1797, 52.5398, -8.25452, 83.7692, -63.5257, 78.5901
2.288, 1, 26.219, 52.5225, -8.27888, 83.8262, -63.4778, 78.4573
2.291, 1, 26.2582, 52.5052, -8.30321, 83.8832, -63.43, 78.3245
2.296, 1, 26.2974, 52.4879, -8.32753, 83.9401, -63.3822, 78.1919
2.3, 1, 26.3366, 52.4707, -8.35183, 83.997, -63.3345, 78.0594
2.304, 1, 26.3758, 52.4534, -8.37611, 84.0538, -63.2867, 77.9269
2.308, 1, 26.4149, 52.4361, -8.40037, 84.1106, -63.2391, 77.7946
2.311, 1, 26.454, 52.4189, -8.42462, 84.1674, -63.1914, 77.6623
2.316, 1, 26.4931, 52.4017, -8.44884, 84.2241, -63.1438, 77.5302
2.32, 1, 26.5322, 52.3845, -8.47305, 84.2808, -63.0962, 77.3981
2.324, 1, 26.5712, 52.3673, -8.49724, 84.3374, -63.0487, 77.2662
2.328, 1, 26.6102, 52.3501, -8.52142, 84.394, -63.0012, 77.1343
2.331, 1, 26.6491, 52.3329, -8.54557, 84.4505, -62.9537, 77.0026
2.336, 1, 26.6881, 52.3158, -8.56971, 84.507, -62.9063, 76.8709
2.34, 1, 26.727, 52.2986, -8.59383, 84.5635, -62.8589, 76.7393
2.344, 1, 26.7658, 52.2815, -8.61793, 84.6199, -62.8115, 76.6079
2.347, 1, 26.8047, 52.2644, -8.64202, 84.6763, -62.7642, 76.4765
2.352, 1, 26.8435, 52.2473, -8.66609, 84.7326, -62.7169, 76.3452
2.356, 1, 26.8823, 52.2302, -8.69013, 84.7889, -62.6696, 76.214
2.36, 1, 26.9211, 52.2131, -8.71417, 84.8452, -62.6224, 76.083
2.364, 1, 26.9598, 52.196, -8.73818, 84.9014, -62.5752, 75.952
2.367, 1, 26.9985, 52.179, -8.76218, 84.9576, -62.528, 75.8211
2.372, 1, 27.0372, 52.1619, -8.78616, 85.0137, -62.4809, 75.6903
2.376, 1, 27.0758, 52.1449, -8.81012, 85.0698, -62.4338, 75.5596
2.38, 1, 27.1145, 52.1279, -8.83406, 85.1259, -62.3867, 75.429
2.383, 1, 27.1531, 52.1109, -8.85799, 85.1819, -62.3397, 75.2985
2.388, 1, 27.1916, 52.0939, -8.8819, 85.2378, -62.2927, 75.168
2.392, 1, 27.2302, 52.0769, -8.9058, 85.2938, -62.2458, 75.0377
2.396, 1, 27.2687, 52.0599, -8.92967, 85.3497, -62.1989, 74.9075
2.4, 1, 27.3071, 52.043, -8.95353, 85.4055, -62.152, 74.7774
2.403, 1, 27.3456, 52.026, -8.97737, 85.4613, -62.1051, 74.6473
2.408, 1, 27.384, 52.0091, -9.00119, 85.5171, -62.0583, 74.5174
2.412, 1, 27.4224, 51.9921, -9.025, 85.5728, -62.0115, 74.3875
2.416, 1, 27.4608, 51.9752, -9.04879, 85.6285, -61.9648, 74.2577
2.42, 1, 27.4991, 51.9583, -9.07257, 85.6842, -61.918, 74.1281
2.423, 1, 27.5375, 51.9415, -9.09632, 85.7398, -61.8713, 73.9985
2.428, 1, 27.5758, 51.9246, -9.12006, 85.7954, -61.8247, 73.869
2.432, 1, 27.614, 51.9077, -9.14378, 85.8509, -61.7781, 73.7396
2.436, 1, 27.6523, 51.8909, -9.16749, 85.9064, -61.7315, 73.6103
2.439, 1, 27.6905, 51.874, -9.19118, 85.9618, -61.6849, 73.4811
2.444, 1, 27.7286, 51.8572, -9.21485, 86.0173, -61.6384, 73.352
2.448, 1, 27.7668, 51.8404, -9.2385, 86.0726, -61.5919, 73.2229
2.452, 1, 27.8049, 51.8236, -9.26214, 86.128, -61.5455, 73.094
2.456, 1, 27.843, 51.8068, -9.28576, 86.1833, -61.4991, 72.9652
2.459, 1, 27.8811, 51.79, -9.30937, 86.2385, -61.4527, 72.8364
2.464, 1, 27.9192, 51.7733, -9.33296, 86.2937, -61.4063, 72.7077
2.468, 1, 27.9572, 51.7565, -9.35653, 86.3489, -61.36, 72.5792
2.472, 1, 27.9952, 51.7398, -9.38008, 86.4041, -61.3137, 72.4507
2.476, 1, 28.0331, 51.723, -9.40362, 86.4592, -61.2674, 72.3223
2.479, 1, 28.0711, 51.7063, -9.42714, 86.5142, -61.2212, 72.194
2.484, 1, 28.109, 51.6896, -9.45065, 86.5693, -61.175, 72.0658
2.488, 1, 28.1469, 51.6729, -9.47414, 86.6242, -61.1288, 71.9377
2.492, 1, 28.1847, 51.6562, -9.49761, 86.6792, -61.0827, 71.8096
2.495, 1, 28.2226, 51.6395, -9.52107, 86.7341, -61.0366, 71.6817
2.5, 1, 28.2604, 51.6229, -9.54451, 86.789, -60.9906, 71.5538
2.504, 1, 28.2982, 51.6062, -9.56793, 86.8438, -60.9445, 71.4261
2.508, 1, 28.3359, 51.5896, -9.59134, 86.8986, -60.8985, 71.2984
2.512, 1, 28.3737, 51.573, -9.61473, 86.9534, -60.8525, 71.1708
2.515, 1, 28.4114, 51.5563, -9.63811, 87.0081, -60.8066, 71.0433
2.52, 1, 28.449, 51.5397, -9.66147, 87.0628, -60.7607, 70.9159
2.524, 1, 28.4867, 51.5231, -9.68481, 87.1174, -60.7148, 70.7885
2.528, 1, 28.5243, 51.5066, -9.70814, 87.172, -60.669, 70.6613
2.531, 1, 28.5619, 51.49, -9.73145, 87.2266, -60.6232, 70.5341
2.536, 1, 28.5995, 51.4734, -9.75475, 87.2811, -60.5774, 70.4071
2.54, 1, 28.637, 51.4569, -9.77803, 87.3356, -60.5316, 70.2801
2.544, 1, 28.6746, 51.4403, -9.80129, 87.3901, -60.4859, 70.1532
2.548, 1, 28.7121, 51.4238, -9.82454, 87.4445, -60.4402, 70.0264
2.551, 1, 28.7495, 51.4073, -9.84777, 87.4989, -60.3946, 69.8997
2.556, 1, 28.787, 51.3908, -9.87099, 87.5533, -60.3489, 69.773
2.56, 1, 28.8244, 51.3743, -9.89419, 87.6076, -60.3033, 69.6465
2.564, 1, 28.8618, 51.3578, -9.91738, 87.6618, -60.2578, 69.52
2.568, 1, 28.8992, 51.3414, -9.94055, 87.7161, -60.2122, 69.3936
2.571, 1, 28.9365, 51.3249, -9.9637, 87.7703, -60.1667, 69.2673
2.576, 1, 28.9738, 51.3085, -9.98684, 87.8245, -60.1213, 69.1411
2.58, 1, 29.0111, 51.292, -10.01, 87.8786, -60.0758, 69.015
2.584, 1, 29.0484, 51.2756, -10.0331, 87.9327, -60.0304, 68.8889
2.587, 1, 29.0857, 51.2592, -10.0562, 87.9867, -59.985, 68.763
2.592, 1, 29.1229, 51.2428, -10.0792, 88.0408, -59.9397, 68.6371
2.596, 1, 29.1601, 51.2264, -10.1023, 88.0947, -59.8944, 68.5113
2.6, 1, 29.1973, 51.21, -10.1253, 88.1487, -59.8491, 68.3856
2.604, 1, 29.2344, 51.1936, -10.1484, 88.2026, -59.8038, 68.26
2.607, 1, 29.2715, 51.1773, -10.1714, 88.2565, -59.7586, 68.1345
2.612, 1, 29.3086, 51.1609, -10.1944, 88.3103, -59.7134, 68.009
2.616, 1, 29.3457, 51.1446, -10.2174, 88.3641, -59.6682, 67.8836
2.62, 1, 29.3827, 51.1283, -10.2403, 88.4179, -59.6231, 67.7583
2.624, 1, 29.4198, 51.1119, -10.2633, 88.4716, -59.5779, 67.6331
2.627, 1, 29.4568, 51.0956, -10.2862, 88.5254, -59.5329, 67.508
2.632, 1, 29.4937, 51.0793, -10.3092, 88.579, -59.4878, 67.383
2.636, 1, 29.5307, 51.0631, -10.3321, 88.6326, -59.4428, 67.258
2.64, 1, 29.5676, 51.0468, -10.355, 88.6862, -59.3978, 67.1331
2.643, 1, 29.6045, 51.0305, -10.3778, 88.7398, -59.3528, 67.0083
2.648, 1, 29.6414, 51.0143, -10.4007, 88.7933, -59.3079, 66.8836
2.652, 1, 29.6783, 50.998, -10.4236, 88.8468, -59.263, 66.759
2.656, 1, 29.7151, 50.9818, -10.4464, 88.9003, -59.2181, 66.6344
2.66, 1, 29.7519, 50.9656, -10.4692, 88.9537, -59.1733, 66.51
2.663, 1, 29.7887, 50.9494, -10.492, 89.0071, -59.1285, 66.3856
2.668, 1, 29.8255, 50.9332, -10.5148, 89.0604, -59.0837, 66.2613
2.672, 1, 29.8622, 50.917, -10.5376, 89.1137, -59.0389, 66.137
2.676, 1, 29.8989, 50.9008, -10.5603, 89.167, -58.9942, 66.0129
2.679, 1, 29.9356, 50.8846, -10.5831, 89.2203, -58.9495, 65.8888
2.684, 1, 29.9723, 50.8685, -10.6058, 89.2735, -58.9048, 65.7648
2.688, 1, 30.0089, 50.8523, -10.6285, 89.3267, -58.8602, 65.6409
2.692, 1, 30.0455, 50.8362, -10.6512, 89.3798, -58.8155, 65.5171
2.696, 1, 30.0821, 50.8201, -10.6739, 89.4329, -58.771, 65.3933
2.699, 1, 30.1187, 50.8039, -10.6966, 89.486, -58.7264, 65.2696
2.704, 1, 30.1552, 50.7878, -10.7193, 89.539, -58.6819, 65.1461
2.708, 1, 30.1917, 50.7717, -10.7419, 89.5921, -58.6374, 65.0225
2.712, 1, 30.2282, 50.7556, -10.7645, 89.645, -58.5929, 64.8991
2.716, 1, 30.2647, 50.7396, -10.7872, 89.698, -58.5484, 64.7757
2.719, 1, 30.3012, 50.7235, -10.8098, 89.7509, -58.504, 64.6525
2.724, 1, 30.3376, 50.7075, -10.8323, 89.8037, -58.4596, 64.5293
2.728, 1, 30.374, 50.6914, -10.8549, 89.8566, -58.4153, 64.4062
2.732, 1, 30.4104, 50.6754, -10.8775, 89.9094, -58.3709, 64.2831
2.735, 1, 30.4468, 50.6593, -10.9, 89.9622, -58.3266, 64.1601
2.74, 1, 30.4831, 50.6433, -10.9225, 90.0149, -58.2824, 64.0372
2.744, 1, 30.5194, 50.6273, -10.9451, 90.0676, -58.2381, 63.9144
2.748, 1, 30.5557, 50.6113, -10.9676, 90.1203, -58.1939, 63.7917
2.752, 1, 30.592, 50.5954, -10.99, 90.1729, -58.1497, 63.669
2.755, 1, 30.6282, 50.5794, -11.0125, 90.2255, -58.1055, 63.5465
2.76, 1, 30.6645, 50.5634, -11.035, 90.2781, -58.0614, 63.424
2.764, 1, 30.7007, 50.5475, -11.0574, 90.3307, -58.0173, 63.3015
2.768, 1, 30.7368, 50.5315, -11.0799, 90.3832, -57.9732, 63.1792
2.772, 1, 30.773, 50.5156, -11.1023, 90.4357, -57.9292, 63.0569
2.775, 1, 30.8091, 50.4997, -11.1247, 90.4881, -57.8851, 62.9347
2.78, 1, 30.8453, 50.4837, -11.1471, 90.5405, -57.8411, 62.8126
2.784, 1, 30.8813, 50.4678, -11.1694, 90.5929, -57.7972, 62.6905
2.788, 1, 30.9174, 50.4519, -11.1918, 90.6452, -57.7532, 62.5686
2.791, 1, 30.9535, 50.4361, -11.2142, 90.6976, -57.7093, 62.4467
2.796, 1, 30.9895, 50.4202, -11.2365, 90.7498, -57.6654, 62.3248
2.8, 1, 31.0255, 50.4043, -11.2588, 90.8021, -57.6215, 62.2031
2.804, 1, 31.0615, 50.3885, -11.2811, 90.8543, -57.5777, 62.0814
2.808, 1, 31.0974, 50.3726, -11.3034, 90.9065, -57.5339, 61.9598
2.811, 1, 31.1334, 50.3568, -11.3257, 90.9586, -57.4901, 61.8383
2.816, 1, 31.1693, 50.341, -11.3479, 91.0108, -57.4463, 61.7169
2.82, 1, 31.2052, 50.3251, -11.3702, 91.0629, -57.4026, 61.5955
2.824, 1, 31.241, 50.3093, -11.3924, 91.1149, -57.3589, 61.4742
2.828, 1, 31.2769, 50.2935, -11.4147, 91.1669, -57.3152, 61.353
2.831, 1, 31.3127, 50.2777, -11.4369, 91.2189, -57.2716, 61.2318
2.836, 1, 31.3485, 50.262, -11.4591, 91.2709, -57.228, 61.1107
2.84, 1, 31.3843, 50.2462, -11.4813, 91.3228, -57.1844, 60.9897
2.844, 1, 31.42, 50.2304, -11.5034, 91.3747, -57.1408, 60.8688
2.847, 1, 31.4558, 50.2147, -11.5256, 91.4266, -57.0972, 60.7479
2.852, 1, 31.4915, 50.199, -11.5477, 91.4784, -57.0537, 60.6272
2.856, 1, 31.5272, 50.1832, -11.5699, 91.5303, -57.0102, 60.5064
2.86, 1, 31.5629, 50.1675, -11.592, 91.582, -56.9668, 60.3858
2.864, 1, 31.5985, 50.1518, -11.6141, 91.6338, -56.9233, 60.2652
2.867, 1, 31.6342, 50.1361, -11.6362, 91.6855, -56.8799, 60.1447
2.872, 1, 31.6698, 50.1204, -11.6582, 91.7372, -56.8365, 60.0243
2.876, 1, 31.7053, 50.1047, -11.6803, 91.7888, -56.7932, 59.904
2.88, 1, 31.7409, 50.089, -11.7024, 91.8404, -56.7498, 59.7837
2.883, 1, 31.7765, 50.0734, -11.7244, 91.892, -56.7065, 59.6635
2.888, 1, 31.812, 50.0577, -11.7464, 91.9436, -56.6632, 59.5434
2.892, 1, 31.8475, 50.0421, -11.7684, 91.9951, -56.62, 59.4233
2.896, 1, 31.883, 50.0264, -11.7904, 92.0466, -56.5767, 59.3033
2.9, 1, 31.9184, 50.0108, -11.8124, 92.0981, -56.5335, 59.1834
2.903, 1, 31.9539, 49.9952, -11.8344, 92.1495, -56.4904, 59.0635
2.908, 1, 31.9893, 49.9796, -11.8563, 92.2009, -56.4472, 58.9438
2.912, 1, 32.0247, 49.964, -11.8783, 92.2523, -56.4041, 58.8241
2.916, 1, 32.0601, 49.9484, -11.9002, 92.3036, -56.361, 58.7044
2.92, 1, 32.0954, 49.9328, -11.9221, 92.355, -56.3179, 58.5848
2.923, 1, 32.1308, 49.9172, -11.9441, 92.4062, -56.2748, 58.4653
2.928, 1, 32.1661, 49.9017, -11.966, 92.4575, -56.2318, 58.3459
2.932, 1, 32.2014, 49.8861, -11.9878, 92.5087, -56.1888, 58.2266
2.936, 1, 32.2366, 49.8706, -12.0097, 92.5599, -56.1458, 58.1073
2.939, 1, 32.2719, 49.855, -12.0316, 92.6111, -56.1029, 57.9881
2.944, 1, 32.3071, 49.8395, -12.0534, 92.6622, -56.0599, 57.8689
2.948, 1, 32.3424, 49.824, -12.0752, 92.7133, -56.017, 57.7498
2.952, 1, 32.3775, 49.8085, -12.0971, 92.7644, -55.9742, 57.6308
2.956, 1, 32.4127, 49.793, -12.1189, 92.8155, -55.9313, 57.5119
2.959, 1, 32.4479, 49.7775, -12.1407, 92.8665, -55.8885, 57.393
2.964, 1, 32.483, 49.762, -12.1624, 92.9175, -55.8457, 57.2742
2.968, 1, 32.5181, 49.7465, -12.1842, 92.9684, -55.8029, 57.1554
2.972, 1, 32.5532, 49.7311, -12.206, 93.0193, -55.7601, 57.0368
2.976, 1, 32.5883, 49.7156, -12.2277, 93.0703, -55.7174, 56.9182
2.98, 1, 32.6233, 49.7002, -12.2494, 93.1211, -55.6747, 56.7996
2.984, 1, 32.6584, 49.6847, -12.2712, 93.172, -55.632, 56.6812
2.988, 1, 32.6934, 49.6693, -12.2929, 93.2228, -55.5893, 56.5628
2.992, 1, 32.7284, 49.6539, -12.3146, 93.2736, -55.5467, 56.4444
2.995, 1, 32.7633, 49.6385, -12.3362, 93.3243, -55.5041, 56.3262
3, 1, 32.7983, 49.6231, -12.3579, 93.3751, -55.4615, 56.208
3.004, 1, 32.8332, 49.6077, -12.3796, 93.4258, -55.419, 56.0898
3.008, 1, 32.8681, 49.5923, -12.4012, 93.4764, -55.3764, 55.9718
3.012, 1, 32.903, 49.5769, -12.4228, 93.5271, -55.3339, 55.8538
3.015, 1, 32.9379, 49.5615, -12.4445, 93.5777, -55.2914, 55.7359
3.02, 1, 32.9728, 49.5462, -12.4661, 93.6283, -55.2489, 55.618
3.024, 1, 33.0076, 49.5308, -12.4877, 93.6788, -55.2065, 55.5002
3.028, 1, 33.0424, 49.5155, -12.5092, 93.7293, -55.1641, 55.3825
3.031, 1, 33.0772, 49.5001, -12.5308, 93.7799, -55.1217, 55.2648
3.036, 1, 33.112, 49.4848, -12.5524, 93.8303, -55.0793, 55.1472
3.04, 1, 33.1467, 49.4695, -12.5739, 93.8808, -55.037, 55.0297
3.044, 1, 33.1815, 49.4542, -12.5955, 93.9312, -54.9946, 54.9122
3.048, 1, 33.2162, 49.4389, -12.617, 93.9816, -54.9523, 54.7948
3.051, 1, 33.2509, 49.4236, -12.6385, 94.0319, -54.9101, 54.6774
3.056, 1, 33.2856, 49.4083, -12.66, 94.0823, -54.8678, 54.5602
3.06, 1, 33.3202, 49.393, -12.6815, 94.1326, -54.8256, 54.443
3.064, 1, 33.3549, 49.3778, -12.703, 94.1828, -54.7834, 54.3258
3.068, 1, 33.3895, 49.3625, -12.7244, 94.2331, -54.7412, 54.2087
3.071, 1, 33.4241, 49.3473, -12.7459, 94.2833, -54.699, 54.0917
3.076, 1, 33.4587, 49.332, -12.7673, 94.3335, -54.6569, 53.9748
3.08, 1, 33.4932, 49.3168, -12.7888, 94.3837, -54.6148, 53.8579
3.084, 1, 33.5278, 49.3016, -12.8102, 94.4338, -54.5727, 53.741
3.087, 1, 33.5623, 49.2864, -12.8316, 94.4839, -54.5306, 53.6243
3.092, 1, 33.5968, 49.2711, -12.853, 94.534, -54.4886, 53.5076
3.096, 1, 33.6313, 49.2559, -12.8744, 94.5841, -54.4466, 53.391
3.1, 1, 33.6658, 49.2408, -12.8957, 94.6341, -54.4046, 53.2744
3.104, 1, 33.7002, 49.2256, -12.9171, 94.6841, -54.3626, 53.1579
3.107, 1, 33.7346, 49.2104, -12.9384, 94.7341, -54.3206, 53.0414
3.112, 1, 33.7691, 49.1952, -12.9598, 94.784, -54.2787, 52.9251
3.116, 1, 33.8035, 49.1801, -12.9811, 94.8339, -54.2368, 52.8087
3.12, 1, 33.8378, 49.1649, -13.0024, 94.8838, -54.1949, 52.6925
3.124, 1, 33.8722, 49.1498, -13.0237, 94.9337, -54.153, 52.5763
3.128, 1, 33.9065, 49.1346, -13.045, 94.9835, -54.1112, 52.4602
3.132, 1, 33.9409, 49.1195, -13.0663, 95.0333, -54.0694, 52.3441
3.136, 1, 33.9752, 49.1044, -13.0875, 95.0831, -54.0276, 52.2281
3.14, 1, 34.0094, 49.0893, -13.1088, 95.1329, -53.9858, 52.1122
3.143, 1, 34.0437, 49.0742, -13.13, 95.1826, -53.9441, 51.9963
3.148, 1, 34.078, 49.0591, -13.1513, 95.2323, -53.9023, 51.8805
3.152, 1, 34.1122, 49.044, -13.1725, 95.282, -53.8606, 51.7647
3.156, 1, 34.1464, 49.0289, -13.1937, 95.3316, -53.8189, 51.649
3.16, 1, 34.1806, 49.0139, -13.2149, 95.3813, -53.7773, 51.5334
3.163, 1, 34.2148, 48.9988, -13.2361, 95.4309, -53.7356, 51.4178
3.168, 1, 34.2489, 48.9838, -13.2573, 95.4805, -53.694, 51.3023
3.172, 1, 34.2831, 48.9687, -13.2784, 95.53, -53.6524, 51.1868
3.176, 1, 34.3172, 48.9537, -13.2996, 95.5795, -53.6108, 51.0715
3.179, 1, 34.3513, 48.9386, -13.3207, 95.629, -53.5693, 50.9561
3.184, 1, 34.3854, 48.9236, -13.3419, 95.6785, -53.5278, 50.8409
3.188, 1, 34.4194, 48.9086, -13.363, 95.7279, -53.4863, 50.7256
3.192, 1, 34.4535, 48.8936, -13.3841, 95.7774, -53.4448, 50.6105
3.196, 1, 34.4875, 48.8786, -13.4052, 95.8268, -53.4033, 50.4954
3.199, 1, 34.5215, 48.8636, -13.4263, 95.8761, -53.3619, 50.3804
3.204, 1, 34.5555, 48.8486, -13.4474, 95.9255, -53.3204, 50.2654
3.208, 1, 34.5895, 48.8337, -13.4684, 95.9748, -53.279, 50.1505
3.212, 1, 34.6235, 48.8187, -13.4895, 96.0241, -53.2377, 50.0357
3.216, 1, 34.6574, 48.8037, -13.5105, 96.0733, -53.1963, 49.9209
3.22, 1, 34.6913, 48.7888, -13.5316, 96.1226, -53.155, 49.8062
3.224, 1, 34.7252, 48.7738, -13.5526, 96.1718, -53.1137, 49.6915
3.228, 1, 34.7591, 48.7589, -13.5736, 96.221, -53.0724, 49.5769
3.232, 1, 34.793, 48.744, -13.5946, 96.2701, -53.0311, 49.4623
3.235, 1, 34.8269, 48.7291, -13.6156, 96.3193, -52.9898, 49.3478
3.24, 1, 34.8607, 48.7141, -13.6366, 96.3684, -52.9486, 49.2334
3.244, 1, 34.8945, 48.6992, -13.6575, 96.4175, -52.9074, 49.119
3.248, 1, 34.9283, 48.6843, -13.6785, 96.4665, -52.8662, 49.0047
3.252, 1, 34.9621, 48.6695, -13.6994, 96.5155, -52.8251, 48.8905
3.255, 1, 34.9959, 48.6546, -13.7204, 96.5646, -52.7839, 48.7763
3.26, 1, 35.0296, 48.6397, -13.7413, 96.6135, -52.7428, 48.6621
3.264, 1, 35.0634, 48.6248, -13.7622, 96.6625, -52.7017, 48.5481
3.268, 1, 35.0971, 48.61, -13.7831, 96.7114, -52.6606, 48.434
3.272, 1, 35.1308, 48.5951, -13.804, 96.7604, -52.6195, 48.3201
3.276, 1, 35.1645, 48.5803, -13.8249, 96.8092, -52.5785, 48.2062
3.28, 1, 35.1981, 48.5654, -13.8458, 96.8581, -52.5375, 48.0923
3.284, 1, 35.2318, 48.5506, -13.8666, 96.9069, -52.4965, 47.9785
3.288, 1, 35.2654, 48.5358, -13.8875, 96.9557, -52.4555, 47.8648
3.291, 1, 35.299, 48.521, -13.9083, 97.0045, -52.4145, 47.7511
3.296, 1, 35.3325, 48.5062, -13.9292, 97.0533, -52.3736, 47.6375
3.3, 1, 35.3658, 48.4915, -13.95, 97.102, -52.3327, 47.5239
3.304, 1, 35.3987, 48.477, -13.9709, 97.1507, -52.2918, 47.4105
3.308, 1, 35.4311, 48.4627, -13.9918, 97.1994, -52.251, 47.2971
3.312, 1, 35.4626, 48.4488, -14.0127, 97.2479, -52.2103, 47.1841
3.316, 1, 35.4932, 48.4354, -14.0337, 97.2962, -52.1698, 47.0714
3.32, 1, 35.5228, 48.4225, -14.0546, 97.3442, -52.1295, 46.9594
3.324, 1, 35.5512, 48.4103, -14.0755, 97.3918, -52.0897, 46.8485
3.328, 1, 35.5785, 48.3987, -14.0963, 97.4387, -52.0504, 46.7391
3.332, 1, 35.6049, 48.3876, -14.1167, 97.4847, -52.0118, 46.6318
3.336, 1, 35.6302, 48.3771, -14.1367, 97.5295, -51.9743, 46.5272
3.34, 1, 35.6545, 48.367, -14.1561, 97.5729, -51.938, 46.4259
3.344, 1, 35.6778, 48.3574, -14.1748, 97.6145, -51.9032, 46.3288
3.347, 1, 35.7001, 48.3482, -14.1925, 97.6541, -51.87, 46.2365
3.352, 1, 35.7213, 48.3395, -14.2091, 97.6913, -51.8388, 46.1495
3.356, 1, 35.7415, 48.3311, -14.2246, 97.726, -51.8098, 46.0686
3.36, 1, 35.7606, 48.3231, -14.2387, 97.7579, -51.783, 45.9941
3.364, 1, 35.7789, 48.3153, -14.2514, 97.7869, -51.7587, 45.9265
3.368, 1, 35.7963, 48.3077, -14.2625, 97.8129, -51.7369, 45.866
3.372, 1, 35.813, 48.3002, -14.2722, 97.8358, -51.7177, 45.8126
3.376, 1, 35.8289, 48.2929, -14.2803, 97.8557, -51.7009, 45.7663
3.38, 1, 35.844, 48.2858, -14.2871, 97.8728, -51.6865, 45.7266
3.383, 1, 35.858, 48.2791, -14.2925, 97.8872, -51.6744, 45.6933
3.388, 1, 35.8708, 48.2728, -14.2969, 97.8991, -51.6643, 45.6656
3.392, 2, 35.8823, 48.2671, -14.3003, 97.9088, -51.656, 45.6431
3.396, 2, 35.8925, 48.262, -14.3028, 97.9166, -51.6494, 45.6252
3.4, 2, 35.9015, 48.2575, -14.3047, 97.9227, -51.6442, 45.611
3.403, 2, 35.9095, 48.2535, -14.3059, 97.9274, -51.6402, 45.6002
3.408, 2, 35.9166, 48.25, -14.3068, 97.9309, -51.6371, 45.5921
3.412, 2, 35.9229, 48.247, -14.3073, 97.9335, -51.6349, 45.5862
3.416, 2, 35.9282, 48.2444, -14.3076, 97.9354, -51.6332, 45.5819
3.42, 2, 35.9326, 48.2424, -14.3077, 97.9367, -51.6321, 45.5789
3.424, 2, 35.9361, 48.2408, -14.3078, 97.9376, -51.6313, 45.5768
3.428, 2, 35.9387, 48.2397, -14.3078, 97.9383, -51.6307, 45.5754
3.432, 2, 35.9406, 48.2388, -14.3078, 97.9387, -51.6303, 45.5745
3.436, 2, 35.9419, 48.2383, -14.3078, 97.939, -51.6301, 45.5738
3.439, 2, 35.9427, 48.2379, -14.3078, 97.9392, -51.6299, 45.5734
3.444, 2, 35.9433, 48.2377, -14.3078, 97.9393, -51.6298, 45.5731
3.448, 2, 35.9437, 48.2375, -14.3078, 97.9394, -51.6297, 45.5729
3.452, 2, 35.944, 48.2374, -14.3078, 97.9394, -51.6297, 45.5727
3.456, 2, 35.9442, 48.2373, -14.3078, 97.9395, -51.6296, 45.5726
3.46, 2, 35.9443, 48.2372, -14.3078, 97.9395, -51.6296, 45.5726
3.464, 2, 35.9444, 48.2372, -14.3078, 97.9395, -51.6296, 45.5725
3.468, 2, 35.9444, 48.2372, -14.3078, 97.9395, -51.6296, 45.5725
3.472, 2, 35.9445, 48.2372, -14.3078, 97.9396, -51.6296, 45.5725
3.476, 2, 35.9445, 48.2372, -14.3078, 97.9396, -51.6296, 45.5725
3.48, 2, 35.9445, 48.2371, -14.3078, 97.9396, -51.6296, 45.5725
3.484, 2, 35.9445, 48.2371, -14.3078, 97.9396, -51.6296, 45.5725
3.488, 2, 35.9445, 48.2371, -14.3078, 97.9396, -51.6296, 45.5724
3.492, 2, 35.9445, 48.2371, -14.3078, 97.9396, -51.6295, 45.5724
3.495, 2, 35.9445, 48.2371, -14.3078, 97.9396, -51.6295, 45.5724
3.5, 2, 35.9445, 48.2371, -14.3078, 97.9396, -51.6295, 45.5724
3.504, 2, 35.9445, 48.2371, -14.3078, 97.9396, -51.6295, 45.5724
3.508, 2, 35.9445, 48.2371, -14.3078, 97.9396, -51.6295, 45.5724
3.512, 2, 35.9445, 48.2371, -14.3078, 97.9396, -51.6295, 45.5724
3.516, 2, 35.9445, 48.2371, -14.3078, 97.9396, -51.6295, 45.5724
3.52, 2, 35.9445, 48.2371, -14.3078, 97.9396, -51.6295, 45.5724
3.524, 2, 35.9445, 48.2371, -14.3078, 97.9396, -51.6295, 45.5724
3.528, 2, 35.9445, 48.2371, -14.3078, 97.9396, -51.6295, 45.5724
3.531, 2, 35.9445, 48.2371, -14.3078, 97.9396, -51.6295, 45.5724
3.536, 2, 35.9445, 48.2371, -14.3078, 97.9396, -51.6295, 45.5724
3.54, 2, 35.9445, 48.2371, -14.3078, 97.9396, -51.6295, 45.5724
3.544, 2, 35.9445, 48.2371, -14.3078, 97.9396, -51.6295, 45.5724
3.548, 2, 35.9445, 48.2371, -14.3078, 97.9396, -51.6295, 45.5724
3.552, 2, 35.9445, 48.2371, -14.3078, 97.9396, -51.6295, 45.5724
3.556, 2, 35.9445, 48.2371, -14.3078, 97.9396, -51.6295, 45.5724
3.56, 2, 35.9445, 48.2371, -14.3078, 97.9396, -51.6295, 45.5724
3.564, 2, 35.9445, 48.2371, -14.3078, 97.9396, -51.6295, 45.5724
3.568, 2, 35.9445, 48.2371, -14.3078, 97.9396, -51.6295, 45.5724
3.572, 2, 35.9445, 48.2371, -14.3078, 97.9396, -51.6295, 45.5724
3.576, 2, 35.9445, 48.2371, -14.3078, 97.9396, -51.6295, 45.5724
3.58, 2, 35.9445, 48.2371, -14.3078, 97.9396, -51.6295, 45.5724
3.584, 2, 35.9445, 48.2371, -14.3078, 97.9396, -51.6295, 45.5724
3.587, 2, 35.9445, 48.2371, -14.3078, 97.9396, -51.6295, 45.5724
3.592, 2, 35.9445, 48.2371, -14.3078, 97.9396, -51.6295, 45.5724
3.596, 2, 35.9445, 48.2371, -14.3078, 97.9396, -51.6295, 45.5724
3.6, 2, 35.9445, 48.2371, -14.3078, 97.9396, -51.6295, 45.5724
3.604, 2, 35.9445, 48.2371, -14.3078, 97.9396, -51.6295, 45.5724
3.608, 2, 35.9445, 48.2371, -14.3078, 97.9396, -51.6295, 45.5724
3.612, 2, 35.9445, 48.2371, -14.3078, 97.9396, -51.6295, 45.5724
3.616, 2, 35.9445, 48.2371, -14.3078, 97.9396, -51.6295, 45.5724
3.62, 2, 35.9445, 48.2371, -14.3078, 97.9396, -51.6295, 45.5724
3.624, 2, 35.9445, 48.2371, -14.3078, 97.9396, -51.6295, 45.5724
3.628, 2, 35.9445, 48.2371, -14.3078, 97.9396, -51.6295, 45.5724
3.632, 2, 35.9445, 48.2371, -14.3078, 97.9396, -51.6295, 45.5724
3.636, 2, 35.9445, 48.2371, -14.3078, 97.9396, -51.6295, 45.5724
3.64, 2, 35.9445, 48.2371, -14.3078, 97.9396, -51.6295, 45.5724
3.644, 2, 35.9445, 48.2371, -14.3078, 97.9396, -51.6295, 45.5724
3.648, 2, 35.9445, 48.2371, -14.3078, 97.9396, -51.6295, 45.5724
3.652, 2, 35.9445, 48.2371, -14.3078, 97.9396, -51.6295, 45.5724
3.656, 2, 35.9445, 48.2371, -14.3078, 97.9396, -51.6295, 45.5724
3.66, 2, 35.9445, 48.2371, -14.3078, 97.9396, -51.6295, 45.5724
3.664, 2, 35.9445, 48.2371, -14.3078, 97.9396, -51.6295, 45.5724
3.668, 2, 35.9445, 48.2371, -14.3078, 97.9396, -51.6295, 45.5724
3.672, 2, 35.9445, 48.2371, -14.3078, 97.9396, -51.6295, 45.5724
3.676, 2, 35.9445, 48.2371, -14.3078, 97.9396, -51.6295, 45.5724
3.679, 2, 35.9445, 48.2371, -14.3078, 97.9396, -51.6295, 45.5724
3.684, 2, 35.9445, 48.2371, -14.3078, 97.9396, -51.6295, 45.5724
3.688, 2, 35.9445, 48.2371, -14.3078, 97.9396, -51.6295, 45.5724
3.692, 2, 35.9445, 48.2371, -14.3078, 97.9396, -51.6295, 45.5724
3.696, 2, 35.9445, 48.2371, -14.3078, 97.9396, -51.6295, 45.5724
3.7, 2, 35.9445, 48.2371, -14.3078, 97.9396, -51.6295, 45.5724
3.704, 2, 35.9445, 48.2371, -14.3078, 97.9396, -51.6295, 45.5724
3.708, 2, 35.9445, 48.2371, -14.3078, 97.9396, -51.6295, 45.5724
3.712, 2, 35.9445, 48.2371, -14.3078, 97.9396, -51.6295, 45.5724
3.716, 2, 35.9445, 48.2371, -14.3078, 97.9396, -51.6295, 45.5724
3.72, 2, 35.9445, 48.2371, -14.3078, 97.9396, -51.6295, 45.5724
3.724, 2, 35.9445, 48.2371, -14.3078, 97.9396, -51.6295, 45.5724
3.728, 2, 35.9445, 48.2371, -14.3078, 97.9396, -51.6295, 45.5724
3.732, 2, 35.9445, 48.2371, -14.3078, 97.9396, -51.6295, 45.5724
3.735, 2, 35.9445, 48.2371, -14.3078, 97.9396, -51.6295, 45.5724
3.74, 2, 35.9445, 48.2371, -14.3078, 97.9396, -51.6295, 45.5724
3.744, 2, 35.9445, 48.2371, -14.3078, 97.9396, -51.6295, 45.5724
3.748, 2, 35.9445, 48.2371, -14.3078, 97.9396, -51.6295, 45.5724
3.752, 2, 35.9445, 48.2371, -14.3078, 97.9396, -51.6295, 45.5724
3.756, 2, 35.9445, 48.2371, -14.3078, 97.9396, -51.6295, 45.5724
3.76, 2, 35.9445, 48.2371, -14.3078, 97.9396, -51.6295, 45.5724
3.764, 2, 35.9445, 48.2371, -14.3078, 97.9396, -51.6295, 45.5724
3.768, 2, 35.9445, 48.2371, -14.3078, 97.9396, -51.6295, 45.5724
3.772, 2, 35.9445, 48.2371, -14.3078, 97.9396, -51.6295, 45.5724
3.776, 2, 35.9445, 48.2371, -14.3078, 97.9396, -51.6295, 45.5724
3.78, 2, 35.9445, 48.2371, -14.3078, 97.9396, -51.6295, 45.5724
3.784, 2, 35.9445, 48.2371, -14.3078, 97.9396, -51.6295, 45.5724
3.788, 2, 35.9445, 48.2371, -14.3078, 97.9396, -51.6295, 45.5724
3.792, 2, 35.9445, 48.2371, -14.3078, 97.9396, -51.6295, 45.5724
3.796, 2, 35.9445, 48.2371, -14.3078, 97.9396, -51.6295, 45.5724
3.8, 2, 35.9445, 48.2371, -14.3078, 97.9396, -51.6295, 45.5724
3.804, 2, 35.9445, 48.2371, -14.3078, 97.9396, -51.6295, 45.5724
3.808, 2, 35.9445, 48.2371, -14.3078, 97.9396, -51.6295, 45.5724
3.812, 2, 35.9445, 48.2371, -14.3078, 97.9396, -51.6295, 45.5724
3.816, 2, 35.9445, 48.2371, -14.3078, 97.9396, -51.6295, 45.5724
3.82, 2, 35.9445, 48.2371, -14.3078, 97.9396, -51.6295, 45.5724
3.824, 2, 35.9445, 48.2371, -14.3078, 97.9396, -51.6295, 45.5724
3.828, 2, 35.9445, 48.2371, -14.3078, 97.9396, -51.6295, 45.5724
3.832, 2, 35.9445, 48.2371, -14.3078, 97.9396, -51.6295, 45.5724
3.836, 2, 35.9445, 48.2371, -14.3078, 97.9396, -51.6295, 45.5724
3.84, 2, 35.9445, 48.2371, -14.3078, 97.9396, -51.6295, 45.5724
3.844, 2, 35.9445, 48.2371, -14.3078, 97.9396, -51.6295, 45.5724
3.848, 2, 35.9445, 48.2371, -14.3078, 97.9396, -51.6295, 45.5724
3.852, 2, 35.9445, 48.2371, -14.3078, 97.9396, -51.6295, 45.5724
3.856, 2, 35.9445, 48.2371, -14.3078, 97.9396, -51.6295, 45.5724
3.86, 2, 35.9445, 48.2371, -14.3078, 97.9396, -51.6295, 45.5724
3.864, 2, 35.9445, 48.2371, -14.3078, 97.9396, -51.6295, 45.5724
3.868, 2, 35.9445, 48.2371, -14.3078, 97.9396, -51.6295, 45.5724
3.872, 2, 35.9445, 48.2371, -14.3078, 97.9396, -51.6295, 45.5724
3.876, 2, 35.9445, 48.2371, -14.3078, 97.9396, -51.6295, 45.5724
3.88, 2, 35.9445, 48.2371, -14.3078, 97.9396, -51.6295, 45.5724
3.884, 2, 35.9445, 48.2371, -14.3078, 97.9396, -51.6295, 45.5724
3.888, 2, 35.9445, 48.2371, -14.3078, 97.9396, -51.6295, 45.5724
3.892, 2, 35.9445, 48.2371, -14.3078, 97.9396, -51.6295, 45.5724
3.896, 2, 35.9445, 48.2371, -14.3078, 97.9396, -51.6295, 45.5724
3.9, 2, 35.9445, 48.2371, -14.3078, 97.9396, -51.6295, 45.5724
3.904, 2, 35.9445, 48.2371, -14.3078, 97.9396, -51.6295, 45.5724
3.908, 2, 35.9445, 48.2371, -14.3078, 97.9396, -51.6295, 45.5724
3.912, 2, 35.9445, 48.2371, -14.3078, 97.9396, -51.6295, 45.5724
3.916, 2, 35.9445, 48.2371, -14.3078, 97.9396, -51.6295, 45.5724
3.92, 2, 35.9445, 48.2371, -14.3078, 97.9396, -51.6295, 45.5724
3.924, 2, 35.9445, 48.2371, -14.3078, 97.9396, -51.6295, 45.5724
3.928, 2, 35.9445, 48.2371, -14.3078, 97.9396, -51.6295, 45.5724
3.932, 2, 35.9445, 48.2371, -14.3078, 97.9396, -51.6295, 45.5724
3.936, 2, 35.9445, 48.2371, -14.3078, 97.9396, -51.6295, 45.5724
3.94, 2, 35.9445, 48.2371, -14.3078, 97.9396, -51.6295, 45.5724
3.944, 2, 35.9445, 48.2371, -14.3078, 97.9396, -51.6295, 45.5724
3.948, 2, 35.9445, 48.2371, -14.3078, 97.9396, -51.6295, 45.5724
3.952, 2, 35.9445, 48.2371, -14.3078, 97.9396, -51.6295, 45.5724
3.956, 2, 35.9445, 48.2371, -14.3078, 97.9396, -51.6295, 45.5724
3.96, 2, 35.9445, 48.2371, -14.3078, 97.9396, -51.6295, 45.5724
3.964, 2, 35.9445, 48.2371, -14.3078, 97.9396, -51.6295, 45.5724
3.968, 2, 35.9445, 48.2371, -14.3078, 97.9396, -51.6295, 45.5724
3.972, 2, 35.9445, 48.2371, -14.3078, 97.9396, -51.6295, 45.5724
3.976, 2, 35.9445, 48.2371, -14.3078, 97.9396, -51.6295, 45.5724
3.98, 2, 35.9445, 48.2371, -14.3078, 97.9396, -51.6295, 45.5724
3.984, 2, 35.9445, 48.2371, -14.3078, 97.9396, -51.6295, 45.5724
3.988, 2, 35.9445, 48.2371, -14.3078, 97.9396, -51.6295, 45.5724
3.992, 2, 35.9445, 48.2371, -14.3078, 97.9396, -51.6295, 45.5724
3.996, 2, 35.9445, 48.2371, -14.3078, 97.9396, -51.6295, 45.5724
3.999, 2, 35.9445, 48.2371, -14.3078, 97.9396, -51.6295, 45.5724
4.004, 2, 35.9445, 48.2371, -14.3078, 97.9396, -51.6295, 45.5724
4.008, 2, 35.9445, 48.2371, -14.3078, 97.9396, -51.6295, 45.5724
4.012, 2, 35.9445, 48.2371, -14.3078, 97.9396, -51.6295, 45.5724
4.016, 2, 35.9445, 48.2371, -14.3078, 97.9396, -51.6295, 45.5724
4.02, 2, 35.9445, 48.2371, -14.3078, 97.9396, -51.6295, 45.5724
4.024, 2, 35.9445, 48.2371, -14.3078, 97.9396, -51.6295, 45.5724
4.028, 2, 35.9445, 48.2371, -14.3078, 97.9396, -51.6295, 45.5724
4.032, 2, 35.9445, 48.2371, -14.3078, 97.9396, -51.6295, 45.5724
4.036, 2, 35.9445, 48.2371, -14.3078, 97.9396, -51.6295, 45.5724
4.04, 2, 35.9445, 48.2371, -14.3078, 97.9396, -51.6295, 45.5724
4.044, 2, 35.9445, 48.2371, -14.3078, 97.9396, -51.6295, 45.5724
4.048, 2, 35.9445, 48.2371, -14.3078, 97.9396, -51.6295, 45.5724
4.052, 2, 35.9445, 48.2371, -14.3078, 97.9396, -51.6295, 45.5724
4.056, 2, 35.9445, 48.2371, -14.3078, 97.9396, -51.6295, 45.5724
4.06, 2, 35.9445, 48.2371, -14.3078, 97.9396, -51.6295, 45.5724
4.064, 2, 35.9445, 48.2371, -14.3078, 97.9396, -51.6295, 45.5724
4.068, 2, 35.9445, 48.2371, -14.3078, 97.9396, -51.6295, 45.5724
4.072, 2, 35.9445, 48.2371, -14.3078, 97.9396, -51.6295, 45.5724
4.076, 2, 35.9445, 48.2371, -14.3078, 97.9396, -51.6295, 45.5724
4.08, 2, 35.9445, 48.2371, -14.3078, 97.9396, -51.6295, 45.5724
4.084, 2, 35.9445, 48.2371, -14.3078, 97.9396, -51.6295, 45.5724
4.088, 2, 35.9445, 48.2371, -14.3078, 97.9396, -51.6295, 45.5724
4.092, 2, 35.9445, 48.2371, -14.3078, 97.9396, -51.6295, 45.5724
4.096, 2, 35.9445, 48.2371, -14.3078, 97.9396, -51.6295, 45.5724
4.1, 2, 35.9445, 48.2371, -14.3078, 97.9396, -51.6295, 45.5724
4.104, 2, 35.9445, 48.2371, -14.3078, 97.9396, -51.6295, 45.5724
4.108, 2, 35.9445, 48.2371, -14.3078, 97.9396, -51.6295, 45.5724
4.112, 2, 35.9445, 48.2371, -14.3078, 97.9396, -51.6295, 45.5724
4.116, 2, 35.9445, 48.2371, -14.3078, 97.9396, -51.6295, 45.5724
4.12, 2, 35.9445, 48.2371, -14.3078, 97.9396, -51.6295, 45.5724
4.124, 2, 35.9445, 48.2371, -14.3078, 97.9396, -51.6295, 45.5724
4.128, 2, 35.9445, 48.2371, -14.3078, 97.9396, -51.6295, 45.5724
4.132, 2, 35.9445, 48.2371, -14.3078, 97.9396, -51.6295, 45.5724
4.136, 2, 35.9445, 48.2371, -14.3078, 97.9396, -51.6295, 45.5724
4.14, 2, 35.9445, 48.2371, -14.3078, 97.9396, -51.6295, 45.5724
4.144, 2, 35.9445, 48.2371, -14.3078, 97.9396, -51.6295, 45.5724
4.148, 2, 35.9445, 48.2371, -14.3078, 97.9396, -51.6295, 45.5724
4.152, 2, 35.9445, 48.2371, -14.3078, 97.9396, -51.6295, 45.5724
4.156, 2, 35.9445, 48.2371, -14.3078, 97.9396, -51.6295, 45.5724
4.16, 2, 35.9445, 48.2371, -14.3078, 97.9396, -51.6295, 45.5724
4.164, 2, 35.9445, 48.2371, -14.3078, 97.9396, -51.6295, 45.5724
4.168, 2, 35.9445, 48.2371, -14.3078, 97.9396, -51.6295, 45.5724
4.172, 2, 35.9445, 48.2371, -14.3078, 97.9396, -51.6295, 45.5724
4.176, 2, 35.9445, 48.2371, -14.3078, 97.9396, -51.6295, 45.5724
4.18, 2, 35.9445, 48.2371, -14.3078, 97.9396, -51.6295, 45.5724
4.184, 2, 35.9445, 48.2371, -14.3078, 97.9396, -51.6295, 45.5724
4.188, 2, 35.9445, 48.2371, -14.3078, 97.9396, -51.6295, 45.5724
4.192, 2, 35.9445, 48.2371, -14.3078, 97.9396, -51.6295, 45.5724
4.196, 2, 35.9445, 48.2371, -14.3078, 97.9396, -51.6295, 45.5724
4.2, 2, 35.9445, 48.2371, -14.3078, 97.9396, -51.6295, 45.5724
4.204, 2, 35.9445, 48.2371, -14.3078, 97.9396, -51.6295, 45.5724
4.208, 2, 35.9445, 48.2371, -14.3078, 97.9396, -51.6295, 45.5724
4.212, 2, 35.9445, 48.2371, -14.3078, 97.9396, -51.6295, 45.5724
4.216, 2, 35.9445, 48.2371, -14.3078, 97.9396, -51.6295, 45.5724
4.22, 2, 35.9445, 48.2371, -14.3078, 97.9396, -51.6295, 45.5724
4.224, 2, 35.9445, 48.2371, -14.3078, 97.9396, -51.6295, 45.5724
4.228, 2, 35.9445, 48.2371, -14.3078, 97.9396, -51.6295, 45.5724
4.232, 2, 35.9445, 48.2371, -14.3078, 97.9396, -51.6295, 45.5724
4.236, 2, 35.9445, 48.2371, -14.3078, 97.9396, -51.6295, 45.5724
4.24, 2, 35.9445, 48.2371, -14.3078, 97.9396, -51.6295, 45.5724
4.244, 2, 35.9445, 48.2371, -14.3078, 97.9396, -51.6295, 45.5724
4.248, 2, 35.9445, 48.2371, -14.3078, 97.9396, -51.6295, 45.5724
4.252, 2, 35.9445, 48.2371, -14.3078, 97.9396, -51.6295, 45.5724
4.256, 2, 35.9445, 48.2371, -14.3078, 97.9396, -51.6295, 45.5724
4.26, 2, 35.9445, 48.2371, -14.3078, 97.9396, -51.6295, 45.5724
4.264, 2, 35.9445, 48.2371, -14.3078, 97.9396, -51.6295, 45.5724
4.268, 2, 35.9445, 48.2371, -14.3078, 97.9396, -51.6295, 45.5724
4.272, 2, 35.9445, 48.2371, -14.3078, 97.9396, -51.6295, 45.5724
4.276, 2, 35.9445, 48.2371, -14.3078, 97.9396, -51.6295, 45.5724
4.28, 2, 35.9445, 48.2371, -14.3078, 97.9396, -51.6295, 45.5724
4.284, 2, 35.9445, 48.2371, -14.3078, 97.9396, -51.6295, 45.5724
4.288, 2, 35.9445, 48.2371, -14.3078, 97.9396, -51.6295, 45.5724
4.292, 2, 35.9445, 48.2371, -14.3078, 97.9396, -51.6295, 45.5724
4.296, 2, 35.9445, 48.2371, -14.3078, 97.9396, -51.6295, 45.5724
4.3, 2, 35.9445, 48.2371, -14.3078, 97.9396, -51.6295, 45.5724
4.304, 2, 35.9445, 48.2371, -14.3078, 97.9396, -51.6295, 45.5724
4.308, 2, 35.9445, 48.2371, -14.3078, 97.9396, -51.6295, 45.5724
4.312, 2, 35.9445, 48.2371, -14.3078, 97.9396, -51.6295, 45.5724
4.316, 2, 35.9445, 48.2371, -14.3078, 97.9396, -51.6295, 45.5724
4.32, 2, 35.9445, 48.2371, -14.3078, 97.9396, -51.6295, 45.5724
4.324, 2, 35.9445, 48.2371, -14.3078, 97.9396, -51.6295, 45.5724
4.328, 2, 35.9445, 48.2371, -14.3078, 97.9396, -51.6295, 45.5724
4.332, 2, 35.9445, 48.2371, -14.3078, 97.9396, -51.6295, 45.5724
4.336, 2, 35.9445, 48.2371, -14.3078, 97.9396, -51.6295, 45.5724
4.34, 2, 35.9445, 48.2371, -14.3078, 97.9396, -51.6295, 45.5724
4.344, 2, 35.9445, 48.2371, -14.3078, 97.9396, -51.6295, 45.5724
4.348, 2, 35.9445, 48.2371, -14.3078, 97.9396, -51.6295, 45.5724
4.352, 2, 35.9445, 48.2371, -14.3078, 97.9396, -51.6295, 45.5724
4.356, 2, 35.9445, 48.2371, -14.3078, 97.9396, -51.6295, 45.5724
4.36, 2, 35.9445, 48.2371, -14.3078, 97.9396, -51.6295, 45.5724
4.364, 2, 35.9445, 48.2371, -14.3078, 97.9396, -51.6295, 45.5724
4.368, 2, 35.9445, 48.2371, -14.3078, 97.9396, -51.6295, 45.5724
4.372, 2, 35.9445, 48.2371, -14.3078, 97.9396, -51.6295, 45.5724
4.376, 2, 35.9445, 48.2371, -14.3078, 97.9396, -51.6295, 45.5724
4.38, 2, 35.9445, 48.2371, -14.3078, 97.9396, -51.6295, 45.5724
4.384, 2, 35.9445, 48.2371, -14.3078, 97.9396, -51.6295, 45.5724
4.388, 2, 35.9445, 48.2371, -14.3078, 97.9396, -51.6295, 45.5724
4.392, 3, 35.9445, 48.2371, -14.3078, 97.9396, -51.6295, 45.5724
4.396, 3, 35.9445, 48.2371, -14.3078, 97.9396, -51.6295, 45.5724
4.4, 3, 35.9445, 48.2371, -14.3078, 97.9396, -51.6295, 45.5724
4.404, 3, 35.9445, 48.2371, -14.3078, 97.9396, -51.6295, 45.5724
4.408, 3, 35.9445, 48.2371, -14.3078, 97.9396, -51.6295, 45.5724
4.412, 3, 35.9445, 48.2371, -14.3078, 97.9396, -51.6295, 45.5724
4.416, 3, 35.9445, 48.2371, -14.3078, 97.9396, -51.6295, 45.5724
4.42, 3, 35.9445, 48.2371, -14.3078, 97.9396, -51.6295, 45.5724
4.424, 3, 35.9445, 48.2371, -14.3078, 97.9396, -51.6295, 45.5724
4.428, 3, 35.9445, 48.2371, -14.3078, 97.9396, -51.6295, 45.5724
4.432, 4, 35.9445, 48.2371, -14.3078, 97.9396, -51.6295, 45.5724
4.436, 4, 35.9445, 48.2371, -14.3078, 97.9396, -51.6295, 45.5724
4.44, 4, 35.9445, 48.2371, -14.3078, 97.9396, -51.6295, 45.5724
4.444, 4, 35.9445, 48.2371, -14.3078, 97.9396, -51.6295, 45.5724
4.448, 4, 35.9445, 48.2371, -14.3078, 97.9396, -51.6295, 45.5724
4.452, 4, 35.9445, 48.2371, -14.3078, 97.9396, -51.6295, 45.5724
4.456, 4, 35.9445, 48.2371, -14.3078, 97.9396, -51.6295, 45.5724
4.46, 4, 35.9445, 48.2371, -14.3078, 97.9396, -51.6295, 45.5724
4.464, 4, 35.9445, 48.2371, -14.3078, 97.9396, -51.6295, 45.5724
4.468, 4, 35.9445, 48.2371, -14.3078, 97.9396, -51.6295, 45.5724
4.472, 4, 35.9445, 48.2371, -14.3078, 97.9396, -51.6295, 45.5724
4.476, 4, 35.9445, 48.2371, -14.3078, 97.9396, -51.6295, 45.5724
4.48, 4, 35.9445, 48.2371, -14.3078, 97.9396, -51.6295, 45.5724
4.484, 4, 35.9445, 48.2371, -14.3078, 97.9396, -51.6295, 45.5724
4.488, 4, 35.9445, 48.2371, -14.3078, 97.9396, -51.6295, 45.5724
4.492, 4, 35.9445, 48.2371, -14.3078, 97.9396, -51.6295, 45.5724
4.496, 4, 35.9445, 48.2371, -14.3078, 97.9396, -51.6295, 45.5724
4.5, 4, 35.9445, 48.2371, -14.3078, 97.9396, -51.6295, 45.5724
4.504, 4, 35.9445, 48.2371, -14.3078, 97.9396, -51.6295, 45.5724
4.508, 4, 35.9445, 48.2371, -14.3078, 97.9396, -51.6295, 45.5724
4.512, 4, 35.9445, 48.2371, -14.3078, 97.9396, -51.6295, 45.5724
4.516, 4, 35.9445, 48.2371, -14.3078, 97.9396, -51.6295, 45.5724
4.52, 4, 35.9445, 48.2371, -14.3078, 97.9396, -51.6295, 45.5724
4.524, 4, 35.9445, 48.2371, -14.3078, 97.9396, -51.6295, 45.5724
4.528, 4, 35.9445, 48.2371, -14.3078, 97.9396, -51.6295, 45.5724
4.532, 5, 35.9445, 48.2371, -14.3078, 97.9396, -51.6295, 45.5724
4.536, 5, 35.9445, 48.2371, -14.3078, 97.9396, -51.6295, 45.5724
4.54, 5, 35.9445, 48.2371, -14.3078, 97.9396, -51.6295, 45.5724
4.544, 5, 35.9445, 48.2371, -14.3078, 97.9396, -51.6295, 45.5724
4.548, 5, 35.9445, 48.2371, -14.3078, 97.9396, -51.6295, 45.5724
4.552, 5, 35.9445, 48.2371, -14.3078, 97.9396, -51.6295, 45.5724
4.556, 5, 35.9445, 48.2371, -14.3078, 97.9396, -51.6295, 45.5724
4.56, 5, 35.9445, 48.2371, -14.3078, 97.9396, -51.6295, 45.5724
4.564, 5, 35.9445, 48.2371, -14.3078, 97.9396, -51.6295, 45.5724
4.568, 5, 35.9445, 48.2372, -14.3078, 97.9396, -51.6295, 45.5724
4.572, 5, 35.9445, 48.2373, -14.3078, 97.9396, -51.6296, 45.5724
4.576, 5, 35.9445, 48.2377, -14.3078, 97.9396, -51.6296, 45.5724
4.58, 5, 35.9445, 48.2384, -14.3079, 97.9396, -51.6297, 45.5724
4.585, 6, 35.9444, 48.2397, -14.3079, 97.9395, -51.6301, 45.5723
4.588, 6, 35.9443, 48.2415, -14.308, 97.9395, -51.6307, 45.5721
4.591, 6, 35.9441, 48.2441, -14.3081, 97.9393, -51.632, 45.5717
4.596, 6, 35.9439, 48.2475, -14.3084, 97.9391, -51.6343, 45.571
4.6, 6, 35.9436, 48.2519, -14.3088, 97.9387, -51.6379, 45.5698
4.604, 6, 35.9433, 48.2575, -14.3094, 97.9381, -51.6434, 45.5681
4.608, 6, 35.9429, 48.2645, -14.3103, 97.9372, -51.6514, 45.5656
4.612, 6, 35.9424, 48.2731, -14.3116, 97.9359, -51.6627, 45.5621
4.616, 6, 35.9419, 48.2835, -14.3133, 97.9342, -51.678, 45.5573
4.62, 6, 35.9412, 48.2959, -14.3155, 97.9319, -51.6983, 45.551
4.624, 6, 35.9405, 48.3104, -14.3184, 97.9288, -51.7245, 45.5429
4.628, 6, 35.9398, 48.3268, -14.3221, 97.925, -51.7577, 45.5326
4.632, 6, 35.939, 48.3453, -14.3266, 97.9202, -51.7987, 45.5199
4.636, 6, 35.9381, 48.3659, -14.332, 97.9144, -51.8485, 45.5045
4.64, 6, 35.9373, 48.3887, -14.3384, 97.9073, -51.9077, 45.4863
4.644, 6, 35.9364, 48.4138, -14.3458, 97.899, -51.977, 45.4649
4.648, 6, 35.9356, 48.4411, -14.3543, 97.8894, -52.0567, 45.4404
4.652, 6, 35.9347, 48.4708, -14.3639, 97.8783, -52.1472, 45.4126
4.656, 6, 35.934, 48.5027, -14.3745, 97.8658, -52.2485, 45.3815
4.66, 6, 35.9333, 48.5368, -14.3862, 97.8518, -52.3603, 45.3473
4.664, 6, 35.9327, 48.5729, -14.3988, 97.8363, -52.4825, 45.31
4.668, 6, 35.9322, 48.6112, -14.4122, 97.8194, -52.6143, 45.2698
4.672, 6, 35.9317, 48.6515, -14.4264, 97.8011, -52.755, 45.2271
4.676, 6, 35.9313, 48.694, -14.4413, 97.7815, -52.9038, 45.1819
4.68, 6, 35.9308, 48.7386, -14.4567, 97.7606, -53.0598, 45.1347
4.684, 6, 35.9303, 48.7852, -14.4725, 97.7386, -53.222, 45.0858
4.688, 6, 35.9296, 48.8337, -14.4886, 97.7156, -53.3894, 45.0354
4.692, 6, 35.9289, 48.8839, -14.5049, 97.6916, -53.5612, 44.9838
4.696, 6, 35.928, 48.9355, -14.5212, 97.6668, -53.7365, 44.9313
4.7, 6, 35.927, 48.9884, -14.5376, 97.6412, -53.9145, 44.8781
4.704, 6, 35.9258, 49.0426, -14.5538, 97.6148, -54.0946, 44.8245
4.708, 6, 35.9244, 49.0977, -14.5699, 97.5879, -54.2762, 44.7706
4.712, 6, 35.9229, 49.1537, -14.5858, 97.5603, -54.4589, 44.7165
4.716, 6, 35.9211, 49.2105, -14.6015, 97.5322, -54.6422, 44.6624
4.72, 6, 35.9192, 49.2677, -14.6169, 97.5036, -54.8259, 44.6083
4.724, 6, 35.917, 49.3254, -14.6319, 97.4745, -55.0099, 44.5543
4.728, 6, 35.9147, 49.3832, -14.6467, 97.445, -55.1939, 44.5005
4.732, 6, 35.9123, 49.4411, -14.6611, 97.415, -55.3779, 44.4468
4.736, 6, 35.9097, 49.499, -14.6752, 97.3846, -55.5619, 44.3933
4.74, 6, 35.907, 49.5569, -14.6889, 97.3537, -55.7458, 44.3399
4.744, 6, 35.9041, 49.6146, -14.7023, 97.3224, -55.9295, 44.2868
4.748, 6, 35.9011, 49.6722, -14.7153, 97.2907, -56.1131, 44.2338
4.752, 6, 35.8979, 49.7298, -14.728, 97.2586, -56.2966, 44.181
4.756, 6, 35.8946, 49.7871, -14.7403, 97.2261, -56.4798, 44.1284
4.76, 6, 35.8911, 49.8443, -14.7523, 97.1932, -56.6629, 44.076
4.764, 6, 35.8876, 49.9014, -14.7639, 97.1598, -56.8459, 44.0238
4.768, 6, 35.8838, 49.9582, -14.7751, 97.1261, -57.0286, 43.9717
4.772, 6, 35.88, 50.015, -14.786, 97.0919, -57.2112, 43.9199
4.776, 6, 35.876, 50.0715, -14.7965, 97.0574, -57.3936, 43.8682
4.78, 6, 35.8718, 50.1279, -14.8066, 97.0225, -57.5758, 43.8167
4.784, 6, 35.8675, 50.184, -14.8164, 96.9872, -57.7578, 43.7654
4.788, 6, 35.8631, 50.2401, -14.8258, 96.9515, -57.9397, 43.7142
4.792, 6, 35.8586, 50.2959, -14.8349, 96.9154, -58.1213, 43.6633
4.796, 6, 35.8539, 50.3516, -14.8436, 96.8789, -58.3028, 43.6124
4.8, 6, 35.849, 50.407, -14.8519, 96.842, -58.4841, 43.5618
4.804, 6, 35.8441, 50.4623, -14.8598, 96.8048, -58.6652, 43.5113
4.808, 6, 35.839, 50.5174, -14.8674, 96.7672, -58.8462, 43.461
4.812, 6, 35.8337, 50.5723, -14.8746, 96.7292, -59.0269, 43.4108
4.816, 6, 35.8284, 50.6271, -14.8814, 96.6909, -59.2075, 43.3608
4.82, 6, 35.8228, 50.6816, -14.8878, 96.6522, -59.3879, 43.3109
4.824, 6, 35.8172, 50.736, -14.8939, 96.6131, -59.5681, 43.2612
4.828, 6, 35.8114, 50.7901, -14.8996, 96.5736, -59.7481, 43.2117
4.832, 6, 35.8055, 50.8441, -14.9049, 96.5338, -59.928, 43.1622
4.836, 6, 35.7994, 50.8979, -14.9098, 96.4937, -60.1076, 43.1129
4.84, 6, 35.7932, 50.9515, -14.9144, 96.4532, -60.2871, 43.0638
4.844, 6, 35.7869, 51.0048, -14.9185, 96.4123, -60.4664, 43.0148
4.848, 6, 35.7804, 51.058, -14.9223, 96.3711, -60.6455, 42.966
4.852, 6, 35.7738, 51.111, -14.9257, 96.3295, -60.8245, 42.9172
4.856, 6, 35.7671, 51.1638, -14.9287, 96.2876, -61.0033, 42.8686
4.86, 6, 35.7602, 51.2164, -14.9314, 96.2453, -61.1818, 42.8202
4.864, 6, 35.7532, 51.2688, -14.9336, 96.2027, -61.3602, 42.7718
4.868, 6, 35.7461, 51.321, -14.9354, 96.1597, -61.5385, 42.7236
4.872, 6, 35.7388, 51.373, -14.9369, 96.1165, -61.7165, 42.6755
4.876, 6, 35.7314, 51.4248, -14.938, 96.0728, -61.8944, 42.6275
4.88, 6, 35.7238, 51.4764, -14.9386, 96.0289, -62.0721, 42.5797
4.884, 6, 35.7161, 51.5277, -14.9389, 95.9846, -62.2496, 42.5319
4.888, 6, 35.7083, 51.5789, -14.9388, 95.94, -62.4269, 42.4843
4.892, 6, 35.7004, 51.6298, -14.9383, 95.895, -62.604, 42.4368
4.896, 6, 35.6923, 51.6806, -14.9374, 95.8497, -62.781, 42.3894
4.9, 6, 35.6841, 51.7311, -14.9361, 95.8041, -62.9578, 42.342
4.904, 6, 35.6757, 51.7814, -14.9344, 95.7582, -63.1344, 42.2948
4.908, 6, 35.6672, 51.8315, -14.9323, 95.712, -63.3108, 42.2478
4.912, 6, 35.6586, 51.8814, -14.9298, 95.6654, -63.4871, 42.2008
4.916, 6, 35.6498, 51.9311, -14.9269, 95.6185, -63.6631, 42.1539
4.92, 6, 35.6409, 51.9806, -14.9236, 95.5714, -63.839, 42.1071
4.924, 6, 35.6319, 52.0298, -14.9198, 95.5238, -64.0147, 42.0603
4.928, 6, 35.6227, 52.0788, -14.9157, 95.476, -64.1903, 42.0137
4.932, 6, 35.6134, 52.1276, -14.9112, 95.4279, -64.3656, 41.9672
4.936, 6, 35.604, 52.1762, -14.9063, 95.3795, -64.5408, 41.9208
4.94, 6, 35.5945, 52.2245, -14.9009, 95.3307, -64.7158, 41.8744
4.944, 6, 35.5848, 52.2727, -14.8951, 95.2817, -64.8906, 41.8282
4.948, 6, 35.5749, 52.3206, -14.889, 95.2324, -65.0652, 41.782
4.952, 6, 35.565, 52.3683, -14.8824, 95.1827, -65.2397, 41.7359
4.956, 6, 35.5549, 52.4157, -14.8754, 95.1328, -65.414, 41.6898
4.96, 6, 35.5446, 52.4629, -14.868, 95.0825, -65.5881, 41.6439
4.964, 6, 35.5343, 52.5099, -14.8602, 95.032, -65.7621, 41.598
4.968, 6, 35.5238, 52.5567, -14.8519, 94.9812, -65.9359, 41.5522
4.972, 6, 35.5132, 52.6032, -14.8433, 94.93, -66.1095, 41.5065
4.976, 6, 35.5024, 52.6495, -14.8342, 94.8786, -66.2829, 41.4609
4.98, 6, 35.4915, 52.6956, -14.8247, 94.8269, -66.4562, 41.4153
4.984, 6, 35.4805, 52.7414, -14.8148, 94.7749, -66.6293, 41.3698
4.988, 6, 35.4693, 52.787, -14.8045, 94.7226, -66.8022, 41.3243
4.992, 6, 35.458, 52.8324, -14.7937, 94.67, -66.9749, 41.2789
4.996, 6, 35.4466, 52.8775, -14.7826, 94.6172, -67.1475, 41.2336
5, 6, 35.4351, 52.9224, -14.771, 94.564, -67.3199, 41.1883
5.004, 6, 35.4234, 52.9671, -14.759, 94.5106, -67.4922, 41.1431
5.008, 6, 35.4116, 53.0115, -14.7466, 94.4569, -67.6643, 41.098
5.012, 6, 35.3996, 53.0557, -14.7338, 94.4029, -67.8362, 41.0529
5.016, 6, 35.3876, 53.0996, -14.7206, 94.3486, -68.0079, 41.0078
5.02, 6, 35.3754, 53.1433, -14.7069, 94.2941, -68.1795, 40.9628
5.024, 6, 35.363, 53.1868, -14.6928, 94.2392, -68.3509, 40.9179
5.028, 6, 35.3506, 53.23, -14.6783, 94.1841, -68.5222, 40.873
5.032, 6, 35.338, 53.273, -14.6634, 94.1288, -68.6933, 40.8282
5.036, 6, 35.3253, 53.3158, -14.6481, 94.0731, -68.8642, 40.7834
5.04, 6, 35.3124, 53.3583, -14.6323, 94.0172, -69.0349, 40.7386
5.044, 6, 35.2994, 53.4005, -14.6162, 93.9611, -69.2055, 40.6939
5.048, 6, 35.2863, 53.4425, -14.5996, 93.9046, -69.376, 40.6492
5.052, 6, 35.2731, 53.4843, -14.5826, 93.8479, -69.5462, 40.6046
5.056, 6, 35.2597, 53.5258, -14.5651, 93.7909, -69.7163, 40.56
5.06, 6, 35.2462, 53.567, -14.5473, 93.7337, -69.8863, 40.5154
5.064, 7, 35.2326, 53.6081, -14.529, 93.6762, -70.0561, 40.4709
5.07, 7, 35.2188, 53.6488, -14.5103, 93.6184, -70.2257, 40.4264
5.071, 7, 35.205, 53.6893, -14.4912, 93.5604, -70.3951, 40.382
5.076, 7, 35.1909, 53.7296, -14.4716, 93.5021, -70.5644, 40.3375
5.08, 7, 35.1768, 53.7696, -14.4516, 93.4436, -70.7336, 40.2931
5.084, 7, 35.1625, 53.8094, -14.4312, 93.3848, -70.9025, 40.2487
5.088, 7, 35.1481, 53.8489, -14.4104, 93.3258, -71.0714, 40.2044
5.092, 7, 35.1336, 53.8881, -14.3892, 93.2664, -71.24, 40.1601
5.096, 7, 35.119, 53.9271, -14.3675, 93.2069, -71.4085, 40.1157
5.1, 7, 35.1042, 53.9658, -14.3454, 93.1471, -71.5769, 40.0715
5.104, 7, 35.0893, 54.0043, -14.3229, 93.087, -71.745, 40.0272
5.108, 7, 35.0743, 54.0425, -14.2999, 93.0267, -71.9131, 39.9829
5.112, 7, 35.0591, 54.0805, -14.2766, 92.9661, -72.0809, 39.9387
5.116, 7, 35.0438, 54.1182, -14.2528, 92.9053, -72.2486, 39.8945
5.12, 7, 35.0284, 54.1556, -14.2285, 92.8443, -72.4162, 39.8503
5.124, 7, 35.0129, 54.1928, -14.2039, 92.783, -72.5836, 39.8061
5.128, 7, 34.9972, 54.2296, -14.1787, 92.7215, -72.7508, 39.7619
5.132, 7, 34.9813, 54.266, -14.1532, 92.6597, -72.9178, 39.7177
5.136, 7, 34.9652, 54.3018, -14.1271, 92.5976, -73.0847, 39.6736
5.14, 7, 34.9489, 54.3369, -14.1004, 92.5353, -73.2513, 39.6296
5.144, 7, 34.9321, 54.3709, -14.073, 92.4727, -73.4176, 39.5858
5.148, 7, 34.9151, 54.4036, -14.0448, 92.4098, -73.5833, 39.5425
5.152, 7, 34.8977, 54.435, -14.0155, 92.3464, -73.7483, 39.4998
5.156, 7, 34.8799, 54.4648, -13.9849, 92.2826, -73.9122, 39.458
5.16, 7, 34.8619, 54.4931, -13.9526, 92.2182, -74.0747, 39.4177
5.164, 7, 34.8436, 54.5197, -13.9183, 92.1531, -74.2354, 39.3791
5.168, 7, 34.825, 54.5447, -13.8818, 92.0873, -74.3936, 39.3429
5.172, 7, 34.8062, 54.5678, -13.8425, 92.0206, -74.549, 39.3094
5.176, 7, 34.7869, 54.5889, -13.8, 91.9531, -74.7009, 39.2793
5.18, 7, 34.7673, 54.608, -13.7542, 91.8846, -74.8488, 39.2531
5.184, 7, 34.7473, 54.6248, -13.7045, 91.815, -74.992, 39.2313
5.188, 7, 34.727, 54.6394, -13.6508, 91.7444, -75.1302, 39.2143
5.192, 7, 34.7063, 54.6517, -13.5928, 91.6727, -75.263, 39.2024
5.196, 7, 34.6852, 54.6617, -13.5304, 91.5998, -75.39, 39.196
5.2, 7, 34.6639, 54.6695, -13.4637, 91.5259, -75.5111, 39.1951
5.204, 7, 34.6421, 54.675, -13.3926, 91.451, -75.6263, 39.1996
5.208, 7, 34.62, 54.6782, -13.3174, 91.3751, -75.7359, 39.2094
5.212, 7, 34.5975, 54.6792, -13.2383, 91.2984, -75.8402, 39.2241
5.216, 7, 34.5745, 54.6781, -13.1556, 91.2209, -75.9394, 39.2433
5.22, 7, 34.5512, 54.6751, -13.0696, 91.1427, -76.0342, 39.2667
5.224, 7, 34.5275, 54.6703, -12.9808, 91.064, -76.1251, 39.2936
5.228, 7, 34.5036, 54.6638, -12.8894, 90.9848, -76.2125, 39.3235
5.232, 7, 34.4794, 54.6557, -12.796, 90.9052, -76.2972, 39.3561
5.236, 7, 34.4549, 54.6458, -12.7008, 90.8252, -76.3796, 39.3906
5.24, 7, 34.4302, 54.6344, -12.6043, 90.7451, -76.4603, 39.4267
5.244, 7, 34.4052, 54.6215, -12.5066, 90.6648, -76.5396, 39.464
5.248, 7, 34.38, 54.6072, -12.4081, 90.5844, -76.618, 39.502
5.252, 7, 34.3544, 54.5917, -12.309, 90.5039, -76.6957, 39.5406
5.256, 7, 34.3286, 54.5754, -12.2094, 90.4233, -76.7731, 39.5795
5.26, 7, 34.3027, 54.5583, -12.1095, 90.3428, -76.8501, 39.6186
5.264, 7, 34.2765, 54.5408, -12.0094, 90.2623, -76.927, 39.6577
5.268, 7, 34.2502, 54.5229, -11.9091, 90.1819, -77.0038, 39.6969
5.272, 7, 34.2238, 54.5048, -11.8088, 90.1014, -77.0806, 39.736
5.276, 7, 34.1973, 54.4865, -11.7083, 90.021, -77.1573, 39.775
5.28, 7, 34.1707, 54.468, -11.6078, 89.9407, -77.2341, 39.8139
5.284, 7, 34.144, 54.4494, -11.5072, 89.8603, -77.3109, 39.8526
5.288, 7, 34.1173, 54.4307, -11.4066, 89.7801, -77.3877, 39.8913
5.292, 7, 34.0905, 54.4119, -11.306, 89.6999, -77.4646, 39.9298
5.296, 7, 34.0636, 54.393, -11.2053, 89.6197, -77.5415, 39.9682
5.3, 7, 34.0367, 54.374, -11.1046, 89.5396, -77.6185, 40.0064
5.304, 8, 34.0097, 54.355, -11.0039, 89.4595, -77.6955, 40.0445
5.31, 8, 33.9826, 54.3359, -10.9032, 89.3794, -77.7726, 40.0824
5.312, 8, 33.9554, 54.3167, -10.8024, 89.2994, -77.8497, 40.1202
5.316, 8, 33.9282, 54.2975, -10.7017, 89.2195, -77.9269, 40.1578
5.32, 8, 33.901, 54.2782, -10.6009, 89.1396, -78.0041, 40.1953
5.324, 8, 33.8736, 54.2588, -10.5001, 89.0597, -78.0815, 40.2326
5.328, 8, 33.8462, 54.2394, -10.3993, 88.9799, -78.1588, 40.2698
5.332, 8, 33.8188, 54.2199, -10.2984, 88.9002, -78.2362, 40.3068
5.336, 8, 33.7912, 54.2004, -10.1976, 88.8204, -78.3137, 40.3437
5.34, 8, 33.7637, 54.1807, -10.0967, 88.7408, -78.3913, 40.3804
5.344, 8, 33.736, 54.1611, -9.99583, 88.6611, -78.4689, 40.4169
5.348, 8, 33.7083, 54.1413, -9.89493, 88.5816, -78.5465, 40.4533
5.352, 8, 33.6805, 54.1215, -9.79401, 88.502, -78.6242, 40.4896
5.356, 8, 33.6526, 54.1016, -9.69308, 88.4225, -78.702, 40.5257
5.36, 8, 33.6247, 54.0817, -9.59213, 88.343, -78.7798, 40.5616
5.364, 8, 33.5967, 54.0617, -9.49117, 88.2636, -78.8577, 40.5974
5.368, 8, 33.5687, 54.0416, -9.39019, 88.1842, -78.9356, 40.633
5.372, 8, 33.5406, 54.0215, -9.2892, 88.1049, -79.0136, 40.6685
5.376, 8, 33.5124, 54.0013, -9.18819, 88.0256, -79.0917, 40.7038
5.38, 8, 33.4842, 53.981, -9.08716, 87.9463, -79.1698, 40.739
5.384, 8, 33.4559, 53.9606, -8.98612, 87.8671, -79.2479, 40.774
5.388, 8, 33.4275, 53.9402, -8.88507, 87.7879, -79.3261, 40.8088
5.392, 8, 33.3991, 53.9198, -8.784, 87.7088, -79.4044, 40.8435
5.396, 8, 33.3706, 53.8992, -8.68292, 87.6297, -79.4827, 40.878
5.4, 8, 33.342, 53.8786, -8.58182, 87.5506, -79.5611, 40.9124
5.404, 8, 33.3134, 53.8579, -8.4807, 87.4716, -79.6395, 40.9466
5.408, 8, 33.2847, 53.8372, -8.37957, 87.3926, -79.718, 40.9807
5.412, 8, 33.2559, 53.8164, -8.27843, 87.3136, -79.7965, 41.0146
5.416, 8, 33.2271, 53.7955, -8.17727, 87.2347, -79.8751, 41.0483
5.42, 8, 33.1982, 53.7746, -8.0761, 87.1558, -79.9538, 41.0819
5.424, 8, 33.1693, 53.7536, -7.97491, 87.0769, -80.0325, 41.1154
5.428, 8, 33.1402, 53.7325, -7.87371, 86.9981, -80.1112, 41.1486
5.432, 8, 33.1112, 53.7113, -7.7725, 86.9193, -80.19, 41.1818
5.436, 8, 33.082, 53.6901, -7.67127, 86.8406, -80.2689, 41.2147
5.44, 8, 33.0528, 53.6688, -7.57002, 86.7618, -80.3478, 41.2475
5.444, 8, 33.0235, 53.6474, -7.46876, 86.6831, -80.4268, 41.2802
5.448, 8, 32.9942, 53.626, -7.36749, 86.6045, -80.5058, 41.3126
5.452, 8, 32.9648, 53.6045, -7.2662, 86.5258, -80.5849, 41.345
5.456, 8, 32.9353, 53.5829, -7.16491, 86.4472, -80.664, 41.3771
5.46, 8, 32.9057, 53.5613, -7.06359, 86.3687, -80.7432, 41.4091
5.464, 8, 32.8761, 53.5396, -6.96227, 86.2901, -80.8224, 41.441
5.468, 8, 32.8464, 53.5178, -6.86093, 86.2116, -80.9017, 41.4727
5.472, 8, 32.8167, 53.496, -6.75957, 86.1331, -80.981, 41.5042
5.476, 8, 32.7869, 53.474, -6.65821, 86.0547, -81.0604, 41.5355
5.48, 8, 32.757, 53.452, -6.55683, 85.9762, -81.1398, 41.5667
5.484, 8, 32.7271, 53.43, -6.45544, 85.8978, -81.2193, 41.5978
5.488, 8, 32.6971, 53.4078, -6.35403, 85.8195, -81.2988, 41.6286
5.492, 8, 32.667, 53.3856, -6.25262, 85.7411, -81.3784, 41.6594
5.496, 8, 32.6369, 53.3633, -6.15119, 85.6628, -81.458, 41.6899
5.5, 8, 32.6067, 53.341, -6.04974, 85.5845, -81.5377, 41.7203
5.504, 8, 32.5764, 53.3185, -5.94829, 85.5062, -81.6174, 41.7505
5.508, 8, 32.5461, 53.296, -5.84683, 85.4279, -81.6972, 41.7806
5.512, 8, 32.5157, 53.2735, -5.74535, 85.3497, -81.777, 41.8105
5.516, 8, 32.4852, 53.2508, -5.64386, 85.2715, -81.8569, 41.8402
5.52, 8, 32.4547, 53.2281, -5.54236, 85.1933, -81.9368, 41.8698
5.524, 8, 32.424, 53.2053, -5.44084, 85.1152, -82.0168, 41.8992
5.528, 8, 32.3934, 53.1824, -5.33932, 85.037, -82.0968, 41.9284
5.532, 8, 32.3626, 53.1595, -5.23778, 84.9589, -82.1768, 41.9575
5.536, 8, 32.3318, 53.1364, -5.13624, 84.8808, -82.2569, 41.9864
5.54, 8, 32.301, 53.1133, -5.03468, 84.8027, -82.3371, 42.0152
5.544, 8, 32.27, 53.0902, -4.93311, 84.7247, -82.4173, 42.0438
5.548, 8, 32.239, 53.0669, -4.83153, 84.6466, -82.4975, 42.0722
5.552, 8, 32.208, 53.0436, -4.72994, 84.5686, -82.5778, 42.1004
5.556, 8, 32.1768, 53.0202, -4.62834, 84.4906, -82.6582, 42.1285
5.56, 8, 32.1456, 52.9967, -4.52673, 84.4126, -82.7386, 42.1564
5.564, 8, 32.1144, 52.9732, -4.42511, 84.3346, -82.819, 42.1842
5.568, 8, 32.083, 52.9495, -4.32348, 84.2567, -82.8995, 42.2118
5.572, 8, 32.0516, 52.9258, -4.22184, 84.1788, -82.98, 42.2392
5.576, 8, 32.0202, 52.902, -4.12019, 84.1008, -83.0606, 42.2664
5.58, 8, 31.9886, 52.8782, -4.01852, 84.0229, -83.1412, 42.2935
5.584, 8, 31.957, 52.8542, -3.91685, 83.945, -83.2218, 42.3204
5.588, 8, 31.9254, 52.8302, -3.81517, 83.8671, -83.3025, 42.3472
5.593, 9, 31.8936, 52.8061, -3.71348, 83.7893, -83.3833, 42.3737
5.596, 9, 31.8618, 52.7819, -3.61178, 83.7114, -83.464, 42.4001
5.6, 9, 31.8299, 52.7576, -3.51004, 83.6336, -83.5449, 42.4264
5.604, 9, 31.7978, 52.7332, -3.40826, 83.5557, -83.6257, 42.4525
5.608, 9, 31.7656, 52.7084, -3.3064, 83.4779, -83.7066, 42.4785
5.612, 9, 31.7333, 52.6834, -3.20439, 83.4, -83.7874, 42.5046
5.616, 9, 31.7007, 52.658, -3.10217, 83.322, -83.8682, 42.5309
5.62, 9, 31.668, 52.6322, -2.99964, 83.2438, -83.9488, 42.5575
5.624, 9, 31.6351, 52.6058, -2.89667, 83.1654, -84.029, 42.585
5.628, 9, 31.602, 52.5789, -2.79312, 83.0866, -84.1088, 42.6136
5.632, 9, 31.5688, 52.5512, -2.68882, 83.0073, -84.1878, 42.644
5.636, 9, 31.5354, 52.5228, -2.58358, 82.9274, -84.266, 42.6766
5.64, 9, 31.5018, 52.4935, -2.4772, 82.8466, -84.3429, 42.7121
5.644, 9, 31.4679, 52.4633, -2.36944, 82.7649, -84.4185, 42.751
5.648, 9, 31.4338, 52.4322, -2.26011, 82.682, -84.4923, 42.7942
5.652, 9, 31.3994, 52.4001, -2.14898, 82.5977, -84.5642, 42.8423
5.656, 9, 31.3648, 52.367, -2.03587, 82.5119, -84.6339, 42.8959
5.66, 9, 31.33, 52.3331, -1.92061, 82.4244, -84.7013, 42.9555
5.664, 9, 31.2949, 52.2984, -1.80308, 82.3351, -84.766, 43.0217
5.668, 9, 31.2596, 52.2629, -1.68319, 82.2439, -84.8281, 43.0947
5.672, 9, 31.2241, 52.2267, -1.56092, 82.1507, -84.8875, 43.1748
5.676, 9, 31.1884, 52.1896, -1.43628, 82.0556, -84.9443, 43.2619
5.68, 9, 31.1524, 52.1516, -1.30934, 81.9586, -84.9985, 43.3557
5.684, 9, 31.1161, 52.1126, -1.18022, 81.8598, -85.0503, 43.4561
5.688, 9, 31.0796, 52.0727, -1.04909, 81.7593, -85.1, 43.5624
5.692, 9, 31.0429, 52.0318, -0.916136, 81.6572, -85.1477, 43.6743
5.696, 9, 31.0059, 51.99, -0.781579, 81.5538, -85.1938, 43.791
5.7, 9, 30.9688, 51.9473, -0.645659, 81.4492, -85.2385, 43.912
5.704, 9, 30.9314, 51.904, -0.508619, 81.3436, -85.282, 44.0365
5.708, 9, 30.8939, 51.86, -0.370696, 81.2371, -85.3247, 44.164
5.712, 9, 30.856, 51.8155, -0.232115, 81.13, -85.3667, 44.2938
5.716, 9, 30.8179, 51.7706, -0.0930833, 81.0224, -85.4083, 44.4254
5.72, 9, 30.7795, 51.7254, 0.0462175, 80.9144, -85.4497, 44.5582
5.724, 9, 30.7409, 51.6801, 0.185631, 80.8062, -85.491, 44.6919
5.728, 9, 30.702, 51.6345, 0.32503, 80.6979, -85.5324, 44.8262
5.732, 9, 30.6628, 51.589, 0.464314, 80.5895, -85.5739, 44.9609
5.736, 9, 30.6235, 51.5435, 0.603404, 80.481, -85.6155, 45.0957
5.74, 9, 30.5841, 51.4981, 0.742245, 80.3726, -85.6574, 45.2307
5.744, 9, 30.5444, 51.4529, 0.880798, 80.2642, -85.6995, 45.3656
5.748, 9, 30.5046, 51.4078, 1.01904, 80.1558, -85.7419, 45.5004
5.752, 9, 30.4647, 51.3629, 1.15694, 80.0475, -85.7846, 45.6352
5.756, 9, 30.4247, 51.3183, 1.2945, 79.9392, -85.8275, 45.7698
5.76, 9, 30.3845, 51.2739, 1.43172, 79.8311, -85.8708, 45.9043
5.764, 9, 30.3443, 51.2297, 1.56857, 79.7229, -85.9143, 46.0386
5.768, 9, 30.3039, 51.1857, 1.70507, 79.6149, -85.9582, 46.1728
5.772, 9, 30.2634, 51.142, 1.84121, 79.5069, -86.0023, 46.3068
5.776, 9, 30.2228, 51.0985, 1.97698, 79.399, -86.0468, 46.4407
5.78, 9, 30.182, 51.0553, 2.1124, 79.2912, -86.0915, 46.5744
5.784, 9, 30.1412, 51.0122, 2.24745, 79.1835, -86.1365, 46.7079
5.788, 9, 30.1003, 50.9695, 2.38215, 79.0758, -86.1819, 46.8413
5.792, 9, 30.0592, 50.9269, 2.51649, 78.9682, -86.2275, 46.9745
5.796, 9, 30.018, 50.8847, 2.65046, 78.8607, -86.2735, 47.1075
5.8, 9, 29.9767, 50.8426, 2.78409, 78.7533, -86.3197, 47.2403
5.804, 9, 29.9353, 50.8008, 2.91735, 78.6459, -86.3663, 47.373
5.808, 9, 29.8938, 50.7592, 3.05026, 78.5386, -86.4131, 47.5055
5.812, 9, 29.8522, 50.7179, 3.18281, 78.4314, -86.4602, 47.6379
5.816, 9, 29.8104, 50.6767, 3.31502, 78.3243, -86.5077, 47.77
5.82, 9, 29.7686, 50.6357, 3.44687, 78.2173, -86.5554, 47.902
5.824, 9, 29.7267, 50.5947, 3.57839, 78.1103, -86.6034, 48.0338
5.828, 9, 29.6847, 50.5539, 3.70957, 78.0035, -86.6516, 48.1653
5.832, 9, 29.6426, 50.5129, 3.84042, 77.8968, -86.7, 48.2966
5.836, 9, 29.6004, 50.4719, 3.97097, 77.7902, -86.7485, 48.4274
5.84, 9, 29.5582, 50.4307, 4.10122, 77.6839, -86.7972, 48.5578
5.844, 9, 29.5159, 50.3893, 4.23119, 77.5778, -86.8458, 48.6875
5.848, 9, 29.4736, 50.3476, 4.36091, 77.4719, -86.8942, 48.8165
5.852, 9, 29.4312, 50.3055, 4.49039, 77.3664, -86.9425, 48.9447
5.856, 9, 29.3887, 50.263, 4.61966, 77.2613, -86.9903, 49.0717
5.86, 9, 29.3462, 50.22, 4.74875, 77.1567, -87.0377, 49.1975
5.864, 9, 29.3036, 50.1766, 4.87767, 77.0525, -87.0845, 49.3219
5.868, 9, 29.2609, 50.1327, 5.00645, 76.9489, -87.1305, 49.4447
5.872, 9, 29.2181, 50.0885, 5.1351, 76.8459, -87.1757, 49.5657
5.876, 9, 29.1751, 50.0441, 5.26366, 76.7435, -87.2199, 49.6849
5.88, 9, 29.1321, 49.9996, 5.39213, 76.6418, -87.2631, 49.8021
5.884, 9, 29.0889, 49.9549, 5.52052, 76.5408, -87.3052, 49.9172
5.888, 9, 29.0455, 49.9101, 5.64884, 76.4405, -87.3461, 50.0302
5.892, 9, 29.002, 49.8652, 5.77709, 76.3409, -87.386, 50.1412
5.896, 9, 28.9583, 49.8201, 5.90528, 76.242, -87.4247, 50.2501
5.9, 9, 28.9145, 49.7747, 6.03338, 76.1437, -87.4624, 50.3572
5.904, 9, 28.8705, 49.7289, 6.1614, 76.046, -87.4992, 50.4624
5.908, 9, 28.8265, 49.6827, 6.28931, 75.9488, -87.5351, 50.566
5.912, 9, 28.7823, 49.6361, 6.41711, 75.8521, -87.5703, 50.6681
5.916, 9, 28.7381, 49.589, 6.54478, 75.7558, -87.6048, 50.7688
5.92, 9, 28.6938, 49.5414, 6.6723, 75.6598, -87.6387, 50.8684
5.924, 9, 28.6494, 49.4934, 6.79966, 75.5642, -87.6723, 50.967
5.928, 9, 28.6049, 49.4451, 6.92683, 75.4688, -87.7055, 51.0648
5.932, 9, 28.5604, 49.3964, 7.0538, 75.3735, -87.7386, 51.162
5.936, 9, 28.5159, 49.3474, 7.18055, 75.2784, -87.7715, 51.2585
5.94, 9, 28.4712, 49.2982, 7.30709, 75.1835, -87.8045, 51.3547
5.944, 9, 28.4266, 49.2489, 7.43338, 75.0885, -87.8374, 51.4505
5.948, 9, 28.3818, 49.1995, 7.55943, 74.9937, -87.8705, 51.5461
5.952, 9, 28.337, 49.1501, 7.68523, 74.8988, -87.9036, 51.6414
5.956, 9, 28.2921, 49.1008, 7.81077, 74.804, -87.9369, 51.7365
5.96, 9, 28.2471, 49.0515, 7.93605, 74.7092, -87.9704, 51.8315
5.964, 9, 28.202, 49.0024, 8.06107, 74.6144, -88.004, 51.9263
5.968, 9, 28.1568, 48.9534, 8.18583, 74.5196, -88.0378, 52.0209
5.972, 9, 28.1115, 48.9045, 8.31032, 74.4247, -88.0718, 52.1154
5.976, 9, 28.066, 48.8557, 8.43455, 74.3299, -88.1059, 52.2098
5.98, 9, 28.0205, 48.8071, 8.55852, 74.2351, -88.1403, 52.304
5.984, 9, 27.9749, 48.7587, 8.68222, 74.1403, -88.1748, 52.3981
5.988, 9, 27.9292, 48.7104, 8.80566, 74.0454, -88.2095, 52.4921
5.992, 9, 27.8834, 48.6623, 8.92883, 73.9506, -88.2444, 52.586
5.996, 9, 27.8374, 48.6143, 9.05175, 73.8557, -88.2795, 52.6797
6, 9, 27.7914, 48.5665, 9.1744, 73.7609, -88.3147, 52.7733
6.004, 9, 27.7452, 48.5189, 9.29679, 73.666, -88.3501, 52.8667
6.008, 9, 27.699, 48.4714, 9.41892, 73.5711, -88.3857, 52.9601
6.012, 9, 27.6526, 48.4241, 9.54079, 73.4762, -88.4215, 53.0533
6.016, 9, 27.6062, 48.3769, 9.6624, 73.3813, -88.4575, 53.1464
6.02, 9, 27.5596, 48.3299, 9.78375, 73.2864, -88.4937, 53.2393
6.024, 9, 27.5129, 48.2831, 9.90484, 73.1915, -88.53, 53.3322
6.028, 9, 27.4661, 48.2364, 10.0257, 73.0966, -88.5666, 53.4249
6.032, 9, 27.4192, 48.1899, 10.1462, 73.0016, -88.6033, 53.5175
6.036, 9, 27.3722, 48.1436, 10.2666, 72.9067, -88.6402, 53.6099
6.04, 9, 27.3251, 48.0974, 10.3866, 72.8118, -88.6772, 53.7022
6.044, 9, 27.2779, 48.0513, 10.5064, 72.7168, -88.7145, 53.7944
6.048, 9, 27.2305, 48.0054, 10.626, 72.6218, -88.7519, 53.8865
6.052, 9, 27.1831, 47.9597, 10.7453, 72.5269, -88.7895, 53.9785
6.056, 9, 27.1355, 47.9141, 10.8643, 72.4319, -88.8273, 54.0703
6.06, 9, 27.0879, 47.8687, 10.9831, 72.3369, -88.8653, 54.162
6.064, 9, 27.0401, 47.8235, 11.1016, 72.2419, -88.9034, 54.2536
6.068, 9, 26.9922, 47.7784, 11.2199, 72.1469, -88.9417, 54.345
6.072, 9, 26.9442, 47.7334, 11.3379, 72.0518, -88.9802, 54.4364
6.076, 9, 26.8961, 47.6887, 11.4557, 71.9568, -89.0189, 54.5276
6.08, 9, 26.8479, 47.644, 11.5732, 71.8618, -89.0578, 54.6186
6.084, 9, 26.7996, 47.5996, 11.6905, 71.7667, -89.0968, 54.7096
6.088, 9, 26.7511, 47.5553, 11.8075, 71.6717, -89.136, 54.8004
6.092, 9, 26.7026, 47.5111, 11.9243, 71.5766, -89.1754, 54.8911
6.096, 9, 26.6539, 47.4671, 12.0408, 71.4815, -89.2149, 54.9817
6.1, 9, 26.6051, 47.4233, 12.1571, 71.3864, -89.2547, 55.0721
6.104, 9, 26.5563, 47.3796, 12.2731, 71.2913, -89.2946, 55.1624
6.108, 9, 26.5073, 47.336, 12.3888, 71.1962, -89.3347, 55.2526
6.112, 9, 26.4582, 47.2926, 12.5044, 71.1011, -89.3749, 55.3427
6.116, 9, 26.4089, 47.2494, 12.6196, 71.006, -89.4154, 55.4326
6.12, 9, 26.3596, 47.2063, 12.7346, 70.9108, -89.456, 55.5225
6.124, 9, 26.3102, 47.1634, 12.8494, 70.8157, -89.4968, 55.6121
6.128, 9, 26.2606, 47.1206, 12.964, 70.7205, -89.5377, 55.7017
6.132, 9, 26.2109, 47.078, 13.0782, 70.6254, -89.5789, 55.7912
6.136, 9, 26.1612, 47.0356, 13.1923, 70.5302, -89.6202, 55.8805
6.14, 9, 26.1113, 46.9933, 13.3061, 70.435, -89.6616, 55.9697
6.144, 9, 26.0613, 46.9511, 13.4196, 70.3398, -89.7033, 56.0587
6.148, 9, 26.0111, 46.9091, 13.5329, 70.2446, -89.7451, 56.1477
6.152, 9, 25.9608, 46.8671, 13.646, 70.1494, -89.7871, 56.2365
6.156, 9, 25.9104, 46.8251, 13.7589, 70.0541, -89.8292, 56.3252
6.16, 9, 25.8598, 46.783, 13.8716, 69.9589, -89.8715, 56.4139
6.164, 9, 25.809, 46.7407, 13.9841, 69.8636, -89.9138, 56.5027
6.168, 9, 25.758, 46.698, 14.0966, 69.7682, -89.9561, 56.5916
6.172, 9, 25.7069, 46.6548, 14.209, 69.6727, -89.9983, 56.6809
6.176, 9, 25.6556, 46.611, 14.3216, 69.577, -90.0401, 56.7709
6.18, 9, 25.6041, 46.5666, 14.4343, 69.4812, -90.0814, 56.8618
6.184, 9, 25.5524, 46.5215, 14.5472, 69.385, -90.1218, 56.954
6.188, 9, 25.5005, 46.4757, 14.6606, 69.2885, -90.1612, 57.0479
6.193, 10, 25.4484, 46.4293, 14.7745, 69.1916, -90.1992, 57.1439
6.195, 10, 25.396, 46.3822, 14.889, 69.0941, -90.2355, 57.2426
6.2, 10, 25.3433, 46.3343, 15.0044, 68.996, -90.2698, 57.3444
6.204, 10, 25.2904, 46.2856, 15.1207, 68.8972, -90.3017, 57.4496
6.208, 10, 25.2371, 46.2361, 15.238, 68.7976, -90.3309, 57.5589
6.212, 10, 25.1836, 46.1857, 15.3565, 68.697, -90.3573, 57.6725
6.216, 10, 25.1297, 46.1345, 15.4762, 68.5955, -90.3806, 57.7908
6.22, 10, 25.0755, 46.0825, 15.5971, 68.493, -90.4007, 57.9139
6.224, 10, 25.021, 46.0296, 15.7192, 68.3894, -90.4175, 58.0419
6.228, 10, 24.9662, 45.9758, 15.8426, 68.2848, -90.4312, 58.1747
6.232, 10, 24.911, 45.9212, 15.9671, 68.1792, -90.4418, 58.3122
