hehonglu123/Motion-Primitive-Planning/ILC/recorded_data/realrobot/from_NX/iteration_12/run_3.csv
timestamp, cmd_num, J1, J2, J3, J4, J5, J6
0.000376, -1, 39.6301, 32.4471, 11.8319, 12.5453, 113.713, -48.8723
0.005667, -1, 39.6301, 32.4471, 11.8319, 12.5453, 113.713, -48.8723
0.008377, -1, 39.63, 32.4471, 11.8319, 12.5453, 113.713, -48.8723
0.029814, -1, 39.63, 32.4471, 11.8319, 12.5453, 113.713, -48.8723
0.032576, -1, 39.63, 32.4471, 11.8319, 12.5453, 113.713, -48.8723
0.035927, -1, 39.63, 32.4471, 11.8319, 12.5453, 113.713, -48.8723
0.039855, -1, 39.63, 32.4471, 11.8319, 12.5453, 113.713, -48.8724
0.173342, -1, 38.8166, 32.0401, 11.9745, 12.5494, 113.316, -49.8909
0.175634, -1, 38.8166, 32.0401, 11.9745, 12.5494, 113.316, -49.8909
0.177806, -1, 38.7437, 32.0016, 11.9918, 12.5503, 113.274, -49.9992
0.179, -1, 38.7437, 32.0016, 11.9918, 12.5503, 113.274, -49.9992
0.181057, -1, 38.6679, 31.9617, 12.0097, 12.5513, 113.229, -50.1114
0.182277, -1, 38.6679, 31.9617, 12.0097, 12.5513, 113.229, -50.1114
0.183562, -1, 38.6679, 31.9617, 12.0097, 12.5513, 113.229, -50.1114
0.187806, -1, 38.5893, 31.9204, 12.0281, 12.5524, 113.184, -50.2269
0.190525, -1, 38.5083, 31.8778, 12.0468, 12.5535, 113.137, -50.3455
0.191828, -1, 38.5083, 31.8778, 12.0468, 12.5535, 113.137, -50.3455
0.193883, -1, 38.425, 31.8342, 12.0658, 12.5547, 113.089, -50.4668
0.195179, -1, 38.425, 31.8342, 12.0658, 12.5547, 113.089, -50.4668
0.198325, -1, 38.3397, 31.7895, 12.0852, 12.5559, 113.04, -50.5901
0.199649, -1, 38.3397, 31.7895, 12.0852, 12.5559, 113.04, -50.5901
0.201739, -1, 38.2527, 31.7439, 12.1046, 12.5571, 112.991, -50.7151
0.203605, -1, 38.2527, 31.7439, 12.1046, 12.5571, 112.991, -50.7151
0.205591, -1, 38.1642, 31.6977, 12.1242, 12.5583, 112.941, -50.8413
0.206882, -1, 38.1642, 31.6977, 12.1242, 12.5583, 112.941, -50.8413
0.208706, -1, 38.1642, 31.6977, 12.1437, 12.5595, 112.89, -50.9685
0.210158, -1, 38.0743, 31.6508, 12.1437, 12.5595, 112.89, -50.9685
0.211515, -1, 38.0743, 31.6508, 12.1437, 12.5595, 112.89, -50.9685
0.21576, -1, 37.9831, 31.6033, 12.1631, 12.5608, 112.84, -51.0965
0.223742, -1, 37.7973, 31.5071, 12.2019, 12.5631, 112.738, -51.3543
0.231786, -1, 37.6083, 31.4097, 12.2407, 12.5655, 112.636, -51.6134
0.239744, -1, 37.4172, 31.3119, 12.2795, 12.568, 112.533, -51.873
0.247758, -1, 37.2253, 31.2139, 12.3183, 12.5705, 112.431, -52.1324
0.25581, -1, 37.0331, 31.1162, 12.3571, 12.573, 112.328, -52.3922
0.263734, -1, 36.841, 31.0184, 12.3958, 12.5756, 112.225, -52.6525
0.271748, -1, 36.6492, 30.9207, 12.4346, 12.5782, 112.122, -52.913
0.279806, -1, 36.4577, 30.823, 12.4735, 12.5807, 112.019, -53.1731
0.287742, -1, 36.2661, 30.7253, 12.5123, 12.5833, 111.916, -53.4336
0.295746, -1, 36.0746, 30.6274, 12.5512, 12.5859, 111.813, -53.6939
0.304733, -1, 35.8831, 30.5294, 12.5901, 12.5885, 111.71, -53.9547
0.311738, -1, 35.6914, 30.4314, 12.629, 12.5911, 111.607, -54.2151
0.320736, -1, 35.4995, 30.3334, 12.6679, 12.5936, 111.504, -54.4753
0.327838, -1, 35.3073, 30.2351, 12.7067, 12.5963, 111.401, -54.7357
0.335731, -1, 35.1149, 30.1368, 12.7455, 12.5989, 111.298, -54.9964
0.343775, -1, 34.9225, 30.0383, 12.7845, 12.6015, 111.195, -55.2572
0.351805, -1, 34.7303, 29.9398, 12.8233, 12.604, 111.092, -55.5178
0.359757, -1, 34.538, 29.8413, 12.8622, 12.6066, 110.989, -55.7786
0.367755, -1, 34.3458, 29.7429, 12.9012, 12.6092, 110.886, -56.0395
0.375809, -1, 34.1538, 29.6446, 12.9401, 12.6118, 110.783, -56.3004
0.383731, -1, 33.962, 29.5463, 12.979, 12.6144, 110.68, -56.5612
0.391743, -1, 33.7702, 29.448, 13.0179, 12.6171, 110.576, -56.822
0.399815, -1, 33.5783, 29.3496, 13.0568, 12.6197, 110.473, -57.0829
0.407739, -1, 33.3861, 29.2513, 13.0957, 12.6223, 110.37, -57.3441
0.415743, -1, 33.1936, 29.1527, 13.1347, 12.6249, 110.267, -57.605
0.423808, -1, 33.0008, 29.0541, 13.1735, 12.6276, 110.164, -57.866
0.431723, -1, 32.8078, 28.9555, 13.2124, 12.6303, 110.061, -58.127
0.439825, -1, 32.6145, 28.8569, 13.2514, 12.6329, 109.958, -58.3885
0.447755, -1, 32.4209, 28.7582, 13.2902, 12.6356, 109.855, -58.6495
0.45573, -1, 32.227, 28.6596, 13.3291, 12.6383, 109.752, -58.9105
0.464561, -1, 32.0329, 28.5608, 13.368, 12.641, 109.649, -59.1716
0.471804, -1, 31.8391, 28.462, 13.4069, 12.6437, 109.546, -59.433
0.479739, -1, 31.6454, 28.3632, 13.4459, 12.6465, 109.443, -59.6944
0.488548, -1, 31.452, 28.2646, 13.4849, 12.6493, 109.34, -59.9555
0.495898, -1, 31.259, 28.166, 13.5238, 12.6521, 109.237, -60.2169
0.503788, -1, 31.0664, 28.0675, 13.5629, 12.6549, 109.134, -60.4784
0.512662, -1, 30.8741, 27.9689, 13.6019, 12.6577, 109.03, -60.7399
0.520142, -1, 30.6821, 27.8704, 13.6409, 12.6606, 108.927, -61.0012
0.527352, -1, 30.4902, 27.7718, 13.6799, 12.6634, 108.824, -61.2625
0.536629, -1, 30.2981, 27.6731, 13.7189, 12.6661, 108.721, -61.5241
0.544244, -1, 30.1059, 27.5743, 13.7578, 12.6688, 108.618, -61.7859
0.551737, -1, 29.9133, 27.4756, 13.7969, 12.6716, 108.514, -62.0473
0.560608, -1, 29.7204, 27.3768, 13.8357, 12.6743, 108.411, -62.309
0.568261, -1, 29.5267, 27.278, 13.8746, 12.6769, 108.308, -62.5707
0.575771, -1, 29.3327, 27.1793, 13.9136, 12.6795, 108.205, -62.8327
0.5853, -1, 29.1385, 27.0804, 13.9526, 12.682, 108.101, -63.0942
0.590794, -1, 29.0413, 27.031, 13.9721, 12.6833, 108.05, -63.2249
0.598732, -1, 28.8469, 26.932, 14.0111, 12.6859, 107.946, -63.4863
0.608055, -1, 28.5557, 26.7837, 14.0695, 12.6896, 107.791, -63.8788
0.616144, -1, 28.3618, 26.6849, 14.1086, 12.6921, 107.688, -64.1406
0.624137, -1, 28.1684, 26.5862, 14.1476, 12.6946, 107.584, -64.402
0.766597, -1, 24.7866, 24.8564, 14.8295, 12.7354, 105.777, -68.9823
0.767853, -1, 24.7866, 24.8564, 14.8295, 12.7354, 105.777, -68.9823
0.769861, -1, 24.6901, 24.807, 14.8489, 12.7367, 105.726, -69.1132
0.771162, -1, 24.6901, 24.807, 14.8489, 12.7367, 105.726, -69.1132
0.772339, -1, 24.6901, 24.807, 14.8489, 12.7367, 105.726, -69.1132
0.775066, -1, 24.5939, 24.7576, 14.8684, 12.7379, 105.674, -69.244
0.776386, -1, 24.5939, 24.7576, 14.8684, 12.7379, 105.674, -69.244
0.782013, -1, 24.4015, 24.6587, 14.9075, 12.7402, 105.571, -69.5058
0.783383, -1, 24.4015, 24.6587, 14.9075, 12.7402, 105.571, -69.5058
0.785242, -1, 24.4015, 24.6587, 14.9075, 12.7414, 105.519, -69.6366
0.786729, -1, 24.3053, 24.6092, 14.927, 12.7414, 105.519, -69.6366
0.787926, -1, 24.3053, 24.6092, 14.927, 12.7414, 105.519, -69.6366
0.790013, -1, 24.2091, 24.5598, 14.9465, 12.7426, 105.468, -69.7673
0.791232, -1, 24.2091, 24.5598, 14.9465, 12.7426, 105.468, -69.7673
0.792511, -1, 24.2091, 24.5598, 14.9465, 12.7426, 105.468, -69.7673
0.796498, -1, 24.1129, 24.5104, 14.966, 12.7437, 105.416, -69.898
0.799321, -1, 24.0165, 24.461, 14.9855, 12.7448, 105.364, -70.0287
0.80065, -1, 24.0165, 24.461, 14.9855, 12.7448, 105.364, -70.0287
0.803533, -1, 23.9202, 24.4116, 15.005, 12.746, 105.312, -70.1595
0.805326, -1, 23.9202, 24.4116, 15.005, 12.746, 105.312, -70.2904
0.806844, -1, 23.8238, 24.3621, 15.0244, 12.7473, 105.261, -70.2904
0.808073, -1, 23.8238, 24.3621, 15.0244, 12.7473, 105.261, -70.2904
0.81165, -1, 23.7273, 24.3127, 15.0438, 12.7485, 105.209, -70.4212
0.815781, -1, 23.6308, 24.2633, 15.0633, 12.7497, 105.157, -70.5521
0.823739, -1, 23.4375, 24.1644, 15.1023, 12.7521, 105.054, -70.8139
0.83387, -1, 23.1469, 24.016, 15.1606, 12.7557, 104.899, -71.2065
0.838718, -1, 23.05, 23.9666, 15.18, 12.7569, 104.847, -71.3374
0.847758, -1, 22.8559, 23.8678, 15.219, 12.7594, 104.744, -71.5992
0.855761, -1, 22.6619, 23.769, 15.258, 12.7619, 104.64, -71.8611
0.863761, -1, 22.4682, 23.6703, 15.297, 12.7643, 104.537, -72.1225
0.871722, -1, 22.2748, 23.5717, 15.336, 12.7669, 104.434, -72.3839
0.879788, -1, 22.0816, 23.473, 15.3749, 12.7695, 104.33, -72.6454
0.88771, -1, 21.8885, 23.3743, 15.4138, 12.772, 104.227, -72.9071
0.895731, -1, 21.696, 23.2756, 15.4529, 12.7747, 104.124, -73.1684
0.903786, -1, 21.5038, 23.1768, 15.4917, 12.7774, 104.021, -73.4298
0.911712, -1, 21.3116, 23.0781, 15.5307, 12.78, 103.918, -73.6913
0.919739, -1, 21.1192, 22.9794, 15.5697, 12.7827, 103.815, -73.953
0.927784, -1, 20.9267, 22.8808, 15.6086, 12.7853, 103.712, -74.2142
0.936799, -1, 20.7343, 22.7821, 15.6476, 12.788, 103.608, -74.4753
0.944713, -1, 20.5416, 22.6835, 15.6865, 12.7908, 103.505, -74.7365
0.952749, -1, 20.3485, 22.5849, 15.7253, 12.7935, 103.402, -74.998
0.959718, -1, 20.1549, 22.4861, 15.7643, 12.7962, 103.299, -75.2592
0.967713, -1, 19.9612, 22.3874, 15.8032, 12.799, 103.196, -75.5203
0.975812, -1, 19.7677, 22.2887, 15.8418, 12.8017, 103.093, -75.7815
0.98375, -1, 19.5741, 22.1901, 15.8808, 12.8044, 102.99, -76.0428
0.991805, -1, 19.3806, 22.0915, 15.9197, 12.8071, 102.887, -76.3041
0.999749, -1, 19.1876, 21.9928, 15.9585, 12.8099, 102.784, -76.5648
1.0078, -1, 18.9948, 21.8942, 15.9975, 12.8127, 102.681, -76.8255
1.0159, -1, 18.8023, 21.7956, 16.0363, 12.8154, 102.578, -77.0866
1.02382, -1, 18.6102, 21.6968, 16.0751, 12.8181, 102.475, -77.3477
1.03184, -1, 18.4184, 21.5982, 16.114, 12.8208, 102.372, -77.6083
1.03988, -1, 18.2264, 21.4997, 16.1528, 12.8234, 102.269, -77.869
1.04782, -1, 18.0345, 21.4012, 16.1916, 12.826, 102.167, -78.1297
1.05573, -1, 17.8426, 21.3028, 16.2306, 12.8285, 102.064, -78.3906
1.06382, -1, 17.6506, 21.2045, 16.2694, 12.831, 101.961, -78.6511
1.07174, -1, 17.4582, 21.1062, 16.3082, 12.8335, 101.858, -78.9116
1.0798, -1, 17.2654, 21.0078, 16.3471, 12.8359, 101.755, -79.1721
1.08791, -1, 17.0723, 20.9096, 16.3858, 12.8384, 101.652, -79.4327
1.09592, -1, 16.8793, 20.8113, 16.4246, 12.8408, 101.549, -79.6934
1.10271, -1, 16.7828, 20.7622, 16.4441, 12.8419, 101.498, -79.8235
1.11203, -1, 16.4932, 20.6149, 16.5022, 12.8454, 101.344, -80.2143
1.11871, -1, 16.3968, 20.5658, 16.5215, 12.8466, 101.292, -80.3447
1.12818, -1, 16.1082, 20.4183, 16.5797, 12.85, 101.138, -80.7356
1.13622, -1, 15.9163, 20.3198, 16.6184, 12.8523, 101.036, -80.9957
1.14433, -1, 15.7246, 20.2213, 16.6571, 12.8547, 100.933, -81.2557
1.1523, -1, 15.5333, 20.1229, 16.6957, 12.857, 100.83, -81.5159
1.16031, -1, 15.3421, 20.0246, 16.7344, 12.8593, 100.728, -81.7761
1.16833, -1, 15.1508, 19.9263, 16.7732, 12.8616, 100.625, -82.036
1.17634, -1, 15.0552, 19.8772, 16.7925, 12.8627, 100.523, -82.2957
1.1843, -1, 14.864, 19.7791, 16.8312, 12.865, 100.472, -82.4257
1.19175, -1, 14.6726, 19.6809, 16.8699, 12.8673, 100.369, -82.6856
1.19973, -1, 14.4808, 19.5828, 16.9086, 12.8696, 100.266, -82.9456
1.2077, -1, 14.2888, 19.4847, 16.9472, 12.8719, 100.164, -83.2052
1.21571, -1, 14.0965, 19.3867, 16.986, 12.8741, 100.061, -83.4647
1.22371, -1, 13.9042, 19.2888, 17.0246, 12.8764, 99.9585, -83.7243
1.23177, -1, 13.7117, 19.191, 17.0632, 12.8787, 99.8562, -83.984
1.23971, -1, 13.5192, 19.0931, 17.1019, 12.881, 99.7536, -84.2433
1.24771, -1, 13.327, 18.9952, 17.1405, 12.8834, 99.6512, -84.5025
1.25576, -1, 13.1353, 18.8973, 17.179, 12.8857, 99.5491, -84.7618
1.2637, -1, 12.9439, 18.7994, 17.2177, 12.8881, 99.4465, -85.0213
1.2717, -1, 12.7528, 18.7013, 17.2563, 12.8904, 99.3442, -85.2805
1.27977, -1, 12.562, 18.6035, 17.2947, 12.8928, 99.242, -85.5394
1.28771, -1, 12.3716, 18.5058, 17.3333, 12.8953, 99.1397, -85.7982
1.29578, -1, 12.1815, 18.408, 17.3718, 12.8977, 99.0374, -86.0573
1.3037, -1, 11.9912, 18.3103, 17.4103, 12.9001, 98.9354, -86.3162
1.31271, -1, 11.8008, 18.2127, 17.449, 12.9025, 98.8333, -86.5747
1.3197, -1, 11.6102, 18.1151, 17.4875, 12.905, 98.7315, -86.8333
1.3287, -1, 11.4193, 18.0174, 17.526, 12.9074, 98.6297, -87.0919
1.3347, -1, 11.2281, 17.9199, 17.5646, 12.9098, 98.5276, -87.3506
1.34369, -1, 11.0366, 17.8223, 17.6031, 12.9123, 98.4259, -87.6088
1.35174, -1, 10.8451, 17.7249, 17.6416, 12.9148, 98.3238, -87.867
1.36051, -1, 10.6533, 17.6274, 17.68, 12.9173, 98.2219, -88.1252
1.36677, -1, 10.4619, 17.5299, 17.7184, 12.9198, 98.1203, -88.3837
1.37579, -1, 10.2708, 17.4324, 17.7568, 12.9223, 98.0182, -88.6417
1.38451, -1, 10.0799, 17.3348, 17.7953, 12.9249, 97.9164, -88.8998
1.39171, -1, 9.88947, 17.2372, 17.8336, 12.9276, 97.8146, -89.158
1.39978, -1, 9.6993, 17.1397, 17.8719, 12.9302, 97.7125, -89.4162
1.40849, -1, 9.5097, 17.0423, 17.9103, 12.9329, 97.6105, -89.6742
1.4157, -1, 9.32049, 16.9449, 17.9486, 12.9357, 97.5088, -89.9318
1.42376, -1, 9.13116, 16.8476, 17.987, 12.9383, 97.4068, -90.1893
1.43252, -1, 8.94183, 16.7504, 18.0253, 12.941, 97.305, -90.4469
1.4397, -1, 8.75228, 16.6533, 18.0636, 12.9436, 97.2035, -90.7046
1.44783, -1, 8.56271, 16.5561, 18.1021, 12.9462, 97.1017, -90.9617
1.45654, -1, 8.37292, 16.459, 18.1404, 12.9489, 97.0003, -91.2189
1.4637, -1, 8.18259, 16.362, 18.1787, 12.9516, 96.8988, -91.476
1.47177, -1, 7.99208, 16.2651, 18.2171, 12.9542, 96.7971, -91.7333
1.48049, -1, 7.80158, 16.1682, 18.2553, 12.957, 96.6958, -91.9902
1.48776, -1, 7.61098, 16.0712, 18.2936, 12.9595, 96.5942, -92.2469
1.49571, -1, 7.42056, 15.9743, 18.3319, 12.9621, 96.4928, -92.5035
1.50448, -1, 7.2304, 15.8774, 18.37, 12.9646, 96.3916, -92.7605
1.51185, -1, 7.04056, 15.7804, 18.4082, 12.9672, 96.2902, -93.0171
1.51987, -1, 6.85114, 15.6835, 18.4466, 12.9697, 96.1889, -93.2736
1.52858, -1, 6.66219, 15.5866, 18.4846, 12.9723, 96.0883, -93.5299
1.53589, -1, 6.47375, 15.4898, 18.5227, 12.9748, 95.9872, -93.7863
1.54382, -1, 6.28554, 15.3931, 18.5609, 12.9774, 95.8861, -94.0428
1.55252, -1, 6.09742, 15.2964, 18.599, 12.9798, 95.7854, -94.2988
1.55995, -1, 5.90913, 15.1997, 18.6371, 12.9822, 95.6842, -94.5546
1.56774, -1, 5.72073, 15.103, 18.6753, 12.9844, 95.5833, -94.8106
1.57656, -1, 5.53222, 15.0064, 18.7133, 12.9868, 95.4828, -95.0666
1.58381, -1, 5.34345, 14.9098, 18.7514, 12.9891, 95.3818, -95.3222
1.59186, -1, 5.15432, 14.8134, 18.7896, 12.9913, 95.2811, -95.5775
1.60093, -1, 4.96491, 14.7171, 18.8276, 12.9936, 95.1805, -95.833
1.608, -1, 4.77554, 14.6207, 18.8657, 12.9959, 95.0797, -96.0886
1.61601, -1, 4.58611, 14.5243, 18.9037, 12.9981, 94.9789, -96.3437
1.62272, -1, 4.49147, 14.4761, 18.9227, 12.9991, 94.9286, -96.4712
1.63278, -1, 4.20792, 14.3316, 18.9797, 13.0025, 94.7774, -96.8536
1.64017, -1, 4.01924, 14.2351, 19.0177, 13.0048, 94.6766, -97.1087
1.64862, -1, 3.83124, 14.139, 19.0556, 13.007, 94.5758, -97.3638
1.65628, -1, 3.64378, 14.0428, 19.0936, 13.0092, 94.475, -97.6184
1.66503, -1, 3.45664, 13.9467, 19.1315, 13.0116, 94.3745, -97.8732
1.67071, -1, 3.36315, 13.8986, 19.1504, 13.0127, 94.3243, -98.0005
1.6802, -1, 3.17617, 13.8026, 19.1882, 13.015, 94.2235, -98.2552
1.68772, -1, 2.98919, 13.7066, 19.2262, 13.0172, 94.1227, -98.5099
1.69469, -1, 2.80213, 13.6106, 19.2641, 13.0195, 94.0223, -98.7642
1.70481, -1, 2.52133, 13.4666, 19.3209, 13.0229, 93.8715, -99.1453
1.7117, -1, 2.42765, 13.4186, 19.3398, 13.024, 93.8213, -99.2723
1.7187, -1, 2.24007, 13.3228, 19.3776, 13.0263, 93.721, -99.5265
1.7277, -1, 2.052, 13.227, 19.4155, 13.0285, 93.6207, -99.7804
1.73573, -1, 1.8639, 13.1311, 19.4533, 13.0307, 93.5206, -100.034
1.74269, -1, 1.67564, 13.0352, 19.491, 13.033, 93.4206, -100.287
1.75169, -1, 1.48742, 12.9394, 19.5288, 13.0353, 93.3205, -100.541
1.75969, -1, 1.29949, 12.8436, 19.5666, 13.0376, 93.2206, -100.795
1.76672, -1, 1.11186, 12.7478, 19.6043, 13.0399, 93.1205, -101.048
1.77568, -1, 0.924753, 12.6521, 19.6421, 13.0423, 93.0205, -101.301
1.78368, -1, 0.738278, 12.5566, 19.6798, 13.0446, 92.9207, -101.554
1.79177, -1, 0.552186, 12.461, 19.7173, 13.0471, 92.8209, -101.807
1.79968, -1, 0.366382, 12.3656, 19.755, 13.0495, 92.7211, -102.06
1.80769, -1, 0.180826, 12.2703, 19.7927, 13.052, 92.6218, -102.312
1.81672, -1, -0.00449518, 12.1749, 19.8302, 13.0545, 92.5222, -102.565
1.82269, -1, -0.190039, 12.0797, 19.8679, 13.0569, 92.4226, -102.817
1.83176, -1, -0.37579, 11.9844, 19.9055, 13.0593, 92.3232, -103.07
1.83975, -1, -0.561899, 11.8893, 19.943, 13.0618, 92.2237, -103.322
1.84768, -1, -0.748221, 11.7943, 19.9806, 13.0643, 92.1242, -103.574
1.85571, -1, -0.934788, 11.6993, 20.0181, 13.0668, 92.0248, -103.826
1.8637, -1, -1.12159, 11.6042, 20.0555, 13.0693, 91.9255, -104.078
1.87171, -1, -1.3086, 11.5092, 20.0931, 13.0718, 91.8261, -104.329
1.87975, -1, -1.49545, 11.4141, 20.1306, 13.0743, 91.7271, -104.581
1.88769, -1, -1.68204, 11.3189, 20.1679, 13.0769, 91.6279, -104.833
1.89571, -1, -1.86824, 11.2239, 20.2054, 13.0795, 91.5286, -105.084
1.90377, -1, -2.05403, 11.1289, 20.2429, 13.0821, 91.4296, -105.335
1.91168, -1, -2.23904, 11.0341, 20.2802, 13.0848, 91.3303, -105.586
1.91968, -1, -2.42385, 10.9392, 20.3176, 13.0875, 91.2311, -105.837
1.92776, -1, -2.6083, 10.8445, 20.3549, 13.0901, 91.1322, -106.088
1.93568, -1, -2.79224, 10.7497, 20.3922, 13.0928, 91.0331, -106.339
1.94368, -1, -2.97614, 10.655, 20.4296, 13.0955, 90.934, -106.59
1.95175, -1, -3.16018, 10.5603, 20.4669, 13.098, 90.8353, -106.84
1.95968, -1, -3.34442, 10.4657, 20.5041, 13.1006, 90.7363, -107.091
1.96769, -1, -3.52906, 10.3712, 20.5413, 13.1032, 90.6374, -107.342
1.97575, -1, -3.7139, 10.2769, 20.5786, 13.1057, 90.5387, -107.592
1.98368, -1, -3.89899, 10.1825, 20.6158, 13.1082, 90.4397, -107.842
1.99174, -1, -4.08431, 10.0881, 20.6531, 13.1106, 90.341, -108.092
1.99972, -1, -4.26992, 9.99382, 20.6903, 13.113, 90.2426, -108.342
2.00772, -1, -4.4556, 9.89947, 20.7274, 13.1154, 90.1439, -108.592
2.01583, -1, -4.64088, 9.80516, 20.7647, 13.1177, 90.0453, -108.841
2.02387, -1, -4.82583, 9.71095, 20.8019, 13.1201, 89.947, -109.09
2.03178, -1, -5.01042, 9.61685, 20.8389, 13.1225, 89.8484, -109.34
2.03987, -1, -5.19416, 9.52284, 20.8761, 13.1249, 89.75, -109.589
2.04782, -1, -5.37745, 9.42879, 20.9132, 13.1272, 89.6518, -109.838
2.05569, -1, -5.56037, 9.3349, 20.9502, 13.1295, 89.5533, -110.087
2.06394, -1, -5.74281, 9.24096, 20.9874, 13.1318, 89.4551, -110.336
2.07172, -1, -5.92513, 9.147, 21.0244, 13.1341, 89.3571, -110.584
2.07977, -1, -6.10749, 9.05316, 21.0613, 13.1363, 89.2588, -110.833
2.08785, -1, -6.29018, 8.95938, 21.0984, 13.1386, 89.1608, -111.081
2.09582, -1, -6.47319, 8.86567, 21.1354, 13.1407, 89.0631, -111.33
2.10401, -1, -6.65635, 8.77202, 21.1721, 13.1429, 88.965, -111.578
2.11071, -1, -6.74807, 8.72519, 21.1905, 13.144, 88.916, -111.702
2.12004, -1, -7.02388, 8.58474, 21.246, 13.1472, 88.7693, -112.074
2.1267, -1, -7.11596, 8.53794, 21.2644, 13.1483, 88.7203, -112.198
2.13615, -1, -7.39226, 8.39759, 21.3197, 13.1515, 88.5735, -112.569
2.14416, -1, -7.57611, 8.30396, 21.3566, 13.1536, 88.4761, -112.817
2.15234, -1, -7.75964, 8.2105, 21.3933, 13.1558, 88.3784, -113.064
2.16025, -1, -7.94267, 8.11714, 21.4302, 13.158, 88.281, -113.311
2.16825, -1, -8.12525, 8.02379, 21.467, 13.1603, 88.1838, -113.558
2.17641, -1, -8.21625, 7.93051, 21.5038, 13.1625, 88.0864, -113.806
2.18422, -1, -8.39787, 7.88387, 21.5222, 13.1636, 88.0376, -113.929
2.1917, -1, -8.57906, 7.79061, 21.559, 13.1658, 87.9404, -114.176
2.19972, -1, -8.75989, 7.69744, 21.5958, 13.1682, 87.8429, -114.422
2.2077, -1, -8.9405, 7.60427, 21.6325, 13.1704, 87.7454, -114.669
2.21569, -1, -9.12137, 7.51119, 21.6693, 13.1727, 87.6482, -114.915
2.22374, -1, -9.3025, 7.41827, 21.7059, 13.1749, 87.551, -115.162
2.23169, -1, -9.48393, 7.32547, 21.7426, 13.1771, 87.4539, -115.408
2.23971, -1, -9.6658, 7.23263, 21.7793, 13.1793, 87.3569, -115.654
2.24768, -1, -9.84795, 7.13989, 21.8159, 13.1815, 87.2596, -115.9
2.25568, -1, -10.0304, 7.04715, 21.8524, 13.1837, 87.1624, -116.146
2.26373, -1, -10.213, 6.95441, 21.8891, 13.186, 87.0653, -116.392
2.27167, -1, -10.3957, 6.86161, 21.9257, 13.1881, 86.968, -116.638
2.27968, -1, -10.5782, 6.76887, 21.9622, 13.1904, 86.871, -116.883
2.28773, -1, -10.7602, 6.67623, 21.9988, 13.1927, 86.7741, -117.128
2.29568, -1, -10.9418, 6.58363, 22.0352, 13.1952, 86.6772, -117.374
2.30367, -1, -11.1226, 6.49107, 22.0717, 13.1975, 86.5803, -117.619
2.31174, -1, -11.3027, 6.39858, 22.1083, 13.1999, 86.4839, -117.864
2.3214, -1, -11.4825, 6.30609, 22.1447, 13.2024, 86.387, -118.108
2.32767, -1, -11.6619, 6.21367, 22.1811, 13.2048, 86.2903, -118.353
2.33574, -1, -11.8412, 6.12127, 22.2176, 13.2073, 86.1938, -118.598
2.34476, -1, -12.0203, 6.029, 22.254, 13.2097, 86.0972, -118.842
2.35167, -1, -12.1997, 5.93682, 22.2904, 13.2122, 86.0007, -119.086
2.35978, -1, -12.3794, 5.84483, 22.3269, 13.2147, 85.9044, -119.331
2.36767, -1, -12.5595, 5.75281, 22.3631, 13.2171, 85.808, -119.575
2.37571, -1, -12.7399, 5.66084, 22.3993, 13.2197, 85.7117, -119.819
2.38374, -1, -12.9208, 5.56893, 22.4357, 13.2221, 85.6158, -120.062
2.39167, -1, -13.1019, 5.47698, 22.472, 13.2246, 85.5198, -120.306
2.39976, -1, -13.2832, 5.38496, 22.5081, 13.2269, 85.4238, -120.55
2.40769, -1, -13.4643, 5.29299, 22.5445, 13.2294, 85.3282, -120.793
2.41568, -1, -13.6449, 5.20108, 22.5807, 13.232, 85.2323, -121.036
2.42402, -1, -13.8251, 5.10921, 22.6167, 13.2346, 85.1365, -121.279
2.43167, -1, -14.0047, 5.01739, 22.6529, 13.2371, 85.0409, -121.522
2.43967, -1, -14.1832, 4.92569, 22.6891, 13.2397, 84.9453, -121.765
2.44846, -1, -14.3616, 4.834, 22.7251, 13.2423, 84.8497, -122.008
2.45568, -1, -14.5395, 4.74236, 22.7614, 13.2448, 84.7542, -122.25
2.46365, -1, -14.7172, 4.65075, 22.7976, 13.2474, 84.6585, -122.493
2.47245, -1, -14.8948, 4.55927, 22.8337, 13.2498, 84.5627, -122.735
2.47967, -1, -15.0725, 4.46782, 22.8698, 13.2523, 84.4671, -122.977
2.48771, -1, -15.2505, 4.37656, 22.906, 13.2547, 84.3714, -123.219
2.4965, -1, -15.4289, 4.28522, 22.942, 13.257, 84.2758, -123.461
2.50369, -1, -15.6079, 4.19391, 22.9781, 13.2594, 84.1803, -123.703
2.51179, -1, -15.7871, 4.10266, 23.0141, 13.2617, 84.0847, -123.945
2.52057, -1, -15.9663, 4.01142, 23.05, 13.264, 83.9893, -124.186
2.5278, -1, -16.1459, 3.92015, 23.0861, 13.2661, 83.8939, -124.428
2.53584, -1, -16.3257, 3.82889, 23.1221, 13.2682, 83.7985, -124.669
2.54458, -1, -16.505, 3.73771, 23.1579, 13.2704, 83.703, -124.911
2.5518, -1, -16.684, 3.64658, 23.1938, 13.2726, 83.6076, -125.152
2.55984, -1, -16.8624, 3.55549, 23.2297, 13.2749, 83.5122, -125.393
2.56925, -1, -17.0399, 3.46449, 23.2655, 13.2771, 83.4168, -125.634
2.57574, -1, -17.2168, 3.37353, 23.3014, 13.2793, 83.3215, -125.874
2.58377, -1, -17.3934, 3.28264, 23.3372, 13.2815, 83.2265, -126.115
2.59175, -1, -17.5697, 3.19179, 23.373, 13.2837, 83.1314, -126.356
2.59984, -1, -17.7458, 3.10115, 23.4088, 13.2859, 83.0366, -126.596
2.60793, -1, -17.9218, 3.01053, 23.4448, 13.2879, 82.9419, -126.836
2.61611, -1, -18.098, 2.92004, 23.4805, 13.2901, 82.8469, -127.076
2.62411, -1, -18.2746, 2.82965, 23.5162, 13.2923, 82.7522, -127.316
2.63207, -1, -18.4516, 2.7392, 23.552, 13.2943, 82.6577, -127.556
2.64018, -1, -18.6291, 2.6488, 23.5876, 13.2963, 82.563, -127.796
2.64667, -1, -18.7179, 2.60364, 23.6054, 13.2973, 82.5157, -127.915
2.65622, -1, -18.9848, 2.468, 23.659, 13.3003, 82.3742, -128.275
2.66522, -1, -19.163, 2.37753, 23.6945, 13.3023, 82.2797, -128.514
2.67229, -1, -19.3412, 2.28717, 23.7301, 13.3043, 82.1853, -128.753
2.6802, -1, -19.4301, 2.24197, 23.7479, 13.3054, 82.0915, -128.992
2.68924, -1, -19.6074, 2.15159, 23.8012, 13.3087, 81.9971, -129.231
2.69641, -1, -19.7842, 2.06125, 23.8189, 13.3097, 81.9501, -129.471
2.70365, -1, -19.9604, 1.971, 23.8544, 13.3119, 81.8559, -129.59
2.71168, -1, -20.1358, 1.88077, 23.89, 13.3141, 81.762, -129.829
2.71972, -1, -20.3109, 1.79063, 23.9254, 13.3163, 81.6679, -130.067
2.72765, -1, -20.4856, 1.70054, 23.9609, 13.3185, 81.5739, -130.305
2.73569, -1, -20.6601, 1.61052, 23.9965, 13.3207, 81.48, -130.544
2.74367, -1, -20.8346, 1.52059, 24.0319, 13.3229, 81.3861, -130.782
2.75167, -1, -21.0095, 1.43079, 24.0673, 13.3251, 81.2924, -131.02
2.75971, -1, -21.1846, 1.34109, 24.1029, 13.3272, 81.1988, -131.258
2.76766, -1, -21.3602, 1.25133, 24.1383, 13.3294, 81.1048, -131.495
2.77566, -1, -21.5361, 1.16168, 24.1736, 13.3316, 81.0109, -131.733
2.78374, -1, -21.7122, 1.07206, 24.2091, 13.3337, 80.9173, -131.971
2.79167, -1, -21.8884, 0.982433, 24.2445, 13.3359, 80.8234, -132.208
2.79971, -1, -22.0649, 0.892809, 24.2799, 13.338, 80.7296, -132.445
2.80766, -1, -22.2416, 0.80323, 24.3153, 13.3402, 80.6361, -132.682
2.81724, -1, -22.4179, 0.713744, 24.3506, 13.3424, 80.5424, -132.92
2.82372, -1, -22.5937, 0.624227, 24.3858, 13.3448, 80.4487, -133.156
2.83271, -1, -22.769, 0.534767, 24.4211, 13.3471, 80.3554, -133.393
2.83965, -1, -22.9435, 0.445347, 24.4564, 13.3495, 80.2615, -133.63
2.84773, -1, -23.1172, 0.355915, 24.4915, 13.352, 80.1681, -133.867
2.85565, -1, -23.2907, 0.266558, 24.5267, 13.3544, 80.0748, -134.104
2.86368, -1, -23.4638, 0.177272, 24.5619, 13.3568, 79.9812, -134.34
2.87173, -1, -23.6369, 0.0880935, 24.5971, 13.3592, 79.8879, -134.576
2.87967, -1, -23.8103, -0.00104658, 24.6323, 13.3616, 79.7948, -134.812
2.88766, -1, -23.9838, -0.0900102, 24.6675, 13.3641, 79.7016, -135.048
2.89572, -1, -24.1575, -0.178988, 24.7025, 13.3666, 79.6085, -135.284
2.90367, -1, -24.3314, -0.267965, 24.7376, 13.369, 79.5155, -135.52
2.91167, -1, -24.5057, -0.356852, 24.7728, 13.3715, 79.4223, -135.755
2.91982, -1, -24.6803, -0.445768, 24.8078, 13.3739, 79.3293, -135.991
2.92766, -1, -24.8552, -0.534663, 24.8428, 13.3763, 79.2363, -136.227
2.93565, -1, -25.0303, -0.623523, 24.878, 13.3787, 79.1434, -136.462
2.94377, -1, -25.2052, -0.712369, 24.913, 13.381, 79.0504, -136.697
2.95167, -1, -25.3797, -0.80114, 24.9479, 13.3833, 78.9576, -136.932
2.95966, -1, -25.5538, -0.889959, 24.983, 13.3859, 78.8651, -137.167
2.96773, -1, -25.7274, -0.978645, 25.0178, 13.3884, 78.7722, -137.402
2.97565, -1, -25.9003, -1.06735, 25.0526, 13.3907, 78.6796, -137.636
2.98365, -1, -26.0728, -1.15603, 25.0877, 13.3932, 78.5875, -137.871
2.99172, -1, -26.2448, -1.24465, 25.1226, 13.3956, 78.4947, -138.105
2.99965, -1, -26.4166, -1.33318, 25.1573, 13.398, 78.4021, -138.34
3.00772, -1, -26.5884, -1.42161, 25.1922, 13.4003, 78.3099, -138.574
3.01575, -1, -26.7604, -1.50994, 25.2271, 13.4025, 78.2173, -138.808
3.02375, -1, -26.9327, -1.59817, 25.2619, 13.4047, 78.1249, -139.042
3.03184, -1, -27.1052, -1.68635, 25.2968, 13.4069, 78.0328, -139.276
3.03975, -1, -27.2778, -1.77457, 25.3316, 13.4091, 77.9405, -139.51
3.04783, -1, -27.4506, -1.86264, 25.3664, 13.4113, 77.8485, -139.744
3.05583, -1, -27.6238, -1.95076, 25.4011, 13.4134, 77.7566, -139.977
3.06366, -1, -27.7971, -2.03898, 25.436, 13.4155, 77.6645, -140.211
3.07167, -1, -27.9704, -2.127, 25.4707, 13.4176, 77.5724, -140.444
3.07977, -1, -28.1436, -2.21507, 25.5054, 13.4196, 77.4804, -140.678
3.08775, -1, -28.3167, -2.3031, 25.5402, 13.4217, 77.3884, -140.911
3.09577, -1, -28.4895, -2.39114, 25.5749, 13.4237, 77.2963, -141.144
3.10396, -1, -28.6618, -2.47907, 25.6095, 13.4259, 77.2042, -141.377
3.11189, -1, -28.8335, -2.56709, 25.6442, 13.428, 77.1123, -141.61
3.12001, -1, -29.0045, -2.65505, 25.6788, 13.4302, 77.0204, -141.842
3.12666, -1, -29.0899, -2.69898, 25.6961, 13.4314, 76.9744, -141.959
3.13606, -1, -29.3457, -2.83072, 25.748, 13.4344, 76.8368, -142.307
3.14415, -1, -29.5165, -2.91839, 25.7827, 13.4365, 76.7448, -142.54
3.1522, -1, -29.6874, -3.00599, 25.8172, 13.4385, 76.6529, -142.772
3.16023, -1, -29.8585, -3.09353, 25.8517, 13.4405, 76.5613, -143.005
3.16841, -1, -30.0294, -3.18098, 25.8863, 13.4427, 76.4693, -143.237
3.17709, -1, -30.1148, -3.2685, 25.9208, 13.4447, 76.3776, -143.469
3.18419, -1, -30.2859, -3.31223, 25.9381, 13.4458, 76.3318, -143.7
3.19226, -1, -30.4573, -3.39963, 25.9726, 13.4479, 76.2404, -143.932
3.19969, -1, -30.6289, -3.48713, 26.0071, 13.4499, 76.1488, -144.048
3.20672, -1, -30.8008, -3.57457, 26.0415, 13.452, 76.0574, -144.28
3.21571, -1, -30.9727, -3.66191, 26.0761, 13.4539, 75.9662, -144.511
3.22365, -1, -31.1444, -3.74927, 26.1106, 13.4559, 75.8747, -144.742
3.23069, -1, -31.3159, -3.8366, 26.145, 13.458, 75.7833, -144.974
3.23967, -1, -31.4869, -3.92393, 26.1794, 13.4601, 75.6922, -145.205
3.24767, -1, -31.6575, -4.0112, 26.2139, 13.4623, 75.6008, -145.436
3.25466, -1, -31.8278, -4.09851, 26.2482, 13.4644, 75.5096, -145.667
3.26364, -1, -31.9976, -4.18577, 26.2825, 13.4667, 75.4186, -145.898
3.27165, -1, -32.1671, -4.27291, 26.317, 13.4688, 75.3274, -146.129
3.27867, -1, -32.3366, -4.36002, 26.3513, 13.471, 75.2363, -146.359
3.28766, -1, -32.5062, -4.44704, 26.3855, 13.4732, 75.1456, -146.59
3.29565, -1, -32.6759, -4.53394, 26.42, 13.4753, 75.0546, -146.82
3.30371, -1, -32.8455, -4.62084, 26.4544, 13.4774, 74.9638, -147.05
3.31164, -1, -33.0152, -4.70777, 26.4885, 13.4796, 74.8731, -147.281
3.32067, -1, -33.1849, -4.79464, 26.5228, 13.4818, 74.7827, -147.511
3.3277, -1, -33.3549, -4.88148, 26.5572, 13.4841, 74.6919, -147.741
3.33563, -1, -33.5251, -4.96841, 26.5914, 13.4863, 74.6012, -147.971
3.34365, -1, -33.6954, -5.0553, 26.6256, 13.4885, 74.5109, -148.201
3.35173, -1, -33.8656, -5.14205, 26.6599, 13.4907, 74.4202, -148.43
3.35966, -1, -34.0359, -5.22879, 26.694, 13.4929, 74.3297, -148.66
3.3681, -1, -34.206, -5.31554, 26.7282, 13.4952, 74.2394, -148.889
3.37669, -1, -34.376, -5.40217, 26.7625, 13.4975, 74.1486, -149.119
3.38366, -1, -34.5458, -5.48882, 26.7967, 13.4999, 74.058, -149.348
3.39242, -1, -34.7151, -5.57552, 26.8307, 13.5022, 73.9676, -149.578
3.39963, -1, -34.8838, -5.66213, 26.8649, 13.5046, 73.877, -149.807
3.40766, -1, -35.0523, -5.74869, 26.8991, 13.5071, 73.7865, -150.035
3.4158, -1, -35.2205, -5.83519, 26.9332, 13.5095, 73.6963, -150.264
3.42364, -1, -35.3889, -5.92154, 26.9673, 13.5119, 73.6059, -150.493
3.43164, -1, -35.5575, -6.00776, 27.0014, 13.5143, 73.5156, -150.722
3.44083, -1, -35.726, -6.09399, 27.0354, 13.5166, 73.4252, -150.951
3.44684, -1, -35.8945, -6.18015, 27.0694, 13.519, 73.335, -151.179
3.45573, -1, -36.063, -6.26627, 27.1036, 13.5214, 73.2445, -151.408
3.46363, -1, -36.2315, -6.35238, 27.1375, 13.5239, 73.1541, -151.637
3.47164, -1, -36.4002, -6.43858, 27.1715, 13.5263, 73.0639, -151.865
3.4797, -1, -36.5691, -6.52476, 27.2055, 13.5286, 72.9734, -152.093
3.48763, -1, -36.7379, -6.61092, 27.2394, 13.5309, 72.8832, -152.321
3.49564, -1, -36.9068, -6.69709, 27.2734, 13.5332, 72.7932, -152.549
3.5037, -1, -37.0758, -6.78324, 27.3073, 13.5354, 72.703, -152.778
3.51173, -1, -37.2446, -6.86934, 27.3412, 13.5377, 72.613, -153.006
3.51971, -1, -37.4132, -6.95535, 27.375, 13.54, 72.5232, -153.233
3.52778, -1, -37.5813, -7.04143, 27.4091, 13.5422, 72.4333, -153.461
3.53577, -1, -37.7491, -7.12748, 27.443, 13.5445, 72.3434, -153.688
3.54374, -1, -37.9167, -7.21346, 27.4768, 13.5467, 72.2536, -153.916
3.55189, -1, -38.0841, -7.29937, 27.5107, 13.5489, 72.164, -154.143
3.55974, -1, -38.2516, -7.38528, 27.5446, 13.5511, 72.0741, -154.371
3.56764, -1, -38.4189, -7.47101, 27.5784, 13.5533, 71.9845, -154.598
3.57642, -1, -38.5861, -7.55668, 27.6122, 13.5553, 71.8951, -154.825
3.58379, -1, -38.7534, -7.64242, 27.6462, 13.5575, 71.8053, -155.052
3.59177, -1, -38.9208, -7.7281, 27.6799, 13.5596, 71.7158, -155.279
3.60056, -1, -39.0881, -7.8137, 27.7136, 13.5616, 71.6268, -155.506
3.60781, -1, -39.2556, -7.89936, 27.7475, 13.5636, 71.5372, -155.733
3.61599, -1, -39.4231, -7.98505, 27.7813, 13.5656, 71.4479, -155.96
3.62263, -1, -39.5069, -8.02785, 27.7981, 13.5666, 71.4031, -156.073
3.63068, -1, -39.6746, -8.11341, 27.8317, 13.5686, 71.3141, -156.3
3.64011, -1, -39.926, -8.24165, 27.8824, 13.5714, 71.1799, -156.639
3.64894, -1, -40.0935, -8.3271, 27.916, 13.5734, 71.0905, -156.865
3.65614, -1, -40.261, -8.41248, 27.9496, 13.5754, 71.0014, -157.092
3.66422, -1, -40.4283, -8.49789, 27.9834, 13.5773, 70.9119, -157.318
3.6731, -1, -40.5953, -8.58327, 28.017, 13.5793, 70.8228, -157.544
3.67871, -1, -40.6787, -8.62596, 28.0338, 13.5803, 70.7783, -157.657
3.68825, -1, -40.8454, -8.71136, 28.0674, 13.5833, 70.6446, -157.996
3.69563, -1, -41.012, -8.79671, 28.1012, 13.5843, 70.6, -158.109
3.70366, -1, -41.1783, -8.88199, 28.1348, 13.5863, 70.5109, -158.335
3.71175, -1, -41.3444, -8.96718, 28.1682, 13.5883, 70.4218, -158.561
3.71964, -1, -41.5106, -9.05238, 28.2019, 13.5903, 70.3325, -158.786
3.7267, -1, -41.6769, -9.13752, 28.2355, 13.5923, 70.2433, -159.012
3.73568, -1, -41.8432, -9.22258, 28.269, 13.5943, 70.1545, -159.237
3.74364, -1, -42.0096, -9.30758, 28.3027, 13.5963, 70.0652, -159.463
3.75182, -1, -42.1759, -9.39265, 28.3363, 13.5984, 69.9763, -159.688
3.75963, -1, -42.3422, -9.47771, 28.3698, 13.6004, 69.8876, -159.913
3.76762, -1, -42.5085, -9.56265, 28.4033, 13.6024, 69.7984, -160.138
3.77567, -1, -42.6749, -9.64762, 28.4369, 13.6045, 69.7096, -160.363
3.78362, -1, -42.8413, -9.73258, 28.4703, 13.6065, 69.6208, -160.589
3.79171, -1, -43.0078, -9.81753, 28.5037, 13.6086, 69.532, -160.814
3.79969, -1, -43.1741, -9.90244, 28.5373, 13.6106, 69.4433, -161.038
3.80762, -1, -43.3402, -9.98738, 28.5707, 13.6127, 69.3545, -161.263
3.81562, -1, -43.5063, -10.0723, 28.6042, 13.6148, 69.2661, -161.488
3.82369, -1, -43.6722, -10.1573, 28.6378, 13.6168, 69.1773, -161.713
3.83268, -1, -43.838, -10.2422, 28.6712, 13.6189, 69.0888, -161.937
3.83962, -1, -44.0038, -10.3269, 28.7046, 13.6211, 69.0005, -162.162
3.84769, -1, -44.1692, -10.4117, 28.7381, 13.6232, 68.9118, -162.386
3.85561, -1, -44.3344, -10.4963, 28.7716, 13.6254, 68.8232, -162.61
3.86362, -1, -44.4995, -10.5808, 28.805, 13.6277, 68.7346, -162.835
3.87179, -1, -44.6647, -10.6654, 28.8383, 13.6298, 68.646, -163.059
3.87962, -1, -44.83, -10.7499, 28.8719, 13.632, 68.5574, -163.283
3.88765, -1, -44.9955, -10.8343, 28.9053, 13.6342, 68.469, -163.507
3.89569, -1, -45.1608, -10.9189, 28.9387, 13.6364, 68.3807, -163.731
3.90362, -1, -45.3261, -11.0034, 28.9721, 13.6386, 68.2922, -163.955
3.91171, -1, -45.4914, -11.0879, 29.0055, 13.6409, 68.2039, -164.179
3.91971, -1, -45.6566, -11.1723, 29.0386, 13.6432, 68.1159, -164.403
3.92761, -1, -45.8219, -11.2567, 29.072, 13.6455, 68.0272, -164.626
3.93562, -1, -45.9861, -11.3406, 29.1054, 13.6478, 67.9389, -164.85
3.94369, -1, -46.1475, -11.423, 29.1389, 13.6501, 67.8509, -165.073
3.95168, -1, -46.3045, -11.5024, 29.1724, 13.6524, 67.7634, -165.294
3.95965, -1, -46.4548, -11.5774, 29.206, 13.6548, 67.6783, -165.51
3.96769, -1, -46.596, -11.6473, 29.2382, 13.6571, 67.5967, -165.716
3.97562, -1, -46.7257, -11.7107, 29.268, 13.6594, 67.5221, -165.905
3.98362, -1, -46.8407, -11.7668, 29.2944, 13.6613, 67.4551, -166.074
3.99175, -1, -46.9395, -11.8159, 29.3165, 13.663, 67.3992, -166.216
3.99972, -1, -47.0222, -11.8588, 29.3331, 13.6643, 67.3544, -166.329
4.00762, -1, -47.0894, -11.8956, 29.3444, 13.665, 67.3208, -166.414
4.01572, -1, -47.1418, -11.9251, 29.3516, 13.6655, 67.2975, -166.473
4.02371, -1, -47.1807, -11.9472, 29.3555, 13.6657, 67.2824, -166.51
4.03178, -1, -47.2083, -11.9627, 29.3574, 13.6658, 67.2737, -166.533
4.03981, -1, -47.2265, -11.9727, 29.3582, 13.6659, 67.2689, -166.545
4.04794, -1, -47.2373, -11.9786, 29.3586, 13.6659, 67.2665, -166.551
4.05574, 2, -47.2429, -11.9815, 29.3588, 13.666, 67.2654, -166.553
4.0638, 2, -47.2449, -11.9828, 29.359, 13.666, 67.2649, -166.555
4.07179, 2, -47.245, -11.9833, 29.359, 13.6661, 67.2647, -166.555
4.07967, 2, -47.2448, -11.9835, 29.3591, 13.6662, 67.2646, -166.555
4.08775, 2, -47.2448, -11.9836, 29.3591, 13.6662, 67.2645, -166.556
4.09572, 2, -47.2452, -11.9837, 29.3592, 13.6662, 67.2645, -166.556
4.10375, 2, -47.2461, -11.984, 29.3592, 13.6662, 67.2645, -166.556
4.11195, 2, -47.2473, -11.9845, 29.3592, 13.6661, 67.2644, -166.556
4.11993, 2, -47.2492, -11.9852, 29.3592, 13.6661, 67.2645, -166.556
4.12667, 2, -47.25, -11.9857, 29.3592, 13.6661, 67.2645, -166.556
4.13617, 2, -47.2522, -11.987, 29.3592, 13.6661, 67.2644, -166.556
4.14412, 2, -47.2531, -11.9876, 29.3592, 13.6661, 67.2645, -166.556
4.15218, 2, -47.2535, -11.988, 29.3592, 13.6661, 67.2645, -166.556
4.16023, 2, -47.2537, -11.9882, 29.3592, 13.6661, 67.2645, -166.556
4.16824, 2, -47.2537, -11.9883, 29.3592, 13.6661, 67.2645, -166.556
4.17617, 2, -47.2534, -11.9883, 29.3592, 13.6661, 67.2645, -166.556
4.18425, 2, -47.2529, -11.9882, 29.3593, 13.6661, 67.2645, -166.556
4.19243, 2, -47.2527, -11.9882, 29.3593, 13.6662, 67.2645, -166.556
4.19965, 2, -47.2523, -11.9882, 29.3593, 13.6662, 67.2645, -166.556
4.20769, 2, -47.252, -11.9882, 29.3593, 13.6662, 67.2644, -166.556
4.21561, 2, -47.2519, -11.9882, 29.3593, 13.6661, 67.2645, -166.556
4.22363, 2, -47.252, -11.9883, 29.3593, 13.6661, 67.2645, -166.556
4.23174, 2, -47.2521, -11.9886, 29.3593, 13.6661, 67.2645, -166.556
4.23961, 2, -47.2525, -11.9889, 29.3593, 13.6661, 67.2645, -166.556
4.24762, 2, -47.2532, -11.9893, 29.3593, 13.6661, 67.2645, -166.556
4.25567, 2, -47.2536, -11.9895, 29.3593, 13.6661, 67.2645, -166.556
4.26362, 2, -47.2539, -11.9896, 29.3593, 13.666, 67.2645, -166.556
4.27168, 2, -47.2539, -11.9897, 29.3593, 13.666, 67.2645, -166.556
4.27966, 2, -47.2539, -11.9897, 29.3593, 13.666, 67.2645, -166.556
4.28761, 2, -47.2538, -11.9896, 29.3593, 13.6661, 67.2645, -166.556
4.29563, 2, -47.2533, -11.9896, 29.3593, 13.6661, 67.2645, -166.556
4.30367, 2, -47.2528, -11.9896, 29.3593, 13.6661, 67.2645, -166.555
4.31168, 2, -47.2525, -11.9895, 29.3593, 13.6661, 67.2645, -166.556
4.31961, 2, -47.2524, -11.9895, 29.3593, 13.6661, 67.2645, -166.556
4.32768, 2, -47.2522, -11.9895, 29.3593, 13.6661, 67.2645, -166.556
4.33667, 2, -47.2522, -11.9896, 29.3593, 13.6661, 67.2645, -166.556
4.34361, 2, -47.2522, -11.9897, 29.3593, 13.6661, 67.2646, -166.556
4.35175, 2, -47.2521, -11.9897, 29.3593, 13.6661, 67.2645, -166.555
4.35962, 2, -47.2521, -11.9898, 29.3593, 13.6661, 67.2645, -166.555
4.36761, 2, -47.2521, -11.9898, 29.3593, 13.6661, 67.2645, -166.555
4.3757, 2, -47.2522, -11.9898, 29.3593, 13.666, 67.2645, -166.555
4.38361, 2, -47.2522, -11.9898, 29.3593, 13.6661, 67.2645, -166.555
4.39171, 2, -47.2521, -11.9897, 29.3593, 13.666, 67.2645, -166.555
4.39967, 2, -47.252, -11.9896, 29.3593, 13.666, 67.2645, -166.555
4.40761, 2, -47.2519, -11.9896, 29.3593, 13.666, 67.2645, -166.555
4.41563, 2, -47.2518, -11.9895, 29.3593, 13.666, 67.2645, -166.555
4.42369, 2, -47.2516, -11.9895, 29.3593, 13.666, 67.2645, -166.555
4.43168, 2, -47.2515, -11.9895, 29.3593, 13.666, 67.2645, -166.555
4.4396, 2, -47.2514, -11.9895, 29.3593, 13.666, 67.2646, -166.555
4.44767, 2, -47.2514, -11.9895, 29.3593, 13.666, 67.2646, -166.555
4.4556, 2, -47.2514, -11.9896, 29.3593, 13.666, 67.2646, -166.555
4.46362, 2, -47.2513, -11.9896, 29.3593, 13.666, 67.2646, -166.555
4.47174, 2, -47.2513, -11.9896, 29.3593, 13.666, 67.2645, -166.555
4.47959, 2, -47.2512, -11.9896, 29.3593, 13.666, 67.2646, -166.555
4.4876, 2, -47.2511, -11.9895, 29.3593, 13.666, 67.2646, -166.555
4.49567, 2, -47.2511, -11.9895, 29.3593, 13.666, 67.2646, -166.555
4.50361, 2, -47.251, -11.9894, 29.3593, 13.666, 67.2646, -166.555
4.51171, 2, -47.2509, -11.9893, 29.3593, 13.666, 67.2646, -166.555
4.51972, 2, -47.2508, -11.9893, 29.3593, 13.666, 67.2646, -166.555
4.5277, 2, -47.2507, -11.9892, 29.3593, 13.666, 67.2646, -166.555
4.5357, 2, -47.2506, -11.9892, 29.3593, 13.666, 67.2646, -166.555
4.5438, 2, -47.2506, -11.9892, 29.3593, 13.666, 67.2646, -166.555
4.55178, 2, -47.2505, -11.9892, 29.3593, 13.666, 67.2646, -166.555
4.55979, 2, -47.2504, -11.9892, 29.3593, 13.666, 67.2646, -166.555
4.56778, 2, -47.2503, -11.9892, 29.3593, 13.666, 67.2646, -166.555
4.57561, 2, -47.2502, -11.9892, 29.3593, 13.6659, 67.2646, -166.555
4.58365, 2, -47.2501, -11.9892, 29.3593, 13.6659, 67.2647, -166.555
4.59188, 2, -47.2499, -11.9892, 29.3593, 13.6659, 67.2647, -166.555
4.59984, 2, -47.2499, -11.9892, 29.3593, 13.6659, 67.2646, -166.555
4.60773, 2, -47.2498, -11.9891, 29.3593, 13.6659, 67.2646, -166.555
4.61586, 2, -47.2496, -11.989, 29.3593, 13.6659, 67.2646, -166.555
4.62413, 2, -47.2495, -11.9889, 29.3593, 13.6659, 67.2646, -166.555
4.63203, 2, -47.2494, -11.9889, 29.3593, 13.6659, 67.2646, -166.555
4.63861, 2, -47.2494, -11.9889, 29.3593, 13.6659, 67.2646, -166.555
4.64861, 2, -47.2492, -11.9889, 29.3593, 13.6659, 67.2647, -166.555
4.6561, 2, -47.2491, -11.9889, 29.3593, 13.6659, 67.2647, -166.555
4.66415, 2, -47.2491, -11.9889, 29.3593, 13.6659, 67.2647, -166.555
4.67265, 2, -47.249, -11.9889, 29.3593, 13.6659, 67.2647, -166.555
4.68016, 2, -47.249, -11.9889, 29.3593, 13.6658, 67.2647, -166.555
4.68821, 2, -47.2489, -11.9889, 29.3593, 13.6658, 67.2647, -166.555
4.69663, 2, -47.2489, -11.9888, 29.3593, 13.6659, 67.2647, -166.555
4.7036, 2, -47.2488, -11.9888, 29.3593, 13.6659, 67.2647, -166.555
4.71226, 2, -47.2488, -11.9887, 29.3593, 13.6658, 67.2647, -166.555
4.72048, 2, -47.2487, -11.9886, 29.3593, 13.6658, 67.2647, -166.555
4.72762, 2, -47.2486, -11.9886, 29.3593, 13.6658, 67.2647, -166.555
4.73564, 2, -47.2485, -11.9885, 29.3593, 13.6658, 67.2647, -166.555
4.74359, 2, -47.2484, -11.9885, 29.3593, 13.6658, 67.2647, -166.555
4.75168, 2, -47.2484, -11.9885, 29.3593, 13.6658, 67.2647, -166.555
4.75966, 2, -47.2483, -11.9885, 29.3593, 13.6658, 67.2647, -166.555
4.76759, 2, -47.2483, -11.9885, 29.3593, 13.6658, 67.2647, -166.555
4.77559, 2, -47.2483, -11.9885, 29.3592, 13.6658, 67.2647, -166.555
4.78364, 2, -47.2483, -11.9885, 29.3593, 13.6658, 67.2647, -166.555
4.79166, 2, -47.2483, -11.9885, 29.3593, 13.6658, 67.2648, -166.555
4.79961, 2, -47.2482, -11.9884, 29.3593, 13.6658, 67.2648, -166.555
4.80662, 2, -47.2483, -11.9884, 29.3593, 13.6657, 67.2648, -166.555
4.81559, 2, -47.2482, -11.9883, 29.3593, 13.6657, 67.2648, -166.554
4.82359, 2, -47.2481, -11.9882, 29.3593, 13.6657, 67.2648, -166.554
4.83173, 2, -47.2481, -11.9882, 29.3593, 13.6657, 67.2648, -166.555
4.84164, 2, -47.2479, -11.9881, 29.3593, 13.6657, 67.2648, -166.554
4.84759, 2, -47.2479, -11.9881, 29.3593, 13.6657, 67.2648, -166.554
4.85566, 2, -47.2478, -11.9881, 29.3593, 13.6656, 67.2648, -166.554
4.86359, 2, -47.2478, -11.9881, 29.3593, 13.6656, 67.2648, -166.554
4.87166, 2, -47.2477, -11.9881, 29.3593, 13.6656, 67.2648, -166.554
4.87969, 2, -47.2476, -11.9881, 29.3593, 13.6656, 67.2648, -166.554
4.88759, 2, -47.2476, -11.988, 29.3593, 13.6656, 67.2648, -166.554
4.89561, 2, -47.2476, -11.988, 29.3593, 13.6656, 67.2648, -166.554
4.90366, 2, -47.2476, -11.988, 29.3593, 13.6656, 67.2648, -166.554
4.91166, 2, -47.2475, -11.988, 29.3593, 13.6656, 67.2648, -166.554
4.91961, 2, -47.2475, -11.9879, 29.3593, 13.6656, 67.2648, -166.554
4.92768, 2, -47.2474, -11.9878, 29.3593, 13.6656, 67.2648, -166.554
4.93559, 2, -47.2473, -11.9878, 29.3593, 13.6656, 67.2649, -166.554
4.94369, 2, -47.2473, -11.9877, 29.3593, 13.6655, 67.2649, -166.554
4.95173, 2, -47.2472, -11.9877, 29.3593, 13.6655, 67.2649, -166.554
4.95959, 2, -47.2472, -11.9877, 29.3593, 13.6655, 67.2649, -166.554
4.96761, 2, -47.2471, -11.9877, 29.3593, 13.6655, 67.2649, -166.554
4.97566, 2, -47.2471, -11.9877, 29.3593, 13.6654, 67.2649, -166.554
4.98358, 2, -47.247, -11.9877, 29.3593, 13.6654, 67.265, -166.554
4.99166, 2, -47.247, -11.9877, 29.3593, 13.6654, 67.265, -166.554
4.99966, 2, -47.247, -11.9876, 29.3593, 13.6654, 67.265, -166.554
5.00759, 2, -47.2469, -11.9876, 29.3593, 13.6654, 67.265, -166.554
5.01561, 2, -47.2469, -11.9876, 29.3592, 13.6654, 67.265, -166.554
5.02371, 2, -47.2469, -11.9875, 29.3592, 13.6654, 67.265, -166.554
5.03174, 2, -47.2468, -11.9875, 29.3593, 13.6654, 67.2651, -166.554
5.03968, 2, -47.2467, -11.9874, 29.3593, 13.6654, 67.265, -166.554
5.04778, 2, -47.2466, -11.9874, 29.3593, 13.6654, 67.2651, -166.554
5.05798, 2, -47.2466, -11.9873, 29.3593, 13.6654, 67.265, -166.554
5.06378, 2, -47.2465, -11.9873, 29.3592, 13.6653, 67.2651, -166.554
5.07178, 2, -47.2465, -11.9873, 29.3593, 13.6653, 67.2651, -166.554
5.07959, 2, -47.2464, -11.9873, 29.3593, 13.6653, 67.2651, -166.554
5.08771, 2, -47.2464, -11.9873, 29.3593, 13.6653, 67.2651, -166.554
5.09567, 2, -47.2464, -11.9873, 29.3593, 13.6652, 67.2651, -166.554
5.1037, 2, -47.2463, -11.9873, 29.3593, 13.6652, 67.2651, -166.554
5.11184, 2, -47.2464, -11.9872, 29.3592, 13.6652, 67.2651, -166.554
5.11982, 4, -47.2464, -11.9872, 29.3592, 13.6652, 67.2651, -166.554
5.12788, 4, -47.2463, -11.9871, 29.3592, 13.6652, 67.2651, -166.554
5.13643, 4, -47.2462, -11.9871, 29.3593, 13.6652, 67.2652, -166.554
5.14398, 4, -47.2462, -11.987, 29.3593, 13.6652, 67.2651, -166.554
5.15065, 4, -47.2461, -11.987, 29.3593, 13.6652, 67.2651, -166.554
5.1605, 4, -47.246, -11.987, 29.3593, 13.6651, 67.2652, -166.554
5.16812, 4, -47.246, -11.987, 29.3593, 13.6651, 67.2651, -166.554
5.17618, 4, -47.2459, -11.987, 29.3593, 13.6651, 67.2652, -166.554
5.18443, 4, -47.2459, -11.987, 29.3593, 13.6651, 67.2652, -166.554
5.19222, 4, -47.2459, -11.987, 29.3593, 13.6651, 67.2653, -166.554
5.19958, 4, -47.2459, -11.987, 29.3592, 13.6651, 67.2653, -166.553
5.2085, 4, -47.2458, -11.9869, 29.3593, 13.6651, 67.2652, -166.553
5.21652, 4, -47.2458, -11.9869, 29.3593, 13.6651, 67.2652, -166.553
5.23145, 4, -47.2458, -11.9869, 29.3592, 13.665, 67.2652, -166.553
5.23412, 4, -47.2458, -11.9868, 29.3592, 13.6651, 67.2653, -166.553
5.23979, 4, -47.2458, -11.9868, 29.3593, 13.6651, 67.2653, -166.553
5.24889, 4, -47.2456, -11.9867, 29.3593, 13.665, 67.2653, -166.553
5.25577, 4, -47.2456, -11.9867, 29.3593, 13.665, 67.2653, -166.553
5.26378, 4, -47.2455, -11.9867, 29.3593, 13.665, 67.2653, -166.553
5.27185, 4, -47.2455, -11.9867, 29.3593, 13.665, 67.2653, -166.553
5.27975, 4, -47.2455, -11.9867, 29.3592, 13.665, 67.2653, -166.553
5.29401, 4, -47.2454, -11.9867, 29.3592, 13.665, 67.2653, -166.553
5.29756, 4, -47.2454, -11.9867, 29.3592, 13.6649, 67.2653, -166.553
5.30375, 4, -47.2454, -11.9866, 29.3593, 13.6649, 67.2653, -166.553
5.31393, 4, -47.2454, -11.9866, 29.3593, 13.665, 67.2653, -166.553
5.3198, 4, -47.2454, -11.9866, 29.3593, 13.665, 67.2653, -166.553
5.32773, 4, -47.2453, -11.9866, 29.3593, 13.6649, 67.2654, -166.553
5.33822, 4, -47.2453, -11.9865, 29.3593, 13.6649, 67.2654, -166.553
5.34378, 4, -47.2453, -11.9865, 29.3593, 13.6649, 67.2653, -166.553
5.3518, 4, -47.2452, -11.9865, 29.3593, 13.6649, 67.2653, -166.553
5.35988, 4, -47.2451, -11.9865, 29.3592, 13.6649, 67.2654, -166.553
5.36784, 4, -47.2451, -11.9865, 29.3592, 13.6649, 67.2653, -166.553
5.3758, 4, -47.245, -11.9864, 29.3592, 13.6649, 67.2653, -166.553
5.3863, 4, -47.2452, -11.9865, 29.3593, 13.6649, 67.2654, -166.553
5.39537, 4, -47.2461, -11.9869, 29.3597, 13.665, 67.2654, -166.553
5.40238, 4, -47.2484, -11.9887, 29.3616, 13.6667, 67.266, -166.553
5.41004, 4, -47.2502, -11.9906, 29.3637, 13.6764, 67.2683, -166.552
5.41572, 4, -47.2557, -11.9971, 29.3723, 13.6865, 67.2708, -166.55
5.42374, 4, -47.2648, -12.009, 29.3902, 13.7219, 67.2803, -166.543
5.43434, 4, -47.2893, -12.0419, 29.4471, 13.8378, 67.3127, -166.517
5.44052, 5, -47.3015, -12.0582, 29.4771, 13.9003, 67.3304, -166.503
5.44773, 5, -47.3333, -12.0998, 29.5586, 14.0719, 67.3783, -166.463
5.45577, 5, -47.3765, -12.1552, 29.6732, 14.3168, 67.4458, -166.407
5.46777, 5, -47.4652, -12.2662, 29.9138, 14.8386, 67.5878, -166.287
5.47186, 5, -47.5011, -12.3108, 30.0133, 15.0545, 67.6459, -166.237
5.48051, 5, -47.582, -12.4113, 30.241, 15.5459, 67.7773, -166.125
5.48772, 5, -47.6744, -12.5257, 30.503, 16.1062, 67.9252, -165.998
5.49581, 5, -47.7767, -12.6524, 30.7953, 16.7214, 68.0858, -165.86
5.50733, 5, -47.9447, -12.8615, 31.277, 17.7152, 68.3392, -165.64
5.51183, 5, -48.0034, -12.9351, 31.4462, 18.0574, 68.4251, -165.566
5.52182, 5, -48.1233, -13.086, 31.7922, 18.7499, 68.5962, -165.417
5.52965, 5, -48.2441, -13.2393, 32.1449, 19.4453, 68.765, -165.269
5.53692, 5, -48.3627, -13.3917, 32.4997, 20.1321, 68.93, -165.121
5.54383, 5, -48.4753, -13.5404, 32.8529, 20.8012, 69.0912, -164.968
5.55238, 6, -48.5776, -13.6822, 33.1976, 21.4407, 69.2501, -164.799
5.55984, 6, -48.6651, -13.8138, 33.529, 22.0398, 69.4085, -164.601
5.56854, 6, -48.7342, -13.9352, 33.8426, 22.5923, 69.5693, -164.359
5.57765, 7, -48.782, -14.0476, 34.1363, 23.0943, 69.7347, -164.062
5.58473, 7, -48.8085, -14.1515, 34.4092, 23.55, 69.9081, -163.698
5.59458, 8, -48.8151, -14.2458, 34.663, 23.9672, 70.0925, -163.263
5.60069, 8, -48.8036, -14.3304, 34.9019, 24.3562, 70.2891, -162.761
5.60974, 9, -48.7774, -14.407, 35.1289, 24.727, 70.4983, -162.201
5.61693, 9, -48.7389, -14.4778, 35.3482, 25.0893, 70.7189, -161.598
5.62414, 10, -48.6895, -14.5448, 35.5643, 25.4489, 70.9488, -160.968
5.63616, 10, -48.5978, -14.6398, 35.886, 25.9895, 71.3049, -159.996
5.64027, 11, -48.5641, -14.6701, 35.993, 26.1705, 71.4249, -159.67
5.64916, 11, -48.4932, -14.7301, 36.2071, 26.5348, 71.665, -159.021
5.66104, 12, -48.3792, -14.8213, 36.5252, 27.09, 72.0254, -158.051
5.66694, 12, -48.3399, -14.8521, 36.6304, 27.278, 72.1456, -157.728
5.6726, 12, -48.2608, -14.9133, 36.8398, 27.659, 72.3868, -157.08
5.68195, 13, -48.1805, -14.9728, 37.0474, 28.0466, 72.6295, -156.431
5.68849, 13, -48.098, -15.0322, 37.2533, 28.4404, 72.8736, -155.778
5.69712, 14, -48.0553, -15.0928, 37.4585, 28.8389, 73.1192, -155.125
5.70653, 15, -47.9212, -15.1537, 37.6628, 29.2404, 73.3653, -154.473
5.71371, 15, -47.8276, -15.2136, 37.8643, 29.643, 73.6106, -153.823
5.72175, 16, -47.729, -15.2726, 38.0637, 30.0455, 73.8542, -153.175
5.72771, 17, -47.6773, -15.3023, 38.1627, 30.2462, 73.9752, -152.852
5.73796, 17, -47.5125, -15.3938, 38.4546, 30.8455, 74.3332, -151.892
5.75035, 19, -47.3962, -15.4565, 38.6447, 31.2412, 74.6806, -150.942
5.77398, 19, -46.9481, -15.6827, 39.2894, 32.5983, 75.3371, -149.091
5.77584, 19, -46.9481, -15.6827, 39.2894, 32.5983, 75.3371, -149.091
5.77908, 19, -46.8789, -15.717, 39.3794, 32.7898, 75.4417, -148.788
5.78355, 20, -46.8083, -15.7517, 39.4691, 32.9807, 75.5451, -148.488
5.78939, 20, -46.6633, -15.8228, 39.6471, 33.3616, 75.7485, -147.892
5.79536, 20, -46.5888, -15.8592, 39.7352, 33.5517, 75.8487, -147.597
5.79972, 21, -46.5131, -15.8964, 39.8226, 33.7416, 75.9478, -147.304
5.80778, 21, -46.3583, -15.9732, 39.996, 34.1204, 76.1428, -146.721
5.81578, 22, -46.1991, -16.053, 40.1683, 34.4979, 76.333, -146.145
5.82369, 22, -46.035, -16.1344, 40.3385, 34.8724, 76.5176, -145.578
5.83436, 23, -45.7789, -16.2592, 40.5882, 35.4271, 76.7841, -144.738
5.84059, 23, -45.6905, -16.3018, 40.6703, 35.6097, 76.8699, -144.462
5.84973, 24, -45.4155, -16.4322, 40.9123, 36.1501, 77.119, -143.64
5.85577, 24, -45.3205, -16.4766, 40.9909, 36.3276, 77.1992, -143.369
5.8637, 25, -45.1256, -16.5663, 41.1449, 36.678, 77.3559, -142.83
5.87173, 25, -44.9241, -16.6571, 41.2946, 37.0217, 77.5078, -142.294
5.88058, 26, -44.7161, -16.7487, 41.4399, 37.3591, 77.6551, -141.761
5.88774, 26, -44.5012, -16.8409, 41.5799, 37.6889, 77.798, -141.232
5.89839, 27, -44.1653, -16.9788, 41.7794, 38.1698, 78.0046, -140.441
5.90751, 27, -43.9328, -17.0701, 41.9049, 38.4804, 78.1373, -139.916
5.91569, 28, -43.6936, -17.1606, 42.0242, 38.7829, 78.2665, -139.391
5.91998, 28, -43.5714, -17.2054, 42.0813, 38.9309, 78.3296, -139.13
5.93062, 29, -43.1949, -17.3376, 42.2425, 39.3619, 78.5143, -138.346
5.93727, 29, -43.0663, -17.3809, 42.2928, 39.5016, 78.5743, -138.085
5.94465, 30, -42.8036, -17.4663, 42.3879, 39.7747, 78.6916, -137.562
5.95171, 30, -42.5327, -17.5496, 42.4758, 40.039, 78.8063, -137.041
5.95975, 31, -42.2529, -17.6306, 42.5565, 40.2948, 78.9177, -136.52
5.96778, 31, -41.9654, -17.709, 42.6302, 40.542, 79.0265, -136
5.97579, 32, -41.6706, -17.785, 42.6969, 40.7808, 79.1329, -135.48
5.98518, 32, -41.369, -17.8588, 42.7569, 41.0112, 79.2364, -134.961
5.99171, 33, -41.061, -17.9297, 42.8098, 41.2334, 79.3375, -134.443
6.00338, 33, -40.5864, -18.0301, 42.8758, 41.5516, 79.4843, -133.668
6.0077, 34, -40.4252, -18.0621, 42.8941, 41.6535, 79.5319, -133.41
6.01699, 34, -40.0992, -18.1242, 42.9253, 41.8514, 79.6251, -132.895
6.02381, 35, -39.7682, -18.1835, 42.9492, 42.0413, 79.7162, -132.381
6.0328, 35, -39.4314, -18.2394, 42.9662, 42.2239, 79.8042, -131.868
6.04349, 36, -38.9132, -18.3169, 42.9784, 42.4834, 79.9326, -131.101
6.04837, 36, -38.7367, -18.3411, 42.9791, 42.5659, 79.9744, -130.846
6.05699, 37, -38.3792, -18.3869, 42.9756, 42.7254, 80.0561, -130.336
6.06884, 38, -37.8318, -18.4489, 42.9573, 42.9506, 80.1752, -129.576
6.07615, 38, -37.4604, -18.4858, 42.9367, 43.0916, 80.2516, -129.071
6.08039, 38, -37.273, -18.503, 42.9239, 43.1592, 80.2894, -128.819
6.09005, 39, -36.895, -18.5348, 42.8933, 43.289, 80.3627, -128.316
6.09845, 39, -36.5123, -18.563, 42.856, 43.4114, 80.434, -127.816
6.1058, 40, -36.1245, -18.5875, 42.812, 43.5264, 80.5036, -127.317
6.11271, 40, -35.7305, -18.6081, 42.7615, 43.6344, 80.5714, -126.82
6.12071, 41, -35.3307, -18.6247, 42.7045, 43.7352, 80.6372, -126.325
6.12884, 41, -34.9254, -18.6376, 42.6409, 43.8284, 80.7006, -125.832
6.13679, 42, -34.5157, -18.6472, 42.5709, 43.915, 80.7628, -125.342
6.14501, 42, -34.1029, -18.6534, 42.4946, 43.9942, 80.8221, -124.854
6.15309, 43, -33.687, -18.6565, 42.4121, 44.0662, 80.8808, -124.367
6.16106, 43, -33.2668, -18.6563, 42.3236, 44.1313, 80.9368, -123.883
6.16852, 44, -32.8408, -18.6523, 42.2294, 44.1894, 80.9915, -123.402
6.18015, 44, -32.4084, -18.6392, 42.0773, 44.2623, 81.0707, -122.685
6.18628, 45, -31.9698, -18.6329, 42.0236, 44.2832, 81.0959, -122.447
6.19484, 45, -31.5264, -18.6177, 41.9118, 44.3194, 81.1459, -121.972
6.20042, 46, -31.3035, -18.5991, 41.7939, 44.3478, 81.1943, -121.5
6.20907, 46, -30.8563, -18.5885, 41.7328, 44.359, 81.24, -121.031
6.21646, 47, -30.4068, -18.5645, 41.5407, 44.3813, 81.2849, -120.564
6.22507, 47, -29.9532, -18.5363, 41.4737, 44.3851, 81.3073, -120.33
6.23253, 48, -29.4936, -18.5035, 41.3353, 44.3862, 81.3717, -119.635
6.23976, 48, -29.0274, -18.4665, 41.1908, 44.3823, 81.3925, -119.403
6.25093, 49, -28.3176, -18.4028, 40.9627, 44.3576, 81.4553, -118.713
6.2595, 49, -27.8408, -18.3548, 40.8034, 44.3298, 81.4964, -118.255
6.26745, 50, -27.3614, -18.3022, 40.6375, 44.292, 81.5368, -117.797
6.27169, 50, -27.1205, -18.274, 40.5521, 44.2697, 81.5574, -117.569
6.28141, 51, -26.3883, -18.1809, 40.2862, 44.1895, 81.6208, -116.885
6.28774, 51, -26.1404, -18.1471, 40.1943, 44.1575, 81.642, -116.658
6.29849, 52, -25.3861, -18.0374, 39.9075, 44.0477, 81.7061, -115.977
6.30368, 52, -25.1325, -17.9982, 39.8083, 44.0057, 81.7282, -115.75
6.31174, 53, -24.624, -17.9159, 39.6054, 43.9141, 81.7731, -115.297
6.3197, 53, -24.1132, -17.8279, 39.3961, 43.8127, 81.8178, -114.845
6.33068, 54, -23.337, -17.6843, 39.0675, 43.6413, 81.8884, -114.167
6.33778, 54, -22.8095, -17.5809, 38.8401, 43.5136, 81.9377, -113.715
6.3456, 55, -22.2746, -17.4712, 38.6052, 43.3745, 81.9886, -113.264
6.35169, 55, -22.0054, -17.4141, 38.4848, 43.3006, 82.0153, -113.038
6.36005, 56, -21.4652, -17.2953, 38.2395, 43.1438, 82.0704, -112.586
6.37008, 56, -20.6491, -17.1065, 37.8586, 42.8871, 82.1552, -111.909
6.37794, 57, -20.0963, -16.9738, 37.5963, 42.7016, 82.2146, -111.458
6.38369, 57, -19.8163, -16.9053, 37.4628, 42.6045, 82.2445, -111.233
6.39272, 58, -19.2499, -16.7638, 37.1902, 42.4009, 82.3062, -110.783
6.3997, 58, -18.6783, -16.6162, 36.9115, 42.1847, 82.3702, -110.333
6.40872, 59, -18.1041, -16.4631, 36.6264, 41.9561, 82.4355, -109.884
6.41838, 59, -17.2355, -16.2246, 36.1865, 41.5898, 82.5388, -109.21
6.42381, 60, -16.9417, -16.1428, 36.0368, 41.4613, 82.5741, -108.985
6.43488, 60, -16.0456, -15.8891, 35.5798, 41.0566, 82.6834, -108.312
6.4447, 61, -15.4409, -15.7138, 35.2684, 40.7702, 82.7582, -107.863
6.44806, 61, -15.1376, -15.6246, 35.1105, 40.6224, 82.7965, -107.639
6.45847, 62, -14.5285, -15.443, 34.6288, 40.1601, 82.9145, -106.966
6.4637, 62, -13.9125, -15.2565, 34.4656, 39.9994, 82.9549, -106.742
6.47176, 63, -13.2861, -15.0639, 34.136, 39.6679, 83.0379, -106.293
6.48161, 63, -12.6511, -14.8649, 33.801, 39.3219, 83.1237, -105.843
6.48775, 64, -12.0108, -14.6609, 33.461, 38.9615, 83.2132, -105.393
6.49577, 64, -11.3664, -14.451, 33.1146, 38.5866, 83.3063, -104.942
6.5037, 65, -10.7135, -14.2333, 32.7621, 38.1965, 83.4042, -104.489
6.51282, 65, -10.0497, -14.0084, 32.403, 37.7902, 83.5073, -104.034
6.52093, 66, -9.37623, -13.7767, 32.0385, 37.366, 83.616, -103.576
6.52843, 66, -8.69536, -13.538, 31.6683, 36.9251, 83.7312, -103.118
6.53584, 67, -8.00899, -13.292, 31.291, 36.4666, 83.8529, -102.657
6.54412, 67, -7.31413, -13.0392, 30.907, 35.9915, 83.9816, -102.193
6.55326, 68, -6.61015, -12.7794, 30.5177, 35.5004, 84.1171, -101.726
6.56161, 68, -5.8994, -12.5135, 30.1256, 34.9959, 84.2583, -101.258
6.56911, 69, -5.18388, -12.2407, 29.7304, 34.4795, 84.405, -100.788
6.57669, 69, -4.4627, -11.9597, 29.3327, 33.9515, 84.5565, -100.316
6.58461, 70, -3.73416, -11.6725, 28.9345, 33.4122, 84.7137, -99.8437
6.59253, 70, -2.99747, -11.3782, 28.5361, 32.8585, 84.8772, -99.3694
6.60384, 71, -1.87695, -10.9209, 27.9349, 32.0006, 85.1357, -98.6559
6.60869, 71, -1.49897, -10.7646, 27.7329, 31.7066, 85.2264, -98.4167
6.61688, 72, -0.737374, -10.4473, 27.3263, 31.105, 85.4157, -97.9361
6.62467, 72, 0.0308325, -10.1249, 26.9168, 30.4841, 85.6148, -97.4516
6.63235, 73, 0.805255, -9.7938, 26.5045, 29.8496, 85.8233, -96.9637
6.64415, 73, 1.97663, -9.28137, 25.8843, 28.8757, 86.1511, -96.228
6.64952, 74, 2.36875, -9.10777, 25.678, 28.5465, 86.2644, -95.9814
6.65884, 74, 3.15448, -8.75821, 25.2677, 27.883, 86.496, -95.4869
6.66451, 75, 3.94179, -8.40331, 24.8629, 27.2145, 86.7332, -94.9915
6.67415, 75, 4.73211, -8.04142, 24.4638, 26.5449, 86.9748, -94.4957
6.6812, 76, 5.52468, -7.67359, 24.0716, 25.8768, 87.2211, -93.9994
6.70014, 76, 6.3187, -7.30012, 23.6868, 25.2077, 87.4721, -93.5012
6.70205, 77, 7.51182, -6.72503, 23.1197, 24.2042, 87.8614, -92.7498
6.71638, 78, 9.10772, -5.93007, 22.3746, 22.8527, 88.4168, -91.7388
6.71784, 78, 9.10772, -5.93007, 22.3746, 22.8527, 88.4168, -91.7388
6.71948, 78, 9.10772, -5.93007, 22.3746, 22.8527, 88.4168, -91.7388
6.72857, 79, 9.90586, -5.52115, 22.006, 21.8246, 88.8674, -90.9702
6.73559, 79, 10.7031, -5.10256, 21.6394, 21.4803, 89.024, -90.7118
6.74352, 80, 11.4975, -4.67385, 21.275, 20.791, 89.3466, -90.1919
6.75154, 80, 12.2871, -4.23573, 20.9146, 20.101, 89.6805, -89.6677
6.7595, 81, 13.0707, -3.78797, 20.5589, 19.4164, 90.0255, -89.1382
6.76756, 81, 13.8494, -3.33197, 20.2092, 18.7418, 90.379, -88.6047
6.77558, 82, 14.6215, -2.86879, 19.8666, 18.0801, 90.7402, -88.0674
6.78256, 82, 15.3854, -2.39795, 19.5338, 17.4322, 91.1069, -87.528
6.7915, 83, 16.14, -1.92018, 19.2111, 16.8006, 91.4787, -86.9854
6.79959, 83, 16.884, -1.43572, 18.8992, 16.1877, 91.8546, -86.4406
6.80776, 84, 17.6154, -0.945205, 18.5976, 15.5938, 92.2348, -85.8941
6.81556, 84, 18.3301, -0.450214, 18.306, 15.0181, 92.6201, -85.3474
6.82362, 84, 19.0271, 0.0486544, 18.023, 14.4622, 93.0121, -84.7999
6.83153, 85, 19.7065, 0.552558, 17.7462, 13.9256, 93.4122, -84.2535
6.84054, 85, 20.3683, 1.06119, 17.4758, 13.4088, 93.8205, -83.7089
6.8476, 86, 21.0136, 1.57403, 17.2105, 12.9128, 94.2353, -83.1669
6.85659, 86, 21.6441, 2.09229, 16.9511, 12.4379, 94.6557, -82.6259
6.86351, 87, 22.2619, 2.61869, 16.6977, 11.9849, 95.0818, -82.0839
6.8716, 87, 22.8684, 3.15531, 16.4488, 11.5524, 95.5137, -81.5387
6.87975, 88, 23.4653, 3.70137, 16.2043, 11.1391, 95.9518, -80.9896
6.88759, 88, 24.0522, 4.25483, 15.9633, 10.742, 96.3957, -80.4324
6.89557, 88, 24.6279, 4.81705, 15.7266, 10.3611, 96.8456, -79.8661
6.90359, 89, 25.1916, 5.39024, 15.4961, 9.99495, 97.3023, -79.2887
6.91155, 89, 25.7459, 5.97426, 15.2693, 9.64451, 97.7653, -78.6999
6.9196, 90, 26.2954, 6.56801, 15.0456, 9.30851, 98.2345, -78.0976
6.92753, 90, 26.8372, 7.17061, 14.8268, 8.98847, 98.7103, -77.4809
6.93557, 91, 27.3664, 7.78198, 14.6133, 8.68572, 99.1924, -76.8515
6.94362, 91, 27.883, 8.40376, 14.404, 8.40162, 99.6806, -76.2101
6.95152, 92, 28.3903, 9.03654, 14.1989, 8.13899, 100.173, -75.5571
6.95954, 92, 28.8906, 9.67939, 13.9985, 7.89816, 100.67, -74.8955
6.9676, 93, 29.3811, 10.3297, 13.8038, 7.68008, 101.169, -74.2273
6.97555, 93, 29.8589, 10.9858, 13.6167, 7.48551, 101.668, -73.5516
6.98363, 94, 30.3225, 11.646, 13.4375, 7.31455, 102.166, -72.8697
6.99158, 94, 30.7718, 12.3091, 13.2651, 7.16718, 102.661, -72.1834
6.99954, 95, 31.2072, 12.9741, 13.0999, 7.04358, 103.153, -71.4918
7.00772, 95, 31.6289, 13.6408, 12.9428, 6.94362, 103.641, -70.7939
7.01555, 96, 32.0362, 14.3086, 12.7926, 6.86706, 104.126, -70.0913
7.02374, 96, 32.4274, 14.9771, 12.6487, 6.81504, 104.607, -69.3835
7.03157, 97, 32.8024, 15.6457, 12.5117, 6.78452, 105.083, -68.6694
7.03985, 97, 33.1614, 16.3126, 12.3824, 6.77524, 105.553, -67.9514
7.04763, 98, 33.505, 16.9771, 12.2616, 6.7884, 106.016, -67.2306
7.05564, 98, 33.8345, 17.6372, 12.1497, 6.8222, 106.47, -66.5065
7.06373, 99, 34.1503, 18.2914, 12.0471, 6.87554, 106.914, -65.783
7.07172, 99, 34.4542, 18.938, 11.9539, 6.94838, 107.346, -65.0616
7.07962, 100, 34.7469, 19.5762, 11.8696, 7.03829, 107.765, -64.3419
7.08767, 100, 35.028, 20.2049, 11.7942, 7.14562, 108.17, -63.6273
7.09557, 101, 35.2971, 20.8223, 11.7269, 7.26834, 108.56, -62.9201
7.10429, 101, 35.5545, 21.4289, 11.6681, 7.40544, 108.934, -62.2192
7.11175, 102, 35.7993, 22.0228, 11.6178, 7.55481, 109.29, -61.5284
7.11966, 102, 36.0304, 22.6037, 11.5759, 7.71474, 109.63, -60.8497
7.12775, 103, 36.2507, 23.1699, 11.5426, 7.8834, 109.952, -60.1827
7.13591, 103, 36.4637, 23.7206, 11.5182, 8.05991, 110.257, -59.528
7.14385, 103, 36.6703, 24.2558, 11.5029, 8.24452, 110.543, -58.8876
7.15274, 104, 36.87, 24.7753, 11.4957, 8.43785, 110.81, -58.2593
7.16009, 104, 37.0639, 25.2788, 11.4953, 8.64001, 111.058, -57.6421
7.16804, 104, 37.2519, 25.7666, 11.5014, 8.85051, 111.287, -57.0368
7.17612, 104, 37.431, 26.2383, 11.5126, 9.06788, 111.497, -56.4444
7.18412, 104, 37.5993, 26.6935, 11.5269, 9.29028, 111.689, -55.8653
7.1921, 104, 37.7593, 27.1334, 11.5439, 9.51515, 111.867, -55.3024
7.20018, 104, 37.8374, 27.5578, 11.5634, 9.73941, 112.032, -54.759
7.20809, 104, 37.991, 27.7641, 11.5736, 9.85054, 112.111, -54.4958
7.21612, 104, 38.1405, 28.1643, 11.5942, 10.0697, 112.262, -53.9858
7.22356, 104, 38.2846, 28.5476, 11.6146, 10.2839, 112.404, -53.4989
7.23157, 104, 38.4223, 28.9144, 11.6337, 10.4916, 112.538, -53.0363
7.23952, 104, 38.5527, 29.2628, 11.6518, 10.6921, 112.664, -52.5979
7.24758, 104, 38.675, 29.5933, 11.6689, 10.8844, 112.783, -52.1848
7.25555, 104, 38.7888, 29.9043, 11.6847, 11.0679, 112.895, -51.7966
7.26353, 104, 38.8942, 30.1969, 11.6994, 11.2419, 112.998, -51.433
7.27158, 104, 38.9919, 30.4705, 11.7133, 11.4061, 113.093, -51.0952
7.27955, 104, 39.082, 30.7241, 11.7258, 11.5597, 113.182, -50.7829
7.28752, 104, 39.1643, 30.9584, 11.7371, 11.7026, 113.263, -50.4954
7.29557, 104, 39.2385, 31.1732, 11.7474, 11.8342, 113.337, -50.2335
7.30354, 104, 39.3048, 31.3677, 11.757, 11.9541, 113.403, -49.9966
7.31152, 104, 39.3633, 31.5429, 11.7656, 12.0622, 113.462, -49.7851
7.31959, 104, 39.4147, 31.6987, 11.7732, 12.1582, 113.515, -49.5985
7.32754, 104, 39.4597, 31.8353, 11.78, 12.2421, 113.559, -49.4368
7.33554, 104, 39.4991, 31.9541, 11.7862, 12.3136, 113.597, -49.2993
7.34456, 104, 39.5324, 32.0558, 11.7917, 12.374, 113.629, -49.1853
7.35153, 104, 39.5598, 32.1413, 11.7966, 12.4223, 113.654, -49.093
7.36058, 104, 39.5822, 32.212, 11.801, 12.4598, 113.674, -49.0209
7.36756, 104, 39.5998, 32.2696, 11.805, 12.4885, 113.688, -48.967
7.37555, 104, 39.6133, 32.3158, 11.8086, 12.5095, 113.698, -48.9284
7.38352, 104, 39.6237, 32.3515, 11.8119, 12.5242, 113.705, -48.902
7.39157, 104, 39.6317, 32.3782, 11.8148, 12.5339, 113.709, -48.885
7.39959, 104, 39.6372, 32.3982, 11.8174, 12.5401, 113.712, -48.8751
7.40752, 104, 39.6406, 32.4127, 11.8195, 12.5435, 113.713, -48.8699
7.4156, 104, 39.6425, 32.4223, 11.8211, 12.5452, 113.714, -48.8675
7.4235, 105, 39.6433, 32.4283, 11.8223, 12.546, 113.714, -48.8665
7.43152, 105, 39.6429, 32.4322, 11.8233, 12.5464, 113.714, -48.8662
7.43959, 105, 39.6419, 32.4349, 11.8242, 12.5466, 113.714, -48.8662
7.44756, 105, 39.6411, 32.4369, 11.8249, 12.5467, 113.714, -48.8664
7.45553, 105, 39.6401, 32.4384, 11.8256, 12.5468, 113.714, -48.8666
7.46357, 105, 39.6389, 32.4397, 11.8261, 12.5468, 113.714, -48.867
7.47154, 105, 39.6378, 32.441, 11.8267, 12.5468, 113.714, -48.8674
7.47951, 105, 39.6372, 32.4422, 11.8273, 12.5468, 113.714, -48.8677
7.48759, 105, 39.6367, 32.4433, 11.8279, 12.5468, 113.714, -48.8679
7.49555, 105, 39.6365, 32.4444, 11.8285, 12.5467, 113.714, -48.8682
7.50352, 105, 39.6363, 32.4453, 11.8289, 12.5467, 113.714, -48.8685
7.51158, 105, 39.636, 32.446, 11.8293, 12.5468, 113.714, -48.8687
7.51954, 105, 39.6357, 32.4466, 11.8296, 12.5468, 113.714, -48.869
7.52753, 105, 39.6354, 32.4469, 11.8299, 12.5468, 113.714, -48.8693
7.53562, 105, 39.6351, 32.4471, 11.8302, 12.5468, 113.714, -48.8695
