hehonglu123/Motion-Primitive-Planning/ILC/recorded_data/realrobot/from_NX/iteration_12/run_2.csv
timestamp, cmd_num, J1, J2, J3, J4, J5, J6
0.00036, -1, 39.6299, 32.4471, 11.8319, 12.5453, 113.713, -48.8724
0.00535, -1, 39.6299, 32.4471, 11.8319, 12.5453, 113.713, -48.8724
0.008119, -1, 39.6299, 32.447, 11.8319, 12.5453, 113.713, -48.8724
0.029488, -1, 39.6299, 32.4471, 11.8319, 12.5453, 113.713, -48.8723
0.03373, -1, 39.6299, 32.4471, 11.8319, 12.5453, 113.713, -48.8723
0.035862, -1, 39.6299, 32.4471, 11.8319, 12.5453, 113.713, -48.8723
0.039911, -1, 39.6299, 32.4471, 11.8319, 12.5453, 113.713, -48.8723
0.04808, -1, 39.6298, 32.447, 11.8319, 12.5453, 113.713, -48.8723
0.055975, -1, 39.6293, 32.447, 11.8319, 12.5453, 113.713, -48.8724
0.063983, -1, 39.627, 32.4465, 11.8318, 12.5453, 113.713, -48.8724
0.072002, -1, 39.6217, 32.4452, 11.8318, 12.5453, 113.713, -48.8726
0.079979, -1, 39.6129, 32.4422, 11.8317, 12.5453, 113.712, -48.8739
0.08799, -1, 39.5997, 32.4369, 11.8317, 12.5453, 113.711, -48.8785
0.096084, -1, 39.58, 32.4283, 11.8317, 12.5453, 113.707, -48.8897
0.104019, -1, 39.5515, 32.4157, 11.8322, 12.5453, 113.7, -48.9101
0.111506, -1, 39.5131, 32.3981, 11.8343, 12.5452, 113.688, -48.9436
0.120093, -1, 39.4638, 32.3743, 11.8392, 12.5452, 113.669, -48.9939
0.12791, -1, 39.4017, 32.3439, 11.8475, 12.5452, 113.641, -49.0655
0.135936, -1, 39.3264, 32.3061, 11.8603, 12.5453, 113.604, -49.1598
0.144217, -1, 39.2373, 32.2604, 11.8781, 12.5456, 113.558, -49.2797
0.150894, -1, 39.1876, 32.2346, 11.8888, 12.5459, 113.531, -49.3493
0.160021, -1, 39.0171, 32.1455, 11.9272, 12.5471, 113.434, -49.5951
0.166905, -1, 38.9534, 32.112, 11.9421, 12.5478, 113.397, -49.6886
0.176148, -1, 38.7437, 32.0014, 11.9919, 12.5504, 113.274, -49.9991
0.182937, -1, 38.6678, 31.9615, 12.0098, 12.5515, 113.23, -50.1112
0.192617, -1, 38.4249, 31.834, 12.0659, 12.5549, 113.089, -50.4666
0.200357, -1, 38.2527, 31.7438, 12.1047, 12.5572, 112.991, -50.7149
0.33205, -1, 35.2108, 30.1857, 12.7263, 12.5977, 111.35, -54.866
0.334053, -1, 35.1146, 30.1366, 12.7457, 12.599, 111.298, -54.9964
0.335371, -1, 35.1146, 30.1366, 12.7457, 12.599, 111.298, -54.9964
0.337312, -1, 35.1146, 30.1366, 12.7457, 12.599, 111.298, -55.1268
0.338843, -1, 35.0184, 30.0874, 12.7652, 12.6002, 111.247, -55.1268
0.340176, -1, 35.0184, 30.0874, 12.7652, 12.6002, 111.247, -55.1268
0.342293, -1, 34.9223, 30.0382, 12.7847, 12.6015, 111.195, -55.2572
0.346105, -1, 34.8262, 29.9889, 12.8041, 12.6028, 111.143, -55.3874
0.347423, -1, 34.8262, 29.9889, 12.8041, 12.6028, 111.143, -55.3874
0.350113, -1, 34.8262, 29.9889, 12.8041, 12.6028, 111.143, -55.3874
0.351396, -1, 34.73, 29.9397, 12.8235, 12.6041, 111.092, -55.5177
0.35333, -1, 34.73, 29.9397, 12.8235, 12.6041, 111.092, -55.6481
0.354716, -1, 34.6339, 29.8904, 12.8429, 12.6054, 111.04, -55.6481
0.356032, -1, 34.6339, 29.8904, 12.8429, 12.6054, 111.04, -55.6481
0.358042, -1, 34.5377, 29.8412, 12.8624, 12.6066, 110.989, -55.7785
0.359755, -1, 34.5377, 29.8412, 12.8624, 12.6066, 110.989, -55.7785
0.361679, -1, 34.4416, 29.7919, 12.8819, 12.6079, 110.937, -55.9089
0.363035, -1, 34.4416, 29.7919, 12.8819, 12.6079, 110.937, -55.9089
0.364251, -1, 34.4416, 29.7919, 12.8819, 12.6079, 110.937, -55.9089
0.366281, -1, 34.3456, 29.7427, 12.9013, 12.6093, 110.886, -56.0394
0.368418, -1, 34.3456, 29.7427, 12.9013, 12.6093, 110.886, -56.0394
0.374884, -1, 34.1536, 29.6444, 12.9402, 12.6119, 110.783, -56.3005
0.383888, -1, 33.9618, 29.5461, 12.9792, 12.6145, 110.68, -56.5612
0.392877, -1, 33.7701, 29.4478, 13.0181, 12.6172, 110.577, -56.822
0.399898, -1, 33.5782, 29.3494, 13.0569, 12.6198, 110.473, -57.0829
0.407904, -1, 33.386, 29.2511, 13.0959, 12.6224, 110.37, -57.3441
0.415979, -1, 33.1935, 29.1525, 13.1349, 12.625, 110.267, -57.6049
0.423893, -1, 33.0007, 29.0539, 13.1736, 12.6276, 110.164, -57.866
0.431933, -1, 32.8078, 28.9554, 13.2126, 12.6303, 110.061, -58.1271
0.439964, -1, 32.6144, 28.8568, 13.2515, 12.633, 109.958, -58.3885
0.447893, -1, 32.4208, 28.7581, 13.2903, 12.6358, 109.855, -58.6495
0.455958, -1, 32.2269, 28.6594, 13.3293, 12.6383, 109.752, -58.9104
0.463902, -1, 32.0327, 28.5606, 13.3681, 12.641, 109.649, -59.1716
0.471946, -1, 31.8389, 28.4618, 13.407, 12.6437, 109.546, -59.433
0.479959, -1, 31.6452, 28.3631, 13.4461, 12.6465, 109.443, -59.6945
0.487907, -1, 31.4517, 28.2644, 13.485, 12.6494, 109.34, -59.9557
0.495892, -1, 31.2588, 28.1658, 13.5239, 12.652, 109.237, -60.2169
0.503955, -1, 31.0662, 28.0674, 13.563, 12.655, 109.134, -60.4785
0.512014, -1, 30.8739, 27.9688, 13.602, 12.6578, 109.03, -60.74
0.519797, -1, 30.6819, 27.8702, 13.641, 12.6606, 108.927, -61.0013
0.527954, -1, 30.49, 27.7717, 13.68, 12.6634, 108.824, -61.2626
0.535891, -1, 30.298, 27.6729, 13.7189, 12.6661, 108.721, -61.5239
0.543907, -1, 30.1057, 27.5741, 13.7579, 12.6689, 108.618, -61.7858
0.551958, -1, 29.9132, 27.4754, 13.7969, 12.6716, 108.514, -62.0473
0.560044, -1, 29.7201, 27.3766, 13.8358, 12.6743, 108.411, -62.309
0.567999, -1, 29.5265, 27.2779, 13.8747, 12.6769, 108.308, -62.5707
0.576023, -1, 29.3324, 27.1791, 13.9137, 12.6795, 108.205, -62.8326
0.583466, -1, 29.1382, 27.0802, 13.9526, 12.6821, 108.101, -63.0941
0.592237, -1, 28.9438, 26.9813, 13.9916, 12.6846, 107.998, -63.3555
0.599483, -1, 28.7495, 26.8824, 14.0306, 12.6871, 107.894, -63.6169
0.60801, -1, 28.5554, 26.7836, 14.0695, 12.6896, 107.791, -63.8788
0.616046, -1, 28.3615, 26.6848, 14.1086, 12.6922, 107.688, -64.1406
0.623947, -1, 28.1681, 26.5861, 14.1476, 12.6946, 107.584, -64.402
0.631891, -1, 27.9752, 26.4873, 14.1866, 12.6971, 107.481, -64.6637
0.638929, -1, 27.8788, 26.4379, 14.2061, 12.6983, 107.43, -64.7947
0.781363, -1, 24.4014, 24.6586, 14.9076, 12.7402, 105.571, -69.5058
0.782676, -1, 24.4014, 24.6586, 14.9076, 12.7402, 105.571, -69.5058
0.783886, -1, 24.4014, 24.6586, 14.9076, 12.7402, 105.571, -69.5058
0.785949, -1, 24.3052, 24.6091, 14.9271, 12.7414, 105.519, -69.6367
0.78718, -1, 24.3052, 24.6091, 14.9271, 12.7414, 105.519, -69.6367
0.789064, -1, 24.209, 24.5597, 14.9466, 12.7427, 105.468, -69.7674
0.790413, -1, 24.209, 24.5597, 14.9466, 12.7427, 105.468, -69.7674
0.793263, -1, 24.1127, 24.5103, 14.9661, 12.7438, 105.416, -69.8982
0.794896, -1, 24.1127, 24.5103, 14.9661, 12.7438, 105.416, -69.8982
0.796101, -1, 24.1127, 24.5103, 14.9661, 12.7438, 105.416, -69.8982
0.798897, -1, 24.0164, 24.4609, 14.9856, 12.7449, 105.364, -70.0288
0.800117, -1, 24.0164, 24.4609, 14.9856, 12.7449, 105.364, -70.0288
0.802968, -1, 23.92, 24.4115, 15.0051, 12.7461, 105.313, -70.1596
0.804245, -1, 23.92, 24.4115, 15.0051, 12.7461, 105.313, -70.1596
0.80624, -1, 23.8236, 24.3621, 15.0245, 12.7473, 105.261, -70.2904
0.809297, -1, 23.7272, 24.3126, 15.044, 12.7486, 105.209, -70.4212
0.810763, -1, 23.7272, 24.3126, 15.044, 12.7486, 105.209, -70.4212
0.812009, -1, 23.7272, 24.3126, 15.044, 12.7486, 105.209, -70.4212
0.814069, -1, 23.6307, 24.2632, 15.0634, 12.7498, 105.158, -70.5522
0.815282, -1, 23.6307, 24.2632, 15.0634, 12.7498, 105.158, -70.5522
0.817172, -1, 23.5341, 24.2138, 15.0829, 12.7509, 105.106, -70.6832
0.818723, -1, 23.5341, 24.2138, 15.0829, 12.7509, 105.106, -70.6832
0.823907, -1, 23.4374, 24.1643, 15.1024, 12.7521, 105.054, -70.814
0.831876, -1, 23.2436, 24.0654, 15.1413, 12.7545, 104.951, -71.0757
0.839937, -1, 23.0498, 23.9665, 15.1801, 12.7569, 104.848, -71.3374
0.847887, -1, 22.8557, 23.8677, 15.2191, 12.7594, 104.744, -71.5993
0.855888, -1, 22.6618, 23.7689, 15.2581, 12.7618, 104.641, -71.8611
0.863936, -1, 22.468, 23.6702, 15.297, 12.7643, 104.537, -72.1226
0.871881, -1, 22.2745, 23.5716, 15.336, 12.7668, 104.434, -72.3839
0.879851, -1, 22.0814, 23.4729, 15.3749, 12.7694, 104.33, -72.6455
0.887945, -1, 21.8883, 23.3742, 15.4139, 12.772, 104.227, -72.9072
0.896919, -1, 21.6958, 23.2754, 15.4529, 12.7746, 104.124, -73.1684
0.903855, -1, 21.5037, 23.1767, 15.4918, 12.7773, 104.021, -73.4298
0.912049, -1, 21.3114, 23.0779, 15.5307, 12.78, 103.918, -73.6914
0.920909, -1, 21.119, 22.9793, 15.5697, 12.7826, 103.815, -73.9532
0.927879, -1, 20.9265, 22.8806, 15.6086, 12.7853, 103.712, -74.2145
0.935945, -1, 20.7341, 22.782, 15.6476, 12.788, 103.608, -74.4755
0.943892, -1, 20.5415, 22.6834, 15.6865, 12.7907, 103.505, -74.7367
0.951936, -1, 20.3483, 22.5848, 15.7253, 12.7935, 103.402, -74.9981
0.95987, -1, 20.1547, 22.486, 15.7643, 12.7962, 103.299, -75.2594
0.967875, -1, 19.961, 22.3873, 15.8032, 12.7989, 103.196, -75.5205
0.975992, -1, 19.7674, 22.2886, 15.8419, 12.8017, 103.093, -75.7816
0.983858, -1, 19.5738, 22.19, 15.8808, 12.8043, 102.99, -76.0429
0.991852, -1, 19.3804, 22.0914, 15.9197, 12.8072, 102.887, -76.3042
0.999938, -1, 19.1874, 21.9927, 15.9585, 12.8099, 102.784, -76.565
1.00787, -1, 18.9946, 21.8941, 15.9975, 12.8126, 102.681, -76.8258
1.01586, -1, 18.8021, 21.7954, 16.0363, 12.8154, 102.578, -77.0868
1.02396, -1, 18.6099, 21.6967, 16.075, 12.8181, 102.475, -77.3477
1.03186, -1, 18.4181, 21.5981, 16.114, 12.8208, 102.372, -77.6085
1.03988, -1, 18.2262, 21.4996, 16.1528, 12.8234, 102.27, -77.8692
1.04795, -1, 18.0343, 21.4011, 16.1916, 12.8259, 102.167, -78.1299
1.0559, -1, 17.8424, 21.3028, 16.2305, 12.8285, 102.064, -78.3908
1.06393, -1, 17.6504, 21.2044, 16.2694, 12.831, 101.961, -78.6513
1.07191, -1, 17.458, 21.1061, 16.3082, 12.8335, 101.858, -78.9116
1.07994, -1, 17.2652, 21.0078, 16.347, 12.8359, 101.755, -79.1721
1.088, -1, 17.0721, 20.9095, 16.3858, 12.8384, 101.652, -79.4329
1.09596, -1, 16.8791, 20.8112, 16.4246, 12.8408, 101.549, -79.6935
1.10402, -1, 16.686, 20.713, 16.4634, 12.843, 101.446, -79.9539
1.11203, -1, 16.493, 20.6148, 16.5021, 12.8454, 101.344, -80.2144
1.12002, -1, 16.3003, 20.5165, 16.5408, 12.8477, 101.241, -80.4751
1.12802, -1, 16.1079, 20.4181, 16.5796, 12.85, 101.138, -80.7357
1.13591, -1, 15.916, 20.3197, 16.6183, 12.8523, 101.036, -80.9958
1.14392, -1, 15.7243, 20.2212, 16.657, 12.8546, 100.933, -81.2558
1.15195, -1, 15.5329, 20.1228, 16.6956, 12.857, 100.83, -81.516
1.16034, -1, 15.3418, 20.0245, 16.7343, 12.8593, 100.728, -81.7762
1.16687, -1, 15.2462, 19.9754, 16.7537, 12.8604, 100.677, -81.9063
1.17609, -1, 14.9594, 19.828, 16.8118, 12.8638, 100.523, -82.2959
1.18289, -1, 14.8638, 19.779, 16.8311, 12.865, 100.472, -82.4258
1.19224, -1, 14.5766, 19.6318, 16.8892, 12.8684, 100.318, -82.8159
1.19885, -1, 14.4807, 19.5827, 16.9085, 12.8695, 100.266, -82.9458
1.20846, -1, 14.1925, 19.4356, 16.9665, 12.873, 100.113, -83.335
1.21642, -1, 14.0001, 19.3377, 17.0053, 12.8752, 100.01, -83.5946
1.22468, -1, 13.8077, 19.2398, 17.0438, 12.8776, 99.9074, -83.8543
1.23243, -1, 13.6151, 19.142, 17.0825, 12.8799, 99.8049, -84.1137
1.24045, -1, 13.4228, 19.0441, 17.1212, 12.8822, 99.7023, -84.3729
1.24861, -1, 13.3268, 18.9462, 17.1597, 12.8845, 99.6002, -84.6322
1.25659, -1, 13.135, 18.8972, 17.179, 12.8857, 99.5491, -84.7618
1.26388, -1, 12.9437, 18.7993, 17.2177, 12.8881, 99.4465, -85.0213
1.2719, -1, 12.7526, 18.7012, 17.2563, 12.8904, 99.3441, -85.2805
1.27985, -1, 12.5618, 18.6034, 17.2948, 12.8929, 99.242, -85.5394
1.28788, -1, 12.3714, 18.5057, 17.3334, 12.8953, 99.1396, -85.7983
1.29589, -1, 12.1812, 18.4079, 17.3719, 12.8977, 99.0374, -86.0573
1.30388, -1, 11.991, 18.3102, 17.4104, 12.9001, 98.9354, -86.3162
1.31124, -1, 11.8006, 18.2126, 17.449, 12.9025, 98.8334, -86.5747
1.31987, -1, 11.61, 18.115, 17.4876, 12.9049, 98.7315, -86.8333
1.32786, -1, 11.4191, 18.0173, 17.5261, 12.9074, 98.6296, -87.0919
1.33565, -1, 11.2279, 17.9198, 17.5647, 12.9098, 98.5277, -87.3506
1.34288, -1, 11.0365, 17.8222, 17.6032, 12.9123, 98.4259, -87.6088
1.35185, -1, 10.8449, 17.7248, 17.6417, 12.9147, 98.3239, -87.867
1.35996, -1, 10.6531, 17.6273, 17.6801, 12.9172, 98.2218, -88.1253
1.36785, -1, 10.4617, 17.5298, 17.7185, 12.9198, 98.1202, -88.3838
1.37584, -1, 10.2706, 17.4323, 17.7569, 12.9222, 98.0183, -88.6419
1.38541, -1, 10.0797, 17.3347, 17.7954, 12.9249, 97.9163, -88.9
1.39184, -1, 9.88931, 17.2371, 17.8336, 12.9275, 97.8146, -89.1581
1.4009, -1, 9.69916, 17.1396, 17.872, 12.9301, 97.7125, -89.4163
1.40795, -1, 9.50954, 17.0422, 17.9104, 12.9329, 97.6106, -89.6744
1.41585, -1, 9.32029, 16.9449, 17.9487, 12.9357, 97.5089, -89.9319
1.42396, -1, 9.131, 16.8475, 17.9871, 12.9384, 97.4068, -90.1894
1.43197, -1, 8.94166, 16.7504, 18.0254, 12.941, 97.3051, -90.447
1.43986, -1, 8.75211, 16.6532, 18.0637, 12.9436, 97.2035, -90.7046
1.44791, -1, 8.5625, 16.556, 18.1021, 12.9463, 97.1018, -90.9618
1.45586, -1, 8.37273, 16.4589, 18.1404, 12.949, 97.0003, -91.219
1.46385, -1, 8.18243, 16.3619, 18.1787, 12.9516, 96.8988, -91.4762
1.47192, -1, 7.99191, 16.265, 18.2171, 12.9543, 96.7971, -91.7335
1.47988, -1, 7.80139, 16.1681, 18.2553, 12.9569, 96.6958, -91.9903
1.48785, -1, 7.61081, 16.0712, 18.2936, 12.9595, 96.5942, -92.247
1.49592, -1, 7.4204, 15.9742, 18.3319, 12.962, 96.4928, -92.5037
1.50385, -1, 7.23024, 15.8773, 18.37, 12.9646, 96.3917, -92.7606
1.51184, -1, 7.04039, 15.7803, 18.4082, 12.9672, 96.2903, -93.0173
1.51992, -1, 6.85098, 15.6834, 18.4465, 12.9698, 96.189, -93.2737
1.52789, -1, 6.66205, 15.5865, 18.4846, 12.9723, 96.0884, -93.53
1.53584, -1, 6.47364, 15.4898, 18.5226, 12.9748, 95.9872, -93.7864
1.54392, -1, 6.28542, 15.393, 18.5608, 12.9773, 95.8861, -94.043
1.55198, -1, 6.09729, 15.2963, 18.599, 12.9798, 95.7854, -94.299
1.55984, -1, 5.90896, 15.1996, 18.6371, 12.9821, 95.6843, -94.5548
1.56786, -1, 5.72056, 15.1029, 18.6753, 12.9845, 95.5833, -94.8107
1.57664, -1, 5.53209, 15.0063, 18.7133, 12.9868, 95.4828, -95.0667
1.58388, -1, 5.34329, 14.9098, 18.7515, 12.9892, 95.3818, -95.3225
1.59193, -1, 5.15418, 14.8134, 18.7896, 12.9914, 95.2811, -95.5778
1.60076, -1, 4.96475, 14.7171, 18.8276, 12.9937, 95.1806, -95.8333
1.60798, -1, 4.77535, 14.6207, 18.8657, 12.996, 95.0798, -96.0888
1.61598, -1, 4.5859, 14.5244, 18.9037, 12.9981, 94.979, -96.3439
1.62514, -1, 4.39669, 14.428, 18.9417, 13.0003, 94.8783, -96.5989
1.6315, -1, 4.30218, 14.3798, 18.9607, 13.0025, 94.7774, -96.8537
1.63998, -1, 4.01906, 14.2353, 19.0177, 13.0048, 94.6766, -97.1089
1.64792, -1, 3.83105, 14.139, 19.0556, 13.0071, 94.5758, -97.3639
1.65589, -1, 3.64357, 14.0429, 19.0936, 13.0093, 94.475, -97.6185
1.66477, -1, 3.45639, 13.9467, 19.1315, 13.0117, 94.3745, -97.8733
1.67201, -1, 3.26939, 13.8507, 19.1693, 13.014, 94.2738, -98.1279
1.67893, -1, 3.17586, 13.8027, 19.1882, 13.0151, 94.2234, -98.2554
1.68896, -1, 2.89544, 13.6586, 19.2451, 13.0184, 94.0725, -98.6372
1.6962, -1, 2.7084, 13.5626, 19.283, 13.0207, 93.9718, -98.8913
1.70284, -1, 2.6148, 13.5146, 19.3019, 13.0218, 93.9216, -99.0183
1.71319, -1, 2.33367, 13.3706, 19.3586, 13.0253, 93.7711, -99.3996
1.71889, -1, 2.23978, 13.3227, 19.3775, 13.0264, 93.721, -99.5267
1.72841, -1, 1.95766, 13.179, 19.4343, 13.0297, 93.5706, -99.9072
1.73735, -1, 1.76953, 13.0831, 19.4721, 13.032, 93.4707, -100.161
1.74291, -1, 1.67537, 13.0352, 19.4909, 13.0331, 93.4206, -100.288
1.75249, -1, 1.48711, 12.8915, 19.5476, 13.0365, 93.2704, -100.668
1.75983, -1, 1.29916, 12.8435, 19.5665, 13.0377, 93.2205, -100.795
1.7669, -1, 1.11156, 12.7478, 19.6042, 13.04, 93.1205, -101.048
1.77687, -1, 0.831131, 12.6043, 19.6608, 13.0436, 92.9705, -101.427
1.78386, -1, 0.73793, 12.5566, 19.6797, 13.0448, 92.9207, -101.554
1.7909, -1, 0.551864, 12.461, 19.7172, 13.0472, 92.8209, -101.807
1.79992, -1, 0.366105, 12.3656, 19.7549, 13.0496, 92.7211, -102.06
1.80783, -1, 0.180559, 12.2702, 19.7926, 13.0521, 92.6217, -102.312
1.81485, -1, -0.00481645, 12.1749, 19.8301, 13.0545, 92.5221, -102.565
1.82383, -1, -0.190304, 12.0796, 19.8678, 13.0569, 92.4226, -102.818
1.83183, -1, -0.376078, 11.9843, 19.9054, 13.0594, 92.3232, -103.07
1.83885, -1, -0.562174, 11.8892, 19.9429, 13.0619, 92.2237, -103.322
1.84783, -1, -0.748467, 11.7942, 19.9805, 13.0643, 92.1242, -103.574
1.85583, -1, -0.935061, 11.6991, 20.018, 13.0668, 92.0249, -103.826
1.86286, -1, -1.12183, 11.6041, 20.0554, 13.0693, 91.9256, -104.078
1.87183, -1, -1.30879, 11.509, 20.093, 13.0718, 91.8262, -104.33
1.87984, -1, -1.49562, 11.4139, 20.1305, 13.0744, 91.7271, -104.581
1.88683, -1, -1.68222, 11.3188, 20.1678, 13.0769, 91.6279, -104.833
1.89583, -1, -1.86847, 11.2237, 20.2053, 13.0795, 91.5286, -105.084
1.90487, -1, -2.05423, 11.1288, 20.2427, 13.0822, 91.4296, -105.335
1.91083, -1, -2.23936, 11.0338, 20.2801, 13.0849, 91.3303, -105.586
1.91984, -1, -2.42416, 10.939, 20.3175, 13.0875, 91.2311, -105.837
1.92783, -1, -2.60856, 10.8442, 20.3548, 13.0902, 91.1322, -106.088
1.93583, -1, -2.79246, 10.7495, 20.3921, 13.0929, 91.0331, -106.339
1.94396, -1, -2.9763, 10.6547, 20.4295, 13.0954, 90.934, -106.59
1.95192, -1, -3.16032, 10.56, 20.4668, 13.0981, 90.8353, -106.84
1.95984, -1, -3.3446, 10.4655, 20.504, 13.1007, 90.7363, -107.091
1.96786, -1, -3.52928, 10.371, 20.5413, 13.1032, 90.6373, -107.342
1.97593, -1, -3.71406, 10.2767, 20.5786, 13.1057, 90.5386, -107.592
1.98385, -1, -3.89923, 10.1823, 20.6158, 13.1082, 90.4397, -107.842
1.99182, -1, -4.08449, 10.088, 20.6531, 13.1106, 90.341, -108.092
1.99991, -1, -4.27008, 9.99366, 20.6902, 13.1131, 90.2425, -108.342
2.00782, -1, -4.45567, 9.89934, 20.7274, 13.1154, 90.1438, -108.592
2.01592, -1, -4.64095, 9.80503, 20.7647, 13.1178, 90.0453, -108.841
2.02383, -1, -4.82585, 9.7108, 20.8019, 13.1201, 89.947, -109.09
2.03185, -1, -5.01046, 9.61673, 20.8389, 13.1225, 89.8484, -109.34
2.03992, -1, -5.19428, 9.52266, 20.8761, 13.1249, 89.7499, -109.589
2.0479, -1, -5.37762, 9.42863, 20.9132, 13.1272, 89.6517, -109.838
2.05587, -1, -5.56053, 9.33471, 20.9502, 13.1295, 89.5532, -110.087
2.06391, -1, -5.74301, 9.24078, 20.9873, 13.1318, 89.455, -110.336
2.07183, -1, -5.92533, 9.14687, 21.0243, 13.1341, 89.3571, -110.585
2.07985, -1, -6.1077, 9.05301, 21.0613, 13.1363, 89.2588, -110.833
2.08796, -1, -6.2904, 8.95918, 21.0984, 13.1385, 89.1608, -111.082
2.09594, -1, -6.47337, 8.86553, 21.1354, 13.1408, 89.0631, -111.33
2.10394, -1, -6.65652, 8.77188, 21.1722, 13.1429, 88.965, -111.578
2.11202, -1, -6.84008, 8.67827, 21.2091, 13.1451, 88.867, -111.826
2.11995, -1, -7.02402, 8.58465, 21.2461, 13.1472, 88.7693, -112.074
2.12794, -1, -7.20823, 8.49109, 21.2829, 13.1493, 88.6714, -112.322
2.13606, -1, -7.39243, 8.39747, 21.3199, 13.1514, 88.5735, -112.569
2.14384, -1, -7.57624, 8.30383, 21.3567, 13.1536, 88.4761, -112.817
2.15189, -1, -7.75977, 8.2104, 21.3935, 13.1557, 88.3784, -113.064
2.15995, -1, -7.94279, 8.11702, 21.4304, 13.1581, 88.281, -113.311
2.16682, -1, -8.03416, 8.07032, 21.4488, 13.1592, 88.2325, -113.435
2.17629, -1, -8.30723, 7.93034, 21.5039, 13.1625, 88.0863, -113.806
2.18285, -1, -8.39796, 7.88371, 21.5223, 13.1636, 88.0376, -113.929
2.19208, -1, -8.66959, 7.7439, 21.5775, 13.167, 87.8916, -114.299
2.19886, -1, -8.76, 7.6973, 21.5959, 13.1682, 87.8428, -114.423
2.20825, -1, -9.03109, 7.55763, 21.6509, 13.1715, 87.6967, -114.792
2.21631, -1, -9.21215, 7.46461, 21.6877, 13.1738, 87.5996, -115.039
2.22473, -1, -9.39344, 7.37181, 21.7243, 13.176, 87.5024, -115.285
2.23238, -1, -9.57514, 7.27896, 21.761, 13.1781, 87.4053, -115.531
2.24043, -1, -9.75707, 7.18614, 21.7976, 13.1804, 87.3083, -115.777
2.24846, -1, -9.93941, 7.09341, 21.8341, 13.1826, 87.211, -116.023
2.25643, -1, -10.0306, 7.04705, 21.8524, 13.1837, 87.1138, -116.269
2.26438, -1, -10.2133, 6.95427, 21.889, 13.1859, 87.0653, -116.392
2.2726, -1, -10.3959, 6.86148, 21.9256, 13.1881, 86.968, -116.638
2.27983, -1, -10.5783, 6.76875, 21.9621, 13.1904, 86.8709, -116.883
2.28783, -1, -10.7603, 6.67611, 21.9986, 13.1927, 86.7741, -117.129
2.29587, -1, -10.9419, 6.5835, 22.035, 13.1951, 86.6771, -117.374
2.30385, -1, -11.1228, 6.49095, 22.0714, 13.1975, 86.5803, -117.619
2.31183, -1, -11.3029, 6.39845, 22.108, 13.1999, 86.4838, -117.864
2.31983, -1, -11.4826, 6.30595, 22.1445, 13.2024, 86.387, -118.109
2.32784, -1, -11.6621, 6.21354, 22.1808, 13.2048, 86.2903, -118.354
2.33586, -1, -11.8414, 6.12117, 22.2174, 13.2073, 86.1938, -118.598
2.34383, -1, -12.0206, 6.0289, 22.2538, 13.2097, 86.0971, -118.842
2.35182, -1, -12.2, 5.93673, 22.2902, 13.2122, 86.0006, -119.087
2.35988, -1, -12.3796, 5.84472, 22.3267, 13.2147, 85.9044, -119.331
2.36785, -1, -12.5597, 5.7527, 22.3629, 13.2171, 85.808, -119.575
2.37581, -1, -12.7402, 5.66069, 22.3992, 13.2197, 85.7117, -119.819
2.38388, -1, -12.921, 5.56878, 22.4357, 13.2221, 85.6159, -120.062
2.39181, -1, -13.1021, 5.47683, 22.472, 13.2245, 85.5198, -120.306
2.40082, -1, -13.2834, 5.38483, 22.5082, 13.2269, 85.4239, -120.55
2.40791, -1, -13.4644, 5.29288, 22.5446, 13.2294, 85.3282, -120.793
2.41686, -1, -13.645, 5.20099, 22.5808, 13.2319, 85.2323, -121.036
2.42382, -1, -13.8253, 5.10912, 22.6169, 13.2345, 85.1365, -121.279
2.43189, -1, -14.0048, 5.01732, 22.6531, 13.2371, 85.0409, -121.522
2.43981, -1, -14.1835, 4.92563, 22.6892, 13.2397, 84.9453, -121.765
2.44785, -1, -14.3618, 4.83396, 22.7253, 13.2423, 84.8496, -122.008
2.45583, -1, -14.5397, 4.74228, 22.7616, 13.2448, 84.7541, -122.251
2.46382, -1, -14.7174, 4.65065, 22.7978, 13.2473, 84.6584, -122.493
2.47194, -1, -14.895, 4.5592, 22.8339, 13.2498, 84.5627, -122.736
2.47982, -1, -15.0727, 4.46777, 22.87, 13.2522, 84.4671, -122.978
2.48784, -1, -15.2508, 4.37648, 22.9062, 13.2546, 84.3714, -123.22
2.4959, -1, -15.4291, 4.28515, 22.9422, 13.257, 84.2757, -123.461
2.50381, -1, -15.6081, 4.19384, 22.9782, 13.2594, 84.1802, -123.703
2.51181, -1, -15.7872, 4.10261, 23.0142, 13.2616, 84.0847, -123.945
2.51988, -1, -15.9665, 4.01136, 23.0501, 13.2639, 83.9892, -124.187
2.52784, -1, -16.1462, 3.92004, 23.0862, 13.2661, 83.8939, -124.428
2.53582, -1, -16.3259, 3.82877, 23.1222, 13.2682, 83.7984, -124.669
2.54396, -1, -16.5053, 3.73757, 23.158, 13.2705, 83.7029, -124.911
2.55181, -1, -16.6843, 3.64646, 23.1938, 13.2727, 83.6076, -125.152
2.55981, -1, -16.8628, 3.55535, 23.2297, 13.275, 83.5123, -125.393
2.56862, -1, -17.0402, 3.46434, 23.2654, 13.2772, 83.4169, -125.634
2.57581, -1, -17.2171, 3.37341, 23.3013, 13.2794, 83.3216, -125.875
2.58391, -1, -17.3937, 3.2825, 23.3372, 13.2816, 83.2266, -126.115
2.59271, -1, -17.5699, 3.19165, 23.3729, 13.2837, 83.1314, -126.356
2.59991, -1, -17.746, 3.101, 23.4088, 13.2858, 83.0365, -126.596
2.60799, -1, -17.922, 3.01039, 23.4447, 13.2879, 82.9419, -126.836
2.61672, -1, -18.0983, 2.91992, 23.4804, 13.29, 82.8469, -127.076
2.62395, -1, -18.2748, 2.82953, 23.5162, 13.2922, 82.7522, -127.317
2.63199, -1, -18.4517, 2.73907, 23.552, 13.2942, 82.6577, -127.556
2.64076, -1, -18.6292, 2.64866, 23.5876, 13.2963, 82.5629, -127.796
2.64785, -1, -18.8069, 2.55831, 23.6233, 13.2984, 82.4683, -128.035
2.65594, -1, -18.985, 2.46784, 23.6591, 13.3003, 82.3741, -128.275
2.66475, -1, -19.1633, 2.37735, 23.6947, 13.3023, 82.2795, -128.515
2.67199, -1, -19.3414, 2.287, 23.7303, 13.3043, 82.1852, -128.754
2.6801, -1, -19.5191, 2.19661, 23.7661, 13.3065, 82.0914, -128.993
2.68683, -1, -19.6076, 2.15139, 23.7839, 13.3076, 82.0442, -129.112
2.69481, -1, -19.7845, 2.06106, 23.8192, 13.3097, 81.95, -129.351
2.70421, -1, -20.0484, 1.92569, 23.8726, 13.3129, 81.809, -129.71
2.71086, -1, -20.1361, 1.88057, 23.8904, 13.314, 81.7619, -129.829
2.72042, -1, -20.3985, 1.74536, 23.9435, 13.3173, 81.6208, -130.186
2.72841, -1, -20.5731, 1.65529, 23.9792, 13.3196, 81.527, -130.425
2.73635, -1, -20.7476, 1.56532, 24.0147, 13.3218, 81.433, -130.663
2.74282, -1, -20.8348, 1.52038, 24.0323, 13.3229, 81.3861, -130.782
2.75241, -1, -21.0096, 1.43062, 24.0856, 13.3261, 81.2456, -131.139
2.76037, -1, -21.1848, 1.3409, 24.1034, 13.3272, 81.1987, -131.377
2.76851, -1, -21.3603, 1.25113, 24.1388, 13.3294, 81.1048, -131.615
2.7758, -1, -21.5362, 1.1615, 24.1741, 13.3315, 81.0109, -131.733
2.78381, -1, -21.7123, 1.07188, 24.2096, 13.3337, 80.9172, -131.971
2.79183, -1, -21.8886, 0.982201, 24.245, 13.3359, 80.8233, -132.208
2.7998, -1, -22.0651, 0.892586, 24.2803, 13.338, 80.7295, -132.445
2.8079, -1, -22.2417, 0.80305, 24.3157, 13.3402, 80.6362, -132.683
2.8148, -1, -22.4181, 0.713567, 24.351, 13.3425, 80.5423, -132.92
2.82382, -1, -22.5938, 0.624023, 24.3861, 13.3448, 80.4487, -133.157
2.83185, -1, -22.7691, 0.534573, 24.4214, 13.3471, 80.3553, -133.393
2.83881, -1, -22.9435, 0.445153, 24.4567, 13.3495, 80.2615, -133.63
2.8478, -1, -23.1173, 0.355745, 24.4918, 13.352, 80.1681, -133.867
2.85587, -1, -23.2909, 0.266406, 24.5269, 13.3544, 80.0747, -134.104
2.8628, -1, -23.4641, 0.177117, 24.5621, 13.3569, 79.9811, -134.34
2.87181, -1, -23.6372, 0.0879855, 24.5973, 13.3592, 79.8878, -134.576
2.87987, -1, -23.8105, -0.00110112, 24.6324, 13.3616, 79.7947, -134.813
2.88682, -1, -23.9839, -0.0900682, 24.6676, 13.3641, 79.7015, -135.049
2.8958, -1, -24.1576, -0.179046, 24.7026, 13.3666, 79.6084, -135.285
2.90479, -1, -24.3316, -0.268006, 24.7376, 13.369, 79.5154, -135.52
2.91181, -1, -24.5059, -0.356871, 24.7728, 13.3715, 79.4223, -135.756
2.9208, -1, -24.6805, -0.445777, 24.8078, 13.3739, 79.3293, -135.991
2.92786, -1, -24.8554, -0.53469, 24.8428, 13.3762, 79.2362, -136.227
2.9358, -1, -25.0305, -0.623557, 24.878, 13.3786, 79.1432, -136.462
2.94381, -1, -25.2054, -0.71239, 24.913, 13.381, 79.0503, -136.697
2.95188, -1, -25.3799, -0.801099, 24.9479, 13.3834, 78.9576, -136.932
2.95984, -1, -25.554, -0.88993, 24.983, 13.3859, 78.865, -137.167
2.9678, -1, -25.7276, -0.978682, 25.0178, 13.3883, 78.7722, -137.402
2.97595, -1, -25.9005, -1.06733, 25.0526, 13.3907, 78.6796, -137.637
2.9838, -1, -26.0729, -1.15604, 25.0876, 13.3932, 78.5874, -137.871
2.99188, -1, -26.245, -1.24471, 25.1225, 13.3956, 78.4946, -138.106
2.99981, -1, -26.4167, -1.33321, 25.1573, 13.3979, 78.4021, -138.34
3.0078, -1, -26.5886, -1.42161, 25.1921, 13.4002, 78.3098, -138.575
3.01585, -1, -26.7606, -1.50996, 25.2271, 13.4024, 78.2171, -138.809
3.02379, -1, -26.9329, -1.59817, 25.2619, 13.4048, 78.1247, -139.043
3.0318, -1, -27.1054, -1.68634, 25.2967, 13.407, 78.0327, -139.277
3.03994, -1, -27.278, -1.7746, 25.3315, 13.4091, 77.9404, -139.51
3.04786, -1, -27.4509, -1.86268, 25.3662, 13.4114, 77.8484, -139.744
3.05583, -1, -27.6241, -1.95078, 25.4009, 13.4134, 77.7565, -139.978
3.06387, -1, -27.7973, -2.03898, 25.4358, 13.4155, 77.6644, -140.211
3.07179, -1, -27.9706, -2.12699, 25.4705, 13.4176, 77.5723, -140.444
3.0798, -1, -28.1439, -2.21505, 25.5051, 13.4196, 77.4804, -140.678
3.08791, -1, -28.3169, -2.30308, 25.5399, 13.4217, 77.3884, -140.911
3.09588, -1, -28.4897, -2.3911, 25.5747, 13.4238, 77.2962, -141.144
3.10396, -1, -28.662, -2.47905, 25.6092, 13.4259, 77.2042, -141.377
3.11189, -1, -28.8337, -2.56703, 25.6439, 13.428, 77.1123, -141.61
3.11993, -1, -29.0047, -2.65501, 25.6786, 13.4302, 77.0203, -141.843
3.128, -1, -29.1753, -2.7429, 25.7131, 13.4324, 76.9284, -142.075
3.13591, -1, -29.3459, -2.83075, 25.7478, 13.4344, 76.8367, -142.308
3.14383, -1, -29.5166, -2.91845, 25.7824, 13.4365, 76.7447, -142.54
3.15191, -1, -29.6875, -3.00602, 25.8169, 13.4385, 76.6529, -142.772
3.15985, -1, -29.8586, -3.09358, 25.8515, 13.4405, 76.5613, -143.005
3.16785, -1, -30.0296, -3.18104, 25.8861, 13.4426, 76.4693, -143.237
3.17673, -1, -30.2005, -3.26849, 25.9206, 13.4447, 76.3776, -143.469
3.184, -1, -30.3717, -3.35593, 25.9552, 13.4468, 76.2861, -143.7
3.19087, -1, -30.4574, -3.39964, 25.9725, 13.4479, 76.2404, -143.817
3.20097, -1, -30.7151, -3.53092, 26.0243, 13.4509, 76.1031, -144.164
3.20819, -1, -30.8869, -3.61828, 26.0587, 13.4529, 76.0118, -144.395
3.21479, -1, -30.9728, -3.66199, 26.076, 13.4539, 75.9661, -144.511
3.22517, -1, -31.2303, -3.79302, 26.1278, 13.457, 75.8289, -144.858
3.23085, -1, -31.3161, -3.83669, 26.145, 13.4581, 75.7832, -144.974
3.24053, -1, -31.5724, -3.96766, 26.1967, 13.4612, 75.6464, -145.321
3.24923, -1, -31.7429, -4.05491, 26.2311, 13.4634, 75.5551, -145.552
3.25485, -1, -31.8279, -4.09855, 26.2483, 13.4645, 75.5095, -145.667
3.26444, -1, -31.9978, -4.18581, 26.2827, 13.4678, 75.373, -146.013
3.27181, -1, -32.1673, -4.27295, 26.3171, 13.4689, 75.3273, -146.129
3.27886, -1, -32.3367, -4.36005, 26.3515, 13.471, 75.2363, -146.36
3.28892, -1, -32.5912, -4.49055, 26.4029, 13.4743, 75.1002, -146.705
3.29583, -1, -32.6761, -4.53402, 26.4202, 13.4754, 75.0546, -146.82
3.30286, -1, -32.8457, -4.62091, 26.4546, 13.4775, 74.9638, -147.051
3.31187, -1, -33.0153, -4.70782, 26.4887, 13.4796, 74.8731, -147.281
3.31979, -1, -33.185, -4.79473, 26.523, 13.4818, 74.7826, -147.511
3.3268, -1, -33.3549, -4.88156, 26.5574, 13.4841, 74.6918, -147.741
3.33579, -1, -33.5252, -4.96851, 26.5916, 13.4863, 74.6012, -147.971
3.34379, -1, -33.6955, -5.0554, 26.6258, 13.4884, 74.5109, -148.201
3.3508, -1, -33.8658, -5.14218, 26.6601, 13.4907, 74.4201, -148.431
3.35978, -1, -34.036, -5.22893, 26.6942, 13.493, 74.3296, -148.66
3.36779, -1, -34.2062, -5.31566, 26.7284, 13.4952, 74.2393, -148.89
3.37482, -1, -34.3762, -5.40231, 26.7627, 13.4975, 74.1486, -149.119
3.38378, -1, -34.546, -5.48896, 26.7969, 13.4998, 74.058, -149.348
3.39181, -1, -34.7153, -5.57563, 26.8309, 13.5021, 73.9676, -149.578
3.4008, -1, -34.884, -5.66222, 26.8651, 13.5046, 73.877, -149.807
3.40778, -1, -35.0525, -5.74876, 26.8993, 13.5071, 73.7865, -150.036
3.41578, -1, -35.2208, -5.83522, 26.9334, 13.5095, 73.6962, -150.265
3.42385, -1, -35.3891, -5.92156, 26.9675, 13.512, 73.6058, -150.494
3.4318, -1, -35.5577, -6.00775, 27.0017, 13.5143, 73.5155, -150.723
3.44, -1, -35.7262, -6.09399, 27.0356, 13.5167, 73.4251, -150.951
3.44779, -1, -35.8947, -6.18017, 27.0696, 13.5191, 73.335, -151.18
3.4558, -1, -36.0632, -6.26629, 27.1038, 13.5215, 73.2445, -151.408
3.46461, -1, -36.2317, -6.35243, 27.1377, 13.5239, 73.154, -151.637
3.47178, -1, -36.4004, -6.43866, 27.1716, 13.5263, 73.0639, -151.866
3.47981, -1, -36.5693, -6.5249, 27.2057, 13.5286, 72.9733, -152.094
3.48859, -1, -36.7382, -6.61105, 27.2396, 13.5309, 72.8831, -152.322
3.49686, -1, -36.907, -6.69716, 27.2735, 13.5332, 72.7931, -152.55
3.50377, -1, -37.076, -6.78333, 27.3075, 13.5355, 72.7029, -152.778
3.5155, -1, -37.3291, -6.91243, 27.3583, 13.5388, 72.568, -153.12
3.51978, -1, -37.4133, -6.95542, 27.3753, 13.54, 72.5232, -153.233
3.52779, -1, -37.5814, -7.04147, 27.4093, 13.5422, 72.4332, -153.461
3.53586, -1, -37.7492, -7.12751, 27.4433, 13.5445, 72.3434, -153.688
3.5438, -1, -37.9169, -7.21349, 27.4771, 13.5467, 72.2535, -153.916
3.55178, -1, -38.0843, -7.29939, 27.511, 13.5489, 72.1639, -154.144
3.55985, -1, -38.2518, -7.38528, 27.545, 13.5512, 72.0741, -154.371
3.56778, -1, -38.4191, -7.47105, 27.5788, 13.5533, 71.9844, -154.598
3.57593, -1, -38.5863, -7.55675, 27.6126, 13.5553, 71.895, -154.825
3.58385, -1, -38.7536, -7.64249, 27.6465, 13.5575, 71.8052, -155.053
3.59181, -1, -38.9209, -7.72817, 27.6803, 13.5595, 71.7157, -155.279
3.60018, -1, -39.0882, -7.81376, 27.714, 13.5616, 71.6267, -155.506
3.60734, -1, -39.2558, -7.89945, 27.7479, 13.5636, 71.5371, -155.733
3.61588, -1, -39.4233, -7.98516, 27.7818, 13.5655, 71.4478, -155.96
3.62439, -1, -39.5909, -8.0707, 27.8154, 13.5675, 71.3585, -156.187
3.63191, -1, -39.7585, -8.15624, 27.8491, 13.5694, 71.2692, -156.413
3.63985, -1, -39.9262, -8.24171, 27.883, 13.5714, 71.1798, -156.64
3.64858, -1, -40.0937, -8.32716, 27.9166, 13.5733, 71.0904, -156.866
3.65581, -1, -40.2612, -8.41253, 27.9503, 13.5753, 71.0014, -157.092
3.66389, -1, -40.4284, -8.49791, 27.9841, 13.5773, 70.9118, -157.318
3.67271, -1, -40.5954, -8.58328, 28.0177, 13.5793, 70.8227, -157.544
3.68, -1, -40.7623, -8.66868, 28.0513, 13.5812, 70.7337, -157.77
3.68684, -1, -40.8456, -8.71136, 28.0682, 13.5823, 70.6891, -157.883
3.69693, -1, -41.0953, -8.83937, 28.1187, 13.5853, 70.5553, -158.222
3.70412, -1, -41.2615, -8.92461, 28.1523, 13.5874, 70.4663, -158.448
3.7108, -1, -41.3446, -8.96717, 28.169, 13.5884, 70.4217, -158.561
3.72107, -1, -41.5939, -9.09495, 28.2196, 13.5913, 70.2878, -158.899
3.72831, -1, -41.7603, -9.18005, 28.2532, 13.5933, 70.1987, -159.125
3.73637, -1, -41.9266, -9.26509, 28.2867, 13.5953, 70.1097, -159.35
3.74535, -1, -42.093, -9.35012, 28.3204, 13.5974, 70.0207, -159.576
3.75084, -1, -42.1762, -9.39265, 28.3373, 13.5984, 69.9761, -159.688
3.76043, -1, -42.4256, -9.52024, 28.3875, 13.6014, 69.843, -160.026
3.76923, -1, -42.5088, -9.5627, 28.4043, 13.6024, 69.7983, -160.138
3.77484, -1, -42.6752, -9.64767, 28.4378, 13.6045, 69.7095, -160.364
3.78481, -1, -42.9248, -9.77513, 28.488, 13.6075, 69.5764, -160.702
3.79178, -1, -43.008, -9.81759, 28.5047, 13.6086, 69.5319, -160.814
3.79979, -1, -43.1743, -9.9025, 28.5382, 13.6106, 69.4431, -161.039
3.80677, -1, -43.3404, -9.98746, 28.5717, 13.6127, 69.3544, -161.263
3.81581, -1, -43.5064, -10.0724, 28.6052, 13.6147, 69.266, -161.488
3.82382, -1, -43.6724, -10.1574, 28.6387, 13.6168, 69.1772, -161.713
3.83083, -1, -43.8383, -10.2422, 28.6721, 13.6189, 69.0888, -161.938
3.83977, -1, -44.004, -10.327, 28.7055, 13.6211, 69.0004, -162.162
3.84777, -1, -44.1694, -10.4118, 28.739, 13.6233, 68.9117, -162.386
3.85583, -1, -44.3346, -10.4964, 28.7725, 13.6255, 68.8231, -162.611
3.86383, -1, -44.4998, -10.5809, 28.8058, 13.6277, 68.7345, -162.835
3.87176, -1, -44.665, -10.6655, 28.8392, 13.6298, 68.6459, -163.059
3.87985, -1, -44.8302, -10.75, 28.8727, 13.632, 68.5573, -163.283
3.88777, -1, -44.9957, -10.8344, 28.9061, 13.6342, 68.4689, -163.507
3.89578, -1, -45.1609, -10.9189, 28.9394, 13.6364, 68.3806, -163.731
3.90481, -1, -45.3263, -11.0034, 28.9729, 13.6386, 68.2921, -163.955
3.91178, -1, -45.4915, -11.0879, 29.0062, 13.6409, 68.2037, -164.179
3.92084, -1, -45.6568, -11.1723, 29.0393, 13.6432, 68.1157, -164.403
3.92783, -1, -45.822, -11.2568, 29.0726, 13.6455, 68.0271, -164.627
3.93577, -1, -45.9862, -11.3407, 29.1061, 13.6478, 67.9388, -164.85
3.94381, -1, -46.1476, -11.4231, 29.1395, 13.65, 67.8507, -165.074
3.95184, -1, -46.3046, -11.5025, 29.173, 13.6525, 67.7633, -165.295
3.95978, -1, -46.4549, -11.5775, 29.2065, 13.6548, 67.6781, -165.51
3.96778, -1, -46.5961, -11.6474, 29.2388, 13.6571, 67.5966, -165.716
3.97587, -1, -46.7257, -11.7107, 29.2686, 13.6593, 67.522, -165.906
3.98385, -1, -46.8408, -11.7667, 29.2949, 13.6613, 67.4549, -166.074
3.99177, -1, -46.9396, -11.8159, 29.317, 13.663, 67.3992, -166.216
3.99985, -1, -47.0222, -11.8588, 29.3336, 13.6643, 67.3544, -166.329
4.00777, -1, -47.0894, -11.8956, 29.3448, 13.6651, 67.3208, -166.414
4.01578, -1, -47.1417, -11.9251, 29.352, 13.6655, 67.2974, -166.473
4.02388, -1, -47.1806, -11.9472, 29.3559, 13.6657, 67.2824, -166.511
4.03176, -1, -47.2082, -11.9627, 29.3577, 13.6658, 67.2736, -166.533
4.03976, -1, -47.2263, -11.9727, 29.3585, 13.6659, 67.2689, -166.545
4.04784, -1, -47.2372, -11.9786, 29.3589, 13.6659, 67.2665, -166.551
4.05582, -1, -47.2428, -11.9816, 29.3591, 13.666, 67.2654, -166.553
4.06383, 2, -47.2449, -11.9829, 29.3592, 13.666, 67.2649, -166.555
4.07183, 2, -47.2449, -11.9834, 29.3593, 13.666, 67.2647, -166.555
4.07977, 2, -47.2448, -11.9836, 29.3593, 13.6661, 67.2645, -166.555
4.08777, 2, -47.2447, -11.9836, 29.3594, 13.6661, 67.2645, -166.556
4.09588, 2, -47.2451, -11.9837, 29.3594, 13.6661, 67.2645, -166.556
4.10392, 2, -47.246, -11.984, 29.3594, 13.6661, 67.2645, -166.556
4.11186, 2, -47.2473, -11.9845, 29.3594, 13.6661, 67.2645, -166.556
4.11993, 2, -47.2491, -11.9852, 29.3595, 13.6661, 67.2645, -166.556
4.12789, 2, -47.2507, -11.9861, 29.3594, 13.6661, 67.2645, -166.556
4.1359, 2, -47.2521, -11.9869, 29.3594, 13.6661, 67.2645, -166.556
4.14401, 2, -47.253, -11.9876, 29.3594, 13.6661, 67.2645, -166.556
4.1518, 2, -47.2535, -11.988, 29.3594, 13.6661, 67.2645, -166.556
4.1599, 2, -47.2537, -11.9882, 29.3594, 13.6661, 67.2645, -166.556
4.16788, 2, -47.2537, -11.9883, 29.3595, 13.6661, 67.2645, -166.556
4.17584, 2, -47.2534, -11.9883, 29.3595, 13.6661, 67.2645, -166.556
4.18396, 2, -47.253, -11.9882, 29.3595, 13.6661, 67.2645, -166.556
4.19238, 2, -47.2525, -11.9882, 29.3595, 13.6661, 67.2645, -166.556
4.20002, 2, -47.2522, -11.9882, 29.3595, 13.6661, 67.2645, -166.556
4.20683, 2, -47.252, -11.9882, 29.3595, 13.6661, 67.2645, -166.556
4.21666, 2, -47.2519, -11.9883, 29.3595, 13.6661, 67.2645, -166.556
4.22429, 2, -47.2521, -11.9884, 29.3595, 13.6661, 67.2645, -166.556
4.23226, 2, -47.2523, -11.9888, 29.3595, 13.6661, 67.2645, -166.556
4.24073, 2, -47.2529, -11.9891, 29.3595, 13.6661, 67.2645, -166.556
4.24831, 2, -47.2534, -11.9894, 29.3595, 13.6661, 67.2645, -166.556
4.25654, 2, -47.2537, -11.9896, 29.3595, 13.6661, 67.2645, -166.556
4.26489, 2, -47.2539, -11.9897, 29.3595, 13.6661, 67.2645, -166.556
4.27229, 2, -47.2539, -11.9897, 29.3595, 13.6661, 67.2645, -166.556
4.27979, 2, -47.2539, -11.9897, 29.3595, 13.6661, 67.2645, -166.556
4.28777, 2, -47.2538, -11.9897, 29.3595, 13.6661, 67.2645, -166.556
4.29578, 2, -47.2534, -11.9896, 29.3595, 13.6662, 67.2645, -166.556
4.30387, 2, -47.2529, -11.9896, 29.3595, 13.6661, 67.2645, -166.556
4.31177, 2, -47.2527, -11.9896, 29.3595, 13.6661, 67.2645, -166.556
4.31978, 2, -47.2524, -11.9896, 29.3595, 13.6661, 67.2645, -166.556
4.3278, 2, -47.2523, -11.9896, 29.3595, 13.6661, 67.2645, -166.556
4.3358, 2, -47.2522, -11.9896, 29.3595, 13.6661, 67.2645, -166.555
4.34383, 2, -47.2522, -11.9897, 29.3595, 13.6661, 67.2645, -166.555
4.35179, 2, -47.2522, -11.9897, 29.3595, 13.6661, 67.2645, -166.556
4.35976, 2, -47.2522, -11.9898, 29.3595, 13.666, 67.2645, -166.556
4.36775, 2, -47.2522, -11.9898, 29.3595, 13.6661, 67.2645, -166.555
4.37581, 2, -47.2522, -11.9898, 29.3595, 13.6661, 67.2645, -166.555
4.38384, 2, -47.2522, -11.9898, 29.3595, 13.666, 67.2645, -166.555
4.39175, 2, -47.2521, -11.9897, 29.3595, 13.666, 67.2645, -166.555
4.40078, 2, -47.2521, -11.9897, 29.3595, 13.666, 67.2645, -166.555
4.40777, 2, -47.252, -11.9896, 29.3595, 13.666, 67.2645, -166.555
4.41687, 2, -47.2518, -11.9896, 29.3595, 13.666, 67.2645, -166.555
4.42386, 2, -47.2517, -11.9895, 29.3595, 13.6661, 67.2645, -166.555
4.43176, 2, -47.2516, -11.9895, 29.3595, 13.666, 67.2645, -166.555
4.43975, 2, -47.2515, -11.9895, 29.3595, 13.666, 67.2645, -166.555
4.4478, 2, -47.2514, -11.9896, 29.3595, 13.666, 67.2646, -166.555
4.45578, 2, -47.2514, -11.9896, 29.3595, 13.666, 67.2646, -166.555
4.46383, 2, -47.2514, -11.9896, 29.3595, 13.666, 67.2646, -166.555
4.47182, 2, -47.2514, -11.9896, 29.3595, 13.666, 67.2645, -166.555
4.47979, 2, -47.2513, -11.9896, 29.3595, 13.666, 67.2645, -166.555
4.48779, 2, -47.2512, -11.9896, 29.3595, 13.666, 67.2646, -166.555
4.4958, 2, -47.2511, -11.9895, 29.3595, 13.666, 67.2645, -166.555
4.50384, 2, -47.251, -11.9895, 29.3595, 13.666, 67.2645, -166.555
4.51175, 2, -47.2509, -11.9894, 29.3595, 13.666, 67.2646, -166.555
4.51979, 2, -47.2508, -11.9893, 29.3595, 13.666, 67.2646, -166.555
4.52777, 2, -47.2508, -11.9893, 29.3595, 13.666, 67.2646, -166.555
4.53576, 2, -47.2507, -11.9893, 29.3595, 13.666, 67.2646, -166.555
4.54387, 2, -47.2506, -11.9893, 29.3595, 13.666, 67.2646, -166.555
4.55179, 2, -47.2505, -11.9893, 29.3595, 13.666, 67.2646, -166.555
4.55974, 2, -47.2504, -11.9893, 29.3595, 13.666, 67.2646, -166.555
4.5678, 2, -47.2502, -11.9893, 29.3595, 13.666, 67.2646, -166.555
4.57579, 2, -47.2501, -11.9893, 29.3595, 13.666, 67.2646, -166.555
4.58381, 2, -47.25, -11.9893, 29.3595, 13.666, 67.2646, -166.555
4.59181, 2, -47.2499, -11.9893, 29.3595, 13.666, 67.2646, -166.555
4.59983, 2, -47.2499, -11.9892, 29.3595, 13.6659, 67.2647, -166.555
4.60784, 2, -47.2498, -11.9892, 29.3595, 13.666, 67.2646, -166.555
4.6159, 2, -47.2497, -11.9891, 29.3595, 13.666, 67.2646, -166.555
4.62394, 2, -47.2495, -11.989, 29.3595, 13.6659, 67.2647, -166.555
4.63187, 2, -47.2494, -11.989, 29.3595, 13.6659, 67.2647, -166.555
4.63994, 2, -47.2493, -11.989, 29.3595, 13.6659, 67.2647, -166.555
4.64784, 2, -47.2493, -11.989, 29.3595, 13.6659, 67.2647, -166.555
4.6558, 2, -47.2492, -11.9889, 29.3595, 13.6659, 67.2647, -166.555
4.66411, 2, -47.2492, -11.9889, 29.3595, 13.6659, 67.2647, -166.555
4.67164, 2, -47.2492, -11.9889, 29.3595, 13.6659, 67.2647, -166.555
4.67985, 2, -47.2491, -11.9889, 29.3595, 13.6659, 67.2646, -166.555
4.68799, 2, -47.249, -11.9889, 29.3595, 13.6659, 67.2647, -166.555
4.69638, 2, -47.249, -11.9889, 29.3595, 13.6659, 67.2647, -166.555
4.70414, 2, -47.249, -11.9889, 29.3595, 13.6659, 67.2647, -166.555
4.71076, 2, -47.2489, -11.9888, 29.3595, 13.6659, 67.2647, -166.555
4.72059, 2, -47.2488, -11.9887, 29.3595, 13.6658, 67.2647, -166.555
4.72826, 2, -47.2487, -11.9887, 29.3595, 13.6659, 67.2648, -166.555
4.73637, 2, -47.2486, -11.9886, 29.3595, 13.6658, 67.2648, -166.555
4.74477, 2, -47.2486, -11.9886, 29.3595, 13.6658, 67.2648, -166.555
4.75231, 2, -47.2485, -11.9886, 29.3595, 13.6659, 67.2648, -166.555
4.76036, 2, -47.2485, -11.9886, 29.3595, 13.6658, 67.2648, -166.555
4.7686, 2, -47.2484, -11.9886, 29.3595, 13.6658, 67.2647, -166.555
4.77575, 2, -47.2484, -11.9886, 29.3595, 13.6659, 67.2647, -166.555
4.7844, 2, -47.2484, -11.9886, 29.3595, 13.6658, 67.2648, -166.555
4.79265, 2, -47.2484, -11.9886, 29.3595, 13.6657, 67.2648, -166.555
4.79975, 2, -47.2484, -11.9886, 29.3595, 13.6657, 67.2648, -166.555
4.8078, 2, -47.2483, -11.9885, 29.3595, 13.6657, 67.2648, -166.555
4.81576, 2, -47.2482, -11.9885, 29.3595, 13.6657, 67.2648, -166.555
4.82382, 2, -47.2482, -11.9884, 29.3595, 13.6657, 67.2648, -166.555
4.83177, 2, -47.2481, -11.9883, 29.3595, 13.6658, 67.2648, -166.554
4.83977, 2, -47.248, -11.9883, 29.3595, 13.6658, 67.2648, -166.554
4.84774, 2, -47.2479, -11.9882, 29.3595, 13.6657, 67.2648, -166.554
4.85579, 2, -47.2479, -11.9882, 29.3595, 13.6657, 67.2648, -166.554
4.86381, 2, -47.2479, -11.9882, 29.3595, 13.6657, 67.2648, -166.554
4.87174, 2, -47.2478, -11.9882, 29.3595, 13.6657, 67.2648, -166.554
4.87978, 2, -47.2478, -11.9882, 29.3595, 13.6656, 67.2648, -166.554
4.88776, 2, -47.2477, -11.9882, 29.3595, 13.6656, 67.2648, -166.554
4.89575, 2, -47.2477, -11.9882, 29.3595, 13.6656, 67.2648, -166.554
4.90476, 2, -47.2477, -11.9882, 29.3595, 13.6656, 67.2648, -166.554
4.91179, 2, -47.2477, -11.9881, 29.3595, 13.6656, 67.2648, -166.554
4.91974, 2, -47.2476, -11.9881, 29.3595, 13.6656, 67.2648, -166.554
4.92778, 2, -47.2475, -11.988, 29.3595, 13.6655, 67.2649, -166.554
4.93576, 2, -47.2474, -11.988, 29.3594, 13.6655, 67.2649, -166.554
4.94379, 2, -47.2474, -11.9879, 29.3595, 13.6655, 67.2649, -166.554
4.95178, 2, -47.2473, -11.9879, 29.3595, 13.6655, 67.2649, -166.554
4.95975, 2, -47.2472, -11.9879, 29.3595, 13.6655, 67.2649, -166.554
4.96781, 2, -47.2472, -11.9879, 29.3595, 13.6655, 67.265, -166.554
4.97584, 2, -47.2471, -11.9879, 29.3595, 13.6655, 67.265, -166.554
4.98381, 2, -47.2471, -11.9879, 29.3595, 13.6655, 67.265, -166.554
4.99178, 2, -47.2471, -11.9879, 29.3595, 13.6655, 67.265, -166.554
4.99978, 2, -47.2471, -11.9878, 29.3595, 13.6654, 67.265, -166.554
5.00778, 2, -47.2471, -11.9878, 29.3595, 13.6654, 67.2651, -166.554
5.01575, 2, -47.247, -11.9877, 29.3594, 13.6654, 67.265, -166.554
5.02384, 2, -47.2469, -11.9877, 29.3595, 13.6653, 67.265, -166.554
5.03175, 2, -47.2469, -11.9876, 29.3595, 13.6654, 67.2651, -166.554
5.03973, 2, -47.2468, -11.9876, 29.3595, 13.6654, 67.265, -166.554
5.04778, 2, -47.2467, -11.9876, 29.3595, 13.6653, 67.265, -166.554
5.05581, 2, -47.2467, -11.9875, 29.3595, 13.6653, 67.265, -166.554
5.06578, 2, -47.2466, -11.9875, 29.3595, 13.6653, 67.265, -166.554
5.07178, 2, -47.2466, -11.9875, 29.3594, 13.6654, 67.2651, -166.554
5.07976, 2, -47.2465, -11.9875, 29.3594, 13.6653, 67.265, -166.554
5.08773, 2, -47.2465, -11.9875, 29.3594, 13.6653, 67.2651, -166.554
5.09517, 2, -47.2464, -11.9875, 29.3594, 13.6652, 67.2651, -166.554
5.10386, 2, -47.2464, -11.9875, 29.3594, 13.6652, 67.2651, -166.554
5.11183, 2, -47.2464, -11.9875, 29.3594, 13.6652, 67.2652, -166.554
5.11988, 2, -47.2463, -11.9874, 29.3594, 13.6652, 67.2652, -166.554
5.12786, 2, -47.2463, -11.9873, 29.3594, 13.6652, 67.2652, -166.554
5.13608, 2, -47.2463, -11.9873, 29.3594, 13.6652, 67.2652, -166.554
5.14326, 4, -47.2462, -11.9873, 29.3594, 13.6652, 67.2653, -166.554
5.15175, 4, -47.2461, -11.9872, 29.3594, 13.6652, 67.2652, -166.554
5.15978, 4, -47.2461, -11.9872, 29.3595, 13.6652, 67.2652, -166.554
5.16782, 4, -47.246, -11.9872, 29.3595, 13.6652, 67.2653, -166.554
5.17602, 4, -47.246, -11.9872, 29.3595, 13.6652, 67.2652, -166.554
5.18277, 4, -47.2459, -11.9872, 29.3595, 13.6651, 67.2652, -166.554
5.19206, 4, -47.2459, -11.9872, 29.3595, 13.6651, 67.2652, -166.554
5.19875, 4, -47.2459, -11.9872, 29.3595, 13.6651, 67.2652, -166.554
5.20808, 4, -47.2458, -11.9871, 29.3595, 13.6651, 67.2653, -166.554
5.21474, 4, -47.2459, -11.9871, 29.3595, 13.6651, 67.2653, -166.554
5.22453, 4, -47.2458, -11.9871, 29.3595, 13.665, 67.2653, -166.554
5.23228, 4, -47.2458, -11.987, 29.3595, 13.665, 67.2653, -166.554
5.24065, 4, -47.2457, -11.987, 29.3595, 13.665, 67.2653, -166.554
5.25624, 4, -47.2457, -11.9869, 29.3594, 13.665, 67.2653, -166.553
5.25826, 4, -47.2456, -11.9869, 29.3594, 13.6651, 67.2653, -166.553
5.26692, 4, -47.2456, -11.9869, 29.3594, 13.665, 67.2653, -166.553
5.27652, 4, -47.2455, -11.9869, 29.3594, 13.665, 67.2653, -166.553
5.28065, 4, -47.2455, -11.9869, 29.3594, 13.665, 67.2653, -166.553
5.29099, 4, -47.2454, -11.9868, 29.3594, 13.665, 67.2653, -166.553
5.29654, 4, -47.2454, -11.9868, 29.3594, 13.665, 67.2653, -166.553
5.30629, 4, -47.2454, -11.9868, 29.3594, 13.6649, 67.2653, -166.553
5.31253, 4, -47.2454, -11.9868, 29.3594, 13.6649, 67.2653, -166.553
5.32129, 4, -47.2454, -11.9868, 29.3594, 13.6648, 67.2653, -166.553
5.32803, 4, -47.2453, -11.9868, 29.3595, 13.6648, 67.2653, -166.553
5.33828, 4, -47.2453, -11.9867, 29.3594, 13.6648, 67.2653, -166.553
5.34403, 4, -47.2453, -11.9867, 29.3594, 13.6648, 67.2653, -166.553
5.35092, 4, -47.2452, -11.9867, 29.3595, 13.6648, 67.2653, -166.553
5.36225, 4, -47.2452, -11.9866, 29.3594, 13.6648, 67.2653, -166.553
5.36794, 4, -47.2451, -11.9866, 29.3594, 13.6648, 67.2653, -166.553
5.37507, 4, -47.2451, -11.9866, 29.3594, 13.6648, 67.2653, -166.553
5.38603, 4, -47.245, -11.9866, 29.3594, 13.6648, 67.2653, -166.553
5.39194, 4, -47.245, -11.9866, 29.3594, 13.6648, 67.2653, -166.553
5.39996, 4, -47.2449, -11.9866, 29.3594, 13.6647, 67.2654, -166.553
5.41099, 4, -47.2451, -11.9866, 29.3595, 13.6647, 67.2654, -166.553
5.41586, 4, -47.2454, -11.9868, 29.3596, 13.6648, 67.2654, -166.553
5.42407, 4, -47.2469, -11.9877, 29.3605, 13.6652, 67.2656, -166.553
5.43572, 4, -47.2525, -11.9932, 29.3672, 13.6764, 67.2682, -166.551
5.44085, 4, -47.2555, -11.997, 29.3724, 13.6865, 67.2707, -166.55
5.44998, 4, -47.2711, -12.0173, 29.4044, 13.7502, 67.2882, -166.536
5.45589, 5, -47.2791, -12.0281, 29.4231, 13.7883, 67.2988, -166.528
5.46448, 5, -47.3012, -12.0578, 29.4769, 13.9003, 67.3304, -166.502
5.47428, 5, -47.353, -12.1254, 29.6112, 14.1846, 67.4091, -166.437
5.48286, 5, -47.4026, -12.1881, 29.7435, 14.4697, 67.4879, -166.371
5.48796, 5, -47.4322, -12.2251, 29.8235, 14.6436, 67.5351, -166.331
5.49588, 5, -47.5009, -12.3104, 30.0125, 15.0546, 67.6459, -166.237
5.50795, 5, -47.6267, -12.4663, 30.3668, 15.8182, 67.8492, -166.063
5.51184, 5, -47.6743, -12.5251, 30.5017, 16.1062, 67.9251, -165.998
5.52225, 5, -47.7767, -12.6518, 30.7938, 16.7215, 68.0857, -165.86
5.52791, 5, -47.8871, -12.789, 31.1101, 17.3772, 68.2536, -165.714
5.53613, 5, -48.0034, -12.9344, 31.4445, 18.0574, 68.425, -165.566
5.54688, 5, -48.1837, -13.1619, 31.9661, 19.0979, 68.681, -165.342
5.55261, 5, -48.244, -13.2386, 32.143, 19.4453, 68.765, -165.269
5.56092, 5, -48.3626, -13.391, 32.4976, 20.1321, 68.9299, -165.121
5.57125, 5, -48.5278, -13.6118, 33.0243, 21.1254, 69.1707, -164.886
5.57626, 6, -48.5773, -13.6816, 33.1952, 21.4407, 69.25, -164.799
5.58394, 6, -48.6648, -13.8132, 33.5268, 22.0399, 69.4084, -164.6
5.59318, 7, -48.7339, -13.9346, 33.8402, 22.5923, 69.5691, -164.359
5.5999, 7, -48.7818, -14.0471, 34.1339, 23.0945, 69.7348, -164.062
5.60833, 7, -48.8083, -14.151, 34.4068, 23.55, 69.9081, -163.697
5.61792, 8, -48.8149, -14.2453, 34.6605, 23.9673, 70.0926, -163.263
5.62474, 8, -48.8034, -14.33, 34.8994, 24.3562, 70.2891, -162.761
5.63197, 9, -48.7772, -14.4065, 35.1263, 24.7271, 70.4983, -162.201
5.64052, 9, -48.7387, -14.4773, 35.3456, 25.0895, 70.7189, -161.598
5.6499, 10, -48.6893, -14.5443, 35.5619, 25.449, 70.9488, -160.967
5.65657, 10, -48.6302, -14.6084, 35.7766, 25.8089, 71.1853, -160.321
5.66486, 11, -48.564, -14.6697, 35.9906, 26.1706, 71.4249, -159.67
5.67628, 11, -48.4931, -14.7297, 36.2046, 26.5349, 71.7852, -158.697
5.68019, 12, -48.4179, -14.7901, 36.4173, 26.9036, 71.9052, -158.374
5.69378, 12, -48.3003, -14.8824, 36.7327, 27.4677, 72.266, -157.404
5.69688, 13, -48.2606, -14.9128, 36.8372, 27.6591, 72.3868, -157.08
5.70285, 13, -48.2207, -14.9427, 36.9414, 27.8521, 72.5079, -156.756
5.71235, 14, -48.0978, -15.0318, 37.2508, 28.4404, 72.8735, -155.778
5.72287, 14, -48.0114, -15.0924, 37.4561, 28.8389, 73.1191, -155.125
5.72857, 15, -47.9667, -15.1229, 37.5585, 29.0394, 73.3652, -154.473
5.73731, 15, -47.8276, -15.2132, 37.8619, 29.6431, 73.6105, -153.823
5.74464, 16, -47.729, -15.2722, 38.0612, 30.0455, 73.8542, -153.175
5.7534, 16, -47.6238, -15.3319, 38.2584, 30.4465, 74.0954, -152.531
5.76654, 17, -47.5125, -15.3934, 38.4522, 31.0438, 74.4503, -151.574
5.76987, 17, -47.3961, -15.4562, 38.6424, 31.2412, 74.5661, -151.257
5.77665, 18, -47.2748, -15.5194, 38.8301, 31.6333, 74.7936, -150.629
5.7885, 18, -47.1481, -15.5832, 39.015, 32.0214, 75.1241, -149.701
5.79414, 19, -47.016, -15.6487, 39.1969, 32.4066, 75.2313, -149.395
5.80125, 19, -46.9481, -15.6824, 39.2871, 32.5983, 75.3372, -149.091
5.80862, 20, -46.8083, -15.7515, 39.4669, 32.9807, 75.5451, -148.488
5.8177, 20, -46.6632, -15.859, 39.7331, 33.5517, 75.8487, -147.597
5.82795, 21, -46.4363, -15.9342, 39.9075, 33.9311, 76.0458, -147.011
5.83552, 21, -46.2794, -16.0126, 40.0803, 34.3095, 76.2385, -146.432
5.84216, 22, -46.1177, -16.0934, 40.2518, 34.6856, 76.426, -145.86
5.84787, 22, -46.035, -16.1343, 40.3365, 34.8724, 76.5176, -145.577
5.85484, 23, -45.8658, -16.217, 40.5037, 35.2433, 76.6967, -145.017
5.86684, 23, -45.6004, -16.3446, 40.7501, 35.7912, 76.9543, -144.186
5.87087, 24, -45.5087, -16.3882, 40.8308, 35.9714, 77.0374, -143.912
5.87987, 24, -45.3204, -16.4765, 40.9892, 36.3276, 77.1991, -143.369
5.88792, 25, -45.1255, -16.5662, 41.1432, 36.6779, 77.3559, -142.83
5.89587, 25, -44.924, -16.657, 41.293, 37.0219, 77.5078, -142.294
5.9062, 26, -44.6095, -16.7946, 41.5091, 37.5249, 77.7271, -141.496
5.91493, 26, -44.3911, -16.8868, 41.6464, 37.8512, 77.8679, -140.968
5.92376, 27, -44.1653, -16.9787, 41.7781, 38.1699, 78.0046, -140.441
5.92785, 27, -44.0499, -17.0244, 41.8416, 38.3261, 78.0714, -140.179
5.93836, 28, -43.6937, -17.1604, 42.023, 38.7828, 78.2665, -139.391
5.94391, 28, -43.5715, -17.2052, 42.0801, 38.9308, 78.3295, -139.13
5.95225, 29, -43.3221, -17.2938, 42.1894, 39.2204, 78.4534, -138.607
5.95986, 29, -43.0663, -17.3808, 42.2918, 39.5016, 78.5743, -138.085
5.96884, 30, -42.8036, -17.4661, 42.387, 39.7747, 78.6915, -137.562
5.97828, 30, -42.3939, -17.5903, 42.5162, 40.168, 78.8624, -136.78
5.98392, 31, -42.253, -17.6305, 42.5556, 40.2948, 78.9177, -136.52
5.99423, 31, -41.9653, -17.7472, 42.6635, 40.6626, 79.0801, -135.74
5.99987, 32, -41.6705, -17.7849, 42.696, 40.7809, 79.1329, -135.48
6.00734, 32, -41.369, -17.8586, 42.756, 41.0111, 79.2364, -134.961
6.01587, 33, -41.0611, -17.9296, 42.809, 41.2334, 79.3374, -134.443
6.02465, 33, -40.7465, -17.9973, 42.8548, 41.4476, 79.4362, -133.926
6.03184, 34, -40.4254, -18.062, 42.8933, 41.6535, 79.532, -133.41
6.03968, 34, -40.0994, -18.1242, 42.9245, 41.8514, 79.6251, -132.895
6.04976, 35, -39.7685, -18.1835, 42.9485, 42.0414, 79.7162, -132.381
6.0579, 35, -39.4317, -18.2393, 42.9654, 42.2239, 79.8042, -131.868
6.06444, 36, -39.088, -18.2919, 42.9752, 42.3988, 79.8905, -131.356
6.07213, 36, -38.7368, -18.341, 42.9783, 42.5659, 79.9744, -130.846
6.07992, 37, -38.3792, -18.3869, 42.9748, 42.7254, 80.0562, -130.337
6.08802, 37, -38.0159, -18.4292, 42.9644, 42.8774, 80.136, -129.829
6.09796, 38, -37.647, -18.4678, 42.9471, 43.022, 80.2137, -129.323
6.10487, 38, -37.2733, -18.503, 42.9233, 43.1593, 80.2895, -128.819
6.11205, 39, -36.8952, -18.5348, 42.8928, 43.2889, 80.3627, -128.316
6.12035, 39, -36.5126, -18.563, 42.8554, 43.4114, 80.4341, -127.816
6.13175, 40, -35.9285, -18.5983, 42.787, 43.5813, 80.5376, -127.069
6.13634, 40, -35.7308, -18.6081, 42.761, 43.6344, 80.5714, -126.82
6.1458, 41, -35.3312, -18.6247, 42.7039, 43.7352, 80.6372, -126.325
6.15254, 41, -34.9259, -18.6377, 42.6404, 43.8284, 80.7006, -125.832
6.1619, 42, -34.5162, -18.6472, 42.5705, 43.915, 80.7629, -125.342
6.16873, 42, -34.1034, -18.6535, 42.4941, 43.9942, 80.8221, -124.854
6.17613, 43, -33.6874, -18.6566, 42.4116, 44.0663, 80.8807, -124.367
6.18598, 43, -33.267, -18.6563, 42.3231, 44.1313, 80.9368, -123.883
6.19264, 44, -32.8409, -18.6523, 42.2289, 44.1894, 80.9915, -123.402
6.20147, 44, -32.4086, -18.6445, 42.1291, 44.2396, 81.045, -122.923
6.21082, 45, -31.97, -18.6329, 42.0232, 44.2832, 81.0959, -122.447
6.21704, 45, -31.5265, -18.6177, 41.9114, 44.3194, 81.1459, -121.972
6.2245, 46, -31.08, -18.5991, 41.7935, 44.3478, 81.1943, -121.5
6.23312, 46, -30.632, -18.577, 41.6699, 44.3682, 81.2399, -121.031
6.24076, 47, -30.1808, -18.551, 41.5404, 44.3813, 81.285, -120.564
6.25042, 47, -29.7244, -18.5205, 41.4049, 44.3873, 81.3292, -120.098
6.25667, 48, -29.2614, -18.4855, 41.2635, 44.3862, 81.3717, -119.635
6.26528, 48, -28.792, -18.4463, 41.1159, 44.3761, 81.4134, -119.173
6.27636, 49, -28.3177, -18.4028, 40.9624, 44.3575, 81.476, -118.484
6.28457, 49, -27.6014, -18.3291, 40.7209, 44.3121, 81.5165, -118.026
6.28692, 50, -27.6014, -18.3291, 40.7209, 44.3121, 81.5165, -118.026
6.29521, 50, -27.1203, -18.274, 40.5517, 44.2697, 81.5573, -117.569
6.30893, 51, -26.1404, -18.1471, 40.194, 44.1575, 81.642, -116.658
6.31182, 51, -26.1404, -18.1471, 40.194, 44.1575, 81.642, -116.658
6.32304, 52, -25.3863, -18.0374, 39.9073, 44.0477, 81.7061, -115.977
6.32783, 52, -25.1328, -17.9982, 39.808, 44.0056, 81.7282, -115.75
6.33915, 53, -24.3691, -17.8726, 39.5015, 43.8646, 81.7954, -115.071
6.34616, 53, -23.8562, -17.7816, 39.2882, 43.7582, 81.8406, -114.619
6.35422, 54, -23.3369, -17.6843, 39.0672, 43.6413, 81.8884, -114.167
6.35996, 54, -23.0743, -17.6334, 38.9544, 43.5788, 81.913, -113.941
6.36987, 55, -22.2744, -17.4712, 38.6049, 43.3746, 81.9886, -113.264
6.37765, 55, -21.7352, -17.3555, 38.3625, 43.2237, 82.0428, -112.811
6.38645, 56, -21.1942, -17.2339, 38.1142, 43.0612, 82.0981, -112.36
6.39191, 56, -20.9224, -17.171, 37.9873, 42.9756, 82.1262, -112.135
6.40194, 57, -20.0964, -16.9739, 37.5962, 42.7017, 82.2147, -111.458
6.40783, 57, -19.8164, -16.9054, 37.4627, 42.6046, 82.2446, -111.233
6.41583, 58, -19.2501, -16.764, 37.1901, 42.4009, 82.3062, -110.783
6.42385, 58, -18.6784, -16.6164, 36.9113, 42.1847, 82.3702, -110.333
6.4366, 59, -18.1041, -16.3848, 36.481, 41.8372, 82.4696, -109.659
6.44002, 59, -17.5269, -16.3054, 36.3345, 41.7151, 82.5041, -109.434
6.44974, 60, -16.9419, -16.1431, 36.0368, 41.4612, 82.574, -108.761
6.45593, 60, -16.3464, -15.9753, 35.7331, 41.1947, 82.6468, -108.536
6.46675, 61, -15.4412, -15.7141, 35.2682, 40.7702, 82.7582, -107.863
6.47192, 61, -15.1379, -15.6248, 35.1103, 40.6224, 82.7965, -107.639
6.48045, 62, -14.5287, -15.4431, 34.7906, 40.3175, 82.8744, -107.191
6.48787, 62, -13.9127, -15.2566, 34.4653, 39.9995, 82.9549, -106.742
6.49502, 63, -13.2862, -15.0639, 34.1358, 39.6679, 83.0378, -106.293
6.50706, 63, -12.3315, -14.7634, 33.6316, 39.1435, 83.1679, -105.618
6.51287, 64, -12.011, -14.6608, 33.4609, 38.9615, 83.2132, -105.393
6.52309, 64, -11.0415, -14.343, 32.939, 38.3935, 83.3546, -104.715
6.52784, 65, -10.7138, -14.2332, 32.7619, 38.1965, 83.4041, -104.489
6.53867, 65, -9.7144, -13.8931, 32.2214, 37.5803, 83.5609, -103.805
6.543, 66, -9.37652, -13.7765, 32.0385, 37.3661, 83.6161, -103.576
6.55257, 66, -8.69559, -13.5378, 31.6683, 36.9252, 83.7314, -103.118
6.56405, 67, -7.66315, -13.1662, 31.0996, 36.231, 83.9164, -102.425
6.56798, 67, -7.31437, -13.039, 30.9068, 35.9914, 83.9818, -102.193
6.57585, 68, -6.61035, -12.7792, 30.5175, 35.5003, 84.1171, -101.726
6.58405, 68, -5.89949, -12.5133, 30.1255, 34.996, 84.2584, -101.258
6.59186, 69, -5.18406, -12.2406, 29.7304, 34.4796, 84.405, -100.788
6.6001, 69, -4.4631, -11.9596, 29.3327, 33.9515, 84.5565, -100.316
6.61121, 70, -3.73459, -11.5264, 28.7354, 33.1373, 84.7945, -99.6067
6.6162, 70, -2.99782, -11.3781, 28.5361, 32.8586, 84.8771, -99.3694
6.6245, 71, -2.25293, -11.0751, 28.1362, 32.2905, 85.0475, -98.8941
6.63252, 71, -1.49936, -10.7644, 27.7328, 31.7065, 85.2266, -98.4169
6.63997, 72, -0.737817, -10.4472, 27.3263, 31.105, 85.4157, -97.9359
6.64855, 72, 0.0305667, -10.1248, 26.9168, 30.4841, 85.6149, -97.4515
6.65644, 73, 0.805, -9.7936, 26.5045, 29.8495, 85.8232, -96.9638
6.66889, 73, 1.58465, -9.4537, 26.0912, 28.8757, 86.1511, -96.2278
6.6727, 74, 2.36801, -9.10772, 25.6781, 28.5465, 86.2644, -95.9812
6.68542, 75, 3.54719, -8.58168, 25.0648, 27.5492, 86.6141, -95.2393
6.68884, 75, 3.94126, -8.40324, 24.8631, 27.2144, 86.7333, -94.9914
6.70019, 75, 5.12767, -7.85832, 24.267, 26.211, 87.0975, -94.2478
6.70423, 76, 5.52403, -7.67372, 24.0718, 25.877, 87.2211, -93.9993
6.72208, 77, 7.11324, -6.91904, 23.3078, 24.5391, 87.7295, -93.0009
6.72475, 77, 7.51146, -6.72507, 23.1197, 24.2042, 87.8614, -92.7497
6.73828, 78, 8.70802, -6.13148, 22.5598, 23.193, 88.2734, -91.993
6.74497, 78, 9.50624, -5.7269, 22.1902, 22.5112, 88.5638, -91.4835
6.7463, 78, 9.50624, -5.7269, 22.1902, 22.5112, 88.5638, -91.4835
6.75229, 79, 10.3042, -5.3131, 21.8223, 21.8246, 88.8674, -90.9702
6.76026, 79, 11.1004, -4.88952, 21.4569, 21.136, 89.1838, -90.4524
6.76827, 80, 11.497, -4.67394, 21.0942, 20.446, 89.5122, -89.9304
6.77633, 80, 12.2865, -4.01303, 20.7362, 19.7578, 89.8518, -89.4034
6.78364, 81, 13.0702, -3.78805, 20.5589, 19.4166, 90.0254, -89.1381
6.79168, 81, 13.8488, -3.332, 20.2092, 18.7418, 90.3791, -88.6045
6.79972, 82, 14.6209, -2.86879, 19.8665, 18.08, 90.7403, -88.0673
6.80675, 82, 15.3849, -2.39798, 19.5338, 17.4322, 91.107, -87.5279
6.81566, 83, 16.1395, -1.92023, 19.211, 16.8005, 91.4788, -86.9853
6.82268, 83, 16.8834, -1.43587, 18.8992, 16.1878, 91.8547, -86.4406
6.8319, 84, 17.6148, -0.945327, 18.5976, 15.5939, 92.2348, -85.8942
6.83977, 84, 18.3297, -0.450285, 18.3059, 15.0181, 92.62, -85.3475
6.84769, 84, 19.0267, 0.0485559, 18.0229, 14.4621, 93.0121, -84.8
6.85569, 85, 19.706, 0.552415, 17.7462, 13.9255, 93.4122, -84.2535
6.86383, 85, 20.368, 1.06112, 17.4757, 13.4087, 93.8206, -83.7088
6.87166, 86, 21.0134, 1.57405, 17.2103, 12.9128, 94.2353, -83.167
6.87969, 86, 21.6441, 2.09234, 16.951, 12.4379, 94.6557, -82.6259
6.88772, 87, 22.2618, 2.61861, 16.6977, 11.9849, 95.0817, -82.084
6.89567, 87, 22.8682, 3.15515, 16.4488, 11.5524, 95.5137, -81.5388
6.90363, 88, 23.4651, 3.70129, 16.2043, 11.139, 95.9518, -80.9895
6.91176, 88, 24.0521, 4.25472, 15.9633, 10.742, 96.3957, -80.4325
6.92073, 89, 24.6277, 4.81687, 15.7267, 10.3611, 96.8457, -79.866
6.92768, 89, 25.1915, 5.39006, 15.4961, 9.99488, 97.3024, -79.2887
6.93574, 89, 25.746, 5.97414, 15.2692, 9.64448, 97.7653, -78.7
6.94373, 90, 26.2956, 6.56792, 15.0455, 9.30849, 98.2345, -78.0976
6.95167, 90, 26.8373, 7.17043, 14.8268, 8.9884, 98.7103, -77.4811
6.95975, 91, 27.3667, 7.782, 14.6132, 8.68576, 99.1925, -76.8514
6.96769, 91, 27.8832, 8.40374, 14.4039, 8.40179, 99.6806, -76.2102
6.97569, 92, 28.3904, 9.03645, 14.1989, 8.139, 100.174, -75.5571
6.98369, 92, 28.8908, 9.67933, 13.9985, 7.89828, 100.67, -74.8955
6.99169, 93, 29.3814, 10.3296, 13.8038, 7.68018, 101.169, -74.2274
6.99968, 93, 29.8593, 10.9858, 13.6167, 7.48563, 101.668, -73.5516
7.00771, 94, 30.3231, 11.6461, 13.4374, 7.31457, 102.166, -72.8696
7.01576, 94, 30.7723, 12.309, 13.265, 7.1672, 102.661, -72.1834
7.02369, 95, 31.2077, 12.9739, 13.0998, 7.04357, 103.153, -71.4918
7.03168, 95, 31.6293, 13.6406, 12.9427, 6.94358, 103.641, -70.7939
7.03975, 96, 32.0365, 14.3084, 12.7925, 6.86706, 104.126, -70.0913
7.04768, 96, 32.4278, 14.9769, 12.6486, 6.81503, 104.607, -69.3836
7.0557, 97, 32.8028, 15.6456, 12.5116, 6.78455, 105.083, -68.6693
7.06375, 97, 33.1618, 16.3125, 12.3823, 6.77529, 105.553, -67.9513
7.07166, 98, 33.5054, 16.977, 12.2616, 6.78843, 106.016, -67.2307
7.07968, 98, 33.8348, 17.637, 12.1497, 6.8222, 106.47, -66.5064
7.08775, 99, 34.1505, 18.2913, 12.0471, 6.8755, 106.914, -65.7829
7.09567, 99, 34.4544, 18.938, 11.9538, 6.9484, 107.346, -65.0616
7.1037, 100, 34.7471, 19.5761, 11.8695, 7.03834, 107.765, -64.3419
7.11183, 100, 35.0282, 20.2047, 11.7941, 7.14566, 108.17, -63.6271
7.11978, 101, 35.2973, 20.8224, 11.7268, 7.2683, 108.56, -62.92
7.12803, 101, 35.5547, 21.429, 11.6679, 7.40543, 108.934, -62.2192
7.13579, 102, 35.7994, 22.0229, 11.6177, 7.55481, 109.291, -61.5284
7.14377, 102, 36.0305, 22.6038, 11.5757, 7.7147, 109.63, -60.8498
7.15186, 103, 36.2508, 23.1701, 11.5425, 7.88337, 109.952, -60.1828
7.15977, 103, 36.4638, 23.7208, 11.518, 8.0599, 110.257, -59.5281
7.1677, 103, 36.6705, 24.2561, 11.5027, 8.24456, 110.543, -58.8877
7.17652, 104, 36.8701, 24.7756, 11.4956, 8.43784, 110.81, -58.2593
7.18371, 104, 37.064, 25.279, 11.4952, 8.64008, 111.058, -57.6421
7.19181, 104, 37.252, 25.7668, 11.5013, 8.85055, 111.287, -57.0368
7.19991, 104, 37.4311, 26.2385, 11.5125, 9.06784, 111.496, -56.4444
7.20804, 104, 37.5994, 26.6938, 11.5268, 9.29036, 111.689, -55.8652
7.21474, 104, 37.6801, 26.9155, 11.535, 9.40265, 111.78, -55.5817
7.22413, 104, 37.9147, 27.558, 11.5633, 9.73943, 112.032, -54.759
7.23067, 104, 37.9911, 27.7644, 11.5735, 9.85062, 112.111, -54.4957
7.24023, 104, 38.2133, 28.3582, 11.6044, 10.1776, 112.334, -53.7394
7.24821, 104, 38.3543, 28.7334, 11.6242, 10.3886, 112.472, -53.2646
7.25699, 104, 38.4885, 29.0912, 11.6428, 10.5928, 112.602, -52.814
7.26429, 104, 38.6149, 29.4309, 11.6605, 10.7893, 112.725, -52.3881
7.27326, 104, 38.675, 29.7515, 11.6769, 10.9773, 112.84, -51.9876
7.28022, 104, 38.7888, 29.9046, 11.6847, 11.0679, 112.947, -51.6115
7.28833, 104, 38.8942, 30.197, 11.6994, 11.3253, 113.047, -51.2608
7.29569, 104, 38.9919, 30.4706, 11.7132, 11.4061, 113.093, -51.0951
7.30371, 104, 39.082, 30.7243, 11.7257, 11.5598, 113.182, -50.7828
7.31176, 104, 39.1642, 30.9586, 11.7371, 11.7027, 113.263, -50.4955
7.31971, 104, 39.2385, 31.1732, 11.7474, 11.8342, 113.337, -50.2335
7.32771, 104, 39.3048, 31.3677, 11.757, 11.9541, 113.403, -49.9966
7.33571, 104, 39.3633, 31.543, 11.7656, 12.0623, 113.462, -49.785
7.34369, 104, 39.4147, 31.6988, 11.7731, 12.1582, 113.515, -49.5986
7.35167, 104, 39.4596, 31.8354, 11.7799, 12.2421, 113.559, -49.4368
7.35973, 104, 39.499, 31.9542, 11.7861, 12.3137, 113.597, -49.2994
7.36767, 104, 39.5324, 32.056, 11.7917, 12.3741, 113.629, -49.1853
7.37565, 104, 39.5598, 32.1414, 11.7966, 12.4223, 113.654, -49.093
7.38372, 104, 39.5821, 32.2121, 11.801, 12.4598, 113.674, -49.0207
7.39173, 104, 39.5997, 32.2697, 11.805, 12.4885, 113.688, -48.9669
7.39966, 104, 39.6132, 32.3159, 11.8086, 12.5095, 113.698, -48.9284
7.40928, 104, 39.6237, 32.3516, 11.8119, 12.5296, 113.707, -48.8926
7.41566, 104, 39.6315, 32.3783, 11.8149, 12.5339, 113.709, -48.8852
7.42467, 104, 39.6371, 32.3983, 11.8174, 12.54, 113.712, -48.8753
7.43174, 104, 39.6405, 32.4128, 11.8195, 12.5434, 113.713, -48.87
7.43966, 104, 39.6424, 32.4224, 11.8211, 12.5451, 113.714, -48.8676
7.44767, 105, 39.6432, 32.4284, 11.8223, 12.546, 113.714, -48.8665
7.45573, 105, 39.6429, 32.4323, 11.8234, 12.5464, 113.714, -48.8662
7.46367, 105, 39.642, 32.435, 11.8242, 12.5465, 113.714, -48.8662
7.47168, 105, 39.6411, 32.437, 11.825, 12.5467, 113.714, -48.8664
7.47972, 105, 39.6401, 32.4385, 11.8256, 12.5467, 113.714, -48.8666
7.48769, 105, 39.6389, 32.4398, 11.8262, 12.5467, 113.714, -48.8669
7.49568, 105, 39.6378, 32.4411, 11.8267, 12.5467, 113.714, -48.8673
7.50372, 105, 39.6372, 32.4422, 11.8273, 12.5468, 113.714, -48.8676
7.5117, 105, 39.6368, 32.4433, 11.8279, 12.5468, 113.714, -48.8679
7.51966, 105, 39.6365, 32.4443, 11.8285, 12.5468, 113.714, -48.8682
7.52775, 105, 39.6363, 32.4453, 11.829, 12.5468, 113.714, -48.8685
7.53566, 105, 39.6361, 32.446, 11.8294, 12.5468, 113.714, -48.8688
7.54363, 105, 39.6358, 32.4465, 11.8297, 12.5468, 113.714, -48.869
7.55173, 105, 39.6355, 32.4469, 11.83, 12.5467, 113.714, -48.8693
7.55965, 105, 39.6352, 32.4471, 11.8303, 12.5467, 113.714, -48.8695
