hehonglu123/Motion-Primitive-Planning/ILC/recorded_data/realrobot/from_NX/iteration_12/run_4.csv
timestamp, cmd_num, J1, J2, J3, J4, J5, J6
0.000412, -1, 39.6301, 32.4471, 11.8318, 12.5453, 113.713, -48.8723
0.004192, -1, 39.6301, 32.4471, 11.8318, 12.5453, 113.713, -48.8723
0.007797, -1, 39.6301, 32.4471, 11.8318, 12.5453, 113.713, -48.8724
0.030569, -1, 39.6301, 32.4471, 11.8318, 12.5453, 113.713, -48.8723
0.03405, -1, 39.6301, 32.4471, 11.8318, 12.5453, 113.713, -48.8723
0.035491, -1, 39.6301, 32.4471, 11.8318, 12.5453, 113.713, -48.8723
0.039599, -1, 39.6301, 32.4471, 11.8318, 12.5453, 113.713, -48.8723
0.047689, -1, 39.63, 32.4471, 11.8319, 12.5453, 113.713, -48.8723
0.055623, -1, 39.6295, 32.447, 11.8318, 12.5453, 113.713, -48.8723
0.063697, -1, 39.6271, 32.4466, 11.8318, 12.5453, 113.713, -48.8724
0.200599, -1, 38.2527, 31.7439, 12.1049, 12.5572, 112.991, -50.7151
0.201861, -1, 38.2527, 31.7439, 12.1049, 12.5572, 112.991, -50.7151
0.203913, -1, 38.1642, 31.6977, 12.1244, 12.5584, 112.941, -50.8414
0.205109, -1, 38.1642, 31.6977, 12.1244, 12.5584, 112.941, -50.8414
0.206377, -1, 38.1642, 31.6977, 12.1244, 12.5584, 112.941, -50.8414
0.208572, -1, 38.0742, 31.6508, 12.1439, 12.5596, 112.891, -50.9685
0.209785, -1, 38.0742, 31.6508, 12.1439, 12.5596, 112.891, -50.9685
0.213687, -1, 37.983, 31.6033, 12.1634, 12.5609, 112.84, -51.0965
0.215814, -1, 37.8907, 31.5554, 12.1828, 12.5621, 112.789, -51.2251
0.217133, -1, 37.8907, 31.5554, 12.1828, 12.5621, 112.789, -51.2251
0.219077, -1, 37.8907, 31.5554, 12.1828, 12.5621, 112.789, -51.2251
0.220634, -1, 37.7974, 31.5071, 12.2022, 12.5632, 112.738, -51.3541
0.221851, -1, 37.7974, 31.5071, 12.2022, 12.5632, 112.738, -51.3541
0.225104, -1, 37.7032, 31.4586, 12.2216, 12.5644, 112.687, -51.4835
0.226357, -1, 37.7032, 31.4586, 12.2216, 12.5644, 112.687, -51.4835
0.22861, -1, 37.6082, 31.4098, 12.2409, 12.5657, 112.636, -51.6132
0.229827, -1, 37.6082, 31.4098, 12.2409, 12.5657, 112.636, -51.6132
0.231859, -1, 37.5129, 31.3609, 12.2603, 12.5669, 112.585, -51.743
0.233064, -1, 37.5129, 31.3609, 12.2603, 12.5669, 112.585, -51.743
0.234397, -1, 37.5129, 31.3609, 12.2603, 12.5669, 112.585, -51.743
0.237143, -1, 37.4172, 31.3119, 12.2797, 12.5682, 112.533, -51.8728
0.239779, -1, 37.3213, 31.263, 12.2991, 12.5694, 112.482, -52.0025
0.247648, -1, 37.1292, 31.1651, 12.338, 12.5717, 112.379, -52.2622
0.255926, -1, 36.937, 31.0673, 12.3767, 12.5744, 112.276, -52.5222
0.263854, -1, 36.7451, 30.9696, 12.4155, 12.577, 112.173, -52.7826
0.271785, -1, 36.5534, 30.8718, 12.4544, 12.5796, 112.07, -53.043
0.279915, -1, 36.3618, 30.7742, 12.4932, 12.5822, 111.968, -53.3032
0.288026, -1, 36.1703, 30.6764, 12.5321, 12.5848, 111.865, -53.5637
0.294603, -1, 36.0745, 30.6274, 12.5515, 12.586, 111.813, -53.6939
0.304177, -1, 35.7872, 30.4804, 12.6099, 12.59, 111.659, -54.0849
0.312216, -1, 35.5954, 30.3824, 12.6488, 12.5924, 111.556, -54.3451
0.321236, -1, 35.4033, 30.2842, 12.6876, 12.5951, 111.453, -54.6054
0.328191, -1, 35.211, 30.1859, 12.7264, 12.5977, 111.35, -54.866
0.336231, -1, 35.0186, 30.0876, 12.7653, 12.6002, 111.246, -55.1269
0.344192, -1, 34.9224, 30.0384, 12.8042, 12.6029, 111.143, -55.3874
0.350672, -1, 34.7302, 29.9399, 12.8236, 12.6042, 111.092, -55.5178
0.360608, -1, 34.4417, 29.7922, 12.882, 12.608, 110.937, -55.909
0.367611, -1, 34.3456, 29.7429, 12.9015, 12.6093, 110.886, -56.0395
0.375592, -1, 34.1536, 29.6446, 12.9403, 12.6118, 110.783, -56.3005
0.38368, -1, 33.9618, 29.5463, 12.9793, 12.6145, 110.68, -56.5613
0.391589, -1, 33.7701, 29.4479, 13.0182, 12.6172, 110.577, -56.822
0.398617, -1, 33.5782, 29.3496, 13.057, 12.6198, 110.473, -57.0829
0.407589, -1, 33.3861, 29.2512, 13.096, 12.6224, 110.37, -57.3442
0.415651, -1, 33.1935, 29.1527, 13.135, 12.625, 110.267, -57.6051
0.422628, -1, 33.0008, 29.0541, 13.1737, 12.6276, 110.164, -57.8661
0.431586, -1, 32.8078, 28.9556, 13.2126, 12.6303, 110.061, -58.1272
0.439662, -1, 32.6145, 28.857, 13.2516, 12.633, 109.958, -58.3886
0.447738, -1, 32.421, 28.7583, 13.2904, 12.6357, 109.855, -58.6497
0.455577, -1, 32.227, 28.6596, 13.3294, 12.6383, 109.752, -58.9107
0.462598, -1, 32.0329, 28.5608, 13.3682, 12.6411, 109.649, -59.1717
0.471594, -1, 31.8391, 28.462, 13.4071, 12.6438, 109.546, -59.4332
0.479595, -1, 31.6454, 28.3633, 13.4461, 12.6465, 109.443, -59.6945
0.488601, -1, 31.4519, 28.2646, 13.4851, 12.6494, 109.34, -59.9557
0.494612, -1, 31.2589, 28.166, 13.524, 12.6521, 109.237, -60.217
0.503597, -1, 31.0663, 28.0675, 13.5631, 12.655, 109.134, -60.4785
0.511766, -1, 30.8741, 27.969, 13.6021, 12.6578, 109.03, -60.74
0.645763, -1, 27.6862, 26.3391, 14.2452, 12.7008, 107.326, -65.0567
0.647732, -1, 27.5901, 26.2896, 14.2646, 12.702, 107.275, -65.1875
0.649022, -1, 27.5901, 26.2896, 14.2646, 12.702, 107.275, -65.1875
0.651672, -1, 27.494, 26.2402, 14.2841, 12.7032, 107.223, -65.3182
0.652918, -1, 27.494, 26.2402, 14.2841, 12.7032, 107.223, -65.3182
0.654857, -1, 27.398, 26.1907, 14.3036, 12.7044, 107.171, -65.449
0.656237, -1, 27.398, 26.1907, 14.3036, 12.7044, 107.171, -65.449
0.658987, -1, 27.302, 26.1412, 14.3232, 12.7055, 107.12, -65.5798
0.661376, -1, 27.302, 26.1412, 14.3232, 12.7055, 107.12, -65.5798
0.663559, -1, 27.2059, 26.0917, 14.3427, 12.7067, 107.068, -65.7106
0.664795, -1, 27.2059, 26.0917, 14.3427, 12.7067, 107.068, -65.7106
0.665987, -1, 27.2059, 26.0917, 14.3427, 12.7067, 107.068, -65.7106
0.66803, -1, 27.1097, 26.0423, 14.3621, 12.7078, 107.016, -65.8414
0.669241, -1, 27.1097, 26.0423, 14.3621, 12.7078, 107.016, -65.8414
0.67121, -1, 27.0134, 25.9928, 14.3815, 12.7089, 106.964, -65.9723
0.675796, -1, 26.9171, 25.9434, 14.401, 12.7101, 106.913, -66.1033
0.677083, -1, 26.9171, 25.9434, 14.401, 12.7101, 106.913, -66.1033
0.679109, -1, 26.8208, 25.894, 14.4205, 12.7113, 106.861, -66.2344
0.680496, -1, 26.8208, 25.894, 14.4205, 12.7113, 106.861, -66.2344
0.681766, -1, 26.8208, 25.894, 14.4205, 12.7113, 106.861, -66.2344
0.6839, -1, 26.7243, 25.8446, 14.44, 12.7125, 106.81, -66.3652
0.68774, -1, 26.6277, 25.7951, 14.4595, 12.7136, 106.758, -66.496
0.700009, -1, 26.3371, 25.6469, 14.5178, 12.717, 106.603, -66.8886
0.703754, -1, 26.2401, 25.5975, 14.5373, 12.7181, 106.552, -67.0195
0.711767, -1, 26.0461, 25.4986, 14.5763, 12.7203, 106.449, -67.2815
0.719705, -1, 25.8517, 25.3997, 14.6152, 12.7227, 106.345, -67.5432
0.727659, -1, 25.6575, 25.3009, 14.6542, 12.725, 106.242, -67.8047
0.735732, -1, 25.4635, 25.2022, 14.6932, 12.7272, 106.139, -68.0663
0.74364, -1, 25.2698, 25.1035, 14.7321, 12.7295, 106.036, -68.3282
0.751657, -1, 25.0763, 25.0047, 14.7712, 12.7319, 105.932, -68.5899
0.759776, -1, 24.8831, 24.9059, 14.8102, 12.7343, 105.829, -68.8515
0.767764, -1, 24.6902, 24.8071, 14.8491, 12.7366, 105.726, -69.1133
0.775889, -1, 24.4977, 24.7082, 14.8881, 12.739, 105.623, -69.3751
0.784003, -1, 24.3054, 24.6092, 14.9271, 12.7414, 105.519, -69.6369
0.790619, -1, 24.2092, 24.5598, 14.9466, 12.7426, 105.468, -69.7676
0.800105, -1, 23.9202, 24.4116, 15.0051, 12.746, 105.313, -70.1599
0.808092, -1, 23.7273, 24.3128, 15.044, 12.7485, 105.209, -70.4214
0.816088, -1, 23.5342, 24.214, 15.0829, 12.7509, 105.106, -70.6833
0.822647, -1, 23.4375, 24.1645, 15.1024, 12.752, 105.054, -70.8142
0.832176, -1, 23.1469, 24.0162, 15.1607, 12.7557, 104.899, -71.2066
0.840161, -1, 22.953, 23.9173, 15.1996, 12.7581, 104.796, -71.4685
0.848287, -1, 22.7589, 23.8185, 15.2386, 12.7605, 104.692, -71.7303
0.856143, -1, 22.6619, 23.7691, 15.2581, 12.7618, 104.641, -71.8612
0.863604, -1, 22.4681, 23.6704, 15.2971, 12.7643, 104.537, -72.1226
0.871654, -1, 22.2747, 23.5718, 15.3361, 12.7668, 104.434, -72.3839
0.879582, -1, 22.0815, 23.4731, 15.3749, 12.7694, 104.331, -72.6454
0.887575, -1, 21.8884, 23.3744, 15.4139, 12.772, 104.227, -72.9071
0.895623, -1, 21.6958, 23.2756, 15.4529, 12.7747, 104.124, -73.1683
0.903587, -1, 21.5037, 23.1768, 15.4918, 12.7774, 104.021, -73.4298
0.911578, -1, 21.3114, 23.0781, 15.5308, 12.78, 103.918, -73.6913
0.919642, -1, 21.1191, 22.9794, 15.5698, 12.7827, 103.815, -73.953
0.927574, -1, 20.9266, 22.8808, 15.6087, 12.7853, 103.712, -74.2142
0.935572, -1, 20.7343, 22.7822, 15.6476, 12.7881, 103.608, -74.4754
0.943588, -1, 20.5416, 22.6836, 15.6865, 12.7908, 103.505, -74.7367
0.951616, -1, 20.3485, 22.5849, 15.7253, 12.7935, 103.402, -74.9981
0.9586, -1, 20.1549, 22.4862, 15.7643, 12.7963, 103.299, -75.2592
0.96757, -1, 19.9612, 22.3875, 15.8032, 12.799, 103.196, -75.5203
0.975576, -1, 19.7676, 22.2888, 15.8419, 12.8017, 103.094, -75.7814
0.984581, -1, 19.574, 22.1902, 15.8808, 12.8044, 102.99, -76.0427
0.991641, -1, 19.3806, 22.0916, 15.9197, 12.8072, 102.887, -76.304
1.00058, -1, 19.1875, 21.9929, 15.9585, 12.8098, 102.784, -76.5649
1.00764, -1, 18.9947, 21.8943, 15.9975, 12.8126, 102.681, -76.8257
1.01557, -1, 18.8022, 21.7956, 16.0363, 12.8153, 102.578, -77.0867
1.02358, -1, 18.6101, 21.6969, 16.075, 12.818, 102.475, -77.3478
1.0316, -1, 18.4183, 21.5983, 16.1139, 12.8207, 102.372, -77.6084
1.0396, -1, 18.2264, 21.4997, 16.1528, 12.8234, 102.27, -77.8692
1.04765, -1, 18.0344, 21.4013, 16.1916, 12.826, 102.167, -78.13
1.05557, -1, 17.8426, 21.3029, 16.2305, 12.8285, 102.064, -78.3908
1.06358, -1, 17.6505, 21.2045, 16.2694, 12.831, 101.961, -78.6514
1.0717, -1, 17.4581, 21.1062, 16.3082, 12.8335, 101.858, -78.9118
1.07957, -1, 17.2653, 21.0079, 16.3471, 12.8359, 101.755, -79.1723
1.08756, -1, 17.0723, 20.9097, 16.3858, 12.8384, 101.652, -79.433
1.09566, -1, 16.8792, 20.8114, 16.4246, 12.8408, 101.549, -79.6935
1.10358, -1, 16.6862, 20.7132, 16.4634, 12.8431, 101.446, -79.9539
1.11157, -1, 16.4932, 20.615, 16.5021, 12.8454, 101.344, -80.2143
1.11969, -1, 16.3004, 20.5167, 16.5408, 12.8477, 101.241, -80.475
1.12757, -1, 16.1081, 20.4183, 16.5795, 12.85, 101.138, -80.7356
1.13557, -1, 15.9162, 20.3199, 16.6182, 12.8524, 101.036, -80.9957
1.14367, -1, 15.7245, 20.2214, 16.657, 12.8546, 100.933, -81.2557
1.15157, -1, 15.5332, 20.123, 16.6955, 12.857, 100.83, -81.5158
1.15966, -1, 15.342, 20.0246, 16.7342, 12.8593, 100.728, -81.7761
1.16774, -1, 15.1508, 19.9264, 16.773, 12.8616, 100.625, -82.036
1.17558, -1, 14.9597, 19.8282, 16.8117, 12.8638, 100.523, -82.2957
1.1837, -1, 14.7683, 19.7301, 16.8503, 12.8662, 100.42, -82.5557
1.19247, -1, 14.5767, 19.6319, 16.8891, 12.8684, 100.318, -82.8157
1.19969, -1, 14.3849, 19.5338, 16.9277, 12.8708, 100.215, -83.0755
1.20776, -1, 14.1927, 19.4357, 16.9664, 12.873, 100.113, -83.3349
1.2165, -1, 14.0004, 19.3377, 17.0052, 12.8752, 100.01, -83.5945
1.2237, -1, 13.8079, 19.2399, 17.0437, 12.8776, 99.9075, -83.8542
1.23175, -1, 13.6154, 19.142, 17.0824, 12.8799, 99.805, -84.1137
1.24048, -1, 13.4231, 19.0442, 17.1211, 12.8822, 99.7024, -84.3729
1.2476, -1, 13.2312, 18.9462, 17.1596, 12.8845, 99.6003, -84.6322
1.25568, -1, 13.0396, 18.8483, 17.1982, 12.8869, 99.4978, -84.8916
1.26453, -1, 12.8484, 18.7503, 17.2369, 12.8892, 99.3953, -85.151
1.2719, -1, 12.6574, 18.6524, 17.2754, 12.8916, 99.2932, -85.4099
1.27984, -1, 12.4668, 18.5546, 17.314, 12.894, 99.1908, -85.6688
1.28918, -1, 12.2766, 18.4569, 17.3525, 12.8964, 99.0885, -85.9276
1.29602, -1, 12.0864, 18.3591, 17.391, 12.8988, 98.9866, -86.1868
1.30257, -1, 11.9913, 18.3103, 17.4103, 12.9, 98.9355, -86.3162
1.31202, -1, 11.7056, 18.1639, 17.4683, 12.9037, 98.7825, -86.704
1.32043, -1, 11.5147, 18.0663, 17.5067, 12.9061, 98.6807, -86.9626
1.32902, -1, 11.3237, 17.9687, 17.5453, 12.9085, 98.5787, -87.2214
1.33614, -1, 11.1324, 17.8712, 17.5839, 12.9109, 98.4768, -87.4798
1.34418, -1, 10.9409, 17.7737, 17.6223, 12.9134, 98.3749, -87.7381
1.35297, -1, 10.8451, 17.725, 17.6416, 12.9147, 98.2729, -87.9962
1.36018, -1, 10.6533, 17.6275, 17.68, 12.9171, 98.2219, -88.1254
1.36763, -1, 10.4619, 17.53, 17.7184, 12.9198, 98.1202, -88.3839
1.37558, -1, 10.2707, 17.4324, 17.7569, 12.9222, 98.0182, -88.642
1.38263, -1, 10.0799, 17.3349, 17.7953, 12.9248, 97.9163, -88.9
1.39161, -1, 9.88953, 17.2373, 17.8335, 12.9275, 97.8147, -89.1582
1.39957, -1, 9.69938, 17.1398, 17.8719, 12.9301, 97.7126, -89.4163
1.40756, -1, 9.50973, 17.0423, 17.9103, 12.9329, 97.6107, -89.6743
1.41561, -1, 9.32051, 16.945, 17.9486, 12.9357, 97.5089, -89.9318
1.42356, -1, 9.13119, 16.8477, 17.987, 12.9383, 97.407, -90.1894
1.43161, -1, 8.94177, 16.7505, 18.0253, 12.9409, 97.3052, -90.447
1.43956, -1, 8.75223, 16.6533, 18.0636, 12.9436, 97.2035, -90.7046
1.44755, -1, 8.56265, 16.5561, 18.1021, 12.9462, 97.1018, -90.9618
1.45567, -1, 8.37283, 16.4591, 18.1404, 12.9489, 97.0004, -91.2189
1.46532, -1, 8.08732, 16.3136, 18.1978, 12.9529, 96.848, -91.6047
1.47155, -1, 7.99208, 16.2652, 18.217, 12.9542, 96.7972, -91.7333
1.47962, -1, 7.8015, 16.1682, 18.2552, 12.9569, 96.6958, -91.9902
1.48755, -1, 7.6109, 16.0713, 18.2935, 12.9595, 96.5943, -92.2469
1.49657, -1, 7.42049, 15.9743, 18.3318, 12.962, 96.4928, -92.5036
1.50256, -1, 7.23033, 15.8774, 18.3699, 12.9646, 96.3916, -92.7604
1.51156, -1, 7.04049, 15.7804, 18.4081, 12.9672, 96.2902, -93.0171
1.51956, -1, 6.85111, 15.6834, 18.4465, 12.9697, 96.1889, -93.2736
1.52762, -1, 6.66222, 15.5865, 18.4845, 12.9722, 96.0883, -93.53
1.53559, -1, 6.47371, 15.4897, 18.5226, 12.9748, 95.9872, -93.7864
1.54358, -1, 6.28554, 15.393, 18.5608, 12.9773, 95.8861, -94.0428
1.55157, -1, 6.09748, 15.2963, 18.5989, 12.9797, 95.7854, -94.2987
1.55955, -1, 5.90918, 15.1996, 18.637, 12.9821, 95.6843, -94.5547
1.56762, -1, 5.72077, 15.1029, 18.6752, 12.9845, 95.5833, -94.8107
1.57556, -1, 5.53228, 15.0062, 18.7133, 12.9868, 95.4828, -95.0666
1.58356, -1, 5.34343, 14.9097, 18.7514, 12.9891, 95.3819, -95.3223
1.59163, -1, 5.15426, 14.8132, 18.7896, 12.9913, 95.2812, -95.5776
1.59956, -1, 4.96489, 14.7169, 18.8275, 12.9936, 95.1806, -95.8331
1.60756, -1, 4.77554, 14.6205, 18.8656, 12.9959, 95.0798, -96.0886
1.61561, -1, 4.5861, 14.5241, 18.9037, 12.998, 94.979, -96.344
1.62359, -1, 4.39689, 14.4278, 18.9417, 13.0002, 94.8783, -96.5989
1.63162, -1, 4.20792, 14.3314, 18.9797, 13.0024, 94.7775, -96.8538
1.63962, -1, 4.01928, 14.2351, 19.0176, 13.0048, 94.6767, -97.1089
1.64755, -1, 3.83121, 14.1389, 19.0555, 13.0071, 94.5758, -97.364
1.65556, -1, 3.64368, 14.0427, 19.0935, 13.0092, 94.4751, -97.6185
1.66368, -1, 3.45651, 13.9466, 19.1314, 13.0116, 94.3745, -97.8733
1.67158, -1, 3.26959, 13.8506, 19.1692, 13.0139, 94.2739, -98.1279
1.67958, -1, 3.08261, 13.7546, 19.2071, 13.0162, 94.1731, -98.3827
1.68784, -1, 2.89563, 13.6586, 19.2451, 13.0184, 94.0725, -98.637
1.69565, -1, 2.70857, 13.5626, 19.2829, 13.0206, 93.9719, -98.8912
1.7037, -1, 2.52123, 13.4666, 19.3208, 13.023, 93.8715, -99.1453
1.71205, -1, 2.33379, 13.3707, 19.3586, 13.0253, 93.7712, -99.3995
1.71967, -1, 2.14594, 13.275, 19.3964, 13.0275, 93.6708, -99.6535
1.72769, -1, 1.95784, 13.1792, 19.4343, 13.0297, 93.5706, -99.907
1.7362, -1, 1.76966, 13.0833, 19.472, 13.0321, 93.4708, -100.161
1.74357, -1, 1.58135, 12.9874, 19.5097, 13.0342, 93.3706, -100.414
1.7516, -1, 1.39327, 12.8916, 19.5476, 13.0365, 93.2705, -100.668
1.76045, -1, 1.20544, 12.7957, 19.5853, 13.0388, 93.1707, -100.921
1.7677, -1, 1.01806, 12.7, 19.623, 13.0412, 93.0706, -101.174
1.77582, -1, 0.831319, 12.6045, 19.6608, 13.0436, 92.9706, -101.427
1.7846, -1, 0.645068, 12.5088, 19.6984, 13.0459, 92.871, -101.68
1.7919, -1, 0.459179, 12.4134, 19.736, 13.0484, 92.7711, -101.933
1.79999, -1, 0.273495, 12.3181, 19.7738, 13.0508, 92.6714, -102.186
1.80881, -1, 0.088083, 12.2226, 19.8114, 13.0533, 92.5721, -102.439
1.81607, -1, -0.0972951, 12.1273, 19.8489, 13.0557, 92.4724, -102.691
1.82421, -1, -0.282927, 12.0321, 19.8867, 13.0582, 92.3728, -102.944
1.83295, -1, -0.46884, 11.9369, 19.9242, 13.0606, 92.2736, -103.196
1.84016, -1, -0.65506, 11.8418, 19.9618, 13.0631, 92.174, -103.448
1.84821, -1, -0.841538, 11.7468, 19.9993, 13.0656, 92.0744, -103.7
1.85696, -1, -0.934837, 11.6993, 20.0181, 13.0668, 91.9753, -103.952
1.86356, -1, -1.12157, 11.6042, 20.0555, 13.0693, 91.9255, -104.078
1.87162, -1, -1.3086, 11.5092, 20.0931, 13.0719, 91.8262, -104.33
1.87956, -1, -1.49553, 11.4141, 20.1306, 13.0743, 91.7271, -104.581
1.88754, -1, -1.68211, 11.3189, 20.168, 13.0769, 91.6279, -104.833
1.89558, -1, -1.86833, 11.2239, 20.2055, 13.0795, 91.5287, -105.084
1.90356, -1, -2.05411, 11.129, 20.2429, 13.0822, 91.4296, -105.335
1.91159, -1, -2.23918, 11.034, 20.2803, 13.0848, 91.3304, -105.586
1.91954, -1, -2.42395, 10.9392, 20.3177, 13.0875, 91.2312, -105.837
1.92754, -1, -2.6083, 10.8445, 20.355, 13.0902, 91.1322, -106.088
1.9356, -1, -2.79223, 10.7497, 20.3923, 13.0928, 91.0331, -106.339
1.94355, -1, -2.9761, 10.655, 20.4297, 13.0954, 90.934, -106.59
1.95154, -1, -3.16016, 10.5603, 20.467, 13.098, 90.8353, -106.84
1.95966, -1, -3.34449, 10.4657, 20.5042, 13.1006, 90.7364, -107.091
1.9676, -1, -3.52907, 10.3713, 20.5415, 13.1032, 90.6374, -107.342
1.97554, -1, -3.71387, 10.2769, 20.5787, 13.1057, 90.5387, -107.592
1.98361, -1, -3.899, 10.1825, 20.6159, 13.1081, 90.4397, -107.842
1.99157, -1, -4.08432, 10.0882, 20.6532, 13.1106, 90.3411, -108.091
2.00055, -1, -4.2699, 9.99392, 20.6903, 13.113, 90.2426, -108.342
2.00755, -1, -4.45553, 9.89956, 20.7275, 13.1154, 90.1438, -108.591
2.01575, -1, -4.64089, 9.80522, 20.7648, 13.1177, 90.0453, -108.841
2.02461, -1, -4.82573, 9.71104, 20.8019, 13.1201, 89.9471, -109.09
2.03154, -1, -5.01029, 9.61693, 20.8389, 13.1225, 89.8484, -109.34
2.04038, -1, -5.19408, 9.52285, 20.8761, 13.1249, 89.75, -109.589
2.0486, -1, -5.37743, 9.42882, 20.9132, 13.1272, 89.6518, -109.838
2.05555, -1, -5.56038, 9.33487, 20.9502, 13.1295, 89.5533, -110.087
2.06438, -1, -5.74289, 9.24092, 20.9874, 13.1317, 89.4551, -110.336
2.07157, -1, -5.92516, 9.14702, 21.0244, 13.1342, 89.3572, -110.584
2.07954, -1, -6.10755, 9.05313, 21.0613, 13.1364, 89.2589, -110.833
2.08833, -1, -6.29026, 8.95933, 21.0985, 13.1386, 89.1609, -111.081
2.09555, -1, -6.47315, 8.86569, 21.1354, 13.1408, 89.0632, -111.33
2.10354, -1, -6.65634, 8.77204, 21.1722, 13.1429, 88.965, -111.578
2.11237, -1, -6.83993, 8.67847, 21.2092, 13.1451, 88.8671, -111.826
2.11954, -1, -7.02383, 8.58487, 21.2461, 13.1472, 88.7694, -112.074
2.12757, -1, -7.20807, 8.49132, 21.2829, 13.1493, 88.6714, -112.322
2.13642, -1, -7.3923, 8.39769, 21.3199, 13.1515, 88.5736, -112.569
2.14354, -1, -7.57607, 8.30408, 21.3567, 13.1536, 88.4762, -112.817
2.15154, -1, -7.7596, 8.21065, 21.3934, 13.1558, 88.3785, -113.064
2.16036, -1, -7.94269, 8.11722, 21.4303, 13.1581, 88.2811, -113.311
2.16756, -1, -8.12526, 8.02385, 21.4671, 13.1603, 88.1838, -113.559
2.17556, -1, -8.30713, 7.93056, 21.5038, 13.1625, 88.0863, -113.806
2.18438, -1, -8.48856, 7.83728, 21.5406, 13.1647, 87.9889, -114.053
2.19161, -1, -8.66954, 7.74408, 21.5774, 13.167, 87.8917, -114.299
2.19963, -1, -8.85019, 7.6509, 21.6141, 13.1693, 87.7942, -114.546
2.20845, -1, -9.03095, 7.55776, 21.6509, 13.1715, 87.6968, -114.792
2.21566, -1, -9.2119, 7.46476, 21.6876, 13.1738, 87.5997, -115.039
2.22366, -1, -9.39318, 7.37192, 21.7242, 13.176, 87.5025, -115.285
2.23249, -1, -9.57486, 7.27907, 21.7609, 13.1782, 87.4053, -115.531
2.23973, -1, -9.75685, 7.18626, 21.7976, 13.1804, 87.3083, -115.777
2.24757, -1, -9.93918, 7.09354, 21.8341, 13.1826, 87.2111, -116.023
2.25649, -1, -10.1217, 7.00078, 21.8707, 13.1848, 87.1138, -116.269
2.26358, -1, -10.3044, 6.908, 21.9073, 13.1871, 87.0168, -116.515
2.2717, -1, -10.4869, 6.81523, 21.9439, 13.1892, 86.9196, -116.76
2.28061, -1, -10.6692, 6.72248, 21.9805, 13.1915, 86.8225, -117.006
2.28789, -1, -10.851, 6.62988, 22.0169, 13.1939, 86.7257, -117.251
2.296, -1, -11.0323, 6.53727, 22.0533, 13.1963, 86.6287, -117.497
2.30479, -1, -11.2127, 6.44473, 22.0899, 13.1987, 86.5321, -117.741
2.31195, -1, -11.3927, 6.35224, 22.1264, 13.2012, 86.4355, -117.986
2.32014, -1, -11.5723, 6.25977, 22.1628, 13.2036, 86.3387, -118.231
2.32805, -1, -11.7516, 6.16731, 22.1993, 13.2061, 86.242, -118.476
2.33627, -1, -11.9308, 6.07499, 22.2358, 13.2085, 86.1455, -118.72
2.34417, -1, -12.11, 5.98273, 22.2721, 13.211, 86.0489, -118.964
2.3521, -1, -12.1997, 5.93667, 22.3086, 13.2134, 85.9525, -119.209
2.36007, -1, -12.3795, 5.84465, 22.3268, 13.2147, 85.9045, -119.453
2.36816, -1, -12.5595, 5.75262, 22.363, 13.2171, 85.808, -119.697
2.37553, -1, -12.74, 5.66063, 22.3993, 13.2196, 85.7118, -119.819
2.38355, -1, -12.9208, 5.56872, 22.4357, 13.2221, 85.6159, -120.062
2.39158, -1, -13.1019, 5.47678, 22.472, 13.2245, 85.5198, -120.306
2.39952, -1, -13.2831, 5.38476, 22.5081, 13.2269, 85.4239, -120.55
2.40754, -1, -13.4642, 5.29284, 22.5445, 13.2294, 85.3282, -120.793
2.41552, -1, -13.6448, 5.20094, 22.5806, 13.232, 85.2323, -121.036
2.42358, -1, -13.8251, 5.10912, 22.6167, 13.2346, 85.1365, -121.279
2.43153, -1, -14.0046, 5.01732, 22.6529, 13.2371, 85.0409, -121.522
2.4396, -1, -14.1833, 4.92561, 22.6891, 13.2397, 84.9453, -121.765
2.44759, -1, -14.3616, 4.83392, 22.7251, 13.2423, 84.8496, -122.008
2.45552, -1, -14.5396, 4.74227, 22.7614, 13.2448, 84.7542, -122.25
2.46355, -1, -14.7173, 4.65064, 22.7976, 13.2473, 84.6585, -122.493
2.47159, -1, -14.8949, 4.55915, 22.8336, 13.2498, 84.5628, -122.735
2.47952, -1, -15.0726, 4.4677, 22.8698, 13.2522, 84.4672, -122.978
2.48753, -1, -15.2506, 4.37639, 22.9059, 13.2547, 84.3715, -123.22
2.49653, -1, -15.429, 4.28505, 22.9419, 13.2571, 84.2758, -123.461
2.50358, -1, -15.608, 4.19378, 22.978, 13.2594, 84.1803, -123.703
2.51255, -1, -15.7872, 4.10254, 23.014, 13.2617, 84.0848, -123.945
2.51959, -1, -15.9664, 4.01131, 23.05, 13.264, 83.9893, -124.186
2.52753, -1, -16.1461, 3.92005, 23.086, 13.2661, 83.894, -124.428
2.53553, -1, -16.3258, 3.82879, 23.1221, 13.2683, 83.7985, -124.669
2.54358, -1, -16.5051, 3.73757, 23.1579, 13.2704, 83.703, -124.911
2.55155, -1, -16.684, 3.64646, 23.1937, 13.2727, 83.6076, -125.152
2.55959, -1, -16.8625, 3.55537, 23.2296, 13.2749, 83.5123, -125.393
2.56754, -1, -17.0401, 3.46435, 23.2655, 13.2771, 83.4169, -125.634
2.57552, -1, -17.2169, 3.37342, 23.3014, 13.2793, 83.3216, -125.874
2.58359, -1, -17.3935, 3.28252, 23.3373, 13.2816, 83.2266, -126.115
2.59152, -1, -17.5699, 3.19164, 23.373, 13.2837, 83.1315, -126.356
2.59952, -1, -17.7459, 3.101, 23.4089, 13.2858, 83.0366, -126.596
2.60763, -1, -17.9219, 3.01039, 23.4448, 13.2879, 82.942, -126.836
2.61551, -1, -18.0982, 2.9199, 23.4806, 13.2901, 82.8471, -127.076
2.62353, -1, -18.2747, 2.8295, 23.5163, 13.2923, 82.7523, -127.317
2.63162, -1, -18.4516, 2.73908, 23.5522, 13.2942, 82.6578, -127.556
2.63952, -1, -18.6291, 2.64869, 23.5878, 13.2963, 82.563, -127.796
2.64754, -1, -18.8068, 2.5584, 23.6235, 13.2984, 82.4685, -128.035
2.65559, -1, -18.9849, 2.46795, 23.6593, 13.3003, 82.3742, -128.275
2.66352, -1, -19.1631, 2.37746, 23.6948, 13.3023, 82.2796, -128.514
2.67154, -1, -19.3412, 2.28711, 23.7304, 13.3043, 82.1853, -128.753
2.67961, -1, -19.5189, 2.1967, 23.7661, 13.3065, 82.0915, -128.993
2.68757, -1, -19.696, 2.10633, 23.8015, 13.3086, 81.9972, -129.232
2.69561, -1, -19.8725, 2.01607, 23.8369, 13.3108, 81.903, -129.471
2.70369, -1, -20.0483, 1.92584, 23.8726, 13.313, 81.8091, -129.71
2.71162, -1, -20.2235, 1.83559, 23.9081, 13.3152, 81.7148, -129.948
2.71972, -1, -20.3983, 1.74548, 23.9435, 13.3174, 81.6208, -130.186
2.72764, -1, -20.573, 1.65543, 23.9791, 13.3197, 81.527, -130.425
2.73558, -1, -20.7474, 1.56545, 24.0146, 13.3218, 81.433, -130.663
2.74365, -1, -20.9221, 1.47558, 24.0499, 13.3239, 81.3393, -130.901
2.75155, -1, -21.097, 1.38587, 24.0854, 13.3261, 81.2457, -131.139
2.75956, -1, -21.2725, 1.29609, 24.1209, 13.3283, 81.1517, -131.377
2.76792, -1, -21.4482, 1.20641, 24.1562, 13.3305, 81.0579, -131.615
2.77567, -1, -21.6242, 1.11679, 24.1915, 13.3327, 80.9641, -131.852
2.78449, -1, -21.8003, 1.02712, 24.227, 13.3349, 80.8702, -132.089
2.79186, -1, -21.9767, 0.937511, 24.2623, 13.337, 80.7765, -132.327
2.79988, -1, -22.1533, 0.847926, 24.2977, 13.3391, 80.6829, -132.564
2.80874, -1, -22.3299, 0.758375, 24.3331, 13.3413, 80.5893, -132.801
2.81601, -1, -22.5059, 0.668876, 24.3682, 13.3437, 80.4956, -133.038
2.82409, -1, -22.6815, 0.579389, 24.4034, 13.346, 80.4021, -133.275
2.83292, -1, -22.8565, 0.489959, 24.4387, 13.3484, 80.3084, -133.512
2.84016, -1, -23.0304, 0.400537, 24.4738, 13.3508, 80.2149, -133.748
2.84813, -1, -23.204, 0.311161, 24.5089, 13.3533, 80.1213, -133.985
2.85695, -1, -23.2907, 0.266482, 24.5265, 13.3556, 80.0279, -134.222
2.86416, -1, -23.4638, 0.177191, 24.5617, 13.3568, 79.9811, -134.458
2.87206, -1, -23.6369, 0.0880012, 24.5968, 13.3593, 79.8879, -134.576
2.87951, -1, -23.8104, -0.00111968, 24.632, 13.3617, 79.7948, -134.812
2.88754, -1, -23.9838, -0.0900657, 24.6671, 13.3641, 79.7016, -135.048
2.89556, -1, -24.1575, -0.179062, 24.7022, 13.3665, 79.6085, -135.284
2.90352, -1, -24.3315, -0.268032, 24.7372, 13.369, 79.5155, -135.52
2.91158, -1, -24.5057, -0.356937, 24.7724, 13.3714, 79.4224, -135.755
2.91951, -1, -24.6804, -0.445814, 24.8074, 13.3738, 79.3293, -135.991
2.92751, -1, -24.8552, -0.534708, 24.8424, 13.3763, 79.2362, -136.227
2.93558, -1, -25.0303, -0.62355, 24.8776, 13.3786, 79.1433, -136.462
2.94353, -1, -25.2052, -0.712358, 24.9126, 13.381, 79.0504, -136.697
2.95155, -1, -25.3797, -0.801126, 24.9476, 13.3833, 78.9576, -136.932
2.95959, -1, -25.5539, -0.88999, 24.9826, 13.3858, 78.8651, -137.167
2.96754, -1, -25.7275, -0.978706, 25.0175, 13.3883, 78.7722, -137.402
2.97551, -1, -25.9003, -1.0674, 25.0523, 13.3907, 78.6796, -137.636
2.98358, -1, -26.0728, -1.15612, 25.0874, 13.3932, 78.5875, -137.871
2.99153, -1, -26.2449, -1.24476, 25.1223, 13.3955, 78.4947, -138.105
2.99952, -1, -26.4166, -1.33326, 25.1571, 13.3979, 78.4021, -138.34
3.00852, -1, -26.5885, -1.42166, 25.192, 13.4002, 78.3099, -138.574
3.01552, -1, -26.7605, -1.50998, 25.227, 13.4025, 78.2173, -138.808
3.02351, -1, -26.9328, -1.59818, 25.2618, 13.4048, 78.1249, -139.042
3.0316, -1, -27.1052, -1.68635, 25.2966, 13.407, 78.0328, -139.276
3.03952, -1, -27.2778, -1.77457, 25.3315, 13.4091, 77.9405, -139.51
3.04751, -1, -27.4506, -1.86268, 25.3663, 13.4113, 77.8484, -139.744
3.05555, -1, -27.6238, -1.95079, 25.401, 13.4135, 77.7566, -139.977
3.06351, -1, -27.797, -2.03903, 25.4359, 13.4155, 77.6645, -140.211
3.0716, -1, -27.9703, -2.12708, 25.4707, 13.4176, 77.5724, -140.444
3.07952, -1, -28.1437, -2.21515, 25.5054, 13.4196, 77.4804, -140.678
3.08751, -1, -28.3168, -2.30321, 25.5402, 13.4217, 77.3884, -140.911
3.09558, -1, -28.4895, -2.39123, 25.575, 13.4237, 77.2963, -141.144
3.10352, -1, -28.6619, -2.47921, 25.6096, 13.4259, 77.2042, -141.377
3.11152, -1, -28.8336, -2.56722, 25.6443, 13.428, 77.1123, -141.609
3.11957, -1, -29.0046, -2.65518, 25.679, 13.4303, 77.0204, -141.842
3.12751, -1, -29.1753, -2.74304, 25.7135, 13.4324, 76.9284, -142.075
3.13555, -1, -29.3458, -2.83085, 25.7482, 13.4345, 76.8368, -142.307
3.14356, -1, -29.5165, -2.91858, 25.7829, 13.4365, 76.7448, -142.54
3.15152, -1, -29.6874, -3.00614, 25.8174, 13.4385, 76.6529, -142.772
3.15951, -1, -29.8584, -3.09368, 25.852, 13.4406, 76.5613, -143.005
3.16757, -1, -30.0294, -3.18116, 25.8866, 13.4427, 76.4693, -143.237
3.17642, -1, -30.2003, -3.26866, 25.9211, 13.4447, 76.3777, -143.469
3.18355, -1, -30.3716, -3.3561, 25.9557, 13.4468, 76.2862, -143.701
3.19161, -1, -30.5431, -3.44354, 25.9902, 13.4488, 76.1946, -143.932
3.201, -1, -30.7149, -3.53106, 26.0247, 13.4509, 76.1032, -144.164
3.2076, -1, -30.8868, -3.61844, 26.0592, 13.4529, 76.0119, -144.395
3.21568, -1, -31.0586, -3.70584, 26.0938, 13.4548, 75.9204, -144.627
3.22398, -1, -31.2302, -3.79314, 26.1282, 13.457, 75.829, -144.858
3.23161, -1, -31.4015, -3.88044, 26.1626, 13.4591, 75.7377, -145.089
3.2397, -1, -31.5724, -3.96776, 26.1972, 13.4612, 75.6465, -145.321
3.24904, -1, -31.7428, -4.05501, 26.2316, 13.4634, 75.5552, -145.551
3.25561, -1, -31.9128, -4.14223, 26.2659, 13.4655, 75.4641, -145.782
3.26361, -1, -32.0825, -4.22946, 26.3004, 13.4678, 75.3731, -146.013
3.27312, -1, -32.2519, -4.31656, 26.3348, 13.47, 75.2819, -146.244
3.27967, -1, -32.4213, -4.40359, 26.369, 13.4721, 75.1909, -146.475
3.28776, -1, -32.591, -4.49059, 26.4034, 13.4743, 75.1003, -146.705
3.29736, -1, -32.7607, -4.57754, 26.4379, 13.4764, 75.0092, -146.935
3.30402, -1, -32.9303, -4.66447, 26.4721, 13.4786, 74.9185, -147.166
3.31196, -1, -33.1, -4.75142, 26.5063, 13.4807, 74.828, -147.396
3.32152, -1, -33.2699, -4.83827, 26.5407, 13.483, 74.7372, -147.626
3.32804, -1, -33.4399, -4.92515, 26.5749, 13.4851, 74.6466, -147.856
3.33606, -1, -33.6102, -5.0121, 26.6091, 13.4874, 74.5561, -148.086
3.34632, -1, -33.7805, -5.09885, 26.6434, 13.4896, 74.4655, -148.316
3.35229, -1, -33.9507, -5.18558, 26.6776, 13.4918, 74.375, -148.546
3.36007, -1, -34.0358, -5.22893, 26.6946, 13.4941, 74.2845, -148.775
3.36881, -1, -34.206, -5.31566, 26.7288, 13.4952, 74.2394, -148.89
3.37554, -1, -34.3761, -5.40227, 26.7631, 13.4974, 74.1486, -149.119
3.3835, -1, -34.5458, -5.48888, 26.7973, 13.4998, 74.058, -149.348
3.39153, -1, -34.7151, -5.57556, 26.8313, 13.5021, 73.9676, -149.578
3.40073, -1, -34.9681, -5.70547, 26.8826, 13.5059, 73.8318, -149.921
3.40749, -1, -35.0523, -5.7487, 26.8997, 13.5071, 73.7866, -150.036
3.4155, -1, -35.2205, -5.83519, 26.9337, 13.5095, 73.6963, -150.264
3.42349, -1, -35.3889, -5.92155, 26.9678, 13.5119, 73.6059, -150.493
3.43149, -1, -35.5574, -6.00774, 27.002, 13.5142, 73.5156, -150.722
3.43955, -1, -35.726, -6.09398, 27.0359, 13.5166, 73.4251, -150.951
3.44758, -1, -35.8945, -6.18016, 27.07, 13.519, 73.335, -151.18
3.4555, -1, -36.063, -6.26627, 27.1041, 13.5214, 73.2445, -151.408
3.46356, -1, -36.2316, -6.35239, 27.1381, 13.5238, 73.1541, -151.637
3.47152, -1, -36.4002, -6.43856, 27.172, 13.5263, 73.064, -151.865
3.47949, -1, -36.5691, -6.52473, 27.206, 13.5286, 72.9734, -152.093
3.48757, -1, -36.7379, -6.6109, 27.24, 13.5309, 72.8832, -152.322
3.49549, -1, -36.9069, -6.69703, 27.2738, 13.5332, 72.7932, -152.55
3.5045, -1, -37.0759, -6.78313, 27.3078, 13.5355, 72.703, -152.778
3.51157, -1, -37.2446, -6.86922, 27.3417, 13.5377, 72.6131, -153.006
3.52056, -1, -37.4132, -6.95526, 27.3755, 13.54, 72.5232, -153.233
3.52751, -1, -37.5813, -7.04137, 27.4095, 13.5422, 72.4333, -153.461
3.53556, -1, -37.7491, -7.1274, 27.4434, 13.5445, 72.3434, -153.688
3.5435, -1, -37.9167, -7.21336, 27.4772, 13.5467, 72.2536, -153.916
3.55149, -1, -38.0841, -7.29926, 27.5111, 13.5489, 72.164, -154.143
3.55958, -1, -38.2516, -7.38515, 27.545, 13.5511, 72.0742, -154.371
3.5675, -1, -38.4189, -7.47089, 27.5788, 13.5533, 71.9845, -154.598
3.5755, -1, -38.5862, -7.55657, 27.6126, 13.5553, 71.895, -154.825
3.58356, -1, -38.7535, -7.64226, 27.6465, 13.5574, 71.8053, -155.052
3.5915, -1, -38.9208, -7.72795, 27.6803, 13.5594, 71.7158, -155.279
3.5995, -1, -39.0881, -7.81351, 27.7139, 13.5616, 71.6268, -155.506
3.60757, -1, -39.2556, -7.89914, 27.7478, 13.5636, 71.5372, -155.733
3.61551, -1, -39.4231, -7.98483, 27.7816, 13.5655, 71.4479, -155.96
3.6235, -1, -39.5907, -8.07036, 27.8152, 13.5675, 71.3586, -156.186
3.63156, -1, -39.7583, -8.15587, 27.8489, 13.5695, 71.2693, -156.413
3.63952, -1, -39.9259, -8.24136, 27.8827, 13.5715, 71.18, -156.639
3.64751, -1, -40.0936, -8.32684, 27.9163, 13.5734, 71.0905, -156.865
3.65556, -1, -40.2611, -8.4122, 27.95, 13.5754, 71.0014, -157.092
3.66348, -1, -40.4283, -8.49762, 27.9837, 13.5773, 70.9119, -157.318
3.67154, -1, -40.5953, -8.58302, 28.0173, 13.5793, 70.8228, -157.544
3.67953, -1, -40.7621, -8.66845, 28.0508, 13.5813, 70.7338, -157.77
3.68755, -1, -40.9287, -8.7538, 28.0846, 13.5833, 70.6446, -157.996
3.69576, -1, -41.0951, -8.83917, 28.1182, 13.5853, 70.5554, -158.222
3.70358, -1, -41.2614, -8.92441, 28.1517, 13.5873, 70.4664, -158.448
3.71159, -1, -41.4276, -9.00958, 28.1853, 13.5893, 70.3771, -158.673
3.71994, -1, -41.5939, -9.09474, 28.219, 13.5913, 70.2879, -158.899
3.72762, -1, -41.7602, -9.17981, 28.2525, 13.5933, 70.1989, -159.124
3.7356, -1, -41.9265, -9.26486, 28.2861, 13.5954, 70.1098, -159.35
3.74431, -1, -42.0929, -9.34993, 28.3198, 13.5974, 70.0208, -159.575
3.75149, -1, -42.2592, -9.43504, 28.3533, 13.5994, 69.9318, -159.8
3.75952, -1, -42.4254, -9.52006, 28.3868, 13.6014, 69.8431, -160.026
3.76836, -1, -42.5918, -9.60504, 28.4204, 13.6034, 69.754, -160.251
3.77562, -1, -42.7582, -9.69001, 28.4539, 13.6055, 69.6651, -160.476
3.78369, -1, -42.9247, -9.775, 28.4873, 13.6075, 69.5765, -160.701
3.79177, -1, -43.091, -9.85994, 28.5208, 13.6095, 69.4875, -160.926
3.80058, -1, -43.2572, -9.94484, 28.5543, 13.6116, 69.3989, -161.151
3.80792, -1, -43.4233, -10.0298, 28.5878, 13.6137, 69.3103, -161.376
3.81595, -1, -43.5893, -10.1147, 28.6213, 13.6158, 69.2217, -161.6
3.82477, -1, -43.7551, -10.1997, 28.6548, 13.6179, 69.1331, -161.825
3.83204, -1, -43.921, -10.2844, 28.6882, 13.62, 69.0447, -162.05
3.84006, -1, -44.0867, -10.3692, 28.7216, 13.6222, 68.9562, -162.274
3.84874, -1, -44.2519, -10.4539, 28.7551, 13.6244, 68.8675, -162.498
3.85611, -1, -44.4171, -10.5385, 28.7886, 13.6266, 68.7789, -162.723
3.86411, -1, -44.4996, -10.623, 28.8219, 13.6287, 68.6904, -162.947
3.87148, -1, -44.6648, -10.6653, 28.8386, 13.6298, 68.646, -163.059
3.87948, -1, -44.8301, -10.7497, 28.8722, 13.632, 68.5574, -163.283
3.88755, -1, -44.9955, -10.8342, 28.9056, 13.6342, 68.469, -163.507
3.8955, -1, -45.1608, -10.9187, 28.9389, 13.6364, 68.3806, -163.731
3.90348, -1, -45.3261, -11.0032, 28.9724, 13.6386, 68.2921, -163.955
3.91153, -1, -45.4913, -11.0876, 29.0057, 13.6409, 68.2038, -164.179
3.91948, -1, -45.6566, -11.1721, 29.0389, 13.6432, 68.1159, -164.403
3.92749, -1, -45.8219, -11.2565, 29.0722, 13.6455, 68.0273, -164.626
3.93554, -1, -45.9861, -11.3404, 29.1057, 13.6477, 67.9389, -164.85
3.94348, -1, -46.1475, -11.4227, 29.1392, 13.65, 67.8509, -165.073
3.9515, -1, -46.3045, -11.5021, 29.1728, 13.6524, 67.7635, -165.294
3.95953, -1, -46.4548, -11.5771, 29.2063, 13.6548, 67.6782, -165.51
3.96749, -1, -46.596, -11.647, 29.2386, 13.6572, 67.5967, -165.716
3.97556, -1, -46.7256, -11.7104, 29.2684, 13.6594, 67.522, -165.905
3.98355, -1, -46.8406, -11.7665, 29.2948, 13.6613, 67.455, -166.074
3.99151, -1, -46.9395, -11.8157, 29.317, 13.663, 67.3992, -166.216
3.99947, -1, -47.022, -11.8586, 29.3336, 13.6643, 67.3544, -166.329
4.00755, -1, -47.0893, -11.8954, 29.3448, 13.665, 67.3207, -166.414
4.01657, -1, -47.1417, -11.9249, 29.352, 13.6655, 67.2975, -166.473
4.02349, -1, -47.1806, -11.9471, 29.3559, 13.6657, 67.2824, -166.511
4.03247, -1, -47.2082, -11.9626, 29.3578, 13.6658, 67.2736, -166.533
4.0395, -1, -47.2263, -11.9727, 29.3586, 13.6659, 67.2689, -166.545
4.04749, -1, -47.2371, -11.9786, 29.359, 13.6659, 67.2666, -166.551
4.05558, 2, -47.2427, -11.9815, 29.3592, 13.666, 67.2654, -166.553
4.0635, 2, -47.2448, -11.9829, 29.3593, 13.666, 67.2649, -166.554
4.07151, 2, -47.2449, -11.9834, 29.3594, 13.666, 67.2646, -166.555
4.07954, 2, -47.2448, -11.9836, 29.3595, 13.6661, 67.2645, -166.555
4.08749, 2, -47.2447, -11.9836, 29.3595, 13.6661, 67.2645, -166.555
4.09548, 2, -47.2451, -11.9837, 29.3595, 13.6661, 67.2644, -166.556
4.10354, 2, -47.246, -11.984, 29.3596, 13.6661, 67.2644, -166.556
4.11148, 2, -47.2473, -11.9845, 29.3595, 13.666, 67.2644, -166.556
4.1195, 2, -47.2491, -11.9853, 29.3595, 13.6661, 67.2644, -166.555
4.12755, 2, -47.2507, -11.9862, 29.3595, 13.6661, 67.2644, -166.555
4.13548, 2, -47.2521, -11.987, 29.3595, 13.666, 67.2644, -166.555
4.14358, 2, -47.2531, -11.9877, 29.3595, 13.6661, 67.2644, -166.555
4.15154, 2, -47.2535, -11.9881, 29.3596, 13.666, 67.2644, -166.555
4.15947, 2, -47.2537, -11.9882, 29.3596, 13.6661, 67.2644, -166.555
4.16749, 2, -47.2537, -11.9883, 29.3596, 13.666, 67.2645, -166.555
4.17555, 2, -47.2534, -11.9883, 29.3596, 13.666, 67.2644, -166.556
4.18349, 2, -47.2529, -11.9883, 29.3596, 13.6661, 67.2644, -166.556
4.19153, 2, -47.2524, -11.9883, 29.3596, 13.666, 67.2644, -166.555
4.1996, 2, -47.2521, -11.9882, 29.3596, 13.6661, 67.2644, -166.555
4.20757, 2, -47.252, -11.9883, 29.3596, 13.666, 67.2645, -166.555
4.21558, 2, -47.252, -11.9883, 29.3596, 13.666, 67.2645, -166.555
4.22364, 2, -47.2521, -11.9885, 29.3596, 13.6661, 67.2645, -166.556
4.2316, 2, -47.2523, -11.9888, 29.3596, 13.666, 67.2644, -166.555
4.23969, 2, -47.2529, -11.9892, 29.3596, 13.6661, 67.2645, -166.555
4.24766, 2, -47.2534, -11.9895, 29.3596, 13.6661, 67.2645, -166.555
4.25549, 2, -47.2537, -11.9897, 29.3596, 13.6661, 67.2645, -166.555
4.26351, 2, -47.2539, -11.9898, 29.3596, 13.666, 67.2645, -166.555
4.27182, 2, -47.2539, -11.9898, 29.3596, 13.666, 67.2645, -166.555
4.27954, 2, -47.2538, -11.9898, 29.3596, 13.666, 67.2645, -166.555
4.2877, 2, -47.2536, -11.9897, 29.3596, 13.666, 67.2645, -166.555
4.29576, 2, -47.2531, -11.9897, 29.3596, 13.666, 67.2645, -166.555
4.3038, 2, -47.2528, -11.9896, 29.3596, 13.666, 67.2644, -166.555
4.31195, 2, -47.2525, -11.9896, 29.3596, 13.666, 67.2644, -166.555
4.32008, 2, -47.2523, -11.9896, 29.3596, 13.666, 67.2645, -166.555
4.32793, 2, -47.2522, -11.9896, 29.3596, 13.666, 67.2645, -166.555
4.33659, 2, -47.2522, -11.9897, 29.3596, 13.666, 67.2645, -166.555
4.34404, 2, -47.2522, -11.9898, 29.3596, 13.666, 67.2645, -166.555
4.35206, 2, -47.2522, -11.9898, 29.3596, 13.666, 67.2645, -166.555
4.36012, 2, -47.2522, -11.9899, 29.3596, 13.666, 67.2645, -166.555
4.36829, 2, -47.2522, -11.9899, 29.3596, 13.666, 67.2645, -166.555
4.37547, 2, -47.2522, -11.9899, 29.3596, 13.666, 67.2645, -166.555
4.38347, 2, -47.2522, -11.9898, 29.3596, 13.666, 67.2645, -166.555
4.39151, 2, -47.2521, -11.9898, 29.3596, 13.666, 67.2645, -166.555
4.39948, 2, -47.252, -11.9897, 29.3596, 13.666, 67.2645, -166.555
4.40748, 2, -47.2519, -11.9896, 29.3596, 13.666, 67.2645, -166.555
4.41552, 2, -47.2518, -11.9896, 29.3596, 13.666, 67.2645, -166.555
4.42346, 2, -47.2517, -11.9895, 29.3596, 13.666, 67.2645, -166.555
4.43147, 2, -47.2516, -11.9896, 29.3596, 13.666, 67.2646, -166.555
4.43952, 2, -47.2516, -11.9896, 29.3596, 13.666, 67.2646, -166.555
4.44748, 2, -47.2515, -11.9896, 29.3596, 13.666, 67.2646, -166.555
4.45549, 2, -47.2514, -11.9896, 29.3596, 13.666, 67.2645, -166.555
4.46352, 2, -47.2514, -11.9896, 29.3596, 13.666, 67.2646, -166.555
4.47145, 2, -47.2513, -11.9896, 29.3596, 13.666, 67.2646, -166.555
4.47949, 2, -47.2513, -11.9896, 29.3596, 13.6659, 67.2646, -166.555
4.48753, 2, -47.2512, -11.9896, 29.3596, 13.666, 67.2646, -166.555
4.49705, 2, -47.2511, -11.9896, 29.3596, 13.6659, 67.2646, -166.555
4.50346, 2, -47.251, -11.9895, 29.3596, 13.6659, 67.2646, -166.555
4.51248, 2, -47.2509, -11.9894, 29.3596, 13.6659, 67.2646, -166.555
4.51947, 2, -47.2508, -11.9894, 29.3596, 13.666, 67.2646, -166.555
4.52748, 2, -47.2508, -11.9893, 29.3596, 13.6659, 67.2646, -166.555
4.53554, 2, -47.2507, -11.9893, 29.3596, 13.666, 67.2646, -166.555
4.54346, 2, -47.2506, -11.9893, 29.3596, 13.666, 67.2646, -166.555
4.55147, 2, -47.2505, -11.9893, 29.3596, 13.6659, 67.2646, -166.555
4.55953, 2, -47.2504, -11.9893, 29.3596, 13.6659, 67.2646, -166.555
4.5675, 2, -47.2503, -11.9893, 29.3596, 13.6659, 67.2646, -166.555
4.57547, 2, -47.2502, -11.9893, 29.3596, 13.6659, 67.2646, -166.555
4.58352, 2, -47.25, -11.9893, 29.3596, 13.666, 67.2646, -166.555
4.59146, 2, -47.2499, -11.9893, 29.3596, 13.666, 67.2646, -166.555
4.59946, 2, -47.2499, -11.9893, 29.3596, 13.666, 67.2646, -166.555
4.60754, 2, -47.2498, -11.9892, 29.3596, 13.666, 67.2647, -166.555
4.61547, 2, -47.2497, -11.9891, 29.3596, 13.6659, 67.2646, -166.555
4.62348, 2, -47.2496, -11.989, 29.3596, 13.6659, 67.2646, -166.555
4.63153, 2, -47.2495, -11.989, 29.3596, 13.6659, 67.2647, -166.555
4.63946, 2, -47.2494, -11.989, 29.3596, 13.6659, 67.2647, -166.555
4.64751, 2, -47.2493, -11.989, 29.3596, 13.6659, 67.2647, -166.555
4.65553, 2, -47.2493, -11.989, 29.3596, 13.6659, 67.2647, -166.555
4.66346, 2, -47.2492, -11.989, 29.3596, 13.6659, 67.2647, -166.555
4.67146, 2, -47.2491, -11.989, 29.3596, 13.6659, 67.2647, -166.555
4.67953, 2, -47.2491, -11.989, 29.3596, 13.6659, 67.2647, -166.555
4.68749, 2, -47.249, -11.989, 29.3596, 13.6659, 67.2647, -166.555
4.69553, 2, -47.249, -11.9889, 29.3596, 13.6659, 67.2647, -166.555
4.7036, 2, -47.249, -11.9889, 29.3596, 13.6659, 67.2647, -166.555
4.71155, 2, -47.2489, -11.9888, 29.3596, 13.6659, 67.2647, -166.555
4.71957, 2, -47.2488, -11.9887, 29.3596, 13.6659, 67.2647, -166.555
4.72763, 2, -47.2487, -11.9886, 29.3596, 13.6659, 67.2647, -166.555
4.73559, 2, -47.2486, -11.9886, 29.3596, 13.6658, 67.2647, -166.555
4.74357, 2, -47.2486, -11.9886, 29.3596, 13.6658, 67.2647, -166.555
4.75163, 2, -47.2485, -11.9886, 29.3595, 13.6658, 67.2647, -166.555
4.75949, 2, -47.2485, -11.9886, 29.3596, 13.6658, 67.2647, -166.555
4.76751, 2, -47.2485, -11.9886, 29.3596, 13.6658, 67.2647, -166.555
4.77561, 2, -47.2485, -11.9886, 29.3595, 13.6658, 67.2647, -166.555
4.78354, 2, -47.2485, -11.9886, 29.3596, 13.6658, 67.2647, -166.555
4.79197, 2, -47.2484, -11.9885, 29.3596, 13.6658, 67.2647, -166.555
4.79978, 2, -47.2484, -11.9885, 29.3596, 13.6657, 67.2648, -166.554
4.80776, 2, -47.2483, -11.9885, 29.3596, 13.6657, 67.2648, -166.554
4.81621, 2, -47.2483, -11.9884, 29.3596, 13.6657, 67.2648, -166.554
4.824, 2, -47.2482, -11.9883, 29.3596, 13.6657, 67.2648, -166.554
4.83262, 2, -47.2481, -11.9882, 29.3595, 13.6657, 67.2648, -166.554
4.84035, 2, -47.248, -11.9882, 29.3596, 13.6657, 67.2648, -166.554
4.84807, 2, -47.248, -11.9882, 29.3596, 13.6656, 67.2648, -166.554
4.85604, 2, -47.2479, -11.9882, 29.3596, 13.6656, 67.2648, -166.554
4.8643, 2, -47.2478, -11.9882, 29.3596, 13.6656, 67.2648, -166.554
4.87217, 2, -47.2478, -11.9882, 29.3596, 13.6656, 67.2648, -166.554
4.87946, 2, -47.2478, -11.9881, 29.3596, 13.6656, 67.2648, -166.554
4.88829, 2, -47.2478, -11.9882, 29.3596, 13.6656, 67.2648, -166.554
4.8955, 2, -47.2478, -11.9882, 29.3596, 13.6656, 67.2648, -166.554
4.90347, 2, -47.2478, -11.9881, 29.3595, 13.6656, 67.2648, -166.554
4.91167, 2, -47.2477, -11.9881, 29.3595, 13.6656, 67.2648, -166.554
4.9195, 2, -47.2477, -11.988, 29.3595, 13.6656, 67.2649, -166.554
4.92745, 2, -47.2476, -11.9879, 29.3596, 13.6656, 67.2649, -166.554
4.93545, 2, -47.2475, -11.9879, 29.3596, 13.6656, 67.2649, -166.554
4.9435, 2, -47.2474, -11.9878, 29.3596, 13.6656, 67.2649, -166.554
4.95145, 2, -47.2473, -11.9878, 29.3596, 13.6656, 67.2649, -166.554
4.95948, 2, -47.2473, -11.9878, 29.3596, 13.6656, 67.265, -166.554
4.96751, 2, -47.2472, -11.9878, 29.3595, 13.6655, 67.265, -166.554
4.97545, 2, -47.2472, -11.9878, 29.3595, 13.6655, 67.265, -166.554
4.98347, 2, -47.2472, -11.9878, 29.3595, 13.6655, 67.265, -166.554
4.99154, 2, -47.2472, -11.9877, 29.3596, 13.6655, 67.265, -166.554
4.99944, 2, -47.2472, -11.9877, 29.3595, 13.6655, 67.265, -166.554
5.00936, 2, -47.2471, -11.9877, 29.3595, 13.6654, 67.265, -166.554
5.01552, 2, -47.2471, -11.9876, 29.3595, 13.6654, 67.265, -166.554
5.02451, 2, -47.2471, -11.9876, 29.3595, 13.6654, 67.265, -166.554
5.03146, 2, -47.247, -11.9875, 29.3595, 13.6654, 67.2651, -166.554
5.04044, 2, -47.2469, -11.9875, 29.3595, 13.6654, 67.265, -166.554
5.04746, 2, -47.2468, -11.9874, 29.3595, 13.6654, 67.265, -166.554
5.05559, 2, -47.2467, -11.9874, 29.3596, 13.6654, 67.2651, -166.554
5.06448, 2, -47.2466, -11.9874, 29.3596, 13.6654, 67.2651, -166.554
5.0715, 2, -47.2466, -11.9874, 29.3596, 13.6654, 67.2651, -166.554
5.07945, 2, -47.2465, -11.9874, 29.3596, 13.6654, 67.2651, -166.554
5.08754, 2, -47.2465, -11.9874, 29.3595, 13.6654, 67.2651, -166.554
5.09555, 2, -47.2465, -11.9874, 29.3595, 13.6653, 67.2651, -166.554
5.10345, 2, -47.2465, -11.9874, 29.3595, 13.6653, 67.2652, -166.554
5.11151, 2, -47.2465, -11.9874, 29.3595, 13.6653, 67.2652, -166.554
5.11941, 2, -47.2465, -11.9873, 29.3595, 13.6653, 67.2653, -166.554
5.12747, 2, -47.2464, -11.9873, 29.3595, 13.6653, 67.2653, -166.554
5.13552, 2, -47.2463, -11.9872, 29.3595, 13.6653, 67.2653, -166.554
5.14349, 4, -47.2462, -11.9871, 29.3595, 13.6652, 67.2653, -166.554
5.15148, 4, -47.2462, -11.9871, 29.3595, 13.6652, 67.2652, -166.554
5.15951, 4, -47.2461, -11.9871, 29.3595, 13.6652, 67.2653, -166.554
5.16746, 4, -47.246, -11.9871, 29.3596, 13.6652, 67.2653, -166.554
5.17545, 4, -47.246, -11.9871, 29.3595, 13.6652, 67.2653, -166.554
5.18351, 4, -47.246, -11.9871, 29.3595, 13.6652, 67.2653, -166.554
5.19146, 4, -47.2459, -11.987, 29.3595, 13.6652, 67.2653, -166.554
5.1995, 4, -47.2459, -11.987, 29.3595, 13.6651, 67.2653, -166.554
5.2076, 4, -47.2459, -11.987, 29.3595, 13.6651, 67.2653, -166.554
5.21554, 4, -47.2459, -11.987, 29.3595, 13.6651, 67.2653, -166.554
5.22354, 4, -47.2458, -11.9869, 29.3595, 13.6651, 67.2653, -166.554
5.23161, 4, -47.2458, -11.9869, 29.3595, 13.6651, 67.2653, -166.554
5.23957, 4, -47.2457, -11.9869, 29.3595, 13.6651, 67.2653, -166.553
5.24778, 4, -47.2457, -11.9868, 29.3595, 13.6651, 67.2653, -166.553
5.2599, 4, -47.2456, -11.9868, 29.3595, 13.665, 67.2654, -166.553
5.26374, 4, -47.2455, -11.9868, 29.3595, 13.665, 67.2654, -166.553
5.27581, 4, -47.2455, -11.9867, 29.3595, 13.665, 67.2653, -166.553
5.28068, 4, -47.2455, -11.9868, 29.3595, 13.665, 67.2653, -166.553
5.28804, 4, -47.2455, -11.9867, 29.3595, 13.665, 67.2653, -166.553
5.29599, 4, -47.2454, -11.9867, 29.3595, 13.665, 67.2653, -166.553
5.30811, 4, -47.2454, -11.9867, 29.3595, 13.6649, 67.2654, -166.553
5.31202, 4, -47.2454, -11.9867, 29.3595, 13.6649, 67.2654, -166.553
5.32021, 4, -47.2453, -11.9867, 29.3595, 13.6649, 67.2654, -166.553
5.32843, 4, -47.2453, -11.9866, 29.3595, 13.6649, 67.2654, -166.553
5.33654, 4, -47.2453, -11.9866, 29.3595, 13.6649, 67.2653, -166.553
5.35018, 4, -47.2452, -11.9866, 29.3595, 13.665, 67.2654, -166.553
5.35286, 4, -47.2452, -11.9866, 29.3595, 13.6649, 67.2654, -166.553
5.36031, 4, -47.2451, -11.9865, 29.3595, 13.6649, 67.2654, -166.553
5.36835, 4, -47.245, -11.9865, 29.3595, 13.6649, 67.2654, -166.553
5.37942, 4, -47.245, -11.9865, 29.3595, 13.6648, 67.2654, -166.553
5.38436, 4, -47.2449, -11.9865, 29.3595, 13.6648, 67.2653, -166.553
5.39373, 4, -47.2449, -11.9865, 29.3595, 13.6648, 67.2653, -166.553
5.4015, 4, -47.2449, -11.9865, 29.3595, 13.6648, 67.2653, -166.553
5.40863, 4, -47.2451, -11.9865, 29.3596, 13.6648, 67.2654, -166.553
5.41559, 4, -47.2454, -11.9867, 29.3596, 13.6649, 67.2654, -166.553
5.4246, 4, -47.2469, -11.9876, 29.3605, 13.6666, 67.266, -166.553
5.43708, 4, -47.2555, -11.997, 29.3724, 13.6865, 67.2708, -166.55
5.44182, 4, -47.2595, -12.0021, 29.3799, 13.7013, 67.2746, -166.547
5.45283, 4, -47.271, -12.0173, 29.4044, 13.7884, 67.2988, -166.528
5.45555, 5, -47.279, -12.0281, 29.4231, 13.7884, 67.2988, -166.528
5.46361, 5, -47.3011, -12.0579, 29.4769, 13.9003, 67.3304, -166.503
5.47163, 5, -47.3329, -12.0996, 29.5583, 14.072, 67.3783, -166.464
5.4827, 5, -47.4025, -12.1882, 29.7435, 14.4697, 67.488, -166.372
5.4893, 5, -47.4649, -12.266, 29.913, 14.8387, 67.5877, -166.287
5.49696, 5, -47.5008, -12.3106, 30.0123, 15.0546, 67.6459, -166.184
5.50359, 5, -47.5817, -12.411, 30.2396, 15.5458, 67.7773, -166.126
5.51194, 5, -47.6743, -12.5254, 30.5014, 16.1063, 67.9251, -165.998
5.51959, 5, -47.7766, -12.6521, 30.7935, 16.7215, 68.0857, -165.86
5.52762, 5, -47.8871, -12.7893, 31.1098, 17.3771, 68.2535, -165.715
5.53893, 5, -48.063, -13.0096, 31.6162, 18.4027, 68.5107, -165.492
5.54359, 5, -48.1233, -13.0855, 31.7901, 18.7499, 68.5961, -165.417
5.55282, 5, -48.244, -13.2389, 32.1426, 19.4453, 68.7649, -165.269
5.56183, 5, -48.4198, -13.4661, 32.6741, 20.4695, 69.0109, -165.046
5.5678, 5, -48.475, -13.5399, 32.8501, 20.8013, 69.0911, -164.968
5.5786, 6, -48.6231, -13.749, 33.3627, 21.7458, 69.3291, -164.704
5.58685, 6, -48.7018, -13.8754, 33.6855, 22.3222, 69.4883, -164.486
5.59161, 7, -48.7338, -13.9348, 33.8397, 22.5923, 69.5691, -164.36
5.59974, 7, -48.7817, -14.0472, 34.1334, 23.0944, 69.7348, -164.062
5.60757, 7, -48.8082, -14.1511, 34.4062, 23.5498, 69.9081, -163.698
5.61566, 8, -48.8148, -14.2455, 34.6599, 23.9671, 70.0926, -163.263
5.62694, 9, -48.7919, -14.3693, 35.0135, 24.5432, 70.3921, -162.488
5.63161, 9, -48.7771, -14.4067, 35.1257, 24.7271, 70.4983, -162.201
5.64234, 9, -48.7387, -14.4775, 35.345, 25.0894, 70.7188, -161.598
5.64864, 10, -48.6893, -14.5445, 35.5611, 25.449, 70.9488, -160.968
5.6563, 10, -48.6301, -14.6085, 35.7757, 25.809, 71.1853, -160.321
5.66467, 11, -48.5639, -14.6699, 35.9896, 26.1705, 71.4249, -159.67
5.67176, 11, -48.4929, -14.7299, 36.2036, 26.5349, 71.6651, -159.021
5.6828, 12, -48.4177, -14.7904, 36.4163, 26.9036, 71.9052, -158.374
5.68784, 12, -48.3397, -14.8519, 36.6268, 27.2779, 72.1456, -157.728
5.69944, 13, -48.2605, -14.9131, 36.9402, 27.852, 72.5079, -156.756
5.70452, 13, -48.1802, -14.9726, 37.0438, 28.0466, 72.6294, -156.431
5.71295, 14, -48.0978, -15.0321, 37.2497, 28.4404, 72.8734, -155.778
5.7237, 14, -47.9667, -15.1232, 37.5574, 29.0394, 73.2422, -154.798
5.72968, 15, -47.9212, -15.1536, 37.6593, 29.2404, 73.3652, -154.473
5.73621, 15, -47.8275, -15.2134, 37.8609, 29.643, 73.6105, -153.823
5.74406, 16, -47.7288, -15.2724, 38.0602, 30.0455, 73.8542, -153.175
5.7556, 16, -47.5687, -15.3627, 38.3549, 30.6463, 74.2148, -152.211
5.7598, 17, -47.5123, -15.3936, 38.4513, 30.8454, 74.3331, -151.892
5.7694, 17, -47.396, -15.4564, 38.6415, 31.2412, 74.5661, -151.258
5.77576, 18, -47.2747, -15.5196, 38.8293, 31.6333, 74.7936, -150.629
5.78508, 18, -47.148, -15.5834, 39.0143, 32.0214, 75.0155, -150.009
5.79192, 19, -47.0159, -15.6489, 39.1962, 32.4066, 75.2312, -149.395
5.80076, 19, -46.8787, -15.7169, 39.3764, 32.7898, 75.4417, -148.789
5.81154, 20, -46.7363, -15.7869, 39.5556, 33.1713, 75.6473, -147.892
5.81686, 20, -46.5887, -15.8591, 39.7324, 33.5517, 75.8487, -147.597
5.82551, 21, -46.4362, -15.9344, 39.9069, 33.9312, 76.0458, -147.012
5.83308, 21, -46.2792, -16.0127, 40.0799, 34.3094, 76.2384, -146.432
5.84141, 22, -46.1176, -16.0934, 40.2513, 34.6856, 76.4259, -145.861
5.85215, 22, -45.8656, -16.217, 40.5032, 35.2433, 76.6967, -145.017
5.85661, 23, -45.7788, -16.2591, 40.5859, 35.4271, 76.7841, -144.739
5.86522, 23, -45.6003, -16.3447, 40.7496, 35.7912, 76.9543, -144.187
5.87278, 24, -45.4152, -16.4321, 40.9102, 36.1502, 77.119, -143.64
5.881, 24, -45.2236, -16.5211, 41.0664, 36.5036, 77.2781, -143.099
5.8906, 25, -45.0254, -16.6114, 41.2183, 36.8507, 77.4324, -142.562
5.89852, 25, -44.8207, -16.7027, 41.366, 37.1913, 77.5821, -142.028
5.90432, 26, -44.716, -16.7485, 41.438, 37.359, 77.6551, -141.496
5.91348, 26, -44.3909, -16.8868, 41.6462, 37.8513, 77.8679, -140.968
5.92495, 27, -44.165, -16.9787, 41.7778, 38.1699, 78.0046, -140.179
5.93064, 27, -43.9325, -17.0699, 41.9034, 38.4804, 78.1372, -139.916
5.93976, 28, -43.6934, -17.1604, 42.0228, 38.7828, 78.2665, -139.391
5.94357, 28, -43.5712, -17.2052, 42.0799, 38.9308, 78.3296, -139.13
5.95171, 29, -43.3219, -17.2938, 42.1892, 39.2203, 78.4535, -138.607
5.95961, 29, -43.0661, -17.3808, 42.2915, 39.5016, 78.5743, -138.085
5.96766, 30, -42.8033, -17.4661, 42.3867, 39.7746, 78.6915, -137.563
5.97755, 30, -42.5324, -17.5902, 42.516, 40.1679, 78.8624, -136.78
5.98606, 31, -42.1098, -17.6698, 42.5932, 40.4194, 78.9724, -136.26
5.99172, 31, -41.965, -17.7087, 42.6292, 40.542, 79.0264, -136
6.00159, 32, -41.5203, -17.822, 42.7268, 40.8971, 79.1849, -135.22
6.00764, 32, -41.3687, -17.8585, 42.7559, 41.0111, 79.2363, -134.961
6.01762, 33, -40.9042, -17.9638, 42.8327, 41.3415, 79.3872, -134.185
6.02523, 33, -40.7461, -17.9972, 42.8547, 41.4476, 79.4361, -133.926
6.0316, 34, -40.4249, -18.0619, 42.8933, 41.6535, 79.532, -133.41
6.0397, 34, -40.099, -18.1241, 42.9245, 41.8514, 79.6252, -132.895
6.04759, 35, -39.7681, -18.1835, 42.9485, 42.0413, 79.7162, -132.381
6.05804, 35, -39.2604, -18.266, 42.9713, 42.3124, 79.8477, -131.612
6.06367, 36, -39.0877, -18.2918, 42.9753, 42.3988, 79.8905, -131.356
6.07295, 36, -38.7366, -18.3409, 42.9784, 42.566, 79.9743, -130.846
6.0797, 37, -38.379, -18.3867, 42.9749, 42.7255, 80.0562, -130.336
6.09058, 37, -37.8316, -18.4488, 42.9566, 42.9506, 80.1753, -129.576
6.09561, 38, -37.6465, -18.4676, 42.9471, 43.022, 80.2137, -129.324
6.10416, 38, -37.2729, -18.5028, 42.9232, 43.1592, 80.2895, -128.819
6.11562, 39, -36.7041, -18.5492, 42.8748, 43.3511, 80.3984, -128.066
6.11963, 39, -36.5123, -18.5629, 42.8553, 43.4114, 80.434, -127.816
6.13126, 40, -35.9283, -18.5982, 42.7869, 43.5813, 80.5375, -127.069
6.13558, 40, -35.7306, -18.608, 42.7609, 43.6344, 80.5714, -126.82
6.14464, 41, -35.3307, -18.6246, 42.7038, 43.7352, 80.6372, -126.325
6.15266, 41, -34.9253, -18.6376, 42.6403, 43.8284, 80.7006, -125.832
6.16359, 42, -34.3097, -18.6506, 42.5329, 43.9554, 80.7926, -125.098
6.16858, 42, -34.1029, -18.6534, 42.4939, 43.9942, 80.822, -124.854
6.1758, 43, -33.6869, -18.6565, 42.4114, 44.0663, 80.8807, -124.367
6.18363, 43, -33.2666, -18.6562, 42.323, 44.1313, 80.9368, -123.883
6.19302, 44, -32.8407, -18.6522, 42.2288, 44.1894, 80.9913, -123.402
6.2018, 44, -32.4086, -18.6443, 42.1289, 44.2397, 81.045, -122.923
6.2078, 45, -31.9699, -18.6328, 42.0231, 44.2832, 81.0959, -122.447
6.21653, 45, -31.5264, -18.6176, 41.9113, 44.3194, 81.1459, -121.972
6.22788, 46, -30.8563, -18.5884, 41.7323, 44.359, 81.2173, -121.265
6.2377, 47, -30.4068, -18.5644, 41.6058, 44.3757, 81.2624, -120.797
6.24054, 47, -30.1807, -18.5509, 41.5402, 44.3814, 81.2849, -120.564
6.24825, 47, -29.7242, -18.5203, 41.4048, 44.3874, 81.3292, -120.098
6.25572, 48, -29.2612, -18.4854, 41.2634, 44.3863, 81.3717, -119.635
6.26624, 48, -28.7919, -18.4462, 41.1158, 44.3762, 81.4133, -119.173
6.27351, 49, -28.3176, -18.4026, 40.9623, 44.3576, 81.4552, -118.713
6.2819, 49, -27.8407, -18.3546, 40.8029, 44.3297, 81.4964, -118.255
6.28857, 50, -27.3613, -18.3021, 40.6371, 44.2919, 81.5368, -117.797
6.29718, 50, -26.878, -18.2442, 40.4645, 44.2453, 81.5783, -117.341
6.30458, 51, -26.388, -18.1807, 40.2857, 44.1895, 81.6208, -116.885
6.31463, 51, -25.8902, -18.1117, 40.1003, 44.1232, 81.6632, -116.431
6.32012, 52, -25.386, -18.0372, 39.9072, 44.0477, 81.7062, -115.977
6.3289, 52, -24.8784, -17.9575, 39.7071, 43.9611, 81.7506, -115.524
6.33615, 53, -24.3688, -17.8724, 39.5013, 43.8646, 81.7954, -115.071
6.34502, 53, -23.8558, -17.7814, 39.2881, 43.7582, 81.8406, -114.619
6.35462, 54, -23.3366, -17.6841, 39.0671, 43.6412, 81.8884, -114.167
6.36035, 54, -22.8091, -17.5807, 38.8397, 43.5135, 81.9378, -113.715
6.36851, 55, -22.2742, -17.471, 38.6047, 43.3745, 81.9886, -113.264
6.37619, 55, -21.7352, -17.3553, 38.3624, 43.2237, 82.0428, -112.812
6.38727, 56, -21.465, -17.2952, 38.1141, 43.0612, 82.0981, -112.36
6.39271, 56, -20.6489, -17.1063, 37.8583, 42.8871, 82.1552, -111.909
6.40223, 57, -20.0961, -16.9736, 37.596, 42.7017, 82.2146, -111.459
6.40959, 57, -19.5339, -16.8352, 37.3271, 42.5043, 82.2748, -111.008
6.41688, 58, -18.9643, -16.6906, 37.0512, 42.2944, 82.338, -110.558
6.42671, 58, -18.3913, -16.5401, 36.7696, 42.0719, 82.4024, -110.108
6.43153, 59, -18.104, -16.4629, 36.6261, 41.9561, 82.4355, -109.884
6.4406, 59, -17.5268, -16.305, 36.3344, 41.5897, 82.5387, -109.21
6.44935, 60, -16.6453, -16.0595, 35.8855, 41.3295, 82.6102, -108.761
6.45694, 60, -16.0455, -15.889, 35.5796, 41.0565, 82.6834, -108.312
6.46354, 61, -15.7436, -15.8019, 35.4246, 40.915, 82.7204, -108.087
6.47376, 61, -14.8334, -15.5343, 34.951, 40.4716, 82.8351, -107.415
6.48157, 62, -14.2214, -15.3504, 34.6285, 40.1601, 82.9144, -106.966
6.48923, 62, -13.6004, -15.161, 34.3012, 39.8355, 82.9959, -106.517
6.49558, 63, -13.286, -15.0639, 34.1358, 39.6679, 83.0378, -106.293
6.5036, 63, -12.6512, -14.8649, 33.8009, 39.3219, 83.1237, -105.843
6.51161, 64, -12.011, -14.6609, 33.4609, 38.9614, 83.2132, -105.393
6.52184, 64, -11.0415, -14.343, 32.9389, 38.3934, 83.3546, -104.715
6.53048, 65, -10.383, -14.1215, 32.5828, 37.9955, 83.4549, -104.261
6.53784, 65, -9.71407, -13.8931, 32.2212, 37.5803, 83.5608, -103.805
6.54797, 66, -9.37622, -13.7765, 32.0382, 37.366, 83.6729, -103.347
6.55201, 66, -8.69561, -13.5378, 31.6682, 36.9252, 83.7315, -103.118
6.56368, 67, -7.66335, -13.1663, 31.0996, 36.231, 83.9164, -102.424
6.56754, 67, -7.31475, -13.039, 30.9068, 35.9914, 83.9817, -102.192
6.57842, 68, -6.25603, -12.6469, 30.3218, 35.2496, 84.1869, -101.492
6.58356, 68, -5.89977, -12.5133, 30.1253, 34.9959, 84.2583, -101.257
6.59438, 69, -4.82418, -12.1008, 29.5316, 34.2168, 84.48, -100.552
6.59973, 69, -4.46266, -11.9594, 29.3325, 33.9515, 84.5565, -100.316
6.61128, 70, -3.73391, -11.6722, 28.9343, 33.1373, 84.7945, -99.6068
6.61554, 70, -2.99729, -11.3778, 28.5359, 32.8586, 84.8771, -99.3695
6.62504, 71, -2.25255, -11.0749, 28.1361, 32.2904, 85.0475, -98.8942
6.63163, 71, -1.49915, -10.7643, 27.7328, 31.7066, 85.2264, -98.4169
6.63963, 72, -0.737463, -10.447, 27.3262, 31.1049, 85.416, -97.9358
6.64855, 72, 0.0310497, -10.1245, 26.9166, 30.4841, 85.6149, -97.4517
6.65553, 73, 0.805451, -9.79339, 26.5043, 29.8496, 85.8232, -96.9639
6.66688, 73, 1.97678, -9.28094, 25.8841, 28.8757, 86.1511, -96.2279
6.67165, 74, 2.36891, -9.10733, 25.6778, 28.5465, 86.2643, -95.9813
6.68138, 74, 3.15465, -8.75774, 25.2675, 27.8829, 86.496, -95.487
6.68855, 75, 3.94198, -8.40281, 24.8628, 27.2144, 86.7332, -94.9915
6.69952, 75, 4.7321, -8.04107, 24.4638, 26.211, 87.0974, -94.248
6.7036, 76, 5.52442, -7.67344, 24.0716, 25.8769, 87.2211, -93.9995
6.72119, 77, 7.11349, -6.91872, 23.3077, 24.5391, 87.7295, -93.0009
6.72376, 77, 7.51171, -6.72473, 23.1196, 24.2042, 87.8613, -92.7498
6.73728, 78, 8.70847, -6.13116, 22.5596, 23.193, 88.2733, -91.9929
6.73945, 78, 9.10761, -5.92986, 22.3745, 22.8528, 88.4167, -91.7387
6.74388, 78, 9.5067, -5.72662, 22.19, 22.5112, 88.5636, -91.4835
6.75149, 79, 10.3043, -5.31294, 21.8223, 21.8247, 88.8673, -90.9702
6.75968, 79, 11.1002, -4.88937, 21.4569, 21.1358, 89.1837, -90.4523
6.76743, 80, 11.8924, -4.45579, 21.0941, 20.4458, 89.5122, -89.9304
6.77543, 80, 12.6792, -4.01266, 20.736, 19.7577, 89.8518, -89.4034
6.78371, 81, 13.4604, -3.56077, 20.3831, 19.0778, 90.2012, -88.8719
6.79152, 81, 14.2363, -3.10097, 20.0367, 18.4093, 90.5589, -88.3362
6.80038, 82, 15.0045, -2.6341, 19.6987, 17.7542, 90.9229, -87.798
6.80788, 82, 15.764, -2.15983, 19.3712, 17.1143, 91.2924, -87.2568
6.81668, 83, 16.5133, -1.67854, 19.0537, 16.4917, 91.6661, -86.7133
6.82378, 83, 17.2512, -1.19108, 18.7471, 15.8886, 92.0442, -86.1673
6.83306, 84, 17.9749, -0.697962, 18.4502, 15.3035, 92.4266, -85.6207
6.83996, 84, 18.6808, -0.200995, 18.1633, 14.7378, 92.8151, -85.0738
6.84851, 84, 19.369, 0.300005, 17.8836, 14.1914, 93.211, -84.5265
6.856, 85, 20.0395, 0.806388, 17.6101, 13.6647, 93.6155, -83.9809
6.86395, 85, 20.6928, 1.31736, 17.3425, 13.1582, 94.0272, -83.4377
6.87252, 86, 21.3303, 1.83255, 17.08, 12.6726, 94.4448, -82.8964
6.88023, 86, 21.6438, 2.09242, 16.8239, 12.2087, 94.868, -82.3552
6.88737, 87, 22.2614, 2.61874, 16.6977, 11.9848, 95.0817, -82.084
6.89643, 87, 23.1678, 3.42765, 16.3259, 11.3434, 95.732, -81.2648
6.9044, 88, 23.4652, 3.70168, 16.2041, 11.1389, 96.173, -80.7122
6.91139, 88, 24.0521, 4.25503, 15.9631, 10.742, 96.3956, -80.4324
6.92034, 89, 24.6276, 4.81711, 15.7265, 10.361, 96.8456, -79.5788
6.9274, 89, 25.1912, 5.39024, 15.496, 9.99491, 97.3024, -79.2887
6.9354, 89, 25.7457, 5.97441, 15.2692, 9.64451, 97.7654, -78.6998
6.94345, 90, 26.2953, 6.56824, 15.0456, 9.30858, 98.2344, -78.0976
6.9514, 90, 26.837, 7.17068, 14.8268, 8.98841, 98.7103, -77.4811
6.95943, 91, 27.3664, 7.7821, 14.6132, 8.68572, 99.1925, -76.8515
6.96765, 92, 27.8833, 8.40395, 14.4038, 8.40173, 99.6806, -76.21
6.9754, 92, 28.3907, 9.03667, 14.1988, 8.13902, 100.174, -75.5572
6.98503, 93, 29.1377, 10.0038, 13.9004, 7.78637, 100.92, -74.5623
6.99141, 93, 29.3813, 10.3297, 13.8039, 7.68029, 101.169, -74.2274
6.99969, 94, 29.8591, 10.9859, 13.6167, 7.48569, 101.668, -73.5517
7.00746, 94, 30.3229, 11.6463, 13.4374, 7.31458, 102.166, -72.8697
7.01736, 95, 30.9916, 12.6415, 13.1814, 7.1024, 102.907, -71.8385
7.02339, 95, 31.2075, 12.9742, 13.0998, 7.04358, 103.153, -71.4918
7.03146, 95, 31.6293, 13.641, 12.9426, 6.94356, 103.641, -70.7939
7.04043, 96, 32.0366, 14.3089, 12.7925, 6.86708, 104.126, -70.0914
7.04741, 96, 32.4277, 14.9773, 12.6486, 6.81502, 104.607, -69.3836
7.05545, 97, 32.8026, 15.646, 12.5115, 6.78451, 105.083, -68.6693
7.06339, 97, 33.1615, 16.3128, 12.3823, 6.77524, 105.553, -67.9513
7.07148, 98, 33.5051, 16.9772, 12.2614, 6.78836, 106.016, -67.2305
7.07977, 99, 33.8346, 17.6372, 12.1496, 6.82214, 106.47, -66.5064
7.08999, 99, 34.3039, 18.6158, 11.9992, 6.90983, 107.132, -65.4222
7.09659, 100, 34.4544, 18.9381, 11.9537, 6.94845, 107.346, -65.0616
7.10338, 100, 34.7472, 19.5763, 11.8694, 7.03835, 107.765, -64.3418
7.11138, 100, 35.0282, 20.2049, 11.794, 7.14568, 108.17, -63.6273
7.1195, 101, 35.2971, 20.8224, 11.7268, 7.26834, 108.56, -62.92
7.12739, 101, 35.5544, 21.4291, 11.6679, 7.40541, 108.934, -62.2191
7.13539, 102, 35.7992, 22.0231, 11.6176, 7.55479, 109.29, -61.5283
7.14347, 102, 36.0303, 22.6041, 11.5757, 7.71469, 109.63, -60.8497
7.1514, 103, 36.2506, 23.1704, 11.5424, 7.8834, 109.952, -60.1826
7.15951, 103, 36.4637, 23.7209, 11.518, 8.05985, 110.257, -59.528
7.16767, 104, 36.6702, 24.2561, 11.5027, 8.24447, 110.543, -58.8877
7.17545, 104, 36.8699, 24.7757, 11.4956, 8.43778, 110.81, -58.2593
7.18339, 104, 37.0638, 25.2792, 11.4952, 8.64002, 111.058, -57.6421
7.19145, 104, 37.2519, 25.7671, 11.5012, 8.85055, 111.287, -57.0368
7.19943, 104, 37.4308, 26.2386, 11.5125, 9.06781, 111.496, -56.4445
7.2075, 104, 37.5992, 26.6937, 11.5269, 9.29029, 111.689, -55.8653
7.21547, 104, 37.7591, 27.1337, 11.5439, 9.51509, 111.867, -55.3025
7.22347, 104, 37.9144, 27.5581, 11.5633, 9.7393, 112.032, -54.759
7.23154, 104, 38.0662, 27.9667, 11.5838, 9.96073, 112.187, -54.2381
7.23953, 104, 38.2131, 28.3581, 11.6044, 10.1775, 112.334, -53.7394
7.24749, 104, 38.3541, 28.7334, 11.6243, 10.3886, 112.472, -53.2645
7.25583, 104, 38.4883, 29.0911, 11.6429, 10.5928, 112.602, -52.8141
7.26339, 104, 38.6148, 29.4309, 11.6605, 10.7892, 112.725, -52.3882
7.27242, 104, 38.7328, 29.7516, 11.677, 10.9772, 112.84, -51.9877
7.27953, 104, 38.8424, 30.0533, 11.6922, 11.1561, 112.947, -51.6116
7.28754, 104, 38.9439, 30.3366, 11.7065, 11.3253, 113.047, -51.2608
7.29553, 104, 39.0378, 30.6002, 11.7198, 11.4843, 113.139, -50.9359
7.30364, 104, 39.124, 30.8441, 11.7317, 11.6325, 113.224, -50.636
7.31166, 104, 39.2023, 31.0687, 11.7424, 11.7698, 113.3, -50.3613
7.32031, 104, 39.2726, 31.2732, 11.7524, 11.8956, 113.371, -50.1118
7.32784, 104, 39.335, 31.4579, 11.7616, 12.0096, 113.433, -49.8877
7.3359, 104, 39.3897, 31.6235, 11.7696, 12.1118, 113.49, -49.6885
7.34448, 104, 39.4378, 31.7695, 11.7767, 12.2017, 113.538, -49.5145
7.35196, 104, 39.4799, 31.897, 11.7832, 12.2794, 113.579, -49.3651
7.36057, 104, 39.5164, 32.0072, 11.7891, 12.3452, 113.614, -49.2392
7.36812, 104, 39.5466, 32.1006, 11.7943, 12.3997, 113.643, -49.1365
7.37611, 104, 39.5714, 32.1784, 11.7989, 12.4422, 113.665, -49.0542
7.38399, 104, 39.582, 32.212, 11.8011, 12.4752, 113.682, -48.9917
7.39191, 104, 39.5996, 32.2697, 11.8051, 12.4885, 113.688, -48.9668
7.40042, 104, 39.6187, 32.3349, 11.8104, 12.5175, 113.702, -48.9137
7.40742, 104, 39.6236, 32.3515, 11.812, 12.5243, 113.705, -48.9019
7.41542, 104, 39.6315, 32.3782, 11.8149, 12.534, 113.709, -48.885
7.42342, 104, 39.6371, 32.3982, 11.8175, 12.54, 113.712, -48.875
7.43137, 104, 39.6405, 32.4127, 11.8196, 12.5434, 113.713, -48.8698
7.43942, 104, 39.6424, 32.4223, 11.8211, 12.5451, 113.714, -48.8675
7.4474, 105, 39.6432, 32.4283, 11.8223, 12.5459, 113.714, -48.8664
7.45685, 105, 39.6425, 32.4337, 11.8238, 12.5465, 113.714, -48.8661
7.46337, 105, 39.642, 32.4349, 11.8242, 12.5465, 113.714, -48.8662
7.47145, 105, 39.6411, 32.4369, 11.8249, 12.5466, 113.714, -48.8664
7.48096, 105, 39.6395, 32.4391, 11.8259, 12.5467, 113.714, -48.8669
7.48941, 105, 39.6383, 32.4404, 11.8264, 12.5467, 113.714, -48.8671
7.49544, 105, 39.6378, 32.441, 11.8267, 12.5467, 113.714, -48.8673
7.50501, 105, 39.637, 32.4427, 11.8276, 12.5467, 113.714, -48.8678
7.51137, 105, 39.6368, 32.4432, 11.8279, 12.5467, 113.714, -48.8679
7.51948, 105, 39.6365, 32.4443, 11.8285, 12.5467, 113.714, -48.8682
7.52842, 105, 39.6363, 32.4452, 11.8289, 12.5467, 113.714, -48.8685
7.53539, 105, 39.636, 32.4459, 11.8293, 12.5467, 113.714, -48.8688
7.54345, 105, 39.6357, 32.4465, 11.8297, 12.5467, 113.714, -48.869
7.55138, 105, 39.6354, 32.4468, 11.83, 12.5467, 113.714, -48.8691
7.55942, 105, 39.6351, 32.447, 11.8302, 12.5467, 113.714, -48.8694
7.56744, 105, 39.6349, 32.4471, 11.8304, 12.5467, 113.714, -48.8697
