hehonglu123/Motion-Primitive-Planning/ILC/recorded_data/realrobot/from_NX/iteration_24/run_2.csv
timestamp, cmd_num, J1, J2, J3, J4, J5, J6
0.000376, -1, 39.6288, 32.4466, 11.8313, 12.5437, 113.714, -48.8735
0.004476, -1, 39.6288, 32.4466, 11.8313, 12.5437, 113.714, -48.8735
0.007956, -1, 39.6288, 32.4466, 11.8313, 12.5436, 113.714, -48.8735
0.028833, -1, 39.6289, 32.4466, 11.8313, 12.5437, 113.714, -48.8735
0.031562, -1, 39.6289, 32.4466, 11.8313, 12.5437, 113.714, -48.8735
0.0346, -1, 39.6289, 32.4466, 11.8313, 12.5437, 113.714, -48.8735
0.039696, -1, 39.6288, 32.4466, 11.8313, 12.5436, 113.714, -48.8735
0.047721, -1, 39.6288, 32.4466, 11.8313, 12.5436, 113.714, -48.8735
0.055683, -1, 39.6283, 32.4465, 11.8313, 12.5436, 113.714, -48.8734
0.063748, -1, 39.626, 32.4461, 11.8313, 12.5436, 113.714, -48.8735
0.071689, -1, 39.6207, 32.4447, 11.8313, 12.5436, 113.714, -48.8738
0.079751, -1, 39.6119, 32.4418, 11.8312, 12.5436, 113.713, -48.8751
0.087689, -1, 39.5987, 32.4366, 11.8312, 12.5436, 113.712, -48.8799
0.095678, -1, 39.5789, 32.4281, 11.8312, 12.5436, 113.708, -48.8911
0.103762, -1, 39.5503, 32.4155, 11.8317, 12.5436, 113.701, -48.9116
0.111698, -1, 39.5119, 32.3979, 11.8337, 12.5436, 113.689, -48.945
0.119681, -1, 39.4625, 32.3742, 11.8386, 12.5436, 113.67, -48.9955
0.127773, -1, 39.4004, 32.3438, 11.8469, 12.5436, 113.643, -49.067
0.135673, -1, 39.3249, 32.306, 11.8597, 12.5437, 113.605, -49.1612
0.143676, -1, 39.2358, 32.2604, 11.8775, 12.5439, 113.559, -49.281
0.151753, -1, 39.1327, 32.2069, 11.9, 12.5445, 113.502, -49.4264
0.159676, -1, 39.0155, 32.1455, 11.9267, 12.5454, 113.435, -49.5965
0.167708, -1, 38.8849, 32.0768, 11.9573, 12.5469, 113.359, -49.7889
0.175837, -1, 38.7421, 32.0014, 11.9913, 12.5488, 113.275, -50.0009
0.18368, -1, 38.5877, 31.9202, 12.0275, 12.5508, 113.185, -50.2285
0.191683, -1, 38.4234, 31.834, 12.0653, 12.5532, 113.09, -50.4684
0.200463, -1, 38.2511, 31.7438, 12.1041, 12.5555, 112.992, -50.7166
0.207763, -1, 38.0727, 31.6506, 12.1431, 12.558, 112.892, -50.97
0.215785, -1, 37.8892, 31.5553, 12.182, 12.5605, 112.79, -51.2267
0.224976, -1, 37.7016, 31.4584, 12.2209, 12.5629, 112.688, -51.4852
0.231773, -1, 37.5113, 31.3606, 12.2596, 12.5653, 112.586, -51.7446
0.239858, -1, 37.3196, 31.2626, 12.2983, 12.5679, 112.483, -52.0042
0.247795, -1, 37.1275, 31.1647, 12.3372, 12.5702, 112.38, -52.264
0.255683, -1, 36.9353, 31.0669, 12.3759, 12.5729, 112.277, -52.5241
0.263756, -1, 36.7432, 30.9692, 12.4147, 12.5755, 112.174, -52.7845
0.271709, -1, 36.5515, 30.8714, 12.4536, 12.578, 112.072, -53.0449
0.279725, -1, 36.3599, 30.7737, 12.4925, 12.5807, 111.969, -53.3052
0.287896, -1, 36.1683, 30.6759, 12.5313, 12.5833, 111.866, -53.5656
0.295994, -1, 35.9767, 30.578, 12.5702, 12.5858, 111.763, -53.8262
0.30392, -1, 35.7852, 30.48, 12.6092, 12.5885, 111.66, -54.0869
0.312069, -1, 35.5934, 30.382, 12.6481, 12.5909, 111.557, -54.347
0.318687, -1, 35.4973, 30.3329, 12.6675, 12.5922, 111.505, -54.4771
0.328724, -1, 35.209, 30.1855, 12.7257, 12.5962, 111.351, -54.8679
0.336232, -1, 35.0165, 30.0871, 12.7646, 12.5987, 111.247, -55.1288
0.345318, -1, 34.8243, 29.9886, 12.8035, 12.6013, 111.144, -55.3894
0.352285, -1, 34.6319, 29.8901, 12.8423, 12.6039, 111.041, -55.65
0.360249, -1, 34.4398, 29.7917, 12.8813, 12.6064, 110.939, -55.9108
0.368257, -1, 34.3437, 29.6932, 12.9202, 12.609, 110.835, -56.1718
0.376397, -1, 34.0557, 29.5949, 12.9591, 12.6116, 110.732, -56.4326
0.384235, -1, 33.9598, 29.5458, 12.9786, 12.6129, 110.681, -56.563
0.391665, -1, 33.7681, 29.4475, 13.0175, 12.6156, 110.578, -56.8237
0.399746, -1, 33.5763, 29.3491, 13.0563, 12.6182, 110.474, -57.0846
0.407665, -1, 33.3841, 29.2507, 13.0953, 12.6208, 110.371, -57.3459
0.41567, -1, 33.1915, 29.1521, 13.1343, 12.6234, 110.268, -57.6067
0.423722, -1, 32.9988, 29.0535, 13.173, 12.6261, 110.165, -57.8677
0.431668, -1, 32.8059, 28.955, 13.212, 12.6287, 110.062, -58.1288
0.439678, -1, 32.6126, 28.8563, 13.2509, 12.6314, 109.959, -58.3901
0.447684, -1, 32.419, 28.7576, 13.2897, 12.6341, 109.856, -58.6513
0.455676, -1, 32.2251, 28.6589, 13.3287, 12.6367, 109.753, -58.9123
0.463738, -1, 32.031, 28.5601, 13.3676, 12.6394, 109.65, -59.1734
0.471659, -1, 31.8371, 28.4613, 13.4064, 12.6421, 109.547, -59.4348
0.479667, -1, 31.6435, 28.3625, 13.4455, 12.6449, 109.444, -59.6962
0.487731, -1, 31.45, 28.2639, 13.4845, 12.6477, 109.341, -59.9573
0.495681, -1, 31.257, 28.1653, 13.5234, 12.6504, 109.238, -60.2188
0.638904, -1, 27.7808, 26.3879, 14.2253, 12.6982, 107.379, -64.9274
0.640286, -1, 27.7808, 26.3879, 14.2253, 12.6982, 107.379, -64.9274
0.641491, -1, 27.7808, 26.3879, 14.2253, 12.6982, 107.379, -64.9274
0.64354, -1, 27.6845, 26.3384, 14.2447, 12.6994, 107.327, -65.0584
0.644735, -1, 27.6845, 26.3384, 14.2447, 12.6994, 107.327, -65.0584
0.646637, -1, 27.5882, 26.289, 14.2641, 12.7006, 107.275, -65.1892
0.648145, -1, 27.5882, 26.289, 14.2641, 12.7006, 107.275, -65.1892
0.651798, -1, 27.4921, 26.2395, 14.2836, 12.7018, 107.224, -65.32
0.653036, -1, 27.4921, 26.2395, 14.2836, 12.7018, 107.224, -65.32
0.655118, -1, 27.396, 26.19, 14.3031, 12.703, 107.172, -65.4508
0.656384, -1, 27.396, 26.19, 14.3031, 12.703, 107.172, -65.4508
0.657733, -1, 27.396, 26.19, 14.3031, 12.703, 107.172, -65.4508
0.659764, -1, 27.3, 26.1405, 14.3227, 12.7042, 107.12, -65.5815
0.661871, -1, 27.3, 26.1405, 14.3227, 12.7042, 107.12, -65.5815
0.664078, -1, 27.2039, 26.091, 14.3422, 12.7054, 107.069, -65.7123
0.667371, -1, 27.1078, 26.0416, 14.3616, 12.7065, 107.017, -65.8432
0.668608, -1, 27.1078, 26.0416, 14.3616, 12.7065, 107.017, -65.8432
0.669914, -1, 27.1078, 26.0416, 14.3616, 12.7065, 107.017, -65.8432
0.671931, -1, 27.0115, 25.9922, 14.381, 12.7077, 106.965, -65.974
0.673211, -1, 27.0115, 25.9922, 14.381, 12.7077, 106.965, -65.974
0.675936, -1, 26.9152, 25.9428, 14.4005, 12.7088, 106.914, -66.105
0.677158, -1, 26.9152, 25.9428, 14.4005, 12.7088, 106.914, -66.105
0.683072, -1, 26.7223, 25.8439, 14.4395, 12.7112, 106.81, -66.3668
0.686968, -1, 26.6258, 25.7945, 14.459, 12.7124, 106.759, -66.4975
0.694986, -1, 26.4323, 25.6957, 14.4978, 12.7146, 106.655, -66.7592
0.703694, -1, 26.2384, 25.5968, 14.5368, 12.7169, 106.553, -67.021
0.711822, -1, 26.0443, 25.4979, 14.5758, 12.7191, 106.449, -67.2829
0.719783, -1, 25.85, 25.3991, 14.6147, 12.7214, 106.346, -67.5446
0.72776, -1, 25.6559, 25.3003, 14.6537, 12.7237, 106.243, -67.8062
0.735832, -1, 25.4619, 25.2015, 14.6927, 12.726, 106.14, -68.0677
0.743767, -1, 25.2682, 25.1028, 14.7316, 12.7283, 106.036, -68.3296
0.751762, -1, 25.0748, 25.0041, 14.7707, 12.7306, 105.933, -68.5914
0.759855, -1, 24.8815, 24.9052, 14.8097, 12.7329, 105.83, -68.8529
0.767679, -1, 24.6885, 24.8064, 14.8486, 12.7354, 105.727, -69.1146
0.775714, -1, 24.4961, 24.7075, 14.8876, 12.7377, 105.623, -69.3764
0.783824, -1, 24.3036, 24.6086, 14.9267, 12.7401, 105.52, -69.6383
0.791805, -1, 24.1111, 24.5097, 14.9657, 12.7425, 105.417, -69.8997
0.932798, -1, 20.7327, 22.7813, 15.6472, 12.7866, 103.609, -74.4771
0.934159, -1, 20.7327, 22.7813, 15.6472, 12.7866, 103.609, -74.4771
0.935463, -1, 20.7327, 22.7813, 15.6472, 12.7866, 103.609, -74.4771
0.937559, -1, 20.6364, 22.732, 15.6667, 12.788, 103.557, -74.6077
0.938771, -1, 20.6364, 22.732, 15.6667, 12.788, 103.557, -74.6077
0.939967, -1, 20.6364, 22.732, 15.6667, 12.788, 103.557, -74.6077
0.942771, -1, 20.54, 22.6827, 15.6861, 12.7893, 103.506, -74.7383
0.945739, -1, 20.4435, 22.6334, 15.7055, 12.7907, 103.454, -74.869
0.946992, -1, 20.4435, 22.6334, 15.7055, 12.7907, 103.454, -74.869
0.948884, -1, 20.4435, 22.5841, 15.725, 12.7921, 103.403, -74.9998
0.95113, -1, 20.3469, 22.5841, 15.725, 12.7921, 103.403, -74.9998
0.953842, -1, 20.2501, 22.5347, 15.7444, 12.7934, 103.352, -75.1305
0.955097, -1, 20.2501, 22.5347, 15.7444, 12.7934, 103.352, -75.1305
0.956958, -1, 20.2501, 22.5347, 15.7444, 12.7947, 103.3, -75.2611
0.958416, -1, 20.1532, 22.4853, 15.764, 12.7947, 103.3, -75.2611
0.961012, -1, 20.0564, 22.436, 15.7834, 12.7961, 103.248, -75.3915
0.96248, -1, 20.0564, 22.436, 15.7834, 12.7961, 103.248, -75.3915
0.963704, -1, 20.0564, 22.436, 15.7834, 12.7961, 103.248, -75.3915
0.965726, -1, 19.9596, 22.3866, 15.8028, 12.7975, 103.197, -75.5221
0.966957, -1, 19.9596, 22.3866, 15.8028, 12.7975, 103.197, -75.5221
0.96815, -1, 19.9596, 22.3866, 15.8028, 12.7975, 103.197, -75.5221
0.970251, -1, 19.8627, 22.3373, 15.8222, 12.7989, 103.145, -75.6527
0.978185, -1, 19.669, 22.2386, 15.861, 12.8016, 103.043, -75.9138
0.982659, -1, 19.5723, 22.1893, 15.8805, 12.803, 102.991, -76.0445
0.991653, -1, 19.379, 22.0908, 15.9194, 12.8058, 102.888, -76.3057
0.999655, -1, 19.186, 21.9921, 15.9582, 12.8084, 102.785, -76.5666
1.0092, -1, 18.9932, 21.8934, 15.9971, 12.8113, 102.682, -76.8274
1.01567, -1, 18.8007, 21.7948, 16.0359, 12.814, 102.579, -77.0885
1.02465, -1, 18.6086, 21.696, 16.0747, 12.8167, 102.476, -77.3495
1.03065, -1, 18.4169, 21.5974, 16.1136, 12.8194, 102.373, -77.6103
1.03965, -1, 18.225, 21.4989, 16.1525, 12.8221, 102.27, -77.871
1.04768, -1, 18.0331, 21.4004, 16.1912, 12.8246, 102.167, -78.1318
1.0557, -1, 17.8412, 21.302, 16.2302, 12.8272, 102.064, -78.3927
1.06365, -1, 17.6492, 21.2037, 16.269, 12.8297, 101.961, -78.6533
1.07169, -1, 17.4567, 21.1054, 16.3079, 12.8323, 101.858, -78.9136
1.07964, -1, 17.2639, 21.007, 16.3467, 12.8347, 101.755, -79.1741
1.08765, -1, 17.0708, 20.9088, 16.3855, 12.8371, 101.652, -79.4348
1.09573, -1, 16.8778, 20.8105, 16.4243, 12.8395, 101.55, -79.6953
1.10365, -1, 16.6846, 20.7124, 16.4631, 12.8418, 101.447, -79.9557
1.11166, -1, 16.4917, 20.6142, 16.5017, 12.8442, 101.344, -80.2161
1.11974, -1, 16.2988, 20.5158, 16.5405, 12.8465, 101.242, -80.4768
1.12764, -1, 16.1064, 20.4175, 16.5792, 12.8489, 101.139, -80.7373
1.13564, -1, 15.9145, 20.3191, 16.6179, 12.8511, 101.036, -80.9974
1.14373, -1, 15.7227, 20.2205, 16.6566, 12.8535, 100.934, -81.2574
1.15165, -1, 15.5314, 20.1221, 16.6952, 12.8559, 100.831, -81.5175
1.15965, -1, 15.3402, 20.0237, 16.7338, 12.8582, 100.728, -81.7777
1.16791, -1, 15.1491, 19.9254, 16.7727, 12.8605, 100.626, -82.0375
1.17567, -1, 14.958, 19.8272, 16.8113, 12.8627, 100.523, -82.2973
1.18369, -1, 14.7667, 19.7291, 16.85, 12.8651, 100.421, -82.5573
1.19245, -1, 14.5753, 19.631, 16.8887, 12.8674, 100.318, -82.8174
1.19965, -1, 14.3834, 19.5328, 16.9274, 12.8696, 100.215, -83.0772
1.20774, -1, 14.1911, 19.4348, 16.9661, 12.8719, 100.113, -83.3366
1.21653, -1, 13.9988, 19.3369, 17.0048, 12.8741, 100.01, -83.5962
1.22376, -1, 13.8064, 19.2391, 17.0434, 12.8765, 99.9079, -83.8559
1.23181, -1, 13.6139, 19.1413, 17.082, 12.8788, 99.8054, -84.1155
1.2406, -1, 13.4216, 19.0434, 17.1208, 12.8811, 99.7028, -84.3747
1.24775, -1, 13.2295, 18.9454, 17.1592, 12.8834, 99.6007, -84.6341
1.25583, -1, 13.0379, 18.8475, 17.1979, 12.8858, 99.4982, -84.8934
1.26451, -1, 12.8467, 18.7495, 17.2365, 12.8881, 99.3957, -85.1528
1.27168, -1, 12.6557, 18.6515, 17.275, 12.8905, 99.2936, -85.4118
1.27981, -1, 12.465, 18.5537, 17.3136, 12.893, 99.1911, -85.6707
1.28907, -1, 12.2748, 18.456, 17.3521, 12.8954, 99.0889, -85.9296
1.2958, -1, 12.0846, 18.3582, 17.3906, 12.8978, 98.9869, -86.1887
1.30465, -1, 11.8943, 18.2606, 17.4292, 12.9001, 98.8848, -86.4475
1.31206, -1, 11.7038, 18.163, 17.4678, 12.9026, 98.7829, -86.7061
1.32008, -1, 11.5129, 18.0653, 17.5063, 12.9051, 98.6811, -86.9647
1.32664, -1, 11.4174, 18.0165, 17.5255, 12.9062, 98.63, -87.094
1.3347, -1, 11.2263, 17.919, 17.5641, 12.9087, 98.5281, -87.3526
1.34421, -1, 10.9391, 17.7728, 17.6219, 12.9124, 98.3753, -87.7398
1.35304, -1, 10.7475, 17.6754, 17.6603, 12.9149, 98.2732, -87.998
1.36042, -1, 10.556, 17.5779, 17.6987, 12.9174, 98.1713, -88.2563
1.36827, -1, 10.3647, 17.4803, 17.7371, 12.9199, 98.0695, -88.5148
1.37704, -1, 10.2692, 17.4316, 17.7756, 12.9223, 97.9676, -88.7728
1.38425, -1, 10.0783, 17.334, 17.7948, 12.9237, 97.8659, -89.0309
1.39227, -1, 9.88787, 17.2364, 17.8331, 12.9264, 97.815, -89.289
1.3997, -1, 9.69776, 17.1388, 17.8715, 12.9289, 97.7129, -89.4181
1.40671, -1, 9.5081, 17.0414, 17.9098, 12.9317, 97.6109, -89.6762
1.41569, -1, 9.3188, 16.944, 17.9481, 12.9344, 97.5092, -89.9338
1.42363, -1, 9.12949, 16.8467, 17.9865, 12.9371, 97.4072, -90.1913
1.43071, -1, 8.9401, 16.7496, 18.0248, 12.9398, 97.3054, -90.4489
1.43976, -1, 8.7505, 16.6524, 18.0632, 12.9424, 97.2038, -90.7065
1.44769, -1, 8.56094, 16.5552, 18.1016, 12.9451, 97.1021, -90.9637
1.45466, -1, 8.37116, 16.4582, 18.14, 12.9478, 97.0007, -91.2209
1.46363, -1, 8.18087, 16.3612, 18.1782, 12.9505, 96.8991, -91.4781
1.47163, -1, 7.99045, 16.2643, 18.2166, 12.9531, 96.7975, -91.7353
1.47863, -1, 7.79995, 16.1674, 18.2549, 12.9558, 96.6961, -91.9922
1.48763, -1, 7.60934, 16.0705, 18.2932, 12.9584, 96.5945, -92.2488
1.49563, -1, 7.41895, 15.9736, 18.3316, 12.9609, 96.4931, -92.5057
1.50379, -1, 7.22884, 15.8767, 18.3697, 12.9635, 96.3919, -92.7625
1.51165, -1, 7.03896, 15.7796, 18.4079, 12.9661, 96.2905, -93.0192
1.52063, -1, 6.84953, 15.6827, 18.4462, 12.9687, 96.1892, -93.2756
1.5277, -1, 6.66058, 15.5858, 18.4843, 12.9712, 96.0886, -93.532
1.53563, -1, 6.47214, 15.489, 18.5224, 12.9738, 95.9874, -93.7884
1.54364, -1, 6.28392, 15.3923, 18.5606, 12.9763, 95.8863, -94.0449
1.55172, -1, 6.09583, 15.2956, 18.5988, 12.9787, 95.7857, -94.3008
1.55972, -1, 5.90752, 15.1989, 18.6369, 12.9811, 95.6845, -94.5567
1.56763, -1, 5.71914, 15.1022, 18.6752, 12.9834, 95.5835, -94.8126
1.57564, -1, 5.53068, 15.0056, 18.7132, 12.9858, 95.483, -95.0686
1.58363, -1, 5.34186, 14.9091, 18.7514, 12.9881, 95.3821, -95.3242
1.59169, -1, 5.15273, 14.8127, 18.7896, 12.9904, 95.2814, -95.5796
1.59969, -1, 4.96332, 14.7164, 18.8276, 12.9926, 95.1809, -95.835
1.60763, -1, 4.77399, 14.62, 18.8657, 12.9949, 95.08, -96.0906
1.61571, -1, 4.58455, 14.5235, 18.9038, 12.9971, 94.9792, -96.3458
1.62364, -1, 4.39534, 14.4272, 18.9418, 12.9993, 94.8785, -96.6007
1.63163, -1, 4.20641, 14.3308, 18.9799, 13.0014, 94.7776, -96.8556
1.63975, -1, 4.01765, 14.2343, 19.0178, 13.0038, 94.6768, -97.1107
1.64763, -1, 3.82956, 14.1381, 19.0557, 13.0061, 94.576, -97.3658
1.65564, -1, 3.64201, 14.042, 19.0937, 13.0083, 94.4752, -97.6204
1.6637, -1, 3.45477, 13.9458, 19.1317, 13.0106, 94.3747, -97.8752
1.67163, -1, 3.26782, 13.8498, 19.1694, 13.0129, 94.274, -98.1299
1.67971, -1, 3.08091, 13.7538, 19.2073, 13.0152, 94.1732, -98.3848
1.68776, -1, 2.89395, 13.6577, 19.2453, 13.0174, 94.0726, -98.6392
1.69564, -1, 2.70691, 13.5617, 19.2832, 13.0197, 93.972, -98.8933
1.70363, -1, 2.51964, 13.4657, 19.3211, 13.022, 93.8716, -99.1474
1.71194, -1, 2.33217, 13.3698, 19.3588, 13.0243, 93.7712, -99.4017
1.71979, -1, 2.14431, 13.274, 19.3966, 13.0266, 93.6709, -99.6556
1.72774, -1, 1.95616, 13.1782, 19.4345, 13.0287, 93.5707, -99.9092
1.73606, -1, 1.76806, 13.0823, 19.4723, 13.0311, 93.4709, -100.163
1.74373, -1, 1.57983, 12.9865, 19.51, 13.0332, 93.3707, -100.416
1.75174, -1, 1.39173, 12.8907, 19.5478, 13.0355, 93.2706, -100.67
1.76033, -1, 1.20397, 12.7949, 19.5855, 13.0378, 93.1708, -100.923
1.76763, -1, 1.01646, 12.6992, 19.6232, 13.0402, 93.0706, -101.176
1.77566, -1, 0.829685, 12.6036, 19.661, 13.0425, 92.9706, -101.429
1.78455, -1, 0.643385, 12.508, 19.6986, 13.0449, 92.871, -101.682
1.79175, -1, 0.457443, 12.4125, 19.7362, 13.0474, 92.7711, -101.935
1.7998, -1, 0.271699, 12.3172, 19.7739, 13.0498, 92.6714, -102.188
1.80864, -1, 0.086302, 12.2218, 19.8115, 13.0523, 92.5722, -102.441
1.81595, -1, -0.0990973, 12.1265, 19.849, 13.0547, 92.4725, -102.693
1.82262, -1, -0.191891, 12.0789, 19.8679, 13.0559, 92.4226, -102.82
1.83286, -1, -0.470716, 11.936, 19.9243, 13.0596, 92.2736, -103.198
1.84015, -1, -0.656836, 11.841, 19.9618, 13.0621, 92.174, -103.45
1.84829, -1, -0.843232, 11.7459, 19.9993, 13.0646, 92.0745, -103.702
1.85705, -1, -1.02988, 11.6508, 20.0367, 13.0672, 91.9754, -103.954
1.86419, -1, -1.21669, 11.5557, 20.0742, 13.0697, 91.8759, -104.206
1.87225, -1, -1.40369, 11.4607, 20.1118, 13.0721, 91.7767, -104.457
1.88109, -1, -1.59044, 11.3656, 20.1492, 13.0747, 91.6775, -104.709
1.88827, -1, -1.6837, 11.318, 20.1679, 13.076, 91.5783, -104.961
1.89626, -1, -1.86991, 11.223, 20.2053, 13.0786, 91.5287, -105.086
1.90362, -1, -2.05569, 11.128, 20.2428, 13.0812, 91.4296, -105.338
1.91163, -1, -2.24088, 11.0331, 20.2801, 13.0839, 91.3303, -105.588
1.91973, -1, -2.42575, 10.9382, 20.3175, 13.0865, 91.2311, -105.839
1.92763, -1, -2.61018, 10.8435, 20.3548, 13.0892, 91.1322, -106.09
1.93466, -1, -2.79411, 10.7487, 20.3921, 13.0919, 91.0331, -106.341
1.94362, -1, -2.97804, 10.654, 20.4295, 13.0945, 90.9339, -106.592
1.95162, -1, -3.16213, 10.5593, 20.4668, 13.0971, 90.8353, -106.842
1.95865, -1, -3.34642, 10.4647, 20.504, 13.0997, 90.7362, -107.093
1.96762, -1, -3.53107, 10.3702, 20.5413, 13.1023, 90.6372, -107.344
1.97562, -1, -3.71579, 10.2759, 20.5785, 13.1048, 90.5386, -107.594
1.98368, -1, -3.90084, 10.1815, 20.6158, 13.1073, 90.4396, -107.844
1.99162, -1, -4.08616, 10.0871, 20.6531, 13.1098, 90.341, -108.094
1.99973, -1, -4.27171, 9.99287, 20.6902, 13.1122, 90.2425, -108.344
2.00761, -1, -4.45724, 9.89853, 20.7273, 13.1146, 90.1438, -108.594
2.01586, -1, -4.6425, 9.80418, 20.7647, 13.1169, 90.0453, -108.843
2.02366, -1, -4.82743, 9.70998, 20.8018, 13.1192, 89.947, -109.092
2.03261, -1, -5.01203, 9.6159, 20.8388, 13.1217, 89.8484, -109.342
2.04047, -1, -5.19587, 9.52186, 20.876, 13.1241, 89.75, -109.591
2.04662, -1, -5.37921, 9.42783, 20.9131, 13.1264, 89.6517, -109.84
2.05565, -1, -5.56223, 9.33392, 20.9502, 13.1288, 89.5533, -110.089
2.06443, -1, -5.74483, 9.23998, 20.9873, 13.131, 89.455, -110.338
2.07161, -1, -5.92709, 9.1461, 21.0243, 13.1334, 89.357, -110.587
2.07968, -1, -6.10949, 9.05222, 21.0613, 13.1356, 89.2587, -110.835
2.08841, -1, -6.2922, 8.95843, 21.0984, 13.1378, 89.1608, -111.084
2.09562, -1, -6.47512, 8.86478, 21.1353, 13.14, 89.063, -111.332
2.10362, -1, -6.6583, 8.77109, 21.1721, 13.1422, 88.9649, -111.58
2.11242, -1, -6.84185, 8.67748, 21.209, 13.1443, 88.867, -111.829
2.11967, -1, -7.02568, 8.58387, 21.2459, 13.1464, 88.7692, -112.076
2.12761, -1, -7.20979, 8.49033, 21.2828, 13.1486, 88.6713, -112.324
2.13642, -1, -7.39393, 8.39671, 21.3198, 13.1507, 88.5734, -112.571
2.14361, -1, -7.57773, 8.3031, 21.3566, 13.1529, 88.476, -112.819
2.15161, -1, -7.76123, 8.20963, 21.3933, 13.1551, 88.3783, -113.067
2.1605, -1, -7.94433, 8.11621, 21.4302, 13.1573, 88.2809, -113.314
2.16761, -1, -8.12698, 8.02286, 21.467, 13.1596, 88.1837, -113.561
2.17562, -1, -8.30887, 7.92958, 21.5037, 13.1618, 88.0861, -113.808
2.18446, -1, -8.49029, 7.83631, 21.5406, 13.164, 87.9888, -114.055
2.19166, -1, -8.67134, 7.74312, 21.5773, 13.1663, 87.8915, -114.301
2.19967, -1, -8.85204, 7.64997, 21.614, 13.1686, 87.794, -114.548
2.20841, -1, -9.03281, 7.55683, 21.6508, 13.1707, 87.6966, -114.794
2.21567, -1, -9.21385, 7.46379, 21.6875, 13.1731, 87.5994, -115.041
2.22372, -1, -9.3951, 7.37096, 21.7242, 13.1752, 87.5023, -115.287
2.23251, -1, -9.57676, 7.2781, 21.7609, 13.1774, 87.4051, -115.533
2.23976, -1, -9.75872, 7.18529, 21.7975, 13.1797, 87.3081, -115.779
2.24772, -1, -9.94108, 7.09257, 21.834, 13.1819, 87.2109, -116.025
2.25661, -1, -10.1236, 6.99984, 21.8707, 13.1841, 87.1136, -116.272
2.26367, -1, -10.3062, 6.90708, 21.9073, 13.1864, 87.0165, -116.517
2.27162, -1, -10.4888, 6.81434, 21.9438, 13.1886, 86.9193, -116.763
2.28067, -1, -10.6711, 6.72162, 21.9804, 13.1909, 86.8223, -117.008
2.28765, -1, -10.8529, 6.62904, 22.0169, 13.1932, 86.7255, -117.253
2.29582, -1, -11.0342, 6.53644, 22.0533, 13.1957, 86.6285, -117.499
2.30464, -1, -11.2146, 6.44394, 22.0899, 13.198, 86.5319, -117.744
2.31186, -1, -11.3945, 6.35144, 22.1265, 13.2005, 86.4353, -117.988
2.32005, -1, -11.5741, 6.25898, 22.1628, 13.2029, 86.3385, -118.233
2.32662, -1, -11.6638, 6.21276, 22.181, 13.2041, 86.2901, -118.356
2.33603, -1, -11.9326, 6.07421, 22.2358, 13.2078, 86.1453, -118.722
2.34261, -1, -12.0223, 6.02807, 22.254, 13.209, 86.0969, -118.845
2.35214, -1, -12.2914, 5.8899, 22.3086, 13.2128, 85.9523, -119.211
2.36019, -1, -12.4714, 5.79788, 22.345, 13.2152, 85.856, -119.455
2.36823, -1, -12.6516, 5.70586, 22.3811, 13.2177, 85.7596, -119.699
2.37647, -1, -12.8322, 5.61391, 22.4175, 13.2201, 85.6634, -119.943
2.38419, -1, -12.9227, 5.56797, 22.4357, 13.2225, 85.5676, -120.187
2.3923, -1, -13.1038, 5.47601, 22.472, 13.225, 85.4715, -120.43
2.3996, -1, -13.2851, 5.38399, 22.5082, 13.2262, 85.4235, -120.552
2.40756, -1, -13.4661, 5.29208, 22.5445, 13.2287, 85.3279, -120.796
2.4156, -1, -13.6467, 5.20019, 22.5807, 13.2313, 85.2319, -121.039
2.42365, -1, -13.827, 5.10833, 22.6167, 13.2338, 85.1362, -121.282
2.4306, -1, -14.0066, 5.0165, 22.653, 13.2365, 85.0406, -121.525
2.4396, -1, -14.1853, 4.92482, 22.6892, 13.239, 84.945, -121.768
2.44765, -1, -14.3636, 4.83312, 22.7253, 13.2416, 84.8494, -122.011
2.4556, -1, -14.5416, 4.74146, 22.7616, 13.2441, 84.7539, -122.253
2.46362, -1, -14.7192, 4.64987, 22.7978, 13.2467, 84.6582, -122.495
2.47166, -1, -14.8967, 4.55836, 22.8338, 13.2491, 84.5624, -122.738
2.4786, -1, -15.0745, 4.46693, 22.87, 13.2516, 84.4668, -122.98
2.48759, -1, -15.2525, 4.37563, 22.9062, 13.2541, 84.3711, -123.222
2.4946, -1, -15.4309, 4.28429, 22.9422, 13.2564, 84.2754, -123.464
2.5036, -1, -15.6098, 4.19301, 22.9783, 13.2588, 84.18, -123.706
2.51161, -1, -15.789, 4.10178, 23.0143, 13.2611, 84.0843, -123.947
2.51968, -1, -15.9682, 4.01054, 23.0502, 13.2634, 83.9889, -124.189
2.52764, -1, -16.1479, 3.91926, 23.0863, 13.2655, 83.8935, -124.43
2.53662, -1, -16.3276, 3.82806, 23.1223, 13.2677, 83.7981, -124.672
2.54367, -1, -16.507, 3.73684, 23.1581, 13.2699, 83.7026, -124.913
2.55161, -1, -16.686, 3.64572, 23.194, 13.2721, 83.6072, -125.155
2.55975, -1, -16.8644, 3.55465, 23.2298, 13.2744, 83.5119, -125.396
2.5676, -1, -17.042, 3.46365, 23.2656, 13.2766, 83.4165, -125.636
2.5756, -1, -17.2189, 3.3727, 23.3015, 13.2788, 83.3212, -125.877
2.58367, -1, -17.3954, 3.2818, 23.3374, 13.281, 83.2262, -126.118
2.59165, -1, -17.5717, 3.19094, 23.3731, 13.2832, 83.131, -126.358
2.5996, -1, -17.7477, 3.10028, 23.409, 13.2854, 83.0362, -126.598
2.60767, -1, -17.9237, 3.00967, 23.4449, 13.2874, 82.9415, -126.839
2.6156, -1, -18.1, 2.91918, 23.4806, 13.2896, 82.8466, -127.079
2.6236, -1, -18.2766, 2.8288, 23.5163, 13.2917, 82.7519, -127.319
2.6317, -1, -18.4535, 2.73835, 23.5521, 13.2937, 82.6574, -127.559
2.6396, -1, -18.631, 2.64795, 23.5877, 13.2958, 82.5626, -127.798
2.64761, -1, -18.8086, 2.55762, 23.6234, 13.2978, 82.468, -128.038
2.65566, -1, -18.9867, 2.46719, 23.6592, 13.2998, 82.3737, -128.277
2.6636, -1, -19.165, 2.37673, 23.6947, 13.3018, 82.2792, -128.517
2.67161, -1, -19.3432, 2.28636, 23.7303, 13.3038, 82.1848, -128.756
2.67967, -1, -19.5209, 2.19601, 23.7659, 13.306, 82.091, -128.995
2.68763, -1, -19.6979, 2.10566, 23.8014, 13.3082, 81.9966, -129.234
2.6956, -1, -19.8744, 2.01537, 23.8368, 13.3103, 81.9024, -129.473
2.70367, -1, -20.0502, 1.92512, 23.8724, 13.3125, 81.8085, -129.712
2.71162, -1, -20.2254, 1.83493, 23.9079, 13.3147, 81.7143, -129.95
2.71971, -1, -20.4002, 1.74481, 23.9433, 13.3169, 81.6203, -130.189
2.72771, -1, -20.5748, 1.65471, 23.9789, 13.3191, 81.5266, -130.427
2.73569, -1, -20.7493, 1.56473, 24.0144, 13.3213, 81.4325, -130.666
2.74376, -1, -20.9239, 1.47486, 24.0498, 13.3235, 81.3388, -130.903
2.75172, -1, -21.0989, 1.38515, 24.0853, 13.3256, 81.2452, -131.141
2.75975, -1, -21.2743, 1.29535, 24.1208, 13.3278, 81.1513, -131.379
2.76778, -1, -21.45, 1.20564, 24.1562, 13.33, 81.0574, -131.617
2.7756, -1, -21.626, 1.11602, 24.1915, 13.3322, 80.9637, -131.855
2.78445, -1, -21.8022, 1.02637, 24.227, 13.3343, 80.8698, -132.092
2.79166, -1, -21.9787, 0.93672, 24.2624, 13.3365, 80.776, -132.329
2.7997, -1, -22.1552, 0.847147, 24.2977, 13.3386, 80.6824, -132.567
2.8086, -1, -22.3317, 0.757642, 24.3331, 13.3408, 80.5887, -132.804
2.81584, -1, -22.5078, 0.668134, 24.3683, 13.3431, 80.4951, -133.041
2.82395, -1, -22.6834, 0.578606, 24.4035, 13.3455, 80.4015, -133.278
2.83281, -1, -22.8584, 0.489195, 24.4388, 13.3479, 80.3079, -133.514
2.84003, -1, -23.0323, 0.399761, 24.4739, 13.3503, 80.2143, -133.751
2.84813, -1, -23.206, 0.310416, 24.509, 13.3527, 80.1208, -133.988
2.85703, -1, -23.3792, 0.221037, 24.5442, 13.3552, 80.0274, -134.224
2.86418, -1, -23.5524, 0.131799, 24.5794, 13.3576, 79.934, -134.461
2.87219, -1, -23.7256, 0.0426698, 24.6145, 13.3599, 79.8406, -134.697
2.88112, -1, -23.8123, -0.0464015, 24.6497, 13.3624, 79.7477, -134.933
2.88667, -1, -23.9857, -0.0908654, 24.6673, 13.3637, 79.701, -135.051
2.89625, -1, -24.1594, -0.179861, 24.7023, 13.3661, 79.5613, -135.405
2.90358, -1, -24.3333, -0.268837, 24.7373, 13.3685, 79.5149, -135.522
2.9116, -1, -24.5076, -0.357696, 24.7725, 13.3709, 79.4218, -135.758
2.91963, -1, -24.6822, -0.44658, 24.8076, 13.3733, 79.3287, -135.994
2.92765, -1, -24.8571, -0.535477, 24.8425, 13.3757, 79.2357, -136.229
2.93465, -1, -25.0323, -0.624306, 24.8777, 13.3781, 79.1428, -136.465
2.94362, -1, -25.2071, -0.713076, 24.9127, 13.3806, 79.0498, -136.699
2.95159, -1, -25.3816, -0.801807, 24.9476, 13.383, 78.9571, -136.934
2.95966, -1, -25.5557, -0.890653, 24.9827, 13.3854, 78.8645, -137.17
2.96761, -1, -25.7293, -0.979417, 25.0175, 13.3879, 78.7716, -137.405
2.97558, -1, -25.9022, -1.06809, 25.0523, 13.3902, 78.679, -137.639
2.98367, -1, -26.0748, -1.15686, 25.0874, 13.3927, 78.5868, -137.874
2.99158, -1, -26.2469, -1.2455, 25.1223, 13.3951, 78.494, -138.108
2.99958, -1, -26.4186, -1.33401, 25.1571, 13.3975, 78.4014, -138.342
3.00661, -1, -26.5905, -1.42246, 25.192, 13.3998, 78.3092, -138.577
3.01559, -1, -26.7624, -1.51077, 25.227, 13.4021, 78.2165, -138.811
3.02458, -1, -26.9347, -1.59898, 25.2619, 13.4044, 78.1242, -139.045
3.03165, -1, -27.1071, -1.68716, 25.2967, 13.4066, 78.0321, -139.279
3.04069, -1, -27.2797, -1.77543, 25.3316, 13.4087, 77.9399, -139.513
3.04759, -1, -27.4527, -1.86352, 25.3664, 13.411, 77.8478, -139.747
3.05566, -1, -27.6258, -1.95162, 25.4012, 13.4131, 77.7559, -139.98
3.06362, -1, -27.799, -2.03985, 25.4361, 13.4152, 77.6638, -140.214
3.07158, -1, -27.9723, -2.12787, 25.4709, 13.4173, 77.5717, -140.447
3.07961, -1, -28.1455, -2.21592, 25.5056, 13.4193, 77.4798, -140.68
3.08759, -1, -28.3186, -2.30396, 25.5405, 13.4213, 77.3877, -140.913
3.09569, -1, -28.4914, -2.39205, 25.5752, 13.4234, 77.2956, -141.146
3.1036, -1, -28.6638, -2.48, 25.6099, 13.4256, 77.2035, -141.379
3.11158, -1, -28.8356, -2.56803, 25.6446, 13.4277, 77.1116, -141.612
3.11965, -1, -29.0066, -2.65602, 25.6793, 13.4299, 77.0196, -141.845
3.12759, -1, -29.1773, -2.74391, 25.7138, 13.4322, 76.9277, -142.077
3.1356, -1, -29.3478, -2.83172, 25.7485, 13.4342, 76.836, -142.31
3.14365, -1, -29.5185, -2.91943, 25.7833, 13.4363, 76.744, -142.542
3.15159, -1, -29.6894, -3.00701, 25.8178, 13.4383, 76.6522, -142.775
3.15959, -1, -29.8604, -3.09457, 25.8524, 13.4402, 76.5606, -143.007
3.16765, -1, -30.0314, -3.18205, 25.887, 13.4424, 76.4686, -143.239
3.1761, -1, -30.2024, -3.26956, 25.9215, 13.4445, 76.3769, -143.471
3.18359, -1, -30.3736, -3.35703, 25.9561, 13.4466, 76.2854, -143.703
3.19167, -1, -30.5451, -3.44445, 25.9907, 13.4486, 76.1938, -143.935
3.20109, -1, -30.7168, -3.53199, 26.0251, 13.4506, 76.1024, -144.166
3.20858, -1, -30.8886, -3.61933, 26.0596, 13.4527, 76.0112, -144.398
3.21567, -1, -31.0604, -3.70674, 26.0942, 13.4546, 75.9197, -144.629
3.22378, -1, -31.232, -3.79405, 26.1286, 13.4567, 75.8283, -144.861
3.23169, -1, -31.4034, -3.88134, 26.163, 13.4588, 75.7371, -145.092
3.23975, -1, -31.5744, -3.96864, 26.1975, 13.4609, 75.6458, -145.323
3.24812, -1, -31.7449, -4.05586, 26.2319, 13.4631, 75.5545, -145.554
3.25569, -1, -31.9149, -4.14312, 26.2663, 13.4653, 75.4634, -145.785
3.26381, -1, -32.0846, -4.23034, 26.3007, 13.4675, 75.3724, -146.016
3.27217, -1, -32.254, -4.31744, 26.3351, 13.4697, 75.2811, -146.247
3.27961, -1, -32.4234, -4.40452, 26.3693, 13.4719, 75.1901, -146.477
3.28768, -1, -32.5931, -4.49144, 26.4037, 13.474, 75.0995, -146.707
3.29734, -1, -32.7628, -4.57835, 26.4381, 13.4761, 75.0084, -146.938
3.30368, -1, -32.9324, -4.66528, 26.4724, 13.4783, 74.9177, -147.168
3.3118, -1, -33.1021, -4.75221, 26.5065, 13.4805, 74.8272, -147.399
3.32141, -1, -33.272, -4.83911, 26.5409, 13.4827, 74.7364, -147.629
3.32791, -1, -33.442, -4.92599, 26.5752, 13.4849, 74.6458, -147.859
3.33607, -1, -33.6123, -5.01294, 26.6093, 13.4871, 74.5552, -148.088
3.34631, -1, -33.7826, -5.09976, 26.6436, 13.4894, 74.4648, -148.318
3.35213, -1, -33.9528, -5.18648, 26.6778, 13.4916, 74.3742, -148.548
3.36012, -1, -34.1231, -5.27324, 26.7119, 13.4938, 74.2837, -148.778
3.36902, -1, -34.2932, -5.35999, 26.7462, 13.4961, 74.1933, -149.007
3.37616, -1, -34.4632, -5.44659, 26.7804, 13.4984, 74.1025, -149.236
3.38416, -1, -34.5481, -5.53326, 26.8145, 13.5007, 74.0119, -149.466
3.39304, -1, -34.7173, -5.57662, 26.8315, 13.5019, 73.9668, -149.695
3.40037, -1, -34.886, -5.66324, 26.8828, 13.5056, 73.8309, -149.924
3.40757, -1, -35.0544, -5.74976, 26.8999, 13.5068, 73.7857, -150.038
3.41557, -1, -35.2227, -5.83624, 26.9339, 13.5093, 73.6954, -150.267
3.42357, -1, -35.3909, -5.92261, 26.968, 13.5117, 73.605, -150.496
3.43162, -1, -35.5595, -6.00882, 27.0022, 13.5141, 73.5147, -150.725
3.43963, -1, -35.7281, -6.09509, 27.0361, 13.5164, 73.4243, -150.954
3.44757, -1, -35.8967, -6.18127, 27.0701, 13.5188, 73.3342, -151.183
3.45557, -1, -36.0651, -6.2674, 27.1042, 13.5212, 73.2436, -151.411
3.46363, -1, -36.2336, -6.3535, 27.1382, 13.5236, 73.1532, -151.64
3.47158, -1, -36.4023, -6.43973, 27.1721, 13.5261, 73.063, -151.868
3.47957, -1, -36.5712, -6.52595, 27.2061, 13.5284, 72.9725, -152.096
3.48762, -1, -36.74, -6.61211, 27.24, 13.5307, 72.8823, -152.324
3.49461, -1, -36.909, -6.69828, 27.2739, 13.533, 72.7923, -152.552
3.50357, -1, -37.078, -6.78444, 27.3078, 13.5353, 72.7021, -152.781
3.51157, -1, -37.2467, -6.87054, 27.3417, 13.5375, 72.6121, -153.008
3.52113, -1, -37.4153, -6.95657, 27.3755, 13.5399, 72.5223, -153.35
3.52763, -1, -37.5834, -7.04265, 27.4095, 13.5421, 72.4324, -153.463
3.53661, -1, -37.7512, -7.12867, 27.4435, 13.5443, 72.3425, -153.691
3.54363, -1, -37.9188, -7.21464, 27.4773, 13.5466, 72.2528, -153.919
3.55157, -1, -38.0862, -7.30051, 27.5111, 13.5488, 72.163, -154.146
3.55957, -1, -38.2536, -7.38637, 27.5451, 13.551, 72.0732, -154.373
3.56759, -1, -38.4209, -7.47209, 27.5789, 13.5532, 71.9835, -154.601
3.57558, -1, -38.5881, -7.55778, 27.6127, 13.5552, 71.8941, -154.828
3.58364, -1, -38.7554, -7.64349, 27.6466, 13.5573, 71.8044, -155.055
3.59157, -1, -38.9228, -7.72918, 27.6803, 13.5594, 71.7149, -155.282
3.59962, -1, -39.0901, -7.81481, 27.714, 13.5614, 71.6258, -155.509
3.60763, -1, -39.2576, -7.90048, 27.7478, 13.5634, 71.5362, -155.736
3.61558, -1, -39.4251, -7.98619, 27.7817, 13.5654, 71.4469, -155.962
3.62358, -1, -39.5928, -8.07175, 27.8153, 13.5674, 71.3576, -156.189
3.63163, -1, -39.7604, -8.15728, 27.8489, 13.5693, 71.2683, -156.416
3.63957, -1, -39.928, -8.24276, 27.8827, 13.5713, 71.1789, -156.642
3.64757, -1, -40.0956, -8.32821, 27.9164, 13.5733, 71.0895, -156.868
3.65565, -1, -40.2631, -8.41357, 27.9501, 13.5753, 71.0004, -157.095
3.66356, -1, -40.4304, -8.49897, 27.9839, 13.5772, 70.911, -157.321
3.67164, -1, -40.5974, -8.58438, 28.0174, 13.5792, 70.8218, -157.547
3.67964, -1, -40.7643, -8.66976, 28.051, 13.5812, 70.7329, -157.773
3.68757, -1, -40.9308, -8.75512, 28.0847, 13.5832, 70.6436, -157.999
3.69567, -1, -41.0972, -8.84045, 28.1185, 13.5852, 70.5544, -158.225
3.70359, -1, -41.2635, -8.92568, 28.152, 13.5872, 70.4654, -158.451
3.71157, -1, -41.4296, -9.01082, 28.1856, 13.5892, 70.3761, -158.676
3.71978, -1, -41.5959, -9.09601, 28.2193, 13.5913, 70.2869, -158.901
3.72764, -1, -41.7622, -9.18108, 28.2528, 13.5933, 70.1979, -159.127
3.73568, -1, -41.9286, -9.26612, 28.2864, 13.5953, 70.1088, -159.352
3.74419, -1, -42.095, -9.35114, 28.3201, 13.5973, 70.0198, -159.578
3.75167, -1, -42.2612, -9.43623, 28.3536, 13.5994, 69.9308, -159.803
3.75967, -1, -42.4274, -9.52125, 28.3871, 13.6013, 69.842, -160.029
3.76822, -1, -42.5939, -9.60623, 28.4207, 13.6034, 69.7529, -160.254
3.77558, -1, -42.7603, -9.69118, 28.4543, 13.6054, 69.6641, -160.479
3.7836, -1, -42.9267, -9.77615, 28.4876, 13.6074, 69.5755, -160.704
3.79166, -1, -43.0931, -9.86107, 28.5212, 13.6095, 69.4865, -160.929
3.80052, -1, -43.2593, -9.94601, 28.5547, 13.6116, 69.3978, -161.154
3.80771, -1, -43.4255, -10.0309, 28.5882, 13.6136, 69.3093, -161.378
3.81582, -1, -43.5914, -10.1158, 28.6217, 13.6157, 69.2206, -161.603
3.82466, -1, -43.7573, -10.2008, 28.6552, 13.6178, 69.1321, -161.828
3.83191, -1, -43.9232, -10.2856, 28.6886, 13.62, 69.0436, -162.053
3.84, -1, -44.0888, -10.3704, 28.722, 13.6221, 68.9552, -162.277
3.84655, -1, -44.1714, -10.4127, 28.7388, 13.6232, 68.9108, -162.389
3.85606, -1, -44.4192, -10.5396, 28.789, 13.6265, 68.7778, -162.726
3.86257, -1, -44.5019, -10.5819, 28.8057, 13.6276, 68.7336, -162.838
3.87288, -1, -44.7496, -10.7087, 28.8558, 13.6308, 68.6006, -163.174
3.88023, -1, -44.9149, -10.7931, 28.8893, 13.6331, 68.5121, -163.398
3.88821, -1, -45.0803, -10.8776, 28.9227, 13.6353, 68.4239, -163.622
3.89635, -1, -45.1629, -10.9198, 28.9394, 13.6364, 68.3797, -163.846
3.90411, -1, -45.3282, -11.0044, 28.9728, 13.6386, 68.2911, -163.958
3.91164, -1, -45.4935, -11.0888, 29.0062, 13.6409, 68.2027, -164.182
3.91959, -1, -45.6588, -11.1733, 29.0393, 13.6432, 68.1147, -164.406
3.92854, -1, -45.8241, -11.2578, 29.0894, 13.6466, 67.9821, -164.741
3.93566, -1, -45.9882, -11.3416, 29.1061, 13.6477, 67.9378, -164.853
3.94355, -1, -46.1496, -11.4239, 29.1395, 13.6501, 67.8498, -165.076
3.95156, -1, -46.3065, -11.5033, 29.1731, 13.6525, 67.7623, -165.297
3.9596, -1, -46.4566, -11.5783, 29.2066, 13.6548, 67.6772, -165.512
3.96756, -1, -46.5978, -11.6481, 29.2389, 13.6571, 67.5957, -165.718
3.97556, -1, -46.7272, -11.7114, 29.2687, 13.6594, 67.5212, -165.908
3.9836, -1, -46.8421, -11.7674, 29.295, 13.6613, 67.4542, -166.076
3.99155, -1, -46.9406, -11.8165, 29.3171, 13.663, 67.3986, -166.218
3.99955, -1, -47.023, -11.8593, 29.3336, 13.6643, 67.3538, -166.331
4.00762, -1, -47.09, -11.896, 29.3448, 13.665, 67.3203, -166.415
4.01556, -1, -47.1422, -11.9254, 29.3519, 13.6655, 67.2972, -166.473
4.02356, -1, -47.181, -11.9474, 29.3558, 13.6657, 67.2823, -166.511
4.03164, -1, -47.2084, -11.9628, 29.3576, 13.6658, 67.2735, -166.533
4.04066, -1, -47.2265, -11.9728, 29.3584, 13.6658, 67.2689, -166.545
4.04756, -1, -47.2373, -11.9786, 29.3588, 13.6659, 67.2666, -166.551
4.05563, 2, -47.2429, -11.9815, 29.359, 13.666, 67.2655, -166.553
4.06355, 2, -47.2449, -11.9828, 29.3592, 13.6661, 67.2649, -166.554
4.07157, 2, -47.2449, -11.9833, 29.3593, 13.666, 67.2647, -166.555
4.07962, 2, -47.2446, -11.9834, 29.3593, 13.6661, 67.2645, -166.555
4.08755, 2, -47.2446, -11.9835, 29.3593, 13.6661, 67.2645, -166.555
4.09557, 2, -47.245, -11.9836, 29.3594, 13.6661, 67.2645, -166.555
4.10366, 2, -47.2459, -11.9838, 29.3594, 13.6661, 67.2645, -166.555
4.11547, 2, -47.248, -11.9847, 29.3594, 13.6661, 67.2644, -166.555
4.11955, 2, -47.249, -11.9851, 29.3594, 13.6661, 67.2645, -166.555
4.12762, 2, -47.2506, -11.986, 29.3594, 13.6661, 67.2645, -166.555
4.13556, 2, -47.252, -11.9868, 29.3594, 13.6661, 67.2645, -166.555
4.14355, 2, -47.2529, -11.9875, 29.3594, 13.6661, 67.2645, -166.555
4.15166, 2, -47.2533, -11.9879, 29.3594, 13.6661, 67.2645, -166.555
4.15955, 2, -47.2535, -11.9881, 29.3594, 13.6661, 67.2645, -166.555
4.16756, 2, -47.2536, -11.9882, 29.3594, 13.6661, 67.2645, -166.555
4.17562, 2, -47.2532, -11.9881, 29.3594, 13.6661, 67.2645, -166.555
4.18355, 2, -47.2528, -11.9881, 29.3594, 13.6661, 67.2645, -166.555
4.19155, 2, -47.2523, -11.9881, 29.3594, 13.6661, 67.2645, -166.555
4.19964, 2, -47.252, -11.988, 29.3595, 13.6661, 67.2645, -166.555
4.20757, 2, -47.2518, -11.9881, 29.3595, 13.6661, 67.2645, -166.555
4.21557, 2, -47.2518, -11.9881, 29.3594, 13.666, 67.2645, -166.555
4.22366, 2, -47.2519, -11.9883, 29.3594, 13.6661, 67.2645, -166.555
4.23163, 2, -47.2521, -11.9886, 29.3595, 13.6661, 67.2645, -166.555
4.23966, 2, -47.2528, -11.989, 29.3595, 13.6661, 67.2645, -166.555
4.24771, 2, -47.2533, -11.9893, 29.3594, 13.6661, 67.2645, -166.555
4.25566, 2, -47.2536, -11.9894, 29.3595, 13.6661, 67.2645, -166.555
4.26366, 2, -47.2537, -11.9895, 29.3595, 13.6661, 67.2645, -166.555
4.27177, 2, -47.2538, -11.9895, 29.3594, 13.666, 67.2645, -166.555
4.27955, 2, -47.2537, -11.9895, 29.3594, 13.666, 67.2645, -166.555
4.28759, 2, -47.2535, -11.9894, 29.3594, 13.6661, 67.2645, -166.555
4.29568, 2, -47.253, -11.9894, 29.3595, 13.666, 67.2645, -166.555
4.30366, 2, -47.2527, -11.9893, 29.3595, 13.666, 67.2645, -166.555
4.31186, 2, -47.2524, -11.9893, 29.3595, 13.666, 67.2645, -166.555
4.31979, 2, -47.2523, -11.9893, 29.3595, 13.666, 67.2645, -166.555
4.32779, 2, -47.2522, -11.9894, 29.3595, 13.666, 67.2645, -166.555
4.336, 2, -47.2522, -11.9894, 29.3595, 13.6661, 67.2645, -166.555
4.344, 2, -47.2521, -11.9895, 29.3595, 13.6661, 67.2646, -166.555
4.35065, 2, -47.2521, -11.9896, 29.3595, 13.666, 67.2646, -166.555
4.36032, 2, -47.2521, -11.9896, 29.3594, 13.666, 67.2646, -166.555
4.36813, 2, -47.2521, -11.9896, 29.3594, 13.666, 67.2645, -166.555
4.37612, 2, -47.2521, -11.9896, 29.3594, 13.666, 67.2646, -166.555
4.38417, 2, -47.2521, -11.9896, 29.3594, 13.666, 67.2646, -166.555
4.39217, 2, -47.252, -11.9895, 29.3594, 13.666, 67.2646, -166.555
4.40006, 2, -47.252, -11.9895, 29.3594, 13.666, 67.2645, -166.555
4.40757, 2, -47.2519, -11.9894, 29.3595, 13.666, 67.2646, -166.555
4.4156, 2, -47.2518, -11.9893, 29.3595, 13.666, 67.2645, -166.555
4.42355, 2, -47.2517, -11.9893, 29.3595, 13.666, 67.2645, -166.555
4.43154, 2, -47.2516, -11.9893, 29.3595, 13.6659, 67.2646, -166.555
4.43963, 2, -47.2515, -11.9893, 29.3594, 13.666, 67.2646, -166.555
4.44754, 2, -47.2514, -11.9894, 29.3595, 13.666, 67.2646, -166.555
4.45555, 2, -47.2514, -11.9894, 29.3594, 13.666, 67.2646, -166.555
4.46361, 2, -47.2513, -11.9894, 29.3595, 13.666, 67.2646, -166.555
4.47154, 2, -47.2513, -11.9894, 29.3594, 13.666, 67.2646, -166.555
4.47963, 2, -47.2512, -11.9894, 29.3594, 13.666, 67.2646, -166.555
4.48759, 2, -47.2512, -11.9894, 29.3594, 13.666, 67.2646, -166.555
4.49554, 2, -47.2511, -11.9893, 29.3594, 13.666, 67.2646, -166.555
4.50355, 2, -47.251, -11.9893, 29.3595, 13.666, 67.2646, -166.555
4.51161, 2, -47.2509, -11.9892, 29.3595, 13.666, 67.2646, -166.555
4.51954, 2, -47.2508, -11.9891, 29.3594, 13.666, 67.2647, -166.555
4.52754, 2, -47.2508, -11.9891, 29.3594, 13.666, 67.2646, -166.555
4.53655, 2, -47.2507, -11.9891, 29.3594, 13.666, 67.2647, -166.555
4.54358, 2, -47.2506, -11.9891, 29.3594, 13.666, 67.2647, -166.555
4.55255, 2, -47.2505, -11.9891, 29.3594, 13.666, 67.2647, -166.555
4.5596, 2, -47.2504, -11.9891, 29.3595, 13.666, 67.2647, -166.555
4.56754, 2, -47.2503, -11.9891, 29.3595, 13.666, 67.2647, -166.555
4.57556, 2, -47.2502, -11.9891, 29.3595, 13.6659, 67.2647, -166.555
4.58362, 2, -47.25, -11.9891, 29.3595, 13.6659, 67.2647, -166.555
4.59154, 2, -47.2499, -11.9891, 29.3595, 13.6659, 67.2646, -166.555
4.59955, 2, -47.2498, -11.989, 29.3594, 13.6659, 67.2646, -166.555
4.60765, 2, -47.2498, -11.9889, 29.3594, 13.6659, 67.2647, -166.555
4.61554, 2, -47.2497, -11.9889, 29.3595, 13.6659, 67.2647, -166.555
4.62355, 2, -47.2495, -11.9888, 29.3594, 13.6659, 67.2647, -166.555
4.6316, 2, -47.2494, -11.9888, 29.3595, 13.6659, 67.2647, -166.555
4.63953, 2, -47.2493, -11.9888, 29.3595, 13.6659, 67.2647, -166.555
4.64754, 2, -47.2492, -11.9888, 29.3594, 13.6659, 67.2647, -166.555
4.6556, 2, -47.2491, -11.9888, 29.3595, 13.6659, 67.2647, -166.555
4.66355, 2, -47.2491, -11.9888, 29.3595, 13.6659, 67.2647, -166.555
4.67155, 2, -47.249, -11.9888, 29.3595, 13.6659, 67.2647, -166.555
4.6796, 2, -47.249, -11.9888, 29.3595, 13.6659, 67.2647, -166.555
4.68754, 2, -47.2489, -11.9888, 29.3595, 13.6658, 67.2647, -166.555
4.69555, 2, -47.2489, -11.9887, 29.3594, 13.6658, 67.2647, -166.555
4.70363, 2, -47.2488, -11.9887, 29.3595, 13.6658, 67.2647, -166.555
4.71156, 2, -47.2487, -11.9886, 29.3595, 13.6659, 67.2647, -166.555
4.71956, 2, -47.2487, -11.9885, 29.3594, 13.6659, 67.2647, -166.555
4.72764, 2, -47.2486, -11.9885, 29.3594, 13.6658, 67.2647, -166.555
4.73562, 2, -47.2485, -11.9885, 29.3594, 13.6658, 67.2648, -166.555
4.74376, 2, -47.2485, -11.9884, 29.3594, 13.6658, 67.2648, -166.555
4.7517, 2, -47.2484, -11.9884, 29.3594, 13.6658, 67.2647, -166.555
4.75964, 2, -47.2483, -11.9884, 29.3594, 13.6658, 67.2647, -166.555
4.76764, 2, -47.2483, -11.9884, 29.3594, 13.6658, 67.2647, -166.555
4.77575, 2, -47.2483, -11.9884, 29.3594, 13.6658, 67.2647, -166.555
4.78355, 2, -47.2483, -11.9884, 29.3594, 13.6657, 67.2647, -166.555
4.79157, 2, -47.2483, -11.9884, 29.3594, 13.6657, 67.2648, -166.555
4.79963, 2, -47.2482, -11.9884, 29.3594, 13.6657, 67.2648, -166.555
4.80761, 2, -47.2482, -11.9883, 29.3594, 13.6657, 67.2647, -166.555
4.81604, 2, -47.2481, -11.9883, 29.3594, 13.6656, 67.2648, -166.555
4.8238, 2, -47.248, -11.9882, 29.3594, 13.6657, 67.2648, -166.555
4.83179, 2, -47.2479, -11.9881, 29.3594, 13.6656, 67.2648, -166.555
4.84026, 2, -47.2478, -11.9881, 29.3594, 13.6656, 67.2648, -166.555
4.84799, 2, -47.2478, -11.9881, 29.3594, 13.6656, 67.2648, -166.554
4.85453, 2, -47.2477, -11.9881, 29.3594, 13.6656, 67.2648, -166.554
4.86442, 2, -47.2477, -11.9881, 29.3594, 13.6656, 67.2648, -166.554
4.87212, 2, -47.2476, -11.9881, 29.3594, 13.6656, 67.2648, -166.554
4.88013, 2, -47.2476, -11.9881, 29.3594, 13.6656, 67.2648, -166.554
4.88838, 2, -47.2475, -11.988, 29.3594, 13.6656, 67.2649, -166.554
4.89616, 2, -47.2475, -11.988, 29.3594, 13.6656, 67.2649, -166.554
4.90405, 2, -47.2475, -11.988, 29.3594, 13.6656, 67.2649, -166.554
4.9124, 2, -47.2475, -11.9879, 29.3594, 13.6656, 67.2649, -166.554
4.91958, 2, -47.2475, -11.9879, 29.3594, 13.6656, 67.2649, -166.554
4.92753, 2, -47.2474, -11.9878, 29.3594, 13.6656, 67.2649, -166.554
4.93575, 2, -47.2473, -11.9878, 29.3594, 13.6656, 67.265, -166.554
4.94363, 2, -47.2472, -11.9878, 29.3594, 13.6655, 67.2649, -166.554
4.95163, 2, -47.2472, -11.9877, 29.3594, 13.6655, 67.265, -166.554
4.95952, 2, -47.2471, -11.9877, 29.3594, 13.6655, 67.265, -166.554
4.96758, 2, -47.247, -11.9877, 29.3594, 13.6655, 67.265, -166.554
4.97552, 2, -47.247, -11.9877, 29.3594, 13.6655, 67.265, -166.554
4.98353, 2, -47.247, -11.9877, 29.3594, 13.6655, 67.265, -166.554
4.99158, 2, -47.2469, -11.9877, 29.3594, 13.6655, 67.265, -166.554
4.99952, 2, -47.247, -11.9877, 29.3594, 13.6655, 67.265, -166.554
5.00752, 2, -47.2469, -11.9877, 29.3595, 13.6654, 67.265, -166.554
5.01559, 2, -47.2469, -11.9876, 29.3595, 13.6655, 67.265, -166.554
5.02353, 2, -47.2469, -11.9875, 29.3594, 13.6654, 67.265, -166.554
5.03152, 2, -47.2468, -11.9875, 29.3594, 13.6654, 67.2651, -166.554
5.0396, 2, -47.2467, -11.9875, 29.3594, 13.6654, 67.2651, -166.554
5.04862, 2, -47.2466, -11.9874, 29.3594, 13.6654, 67.2651, -166.554
5.05797, 2, -47.2466, -11.9874, 29.3594, 13.6653, 67.265, -166.554
5.0636, 2, -47.2465, -11.9874, 29.3594, 13.6653, 67.2651, -166.554
5.07152, 2, -47.2464, -11.9874, 29.3594, 13.6653, 67.2651, -166.554
5.07955, 2, -47.2464, -11.9874, 29.3594, 13.6653, 67.2651, -166.554
5.08759, 2, -47.2463, -11.9873, 29.3594, 13.6653, 67.2651, -166.554
5.09552, 2, -47.2463, -11.9873, 29.3594, 13.6653, 67.2651, -166.554
5.10353, 2, -47.2463, -11.9873, 29.3594, 13.6653, 67.2651, -166.554
5.11165, 2, -47.2463, -11.9873, 29.3594, 13.6653, 67.2651, -166.554
5.11952, 4, -47.2463, -11.9873, 29.3594, 13.6652, 67.2651, -166.554
5.12752, 4, -47.2463, -11.9872, 29.3594, 13.6652, 67.2651, -166.554
5.13559, 4, -47.2462, -11.9872, 29.3594, 13.6652, 67.2651, -166.554
5.14354, 4, -47.2461, -11.9871, 29.3594, 13.6652, 67.2651, -166.554
5.15152, 4, -47.2461, -11.9871, 29.3594, 13.6651, 67.2651, -166.554
5.15958, 4, -47.246, -11.9871, 29.3594, 13.6652, 67.2651, -166.554
5.16752, 4, -47.246, -11.987, 29.3594, 13.6651, 67.2651, -166.554
5.17552, 4, -47.2459, -11.987, 29.3594, 13.6651, 67.2651, -166.554
5.1836, 4, -47.2459, -11.987, 29.3594, 13.6651, 67.2651, -166.554
5.19152, 4, -47.2458, -11.987, 29.3594, 13.6651, 67.2651, -166.554
5.19952, 4, -47.2458, -11.987, 29.3594, 13.6651, 67.2651, -166.554
5.20761, 4, -47.2458, -11.987, 29.3594, 13.665, 67.2651, -166.554
5.2157, 4, -47.2458, -11.987, 29.3594, 13.6651, 67.2652, -166.554
5.23105, 4, -47.2458, -11.9869, 29.3594, 13.665, 67.2652, -166.554
5.23304, 4, -47.2458, -11.9869, 29.3594, 13.665, 67.2652, -166.554
5.23982, 4, -47.2457, -11.9869, 29.3594, 13.665, 67.2652, -166.553
5.24868, 4, -47.2457, -11.9868, 29.3594, 13.665, 67.2653, -166.553
5.26027, 4, -47.2456, -11.9868, 29.3594, 13.665, 67.2652, -166.553
5.26379, 4, -47.2455, -11.9868, 29.3594, 13.665, 67.2652, -166.553
5.27362, 4, -47.2455, -11.9868, 29.3594, 13.6649, 67.2652, -166.553
5.28003, 4, -47.2455, -11.9868, 29.3594, 13.665, 67.2653, -166.553
5.29025, 4, -47.2454, -11.9868, 29.3594, 13.665, 67.2653, -166.553
5.29599, 4, -47.2454, -11.9868, 29.3594, 13.665, 67.2653, -166.553
5.30733, 4, -47.2454, -11.9867, 29.3594, 13.665, 67.2653, -166.553
5.31202, 4, -47.2453, -11.9867, 29.3594, 13.6649, 67.2653, -166.553
5.32147, 4, -47.2453, -11.9867, 29.3594, 13.6649, 67.2653, -166.553
5.32869, 4, -47.2453, -11.9867, 29.3594, 13.6649, 67.2653, -166.553
5.33617, 4, -47.2453, -11.9866, 29.3594, 13.6649, 67.2653, -166.553
5.34827, 4, -47.2452, -11.9866, 29.3594, 13.6649, 67.2653, -166.553
5.35236, 4, -47.2452, -11.9866, 29.3594, 13.6649, 67.2653, -166.553
5.36296, 4, -47.2452, -11.9866, 29.3594, 13.6649, 67.2653, -166.553
5.36911, 4, -47.2451, -11.9865, 29.3594, 13.6649, 67.2653, -166.553
5.37671, 4, -47.2453, -11.9866, 29.3595, 13.6649, 67.2653, -166.553
5.38516, 4, -47.2461, -11.9871, 29.3598, 13.665, 67.2654, -166.553
5.39233, 4, -47.2484, -11.9889, 29.3617, 13.6667, 67.266, -166.553
5.40098, 4, -47.2527, -11.9934, 29.3672, 13.6765, 67.2683, -166.552
5.40927, 5, -47.2598, -12.0024, 29.3798, 13.7014, 67.2747, -166.547
5.41657, 5, -47.2714, -12.0177, 29.4044, 13.7503, 67.2883, -166.537
5.42447, 5, -47.2795, -12.0285, 29.4231, 13.7885, 67.2989, -166.528
5.43342, 5, -47.3162, -12.0774, 29.5139, 13.9778, 67.3523, -166.485
5.44034, 5, -47.3335, -12.0998, 29.5584, 14.0721, 67.3783, -166.463
5.44769, 5, -47.3767, -12.1552, 29.6729, 14.3169, 67.4458, -166.407
5.45568, 5, -47.4327, -12.2254, 29.8238, 14.6437, 67.5353, -166.332
5.47101, 5, -47.5403, -12.359, 30.1219, 15.2907, 67.7093, -166.125
5.4744, 5, -47.6271, -12.4666, 30.3673, 15.8183, 67.8493, -166.063
5.47967, 5, -47.6746, -12.5254, 30.5022, 16.1063, 67.9251, -165.998
5.48765, 5, -47.7769, -12.6522, 30.7944, 16.7215, 68.0857, -165.86
5.49827, 5, -47.9448, -12.8613, 31.2761, 17.7154, 68.3391, -165.641
5.50372, 5, -48.0034, -12.9348, 31.4452, 18.0575, 68.4249, -165.566
5.5117, 5, -48.1232, -13.0854, 31.7907, 18.7491, 68.5958, -165.417
5.51967, 5, -48.2443, -13.2378, 32.1421, 19.4431, 68.7643, -165.27
5.53041, 5, -48.4225, -13.4619, 32.6707, 20.4634, 69.0094, -165.049
5.53573, 5, -48.4791, -13.5339, 32.845, 20.7935, 69.0893, -164.972
5.54369, 6, -48.585, -13.6711, 33.1855, 21.4302, 69.2479, -164.807
5.55174, 6, -48.6774, -13.7972, 33.5114, 22.0266, 69.4069, -164.614
5.55965, 6, -48.7523, -13.9132, 33.8176, 22.5771, 69.5691, -164.38
5.56972, 7, -48.8068, -14.0214, 34.1022, 23.0771, 69.822, -163.929
5.57799, 7, -48.8477, -14.1684, 34.4873, 23.7356, 69.9979, -163.553
5.58747, 8, -48.8494, -14.2541, 34.7199, 24.1223, 70.1796, -163.121
5.59167, 8, -48.8437, -14.2935, 34.8309, 24.3036, 70.2725, -162.884
5.60176, 9, -48.8209, -14.3667, 35.0444, 24.6485, 70.4628, -162.376
5.60773, 9, -48.7854, -14.434, 35.25, 24.9788, 70.6596, -161.83
5.61664, 10, -48.7397, -14.4972, 35.4538, 25.305, 70.8639, -161.254
5.62748, 10, -48.6543, -14.5896, 35.7619, 25.8004, 71.1853, -160.353
5.6327, 11, -48.6219, -14.6206, 35.8653, 25.9692, 71.2963, -160.044
5.64048, 11, -48.5526, -14.6828, 36.074, 26.3139, 71.523, -159.421
5.64765, 11, -48.4785, -14.7455, 36.2847, 26.6683, 71.7543, -158.792
5.65929, 12, -48.3614, -14.8404, 36.5995, 27.2171, 72.1079, -157.838
5.66372, 12, -48.3219, -14.8716, 36.7038, 27.4044, 72.2269, -157.518
5.67354, 13, -48.2427, -14.932, 36.9116, 27.7851, 72.4669, -156.874
5.67966, 13, -48.1625, -14.9902, 37.1175, 28.1737, 72.7094, -156.226
5.68788, 14, -48.08, -15.0481, 37.3214, 28.5694, 72.9546, -155.573
5.69567, 14, -47.9937, -15.107, 37.5245, 28.9708, 73.2023, -154.918
5.70467, 15, -47.9037, -15.166, 37.7261, 29.3756, 73.4511, -154.264
5.71498, 16, -47.8093, -15.2533, 38.0243, 29.9846, 73.823, -153.285
5.71975, 16, -47.7087, -15.2825, 38.123, 30.1869, 73.9457, -152.961
5.72907, 17, -47.6009, -15.3422, 38.3186, 30.5893, 74.1879, -152.317
5.74073, 17, -47.4285, -15.4352, 38.6059, 31.1846, 74.5404, -151.362
5.74468, 17, -47.3686, -15.4668, 38.7004, 31.3803, 74.6544, -151.047
5.7536, 18, -47.2453, -15.5305, 38.8881, 31.768, 74.8772, -150.424
5.75976, 18, -47.1168, -15.5957, 39.0732, 32.1513, 75.0933, -149.81
5.7678, 19, -46.9827, -15.6638, 39.2558, 32.5322, 75.304, -149.202
5.77675, 19, -46.8432, -15.7351, 39.4375, 32.9119, 75.5099, -148.602
5.78841, 20, -46.6245, -15.8453, 39.7069, 33.4803, 75.8118, -147.713
5.79256, 20, -46.5494, -15.8827, 39.7952, 33.6698, 75.9107, -147.42
5.80262, 21, -46.3957, -15.9589, 39.97, 34.0485, 76.1059, -146.837
5.80791, 21, -46.2377, -16.037, 40.1429, 34.427, 76.2974, -146.26
5.81615, 22, -46.0754, -16.1169, 40.3134, 34.804, 76.4848, -145.69
5.82406, 22, -45.9086, -16.198, 40.4805, 35.1787, 76.6681, -145.126
5.83219, 23, -45.7362, -16.2804, 40.6448, 35.5499, 76.8461, -144.567
5.84144, 24, -45.5569, -16.3652, 40.8067, 35.9168, 77.0188, -144.013
5.84825, 24, -45.37, -16.4526, 40.965, 36.2778, 77.1853, -143.465
5.85665, 25, -45.1759, -16.5418, 41.119, 36.6314, 77.3452, -142.924
5.86463, 25, -44.9752, -16.6316, 41.269, 36.9763, 77.4982, -142.387
5.87336, 25, -44.7678, -16.7221, 41.4148, 37.3128, 77.6447, -141.855
5.88045, 26, -44.5532, -16.8141, 41.5556, 37.6407, 77.7854, -141.327
5.88948, 26, -44.3314, -16.9072, 41.6909, 37.9609, 77.9216, -140.802
5.8963, 27, -44.1028, -17.0002, 41.8205, 38.2736, 78.0536, -140.277
5.90532, 27, -43.8676, -17.0926, 41.9439, 38.5789, 78.1826, -139.754
5.91232, 28, -43.7474, -17.1386, 42.0608, 38.8768, 78.3086, -139.23
5.92039, 28, -43.5015, -17.2298, 42.1167, 39.0228, 78.4319, -138.708
5.92764, 29, -43.2483, -17.3193, 42.2234, 39.3089, 78.4927, -138.447
5.93562, 29, -42.9887, -17.4066, 42.3231, 39.5871, 78.6117, -137.925
5.94748, 30, -42.5865, -17.5333, 42.4594, 39.9888, 78.7849, -137.142
5.95167, 30, -42.4483, -17.5744, 42.5012, 40.1184, 78.8412, -136.882
5.96155, 31, -42.022, -17.6936, 42.6162, 40.4947, 79.0057, -136.101
5.96763, 31, -41.8762, -17.7321, 42.6511, 40.616, 79.0594, -135.841
5.97744, 32, -41.4283, -17.8443, 42.7455, 40.967, 79.2164, -135.062
5.9856, 32, -41.1217, -17.9158, 42.7999, 41.1907, 79.3179, -134.544
5.99166, 33, -40.9658, -17.9504, 42.8243, 41.2996, 79.3679, -134.285
6.00156, 33, -40.488, -18.0493, 42.8869, 41.6141, 79.5135, -133.51
6.00807, 34, -40.3258, -18.081, 42.9042, 41.7148, 79.5607, -133.253
6.01563, 34, -39.9981, -18.1424, 42.9331, 41.9102, 79.6532, -132.738
6.02564, 35, -39.6652, -18.2285, 42.9632, 42.189, 79.7873, -131.968
6.03489, 36, -39.1542, -18.2817, 42.9743, 42.3654, 79.874, -131.456
6.04176, 36, -38.8044, -18.3315, 42.9787, 42.5339, 79.9581, -130.945
6.05198, 37, -38.6269, -18.3551, 42.9784, 42.6154, 79.9996, -130.435
6.05573, 37, -38.2677, -18.3999, 42.9727, 42.7726, 80.0806, -130.182
6.06813, 37, -37.9026, -18.4601, 42.9513, 42.9944, 80.1989, -129.422
6.07171, 38, -37.5323, -18.4784, 42.9408, 43.0647, 80.2369, -129.17
6.0797, 38, -37.1574, -18.5125, 42.9149, 43.1995, 80.3122, -128.666
6.09015, 39, -36.5865, -18.5571, 42.8634, 43.388, 80.4201, -127.913
6.09888, 40, -36.1997, -18.5822, 42.8206, 43.5045, 80.4902, -127.414
6.10369, 40, -36.004, -18.5934, 42.7968, 43.5601, 80.5243, -127.166
6.11441, 41, -35.408, -18.6209, 42.7156, 43.7162, 80.6247, -126.422
6.11969, 41, -35.2064, -18.6281, 42.6852, 43.7644, 80.6567, -126.174
6.13079, 42, -34.5943, -18.6447, 42.5845, 43.8987, 80.751, -125.437
6.13666, 42, -34.3886, -18.6485, 42.5477, 43.9398, 80.7811, -125.193
6.14675, 43, -33.767, -18.6552, 42.428, 44.0528, 80.8694, -124.462
6.15706, 43, -33.3478, -18.6557, 42.3407, 44.119, 80.9261, -123.977
6.15984, 43, -33.1361, -18.6546, 42.2949, 44.1498, 80.9534, -123.736
6.1716, 44, -32.7084, -18.6496, 42.1488, 44.2303, 81.0347, -123.017
6.17565, 44, -32.2743, -18.6408, 42.0972, 44.2536, 81.0607, -122.778
6.18512, 45, -31.834, -18.6282, 41.9895, 44.295, 81.1111, -122.302
6.19165, 45, -31.3892, -18.6121, 41.8759, 44.3288, 81.1609, -121.828
6.20163, 46, -30.9421, -18.5926, 41.7562, 44.3548, 81.2084, -121.356
6.20764, 46, -30.4931, -18.5694, 41.6308, 44.373, 81.2537, -120.888
6.21604, 47, -30.0405, -18.5422, 41.4994, 44.3838, 81.2986, -120.421
6.22378, 47, -29.5822, -18.5104, 41.3622, 44.3878, 81.3424, -119.956
6.23167, 48, -29.1173, -18.4743, 41.2189, 44.3841, 81.3844, -119.493
6.24156, 49, -28.6464, -18.4339, 41.0694, 44.3713, 81.4261, -119.032
6.24788, 49, -28.1711, -18.389, 40.9142, 44.3501, 81.468, -118.573
6.25654, 49, -27.6934, -18.3397, 40.7529, 44.3192, 81.5087, -118.115
6.26379, 50, -27.2132, -18.2856, 40.585, 44.2785, 81.5493, -117.658
6.2736, 51, -26.7283, -18.226, 40.4105, 44.2294, 81.5912, -117.202
6.27978, 51, -26.236, -18.1608, 40.2297, 44.1702, 81.6337, -116.747
6.29123, 52, -25.7359, -18.09, 40.042, 44.1012, 81.6761, -116.292
6.29594, 52, -25.2303, -18.0139, 39.8466, 44.0222, 81.7196, -115.839
6.30572, 53, -24.7221, -17.9326, 39.6448, 43.9326, 81.7644, -115.386
6.31189, 53, -24.2118, -17.8457, 39.4369, 43.8332, 81.8091, -114.933
6.32003, 53, -23.697, -17.7526, 39.2211, 43.7236, 81.855, -114.481
6.328, 54, -23.1755, -17.6531, 38.9979, 43.6033, 81.9035, -114.03
6.34153, 55, -22.3773, -17.4918, 38.6499, 43.4019, 81.9789, -113.352
6.34463, 55, -22.1082, -17.4349, 38.5299, 43.3288, 82.0056, -113.126
6.35453, 56, -21.568, -17.3168, 38.2849, 43.1734, 82.0612, -112.673
6.36025, 56, -21.0256, -17.1932, 38.0335, 43.0063, 82.1176, -112.222
6.36967, 57, -20.4784, -17.064, 37.7746, 42.8276, 82.1766, -111.771
6.37633, 57, -19.9224, -16.9292, 37.5096, 42.6378, 82.237, -111.32
6.38457, 57, -19.3575, -16.7883, 37.238, 42.4363, 82.2983, -110.869
6.39471, 58, -18.7863, -16.6411, 36.9601, 42.2223, 82.3621, -110.419
6.40036, 59, -18.2124, -16.4879, 36.6761, 41.9961, 82.4268, -109.97
6.40911, 59, -17.6356, -16.3298, 36.3849, 41.7571, 82.4951, -109.52
6.41639, 59, -17.3448, -16.1674, 36.0873, 41.5048, 82.5652, -109.07
6.42564, 60, -16.4574, -16.0001, 35.7831, 41.2393, 82.6386, -108.621
6.43163, 60, -16.1568, -15.9143, 35.6291, 41.1017, 82.6758, -108.396
6.44497, 61, -14.9446, -15.5595, 34.9988, 40.518, 82.8295, -107.498
6.44764, 61, -14.9446, -15.5595, 34.9988, 40.518, 82.8295, -107.498
6.45893, 62, -14.025, -15.2821, 34.5122, 40.0477, 82.9501, -106.824
6.46523, 63, -13.4006, -15.0899, 34.1826, 39.7181, 83.0327, -106.375
6.47173, 63, -13.0847, -14.9911, 34.0158, 39.5481, 83.0752, -106.15
6.47966, 63, -12.4474, -14.7888, 33.6784, 39.1977, 83.1619, -105.7
6.49161, 64, -11.4822, -14.4752, 33.161, 38.6445, 83.2996, -105.024
6.4957, 64, -11.1575, -14.3674, 32.9852, 38.4522, 83.3481, -104.797
6.50398, 65, -10.4999, -14.1466, 32.6279, 38.0549, 83.4491, -104.343
6.51367, 66, -9.49394, -13.8034, 32.0813, 37.4262, 83.6113, -103.657
6.52538, 66, -8.81355, -13.566, 31.7109, 36.7601, 83.7864, -102.968
6.52768, 67, -8.47172, -13.4445, 31.5237, 36.7601, 83.7864, -102.968
6.53825, 67, -7.78337, -13.1962, 30.953, 36.0579, 83.9741, -102.274
6.54524, 68, -7.08632, -12.9409, 30.7602, 35.8162, 84.1071, -101.809
6.55165, 68, -6.38037, -12.6781, 30.3721, 35.3217, 84.1758, -101.576
6.55971, 69, -5.66765, -12.4098, 29.9806, 34.8144, 84.3182, -101.108
6.56769, 69, -4.95004, -12.1348, 29.5853, 34.2938, 84.4665, -100.638
6.57665, 70, -4.22529, -11.8523, 29.1867, 33.7612, 84.6208, -100.166
6.58363, 70, -3.49146, -11.5626, 28.7872, 33.2161, 84.7807, -99.6921
6.59422, 71, -2.37479, -11.1118, 28.1853, 32.3708, 85.0327, -98.9768
6.59963, 71, -1.99861, -10.9578, 27.983, 32.0815, 85.1206, -98.7374
6.61028, 72, -0.85789, -10.485, 27.3715, 31.1888, 85.3982, -98.0133
6.61888, 72, -0.474317, -10.3245, 27.1662, 30.882, 85.595, -97.5265
6.6237, 73, 0.296822, -9.99874, 26.754, 30.2565, 85.6968, -97.282
6.63405, 73, 1.07237, -9.66518, 26.3407, 29.6192, 85.9069, -96.5462
6.6406, 74, 1.85228, -9.32482, 25.9277, 28.9717, 86.1245, -96.3004
6.65083, 74, 3.02814, -8.80354, 25.3139, 27.9867, 86.4644, -95.5616
6.65824, 75, 3.42088, -8.44974, 24.9114, 27.3231, 86.6986, -95.0685
6.6677, 75, 4.6005, -8.09034, 24.514, 26.6565, 86.9384, -94.5753
6.67268, 76, 4.99401, -7.90912, 24.3175, 26.3234, 87.0604, -94.3288
6.68248, 76, 5.78045, -7.54264, 23.9286, 25.6568, 87.4338, -93.5872
6.68932, 76, 6.56566, -7.17089, 23.5462, 24.9911, 87.561, -93.3398
6.70575, 77, 8.13559, -6.40284, 22.7964, 23.6641, 88.0889, -92.3494
6.70842, 78, 8.52837, -6.20452, 22.6113, 23.3313, 88.227, -92.1015
6.71786, 78, 9.31411, -5.8018, 22.2443, 22.6616, 88.5122, -91.6031
6.72374, 79, 10.1012, -5.39205, 21.8797, 21.985, 88.8114, -91.1007
6.7275, 79, 10.4955, -5.18495, 21.6983, 21.6442, 88.9662, -90.8475
6.73573, 79, 11.2844, -4.76506, 21.3368, 20.9597, 89.2858, -90.337
6.74355, 80, 12.0709, -4.33476, 20.9787, 20.2717, 89.6168, -89.8202
6.75157, 80, 12.8516, -3.89322, 20.6249, 19.5863, 89.9579, -89.2961
6.75963, 81, 13.6259, -3.44356, 20.2769, 18.9099, 90.3071, -88.7658
6.76758, 81, 14.3942, -2.98764, 19.9366, 18.2471, 90.6626, -88.2302
6.77559, 82, 15.1552, -2.52394, 19.6066, 17.6, 91.0222, -87.6919
6.78365, 82, 15.9078, -2.05233, 19.287, 16.9701, 91.3858, -87.1508
6.79224, 83, 16.6489, -1.57388, 18.977, 16.359, 91.7533, -86.6079
6.7995, 83, 17.3775, -1.09024, 18.6765, 15.7674, 92.1256, -86.0642
6.80837, 84, 18.0922, -0.602398, 18.3849, 15.1935, 92.5034, -85.522
6.81556, 84, 18.7914, -0.110512, 18.1017, 14.6389, 92.8882, -84.9809
6.82452, 85, 19.4733, 0.386388, 17.8242, 14.1039, 93.2805, -84.4413
6.83172, 85, 20.1361, 0.888387, 17.5535, 13.5884, 93.6811, -83.9039
6.83973, 85, 20.7811, 1.39472, 17.2888, 13.0924, 94.0884, -83.3688
6.8479, 86, 21.4109, 1.90549, 17.0303, 12.6162, 94.5014, -82.8345
6.8559, 86, 22.0275, 2.42332, 16.7787, 12.1602, 94.9203, -82.2987
6.86459, 87, 22.6324, 2.95122, 16.532, 11.7232, 95.3456, -81.7597
6.872, 87, 23.2268, 3.4896, 16.2895, 11.3047, 95.7778, -81.2161
6.88007, 88, 23.8117, 4.03581, 16.0504, 10.902, 96.2173, -80.6657
6.88887, 88, 24.3863, 4.58987, 15.814, 10.515, 96.6636, -80.1058
6.89609, 89, 24.6694, 5.15463, 15.5823, 10.1426, 97.1176, -79.5353
6.90499, 89, 25.5051, 5.73114, 15.3546, 9.78541, 97.5785, -78.9533
6.91144, 90, 25.7809, 6.02337, 15.2418, 9.61262, 97.811, -78.6577
6.91947, 90, 26.3295, 6.61506, 15.019, 9.27832, 98.2802, -78.0557
6.92755, 91, 26.8697, 7.21553, 14.8015, 8.96033, 98.7548, -77.4399
6.93546, 91, 27.397, 7.82545, 14.5895, 8.6606, 99.2348, -76.8113
6.94368, 92, 27.9118, 8.44639, 14.3825, 8.37983, 99.7197, -76.1715
6.95152, 92, 28.4176, 9.07812, 14.1804, 8.12072, 100.209, -75.5202
6.9597, 93, 28.9168, 9.71962, 13.9831, 7.88312, 100.702, -74.8603
6.96746, 93, 29.4064, 10.3684, 13.7912, 7.66811, 101.197, -74.1938
6.97573, 94, 29.8835, 11.0228, 13.6063, 7.47575, 101.694, -73.519
6.98346, 94, 30.346, 11.6813, 13.4284, 7.30662, 102.19, -72.8378
6.99178, 95, 30.794, 12.3427, 13.2568, 7.16081, 102.684, -72.152
6.99946, 95, 31.2278, 13.0063, 13.0922, 7.0384, 103.175, -71.4604
7.00767, 96, 31.6482, 13.6723, 12.9355, 6.9396, 103.663, -70.7623
7.01553, 96, 32.054, 14.3397, 12.7857, 6.86422, 104.148, -70.0598
7.02343, 97, 32.4437, 15.0078, 12.6421, 6.81328, 104.629, -69.3516
7.03306, 97, 32.8175, 15.6756, 12.5054, 6.78368, 105.34, -68.2785
7.0395, 98, 33.1752, 16.3409, 12.3763, 6.77537, 105.574, -67.9195
7.04851, 98, 33.5173, 17.0023, 12.2557, 6.78941, 106.036, -67.1997
7.0558, 99, 33.8444, 17.6575, 12.1441, 6.82361, 106.489, -66.4777
7.06356, 99, 34.1576, 18.3055, 12.0422, 6.8771, 106.93, -65.7582
7.07271, 100, 34.4586, 18.9449, 11.9501, 6.94972, 107.357, -65.0435
7.07947, 100, 34.748, 19.5745, 11.8674, 7.03869, 107.77, -64.3332
7.08753, 100, 35.0256, 20.1934, 11.7939, 7.14444, 108.166, -63.6311
7.09546, 101, 35.2908, 20.8003, 11.7287, 7.26493, 108.545, -62.9392
7.10347, 101, 35.5437, 21.3951, 11.6717, 7.39892, 108.908, -62.2558
7.11153, 102, 35.7827, 21.9761, 11.6228, 7.54421, 109.253, -61.5837
7.11946, 102, 36.0071, 22.5424, 11.5815, 7.6988, 109.582, -60.9244
7.12751, 103, 36.22, 23.0935, 11.5478, 7.86066, 109.897, -60.2772
7.13554, 103, 36.4258, 23.6294, 11.5218, 8.02868, 110.196, -59.6426
7.14346, 103, 36.6262, 24.1507, 11.5044, 8.20353, 110.479, -59.022
7.15146, 104, 36.8211, 24.658, 11.495, 8.38569, 110.746, -58.4138
7.15955, 104, 37.0112, 25.1511, 11.4923, 8.57676, 110.995, -57.8151
7.16747, 104, 37.1963, 25.6305, 11.4958, 8.77692, 111.225, -57.2262
7.17547, 104, 37.3731, 26.0955, 11.5049, 8.98512, 111.436, -56.647
7.18353, 104, 37.5387, 26.5461, 11.5179, 9.20069, 111.63, -56.0773
7.19146, 104, 37.6952, 26.9822, 11.5338, 9.42087, 111.809, -55.519
7.19947, 104, 37.8475, 27.4049, 11.5524, 9.64288, 111.976, -54.9752
7.2076, 104, 37.998, 27.8134, 11.5727, 9.86419, 112.133, -54.45
7.21547, 104, 38.1455, 28.2069, 11.5932, 10.0822, 112.282, -53.9452
7.22348, 104, 38.2885, 28.5855, 11.6135, 10.2958, 112.422, -53.4618
7.23156, 104, 38.4256, 28.9488, 11.6327, 10.503, 112.555, -53.0019
7.23951, 104, 38.5554, 29.2949, 11.651, 10.703, 112.68, -52.5658
7.2476, 104, 38.6772, 29.6232, 11.6682, 10.8949, 112.798, -52.1549
7.2556, 104, 38.7908, 29.9324, 11.6842, 11.0781, 112.908, -51.7687
7.26361, 104, 38.8965, 30.2232, 11.6992, 11.2516, 113.01, -51.4073
7.27156, 104, 38.9945, 30.495, 11.713, 11.4154, 113.105, -51.0714
7.27961, 104, 39.0849, 30.7468, 11.7256, 11.5685, 113.192, -50.761
7.28763, 104, 39.1671, 30.9793, 11.737, 11.7108, 113.272, -50.4755
7.29552, 104, 39.241, 31.1922, 11.7473, 11.8416, 113.345, -50.2155
7.30354, 104, 39.3066, 31.3849, 11.757, 11.9609, 113.41, -49.9806
7.31164, 104, 39.3645, 31.5584, 11.7657, 12.0683, 113.469, -49.7708
7.31955, 104, 39.4156, 31.7124, 11.7732, 12.1634, 113.521, -49.5861
7.32774, 104, 39.4603, 31.8474, 11.78, 12.2467, 113.564, -49.4261
7.33577, 104, 39.4993, 31.9645, 11.7862, 12.3174, 113.602, -49.2904
7.34373, 104, 39.5319, 32.0647, 11.7917, 12.3769, 113.633, -49.178
7.35189, 104, 39.5587, 32.1487, 11.7966, 12.4241, 113.658, -49.0874
7.36022, 104, 39.5805, 32.2181, 11.801, 12.4609, 113.677, -49.0166
7.36795, 104, 39.5979, 32.2746, 11.8049, 12.4889, 113.691, -48.9643
7.37656, 104, 39.6115, 32.3197, 11.8085, 12.5094, 113.701, -48.9269
7.38405, 104, 39.622, 32.3544, 11.8117, 12.5237, 113.707, -48.9015
7.39204, 104, 39.6299, 32.3803, 11.8146, 12.5331, 113.711, -48.8852
7.40054, 104, 39.6352, 32.3997, 11.8172, 12.5387, 113.713, -48.8759
7.40827, 104, 39.637, 32.4136, 11.8193, 12.5419, 113.714, -48.8711
7.41597, 104, 39.6395, 32.4187, 11.8201, 12.5428, 113.715, -48.8698
7.42449, 105, 39.6412, 32.4283, 11.8219, 12.5443, 113.715, -48.868
7.43148, 105, 39.6412, 32.4303, 11.8224, 12.5445, 113.715, -48.8678
7.43946, 105, 39.6406, 32.4333, 11.8234, 12.5448, 113.715, -48.8676
7.44749, 105, 39.6398, 32.4355, 11.8242, 12.5449, 113.715, -48.8677
7.45548, 105, 39.6387, 32.4372, 11.8249, 12.545, 113.715, -48.8679
7.4635, 105, 39.6374, 32.4385, 11.8254, 12.545, 113.715, -48.8682
7.4715, 105, 39.6362, 32.4398, 11.826, 12.5451, 113.715, -48.8685
7.47948, 105, 39.6354, 32.441, 11.8265, 12.5451, 113.715, -48.8688
7.48747, 105, 39.635, 32.4422, 11.8271, 12.5451, 113.715, -48.8692
7.49549, 105, 39.6347, 32.4433, 11.8277, 12.5451, 113.715, -48.8694
7.50348, 105, 39.6345, 32.4443, 11.8283, 12.5451, 113.715, -48.8697
7.51145, 105, 39.6343, 32.4451, 11.8287, 12.5451, 113.715, -48.8699
7.51948, 105, 39.634, 32.4457, 11.829, 12.5451, 113.715, -48.8701
7.52901, 105, 39.6337, 32.4461, 11.8294, 12.5451, 113.715, -48.8705
7.53545, 105, 39.6334, 32.4464, 11.8296, 12.5451, 113.715, -48.8706
7.54348, 105, 39.6331, 32.4465, 11.8298, 12.545, 113.715, -48.8708
