hehonglu123/Motion-Primitive-Planning/ILC/recorded_data/realrobot/from_NX/iteration_24/run_3.csv
timestamp, cmd_num, J1, J2, J3, J4, J5, J6
0.000431, -1, 39.629, 32.4467, 11.8313, 12.5436, 113.714, -48.8734
0.002993, -1, 39.629, 32.4467, 11.8313, 12.5436, 113.714, -48.8734
0.027556, -1, 39.6289, 32.4466, 11.8313, 12.5436, 113.714, -48.8735
0.028934, -1, 39.6289, 32.4466, 11.8313, 12.5436, 113.714, -48.8735
0.030883, -1, 39.6289, 32.4466, 11.8313, 12.5436, 113.714, -48.8735
0.03473, -1, 39.6289, 32.4466, 11.8313, 12.5436, 113.714, -48.8735
0.039706, -1, 39.6289, 32.4467, 11.8313, 12.5436, 113.714, -48.8735
0.04768, -1, 39.6288, 32.4466, 11.8313, 12.5436, 113.714, -48.8734
0.055687, -1, 39.6276, 32.4464, 11.8313, 12.5436, 113.714, -48.8734
0.063751, -1, 39.6239, 32.4457, 11.8313, 12.5436, 113.714, -48.8735
0.071721, -1, 39.6169, 32.4436, 11.8312, 12.5436, 113.714, -48.8741
0.079847, -1, 39.6061, 32.4397, 11.8312, 12.5436, 113.713, -48.8767
0.08796, -1, 39.5899, 32.4329, 11.8312, 12.5436, 113.71, -48.8843
0.09578, -1, 39.566, 32.4225, 11.8313, 12.5436, 113.705, -48.8999
0.103872, -1, 39.5325, 32.4076, 11.8324, 12.5436, 113.696, -48.9264
0.11217, -1, 39.4888, 32.3871, 11.8357, 12.5436, 113.681, -48.9678
0.11979, -1, 39.4332, 32.3601, 11.8423, 12.5436, 113.657, -49.0284
0.127983, -1, 39.3644, 32.3261, 11.8527, 12.5436, 113.625, -49.1112
0.136466, -1, 39.2822, 32.2845, 11.8679, 12.5438, 113.583, -49.218
0.143706, -1, 39.186, 32.2349, 11.8882, 12.5442, 113.532, -49.3508
0.151832, -1, 39.0759, 32.1775, 11.9128, 12.545, 113.469, -49.5086
0.160648, -1, 38.9519, 32.1123, 11.9415, 12.5463, 113.398, -49.6902
0.167888, -1, 38.8151, 32.0402, 11.9739, 12.548, 113.318, -49.8927
0.176328, -1, 38.6664, 31.9619, 12.0091, 12.5499, 113.231, -50.1132
0.184821, -1, 38.5068, 31.878, 12.0462, 12.5521, 113.138, -50.3473
0.192062, -1, 38.3383, 31.7897, 12.0846, 12.5546, 113.041, -50.5917
0.19873, -1, 38.2513, 31.7442, 12.1041, 12.5558, 112.992, -50.7166
0.209117, -1, 37.9816, 31.6036, 12.1626, 12.5595, 112.841, -51.098
0.214781, -1, 37.8892, 31.5556, 12.182, 12.5607, 112.79, -51.2267
0.224497, -1, 37.6067, 31.4099, 12.2402, 12.5643, 112.637, -51.6147
0.232995, -1, 37.4156, 31.312, 12.279, 12.5668, 112.535, -51.8742
0.240313, -1, 37.2237, 31.2141, 12.3178, 12.5692, 112.432, -52.1339
0.248236, -1, 37.1276, 31.1651, 12.3372, 12.5704, 112.381, -52.2637
0.255651, -1, 36.9353, 31.0674, 12.3759, 12.5731, 112.277, -52.5239
0.262728, -1, 36.7432, 30.9696, 12.4147, 12.5757, 112.174, -52.7842
0.272969, -1, 36.4558, 30.823, 12.4731, 12.5795, 112.02, -53.1746
0.279698, -1, 36.36, 30.7741, 12.4925, 12.5809, 111.969, -53.3048
0.287718, -1, 36.1684, 30.6764, 12.5313, 12.5834, 111.866, -53.5652
0.295679, -1, 35.9769, 30.5784, 12.5702, 12.586, 111.763, -53.8259
0.303675, -1, 35.7854, 30.4804, 12.6091, 12.5886, 111.66, -54.0865
0.31067, -1, 35.5936, 30.3824, 12.648, 12.5911, 111.557, -54.3466
0.319678, -1, 35.4015, 30.2842, 12.6869, 12.5938, 111.454, -54.6069
0.327829, -1, 35.2092, 30.1859, 12.7256, 12.5963, 111.351, -54.8675
0.335672, -1, 35.0168, 30.0875, 12.7646, 12.5989, 111.248, -55.1284
0.343705, -1, 34.8245, 29.989, 12.8035, 12.6015, 111.144, -55.389
0.350663, -1, 34.6322, 29.8905, 12.8423, 12.604, 111.041, -55.6497
0.359672, -1, 34.4399, 29.7921, 12.8812, 12.6066, 110.939, -55.9105
0.497259, -1, 31.1609, 28.1164, 13.543, 12.652, 109.186, -60.3492
0.499237, -1, 31.0646, 28.0672, 13.5625, 12.6535, 109.135, -60.4799
0.500545, -1, 31.0646, 28.0672, 13.5625, 12.6535, 109.135, -60.4799
0.502471, -1, 31.0646, 28.0672, 13.5625, 12.6549, 109.083, -60.6107
0.503908, -1, 30.9684, 28.0179, 13.582, 12.6549, 109.083, -60.6107
0.505099, -1, 30.9684, 28.0179, 13.582, 12.6549, 109.083, -60.6107
0.507137, -1, 30.8722, 27.9686, 13.6015, 12.6563, 109.031, -60.7414
0.509698, -1, 30.8722, 27.9686, 13.6015, 12.6563, 109.031, -60.7414
0.512638, -1, 30.7761, 27.9193, 13.621, 12.6577, 108.98, -60.8721
0.515466, -1, 30.7761, 27.9193, 13.621, 12.6591, 108.928, -61.0027
0.516717, -1, 30.6801, 27.87, 13.6405, 12.6591, 108.928, -61.0027
0.518807, -1, 30.5842, 27.8207, 13.66, 12.6605, 108.877, -61.1333
0.520143, -1, 30.5842, 27.8207, 13.66, 12.6605, 108.877, -61.1333
0.521429, -1, 30.5842, 27.8207, 13.66, 12.6605, 108.877, -61.1333
0.52354, -1, 30.4883, 27.7714, 13.6795, 12.6619, 108.825, -61.2639
0.529304, -1, 30.3923, 27.7221, 13.699, 12.6633, 108.773, -61.3947
0.531411, -1, 30.2963, 27.6727, 13.7185, 12.6647, 108.722, -61.5254
0.532762, -1, 30.2963, 27.6727, 13.7185, 12.6647, 108.722, -61.5254
0.535579, -1, 30.2963, 27.6727, 13.7185, 12.6647, 108.67, -61.6563
0.536842, -1, 30.2002, 27.6233, 13.7379, 12.6661, 108.67, -61.6563
0.539512, -1, 30.2002, 27.6233, 13.7575, 12.6675, 108.619, -61.7872
0.540775, -1, 30.1041, 27.5739, 13.7575, 12.6675, 108.619, -61.7872
0.545645, -1, 30.0079, 27.5245, 13.777, 12.6689, 108.567, -61.918
0.551683, -1, 29.8152, 27.4258, 13.8159, 12.6715, 108.464, -62.1795
0.56045, -1, 29.6219, 27.327, 13.8548, 12.6742, 108.361, -62.4412
0.567696, -1, 29.4281, 27.2282, 13.8937, 12.6768, 108.257, -62.703
0.575811, -1, 29.234, 27.1294, 13.9327, 12.6794, 108.154, -62.9649
0.585105, -1, 29.0397, 27.0305, 13.9717, 12.6819, 108.051, -63.2262
0.591316, -1, 28.8453, 26.9316, 14.0106, 12.6846, 107.947, -63.4876
0.600121, -1, 28.6512, 26.8327, 14.0496, 12.6871, 107.844, -63.7493
0.60725, -1, 28.4571, 26.7339, 14.0886, 12.6896, 107.74, -64.0112
0.616695, -1, 28.2635, 26.6352, 14.1277, 12.6921, 107.637, -64.2728
0.62425, -1, 28.0702, 26.5364, 14.1666, 12.6945, 107.534, -64.5344
0.631669, -1, 27.8774, 26.4376, 14.2057, 12.697, 107.431, -64.7962
0.639767, -1, 27.6846, 26.3387, 14.2447, 12.6994, 107.327, -65.0582
0.648575, -1, 27.4922, 26.2398, 14.2836, 12.7019, 107.224, -65.3197
0.655806, -1, 27.3002, 26.1408, 14.3226, 12.7043, 107.121, -65.5813
0.795507, -1, 24.0148, 24.4604, 14.9852, 12.7437, 105.365, -70.0304
0.797605, -1, 23.9184, 24.411, 15.0046, 12.7448, 105.313, -70.1611
0.798819, -1, 23.9184, 24.411, 15.0046, 12.7448, 105.313, -70.1611
0.800726, -1, 23.9184, 24.411, 15.0046, 12.7448, 105.262, -70.2919
0.802951, -1, 23.822, 24.3616, 15.0241, 12.7461, 105.262, -70.2919
0.80494, -1, 23.822, 24.3122, 15.0435, 12.7473, 105.21, -70.4228
0.806526, -1, 23.7255, 24.3122, 15.0435, 12.7473, 105.21, -70.4228
0.809744, -1, 23.629, 24.2627, 15.063, 12.7485, 105.158, -70.5537
0.810993, -1, 23.629, 24.2627, 15.063, 12.7485, 105.158, -70.5537
0.812886, -1, 23.5324, 24.2133, 15.0824, 12.7497, 105.107, -70.6846
0.814268, -1, 23.5324, 24.2133, 15.0824, 12.7497, 105.107, -70.6846
0.815632, -1, 23.5324, 24.2133, 15.0824, 12.7497, 105.107, -70.6846
0.818408, -1, 23.4357, 24.1639, 15.1019, 12.7508, 105.055, -70.8153
0.819598, -1, 23.4357, 24.1639, 15.1019, 12.7508, 105.055, -70.8153
0.82164, -1, 23.3389, 24.1144, 15.1214, 12.7521, 105.003, -70.9461
0.823414, -1, 23.3389, 24.1144, 15.1214, 12.7521, 105.003, -70.9461
0.825249, -1, 23.242, 24.065, 15.1409, 12.7533, 104.951, -71.077
0.827551, -1, 23.242, 24.065, 15.1409, 12.7533, 104.951, -71.077
0.829686, -1, 23.1452, 24.0155, 15.1603, 12.7545, 104.9, -71.208
0.830938, -1, 23.1452, 24.0155, 15.1603, 12.7545, 104.9, -71.208
0.832124, -1, 23.1452, 24.0155, 15.1603, 12.7545, 104.9, -71.208
0.834181, -1, 23.0482, 23.966, 15.1797, 12.7558, 104.848, -71.3388
0.842036, -1, 22.8543, 23.8672, 15.2187, 12.7582, 104.745, -71.6007
0.847763, -1, 22.7573, 23.8178, 15.2382, 12.7594, 104.693, -71.7317
0.857232, -1, 22.4667, 23.6698, 15.2966, 12.7631, 104.538, -72.124
0.863662, -1, 22.3699, 23.6205, 15.3162, 12.7643, 104.486, -72.2547
0.874258, -1, 22.1767, 23.5218, 15.3551, 12.7669, 104.383, -72.6469
0.879643, -1, 21.9836, 23.423, 15.394, 12.7695, 104.28, -72.7778
0.888668, -1, 21.7908, 23.3244, 15.4331, 12.7721, 104.176, -73.0395
0.895716, -1, 21.5986, 23.2256, 15.472, 12.7748, 104.073, -73.3006
0.903666, -1, 21.4064, 23.1268, 15.5109, 12.7774, 103.97, -73.5621
0.911649, -1, 21.2141, 23.0281, 15.5499, 12.7801, 103.867, -73.8237
0.919711, -1, 21.0216, 22.9295, 15.5888, 12.7827, 103.764, -74.0852
0.927652, -1, 20.8291, 22.8308, 15.6277, 12.7854, 103.661, -74.3465
0.935646, -1, 20.6366, 22.7322, 15.6667, 12.7881, 103.558, -74.6075
0.943774, -1, 20.4437, 22.6336, 15.7055, 12.7909, 103.454, -74.8689
0.951675, -1, 20.2502, 22.5349, 15.7444, 12.7936, 103.352, -75.1303
0.95972, -1, 20.0565, 22.4361, 15.7834, 12.7963, 103.249, -75.3913
0.967647, -1, 19.8628, 22.3375, 15.8222, 12.7991, 103.146, -75.6525
0.975657, -1, 19.6692, 22.2389, 15.861, 12.8017, 103.043, -75.9138
0.983725, -1, 19.4756, 22.1403, 15.8999, 12.8045, 102.94, -76.1751
0.991645, -1, 19.2824, 22.0417, 15.9388, 12.8071, 102.836, -76.436
0.999652, -1, 19.0896, 21.943, 15.9777, 12.8099, 102.733, -76.6969
1.00771, -1, 18.897, 21.8444, 16.0166, 12.8127, 102.63, -76.9577
1.01569, -1, 18.7047, 21.7457, 16.0553, 12.8154, 102.527, -77.2188
1.02367, -1, 18.5128, 21.647, 16.0942, 12.8182, 102.424, -77.4798
1.03171, -1, 18.3211, 21.5485, 16.1331, 12.8208, 102.322, -77.7403
1.03964, -1, 18.1291, 21.4499, 16.1719, 12.8234, 102.219, -78.0011
1.04781, -1, 17.9373, 21.3515, 16.2107, 12.826, 102.116, -78.262
1.05565, -1, 17.7454, 21.2531, 16.2497, 12.8285, 102.013, -78.5229
1.06366, -1, 17.5532, 21.1548, 16.2885, 12.8311, 101.91, -78.7833
1.07185, -1, 17.3606, 21.0564, 16.3273, 12.8336, 101.807, -79.0437
1.0797, -1, 17.1675, 20.9581, 16.3661, 12.836, 101.704, -79.3042
1.08773, -1, 16.9744, 20.8598, 16.4049, 12.8384, 101.601, -79.5649
1.09619, -1, 16.7813, 20.7616, 16.4437, 12.8408, 101.498, -79.8253
1.10319, -1, 16.5882, 20.6634, 16.4825, 12.8431, 101.396, -80.0856
1.11178, -1, 16.3952, 20.5652, 16.5212, 12.8454, 101.293, -80.3463
1.12027, -1, 16.2026, 20.4668, 16.5599, 12.8477, 101.19, -80.6068
1.12765, -1, 16.0106, 20.3685, 16.5986, 12.8501, 101.088, -80.8671
1.13566, -1, 15.8187, 20.27, 16.6374, 12.8524, 100.985, -81.1273
1.14457, -1, 15.6271, 20.1715, 16.676, 12.8547, 100.882, -81.3873
1.15179, -1, 15.4359, 20.0731, 16.7146, 12.857, 100.78, -81.6476
1.15974, -1, 15.2448, 19.9748, 16.7534, 12.8594, 100.677, -81.9076
1.16868, -1, 15.0537, 19.8766, 16.7921, 12.8617, 100.575, -82.1673
1.17589, -1, 14.8625, 19.7784, 16.8308, 12.8639, 100.472, -82.4272
1.18266, -1, 14.7669, 19.7293, 16.8501, 12.8651, 100.421, -82.5572
1.19296, -1, 14.4795, 19.5821, 16.9082, 12.8686, 100.267, -82.9472
1.20003, -1, 14.2874, 19.484, 16.9468, 12.8709, 100.164, -83.2068
1.20662, -1, 14.1913, 19.435, 16.9662, 12.872, 100.113, -83.3365
1.21707, -1, 13.9027, 19.2881, 17.0242, 12.8755, 99.9591, -83.7259
1.22421, -1, 13.7103, 19.1903, 17.0628, 12.8777, 99.8569, -83.9856
1.23223, -1, 13.5178, 19.0924, 17.1016, 12.88, 99.7542, -84.2449
1.24118, -1, 13.4217, 18.9945, 17.1401, 12.8823, 99.6518, -84.5043
1.24674, -1, 13.2297, 18.9456, 17.1593, 12.8835, 99.6008, -84.6339
1.25617, -1, 13.0381, 18.8477, 17.1979, 12.8859, 99.4984, -84.8932
1.26365, -1, 12.8468, 18.7497, 17.2366, 12.8882, 99.3958, -85.1526
1.27163, -1, 12.6558, 18.6517, 17.2751, 12.8906, 99.2937, -85.4117
1.27972, -1, 12.4651, 18.5539, 17.3137, 12.893, 99.1912, -85.6705
1.28766, -1, 12.275, 18.4562, 17.3522, 12.8954, 99.0889, -85.9295
1.29571, -1, 12.0848, 18.3584, 17.3907, 12.8979, 98.9871, -86.1886
1.30365, -1, 11.8944, 18.2608, 17.4293, 12.9002, 98.8849, -86.4472
1.3117, -1, 11.7039, 18.1631, 17.4679, 12.9026, 98.783, -86.7057
1.31969, -1, 11.5132, 18.0655, 17.5064, 12.9051, 98.6813, -86.9644
1.32764, -1, 11.3222, 17.9679, 17.545, 12.9075, 98.5792, -87.2231
1.33566, -1, 11.1308, 17.8703, 17.5835, 12.9099, 98.4773, -87.4815
1.34372, -1, 10.9394, 17.7729, 17.622, 12.9124, 98.3755, -87.7396
1.35164, -1, 10.7478, 17.6755, 17.6605, 12.9149, 98.2733, -87.9978
1.35967, -1, 10.5562, 17.578, 17.6989, 12.9175, 98.1715, -88.2562
1.3677, -1, 10.3649, 17.4805, 17.7373, 12.92, 98.0696, -88.5146
1.37565, -1, 10.1738, 17.3829, 17.7758, 12.9224, 97.9677, -88.7726
1.38463, -1, 9.98324, 17.2853, 17.8141, 12.9252, 97.8659, -89.0308
1.3917, -1, 9.79298, 17.1878, 17.8524, 12.9278, 97.7639, -89.2889
1.4007, -1, 9.60299, 17.0903, 17.8908, 12.9304, 97.662, -89.5471
1.40764, -1, 9.41357, 16.9929, 17.9291, 12.9333, 97.5602, -89.8047
1.41575, -1, 9.22429, 16.8955, 17.9675, 12.9359, 97.4582, -90.0623
1.42364, -1, 9.03499, 16.7983, 18.0059, 12.9386, 97.3564, -90.3198
1.43165, -1, 8.84547, 16.7011, 18.0441, 12.9413, 97.2548, -90.5774
1.4397, -1, 8.65589, 16.6039, 18.0825, 12.9439, 97.153, -90.8349
1.44764, -1, 8.46627, 16.5068, 18.121, 12.9466, 97.0514, -91.092
1.45573, -1, 8.27623, 16.4098, 18.1592, 12.9493, 96.9501, -91.3492
1.46365, -1, 8.0858, 16.3129, 18.1976, 12.9519, 96.8484, -91.6065
1.47165, -1, 7.89533, 16.216, 18.2359, 12.9546, 96.7469, -91.8638
1.47971, -1, 7.70484, 16.1191, 18.2741, 12.9573, 96.6455, -92.1205
1.48763, -1, 7.5143, 16.0222, 18.3125, 12.9598, 96.5439, -92.3771
1.49564, -1, 7.32403, 15.9252, 18.3507, 12.9624, 96.4426, -92.6339
1.50372, -1, 7.13404, 15.8283, 18.3888, 12.9649, 96.3414, -92.8908
1.51167, -1, 6.94431, 15.7312, 18.4272, 12.9676, 96.24, -93.1473
1.51964, -1, 6.75511, 15.6343, 18.4654, 12.9701, 96.139, -93.4037
1.5277, -1, 6.56644, 15.5375, 18.5034, 12.9726, 96.0382, -93.66
1.53563, -1, 6.37806, 15.4407, 18.5415, 12.9752, 95.937, -93.9165
1.54364, -1, 6.18994, 15.3439, 18.5797, 12.9777, 95.836, -94.1727
1.55176, -1, 6.00181, 15.2472, 18.6178, 12.9801, 95.7351, -94.4286
1.55964, -1, 5.81342, 15.1505, 18.656, 12.9825, 95.6341, -94.6845
1.5679, -1, 5.62501, 15.0538, 18.6941, 12.9848, 95.5333, -94.9405
1.57647, -1, 5.43637, 14.9573, 18.7322, 12.9872, 95.4327, -95.1963
1.58376, -1, 5.24744, 14.8608, 18.7704, 12.9895, 95.3318, -95.4517
1.59197, -1, 5.05807, 14.7645, 18.8085, 12.9917, 95.2312, -95.7072
1.60047, -1, 4.86876, 14.6681, 18.8465, 12.994, 95.1305, -95.9626
1.60774, -1, 4.67936, 14.5718, 18.8846, 12.9962, 95.0297, -96.2182
1.61611, -1, 4.48997, 14.4754, 18.9226, 12.9984, 94.929, -96.4731
1.62324, -1, 4.39542, 14.4272, 18.9416, 13.0006, 94.8282, -96.7281
1.63164, -1, 4.11205, 14.2826, 18.9987, 13.0028, 94.7272, -96.9831
1.64041, -1, 3.92363, 14.1863, 19.0366, 13.0051, 94.6266, -97.2382
1.64768, -1, 3.73592, 14.0902, 19.0745, 13.0073, 94.5257, -97.4931
1.65567, -1, 3.54859, 13.9939, 19.1125, 13.0096, 94.4249, -97.7478
1.66383, -1, 3.36156, 13.8978, 19.1503, 13.012, 94.3245, -98.0025
1.67183, -1, 3.17453, 13.8018, 19.1881, 13.0143, 94.2237, -98.2574
1.67994, -1, 2.98756, 13.7057, 19.226, 13.0165, 94.123, -98.512
1.68805, -1, 2.80057, 13.6097, 19.264, 13.0187, 94.0225, -98.7661
1.69467, -1, 2.70697, 13.5617, 19.2829, 13.0198, 93.9721, -98.8932
1.70409, -1, 2.426, 13.4178, 19.3397, 13.0232, 93.8214, -99.2743
1.71061, -1, 2.33228, 13.3698, 19.3586, 13.0244, 93.7714, -99.4014
1.72019, -1, 2.05032, 13.2262, 19.4154, 13.0277, 93.6209, -99.7822
1.72667, -1, 1.95625, 13.1783, 19.4343, 13.0288, 93.5708, -99.909
1.73626, -1, 1.67403, 13.0345, 19.4909, 13.0323, 93.4209, -100.29
1.74425, -1, 1.57989, 12.9387, 19.5287, 13.0344, 93.3207, -100.543
1.75069, -1, 1.39178, 12.8908, 19.5476, 13.0356, 93.2707, -100.67
1.76033, -1, 1.204, 12.795, 19.5853, 13.038, 93.1708, -101.05
1.76766, -1, 1.01656, 12.6992, 19.623, 13.0404, 93.0707, -101.176
1.77562, -1, 0.829828, 12.6037, 19.6608, 13.0427, 92.9708, -101.429
1.78369, -1, 0.643531, 12.5081, 19.6984, 13.0451, 92.8711, -101.682
1.79165, -1, 0.457621, 12.4126, 19.736, 13.0475, 92.7712, -101.935
1.79961, -1, 0.271927, 12.3172, 19.7737, 13.05, 92.6715, -102.188
1.80762, -1, 0.0864334, 12.2219, 19.8112, 13.0525, 92.5723, -102.441
1.81562, -1, -0.098992, 12.1265, 19.8488, 13.0549, 92.4725, -102.693
1.82368, -1, -0.284604, 12.0313, 19.8865, 13.0573, 92.373, -102.946
1.83163, -1, -0.470525, 11.9361, 19.9241, 13.0598, 92.2737, -103.198
1.83963, -1, -0.656811, 11.841, 19.9616, 13.0623, 92.1741, -103.45
1.84914, -1, -0.936518, 11.6985, 20.0179, 13.066, 92.025, -103.828
1.85562, -1, -1.02981, 11.651, 20.0366, 13.0673, 91.9754, -103.954
1.86362, -1, -1.21665, 11.5559, 20.074, 13.0697, 91.876, -104.206
1.87169, -1, -1.40367, 11.4608, 20.1116, 13.0722, 91.7768, -104.457
1.87963, -1, -1.59034, 11.3657, 20.1491, 13.0748, 91.6777, -104.709
1.88861, -1, -1.77674, 11.2706, 20.1864, 13.0774, 91.5784, -104.96
1.89467, -1, -1.96274, 11.1756, 20.2239, 13.0801, 91.4792, -105.212
1.90363, -1, -2.14814, 11.0807, 20.2613, 13.0827, 91.3801, -105.463
1.9117, -1, -2.33307, 10.9858, 20.2986, 13.0853, 91.2809, -105.713
1.91971, -1, -2.51783, 10.8909, 20.3361, 13.088, 91.1817, -105.965
1.92762, -1, -2.70202, 10.7962, 20.3733, 13.0906, 91.0827, -106.216
1.93564, -1, -2.8859, 10.7014, 20.4107, 13.0933, 90.9837, -106.466
1.94362, -1, -3.06992, 10.6066, 20.4481, 13.0959, 90.8847, -106.717
1.95163, -1, -3.25407, 10.512, 20.4854, 13.0986, 90.7858, -106.968
1.95971, -1, -3.43856, 10.4175, 20.5226, 13.1011, 90.6868, -107.218
1.96763, -1, -3.62329, 10.3231, 20.5599, 13.1037, 90.588, -107.469
1.97564, -1, -3.80821, 10.2288, 20.5972, 13.1062, 90.4892, -107.719
1.98368, -1, -3.99345, 10.1344, 20.6345, 13.1086, 90.3904, -107.968
1.99162, -1, -4.17878, 10.0401, 20.6717, 13.1111, 90.2918, -108.219
1.99969, -1, -4.36445, 9.94582, 20.7088, 13.1135, 90.1932, -108.469
2.00762, -1, -4.54988, 9.85146, 20.7461, 13.1158, 90.0946, -108.718
2.01573, -1, -4.73494, 9.7572, 20.7834, 13.1182, 89.9963, -108.968
2.02362, -1, -4.91968, 9.66304, 20.8204, 13.1207, 89.8977, -109.217
2.03161, -1, -5.10389, 9.569, 20.8576, 13.123, 89.7993, -109.466
2.03968, -1, -5.2874, 9.47492, 20.8948, 13.1253, 89.7009, -109.716
2.04763, -1, -5.4706, 9.38095, 20.9318, 13.1277, 89.6025, -109.965
2.05562, -1, -5.65331, 9.28702, 20.9689, 13.13, 89.5042, -110.213
2.06369, -1, -5.83576, 9.19308, 21.006, 13.1323, 89.4062, -110.462
2.0717, -1, -6.01811, 9.09919, 21.043, 13.1346, 89.308, -110.711
2.07965, -1, -6.20069, 9.00533, 21.08, 13.1368, 89.2098, -110.959
2.08782, -1, -6.38354, 8.91162, 21.1171, 13.139, 89.112, -111.208
2.09592, -1, -6.56661, 8.81799, 21.1539, 13.1412, 89.014, -111.456
2.10373, -1, -6.74997, 8.72435, 21.1908, 13.1433, 88.916, -111.704
2.11179, -1, -6.93367, 8.63079, 21.2277, 13.1455, 88.8182, -111.952
2.12014, -1, -7.11765, 8.5372, 21.2646, 13.1476, 88.7202, -112.2
2.12769, -1, -7.30191, 8.44363, 21.3015, 13.1497, 88.6224, -112.447
2.13585, -1, -7.48584, 8.34996, 21.3384, 13.1518, 88.5248, -112.695
2.14438, -1, -7.66949, 8.25645, 21.3752, 13.154, 88.4271, -112.943
2.15166, -1, -7.85276, 8.16303, 21.412, 13.1562, 88.3297, -113.19
2.16, -1, -8.03571, 8.06962, 21.4489, 13.1585, 88.2324, -113.437
2.16862, -1, -8.21789, 7.97631, 21.4856, 13.1607, 88.135, -113.684
2.17587, -1, -8.39946, 7.88302, 21.5224, 13.1629, 88.0375, -113.931
2.184, -1, -8.58066, 7.7898, 21.5592, 13.1651, 87.9403, -114.178
2.19281, -1, -8.76152, 7.69661, 21.596, 13.1675, 87.8428, -114.425
2.19997, -1, -8.94219, 7.60345, 21.6327, 13.1697, 87.7453, -114.671
2.2084, -1, -9.12313, 7.51038, 21.6694, 13.172, 87.6481, -114.917
2.21699, -1, -9.3043, 7.41745, 21.7061, 13.1743, 87.5509, -115.164
2.22415, -1, -9.48575, 7.32465, 21.7427, 13.1764, 87.4538, -115.41
2.23221, -1, -9.66751, 7.23181, 21.7794, 13.1786, 87.3568, -115.656
2.24098, -1, -9.84971, 7.13905, 21.816, 13.1809, 87.2595, -115.902
2.24819, -1, -9.94096, 7.09266, 21.8525, 13.183, 87.1623, -116.149
2.25654, -1, -10.2148, 6.95355, 21.8891, 13.1853, 87.0653, -116.394
2.2636, -1, -10.3061, 6.90718, 21.9074, 13.1864, 87.0166, -116.517
2.27161, -1, -10.4887, 6.81443, 21.944, 13.1886, 86.9194, -116.762
2.27964, -1, -10.6709, 6.72174, 21.9805, 13.1909, 86.8224, -117.008
2.28761, -1, -10.8527, 6.62913, 22.0169, 13.1933, 86.7255, -117.253
2.29564, -1, -11.034, 6.53653, 22.0533, 13.1957, 86.6286, -117.499
2.30362, -1, -11.2144, 6.44401, 22.0899, 13.1981, 86.532, -117.743
2.3116, -1, -11.3943, 6.35152, 22.1264, 13.2005, 86.4354, -117.988
2.31966, -1, -11.5739, 6.25905, 22.1628, 13.2029, 86.3386, -118.233
2.32761, -1, -11.7532, 6.16662, 22.1993, 13.2054, 86.242, -118.478
2.3356, -1, -11.9325, 6.07428, 22.2358, 13.2079, 86.1454, -118.722
2.3426, -1, -12.1118, 5.98203, 22.2722, 13.2104, 86.0488, -118.966
2.35164, -1, -12.2913, 5.88995, 22.3086, 13.2128, 85.9524, -119.211
2.35961, -1, -12.4712, 5.79794, 22.345, 13.2152, 85.8562, -119.455
2.36771, -1, -12.6514, 5.70592, 22.3811, 13.2177, 85.7597, -119.699
2.3756, -1, -12.8321, 5.61393, 22.4175, 13.2203, 85.6636, -119.943
2.38362, -1, -13.0131, 5.52207, 22.4539, 13.2227, 85.5678, -120.186
2.3926, -1, -13.1943, 5.43008, 22.49, 13.2251, 85.4717, -120.43
2.40023, -1, -13.3755, 5.3381, 22.5263, 13.2275, 85.3757, -120.674
2.40659, -1, -13.5563, 5.24622, 22.5626, 13.2301, 85.2802, -120.917
2.4156, -1, -13.7367, 5.15435, 22.5987, 13.2327, 85.1842, -121.16
2.42445, -1, -13.9167, 5.06251, 22.6348, 13.2352, 85.0884, -121.403
2.4316, -1, -14.0958, 4.97073, 22.6711, 13.2378, 84.993, -121.646
2.4396, -1, -14.2742, 4.879, 22.7071, 13.2404, 84.8972, -121.889
2.44841, -1, -14.4523, 4.78733, 22.7433, 13.2429, 84.8017, -122.132
2.4556, -1, -14.6301, 4.69569, 22.7796, 13.2455, 84.7062, -122.374
2.46366, -1, -14.8077, 4.60415, 22.8156, 13.248, 84.6104, -122.616
2.47239, -1, -14.9854, 4.51263, 22.8517, 13.2505, 84.5146, -122.859
2.47959, -1, -15.1633, 4.42131, 22.8879, 13.253, 84.4191, -123.101
2.4876, -1, -15.3415, 4.33006, 22.924, 13.2554, 84.3234, -123.343
2.49638, -1, -15.5201, 4.23875, 22.96, 13.2577, 84.2276, -123.585
2.50371, -1, -15.6992, 4.14749, 22.9961, 13.26, 84.1323, -123.826
2.5116, -1, -15.8784, 4.05628, 23.032, 13.2623, 84.0367, -124.068
2.52042, -1, -16.0578, 3.96504, 23.068, 13.2645, 83.9412, -124.31
2.52759, -1, -16.2376, 3.87375, 23.104, 13.2667, 83.846, -124.551
2.5356, -1, -16.4172, 3.78256, 23.14, 13.2688, 83.7504, -124.792
2.545, -1, -16.5965, 3.6914, 23.1757, 13.271, 83.655, -125.034
2.5516, -1, -16.7751, 3.60028, 23.2116, 13.2733, 83.5597, -125.275
2.55967, -1, -16.9532, 3.50926, 23.2474, 13.2756, 83.4641, -125.516
2.56776, -1, -17.1304, 3.41826, 23.2832, 13.2777, 83.3689, -125.756
2.57562, -1, -17.307, 3.32731, 23.3192, 13.28, 83.2739, -125.997
2.5837, -1, -17.4835, 3.23647, 23.3549, 13.2821, 83.1787, -126.238
2.59192, -1, -17.6596, 3.14573, 23.3907, 13.2843, 83.0838, -126.478
2.59969, -1, -17.8357, 3.05512, 23.4266, 13.2864, 82.9891, -126.718
2.60776, -1, -18.0117, 2.96452, 23.4624, 13.2885, 82.8941, -126.958
2.61605, -1, -18.1881, 2.87417, 23.4981, 13.2907, 82.7994, -127.199
2.62371, -1, -18.3649, 2.78378, 23.5339, 13.2929, 82.7048, -127.439
2.63179, -1, -18.5421, 2.69338, 23.5696, 13.2948, 82.61, -127.678
2.64025, -1, -18.7197, 2.60303, 23.6053, 13.2969, 82.5154, -127.918
2.64666, -1, -18.8085, 2.55787, 23.6231, 13.2979, 82.4681, -128.037
2.65569, -1, -19.0757, 2.42219, 23.6767, 13.3008, 82.3265, -128.397
2.66528, -1, -19.254, 2.33181, 23.7122, 13.3028, 82.2321, -128.636
2.67172, -1, -19.432, 2.24145, 23.7479, 13.3049, 82.138, -128.875
2.67986, -1, -19.6092, 2.15106, 23.7834, 13.3072, 82.0439, -129.114
2.68949, -1, -19.7861, 2.06072, 23.8188, 13.3093, 81.9497, -129.353
2.69592, -1, -19.9622, 1.97046, 23.8544, 13.3115, 81.8556, -129.592
2.70406, -1, -20.1376, 1.88021, 23.89, 13.3137, 81.7616, -129.831
2.71059, -1, -20.2252, 1.83511, 23.9077, 13.3148, 81.7145, -129.95
2.72013, -1, -20.4875, 1.6999, 23.9609, 13.318, 81.5734, -130.308
2.72817, -1, -20.662, 1.60989, 23.9965, 13.3203, 81.4797, -130.546
2.73697, -1, -20.8365, 1.51998, 24.0319, 13.3224, 81.3857, -130.784
2.74418, -1, -21.0113, 1.43018, 24.0674, 13.3246, 81.292, -131.022
2.75223, -1, -21.1865, 1.34045, 24.103, 13.3269, 81.1984, -131.26
2.76175, -1, -21.2742, 1.29556, 24.1207, 13.3279, 81.1044, -131.498
2.76764, -1, -21.4499, 1.20585, 24.156, 13.3301, 81.0574, -131.617
2.77559, -1, -21.6259, 1.11622, 24.1914, 13.3323, 80.9637, -131.854
2.7836, -1, -21.8021, 1.02654, 24.2269, 13.3344, 80.8699, -132.092
2.79275, -1, -22.0667, 0.892116, 24.2799, 13.3377, 80.7292, -132.448
2.79961, -1, -22.155, 0.847339, 24.2976, 13.3387, 80.6825, -132.566
2.80761, -1, -22.3316, 0.757796, 24.333, 13.3409, 80.5888, -132.803
2.81559, -1, -22.5077, 0.668307, 24.3682, 13.3431, 80.4952, -133.041
2.82364, -1, -22.6833, 0.578824, 24.4034, 13.3455, 80.4016, -133.277
2.83159, -1, -22.8582, 0.4894, 24.4388, 13.3479, 80.308, -133.514
2.8396, -1, -23.0322, 0.399968, 24.4739, 13.3503, 80.2145, -133.751
2.84764, -1, -23.2058, 0.310594, 24.5091, 13.3528, 80.1209, -133.988
2.85559, -1, -23.3791, 0.221262, 24.5443, 13.3552, 80.0275, -134.224
2.86359, -1, -23.5522, 0.13205, 24.5795, 13.3576, 79.9341, -134.46
2.87165, -1, -23.7255, 0.0429125, 24.6146, 13.36, 79.8407, -134.696
2.8796, -1, -23.8989, -0.0461712, 24.6499, 13.3625, 79.7478, -134.933
2.88759, -1, -24.0724, -0.135158, 24.6849, 13.365, 79.6544, -135.169
2.89565, -1, -24.2462, -0.224158, 24.72, 13.3674, 79.5614, -135.404
2.90469, -1, -24.4202, -0.31313, 24.7552, 13.3698, 79.4686, -135.64
2.91158, -1, -24.5947, -0.401981, 24.7903, 13.3723, 79.3753, -135.876
2.9197, -1, -24.7695, -0.490891, 24.8252, 13.3746, 79.2823, -136.111
2.92769, -1, -24.9445, -0.579776, 24.8603, 13.377, 79.1894, -136.347
2.93559, -1, -25.1195, -0.668603, 24.8955, 13.3794, 79.0963, -136.582
2.94366, -1, -25.2943, -0.75737, 24.9304, 13.3818, 79.0034, -136.817
2.95159, -1, -25.4686, -0.846184, 24.9654, 13.3842, 78.9109, -137.052
2.95966, -1, -25.6425, -0.934955, 25.0004, 13.3867, 78.818, -137.287
2.96761, -1, -25.8158, -1.02364, 25.0352, 13.3891, 78.7254, -137.522
2.9756, -1, -25.9885, -1.11237, 25.0701, 13.3916, 78.6331, -137.756
2.98365, -1, -26.1608, -1.20105, 25.1052, 13.394, 78.5405, -137.991
2.99158, -1, -26.3326, -1.28958, 25.1399, 13.3964, 78.4479, -138.225
2.99959, -1, -26.5044, -1.37808, 25.1748, 13.3987, 78.3554, -138.46
3.00765, -1, -26.6763, -1.46647, 25.2097, 13.401, 78.263, -138.694
3.01559, -1, -26.8484, -1.55473, 25.2446, 13.4033, 78.1706, -138.928
3.0236, -1, -27.0208, -1.64292, 25.2794, 13.4055, 78.0781, -139.162
3.03167, -1, -27.1933, -1.73116, 25.3143, 13.4077, 77.9861, -139.396
3.03959, -1, -27.366, -1.81937, 25.3491, 13.4099, 77.8939, -139.63
3.0476, -1, -27.5391, -1.90742, 25.3838, 13.4121, 77.8019, -139.863
3.05566, -1, -27.7122, -1.99558, 25.4186, 13.4142, 77.71, -140.097
3.06359, -1, -27.8855, -2.08374, 25.4535, 13.4163, 77.6179, -140.33
3.07174, -1, -28.0588, -2.17173, 25.4882, 13.4183, 77.5258, -140.564
3.07961, -1, -28.232, -2.25976, 25.5229, 13.4203, 77.4339, -140.797
3.08766, -1, -28.4049, -2.34784, 25.5578, 13.4224, 77.3417, -141.03
3.09595, -1, -28.5775, -2.43583, 25.5924, 13.4245, 77.2495, -141.263
3.10369, -1, -28.7497, -2.52379, 25.627, 13.4266, 77.1577, -141.495
3.11169, -1, -28.9211, -2.61182, 25.6618, 13.4288, 77.0656, -141.728
3.12014, -1, -29.0919, -2.69971, 25.6964, 13.431, 76.9737, -141.961
3.12732, -1, -29.1772, -2.74363, 25.7309, 13.4331, 76.882, -142.194
3.13567, -1, -29.4331, -2.87529, 25.7656, 13.4351, 76.7901, -142.426
3.14429, -1, -29.6038, -2.96289, 25.8002, 13.4372, 76.6982, -142.658
3.15163, -1, -29.7748, -3.05042, 25.8347, 13.4392, 76.6065, -142.891
3.15963, -1, -29.9458, -3.13798, 25.8694, 13.4414, 76.5146, -143.123
3.16782, -1, -30.1167, -3.22546, 25.9039, 13.4435, 76.4229, -143.355
3.17589, -1, -30.2878, -3.31297, 25.9384, 13.4455, 76.3312, -143.587
3.18377, -1, -30.4592, -3.40037, 25.973, 13.4476, 76.2398, -143.819
3.19192, -1, -30.6308, -3.48788, 26.0074, 13.4496, 76.1482, -144.051
3.19995, -1, -30.8027, -3.57535, 26.0419, 13.4517, 76.0568, -144.282
3.20798, -1, -30.9745, -3.6627, 26.0764, 13.4537, 75.9655, -144.513
3.21609, -1, -31.1463, -3.75008, 26.111, 13.4557, 75.874, -144.745
3.22446, -1, -31.3178, -3.83742, 26.1454, 13.4578, 75.7827, -144.976
3.23214, -1, -31.4889, -3.92476, 26.1798, 13.4599, 75.6916, -145.207
3.24018, -1, -31.6596, -4.01195, 26.2144, 13.462, 75.6001, -145.438
3.24819, -1, -31.8299, -4.09924, 26.2488, 13.4642, 75.5089, -145.669
3.25611, -1, -31.9148, -4.14287, 26.266, 13.4653, 75.418, -145.9
3.26427, -1, -32.0845, -4.23005, 26.3177, 13.4686, 75.3268, -146.131
3.27158, -1, -32.2538, -4.31714, 26.3348, 13.4697, 75.2813, -146.247
3.27958, -1, -32.4232, -4.40422, 26.3691, 13.4719, 75.1902, -146.477
3.28764, -1, -32.5929, -4.49117, 26.4034, 13.474, 75.0997, -146.707
3.29558, -1, -32.7625, -4.57809, 26.4379, 13.4762, 75.0085, -146.938
3.30361, -1, -32.9322, -4.66501, 26.4722, 13.4784, 74.9178, -147.168
3.31162, -1, -33.102, -4.75199, 26.5064, 13.4805, 74.8273, -147.399
3.31962, -1, -33.2718, -4.83884, 26.5408, 13.4827, 74.7365, -147.629
3.32759, -1, -33.4418, -4.92566, 26.5751, 13.485, 74.6459, -147.858
3.33562, -1, -33.6121, -5.01266, 26.6093, 13.4871, 74.5554, -148.088
3.34359, -1, -33.7824, -5.09945, 26.6436, 13.4894, 74.4649, -148.318
3.35162, -1, -33.9527, -5.18619, 26.6778, 13.4916, 74.3743, -148.548
3.35958, -1, -34.1229, -5.27295, 26.7119, 13.4939, 74.2838, -148.777
3.36759, -1, -34.293, -5.35963, 26.7462, 13.4961, 74.1933, -149.007
3.37564, -1, -34.4631, -5.4463, 26.7804, 13.4984, 74.1026, -149.236
3.38357, -1, -34.6326, -5.53298, 26.8145, 13.5008, 74.012, -149.466
3.39258, -1, -34.8015, -5.61964, 26.8486, 13.5032, 73.9216, -149.695
3.39964, -1, -34.9701, -5.70623, 26.8829, 13.5056, 73.831, -149.924
3.40864, -1, -35.1384, -5.79274, 26.9169, 13.5081, 73.7405, -150.153
3.41575, -1, -35.3066, -5.87918, 26.951, 13.5105, 73.6504, -150.381
3.42473, -1, -35.4751, -5.96545, 26.9852, 13.5129, 73.56, -150.611
3.43162, -1, -35.6436, -6.05167, 27.0192, 13.5152, 73.4696, -150.839
3.44035, -1, -35.8121, -6.13792, 27.0532, 13.5176, 73.3795, -151.068
3.44757, -1, -35.9807, -6.22405, 27.0873, 13.52, 73.2889, -151.296
3.45558, -1, -36.1491, -6.31017, 27.1213, 13.5224, 73.1986, -151.525
3.46439, -1, -36.3177, -6.39634, 27.1552, 13.5248, 73.1082, -151.754
3.47065, -1, -36.4865, -6.48258, 27.1892, 13.5272, 73.0177, -151.982
3.47957, -1, -36.6554, -6.56879, 27.2232, 13.5295, 72.9275, -152.21
3.49071, -1, -36.9088, -6.69809, 27.274, 13.5329, 72.7924, -152.552
3.49559, -1, -36.9933, -6.74116, 27.2909, 13.5341, 72.7474, -152.666
3.5036, -1, -37.1622, -6.82735, 27.3249, 13.5364, 72.6572, -152.894
3.51162, -1, -37.3309, -6.91344, 27.3587, 13.5387, 72.5672, -153.122
3.51959, -1, -37.4992, -6.99948, 27.3925, 13.541, 72.4776, -153.35
3.52757, -1, -37.6671, -7.08555, 27.4266, 13.5432, 72.3875, -153.577
3.53562, -1, -37.8348, -7.17159, 27.4604, 13.5455, 72.2977, -153.805
3.5436, -1, -38.0023, -7.25754, 27.4942, 13.5477, 72.2081, -154.032
3.55157, -1, -38.1697, -7.34342, 27.5282, 13.5499, 72.1181, -154.26
3.55971, -1, -38.3371, -7.42924, 27.5621, 13.5521, 72.0285, -154.487
3.56766, -1, -38.5044, -7.51494, 27.5959, 13.5541, 71.9389, -154.714
3.57558, -1, -38.6716, -7.60067, 27.6298, 13.5563, 71.8493, -154.941
3.58366, -1, -38.839, -7.68635, 27.6637, 13.5583, 71.7597, -155.168
3.59164, -1, -39.0063, -7.77199, 27.6974, 13.5604, 71.6704, -155.395
3.59976, -1, -39.1737, -7.85762, 27.7311, 13.5624, 71.5812, -155.622
3.60772, -1, -39.3412, -7.94336, 27.765, 13.5644, 71.4918, -155.849
3.61567, -1, -39.5088, -8.029, 27.7988, 13.5664, 71.4023, -156.076
3.62368, -1, -39.6764, -8.1146, 27.8323, 13.5684, 71.3133, -156.302
3.63175, -1, -39.844, -8.20008, 27.8661, 13.5703, 71.2236, -156.529
3.63976, -1, -40.0117, -8.2856, 27.8998, 13.5723, 71.1343, -156.755
3.6476, -1, -40.1792, -8.37102, 27.9335, 13.5742, 71.0451, -156.981
3.65571, -1, -40.3466, -8.4564, 27.9672, 13.5762, 70.9557, -157.208
3.66361, -1, -40.5137, -8.54181, 28.001, 13.5782, 70.8665, -157.434
3.67173, -1, -40.6807, -8.62719, 28.0345, 13.5802, 70.7774, -157.66
3.67987, -1, -40.8474, -8.71254, 28.0681, 13.5822, 70.6883, -157.885
3.68781, -1, -41.0138, -8.79789, 28.1019, 13.5842, 70.5991, -158.111
3.696, -1, -41.1802, -8.88317, 28.1355, 13.5862, 70.5099, -158.337
3.70258, -1, -41.2633, -8.92576, 28.1523, 13.5872, 70.4655, -158.45
3.712, -1, -41.5126, -9.05349, 28.2027, 13.5902, 70.3316, -158.789
3.72021, -1, -41.6789, -9.13863, 28.2363, 13.5923, 70.2424, -159.014
3.72812, -1, -41.8453, -9.22375, 28.2699, 13.5943, 70.1535, -159.24
3.73616, -1, -42.0117, -9.30876, 28.3035, 13.5963, 70.0643, -159.465
3.74421, -1, -42.178, -9.39382, 28.3371, 13.5983, 69.9753, -159.69
3.75217, -1, -42.2611, -9.47893, 28.3705, 13.6004, 69.8866, -159.916
3.7602, -1, -42.4273, -9.56392, 28.404, 13.6024, 69.7975, -160.141
3.76829, -1, -42.5937, -9.60642, 28.4376, 13.6044, 69.7086, -160.366
3.77556, -1, -42.7601, -9.69135, 28.4543, 13.6055, 69.6641, -160.479
3.78367, -1, -42.9266, -9.77632, 28.4877, 13.6075, 69.5756, -160.704
3.79162, -1, -43.093, -9.86125, 28.5211, 13.6096, 69.4865, -160.929
3.79962, -1, -43.2592, -9.94619, 28.5546, 13.6116, 69.3979, -161.154
3.80758, -1, -43.4253, -10.0311, 28.588, 13.6137, 69.3094, -161.378
3.81561, -1, -43.5912, -10.116, 28.6215, 13.6158, 69.2207, -161.603
3.8236, -1, -43.7571, -10.201, 28.6549, 13.6178, 69.1322, -161.828
3.83157, -1, -43.9229, -10.2858, 28.6883, 13.6201, 69.0437, -162.052
3.83966, -1, -44.0885, -10.3706, 28.7216, 13.6222, 68.9553, -162.277
3.84756, -1, -44.2538, -10.4552, 28.7552, 13.6243, 68.8666, -162.501
3.85566, -1, -44.419, -10.5398, 28.7886, 13.6266, 68.778, -162.725
3.86362, -1, -44.5842, -10.6244, 28.8218, 13.6287, 68.6895, -162.95
3.87157, -1, -44.7493, -10.7089, 28.8553, 13.6309, 68.6007, -163.174
3.87961, -1, -44.9147, -10.7933, 28.8887, 13.6331, 68.5122, -163.398
3.8866, -1, -45.08, -10.8778, 28.9221, 13.6353, 68.424, -163.622
3.89556, -1, -45.2454, -10.9624, 28.9555, 13.6375, 68.3354, -163.846
3.90458, -1, -45.4107, -11.0468, 28.9889, 13.6398, 68.247, -164.07
3.91163, -1, -45.5759, -11.1313, 29.0221, 13.6421, 68.1588, -164.294
3.92077, -1, -45.7413, -11.2158, 29.0553, 13.6444, 68.0705, -164.517
3.92756, -1, -45.9062, -11.3, 29.0887, 13.6466, 67.9821, -164.741
3.93566, -1, -46.0691, -11.3832, 29.1221, 13.6489, 67.8937, -164.964
3.94356, -1, -46.2285, -11.4642, 29.1557, 13.6513, 67.8061, -165.187
3.95157, -1, -46.3824, -11.5415, 29.1893, 13.6537, 67.7195, -165.405
3.95968, -1, -46.5283, -11.614, 29.2224, 13.656, 67.6358, -165.617
3.96755, -1, -46.664, -11.6807, 29.2536, 13.6583, 67.5577, -165.815
3.97558, -1, -46.7865, -11.7403, 29.2818, 13.6604, 67.4864, -165.995
3.98372, -1, -46.8933, -11.7928, 29.3061, 13.6623, 67.425, -166.15
3.9916, -1, -46.9837, -11.8386, 29.3256, 13.6637, 67.3748, -166.278
3.99961, -1, -47.0583, -11.8786, 29.3393, 13.6648, 67.3358, -166.376
4.00762, -1, -47.1179, -11.9116, 29.3484, 13.6654, 67.3077, -166.447
4.01555, -1, -47.1631, -11.9373, 29.3538, 13.6657, 67.2888, -166.494
4.02352, -1, -47.1959, -11.9559, 29.3565, 13.6658, 67.2773, -166.524
4.03163, -1, -47.2184, -11.9684, 29.3577, 13.6659, 67.2708, -166.54
4.03961, -1, -47.2326, -11.9761, 29.3583, 13.6659, 67.2674, -166.548
4.04753, 2, -47.2405, -11.9803, 29.3586, 13.666, 67.2659, -166.552
4.05562, 2, -47.2441, -11.9823, 29.3588, 13.6661, 67.2651, -166.554
4.06356, 2, -47.2449, -11.9831, 29.3589, 13.666, 67.2647, -166.555
4.07157, 2, -47.2447, -11.9834, 29.359, 13.6661, 67.2646, -166.555
4.07968, 2, -47.2446, -11.9835, 29.359, 13.6661, 67.2645, -166.555
4.08759, 2, -47.2447, -11.9836, 29.3591, 13.6661, 67.2644, -166.555
4.09563, 2, -47.2454, -11.9837, 29.3591, 13.6661, 67.2644, -166.555
4.10376, 2, -47.2464, -11.9841, 29.3591, 13.6661, 67.2644, -166.555
4.11165, 2, -47.248, -11.9847, 29.3591, 13.6661, 67.2644, -166.555
4.11971, 2, -47.2498, -11.9856, 29.3591, 13.6661, 67.2644, -166.555
4.12772, 2, -47.2513, -11.9864, 29.3591, 13.6661, 67.2644, -166.555
4.13561, 2, -47.2525, -11.9872, 29.3591, 13.6661, 67.2644, -166.555
4.14364, 2, -47.2531, -11.9877, 29.3591, 13.6661, 67.2644, -166.555
4.15172, 2, -47.2534, -11.988, 29.3591, 13.6661, 67.2644, -166.555
4.15969, 2, -47.2535, -11.9881, 29.3591, 13.6661, 67.2644, -166.555
4.16758, 2, -47.2534, -11.9881, 29.3591, 13.6661, 67.2644, -166.555
4.1757, 2, -47.2529, -11.9881, 29.3591, 13.6661, 67.2644, -166.555
4.18406, 2, -47.2525, -11.9881, 29.3592, 13.6661, 67.2644, -166.555
4.19194, 2, -47.2521, -11.9881, 29.3592, 13.6661, 67.2644, -166.555
4.19997, 2, -47.2518, -11.9881, 29.3592, 13.6661, 67.2644, -166.555
4.20817, 2, -47.2517, -11.9881, 29.3592, 13.6661, 67.2644, -166.555
4.21604, 2, -47.2519, -11.9882, 29.3592, 13.6661, 67.2644, -166.555
4.22409, 2, -47.252, -11.9885, 29.3592, 13.6661, 67.2644, -166.555
4.23249, 2, -47.2524, -11.9888, 29.3592, 13.6661, 67.2644, -166.555
4.24035, 2, -47.253, -11.9891, 29.3592, 13.6661, 67.2645, -166.555
4.24814, 2, -47.2535, -11.9894, 29.3592, 13.6661, 67.2644, -166.555
4.25657, 2, -47.2537, -11.9895, 29.3592, 13.6661, 67.2645, -166.555
4.26407, 2, -47.2538, -11.9895, 29.3592, 13.6661, 67.2645, -166.555
4.27223, 2, -47.2537, -11.9895, 29.3592, 13.666, 67.2645, -166.555
4.28051, 2, -47.2536, -11.9895, 29.3592, 13.666, 67.2644, -166.555
4.28755, 2, -47.2535, -11.9895, 29.3592, 13.666, 67.2644, -166.555
4.29559, 2, -47.253, -11.9894, 29.3592, 13.6661, 67.2644, -166.555
4.30355, 2, -47.2527, -11.9894, 29.3592, 13.6661, 67.2644, -166.555
4.31158, 2, -47.2524, -11.9894, 29.3592, 13.666, 67.2645, -166.555
4.31969, 2, -47.2522, -11.9894, 29.3592, 13.6661, 67.2645, -166.555
4.32758, 2, -47.2521, -11.9894, 29.3592, 13.666, 67.2645, -166.555
4.33554, 2, -47.2521, -11.9895, 29.3592, 13.666, 67.2645, -166.555
4.3436, 2, -47.2521, -11.9895, 29.3592, 13.666, 67.2645, -166.555
4.35155, 2, -47.2521, -11.9896, 29.3592, 13.666, 67.2645, -166.555
4.3596, 2, -47.252, -11.9896, 29.3592, 13.666, 67.2645, -166.555
4.3676, 2, -47.2521, -11.9896, 29.3592, 13.666, 67.2645, -166.555
4.37555, 2, -47.2521, -11.9896, 29.3592, 13.666, 67.2645, -166.555
4.38354, 2, -47.2521, -11.9896, 29.3592, 13.666, 67.2645, -166.555
4.39162, 2, -47.252, -11.9895, 29.3592, 13.666, 67.2645, -166.555
4.40143, 2, -47.2519, -11.9894, 29.3592, 13.666, 67.2646, -166.555
4.40754, 2, -47.2518, -11.9894, 29.3592, 13.666, 67.2646, -166.555
4.41561, 2, -47.2517, -11.9894, 29.3592, 13.6659, 67.2646, -166.555
4.42354, 2, -47.2516, -11.9894, 29.3592, 13.666, 67.2646, -166.555
4.43257, 2, -47.2515, -11.9894, 29.3592, 13.666, 67.2646, -166.555
4.4397, 2, -47.2514, -11.9894, 29.3592, 13.666, 67.2645, -166.555
4.44754, 2, -47.2514, -11.9894, 29.3592, 13.666, 67.2645, -166.555
4.45554, 2, -47.2513, -11.9894, 29.3592, 13.666, 67.2645, -166.555
4.46362, 2, -47.2513, -11.9894, 29.3592, 13.666, 67.2646, -166.555
4.47155, 2, -47.2512, -11.9894, 29.3592, 13.666, 67.2646, -166.555
4.47961, 2, -47.2512, -11.9894, 29.3592, 13.666, 67.2646, -166.555
4.48761, 2, -47.2511, -11.9894, 29.3592, 13.666, 67.2646, -166.555
4.49557, 2, -47.251, -11.9893, 29.3592, 13.666, 67.2645, -166.555
4.50355, 2, -47.2509, -11.9893, 29.3592, 13.666, 67.2645, -166.555
4.51162, 2, -47.2508, -11.9892, 29.3592, 13.666, 67.2646, -166.555
4.5196, 2, -47.2508, -11.9892, 29.3592, 13.6659, 67.2646, -166.555
4.52754, 2, -47.2507, -11.9892, 29.3592, 13.666, 67.2646, -166.555
4.5356, 2, -47.2506, -11.9892, 29.3592, 13.666, 67.2646, -166.555
4.5436, 2, -47.2505, -11.9892, 29.3592, 13.666, 67.2646, -166.555
4.55155, 2, -47.2504, -11.9892, 29.3592, 13.666, 67.2646, -166.555
4.55967, 2, -47.2503, -11.9892, 29.3592, 13.666, 67.2647, -166.555
4.56753, 2, -47.2502, -11.9892, 29.3592, 13.6659, 67.2647, -166.555
4.57554, 2, -47.2501, -11.9892, 29.3592, 13.6659, 67.2647, -166.555
4.58361, 2, -47.25, -11.9892, 29.3592, 13.666, 67.2647, -166.555
4.59159, 2, -47.2498, -11.9891, 29.3592, 13.6659, 67.2647, -166.555
4.59968, 2, -47.2498, -11.9891, 29.3592, 13.6659, 67.2646, -166.555
4.60774, 2, -47.2497, -11.989, 29.3592, 13.6659, 67.2646, -166.555
4.61564, 2, -47.2495, -11.9889, 29.3592, 13.6659, 67.2646, -166.555
4.62364, 2, -47.2494, -11.9889, 29.3592, 13.6659, 67.2647, -166.555
4.63172, 2, -47.2494, -11.9889, 29.3592, 13.6659, 67.2647, -166.555
4.6397, 2, -47.2493, -11.9889, 29.3592, 13.6659, 67.2647, -166.555
4.64756, 2, -47.2492, -11.9889, 29.3592, 13.6659, 67.2647, -166.555
4.65564, 2, -47.2491, -11.9889, 29.3592, 13.6659, 67.2647, -166.555
4.66361, 2, -47.2491, -11.9889, 29.3592, 13.6659, 67.2647, -166.555
4.67168, 2, -47.249, -11.9889, 29.3592, 13.6659, 67.2647, -166.555
4.67977, 2, -47.249, -11.9889, 29.3592, 13.6658, 67.2647, -166.555
4.68772, 2, -47.249, -11.9888, 29.3592, 13.6659, 67.2647, -166.555
4.69587, 2, -47.2489, -11.9888, 29.3592, 13.6659, 67.2647, -166.555
4.70392, 2, -47.2488, -11.9888, 29.3592, 13.6659, 67.2647, -166.555
4.71197, 2, -47.2488, -11.9887, 29.3592, 13.6659, 67.2647, -166.555
4.72011, 2, -47.2487, -11.9886, 29.3592, 13.6658, 67.2647, -166.555
4.72809, 2, -47.2486, -11.9886, 29.3592, 13.6658, 67.2647, -166.555
4.73606, 2, -47.2485, -11.9885, 29.3592, 13.6658, 67.2647, -166.555
4.74418, 2, -47.2485, -11.9885, 29.3592, 13.6658, 67.2647, -166.555
4.75212, 2, -47.2484, -11.9885, 29.3592, 13.6658, 67.2647, -166.555
4.76015, 2, -47.2484, -11.9885, 29.3592, 13.6658, 67.2647, -166.555
4.76811, 2, -47.2484, -11.9885, 29.3592, 13.6658, 67.2647, -166.555
4.77616, 2, -47.2484, -11.9885, 29.3592, 13.6658, 67.2647, -166.555
4.78353, 2, -47.2483, -11.9885, 29.3592, 13.6658, 67.2647, -166.555
4.79159, 2, -47.2483, -11.9885, 29.3592, 13.6658, 67.2647, -166.555
4.79964, 2, -47.2483, -11.9885, 29.3592, 13.6658, 67.2648, -166.555
4.80753, 2, -47.2482, -11.9884, 29.3592, 13.6658, 67.2648, -166.555
4.81555, 2, -47.2482, -11.9883, 29.3592, 13.6658, 67.2648, -166.555
4.82358, 2, -47.2481, -11.9883, 29.3592, 13.6658, 67.2648, -166.555
4.83157, 2, -47.248, -11.9882, 29.3592, 13.6657, 67.2648, -166.555
4.8396, 2, -47.2479, -11.9882, 29.3592, 13.6657, 67.2649, -166.554
4.84758, 2, -47.2478, -11.9882, 29.3592, 13.6656, 67.2649, -166.554
4.85554, 2, -47.2478, -11.9882, 29.3592, 13.6656, 67.2649, -166.554
4.86353, 2, -47.2477, -11.9882, 29.3592, 13.6656, 67.2648, -166.554
4.8716, 2, -47.2477, -11.9881, 29.3592, 13.6657, 67.2649, -166.554
4.87958, 2, -47.2477, -11.9881, 29.3592, 13.6656, 67.2649, -166.554
4.88753, 2, -47.2476, -11.9881, 29.3592, 13.6656, 67.2649, -166.554
4.89704, 2, -47.2476, -11.9881, 29.3592, 13.6656, 67.2649, -166.554
4.90353, 2, -47.2476, -11.9881, 29.3592, 13.6656, 67.2649, -166.554
4.91253, 2, -47.2475, -11.9881, 29.3592, 13.6655, 67.2649, -166.554
4.91975, 2, -47.2475, -11.988, 29.3592, 13.6656, 67.2649, -166.554
4.92857, 2, -47.2474, -11.9879, 29.3592, 13.6655, 67.2649, -166.554
4.93553, 2, -47.2473, -11.9879, 29.3592, 13.6655, 67.2649, -166.554
4.94363, 2, -47.2472, -11.9878, 29.3592, 13.6655, 67.265, -166.554
4.95154, 2, -47.2472, -11.9878, 29.3592, 13.6655, 67.265, -166.554
4.9596, 2, -47.2471, -11.9878, 29.3592, 13.6655, 67.265, -166.554
4.96759, 2, -47.2471, -11.9878, 29.3592, 13.6655, 67.265, -166.554
4.97556, 2, -47.2471, -11.9878, 29.3592, 13.6655, 67.265, -166.554
4.98355, 2, -47.2471, -11.9878, 29.3592, 13.6654, 67.265, -166.554
4.9916, 2, -47.247, -11.9878, 29.3592, 13.6654, 67.265, -166.554
4.99961, 2, -47.247, -11.9878, 29.3592, 13.6654, 67.265, -166.554
5.00752, 2, -47.2469, -11.9877, 29.3592, 13.6654, 67.265, -166.554
5.01559, 2, -47.2469, -11.9877, 29.3592, 13.6654, 67.265, -166.554
5.02352, 2, -47.2469, -11.9876, 29.3592, 13.6654, 67.2651, -166.554
5.03153, 2, -47.2468, -11.9875, 29.3592, 13.6654, 67.2651, -166.554
5.03965, 2, -47.2467, -11.9875, 29.3592, 13.6654, 67.2651, -166.554
5.04778, 2, -47.2466, -11.9875, 29.3592, 13.6654, 67.2651, -166.554
5.05559, 2, -47.2466, -11.9875, 29.3592, 13.6653, 67.2651, -166.554
5.06353, 2, -47.2466, -11.9875, 29.3592, 13.6652, 67.2651, -166.554
5.07154, 2, -47.2465, -11.9875, 29.3592, 13.6652, 67.2651, -166.554
5.07965, 2, -47.2464, -11.9875, 29.3592, 13.6652, 67.2651, -166.554
5.08762, 2, -47.2464, -11.9875, 29.3592, 13.6653, 67.2651, -166.554
5.09556, 2, -47.2464, -11.9875, 29.3592, 13.6652, 67.2651, -166.554
5.10368, 2, -47.2463, -11.9874, 29.3592, 13.6652, 67.2651, -166.554
5.11164, 4, -47.2464, -11.9874, 29.3592, 13.6652, 67.2651, -166.554
5.11967, 4, -47.2463, -11.9873, 29.3592, 13.6651, 67.2652, -166.554
5.12769, 4, -47.2463, -11.9873, 29.3592, 13.6651, 67.2652, -166.554
5.13562, 4, -47.2462, -11.9872, 29.3592, 13.6651, 67.2652, -166.554
5.14358, 4, -47.2461, -11.9872, 29.3592, 13.6651, 67.2652, -166.554
5.15172, 4, -47.246, -11.9872, 29.3592, 13.6651, 67.2651, -166.554
5.15965, 4, -47.246, -11.9872, 29.3592, 13.6651, 67.2652, -166.554
5.16758, 4, -47.2459, -11.9872, 29.3592, 13.6651, 67.2652, -166.554
5.17567, 4, -47.2459, -11.9872, 29.3592, 13.6651, 67.2653, -166.554
5.18365, 4, -47.2459, -11.9871, 29.3592, 13.6651, 67.2652, -166.554
5.19172, 4, -47.2458, -11.9871, 29.3592, 13.665, 67.2652, -166.554
5.20034, 4, -47.2458, -11.9871, 29.3592, 13.6651, 67.2653, -166.554
5.208, 4, -47.2458, -11.9871, 29.3592, 13.665, 67.2653, -166.554
5.22288, 4, -47.2458, -11.987, 29.3592, 13.665, 67.2653, -166.554
5.25215, 4, -47.2456, -11.9869, 29.3592, 13.665, 67.2652, -166.554
5.25406, 4, -47.2456, -11.9869, 29.3592, 13.665, 67.2652, -166.554
5.25683, 4, -47.2456, -11.9869, 29.3592, 13.665, 67.2653, -166.554
5.25875, 4, -47.2456, -11.9869, 29.3592, 13.665, 67.2653, -166.554
5.2863, 4, -47.2454, -11.9868, 29.3592, 13.665, 67.2653, -166.553
5.29141, 4, -47.2453, -11.9868, 29.3592, 13.665, 67.2653, -166.553
5.29407, 4, -47.2453, -11.9868, 29.3592, 13.665, 67.2653, -166.553
5.29763, 4, -47.2453, -11.9868, 29.3592, 13.665, 67.2653, -166.553
5.30186, 4, -47.2453, -11.9868, 29.3592, 13.6649, 67.2653, -166.553
5.30371, 4, -47.2453, -11.9868, 29.3592, 13.6649, 67.2653, -166.553
5.30645, 4, -47.2453, -11.9868, 29.3592, 13.6649, 67.2653, -166.553
5.3145, 4, -47.2453, -11.9868, 29.3592, 13.6649, 67.2653, -166.553
5.32141, 4, -47.2453, -11.9867, 29.3592, 13.6649, 67.2653, -166.553
5.33168, 4, -47.2453, -11.9867, 29.3592, 13.6649, 67.2653, -166.553
5.34002, 4, -47.2452, -11.9867, 29.3592, 13.6648, 67.2653, -166.553
5.34364, 4, -47.2452, -11.9867, 29.3592, 13.6648, 67.2653, -166.553
5.35507, 4, -47.2451, -11.9866, 29.3592, 13.6648, 67.2653, -166.553
5.3621, 4, -47.2451, -11.9866, 29.3592, 13.6648, 67.2653, -166.553
5.36977, 4, -47.2452, -11.9867, 29.3592, 13.6648, 67.2654, -166.553
5.37811, 4, -47.2461, -11.9871, 29.3596, 13.6649, 67.2654, -166.553
5.38531, 4, -47.247, -11.9878, 29.3603, 13.6653, 67.2656, -166.553
5.39442, 4, -47.2526, -11.9934, 29.3671, 13.6764, 67.2683, -166.552
5.39979, 4, -47.2557, -11.9973, 29.3723, 13.6866, 67.2709, -166.55
5.40986, 5, -47.2713, -12.0176, 29.4045, 13.7503, 67.2882, -166.537
5.41744, 5, -47.2794, -12.0285, 29.4232, 13.7884, 67.3127, -166.517
5.4238, 5, -47.3016, -12.0582, 29.4772, 13.9004, 67.3304, -166.503
5.43379, 5, -47.3535, -12.1257, 29.6116, 14.1847, 67.4092, -166.438
5.44169, 5, -47.3766, -12.1552, 29.7441, 14.4697, 67.488, -166.372
5.44866, 5, -47.4326, -12.2253, 29.8242, 14.6436, 67.5353, -166.332
5.45567, 5, -47.5013, -12.3106, 30.0134, 15.0547, 67.646, -166.238
5.46688, 5, -47.627, -12.4665, 30.3681, 15.8183, 67.8494, -166.064
5.47168, 5, -47.6746, -12.5253, 30.5031, 16.1063, 67.9252, -165.999
5.4807, 5, -47.7769, -12.652, 30.7954, 16.7215, 68.0858, -165.86
5.48769, 5, -47.8873, -12.7892, 31.112, 17.3773, 68.2536, -165.715
5.49572, 5, -48.0034, -12.9345, 31.4464, 18.0573, 68.425, -165.566
5.50861, 5, -48.1838, -13.1613, 31.9671, 19.0965, 68.6807, -165.344
5.51462, 5, -48.3046, -13.3132, 32.3199, 19.787, 68.8471, -165.197
5.52298, 5, -48.3642, -13.388, 32.4963, 20.1274, 69.0094, -165.049
5.52877, 5, -48.4792, -13.5336, 32.8464, 20.7935, 69.0893, -164.973
5.53565, 6, -48.585, -13.6709, 33.1869, 21.4302, 69.2479, -164.807
5.54405, 6, -48.6774, -13.797, 33.5127, 22.0264, 69.4069, -164.614
5.55169, 6, -48.7524, -13.9131, 33.8188, 22.577, 69.5692, -164.38
5.5616, 7, -48.8068, -14.0213, 34.1033, 23.077, 69.7364, -164.094
5.56773, 7, -48.8396, -14.1216, 34.3654, 23.5274, 69.9092, -163.749
5.57629, 8, -48.8509, -14.2123, 34.6065, 23.9333, 70.0882, -163.344
5.58563, 8, -48.8437, -14.2934, 34.8318, 24.3035, 70.2725, -162.884
5.59239, 9, -48.8209, -14.3666, 35.0454, 24.6485, 70.4628, -162.377
5.59979, 9, -48.7854, -14.4339, 35.2511, 24.9788, 70.6596, -161.83
5.60806, 9, -48.7396, -14.497, 35.4547, 25.3049, 70.8638, -161.255
5.6176, 10, -48.6848, -14.5586, 35.6597, 25.6336, 71.0762, -160.658
5.62381, 10, -48.6218, -14.6205, 35.8663, 25.9691, 71.2963, -160.045
5.63222, 11, -48.5524, -14.6828, 36.0752, 26.3139, 71.523, -159.421
5.64436, 12, -48.4398, -14.7771, 36.3913, 26.849, 71.8715, -158.475
5.64973, 12, -48.4008, -14.8088, 36.4961, 27.032, 71.9893, -158.157
5.66153, 13, -48.2822, -14.9022, 36.809, 27.5937, 72.3467, -157.196
5.66432, 13, -48.2426, -14.9321, 36.9127, 27.7851, 72.4669, -156.874
5.67252, 13, -48.1625, -14.9902, 37.1187, 28.1737, 72.7094, -156.226
5.67999, 14, -48.08, -15.0481, 37.3226, 28.5694, 72.9546, -155.573
5.69082, 15, -47.9937, -15.107, 37.5258, 28.9708, 73.2023, -154.918
5.69592, 15, -47.9037, -15.1661, 37.7274, 29.3757, 73.4511, -154.264
5.70472, 15, -47.8093, -15.2244, 37.9265, 29.7818, 73.6995, -153.611
5.71229, 16, -47.7086, -15.2825, 38.1241, 30.1869, 73.9457, -152.961
5.72455, 17, -47.5447, -15.3727, 38.4163, 30.7891, 74.3071, -151.997
5.72833, 17, -47.4871, -15.4038, 38.5121, 30.9876, 74.4247, -151.678
5.73655, 17, -47.3686, -15.4667, 38.7015, 31.3803, 74.6544, -151.047
5.74444, 18, -47.2452, -15.5303, 38.8891, 31.768, 74.8772, -150.424
5.75236, 18, -47.1167, -15.5956, 39.0742, 32.1514, 75.0933, -149.81
5.76182, 19, -46.9827, -15.6638, 39.2569, 32.5322, 75.3039, -149.203
5.76833, 19, -46.8431, -15.735, 39.4386, 32.9119, 75.5098, -148.602
5.77637, 20, -46.7714, -15.7714, 39.6189, 33.2909, 75.7121, -148.007
5.7849, 20, -46.5493, -15.8827, 39.7963, 33.6698, 75.9107, -147.42
5.79538, 21, -46.473, -15.9205, 39.9711, 34.0485, 76.1058, -146.837
5.8003, 21, -46.3172, -15.9977, 40.0578, 34.2378, 76.2021, -146.548
5.81004, 22, -46.0754, -16.1169, 40.3145, 34.804, 76.4848, -145.69
5.81569, 22, -45.9926, -16.1573, 40.3984, 34.9917, 76.5769, -145.407
5.82568, 23, -45.7361, -16.2804, 40.646, 35.5498, 76.846, -144.567
5.83339, 23, -45.5569, -16.3652, 40.8079, 35.9168, 77.0187, -144.013
5.83972, 24, -45.4644, -16.4086, 40.8875, 36.0982, 77.1028, -143.738
5.8477, 24, -45.2738, -16.497, 41.0436, 36.4556, 77.266, -143.194
5.85864, 25, -44.9752, -16.6316, 41.27, 36.9762, 77.4982, -142.387
5.86748, 26, -44.7678, -16.7221, 41.4157, 37.3128, 77.6447, -141.855
5.87164, 26, -44.6614, -16.768, 41.4868, 37.4778, 77.7157, -141.591
5.88259, 27, -44.3313, -16.9073, 41.6919, 37.961, 77.9216, -140.801
5.88773, 27, -44.2178, -16.9539, 41.7574, 38.1182, 77.9881, -140.539
5.89789, 27, -43.8676, -17.0927, 41.9448, 38.5788, 78.1826, -139.753
5.90578, 28, -43.6254, -17.1845, 42.0617, 38.8767, 78.3087, -139.23
5.91197, 28, -43.5016, -17.2299, 42.1175, 39.0228, 78.3706, -138.969
5.92137, 29, -43.2485, -17.3195, 42.2242, 39.3089, 78.4927, -138.186
5.92806, 29, -42.9889, -17.4067, 42.324, 39.5871, 78.6117, -137.925
5.93572, 30, -42.7225, -17.4918, 42.4166, 39.857, 78.7277, -137.403
5.94561, 30, -42.4482, -17.5745, 42.502, 40.1184, 78.8967, -136.622
5.95172, 31, -42.1658, -17.6547, 42.5804, 40.3714, 78.9515, -136.361
5.96238, 31, -41.7284, -17.7703, 42.685, 40.735, 79.1125, -135.581
5.96771, 32, -41.5791, -17.8077, 42.7164, 40.852, 79.1648, -135.322
5.97597, 32, -41.2757, -17.8807, 42.7743, 41.0798, 79.2674, -134.803
5.98363, 33, -40.9656, -17.9507, 42.825, 41.2997, 79.3678, -134.285
5.99166, 33, -40.6486, -18.0174, 42.8686, 41.5113, 79.4656, -133.769
6.00257, 34, -40.1624, -18.1124, 42.9203, 41.8134, 79.6072, -132.995
6.00877, 34, -39.9981, -18.1427, 42.9339, 41.9102, 79.6532, -132.738
6.01697, 35, -39.6651, -18.201, 42.9556, 42.0978, 79.7433, -132.224
6.02372, 35, -39.3262, -18.2559, 42.9704, 42.2781, 79.8308, -131.712
6.03478, 36, -38.8044, -18.3318, 42.9794, 42.534, 79.9581, -130.945
6.03965, 36, -38.6269, -18.3555, 42.9791, 42.6154, 79.9997, -130.69
6.04951, 37, -38.2675, -18.4003, 42.9733, 42.7726, 80.0806, -130.182
6.05573, 37, -37.9025, -18.4413, 42.9607, 42.9223, 80.1601, -129.675
6.06469, 38, -37.5322, -18.4788, 42.9413, 43.0647, 80.2369, -129.169
6.07167, 38, -37.1573, -18.5129, 42.9154, 43.1996, 80.3122, -128.666
6.08334, 39, -36.7777, -18.5436, 42.8827, 43.3271, 80.4201, -127.913
6.08786, 39, -36.3936, -18.5706, 42.8433, 43.4473, 80.4556, -127.664
6.09567, 40, -36.0039, -18.5939, 42.7972, 43.5602, 80.5243, -127.166
6.10546, 40, -35.6079, -18.6133, 42.7447, 43.6659, 80.5918, -126.669
6.11181, 41, -35.2061, -18.6287, 42.6856, 43.7643, 80.6566, -126.175
6.1198, 41, -34.7991, -18.6406, 42.6201, 43.8556, 80.7198, -125.682
6.12786, 42, -34.3885, -18.6491, 42.5481, 43.9398, 80.7811, -125.193
6.13578, 42, -33.9749, -18.6543, 42.4698, 44.017, 80.8401, -124.705
6.14379, 43, -33.5579, -18.6565, 42.3854, 44.0867, 80.8982, -124.219
6.15271, 43, -33.1361, -18.6551, 42.2952, 44.1499, 80.9534, -123.736
6.16405, 44, -32.7083, -18.65, 42.1992, 44.2304, 81.0348, -123.016
6.16962, 44, -32.2741, -18.6411, 42.0975, 44.2536, 81.0607, -122.778
6.1763, 45, -31.8337, -18.6284, 41.9899, 44.2951, 81.1111, -122.302
6.18652, 45, -31.3891, -18.6122, 41.8762, 44.3289, 81.1609, -121.828
6.19198, 46, -30.9421, -18.5926, 41.7565, 44.3549, 81.2084, -121.356
6.20089, 46, -30.4931, -18.5694, 41.6311, 44.3731, 81.2537, -120.888
6.2081, 47, -30.0405, -18.5421, 41.4997, 44.3838, 81.2987, -120.421
6.2164, 47, -29.5822, -18.5102, 41.3625, 44.3878, 81.3424, -119.956
6.22446, 48, -29.1172, -18.4741, 41.2191, 44.384, 81.3844, -119.493
6.23262, 48, -28.6462, -18.4336, 41.0696, 44.3713, 81.4261, -119.032
6.24044, 49, -28.1708, -18.3887, 40.9144, 44.3501, 81.468, -118.573
6.24844, 49, -27.693, -18.3393, 40.753, 44.3193, 81.5087, -118.115
6.25742, 50, -27.2128, -18.2852, 40.5852, 44.2785, 81.5493, -117.658
6.26428, 50, -26.7281, -18.2256, 40.4108, 44.2294, 81.5912, -117.202
6.27461, 51, -26.2359, -18.1604, 40.23, 44.1702, 81.6338, -116.747
6.28037, 51, -25.9868, -18.1257, 40.1371, 44.1011, 81.6762, -116.292
6.28958, 52, -25.2301, -18.0135, 39.8468, 44.0222, 81.7196, -115.838
6.29871, 53, -24.7218, -17.9322, 39.6451, 43.9326, 81.7645, -115.386
6.30609, 53, -24.2116, -17.8453, 39.4371, 43.8332, 81.8091, -114.933
6.3117, 53, -23.955, -17.7996, 39.3302, 43.7797, 81.8317, -114.707
6.32129, 54, -23.1753, -17.6527, 38.9981, 43.6032, 81.9035, -114.03
6.32761, 54, -22.9112, -17.6005, 38.8841, 43.539, 81.9282, -113.804
6.33692, 55, -22.1082, -17.4346, 38.5302, 43.3287, 82.0056, -113.125
6.34549, 55, -21.8385, -17.3762, 38.2852, 43.1733, 82.0612, -112.673
6.35166, 56, -21.2973, -17.2553, 38.1603, 43.0912, 82.0893, -112.447
6.36304, 57, -20.4784, -17.0637, 37.7747, 42.8276, 82.1766, -111.771
6.37169, 57, -19.9222, -16.9289, 37.5097, 42.6378, 82.2369, -111.32
6.37561, 57, -19.6407, -16.8592, 37.3748, 42.5386, 82.2673, -111.095
6.38371, 58, -19.0721, -16.7152, 37.0998, 42.3308, 82.3301, -110.644
6.39308, 58, -18.4993, -16.5649, 36.8191, 42.1107, 82.4268, -109.97
6.39962, 59, -17.9242, -16.4093, 36.5313, 41.8783, 82.4606, -109.745
6.40825, 59, -17.3447, -16.249, 36.237, 41.6326, 82.5298, -109.295
6.42037, 60, -16.4575, -16, 35.7832, 41.2394, 82.6386, -108.621
6.42381, 60, -16.157, -15.9142, 35.6292, 41.1017, 82.6758, -108.396
6.43165, 61, -15.5523, -15.7389, 35.3169, 40.8161, 82.7516, -107.947
6.43966, 61, -14.9449, -15.5594, 34.9988, 40.518, 82.8295, -107.498
6.44777, 62, -14.3334, -15.3756, 34.6756, 40.2075, 82.9095, -107.049
6.45596, 62, -13.7139, -15.1866, 34.3479, 39.8846, 82.991, -106.6
6.46976, 63, -12.7668, -14.8904, 33.8477, 39.3747, 83.1619, -105.701
6.47381, 63, -12.4473, -14.7886, 33.6785, 39.1977, 83.2068, -105.475
6.47962, 64, -11.8049, -14.5809, 33.3353, 38.8326, 83.2526, -105.25
6.4876, 64, -11.1574, -14.367, 32.9853, 38.4521, 83.3481, -104.798
6.49858, 65, -10.1671, -14.0335, 32.4471, 37.8499, 83.5018, -104.115
6.50368, 66, -9.83179, -13.9191, 32.2648, 37.6403, 83.5558, -103.887
6.51263, 66, -9.15441, -13.6853, 31.8967, 37.2082, 83.6683, -103.428
6.52214, 67, -8.47144, -13.4441, 31.3349, 36.5298, 83.8473, -102.737
6.52867, 67, -7.78316, -13.1958, 31.1446, 36.2957, 83.9099, -102.506
6.53561, 67, -7.08603, -12.9404, 30.7603, 35.8162, 84.0399, -102.042
6.54462, 68, -6.38008, -12.6777, 30.3721, 35.3217, 84.1758, -101.575
6.55362, 69, -5.66735, -12.4093, 29.9806, 34.8144, 84.3182, -101.108
6.56169, 69, -4.94971, -12.1343, 29.5855, 34.2939, 84.4665, -100.638
6.57351, 70, -3.85953, -11.7081, 28.9875, 33.4905, 84.6999, -99.9292
6.57634, 70, -3.49148, -11.5622, 28.7876, 33.216, 84.7806, -99.6919
6.58379, 70, -2.74886, -11.2635, 28.3868, 32.6562, 84.947, -99.2155
6.59262, 71, -1.99859, -10.9571, 27.9834, 32.0815, 85.1205, -98.7374
6.59966, 71, -1.24008, -10.6437, 27.5765, 31.4906, 85.3032, -98.2555
6.60861, 72, -0.474338, -10.3239, 27.1664, 30.8819, 85.4955, -97.7703
6.61687, 73, 0.29691, -9.99808, 26.7541, 30.2564, 85.6969, -97.2819
6.6238, 73, 1.07264, -9.66453, 26.3406, 29.6192, 85.9069, -96.7917
6.63211, 73, 1.85252, -9.32422, 25.9276, 28.9717, 86.1245, -96.3006
6.64392, 74, 3.0282, -8.80305, 25.3139, 27.9866, 86.4643, -95.5617
6.64834, 74, 3.42094, -8.62695, 25.112, 27.6555, 86.5807, -95.3153
6.6576, 75, 4.20718, -8.27008, 24.7122, 26.9897, 86.8178, -94.8219
6.66528, 75, 4.99409, -7.9087, 24.3177, 26.3233, 87.0603, -94.3288
6.67181, 76, 5.78054, -7.54221, 23.9286, 25.6569, 87.308, -93.8345
6.68065, 76, 6.56592, -7.17047, 23.5463, 24.9912, 87.561, -93.3399
6.6987, 77, 8.13565, -6.40264, 22.7966, 23.6642, 88.0889, -92.3494
6.7014, 78, 8.5284, -6.20436, 22.6115, 23.3313, 88.227, -92.1014
6.71435, 78, 9.70744, -5.59764, 22.0619, 22.3243, 88.6601, -91.3523
6.71663, 79, 10.1012, -5.39188, 21.8798, 21.9851, 88.8114, -91.1006
6.71989, 79, 10.4955, -5.18479, 21.6984, 21.6442, 88.9662, -90.8475
6.72884, 79, 11.2845, -4.76492, 21.337, 20.9596, 89.2859, -90.3369
6.73598, 80, 12.0714, -4.3345, 20.9787, 20.2715, 89.6169, -89.8202
6.74456, 80, 12.8523, -3.89292, 20.6249, 19.5863, 89.9579, -89.2961
6.75204, 81, 13.6265, -3.44341, 20.277, 18.9101, 90.3071, -88.7658
6.76006, 81, 14.3947, -2.9875, 19.9366, 18.2471, 90.6626, -88.2303
6.7681, 82, 14.7762, -2.52367, 19.6066, 17.5999, 91.0221, -87.6919
6.77608, 82, 15.5336, -2.28873, 19.4456, 17.2828, 91.2035, -87.1507
6.78349, 83, 16.2807, -1.81349, 19.1309, 16.662, 91.569, -86.8795
6.79152, 83, 17.0156, -1.33252, 18.8258, 16.0609, 91.9388, -86.3361
6.80131, 84, 17.7376, -0.846554, 18.5295, 15.1935, 92.5033, -85.522
6.80756, 84, 18.445, -0.356702, 18.2424, 14.9138, 92.6948, -85.2514
6.81572, 85, 19.1358, 0.137296, 17.9623, 14.3691, 93.0832, -84.7107
6.82351, 85, 19.808, 0.636847, 17.6882, 13.8438, 93.4799, -84.1722
6.83148, 85, 20.4616, 1.14125, 17.4205, 13.3378, 93.884, -83.636
6.83946, 86, 21.0982, 1.64948, 17.1587, 12.852, 94.2943, -83.1017
6.84749, 86, 21.7212, 2.16342, 16.9038, 12.3856, 94.7102, -82.5668
6.85549, 87, 22.3318, 2.68613, 16.6549, 11.9393, 95.1321, -82.0297
6.86351, 87, 22.9312, 3.21937, 16.4102, 11.5117, 95.5609, -81.4884
6.87141, 88, 23.5209, 3.76186, 16.1697, 11.1014, 95.9967, -80.942
6.87946, 88, 24.1007, 4.31185, 15.9317, 10.7065, 96.4397, -80.3869
6.88773, 89, 24.6696, 4.87117, 15.6975, 10.327, 96.8898, -79.822
6.89548, 89, 25.2285, 5.4418, 15.4681, 9.96209, 97.3473, -79.2457
6.90374, 90, 25.7807, 6.02348, 15.2419, 9.61283, 97.8109, -78.6576
6.91152, 90, 26.3294, 6.61513, 15.0191, 9.27841, 98.2802, -78.0557
6.92141, 91, 26.8698, 7.51956, 14.6948, 8.80825, 98.9942, -77.1271
6.92745, 91, 27.397, 7.82577, 14.5895, 8.66063, 99.2349, -76.8115
6.93552, 91, 27.9117, 8.44646, 14.3825, 8.37989, 99.7197, -76.1716
6.94453, 92, 28.4176, 9.07821, 14.1803, 8.12075, 100.209, -75.5202
6.95147, 92, 28.9169, 9.71974, 13.983, 7.88314, 100.702, -74.8604
6.95955, 93, 29.4065, 10.3687, 13.7911, 7.66798, 101.198, -74.1937
6.96747, 93, 29.8835, 11.0231, 13.6062, 7.47571, 101.694, -73.5191
6.97546, 94, 30.3459, 11.6815, 13.4284, 7.30665, 102.19, -72.8377
6.98352, 94, 30.7938, 12.343, 13.2567, 7.16083, 102.684, -72.1519
6.99145, 95, 31.2277, 13.0067, 13.0922, 7.03841, 103.175, -71.4602
6.99955, 95, 31.6481, 13.6727, 12.9355, 6.93956, 103.663, -70.7623
7.00745, 96, 32.0537, 14.34, 12.7856, 6.86416, 104.148, -70.0597
7.01573, 97, 32.4435, 15.0082, 12.642, 6.81326, 104.629, -69.3517
7.02361, 97, 32.8175, 15.6761, 12.5053, 6.7836, 105.104, -68.6373
7.03167, 98, 33.1753, 16.3414, 12.3763, 6.77535, 105.574, -67.9196
7.03946, 98, 33.5174, 17.0026, 12.2557, 6.78938, 106.036, -67.1998
7.04752, 98, 33.8446, 17.6578, 12.1441, 6.82361, 106.489, -66.4777
7.05546, 99, 34.1577, 18.3058, 12.0422, 6.87715, 106.93, -65.7583
7.06352, 99, 34.4586, 18.9451, 11.9501, 6.94973, 107.357, -65.0433
7.07173, 100, 34.7481, 19.5748, 11.8673, 7.03871, 107.77, -64.3332
7.07945, 100, 35.0257, 20.1937, 11.7938, 7.14446, 108.166, -63.6311
7.08745, 101, 35.291, 20.8008, 11.7286, 7.26498, 108.545, -62.9391
7.09572, 101, 35.5438, 21.3955, 11.6717, 7.39896, 108.907, -62.256
7.10355, 102, 35.7829, 21.9764, 11.6228, 7.54427, 109.253, -61.5836
7.11156, 102, 36.0073, 22.5427, 11.5815, 7.69875, 109.582, -60.9243
7.1196, 103, 36.2203, 23.0939, 11.5478, 7.86068, 109.897, -60.277
7.12779, 103, 36.426, 23.6298, 11.5218, 8.02868, 110.196, -59.6426
7.13556, 103, 36.6263, 24.151, 11.5044, 8.20356, 110.479, -59.022
7.14369, 104, 36.8214, 24.6582, 11.495, 8.38576, 110.746, -58.4135
7.15157, 104, 37.0115, 25.1515, 11.4923, 8.57676, 110.995, -57.815
7.15947, 104, 37.1965, 25.6308, 11.4958, 8.77685, 111.225, -57.2262
7.16808, 104, 37.3733, 26.0957, 11.505, 8.98518, 111.436, -56.647
7.17549, 104, 37.5389, 26.5461, 11.5179, 9.20069, 111.63, -56.0773
7.18362, 104, 37.6954, 26.9823, 11.5338, 9.42091, 111.809, -55.5191
7.19252, 104, 37.8476, 27.405, 11.5524, 9.64291, 111.976, -54.9753
7.19968, 104, 37.998, 27.8133, 11.5727, 9.86421, 112.133, -54.4501
7.2084, 104, 38.1455, 28.2068, 11.5933, 10.0823, 112.281, -53.9451
7.21576, 104, 38.2885, 28.5853, 11.6136, 10.2958, 112.422, -53.4617
7.22389, 104, 38.4255, 28.9486, 11.6328, 10.503, 112.555, -53.0018
7.232, 104, 38.5555, 29.2947, 11.651, 10.703, 112.68, -52.5658
7.24009, 104, 38.6773, 29.6231, 11.6683, 10.895, 112.798, -52.1549
7.24807, 104, 38.7909, 29.9323, 11.6843, 11.0781, 112.908, -51.7688
7.25608, 104, 38.8965, 30.2232, 11.6992, 11.2516, 113.01, -51.4072
7.26424, 104, 38.9945, 30.4949, 11.7131, 11.4154, 113.105, -51.0715
7.27219, 104, 39.0848, 30.7468, 11.7257, 11.5685, 113.192, -50.7611
7.28002, 104, 39.127, 30.8655, 11.7316, 11.641, 113.272, -50.4755
7.28748, 104, 39.205, 31.0884, 11.7424, 11.7776, 113.309, -50.3423
7.29649, 104, 39.3066, 31.3849, 11.7571, 11.9609, 113.411, -49.9805
7.30347, 104, 39.3365, 31.474, 11.7616, 12.016, 113.441, -49.8724
7.31147, 104, 39.3908, 31.6378, 11.7696, 12.1174, 113.496, -49.6752
7.32039, 104, 39.4386, 31.7821, 11.7767, 12.2066, 113.543, -49.5031
7.32745, 104, 39.4804, 31.908, 11.7832, 12.2835, 113.584, -49.3553
7.33544, 104, 39.5162, 32.0166, 11.7891, 12.3485, 113.618, -49.2313
7.3435, 104, 39.5458, 32.1085, 11.7943, 12.402, 113.646, -49.1303
7.35147, 104, 39.57, 32.185, 11.7989, 12.4437, 113.668, -49.0497
7.35948, 104, 39.5896, 32.2477, 11.8031, 12.4759, 113.684, -48.9885
7.3675, 104, 39.605, 32.2983, 11.8068, 12.5, 113.696, -48.944
7.37544, 104, 39.617, 32.3382, 11.8103, 12.5172, 113.704, -48.913
7.38344, 104, 39.6261, 32.3683, 11.8133, 12.529, 113.709, -48.8924
7.39151, 104, 39.6327, 32.3907, 11.8161, 12.5363, 113.712, -48.8799
7.39946, 104, 39.637, 32.4073, 11.8184, 12.5406, 113.714, -48.8732
7.40903, 104, 39.6395, 32.4187, 11.8202, 12.5429, 113.715, -48.869
7.41552, 104, 39.6408, 32.4259, 11.8215, 12.5439, 113.715, -48.8684
7.42343, 105, 39.6412, 32.4304, 11.8225, 12.5445, 113.715, -48.8679
7.43246, 105, 39.6406, 32.4334, 11.8234, 12.5448, 113.715, -48.8677
7.43951, 105, 39.6397, 32.4356, 11.8242, 12.5449, 113.715, -48.8678
7.44745, 105, 39.6387, 32.4372, 11.8249, 12.5451, 113.715, -48.868
7.45544, 105, 39.6373, 32.4386, 11.8255, 12.5451, 113.715, -48.8683
7.46355, 105, 39.6362, 32.4398, 11.826, 12.5451, 113.715, -48.8686
7.47144, 105, 39.6354, 32.441, 11.8265, 12.5451, 113.715, -48.8689
7.47944, 105, 39.635, 32.4422, 11.8271, 12.5451, 113.715, -48.8692
7.48752, 105, 39.6347, 32.4433, 11.8277, 12.5451, 113.715, -48.8695
7.49543, 105, 39.6345, 32.4443, 11.8283, 12.5451, 113.715, -48.8697
7.50344, 105, 39.6343, 32.4451, 11.8287, 12.5451, 113.715, -48.87
7.5115, 105, 39.634, 32.4457, 11.829, 12.5451, 113.715, -48.8702
7.51945, 105, 39.6337, 32.4461, 11.8293, 12.5451, 113.715, -48.8704
7.52748, 105, 39.6334, 32.4464, 11.8296, 12.5451, 113.715, -48.8706
7.5355, 105, 39.6331, 32.4465, 11.8298, 12.545, 113.715, -48.8707
