hehonglu123/Motion-Primitive-Planning/simulation/robotstudio_sim/multimove/from_NX/greedy_dual_output/curve_exe_v100_z1.csv
timestamp, cmd_num, J1, J2, J3, J4, J5, J6, J1_2, J2_2, J3_2, J4_2, J5_2, J6_2
0.002, -1, 24.281, -1.72145, -6.87013, 29.2941, -97.4297, -69.3164, -10.1079, 33.1733, -18.3121, -22.0871, -107.091, -9.0334
0.006, -1, 24.281, -1.72145, -6.87013, 29.2941, -97.4297, -69.3164, -10.1079, 33.1733, -18.3121, -22.0871, -107.091, -9.0334
0.01, -1, 24.281, -1.72145, -6.87013, 29.2941, -97.4297, -69.3164, -10.1079, 33.1733, -18.3121, -22.0871, -107.091, -9.0334
0.011, -1, 24.281, -1.72145, -6.87013, 29.2941, -97.4297, -69.3164, -10.1079, 33.1733, -18.3121, -22.0871, -107.091, -9.0334
0.013, -1, 24.281, -1.72145, -6.87013, 29.2941, -97.4297, -69.3164, -10.1079, 33.1733, -18.3121, -22.0871, -107.091, -9.0334
0.016, -1, 24.281, -1.72145, -6.87013, 29.2941, -97.4297, -69.3164, -10.1079, 33.1733, -18.3121, -22.0871, -107.091, -9.0334
0.02, -1, 24.281, -1.72145, -6.87013, 29.2941, -97.4297, -69.3164, -10.1079, 33.1733, -18.3121, -22.0871, -107.091, -9.0334
0.024, -1, 24.281, -1.72145, -6.87013, 29.2941, -97.4297, -69.3164, -10.1079, 33.1733, -18.3121, -22.0871, -107.091, -9.0334
0.028, -1, 24.281, -1.72145, -6.87013, 29.2941, -97.4297, -69.3164, -10.1079, 33.1733, -18.3121, -22.0871, -107.091, -9.0334
0.032, -1, 24.281, -1.72145, -6.87013, 29.2941, -97.4297, -69.3164, -10.1079, 33.1733, -18.3121, -22.0871, -107.091, -9.0334
0.036, -1, 24.281, -1.72145, -6.87013, 29.2941, -97.4297, -69.3164, -10.1079, 33.1733, -18.3121, -22.0871, -107.091, -9.0334
0.04, -1, 24.281, -1.72145, -6.87013, 29.2941, -97.4297, -69.3164, -10.1079, 33.1733, -18.3121, -22.0871, -107.091, -9.0334
0.044, -1, 24.281, -1.72145, -6.87013, 29.2941, -97.4297, -69.3164, -10.1077, 33.1733, -18.3121, -22.0871, -107.091, -9.0334
0.048, -1, 24.281, -1.72145, -6.87013, 29.2941, -97.4297, -69.3164, -10.1071, 33.1735, -18.3119, -22.0871, -107.091, -9.0334
0.052, -1, 24.281, -1.72145, -6.87013, 29.2941, -97.4297, -69.3164, -10.1053, 33.1743, -18.3113, -22.0871, -107.091, -9.03338
0.056, -1, 24.2811, -1.72143, -6.87013, 29.2941, -97.4297, -69.3164, -10.1019, 33.1761, -18.3101, -22.0871, -107.091, -9.0333
0.06, -1, 24.2812, -1.72133, -6.8701, 29.2941, -97.4297, -69.3164, -10.0966, 33.1792, -18.3078, -22.0872, -107.091, -9.03309
0.064, -1, 24.2818, -1.721, -6.87001, 29.2941, -97.4296, -69.3164, -10.0893, 33.1836, -18.3043, -22.0873, -107.09, -9.03264
0.068, -1, 24.2832, -1.72026, -6.86974, 29.2943, -97.4294, -69.3163, -10.08, 33.1892, -18.2991, -22.0875, -107.089, -9.03179
0.072, -1, 24.2857, -1.71898, -6.86915, 29.2947, -97.4288, -69.3161, -10.0691, 33.1955, -18.2921, -22.0877, -107.088, -9.03034
0.076, -1, 24.2898, -1.71702, -6.868, 29.2957, -97.4275, -69.3158, -10.0571, 33.202, -18.283, -22.0881, -107.086, -9.02805
0.08, -1, 24.2959, -1.71428, -6.86597, 29.2976, -97.4251, -69.315, -10.0445, 33.2083, -18.2716, -22.0885, -107.082, -9.02471
0.084, -1, 24.3044, -1.71078, -6.86271, 29.3008, -97.4212, -69.3139, -10.0314, 33.2141, -18.2577, -22.089, -107.078, -9.02007
0.088, -1, 24.3152, -1.7067, -6.85783, 29.3059, -97.4151, -69.312, -10.0176, 33.2192, -18.2409, -22.0897, -107.072, -9.01397
0.092, -1, 24.3283, -1.70224, -6.851, 29.3134, -97.4064, -69.3093, -10.003, 33.224, -18.221, -22.0905, -107.064, -9.00625
0.096, -1, 24.3438, -1.69754, -6.84196, 29.3236, -97.3946, -69.3056, -9.98746, 33.2285, -18.1978, -22.0914, -107.055, -8.99681
0.1, -1, 24.3617, -1.69265, -6.83059, 29.3366, -97.3797, -69.3009, -9.97105, 33.2327, -18.1711, -22.0925, -107.044, -8.98559
0.104, -1, 24.382, -1.68756, -6.8169, 29.3525, -97.3616, -69.2952, -9.95386, 33.2366, -18.1411, -22.0937, -107.032, -8.9726
0.108, -1, 24.4045, -1.6822, -6.80108, 29.3709, -97.3406, -69.2886, -9.93596, 33.2402, -18.1078, -22.0951, -107.018, -8.95789
0.112, -1, 24.4295, -1.67639, -6.78337, 29.3916, -97.3171, -69.2812, -9.91745, 33.2432, -18.0714, -22.0966, -107.002, -8.94156
0.116, -1, 24.4568, -1.66994, -6.76414, 29.4141, -97.2915, -69.2731, -9.89841, 33.2455, -18.0323, -22.0983, -106.985, -8.92378
0.12, -1, 24.4862, -1.66277, -6.74372, 29.4379, -97.2645, -69.2646, -9.87872, 33.2474, -17.9907, -22.1, -106.966, -8.90473
0.124, -1, 24.5175, -1.65489, -6.72247, 29.4625, -97.2364, -69.2558, -9.85798, 33.2492, -17.9468, -22.1018, -106.947, -8.88465
0.128, -1, 24.5503, -1.64639, -6.70067, 29.4877, -97.2076, -69.2467, -9.83574, 33.2515, -17.9007, -22.1038, -106.927, -8.86377
0.131, -1, 24.5842, -1.63738, -6.67852, 29.5132, -97.1785, -69.2376, -9.8118, 33.2548, -17.8527, -22.1057, -106.906, -8.84231
0.136, -1, 24.6188, -1.628, -6.65618, 29.5389, -97.1491, -69.2283, -9.78611, 33.2591, -17.8031, -22.1078, -106.885, -8.82046
0.139, -1, 24.6539, -1.61841, -6.63375, 29.5646, -97.1197, -69.2191, -9.75865, 33.2648, -17.7523, -22.1099, -106.864, -8.79838
0.144, -1, 24.6891, -1.6087, -6.61128, 29.5903, -97.0902, -69.2098, -9.72958, 33.2716, -17.7006, -22.112, -106.843, -8.77615
0.148, -1, 24.7245, -1.59893, -6.58879, 29.6161, -97.0607, -69.2006, -9.69923, 33.2793, -17.6483, -22.1141, -106.821, -8.75386
0.152, -1, 24.7599, -1.58914, -6.56631, 29.6418, -97.0312, -69.1913, -9.66798, 33.2874, -17.5956, -22.1163, -106.8, -8.73153
0.156, -1, 24.7953, -1.57935, -6.54383, 29.6675, -97.0017, -69.1821, -9.63612, 33.2957, -17.5427, -22.1185, -106.778, -8.7092
0.16, -1, 24.8308, -1.56955, -6.52136, 29.6932, -96.9722, -69.1728, -9.60387, 33.3041, -17.4898, -22.1206, -106.756, -8.68688
0.164, -1, 24.8662, -1.55976, -6.49889, 29.719, -96.9427, -69.1636, -9.57145, 33.3126, -17.4368, -22.1228, -106.735, -8.66455
0.168, -1, 24.9015, -1.54998, -6.47643, 29.7447, -96.9133, -69.1543, -9.539, 33.321, -17.3839, -22.125, -106.713, -8.64224
0.172, -1, 24.9369, -1.54019, -6.45397, 29.7704, -96.8838, -69.1451, -9.50655, 33.3295, -17.3309, -22.1271, -106.692, -8.61993
0.176, -1, 24.9723, -1.53041, -6.43152, 29.7961, -96.8544, -69.1358, -9.47412, 33.3379, -17.278, -22.1293, -106.67, -8.59762
0.18, -1, 25.0077, -1.52063, -6.40908, 29.8217, -96.8249, -69.1266, -9.44169, 33.3464, -17.2251, -22.1314, -106.648, -8.57532
0.184, -1, 25.043, -1.51085, -6.38665, 29.8474, -96.7955, -69.1174, -9.40927, 33.3548, -17.1722, -22.1336, -106.627, -8.55303
0.188, -1, 25.0784, -1.50108, -6.36421, 29.8731, -96.7661, -69.1081, -9.37686, 33.3633, -17.1193, -22.1358, -106.605, -8.53074
0.192, -1, 25.1137, -1.49131, -6.34179, 29.8988, -96.7366, -69.0989, -9.34445, 33.3717, -17.0665, -22.1379, -106.584, -8.50846
0.196, -1, 25.149, -1.48154, -6.31937, 29.9244, -96.7072, -69.0897, -9.31206, 33.3802, -17.0136, -22.1401, -106.562, -8.48618
0.2, -1, 25.1843, -1.47177, -6.29696, 29.9501, -96.6778, -69.0804, -9.27967, 33.3886, -16.9608, -22.1422, -106.541, -8.46391
0.204, -1, 25.2196, -1.46201, -6.27455, 29.9757, -96.6484, -69.0712, -9.2473, 33.3971, -16.9079, -22.1444, -106.519, -8.44165
0.208, -1, 25.2549, -1.45225, -6.25215, 30.0013, -96.619, -69.062, -9.21493, 33.4055, -16.8551, -22.1465, -106.498, -8.41939
0.212, -1, 25.2902, -1.44249, -6.22976, 30.027, -96.5897, -69.0528, -9.18257, 33.414, -16.8023, -22.1487, -106.476, -8.39714
0.216, -1, 25.3255, -1.43274, -6.20737, 30.0526, -96.5603, -69.0436, -9.15022, 33.4224, -16.7495, -22.1509, -106.455, -8.3749
0.22, -1, 25.3608, -1.42298, -6.18499, 30.0782, -96.5309, -69.0344, -9.11788, 33.4308, -16.6968, -22.153, -106.433, -8.35266
0.224, -1, 25.396, -1.41323, -6.16261, 30.1038, -96.5016, -69.0251, -9.08554, 33.4393, -16.644, -22.1552, -106.412, -8.33043
0.228, -1, 25.4313, -1.40349, -6.14024, 30.1294, -96.4722, -69.0159, -9.05322, 33.4477, -16.5913, -22.1573, -106.39, -8.3082
0.232, -1, 25.4665, -1.39374, -6.11788, 30.155, -96.4429, -69.0067, -9.0209, 33.4561, -16.5386, -22.1595, -106.369, -8.28598
0.236, -1, 25.5017, -1.384, -6.09552, 30.1806, -96.4136, -68.9975, -8.98859, 33.4645, -16.4858, -22.1616, -106.347, -8.26376
0.24, -1, 25.537, -1.37426, -6.07317, 30.2062, -96.3842, -68.9883, -8.95629, 33.4729, -16.4331, -22.1638, -106.326, -8.24155
0.244, -1, 25.5722, -1.36452, -6.05082, 30.2318, -96.3549, -68.9791, -8.924, 33.4814, -16.3805, -22.1659, -106.304, -8.21935
0.248, -1, 25.6074, -1.35479, -6.02848, 30.2573, -96.3256, -68.9699, -8.89172, 33.4898, -16.3278, -22.1681, -106.283, -8.19715
0.252, -1, 25.6426, -1.34506, -6.00615, 30.2829, -96.2963, -68.9607, -8.85944, 33.4982, -16.2751, -22.1702, -106.261, -8.17496
0.256, -1, 25.6777, -1.33533, -5.98382, 30.3084, -96.267, -68.9516, -8.82718, 33.5066, -16.2225, -22.1724, -106.24, -8.15277
0.26, -1, 25.7129, -1.3256, -5.9615, 30.334, -96.2377, -68.9424, -8.79492, 33.515, -16.1699, -22.1745, -106.218, -8.13059
0.264, -1, 25.7481, -1.31587, -5.93918, 30.3595, -96.2085, -68.9332, -8.76267, 33.5234, -16.1173, -22.1767, -106.197, -8.10842
0.268, -1, 25.7832, -1.30615, -5.91687, 30.3851, -96.1792, -68.924, -8.73043, 33.5318, -16.0647, -22.1788, -106.176, -8.08625
0.272, -1, 25.8184, -1.29643, -5.89456, 30.4106, -96.1499, -68.9148, -8.6982, 33.5402, -16.0121, -22.181, -106.154, -8.06409
0.276, -1, 25.8535, -1.28672, -5.87226, 30.4361, -96.1207, -68.9056, -8.66598, 33.5486, -15.9595, -22.1831, -106.133, -8.04193
0.28, -1, 25.8886, -1.277, -5.84997, 30.4616, -96.0914, -68.8965, -8.63376, 33.557, -15.9069, -22.1853, -106.111, -8.01978
0.284, -1, 25.9238, -1.26729, -5.82768, 30.4871, -96.0622, -68.8873, -8.60156, 33.5654, -15.8544, -22.1874, -106.09, -7.99763
0.288, -1, 25.9589, -1.25758, -5.8054, 30.5126, -96.033, -68.8781, -8.56936, 33.5738, -15.8019, -22.1895, -106.069, -7.97549
0.292, -1, 25.994, -1.24787, -5.78312, 30.5381, -96.0037, -68.8689, -8.53717, 33.5822, -15.7493, -22.1917, -106.047, -7.95336
0.296, -1, 26.0291, -1.23817, -5.76085, 30.5636, -95.9745, -68.8598, -8.50499, 33.5906, -15.6968, -22.1938, -106.026, -7.93123
0.3, -1, 26.0641, -1.22847, -5.73859, 30.5891, -95.9453, -68.8506, -8.47281, 33.599, -15.6443, -22.196, -106.004, -7.90911
0.304, -1, 26.0992, -1.21877, -5.71633, 30.6146, -95.9161, -68.8415, -8.44065, 33.6074, -15.5919, -22.1981, -105.983, -7.88699
0.308, -1, 26.1343, -1.20907, -5.69408, 30.64, -95.8869, -68.8323, -8.40849, 33.6158, -15.5394, -22.2003, -105.962, -7.86488
0.312, -1, 26.1693, -1.19938, -5.67183, 30.6655, -95.8577, -68.8231, -8.37635, 33.6242, -15.4869, -22.2024, -105.94, -7.84277
0.316, -1, 26.2044, -1.18969, -5.64959, 30.691, -95.8286, -68.814, -8.3442, 33.6325, -15.4345, -22.2045, -105.919, -7.82067
0.32, -1, 26.2394, -1.18, -5.62735, 30.7164, -95.7994, -68.8048, -8.31207, 33.6409, -15.3821, -22.2067, -105.897, -7.79858
0.324, -1, 26.2745, -1.17031, -5.60512, 30.7418, -95.7702, -68.7957, -8.27995, 33.6493, -15.3297, -22.2088, -105.876, -7.77649
0.328, -1, 26.3095, -1.16062, -5.58289, 30.7673, -95.7411, -68.7865, -8.24783, 33.6577, -15.2773, -22.211, -105.855, -7.75441
0.332, -1, 26.3445, -1.15094, -5.56067, 30.7927, -95.7119, -68.7774, -8.21573, 33.666, -15.2249, -22.2131, -105.833, -7.73233
0.336, -1, 26.3795, -1.14126, -5.53846, 30.8181, -95.6828, -68.7682, -8.18363, 33.6744, -15.1725, -22.2152, -105.812, -7.71026
0.34, -1, 26.4145, -1.13159, -5.51625, 30.8435, -95.6536, -68.7591, -8.15154, 33.6828, -15.1202, -22.2174, -105.791, -7.68819
0.344, -1, 26.4495, -1.12191, -5.49405, 30.869, -95.6245, -68.75, -8.11945, 33.6911, -15.0678, -22.2195, -105.769, -7.66613
0.348, -1, 26.4844, -1.11224, -5.47185, 30.8944, -95.5954, -68.7408, -8.08738, 33.6995, -15.0155, -22.2217, -105.748, -7.64407
0.352, -1, 26.5194, -1.10257, -5.44966, 30.9198, -95.5663, -68.7317, -8.05531, 33.7079, -14.9632, -22.2238, -105.727, -7.62202
0.356, -1, 26.5544, -1.0929, -5.42748, 30.9452, -95.5372, -68.7225, -8.02325, 33.7162, -14.9109, -22.2259, -105.705, -7.59998
0.36, -1, 26.5893, -1.08324, -5.4053, 30.9705, -95.5081, -68.7134, -7.9912, 33.7246, -14.8586, -22.2281, -105.684, -7.57794
0.364, -1, 26.6243, -1.07358, -5.38312, 30.9959, -95.479, -68.7043, -7.95916, 33.7329, -14.8063, -22.2302, -105.663, -7.55591
0.368, -1, 26.6592, -1.06391, -5.36095, 31.0213, -95.4499, -68.6952, -7.92713, 33.7413, -14.754, -22.2323, -105.642, -7.53388
0.372, -1, 26.6941, -1.05426, -5.33879, 31.0467, -95.4208, -68.686, -7.8951, 33.7496, -14.7018, -22.2345, -105.62, -7.51186
0.376, -1, 26.729, -1.0446, -5.31663, 31.072, -95.3918, -68.6769, -7.86308, 33.758, -14.6495, -22.2366, -105.599, -7.48984
0.38, -1, 26.7639, -1.03495, -5.29448, 31.0974, -95.3627, -68.6678, -7.83107, 33.7663, -14.5973, -22.2387, -105.578, -7.46783
0.384, -1, 26.7988, -1.0253, -5.27233, 31.1227, -95.3336, -68.6587, -7.79907, 33.7747, -14.5451, -22.2409, -105.556, -7.44583
0.388, -1, 26.8337, -1.01565, -5.25019, 31.1481, -95.3046, -68.6496, -7.76707, 33.783, -14.4929, -22.243, -105.535, -7.42382
0.392, -1, 26.8686, -1.00601, -5.22805, 31.1734, -95.2756, -68.6405, -7.73509, 33.7914, -14.4407, -22.2451, -105.514, -7.40183
0.396, -1, 26.9035, -0.996362, -5.20592, 31.1987, -95.2465, -68.6314, -7.70311, 33.7997, -14.3885, -22.2473, -105.493, -7.37984
0.4, -1, 26.9383, -0.986721, -5.1838, 31.224, -95.2175, -68.6222, -7.67114, 33.808, -14.3364, -22.2494, -105.471, -7.35786
0.404, -1, 26.9732, -0.977083, -5.16168, 31.2493, -95.1885, -68.6131, -7.63917, 33.8164, -14.2842, -22.2515, -105.45, -7.33588
0.408, -1, 27.008, -0.967447, -5.13956, 31.2747, -95.1595, -68.604, -7.60722, 33.8247, -14.2321, -22.2536, -105.429, -7.31391
0.412, -1, 27.0429, -0.957814, -5.11746, 31.3, -95.1305, -68.5949, -7.57527, 33.833, -14.1799, -22.2558, -105.408, -7.29194
0.416, -1, 27.0777, -0.948183, -5.09535, 31.3253, -95.1015, -68.5858, -7.54333, 33.8413, -14.1278, -22.2579, -105.386, -7.26998
0.42, -1, 27.1125, -0.938555, -5.07325, 31.3505, -95.0725, -68.5767, -7.5114, 33.8497, -14.0757, -22.26, -105.365, -7.24802
0.424, -1, 27.1473, -0.928929, -5.05116, 31.3758, -95.0435, -68.5677, -7.47948, 33.858, -14.0237, -22.2622, -105.344, -7.22607
0.428, -1, 27.1821, -0.919306, -5.02907, 31.4011, -95.0145, -68.5586, -7.44756, 33.8663, -13.9716, -22.2643, -105.323, -7.20412
0.432, -1, 27.2169, -0.909685, -5.00699, 31.4264, -94.9856, -68.5495, -7.41566, 33.8746, -13.9195, -22.2664, -105.301, -7.18218
0.436, -1, 27.2517, -0.900066, -4.98492, 31.4516, -94.9566, -68.5404, -7.38376, 33.883, -13.8675, -22.2685, -105.28, -7.16025
0.44, -1, 27.2865, -0.890449, -4.96285, 31.4769, -94.9276, -68.5313, -7.35186, 33.8913, -13.8154, -22.2707, -105.259, -7.13832
0.444, -1, 27.3212, -0.880834, -4.94078, 31.5022, -94.8987, -68.5222, -7.31998, 33.8996, -13.7634, -22.2728, -105.238, -7.11639
0.448, -1, 27.356, -0.871222, -4.91872, 31.5274, -94.8698, -68.5131, -7.2881, 33.9079, -13.7114, -22.2749, -105.217, -7.09448
0.452, -1, 27.3907, -0.861612, -4.89667, 31.5526, -94.8408, -68.5041, -7.25623, 33.9162, -13.6594, -22.277, -105.195, -7.07256
0.456, -1, 27.4255, -0.852004, -4.87462, 31.5779, -94.8119, -68.495, -7.22437, 33.9245, -13.6074, -22.2792, -105.174, -7.05065
0.46, -1, 27.4602, -0.842399, -4.85257, 31.6031, -94.783, -68.4859, -7.19252, 33.9328, -13.5555, -22.2813, -105.153, -7.02875
0.464, -1, 27.4949, -0.832796, -4.83054, 31.6283, -94.7541, -68.4768, -7.16067, 33.9411, -13.5035, -22.2834, -105.132, -7.00685
0.468, -1, 27.5297, -0.823195, -4.8085, 31.6535, -94.7252, -68.4678, -7.12884, 33.9494, -13.4516, -22.2855, -105.111, -6.98496
0.472, -1, 27.5644, -0.813597, -4.78648, 31.6788, -94.6963, -68.4587, -7.09701, 33.9577, -13.3996, -22.2876, -105.09, -6.96307
0.476, -1, 27.5991, -0.804, -4.76445, 31.704, -94.6674, -68.4496, -7.06518, 33.966, -13.3477, -22.2898, -105.068, -6.94119
0.48, -1, 27.6338, -0.794407, -4.74243, 31.7292, -94.6385, -68.4406, -7.03337, 33.9743, -13.2958, -22.2919, -105.047, -6.91932
0.484, -1, 27.6684, -0.784815, -4.72042, 31.7543, -94.6096, -68.4315, -7.00156, 33.9826, -13.2439, -22.294, -105.026, -6.89744
0.488, -1, 27.7031, -0.775226, -4.69842, 31.7795, -94.5807, -68.4225, -6.96976, 33.9909, -13.192, -22.2961, -105.005, -6.87558
0.492, -1, 27.7378, -0.765639, -4.67642, 31.8047, -94.5519, -68.4134, -6.93797, 33.9992, -13.1402, -22.2982, -104.984, -6.85372
0.496, -1, 27.7724, -0.756055, -4.65442, 31.8299, -94.523, -68.4043, -6.90619, 34.0075, -13.0883, -22.3003, -104.963, -6.83186
0.5, -1, 27.8071, -0.746472, -4.63243, 31.8551, -94.4942, -68.3953, -6.87441, 34.0158, -13.0365, -22.3025, -104.942, -6.81001
0.504, -1, 27.8417, -0.736892, -4.61044, 31.8802, -94.4653, -68.3862, -6.84264, 34.024, -12.9846, -22.3046, -104.92, -6.78817
0.508, -1, 27.8764, -0.727315, -4.58846, 31.9054, -94.4365, -68.3772, -6.81088, 34.0323, -12.9328, -22.3067, -104.899, -6.76633
0.512, -1, 27.911, -0.717739, -4.56649, 31.9305, -94.4077, -68.3681, -6.77912, 34.0406, -12.881, -22.3088, -104.878, -6.74449
0.516, -1, 27.9456, -0.708166, -4.54452, 31.9557, -94.3789, -68.3591, -6.74738, 34.0489, -12.8292, -22.3109, -104.857, -6.72266
0.52, -1, 27.9802, -0.698595, -4.52255, 31.9808, -94.35, -68.3501, -6.71564, 34.0571, -12.7774, -22.313, -104.836, -6.70084
0.524, -1, 28.0148, -0.689027, -4.5006, 32.0059, -94.3212, -68.341, -6.68391, 34.0654, -12.7256, -22.3152, -104.815, -6.67902
0.528, -1, 28.0494, -0.67946, -4.47864, 32.0311, -94.2924, -68.332, -6.65218, 34.0737, -12.6739, -22.3173, -104.794, -6.65721
0.532, -1, 28.084, -0.669896, -4.45669, 32.0562, -94.2636, -68.323, -6.62047, 34.082, -12.6221, -22.3194, -104.773, -6.6354
0.536, -1, 28.1186, -0.660335, -4.43475, 32.0813, -94.2348, -68.3139, -6.58876, 34.0902, -12.5704, -22.3215, -104.752, -6.61359
0.54, -1, 28.1531, -0.650775, -4.41281, 32.1064, -94.2061, -68.3049, -6.55706, 34.0985, -12.5187, -22.3236, -104.731, -6.5918
0.544, -1, 28.1877, -0.641218, -4.39088, 32.1315, -94.1773, -68.2959, -6.52536, 34.1068, -12.467, -22.3257, -104.71, -6.57
0.548, -1, 28.2223, -0.631663, -4.36895, 32.1566, -94.1485, -68.2868, -6.49368, 34.115, -12.4153, -22.3278, -104.688, -6.54821
0.552, -1, 28.2568, -0.62211, -4.34703, 32.1817, -94.1198, -68.2778, -6.462, 34.1233, -12.3636, -22.3299, -104.667, -6.52643
0.556, -1, 28.2913, -0.612559, -4.32511, 32.2068, -94.091, -68.2688, -6.43033, 34.1315, -12.3119, -22.3321, -104.646, -6.50465
0.56, -1, 28.3259, -0.603011, -4.3032, 32.2319, -94.0623, -68.2598, -6.39866, 34.1398, -12.2603, -22.3342, -104.625, -6.48288
0.564, -1, 28.3604, -0.593465, -4.28129, 32.2569, -94.0335, -68.2508, -6.36701, 34.148, -12.2086, -22.3363, -104.604, -6.46111
0.568, -1, 28.3949, -0.583921, -4.25939, 32.282, -94.0048, -68.2417, -6.33536, 34.1563, -12.157, -22.3384, -104.583, -6.43935
0.572, -1, 28.4294, -0.574379, -4.23749, 32.3071, -93.9761, -68.2327, -6.30372, 34.1645, -12.1053, -22.3405, -104.562, -6.41759
0.576, -1, 28.4639, -0.56484, -4.2156, 32.3321, -93.9473, -68.2237, -6.27208, 34.1728, -12.0537, -22.3426, -104.541, -6.39584
0.58, -1, 28.4984, -0.555303, -4.19371, 32.3572, -93.9186, -68.2147, -6.24045, 34.181, -12.0021, -22.3447, -104.52, -6.37409
0.584, -1, 28.5329, -0.545768, -4.17183, 32.3822, -93.8899, -68.2057, -6.20883, 34.1893, -11.9505, -22.3468, -104.499, -6.35235
0.588, -1, 28.5673, -0.536235, -4.14995, 32.4072, -93.8612, -68.1967, -6.17722, 34.1975, -11.899, -22.3489, -104.478, -6.33061
0.592, -1, 28.6018, -0.526705, -4.12808, 32.4323, -93.8325, -68.1877, -6.14562, 34.2058, -11.8474, -22.351, -104.457, -6.30888
0.596, -1, 28.6363, -0.517176, -4.10621, 32.4573, -93.8038, -68.1787, -6.11402, 34.214, -11.7958, -22.3531, -104.436, -6.28715
0.6, -1, 28.6707, -0.50765, -4.08435, 32.4823, -93.7752, -68.1697, -6.08243, 34.2222, -11.7443, -22.3552, -104.415, -6.26543
0.604, -1, 28.7051, -0.498126, -4.06249, 32.5073, -93.7465, -68.1607, -6.05085, 34.2305, -11.6928, -22.3573, -104.394, -6.24371
0.608, -1, 28.7396, -0.488604, -4.04064, 32.5323, -93.7178, -68.1517, -6.01927, 34.2387, -11.6413, -22.3594, -104.373, -6.222
0.612, -1, 28.774, -0.479085, -4.01879, 32.5573, -93.6892, -68.1427, -5.9877, 34.2469, -11.5897, -22.3615, -104.352, -6.20029
0.616, -1, 28.8084, -0.469567, -3.99695, 32.5823, -93.6605, -68.1337, -5.95614, 34.2552, -11.5383, -22.3636, -104.331, -6.17859
0.62, -1, 28.8428, -0.460052, -3.97512, 32.6073, -93.6319, -68.1247, -5.92458, 34.2634, -11.4868, -22.3657, -104.31, -6.1569
0.624, -1, 28.8772, -0.450539, -3.95328, 32.6323, -93.6032, -68.1157, -5.89304, 34.2716, -11.4353, -22.3678, -104.289, -6.1352
0.628, -1, 28.9116, -0.441028, -3.93146, 32.6573, -93.5746, -68.1068, -5.8615, 34.2798, -11.3838, -22.3699, -104.268, -6.11352
0.632, -1, 28.946, -0.43152, -3.90964, 32.6823, -93.546, -68.0978, -5.82996, 34.2881, -11.3324, -22.372, -104.247, -6.09183
0.636, -1, 28.9804, -0.422013, -3.88782, 32.7072, -93.5173, -68.0888, -5.79844, 34.2963, -11.281, -22.3741, -104.226, -6.07016
0.64, -1, 29.0147, -0.412509, -3.86601, 32.7322, -93.4887, -68.0798, -5.76692, 34.3045, -11.2295, -22.3762, -104.205, -6.04848
0.644, -1, 29.0491, -0.403006, -3.8442, 32.7572, -93.4601, -68.0708, -5.73541, 34.3127, -11.1781, -22.3783, -104.184, -6.02681
0.648, -1, 29.0835, -0.393506, -3.8224, 32.7821, -93.4315, -68.0619, -5.7039, 34.3209, -11.1267, -22.3804, -104.163, -6.00515
0.652, -1, 29.1178, -0.384008, -3.8006, 32.8071, -93.4029, -68.0529, -5.6724, 34.3291, -11.0753, -22.3825, -104.142, -5.98349
0.656, -1, 29.1521, -0.374512, -3.77881, 32.832, -93.3743, -68.0439, -5.64091, 34.3374, -11.024, -22.3846, -104.121, -5.96184
0.66, -1, 29.1865, -0.365019, -3.75702, 32.8569, -93.3458, -68.035, -5.60943, 34.3456, -10.9726, -22.3867, -104.101, -5.94019
0.664, -1, 29.2208, -0.355527, -3.73524, 32.8819, -93.3172, -68.026, -5.57795, 34.3538, -10.9212, -22.3888, -104.08, -5.91855
0.668, -1, 29.2551, -0.346037, -3.71346, 32.9068, -93.2886, -68.017, -5.54648, 34.362, -10.8699, -22.3909, -104.059, -5.89691
0.672, -1, 29.2894, -0.33655, -3.69169, 32.9317, -93.2601, -68.0081, -5.51502, 34.3702, -10.8186, -22.393, -104.038, -5.87528
0.676, -1, 29.3237, -0.327065, -3.66992, 32.9566, -93.2315, -67.9991, -5.48356, 34.3784, -10.7672, -22.3951, -104.017, -5.85365
0.68, -1, 29.358, -0.317581, -3.64816, 32.9815, -93.2029, -67.9902, -5.45211, 34.3866, -10.7159, -22.3972, -103.996, -5.83202
0.684, -1, 29.3923, -0.3081, -3.6264, 33.0064, -93.1744, -67.9812, -5.42067, 34.3948, -10.6646, -22.3993, -103.975, -5.8104
0.688, -1, 29.4266, -0.298621, -3.60464, 33.0313, -93.1459, -67.9722, -5.38924, 34.403, -10.6133, -22.4014, -103.954, -5.78879
0.692, -1, 29.4608, -0.289144, -3.58289, 33.0562, -93.1173, -67.9633, -5.35781, 34.4112, -10.5621, -22.4035, -103.933, -5.76718
0.696, -1, 29.4951, -0.279669, -3.56115, 33.0811, -93.0888, -67.9543, -5.32639, 34.4194, -10.5108, -22.4056, -103.912, -5.74557
0.7, -1, 29.5294, -0.270196, -3.53941, 33.106, -93.0603, -67.9454, -5.29497, 34.4275, -10.4595, -22.4077, -103.891, -5.72397
0.704, -1, 29.5636, -0.260725, -3.51767, 33.1309, -93.0318, -67.9364, -5.26357, 34.4357, -10.4083, -22.4098, -103.871, -5.70237
0.708, -1, 29.5978, -0.251256, -3.49594, 33.1557, -93.0033, -67.9275, -5.23216, 34.4439, -10.3571, -22.4119, -103.85, -5.68078
0.712, -1, 29.6321, -0.241789, -3.47422, 33.1806, -92.9748, -67.9185, -5.20077, 34.4521, -10.3058, -22.414, -103.829, -5.65919
0.716, -1, 29.6663, -0.232324, -3.4525, 33.2054, -92.9463, -67.9096, -5.16938, 34.4603, -10.2546, -22.4161, -103.808, -5.63761
0.72, -1, 29.7005, -0.222861, -3.43078, 33.2303, -92.9178, -67.9007, -5.138, 34.4685, -10.2034, -22.4181, -103.787, -5.61603
0.724, -1, 29.7347, -0.2134, -3.40907, 33.2552, -92.8893, -67.8917, -5.10663, 34.4767, -10.1523, -22.4202, -103.766, -5.59446
0.728, -1, 29.7689, -0.203942, -3.38736, 33.28, -92.8608, -67.8828, -5.07526, 34.4848, -10.1011, -22.4223, -103.745, -5.57289
0.732, -1, 29.8031, -0.194485, -3.36566, 33.3048, -92.8323, -67.8739, -5.0439, 34.493, -10.0499, -22.4244, -103.725, -5.55133
0.736, -1, 29.8373, -0.18503, -3.34396, 33.3297, -92.8039, -67.8649, -5.01255, 34.5012, -9.99875, -22.4265, -103.704, -5.52977
0.74, -1, 29.8715, -0.175578, -3.32227, 33.3545, -92.7754, -67.856, -4.9812, 34.5094, -9.94761, -22.4286, -103.683, -5.50821
0.744, -1, 29.9057, -0.166127, -3.30058, 33.3793, -92.747, -67.8471, -4.94986, 34.5175, -9.89648, -22.4307, -103.662, -5.48666
0.748, -1, 29.9398, -0.156678, -3.2789, 33.4041, -92.7185, -67.8382, -4.91853, 34.5257, -9.84535, -22.4328, -103.641, -5.46512
0.752, -1, 29.974, -0.147232, -3.25722, 33.4289, -92.6901, -67.8292, -4.8872, 34.5339, -9.79424, -22.4349, -103.62, -5.44358
0.756, -1, 30.0082, -0.137787, -3.23554, 33.4538, -92.6616, -67.8203, -4.85588, 34.542, -9.74314, -22.4369, -103.6, -5.42204
0.76, -1, 30.0423, -0.128344, -3.21387, 33.4785, -92.6332, -67.8114, -4.82457, 34.5502, -9.69205, -22.439, -103.579, -5.40051
0.764, -1, 30.0764, -0.118904, -3.19221, 33.5033, -92.6048, -67.8025, -4.79326, 34.5584, -9.64097, -22.4411, -103.558, -5.37898
0.768, -1, 30.1106, -0.109465, -3.17055, 33.5281, -92.5764, -67.7936, -4.76196, 34.5665, -9.5899, -22.4432, -103.537, -5.35746
0.772, -1, 30.1447, -0.100028, -3.14889, 33.5529, -92.548, -67.7846, -4.73067, 34.5747, -9.53885, -22.4453, -103.516, -5.33594
0.776, -1, 30.1788, -0.0905936, -3.12724, 33.5777, -92.5196, -67.7757, -4.69938, 34.5828, -9.4878, -22.4474, -103.495, -5.31443
0.78, -1, 30.2129, -0.0811609, -3.10559, 33.6025, -92.4912, -67.7668, -4.6681, 34.591, -9.43676, -22.4494, -103.475, -5.29292
0.784, -1, 30.247, -0.0717302, -3.08395, 33.6272, -92.4628, -67.7579, -4.63682, 34.5991, -9.38574, -22.4515, -103.454, -5.27141
0.788, -1, 30.2811, -0.0623014, -3.06231, 33.652, -92.4344, -67.749, -4.60555, 34.6073, -9.33472, -22.4536, -103.433, -5.24991
0.792, -1, 30.3152, -0.0528746, -3.04067, 33.6768, -92.406, -67.7401, -4.57429, 34.6155, -9.28372, -22.4557, -103.412, -5.22842
0.796, -1, 30.3493, -0.0434498, -3.01905, 33.7015, -92.3776, -67.7312, -4.54304, 34.6236, -9.23273, -22.4578, -103.392, -5.20693
0.8, -1, 30.3834, -0.0340269, -2.99742, 33.7263, -92.3493, -67.7223, -4.51179, 34.6317, -9.18174, -22.4599, -103.371, -5.18544
0.804, -1, 30.4174, -0.024606, -2.9758, 33.751, -92.3209, -67.7134, -4.48055, 34.6399, -9.13077, -22.4619, -103.35, -5.16396
0.808, -1, 30.4515, -0.015187, -2.95418, 33.7758, -92.2925, -67.7045, -4.44931, 34.648, -9.07981, -22.464, -103.329, -5.14248
0.812, -1, 30.4855, -0.00577003, -2.93257, 33.8005, -92.2642, -67.6956, -4.41809, 34.6562, -9.02886, -22.4661, -103.308, -5.12101
0.816, -1, 30.5196, 0.00364503, -2.91097, 33.8252, -92.2358, -67.6867, -4.38686, 34.6643, -8.97792, -22.4682, -103.288, -5.09954
0.82, -1, 30.5536, 0.0130581, -2.88936, 33.8499, -92.2075, -67.6778, -4.35565, 34.6725, -8.92699, -22.4703, -103.267, -5.07807
0.824, -1, 30.5877, 0.0224693, -2.86777, 33.8747, -92.1792, -67.6689, -4.32444, 34.6806, -8.87607, -22.4723, -103.246, -5.05661
0.828, -1, 30.6217, 0.0318786, -2.84617, 33.8994, -92.1508, -67.66, -4.29323, 34.6887, -8.82516, -22.4744, -103.225, -5.03516
0.832, -1, 30.6557, 0.0412859, -2.82458, 33.9241, -92.1225, -67.6511, -4.26204, 34.6969, -8.77426, -22.4765, -103.205, -5.01371
0.836, -1, 30.6897, 0.0506912, -2.803, 33.9488, -92.0942, -67.6423, -4.23085, 34.705, -8.72337, -22.4786, -103.184, -4.99226
0.84, -1, 30.7237, 0.0600947, -2.78142, 33.9735, -92.0659, -67.6334, -4.19966, 34.7131, -8.67249, -22.4807, -103.163, -4.97082
0.844, -1, 30.7577, 0.0694962, -2.75984, 33.9982, -92.0376, -67.6245, -4.16849, 34.7213, -8.62163, -22.4827, -103.143, -4.94938
0.848, -1, 30.7917, 0.0788958, -2.73827, 34.0229, -92.0093, -67.6156, -4.13731, 34.7294, -8.57077, -22.4848, -103.122, -4.92795
0.852, -1, 30.8257, 0.0882935, -2.7167, 34.0475, -91.981, -67.6067, -4.10615, 34.7375, -8.51993, -22.4869, -103.101, -4.90652
0.856, -1, 30.8597, 0.0976893, -2.69514, 34.0722, -91.9527, -67.5979, -4.07499, 34.7456, -8.46909, -22.489, -103.08, -4.88509
0.86, -1, 30.8936, 0.107083, -2.67358, 34.0969, -91.9244, -67.589, -4.04384, 34.7537, -8.41826, -22.491, -103.06, -4.86367
0.864, -1, 30.9276, 0.116475, -2.65203, 34.1216, -91.8962, -67.5801, -4.01269, 34.7619, -8.36745, -22.4931, -103.039, -4.84225
0.868, -1, 30.9616, 0.125865, -2.63048, 34.1462, -91.8679, -67.5713, -3.98155, 34.77, -8.31664, -22.4952, -103.018, -4.82084
0.872, -1, 30.9955, 0.135253, -2.60893, 34.1709, -91.8396, -67.5624, -3.95042, 34.7781, -8.26585, -22.4973, -102.998, -4.79943
0.876, -1, 31.0294, 0.14464, -2.58739, 34.1955, -91.8114, -67.5535, -3.91929, 34.7862, -8.21506, -22.4993, -102.977, -4.77803
0.88, -1, 31.0634, 0.154024, -2.56586, 34.2202, -91.7831, -67.5446, -3.88817, 34.7943, -8.16429, -22.5014, -102.956, -4.75663
0.884, -1, 31.0973, 0.163406, -2.54433, 34.2448, -91.7549, -67.5358, -3.85706, 34.8024, -8.11352, -22.5035, -102.935, -4.73524
0.888, -1, 31.1312, 0.172787, -2.5228, 34.2695, -91.7266, -67.5269, -3.82595, 34.8106, -8.06277, -22.5056, -102.915, -4.71385
0.892, -1, 31.1651, 0.182166, -2.50127, 34.2941, -91.6984, -67.5181, -3.79485, 34.8187, -8.01202, -22.5076, -102.894, -4.69246
0.896, -1, 31.199, 0.191543, -2.47976, 34.3187, -91.6702, -67.5092, -3.76375, 34.8268, -7.96129, -22.5097, -102.873, -4.67108
0.9, -1, 31.233, 0.200918, -2.45824, 34.3433, -91.6419, -67.5004, -3.73266, 34.8349, -7.91057, -22.5118, -102.853, -4.6497
0.904, -1, 31.2668, 0.210291, -2.43673, 34.368, -91.6137, -67.4915, -3.70158, 34.843, -7.85985, -22.5138, -102.832, -4.62833
0.908, -1, 31.3007, 0.219662, -2.41522, 34.3926, -91.5855, -67.4826, -3.6705, 34.8511, -7.80915, -22.5159, -102.811, -4.60696
0.912, -1, 31.3346, 0.229031, -2.39372, 34.4172, -91.5573, -67.4738, -3.63943, 34.8592, -7.75846, -22.518, -102.791, -4.58559
0.916, -1, 31.3685, 0.238399, -2.37222, 34.4418, -91.5291, -67.465, -3.60837, 34.8673, -7.70777, -22.52, -102.77, -4.56423
0.92, -1, 31.4024, 0.247765, -2.35073, 34.4664, -91.5009, -67.4561, -3.57731, 34.8754, -7.6571, -22.5221, -102.749, -4.54288
0.924, -1, 31.4362, 0.257128, -2.32924, 34.491, -91.4727, -67.4473, -3.54626, 34.8835, -7.60644, -22.5242, -102.729, -4.52153
0.928, -1, 31.4701, 0.26649, -2.30776, 34.5156, -91.4445, -67.4384, -3.51521, 34.8916, -7.55578, -22.5263, -102.708, -4.50018
0.932, -1, 31.5039, 0.27585, -2.28627, 34.5402, -91.4163, -67.4296, -3.48417, 34.8997, -7.50514, -22.5283, -102.688, -4.47883
0.936, -1, 31.5378, 0.285209, -2.2648, 34.5647, -91.3882, -67.4207, -3.45314, 34.9078, -7.45451, -22.5304, -102.667, -4.45749
0.94, -1, 31.5716, 0.294565, -2.24333, 34.5893, -91.36, -67.4119, -3.42211, 34.9158, -7.40388, -22.5325, -102.646, -4.43616
0.944, -1, 31.6054, 0.30392, -2.22186, 34.6139, -91.3318, -67.4031, -3.39109, 34.9239, -7.35327, -22.5345, -102.626, -4.41483
0.948, -1, 31.6392, 0.313272, -2.20039, 34.6384, -91.3037, -67.3942, -3.36007, 34.932, -7.30267, -22.5366, -102.605, -4.3935
0.952, -1, 31.673, 0.322623, -2.17893, 34.663, -91.2755, -67.3854, -3.32906, 34.9401, -7.25207, -22.5387, -102.584, -4.37218
0.956, -1, 31.7069, 0.331973, -2.15748, 34.6876, -91.2474, -67.3765, -3.29806, 34.9482, -7.20149, -22.5407, -102.564, -4.35086
0.96, -1, 31.7407, 0.34132, -2.13603, 34.7121, -91.2192, -67.3677, -3.26706, 34.9563, -7.15092, -22.5428, -102.543, -4.32955
0.964, -1, 31.7745, 0.350665, -2.11458, 34.7367, -91.1911, -67.3589, -3.23607, 34.9644, -7.10035, -22.5448, -102.523, -4.30824
0.968, -1, 31.8082, 0.360009, -2.09314, 34.7612, -91.163, -67.3501, -3.20508, 34.9724, -7.0498, -22.5469, -102.502, -4.28693
0.972, -1, 31.842, 0.369351, -2.0717, 34.7857, -91.1348, -67.3412, -3.1741, 34.9805, -6.99925, -22.549, -102.481, -4.26563
0.976, -1, 31.8758, 0.378691, -2.05026, 34.8103, -91.1067, -67.3324, -3.14313, 34.9886, -6.94872, -22.551, -102.461, -4.24433
0.98, -1, 31.9096, 0.388029, -2.02883, 34.8348, -91.0786, -67.3236, -3.11216, 34.9967, -6.89819, -22.5531, -102.44, -4.22304
0.984, -1, 31.9433, 0.397365, -2.00741, 34.8593, -91.0505, -67.3148, -3.0812, 35.0047, -6.84768, -22.5552, -102.42, -4.20175
0.988, -1, 31.9771, 0.4067, -1.98598, 34.8838, -91.0224, -67.306, -3.05024, 35.0128, -6.79717, -22.5572, -102.399, -4.18046
0.992, -1, 32.0108, 0.416033, -1.96457, 34.9083, -90.9943, -67.2971, -3.01929, 35.0209, -6.74668, -22.5593, -102.378, -4.15918
0.996, -1, 32.0446, 0.425364, -1.94315, 34.9328, -90.9662, -67.2883, -2.98835, 35.0289, -6.69619, -22.5614, -102.358, -4.1379
1, -1, 32.0783, 0.434693, -1.92174, 34.9574, -90.9381, -67.2795, -2.95741, 35.037, -6.64572, -22.5634, -102.337, -4.11663
1.004, -1, 32.112, 0.444021, -1.90034, 34.9819, -90.91, -67.2707, -2.92648, 35.0451, -6.59525, -22.5655, -102.317, -4.09536
1.008, -1, 32.1458, 0.453346, -1.87894, 35.0063, -90.882, -67.2619, -2.89556, 35.0531, -6.54479, -22.5675, -102.296, -4.07409
1.012, -1, 32.1795, 0.46267, -1.85754, 35.0308, -90.8539, -67.2531, -2.86464, 35.0612, -6.49435, -22.5696, -102.276, -4.05283
1.016, -1, 32.2132, 0.471992, -1.83614, 35.0553, -90.8258, -67.2443, -2.83372, 35.0693, -6.44391, -22.5717, -102.255, -4.03158
1.02, -1, 32.2469, 0.481313, -1.81475, 35.0798, -90.7978, -67.2355, -2.80282, 35.0773, -6.39348, -22.5737, -102.235, -4.01032
1.024, -1, 32.2806, 0.490631, -1.79337, 35.1043, -90.7697, -67.2267, -2.77191, 35.0854, -6.34306, -22.5758, -102.214, -3.98907
1.027, -1, 32.3143, 0.499948, -1.77199, 35.1287, -90.7417, -67.2179, -2.74102, 35.0934, -6.29265, -22.5778, -102.193, -3.96783
1.032, -1, 32.348, 0.509263, -1.75061, 35.1532, -90.7136, -67.2091, -2.71013, 35.1015, -6.24225, -22.5799, -102.173, -3.94659
1.036, -1, 32.3816, 0.518576, -1.72924, 35.1777, -90.6856, -67.2003, -2.67924, 35.1095, -6.19186, -22.5819, -102.152, -3.92535
1.04, -1, 32.4153, 0.527888, -1.70787, 35.2021, -90.6575, -67.1915, -2.64836, 35.1176, -6.14148, -22.584, -102.132, -3.90412
1.044, -1, 32.449, 0.537198, -1.6865, 35.2266, -90.6295, -67.1827, -2.61749, 35.1256, -6.09111, -22.5861, -102.111, -3.88289
1.048, -1, 32.4826, 0.546506, -1.66514, 35.251, -90.6015, -67.1739, -2.58662, 35.1337, -6.04075, -22.5881, -102.091, -3.86167
1.052, -1, 32.5163, 0.555812, -1.64378, 35.2755, -90.5735, -67.1651, -2.55576, 35.1417, -5.9904, -22.5902, -102.07, -3.84044
1.055, -1, 32.5499, 0.565117, -1.62243, 35.2999, -90.5455, -67.1563, -2.5249, 35.1498, -5.94006, -22.5922, -102.05, -3.81923
1.06, -1, 32.5836, 0.574419, -1.60108, 35.3243, -90.5174, -67.1475, -2.49406, 35.1578, -5.88972, -22.5943, -102.029, -3.79801
1.064, -1, 32.6172, 0.58372, -1.57974, 35.3488, -90.4894, -67.1387, -2.46321, 35.1659, -5.8394, -22.5963, -102.009, -3.77681
1.068, -1, 32.6508, 0.59302, -1.55839, 35.3732, -90.4614, -67.13, -2.43237, 35.1739, -5.78908, -22.5984, -101.988, -3.7556
1.072, -1, 32.6845, 0.602317, -1.53706, 35.3976, -90.4335, -67.1212, -2.40154, 35.1819, -5.73878, -22.6004, -101.968, -3.7344
1.076, -1, 32.7181, 0.611613, -1.51572, 35.422, -90.4055, -67.1124, -2.37071, 35.19, -5.68848, -22.6025, -101.947, -3.7132
1.08, -1, 32.7517, 0.620907, -1.49439, 35.4464, -90.3775, -67.1036, -2.33989, 35.198, -5.6382, -22.6046, -101.927, -3.69201
1.084, -1, 32.7853, 0.6302, -1.47307, 35.4708, -90.3495, -67.0948, -2.30908, 35.206, -5.58792, -22.6066, -101.906, -3.67082
1.088, -1, 32.8189, 0.63949, -1.45175, 35.4952, -90.3215, -67.0861, -2.27827, 35.2141, -5.53765, -22.6087, -101.886, -3.64963
1.091, -1, 32.8525, 0.64878, -1.43043, 35.5196, -90.2936, -67.0773, -2.24746, 35.2221, -5.48739, -22.6107, -101.865, -3.62845
1.096, -1, 32.8861, 0.658067, -1.40912, 35.544, -90.2656, -67.0685, -2.21666, 35.2301, -5.43714, -22.6128, -101.845, -3.60728
1.1, -1, 32.9196, 0.667352, -1.38781, 35.5684, -90.2377, -67.0597, -2.18587, 35.2382, -5.3869, -22.6148, -101.824, -3.5861
1.104, -1, 32.9532, 0.676636, -1.3665, 35.5928, -90.2097, -67.051, -2.15508, 35.2462, -5.33667, -22.6169, -101.804, -3.56493
1.108, -1, 32.9868, 0.685918, -1.3452, 35.6172, -90.1818, -67.0422, -2.1243, 35.2542, -5.28645, -22.6189, -101.783, -3.54377
1.112, -1, 33.0203, 0.695199, -1.3239, 35.6416, -90.1538, -67.0334, -2.09352, 35.2622, -5.23624, -22.621, -101.763, -3.5226
1.116, -1, 33.0539, 0.704478, -1.30261, 35.6659, -90.1259, -67.0247, -2.06275, 35.2703, -5.18604, -22.623, -101.742, -3.50145
1.119, -1, 33.0874, 0.713755, -1.28132, 35.6903, -90.098, -67.0159, -2.03199, 35.2783, -5.13584, -22.6251, -101.722, -3.48029
1.124, -1, 33.121, 0.72303, -1.26003, 35.7147, -90.07, -67.0071, -2.00123, 35.2863, -5.08566, -22.6271, -101.702, -3.45914
1.128, -1, 33.1545, 0.732304, -1.23875, 35.739, -90.0421, -66.9984, -1.97048, 35.2943, -5.03548, -22.6292, -101.681, -3.43799
1.132, -1, 33.188, 0.741576, -1.21747, 35.7634, -90.0142, -66.9896, -1.93973, 35.3023, -4.98532, -22.6312, -101.661, -3.41685
1.136, -1, 33.2215, 0.750846, -1.19619, 35.7877, -89.9863, -66.9809, -1.90899, 35.3104, -4.93516, -22.6333, -101.64, -3.39571
1.14, -1, 33.2551, 0.760115, -1.17492, 35.8121, -89.9584, -66.9721, -1.87825, 35.3184, -4.88501, -22.6353, -101.62, -3.37458
1.144, -1, 33.2886, 0.769382, -1.15366, 35.8364, -89.9305, -66.9634, -1.84752, 35.3264, -4.83487, -22.6374, -101.599, -3.35345
1.147, -1, 33.3221, 0.778647, -1.13239, 35.8607, -89.9026, -66.9546, -1.81679, 35.3344, -4.78474, -22.6394, -101.579, -3.33232
1.152, -1, 33.3556, 0.787911, -1.11113, 35.8851, -89.8747, -66.9459, -1.78607, 35.3424, -4.73462, -22.6414, -101.559, -3.31119
1.156, -1, 33.3891, 0.797173, -1.08988, 35.9094, -89.8468, -66.9371, -1.75536, 35.3504, -4.68451, -22.6435, -101.538, -3.29007
1.16, -1, 33.4226, 0.806433, -1.06863, 35.9337, -89.8189, -66.9284, -1.72465, 35.3584, -4.6344, -22.6455, -101.518, -3.26896
1.164, -1, 33.456, 0.815692, -1.04738, 35.958, -89.7911, -66.9196, -1.69394, 35.3664, -4.58431, -22.6476, -101.497, -3.24785
1.168, -1, 33.4895, 0.824949, -1.02613, 35.9823, -89.7632, -66.9109, -1.66325, 35.3744, -4.53422, -22.6496, -101.477, -3.22674
1.172, -1, 33.523, 0.834204, -1.00489, 36.0067, -89.7353, -66.9021, -1.63255, 35.3824, -4.48415, -22.6517, -101.456, -3.20563
1.175, -1, 33.5564, 0.843458, -0.983657, 36.031, -89.7075, -66.8934, -1.60187, 35.3904, -4.43408, -22.6537, -101.436, -3.18453
1.18, -1, 33.5899, 0.85271, -0.962424, 36.0553, -89.6796, -66.8846, -1.57118, 35.3984, -4.38402, -22.6558, -101.416, -3.16343
1.184, -1, 33.6233, 0.861961, -0.941195, 36.0796, -89.6518, -66.8759, -1.54051, 35.4064, -4.33397, -22.6578, -101.395, -3.14234
1.188, -1, 33.6568, 0.87121, -0.91997, 36.1039, -89.6239, -66.8672, -1.50984, 35.4144, -4.28393, -22.6598, -101.375, -3.12125
1.192, -1, 33.6902, 0.880457, -0.898748, 36.1281, -89.5961, -66.8584, -1.47917, 35.4224, -4.2339, -22.6619, -101.354, -3.10016
1.196, -1, 33.7237, 0.889702, -0.877531, 36.1524, -89.5682, -66.8497, -1.44851, 35.4304, -4.18387, -22.6639, -101.334, -3.07908
1.2, -1, 33.7571, 0.898946, -0.856316, 36.1767, -89.5404, -66.841, -1.41785, 35.4384, -4.13386, -22.666, -101.314, -3.058
1.204, -1, 33.7905, 0.908189, -0.835106, 36.201, -89.5126, -66.8322, -1.3872, 35.4464, -4.08385, -22.668, -101.293, -3.03693
1.208, -1, 33.8239, 0.917429, -0.813899, 36.2252, -89.4848, -66.8235, -1.35656, 35.4544, -4.03385, -22.6701, -101.273, -3.01586
1.212, -1, 33.8573, 0.926668, -0.792696, 36.2495, -89.4569, -66.8148, -1.32592, 35.4624, -3.98387, -22.6721, -101.253, -2.99479
1.216, -1, 33.8907, 0.935906, -0.771497, 36.2738, -89.4291, -66.8061, -1.29528, 35.4704, -3.93388, -22.6741, -101.232, -2.97373
1.22, -1, 33.9241, 0.945142, -0.750301, 36.298, -89.4013, -66.7973, -1.26465, 35.4783, -3.88391, -22.6762, -101.212, -2.95266
1.224, -1, 33.9575, 0.954376, -0.729109, 36.3223, -89.3735, -66.7886, -1.23403, 35.4863, -3.83395, -22.6782, -101.191, -2.93161
1.228, -1, 33.9909, 0.963609, -0.70792, 36.3465, -89.3457, -66.7799, -1.20341, 35.4943, -3.78399, -22.6803, -101.171, -2.91055
1.232, -1, 34.0243, 0.972841, -0.686735, 36.3708, -89.3179, -66.7712, -1.1728, 35.5023, -3.73405, -22.6823, -101.151, -2.8895
1.236, -1, 34.0577, 0.98207, -0.665553, 36.395, -89.2902, -66.7624, -1.14219, 35.5103, -3.68411, -22.6843, -101.13, -2.86846
1.24, -1, 34.091, 0.991299, -0.644375, 36.4193, -89.2624, -66.7537, -1.11158, 35.5183, -3.63418, -22.6864, -101.11, -2.84741
1.244, -1, 34.1244, 1.00053, -0.623201, 36.4435, -89.2346, -66.745, -1.08099, 35.5262, -3.58426, -22.6884, -101.09, -2.82638
1.248, -1, 34.1578, 1.00975, -0.60203, 36.4677, -89.2068, -66.7363, -1.05039, 35.5342, -3.53434, -22.6905, -101.069, -2.80534
1.252, -1, 34.1911, 1.01897, -0.580862, 36.492, -89.179, -66.7276, -1.0198, 35.5422, -3.48444, -22.6925, -101.049, -2.78431
1.256, -1, 34.2245, 1.0282, -0.559698, 36.5162, -89.1513, -66.7189, -0.989222, 35.5502, -3.43454, -22.6945, -101.029, -2.76328
1.26, -1, 34.2578, 1.03742, -0.538537, 36.5404, -89.1235, -66.7102, -0.958645, 35.5581, -3.38465, -22.6966, -101.008, -2.74225
1.264, -1, 34.2912, 1.04664, -0.51738, 36.5646, -89.0958, -66.7015, -0.928072, 35.5661, -3.33477, -22.6986, -100.988, -2.72123
1.267, -1, 34.3245, 1.05585, -0.496226, 36.5888, -89.068, -66.6927, -0.897504, 35.5741, -3.2849, -22.7006, -100.968, -2.70021
1.272, -1, 34.3578, 1.06507, -0.475076, 36.613, -89.0403, -66.684, -0.866942, 35.582, -3.23503, -22.7027, -100.947, -2.6792
1.276, -1, 34.3911, 1.07428, -0.453929, 36.6372, -89.0125, -66.6753, -0.836384, 35.59, -3.18518, -22.7047, -100.927, -2.65818
1.28, -1, 34.4244, 1.0835, -0.432786, 36.6614, -88.9848, -66.6666, -0.805831, 35.598, -3.13533, -22.7067, -100.907, -2.63718
1.284, -1, 34.4578, 1.09271, -0.411646, 36.6856, -88.9571, -66.6579, -0.775284, 35.6059, -3.08549, -22.7088, -100.886, -2.61617
1.288, -1, 34.4911, 1.10192, -0.39051, 36.7098, -88.9293, -66.6492, -0.744741, 35.6139, -3.03566, -22.7108, -100.866, -2.59517
1.292, -1, 34.5244, 1.11113, -0.369377, 36.734, -88.9016, -66.6405, -0.714203, 35.6219, -2.98584, -22.7129, -100.846, -2.57417
1.295, -1, 34.5577, 1.12033, -0.348247, 36.7582, -88.8739, -66.6318, -0.68367, 35.6298, -2.93602, -22.7149, -100.826, -2.55318
1.3, -1, 34.5909, 1.12954, -0.327121, 36.7824, -88.8462, -66.6231, -0.653142, 35.6378, -2.88621, -22.7169, -100.805, -2.53219
1.304, -1, 34.6242, 1.13874, -0.305998, 36.8065, -88.8185, -66.6144, -0.622619, 35.6457, -2.83641, -22.719, -100.785, -2.5112
1.308, -1, 34.6575, 1.14795, -0.284878, 36.8307, -88.7908, -66.6058, -0.592101, 35.6537, -2.78662, -22.721, -100.765, -2.49021
1.312, -1, 34.6908, 1.15715, -0.263762, 36.8549, -88.7631, -66.5971, -0.561588, 35.6616, -2.73684, -22.723, -100.744, -2.46923
1.316, -1, 34.724, 1.16635, -0.242649, 36.879, -88.7354, -66.5884, -0.531079, 35.6696, -2.68706, -22.7251, -100.724, -2.44825
1.32, -1, 34.7573, 1.17555, -0.22154, 36.9032, -88.7077, -66.5797, -0.500576, 35.6776, -2.6373, -22.7271, -100.704, -2.42728
1.324, -1, 34.7906, 1.18474, -0.200434, 36.9273, -88.68, -66.571, -0.470077, 35.6855, -2.58754, -22.7291, -100.684, -2.40631
1.328, -1, 34.8238, 1.19394, -0.179331, 36.9515, -88.6523, -66.5623, -0.439583, 35.6935, -2.53779, -22.7311, -100.663, -2.38534
1.332, -1, 34.8571, 1.20313, -0.158232, 36.9756, -88.6246, -66.5536, -0.409094, 35.7014, -2.48804, -22.7332, -100.643, -2.36438
1.336, -1, 34.8903, 1.21232, -0.137136, 36.9998, -88.5969, -66.5449, -0.37861, 35.7094, -2.43831, -22.7352, -100.623, -2.34341
1.34, -1, 34.9235, 1.22152, -0.116044, 37.0239, -88.5693, -66.5363, -0.348131, 35.7173, -2.38858, -22.7372, -100.602, -2.32246
1.344, -1, 34.9568, 1.23071, -0.0949543, 37.0481, -88.5416, -66.5276, -0.317657, 35.7252, -2.33886, -22.7393, -100.582, -2.3015
1.348, -1, 34.99, 1.23989, -0.0738683, 37.0722, -88.5139, -66.5189, -0.287187, 35.7332, -2.28915, -22.7413, -100.562, -2.28055
1.352, -1, 35.0232, 1.24908, -0.0527856, 37.0963, -88.4863, -66.5102, -0.256723, 35.7411, -2.23944, -22.7433, -100.542, -2.2596
1.356, -1, 35.0564, 1.25827, -0.0317062, 37.1204, -88.4586, -66.5015, -0.226263, 35.7491, -2.18974, -22.7454, -100.521, -2.23866
1.36, -1, 35.0896, 1.26745, -0.0106302, 37.1446, -88.431, -66.4929, -0.195808, 35.757, -2.14006, -22.7474, -100.501, -2.21772
1.364, -1, 35.1228, 1.27663, 0.0104426, 37.1687, -88.4033, -66.4842, -0.165358, 35.765, -2.09037, -22.7494, -100.481, -2.19678
1.368, -1, 35.156, 1.28581, 0.0315121, 37.1928, -88.3757, -66.4755, -0.134912, 35.7729, -2.0407, -22.7514, -100.461, -2.17584
1.372, -1, 35.1892, 1.29499, 0.0525784, 37.2169, -88.3481, -66.4668, -0.104471, 35.7808, -1.99103, -22.7535, -100.44, -2.15491
1.376, -1, 35.2224, 1.30417, 0.0736413, 37.241, -88.3204, -66.4582, -0.0740345, 35.7888, -1.94138, -22.7555, -100.42, -2.13398
1.38, -1, 35.2556, 1.31335, 0.094701, 37.2651, -88.2928, -66.4495, -0.0436027, 35.7967, -1.89173, -22.7575, -100.4, -2.11306
1.384, -1, 35.2888, 1.32252, 0.115758, 37.2892, -88.2652, -66.4408, -0.0131756, 35.8046, -1.84208, -22.7596, -100.38, -2.09213
1.388, -1, 35.322, 1.3317, 0.136811, 37.3133, -88.2376, -66.4322, 0.0172469, 35.8126, -1.79245, -22.7616, -100.36, -2.07122
1.392, -1, 35.3551, 1.34087, 0.157861, 37.3374, -88.2099, -66.4235, 0.0476646, 35.8205, -1.74282, -22.7636, -100.339, -2.0503
1.396, -1, 35.3883, 1.35004, 0.178907, 37.3615, -88.1823, -66.4148, 0.0780777, 35.8284, -1.6932, -22.7656, -100.319, -2.02939
1.4, -1, 35.4214, 1.35921, 0.199951, 37.3856, -88.1547, -66.4062, 0.108486, 35.8363, -1.64359, -22.7677, -100.299, -2.00848
1.404, -1, 35.4546, 1.36838, 0.220991, 37.4097, -88.1271, -66.3975, 0.13889, 35.8443, -1.59398, -22.7697, -100.279, -1.98757
1.408, -1, 35.4878, 1.37754, 0.242028, 37.4337, -88.0995, -66.3889, 0.169289, 35.8522, -1.54439, -22.7717, -100.258, -1.96667
1.412, -1, 35.5209, 1.38671, 0.263062, 37.4578, -88.0719, -66.3802, 0.199684, 35.8601, -1.4948, -22.7737, -100.238, -1.94577
1.416, -1, 35.554, 1.39587, 0.284093, 37.4819, -88.0443, -66.3716, 0.230073, 35.868, -1.44522, -22.7758, -100.218, -1.92487
1.42, -1, 35.5872, 1.40504, 0.30512, 37.5059, -88.0168, -66.3629, 0.260459, 35.876, -1.39564, -22.7778, -100.198, -1.90398
1.424, -1, 35.6203, 1.4142, 0.326145, 37.53, -87.9892, -66.3542, 0.290839, 35.8839, -1.34607, -22.7798, -100.178, -1.88309
1.428, -1, 35.6534, 1.42336, 0.347166, 37.5541, -87.9616, -66.3456, 0.321216, 35.8918, -1.29651, -22.7818, -100.157, -1.8622
1.432, -1, 35.6865, 1.43252, 0.368184, 37.5781, -87.934, -66.3369, 0.351587, 35.8997, -1.24696, -22.7839, -100.137, -1.84132
1.436, -1, 35.7196, 1.44167, 0.389199, 37.6022, -87.9065, -66.3283, 0.381954, 35.9076, -1.19742, -22.7859, -100.117, -1.82044
1.44, -1, 35.7528, 1.45083, 0.41021, 37.6262, -87.8789, -66.3196, 0.412316, 35.9156, -1.14788, -22.7879, -100.097, -1.79956
1.444, -1, 35.7859, 1.45998, 0.431219, 37.6503, -87.8513, -66.311, 0.442674, 35.9235, -1.09835, -22.7899, -100.077, -1.77869
1.448, -1, 35.819, 1.46914, 0.452224, 37.6743, -87.8238, -66.3023, 0.473028, 35.9314, -1.04883, -22.7919, -100.057, -1.75782
1.452, -1, 35.852, 1.47829, 0.473226, 37.6983, -87.7962, -66.2937, 0.503376, 35.9393, -0.999314, -22.794, -100.036, -1.73695
1.456, -1, 35.8851, 1.48744, 0.494225, 37.7224, -87.7687, -66.2851, 0.533721, 35.9472, -0.949807, -22.796, -100.016, -1.71608
1.46, -1, 35.9182, 1.49659, 0.515221, 37.7464, -87.7411, -66.2764, 0.56406, 35.9551, -0.900307, -22.798, -99.996, -1.69522
1.464, -1, 35.9513, 1.50573, 0.536214, 37.7704, -87.7136, -66.2678, 0.594396, 35.963, -0.850814, -22.8, -99.9758, -1.67436
1.468, -1, 35.9844, 1.51488, 0.557204, 37.7944, -87.6861, -66.2591, 0.624726, 35.9709, -0.801328, -22.8021, -99.9557, -1.65351
1.472, -1, 36.0174, 1.52402, 0.578191, 37.8185, -87.6585, -66.2505, 0.655052, 35.9788, -0.75185, -22.8041, -99.9355, -1.63265
1.476, -1, 36.0505, 1.53317, 0.599174, 37.8425, -87.631, -66.2419, 0.685374, 35.9868, -0.70238, -22.8061, -99.9153, -1.6118
1.48, -1, 36.0836, 1.54231, 0.620155, 37.8665, -87.6035, -66.2332, 0.715691, 35.9947, -0.652916, -22.8081, -99.8952, -1.59096
1.484, -1, 36.1166, 1.55145, 0.641132, 37.8905, -87.576, -66.2246, 0.746003, 36.0026, -0.60346, -22.8101, -99.875, -1.57011
1.488, -1, 36.1497, 1.56059, 0.662107, 37.9145, -87.5484, -66.216, 0.776311, 36.0105, -0.554011, -22.8121, -99.8549, -1.54927
1.492, -1, 36.1827, 1.56973, 0.683079, 37.9385, -87.5209, -66.2073, 0.806614, 36.0184, -0.504569, -22.8142, -99.8347, -1.52844
1.496, -1, 36.2158, 1.57887, 0.704048, 37.9625, -87.4934, -66.1987, 0.836914, 36.0263, -0.455135, -22.8162, -99.8146, -1.5076
1.5, -1, 36.2488, 1.588, 0.725014, 37.9865, -87.4659, -66.1901, 0.867209, 36.0342, -0.405708, -22.8182, -99.7944, -1.48677
1.504, -1, 36.2818, 1.59713, 0.745977, 38.0105, -87.4384, -66.1814, 0.8975, 36.0421, -0.356287, -22.8202, -99.7743, -1.46594
1.508, -1, 36.3148, 1.60627, 0.766937, 38.0345, -87.4109, -66.1728, 0.927786, 36.05, -0.306874, -22.8222, -99.7542, -1.44512
1.512, -1, 36.3479, 1.6154, 0.787893, 38.0584, -87.3834, -66.1642, 0.958068, 36.0579, -0.257468, -22.8243, -99.734, -1.42429
1.516, -1, 36.3809, 1.62453, 0.808847, 38.0824, -87.3559, -66.1556, 0.988346, 36.0658, -0.208069, -22.8263, -99.7139, -1.40347
1.52, -1, 36.4139, 1.63366, 0.829797, 38.1064, -87.3285, -66.1469, 1.01862, 36.0736, -0.158677, -22.8283, -99.6938, -1.38266
1.524, -1, 36.4469, 1.64279, 0.850744, 38.1304, -87.301, -66.1383, 1.04889, 36.0815, -0.109293, -22.8303, -99.6736, -1.36185
1.528, -1, 36.4799, 1.65191, 0.871688, 38.1544, -87.2735, -66.1297, 1.07915, 36.0894, -0.0599151, -22.8323, -99.6535, -1.34103
1.532, -1, 36.5129, 1.66104, 0.892629, 38.1783, -87.246, -66.1211, 1.10941, 36.0973, -0.0105445, -22.8343, -99.6334, -1.32023
1.536, -1, 36.5459, 1.67016, 0.913567, 38.2023, -87.2186, -66.1124, 1.13967, 36.1052, 0.0388189, -22.8364, -99.6133, -1.29942
1.54, -1, 36.5789, 1.67928, 0.934502, 38.2262, -87.1911, -66.1038, 1.16992, 36.1131, 0.0881754, -22.8384, -99.5932, -1.27862
1.544, -1, 36.6119, 1.6884, 0.955434, 38.2502, -87.1636, -66.0952, 1.20017, 36.121, 0.137525, -22.8404, -99.5731, -1.25782
1.548, -1, 36.6448, 1.69752, 0.976363, 38.2741, -87.1362, -66.0866, 1.23041, 36.1289, 0.186868, -22.8424, -99.553, -1.23703
1.552, -1, 36.6778, 1.70664, 0.997289, 38.2981, -87.1087, -66.078, 1.26065, 36.1367, 0.236204, -22.8444, -99.5329, -1.21624
1.556, -1, 36.7108, 1.71576, 1.01821, 38.322, -87.0813, -66.0694, 1.29088, 36.1446, 0.285533, -22.8464, -99.5128, -1.19545
1.56, -1, 36.7437, 1.72487, 1.03913, 38.346, -87.0538, -66.0608, 1.32112, 36.1525, 0.334855, -22.8484, -99.4927, -1.17466
1.564, -1, 36.7767, 1.73399, 1.06005, 38.3699, -87.0264, -66.0522, 1.35134, 36.1604, 0.384171, -22.8505, -99.4726, -1.15388
1.568, -1, 36.8096, 1.7431, 1.08096, 38.3939, -86.999, -66.0435, 1.38156, 36.1683, 0.43348, -22.8525, -99.4525, -1.13309
1.572, -1, 36.8426, 1.75221, 1.10188, 38.4178, -86.9715, -66.0349, 1.41178, 36.1761, 0.482781, -22.8545, -99.4324, -1.11232
1.576, -1, 36.8755, 1.76132, 1.12278, 38.4417, -86.9441, -66.0263, 1.44199, 36.184, 0.532075, -22.8565, -99.4123, -1.09154
1.58, -1, 36.9085, 1.77043, 1.14369, 38.4656, -86.9167, -66.0177, 1.4722, 36.1919, 0.581362, -22.8585, -99.3922, -1.07077
1.584, -1, 36.9414, 1.77954, 1.16459, 38.4896, -86.8893, -66.0091, 1.50241, 36.1998, 0.630643, -22.8605, -99.3721, -1.05
1.588, -1, 36.9743, 1.78865, 1.18549, 38.5135, -86.8618, -66.0005, 1.53261, 36.2076, 0.679916, -22.8625, -99.352, -1.02923
1.592, -1, 37.0073, 1.79775, 1.20639, 38.5374, -86.8344, -65.9919, 1.5628, 36.2155, 0.729183, -22.8645, -99.332, -1.00847
1.596, -1, 37.0402, 1.80686, 1.22728, 38.5613, -86.807, -65.9833, 1.593, 36.2234, 0.778442, -22.8666, -99.3119, -0.98771
1.6, -1, 37.0731, 1.81596, 1.24817, 38.5852, -86.7796, -65.9747, 1.62319, 36.2313, 0.827695, -22.8686, -99.2918, -0.966953
1.604, -1, 37.106, 1.82506, 1.26906, 38.6091, -86.7522, -65.9661, 1.65337, 36.2391, 0.876941, -22.8706, -99.2718, -0.946198
1.608, -1, 37.1389, 1.83416, 1.28995, 38.633, -86.7248, -65.9575, 1.68355, 36.247, 0.926181, -22.8726, -99.2517, -0.925446
1.612, -1, 37.1718, 1.84326, 1.31083, 38.6569, -86.6974, -65.9489, 1.71372, 36.2549, 0.975413, -22.8746, -99.2316, -0.904697
1.616, -1, 37.2047, 1.85236, 1.33171, 38.6808, -86.67, -65.9403, 1.7439, 36.2627, 1.02464, -22.8766, -99.2116, -0.883951
1.62, -1, 37.2376, 1.86146, 1.35259, 38.7047, -86.6426, -65.9317, 1.77406, 36.2706, 1.07386, -22.8786, -99.1915, -0.863207
1.624, -1, 37.2705, 1.87055, 1.37346, 38.7286, -86.6152, -65.9231, 1.80423, 36.2785, 1.12307, -22.8806, -99.1715, -0.842467
1.628, -1, 37.3034, 1.87965, 1.39433, 38.7525, -86.5879, -65.9146, 1.83439, 36.2863, 1.17228, -22.8826, -99.1514, -0.821729
1.632, -1, 37.3363, 1.88874, 1.4152, 38.7764, -86.5605, -65.906, 1.86454, 36.2942, 1.22148, -22.8846, -99.1314, -0.800994
1.636, -1, 37.3692, 1.89783, 1.43606, 38.8003, -86.5331, -65.8974, 1.89469, 36.302, 1.27067, -22.8867, -99.1113, -0.780262
1.64, -1, 37.402, 1.90692, 1.45693, 38.8241, -86.5057, -65.8888, 1.92484, 36.3099, 1.31985, -22.8887, -99.0913, -0.759532
1.644, -1, 37.4349, 1.91601, 1.47779, 38.848, -86.4784, -65.8802, 1.95498, 36.3178, 1.36903, -22.8907, -99.0712, -0.738806
1.648, -1, 37.4678, 1.9251, 1.49864, 38.8719, -86.451, -65.8716, 1.98512, 36.3256, 1.41821, -22.8927, -99.0512, -0.718082
1.652, -1, 37.5006, 1.93419, 1.5195, 38.8957, -86.4237, -65.863, 2.01526, 36.3335, 1.46737, -22.8947, -99.0311, -0.697361
1.656, -1, 37.5335, 1.94328, 1.54035, 38.9196, -86.3963, -65.8545, 2.04539, 36.3413, 1.51653, -22.8967, -99.0111, -0.676643
1.66, -1, 37.5663, 1.95236, 1.5612, 38.9435, -86.369, -65.8459, 2.07551, 36.3492, 1.56568, -22.8987, -98.9911, -0.655927
1.664, -1, 37.5992, 1.96144, 1.58204, 38.9673, -86.3416, -65.8373, 2.10564, 36.357, 1.61483, -22.9007, -98.9711, -0.635215
1.668, -1, 37.632, 1.97053, 1.60289, 38.9912, -86.3143, -65.8287, 2.13576, 36.3649, 1.66397, -22.9027, -98.951, -0.614505
1.672, -1, 37.6649, 1.97961, 1.62373, 39.015, -86.2869, -65.8201, 2.16587, 36.3727, 1.7131, -22.9047, -98.931, -0.593798
1.676, -1, 37.6977, 1.98869, 1.64456, 39.0389, -86.2596, -65.8116, 2.19598, 36.3806, 1.76223, -22.9067, -98.911, -0.573093
1.68, -1, 37.7305, 1.99776, 1.6654, 39.0627, -86.2323, -65.803, 2.22609, 36.3884, 1.81135, -22.9087, -98.891, -0.552391
1.684, -1, 37.7634, 2.00684, 1.68623, 39.0866, -86.2049, -65.7944, 2.25619, 36.3963, 1.86046, -22.9107, -98.871, -0.531693
1.688, -1, 37.7962, 2.01592, 1.70706, 39.1104, -86.1776, -65.7858, 2.28629, 36.4041, 1.90957, -22.9127, -98.8509, -0.510996
1.692, -1, 37.829, 2.02499, 1.72788, 39.1342, -86.1503, -65.7773, 2.31638, 36.412, 1.95867, -22.9147, -98.8309, -0.490303
1.696, -1, 37.8618, 2.03407, 1.74871, 39.1581, -86.123, -65.7687, 2.34647, 36.4198, 2.00776, -22.9168, -98.8109, -0.469612
1.7, -1, 37.8946, 2.04314, 1.76953, 39.1819, -86.0956, -65.7601, 2.37656, 36.4277, 2.05685, -22.9188, -98.7909, -0.448924
1.704, -1, 37.9274, 2.05221, 1.79035, 39.2057, -86.0683, -65.7515, 2.40664, 36.4355, 2.10593, -22.9208, -98.7709, -0.428238
1.708, -1, 37.9602, 2.06128, 1.81116, 39.2295, -86.041, -65.743, 2.43672, 36.4434, 2.15501, -22.9228, -98.7509, -0.407556
1.712, -1, 37.993, 2.07035, 1.83198, 39.2534, -86.0137, -65.7344, 2.4668, 36.4512, 2.20408, -22.9248, -98.7309, -0.386876
1.716, -1, 38.0258, 2.07942, 1.85279, 39.2772, -85.9864, -65.7258, 2.49687, 36.459, 2.25314, -22.9268, -98.7109, -0.366198
1.72, -1, 38.0586, 2.08849, 1.87359, 39.301, -85.9591, -65.7173, 2.52694, 36.4669, 2.3022, -22.9288, -98.6909, -0.345524
1.724, -1, 38.0914, 2.09755, 1.8944, 39.3248, -85.9318, -65.7087, 2.557, 36.4747, 2.35124, -22.9308, -98.671, -0.324852
1.728, -1, 38.1241, 2.10662, 1.9152, 39.3486, -85.9045, -65.7002, 2.58706, 36.4826, 2.40029, -22.9328, -98.651, -0.304182
1.732, -1, 38.1569, 2.11568, 1.936, 39.3724, -85.8773, -65.6916, 2.61712, 36.4904, 2.44933, -22.9348, -98.631, -0.283516
1.736, -1, 38.1897, 2.12474, 1.9568, 39.3962, -85.85, -65.683, 2.64717, 36.4982, 2.49836, -22.9368, -98.611, -0.262852
1.74, -1, 38.2225, 2.1338, 1.97759, 39.42, -85.8227, -65.6745, 2.67722, 36.5061, 2.54738, -22.9388, -98.591, -0.24219
1.744, -1, 38.2552, 2.14286, 1.99838, 39.4438, -85.7954, -65.6659, 2.70726, 36.5139, 2.5964, -22.9408, -98.5711, -0.221532
1.748, -1, 38.288, 2.15192, 2.01917, 39.4676, -85.7682, -65.6574, 2.7373, 36.5217, 2.64541, -22.9428, -98.5511, -0.200875
1.752, -1, 38.3207, 2.16098, 2.03996, 39.4914, -85.7409, -65.6488, 2.76734, 36.5296, 2.69442, -22.9448, -98.5311, -0.180222
1.756, -1, 38.3535, 2.17003, 2.06074, 39.5152, -85.7136, -65.6403, 2.79737, 36.5374, 2.74342, -22.9468, -98.5111, -0.159571
1.76, -1, 38.3862, 2.17909, 2.08152, 39.539, -85.6864, -65.6317, 2.8274, 36.5452, 2.79241, -22.9488, -98.4912, -0.138923
1.764, -1, 38.419, 2.18814, 2.1023, 39.5627, -85.6591, -65.6231, 2.85743, 36.553, 2.8414, -22.9508, -98.4712, -0.118277
1.768, -1, 38.4517, 2.1972, 2.12308, 39.5865, -85.6318, -65.6146, 2.88745, 36.5609, 2.89038, -22.9528, -98.4513, -0.0976341
1.772, -1, 38.4844, 2.20625, 2.14385, 39.6103, -85.6046, -65.606, 2.91746, 36.5687, 2.93935, -22.9548, -98.4313, -0.0769937
1.776, -1, 38.5172, 2.2153, 2.16462, 39.6341, -85.5773, -65.5975, 2.94748, 36.5765, 2.98832, -22.9568, -98.4113, -0.0563558
1.78, -1, 38.5499, 2.22435, 2.18539, 39.6578, -85.5501, -65.5889, 2.97749, 36.5843, 3.03728, -22.9588, -98.3914, -0.0357205
1.784, -1, 38.5826, 2.2334, 2.20615, 39.6816, -85.5229, -65.5804, 3.00749, 36.5922, 3.08624, -22.9608, -98.3714, -0.0150878
1.788, -1, 38.6153, 2.24244, 2.22691, 39.7054, -85.4956, -65.5718, 3.0375, 36.6, 3.13519, -22.9628, -98.3515, 0.00554238
1.792, -1, 38.648, 2.25149, 2.24767, 39.7291, -85.4684, -65.5633, 3.0675, 36.6078, 3.18413, -22.9648, -98.3316, 0.02617
1.796, -1, 38.6807, 2.26053, 2.26843, 39.7529, -85.4412, -65.5548, 3.09749, 36.6156, 3.23307, -22.9668, -98.3116, 0.046795
1.8, -1, 38.7134, 2.26958, 2.28919, 39.7766, -85.4139, -65.5462, 3.12748, 36.6235, 3.282, -22.9688, -98.2917, 0.0674175
1.804, -1, 38.7461, 2.27862, 2.30994, 39.8004, -85.3867, -65.5377, 3.15747, 36.6313, 3.33093, -22.9708, -98.2717, 0.0880374
1.808, -1, 38.7788, 2.28766, 2.33069, 39.8241, -85.3595, -65.5291, 3.18746, 36.6391, 3.37985, -22.9728, -98.2518, 0.108655
1.812, -1, 38.8115, 2.2967, 2.35144, 39.8479, -85.3323, -65.5206, 3.21744, 36.6469, 3.42876, -22.9748, -98.2319, 0.12927
1.816, -1, 38.8442, 2.30574, 2.37218, 39.8716, -85.305, -65.5121, 3.24741, 36.6547, 3.47767, -22.9768, -98.2119, 0.149882
1.82, -1, 38.8769, 2.31478, 2.39292, 39.8954, -85.2778, -65.5035, 3.27739, 36.6625, 3.52657, -22.9788, -98.192, 0.170492
1.824, -1, 38.9096, 2.32382, 2.41366, 39.9191, -85.2506, -65.495, 3.30736, 36.6703, 3.57547, -22.9808, -98.1721, 0.191099
1.828, -1, 38.9422, 2.33285, 2.4344, 39.9428, -85.2234, -65.4864, 3.33732, 36.6782, 3.62436, -22.9828, -98.1522, 0.211704
1.832, -1, 38.9749, 2.34189, 2.45514, 39.9666, -85.1962, -65.4779, 3.36728, 36.686, 3.67325, -22.9847, -98.1322, 0.232306
1.836, -1, 39.0076, 2.35092, 2.47587, 39.9903, -85.169, -65.4694, 3.39724, 36.6938, 3.72212, -22.9867, -98.1123, 0.252906
1.84, -1, 39.0403, 2.35996, 2.4966, 40.014, -85.1418, -65.4608, 3.4272, 36.7016, 3.771, -22.9887, -98.0924, 0.273503
1.844, -1, 39.0729, 2.36899, 2.51732, 40.0377, -85.1146, -65.4523, 3.45715, 36.7094, 3.81986, -22.9907, -98.0725, 0.294098
1.848, -1, 39.1056, 2.37802, 2.53805, 40.0615, -85.0874, -65.4438, 3.4871, 36.7172, 3.86872, -22.9927, -98.0526, 0.314691
1.852, -1, 39.1382, 2.38705, 2.55877, 40.0852, -85.0603, -65.4352, 3.51704, 36.725, 3.91758, -22.9947, -98.0327, 0.33528
1.856, -1, 39.1709, 2.39608, 2.57949, 40.1089, -85.0331, -65.4267, 3.54698, 36.7328, 3.96643, -22.9967, -98.0128, 0.355868
1.86, -1, 39.2035, 2.4051, 2.60021, 40.1326, -85.0059, -65.4182, 3.57692, 36.7406, 4.01527, -22.9987, -97.9929, 0.376453
1.864, -1, 39.2362, 2.41413, 2.62092, 40.1563, -84.9787, -65.4097, 3.60685, 36.7484, 4.06411, -23.0007, -97.973, 0.397035
1.868, -1, 39.2688, 2.42316, 2.64163, 40.18, -84.9516, -65.4011, 3.63678, 36.7562, 4.11294, -23.0027, -97.9531, 0.417615
1.872, -1, 39.3014, 2.43218, 2.66234, 40.2037, -84.9244, -65.3926, 3.66671, 36.764, 4.16176, -23.0047, -97.9332, 0.438193
1.876, -1, 39.334, 2.4412, 2.68305, 40.2274, -84.8972, -65.3841, 3.69663, 36.7718, 4.21058, -23.0067, -97.9133, 0.458768
1.88, -1, 39.3667, 2.45022, 2.70376, 40.2511, -84.8701, -65.3756, 3.72655, 36.7796, 4.2594, -23.0087, -97.8934, 0.479341
1.884, -1, 39.3993, 2.45925, 2.72446, 40.2748, -84.8429, -65.3671, 3.75646, 36.7874, 4.30821, -23.0107, -97.8735, 0.499911
1.888, -1, 39.4319, 2.46827, 2.74516, 40.2985, -84.8158, -65.3585, 3.78638, 36.7952, 4.35701, -23.0127, -97.8536, 0.520479
1.892, -1, 39.4645, 2.47728, 2.76586, 40.3222, -84.7886, -65.35, 3.81629, 36.803, 4.40581, -23.0147, -97.8337, 0.541045
1.896, -1, 39.4971, 2.4863, 2.78655, 40.3459, -84.7614, -65.3415, 3.84619, 36.8108, 4.4546, -23.0167, -97.8138, 0.561608
1.9, -1, 39.5297, 2.49532, 2.80724, 40.3695, -84.7343, -65.333, 3.87609, 36.8186, 4.50338, -23.0186, -97.7939, 0.582169
1.904, -1, 39.5623, 2.50433, 2.82793, 40.3932, -84.7072, -65.3245, 3.90599, 36.8264, 4.55216, -23.0206, -97.7741, 0.602727
1.908, -1, 39.5949, 2.51335, 2.84862, 40.4169, -84.68, -65.3159, 3.93588, 36.8342, 4.60094, -23.0226, -97.7542, 0.623283
1.912, -1, 39.6275, 2.52236, 2.86931, 40.4406, -84.6529, -65.3074, 3.96577, 36.842, 4.6497, -23.0246, -97.7343, 0.643836
1.916, -1, 39.6601, 2.53138, 2.88999, 40.4642, -84.6257, -65.2989, 3.99566, 36.8498, 4.69847, -23.0266, -97.7144, 0.664388
1.92, -1, 39.6927, 2.54039, 2.91067, 40.4879, -84.5986, -65.2904, 4.02555, 36.8576, 4.74723, -23.0286, -97.6946, 0.684936
1.924, -1, 39.7253, 2.5494, 2.93135, 40.5116, -84.5715, -65.2819, 4.05543, 36.8654, 4.79598, -23.0306, -97.6747, 0.705483
1.928, -1, 39.7579, 2.55841, 2.95203, 40.5352, -84.5444, -65.2734, 4.08531, 36.8732, 4.84472, -23.0326, -97.6548, 0.726027
1.932, -1, 39.7904, 2.56742, 2.9727, 40.5589, -84.5173, -65.2649, 4.11518, 36.881, 4.89347, -23.0346, -97.635, 0.746569
1.936, -1, 39.823, 2.57642, 2.99337, 40.5826, -84.4901, -65.2564, 4.14506, 36.8888, 4.9422, -23.0366, -97.6151, 0.767109
1.94, -1, 39.8556, 2.58543, 3.01404, 40.6062, -84.463, -65.2478, 4.17492, 36.8965, 4.99093, -23.0386, -97.5953, 0.787646
1.944, -1, 39.8882, 2.59443, 3.03471, 40.6299, -84.4359, -65.2393, 4.20479, 36.9043, 5.03966, -23.0405, -97.5754, 0.808181
1.948, -1, 39.9207, 2.60344, 3.05537, 40.6535, -84.4088, -65.2308, 4.23465, 36.9121, 5.08838, -23.0425, -97.5556, 0.828714
1.952, -1, 39.9533, 2.61244, 3.07603, 40.6772, -84.3817, -65.2223, 4.26451, 36.9199, 5.13709, -23.0445, -97.5357, 0.849244
1.956, -1, 39.9858, 2.62145, 3.0967, 40.7008, -84.3546, -65.2138, 4.29437, 36.9277, 5.1858, -23.0465, -97.5159, 0.869773
1.96, -1, 40.0184, 2.63045, 3.11735, 40.7244, -84.3275, -65.2053, 4.32422, 36.9355, 5.2345, -23.0485, -97.496, 0.890299
1.964, -1, 40.0509, 2.63945, 3.13801, 40.7481, -84.3004, -65.1968, 4.35407, 36.9432, 5.2832, -23.0505, -97.4762, 0.910823
1.968, -1, 40.0835, 2.64845, 3.15866, 40.7717, -84.2733, -65.1883, 4.38391, 36.951, 5.3319, -23.0525, -97.4563, 0.931345
1.972, -1, 40.116, 2.65745, 3.17931, 40.7954, -84.2462, -65.1798, 4.41376, 36.9588, 5.38058, -23.0545, -97.4365, 0.951865
1.976, -1, 40.1485, 2.66644, 3.19996, 40.819, -84.2191, -65.1713, 4.4436, 36.9666, 5.42927, -23.0565, -97.4166, 0.972383
1.98, -1, 40.1811, 2.67544, 3.22061, 40.8426, -84.192, -65.1628, 4.47343, 36.9744, 5.47795, -23.0584, -97.3968, 0.992899
1.984, -1, 40.2136, 2.68444, 3.24126, 40.8663, -84.1649, -65.1543, 4.50327, 36.9821, 5.52662, -23.0604, -97.377, 1.01341
1.988, -1, 40.2461, 2.69343, 3.2619, 40.8899, -84.1378, -65.1458, 4.5331, 36.9899, 5.57529, -23.0624, -97.3571, 1.03392
1.992, -1, 40.2787, 2.70243, 3.28254, 40.9135, -84.1108, -65.1373, 4.56292, 36.9977, 5.62395, -23.0644, -97.3373, 1.05443
1.996, -1, 40.3112, 2.71142, 3.30318, 40.9371, -84.0837, -65.1288, 4.59275, 37.0055, 5.67261, -23.0664, -97.3175, 1.07494
1.999, -1, 40.3437, 2.72041, 3.32382, 40.9607, -84.0566, -65.1203, 4.62257, 37.0132, 5.72126, -23.0684, -97.2977, 1.09545
2.004, -1, 40.3762, 2.7294, 3.34445, 40.9844, -84.0296, -65.1118, 4.65239, 37.021, 5.76991, -23.0704, -97.2778, 1.11595
2.008, -1, 40.4087, 2.73839, 3.36508, 41.008, -84.0025, -65.1033, 4.6822, 37.0288, 5.81856, -23.0723, -97.258, 1.13645
2.012, -1, 40.4412, 2.74738, 3.38572, 41.0316, -83.9754, -65.0949, 4.71201, 37.0366, 5.8672, -23.0743, -97.2382, 1.15695
2.015, -1, 40.4737, 2.75637, 3.40634, 41.0552, -83.9484, -65.0864, 4.74182, 37.0443, 5.91583, -23.0763, -97.2184, 1.17745
2.019, -1, 40.5062, 2.76536, 3.42697, 41.0788, -83.9213, -65.0779, 4.77163, 37.0521, 5.96446, -23.0783, -97.1985, 1.19794
2.024, -1, 40.5387, 2.77435, 3.44759, 41.1024, -83.8942, -65.0694, 4.80143, 37.0599, 6.01308, -23.0803, -97.1787, 1.21843
2.028, -1, 40.5712, 2.78333, 3.46822, 41.126, -83.8672, -65.0609, 4.83123, 37.0676, 6.0617, -23.0823, -97.1589, 1.23892
2.031, -1, 40.6037, 2.79232, 3.48884, 41.1496, -83.8401, -65.0524, 4.86103, 37.0754, 6.11032, -23.0843, -97.1391, 1.25941
2.036, -1, 40.6362, 2.8013, 3.50946, 41.1732, -83.8131, -65.0439, 4.89082, 37.0832, 6.15893, -23.0862, -97.1193, 1.2799
2.04, -1, 40.6687, 2.81029, 3.53007, 41.1968, -83.786, -65.0354, 4.92061, 37.091, 6.20753, -23.0882, -97.0995, 1.30038
2.044, -1, 40.7012, 2.81927, 3.55069, 41.2204, -83.759, -65.027, 4.9504, 37.0987, 6.25613, -23.0902, -97.0797, 1.32087
2.048, -1, 40.7337, 2.82825, 3.5713, 41.244, -83.732, -65.0185, 4.98019, 37.1065, 6.30473, -23.0922, -97.0599, 1.34135
2.051, -1, 40.7661, 2.83723, 3.59191, 41.2676, -83.7049, -65.01, 5.00997, 37.1142, 6.35332, -23.0942, -97.0401, 1.36183
2.055, -1, 40.7986, 2.84621, 3.61252, 41.2911, -83.6779, -65.0015, 5.03975, 37.122, 6.40191, -23.0962, -97.0203, 1.3823
2.06, -1, 40.8311, 2.85519, 3.63312, 41.3147, -83.6509, -64.993, 5.06953, 37.1298, 6.45049, -23.0982, -97.0005, 1.40278
2.064, -1, 40.8635, 2.86417, 3.65373, 41.3383, -83.6238, -64.9845, 5.0993, 37.1375, 6.49906, -23.1001, -96.9807, 1.42325
2.068, -1, 40.896, 2.87315, 3.67433, 41.3619, -83.5968, -64.9761, 5.12907, 37.1453, 6.54764, -23.1021, -96.9609, 1.44372
2.071, -1, 40.9285, 2.88212, 3.69493, 41.3855, -83.5698, -64.9676, 5.15884, 37.1531, 6.5962, -23.1041, -96.9411, 1.46419
2.076, -1, 40.9609, 2.8911, 3.71553, 41.409, -83.5427, -64.9591, 5.1886, 37.1608, 6.64477, -23.1061, -96.9213, 1.48466
2.08, -1, 40.9934, 2.90007, 3.73612, 41.4326, -83.5157, -64.9506, 5.21837, 37.1686, 6.69332, -23.1081, -96.9015, 1.50512
2.084, -1, 41.0258, 2.90905, 3.75672, 41.4562, -83.4887, -64.9421, 5.24813, 37.1763, 6.74188, -23.11, -96.8817, 1.52558
2.087, -1, 41.0583, 2.91802, 3.77731, 41.4797, -83.4617, -64.9337, 5.27788, 37.1841, 6.79043, -23.112, -96.862, 1.54604
2.092, -1, 41.0907, 2.92699, 3.7979, 41.5033, -83.4347, -64.9252, 5.30764, 37.1918, 6.83897, -23.114, -96.8422, 1.5665
2.096, -1, 41.1232, 2.93596, 3.81849, 41.5269, -83.4077, -64.9167, 5.33739, 37.1996, 6.88751, -23.116, -96.8224, 1.58696
2.1, -1, 41.1556, 2.94493, 3.83907, 41.5504, -83.3807, -64.9082, 5.36713, 37.2074, 6.93604, -23.118, -96.8026, 1.60742
2.104, -1, 41.188, 2.9539, 3.85966, 41.574, -83.3537, -64.8998, 5.39688, 37.2151, 6.98457, -23.12, -96.7828, 1.62787
2.107, -1, 41.2205, 2.96287, 3.88024, 41.5976, -83.3267, -64.8913, 5.42662, 37.2229, 7.0331, -23.1219, -96.7631, 1.64832
2.111, -1, 41.2529, 2.97184, 3.90082, 41.6211, -83.2997, -64.8828, 5.45636, 37.2306, 7.08162, -23.1239, -96.7433, 1.66877
2.116, -1, 41.2853, 2.98081, 3.9214, 41.6447, -83.2727, -64.8744, 5.4861, 37.2384, 7.13014, -23.1259, -96.7235, 1.68922
2.12, -1, 41.3177, 2.98977, 3.94198, 41.6682, -83.2457, -64.8659, 5.51583, 37.2461, 7.17865, -23.1279, -96.7038, 1.70966
2.124, -1, 41.3502, 2.99874, 3.96255, 41.6918, -83.2187, -64.8574, 5.54556, 37.2539, 7.22716, -23.1299, -96.684, 1.7301
2.127, -1, 41.3826, 3.0077, 3.98313, 41.7153, -83.1917, -64.849, 5.57529, 37.2616, 7.27566, -23.1318, -96.6642, 1.75055
2.132, -1, 41.415, 3.01667, 4.0037, 41.7388, -83.1647, -64.8405, 5.60502, 37.2694, 7.32416, -23.1338, -96.6445, 1.77099
2.136, -1, 41.4474, 3.02563, 4.02427, 41.7624, -83.1377, -64.832, 5.63474, 37.2771, 7.37265, -23.1358, -96.6247, 1.79142
2.14, -1, 41.4798, 3.03459, 4.04483, 41.7859, -83.1107, -64.8235, 5.66446, 37.2849, 7.42114, -23.1378, -96.6049, 1.81186
2.143, -1, 41.5122, 3.04355, 4.0654, 41.8095, -83.0838, -64.8151, 5.69418, 37.2926, 7.46963, -23.1398, -96.5852, 1.83229
2.148, -1, 41.5446, 3.05251, 4.08596, 41.833, -83.0568, -64.8066, 5.7239, 37.3004, 7.51811, -23.1417, -96.5654, 1.85273
2.152, -1, 41.577, 3.06147, 4.10652, 41.8565, -83.0298, -64.7982, 5.75361, 37.3081, 7.56658, -23.1437, -96.5457, 1.87316
2.156, -1, 41.6094, 3.07043, 4.12708, 41.8801, -83.0028, -64.7897, 5.78332, 37.3159, 7.61506, -23.1457, -96.5259, 1.89359
2.16, -1, 41.6418, 3.07939, 4.14764, 41.9036, -82.9759, -64.7812, 5.81302, 37.3236, 7.66352, -23.1477, -96.5062, 1.91401
2.163, -1, 41.6742, 3.08835, 4.1682, 41.9271, -82.9489, -64.7728, 5.84273, 37.3314, 7.71199, -23.1497, -96.4864, 1.93444
2.168, -1, 41.7066, 3.0973, 4.18875, 41.9506, -82.9219, -64.7643, 5.87243, 37.3391, 7.76045, -23.1516, -96.4667, 1.95486
2.172, -1, 41.739, 3.10626, 4.2093, 41.9742, -82.895, -64.7559, 5.90213, 37.3468, 7.8089, -23.1536, -96.4469, 1.97528
2.176, -1, 41.7713, 3.11521, 4.22985, 41.9977, -82.868, -64.7474, 5.93183, 37.3546, 7.85735, -23.1556, -96.4272, 1.9957
2.179, -1, 41.8037, 3.12417, 4.2504, 42.0212, -82.8411, -64.7389, 5.96152, 37.3623, 7.9058, -23.1576, -96.4074, 2.01612
2.184, -1, 41.8361, 3.13312, 4.27095, 42.0447, -82.8141, -64.7305, 5.99121, 37.3701, 7.95424, -23.1596, -96.3877, 2.03653
2.188, -1, 41.8685, 3.14207, 4.2915, 42.0682, -82.7872, -64.722, 6.0209, 37.3778, 8.00268, -23.1615, -96.368, 2.05695
2.192, -1, 41.9008, 3.15103, 4.31204, 42.0917, -82.7602, -64.7136, 6.05058, 37.3855, 8.05111, -23.1635, -96.3482, 2.07736
2.196, -1, 41.9332, 3.15998, 4.33258, 42.1152, -82.7333, -64.7051, 6.08027, 37.3933, 8.09954, -23.1655, -96.3285, 2.09777
2.199, -1, 41.9656, 3.16893, 4.35312, 42.1387, -82.7063, -64.6967, 6.10995, 37.401, 8.14796, -23.1675, -96.3087, 2.11818
2.204, -1, 41.9979, 3.17788, 4.37366, 42.1623, -82.6794, -64.6882, 6.13963, 37.4088, 8.19638, -23.1694, -96.289, 2.13859
2.208, -1, 42.0303, 3.18682, 4.39419, 42.1858, -82.6524, -64.6797, 6.1693, 37.4165, 8.2448, -23.1714, -96.2693, 2.15899
2.212, -1, 42.0627, 3.19577, 4.41473, 42.2093, -82.6255, -64.6713, 6.19897, 37.4242, 8.29321, -23.1734, -96.2496, 2.17939
2.216, -1, 42.095, 3.20472, 4.43526, 42.2328, -82.5985, -64.6628, 6.22864, 37.432, 8.34162, -23.1754, -96.2298, 2.1998
2.219, -1, 42.1274, 3.21366, 4.45579, 42.2563, -82.5716, -64.6544, 6.25831, 37.4397, 8.39002, -23.1773, -96.2101, 2.2202
2.224, -1, 42.1597, 3.22261, 4.47632, 42.2797, -82.5447, -64.6459, 6.28798, 37.4474, 8.43842, -23.1793, -96.1904, 2.24059
2.228, -1, 42.192, 3.23155, 4.49685, 42.3032, -82.5178, -64.6375, 6.31764, 37.4552, 8.48682, -23.1813, -96.1707, 2.26099
2.232, -1, 42.2244, 3.2405, 4.51737, 42.3267, -82.4908, -64.629, 6.3473, 37.4629, 8.53521, -23.1833, -96.1509, 2.28138
2.235, -1, 42.2567, 3.24944, 4.5379, 42.3502, -82.4639, -64.6206, 6.37696, 37.4706, 8.58359, -23.1852, -96.1312, 2.30178
2.24, -1, 42.2891, 3.25838, 4.55842, 42.3737, -82.437, -64.6122, 6.40661, 37.4784, 8.63198, -23.1872, -96.1115, 2.32217
2.244, -1, 42.3214, 3.26733, 4.57894, 42.3972, -82.4101, -64.6037, 6.43626, 37.4861, 8.68036, -23.1892, -96.0918, 2.34256
2.248, -1, 42.3537, 3.27627, 4.59946, 42.4207, -82.3831, -64.5953, 6.46591, 37.4938, 8.72873, -23.1912, -96.0721, 2.36294
2.252, -1, 42.3861, 3.28521, 4.61997, 42.4442, -82.3562, -64.5868, 6.49556, 37.5015, 8.7771, -23.1931, -96.0524, 2.38333
2.255, -1, 42.4184, 3.29415, 4.64049, 42.4676, -82.3293, -64.5784, 6.52521, 37.5093, 8.82547, -23.1951, -96.0327, 2.40371
2.259, -1, 42.4507, 3.30308, 4.661, 42.4911, -82.3024, -64.5699, 6.55485, 37.517, 8.87383, -23.1971, -96.013, 2.4241
2.264, -1, 42.483, 3.31202, 4.68151, 42.5146, -82.2755, -64.5615, 6.58449, 37.5247, 8.92219, -23.1991, -95.9932, 2.44448
2.268, -1, 42.5153, 3.32096, 4.70202, 42.5381, -82.2486, -64.553, 6.61413, 37.5325, 8.97054, -23.201, -95.9735, 2.46486
2.272, -1, 42.5477, 3.3299, 4.72253, 42.5615, -82.2217, -64.5446, 6.64376, 37.5402, 9.01889, -23.203, -95.9538, 2.48523
2.275, -1, 42.58, 3.33883, 4.74304, 42.585, -82.1948, -64.5362, 6.67339, 37.5479, 9.06724, -23.205, -95.9341, 2.50561
2.28, -1, 42.6123, 3.34777, 4.76354, 42.6085, -82.1679, -64.5277, 6.70302, 37.5556, 9.11558, -23.207, -95.9144, 2.52598
2.284, -1, 42.6446, 3.3567, 4.78405, 42.6319, -82.141, -64.5193, 6.73265, 37.5634, 9.16392, -23.2089, -95.8947, 2.54636
2.288, -1, 42.6769, 3.36563, 4.80455, 42.6554, -82.1141, -64.5108, 6.76228, 37.5711, 9.21225, -23.2109, -95.875, 2.56673
2.291, -1, 42.7092, 3.37457, 4.82505, 42.6789, -82.0872, -64.5024, 6.7919, 37.5788, 9.26058, -23.2129, -95.8553, 2.5871
2.296, -1, 42.7415, 3.3835, 4.84555, 42.7023, -82.0603, -64.494, 6.82152, 37.5865, 9.30891, -23.2149, -95.8357, 2.60746
2.3, -1, 42.7738, 3.39243, 4.86604, 42.7258, -82.0334, -64.4855, 6.85114, 37.5943, 9.35723, -23.2168, -95.816, 2.62783
2.304, -1, 42.8061, 3.40136, 4.88654, 42.7492, -82.0065, -64.4771, 6.88075, 37.602, 9.40555, -23.2188, -95.7963, 2.64819
2.308, -1, 42.8384, 3.41029, 4.90703, 42.7727, -81.9797, -64.4687, 6.91037, 37.6097, 9.45387, -23.2208, -95.7766, 2.66855
2.311, -1, 42.8707, 3.41922, 4.92752, 42.7961, -81.9528, -64.4602, 6.93998, 37.6174, 9.50218, -23.2228, -95.7569, 2.68892
2.316, -1, 42.9029, 3.42815, 4.94801, 42.8196, -81.9259, -64.4518, 6.96959, 37.6251, 9.55049, -23.2247, -95.7372, 2.70927
2.32, -1, 42.9352, 3.43707, 4.9685, 42.843, -81.899, -64.4433, 6.99919, 37.6329, 9.59879, -23.2267, -95.7175, 2.72963
2.324, -1, 42.9675, 3.446, 4.98899, 42.8665, -81.8721, -64.4349, 7.0288, 37.6406, 9.64709, -23.2287, -95.6978, 2.74999
2.328, -1, 42.9998, 3.45493, 5.00947, 42.8899, -81.8453, -64.4265, 7.0584, 37.6483, 9.69538, -23.2306, -95.6782, 2.77034
2.331, -1, 43.0321, 3.46385, 5.02995, 42.9134, -81.8184, -64.4181, 7.088, 37.656, 9.74368, -23.2326, -95.6585, 2.79069
2.336, -1, 43.0643, 3.47278, 5.05044, 42.9368, -81.7915, -64.4096, 7.11759, 37.6637, 9.79197, -23.2346, -95.6388, 2.81105
2.34, -1, 43.0966, 3.4817, 5.07092, 42.9602, -81.7647, -64.4012, 7.14719, 37.6714, 9.84025, -23.2366, -95.6191, 2.8314
2.344, -1, 43.1289, 3.49063, 5.09139, 42.9837, -81.7378, -64.3928, 7.17678, 37.6792, 9.88853, -23.2385, -95.5995, 2.85174
2.347, -1, 43.1611, 3.49955, 5.11187, 43.0071, -81.7109, -64.3843, 7.20637, 37.6869, 9.93681, -23.2405, -95.5798, 2.87209
2.352, -1, 43.1934, 3.50847, 5.13235, 43.0306, -81.6841, -64.3759, 7.23596, 37.6946, 9.98508, -23.2425, -95.5601, 2.89243
2.356, -1, 43.2257, 3.51739, 5.15282, 43.054, -81.6572, -64.3675, 7.26554, 37.7023, 10.0333, -23.2444, -95.5404, 2.91278
2.36, -1, 43.2579, 3.52631, 5.17329, 43.0774, -81.6303, -64.359, 7.29513, 37.71, 10.0816, -23.2464, -95.5208, 2.93312
2.364, -1, 43.2902, 3.53523, 5.19376, 43.1008, -81.6035, -64.3506, 7.32471, 37.7177, 10.1299, -23.2484, -95.5011, 2.95346
2.367, -1, 43.3224, 3.54415, 5.21423, 43.1243, -81.5766, -64.3422, 7.35429, 37.7254, 10.1781, -23.2504, -95.4814, 2.9738
2.372, -1, 43.3547, 3.55307, 5.2347, 43.1477, -81.5498, -64.3338, 7.38386, 37.7331, 10.2264, -23.2523, -95.4618, 2.99413
2.376, -1, 43.3869, 3.56199, 5.25517, 43.1711, -81.5229, -64.3253, 7.41344, 37.7408, 10.2746, -23.2543, -95.4421, 3.01447
2.38, -1, 43.4192, 3.57091, 5.27563, 43.1945, -81.4961, -64.3169, 7.44301, 37.7486, 10.3229, -23.2563, -95.4224, 3.0348
2.383, -1, 43.4514, 3.57982, 5.29609, 43.218, -81.4692, -64.3085, 7.47258, 37.7563, 10.3711, -23.2582, -95.4028, 3.05514
2.388, -1, 43.4837, 3.58874, 5.31656, 43.2414, -81.4424, -64.3001, 7.50214, 37.764, 10.4194, -23.2602, -95.3831, 3.07547
2.392, -1, 43.5159, 3.59765, 5.33702, 43.2648, -81.4156, -64.2917, 7.53171, 37.7717, 10.4676, -23.2622, -95.3635, 3.0958
2.396, -1, 43.5481, 3.60657, 5.35747, 43.2882, -81.3887, -64.2832, 7.56127, 37.7794, 10.5158, -23.2641, -95.3438, 3.11612
2.4, -1, 43.5804, 3.61548, 5.37793, 43.3116, -81.3619, -64.2748, 7.59083, 37.7871, 10.5641, -23.2661, -95.3242, 3.13645
2.403, -1, 43.6126, 3.6244, 5.39839, 43.335, -81.3351, -64.2664, 7.62039, 37.7948, 10.6123, -23.2681, -95.3045, 3.15677
2.408, -1, 43.6448, 3.63331, 5.41884, 43.3584, -81.3082, -64.258, 7.64995, 37.8025, 10.6605, -23.2701, -95.2849, 3.1771
2.412, -1, 43.6771, 3.64222, 5.43929, 43.3818, -81.2814, -64.2496, 7.6795, 37.8102, 10.7087, -23.272, -95.2652, 3.19742
2.416, -1, 43.7093, 3.65113, 5.45974, 43.4052, -81.2546, -64.2411, 7.70906, 37.8179, 10.757, -23.274, -95.2456, 3.21774
2.42, -1, 43.7415, 3.66004, 5.48019, 43.4286, -81.2277, -64.2327, 7.73861, 37.8256, 10.8052, -23.276, -95.2259, 3.23806
2.423, -1, 43.7737, 3.66895, 5.50064, 43.4521, -81.2009, -64.2243, 7.76815, 37.8333, 10.8534, -23.2779, -95.2063, 3.25838
2.428, -1, 43.8059, 3.67786, 5.52109, 43.4755, -81.1741, -64.2159, 7.7977, 37.841, 10.9016, -23.2799, -95.1866, 3.27869
2.432, -1, 43.8382, 3.68677, 5.54153, 43.4988, -81.1473, -64.2075, 7.82724, 37.8487, 10.9498, -23.2819, -95.167, 3.29901
2.436, -1, 43.8704, 3.69568, 5.56197, 43.5222, -81.1205, -64.1991, 7.85678, 37.8564, 10.998, -23.2838, -95.1473, 3.31932
2.439, -1, 43.9026, 3.70458, 5.58242, 43.5456, -81.0936, -64.1907, 7.88632, 37.8641, 11.0462, -23.2858, -95.1277, 3.33963
2.444, -1, 43.9348, 3.71349, 5.60286, 43.569, -81.0668, -64.1822, 7.91586, 37.8718, 11.0944, -23.2878, -95.1081, 3.35994
2.448, -1, 43.967, 3.7224, 5.6233, 43.5924, -81.04, -64.1738, 7.94539, 37.8795, 11.1425, -23.2897, -95.0884, 3.38025
2.452, -1, 43.9992, 3.7313, 5.64373, 43.6158, -81.0132, -64.1654, 7.97493, 37.8872, 11.1907, -23.2917, -95.0688, 3.40056
2.456, -1, 44.0314, 3.74021, 5.66417, 43.6392, -80.9864, -64.157, 8.00446, 37.8949, 11.2389, -23.2937, -95.0492, 3.42086
2.459, -1, 44.0636, 3.74911, 5.6846, 43.6626, -80.9596, -64.1486, 8.03399, 37.9026, 11.2871, -23.2956, -95.0295, 3.44117
2.464, -1, 44.0958, 3.75802, 5.70504, 43.686, -80.9328, -64.1402, 8.06351, 37.9103, 11.3353, -23.2976, -95.0099, 3.46147
2.468, -1, 44.128, 3.76692, 5.72547, 43.7094, -80.906, -64.1318, 8.09304, 37.918, 11.3834, -23.2996, -94.9903, 3.48177
2.472, -1, 44.1602, 3.77582, 5.7459, 43.7327, -80.8792, -64.1234, 8.12256, 37.9257, 11.4316, -23.3015, -94.9706, 3.50207
2.476, -1, 44.1924, 3.78472, 5.76633, 43.7561, -80.8524, -64.1149, 8.15208, 37.9334, 11.4798, -23.3035, -94.951, 3.52237
2.479, -1, 44.2246, 3.79362, 5.78676, 43.7795, -80.8256, -64.1065, 8.1816, 37.9411, 11.5279, -23.3055, -94.9314, 3.54267
2.484, -1, 44.2567, 3.80253, 5.80718, 43.8029, -80.7988, -64.0981, 8.21112, 37.9488, 11.5761, -23.3074, -94.9118, 3.56296
2.488, -1, 44.2889, 3.81143, 5.82761, 43.8263, -80.772, -64.0897, 8.24063, 37.9565, 11.6242, -23.3094, -94.8921, 3.58326
2.492, -1, 44.3211, 3.82032, 5.84803, 43.8496, -80.7452, -64.0813, 8.27014, 37.9642, 11.6724, -23.3114, -94.8725, 3.60355
2.495, -1, 44.3533, 3.82922, 5.86845, 43.873, -80.7184, -64.0729, 8.29965, 37.9719, 11.7205, -23.3133, -94.8529, 3.62384
2.5, -1, 44.3855, 3.83812, 5.88887, 43.8964, -80.6916, -64.0645, 8.32916, 37.9796, 11.7687, -23.3153, -94.8333, 3.64413
2.504, -1, 44.4176, 3.84702, 5.90929, 43.9197, -80.6648, -64.0561, 8.35867, 37.9873, 11.8168, -23.3173, -94.8137, 3.66442
2.508, -1, 44.4498, 3.85592, 5.92971, 43.9431, -80.638, -64.0477, 8.38817, 37.995, 11.865, -23.3192, -94.794, 3.68471
2.512, -1, 44.482, 3.86481, 5.95013, 43.9665, -80.6112, -64.0393, 8.41768, 38.0027, 11.9131, -23.3212, -94.7744, 3.70499
2.515, -1, 44.5141, 3.87371, 5.97054, 43.9898, -80.5845, -64.0309, 8.44718, 38.0104, 11.9612, -23.3232, -94.7548, 3.72528
2.52, -1, 44.5463, 3.8826, 5.99095, 44.0132, -80.5577, -64.0225, 8.47668, 38.018, 12.0093, -23.3251, -94.7352, 3.74556
2.524, -1, 44.5785, 3.8915, 6.01137, 44.0366, -80.5309, -64.0141, 8.50617, 38.0257, 12.0575, -23.3271, -94.7156, 3.76584
2.528, -1, 44.6106, 3.90039, 6.03178, 44.0599, -80.5041, -64.0057, 8.53567, 38.0334, 12.1056, -23.3291, -94.696, 3.78612
2.531, -1, 44.6428, 3.90929, 6.05219, 44.0833, -80.4774, -63.9973, 8.56516, 38.0411, 12.1537, -23.331, -94.6764, 3.8064
2.536, -1, 44.675, 3.91818, 6.0726, 44.1066, -80.4506, -63.9889, 8.59465, 38.0488, 12.2018, -23.333, -94.6568, 3.82668
2.54, -1, 44.7071, 3.92707, 6.093, 44.13, -80.4238, -63.9805, 8.62414, 38.0565, 12.2499, -23.335, -94.6372, 3.84696
2.544, -1, 44.7393, 3.93596, 6.11341, 44.1533, -80.397, -63.9721, 8.65363, 38.0642, 12.298, -23.3369, -94.6176, 3.86723
2.548, -1, 44.7714, 3.94485, 6.13381, 44.1767, -80.3703, -63.9637, 8.68311, 38.0719, 12.3461, -23.3389, -94.598, 3.88751
2.551, -1, 44.8036, 3.95374, 6.15422, 44.2001, -80.3435, -63.9553, 8.71259, 38.0796, 12.3942, -23.3408, -94.5783, 3.90778
2.556, -1, 44.8357, 3.96263, 6.17462, 44.2234, -80.3167, -63.9469, 8.74207, 38.0872, 12.4424, -23.3428, -94.5588, 3.92805
2.56, -1, 44.8679, 3.97152, 6.19502, 44.2467, -80.29, -63.9385, 8.77155, 38.0949, 12.4904, -23.3448, -94.5391, 3.94832
2.564, -1, 44.9, 3.98041, 6.21542, 44.2701, -80.2632, -63.9301, 8.80103, 38.1026, 12.5385, -23.3467, -94.5196, 3.96859
2.568, -1, 44.9321, 3.9893, 6.23582, 44.2934, -80.2365, -63.9217, 8.83051, 38.1103, 12.5866, -23.3487, -94.5, 3.98886
2.571, -1, 44.9643, 3.99819, 6.25621, 44.3168, -80.2097, -63.9133, 8.85998, 38.118, 12.6347, -23.3507, -94.4804, 4.00913
2.576, -1, 44.9964, 4.00708, 6.27661, 44.3401, -80.1829, -63.9049, 8.88945, 38.1257, 12.6828, -23.3526, -94.4608, 4.02939
2.58, -1, 45.0286, 4.01596, 6.297, 44.3635, -80.1562, -63.8965, 8.91892, 38.1333, 12.7309, -23.3546, -94.4412, 4.04966
2.584, -1, 45.0607, 4.02485, 6.31739, 44.3868, -80.1294, -63.8881, 8.94839, 38.141, 12.779, -23.3566, -94.4216, 4.06992
2.587, -1, 45.0928, 4.03373, 6.33779, 44.4101, -80.1027, -63.8797, 8.97786, 38.1487, 12.827, -23.3585, -94.402, 4.09018
2.592, -1, 45.1249, 4.04262, 6.35818, 44.4335, -80.0759, -63.8713, 9.00732, 38.1564, 12.8751, -23.3605, -94.3824, 4.11044
2.596, -1, 45.1571, 4.0515, 6.37856, 44.4568, -80.0492, -63.8629, 9.03679, 38.1641, 12.9232, -23.3624, -94.3628, 4.1307
2.6, -1, 45.1892, 4.06039, 6.39895, 44.4801, -80.0224, -63.8545, 9.06625, 38.1718, 12.9712, -23.3644, -94.3432, 4.15096
2.604, -1, 45.2213, 4.06927, 6.41934, 44.5035, -79.9957, -63.8461, 9.09571, 38.1794, 13.0193, -23.3664, -94.3236, 4.17121
2.607, -1, 45.2534, 4.07815, 6.43972, 44.5268, -79.969, -63.8378, 9.12516, 38.1871, 13.0674, -23.3683, -94.304, 4.19147
2.612, -1, 45.2856, 4.08703, 6.46011, 44.5501, -79.9422, -63.8294, 9.15462, 38.1948, 13.1154, -23.3703, -94.2845, 4.21172
2.616, -1, 45.3177, 4.09592, 6.48049, 44.5735, -79.9155, -63.821, 9.18407, 38.2025, 13.1635, -23.3723, -94.2649, 4.23197
2.62, -1, 45.3498, 4.1048, 6.50087, 44.5968, -79.8887, -63.8126, 9.21352, 38.2101, 13.2115, -23.3742, -94.2453, 4.25223
2.624, -1, 45.3819, 4.11368, 6.52125, 44.6201, -79.862, -63.8042, 9.24298, 38.2178, 13.2596, -23.3762, -94.2257, 4.27248
2.627, -1, 45.414, 4.12256, 6.54163, 44.6434, -79.8353, -63.7958, 9.27242, 38.2255, 13.3076, -23.3781, -94.2061, 4.29273
2.632, -1, 45.4461, 4.13144, 6.56201, 44.6668, -79.8085, -63.7874, 9.30187, 38.2332, 13.3557, -23.3801, -94.1866, 4.31297
2.636, -1, 45.4782, 4.14032, 6.58239, 44.6901, -79.7818, -63.779, 9.33132, 38.2409, 13.4037, -23.3821, -94.167, 4.33322
2.64, -1, 45.5103, 4.1492, 6.60276, 44.7134, -79.7551, -63.7706, 9.36076, 38.2485, 13.4517, -23.384, -94.1474, 4.35347
2.643, -1, 45.5424, 4.15807, 6.62314, 44.7367, -79.7283, -63.7623, 9.3902, 38.2562, 13.4998, -23.386, -94.1278, 4.37371
2.648, -1, 45.5745, 4.16695, 6.64351, 44.76, -79.7016, -63.7539, 9.41964, 38.2639, 13.5478, -23.3879, -94.1083, 4.39395
2.652, -1, 45.6066, 4.17583, 6.66388, 44.7833, -79.6749, -63.7455, 9.44908, 38.2716, 13.5958, -23.3899, -94.0887, 4.4142
2.656, -1, 45.6387, 4.1847, 6.68425, 44.8067, -79.6482, -63.7371, 9.47852, 38.2792, 13.6439, -23.3919, -94.0691, 4.43444
2.66, -1, 45.6708, 4.19358, 6.70462, 44.83, -79.6214, -63.7287, 9.50795, 38.2869, 13.6919, -23.3938, -94.0495, 4.45468
2.663, -1, 45.7029, 4.20246, 6.72499, 44.8533, -79.5947, -63.7203, 9.53738, 38.2946, 13.7399, -23.3958, -94.03, 4.47491
2.668, -1, 45.735, 4.21133, 6.74536, 44.8766, -79.568, -63.712, 9.56682, 38.3023, 13.7879, -23.3978, -94.0104, 4.49515
2.672, -1, 45.7671, 4.22021, 6.76572, 44.8999, -79.5413, -63.7036, 9.59625, 38.3099, 13.836, -23.3997, -93.9908, 4.51539
2.676, -1, 45.7992, 4.22908, 6.78609, 44.9232, -79.5146, -63.6952, 9.62568, 38.3176, 13.884, -23.4017, -93.9713, 4.53562
2.679, -1, 45.8313, 4.23795, 6.80645, 44.9465, -79.4879, -63.6868, 9.6551, 38.3253, 13.932, -23.4036, -93.9517, 4.55586
2.684, -1, 45.8634, 4.24683, 6.82682, 44.9698, -79.4611, -63.6784, 9.68453, 38.3329, 13.98, -23.4056, -93.9322, 4.57609
2.688, -1, 45.8955, 4.2557, 6.84718, 44.9931, -79.4344, -63.67, 9.71395, 38.3406, 14.028, -23.4076, -93.9126, 4.59632
2.692, -1, 45.9275, 4.26457, 6.86754, 45.0164, -79.4077, -63.6617, 9.74338, 38.3483, 14.076, -23.4095, -93.893, 4.61655
2.696, -1, 45.9596, 4.27344, 6.8879, 45.0397, -79.381, -63.6533, 9.7728, 38.356, 14.124, -23.4115, -93.8735, 4.63678
2.699, -1, 45.9917, 4.28231, 6.90826, 45.063, -79.3543, -63.6449, 9.80222, 38.3636, 14.172, -23.4134, -93.8539, 4.65701
2.704, -1, 46.0238, 4.29118, 6.92862, 45.0863, -79.3276, -63.6365, 9.83164, 38.3713, 14.22, -23.4154, -93.8344, 4.67724
2.708, -1, 46.0559, 4.30005, 6.94897, 45.1096, -79.3009, -63.6281, 9.86105, 38.379, 14.268, -23.4174, -93.8148, 4.69747
2.712, -1, 46.0879, 4.30892, 6.96933, 45.1329, -79.2742, -63.6198, 9.89047, 38.3866, 14.316, -23.4193, -93.7952, 4.71769
2.716, -1, 46.12, 4.31779, 6.98968, 45.1562, -79.2475, -63.6114, 9.91988, 38.3943, 14.364, -23.4213, -93.7757, 4.73792
2.719, -1, 46.1521, 4.32666, 7.01004, 45.1795, -79.2208, -63.603, 9.94929, 38.402, 14.4119, -23.4232, -93.7561, 4.75814
2.724, -1, 46.1842, 4.33553, 7.03039, 45.2028, -79.1941, -63.5946, 9.97871, 38.4096, 14.4599, -23.4252, -93.7366, 4.77836
2.728, -1, 46.2162, 4.3444, 7.05074, 45.2261, -79.1674, -63.5863, 10.0081, 38.4173, 14.5079, -23.4271, -93.717, 4.79859
2.732, -1, 46.2483, 4.35327, 7.07109, 45.2494, -79.1407, -63.5779, 10.0375, 38.425, 14.5559, -23.4291, -93.6975, 4.81881
2.735, -1, 46.2803, 4.36214, 7.09144, 45.2727, -79.114, -63.5695, 10.0669, 38.4326, 14.6039, -23.4311, -93.6779, 4.83903
2.74, -1, 46.3124, 4.371, 7.11179, 45.296, -79.0873, -63.5611, 10.0963, 38.4403, 14.6518, -23.433, -93.6584, 4.85925
2.744, -1, 46.3445, 4.37987, 7.13214, 45.3193, -79.0606, -63.5527, 10.1257, 38.448, 14.6998, -23.435, -93.6388, 4.87947
2.748, -1, 46.3765, 4.38874, 7.15249, 45.3425, -79.0339, -63.5444, 10.1551, 38.4556, 14.7478, -23.4369, -93.6193, 4.89968
2.752, -1, 46.4086, 4.3976, 7.17283, 45.3658, -79.0072, -63.536, 10.1845, 38.4633, 14.7958, -23.4389, -93.5997, 4.9199
2.755, -1, 46.4407, 4.40647, 7.19318, 45.3891, -78.9805, -63.5276, 10.2139, 38.471, 14.8437, -23.4409, -93.5802, 4.94011
2.76, -1, 46.4727, 4.41533, 7.21352, 45.4124, -78.9538, -63.5192, 10.2433, 38.4786, 14.8917, -23.4428, -93.5606, 4.96033
2.764, -1, 46.5048, 4.4242, 7.23387, 45.4357, -78.9271, -63.5109, 10.2727, 38.4863, 14.9397, -23.4448, -93.5411, 4.98054
2.768, -1, 46.5368, 4.43306, 7.25421, 45.459, -78.9005, -63.5025, 10.3021, 38.4939, 14.9876, -23.4467, -93.5215, 5.00076
2.772, -1, 46.5689, 4.44192, 7.27455, 45.4822, -78.8738, -63.4941, 10.3315, 38.5016, 15.0356, -23.4487, -93.502, 5.02097
2.775, -1, 46.6009, 4.45079, 7.29489, 45.5055, -78.8471, -63.4858, 10.3609, 38.5093, 15.0835, -23.4507, -93.4825, 5.04118
2.78, -1, 46.633, 4.45965, 7.31523, 45.5288, -78.8204, -63.4774, 10.3903, 38.5169, 15.1315, -23.4526, -93.4629, 5.06139
2.784, -1, 46.665, 4.46851, 7.33557, 45.5521, -78.7937, -63.469, 10.4197, 38.5246, 15.1794, -23.4546, -93.4434, 5.0816
2.788, -1, 46.6971, 4.47737, 7.35591, 45.5754, -78.767, -63.4606, 10.4491, 38.5323, 15.2274, -23.4565, -93.4238, 5.10181
2.791, -1, 46.7291, 4.48624, 7.37625, 45.5986, -78.7404, -63.4523, 10.4785, 38.5399, 15.2753, -23.4585, -93.4043, 5.12201
2.796, -1, 46.7612, 4.4951, 7.39658, 45.6219, -78.7137, -63.4439, 10.5079, 38.5476, 15.3233, -23.4604, -93.3848, 5.14222
2.8, -1, 46.7932, 4.50396, 7.41692, 45.6452, -78.687, -63.4355, 10.5373, 38.5552, 15.3712, -23.4624, -93.3652, 5.16243
2.804, -1, 46.8252, 4.51282, 7.43725, 45.6684, -78.6603, -63.4272, 10.5666, 38.5629, 15.4192, -23.4644, -93.3457, 5.18263
2.808, -1, 46.8573, 4.52168, 7.45759, 45.6917, -78.6336, -63.4188, 10.596, 38.5706, 15.4671, -23.4663, -93.3261, 5.20283
2.811, -1, 46.8893, 4.53054, 7.47792, 45.715, -78.607, -63.4104, 10.6254, 38.5782, 15.515, -23.4683, -93.3066, 5.22304
2.816, -1, 46.9214, 4.5394, 7.49825, 45.7383, -78.5803, -63.4021, 10.6548, 38.5859, 15.563, -23.4702, -93.2871, 5.24324
2.82, -1, 46.9534, 4.54826, 7.51858, 45.7615, -78.5536, -63.3937, 10.6842, 38.5935, 15.6109, -23.4722, -93.2675, 5.26344
2.824, -1, 46.9854, 4.55712, 7.53891, 45.7848, -78.527, -63.3853, 10.7135, 38.6012, 15.6588, -23.4741, -93.248, 5.28364
2.828, -1, 47.0175, 4.56598, 7.55924, 45.8081, -78.5003, -63.3769, 10.7429, 38.6088, 15.7068, -23.4761, -93.2285, 5.30384
2.831, -1, 47.0495, 4.57483, 7.57957, 45.8313, -78.4736, -63.3686, 10.7723, 38.6165, 15.7547, -23.4781, -93.2089, 5.32404
2.836, -1, 47.0815, 4.58369, 7.5999, 45.8546, -78.447, -63.3602, 10.8017, 38.6242, 15.8026, -23.48, -93.1894, 5.34424
2.84, -1, 47.1136, 4.59255, 7.62023, 45.8779, -78.4203, -63.3518, 10.831, 38.6318, 15.8505, -23.482, -93.1699, 5.36444
2.844, -1, 47.1456, 4.60141, 7.64055, 45.9011, -78.3936, -63.3435, 10.8604, 38.6395, 15.8985, -23.4839, -93.1504, 5.38463
2.847, -1, 47.1776, 4.61026, 7.66088, 45.9244, -78.367, -63.3351, 10.8898, 38.6471, 15.9464, -23.4859, -93.1308, 5.40483
2.852, -1, 47.2096, 4.61912, 7.6812, 45.9476, -78.3403, -63.3267, 10.9192, 38.6548, 15.9943, -23.4878, -93.1113, 5.42502
2.856, -1, 47.2417, 4.62798, 7.70153, 45.9709, -78.3136, -63.3184, 10.9485, 38.6624, 16.0422, -23.4898, -93.0918, 5.44522
2.86, -1, 47.2737, 4.63683, 7.72185, 45.9942, -78.287, -63.31, 10.9779, 38.6701, 16.0901, -23.4918, -93.0723, 5.46541
2.864, -1, 47.3057, 4.64569, 7.74217, 46.0174, -78.2603, -63.3016, 11.0073, 38.6778, 16.138, -23.4937, -93.0527, 5.4856
2.867, -1, 47.3377, 4.65454, 7.76249, 46.0407, -78.2337, -63.2933, 11.0366, 38.6854, 16.1859, -23.4957, -93.0332, 5.5058
2.872, -1, 47.3697, 4.6634, 7.78281, 46.0639, -78.207, -63.2849, 11.066, 38.6931, 16.2339, -23.4976, -93.0137, 5.52599
2.876, -1, 47.4018, 4.67225, 7.80313, 46.0872, -78.1803, -63.2766, 11.0953, 38.7007, 16.2818, -23.4996, -92.9942, 5.54618
2.88, -1, 47.4338, 4.6811, 7.82345, 46.1104, -78.1537, -63.2682, 11.1247, 38.7084, 16.3297, -23.5015, -92.9746, 5.56637
2.883, -1, 47.4658, 4.68996, 7.84377, 46.1337, -78.127, -63.2598, 11.1541, 38.716, 16.3776, -23.5035, -92.9551, 5.58656
2.888, -1, 47.4978, 4.69881, 7.86409, 46.157, -78.1004, -63.2515, 11.1834, 38.7237, 16.4255, -23.5054, -92.9356, 5.60674
2.892, -1, 47.5298, 4.70766, 7.88441, 46.1802, -78.0737, -63.2431, 11.2128, 38.7313, 16.4734, -23.5074, -92.9161, 5.62693
2.896, -1, 47.5618, 4.71652, 7.90472, 46.2035, -78.0471, -63.2347, 11.2421, 38.739, 16.5213, -23.5094, -92.8966, 5.64712
2.9, -1, 47.5938, 4.72537, 7.92504, 46.2267, -78.0204, -63.2264, 11.2715, 38.7467, 16.5692, -23.5113, -92.877, 5.6673
2.903, -1, 47.6259, 4.73422, 7.94535, 46.25, -77.9938, -63.218, 11.3009, 38.7543, 16.6171, -23.5133, -92.8575, 5.68749
2.908, -1, 47.6579, 4.74307, 7.96567, 46.2732, -77.9671, -63.2097, 11.3302, 38.762, 16.665, -23.5152, -92.838, 5.70767
2.912, -1, 47.6899, 4.75192, 7.98598, 46.2965, -77.9405, -63.2013, 11.3596, 38.7696, 16.7128, -23.5172, -92.8185, 5.72786
2.916, -1, 47.7219, 4.76078, 8.00629, 46.3197, -77.9138, -63.1929, 11.3889, 38.7773, 16.7607, -23.5191, -92.799, 5.74804
2.92, -1, 47.7539, 4.76963, 8.02661, 46.3429, -77.8872, -63.1846, 11.4183, 38.7849, 16.8086, -23.5211, -92.7795, 5.76822
2.923, -1, 47.7859, 4.77848, 8.04692, 46.3662, -77.8605, -63.1762, 11.4476, 38.7926, 16.8565, -23.523, -92.7599, 5.7884
2.928, -1, 47.8179, 4.78733, 8.06723, 46.3894, -77.8339, -63.1678, 11.477, 38.8002, 16.9044, -23.525, -92.7404, 5.80858
2.932, -1, 47.8499, 4.79618, 8.08754, 46.4127, -77.8072, -63.1595, 11.5063, 38.8079, 16.9523, -23.527, -92.7209, 5.82876
2.936, -1, 47.8819, 4.80503, 8.10785, 46.4359, -77.7806, -63.1511, 11.5357, 38.8155, 17.0002, -23.5289, -92.7014, 5.84894
2.939, -1, 47.9139, 4.81388, 8.12816, 46.4592, -77.754, -63.1428, 11.565, 38.8232, 17.048, -23.5309, -92.6819, 5.86912
2.944, -1, 47.9459, 4.82272, 8.14847, 46.4824, -77.7273, -63.1344, 11.5944, 38.8308, 17.0959, -23.5328, -92.6624, 5.8893
2.948, -1, 47.9779, 4.83157, 8.16877, 46.5056, -77.7007, -63.126, 11.6237, 38.8385, 17.1438, -23.5348, -92.6429, 5.90948
2.952, -1, 48.0099, 4.84042, 8.18908, 46.5289, -77.674, -63.1177, 11.653, 38.8461, 17.1917, -23.5367, -92.6234, 5.92965
2.956, -1, 48.0419, 4.84927, 8.20939, 46.5521, -77.6474, -63.1093, 11.6824, 38.8538, 17.2395, -23.5387, -92.6039, 5.94983
2.959, -1, 48.0739, 4.85812, 8.22969, 46.5754, -77.6208, -63.101, 11.7117, 38.8614, 17.2874, -23.5406, -92.5844, 5.97001
2.964, -1, 48.1059, 4.86696, 8.24999, 46.5986, -77.5941, -63.0926, 11.7411, 38.8691, 17.3353, -23.5426, -92.5648, 5.99018
2.968, -1, 48.1379, 4.87581, 8.2703, 46.6218, -77.5675, -63.0843, 11.7704, 38.8767, 17.3831, -23.5445, -92.5453, 6.01035
2.972, -1, 48.1699, 4.88466, 8.2906, 46.6451, -77.5408, -63.0759, 11.7997, 38.8844, 17.431, -23.5465, -92.5258, 6.03053
2.976, -1, 48.2018, 4.89351, 8.3109, 46.6683, -77.5142, -63.0675, 11.8291, 38.892, 17.4789, -23.5485, -92.5063, 6.0507
2.98, -1, 48.2338, 4.90235, 8.33121, 46.6915, -77.4876, -63.0592, 11.8584, 38.8997, 17.5267, -23.5504, -92.4868, 6.07087
2.984, -1, 48.2658, 4.9112, 8.35151, 46.7148, -77.4609, -63.0508, 11.8878, 38.9073, 17.5746, -23.5524, -92.4673, 6.09104
2.988, -1, 48.2978, 4.92004, 8.37181, 46.738, -77.4343, -63.0425, 11.9171, 38.9149, 17.6225, -23.5543, -92.4478, 6.11122
2.992, -1, 48.3298, 4.92889, 8.39211, 46.7612, -77.4077, -63.0341, 11.9464, 38.9226, 17.6703, -23.5563, -92.4283, 6.13139
2.995, -1, 48.3618, 4.93774, 8.41241, 46.7845, -77.3811, -63.0258, 11.9758, 38.9302, 17.7182, -23.5582, -92.4088, 6.15156
3, -1, 48.3938, 4.94658, 8.4327, 46.8077, -77.3544, -63.0174, 12.005, 38.9379, 17.766, -23.5602, -92.3893, 6.17172
3.004, -1, 48.4258, 4.95542, 8.453, 46.8309, -77.3278, -63.0091, 12.0338, 38.9453, 17.8137, -23.5621, -92.3698, 6.19189
3.008, -1, 48.4577, 4.96427, 8.4733, 46.8542, -77.3012, -63.0007, 12.0619, 38.9524, 17.8612, -23.5641, -92.3504, 6.21204
3.012, -1, 48.4897, 4.9731, 8.49359, 46.8774, -77.2745, -62.9923, 12.0888, 38.959, 17.908, -23.566, -92.331, 6.23213
3.015, -1, 48.5215, 4.98187, 8.51387, 46.9006, -77.2479, -62.984, 12.1143, 38.9648, 17.9541, -23.5679, -92.3117, 6.25212
3.02, -1, 48.553, 4.99048, 8.53407, 46.9238, -77.2214, -62.9757, 12.1383, 38.97, 17.9991, -23.5697, -92.2927, 6.27188
3.024, -1, 48.5837, 4.99881, 8.55412, 46.9469, -77.195, -62.9674, 12.1607, 38.9746, 18.0427, -23.5715, -92.2741, 6.29128
3.028, -1, 48.6135, 5.00672, 8.57386, 46.9697, -77.169, -62.9592, 12.1817, 38.9785, 18.0845, -23.5732, -92.2561, 6.31013
3.031, -1, 48.6418, 5.01408, 8.59309, 46.9921, -77.1436, -62.9511, 12.2017, 38.9822, 18.1244, -23.5748, -92.2388, 6.32821
3.036, -1, 48.6682, 5.0208, 8.61151, 47.0136, -77.1192, -62.9434, 12.2209, 38.9858, 18.1622, -23.5763, -92.2225, 6.34529
3.04, -1, 48.6924, 5.02682, 8.62878, 47.0339, -77.0962, -62.9361, 12.2396, 38.9896, 18.1975, -23.5777, -92.2073, 6.36117
3.044, -1, 48.7144, 5.03225, 8.64454, 47.0524, -77.0753, -62.9295, 12.2574, 38.9934, 18.2302, -23.5791, -92.1934, 6.37567
3.048, -1, 48.7342, 5.03722, 8.65849, 47.0687, -77.0568, -62.9237, 12.2742, 38.9973, 18.2599, -23.5803, -92.1809, 6.38865
3.051, -1, 48.7518, 5.04183, 8.67037, 47.0825, -77.0411, -62.9187, 12.2898, 39.0012, 18.2865, -23.5814, -92.1699, 6.40004
3.056, -1, 48.7671, 5.04612, 8.68008, 47.0936, -77.0284, -62.9147, 12.3043, 39.005, 18.3098, -23.5823, -92.1604, 6.4098
3.06, -1, 48.7804, 5.0501, 8.68764, 47.102, -77.0186, -62.9117, 12.3176, 39.0089, 18.3298, -23.5831, -92.1525, 6.41793
3.064, -1, 48.7916, 5.05375, 8.69322, 47.108, -77.0115, -62.9095, 12.3296, 39.0127, 18.3467, -23.5838, -92.1461, 6.4245
3.068, -1, 48.8007, 5.05695, 8.6971, 47.112, -77.0066, -62.9081, 12.3407, 39.0165, 18.3607, -23.5844, -92.141, 6.4296
3.071, -1, 48.8076, 5.05954, 8.69962, 47.1143, -77.0036, -62.9072, 12.3512, 39.0205, 18.3722, -23.5849, -92.1372, 6.43339
3.076, -1, 48.8125, 5.06147, 8.70113, 47.1156, -77.0019, -62.9067, 12.361, 39.0245, 18.3813, -23.5853, -92.1345, 6.43605
3.08, -1, 48.8157, 5.06279, 8.70196, 47.1163, -77.001, -62.9065, 12.3701, 39.0285, 18.3885, -23.5856, -92.1326, 6.4378
3.084, -1, 48.8176, 5.06361, 8.70236, 47.1165, -77.0005, -62.9063, 12.378, 39.0321, 18.3938, -23.5858, -92.1313, 6.43886
3.087, -1, 48.8185, 5.06403, 8.70253, 47.1166, -77.0004, -62.9063, 12.3844, 39.035, 18.3975, -23.586, -92.1306, 6.43945
3.092, 2, 48.8189, 5.0642, 8.70259, 47.1166, -77.0003, -62.9063, 12.3892, 39.0372, 18.3998, -23.5861, -92.1302, 6.43974
3.096, 2, 48.819, 5.06424, 8.7026, 47.1166, -77.0003, -62.9063, 12.3924, 39.0388, 18.4012, -23.5861, -92.1301, 6.43986
3.1, 2, 48.819, 5.06424, 8.7026, 47.1166, -77.0003, -62.9063, 12.3943, 39.0396, 18.4019, -23.5862, -92.13, 6.4399
3.104, 2, 48.819, 5.06424, 8.7026, 47.1166, -77.0003, -62.9063, 12.3952, 39.04, 18.4022, -23.5862, -92.13, 6.43991
3.107, 2, 48.819, 5.06424, 8.7026, 47.1166, -77.0003, -62.9063, 12.3954, 39.0401, 18.4023, -23.5862, -92.1299, 6.43991
3.112, 2, 48.819, 5.06424, 8.7026, 47.1166, -77.0003, -62.9063, 12.3954, 39.0401, 18.4023, -23.5862, -92.1299, 6.43991
3.116, 2, 48.819, 5.06424, 8.7026, 47.1166, -77.0003, -62.9063, 12.3954, 39.0401, 18.4023, -23.5862, -92.1299, 6.43991
3.12, 2, 48.819, 5.06424, 8.7026, 47.1166, -77.0003, -62.9063, 12.3954, 39.0401, 18.4023, -23.5862, -92.1299, 6.43991
3.124, 2, 48.819, 5.06424, 8.7026, 47.1166, -77.0003, -62.9063, 12.3954, 39.0401, 18.4023, -23.5862, -92.1299, 6.43991
3.128, 2, 48.819, 5.06424, 8.7026, 47.1166, -77.0003, -62.9063, 12.3954, 39.0401, 18.4023, -23.5862, -92.1299, 6.43991
3.132, 2, 48.819, 5.06424, 8.7026, 47.1166, -77.0003, -62.9063, 12.3954, 39.0401, 18.4023, -23.5862, -92.1299, 6.43991
3.136, 2, 48.819, 5.06424, 8.7026, 47.1166, -77.0003, -62.9063, 12.3954, 39.0401, 18.4023, -23.5862, -92.1299, 6.43991
3.14, 2, 48.819, 5.06424, 8.7026, 47.1166, -77.0003, -62.9063, 12.3954, 39.0401, 18.4023, -23.5862, -92.1299, 6.43991
3.143, 2, 48.819, 5.06424, 8.7026, 47.1166, -77.0003, -62.9063, 12.3954, 39.0401, 18.4023, -23.5862, -92.1299, 6.43991
3.148, 2, 48.819, 5.06424, 8.7026, 47.1166, -77.0003, -62.9063, 12.3954, 39.0401, 18.4023, -23.5862, -92.1299, 6.43991
3.152, 2, 48.819, 5.06424, 8.7026, 47.1166, -77.0003, -62.9063, 12.3954, 39.0401, 18.4023, -23.5862, -92.1299, 6.43991
3.156, 2, 48.819, 5.06424, 8.7026, 47.1166, -77.0003, -62.9063, 12.3954, 39.0401, 18.4023, -23.5862, -92.1299, 6.43991
3.16, 2, 48.819, 5.06424, 8.7026, 47.1166, -77.0003, -62.9063, 12.3954, 39.0401, 18.4023, -23.5862, -92.1299, 6.43991
3.163, 2, 48.819, 5.06424, 8.7026, 47.1166, -77.0003, -62.9063, 12.3954, 39.0401, 18.4023, -23.5862, -92.1299, 6.43991
3.168, 2, 48.819, 5.06424, 8.7026, 47.1166, -77.0003, -62.9063, 12.3954, 39.0401, 18.4023, -23.5862, -92.1299, 6.43991
3.172, 2, 48.819, 5.06424, 8.7026, 47.1166, -77.0003, -62.9063, 12.3954, 39.0401, 18.4023, -23.5862, -92.1299, 6.43991
3.176, 2, 48.819, 5.06424, 8.7026, 47.1166, -77.0003, -62.9063, 12.3954, 39.0401, 18.4023, -23.5862, -92.1299, 6.43991
3.179, 2, 48.819, 5.06424, 8.7026, 47.1166, -77.0003, -62.9063, 12.3954, 39.0401, 18.4023, -23.5862, -92.1299, 6.43991
