hehonglu123/Motion-Primitive-Planning/simulation/robotstudio_sim/scripts/fitting_output/threshold0.1/curve_exe_v500_z10.csv
timestamp, cmd_num, J1, J2, J3, J4, J5, J6
0, 1, -1.02572, 63.9806, 9.28144, 43.4289, -95.9993, 170.738
0.002, 1, -1.02572, 63.9806, 9.28144, 43.4289, -95.9993, 170.738
0.004, 1, -1.02572, 63.9806, 9.28144, 43.4289, -95.9993, 170.738
0.008, 1, -1.02572, 63.9806, 9.28144, 43.4289, -95.9993, 170.738
0.011, 1, -1.02572, 63.9806, 9.28144, 43.4289, -95.9993, 170.738
0.016, 1, -1.02572, 63.9806, 9.28144, 43.4289, -95.9993, 170.738
0.02, 1, -1.02572, 63.9806, 9.28144, 43.4289, -95.9993, 170.738
0.024, 1, -1.02572, 63.9806, 9.28144, 43.4289, -95.9993, 170.738
0.028, 1, -1.02572, 63.9806, 9.28144, 43.4289, -95.9993, 170.738
0.032, 1, -1.02571, 63.9806, 9.28144, 43.4289, -95.9993, 170.738
0.036, 1, -1.02565, 63.9806, 9.28144, 43.4289, -95.9993, 170.738
0.04, 1, -1.02542, 63.9805, 9.28144, 43.4289, -95.9993, 170.738
0.044, 1, -1.0249, 63.9804, 9.28146, 43.4289, -95.9993, 170.738
0.048, 1, -1.02393, 63.9801, 9.28149, 43.4289, -95.9993, 170.738
0.052, 1, -1.02241, 63.9796, 9.28152, 43.429, -95.9992, 170.738
0.056, 1, -1.02025, 63.9789, 9.28153, 43.4293, -95.999, 170.737
0.06, 1, -1.01742, 63.9778, 9.28149, 43.4298, -95.9986, 170.736
0.064, 1, -1.01388, 63.9764, 9.28134, 43.4306, -95.998, 170.734
0.068, 1, -1.00957, 63.9745, 9.28102, 43.4319, -95.9969, 170.731
0.072, 1, -1.00441, 63.9722, 9.28044, 43.4339, -95.9952, 170.726
0.076, 1, -0.99822, 63.9693, 9.27952, 43.4369, -95.9928, 170.719
0.08, 1, -0.990815, 63.9657, 9.27813, 43.441, -95.9893, 170.71
0.084, 1, -0.981989, 63.9615, 9.27614, 43.4467, -95.9846, 170.697
0.088, 1, -0.971582, 63.9564, 9.27339, 43.4542, -95.9784, 170.679
0.092, 1, -0.959485, 63.9505, 9.26972, 43.4639, -95.9703, 170.656
0.096, 1, -0.945615, 63.9438, 9.26494, 43.4763, -95.9601, 170.628
0.1, 1, -0.929866, 63.9361, 9.25887, 43.4916, -95.9473, 170.592
0.104, 1, -0.912108, 63.9275, 9.25134, 43.5103, -95.9318, 170.549
0.108, 1, -0.892207, 63.9178, 9.24219, 43.5327, -95.9131, 170.497
0.112, 1, -0.870079, 63.9072, 9.23127, 43.5592, -95.8911, 170.436
0.116, 1, -0.845702, 63.8957, 9.21843, 43.59, -95.8654, 170.364
0.12, 1, -0.819099, 63.8834, 9.20357, 43.6254, -95.8359, 170.283
0.124, 1, -0.790315, 63.8704, 9.18659, 43.6655, -95.8025, 170.19
0.128, 1, -0.759396, 63.8569, 9.16744, 43.7105, -95.765, 170.086
0.131, 1, -0.726383, 63.8429, 9.14611, 43.7603, -95.7235, 169.971
0.136, 1, -0.691279, 63.8283, 9.12264, 43.8148, -95.678, 169.845
0.139, 1, -0.654051, 63.8129, 9.09711, 43.874, -95.6286, 169.708
0.144, 1, -0.614662, 63.7967, 9.06964, 43.9376, -95.5756, 169.562
0.148, 1, -0.573132, 63.7796, 9.04036, 44.0052, -95.5192, 169.406
0.152, 1, -0.529552, 63.7616, 9.00944, 44.0766, -95.4597, 169.241
0.156, 1, -0.484058, 63.7426, 8.97705, 44.1513, -95.3973, 169.068
0.16, 1, -0.436768, 63.7228, 8.94337, 44.229, -95.3325, 168.889
0.164, 1, -0.387765, 63.7021, 8.9086, 44.3092, -95.2656, 168.704
0.168, 1, -0.337119, 63.6806, 8.87293, 44.3916, -95.1969, 168.514
0.172, 1, -0.284932, 63.6583, 8.83654, 44.4757, -95.1267, 168.32
0.176, 1, -0.231336, 63.6353, 8.79961, 44.5613, -95.0554, 168.122
0.18, 1, -0.176472, 63.6116, 8.76228, 44.6479, -94.9831, 167.922
0.184, 1, -0.120483, 63.5872, 8.72465, 44.7353, -94.9102, 167.72
0.188, 1, -0.0635226, 63.5623, 8.68681, 44.8234, -94.8368, 167.517
0.192, 1, -0.00574519, 63.537, 8.64884, 44.9119, -94.763, 167.312
0.196, 1, 0.0527194, 63.5114, 8.61077, 45.0007, -94.689, 167.107
0.2, 1, 0.11178, 63.4855, 8.57265, 45.0896, -94.6148, 166.902
0.204, 1, 0.171355, 63.4595, 8.53451, 45.1788, -94.5405, 166.696
0.208, 1, 0.23135, 63.4333, 8.49635, 45.2679, -94.4661, 166.49
0.212, 1, 0.291652, 63.4069, 8.45819, 45.3571, -94.3917, 166.284
0.216, 1, 0.352159, 63.3806, 8.42005, 45.4464, -94.3173, 166.078
0.22, 1, 0.412795, 63.3541, 8.38191, 45.5356, -94.243, 165.872
0.224, 1, 0.473508, 63.3277, 8.34379, 45.6248, -94.1686, 165.666
0.228, 1, 0.53426, 63.3013, 8.30569, 45.7139, -94.0943, 165.46
0.232, 1, 0.59503, 63.2748, 8.2676, 45.803, -94.02, 165.254
0.236, 1, 0.655799, 63.2484, 8.22954, 45.8921, -93.9457, 165.048
0.24, 1, 0.716557, 63.2219, 8.19149, 45.9811, -93.8715, 164.843
0.244, 1, 0.777296, 63.1955, 8.15347, 46.0701, -93.7973, 164.637
0.248, 1, 0.838011, 63.1691, 8.11547, 46.159, -93.7232, 164.432
0.252, 1, 0.898698, 63.1427, 8.07749, 46.2479, -93.6491, 164.226
0.256, 1, 0.959355, 63.1163, 8.03953, 46.3367, -93.575, 164.021
0.26, 1, 1.01998, 63.0899, 8.00159, 46.4255, -93.501, 163.816
0.264, 1, 1.08057, 63.0636, 7.96367, 46.5142, -93.427, 163.611
0.268, 1, 1.14113, 63.0372, 7.92578, 46.6029, -93.3531, 163.406
0.272, 1, 1.20165, 63.0109, 7.88791, 46.6915, -93.2792, 163.202
0.276, 1, 1.26214, 62.9846, 7.85006, 46.7801, -93.2054, 162.997
0.28, 1, 1.32259, 62.9583, 7.81224, 46.8686, -93.1316, 162.793
0.284, 1, 1.38301, 62.932, 7.77443, 46.957, -93.0578, 162.588
0.288, 1, 1.44339, 62.9057, 7.73665, 47.0454, -92.9841, 162.384
0.292, 1, 1.50374, 62.8795, 7.69889, 47.1338, -92.9105, 162.18
0.296, 1, 1.56405, 62.8532, 7.66116, 47.2221, -92.8368, 161.976
0.3, 1, 1.62432, 62.827, 7.62344, 47.3104, -92.7633, 161.772
0.304, 1, 1.68456, 62.8008, 7.58575, 47.3986, -92.6897, 161.568
0.308, 1, 1.74476, 62.7746, 7.54809, 47.4867, -92.6162, 161.365
0.312, 1, 1.80492, 62.7484, 7.51044, 47.5748, -92.5428, 161.161
0.316, 1, 1.86505, 62.7223, 7.47282, 47.6628, -92.4694, 160.958
0.32, 1, 1.92514, 62.6961, 7.43523, 47.7508, -92.396, 160.755
0.324, 1, 1.98519, 62.67, 7.39765, 47.8387, -92.3227, 160.551
0.328, 1, 2.0452, 62.6439, 7.3601, 47.9266, -92.2495, 160.348
0.332, 1, 2.10518, 62.6178, 7.32257, 48.0144, -92.1763, 160.146
0.336, 1, 2.16512, 62.5917, 7.28507, 48.1022, -92.1031, 159.943
0.34, 1, 2.22502, 62.5657, 7.24759, 48.1899, -92.03, 159.74
0.344, 1, 2.28488, 62.5396, 7.21013, 48.2775, -91.9569, 159.538
0.348, 1, 2.3447, 62.5136, 7.1727, 48.3651, -91.8839, 159.335
0.352, 1, 2.40449, 62.4876, 7.13529, 48.4526, -91.8109, 159.133
0.356, 1, 2.46424, 62.4616, 7.09791, 48.5401, -91.7379, 158.931
0.36, 1, 2.52395, 62.4356, 7.06055, 48.6276, -91.665, 158.729
0.364, 1, 2.58362, 62.4097, 7.02321, 48.7149, -91.5922, 158.527
0.368, 1, 2.64325, 62.3837, 6.9859, 48.8022, -91.5194, 158.326
0.372, 1, 2.70284, 62.3578, 6.94861, 48.8895, -91.4467, 158.124
0.376, 1, 2.7624, 62.3319, 6.91135, 48.9767, -91.374, 157.923
0.38, 1, 2.82191, 62.306, 6.87411, 49.0638, -91.3013, 157.721
0.384, 1, 2.88139, 62.2801, 6.83689, 49.1509, -91.2287, 157.52
0.388, 1, 2.94083, 62.2543, 6.7997, 49.2379, -91.1561, 157.319
0.392, 1, 3.00022, 62.2284, 6.76254, 49.3249, -91.0836, 157.118
0.396, 1, 3.05958, 62.2026, 6.72539, 49.4118, -91.0112, 156.918
0.4, 1, 3.1189, 62.1768, 6.68828, 49.4987, -90.9388, 156.717
0.404, 1, 3.17818, 62.151, 6.65119, 49.5855, -90.8664, 156.516
0.408, 1, 3.23742, 62.1252, 6.61412, 49.6722, -90.7941, 156.316
0.412, 1, 3.29661, 62.0995, 6.57708, 49.7589, -90.7218, 156.116
0.416, 1, 3.35577, 62.0737, 6.54007, 49.8455, -90.6496, 155.916
0.42, 1, 3.41489, 62.048, 6.50308, 49.9321, -90.5774, 155.716
0.424, 1, 3.47397, 62.0223, 6.46611, 50.0186, -90.5053, 155.516
0.428, 1, 3.533, 61.9966, 6.42917, 50.105, -90.4332, 155.316
0.432, 1, 3.592, 61.971, 6.39226, 50.1914, -90.3612, 155.117
0.436, 1, 3.65095, 61.9453, 6.35537, 50.2777, -90.2893, 154.917
0.44, 1, 3.70987, 61.9197, 6.31851, 50.364, -90.2173, 154.718
0.444, 1, 3.76874, 61.8941, 6.28167, 50.4502, -90.1455, 154.519
0.448, 1, 3.82757, 61.8685, 6.24486, 50.5363, -90.0736, 154.32
0.452, 1, 3.88636, 61.8429, 6.20807, 50.6224, -90.0019, 154.121
0.456, 1, 3.94511, 61.8174, 6.17131, 50.7084, -89.9302, 153.922
0.46, 1, 4.00382, 61.7918, 6.13458, 50.7944, -89.8585, 153.724
0.464, 1, 4.06249, 61.7663, 6.09787, 50.8803, -89.7869, 153.525
0.468, 1, 4.12111, 61.7408, 6.06119, 50.9661, -89.7153, 153.327
0.472, 1, 4.17969, 61.7153, 6.02454, 51.0519, -89.6438, 153.129
0.476, 1, 4.23823, 61.6898, 5.98791, 51.1376, -89.5723, 152.931
0.48, 1, 4.29673, 61.6644, 5.9513, 51.2232, -89.5009, 152.733
0.484, 1, 4.35519, 61.639, 5.91473, 51.3088, -89.4296, 152.535
0.488, 1, 4.4136, 61.6135, 5.87818, 51.3943, -89.3583, 152.338
0.492, 1, 4.47197, 61.5882, 5.84166, 51.4798, -89.287, 152.14
0.496, 1, 4.5303, 61.5628, 5.80516, 51.5652, -89.2158, 151.943
0.5, 1, 4.58859, 61.5374, 5.76869, 51.6505, -89.1446, 151.746
0.504, 1, 4.64683, 61.5121, 5.73225, 51.7358, -89.0735, 151.549
0.508, 1, 4.70503, 61.4868, 5.69583, 51.821, -89.0025, 151.352
0.512, 1, 4.76319, 61.4615, 5.65944, 51.9062, -88.9315, 151.155
0.516, 1, 4.82131, 61.4362, 5.62308, 51.9913, -88.8606, 150.959
0.52, 1, 4.87938, 61.4109, 5.58675, 52.0763, -88.7897, 150.762
0.524, 1, 4.93741, 61.3857, 5.55044, 52.1613, -88.7188, 150.566
0.528, 1, 4.99539, 61.3605, 5.51416, 52.2462, -88.648, 150.37
0.532, 1, 5.05334, 61.3352, 5.4779, 52.331, -88.5773, 150.174
0.536, 1, 5.11123, 61.3101, 5.44168, 52.4158, -88.5066, 149.978
0.54, 1, 5.16909, 61.2849, 5.40548, 52.5005, -88.436, 149.783
0.544, 1, 5.2269, 61.2597, 5.36931, 52.5851, -88.3654, 149.587
0.548, 1, 5.28467, 61.2346, 5.33316, 52.6697, -88.2949, 149.392
0.552, 1, 5.34239, 61.2095, 5.29705, 52.7542, -88.2245, 149.197
0.556, 1, 5.40007, 61.1844, 5.26096, 52.8387, -88.1541, 149.001
0.56, 1, 5.45771, 61.1593, 5.22489, 52.9231, -88.0837, 148.806
0.564, 1, 5.5153, 61.1343, 5.18886, 53.0074, -88.0134, 148.612
0.568, 1, 5.57285, 61.1092, 5.15285, 53.0916, -87.9431, 148.417
0.572, 1, 5.63035, 61.0842, 5.11687, 53.1758, -87.873, 148.223
0.576, 1, 5.68781, 61.0592, 5.08092, 53.26, -87.8028, 148.028
0.58, 1, 5.74522, 61.0342, 5.045, 53.344, -87.7327, 147.834
0.584, 1, 5.80259, 61.0093, 5.0091, 53.428, -87.6627, 147.64
0.588, 1, 5.85991, 60.9844, 4.97324, 53.5119, -87.5927, 147.446
0.592, 1, 5.91719, 60.9594, 4.9374, 53.5958, -87.5228, 147.252
0.596, 1, 5.97443, 60.9345, 4.90158, 53.6796, -87.4529, 147.059
0.6, 1, 6.03162, 60.9097, 4.8658, 53.7633, -87.3831, 146.865
0.604, 1, 6.08876, 60.8848, 4.83005, 53.847, -87.3134, 146.672
0.608, 1, 6.14586, 60.86, 4.79432, 53.9306, -87.2437, 146.479
0.612, 1, 6.20292, 60.8351, 4.75862, 54.0142, -87.174, 146.286
0.616, 1, 6.25993, 60.8103, 4.72295, 54.0976, -87.1044, 146.093
0.62, 1, 6.31689, 60.7856, 4.68731, 54.181, -87.0349, 145.901
0.624, 1, 6.37381, 60.7608, 4.6517, 54.2644, -86.9654, 145.708
0.628, 1, 6.43068, 60.736, 4.61611, 54.3476, -86.896, 145.516
0.632, 1, 6.48751, 60.7113, 4.58055, 54.4308, -86.8266, 145.323
0.636, 1, 6.54429, 60.6866, 4.54503, 54.514, -86.7573, 145.131
0.64, 1, 6.60103, 60.6619, 4.50953, 54.597, -86.688, 144.94
0.644, 1, 6.65772, 60.6373, 4.47406, 54.68, -86.6188, 144.748
0.648, 1, 6.71436, 60.6126, 4.43862, 54.763, -86.5497, 144.556
0.652, 1, 6.77096, 60.588, 4.40321, 54.8458, -86.4806, 144.365
0.656, 1, 6.82751, 60.5634, 4.36782, 54.9286, -86.4116, 144.174
0.66, 1, 6.88402, 60.5388, 4.33247, 55.0114, -86.3426, 143.982
0.664, 1, 6.94048, 60.5143, 4.29714, 55.094, -86.2737, 143.791
0.668, 1, 6.99689, 60.4897, 4.26184, 55.1766, -86.2048, 143.601
0.672, 1, 7.05326, 60.4652, 4.22658, 55.2592, -86.136, 143.41
0.676, 1, 7.10958, 60.4407, 4.19134, 55.3416, -86.0672, 143.22
0.68, 1, 7.16585, 60.4162, 4.15613, 55.424, -85.9986, 143.029
0.684, 1, 7.22208, 60.3918, 4.12095, 55.5063, -85.9299, 142.839
0.688, 1, 7.27826, 60.3673, 4.0858, 55.5886, -85.8613, 142.649
0.692, 1, 7.33439, 60.3429, 4.05068, 55.6708, -85.7928, 142.459
0.696, 1, 7.39048, 60.3185, 4.01558, 55.7529, -85.7243, 142.269
0.7, 1, 7.44652, 60.2941, 3.98052, 55.8349, -85.6559, 142.08
0.704, 1, 7.50251, 60.2698, 3.94549, 55.9169, -85.5876, 141.891
0.708, 1, 7.55846, 60.2454, 3.91048, 55.9988, -85.5193, 141.701
0.712, 1, 7.61436, 60.2211, 3.87551, 56.0807, -85.4511, 141.512
0.716, 1, 7.67021, 60.1968, 3.84056, 56.1624, -85.3829, 141.323
0.72, 1, 7.72602, 60.1725, 3.80565, 56.2441, -85.3148, 141.135
0.724, 1, 7.78177, 60.1483, 3.77076, 56.3258, -85.2467, 140.946
0.728, 1, 7.83748, 60.1241, 3.73591, 56.4073, -85.1787, 140.758
0.732, 1, 7.89315, 60.0998, 3.70108, 56.4888, -85.1108, 140.569
0.736, 1, 7.94876, 60.0756, 3.66628, 56.5703, -85.0429, 140.381
0.74, 1, 8.00433, 60.0515, 3.63152, 56.6516, -84.975, 140.193
0.744, 1, 8.05985, 60.0273, 3.59678, 56.7329, -84.9073, 140.006
0.748, 1, 8.11532, 60.0032, 3.56207, 56.8141, -84.8396, 139.818
0.752, 1, 8.17075, 59.9791, 3.52739, 56.8953, -84.7719, 139.631
0.756, 1, 8.22613, 59.955, 3.49274, 56.9763, -84.7043, 139.443
0.76, 1, 8.28146, 59.9309, 3.45813, 57.0573, -84.6368, 139.256
0.764, 1, 8.33674, 59.9069, 3.42354, 57.1383, -84.5693, 139.069
0.768, 1, 8.39197, 59.8828, 3.38898, 57.2192, -84.5019, 138.882
0.772, 1, 8.44716, 59.8588, 3.35445, 57.3, -84.4345, 138.696
0.776, 1, 8.5023, 59.8348, 3.31995, 57.3807, -84.3672, 138.509
0.78, 1, 8.55739, 59.8109, 3.28549, 57.4613, -84.2999, 138.323
0.784, 1, 8.61243, 59.7869, 3.25105, 57.5419, -84.2327, 138.137
0.788, 1, 8.66743, 59.763, 3.21664, 57.6224, -84.1656, 137.951
0.792, 1, 8.72238, 59.7391, 3.18226, 57.7029, -84.0986, 137.765
0.796, 1, 8.77728, 59.7152, 3.14791, 57.7833, -84.0315, 137.579
0.8, 1, 8.83213, 59.6914, 3.1136, 57.8636, -83.9646, 137.394
0.804, 1, 8.88693, 59.6675, 3.07931, 57.9438, -83.8977, 137.208
0.808, 1, 8.94169, 59.6437, 3.04505, 58.024, -83.8309, 137.023
0.812, 1, 8.99639, 59.6199, 3.01083, 58.104, -83.7641, 136.838
0.816, 1, 9.05105, 59.5961, 2.97663, 58.1841, -83.6974, 136.653
0.82, 1, 9.10566, 59.5724, 2.94246, 58.264, -83.6307, 136.469
0.824, 1, 9.16022, 59.5486, 2.90833, 58.3439, -83.5641, 136.284
0.828, 1, 9.21474, 59.5249, 2.87422, 58.4237, -83.4976, 136.1
0.832, 1, 9.2692, 59.5012, 2.84014, 58.5034, -83.4311, 135.916
0.836, 1, 9.32362, 59.4776, 2.8061, 58.5831, -83.3647, 135.732
0.84, 1, 9.37799, 59.4539, 2.77208, 58.6627, -83.2983, 135.548
0.844, 1, 9.43231, 59.4303, 2.7381, 58.7422, -83.232, 135.364
0.848, 1, 9.48658, 59.4067, 2.70414, 58.8217, -83.1657, 135.18
0.852, 1, 9.5408, 59.3831, 2.67022, 58.9011, -83.0996, 134.997
0.856, 1, 9.59497, 59.3595, 2.63632, 58.9804, -83.0334, 134.814
0.86, 1, 9.6491, 59.336, 2.60246, 59.0596, -82.9674, 134.631
0.864, 1, 9.70317, 59.3124, 2.56863, 59.1388, -82.9014, 134.448
0.868, 1, 9.7572, 59.2889, 2.53483, 59.2179, -82.8354, 134.265
0.872, 1, 9.81118, 59.2655, 2.50105, 59.2969, -82.7695, 134.083
0.876, 1, 9.86511, 59.242, 2.46731, 59.3759, -82.7037, 133.9
0.88, 1, 9.919, 59.2186, 2.4336, 59.4548, -82.6379, 133.718
0.884, 1, 9.97283, 59.1951, 2.39992, 59.5336, -82.5722, 133.536
0.888, 1, 10.0266, 59.1717, 2.36627, 59.6123, -82.5066, 133.354
0.892, 1, 10.0804, 59.1484, 2.33265, 59.691, -82.441, 133.172
0.896, 1, 10.134, 59.125, 2.29906, 59.7696, -82.3754, 132.991
0.9, 1, 10.1877, 59.1017, 2.2655, 59.8481, -82.31, 132.809
0.904, 1, 10.2413, 59.0784, 2.23197, 59.9266, -82.2446, 132.628
0.908, 1, 10.2948, 59.0551, 2.19847, 60.005, -82.1792, 132.447
0.912, 1, 10.3483, 59.0318, 2.16501, 60.0833, -82.1139, 132.266
0.916, 1, 10.4018, 59.0086, 2.13157, 60.1615, -82.0487, 132.085
0.92, 1, 10.4551, 58.9853, 2.09816, 60.2397, -81.9835, 131.905
0.924, 1, 10.5085, 58.9621, 2.06479, 60.3178, -81.9184, 131.724
0.928, 1, 10.5618, 58.9389, 2.03144, 60.3958, -81.8533, 131.544
0.932, 1, 10.615, 58.9158, 1.99813, 60.4738, -81.7883, 131.364
0.936, 1, 10.6682, 58.8926, 1.96485, 60.5517, -81.7234, 131.184
0.94, 1, 10.7214, 58.8695, 1.93159, 60.6295, -81.6585, 131.004
0.944, 1, 10.7745, 58.8464, 1.89837, 60.7072, -81.5937, 130.825
0.948, 1, 10.8275, 58.8233, 1.86518, 60.7849, -81.5289, 130.645
0.952, 1, 10.8806, 58.8003, 1.83202, 60.8625, -81.4642, 130.466
0.956, 1, 10.9335, 58.7772, 1.79888, 60.94, -81.3996, 130.287
0.96, 1, 10.9864, 58.7542, 1.76578, 61.0175, -81.335, 130.108
0.964, 1, 11.0393, 58.7312, 1.73272, 61.0949, -81.2705, 129.929
0.968, 1, 11.0921, 58.7083, 1.69968, 61.1722, -81.2061, 129.751
0.972, 1, 11.1448, 58.6853, 1.66667, 61.2494, -81.1416, 129.572
0.976, 1, 11.1976, 58.6624, 1.63369, 61.3266, -81.0773, 129.394
0.98, 1, 11.2502, 58.6395, 1.60074, 61.4037, -81.013, 129.216
0.984, 1, 11.3028, 58.6166, 1.56783, 61.4807, -80.9488, 129.038
0.988, 1, 11.3554, 58.5937, 1.53494, 61.5577, -80.8847, 128.86
0.992, 1, 11.4079, 58.5709, 1.50209, 61.6346, -80.8205, 128.683
0.996, 1, 11.4604, 58.548, 1.46926, 61.7114, -80.7565, 128.505
1, 1, 11.5128, 58.5253, 1.43647, 61.7881, -80.6925, 128.328
1.004, 1, 11.5652, 58.5025, 1.4037, 61.8648, -80.6286, 128.151
1.008, 1, 11.6175, 58.4797, 1.37097, 61.9414, -80.5648, 127.974
1.012, 1, 11.6698, 58.457, 1.33827, 62.0179, -80.5009, 127.797
1.016, 1, 11.722, 58.4343, 1.3056, 62.0943, -80.4372, 127.62
1.02, 1, 11.7742, 58.4116, 1.27296, 62.1707, -80.3735, 127.444
1.024, 1, 11.8263, 58.3889, 1.24035, 62.247, -80.3099, 127.268
1.027, 1, 11.8784, 58.3662, 1.20777, 62.3233, -80.2463, 127.092
1.032, 1, 11.9304, 58.3436, 1.17522, 62.3994, -80.1828, 126.916
1.036, 1, 11.9824, 58.321, 1.1427, 62.4755, -80.1194, 126.74
1.04, 1, 12.0343, 58.2984, 1.11021, 62.5516, -80.056, 126.564
1.044, 1, 12.0862, 58.2758, 1.07775, 62.6275, -79.9927, 126.389
1.048, 1, 12.138, 58.2533, 1.04533, 62.7034, -79.9294, 126.214
1.052, 1, 12.1898, 58.2308, 1.01293, 62.7792, -79.8662, 126.038
1.055, 1, 12.2415, 58.2083, 0.980566, 62.8549, -79.8031, 125.864
1.06, 1, 12.2932, 58.1858, 0.948231, 62.9306, -79.74, 125.689
1.064, 1, 12.3448, 58.1633, 0.915927, 63.0062, -79.677, 125.514
1.068, 1, 12.3964, 58.1409, 0.883653, 63.0817, -79.614, 125.34
1.072, 1, 12.448, 58.1185, 0.85141, 63.1572, -79.5511, 125.165
1.076, 1, 12.4995, 58.0961, 0.819197, 63.2325, -79.4882, 124.991
1.08, 1, 12.5509, 58.0737, 0.787015, 63.3078, -79.4255, 124.817
1.084, 1, 12.6023, 58.0513, 0.754863, 63.3831, -79.3627, 124.643
1.088, 1, 12.6536, 58.029, 0.722742, 63.4582, -79.3001, 124.47
1.091, 1, 12.7049, 58.0067, 0.690651, 63.5333, -79.2374, 124.296
1.096, 1, 12.7562, 57.9844, 0.658591, 63.6084, -79.1749, 124.123
1.1, 1, 12.8074, 57.9621, 0.626561, 63.6833, -79.1124, 123.95
1.104, 1, 12.8585, 57.9399, 0.594561, 63.7582, -79.05, 123.777
1.108, 1, 12.9096, 57.9176, 0.562592, 63.833, -78.9876, 123.604
1.112, 1, 12.9607, 57.8954, 0.530653, 63.9077, -78.9253, 123.431
1.116, 1, 13.0117, 57.8732, 0.498745, 63.9824, -78.863, 123.259
1.119, 1, 13.0626, 57.8511, 0.466867, 64.057, -78.8008, 123.087
1.124, 1, 13.1136, 57.8289, 0.435019, 64.1315, -78.7387, 122.914
1.128, 1, 13.1644, 57.8068, 0.403201, 64.206, -78.6766, 122.743
1.132, 1, 13.2152, 57.7847, 0.371414, 64.2804, -78.6146, 122.571
1.136, 1, 13.266, 57.7626, 0.339657, 64.3547, -78.5527, 122.399
1.14, 1, 13.3167, 57.7406, 0.30793, 64.4289, -78.4908, 122.228
1.144, 1, 13.3674, 57.7185, 0.276233, 64.5031, -78.4289, 122.056
1.147, 1, 13.418, 57.6965, 0.244566, 64.5772, -78.3671, 121.885
1.152, 1, 13.4686, 57.6745, 0.21293, 64.6512, -78.3054, 121.714
1.156, 1, 13.5191, 57.6525, 0.181323, 64.7252, -78.2438, 121.543
1.16, 1, 13.5696, 57.6306, 0.149747, 64.7991, -78.1822, 121.372
1.164, 1, 13.62, 57.6086, 0.118201, 64.8729, -78.1206, 121.202
1.168, 1, 13.6704, 57.5867, 0.0866844, 64.9467, -78.0591, 121.032
1.172, 1, 13.7207, 57.5648, 0.0551982, 65.0203, -77.9977, 120.861
1.175, 1, 13.771, 57.543, 0.023742, 65.0939, -77.9363, 120.691
1.18, 1, 13.8212, 57.5211, -0.00768431, 65.1675, -77.875, 120.521
1.184, 1, 13.8714, 57.4993, -0.0390806, 65.241, -77.8137, 120.352
1.188, 1, 13.9215, 57.4775, -0.0704471, 65.3144, -77.7525, 120.182
1.192, 1, 13.9716, 57.4557, -0.101784, 65.3877, -77.6914, 120.013
1.196, 1, 14.0217, 57.4339, -0.13309, 65.4609, -77.6303, 119.844
1.2, 1, 14.0717, 57.4122, -0.164367, 65.5341, -77.5693, 119.674
1.204, 1, 14.1216, 57.3904, -0.195614, 65.6072, -77.5084, 119.506
1.208, 1, 14.1715, 57.3687, -0.226831, 65.6803, -77.4474, 119.337
1.212, 1, 14.2214, 57.347, -0.258019, 65.7533, -77.3866, 119.168
1.216, 1, 14.2712, 57.3254, -0.289176, 65.8262, -77.3258, 119
1.22, 1, 14.3209, 57.3037, -0.320304, 65.899, -77.2651, 118.832
1.224, 1, 14.3706, 57.2821, -0.351403, 65.9718, -77.2044, 118.663
1.228, 1, 14.4203, 57.2605, -0.382471, 66.0445, -77.1438, 118.495
1.232, 1, 14.4699, 57.2389, -0.41351, 66.1171, -77.0832, 118.328
1.236, 1, 14.5195, 57.2174, -0.444519, 66.1897, -77.0227, 118.16
1.24, 1, 14.569, 57.1958, -0.475499, 66.2622, -76.9623, 117.993
1.244, 1, 14.6185, 57.1743, -0.506449, 66.3346, -76.9019, 117.825
1.248, 1, 14.6679, 57.1528, -0.53737, 66.407, -76.8416, 117.658
1.252, 1, 14.7173, 57.1313, -0.568261, 66.4793, -76.7813, 117.491
1.256, 1, 14.7666, 57.1099, -0.599123, 66.5515, -76.7211, 117.324
1.26, 1, 14.8159, 57.0884, -0.629955, 66.6236, -76.6609, 117.158
1.264, 1, 14.8652, 57.067, -0.660758, 66.6957, -76.6009, 116.991
1.267, 1, 14.9144, 57.0456, -0.691531, 66.7677, -76.5408, 116.825
1.272, 1, 14.9635, 57.0242, -0.722275, 66.8397, -76.4808, 116.659
1.276, 1, 15.0126, 57.0029, -0.75299, 66.9115, -76.4209, 116.493
1.28, 1, 15.0616, 56.9815, -0.783676, 66.9833, -76.361, 116.327
1.284, 1, 15.1107, 56.9602, -0.814332, 67.0551, -76.3012, 116.161
1.288, 1, 15.1596, 56.9389, -0.844958, 67.1267, -76.2415, 115.995
1.292, 1, 15.2085, 56.9177, -0.875556, 67.1983, -76.1818, 115.83
1.295, 1, 15.2574, 56.8964, -0.906124, 67.2699, -76.1221, 115.665
1.3, 1, 15.3062, 56.8752, -0.936664, 67.3413, -76.0626, 115.5
1.304, 1, 15.355, 56.8539, -0.967174, 67.4127, -76.003, 115.335
1.308, 1, 15.4037, 56.8327, -0.997655, 67.4841, -75.9436, 115.17
1.312, 1, 15.4524, 56.8116, -1.02811, 67.5553, -75.8842, 115.005
1.316, 1, 15.501, 56.7904, -1.05853, 67.6265, -75.8248, 114.841
1.32, 1, 15.5496, 56.7693, -1.08892, 67.6976, -75.7655, 114.677
1.324, 1, 15.5981, 56.7482, -1.11929, 67.7687, -75.7063, 114.513
1.328, 1, 15.6466, 56.7271, -1.14963, 67.8397, -75.6471, 114.349
1.332, 1, 15.6951, 56.706, -1.17993, 67.9106, -75.588, 114.185
1.336, 1, 15.7435, 56.685, -1.21021, 67.9815, -75.5289, 114.021
1.34, 1, 15.7918, 56.6639, -1.24046, 68.0522, -75.4699, 113.858
1.344, 1, 15.8401, 56.6429, -1.27068, 68.1229, -75.4109, 113.694
1.348, 1, 15.8884, 56.6219, -1.30087, 68.1936, -75.352, 113.531
1.352, 1, 15.9366, 56.6009, -1.33104, 68.2642, -75.2932, 113.368
1.356, 1, 15.9848, 56.58, -1.36117, 68.3347, -75.2344, 113.205
1.36, 1, 16.0329, 56.5591, -1.39128, 68.4051, -75.1756, 113.042
1.364, 1, 16.081, 56.5381, -1.42135, 68.4755, -75.1169, 112.88
1.368, 1, 16.129, 56.5173, -1.4514, 68.5458, -75.0583, 112.717
1.372, 1, 16.177, 56.4964, -1.48142, 68.6161, -74.9998, 112.555
1.376, 1, 16.225, 56.4755, -1.51141, 68.6863, -74.9412, 112.393
1.38, 1, 16.2729, 56.4547, -1.54137, 68.7564, -74.8828, 112.231
1.384, 1, 16.3207, 56.4339, -1.5713, 68.8264, -74.8244, 112.069
1.388, 1, 16.3685, 56.4131, -1.60121, 68.8964, -74.766, 111.907
1.392, 1, 16.4163, 56.3923, -1.63108, 68.9663, -74.7078, 111.746
1.396, 1, 16.464, 56.3716, -1.66093, 69.0362, -74.6495, 111.585
1.4, 1, 16.5117, 56.3508, -1.69075, 69.1059, -74.5913, 111.423
1.404, 1, 16.5593, 56.3301, -1.72054, 69.1757, -74.5332, 111.262
1.408, 1, 16.6069, 56.3094, -1.75031, 69.2453, -74.4752, 111.102
1.412, 1, 16.6544, 56.2887, -1.78004, 69.3149, -74.4171, 110.941
1.416, 1, 16.7019, 56.2681, -1.80975, 69.3844, -74.3592, 110.78
1.42, 1, 16.7493, 56.2474, -1.83943, 69.4538, -74.3013, 110.62
1.424, 1, 16.7967, 56.2268, -1.86908, 69.5232, -74.2434, 110.459
1.428, 1, 16.8441, 56.2062, -1.8987, 69.5926, -74.1856, 110.299
1.432, 1, 16.8914, 56.1856, -1.92829, 69.6618, -74.1279, 110.139
1.436, 1, 16.9387, 56.1651, -1.95786, 69.731, -74.0702, 109.98
1.44, 1, 16.9859, 56.1445, -1.9874, 69.8001, -74.0126, 109.82
1.444, 1, 17.033, 56.124, -2.01691, 69.8692, -73.955, 109.66
1.448, 1, 17.0802, 56.1035, -2.04639, 69.9382, -73.8975, 109.501
1.452, 1, 17.1273, 56.083, -2.07585, 70.0071, -73.84, 109.342
1.456, 1, 17.1743, 56.0626, -2.10527, 70.076, -73.7826, 109.183
1.46, 1, 17.2213, 56.0421, -2.13467, 70.1447, -73.7252, 109.024
1.464, 1, 17.2683, 56.0217, -2.16404, 70.2135, -73.6679, 108.865
1.468, 1, 17.3152, 56.0013, -2.19339, 70.2822, -73.6107, 108.706
1.472, 1, 17.362, 55.9809, -2.22271, 70.3508, -73.5535, 108.548
1.476, 1, 17.4089, 55.9606, -2.25199, 70.4193, -73.4963, 108.39
1.48, 1, 17.4556, 55.9402, -2.28126, 70.4878, -73.4393, 108.231
1.484, 1, 17.5024, 55.9199, -2.31049, 70.5562, -73.3822, 108.073
1.488, 1, 17.5491, 55.8996, -2.3397, 70.6245, -73.3252, 107.915
1.492, 1, 17.5957, 55.8793, -2.36888, 70.6928, -73.2683, 107.758
1.496, 1, 17.6423, 55.859, -2.39803, 70.761, -73.2114, 107.6
1.5, 1, 17.6889, 55.8388, -2.42715, 70.8292, -73.1546, 107.443
1.504, 1, 17.7354, 55.8185, -2.45625, 70.8973, -73.0978, 107.285
1.508, 1, 17.7819, 55.7983, -2.48532, 70.9653, -73.0411, 107.128
1.512, 1, 17.8283, 55.7781, -2.51436, 71.0333, -72.9845, 106.971
1.516, 1, 17.8747, 55.7579, -2.54338, 71.1012, -72.9278, 106.814
1.52, 1, 17.921, 55.7378, -2.57237, 71.169, -72.8713, 106.658
1.524, 1, 17.9673, 55.7176, -2.60133, 71.2368, -72.8148, 106.501
1.528, 1, 18.0136, 55.6975, -2.63027, 71.3045, -72.7583, 106.345
1.532, 1, 18.0598, 55.6774, -2.65918, 71.3721, -72.7019, 106.188
1.536, 1, 18.106, 55.6573, -2.68806, 71.4397, -72.6456, 106.032
1.54, 1, 18.1521, 55.6373, -2.71691, 71.5072, -72.5893, 105.876
1.544, 1, 18.1982, 55.6172, -2.74574, 71.5747, -72.533, 105.721
1.548, 1, 18.2442, 55.5972, -2.77454, 71.6421, -72.4768, 105.565
1.552, 1, 18.2902, 55.5772, -2.80331, 71.7094, -72.4207, 105.409
1.556, 1, 18.3362, 55.5572, -2.83206, 71.7767, -72.3646, 105.254
1.56, 1, 18.3821, 55.5372, -2.86078, 71.8439, -72.3086, 105.099
1.564, 1, 18.4279, 55.5173, -2.88948, 71.911, -72.2526, 104.944
1.568, 1, 18.4738, 55.4973, -2.91815, 71.9781, -72.1967, 104.789
1.572, 1, 18.5196, 55.4774, -2.94679, 72.0452, -72.1408, 104.634
1.576, 1, 18.5653, 55.4575, -2.9754, 72.1121, -72.085, 104.479
1.58, 1, 18.611, 55.4377, -3.00399, 72.179, -72.0292, 104.325
1.584, 1, 18.6567, 55.4178, -3.03255, 72.2459, -71.9735, 104.17
1.588, 1, 18.7023, 55.3979, -3.06109, 72.3126, -71.9178, 104.016
1.592, 1, 18.7479, 55.3781, -3.0896, 72.3793, -71.8622, 103.862
1.596, 1, 18.7934, 55.3583, -3.11808, 72.446, -71.8066, 103.708
1.6, 1, 18.8389, 55.3385, -3.14654, 72.5126, -71.7511, 103.554
1.604, 1, 18.8843, 55.3188, -3.17497, 72.5791, -71.6956, 103.4
1.608, 1, 18.9297, 55.299, -3.20337, 72.6456, -71.6402, 103.247
1.612, 1, 18.9751, 55.2793, -3.23175, 72.712, -71.5848, 103.093
1.616, 1, 19.0204, 55.2596, -3.2601, 72.7783, -71.5295, 102.94
1.62, 1, 19.0657, 55.2399, -3.28843, 72.8446, -71.4742, 102.787
1.624, 1, 19.111, 55.2202, -3.31673, 72.9109, -71.419, 102.634
1.628, 1, 19.1562, 55.2005, -3.34501, 72.977, -71.3639, 102.481
1.632, 1, 19.2013, 55.1809, -3.37325, 73.0431, -71.3087, 102.328
1.636, 1, 19.2464, 55.1613, -3.40148, 73.1092, -71.2537, 102.176
1.64, 1, 19.2915, 55.1417, -3.42967, 73.1751, -71.1987, 102.023
1.644, 1, 19.3366, 55.1221, -3.45785, 73.2411, -71.1437, 101.871
1.648, 1, 19.3815, 55.1025, -3.48599, 73.3069, -71.0888, 101.719
1.652, 1, 19.4265, 55.0829, -3.51411, 73.3727, -71.0339, 101.567
1.656, 1, 19.4714, 55.0634, -3.54221, 73.4385, -70.9791, 101.415
1.66, 1, 19.5163, 55.0439, -3.57027, 73.5042, -70.9244, 101.263
1.664, 1, 19.5611, 55.0244, -3.59832, 73.5698, -70.8696, 101.112
1.668, 1, 19.6059, 55.0049, -3.62634, 73.6354, -70.815, 100.96
1.672, 1, 19.6507, 54.9854, -3.65433, 73.7009, -70.7604, 100.809
1.676, 1, 19.6954, 54.966, -3.68229, 73.7663, -70.7058, 100.658
1.68, 1, 19.74, 54.9466, -3.71024, 73.8317, -70.6513, 100.507
1.684, 1, 19.7847, 54.9272, -3.73815, 73.897, -70.5968, 100.356
1.688, 1, 19.8292, 54.9078, -3.76604, 73.9623, -70.5424, 100.205
1.692, 1, 19.8738, 54.8884, -3.79391, 74.0275, -70.488, 100.054
1.696, 1, 19.9183, 54.869, -3.82175, 74.0926, -70.4337, 99.904
1.7, 1, 19.9628, 54.8497, -3.84957, 74.1577, -70.3795, 99.7536
1.704, 1, 20.0072, 54.8304, -3.87736, 74.2228, -70.3252, 99.6034
1.708, 1, 20.0516, 54.8111, -3.90512, 74.2877, -70.2711, 99.4533
1.712, 1, 20.0959, 54.7918, -3.93286, 74.3526, -70.2169, 99.3034
1.716, 1, 20.1402, 54.7725, -3.96058, 74.4175, -70.1629, 99.1536
1.72, 1, 20.1845, 54.7532, -3.98827, 74.4823, -70.1088, 99.0039
1.724, 1, 20.2287, 54.734, -4.01593, 74.547, -70.0549, 98.8543
1.728, 1, 20.2729, 54.7148, -4.04357, 74.6117, -70.0009, 98.7049
1.732, 1, 20.3171, 54.6956, -4.07119, 74.6763, -69.9471, 98.5556
1.736, 1, 20.3612, 54.6764, -4.09878, 74.7409, -69.8932, 98.4065
1.74, 1, 20.4052, 54.6572, -4.12635, 74.8054, -69.8395, 98.2575
1.744, 1, 20.4493, 54.6381, -4.15389, 74.8699, -69.7857, 98.1086
1.748, 1, 20.4933, 54.6189, -4.1814, 74.9342, -69.732, 97.9599
1.752, 1, 20.5372, 54.5998, -4.2089, 74.9986, -69.6784, 97.8112
1.756, 1, 20.5811, 54.5807, -4.23636, 75.0629, -69.6248, 97.6628
1.76, 1, 20.625, 54.5616, -4.26381, 75.1271, -69.5713, 97.5144
1.764, 1, 20.6688, 54.5426, -4.29123, 75.1912, -69.5178, 97.3662
1.768, 1, 20.7126, 54.5235, -4.31862, 75.2553, -69.4643, 97.2181
1.772, 1, 20.7564, 54.5045, -4.34599, 75.3194, -69.4109, 97.0702
1.776, 1, 20.8001, 54.4855, -4.37334, 75.3834, -69.3576, 96.9223
1.78, 1, 20.8438, 54.4665, -4.40066, 75.4473, -69.3043, 96.7746
1.784, 1, 20.8874, 54.4475, -4.42796, 75.5112, -69.251, 96.6271
1.788, 1, 20.931, 54.4285, -4.45523, 75.575, -69.1978, 96.4796
1.792, 1, 20.9746, 54.4096, -4.48248, 75.6388, -69.1446, 96.3323
1.796, 1, 21.0181, 54.3907, -4.50971, 75.7025, -69.0915, 96.1852
1.8, 1, 21.0616, 54.3717, -4.53691, 75.7661, -69.0384, 96.0381
1.804, 1, 21.105, 54.3528, -4.56409, 75.8297, -68.9854, 95.8912
1.808, 1, 21.1484, 54.334, -4.59124, 75.8933, -68.9324, 95.7444
1.812, 1, 21.1918, 54.3151, -4.61837, 75.9568, -68.8795, 95.5978
1.816, 1, 21.2351, 54.2962, -4.64547, 76.0202, -68.8266, 95.4512
1.82, 1, 21.2784, 54.2774, -4.67256, 76.0836, -68.7738, 95.3048
1.824, 1, 21.3217, 54.2586, -4.69962, 76.1469, -68.721, 95.1586
1.828, 1, 21.3649, 54.2398, -4.72665, 76.2102, -68.6683, 95.0124
1.832, 1, 21.4081, 54.221, -4.75366, 76.2734, -68.6155, 94.8664
1.836, 1, 21.4513, 54.2023, -4.78065, 76.3365, -68.5629, 94.7205
1.84, 1, 21.4944, 54.1835, -4.80762, 76.3996, -68.5103, 94.5748
1.844, 1, 21.5374, 54.1648, -4.83456, 76.4627, -68.4577, 94.4291
1.848, 1, 21.5805, 54.146, -4.86148, 76.5257, -68.4052, 94.2836
1.852, 1, 21.6235, 54.1273, -4.88837, 76.5886, -68.3527, 94.1382
1.856, 1, 21.6664, 54.1087, -4.91524, 76.6515, -68.3003, 93.993
1.86, 1, 21.7093, 54.09, -4.94209, 76.7143, -68.2479, 93.8478
1.864, 1, 21.7522, 54.0713, -4.96891, 76.7771, -68.1956, 93.7028
1.868, 1, 21.7951, 54.0527, -4.99572, 76.8398, -68.1433, 93.558
1.872, 1, 21.8379, 54.0341, -5.0225, 76.9025, -68.091, 93.4132
1.876, 1, 21.8807, 54.0155, -5.04925, 76.9651, -68.0388, 93.2686
1.88, 1, 21.9234, 53.9969, -5.07598, 77.0276, -67.9867, 93.1241
1.884, 1, 21.9661, 53.9783, -5.10269, 77.0901, -67.9346, 92.9797
1.888, 1, 22.0088, 53.9598, -5.12938, 77.1526, -67.8825, 92.8354
1.892, 1, 22.0514, 53.9412, -5.15604, 77.215, -67.8305, 92.6913
1.896, 1, 22.094, 53.9227, -5.18269, 77.2773, -67.7785, 92.5473
1.9, 1, 22.1365, 53.9042, -5.2093, 77.3396, -67.7266, 92.4034
1.904, 1, 22.179, 53.8857, -5.2359, 77.4018, -67.6747, 92.2596
1.908, 1, 22.2215, 53.8672, -5.26247, 77.464, -67.6229, 92.116
1.912, 1, 22.264, 53.8488, -5.28902, 77.5262, -67.5711, 91.9724
1.916, 1, 22.3064, 53.8303, -5.31555, 77.5882, -67.5193, 91.829
1.92, 1, 22.3487, 53.8119, -5.34206, 77.6503, -67.4676, 91.6858
1.924, 1, 22.3911, 53.7935, -5.36854, 77.7122, -67.4159, 91.5426
1.928, 1, 22.4334, 53.7751, -5.395, 77.7742, -67.3643, 91.3996
1.932, 1, 22.4756, 53.7567, -5.42144, 77.836, -67.3127, 91.2567
1.936, 1, 22.5179, 53.7383, -5.44785, 77.8978, -67.2612, 91.1139
1.94, 1, 22.5601, 53.72, -5.47424, 77.9596, -67.2097, 90.9712
1.944, 1, 22.6022, 53.7016, -5.50061, 78.0213, -67.1582, 90.8286
1.948, 1, 22.6443, 53.6833, -5.52696, 78.083, -67.1068, 90.6862
1.952, 1, 22.6864, 53.665, -5.55329, 78.1446, -67.0555, 90.5439
1.956, 1, 22.7285, 53.6467, -5.57959, 78.2061, -67.0041, 90.4017
1.96, 1, 22.7705, 53.6284, -5.60588, 78.2676, -66.9529, 90.2596
1.964, 1, 22.8125, 53.6102, -5.63213, 78.3291, -66.9016, 90.1177
1.968, 1, 22.8544, 53.5919, -5.65837, 78.3905, -66.8504, 89.9759
1.972, 1, 22.8963, 53.5737, -5.68459, 78.4518, -66.7993, 89.8341
1.976, 1, 22.9382, 53.5555, -5.71078, 78.5131, -66.7482, 89.6925
1.98, 1, 22.9801, 53.5373, -5.73695, 78.5744, -66.6971, 89.5511
1.984, 1, 23.0219, 53.5191, -5.7631, 78.6355, -66.6461, 89.4097
1.988, 1, 23.0636, 53.5009, -5.78923, 78.6967, -66.5951, 89.2685
1.992, 1, 23.1054, 53.4828, -5.81534, 78.7578, -66.5442, 89.1273
1.996, 1, 23.1471, 53.4646, -5.84142, 78.8188, -66.4933, 88.9863
1.999, 1, 23.1887, 53.4465, -5.86749, 78.8798, -66.4425, 88.8455
2.004, 1, 23.2304, 53.4284, -5.89353, 78.9408, -66.3916, 88.7047
2.008, 1, 23.272, 53.4103, -5.91955, 79.0016, -66.3409, 88.564
2.012, 1, 23.3135, 53.3922, -5.94555, 79.0625, -66.2902, 88.4235
2.015, 1, 23.355, 53.3742, -5.97152, 79.1233, -66.2395, 88.2831
2.019, 1, 23.3965, 53.3561, -5.99748, 79.184, -66.1888, 88.1428
2.024, 1, 23.438, 53.3381, -6.02341, 79.2447, -66.1382, 88.0026
2.028, 1, 23.4794, 53.3201, -6.04932, 79.3053, -66.0877, 87.8625
2.031, 1, 23.5208, 53.3021, -6.07521, 79.3659, -66.0372, 87.7225
2.036, 1, 23.5622, 53.2841, -6.10108, 79.4265, -65.9867, 87.5827
2.04, 1, 23.6035, 53.2661, -6.12693, 79.4869, -65.9363, 87.443
2.044, 1, 23.6448, 53.2481, -6.15276, 79.5474, -65.8859, 87.3034
2.048, 1, 23.686, 53.2302, -6.17857, 79.6078, -65.8355, 87.1639
2.051, 1, 23.7273, 53.2123, -6.20435, 79.6681, -65.7852, 87.0245
2.055, 1, 23.7684, 53.1944, -6.23011, 79.7284, -65.735, 86.8852
2.06, 1, 23.8096, 53.1765, -6.25586, 79.7886, -65.6847, 86.746
2.064, 1, 23.8507, 53.1586, -6.28158, 79.8488, -65.6345, 86.607
2.068, 1, 23.8918, 53.1407, -6.30728, 79.909, -65.5844, 86.4681
2.071, 1, 23.9329, 53.1228, -6.33296, 79.9691, -65.5343, 86.3293
2.076, 1, 23.9739, 53.105, -6.35862, 80.0291, -65.4842, 86.1906
2.08, 1, 24.0149, 53.0872, -6.38425, 80.0891, -65.4342, 86.052
2.084, 1, 24.0558, 53.0694, -6.40987, 80.149, -65.3842, 85.9135
2.087, 1, 24.0967, 53.0516, -6.43547, 80.2089, -65.3343, 85.7751
2.092, 1, 24.1376, 53.0338, -6.46104, 80.2688, -65.2844, 85.6369
2.096, 1, 24.1785, 53.016, -6.4866, 80.3286, -65.2346, 85.4987
2.1, 1, 24.2193, 52.9982, -6.51213, 80.3883, -65.1847, 85.3607
2.104, 1, 24.2601, 52.9805, -6.53764, 80.448, -65.135, 85.2228
2.107, 1, 24.3008, 52.9628, -6.56314, 80.5077, -65.0852, 85.085
2.111, 1, 24.3416, 52.9451, -6.58861, 80.5673, -65.0355, 84.9473
2.116, 1, 24.3823, 52.9274, -6.61406, 80.6269, -64.9859, 84.8097
2.12, 1, 24.4229, 52.9097, -6.63949, 80.6864, -64.9362, 84.6722
2.124, 1, 24.4635, 52.892, -6.66491, 80.7458, -64.8867, 84.5348
2.127, 1, 24.5041, 52.8744, -6.6903, 80.8053, -64.8371, 84.3976
2.132, 1, 24.5447, 52.8567, -6.71567, 80.8646, -64.7876, 84.2604
2.136, 1, 24.5852, 52.8391, -6.74102, 80.924, -64.7382, 84.1234
2.14, 1, 24.6257, 52.8215, -6.76635, 80.9832, -64.6887, 83.9865
2.143, 1, 24.6662, 52.8039, -6.79166, 81.0425, -64.6394, 83.8496
2.148, 1, 24.7066, 52.7863, -6.81695, 81.1016, -64.59, 83.7129
2.152, 1, 24.747, 52.7687, -6.84222, 81.1608, -64.5407, 83.5763
2.156, 1, 24.7874, 52.7512, -6.86747, 81.2199, -64.4914, 83.4398
2.16, 1, 24.8277, 52.7336, -6.8927, 81.2789, -64.4422, 83.3034
2.163, 1, 24.868, 52.7161, -6.91792, 81.3379, -64.393, 83.1672
2.168, 1, 24.9083, 52.6986, -6.94311, 81.3969, -64.3439, 83.031
2.172, 1, 24.9485, 52.6811, -6.96828, 81.4558, -64.2948, 82.8949
2.176, 1, 24.9887, 52.6636, -6.99343, 81.5146, -64.2457, 82.7589
2.179, 1, 25.0289, 52.6461, -7.01856, 81.5734, -64.1967, 82.6231
2.184, 1, 25.0691, 52.6286, -7.04367, 81.6322, -64.1477, 82.4874
2.188, 1, 25.1092, 52.6112, -7.06877, 81.6909, -64.0987, 82.3517
2.192, 1, 25.1493, 52.5938, -7.09384, 81.7496, -64.0498, 82.2162
2.196, 1, 25.1893, 52.5763, -7.11889, 81.8082, -64.0009, 82.0807
2.199, 1, 25.2293, 52.5589, -7.14393, 81.8668, -63.9521, 81.9454
2.204, 1, 25.2693, 52.5415, -7.16894, 81.9253, -63.9033, 81.8102
2.208, 1, 25.3093, 52.5241, -7.19394, 81.9838, -63.8545, 81.6751
2.212, 1, 25.3492, 52.5068, -7.21891, 82.0423, -63.8058, 81.5401
2.216, 1, 25.3891, 52.4894, -7.24387, 82.1007, -63.7571, 81.4051
2.219, 1, 25.429, 52.4721, -7.26881, 82.159, -63.7084, 81.2703
2.224, 1, 25.4688, 52.4548, -7.29373, 82.2173, -63.6598, 81.1356
2.228, 1, 25.5086, 52.4374, -7.31862, 82.2756, -63.6112, 81.0011
2.232, 1, 25.5484, 52.4201, -7.3435, 82.3338, -63.5627, 80.8666
2.235, 1, 25.5881, 52.4029, -7.36836, 82.392, -63.5142, 80.7322
2.24, 1, 25.6279, 52.3856, -7.39321, 82.4501, -63.4657, 80.5979
2.244, 1, 25.6675, 52.3683, -7.41803, 82.5082, -63.4173, 80.4637
2.248, 1, 25.7072, 52.3511, -7.44283, 82.5663, -63.3689, 80.3296
2.252, 1, 25.7468, 52.3338, -7.46762, 82.6243, -63.3205, 80.1956
2.255, 1, 25.7864, 52.3166, -7.49238, 82.6822, -63.2722, 80.0618
2.259, 1, 25.826, 52.2994, -7.51713, 82.7401, -63.2239, 79.928
2.264, 1, 25.8655, 52.2822, -7.54186, 82.798, -63.1757, 79.7943
2.268, 1, 25.905, 52.265, -7.56657, 82.8558, -63.1275, 79.6607
2.272, 1, 25.9445, 52.2479, -7.59126, 82.9136, -63.0793, 79.5273
2.275, 1, 25.9839, 52.2307, -7.61593, 82.9713, -63.0312, 79.3939
2.28, 1, 26.0233, 52.2136, -7.64058, 83.029, -62.9831, 79.2606
2.284, 1, 26.0627, 52.1964, -7.66522, 83.0867, -62.935, 79.1275
2.288, 1, 26.1021, 52.1793, -7.68983, 83.1443, -62.887, 78.9944
2.291, 1, 26.1414, 52.1622, -7.71443, 83.2018, -62.839, 78.8614
2.296, 1, 26.1807, 52.1451, -7.73901, 83.2594, -62.791, 78.7286
2.3, 1, 26.22, 52.128, -7.76357, 83.3168, -62.7431, 78.5958
2.304, 1, 26.2592, 52.111, -7.78811, 83.3743, -62.6952, 78.4631
2.308, 1, 26.2984, 52.0939, -7.81264, 83.4316, -62.6474, 78.3306
2.311, 1, 26.3376, 52.0769, -7.83714, 83.489, -62.5996, 78.1981
2.316, 1, 26.3767, 52.0599, -7.86163, 83.5463, -62.5518, 78.0657
2.32, 1, 26.4158, 52.0428, -7.8861, 83.6036, -62.5041, 77.9334
2.324, 1, 26.4549, 52.0258, -7.91055, 83.6608, -62.4564, 77.8013
2.328, 1, 26.494, 52.0088, -7.93498, 83.7179, -62.4087, 77.6692
2.331, 1, 26.533, 51.9919, -7.9594, 83.7751, -62.3611, 77.5372
2.336, 1, 26.572, 51.9749, -7.9838, 83.8322, -62.3135, 77.4053
2.34, 1, 26.611, 51.958, -8.00817, 83.8892, -62.2659, 77.2735
2.344, 1, 26.6499, 51.941, -8.03253, 83.9462, -62.2184, 77.1419
2.347, 1, 26.6888, 51.9241, -8.05688, 84.0032, -62.1709, 77.0103
2.352, 1, 26.7277, 51.9072, -8.0812, 84.0601, -62.1234, 76.8788
2.356, 1, 26.7666, 51.8903, -8.10551, 84.117, -62.076, 76.7474
2.36, 1, 26.8054, 51.8734, -8.1298, 84.1738, -62.0286, 76.6161
2.364, 1, 26.8442, 51.8565, -8.15407, 84.2306, -61.9813, 76.4849
2.367, 1, 26.883, 51.8396, -8.17832, 84.2874, -61.9339, 76.3538
2.372, 1, 26.9217, 51.8228, -8.20255, 84.3441, -61.8867, 76.2228
2.376, 1, 26.9605, 51.8059, -8.22677, 84.4008, -61.8394, 76.0919
2.38, 1, 26.9991, 51.7891, -8.25097, 84.4574, -61.7922, 75.9611
2.383, 1, 27.0378, 51.7723, -8.27515, 84.514, -61.745, 75.8303
2.388, 1, 27.0764, 51.7555, -8.29932, 84.5705, -61.6979, 75.6997
2.392, 1, 27.115, 51.7387, -8.32346, 84.627, -61.6508, 75.5692
2.396, 1, 27.1536, 51.7219, -8.34759, 84.6835, -61.6037, 75.4387
2.4, 1, 27.1922, 51.7052, -8.37171, 84.7399, -61.5566, 75.3084
2.403, 1, 27.2307, 51.6884, -8.3958, 84.7963, -61.5096, 75.1782
2.408, 1, 27.2692, 51.6717, -8.41988, 84.8526, -61.4627, 75.048
2.412, 1, 27.3076, 51.6549, -8.44394, 84.9089, -61.4157, 74.9179
2.416, 1, 27.3461, 51.6382, -8.46798, 84.9652, -61.3688, 74.788
2.42, 1, 27.3845, 51.6215, -8.492, 85.0214, -61.3219, 74.6581
2.423, 1, 27.4229, 51.6048, -8.51601, 85.0776, -61.2751, 74.5283
2.428, 1, 27.4612, 51.5881, -8.54, 85.1337, -61.2283, 74.3986
2.432, 1, 27.4995, 51.5715, -8.56397, 85.1898, -61.1815, 74.2691
2.436, 1, 27.5378, 51.5548, -8.58793, 85.2459, -61.1348, 74.1396
2.439, 1, 27.5761, 51.5382, -8.61187, 85.3019, -61.0881, 74.0102
2.444, 1, 27.6143, 51.5215, -8.63579, 85.3579, -61.0414, 73.8808
2.448, 1, 27.6526, 51.5049, -8.65969, 85.4138, -60.9948, 73.7516
2.452, 1, 27.6907, 51.4883, -8.68358, 85.4697, -60.9482, 73.6225
2.456, 1, 27.7289, 51.4717, -8.70745, 85.5256, -60.9016, 73.4935
2.459, 1, 27.767, 51.4551, -8.73131, 85.5814, -60.855, 73.3645
2.464, 1, 27.8051, 51.4385, -8.75514, 85.6372, -60.8085, 73.2357
2.468, 1, 27.8432, 51.422, -8.77896, 85.6929, -60.7621, 73.1069
2.472, 1, 27.8813, 51.4054, -8.80276, 85.7486, -60.7156, 72.9782
2.476, 1, 27.9193, 51.3889, -8.82655, 85.8043, -60.6692, 72.8496
2.479, 1, 27.9573, 51.3723, -8.85032, 85.8599, -60.6228, 72.7212
2.484, 1, 27.9953, 51.3558, -8.87407, 85.9155, -60.5765, 72.5928
2.488, 1, 28.0332, 51.3393, -8.89781, 85.971, -60.5302, 72.4644
2.492, 1, 28.0711, 51.3228, -8.92153, 86.0266, -60.4839, 72.3362
2.495, 1, 28.109, 51.3064, -8.94523, 86.082, -60.4377, 72.2081
2.5, 1, 28.1469, 51.2899, -8.96892, 86.1374, -60.3914, 72.08
2.504, 1, 28.1847, 51.2734, -8.99259, 86.1928, -60.3453, 71.9521
2.508, 1, 28.2226, 51.257, -9.01624, 86.2482, -60.2991, 71.8242
2.512, 1, 28.2603, 51.2405, -9.03988, 86.3035, -60.253, 71.6965
2.515, 1, 28.2981, 51.2241, -9.0635, 86.3588, -60.2069, 71.5688
2.52, 1, 28.3358, 51.2077, -9.0871, 86.414, -60.1609, 71.4412
2.524, 1, 28.3736, 51.1913, -9.11069, 86.4692, -60.1149, 71.3137
2.528, 1, 28.4112, 51.1749, -9.13426, 86.5244, -60.0689, 71.1863
2.531, 1, 28.4489, 51.1585, -9.15781, 86.5795, -60.0229, 71.0589
2.536, 1, 28.4865, 51.1422, -9.18135, 86.6346, -59.977, 70.9317
2.54, 1, 28.5241, 51.1258, -9.20488, 86.6896, -59.9311, 70.8045
2.544, 1, 28.5617, 51.1095, -9.22838, 86.7446, -59.8852, 70.6774
2.548, 1, 28.5993, 51.0931, -9.25187, 86.7996, -59.8394, 70.5505
2.551, 1, 28.6368, 51.0768, -9.27535, 86.8545, -59.7936, 70.4236
2.556, 1, 28.6743, 51.0605, -9.29881, 86.9094, -59.7478, 70.2968
2.56, 1, 28.7118, 51.0442, -9.32225, 86.9643, -59.7021, 70.17
2.564, 1, 28.7492, 51.0279, -9.34568, 87.0191, -59.6564, 70.0434
2.568, 1, 28.7867, 51.0116, -9.36909, 87.0739, -59.6107, 69.9168
2.571, 1, 28.8241, 50.9953, -9.39248, 87.1286, -59.5651, 69.7904
2.576, 1, 28.8614, 50.9791, -9.41586, 87.1833, -59.5194, 69.664
2.58, 1, 28.8988, 50.9628, -9.43922, 87.238, -59.4739, 69.5377
2.584, 1, 28.9361, 50.9466, -9.46257, 87.2926, -59.4283, 69.4115
2.587, 1, 28.9734, 50.9304, -9.4859, 87.3473, -59.3828, 69.2854
2.592, 1, 29.0107, 50.9142, -9.50922, 87.4018, -59.3373, 69.1593
2.596, 1, 29.0479, 50.898, -9.53252, 87.4563, -59.2918, 69.0334
2.6, 1, 29.0852, 50.8818, -9.5558, 87.5108, -59.2464, 68.9075
2.604, 1, 29.1224, 50.8656, -9.57907, 87.5653, -59.201, 68.7817
2.607, 1, 29.1595, 50.8494, -9.60233, 87.6197, -59.1556, 68.656
2.612, 1, 29.1967, 50.8333, -9.62557, 87.6741, -59.1103, 68.5304
2.616, 1, 29.2338, 50.8171, -9.64879, 87.7284, -59.065, 68.4049
2.62, 1, 29.2709, 50.801, -9.67199, 87.7827, -59.0197, 68.2794
2.624, 1, 29.308, 50.7849, -9.69519, 87.837, -58.9745, 68.154
2.627, 1, 29.345, 50.7687, -9.71836, 87.8912, -58.9293, 68.0288
2.632, 1, 29.3821, 50.7526, -9.74152, 87.9454, -58.8841, 67.9035
2.636, 1, 29.4191, 50.7365, -9.76467, 87.9996, -58.8389, 67.7784
2.64, 1, 29.456, 50.7205, -9.7878, 88.0537, -58.7938, 67.6534
2.643, 1, 29.493, 50.7044, -9.81091, 88.1078, -58.7487, 67.5284
2.648, 1, 29.5299, 50.6883, -9.83401, 88.1619, -58.7036, 67.4036
2.652, 1, 29.5668, 50.6723, -9.8571, 88.2159, -58.6586, 67.2788
2.656, 1, 29.6037, 50.6562, -9.88017, 88.2699, -58.6136, 67.1541
2.66, 1, 29.6406, 50.6402, -9.90322, 88.3238, -58.5686, 67.0294
2.663, 1, 29.6774, 50.6242, -9.92626, 88.3777, -58.5236, 66.9049
2.668, 1, 29.7142, 50.6082, -9.94929, 88.4316, -58.4787, 66.7804
2.672, 1, 29.751, 50.5922, -9.9723, 88.4855, -58.4338, 66.6561
2.676, 1, 29.7877, 50.5762, -9.99529, 88.5393, -58.3889, 66.5318
2.679, 1, 29.8245, 50.5602, -10.0183, 88.593, -58.3441, 66.4075
2.684, 1, 29.8612, 50.5442, -10.0412, 88.6468, -58.2993, 66.2834
2.688, 1, 29.8979, 50.5283, -10.0642, 88.7005, -58.2545, 66.1593
2.692, 1, 29.9346, 50.5123, -10.0871, 88.7542, -58.2098, 66.0353
2.696, 1, 29.9712, 50.4964, -10.11, 88.8078, -58.1651, 65.9114
2.699, 1, 30.0078, 50.4804, -10.1329, 88.8614, -58.1204, 65.7876
2.704, 1, 30.0444, 50.4645, -10.1558, 88.915, -58.0757, 65.6639
2.708, 1, 30.081, 50.4486, -10.1787, 88.9685, -58.0311, 65.5402
2.712, 1, 30.1175, 50.4327, -10.2016, 89.022, -57.9865, 65.4166
2.716, 1, 30.154, 50.4168, -10.2244, 89.0755, -57.9419, 65.2932
2.719, 1, 30.1905, 50.401, -10.2473, 89.1289, -57.8974, 65.1697
2.724, 1, 30.227, 50.3851, -10.2701, 89.1823, -57.8528, 65.0464
2.728, 1, 30.2635, 50.3692, -10.2929, 89.2356, -57.8084, 64.9231
2.732, 1, 30.2999, 50.3534, -10.3157, 89.289, -57.7639, 64.7999
2.735, 1, 30.3363, 50.3376, -10.3384, 89.3423, -57.7195, 64.6768
2.74, 1, 30.3727, 50.3217, -10.3612, 89.3955, -57.6751, 64.5538
2.744, 1, 30.4091, 50.3059, -10.3839, 89.4487, -57.6307, 64.4308
2.748, 1, 30.4454, 50.2901, -10.4067, 89.5019, -57.5863, 64.308
2.752, 1, 30.4817, 50.2743, -10.4294, 89.5551, -57.542, 64.1852
2.755, 1, 30.518, 50.2585, -10.4521, 89.6082, -57.4977, 64.0625
2.76, 1, 30.5543, 50.2427, -10.4748, 89.6613, -57.4535, 63.9398
2.764, 1, 30.5905, 50.227, -10.4974, 89.7144, -57.4092, 63.8172
2.768, 1, 30.6267, 50.2112, -10.5201, 89.7674, -57.365, 63.6948
2.772, 1, 30.6629, 50.1955, -10.5427, 89.8204, -57.3208, 63.5723
2.775, 1, 30.6991, 50.1797, -10.5654, 89.8733, -57.2767, 63.45
2.78, 1, 30.7353, 50.164, -10.588, 89.9263, -57.2326, 63.3278
2.784, 1, 30.7714, 50.1483, -10.6106, 89.9792, -57.1885, 63.2056
2.788, 1, 30.8075, 50.1326, -10.6332, 90.032, -57.1444, 63.0835
2.791, 1, 30.8436, 50.1169, -10.6558, 90.0848, -57.1003, 62.9614
2.796, 1, 30.8797, 50.1012, -10.6783, 90.1376, -57.0563, 62.8395
2.8, 1, 30.9157, 50.0855, -10.7009, 90.1904, -57.0123, 62.7176
2.804, 1, 30.9517, 50.0699, -10.7234, 90.2431, -56.9684, 62.5958
2.808, 1, 30.9877, 50.0542, -10.7459, 90.2958, -56.9244, 62.4741
2.811, 1, 31.0237, 50.0386, -10.7684, 90.3485, -56.8805, 62.3524
2.816, 1, 31.0597, 50.0229, -10.7909, 90.4011, -56.8367, 62.2309
2.82, 1, 31.0956, 50.0073, -10.8134, 90.4537, -56.7928, 62.1094
2.824, 1, 31.1315, 49.9917, -10.8358, 90.5063, -56.749, 61.9879
2.828, 1, 31.1674, 49.9761, -10.8583, 90.5588, -56.7052, 61.8666
2.831, 1, 31.2033, 49.9605, -10.8807, 90.6113, -56.6614, 61.7453
2.836, 1, 31.2391, 49.9449, -10.9032, 90.6638, -56.6177, 61.6241
2.84, 1, 31.2749, 49.9293, -10.9256, 90.7162, -56.574, 61.503
2.844, 1, 31.3107, 49.9137, -10.948, 90.7686, -56.5303, 61.3819
2.847, 1, 31.3465, 49.8982, -10.9703, 90.821, -56.4866, 61.2609
2.852, 1, 31.3823, 49.8826, -10.9927, 90.8733, -56.443, 61.14
2.856, 1, 31.418, 49.8671, -11.0151, 90.9256, -56.3993, 61.0192
2.86, 1, 31.4537, 49.8515, -11.0374, 90.9779, -56.3558, 60.8984
2.864, 1, 31.4894, 49.836, -11.0597, 91.0301, -56.3122, 60.7777
2.867, 1, 31.5251, 49.8205, -11.082, 91.0824, -56.2687, 60.6571
2.872, 1, 31.5607, 49.805, -11.1043, 91.1345, -56.2252, 60.5366
2.876, 1, 31.5964, 49.7895, -11.1266, 91.1867, -56.1817, 60.4161
2.88, 1, 31.632, 49.774, -11.1489, 91.2388, -56.1382, 60.2957
2.883, 1, 31.6675, 49.7585, -11.1711, 91.2909, -56.0948, 60.1754
2.888, 1, 31.7031, 49.743, -11.1934, 91.343, -56.0514, 60.0552
2.892, 1, 31.7386, 49.7276, -11.2156, 91.395, -56.008, 59.935
2.896, 1, 31.7742, 49.7121, -11.2378, 91.447, -55.9647, 59.8149
2.9, 1, 31.8097, 49.6967, -11.26, 91.4989, -55.9214, 59.6948
2.903, 1, 31.8451, 49.6813, -11.2822, 91.5509, -55.8781, 59.5749
2.908, 1, 31.8806, 49.6658, -11.3044, 91.6028, -55.8348, 59.455
2.912, 1, 31.916, 49.6504, -11.3266, 91.6546, -55.7915, 59.3351
2.916, 1, 31.9515, 49.635, -11.3487, 91.7065, -55.7483, 59.2154
2.92, 1, 31.9868, 49.6196, -11.3709, 91.7583, -55.7051, 59.0957
2.923, 1, 32.0222, 49.6042, -11.393, 91.8101, -55.662, 58.9761
2.928, 1, 32.0576, 49.5889, -11.4151, 91.8618, -55.6188, 58.8566
2.932, 1, 32.0929, 49.5735, -11.4372, 91.9135, -55.5757, 58.7371
2.936, 1, 32.1282, 49.5581, -11.4593, 91.9652, -55.5326, 58.6177
2.939, 1, 32.1635, 49.5428, -11.4814, 92.0169, -55.4895, 58.4984
2.944, 1, 32.1988, 49.5274, -11.5034, 92.0685, -55.4465, 58.3791
2.948, 1, 32.234, 49.5121, -11.5255, 92.1201, -55.4035, 58.2599
2.952, 1, 32.2693, 49.4968, -11.5475, 92.1717, -55.3605, 58.1408
2.956, 1, 32.3045, 49.4815, -11.5696, 92.2232, -55.3175, 58.0217
2.959, 1, 32.3396, 49.4662, -11.5916, 92.2747, -55.2746, 57.9028
2.964, 1, 32.3748, 49.4509, -11.6136, 92.3262, -55.2316, 57.7838
2.968, 1, 32.41, 49.4356, -11.6355, 92.3776, -55.1887, 57.665
2.972, 1, 32.4451, 49.4203, -11.6575, 92.4291, -55.1459, 57.5462
2.976, 1, 32.4802, 49.405, -11.6795, 92.4804, -55.103, 57.4275
2.98, 1, 32.5153, 49.3898, -11.7014, 92.5318, -55.0602, 57.3089
2.984, 1, 32.5503, 49.3745, -11.7234, 92.5831, -55.0174, 57.1903
2.988, 1, 32.5854, 49.3593, -11.7453, 92.6344, -54.9746, 57.0718
2.992, 1, 32.6204, 49.344, -11.7672, 92.6857, -54.9319, 56.9534
2.995, 1, 32.6554, 49.3288, -11.7891, 92.737, -54.8892, 56.835
3, 1, 32.6904, 49.3136, -11.811, 92.7882, -54.8465, 56.7167
3.004, 1, 32.7254, 49.2984, -11.8328, 92.8393, -54.8038, 56.5984
3.008, 1, 32.7603, 49.2832, -11.8547, 92.8905, -54.7612, 56.4803
3.012, 1, 32.7952, 49.268, -11.8765, 92.9416, -54.7185, 56.3622
3.015, 1, 32.8302, 49.2528, -11.8984, 92.9927, -54.6759, 56.2441
3.02, 1, 32.865, 49.2376, -11.9202, 93.0438, -54.6334, 56.1262
3.024, 1, 32.8999, 49.2225, -11.942, 93.0948, -54.5908, 56.0083
3.028, 1, 32.9348, 49.2073, -11.9638, 93.1458, -54.5483, 55.8904
3.031, 1, 32.9696, 49.1922, -11.9856, 93.1968, -54.5058, 55.7727
3.036, 1, 33.0044, 49.177, -12.0074, 93.2478, -54.4633, 55.655
3.04, 1, 33.0392, 49.1619, -12.0291, 93.2987, -54.4208, 55.5373
3.044, 1, 33.0739, 49.1468, -12.0509, 93.3496, -54.3784, 55.4198
3.048, 1, 33.1087, 49.1316, -12.0726, 93.4005, -54.336, 55.3023
3.051, 1, 33.1434, 49.1165, -12.0943, 93.4513, -54.2936, 55.1848
3.056, 1, 33.1781, 49.1014, -12.1161, 93.5021, -54.2512, 55.0675
3.06, 1, 33.2128, 49.0863, -12.1378, 93.5529, -54.2089, 54.9502
3.064, 1, 33.2475, 49.0713, -12.1594, 93.6036, -54.1666, 54.8329
3.068, 1, 33.2822, 49.0562, -12.1811, 93.6544, -54.1243, 54.7157
3.071, 1, 33.3168, 49.0411, -12.2028, 93.705, -54.082, 54.5986
3.076, 1, 33.3514, 49.0261, -12.2244, 93.7557, -54.0398, 54.4816
3.08, 1, 33.386, 49.011, -12.2461, 93.8064, -53.9976, 54.3646
3.084, 1, 33.4206, 48.996, -12.2677, 93.857, -53.9554, 54.2477
3.087, 1, 33.4551, 48.981, -12.2893, 93.9076, -53.9132, 54.1308
3.092, 1, 33.4897, 48.9659, -12.3109, 93.9581, -53.871, 54.0141
3.096, 1, 33.5242, 48.9509, -12.3325, 94.0086, -53.8289, 53.8973
3.1, 1, 33.5587, 48.9359, -12.3541, 94.0591, -53.7868, 53.7807
3.104, 1, 33.5932, 48.9209, -12.3757, 94.1096, -53.7447, 53.6641
3.107, 1, 33.6276, 48.9059, -12.3972, 94.1601, -53.7027, 53.5475
3.112, 1, 33.6621, 48.8909, -12.4188, 94.2105, -53.6606, 53.4311
3.116, 1, 33.6965, 48.876, -12.4403, 94.2609, -53.6186, 53.3147
3.12, 1, 33.7309, 48.861, -12.4618, 94.3112, -53.5766, 53.1983
3.124, 1, 33.7653, 48.846, -12.4833, 94.3616, -53.5347, 53.082
3.128, 1, 33.7997, 48.8311, -12.5048, 94.4119, -53.4927, 52.9658
3.132, 1, 33.834, 48.8162, -12.5263, 94.4622, -53.4508, 52.8497
3.136, 1, 33.8683, 48.8012, -12.5478, 94.5124, -53.4089, 52.7336
3.14, 1, 33.9027, 48.7863, -12.5693, 94.5626, -53.367, 52.6176
3.143, 1, 33.937, 48.7714, -12.5907, 94.6128, -53.3252, 52.5016
3.148, 1, 33.9712, 48.7565, -12.6122, 94.663, -53.2833, 52.3857
3.152, 1, 34.0055, 48.7416, -12.6336, 94.7132, -53.2415, 52.2698
3.156, 1, 34.0397, 48.7267, -12.655, 94.7633, -53.1997, 52.1541
3.16, 1, 34.0739, 48.7118, -12.6764, 94.8134, -53.158, 52.0383
3.163, 1, 34.1082, 48.6969, -12.6978, 94.8635, -53.1162, 51.9227
3.168, 1, 34.1423, 48.682, -12.7192, 94.9135, -53.0745, 51.8071
3.172, 1, 34.1765, 48.6672, -12.7406, 94.9635, -53.0328, 51.6916
3.176, 1, 34.2107, 48.6523, -12.7619, 95.0135, -52.9911, 51.5761
3.179, 1, 34.2448, 48.6375, -12.7833, 95.0634, -52.9495, 51.4607
3.184, 1, 34.2789, 48.6226, -12.8046, 95.1134, -52.9078, 51.3453
3.188, 1, 34.313, 48.6078, -12.8259, 95.1633, -52.8662, 51.23
3.192, 1, 34.3471, 48.593, -12.8473, 95.2132, -52.8246, 51.1148
3.196, 1, 34.3811, 48.5782, -12.8686, 95.263, -52.7831, 50.9996
3.199, 1, 34.4152, 48.5634, -12.8898, 95.3129, -52.7415, 50.8845
3.204, 1, 34.4492, 48.5486, -12.9111, 95.3627, -52.7, 50.7695
3.208, 1, 34.4832, 48.5338, -12.9324, 95.4124, -52.6585, 50.6545
3.212, 1, 34.5172, 48.519, -12.9537, 95.4622, -52.617, 50.5396
3.216, 1, 34.5511, 48.5042, -12.9749, 95.5119, -52.5756, 50.4247
3.22, 1, 34.5851, 48.4894, -12.9961, 95.5616, -52.5341, 50.3099
3.224, 1, 34.619, 48.4747, -13.0174, 95.6113, -52.4927, 50.1952
3.228, 1, 34.6529, 48.4599, -13.0386, 95.6609, -52.4513, 50.0805
3.232, 1, 34.6868, 48.4452, -13.0598, 95.7105, -52.41, 49.9659
3.235, 1, 34.7207, 48.4305, -13.081, 95.7601, -52.3686, 49.8513
3.24, 1, 34.7546, 48.4157, -13.1022, 95.8097, -52.3273, 49.7368
3.244, 1, 34.7884, 48.401, -13.1233, 95.8593, -52.286, 49.6224
3.248, 1, 34.8223, 48.3863, -13.1445, 95.9088, -52.2447, 49.508
3.252, 1, 34.8561, 48.3716, -13.1657, 95.9583, -52.2034, 49.3936
3.255, 1, 34.8899, 48.3569, -13.1868, 96.0077, -52.1622, 49.2794
3.26, 1, 34.9236, 48.3422, -13.2079, 96.0572, -52.121, 49.1651
3.264, 1, 34.9574, 48.3275, -13.229, 96.1066, -52.0798, 49.051
3.268, 1, 34.9911, 48.3128, -13.2501, 96.156, -52.0386, 48.9369
3.272, 1, 35.0249, 48.2982, -13.2712, 96.2053, -51.9974, 48.8229
3.276, 1, 35.0586, 48.2835, -13.2923, 96.2547, -51.9563, 48.7089
3.28, 1, 35.0923, 48.2688, -13.3134, 96.304, -51.9152, 48.595
3.284, 1, 35.1259, 48.2542, -13.3345, 96.3533, -51.8741, 48.4811
3.288, 1, 35.1596, 48.2396, -13.3555, 96.4026, -51.833, 48.3673
3.291, 1, 35.1932, 48.2249, -13.3766, 96.4518, -51.7919, 48.2535
3.296, 1, 35.2266, 48.2104, -13.3976, 96.501, -51.7509, 48.1399
3.3, 1, 35.2597, 48.1959, -13.4187, 96.5502, -51.7099, 48.0263
3.304, 1, 35.2924, 48.1817, -13.4397, 96.5993, -51.669, 47.9128
3.308, 1, 35.3246, 48.1677, -13.4608, 96.6484, -51.6281, 47.7995
3.312, 1, 35.3561, 48.1539, -13.4819, 96.6973, -51.5873, 47.6864
3.316, 1, 35.3868, 48.1407, -13.503, 96.746, -51.5468, 47.5739
3.32, 1, 35.4166, 48.1279, -13.5241, 96.7943, -51.5065, 47.462
3.324, 1, 35.4453, 48.1157, -13.5451, 96.8423, -51.4666, 47.3512
3.328, 1, 35.4731, 48.104, -13.566, 96.8896, -51.4273, 47.2419
3.332, 1, 35.4998, 48.093, -13.5865, 96.936, -51.3887, 47.1346
3.336, 1, 35.5254, 48.0824, -13.6067, 96.9812, -51.351, 47.0299
3.34, 1, 35.5501, 48.0724, -13.6262, 97.0251, -51.3146, 46.9284
3.344, 1, 35.5738, 48.0627, -13.6451, 97.0672, -51.2795, 46.8309
3.347, 1, 35.5966, 48.0535, -13.663, 97.1074, -51.2461, 46.7379
3.352, 1, 35.6183, 48.0446, -13.6799, 97.1454, -51.2145, 46.6502
3.356, 1, 35.6388, 48.0362, -13.6957, 97.1808, -51.185, 46.5681
3.36, 1, 35.6583, 48.0281, -13.7101, 97.2136, -51.1578, 46.4923
3.364, 1, 35.6768, 48.0204, -13.7233, 97.2435, -51.1328, 46.4231
3.368, 1, 35.6944, 48.0128, -13.7349, 97.2705, -51.1104, 46.3608
3.372, 1, 35.7112, 48.0055, -13.7451, 97.2945, -51.0904, 46.3054
3.376, 1, 35.7272, 47.9983, -13.7538, 97.3155, -51.0728, 46.2569
3.38, 1, 35.7424, 47.9913, -13.7611, 97.3336, -51.0576, 46.2151
3.383, 1, 35.7565, 47.9846, -13.7671, 97.349, -51.0447, 46.1797
3.388, 1, 35.7696, 47.9784, -13.7719, 97.3619, -51.0339, 46.15
3.392, 2, 35.7813, 47.9727, -13.7757, 97.3725, -51.025, 46.1256
3.396, 2, 35.7917, 47.9676, -13.7787, 97.3811, -51.0177, 46.1059
3.4, 2, 35.801, 47.963, -13.7809, 97.3879, -51.0119, 46.0903
3.403, 2, 35.8092, 47.9589, -13.7825, 97.3932, -51.0074, 46.0781
3.408, 2, 35.8166, 47.9552, -13.7835, 97.3973, -51.004, 46.0689
3.412, 2, 35.8232, 47.9521, -13.7842, 97.4003, -51.0014, 46.0621
3.416, 2, 35.8288, 47.9494, -13.7846, 97.4025, -50.9995, 46.0571
3.42, 2, 35.8336, 47.9471, -13.7848, 97.4041, -50.9981, 46.0536
3.424, 2, 35.8375, 47.9453, -13.7849, 97.4051, -50.9972, 46.0511
3.428, 2, 35.8405, 47.944, -13.785, 97.4059, -50.9965, 46.0495
3.432, 2, 35.8427, 47.9431, -13.785, 97.4064, -50.9961, 46.0483
3.436, 2, 35.8442, 47.9424, -13.785, 97.4067, -50.9958, 46.0475
3.439, 2, 35.8452, 47.9419, -13.785, 97.407, -50.9956, 46.047
3.444, 2, 35.8459, 47.9416, -13.785, 97.4071, -50.9954, 46.0467
3.448, 2, 35.8464, 47.9414, -13.785, 97.4072, -50.9953, 46.0464
3.452, 2, 35.8467, 47.9413, -13.785, 97.4073, -50.9953, 46.0463
3.456, 2, 35.8469, 47.9412, -13.785, 97.4074, -50.9952, 46.0462
3.46, 2, 35.8471, 47.9411, -13.785, 97.4074, -50.9952, 46.0461
3.464, 2, 35.8472, 47.9411, -13.785, 97.4074, -50.9952, 46.046
3.468, 2, 35.8472, 47.9411, -13.785, 97.4074, -50.9952, 46.046
3.472, 2, 35.8473, 47.941, -13.785, 97.4075, -50.9951, 46.046
3.476, 2, 35.8473, 47.941, -13.785, 97.4075, -50.9951, 46.046
3.48, 2, 35.8473, 47.941, -13.785, 97.4075, -50.9951, 46.0459
3.484, 2, 35.8473, 47.941, -13.785, 97.4075, -50.9951, 46.0459
3.488, 2, 35.8474, 47.941, -13.785, 97.4075, -50.9951, 46.0459
3.492, 2, 35.8474, 47.941, -13.785, 97.4075, -50.9951, 46.0459
3.495, 2, 35.8474, 47.941, -13.785, 97.4075, -50.9951, 46.0459
3.5, 2, 35.8474, 47.941, -13.785, 97.4075, -50.9951, 46.0459
3.504, 2, 35.8474, 47.941, -13.785, 97.4075, -50.9951, 46.0459
3.508, 2, 35.8474, 47.941, -13.785, 97.4075, -50.9951, 46.0459
3.512, 2, 35.8474, 47.941, -13.785, 97.4075, -50.9951, 46.0459
3.516, 2, 35.8474, 47.941, -13.785, 97.4075, -50.9951, 46.0459
3.52, 2, 35.8474, 47.941, -13.785, 97.4075, -50.9951, 46.0459
3.524, 2, 35.8474, 47.941, -13.785, 97.4075, -50.9951, 46.0459
3.528, 2, 35.8474, 47.941, -13.785, 97.4075, -50.9951, 46.0459
3.531, 2, 35.8474, 47.941, -13.785, 97.4075, -50.9951, 46.0459
3.536, 2, 35.8474, 47.941, -13.785, 97.4075, -50.9951, 46.0459
3.54, 2, 35.8474, 47.941, -13.785, 97.4075, -50.9951, 46.0459
3.544, 2, 35.8474, 47.941, -13.785, 97.4075, -50.9951, 46.0459
3.548, 2, 35.8474, 47.941, -13.785, 97.4075, -50.9951, 46.0459
3.552, 2, 35.8474, 47.941, -13.785, 97.4075, -50.9951, 46.0459
3.556, 2, 35.8474, 47.941, -13.785, 97.4075, -50.9951, 46.0459
3.56, 2, 35.8474, 47.941, -13.785, 97.4075, -50.9951, 46.0459
3.564, 2, 35.8474, 47.941, -13.785, 97.4075, -50.9951, 46.0459
3.568, 2, 35.8474, 47.941, -13.785, 97.4075, -50.9951, 46.0459
3.572, 2, 35.8474, 47.941, -13.785, 97.4075, -50.9951, 46.0459
3.576, 2, 35.8474, 47.941, -13.785, 97.4075, -50.9951, 46.0459
3.58, 2, 35.8474, 47.941, -13.785, 97.4075, -50.9951, 46.0459
3.584, 2, 35.8474, 47.941, -13.785, 97.4075, -50.9951, 46.0459
3.587, 2, 35.8474, 47.941, -13.785, 97.4075, -50.9951, 46.0459
3.592, 2, 35.8474, 47.941, -13.785, 97.4075, -50.9951, 46.0459
3.596, 2, 35.8474, 47.941, -13.785, 97.4075, -50.9951, 46.0459
3.6, 2, 35.8474, 47.941, -13.785, 97.4075, -50.9951, 46.0459
3.604, 2, 35.8474, 47.941, -13.785, 97.4075, -50.9951, 46.0459
3.608, 2, 35.8474, 47.941, -13.785, 97.4075, -50.9951, 46.0459
3.612, 2, 35.8474, 47.941, -13.785, 97.4075, -50.9951, 46.0459
3.616, 2, 35.8474, 47.941, -13.785, 97.4075, -50.9951, 46.0459
3.62, 2, 35.8474, 47.941, -13.785, 97.4075, -50.9951, 46.0459
3.624, 2, 35.8474, 47.941, -13.785, 97.4075, -50.9951, 46.0459
3.628, 2, 35.8474, 47.941, -13.785, 97.4075, -50.9951, 46.0459
3.632, 2, 35.8474, 47.941, -13.785, 97.4075, -50.9951, 46.0459
3.636, 2, 35.8474, 47.941, -13.785, 97.4075, -50.9951, 46.0459
3.64, 2, 35.8474, 47.941, -13.785, 97.4075, -50.9951, 46.0459
3.644, 2, 35.8474, 47.941, -13.785, 97.4075, -50.9951, 46.0459
3.648, 2, 35.8474, 47.941, -13.785, 97.4075, -50.9951, 46.0459
3.652, 2, 35.8474, 47.941, -13.785, 97.4075, -50.9951, 46.0459
3.656, 2, 35.8474, 47.941, -13.785, 97.4075, -50.9951, 46.0459
3.66, 2, 35.8474, 47.941, -13.785, 97.4075, -50.9951, 46.0459
3.664, 2, 35.8474, 47.941, -13.785, 97.4075, -50.9951, 46.0459
3.668, 2, 35.8474, 47.941, -13.785, 97.4075, -50.9951, 46.0459
3.672, 2, 35.8474, 47.941, -13.785, 97.4075, -50.9951, 46.0459
3.676, 2, 35.8474, 47.941, -13.785, 97.4075, -50.9951, 46.0459
3.679, 2, 35.8474, 47.941, -13.785, 97.4075, -50.9951, 46.0459
3.684, 2, 35.8474, 47.941, -13.785, 97.4075, -50.9951, 46.0459
3.688, 2, 35.8474, 47.941, -13.785, 97.4075, -50.9951, 46.0459
3.692, 2, 35.8474, 47.941, -13.785, 97.4075, -50.9951, 46.0459
3.696, 2, 35.8474, 47.941, -13.785, 97.4075, -50.9951, 46.0459
3.7, 2, 35.8474, 47.941, -13.785, 97.4075, -50.9951, 46.0459
3.704, 2, 35.8474, 47.941, -13.785, 97.4075, -50.9951, 46.0459
3.708, 2, 35.8474, 47.941, -13.785, 97.4075, -50.9951, 46.0459
3.712, 2, 35.8474, 47.941, -13.785, 97.4075, -50.9951, 46.0459
3.716, 2, 35.8474, 47.941, -13.785, 97.4075, -50.9951, 46.0459
3.72, 2, 35.8474, 47.941, -13.785, 97.4075, -50.9951, 46.0459
3.724, 2, 35.8474, 47.941, -13.785, 97.4075, -50.9951, 46.0459
3.728, 2, 35.8474, 47.941, -13.785, 97.4075, -50.9951, 46.0459
3.732, 2, 35.8474, 47.941, -13.785, 97.4075, -50.9951, 46.0459
3.735, 2, 35.8474, 47.941, -13.785, 97.4075, -50.9951, 46.0459
3.74, 2, 35.8474, 47.941, -13.785, 97.4075, -50.9951, 46.0459
3.744, 2, 35.8474, 47.941, -13.785, 97.4075, -50.9951, 46.0459
3.748, 2, 35.8474, 47.941, -13.785, 97.4075, -50.9951, 46.0459
3.752, 2, 35.8474, 47.941, -13.785, 97.4075, -50.9951, 46.0459
3.756, 2, 35.8474, 47.941, -13.785, 97.4075, -50.9951, 46.0459
3.76, 2, 35.8474, 47.941, -13.785, 97.4075, -50.9951, 46.0459
3.764, 2, 35.8474, 47.941, -13.785, 97.4075, -50.9951, 46.0459
3.768, 2, 35.8474, 47.941, -13.785, 97.4075, -50.9951, 46.0459
3.772, 2, 35.8474, 47.941, -13.785, 97.4075, -50.9951, 46.0459
3.776, 2, 35.8474, 47.941, -13.785, 97.4075, -50.9951, 46.0459
3.78, 2, 35.8474, 47.941, -13.785, 97.4075, -50.9951, 46.0459
3.784, 2, 35.8474, 47.941, -13.785, 97.4075, -50.9951, 46.0459
3.788, 2, 35.8474, 47.941, -13.785, 97.4075, -50.9951, 46.0459
3.792, 2, 35.8474, 47.941, -13.785, 97.4075, -50.9951, 46.0459
3.796, 2, 35.8474, 47.941, -13.785, 97.4075, -50.9951, 46.0459
3.8, 2, 35.8474, 47.941, -13.785, 97.4075, -50.9951, 46.0459
3.804, 2, 35.8474, 47.941, -13.785, 97.4075, -50.9951, 46.0459
3.808, 2, 35.8474, 47.941, -13.785, 97.4075, -50.9951, 46.0459
3.812, 2, 35.8474, 47.941, -13.785, 97.4075, -50.9951, 46.0459
3.816, 2, 35.8474, 47.941, -13.785, 97.4075, -50.9951, 46.0459
3.82, 2, 35.8474, 47.941, -13.785, 97.4075, -50.9951, 46.0459
3.824, 2, 35.8474, 47.941, -13.785, 97.4075, -50.9951, 46.0459
3.828, 2, 35.8474, 47.941, -13.785, 97.4075, -50.9951, 46.0459
3.832, 2, 35.8474, 47.941, -13.785, 97.4075, -50.9951, 46.0459
3.836, 2, 35.8474, 47.941, -13.785, 97.4075, -50.9951, 46.0459
3.84, 2, 35.8474, 47.941, -13.785, 97.4075, -50.9951, 46.0459
3.844, 2, 35.8474, 47.941, -13.785, 97.4075, -50.9951, 46.0459
3.848, 2, 35.8474, 47.941, -13.785, 97.4075, -50.9951, 46.0459
3.852, 2, 35.8474, 47.941, -13.785, 97.4075, -50.9951, 46.0459
3.856, 2, 35.8474, 47.941, -13.785, 97.4075, -50.9951, 46.0459
3.86, 2, 35.8474, 47.941, -13.785, 97.4075, -50.9951, 46.0459
3.864, 2, 35.8474, 47.941, -13.785, 97.4075, -50.9951, 46.0459
3.868, 2, 35.8474, 47.941, -13.785, 97.4075, -50.9951, 46.0459
3.872, 2, 35.8474, 47.941, -13.785, 97.4075, -50.9951, 46.0459
3.876, 2, 35.8474, 47.941, -13.785, 97.4075, -50.9951, 46.0459
3.88, 2, 35.8474, 47.941, -13.785, 97.4075, -50.9951, 46.0459
3.884, 2, 35.8474, 47.941, -13.785, 97.4075, -50.9951, 46.0459
3.888, 2, 35.8474, 47.941, -13.785, 97.4075, -50.9951, 46.0459
3.892, 2, 35.8474, 47.941, -13.785, 97.4075, -50.9951, 46.0459
3.896, 2, 35.8474, 47.941, -13.785, 97.4075, -50.9951, 46.0459
3.9, 2, 35.8474, 47.941, -13.785, 97.4075, -50.9951, 46.0459
3.904, 2, 35.8474, 47.941, -13.785, 97.4075, -50.9951, 46.0459
3.908, 2, 35.8474, 47.941, -13.785, 97.4075, -50.9951, 46.0459
3.912, 2, 35.8474, 47.941, -13.785, 97.4075, -50.9951, 46.0459
3.916, 2, 35.8474, 47.941, -13.785, 97.4075, -50.9951, 46.0459
3.92, 2, 35.8474, 47.941, -13.785, 97.4075, -50.9951, 46.0459
3.924, 2, 35.8474, 47.941, -13.785, 97.4075, -50.9951, 46.0459
3.928, 2, 35.8474, 47.941, -13.785, 97.4075, -50.9951, 46.0459
3.932, 2, 35.8474, 47.941, -13.785, 97.4075, -50.9951, 46.0459
3.936, 2, 35.8474, 47.941, -13.785, 97.4075, -50.9951, 46.0459
3.94, 2, 35.8474, 47.941, -13.785, 97.4075, -50.9951, 46.0459
3.944, 2, 35.8474, 47.941, -13.785, 97.4075, -50.9951, 46.0459
3.948, 2, 35.8474, 47.941, -13.785, 97.4075, -50.9951, 46.0459
3.952, 2, 35.8474, 47.941, -13.785, 97.4075, -50.9951, 46.0459
3.956, 2, 35.8474, 47.941, -13.785, 97.4075, -50.9951, 46.0459
3.96, 2, 35.8474, 47.941, -13.785, 97.4075, -50.9951, 46.0459
3.964, 2, 35.8474, 47.941, -13.785, 97.4075, -50.9951, 46.0459
3.968, 2, 35.8474, 47.941, -13.785, 97.4075, -50.9951, 46.0459
3.972, 2, 35.8474, 47.941, -13.785, 97.4075, -50.9951, 46.0459
3.976, 2, 35.8474, 47.941, -13.785, 97.4075, -50.9951, 46.0459
3.98, 2, 35.8474, 47.941, -13.785, 97.4075, -50.9951, 46.0459
3.984, 2, 35.8474, 47.941, -13.785, 97.4075, -50.9951, 46.0459
3.988, 2, 35.8474, 47.941, -13.785, 97.4075, -50.9951, 46.0459
3.992, 2, 35.8474, 47.941, -13.785, 97.4075, -50.9951, 46.0459
3.996, 2, 35.8474, 47.941, -13.785, 97.4075, -50.9951, 46.0459
3.999, 2, 35.8474, 47.941, -13.785, 97.4075, -50.9951, 46.0459
4.004, 2, 35.8474, 47.941, -13.785, 97.4075, -50.9951, 46.0459
4.008, 2, 35.8474, 47.941, -13.785, 97.4075, -50.9951, 46.0459
4.012, 2, 35.8474, 47.941, -13.785, 97.4075, -50.9951, 46.0459
4.016, 2, 35.8474, 47.941, -13.785, 97.4075, -50.9951, 46.0459
4.02, 2, 35.8474, 47.941, -13.785, 97.4075, -50.9951, 46.0459
4.024, 2, 35.8474, 47.941, -13.785, 97.4075, -50.9951, 46.0459
4.028, 2, 35.8474, 47.941, -13.785, 97.4075, -50.9951, 46.0459
4.032, 2, 35.8474, 47.941, -13.785, 97.4075, -50.9951, 46.0459
4.036, 2, 35.8474, 47.941, -13.785, 97.4075, -50.9951, 46.0459
4.04, 2, 35.8474, 47.941, -13.785, 97.4075, -50.9951, 46.0459
4.044, 2, 35.8474, 47.941, -13.785, 97.4075, -50.9951, 46.0459
4.048, 2, 35.8474, 47.941, -13.785, 97.4075, -50.9951, 46.0459
4.052, 2, 35.8474, 47.941, -13.785, 97.4075, -50.9951, 46.0459
4.056, 2, 35.8474, 47.941, -13.785, 97.4075, -50.9951, 46.0459
4.06, 2, 35.8474, 47.941, -13.785, 97.4075, -50.9951, 46.0459
4.064, 2, 35.8474, 47.941, -13.785, 97.4075, -50.9951, 46.0459
4.068, 2, 35.8474, 47.941, -13.785, 97.4075, -50.9951, 46.0459
4.072, 2, 35.8474, 47.941, -13.785, 97.4075, -50.9951, 46.0459
4.076, 2, 35.8474, 47.941, -13.785, 97.4075, -50.9951, 46.0459
4.08, 2, 35.8474, 47.941, -13.785, 97.4075, -50.9951, 46.0459
4.084, 2, 35.8474, 47.941, -13.785, 97.4075, -50.9951, 46.0459
4.088, 2, 35.8474, 47.941, -13.785, 97.4075, -50.9951, 46.0459
4.092, 2, 35.8474, 47.941, -13.785, 97.4075, -50.9951, 46.0459
4.096, 2, 35.8474, 47.941, -13.785, 97.4075, -50.9951, 46.0459
4.1, 2, 35.8474, 47.941, -13.785, 97.4075, -50.9951, 46.0459
4.104, 2, 35.8474, 47.941, -13.785, 97.4075, -50.9951, 46.0459
4.108, 2, 35.8474, 47.941, -13.785, 97.4075, -50.9951, 46.0459
4.112, 2, 35.8474, 47.941, -13.785, 97.4075, -50.9951, 46.0459
4.116, 2, 35.8474, 47.941, -13.785, 97.4075, -50.9951, 46.0459
4.12, 2, 35.8474, 47.941, -13.785, 97.4075, -50.9951, 46.0459
4.124, 2, 35.8474, 47.941, -13.785, 97.4075, -50.9951, 46.0459
4.128, 2, 35.8474, 47.941, -13.785, 97.4075, -50.9951, 46.0459
4.132, 2, 35.8474, 47.941, -13.785, 97.4075, -50.9951, 46.0459
4.136, 2, 35.8474, 47.941, -13.785, 97.4075, -50.9951, 46.0459
4.14, 2, 35.8474, 47.941, -13.785, 97.4075, -50.9951, 46.0459
4.144, 2, 35.8474, 47.941, -13.785, 97.4075, -50.9951, 46.0459
4.148, 2, 35.8474, 47.941, -13.785, 97.4075, -50.9951, 46.0459
4.152, 2, 35.8474, 47.941, -13.785, 97.4075, -50.9951, 46.0459
4.156, 2, 35.8474, 47.941, -13.785, 97.4075, -50.9951, 46.0459
4.16, 2, 35.8474, 47.941, -13.785, 97.4075, -50.9951, 46.0459
4.164, 2, 35.8474, 47.941, -13.785, 97.4075, -50.9951, 46.0459
4.168, 2, 35.8474, 47.941, -13.785, 97.4075, -50.9951, 46.0459
4.172, 2, 35.8474, 47.941, -13.785, 97.4075, -50.9951, 46.0459
4.176, 2, 35.8474, 47.941, -13.785, 97.4075, -50.9951, 46.0459
4.18, 2, 35.8474, 47.941, -13.785, 97.4075, -50.9951, 46.0459
4.184, 2, 35.8474, 47.941, -13.785, 97.4075, -50.9951, 46.0459
4.188, 2, 35.8474, 47.941, -13.785, 97.4075, -50.9951, 46.0459
4.192, 2, 35.8474, 47.941, -13.785, 97.4075, -50.9951, 46.0459
4.196, 2, 35.8474, 47.941, -13.785, 97.4075, -50.9951, 46.0459
4.2, 2, 35.8474, 47.941, -13.785, 97.4075, -50.9951, 46.0459
4.204, 2, 35.8474, 47.941, -13.785, 97.4075, -50.9951, 46.0459
4.208, 2, 35.8474, 47.941, -13.785, 97.4075, -50.9951, 46.0459
4.212, 2, 35.8474, 47.941, -13.785, 97.4075, -50.9951, 46.0459
4.216, 2, 35.8474, 47.941, -13.785, 97.4075, -50.9951, 46.0459
4.22, 2, 35.8474, 47.941, -13.785, 97.4075, -50.9951, 46.0459
4.224, 2, 35.8474, 47.941, -13.785, 97.4075, -50.9951, 46.0459
4.228, 2, 35.8474, 47.941, -13.785, 97.4075, -50.9951, 46.0459
4.232, 2, 35.8474, 47.941, -13.785, 97.4075, -50.9951, 46.0459
4.236, 2, 35.8474, 47.941, -13.785, 97.4075, -50.9951, 46.0459
4.24, 2, 35.8474, 47.941, -13.785, 97.4075, -50.9951, 46.0459
4.244, 2, 35.8474, 47.941, -13.785, 97.4075, -50.9951, 46.0459
4.248, 2, 35.8474, 47.941, -13.785, 97.4075, -50.9951, 46.0459
4.252, 2, 35.8474, 47.941, -13.785, 97.4075, -50.9951, 46.0459
4.256, 2, 35.8474, 47.941, -13.785, 97.4075, -50.9951, 46.0459
4.26, 2, 35.8474, 47.941, -13.785, 97.4075, -50.9951, 46.0459
4.264, 2, 35.8474, 47.941, -13.785, 97.4075, -50.9951, 46.0459
4.268, 2, 35.8474, 47.941, -13.785, 97.4075, -50.9951, 46.0459
4.272, 2, 35.8474, 47.941, -13.785, 97.4075, -50.9951, 46.0459
4.276, 2, 35.8474, 47.941, -13.785, 97.4075, -50.9951, 46.0459
4.28, 2, 35.8474, 47.941, -13.785, 97.4075, -50.9951, 46.0459
4.284, 2, 35.8474, 47.941, -13.785, 97.4075, -50.9951, 46.0459
4.288, 2, 35.8474, 47.941, -13.785, 97.4075, -50.9951, 46.0459
4.292, 2, 35.8474, 47.941, -13.785, 97.4075, -50.9951, 46.0459
4.296, 2, 35.8474, 47.941, -13.785, 97.4075, -50.9951, 46.0459
4.3, 2, 35.8474, 47.941, -13.785, 97.4075, -50.9951, 46.0459
4.304, 2, 35.8474, 47.941, -13.785, 97.4075, -50.9951, 46.0459
4.308, 2, 35.8474, 47.941, -13.785, 97.4075, -50.9951, 46.0459
4.312, 2, 35.8474, 47.941, -13.785, 97.4075, -50.9951, 46.0459
4.316, 2, 35.8474, 47.941, -13.785, 97.4075, -50.9951, 46.0459
4.32, 2, 35.8474, 47.941, -13.785, 97.4075, -50.9951, 46.0459
4.324, 2, 35.8474, 47.941, -13.785, 97.4075, -50.9951, 46.0459
4.328, 2, 35.8474, 47.941, -13.785, 97.4075, -50.9951, 46.0459
4.332, 2, 35.8474, 47.941, -13.785, 97.4075, -50.9951, 46.0459
4.336, 2, 35.8474, 47.941, -13.785, 97.4075, -50.9951, 46.0459
4.34, 2, 35.8474, 47.941, -13.785, 97.4075, -50.9951, 46.0459
4.344, 2, 35.8474, 47.941, -13.785, 97.4075, -50.9951, 46.0459
4.348, 2, 35.8474, 47.941, -13.785, 97.4075, -50.9951, 46.0459
4.352, 2, 35.8474, 47.941, -13.785, 97.4075, -50.9951, 46.0459
4.356, 2, 35.8474, 47.941, -13.785, 97.4075, -50.9951, 46.0459
4.36, 2, 35.8474, 47.941, -13.785, 97.4075, -50.9951, 46.0459
4.364, 2, 35.8474, 47.941, -13.785, 97.4075, -50.9951, 46.0459
4.368, 2, 35.8474, 47.941, -13.785, 97.4075, -50.9951, 46.0459
4.372, 2, 35.8474, 47.941, -13.785, 97.4075, -50.9951, 46.0459
4.376, 2, 35.8474, 47.941, -13.785, 97.4075, -50.9951, 46.0459
4.38, 2, 35.8474, 47.941, -13.785, 97.4075, -50.9951, 46.0459
4.384, 2, 35.8474, 47.941, -13.785, 97.4075, -50.9951, 46.0459
4.388, 2, 35.8474, 47.941, -13.785, 97.4075, -50.9951, 46.0459
4.392, 3, 35.8474, 47.941, -13.785, 97.4075, -50.9951, 46.0459
4.396, 3, 35.8474, 47.941, -13.785, 97.4075, -50.9951, 46.0459
4.4, 3, 35.8474, 47.941, -13.785, 97.4075, -50.9951, 46.0459
4.404, 3, 35.8474, 47.941, -13.785, 97.4075, -50.9951, 46.0459
4.408, 3, 35.8474, 47.941, -13.785, 97.4075, -50.9951, 46.0459
4.412, 3, 35.8474, 47.941, -13.785, 97.4075, -50.9951, 46.0459
4.416, 3, 35.8474, 47.941, -13.785, 97.4075, -50.9951, 46.0459
4.42, 3, 35.8474, 47.941, -13.785, 97.4075, -50.9951, 46.0459
4.424, 3, 35.8474, 47.941, -13.785, 97.4075, -50.9951, 46.0459
4.428, 3, 35.8474, 47.941, -13.785, 97.4075, -50.9951, 46.0459
4.432, 4, 35.8474, 47.941, -13.785, 97.4075, -50.9951, 46.0459
4.436, 4, 35.8474, 47.941, -13.785, 97.4075, -50.9951, 46.0459
4.44, 4, 35.8474, 47.941, -13.785, 97.4075, -50.9951, 46.0459
4.444, 4, 35.8474, 47.941, -13.785, 97.4075, -50.9951, 46.0459
4.448, 4, 35.8474, 47.941, -13.785, 97.4075, -50.9951, 46.0459
4.452, 4, 35.8474, 47.941, -13.785, 97.4075, -50.9951, 46.0459
4.456, 4, 35.8474, 47.941, -13.785, 97.4075, -50.9951, 46.0459
4.46, 4, 35.8474, 47.941, -13.785, 97.4075, -50.9951, 46.0459
4.464, 4, 35.8474, 47.941, -13.785, 97.4075, -50.9951, 46.0459
4.468, 4, 35.8474, 47.941, -13.785, 97.4075, -50.9951, 46.0459
4.472, 4, 35.8474, 47.941, -13.785, 97.4075, -50.9951, 46.0459
4.476, 4, 35.8474, 47.941, -13.785, 97.4075, -50.9951, 46.0459
4.48, 4, 35.8474, 47.941, -13.785, 97.4075, -50.9951, 46.0459
4.484, 4, 35.8474, 47.941, -13.785, 97.4075, -50.9951, 46.0459
4.488, 4, 35.8474, 47.941, -13.785, 97.4075, -50.9951, 46.0459
4.492, 4, 35.8474, 47.941, -13.785, 97.4075, -50.9951, 46.0459
4.496, 4, 35.8474, 47.941, -13.785, 97.4075, -50.9951, 46.0459
4.5, 4, 35.8474, 47.941, -13.785, 97.4075, -50.9951, 46.0459
4.504, 4, 35.8474, 47.941, -13.785, 97.4075, -50.9951, 46.0459
4.508, 4, 35.8474, 47.941, -13.785, 97.4075, -50.9951, 46.0459
4.512, 4, 35.8474, 47.941, -13.785, 97.4075, -50.9951, 46.0459
4.516, 4, 35.8474, 47.941, -13.785, 97.4075, -50.9951, 46.0459
4.52, 4, 35.8474, 47.941, -13.785, 97.4075, -50.9951, 46.0459
4.524, 4, 35.8474, 47.941, -13.785, 97.4075, -50.9951, 46.0459
4.528, 4, 35.8474, 47.941, -13.785, 97.4075, -50.9951, 46.0459
4.532, 5, 35.8474, 47.941, -13.785, 97.4075, -50.9951, 46.0459
4.536, 5, 35.8474, 47.941, -13.785, 97.4075, -50.9951, 46.0459
4.54, 6, 35.8474, 47.941, -13.785, 97.4075, -50.9951, 46.0459
4.544, 6, 35.8474, 47.941, -13.785, 97.4075, -50.9951, 46.0459
4.548, 6, 35.8474, 47.941, -13.785, 97.4075, -50.9951, 46.0459
4.552, 7, 35.8474, 47.941, -13.785, 97.4075, -50.9951, 46.0459
4.556, 7, 35.8474, 47.941, -13.785, 97.4075, -50.9951, 46.0459
4.56, 7, 35.8474, 47.941, -13.785, 97.4075, -50.9951, 46.0459
4.564, 7, 35.8474, 47.941, -13.785, 97.4075, -50.9951, 46.0459
4.568, 7, 35.8474, 47.941, -13.785, 97.4075, -50.9951, 46.0459
4.572, 7, 35.8474, 47.941, -13.785, 97.4075, -50.9951, 46.0459
4.576, 7, 35.8474, 47.941, -13.785, 97.4075, -50.9951, 46.0459
4.58, 7, 35.8474, 47.9411, -13.785, 97.4075, -50.9951, 46.0459
4.585, 8, 35.8474, 47.9412, -13.785, 97.4075, -50.9951, 46.0459
4.588, 8, 35.8474, 47.9416, -13.785, 97.4075, -50.9952, 46.0459
4.591, 8, 35.8475, 47.9423, -13.7851, 97.4075, -50.9953, 46.0458
4.596, 8, 35.8475, 47.9436, -13.7851, 97.4075, -50.9956, 46.0457
4.6, 8, 35.8477, 47.9454, -13.7852, 97.4074, -50.9963, 46.0455
4.604, 8, 35.8479, 47.948, -13.7854, 97.4073, -50.9976, 46.045
4.608, 8, 35.8481, 47.9514, -13.7858, 97.4072, -50.9999, 46.0442
4.612, 8, 35.8483, 47.9559, -13.7863, 97.407, -51.0036, 46.0429
4.616, 8, 35.8486, 47.9615, -13.7872, 97.4067, -51.0092, 46.041
4.62, 8, 35.8489, 47.9686, -13.7884, 97.4062, -51.0174, 46.0381
4.624, 8, 35.8492, 47.9773, -13.7902, 97.4055, -51.0288, 46.0341
4.628, 8, 35.8495, 47.9878, -13.7925, 97.4045, -51.0444, 46.0287
4.632, 8, 35.8498, 48.0005, -13.7956, 97.4032, -51.0651, 46.0215
4.636, 8, 35.8502, 48.0152, -13.7996, 97.4015, -51.0919, 46.0122
4.64, 8, 35.8505, 48.0322, -13.8046, 97.3993, -51.1256, 46.0005
4.644, 8, 35.8509, 48.0514, -13.8108, 97.3966, -51.1675, 45.986
4.648, 8, 35.8513, 48.073, -13.8182, 97.3932, -51.2183, 45.9685
4.652, 8, 35.8518, 48.097, -13.8271, 97.389, -51.2789, 45.9476
4.656, 8, 35.8524, 48.1237, -13.8375, 97.3841, -51.35, 45.9231
4.66, 8, 35.853, 48.1529, -13.8494, 97.3783, -51.4322, 45.8949
4.664, 8, 35.8537, 48.1848, -13.863, 97.3715, -51.5257, 45.8628
4.668, 8, 35.8544, 48.2192, -13.8781, 97.3637, -51.6307, 45.8268
4.672, 8, 35.8551, 48.256, -13.8947, 97.3549, -51.7472, 45.787
4.676, 8, 35.8558, 48.2953, -13.9129, 97.345, -51.875, 45.7435
4.68, 8, 35.8565, 48.3368, -13.9325, 97.3341, -52.0134, 45.6964
4.684, 8, 35.8572, 48.3808, -13.9533, 97.322, -52.1618, 45.6461
4.688, 8, 35.8579, 48.4272, -13.9753, 97.309, -52.3194, 45.5928
4.692, 8, 35.8586, 48.476, -13.9983, 97.2948, -52.4853, 45.5369
4.696, 8, 35.8595, 48.527, -14.0221, 97.2797, -52.6583, 45.4787
4.7, 8, 35.8604, 48.5801, -14.0465, 97.2637, -52.8375, 45.4186
4.705, 9, 35.8613, 48.6351, -14.0714, 97.2468, -53.0219, 45.3569
4.708, 9, 35.8623, 48.6917, -14.0967, 97.229, -53.2105, 45.2941
4.712, 9, 35.8633, 48.75, -14.1222, 97.2104, -53.4025, 45.2303
4.716, 9, 35.8643, 48.8096, -14.1478, 97.1911, -53.5971, 45.1659
4.72, 9, 35.8651, 48.8705, -14.1734, 97.171, -53.7935, 45.1011
4.724, 9, 35.8659, 48.9325, -14.1989, 97.1503, -53.9912, 45.036
4.728, 9, 35.8665, 48.9955, -14.2242, 97.129, -54.1898, 44.9709
4.732, 9, 35.867, 49.0591, -14.2493, 97.1071, -54.3889, 44.9059
4.736, 9, 35.8674, 49.1232, -14.2741, 97.0846, -54.5882, 44.841
4.74, 9, 35.8675, 49.1877, -14.2987, 97.0616, -54.7878, 44.7762
4.744, 9, 35.8676, 49.2522, -14.3229, 97.038, -54.9873, 44.7117
4.748, 9, 35.8674, 49.3169, -14.3469, 97.0138, -55.1868, 44.6474
4.752, 9, 35.8672, 49.3815, -14.3705, 96.9891, -55.3862, 44.5833
4.756, 9, 35.8667, 49.4461, -14.3938, 96.9639, -55.5854, 44.5195
4.76, 9, 35.8661, 49.5106, -14.4167, 96.9381, -55.7845, 44.456
4.764, 9, 35.8654, 49.5751, -14.4393, 96.9118, -55.9834, 44.3927
4.768, 9, 35.8645, 49.6394, -14.4616, 96.885, -56.1822, 44.3296
4.772, 9, 35.8634, 49.7036, -14.4835, 96.8577, -56.3807, 44.2669
4.776, 9, 35.8621, 49.7676, -14.505, 96.8298, -56.579, 44.2043
4.78, 9, 35.8608, 49.8315, -14.5262, 96.8015, -56.7772, 44.142
4.784, 9, 35.8592, 49.8953, -14.5471, 96.7727, -56.9751, 44.08
4.788, 9, 35.8575, 49.959, -14.5676, 96.7433, -57.1729, 44.0182
4.792, 9, 35.8556, 50.0225, -14.5877, 96.7135, -57.3704, 43.9567
4.796, 9, 35.8536, 50.0858, -14.6075, 96.6831, -57.5677, 43.8954
4.801, 10, 35.8514, 50.149, -14.6269, 96.6523, -57.7648, 43.8343
4.804, 10, 35.8491, 50.212, -14.646, 96.621, -57.9618, 43.7734
4.807, 10, 35.8466, 50.2749, -14.6647, 96.5892, -58.1585, 43.7128
4.812, 10, 35.844, 50.3376, -14.683, 96.557, -58.355, 43.6524
4.816, 10, 35.8412, 50.4002, -14.701, 96.5242, -58.5513, 43.5923
4.82, 10, 35.8382, 50.4626, -14.7186, 96.491, -58.7474, 43.5323
4.824, 10, 35.8351, 50.5248, -14.7358, 96.4574, -58.9432, 43.4726
4.828, 10, 35.8318, 50.5869, -14.7526, 96.4232, -59.1389, 43.413
4.832, 10, 35.8283, 50.6488, -14.7691, 96.3886, -59.3344, 43.3537
4.836, 10, 35.8247, 50.7105, -14.7852, 96.3535, -59.5296, 43.2946
4.84, 10, 35.821, 50.7721, -14.8009, 96.318, -59.7247, 43.2357
4.844, 10, 35.8171, 50.8335, -14.8162, 96.2821, -59.9195, 43.1769
4.848, 10, 35.813, 50.8947, -14.8312, 96.2456, -60.1142, 43.1184
4.852, 10, 35.8088, 50.9558, -14.8457, 96.2088, -60.3086, 43.0601
4.856, 10, 35.8044, 51.0166, -14.8599, 96.1715, -60.5028, 43.0019
4.86, 10, 35.7998, 51.0772, -14.8737, 96.1337, -60.6968, 42.9439
4.864, 10, 35.795, 51.1375, -14.887, 96.0955, -60.8905, 42.8862
4.868, 10, 35.79, 51.1975, -14.9, 96.0569, -61.0841, 42.8286
4.872, 10, 35.7848, 51.2572, -14.9124, 96.0178, -61.2773, 42.7712
4.876, 10, 35.7794, 51.3164, -14.9244, 95.9782, -61.4702, 42.7141
4.88, 10, 35.7737, 51.3753, -14.9357, 95.9381, -61.6626, 42.6572
4.884, 10, 35.7677, 51.4336, -14.9465, 95.8975, -61.8546, 42.6006
4.888, 10, 35.7616, 51.4914, -14.9566, 95.8564, -62.046, 42.5444
4.892, 10, 35.7552, 51.5486, -14.9658, 95.8146, -62.2367, 42.4885
4.897, 11, 35.7486, 51.6052, -14.9742, 95.7722, -62.4265, 42.433
4.899, 11, 35.7418, 51.6612, -14.9817, 95.7292, -62.6155, 42.378
4.904, 11, 35.7347, 51.7165, -14.9881, 95.6856, -62.8033, 42.3235
4.908, 11, 35.7274, 51.7712, -14.9933, 95.6412, -62.9901, 42.2695
4.912, 11, 35.7199, 51.8254, -14.9974, 95.596, -63.1755, 42.2161
4.916, 11, 35.7122, 51.879, -15.0002, 95.5501, -63.3596, 42.1633
4.92, 11, 35.7043, 51.9322, -15.0018, 95.5035, -63.5424, 42.1111
4.924, 11, 35.6963, 51.9848, -15.002, 95.4561, -63.7237, 42.0595
4.928, 11, 35.688, 52.037, -15.0009, 95.408, -63.9036, 42.0085
4.932, 11, 35.6796, 52.0886, -14.9986, 95.3592, -64.0822, 41.9581
4.936, 11, 35.6709, 52.1395, -14.995, 95.3098, -64.2595, 41.9082
4.94, 11, 35.662, 52.1899, -14.9903, 95.2597, -64.4356, 41.8588
4.944, 11, 35.6529, 52.2395, -14.9845, 95.209, -64.6106, 41.8098
4.948, 11, 35.6436, 52.2885, -14.9776, 95.1577, -64.7846, 41.7612
4.952, 11, 35.6341, 52.3369, -14.9699, 95.106, -64.9578, 41.713
4.956, 11, 35.6243, 52.3847, -14.9613, 95.0538, -65.1303, 41.665
4.96, 11, 35.6143, 52.4319, -14.9519, 95.0012, -65.3021, 41.6172
4.964, 11, 35.6041, 52.4785, -14.9418, 94.9482, -65.4734, 41.5697
4.968, 11, 35.5937, 52.5246, -14.9311, 94.8949, -65.6442, 41.5222
4.972, 11, 35.5831, 52.5702, -14.9198, 94.8412, -65.8147, 41.4749
4.976, 11, 35.5723, 52.6153, -14.908, 94.7873, -65.9849, 41.4277
4.98, 11, 35.5613, 52.6601, -14.8956, 94.733, -66.1548, 41.3805
4.984, 11, 35.5501, 52.7045, -14.8828, 94.6785, -66.3245, 41.3334
4.988, 11, 35.5387, 52.7486, -14.8695, 94.6238, -66.4939, 41.2864
4.992, 11, 35.5272, 52.7923, -14.8557, 94.5688, -66.6632, 41.2393
4.996, 11, 35.5156, 52.8357, -14.8415, 94.5135, -66.8322, 41.1923
5, 11, 35.5037, 52.8787, -14.8268, 94.458, -67.001, 41.1454
5.004, 11, 35.4917, 52.9213, -14.8116, 94.4022, -67.1696, 41.0985
5.008, 11, 35.4795, 52.9634, -14.796, 94.3462, -67.3379, 41.0518
5.012, 11, 35.467, 53.005, -14.7797, 94.2899, -67.5059, 41.0052
5.016, 12, 35.4544, 53.046, -14.7629, 94.2334, -67.6735, 40.9589
5.022, 12, 35.4415, 53.0864, -14.7454, 94.1766, -67.8406, 40.913
5.024, 12, 35.4285, 53.1262, -14.7272, 94.1196, -68.007, 40.8675
5.028, 12, 35.4153, 53.1653, -14.7081, 94.0623, -68.1727, 40.8227
5.032, 12, 35.4018, 53.2037, -14.6882, 94.0047, -68.3376, 40.7786
5.036, 12, 35.3882, 53.2413, -14.6673, 93.9469, -68.5014, 40.7354
5.04, 12, 35.3743, 53.2781, -14.6453, 93.8887, -68.6641, 40.6933
5.044, 12, 35.3603, 53.3142, -14.6222, 93.8303, -68.8254, 40.6525
5.048, 12, 35.346, 53.3496, -14.5979, 93.7717, -68.9854, 40.6129
5.052, 12, 35.3316, 53.3844, -14.5723, 93.7127, -69.1438, 40.5749
5.056, 12, 35.317, 53.4187, -14.5454, 93.6535, -69.3006, 40.5384
5.06, 12, 35.3023, 53.4524, -14.5172, 93.594, -69.4558, 40.5034
5.064, 12, 35.2874, 53.4856, -14.4877, 93.5343, -69.6093, 40.4701
5.068, 12, 35.2723, 53.5181, -14.4569, 93.4743, -69.7613, 40.4383
5.072, 12, 35.2571, 53.55, -14.4248, 93.4141, -69.9117, 40.408
5.076, 12, 35.2416, 53.5812, -14.3916, 93.3537, -70.0607, 40.379
5.08, 12, 35.226, 53.6116, -14.3573, 93.2931, -70.2084, 40.3513
5.084, 12, 35.2101, 53.6412, -14.322, 93.2322, -70.3549, 40.3247
5.088, 12, 35.1941, 53.6701, -14.2857, 93.1712, -70.5004, 40.2991
5.092, 12, 35.1779, 53.6984, -14.2486, 93.11, -70.645, 40.2743
5.096, 12, 35.1615, 53.7259, -14.2108, 93.0486, -70.7889, 40.2501
5.1, 12, 35.1449, 53.7529, -14.1723, 92.9871, -70.9322, 40.2265
5.104, 12, 35.1282, 53.7792, -14.1332, 92.9254, -71.075, 40.2032
5.108, 12, 35.1112, 53.8051, -14.0936, 92.8635, -71.2174, 40.1803
5.112, 12, 35.0941, 53.8304, -14.0535, 92.8015, -71.3595, 40.1575
5.116, 12, 35.0767, 53.8553, -14.013, 92.7394, -71.5013, 40.1349
5.12, 12, 35.0592, 53.8798, -13.9721, 92.6771, -71.643, 40.1124
5.124, 12, 35.0416, 53.904, -13.9308, 92.6147, -71.7845, 40.0899
5.128, 12, 35.0238, 53.9278, -13.8891, 92.5521, -71.9259, 40.0674
5.132, 12, 35.0058, 53.9512, -13.847, 92.4894, -72.0671, 40.045
5.136, 12, 34.9877, 53.9741, -13.8045, 92.4266, -72.2081, 40.0227
5.14, 12, 34.9694, 53.9966, -13.7616, 92.3636, -72.3489, 40.0004
5.144, 12, 34.9509, 54.0186, -13.7182, 92.3004, -72.4895, 39.9783
5.148, 12, 34.9322, 54.0401, -13.6742, 92.237, -72.6297, 39.9564
5.152, 12, 34.9134, 54.0609, -13.6295, 92.1733, -72.7695, 39.9348
5.156, 12, 34.8944, 54.0812, -13.5841, 92.1094, -72.9087, 39.9136
5.16, 12, 34.8752, 54.1006, -13.5379, 92.0452, -73.0471, 39.893
5.164, 12, 34.8559, 54.1194, -13.4907, 91.9806, -73.1847, 39.8731
5.168, 12, 34.8364, 54.1372, -13.4425, 91.9156, -73.3213, 39.8541
5.172, 12, 34.8167, 54.1543, -13.393, 91.8502, -73.4568, 39.836
5.176, 12, 34.7969, 54.1705, -13.3423, 91.7843, -73.5909, 39.819
5.18, 12, 34.7769, 54.1859, -13.2903, 91.7179, -73.7236, 39.8033
5.184, 13, 34.7567, 54.2006, -13.2367, 91.651, -73.8547, 39.7889
5.19, 13, 34.7364, 54.2147, -13.1817, 91.5836, -73.9841, 39.7759
5.192, 13, 34.716, 54.2281, -13.1251, 91.5156, -74.1119, 39.7644
5.196, 13, 34.6954, 54.2408, -13.067, 91.4471, -74.2378, 39.7544
5.2, 13, 34.6747, 54.2529, -13.0074, 91.3781, -74.3621, 39.7459
5.204, 13, 34.6538, 54.2642, -12.9463, 91.3085, -74.4848, 39.7388
5.209, 14, 34.6327, 54.2747, -12.8838, 91.2385, -74.6059, 39.7329
5.212, 14, 34.6115, 54.2844, -12.8201, 91.1681, -74.7256, 39.7283
5.215, 14, 34.59, 54.2933, -12.7551, 91.0973, -74.844, 39.7247
5.22, 14, 34.5685, 54.3014, -12.6891, 91.0262, -74.9612, 39.722
5.224, 14, 34.5468, 54.3087, -12.6221, 90.9548, -75.0775, 39.7201
5.228, 14, 34.5249, 54.3152, -12.5542, 90.8831, -75.1929, 39.7189
5.232, 14, 34.5029, 54.3211, -12.4856, 90.8112, -75.3077, 39.7181
5.236, 14, 34.4806, 54.3262, -12.4164, 90.7392, -75.4219, 39.7178
5.24, 14, 34.4582, 54.3307, -12.3465, 90.667, -75.5356, 39.7177
5.244, 14, 34.4355, 54.3345, -12.2761, 90.5947, -75.649, 39.7179
5.248, 14, 34.4127, 54.3377, -12.2053, 90.5222, -75.762, 39.7184
5.252, 14, 34.3896, 54.3403, -12.1339, 90.4497, -75.8747, 39.719
5.256, 14, 34.3664, 54.3423, -12.062, 90.3771, -75.9869, 39.72
5.26, 14, 34.343, 54.3438, -11.9896, 90.3044, -76.0988, 39.7213
5.264, 14, 34.3195, 54.3447, -11.9167, 90.2316, -76.2101, 39.723
5.268, 14, 34.2958, 54.3451, -11.8431, 90.1587, -76.3209, 39.7253
5.272, 14, 34.272, 54.3448, -11.7688, 90.0857, -76.431, 39.7282
5.276, 14, 34.2481, 54.3441, -11.6938, 90.0126, -76.5403, 39.7319
5.28, 14, 34.2241, 54.3427, -11.6181, 89.9393, -76.6487, 39.7365
5.284, 14, 34.1999, 54.3408, -11.5414, 89.8658, -76.7562, 39.7421
5.288, 14, 34.1757, 54.3384, -11.464, 89.7923, -76.8626, 39.7487
5.292, 14, 34.1513, 54.3355, -11.3856, 89.7186, -76.968, 39.7565
5.296, 14, 34.1269, 54.3321, -11.3063, 89.6447, -77.0722, 39.7654
5.3, 14, 34.1023, 54.3282, -11.2261, 89.5707, -77.1753, 39.7756
5.304, 14, 34.0777, 54.3238, -11.1451, 89.4967, -77.2773, 39.7869
5.308, 14, 34.0529, 54.3189, -11.0633, 89.4225, -77.3783, 39.7993
5.312, 14, 34.028, 54.3134, -10.9806, 89.3483, -77.4783, 39.8128
5.316, 14, 34.0031, 54.3075, -10.8973, 89.274, -77.5774, 39.8272
5.32, 14, 33.978, 54.301, -10.8134, 89.1997, -77.6758, 39.8424
5.324, 14, 33.9528, 54.2941, -10.7289, 89.1254, -77.7735, 39.8583
5.328, 14, 33.9275, 54.2867, -10.644, 89.0511, -77.8706, 39.8749
5.332, 14, 33.9021, 54.2789, -10.5586, 88.9768, -77.9672, 39.8919
5.336, 14, 33.8766, 54.2707, -10.4729, 88.9026, -78.0636, 39.9093
5.34, 14, 33.8509, 54.262, -10.387, 88.8285, -78.1596, 39.9269
5.344, 14, 33.8251, 54.253, -10.3008, 88.7544, -78.2554, 39.9447
5.348, 14, 33.7991, 54.2436, -10.2144, 88.6804, -78.3512, 39.9627
5.352, 14, 33.7729, 54.2337, -10.1278, 88.6065, -78.4467, 39.9807
5.356, 14, 33.7466, 54.2235, -10.041, 88.5327, -78.5422, 39.9988
5.36, 14, 33.7201, 54.2128, -9.95402, 88.4589, -78.6375, 40.0171
5.364, 14, 33.6934, 54.2017, -9.8667, 88.3851, -78.7325, 40.0357
5.368, 14, 33.6666, 54.1902, -9.77904, 88.3113, -78.8272, 40.0545
5.372, 14, 33.6398, 54.1782, -9.69094, 88.2374, -78.9215, 40.0737
5.376, 14, 33.6128, 54.1658, -9.60234, 88.1634, -79.0152, 40.0935
5.38, 14, 33.5857, 54.1528, -9.51313, 88.0893, -79.1083, 40.1139
5.384, 14, 33.5585, 54.1393, -9.42323, 88.0151, -79.2007, 40.1351
5.388, 14, 33.5312, 54.1252, -9.33255, 87.9406, -79.2921, 40.1571
5.392, 14, 33.5037, 54.1105, -9.24102, 87.8658, -79.3826, 40.1802
5.396, 14, 33.4762, 54.0952, -9.14856, 87.7908, -79.472, 40.2045
5.4, 14, 33.4485, 54.0794, -9.05511, 87.7154, -79.5602, 40.2299
5.404, 14, 33.4208, 54.063, -8.96066, 87.6397, -79.6472, 40.2567
5.408, 14, 33.3929, 54.0461, -8.86517, 87.5637, -79.7329, 40.2847
5.412, 14, 33.365, 54.0286, -8.76865, 87.4873, -79.8173, 40.3141
5.416, 14, 33.3369, 54.0106, -8.67112, 87.4106, -79.9005, 40.3447
5.42, 14, 33.3088, 53.992, -8.57263, 87.3335, -79.9826, 40.3766
5.424, 14, 33.2805, 53.9728, -8.47324, 87.2561, -80.0634, 40.4096
5.428, 14, 33.2521, 53.953, -8.37302, 87.1785, -80.1433, 40.4437
5.432, 14, 33.2236, 53.9327, -8.27205, 87.1007, -80.2223, 40.4788
5.436, 14, 33.195, 53.9118, -8.17043, 87.0226, -80.3005, 40.5146
5.44, 14, 33.1663, 53.8905, -8.06825, 86.9444, -80.378, 40.5512
5.444, 14, 33.1375, 53.8687, -7.9656, 86.8661, -80.4549, 40.5883
5.449, 15, 33.1086, 53.8466, -7.86259, 86.7877, -80.5314, 40.6259
5.451, 15, 33.0796, 53.8241, -7.75928, 86.7093, -80.6076, 40.6637
5.456, 15, 33.0505, 53.8012, -7.65578, 86.6309, -80.6835, 40.7018
5.46, 15, 33.0212, 53.778, -7.55212, 86.5525, -80.7593, 40.7401
5.464, 15, 32.9918, 53.7545, -7.44838, 86.4742, -80.8351, 40.7783
5.468, 15, 32.9622, 53.7307, -7.34457, 86.3959, -80.9107, 40.8166
5.472, 15, 32.9324, 53.7066, -7.24071, 86.3178, -80.9864, 40.8549
5.476, 15, 32.9025, 53.6823, -7.13681, 86.2397, -81.062, 40.8932
5.48, 15, 32.8725, 53.6576, -7.03285, 86.1617, -81.1376, 40.9317
5.484, 15, 32.8423, 53.6327, -6.92879, 86.0837, -81.213, 40.9703
5.488, 15, 32.812, 53.6074, -6.82458, 86.0059, -81.2882, 41.0092
5.492, 15, 32.7817, 53.5819, -6.72018, 85.9281, -81.3631, 41.0486
5.496, 15, 32.7512, 53.556, -6.61551, 85.8503, -81.4376, 41.0885
5.5, 15, 32.7207, 53.5297, -6.51053, 85.7726, -81.5116, 41.1292
5.504, 15, 32.69, 53.5029, -6.40515, 85.6949, -81.585, 41.1707
5.508, 15, 32.6593, 53.4758, -6.29932, 85.6172, -81.6577, 41.2132
5.512, 15, 32.6284, 53.4482, -6.19296, 85.5395, -81.7295, 41.2569
5.516, 15, 32.5975, 53.4201, -6.08604, 85.4617, -81.8004, 41.3019
5.52, 15, 32.5665, 53.3916, -5.9785, 85.384, -81.8703, 41.3483
5.524, 15, 32.5354, 53.3627, -5.87031, 85.3061, -81.9391, 41.3963
5.528, 15, 32.5042, 53.3334, -5.76146, 85.2282, -82.0068, 41.4458
5.532, 15, 32.4729, 53.3037, -5.65193, 85.1503, -82.0734, 41.497
5.536, 15, 32.4415, 53.2735, -5.54175, 85.0723, -82.1389, 41.5497
5.54, 15, 32.41, 53.243, -5.43094, 84.9942, -82.2032, 41.6039
5.544, 15, 32.3785, 53.2119, -5.31954, 84.9161, -82.2666, 41.6596
5.548, 15, 32.3468, 53.1805, -5.20759, 84.838, -82.3291, 41.7167
5.552, 15, 32.315, 53.1486, -5.09517, 84.7599, -82.3907, 41.7749
5.556, 15, 32.2832, 53.1162, -4.98232, 84.6817, -82.4515, 41.8342
5.56, 15, 32.2513, 53.0835, -4.86914, 84.6036, -82.5117, 41.8945
5.564, 15, 32.2193, 53.0505, -4.75567, 84.5254, -82.5714, 41.9555
5.569, 16, 32.1872, 53.0171, -4.64201, 84.4473, -82.6307, 42.0172
5.571, 16, 32.155, 52.9835, -4.5282, 84.3693, -82.6897, 42.0793
5.576, 16, 32.1227, 52.9497, -4.41432, 84.2913, -82.7484, 42.1418
5.58, 16, 32.0903, 52.9156, -4.30041, 84.2134, -82.8071, 42.2044
5.584, 16, 32.0577, 52.8814, -4.18652, 84.1356, -82.8656, 42.2672
5.588, 16, 32.0251, 52.847, -4.07269, 84.0578, -82.9242, 42.3301
5.592, 16, 31.9923, 52.8125, -3.95894, 83.9802, -82.9828, 42.3929
5.596, 16, 31.9593, 52.7779, -3.84527, 83.9026, -83.0415, 42.4557
5.6, 16, 31.9262, 52.7433, -3.73167, 83.8251, -83.1003, 42.5185
5.604, 16, 31.893, 52.7087, -3.61813, 83.7476, -83.1591, 42.5814
5.608, 16, 31.8595, 52.674, -3.50459, 83.6701, -83.218, 42.6445
5.612, 16, 31.826, 52.6393, -3.39101, 83.5924, -83.277, 42.7079
5.616, 16, 31.7923, 52.6046, -3.27731, 83.5146, -83.336, 42.772
5.62, 16, 31.7585, 52.5698, -3.16342, 83.4364, -83.3951, 42.8369
5.624, 16, 31.7247, 52.535, -3.04924, 83.3578, -83.454, 42.9031
5.628, 16, 31.6907, 52.5001, -2.93467, 83.2786, -83.5129, 42.9708
5.632, 16, 31.6566, 52.4651, -2.81962, 83.1987, -83.5717, 43.0404
5.636, 16, 31.6223, 52.4299, -2.70397, 83.1179, -83.6304, 43.1123
5.64, 16, 31.588, 52.3946, -2.58762, 83.0361, -83.6888, 43.1868
5.644, 16, 31.5534, 52.3591, -2.47047, 82.9531, -83.747, 43.2644
5.648, 16, 31.5188, 52.3234, -2.35245, 82.8688, -83.8049, 43.3452
5.652, 16, 31.484, 52.2875, -2.23348, 82.7831, -83.8625, 43.4296
5.656, 16, 31.4492, 52.2514, -2.1135, 82.6959, -83.9199, 43.5179
5.66, 16, 31.4142, 52.2151, -1.99251, 82.6071, -83.9769, 43.6102
5.664, 16, 31.3791, 52.1786, -1.87048, 82.5168, -84.0336, 43.7064
5.668, 16, 31.3439, 52.1419, -1.74746, 82.4248, -84.09, 43.8066
5.672, 16, 31.3085, 52.1051, -1.62348, 82.3314, -84.1462, 43.9105
5.676, 16, 31.2731, 52.0682, -1.49863, 82.2365, -84.2023, 44.0179
5.68, 16, 31.2376, 52.0312, -1.373, 82.1403, -84.2582, 44.1284
5.684, 16, 31.2019, 51.9941, -1.24671, 82.0429, -84.3142, 44.2416
5.688, 16, 31.1662, 51.957, -1.1199, 81.9444, -84.3702, 44.3568
5.692, 16, 31.1304, 51.92, -0.992697, 81.845, -84.4264, 44.4737
5.696, 16, 31.0945, 51.883, -0.865261, 81.7448, -84.4829, 44.5915
5.7, 16, 31.0585, 51.8462, -0.737736, 81.644, -84.5397, 44.7096
5.704, 16, 31.0224, 51.8096, -0.610266, 81.5428, -84.5971, 44.8276
5.708, 16, 30.9862, 51.7732, -0.482984, 81.4412, -84.6551, 44.9447
5.712, 16, 30.9499, 51.7371, -0.356012, 81.3395, -84.7137, 45.0605
5.716, 16, 30.9133, 51.7013, -0.229455, 81.2377, -84.773, 45.1746
5.72, 16, 30.8766, 51.6659, -0.103399, 81.1359, -84.8332, 45.2864
5.724, 16, 30.8396, 51.6308, 0.0220863, 81.0341, -84.8943, 45.3958
5.728, 16, 30.8025, 51.5961, 0.146953, 80.9326, -84.9562, 45.5025
5.732, 16, 30.7652, 51.5617, 0.271169, 80.8311, -85.019, 45.6064
5.736, 16, 30.7278, 51.5278, 0.394721, 80.7298, -85.0827, 45.7075
5.74, 16, 30.6902, 51.4942, 0.517608, 80.6287, -85.1473, 45.8059
5.744, 16, 30.6525, 51.461, 0.639844, 80.5278, -85.2127, 45.9016
5.748, 16, 30.6147, 51.4281, 0.76145, 80.4271, -85.2789, 45.9948
5.752, 16, 30.5768, 51.3956, 0.882459, 80.3266, -85.3459, 46.0857
5.756, 16, 30.5387, 51.3634, 1.00291, 80.2262, -85.4135, 46.1745
5.761, 17, 30.5006, 51.3314, 1.12286, 80.126, -85.4817, 46.2615
5.764, 17, 30.4624, 51.2994, 1.24237, 80.0259, -85.5505, 46.347
5.768, 17, 30.424, 51.2674, 1.3615, 79.926, -85.6197, 46.4311
5.772, 17, 30.3856, 51.2354, 1.48035, 79.8262, -85.6892, 46.5141
5.776, 17, 30.3471, 51.2031, 1.59899, 79.7265, -85.7588, 46.5965
5.78, 17, 30.3085, 51.1706, 1.71754, 79.6269, -85.8283, 46.6783
5.784, 17, 30.2698, 51.1376, 1.8361, 79.5273, -85.8976, 46.76
5.788, 17, 30.231, 51.1042, 1.95479, 79.4278, -85.9664, 46.8417
5.792, 17, 30.1921, 51.0702, 2.07371, 79.3284, -86.0346, 46.9237
5.796, 17, 30.153, 51.0356, 2.19301, 79.2289, -86.1019, 47.0061
5.8, 17, 30.1138, 51.0003, 2.31278, 79.1294, -86.1681, 47.0892
5.804, 17, 30.0745, 50.9644, 2.43315, 79.0299, -86.233, 47.173
5.808, 17, 30.035, 50.9277, 2.55421, 78.9304, -86.2964, 47.2578
5.812, 17, 29.9953, 50.8905, 2.67606, 78.8307, -86.3581, 47.3437
5.816, 17, 29.9554, 50.8526, 2.79878, 78.731, -86.4179, 47.4307
5.82, 17, 29.9154, 50.8142, 2.92242, 78.6312, -86.4757, 47.519
5.824, 17, 29.8752, 50.7753, 3.04701, 78.5313, -86.5315, 47.6087
5.828, 17, 29.8348, 50.7358, 3.17256, 78.4312, -86.5851, 47.6997
5.832, 17, 29.7942, 50.6958, 3.29907, 78.331, -86.6367, 47.792
5.836, 17, 29.7535, 50.6552, 3.4265, 78.2307, -86.6862, 47.8856
5.84, 17, 29.7125, 50.614, 3.55479, 78.1303, -86.7338, 47.9804
5.844, 17, 29.6714, 50.5721, 3.68388, 78.0298, -86.7796, 48.0764
5.848, 17, 29.6301, 50.5295, 3.81367, 77.9291, -86.8238, 48.1734
5.852, 17, 29.5886, 50.4862, 3.94407, 77.8283, -86.8666, 48.2713
5.856, 17, 29.547, 50.4422, 4.07497, 77.7275, -86.9081, 48.37
5.86, 17, 29.5052, 50.3976, 4.20627, 77.6266, -86.9487, 48.4694
5.864, 17, 29.4633, 50.3523, 4.33785, 77.5256, -86.9883, 48.5692
5.868, 17, 29.4212, 50.3065, 4.46962, 77.4245, -87.0274, 48.6695
5.872, 17, 29.379, 50.2601, 4.60148, 77.3235, -87.066, 48.7701
5.876, 17, 29.3367, 50.2133, 4.73335, 77.2224, -87.1043, 48.8708
5.88, 17, 29.2942, 50.1662, 4.86515, 77.1212, -87.1424, 48.9717
5.884, 17, 29.2515, 50.1188, 4.99682, 77.0201, -87.1805, 49.0725
5.888, 17, 29.2087, 50.0713, 5.12832, 76.919, -87.2187, 49.1733
5.892, 17, 29.1658, 50.0236, 5.2596, 76.8178, -87.2569, 49.274
5.896, 17, 29.1227, 49.976, 5.39064, 76.7167, -87.2953, 49.3746
5.9, 17, 29.0796, 49.9284, 5.52141, 76.6156, -87.3338, 49.4751
5.904, 17, 29.0363, 49.881, 5.6519, 76.5145, -87.3725, 49.5755
5.908, 17, 28.9929, 49.8336, 5.78211, 76.4134, -87.4114, 49.6756
5.912, 17, 28.9493, 49.7864, 5.91202, 76.3123, -87.4505, 49.7757
5.916, 17, 28.9057, 49.7393, 6.04164, 76.2113, -87.4898, 49.8755
5.92, 17, 28.8619, 49.6923, 6.17096, 76.1102, -87.5293, 49.9752
5.924, 17, 28.818, 49.6456, 6.29998, 76.0091, -87.569, 50.0748
5.929, 18, 28.774, 49.5989, 6.42871, 75.9081, -87.6089, 50.1742
5.931, 18, 28.7299, 49.5525, 6.55713, 75.8071, -87.649, 50.2734
5.936, 18, 28.6857, 49.5062, 6.68525, 75.7061, -87.6893, 50.3724
5.94, 18, 28.6413, 49.4601, 6.81307, 75.6051, -87.7299, 50.4713
5.944, 18, 28.5969, 49.4141, 6.9406, 75.5041, -87.7706, 50.57
5.948, 18, 28.5523, 49.3683, 7.06783, 75.4031, -87.8116, 50.6685
5.952, 18, 28.5076, 49.3227, 7.19475, 75.3021, -87.8528, 50.7669
5.956, 18, 28.4628, 49.2772, 7.32139, 75.2012, -87.8941, 50.8651
5.96, 18, 28.4179, 49.2319, 7.44772, 75.1003, -87.9357, 50.9631
5.964, 18, 28.3729, 49.1868, 7.57376, 74.9993, -87.9775, 51.0609
5.968, 18, 28.3277, 49.1418, 7.69951, 74.8984, -88.0195, 51.1586
5.972, 18, 28.2824, 49.097, 7.82496, 74.7975, -88.0617, 51.2562
5.976, 18, 28.2371, 49.0523, 7.95011, 74.6966, -88.1041, 51.3535
5.98, 18, 28.1916, 49.0078, 8.07498, 74.5957, -88.1468, 51.4507
5.984, 18, 28.146, 48.9634, 8.19955, 74.4949, -88.1896, 51.5477
5.988, 18, 28.1003, 48.9191, 8.32384, 74.394, -88.2326, 51.6446
5.992, 18, 28.0545, 48.8749, 8.44783, 74.2932, -88.2758, 51.7413
5.996, 18, 28.0087, 48.8307, 8.57154, 74.1925, -88.3191, 51.838
6, 18, 27.9627, 48.7865, 8.69497, 74.0918, -88.3626, 51.9346
6.004, 18, 27.9167, 48.7424, 8.81812, 73.9912, -88.4061, 52.0312
6.008, 18, 27.8706, 48.6982, 8.94098, 73.8908, -88.4496, 52.1279
6.012, 18, 27.8244, 48.6541, 9.06357, 73.7905, -88.4931, 52.2247
6.016, 18, 27.7782, 48.6099, 9.18589, 73.6906, -88.5364, 52.3218
6.02, 18, 27.7318, 48.5657, 9.30794, 73.5909, -88.5794, 52.4194
6.024, 18, 27.6853, 48.5214, 9.42972, 73.4916, -88.6222, 52.5174
6.028, 18, 27.6388, 48.4769, 9.55124, 73.3927, -88.6645, 52.616
6.032, 18, 27.5921, 48.4324, 9.67249, 73.2942, -88.7064, 52.7153
6.036, 18, 27.5454, 48.3878, 9.79348, 73.1964, -88.7476, 52.8154
6.04, 18, 27.4985, 48.3431, 9.9142, 73.0991, -88.7882, 52.9165
6.044, 18, 27.4515, 48.2984, 10.0347, 73.0024, -88.828, 53.0185
6.048, 18, 27.4043, 48.2536, 10.1549, 72.9063, -88.8671, 53.1217
6.052, 18, 27.3571, 48.2087, 10.2748, 72.811, -88.9053, 53.2259
