hehonglu123/Motion-Primitive-Planning/simulation/robotstudio_sim/scripts/fitting_output/threshold0.1/curve_exe_v5000_z10.csv
timestamp, cmd_num, J1, J2, J3, J4, J5, J6
0, 1, -1.02572, 63.9806, 9.28144, 43.4289, -95.9993, 170.738
0.002, 1, -1.02572, 63.9806, 9.28144, 43.4289, -95.9993, 170.738
0.004, 1, -1.02572, 63.9806, 9.28144, 43.4289, -95.9993, 170.738
0.008, 1, -1.02572, 63.9806, 9.28144, 43.4289, -95.9993, 170.738
0.011, 1, -1.02572, 63.9806, 9.28144, 43.4289, -95.9993, 170.738
0.016, 1, -1.02572, 63.9806, 9.28144, 43.4289, -95.9993, 170.738
0.02, 1, -1.02572, 63.9806, 9.28144, 43.4289, -95.9993, 170.738
0.024, 1, -1.02572, 63.9806, 9.28144, 43.4289, -95.9993, 170.738
0.028, 1, -1.02572, 63.9806, 9.28144, 43.4289, -95.9993, 170.738
0.032, 1, -1.02572, 63.9806, 9.28144, 43.4289, -95.9993, 170.738
0.036, 1, -1.02571, 63.9806, 9.28144, 43.4289, -95.9993, 170.738
0.04, 1, -1.02565, 63.9806, 9.28144, 43.4289, -95.9993, 170.738
0.044, 1, -1.02542, 63.9805, 9.28144, 43.4289, -95.9993, 170.738
0.048, 1, -1.0249, 63.9804, 9.28146, 43.4289, -95.9993, 170.738
0.052, 1, -1.02393, 63.9801, 9.28149, 43.4289, -95.9993, 170.738
0.056, 1, -1.02241, 63.9796, 9.28152, 43.429, -95.9992, 170.738
0.06, 1, -1.02025, 63.9789, 9.28153, 43.4293, -95.999, 170.737
0.064, 1, -1.01742, 63.9778, 9.28149, 43.4298, -95.9986, 170.736
0.068, 1, -1.01388, 63.9764, 9.28134, 43.4306, -95.998, 170.734
0.072, 1, -1.00957, 63.9745, 9.28102, 43.4319, -95.9969, 170.731
0.076, 1, -1.00441, 63.9722, 9.28044, 43.4339, -95.9952, 170.726
0.08, 1, -0.99822, 63.9693, 9.27952, 43.4369, -95.9928, 170.719
0.084, 1, -0.990815, 63.9657, 9.27813, 43.441, -95.9893, 170.71
0.088, 1, -0.981989, 63.9615, 9.27614, 43.4467, -95.9846, 170.697
0.092, 1, -0.971582, 63.9564, 9.27339, 43.4542, -95.9784, 170.679
0.096, 1, -0.959485, 63.9505, 9.26972, 43.4639, -95.9703, 170.656
0.1, 1, -0.945615, 63.9438, 9.26494, 43.4763, -95.9601, 170.628
0.104, 1, -0.929866, 63.9361, 9.25887, 43.4916, -95.9473, 170.592
0.108, 1, -0.912107, 63.9275, 9.25134, 43.5103, -95.9318, 170.549
0.112, 1, -0.892207, 63.9178, 9.24219, 43.5327, -95.9131, 170.497
0.116, 1, -0.870079, 63.9072, 9.23127, 43.5592, -95.8911, 170.436
0.12, 1, -0.845702, 63.8957, 9.21843, 43.59, -95.8654, 170.364
0.124, 1, -0.8191, 63.8834, 9.20357, 43.6254, -95.8359, 170.283
0.128, 1, -0.790315, 63.8704, 9.18658, 43.6655, -95.8025, 170.19
0.131, 1, -0.759397, 63.8569, 9.16744, 43.7105, -95.765, 170.086
0.136, 1, -0.726383, 63.8429, 9.14611, 43.7603, -95.7235, 169.971
0.139, 1, -0.691279, 63.8283, 9.12264, 43.8148, -95.678, 169.845
0.144, 1, -0.654051, 63.8129, 9.09711, 43.874, -95.6286, 169.708
0.148, 1, -0.614662, 63.7967, 9.06964, 43.9376, -95.5756, 169.562
0.152, 1, -0.573132, 63.7796, 9.04036, 44.0052, -95.5192, 169.406
0.156, 1, -0.529553, 63.7616, 9.00944, 44.0766, -95.4597, 169.241
0.16, 1, -0.484058, 63.7426, 8.97705, 44.1513, -95.3973, 169.068
0.164, 1, -0.436768, 63.7228, 8.94337, 44.229, -95.3325, 168.889
0.168, 1, -0.387764, 63.7021, 8.9086, 44.3092, -95.2656, 168.704
0.172, 1, -0.337119, 63.6806, 8.87293, 44.3916, -95.1969, 168.514
0.176, 1, -0.284932, 63.6583, 8.83654, 44.4757, -95.1267, 168.32
0.18, 1, -0.231336, 63.6353, 8.79961, 44.5613, -95.0554, 168.122
0.184, 1, -0.176472, 63.6116, 8.76228, 44.6479, -94.9831, 167.922
0.188, 1, -0.120483, 63.5872, 8.72465, 44.7353, -94.9102, 167.72
0.192, 1, -0.0635225, 63.5623, 8.68681, 44.8234, -94.8368, 167.517
0.196, 1, -0.00574508, 63.537, 8.64884, 44.9119, -94.763, 167.312
0.2, 1, 0.0527195, 63.5114, 8.61077, 45.0007, -94.689, 167.107
0.204, 1, 0.11178, 63.4855, 8.57265, 45.0896, -94.6148, 166.902
0.208, 1, 0.171355, 63.4595, 8.53451, 45.1788, -94.5405, 166.696
0.212, 1, 0.23135, 63.4333, 8.49635, 45.2679, -94.4661, 166.49
0.216, 1, 0.291652, 63.4069, 8.45819, 45.3571, -94.3917, 166.284
0.22, 1, 0.352159, 63.3806, 8.42005, 45.4464, -94.3173, 166.078
0.224, 1, 0.412795, 63.3541, 8.38191, 45.5356, -94.243, 165.872
0.228, 1, 0.473508, 63.3277, 8.34379, 45.6248, -94.1686, 165.666
0.232, 1, 0.53426, 63.3013, 8.30569, 45.7139, -94.0943, 165.46
0.236, 1, 0.59503, 63.2748, 8.2676, 45.803, -94.02, 165.254
0.24, 1, 0.655799, 63.2484, 8.22954, 45.8921, -93.9457, 165.048
0.244, 1, 0.716557, 63.2219, 8.19149, 45.9811, -93.8715, 164.843
0.248, 1, 0.777296, 63.1955, 8.15347, 46.0701, -93.7973, 164.637
0.252, 1, 0.838011, 63.1691, 8.11547, 46.159, -93.7232, 164.432
0.256, 1, 0.898698, 63.1427, 8.07749, 46.2479, -93.6491, 164.226
0.26, 1, 0.959355, 63.1163, 8.03953, 46.3367, -93.575, 164.021
0.264, 1, 1.01998, 63.0899, 8.00159, 46.4255, -93.501, 163.816
0.268, 1, 1.08057, 63.0636, 7.96367, 46.5142, -93.427, 163.611
0.272, 1, 1.14113, 63.0372, 7.92578, 46.6029, -93.3531, 163.406
0.276, 1, 1.20165, 63.0109, 7.88791, 46.6915, -93.2792, 163.202
0.28, 1, 1.26214, 62.9846, 7.85006, 46.7801, -93.2054, 162.997
0.284, 1, 1.32259, 62.9583, 7.81224, 46.8686, -93.1316, 162.793
0.288, 1, 1.38301, 62.932, 7.77443, 46.957, -93.0578, 162.588
0.292, 1, 1.44339, 62.9057, 7.73665, 47.0454, -92.9841, 162.384
0.296, 1, 1.50374, 62.8795, 7.69889, 47.1338, -92.9105, 162.18
0.3, 1, 1.56405, 62.8532, 7.66116, 47.2221, -92.8368, 161.976
0.304, 1, 1.62432, 62.827, 7.62344, 47.3104, -92.7633, 161.772
0.308, 1, 1.68456, 62.8008, 7.58575, 47.3986, -92.6897, 161.568
0.312, 1, 1.74476, 62.7746, 7.54809, 47.4867, -92.6162, 161.365
0.316, 1, 1.80492, 62.7484, 7.51044, 47.5748, -92.5428, 161.161
0.32, 1, 1.86505, 62.7223, 7.47282, 47.6628, -92.4694, 160.958
0.324, 1, 1.92514, 62.6961, 7.43523, 47.7508, -92.396, 160.755
0.328, 1, 1.98519, 62.67, 7.39765, 47.8387, -92.3227, 160.551
0.332, 1, 2.0452, 62.6439, 7.3601, 47.9266, -92.2495, 160.348
0.336, 1, 2.10518, 62.6178, 7.32257, 48.0144, -92.1763, 160.146
0.34, 1, 2.16512, 62.5917, 7.28507, 48.1022, -92.1031, 159.943
0.344, 1, 2.22502, 62.5657, 7.24759, 48.1899, -92.03, 159.74
0.348, 1, 2.28488, 62.5396, 7.21013, 48.2775, -91.9569, 159.538
0.352, 1, 2.3447, 62.5136, 7.1727, 48.3651, -91.8839, 159.335
0.356, 1, 2.40449, 62.4876, 7.13529, 48.4526, -91.8109, 159.133
0.36, 1, 2.46424, 62.4616, 7.09791, 48.5401, -91.7379, 158.931
0.364, 1, 2.52395, 62.4356, 7.06055, 48.6276, -91.665, 158.729
0.368, 1, 2.58362, 62.4097, 7.02321, 48.7149, -91.5922, 158.527
0.372, 1, 2.64325, 62.3837, 6.9859, 48.8022, -91.5194, 158.326
0.376, 1, 2.70284, 62.3578, 6.94861, 48.8895, -91.4467, 158.124
0.38, 1, 2.7624, 62.3319, 6.91135, 48.9767, -91.374, 157.923
0.384, 1, 2.82191, 62.306, 6.87411, 49.0638, -91.3013, 157.721
0.388, 1, 2.88139, 62.2801, 6.83689, 49.1509, -91.2287, 157.52
0.392, 1, 2.94083, 62.2543, 6.7997, 49.2379, -91.1561, 157.319
0.396, 1, 3.00022, 62.2284, 6.76254, 49.3249, -91.0836, 157.118
0.4, 1, 3.05958, 62.2026, 6.72539, 49.4118, -91.0112, 156.918
0.404, 1, 3.1189, 62.1768, 6.68828, 49.4987, -90.9388, 156.717
0.408, 1, 3.17818, 62.151, 6.65119, 49.5855, -90.8664, 156.516
0.412, 1, 3.23742, 62.1252, 6.61412, 49.6722, -90.7941, 156.316
0.416, 1, 3.29661, 62.0995, 6.57708, 49.7589, -90.7218, 156.116
0.42, 1, 3.35577, 62.0737, 6.54007, 49.8455, -90.6496, 155.916
0.424, 1, 3.41489, 62.048, 6.50308, 49.9321, -90.5774, 155.716
0.428, 1, 3.47397, 62.0223, 6.46611, 50.0186, -90.5053, 155.516
0.432, 1, 3.533, 61.9966, 6.42917, 50.105, -90.4332, 155.316
0.436, 1, 3.592, 61.971, 6.39226, 50.1914, -90.3612, 155.117
0.44, 1, 3.65095, 61.9453, 6.35537, 50.2777, -90.2893, 154.917
0.444, 1, 3.70987, 61.9197, 6.31851, 50.364, -90.2173, 154.718
0.448, 1, 3.76874, 61.8941, 6.28167, 50.4502, -90.1455, 154.519
0.452, 1, 3.82757, 61.8685, 6.24486, 50.5363, -90.0736, 154.32
0.456, 1, 3.88636, 61.8429, 6.20807, 50.6224, -90.0019, 154.121
0.46, 1, 3.94511, 61.8174, 6.17131, 50.7084, -89.9302, 153.922
0.464, 1, 4.00382, 61.7918, 6.13458, 50.7944, -89.8585, 153.724
0.468, 1, 4.06249, 61.7663, 6.09787, 50.8803, -89.7869, 153.525
0.472, 1, 4.12111, 61.7408, 6.06119, 50.9661, -89.7153, 153.327
0.476, 1, 4.17969, 61.7153, 6.02454, 51.0519, -89.6438, 153.129
0.48, 1, 4.23823, 61.6898, 5.98791, 51.1376, -89.5723, 152.931
0.484, 1, 4.29673, 61.6644, 5.9513, 51.2232, -89.5009, 152.733
0.488, 1, 4.35519, 61.639, 5.91473, 51.3088, -89.4296, 152.535
0.492, 1, 4.4136, 61.6135, 5.87818, 51.3943, -89.3583, 152.338
0.496, 1, 4.47197, 61.5882, 5.84166, 51.4798, -89.287, 152.14
0.5, 1, 4.5303, 61.5628, 5.80516, 51.5652, -89.2158, 151.943
0.504, 1, 4.58859, 61.5374, 5.76869, 51.6505, -89.1446, 151.746
0.508, 1, 4.64683, 61.5121, 5.73225, 51.7358, -89.0735, 151.549
0.512, 1, 4.70503, 61.4868, 5.69583, 51.821, -89.0025, 151.352
0.516, 1, 4.76319, 61.4615, 5.65944, 51.9062, -88.9315, 151.155
0.52, 1, 4.82131, 61.4362, 5.62308, 51.9913, -88.8606, 150.959
0.524, 1, 4.87938, 61.4109, 5.58675, 52.0763, -88.7897, 150.762
0.528, 1, 4.93741, 61.3857, 5.55044, 52.1613, -88.7188, 150.566
0.532, 1, 4.99539, 61.3605, 5.51416, 52.2462, -88.648, 150.37
0.536, 1, 5.05334, 61.3352, 5.4779, 52.331, -88.5773, 150.174
0.54, 1, 5.11123, 61.3101, 5.44168, 52.4158, -88.5066, 149.978
0.544, 1, 5.16909, 61.2849, 5.40548, 52.5005, -88.436, 149.783
0.548, 1, 5.2269, 61.2597, 5.36931, 52.5851, -88.3654, 149.587
0.552, 1, 5.28467, 61.2346, 5.33316, 52.6697, -88.2949, 149.392
0.556, 1, 5.34239, 61.2095, 5.29705, 52.7542, -88.2245, 149.197
0.56, 1, 5.40007, 61.1844, 5.26096, 52.8387, -88.1541, 149.001
0.564, 1, 5.45771, 61.1593, 5.22489, 52.9231, -88.0837, 148.806
0.568, 1, 5.5153, 61.1343, 5.18886, 53.0074, -88.0134, 148.612
0.572, 1, 5.57285, 61.1092, 5.15285, 53.0916, -87.9431, 148.417
0.576, 1, 5.63035, 61.0842, 5.11687, 53.1758, -87.873, 148.223
0.58, 1, 5.68781, 61.0592, 5.08092, 53.26, -87.8028, 148.028
0.584, 1, 5.74522, 61.0342, 5.045, 53.344, -87.7327, 147.834
0.588, 1, 5.80259, 61.0093, 5.0091, 53.428, -87.6627, 147.64
0.592, 1, 5.85991, 60.9844, 4.97324, 53.5119, -87.5927, 147.446
0.596, 1, 5.91719, 60.9594, 4.9374, 53.5958, -87.5228, 147.252
0.6, 1, 5.97443, 60.9345, 4.90158, 53.6796, -87.4529, 147.059
0.604, 1, 6.03162, 60.9097, 4.8658, 53.7633, -87.3831, 146.865
0.608, 1, 6.08876, 60.8848, 4.83005, 53.847, -87.3134, 146.672
0.612, 1, 6.14586, 60.86, 4.79432, 53.9306, -87.2437, 146.479
0.616, 1, 6.20292, 60.8351, 4.75862, 54.0142, -87.174, 146.286
0.62, 1, 6.25993, 60.8103, 4.72295, 54.0976, -87.1044, 146.093
0.624, 1, 6.31689, 60.7856, 4.68731, 54.181, -87.0349, 145.901
0.628, 1, 6.37381, 60.7608, 4.6517, 54.2644, -86.9654, 145.708
0.632, 1, 6.43068, 60.736, 4.61611, 54.3476, -86.896, 145.516
0.636, 1, 6.48751, 60.7113, 4.58055, 54.4308, -86.8266, 145.323
0.64, 1, 6.54429, 60.6866, 4.54503, 54.514, -86.7573, 145.131
0.644, 1, 6.60103, 60.6619, 4.50953, 54.597, -86.688, 144.94
0.648, 1, 6.65772, 60.6373, 4.47406, 54.68, -86.6188, 144.748
0.652, 1, 6.71436, 60.6126, 4.43862, 54.763, -86.5497, 144.556
0.656, 1, 6.77096, 60.588, 4.40321, 54.8458, -86.4806, 144.365
0.66, 1, 6.82751, 60.5634, 4.36782, 54.9286, -86.4116, 144.174
0.664, 1, 6.88402, 60.5388, 4.33247, 55.0114, -86.3426, 143.982
0.668, 1, 6.94048, 60.5143, 4.29714, 55.094, -86.2737, 143.791
0.672, 1, 6.99689, 60.4897, 4.26184, 55.1766, -86.2048, 143.601
0.676, 1, 7.05326, 60.4652, 4.22658, 55.2592, -86.136, 143.41
0.68, 1, 7.10958, 60.4407, 4.19134, 55.3416, -86.0672, 143.22
0.684, 1, 7.16585, 60.4162, 4.15613, 55.424, -85.9986, 143.029
0.688, 1, 7.22208, 60.3918, 4.12095, 55.5063, -85.9299, 142.839
0.692, 1, 7.27826, 60.3673, 4.0858, 55.5886, -85.8613, 142.649
0.696, 1, 7.33439, 60.3429, 4.05068, 55.6708, -85.7928, 142.459
0.7, 1, 7.39048, 60.3185, 4.01558, 55.7529, -85.7243, 142.269
0.704, 1, 7.44652, 60.2941, 3.98052, 55.8349, -85.6559, 142.08
0.708, 1, 7.50251, 60.2698, 3.94549, 55.9169, -85.5876, 141.891
0.712, 1, 7.55846, 60.2454, 3.91048, 55.9988, -85.5193, 141.701
0.716, 1, 7.61436, 60.2211, 3.87551, 56.0807, -85.4511, 141.512
0.72, 1, 7.67021, 60.1968, 3.84056, 56.1624, -85.3829, 141.323
0.724, 1, 7.72602, 60.1725, 3.80565, 56.2441, -85.3148, 141.135
0.728, 1, 7.78177, 60.1483, 3.77076, 56.3258, -85.2467, 140.946
0.732, 1, 7.83748, 60.1241, 3.73591, 56.4073, -85.1787, 140.758
0.736, 1, 7.89315, 60.0998, 3.70108, 56.4888, -85.1108, 140.569
0.74, 1, 7.94876, 60.0756, 3.66628, 56.5703, -85.0429, 140.381
0.744, 1, 8.00433, 60.0515, 3.63152, 56.6516, -84.975, 140.193
0.748, 1, 8.05985, 60.0273, 3.59678, 56.7329, -84.9073, 140.006
0.752, 1, 8.11532, 60.0032, 3.56207, 56.8141, -84.8396, 139.818
0.756, 1, 8.17075, 59.9791, 3.52739, 56.8953, -84.7719, 139.631
0.76, 1, 8.22613, 59.955, 3.49274, 56.9763, -84.7043, 139.443
0.764, 1, 8.28146, 59.9309, 3.45813, 57.0573, -84.6368, 139.256
0.768, 1, 8.33674, 59.9069, 3.42354, 57.1383, -84.5693, 139.069
0.772, 1, 8.39197, 59.8828, 3.38898, 57.2192, -84.5019, 138.882
0.776, 1, 8.44716, 59.8588, 3.35445, 57.3, -84.4345, 138.696
0.78, 1, 8.5023, 59.8348, 3.31995, 57.3807, -84.3672, 138.509
0.784, 1, 8.55739, 59.8109, 3.28549, 57.4613, -84.2999, 138.323
0.788, 1, 8.61243, 59.7869, 3.25105, 57.5419, -84.2327, 138.137
0.792, 1, 8.66743, 59.763, 3.21664, 57.6224, -84.1656, 137.951
0.796, 1, 8.72238, 59.7391, 3.18226, 57.7029, -84.0986, 137.765
0.8, 1, 8.77728, 59.7152, 3.14791, 57.7833, -84.0315, 137.579
0.804, 1, 8.83213, 59.6914, 3.1136, 57.8636, -83.9646, 137.394
0.808, 1, 8.88693, 59.6675, 3.07931, 57.9438, -83.8977, 137.208
0.812, 1, 8.94169, 59.6437, 3.04505, 58.024, -83.8309, 137.023
0.816, 1, 8.99639, 59.6199, 3.01083, 58.104, -83.7641, 136.838
0.82, 1, 9.05105, 59.5961, 2.97663, 58.1841, -83.6974, 136.653
0.824, 1, 9.10566, 59.5724, 2.94246, 58.264, -83.6307, 136.469
0.828, 1, 9.16022, 59.5486, 2.90833, 58.3439, -83.5641, 136.284
0.832, 1, 9.21474, 59.5249, 2.87422, 58.4237, -83.4976, 136.1
0.836, 1, 9.2692, 59.5012, 2.84014, 58.5034, -83.4311, 135.916
0.84, 1, 9.32362, 59.4776, 2.8061, 58.5831, -83.3647, 135.732
0.844, 1, 9.37799, 59.4539, 2.77208, 58.6627, -83.2983, 135.548
0.848, 1, 9.43231, 59.4303, 2.7381, 58.7422, -83.232, 135.364
0.852, 1, 9.48658, 59.4067, 2.70414, 58.8217, -83.1657, 135.18
0.856, 1, 9.5408, 59.3831, 2.67022, 58.9011, -83.0996, 134.997
0.86, 1, 9.59497, 59.3595, 2.63632, 58.9804, -83.0334, 134.814
0.864, 1, 9.6491, 59.336, 2.60246, 59.0596, -82.9674, 134.631
0.868, 1, 9.70317, 59.3124, 2.56863, 59.1388, -82.9014, 134.448
0.872, 1, 9.7572, 59.2889, 2.53483, 59.2179, -82.8354, 134.265
0.876, 1, 9.81118, 59.2655, 2.50105, 59.2969, -82.7695, 134.083
0.88, 1, 9.86511, 59.242, 2.46731, 59.3759, -82.7037, 133.9
0.884, 1, 9.919, 59.2186, 2.4336, 59.4548, -82.6379, 133.718
0.888, 1, 9.97283, 59.1951, 2.39992, 59.5336, -82.5722, 133.536
0.892, 1, 10.0266, 59.1717, 2.36627, 59.6123, -82.5066, 133.354
0.896, 1, 10.0804, 59.1484, 2.33265, 59.691, -82.441, 133.172
0.9, 1, 10.134, 59.125, 2.29906, 59.7696, -82.3754, 132.991
0.904, 1, 10.1877, 59.1017, 2.2655, 59.8481, -82.31, 132.809
0.908, 1, 10.2413, 59.0784, 2.23197, 59.9266, -82.2446, 132.628
0.912, 1, 10.2948, 59.0551, 2.19847, 60.005, -82.1792, 132.447
0.916, 1, 10.3483, 59.0318, 2.16501, 60.0833, -82.1139, 132.266
0.92, 1, 10.4018, 59.0086, 2.13157, 60.1615, -82.0487, 132.085
0.924, 1, 10.4551, 58.9853, 2.09816, 60.2397, -81.9835, 131.905
0.928, 1, 10.5085, 58.9621, 2.06479, 60.3178, -81.9184, 131.724
0.932, 1, 10.5618, 58.9389, 2.03144, 60.3958, -81.8533, 131.544
0.936, 1, 10.615, 58.9158, 1.99813, 60.4738, -81.7883, 131.364
0.94, 1, 10.6682, 58.8926, 1.96485, 60.5517, -81.7234, 131.184
0.944, 1, 10.7214, 58.8695, 1.93159, 60.6295, -81.6585, 131.004
0.948, 1, 10.7745, 58.8464, 1.89837, 60.7072, -81.5937, 130.825
0.952, 1, 10.8275, 58.8233, 1.86518, 60.7849, -81.5289, 130.645
0.956, 1, 10.8806, 58.8003, 1.83202, 60.8625, -81.4642, 130.466
0.96, 1, 10.9335, 58.7772, 1.79888, 60.94, -81.3996, 130.287
0.964, 1, 10.9864, 58.7542, 1.76578, 61.0175, -81.335, 130.108
0.968, 1, 11.0393, 58.7312, 1.73272, 61.0949, -81.2705, 129.929
0.972, 1, 11.0921, 58.7083, 1.69968, 61.1722, -81.2061, 129.751
0.976, 1, 11.1448, 58.6853, 1.66667, 61.2494, -81.1416, 129.572
0.98, 1, 11.1976, 58.6624, 1.63369, 61.3266, -81.0773, 129.394
0.984, 1, 11.2502, 58.6395, 1.60074, 61.4037, -81.013, 129.216
0.988, 1, 11.3028, 58.6166, 1.56783, 61.4807, -80.9488, 129.038
0.992, 1, 11.3554, 58.5937, 1.53494, 61.5577, -80.8847, 128.86
0.996, 1, 11.4079, 58.5709, 1.50209, 61.6346, -80.8205, 128.683
1, 1, 11.4604, 58.548, 1.46926, 61.7114, -80.7565, 128.505
1.004, 1, 11.5128, 58.5253, 1.43647, 61.7881, -80.6925, 128.328
1.008, 1, 11.5652, 58.5025, 1.4037, 61.8648, -80.6286, 128.151
1.012, 1, 11.6175, 58.4797, 1.37097, 61.9414, -80.5648, 127.974
1.016, 1, 11.6698, 58.457, 1.33827, 62.0179, -80.5009, 127.797
1.02, 1, 11.722, 58.4343, 1.3056, 62.0943, -80.4372, 127.62
1.024, 1, 11.7742, 58.4116, 1.27296, 62.1707, -80.3735, 127.444
1.027, 1, 11.8263, 58.3889, 1.24035, 62.247, -80.3099, 127.268
1.032, 1, 11.8784, 58.3662, 1.20777, 62.3233, -80.2463, 127.092
1.036, 1, 11.9304, 58.3436, 1.17522, 62.3994, -80.1828, 126.916
1.04, 1, 11.9824, 58.321, 1.1427, 62.4755, -80.1194, 126.74
1.044, 1, 12.0343, 58.2984, 1.11021, 62.5516, -80.056, 126.564
1.048, 1, 12.0862, 58.2758, 1.07775, 62.6275, -79.9927, 126.389
1.052, 1, 12.138, 58.2533, 1.04533, 62.7034, -79.9294, 126.214
1.055, 1, 12.1898, 58.2308, 1.01293, 62.7792, -79.8662, 126.038
1.06, 1, 12.2415, 58.2083, 0.980566, 62.8549, -79.8031, 125.864
1.064, 1, 12.2932, 58.1858, 0.948231, 62.9306, -79.74, 125.689
1.068, 1, 12.3448, 58.1633, 0.915927, 63.0062, -79.677, 125.514
1.072, 1, 12.3964, 58.1409, 0.883653, 63.0817, -79.614, 125.34
1.076, 1, 12.448, 58.1185, 0.85141, 63.1572, -79.5511, 125.165
1.08, 1, 12.4995, 58.0961, 0.819197, 63.2325, -79.4882, 124.991
1.084, 1, 12.5509, 58.0737, 0.787015, 63.3078, -79.4255, 124.817
1.088, 1, 12.6023, 58.0513, 0.754863, 63.3831, -79.3627, 124.643
1.091, 1, 12.6536, 58.029, 0.722742, 63.4582, -79.3001, 124.47
1.096, 1, 12.7049, 58.0067, 0.690651, 63.5333, -79.2374, 124.296
1.1, 1, 12.7562, 57.9844, 0.658591, 63.6084, -79.1749, 124.123
1.104, 1, 12.8074, 57.9621, 0.626561, 63.6833, -79.1124, 123.95
1.108, 1, 12.8585, 57.9399, 0.594561, 63.7582, -79.05, 123.777
1.112, 1, 12.9096, 57.9176, 0.562592, 63.833, -78.9876, 123.604
1.116, 1, 12.9607, 57.8954, 0.530653, 63.9077, -78.9253, 123.431
1.119, 1, 13.0117, 57.8732, 0.498745, 63.9824, -78.863, 123.259
1.124, 1, 13.0626, 57.8511, 0.466867, 64.057, -78.8008, 123.087
1.128, 1, 13.1136, 57.8289, 0.435019, 64.1315, -78.7387, 122.914
1.132, 1, 13.1644, 57.8068, 0.403201, 64.206, -78.6766, 122.743
1.136, 1, 13.2152, 57.7847, 0.371414, 64.2804, -78.6146, 122.571
1.14, 1, 13.266, 57.7626, 0.339657, 64.3547, -78.5527, 122.399
1.144, 1, 13.3167, 57.7406, 0.30793, 64.4289, -78.4908, 122.228
1.147, 1, 13.3674, 57.7185, 0.276233, 64.5031, -78.4289, 122.056
1.152, 1, 13.418, 57.6965, 0.244566, 64.5772, -78.3671, 121.885
1.156, 1, 13.4686, 57.6745, 0.21293, 64.6512, -78.3054, 121.714
1.16, 1, 13.5191, 57.6525, 0.181323, 64.7252, -78.2438, 121.543
1.164, 1, 13.5696, 57.6306, 0.149747, 64.7991, -78.1822, 121.372
1.168, 1, 13.62, 57.6086, 0.118201, 64.8729, -78.1206, 121.202
1.172, 1, 13.6704, 57.5867, 0.0866844, 64.9467, -78.0591, 121.032
1.175, 1, 13.7207, 57.5648, 0.0551982, 65.0203, -77.9977, 120.861
1.18, 1, 13.771, 57.543, 0.023742, 65.0939, -77.9363, 120.691
1.184, 1, 13.8212, 57.5211, -0.00768431, 65.1675, -77.875, 120.521
1.188, 1, 13.8714, 57.4993, -0.0390806, 65.241, -77.8137, 120.352
1.192, 1, 13.9215, 57.4775, -0.0704471, 65.3144, -77.7525, 120.182
1.196, 1, 13.9716, 57.4557, -0.101784, 65.3877, -77.6914, 120.013
1.2, 1, 14.0217, 57.4339, -0.13309, 65.4609, -77.6303, 119.844
1.204, 1, 14.0717, 57.4122, -0.164367, 65.5341, -77.5693, 119.674
1.208, 1, 14.1216, 57.3904, -0.195614, 65.6072, -77.5084, 119.506
1.212, 1, 14.1715, 57.3687, -0.226831, 65.6803, -77.4474, 119.337
1.216, 1, 14.2214, 57.347, -0.258019, 65.7533, -77.3866, 119.168
1.22, 1, 14.2712, 57.3254, -0.289176, 65.8262, -77.3258, 119
1.224, 1, 14.3209, 57.3037, -0.320304, 65.899, -77.2651, 118.832
1.228, 1, 14.3706, 57.2821, -0.351403, 65.9718, -77.2044, 118.663
1.232, 1, 14.4203, 57.2605, -0.382471, 66.0445, -77.1438, 118.495
1.236, 1, 14.4699, 57.2389, -0.41351, 66.1171, -77.0832, 118.328
1.24, 1, 14.5195, 57.2174, -0.444519, 66.1897, -77.0227, 118.16
1.244, 1, 14.569, 57.1958, -0.475499, 66.2622, -76.9623, 117.993
1.248, 1, 14.6185, 57.1743, -0.506449, 66.3346, -76.9019, 117.825
1.252, 1, 14.6679, 57.1528, -0.53737, 66.407, -76.8416, 117.658
1.256, 1, 14.7173, 57.1313, -0.568261, 66.4793, -76.7813, 117.491
1.26, 1, 14.7666, 57.1099, -0.599123, 66.5515, -76.7211, 117.324
1.264, 1, 14.8159, 57.0884, -0.629955, 66.6236, -76.6609, 117.158
1.267, 1, 14.8652, 57.067, -0.660758, 66.6957, -76.6009, 116.991
1.272, 1, 14.9144, 57.0456, -0.691531, 66.7677, -76.5408, 116.825
1.276, 1, 14.9635, 57.0242, -0.722275, 66.8397, -76.4808, 116.659
1.28, 1, 15.0126, 57.0029, -0.75299, 66.9115, -76.4209, 116.493
1.284, 1, 15.0616, 56.9815, -0.783676, 66.9833, -76.361, 116.327
1.288, 1, 15.1107, 56.9602, -0.814332, 67.0551, -76.3012, 116.161
1.292, 1, 15.1596, 56.9389, -0.844958, 67.1267, -76.2415, 115.995
1.295, 1, 15.2085, 56.9177, -0.875556, 67.1983, -76.1818, 115.83
1.3, 1, 15.2574, 56.8964, -0.906124, 67.2699, -76.1221, 115.665
1.304, 1, 15.3062, 56.8752, -0.936664, 67.3413, -76.0626, 115.5
1.308, 1, 15.355, 56.8539, -0.967174, 67.4127, -76.003, 115.335
1.312, 1, 15.4037, 56.8327, -0.997655, 67.4841, -75.9436, 115.17
1.316, 1, 15.4524, 56.8116, -1.02811, 67.5553, -75.8842, 115.005
1.32, 1, 15.501, 56.7904, -1.05853, 67.6265, -75.8248, 114.841
1.324, 1, 15.5496, 56.7693, -1.08892, 67.6976, -75.7655, 114.677
1.328, 1, 15.5981, 56.7482, -1.11929, 67.7687, -75.7063, 114.513
1.332, 1, 15.6466, 56.7271, -1.14963, 67.8397, -75.6471, 114.349
1.336, 1, 15.6951, 56.706, -1.17993, 67.9106, -75.588, 114.185
1.34, 1, 15.7435, 56.685, -1.21021, 67.9815, -75.5289, 114.021
1.344, 1, 15.7918, 56.6639, -1.24046, 68.0522, -75.4699, 113.858
1.348, 1, 15.8401, 56.6429, -1.27068, 68.1229, -75.4109, 113.694
1.352, 1, 15.8884, 56.6219, -1.30087, 68.1936, -75.352, 113.531
1.356, 1, 15.9366, 56.6009, -1.33104, 68.2642, -75.2932, 113.368
1.36, 1, 15.9848, 56.58, -1.36117, 68.3347, -75.2344, 113.205
1.364, 1, 16.0329, 56.5591, -1.39128, 68.4051, -75.1756, 113.042
1.368, 1, 16.081, 56.5381, -1.42135, 68.4755, -75.1169, 112.88
1.372, 1, 16.129, 56.5173, -1.4514, 68.5458, -75.0583, 112.717
1.376, 1, 16.177, 56.4964, -1.48142, 68.6161, -74.9998, 112.555
1.38, 1, 16.225, 56.4755, -1.51141, 68.6863, -74.9412, 112.393
1.384, 1, 16.2729, 56.4547, -1.54137, 68.7564, -74.8828, 112.231
1.388, 1, 16.3207, 56.4339, -1.5713, 68.8264, -74.8244, 112.069
1.392, 1, 16.3685, 56.4131, -1.60121, 68.8964, -74.766, 111.907
1.396, 1, 16.4163, 56.3923, -1.63108, 68.9663, -74.7078, 111.746
1.4, 1, 16.464, 56.3716, -1.66093, 69.0362, -74.6495, 111.585
1.404, 1, 16.5117, 56.3508, -1.69075, 69.1059, -74.5913, 111.423
1.408, 1, 16.5593, 56.3301, -1.72054, 69.1757, -74.5332, 111.262
1.412, 1, 16.6069, 56.3094, -1.75031, 69.2453, -74.4752, 111.102
1.416, 1, 16.6544, 56.2887, -1.78004, 69.3149, -74.4171, 110.941
1.42, 1, 16.7019, 56.2681, -1.80975, 69.3844, -74.3592, 110.78
1.424, 1, 16.7493, 56.2474, -1.83943, 69.4538, -74.3013, 110.62
1.428, 1, 16.7967, 56.2268, -1.86908, 69.5232, -74.2434, 110.459
1.432, 1, 16.8441, 56.2062, -1.8987, 69.5926, -74.1856, 110.299
1.436, 1, 16.8914, 56.1856, -1.92829, 69.6618, -74.1279, 110.139
1.44, 1, 16.9387, 56.1651, -1.95786, 69.731, -74.0702, 109.98
1.444, 1, 16.9859, 56.1445, -1.9874, 69.8001, -74.0126, 109.82
1.448, 1, 17.033, 56.124, -2.01691, 69.8692, -73.955, 109.66
1.452, 1, 17.0802, 56.1035, -2.04639, 69.9382, -73.8975, 109.501
1.456, 1, 17.1273, 56.083, -2.07585, 70.0071, -73.84, 109.342
1.46, 1, 17.1743, 56.0626, -2.10527, 70.076, -73.7826, 109.183
1.464, 1, 17.2213, 56.0421, -2.13467, 70.1447, -73.7252, 109.024
1.468, 1, 17.2683, 56.0217, -2.16404, 70.2135, -73.6679, 108.865
1.472, 1, 17.3152, 56.0013, -2.19339, 70.2822, -73.6107, 108.706
1.476, 1, 17.362, 55.9809, -2.22271, 70.3508, -73.5535, 108.548
1.48, 1, 17.4089, 55.9606, -2.25199, 70.4193, -73.4963, 108.39
1.484, 1, 17.4556, 55.9402, -2.28126, 70.4878, -73.4393, 108.231
1.488, 1, 17.5024, 55.9199, -2.31049, 70.5562, -73.3822, 108.073
1.492, 1, 17.5491, 55.8996, -2.3397, 70.6245, -73.3252, 107.915
1.496, 1, 17.5957, 55.8793, -2.36888, 70.6928, -73.2683, 107.758
1.5, 1, 17.6423, 55.859, -2.39803, 70.761, -73.2114, 107.6
1.504, 1, 17.6889, 55.8388, -2.42715, 70.8292, -73.1546, 107.443
1.508, 1, 17.7354, 55.8185, -2.45625, 70.8973, -73.0978, 107.285
1.512, 1, 17.7819, 55.7983, -2.48532, 70.9653, -73.0411, 107.128
1.516, 1, 17.8283, 55.7781, -2.51436, 71.0333, -72.9845, 106.971
1.52, 1, 17.8747, 55.7579, -2.54338, 71.1012, -72.9278, 106.814
1.524, 1, 17.921, 55.7378, -2.57237, 71.169, -72.8713, 106.658
1.528, 1, 17.9673, 55.7176, -2.60133, 71.2368, -72.8148, 106.501
1.532, 1, 18.0136, 55.6975, -2.63027, 71.3045, -72.7583, 106.345
1.536, 1, 18.0598, 55.6774, -2.65918, 71.3721, -72.7019, 106.188
1.54, 1, 18.106, 55.6573, -2.68806, 71.4397, -72.6456, 106.032
1.544, 1, 18.1521, 55.6373, -2.71691, 71.5072, -72.5893, 105.876
1.548, 1, 18.1982, 55.6172, -2.74574, 71.5747, -72.533, 105.721
1.552, 1, 18.2442, 55.5972, -2.77454, 71.6421, -72.4768, 105.565
1.556, 1, 18.2902, 55.5772, -2.80331, 71.7094, -72.4207, 105.409
1.56, 1, 18.3362, 55.5572, -2.83206, 71.7767, -72.3646, 105.254
1.564, 1, 18.3821, 55.5372, -2.86078, 71.8439, -72.3086, 105.099
1.568, 1, 18.4279, 55.5173, -2.88948, 71.911, -72.2526, 104.944
1.572, 1, 18.4738, 55.4973, -2.91815, 71.9781, -72.1967, 104.789
1.576, 1, 18.5196, 55.4774, -2.94679, 72.0452, -72.1408, 104.634
1.58, 1, 18.5653, 55.4575, -2.9754, 72.1121, -72.085, 104.479
1.584, 1, 18.611, 55.4377, -3.00399, 72.179, -72.0292, 104.325
1.588, 1, 18.6567, 55.4178, -3.03255, 72.2459, -71.9735, 104.17
1.592, 1, 18.7023, 55.3979, -3.06109, 72.3126, -71.9178, 104.016
1.596, 1, 18.7479, 55.3781, -3.0896, 72.3793, -71.8622, 103.862
1.6, 1, 18.7934, 55.3583, -3.11808, 72.446, -71.8066, 103.708
1.604, 1, 18.8389, 55.3385, -3.14654, 72.5126, -71.7511, 103.554
1.608, 1, 18.8843, 55.3188, -3.17497, 72.5791, -71.6956, 103.4
1.612, 1, 18.9297, 55.299, -3.20337, 72.6456, -71.6402, 103.247
1.616, 1, 18.9751, 55.2793, -3.23175, 72.712, -71.5848, 103.093
1.62, 1, 19.0204, 55.2596, -3.2601, 72.7783, -71.5295, 102.94
1.624, 1, 19.0657, 55.2399, -3.28843, 72.8446, -71.4742, 102.787
1.628, 1, 19.111, 55.2202, -3.31673, 72.9109, -71.419, 102.634
1.632, 1, 19.1562, 55.2005, -3.34501, 72.977, -71.3639, 102.481
1.636, 1, 19.2013, 55.1809, -3.37325, 73.0431, -71.3087, 102.328
1.64, 1, 19.2464, 55.1613, -3.40148, 73.1092, -71.2537, 102.176
1.644, 1, 19.2915, 55.1417, -3.42967, 73.1751, -71.1987, 102.023
1.648, 1, 19.3366, 55.1221, -3.45785, 73.2411, -71.1437, 101.871
1.652, 1, 19.3815, 55.1025, -3.48599, 73.3069, -71.0888, 101.719
1.656, 1, 19.4265, 55.0829, -3.51411, 73.3727, -71.0339, 101.567
1.66, 1, 19.4714, 55.0634, -3.54221, 73.4385, -70.9791, 101.415
1.664, 1, 19.5163, 55.0439, -3.57027, 73.5042, -70.9244, 101.263
1.668, 1, 19.5611, 55.0244, -3.59832, 73.5698, -70.8696, 101.112
1.672, 1, 19.6059, 55.0049, -3.62634, 73.6354, -70.815, 100.96
1.676, 1, 19.6507, 54.9854, -3.65433, 73.7009, -70.7604, 100.809
1.68, 1, 19.6954, 54.966, -3.68229, 73.7663, -70.7058, 100.658
1.684, 1, 19.74, 54.9466, -3.71024, 73.8317, -70.6513, 100.507
1.688, 1, 19.7847, 54.9272, -3.73815, 73.897, -70.5968, 100.356
1.692, 1, 19.8292, 54.9078, -3.76604, 73.9623, -70.5424, 100.205
1.696, 1, 19.8738, 54.8884, -3.79391, 74.0275, -70.488, 100.054
1.7, 1, 19.9183, 54.869, -3.82175, 74.0926, -70.4337, 99.904
1.704, 1, 19.9628, 54.8497, -3.84957, 74.1577, -70.3795, 99.7536
1.708, 1, 20.0072, 54.8304, -3.87736, 74.2228, -70.3252, 99.6034
1.712, 1, 20.0516, 54.8111, -3.90512, 74.2877, -70.2711, 99.4533
1.716, 1, 20.0959, 54.7918, -3.93286, 74.3526, -70.2169, 99.3034
1.72, 1, 20.1402, 54.7725, -3.96058, 74.4175, -70.1629, 99.1536
1.724, 1, 20.1845, 54.7532, -3.98827, 74.4823, -70.1088, 99.0039
1.728, 1, 20.2287, 54.734, -4.01593, 74.547, -70.0549, 98.8543
1.732, 1, 20.2729, 54.7148, -4.04357, 74.6117, -70.0009, 98.7049
1.736, 1, 20.3171, 54.6956, -4.07119, 74.6763, -69.9471, 98.5556
1.74, 1, 20.3612, 54.6764, -4.09878, 74.7409, -69.8932, 98.4065
1.744, 1, 20.4052, 54.6572, -4.12635, 74.8054, -69.8395, 98.2575
1.748, 1, 20.4493, 54.6381, -4.15389, 74.8699, -69.7857, 98.1086
1.752, 1, 20.4933, 54.6189, -4.1814, 74.9342, -69.732, 97.9599
1.756, 1, 20.5372, 54.5998, -4.2089, 74.9986, -69.6784, 97.8112
1.76, 1, 20.5811, 54.5807, -4.23636, 75.0629, -69.6248, 97.6628
1.764, 1, 20.625, 54.5616, -4.26381, 75.1271, -69.5713, 97.5144
1.768, 1, 20.6688, 54.5426, -4.29123, 75.1912, -69.5178, 97.3662
1.772, 1, 20.7126, 54.5235, -4.31862, 75.2553, -69.4643, 97.2181
1.776, 1, 20.7564, 54.5045, -4.34599, 75.3194, -69.4109, 97.0702
1.78, 1, 20.8001, 54.4855, -4.37334, 75.3834, -69.3576, 96.9223
1.784, 1, 20.8438, 54.4665, -4.40066, 75.4473, -69.3043, 96.7746
1.788, 1, 20.8874, 54.4475, -4.42796, 75.5112, -69.251, 96.6271
1.792, 1, 20.931, 54.4285, -4.45523, 75.575, -69.1978, 96.4796
1.796, 1, 20.9746, 54.4096, -4.48248, 75.6388, -69.1446, 96.3323
1.8, 1, 21.0181, 54.3907, -4.50971, 75.7025, -69.0915, 96.1852
1.804, 1, 21.0616, 54.3717, -4.53691, 75.7661, -69.0384, 96.0381
1.808, 1, 21.105, 54.3528, -4.56409, 75.8297, -68.9854, 95.8912
1.812, 1, 21.1484, 54.334, -4.59124, 75.8933, -68.9324, 95.7444
1.816, 1, 21.1918, 54.3151, -4.61837, 75.9568, -68.8795, 95.5978
1.82, 1, 21.2351, 54.2962, -4.64547, 76.0202, -68.8266, 95.4512
1.824, 1, 21.2784, 54.2774, -4.67256, 76.0836, -68.7738, 95.3048
1.828, 1, 21.3217, 54.2586, -4.69962, 76.1469, -68.721, 95.1586
1.832, 1, 21.3649, 54.2398, -4.72665, 76.2102, -68.6683, 95.0124
1.836, 1, 21.4081, 54.221, -4.75366, 76.2734, -68.6155, 94.8664
1.84, 1, 21.4513, 54.2023, -4.78065, 76.3365, -68.5629, 94.7205
1.844, 1, 21.4944, 54.1835, -4.80762, 76.3996, -68.5103, 94.5748
1.848, 1, 21.5374, 54.1648, -4.83456, 76.4627, -68.4577, 94.4291
1.852, 1, 21.5805, 54.146, -4.86148, 76.5257, -68.4052, 94.2836
1.856, 1, 21.6235, 54.1273, -4.88837, 76.5886, -68.3527, 94.1382
1.86, 1, 21.6664, 54.1087, -4.91524, 76.6515, -68.3003, 93.993
1.864, 1, 21.7093, 54.09, -4.94209, 76.7143, -68.2479, 93.8478
1.868, 1, 21.7522, 54.0713, -4.96891, 76.7771, -68.1956, 93.7028
1.872, 1, 21.7951, 54.0527, -4.99572, 76.8398, -68.1433, 93.558
1.876, 1, 21.8379, 54.0341, -5.0225, 76.9025, -68.091, 93.4132
1.88, 1, 21.8807, 54.0155, -5.04925, 76.9651, -68.0388, 93.2686
1.884, 1, 21.9234, 53.9969, -5.07598, 77.0276, -67.9867, 93.1241
1.888, 1, 21.9661, 53.9783, -5.10269, 77.0901, -67.9346, 92.9797
1.892, 1, 22.0088, 53.9598, -5.12938, 77.1526, -67.8825, 92.8354
1.896, 1, 22.0514, 53.9412, -5.15604, 77.215, -67.8305, 92.6913
1.9, 1, 22.094, 53.9227, -5.18269, 77.2773, -67.7785, 92.5473
1.904, 1, 22.1365, 53.9042, -5.2093, 77.3396, -67.7266, 92.4034
1.908, 1, 22.179, 53.8857, -5.2359, 77.4018, -67.6747, 92.2596
1.912, 1, 22.2215, 53.8672, -5.26247, 77.464, -67.6229, 92.116
1.916, 1, 22.264, 53.8488, -5.28902, 77.5262, -67.5711, 91.9724
1.92, 1, 22.3064, 53.8303, -5.31555, 77.5882, -67.5193, 91.829
1.924, 1, 22.3487, 53.8119, -5.34206, 77.6503, -67.4676, 91.6858
1.928, 1, 22.3911, 53.7935, -5.36854, 77.7122, -67.4159, 91.5426
1.932, 1, 22.4334, 53.7751, -5.395, 77.7742, -67.3643, 91.3996
1.936, 1, 22.4756, 53.7567, -5.42144, 77.836, -67.3127, 91.2567
1.94, 1, 22.5179, 53.7383, -5.44785, 77.8978, -67.2612, 91.1139
1.944, 1, 22.5601, 53.72, -5.47424, 77.9596, -67.2097, 90.9712
1.948, 1, 22.6022, 53.7016, -5.50061, 78.0213, -67.1582, 90.8286
1.952, 1, 22.6443, 53.6833, -5.52696, 78.083, -67.1068, 90.6862
1.956, 1, 22.6864, 53.665, -5.55329, 78.1446, -67.0555, 90.5439
1.96, 1, 22.7285, 53.6467, -5.57959, 78.2061, -67.0041, 90.4017
1.964, 1, 22.7705, 53.6284, -5.60588, 78.2676, -66.9529, 90.2596
1.968, 1, 22.8125, 53.6102, -5.63213, 78.3291, -66.9016, 90.1177
1.972, 1, 22.8544, 53.5919, -5.65837, 78.3905, -66.8504, 89.9759
1.976, 1, 22.8963, 53.5737, -5.68459, 78.4518, -66.7993, 89.8341
1.98, 1, 22.9382, 53.5555, -5.71078, 78.5131, -66.7482, 89.6925
1.984, 1, 22.9801, 53.5373, -5.73695, 78.5744, -66.6971, 89.5511
1.988, 1, 23.0219, 53.5191, -5.7631, 78.6355, -66.6461, 89.4097
1.992, 1, 23.0636, 53.5009, -5.78923, 78.6967, -66.5951, 89.2685
1.996, 1, 23.1054, 53.4828, -5.81534, 78.7578, -66.5442, 89.1273
1.999, 1, 23.1471, 53.4646, -5.84142, 78.8188, -66.4933, 88.9863
2.004, 1, 23.1887, 53.4465, -5.86749, 78.8798, -66.4425, 88.8455
2.008, 1, 23.2304, 53.4284, -5.89353, 78.9408, -66.3916, 88.7047
2.012, 1, 23.272, 53.4103, -5.91955, 79.0016, -66.3409, 88.564
2.015, 1, 23.3135, 53.3922, -5.94555, 79.0625, -66.2902, 88.4235
2.019, 1, 23.355, 53.3742, -5.97152, 79.1233, -66.2395, 88.2831
2.024, 1, 23.3965, 53.3561, -5.99748, 79.184, -66.1888, 88.1428
2.028, 1, 23.438, 53.3381, -6.02341, 79.2447, -66.1382, 88.0026
2.031, 1, 23.4794, 53.3201, -6.04932, 79.3053, -66.0877, 87.8625
2.036, 1, 23.5208, 53.3021, -6.07521, 79.3659, -66.0372, 87.7225
2.04, 1, 23.5622, 53.2841, -6.10108, 79.4265, -65.9867, 87.5827
2.044, 1, 23.6035, 53.2661, -6.12693, 79.4869, -65.9363, 87.443
2.048, 1, 23.6448, 53.2481, -6.15276, 79.5474, -65.8859, 87.3034
2.051, 1, 23.686, 53.2302, -6.17857, 79.6078, -65.8355, 87.1639
2.055, 1, 23.7273, 53.2123, -6.20435, 79.6681, -65.7852, 87.0245
2.06, 1, 23.7684, 53.1944, -6.23011, 79.7284, -65.735, 86.8852
2.064, 1, 23.8096, 53.1765, -6.25586, 79.7886, -65.6847, 86.746
2.068, 1, 23.8507, 53.1586, -6.28158, 79.8488, -65.6345, 86.607
2.071, 1, 23.8918, 53.1407, -6.30728, 79.909, -65.5844, 86.4681
2.076, 1, 23.9329, 53.1228, -6.33296, 79.9691, -65.5343, 86.3293
2.08, 1, 23.9739, 53.105, -6.35862, 80.0291, -65.4842, 86.1906
2.084, 1, 24.0149, 53.0872, -6.38425, 80.0891, -65.4342, 86.052
2.087, 1, 24.0558, 53.0694, -6.40987, 80.149, -65.3842, 85.9135
2.092, 1, 24.0967, 53.0516, -6.43547, 80.2089, -65.3343, 85.7751
2.096, 1, 24.1376, 53.0338, -6.46104, 80.2688, -65.2844, 85.6369
2.1, 1, 24.1785, 53.016, -6.4866, 80.3286, -65.2346, 85.4987
2.104, 1, 24.2193, 52.9982, -6.51213, 80.3883, -65.1847, 85.3607
2.107, 1, 24.2601, 52.9805, -6.53764, 80.448, -65.135, 85.2228
2.111, 1, 24.3008, 52.9628, -6.56314, 80.5077, -65.0852, 85.085
2.116, 1, 24.3416, 52.9451, -6.58861, 80.5673, -65.0355, 84.9473
2.12, 1, 24.3823, 52.9274, -6.61406, 80.6269, -64.9859, 84.8097
2.124, 1, 24.4229, 52.9097, -6.63949, 80.6864, -64.9362, 84.6722
2.127, 1, 24.4635, 52.892, -6.66491, 80.7458, -64.8867, 84.5348
2.132, 1, 24.5041, 52.8744, -6.6903, 80.8053, -64.8371, 84.3976
2.136, 1, 24.5447, 52.8567, -6.71567, 80.8646, -64.7876, 84.2604
2.14, 1, 24.5852, 52.8391, -6.74102, 80.924, -64.7382, 84.1234
2.143, 1, 24.6257, 52.8215, -6.76635, 80.9832, -64.6887, 83.9865
2.148, 1, 24.6662, 52.8039, -6.79166, 81.0425, -64.6394, 83.8496
2.152, 1, 24.7066, 52.7863, -6.81695, 81.1016, -64.59, 83.7129
2.156, 1, 24.747, 52.7687, -6.84222, 81.1608, -64.5407, 83.5763
2.16, 1, 24.7874, 52.7512, -6.86747, 81.2199, -64.4914, 83.4398
2.163, 1, 24.8277, 52.7336, -6.8927, 81.2789, -64.4422, 83.3034
2.168, 1, 24.868, 52.7161, -6.91792, 81.3379, -64.393, 83.1672
2.172, 1, 24.9083, 52.6986, -6.94311, 81.3969, -64.3439, 83.031
2.176, 1, 24.9485, 52.6811, -6.96828, 81.4558, -64.2948, 82.8949
2.179, 1, 24.9887, 52.6636, -6.99343, 81.5146, -64.2457, 82.7589
2.184, 1, 25.0289, 52.6461, -7.01856, 81.5734, -64.1967, 82.6231
2.188, 1, 25.0691, 52.6286, -7.04367, 81.6322, -64.1477, 82.4874
2.192, 1, 25.1092, 52.6112, -7.06877, 81.6909, -64.0987, 82.3517
2.196, 1, 25.1493, 52.5938, -7.09384, 81.7496, -64.0498, 82.2162
2.199, 1, 25.1893, 52.5763, -7.11889, 81.8082, -64.0009, 82.0807
2.204, 1, 25.2293, 52.5589, -7.14393, 81.8668, -63.9521, 81.9454
2.208, 1, 25.2693, 52.5415, -7.16894, 81.9253, -63.9033, 81.8102
2.212, 1, 25.3093, 52.5241, -7.19394, 81.9838, -63.8545, 81.6751
2.216, 1, 25.3492, 52.5068, -7.21891, 82.0423, -63.8058, 81.5401
2.219, 1, 25.3891, 52.4894, -7.24387, 82.1007, -63.7571, 81.4051
2.224, 1, 25.429, 52.4721, -7.26881, 82.159, -63.7084, 81.2703
2.228, 1, 25.4688, 52.4548, -7.29373, 82.2173, -63.6598, 81.1356
2.232, 1, 25.5086, 52.4374, -7.31862, 82.2756, -63.6112, 81.0011
2.235, 1, 25.5484, 52.4201, -7.3435, 82.3338, -63.5627, 80.8666
2.24, 1, 25.5881, 52.4029, -7.36836, 82.392, -63.5142, 80.7322
2.244, 1, 25.6279, 52.3856, -7.39321, 82.4501, -63.4657, 80.5979
2.248, 1, 25.6675, 52.3683, -7.41803, 82.5082, -63.4173, 80.4637
2.252, 1, 25.7072, 52.3511, -7.44283, 82.5663, -63.3689, 80.3296
2.255, 1, 25.7468, 52.3338, -7.46762, 82.6243, -63.3205, 80.1956
2.259, 1, 25.7864, 52.3166, -7.49238, 82.6822, -63.2722, 80.0618
2.264, 1, 25.826, 52.2994, -7.51713, 82.7401, -63.2239, 79.928
2.268, 1, 25.8655, 52.2822, -7.54186, 82.798, -63.1757, 79.7943
2.272, 1, 25.905, 52.265, -7.56657, 82.8558, -63.1275, 79.6607
2.275, 1, 25.9445, 52.2479, -7.59126, 82.9136, -63.0793, 79.5273
2.28, 1, 25.9839, 52.2307, -7.61593, 82.9713, -63.0312, 79.3939
2.284, 1, 26.0233, 52.2136, -7.64058, 83.029, -62.9831, 79.2606
2.288, 1, 26.0627, 52.1964, -7.66522, 83.0867, -62.935, 79.1275
2.291, 1, 26.1021, 52.1793, -7.68983, 83.1443, -62.887, 78.9944
2.296, 1, 26.1414, 52.1622, -7.71443, 83.2018, -62.839, 78.8614
2.3, 1, 26.1807, 52.1451, -7.73901, 83.2594, -62.791, 78.7286
2.304, 1, 26.22, 52.128, -7.76357, 83.3168, -62.7431, 78.5958
2.308, 1, 26.2592, 52.111, -7.78811, 83.3743, -62.6952, 78.4631
2.311, 1, 26.2984, 52.0939, -7.81264, 83.4316, -62.6474, 78.3306
2.316, 1, 26.3376, 52.0769, -7.83714, 83.489, -62.5996, 78.1981
2.32, 1, 26.3767, 52.0599, -7.86163, 83.5463, -62.5518, 78.0657
2.324, 1, 26.4158, 52.0428, -7.8861, 83.6036, -62.5041, 77.9334
2.328, 1, 26.4549, 52.0258, -7.91055, 83.6608, -62.4564, 77.8013
2.331, 1, 26.494, 52.0088, -7.93498, 83.7179, -62.4087, 77.6692
2.336, 1, 26.533, 51.9919, -7.9594, 83.7751, -62.3611, 77.5372
2.34, 1, 26.572, 51.9749, -7.9838, 83.8322, -62.3135, 77.4053
2.344, 1, 26.611, 51.958, -8.00817, 83.8892, -62.2659, 77.2735
2.347, 1, 26.6499, 51.941, -8.03253, 83.9462, -62.2184, 77.1419
2.352, 1, 26.6888, 51.9241, -8.05688, 84.0032, -62.1709, 77.0103
2.356, 1, 26.7277, 51.9072, -8.0812, 84.0601, -62.1234, 76.8788
2.36, 1, 26.7666, 51.8903, -8.10551, 84.117, -62.076, 76.7474
2.364, 1, 26.8054, 51.8734, -8.1298, 84.1738, -62.0286, 76.6161
2.367, 1, 26.8442, 51.8565, -8.15407, 84.2306, -61.9813, 76.4849
2.372, 1, 26.883, 51.8396, -8.17832, 84.2874, -61.9339, 76.3538
2.376, 1, 26.9217, 51.8228, -8.20255, 84.3441, -61.8867, 76.2228
2.38, 1, 26.9605, 51.8059, -8.22677, 84.4008, -61.8394, 76.0919
2.383, 1, 26.9991, 51.7891, -8.25097, 84.4574, -61.7922, 75.9611
2.388, 1, 27.0378, 51.7723, -8.27515, 84.514, -61.745, 75.8303
2.392, 1, 27.0764, 51.7555, -8.29932, 84.5705, -61.6979, 75.6997
2.396, 1, 27.115, 51.7387, -8.32346, 84.627, -61.6508, 75.5692
2.4, 1, 27.1536, 51.7219, -8.34759, 84.6835, -61.6037, 75.4387
2.403, 1, 27.1922, 51.7052, -8.37171, 84.7399, -61.5566, 75.3084
2.408, 1, 27.2307, 51.6884, -8.3958, 84.7963, -61.5096, 75.1782
2.412, 1, 27.2692, 51.6717, -8.41988, 84.8526, -61.4627, 75.048
2.416, 1, 27.3076, 51.6549, -8.44394, 84.9089, -61.4157, 74.9179
2.42, 1, 27.3461, 51.6382, -8.46798, 84.9652, -61.3688, 74.788
2.423, 1, 27.3845, 51.6215, -8.492, 85.0214, -61.3219, 74.6581
2.428, 1, 27.4229, 51.6048, -8.51601, 85.0776, -61.2751, 74.5283
2.432, 1, 27.4612, 51.5881, -8.54, 85.1337, -61.2283, 74.3986
2.436, 1, 27.4995, 51.5715, -8.56397, 85.1898, -61.1815, 74.2691
2.439, 1, 27.5378, 51.5548, -8.58793, 85.2459, -61.1348, 74.1396
2.444, 1, 27.5761, 51.5382, -8.61187, 85.3019, -61.0881, 74.0102
2.448, 1, 27.6143, 51.5215, -8.63579, 85.3579, -61.0414, 73.8808
2.452, 1, 27.6526, 51.5049, -8.65969, 85.4138, -60.9948, 73.7516
2.456, 1, 27.6907, 51.4883, -8.68358, 85.4697, -60.9482, 73.6225
2.459, 1, 27.7289, 51.4717, -8.70745, 85.5256, -60.9016, 73.4935
2.464, 1, 27.767, 51.4551, -8.73131, 85.5814, -60.855, 73.3645
2.468, 1, 27.8051, 51.4385, -8.75514, 85.6372, -60.8085, 73.2357
2.472, 1, 27.8432, 51.422, -8.77896, 85.6929, -60.7621, 73.1069
2.476, 1, 27.8813, 51.4054, -8.80276, 85.7486, -60.7156, 72.9782
2.479, 1, 27.9193, 51.3889, -8.82655, 85.8043, -60.6692, 72.8496
2.484, 1, 27.9573, 51.3723, -8.85032, 85.8599, -60.6228, 72.7212
2.488, 1, 27.9953, 51.3558, -8.87407, 85.9155, -60.5765, 72.5928
2.492, 1, 28.0332, 51.3393, -8.89781, 85.971, -60.5302, 72.4644
2.495, 1, 28.0711, 51.3228, -8.92153, 86.0266, -60.4839, 72.3362
2.5, 1, 28.109, 51.3064, -8.94523, 86.082, -60.4377, 72.2081
2.504, 1, 28.1469, 51.2899, -8.96892, 86.1374, -60.3914, 72.08
2.508, 1, 28.1847, 51.2734, -8.99259, 86.1928, -60.3453, 71.9521
2.512, 1, 28.2226, 51.257, -9.01624, 86.2482, -60.2991, 71.8242
2.515, 1, 28.2603, 51.2405, -9.03988, 86.3035, -60.253, 71.6965
2.52, 1, 28.2981, 51.2241, -9.0635, 86.3588, -60.2069, 71.5688
2.524, 1, 28.3358, 51.2077, -9.0871, 86.414, -60.1609, 71.4412
2.528, 1, 28.3736, 51.1913, -9.11069, 86.4692, -60.1149, 71.3137
2.531, 1, 28.4112, 51.1749, -9.13426, 86.5244, -60.0689, 71.1863
2.536, 1, 28.4489, 51.1585, -9.15781, 86.5795, -60.0229, 71.0589
2.54, 1, 28.4865, 51.1422, -9.18135, 86.6346, -59.977, 70.9317
2.544, 1, 28.5241, 51.1258, -9.20488, 86.6896, -59.9311, 70.8045
2.548, 1, 28.5617, 51.1095, -9.22838, 86.7446, -59.8852, 70.6774
2.551, 1, 28.5993, 51.0931, -9.25187, 86.7996, -59.8394, 70.5505
2.556, 1, 28.6368, 51.0768, -9.27535, 86.8545, -59.7936, 70.4236
2.56, 1, 28.6743, 51.0605, -9.29881, 86.9094, -59.7478, 70.2968
2.564, 1, 28.7118, 51.0442, -9.32225, 86.9643, -59.7021, 70.17
2.568, 1, 28.7492, 51.0279, -9.34568, 87.0191, -59.6564, 70.0434
2.571, 1, 28.7867, 51.0116, -9.36909, 87.0739, -59.6107, 69.9168
2.576, 1, 28.8241, 50.9953, -9.39248, 87.1286, -59.5651, 69.7904
2.58, 1, 28.8614, 50.9791, -9.41586, 87.1833, -59.5194, 69.664
2.584, 1, 28.8988, 50.9628, -9.43922, 87.238, -59.4739, 69.5377
2.587, 1, 28.9361, 50.9466, -9.46257, 87.2926, -59.4283, 69.4115
2.592, 1, 28.9734, 50.9304, -9.4859, 87.3473, -59.3828, 69.2854
2.596, 1, 29.0107, 50.9142, -9.50922, 87.4018, -59.3373, 69.1593
2.6, 1, 29.0479, 50.898, -9.53252, 87.4563, -59.2918, 69.0334
2.604, 1, 29.0852, 50.8818, -9.5558, 87.5108, -59.2464, 68.9075
2.607, 1, 29.1224, 50.8656, -9.57907, 87.5653, -59.201, 68.7817
2.612, 1, 29.1595, 50.8494, -9.60233, 87.6197, -59.1556, 68.656
2.616, 1, 29.1967, 50.8333, -9.62557, 87.6741, -59.1103, 68.5304
2.62, 1, 29.2338, 50.8171, -9.64879, 87.7284, -59.065, 68.4049
2.624, 1, 29.2709, 50.801, -9.67199, 87.7827, -59.0197, 68.2794
2.627, 1, 29.308, 50.7849, -9.69519, 87.837, -58.9745, 68.154
2.632, 1, 29.345, 50.7687, -9.71836, 87.8912, -58.9293, 68.0288
2.636, 1, 29.3821, 50.7526, -9.74152, 87.9454, -58.8841, 67.9035
2.64, 1, 29.4191, 50.7365, -9.76467, 87.9996, -58.8389, 67.7784
2.643, 1, 29.456, 50.7205, -9.7878, 88.0537, -58.7938, 67.6534
2.648, 1, 29.493, 50.7044, -9.81091, 88.1078, -58.7487, 67.5284
2.652, 1, 29.5299, 50.6883, -9.83401, 88.1619, -58.7036, 67.4036
2.656, 1, 29.5668, 50.6723, -9.8571, 88.2159, -58.6586, 67.2788
2.66, 1, 29.6037, 50.6562, -9.88017, 88.2699, -58.6136, 67.1541
2.663, 1, 29.6406, 50.6402, -9.90322, 88.3238, -58.5686, 67.0294
2.668, 1, 29.6774, 50.6242, -9.92626, 88.3777, -58.5236, 66.9049
2.672, 1, 29.7142, 50.6082, -9.94929, 88.4316, -58.4787, 66.7804
2.676, 1, 29.751, 50.5922, -9.9723, 88.4855, -58.4338, 66.6561
2.679, 1, 29.7877, 50.5762, -9.99529, 88.5393, -58.3889, 66.5318
2.684, 1, 29.8245, 50.5602, -10.0183, 88.593, -58.3441, 66.4075
2.688, 1, 29.8612, 50.5442, -10.0412, 88.6468, -58.2993, 66.2834
2.692, 1, 29.8979, 50.5283, -10.0642, 88.7005, -58.2545, 66.1593
2.696, 1, 29.9346, 50.5123, -10.0871, 88.7542, -58.2098, 66.0353
2.699, 1, 29.9712, 50.4964, -10.11, 88.8078, -58.1651, 65.9114
2.704, 1, 30.0078, 50.4804, -10.1329, 88.8614, -58.1204, 65.7876
2.708, 1, 30.0444, 50.4645, -10.1558, 88.915, -58.0757, 65.6639
2.712, 1, 30.081, 50.4486, -10.1787, 88.9685, -58.0311, 65.5402
2.716, 1, 30.1175, 50.4327, -10.2016, 89.022, -57.9865, 65.4166
2.719, 1, 30.154, 50.4168, -10.2244, 89.0755, -57.9419, 65.2932
2.724, 1, 30.1905, 50.401, -10.2473, 89.1289, -57.8974, 65.1697
2.728, 1, 30.227, 50.3851, -10.2701, 89.1823, -57.8528, 65.0464
2.732, 1, 30.2635, 50.3692, -10.2929, 89.2356, -57.8084, 64.9231
2.735, 1, 30.2999, 50.3534, -10.3157, 89.289, -57.7639, 64.7999
2.74, 1, 30.3363, 50.3376, -10.3384, 89.3423, -57.7195, 64.6768
2.744, 1, 30.3727, 50.3217, -10.3612, 89.3955, -57.6751, 64.5538
2.748, 1, 30.4091, 50.3059, -10.3839, 89.4487, -57.6307, 64.4308
2.752, 1, 30.4454, 50.2901, -10.4067, 89.5019, -57.5863, 64.308
2.755, 1, 30.4817, 50.2743, -10.4294, 89.5551, -57.542, 64.1852
2.76, 1, 30.518, 50.2585, -10.4521, 89.6082, -57.4977, 64.0625
2.764, 1, 30.5543, 50.2427, -10.4748, 89.6613, -57.4535, 63.9398
2.768, 1, 30.5905, 50.227, -10.4974, 89.7144, -57.4092, 63.8172
2.772, 1, 30.6267, 50.2112, -10.5201, 89.7674, -57.365, 63.6948
2.775, 1, 30.6629, 50.1955, -10.5427, 89.8204, -57.3208, 63.5723
2.78, 1, 30.6991, 50.1797, -10.5654, 89.8733, -57.2767, 63.45
2.784, 1, 30.7353, 50.164, -10.588, 89.9263, -57.2326, 63.3278
2.788, 1, 30.7714, 50.1483, -10.6106, 89.9792, -57.1885, 63.2056
2.791, 1, 30.8075, 50.1326, -10.6332, 90.032, -57.1444, 63.0835
2.796, 1, 30.8436, 50.1169, -10.6558, 90.0848, -57.1003, 62.9614
2.8, 1, 30.8797, 50.1012, -10.6783, 90.1376, -57.0563, 62.8395
2.804, 1, 30.9157, 50.0855, -10.7009, 90.1904, -57.0123, 62.7176
2.808, 1, 30.9517, 50.0699, -10.7234, 90.2431, -56.9684, 62.5958
2.811, 1, 30.9877, 50.0542, -10.7459, 90.2958, -56.9244, 62.4741
2.816, 1, 31.0237, 50.0386, -10.7684, 90.3485, -56.8805, 62.3524
2.82, 1, 31.0597, 50.0229, -10.7909, 90.4011, -56.8367, 62.2309
2.824, 1, 31.0956, 50.0073, -10.8134, 90.4537, -56.7928, 62.1094
2.828, 1, 31.1315, 49.9917, -10.8358, 90.5063, -56.749, 61.9879
2.831, 1, 31.1674, 49.9761, -10.8583, 90.5588, -56.7052, 61.8666
2.836, 1, 31.2033, 49.9605, -10.8807, 90.6113, -56.6614, 61.7453
2.84, 1, 31.2391, 49.9449, -10.9032, 90.6638, -56.6177, 61.6241
2.844, 1, 31.2749, 49.9293, -10.9256, 90.7162, -56.574, 61.503
2.847, 1, 31.3107, 49.9137, -10.948, 90.7686, -56.5303, 61.3819
2.852, 1, 31.3465, 49.8982, -10.9703, 90.821, -56.4866, 61.2609
2.856, 1, 31.3823, 49.8826, -10.9927, 90.8733, -56.443, 61.14
2.86, 1, 31.418, 49.8671, -11.0151, 90.9256, -56.3993, 61.0192
2.864, 1, 31.4537, 49.8515, -11.0374, 90.9779, -56.3558, 60.8984
2.867, 1, 31.4894, 49.836, -11.0597, 91.0301, -56.3122, 60.7777
2.872, 1, 31.5251, 49.8205, -11.082, 91.0824, -56.2687, 60.6571
2.876, 1, 31.5607, 49.805, -11.1043, 91.1345, -56.2252, 60.5366
2.88, 1, 31.5964, 49.7895, -11.1266, 91.1867, -56.1817, 60.4161
2.883, 1, 31.632, 49.774, -11.1489, 91.2388, -56.1382, 60.2957
2.888, 1, 31.6675, 49.7585, -11.1711, 91.2909, -56.0948, 60.1754
2.892, 1, 31.7031, 49.743, -11.1934, 91.343, -56.0514, 60.0552
2.896, 1, 31.7386, 49.7276, -11.2156, 91.395, -56.008, 59.935
2.9, 1, 31.7742, 49.7121, -11.2378, 91.447, -55.9647, 59.8149
2.903, 1, 31.8097, 49.6967, -11.26, 91.4989, -55.9214, 59.6948
2.908, 1, 31.8451, 49.6813, -11.2822, 91.5509, -55.8781, 59.5749
2.912, 1, 31.8806, 49.6658, -11.3044, 91.6028, -55.8348, 59.455
2.916, 1, 31.916, 49.6504, -11.3266, 91.6546, -55.7915, 59.3351
2.92, 1, 31.9515, 49.635, -11.3487, 91.7065, -55.7483, 59.2154
2.923, 1, 31.9868, 49.6196, -11.3709, 91.7583, -55.7051, 59.0957
2.928, 1, 32.0222, 49.6042, -11.393, 91.8101, -55.662, 58.9761
2.932, 1, 32.0576, 49.5889, -11.4151, 91.8618, -55.6188, 58.8566
2.936, 1, 32.0929, 49.5735, -11.4372, 91.9135, -55.5757, 58.7371
2.939, 1, 32.1282, 49.5581, -11.4593, 91.9652, -55.5326, 58.6177
2.944, 1, 32.1635, 49.5428, -11.4814, 92.0169, -55.4895, 58.4984
2.948, 1, 32.1988, 49.5274, -11.5034, 92.0685, -55.4465, 58.3791
2.952, 1, 32.234, 49.5121, -11.5255, 92.1201, -55.4035, 58.2599
2.956, 1, 32.2693, 49.4968, -11.5475, 92.1717, -55.3605, 58.1408
2.959, 1, 32.3045, 49.4815, -11.5696, 92.2232, -55.3175, 58.0217
2.964, 1, 32.3396, 49.4662, -11.5916, 92.2747, -55.2746, 57.9028
2.968, 1, 32.3748, 49.4509, -11.6136, 92.3262, -55.2316, 57.7838
2.972, 1, 32.41, 49.4356, -11.6355, 92.3776, -55.1887, 57.665
2.976, 1, 32.4451, 49.4203, -11.6575, 92.4291, -55.1459, 57.5462
2.98, 1, 32.4802, 49.405, -11.6795, 92.4804, -55.103, 57.4275
2.984, 1, 32.5153, 49.3898, -11.7014, 92.5318, -55.0602, 57.3089
2.988, 1, 32.5503, 49.3745, -11.7234, 92.5831, -55.0174, 57.1903
2.992, 1, 32.5854, 49.3593, -11.7453, 92.6344, -54.9746, 57.0718
2.995, 1, 32.6204, 49.344, -11.7672, 92.6857, -54.9319, 56.9534
3, 1, 32.6554, 49.3288, -11.7891, 92.737, -54.8892, 56.835
3.004, 1, 32.6904, 49.3136, -11.811, 92.7882, -54.8465, 56.7167
3.008, 1, 32.7254, 49.2984, -11.8328, 92.8393, -54.8038, 56.5984
3.012, 1, 32.7603, 49.2832, -11.8547, 92.8905, -54.7612, 56.4803
3.015, 1, 32.7952, 49.268, -11.8765, 92.9416, -54.7185, 56.3622
3.02, 1, 32.8302, 49.2528, -11.8984, 92.9927, -54.6759, 56.2441
3.024, 1, 32.865, 49.2376, -11.9202, 93.0438, -54.6334, 56.1262
3.028, 1, 32.8999, 49.2225, -11.942, 93.0948, -54.5908, 56.0083
3.031, 1, 32.9348, 49.2073, -11.9638, 93.1458, -54.5483, 55.8904
3.036, 1, 32.9696, 49.1922, -11.9856, 93.1968, -54.5058, 55.7727
3.04, 1, 33.0044, 49.177, -12.0074, 93.2478, -54.4633, 55.655
3.044, 1, 33.0392, 49.1619, -12.0291, 93.2987, -54.4208, 55.5373
3.048, 1, 33.0739, 49.1468, -12.0509, 93.3496, -54.3784, 55.4198
3.051, 1, 33.1087, 49.1316, -12.0726, 93.4005, -54.336, 55.3023
3.056, 1, 33.1434, 49.1165, -12.0943, 93.4513, -54.2936, 55.1848
3.06, 1, 33.1781, 49.1014, -12.1161, 93.5021, -54.2512, 55.0675
3.064, 1, 33.2128, 49.0863, -12.1378, 93.5529, -54.2089, 54.9502
3.068, 1, 33.2475, 49.0713, -12.1594, 93.6036, -54.1666, 54.8329
3.071, 1, 33.2822, 49.0562, -12.1811, 93.6544, -54.1243, 54.7157
3.076, 1, 33.3168, 49.0411, -12.2028, 93.705, -54.082, 54.5986
3.08, 1, 33.3514, 49.0261, -12.2244, 93.7557, -54.0398, 54.4816
3.084, 1, 33.386, 49.011, -12.2461, 93.8064, -53.9976, 54.3646
3.087, 1, 33.4206, 48.996, -12.2677, 93.857, -53.9554, 54.2477
3.092, 1, 33.4551, 48.981, -12.2893, 93.9076, -53.9132, 54.1308
3.096, 1, 33.4897, 48.9659, -12.3109, 93.9581, -53.871, 54.0141
3.1, 1, 33.5242, 48.9509, -12.3325, 94.0086, -53.8289, 53.8973
3.104, 1, 33.5587, 48.9359, -12.3541, 94.0591, -53.7868, 53.7807
3.107, 1, 33.5932, 48.9209, -12.3757, 94.1096, -53.7447, 53.6641
3.112, 1, 33.6276, 48.9059, -12.3972, 94.1601, -53.7027, 53.5475
3.116, 1, 33.6621, 48.8909, -12.4188, 94.2105, -53.6606, 53.4311
3.12, 1, 33.6965, 48.876, -12.4403, 94.2609, -53.6186, 53.3147
3.124, 1, 33.7309, 48.861, -12.4618, 94.3112, -53.5766, 53.1983
3.128, 1, 33.7653, 48.846, -12.4833, 94.3616, -53.5347, 53.082
3.132, 1, 33.7997, 48.8311, -12.5048, 94.4119, -53.4927, 52.9658
3.136, 1, 33.834, 48.8162, -12.5263, 94.4622, -53.4508, 52.8497
3.14, 1, 33.8683, 48.8012, -12.5478, 94.5124, -53.4089, 52.7336
3.143, 1, 33.9027, 48.7863, -12.5693, 94.5626, -53.367, 52.6176
3.148, 1, 33.937, 48.7714, -12.5907, 94.6128, -53.3252, 52.5016
3.152, 1, 33.9712, 48.7565, -12.6122, 94.663, -53.2833, 52.3857
3.156, 1, 34.0055, 48.7416, -12.6336, 94.7132, -53.2415, 52.2698
3.16, 1, 34.0397, 48.7267, -12.655, 94.7633, -53.1997, 52.1541
3.163, 1, 34.0739, 48.7118, -12.6764, 94.8134, -53.158, 52.0383
3.168, 1, 34.1082, 48.6969, -12.6978, 94.8635, -53.1162, 51.9227
3.172, 1, 34.1423, 48.682, -12.7192, 94.9135, -53.0745, 51.8071
3.176, 1, 34.1765, 48.6672, -12.7406, 94.9635, -53.0328, 51.6916
3.179, 1, 34.2107, 48.6523, -12.7619, 95.0135, -52.9911, 51.5761
3.184, 1, 34.2448, 48.6375, -12.7833, 95.0634, -52.9495, 51.4607
3.188, 1, 34.2789, 48.6226, -12.8046, 95.1134, -52.9078, 51.3453
3.192, 1, 34.313, 48.6078, -12.8259, 95.1633, -52.8662, 51.23
3.196, 1, 34.3471, 48.593, -12.8473, 95.2132, -52.8246, 51.1148
3.199, 1, 34.3811, 48.5782, -12.8686, 95.263, -52.7831, 50.9996
3.204, 1, 34.4152, 48.5634, -12.8898, 95.3129, -52.7415, 50.8845
3.208, 1, 34.4492, 48.5486, -12.9111, 95.3627, -52.7, 50.7695
3.212, 1, 34.4832, 48.5338, -12.9324, 95.4124, -52.6585, 50.6545
3.216, 1, 34.5172, 48.519, -12.9537, 95.4622, -52.617, 50.5396
3.22, 1, 34.5511, 48.5042, -12.9749, 95.5119, -52.5756, 50.4247
3.224, 1, 34.5851, 48.4894, -12.9961, 95.5616, -52.5341, 50.3099
3.228, 1, 34.619, 48.4747, -13.0174, 95.6113, -52.4927, 50.1952
3.232, 1, 34.6529, 48.4599, -13.0386, 95.6609, -52.4513, 50.0805
3.235, 1, 34.6868, 48.4452, -13.0598, 95.7105, -52.41, 49.9659
3.24, 1, 34.7207, 48.4305, -13.081, 95.7601, -52.3686, 49.8513
3.244, 1, 34.7546, 48.4157, -13.1022, 95.8097, -52.3273, 49.7368
3.248, 1, 34.7884, 48.401, -13.1233, 95.8593, -52.286, 49.6224
3.252, 1, 34.8223, 48.3863, -13.1445, 95.9088, -52.2447, 49.508
3.255, 1, 34.8561, 48.3716, -13.1657, 95.9583, -52.2034, 49.3936
3.26, 1, 34.8899, 48.3569, -13.1868, 96.0077, -52.1622, 49.2794
3.264, 1, 34.9236, 48.3422, -13.2079, 96.0572, -52.121, 49.1651
3.268, 1, 34.9574, 48.3275, -13.229, 96.1066, -52.0798, 49.051
3.272, 1, 34.9911, 48.3128, -13.2501, 96.156, -52.0386, 48.9369
3.276, 1, 35.0249, 48.2982, -13.2712, 96.2053, -51.9974, 48.8229
3.28, 1, 35.0586, 48.2835, -13.2923, 96.2547, -51.9563, 48.7089
3.284, 1, 35.0923, 48.2688, -13.3134, 96.304, -51.9152, 48.595
3.288, 1, 35.1259, 48.2542, -13.3345, 96.3533, -51.8741, 48.4811
3.291, 1, 35.1596, 48.2396, -13.3555, 96.4026, -51.833, 48.3673
3.296, 1, 35.1932, 48.2249, -13.3766, 96.4518, -51.7919, 48.2535
3.3, 1, 35.2266, 48.2104, -13.3976, 96.501, -51.7509, 48.1399
3.304, 1, 35.2597, 48.1959, -13.4187, 96.5502, -51.7099, 48.0263
3.308, 1, 35.2924, 48.1817, -13.4397, 96.5993, -51.669, 47.9128
3.312, 1, 35.3246, 48.1677, -13.4608, 96.6484, -51.6281, 47.7995
3.316, 1, 35.3561, 48.1539, -13.4819, 96.6973, -51.5873, 47.6864
3.32, 1, 35.3868, 48.1407, -13.503, 96.746, -51.5468, 47.5739
3.324, 1, 35.4166, 48.1279, -13.5241, 96.7943, -51.5065, 47.462
3.328, 1, 35.4453, 48.1157, -13.5451, 96.8423, -51.4666, 47.3512
3.332, 1, 35.4731, 48.104, -13.566, 96.8896, -51.4273, 47.2419
3.336, 1, 35.4998, 48.093, -13.5865, 96.936, -51.3887, 47.1346
3.34, 1, 35.5254, 48.0824, -13.6067, 96.9812, -51.351, 47.0299
3.344, 1, 35.5501, 48.0724, -13.6262, 97.0251, -51.3146, 46.9284
3.347, 1, 35.5738, 48.0627, -13.6451, 97.0672, -51.2795, 46.8309
3.352, 1, 35.5966, 48.0535, -13.663, 97.1074, -51.2461, 46.7379
3.356, 1, 35.6183, 48.0446, -13.6799, 97.1454, -51.2145, 46.6502
3.36, 1, 35.6388, 48.0362, -13.6957, 97.1808, -51.185, 46.5681
3.364, 1, 35.6583, 48.0281, -13.7101, 97.2136, -51.1578, 46.4923
3.368, 1, 35.6768, 48.0204, -13.7233, 97.2435, -51.1328, 46.4231
3.372, 1, 35.6944, 48.0128, -13.7349, 97.2705, -51.1104, 46.3608
3.376, 1, 35.7112, 48.0055, -13.7451, 97.2945, -51.0904, 46.3054
3.38, 1, 35.7272, 47.9983, -13.7538, 97.3155, -51.0728, 46.2569
3.383, 1, 35.7424, 47.9913, -13.7611, 97.3336, -51.0576, 46.2151
3.388, 1, 35.7565, 47.9846, -13.7671, 97.349, -51.0447, 46.1797
3.392, 1, 35.7696, 47.9784, -13.7719, 97.3619, -51.0339, 46.15
3.396, 2, 35.7813, 47.9727, -13.7757, 97.3725, -51.025, 46.1256
3.4, 2, 35.7917, 47.9676, -13.7787, 97.3811, -51.0177, 46.1059
3.403, 2, 35.801, 47.963, -13.7809, 97.3879, -51.0119, 46.0903
3.408, 2, 35.8092, 47.9589, -13.7825, 97.3932, -51.0074, 46.0781
3.412, 2, 35.8166, 47.9552, -13.7835, 97.3973, -51.004, 46.0689
3.416, 2, 35.8232, 47.9521, -13.7842, 97.4003, -51.0014, 46.0621
3.42, 2, 35.8288, 47.9494, -13.7846, 97.4025, -50.9995, 46.0571
3.424, 2, 35.8336, 47.9471, -13.7848, 97.4041, -50.9981, 46.0536
3.428, 2, 35.8375, 47.9453, -13.7849, 97.4051, -50.9972, 46.0511
3.432, 2, 35.8405, 47.944, -13.785, 97.4059, -50.9965, 46.0495
3.436, 2, 35.8427, 47.9431, -13.785, 97.4064, -50.9961, 46.0483
3.439, 2, 35.8442, 47.9424, -13.785, 97.4067, -50.9958, 46.0475
3.444, 2, 35.8452, 47.9419, -13.785, 97.407, -50.9956, 46.047
3.448, 2, 35.8459, 47.9416, -13.785, 97.4071, -50.9954, 46.0467
3.452, 2, 35.8464, 47.9414, -13.785, 97.4072, -50.9953, 46.0464
3.456, 2, 35.8467, 47.9413, -13.785, 97.4073, -50.9953, 46.0463
3.46, 2, 35.8469, 47.9412, -13.785, 97.4074, -50.9952, 46.0462
3.464, 2, 35.8471, 47.9411, -13.785, 97.4074, -50.9952, 46.0461
3.468, 2, 35.8472, 47.9411, -13.785, 97.4074, -50.9952, 46.046
3.472, 2, 35.8472, 47.9411, -13.785, 97.4074, -50.9952, 46.046
3.476, 2, 35.8473, 47.941, -13.785, 97.4075, -50.9951, 46.046
3.48, 2, 35.8473, 47.941, -13.785, 97.4075, -50.9951, 46.046
3.484, 2, 35.8473, 47.941, -13.785, 97.4075, -50.9951, 46.0459
3.488, 2, 35.8473, 47.941, -13.785, 97.4075, -50.9951, 46.0459
3.492, 2, 35.8474, 47.941, -13.785, 97.4075, -50.9951, 46.0459
3.495, 2, 35.8474, 47.941, -13.785, 97.4075, -50.9951, 46.0459
3.5, 2, 35.8474, 47.941, -13.785, 97.4075, -50.9951, 46.0459
3.504, 2, 35.8474, 47.941, -13.785, 97.4075, -50.9951, 46.0459
3.508, 2, 35.8474, 47.941, -13.785, 97.4075, -50.9951, 46.0459
3.512, 2, 35.8474, 47.941, -13.785, 97.4075, -50.9951, 46.0459
3.516, 2, 35.8474, 47.941, -13.785, 97.4075, -50.9951, 46.0459
3.52, 2, 35.8474, 47.941, -13.785, 97.4075, -50.9951, 46.0459
3.524, 2, 35.8474, 47.941, -13.785, 97.4075, -50.9951, 46.0459
3.528, 2, 35.8474, 47.941, -13.785, 97.4075, -50.9951, 46.0459
3.531, 2, 35.8474, 47.941, -13.785, 97.4075, -50.9951, 46.0459
3.536, 2, 35.8474, 47.941, -13.785, 97.4075, -50.9951, 46.0459
3.54, 2, 35.8474, 47.941, -13.785, 97.4075, -50.9951, 46.0459
3.544, 2, 35.8474, 47.941, -13.785, 97.4075, -50.9951, 46.0459
3.548, 2, 35.8474, 47.941, -13.785, 97.4075, -50.9951, 46.0459
3.552, 2, 35.8474, 47.941, -13.785, 97.4075, -50.9951, 46.0459
3.556, 2, 35.8474, 47.941, -13.785, 97.4075, -50.9951, 46.0459
3.56, 2, 35.8474, 47.941, -13.785, 97.4075, -50.9951, 46.0459
3.564, 2, 35.8474, 47.941, -13.785, 97.4075, -50.9951, 46.0459
3.568, 2, 35.8474, 47.941, -13.785, 97.4075, -50.9951, 46.0459
3.572, 2, 35.8474, 47.941, -13.785, 97.4075, -50.9951, 46.0459
3.576, 2, 35.8474, 47.941, -13.785, 97.4075, -50.9951, 46.0459
3.58, 2, 35.8474, 47.941, -13.785, 97.4075, -50.9951, 46.0459
3.584, 2, 35.8474, 47.941, -13.785, 97.4075, -50.9951, 46.0459
3.587, 2, 35.8474, 47.941, -13.785, 97.4075, -50.9951, 46.0459
3.592, 2, 35.8474, 47.941, -13.785, 97.4075, -50.9951, 46.0459
3.596, 2, 35.8474, 47.941, -13.785, 97.4075, -50.9951, 46.0459
3.6, 2, 35.8474, 47.941, -13.785, 97.4075, -50.9951, 46.0459
3.604, 2, 35.8474, 47.941, -13.785, 97.4075, -50.9951, 46.0459
3.608, 2, 35.8474, 47.941, -13.785, 97.4075, -50.9951, 46.0459
3.612, 2, 35.8474, 47.941, -13.785, 97.4075, -50.9951, 46.0459
3.616, 2, 35.8474, 47.941, -13.785, 97.4075, -50.9951, 46.0459
3.62, 2, 35.8474, 47.941, -13.785, 97.4075, -50.9951, 46.0459
3.624, 2, 35.8474, 47.941, -13.785, 97.4075, -50.9951, 46.0459
3.628, 2, 35.8474, 47.941, -13.785, 97.4075, -50.9951, 46.0459
3.632, 2, 35.8474, 47.941, -13.785, 97.4075, -50.9951, 46.0459
3.636, 2, 35.8474, 47.941, -13.785, 97.4075, -50.9951, 46.0459
3.64, 2, 35.8474, 47.941, -13.785, 97.4075, -50.9951, 46.0459
3.644, 2, 35.8474, 47.941, -13.785, 97.4075, -50.9951, 46.0459
3.648, 2, 35.8474, 47.941, -13.785, 97.4075, -50.9951, 46.0459
3.652, 2, 35.8474, 47.941, -13.785, 97.4075, -50.9951, 46.0459
3.656, 2, 35.8474, 47.941, -13.785, 97.4075, -50.9951, 46.0459
3.66, 2, 35.8474, 47.941, -13.785, 97.4075, -50.9951, 46.0459
3.664, 2, 35.8474, 47.941, -13.785, 97.4075, -50.9951, 46.0459
3.668, 2, 35.8474, 47.941, -13.785, 97.4075, -50.9951, 46.0459
3.672, 2, 35.8474, 47.941, -13.785, 97.4075, -50.9951, 46.0459
3.676, 2, 35.8474, 47.941, -13.785, 97.4075, -50.9951, 46.0459
3.679, 2, 35.8474, 47.941, -13.785, 97.4075, -50.9951, 46.0459
3.684, 2, 35.8474, 47.941, -13.785, 97.4075, -50.9951, 46.0459
3.688, 2, 35.8474, 47.941, -13.785, 97.4075, -50.9951, 46.0459
3.692, 2, 35.8474, 47.941, -13.785, 97.4075, -50.9951, 46.0459
3.696, 2, 35.8474, 47.941, -13.785, 97.4075, -50.9951, 46.0459
3.7, 2, 35.8474, 47.941, -13.785, 97.4075, -50.9951, 46.0459
3.704, 2, 35.8474, 47.941, -13.785, 97.4075, -50.9951, 46.0459
3.708, 2, 35.8474, 47.941, -13.785, 97.4075, -50.9951, 46.0459
3.712, 2, 35.8474, 47.941, -13.785, 97.4075, -50.9951, 46.0459
3.716, 2, 35.8474, 47.941, -13.785, 97.4075, -50.9951, 46.0459
3.72, 2, 35.8474, 47.941, -13.785, 97.4075, -50.9951, 46.0459
3.724, 2, 35.8474, 47.941, -13.785, 97.4075, -50.9951, 46.0459
3.728, 2, 35.8474, 47.941, -13.785, 97.4075, -50.9951, 46.0459
3.732, 2, 35.8474, 47.941, -13.785, 97.4075, -50.9951, 46.0459
3.735, 2, 35.8474, 47.941, -13.785, 97.4075, -50.9951, 46.0459
3.74, 2, 35.8474, 47.941, -13.785, 97.4075, -50.9951, 46.0459
3.744, 2, 35.8474, 47.941, -13.785, 97.4075, -50.9951, 46.0459
3.748, 2, 35.8474, 47.941, -13.785, 97.4075, -50.9951, 46.0459
3.752, 2, 35.8474, 47.941, -13.785, 97.4075, -50.9951, 46.0459
3.756, 2, 35.8474, 47.941, -13.785, 97.4075, -50.9951, 46.0459
3.76, 2, 35.8474, 47.941, -13.785, 97.4075, -50.9951, 46.0459
3.764, 2, 35.8474, 47.941, -13.785, 97.4075, -50.9951, 46.0459
3.768, 2, 35.8474, 47.941, -13.785, 97.4075, -50.9951, 46.0459
3.772, 2, 35.8474, 47.941, -13.785, 97.4075, -50.9951, 46.0459
3.776, 2, 35.8474, 47.941, -13.785, 97.4075, -50.9951, 46.0459
3.78, 2, 35.8474, 47.941, -13.785, 97.4075, -50.9951, 46.0459
3.784, 2, 35.8474, 47.941, -13.785, 97.4075, -50.9951, 46.0459
3.788, 2, 35.8474, 47.941, -13.785, 97.4075, -50.9951, 46.0459
3.792, 2, 35.8474, 47.941, -13.785, 97.4075, -50.9951, 46.0459
3.796, 2, 35.8474, 47.941, -13.785, 97.4075, -50.9951, 46.0459
3.8, 2, 35.8474, 47.941, -13.785, 97.4075, -50.9951, 46.0459
3.804, 2, 35.8474, 47.941, -13.785, 97.4075, -50.9951, 46.0459
3.808, 2, 35.8474, 47.941, -13.785, 97.4075, -50.9951, 46.0459
3.812, 2, 35.8474, 47.941, -13.785, 97.4075, -50.9951, 46.0459
3.816, 2, 35.8474, 47.941, -13.785, 97.4075, -50.9951, 46.0459
3.82, 2, 35.8474, 47.941, -13.785, 97.4075, -50.9951, 46.0459
3.824, 2, 35.8474, 47.941, -13.785, 97.4075, -50.9951, 46.0459
3.828, 2, 35.8474, 47.941, -13.785, 97.4075, -50.9951, 46.0459
3.832, 2, 35.8474, 47.941, -13.785, 97.4075, -50.9951, 46.0459
3.836, 2, 35.8474, 47.941, -13.785, 97.4075, -50.9951, 46.0459
3.84, 2, 35.8474, 47.941, -13.785, 97.4075, -50.9951, 46.0459
3.844, 2, 35.8474, 47.941, -13.785, 97.4075, -50.9951, 46.0459
3.848, 2, 35.8474, 47.941, -13.785, 97.4075, -50.9951, 46.0459
3.852, 2, 35.8474, 47.941, -13.785, 97.4075, -50.9951, 46.0459
3.856, 2, 35.8474, 47.941, -13.785, 97.4075, -50.9951, 46.0459
3.86, 2, 35.8474, 47.941, -13.785, 97.4075, -50.9951, 46.0459
3.864, 2, 35.8474, 47.941, -13.785, 97.4075, -50.9951, 46.0459
3.868, 2, 35.8474, 47.941, -13.785, 97.4075, -50.9951, 46.0459
3.872, 2, 35.8474, 47.941, -13.785, 97.4075, -50.9951, 46.0459
3.876, 2, 35.8474, 47.941, -13.785, 97.4075, -50.9951, 46.0459
3.88, 2, 35.8474, 47.941, -13.785, 97.4075, -50.9951, 46.0459
3.884, 2, 35.8474, 47.941, -13.785, 97.4075, -50.9951, 46.0459
3.888, 2, 35.8474, 47.941, -13.785, 97.4075, -50.9951, 46.0459
3.892, 2, 35.8474, 47.941, -13.785, 97.4075, -50.9951, 46.0459
3.896, 2, 35.8474, 47.941, -13.785, 97.4075, -50.9951, 46.0459
3.9, 2, 35.8474, 47.941, -13.785, 97.4075, -50.9951, 46.0459
3.904, 2, 35.8474, 47.941, -13.785, 97.4075, -50.9951, 46.0459
3.908, 2, 35.8474, 47.941, -13.785, 97.4075, -50.9951, 46.0459
3.912, 2, 35.8474, 47.941, -13.785, 97.4075, -50.9951, 46.0459
3.916, 2, 35.8474, 47.941, -13.785, 97.4075, -50.9951, 46.0459
3.92, 2, 35.8474, 47.941, -13.785, 97.4075, -50.9951, 46.0459
3.924, 2, 35.8474, 47.941, -13.785, 97.4075, -50.9951, 46.0459
3.928, 2, 35.8474, 47.941, -13.785, 97.4075, -50.9951, 46.0459
3.932, 2, 35.8474, 47.941, -13.785, 97.4075, -50.9951, 46.0459
3.936, 2, 35.8474, 47.941, -13.785, 97.4075, -50.9951, 46.0459
3.94, 2, 35.8474, 47.941, -13.785, 97.4075, -50.9951, 46.0459
3.944, 2, 35.8474, 47.941, -13.785, 97.4075, -50.9951, 46.0459
3.948, 2, 35.8474, 47.941, -13.785, 97.4075, -50.9951, 46.0459
3.952, 2, 35.8474, 47.941, -13.785, 97.4075, -50.9951, 46.0459
3.956, 2, 35.8474, 47.941, -13.785, 97.4075, -50.9951, 46.0459
3.96, 2, 35.8474, 47.941, -13.785, 97.4075, -50.9951, 46.0459
3.964, 2, 35.8474, 47.941, -13.785, 97.4075, -50.9951, 46.0459
3.968, 2, 35.8474, 47.941, -13.785, 97.4075, -50.9951, 46.0459
3.972, 2, 35.8474, 47.941, -13.785, 97.4075, -50.9951, 46.0459
3.976, 2, 35.8474, 47.941, -13.785, 97.4075, -50.9951, 46.0459
3.98, 2, 35.8474, 47.941, -13.785, 97.4075, -50.9951, 46.0459
3.984, 2, 35.8474, 47.941, -13.785, 97.4075, -50.9951, 46.0459
3.988, 2, 35.8474, 47.941, -13.785, 97.4075, -50.9951, 46.0459
3.992, 2, 35.8474, 47.941, -13.785, 97.4075, -50.9951, 46.0459
3.996, 2, 35.8474, 47.941, -13.785, 97.4075, -50.9951, 46.0459
3.999, 2, 35.8474, 47.941, -13.785, 97.4075, -50.9951, 46.0459
4.004, 2, 35.8474, 47.941, -13.785, 97.4075, -50.9951, 46.0459
4.008, 2, 35.8474, 47.941, -13.785, 97.4075, -50.9951, 46.0459
4.012, 2, 35.8474, 47.941, -13.785, 97.4075, -50.9951, 46.0459
4.016, 2, 35.8474, 47.941, -13.785, 97.4075, -50.9951, 46.0459
4.02, 2, 35.8474, 47.941, -13.785, 97.4075, -50.9951, 46.0459
4.024, 2, 35.8474, 47.941, -13.785, 97.4075, -50.9951, 46.0459
4.028, 2, 35.8474, 47.941, -13.785, 97.4075, -50.9951, 46.0459
4.032, 2, 35.8474, 47.941, -13.785, 97.4075, -50.9951, 46.0459
4.036, 2, 35.8474, 47.941, -13.785, 97.4075, -50.9951, 46.0459
4.04, 2, 35.8474, 47.941, -13.785, 97.4075, -50.9951, 46.0459
4.044, 2, 35.8474, 47.941, -13.785, 97.4075, -50.9951, 46.0459
4.048, 2, 35.8474, 47.941, -13.785, 97.4075, -50.9951, 46.0459
4.052, 2, 35.8474, 47.941, -13.785, 97.4075, -50.9951, 46.0459
4.056, 2, 35.8474, 47.941, -13.785, 97.4075, -50.9951, 46.0459
4.06, 2, 35.8474, 47.941, -13.785, 97.4075, -50.9951, 46.0459
4.064, 2, 35.8474, 47.941, -13.785, 97.4075, -50.9951, 46.0459
4.068, 2, 35.8474, 47.941, -13.785, 97.4075, -50.9951, 46.0459
4.072, 2, 35.8474, 47.941, -13.785, 97.4075, -50.9951, 46.0459
4.076, 2, 35.8474, 47.941, -13.785, 97.4075, -50.9951, 46.0459
4.08, 2, 35.8474, 47.941, -13.785, 97.4075, -50.9951, 46.0459
4.084, 2, 35.8474, 47.941, -13.785, 97.4075, -50.9951, 46.0459
4.088, 2, 35.8474, 47.941, -13.785, 97.4075, -50.9951, 46.0459
4.092, 2, 35.8474, 47.941, -13.785, 97.4075, -50.9951, 46.0459
4.096, 2, 35.8474, 47.941, -13.785, 97.4075, -50.9951, 46.0459
4.1, 2, 35.8474, 47.941, -13.785, 97.4075, -50.9951, 46.0459
4.104, 2, 35.8474, 47.941, -13.785, 97.4075, -50.9951, 46.0459
4.108, 2, 35.8474, 47.941, -13.785, 97.4075, -50.9951, 46.0459
4.112, 2, 35.8474, 47.941, -13.785, 97.4075, -50.9951, 46.0459
4.116, 2, 35.8474, 47.941, -13.785, 97.4075, -50.9951, 46.0459
4.12, 2, 35.8474, 47.941, -13.785, 97.4075, -50.9951, 46.0459
4.124, 2, 35.8474, 47.941, -13.785, 97.4075, -50.9951, 46.0459
4.128, 2, 35.8474, 47.941, -13.785, 97.4075, -50.9951, 46.0459
4.132, 2, 35.8474, 47.941, -13.785, 97.4075, -50.9951, 46.0459
4.136, 2, 35.8474, 47.941, -13.785, 97.4075, -50.9951, 46.0459
4.14, 2, 35.8474, 47.941, -13.785, 97.4075, -50.9951, 46.0459
4.144, 2, 35.8474, 47.941, -13.785, 97.4075, -50.9951, 46.0459
4.148, 2, 35.8474, 47.941, -13.785, 97.4075, -50.9951, 46.0459
4.152, 2, 35.8474, 47.941, -13.785, 97.4075, -50.9951, 46.0459
4.156, 2, 35.8474, 47.941, -13.785, 97.4075, -50.9951, 46.0459
4.16, 2, 35.8474, 47.941, -13.785, 97.4075, -50.9951, 46.0459
4.164, 2, 35.8474, 47.941, -13.785, 97.4075, -50.9951, 46.0459
4.168, 2, 35.8474, 47.941, -13.785, 97.4075, -50.9951, 46.0459
4.172, 2, 35.8474, 47.941, -13.785, 97.4075, -50.9951, 46.0459
4.176, 2, 35.8474, 47.941, -13.785, 97.4075, -50.9951, 46.0459
4.18, 2, 35.8474, 47.941, -13.785, 97.4075, -50.9951, 46.0459
4.184, 2, 35.8474, 47.941, -13.785, 97.4075, -50.9951, 46.0459
4.188, 2, 35.8474, 47.941, -13.785, 97.4075, -50.9951, 46.0459
4.192, 2, 35.8474, 47.941, -13.785, 97.4075, -50.9951, 46.0459
4.196, 2, 35.8474, 47.941, -13.785, 97.4075, -50.9951, 46.0459
4.2, 2, 35.8474, 47.941, -13.785, 97.4075, -50.9951, 46.0459
4.204, 2, 35.8474, 47.941, -13.785, 97.4075, -50.9951, 46.0459
4.208, 2, 35.8474, 47.941, -13.785, 97.4075, -50.9951, 46.0459
4.212, 2, 35.8474, 47.941, -13.785, 97.4075, -50.9951, 46.0459
4.216, 2, 35.8474, 47.941, -13.785, 97.4075, -50.9951, 46.0459
4.22, 2, 35.8474, 47.941, -13.785, 97.4075, -50.9951, 46.0459
4.224, 2, 35.8474, 47.941, -13.785, 97.4075, -50.9951, 46.0459
4.228, 2, 35.8474, 47.941, -13.785, 97.4075, -50.9951, 46.0459
4.232, 2, 35.8474, 47.941, -13.785, 97.4075, -50.9951, 46.0459
4.236, 2, 35.8474, 47.941, -13.785, 97.4075, -50.9951, 46.0459
4.24, 2, 35.8474, 47.941, -13.785, 97.4075, -50.9951, 46.0459
4.244, 2, 35.8474, 47.941, -13.785, 97.4075, -50.9951, 46.0459
4.248, 2, 35.8474, 47.941, -13.785, 97.4075, -50.9951, 46.0459
4.252, 2, 35.8474, 47.941, -13.785, 97.4075, -50.9951, 46.0459
4.256, 2, 35.8474, 47.941, -13.785, 97.4075, -50.9951, 46.0459
4.26, 2, 35.8474, 47.941, -13.785, 97.4075, -50.9951, 46.0459
4.264, 2, 35.8474, 47.941, -13.785, 97.4075, -50.9951, 46.0459
4.268, 2, 35.8474, 47.941, -13.785, 97.4075, -50.9951, 46.0459
4.272, 2, 35.8474, 47.941, -13.785, 97.4075, -50.9951, 46.0459
4.276, 2, 35.8474, 47.941, -13.785, 97.4075, -50.9951, 46.0459
4.28, 2, 35.8474, 47.941, -13.785, 97.4075, -50.9951, 46.0459
4.284, 2, 35.8474, 47.941, -13.785, 97.4075, -50.9951, 46.0459
4.288, 2, 35.8474, 47.941, -13.785, 97.4075, -50.9951, 46.0459
4.292, 2, 35.8474, 47.941, -13.785, 97.4075, -50.9951, 46.0459
4.296, 2, 35.8474, 47.941, -13.785, 97.4075, -50.9951, 46.0459
4.3, 2, 35.8474, 47.941, -13.785, 97.4075, -50.9951, 46.0459
4.304, 2, 35.8474, 47.941, -13.785, 97.4075, -50.9951, 46.0459
4.308, 2, 35.8474, 47.941, -13.785, 97.4075, -50.9951, 46.0459
4.312, 2, 35.8474, 47.941, -13.785, 97.4075, -50.9951, 46.0459
4.316, 2, 35.8474, 47.941, -13.785, 97.4075, -50.9951, 46.0459
4.32, 2, 35.8474, 47.941, -13.785, 97.4075, -50.9951, 46.0459
4.324, 2, 35.8474, 47.941, -13.785, 97.4075, -50.9951, 46.0459
4.328, 2, 35.8474, 47.941, -13.785, 97.4075, -50.9951, 46.0459
4.332, 2, 35.8474, 47.941, -13.785, 97.4075, -50.9951, 46.0459
4.336, 2, 35.8474, 47.941, -13.785, 97.4075, -50.9951, 46.0459
4.34, 2, 35.8474, 47.941, -13.785, 97.4075, -50.9951, 46.0459
4.344, 2, 35.8474, 47.941, -13.785, 97.4075, -50.9951, 46.0459
4.348, 2, 35.8474, 47.941, -13.785, 97.4075, -50.9951, 46.0459
4.352, 2, 35.8474, 47.941, -13.785, 97.4075, -50.9951, 46.0459
4.356, 2, 35.8474, 47.941, -13.785, 97.4075, -50.9951, 46.0459
4.36, 2, 35.8474, 47.941, -13.785, 97.4075, -50.9951, 46.0459
4.364, 2, 35.8474, 47.941, -13.785, 97.4075, -50.9951, 46.0459
4.368, 2, 35.8474, 47.941, -13.785, 97.4075, -50.9951, 46.0459
4.372, 2, 35.8474, 47.941, -13.785, 97.4075, -50.9951, 46.0459
4.376, 2, 35.8474, 47.941, -13.785, 97.4075, -50.9951, 46.0459
4.38, 2, 35.8474, 47.941, -13.785, 97.4075, -50.9951, 46.0459
4.384, 2, 35.8474, 47.941, -13.785, 97.4075, -50.9951, 46.0459
4.388, 2, 35.8474, 47.941, -13.785, 97.4075, -50.9951, 46.0459
4.392, 2, 35.8474, 47.941, -13.785, 97.4075, -50.9951, 46.0459
4.396, 3, 35.8474, 47.941, -13.785, 97.4075, -50.9951, 46.0459
4.4, 3, 35.8474, 47.941, -13.785, 97.4075, -50.9951, 46.0459
4.404, 3, 35.8474, 47.941, -13.785, 97.4075, -50.9951, 46.0459
4.408, 3, 35.8474, 47.941, -13.785, 97.4075, -50.9951, 46.0459
4.412, 3, 35.8474, 47.941, -13.785, 97.4075, -50.9951, 46.0459
4.416, 3, 35.8474, 47.941, -13.785, 97.4075, -50.9951, 46.0459
4.42, 3, 35.8474, 47.941, -13.785, 97.4075, -50.9951, 46.0459
4.424, 3, 35.8474, 47.941, -13.785, 97.4075, -50.9951, 46.0459
4.428, 3, 35.8474, 47.941, -13.785, 97.4075, -50.9951, 46.0459
4.432, 3, 35.8474, 47.941, -13.785, 97.4075, -50.9951, 46.0459
4.436, 4, 35.8474, 47.941, -13.785, 97.4075, -50.9951, 46.0459
4.44, 4, 35.8474, 47.941, -13.785, 97.4075, -50.9951, 46.0459
4.444, 4, 35.8474, 47.941, -13.785, 97.4075, -50.9951, 46.0459
4.448, 4, 35.8474, 47.941, -13.785, 97.4075, -50.9951, 46.0459
4.452, 4, 35.8474, 47.941, -13.785, 97.4075, -50.9951, 46.0459
4.456, 4, 35.8474, 47.941, -13.785, 97.4075, -50.9951, 46.0459
4.46, 4, 35.8474, 47.941, -13.785, 97.4075, -50.9951, 46.0459
4.464, 4, 35.8474, 47.941, -13.785, 97.4075, -50.9951, 46.0459
4.468, 4, 35.8474, 47.941, -13.785, 97.4075, -50.9951, 46.0459
4.472, 4, 35.8474, 47.941, -13.785, 97.4075, -50.9951, 46.0459
4.476, 4, 35.8474, 47.941, -13.785, 97.4075, -50.9951, 46.0459
4.48, 4, 35.8474, 47.941, -13.785, 97.4075, -50.9951, 46.0459
4.484, 4, 35.8474, 47.941, -13.785, 97.4075, -50.9951, 46.0459
4.488, 4, 35.8474, 47.941, -13.785, 97.4075, -50.9951, 46.0459
4.492, 4, 35.8474, 47.941, -13.785, 97.4075, -50.9951, 46.0459
4.496, 4, 35.8474, 47.941, -13.785, 97.4075, -50.9951, 46.0459
4.5, 4, 35.8474, 47.941, -13.785, 97.4075, -50.9951, 46.0459
4.504, 4, 35.8474, 47.941, -13.785, 97.4075, -50.9951, 46.0459
4.508, 4, 35.8474, 47.941, -13.785, 97.4075, -50.9951, 46.0459
4.512, 4, 35.8474, 47.941, -13.785, 97.4075, -50.9951, 46.0459
4.516, 4, 35.8474, 47.941, -13.785, 97.4075, -50.9951, 46.0459
4.52, 4, 35.8474, 47.941, -13.785, 97.4075, -50.9951, 46.0459
4.524, 4, 35.8474, 47.941, -13.785, 97.4075, -50.9951, 46.0459
4.528, 4, 35.8474, 47.941, -13.785, 97.4075, -50.9951, 46.0459
4.532, 4, 35.8474, 47.941, -13.785, 97.4075, -50.9951, 46.0459
4.536, 5, 35.8474, 47.941, -13.785, 97.4075, -50.9951, 46.0459
4.54, 6, 35.8474, 47.941, -13.785, 97.4075, -50.9951, 46.0459
4.544, 6, 35.8474, 47.941, -13.785, 97.4075, -50.9951, 46.0459
4.548, 6, 35.8474, 47.941, -13.785, 97.4075, -50.9951, 46.0459
4.552, 7, 35.8474, 47.941, -13.785, 97.4075, -50.9951, 46.0459
4.556, 7, 35.8474, 47.941, -13.785, 97.4075, -50.9951, 46.0459
4.56, 7, 35.8474, 47.941, -13.785, 97.4075, -50.9951, 46.0459
4.564, 8, 35.8474, 47.941, -13.785, 97.4075, -50.9951, 46.0459
4.568, 8, 35.8474, 47.941, -13.785, 97.4075, -50.9951, 46.0459
4.572, 8, 35.8474, 47.941, -13.785, 97.4075, -50.9951, 46.0459
4.576, 9, 35.8474, 47.941, -13.785, 97.4075, -50.9951, 46.0459
4.58, 9, 35.8474, 47.941, -13.785, 97.4075, -50.9951, 46.0459
4.584, 9, 35.8474, 47.941, -13.785, 97.4075, -50.9951, 46.0459
4.588, 10, 35.8474, 47.941, -13.785, 97.4075, -50.9951, 46.0459
4.592, 10, 35.8474, 47.941, -13.785, 97.4075, -50.9951, 46.0459
4.596, 10, 35.8474, 47.9411, -13.785, 97.4075, -50.9951, 46.0459
4.6, 11, 35.8474, 47.9412, -13.785, 97.4075, -50.9951, 46.0459
4.604, 11, 35.8474, 47.9416, -13.785, 97.4075, -50.9952, 46.0459
4.608, 11, 35.8475, 47.9423, -13.7851, 97.4075, -50.9953, 46.0458
4.611, 12, 35.8475, 47.9436, -13.7851, 97.4075, -50.9956, 46.0457
4.616, 12, 35.8477, 47.9454, -13.7852, 97.4074, -50.9963, 46.0455
4.62, 12, 35.8479, 47.948, -13.7854, 97.4073, -50.9976, 46.045
4.624, 12, 35.8481, 47.9514, -13.7858, 97.4072, -50.9999, 46.0442
4.628, 12, 35.8483, 47.9559, -13.7863, 97.407, -51.0036, 46.0429
4.632, 12, 35.8486, 47.9615, -13.7872, 97.4067, -51.0092, 46.041
4.636, 12, 35.8489, 47.9686, -13.7884, 97.4062, -51.0174, 46.0381
4.64, 12, 35.8492, 47.9773, -13.7902, 97.4055, -51.0288, 46.0341
4.644, 12, 35.8495, 47.9879, -13.7925, 97.4045, -51.0444, 46.0287
4.648, 12, 35.8498, 48.0006, -13.7956, 97.4032, -51.0651, 46.0215
4.652, 12, 35.8501, 48.0155, -13.7996, 97.4015, -51.0919, 46.0122
4.656, 12, 35.8505, 48.0328, -13.8046, 97.3993, -51.1258, 46.0005
4.66, 13, 35.8508, 48.0526, -13.8108, 97.3965, -51.1678, 45.9859
4.664, 13, 35.8512, 48.0752, -13.8184, 97.3931, -51.219, 45.9682
4.668, 13, 35.8517, 48.1006, -13.8274, 97.3889, -51.2804, 45.9471
4.672, 13, 35.8522, 48.1293, -13.8379, 97.3839, -51.3528, 45.9221
4.676, 13, 35.8527, 48.1613, -13.8502, 97.3779, -51.437, 45.8932
4.68, 13, 35.8532, 48.1969, -13.8641, 97.3708, -51.5338, 45.86
4.684, 14, 35.8537, 48.2363, -13.8799, 97.3626, -51.6438, 45.8224
4.688, 14, 35.8542, 48.2796, -13.8976, 97.3532, -51.7675, 45.7802
4.692, 14, 35.8545, 48.327, -13.9171, 97.3423, -51.9054, 45.7333
4.696, 14, 35.8547, 48.3786, -13.9385, 97.33, -52.0577, 45.6816
4.7, 14, 35.8547, 48.4346, -13.9618, 97.3161, -52.2247, 45.6251
4.704, 14, 35.8546, 48.4952, -13.9869, 97.3005, -52.4065, 45.5639
4.708, 14, 35.8543, 48.5604, -14.0138, 97.283, -52.6033, 45.4978
4.712, 14, 35.8539, 48.6304, -14.0424, 97.2636, -52.8152, 45.427
4.716, 14, 35.8535, 48.7052, -14.0727, 97.242, -53.0421, 45.3514
4.72, 14, 35.8529, 48.7847, -14.1046, 97.2182, -53.2841, 45.2712
4.724, 14, 35.8522, 48.8691, -14.138, 97.192, -53.5412, 45.1863
4.728, 14, 35.8514, 48.9584, -14.1728, 97.1631, -53.8134, 45.0968
4.732, 15, 35.8503, 49.0523, -14.2089, 97.1316, -54.1007, 45.0029
4.736, 15, 35.8489, 49.1509, -14.2463, 97.0971, -54.4032, 44.9045
4.74, 15, 35.8473, 49.2537, -14.2847, 97.0595, -54.7207, 44.8018
4.744, 15, 35.8454, 49.3605, -14.3241, 97.0187, -55.0531, 44.6948
4.748, 15, 35.8432, 49.4709, -14.3643, 96.9744, -55.4002, 44.5837
4.752, 15, 35.8406, 49.5845, -14.4052, 96.9266, -55.7615, 44.4686
4.756, 15, 35.8378, 49.7011, -14.4465, 96.8751, -56.1366, 44.3499
4.76, 15, 35.8345, 49.8204, -14.488, 96.8199, -56.5245, 44.2277
4.764, 15, 35.8309, 49.9422, -14.5296, 96.7611, -56.9243, 44.1025
4.768, 15, 35.8267, 50.0665, -14.5708, 96.6985, -57.3349, 43.9745
4.772, 15, 35.8219, 50.193, -14.6115, 96.6324, -57.755, 43.8444
4.776, 15, 35.8164, 50.3214, -14.6515, 96.5627, -58.1833, 43.7124
4.78, 15, 35.8099, 50.4513, -14.6904, 96.4896, -58.6184, 43.5789
4.784, 15, 35.8023, 50.5822, -14.7279, 96.413, -59.0591, 43.4445
4.788, 15, 35.7936, 50.7139, -14.7636, 96.3332, -59.504, 43.3096
4.792, 15, 35.7837, 50.846, -14.7972, 96.2499, -59.9518, 43.1745
4.796, 15, 35.7726, 50.9781, -14.8283, 96.1634, -60.4014, 43.0397
4.8, 15, 35.7605, 51.1099, -14.8564, 96.0733, -60.8517, 42.9054
4.804, 16, 35.7474, 51.2411, -14.8811, 95.9798, -61.3017, 42.7721
4.808, 16, 35.7336, 51.3711, -14.9019, 95.8828, -61.7504, 42.64
4.812, 16, 35.7191, 51.4996, -14.9187, 95.7823, -62.1971, 42.5093
4.816, 16, 35.7039, 51.6261, -14.9311, 95.6784, -62.6408, 42.3802
4.82, 16, 35.688, 51.7502, -14.939, 95.5714, -63.0809, 42.253
4.824, 16, 35.6713, 51.8718, -14.9423, 95.4613, -63.5163, 42.1279
4.828, 16, 35.6538, 51.9907, -14.941, 95.3487, -63.9464, 42.0049
4.832, 16, 35.6355, 52.107, -14.9351, 95.2337, -64.3706, 41.8842
4.836, 16, 35.6162, 52.2206, -14.925, 95.1168, -64.7881, 41.766
4.84, 16, 35.5959, 52.3316, -14.9106, 94.9983, -65.1985, 41.6502
4.844, 16, 35.5743, 52.44, -14.8922, 94.8785, -65.6015, 41.5371
4.848, 16, 35.5512, 52.5457, -14.87, 94.7579, -65.997, 41.4267
4.852, 17, 35.5265, 52.6487, -14.844, 94.6365, -66.385, 41.3191
4.856, 17, 35.5003, 52.7489, -14.8143, 94.5145, -66.7658, 41.2146
4.86, 17, 35.4726, 52.846, -14.7808, 94.392, -67.1395, 41.1132
4.864, 17, 35.4439, 52.94, -14.7435, 94.2688, -67.5068, 41.0154
4.868, 17, 35.4144, 53.0305, -14.7022, 94.1448, -67.8679, 40.9212
4.872, 17, 35.3844, 53.1172, -14.6567, 94.0199, -68.2234, 40.8309
4.876, 18, 35.3541, 53.2001, -14.6071, 93.894, -68.5737, 40.7446
4.88, 18, 35.3237, 53.279, -14.5531, 93.767, -68.9188, 40.6624
4.884, 18, 35.2931, 53.3541, -14.4949, 93.639, -69.2591, 40.5844
4.888, 18, 35.2623, 53.4257, -14.4325, 93.51, -69.5944, 40.5105
4.892, 18, 35.2314, 53.4939, -14.3663, 93.3803, -69.9246, 40.4407
4.896, 18, 35.2002, 53.559, -14.2963, 93.2501, -70.2495, 40.3748
4.9, 18, 35.1687, 53.6214, -14.223, 93.1196, -70.569, 40.3128
4.904, 18, 35.1366, 53.6811, -14.1467, 92.9891, -70.883, 40.2542
4.908, 18, 35.1035, 53.7382, -14.0676, 92.8588, -71.1913, 40.199
4.912, 18, 35.0691, 53.7927, -13.986, 92.7287, -71.4939, 40.1467
4.916, 18, 35.0332, 53.8445, -13.9019, 92.5991, -71.7908, 40.0973
4.92, 18, 34.9957, 53.8938, -13.8153, 92.4697, -72.082, 40.0506
4.924, 19, 34.9566, 53.9406, -13.7261, 92.3403, -72.3678, 40.0066
4.928, 19, 34.916, 53.985, -13.6339, 92.2108, -72.6483, 39.9656
4.932, 19, 34.8745, 54.0269, -13.5384, 92.0806, -72.9239, 39.9276
4.936, 19, 34.8322, 54.0661, -13.439, 91.9492, -73.195, 39.8928
4.94, 19, 34.7895, 54.1024, -13.3354, 91.8164, -73.4621, 39.8615
4.944, 19, 34.7463, 54.1357, -13.227, 91.6815, -73.7256, 39.8336
4.948, 19, 34.7028, 54.1657, -13.1135, 91.5443, -73.9861, 39.8093
4.952, 19, 34.6588, 54.1923, -12.9946, 91.4045, -74.244, 39.7886
4.956, 19, 34.6143, 54.2154, -12.87, 91.2618, -74.4997, 39.7716
4.96, 19, 34.5693, 54.2352, -12.7398, 91.1164, -74.7533, 39.7582
4.964, 19, 34.5236, 54.2517, -12.6039, 90.968, -75.005, 39.7484
4.968, 19, 34.4772, 54.2649, -12.4624, 90.8169, -75.255, 39.7421
4.972, 20, 34.4303, 54.275, -12.3155, 90.6632, -75.5032, 39.7395
4.976, 20, 34.3828, 54.282, -12.1635, 90.5071, -75.7494, 39.7404
4.98, 20, 34.335, 54.286, -12.0067, 90.3491, -75.9936, 39.7448
4.984, 20, 34.2866, 54.2871, -11.8454, 90.1894, -76.2355, 39.7526
4.988, 20, 34.2376, 54.2856, -11.6803, 90.0285, -76.4747, 39.7638
4.992, 20, 34.1879, 54.2816, -11.5117, 89.8668, -76.711, 39.7783
4.996, 20, 34.1375, 54.2754, -11.34, 89.7047, -76.9439, 39.796
5, 20, 34.0863, 54.2672, -11.1658, 89.5427, -77.1731, 39.8168
5.004, 20, 34.0346, 54.257, -10.9894, 89.3809, -77.3983, 39.8407
5.008, 20, 33.9824, 54.2449, -10.8111, 89.2198, -77.6195, 39.8674
5.012, 20, 33.9298, 54.2309, -10.6313, 89.0594, -77.8364, 39.897
5.016, 20, 33.8768, 54.2149, -10.4501, 88.8999, -78.049, 39.9293
5.02, 21, 33.8231, 54.1968, -10.2678, 88.7413, -78.2572, 39.9641
5.024, 21, 33.7683, 54.1767, -10.0843, 88.5838, -78.461, 40.0015
5.028, 21, 33.7122, 54.1546, -9.89962, 88.4272, -78.6604, 40.0415
5.032, 21, 33.6548, 54.1305, -9.71368, 88.2713, -78.8554, 40.0841
5.036, 21, 33.5962, 54.1045, -9.52624, 88.116, -79.046, 40.1295
5.04, 21, 33.5367, 54.0766, -9.33698, 87.9608, -79.2325, 40.1778
5.044, 21, 33.4766, 54.0467, -9.14555, 87.8056, -79.4151, 40.2294
5.048, 21, 33.4162, 54.0149, -8.95157, 87.6498, -79.594, 40.2843
5.052, 21, 33.3556, 53.981, -8.75469, 87.4932, -79.7696, 40.3426
5.056, 21, 33.2949, 53.945, -8.55461, 87.3355, -79.9424, 40.4045
5.06, 21, 33.234, 53.9068, -8.35111, 87.1765, -80.1126, 40.47
5.064, 21, 33.1728, 53.8663, -8.14404, 87.0159, -80.2808, 40.539
5.068, 22, 33.1113, 53.8234, -7.93334, 86.8537, -80.4472, 40.6114
5.072, 22, 33.0495, 53.7779, -7.71903, 86.6898, -80.6122, 40.6872
5.076, 22, 32.9875, 53.7296, -7.5012, 86.5245, -80.776, 40.7664
5.08, 22, 32.9251, 53.6786, -7.28001, 86.3577, -80.9385, 40.8489
5.084, 22, 32.8625, 53.6251, -7.05569, 86.1898, -81.0996, 40.935
5.088, 22, 32.7995, 53.5692, -6.8285, 86.0209, -81.2593, 41.0247
5.092, 22, 32.7361, 53.5113, -6.59871, 85.8513, -81.417, 41.1181
5.096, 22, 32.672, 53.4516, -6.36664, 85.6812, -81.5724, 41.2155
5.1, 22, 32.6074, 53.3905, -6.1326, 85.511, -81.7252, 41.3168
5.104, 22, 32.5422, 53.3281, -5.89688, 85.3408, -81.8751, 41.4221
5.108, 22, 32.4767, 53.2647, -5.65981, 85.171, -82.0218, 41.5315
5.112, 22, 32.4109, 53.2005, -5.42169, 85.0016, -82.1653, 41.6447
5.116, 23, 32.3448, 53.1358, -5.18283, 84.8328, -82.3054, 41.7615
5.12, 23, 32.2785, 53.0707, -4.94354, 84.6648, -82.4424, 41.8816
5.124, 23, 32.2119, 53.0053, -4.70409, 84.4977, -82.5763, 42.0046
5.128, 23, 32.1447, 52.9394, -4.46469, 84.3314, -82.7075, 42.1304
5.132, 23, 32.0768, 52.873, -4.22549, 84.1659, -82.8363, 42.2586
5.136, 23, 32.008, 52.8057, -3.98657, 84.0009, -82.9631, 42.3896
5.14, 23, 31.9385, 52.7376, -3.74794, 83.8362, -83.0879, 42.5236
5.144, 23, 31.8683, 52.6686, -3.50952, 83.6712, -83.2112, 42.6614
5.148, 23, 31.7977, 52.5988, -3.27117, 83.5055, -83.3329, 42.804
5.152, 23, 31.7266, 52.5285, -3.03269, 83.3385, -83.4532, 42.9525
5.156, 23, 31.655, 52.4578, -2.7938, 83.1698, -83.5722, 43.1077
5.16, 23, 31.583, 52.3868, -2.55424, 82.9987, -83.6899, 43.2706
5.164, 23, 31.5105, 52.3158, -2.3137, 82.8249, -83.8066, 43.4416
5.168, 23, 31.4374, 52.2446, -2.0719, 82.6481, -83.9224, 43.6211
5.172, 23, 31.3638, 52.1734, -1.82862, 82.4677, -84.0378, 43.8088
5.176, 23, 31.29, 52.1022, -1.58372, 82.2837, -84.1531, 44.0042
5.18, 23, 31.2164, 52.0309, -1.33718, 82.0959, -84.2689, 44.2063
5.184, 23, 31.1432, 51.9596, -1.08909, 81.9043, -84.3857, 44.4139
5.188, 23, 31.0709, 51.8883, -0.839699, 81.7092, -84.5039, 44.6253
5.192, 23, 30.9994, 51.8172, -0.589389, 81.5111, -84.6239, 44.8385
5.196, 23, 30.9287, 51.7464, -0.338685, 81.3106, -84.7459, 45.0516
5.2, 23, 30.8585, 51.6759, -0.0882049, 81.1085, -84.8702, 45.2626
5.204, 23, 30.7886, 51.6058, 0.16139, 80.9056, -84.9965, 45.4698
5.208, 23, 30.7186, 51.5359, 0.40944, 80.7028, -85.1247, 45.6718
5.212, 24, 30.6485, 51.466, 0.655327, 80.5006, -85.2545, 45.8678
5.216, 24, 30.5782, 51.396, 0.898521, 80.2999, -85.3851, 46.0571
5.22, 24, 30.5077, 51.3258, 1.13862, 80.1012, -85.5158, 46.2398
5.224, 24, 30.4371, 51.2556, 1.37536, 79.9051, -85.6457, 46.4161
5.228, 24, 30.366, 51.1855, 1.60867, 79.7118, -85.7737, 46.5868
5.232, 24, 30.2941, 51.1158, 1.83862, 79.5218, -85.8987, 46.7527
5.236, 24, 30.221, 51.0465, 2.06551, 79.335, -86.02, 46.9149
5.24, 24, 30.1464, 50.9776, 2.2898, 79.1514, -86.1367, 47.0745
5.244, 24, 30.0703, 50.9088, 2.51219, 78.9705, -86.2482, 47.2325
5.248, 24, 29.9926, 50.8396, 2.7335, 78.792, -86.3544, 47.3903
5.252, 24, 29.9138, 50.7696, 2.95471, 78.6149, -86.4552, 47.5487
5.256, 24, 29.834, 50.6986, 3.17685, 78.4386, -86.5509, 47.709
5.26, 24, 29.7534, 50.626, 3.40099, 78.262, -86.6419, 47.8721
5.264, 24, 29.672, 50.5517, 3.6282, 78.0842, -86.7287, 48.0389
5.268, 24, 29.5896, 50.4754, 3.85948, 77.9042, -86.8121, 48.2101
5.272, 24, 29.506, 50.3966, 4.09577, 77.721, -86.8931, 48.3864
5.276, 24, 29.421, 50.3151, 4.33785, 77.5338, -86.9726, 48.5684
5.28, 24, 29.3346, 50.2306, 4.58637, 77.3418, -87.0516, 48.7563
5.285, 25, 29.2467, 50.1429, 4.84179, 77.1443, -87.131, 48.9504
5.288, 25, 29.1572, 50.052, 5.10439, 76.9409, -87.2116, 49.151
5.292, 25, 29.0662, 49.9581, 5.37424, 76.7312, -87.2941, 49.3578
5.296, 25, 28.9735, 49.8612, 5.65126, 76.5151, -87.379, 49.5709
5.3, 25, 28.8787, 49.7616, 5.93515, 76.2927, -87.4667, 49.7898
5.304, 25, 28.7818, 49.6594, 6.2255, 76.0642, -87.5574, 50.0143
5.308, 25, 28.6825, 49.5547, 6.52177, 75.83, -87.651, 50.2439
5.312, 25, 28.5809, 49.4475, 6.82332, 75.5906, -87.7476, 50.4781
5.316, 25, 28.477, 49.3378, 7.12943, 75.3465, -87.8469, 50.7166
5.32, 25, 28.3709, 49.2258, 7.43935, 75.0985, -87.9486, 50.9589
5.324, 25, 28.2628, 49.1117, 7.75232, 74.8473, -88.0523, 51.205
5.328, 25, 28.1524, 48.996, 8.06761, 74.5937, -88.1573, 51.4546
5.332, 26, 28.0399, 48.879, 8.38454, 74.3386, -88.2632, 51.7077
5.336, 26, 27.9253, 48.7612, 8.70247, 74.0828, -88.3691, 51.9644
5.34, 26, 27.8085, 48.643, 9.02084, 73.8269, -88.4747, 52.2247
5.344, 26, 27.6898, 48.5243, 9.33922, 73.5715, -88.5794, 52.4888
5.348, 26, 27.5696, 48.4052, 9.65724, 73.3171, -88.6826, 52.7567
5.352, 26, 27.4481, 48.2852, 9.97466, 73.064, -88.784, 53.0285
5.356, 26, 27.3258, 48.1644, 10.2913, 72.8123, -88.8831, 53.3042
5.36, 26, 27.2025, 48.0426, 10.6071, 72.5623, -88.9795, 53.5837
5.364, 26, 27.0781, 47.92, 10.9219, 72.3138, -89.0728, 53.8671
5.368, 26, 26.9523, 47.7967, 11.2359, 72.0666, -89.1625, 54.1541
5.372, 26, 26.8249, 47.6726, 11.5491, 71.8206, -89.2482, 54.4445
5.376, 26, 26.6956, 47.5479, 11.8617, 71.5752, -89.3297, 54.738
5.38, 27, 26.5645, 47.4223, 12.1738, 71.3299, -89.407, 55.0345
5.384, 27, 26.4318, 47.2956, 12.4859, 71.0843, -89.4799, 55.3337
5.388, 27, 26.2979, 47.1677, 12.7981, 70.8375, -89.5487, 55.6355
5.392, 27, 26.1631, 47.0385, 13.1108, 70.5892, -89.6134, 55.9397
5.396, 27, 26.0277, 46.9085, 13.424, 70.3389, -89.6744, 56.2463
5.4, 27, 25.8914, 46.7779, 13.7379, 70.0862, -89.7318, 56.5552
5.404, 27, 25.7542, 46.6471, 14.0525, 69.8309, -89.786, 56.8664
5.408, 27, 25.6159, 46.5162, 14.3677, 69.5731, -89.8372, 57.1795
5.412, 27, 25.4764, 46.3849, 14.6832, 69.3127, -89.8861, 57.4945
5.416, 27, 25.3359, 46.2533, 14.999, 69.05, -89.9331, 57.8112
5.42, 27, 25.1947, 46.121, 15.3145, 68.785, -89.9789, 58.1292
5.424, 27, 25.0532, 45.988, 15.6296, 68.518, -90.0237, 58.4486
5.428, 27, 24.9118, 45.8542, 15.9438, 68.2494, -90.068, 58.7694
5.432, 27, 24.7704, 45.7199, 16.2567, 67.9795, -90.1118, 59.0915
5.436, 27, 24.6282, 45.5854, 16.568, 67.7087, -90.155, 59.4153
5.44, 27, 24.4846, 45.4509, 16.8772, 67.4374, -90.1976, 59.7411
5.444, 27, 24.3388, 45.3165, 17.1841, 67.1657, -90.239, 60.0694
5.448, 27, 24.1904, 45.1824, 17.4886, 66.8939, -90.2792, 60.4009
5.452, 28, 24.0392, 45.0488, 17.7908, 66.622, -90.3177, 60.7363
5.456, 28, 23.8857, 44.9157, 18.0908, 66.3496, -90.3544, 61.0764
5.46, 28, 23.7306, 44.7836, 18.3889, 66.0765, -90.3892, 61.4221
5.464, 28, 23.5745, 44.6526, 18.6852, 65.8022, -90.4219, 61.7741
5.468, 28, 23.4178, 44.5228, 18.9802, 65.5264, -90.4527, 62.1329
5.472, 28, 23.2604, 44.3945, 19.274, 65.2487, -90.4816, 62.499
5.476, 29, 23.1022, 44.2674, 19.5668, 64.9689, -90.5088, 62.8721
5.48, 29, 22.9428, 44.1414, 19.8588, 64.6867, -90.5347, 63.2522
5.484, 29, 22.7822, 44.0162, 20.1501, 64.402, -90.5597, 63.6386
5.488, 29, 22.6203, 43.8916, 20.4405, 64.1148, -90.5841, 64.0307
5.492, 29, 22.4574, 43.7675, 20.7301, 63.825, -90.6084, 64.4276
5.496, 29, 22.2938, 43.6438, 21.0186, 63.5326, -90.6329, 64.8286
5.5, 29, 22.1297, 43.5204, 21.306, 63.2379, -90.6578, 65.2328
5.504, 29, 21.9654, 43.3974, 21.5919, 62.9409, -90.6832, 65.6397
5.508, 29, 21.8004, 43.2748, 21.8762, 62.642, -90.7088, 66.0489
5.512, 29, 21.6342, 43.1528, 22.1586, 62.3413, -90.7344, 66.46
5.516, 29, 21.4663, 43.0315, 22.4388, 62.0392, -90.7596, 66.873
5.52, 29, 21.296, 42.9111, 22.7168, 61.7358, -90.784, 67.288
5.524, 29, 21.1231, 42.7916, 22.9925, 61.4311, -90.8069, 67.7054
5.528, 29, 20.9476, 42.6732, 23.2657, 61.1251, -90.8281, 68.1256
5.532, 29, 20.7702, 42.5562, 23.5368, 60.8177, -90.8472, 68.5492
5.536, 29, 20.5914, 42.4406, 23.8056, 60.5085, -90.8639, 68.9767
5.54, 29, 20.412, 42.3267, 24.0724, 60.1975, -90.8781, 69.4086
5.544, 29, 20.2325, 42.2145, 24.3371, 59.8845, -90.8898, 69.8453
5.548, 30, 20.0531, 42.1041, 24.5998, 59.5694, -90.8991, 70.2867
5.552, 30, 19.8738, 41.9956, 24.8604, 59.2524, -90.9062, 70.7326
5.556, 30, 19.6945, 41.889, 25.1186, 58.9337, -90.9113, 71.1825
5.56, 30, 19.5153, 41.7841, 25.3741, 58.6137, -90.915, 71.6357
5.564, 30, 19.3361, 41.6809, 25.6268, 58.2927, -90.9177, 72.091
5.568, 30, 19.1569, 41.5796, 25.8761, 57.9715, -90.9199, 72.5474
5.572, 31, 18.9781, 41.4801, 26.1216, 57.6505, -90.9221, 73.0037
5.576, 31, 18.7999, 41.3826, 26.363, 57.3305, -90.9249, 73.4585
5.58, 31, 18.6222, 41.2871, 26.5998, 57.0121, -90.9283, 73.9106
5.584, 31, 18.445, 41.1937, 26.8316, 56.696, -90.9327, 74.359
5.588, 31, 18.268, 41.1024, 27.0581, 56.3828, -90.9381, 74.8029
5.592, 31, 18.0911, 41.0133, 27.2792, 56.073, -90.9442, 75.2418
5.596, 31, 17.9139, 40.9262, 27.4947, 55.7668, -90.9509, 75.6758
5.6, 31, 17.7361, 40.8413, 27.7047, 55.4643, -90.9576, 76.1053
5.604, 31, 17.5575, 40.7585, 27.9096, 55.1651, -90.9641, 76.5312
5.608, 31, 17.3781, 40.6779, 28.1096, 54.8688, -90.9697, 76.9549
5.612, 31, 17.198, 40.5994, 28.3052, 54.5745, -90.9741, 77.3781
5.616, 31, 17.0173, 40.5229, 28.4971, 54.2815, -90.9767, 77.8023
5.62, 31, 16.8362, 40.4483, 28.6859, 53.9886, -90.9774, 78.2296
5.624, 31, 16.6547, 40.3755, 28.8722, 53.695, -90.9758, 78.6615
5.628, 31, 16.4729, 40.3045, 29.0566, 53.3997, -90.9719, 79.0998
5.632, 31, 16.291, 40.2352, 29.2396, 53.1019, -90.9655, 79.5456
5.636, 31, 16.1088, 40.1677, 29.4215, 52.8007, -90.9568, 80.0002
5.64, 31, 15.9262, 40.102, 29.6026, 52.4956, -90.946, 80.4639
5.644, 32, 15.7432, 40.0379, 29.7829, 52.1864, -90.9335, 80.9371
5.648, 32, 15.5597, 39.9753, 29.9626, 51.8729, -90.9196, 81.4193
5.652, 32, 15.3757, 39.9139, 30.1414, 51.5554, -90.9048, 81.9098
5.656, 32, 15.1912, 39.8538, 30.3192, 51.2342, -90.8896, 82.4076
5.66, 32, 15.0063, 39.7949, 30.4954, 50.9098, -90.8746, 82.9112
5.664, 32, 14.821, 39.7374, 30.6699, 50.583, -90.8601, 83.4192
5.668, 32, 14.6352, 39.6815, 30.842, 50.2544, -90.8464, 83.9301
5.672, 32, 14.449, 39.6274, 31.0114, 49.925, -90.8339, 84.4426
5.676, 32, 14.262, 39.5754, 31.1776, 49.5955, -90.8227, 84.9552
5.68, 32, 14.0741, 39.5255, 31.3404, 49.2666, -90.8129, 85.4669
5.684, 32, 13.8849, 39.478, 31.4993, 48.9389, -90.8043, 85.9769
5.688, 32, 13.6944, 39.4328, 31.6542, 48.6129, -90.797, 86.4848
5.692, 32, 13.5023, 39.3902, 31.805, 48.2887, -90.7906, 86.9909
5.696, 32, 13.3087, 39.3503, 31.9517, 47.9665, -90.7851, 87.4956
5.7, 32, 13.1135, 39.3131, 32.0944, 47.6458, -90.78, 87.9999
5.704, 32, 12.9171, 39.2786, 32.2333, 47.3264, -90.7752, 88.5051
5.708, 32, 12.7196, 39.2469, 32.3686, 47.0076, -90.7703, 89.0128
5.712, 32, 12.5212, 39.2179, 32.5006, 46.6888, -90.7652, 89.5245
5.716, 32, 12.3219, 39.1915, 32.6297, 46.3691, -90.7597, 90.0418
5.72, 32, 12.122, 39.1676, 32.756, 46.048, -90.7537, 90.5662
5.724, 32, 11.9217, 39.1461, 32.8799, 45.7245, -90.7472, 91.099
5.728, 32, 11.7209, 39.1272, 33.0016, 45.3982, -90.7402, 91.6413
5.732, 32, 11.5195, 39.1108, 33.1211, 45.0685, -90.7327, 92.1938
5.736, 32, 11.3175, 39.097, 33.2387, 44.7352, -90.7249, 92.7568
5.74, 32, 11.1147, 39.0858, 33.3541, 44.398, -90.7171, 93.3302
5.744, 32, 10.911, 39.0773, 33.4674, 44.0571, -90.7095, 93.9136
5.748, 32, 10.7065, 39.0717, 33.5784, 43.7127, -90.7024, 94.5061
5.752, 32, 10.5013, 39.0689, 33.6869, 43.3652, -90.696, 95.107
5.756, 32, 10.2955, 39.0692, 33.7925, 43.015, -90.6907, 95.7152
5.76, 32, 10.0892, 39.0727, 33.8951, 42.6629, -90.6867, 96.3299
5.764, 32, 9.88238, 39.0795, 33.9943, 42.3094, -90.6843, 96.9503
5.768, 32, 9.67488, 39.0897, 34.0898, 41.9553, -90.6835, 97.5758
5.772, 32, 9.46649, 39.1036, 34.1814, 41.6011, -90.6847, 98.2058
5.776, 32, 9.25708, 39.1212, 34.2687, 41.2476, -90.688, 98.8401
5.78, 32, 9.0467, 39.1425, 34.3515, 40.8953, -90.6933, 99.4782
5.784, 32, 8.83565, 39.1676, 34.4298, 40.5445, -90.7007, 100.12
5.788, 32, 8.62444, 39.1967, 34.5034, 40.1957, -90.7104, 100.765
5.792, 32, 8.41365, 39.2295, 34.5724, 39.8491, -90.7222, 101.414
5.796, 32, 8.20381, 39.2661, 34.6366, 39.505, -90.736, 102.066
5.8, 32, 7.99529, 39.3065, 34.6961, 39.1637, -90.752, 102.72
5.804, 32, 7.78833, 39.3504, 34.7509, 38.8254, -90.7699, 103.377
5.808, 32, 7.58314, 39.3979, 34.801, 38.4906, -90.7897, 104.034
5.812, 32, 7.37989, 39.4488, 34.8465, 38.1596, -90.8112, 104.692
5.816, 32, 7.17883, 39.503, 34.8873, 37.8329, -90.8345, 105.349
5.82, 32, 6.98019, 39.5603, 34.9236, 37.5108, -90.8593, 106.004
5.824, 32, 6.78424, 39.6206, 34.9554, 37.1939, -90.8857, 106.655
5.828, 32, 6.59124, 39.6837, 34.9827, 36.8827, -90.9133, 107.302
5.832, 32, 6.40138, 39.7494, 35.0057, 36.5776, -90.9421, 107.942
5.836, 32, 6.2147, 39.8177, 35.0244, 36.279, -90.9721, 108.576
5.84, 32, 6.03116, 39.8886, 35.0389, 35.9875, -91.0029, 109.201
5.844, 32, 5.85064, 39.9621, 35.0491, 35.7033, -91.0347, 109.817
5.848, 32, 5.67305, 40.0382, 35.0552, 35.4269, -91.0672, 110.425
5.852, 32, 5.4983, 40.1169, 35.0573, 35.1584, -91.1003, 111.023
5.856, 32, 5.3263, 40.1981, 35.0553, 34.8978, -91.1342, 111.612
5.86, 32, 5.15701, 40.2817, 35.0495, 34.6451, -91.1688, 112.194
5.864, 32, 4.99038, 40.3679, 35.0398, 34.4, -91.2041, 112.769
5.868, 32, 4.82635, 40.4567, 35.0264, 34.1622, -91.2404, 113.339
5.872, 32, 4.66472, 40.5483, 35.0094, 33.931, -91.2778, 113.905
5.876, 32, 4.50522, 40.6429, 34.9886, 33.706, -91.3166, 114.469
5.88, 32, 4.34758, 40.7404, 34.9643, 33.4864, -91.3571, 115.032
5.884, 32, 4.19169, 40.841, 34.9363, 33.2717, -91.3997, 115.595
5.888, 32, 4.03757, 40.9446, 34.9048, 33.0609, -91.4446, 116.16
5.892, 32, 3.88538, 41.0513, 34.8696, 32.8536, -91.4923, 116.729
5.896, 32, 3.73537, 41.1612, 34.8308, 32.6492, -91.5429, 117.301
5.9, 32, 3.58779, 41.2745, 34.7883, 32.4472, -91.5967, 117.877
5.904, 32, 3.44281, 41.3914, 34.742, 32.2475, -91.654, 118.458
5.908, 32, 3.30037, 41.5123, 34.6916, 32.0499, -91.7148, 119.044
5.912, 32, 3.16012, 41.6373, 34.6369, 31.8548, -91.7792, 119.634
5.916, 32, 3.02159, 41.7667, 34.5779, 31.6624, -91.8473, 120.228
5.92, 32, 2.88432, 41.9005, 34.5142, 31.4733, -91.9193, 120.827
5.924, 32, 2.74801, 42.0388, 34.4457, 31.288, -91.9949, 121.429
5.928, 32, 2.61256, 42.1817, 34.3721, 31.1072, -92.0741, 122.036
5.932, 32, 2.47806, 42.3295, 34.2934, 30.9314, -92.1567, 122.646
5.936, 32, 2.34474, 42.4822, 34.2094, 30.7613, -92.2426, 123.261
5.94, 32, 2.21282, 42.6397, 34.1199, 30.5974, -92.3316, 123.88
5.944, 32, 2.08253, 42.8021, 34.0248, 30.4403, -92.4237, 124.503
5.948, 32, 1.95402, 42.9689, 33.9242, 30.2904, -92.5186, 125.131
5.952, 32, 1.82741, 43.1396, 33.8181, 30.1482, -92.6164, 125.763
5.956, 32, 1.70285, 43.3139, 33.7066, 30.0139, -92.7168, 126.398
5.96, 32, 1.5806, 43.4913, 33.5898, 29.8878, -92.8196, 127.037
5.964, 32, 1.46098, 43.6715, 33.468, 29.7699, -92.9244, 127.677
5.968, 32, 1.34433, 43.8541, 33.3414, 29.6601, -93.0309, 128.319
5.972, 32, 1.23085, 44.0391, 33.2104, 29.5583, -93.1384, 128.961
5.976, 32, 1.12064, 44.2263, 33.0752, 29.4644, -93.2465, 129.602
5.98, 32, 1.01368, 44.4156, 32.9363, 29.3784, -93.3546, 130.24
5.984, 32, 0.909877, 44.6069, 32.7938, 29.3002, -93.4623, 130.875
5.988, 32, 0.809139, 44.8, 32.6482, 29.2298, -93.5692, 131.505
5.992, 32, 0.711368, 44.9949, 32.4995, 29.1673, -93.675, 132.128
5.996, 32, 0.616482, 45.1915, 32.348, 29.1128, -93.7795, 132.745
6, 32, 0.524429, 45.3898, 32.1938, 29.0664, -93.8826, 133.354
6.004, 32, 0.435178, 45.5899, 32.0369, 29.0283, -93.9844, 133.955
6.008, 32, 0.348704, 45.7917, 31.8772, 28.9985, -94.0848, 134.549
6.012, 32, 0.264979, 45.9952, 31.7146, 28.9772, -94.1839, 135.135
6.016, 32, 0.184013, 46.2005, 31.5488, 28.9646, -94.2821, 135.714
6.02, 32, 0.105896, 46.4075, 31.3796, 28.9606, -94.3794, 136.288
6.024, 32, 0.030794, 46.616, 31.2067, 28.9654, -94.4762, 136.858
6.028, 32, -0.0411168, 46.826, 31.0298, 28.9792, -94.5727, 137.426
6.032, 32, -0.109723, 47.0376, 30.8485, 29.0019, -94.6689, 137.993
6.036, 32, -0.17499, 47.2509, 30.6625, 29.0337, -94.7651, 138.56
6.04, 32, -0.236934, 47.4661, 30.4715, 29.0747, -94.8613, 139.129
6.044, 32, -0.295608, 47.6833, 30.2752, 29.125, -94.9575, 139.701
6.048, 32, -0.35109, 47.9025, 30.0733, 29.1847, -95.0536, 140.276
6.052, 32, -0.40347, 48.1238, 29.8658, 29.2539, -95.1495, 140.855
6.056, 32, -0.452829, 48.3473, 29.6526, 29.3325, -95.245, 141.437
