hehonglu123/Motion-Primitive-Planning/simulation/robotstudio_sim/scripts/fitting_output/threshold0.1/curve_exe_v160_z10.csv
timestamp, cmd_num, J1, J2, J3, J4, J5, J6
0, 1, -1.02572, 63.9806, 9.28144, 43.4289, -95.9993, 170.738
0.002, 1, -1.02572, 63.9806, 9.28144, 43.4289, -95.9993, 170.738
0.004, 1, -1.02572, 63.9806, 9.28144, 43.4289, -95.9993, 170.738
0.008, 1, -1.02572, 63.9806, 9.28144, 43.4289, -95.9993, 170.738
0.011, 1, -1.02572, 63.9806, 9.28144, 43.4289, -95.9993, 170.738
0.016, 1, -1.02572, 63.9806, 9.28144, 43.4289, -95.9993, 170.738
0.02, 1, -1.02572, 63.9806, 9.28144, 43.4289, -95.9993, 170.738
0.024, 1, -1.02572, 63.9806, 9.28144, 43.4289, -95.9993, 170.738
0.028, 1, -1.02572, 63.9806, 9.28144, 43.4289, -95.9993, 170.738
0.032, 1, -1.02572, 63.9806, 9.28144, 43.4289, -95.9993, 170.738
0.036, 1, -1.02571, 63.9806, 9.28144, 43.4289, -95.9993, 170.738
0.04, 1, -1.02565, 63.9806, 9.28144, 43.4289, -95.9993, 170.738
0.044, 1, -1.02542, 63.9805, 9.28144, 43.4289, -95.9993, 170.738
0.048, 1, -1.0249, 63.9804, 9.28146, 43.4289, -95.9993, 170.738
0.052, 1, -1.02393, 63.9801, 9.28149, 43.4289, -95.9993, 170.738
0.056, 1, -1.02241, 63.9796, 9.28152, 43.429, -95.9992, 170.738
0.06, 1, -1.02025, 63.9789, 9.28153, 43.4293, -95.999, 170.737
0.064, 1, -1.01742, 63.9778, 9.28149, 43.4298, -95.9986, 170.736
0.068, 1, -1.01388, 63.9764, 9.28134, 43.4306, -95.998, 170.734
0.072, 1, -1.00957, 63.9745, 9.28102, 43.4319, -95.9969, 170.731
0.076, 1, -1.00441, 63.9722, 9.28044, 43.4339, -95.9952, 170.726
0.08, 1, -0.99822, 63.9693, 9.27952, 43.4369, -95.9928, 170.719
0.084, 1, -0.990815, 63.9657, 9.27813, 43.441, -95.9893, 170.71
0.088, 1, -0.981989, 63.9615, 9.27614, 43.4467, -95.9847, 170.697
0.092, 1, -0.971582, 63.9564, 9.27339, 43.4542, -95.9784, 170.679
0.096, 1, -0.959486, 63.9505, 9.26972, 43.4639, -95.9703, 170.656
0.1, 1, -0.945615, 63.9438, 9.26494, 43.4763, -95.9601, 170.628
0.104, 1, -0.929867, 63.9361, 9.25887, 43.4916, -95.9473, 170.592
0.108, 1, -0.912108, 63.9275, 9.25134, 43.5103, -95.9318, 170.549
0.112, 1, -0.892208, 63.9178, 9.24219, 43.5327, -95.9131, 170.497
0.116, 1, -0.87008, 63.9072, 9.23127, 43.5592, -95.8911, 170.436
0.12, 1, -0.845702, 63.8957, 9.21843, 43.59, -95.8654, 170.364
0.124, 1, -0.8191, 63.8834, 9.20357, 43.6254, -95.8359, 170.283
0.128, 1, -0.790315, 63.8704, 9.18658, 43.6655, -95.8025, 170.19
0.131, 1, -0.759397, 63.8569, 9.16744, 43.7105, -95.765, 170.086
0.136, 1, -0.726383, 63.8429, 9.14611, 43.7603, -95.7235, 169.971
0.139, 1, -0.69128, 63.8283, 9.12264, 43.8148, -95.678, 169.845
0.144, 1, -0.654052, 63.8129, 9.09711, 43.874, -95.6286, 169.708
0.148, 1, -0.614663, 63.7967, 9.06964, 43.9376, -95.5756, 169.562
0.152, 1, -0.573132, 63.7796, 9.04036, 44.0052, -95.5192, 169.406
0.156, 1, -0.529553, 63.7616, 9.00944, 44.0766, -95.4597, 169.241
0.16, 1, -0.484058, 63.7426, 8.97705, 44.1513, -95.3973, 169.069
0.164, 1, -0.436768, 63.7228, 8.94337, 44.229, -95.3325, 168.889
0.168, 1, -0.387765, 63.7021, 8.9086, 44.3092, -95.2656, 168.704
0.172, 1, -0.33712, 63.6806, 8.87293, 44.3916, -95.1969, 168.514
0.176, 1, -0.284933, 63.6583, 8.83654, 44.4757, -95.1267, 168.32
0.18, 1, -0.231337, 63.6353, 8.79961, 44.5613, -95.0554, 168.122
0.184, 1, -0.176473, 63.6116, 8.76228, 44.6479, -94.9831, 167.922
0.188, 1, -0.120484, 63.5872, 8.72465, 44.7353, -94.9102, 167.72
0.192, 1, -0.0635231, 63.5623, 8.68681, 44.8234, -94.8368, 167.517
0.196, 1, -0.00574568, 63.537, 8.64884, 44.9119, -94.763, 167.312
0.2, 1, 0.0527189, 63.5114, 8.61077, 45.0007, -94.689, 167.107
0.204, 1, 0.111779, 63.4855, 8.57265, 45.0896, -94.6148, 166.902
0.208, 1, 0.171355, 63.4595, 8.53451, 45.1788, -94.5405, 166.696
0.212, 1, 0.231349, 63.4333, 8.49635, 45.2679, -94.4661, 166.49
0.216, 1, 0.291651, 63.4069, 8.45819, 45.3571, -94.3917, 166.284
0.22, 1, 0.352158, 63.3806, 8.42005, 45.4464, -94.3174, 166.078
0.224, 1, 0.412795, 63.3541, 8.38191, 45.5356, -94.243, 165.872
0.228, 1, 0.473507, 63.3277, 8.34379, 45.6248, -94.1686, 165.666
0.232, 1, 0.53426, 63.3013, 8.30569, 45.7139, -94.0943, 165.46
0.236, 1, 0.595029, 63.2748, 8.2676, 45.803, -94.02, 165.254
0.24, 1, 0.655798, 63.2484, 8.22954, 45.8921, -93.9457, 165.048
0.244, 1, 0.716556, 63.2219, 8.19149, 45.9811, -93.8715, 164.843
0.248, 1, 0.777295, 63.1955, 8.15347, 46.0701, -93.7973, 164.637
0.252, 1, 0.83801, 63.1691, 8.11547, 46.159, -93.7232, 164.432
0.256, 1, 0.898697, 63.1427, 8.07749, 46.2479, -93.6491, 164.226
0.26, 1, 0.959354, 63.1163, 8.03953, 46.3367, -93.575, 164.021
0.264, 1, 1.01998, 63.0899, 8.00159, 46.4255, -93.501, 163.816
0.268, 1, 1.08057, 63.0636, 7.96367, 46.5142, -93.4271, 163.611
0.272, 1, 1.14113, 63.0372, 7.92578, 46.6029, -93.3531, 163.406
0.276, 1, 1.20165, 63.0109, 7.88791, 46.6915, -93.2792, 163.202
0.28, 1, 1.26214, 62.9846, 7.85006, 46.7801, -93.2054, 162.997
0.284, 1, 1.32259, 62.9583, 7.81224, 46.8686, -93.1316, 162.793
0.288, 1, 1.38301, 62.932, 7.77443, 46.957, -93.0578, 162.588
0.292, 1, 1.44339, 62.9057, 7.73665, 47.0454, -92.9841, 162.384
0.296, 1, 1.50374, 62.8795, 7.69889, 47.1338, -92.9105, 162.18
0.3, 1, 1.56405, 62.8532, 7.66116, 47.2221, -92.8368, 161.976
0.304, 1, 1.62432, 62.827, 7.62344, 47.3104, -92.7633, 161.772
0.308, 1, 1.68456, 62.8008, 7.58575, 47.3986, -92.6897, 161.568
0.312, 1, 1.74476, 62.7746, 7.54809, 47.4867, -92.6162, 161.365
0.316, 1, 1.80492, 62.7484, 7.51044, 47.5748, -92.5428, 161.161
0.32, 1, 1.86505, 62.7223, 7.47282, 47.6628, -92.4694, 160.958
0.324, 1, 1.92514, 62.6961, 7.43523, 47.7508, -92.396, 160.755
0.328, 1, 1.98519, 62.67, 7.39765, 47.8387, -92.3227, 160.551
0.332, 1, 2.0452, 62.6439, 7.3601, 47.9266, -92.2495, 160.349
0.336, 1, 2.10518, 62.6178, 7.32257, 48.0144, -92.1763, 160.146
0.34, 1, 2.16512, 62.5917, 7.28507, 48.1022, -92.1031, 159.943
0.344, 1, 2.22502, 62.5657, 7.24759, 48.1899, -92.03, 159.74
0.348, 1, 2.28488, 62.5396, 7.21013, 48.2775, -91.9569, 159.538
0.352, 1, 2.3447, 62.5136, 7.1727, 48.3651, -91.8839, 159.336
0.356, 1, 2.40449, 62.4876, 7.13529, 48.4526, -91.8109, 159.133
0.36, 1, 2.46424, 62.4616, 7.09791, 48.5401, -91.7379, 158.931
0.364, 1, 2.52395, 62.4356, 7.06055, 48.6276, -91.6651, 158.729
0.368, 1, 2.58362, 62.4097, 7.02321, 48.7149, -91.5922, 158.527
0.372, 1, 2.64325, 62.3837, 6.9859, 48.8022, -91.5194, 158.326
0.376, 1, 2.70284, 62.3578, 6.94861, 48.8895, -91.4467, 158.124
0.38, 1, 2.7624, 62.3319, 6.91135, 48.9767, -91.374, 157.923
0.384, 1, 2.82191, 62.306, 6.87411, 49.0638, -91.3013, 157.721
0.388, 1, 2.88139, 62.2801, 6.83689, 49.1509, -91.2287, 157.52
0.392, 1, 2.94082, 62.2543, 6.7997, 49.2379, -91.1561, 157.319
0.396, 1, 3.00022, 62.2284, 6.76254, 49.3249, -91.0836, 157.118
0.4, 1, 3.05958, 62.2026, 6.72539, 49.4118, -91.0112, 156.918
0.404, 1, 3.1189, 62.1768, 6.68828, 49.4987, -90.9388, 156.717
0.408, 1, 3.17818, 62.151, 6.65119, 49.5855, -90.8664, 156.516
0.412, 1, 3.23741, 62.1252, 6.61412, 49.6722, -90.7941, 156.316
0.416, 1, 3.29661, 62.0995, 6.57708, 49.7589, -90.7218, 156.116
0.42, 1, 3.35577, 62.0737, 6.54007, 49.8455, -90.6496, 155.916
0.424, 1, 3.41489, 62.048, 6.50308, 49.9321, -90.5774, 155.716
0.428, 1, 3.47397, 62.0223, 6.46611, 50.0186, -90.5053, 155.516
0.432, 1, 3.533, 61.9966, 6.42917, 50.105, -90.4332, 155.316
0.436, 1, 3.592, 61.971, 6.39226, 50.1914, -90.3612, 155.117
0.44, 1, 3.65095, 61.9453, 6.35537, 50.2777, -90.2893, 154.917
0.444, 1, 3.70987, 61.9197, 6.31851, 50.364, -90.2173, 154.718
0.448, 1, 3.76874, 61.8941, 6.28167, 50.4502, -90.1455, 154.519
0.452, 1, 3.82757, 61.8685, 6.24486, 50.5363, -90.0736, 154.32
0.456, 1, 3.88636, 61.8429, 6.20807, 50.6224, -90.0019, 154.121
0.46, 1, 3.94511, 61.8174, 6.17131, 50.7084, -89.9302, 153.922
0.464, 1, 4.00382, 61.7918, 6.13458, 50.7944, -89.8585, 153.724
0.468, 1, 4.06249, 61.7663, 6.09787, 50.8803, -89.7869, 153.525
0.472, 1, 4.12111, 61.7408, 6.06119, 50.9661, -89.7153, 153.327
0.476, 1, 4.17969, 61.7153, 6.02454, 51.0519, -89.6438, 153.129
0.48, 1, 4.23823, 61.6898, 5.98791, 51.1376, -89.5723, 152.931
0.484, 1, 4.29673, 61.6644, 5.9513, 51.2232, -89.5009, 152.733
0.488, 1, 4.35519, 61.639, 5.91473, 51.3088, -89.4296, 152.535
0.492, 1, 4.4136, 61.6135, 5.87818, 51.3943, -89.3583, 152.338
0.496, 1, 4.47197, 61.5882, 5.84166, 51.4798, -89.287, 152.14
0.5, 1, 4.5303, 61.5628, 5.80516, 51.5652, -89.2158, 151.943
0.504, 1, 4.58859, 61.5374, 5.76869, 51.6505, -89.1447, 151.746
0.508, 1, 4.64683, 61.5121, 5.73225, 51.7358, -89.0735, 151.549
0.512, 1, 4.70503, 61.4868, 5.69583, 51.821, -89.0025, 151.352
0.516, 1, 4.76319, 61.4615, 5.65944, 51.9062, -88.9315, 151.155
0.52, 1, 4.82131, 61.4362, 5.62308, 51.9913, -88.8606, 150.959
0.524, 1, 4.87938, 61.4109, 5.58675, 52.0763, -88.7897, 150.763
0.528, 1, 4.93741, 61.3857, 5.55044, 52.1613, -88.7188, 150.566
0.532, 1, 4.99539, 61.3605, 5.51416, 52.2462, -88.6481, 150.37
0.536, 1, 5.05334, 61.3352, 5.4779, 52.331, -88.5773, 150.174
0.54, 1, 5.11123, 61.3101, 5.44168, 52.4158, -88.5067, 149.978
0.544, 1, 5.16909, 61.2849, 5.40548, 52.5005, -88.436, 149.783
0.548, 1, 5.2269, 61.2597, 5.36931, 52.5851, -88.3654, 149.587
0.552, 1, 5.28467, 61.2346, 5.33316, 52.6697, -88.2949, 149.392
0.556, 1, 5.34239, 61.2095, 5.29705, 52.7542, -88.2245, 149.197
0.56, 1, 5.40007, 61.1844, 5.26096, 52.8387, -88.1541, 149.001
0.564, 1, 5.45771, 61.1593, 5.22489, 52.9231, -88.0837, 148.807
0.568, 1, 5.5153, 61.1343, 5.18886, 53.0074, -88.0134, 148.612
0.572, 1, 5.57285, 61.1092, 5.15285, 53.0916, -87.9432, 148.417
0.576, 1, 5.63035, 61.0842, 5.11687, 53.1758, -87.873, 148.223
0.58, 1, 5.68781, 61.0592, 5.08092, 53.26, -87.8028, 148.028
0.584, 1, 5.74522, 61.0342, 5.045, 53.344, -87.7327, 147.834
0.588, 1, 5.80259, 61.0093, 5.0091, 53.428, -87.6627, 147.64
0.592, 1, 5.85991, 60.9844, 4.97324, 53.5119, -87.5927, 147.446
0.596, 1, 5.91719, 60.9594, 4.9374, 53.5958, -87.5228, 147.252
0.6, 1, 5.97443, 60.9345, 4.90158, 53.6796, -87.4529, 147.059
0.604, 1, 6.03162, 60.9097, 4.8658, 53.7633, -87.3831, 146.865
0.608, 1, 6.08876, 60.8848, 4.83005, 53.847, -87.3134, 146.672
0.612, 1, 6.14586, 60.86, 4.79432, 53.9306, -87.2437, 146.479
0.616, 1, 6.20292, 60.8351, 4.75862, 54.0142, -87.174, 146.286
0.62, 1, 6.25993, 60.8103, 4.72295, 54.0976, -87.1044, 146.093
0.624, 1, 6.31689, 60.7856, 4.68731, 54.181, -87.0349, 145.901
0.628, 1, 6.37381, 60.7608, 4.6517, 54.2644, -86.9654, 145.708
0.632, 1, 6.43068, 60.736, 4.61611, 54.3476, -86.896, 145.516
0.636, 1, 6.48751, 60.7113, 4.58055, 54.4308, -86.8266, 145.323
0.64, 1, 6.54429, 60.6866, 4.54503, 54.514, -86.7573, 145.131
0.644, 1, 6.60103, 60.6619, 4.50953, 54.597, -86.688, 144.94
0.648, 1, 6.65772, 60.6373, 4.47406, 54.68, -86.6188, 144.748
0.652, 1, 6.71436, 60.6126, 4.43862, 54.763, -86.5497, 144.556
0.656, 1, 6.77096, 60.588, 4.4032, 54.8458, -86.4806, 144.365
0.66, 1, 6.82751, 60.5634, 4.36782, 54.9286, -86.4116, 144.174
0.664, 1, 6.88402, 60.5388, 4.33247, 55.0114, -86.3426, 143.982
0.668, 1, 6.94048, 60.5143, 4.29714, 55.094, -86.2737, 143.791
0.672, 1, 6.99689, 60.4897, 4.26184, 55.1766, -86.2048, 143.601
0.676, 1, 7.05326, 60.4652, 4.22658, 55.2592, -86.136, 143.41
0.68, 1, 7.10958, 60.4407, 4.19134, 55.3416, -86.0673, 143.22
0.684, 1, 7.16585, 60.4162, 4.15613, 55.424, -85.9986, 143.029
0.688, 1, 7.22208, 60.3918, 4.12095, 55.5063, -85.9299, 142.839
0.692, 1, 7.27826, 60.3673, 4.0858, 55.5886, -85.8613, 142.649
0.696, 1, 7.33439, 60.3429, 4.05068, 55.6708, -85.7928, 142.459
0.7, 1, 7.39048, 60.3185, 4.01558, 55.7529, -85.7244, 142.27
0.704, 1, 7.44652, 60.2941, 3.98052, 55.8349, -85.656, 142.08
0.708, 1, 7.50251, 60.2698, 3.94549, 55.9169, -85.5876, 141.891
0.712, 1, 7.55846, 60.2454, 3.91048, 55.9988, -85.5193, 141.701
0.716, 1, 7.61436, 60.2211, 3.87551, 56.0807, -85.4511, 141.512
0.72, 1, 7.67021, 60.1968, 3.84056, 56.1624, -85.3829, 141.323
0.724, 1, 7.72602, 60.1725, 3.80565, 56.2441, -85.3148, 141.135
0.728, 1, 7.78177, 60.1483, 3.77076, 56.3258, -85.2467, 140.946
0.732, 1, 7.83748, 60.1241, 3.73591, 56.4073, -85.1787, 140.758
0.736, 1, 7.89315, 60.0998, 3.70108, 56.4888, -85.1108, 140.569
0.74, 1, 7.94876, 60.0756, 3.66628, 56.5703, -85.0429, 140.381
0.744, 1, 8.00433, 60.0515, 3.63152, 56.6516, -84.975, 140.193
0.748, 1, 8.05985, 60.0273, 3.59678, 56.7329, -84.9073, 140.006
0.752, 1, 8.11532, 60.0032, 3.56207, 56.8141, -84.8396, 139.818
0.756, 1, 8.17075, 59.9791, 3.52739, 56.8953, -84.7719, 139.631
0.76, 1, 8.22613, 59.955, 3.49274, 56.9763, -84.7043, 139.443
0.764, 1, 8.28146, 59.9309, 3.45813, 57.0573, -84.6368, 139.256
0.768, 1, 8.33674, 59.9069, 3.42354, 57.1383, -84.5693, 139.069
0.772, 1, 8.39197, 59.8828, 3.38898, 57.2192, -84.5019, 138.882
0.776, 1, 8.44716, 59.8588, 3.35445, 57.3, -84.4345, 138.696
0.78, 1, 8.5023, 59.8348, 3.31995, 57.3807, -84.3672, 138.509
0.784, 1, 8.55739, 59.8109, 3.28549, 57.4613, -84.2999, 138.323
0.788, 1, 8.61243, 59.7869, 3.25105, 57.5419, -84.2328, 138.137
0.792, 1, 8.66743, 59.763, 3.21664, 57.6224, -84.1656, 137.951
0.796, 1, 8.72238, 59.7391, 3.18226, 57.7029, -84.0986, 137.765
0.8, 1, 8.77728, 59.7152, 3.14791, 57.7833, -84.0315, 137.579
0.804, 1, 8.83213, 59.6914, 3.1136, 57.8636, -83.9646, 137.394
0.808, 1, 8.88693, 59.6675, 3.07931, 57.9438, -83.8977, 137.208
0.812, 1, 8.94169, 59.6437, 3.04505, 58.024, -83.8309, 137.023
0.816, 1, 8.99639, 59.6199, 3.01083, 58.104, -83.7641, 136.838
0.82, 1, 9.05105, 59.5961, 2.97663, 58.1841, -83.6974, 136.653
0.824, 1, 9.10566, 59.5724, 2.94246, 58.264, -83.6307, 136.469
0.828, 1, 9.16022, 59.5486, 2.90833, 58.3439, -83.5641, 136.284
0.832, 1, 9.21474, 59.5249, 2.87422, 58.4237, -83.4976, 136.1
0.836, 1, 9.2692, 59.5012, 2.84014, 58.5034, -83.4311, 135.916
0.84, 1, 9.32362, 59.4776, 2.8061, 58.5831, -83.3647, 135.732
0.844, 1, 9.37799, 59.4539, 2.77208, 58.6627, -83.2983, 135.548
0.848, 1, 9.4323, 59.4303, 2.7381, 58.7422, -83.232, 135.364
0.852, 1, 9.48658, 59.4067, 2.70414, 58.8217, -83.1658, 135.18
0.856, 1, 9.5408, 59.3831, 2.67022, 58.9011, -83.0996, 134.997
0.86, 1, 9.59497, 59.3595, 2.63632, 58.9804, -83.0334, 134.814
0.864, 1, 9.6491, 59.336, 2.60246, 59.0596, -82.9674, 134.631
0.868, 1, 9.70317, 59.3124, 2.56863, 59.1388, -82.9014, 134.448
0.872, 1, 9.7572, 59.2889, 2.53483, 59.2179, -82.8354, 134.265
0.876, 1, 9.81118, 59.2655, 2.50105, 59.2969, -82.7695, 134.083
0.88, 1, 9.86511, 59.242, 2.46731, 59.3759, -82.7037, 133.9
0.884, 1, 9.919, 59.2186, 2.4336, 59.4548, -82.6379, 133.718
0.888, 1, 9.97283, 59.1951, 2.39992, 59.5336, -82.5722, 133.536
0.892, 1, 10.0266, 59.1717, 2.36627, 59.6123, -82.5066, 133.354
0.896, 1, 10.0804, 59.1484, 2.33265, 59.691, -82.441, 133.172
0.9, 1, 10.134, 59.125, 2.29906, 59.7696, -82.3754, 132.991
0.904, 1, 10.1877, 59.1017, 2.2655, 59.8481, -82.31, 132.809
0.908, 1, 10.2413, 59.0784, 2.23197, 59.9266, -82.2446, 132.628
0.912, 1, 10.2948, 59.0551, 2.19847, 60.005, -82.1792, 132.447
0.916, 1, 10.3483, 59.0318, 2.16501, 60.0833, -82.1139, 132.266
0.92, 1, 10.4018, 59.0086, 2.13157, 60.1615, -82.0487, 132.085
0.924, 1, 10.4551, 58.9853, 2.09816, 60.2397, -81.9835, 131.905
0.928, 1, 10.5085, 58.9621, 2.06479, 60.3178, -81.9184, 131.724
0.932, 1, 10.5618, 58.9389, 2.03144, 60.3958, -81.8533, 131.544
0.936, 1, 10.615, 58.9158, 1.99813, 60.4738, -81.7883, 131.364
0.94, 1, 10.6682, 58.8926, 1.96485, 60.5517, -81.7234, 131.184
0.944, 1, 10.7214, 58.8695, 1.93159, 60.6295, -81.6585, 131.004
0.948, 1, 10.7745, 58.8464, 1.89837, 60.7072, -81.5937, 130.825
0.952, 1, 10.8275, 58.8233, 1.86518, 60.7849, -81.5289, 130.645
0.956, 1, 10.8806, 58.8003, 1.83202, 60.8625, -81.4642, 130.466
0.96, 1, 10.9335, 58.7772, 1.79888, 60.94, -81.3996, 130.287
0.964, 1, 10.9864, 58.7542, 1.76578, 61.0175, -81.335, 130.108
0.968, 1, 11.0393, 58.7312, 1.73272, 61.0949, -81.2705, 129.929
0.972, 1, 11.0921, 58.7083, 1.69968, 61.1722, -81.2061, 129.751
0.976, 1, 11.1448, 58.6853, 1.66667, 61.2494, -81.1417, 129.572
0.98, 1, 11.1976, 58.6624, 1.63369, 61.3266, -81.0773, 129.394
0.984, 1, 11.2502, 58.6395, 1.60074, 61.4037, -81.013, 129.216
0.988, 1, 11.3028, 58.6166, 1.56783, 61.4807, -80.9488, 129.038
0.992, 1, 11.3554, 58.5937, 1.53494, 61.5577, -80.8847, 128.86
0.996, 1, 11.4079, 58.5709, 1.50209, 61.6346, -80.8206, 128.683
1, 1, 11.4604, 58.548, 1.46926, 61.7114, -80.7565, 128.505
1.004, 1, 11.5128, 58.5253, 1.43647, 61.7881, -80.6925, 128.328
1.008, 1, 11.5652, 58.5025, 1.4037, 61.8648, -80.6286, 128.151
1.012, 1, 11.6175, 58.4797, 1.37097, 61.9414, -80.5648, 127.974
1.016, 1, 11.6698, 58.457, 1.33827, 62.0179, -80.501, 127.797
1.02, 1, 11.722, 58.4343, 1.3056, 62.0943, -80.4372, 127.62
1.024, 1, 11.7742, 58.4116, 1.27296, 62.1707, -80.3735, 127.444
1.027, 1, 11.8263, 58.3889, 1.24035, 62.247, -80.3099, 127.268
1.032, 1, 11.8784, 58.3662, 1.20777, 62.3233, -80.2463, 127.092
1.036, 1, 11.9304, 58.3436, 1.17522, 62.3994, -80.1828, 126.916
1.04, 1, 11.9824, 58.321, 1.1427, 62.4755, -80.1194, 126.74
1.044, 1, 12.0343, 58.2984, 1.11021, 62.5516, -80.056, 126.564
1.048, 1, 12.0862, 58.2758, 1.07775, 62.6275, -79.9927, 126.389
1.052, 1, 12.138, 58.2533, 1.04533, 62.7034, -79.9294, 126.214
1.055, 1, 12.1898, 58.2308, 1.01293, 62.7792, -79.8662, 126.038
1.06, 1, 12.2415, 58.2083, 0.980566, 62.8549, -79.8031, 125.864
1.064, 1, 12.2932, 58.1858, 0.948231, 62.9306, -79.74, 125.689
1.068, 1, 12.3448, 58.1633, 0.915926, 63.0062, -79.677, 125.514
1.072, 1, 12.3964, 58.1409, 0.883653, 63.0817, -79.614, 125.34
1.076, 1, 12.448, 58.1185, 0.85141, 63.1572, -79.5511, 125.165
1.08, 1, 12.4995, 58.0961, 0.819197, 63.2325, -79.4882, 124.991
1.084, 1, 12.5509, 58.0737, 0.787015, 63.3078, -79.4255, 124.817
1.088, 1, 12.6023, 58.0513, 0.754863, 63.3831, -79.3627, 124.643
1.091, 1, 12.6536, 58.029, 0.722742, 63.4582, -79.3001, 124.47
1.096, 1, 12.7049, 58.0067, 0.690651, 63.5333, -79.2375, 124.296
1.1, 1, 12.7562, 57.9844, 0.658591, 63.6084, -79.1749, 124.123
1.104, 1, 12.8074, 57.9621, 0.626561, 63.6833, -79.1124, 123.95
1.108, 1, 12.8585, 57.9399, 0.594561, 63.7582, -79.05, 123.777
1.112, 1, 12.9096, 57.9176, 0.562592, 63.833, -78.9876, 123.604
1.116, 1, 12.9607, 57.8954, 0.530653, 63.9077, -78.9253, 123.431
1.119, 1, 13.0117, 57.8732, 0.498745, 63.9824, -78.863, 123.259
1.124, 1, 13.0626, 57.8511, 0.466867, 64.057, -78.8009, 123.087
1.128, 1, 13.1136, 57.8289, 0.435019, 64.1315, -78.7387, 122.915
1.132, 1, 13.1644, 57.8068, 0.403201, 64.206, -78.6766, 122.743
1.136, 1, 13.2152, 57.7847, 0.371414, 64.2804, -78.6146, 122.571
1.14, 1, 13.266, 57.7626, 0.339657, 64.3547, -78.5527, 122.399
1.144, 1, 13.3167, 57.7406, 0.30793, 64.4289, -78.4908, 122.228
1.147, 1, 13.3674, 57.7185, 0.276233, 64.5031, -78.4289, 122.056
1.152, 1, 13.418, 57.6965, 0.244566, 64.5772, -78.3671, 121.885
1.156, 1, 13.4686, 57.6745, 0.21293, 64.6512, -78.3054, 121.714
1.16, 1, 13.5191, 57.6525, 0.181323, 64.7252, -78.2438, 121.543
1.164, 1, 13.5696, 57.6306, 0.149747, 64.7991, -78.1822, 121.372
1.168, 1, 13.62, 57.6086, 0.118201, 64.8729, -78.1206, 121.202
1.172, 1, 13.6704, 57.5867, 0.0866844, 64.9467, -78.0591, 121.032
1.175, 1, 13.7207, 57.5648, 0.0551982, 65.0203, -77.9977, 120.861
1.18, 1, 13.771, 57.543, 0.0237419, 65.0939, -77.9363, 120.691
1.184, 1, 13.8212, 57.5211, -0.00768434, 65.1675, -77.875, 120.521
1.188, 1, 13.8714, 57.4993, -0.0390807, 65.241, -77.8138, 120.352
1.192, 1, 13.9215, 57.4775, -0.0704471, 65.3144, -77.7526, 120.182
1.196, 1, 13.9716, 57.4557, -0.101784, 65.3877, -77.6914, 120.013
1.2, 1, 14.0217, 57.4339, -0.13309, 65.4609, -77.6303, 119.844
1.204, 1, 14.0717, 57.4122, -0.164367, 65.5341, -77.5693, 119.674
1.208, 1, 14.1216, 57.3904, -0.195614, 65.6072, -77.5084, 119.506
1.212, 1, 14.1715, 57.3687, -0.226831, 65.6803, -77.4474, 119.337
1.216, 1, 14.2214, 57.347, -0.258019, 65.7533, -77.3866, 119.168
1.22, 1, 14.2712, 57.3254, -0.289176, 65.8262, -77.3258, 119
1.224, 1, 14.3209, 57.3037, -0.320304, 65.899, -77.2651, 118.832
1.228, 1, 14.3706, 57.2821, -0.351403, 65.9718, -77.2044, 118.663
1.232, 1, 14.4203, 57.2605, -0.382471, 66.0445, -77.1438, 118.495
1.236, 1, 14.4699, 57.2389, -0.41351, 66.1171, -77.0832, 118.328
1.24, 1, 14.5195, 57.2174, -0.44452, 66.1897, -77.0227, 118.16
1.244, 1, 14.569, 57.1958, -0.475499, 66.2622, -76.9623, 117.993
1.248, 1, 14.6185, 57.1743, -0.50645, 66.3346, -76.9019, 117.825
1.252, 1, 14.6679, 57.1528, -0.53737, 66.407, -76.8416, 117.658
1.256, 1, 14.7173, 57.1313, -0.568261, 66.4793, -76.7813, 117.491
1.26, 1, 14.7666, 57.1099, -0.599123, 66.5515, -76.7211, 117.324
1.264, 1, 14.8159, 57.0884, -0.629955, 66.6236, -76.661, 117.158
1.267, 1, 14.8652, 57.067, -0.660758, 66.6957, -76.6009, 116.991
1.272, 1, 14.9144, 57.0456, -0.691531, 66.7677, -76.5408, 116.825
1.276, 1, 14.9635, 57.0242, -0.722275, 66.8397, -76.4808, 116.659
1.28, 1, 15.0126, 57.0029, -0.75299, 66.9115, -76.4209, 116.493
1.284, 1, 15.0616, 56.9815, -0.783676, 66.9833, -76.361, 116.327
1.288, 1, 15.1107, 56.9602, -0.814332, 67.0551, -76.3012, 116.161
1.292, 1, 15.1596, 56.9389, -0.844958, 67.1267, -76.2415, 115.995
1.295, 1, 15.2085, 56.9177, -0.875556, 67.1983, -76.1818, 115.83
1.3, 1, 15.2574, 56.8964, -0.906124, 67.2699, -76.1221, 115.665
1.304, 1, 15.3062, 56.8752, -0.936664, 67.3413, -76.0626, 115.5
1.308, 1, 15.355, 56.8539, -0.967174, 67.4127, -76.003, 115.335
1.312, 1, 15.4037, 56.8327, -0.997655, 67.4841, -75.9436, 115.17
1.316, 1, 15.4524, 56.8116, -1.02811, 67.5553, -75.8842, 115.005
1.32, 1, 15.501, 56.7904, -1.05853, 67.6265, -75.8248, 114.841
1.324, 1, 15.5496, 56.7693, -1.08892, 67.6976, -75.7655, 114.677
1.328, 1, 15.5981, 56.7482, -1.11929, 67.7687, -75.7063, 114.513
1.332, 1, 15.6466, 56.7271, -1.14963, 67.8397, -75.6471, 114.349
1.336, 1, 15.6951, 56.706, -1.17993, 67.9106, -75.588, 114.185
1.34, 1, 15.7435, 56.685, -1.21021, 67.9815, -75.5289, 114.021
1.344, 1, 15.7918, 56.6639, -1.24046, 68.0522, -75.4699, 113.858
1.348, 1, 15.8401, 56.6429, -1.27068, 68.1229, -75.4109, 113.694
1.352, 1, 15.8884, 56.6219, -1.30087, 68.1936, -75.352, 113.531
1.356, 1, 15.9366, 56.6009, -1.33104, 68.2642, -75.2932, 113.368
1.36, 1, 15.9848, 56.58, -1.36117, 68.3347, -75.2344, 113.205
1.364, 1, 16.0329, 56.5591, -1.39128, 68.4051, -75.1756, 113.042
1.368, 1, 16.081, 56.5381, -1.42135, 68.4755, -75.117, 112.88
1.372, 1, 16.129, 56.5173, -1.4514, 68.5458, -75.0583, 112.717
1.376, 1, 16.177, 56.4964, -1.48142, 68.6161, -74.9998, 112.555
1.38, 1, 16.225, 56.4755, -1.51141, 68.6863, -74.9412, 112.393
1.384, 1, 16.2729, 56.4547, -1.54137, 68.7564, -74.8828, 112.231
1.388, 1, 16.3207, 56.4339, -1.5713, 68.8264, -74.8244, 112.069
1.392, 1, 16.3685, 56.4131, -1.60121, 68.8964, -74.766, 111.907
1.396, 1, 16.4163, 56.3923, -1.63108, 68.9663, -74.7078, 111.746
1.4, 1, 16.464, 56.3716, -1.66093, 69.0362, -74.6495, 111.585
1.404, 1, 16.5117, 56.3508, -1.69075, 69.1059, -74.5913, 111.423
1.408, 1, 16.5593, 56.3301, -1.72054, 69.1757, -74.5332, 111.262
1.412, 1, 16.6069, 56.3094, -1.75031, 69.2453, -74.4752, 111.102
1.416, 1, 16.6544, 56.2887, -1.78004, 69.3149, -74.4171, 110.941
1.42, 1, 16.7019, 56.2681, -1.80975, 69.3844, -74.3592, 110.78
1.424, 1, 16.7493, 56.2474, -1.83943, 69.4538, -74.3013, 110.62
1.428, 1, 16.7967, 56.2268, -1.86908, 69.5232, -74.2434, 110.459
1.432, 1, 16.8441, 56.2062, -1.8987, 69.5926, -74.1856, 110.299
1.436, 1, 16.8914, 56.1856, -1.92829, 69.6618, -74.1279, 110.139
1.44, 1, 16.9387, 56.1651, -1.95786, 69.731, -74.0702, 109.98
1.444, 1, 16.9859, 56.1445, -1.9874, 69.8001, -74.0126, 109.82
1.448, 1, 17.033, 56.124, -2.01691, 69.8692, -73.955, 109.66
1.452, 1, 17.0802, 56.1035, -2.04639, 69.9382, -73.8975, 109.501
1.456, 1, 17.1273, 56.083, -2.07585, 70.0071, -73.84, 109.342
1.46, 1, 17.1743, 56.0626, -2.10527, 70.076, -73.7826, 109.183
1.464, 1, 17.2213, 56.0421, -2.13467, 70.1447, -73.7252, 109.024
1.468, 1, 17.2683, 56.0217, -2.16404, 70.2135, -73.6679, 108.865
1.472, 1, 17.3152, 56.0013, -2.19339, 70.2822, -73.6107, 108.706
1.476, 1, 17.362, 55.9809, -2.22271, 70.3508, -73.5535, 108.548
1.48, 1, 17.4089, 55.9606, -2.25199, 70.4193, -73.4964, 108.39
1.484, 1, 17.4556, 55.9402, -2.28126, 70.4878, -73.4393, 108.231
1.488, 1, 17.5024, 55.9199, -2.31049, 70.5562, -73.3822, 108.073
1.492, 1, 17.5491, 55.8996, -2.3397, 70.6245, -73.3252, 107.915
1.496, 1, 17.5957, 55.8793, -2.36888, 70.6928, -73.2683, 107.758
1.5, 1, 17.6423, 55.859, -2.39803, 70.761, -73.2114, 107.6
1.504, 1, 17.6889, 55.8388, -2.42715, 70.8292, -73.1546, 107.443
1.508, 1, 17.7354, 55.8185, -2.45625, 70.8973, -73.0978, 107.285
1.512, 1, 17.7819, 55.7983, -2.48532, 70.9653, -73.0411, 107.128
1.516, 1, 17.8283, 55.7781, -2.51436, 71.0333, -72.9845, 106.971
1.52, 1, 17.8747, 55.7579, -2.54338, 71.1012, -72.9278, 106.814
1.524, 1, 17.921, 55.7378, -2.57237, 71.169, -72.8713, 106.658
1.528, 1, 17.9673, 55.7176, -2.60133, 71.2368, -72.8148, 106.501
1.532, 1, 18.0136, 55.6975, -2.63027, 71.3045, -72.7583, 106.345
1.536, 1, 18.0598, 55.6774, -2.65918, 71.3721, -72.7019, 106.188
1.54, 1, 18.106, 55.6573, -2.68806, 71.4397, -72.6456, 106.032
1.544, 1, 18.1521, 55.6373, -2.71691, 71.5072, -72.5893, 105.876
1.548, 1, 18.1982, 55.6172, -2.74574, 71.5747, -72.533, 105.721
1.552, 1, 18.2442, 55.5972, -2.77454, 71.6421, -72.4769, 105.565
1.556, 1, 18.2902, 55.5772, -2.80331, 71.7094, -72.4207, 105.409
1.56, 1, 18.3362, 55.5572, -2.83206, 71.7767, -72.3646, 105.254
1.564, 1, 18.3821, 55.5372, -2.86078, 71.8439, -72.3086, 105.099
1.568, 1, 18.4279, 55.5173, -2.88948, 71.911, -72.2526, 104.944
1.572, 1, 18.4738, 55.4973, -2.91815, 71.9781, -72.1967, 104.789
1.576, 1, 18.5196, 55.4774, -2.94679, 72.0452, -72.1408, 104.634
1.58, 1, 18.5653, 55.4575, -2.9754, 72.1121, -72.085, 104.479
1.584, 1, 18.611, 55.4377, -3.00399, 72.179, -72.0292, 104.325
1.588, 1, 18.6567, 55.4178, -3.03255, 72.2459, -71.9735, 104.17
1.592, 1, 18.7023, 55.3979, -3.06109, 72.3126, -71.9178, 104.016
1.596, 1, 18.7479, 55.3781, -3.0896, 72.3793, -71.8622, 103.862
1.6, 1, 18.7934, 55.3583, -3.11808, 72.446, -71.8066, 103.708
1.604, 1, 18.8389, 55.3385, -3.14654, 72.5126, -71.7511, 103.554
1.608, 1, 18.8843, 55.3188, -3.17497, 72.5791, -71.6956, 103.4
1.612, 1, 18.9297, 55.299, -3.20337, 72.6456, -71.6402, 103.247
1.616, 1, 18.9751, 55.2793, -3.23175, 72.712, -71.5848, 103.093
1.62, 1, 19.0204, 55.2596, -3.2601, 72.7783, -71.5295, 102.94
1.624, 1, 19.0657, 55.2399, -3.28843, 72.8446, -71.4742, 102.787
1.628, 1, 19.111, 55.2202, -3.31673, 72.9109, -71.419, 102.634
1.632, 1, 19.1562, 55.2005, -3.34501, 72.977, -71.3639, 102.481
1.636, 1, 19.2013, 55.1809, -3.37325, 73.0431, -71.3087, 102.328
1.64, 1, 19.2464, 55.1613, -3.40148, 73.1092, -71.2537, 102.176
1.644, 1, 19.2915, 55.1417, -3.42967, 73.1751, -71.1987, 102.023
1.648, 1, 19.3366, 55.1221, -3.45785, 73.2411, -71.1437, 101.871
1.652, 1, 19.3815, 55.1025, -3.48599, 73.3069, -71.0888, 101.719
1.656, 1, 19.4265, 55.0829, -3.51411, 73.3727, -71.0339, 101.567
1.66, 1, 19.4714, 55.0634, -3.54221, 73.4385, -70.9791, 101.415
1.664, 1, 19.5163, 55.0439, -3.57027, 73.5042, -70.9244, 101.263
1.668, 1, 19.5611, 55.0244, -3.59832, 73.5698, -70.8696, 101.112
1.672, 1, 19.6059, 55.0049, -3.62634, 73.6354, -70.815, 100.96
1.676, 1, 19.6507, 54.9854, -3.65433, 73.7009, -70.7604, 100.809
1.68, 1, 19.6954, 54.966, -3.68229, 73.7663, -70.7058, 100.658
1.684, 1, 19.74, 54.9466, -3.71024, 73.8317, -70.6513, 100.507
1.688, 1, 19.7847, 54.9272, -3.73815, 73.897, -70.5968, 100.356
1.692, 1, 19.8292, 54.9078, -3.76604, 73.9623, -70.5424, 100.205
1.696, 1, 19.8738, 54.8884, -3.79391, 74.0275, -70.488, 100.055
1.7, 1, 19.9183, 54.869, -3.82175, 74.0926, -70.4337, 99.904
1.704, 1, 19.9628, 54.8497, -3.84957, 74.1577, -70.3795, 99.7537
1.708, 1, 20.0072, 54.8304, -3.87736, 74.2228, -70.3252, 99.6034
1.712, 1, 20.0516, 54.8111, -3.90512, 74.2877, -70.2711, 99.4533
1.716, 1, 20.0959, 54.7918, -3.93286, 74.3526, -70.2169, 99.3034
1.72, 1, 20.1402, 54.7725, -3.96058, 74.4175, -70.1629, 99.1536
1.724, 1, 20.1845, 54.7532, -3.98827, 74.4823, -70.1089, 99.0039
1.728, 1, 20.2287, 54.734, -4.01593, 74.547, -70.0549, 98.8543
1.732, 1, 20.2729, 54.7148, -4.04357, 74.6117, -70.001, 98.7049
1.736, 1, 20.3171, 54.6956, -4.07119, 74.6763, -69.9471, 98.5556
1.74, 1, 20.3612, 54.6764, -4.09878, 74.7409, -69.8932, 98.4065
1.744, 1, 20.4052, 54.6572, -4.12635, 74.8054, -69.8395, 98.2575
1.748, 1, 20.4493, 54.6381, -4.15389, 74.8699, -69.7857, 98.1086
1.752, 1, 20.4933, 54.6189, -4.1814, 74.9342, -69.732, 97.9599
1.756, 1, 20.5372, 54.5998, -4.2089, 74.9986, -69.6784, 97.8113
1.76, 1, 20.5811, 54.5807, -4.23636, 75.0629, -69.6248, 97.6628
1.764, 1, 20.625, 54.5616, -4.26381, 75.1271, -69.5713, 97.5144
1.768, 1, 20.6688, 54.5426, -4.29123, 75.1912, -69.5178, 97.3662
1.772, 1, 20.7126, 54.5235, -4.31862, 75.2553, -69.4643, 97.2181
1.776, 1, 20.7564, 54.5045, -4.34599, 75.3194, -69.4109, 97.0702
1.78, 1, 20.8001, 54.4855, -4.37334, 75.3834, -69.3576, 96.9223
1.784, 1, 20.8438, 54.4665, -4.40066, 75.4473, -69.3043, 96.7747
1.788, 1, 20.8874, 54.4475, -4.42796, 75.5112, -69.251, 96.6271
1.792, 1, 20.931, 54.4285, -4.45523, 75.575, -69.1978, 96.4797
1.796, 1, 20.9746, 54.4096, -4.48248, 75.6388, -69.1446, 96.3324
1.8, 1, 21.0181, 54.3907, -4.50971, 75.7025, -69.0915, 96.1852
1.804, 1, 21.0616, 54.3717, -4.53691, 75.7661, -69.0385, 96.0381
1.808, 1, 21.105, 54.3528, -4.56408, 75.8297, -68.9854, 95.8912
1.812, 1, 21.1484, 54.334, -4.59124, 75.8933, -68.9324, 95.7444
1.816, 1, 21.1918, 54.3151, -4.61837, 75.9568, -68.8795, 95.5978
1.82, 1, 21.2351, 54.2962, -4.64547, 76.0202, -68.8266, 95.4513
1.824, 1, 21.2784, 54.2774, -4.67256, 76.0836, -68.7738, 95.3049
1.828, 1, 21.3217, 54.2586, -4.69962, 76.1469, -68.721, 95.1586
1.832, 1, 21.3649, 54.2398, -4.72665, 76.2102, -68.6683, 95.0124
1.836, 1, 21.4081, 54.221, -4.75366, 76.2734, -68.6156, 94.8664
1.84, 1, 21.4513, 54.2023, -4.78065, 76.3365, -68.5629, 94.7205
1.844, 1, 21.4944, 54.1835, -4.80762, 76.3996, -68.5103, 94.5748
1.848, 1, 21.5374, 54.1648, -4.83456, 76.4627, -68.4577, 94.4291
1.852, 1, 21.5805, 54.146, -4.86148, 76.5257, -68.4052, 94.2836
1.856, 1, 21.6235, 54.1273, -4.88837, 76.5886, -68.3527, 94.1382
1.86, 1, 21.6664, 54.1087, -4.91524, 76.6515, -68.3003, 93.993
1.864, 1, 21.7093, 54.09, -4.94209, 76.7143, -68.2479, 93.8478
1.868, 1, 21.7522, 54.0713, -4.96891, 76.7771, -68.1956, 93.7028
1.872, 1, 21.7951, 54.0527, -4.99572, 76.8398, -68.1433, 93.558
1.876, 1, 21.8379, 54.0341, -5.0225, 76.9025, -68.0911, 93.4132
1.88, 1, 21.8807, 54.0155, -5.04925, 76.9651, -68.0388, 93.2686
1.884, 1, 21.9234, 53.9969, -5.07598, 77.0276, -67.9867, 93.1241
1.888, 1, 21.9661, 53.9783, -5.10269, 77.0901, -67.9346, 92.9797
1.892, 1, 22.0088, 53.9598, -5.12938, 77.1526, -67.8825, 92.8354
1.896, 1, 22.0514, 53.9412, -5.15604, 77.215, -67.8305, 92.6913
1.9, 1, 22.094, 53.9227, -5.18269, 77.2773, -67.7785, 92.5473
1.904, 1, 22.1365, 53.9042, -5.2093, 77.3396, -67.7266, 92.4034
1.908, 1, 22.179, 53.8857, -5.2359, 77.4018, -67.6747, 92.2596
1.912, 1, 22.2215, 53.8672, -5.26247, 77.464, -67.6229, 92.116
1.916, 1, 22.264, 53.8488, -5.28902, 77.5262, -67.5711, 91.9724
1.92, 1, 22.3064, 53.8303, -5.31555, 77.5882, -67.5193, 91.829
1.924, 1, 22.3487, 53.8119, -5.34206, 77.6503, -67.4676, 91.6858
1.928, 1, 22.3911, 53.7935, -5.36854, 77.7122, -67.4159, 91.5426
1.932, 1, 22.4334, 53.7751, -5.395, 77.7742, -67.3643, 91.3996
1.936, 1, 22.4756, 53.7567, -5.42144, 77.836, -67.3127, 91.2567
1.94, 1, 22.5179, 53.7383, -5.44785, 77.8978, -67.2612, 91.1139
1.944, 1, 22.5601, 53.72, -5.47424, 77.9596, -67.2097, 90.9712
1.948, 1, 22.6022, 53.7016, -5.50061, 78.0213, -67.1582, 90.8287
1.952, 1, 22.6443, 53.6833, -5.52696, 78.083, -67.1068, 90.6862
1.956, 1, 22.6864, 53.665, -5.55329, 78.1446, -67.0555, 90.5439
1.96, 1, 22.7285, 53.6467, -5.57959, 78.2061, -67.0041, 90.4017
1.964, 1, 22.7705, 53.6284, -5.60588, 78.2676, -66.9529, 90.2596
1.968, 1, 22.8125, 53.6102, -5.63213, 78.3291, -66.9016, 90.1177
1.972, 1, 22.8544, 53.5919, -5.65837, 78.3905, -66.8504, 89.9759
1.976, 1, 22.8963, 53.5737, -5.68459, 78.4518, -66.7993, 89.8341
1.98, 1, 22.9382, 53.5555, -5.71078, 78.5131, -66.7482, 89.6926
1.984, 1, 22.9801, 53.5373, -5.73695, 78.5744, -66.6971, 89.5511
1.988, 1, 23.0219, 53.5191, -5.7631, 78.6355, -66.6461, 89.4097
1.992, 1, 23.0636, 53.5009, -5.78923, 78.6967, -66.5951, 89.2685
1.996, 1, 23.1054, 53.4828, -5.81534, 78.7578, -66.5442, 89.1273
1.999, 1, 23.1471, 53.4646, -5.84142, 78.8188, -66.4933, 88.9863
2.004, 1, 23.1887, 53.4465, -5.86749, 78.8798, -66.4425, 88.8455
2.008, 1, 23.2304, 53.4284, -5.89353, 78.9408, -66.3916, 88.7047
2.012, 1, 23.272, 53.4103, -5.91955, 79.0016, -66.3409, 88.564
2.015, 1, 23.3135, 53.3922, -5.94555, 79.0625, -66.2902, 88.4235
2.019, 1, 23.355, 53.3742, -5.97152, 79.1233, -66.2395, 88.2831
2.024, 1, 23.3965, 53.3561, -5.99748, 79.184, -66.1888, 88.1428
2.028, 1, 23.438, 53.3381, -6.02341, 79.2447, -66.1382, 88.0026
2.031, 1, 23.4794, 53.3201, -6.04932, 79.3053, -66.0877, 87.8625
2.036, 1, 23.5208, 53.3021, -6.07521, 79.3659, -66.0372, 87.7225
2.04, 1, 23.5622, 53.2841, -6.10108, 79.4265, -65.9867, 87.5827
2.044, 1, 23.6035, 53.2661, -6.12693, 79.4869, -65.9363, 87.443
2.048, 1, 23.6448, 53.2481, -6.15276, 79.5474, -65.8859, 87.3034
2.051, 1, 23.686, 53.2302, -6.17857, 79.6078, -65.8355, 87.1639
2.055, 1, 23.7273, 53.2123, -6.20435, 79.6681, -65.7852, 87.0245
2.06, 1, 23.7684, 53.1944, -6.23011, 79.7284, -65.735, 86.8852
2.064, 1, 23.8096, 53.1765, -6.25586, 79.7886, -65.6847, 86.7461
2.068, 1, 23.8507, 53.1586, -6.28158, 79.8488, -65.6345, 86.607
2.071, 1, 23.8918, 53.1407, -6.30728, 79.909, -65.5844, 86.4681
2.076, 1, 23.9329, 53.1228, -6.33296, 79.9691, -65.5343, 86.3293
2.08, 1, 23.9739, 53.105, -6.35862, 80.0291, -65.4842, 86.1906
2.084, 1, 24.0149, 53.0872, -6.38425, 80.0891, -65.4342, 86.052
2.087, 1, 24.0558, 53.0694, -6.40987, 80.149, -65.3842, 85.9135
2.092, 1, 24.0967, 53.0516, -6.43547, 80.2089, -65.3343, 85.7751
2.096, 1, 24.1376, 53.0338, -6.46104, 80.2688, -65.2844, 85.6369
2.1, 1, 24.1785, 53.016, -6.4866, 80.3286, -65.2346, 85.4987
2.104, 1, 24.2193, 52.9982, -6.51213, 80.3883, -65.1847, 85.3607
2.107, 1, 24.2601, 52.9805, -6.53764, 80.448, -65.135, 85.2228
2.111, 1, 24.3008, 52.9628, -6.56314, 80.5077, -65.0852, 85.085
2.116, 1, 24.3416, 52.9451, -6.58861, 80.5673, -65.0355, 84.9473
2.12, 1, 24.3823, 52.9274, -6.61406, 80.6269, -64.9859, 84.8097
2.124, 1, 24.4229, 52.9097, -6.63949, 80.6864, -64.9362, 84.6722
2.127, 1, 24.4635, 52.892, -6.66491, 80.7458, -64.8867, 84.5349
2.132, 1, 24.5041, 52.8744, -6.6903, 80.8053, -64.8371, 84.3976
2.136, 1, 24.5447, 52.8567, -6.71567, 80.8646, -64.7876, 84.2604
2.14, 1, 24.5852, 52.8391, -6.74102, 80.924, -64.7382, 84.1234
2.143, 1, 24.6257, 52.8215, -6.76635, 80.9832, -64.6887, 83.9865
2.148, 1, 24.6662, 52.8039, -6.79166, 81.0425, -64.6394, 83.8497
2.152, 1, 24.7066, 52.7863, -6.81695, 81.1016, -64.59, 83.7129
2.156, 1, 24.747, 52.7687, -6.84222, 81.1608, -64.5407, 83.5763
2.16, 1, 24.7874, 52.7512, -6.86747, 81.2199, -64.4914, 83.4398
2.163, 1, 24.8277, 52.7336, -6.8927, 81.2789, -64.4422, 83.3034
2.168, 1, 24.868, 52.7161, -6.91792, 81.3379, -64.393, 83.1672
2.172, 1, 24.9083, 52.6986, -6.94311, 81.3969, -64.3439, 83.031
2.176, 1, 24.9485, 52.6811, -6.96828, 81.4558, -64.2948, 82.8949
2.179, 1, 24.9887, 52.6636, -6.99343, 81.5146, -64.2457, 82.759
2.184, 1, 25.0289, 52.6461, -7.01856, 81.5734, -64.1967, 82.6231
2.188, 1, 25.0691, 52.6286, -7.04367, 81.6322, -64.1477, 82.4874
2.192, 1, 25.1092, 52.6112, -7.06877, 81.6909, -64.0987, 82.3517
2.196, 1, 25.1493, 52.5938, -7.09384, 81.7496, -64.0498, 82.2162
2.199, 1, 25.1893, 52.5763, -7.11889, 81.8082, -64.0009, 82.0807
2.204, 1, 25.2293, 52.5589, -7.14393, 81.8668, -63.9521, 81.9454
2.208, 1, 25.2693, 52.5415, -7.16894, 81.9253, -63.9033, 81.8102
2.212, 1, 25.3093, 52.5241, -7.19394, 81.9838, -63.8545, 81.6751
2.216, 1, 25.3492, 52.5068, -7.21891, 82.0423, -63.8058, 81.5401
2.219, 1, 25.3891, 52.4894, -7.24387, 82.1007, -63.7571, 81.4052
2.224, 1, 25.429, 52.4721, -7.26881, 82.159, -63.7084, 81.2704
2.228, 1, 25.4688, 52.4548, -7.29372, 82.2173, -63.6598, 81.1357
2.232, 1, 25.5086, 52.4374, -7.31862, 82.2756, -63.6112, 81.0011
2.235, 1, 25.5484, 52.4201, -7.3435, 82.3338, -63.5627, 80.8666
2.24, 1, 25.5881, 52.4029, -7.36836, 82.392, -63.5142, 80.7322
2.244, 1, 25.6279, 52.3856, -7.39321, 82.4501, -63.4657, 80.5979
2.248, 1, 25.6675, 52.3683, -7.41803, 82.5082, -63.4173, 80.4637
2.252, 1, 25.7072, 52.3511, -7.44283, 82.5663, -63.3689, 80.3296
2.255, 1, 25.7468, 52.3338, -7.46762, 82.6243, -63.3205, 80.1956
2.259, 1, 25.7864, 52.3166, -7.49238, 82.6822, -63.2722, 80.0618
2.264, 1, 25.826, 52.2994, -7.51713, 82.7401, -63.2239, 79.928
2.268, 1, 25.8655, 52.2822, -7.54186, 82.798, -63.1757, 79.7943
2.272, 1, 25.905, 52.265, -7.56657, 82.8558, -63.1275, 79.6608
2.275, 1, 25.9445, 52.2479, -7.59126, 82.9136, -63.0793, 79.5273
2.28, 1, 25.9839, 52.2307, -7.61593, 82.9713, -63.0312, 79.3939
2.284, 1, 26.0233, 52.2136, -7.64058, 83.029, -62.9831, 79.2606
2.288, 1, 26.0627, 52.1964, -7.66522, 83.0867, -62.935, 79.1275
2.291, 1, 26.1021, 52.1793, -7.68983, 83.1443, -62.887, 78.9944
2.296, 1, 26.1414, 52.1622, -7.71443, 83.2018, -62.839, 78.8614
2.3, 1, 26.1807, 52.1451, -7.73901, 83.2594, -62.791, 78.7286
2.304, 1, 26.22, 52.128, -7.76357, 83.3168, -62.7431, 78.5958
2.308, 1, 26.2592, 52.111, -7.78811, 83.3743, -62.6952, 78.4631
2.311, 1, 26.2984, 52.0939, -7.81264, 83.4316, -62.6474, 78.3306
2.316, 1, 26.3376, 52.0769, -7.83714, 83.489, -62.5996, 78.1981
2.32, 1, 26.3767, 52.0599, -7.86163, 83.5463, -62.5518, 78.0657
2.324, 1, 26.4158, 52.0428, -7.8861, 83.6036, -62.5041, 77.9334
2.328, 1, 26.4549, 52.0258, -7.91055, 83.6608, -62.4564, 77.8013
2.331, 1, 26.494, 52.0088, -7.93498, 83.7179, -62.4087, 77.6692
2.336, 1, 26.533, 51.9919, -7.9594, 83.7751, -62.3611, 77.5372
2.34, 1, 26.572, 51.9749, -7.9838, 83.8322, -62.3135, 77.4053
2.344, 1, 26.611, 51.958, -8.00817, 83.8892, -62.2659, 77.2736
2.347, 1, 26.6499, 51.941, -8.03253, 83.9462, -62.2184, 77.1419
2.352, 1, 26.6888, 51.9241, -8.05688, 84.0032, -62.1709, 77.0103
2.356, 1, 26.7277, 51.9072, -8.0812, 84.0601, -62.1234, 76.8788
2.36, 1, 26.7666, 51.8903, -8.10551, 84.117, -62.076, 76.7474
2.364, 1, 26.8054, 51.8734, -8.12979, 84.1738, -62.0286, 76.6161
2.367, 1, 26.8442, 51.8565, -8.15407, 84.2306, -61.9813, 76.4849
2.372, 1, 26.883, 51.8396, -8.17832, 84.2874, -61.9339, 76.3538
2.376, 1, 26.9217, 51.8228, -8.20255, 84.3441, -61.8867, 76.2228
2.38, 1, 26.9605, 51.8059, -8.22677, 84.4008, -61.8394, 76.0919
2.383, 1, 26.9991, 51.7891, -8.25097, 84.4574, -61.7922, 75.9611
2.388, 1, 27.0378, 51.7723, -8.27515, 84.514, -61.745, 75.8303
2.392, 1, 27.0764, 51.7555, -8.29932, 84.5705, -61.6979, 75.6997
2.396, 1, 27.115, 51.7387, -8.32346, 84.627, -61.6508, 75.5692
2.4, 1, 27.1536, 51.7219, -8.34759, 84.6835, -61.6037, 75.4388
2.403, 1, 27.1922, 51.7052, -8.37171, 84.7399, -61.5566, 75.3084
2.408, 1, 27.2307, 51.6884, -8.3958, 84.7963, -61.5096, 75.1782
2.412, 1, 27.2692, 51.6717, -8.41988, 84.8526, -61.4627, 75.048
2.416, 1, 27.3076, 51.6549, -8.44394, 84.9089, -61.4157, 74.918
2.42, 1, 27.3461, 51.6382, -8.46798, 84.9652, -61.3688, 74.788
2.423, 1, 27.3845, 51.6215, -8.492, 85.0214, -61.3219, 74.6581
2.428, 1, 27.4229, 51.6048, -8.51601, 85.0776, -61.2751, 74.5283
2.432, 1, 27.4612, 51.5881, -8.54, 85.1337, -61.2283, 74.3987
2.436, 1, 27.4995, 51.5715, -8.56397, 85.1898, -61.1815, 74.2691
2.439, 1, 27.5378, 51.5548, -8.58793, 85.2459, -61.1348, 74.1396
2.444, 1, 27.5761, 51.5382, -8.61187, 85.3019, -61.0881, 74.0102
2.448, 1, 27.6143, 51.5215, -8.63579, 85.3579, -61.0414, 73.8808
2.452, 1, 27.6526, 51.5049, -8.65969, 85.4138, -60.9948, 73.7516
2.456, 1, 27.6907, 51.4883, -8.68358, 85.4697, -60.9482, 73.6225
2.459, 1, 27.7289, 51.4717, -8.70745, 85.5256, -60.9016, 73.4935
2.464, 1, 27.767, 51.4551, -8.73131, 85.5814, -60.855, 73.3645
2.468, 1, 27.8051, 51.4385, -8.75514, 85.6372, -60.8085, 73.2357
2.472, 1, 27.8432, 51.422, -8.77896, 85.6929, -60.7621, 73.1069
2.476, 1, 27.8813, 51.4054, -8.80276, 85.7486, -60.7156, 72.9782
2.479, 1, 27.9193, 51.3889, -8.82655, 85.8043, -60.6692, 72.8496
2.484, 1, 27.9573, 51.3723, -8.85032, 85.8599, -60.6228, 72.7212
2.488, 1, 27.9953, 51.3558, -8.87407, 85.9155, -60.5765, 72.5928
2.492, 1, 28.0332, 51.3393, -8.89781, 85.971, -60.5302, 72.4644
2.495, 1, 28.0711, 51.3228, -8.92153, 86.0266, -60.4839, 72.3362
2.5, 1, 28.109, 51.3064, -8.94523, 86.082, -60.4377, 72.2081
2.504, 1, 28.1469, 51.2899, -8.96892, 86.1374, -60.3915, 72.0801
2.508, 1, 28.1847, 51.2734, -8.99259, 86.1928, -60.3453, 71.9521
2.512, 1, 28.2226, 51.257, -9.01624, 86.2482, -60.2991, 71.8242
2.515, 1, 28.2603, 51.2405, -9.03988, 86.3035, -60.253, 71.6965
2.52, 1, 28.2981, 51.2241, -9.0635, 86.3588, -60.2069, 71.5688
2.524, 1, 28.3358, 51.2077, -9.0871, 86.414, -60.1609, 71.4412
2.528, 1, 28.3736, 51.1913, -9.11069, 86.4692, -60.1149, 71.3137
2.531, 1, 28.4112, 51.1749, -9.13426, 86.5244, -60.0689, 71.1863
2.536, 1, 28.4489, 51.1585, -9.15781, 86.5795, -60.0229, 71.0589
2.54, 1, 28.4865, 51.1422, -9.18135, 86.6346, -59.977, 70.9317
2.544, 1, 28.5241, 51.1258, -9.20488, 86.6896, -59.9311, 70.8045
2.548, 1, 28.5617, 51.1095, -9.22838, 86.7446, -59.8852, 70.6775
2.551, 1, 28.5993, 51.0931, -9.25187, 86.7996, -59.8394, 70.5505
2.556, 1, 28.6368, 51.0768, -9.27535, 86.8545, -59.7936, 70.4236
2.56, 1, 28.6743, 51.0605, -9.29881, 86.9094, -59.7478, 70.2968
2.564, 1, 28.7118, 51.0442, -9.32225, 86.9643, -59.7021, 70.17
2.568, 1, 28.7492, 51.0279, -9.34568, 87.0191, -59.6564, 70.0434
2.571, 1, 28.7867, 51.0116, -9.36909, 87.0739, -59.6107, 69.9168
2.576, 1, 28.8241, 50.9953, -9.39248, 87.1286, -59.5651, 69.7904
2.58, 1, 28.8614, 50.9791, -9.41586, 87.1833, -59.5195, 69.664
2.584, 1, 28.8988, 50.9628, -9.43922, 87.238, -59.4739, 69.5377
2.587, 1, 28.9361, 50.9466, -9.46257, 87.2926, -59.4283, 69.4115
2.592, 1, 28.9734, 50.9304, -9.4859, 87.3473, -59.3828, 69.2854
2.596, 1, 29.0107, 50.9142, -9.50922, 87.4018, -59.3373, 69.1593
2.6, 1, 29.0479, 50.898, -9.53252, 87.4563, -59.2918, 69.0334
2.604, 1, 29.0852, 50.8818, -9.5558, 87.5108, -59.2464, 68.9075
2.607, 1, 29.1224, 50.8656, -9.57907, 87.5653, -59.201, 68.7817
2.612, 1, 29.1595, 50.8494, -9.60233, 87.6197, -59.1556, 68.656
2.616, 1, 29.1967, 50.8333, -9.62556, 87.6741, -59.1103, 68.5304
2.62, 1, 29.2338, 50.8171, -9.64879, 87.7284, -59.065, 68.4049
2.624, 1, 29.2709, 50.801, -9.67199, 87.7827, -59.0197, 68.2794
2.627, 1, 29.308, 50.7849, -9.69519, 87.837, -58.9745, 68.154
2.632, 1, 29.345, 50.7687, -9.71836, 87.8912, -58.9293, 68.0288
2.636, 1, 29.3821, 50.7526, -9.74152, 87.9454, -58.8841, 67.9036
2.64, 1, 29.4191, 50.7365, -9.76467, 87.9996, -58.8389, 67.7784
2.643, 1, 29.456, 50.7205, -9.7878, 88.0537, -58.7938, 67.6534
2.648, 1, 29.493, 50.7044, -9.81091, 88.1078, -58.7487, 67.5285
2.652, 1, 29.5299, 50.6883, -9.83401, 88.1619, -58.7036, 67.4036
2.656, 1, 29.5668, 50.6723, -9.8571, 88.2159, -58.6586, 67.2788
2.66, 1, 29.6037, 50.6562, -9.88017, 88.2699, -58.6136, 67.1541
2.663, 1, 29.6406, 50.6402, -9.90322, 88.3238, -58.5686, 67.0294
2.668, 1, 29.6774, 50.6242, -9.92626, 88.3777, -58.5236, 66.9049
2.672, 1, 29.7142, 50.6082, -9.94929, 88.4316, -58.4787, 66.7804
2.676, 1, 29.751, 50.5922, -9.9723, 88.4855, -58.4338, 66.6561
2.679, 1, 29.7877, 50.5762, -9.99529, 88.5393, -58.389, 66.5318
2.684, 1, 29.8245, 50.5602, -10.0183, 88.593, -58.3441, 66.4075
2.688, 1, 29.8612, 50.5442, -10.0412, 88.6468, -58.2993, 66.2834
2.692, 1, 29.8979, 50.5283, -10.0642, 88.7005, -58.2545, 66.1593
2.696, 1, 29.9346, 50.5123, -10.0871, 88.7542, -58.2098, 66.0354
2.699, 1, 29.9712, 50.4964, -10.11, 88.8078, -58.1651, 65.9115
2.704, 1, 30.0078, 50.4804, -10.1329, 88.8614, -58.1204, 65.7876
2.708, 1, 30.0444, 50.4645, -10.1558, 88.915, -58.0757, 65.6639
2.712, 1, 30.081, 50.4486, -10.1787, 88.9685, -58.0311, 65.5402
2.716, 1, 30.1175, 50.4327, -10.2016, 89.022, -57.9865, 65.4167
2.719, 1, 30.154, 50.4168, -10.2244, 89.0755, -57.9419, 65.2932
2.724, 1, 30.1905, 50.401, -10.2473, 89.1289, -57.8974, 65.1697
2.728, 1, 30.227, 50.3851, -10.2701, 89.1823, -57.8528, 65.0464
2.732, 1, 30.2635, 50.3692, -10.2929, 89.2356, -57.8084, 64.9231
2.735, 1, 30.2999, 50.3534, -10.3157, 89.289, -57.7639, 64.7999
2.74, 1, 30.3363, 50.3376, -10.3384, 89.3423, -57.7195, 64.6768
2.744, 1, 30.3727, 50.3217, -10.3612, 89.3955, -57.6751, 64.5538
2.748, 1, 30.4091, 50.3059, -10.3839, 89.4487, -57.6307, 64.4308
2.752, 1, 30.4454, 50.2901, -10.4067, 89.5019, -57.5863, 64.308
2.755, 1, 30.4817, 50.2743, -10.4294, 89.5551, -57.542, 64.1852
2.76, 1, 30.518, 50.2585, -10.4521, 89.6082, -57.4977, 64.0625
2.764, 1, 30.5543, 50.2427, -10.4748, 89.6613, -57.4535, 63.9398
2.768, 1, 30.5905, 50.227, -10.4974, 89.7144, -57.4092, 63.8172
2.772, 1, 30.6267, 50.2112, -10.5201, 89.7674, -57.365, 63.6948
2.775, 1, 30.6629, 50.1955, -10.5427, 89.8204, -57.3208, 63.5723
2.78, 1, 30.6991, 50.1797, -10.5654, 89.8733, -57.2767, 63.45
2.784, 1, 30.7353, 50.164, -10.588, 89.9263, -57.2326, 63.3278
2.788, 1, 30.7714, 50.1483, -10.6106, 89.9792, -57.1885, 63.2056
2.791, 1, 30.8075, 50.1326, -10.6332, 90.032, -57.1444, 63.0835
2.796, 1, 30.8436, 50.1169, -10.6558, 90.0848, -57.1003, 62.9614
2.8, 1, 30.8797, 50.1012, -10.6783, 90.1376, -57.0563, 62.8395
2.804, 1, 30.9157, 50.0855, -10.7009, 90.1904, -57.0123, 62.7176
2.808, 1, 30.9517, 50.0699, -10.7234, 90.2431, -56.9684, 62.5958
2.811, 1, 30.9877, 50.0542, -10.7459, 90.2958, -56.9244, 62.4741
2.816, 1, 31.0237, 50.0386, -10.7684, 90.3485, -56.8805, 62.3524
2.82, 1, 31.0597, 50.0229, -10.7909, 90.4011, -56.8367, 62.2309
2.824, 1, 31.0956, 50.0073, -10.8134, 90.4537, -56.7928, 62.1094
2.828, 1, 31.1315, 49.9917, -10.8358, 90.5063, -56.749, 61.9879
2.831, 1, 31.1674, 49.9761, -10.8583, 90.5588, -56.7052, 61.8666
2.836, 1, 31.2033, 49.9605, -10.8807, 90.6113, -56.6614, 61.7453
2.84, 1, 31.2391, 49.9449, -10.9032, 90.6638, -56.6177, 61.6241
2.844, 1, 31.2749, 49.9293, -10.9256, 90.7162, -56.574, 61.503
2.847, 1, 31.3107, 49.9137, -10.948, 90.7686, -56.5303, 61.3819
2.852, 1, 31.3465, 49.8982, -10.9703, 90.821, -56.4866, 61.2609
2.856, 1, 31.3823, 49.8826, -10.9927, 90.8733, -56.443, 61.14
2.86, 1, 31.418, 49.8671, -11.0151, 90.9256, -56.3993, 61.0192
2.864, 1, 31.4537, 49.8515, -11.0374, 90.9779, -56.3558, 60.8984
2.867, 1, 31.4894, 49.836, -11.0597, 91.0301, -56.3122, 60.7778
2.872, 1, 31.5251, 49.8205, -11.082, 91.0824, -56.2687, 60.6571
2.876, 1, 31.5607, 49.805, -11.1043, 91.1345, -56.2252, 60.5366
2.88, 1, 31.5964, 49.7895, -11.1266, 91.1867, -56.1817, 60.4161
2.883, 1, 31.632, 49.774, -11.1489, 91.2388, -56.1382, 60.2957
2.888, 1, 31.6675, 49.7585, -11.1711, 91.2909, -56.0948, 60.1754
2.892, 1, 31.7031, 49.743, -11.1934, 91.343, -56.0514, 60.0552
2.896, 1, 31.7386, 49.7276, -11.2156, 91.395, -56.008, 59.935
2.9, 1, 31.7742, 49.7121, -11.2378, 91.447, -55.9647, 59.8149
2.903, 1, 31.8097, 49.6967, -11.26, 91.4989, -55.9214, 59.6948
2.908, 1, 31.8451, 49.6813, -11.2822, 91.5509, -55.8781, 59.5749
2.912, 1, 31.8806, 49.6658, -11.3044, 91.6028, -55.8348, 59.455
2.916, 1, 31.916, 49.6504, -11.3266, 91.6546, -55.7915, 59.3351
2.92, 1, 31.9515, 49.635, -11.3487, 91.7065, -55.7483, 59.2154
2.923, 1, 31.9868, 49.6196, -11.3709, 91.7583, -55.7051, 59.0957
2.928, 1, 32.0222, 49.6042, -11.393, 91.8101, -55.662, 58.9761
2.932, 1, 32.0576, 49.5889, -11.4151, 91.8618, -55.6188, 58.8566
2.936, 1, 32.0929, 49.5735, -11.4372, 91.9135, -55.5757, 58.7371
2.939, 1, 32.1282, 49.5581, -11.4593, 91.9652, -55.5326, 58.6177
2.944, 1, 32.1635, 49.5428, -11.4814, 92.0169, -55.4895, 58.4984
2.948, 1, 32.1988, 49.5274, -11.5034, 92.0685, -55.4465, 58.3791
2.952, 1, 32.234, 49.5121, -11.5255, 92.1201, -55.4035, 58.2599
2.956, 1, 32.2693, 49.4968, -11.5475, 92.1717, -55.3605, 58.1408
2.959, 1, 32.3045, 49.4815, -11.5695, 92.2232, -55.3175, 58.0217
2.964, 1, 32.3396, 49.4662, -11.5916, 92.2747, -55.2746, 57.9028
2.968, 1, 32.3748, 49.4509, -11.6136, 92.3262, -55.2316, 57.7838
2.972, 1, 32.41, 49.4356, -11.6355, 92.3776, -55.1887, 57.665
2.976, 1, 32.4451, 49.4203, -11.6575, 92.4291, -55.1459, 57.5462
2.98, 1, 32.4802, 49.405, -11.6795, 92.4804, -55.103, 57.4275
2.984, 1, 32.5153, 49.3898, -11.7014, 92.5318, -55.0602, 57.3089
2.988, 1, 32.5503, 49.3745, -11.7234, 92.5831, -55.0174, 57.1903
2.992, 1, 32.5854, 49.3593, -11.7453, 92.6344, -54.9746, 57.0718
2.995, 1, 32.6204, 49.344, -11.7672, 92.6857, -54.9319, 56.9534
3, 1, 32.6554, 49.3288, -11.7891, 92.737, -54.8892, 56.835
3.004, 1, 32.6904, 49.3136, -11.811, 92.7882, -54.8465, 56.7167
3.008, 1, 32.7254, 49.2984, -11.8328, 92.8393, -54.8038, 56.5984
3.012, 1, 32.7603, 49.2832, -11.8547, 92.8905, -54.7612, 56.4803
3.015, 1, 32.7952, 49.268, -11.8765, 92.9416, -54.7185, 56.3622
3.02, 1, 32.8302, 49.2528, -11.8984, 92.9927, -54.6759, 56.2442
3.024, 1, 32.865, 49.2376, -11.9202, 93.0438, -54.6334, 56.1262
3.028, 1, 32.8999, 49.2225, -11.942, 93.0948, -54.5908, 56.0083
3.031, 1, 32.9348, 49.2073, -11.9638, 93.1458, -54.5483, 55.8904
3.036, 1, 32.9696, 49.1922, -11.9856, 93.1968, -54.5058, 55.7727
3.04, 1, 33.0044, 49.177, -12.0074, 93.2478, -54.4633, 55.655
3.044, 1, 33.0392, 49.1619, -12.0291, 93.2987, -54.4208, 55.5373
3.048, 1, 33.0739, 49.1468, -12.0509, 93.3496, -54.3784, 55.4198
3.051, 1, 33.1087, 49.1316, -12.0726, 93.4005, -54.336, 55.3023
3.056, 1, 33.1434, 49.1165, -12.0943, 93.4513, -54.2936, 55.1848
3.06, 1, 33.1781, 49.1014, -12.1161, 93.5021, -54.2512, 55.0675
3.064, 1, 33.2128, 49.0863, -12.1378, 93.5529, -54.2089, 54.9502
3.068, 1, 33.2475, 49.0713, -12.1594, 93.6036, -54.1666, 54.8329
3.071, 1, 33.2822, 49.0562, -12.1811, 93.6544, -54.1243, 54.7157
3.076, 1, 33.3168, 49.0411, -12.2028, 93.705, -54.082, 54.5986
3.08, 1, 33.3514, 49.0261, -12.2244, 93.7557, -54.0398, 54.4816
3.084, 1, 33.386, 49.011, -12.2461, 93.8064, -53.9976, 54.3646
3.087, 1, 33.4206, 48.996, -12.2677, 93.857, -53.9554, 54.2477
3.092, 1, 33.4551, 48.981, -12.2893, 93.9076, -53.9132, 54.1308
3.096, 1, 33.4897, 48.9659, -12.3109, 93.9581, -53.871, 54.0141
3.1, 1, 33.5242, 48.9509, -12.3325, 94.0086, -53.8289, 53.8973
3.104, 1, 33.5587, 48.9359, -12.3541, 94.0591, -53.7868, 53.7807
3.107, 1, 33.5932, 48.9209, -12.3757, 94.1096, -53.7447, 53.6641
3.112, 1, 33.6276, 48.9059, -12.3972, 94.1601, -53.7027, 53.5475
3.116, 1, 33.6621, 48.8909, -12.4188, 94.2105, -53.6606, 53.4311
3.12, 1, 33.6965, 48.876, -12.4403, 94.2609, -53.6186, 53.3147
3.124, 1, 33.7309, 48.861, -12.4618, 94.3112, -53.5766, 53.1983
3.128, 1, 33.7653, 48.846, -12.4833, 94.3616, -53.5347, 53.082
3.132, 1, 33.7997, 48.8311, -12.5048, 94.4119, -53.4927, 52.9658
3.136, 1, 33.834, 48.8162, -12.5263, 94.4622, -53.4508, 52.8497
3.14, 1, 33.8683, 48.8012, -12.5478, 94.5124, -53.4089, 52.7336
3.143, 1, 33.9027, 48.7863, -12.5693, 94.5626, -53.367, 52.6176
3.148, 1, 33.937, 48.7714, -12.5907, 94.6128, -53.3252, 52.5016
3.152, 1, 33.9712, 48.7565, -12.6122, 94.663, -53.2833, 52.3857
3.156, 1, 34.0055, 48.7416, -12.6336, 94.7132, -53.2415, 52.2698
3.16, 1, 34.0397, 48.7267, -12.655, 94.7633, -53.1997, 52.1541
3.163, 1, 34.0739, 48.7118, -12.6764, 94.8134, -53.158, 52.0383
3.168, 1, 34.1082, 48.6969, -12.6978, 94.8635, -53.1162, 51.9227
3.172, 1, 34.1423, 48.682, -12.7192, 94.9135, -53.0745, 51.8071
3.176, 1, 34.1765, 48.6672, -12.7406, 94.9635, -53.0328, 51.6916
3.179, 1, 34.2107, 48.6523, -12.7619, 95.0135, -52.9911, 51.5761
3.184, 1, 34.2448, 48.6375, -12.7833, 95.0634, -52.9495, 51.4607
3.188, 1, 34.2789, 48.6226, -12.8046, 95.1134, -52.9078, 51.3453
3.192, 1, 34.313, 48.6078, -12.8259, 95.1633, -52.8662, 51.23
3.196, 1, 34.3471, 48.593, -12.8473, 95.2132, -52.8246, 51.1148
3.199, 1, 34.3811, 48.5782, -12.8686, 95.263, -52.7831, 50.9997
3.204, 1, 34.4152, 48.5634, -12.8898, 95.3129, -52.7415, 50.8845
3.208, 1, 34.4492, 48.5486, -12.9111, 95.3627, -52.7, 50.7695
3.212, 1, 34.4832, 48.5338, -12.9324, 95.4124, -52.6585, 50.6545
3.216, 1, 34.5172, 48.519, -12.9537, 95.4622, -52.617, 50.5396
3.22, 1, 34.5511, 48.5042, -12.9749, 95.5119, -52.5756, 50.4247
3.224, 1, 34.5851, 48.4894, -12.9961, 95.5616, -52.5341, 50.3099
3.228, 1, 34.619, 48.4747, -13.0174, 95.6113, -52.4927, 50.1952
3.232, 1, 34.6529, 48.4599, -13.0386, 95.6609, -52.4513, 50.0805
3.235, 1, 34.6868, 48.4452, -13.0598, 95.7105, -52.41, 49.9659
3.24, 1, 34.7207, 48.4305, -13.081, 95.7601, -52.3686, 49.8513
3.244, 1, 34.7546, 48.4157, -13.1022, 95.8097, -52.3273, 49.7368
3.248, 1, 34.7884, 48.401, -13.1233, 95.8593, -52.286, 49.6224
3.252, 1, 34.8223, 48.3863, -13.1445, 95.9088, -52.2447, 49.508
3.255, 1, 34.8561, 48.3716, -13.1657, 95.9583, -52.2034, 49.3936
3.26, 1, 34.8899, 48.3569, -13.1868, 96.0077, -52.1622, 49.2794
3.264, 1, 34.9236, 48.3422, -13.2079, 96.0572, -52.121, 49.1652
3.268, 1, 34.9574, 48.3275, -13.229, 96.1066, -52.0798, 49.051
3.272, 1, 34.9911, 48.3128, -13.2501, 96.156, -52.0386, 48.9369
3.276, 1, 35.0249, 48.2982, -13.2712, 96.2053, -51.9974, 48.8229
3.28, 1, 35.0586, 48.2835, -13.2923, 96.2547, -51.9563, 48.7089
3.284, 1, 35.0923, 48.2688, -13.3134, 96.304, -51.9152, 48.595
3.288, 1, 35.1259, 48.2542, -13.3345, 96.3533, -51.8741, 48.4811
3.291, 1, 35.1596, 48.2396, -13.3555, 96.4026, -51.833, 48.3673
3.296, 1, 35.1932, 48.2249, -13.3766, 96.4518, -51.7919, 48.2535
3.3, 1, 35.2266, 48.2104, -13.3976, 96.501, -51.7509, 48.1399
3.304, 1, 35.2597, 48.1959, -13.4187, 96.5502, -51.7099, 48.0263
3.308, 1, 35.2924, 48.1817, -13.4397, 96.5993, -51.669, 47.9128
3.312, 1, 35.3246, 48.1677, -13.4608, 96.6484, -51.6281, 47.7995
3.316, 1, 35.3561, 48.1539, -13.4819, 96.6973, -51.5873, 47.6864
3.32, 1, 35.3868, 48.1407, -13.503, 96.746, -51.5468, 47.5739
3.324, 1, 35.4166, 48.1279, -13.5241, 96.7943, -51.5065, 47.462
3.328, 1, 35.4453, 48.1157, -13.5451, 96.8423, -51.4666, 47.3512
3.332, 1, 35.4731, 48.104, -13.566, 96.8896, -51.4273, 47.2419
3.336, 1, 35.4998, 48.093, -13.5865, 96.936, -51.3887, 47.1346
3.34, 1, 35.5254, 48.0824, -13.6067, 96.9812, -51.351, 47.0299
3.344, 1, 35.5501, 48.0724, -13.6262, 97.0251, -51.3146, 46.9284
3.347, 1, 35.5738, 48.0627, -13.6451, 97.0672, -51.2795, 46.8309
3.352, 1, 35.5966, 48.0535, -13.663, 97.1074, -51.2461, 46.7379
3.356, 1, 35.6183, 48.0446, -13.6799, 97.1454, -51.2145, 46.6502
3.36, 1, 35.6388, 48.0362, -13.6957, 97.1808, -51.185, 46.5681
3.364, 1, 35.6583, 48.0281, -13.7101, 97.2136, -51.1578, 46.4923
3.368, 1, 35.6768, 48.0204, -13.7233, 97.2435, -51.1328, 46.4231
3.372, 1, 35.6944, 48.0128, -13.7349, 97.2705, -51.1104, 46.3608
3.376, 1, 35.7112, 48.0055, -13.7451, 97.2945, -51.0904, 46.3054
3.38, 1, 35.7272, 47.9983, -13.7538, 97.3155, -51.0728, 46.2569
3.383, 1, 35.7424, 47.9913, -13.7611, 97.3336, -51.0576, 46.2151
3.388, 1, 35.7565, 47.9846, -13.7671, 97.349, -51.0447, 46.1797
3.392, 1, 35.7696, 47.9784, -13.7719, 97.3619, -51.0339, 46.15
3.396, 2, 35.7813, 47.9727, -13.7757, 97.3725, -51.025, 46.1256
3.4, 2, 35.7917, 47.9676, -13.7787, 97.3811, -51.0177, 46.1059
3.403, 2, 35.801, 47.963, -13.7809, 97.3879, -51.0119, 46.0903
3.408, 2, 35.8092, 47.9589, -13.7825, 97.3932, -51.0074, 46.0781
3.412, 2, 35.8166, 47.9552, -13.7835, 97.3973, -51.004, 46.0689
3.416, 2, 35.8232, 47.9521, -13.7842, 97.4003, -51.0014, 46.0621
3.42, 2, 35.8288, 47.9494, -13.7846, 97.4025, -50.9995, 46.0571
3.424, 2, 35.8336, 47.9471, -13.7848, 97.4041, -50.9981, 46.0536
3.428, 2, 35.8375, 47.9453, -13.7849, 97.4051, -50.9972, 46.0511
3.432, 2, 35.8405, 47.944, -13.785, 97.4059, -50.9965, 46.0495
3.436, 2, 35.8427, 47.9431, -13.785, 97.4064, -50.9961, 46.0483
3.439, 2, 35.8442, 47.9424, -13.785, 97.4067, -50.9958, 46.0475
3.444, 2, 35.8452, 47.9419, -13.785, 97.407, -50.9956, 46.047
3.448, 2, 35.8459, 47.9416, -13.785, 97.4071, -50.9954, 46.0467
3.452, 2, 35.8464, 47.9414, -13.785, 97.4072, -50.9953, 46.0464
3.456, 2, 35.8467, 47.9413, -13.785, 97.4073, -50.9953, 46.0463
3.46, 2, 35.8469, 47.9412, -13.785, 97.4074, -50.9952, 46.0462
3.464, 2, 35.8471, 47.9411, -13.785, 97.4074, -50.9952, 46.0461
3.468, 2, 35.8472, 47.9411, -13.785, 97.4074, -50.9952, 46.046
3.472, 2, 35.8472, 47.9411, -13.785, 97.4074, -50.9952, 46.046
3.476, 2, 35.8473, 47.941, -13.785, 97.4075, -50.9951, 46.046
3.48, 2, 35.8473, 47.941, -13.785, 97.4075, -50.9951, 46.046
3.484, 2, 35.8473, 47.941, -13.785, 97.4075, -50.9951, 46.0459
3.488, 2, 35.8473, 47.941, -13.785, 97.4075, -50.9951, 46.0459
3.492, 2, 35.8474, 47.941, -13.785, 97.4075, -50.9951, 46.0459
3.495, 2, 35.8474, 47.941, -13.785, 97.4075, -50.9951, 46.0459
3.5, 2, 35.8474, 47.941, -13.785, 97.4075, -50.9951, 46.0459
3.504, 2, 35.8474, 47.941, -13.785, 97.4075, -50.9951, 46.0459
3.508, 2, 35.8474, 47.941, -13.785, 97.4075, -50.9951, 46.0459
3.512, 2, 35.8474, 47.941, -13.785, 97.4075, -50.9951, 46.0459
3.516, 2, 35.8474, 47.941, -13.785, 97.4075, -50.9951, 46.0459
3.52, 2, 35.8474, 47.941, -13.785, 97.4075, -50.9951, 46.0459
3.524, 2, 35.8474, 47.941, -13.785, 97.4075, -50.9951, 46.0459
3.528, 2, 35.8474, 47.941, -13.785, 97.4075, -50.9951, 46.0459
3.531, 2, 35.8474, 47.941, -13.785, 97.4075, -50.9951, 46.0459
3.536, 2, 35.8474, 47.941, -13.785, 97.4075, -50.9951, 46.0459
3.54, 2, 35.8474, 47.941, -13.785, 97.4075, -50.9951, 46.0459
3.544, 2, 35.8474, 47.941, -13.785, 97.4075, -50.9951, 46.0459
3.548, 2, 35.8474, 47.941, -13.785, 97.4075, -50.9951, 46.0459
3.552, 2, 35.8474, 47.941, -13.785, 97.4075, -50.9951, 46.0459
3.556, 2, 35.8474, 47.941, -13.785, 97.4075, -50.9951, 46.0459
3.56, 2, 35.8474, 47.941, -13.785, 97.4075, -50.9951, 46.0459
3.564, 2, 35.8474, 47.941, -13.785, 97.4075, -50.9951, 46.0459
3.568, 2, 35.8474, 47.941, -13.785, 97.4075, -50.9951, 46.0459
3.572, 2, 35.8474, 47.941, -13.785, 97.4075, -50.9951, 46.0459
3.576, 2, 35.8474, 47.941, -13.785, 97.4075, -50.9951, 46.0459
3.58, 2, 35.8474, 47.941, -13.785, 97.4075, -50.9951, 46.0459
3.584, 2, 35.8474, 47.941, -13.785, 97.4075, -50.9951, 46.0459
3.587, 2, 35.8474, 47.941, -13.785, 97.4075, -50.9951, 46.0459
3.592, 2, 35.8474, 47.941, -13.785, 97.4075, -50.9951, 46.0459
3.596, 2, 35.8474, 47.941, -13.785, 97.4075, -50.9951, 46.0459
3.6, 2, 35.8474, 47.941, -13.785, 97.4075, -50.9951, 46.0459
3.604, 2, 35.8474, 47.941, -13.785, 97.4075, -50.9951, 46.0459
3.608, 2, 35.8474, 47.941, -13.785, 97.4075, -50.9951, 46.0459
3.612, 2, 35.8474, 47.941, -13.785, 97.4075, -50.9951, 46.0459
3.616, 2, 35.8474, 47.941, -13.785, 97.4075, -50.9951, 46.0459
3.62, 2, 35.8474, 47.941, -13.785, 97.4075, -50.9951, 46.0459
3.624, 2, 35.8474, 47.941, -13.785, 97.4075, -50.9951, 46.0459
3.628, 2, 35.8474, 47.941, -13.785, 97.4075, -50.9951, 46.0459
3.632, 2, 35.8474, 47.941, -13.785, 97.4075, -50.9951, 46.0459
3.636, 2, 35.8474, 47.941, -13.785, 97.4075, -50.9951, 46.0459
3.64, 2, 35.8474, 47.941, -13.785, 97.4075, -50.9951, 46.0459
3.644, 2, 35.8474, 47.941, -13.785, 97.4075, -50.9951, 46.0459
3.648, 2, 35.8474, 47.941, -13.785, 97.4075, -50.9951, 46.0459
3.652, 2, 35.8474, 47.941, -13.785, 97.4075, -50.9951, 46.0459
3.656, 2, 35.8474, 47.941, -13.785, 97.4075, -50.9951, 46.0459
3.66, 2, 35.8474, 47.941, -13.785, 97.4075, -50.9951, 46.0459
3.664, 2, 35.8474, 47.941, -13.785, 97.4075, -50.9951, 46.0459
3.668, 2, 35.8474, 47.941, -13.785, 97.4075, -50.9951, 46.0459
3.672, 2, 35.8474, 47.941, -13.785, 97.4075, -50.9951, 46.0459
3.676, 2, 35.8474, 47.941, -13.785, 97.4075, -50.9951, 46.0459
3.679, 2, 35.8474, 47.941, -13.785, 97.4075, -50.9951, 46.0459
3.684, 2, 35.8474, 47.941, -13.785, 97.4075, -50.9951, 46.0459
3.688, 2, 35.8474, 47.941, -13.785, 97.4075, -50.9951, 46.0459
3.692, 2, 35.8474, 47.941, -13.785, 97.4075, -50.9951, 46.0459
3.696, 2, 35.8474, 47.941, -13.785, 97.4075, -50.9951, 46.0459
3.7, 2, 35.8474, 47.941, -13.785, 97.4075, -50.9951, 46.0459
3.704, 2, 35.8474, 47.941, -13.785, 97.4075, -50.9951, 46.0459
3.708, 2, 35.8474, 47.941, -13.785, 97.4075, -50.9951, 46.0459
3.712, 2, 35.8474, 47.941, -13.785, 97.4075, -50.9951, 46.0459
3.716, 2, 35.8474, 47.941, -13.785, 97.4075, -50.9951, 46.0459
3.72, 2, 35.8474, 47.941, -13.785, 97.4075, -50.9951, 46.0459
3.724, 2, 35.8474, 47.941, -13.785, 97.4075, -50.9951, 46.0459
3.728, 2, 35.8474, 47.941, -13.785, 97.4075, -50.9951, 46.0459
3.732, 2, 35.8474, 47.941, -13.785, 97.4075, -50.9951, 46.0459
3.735, 2, 35.8474, 47.941, -13.785, 97.4075, -50.9951, 46.0459
3.74, 2, 35.8474, 47.941, -13.785, 97.4075, -50.9951, 46.0459
3.744, 2, 35.8474, 47.941, -13.785, 97.4075, -50.9951, 46.0459
3.748, 2, 35.8474, 47.941, -13.785, 97.4075, -50.9951, 46.0459
3.752, 2, 35.8474, 47.941, -13.785, 97.4075, -50.9951, 46.0459
3.756, 2, 35.8474, 47.941, -13.785, 97.4075, -50.9951, 46.0459
3.76, 2, 35.8474, 47.941, -13.785, 97.4075, -50.9951, 46.0459
3.764, 2, 35.8474, 47.941, -13.785, 97.4075, -50.9951, 46.0459
3.768, 2, 35.8474, 47.941, -13.785, 97.4075, -50.9951, 46.0459
3.772, 2, 35.8474, 47.941, -13.785, 97.4075, -50.9951, 46.0459
3.776, 2, 35.8474, 47.941, -13.785, 97.4075, -50.9951, 46.0459
3.78, 2, 35.8474, 47.941, -13.785, 97.4075, -50.9951, 46.0459
3.784, 2, 35.8474, 47.941, -13.785, 97.4075, -50.9951, 46.0459
3.788, 2, 35.8474, 47.941, -13.785, 97.4075, -50.9951, 46.0459
3.792, 2, 35.8474, 47.941, -13.785, 97.4075, -50.9951, 46.0459
3.796, 2, 35.8474, 47.941, -13.785, 97.4075, -50.9951, 46.0459
3.8, 2, 35.8474, 47.941, -13.785, 97.4075, -50.9951, 46.0459
3.804, 2, 35.8474, 47.941, -13.785, 97.4075, -50.9951, 46.0459
3.808, 2, 35.8474, 47.941, -13.785, 97.4075, -50.9951, 46.0459
3.812, 2, 35.8474, 47.941, -13.785, 97.4075, -50.9951, 46.0459
3.816, 2, 35.8474, 47.941, -13.785, 97.4075, -50.9951, 46.0459
3.82, 2, 35.8474, 47.941, -13.785, 97.4075, -50.9951, 46.0459
3.824, 2, 35.8474, 47.941, -13.785, 97.4075, -50.9951, 46.0459
3.828, 2, 35.8474, 47.941, -13.785, 97.4075, -50.9951, 46.0459
3.832, 2, 35.8474, 47.941, -13.785, 97.4075, -50.9951, 46.0459
3.836, 2, 35.8474, 47.941, -13.785, 97.4075, -50.9951, 46.0459
3.84, 2, 35.8474, 47.941, -13.785, 97.4075, -50.9951, 46.0459
3.844, 2, 35.8474, 47.941, -13.785, 97.4075, -50.9951, 46.0459
3.848, 2, 35.8474, 47.941, -13.785, 97.4075, -50.9951, 46.0459
3.852, 2, 35.8474, 47.941, -13.785, 97.4075, -50.9951, 46.0459
3.856, 2, 35.8474, 47.941, -13.785, 97.4075, -50.9951, 46.0459
3.86, 2, 35.8474, 47.941, -13.785, 97.4075, -50.9951, 46.0459
3.864, 2, 35.8474, 47.941, -13.785, 97.4075, -50.9951, 46.0459
3.868, 2, 35.8474, 47.941, -13.785, 97.4075, -50.9951, 46.0459
3.872, 2, 35.8474, 47.941, -13.785, 97.4075, -50.9951, 46.0459
3.876, 2, 35.8474, 47.941, -13.785, 97.4075, -50.9951, 46.0459
3.88, 2, 35.8474, 47.941, -13.785, 97.4075, -50.9951, 46.0459
3.884, 2, 35.8474, 47.941, -13.785, 97.4075, -50.9951, 46.0459
3.888, 2, 35.8474, 47.941, -13.785, 97.4075, -50.9951, 46.0459
3.892, 2, 35.8474, 47.941, -13.785, 97.4075, -50.9951, 46.0459
3.896, 2, 35.8474, 47.941, -13.785, 97.4075, -50.9951, 46.0459
3.9, 2, 35.8474, 47.941, -13.785, 97.4075, -50.9951, 46.0459
3.904, 2, 35.8474, 47.941, -13.785, 97.4075, -50.9951, 46.0459
3.908, 2, 35.8474, 47.941, -13.785, 97.4075, -50.9951, 46.0459
3.912, 2, 35.8474, 47.941, -13.785, 97.4075, -50.9951, 46.0459
3.916, 2, 35.8474, 47.941, -13.785, 97.4075, -50.9951, 46.0459
3.92, 2, 35.8474, 47.941, -13.785, 97.4075, -50.9951, 46.0459
3.924, 2, 35.8474, 47.941, -13.785, 97.4075, -50.9951, 46.0459
3.928, 2, 35.8474, 47.941, -13.785, 97.4075, -50.9951, 46.0459
3.932, 2, 35.8474, 47.941, -13.785, 97.4075, -50.9951, 46.0459
3.936, 2, 35.8474, 47.941, -13.785, 97.4075, -50.9951, 46.0459
3.94, 2, 35.8474, 47.941, -13.785, 97.4075, -50.9951, 46.0459
3.944, 2, 35.8474, 47.941, -13.785, 97.4075, -50.9951, 46.0459
3.948, 2, 35.8474, 47.941, -13.785, 97.4075, -50.9951, 46.0459
3.952, 2, 35.8474, 47.941, -13.785, 97.4075, -50.9951, 46.0459
3.956, 2, 35.8474, 47.941, -13.785, 97.4075, -50.9951, 46.0459
3.96, 2, 35.8474, 47.941, -13.785, 97.4075, -50.9951, 46.0459
3.964, 2, 35.8474, 47.941, -13.785, 97.4075, -50.9951, 46.0459
3.968, 2, 35.8474, 47.941, -13.785, 97.4075, -50.9951, 46.0459
3.972, 2, 35.8474, 47.941, -13.785, 97.4075, -50.9951, 46.0459
3.976, 2, 35.8474, 47.941, -13.785, 97.4075, -50.9951, 46.0459
3.98, 2, 35.8474, 47.941, -13.785, 97.4075, -50.9951, 46.0459
3.984, 2, 35.8474, 47.941, -13.785, 97.4075, -50.9951, 46.0459
3.988, 2, 35.8474, 47.941, -13.785, 97.4075, -50.9951, 46.0459
3.992, 2, 35.8474, 47.941, -13.785, 97.4075, -50.9951, 46.0459
3.996, 2, 35.8474, 47.941, -13.785, 97.4075, -50.9951, 46.0459
3.999, 2, 35.8474, 47.941, -13.785, 97.4075, -50.9951, 46.0459
4.004, 2, 35.8474, 47.941, -13.785, 97.4075, -50.9951, 46.0459
4.008, 2, 35.8474, 47.941, -13.785, 97.4075, -50.9951, 46.0459
4.012, 2, 35.8474, 47.941, -13.785, 97.4075, -50.9951, 46.0459
4.016, 2, 35.8474, 47.941, -13.785, 97.4075, -50.9951, 46.0459
4.02, 2, 35.8474, 47.941, -13.785, 97.4075, -50.9951, 46.0459
4.024, 2, 35.8474, 47.941, -13.785, 97.4075, -50.9951, 46.0459
4.028, 2, 35.8474, 47.941, -13.785, 97.4075, -50.9951, 46.0459
4.032, 2, 35.8474, 47.941, -13.785, 97.4075, -50.9951, 46.0459
4.036, 2, 35.8474, 47.941, -13.785, 97.4075, -50.9951, 46.0459
4.04, 2, 35.8474, 47.941, -13.785, 97.4075, -50.9951, 46.0459
4.044, 2, 35.8474, 47.941, -13.785, 97.4075, -50.9951, 46.0459
4.048, 2, 35.8474, 47.941, -13.785, 97.4075, -50.9951, 46.0459
4.052, 2, 35.8474, 47.941, -13.785, 97.4075, -50.9951, 46.0459
4.056, 2, 35.8474, 47.941, -13.785, 97.4075, -50.9951, 46.0459
4.06, 2, 35.8474, 47.941, -13.785, 97.4075, -50.9951, 46.0459
4.064, 2, 35.8474, 47.941, -13.785, 97.4075, -50.9951, 46.0459
4.068, 2, 35.8474, 47.941, -13.785, 97.4075, -50.9951, 46.0459
4.072, 2, 35.8474, 47.941, -13.785, 97.4075, -50.9951, 46.0459
4.076, 2, 35.8474, 47.941, -13.785, 97.4075, -50.9951, 46.0459
4.08, 2, 35.8474, 47.941, -13.785, 97.4075, -50.9951, 46.0459
4.084, 2, 35.8474, 47.941, -13.785, 97.4075, -50.9951, 46.0459
4.088, 2, 35.8474, 47.941, -13.785, 97.4075, -50.9951, 46.0459
4.092, 2, 35.8474, 47.941, -13.785, 97.4075, -50.9951, 46.0459
4.096, 2, 35.8474, 47.941, -13.785, 97.4075, -50.9951, 46.0459
4.1, 2, 35.8474, 47.941, -13.785, 97.4075, -50.9951, 46.0459
4.104, 2, 35.8474, 47.941, -13.785, 97.4075, -50.9951, 46.0459
4.108, 2, 35.8474, 47.941, -13.785, 97.4075, -50.9951, 46.0459
4.112, 2, 35.8474, 47.941, -13.785, 97.4075, -50.9951, 46.0459
4.116, 2, 35.8474, 47.941, -13.785, 97.4075, -50.9951, 46.0459
4.12, 2, 35.8474, 47.941, -13.785, 97.4075, -50.9951, 46.0459
4.124, 2, 35.8474, 47.941, -13.785, 97.4075, -50.9951, 46.0459
4.128, 2, 35.8474, 47.941, -13.785, 97.4075, -50.9951, 46.0459
4.132, 2, 35.8474, 47.941, -13.785, 97.4075, -50.9951, 46.0459
4.136, 2, 35.8474, 47.941, -13.785, 97.4075, -50.9951, 46.0459
4.14, 2, 35.8474, 47.941, -13.785, 97.4075, -50.9951, 46.0459
4.144, 2, 35.8474, 47.941, -13.785, 97.4075, -50.9951, 46.0459
4.148, 2, 35.8474, 47.941, -13.785, 97.4075, -50.9951, 46.0459
4.152, 2, 35.8474, 47.941, -13.785, 97.4075, -50.9951, 46.0459
4.156, 2, 35.8474, 47.941, -13.785, 97.4075, -50.9951, 46.0459
4.16, 2, 35.8474, 47.941, -13.785, 97.4075, -50.9951, 46.0459
4.164, 2, 35.8474, 47.941, -13.785, 97.4075, -50.9951, 46.0459
4.168, 2, 35.8474, 47.941, -13.785, 97.4075, -50.9951, 46.0459
4.172, 2, 35.8474, 47.941, -13.785, 97.4075, -50.9951, 46.0459
4.176, 2, 35.8474, 47.941, -13.785, 97.4075, -50.9951, 46.0459
4.18, 2, 35.8474, 47.941, -13.785, 97.4075, -50.9951, 46.0459
4.184, 2, 35.8474, 47.941, -13.785, 97.4075, -50.9951, 46.0459
4.188, 2, 35.8474, 47.941, -13.785, 97.4075, -50.9951, 46.0459
4.192, 2, 35.8474, 47.941, -13.785, 97.4075, -50.9951, 46.0459
4.196, 2, 35.8474, 47.941, -13.785, 97.4075, -50.9951, 46.0459
4.2, 2, 35.8474, 47.941, -13.785, 97.4075, -50.9951, 46.0459
4.204, 2, 35.8474, 47.941, -13.785, 97.4075, -50.9951, 46.0459
4.208, 2, 35.8474, 47.941, -13.785, 97.4075, -50.9951, 46.0459
4.212, 2, 35.8474, 47.941, -13.785, 97.4075, -50.9951, 46.0459
4.216, 2, 35.8474, 47.941, -13.785, 97.4075, -50.9951, 46.0459
4.22, 2, 35.8474, 47.941, -13.785, 97.4075, -50.9951, 46.0459
4.224, 2, 35.8474, 47.941, -13.785, 97.4075, -50.9951, 46.0459
4.228, 2, 35.8474, 47.941, -13.785, 97.4075, -50.9951, 46.0459
4.232, 2, 35.8474, 47.941, -13.785, 97.4075, -50.9951, 46.0459
4.236, 2, 35.8474, 47.941, -13.785, 97.4075, -50.9951, 46.0459
4.24, 2, 35.8474, 47.941, -13.785, 97.4075, -50.9951, 46.0459
4.244, 2, 35.8474, 47.941, -13.785, 97.4075, -50.9951, 46.0459
4.248, 2, 35.8474, 47.941, -13.785, 97.4075, -50.9951, 46.0459
4.252, 2, 35.8474, 47.941, -13.785, 97.4075, -50.9951, 46.0459
4.256, 2, 35.8474, 47.941, -13.785, 97.4075, -50.9951, 46.0459
4.26, 2, 35.8474, 47.941, -13.785, 97.4075, -50.9951, 46.0459
4.264, 2, 35.8474, 47.941, -13.785, 97.4075, -50.9951, 46.0459
4.268, 2, 35.8474, 47.941, -13.785, 97.4075, -50.9951, 46.0459
4.272, 2, 35.8474, 47.941, -13.785, 97.4075, -50.9951, 46.0459
4.276, 2, 35.8474, 47.941, -13.785, 97.4075, -50.9951, 46.0459
4.28, 2, 35.8474, 47.941, -13.785, 97.4075, -50.9951, 46.0459
4.284, 2, 35.8474, 47.941, -13.785, 97.4075, -50.9951, 46.0459
4.288, 2, 35.8474, 47.941, -13.785, 97.4075, -50.9951, 46.0459
4.292, 2, 35.8474, 47.941, -13.785, 97.4075, -50.9951, 46.0459
4.296, 2, 35.8474, 47.941, -13.785, 97.4075, -50.9951, 46.0459
4.3, 2, 35.8474, 47.941, -13.785, 97.4075, -50.9951, 46.0459
4.304, 2, 35.8474, 47.941, -13.785, 97.4075, -50.9951, 46.0459
4.308, 2, 35.8474, 47.941, -13.785, 97.4075, -50.9951, 46.0459
4.312, 2, 35.8474, 47.941, -13.785, 97.4075, -50.9951, 46.0459
4.316, 2, 35.8474, 47.941, -13.785, 97.4075, -50.9951, 46.0459
4.32, 2, 35.8474, 47.941, -13.785, 97.4075, -50.9951, 46.0459
4.324, 2, 35.8474, 47.941, -13.785, 97.4075, -50.9951, 46.0459
4.328, 2, 35.8474, 47.941, -13.785, 97.4075, -50.9951, 46.0459
4.332, 2, 35.8474, 47.941, -13.785, 97.4075, -50.9951, 46.0459
4.336, 2, 35.8474, 47.941, -13.785, 97.4075, -50.9951, 46.0459
4.34, 2, 35.8474, 47.941, -13.785, 97.4075, -50.9951, 46.0459
4.344, 2, 35.8474, 47.941, -13.785, 97.4075, -50.9951, 46.0459
4.348, 2, 35.8474, 47.941, -13.785, 97.4075, -50.9951, 46.0459
4.352, 2, 35.8474, 47.941, -13.785, 97.4075, -50.9951, 46.0459
4.356, 2, 35.8474, 47.941, -13.785, 97.4075, -50.9951, 46.0459
4.36, 2, 35.8474, 47.941, -13.785, 97.4075, -50.9951, 46.0459
4.364, 2, 35.8474, 47.941, -13.785, 97.4075, -50.9951, 46.0459
4.368, 2, 35.8474, 47.941, -13.785, 97.4075, -50.9951, 46.0459
4.372, 2, 35.8474, 47.941, -13.785, 97.4075, -50.9951, 46.0459
4.376, 2, 35.8474, 47.941, -13.785, 97.4075, -50.9951, 46.0459
4.38, 2, 35.8474, 47.941, -13.785, 97.4075, -50.9951, 46.0459
4.384, 2, 35.8474, 47.941, -13.785, 97.4075, -50.9951, 46.0459
4.388, 2, 35.8474, 47.941, -13.785, 97.4075, -50.9951, 46.0459
4.392, 2, 35.8474, 47.941, -13.785, 97.4075, -50.9951, 46.0459
4.396, 3, 35.8474, 47.941, -13.785, 97.4075, -50.9951, 46.0459
4.4, 3, 35.8474, 47.941, -13.785, 97.4075, -50.9951, 46.0459
4.404, 3, 35.8474, 47.941, -13.785, 97.4075, -50.9951, 46.0459
4.408, 3, 35.8474, 47.941, -13.785, 97.4075, -50.9951, 46.0459
4.412, 3, 35.8474, 47.941, -13.785, 97.4075, -50.9951, 46.0459
4.416, 3, 35.8474, 47.941, -13.785, 97.4075, -50.9951, 46.0459
4.42, 3, 35.8474, 47.941, -13.785, 97.4075, -50.9951, 46.0459
4.424, 3, 35.8474, 47.941, -13.785, 97.4075, -50.9951, 46.0459
4.428, 3, 35.8474, 47.941, -13.785, 97.4075, -50.9951, 46.0459
4.432, 3, 35.8474, 47.941, -13.785, 97.4075, -50.9951, 46.0459
4.436, 4, 35.8474, 47.941, -13.785, 97.4075, -50.9951, 46.0459
4.44, 4, 35.8474, 47.941, -13.785, 97.4075, -50.9951, 46.0459
4.444, 4, 35.8474, 47.941, -13.785, 97.4075, -50.9951, 46.0459
4.448, 4, 35.8474, 47.941, -13.785, 97.4075, -50.9951, 46.0459
4.452, 4, 35.8474, 47.941, -13.785, 97.4075, -50.9951, 46.0459
4.456, 4, 35.8474, 47.941, -13.785, 97.4075, -50.9951, 46.0459
4.46, 4, 35.8474, 47.941, -13.785, 97.4075, -50.9951, 46.0459
4.464, 4, 35.8474, 47.941, -13.785, 97.4075, -50.9951, 46.0459
4.468, 4, 35.8474, 47.941, -13.785, 97.4075, -50.9951, 46.0459
4.472, 4, 35.8474, 47.941, -13.785, 97.4075, -50.9951, 46.0459
4.476, 4, 35.8474, 47.941, -13.785, 97.4075, -50.9951, 46.0459
4.48, 4, 35.8474, 47.941, -13.785, 97.4075, -50.9951, 46.0459
4.484, 4, 35.8474, 47.941, -13.785, 97.4075, -50.9951, 46.0459
4.488, 4, 35.8474, 47.941, -13.785, 97.4075, -50.9951, 46.0459
4.492, 4, 35.8474, 47.941, -13.785, 97.4075, -50.9951, 46.0459
4.496, 4, 35.8474, 47.941, -13.785, 97.4075, -50.9951, 46.0459
4.5, 4, 35.8474, 47.941, -13.785, 97.4075, -50.9951, 46.0459
4.504, 4, 35.8474, 47.941, -13.785, 97.4075, -50.9951, 46.0459
4.508, 4, 35.8474, 47.941, -13.785, 97.4075, -50.9951, 46.0459
4.512, 4, 35.8474, 47.941, -13.785, 97.4075, -50.9951, 46.0459
4.516, 4, 35.8474, 47.941, -13.785, 97.4075, -50.9951, 46.0459
4.52, 4, 35.8474, 47.941, -13.785, 97.4075, -50.9951, 46.0459
4.524, 4, 35.8474, 47.941, -13.785, 97.4075, -50.9951, 46.0459
4.528, 4, 35.8474, 47.941, -13.785, 97.4075, -50.9951, 46.0459
4.532, 4, 35.8474, 47.941, -13.785, 97.4075, -50.9951, 46.0459
4.536, 5, 35.8474, 47.941, -13.785, 97.4075, -50.9951, 46.0459
4.54, 5, 35.8474, 47.941, -13.785, 97.4075, -50.9951, 46.0459
4.544, 5, 35.8474, 47.941, -13.785, 97.4075, -50.9951, 46.0459
4.548, 5, 35.8474, 47.941, -13.785, 97.4075, -50.9951, 46.0459
4.552, 5, 35.8474, 47.941, -13.785, 97.4075, -50.9951, 46.0459
4.556, 5, 35.8474, 47.941, -13.785, 97.4075, -50.9951, 46.0459
4.56, 5, 35.8474, 47.941, -13.785, 97.4075, -50.9951, 46.0459
4.564, 5, 35.8474, 47.941, -13.785, 97.4075, -50.9951, 46.0459
4.568, 5, 35.8474, 47.941, -13.785, 97.4075, -50.9951, 46.0459
4.572, 5, 35.8474, 47.9411, -13.785, 97.4075, -50.9951, 46.0459
4.576, 5, 35.8474, 47.9412, -13.785, 97.4075, -50.9951, 46.0459
4.58, 5, 35.8474, 47.9416, -13.785, 97.4075, -50.9952, 46.0459
4.584, 5, 35.8475, 47.9423, -13.7851, 97.4075, -50.9953, 46.0458
4.588, 5, 35.8475, 47.9436, -13.7851, 97.4075, -50.9956, 46.0457
4.592, 5, 35.8477, 47.9454, -13.7852, 97.4074, -50.9963, 46.0455
4.596, 5, 35.8479, 47.9479, -13.7854, 97.4073, -50.9976, 46.045
4.6, 5, 35.8481, 47.9512, -13.7858, 97.4072, -50.9999, 46.0442
4.604, 5, 35.8483, 47.9552, -13.7863, 97.407, -51.0035, 46.043
4.608, 5, 35.8486, 47.9598, -13.7871, 97.4067, -51.0089, 46.0411
4.612, 5, 35.8489, 47.9652, -13.7883, 97.4062, -51.0166, 46.0384
4.616, 5, 35.8492, 47.9713, -13.7899, 97.4056, -51.027, 46.0348
4.62, 5, 35.8495, 47.9782, -13.7919, 97.4047, -51.0406, 46.0301
4.624, 5, 35.8498, 47.9859, -13.7944, 97.4037, -51.0577, 46.0241
4.628, 5, 35.8502, 47.9945, -13.7976, 97.4023, -51.0788, 46.0168
4.632, 5, 35.8506, 48.0039, -13.8013, 97.4007, -51.1041, 46.008
4.636, 5, 35.8509, 48.014, -13.8057, 97.3988, -51.1338, 45.9977
4.64, 5, 35.8513, 48.0249, -13.8108, 97.3966, -51.1679, 45.9859
4.644, 5, 35.8517, 48.0364, -13.8164, 97.394, -51.2064, 45.9726
4.648, 5, 35.8521, 48.0487, -13.8227, 97.3912, -51.249, 45.9578
4.652, 5, 35.8525, 48.0619, -13.8295, 97.3881, -51.2955, 45.9417
4.656, 5, 35.8529, 48.0759, -13.8369, 97.3847, -51.3455, 45.9245
4.66, 5, 35.8534, 48.0908, -13.8446, 97.3811, -51.3985, 45.9062
4.664, 5, 35.8539, 48.1066, -13.8527, 97.3773, -51.4541, 45.887
4.668, 5, 35.8544, 48.1233, -13.8612, 97.3733, -51.5119, 45.8671
4.672, 5, 35.855, 48.1408, -13.8698, 97.3691, -51.5716, 45.8466
4.676, 5, 35.8556, 48.1589, -13.8787, 97.3648, -51.6326, 45.8256
4.68, 5, 35.8563, 48.1777, -13.8877, 97.3603, -51.6947, 45.8043
4.684, 5, 35.8569, 48.197, -13.8968, 97.3558, -51.7577, 45.7827
4.688, 5, 35.8576, 48.2168, -13.906, 97.3511, -51.8213, 45.7609
4.692, 5, 35.8583, 48.237, -13.9152, 97.3463, -51.8853, 45.739
4.696, 5, 35.859, 48.2576, -13.9244, 97.3415, -51.9496, 45.717
4.7, 5, 35.8597, 48.2784, -13.9336, 97.3366, -52.0141, 45.695
4.704, 5, 35.8604, 48.2994, -13.9428, 97.3316, -52.0787, 45.673
4.708, 5, 35.8611, 48.3205, -13.952, 97.3265, -52.1434, 45.651
4.712, 5, 35.8618, 48.3417, -13.9611, 97.3214, -52.2082, 45.629
4.716, 5, 35.8625, 48.363, -13.9703, 97.3162, -52.2729, 45.607
4.72, 5, 35.8631, 48.3842, -13.9794, 97.311, -52.3377, 45.585
4.724, 5, 35.8638, 48.4055, -13.9885, 97.3057, -52.4025, 45.5631
4.728, 5, 35.8644, 48.4268, -13.9976, 97.3003, -52.4673, 45.5412
4.732, 5, 35.865, 48.4481, -14.0066, 97.2949, -52.532, 45.5193
4.736, 5, 35.8656, 48.4694, -14.0156, 97.2894, -52.5968, 45.4974
4.74, 5, 35.8662, 48.4907, -14.0245, 97.2839, -52.6615, 45.4756
4.744, 5, 35.8668, 48.512, -14.0335, 97.2783, -52.7262, 45.4539
4.748, 5, 35.8673, 48.5333, -14.0424, 97.2726, -52.7909, 45.4321
4.752, 5, 35.8679, 48.5546, -14.0512, 97.2669, -52.8556, 45.4104
4.756, 5, 35.8684, 48.5758, -14.0601, 97.2611, -52.9202, 45.3887
4.76, 5, 35.8689, 48.5971, -14.0689, 97.2552, -52.9849, 45.3671
4.764, 5, 35.8694, 48.6183, -14.0777, 97.2493, -53.0495, 45.3455
4.768, 5, 35.8699, 48.6395, -14.0864, 97.2433, -53.1141, 45.3239
4.772, 5, 35.8703, 48.6608, -14.0951, 97.2373, -53.1787, 45.3024
4.776, 5, 35.8707, 48.682, -14.1038, 97.2312, -53.2432, 45.2809
4.78, 6, 35.8712, 48.7032, -14.1124, 97.2251, -53.3077, 45.2594
4.784, 6, 35.8716, 48.7243, -14.121, 97.2189, -53.3723, 45.238
4.788, 6, 35.872, 48.7455, -14.1296, 97.2126, -53.4367, 45.2166
4.792, 6, 35.8723, 48.7667, -14.1381, 97.2063, -53.5012, 45.1952
4.796, 6, 35.8727, 48.7878, -14.1466, 97.1999, -53.5657, 45.1739
4.8, 6, 35.873, 48.8089, -14.1551, 97.1934, -53.6301, 45.1525
4.804, 6, 35.8733, 48.83, -14.1635, 97.1869, -53.6945, 45.1313
4.808, 6, 35.8737, 48.8511, -14.1719, 97.1804, -53.7589, 45.11
4.812, 6, 35.8739, 48.8722, -14.1803, 97.1738, -53.8232, 45.0888
4.816, 6, 35.8742, 48.8933, -14.1887, 97.1671, -53.8876, 45.0676
4.82, 6, 35.8745, 48.9144, -14.197, 97.1604, -53.9519, 45.0465
4.824, 6, 35.8747, 48.9354, -14.2052, 97.1536, -54.0162, 45.0254
4.828, 6, 35.8749, 48.9565, -14.2135, 97.1467, -54.0805, 45.0043
4.832, 6, 35.8752, 48.9775, -14.2217, 97.1398, -54.1447, 44.9832
4.836, 6, 35.8753, 48.9985, -14.2298, 97.1329, -54.209, 44.9622
4.84, 6, 35.8755, 49.0195, -14.238, 97.1258, -54.2732, 44.9412
4.844, 6, 35.8757, 49.0405, -14.2461, 97.1188, -54.3374, 44.9203
4.848, 6, 35.8758, 49.0615, -14.2541, 97.1116, -54.4016, 44.8993
4.852, 6, 35.876, 49.0825, -14.2622, 97.1044, -54.4657, 44.8784
4.856, 6, 35.8761, 49.1034, -14.2702, 97.0972, -54.5298, 44.8576
4.86, 6, 35.8762, 49.1244, -14.2781, 97.0899, -54.594, 44.8367
4.864, 6, 35.8762, 49.1453, -14.2861, 97.0826, -54.658, 44.8159
4.868, 6, 35.8763, 49.1662, -14.294, 97.0751, -54.7221, 44.7951
4.872, 6, 35.8763, 49.1871, -14.3018, 97.0677, -54.7862, 44.7744
4.876, 6, 35.8764, 49.208, -14.3097, 97.0602, -54.8502, 44.7537
4.88, 6, 35.8764, 49.2289, -14.3174, 97.0526, -54.9142, 44.733
4.884, 6, 35.8764, 49.2497, -14.3252, 97.045, -54.9782, 44.7123
4.888, 6, 35.8764, 49.2706, -14.3329, 97.0373, -55.0421, 44.6917
4.892, 6, 35.8763, 49.2914, -14.3406, 97.0295, -55.1061, 44.6711
4.896, 6, 35.8763, 49.3122, -14.3483, 97.0217, -55.17, 44.6505
4.9, 6, 35.8762, 49.333, -14.3559, 97.0139, -55.2339, 44.63
4.904, 6, 35.8761, 49.3538, -14.3635, 97.006, -55.2978, 44.6094
4.908, 6, 35.876, 49.3746, -14.371, 96.998, -55.3616, 44.5889
4.912, 6, 35.8759, 49.3954, -14.3785, 96.99, -55.4255, 44.5685
4.916, 6, 35.8758, 49.4161, -14.386, 96.9819, -55.4893, 44.548
4.92, 6, 35.8756, 49.4369, -14.3935, 96.9738, -55.5531, 44.5276
4.924, 6, 35.8755, 49.4576, -14.4009, 96.9657, -55.6168, 44.5073
4.928, 6, 35.8753, 49.4783, -14.4082, 96.9574, -55.6806, 44.4869
4.932, 6, 35.8751, 49.499, -14.4156, 96.9491, -55.7443, 44.4666
4.936, 6, 35.8749, 49.5197, -14.4229, 96.9408, -55.808, 44.4463
4.94, 6, 35.8746, 49.5403, -14.4302, 96.9324, -55.8717, 44.426
4.944, 6, 35.8744, 49.561, -14.4374, 96.924, -55.9354, 44.4058
4.948, 6, 35.8741, 49.5816, -14.4446, 96.9155, -55.999, 44.3856
4.952, 6, 35.8738, 49.6022, -14.4517, 96.9069, -56.0627, 44.3654
4.956, 6, 35.8736, 49.6229, -14.4589, 96.8983, -56.1263, 44.3452
4.96, 6, 35.8732, 49.6434, -14.466, 96.8897, -56.1899, 44.3251
4.964, 6, 35.8729, 49.664, -14.473, 96.881, -56.2534, 44.305
4.968, 6, 35.8726, 49.6846, -14.48, 96.8722, -56.317, 44.2849
4.972, 6, 35.8722, 49.7051, -14.487, 96.8634, -56.3805, 44.2648
4.976, 6, 35.8718, 49.7257, -14.494, 96.8545, -56.444, 44.2448
4.98, 6, 35.8714, 49.7462, -14.5009, 96.8456, -56.5075, 44.2248
4.984, 6, 35.871, 49.7667, -14.5077, 96.8367, -56.5709, 44.2048
4.988, 6, 35.8706, 49.7872, -14.5146, 96.8276, -56.6343, 44.1849
4.992, 6, 35.8702, 49.8077, -14.5214, 96.8186, -56.6978, 44.165
4.996, 6, 35.8697, 49.8281, -14.5282, 96.8095, -56.7612, 44.1451
5, 6, 35.8692, 49.8486, -14.5349, 96.8003, -56.8245, 44.1252
5.004, 6, 35.8687, 49.869, -14.5416, 96.7911, -56.8879, 44.1053
5.008, 6, 35.8682, 49.8894, -14.5482, 96.7818, -56.9512, 44.0855
5.012, 6, 35.8677, 49.9098, -14.5549, 96.7724, -57.0145, 44.0657
5.016, 6, 35.8672, 49.9302, -14.5614, 96.7631, -57.0778, 44.046
5.02, 6, 35.8666, 49.9506, -14.568, 96.7536, -57.1411, 44.0262
5.024, 6, 35.8661, 49.971, -14.5745, 96.7442, -57.2043, 44.0065
5.028, 6, 35.8655, 49.9913, -14.581, 96.7346, -57.2675, 43.9868
5.032, 6, 35.8649, 50.0116, -14.5874, 96.7251, -57.3307, 43.9671
5.036, 6, 35.8642, 50.0319, -14.5938, 96.7154, -57.3939, 43.9475
5.04, 6, 35.8636, 50.0522, -14.6002, 96.7057, -57.4571, 43.9278
5.044, 6, 35.863, 50.0725, -14.6065, 96.696, -57.5202, 43.9082
5.048, 6, 35.8623, 50.0928, -14.6128, 96.6862, -57.5833, 43.8887
5.052, 6, 35.8616, 50.113, -14.619, 96.6764, -57.6464, 43.8691
5.056, 6, 35.8609, 50.1332, -14.6253, 96.6665, -57.7095, 43.8496
5.06, 6, 35.8602, 50.1535, -14.6314, 96.6566, -57.7726, 43.8301
5.064, 6, 35.8595, 50.1737, -14.6376, 96.6466, -57.8356, 43.8106
5.068, 6, 35.8587, 50.1938, -14.6437, 96.6366, -57.8986, 43.7911
5.072, 6, 35.8579, 50.214, -14.6497, 96.6265, -57.9616, 43.7717
5.076, 6, 35.8572, 50.2342, -14.6558, 96.6164, -58.0246, 43.7523
5.08, 6, 35.8564, 50.2543, -14.6618, 96.6062, -58.0875, 43.7329
5.084, 6, 35.8556, 50.2744, -14.6677, 96.596, -58.1504, 43.7135
5.088, 6, 35.8547, 50.2945, -14.6736, 96.5857, -58.2134, 43.6942
5.092, 6, 35.8539, 50.3146, -14.6795, 96.5754, -58.2762, 43.6749
5.096, 6, 35.853, 50.3347, -14.6853, 96.565, -58.3391, 43.6556
5.1, 6, 35.8521, 50.3547, -14.6911, 96.5546, -58.4019, 43.6363
5.104, 6, 35.8512, 50.3748, -14.6969, 96.5441, -58.4648, 43.6171
5.108, 6, 35.8503, 50.3948, -14.7026, 96.5336, -58.5276, 43.5978
5.112, 6, 35.8494, 50.4148, -14.7083, 96.523, -58.5903, 43.5786
5.116, 6, 35.8485, 50.4348, -14.714, 96.5124, -58.6531, 43.5594
5.12, 6, 35.8475, 50.4548, -14.7196, 96.5017, -58.7158, 43.5403
5.124, 6, 35.8465, 50.4747, -14.7252, 96.491, -58.7785, 43.5211
5.128, 6, 35.8455, 50.4946, -14.7307, 96.4803, -58.8412, 43.502
5.132, 6, 35.8445, 50.5146, -14.7362, 96.4695, -58.9039, 43.4829
5.136, 6, 35.8435, 50.5345, -14.7417, 96.4586, -58.9666, 43.4638
5.14, 6, 35.8425, 50.5544, -14.7471, 96.4477, -59.0292, 43.4448
5.144, 6, 35.8414, 50.5742, -14.7525, 96.4367, -59.0918, 43.4258
5.148, 6, 35.8404, 50.5941, -14.7578, 96.4258, -59.1544, 43.4067
5.152, 6, 35.8393, 50.6139, -14.7631, 96.4147, -59.217, 43.3878
5.156, 6, 35.8382, 50.6337, -14.7684, 96.4036, -59.2795, 43.3688
5.16, 6, 35.837, 50.6535, -14.7736, 96.3925, -59.342, 43.3498
5.164, 6, 35.8359, 50.6733, -14.7788, 96.3813, -59.4045, 43.3309
5.168, 6, 35.8348, 50.6931, -14.784, 96.3701, -59.467, 43.312
5.172, 6, 35.8336, 50.7128, -14.7891, 96.3588, -59.5295, 43.2931
5.176, 6, 35.8324, 50.7326, -14.7942, 96.3475, -59.5919, 43.2743
5.18, 6, 35.8312, 50.7523, -14.7992, 96.3361, -59.6543, 43.2554
5.184, 6, 35.83, 50.772, -14.8042, 96.3247, -59.7167, 43.2366
5.188, 7, 35.8288, 50.7917, -14.8092, 96.3132, -59.7791, 43.2178
5.192, 7, 35.8275, 50.8113, -14.8141, 96.3017, -59.8414, 43.199
5.196, 7, 35.8263, 50.831, -14.819, 96.2901, -59.9038, 43.1802
5.2, 7, 35.825, 50.8506, -14.8238, 96.2785, -59.9661, 43.1615
5.204, 7, 35.8237, 50.8702, -14.8286, 96.2669, -60.0284, 43.1428
5.208, 7, 35.8224, 50.8898, -14.8334, 96.2552, -60.0906, 43.1241
5.212, 7, 35.821, 50.9094, -14.8381, 96.2435, -60.1529, 43.1054
5.216, 7, 35.8197, 50.9289, -14.8428, 96.2317, -60.2151, 43.0867
5.22, 7, 35.8183, 50.9485, -14.8474, 96.2198, -60.2773, 43.0681
5.224, 7, 35.817, 50.968, -14.852, 96.208, -60.3395, 43.0494
5.228, 7, 35.8156, 50.9875, -14.8566, 96.196, -60.4017, 43.0308
5.232, 7, 35.8142, 51.007, -14.8611, 96.1841, -60.4638, 43.0122
5.236, 7, 35.8127, 51.0265, -14.8656, 96.1721, -60.5259, 42.9936
5.24, 7, 35.8113, 51.0459, -14.8701, 96.16, -60.588, 42.9751
5.244, 7, 35.8098, 51.0653, -14.8745, 96.1479, -60.6501, 42.9566
5.248, 7, 35.8084, 51.0848, -14.8789, 96.1358, -60.7121, 42.938
5.252, 7, 35.8069, 51.1041, -14.8832, 96.1236, -60.7742, 42.9196
5.256, 7, 35.8054, 51.1235, -14.8875, 96.1114, -60.8362, 42.9011
5.26, 7, 35.8039, 51.1429, -14.8917, 96.0991, -60.8982, 42.8826
5.264, 7, 35.8023, 51.1622, -14.8959, 96.0867, -60.9601, 42.8642
5.268, 7, 35.8008, 51.1815, -14.9001, 96.0744, -61.0221, 42.8457
5.272, 7, 35.7992, 51.2008, -14.9042, 96.062, -61.084, 42.8273
5.276, 7, 35.7976, 51.2201, -14.9083, 96.0495, -61.1459, 42.8089
5.28, 7, 35.796, 51.2394, -14.9124, 96.037, -61.2078, 42.7906
5.284, 7, 35.7944, 51.2586, -14.9164, 96.0245, -61.2697, 42.7722
5.288, 7, 35.7928, 51.2779, -14.9203, 96.0119, -61.3315, 42.7539
5.292, 7, 35.7911, 51.2971, -14.9243, 95.9993, -61.3933, 42.7356
5.296, 7, 35.7894, 51.3163, -14.9282, 95.9866, -61.4551, 42.7173
5.3, 7, 35.7878, 51.3354, -14.932, 95.9739, -61.5169, 42.699
5.304, 7, 35.7861, 51.3546, -14.9358, 95.9611, -61.5786, 42.6807
5.308, 7, 35.7844, 51.3737, -14.9396, 95.9483, -61.6404, 42.6625
5.312, 7, 35.7826, 51.3928, -14.9433, 95.9354, -61.7021, 42.6442
5.316, 7, 35.7809, 51.4119, -14.947, 95.9226, -61.7638, 42.626
5.32, 7, 35.7791, 51.431, -14.9506, 95.9096, -61.8255, 42.6078
5.324, 7, 35.7773, 51.45, -14.9542, 95.8967, -61.8871, 42.5896
5.328, 7, 35.7755, 51.4691, -14.9578, 95.8836, -61.9487, 42.5715
5.332, 7, 35.7737, 51.4881, -14.9613, 95.8706, -62.0103, 42.5533
5.336, 7, 35.7718, 51.507, -14.9648, 95.8575, -62.0719, 42.5352
5.34, 7, 35.7699, 51.5259, -14.9682, 95.8443, -62.1334, 42.5171
5.344, 7, 35.768, 51.5448, -14.9716, 95.8311, -62.1949, 42.499
5.348, 7, 35.7661, 51.5637, -14.9749, 95.8178, -62.2564, 42.481
5.352, 7, 35.7641, 51.5825, -14.9781, 95.8045, -62.3178, 42.4629
5.356, 7, 35.7621, 51.6013, -14.9813, 95.7912, -62.3791, 42.445
5.36, 7, 35.76, 51.62, -14.9843, 95.7777, -62.4404, 42.427
5.364, 7, 35.758, 51.6386, -14.9873, 95.7642, -62.5016, 42.4091
5.368, 7, 35.7559, 51.6572, -14.9902, 95.7507, -62.5627, 42.3912
5.372, 7, 35.7537, 51.6757, -14.993, 95.737, -62.6236, 42.3734
5.376, 7, 35.7516, 51.6942, -14.9957, 95.7233, -62.6845, 42.3557
5.38, 7, 35.7494, 51.7126, -14.9983, 95.7095, -62.7453, 42.338
5.384, 7, 35.7472, 51.7309, -15.0007, 95.6956, -62.8059, 42.3204
5.388, 7, 35.745, 51.7491, -15.003, 95.6817, -62.8663, 42.3028
5.392, 7, 35.7428, 51.7672, -15.0051, 95.6676, -62.9266, 42.2853
5.396, 7, 35.7406, 51.7853, -15.0071, 95.6535, -62.9867, 42.2679
5.4, 7, 35.7383, 51.8033, -15.009, 95.6393, -63.0467, 42.2506
5.404, 7, 35.736, 51.8211, -15.0106, 95.6249, -63.1065, 42.2333
5.408, 7, 35.7337, 51.8389, -15.0122, 95.6105, -63.1661, 42.2162
5.412, 7, 35.7313, 51.8566, -15.0135, 95.596, -63.2256, 42.1991
5.416, 7, 35.7289, 51.8742, -15.0148, 95.5814, -63.2848, 42.1821
5.42, 7, 35.7265, 51.8917, -15.0158, 95.5667, -63.3439, 42.1651
5.424, 7, 35.724, 51.909, -15.0167, 95.5519, -63.4028, 42.1483
5.428, 7, 35.7216, 51.9263, -15.0174, 95.5371, -63.4615, 42.1315
5.432, 7, 35.719, 51.9434, -15.018, 95.5221, -63.5201, 42.1148
5.436, 7, 35.7165, 51.9605, -15.0184, 95.5071, -63.5784, 42.0982
5.44, 7, 35.7139, 51.9774, -15.0186, 95.4919, -63.6366, 42.0816
5.444, 7, 35.7113, 51.9942, -15.0186, 95.4767, -63.6946, 42.0652
5.448, 7, 35.7086, 52.011, -15.0185, 95.4614, -63.7524, 42.0488
5.452, 7, 35.7059, 52.0276, -15.0183, 95.446, -63.81, 42.0325
5.456, 7, 35.7032, 52.0441, -15.0178, 95.4305, -63.8675, 42.0162
5.46, 7, 35.7004, 52.0605, -15.0172, 95.415, -63.9248, 42.0001
5.464, 7, 35.6976, 52.0768, -15.0165, 95.3993, -63.9818, 41.984
5.468, 7, 35.6948, 52.0929, -15.0156, 95.3836, -64.0387, 41.968
5.472, 7, 35.6919, 52.109, -15.0145, 95.3678, -64.0955, 41.9521
5.476, 7, 35.6891, 52.125, -15.0132, 95.3519, -64.152, 41.9362
5.48, 7, 35.6862, 52.1409, -15.0118, 95.3359, -64.2084, 41.9204
5.484, 7, 35.6832, 52.1566, -15.0102, 95.3198, -64.2646, 41.9047
5.488, 7, 35.6803, 52.1723, -15.0085, 95.3037, -64.3206, 41.8891
5.492, 7, 35.6773, 52.1879, -15.0066, 95.2875, -64.3765, 41.8735
5.496, 7, 35.6743, 52.2034, -15.0046, 95.2712, -64.4322, 41.8579
5.5, 7, 35.6713, 52.2188, -15.0024, 95.2548, -64.4878, 41.8425
5.504, 7, 35.6683, 52.2342, -15.0002, 95.2384, -64.5433, 41.8271
5.508, 7, 35.6652, 52.2494, -14.9978, 95.2219, -64.5986, 41.8117
5.512, 7, 35.6622, 52.2646, -14.9952, 95.2054, -64.6538, 41.7964
5.516, 7, 35.6591, 52.2798, -14.9926, 95.1888, -64.7089, 41.7811
5.52, 7, 35.6559, 52.2948, -14.9899, 95.1721, -64.7639, 41.7659
5.524, 7, 35.6528, 52.3098, -14.987, 95.1554, -64.8188, 41.7506
5.528, 7, 35.6496, 52.3247, -14.9841, 95.1387, -64.8737, 41.7354
5.532, 7, 35.6464, 52.3396, -14.9812, 95.1219, -64.9285, 41.7203
5.536, 7, 35.6432, 52.3545, -14.9781, 95.105, -64.9833, 41.7051
5.54, 7, 35.6399, 52.3693, -14.975, 95.0882, -65.038, 41.69
5.544, 7, 35.6366, 52.384, -14.9719, 95.0713, -65.0927, 41.6749
5.548, 7, 35.6333, 52.3987, -14.9687, 95.0544, -65.1474, 41.6597
5.552, 7, 35.63, 52.4134, -14.9654, 95.0374, -65.202, 41.6446
5.556, 7, 35.6266, 52.428, -14.9621, 95.0204, -65.2566, 41.6295
5.56, 7, 35.6232, 52.4426, -14.9587, 95.0034, -65.3112, 41.6144
5.564, 7, 35.6199, 52.4572, -14.9553, 94.9864, -65.3657, 41.5993
5.568, 7, 35.6164, 52.4717, -14.9519, 94.9694, -65.4203, 41.5842
5.572, 7, 35.613, 52.4863, -14.9484, 94.9523, -65.4748, 41.5691
5.576, 7, 35.6096, 52.5008, -14.9448, 94.9352, -65.5293, 41.554
5.58, 7, 35.6061, 52.5152, -14.9412, 94.918, -65.5838, 41.5389
5.584, 7, 35.6027, 52.5297, -14.9376, 94.9009, -65.6383, 41.5238
5.588, 7, 35.5992, 52.5441, -14.9339, 94.8837, -65.6927, 41.5088
5.592, 7, 35.5957, 52.5585, -14.9302, 94.8665, -65.7471, 41.4937
5.596, 8, 35.5922, 52.5728, -14.9265, 94.8492, -65.8016, 41.4786
5.6, 8, 35.5887, 52.5872, -14.9227, 94.8319, -65.8559, 41.4635
5.604, 8, 35.5852, 52.6015, -14.9188, 94.8147, -65.9103, 41.4485
5.608, 8, 35.5816, 52.6158, -14.9149, 94.7973, -65.9647, 41.4334
5.612, 8, 35.5781, 52.63, -14.911, 94.78, -66.019, 41.4183
5.616, 8, 35.5745, 52.6443, -14.907, 94.7626, -66.0733, 41.4033
5.62, 8, 35.5709, 52.6585, -14.903, 94.7452, -66.1276, 41.3882
5.624, 8, 35.5674, 52.6727, -14.8989, 94.7278, -66.1819, 41.3732
5.628, 8, 35.5638, 52.6868, -14.8948, 94.7104, -66.2362, 41.3581
5.632, 8, 35.5601, 52.701, -14.8906, 94.6929, -66.2904, 41.3431
5.636, 8, 35.5565, 52.7151, -14.8864, 94.6754, -66.3446, 41.328
5.64, 8, 35.5529, 52.7292, -14.8822, 94.6579, -66.3988, 41.313
5.644, 8, 35.5492, 52.7432, -14.8779, 94.6404, -66.453, 41.2979
5.648, 8, 35.5455, 52.7572, -14.8736, 94.6228, -66.5072, 41.2829
5.652, 8, 35.5419, 52.7713, -14.8692, 94.6052, -66.5613, 41.2678
5.656, 8, 35.5382, 52.7852, -14.8648, 94.5876, -66.6155, 41.2528
5.66, 8, 35.5345, 52.7992, -14.8603, 94.5699, -66.6696, 41.2378
5.664, 8, 35.5307, 52.8131, -14.8558, 94.5523, -66.7237, 41.2227
5.668, 8, 35.527, 52.827, -14.8512, 94.5346, -66.7778, 41.2077
5.672, 8, 35.5233, 52.8409, -14.8466, 94.5168, -66.8318, 41.1927
5.676, 8, 35.5195, 52.8547, -14.842, 94.4991, -66.8859, 41.1777
5.68, 8, 35.5157, 52.8686, -14.8373, 94.4813, -66.9399, 41.1626
5.684, 8, 35.512, 52.8824, -14.8326, 94.4635, -66.9939, 41.1476
5.688, 8, 35.5082, 52.8961, -14.8278, 94.4457, -67.0479, 41.1326
5.692, 8, 35.5044, 52.9099, -14.823, 94.4279, -67.1019, 41.1176
5.696, 8, 35.5005, 52.9236, -14.8181, 94.41, -67.1558, 41.1026
5.7, 8, 35.4967, 52.9373, -14.8132, 94.3921, -67.2097, 41.0875
5.704, 8, 35.4929, 52.951, -14.8082, 94.3742, -67.2636, 41.0725
5.708, 8, 35.489, 52.9646, -14.8033, 94.3563, -67.3175, 41.0575
5.712, 8, 35.4851, 52.9782, -14.7982, 94.3383, -67.3714, 41.0425
5.716, 8, 35.4812, 52.9918, -14.7931, 94.3203, -67.4253, 41.0275
5.72, 8, 35.4773, 53.0053, -14.788, 94.3023, -67.4791, 41.0125
5.724, 8, 35.4734, 53.0189, -14.7828, 94.2842, -67.5329, 40.9975
5.728, 8, 35.4695, 53.0324, -14.7776, 94.2662, -67.5867, 40.9825
5.732, 8, 35.4656, 53.0459, -14.7723, 94.2481, -67.6405, 40.9675
5.736, 8, 35.4616, 53.0593, -14.767, 94.23, -67.6943, 40.9525
5.74, 8, 35.4577, 53.0728, -14.7617, 94.2119, -67.7481, 40.9375
5.744, 8, 35.4537, 53.0862, -14.7563, 94.1937, -67.8018, 40.9225
5.748, 8, 35.4497, 53.0995, -14.7508, 94.1755, -67.8555, 40.9075
5.752, 8, 35.4457, 53.1129, -14.7453, 94.1573, -67.9092, 40.8925
5.756, 8, 35.4417, 53.1262, -14.7398, 94.1391, -67.9629, 40.8775
5.76, 8, 35.4376, 53.1394, -14.7342, 94.1208, -68.0165, 40.8625
5.764, 8, 35.4335, 53.1526, -14.7286, 94.1025, -68.0701, 40.8475
5.768, 8, 35.4294, 53.1658, -14.7229, 94.0842, -68.1237, 40.8326
5.772, 8, 35.4253, 53.1789, -14.7171, 94.0659, -68.1773, 40.8176
5.776, 8, 35.4211, 53.192, -14.7113, 94.0475, -68.2308, 40.8027
5.78, 8, 35.417, 53.205, -14.7054, 94.0292, -68.2842, 40.7879
5.784, 8, 35.4127, 53.2179, -14.6994, 94.0107, -68.3375, 40.7731
5.788, 8, 35.4085, 53.2308, -14.6934, 93.9923, -68.3908, 40.7584
5.792, 8, 35.4042, 53.2436, -14.6872, 93.9738, -68.444, 40.7437
5.796, 8, 35.4, 53.2564, -14.6809, 93.9553, -68.4971, 40.7292
5.8, 8, 35.3957, 53.269, -14.6746, 93.9368, -68.55, 40.7148
5.804, 8, 35.3913, 53.2816, -14.6681, 93.9182, -68.6028, 40.7005
5.808, 8, 35.387, 53.2941, -14.6614, 93.8996, -68.6555, 40.6863
5.812, 8, 35.3826, 53.3065, -14.6547, 93.881, -68.708, 40.6723
5.816, 8, 35.3783, 53.3188, -14.6478, 93.8624, -68.7603, 40.6584
5.82, 8, 35.3739, 53.331, -14.6407, 93.8437, -68.8125, 40.6447
5.824, 8, 35.3694, 53.3431, -14.6335, 93.8249, -68.8645, 40.6312
5.828, 8, 35.365, 53.3551, -14.6261, 93.8062, -68.9162, 40.6179
5.832, 8, 35.3605, 53.367, -14.6186, 93.7874, -68.9678, 40.6048
5.836, 8, 35.3561, 53.3787, -14.6109, 93.7686, -69.0192, 40.5919
5.84, 8, 35.3516, 53.3904, -14.6031, 93.7497, -69.0704, 40.5792
5.844, 8, 35.347, 53.4019, -14.595, 93.7309, -69.1213, 40.5666
5.848, 8, 35.3424, 53.4133, -14.5869, 93.712, -69.1721, 40.5543
5.852, 8, 35.3378, 53.4246, -14.5785, 93.693, -69.2226, 40.5422
5.856, 8, 35.3332, 53.4358, -14.57, 93.674, -69.273, 40.5303
5.86, 8, 35.3286, 53.4468, -14.5613, 93.655, -69.3231, 40.5186
5.864, 8, 35.3239, 53.4578, -14.5525, 93.636, -69.373, 40.5071
5.868, 8, 35.3191, 53.4686, -14.5435, 93.617, -69.4228, 40.4959
5.872, 8, 35.3144, 53.4792, -14.5343, 93.5979, -69.4723, 40.4848
5.876, 8, 35.3096, 53.4898, -14.525, 93.5788, -69.5216, 40.4739
5.88, 8, 35.3048, 53.5002, -14.5155, 93.5596, -69.5706, 40.4633
5.884, 8, 35.2999, 53.5105, -14.5059, 93.5405, -69.6195, 40.4528
5.888, 8, 35.295, 53.5207, -14.4961, 93.5213, -69.6682, 40.4426
5.892, 8, 35.2901, 53.5308, -14.4861, 93.5021, -69.7167, 40.4326
5.896, 8, 35.2852, 53.5407, -14.476, 93.4829, -69.7649, 40.4227
5.9, 8, 35.2802, 53.5506, -14.4657, 93.4636, -69.813, 40.4131
5.904, 8, 35.2752, 53.5603, -14.4552, 93.4443, -69.8608, 40.4037
5.908, 8, 35.2702, 53.5699, -14.4446, 93.425, -69.9085, 40.3945
5.912, 8, 35.2651, 53.5793, -14.4339, 93.4057, -69.9559, 40.3855
5.916, 8, 35.26, 53.5887, -14.4229, 93.3863, -70.0031, 40.3767
5.92, 8, 35.255, 53.598, -14.4119, 93.3669, -70.0502, 40.368
5.924, 8, 35.2499, 53.6072, -14.4007, 93.3475, -70.0971, 40.3596
5.928, 8, 35.2447, 53.6162, -14.3893, 93.3281, -70.1438, 40.3513
5.932, 9, 35.2396, 53.6252, -14.3779, 93.3086, -70.1903, 40.3432
5.936, 9, 35.2344, 53.6341, -14.3662, 93.2891, -70.2367, 40.3353
5.94, 9, 35.2293, 53.6429, -14.3545, 93.2696, -70.2829, 40.3275
5.944, 9, 35.2241, 53.6517, -14.3427, 93.2501, -70.329, 40.3198
5.948, 9, 35.2188, 53.6603, -14.3307, 93.2306, -70.375, 40.3122
5.952, 9, 35.2136, 53.6689, -14.3187, 93.211, -70.4209, 40.3047
5.956, 9, 35.2083, 53.6774, -14.3066, 93.1914, -70.4667, 40.2974
5.96, 9, 35.2031, 53.6859, -14.2944, 93.1718, -70.5124, 40.29
5.964, 9, 35.1977, 53.6943, -14.2821, 93.1522, -70.5581, 40.2828
5.968, 9, 35.1924, 53.7026, -14.2698, 93.1326, -70.6037, 40.2756
5.972, 9, 35.187, 53.7109, -14.2574, 93.113, -70.6492, 40.2684
5.976, 9, 35.1817, 53.7192, -14.245, 93.0933, -70.6948, 40.2612
5.98, 9, 35.1763, 53.7274, -14.2325, 93.0736, -70.7402, 40.2541
5.984, 9, 35.1708, 53.7356, -14.22, 93.0539, -70.7857, 40.2469
5.988, 9, 35.1654, 53.7437, -14.2074, 93.0342, -70.8311, 40.2398
5.992, 9, 35.1599, 53.7518, -14.1948, 93.0145, -70.8766, 40.2327
5.996, 9, 35.1544, 53.7599, -14.1821, 92.9948, -70.922, 40.2256
6, 9, 35.1489, 53.7679, -14.1695, 92.975, -70.9674, 40.2185
6.004, 9, 35.1434, 53.776, -14.1567, 92.9553, -71.0128, 40.2114
6.008, 9, 35.1379, 53.784, -14.144, 92.9355, -71.0582, 40.2043
6.012, 9, 35.1324, 53.7919, -14.1312, 92.9157, -71.1035, 40.1972
6.016, 9, 35.1269, 53.7999, -14.1184, 92.8959, -71.1489, 40.19
6.02, 9, 35.1213, 53.8078, -14.1056, 92.8761, -71.1942, 40.1829
6.024, 9, 35.1158, 53.8157, -14.0927, 92.8563, -71.2396, 40.1758
6.028, 9, 35.1102, 53.8236, -14.0798, 92.8364, -71.2849, 40.1687
6.032, 9, 35.1046, 53.8315, -14.0668, 92.8166, -71.3302, 40.1616
6.036, 9, 35.099, 53.8393, -14.0538, 92.7967, -71.3755, 40.1544
6.04, 9, 35.0934, 53.8472, -14.0408, 92.7768, -71.4208, 40.1473
6.044, 9, 35.0878, 53.855, -14.0278, 92.757, -71.4661, 40.1402
6.048, 9, 35.0822, 53.8627, -14.0147, 92.737, -71.5114, 40.1331
6.052, 9, 35.0766, 53.8705, -14.0016, 92.7171, -71.5567, 40.1259
6.056, 9, 35.0709, 53.8782, -13.9884, 92.6972, -71.602, 40.1188
6.06, 9, 35.0653, 53.8859, -13.9752, 92.6772, -71.6472, 40.1117
6.064, 9, 35.0596, 53.8936, -13.962, 92.6573, -71.6925, 40.1045
6.068, 9, 35.054, 53.9013, -13.9487, 92.6373, -71.7377, 40.0974
