hehonglu123/Motion-Primitive-Planning/simulation/robotstudio_sim/scripts/fitting_output/threshold0.1/curve_exe_v50_fine.csv
timestamp, cmd_num, J1, J2, J3, J4, J5, J6
0, 1, -1.03332, 64.0172, 9.25175, 43.3703, -96.0608, 171.181
0.002, 1, -1.03332, 64.0172, 9.25175, 43.3703, -96.0608, 171.181
0.004, 1, -1.03332, 64.0172, 9.25175, 43.3703, -96.0608, 171.181
0.008, 1, -1.03332, 64.0172, 9.25175, 43.3703, -96.0608, 171.181
0.011, 1, -1.03332, 64.0172, 9.25175, 43.3703, -96.0608, 171.181
0.016, 1, -1.03332, 64.0172, 9.25175, 43.3703, -96.0608, 171.181
0.02, 1, -1.03332, 64.0172, 9.25175, 43.3703, -96.0608, 171.181
0.024, 1, -1.03332, 64.0172, 9.25175, 43.3703, -96.0608, 171.181
0.028, 1, -1.03332, 64.0172, 9.25175, 43.3703, -96.0608, 171.181
0.032, 1, -1.03332, 64.0172, 9.25175, 43.3703, -96.0608, 171.181
0.036, 1, -1.03332, 64.0172, 9.25175, 43.3703, -96.0608, 171.181
0.04, 1, -1.03325, 64.0172, 9.25175, 43.3703, -96.0608, 171.181
0.044, 1, -1.03303, 64.0171, 9.25176, 43.3703, -96.0608, 171.181
0.048, 1, -1.0325, 64.017, 9.25177, 43.3703, -96.0608, 171.181
0.052, 1, -1.03153, 64.0167, 9.2518, 43.3703, -96.0608, 171.181
0.056, 1, -1.03001, 64.0162, 9.25183, 43.3705, -96.0607, 171.18
0.06, 1, -1.02786, 64.0154, 9.25184, 43.3707, -96.0605, 171.18
0.064, 1, -1.02503, 64.0144, 9.2518, 43.3712, -96.0601, 171.179
0.068, 1, -1.02148, 64.0129, 9.25165, 43.372, -96.0594, 171.177
0.072, 1, -1.01718, 64.0111, 9.25133, 43.3733, -96.0583, 171.174
0.076, 1, -1.01201, 64.0087, 9.25076, 43.3753, -96.0567, 171.169
0.08, 1, -1.00582, 64.0059, 9.24984, 43.3783, -96.0542, 171.162
0.084, 1, -0.998417, 64.0023, 9.24845, 43.3824, -96.0508, 171.152
0.088, 1, -0.989592, 63.998, 9.24647, 43.3881, -96.0461, 171.139
0.092, 1, -0.979185, 63.993, 9.24373, 43.3956, -96.0399, 171.121
0.096, 1, -0.96709, 63.9871, 9.24006, 43.4054, -96.0318, 171.099
0.1, 1, -0.95322, 63.9803, 9.2353, 43.4177, -96.0215, 171.07
0.104, 1, -0.937474, 63.9726, 9.22924, 43.433, -96.0087, 171.034
0.108, 1, -0.919718, 63.964, 9.22173, 43.4518, -95.9932, 170.991
0.112, 1, -0.899822, 63.9543, 9.21259, 43.4742, -95.9745, 170.939
0.116, 1, -0.877698, 63.9437, 9.20169, 43.5007, -95.9524, 170.877
0.12, 1, -0.853325, 63.9321, 9.18888, 43.5315, -95.9267, 170.806
0.124, 1, -0.826727, 63.9198, 9.17404, 43.5669, -95.8972, 170.724
0.128, 1, -0.797946, 63.9068, 9.15709, 43.6071, -95.8638, 170.631
0.131, 1, -0.76703, 63.8933, 9.13798, 43.652, -95.8263, 170.527
0.136, 1, -0.734019, 63.8792, 9.11669, 43.7019, -95.7847, 170.411
0.139, 1, -0.698917, 63.8646, 9.09326, 43.7565, -95.7392, 170.285
0.144, 1, -0.661692, 63.8492, 9.06777, 43.8157, -95.6897, 170.148
0.148, 1, -0.622306, 63.833, 9.04035, 43.8793, -95.6367, 170.001
0.152, 1, -0.58078, 63.8158, 9.01112, 43.947, -95.5802, 169.844
0.156, 1, -0.537204, 63.7977, 8.98024, 44.0184, -95.5206, 169.679
0.16, 1, -0.491713, 63.7787, 8.9479, 44.0932, -95.4582, 169.506
0.164, 1, -0.444426, 63.7589, 8.91427, 44.1709, -95.3933, 169.326
0.168, 1, -0.395424, 63.7382, 8.87955, 44.2512, -95.3263, 169.14
0.172, 1, -0.344779, 63.7166, 8.84393, 44.3337, -95.2575, 168.949
0.176, 1, -0.292594, 63.6943, 8.8076, 44.4179, -95.1873, 168.754
0.18, 1, -0.239, 63.6712, 8.77071, 44.5035, -95.1158, 168.556
0.184, 1, -0.18414, 63.6474, 8.73343, 44.5902, -95.0435, 168.355
0.188, 1, -0.128153, 63.623, 8.69585, 44.6778, -94.9705, 168.153
0.192, 1, -0.0711932, 63.5981, 8.65806, 44.7659, -94.897, 167.949
0.196, 1, -0.0134139, 63.5727, 8.62014, 44.8545, -94.8231, 167.744
0.2, 1, 0.0450554, 63.547, 8.58212, 44.9434, -94.749, 167.538
0.204, 1, 0.104123, 63.5211, 8.54405, 45.0324, -94.6747, 167.332
0.208, 1, 0.163709, 63.495, 8.50596, 45.1216, -94.6003, 167.125
0.212, 1, 0.223714, 63.4687, 8.46785, 45.2109, -94.5258, 166.918
0.216, 1, 0.284027, 63.4423, 8.42975, 45.3002, -94.4514, 166.712
0.22, 1, 0.344545, 63.4159, 8.39165, 45.3895, -94.3769, 166.505
0.224, 1, 0.405191, 63.3894, 8.35357, 45.4788, -94.3024, 166.298
0.228, 1, 0.465914, 63.3629, 8.3155, 45.5681, -94.2279, 166.091
0.232, 1, 0.526677, 63.3364, 8.27745, 45.6573, -94.1535, 165.885
0.236, 1, 0.587456, 63.3099, 8.23941, 45.7465, -94.0791, 165.678
0.24, 1, 0.648235, 63.2834, 8.2014, 45.8357, -94.0048, 165.472
0.244, 1, 0.709003, 63.2569, 8.16341, 45.9248, -93.9304, 165.265
0.248, 1, 0.769752, 63.2304, 8.12543, 46.0139, -93.8562, 165.059
0.252, 1, 0.830477, 63.204, 8.08748, 46.1029, -93.7819, 164.853
0.256, 1, 0.891175, 63.1775, 8.04955, 46.1919, -93.7077, 164.647
0.26, 1, 0.951842, 63.151, 8.01164, 46.2808, -93.6336, 164.441
0.264, 1, 1.01248, 63.1246, 7.97375, 46.3697, -93.5595, 164.235
0.268, 1, 1.07308, 63.0982, 7.93589, 46.4585, -93.4854, 164.03
0.272, 1, 1.13365, 63.0718, 7.89804, 46.5472, -93.4114, 163.824
0.276, 1, 1.19418, 63.0454, 7.86022, 46.636, -93.3374, 163.618
0.28, 1, 1.25468, 63.019, 7.82242, 46.7246, -93.2634, 163.413
0.284, 1, 1.31515, 62.9927, 7.78465, 46.8132, -93.1895, 163.208
0.288, 1, 1.37558, 62.9663, 7.74689, 46.9018, -93.1157, 163.003
0.292, 1, 1.43597, 62.94, 7.70916, 46.9903, -93.0419, 162.798
0.296, 1, 1.49633, 62.9137, 7.67145, 47.0787, -92.9681, 162.593
0.3, 1, 1.55665, 62.8874, 7.63376, 47.1671, -92.8944, 162.388
0.304, 1, 1.61693, 62.8611, 7.5961, 47.2555, -92.8207, 162.184
0.308, 1, 1.67718, 62.8348, 7.55846, 47.3438, -92.7471, 161.979
0.312, 1, 1.73739, 62.8086, 7.52084, 47.432, -92.6735, 161.775
0.316, 1, 1.79757, 62.7824, 7.48325, 47.5202, -92.5999, 161.571
0.32, 1, 1.8577, 62.7561, 7.44567, 47.6083, -92.5264, 161.367
0.324, 1, 1.91781, 62.7299, 7.40813, 47.6964, -92.453, 161.163
0.328, 1, 1.97787, 62.7038, 7.3706, 47.7844, -92.3796, 160.959
0.332, 1, 2.0379, 62.6776, 7.3331, 47.8724, -92.3062, 160.755
0.336, 1, 2.09789, 62.6514, 7.29562, 47.9603, -92.2329, 160.552
0.34, 1, 2.15784, 62.6253, 7.25816, 48.0481, -92.1596, 160.348
0.344, 1, 2.21775, 62.5992, 7.22073, 48.1359, -92.0864, 160.145
0.348, 1, 2.27763, 62.5731, 7.18332, 48.2237, -92.0132, 159.942
0.352, 1, 2.33746, 62.547, 7.14594, 48.3114, -91.9401, 159.739
0.356, 1, 2.39726, 62.5209, 7.10858, 48.399, -91.867, 159.536
0.36, 1, 2.45702, 62.4949, 7.07124, 48.4866, -91.794, 159.333
0.364, 1, 2.51675, 62.4688, 7.03393, 48.5741, -91.721, 159.13
0.368, 1, 2.57643, 62.4428, 6.99664, 48.6616, -91.648, 158.928
0.372, 1, 2.63608, 62.4168, 6.95937, 48.749, -91.5751, 158.725
0.376, 1, 2.69568, 62.3908, 6.92213, 48.8363, -91.5023, 158.523
0.38, 1, 2.75525, 62.3649, 6.88491, 48.9236, -91.4295, 158.321
0.384, 1, 2.81478, 62.3389, 6.84772, 49.0109, -91.3567, 158.119
0.388, 1, 2.87427, 62.313, 6.81055, 49.0981, -91.284, 157.917
0.392, 1, 2.93372, 62.2871, 6.77341, 49.1852, -91.2114, 157.715
0.396, 1, 2.99313, 62.2612, 6.73629, 49.2723, -91.1388, 157.514
0.4, 1, 3.0525, 62.2353, 6.6992, 49.3593, -91.0662, 157.312
0.404, 1, 3.11184, 62.2094, 6.66213, 49.4462, -90.9937, 157.111
0.408, 1, 3.17113, 62.1836, 6.62508, 49.5331, -90.9212, 156.91
0.412, 1, 3.23038, 62.1577, 6.58806, 49.6199, -90.8488, 156.708
0.416, 1, 3.28959, 62.1319, 6.55107, 49.7067, -90.7764, 156.508
0.42, 1, 3.34877, 62.1061, 6.5141, 49.7934, -90.7041, 156.307
0.424, 1, 3.4079, 62.0803, 6.47715, 49.8801, -90.6319, 156.106
0.428, 1, 3.46699, 62.0546, 6.44024, 49.9667, -90.5596, 155.905
0.432, 1, 3.52604, 62.0288, 6.40334, 50.0532, -90.4875, 155.705
0.436, 1, 3.58505, 62.0031, 6.36647, 50.1397, -90.4153, 155.505
0.44, 1, 3.64402, 61.9774, 6.32963, 50.2261, -90.3433, 155.305
0.444, 1, 3.70295, 61.9517, 6.29281, 50.3125, -90.2712, 155.105
0.448, 1, 3.76184, 61.926, 6.25602, 50.3988, -90.1993, 154.905
0.452, 1, 3.82069, 61.9004, 6.21926, 50.485, -90.1274, 154.705
0.456, 1, 3.87949, 61.8747, 6.18252, 50.5712, -90.0555, 154.506
0.46, 1, 3.93826, 61.8491, 6.1458, 50.6573, -89.9837, 154.306
0.464, 1, 3.99698, 61.8235, 6.10911, 50.7434, -89.9119, 154.107
0.468, 1, 4.05566, 61.7979, 6.07245, 50.8294, -89.8402, 153.908
0.472, 1, 4.11431, 61.7724, 6.03581, 50.9153, -89.7685, 153.709
0.476, 1, 4.1729, 61.7468, 5.9992, 51.0012, -89.6969, 153.51
0.48, 1, 4.23146, 61.7213, 5.96262, 51.087, -89.6253, 153.311
0.484, 1, 4.28997, 61.6958, 5.92606, 51.1727, -89.5538, 153.113
0.488, 1, 4.34845, 61.6703, 5.88953, 51.2584, -89.4824, 152.914
0.492, 1, 4.40688, 61.6448, 5.85303, 51.344, -89.4109, 152.716
0.496, 1, 4.46526, 61.6194, 5.81655, 51.4296, -89.3396, 152.518
0.5, 1, 4.52361, 61.5939, 5.7801, 51.5151, -89.2683, 152.32
0.504, 1, 4.58191, 61.5685, 5.74367, 51.6005, -89.197, 152.122
0.508, 1, 4.64017, 61.5431, 5.70727, 51.6859, -89.1258, 151.924
0.512, 1, 4.69839, 61.5178, 5.6709, 51.7712, -89.0547, 151.727
0.516, 1, 4.75657, 61.4924, 5.63455, 51.8565, -88.9836, 151.529
0.52, 1, 4.8147, 61.4671, 5.59824, 51.9417, -88.9125, 151.332
0.524, 1, 4.87279, 61.4417, 5.56194, 52.0268, -88.8415, 151.135
0.528, 1, 4.93083, 61.4164, 5.52568, 52.1119, -88.7706, 150.938
0.532, 1, 4.98884, 61.3911, 5.48944, 52.1969, -88.6997, 150.741
0.536, 1, 5.0468, 61.3659, 5.45323, 52.2818, -88.6289, 150.544
0.54, 1, 5.10471, 61.3406, 5.41705, 52.3667, -88.5581, 150.348
0.544, 1, 5.16258, 61.3154, 5.38089, 52.4515, -88.4874, 150.151
0.548, 1, 5.22041, 61.2902, 5.34476, 52.5362, -88.4167, 149.955
0.552, 1, 5.2782, 61.265, 5.30866, 52.6209, -88.3461, 149.759
0.556, 1, 5.33594, 61.2398, 5.27259, 52.7055, -88.2755, 149.563
0.56, 1, 5.39364, 61.2147, 5.23654, 52.7901, -88.205, 149.367
0.564, 1, 5.45129, 61.1895, 5.20052, 52.8745, -88.1345, 149.172
0.568, 1, 5.5089, 61.1644, 5.16453, 52.959, -88.0641, 148.976
0.572, 1, 5.56647, 61.1393, 5.12856, 53.0433, -87.9938, 148.781
0.576, 1, 5.62399, 61.1143, 5.09263, 53.1276, -87.9235, 148.586
0.58, 1, 5.68146, 61.0892, 5.05672, 53.2118, -87.8532, 148.391
0.584, 1, 5.73889, 61.0642, 5.02084, 53.296, -87.783, 148.196
0.588, 1, 5.79628, 61.0391, 4.98498, 53.3801, -87.7129, 148.001
0.592, 1, 5.85362, 61.0141, 4.94916, 53.4641, -87.6428, 147.806
0.596, 1, 5.91092, 60.9892, 4.91336, 53.5481, -87.5728, 147.612
0.6, 1, 5.96818, 60.9642, 4.87759, 53.632, -87.5028, 147.418
0.604, 1, 6.02538, 60.9393, 4.84185, 53.7158, -87.4329, 147.223
0.608, 1, 6.08255, 60.9144, 4.80614, 53.7996, -87.3631, 147.029
0.612, 1, 6.13967, 60.8895, 4.77045, 53.8833, -87.2932, 146.836
0.616, 1, 6.19674, 60.8646, 4.73479, 53.9669, -87.2235, 146.642
0.62, 1, 6.25377, 60.8397, 4.69917, 54.0505, -87.1538, 146.448
0.624, 1, 6.31075, 60.8149, 4.66357, 54.134, -87.0842, 146.255
0.628, 1, 6.36769, 60.7901, 4.62799, 54.2175, -87.0146, 146.062
0.632, 1, 6.42458, 60.7652, 4.59245, 54.3008, -86.9451, 145.869
0.636, 1, 6.48143, 60.7405, 4.55694, 54.3841, -86.8756, 145.676
0.64, 1, 6.53823, 60.7157, 4.52145, 54.4674, -86.8062, 145.483
0.644, 1, 6.59498, 60.691, 4.48599, 54.5505, -86.7368, 145.291
0.648, 1, 6.65169, 60.6662, 4.45056, 54.6336, -86.6675, 145.098
0.652, 1, 6.70835, 60.6415, 4.41516, 54.7167, -86.5982, 144.906
0.656, 1, 6.76497, 60.6169, 4.37979, 54.7996, -86.529, 144.714
0.66, 1, 6.82154, 60.5922, 4.34445, 54.8825, -86.4599, 144.522
0.664, 1, 6.87807, 60.5676, 4.30913, 54.9654, -86.3908, 144.33
0.668, 1, 6.93455, 60.5429, 4.27385, 55.0481, -86.3218, 144.138
0.672, 1, 6.99098, 60.5183, 4.23859, 55.1308, -86.2528, 143.947
0.676, 1, 7.04737, 60.4938, 4.20336, 55.2135, -86.1839, 143.755
0.68, 1, 7.10371, 60.4692, 4.16817, 55.296, -86.1151, 143.564
0.684, 1, 7.16, 60.4447, 4.133, 55.3785, -86.0463, 143.373
0.688, 1, 7.21625, 60.4201, 4.09786, 55.4609, -85.9775, 143.182
0.692, 1, 7.27245, 60.3956, 4.06275, 55.5433, -85.9089, 142.992
0.696, 1, 7.3286, 60.3712, 4.02767, 55.6256, -85.8402, 142.801
0.7, 1, 7.38471, 60.3467, 3.99261, 55.7078, -85.7717, 142.611
0.704, 1, 7.44077, 60.3223, 3.95759, 55.79, -85.7031, 142.42
0.708, 1, 7.49678, 60.2978, 3.9226, 55.872, -85.6347, 142.23
0.712, 1, 7.55275, 60.2734, 3.88763, 55.954, -85.5663, 142.04
0.716, 1, 7.60867, 60.2491, 3.8527, 56.036, -85.498, 141.851
0.72, 1, 7.66454, 60.2247, 3.81779, 56.1179, -85.4297, 141.661
0.724, 1, 7.72036, 60.2004, 3.78292, 56.1997, -85.3615, 141.472
0.728, 1, 7.77614, 60.1761, 3.74807, 56.2814, -85.2933, 141.282
0.732, 1, 7.83187, 60.1518, 3.71325, 56.3631, -85.2252, 141.093
0.736, 1, 7.88755, 60.1275, 3.67847, 56.4447, -85.1571, 140.904
0.74, 1, 7.94319, 60.1032, 3.64371, 56.5262, -85.0891, 140.715
0.744, 1, 7.99878, 60.079, 3.60898, 56.6077, -85.0212, 140.527
0.748, 1, 8.05432, 60.0548, 3.57428, 56.689, -84.9533, 140.338
0.752, 1, 8.10981, 60.0306, 3.53961, 56.7704, -84.8855, 140.15
0.756, 1, 8.16526, 60.0064, 3.50498, 56.8516, -84.8178, 139.962
0.76, 1, 8.22066, 59.9823, 3.47037, 56.9328, -84.7501, 139.774
0.764, 1, 8.27601, 59.9582, 3.43579, 57.0139, -84.6824, 139.586
0.768, 1, 8.33131, 59.9341, 3.40124, 57.0949, -84.6148, 139.398
0.772, 1, 8.38656, 59.91, 3.36672, 57.1759, -84.5473, 139.211
0.776, 1, 8.44177, 59.8859, 3.33223, 57.2568, -84.4798, 139.024
0.78, 1, 8.49693, 59.8619, 3.29777, 57.3376, -84.4124, 138.836
0.784, 1, 8.55204, 59.8378, 3.26334, 57.4184, -84.3451, 138.649
0.788, 1, 8.60711, 59.8138, 3.22894, 57.4991, -84.2778, 138.463
0.792, 1, 8.66212, 59.7898, 3.19457, 57.5797, -84.2106, 138.276
0.796, 1, 8.71709, 59.7659, 3.16023, 57.6602, -84.1434, 138.089
0.8, 1, 8.77201, 59.7419, 3.12592, 57.7407, -84.0763, 137.903
0.804, 1, 8.82688, 59.718, 3.09164, 57.8211, -84.0092, 137.717
0.808, 1, 8.88171, 59.6941, 3.05739, 57.9014, -83.9422, 137.531
0.812, 1, 8.93648, 59.6702, 3.02318, 57.9817, -83.8753, 137.345
0.816, 1, 8.99121, 59.6464, 2.98899, 58.0619, -83.8084, 137.159
0.82, 1, 9.04589, 59.6226, 2.95483, 58.142, -83.7416, 136.974
0.824, 1, 9.10052, 59.5987, 2.9207, 58.2221, -83.6748, 136.788
0.828, 1, 9.1551, 59.5749, 2.8866, 58.3021, -83.6081, 136.603
0.832, 1, 9.20964, 59.5512, 2.85253, 58.382, -83.5415, 136.418
0.836, 1, 9.26412, 59.5274, 2.8185, 58.4618, -83.4749, 136.233
0.84, 1, 9.31856, 59.5037, 2.78449, 58.5416, -83.4084, 136.048
0.844, 1, 9.37295, 59.48, 2.75051, 58.6213, -83.3419, 135.864
0.848, 1, 9.42729, 59.4563, 2.71656, 58.7009, -83.2755, 135.679
0.852, 1, 9.48158, 59.4326, 2.68265, 58.7805, -83.2091, 135.495
0.856, 1, 9.53582, 59.409, 2.64876, 58.8599, -83.1429, 135.311
0.86, 1, 9.59002, 59.3854, 2.6149, 58.9394, -83.0766, 135.127
0.864, 1, 9.64416, 59.3618, 2.58108, 59.0187, -83.0105, 134.944
0.868, 1, 9.69826, 59.3382, 2.54728, 59.098, -82.9444, 134.76
0.872, 1, 9.75231, 59.3146, 2.51352, 59.1772, -82.8783, 134.577
0.876, 1, 9.80631, 59.2911, 2.47978, 59.2563, -82.8123, 134.393
0.88, 1, 9.86026, 59.2676, 2.44608, 59.3354, -82.7464, 134.21
0.884, 1, 9.91417, 59.2441, 2.4124, 59.4143, -82.6805, 134.027
0.888, 1, 9.96802, 59.2206, 2.37876, 59.4933, -82.6147, 133.845
0.892, 1, 10.0218, 59.1971, 2.34514, 59.5721, -82.5489, 133.662
0.896, 1, 10.0756, 59.1737, 2.31156, 59.6509, -82.4832, 133.48
0.9, 1, 10.1293, 59.1503, 2.27801, 59.7296, -82.4176, 133.297
0.904, 1, 10.183, 59.1269, 2.24449, 59.8082, -82.352, 133.115
0.908, 1, 10.2366, 59.1035, 2.211, 59.8868, -82.2865, 132.933
0.912, 1, 10.2901, 59.0802, 2.17754, 59.9652, -82.2211, 132.752
0.916, 1, 10.3436, 59.0568, 2.14411, 60.0437, -82.1557, 132.57
0.92, 1, 10.3971, 59.0335, 2.11071, 60.122, -82.0903, 132.389
0.924, 1, 10.4505, 59.0103, 2.07734, 60.2003, -82.0251, 132.207
0.928, 1, 10.5039, 58.987, 2.044, 60.2785, -81.9598, 132.026
0.932, 1, 10.5572, 58.9637, 2.01069, 60.3566, -81.8947, 131.845
0.936, 1, 10.6105, 58.9405, 1.97741, 60.4347, -81.8296, 131.665
0.94, 1, 10.6637, 58.9173, 1.94416, 60.5126, -81.7645, 131.484
0.944, 1, 10.7169, 58.8941, 1.91095, 60.5905, -81.6996, 131.304
0.948, 1, 10.77, 58.871, 1.87776, 60.6684, -81.6347, 131.123
0.952, 1, 10.8231, 58.8479, 1.84461, 60.7462, -81.5698, 130.943
0.956, 1, 10.8761, 58.8247, 1.81148, 60.8239, -81.505, 130.763
0.96, 1, 10.9291, 58.8017, 1.77839, 60.9015, -81.4403, 130.584
0.964, 1, 10.982, 58.7786, 1.74532, 60.979, -81.3756, 130.404
0.968, 1, 11.0349, 58.7555, 1.71229, 61.0565, -81.311, 130.225
0.972, 1, 11.0877, 58.7325, 1.67929, 61.1339, -81.2464, 130.045
0.976, 1, 11.1405, 58.7095, 1.64632, 61.2113, -81.1819, 129.866
0.98, 1, 11.1932, 58.6865, 1.61337, 61.2885, -81.1175, 129.687
0.984, 1, 11.2459, 58.6635, 1.58046, 61.3657, -81.0531, 129.508
0.988, 1, 11.2985, 58.6406, 1.54758, 61.4429, -80.9888, 129.33
0.992, 1, 11.3511, 58.6177, 1.51473, 61.5199, -80.9245, 129.151
0.996, 1, 11.4037, 58.5948, 1.48191, 61.5969, -80.8603, 128.973
1, 1, 11.4561, 58.5719, 1.44913, 61.6738, -80.7962, 128.795
1.004, 1, 11.5086, 58.549, 1.41637, 61.7506, -80.7321, 128.617
1.008, 1, 11.561, 58.5262, 1.38364, 61.8274, -80.6681, 128.439
1.012, 1, 11.6133, 58.5034, 1.35094, 61.9041, -80.6041, 128.262
1.016, 1, 11.6656, 58.4806, 1.31828, 61.9807, -80.5402, 128.084
1.02, 1, 11.7178, 58.4578, 1.28564, 62.0573, -80.4764, 127.907
1.024, 1, 11.77, 58.4351, 1.25304, 62.1337, -80.4126, 127.73
1.027, 1, 11.8222, 58.4123, 1.22046, 62.2101, -80.3489, 127.553
1.032, 1, 11.8743, 58.3896, 1.18792, 62.2865, -80.2852, 127.376
1.036, 1, 11.9263, 58.3669, 1.15541, 62.3627, -80.2216, 127.2
1.04, 1, 11.9783, 58.3443, 1.12292, 62.4389, -80.1581, 127.023
1.044, 1, 12.0303, 58.3216, 1.09047, 62.5151, -80.0946, 126.847
1.048, 1, 12.0822, 58.299, 1.05805, 62.5911, -80.0312, 126.671
1.052, 1, 12.134, 58.2764, 1.02566, 62.6671, -79.9678, 126.495
1.055, 1, 12.1858, 58.2538, 0.9933, 62.743, -79.9045, 126.319
1.06, 1, 12.2376, 58.2313, 0.960971, 62.8188, -79.8413, 126.144
1.064, 1, 12.2893, 58.2087, 0.928672, 62.8946, -79.7781, 125.968
1.068, 1, 12.3409, 58.1862, 0.896403, 62.9703, -79.715, 125.793
1.072, 1, 12.3926, 58.1637, 0.864165, 63.0459, -79.6519, 125.618
1.076, 1, 12.4441, 58.1412, 0.831957, 63.1214, -79.5889, 125.443
1.08, 1, 12.4956, 58.1188, 0.79978, 63.1969, -79.5259, 125.268
1.084, 1, 12.5471, 58.0964, 0.767634, 63.2723, -79.4631, 125.093
1.088, 1, 12.5985, 58.0739, 0.735518, 63.3476, -79.4002, 124.919
1.091, 1, 12.6499, 58.0516, 0.703432, 63.4229, -79.3375, 124.745
1.096, 1, 12.7012, 58.0292, 0.671377, 63.4981, -79.2748, 124.571
1.1, 1, 12.7524, 58.0068, 0.639352, 63.5732, -79.2121, 124.397
1.104, 1, 12.8037, 57.9845, 0.607358, 63.6482, -79.1495, 124.223
1.108, 1, 12.8548, 57.9622, 0.575394, 63.7232, -79.087, 124.049
1.112, 1, 12.906, 57.9399, 0.54346, 63.7981, -79.0245, 123.876
1.116, 1, 12.957, 57.9177, 0.511556, 63.873, -78.9621, 123.702
1.119, 1, 13.0081, 57.8954, 0.479683, 63.9477, -78.8998, 123.529
1.124, 1, 13.059, 57.8732, 0.447841, 64.0224, -78.8375, 123.356
1.128, 1, 13.11, 57.851, 0.416028, 64.097, -78.7753, 123.184
1.132, 1, 13.1608, 57.8288, 0.384246, 64.1716, -78.7131, 123.011
1.136, 1, 13.2117, 57.8067, 0.352493, 64.2461, -78.651, 122.838
1.14, 1, 13.2625, 57.7845, 0.320772, 64.3205, -78.5889, 122.666
1.144, 1, 13.3132, 57.7624, 0.28908, 64.3948, -78.5269, 122.494
1.147, 1, 13.3639, 57.7403, 0.257418, 64.4691, -78.465, 122.322
1.152, 1, 13.4145, 57.7182, 0.225787, 64.5433, -78.4031, 122.15
1.156, 1, 13.4651, 57.6962, 0.194185, 64.6174, -78.3413, 121.979
1.16, 1, 13.5156, 57.6742, 0.162614, 64.6914, -78.2795, 121.807
1.164, 1, 13.5661, 57.6522, 0.131073, 64.7654, -78.2178, 121.636
1.168, 1, 13.6166, 57.6302, 0.0995618, 64.8393, -78.1562, 121.465
1.172, 1, 13.667, 57.6082, 0.0680807, 64.9132, -78.0946, 121.294
1.175, 1, 13.7173, 57.5863, 0.0366296, 64.9869, -78.0331, 121.123
1.18, 1, 13.7676, 57.5643, 0.00520838, 65.0606, -77.9716, 120.952
1.184, 1, 13.8179, 57.5424, -0.0261828, 65.1343, -77.9102, 120.782
1.188, 1, 13.8681, 57.5205, -0.0575441, 65.2078, -77.8489, 120.611
1.192, 1, 13.9183, 57.4987, -0.0888755, 65.2813, -77.7876, 120.441
1.196, 1, 13.9684, 57.4768, -0.120177, 65.3548, -77.7263, 120.271
1.2, 1, 14.0184, 57.455, -0.151449, 65.4281, -77.6652, 120.101
1.204, 1, 14.0684, 57.4332, -0.182691, 65.5014, -77.6041, 119.931
1.208, 1, 14.1184, 57.4114, -0.213903, 65.5746, -77.543, 119.762
1.212, 1, 14.1683, 57.3897, -0.245085, 65.6477, -77.482, 119.593
1.216, 1, 14.2182, 57.3679, -0.276237, 65.7208, -77.4211, 119.423
1.22, 1, 14.268, 57.3462, -0.30736, 65.7938, -77.3602, 119.254
1.224, 1, 14.3178, 57.3245, -0.338453, 65.8667, -77.2994, 119.085
1.228, 1, 14.3675, 57.3028, -0.369516, 65.9396, -77.2386, 118.917
1.232, 1, 14.4172, 57.2812, -0.40055, 66.0124, -77.1779, 118.748
1.236, 1, 14.4668, 57.2595, -0.431554, 66.0851, -77.1172, 118.58
1.24, 1, 14.5164, 57.2379, -0.462529, 66.1578, -77.0566, 118.411
1.244, 1, 14.566, 57.2163, -0.493474, 66.2304, -76.9961, 118.243
1.248, 1, 14.6155, 57.1948, -0.524389, 66.3029, -76.9356, 118.075
1.252, 1, 14.6649, 57.1732, -0.555275, 66.3753, -76.8752, 117.908
1.256, 1, 14.7143, 57.1517, -0.586131, 66.4477, -76.8148, 117.74
1.26, 1, 14.7637, 57.1302, -0.616958, 66.52, -76.7545, 117.573
1.264, 1, 14.813, 57.1087, -0.647755, 66.5922, -76.6943, 117.405
1.267, 1, 14.8622, 57.0872, -0.678523, 66.6644, -76.6341, 117.238
1.272, 1, 14.9114, 57.0658, -0.709262, 66.7365, -76.574, 117.071
1.276, 1, 14.9606, 57.0443, -0.739971, 66.8085, -76.5139, 116.904
1.28, 1, 15.0097, 57.0229, -0.770651, 66.8805, -76.4539, 116.738
1.284, 1, 15.0588, 57.0015, -0.801302, 66.9524, -76.3939, 116.571
1.288, 1, 15.1078, 56.9802, -0.831923, 67.0242, -76.334, 116.405
1.292, 1, 15.1568, 56.9588, -0.862515, 67.096, -76.2742, 116.239
1.295, 1, 15.2057, 56.9375, -0.893078, 67.1677, -76.2144, 116.073
1.3, 1, 15.2546, 56.9162, -0.923612, 67.2393, -76.1547, 115.907
1.304, 1, 15.3034, 56.8949, -0.954116, 67.3109, -76.095, 115.741
1.308, 1, 15.3522, 56.8736, -0.984591, 67.3823, -76.0354, 115.576
1.312, 1, 15.401, 56.8524, -1.01504, 67.4538, -75.9758, 115.41
1.316, 1, 15.4497, 56.8312, -1.04545, 67.5251, -75.9163, 115.245
1.32, 1, 15.4983, 56.81, -1.07584, 67.5964, -75.8569, 115.08
1.324, 1, 15.5469, 56.7888, -1.1062, 67.6676, -75.7975, 114.915
1.328, 1, 15.5955, 56.7676, -1.13653, 67.7387, -75.7382, 114.75
1.332, 1, 15.644, 56.7465, -1.16684, 67.8098, -75.6789, 114.586
1.336, 1, 15.6924, 56.7253, -1.19711, 67.8808, -75.6197, 114.421
1.34, 1, 15.7409, 56.7042, -1.22735, 67.9517, -75.5605, 114.257
1.344, 1, 15.7892, 56.6832, -1.25757, 68.0226, -75.5014, 114.093
1.348, 1, 15.8375, 56.6621, -1.28775, 68.0934, -75.4424, 113.929
1.352, 1, 15.8858, 56.641, -1.31791, 68.1642, -75.3834, 113.765
1.356, 1, 15.9341, 56.62, -1.34804, 68.2348, -75.3244, 113.602
1.36, 1, 15.9822, 56.599, -1.37814, 68.3054, -75.2655, 113.438
1.364, 1, 16.0304, 56.578, -1.40821, 68.376, -75.2067, 113.275
1.368, 1, 16.0785, 56.5571, -1.43825, 68.4464, -75.148, 113.112
1.372, 1, 16.1265, 56.5361, -1.46826, 68.5168, -75.0893, 112.949
1.376, 1, 16.1745, 56.5152, -1.49824, 68.5872, -75.0306, 112.786
1.38, 1, 16.2225, 56.4943, -1.5282, 68.6574, -74.972, 112.623
1.384, 1, 16.2704, 56.4734, -1.55813, 68.7276, -74.9135, 112.46
1.388, 1, 16.3183, 56.4526, -1.58803, 68.7978, -74.855, 112.298
1.392, 1, 16.3661, 56.4317, -1.6179, 68.8678, -74.7965, 112.136
1.396, 1, 16.4139, 56.4109, -1.64774, 68.9378, -74.7382, 111.974
1.4, 1, 16.4616, 56.3901, -1.67755, 69.0077, -74.6798, 111.812
1.404, 1, 16.5093, 56.3693, -1.70734, 69.0776, -74.6216, 111.65
1.408, 1, 16.5569, 56.3485, -1.73709, 69.1474, -74.5634, 111.488
1.412, 1, 16.6045, 56.3278, -1.76682, 69.2171, -74.5052, 111.327
1.416, 1, 16.6521, 56.3071, -1.79652, 69.2868, -74.4471, 111.165
1.42, 1, 16.6996, 56.2864, -1.82619, 69.3564, -74.3891, 111.004
1.424, 1, 16.747, 56.2657, -1.85584, 69.4259, -74.3311, 110.843
1.428, 1, 16.7945, 56.245, -1.88545, 69.4954, -74.2731, 110.682
1.432, 1, 16.8418, 56.2243, -1.91504, 69.5648, -74.2153, 110.522
1.436, 1, 16.8891, 56.2037, -1.9446, 69.6341, -74.1574, 110.361
1.44, 1, 16.9364, 56.1831, -1.97413, 69.7034, -74.0997, 110.201
1.444, 1, 16.9837, 56.1625, -2.00363, 69.7726, -74.042, 110.04
1.448, 1, 17.0309, 56.142, -2.03311, 69.8418, -73.9843, 109.88
1.452, 1, 17.078, 56.1214, -2.06256, 69.9108, -73.9267, 109.72
1.456, 1, 17.1251, 56.1009, -2.09198, 69.9798, -73.8691, 109.561
1.46, 1, 17.1722, 56.0804, -2.12137, 70.0488, -73.8116, 109.401
1.464, 1, 17.2192, 56.0599, -2.15074, 70.1177, -73.7542, 109.241
1.468, 1, 17.2661, 56.0394, -2.18007, 70.1865, -73.6968, 109.082
1.472, 1, 17.3131, 56.0189, -2.20938, 70.2552, -73.6395, 108.923
1.476, 1, 17.3599, 55.9985, -2.23867, 70.3239, -73.5822, 108.764
1.48, 1, 17.4068, 55.9781, -2.26792, 70.3925, -73.525, 108.605
1.484, 1, 17.4536, 55.9577, -2.29715, 70.4611, -73.4678, 108.446
1.488, 1, 17.5003, 55.9373, -2.32635, 70.5296, -73.4107, 108.288
1.492, 1, 17.547, 55.917, -2.35552, 70.598, -73.3536, 108.129
1.496, 1, 17.5937, 55.8966, -2.38466, 70.6664, -73.2966, 107.971
1.5, 1, 17.6403, 55.8763, -2.41378, 70.7347, -73.2396, 107.813
1.504, 1, 17.6869, 55.856, -2.44287, 70.8029, -73.1827, 107.655
1.508, 1, 17.7334, 55.8357, -2.47194, 70.8711, -73.1259, 107.497
1.512, 1, 17.7799, 55.8155, -2.50097, 70.9392, -73.0691, 107.339
1.516, 1, 17.8263, 55.7952, -2.52998, 71.0072, -73.0123, 107.181
1.52, 1, 17.8727, 55.775, -2.55896, 71.0752, -72.9556, 107.024
1.524, 1, 17.9191, 55.7548, -2.58792, 71.1431, -72.899, 106.867
1.528, 1, 17.9654, 55.7346, -2.61684, 71.211, -72.8424, 106.71
1.532, 1, 18.0117, 55.7144, -2.64574, 71.2788, -72.7859, 106.553
1.536, 1, 18.0579, 55.6943, -2.67462, 71.3465, -72.7294, 106.396
1.54, 1, 18.1041, 55.6742, -2.70346, 71.4142, -72.6729, 106.239
1.544, 1, 18.1502, 55.654, -2.73228, 71.4818, -72.6166, 106.083
1.548, 1, 18.1963, 55.634, -2.76108, 71.5493, -72.5602, 105.926
1.552, 1, 18.2424, 55.6139, -2.78984, 71.6168, -72.504, 105.77
1.556, 1, 18.2884, 55.5938, -2.81858, 71.6842, -72.4477, 105.614
1.56, 1, 18.3344, 55.5738, -2.8473, 71.7515, -72.3916, 105.458
1.564, 1, 18.3803, 55.5538, -2.87598, 71.8188, -72.3355, 105.302
1.568, 1, 18.4262, 55.5338, -2.90464, 71.8861, -72.2794, 105.146
1.572, 1, 18.472, 55.5138, -2.93328, 71.9532, -72.2234, 104.991
1.576, 1, 18.5178, 55.4938, -2.96188, 72.0203, -72.1674, 104.835
1.58, 1, 18.5636, 55.4739, -2.99046, 72.0874, -72.1115, 104.68
1.584, 1, 18.6093, 55.454, -3.01902, 72.1543, -72.0557, 104.525
1.588, 1, 18.655, 55.434, -3.04754, 72.2212, -71.9999, 104.37
1.592, 1, 18.7006, 55.4142, -3.07605, 72.2881, -71.9441, 104.215
1.596, 1, 18.7462, 55.3943, -3.10452, 72.3549, -71.8884, 104.061
1.6, 1, 18.7917, 55.3744, -3.13297, 72.4216, -71.8327, 103.906
1.604, 1, 18.8372, 55.3546, -3.16139, 72.4883, -71.7771, 103.752
1.608, 1, 18.8827, 55.3348, -3.18979, 72.5549, -71.7216, 103.598
1.612, 1, 18.9281, 55.315, -3.21816, 72.6214, -71.6661, 103.443
1.616, 1, 18.9735, 55.2952, -3.2465, 72.6879, -71.6107, 103.289
1.62, 1, 19.0188, 55.2754, -3.27482, 72.7543, -71.5553, 103.136
1.624, 1, 19.0641, 55.2557, -3.30311, 72.8207, -71.4999, 102.982
1.628, 1, 19.1094, 55.236, -3.33138, 72.887, -71.4446, 102.828
1.632, 1, 19.1546, 55.2163, -3.35962, 72.9533, -71.3894, 102.675
1.636, 1, 19.1998, 55.1966, -3.38783, 73.0194, -71.3342, 102.522
1.64, 1, 19.2449, 55.1769, -3.41602, 73.0856, -71.279, 102.369
1.644, 1, 19.29, 55.1573, -3.44418, 73.1516, -71.224, 102.216
1.648, 1, 19.335, 55.1376, -3.47232, 73.2176, -71.1689, 102.063
1.652, 1, 19.38, 55.118, -3.50043, 73.2835, -71.1139, 101.91
1.656, 1, 19.425, 55.0984, -3.52851, 73.3494, -71.059, 101.758
1.66, 1, 19.4699, 55.0788, -3.55657, 73.4152, -71.0041, 101.605
1.664, 1, 19.5148, 55.0593, -3.58461, 73.481, -70.9492, 101.453
1.668, 1, 19.5597, 55.0397, -3.61262, 73.5467, -70.8945, 101.301
1.672, 1, 19.6045, 55.0202, -3.6406, 73.6123, -70.8397, 101.149
1.676, 1, 19.6492, 55.0007, -3.66856, 73.6779, -70.785, 100.997
1.68, 1, 19.6939, 54.9812, -3.69649, 73.7434, -70.7304, 100.845
1.684, 1, 19.7386, 54.9617, -3.7244, 73.8089, -70.6758, 100.694
1.688, 1, 19.7833, 54.9423, -3.75228, 73.8743, -70.6213, 100.542
1.692, 1, 19.8278, 54.9228, -3.78013, 73.9396, -70.5668, 100.391
1.696, 1, 19.8724, 54.9034, -3.80797, 74.0049, -70.5123, 100.24
1.7, 1, 19.9169, 54.884, -3.83577, 74.0701, -70.4579, 100.089
1.704, 1, 19.9614, 54.8646, -3.86355, 74.1353, -70.4036, 99.9377
1.708, 1, 20.0058, 54.8452, -3.89131, 74.2004, -70.3493, 99.787
1.712, 1, 20.0502, 54.8259, -3.91904, 74.2654, -70.295, 99.6364
1.716, 1, 20.0946, 54.8066, -3.94674, 74.3304, -70.2408, 99.4859
1.72, 1, 20.1389, 54.7872, -3.97442, 74.3954, -70.1867, 99.3355
1.724, 1, 20.1832, 54.7679, -4.00208, 74.4602, -70.1326, 99.1853
1.728, 1, 20.2274, 54.7487, -4.02971, 74.525, -70.0786, 99.0352
1.732, 1, 20.2716, 54.7294, -4.05732, 74.5898, -70.0246, 98.8853
1.736, 1, 20.3158, 54.7101, -4.0849, 74.6545, -69.9706, 98.7355
1.74, 1, 20.3599, 54.6909, -4.11245, 74.7191, -69.9167, 98.5858
1.744, 1, 20.404, 54.6717, -4.13998, 74.7837, -69.8628, 98.4362
1.748, 1, 20.448, 54.6525, -4.16749, 74.8482, -69.809, 98.2868
1.752, 1, 20.492, 54.6333, -4.19497, 74.9127, -69.7553, 98.1375
1.756, 1, 20.536, 54.6142, -4.22243, 74.9771, -69.7016, 97.9884
1.76, 1, 20.5799, 54.595, -4.24986, 75.0414, -69.6479, 97.8394
1.764, 1, 20.6238, 54.5759, -4.27727, 75.1057, -69.5943, 97.6905
1.768, 1, 20.6676, 54.5568, -4.30465, 75.17, -69.5407, 97.5418
1.772, 1, 20.7114, 54.5377, -4.33201, 75.2341, -69.4872, 97.3932
1.776, 1, 20.7552, 54.5186, -4.35935, 75.2982, -69.4337, 97.2447
1.78, 1, 20.7989, 54.4996, -4.38666, 75.3623, -69.3803, 97.0963
1.784, 1, 20.8426, 54.4805, -4.41395, 75.4263, -69.3269, 96.9481
1.788, 1, 20.8863, 54.4615, -4.44121, 75.4903, -69.2736, 96.8
1.792, 1, 20.9299, 54.4425, -4.46845, 75.5542, -69.2203, 96.6521
1.796, 1, 20.9734, 54.4235, -4.49566, 75.618, -69.1671, 96.5042
1.8, 1, 21.017, 54.4045, -4.52285, 75.6818, -69.1139, 96.3565
1.804, 1, 21.0605, 54.3856, -4.55002, 75.7455, -69.0607, 96.209
1.808, 1, 21.1039, 54.3666, -4.57716, 75.8092, -69.0076, 96.0615
1.812, 1, 21.1473, 54.3477, -4.60428, 75.8728, -68.9546, 95.9142
1.816, 1, 21.1907, 54.3288, -4.63138, 75.9363, -68.9016, 95.7671
1.82, 1, 21.2341, 54.3099, -4.65845, 75.9998, -68.8486, 95.62
1.824, 1, 21.2774, 54.291, -4.6855, 76.0633, -68.7957, 95.4731
1.828, 1, 21.3206, 54.2722, -4.71252, 76.1267, -68.7428, 95.3263
1.832, 1, 21.3639, 54.2533, -4.73952, 76.19, -68.69, 95.1796
1.836, 1, 21.4071, 54.2345, -4.7665, 76.2533, -68.6372, 95.0331
1.84, 1, 21.4502, 54.2157, -4.79345, 76.3165, -68.5845, 94.8867
1.844, 1, 21.4933, 54.1969, -4.82038, 76.3797, -68.5318, 94.7404
1.848, 1, 21.5364, 54.1781, -4.84729, 76.4428, -68.4792, 94.5943
1.852, 1, 21.5795, 54.1594, -4.87417, 76.5058, -68.4266, 94.4482
1.856, 1, 21.6225, 54.1406, -4.90103, 76.5688, -68.3741, 94.3023
1.86, 1, 21.6654, 54.1219, -4.92787, 76.6318, -68.3216, 94.1566
1.864, 1, 21.7084, 54.1032, -4.95468, 76.6947, -68.2691, 94.0109
1.868, 1, 21.7512, 54.0845, -4.98147, 76.7575, -68.2167, 93.8654
1.872, 1, 21.7941, 54.0658, -5.00824, 76.8203, -68.1644, 93.72
1.876, 1, 21.8369, 54.0471, -5.03498, 76.883, -68.112, 93.5747
1.88, 1, 21.8797, 54.0285, -5.0617, 76.9457, -68.0598, 93.4296
1.884, 1, 21.9224, 54.0099, -5.0884, 77.0083, -68.0075, 93.2846
1.888, 1, 21.9651, 53.9912, -5.11508, 77.0709, -67.9554, 93.1397
1.892, 1, 22.0078, 53.9726, -5.14173, 77.1334, -67.9032, 92.9949
1.896, 1, 22.0505, 53.9541, -5.16836, 77.1959, -67.8511, 92.8503
1.9, 1, 22.0931, 53.9355, -5.19496, 77.2583, -67.7991, 92.7057
1.904, 1, 22.1356, 53.9169, -5.22155, 77.3207, -67.7471, 92.5613
1.908, 1, 22.1781, 53.8984, -5.24811, 77.383, -67.6951, 92.4171
1.912, 1, 22.2206, 53.8799, -5.27464, 77.4452, -67.6432, 92.2729
1.916, 1, 22.2631, 53.8614, -5.30116, 77.5074, -67.5913, 92.1289
1.92, 1, 22.3055, 53.8429, -5.32765, 77.5695, -67.5395, 91.985
1.924, 1, 22.3479, 53.8244, -5.35412, 77.6316, -67.4877, 91.8412
1.928, 1, 22.3902, 53.806, -5.38057, 77.6937, -67.436, 91.6976
1.932, 1, 22.4325, 53.7875, -5.40699, 77.7557, -67.3843, 91.554
1.936, 1, 22.4748, 53.7691, -5.4334, 77.8176, -67.3326, 91.4106
1.94, 1, 22.517, 53.7507, -5.45978, 77.8795, -67.281, 91.2673
1.944, 1, 22.5592, 53.7323, -5.48614, 77.9413, -67.2295, 91.1241
1.948, 1, 22.6014, 53.7139, -5.51247, 78.0031, -67.178, 90.9811
1.952, 1, 22.6435, 53.6956, -5.53878, 78.0648, -67.1265, 90.8382
1.956, 1, 22.6856, 53.6772, -5.56508, 78.1264, -67.0751, 90.6953
1.96, 1, 22.7277, 53.6589, -5.59134, 78.1881, -67.0237, 90.5527
1.964, 1, 22.7697, 53.6406, -5.61759, 78.2496, -66.9723, 90.4101
1.968, 1, 22.8117, 53.6223, -5.64382, 78.3111, -66.921, 90.2676
1.972, 1, 22.8536, 53.604, -5.67002, 78.3726, -66.8698, 90.1253
1.976, 1, 22.8956, 53.5857, -5.6962, 78.434, -66.8186, 89.9831
1.98, 1, 22.9374, 53.5675, -5.72236, 78.4954, -66.7674, 89.841
1.984, 1, 22.9793, 53.5492, -5.7485, 78.5567, -66.7163, 89.699
1.988, 1, 23.0211, 53.531, -5.77461, 78.6179, -66.6652, 89.5572
1.992, 1, 23.0629, 53.5128, -5.8007, 78.6791, -66.6141, 89.4155
1.996, 1, 23.1046, 53.4946, -5.82678, 78.7403, -66.5631, 89.2738
1.999, 1, 23.1463, 53.4764, -5.85282, 78.8014, -66.5122, 89.1323
2.004, 1, 23.188, 53.4582, -5.87885, 78.8625, -66.4613, 88.991
2.008, 1, 23.2296, 53.4401, -5.90486, 78.9235, -66.4104, 88.8497
2.012, 1, 23.2712, 53.422, -5.93084, 78.9844, -66.3595, 88.7085
2.015, 1, 23.3128, 53.4039, -5.95681, 79.0453, -66.3088, 88.5675
2.019, 1, 23.3543, 53.3857, -5.98275, 79.1062, -66.258, 88.4266
2.024, 1, 23.3958, 53.3677, -6.00867, 79.167, -66.2073, 88.2858
2.028, 1, 23.4373, 53.3496, -6.03457, 79.2277, -66.1566, 88.1451
2.031, 1, 23.4787, 53.3315, -6.06044, 79.2884, -66.106, 88.0046
2.036, 1, 23.5201, 53.3135, -6.0863, 79.3491, -66.0554, 87.8641
2.04, 1, 23.5615, 53.2955, -6.11213, 79.4097, -66.0049, 87.7238
2.044, 1, 23.6028, 53.2774, -6.13795, 79.4702, -65.9544, 87.5836
2.048, 1, 23.6441, 53.2594, -6.16374, 79.5307, -65.904, 87.4435
2.051, 1, 23.6854, 53.2415, -6.18951, 79.5912, -65.8535, 87.3035
2.055, 1, 23.7266, 53.2235, -6.21526, 79.6515, -65.8032, 87.1637
2.06, 1, 23.7678, 53.2055, -6.24099, 79.7119, -65.7528, 87.0239
2.064, 1, 23.8089, 53.1876, -6.26669, 79.7722, -65.7026, 86.8843
2.068, 1, 23.8501, 53.1697, -6.29238, 79.8325, -65.6523, 86.7447
2.071, 1, 23.8912, 53.1518, -6.31804, 79.8926, -65.6021, 86.6053
2.076, 1, 23.9322, 53.1339, -6.34369, 79.9528, -65.5519, 86.466
2.08, 1, 23.9732, 53.116, -6.36931, 80.0129, -65.5018, 86.3269
2.084, 1, 24.0142, 53.0981, -6.39491, 80.073, -65.4517, 86.1878
2.087, 1, 24.0552, 53.0803, -6.4205, 80.133, -65.4017, 86.0488
2.092, 1, 24.0961, 53.0624, -6.44606, 80.1929, -65.3517, 85.91
2.096, 1, 24.137, 53.0446, -6.4716, 80.2528, -65.3017, 85.7712
2.1, 1, 24.1779, 53.0268, -6.49712, 80.3127, -65.2518, 85.6326
2.104, 1, 24.2187, 53.009, -6.52262, 80.3725, -65.2019, 85.4941
2.107, 1, 24.2595, 52.9912, -6.54809, 80.4323, -65.1521, 85.3557
2.111, 1, 24.3003, 52.9735, -6.57355, 80.492, -65.1023, 85.2174
2.116, 1, 24.341, 52.9557, -6.59899, 80.5516, -65.0525, 85.0793
2.12, 1, 24.3817, 52.938, -6.62441, 80.6113, -65.0028, 84.9412
2.124, 1, 24.4223, 52.9202, -6.6498, 80.6708, -64.9531, 84.8033
2.127, 1, 24.463, 52.9025, -6.67518, 80.7304, -64.9035, 84.6654
2.132, 1, 24.5036, 52.8848, -6.70054, 80.7898, -64.8539, 84.5277
2.136, 1, 24.5441, 52.8672, -6.72587, 80.8493, -64.8043, 84.3901
2.14, 1, 24.5847, 52.8495, -6.75119, 80.9087, -64.7548, 84.2525
2.143, 1, 24.6252, 52.8318, -6.77648, 80.968, -64.7053, 84.1151
2.148, 1, 24.6656, 52.8142, -6.80176, 81.0273, -64.6558, 83.9779
2.152, 1, 24.7061, 52.7966, -6.82701, 81.0865, -64.6064, 83.8407
2.156, 1, 24.7465, 52.779, -6.85225, 81.1457, -64.5571, 83.7036
2.16, 1, 24.7868, 52.7614, -6.87747, 81.2049, -64.5078, 83.5666
2.163, 1, 24.8272, 52.7438, -6.90266, 81.264, -64.4585, 83.4298
2.168, 1, 24.8675, 52.7262, -6.92784, 81.323, -64.4092, 83.293
2.172, 1, 24.9078, 52.7087, -6.95299, 81.382, -64.36, 83.1564
2.176, 1, 24.948, 52.6911, -6.97813, 81.441, -64.3108, 83.0198
2.179, 1, 24.9882, 52.6736, -7.00325, 81.4999, -64.2617, 82.8834
2.184, 1, 25.0284, 52.6561, -7.02834, 81.5588, -64.2126, 82.7471
2.188, 1, 25.0686, 52.6386, -7.05342, 81.6176, -64.1635, 82.6109
2.192, 1, 25.1087, 52.6211, -7.07848, 81.6764, -64.1145, 82.4748
2.196, 1, 25.1488, 52.6036, -7.10351, 81.7351, -64.0655, 82.3388
2.199, 1, 25.1888, 52.5862, -7.12853, 81.7938, -64.0166, 82.2029
2.204, 1, 25.2288, 52.5687, -7.15353, 81.8524, -63.9677, 82.0671
2.208, 1, 25.2688, 52.5513, -7.17851, 81.911, -63.9188, 81.9314
2.212, 1, 25.3088, 52.5339, -7.20347, 81.9695, -63.87, 81.7958
2.216, 1, 25.3487, 52.5165, -7.22841, 82.0281, -63.8212, 81.6603
2.219, 1, 25.3886, 52.4991, -7.25333, 82.0865, -63.7725, 81.525
2.224, 1, 25.4285, 52.4817, -7.27823, 82.1449, -63.7238, 81.3897
2.228, 1, 25.4683, 52.4643, -7.30312, 82.2033, -63.6751, 81.2545
2.232, 1, 25.5082, 52.447, -7.32798, 82.2616, -63.6264, 81.1195
2.235, 1, 25.5479, 52.4296, -7.35283, 82.3199, -63.5778, 80.9845
2.24, 1, 25.5877, 52.4123, -7.37765, 82.3781, -63.5293, 80.8497
2.244, 1, 25.6274, 52.395, -7.40246, 82.4363, -63.4807, 80.7149
2.248, 1, 25.6671, 52.3777, -7.42725, 82.4945, -63.4323, 80.5803
2.252, 1, 25.7067, 52.3604, -7.45201, 82.5526, -63.3838, 80.4458
2.255, 1, 25.7464, 52.3431, -7.47676, 82.6106, -63.3354, 80.3113
2.259, 1, 25.786, 52.3259, -7.50149, 82.6686, -63.287, 80.177
2.264, 1, 25.8255, 52.3086, -7.52621, 82.7266, -63.2387, 80.0428
2.268, 1, 25.8651, 52.2914, -7.5509, 82.7845, -63.1904, 79.9086
2.272, 1, 25.9046, 52.2742, -7.57557, 82.8424, -63.1421, 79.7746
2.275, 1, 25.944, 52.257, -7.60023, 82.9002, -63.0939, 79.6407
2.28, 1, 25.9835, 52.2398, -7.62487, 82.958, -63.0457, 79.5068
2.284, 1, 26.0229, 52.2226, -7.64948, 83.0157, -62.9975, 79.3731
2.288, 1, 26.0623, 52.2054, -7.67408, 83.0734, -62.9494, 79.2395
2.291, 1, 26.1016, 52.1883, -7.69866, 83.1311, -62.9013, 79.106
2.296, 1, 26.141, 52.1712, -7.72323, 83.1887, -62.8533, 78.9726
2.3, 1, 26.1803, 52.154, -7.74777, 83.2463, -62.8052, 78.8392
2.304, 1, 26.2195, 52.1369, -7.7723, 83.3038, -62.7573, 78.706
2.308, 1, 26.2588, 52.1198, -7.7968, 83.3613, -62.7093, 78.5729
2.311, 1, 26.298, 52.1027, -7.82129, 83.4187, -62.6614, 78.4399
2.316, 1, 26.3371, 52.0856, -7.84576, 83.4761, -62.6135, 78.307
2.32, 1, 26.3763, 52.0686, -7.87021, 83.5335, -62.5657, 78.1741
2.324, 1, 26.4154, 52.0515, -7.89465, 83.5908, -62.5179, 78.0414
2.328, 1, 26.4545, 52.0345, -7.91906, 83.6481, -62.4702, 77.9088
2.331, 1, 26.4936, 52.0175, -7.94346, 83.7053, -62.4224, 77.7763
2.336, 1, 26.5326, 52.0005, -7.96784, 83.7625, -62.3747, 77.6439
2.34, 1, 26.5716, 51.9835, -7.9922, 83.8196, -62.3271, 77.5115
2.344, 1, 26.6106, 51.9665, -8.01654, 83.8767, -62.2795, 77.3793
2.347, 1, 26.6495, 51.9495, -8.04087, 83.9338, -62.2319, 77.2472
2.352, 1, 26.6884, 51.9325, -8.06518, 83.9908, -62.1843, 77.1151
2.356, 1, 26.7273, 51.9156, -8.08946, 84.0478, -62.1368, 76.9832
2.36, 1, 26.7662, 51.8986, -8.11374, 84.1047, -62.0893, 76.8514
2.364, 1, 26.805, 51.8817, -8.13799, 84.1616, -62.0419, 76.7196
2.367, 1, 26.8438, 51.8648, -8.16222, 84.2185, -61.9945, 76.588
2.372, 1, 26.8826, 51.8479, -8.18644, 84.2753, -61.9471, 76.4564
2.376, 1, 26.9213, 51.831, -8.21064, 84.332, -61.8998, 76.325
2.38, 1, 26.9601, 51.8141, -8.23482, 84.3887, -61.8525, 76.1936
2.383, 1, 26.9987, 51.7973, -8.25899, 84.4454, -61.8052, 76.0624
2.388, 1, 27.0374, 51.7804, -8.28313, 84.5021, -61.7579, 75.9312
2.392, 1, 27.076, 51.7636, -8.30726, 84.5587, -61.7108, 75.8001
2.396, 1, 27.1146, 51.7468, -8.33138, 84.6152, -61.6636, 75.6692
2.4, 1, 27.1532, 51.7299, -8.35547, 84.6717, -61.6165, 75.5383
2.403, 1, 27.1918, 51.7131, -8.37955, 84.7282, -61.5694, 75.4075
2.408, 1, 27.2303, 51.6964, -8.4036, 84.7846, -61.5223, 75.2768
2.412, 1, 27.2688, 51.6796, -8.42765, 84.841, -61.4753, 75.1462
2.416, 1, 27.3072, 51.6628, -8.45167, 84.8974, -61.4283, 75.0157
2.42, 1, 27.3457, 51.6461, -8.47568, 84.9537, -61.3813, 74.8853
2.423, 1, 27.3841, 51.6293, -8.49967, 85.01, -61.3344, 74.755
2.428, 1, 27.4225, 51.6126, -8.52364, 85.0662, -61.2875, 74.6248
2.432, 1, 27.4608, 51.5959, -8.54759, 85.1224, -61.2406, 74.4947
2.436, 1, 27.4991, 51.5792, -8.57153, 85.1785, -61.1938, 74.3647
2.439, 1, 27.5374, 51.5625, -8.59545, 85.2346, -61.147, 74.2347
2.444, 1, 27.5757, 51.5458, -8.61935, 85.2907, -61.1002, 74.1049
2.448, 1, 27.614, 51.5291, -8.64324, 85.3467, -61.0535, 73.9752
2.452, 1, 27.6522, 51.5125, -8.66711, 85.4027, -61.0068, 73.8455
2.456, 1, 27.6904, 51.4958, -8.69096, 85.4587, -60.9602, 73.7159
2.459, 1, 27.7285, 51.4792, -8.71479, 85.5146, -60.9135, 73.5865
2.464, 1, 27.7667, 51.4626, -8.73861, 85.5705, -60.8669, 73.4571
2.468, 1, 27.8048, 51.446, -8.76241, 85.6263, -60.8204, 73.3278
2.472, 1, 27.8428, 51.4294, -8.7862, 85.6821, -60.7738, 73.1986
2.476, 1, 27.8809, 51.4128, -8.80997, 85.7378, -60.7274, 73.0695
2.479, 1, 27.9189, 51.3962, -8.83372, 85.7935, -60.6809, 72.9405
2.484, 1, 27.9569, 51.3796, -8.85745, 85.8492, -60.6345, 72.8116
2.488, 1, 27.9949, 51.3631, -8.88117, 85.9048, -60.5881, 72.6828
2.492, 1, 28.0328, 51.3465, -8.90487, 85.9604, -60.5417, 72.554
2.495, 1, 28.0708, 51.33, -8.92855, 86.016, -60.4954, 72.4254
2.5, 1, 28.1087, 51.3135, -8.95222, 86.0715, -60.4491, 72.2968
2.504, 1, 28.1465, 51.297, -8.97587, 86.127, -60.4028, 72.1683
2.508, 1, 28.1844, 51.2805, -8.9995, 86.1824, -60.3566, 72.04
2.512, 1, 28.2222, 51.264, -9.02312, 86.2378, -60.3104, 71.9117
2.515, 1, 28.26, 51.2475, -9.04672, 86.2932, -60.2642, 71.7835
2.52, 1, 28.2977, 51.2311, -9.07031, 86.3485, -60.2181, 71.6554
2.524, 1, 28.3355, 51.2146, -9.09388, 86.4038, -60.172, 71.5273
2.528, 1, 28.3732, 51.1982, -9.11743, 86.459, -60.1259, 71.3994
2.531, 1, 28.4109, 51.1818, -9.14097, 86.5142, -60.0798, 71.2716
2.536, 1, 28.4485, 51.1654, -9.16449, 86.5694, -60.0338, 71.1438
2.54, 1, 28.4861, 51.149, -9.18799, 86.6245, -59.9879, 71.0161
2.544, 1, 28.5237, 51.1326, -9.21148, 86.6796, -59.9419, 70.8885
2.548, 1, 28.5613, 51.1162, -9.23495, 86.7347, -59.896, 70.7611
2.551, 1, 28.5989, 51.0998, -9.2584, 86.7897, -59.8501, 70.6337
2.556, 1, 28.6364, 51.0835, -9.28184, 86.8447, -59.8043, 70.5063
2.56, 1, 28.6739, 51.0671, -9.30527, 86.8996, -59.7584, 70.3791
2.564, 1, 28.7114, 51.0508, -9.32867, 86.9545, -59.7126, 70.252
2.568, 1, 28.7488, 51.0345, -9.35206, 87.0094, -59.6669, 70.1249
2.571, 1, 28.7863, 51.0182, -9.37544, 87.0642, -59.6212, 69.9979
2.576, 1, 28.8237, 51.0018, -9.3988, 87.119, -59.5755, 69.871
2.58, 1, 28.861, 50.9856, -9.42214, 87.1738, -59.5298, 69.7442
2.584, 1, 28.8984, 50.9693, -9.44547, 87.2285, -59.4842, 69.6175
2.587, 1, 28.9357, 50.953, -9.46878, 87.2832, -59.4386, 69.4909
2.592, 1, 28.973, 50.9367, -9.49208, 87.3378, -59.393, 69.3643
2.596, 1, 29.0103, 50.9205, -9.51536, 87.3924, -59.3474, 69.2379
2.6, 1, 29.0475, 50.9043, -9.53863, 87.447, -59.3019, 69.1115
2.604, 1, 29.0848, 50.888, -9.56188, 87.5016, -59.2565, 68.9852
2.607, 1, 29.122, 50.8718, -9.58511, 87.5561, -59.211, 68.859
2.612, 1, 29.1591, 50.8556, -9.60833, 87.6105, -59.1656, 68.7329
2.616, 1, 29.1963, 50.8394, -9.63153, 87.6649, -59.1202, 68.6069
2.62, 1, 29.2334, 50.8233, -9.65472, 87.7193, -59.0748, 68.4809
2.624, 1, 29.2705, 50.8071, -9.67789, 87.7737, -59.0295, 68.355
2.627, 1, 29.3076, 50.7909, -9.70105, 87.828, -58.9842, 68.2293
2.632, 1, 29.3446, 50.7748, -9.72419, 87.8823, -58.9389, 68.1036
2.636, 1, 29.3817, 50.7586, -9.74731, 87.9365, -58.8937, 67.978
2.64, 1, 29.4187, 50.7425, -9.77042, 87.9907, -58.8485, 67.8524
2.643, 1, 29.4556, 50.7264, -9.79352, 88.0449, -58.8033, 67.727
2.648, 1, 29.4926, 50.7103, -9.8166, 88.0991, -58.7582, 67.6016
2.652, 1, 29.5295, 50.6942, -9.83966, 88.1532, -58.713, 67.4763
2.656, 1, 29.5664, 50.6781, -9.86271, 88.2072, -58.6679, 67.3511
2.66, 1, 29.6033, 50.662, -9.88575, 88.2613, -58.6229, 67.226
2.663, 1, 29.6402, 50.646, -9.90877, 88.3152, -58.5779, 67.1009
2.668, 1, 29.677, 50.6299, -9.93177, 88.3692, -58.5328, 66.976
2.672, 1, 29.7138, 50.6139, -9.95476, 88.4231, -58.4879, 66.8511
2.676, 1, 29.7506, 50.5978, -9.97773, 88.477, -58.4429, 66.7263
2.679, 1, 29.7873, 50.5818, -10.0007, 88.5309, -58.398, 66.6016
2.684, 1, 29.8241, 50.5658, -10.0236, 88.5847, -58.3531, 66.477
2.688, 1, 29.8608, 50.5498, -10.0466, 88.6385, -58.3083, 66.3524
2.692, 1, 29.8975, 50.5338, -10.0695, 88.6922, -58.2635, 66.228
2.696, 1, 29.9341, 50.5178, -10.0924, 88.7459, -58.2187, 66.1036
2.699, 1, 29.9708, 50.5019, -10.1153, 88.7996, -58.1739, 65.9793
2.704, 1, 30.0074, 50.4859, -10.1381, 88.8533, -58.1292, 65.855
2.708, 1, 30.044, 50.4699, -10.161, 88.9069, -58.0844, 65.7309
2.712, 1, 30.0805, 50.454, -10.1838, 88.9605, -58.0398, 65.6068
2.716, 1, 30.1171, 50.4381, -10.2067, 89.014, -57.9951, 65.4828
2.719, 1, 30.1536, 50.4222, -10.2295, 89.0675, -57.9505, 65.3589
2.724, 1, 30.1901, 50.4062, -10.2523, 89.121, -57.9059, 65.2351
2.728, 1, 30.2266, 50.3904, -10.275, 89.1744, -57.8613, 65.1113
2.732, 1, 30.263, 50.3745, -10.2978, 89.2278, -57.8168, 64.9877
2.735, 1, 30.2995, 50.3586, -10.3206, 89.2812, -57.7723, 64.8641
2.74, 1, 30.3359, 50.3427, -10.3433, 89.3345, -57.7278, 64.7406
2.744, 1, 30.3723, 50.3269, -10.366, 89.3878, -57.6833, 64.6171
2.748, 1, 30.4086, 50.311, -10.3887, 89.4411, -57.6389, 64.4938
2.752, 1, 30.445, 50.2952, -10.4114, 89.4943, -57.5945, 64.3705
2.755, 1, 30.4813, 50.2793, -10.4341, 89.5475, -57.5501, 64.2473
2.76, 1, 30.5176, 50.2635, -10.4568, 89.6007, -57.5058, 64.1242
2.764, 1, 30.5538, 50.2477, -10.4794, 89.6538, -57.4615, 64.0011
2.768, 1, 30.5901, 50.2319, -10.5021, 89.7069, -57.4172, 63.8782
2.772, 1, 30.6263, 50.2161, -10.5247, 89.76, -57.373, 63.7553
2.775, 1, 30.6625, 50.2004, -10.5473, 89.813, -57.3287, 63.6325
2.78, 1, 30.6987, 50.1846, -10.5699, 89.866, -57.2845, 63.5097
2.784, 1, 30.7348, 50.1688, -10.5925, 89.919, -57.2404, 63.3871
2.788, 1, 30.7709, 50.1531, -10.615, 89.9719, -57.1962, 63.2645
2.791, 1, 30.8071, 50.1373, -10.6376, 90.0248, -57.1521, 63.142
2.796, 1, 30.8431, 50.1216, -10.6601, 90.0777, -57.108, 63.0196
2.8, 1, 30.8792, 50.1059, -10.6827, 90.1305, -57.0639, 62.8972
2.804, 1, 30.9152, 50.0902, -10.7052, 90.1833, -57.0199, 62.7749
2.808, 1, 30.9513, 50.0745, -10.7277, 90.2361, -56.9759, 62.6527
2.811, 1, 30.9873, 50.0588, -10.7502, 90.2889, -56.9319, 62.5306
2.816, 1, 31.0232, 50.0431, -10.7726, 90.3416, -56.888, 62.4086
2.82, 1, 31.0592, 50.0275, -10.7951, 90.3942, -56.844, 62.2866
2.824, 1, 31.0951, 50.0118, -10.8175, 90.4469, -56.8001, 62.1647
2.828, 1, 31.131, 49.9961, -10.8399, 90.4995, -56.7563, 62.0429
2.831, 1, 31.1669, 49.9805, -10.8624, 90.5521, -56.7124, 61.9211
2.836, 1, 31.2028, 49.9649, -10.8848, 90.6046, -56.6686, 61.7995
2.84, 1, 31.2386, 49.9492, -10.9071, 90.6571, -56.6248, 61.6779
2.844, 1, 31.2744, 49.9336, -10.9295, 90.7096, -56.581, 61.5563
2.847, 1, 31.3102, 49.918, -10.9519, 90.762, -56.5373, 61.4349
2.852, 1, 31.346, 49.9024, -10.9742, 90.8144, -56.4936, 61.3135
2.856, 1, 31.3818, 49.8868, -10.9966, 90.8668, -56.4499, 61.1922
2.86, 1, 31.4175, 49.8713, -11.0189, 90.9192, -56.4062, 61.071
2.864, 1, 31.4532, 49.8557, -11.0412, 90.9715, -56.3626, 60.9498
2.867, 1, 31.4889, 49.8401, -11.0635, 91.0238, -56.319, 60.8287
2.872, 1, 31.5246, 49.8246, -11.0857, 91.076, -56.2754, 60.7077
2.876, 1, 31.5602, 49.8091, -11.108, 91.1283, -56.2319, 60.5868
2.88, 1, 31.5958, 49.7935, -11.1303, 91.1805, -56.1883, 60.4659
2.883, 1, 31.6314, 49.778, -11.1525, 91.2326, -56.1448, 60.3452
2.888, 1, 31.667, 49.7625, -11.1747, 91.2847, -56.1014, 60.2244
2.892, 1, 31.7026, 49.747, -11.1969, 91.3368, -56.0579, 60.1038
2.896, 1, 31.7381, 49.7315, -11.2191, 91.3889, -56.0145, 59.9832
2.9, 1, 31.7736, 49.716, -11.2413, 91.4409, -55.9711, 59.8627
2.903, 1, 31.8091, 49.7006, -11.2635, 91.4929, -55.9277, 59.7423
2.908, 1, 31.8446, 49.6851, -11.2856, 91.5449, -55.8844, 59.622
2.912, 1, 31.88, 49.6697, -11.3078, 91.5969, -55.8411, 59.5017
2.916, 1, 31.9155, 49.6542, -11.3299, 91.6488, -55.7978, 59.3815
2.92, 1, 31.9509, 49.6388, -11.352, 91.7007, -55.7545, 59.2613
2.923, 1, 31.9863, 49.6233, -11.3741, 91.7525, -55.7113, 59.1412
2.928, 1, 32.0216, 49.6079, -11.3962, 91.8043, -55.6681, 59.0212
2.932, 1, 32.057, 49.5925, -11.4183, 91.8561, -55.6249, 58.9013
2.936, 1, 32.0923, 49.5771, -11.4404, 91.9079, -55.5817, 58.7815
2.939, 1, 32.1276, 49.5617, -11.4624, 91.9596, -55.5386, 58.6617
2.944, 1, 32.1629, 49.5464, -11.4845, 92.0113, -55.4954, 58.5419
2.948, 1, 32.1982, 49.531, -11.5065, 92.063, -55.4524, 58.4223
2.952, 1, 32.2334, 49.5156, -11.5285, 92.1146, -55.4093, 58.3027
2.956, 1, 32.2687, 49.5003, -11.5505, 92.1662, -55.3662, 58.1832
2.959, 1, 32.3039, 49.4849, -11.5725, 92.2178, -55.3232, 58.0638
2.964, 1, 32.339, 49.4696, -11.5945, 92.2693, -55.2802, 57.9444
2.968, 1, 32.3742, 49.4543, -11.6164, 92.3209, -55.2373, 57.8251
2.972, 1, 32.4094, 49.4389, -11.6384, 92.3723, -55.1943, 57.7059
2.976, 1, 32.4445, 49.4236, -11.6603, 92.4238, -55.1514, 57.5867
2.98, 1, 32.4796, 49.4083, -11.6822, 92.4752, -55.1085, 57.4676
2.984, 1, 32.5147, 49.393, -11.7042, 92.5266, -55.0657, 57.3486
2.988, 1, 32.5497, 49.3778, -11.726, 92.578, -55.0228, 57.2296
2.992, 1, 32.5848, 49.3625, -11.7479, 92.6293, -54.98, 57.1107
2.995, 1, 32.6198, 49.3472, -11.7698, 92.6806, -54.9372, 56.9919
3, 1, 32.6548, 49.332, -11.7917, 92.7319, -54.8945, 56.8732
3.004, 1, 32.6898, 49.3167, -11.8135, 92.7832, -54.8517, 56.7545
3.008, 1, 32.7247, 49.3015, -11.8354, 92.8344, -54.809, 56.6359
3.012, 1, 32.7597, 49.2862, -11.8572, 92.8856, -54.7663, 56.5173
3.015, 1, 32.7946, 49.271, -11.879, 92.9368, -54.7236, 56.3988
3.02, 1, 32.8295, 49.2558, -11.9008, 92.9879, -54.681, 56.2804
3.024, 1, 32.8644, 49.2406, -11.9226, 93.039, -54.6384, 56.1621
3.028, 1, 32.8993, 49.2254, -11.9444, 93.0901, -54.5958, 56.0438
3.031, 1, 32.9341, 49.2102, -11.9661, 93.1411, -54.5532, 55.9256
3.036, 1, 32.9689, 49.195, -11.9879, 93.1921, -54.5107, 55.8074
3.04, 1, 33.0037, 49.1799, -12.0096, 93.2431, -54.4681, 55.6894
3.044, 1, 33.0385, 49.1647, -12.0313, 93.2941, -54.4256, 55.5713
3.048, 1, 33.0733, 49.1496, -12.0531, 93.345, -54.3831, 55.4534
3.051, 1, 33.108, 49.1344, -12.0748, 93.3959, -54.3407, 55.3355
3.056, 1, 33.1427, 49.1193, -12.0964, 93.4468, -54.2983, 55.2177
3.06, 1, 33.1774, 49.1041, -12.1181, 93.4977, -54.2559, 55.0999
3.064, 1, 33.2121, 49.089, -12.1398, 93.5485, -54.2135, 54.9823
3.068, 1, 33.2468, 49.0739, -12.1614, 93.5993, -54.1711, 54.8646
3.071, 1, 33.2815, 49.0588, -12.1831, 93.65, -54.1288, 54.7471
3.076, 1, 33.3161, 49.0437, -12.2047, 93.7008, -54.0865, 54.6296
3.08, 1, 33.3507, 49.0286, -12.2263, 93.7515, -54.0442, 54.5122
3.084, 1, 33.3853, 49.0136, -12.2479, 93.8021, -54.0019, 54.3948
3.087, 1, 33.4199, 48.9985, -12.2695, 93.8528, -53.9597, 54.2775
3.092, 1, 33.4544, 48.9834, -12.2911, 93.9034, -53.9174, 54.1603
3.096, 1, 33.4889, 48.9684, -12.3127, 93.954, -53.8753, 54.0431
3.1, 1, 33.5235, 48.9533, -12.3342, 94.0046, -53.8331, 53.926
3.104, 1, 33.558, 48.9383, -12.3558, 94.0551, -53.7909, 53.809
3.107, 1, 33.5924, 48.9233, -12.3773, 94.1056, -53.7488, 53.692
3.112, 1, 33.6269, 48.9082, -12.3988, 94.1561, -53.7067, 53.5751
3.116, 1, 33.6613, 48.8932, -12.4203, 94.2066, -53.6646, 53.4583
3.12, 1, 33.6957, 48.8782, -12.4418, 94.257, -53.6226, 53.3415
3.124, 1, 33.7301, 48.8632, -12.4633, 94.3074, -53.5805, 53.2248
3.128, 1, 33.7645, 48.8482, -12.4848, 94.3578, -53.5385, 53.1081
3.132, 1, 33.7989, 48.8333, -12.5063, 94.4081, -53.4965, 52.9915
3.136, 1, 33.8332, 48.8183, -12.5277, 94.4585, -53.4546, 52.875
3.14, 1, 33.8676, 48.8033, -12.5492, 94.5087, -53.4126, 52.7585
3.143, 1, 33.9019, 48.7884, -12.5706, 94.559, -53.3707, 52.6421
3.148, 1, 33.9362, 48.7734, -12.592, 94.6093, -53.3288, 52.5258
3.152, 1, 33.9704, 48.7585, -12.6134, 94.6595, -53.2869, 52.4095
3.156, 1, 34.0047, 48.7436, -12.6348, 94.7096, -53.2451, 52.2933
3.16, 1, 34.0389, 48.7286, -12.6562, 94.7598, -53.2033, 52.1772
3.163, 1, 34.0731, 48.7137, -12.6776, 94.8099, -53.1614, 52.0611
3.168, 1, 34.1073, 48.6988, -12.6989, 94.86, -53.1197, 51.945
3.172, 1, 34.1415, 48.6839, -12.7203, 94.9101, -53.0779, 51.8291
3.176, 1, 34.1757, 48.669, -12.7416, 94.9602, -53.0362, 51.7132
3.179, 1, 34.2098, 48.6542, -12.7629, 95.0102, -52.9944, 51.5973
3.184, 1, 34.244, 48.6393, -12.7843, 95.0602, -52.9527, 51.4816
3.188, 1, 34.2781, 48.6244, -12.8056, 95.1102, -52.9111, 51.3658
3.192, 1, 34.3122, 48.6096, -12.8268, 95.1601, -52.8694, 51.2502
3.196, 1, 34.3462, 48.5947, -12.8481, 95.21, -52.8278, 51.1346
3.199, 1, 34.3803, 48.5799, -12.8694, 95.2599, -52.7862, 51.0191
3.204, 1, 34.4143, 48.565, -12.8907, 95.3098, -52.7446, 50.9036
3.208, 1, 34.4483, 48.5502, -12.9119, 95.3596, -52.703, 50.7882
3.212, 1, 34.4823, 48.5354, -12.9331, 95.4094, -52.6615, 50.6728
3.216, 1, 34.5163, 48.5206, -12.9544, 95.4592, -52.62, 50.5575
3.22, 1, 34.5503, 48.5058, -12.9756, 95.509, -52.5785, 50.4423
3.224, 1, 34.5842, 48.491, -12.9968, 95.5587, -52.537, 50.3271
3.228, 1, 34.6182, 48.4762, -13.018, 95.6084, -52.4955, 50.212
3.232, 1, 34.6521, 48.4614, -13.0392, 95.6581, -52.4541, 50.097
3.235, 1, 34.686, 48.4466, -13.0603, 95.7078, -52.4127, 49.982
3.24, 1, 34.7198, 48.4319, -13.0815, 95.7574, -52.3713, 49.867
3.244, 1, 34.7537, 48.4171, -13.1026, 95.807, -52.3299, 49.7522
3.248, 1, 34.7875, 48.4023, -13.1238, 95.8566, -52.2886, 49.6373
3.252, 1, 34.8214, 48.3876, -13.1449, 95.9061, -52.2472, 49.5226
3.255, 1, 34.8552, 48.3729, -13.166, 95.9557, -52.2059, 49.4079
3.26, 1, 34.889, 48.3581, -13.1871, 96.0052, -52.1647, 49.2933
3.264, 1, 34.9227, 48.3434, -13.2082, 96.0546, -52.1234, 49.1787
3.268, 1, 34.9565, 48.3287, -13.2293, 96.1041, -52.0821, 49.0642
3.272, 1, 34.9902, 48.314, -13.2504, 96.1535, -52.0409, 48.9497
3.276, 1, 35.0239, 48.2993, -13.2714, 96.2029, -51.9997, 48.8353
3.28, 1, 35.0576, 48.2846, -13.2925, 96.2523, -51.9585, 48.721
3.284, 1, 35.0913, 48.2699, -13.3135, 96.3017, -51.9174, 48.6067
3.288, 1, 35.125, 48.2553, -13.3345, 96.351, -51.8762, 48.4925
3.291, 1, 35.1586, 48.2406, -13.3556, 96.4003, -51.8351, 48.3783
3.296, 1, 35.192, 48.226, -13.3766, 96.4496, -51.794, 48.2642
3.3, 1, 35.2252, 48.2115, -13.3976, 96.4988, -51.753, 48.1501
3.304, 1, 35.2579, 48.1972, -13.4187, 96.548, -51.712, 48.0362
3.308, 1, 35.2901, 48.1831, -13.4397, 96.5971, -51.671, 47.9225
3.312, 1, 35.3218, 48.1693, -13.4608, 96.6461, -51.6302, 47.809
3.316, 1, 35.3528, 48.1558, -13.4818, 96.6949, -51.5896, 47.696
3.32, 1, 35.3832, 48.1427, -13.5028, 96.7434, -51.5491, 47.5836
3.324, 1, 35.413, 48.1299, -13.5237, 96.7915, -51.5091, 47.4722
3.328, 1, 35.442, 48.1175, -13.5445, 96.839, -51.4694, 47.3619
3.332, 1, 35.4702, 48.1056, -13.565, 96.8859, -51.4304, 47.2532
3.336, 1, 35.4974, 48.0942, -13.5852, 96.9319, -51.3921, 47.1466
3.34, 1, 35.5234, 48.0834, -13.6051, 96.9768, -51.3548, 47.0426
3.344, 1, 35.5483, 48.0732, -13.6244, 97.0203, -51.3186, 46.9416
3.347, 1, 35.5721, 48.0635, -13.643, 97.0622, -51.2837, 46.8445
3.352, 1, 35.5949, 48.0542, -13.6608, 97.1022, -51.2504, 46.7517
3.356, 1, 35.6166, 48.0453, -13.6776, 97.1401, -51.2189, 46.6638
3.36, 1, 35.6373, 48.0367, -13.6933, 97.1756, -51.1894, 46.5815
3.364, 1, 35.657, 48.0286, -13.7078, 97.2085, -51.162, 46.5052
3.368, 1, 35.6756, 48.0207, -13.7211, 97.2387, -51.1369, 46.4352
3.372, 1, 35.6931, 48.0132, -13.7329, 97.2661, -51.1141, 46.3719
3.376, 1, 35.7097, 48.0061, -13.7433, 97.2905, -51.0937, 46.3153
3.38, 1, 35.7254, 47.9991, -13.7524, 97.312, -51.0757, 46.2655
3.383, 1, 35.7402, 47.9924, -13.76, 97.3307, -51.0601, 46.2223
3.388, 1, 35.7541, 47.9859, -13.7663, 97.3467, -51.0467, 46.1855
3.392, 1, 35.7671, 47.9797, -13.7714, 97.36, -51.0355, 46.1546
3.396, 1, 35.779, 47.9739, -13.7754, 97.3711, -51.0262, 46.1292
3.4, 2, 35.7897, 47.9686, -13.7785, 97.38, -51.0187, 46.1086
3.403, 2, 35.7994, 47.9638, -13.7807, 97.3871, -51.0126, 46.0923
3.408, 2, 35.808, 47.9596, -13.7824, 97.3926, -51.008, 46.0796
3.412, 2, 35.8156, 47.9558, -13.7835, 97.3969, -51.0044, 46.07
3.416, 2, 35.8223, 47.9525, -13.7842, 97.4, -51.0017, 46.0628
3.42, 2, 35.8282, 47.9497, -13.7846, 97.4023, -50.9997, 46.0576
3.424, 2, 35.8331, 47.9474, -13.7848, 97.4039, -50.9983, 46.054
3.428, 2, 35.8371, 47.9455, -13.7849, 97.405, -50.9973, 46.0514
3.432, 2, 35.8402, 47.9441, -13.785, 97.4058, -50.9966, 46.0496
3.436, 2, 35.8425, 47.9431, -13.785, 97.4063, -50.9961, 46.0484
3.439, 2, 35.844, 47.9425, -13.785, 97.4067, -50.9958, 46.0476
3.444, 2, 35.8451, 47.942, -13.785, 97.407, -50.9956, 46.0471
3.448, 2, 35.8458, 47.9417, -13.785, 97.4071, -50.9954, 46.0467
3.452, 2, 35.8463, 47.9415, -13.785, 97.4072, -50.9953, 46.0465
3.456, 2, 35.8467, 47.9413, -13.785, 97.4073, -50.9953, 46.0463
3.46, 2, 35.8469, 47.9412, -13.785, 97.4074, -50.9952, 46.0462
3.464, 2, 35.847, 47.9411, -13.785, 97.4074, -50.9952, 46.0461
3.468, 2, 35.8472, 47.9411, -13.785, 97.4074, -50.9952, 46.046
3.472, 2, 35.8472, 47.9411, -13.785, 97.4074, -50.9952, 46.046
3.476, 2, 35.8473, 47.9411, -13.785, 97.4075, -50.9951, 46.046
3.48, 2, 35.8473, 47.941, -13.785, 97.4075, -50.9951, 46.046
3.484, 2, 35.8473, 47.941, -13.785, 97.4075, -50.9951, 46.0459
3.488, 2, 35.8473, 47.941, -13.785, 97.4075, -50.9951, 46.0459
3.492, 2, 35.8474, 47.941, -13.785, 97.4075, -50.9951, 46.0459
3.495, 2, 35.8474, 47.941, -13.785, 97.4075, -50.9951, 46.0459
3.5, 2, 35.8474, 47.941, -13.785, 97.4075, -50.9951, 46.0459
3.504, 2, 35.8474, 47.941, -13.785, 97.4075, -50.9951, 46.0459
3.508, 2, 35.8474, 47.941, -13.785, 97.4075, -50.9951, 46.0459
3.512, 2, 35.8474, 47.941, -13.785, 97.4075, -50.9951, 46.0459
3.516, 2, 35.8474, 47.941, -13.785, 97.4075, -50.9951, 46.0459
3.52, 2, 35.8474, 47.941, -13.785, 97.4075, -50.9951, 46.0459
3.524, 2, 35.8474, 47.941, -13.785, 97.4075, -50.9951, 46.0459
3.528, 2, 35.8474, 47.941, -13.785, 97.4075, -50.9951, 46.0459
3.531, 2, 35.8474, 47.941, -13.785, 97.4075, -50.9951, 46.0459
3.536, 2, 35.8474, 47.941, -13.785, 97.4075, -50.9951, 46.0459
3.54, 2, 35.8474, 47.941, -13.785, 97.4075, -50.9951, 46.0459
3.544, 2, 35.8474, 47.941, -13.785, 97.4075, -50.9951, 46.0459
3.548, 2, 35.8474, 47.941, -13.785, 97.4075, -50.9951, 46.0459
3.552, 2, 35.8474, 47.941, -13.785, 97.4075, -50.9951, 46.0459
3.556, 2, 35.8474, 47.941, -13.785, 97.4075, -50.9951, 46.0459
3.56, 2, 35.8474, 47.941, -13.785, 97.4075, -50.9951, 46.0459
3.564, 2, 35.8474, 47.941, -13.785, 97.4075, -50.9951, 46.0459
3.568, 2, 35.8474, 47.941, -13.785, 97.4075, -50.9951, 46.0459
3.572, 2, 35.8474, 47.941, -13.785, 97.4075, -50.9951, 46.0459
3.576, 2, 35.8474, 47.941, -13.785, 97.4075, -50.9951, 46.0459
3.58, 2, 35.8474, 47.941, -13.785, 97.4075, -50.9951, 46.0459
3.584, 2, 35.8474, 47.941, -13.785, 97.4075, -50.9951, 46.0459
3.587, 2, 35.8474, 47.941, -13.785, 97.4075, -50.9951, 46.0459
3.592, 2, 35.8474, 47.941, -13.785, 97.4075, -50.9951, 46.0459
3.596, 2, 35.8474, 47.941, -13.785, 97.4075, -50.9951, 46.0459
3.6, 2, 35.8474, 47.941, -13.785, 97.4075, -50.9951, 46.0459
3.604, 2, 35.8474, 47.941, -13.785, 97.4075, -50.9951, 46.0459
3.608, 2, 35.8474, 47.941, -13.785, 97.4075, -50.9951, 46.0459
3.612, 2, 35.8474, 47.941, -13.785, 97.4075, -50.9951, 46.0459
3.616, 2, 35.8474, 47.941, -13.785, 97.4075, -50.9951, 46.0459
3.62, 2, 35.8474, 47.941, -13.785, 97.4075, -50.9951, 46.0459
3.624, 2, 35.8474, 47.941, -13.785, 97.4075, -50.9951, 46.0459
3.628, 2, 35.8474, 47.941, -13.785, 97.4075, -50.9951, 46.0459
3.632, 2, 35.8474, 47.941, -13.785, 97.4075, -50.9951, 46.0459
3.636, 2, 35.8474, 47.941, -13.785, 97.4075, -50.9951, 46.0459
3.64, 2, 35.8474, 47.941, -13.785, 97.4075, -50.9951, 46.0459
3.644, 2, 35.8474, 47.941, -13.785, 97.4075, -50.9951, 46.0459
3.648, 2, 35.8474, 47.941, -13.785, 97.4075, -50.9951, 46.0459
3.652, 2, 35.8474, 47.941, -13.785, 97.4075, -50.9951, 46.0459
3.656, 2, 35.8474, 47.941, -13.785, 97.4075, -50.9951, 46.0459
3.66, 2, 35.8474, 47.941, -13.785, 97.4075, -50.9951, 46.0459
3.664, 2, 35.8474, 47.941, -13.785, 97.4075, -50.9951, 46.0459
3.668, 2, 35.8474, 47.941, -13.785, 97.4075, -50.9951, 46.0459
3.672, 2, 35.8474, 47.941, -13.785, 97.4075, -50.9951, 46.0459
3.676, 2, 35.8474, 47.941, -13.785, 97.4075, -50.9951, 46.0459
3.679, 2, 35.8474, 47.941, -13.785, 97.4075, -50.9951, 46.0459
3.684, 2, 35.8474, 47.941, -13.785, 97.4075, -50.9951, 46.0459
3.688, 2, 35.8474, 47.941, -13.785, 97.4075, -50.9951, 46.0459
3.692, 2, 35.8474, 47.941, -13.785, 97.4075, -50.9951, 46.0459
3.696, 2, 35.8474, 47.941, -13.785, 97.4075, -50.9951, 46.0459
3.7, 2, 35.8474, 47.941, -13.785, 97.4075, -50.9951, 46.0459
3.704, 2, 35.8474, 47.941, -13.785, 97.4075, -50.9951, 46.0459
3.708, 2, 35.8474, 47.941, -13.785, 97.4075, -50.9951, 46.0459
3.712, 2, 35.8474, 47.941, -13.785, 97.4075, -50.9951, 46.0459
3.716, 2, 35.8474, 47.941, -13.785, 97.4075, -50.9951, 46.0459
3.72, 2, 35.8474, 47.941, -13.785, 97.4075, -50.9951, 46.0459
3.724, 2, 35.8474, 47.941, -13.785, 97.4075, -50.9951, 46.0459
3.728, 2, 35.8474, 47.941, -13.785, 97.4075, -50.9951, 46.0459
3.732, 2, 35.8474, 47.941, -13.785, 97.4075, -50.9951, 46.0459
3.735, 2, 35.8474, 47.941, -13.785, 97.4075, -50.9951, 46.0459
3.74, 2, 35.8474, 47.941, -13.785, 97.4075, -50.9951, 46.0459
3.744, 2, 35.8474, 47.941, -13.785, 97.4075, -50.9951, 46.0459
3.748, 2, 35.8474, 47.941, -13.785, 97.4075, -50.9951, 46.0459
3.752, 2, 35.8474, 47.941, -13.785, 97.4075, -50.9951, 46.0459
3.756, 2, 35.8474, 47.941, -13.785, 97.4075, -50.9951, 46.0459
3.76, 2, 35.8474, 47.941, -13.785, 97.4075, -50.9951, 46.0459
3.764, 2, 35.8474, 47.941, -13.785, 97.4075, -50.9951, 46.0459
3.768, 2, 35.8474, 47.941, -13.785, 97.4075, -50.9951, 46.0459
3.772, 2, 35.8474, 47.941, -13.785, 97.4075, -50.9951, 46.0459
3.776, 2, 35.8474, 47.941, -13.785, 97.4075, -50.9951, 46.0459
3.78, 2, 35.8474, 47.941, -13.785, 97.4075, -50.9951, 46.0459
3.784, 2, 35.8474, 47.941, -13.785, 97.4075, -50.9951, 46.0459
3.788, 2, 35.8474, 47.941, -13.785, 97.4075, -50.9951, 46.0459
3.792, 2, 35.8474, 47.941, -13.785, 97.4075, -50.9951, 46.0459
3.796, 2, 35.8474, 47.941, -13.785, 97.4075, -50.9951, 46.0459
3.8, 2, 35.8474, 47.941, -13.785, 97.4075, -50.9951, 46.0459
3.804, 2, 35.8474, 47.941, -13.785, 97.4075, -50.9951, 46.0459
3.808, 2, 35.8474, 47.941, -13.785, 97.4075, -50.9951, 46.0459
3.812, 2, 35.8474, 47.941, -13.785, 97.4075, -50.9951, 46.0459
3.816, 2, 35.8474, 47.941, -13.785, 97.4075, -50.9951, 46.0459
3.82, 2, 35.8474, 47.941, -13.785, 97.4075, -50.9951, 46.0459
3.824, 2, 35.8474, 47.941, -13.785, 97.4075, -50.9951, 46.0459
3.828, 2, 35.8474, 47.941, -13.785, 97.4075, -50.9951, 46.0459
3.832, 2, 35.8474, 47.941, -13.785, 97.4075, -50.9951, 46.0459
3.836, 2, 35.8474, 47.941, -13.785, 97.4075, -50.9951, 46.0459
3.84, 2, 35.8474, 47.941, -13.785, 97.4075, -50.9951, 46.0459
3.844, 2, 35.8474, 47.941, -13.785, 97.4075, -50.9951, 46.0459
3.848, 2, 35.8474, 47.941, -13.785, 97.4075, -50.9951, 46.0459
3.852, 2, 35.8474, 47.941, -13.785, 97.4075, -50.9951, 46.0459
3.856, 2, 35.8474, 47.941, -13.785, 97.4075, -50.9951, 46.0459
3.86, 2, 35.8474, 47.941, -13.785, 97.4075, -50.9951, 46.0459
3.864, 2, 35.8474, 47.941, -13.785, 97.4075, -50.9951, 46.0459
3.868, 2, 35.8474, 47.941, -13.785, 97.4075, -50.9951, 46.0459
3.872, 2, 35.8474, 47.941, -13.785, 97.4075, -50.9951, 46.0459
3.876, 2, 35.8474, 47.941, -13.785, 97.4075, -50.9951, 46.0459
3.88, 2, 35.8474, 47.941, -13.785, 97.4075, -50.9951, 46.0459
3.884, 2, 35.8474, 47.941, -13.785, 97.4075, -50.9951, 46.0459
3.888, 2, 35.8474, 47.941, -13.785, 97.4075, -50.9951, 46.0459
3.892, 2, 35.8474, 47.941, -13.785, 97.4075, -50.9951, 46.0459
3.896, 2, 35.8474, 47.941, -13.785, 97.4075, -50.9951, 46.0459
3.9, 2, 35.8474, 47.941, -13.785, 97.4075, -50.9951, 46.0459
3.904, 2, 35.8474, 47.941, -13.785, 97.4075, -50.9951, 46.0459
3.908, 2, 35.8474, 47.941, -13.785, 97.4075, -50.9951, 46.0459
3.912, 2, 35.8474, 47.941, -13.785, 97.4075, -50.9951, 46.0459
3.916, 2, 35.8474, 47.941, -13.785, 97.4075, -50.9951, 46.0459
3.92, 2, 35.8474, 47.941, -13.785, 97.4075, -50.9951, 46.0459
3.924, 2, 35.8474, 47.941, -13.785, 97.4075, -50.9951, 46.0459
3.928, 2, 35.8474, 47.941, -13.785, 97.4075, -50.9951, 46.0459
3.932, 2, 35.8474, 47.941, -13.785, 97.4075, -50.9951, 46.0459
3.936, 2, 35.8474, 47.941, -13.785, 97.4075, -50.9951, 46.0459
3.94, 2, 35.8474, 47.941, -13.785, 97.4075, -50.9951, 46.0459
3.944, 2, 35.8474, 47.941, -13.785, 97.4075, -50.9951, 46.0459
3.948, 2, 35.8474, 47.941, -13.785, 97.4075, -50.9951, 46.0459
3.952, 2, 35.8474, 47.941, -13.785, 97.4075, -50.9951, 46.0459
3.956, 2, 35.8474, 47.941, -13.785, 97.4075, -50.9951, 46.0459
3.96, 2, 35.8474, 47.941, -13.785, 97.4075, -50.9951, 46.0459
3.964, 2, 35.8474, 47.941, -13.785, 97.4075, -50.9951, 46.0459
3.968, 2, 35.8474, 47.941, -13.785, 97.4075, -50.9951, 46.0459
3.972, 2, 35.8474, 47.941, -13.785, 97.4075, -50.9951, 46.0459
3.976, 2, 35.8474, 47.941, -13.785, 97.4075, -50.9951, 46.0459
3.98, 2, 35.8474, 47.941, -13.785, 97.4075, -50.9951, 46.0459
3.984, 2, 35.8474, 47.941, -13.785, 97.4075, -50.9951, 46.0459
3.988, 2, 35.8474, 47.941, -13.785, 97.4075, -50.9951, 46.0459
3.992, 2, 35.8474, 47.941, -13.785, 97.4075, -50.9951, 46.0459
3.996, 2, 35.8474, 47.941, -13.785, 97.4075, -50.9951, 46.0459
3.999, 2, 35.8474, 47.941, -13.785, 97.4075, -50.9951, 46.0459
4.004, 2, 35.8474, 47.941, -13.785, 97.4075, -50.9951, 46.0459
4.008, 2, 35.8474, 47.941, -13.785, 97.4075, -50.9951, 46.0459
4.012, 2, 35.8474, 47.941, -13.785, 97.4075, -50.9951, 46.0459
4.016, 2, 35.8474, 47.941, -13.785, 97.4075, -50.9951, 46.0459
4.02, 2, 35.8474, 47.941, -13.785, 97.4075, -50.9951, 46.0459
4.024, 2, 35.8474, 47.941, -13.785, 97.4075, -50.9951, 46.0459
4.028, 2, 35.8474, 47.941, -13.785, 97.4075, -50.9951, 46.0459
4.032, 2, 35.8474, 47.941, -13.785, 97.4075, -50.9951, 46.0459
4.036, 2, 35.8474, 47.941, -13.785, 97.4075, -50.9951, 46.0459
4.04, 2, 35.8474, 47.941, -13.785, 97.4075, -50.9951, 46.0459
4.044, 2, 35.8474, 47.941, -13.785, 97.4075, -50.9951, 46.0459
4.048, 2, 35.8474, 47.941, -13.785, 97.4075, -50.9951, 46.0459
4.052, 2, 35.8474, 47.941, -13.785, 97.4075, -50.9951, 46.0459
4.056, 2, 35.8474, 47.941, -13.785, 97.4075, -50.9951, 46.0459
4.06, 2, 35.8474, 47.941, -13.785, 97.4075, -50.9951, 46.0459
4.064, 2, 35.8474, 47.941, -13.785, 97.4075, -50.9951, 46.0459
4.068, 2, 35.8474, 47.941, -13.785, 97.4075, -50.9951, 46.0459
4.072, 2, 35.8474, 47.941, -13.785, 97.4075, -50.9951, 46.0459
4.076, 2, 35.8474, 47.941, -13.785, 97.4075, -50.9951, 46.0459
4.08, 2, 35.8474, 47.941, -13.785, 97.4075, -50.9951, 46.0459
4.084, 2, 35.8474, 47.941, -13.785, 97.4075, -50.9951, 46.0459
4.088, 2, 35.8474, 47.941, -13.785, 97.4075, -50.9951, 46.0459
4.092, 2, 35.8474, 47.941, -13.785, 97.4075, -50.9951, 46.0459
4.096, 2, 35.8474, 47.941, -13.785, 97.4075, -50.9951, 46.0459
4.1, 2, 35.8474, 47.941, -13.785, 97.4075, -50.9951, 46.0459
4.104, 2, 35.8474, 47.941, -13.785, 97.4075, -50.9951, 46.0459
4.108, 2, 35.8474, 47.941, -13.785, 97.4075, -50.9951, 46.0459
4.112, 2, 35.8474, 47.941, -13.785, 97.4075, -50.9951, 46.0459
4.116, 2, 35.8474, 47.941, -13.785, 97.4075, -50.9951, 46.0459
4.12, 2, 35.8474, 47.941, -13.785, 97.4075, -50.9951, 46.0459
4.124, 2, 35.8474, 47.941, -13.785, 97.4075, -50.9951, 46.0459
4.128, 2, 35.8474, 47.941, -13.785, 97.4075, -50.9951, 46.0459
4.132, 2, 35.8474, 47.941, -13.785, 97.4075, -50.9951, 46.0459
4.136, 2, 35.8474, 47.941, -13.785, 97.4075, -50.9951, 46.0459
4.14, 2, 35.8474, 47.941, -13.785, 97.4075, -50.9951, 46.0459
4.144, 2, 35.8474, 47.941, -13.785, 97.4075, -50.9951, 46.0459
4.148, 2, 35.8474, 47.941, -13.785, 97.4075, -50.9951, 46.0459
4.152, 2, 35.8474, 47.941, -13.785, 97.4075, -50.9951, 46.0459
4.156, 2, 35.8474, 47.941, -13.785, 97.4075, -50.9951, 46.0459
4.16, 2, 35.8474, 47.941, -13.785, 97.4075, -50.9951, 46.0459
4.164, 2, 35.8474, 47.941, -13.785, 97.4075, -50.9951, 46.0459
4.168, 2, 35.8474, 47.941, -13.785, 97.4075, -50.9951, 46.0459
4.172, 2, 35.8474, 47.941, -13.785, 97.4075, -50.9951, 46.0459
4.176, 2, 35.8474, 47.941, -13.785, 97.4075, -50.9951, 46.0459
4.18, 2, 35.8474, 47.941, -13.785, 97.4075, -50.9951, 46.0459
4.184, 2, 35.8474, 47.941, -13.785, 97.4075, -50.9951, 46.0459
4.188, 2, 35.8474, 47.941, -13.785, 97.4075, -50.9951, 46.0459
4.192, 2, 35.8474, 47.941, -13.785, 97.4075, -50.9951, 46.0459
4.196, 2, 35.8474, 47.941, -13.785, 97.4075, -50.9951, 46.0459
4.2, 2, 35.8474, 47.941, -13.785, 97.4075, -50.9951, 46.0459
4.204, 2, 35.8474, 47.941, -13.785, 97.4075, -50.9951, 46.0459
4.208, 2, 35.8474, 47.941, -13.785, 97.4075, -50.9951, 46.0459
4.212, 2, 35.8474, 47.941, -13.785, 97.4075, -50.9951, 46.0459
4.216, 2, 35.8474, 47.941, -13.785, 97.4075, -50.9951, 46.0459
4.22, 2, 35.8474, 47.941, -13.785, 97.4075, -50.9951, 46.0459
4.224, 2, 35.8474, 47.941, -13.785, 97.4075, -50.9951, 46.0459
4.228, 2, 35.8474, 47.941, -13.785, 97.4075, -50.9951, 46.0459
4.232, 2, 35.8474, 47.941, -13.785, 97.4075, -50.9951, 46.0459
4.236, 2, 35.8474, 47.941, -13.785, 97.4075, -50.9951, 46.0459
4.24, 2, 35.8474, 47.941, -13.785, 97.4075, -50.9951, 46.0459
4.244, 2, 35.8474, 47.941, -13.785, 97.4075, -50.9951, 46.0459
4.248, 2, 35.8474, 47.941, -13.785, 97.4075, -50.9951, 46.0459
4.252, 2, 35.8474, 47.941, -13.785, 97.4075, -50.9951, 46.0459
4.256, 2, 35.8474, 47.941, -13.785, 97.4075, -50.9951, 46.0459
4.26, 2, 35.8474, 47.941, -13.785, 97.4075, -50.9951, 46.0459
4.264, 2, 35.8474, 47.941, -13.785, 97.4075, -50.9951, 46.0459
4.268, 2, 35.8474, 47.941, -13.785, 97.4075, -50.9951, 46.0459
4.272, 2, 35.8474, 47.941, -13.785, 97.4075, -50.9951, 46.0459
4.276, 2, 35.8474, 47.941, -13.785, 97.4075, -50.9951, 46.0459
4.28, 2, 35.8474, 47.941, -13.785, 97.4075, -50.9951, 46.0459
4.284, 2, 35.8474, 47.941, -13.785, 97.4075, -50.9951, 46.0459
4.288, 2, 35.8474, 47.941, -13.785, 97.4075, -50.9951, 46.0459
4.292, 2, 35.8474, 47.941, -13.785, 97.4075, -50.9951, 46.0459
4.296, 2, 35.8474, 47.941, -13.785, 97.4075, -50.9951, 46.0459
4.3, 2, 35.8474, 47.941, -13.785, 97.4075, -50.9951, 46.0459
4.304, 2, 35.8474, 47.941, -13.785, 97.4075, -50.9951, 46.0459
4.308, 2, 35.8474, 47.941, -13.785, 97.4075, -50.9951, 46.0459
4.312, 2, 35.8474, 47.941, -13.785, 97.4075, -50.9951, 46.0459
4.316, 2, 35.8474, 47.941, -13.785, 97.4075, -50.9951, 46.0459
4.32, 2, 35.8474, 47.941, -13.785, 97.4075, -50.9951, 46.0459
4.324, 2, 35.8474, 47.941, -13.785, 97.4075, -50.9951, 46.0459
4.328, 2, 35.8474, 47.941, -13.785, 97.4075, -50.9951, 46.0459
4.332, 2, 35.8474, 47.941, -13.785, 97.4075, -50.9951, 46.0459
4.336, 2, 35.8474, 47.941, -13.785, 97.4075, -50.9951, 46.0459
4.34, 2, 35.8474, 47.941, -13.785, 97.4075, -50.9951, 46.0459
4.344, 2, 35.8474, 47.941, -13.785, 97.4075, -50.9951, 46.0459
4.348, 2, 35.8474, 47.941, -13.785, 97.4075, -50.9951, 46.0459
4.352, 2, 35.8474, 47.941, -13.785, 97.4075, -50.9951, 46.0459
4.356, 2, 35.8474, 47.941, -13.785, 97.4075, -50.9951, 46.0459
4.36, 2, 35.8474, 47.941, -13.785, 97.4075, -50.9951, 46.0459
4.364, 2, 35.8474, 47.941, -13.785, 97.4075, -50.9951, 46.0459
4.368, 2, 35.8474, 47.941, -13.785, 97.4075, -50.9951, 46.0459
4.372, 2, 35.8474, 47.941, -13.785, 97.4075, -50.9951, 46.0459
4.376, 2, 35.8474, 47.941, -13.785, 97.4075, -50.9951, 46.0459
4.38, 2, 35.8474, 47.941, -13.785, 97.4075, -50.9951, 46.0459
4.384, 2, 35.8474, 47.941, -13.785, 97.4075, -50.9951, 46.0459
4.388, 2, 35.8474, 47.941, -13.785, 97.4075, -50.9951, 46.0459
4.392, 2, 35.8474, 47.941, -13.785, 97.4075, -50.9951, 46.0459
4.396, 2, 35.8474, 47.941, -13.785, 97.4075, -50.9951, 46.0459
4.4, 3, 35.8474, 47.941, -13.785, 97.4075, -50.9951, 46.0459
4.404, 3, 35.8474, 47.941, -13.785, 97.4075, -50.9951, 46.0459
4.408, 3, 35.8474, 47.941, -13.785, 97.4075, -50.9951, 46.0459
4.412, 3, 35.8474, 47.941, -13.785, 97.4075, -50.9951, 46.0459
4.416, 3, 35.8474, 47.941, -13.785, 97.4075, -50.9951, 46.0459
4.42, 3, 35.8474, 47.941, -13.785, 97.4075, -50.9951, 46.0459
4.424, 3, 35.8474, 47.941, -13.785, 97.4075, -50.9951, 46.0459
4.428, 3, 35.8474, 47.941, -13.785, 97.4075, -50.9951, 46.0459
4.432, 3, 35.8474, 47.941, -13.785, 97.4075, -50.9951, 46.0459
4.436, 4, 35.8474, 47.941, -13.785, 97.4075, -50.9951, 46.0459
4.44, 4, 35.8474, 47.941, -13.785, 97.4075, -50.9951, 46.0459
4.444, 4, 35.8474, 47.941, -13.785, 97.4075, -50.9951, 46.0459
4.448, 4, 35.8474, 47.941, -13.785, 97.4075, -50.9951, 46.0459
4.452, 4, 35.8474, 47.941, -13.785, 97.4075, -50.9951, 46.0459
4.456, 4, 35.8474, 47.941, -13.785, 97.4075, -50.9951, 46.0459
4.46, 4, 35.8474, 47.941, -13.785, 97.4075, -50.9951, 46.0459
4.464, 4, 35.8474, 47.941, -13.785, 97.4075, -50.9951, 46.0459
4.468, 4, 35.8474, 47.941, -13.785, 97.4075, -50.9951, 46.0459
4.472, 4, 35.8474, 47.941, -13.785, 97.4075, -50.9951, 46.0459
4.476, 4, 35.8474, 47.941, -13.785, 97.4075, -50.9951, 46.0459
4.48, 4, 35.8474, 47.941, -13.785, 97.4075, -50.9951, 46.0459
4.484, 4, 35.8474, 47.941, -13.785, 97.4075, -50.9951, 46.0459
4.488, 4, 35.8474, 47.941, -13.785, 97.4075, -50.9951, 46.0459
4.492, 4, 35.8474, 47.941, -13.785, 97.4075, -50.9951, 46.0459
4.496, 4, 35.8474, 47.941, -13.785, 97.4075, -50.9951, 46.0459
4.5, 4, 35.8474, 47.941, -13.785, 97.4075, -50.9951, 46.0459
4.504, 4, 35.8474, 47.941, -13.785, 97.4075, -50.9951, 46.0459
4.508, 4, 35.8474, 47.941, -13.785, 97.4075, -50.9951, 46.0459
4.512, 4, 35.8474, 47.941, -13.785, 97.4075, -50.9951, 46.0459
4.516, 4, 35.8474, 47.941, -13.785, 97.4075, -50.9951, 46.0459
4.52, 4, 35.8474, 47.941, -13.785, 97.4075, -50.9951, 46.0459
4.524, 4, 35.8474, 47.941, -13.785, 97.4075, -50.9951, 46.0459
4.528, 4, 35.8474, 47.941, -13.785, 97.4075, -50.9951, 46.0459
4.532, 4, 35.8474, 47.941, -13.785, 97.4075, -50.9951, 46.0459
4.536, 5, 35.8474, 47.941, -13.785, 97.4075, -50.9951, 46.0459
4.54, 5, 35.8474, 47.941, -13.785, 97.4075, -50.9951, 46.0459
4.544, 5, 35.8474, 47.941, -13.785, 97.4075, -50.9951, 46.0459
4.548, 5, 35.8474, 47.941, -13.785, 97.4075, -50.9951, 46.0459
4.552, 5, 35.8474, 47.941, -13.785, 97.4075, -50.9951, 46.0459
4.556, 5, 35.8474, 47.941, -13.785, 97.4075, -50.9951, 46.0459
4.56, 5, 35.8474, 47.941, -13.785, 97.4075, -50.9951, 46.0459
4.564, 5, 35.8474, 47.941, -13.785, 97.4075, -50.9951, 46.0459
4.568, 5, 35.8474, 47.941, -13.785, 97.4075, -50.9951, 46.0459
4.572, 5, 35.8474, 47.941, -13.785, 97.4075, -50.9951, 46.0459
4.576, 5, 35.8474, 47.9411, -13.785, 97.4075, -50.9951, 46.0459
4.58, 5, 35.8474, 47.9412, -13.785, 97.4075, -50.9951, 46.0459
4.584, 5, 35.8474, 47.9416, -13.785, 97.4075, -50.9952, 46.0459
4.588, 5, 35.8475, 47.9423, -13.7851, 97.4075, -50.9953, 46.0459
4.592, 5, 35.8475, 47.9433, -13.7851, 97.4075, -50.9956, 46.0457
4.596, 5, 35.8476, 47.9448, -13.7852, 97.4074, -50.9962, 46.0455
4.6, 5, 35.8477, 47.9465, -13.7854, 97.4074, -50.9974, 46.0451
4.604, 5, 35.8479, 47.9486, -13.7857, 97.4072, -50.9992, 46.0445
4.608, 5, 35.848, 47.9508, -13.7861, 97.4071, -51.002, 46.0435
4.612, 5, 35.8482, 47.9532, -13.7867, 97.4068, -51.0058, 46.0422
4.616, 5, 35.8483, 47.9557, -13.7874, 97.4065, -51.011, 46.0404
4.62, 5, 35.8484, 47.9585, -13.7884, 97.4061, -51.0175, 46.0381
4.624, 5, 35.8486, 47.9615, -13.7896, 97.4056, -51.0256, 46.0353
4.628, 5, 35.8487, 47.9648, -13.791, 97.405, -51.0352, 46.0319
4.632, 5, 35.8489, 47.9684, -13.7927, 97.4043, -51.0464, 46.0281
4.636, 5, 35.849, 47.9721, -13.7946, 97.4035, -51.0592, 46.0236
4.64, 5, 35.8491, 47.976, -13.7967, 97.4026, -51.0734, 46.0187
4.644, 5, 35.8493, 47.98, -13.799, 97.4017, -51.089, 46.0133
4.648, 5, 35.8494, 47.9842, -13.8015, 97.4006, -51.1057, 46.0075
4.652, 5, 35.8496, 47.9886, -13.8041, 97.3995, -51.1234, 46.0013
4.656, 5, 35.8497, 47.9934, -13.8069, 97.3983, -51.1419, 45.9949
4.66, 5, 35.8499, 47.9986, -13.8097, 97.3971, -51.161, 45.9883
4.664, 5, 35.8501, 48.0042, -13.8126, 97.3958, -51.1805, 45.9815
4.668, 5, 35.8504, 48.0101, -13.8155, 97.3945, -51.2003, 45.9746
4.672, 5, 35.8506, 48.0163, -13.8185, 97.3933, -51.2202, 45.9677
4.676, 5, 35.8509, 48.0227, -13.8214, 97.392, -51.2403, 45.9608
4.68, 5, 35.8512, 48.0291, -13.8244, 97.3906, -51.2605, 45.9538
4.684, 5, 35.8515, 48.0357, -13.8274, 97.3893, -51.2807, 45.9468
4.688, 5, 35.8517, 48.0423, -13.8304, 97.388, -51.301, 45.9397
4.692, 5, 35.852, 48.049, -13.8334, 97.3867, -51.3213, 45.9327
4.696, 5, 35.8523, 48.0556, -13.8364, 97.3853, -51.3416, 45.9257
4.7, 5, 35.8526, 48.0623, -13.8394, 97.3839, -51.362, 45.9186
4.704, 5, 35.8529, 48.069, -13.8424, 97.3826, -51.3823, 45.9116
4.708, 5, 35.8531, 48.0757, -13.8454, 97.3812, -51.4026, 45.9046
4.712, 5, 35.8534, 48.0824, -13.8483, 97.3798, -51.423, 45.8976
4.716, 5, 35.8537, 48.0892, -13.8513, 97.3785, -51.4433, 45.8905
4.72, 5, 35.854, 48.0959, -13.8543, 97.3771, -51.4637, 45.8835
4.724, 5, 35.8542, 48.1026, -13.8573, 97.3757, -51.484, 45.8765
4.728, 5, 35.8545, 48.1093, -13.8603, 97.3743, -51.5044, 45.8695
4.732, 5, 35.8548, 48.116, -13.8632, 97.3729, -51.5247, 45.8625
4.736, 5, 35.855, 48.1227, -13.8662, 97.3715, -51.545, 45.8555
4.74, 5, 35.8553, 48.1294, -13.8692, 97.3701, -51.5654, 45.8485
4.744, 5, 35.8556, 48.1362, -13.8721, 97.3686, -51.5857, 45.8415
4.748, 5, 35.8558, 48.1429, -13.8751, 97.3672, -51.606, 45.8345
4.752, 5, 35.8561, 48.1496, -13.878, 97.3658, -51.6264, 45.8275
4.756, 5, 35.8564, 48.1563, -13.881, 97.3643, -51.6467, 45.8205
4.76, 5, 35.8566, 48.163, -13.8839, 97.3629, -51.667, 45.8135
4.764, 5, 35.8569, 48.1697, -13.8869, 97.3614, -51.6874, 45.8065
4.768, 5, 35.8571, 48.1764, -13.8898, 97.36, -51.7077, 45.7996
4.772, 5, 35.8574, 48.1831, -13.8928, 97.3585, -51.728, 45.7926
4.776, 5, 35.8576, 48.1898, -13.8957, 97.357, -51.7483, 45.7856
4.78, 5, 35.8579, 48.1965, -13.8987, 97.3556, -51.7686, 45.7787
4.784, 5, 35.8581, 48.2033, -13.9016, 97.3541, -51.789, 45.7717
4.788, 5, 35.8584, 48.21, -13.9045, 97.3526, -51.8093, 45.7647
4.792, 5, 35.8586, 48.2167, -13.9074, 97.3511, -51.8296, 45.7578
4.796, 5, 35.8589, 48.2234, -13.9104, 97.3496, -51.8499, 45.7508
4.8, 5, 35.8591, 48.2301, -13.9133, 97.3481, -51.8702, 45.7439
4.804, 5, 35.8594, 48.2368, -13.9162, 97.3466, -51.8905, 45.7369
4.808, 5, 35.8596, 48.2435, -13.9191, 97.345, -51.9108, 45.73
4.812, 5, 35.8598, 48.2502, -13.922, 97.3435, -51.9311, 45.7231
4.816, 5, 35.8601, 48.2569, -13.9249, 97.342, -51.9514, 45.7161
4.82, 5, 35.8603, 48.2635, -13.9278, 97.3405, -51.9717, 45.7092
4.824, 5, 35.8605, 48.2702, -13.9307, 97.3389, -51.992, 45.7023
4.828, 5, 35.8608, 48.2769, -13.9336, 97.3374, -52.0123, 45.6953
4.832, 5, 35.861, 48.2836, -13.9365, 97.3358, -52.0326, 45.6884
4.836, 5, 35.8612, 48.2903, -13.9394, 97.3342, -52.0529, 45.6815
4.84, 5, 35.8615, 48.297, -13.9423, 97.3327, -52.0732, 45.6746
4.844, 5, 35.8617, 48.3037, -13.9452, 97.3311, -52.0935, 45.6677
4.848, 5, 35.8619, 48.3104, -13.9481, 97.3295, -52.1137, 45.6608
4.852, 5, 35.8621, 48.3171, -13.951, 97.3279, -52.134, 45.6539
4.856, 5, 35.8624, 48.3238, -13.9538, 97.3263, -52.1543, 45.647
4.86, 5, 35.8626, 48.3304, -13.9567, 97.3247, -52.1746, 45.6401
4.864, 5, 35.8628, 48.3371, -13.9596, 97.3231, -52.1949, 45.6332
4.868, 5, 35.863, 48.3438, -13.9625, 97.3215, -52.2151, 45.6263
4.872, 5, 35.8632, 48.3505, -13.9653, 97.3199, -52.2354, 45.6194
4.876, 5, 35.8634, 48.3572, -13.9682, 97.3183, -52.2557, 45.6125
4.88, 5, 35.8637, 48.3638, -13.971, 97.3167, -52.2759, 45.6056
4.884, 5, 35.8639, 48.3705, -13.9739, 97.315, -52.2962, 45.5988
4.888, 5, 35.8641, 48.3772, -13.9767, 97.3134, -52.3165, 45.5919
4.892, 5, 35.8643, 48.3839, -13.9796, 97.3117, -52.3367, 45.585
4.896, 5, 35.8645, 48.3906, -13.9824, 97.3101, -52.357, 45.5782
4.9, 5, 35.8647, 48.3972, -13.9853, 97.3084, -52.3773, 45.5713
4.904, 5, 35.8649, 48.4039, -13.9881, 97.3068, -52.3975, 45.5645
4.908, 5, 35.8651, 48.4106, -13.991, 97.3051, -52.4178, 45.5576
4.912, 5, 35.8653, 48.4172, -13.9938, 97.3034, -52.438, 45.5508
4.916, 5, 35.8655, 48.4239, -13.9966, 97.3017, -52.4583, 45.5439
4.92, 5, 35.8657, 48.4306, -13.9994, 97.3, -52.4785, 45.5371
4.924, 5, 35.8659, 48.4372, -14.0023, 97.2984, -52.4988, 45.5302
4.928, 5, 35.8661, 48.4439, -14.0051, 97.2967, -52.519, 45.5234
4.932, 5, 35.8663, 48.4506, -14.0079, 97.295, -52.5392, 45.5166
4.936, 5, 35.8664, 48.4572, -14.0107, 97.2932, -52.5595, 45.5097
4.94, 5, 35.8666, 48.4639, -14.0135, 97.2915, -52.5797, 45.5029
4.944, 5, 35.8668, 48.4706, -14.0163, 97.2898, -52.5999, 45.4961
4.948, 5, 35.867, 48.4772, -14.0191, 97.2881, -52.6202, 45.4893
4.952, 5, 35.8672, 48.4839, -14.022, 97.2863, -52.6404, 45.4824
4.956, 5, 35.8674, 48.4905, -14.0247, 97.2846, -52.6606, 45.4756
4.96, 5, 35.8675, 48.4972, -14.0275, 97.2828, -52.6809, 45.4688
4.964, 5, 35.8677, 48.5039, -14.0303, 97.2811, -52.7011, 45.462
4.968, 5, 35.8679, 48.5105, -14.0331, 97.2793, -52.7213, 45.4552
4.972, 5, 35.8681, 48.5172, -14.0359, 97.2776, -52.7415, 45.4484
4.976, 5, 35.8683, 48.5238, -14.0387, 97.2758, -52.7618, 45.4416
4.98, 5, 35.8684, 48.5305, -14.0415, 97.274, -52.782, 45.4348
4.984, 5, 35.8686, 48.5371, -14.0443, 97.2722, -52.8022, 45.428
4.988, 5, 35.8688, 48.5438, -14.047, 97.2705, -52.8224, 45.4212
4.992, 5, 35.8689, 48.5504, -14.0498, 97.2687, -52.8426, 45.4145
4.996, 5, 35.8691, 48.5571, -14.0526, 97.2669, -52.8628, 45.4077
5, 5, 35.8693, 48.5637, -14.0553, 97.2651, -52.883, 45.4009
5.004, 5, 35.8694, 48.5704, -14.0581, 97.2632, -52.9032, 45.3941
5.008, 5, 35.8696, 48.577, -14.0608, 97.2614, -52.9234, 45.3874
5.012, 5, 35.8697, 48.5836, -14.0636, 97.2596, -52.9436, 45.3806
5.016, 5, 35.8699, 48.5903, -14.0664, 97.2578, -52.9638, 45.3738
5.02, 5, 35.87, 48.5969, -14.0691, 97.256, -52.984, 45.3671
5.024, 5, 35.8702, 48.6036, -14.0718, 97.2541, -53.0042, 45.3603
5.028, 5, 35.8704, 48.6102, -14.0746, 97.2523, -53.0244, 45.3536
5.032, 5, 35.8705, 48.6168, -14.0773, 97.2504, -53.0446, 45.3468
5.036, 5, 35.8707, 48.6235, -14.0801, 97.2485, -53.0648, 45.3401
5.04, 5, 35.8708, 48.6301, -14.0828, 97.2467, -53.085, 45.3333
5.044, 5, 35.871, 48.6367, -14.0855, 97.2448, -53.1052, 45.3266
5.048, 5, 35.8711, 48.6434, -14.0882, 97.2429, -53.1254, 45.3199
5.052, 5, 35.8712, 48.65, -14.091, 97.2411, -53.1455, 45.3131
5.056, 5, 35.8714, 48.6566, -14.0937, 97.2392, -53.1657, 45.3064
5.06, 5, 35.8715, 48.6633, -14.0964, 97.2373, -53.1859, 45.2997
5.064, 5, 35.8717, 48.6699, -14.0991, 97.2354, -53.2061, 45.293
5.068, 5, 35.8718, 48.6765, -14.1018, 97.2335, -53.2262, 45.2862
5.072, 5, 35.8719, 48.6831, -14.1045, 97.2316, -53.2464, 45.2795
5.076, 5, 35.8721, 48.6898, -14.1072, 97.2297, -53.2666, 45.2728
5.08, 5, 35.8722, 48.6964, -14.1099, 97.2277, -53.2867, 45.2661
5.084, 5, 35.8723, 48.703, -14.1126, 97.2258, -53.3069, 45.2594
5.088, 5, 35.8725, 48.7096, -14.1153, 97.2239, -53.3271, 45.2527
5.092, 5, 35.8726, 48.7162, -14.118, 97.2219, -53.3472, 45.246
5.096, 5, 35.8727, 48.7229, -14.1207, 97.22, -53.3674, 45.2393
5.1, 5, 35.8728, 48.7295, -14.1234, 97.218, -53.3876, 45.2326
5.104, 5, 35.873, 48.7361, -14.1261, 97.2161, -53.4077, 45.2259
5.108, 5, 35.8731, 48.7427, -14.1287, 97.2141, -53.4279, 45.2192
5.112, 5, 35.8732, 48.7493, -14.1314, 97.2121, -53.448, 45.2125
5.116, 5, 35.8733, 48.7559, -14.1341, 97.2102, -53.4682, 45.2059
5.12, 5, 35.8734, 48.7625, -14.1368, 97.2082, -53.4883, 45.1992
5.124, 5, 35.8735, 48.7691, -14.1394, 97.2062, -53.5084, 45.1925
5.128, 5, 35.8737, 48.7758, -14.1421, 97.2042, -53.5286, 45.1858
5.132, 5, 35.8738, 48.7824, -14.1447, 97.2022, -53.5487, 45.1792
5.136, 5, 35.8739, 48.789, -14.1474, 97.2002, -53.5689, 45.1725
5.14, 5, 35.874, 48.7956, -14.15, 97.1982, -53.589, 45.1659
5.144, 5, 35.8741, 48.8022, -14.1527, 97.1962, -53.6091, 45.1592
5.148, 5, 35.8742, 48.8088, -14.1553, 97.1942, -53.6293, 45.1525
5.152, 5, 35.8743, 48.8154, -14.158, 97.1921, -53.6494, 45.1459
5.156, 5, 35.8744, 48.822, -14.1606, 97.1901, -53.6695, 45.1392
5.16, 5, 35.8745, 48.8286, -14.1632, 97.1881, -53.6896, 45.1326
5.164, 5, 35.8746, 48.8352, -14.1659, 97.186, -53.7098, 45.126
5.168, 5, 35.8747, 48.8418, -14.1685, 97.184, -53.7299, 45.1193
5.172, 5, 35.8748, 48.8484, -14.1711, 97.1819, -53.75, 45.1127
5.176, 5, 35.8749, 48.855, -14.1738, 97.1799, -53.7701, 45.106
5.18, 5, 35.875, 48.8615, -14.1764, 97.1778, -53.7902, 45.0994
5.184, 5, 35.8751, 48.8681, -14.179, 97.1757, -53.8103, 45.0928
5.188, 5, 35.8751, 48.8747, -14.1816, 97.1737, -53.8305, 45.0862
5.192, 5, 35.8752, 48.8813, -14.1842, 97.1716, -53.8506, 45.0796
5.196, 5, 35.8753, 48.8879, -14.1868, 97.1695, -53.8707, 45.0729
5.2, 5, 35.8754, 48.8945, -14.1894, 97.1674, -53.8908, 45.0663
5.204, 5, 35.8755, 48.9011, -14.192, 97.1653, -53.9109, 45.0597
5.208, 5, 35.8756, 48.9077, -14.1946, 97.1632, -53.931, 45.0531
5.212, 5, 35.8756, 48.9142, -14.1972, 97.1611, -53.9511, 45.0465
5.216, 5, 35.8757, 48.9208, -14.1998, 97.159, -53.9712, 45.0399
5.22, 5, 35.8758, 48.9274, -14.2024, 97.1568, -53.9913, 45.0333
5.224, 5, 35.8759, 48.934, -14.205, 97.1547, -54.0114, 45.0267
5.228, 5, 35.8759, 48.9406, -14.2075, 97.1526, -54.0314, 45.0201
5.232, 5, 35.876, 48.9471, -14.2101, 97.1504, -54.0515, 45.0135
5.236, 5, 35.8761, 48.9537, -14.2127, 97.1483, -54.0716, 45.0069
5.24, 5, 35.8762, 48.9603, -14.2152, 97.1461, -54.0917, 45.0004
5.244, 5, 35.8762, 48.9669, -14.2178, 97.144, -54.1118, 44.9938
5.248, 5, 35.8763, 48.9734, -14.2204, 97.1418, -54.1319, 44.9872
5.252, 5, 35.8764, 48.98, -14.2229, 97.1397, -54.1519, 44.9806
5.256, 5, 35.8764, 48.9866, -14.2255, 97.1375, -54.172, 44.9741
5.26, 5, 35.8765, 48.9931, -14.228, 97.1353, -54.1921, 44.9675
5.264, 5, 35.8765, 48.9997, -14.2306, 97.1331, -54.2122, 44.9609
5.268, 5, 35.8766, 49.0063, -14.2331, 97.131, -54.2322, 44.9544
5.272, 5, 35.8766, 49.0128, -14.2357, 97.1288, -54.2523, 44.9478
5.276, 5, 35.8767, 49.0194, -14.2382, 97.1266, -54.2724, 44.9412
5.28, 5, 35.8767, 49.026, -14.2408, 97.1243, -54.2924, 44.9347
5.284, 5, 35.8768, 49.0325, -14.2433, 97.1221, -54.3125, 44.9281
5.288, 5, 35.8768, 49.0391, -14.2458, 97.1199, -54.3325, 44.9216
5.292, 5, 35.8769, 49.0456, -14.2483, 97.1177, -54.3526, 44.9151
5.296, 5, 35.8769, 49.0522, -14.2509, 97.1155, -54.3727, 44.9085
5.3, 5, 35.877, 49.0587, -14.2534, 97.1132, -54.3927, 44.902
5.304, 5, 35.877, 49.0653, -14.2559, 97.111, -54.4128, 44.8954
5.308, 5, 35.8771, 49.0718, -14.2584, 97.1088, -54.4328, 44.8889
5.312, 5, 35.8771, 49.0784, -14.2609, 97.1065, -54.4529, 44.8824
5.316, 5, 35.8771, 49.085, -14.2634, 97.1043, -54.4729, 44.8759
5.32, 5, 35.8772, 49.0915, -14.2659, 97.102, -54.4929, 44.8693
5.324, 5, 35.8772, 49.098, -14.2684, 97.0997, -54.513, 44.8628
5.328, 5, 35.8772, 49.1046, -14.2709, 97.0975, -54.533, 44.8563
5.332, 5, 35.8773, 49.1111, -14.2734, 97.0952, -54.5531, 44.8498
5.336, 5, 35.8773, 49.1177, -14.2759, 97.0929, -54.5731, 44.8433
5.34, 5, 35.8773, 49.1242, -14.2784, 97.0906, -54.5931, 44.8368
5.344, 5, 35.8774, 49.1308, -14.2809, 97.0883, -54.6132, 44.8303
5.348, 5, 35.8774, 49.1373, -14.2833, 97.086, -54.6332, 44.8238
5.352, 5, 35.8774, 49.1438, -14.2858, 97.0837, -54.6532, 44.8172
5.356, 5, 35.8774, 49.1504, -14.2883, 97.0814, -54.6732, 44.8108
5.36, 5, 35.8775, 49.1569, -14.2908, 97.0791, -54.6933, 44.8043
5.364, 5, 35.8775, 49.1635, -14.2932, 97.0768, -54.7133, 44.7978
5.368, 5, 35.8775, 49.17, -14.2957, 97.0745, -54.7333, 44.7913
5.372, 5, 35.8775, 49.1765, -14.2982, 97.0721, -54.7533, 44.7848
5.376, 5, 35.8775, 49.1831, -14.3006, 97.0698, -54.7733, 44.7783
5.38, 5, 35.8775, 49.1896, -14.3031, 97.0675, -54.7933, 44.7718
5.384, 5, 35.8775, 49.1961, -14.3055, 97.0651, -54.8133, 44.7654
5.388, 5, 35.8775, 49.2026, -14.308, 97.0628, -54.8334, 44.7589
5.392, 5, 35.8776, 49.2092, -14.3104, 97.0604, -54.8534, 44.7524
5.396, 5, 35.8776, 49.2157, -14.3128, 97.058, -54.8734, 44.7459
5.4, 5, 35.8776, 49.2222, -14.3153, 97.0557, -54.8934, 44.7395
5.404, 5, 35.8776, 49.2287, -14.3177, 97.0533, -54.9134, 44.733
5.408, 5, 35.8776, 49.2353, -14.3201, 97.0509, -54.9334, 44.7266
5.412, 5, 35.8776, 49.2418, -14.3226, 97.0485, -54.9534, 44.7201
5.416, 5, 35.8776, 49.2483, -14.325, 97.0461, -54.9734, 44.7136
5.42, 5, 35.8776, 49.2548, -14.3274, 97.0437, -54.9933, 44.7072
5.424, 5, 35.8776, 49.2613, -14.3298, 97.0413, -55.0133, 44.7007
5.428, 5, 35.8776, 49.2678, -14.3322, 97.0389, -55.0333, 44.6943
5.432, 5, 35.8775, 49.2743, -14.3346, 97.0365, -55.0533, 44.6879
5.436, 5, 35.8775, 49.2809, -14.337, 97.0341, -55.0733, 44.6814
5.44, 5, 35.8775, 49.2874, -14.3394, 97.0317, -55.0933, 44.675
5.444, 5, 35.8775, 49.2939, -14.3418, 97.0293, -55.1132, 44.6686
5.448, 5, 35.8775, 49.3004, -14.3442, 97.0268, -55.1332, 44.6621
5.452, 5, 35.8775, 49.3069, -14.3466, 97.0244, -55.1532, 44.6557
5.456, 5, 35.8775, 49.3134, -14.349, 97.0219, -55.1732, 44.6493
5.46, 5, 35.8774, 49.3199, -14.3514, 97.0195, -55.1931, 44.6428
5.464, 5, 35.8774, 49.3264, -14.3538, 97.017, -55.2131, 44.6364
5.468, 5, 35.8774, 49.3329, -14.3562, 97.0146, -55.2331, 44.63
5.472, 5, 35.8774, 49.3394, -14.3585, 97.0121, -55.253, 44.6236
5.476, 5, 35.8773, 49.3459, -14.3609, 97.0096, -55.273, 44.6172
5.48, 5, 35.8773, 49.3524, -14.3633, 97.0072, -55.293, 44.6108
5.484, 5, 35.8773, 49.3589, -14.3656, 97.0047, -55.3129, 44.6044
5.488, 5, 35.8773, 49.3654, -14.368, 97.0022, -55.3329, 44.598
5.492, 5, 35.8772, 49.3719, -14.3703, 96.9997, -55.3528, 44.5916
5.496, 5, 35.8772, 49.3784, -14.3727, 96.9972, -55.3728, 44.5852
5.5, 5, 35.8772, 49.3849, -14.3751, 96.9947, -55.3927, 44.5788
5.504, 5, 35.8771, 49.3913, -14.3774, 96.9922, -55.4127, 44.5724
5.508, 5, 35.8771, 49.3978, -14.3797, 96.9897, -55.4326, 44.566
5.512, 5, 35.877, 49.4043, -14.3821, 96.9872, -55.4526, 44.5596
5.516, 5, 35.877, 49.4108, -14.3844, 96.9846, -55.4725, 44.5532
5.52, 5, 35.877, 49.4173, -14.3868, 96.9821, -55.4925, 44.5468
5.524, 5, 35.8769, 49.4238, -14.3891, 96.9796, -55.5124, 44.5405
5.528, 5, 35.8769, 49.4303, -14.3914, 96.9771, -55.5323, 44.5341
5.532, 5, 35.8768, 49.4367, -14.3937, 96.9745, -55.5523, 44.5277
5.536, 5, 35.8768, 49.4432, -14.3961, 96.972, -55.5722, 44.5213
5.54, 5, 35.8767, 49.4497, -14.3984, 96.9694, -55.5921, 44.515
5.544, 5, 35.8767, 49.4562, -14.4007, 96.9668, -55.612, 44.5086
5.548, 5, 35.8766, 49.4626, -14.403, 96.9643, -55.632, 44.5022
5.552, 5, 35.8765, 49.4691, -14.4053, 96.9617, -55.6519, 44.4959
5.556, 5, 35.8765, 49.4756, -14.4076, 96.9591, -55.6718, 44.4895
5.56, 5, 35.8764, 49.482, -14.4099, 96.9566, -55.6917, 44.4832
5.564, 5, 35.8764, 49.4885, -14.4122, 96.954, -55.7117, 44.4768
5.568, 5, 35.8763, 49.495, -14.4145, 96.9514, -55.7316, 44.4705
5.572, 5, 35.8762, 49.5014, -14.4168, 96.9488, -55.7515, 44.4641
5.576, 5, 35.8762, 49.5079, -14.4191, 96.9462, -55.7714, 44.4578
5.58, 5, 35.8761, 49.5144, -14.4213, 96.9436, -55.7913, 44.4514
5.584, 5, 35.876, 49.5208, -14.4236, 96.941, -55.8112, 44.4451
5.588, 5, 35.876, 49.5273, -14.4259, 96.9383, -55.8311, 44.4388
5.592, 5, 35.8759, 49.5338, -14.4282, 96.9357, -55.851, 44.4324
5.596, 5, 35.8758, 49.5402, -14.4304, 96.9331, -55.8709, 44.4261
5.6, 5, 35.8758, 49.5467, -14.4327, 96.9305, -55.8908, 44.4198
5.604, 5, 35.8757, 49.5531, -14.435, 96.9278, -55.9107, 44.4135
5.608, 5, 35.8756, 49.5596, -14.4372, 96.9252, -55.9306, 44.4071
5.612, 5, 35.8755, 49.566, -14.4395, 96.9225, -55.9505, 44.4008
5.616, 5, 35.8754, 49.5725, -14.4417, 96.9199, -55.9704, 44.3945
5.62, 5, 35.8754, 49.5789, -14.444, 96.9172, -55.9903, 44.3882
5.624, 5, 35.8753, 49.5854, -14.4462, 96.9146, -56.0102, 44.3819
5.628, 5, 35.8752, 49.5918, -14.4484, 96.9119, -56.03, 44.3756
5.632, 5, 35.8751, 49.5983, -14.4507, 96.9092, -56.0499, 44.3693
5.636, 5, 35.875, 49.6047, -14.4529, 96.9065, -56.0698, 44.363
5.64, 5, 35.8749, 49.6111, -14.4551, 96.9038, -56.0897, 44.3567
5.644, 5, 35.8748, 49.6176, -14.4574, 96.9012, -56.1096, 44.3504
5.648, 5, 35.8747, 49.624, -14.4596, 96.8985, -56.1294, 44.3441
5.652, 5, 35.8746, 49.6305, -14.4618, 96.8958, -56.1493, 44.3378
5.656, 5, 35.8745, 49.6369, -14.464, 96.8931, -56.1692, 44.3315
5.66, 5, 35.8744, 49.6433, -14.4662, 96.8903, -56.189, 44.3252
5.664, 5, 35.8743, 49.6498, -14.4685, 96.8876, -56.2089, 44.3189
5.668, 5, 35.8742, 49.6562, -14.4707, 96.8849, -56.2288, 44.3126
5.672, 5, 35.8741, 49.6626, -14.4729, 96.8822, -56.2486, 44.3063
5.676, 5, 35.874, 49.6691, -14.4751, 96.8794, -56.2685, 44.3001
5.68, 5, 35.8739, 49.6755, -14.4773, 96.8767, -56.2884, 44.2938
5.684, 5, 35.8738, 49.6819, -14.4794, 96.874, -56.3082, 44.2875
5.688, 5, 35.8737, 49.6883, -14.4816, 96.8712, -56.3281, 44.2813
5.692, 5, 35.8736, 49.6948, -14.4838, 96.8685, -56.3479, 44.275
5.696, 5, 35.8735, 49.7012, -14.486, 96.8657, -56.3678, 44.2687
5.7, 5, 35.8734, 49.7076, -14.4882, 96.863, -56.3876, 44.2625
5.704, 5, 35.8732, 49.714, -14.4904, 96.8602, -56.4075, 44.2562
5.708, 5, 35.8731, 49.7204, -14.4925, 96.8574, -56.4273, 44.2499
5.712, 5, 35.873, 49.7269, -14.4947, 96.8546, -56.4471, 44.2437
5.716, 5, 35.8729, 49.7333, -14.4969, 96.8519, -56.467, 44.2374
5.72, 5, 35.8728, 49.7397, -14.499, 96.8491, -56.4868, 44.2312
5.724, 5, 35.8726, 49.7461, -14.5012, 96.8463, -56.5066, 44.2249
5.728, 5, 35.8725, 49.7525, -14.5033, 96.8435, -56.5265, 44.2187
5.732, 5, 35.8724, 49.7589, -14.5055, 96.8407, -56.5463, 44.2125
5.736, 5, 35.8723, 49.7653, -14.5076, 96.8379, -56.5661, 44.2062
5.74, 5, 35.8721, 49.7717, -14.5098, 96.8351, -56.586, 44.2
5.744, 5, 35.872, 49.7781, -14.5119, 96.8322, -56.6058, 44.1937
5.748, 5, 35.8719, 49.7845, -14.514, 96.8294, -56.6256, 44.1875
5.752, 5, 35.8717, 49.7909, -14.5162, 96.8266, -56.6454, 44.1813
5.756, 5, 35.8716, 49.7973, -14.5183, 96.8238, -56.6652, 44.1751
5.76, 5, 35.8715, 49.8037, -14.5204, 96.8209, -56.6851, 44.1688
5.764, 5, 35.8713, 49.8101, -14.5225, 96.8181, -56.7049, 44.1626
5.768, 5, 35.8712, 49.8165, -14.5247, 96.8152, -56.7247, 44.1564
5.772, 5, 35.871, 49.8229, -14.5268, 96.8124, -56.7445, 44.1502
5.776, 5, 35.8709, 49.8293, -14.5289, 96.8095, -56.7643, 44.144
5.78, 5, 35.8707, 49.8357, -14.531, 96.8067, -56.7841, 44.1378
5.784, 5, 35.8706, 49.8421, -14.5331, 96.8038, -56.8039, 44.1315
5.788, 5, 35.8704, 49.8485, -14.5352, 96.8009, -56.8237, 44.1253
5.792, 5, 35.8703, 49.8549, -14.5373, 96.798, -56.8435, 44.1191
5.796, 5, 35.8701, 49.8613, -14.5394, 96.7952, -56.8633, 44.1129
5.8, 5, 35.87, 49.8676, -14.5415, 96.7923, -56.8831, 44.1067
5.804, 5, 35.8698, 49.874, -14.5435, 96.7894, -56.9029, 44.1005
5.808, 5, 35.8697, 49.8804, -14.5456, 96.7865, -56.9227, 44.0943
5.812, 5, 35.8695, 49.8868, -14.5477, 96.7836, -56.9425, 44.0882
5.816, 5, 35.8693, 49.8932, -14.5498, 96.7807, -56.9623, 44.082
5.82, 5, 35.8692, 49.8995, -14.5519, 96.7778, -56.9821, 44.0758
5.824, 5, 35.869, 49.9059, -14.5539, 96.7748, -57.0018, 44.0696
5.828, 5, 35.8689, 49.9123, -14.556, 96.7719, -57.0216, 44.0634
5.832, 5, 35.8687, 49.9187, -14.558, 96.769, -57.0414, 44.0572
5.836, 5, 35.8685, 49.925, -14.5601, 96.7661, -57.0612, 44.0511
5.84, 5, 35.8684, 49.9314, -14.5622, 96.7631, -57.0809, 44.0449
5.844, 5, 35.8682, 49.9378, -14.5642, 96.7602, -57.1007, 44.0387
5.848, 5, 35.868, 49.9441, -14.5662, 96.7572, -57.1205, 44.0325
5.852, 5, 35.8678, 49.9505, -14.5683, 96.7543, -57.1403, 44.0264
5.856, 5, 35.8677, 49.9569, -14.5703, 96.7513, -57.16, 44.0202
5.86, 5, 35.8675, 49.9632, -14.5724, 96.7484, -57.1798, 44.014
5.864, 5, 35.8673, 49.9696, -14.5744, 96.7454, -57.1996, 44.0079
5.868, 5, 35.8671, 49.9759, -14.5764, 96.7424, -57.2193, 44.0017
5.872, 5, 35.8669, 49.9823, -14.5784, 96.7394, -57.2391, 43.9956
5.876, 5, 35.8667, 49.9887, -14.5805, 96.7365, -57.2588, 43.9894
5.88, 5, 35.8666, 49.995, -14.5825, 96.7335, -57.2786, 43.9833
5.884, 5, 35.8664, 50.0014, -14.5845, 96.7305, -57.2983, 43.9771
5.888, 5, 35.8662, 50.0077, -14.5865, 96.7275, -57.3181, 43.971
5.892, 5, 35.866, 50.0141, -14.5885, 96.7245, -57.3378, 43.9648
5.896, 5, 35.8658, 50.0204, -14.5905, 96.7215, -57.3576, 43.9587
5.9, 5, 35.8656, 50.0268, -14.5925, 96.7185, -57.3773, 43.9526
5.904, 5, 35.8654, 50.0331, -14.5945, 96.7154, -57.3971, 43.9464
5.908, 5, 35.8652, 50.0394, -14.5965, 96.7124, -57.4168, 43.9403
5.912, 5, 35.865, 50.0458, -14.5985, 96.7094, -57.4365, 43.9341
5.916, 5, 35.8648, 50.0521, -14.6005, 96.7064, -57.4563, 43.928
5.92, 5, 35.8646, 50.0585, -14.6025, 96.7033, -57.476, 43.9219
5.924, 5, 35.8644, 50.0648, -14.6044, 96.7003, -57.4957, 43.9158
5.928, 5, 35.8642, 50.0711, -14.6064, 96.6972, -57.5155, 43.9096
5.932, 5, 35.864, 50.0775, -14.6084, 96.6942, -57.5352, 43.9035
5.936, 5, 35.8638, 50.0838, -14.6104, 96.6911, -57.5549, 43.8974
5.94, 5, 35.8636, 50.0901, -14.6123, 96.6881, -57.5746, 43.8913
5.944, 5, 35.8634, 50.0965, -14.6143, 96.685, -57.5944, 43.8852
5.948, 5, 35.8632, 50.1028, -14.6162, 96.6819, -57.6141, 43.8791
5.952, 5, 35.8629, 50.1091, -14.6182, 96.6789, -57.6338, 43.873
5.956, 5, 35.8627, 50.1154, -14.6201, 96.6758, -57.6535, 43.8669
5.96, 5, 35.8625, 50.1218, -14.6221, 96.6727, -57.6732, 43.8608
5.964, 5, 35.8623, 50.1281, -14.624, 96.6696, -57.6929, 43.8547
5.968, 5, 35.8621, 50.1344, -14.626, 96.6665, -57.7126, 43.8486
5.972, 5, 35.8619, 50.1407, -14.6279, 96.6634, -57.7323, 43.8425
5.976, 5, 35.8616, 50.147, -14.6298, 96.6603, -57.752, 43.8364
5.98, 5, 35.8614, 50.1534, -14.6318, 96.6572, -57.7718, 43.8303
5.984, 5, 35.8612, 50.1597, -14.6337, 96.6541, -57.7914, 43.8242
5.988, 5, 35.8609, 50.166, -14.6356, 96.651, -57.8111, 43.8181
5.992, 5, 35.8607, 50.1723, -14.6375, 96.6479, -57.8308, 43.812
5.996, 5, 35.8605, 50.1786, -14.6394, 96.6447, -57.8505, 43.8059
6, 5, 35.8603, 50.1849, -14.6413, 96.6416, -57.8702, 43.7999
6.004, 5, 35.86, 50.1912, -14.6432, 96.6384, -57.8899, 43.7938
6.008, 5, 35.8598, 50.1975, -14.6451, 96.6353, -57.9096, 43.7877
6.012, 5, 35.8595, 50.2038, -14.647, 96.6321, -57.9293, 43.7816
6.016, 5, 35.8593, 50.2101, -14.6489, 96.629, -57.949, 43.7756
6.02, 5, 35.8591, 50.2164, -14.6508, 96.6258, -57.9687, 43.7695
6.024, 5, 35.8588, 50.2227, -14.6527, 96.6227, -57.9883, 43.7634
6.028, 5, 35.8586, 50.229, -14.6546, 96.6195, -58.008, 43.7574
6.032, 5, 35.8583, 50.2353, -14.6565, 96.6163, -58.0277, 43.7513
6.036, 5, 35.8581, 50.2416, -14.6583, 96.6132, -58.0474, 43.7452
6.04, 5, 35.8578, 50.2479, -14.6602, 96.61, -58.067, 43.7392
6.044, 5, 35.8576, 50.2542, -14.6621, 96.6068, -58.0867, 43.7331
6.048, 5, 35.8573, 50.2605, -14.664, 96.6036, -58.1064, 43.7271
6.052, 5, 35.8571, 50.2668, -14.6658, 96.6004, -58.126, 43.721
6.056, 5, 35.8568, 50.2731, -14.6677, 96.5972, -58.1457, 43.715
6.06, 5, 35.8566, 50.2793, -14.6695, 96.594, -58.1654, 43.7089
6.064, 5, 35.8563, 50.2856, -14.6714, 96.5908, -58.185, 43.7029
6.068, 5, 35.856, 50.2919, -14.6732, 96.5876, -58.2047, 43.6968
