hehonglu123/Motion-Primitive-Planning/ILC/recorded_data/realrobot/wood/iteration_11/run_2.csv
timestamp, cmd_num, J1, J2, J3, J4, J5, J6
0.000376, -1, 11.3757, 13.6141, 17.3366, -145.521, -97.9256, 142.516
0.005037, -1, 11.3757, 13.6141, 17.3366, -145.521, -97.9256, 142.516
0.007891, -1, 11.3757, 13.6141, 17.3366, -145.521, -97.9257, 142.516
0.029938, -1, 11.3757, 13.6141, 17.3366, -145.521, -97.9257, 142.516
0.031313, -1, 11.3757, 13.6141, 17.3366, -145.521, -97.9257, 142.516
0.034507, -1, 11.3757, 13.6141, 17.3366, -145.521, -97.9256, 142.516
0.039746, -1, 11.3757, 13.6141, 17.3366, -145.521, -97.9256, 142.516
0.048715, -1, 11.3757, 13.6141, 17.3366, -145.521, -97.9257, 142.516
0.055731, -1, 11.3751, 13.6141, 17.3366, -145.521, -97.9256, 142.516
0.06366, -1, 11.3724, 13.6139, 17.3366, -145.521, -97.9256, 142.516
0.197782, -1, 10.0407, 13.2597, 17.4235, -145.938, -97.7828, 140.097
0.201406, -1, 9.96417, 13.2391, 17.4285, -145.962, -97.7743, 139.958
0.203543, -1, 9.88703, 13.2184, 17.4335, -145.986, -97.7656, 139.818
0.204762, -1, 9.88703, 13.2184, 17.4335, -145.986, -97.7656, 139.818
0.206026, -1, 9.88703, 13.2184, 17.4335, -145.986, -97.7656, 139.818
0.208167, -1, 9.80947, 13.1977, 17.4385, -146.01, -97.757, 139.679
0.209449, -1, 9.80947, 13.1977, 17.4385, -146.01, -97.757, 139.679
0.213709, -1, 9.73166, 13.177, 17.4436, -146.034, -97.7484, 139.539
0.215792, -1, 9.65384, 13.1563, 17.4486, -146.058, -97.7398, 139.399
0.216991, -1, 9.65384, 13.1563, 17.4486, -146.058, -97.7398, 139.399
0.219007, -1, 9.57616, 13.1357, 17.4536, -146.082, -97.7312, 139.259
0.220469, -1, 9.57616, 13.1357, 17.4536, -146.082, -97.7312, 139.259
0.221844, -1, 9.57616, 13.1357, 17.4536, -146.082, -97.7312, 139.259
0.225267, -1, 9.49864, 13.1151, 17.4585, -146.106, -97.7227, 139.12
0.227203, -1, 9.42123, 13.0944, 17.4635, -146.13, -97.7143, 138.98
0.231111, -1, 9.34388, 13.0739, 17.4684, -146.154, -97.7059, 138.84
0.232559, -1, 9.34388, 13.0739, 17.4684, -146.154, -97.7059, 138.84
0.233769, -1, 9.34388, 13.0739, 17.4684, -146.154, -97.7059, 138.84
0.235799, -1, 9.26662, 13.0533, 17.4734, -146.178, -97.6975, 138.7
0.237122, -1, 9.26662, 13.0533, 17.4734, -146.178, -97.6975, 138.7
0.239138, -1, 9.18945, 13.0327, 17.4784, -146.202, -97.6892, 138.56
0.240577, -1, 9.18945, 13.0327, 17.4784, -146.202, -97.6892, 138.56
0.251283, -1, 8.95866, 12.9711, 17.4935, -146.274, -97.6641, 138.141
0.255761, -1, 8.88178, 12.9506, 17.4986, -146.298, -97.6557, 138.001
0.263837, -1, 8.7282, 12.9096, 17.5088, -146.346, -97.6385, 137.721
0.272173, -1, 8.5752, 12.8684, 17.5188, -146.393, -97.621, 137.441
0.279665, -1, 8.42244, 12.8272, 17.529, -146.442, -97.6035, 137.161
0.287812, -1, 8.26946, 12.7859, 17.5391, -146.489, -97.5862, 136.881
0.296152, -1, 8.11608, 12.7443, 17.5493, -146.537, -97.5692, 136.6
0.303923, -1, 7.96224, 12.7027, 17.5595, -146.586, -97.5524, 136.32
0.311824, -1, 7.80775, 12.661, 17.5696, -146.633, -97.5357, 136.04
0.321368, -1, 7.65287, 12.6193, 17.5797, -146.681, -97.5191, 135.76
0.327914, -1, 7.49789, 12.5776, 17.5899, -146.729, -97.5022, 135.48
0.336021, -1, 7.34285, 12.5361, 17.6001, -146.777, -97.4851, 135.199
0.342646, -1, 7.26536, 12.5153, 17.6052, -146.801, -97.4764, 135.059
0.352213, -1, 7.03273, 12.453, 17.6206, -146.874, -97.4504, 134.638
0.360228, -1, 6.87758, 12.4117, 17.6309, -146.922, -97.4333, 134.358
0.368307, -1, 6.72259, 12.3705, 17.6412, -146.97, -97.4165, 134.078
0.376206, -1, 6.56782, 12.3291, 17.6517, -147.018, -97.3997, 133.797
0.384294, -1, 6.41335, 12.2878, 17.662, -147.066, -97.383, 133.517
0.392247, -1, 6.33624, 12.2465, 17.6724, -147.114, -97.3661, 133.237
0.400386, -1, 6.182, 12.2258, 17.6775, -147.138, -97.349, 132.956
0.408355, -1, 6.02761, 12.1843, 17.6877, -147.186, -97.3316, 132.675
0.415645, -1, 5.87309, 12.1429, 17.6981, -147.234, -97.3227, 132.535
0.423702, -1, 5.71839, 12.1012, 17.7083, -147.282, -97.3052, 132.254
0.431714, -1, 5.56354, 12.0595, 17.7186, -147.33, -97.2879, 131.973
0.439647, -1, 5.40841, 12.0178, 17.7289, -147.378, -97.271, 131.692
0.447697, -1, 5.25304, 11.9761, 17.7391, -147.427, -97.2541, 131.411
0.455668, -1, 5.09747, 11.9344, 17.7495, -147.475, -97.2374, 131.13
0.463656, -1, 4.94172, 11.8928, 17.76, -147.523, -97.2205, 130.849
0.471698, -1, 4.78598, 11.8512, 17.7705, -147.571, -97.2034, 130.568
0.479658, -1, 4.63024, 11.8097, 17.7809, -147.619, -97.186, 130.287
0.487646, -1, 4.47457, 11.7682, 17.7913, -147.667, -97.1685, 130.006
0.495751, -1, 4.31901, 11.7267, 17.8017, -147.716, -97.1512, 129.725
0.503662, -1, 4.16366, 11.6853, 17.8121, -147.764, -97.1341, 129.444
0.511671, -1, 4.00878, 11.6438, 17.8225, -147.812, -97.1172, 129.163
0.6517, -1, 1.285, 10.9145, 18.0044, -148.658, -96.8175, 124.234
0.652984, -1, 1.285, 10.9145, 18.0044, -148.658, -96.8175, 124.234
0.655058, -1, 1.20714, 10.8936, 18.0096, -148.682, -96.8092, 124.092
0.656264, -1, 1.20714, 10.8936, 18.0096, -148.682, -96.8092, 124.092
0.657591, -1, 1.20714, 10.8936, 18.0096, -148.682, -96.8092, 124.092
0.660235, -1, 1.12938, 10.8727, 18.0148, -148.706, -96.8007, 123.951
0.66311, -1, 1.05171, 10.8518, 18.0199, -148.731, -96.7923, 123.81
0.666203, -1, 1.05171, 10.8518, 18.0199, -148.731, -96.7923, 123.81
0.667721, -1, 0.974123, 10.831, 18.0251, -148.755, -96.7838, 123.669
0.668939, -1, 0.974123, 10.831, 18.0251, -148.755, -96.7838, 123.669
0.671004, -1, 0.896605, 10.8101, 18.0303, -148.779, -96.7752, 123.528
0.672218, -1, 0.896605, 10.8101, 18.0303, -148.779, -96.7752, 123.528
0.673526, -1, 0.896605, 10.8101, 18.0303, -148.779, -96.7752, 123.528
0.675599, -1, 0.81914, 10.7892, 18.0355, -148.803, -96.7665, 123.387
0.676813, -1, 0.81914, 10.7892, 18.0355, -148.803, -96.7665, 123.387
0.679276, -1, 0.741759, 10.7683, 18.0407, -148.828, -96.7578, 123.245
0.680555, -1, 0.741759, 10.7683, 18.0407, -148.828, -96.7578, 123.245
0.683382, -1, 0.664434, 10.7474, 18.0459, -148.852, -96.7491, 123.104
0.68552, -1, 0.664434, 10.7474, 18.0459, -148.852, -96.7491, 123.104
0.687706, -1, 0.587119, 10.7265, 18.0511, -148.876, -96.7402, 122.963
0.688934, -1, 0.587119, 10.7265, 18.0511, -148.876, -96.7402, 122.963
0.691071, -1, 0.509779, 10.7056, 18.0563, -148.901, -96.7313, 122.821
0.700658, -1, 0.354813, 10.6639, 18.0667, -148.949, -96.7139, 122.538
0.703655, -1, 0.277217, 10.6429, 18.0719, -148.973, -96.7053, 122.397
0.711738, -1, 0.12171, 10.601, 18.0824, -149.022, -96.6883, 122.115
0.719653, -1, -0.0341989, 10.5591, 18.0929, -149.07, -96.6715, 121.832
0.727675, -1, -0.190543, 10.5173, 18.1034, -149.118, -96.6548, 121.549
0.735774, -1, -0.347184, 10.4754, 18.1139, -149.167, -96.6379, 121.266
0.743739, -1, -0.504197, 10.4335, 18.1243, -149.215, -96.6209, 120.984
0.751735, -1, -0.661434, 10.3917, 18.1347, -149.263, -96.6035, 120.701
0.759812, -1, -0.81875, 10.3499, 18.1451, -149.312, -96.586, 120.418
0.767748, -1, -0.976117, 10.308, 18.1555, -149.361, -96.5688, 120.135
0.77574, -1, -1.13339, 10.2662, 18.1658, -149.409, -96.5517, 119.852
0.78372, -1, -1.29045, 10.2244, 18.1762, -149.458, -96.5349, 119.569
0.791687, -1, -1.44732, 10.1826, 18.1866, -149.507, -96.5181, 119.285
0.799754, -1, -1.6039, 10.1407, 18.1971, -149.555, -96.5012, 119.002
0.807812, -1, -1.76003, 10.0989, 18.2076, -149.604, -96.4841, 118.719
0.815747, -1, -1.91573, 10.057, 18.218, -149.653, -96.4667, 118.436
0.82385, -1, -2.07109, 10.0151, 18.2284, -149.701, -96.449, 118.152
0.831994, -1, -2.22623, 9.97319, 18.2388, -149.75, -96.4315, 117.869
0.838699, -1, -2.30384, 9.95226, 18.244, -149.774, -96.4228, 117.727
0.848059, -1, -2.53708, 9.88928, 18.2597, -149.847, -96.3972, 117.301
0.854726, -1, -2.61496, 9.86831, 18.2649, -149.871, -96.3888, 117.159
0.864106, -1, -2.84907, 9.80543, 18.2804, -149.944, -96.3636, 116.734
0.870627, -1, -2.92732, 9.78443, 18.2856, -149.968, -96.3551, 116.592
0.880244, -1, -3.1627, 9.72152, 18.3012, -150.042, -96.3295, 116.167
0.888285, -1, -3.32015, 9.67954, 18.3116, -150.09, -96.312, 115.883
0.896275, -1, -3.47794, 9.63751, 18.3221, -150.138, -96.2944, 115.599
0.904377, -1, -3.55684, 9.61654, 18.3274, -150.163, -96.2769, 115.315
0.911619, -1, -3.71463, 9.57468, 18.3378, -150.212, -96.2683, 115.173
0.919682, -1, -3.8726, 9.5327, 18.3481, -150.26, -96.2512, 114.888
0.927642, -1, -4.03052, 9.49069, 18.3585, -150.31, -96.2342, 114.604
0.935618, -1, -4.18836, 9.44877, 18.3689, -150.358, -96.2173, 114.32
0.943692, -1, -4.34613, 9.40678, 18.3792, -150.407, -96.2001, 114.035
0.951625, -1, -4.50359, 9.3648, 18.3896, -150.456, -96.1827, 113.75
0.959749, -1, -4.66057, 9.32278, 18.4, -150.505, -96.165, 113.466
0.967679, -1, -4.81713, 9.28074, 18.4104, -150.553, -96.1474, 113.181
0.975618, -1, -4.97343, 9.23863, 18.4209, -150.603, -96.1299, 112.896
0.983638, -1, -5.12945, 9.19659, 18.4314, -150.651, -96.1126, 112.611
0.991675, -1, -5.28531, 9.15449, 18.442, -150.7, -96.0956, 112.327
0.999681, -1, -5.44132, 9.11234, 18.4524, -150.749, -96.0787, 112.042
1.00762, -1, -5.5975, 9.07026, 18.4628, -150.798, -96.0618, 111.757
1.01572, -1, -5.75399, 9.02817, 18.4733, -150.846, -96.0446, 111.472
1.02374, -1, -5.91091, 8.98598, 18.4838, -150.895, -96.0271, 111.187
1.0317, -1, -6.06834, 8.94386, 18.4941, -150.944, -96.0096, 110.902
1.04122, -1, -6.2263, 8.90173, 18.5045, -150.993, -95.992, 110.617
1.04766, -1, -6.38456, 8.85963, 18.5148, -151.042, -95.9747, 110.332
1.05569, -1, -6.54294, 8.81759, 18.5252, -151.091, -95.9577, 110.047
1.06469, -1, -6.70152, 8.77544, 18.5358, -151.14, -95.9407, 109.761
1.07163, -1, -6.86023, 8.73331, 18.5463, -151.189, -95.9237, 109.476
1.07969, -1, -7.01878, 8.69124, 18.5568, -151.238, -95.9065, 109.19
1.08762, -1, -7.17726, 8.64909, 18.5672, -151.287, -95.889, 108.905
1.0957, -1, -7.33563, 8.6069, 18.5776, -151.336, -95.8713, 108.619
1.10363, -1, -7.49373, 8.56464, 18.588, -151.385, -95.8536, 108.333
1.11162, -1, -7.65136, 8.52235, 18.5986, -151.434, -95.8361, 108.047
1.11972, -1, -7.80862, 8.48008, 18.609, -151.483, -95.8189, 107.762
1.12761, -1, -7.96564, 8.43781, 18.6194, -151.532, -95.8018, 107.476
1.13562, -1, -8.12231, 8.39546, 18.6298, -151.581, -95.7849, 107.19
1.14411, -1, -8.27884, 8.35312, 18.6403, -151.63, -95.7678, 106.904
1.15073, -1, -8.4355, 8.31073, 18.6508, -151.679, -95.7507, 106.618
1.15962, -1, -8.59254, 8.26836, 18.6613, -151.728, -95.7331, 106.332
1.1685, -1, -8.74984, 8.22612, 18.6718, -151.778, -95.7155, 106.045
1.17561, -1, -8.90748, 8.1838, 18.6822, -151.826, -95.6979, 105.759
1.18366, -1, -9.06558, 8.14148, 18.6926, -151.875, -95.6806, 105.473
1.19244, -1, -9.22411, 8.09927, 18.7031, -151.925, -95.6634, 105.186
1.19962, -1, -9.383, 8.05695, 18.7135, -151.974, -95.6463, 104.899
1.20765, -1, -9.54208, 8.01465, 18.724, -152.023, -95.6292, 104.613
1.21646, -1, -9.70123, 7.97243, 18.7345, -152.073, -95.6119, 104.326
1.22362, -1, -9.86052, 7.93021, 18.745, -152.121, -95.5943, 104.039
1.23188, -1, -10.0199, 7.88782, 18.7557, -152.171, -95.5764, 103.752
1.24059, -1, -10.1791, 7.84539, 18.7663, -152.22, -95.5586, 103.465
1.24773, -1, -10.3382, 7.80289, 18.7769, -152.269, -95.541, 103.179
1.25603, -1, -10.4972, 7.76033, 18.7874, -152.319, -95.5238, 102.892
1.26453, -1, -10.6557, 7.71786, 18.7978, -152.368, -95.5068, 102.605
1.27173, -1, -10.8138, 7.67533, 18.8083, -152.417, -95.4898, 102.318
1.28028, -1, -10.9717, 7.63274, 18.8188, -152.466, -95.4726, 102.031
1.28856, -1, -11.1293, 7.59027, 18.8292, -152.516, -95.4553, 101.743
1.29566, -1, -11.2868, 7.54781, 18.8397, -152.565, -95.4376, 101.456
1.30444, -1, -11.4441, 7.50534, 18.8502, -152.615, -95.4197, 101.169
1.31256, -1, -11.6016, 7.46287, 18.8607, -152.664, -95.4021, 100.881
1.31988, -1, -11.7595, 7.42047, 18.8713, -152.713, -95.3847, 100.593
1.32881, -1, -11.9178, 7.37807, 18.8819, -152.762, -95.3675, 100.305
1.33667, -1, -12.0766, 7.3357, 18.8925, -152.812, -95.3503, 100.018
1.34417, -1, -12.2358, 7.29334, 18.903, -152.861, -95.3331, 99.7299
1.35062, -1, -12.3156, 7.27215, 18.9082, -152.886, -95.3244, 99.586
1.36016, -1, -12.5552, 7.20853, 18.924, -152.96, -95.2978, 99.1538
1.36845, -1, -12.7151, 7.1661, 18.9346, -153.009, -95.2798, 98.866
1.37613, -1, -12.8753, 7.12362, 18.9451, -153.059, -95.262, 98.5779
1.38497, -1, -13.0354, 7.08105, 18.9557, -153.108, -95.2445, 98.2899
1.39222, -1, -13.1953, 7.03844, 18.9662, -153.158, -95.2272, 98.0018
1.40021, -1, -13.2753, 7.01714, 18.9768, -153.208, -95.21, 97.7135
1.40904, -1, -13.4349, 6.97446, 18.9821, -153.232, -95.2014, 97.425
1.41637, -1, -13.5942, 6.93165, 18.9927, -153.281, -95.1843, 97.2806
1.42361, -1, -13.7534, 6.8889, 19.0033, -153.331, -95.1669, 96.992
1.4316, -1, -13.9121, 6.8462, 19.0137, -153.38, -95.1492, 96.7037
1.43967, -1, -14.0705, 6.80345, 19.0242, -153.429, -95.1314, 96.415
1.4476, -1, -14.2287, 6.76081, 19.0348, -153.479, -95.1137, 96.1261
1.4556, -1, -14.3868, 6.71814, 19.0452, -153.529, -95.0962, 95.837
1.46368, -1, -14.5451, 6.67544, 19.0558, -153.578, -95.0789, 95.5481
1.47161, -1, -14.7038, 6.63288, 19.0664, -153.628, -95.0617, 95.259
1.4796, -1, -14.8628, 6.59035, 19.0769, -153.677, -95.0445, 94.9695
1.48766, -1, -15.0222, 6.54764, 19.0876, -153.726, -95.0271, 94.6804
1.4956, -1, -15.1819, 6.50504, 19.0984, -153.777, -95.0094, 94.3913
1.50367, -1, -15.3421, 6.46246, 19.109, -153.826, -94.9913, 94.1021
1.5116, -1, -15.5026, 6.41973, 19.1197, -153.875, -94.9734, 93.8127
1.51974, -1, -15.6633, 6.37703, 19.1303, -153.926, -94.9557, 93.5235
1.5277, -1, -15.824, 6.33427, 19.1409, -153.975, -94.9384, 93.2342
1.5356, -1, -15.9848, 6.29134, 19.1515, -154.025, -94.9211, 92.9445
1.54461, -1, -16.1457, 6.24846, 19.1621, -154.075, -94.9041, 92.6547
1.55169, -1, -16.3064, 6.20555, 19.1726, -154.124, -94.8868, 92.3652
1.56066, -1, -16.4669, 6.16254, 19.1831, -154.173, -94.8693, 92.0755
1.5676, -1, -16.6272, 6.11958, 19.1937, -154.223, -94.8515, 91.7854
1.57568, -1, -16.7871, 6.07661, 19.2043, -154.273, -94.8336, 91.4952
1.58366, -1, -16.9464, 6.03362, 19.2149, -154.323, -94.8159, 91.2052
1.5916, -1, -17.1057, 5.99066, 19.2256, -154.373, -94.7984, 90.915
1.59969, -1, -17.2649, 5.94774, 19.2361, -154.422, -94.7811, 90.6246
1.6076, -1, -17.4239, 5.90494, 19.2467, -154.472, -94.7639, 90.3342
1.6156, -1, -17.5832, 5.86215, 19.2575, -154.522, -94.7464, 90.0441
1.62369, -1, -17.7426, 5.81936, 19.2681, -154.571, -94.7288, 89.7539
1.6316, -1, -17.9022, 5.77658, 19.2788, -154.622, -94.7108, 89.4635
1.63968, -1, -18.0623, 5.73378, 19.2894, -154.671, -94.6927, 89.1729
1.64761, -1, -18.2228, 5.69102, 19.3, -154.721, -94.6748, 88.8824
1.6556, -1, -18.3837, 5.64825, 19.3108, -154.771, -94.6572, 88.5917
1.6637, -1, -18.5451, 5.60532, 19.3215, -154.821, -94.6398, 88.3005
1.67166, -1, -18.7067, 5.56238, 19.3321, -154.871, -94.6225, 88.0097
1.67961, -1, -18.8683, 5.51942, 19.3428, -154.921, -94.6053, 87.7188
1.6877, -1, -19.03, 5.4764, 19.3533, -154.971, -94.5877, 87.4277
1.69562, -1, -19.1916, 5.43321, 19.3639, -155.021, -94.5699, 87.1362
1.70361, -1, -19.3531, 5.39008, 19.3745, -155.071, -94.5518, 86.845
1.71168, -1, -19.5143, 5.34692, 19.3851, -155.121, -94.5338, 86.5535
1.71962, -1, -19.6752, 5.30368, 19.3958, -155.17, -94.516, 86.2618
1.72769, -1, -19.836, 5.26054, 19.4064, -155.221, -94.4985, 85.9701
1.73563, -1, -19.9964, 5.2174, 19.4171, -155.27, -94.481, 85.6786
1.7437, -1, -20.1564, 5.17426, 19.4279, -155.32, -94.4636, 85.3872
1.75199, -1, -20.3161, 5.13134, 19.4387, -155.371, -94.4461, 85.0954
1.75972, -1, -20.476, 5.08837, 19.4495, -155.421, -94.4282, 84.8036
1.76771, -1, -20.6361, 5.04533, 19.4603, -155.471, -94.4101, 84.5119
1.77623, -1, -20.7965, 5.00242, 19.471, -155.521, -94.3921, 84.22
1.78368, -1, -20.9572, 4.95947, 19.4817, -155.571, -94.3745, 83.9279
1.7916, -1, -21.1182, 4.9164, 19.4923, -155.621, -94.357, 83.6357
1.80044, -1, -21.2797, 4.87333, 19.503, -155.672, -94.3397, 83.3438
1.80761, -1, -21.4417, 4.83015, 19.5136, -155.722, -94.3224, 83.0516
1.81567, -1, -21.6038, 4.78686, 19.5243, -155.772, -94.305, 82.7589
1.82466, -1, -21.7661, 4.74367, 19.5351, -155.822, -94.2874, 82.4664
1.83179, -1, -21.9285, 4.70032, 19.5458, -155.872, -94.2694, 82.1738
1.84001, -1, -22.091, 4.65691, 19.5566, -155.923, -94.2514, 81.881
1.84661, -1, -22.1722, 4.63523, 19.562, -155.948, -94.2425, 81.7345
1.856, -1, -22.4158, 4.5701, 19.5779, -156.023, -94.216, 81.2954
1.86416, -1, -22.5778, 4.5267, 19.5887, -156.073, -94.1986, 81.0029
1.87299, -1, -22.7395, 4.48326, 19.5993, -156.123, -94.1811, 80.7101
1.88011, -1, -22.9009, 4.43981, 19.6101, -156.173, -94.1635, 80.417
1.88819, -1, -23.062, 4.3965, 19.6208, -156.224, -94.1456, 80.124
1.89704, -1, -23.2231, 4.3532, 19.6314, -156.274, -94.1275, 79.831
1.90281, -1, -23.3036, 4.33152, 19.6368, -156.299, -94.1184, 79.6843
1.91223, -1, -23.4645, 4.28825, 19.6477, -156.35, -94.0911, 79.2441
1.9196, -1, -23.6255, 4.24496, 19.6585, -156.4, -94.0822, 79.0975
1.92759, -1, -23.7866, 4.20166, 19.6693, -156.45, -94.0646, 78.8041
1.93566, -1, -23.9478, 4.15836, 19.68, -156.501, -94.0471, 78.5105
1.9436, -1, -24.1095, 4.11495, 19.6907, -156.552, -94.0297, 78.2166
1.95064, -1, -24.2716, 4.07153, 19.7015, -156.602, -94.0122, 77.9227
1.95961, -1, -24.4343, 4.02811, 19.7121, -156.653, -93.9943, 77.6286
1.96759, -1, -24.5972, 3.98456, 19.7227, -156.703, -93.9762, 77.3342
1.97461, -1, -24.7604, 3.94098, 19.7334, -156.753, -93.9581, 77.0399
1.98359, -1, -24.9238, 3.89743, 19.7441, -156.804, -93.9403, 76.7461
1.9916, -1, -25.0872, 3.85385, 19.755, -156.854, -93.9226, 76.4518
1.99967, -1, -25.2505, 3.81023, 19.7659, -156.904, -93.9051, 76.1574
2.00763, -1, -25.4136, 3.7666, 19.7767, -156.955, -93.8876, 75.863
2.0156, -1, -25.5765, 3.72293, 19.7875, -157.005, -93.8699, 75.5688
2.02259, -1, -25.7392, 3.6793, 19.7981, -157.055, -93.852, 75.2742
2.03161, -1, -25.9017, 3.63579, 19.809, -157.106, -93.8337, 74.9793
2.03961, -1, -26.0639, 3.59221, 19.8197, -157.156, -93.8153, 74.6846
2.04859, -1, -26.2257, 3.54871, 19.8305, -157.207, -93.7972, 74.39
2.0556, -1, -26.3872, 3.50531, 19.8413, -157.258, -93.7794, 74.0953
2.0636, -1, -26.5489, 3.46179, 19.852, -157.308, -93.7617, 73.8
2.07166, -1, -26.7108, 3.41827, 19.8628, -157.359, -93.7441, 73.5049
2.0796, -1, -26.873, 3.37476, 19.8737, -157.41, -93.7265, 73.2097
2.08891, -1, -27.0356, 3.33113, 19.8845, -157.46, -93.7085, 72.9143
2.09564, -1, -27.1984, 3.28753, 19.8953, -157.511, -93.6903, 72.6189
2.10366, -1, -27.3616, 3.24392, 19.906, -157.561, -93.6719, 72.3237
2.11158, -1, -27.5253, 3.2001, 19.9168, -157.612, -93.6539, 72.0284
2.11959, -1, -27.6891, 3.15635, 19.9276, -157.663, -93.636, 71.7328
2.12766, -1, -27.8532, 3.11269, 19.9384, -157.713, -93.6182, 71.4371
2.13562, -1, -28.0174, 3.06893, 19.9492, -157.764, -93.6006, 71.1417
2.14358, -1, -28.1817, 3.0252, 19.9599, -157.815, -93.5828, 70.8459
2.15166, -1, -28.3459, 2.98146, 19.9707, -157.865, -93.5648, 70.5498
2.15961, -1, -28.51, 2.9377, 19.9817, -157.916, -93.5464, 70.2539
2.16764, -1, -28.6738, 2.89405, 19.9925, -157.967, -93.528, 69.9581
2.17572, -1, -28.8372, 2.85036, 20.0033, -158.018, -93.5097, 69.6618
2.18358, -1, -29.0003, 2.80661, 20.0141, -158.069, -93.4917, 69.3652
2.19161, -1, -29.1631, 2.76298, 20.0248, -158.12, -93.474, 69.0688
2.19968, -1, -29.3258, 2.71928, 20.0357, -158.17, -93.4565, 68.7721
2.20758, -1, -29.4884, 2.67558, 20.0465, -158.222, -93.4388, 68.4753
2.21558, -1, -29.6511, 2.63183, 20.0573, -158.273, -93.4207, 68.1784
2.22375, -1, -29.8141, 2.58802, 20.0681, -158.323, -93.4025, 67.8818
2.23162, -1, -29.9773, 2.54426, 20.079, -158.375, -93.384, 67.5851
2.23966, -1, -30.1406, 2.50038, 20.09, -158.425, -93.3658, 67.288
2.24775, -1, -30.3044, 2.45639, 20.101, -158.476, -93.3478, 66.991
2.25569, -1, -30.4687, 2.41244, 20.1119, -158.527, -93.3299, 66.6941
2.2637, -1, -30.6335, 2.36841, 20.1227, -158.578, -93.3122, 66.3969
2.27178, -1, -30.7985, 2.32443, 20.1335, -158.629, -93.2945, 66.0993
2.27969, -1, -30.9636, 2.2805, 20.1444, -158.68, -93.2764, 65.8021
2.28759, -1, -31.1286, 2.23642, 20.1553, -158.731, -93.258, 65.5051
2.29572, -1, -31.2938, 2.1925, 20.1661, -158.782, -93.2395, 65.2075
2.30361, -1, -31.4587, 2.14865, 20.1769, -158.833, -93.2211, 64.9097
2.31166, -1, -31.6233, 2.10462, 20.1877, -158.884, -93.2031, 64.6119
2.31973, -1, -31.7878, 2.06066, 20.1987, -158.936, -93.1854, 64.314
2.32774, -1, -31.9521, 2.01677, 20.2097, -158.987, -93.1678, 64.0159
2.33594, -1, -32.116, 1.97277, 20.2207, -159.037, -93.1502, 63.7177
2.34396, -1, -32.2797, 1.92878, 20.2316, -159.089, -93.1322, 63.4199
2.35196, -1, -32.4432, 1.88476, 20.2424, -159.14, -93.114, 63.1219
2.35859, -1, -32.525, 1.8627, 20.2479, -159.166, -93.1048, 62.9728
2.3689, -1, -32.7707, 1.79653, 20.2644, -159.243, -93.0773, 62.5254
2.37609, -1, -32.9347, 1.75242, 20.2753, -159.294, -93.0594, 62.2271
2.38431, -1, -33.0991, 1.70815, 20.2862, -159.345, -93.0415, 61.9286
2.39297, -1, -33.2636, 1.66398, 20.297, -159.396, -93.0237, 61.6298
2.40016, -1, -33.4286, 1.61981, 20.308, -159.447, -93.0059, 61.3311
2.40821, -1, -33.5114, 1.57554, 20.319, -159.499, -92.9877, 61.0325
2.41557, -1, -33.677, 1.55342, 20.3244, -159.525, -92.9786, 60.8831
2.42267, -1, -33.8428, 1.50923, 20.3354, -159.576, -92.9599, 60.584
2.43269, -1, -34.0917, 1.44294, 20.3516, -159.653, -92.932, 60.1353
2.43957, -1, -34.1746, 1.42087, 20.3571, -159.678, -92.9229, 59.9857
2.44757, -1, -34.3407, 1.3767, 20.3681, -159.73, -92.9048, 59.6863
2.45562, -1, -34.5068, 1.33249, 20.379, -159.781, -92.887, 59.3866
2.46357, -1, -34.6725, 1.28833, 20.3899, -159.833, -92.8693, 59.0872
2.4716, -1, -34.8378, 1.24413, 20.4009, -159.884, -92.8514, 58.788
2.47964, -1, -35.0028, 1.19991, 20.4118, -159.935, -92.8331, 58.4885
2.48757, -1, -35.1676, 1.15563, 20.4229, -159.987, -92.8147, 58.1887
2.49556, -1, -35.3321, 1.11134, 20.434, -160.038, -92.7961, 57.889
2.50362, -1, -35.496, 1.06719, 20.4451, -160.09, -92.7778, 57.5892
2.51164, -1, -35.6584, 1.02335, 20.4564, -160.141, -92.7597, 57.2893
2.51958, -1, -35.8178, 0.980105, 20.4679, -160.192, -92.7418, 56.9908
2.52767, -1, -35.9733, 0.938, 20.4797, -160.243, -92.7241, 56.6957
2.53559, -1, -36.1238, 0.89751, 20.4917, -160.292, -92.7066, 56.4064
2.54358, -1, -36.2666, 0.859256, 20.5036, -160.339, -92.6895, 56.1274
2.55261, -1, -36.3997, 0.823975, 20.5151, -160.384, -92.673, 55.8649
2.5596, -1, -36.5216, 0.791703, 20.5258, -160.425, -92.6578, 55.6251
2.56858, -1, -36.6307, 0.762873, 20.535, -160.46, -92.6445, 55.4133
2.57564, -1, -36.7254, 0.737824, 20.5423, -160.49, -92.6334, 55.235
2.58357, -1, -36.8055, 0.716591, 20.5474, -160.515, -92.6248, 55.0917
2.59159, -1, -36.8717, 0.69911, 20.5503, -160.534, -92.6183, 54.9832
2.59968, -1, -36.925, 0.68512, 20.5517, -160.547, -92.6138, 54.9064
2.60757, -1, -36.9655, 0.674296, 20.5521, -160.556, -92.611, 54.8546
2.61553, -1, -36.9951, 0.666528, 20.5518, -160.562, -92.6093, 54.8231
2.62364, -1, -37.0154, 0.661452, 20.5514, -160.565, -92.6083, 54.8053
2.63158, -1, -37.0278, 0.658428, 20.551, -160.567, -92.6079, 54.7961
2.63954, 2, -37.0345, 0.656813, 20.5509, -160.568, -92.6077, 54.7918
2.64763, 2, -37.0367, 0.656065, 20.5508, -160.568, -92.6076, 54.7898
2.65557, 2, -37.0365, 0.65577, 20.5508, -160.568, -92.6076, 54.7889
2.66359, 2, -37.0359, 0.655646, 20.5507, -160.568, -92.6076, 54.7886
2.67166, 2, -37.0357, 0.655591, 20.5507, -160.568, -92.6076, 54.7884
2.67962, 2, -37.0361, 0.655541, 20.5507, -160.568, -92.6075, 54.7883
2.68757, 2, -37.0371, 0.655507, 20.5507, -160.568, -92.6076, 54.7883
2.69565, 2, -37.0382, 0.655411, 20.5505, -160.568, -92.6076, 54.7883
2.70359, 2, -37.0397, 0.655221, 20.5503, -160.568, -92.6077, 54.7883
2.71159, 2, -37.0411, 0.654985, 20.5501, -160.568, -92.6077, 54.7884
2.71965, 2, -37.0422, 0.654737, 20.5499, -160.568, -92.6077, 54.7884
2.72759, 2, -37.0432, 0.654526, 20.5497, -160.568, -92.6078, 54.7885
2.73559, 2, -37.0436, 0.654409, 20.5495, -160.568, -92.6078, 54.7886
2.74371, 2, -37.0437, 0.654366, 20.5493, -160.568, -92.6079, 54.7887
2.75169, 2, -37.0432, 0.654362, 20.5492, -160.568, -92.6079, 54.7889
2.75967, 2, -37.0423, 0.654406, 20.5491, -160.568, -92.6079, 54.7891
2.76774, 2, -37.0412, 0.654441, 20.549, -160.568, -92.608, 54.7893
2.77569, 2, -37.0397, 0.654492, 20.549, -160.568, -92.608, 54.7894
2.78368, 2, -37.0383, 0.65457, 20.5489, -160.568, -92.608, 54.7896
2.79181, 2, -37.0373, 0.654601, 20.5488, -160.568, -92.608, 54.7897
2.7996, 2, -37.0366, 0.654609, 20.5488, -160.568, -92.608, 54.7897
2.80756, 2, -37.0363, 0.654595, 20.5488, -160.568, -92.608, 54.7897
2.81569, 2, -37.0364, 0.654576, 20.5488, -160.568, -92.608, 54.7898
2.82369, 2, -37.0366, 0.654498, 20.5488, -160.568, -92.608, 54.7898
2.83176, 2, -37.0369, 0.654458, 20.5487, -160.568, -92.6081, 54.7898
2.83987, 2, -37.0374, 0.654428, 20.5487, -160.568, -92.6081, 54.7899
2.8482, 2, -37.0381, 0.654407, 20.5487, -160.568, -92.6081, 54.7899
2.85596, 2, -37.0388, 0.654398, 20.5487, -160.568, -92.6081, 54.7899
2.86406, 2, -37.0394, 0.654393, 20.5487, -160.568, -92.6081, 54.7899
2.87057, 2, -37.0396, 0.654403, 20.5487, -160.568, -92.6081, 54.79
2.8801, 2, -37.0399, 0.65446, 20.5487, -160.568, -92.6081, 54.79
2.88817, 2, -37.04, 0.654483, 20.5487, -160.568, -92.608, 54.7901
2.89659, 2, -37.0399, 0.654494, 20.5487, -160.568, -92.6081, 54.7902
2.90415, 2, -37.0397, 0.654479, 20.5487, -160.568, -92.6081, 54.7902
2.91227, 2, -37.0392, 0.654479, 20.5487, -160.568, -92.6081, 54.7903
2.92057, 2, -37.0388, 0.654475, 20.5487, -160.568, -92.6081, 54.7904
2.92756, 2, -37.0387, 0.654476, 20.5487, -160.568, -92.6081, 54.7904
2.9356, 2, -37.0385, 0.654455, 20.5487, -160.568, -92.6082, 54.7904
2.94445, 2, -37.0384, 0.654438, 20.5486, -160.568, -92.6081, 54.7905
2.95157, 2, -37.0384, 0.654412, 20.5486, -160.568, -92.6081, 54.7905
2.95962, 2, -37.0384, 0.6544, 20.5486, -160.568, -92.6082, 54.7906
2.96756, 2, -37.0385, 0.654412, 20.5486, -160.568, -92.6082, 54.7906
2.97562, 2, -37.0386, 0.654411, 20.5486, -160.568, -92.6082, 54.7906
2.98371, 2, -37.0387, 0.654436, 20.5486, -160.568, -92.6082, 54.7907
2.99157, 2, -37.039, 0.654447, 20.5485, -160.568, -92.6082, 54.7907
2.99956, 2, -37.0391, 0.65446, 20.5485, -160.568, -92.6082, 54.7908
3.0076, 2, -37.0392, 0.654452, 20.5485, -160.568, -92.6082, 54.7908
3.0156, 2, -37.0392, 0.654467, 20.5485, -160.568, -92.6082, 54.7909
3.02356, 2, -37.0392, 0.654479, 20.5485, -160.568, -92.6083, 54.7909
3.03166, 2, -37.0392, 0.654487, 20.5485, -160.568, -92.6083, 54.791
3.03958, 2, -37.0392, 0.654465, 20.5485, -160.568, -92.6084, 54.791
3.04756, 2, -37.0391, 0.654453, 20.5485, -160.568, -92.6083, 54.7911
3.05562, 2, -37.0391, 0.654455, 20.5485, -160.568, -92.6083, 54.7911
3.06543, 2, -37.0391, 0.654433, 20.5484, -160.568, -92.6083, 54.7913
3.07157, 2, -37.0391, 0.65443, 20.5484, -160.568, -92.6083, 54.7913
3.07962, 2, -37.0391, 0.654452, 20.5484, -160.568, -92.6082, 54.7913
3.08755, 2, -37.0391, 0.65446, 20.5484, -160.568, -92.6082, 54.7913
3.09556, 2, -37.0391, 0.654478, 20.5484, -160.568, -92.6083, 54.7914
3.10362, 2, -37.0391, 0.654484, 20.5484, -160.568, -92.6083, 54.7914
3.11157, 2, -37.0391, 0.654489, 20.5484, -160.568, -92.6083, 54.7915
3.11956, 2, -37.0391, 0.654496, 20.5484, -160.568, -92.6084, 54.7915
3.12762, 2, -37.0391, 0.6545, 20.5484, -160.568, -92.6084, 54.7916
3.13555, 2, -37.0391, 0.654494, 20.5484, -160.568, -92.6083, 54.7916
3.14355, 2, -37.0391, 0.654494, 20.5484, -160.568, -92.6083, 54.7916
3.15164, 2, -37.0391, 0.654479, 20.5484, -160.568, -92.6083, 54.7916
3.15955, 2, -37.0391, 0.654467, 20.5484, -160.568, -92.6083, 54.7917
3.16755, 2, -37.0391, 0.654462, 20.5484, -160.568, -92.6083, 54.7917
3.17562, 2, -37.039, 0.654459, 20.5483, -160.568, -92.6083, 54.7918
3.1836, 2, -37.039, 0.654458, 20.5483, -160.568, -92.6084, 54.7919
3.19156, 2, -37.039, 0.654458, 20.5483, -160.568, -92.6084, 54.7919
3.19965, 2, -37.039, 0.65447, 20.5483, -160.568, -92.6084, 54.7919
3.20757, 2, -37.039, 0.654463, 20.5483, -160.568, -92.6084, 54.792
3.21555, 2, -37.039, 0.654472, 20.5483, -160.568, -92.6084, 54.792
3.22362, 2, -37.039, 0.654484, 20.5483, -160.568, -92.6084, 54.7921
3.23159, 2, -37.039, 0.654494, 20.5483, -160.568, -92.6084, 54.792
3.23959, 2, -37.0389, 0.654486, 20.5483, -160.568, -92.6084, 54.7921
3.24769, 2, -37.0389, 0.654488, 20.5483, -160.568, -92.6084, 54.7921
3.25564, 2, -37.0389, 0.654479, 20.5483, -160.568, -92.6084, 54.7923
3.26364, 2, -37.0389, 0.654472, 20.5483, -160.568, -92.6084, 54.7923
3.27174, 2, -37.0389, 0.654471, 20.5482, -160.568, -92.6084, 54.7923
3.27968, 2, -37.0389, 0.654469, 20.5482, -160.568, -92.6084, 54.7923
3.28761, 2, -37.0389, 0.65447, 20.5482, -160.568, -92.6084, 54.7923
3.29572, 2, -37.0389, 0.654468, 20.5482, -160.568, -92.6084, 54.7923
3.3038, 2, -37.0389, 0.654482, 20.5482, -160.568, -92.6084, 54.7924
3.3116, 2, -37.0389, 0.654493, 20.5482, -160.568, -92.6084, 54.7924
3.31965, 2, -37.0389, 0.654498, 20.5482, -160.568, -92.6084, 54.7925
3.32763, 2, -37.0388, 0.654493, 20.5482, -160.568, -92.6085, 54.7925
3.33577, 2, -37.0388, 0.654486, 20.5482, -160.568, -92.6084, 54.7926
3.34383, 2, -37.0388, 0.65449, 20.5482, -160.568, -92.6085, 54.7926
3.35203, 2, -37.0388, 0.654489, 20.5482, -160.568, -92.6085, 54.7926
3.36001, 2, -37.0388, 0.654492, 20.5482, -160.568, -92.6085, 54.7926
3.36657, 2, -37.0388, 0.654495, 20.5482, -160.568, -92.6085, 54.7926
3.37606, 2, -37.0388, 0.654481, 20.5481, -160.568, -92.6085, 54.7927
3.38414, 2, -37.0388, 0.654468, 20.5481, -160.568, -92.6085, 54.7927
3.39211, 2, -37.0388, 0.654469, 20.5481, -160.568, -92.6085, 54.7927
3.40034, 2, -37.0387, 0.654475, 20.5481, -160.568, -92.6085, 54.7927
3.40818, 2, -37.0387, 0.654484, 20.5481, -160.568, -92.6085, 54.7927
3.41619, 2, -37.0387, 0.654482, 20.548, -160.567, -92.6085, 54.7927
3.42356, 2, -37.0387, 0.654493, 20.548, -160.567, -92.6085, 54.7927
3.43155, 2, -37.0387, 0.654498, 20.548, -160.567, -92.6085, 54.7927
3.43969, 2, -37.0387, 0.654488, 20.548, -160.567, -92.6085, 54.7928
3.44754, 2, -37.0387, 0.654496, 20.548, -160.567, -92.6085, 54.7928
3.45554, 2, -37.0387, 0.654499, 20.548, -160.567, -92.6085, 54.7928
3.46358, 2, -37.0387, 0.654501, 20.548, -160.567, -92.6085, 54.7928
3.47154, 2, -37.0386, 0.654502, 20.548, -160.567, -92.6085, 54.7928
3.47956, 2, -37.0386, 0.654495, 20.548, -160.567, -92.6085, 54.7928
3.48761, 2, -37.0386, 0.654487, 20.548, -160.567, -92.6086, 54.7928
3.49554, 2, -37.0386, 0.654478, 20.548, -160.567, -92.6085, 54.7928
3.50354, 2, -37.0386, 0.654484, 20.548, -160.567, -92.6085, 54.7928
3.5116, 2, -37.0386, 0.654469, 20.548, -160.567, -92.6085, 54.7929
3.5196, 2, -37.0386, 0.654482, 20.548, -160.567, -92.6086, 54.7929
3.52754, 2, -37.0386, 0.654493, 20.5479, -160.567, -92.6086, 54.7929
3.53562, 2, -37.0385, 0.654479, 20.5479, -160.567, -92.6086, 54.793
3.54356, 2, -37.0385, 0.654487, 20.5479, -160.567, -92.6087, 54.793
3.55165, 2, -37.0385, 0.654495, 20.5479, -160.567, -92.6086, 54.793
3.56055, 2, -37.0385, 0.654499, 20.5479, -160.567, -92.6086, 54.793
3.56756, 2, -37.0385, 0.654501, 20.5479, -160.567, -92.6086, 54.7931
3.57554, 2, -37.0385, 0.654502, 20.5479, -160.567, -92.6086, 54.7931
3.58361, 2, -37.0385, 0.654502, 20.5479, -160.567, -92.6086, 54.7931
3.59154, 2, -37.0385, 0.654495, 20.5479, -160.567, -92.6086, 54.7931
3.59956, 2, -37.0385, 0.654494, 20.5479, -160.567, -92.6086, 54.7931
3.6076, 2, -37.0385, 0.654486, 20.5478, -160.567, -92.6086, 54.7931
3.61562, 2, -37.0384, 0.654495, 20.5478, -160.567, -92.6086, 54.7931
3.62354, 2, -37.0384, 0.654499, 20.5478, -160.567, -92.6086, 54.7931
3.63161, 2, -37.0384, 0.654501, 20.5478, -160.567, -92.6087, 54.7931
3.6397, 2, -37.0384, 0.654502, 20.5478, -160.567, -92.6087, 54.7931
3.64855, 2, -37.0384, 0.654502, 20.5478, -160.567, -92.6087, 54.7931
3.65561, 2, -37.0384, 0.654502, 20.5478, -160.567, -92.6087, 54.7931
3.66356, 2, -37.0384, 0.654502, 20.5478, -160.567, -92.6087, 54.7931
3.67155, 2, -37.0384, 0.654502, 20.5478, -160.567, -92.6087, 54.7931
3.67959, 2, -37.0384, 0.654503, 20.5478, -160.567, -92.6086, 54.7931
3.68754, 2, -37.0384, 0.654503, 20.5478, -160.567, -92.6087, 54.7932
3.69553, 2, -37.0383, 0.654503, 20.5478, -160.567, -92.6087, 54.7932
3.70359, 4, -37.0383, 0.654495, 20.5478, -160.567, -92.6087, 54.7932
3.71156, 4, -37.0383, 0.654494, 20.5478, -160.567, -92.6087, 54.7932
3.71954, 4, -37.0383, 0.654499, 20.5477, -160.567, -92.6087, 54.7932
3.72761, 4, -37.0383, 0.654501, 20.5477, -160.567, -92.6087, 54.7932
3.73556, 4, -37.0383, 0.654502, 20.5477, -160.567, -92.6087, 54.7932
3.74368, 4, -37.0383, 0.654502, 20.5477, -160.567, -92.6087, 54.7932
3.75174, 4, -37.0383, 0.654502, 20.5477, -160.567, -92.6087, 54.7932
3.75965, 4, -37.0382, 0.654502, 20.5477, -160.567, -92.6087, 54.7932
3.76763, 4, -37.0383, 0.654502, 20.5477, -160.567, -92.6087, 54.7932
3.77571, 4, -37.0383, 0.654503, 20.5477, -160.567, -92.6087, 54.7932
3.78371, 4, -37.0383, 0.654503, 20.5477, -160.567, -92.6087, 54.7932
3.7916, 4, -37.0383, 0.654503, 20.5477, -160.567, -92.6087, 54.7932
3.79973, 4, -37.0383, 0.654503, 20.5477, -160.567, -92.6087, 54.7932
3.80784, 4, -37.0383, 0.654503, 20.5477, -160.567, -92.6087, 54.7932
3.83153, 4, -37.0382, 0.654508, 20.5476, -160.567, -92.6087, 54.7931
3.83354, 4, -37.0382, 0.654506, 20.5476, -160.567, -92.6087, 54.7931
3.8363, 4, -37.0382, 0.654505, 20.5476, -160.567, -92.6087, 54.7931
3.84166, 4, -37.0382, 0.654504, 20.5476, -160.567, -92.6087, 54.7932
3.85076, 4, -37.0382, 0.654496, 20.5476, -160.567, -92.6087, 54.7932
3.85632, 4, -37.0375, 0.65436, 20.5476, -160.567, -92.6087, 54.7932
3.86391, 4, -37.0349, 0.65346, 20.5478, -160.567, -92.6087, 54.7932
3.87212, 4, -37.0291, 0.650631, 20.5486, -160.567, -92.6087, 54.7932
3.88416, 4, -37.0195, 0.640428, 20.5534, -160.566, -92.6087, 54.7932
3.88805, 4, -37.006, 0.635204, 20.5566, -160.566, -92.6087, 54.7932
3.89617, 4, -36.9878, 0.62152, 20.5663, -160.564, -92.6087, 54.7932
3.90414, 5, -36.9639, 0.603205, 20.5818, -160.561, -92.6087, 54.7932
3.9121, 5, -36.9499, 0.592428, 20.6037, -160.557, -92.6084, 54.7932
3.92028, 5, -36.9007, 0.553249, 20.6325, -160.551, -92.6081, 54.7931
3.92838, 5, -36.8819, 0.537997, 20.668, -160.543, -92.6074, 54.793
3.93551, 5, -36.8405, 0.504009, 20.688, -160.539, -92.6069, 54.793
3.94353, 5, -36.7941, 0.46524, 20.7319, -160.529, -92.6057, 54.7929
3.95176, 5, -36.7425, 0.422218, 20.7804, -160.518, -92.604, 54.7929
3.9596, 5, -36.6862, 0.375524, 20.8319, -160.506, -92.6024, 54.793
3.96753, 5, -36.6259, 0.326009, 20.8855, -160.494, -92.6007, 54.7929
3.97557, 5, -36.5617, 0.27444, 20.9403, -160.482, -92.5989, 54.7929
3.98353, 5, -36.495, 0.221514, 20.9957, -160.469, -92.5971, 54.7929
3.99153, 5, -36.4272, 0.167928, 21.0511, -160.457, -92.5952, 54.793
3.99975, 5, -36.3585, 0.114122, 21.1066, -160.445, -92.5934, 54.7929
4.00904, 5, -36.2898, 0.0332908, 21.1897, -160.428, -92.5905, 54.793
4.01553, 5, -36.2208, 0.00641704, 21.2175, -160.421, -92.5896, 54.793
4.02669, 5, -36.1176, -0.0738708, 21.3006, -160.403, -92.5866, 54.7931
4.03173, 5, -36.0833, -0.100526, 21.3282, -160.397, -92.5856, 54.7931
4.03954, 5, -36.0146, -0.153654, 21.3835, -160.384, -92.5836, 54.7932
4.04754, 5, -35.946, -0.206633, 21.4387, -160.371, -92.5816, 54.7934
4.05559, 5, -35.8774, -0.259405, 21.4938, -160.358, -92.5796, 54.7937
4.0646, 5, -35.8087, -0.312028, 21.5488, -160.346, -92.5776, 54.7941
4.07163, 5, -35.7397, -0.364682, 21.6037, -160.333, -92.5756, 54.7948
4.08675, 5, -35.6358, -0.469986, 21.713, -160.308, -92.5715, 54.7968
4.08824, 5, -35.601, -0.469986, 21.713, -160.308, -92.5715, 54.7968
4.09552, 5, -35.5312, -0.522727, 21.7674, -160.295, -92.5695, 54.798
4.10366, 5, -35.4612, -0.575458, 21.8216, -160.283, -92.5675, 54.7994
4.11386, 5, -35.3556, -0.654521, 21.9026, -160.264, -92.5645, 54.8017
4.11952, 5, -35.3204, -0.680863, 21.9296, -160.257, -92.5634, 54.8026
4.1277, 5, -35.2498, -0.733547, 21.9835, -160.244, -92.5614, 54.8044
4.13635, 5, -35.1793, -0.785918, 22.0371, -160.231, -92.5592, 54.8063
4.14352, 5, -35.1085, -0.838106, 22.0908, -160.217, -92.5571, 54.8083
4.15298, 5, -35.0378, -0.890229, 22.1443, -160.204, -92.555, 54.8106
4.16436, 5, -34.932, -0.96779, 22.2243, -160.184, -92.5518, 54.8141
4.16757, 5, -34.8968, -0.993591, 22.2509, -160.178, -92.5507, 54.8153
4.17553, 5, -34.8263, -1.04502, 22.3042, -160.165, -92.5485, 54.8178
4.1847, 5, -34.7558, -1.09637, 22.3571, -160.152, -92.5462, 54.8205
4.19349, 5, -34.685, -1.14775, 22.4099, -160.14, -92.5441, 54.8233
4.19952, 5, -34.6142, -1.19898, 22.4626, -160.127, -92.5418, 54.8261
4.20755, 5, -34.5431, -1.2503, 22.515, -160.114, -92.5396, 54.8292
4.21562, 5, -34.4719, -1.3016, 22.5673, -160.1, -92.5374, 54.8323
4.22353, 5, -34.4005, -1.35289, 22.6195, -160.086, -92.5351, 54.8355
4.2321, 5, -34.3289, -1.40417, 22.6715, -160.073, -92.5328, 54.8389
4.24389, 5, -34.2213, -1.48093, 22.7492, -160.052, -92.5294, 54.8442
4.24755, 5, -34.1853, -1.50641, 22.7752, -160.045, -92.5282, 54.846
4.256, 5, -34.1133, -1.5572, 22.8268, -160.032, -92.526, 54.8497
4.26377, 5, -34.0412, -1.60786, 22.8783, -160.018, -92.5237, 54.8534
4.27163, 5, -33.969, -1.65825, 22.9298, -160.005, -92.5214, 54.8573
4.2797, 5, -33.8967, -1.70838, 22.981, -159.991, -92.519, 54.8613
4.28763, 5, -33.8246, -1.75837, 23.0321, -159.978, -92.5167, 54.8654
4.29559, 5, -33.7523, -1.80827, 23.0831, -159.964, -92.5144, 54.8696
4.30636, 5, -33.68, -1.85812, 23.1339, -159.95, -92.5121, 54.8738
4.31258, 5, -33.6076, -1.90789, 23.1845, -159.935, -92.5098, 54.8782
4.32001, 5, -33.535, -1.9579, 23.235, -159.921, -92.5076, 54.8824
4.32658, 5, -33.4987, -1.98303, 23.2602, -159.914, -92.5064, 54.8845
4.33659, 5, -33.3895, -2.05888, 23.3358, -159.893, -92.5029, 54.8895
4.34374, 5, -33.317, -2.11001, 23.3862, -159.879, -92.5005, 54.8912
4.35184, 6, -33.2447, -2.16169, 23.4369, -159.864, -92.4979, 54.8914
4.36083, 6, -33.1728, -2.2143, 23.488, -159.849, -92.4949, 54.8896
4.36818, 6, -33.1012, -2.2678, 23.5398, -159.834, -92.4912, 54.8848
4.37599, 6, -33.0301, -2.32227, 23.5924, -159.817, -92.4865, 54.8745
4.38493, 7, -32.9595, -2.37792, 23.6462, -159.799, -92.4803, 54.8605
4.39208, 7, -32.8893, -2.4348, 23.7012, -159.78, -92.4724, 54.8441
4.40085, 7, -32.8198, -2.49315, 23.7576, -159.759, -92.4627, 54.8267
4.40828, 7, -32.7508, -2.55299, 23.8154, -159.737, -92.4509, 54.8093
4.41715, 7, -32.6825, -2.61446, 23.8744, -159.715, -92.4373, 54.7924
4.42501, 8, -32.6486, -2.64576, 23.9044, -159.703, -92.4217, 54.7757
4.43333, 8, -32.5481, -2.74222, 23.996, -159.665, -92.4042, 54.7586
4.44232, 8, -32.4818, -2.80859, 24.0584, -159.638, -92.3849, 54.7405
4.44756, 8, -32.449, -2.84237, 24.0899, -159.624, -92.3746, 54.731
4.45552, 8, -32.3839, -2.91099, 24.1538, -159.596, -92.3531, 54.7109
4.46351, 9, -32.3192, -2.98096, 24.2186, -159.568, -92.3307, 54.6891
4.47157, 9, -32.2551, -3.05222, 24.2844, -159.538, -92.3071, 54.6654
4.47952, 9, -32.1916, -3.12489, 24.3513, -159.506, -92.2823, 54.64
4.48766, 9, -32.1287, -3.19874, 24.4191, -159.474, -92.2556, 54.6134
4.49548, 9, -32.0663, -3.27397, 24.4878, -159.442, -92.2271, 54.5856
4.50355, 10, -32.0045, -3.35049, 24.5576, -159.408, -92.1975, 54.5562
4.51152, 10, -31.9433, -3.42837, 24.6284, -159.373, -92.1668, 54.5251
4.51951, 10, -31.8828, -3.50773, 24.7003, -159.337, -92.1347, 54.4917
4.52757, 10, -31.8226, -3.58847, 24.7733, -159.301, -92.1008, 54.4567
4.53566, 10, -31.7631, -3.67066, 24.8473, -159.264, -92.0652, 54.4206
4.5435, 11, -31.7042, -3.75426, 24.9222, -159.225, -92.0289, 54.3833
4.55161, 11, -31.6457, -3.83945, 24.9981, -159.185, -91.9916, 54.3441
4.5614, 11, -31.5878, -3.92604, 25.0749, -159.145, -91.9318, 54.2818
4.57044, 11, -31.5019, -4.0586, 25.192, -159.083, -91.8905, 54.2387
4.57553, 11, -31.4736, -4.10355, 25.2316, -159.061, -91.8696, 54.2167
4.58358, 12, -31.4174, -4.19452, 25.3115, -159.018, -91.8263, 54.1717
4.59163, 12, -31.3615, -4.28692, 25.3925, -158.975, -91.7809, 54.1245
4.60052, 12, -31.3062, -4.38074, 25.4746, -158.929, -91.735, 54.0757
4.61017, 12, -31.2242, -4.52392, 25.5997, -158.86, -91.6633, 54.0005
4.61567, 12, -31.1971, -4.57235, 25.6418, -158.836, -91.6384, 53.9747
4.62354, 13, -31.1434, -4.67032, 25.7269, -158.788, -91.5885, 53.9211
4.63152, 13, -31.0901, -4.76969, 25.8129, -158.739, -91.537, 53.8665
4.63966, 13, -31.0373, -4.87049, 25.8999, -158.69, -91.4834, 53.8108
4.65152, 13, -30.9592, -5.02461, 26.0324, -158.613, -91.4019, 53.7235
4.65561, 13, -30.9334, -5.07667, 26.0772, -158.588, -91.3737, 53.6938
4.66349, 14, -30.8822, -5.18183, 26.1675, -158.535, -91.3165, 53.6338
4.67152, 14, -30.8317, -5.28853, 26.2588, -158.481, -91.2587, 53.5716
4.67957, 14, -30.7817, -5.39671, 26.3511, -158.428, -91.1985, 53.5082
4.68766, 14, -30.7321, -5.50634, 26.4442, -158.373, -91.1381, 53.444
4.69555, 14, -30.6832, -5.61754, 26.5383, -158.316, -91.0755, 53.3775
4.70351, 14, -30.6347, -5.73023, 26.6335, -158.26, -91.0117, 53.3098
4.71156, 15, -30.5867, -5.84429, 26.7298, -158.201, -90.9467, 53.2411
4.71959, 15, -30.5392, -5.95954, 26.8274, -158.143, -90.8799, 53.1701
4.72751, 15, -30.4922, -6.07621, 26.9259, -158.083, -90.8126, 53.0984
4.73565, 15, -30.4456, -6.19437, 27.0254, -158.023, -90.743, 53.0249
4.7445, 15, -30.3997, -6.31384, 27.1257, -157.961, -90.6728, 52.9495
4.75163, 16, -30.3542, -6.43495, 27.227, -157.898, -90.6005, 52.8733
4.76043, 16, -30.3093, -6.55755, 27.3295, -157.836, -90.5278, 52.7947
4.76847, 16, -30.2647, -6.6815, 27.4331, -157.771, -90.4532, 52.7155
4.7756, 16, -30.2207, -6.80699, 27.5379, -157.706, -90.3776, 52.6346
4.78441, 16, -30.1774, -6.93396, 27.6436, -157.64, -90.3003, 52.5524
4.79162, 17, -30.1343, -7.06259, 27.7502, -157.573, -90.2221, 52.4691
4.79953, 17, -30.0919, -7.19276, 27.8576, -157.505, -90.1423, 52.3842
4.80973, 17, -30.0498, -7.32438, 27.966, -157.436, -90.0611, 52.2985
4.81583, 17, -30.0084, -7.45718, 28.0756, -157.367, -89.9789, 52.2106
4.82363, 17, -29.9674, -7.59145, 28.1865, -157.296, -89.8951, 52.1221
4.83158, 18, -29.9269, -7.72713, 28.2984, -157.225, -89.8101, 52.0317
4.83973, 18, -29.8869, -7.86424, 28.4112, -157.152, -89.7236, 51.9406
4.84784, 18, -29.8474, -8.00276, 28.5247, -157.079, -89.6364, 51.8474
4.85582, 18, -29.8083, -8.14244, 28.6393, -157.005, -89.5477, 51.7535
4.86431, 18, -29.7698, -8.28347, 28.7551, -156.93, -89.4575, 51.6577
4.87196, 19, -29.7317, -8.4259, 28.8721, -156.854, -89.3666, 51.5612
4.8801, 19, -29.694, -8.56998, 28.9902, -156.777, -89.274, 51.4631
4.88849, 19, -29.6568, -8.71563, 29.1091, -156.7, -89.1801, 51.3642
4.8969, 19, -29.6201, -8.86253, 29.2287, -156.621, -89.0853, 51.2642
4.90408, 19, -29.5839, -9.0106, 29.3492, -156.541, -88.9894, 51.1633
4.9123, 20, -29.5482, -9.16024, 29.4709, -156.461, -88.8922, 51.0608
4.92095, 20, -29.5305, -9.23564, 29.5323, -156.421, -88.7943, 50.9573
4.92819, 20, -29.4953, -9.38762, 29.6558, -156.298, -88.6952, 50.8525
4.93703, 20, -29.4607, -9.54082, 29.78, -156.256, -88.5947, 50.7463
4.94499, 20, -29.4265, -9.77267, 29.968, -156.131, -88.4935, 50.6393
4.95237, 21, -29.3929, -9.85062, 30.0312, -156.089, -88.4424, 50.5307
4.95952, 21, -29.3596, -10.0077, 30.1583, -156.003, -88.3392, 50.4763
4.96753, 21, -29.3267, -10.1662, 30.2865, -155.917, -88.2352, 50.3664
4.97552, 21, -29.2942, -10.326, 30.4157, -155.83, -88.1301, 50.2556
4.98486, 21, -29.2464, -10.5673, 30.611, -155.699, -87.9703, 50.0881
4.99302, 21, -29.2307, -10.7299, 30.7423, -155.609, -87.8627, 49.9751
4.9995, 22, -29.1995, -10.8117, 30.8083, -155.564, -87.8085, 49.9184
5.01033, 22, -29.1533, -11.059, 31.0079, -155.428, -87.6444, 49.7467
5.01572, 22, -29.1382, -11.1419, 31.0748, -155.383, -87.5892, 49.6888
5.02347, 22, -29.1082, -11.3084, 31.2094, -155.29, -87.4778, 49.5728
5.03149, 22, -29.0786, -11.4764, 31.345, -155.197, -87.3657, 49.4557
5.03958, 23, -29.0493, -11.6461, 31.4813, -155.103, -87.2527, 49.3382
5.04752, 23, -29.0203, -11.817, 31.6184, -155.009, -87.1385, 49.2198
5.0555, 23, -28.9918, -11.9885, 31.7564, -154.913, -87.0239, 49.1008
5.06828, 23, -28.9498, -12.2481, 31.965, -154.768, -86.8499, 48.9212
5.07252, 23, -28.936, -12.3355, 32.035, -154.72, -86.7914, 48.861
5.07951, 24, -28.9086, -12.511, 32.1756, -154.621, -86.6739, 48.7405
5.08761, 24, -28.8815, -12.687, 32.317, -154.522, -86.5553, 48.6194
5.09646, 24, -28.8547, -12.8636, 32.459, -154.422, -86.4361, 48.4973
5.1035, 24, -28.8284, -13.0418, 32.6019, -154.322, -86.3158, 48.3748
5.11157, 24, -28.8023, -13.2215, 32.7458, -154.22, -86.195, 48.2519
5.1195, 25, -28.7765, -13.4016, 32.8905, -154.118, -86.0734, 48.1286
5.12751, 25, -28.7511, -13.5824, 33.0356, -154.015, -85.951, 48.0051
5.13671, 25, -28.7258, -13.7645, 33.1814, -153.911, -85.8281, 47.8817
5.14364, 25, -28.7007, -13.9481, 33.3279, -153.807, -85.7041, 47.7579
5.15154, 25, -28.676, -14.1324, 33.4754, -153.701, -85.5799, 47.6339
5.16029, 26, -28.6515, -14.3169, 33.6236, -153.595, -85.4549, 47.5101
5.16751, 26, -28.6274, -14.5026, 33.7722, -153.488, -85.3292, 47.3857
5.17553, 26, -28.6036, -14.6899, 33.9213, -153.38, -85.2033, 47.2613
5.18693, 26, -28.568, -14.9717, 34.1468, -153.217, -85.0128, 47.0749
5.19163, 26, -28.5562, -15.0657, 34.2222, -153.162, -84.9491, 47.013
5.20055, 27, -28.5329, -15.2544, 34.3734, -153.052, -84.8212, 46.889
5.2085, 27, -28.5099, -15.4442, 34.525, -152.942, -84.6929, 46.7658
5.21575, 27, -28.487, -15.6344, 34.6773, -152.83, -84.564, 46.6423
5.22455, 27, -28.4643, -15.8248, 34.8304, -152.718, -84.4347, 46.5193
5.2315, 27, -28.4419, -16.0163, 34.9839, -152.605, -84.3051, 46.3967
5.23953, 28, -28.4196, -16.2094, 35.1374, -152.492, -84.175, 46.2741
5.24764, 28, -28.3972, -16.403, 35.2916, -152.378, -84.0446, 46.1521
5.25554, 28, -28.375, -16.5969, 35.4466, -152.263, -83.9136, 46.0306
5.26404, 28, -28.353, -16.7918, 35.602, -152.148, -83.7826, 45.9096
5.27237, 28, -28.3309, -16.9876, 35.7575, -152.032, -83.651, 45.7896
5.27988, 29, -28.3089, -17.1835, 35.9133, -151.915, -83.5194, 45.6706
5.28812, 29, -28.287, -17.3792, 36.0699, -151.797, -83.3874, 45.5523
5.2956, 29, -28.2652, -17.5759, 36.2269, -151.679, -83.2551, 45.4351
5.30415, 29, -28.2433, -17.7733, 36.3839, -151.561, -83.1224, 45.3189
5.31295, 29, -28.2216, -17.9704, 36.5408, -151.442, -82.9896, 45.2033
5.32131, 29, -28.2001, -18.1678, 36.6986, -151.322, -82.8566, 45.0892
5.32842, 30, -28.1785, -18.366, 36.8569, -151.202, -82.7234, 44.9761
5.33572, 30, -28.1569, -18.5646, 37.0152, -151.081, -82.5903, 44.8644
5.34405, 30, -28.1353, -18.7629, 37.1732, -150.959, -82.4567, 44.7542
5.35455, 30, -28.1137, -18.962, 37.3316, -150.837, -82.3233, 44.6453
5.3598, 30, -28.0918, -19.162, 37.4905, -150.715, -82.1894, 44.5386
5.36789, 31, -28.0699, -19.3621, 37.6495, -150.592, -82.0559, 44.4331
5.37593, 31, -28.0481, -19.5619, 37.8079, -150.469, -81.922, 44.3295
5.38412, 31, -28.0263, -19.762, 37.9668, -150.345, -81.7884, 44.2277
5.39593, 31, -28.0044, -19.9625, 38.1264, -150.158, -81.5876, 44.0777
5.40009, 31, -27.9824, -20.1628, 38.286, -150.095, -81.5207, 44.0288
5.40808, 32, -27.9604, -20.3629, 38.4452, -149.969, -81.3869, 43.9319
5.41614, 32, -27.9382, -20.5638, 38.6045, -149.843, -81.253, 43.8369
5.42409, 32, -27.927, -20.6645, 38.6843, -149.716, -81.1191, 43.7436
5.43232, 32, -27.9044, -20.8656, 38.8444, -149.589, -80.9848, 43.6526
5.44035, 32, -27.8819, -21.0665, 39.0043, -149.525, -80.8512, 43.564
5.44757, 33, -27.859, -21.2676, 39.1636, -149.397, -80.7842, 43.5205
5.45553, 33, -27.836, -21.4689, 39.3232, -149.269, -80.6505, 43.4362
5.46366, 33, -27.8127, -21.6693, 39.483, -149.14, -80.5171, 43.3542
5.47295, 33, -27.7888, -21.8692, 39.7213, -148.948, -80.3178, 43.2376
5.47948, 33, -27.7645, -22.0692, 39.8003, -148.883, -80.2516, 43.2001
5.48748, 34, -27.7399, -22.2688, 39.958, -148.755, -80.1193, 43.1282
5.49548, 34, -27.7148, -22.4672, 40.1155, -148.626, -79.9878, 43.0599
5.50349, 34, -27.6891, -22.665, 40.2725, -148.498, -79.8564, 42.9943
5.51392, 34, -27.6499, -22.9613, 40.5061, -148.306, -79.6601, 42.9034
5.51973, 34, -27.6365, -23.0596, 40.5838, -148.241, -79.5948, 42.8749
5.52744, 35, -27.6093, -23.2556, 40.7393, -148.113, -79.4644, 42.8199
5.53548, 35, -27.5819, -23.4515, 40.8943, -147.985, -79.3341, 42.7686
5.55, 35, -27.526, -23.8431, 41.2024, -147.727, -79.0746, 42.6775
5.55152, 35, -27.526, -23.8431, 41.2024, -147.727, -79.0746, 42.6775
5.56105, 35, -27.4975, -24.0378, 41.3562, -147.597, -78.9449, 42.6367
5.56744, 36, -27.4686, -24.2324, 41.5099, -147.468, -78.8157, 42.5996
5.57554, 36, -27.4392, -24.4266, 41.663, -147.338, -78.6862, 42.5667
5.5835, 36, -27.4095, -24.6199, 41.8154, -147.208, -78.5576, 42.5381
5.59165, 36, -27.3795, -24.8125, 41.9675, -147.078, -78.4289, 42.5139
5.59957, 36, -27.3487, -25.0053, 42.1194, -146.947, -78.3008, 42.4937
5.60749, 36, -27.3173, -25.1977, 42.2703, -146.817, -78.1731, 42.478
5.6155, 37, -27.2851, -25.3888, 42.4202, -146.687, -78.0456, 42.4666
5.62348, 37, -27.2523, -25.5791, 42.5695, -146.557, -77.9186, 42.4599
5.63147, 37, -27.2187, -25.769, 42.718, -146.427, -77.7918, 42.4569
5.63964, 37, -27.1843, -25.9578, 42.8656, -146.298, -77.6656, 42.457
5.64752, 37, -27.1489, -26.1448, 43.0122, -146.169, -77.5395, 42.4626
5.65548, 38, -27.1127, -26.3305, 43.1575, -146.041, -77.4142, 42.4745
5.66483, 38, -27.0759, -26.5157, 43.3018, -145.913, -77.2894, 42.4915
5.67163, 38, -27.0381, -26.6998, 43.4454, -145.786, -77.1651, 42.5143
5.6796, 38, -26.9995, -26.8822, 43.5879, -145.659, -77.0414, 42.5424
5.68748, 38, -26.9601, -27.0638, 43.7293, -145.532, -76.918, 42.5766
5.69548, 39, -26.92, -27.245, 43.8697, -145.406, -76.7954, 42.617
5.70354, 39, -26.8792, -27.4252, 44.0093, -145.28, -76.6726, 42.6633
5.71147, 39, -26.8373, -27.604, 44.1482, -145.154, -76.5502, 42.7147
5.71967, 39, -26.7947, -27.782, 44.2862, -145.028, -76.4278, 42.7724
5.72828, 39, -26.7514, -27.9598, 44.4231, -144.903, -76.3055, 42.8367
5.73548, 40, -26.707, -28.1366, 44.559, -144.778, -76.1832, 42.9064
5.74351, 40, -26.6617, -28.3116, 44.6939, -144.653, -76.0611, 42.9831
5.75153, 40, -26.6155, -28.4852, 44.8276, -144.529, -75.9396, 43.0661
5.75982, 40, -26.5682, -28.6579, 44.96, -144.406, -75.818, 43.1551
5.76777, 40, -26.5198, -28.8291, 45.0908, -144.284, -75.6973, 43.2514
5.7762, 41, -26.4701, -28.9982, 45.2202, -144.162, -75.577, 43.354
5.78397, 41, -26.4193, -29.1655, 45.348, -144.042, -75.4571, 43.4634
5.79178, 41, -26.3672, -29.3315, 45.4743, -143.923, -75.338, 43.5795
5.80085, 41, -26.3136, -29.4963, 45.5989, -143.805, -75.219, 43.7026
5.80767, 41, -26.2589, -29.659, 45.7219, -143.689, -75.101, 43.8329
5.81551, 42, -26.2027, -29.8199, 45.843, -143.573, -74.9833, 43.9705
5.82426, 42, -26.1452, -29.9792, 45.9625, -143.459, -74.8658, 44.1154
5.83157, 42, -26.0862, -30.137, 46.0802, -143.346, -74.7492, 44.2673
5.84162, 42, -26.0258, -30.2928, 46.1961, -143.235, -74.6325, 44.4267
5.84792, 42, -25.9641, -30.4462, 46.3103, -143.125, -74.5165, 44.5933
5.85613, 43, -25.9007, -30.5976, 46.4225, -143.017, -74.401, 44.7674
5.86688, 43, -25.8357, -30.7471, 46.5326, -142.911, -74.2858, 44.9496
5.87279, 43, -25.7692, -30.8945, 46.6407, -142.806, -74.1711, 45.1395
5.88096, 43, -25.7009, -31.0396, 46.7467, -142.704, -74.0564, 45.3373
5.8881, 43, -25.6311, -31.1823, 46.8507, -142.603, -73.9427, 45.5424
5.89604, 43, -25.5595, -31.3227, 46.9526, -142.504, -73.8294, 45.7552
5.90485, 44, -25.4861, -31.4609, 47.0522, -142.408, -73.7164, 45.9759
5.91211, 44, -25.4107, -31.5967, 47.1492, -142.314, -73.6041, 46.2047
5.92121, 44, -25.3334, -31.73, 47.2437, -142.222, -73.492, 46.4415
5.92799, 44, -25.2941, -31.7956, 47.29, -142.177, -73.4361, 46.563
5.93623, 44, -25.214, -31.9246, 47.3809, -142.089, -73.3252, 46.9395
5.94352, 45, -25.1321, -32.051, 47.4693, -142.004, -73.2147, 47.0694
5.95146, 45, -25.0482, -32.1745, 47.5553, -141.922, -73.1048, 47.3355
5.95946, 45, -24.9621, -32.2953, 47.6385, -141.843, -72.9957, 47.6096
5.96874, 45, -24.8292, -32.4709, 47.7575, -141.729, -72.8333, 48.0364
5.97701, 45, -24.7837, -32.5841, 47.8331, -141.657, -72.7262, 48.3316
5.98477, 46, -24.6439, -32.6939, 47.9057, -141.589, -72.6196, 48.6354
5.9943, 46, -24.5477, -32.8005, 47.9754, -141.524, -72.5142, 48.9473
5.99971, 46, -24.4987, -32.8526, 48.0092, -141.493, -72.4617, 49.1064
6.00881, 46, -24.3992, -32.9539, 48.0743, -141.435, -72.3573, 49.5972
6.01547, 46, -24.2973, -33.0515, 48.1359, -141.379, -72.254, 49.7649
6.02352, 47, -24.1931, -33.1454, 48.1942, -141.327, -72.1518, 50.1064
6.03146, 47, -24.0864, -33.2352, 48.2488, -141.28, -72.0505, 50.4563
6.03946, 47, -23.9771, -33.321, 48.2998, -141.236, -71.9503, 50.8147
6.04963, 47, -23.8081, -33.4417, 48.3691, -141.18, -71.8021, 51.3677
6.05554, 47, -23.7504, -33.4799, 48.3903, -141.164, -71.7532, 51.5563
6.06506, 48, -23.6328, -33.5529, 48.4298, -141.135, -71.6565, 51.9397
6.07334, 48, -23.5125, -33.6213, 48.465, -141.11, -71.5616, 52.5296
6.08054, 48, -23.3897, -33.6851, 48.4962, -141.089, -71.4681, 52.7307
6.0875, 48, -23.2644, -33.7441, 48.5233, -141.074, -71.3762, 53.1392
6.0957, 48, -23.1365, -33.798, 48.5461, -141.064, -71.2866, 53.5556
6.10348, 49, -23.0056, -33.8469, 48.5645, -141.059, -71.1988, 53.9809
6.11146, 49, -22.872, -33.8905, 48.5786, -141.058, -71.1126, 54.4135
6.11947, 49, -22.7353, -33.9287, 48.588, -141.062, -71.0288, 54.8537
6.12754, 49, -22.5958, -33.9612, 48.5927, -141.073, -70.9469, 55.3023
6.13546, 49, -22.4535, -33.9882, 48.593, -141.09, -70.8674, 55.7585
6.14363, 50, -22.3083, -34.0092, 48.5883, -141.113, -70.7903, 56.2233
6.1517, 50, -22.1605, -34.0241, 48.5785, -141.142, -70.7162, 56.6955
6.15946, 50, -22.0101, -34.0328, 48.5636, -141.177, -70.6449, 57.1764
6.16858, 50, -21.8568, -34.0356, 48.5433, -141.218, -70.5771, 57.6659
6.17546, 50, -21.7005, -34.0323, 48.5177, -141.266, -70.5121, 58.163
6.1835, 51, -21.5411, -34.0223, 48.4864, -141.32, -70.4515, 58.6673
6.19148, 51, -21.3787, -34.0056, 48.45, -141.38, -70.3935, 59.1769
6.20342, 51, -21.1304, -33.9678, 48.3852, -141.482, -70.3141, 59.9519
6.20759, 51, -21.0463, -33.9516, 48.3609, -141.519, -70.2893, 60.2127
6.21546, 51, -20.8764, -33.9141, 48.3082, -141.597, -70.2421, 60.7381
6.22467, 51, -20.704, -33.8691, 48.2498, -141.682, -70.1993, 61.2681
6.23192, 52, -20.5289, -33.8162, 48.1855, -141.773, -70.1613, 61.8046
6.23954, 52, -20.351, -33.7554, 48.1152, -141.87, -70.1276, 62.3479
6.24785, 52, -20.1701, -33.6864, 48.0386, -141.974, -70.0985, 62.8986
6.25757, 52, -19.9866, -33.609, 47.9554, -142.084, -70.0748, 63.456
6.26361, 52, -19.8004, -33.523, 47.8656, -142.201, -70.0567, 64.0208
6.27179, 53, -19.6119, -33.4281, 47.7694, -142.324, -70.0443, 64.5926
6.27956, 53, -19.4214, -33.3248, 47.6667, -142.454, -70.0376, 65.1704
6.28763, 53, -19.2288, -33.2132, 47.5579, -142.59, -70.0359, 65.7523
6.29961, 53, -18.9364, -33.03, 47.3832, -142.805, -70.0438, 66.6334
6.30468, 53, -18.838, -32.9646, 47.3219, -142.879, -70.0495, 66.9286
6.31246, 54, -18.64, -32.8276, 47.1949, -143.031, -70.0658, 67.5199
6.31964, 54, -18.4399, -32.6821, 47.0621, -143.187, -70.0887, 68.112
6.32786, 54, -18.2379, -32.5284, 46.9239, -143.348, -70.1184, 68.7053
6.33654, 54, -18.0344, -32.3664, 46.7801, -143.513, -70.1542, 69.3001
6.34358, 54, -17.8297, -32.1954, 46.6306, -143.683, -70.1962, 69.8959
6.35221, 55, -17.6242, -32.0151, 46.4749, -143.857, -70.2466, 70.4939
6.36007, 55, -17.4175, -31.8256, 46.3131, -144.037, -70.3044, 71.0964
6.36846, 55, -17.2092, -31.6269, 46.1449, -144.221, -70.37, 71.7032
6.37615, 55, -16.9993, -31.4184, 45.9692, -144.41, -70.4448, 72.3137
6.38487, 55, -16.7877, -31.1993, 45.7861, -144.604, -70.5279, 72.9291
6.39198, 56, -16.5745, -30.9702, 45.5968, -144.802, -70.6203, 73.5484
6.40166, 56, -16.3602, -30.7311, 45.4007, -145.005, -70.7211, 74.1704
6.41117, 56, -16.1452, -30.4812, 45.1971, -145.211, -70.8311, 74.7937
6.41604, 56, -15.9305, -30.2212, 44.9871, -145.42, -70.9499, 75.4189
6.42405, 56, -15.8233, -30.0874, 44.7717, -145.632, -71.0776, 76.0453
6.43143, 57, -15.6086, -29.8115, 44.6614, -145.739, -71.145, 76.3585
6.43949, 57, -15.3929, -29.5257, 44.4354, -145.955, -71.2868, 76.9848
6.44746, 57, -15.1759, -29.2298, 44.2033, -146.174, -71.4384, 77.6127
6.45728, 57, -14.8496, -28.7674, 43.8427, -146.505, -71.684, 78.5556
6.46351, 57, -14.7409, -28.609, 43.7195, -146.617, -71.7709, 78.8694
6.47141, 58, -14.5238, -28.2859, 43.4699, -146.84, -71.9513, 79.4962
6.47946, 58, -14.3074, -27.9555, 43.2153, -147.063, -72.1402, 80.1208
6.48754, 58, -14.0923, -27.6169, 42.9571, -147.286, -72.3368, 80.7406
6.49545, 58, -13.8787, -27.2709, 42.696, -147.507, -72.5409, 81.354
6.50373, 58, -13.6665, -26.9176, 42.4314, -147.726, -72.752, 81.9616
6.51145, 58, -13.4554, -26.5577, 42.1645, -147.943, -72.9699, 82.5632
6.51944, 59, -13.2458, -26.1905, 41.8938, -148.158, -73.1949, 83.1587
6.52768, 59, -13.038, -25.8168, 41.6197, -148.371, -73.4275, 83.7488
6.53858, 59, -12.7293, -25.2434, 41.2019, -148.688, -73.7914, 84.627
6.54344, 59, -12.6269, -25.0488, 41.0606, -148.793, -73.9169, 84.918
6.55152, 59, -12.4228, -24.6535, 40.7754, -149.001, -74.1747, 85.4968
6.56193, 60, -12.2199, -24.2505, 40.4853, -149.207, -74.4414, 86.359
6.56747, 60, -12.0183, -23.8399, 40.1914, -149.412, -74.7169, 86.6448
6.57545, 60, -11.8182, -23.423, 39.8936, -149.614, -75.0012, 87.214
6.58351, 60, -11.6197, -22.9996, 39.5934, -149.814, -75.2938, 87.7781
6.59145, 60, -11.4233, -22.5711, 39.2909, -150.011, -75.5938, 88.3372
6.5996, 61, -11.2293, -22.1386, 38.9869, -150.204, -75.9004, 88.8901
6.61131, 61, -10.9425, -21.4819, 38.529, -150.486, -76.37, 89.7043
6.61545, 61, -10.848, -21.2611, 38.3763, -150.577, -76.5286, 89.9706
6.62592, 61, -10.5682, -20.5938, 37.9186, -150.843, -77.0111, 90.7563
6.63161, 61, -10.476, -20.3695, 37.766, -150.929, -77.1738, 91.0135
6.63949, 62, -10.2936, -19.9186, 37.4612, -151.097, -77.5027, 91.5216
6.64746, 62, -10.1142, -19.4644, 37.1559, -151.261, -77.8364, 92.021
6.65573, 62, -9.93736, -19.0077, 36.8505, -151.42, -78.1752, 92.5126
6.66348, 62, -9.76309, -18.5483, 36.5437, -151.574, -78.5196, 92.9977
6.67156, 62, -9.59134, -18.0868, 36.2366, -151.725, -78.8696, 93.4754
6.67942, 63, -9.42169, -17.6235, 35.9291, -151.87, -79.2246, 93.9455
6.68747, 63, -9.25419, -17.1583, 35.6224, -152.011, -79.5844, 94.4066
6.69551, 63, -9.08892, -16.6914, 35.3166, -152.147, -79.9478, 94.8583
6.70348, 63, -8.92626, -16.223, 35.0118, -152.277, -80.3144, 95.3003
6.71148, 63, -8.76625, -15.7529, 34.7086, -152.401, -80.6833, 95.7313
6.71967, 64, -8.60886, -15.2817, 34.4071, -152.521, -81.0543, 96.1519
6.72773, 64, -8.45417, -14.8101, 34.1085, -152.634, -81.4269, 96.5608
6.73647, 64, -8.30203, -14.3381, 33.8111, -152.742, -81.8011, 96.9581
6.7436, 64, -8.15238, -13.8665, 33.5159, -152.845, -82.1772, 97.3447
6.75205, 64, -8.00525, -13.3958, 33.2224, -152.942, -82.5546, 97.7191
6.7597, 64, -7.86065, -12.9265, 32.9313, -153.033, -82.9338, 98.0816
6.76846, 65, -7.71876, -12.4593, 32.6428, -153.119, -83.3137, 98.4318
6.77659, 65, -7.57961, -11.9936, 32.3573, -153.199, -83.6945, 98.7688
6.78541, 65, -7.44364, -11.5297, 32.0756, -153.273, -84.0756, 99.0923
6.79244, 65, -7.31039, -11.067, 31.7969, -153.342, -84.4568, 99.4024
6.80085, 66, -7.17999, -10.606, 31.5221, -153.404, -84.8383, 99.6988
6.80807, 66, -7.052, -10.1477, 31.2501, -153.462, -85.2194, 99.9806
6.81643, 66, -6.9261, -9.69243, 30.9817, -153.513, -85.6007, 100.248
6.82355, 66, -6.80221, -9.24138, 30.7172, -153.559, -85.9818, 100.499
6.83148, 66, -6.6805, -8.79576, 30.4558, -153.6, -86.3614, 100.735
6.83955, 66, -6.56112, -8.35523, 30.1992, -153.635, -86.739, 100.954
6.84763, 67, -6.44432, -7.92044, 29.9474, -153.665, -87.1132, 101.157
6.85603, 67, -6.33038, -7.49096, 29.7015, -153.689, -87.4834, 101.341
6.86926, 67, -6.16456, -6.85629, 29.3453, -153.714, -88.0292, 101.584
6.87186, 67, -6.1106, -6.64738, 29.2295, -153.719, -88.2085, 101.657
6.88032, 67, -6.00445, -6.2339, 29.0025, -153.727, -88.5638, 101.788
6.88822, 68, -5.90037, -5.82659, 28.7816, -153.73, -88.9156, 101.902
6.89654, 68, -5.79799, -5.42471, 28.5647, -153.729, -89.2648, 101.997
6.90413, 68, -5.69733, -5.02898, 28.3517, -153.723, -89.6122, 102.076
6.91204, 68, -5.59835, -4.63934, 28.1427, -153.712, -89.9586, 102.135
6.92004, 68, -5.501, -4.25624, 27.9369, -153.697, -90.3033, 102.176
6.92828, 69, -5.40555, -3.87809, 27.7351, -153.678, -90.646, 102.199
6.93708, 69, -5.31204, -3.50491, 27.5387, -153.654, -90.9862, 102.206
6.94408, 69, -5.26596, -3.31982, 27.4425, -153.64, -91.1549, 102.202
6.95395, 69, -5.13071, -2.77147, 27.1602, -153.592, -91.6558, 102.159
6.96261, 69, -5.04267, -2.41052, 26.9779, -153.556, -91.9855, 102.105
6.96866, 70, -4.95616, -2.05341, 26.8, -153.516, -92.3129, 102.03
6.97544, 70, -4.9133, -1.87645, 26.7123, -153.494, -92.4759, 101.984
6.9835, 70, -4.82843, -1.52637, 26.5391, -153.448, -92.8015, 101.877
6.99145, 70, -4.74456, -1.18219, 26.3695, -153.399, -93.1267, 101.746
6.99948, 70, -4.66167, -0.842734, 26.2034, -153.347, -93.4519, 101.594
7.00763, 71, -4.5798, -0.509022, 26.0403, -153.291, -93.7762, 101.418
7.01547, 71, -4.49888, -0.180654, 25.8805, -153.233, -94.0991, 101.221
7.02356, 71, -4.41903, 0.141833, 25.7255, -153.172, -94.4196, 101.002
7.03143, 71, -4.34011, 0.459052, 25.5757, -153.109, -94.7366, 100.762
7.03951, 71, -4.26206, 0.771273, 25.4307, -153.043, -95.0502, 100.501
7.04766, 72, -4.18496, 1.0771, 25.2902, -152.976, -95.3599, 100.22
7.05557, 72, -4.1084, 1.37681, 25.1542, -152.907, -95.6661, 99.9181
7.06362, 72, -4.03203, 1.66952, 25.0219, -152.836, -95.9694, 99.5958
7.07144, 72, -3.95584, 1.95551, 24.893, -152.764, -96.2699, 99.2527
7.08134, 72, -3.87966, 2.23503, 24.7673, -152.691, -96.5678, 98.8889
7.08985, 73, -3.76532, 2.64115, 24.5847, -152.581, -97.0096, 98.3033
7.09543, 73, -3.72728, 2.77343, 24.5256, -152.544, -97.1552, 98.0977
7.1044, 73, -3.65111, 3.03286, 24.41, -152.471, -97.4439, 97.6711
7.11143, 73, -3.5748, 3.28521, 24.2985, -152.397, -97.7289, 97.2239
7.11945, 73, -3.49827, 3.5313, 24.191, -152.324, -98.0097, 96.7576
7.12842, 73, -3.42141, 3.77039, 24.0879, -152.253, -98.2861, 96.272
7.13556, 74, -3.34393, 4.00101, 23.9888, -152.182, -98.5581, 95.7682
7.14358, 74, -3.26573, 4.22347, 23.8934, -152.112, -98.8251, 95.2469
7.1547, 74, -3.1471, 4.54081, 23.7577, -152.011, -99.2161, 94.4364
7.15945, 74, -3.10724, 4.64166, 23.7145, -151.979, -99.3436, 94.1592
7.1675, 74, -3.02693, 4.83631, 23.6309, -151.915, -99.5939, 93.5946
7.17548, 75, -2.94575, 5.02191, 23.5515, -151.854, -99.8368, 93.0185
7.18365, 75, -2.86359, 5.19771, 23.4761, -151.796, -100.072, 92.4325
7.19243, 75, -2.78038, 5.36283, 23.4046, -151.741, -100.298, 91.8381
7.20463, 75, -2.65384, 5.59096, 23.3047, -151.664, -100.621, 90.9314
7.20768, 75, -2.6112, 5.66168, 23.2735, -151.64, -100.724, 90.6255
7.21727, 76, -2.52516, 5.79461, 23.2142, -151.594, -100.923, 90.0088
7.22349, 76, -2.43809, 5.91607, 23.1594, -151.553, -101.112, 89.3839
7.23145, 76, -2.35018, 6.02574, 23.109, -151.516, -101.292, 88.7509
7.23955, 76, -2.26154, 6.12313, 23.0628, -151.482, -101.461, 88.1106
7.24744, 76, -2.17201, 6.20798, 23.0214, -151.451, -101.621, 87.4647
7.25554, 77, -2.08169, 6.27984, 22.9849, -151.425, -101.769, 86.8133
7.26398, 77, -1.99045, 6.33855, 22.9535, -151.404, -101.904, 86.1602
7.27155, 77, -1.89823, 6.38376, 22.9279, -151.386, -102.025, 85.5081
7.28155, 77, -1.80523, 6.41467, 22.9079, -151.372, -102.133, 84.8577
7.28767, 77, -1.71143, 6.43139, 22.8937, -151.362, -102.226, 84.21
7.2964, 78, -1.61687, 6.43356, 22.8855, -151.356, -102.303, 83.5664
7.30402, 78, -1.52161, 6.42052, 22.8828, -151.353, -102.365, 82.927
7.3116, 78, -1.42563, 6.39217, 22.8859, -151.352, -102.412, 82.2908
7.32027, 78, -1.32928, 6.34806, 22.895, -151.356, -102.443, 81.6593
7.32748, 78, -1.23253, 6.28761, 22.9104, -151.362, -102.458, 81.0335
7.33587, 79, -1.13559, 6.21083, 22.9326, -151.372, -102.457, 80.4133
7.34452, 79, -1.0385, 6.11768, 22.9618, -151.386, -102.438, 79.7994
7.35156, 79, -0.941249, 6.00824, 22.9985, -151.402, -102.4, 79.1937
7.36038, 79, -0.844144, 5.88259, 23.0426, -151.421, -102.346, 78.5972
7.36798, 79, -0.7471, 5.74029, 23.0944, -151.443, -102.273, 78.0095
7.37672, 80, -0.650041, 5.5816, 23.1538, -151.468, -102.183, 77.4324
7.38466, 80, -0.552969, 5.40649, 23.2206, -151.495, -102.073, 76.867
7.39194, 80, -0.45593, 5.21507, 23.2953, -151.523, -101.946, 76.3134
7.40079, 80, -0.358877, 5.0071, 23.3781, -151.552, -101.8, 75.7705
7.40828, 80, -0.261961, 4.78141, 23.4689, -151.583, -101.635, 75.2389
7.41702, 80, -0.16526, 4.53773, 23.568, -151.616, -101.452, 74.7181
7.42505, 81, -0.0687007, 4.27753, 23.6759, -151.649, -101.25, 74.2078
7.43327, 81, 0.0275053, 4.00067, 23.7926, -151.683, -101.028, 73.7065
7.44164, 81, 0.0755635, 3.70713, 23.9186, -151.718, -100.788, 73.2147
7.44747, 81, 0.171487, 3.55436, 23.9853, -151.736, -100.661, 72.9722
7.45543, 81, 0.267174, 3.23571, 24.1258, -151.773, -100.392, 72.4942
7.46357, 82, 0.36267, 2.90034, 24.2761, -151.81, -100.105, 72.0258
7.47149, 82, 0.458022, 2.54835, 24.4357, -151.847, -99.7982, 71.5664
7.47942, 82, 0.553093, 2.18035, 24.6044, -151.884, -99.4728, 71.1169
7.48742, 82, 0.647978, 1.79595, 24.7828, -151.921, -99.1295, 70.6765
7.49545, 82, 0.742709, 1.39498, 24.9706, -151.957, -98.7686, 70.2464
7.50344, 83, 0.837406, 0.977562, 25.1675, -151.993, -98.3905, 69.8264
7.51343, 83, 0.979508, 0.323518, 25.4819, -152.045, -97.7923, 69.2139
7.51946, 83, 1.02691, 0.0980099, 25.592, -152.062, -97.5848, 69.0148
7.52741, 83, 1.12184, -0.364403, 25.8187, -152.095, -97.1579, 68.6234
7.5387, 83, 1.26435, -1.08526, 26.1767, -152.142, -96.4878, 68.0531
7.54738, 84, 1.35961, -1.58366, 26.4282, -152.172, -96.0211, 67.6841
7.55141, 84, 1.40733, -1.83817, 26.5577, -152.186, -95.7819, 67.5024
7.56117, 84, 1.50281, -2.3567, 26.8248, -152.214, -95.2923, 66.9689
7.56744, 84, 1.59864, -2.88919, 27.102, -152.24, -94.7864, 66.7948
7.57642, 84, 1.69487, -3.43532, 27.3895, -152.264, -94.2656, 66.4519
7.58368, 85, 1.79151, -3.9947, 27.6877, -152.287, -93.7301, 66.116
7.59154, 85, 1.88834, -4.5666, 27.9955, -152.308, -93.1798, 65.7883
7.59953, 85, 1.98553, -5.14961, 28.3133, -152.327, -92.6147, 65.4687
7.60748, 85, 2.08314, -5.74289, 28.64, -152.344, -92.0381, 65.1572
7.6183, 85, 2.23047, -6.64913, 29.1466, -152.364, -91.1544, 64.7062
7.62363, 85, 2.2799, -6.95509, 29.3197, -152.37, -90.8548, 64.5608
7.63143, 86, 2.37931, -7.57227, 29.6717, -152.378, -90.2484, 64.2773
7.63948, 86, 2.47972, -8.1952, 30.0305, -152.383, -89.6334, 64.0042
7.64741, 86, 2.5811, -8.82422, 30.3956, -152.386, -89.0101, 63.7419
7.65542, 86, 2.68318, -9.45894, 30.7665, -152.387, -88.3822, 63.4913
7.66353, 86, 2.78643, -10.0981, 31.1427, -152.384, -87.7502, 63.2522
7.67174, 87, 2.8907, -10.7408, 31.5245, -152.378, -87.1124, 63.0248
7.68069, 87, 2.99562, -11.3864, 31.911, -152.368, -86.4688, 62.8093
7.68741, 87, 3.10158, -12.0348, 32.3022, -152.354, -85.8202, 62.6061
7.69542, 87, 3.20834, -12.6855, 32.6981, -152.337, -85.1674, 62.4157
7.70348, 87, 3.31564, -13.3385, 33.0991, -152.315, -84.511, 62.2379
7.71142, 88, 3.42377, -13.9942, 33.5054, -152.289, -83.849, 62.0732
7.72439, 88, 3.58693, -14.9817, 34.1234, -152.244, -82.8473, 61.8512
7.72855, 88, 3.64164, -15.3113, 34.3318, -152.227, -82.5109, 61.7841
7.73627, 88, 3.75141, -15.9706, 34.7519, -152.188, -81.8353, 61.6611
7.74343, 88, 3.86151, -16.6289, 35.1757, -152.145, -81.1582, 61.5533
7.75143, 89, 3.97187, -17.285, 35.6023, -152.098, -80.4801, 61.4623
7.75952, 89, 4.08253, -17.9385, 36.0305, -152.045, -79.8012, 61.3891
7.76748, 89, 4.19352, -18.5888, 36.4593, -151.987, -79.1216, 61.3341
7.77765, 89, 4.30499, -19.2358, 36.8883, -151.925, -78.4431, 61.2987
7.78368, 89, 4.41666, -19.8782, 37.3163, -151.856, -77.769, 61.2827
7.79157, 90, 4.52863, -20.516, 37.7432, -151.783, -77.0981, 61.2871
7.79952, 90, 4.64125, -21.1496, 38.1699, -151.703, -76.4285, 61.3153
7.80754, 90, 4.75383, -21.7789, 38.596, -151.619, -75.7598, 61.367
7.81557, 90, 4.86616, -22.404, 39.0219, -151.528, -75.0928, 61.4421
7.82349, 90, 4.97814, -23.0254, 39.4484, -151.431, -74.4283, 61.5434
7.83178, 91, 5.08976, -23.644, 39.8751, -151.328, -73.764, 61.671
7.84043, 91, 5.20106, -24.2587, 40.302, -151.219, -73.0989, 61.8269
7.84758, 91, 5.31181, -24.8685, 40.7292, -151.102, -72.4333, 62.0119
7.85642, 91, 5.42199, -25.4736, 41.1559, -150.978, -71.7663, 62.227
7.86371, 91, 5.53149, -26.0719, 41.5814, -150.848, -71.0998, 62.4726
7.87219, 92, 5.64061, -26.6628, 42.0053, -150.711, -70.4355, 62.7499
7.88021, 92, 5.74989, -27.2457, 42.4266, -150.568, -69.7735, 63.0589
7.88784, 92, 5.85976, -27.8193, 42.8436, -150.42, -69.1146, 63.3991
7.89678, 92, 5.97021, -28.3831, 43.2549, -150.267, -68.4598, 63.7705
7.91237, 92, 6.19406, -29.4772, 44.058, -149.951, -67.1682, 64.6067
7.91364, 92, 6.19406, -29.4772, 44.058, -149.951, -67.1682, 64.6067
7.92003, 93, 6.30821, -30.0066, 44.4484, -149.789, -66.5329, 65.072
7.92798, 93, 6.36611, -30.5244, 44.8321, -149.626, -65.9029, 65.5677
7.93693, 93, 6.54319, -31.0327, 45.2092, -149.462, -65.2776, 66.0956
7.9434, 93, 6.60331, -31.2841, 45.3959, -149.38, -64.9661, 66.3723
7.95147, 93, 6.72538, -31.7826, 45.7653, -149.216, -64.3445, 66.9531
7.95937, 94, 6.84966, -32.2758, 46.1312, -149.052, -63.7229, 67.5748
7.9674, 94, 6.97604, -32.7638, 46.4941, -148.887, -63.0967, 68.2426
7.97545, 94, 7.10424, -33.246, 46.8559, -148.721, -62.464, 68.9622
7.9834, 94, 7.23435, -33.7209, 47.216, -148.557, -61.8246, 69.7343
7.99142, 94, 7.36738, -34.1889, 47.5734, -148.395, -61.179, 70.5576
7.99941, 95, 7.50416, -34.6488, 47.9245, -148.24, -60.5314, 71.4349
8.00882, 95, 7.71898, -35.3201, 48.4355, -148.024, -59.5648, 72.8351
8.01546, 95, 7.79361, -35.5384, 48.6004, -147.958, -59.2452, 73.3224
8.0234, 95, 7.9478, -35.9651, 48.921, -147.837, -58.6114, 74.3258
8.03297, 95, 8.19218, -36.5719, 49.3734, -147.687, -57.6753, 75.8951
8.03936, 96, 8.27707, -36.7643, 49.5166, -147.646, -57.3686, 76.4349
8.04899, 96, 8.54177, -37.3085, 49.9205, -147.552, -56.4695, 78.1002
8.05547, 96, 8.63289, -37.4784, 50.0469, -147.531, -56.1764, 78.67
8.0634, 96, 8.81896, -37.7995, 50.2868, -147.504, -55.601, 79.8265
8.07241, 96, 9.00962, -38.0949, 50.5074, -147.497, -55.043, 81.0007
8.07943, 96, 9.20358, -38.3655, 50.7085, -147.512, -54.5051, 82.1868
8.0884, 97, 9.39925, -38.6109, 50.8902, -147.548, -53.9901, 83.3824
8.09547, 97, 9.59537, -38.831, 51.0512, -147.606, -53.5003, 84.5814
8.1034, 97, 9.79098, -39.027, 51.192, -147.684, -53.0373, 85.7744
8.11141, 97, 9.98539, -39.1982, 51.3133, -147.779, -52.6032, 86.9544
8.11947, 97, 10.1774, -39.3435, 51.415, -147.889, -52.1987, 88.1147
8.12741, 97, 10.366, -39.4632, 51.4978, -148.012, -51.8245, 89.2508
8.13543, 98, 10.5513, -39.5576, 51.5623, -148.147, -51.4803, 90.3553
8.1434, 98, 10.7343, -39.6278, 51.6088, -148.292, -51.1657, 91.4305
8.15139, 98, 10.9156, -39.6752, 51.6379, -148.447, -50.8788, 92.4829
8.15948, 98, 11.0952, -39.6994, 51.6496, -148.613, -50.6162, 93.5257
8.16742, 98, 11.2727, -39.7003, 51.6444, -148.792, -50.375, 94.5712
8.1754, 98, 11.4488, -39.6774, 51.6219, -148.983, -50.1535, 95.6291
8.18346, 98, 11.6249, -39.6307, 51.5814, -149.188, -49.9518, 96.7058
8.19149, 99, 11.8002, -39.5606, 51.5231, -149.406, -49.7716, 97.8007
8.19947, 99, 11.9737, -39.4678, 51.4461, -149.634, -49.6152, 98.9088
8.2074, 99, 12.1442, -39.3523, 51.3506, -149.871, -49.486, 100.02
8.21539, 99, 12.3109, -39.2145, 51.2371, -150.113, -49.3865, 101.124
8.22347, 99, 12.4721, -39.0545, 51.1062, -150.357, -49.3177, 102.21
8.23195, 99, 12.6262, -38.8724, 50.9595, -150.599, -49.2796, 103.272
8.23942, 100, 12.7719, -38.6663, 50.7972, -150.838, -49.2725, 104.302
8.24741, 100, 12.9088, -38.4358, 50.6185, -151.072, -49.297, 105.304
8.25623, 100, 13.0369, -38.1822, 50.4226, -151.301, -49.3526, 106.277
8.26344, 100, 13.1565, -37.9059, 50.2101, -151.524, -49.4392, 107.227
8.27181, 100, 13.2681, -37.6082, 49.9796, -151.741, -49.5572, 108.155
8.28032, 100, 13.3716, -37.2869, 49.7302, -151.952, -49.7063, 109.063
8.28751, 101, 13.4671, -36.941, 49.4634, -152.155, -49.8864, 109.952
8.29556, 101, 13.5547, -36.5689, 49.1783, -152.351, -50.0975, 110.819
8.30351, 101, 13.6345, -36.1705, 48.8753, -152.537, -50.3398, 111.668
8.31197, 101, 13.706, -35.7462, 48.5535, -152.715, -50.6131, 112.493
8.31959, 101, 13.7691, -35.2981, 48.2135, -152.882, -50.9188, 113.297
8.33845, 102, 13.868, -34.3315, 47.4805, -153.182, -51.6292, 114.834
8.34055, 102, 13.8867, -34.075, 47.2865, -153.249, -51.8273, 115.203
8.34349, 102, 13.903, -33.8122, 47.0884, -153.313, -52.0336, 115.566
8.35159, 102, 13.9282, -33.2684, 46.6805, -153.431, -52.4705, 116.272
8.36033, 102, 13.9443, -32.7018, 46.2579, -153.534, -52.9395, 116.949
8.36769, 102, 13.9519, -32.1133, 45.8212, -153.624, -53.4381, 117.602
8.37573, 103, 13.9518, -31.5035, 45.3703, -153.699, -53.9642, 118.227
8.3847, 103, 13.9449, -30.8747, 44.9062, -153.761, -54.5162, 118.825
8.39188, 103, 13.9315, -30.2286, 44.4302, -153.81, -55.0916, 119.398
8.39989, 103, 13.9124, -29.5673, 43.9439, -153.845, -55.6877, 119.947
8.40872, 103, 13.888, -28.8915, 43.4492, -153.869, -56.303, 120.469
8.41599, 103, 13.8588, -28.2036, 42.9479, -153.881, -56.9338, 120.966
8.42394, 104, 13.8254, -27.5061, 42.4421, -153.884, -57.5766, 121.436
8.43276, 104, 13.8072, -27.1542, 41.9331, -153.875, -58.2325, 121.883
8.44003, 104, 13.7678, -26.4453, 41.422, -153.857, -58.9008, 122.307
8.4474, 104, 13.725, -25.7306, 41.1662, -153.845, -59.2387, 122.512
8.45539, 104, 13.68, -25.0128, 40.6547, -153.814, -59.9213, 122.908
8.46444, 104, 13.6091, -23.9323, 39.8878, -153.753, -60.9567, 123.473
8.47138, 104, 13.5847, -23.5714, 39.6328, -153.73, -61.3041, 123.656
8.47942, 104, 13.5348, -22.849, 39.1237, -153.68, -62.0025, 124.017
8.48744, 104, 13.4841, -22.126, 38.6157, -153.623, -62.7042, 124.372
8.49538, 104, 13.4328, -21.4022, 38.1094, -153.563, -63.4076, 124.723
8.50345, 104, 13.381, -20.6791, 37.6047, -153.498, -64.1113, 125.073
8.51139, 104, 13.3289, -19.9564, 37.1015, -153.429, -64.8151, 125.421
8.51945, 104, 13.2767, -19.2331, 36.6002, -153.356, -65.5215, 125.767
8.52904, 104, 13.1982, -18.1473, 35.8518, -153.239, -66.5823, 126.286
8.53539, 104, 13.1722, -17.7853, 35.6036, -153.198, -66.9365, 126.458
8.54586, 104, 13.0945, -16.6989, 34.8624, -153.069, -67.9978, 126.975
8.55145, 104, 13.0687, -16.3369, 34.6162, -153.024, -68.3515, 127.147
8.56102, 104, 13.0174, -15.2501, 33.8809, -152.884, -69.4164, 127.663
8.56738, 104, 12.9664, -14.8875, 33.637, -152.835, -69.7719, 127.834
8.57547, 104, 12.9158, -14.162, 33.151, -152.734, -70.4828, 128.177
8.58546, 104, 12.8406, -13.0737, 32.4269, -152.577, -71.5479, 128.693
8.59138, 104, 12.8157, -12.7108, 32.1868, -152.522, -71.9033, 128.865
8.59946, 104, 12.7661, -11.9852, 31.7088, -152.41, -72.6157, 129.209
8.60739, 104, 12.7168, -11.2602, 31.2333, -152.294, -73.3281, 129.554
8.61538, 104, 12.668, -10.5351, 30.7601, -152.174, -74.0412, 129.9
8.62345, 104, 12.6193, -9.80916, 30.29, -152.05, -74.7541, 130.246
8.63145, 104, 12.5711, -9.08362, 29.823, -151.923, -75.4668, 130.593
8.63946, 104, 12.5234, -8.35764, 29.3589, -151.79, -76.1812, 130.941
8.64746, 104, 12.4762, -7.63138, 28.8982, -151.655, -76.896, 131.29
8.6554, 104, 12.4295, -6.90604, 28.4409, -151.514, -77.6113, 131.64
8.66341, 104, 12.3836, -6.18112, 27.9868, -151.37, -78.326, 131.992
8.67147, 104, 12.3381, -5.45668, 27.5364, -151.222, -79.0398, 132.344
8.67938, 104, 12.2931, -4.73308, 27.0898, -151.069, -79.7544, 132.698
8.68743, 104, 12.2492, -4.01084, 26.6475, -150.912, -80.4697, 133.053
8.69546, 104, 12.2063, -3.29193, 26.2105, -150.752, -81.1834, 133.408
8.70338, 104, 12.1645, -2.57842, 25.7786, -150.587, -81.8927, 133.765
8.7114, 104, 12.1241, -1.87119, 25.3529, -150.42, -82.5983, 134.121
8.71947, 104, 12.0847, -1.17162, 24.9351, -150.249, -83.2995, 134.476
8.7274, 104, 12.0463, -0.481266, 24.526, -150.076, -83.9925, 134.828
8.7354, 104, 12.0089, 0.19919, 24.1268, -149.901, -84.675, 135.178
8.74344, 104, 11.9725, 0.868592, 23.7389, -149.725, -85.3439, 135.523
8.7514, 104, 11.9371, 1.52521, 23.3633, -149.549, -85.9985, 135.863
8.7595, 104, 11.9031, 2.16803, 23.0003, -149.373, -86.639, 136.197
8.76746, 104, 11.8701, 2.79515, 22.6497, -149.198, -87.2637, 136.525
8.77551, 104, 11.8382, 3.40657, 22.3119, -149.023, -87.8726, 136.846
8.78347, 104, 11.8078, 4.00151, 21.9871, -148.85, -88.4647, 137.16
8.79171, 104, 11.7784, 4.57957, 21.6749, -148.677, -89.0388, 137.468
8.79951, 104, 11.7503, 5.14098, 21.3747, -148.506, -89.5962, 137.768
8.80783, 104, 11.7237, 5.68528, 21.0859, -148.337, -90.1385, 138.061
8.81557, 104, 11.698, 6.21232, 20.8095, -148.171, -90.6643, 138.348
8.82394, 104, 11.6735, 6.72274, 20.5446, -148.006, -91.1737, 138.627
8.83241, 104, 11.6502, 7.21634, 20.2914, -147.844, -91.6665, 138.899
8.83948, 104, 11.6281, 7.69284, 20.0495, -147.685, -92.1416, 139.163
8.84747, 104, 11.607, 8.15305, 19.818, -147.528, -92.6002, 139.419
8.85555, 104, 11.5872, 8.59631, 19.5979, -147.375, -93.0423, 139.668
8.86366, 104, 11.5685, 9.02207, 19.3887, -147.226, -93.468, 139.909
8.87165, 104, 11.5508, 9.43089, 19.1893, -147.08, -93.8765, 140.141
8.88034, 104, 11.5343, 9.82174, 19.0005, -146.939, -94.2681, 140.365
8.88789, 104, 11.5188, 10.1945, 18.8226, -146.802, -94.6419, 140.58
8.8969, 104, 11.5044, 10.5481, 18.6548, -146.67, -94.9974, 140.785
8.90389, 104, 11.4911, 10.8828, 18.4975, -146.544, -95.3338, 140.98
8.91248, 104, 11.4787, 11.1977, 18.3513, -146.423, -95.6505, 141.165
8.91998, 104, 11.4673, 11.4918, 18.2158, -146.31, -95.9465, 141.338
8.92796, 104, 11.4571, 11.7655, 18.0906, -146.203, -96.2218, 141.5
8.93649, 104, 11.4477, 12.0179, 17.9761, -146.104, -96.4755, 141.65
8.94394, 104, 11.4433, 12.136, 17.9229, -146.057, -96.7074, 141.787
8.95233, 104, 11.4312, 12.4591, 17.7787, -145.929, -96.9174, 141.912
8.95947, 104, 11.4275, 12.5563, 17.7359, -145.89, -97.0141, 141.97
8.96739, 104, 11.4209, 12.7348, 17.6579, -145.819, -97.191, 142.075
8.97561, 104, 11.4149, 12.8923, 17.59, -145.757, -97.346, 142.168
8.98344, 104, 11.4095, 13.03, 17.5318, -145.703, -97.479, 142.248
8.99138, 104, 11.4046, 13.1487, 17.483, -145.658, -97.591, 142.315
8.99937, 104, 11.4001, 13.2489, 17.4431, -145.621, -97.6825, 142.369
9.00744, 104, 11.396, 13.332, 17.411, -145.591, -97.7557, 142.413
9.01538, 104, 11.3922, 13.4, 17.3864, -145.567, -97.8115, 142.447
9.02342, 104, 11.3889, 13.4547, 17.3683, -145.55, -97.8525, 142.472
9.03295, 104, 11.3847, 13.5149, 17.3505, -145.533, -97.8927, 142.496
9.04099, 104, 11.3826, 13.5427, 17.3437, -145.526, -97.9088, 142.505
9.04737, 104, 11.3817, 13.5539, 17.3413, -145.524, -97.9143, 142.508
9.05544, 104, 11.3802, 13.5714, 17.338, -145.521, -97.9216, 142.512
9.065, 104, 11.3791, 13.5877, 17.3358, -145.519, -97.9265, 142.514
9.07137, 104, 11.3782, 13.5913, 17.3354, -145.519, -97.9273, 142.515
9.07946, 105, 11.3776, 13.5967, 17.335, -145.519, -97.9282, 142.515
9.08846, 105, 11.3772, 13.6002, 17.3348, -145.519, -97.9286, 142.515
9.09537, 105, 11.3768, 13.6026, 17.3347, -145.518, -97.9287, 142.516
9.10344, 105, 11.3766, 13.6047, 17.3346, -145.518, -97.9288, 142.516
9.11138, 105, 11.3764, 13.6064, 17.3346, -145.518, -97.9289, 142.516
9.11938, 105, 11.3762, 13.6079, 17.3346, -145.518, -97.9288, 142.516
9.12743, 105, 11.3762, 13.6092, 17.3346, -145.518, -97.9287, 142.516
9.13537, 105, 11.3761, 13.6104, 17.3346, -145.518, -97.9286, 142.516
9.14337, 105, 11.376, 13.6113, 17.3347, -145.519, -97.9286, 142.516
9.15146, 105, 11.376, 13.6122, 17.3347, -145.519, -97.9285, 142.516
9.15937, 105, 11.376, 13.6127, 17.3347, -145.519, -97.9283, 142.516
9.16737, 105, 11.3759, 13.6131, 17.3348, -145.519, -97.9282, 142.516
9.17542, 105, 11.3759, 13.6134, 17.3348, -145.519, -97.928, 142.516
9.18337, 105, 11.3759, 13.6135, 17.3349, -145.519, -97.9279, 142.516
9.19142, 105, 11.3759, 13.6135, 17.3349, -145.519, -97.9278, 142.516
