hehonglu123/Motion-Primitive-Planning/ILC/recorded_data/realrobot/wood/iteration_11/run_0.csv
timestamp, cmd_num, J1, J2, J3, J4, J5, J6
0.000365, -1, 11.3761, 13.6129, 17.3375, -145.52, -97.9258, 142.515
0.006205, -1, 11.3761, 13.6129, 17.3375, -145.52, -97.9258, 142.515
0.00892, -1, 11.3761, 13.6129, 17.3375, -145.52, -97.9258, 142.515
0.030181, -1, 11.3761, 13.6129, 17.3375, -145.52, -97.9258, 142.515
0.034615, -1, 11.3761, 13.6129, 17.3375, -145.52, -97.9258, 142.515
0.03673, -1, 11.3761, 13.6129, 17.3375, -145.52, -97.9258, 142.515
0.04048, -1, 11.3761, 13.6129, 17.3375, -145.52, -97.9258, 142.515
0.048871, -1, 11.376, 13.6129, 17.3375, -145.52, -97.9258, 142.515
0.056164, -1, 11.3755, 13.6129, 17.3374, -145.52, -97.9258, 142.515
0.195372, -1, 10.1183, 13.2778, 17.4162, -145.912, -97.7918, 140.233
0.19726, -1, 10.0425, 13.2573, 17.4212, -145.936, -97.7834, 140.094
0.19869, -1, 10.0425, 13.2573, 17.4212, -145.936, -97.7834, 140.094
0.199997, -1, 10.0425, 13.2573, 17.4212, -145.936, -97.7834, 140.094
0.203755, -1, 9.96595, 13.2366, 17.4262, -145.959, -97.7749, 139.955
0.205809, -1, 9.88875, 13.2159, 17.4312, -145.984, -97.7662, 139.815
0.207028, -1, 9.88875, 13.2159, 17.4312, -145.984, -97.7662, 139.815
0.213345, -1, 9.73337, 13.1744, 17.4412, -146.032, -97.7489, 139.536
0.214817, -1, 9.73337, 13.1744, 17.4412, -146.032, -97.7489, 139.536
0.216012, -1, 9.73337, 13.1744, 17.4412, -146.032, -97.7489, 139.536
0.218069, -1, 9.6556, 13.1537, 17.4463, -146.056, -97.7403, 139.396
0.219275, -1, 9.6556, 13.1537, 17.4463, -146.056, -97.7403, 139.396
0.221254, -1, 9.6556, 13.133, 17.4513, -146.08, -97.7317, 139.256
0.222642, -1, 9.57792, 13.133, 17.4513, -146.08, -97.7317, 139.256
0.223946, -1, 9.57792, 13.133, 17.4513, -146.08, -97.7317, 139.256
0.227621, -1, 9.5004, 13.1123, 17.4562, -146.104, -97.7232, 139.117
0.229623, -1, 9.42301, 13.0916, 17.4611, -146.128, -97.7148, 138.977
0.230989, -1, 9.42301, 13.0916, 17.4611, -146.128, -97.7148, 138.977
0.232177, -1, 9.42301, 13.0916, 17.4611, -146.128, -97.7148, 138.977
0.234297, -1, 9.34566, 13.071, 17.466, -146.152, -97.7065, 138.838
0.235613, -1, 9.34566, 13.071, 17.466, -146.152, -97.7065, 138.838
0.237596, -1, 9.2684, 13.0504, 17.471, -146.176, -97.6981, 138.698
0.241953, -1, 9.19122, 13.0297, 17.476, -146.2, -97.6896, 138.558
0.24784, -1, 9.11418, 13.0092, 17.481, -146.224, -97.6813, 138.418
0.2574, -1, 8.96044, 12.968, 17.4911, -146.272, -97.6645, 138.138
0.263841, -1, 8.80674, 12.9269, 17.5012, -146.32, -97.6474, 137.859
0.272841, -1, 8.65349, 12.8857, 17.5113, -146.368, -97.6301, 137.579
0.278846, -1, 8.5007, 12.8444, 17.5214, -146.416, -97.6126, 137.299
0.287869, -1, 8.34782, 12.8031, 17.5316, -146.464, -97.5951, 137.018
0.295771, -1, 8.19458, 12.7616, 17.5417, -146.512, -97.578, 136.739
0.303779, -1, 8.041, 12.72, 17.552, -146.56, -97.5611, 136.459
0.311835, -1, 7.88674, 12.6783, 17.5622, -146.608, -97.5443, 136.178
0.319842, -1, 7.73197, 12.6366, 17.5723, -146.656, -97.5277, 135.898
0.327774, -1, 7.57699, 12.5949, 17.5825, -146.704, -97.5109, 135.618
0.335864, -1, 7.42189, 12.5534, 17.5927, -146.752, -97.4939, 135.338
0.343777, -1, 7.26683, 12.5119, 17.6029, -146.8, -97.4766, 135.057
0.351775, -1, 7.11181, 12.4703, 17.6133, -146.848, -97.4593, 134.777
0.359935, -1, 6.95657, 12.429, 17.6236, -146.897, -97.442, 134.497
0.367768, -1, 6.80147, 12.3877, 17.634, -146.945, -97.4251, 134.217
0.375794, -1, 6.64663, 12.3464, 17.6444, -146.993, -97.4082, 133.937
0.383851, -1, 6.49202, 12.3052, 17.6548, -147.041, -97.3915, 133.656
0.391792, -1, 6.3377, 12.2639, 17.6652, -147.089, -97.3747, 133.376
0.399842, -1, 6.18344, 12.2224, 17.6756, -147.137, -97.3577, 133.095
0.407861, -1, 6.02905, 12.181, 17.6859, -147.186, -97.3405, 132.814
0.415775, -1, 5.87452, 12.1396, 17.6963, -147.233, -97.3229, 132.534
0.423841, -1, 5.71977, 12.0979, 17.7066, -147.282, -97.3053, 132.253
0.431967, -1, 5.56483, 12.0563, 17.7168, -147.33, -97.288, 131.972
0.439843, -1, 5.40973, 12.0147, 17.7272, -147.378, -97.2711, 131.691
0.447889, -1, 5.25436, 11.9731, 17.7375, -147.426, -97.2543, 131.41
0.456051, -1, 5.09868, 11.9314, 17.748, -147.474, -97.2375, 131.13
0.463374, -1, 4.94286, 11.8899, 17.7585, -147.522, -97.2207, 130.849
0.47194, -1, 4.7871, 11.8484, 17.769, -147.571, -97.2035, 130.568
0.480393, -1, 4.63137, 11.8069, 17.7795, -147.619, -97.1862, 130.287
0.487883, -1, 4.47566, 11.7654, 17.7899, -147.667, -97.1687, 130.006
0.495953, -1, 4.32006, 11.724, 17.8003, -147.715, -97.1514, 129.725
0.504527, -1, 4.16474, 11.6826, 17.8109, -147.764, -97.1343, 129.444
0.511811, -1, 4.00988, 11.6412, 17.8213, -147.812, -97.1173, 129.163
0.649895, -1, 1.36369, 10.9329, 17.9986, -148.634, -96.8261, 124.374
0.651202, -1, 1.36369, 10.9329, 17.9986, -148.634, -96.8261, 124.374
0.653183, -1, 1.28576, 10.9121, 18.0038, -148.658, -96.8176, 124.233
0.654484, -1, 1.28576, 10.9121, 18.0038, -148.658, -96.8176, 124.233
0.655675, -1, 1.28576, 10.9121, 18.0038, -148.658, -96.8176, 124.233
0.657743, -1, 1.20791, 10.8912, 18.009, -148.682, -96.8092, 124.092
0.658936, -1, 1.20791, 10.8912, 18.009, -148.682, -96.8092, 124.092
0.661876, -1, 1.13015, 10.8703, 18.0142, -148.706, -96.8008, 123.951
0.663996, -1, 1.13015, 10.8703, 18.0142, -148.706, -96.8008, 123.951
0.666144, -1, 1.05249, 10.8494, 18.0194, -148.731, -96.7924, 123.809
0.667353, -1, 1.05249, 10.8494, 18.0194, -148.731, -96.7924, 123.809
0.669395, -1, 0.974915, 10.8286, 18.0246, -148.755, -96.7839, 123.668
0.670667, -1, 0.974915, 10.8286, 18.0246, -148.755, -96.7839, 123.668
0.671975, -1, 0.974915, 10.8286, 18.0246, -148.755, -96.7839, 123.668
0.674208, -1, 0.89741, 10.8077, 18.0298, -148.779, -96.7753, 123.527
0.679574, -1, 0.820001, 10.7868, 18.035, -148.803, -96.7666, 123.386
0.681648, -1, 0.742629, 10.7659, 18.0402, -148.827, -96.7579, 123.245
0.68285, -1, 0.742629, 10.7659, 18.0402, -148.827, -96.7579, 123.245
0.684115, -1, 0.742629, 10.7659, 18.0402, -148.827, -96.7579, 123.245
0.6877, -1, 0.665278, 10.745, 18.0454, -148.852, -96.7491, 123.104
0.689809, -1, 0.587964, 10.7241, 18.0506, -148.876, -96.7403, 122.963
0.691053, -1, 0.587964, 10.7241, 18.0506, -148.876, -96.7403, 122.963
0.697797, -1, 0.433191, 10.6824, 18.061, -148.925, -96.7227, 122.68
0.703758, -1, 0.355638, 10.6615, 18.0662, -148.949, -96.714, 122.538
0.711815, -1, 0.20027, 10.6196, 18.0767, -148.997, -96.6969, 122.256
0.719867, -1, 0.0444612, 10.5778, 18.0872, -149.046, -96.68, 121.973
0.727779, -1, -0.11176, 10.536, 18.0978, -149.094, -96.6632, 121.69
0.735777, -1, -0.268251, 10.4941, 18.1083, -149.142, -96.6465, 121.407
0.743878, -1, -0.425059, 10.4522, 18.1188, -149.191, -96.6296, 121.125
0.751765, -1, -0.58226, 10.4104, 18.1291, -149.239, -96.6123, 120.842
0.760756, -1, -0.739519, 10.3686, 18.1396, -149.288, -96.5947, 120.559
0.767818, -1, -0.896972, 10.3268, 18.15, -149.337, -96.5774, 120.276
0.776843, -1, -1.05429, 10.285, 18.1604, -149.385, -96.5603, 119.994
0.784175, -1, -1.2115, 10.2432, 18.1708, -149.434, -96.5433, 119.71
0.791802, -1, -1.36847, 10.2014, 18.1811, -149.482, -96.5265, 119.427
0.799814, -1, -1.52519, 10.1596, 18.1916, -149.531, -96.5097, 119.144
0.808533, -1, -1.68149, 10.1178, 18.2022, -149.58, -96.4928, 118.861
0.815799, -1, -1.83744, 10.0759, 18.2126, -149.628, -96.4756, 118.577
0.823757, -1, -1.99299, 10.034, 18.2231, -149.677, -96.458, 118.294
0.832574, -1, -2.14819, 9.99216, 18.2335, -149.726, -96.4404, 118.01
0.838844, -1, -2.30337, 9.95032, 18.2439, -149.774, -96.4229, 117.727
0.847754, -1, -2.45882, 9.90837, 18.2544, -149.822, -96.4058, 117.443
0.856544, -1, -2.61448, 9.86641, 18.2648, -149.871, -96.3889, 117.159
0.863752, -1, -2.77045, 9.82453, 18.2752, -149.92, -96.3721, 116.876
0.871772, -1, -2.9269, 9.78255, 18.2856, -149.968, -96.3552, 116.592
0.88067, -1, -3.08373, 9.74062, 18.296, -150.017, -96.3382, 116.308
0.887755, -1, -3.24097, 9.69869, 18.3064, -150.066, -96.3208, 116.024
0.895768, -1, -3.39862, 9.65668, 18.3169, -150.114, -96.3032, 115.741
0.904528, -1, -3.55639, 9.61473, 18.3274, -150.163, -96.2856, 115.457
0.911772, -1, -3.71421, 9.5729, 18.3378, -150.212, -96.2683, 115.172
0.919821, -1, -3.87219, 9.53095, 18.3482, -150.26, -96.2512, 114.888
0.928562, -1, -4.03016, 9.48897, 18.3586, -150.309, -96.2342, 114.604
0.935758, -1, -4.188, 9.44709, 18.369, -150.358, -96.2173, 114.32
0.943767, -1, -4.34572, 9.40513, 18.3793, -150.407, -96.2002, 114.035
0.952689, -1, -4.50323, 9.36316, 18.3897, -150.456, -96.1829, 113.75
0.959918, -1, -4.66022, 9.32117, 18.4001, -150.505, -96.1652, 113.465
0.96785, -1, -4.8168, 9.27914, 18.4105, -150.553, -96.1474, 113.181
0.976081, -1, -4.97312, 9.23707, 18.4211, -150.602, -96.1299, 112.896
0.983881, -1, -5.12906, 9.19507, 18.4316, -150.651, -96.1126, 112.611
0.991864, -1, -5.28496, 9.15299, 18.4422, -150.699, -96.0956, 112.326
1.00056, -1, -5.44097, 9.11083, 18.4527, -150.749, -96.0787, 112.042
1.00779, -1, -5.59718, 9.06876, 18.4631, -150.797, -96.0618, 111.757
1.01644, -1, -5.75369, 9.02666, 18.4735, -150.846, -96.0447, 111.472
1.02506, -1, -5.91059, 8.98447, 18.4839, -150.895, -96.0273, 111.187
1.03185, -1, -6.06797, 8.94235, 18.4943, -150.944, -96.0096, 110.902
1.04076, -1, -6.22591, 8.90023, 18.5047, -150.993, -95.9921, 110.617
1.04799, -1, -6.38421, 8.85812, 18.515, -151.042, -95.9748, 110.332
1.05606, -1, -6.54264, 8.81612, 18.5254, -151.091, -95.9577, 110.047
1.06275, -1, -6.62188, 8.79508, 18.5307, -151.115, -95.9492, 109.904
1.07081, -1, -6.78057, 8.75292, 18.5412, -151.164, -95.9322, 109.619
1.08035, -1, -7.01848, 8.68985, 18.557, -151.238, -95.9065, 109.19
1.08911, -1, -7.17699, 8.64773, 18.5674, -151.286, -95.8891, 108.905
1.0948, -1, -7.25618, 8.62667, 18.5726, -151.311, -95.8803, 108.762
1.10436, -1, -7.49332, 8.56334, 18.5883, -151.385, -95.8537, 108.333
1.11315, -1, -7.65101, 8.52105, 18.5988, -151.434, -95.8362, 108.047
1.11883, -1, -7.72972, 8.49991, 18.604, -151.459, -95.8275, 107.904
1.12848, -1, -7.88686, 8.45771, 18.6196, -151.532, -95.8019, 107.476
1.13574, -1, -8.04365, 8.41538, 18.6248, -151.556, -95.7934, 107.333
1.14281, -1, -8.20024, 8.37305, 18.6352, -151.606, -95.7764, 107.047
1.15375, -1, -8.43516, 8.30954, 18.6511, -151.679, -95.7507, 106.618
1.15981, -1, -8.51361, 8.28833, 18.6564, -151.703, -95.742, 106.475
1.16681, -1, -8.67077, 8.24604, 18.6669, -151.753, -95.7243, 106.189
1.17581, -1, -8.82832, 8.20376, 18.6773, -151.802, -95.7067, 105.902
1.18375, -1, -8.98619, 8.1614, 18.6877, -151.85, -95.6892, 105.616
1.19076, -1, -9.14454, 8.11914, 18.6981, -151.9, -95.672, 105.33
1.1998, -1, -9.30324, 8.07688, 18.7086, -151.949, -95.6549, 105.043
1.20774, -1, -9.46222, 8.03452, 18.719, -151.998, -95.6378, 104.756
1.21475, -1, -9.62137, 7.99229, 18.7296, -152.048, -95.6206, 104.47
1.22374, -1, -9.78057, 7.95009, 18.74, -152.097, -95.6031, 104.183
1.23177, -1, -9.93999, 7.90778, 18.7506, -152.146, -95.5855, 103.895
1.23875, -1, -10.0993, 7.86544, 18.7613, -152.195, -95.5676, 103.609
1.24774, -1, -10.2584, 7.82298, 18.7719, -152.245, -95.5498, 103.322
1.25574, -1, -10.4175, 7.78049, 18.7824, -152.294, -95.5325, 103.035
1.26474, -1, -10.5762, 7.73803, 18.7929, -152.344, -95.5153, 102.748
1.27175, -1, -10.7345, 7.69556, 18.8034, -152.392, -95.4983, 102.461
1.28074, -1, -10.8924, 7.65297, 18.8139, -152.441, -95.4813, 102.174
1.28673, -1, -11.0501, 7.61043, 18.8243, -152.491, -95.464, 101.887
1.29576, -1, -11.2075, 7.56797, 18.8347, -152.54, -95.4465, 101.6
1.30374, -1, -11.365, 7.52548, 18.8452, -152.589, -95.4287, 101.312
1.31175, -1, -11.5225, 7.48296, 18.8557, -152.639, -95.411, 101.025
1.31982, -1, -11.6802, 7.44055, 18.8663, -152.688, -95.3935, 100.737
1.32781, -1, -11.8383, 7.39812, 18.8769, -152.737, -95.3762, 100.449
1.33575, -1, -11.9969, 7.35572, 18.8875, -152.787, -95.3589, 100.162
1.34376, -1, -12.1559, 7.31337, 18.898, -152.836, -95.3417, 99.8739
1.35181, -1, -12.3153, 7.27094, 18.9084, -152.886, -95.3244, 99.5859
1.35979, -1, -12.475, 7.22851, 18.919, -152.935, -95.3069, 99.2977
1.36779, -1, -12.6349, 7.1861, 18.9296, -152.984, -95.2889, 99.0098
1.37581, -1, -12.795, 7.14366, 18.9401, -153.034, -95.271, 98.722
1.38376, -1, -12.9551, 7.10114, 18.9507, -153.084, -95.2533, 98.4338
1.39175, -1, -13.115, 7.05856, 18.9612, -153.133, -95.2358, 98.1456
1.39989, -1, -13.275, 7.01594, 18.9718, -153.183, -95.2186, 97.8574
1.40774, -1, -13.4347, 6.97329, 18.9824, -153.232, -95.2015, 97.5692
1.41575, -1, -13.5939, 6.93053, 18.9929, -153.281, -95.1843, 97.2805
1.4238, -1, -13.753, 6.88779, 19.0035, -153.331, -95.167, 96.9919
1.43175, -1, -13.9119, 6.84507, 19.0139, -153.38, -95.1492, 96.7035
1.4398, -1, -14.0702, 6.80234, 19.0244, -153.429, -95.1314, 96.4149
1.44782, -1, -14.2283, 6.75972, 19.035, -153.479, -95.1137, 96.126
1.4558, -1, -14.3865, 6.71704, 19.0455, -153.529, -95.0962, 95.837
1.46392, -1, -14.5448, 6.67433, 19.056, -153.578, -95.079, 95.5479
1.47184, -1, -14.7036, 6.63179, 19.0666, -153.628, -95.0618, 95.2587
1.47989, -1, -14.8626, 6.58926, 19.0771, -153.677, -95.0446, 94.9693
1.48791, -1, -15.0219, 6.54657, 19.0879, -153.726, -95.0271, 94.6802
1.49585, -1, -15.1817, 6.50399, 19.0986, -153.776, -95.0094, 94.3912
1.5038, -1, -15.3418, 6.46141, 19.1093, -153.826, -94.9914, 94.1021
1.51195, -1, -15.5023, 6.41872, 19.1199, -153.875, -94.9734, 93.8126
1.51985, -1, -15.663, 6.37606, 19.1305, -153.925, -94.9558, 93.5234
1.52778, -1, -15.8237, 6.33331, 19.1411, -153.975, -94.9385, 93.2341
1.53594, -1, -15.9845, 6.2904, 19.1517, -154.025, -94.9212, 92.9446
1.54402, -1, -16.1454, 6.24756, 19.1623, -154.074, -94.9041, 92.6548
1.55079, -1, -16.2258, 6.22614, 19.1675, -154.099, -94.8955, 92.51
1.56018, -1, -16.4667, 6.16165, 19.1833, -154.173, -94.8694, 92.0756
1.56673, -1, -16.5469, 6.14015, 19.1885, -154.198, -94.8605, 91.9306
1.57612, -1, -16.7868, 6.07573, 19.2045, -154.273, -94.8336, 91.4954
1.58276, -1, -16.8665, 6.05423, 19.2098, -154.298, -94.8247, 91.3504
1.59251, -1, -17.1055, 5.98978, 19.2257, -154.373, -94.7984, 90.9151
1.60028, -1, -17.2646, 5.94684, 19.2363, -154.422, -94.7811, 90.6247
1.60833, -1, -17.4237, 5.90402, 19.2469, -154.472, -94.7638, 90.3343
1.61629, -1, -17.5831, 5.86118, 19.2576, -154.522, -94.7464, 90.0442
1.62433, -1, -17.6627, 5.81837, 19.2683, -154.571, -94.7288, 89.754
1.63249, -1, -17.8221, 5.79698, 19.2737, -154.596, -94.7108, 89.4635
1.63973, -1, -17.982, 5.7542, 19.2843, -154.646, -94.7018, 89.3181
1.6478, -1, -18.1422, 5.71144, 19.2949, -154.696, -94.6838, 89.0278
1.65574, -1, -18.303, 5.66865, 19.3056, -154.746, -94.666, 88.7372
1.66373, -1, -18.4641, 5.62581, 19.3163, -154.796, -94.6485, 88.4463
1.6718, -1, -18.6256, 5.58286, 19.327, -154.846, -94.6312, 88.1552
1.67974, -1, -18.7872, 5.53988, 19.3377, -154.896, -94.6139, 87.8645
1.68775, -1, -18.949, 5.49688, 19.3482, -154.946, -94.5966, 87.5735
1.69577, -1, -19.1106, 5.45377, 19.3588, -154.996, -94.5789, 87.2822
1.70374, -1, -19.2721, 5.41059, 19.3695, -155.046, -94.5609, 86.9907
1.71181, -1, -19.4335, 5.36745, 19.38, -155.096, -94.5428, 86.6994
1.71975, -1, -19.5945, 5.32424, 19.3906, -155.145, -94.5249, 86.4078
1.72774, -1, -19.7554, 5.28106, 19.4013, -155.195, -94.5073, 86.116
1.73581, -1, -19.9159, 5.23794, 19.4119, -155.246, -94.4898, 85.8245
1.74373, -1, -20.0761, 5.19475, 19.4228, -155.295, -94.4724, 85.533
1.75174, -1, -20.2359, 5.15174, 19.4336, -155.346, -94.455, 85.2414
1.76072, -1, -20.3958, 5.10881, 19.4444, -155.396, -94.4373, 84.9495
1.76773, -1, -20.5558, 5.06571, 19.4552, -155.445, -94.4193, 84.6578
1.77673, -1, -20.716, 5.02274, 19.4659, -155.496, -94.4011, 84.3662
1.78274, -1, -20.8766, 4.97984, 19.4766, -155.546, -94.3832, 84.0741
1.79174, -1, -21.0374, 4.9368, 19.4872, -155.596, -94.3656, 83.7819
1.79978, -1, -21.1986, 4.89377, 19.4979, -155.647, -94.3483, 83.49
1.80774, -1, -21.3604, 4.85064, 19.5085, -155.697, -94.3311, 83.198
1.81573, -1, -21.5224, 4.80739, 19.5191, -155.747, -94.3138, 82.9056
1.8238, -1, -21.6846, 4.76419, 19.53, -155.797, -94.2963, 82.613
1.83173, -1, -21.847, 4.72093, 19.5407, -155.847, -94.2785, 82.3204
1.83973, -1, -22.0095, 4.67753, 19.5514, -155.897, -94.2605, 82.0278
1.84783, -1, -22.172, 4.63419, 19.5622, -155.948, -94.2425, 81.7348
1.85574, -1, -22.3344, 4.59084, 19.5728, -155.998, -94.2248, 81.442
1.86372, -1, -22.4966, 4.54745, 19.5836, -156.048, -94.2073, 81.1495
1.87181, -1, -22.6585, 4.50403, 19.5943, -156.098, -94.1899, 80.8565
1.87974, -1, -22.8201, 4.46063, 19.6049, -156.148, -94.1724, 80.5636
1.88776, -1, -22.9814, 4.41732, 19.6157, -156.199, -94.1547, 80.2706
1.89626, -1, -23.1425, 4.37405, 19.6263, -156.249, -94.1367, 79.9778
1.90288, -1, -23.3034, 4.33075, 19.637, -156.299, -94.1184, 79.6845
1.91173, -1, -23.4642, 4.2875, 19.648, -156.35, -94.1001, 79.3908
1.92051, -1, -23.6252, 4.24424, 19.6587, -156.4, -94.0822, 79.0976
1.92774, -1, -23.7862, 4.20097, 19.6695, -156.45, -94.0646, 78.8043
1.93579, -1, -23.9475, 4.15773, 19.6802, -156.501, -94.0471, 78.5105
1.94453, -1, -24.1092, 4.11437, 19.6909, -156.551, -94.0297, 78.2166
1.95175, -1, -24.2714, 4.07099, 19.7017, -156.602, -94.0122, 77.9226
1.95985, -1, -24.4341, 4.02759, 19.7123, -156.652, -93.9943, 77.6286
1.96861, -1, -24.597, 3.9841, 19.723, -156.702, -93.9762, 77.3342
1.97582, -1, -24.7603, 3.94052, 19.7336, -156.753, -93.9581, 77.0399
1.98391, -1, -24.9236, 3.89703, 19.7443, -156.803, -93.9402, 76.7461
1.99304, -1, -25.087, 3.8535, 19.7552, -156.854, -93.9226, 76.4519
1.99983, -1, -25.2504, 3.80993, 19.7661, -156.904, -93.9051, 76.1575
2.00791, -1, -25.4134, 3.76635, 19.777, -156.955, -93.8877, 75.8632
2.01576, -1, -25.5763, 3.72271, 19.7877, -157.005, -93.87, 75.5689
2.02393, -1, -25.739, 3.67911, 19.7984, -157.055, -93.852, 75.2743
2.03183, -1, -25.9015, 3.63565, 19.8092, -157.106, -93.8338, 74.9795
2.03983, -1, -26.0636, 3.59211, 19.82, -157.156, -93.8154, 74.6849
2.04796, -1, -26.2254, 3.54864, 19.8307, -157.207, -93.7973, 74.3904
2.05604, -1, -26.387, 3.50529, 19.8415, -157.258, -93.7795, 74.0956
2.06277, -1, -26.4678, 3.48359, 19.8469, -157.283, -93.7706, 73.948
2.07224, -1, -26.7105, 3.41835, 19.863, -157.359, -93.7442, 73.5052
2.08014, -1, -26.8727, 3.37489, 19.8739, -157.41, -93.7265, 73.2101
2.08826, -1, -27.0353, 3.33132, 19.8848, -157.46, -93.7085, 72.9146
2.09471, -1, -27.1166, 3.30951, 19.8902, -157.485, -93.6995, 72.7668
2.10426, -1, -27.3614, 3.24417, 19.9063, -157.561, -93.672, 72.324
2.11231, -1, -27.5251, 3.2004, 19.917, -157.612, -93.6539, 72.0288
2.12036, -1, -27.6889, 3.15671, 19.9279, -157.663, -93.636, 71.7332
2.12826, -1, -27.7709, 3.13491, 19.9332, -157.688, -93.6183, 71.4375
2.13641, -1, -27.9351, 3.09123, 19.944, -157.764, -93.6006, 71.142
2.14374, -1, -28.0993, 3.04752, 19.9548, -157.789, -93.5918, 70.9942
2.15173, -1, -28.2637, 3.00381, 19.9655, -157.84, -93.5739, 70.6982
2.15978, -1, -28.4278, 2.96007, 19.9764, -157.89, -93.5557, 70.4021
2.16772, -1, -28.5917, 2.91639, 19.9873, -157.942, -93.5372, 70.1062
2.17577, -1, -28.7553, 2.87272, 19.9982, -157.992, -93.5188, 69.8102
2.1838, -1, -28.9185, 2.82901, 20.0089, -158.043, -93.5008, 69.5138
2.19174, -1, -29.0814, 2.78535, 20.0196, -158.094, -93.4829, 69.2171
2.19973, -1, -29.2442, 2.74176, 20.0304, -158.145, -93.4652, 68.9208
2.20776, -1, -29.4068, 2.69808, 20.0413, -158.196, -93.4476, 68.624
2.21581, -1, -29.5695, 2.65438, 20.0521, -158.247, -93.4297, 68.327
2.22374, -1, -29.7324, 2.61059, 20.0629, -158.298, -93.4116, 68.0303
2.23178, -1, -29.8955, 2.56683, 20.0737, -158.349, -93.3932, 67.7337
2.23975, -1, -30.0586, 2.52307, 20.0847, -158.4, -93.3749, 67.4368
2.24771, -1, -30.2222, 2.47909, 20.0957, -158.45, -93.3568, 67.1396
2.25577, -1, -30.3863, 2.43513, 20.1067, -158.501, -93.3389, 66.8428
2.26534, -1, -30.5509, 2.39117, 20.1175, -158.553, -93.3211, 66.5457
2.27171, -1, -30.7158, 2.3471, 20.1283, -158.603, -93.3034, 66.2484
2.2798, -1, -30.8809, 2.30319, 20.1392, -158.654, -93.2856, 65.9509
2.28771, -1, -31.0459, 2.25915, 20.15, -158.705, -93.2672, 65.6539
2.29571, -1, -31.211, 2.2151, 20.1609, -158.756, -93.2488, 65.3566
2.30381, -1, -31.376, 2.1712, 20.1718, -158.808, -93.2303, 65.0589
2.31172, -1, -31.5407, 2.12725, 20.1825, -158.859, -93.2122, 64.7612
2.31978, -1, -31.7053, 2.0832, 20.1934, -158.91, -93.1943, 64.4635
2.32771, -1, -31.8697, 2.03925, 20.2044, -158.961, -93.1766, 64.1654
2.33573, -1, -32.0338, 1.99532, 20.2154, -159.012, -93.159, 63.8671
2.34379, -1, -32.1976, 1.95128, 20.2263, -159.063, -93.1413, 63.5692
2.35171, -1, -32.3611, 1.90728, 20.2372, -159.115, -93.1233, 63.2714
2.35974, -1, -32.5247, 1.8632, 20.2481, -159.166, -93.1049, 62.9732
2.36777, -1, -32.6885, 1.81908, 20.2591, -159.217, -93.0865, 62.6748
2.37572, -1, -32.8524, 1.77504, 20.27, -159.269, -93.0684, 62.3766
2.38371, -1, -33.0166, 1.73081, 20.2809, -159.319, -93.0505, 62.0783
2.3918, -1, -33.1811, 1.68657, 20.2918, -159.371, -93.0327, 61.7796
2.39971, -1, -33.3459, 1.64241, 20.3026, -159.422, -93.0149, 61.4809
2.40773, -1, -33.5112, 1.59816, 20.3137, -159.473, -92.9969, 61.1823
2.41581, -1, -33.6769, 1.55388, 20.3246, -159.524, -92.9786, 60.8837
2.42371, -1, -33.8426, 1.50966, 20.3355, -159.575, -92.96, 60.5846
2.43174, -1, -34.0085, 1.46542, 20.3464, -159.627, -92.9413, 60.2855
2.43976, -1, -34.1744, 1.42125, 20.3573, -159.678, -92.923, 59.9864
2.44771, -1, -34.3404, 1.37707, 20.3683, -159.73, -92.9049, 59.6868
2.45578, -1, -34.5065, 1.33286, 20.3792, -159.781, -92.8871, 59.3871
2.46382, -1, -34.6722, 1.28868, 20.3901, -159.833, -92.8693, 59.0877
2.47228, -1, -34.8375, 1.24448, 20.4011, -159.884, -92.8514, 58.7885
2.4798, -1, -35.0025, 1.20025, 20.4121, -159.935, -92.8332, 58.4889
2.48785, -1, -35.1673, 1.15599, 20.4231, -159.987, -92.8146, 58.1891
2.49585, -1, -35.3318, 1.11167, 20.4342, -160.038, -92.7961, 57.8894
2.50382, -1, -35.4957, 1.06753, 20.4454, -160.089, -92.7778, 57.5897
2.51183, -1, -35.658, 1.02369, 20.4566, -160.141, -92.7597, 57.2899
2.51979, -1, -35.8176, 0.980458, 20.4681, -160.192, -92.7418, 56.9914
2.52776, -1, -35.9731, 0.938383, 20.48, -160.242, -92.7241, 56.6963
2.5358, -1, -36.1236, 0.89789, 20.4919, -160.292, -92.7066, 56.4071
2.5439, -1, -36.2663, 0.859607, 20.5038, -160.339, -92.6895, 56.128
2.55189, -1, -36.3995, 0.824267, 20.5154, -160.384, -92.673, 55.8655
2.56028, -1, -36.5214, 0.79197, 20.526, -160.425, -92.6578, 55.6256
2.56809, -1, -36.6305, 0.7631, 20.5352, -160.46, -92.6446, 55.414
2.57472, -1, -36.6798, 0.750084, 20.5391, -160.476, -92.6388, 55.3203
2.58421, -1, -36.8055, 0.716731, 20.5475, -160.515, -92.6248, 55.0919
2.59229, -1, -36.8718, 0.699243, 20.5505, -160.534, -92.6183, 54.9834
2.6003, -1, -36.925, 0.685265, 20.5518, -160.547, -92.6139, 54.9065
2.60841, -1, -36.9655, 0.674424, 20.5522, -160.556, -92.6111, 54.8547
2.61662, -1, -36.9951, 0.666637, 20.5519, -160.562, -92.6093, 54.823
2.62428, -1, -37.0064, 0.663781, 20.5514, -160.565, -92.6084, 54.8051
2.6323, -1, -37.0226, 0.659805, 20.5512, -160.567, -92.608, 54.796
2.64031, -1, -37.0319, 0.657574, 20.551, -160.567, -92.6079, 54.7917
2.64767, 2, -37.0362, 0.656475, 20.5508, -160.568, -92.6077, 54.7905
2.65573, 2, -37.0369, 0.655982, 20.5508, -160.568, -92.6076, 54.7893
2.66468, 2, -37.0364, 0.655781, 20.5508, -160.568, -92.6076, 54.7886
2.67171, 2, -37.0359, 0.655697, 20.5507, -160.568, -92.6076, 54.7885
2.67973, 2, -37.0359, 0.655644, 20.5507, -160.568, -92.6076, 54.7883
2.68773, 2, -37.0367, 0.655601, 20.5507, -160.568, -92.6076, 54.7883
2.69572, 2, -37.0377, 0.655548, 20.5506, -160.568, -92.6076, 54.7882
2.70373, 2, -37.039, 0.655399, 20.5504, -160.568, -92.6076, 54.7883
2.71174, 2, -37.0404, 0.65517, 20.5501, -160.568, -92.6077, 54.7884
2.7197, 2, -37.0417, 0.654908, 20.55, -160.568, -92.6077, 54.7884
2.72777, 2, -37.0428, 0.654666, 20.5498, -160.568, -92.6077, 54.7885
2.73572, 2, -37.0435, 0.654497, 20.5496, -160.568, -92.6077, 54.7886
2.74372, 2, -37.0438, 0.654414, 20.5494, -160.568, -92.6078, 54.7887
2.75175, 2, -37.0436, 0.654384, 20.5492, -160.568, -92.6079, 54.7888
2.75973, 2, -37.0429, 0.654416, 20.5491, -160.568, -92.6079, 54.7889
2.76871, 2, -37.042, 0.654458, 20.549, -160.568, -92.6079, 54.7891
2.77573, 2, -37.0407, 0.654519, 20.549, -160.568, -92.608, 54.7893
2.78373, 2, -37.0391, 0.654582, 20.5489, -160.568, -92.608, 54.7894
2.79171, 2, -37.0379, 0.654637, 20.5488, -160.568, -92.608, 54.7896
2.79973, 2, -37.037, 0.654662, 20.5487, -160.568, -92.6081, 54.7896
2.80775, 2, -37.0366, 0.654644, 20.5487, -160.568, -92.6081, 54.7897
2.8157, 2, -37.0365, 0.654629, 20.5487, -160.568, -92.6081, 54.7897
2.82373, 2, -37.0367, 0.654573, 20.5487, -160.568, -92.6081, 54.7898
2.83174, 2, -37.0369, 0.654497, 20.5487, -160.568, -92.6081, 54.7899
2.8397, 2, -37.0372, 0.654446, 20.5486, -160.568, -92.6081, 54.7899
2.84773, 2, -37.0379, 0.654445, 20.5486, -160.568, -92.6081, 54.7899
2.85573, 2, -37.0386, 0.654433, 20.5486, -160.568, -92.6081, 54.7899
2.86372, 2, -37.0393, 0.654435, 20.5486, -160.568, -92.6081, 54.79
2.87174, 2, -37.0398, 0.654459, 20.5486, -160.568, -92.6081, 54.79
2.87972, 2, -37.0401, 0.654483, 20.5486, -160.568, -92.6081, 54.7901
2.88769, 2, -37.0402, 0.654493, 20.5486, -160.568, -92.6081, 54.7901
2.89575, 2, -37.0402, 0.654528, 20.5486, -160.568, -92.6081, 54.7902
2.90374, 2, -37.04, 0.654522, 20.5486, -160.568, -92.6082, 54.7902
2.91173, 2, -37.0395, 0.654511, 20.5486, -160.568, -92.6082, 54.7902
2.91976, 2, -37.0392, 0.654507, 20.5485, -160.568, -92.6082, 54.7904
2.92773, 2, -37.039, 0.654504, 20.5485, -160.568, -92.6082, 54.7904
2.93569, 2, -37.0389, 0.654484, 20.5485, -160.568, -92.6082, 54.7904
2.94374, 2, -37.0388, 0.654469, 20.5485, -160.568, -92.6082, 54.7905
2.95174, 2, -37.0388, 0.654463, 20.5485, -160.568, -92.6082, 54.7905
2.95973, 2, -37.0388, 0.654441, 20.5485, -160.568, -92.6082, 54.7906
2.96781, 2, -37.0389, 0.654439, 20.5484, -160.568, -92.6082, 54.7906
2.97584, 2, -37.0389, 0.654473, 20.5484, -160.568, -92.6082, 54.7907
2.98387, 2, -37.039, 0.654482, 20.5484, -160.568, -92.6082, 54.7908
2.99184, 2, -37.0393, 0.654488, 20.5484, -160.568, -92.6082, 54.7908
2.99984, 2, -37.0394, 0.654496, 20.5484, -160.568, -92.6083, 54.7908
3.00775, 2, -37.0395, 0.654499, 20.5484, -160.568, -92.6083, 54.7909
3.01574, 2, -37.0395, 0.654501, 20.5484, -160.568, -92.6083, 54.791
3.02376, 2, -37.0395, 0.654502, 20.5484, -160.568, -92.6083, 54.791
3.03176, 2, -37.0395, 0.654502, 20.5484, -160.568, -92.6083, 54.7911
3.03991, 2, -37.0394, 0.654495, 20.5484, -160.568, -92.6083, 54.7911
3.0479, 2, -37.0394, 0.654487, 20.5484, -160.568, -92.6083, 54.7912
3.05586, 2, -37.0394, 0.654483, 20.5484, -160.568, -92.6084, 54.7912
3.06404, 2, -37.0394, 0.654481, 20.5484, -160.568, -92.6084, 54.7912
3.07068, 2, -37.0394, 0.654474, 20.5484, -160.568, -92.6084, 54.7913
3.08006, 2, -37.0394, 0.654483, 20.5483, -160.568, -92.6084, 54.7914
3.08671, 2, -37.0394, 0.654482, 20.5483, -160.568, -92.6084, 54.7914
3.09628, 2, -37.0394, 0.654496, 20.5483, -160.568, -92.6083, 54.7914
3.10427, 2, -37.0394, 0.6545, 20.5483, -160.568, -92.6084, 54.7915
3.11229, 2, -37.0394, 0.654501, 20.5483, -160.568, -92.6084, 54.7916
3.12032, 2, -37.0394, 0.654502, 20.5483, -160.568, -92.6084, 54.7916
3.12826, 2, -37.0394, 0.654502, 20.5483, -160.568, -92.6083, 54.7916
3.13629, 2, -37.0393, 0.654502, 20.5483, -160.568, -92.6083, 54.7917
3.14443, 2, -37.0393, 0.654502, 20.5483, -160.568, -92.6084, 54.7917
3.1517, 2, -37.0393, 0.654502, 20.5483, -160.568, -92.6084, 54.7917
3.15973, 2, -37.0393, 0.654503, 20.5483, -160.568, -92.6084, 54.7918
3.17404, 2, -37.0393, 0.65449, 20.5482, -160.568, -92.6084, 54.7918
3.17565, 2, -37.0393, 0.65449, 20.5482, -160.568, -92.6084, 54.7918
3.18372, 2, -37.0393, 0.654497, 20.5482, -160.568, -92.6085, 54.7919
3.19172, 2, -37.0393, 0.6545, 20.5482, -160.568, -92.6085, 54.7919
3.1997, 2, -37.0392, 0.654501, 20.5482, -160.568, -92.6084, 54.792
3.20771, 2, -37.0392, 0.654502, 20.5482, -160.568, -92.6084, 54.792
3.21571, 2, -37.0392, 0.654502, 20.5482, -160.568, -92.6084, 54.7921
3.22369, 2, -37.0392, 0.654502, 20.5482, -160.568, -92.6084, 54.7921
3.23176, 2, -37.0392, 0.654502, 20.5482, -160.568, -92.6084, 54.7921
3.23972, 2, -37.0392, 0.654503, 20.5482, -160.568, -92.6085, 54.7921
3.2477, 2, -37.0392, 0.654503, 20.5482, -160.568, -92.6084, 54.7921
3.25573, 2, -37.0392, 0.654503, 20.5481, -160.568, -92.6084, 54.7922
3.26371, 2, -37.0391, 0.654513, 20.5481, -160.568, -92.6084, 54.7923
3.27269, 2, -37.0391, 0.654515, 20.5481, -160.568, -92.6084, 54.7923
3.27971, 2, -37.0391, 0.654508, 20.5481, -160.568, -92.6084, 54.7924
3.28771, 2, -37.0391, 0.654505, 20.5481, -160.568, -92.6084, 54.7924
3.29569, 2, -37.0391, 0.654504, 20.5481, -160.568, -92.6085, 54.7924
3.30372, 2, -37.039, 0.654503, 20.5481, -160.568, -92.6085, 54.7924
3.31175, 2, -37.039, 0.654503, 20.5481, -160.568, -92.6085, 54.7925
3.31969, 2, -37.039, 0.654503, 20.5481, -160.568, -92.6085, 54.7925
3.32771, 2, -37.039, 0.654503, 20.5481, -160.568, -92.6084, 54.7925
3.33571, 2, -37.039, 0.654503, 20.5481, -160.568, -92.6084, 54.7925
3.34369, 2, -37.039, 0.654503, 20.5481, -160.568, -92.6085, 54.7925
3.35172, 2, -37.039, 0.654503, 20.548, -160.568, -92.6085, 54.7925
3.35971, 2, -37.039, 0.654503, 20.548, -160.568, -92.6085, 54.7926
3.3677, 2, -37.039, 0.654503, 20.548, -160.568, -92.6084, 54.7926
3.37571, 2, -37.0389, 0.654503, 20.548, -160.568, -92.6084, 54.7926
3.38372, 2, -37.039, 0.654503, 20.548, -160.568, -92.6084, 54.7926
3.39169, 2, -37.039, 0.654503, 20.548, -160.568, -92.6085, 54.7927
3.39974, 2, -37.0389, 0.654503, 20.548, -160.567, -92.6085, 54.7927
3.40771, 2, -37.0389, 0.654503, 20.548, -160.567, -92.6084, 54.7927
3.4157, 2, -37.0389, 0.654503, 20.548, -160.567, -92.6085, 54.7927
3.42374, 2, -37.0389, 0.654503, 20.548, -160.567, -92.6084, 54.7928
3.43174, 2, -37.0389, 0.654503, 20.548, -160.567, -92.6085, 54.7928
3.43968, 2, -37.0389, 0.654503, 20.548, -160.567, -92.6085, 54.7928
3.44772, 2, -37.0389, 0.654532, 20.548, -160.567, -92.6085, 54.7929
3.45572, 2, -37.0389, 0.654542, 20.548, -160.567, -92.6085, 54.7928
3.46372, 2, -37.0388, 0.654531, 20.548, -160.567, -92.6085, 54.7928
3.47181, 2, -37.0388, 0.654523, 20.5479, -160.567, -92.6085, 54.7929
3.47985, 2, -37.0388, 0.654512, 20.5479, -160.567, -92.6086, 54.7929
3.48778, 2, -37.0388, 0.654507, 20.5479, -160.567, -92.6086, 54.7929
3.49582, 2, -37.0387, 0.654505, 20.5479, -160.567, -92.6086, 54.7929
3.50382, 2, -37.0387, 0.654503, 20.5479, -160.567, -92.6086, 54.7929
3.51179, 2, -37.0387, 0.654514, 20.5479, -160.567, -92.6085, 54.793
3.51972, 2, -37.0387, 0.654515, 20.5479, -160.567, -92.6085, 54.793
3.52793, 2, -37.0387, 0.654508, 20.5479, -160.567, -92.6085, 54.793
3.53573, 2, -37.0387, 0.654505, 20.5479, -160.567, -92.6086, 54.793
3.54386, 2, -37.0387, 0.654504, 20.5479, -160.567, -92.6086, 54.7931
3.55187, 2, -37.0386, 0.654532, 20.5478, -160.567, -92.6086, 54.7931
3.55986, 2, -37.0387, 0.654524, 20.5479, -160.567, -92.6086, 54.7931
3.568, 2, -37.0386, 0.654531, 20.5478, -160.567, -92.6087, 54.7931
3.57653, 2, -37.0387, 0.654515, 20.5478, -160.567, -92.6086, 54.7931
3.58406, 2, -37.0387, 0.654508, 20.5478, -160.567, -92.6086, 54.7931
3.59069, 2, -37.0387, 0.654507, 20.5478, -160.567, -92.6086, 54.7931
3.60057, 2, -37.0386, 0.654504, 20.5478, -160.567, -92.6086, 54.7931
3.60825, 2, -37.0386, 0.654514, 20.5478, -160.567, -92.6087, 54.7931
3.61623, 2, -37.0386, 0.654526, 20.5478, -160.567, -92.6087, 54.7931
3.62478, 2, -37.0386, 0.654532, 20.5478, -160.567, -92.6086, 54.7931
3.63223, 2, -37.0385, 0.654533, 20.5478, -160.567, -92.6087, 54.7931
3.64024, 2, -37.0386, 0.654517, 20.5478, -160.567, -92.6086, 54.7932
3.64891, 2, -37.0385, 0.654518, 20.5478, -160.567, -92.6086, 54.7932
3.65566, 2, -37.0385, 0.654535, 20.5478, -160.567, -92.6086, 54.7932
3.66368, 2, -37.0385, 0.654525, 20.5478, -160.567, -92.6086, 54.7931
3.67175, 2, -37.0385, 0.654524, 20.5478, -160.567, -92.6086, 54.7932
3.67968, 2, -37.0385, 0.65452, 20.5477, -160.567, -92.6086, 54.7932
3.68766, 2, -37.0385, 0.654521, 20.5477, -160.567, -92.6087, 54.7932
3.69572, 2, -37.0385, 0.654519, 20.5477, -160.567, -92.6087, 54.7932
3.7037, 2, -37.0384, 0.654521, 20.5477, -160.567, -92.6087, 54.7932
3.71168, 2, -37.0384, 0.654529, 20.5477, -160.567, -92.6087, 54.7932
3.71973, 2, -37.0384, 0.654533, 20.5477, -160.567, -92.6087, 54.7932
3.72767, 2, -37.0384, 0.654535, 20.5477, -160.567, -92.6086, 54.7932
3.73569, 4, -37.0384, 0.654566, 20.5477, -160.567, -92.6087, 54.7932
3.74374, 4, -37.0384, 0.654569, 20.5477, -160.567, -92.6087, 54.7932
3.7517, 4, -37.0383, 0.654551, 20.5477, -160.567, -92.6087, 54.7932
3.75969, 4, -37.0384, 0.654562, 20.5477, -160.567, -92.6087, 54.7932
3.76773, 4, -37.0383, 0.654566, 20.5477, -160.567, -92.6087, 54.7932
3.77672, 4, -37.0383, 0.654558, 20.5477, -160.567, -92.6087, 54.7932
3.78367, 4, -37.0383, 0.654539, 20.5477, -160.567, -92.6087, 54.7932
3.7918, 4, -37.0383, 0.654545, 20.5477, -160.567, -92.6087, 54.7932
3.79974, 4, -37.0383, 0.654551, 20.5476, -160.567, -92.6087, 54.7932
3.80766, 4, -37.0383, 0.654543, 20.5476, -160.567, -92.6086, 54.7932
3.81576, 4, -37.0382, 0.654529, 20.5476, -160.567, -92.6086, 54.7932
3.82368, 4, -37.0382, 0.654533, 20.5476, -160.567, -92.6087, 54.7932
3.83182, 4, -37.0382, 0.654546, 20.5476, -160.567, -92.6086, 54.7932
3.85621, 4, -37.0382, 0.654546, 20.5476, -160.567, -92.6087, 54.7932
3.8589, 4, -37.0382, 0.654554, 20.5476, -160.567, -92.6087, 54.7932
3.86079, 4, -37.0382, 0.654554, 20.5476, -160.567, -92.6087, 54.7932
3.8638, 4, -37.0382, 0.654559, 20.5476, -160.567, -92.6087, 54.7932
3.87246, 4, -37.0381, 0.654565, 20.5475, -160.567, -92.6087, 54.7932
3.8809, 4, -37.0379, 0.65452, 20.5476, -160.567, -92.6086, 54.7932
3.8878, 4, -37.0364, 0.654097, 20.5476, -160.567, -92.6087, 54.7932
3.89531, 4, -37.0324, 0.652341, 20.548, -160.567, -92.6087, 54.7932
3.90573, 4, -37.0247, 0.647988, 20.5495, -160.567, -92.6088, 54.7932
3.91181, 4, -37.0133, 0.640201, 20.5534, -160.566, -92.6088, 54.7932
3.91976, 4, -36.9977, 0.628658, 20.5607, -160.565, -92.6088, 54.7931
3.9277, 5, -36.9767, 0.612646, 20.5732, -160.563, -92.6087, 54.7931
3.93568, 5, -36.9501, 0.592232, 20.5919, -160.559, -92.6086, 54.7931
3.94382, 5, -36.9184, 0.567308, 20.6172, -160.554, -92.6083, 54.7931
3.95168, 5, -36.882, 0.537953, 20.6495, -160.547, -92.6078, 54.7931
3.95987, 5, -36.8406, 0.50407, 20.688, -160.538, -92.6069, 54.793
3.96795, 5, -36.794, 0.465353, 20.732, -160.529, -92.6056, 54.7929
3.97575, 5, -36.7423, 0.422376, 20.7805, -160.518, -92.6041, 54.793
3.98435, 5, -36.6859, 0.375691, 20.832, -160.506, -92.6024, 54.7929
3.99372, 5, -36.6255, 0.32619, 20.8856, -160.494, -92.6006, 54.7929
3.99976, 5, -36.5613, 0.274547, 20.9404, -160.482, -92.5989, 54.793
4.0078, 5, -36.4947, 0.221538, 20.9957, -160.469, -92.597, 54.793
4.0163, 5, -36.4268, 0.16792, 21.0511, -160.457, -92.5952, 54.7929
4.02372, 5, -36.3583, 0.114059, 21.1066, -160.445, -92.5934, 54.7929
4.03197, 5, -36.2896, 0.0601101, 21.162, -160.433, -92.5915, 54.7929
4.04055, 5, -36.2206, 0.0063218, 21.2175, -160.421, -92.5895, 54.793
4.04776, 5, -36.1519, -0.0472443, 21.2729, -160.409, -92.5875, 54.793
4.05614, 5, -36.0833, -0.10055, 21.3282, -160.397, -92.5855, 54.7931
4.06551, 5, -36.0146, -0.15365, 21.3834, -160.384, -92.5836, 54.7932
4.072, 5, -35.9459, -0.206561, 21.4387, -160.371, -92.5816, 54.7934
4.07865, 5, -35.9117, -0.232943, 21.4662, -160.365, -92.5806, 54.7935
4.08896, 5, -35.8086, -0.31188, 21.5487, -160.346, -92.5776, 54.7941
4.09617, 5, -35.7395, -0.364483, 21.6037, -160.333, -92.5756, 54.7948
4.10556, 5, -35.6703, -0.417112, 21.6584, -160.32, -92.5736, 54.7957
4.11467, 5, -35.6007, -0.46981, 21.7129, -160.308, -92.5715, 54.7968
4.11861, 5, -35.5659, -0.496193, 21.7401, -160.302, -92.5705, 54.7974
4.13115, 5, -35.496, -0.575333, 21.8215, -160.283, -92.5675, 54.7994
4.13719, 5, -35.4259, -0.628098, 21.8755, -160.27, -92.5654, 54.8009
4.14457, 5, -35.3203, -0.68079, 21.9295, -160.257, -92.5634, 54.8025
4.1523, 5, -35.285, -0.707136, 21.9564, -160.251, -92.5623, 54.8034
4.16122, 5, -35.2145, -0.759671, 22.0102, -160.238, -92.5602, 54.8053
4.16763, 5, -35.1438, -0.811865, 22.0639, -160.224, -92.5581, 54.8073
4.1757, 5, -35.0731, -0.864045, 22.1175, -160.211, -92.5559, 54.8094
4.18395, 5, -35.0025, -0.915949, 22.1709, -160.197, -92.5539, 54.8116
4.19162, 5, -34.932, -0.967552, 22.2243, -160.184, -92.5517, 54.814
4.19966, 5, -34.8615, -1.01904, 22.2775, -160.172, -92.5495, 54.8165
4.20806, 5, -34.791, -1.07037, 22.3306, -160.159, -92.5473, 54.8191
4.22101, 5, -34.685, -1.17305, 22.4363, -160.133, -92.543, 54.8247
4.22266, 5, -34.6495, -1.17305, 22.4363, -160.133, -92.543, 54.8247
4.23375, 5, -34.5785, -1.22436, 22.4888, -160.12, -92.5396, 54.8291
4.23968, 5, -34.5074, -1.27574, 22.5411, -160.107, -92.5384, 54.8307
4.24765, 5, -34.4361, -1.32706, 22.5934, -160.093, -92.5362, 54.8338
4.25988, 5, -34.3288, -1.404, 22.6714, -160.073, -92.5328, 54.8388
4.26388, 5, -34.293, -1.42962, 22.6973, -160.066, -92.5317, 54.8405
4.27167, 5, -34.2212, -1.48077, 22.7492, -160.052, -92.5294, 54.844
4.28065, 5, -34.1492, -1.53166, 22.8009, -160.038, -92.5271, 54.8476
4.29007, 5, -34.0411, -1.60767, 22.8782, -160.018, -92.5236, 54.8532
4.29658, 5, -34.005, -1.63288, 22.904, -160.012, -92.5225, 54.8551
4.3037, 5, -33.9328, -1.68315, 22.9554, -159.998, -92.5202, 54.8591
4.31165, 5, -33.8606, -1.73322, 23.0065, -159.985, -92.5179, 54.8632
4.31974, 5, -33.7885, -1.78319, 23.0575, -159.971, -92.5155, 54.8673
4.32765, 5, -33.7162, -1.83312, 23.1084, -159.957, -92.5132, 54.8714
4.33582, 5, -33.6439, -1.88294, 23.1591, -159.942, -92.5109, 54.8756
4.34615, 5, -33.5349, -1.95792, 23.2349, -159.921, -92.5076, 54.8821
4.35173, 5, -33.4986, -1.98309, 23.2601, -159.914, -92.5064, 54.8841
4.35974, 5, -33.4258, -2.0336, 23.3105, -159.9, -92.5042, 54.8877
4.36765, 5, -33.3531, -2.08453, 23.3608, -159.886, -92.5018, 54.8901
4.37566, 6, -33.2807, -2.13597, 23.4114, -159.871, -92.4993, 54.891
4.38499, 6, -33.2086, -2.18812, 23.4623, -159.857, -92.4965, 54.8904
4.39181, 6, -33.1369, -2.24122, 23.5136, -159.842, -92.4932, 54.8874
4.40065, 6, -33.0655, -2.29516, 23.5658, -159.826, -92.489, 54.8801
4.40766, 7, -32.9947, -2.35026, 23.6191, -159.808, -92.4835, 54.8676
4.41566, 7, -32.9243, -2.40646, 23.6735, -159.79, -92.4765, 54.8524
4.42386, 7, -32.8545, -2.46407, 23.7291, -159.77, -92.4677, 54.8352
4.43167, 7, -32.7852, -2.52311, 23.7863, -159.748, -92.457, 54.8177
4.43926, 7, -32.7167, -2.58376, 23.8446, -159.726, -92.4443, 54.8006
4.44772, 8, -32.6487, -2.64597, 23.9043, -159.703, -92.4296, 54.7838
4.45565, 8, -32.5815, -2.70988, 23.9651, -159.678, -92.4131, 54.767
4.46396, 8, -32.5149, -2.77552, 24.027, -159.651, -92.3948, 54.7495
4.47212, 8, -32.4491, -2.84271, 24.0899, -159.624, -92.3746, 54.7308
4.4792, 8, -32.3838, -2.91138, 24.1538, -159.596, -92.3532, 54.7108
4.48778, 9, -32.3192, -2.98139, 24.2186, -159.568, -92.3307, 54.6889
4.49575, 9, -32.2551, -3.05273, 24.2845, -159.538, -92.3071, 54.6652
4.50386, 9, -32.1916, -3.12539, 24.3514, -159.506, -92.2822, 54.6399
4.51254, 9, -32.1287, -3.19929, 24.4192, -159.474, -92.2555, 54.6133
4.52055, 9, -32.0663, -3.2745, 24.488, -159.442, -92.2271, 54.5855
4.5279, 10, -32.0044, -3.35099, 24.5578, -159.408, -92.1975, 54.5561
4.53649, 10, -31.9433, -3.42883, 24.6287, -159.373, -92.1668, 54.525
4.54401, 10, -31.8827, -3.50818, 24.7006, -159.337, -92.1348, 54.4918
4.55256, 10, -31.8225, -3.58892, 24.7737, -159.301, -92.1007, 54.4568
4.56111, 10, -31.763, -3.67108, 24.8476, -159.264, -92.0652, 54.4208
4.56875, 11, -31.704, -3.7547, 24.9226, -159.225, -92.0289, 54.3835
4.57679, 11, -31.6455, -3.83986, 24.9985, -159.185, -91.9915, 54.3445
4.58402, 11, -31.5877, -3.92646, 25.0753, -159.145, -91.9521, 54.3034
4.59325, 11, -31.5304, -4.01448, 25.1531, -159.104, -91.9112, 54.2609
4.60022, 11, -31.4735, -4.10404, 25.232, -159.061, -91.8695, 54.2173
4.60826, 11, -31.4172, -4.19507, 25.3119, -159.018, -91.8263, 54.1722
4.6171, 12, -31.3614, -4.28747, 25.3928, -158.975, -91.7809, 54.125
4.62271, 12, -31.3337, -4.33417, 25.4337, -158.952, -91.758, 54.1007
4.63301, 12, -31.2514, -4.47638, 25.558, -158.883, -91.6878, 54.0264
4.64059, 12, -31.1971, -4.57288, 25.6422, -158.836, -91.6383, 53.975
4.64762, 12, -31.1702, -4.62167, 25.6845, -158.812, -91.6134, 53.9485
4.65567, 13, -31.1167, -4.72028, 25.7701, -158.763, -91.563, 53.8942
4.66295, 13, -31.0636, -4.8203, 25.8565, -158.715, -91.5103, 53.8391
4.67429, 13, -30.9851, -4.97323, 25.9882, -158.639, -91.4296, 53.7531
4.67965, 13, -30.9592, -5.02496, 26.0327, -158.613, -91.402, 53.7235
4.68766, 13, -30.9077, -5.12946, 26.1224, -158.562, -91.3451, 53.6639
4.69569, 14, -30.8569, -5.23535, 26.2132, -158.508, -91.2879, 53.6027
4.70266, 14, -30.8067, -5.34282, 26.3051, -158.455, -91.2288, 53.5397
4.7118, 14, -30.7569, -5.45166, 26.3978, -158.401, -91.1683, 53.476
4.72098, 14, -30.7076, -5.56204, 26.5385, -158.316, -91.0755, 53.3772
4.72764, 14, -30.659, -5.67399, 26.5859, -158.288, -91.0434, 53.3434
4.73571, 15, -30.6107, -5.78736, 26.6817, -158.231, -90.9795, 53.2753
4.7437, 15, -30.5629, -5.90203, 26.7786, -158.172, -90.9132, 53.2055
4.75163, 15, -30.5157, -6.01791, 26.8767, -158.114, -90.8465, 53.134
4.76212, 15, -30.4456, -6.19452, 27.0256, -158.023, -90.743, 53.0246
4.76789, 15, -30.4226, -6.25407, 27.0756, -157.992, -90.7081, 52.9869
4.77462, 16, -30.3769, -6.3743, 27.1763, -157.93, -90.6368, 52.9115
4.7837, 16, -30.3318, -6.49615, 27.2782, -157.867, -90.5643, 52.834
4.79881, 16, -30.2649, -6.74402, 27.4854, -157.738, -90.4156, 52.6751
4.80024, 16, -30.2428, -6.74402, 27.4854, -157.738, -90.4156, 52.6751
4.80766, 16, -30.1991, -6.87024, 27.5907, -157.673, -90.3392, 52.5932
4.81559, 17, -30.1558, -6.99793, 27.6968, -157.606, -90.2615, 52.5108
4.82381, 17, -30.113, -7.12732, 27.8037, -157.539, -90.1823, 52.4263
4.83163, 17, -30.0708, -7.25824, 27.9115, -157.471, -90.102, 52.3412
4.83984, 17, -30.029, -7.3905, 28.0205, -157.402, -90.02, 52.2542
4.84865, 17, -29.9878, -7.52397, 28.1307, -157.331, -89.9372, 52.1661
4.85566, 18, -29.9471, -7.65894, 28.2422, -157.261, -89.8528, 52.0767
4.86376, 18, -29.9069, -7.79529, 28.3545, -157.189, -89.7669, 51.9861
4.87165, 18, -29.8672, -7.93319, 28.4676, -157.116, -89.6803, 51.8938
4.87963, 18, -29.8278, -8.07227, 28.5816, -157.042, -89.5921, 51.8003
4.8881, 18, -29.789, -8.21261, 28.6968, -156.968, -89.5029, 51.7052
4.89577, 19, -29.7507, -8.35433, 28.8132, -156.892, -89.4121, 51.6092
4.90371, 19, -29.7128, -8.49757, 28.9308, -156.816, -89.3204, 51.5118
4.91437, 19, -29.6753, -8.64242, 29.0493, -156.738, -89.2273, 51.4136
4.91979, 19, -29.6383, -8.78867, 29.1685, -156.66, -89.1328, 51.314
4.93371, 19, -29.5837, -9.0104, 29.3489, -156.541, -88.9894, 51.163
4.93581, 19, -29.5658, -9.08503, 29.4096, -156.501, -88.941, 51.1117
4.94372, 20, -29.5303, -9.23538, 29.5319, -156.421, -88.8434, 51.009
4.9517, 20, -29.4952, -9.38734, 29.6554, -156.339, -88.7449, 50.9046
4.95963, 20, -29.4606, -9.54054, 29.7797, -156.256, -88.6451, 50.7994
4.96783, 20, -29.4264, -9.69477, 29.9047, -156.173, -88.5442, 50.6927
4.9758, 20, -29.3927, -9.85031, 30.0308, -156.089, -88.4424, 50.5849
4.98384, 21, -29.3595, -10.0073, 30.1578, -156.003, -88.3391, 50.4762
4.99177, 21, -29.3266, -10.1659, 30.2861, -155.917, -88.2352, 50.3662
4.9998, 21, -29.2941, -10.3256, 30.4152, -155.83, -88.1301, 50.2555
5.00774, 21, -29.2622, -10.4861, 30.5452, -155.743, -88.0237, 50.1441
5.01633, 21, -29.2306, -10.648, 30.6761, -155.654, -87.9166, 50.0316
5.0238, 22, -29.1995, -10.8113, 30.8079, -155.564, -87.8085, 49.9183
5.03166, 22, -29.1686, -10.976, 30.9407, -155.474, -87.6992, 49.8041
5.04004, 22, -29.1383, -11.1415, 31.0744, -155.383, -87.5891, 49.6888
5.05267, 22, -29.0933, -11.3918, 31.2766, -155.244, -87.4217, 49.5145
5.05583, 22, -29.0786, -11.4761, 31.3446, -155.197, -87.3657, 49.4558
5.06389, 23, -29.0493, -11.6459, 31.4809, -155.103, -87.2527, 49.3383
5.07201, 23, -29.0203, -11.8167, 31.618, -155.009, -87.1386, 49.2199
5.07863, 23, -29.006, -11.9024, 31.6869, -154.961, -87.0814, 49.1605
5.08904, 23, -28.9636, -12.161, 31.8948, -154.817, -86.9082, 48.9815
5.09706, 23, -28.9359, -12.3352, 32.0345, -154.719, -86.7915, 48.8614
5.10257, 24, -28.9221, -12.4229, 32.1047, -154.67, -86.7328, 48.8012
5.11222, 24, -28.8813, -12.6867, 32.3166, -154.522, -86.5553, 48.6199
5.12059, 24, -28.8546, -12.8633, 32.4586, -154.422, -86.4361, 48.4978
5.12896, 24, -28.8283, -13.0415, 32.6014, -154.322, -86.3158, 48.3754
5.13624, 24, -28.8152, -13.2212, 32.7454, -154.22, -86.195, 48.2525
5.14425, 25, -28.7893, -13.3113, 32.8177, -154.169, -86.1344, 48.1292
5.15162, 25, -28.7637, -13.4917, 32.9626, -154.067, -86.0122, 48.0674
5.16026, 25, -28.7383, -13.6731, 33.1081, -153.963, -85.8897, 47.944
5.16915, 25, -28.7131, -13.856, 33.2542, -153.859, -85.7663, 47.8204
5.1777, 25, -28.6759, -14.1322, 33.4752, -153.701, -85.5799, 47.6345
5.18387, 26, -28.6636, -14.2244, 33.5492, -153.648, -85.5176, 47.5726
5.19161, 26, -28.6393, -14.4094, 33.6976, -153.541, -85.392, 47.4484
5.19861, 26, -28.6154, -14.5959, 33.8464, -153.434, -85.2664, 47.3241
5.20762, 26, -28.5917, -14.7836, 33.9961, -153.326, -85.1398, 47.1998
5.21575, 26, -28.568, -14.9715, 34.1466, -153.217, -85.0128, 47.0754
5.22382, 27, -28.5444, -15.1597, 34.2976, -153.107, -84.8853, 46.9515
5.23167, 27, -28.5213, -15.349, 34.4489, -152.997, -84.7571, 46.8279
5.23988, 27, -28.4984, -15.539, 34.6009, -152.886, -84.6287, 46.7045
5.24976, 27, -28.4755, -15.7292, 34.7537, -152.774, -84.4993, 46.5812
5.25561, 27, -28.453, -15.92, 34.9071, -152.662, -84.37, 46.4582
5.26364, 27, -28.4308, -16.1124, 35.0605, -152.549, -84.2401, 46.3355
5.27168, 28, -28.4084, -16.3059, 35.2143, -152.435, -84.1099, 46.2133
5.28065, 28, -28.3861, -16.4996, 35.369, -152.321, -83.9791, 46.0914
5.28873, 28, -28.3639, -16.6939, 35.5243, -152.205, -83.8482, 45.9702
5.29578, 28, -28.3419, -16.8894, 35.6798, -152.09, -83.7168, 45.8497
5.30361, 28, -28.3199, -17.0853, 35.8354, -151.973, -83.5853, 45.73
5.31239, 29, -28.2979, -17.2811, 35.9916, -151.856, -83.4535, 45.6114
5.31963, 29, -28.2762, -17.4772, 36.1484, -151.738, -83.3213, 45.4938
5.32767, 29, -28.2544, -17.6743, 36.3055, -151.62, -83.1889, 45.3768
5.33909, 29, -28.2217, -17.97, 36.5408, -151.442, -82.9896, 45.2033
5.34376, 29, -28.2109, -18.0686, 36.6196, -151.382, -82.9232, 45.1461
5.35158, 30, -28.1894, -18.2664, 36.7778, -151.262, -82.7899, 45.0324
5.35961, 30, -28.1678, -18.465, 36.9361, -151.141, -82.657, 44.9201
5.36784, 30, -28.1462, -18.6635, 37.0942, -151.02, -82.5235, 44.8089
5.37595, 30, -28.1246, -18.8621, 37.2523, -150.898, -82.3901, 44.6996
5.3836, 30, -28.1028, -19.0617, 37.4109, -150.776, -82.2564, 44.5918
5.39168, 31, -28.0809, -19.2619, 37.5699, -150.653, -82.1226, 44.4856
5.39963, 31, -28.059, -19.4619, 37.7286, -150.53, -81.989, 44.3811
5.40767, 31, -28.0373, -19.6618, 37.8872, -150.407, -81.8551, 44.2783
5.41592, 31, -28.0154, -19.8622, 38.0465, -150.283, -81.7217, 44.1776
5.42359, 31, -27.9934, -20.0626, 38.2062, -150.158, -81.5877, 44.0778
5.4316, 32, -27.9714, -20.2626, 38.3657, -150.032, -81.4539, 43.9802
5.4397, 32, -27.9493, -20.4631, 38.5248, -149.906, -81.32, 43.8839
5.44763, 32, -27.9269, -20.6643, 38.6843, -149.78, -81.1861, 43.79
5.4566, 32, -27.9044, -20.8656, 38.8445, -149.653, -81.052, 43.6975
5.46418, 32, -27.8818, -21.0664, 39.0044, -149.525, -80.918, 43.608
5.4722, 33, -27.8589, -21.2676, 39.1637, -149.397, -80.7841, 43.5203
5.47995, 33, -27.8359, -21.4688, 39.3233, -149.269, -80.6505, 43.4359
5.48985, 33, -27.8125, -21.6692, 39.4831, -149.14, -80.5171, 43.3539
5.49625, 33, -27.7887, -21.8692, 39.6422, -149.012, -80.384, 43.2755
5.50563, 33, -27.7644, -22.0693, 39.8003, -148.883, -80.2515, 43.1999
5.51194, 34, -27.7398, -22.2689, 39.958, -148.755, -80.1193, 43.1279
5.52016, 34, -27.7147, -22.4674, 40.1155, -148.626, -79.9878, 43.0598
5.5266, 34, -27.7019, -22.5663, 40.1941, -148.562, -79.922, 43.0266
5.5396, 34, -27.663, -22.8629, 40.4284, -148.37, -79.7255, 42.9033
5.54396, 34, -27.6364, -23.0599, 40.5838, -148.241, -79.5948, 42.8747
5.55175, 34, -27.6092, -23.2559, 40.7392, -148.113, -79.4644, 42.8198
5.56077, 35, -27.5818, -23.4518, 40.8943, -147.985, -79.3341, 42.7686
5.56815, 35, -27.5541, -23.648, 41.0485, -147.856, -79.2043, 42.7215
5.57676, 35, -27.5259, -23.8434, 41.2023, -147.727, -79.0747, 42.6777
5.58402, 35, -27.4975, -24.038, 41.356, -147.597, -78.945, 42.637
5.592, 35, -27.4686, -24.2325, 41.5097, -147.468, -78.8157, 42.5998
5.59865, 36, -27.4539, -24.3297, 41.5863, -147.403, -78.7509, 42.5828
5.60849, 36, -27.4095, -24.6201, 41.8152, -147.208, -78.5576, 42.5383
5.61646, 36, -27.3794, -24.8127, 41.9673, -147.078, -78.4289, 42.514
5.6252, 36, -27.3487, -25.0054, 42.1191, -146.947, -78.3008, 42.4938
5.63221, 36, -27.3173, -25.1977, 42.2701, -146.817, -78.1731, 42.478
5.64022, 37, -27.3013, -25.2934, 42.42, -146.686, -78.0456, 42.4667
5.64826, 37, -27.2688, -25.4841, 42.5692, -146.557, -77.9187, 42.46
5.65561, 37, -27.2356, -25.6742, 42.6436, -146.492, -77.8552, 42.4581
5.66613, 37, -27.1843, -25.9579, 42.8654, -146.298, -77.6656, 42.4571
5.67247, 37, -27.1667, -26.0517, 42.9388, -146.233, -77.6025, 42.4627
5.67956, 38, -27.1309, -26.238, 43.0847, -146.105, -77.4768, 42.4681
5.6876, 38, -27.0944, -26.4234, 43.2295, -145.977, -77.3518, 42.4825
5.69776, 38, -27.0381, -26.7, 43.4452, -145.786, -77.1651, 42.5143
5.70381, 38, -27.0189, -26.7914, 43.5166, -145.722, -77.1032, 42.5277
5.71167, 38, -26.9799, -26.9733, 43.6585, -145.595, -76.9796, 42.5588
5.71956, 39, -26.9402, -27.1546, 43.7994, -145.469, -76.8567, 42.5961
5.72766, 39, -26.8997, -27.3354, 43.9394, -145.343, -76.734, 42.6396
5.73566, 39, -26.8584, -27.5149, 44.0786, -145.217, -76.6114, 42.6885
5.74374, 39, -26.8161, -27.6932, 44.2171, -145.091, -76.4891, 42.743
5.75166, 39, -26.7732, -27.8711, 44.3546, -144.966, -76.3666, 42.8041
5.75956, 40, -26.7294, -28.0485, 44.491, -144.84, -76.2444, 42.8713
5.7676, 40, -26.6846, -28.2244, 44.6265, -144.715, -76.122, 42.9442
5.77713, 40, -26.6387, -28.3987, 44.7609, -144.591, -76.0003, 43.0246
5.78361, 40, -26.592, -28.5718, 44.8939, -144.467, -75.8788, 43.11
5.79341, 40, -26.5442, -28.7439, 45.0255, -144.345, -75.7576, 43.2031
5.79988, 41, -26.4951, -28.9141, 45.1557, -144.223, -75.6372, 43.3021
5.8076, 41, -26.4448, -29.0822, 45.2843, -144.102, -75.5169, 43.4084
5.81674, 41, -26.3934, -29.2487, 45.4113, -143.982, -75.3975, 43.5208
5.82856, 41, -26.3137, -29.4963, 45.5989, -143.805, -75.2189, 43.7028
5.83155, 41, -26.2865, -29.578, 45.6606, -143.747, -75.1598, 43.767
5.84053, 41, -26.231, -29.7398, 45.7827, -143.631, -75.0421, 43.9007
5.84761, 42, -26.1742, -29.8999, 45.903, -143.516, -74.9244, 44.042
5.85559, 42, -26.116, -30.0584, 46.0216, -143.403, -74.8074, 44.1904
5.86689, 42, -26.0258, -30.2929, 46.1962, -143.235, -74.6325, 44.4266
5.8716, 42, -25.9951, -30.37, 46.2535, -143.18, -74.5745, 44.509
5.87968, 42, -25.9326, -30.5224, 46.3668, -143.071, -74.4588, 44.6793
5.8876, 43, -25.8684, -30.6727, 46.4779, -142.964, -74.3433, 44.8574
5.89581, 43, -25.8027, -30.8212, 46.587, -142.858, -74.2283, 45.0436
5.90367, 43, -25.7353, -30.9675, 46.6941, -142.755, -74.1137, 45.2374
5.9116, 43, -25.6662, -31.1114, 46.7991, -142.653, -73.9995, 45.4389
5.91974, 43, -25.5956, -31.2529, 46.9021, -142.553, -73.886, 45.6479
5.92767, 44, -25.5231, -31.3922, 47.0029, -142.456, -73.7728, 45.8647
5.93559, 44, -25.4486, -31.5292, 47.1012, -142.361, -73.6602, 46.0894
5.94384, 44, -25.3723, -31.6638, 47.1969, -142.268, -73.548, 46.3221
5.95497, 44, -25.2941, -31.8605, 47.3359, -142.133, -73.3806, 46.6866
5.95968, 44, -25.214, -31.9247, 47.3811, -142.089, -73.3252, 46.8122
5.96769, 45, -25.132, -32.0511, 47.4695, -142.004, -73.2146, 47.0696
5.97563, 45, -25.0481, -32.1746, 47.5554, -141.922, -73.1048, 47.3356
5.98379, 45, -24.9621, -32.2954, 47.6386, -141.843, -72.9957, 47.6097
5.99211, 45, -24.874, -32.4132, 47.7186, -141.766, -72.8871, 47.892
6.00054, 45, -24.7837, -32.5279, 47.7957, -141.693, -72.7796, 48.1826
6.00785, 46, -24.691, -32.6393, 47.8698, -141.623, -72.6729, 48.4821
6.01618, 46, -24.5961, -32.7475, 47.941, -141.556, -72.5667, 48.79
6.02359, 46, -24.4987, -32.8524, 48.0092, -141.493, -72.4616, 49.1061
6.0323, 46, -24.3992, -32.9537, 48.0742, -141.435, -72.3573, 49.4311
6.04106, 46, -24.2973, -33.0513, 48.1359, -141.379, -72.2539, 49.7648
6.0495, 47, -24.1931, -33.1453, 48.1941, -141.327, -72.1517, 50.1063
6.0566, 47, -24.0864, -33.2351, 48.2487, -141.28, -72.0504, 50.4562
6.06381, 47, -23.9771, -33.3208, 48.2997, -141.236, -71.9503, 50.8145
6.0727, 47, -23.8652, -33.4024, 48.3468, -141.198, -71.8513, 51.1811
6.07989, 47, -23.7504, -33.4798, 48.3902, -141.164, -71.7533, 51.5562
6.08844, 48, -23.6328, -33.5527, 48.4295, -141.135, -71.6566, 51.9396
6.09773, 48, -23.5126, -33.6212, 48.4648, -141.11, -71.5617, 52.3308
6.10406, 48, -23.3897, -33.685, 48.4959, -141.089, -71.4681, 52.7307
6.11058, 48, -23.3274, -33.7151, 48.5099, -141.081, -71.4218, 52.9339
6.12054, 48, -23.1365, -33.798, 48.5458, -141.064, -71.2866, 53.5556
6.12822, 48, -23.0056, -33.8468, 48.5642, -141.059, -71.1987, 53.9807
6.13702, 49, -22.872, -33.8904, 48.5782, -141.058, -71.1125, 54.4133
6.14264, 49, -22.804, -33.9102, 48.5835, -141.059, -71.0704, 54.6324
6.15305, 49, -22.6659, -33.9456, 48.5906, -141.067, -70.9468, 55.3022
6.1596, 49, -22.525, -33.9754, 48.5931, -141.08, -70.9069, 55.5292
6.16853, 49, -22.3813, -33.9995, 48.5911, -141.113, -70.7902, 56.2233
6.17712, 50, -22.2348, -34.0174, 48.584, -141.127, -70.753, 56.4584
6.18362, 50, -22.0858, -34.0293, 48.5717, -141.159, -70.68, 56.9347
6.1916, 50, -21.9339, -34.0349, 48.5542, -141.197, -70.6108, 57.4202
6.19965, 50, -21.7792, -34.0347, 48.5314, -141.241, -70.5441, 57.9134
6.20767, 50, -21.6212, -34.0281, 48.503, -141.292, -70.4814, 58.4145
6.21583, 51, -21.4603, -34.0148, 48.4692, -141.349, -70.4222, 58.9213
6.225, 51, -21.2967, -33.9947, 48.4087, -141.446, -70.3396, 59.6923
6.23065, 51, -21.1305, -33.9678, 48.3857, -141.482, -70.3141, 59.9518
6.24379, 51, -20.8766, -33.9141, 48.3088, -141.597, -70.242, 60.7382
6.2478, 51, -20.7908, -33.8926, 48.2803, -141.639, -70.22, 61.0025
6.25556, 52, -20.617, -33.8437, 48.219, -141.726, -70.1797, 61.5353
6.26367, 52, -20.4405, -33.7868, 48.1517, -141.82, -70.144, 62.0752
6.27175, 52, -20.2611, -33.722, 48.0783, -141.921, -70.1124, 62.6221
6.27956, 52, -20.0788, -33.6488, 47.9985, -142.028, -70.0859, 63.1763
6.2886, 52, -19.894, -33.5671, 47.9121, -142.142, -70.065, 63.7373
6.29558, 53, -19.7066, -33.4767, 47.819, -142.262, -70.0497, 64.3058
6.30358, 53, -19.5172, -33.3776, 47.7196, -142.389, -70.0402, 64.8808
6.31165, 53, -19.3256, -33.2701, 47.6138, -142.522, -70.036, 65.4608
6.32257, 53, -19.0345, -33.0933, 47.4437, -142.732, -70.0396, 66.3387
6.32787, 53, -18.9366, -33.03, 47.384, -142.805, -70.0437, 66.6333
6.33858, 54, -18.6401, -32.8276, 47.1956, -143.031, -70.0658, 67.52
6.3436, 54, -18.5403, -32.7559, 47.1299, -143.108, -70.0764, 67.8158
6.35176, 54, -18.3393, -32.6063, 46.9944, -143.267, -70.1028, 68.4084
6.36057, 54, -18.1365, -32.4487, 46.8535, -143.43, -70.1357, 69.0024
6.36764, 54, -17.9324, -32.2821, 46.7069, -143.598, -70.1744, 69.5978
6.37583, 55, -17.7273, -32.1065, 46.5543, -143.77, -70.2203, 70.1944
6.38442, 55, -17.5213, -31.9215, 46.3955, -143.946, -70.2748, 70.7946
6.39158, 55, -17.3137, -31.7274, 46.2306, -144.128, -70.336, 71.3992
6.39971, 55, -17.1046, -31.524, 46.0587, -144.315, -70.4066, 72.0079
6.40763, 55, -16.8938, -31.3102, 45.8792, -144.506, -70.4852, 72.6208
6.4158, 56, -16.6814, -31.0861, 45.6929, -144.703, -70.5731, 73.2382
6.42383, 56, -16.4676, -30.8523, 45.5003, -144.903, -70.6697, 73.8592
6.43178, 56, -16.2529, -30.6077, 45.3005, -145.107, -70.7749, 74.4818
6.43959, 56, -16.038, -30.3526, 45.0934, -145.315, -70.8895, 75.1061
6.44781, 56, -15.8235, -30.0876, 44.8808, -145.526, -71.0126, 75.732
6.45777, 57, -15.6087, -29.8118, 44.662, -145.739, -71.1451, 76.3584
6.46376, 57, -15.3929, -29.5259, 44.4358, -145.955, -71.2868, 76.9848
6.47183, 57, -15.176, -29.23, 44.2036, -146.174, -71.4383, 77.6126
6.47964, 57, -14.9585, -28.9239, 43.965, -146.394, -71.5996, 78.2414
6.48775, 57, -14.741, -28.6093, 43.7199, -146.617, -71.7708, 78.8693
6.49781, 58, -14.5239, -28.2861, 43.4703, -146.84, -71.9513, 79.4962
6.50375, 58, -14.3076, -27.9557, 43.2157, -147.063, -72.1401, 80.1206
6.51171, 58, -14.0925, -27.617, 42.9574, -147.286, -72.3368, 80.7406
6.51972, 58, -13.8788, -27.271, 42.6962, -147.507, -72.5408, 81.3539
6.528, 58, -13.6665, -26.9177, 42.4317, -147.726, -72.752, 81.9616
6.53558, 58, -13.4554, -26.5579, 42.1648, -147.943, -72.9699, 82.5631
6.54362, 59, -13.2458, -26.1908, 41.894, -148.158, -73.1949, 83.1585
6.55172, 59, -13.0381, -25.8171, 41.6199, -148.371, -73.4274, 83.7485
6.55966, 59, -12.832, -25.4365, 41.3425, -148.583, -73.6681, 84.3351
6.56787, 59, -12.627, -25.0491, 41.0608, -148.793, -73.9169, 84.9179
6.57633, 59, -12.423, -24.6537, 40.7755, -149.001, -74.1747, 85.4967
6.58883, 60, -12.1191, -24.0463, 40.3388, -149.31, -74.578, 86.3588
6.59203, 60, -12.0185, -23.8403, 40.1914, -149.412, -74.7168, 86.6447
6.59858, 60, -11.9182, -23.6327, 40.0431, -149.514, -74.8579, 86.9298
6.6089, 60, -11.6196, -22.9997, 39.5935, -149.814, -75.2938, 87.7781
6.6161, 60, -11.4233, -22.5712, 39.291, -150.011, -75.5938, 88.3372
6.62472, 61, -11.2294, -22.1386, 38.9869, -150.204, -75.9004, 88.8902
6.63297, 61, -11.0377, -21.7019, 38.682, -150.393, -76.2123, 89.4352
6.64014, 61, -10.9426, -21.2614, 38.3764, -150.577, -76.5286, 89.9707
6.64917, 61, -10.6609, -20.8174, 38.0714, -150.755, -76.8493, 90.4967
6.65706, 61, -10.5682, -20.3697, 37.766, -150.929, -77.1738, 91.0136
6.66359, 61, -10.3846, -20.1446, 37.6137, -151.013, -77.3376, 91.2685
6.67157, 62, -10.2037, -19.692, 37.3087, -151.179, -77.6688, 91.7724
6.67963, 62, -10.0256, -19.2369, 37.0033, -151.341, -78.005, 92.2676
6.6876, 62, -9.85003, -18.7787, 36.6973, -151.497, -78.3467, 92.7561
6.69694, 62, -9.59146, -18.0872, 36.2366, -151.725, -78.8696, 93.4753
6.70537, 62, -9.50633, -17.624, 35.9292, -151.87, -79.2246, 93.9456
6.71156, 63, -9.33767, -17.3915, 35.7756, -151.941, -79.4041, 94.1774
6.72236, 63, -9.08885, -16.6918, 35.3165, -152.147, -79.9478, 94.8583
6.72761, 63, -9.00721, -16.4577, 35.1639, -152.212, -80.1308, 95.0807
6.73561, 63, -8.84586, -15.9885, 34.8601, -152.34, -80.4986, 95.5172
6.74356, 63, -8.68717, -15.5179, 34.5575, -152.462, -80.8686, 95.9431
6.75179, 64, -8.53117, -15.0463, 34.2576, -152.578, -81.2404, 96.3579
6.75958, 64, -8.37777, -14.5745, 33.9597, -152.689, -81.6138, 96.7608
6.76761, 64, -8.22693, -14.1025, 33.6634, -152.794, -81.989, 97.1529
6.7757, 64, -8.07854, -13.6312, 33.3692, -152.894, -82.3657, 97.5335
6.78592, 64, -7.86066, -12.9267, 32.9314, -153.033, -82.9338, 98.0817
6.79161, 65, -7.78936, -12.6928, 32.7868, -153.077, -83.1237, 98.2584
6.80137, 65, -7.64885, -12.2263, 32.4995, -153.16, -83.5039, 98.6021
6.80838, 65, -7.51127, -11.7617, 32.2162, -153.237, -83.8851, 98.9323
6.81556, 65, -7.37667, -11.2983, 31.9359, -153.308, -84.2661, 99.2491
6.82465, 65, -7.24482, -10.8363, 31.659, -153.374, -84.6476, 99.5525
6.83156, 66, -7.11573, -10.3766, 31.3859, -153.433, -85.0289, 99.8416
6.83958, 66, -6.98878, -9.91968, 31.1155, -153.488, -85.41, 100.116
6.84759, 66, -6.86386, -9.46652, 30.8492, -153.537, -85.7914, 100.375
6.85558, 66, -6.74107, -9.01795, 30.5861, -153.58, -86.1717, 100.619
6.86363, 66, -6.62043, -8.57505, 30.3269, -153.618, -86.5506, 100.847
6.87156, 67, -6.50235, -8.13723, 30.0727, -153.651, -86.9265, 101.058
6.87973, 67, -6.38689, -7.7051, 29.8236, -153.678, -87.2988, 101.251
6.88763, 67, -6.27439, -7.27855, 29.5811, -153.699, -87.6665, 101.426
6.89556, 67, -6.16452, -6.85668, 29.3453, -153.714, -88.0291, 101.584
6.90384, 67, -6.05718, -6.44051, 29.1153, -153.724, -88.3867, 101.724
6.9116, 68, -5.95205, -6.02981, 28.8915, -153.729, -88.7401, 101.847
6.91959, 68, -5.84883, -5.62525, 28.6728, -153.73, -89.0904, 101.952
6.92757, 68, -5.74733, -5.22631, 28.4576, -153.727, -89.4386, 102.039
6.93565, 68, -5.64753, -4.83382, 28.2466, -153.718, -89.7855, 102.108
6.94356, 68, -5.54935, -4.4475, 28.0392, -153.705, -90.1312, 102.158
6.9519, 69, -5.45294, -4.06701, 27.8352, -153.688, -90.4749, 102.19
6.95988, 69, -5.35844, -3.6912, 27.6362, -153.667, -90.8165, 102.205
6.96756, 69, -5.26587, -3.32007, 27.4425, -153.64, -91.1549, 102.202
6.97914, 69, -5.13058, -2.7715, 27.16, -153.592, -91.6558, 102.159
6.98389, 69, -5.08633, -2.59061, 27.0682, -153.574, -91.821, 102.135
6.99185, 69, -4.99917, -2.23123, 26.8882, -153.536, -92.1495, 102.07
6.99994, 70, -4.91325, -1.87624, 26.7121, -153.494, -92.4759, 101.984
7.00768, 70, -4.82837, -1.52616, 26.539, -153.448, -92.8015, 101.877
7.01577, 70, -4.74444, -1.18192, 26.3694, -153.399, -93.1268, 101.746
7.02375, 70, -4.66154, -0.842394, 26.2034, -153.347, -93.4519, 101.594
7.03182, 70, -4.5797, -0.508728, 26.0403, -153.291, -93.7762, 101.418
7.03972, 71, -4.49885, -0.180425, 25.8804, -153.233, -94.099, 101.221
7.0476, 71, -4.41898, 0.141996, 25.7254, -153.172, -94.4196, 101.002
7.05573, 71, -4.34006, 0.459157, 25.5756, -153.109, -94.7366, 100.762
7.06372, 71, -4.26206, 0.771305, 25.4306, -153.043, -95.0503, 100.5
7.07184, 71, -4.18496, 1.07717, 25.2902, -152.976, -95.36, 100.219
7.08018, 72, -4.10838, 1.37697, 25.154, -152.907, -95.6663, 99.9179
7.08883, 72, -4.03204, 1.6695, 25.0218, -152.836, -95.9693, 99.5957
7.09594, 72, -3.95584, 1.95543, 24.8929, -152.764, -96.2699, 99.2527
7.10497, 72, -3.87965, 2.23503, 24.7672, -152.691, -96.5679, 98.889
7.11352, 72, -3.80341, 2.50746, 24.6447, -152.618, -96.8631, 98.5039
7.12019, 73, -3.72727, 2.7736, 24.5255, -152.544, -97.1553, 98.0977
7.12819, 73, -3.65106, 3.03302, 24.41, -152.471, -97.4439, 97.6713
7.13613, 73, -3.57473, 3.28529, 24.2984, -152.397, -97.7289, 97.2238
7.14415, 73, -3.5365, 3.40911, 24.191, -152.324, -98.0097, 96.7574
7.15224, 73, -3.45983, 3.6519, 24.0878, -152.253, -98.2861, 96.2721
7.16042, 74, -3.38274, 3.88672, 23.9887, -152.182, -98.5581, 95.7681
7.16753, 74, -3.30487, 4.11315, 23.9406, -152.147, -98.6923, 95.5097
7.17561, 74, -3.22636, 4.33141, 23.8472, -152.078, -98.9569, 94.9803
7.18374, 74, -3.14709, 4.54045, 23.7577, -152.011, -99.2161, 94.4365
7.19315, 74, -3.0672, 4.8358, 23.6308, -151.915, -99.5939, 93.5946
7.19955, 75, -2.98644, 4.92971, 23.5906, -151.884, -99.7164, 93.308
7.20979, 75, -2.86359, 5.1971, 23.476, -151.796, -100.072, 92.4326
7.21784, 75, -2.7804, 5.36212, 23.4045, -151.741, -100.298, 91.8382
7.22355, 75, -2.73842, 5.44078, 23.3702, -151.714, -100.408, 91.5377
7.23155, 75, -2.65378, 5.59031, 23.3047, -151.664, -100.621, 90.9316
7.23987, 76, -2.56825, 5.72889, 23.2432, -151.617, -100.824, 90.3181
7.24757, 76, -2.48168, 5.85612, 23.1861, -151.573, -101.018, 89.6975
7.25555, 76, -2.39414, 5.97178, 23.1335, -151.534, -101.203, 89.0685
7.26355, 76, -2.30591, 6.07539, 23.0852, -151.498, -101.378, 88.4315
7.27162, 76, -2.21683, 6.1666, 23.0414, -151.466, -101.542, 87.7885
7.27978, 77, -2.12693, 6.24506, 23.0024, -151.438, -101.696, 87.1396
7.2877, 77, -2.03616, 6.31041, 22.9684, -151.414, -101.838, 86.4868
7.29559, 77, -1.9444, 6.36249, 22.9399, -151.394, -101.966, 85.834
7.3046, 77, -1.8518, 6.40062, 22.917, -151.379, -102.081, 85.1829
7.31171, 77, -1.75844, 6.42444, 22.8999, -151.367, -102.181, 84.5335
7.3196, 77, -1.66424, 6.43397, 22.8888, -151.359, -102.267, 83.8877
7.32766, 78, -1.56931, 6.42862, 22.8834, -151.354, -102.336, 83.2466
7.33647, 78, -1.4737, 6.40793, 22.8835, -151.352, -102.391, 82.6086
7.34354, 78, -1.37755, 6.37186, 22.8896, -151.353, -102.429, 81.9746
7.35156, 78, -1.28097, 6.31965, 22.9018, -151.358, -102.452, 81.3458
7.36055, 78, -1.18416, 6.25113, 22.9206, -151.367, -102.459, 80.7228
7.36769, 79, -1.08716, 6.16619, 22.9462, -151.379, -102.449, 80.1054
7.37555, 79, -0.989961, 6.06494, 22.9791, -151.393, -102.421, 79.4953
7.38688, 79, -0.892795, 5.94741, 23.0425, -151.421, -102.346, 78.5971
7.39156, 79, -0.795756, 5.81353, 23.0674, -151.432, -102.312, 78.302
7.39962, 79, -0.698709, 5.66307, 23.123, -151.456, -102.23, 77.7196
7.40759, 80, -0.601582, 5.49623, 23.1861, -151.481, -102.13, 77.1481
7.41557, 80, -0.504529, 5.31306, 23.2568, -151.509, -102.012, 76.5888
7.42361, 80, -0.407492, 5.11353, 23.3355, -151.537, -101.875, 76.0405
7.43155, 80, -0.310554, 4.897, 23.4222, -151.567, -101.72, 75.5034
7.43972, 80, -0.213716, 4.66235, 23.5171, -151.599, -101.546, 74.9771
7.44759, 81, -0.117, 4.41034, 23.6206, -151.632, -101.353, 74.4617
7.45556, 81, -0.0206303, 4.14199, 23.7329, -151.666, -101.141, 73.956
7.46378, 81, 0.075513, 3.85677, 23.8542, -151.7, -100.911, 73.4595
7.47254, 81, 0.171467, 3.55543, 23.985, -151.736, -100.661, 72.9722
7.47966, 81, 0.267164, 3.23685, 24.1256, -151.773, -100.392, 72.4942
7.48798, 82, 0.362646, 2.90134, 24.2759, -151.81, -100.105, 72.0259
7.49589, 82, 0.458012, 2.54932, 24.4355, -151.847, -99.7984, 71.5665
7.50371, 82, 0.553079, 2.18123, 24.6043, -151.884, -99.4728, 71.1168
7.51201, 82, 0.647941, 1.79698, 24.7826, -151.921, -99.1296, 70.6766
7.51966, 82, 0.742763, 1.39605, 24.9705, -151.957, -98.7686, 70.2462
7.52773, 83, 0.837479, 0.978605, 25.1674, -151.993, -98.3906, 69.8262
7.54396, 83, 1.0269, 0.0992002, 25.5918, -152.063, -97.5849, 69.0146
7.54581, 83, 1.0269, 0.0992002, 25.5918, -152.063, -97.5849, 69.0146
7.55266, 83, 1.1218, -0.363089, 25.8186, -152.095, -97.158, 68.6232
7.55962, 83, 1.21681, -0.839943, 26.0546, -152.126, -96.7151, 68.2406
7.56769, 83, 1.31195, -1.33152, 26.3012, -152.157, -96.2565, 67.8674
7.57636, 84, 1.4073, -1.83688, 26.5576, -152.186, -95.782, 67.5023
7.58383, 84, 1.50282, -2.35553, 26.8247, -152.214, -95.2923, 67.1446
7.59285, 84, 1.5987, -2.88811, 27.102, -152.24, -94.7865, 66.7947
7.60059, 84, 1.69493, -3.43429, 27.3895, -152.264, -94.2657, 66.4518
7.60799, 84, 1.79156, -3.99371, 27.6877, -152.287, -93.7302, 66.1161
7.619, 85, 1.8884, -4.56578, 27.9955, -152.308, -93.1798, 65.7882
7.62517, 85, 1.98561, -5.14886, 28.3133, -152.327, -92.6149, 65.4687
7.63299, 85, 2.08325, -5.74219, 28.64, -152.344, -92.0382, 65.1571
7.64033, 85, 2.18134, -6.34449, 28.9757, -152.358, -91.4517, 64.8542
7.64839, 85, 2.28003, -6.9543, 29.3195, -152.37, -90.855, 64.5608
7.66034, 86, 2.3795, -7.57136, 29.6714, -152.381, -89.9419, 64.1394
7.6635, 86, 2.42957, -7.88223, 29.85, -152.381, -89.9419, 64.1394
7.67154, 86, 2.53043, -8.5084, 30.2124, -152.385, -89.3225, 63.8716
7.67958, 86, 2.63211, -9.14039, 30.5803, -152.387, -88.6967, 63.6152
7.68754, 86, 2.73461, -9.777, 30.9538, -152.386, -88.0671, 63.3702
7.69835, 87, 2.89071, -10.7396, 31.5242, -152.378, -87.1124, 63.0246
7.70368, 87, 2.94308, -11.062, 31.7169, -152.373, -86.7912, 62.9154
7.71151, 87, 3.04853, -11.7093, 32.1059, -152.362, -86.1451, 62.706
7.71954, 87, 3.15496, -12.3588, 32.4992, -152.346, -85.4943, 62.5091
7.7277, 87, 3.26191, -13.0104, 32.8979, -152.326, -84.84, 62.3251
7.7386, 88, 3.42382, -13.993, 33.5054, -152.289, -83.849, 62.073
7.74358, 88, 3.47812, -14.3219, 33.7101, -152.275, -83.5162, 61.9957
7.75281, 88, 3.58701, -14.9807, 34.1233, -152.244, -82.8473, 61.8512
7.76333, 88, 3.6965, -15.6399, 34.541, -152.208, -81.8355, 61.6611
7.7675, 88, 3.80639, -16.2988, 34.9629, -152.167, -81.4971, 61.6054
7.77557, 89, 3.9166, -16.9562, 35.3884, -152.122, -80.8191, 61.5055
7.78539, 89, 4.02713, -17.6112, 35.8158, -152.072, -79.8012, 61.389
7.79154, 89, 4.13798, -18.2631, 36.2445, -152.016, -79.4616, 61.359
7.80652, 89, 4.3608, -19.5566, 37.1022, -151.891, -78.1054, 61.288
7.80853, 89, 4.3608, -19.5566, 37.1022, -151.891, -78.1054, 61.288
7.81783, 90, 4.52862, -20.515, 37.7429, -151.783, -77.0982, 61.287
7.8236, 90, 4.58486, -20.8324, 37.9562, -151.744, -76.7632, 61.2983
7.8316, 90, 4.69756, -21.4638, 38.3826, -151.662, -76.094, 61.3383
7.83953, 90, 4.81001, -22.0911, 38.8089, -151.574, -75.426, 61.4016
7.8476, 90, 4.92219, -22.7142, 39.2348, -151.481, -74.7603, 61.4895
7.85789, 90, 5.03396, -23.3342, 39.6614, -151.381, -73.7642, 61.6712
7.86371, 91, 5.14547, -23.9509, 40.0883, -151.274, -73.4317, 61.7456
7.87406, 91, 5.31196, -24.8679, 40.729, -151.102, -72.4331, 62.0122
7.87954, 91, 5.36714, -25.1712, 40.9425, -151.041, -72.0998, 62.1159
7.88753, 91, 5.4769, -25.7731, 41.3686, -150.914, -71.4328, 62.3462
7.8956, 91, 5.58614, -26.3678, 41.7934, -150.78, -70.7675, 62.6074
7.90354, 92, 5.69522, -26.9549, 42.2165, -150.64, -70.1041, 62.9007
7.91164, 92, 5.80473, -27.5331, 42.6357, -150.494, -69.4437, 63.2251
7.91955, 92, 5.9149, -28.102, 43.0496, -150.344, -68.7868, 63.5807
7.92755, 92, 6.02571, -28.6607, 43.458, -150.189, -68.134, 63.9679
7.94066, 93, 6.19413, -29.4769, 44.0579, -149.95, -67.1681, 64.6066
7.94354, 93, 6.25098, -29.7429, 44.2541, -149.87, -66.8498, 64.8353
7.9516, 93, 6.36618, -30.2664, 44.641, -149.707, -66.2173, 65.316
7.95968, 93, 6.48367, -30.7792, 45.0215, -149.544, -65.5897, 65.8273
7.96753, 93, 6.60337, -31.2837, 45.3959, -149.38, -64.9661, 66.3721
7.9756, 93, 6.72537, -31.782, 45.7651, -149.216, -64.3447, 66.953
7.98382, 94, 6.84963, -32.2753, 46.131, -149.052, -63.723, 67.5748
7.99161, 94, 6.97604, -32.7633, 46.494, -148.887, -63.0967, 68.2423
7.99973, 94, 7.10431, -33.2458, 46.8559, -148.721, -62.4639, 68.9623
8.00767, 94, 7.2344, -33.7207, 47.216, -148.557, -61.8247, 69.7343
8.01598, 94, 7.36739, -34.1885, 47.5734, -148.395, -61.1792, 70.5575
8.02367, 95, 7.50418, -34.6486, 47.9246, -148.24, -60.5313, 71.4352
8.03165, 95, 7.64586, -35.0986, 48.2678, -148.093, -59.886, 72.3584
8.03958, 95, 7.79353, -35.5381, 48.6003, -147.958, -59.2454, 73.3221
8.0483, 95, 7.94776, -35.9649, 48.9208, -147.837, -58.6113, 74.3258
8.05556, 95, 8.10895, -36.3743, 49.2263, -147.732, -57.9852, 75.3628
8.06474, 96, 8.27703, -36.764, 49.5164, -147.646, -57.3686, 76.4346
8.07173, 96, 8.45201, -37.1325, 49.79, -147.578, -56.7657, 77.537
8.07979, 96, 8.63297, -37.4783, 50.047, -147.531, -56.1763, 78.6701
8.08782, 96, 8.81894, -37.7995, 50.2868, -147.504, -55.6012, 79.8264
8.09587, 96, 9.00957, -38.0948, 50.5072, -147.497, -55.0432, 81.0006
8.10479, 96, 9.20353, -38.3655, 50.7083, -147.512, -54.5052, 82.1866
8.11201, 97, 9.39917, -38.6109, 50.8901, -147.548, -53.9901, 83.3823
8.12017, 97, 9.59534, -38.8311, 51.0511, -147.606, -53.5003, 84.5816
8.12808, 97, 9.791, -39.0271, 51.1919, -147.684, -53.0373, 85.7745
8.13619, 97, 9.98542, -39.1984, 51.3132, -147.779, -52.6033, 86.9542
8.14427, 97, 10.1775, -39.3436, 51.4149, -147.889, -52.1987, 88.1146
8.15209, 97, 10.2722, -39.4066, 51.4586, -148.012, -51.8244, 89.2509
8.16009, 97, 10.4591, -39.5137, 51.5322, -148.078, -51.6486, 90.3556
8.16823, 98, 10.6431, -39.5958, 51.5876, -148.218, -51.3193, 90.8961
8.17555, 98, 10.8251, -39.6545, 51.6255, -148.368, -51.019, 91.9588
8.18353, 98, 11.0056, -39.6904, 51.6458, -148.529, -50.7446, 93.0044
8.1916, 98, 11.1843, -39.7029, 51.649, -148.701, -50.493, 94.0478
8.19958, 98, 11.3607, -39.692, 51.6354, -148.886, -50.2617, 95.0976
8.20873, 98, 11.6249, -39.6309, 51.5814, -149.188, -49.9518, 96.7059
8.21548, 99, 11.7127, -39.5987, 51.5545, -149.296, -49.8588, 97.2509
8.22352, 99, 11.8873, -39.5172, 51.4869, -149.519, -49.6902, 98.3541
8.23158, 99, 12.0593, -39.4131, 51.4007, -149.752, -49.5471, 99.4643
8.23953, 99, 12.2281, -39.2864, 51.2962, -149.992, -49.4323, 100.574
8.24757, 99, 12.3924, -39.1374, 51.1738, -150.235, -49.3483, 101.67
8.25808, 99, 12.6262, -38.8727, 50.9595, -150.599, -49.2796, 103.271
8.26355, 100, 12.7001, -38.7728, 50.8804, -150.719, -49.2722, 103.79
8.27151, 100, 12.8415, -38.5543, 50.71, -150.956, -49.2807, 104.807
8.27954, 100, 12.974, -38.3122, 50.5226, -151.188, -49.3211, 105.794
8.28852, 100, 13.0977, -38.0472, 50.3186, -151.413, -49.3918, 106.755
8.29552, 100, 13.2133, -37.7602, 50.0974, -151.633, -49.4943, 107.694
8.30455, 100, 13.3208, -37.4511, 49.8574, -151.847, -49.6278, 108.612
8.31148, 101, 13.4203, -37.1175, 49.5992, -152.054, -49.7924, 109.511
8.31953, 101, 13.5118, -36.759, 49.3234, -152.254, -49.9879, 110.388
8.32759, 101, 13.5956, -36.3736, 49.0293, -152.445, -50.2145, 111.246
8.33553, 101, 13.6713, -35.962, 48.7171, -152.627, -50.4722, 112.084
8.34352, 101, 13.7387, -35.5258, 48.3859, -152.8, -50.7617, 112.897
8.35158, 101, 13.7973, -35.0659, 48.0371, -152.962, -51.0838, 113.691
8.36596, 102, 13.8681, -34.3326, 47.481, -153.182, -51.6291, 115.203
8.36756, 102, 13.8868, -34.0761, 47.2869, -153.249, -51.8274, 115.203
8.37552, 102, 13.9169, -33.5441, 46.8867, -153.374, -52.248, 115.923
8.38358, 102, 13.9374, -32.9885, 46.4711, -153.484, -52.7011, 116.614
8.39152, 102, 13.9491, -32.4111, 46.0416, -153.581, -53.1851, 117.279
8.39975, 103, 13.9528, -31.8119, 45.5978, -153.663, -53.6976, 117.918
8.40758, 103, 13.9493, -31.1922, 45.14, -153.732, -54.237, 118.529
8.41556, 103, 13.939, -30.5546, 44.6701, -153.787, -54.8009, 119.115
8.42353, 103, 13.9227, -29.9007, 44.1888, -153.829, -55.3872, 119.676
8.43158, 103, 13.9009, -29.2319, 43.698, -153.859, -55.993, 120.211
8.43953, 103, 13.874, -28.5498, 43.1996, -153.876, -56.6166, 120.721
8.44751, 104, 13.8426, -27.8568, 42.6956, -153.884, -57.2537, 121.204
8.45558, 104, 13.8072, -27.1551, 42.1882, -153.881, -57.9027, 121.662
8.46352, 104, 13.7678, -26.4463, 41.6781, -153.867, -58.5652, 122.098
8.47151, 104, 13.7251, -25.7317, 41.1666, -153.845, -59.2386, 122.512
8.4796, 104, 13.6801, -25.014, 40.655, -153.814, -59.9213, 122.908
8.48755, 104, 13.6333, -24.2942, 40.1435, -153.775, -60.6104, 123.288
8.49568, 104, 13.5848, -23.5725, 39.6329, -153.73, -61.3041, 123.656
8.50363, 104, 13.5349, -22.8497, 39.1236, -153.68, -62.0028, 124.017
8.51169, 104, 13.4842, -22.1268, 38.6157, -153.623, -62.704, 124.372
8.51964, 104, 13.4329, -21.4035, 38.1097, -153.563, -63.4072, 124.723
8.52762, 104, 13.3811, -20.6802, 37.6048, -153.499, -64.1114, 125.073
8.53572, 104, 13.329, -19.957, 37.1014, -153.429, -64.8154, 125.421
8.54352, 104, 13.2768, -19.2337, 36.6003, -153.356, -65.5213, 125.768
8.55155, 104, 13.2245, -18.51, 36.1007, -153.279, -66.2283, 126.113
8.55984, 104, 13.1723, -17.7865, 35.6037, -153.198, -66.9364, 126.459
8.5676, 104, 13.1204, -17.0622, 35.1091, -153.113, -67.6444, 126.803
8.5757, 104, 13.0687, -16.3377, 34.6162, -153.024, -68.3516, 127.147
8.5839, 104, 13.0175, -15.6132, 34.1255, -152.932, -69.0611, 127.491
8.59179, 104, 12.9665, -14.8883, 33.637, -152.835, -69.7718, 127.834
8.59987, 104, 12.9158, -14.1629, 33.1509, -152.734, -70.4827, 128.177
8.60829, 104, 12.8656, -13.4377, 32.6676, -152.63, -71.1926, 128.521
8.61594, 104, 12.8158, -12.7119, 32.187, -152.522, -71.9033, 128.865
8.62401, 104, 12.7661, -11.986, 31.709, -152.41, -72.6158, 129.209
8.63212, 104, 12.7168, -11.2608, 31.2334, -152.294, -73.3281, 129.554
8.64011, 104, 12.668, -10.5358, 30.7603, -152.174, -74.0411, 129.9
8.64812, 104, 12.6194, -9.81009, 30.2901, -152.05, -74.754, 130.246
8.65632, 104, 12.5951, -9.08434, 29.8231, -151.923, -75.467, 130.593
8.66402, 104, 12.5472, -8.72136, 29.5908, -151.857, -75.8241, 130.767
8.67153, 104, 12.4998, -7.99507, 29.1284, -151.723, -76.5384, 131.115
8.67958, 104, 12.4528, -7.26938, 28.6694, -151.585, -77.2537, 131.465
8.6875, 104, 12.4065, -6.54435, 28.2138, -151.443, -77.9689, 131.816
8.69551, 104, 12.3608, -5.81969, 27.7614, -151.297, -78.6829, 132.168
8.70357, 104, 12.3155, -5.09557, 27.3128, -151.146, -79.397, 132.521
8.7115, 104, 12.271, -4.37257, 26.8684, -150.991, -80.1121, 132.875
8.71951, 104, 12.2277, -3.6515, 26.4287, -150.833, -80.827, 133.231
8.72751, 104, 12.1853, -2.93539, 25.9941, -150.67, -81.5384, 133.586
8.73551, 104, 12.1441, -2.22497, 25.5653, -150.504, -82.2457, 133.943
8.74355, 104, 12.1043, -1.52139, 25.1431, -150.335, -82.9498, 134.299
8.75155, 104, 12.0654, -0.826093, 24.7296, -150.162, -83.6472, 134.652
8.75967, 104, 12.0275, -0.140565, 24.3253, -149.988, -84.3352, 135.004
8.7675, 104, 11.9906, 0.534594, 23.9315, -149.813, -85.0112, 135.351
8.77551, 104, 11.9547, 1.19776, 23.5498, -149.637, -85.6729, 135.694
8.78505, 104, 11.92, 1.84784, 23.1804, -149.461, -86.6391, 136.197
8.7915, 104, 11.8865, 2.48312, 22.8239, -149.285, -86.9534, 136.362
8.8005, 104, 11.854, 3.1024, 22.4793, -149.11, -87.5701, 136.686
8.80757, 104, 11.8228, 3.70565, 22.1483, -148.936, -88.1709, 137.003
8.81655, 104, 11.7929, 4.29199, 21.8297, -148.763, -88.7539, 137.314
8.8235, 104, 11.7641, 4.86201, 21.5237, -148.592, -89.3196, 137.619
8.83157, 104, 11.7369, 5.41506, 21.229, -148.422, -89.8695, 137.916
8.83954, 104, 11.7107, 5.95052, 20.9465, -148.254, -90.4035, 138.205
8.8475, 104, 11.6856, 6.46934, 20.6759, -148.088, -90.921, 138.488
8.85552, 104, 11.6617, 6.97134, 20.4167, -147.925, -91.4223, 138.764
8.8635, 104, 11.639, 7.45613, 20.1693, -147.764, -91.9061, 139.032
8.87159, 104, 11.6174, 7.92463, 19.9326, -147.606, -92.373, 139.292
8.8795, 104, 11.597, 8.3764, 19.7067, -147.452, -92.8235, 139.545
8.8875, 104, 11.5777, 8.81129, 19.4922, -147.3, -93.2573, 139.789
8.89559, 104, 11.5596, 9.22823, 19.2879, -147.153, -93.6744, 140.026
8.9035, 104, 11.5425, 9.62827, 19.0936, -147.009, -94.0745, 140.254
8.9115, 104, 11.5265, 10.0102, 18.9103, -146.87, -94.4575, 140.473
8.91963, 104, 11.5116, 10.3736, 18.7376, -146.735, -94.822, 140.684
8.92752, 104, 11.4977, 10.7175, 18.575, -146.606, -95.1681, 140.884
8.93552, 104, 11.4848, 11.0425, 18.4232, -146.483, -95.4946, 141.074
8.94356, 104, 11.4729, 11.347, 18.2824, -146.366, -95.8011, 141.253
8.9515, 104, 11.4621, 11.6309, 18.152, -146.255, -96.0868, 141.421
8.95951, 104, 11.4524, 11.894, 18.0321, -146.152, -96.3514, 141.577
8.96757, 104, 11.4434, 12.1356, 17.923, -146.057, -96.5943, 141.72
8.97553, 104, 11.4351, 12.3563, 17.8243, -145.969, -96.8153, 141.851
8.98356, 104, 11.4276, 12.556, 17.7359, -145.89, -97.0142, 141.97
8.99161, 104, 11.421, 12.7345, 17.658, -145.819, -97.191, 142.075
8.9996, 104, 11.415, 12.892, 17.5901, -145.757, -97.3459, 142.168
9.00761, 104, 11.4096, 13.0298, 17.5319, -145.703, -97.4788, 142.248
9.01568, 104, 11.4047, 13.1486, 17.4831, -145.658, -97.5909, 142.315
9.02361, 104, 11.4001, 13.2488, 17.4432, -145.621, -97.6824, 142.369
9.03161, 104, 11.396, 13.3319, 17.4111, -145.591, -97.7558, 142.413
9.03971, 104, 11.3923, 13.4, 17.3865, -145.567, -97.8115, 142.447
9.04751, 104, 11.3889, 13.4547, 17.3684, -145.55, -97.8526, 142.472
9.05555, 104, 11.386, 13.4976, 17.3554, -145.538, -97.8817, 142.49
9.0636, 104, 11.3836, 13.5298, 17.3468, -145.529, -97.9017, 142.501
9.07159, 104, 11.3817, 13.5538, 17.3414, -145.524, -97.9144, 142.508
9.07967, 104, 11.3802, 13.5714, 17.338, -145.521, -97.9217, 142.512
9.08789, 104, 11.3791, 13.5833, 17.3363, -145.52, -97.9255, 142.514
9.09612, 104, 11.3782, 13.5914, 17.3354, -145.519, -97.9274, 142.515
9.10386, 105, 11.3776, 13.5967, 17.3349, -145.519, -97.9282, 142.515
9.11201, 105, 11.3772, 13.6003, 17.3347, -145.518, -97.9286, 142.516
9.12037, 105, 11.3768, 13.6027, 17.3347, -145.518, -97.9288, 142.516
9.12804, 105, 11.3765, 13.6048, 17.3346, -145.518, -97.9289, 142.516
9.13611, 105, 11.3763, 13.6065, 17.3346, -145.518, -97.9289, 142.516
9.14451, 105, 11.3762, 13.608, 17.3346, -145.518, -97.9289, 142.516
9.15222, 105, 11.376, 13.6094, 17.3346, -145.518, -97.9289, 142.516
9.16016, 105, 11.376, 13.6105, 17.3346, -145.518, -97.9288, 142.516
9.16842, 105, 11.3759, 13.6115, 17.3346, -145.518, -97.9286, 142.516
9.17552, 105, 11.3759, 13.6119, 17.3347, -145.518, -97.9286, 142.516
9.18354, 105, 11.3759, 13.6125, 17.3347, -145.518, -97.9284, 142.516
9.19149, 105, 11.3758, 13.613, 17.3347, -145.518, -97.9283, 142.516
9.20051, 105, 11.3758, 13.6133, 17.3348, -145.519, -97.928, 142.516
9.20756, 105, 11.3758, 13.6135, 17.3348, -145.519, -97.928, 142.516
9.2155, 105, 11.3758, 13.6135, 17.3348, -145.519, -97.9278, 142.516
9.22349, 105, 11.3758, 13.6136, 17.3349, -145.519, -97.9277, 142.516
