hehonglu123/Motion-Primitive-Planning/simulation/robotstudio_sim/scripts/fitting_output/wood/100L/curve_exe_v200_z10.csv
timestamp, cmd_num, J1, J2, J3, J4, J5, J6
0, -1, 11.3784, 13.6124, 17.34, -145.519, -97.9231, 142.516
0.002, -1, 11.3784, 13.6124, 17.34, -145.519, -97.9231, 142.516
0.006, -1, 11.3784, 13.6124, 17.34, -145.519, -97.9231, 142.516
0.008, -1, 11.3784, 13.6124, 17.34, -145.519, -97.9231, 142.516
0.011, -1, 11.3784, 13.6124, 17.34, -145.519, -97.9231, 142.516
0.016, -1, 11.3784, 13.6124, 17.34, -145.519, -97.9231, 142.516
0.02, -1, 11.3784, 13.6124, 17.34, -145.519, -97.9231, 142.516
0.024, -1, 11.3784, 13.6124, 17.34, -145.519, -97.9231, 142.516
0.028, -1, 11.3784, 13.6124, 17.34, -145.519, -97.9231, 142.516
0.032, -1, 11.3783, 13.6124, 17.34, -145.519, -97.9231, 142.516
0.036, -1, 11.3783, 13.6124, 17.34, -145.519, -97.9231, 142.516
0.04, -1, 11.378, 13.6124, 17.34, -145.519, -97.9231, 142.516
0.044, -1, 11.3773, 13.6123, 17.3399, -145.519, -97.9231, 142.516
0.048, -1, 11.376, 13.6121, 17.3397, -145.519, -97.9231, 142.516
0.052, -1, 11.3739, 13.6118, 17.3395, -145.519, -97.9231, 142.515
0.056, -1, 11.3709, 13.6113, 17.3392, -145.519, -97.9231, 142.515
0.06, -1, 11.3669, 13.6105, 17.3388, -145.519, -97.923, 142.514
0.064, -1, 11.3616, 13.6095, 17.3382, -145.52, -97.9229, 142.511
0.068, -1, 11.355, 13.6081, 17.3376, -145.52, -97.9228, 142.508
0.072, -1, 11.3469, 13.6063, 17.3369, -145.521, -97.9225, 142.503
0.076, -1, 11.3368, 13.604, 17.3361, -145.523, -97.9221, 142.496
0.08, -1, 11.3245, 13.6011, 17.3353, -145.524, -97.9216, 142.485
0.084, -1, 11.3095, 13.5974, 17.3345, -145.527, -97.9208, 142.471
0.088, -1, 11.2916, 13.593, 17.3339, -145.53, -97.9197, 142.452
0.092, -1, 11.2709, 13.5878, 17.3334, -145.534, -97.9183, 142.428
0.096, -1, 11.2473, 13.5817, 17.3333, -145.54, -97.9165, 142.397
0.1, -1, 11.2208, 13.5749, 17.3336, -145.546, -97.9143, 142.359
0.104, -1, 11.1915, 13.5672, 17.3345, -145.554, -97.9116, 142.313
0.108, -1, 11.1592, 13.5585, 17.336, -145.563, -97.9083, 142.259
0.112, -1, 11.1237, 13.549, 17.3382, -145.574, -97.9045, 142.197
0.116, -1, 11.085, 13.5386, 17.341, -145.586, -97.9002, 142.125
0.12, -1, 11.0431, 13.5271, 17.3444, -145.6, -97.8953, 142.045
0.124, -1, 10.9978, 13.5148, 17.3483, -145.615, -97.8899, 141.956
0.128, -1, 10.9493, 13.5015, 17.3528, -145.632, -97.884, 141.86
0.131, -1, 10.8979, 13.4874, 17.3577, -145.65, -97.8777, 141.756
0.136, -1, 10.8436, 13.4725, 17.3631, -145.669, -97.8709, 141.645
0.139, -1, 10.7865, 13.4568, 17.3687, -145.689, -97.8638, 141.529
0.144, -1, 10.7267, 13.4404, 17.3745, -145.709, -97.8564, 141.407
0.148, -1, 10.6642, 13.4232, 17.3803, -145.731, -97.8487, 141.281
0.152, -1, 10.5993, 13.4055, 17.3861, -145.753, -97.8408, 141.152
0.156, -1, 10.5321, 13.3871, 17.3919, -145.776, -97.8328, 141.02
0.16, -1, 10.4629, 13.3682, 17.3975, -145.799, -97.8246, 140.886
0.164, -1, 10.3921, 13.3489, 17.4031, -145.822, -97.8164, 140.751
0.168, -1, 10.32, 13.3293, 17.4085, -145.845, -97.8081, 140.614
0.172, -1, 10.2468, 13.3094, 17.4139, -145.869, -97.7998, 140.477
0.176, -1, 10.1727, 13.2894, 17.4192, -145.893, -97.7914, 140.339
0.18, -1, 10.0979, 13.2691, 17.4245, -145.916, -97.783, 140.2
0.184, -1, 10.0225, 13.2488, 17.4297, -145.94, -97.7746, 140.062
0.188, -1, 9.94654, 13.2284, 17.4348, -145.964, -97.7661, 139.922
0.192, -1, 9.87027, 13.2079, 17.44, -145.988, -97.7577, 139.783
0.196, -1, 9.79375, 13.1874, 17.4451, -146.012, -97.7492, 139.644
0.2, -1, 9.71706, 13.1669, 17.4502, -146.036, -97.7408, 139.504
0.204, -1, 9.64025, 13.1463, 17.4553, -146.06, -97.7324, 139.365
0.208, -1, 9.56336, 13.1258, 17.4604, -146.084, -97.7239, 139.225
0.212, -1, 9.48641, 13.1052, 17.4655, -146.108, -97.7155, 139.086
0.216, -1, 9.40942, 13.0846, 17.4706, -146.131, -97.707, 138.946
0.22, -1, 9.3324, 13.064, 17.4757, -146.155, -97.6985, 138.807
0.224, -1, 9.25536, 13.0434, 17.4808, -146.179, -97.6901, 138.667
0.228, -1, 9.1783, 13.0228, 17.4859, -146.203, -97.6816, 138.527
0.232, -1, 9.10122, 13.0022, 17.491, -146.227, -97.6732, 138.388
0.236, -1, 9.02413, 12.9815, 17.4961, -146.251, -97.6647, 138.248
0.24, -1, 8.94703, 12.9609, 17.5012, -146.275, -97.6563, 138.108
0.244, -1, 8.86993, 12.9403, 17.5063, -146.299, -97.6478, 137.969
0.248, -1, 8.79281, 12.9197, 17.5114, -146.323, -97.6393, 137.829
0.252, -1, 8.71568, 12.8991, 17.5165, -146.347, -97.6309, 137.689
0.256, -1, 8.63855, 12.8785, 17.5216, -146.371, -97.6224, 137.55
0.26, -1, 8.56141, 12.8578, 17.5267, -146.395, -97.614, 137.41
0.264, -1, 8.48426, 12.8372, 17.5318, -146.419, -97.6055, 137.27
0.268, -1, 8.40711, 12.8166, 17.5369, -146.443, -97.597, 137.13
0.272, -1, 8.32994, 12.7959, 17.542, -146.467, -97.5886, 136.99
0.276, -1, 8.25277, 12.7753, 17.5471, -146.491, -97.5801, 136.851
0.28, -1, 8.1756, 12.7547, 17.5522, -146.515, -97.5716, 136.711
0.284, -1, 8.09841, 12.734, 17.5573, -146.539, -97.5632, 136.571
0.288, -1, 8.02122, 12.7134, 17.5624, -146.563, -97.5547, 136.431
0.292, -1, 7.94402, 12.6928, 17.5675, -146.587, -97.5462, 136.291
0.296, -1, 7.86681, 12.6721, 17.5726, -146.611, -97.5378, 136.151
0.3, -1, 7.7896, 12.6515, 17.5777, -146.635, -97.5293, 136.012
0.304, -1, 7.71238, 12.6308, 17.5828, -146.659, -97.5208, 135.872
0.308, -1, 7.63515, 12.6102, 17.5879, -146.683, -97.5123, 135.732
0.312, -1, 7.55791, 12.5895, 17.593, -146.707, -97.5039, 135.592
0.316, -1, 7.48067, 12.5689, 17.5981, -146.731, -97.4954, 135.452
0.32, -1, 7.40342, 12.5482, 17.6032, -146.755, -97.4869, 135.312
0.324, -1, 7.32616, 12.5276, 17.6083, -146.779, -97.4784, 135.172
0.328, -1, 7.24889, 12.5069, 17.6134, -146.803, -97.47, 135.032
0.332, -1, 7.17162, 12.4862, 17.6185, -146.827, -97.4615, 134.892
0.336, -1, 7.09434, 12.4656, 17.6236, -146.851, -97.453, 134.752
0.34, -1, 7.01705, 12.4449, 17.6287, -146.875, -97.4445, 134.612
0.344, -1, 6.93976, 12.4242, 17.6339, -146.899, -97.436, 134.472
0.348, -1, 6.86246, 12.4036, 17.639, -146.923, -97.4276, 134.332
0.352, -1, 6.78515, 12.3829, 17.6441, -146.947, -97.4191, 134.192
0.356, -1, 6.70783, 12.3622, 17.6492, -146.971, -97.4106, 134.052
0.36, -1, 6.63051, 12.3416, 17.6543, -146.995, -97.4021, 133.912
0.364, -1, 6.55317, 12.3209, 17.6594, -147.019, -97.3936, 133.772
0.368, -1, 6.47583, 12.3002, 17.6645, -147.043, -97.3851, 133.631
0.372, -1, 6.39849, 12.2795, 17.6696, -147.067, -97.3767, 133.491
0.376, -1, 6.32113, 12.2588, 17.6747, -147.091, -97.3682, 133.351
0.38, -1, 6.24377, 12.2382, 17.6798, -147.115, -97.3597, 133.211
0.384, -1, 6.1664, 12.2175, 17.6849, -147.14, -97.3512, 133.071
0.388, -1, 6.08903, 12.1968, 17.6901, -147.164, -97.3427, 132.931
0.392, -1, 6.01164, 12.1761, 17.6952, -147.188, -97.3342, 132.79
0.396, -1, 5.93425, 12.1554, 17.7003, -147.212, -97.3257, 132.65
0.4, -1, 5.85685, 12.1347, 17.7054, -147.236, -97.3172, 132.51
0.404, -1, 5.77945, 12.114, 17.7105, -147.26, -97.3087, 132.37
0.408, -1, 5.70203, 12.0933, 17.7156, -147.284, -97.3003, 132.23
0.412, -1, 5.62461, 12.0726, 17.7207, -147.308, -97.2918, 132.089
0.416, -1, 5.54718, 12.0519, 17.7259, -147.332, -97.2833, 131.949
0.42, -1, 5.46975, 12.0312, 17.731, -147.356, -97.2748, 131.809
0.424, -1, 5.3923, 12.0105, 17.7361, -147.38, -97.2663, 131.668
0.428, -1, 5.31485, 11.9898, 17.7412, -147.404, -97.2578, 131.528
0.432, -1, 5.23739, 11.9691, 17.7463, -147.428, -97.2493, 131.388
0.436, -1, 5.15992, 11.9484, 17.7515, -147.452, -97.2408, 131.247
0.44, -1, 5.08245, 11.9277, 17.7566, -147.476, -97.2323, 131.107
0.444, -1, 5.00497, 11.9069, 17.7617, -147.501, -97.2238, 130.967
0.448, -1, 4.92748, 11.8862, 17.7668, -147.525, -97.2153, 130.826
0.452, -1, 4.84998, 11.8655, 17.7719, -147.549, -97.2068, 130.686
0.456, -1, 4.77248, 11.8448, 17.7771, -147.573, -97.1983, 130.545
0.46, -1, 4.69496, 11.8241, 17.7822, -147.597, -97.1898, 130.405
0.464, -1, 4.61744, 11.8033, 17.7873, -147.621, -97.1813, 130.265
0.468, -1, 4.53991, 11.7826, 17.7924, -147.645, -97.1728, 130.124
0.472, -1, 4.46238, 11.7619, 17.7975, -147.669, -97.1642, 129.984
0.476, -1, 4.38483, 11.7411, 17.8027, -147.693, -97.1557, 129.843
0.48, -1, 4.30728, 11.7204, 17.8078, -147.717, -97.1472, 129.703
0.484, -1, 4.22972, 11.6997, 17.8129, -147.741, -97.1387, 129.562
0.488, -1, 4.15216, 11.6789, 17.818, -147.766, -97.1302, 129.422
0.492, -1, 4.07458, 11.6582, 17.8232, -147.79, -97.1217, 129.281
0.496, -1, 3.997, 11.6374, 17.8283, -147.814, -97.1132, 129.141
0.5, -1, 3.91941, 11.6167, 17.8334, -147.838, -97.1047, 129
0.504, -1, 3.84181, 11.5959, 17.8385, -147.862, -97.0962, 128.859
0.508, -1, 3.7642, 11.5752, 17.8437, -147.886, -97.0877, 128.719
0.512, -1, 3.68659, 11.5544, 17.8488, -147.91, -97.0791, 128.578
0.516, -1, 3.60896, 11.5337, 17.8539, -147.934, -97.0706, 128.438
0.52, -1, 3.53133, 11.5129, 17.8591, -147.959, -97.0621, 128.297
0.524, -1, 3.4537, 11.4922, 17.8642, -147.983, -97.0536, 128.156
0.528, -1, 3.37605, 11.4714, 17.8693, -148.007, -97.0451, 128.016
0.532, -1, 3.2984, 11.4507, 17.8745, -148.031, -97.0366, 127.875
0.536, -1, 3.22074, 11.4299, 17.8796, -148.055, -97.028, 127.734
0.54, -1, 3.14307, 11.4091, 17.8847, -148.079, -97.0195, 127.594
0.544, -1, 3.06539, 11.3884, 17.8898, -148.103, -97.011, 127.453
0.548, -1, 2.9877, 11.3676, 17.895, -148.128, -97.0025, 127.312
0.552, -1, 2.91001, 11.3468, 17.9001, -148.152, -96.9939, 127.171
0.556, -1, 2.83231, 11.326, 17.9052, -148.176, -96.9854, 127.031
0.56, -1, 2.7546, 11.3053, 17.9104, -148.2, -96.9769, 126.89
0.564, -1, 2.67688, 11.2845, 17.9155, -148.224, -96.9684, 126.749
0.568, -1, 2.59916, 11.2637, 17.9207, -148.248, -96.9598, 126.608
0.572, -1, 2.52143, 11.2429, 17.9258, -148.272, -96.9513, 126.467
0.576, -1, 2.44369, 11.2221, 17.9309, -148.297, -96.9428, 126.326
0.58, -1, 2.36594, 11.2013, 17.9361, -148.321, -96.9343, 126.186
0.584, -1, 2.28818, 11.1805, 17.9412, -148.345, -96.9257, 126.045
0.588, -1, 2.21042, 11.1598, 17.9463, -148.369, -96.9172, 125.904
0.592, -1, 2.13264, 11.139, 17.9515, -148.393, -96.9087, 125.763
0.596, -1, 2.05486, 11.1182, 17.9566, -148.417, -96.9001, 125.622
0.6, -1, 1.97708, 11.0974, 17.9618, -148.442, -96.8916, 125.481
0.604, -1, 1.89928, 11.0766, 17.9669, -148.466, -96.883, 125.34
0.608, -1, 1.82147, 11.0558, 17.972, -148.49, -96.8745, 125.199
0.612, -1, 1.74366, 11.035, 17.9772, -148.514, -96.866, 125.058
0.616, -1, 1.66584, 11.0142, 17.9823, -148.538, -96.8574, 124.917
0.62, -1, 1.58801, 10.9933, 17.9875, -148.563, -96.8489, 124.776
0.624, -1, 1.51018, 10.9725, 17.9926, -148.587, -96.8404, 124.635
0.628, -1, 1.43233, 10.9517, 17.9977, -148.611, -96.8318, 124.494
0.632, -1, 1.35448, 10.9309, 18.0029, -148.635, -96.8233, 124.353
0.636, -1, 1.27662, 10.9101, 18.008, -148.659, -96.8147, 124.212
0.64, -1, 1.19875, 10.8893, 18.0132, -148.684, -96.8062, 124.071
0.644, -1, 1.12087, 10.8684, 18.0183, -148.708, -96.7977, 123.93
0.648, -1, 1.04299, 10.8476, 18.0235, -148.732, -96.7891, 123.789
0.652, -1, 0.965097, 10.8268, 18.0286, -148.756, -96.7806, 123.648
0.656, -1, 0.887196, 10.806, 18.0338, -148.78, -96.772, 123.507
0.66, -1, 0.809287, 10.7851, 18.0389, -148.805, -96.7635, 123.366
0.664, -1, 0.731371, 10.7643, 18.0441, -148.829, -96.7549, 123.224
0.668, -1, 0.653446, 10.7435, 18.0492, -148.853, -96.7464, 123.083
0.672, -1, 0.575513, 10.7226, 18.0544, -148.877, -96.7378, 122.942
0.676, -1, 0.497571, 10.7018, 18.0595, -148.902, -96.7293, 122.801
0.68, -1, 0.419622, 10.6809, 18.0647, -148.926, -96.7207, 122.66
0.684, -1, 0.341664, 10.6601, 18.0698, -148.95, -96.7122, 122.518
0.688, -1, 0.263699, 10.6393, 18.075, -148.974, -96.7036, 122.377
0.692, -1, 0.185725, 10.6184, 18.0801, -148.998, -96.6951, 122.236
0.696, -1, 0.107742, 10.5976, 18.0853, -149.023, -96.6865, 122.095
0.7, -1, 0.0297514, 10.5767, 18.0904, -149.047, -96.6779, 121.953
0.704, -1, -0.0482476, 10.5559, 18.0956, -149.071, -96.6694, 121.812
0.708, -1, -0.126255, 10.535, 18.1007, -149.095, -96.6608, 121.671
0.712, -1, -0.204271, 10.5141, 18.1059, -149.12, -96.6523, 121.529
0.716, -1, -0.282295, 10.4933, 18.111, -149.144, -96.6437, 121.388
0.72, -1, -0.360327, 10.4724, 18.1162, -149.168, -96.6352, 121.247
0.724, -1, -0.438368, 10.4515, 18.1214, -149.192, -96.6266, 121.105
0.728, -1, -0.516417, 10.4307, 18.1265, -149.217, -96.618, 120.964
0.732, -1, -0.594474, 10.4098, 18.1317, -149.241, -96.6095, 120.822
0.736, -1, -0.67254, 10.3889, 18.1368, -149.265, -96.6009, 120.681
0.74, -1, -0.750614, 10.3681, 18.142, -149.29, -96.5923, 120.54
0.744, -1, -0.828697, 10.3472, 18.1471, -149.314, -96.5838, 120.398
0.748, -1, -0.906788, 10.3263, 18.1523, -149.338, -96.5752, 120.257
0.752, -1, -0.984887, 10.3054, 18.1575, -149.362, -96.5666, 120.115
0.756, -1, -1.063, 10.2845, 18.1626, -149.387, -96.5581, 119.974
0.76, -1, -1.14111, 10.2637, 18.1678, -149.411, -96.5495, 119.832
0.764, -1, -1.21924, 10.2428, 18.173, -149.435, -96.5409, 119.691
0.768, -1, -1.29737, 10.2219, 18.1781, -149.459, -96.5323, 119.549
0.772, -1, -1.37551, 10.201, 18.1833, -149.484, -96.5238, 119.407
0.776, -1, -1.45366, 10.1801, 18.1884, -149.508, -96.5152, 119.266
0.78, -1, -1.53182, 10.1592, 18.1936, -149.532, -96.5066, 119.124
0.784, -1, -1.60999, 10.1383, 18.1988, -149.557, -96.4981, 118.983
0.788, -1, -1.68817, 10.1174, 18.2039, -149.581, -96.4895, 118.841
0.792, -1, -1.76635, 10.0965, 18.2091, -149.605, -96.4809, 118.699
0.796, -1, -1.84455, 10.0756, 18.2143, -149.63, -96.4723, 118.558
0.8, -1, -1.92275, 10.0547, 18.2194, -149.654, -96.4637, 118.416
0.804, -1, -2.00096, 10.0338, 18.2246, -149.678, -96.4552, 118.274
0.808, -1, -2.07918, 10.0128, 18.2298, -149.702, -96.4466, 118.133
0.812, -1, -2.15741, 9.99193, 18.2349, -149.727, -96.438, 117.991
0.816, -1, -2.23565, 9.97101, 18.2401, -149.751, -96.4294, 117.849
0.82, -1, -2.31389, 9.95009, 18.2453, -149.775, -96.4208, 117.707
0.824, -1, -2.39215, 9.92917, 18.2505, -149.8, -96.4122, 117.566
0.828, -1, -2.47041, 9.90824, 18.2556, -149.824, -96.4037, 117.424
0.832, -1, -2.54868, 9.88731, 18.2608, -149.848, -96.3951, 117.282
0.836, -1, -2.62697, 9.86638, 18.266, -149.873, -96.3865, 117.14
0.84, -1, -2.70526, 9.84545, 18.2711, -149.897, -96.3779, 116.998
0.844, -1, -2.78355, 9.82452, 18.2763, -149.921, -96.3693, 116.857
0.848, -1, -2.86186, 9.80358, 18.2815, -149.946, -96.3607, 116.715
0.852, -1, -2.94018, 9.78264, 18.2867, -149.97, -96.3521, 116.573
0.856, -1, -3.0185, 9.7617, 18.2918, -149.994, -96.3435, 116.431
0.86, -1, -3.09684, 9.74076, 18.297, -150.019, -96.3349, 116.289
0.864, -1, -3.17518, 9.71981, 18.3022, -150.043, -96.3263, 116.147
0.868, -1, -3.25353, 9.69886, 18.3074, -150.067, -96.3177, 116.005
0.872, -1, -3.33189, 9.67791, 18.3125, -150.092, -96.3091, 115.863
0.876, -1, -3.41026, 9.65695, 18.3177, -150.116, -96.3005, 115.721
0.88, -1, -3.48864, 9.636, 18.3229, -150.141, -96.2919, 115.579
0.884, -1, -3.56702, 9.61504, 18.3281, -150.165, -96.2833, 115.437
0.888, -1, -3.64542, 9.59408, 18.3333, -150.189, -96.2747, 115.295
0.892, -1, -3.72382, 9.57312, 18.3384, -150.214, -96.2662, 115.153
0.896, -1, -3.80223, 9.55215, 18.3436, -150.238, -96.2575, 115.011
0.9, -1, -3.88066, 9.53118, 18.3488, -150.262, -96.2489, 114.869
0.904, -1, -3.95909, 9.51021, 18.354, -150.287, -96.2403, 114.727
0.908, -1, -4.03753, 9.48924, 18.3592, -150.311, -96.2317, 114.585
0.912, -1, -4.11597, 9.46827, 18.3644, -150.336, -96.2231, 114.443
0.916, -1, -4.19443, 9.44729, 18.3695, -150.36, -96.2145, 114.3
0.92, -1, -4.2729, 9.42631, 18.3747, -150.384, -96.2059, 114.158
0.924, -1, -4.35137, 9.40533, 18.3799, -150.409, -96.1973, 114.016
0.928, -1, -4.42986, 9.38434, 18.3851, -150.433, -96.1887, 113.874
0.932, -1, -4.50835, 9.36336, 18.3903, -150.458, -96.1801, 113.732
0.936, -1, -4.58685, 9.34237, 18.3955, -150.482, -96.1715, 113.59
0.94, -1, -4.66536, 9.32138, 18.4007, -150.506, -96.1628, 113.447
0.944, -1, -4.74388, 9.30038, 18.4058, -150.531, -96.1542, 113.305
0.948, -1, -4.82241, 9.27939, 18.411, -150.555, -96.1456, 113.163
0.952, -1, -4.90095, 9.25839, 18.4162, -150.58, -96.137, 113.021
0.956, -1, -4.97949, 9.23739, 18.4214, -150.604, -96.1284, 112.878
0.96, -1, -5.05805, 9.21638, 18.4266, -150.628, -96.1198, 112.736
0.964, -1, -5.13661, 9.19538, 18.4318, -150.653, -96.1111, 112.594
0.968, -1, -5.21519, 9.17437, 18.437, -150.677, -96.1025, 112.451
0.972, -1, -5.29377, 9.15336, 18.4422, -150.702, -96.0939, 112.309
0.976, -1, -5.37236, 9.13235, 18.4474, -150.726, -96.0853, 112.166
0.98, -1, -5.45096, 9.11133, 18.4526, -150.751, -96.0767, 112.024
0.984, -1, -5.52957, 9.09031, 18.4578, -150.775, -96.068, 111.882
0.988, -1, -5.60819, 9.06929, 18.4629, -150.799, -96.0594, 111.739
0.992, -1, -5.68681, 9.04827, 18.4681, -150.824, -96.0508, 111.597
0.996, -1, -5.76545, 9.02725, 18.4733, -150.848, -96.0422, 111.454
1, -1, -5.8441, 9.00622, 18.4785, -150.873, -96.0335, 111.312
1.004, -1, -5.92275, 8.98519, 18.4837, -150.897, -96.0249, 111.169
1.008, -1, -6.00141, 8.96416, 18.4889, -150.922, -96.0163, 111.027
1.012, -1, -6.08009, 8.94312, 18.4941, -150.946, -96.0076, 110.884
1.016, -1, -6.15877, 8.92208, 18.4993, -150.971, -95.999, 110.742
1.02, -1, -6.23746, 8.90104, 18.5045, -150.995, -95.9904, 110.599
1.024, -1, -6.31616, 8.88, 18.5097, -151.019, -95.9817, 110.457
1.027, -1, -6.39487, 8.85896, 18.5149, -151.044, -95.9731, 110.314
1.032, -1, -6.47358, 8.83791, 18.5201, -151.068, -95.9645, 110.171
1.036, -1, -6.55231, 8.81686, 18.5253, -151.093, -95.9558, 110.029
1.04, -1, -6.63105, 8.79581, 18.5305, -151.117, -95.9472, 109.886
1.044, -1, -6.70979, 8.77476, 18.5357, -151.142, -95.9386, 109.743
1.048, -1, -6.78854, 8.7537, 18.5409, -151.166, -95.9299, 109.601
1.052, -1, -6.86731, 8.73264, 18.5461, -151.191, -95.9213, 109.458
1.055, -1, -6.94608, 8.71158, 18.5513, -151.215, -95.9126, 109.315
1.06, -1, -7.02486, 8.69052, 18.5566, -151.24, -95.904, 109.173
1.064, -1, -7.10365, 8.66945, 18.5618, -151.264, -95.8954, 109.03
1.068, -1, -7.18245, 8.64838, 18.567, -151.289, -95.8867, 108.887
1.072, -1, -7.26126, 8.62731, 18.5722, -151.313, -95.8781, 108.744
1.076, -1, -7.34008, 8.60624, 18.5774, -151.338, -95.8694, 108.602
1.08, -1, -7.41891, 8.58516, 18.5826, -151.362, -95.8608, 108.459
1.084, -1, -7.49775, 8.56408, 18.5878, -151.387, -95.8521, 108.316
1.088, -1, -7.5766, 8.543, 18.593, -151.411, -95.8435, 108.173
1.091, -1, -7.65545, 8.52192, 18.5982, -151.436, -95.8348, 108.03
1.096, -1, -7.73432, 8.50083, 18.6034, -151.46, -95.8261, 107.887
1.1, -1, -7.81319, 8.47974, 18.6086, -151.485, -95.8175, 107.744
1.104, -1, -7.89208, 8.45865, 18.6139, -151.509, -95.8088, 107.602
1.108, -1, -7.97097, 8.43756, 18.6191, -151.534, -95.8002, 107.459
1.112, -1, -8.04988, 8.41646, 18.6243, -151.558, -95.7915, 107.316
1.116, -1, -8.12879, 8.39536, 18.6295, -151.583, -95.7829, 107.173
1.119, -1, -8.20771, 8.37426, 18.6347, -151.607, -95.7742, 107.03
1.124, -1, -8.28665, 8.35315, 18.6399, -151.632, -95.7656, 106.887
1.128, -1, -8.36559, 8.33205, 18.6451, -151.656, -95.7569, 106.744
1.132, -1, -8.44454, 8.31094, 18.6504, -151.681, -95.7482, 106.601
1.136, -1, -8.5235, 8.28983, 18.6556, -151.706, -95.7396, 106.458
1.14, -1, -8.60247, 8.26871, 18.6608, -151.73, -95.7309, 106.315
1.144, -1, -8.68145, 8.24759, 18.666, -151.755, -95.7222, 106.172
1.147, -1, -8.76044, 8.22647, 18.6712, -151.779, -95.7136, 106.028
1.152, -1, -8.83944, 8.20535, 18.6765, -151.804, -95.7049, 105.885
1.156, -1, -8.91845, 8.18423, 18.6817, -151.828, -95.6963, 105.742
1.16, -1, -8.99747, 8.1631, 18.6869, -151.853, -95.6876, 105.599
1.164, -1, -9.0765, 8.14197, 18.6921, -151.877, -95.6789, 105.456
1.168, -1, -9.15554, 8.12084, 18.6973, -151.902, -95.6702, 105.313
1.172, -1, -9.23459, 8.0997, 18.7026, -151.927, -95.6616, 105.169
1.175, -1, -9.31365, 8.07856, 18.7078, -151.951, -95.6529, 105.026
1.18, -1, -9.39271, 8.05742, 18.713, -151.976, -95.6442, 104.883
1.184, -1, -9.47179, 8.03628, 18.7182, -152, -95.6355, 104.74
1.188, -1, -9.55088, 8.01513, 18.7235, -152.025, -95.6269, 104.596
1.192, -1, -9.62998, 7.99399, 18.7287, -152.049, -95.6182, 104.453
1.196, -1, -9.70908, 7.97284, 18.7339, -152.074, -95.6095, 104.31
1.2, -1, -9.7882, 7.95168, 18.7391, -152.099, -95.6008, 104.166
1.204, -1, -9.86733, 7.93052, 18.7444, -152.123, -95.5921, 104.023
1.208, -1, -9.94647, 7.90937, 18.7496, -152.148, -95.5835, 103.88
1.212, -1, -10.0256, 7.88821, 18.7548, -152.172, -95.5748, 103.736
1.216, -1, -10.1048, 7.86704, 18.7601, -152.197, -95.5661, 103.593
1.22, -1, -10.1839, 7.84587, 18.7653, -152.222, -95.5574, 103.449
1.224, -1, -10.2631, 7.8247, 18.7705, -152.246, -95.5487, 103.306
1.228, -1, -10.3423, 7.80353, 18.7758, -152.271, -95.54, 103.163
1.232, -1, -10.4215, 7.78236, 18.781, -152.295, -95.5313, 103.019
1.236, -1, -10.5007, 7.76118, 18.7862, -152.32, -95.5227, 102.876
1.24, -1, -10.5799, 7.74, 18.7915, -152.345, -95.514, 102.732
1.244, -1, -10.6591, 7.71882, 18.7967, -152.369, -95.5053, 102.589
1.248, -1, -10.7384, 7.69763, 18.8019, -152.394, -95.4966, 102.445
1.252, -1, -10.8176, 7.67644, 18.8072, -152.419, -95.4879, 102.301
1.256, -1, -10.8969, 7.65525, 18.8124, -152.443, -95.4792, 102.158
1.26, -1, -10.9761, 7.63406, 18.8176, -152.468, -95.4705, 102.014
1.264, -1, -11.0554, 7.61286, 18.8229, -152.493, -95.4618, 101.871
1.267, -1, -11.1347, 7.59167, 18.8281, -152.517, -95.4531, 101.727
1.272, -1, -11.214, 7.57047, 18.8333, -152.542, -95.4444, 101.583
1.276, -1, -11.2933, 7.54926, 18.8386, -152.566, -95.4357, 101.44
1.28, -1, -11.3726, 7.52805, 18.8438, -152.591, -95.427, 101.296
1.284, -1, -11.4519, 7.50685, 18.8491, -152.616, -95.4183, 101.152
1.288, -1, -11.5313, 7.48563, 18.8543, -152.64, -95.4096, 101.009
1.292, -1, -11.6106, 7.46442, 18.8596, -152.665, -95.4009, 100.865
1.295, -1, -11.69, 7.4432, 18.8648, -152.69, -95.3922, 100.721
1.3, -1, -11.7693, 7.42198, 18.87, -152.714, -95.3835, 100.577
1.304, -1, -11.8487, 7.40076, 18.8753, -152.739, -95.3748, 100.433
1.308, -1, -11.9281, 7.37953, 18.8805, -152.764, -95.3661, 100.29
1.312, -1, -12.0075, 7.35831, 18.8858, -152.788, -95.3573, 100.146
1.316, -1, -12.0869, 7.33708, 18.891, -152.813, -95.3486, 100.002
1.32, -1, -12.1663, 7.31584, 18.8963, -152.838, -95.3399, 99.8581
1.324, -1, -12.2457, 7.29461, 18.9015, -152.863, -95.3312, 99.7142
1.328, -1, -12.3252, 7.27337, 18.9068, -152.887, -95.3225, 99.5703
1.332, -1, -12.4046, 7.25213, 18.912, -152.912, -95.3138, 99.4263
1.336, -1, -12.4841, 7.23088, 18.9173, -152.937, -95.3051, 99.2824
1.34, -1, -12.5635, 7.20964, 18.9225, -152.961, -95.2963, 99.1384
1.344, -1, -12.643, 7.18839, 18.9278, -152.986, -95.2876, 98.9945
1.348, -1, -12.7225, 7.16713, 18.933, -153.011, -95.2789, 98.8505
1.352, -1, -12.802, 7.14588, 18.9383, -153.035, -95.2702, 98.7064
1.356, -1, -12.8815, 7.12462, 18.9435, -153.06, -95.2615, 98.5624
1.36, -1, -12.961, 7.10336, 18.9488, -153.085, -95.2527, 98.4183
1.364, -1, -13.0405, 7.0821, 18.954, -153.11, -95.244, 98.2743
1.368, -1, -13.1201, 7.06083, 18.9593, -153.134, -95.2353, 98.1302
1.372, -1, -13.1996, 7.03957, 18.9645, -153.159, -95.2266, 97.9861
1.376, -1, -13.2792, 7.01829, 18.9698, -153.184, -95.2178, 97.8419
1.38, -1, -13.3588, 6.99702, 18.9751, -153.208, -95.2091, 97.6978
1.384, -1, -13.4383, 6.97574, 18.9803, -153.233, -95.2004, 97.5536
1.388, -1, -13.5179, 6.95447, 18.9856, -153.258, -95.1916, 97.4094
1.392, -1, -13.5975, 6.93318, 18.9908, -153.283, -95.1829, 97.2652
1.396, -1, -13.6771, 6.9119, 18.9961, -153.307, -95.1742, 97.121
1.4, -1, -13.7567, 6.89061, 19.0014, -153.332, -95.1654, 96.9768
1.404, -1, -13.8364, 6.86932, 19.0066, -153.357, -95.1567, 96.8325
1.408, -1, -13.916, 6.84803, 19.0119, -153.382, -95.148, 96.6882
1.412, -1, -13.9956, 6.82673, 19.0171, -153.406, -95.1392, 96.5439
1.416, -1, -14.0753, 6.80544, 19.0224, -153.431, -95.1305, 96.3996
1.42, -1, -14.155, 6.78413, 19.0277, -153.456, -95.1217, 96.2553
1.424, -1, -14.2347, 6.76283, 19.0329, -153.481, -95.113, 96.1109
1.428, -1, -14.3143, 6.74152, 19.0382, -153.505, -95.1043, 95.9666
1.432, -1, -14.394, 6.72021, 19.0435, -153.53, -95.0955, 95.8222
1.436, -1, -14.4738, 6.6989, 19.0487, -153.555, -95.0868, 95.6778
1.44, -1, -14.5535, 6.67759, 19.054, -153.58, -95.078, 95.5334
1.444, -1, -14.6332, 6.65627, 19.0593, -153.605, -95.0693, 95.3889
1.448, -1, -14.7129, 6.63495, 19.0645, -153.629, -95.0605, 95.2444
1.452, -1, -14.7927, 6.61363, 19.0698, -153.654, -95.0518, 95.1
1.456, -1, -14.8725, 6.5923, 19.0751, -153.679, -95.043, 94.9555
1.46, -1, -14.9522, 6.57097, 19.0804, -153.704, -95.0343, 94.8109
1.464, -1, -15.032, 6.54964, 19.0856, -153.729, -95.0255, 94.6664
1.468, -1, -15.1118, 6.52831, 19.0909, -153.753, -95.0168, 94.5219
1.472, -1, -15.1916, 6.50697, 19.0962, -153.778, -95.008, 94.3773
1.476, -1, -15.2714, 6.48563, 19.1014, -153.803, -94.9993, 94.2327
1.48, -1, -15.3512, 6.46429, 19.1067, -153.828, -94.9905, 94.0881
1.484, -1, -15.4311, 6.44294, 19.112, -153.853, -94.9817, 93.9434
1.488, -1, -15.5109, 6.42159, 19.1173, -153.877, -94.973, 93.7988
1.492, -1, -15.5908, 6.40024, 19.1225, -153.902, -94.9642, 93.6541
1.496, -1, -15.6707, 6.37889, 19.1278, -153.927, -94.9555, 93.5094
1.5, -1, -15.7505, 6.35753, 19.1331, -153.952, -94.9467, 93.3647
1.504, -1, -15.8304, 6.33617, 19.1384, -153.977, -94.9379, 93.22
1.508, -1, -15.9103, 6.31481, 19.1437, -154.002, -94.9292, 93.0752
1.512, -1, -15.9902, 6.29344, 19.1489, -154.026, -94.9204, 92.9304
1.516, -1, -16.0702, 6.27207, 19.1542, -154.051, -94.9116, 92.7857
1.52, -1, -16.1501, 6.2507, 19.1595, -154.076, -94.9029, 92.6408
1.524, -1, -16.23, 6.22933, 19.1648, -154.101, -94.8941, 92.496
1.528, -1, -16.31, 6.20795, 19.1701, -154.126, -94.8853, 92.3512
1.532, -1, -16.3899, 6.18657, 19.1753, -154.151, -94.8766, 92.2063
1.536, -1, -16.4699, 6.16519, 19.1806, -154.176, -94.8678, 92.0614
1.54, -1, -16.5499, 6.1438, 19.1859, -154.2, -94.859, 91.9165
1.544, -1, -16.6299, 6.12241, 19.1912, -154.225, -94.8502, 91.7716
1.548, -1, -16.7099, 6.10102, 19.1965, -154.25, -94.8414, 91.6266
1.552, -1, -16.7899, 6.07963, 19.2018, -154.275, -94.8327, 91.4816
1.556, -1, -16.87, 6.05823, 19.2071, -154.3, -94.8239, 91.3367
1.56, -1, -16.95, 6.03683, 19.2124, -154.325, -94.8151, 91.1917
1.564, -1, -17.0301, 6.01542, 19.2176, -154.35, -94.8063, 91.0466
1.568, -1, -17.1101, 5.99402, 19.2229, -154.374, -94.7975, 90.9016
1.572, -1, -17.1902, 5.97261, 19.2282, -154.399, -94.7888, 90.7565
1.576, -1, -17.2703, 5.9512, 19.2335, -154.424, -94.78, 90.6114
1.58, -1, -17.3504, 5.92978, 19.2388, -154.449, -94.7712, 90.4663
1.584, -1, -17.4305, 5.90836, 19.2441, -154.474, -94.7624, 90.3212
1.588, -1, -17.5106, 5.88694, 19.2494, -154.499, -94.7536, 90.176
1.592, -1, -17.5907, 5.86552, 19.2547, -154.524, -94.7448, 90.0309
1.596, -1, -17.6709, 5.84409, 19.26, -154.549, -94.736, 89.8857
1.6, -1, -17.751, 5.82266, 19.2653, -154.574, -94.7272, 89.7405
1.604, -1, -17.8312, 5.80123, 19.2706, -154.599, -94.7184, 89.5953
1.608, -1, -17.9114, 5.77979, 19.2759, -154.624, -94.7096, 89.45
1.612, -1, -17.9915, 5.75835, 19.2812, -154.648, -94.7008, 89.3047
1.616, -1, -18.0717, 5.73691, 19.2865, -154.673, -94.692, 89.1595
1.62, -1, -18.1519, 5.71547, 19.2918, -154.698, -94.6832, 89.0142
1.624, -1, -18.2321, 5.69402, 19.2971, -154.723, -94.6744, 88.8688
1.628, -1, -18.3124, 5.67257, 19.3024, -154.748, -94.6656, 88.7235
1.632, -1, -18.3926, 5.65112, 19.3077, -154.773, -94.6568, 88.5781
1.636, -1, -18.4729, 5.62966, 19.313, -154.798, -94.648, 88.4327
1.64, -1, -18.5531, 5.6082, 19.3183, -154.823, -94.6392, 88.2873
1.644, -1, -18.6334, 5.58674, 19.3236, -154.848, -94.6304, 88.1419
1.648, -1, -18.7137, 5.56528, 19.3289, -154.873, -94.6216, 87.9965
1.652, -1, -18.794, 5.54381, 19.3342, -154.898, -94.6128, 87.851
1.656, -1, -18.8743, 5.52234, 19.3395, -154.923, -94.604, 87.7055
1.66, -1, -18.9546, 5.50086, 19.3448, -154.948, -94.5952, 87.56
1.664, -1, -19.0349, 5.47939, 19.3501, -154.973, -94.5864, 87.4145
1.668, -1, -19.1153, 5.45791, 19.3554, -154.998, -94.5776, 87.2689
1.672, -1, -19.1956, 5.43642, 19.3607, -155.023, -94.5687, 87.1234
1.676, -1, -19.276, 5.41494, 19.366, -155.048, -94.5599, 86.9778
1.68, -1, -19.3563, 5.39345, 19.3713, -155.073, -94.5511, 86.8322
1.684, -1, -19.4367, 5.37196, 19.3767, -155.098, -94.5423, 86.6866
1.688, -1, -19.5171, 5.35046, 19.382, -155.123, -94.5335, 86.5409
1.692, -1, -19.5975, 5.32896, 19.3873, -155.148, -94.5247, 86.3953
1.696, -1, -19.6779, 5.30746, 19.3926, -155.173, -94.5158, 86.2496
1.7, -1, -19.7583, 5.28596, 19.3979, -155.198, -94.507, 86.1039
1.704, -1, -19.8388, 5.26445, 19.4032, -155.223, -94.4982, 85.9581
1.708, -1, -19.9192, 5.24294, 19.4085, -155.248, -94.4893, 85.8124
1.712, -1, -19.9997, 5.22143, 19.4139, -155.273, -94.4805, 85.6666
1.716, -1, -20.0802, 5.19992, 19.4192, -155.298, -94.4717, 85.5208
1.72, -1, -20.1606, 5.1784, 19.4245, -155.323, -94.4629, 85.375
1.724, -1, -20.2411, 5.15688, 19.4298, -155.348, -94.454, 85.2292
1.728, -1, -20.3216, 5.13535, 19.4351, -155.373, -94.4452, 85.0834
1.732, -1, -20.4022, 5.11383, 19.4405, -155.398, -94.4364, 84.9375
1.736, -1, -20.4827, 5.0923, 19.4458, -155.423, -94.4275, 84.7916
1.74, -1, -20.5632, 5.07076, 19.4511, -155.448, -94.4187, 84.6457
1.744, -1, -20.6438, 5.04923, 19.4564, -155.473, -94.4099, 84.4998
1.748, -1, -20.7243, 5.02769, 19.4617, -155.498, -94.401, 84.3538
1.752, -1, -20.8049, 5.00615, 19.4671, -155.523, -94.3922, 84.2079
1.756, -1, -20.8855, 4.9846, 19.4724, -155.548, -94.3833, 84.0619
1.76, -1, -20.9661, 4.96305, 19.4777, -155.573, -94.3745, 83.9159
1.764, -1, -21.0467, 4.9415, 19.483, -155.598, -94.3657, 83.7698
1.768, -1, -21.1273, 4.91995, 19.4884, -155.623, -94.3568, 83.6238
1.772, -1, -21.2079, 4.89839, 19.4937, -155.648, -94.348, 83.4777
1.776, -1, -21.2886, 4.87683, 19.499, -155.673, -94.3391, 83.3316
1.78, -1, -21.3692, 4.85527, 19.5043, -155.698, -94.3303, 83.1855
1.784, -1, -21.4499, 4.8337, 19.5097, -155.723, -94.3214, 83.0394
1.788, -1, -21.5305, 4.81213, 19.515, -155.748, -94.3126, 82.8933
1.792, -1, -21.6112, 4.79056, 19.5203, -155.774, -94.3037, 82.7471
1.796, -1, -21.6919, 4.76898, 19.5257, -155.799, -94.2949, 82.6009
1.8, -1, -21.7726, 4.74741, 19.531, -155.824, -94.286, 82.4547
1.804, -1, -21.8533, 4.72582, 19.5363, -155.849, -94.2772, 82.3084
1.808, -1, -21.9341, 4.70424, 19.5417, -155.874, -94.2683, 82.1622
1.812, -1, -22.0148, 4.68265, 19.547, -155.899, -94.2595, 82.0159
1.816, -1, -22.0956, 4.66106, 19.5523, -155.924, -94.2506, 81.8696
1.82, -1, -22.1763, 4.63947, 19.5577, -155.949, -94.2417, 81.7233
1.824, -1, -22.2571, 4.61787, 19.563, -155.974, -94.2329, 81.577
1.828, -1, -22.3379, 4.59627, 19.5684, -155.999, -94.224, 81.4306
1.832, -1, -22.4187, 4.57467, 19.5737, -156.025, -94.2151, 81.2843
1.836, -1, -22.4995, 4.55306, 19.579, -156.05, -94.2063, 81.1379
1.84, -1, -22.5803, 4.53146, 19.5844, -156.075, -94.1974, 80.9914
1.844, -1, -22.6611, 4.50984, 19.5897, -156.1, -94.1885, 80.845
1.848, -1, -22.742, 4.48823, 19.5951, -156.125, -94.1797, 80.6985
1.852, -1, -22.8228, 4.46661, 19.6004, -156.15, -94.1708, 80.5521
1.856, -1, -22.9037, 4.44499, 19.6057, -156.175, -94.1619, 80.4055
1.86, -1, -22.9846, 4.42337, 19.6111, -156.2, -94.1531, 80.259
1.864, -1, -23.0655, 4.40174, 19.6164, -156.226, -94.1442, 80.1125
1.868, -1, -23.1464, 4.38011, 19.6218, -156.251, -94.1353, 79.9659
1.872, -1, -23.2273, 4.35847, 19.6271, -156.276, -94.1264, 79.8193
1.876, -1, -23.3082, 4.33684, 19.6325, -156.301, -94.1175, 79.6727
1.88, -1, -23.3891, 4.3152, 19.6378, -156.326, -94.1087, 79.5261
1.884, -1, -23.4701, 4.29355, 19.6432, -156.351, -94.0998, 79.3794
1.888, -1, -23.5511, 4.27191, 19.6485, -156.377, -94.0909, 79.2328
1.892, -1, -23.632, 4.25026, 19.6539, -156.402, -94.082, 79.0861
1.896, -1, -23.713, 4.2286, 19.6592, -156.427, -94.0731, 78.9393
1.9, -1, -23.794, 4.20695, 19.6646, -156.452, -94.0643, 78.7926
1.904, -1, -23.875, 4.18529, 19.6699, -156.477, -94.0554, 78.6458
1.908, -1, -23.956, 4.16363, 19.6753, -156.502, -94.0465, 78.4991
1.912, -1, -24.0371, 4.14196, 19.6806, -156.528, -94.0376, 78.3523
1.916, -1, -24.1181, 4.12029, 19.686, -156.553, -94.0287, 78.2054
1.92, -1, -24.1992, 4.09862, 19.6913, -156.578, -94.0198, 78.0586
1.924, -1, -24.2802, 4.07694, 19.6967, -156.603, -94.0109, 77.9117
1.928, -1, -24.3613, 4.05527, 19.702, -156.628, -94.002, 77.7648
1.932, -1, -24.4424, 4.03358, 19.7074, -156.654, -93.9931, 77.6179
1.936, -1, -24.5235, 4.0119, 19.7128, -156.679, -93.9842, 77.471
1.94, -1, -24.6046, 3.99021, 19.7181, -156.704, -93.9753, 77.324
1.944, -1, -24.6857, 3.96852, 19.7235, -156.729, -93.9664, 77.1771
1.948, -1, -24.7669, 3.94683, 19.7288, -156.754, -93.9575, 77.0301
1.952, -1, -24.848, 3.92513, 19.7342, -156.78, -93.9486, 76.883
1.956, -1, -24.9292, 3.90343, 19.7396, -156.805, -93.9397, 76.736
1.96, -1, -25.0104, 3.88173, 19.7449, -156.83, -93.9308, 76.5889
1.964, -1, -25.0916, 3.86002, 19.7503, -156.855, -93.9219, 76.4419
1.968, -1, -25.1728, 3.83831, 19.7557, -156.881, -93.913, 76.2948
1.972, -1, -25.254, 3.8166, 19.761, -156.906, -93.9041, 76.1476
1.976, -1, -25.3352, 3.79488, 19.7664, -156.931, -93.8952, 76.0005
1.98, -1, -25.4164, 3.77316, 19.7718, -156.956, -93.8863, 75.8533
1.984, -1, -25.4977, 3.75144, 19.7771, -156.982, -93.8773, 75.7061
1.988, -1, -25.5789, 3.72971, 19.7825, -157.007, -93.8684, 75.5589
1.992, -1, -25.6602, 3.70798, 19.7879, -157.032, -93.8595, 75.4117
1.996, -1, -25.7415, 3.68625, 19.7932, -157.057, -93.8506, 75.2644
1.999, -1, -25.8228, 3.66452, 19.7986, -157.083, -93.8417, 75.1171
2.004, -1, -25.9041, 3.64278, 19.804, -157.108, -93.8328, 74.9699
2.008, -1, -25.9854, 3.62104, 19.8094, -157.133, -93.8238, 74.8225
2.012, -1, -26.0667, 3.59929, 19.8147, -157.158, -93.8149, 74.6752
2.015, -1, -26.1481, 3.57754, 19.8201, -157.184, -93.806, 74.5278
2.019, -1, -26.2294, 3.55579, 19.8255, -157.209, -93.7971, 74.3804
2.024, -1, -26.3108, 3.53404, 19.8309, -157.234, -93.7881, 74.233
2.028, -1, -26.3922, 3.51228, 19.8362, -157.26, -93.7792, 74.0856
2.031, -1, -26.4735, 3.49052, 19.8416, -157.285, -93.7703, 73.9382
2.036, -1, -26.5549, 3.46875, 19.847, -157.31, -93.7614, 73.7907
2.04, -1, -26.6364, 3.44699, 19.8524, -157.335, -93.7524, 73.6432
2.044, -1, -26.7178, 3.42522, 19.8578, -157.361, -93.7435, 73.4957
2.048, -1, -26.7992, 3.40344, 19.8631, -157.386, -93.7346, 73.3482
2.051, -1, -26.8807, 3.38167, 19.8685, -157.411, -93.7256, 73.2006
2.055, -1, -26.9621, 3.35989, 19.8739, -157.437, -93.7167, 73.053
2.06, -1, -27.0436, 3.3381, 19.8793, -157.462, -93.7077, 72.9054
2.064, -1, -27.1251, 3.31632, 19.8847, -157.487, -93.6988, 72.7578
2.068, -1, -27.2066, 3.29453, 19.8901, -157.513, -93.6899, 72.6101
2.071, -1, -27.2881, 3.27273, 19.8954, -157.538, -93.6809, 72.4625
2.076, -1, -27.3696, 3.25094, 19.9008, -157.563, -93.672, 72.3148
2.08, -1, -27.4511, 3.22914, 19.9062, -157.589, -93.663, 72.1671
2.084, -1, -27.5327, 3.20734, 19.9116, -157.614, -93.6541, 72.0194
2.087, -1, -27.6142, 3.18553, 19.917, -157.639, -93.6451, 71.8716
2.092, -1, -27.6958, 3.16372, 19.9224, -157.665, -93.6362, 71.7238
2.096, -1, -27.7774, 3.14191, 19.9278, -157.69, -93.6272, 71.576
2.1, -1, -27.859, 3.12009, 19.9332, -157.716, -93.6183, 71.4282
2.104, -1, -27.9406, 3.09828, 19.9386, -157.741, -93.6093, 71.2804
2.107, -1, -28.0222, 3.07646, 19.9439, -157.766, -93.6004, 71.1325
2.111, -1, -28.1038, 3.05463, 19.9493, -157.792, -93.5914, 70.9846
2.116, -1, -28.1855, 3.0328, 19.9547, -157.817, -93.5825, 70.8367
2.12, -1, -28.2671, 3.01097, 19.9601, -157.842, -93.5735, 70.6888
2.124, -1, -28.3488, 2.98914, 19.9655, -157.868, -93.5646, 70.5409
2.127, -1, -28.4304, 2.9673, 19.9709, -157.893, -93.5556, 70.3929
2.132, -1, -28.5121, 2.94546, 19.9763, -157.919, -93.5466, 70.2449
2.136, -1, -28.5938, 2.92361, 19.9817, -157.944, -93.5377, 70.0969
2.14, -1, -28.6755, 2.90177, 19.9871, -157.969, -93.5287, 69.9489
2.143, -1, -28.7573, 2.87992, 19.9925, -157.995, -93.5197, 69.8008
2.148, -1, -28.839, 2.85806, 19.9979, -158.02, -93.5108, 69.6527
2.152, -1, -28.9208, 2.83621, 20.0033, -158.046, -93.5018, 69.5046
2.156, -1, -29.0025, 2.81435, 20.0087, -158.071, -93.4928, 69.3565
2.16, -1, -29.0843, 2.79248, 20.0141, -158.096, -93.4839, 69.2084
2.163, -1, -29.1661, 2.77062, 20.0195, -158.122, -93.4749, 69.0602
2.168, -1, -29.2479, 2.74875, 20.0249, -158.147, -93.4659, 68.912
2.172, -1, -29.3297, 2.72687, 20.0303, -158.173, -93.4569, 68.7638
2.176, -1, -29.4115, 2.705, 20.0357, -158.198, -93.448, 68.6156
2.179, -1, -29.4933, 2.68312, 20.0411, -158.224, -93.439, 68.4673
2.184, -1, -29.5752, 2.66124, 20.0466, -158.249, -93.43, 68.319
2.188, -1, -29.657, 2.63935, 20.052, -158.274, -93.421, 68.1708
2.192, -1, -29.7389, 2.61746, 20.0574, -158.3, -93.412, 68.0224
2.196, -1, -29.8208, 2.59557, 20.0628, -158.325, -93.4031, 67.8741
2.199, -1, -29.9027, 2.57367, 20.0682, -158.351, -93.3941, 67.7257
2.204, -1, -29.9846, 2.55177, 20.0736, -158.376, -93.3851, 67.5773
2.208, -1, -30.0665, 2.52987, 20.079, -158.402, -93.3761, 67.4289
2.212, -1, -30.1484, 2.50797, 20.0844, -158.427, -93.3671, 67.2805
2.216, -1, -30.2304, 2.48606, 20.0898, -158.453, -93.3581, 67.1321
2.219, -1, -30.3123, 2.46414, 20.0953, -158.478, -93.3491, 66.9836
2.224, -1, -30.3943, 2.44223, 20.1007, -158.504, -93.3401, 66.8351
2.228, -1, -30.4763, 2.42031, 20.1061, -158.529, -93.3311, 66.6866
2.232, -1, -30.5583, 2.39839, 20.1115, -158.555, -93.3222, 66.538
2.235, -1, -30.6403, 2.37646, 20.1169, -158.58, -93.3132, 66.3895
2.24, -1, -30.7223, 2.35453, 20.1224, -158.606, -93.3041, 66.2409
2.244, -1, -30.8043, 2.3326, 20.1278, -158.631, -93.2952, 66.0922
2.248, -1, -30.8864, 2.31066, 20.1332, -158.657, -93.2861, 65.9436
2.252, -1, -30.9684, 2.28873, 20.1386, -158.682, -93.2771, 65.795
2.255, -1, -31.0505, 2.26678, 20.144, -158.708, -93.2681, 65.6463
2.259, -1, -31.1326, 2.24484, 20.1495, -158.733, -93.2591, 65.4976
2.264, -1, -31.2146, 2.22289, 20.1549, -158.759, -93.2501, 65.3489
2.268, -1, -31.2968, 2.20094, 20.1603, -158.784, -93.2411, 65.2001
2.272, -1, -31.3789, 2.17898, 20.1657, -158.81, -93.2321, 65.0513
2.275, -1, -31.461, 2.15702, 20.1712, -158.835, -93.2231, 64.9025
2.28, -1, -31.5431, 2.13506, 20.1766, -158.861, -93.2141, 64.7537
2.284, -1, -31.6253, 2.11309, 20.182, -158.886, -93.2051, 64.6049
2.288, -1, -31.7075, 2.09112, 20.1874, -158.912, -93.1961, 64.456
2.291, -1, -31.7896, 2.06915, 20.1929, -158.937, -93.187, 64.3072
2.296, -1, -31.8718, 2.04718, 20.1983, -158.963, -93.178, 64.1582
2.3, -1, -31.954, 2.0252, 20.2037, -158.988, -93.169, 64.0093
2.304, -1, -32.0363, 2.00322, 20.2092, -159.014, -93.16, 63.8604
2.308, -1, -32.1185, 1.98123, 20.2146, -159.04, -93.151, 63.7114
2.311, -1, -32.2007, 1.95924, 20.22, -159.065, -93.142, 63.5624
2.316, -1, -32.283, 1.93725, 20.2255, -159.091, -93.1329, 63.4134
2.32, -1, -32.3652, 1.91525, 20.2309, -159.116, -93.1239, 63.2644
2.324, -1, -32.4475, 1.89325, 20.2363, -159.142, -93.1149, 63.1153
2.328, -1, -32.5298, 1.87125, 20.2418, -159.167, -93.1059, 62.9662
2.331, -1, -32.6121, 1.84925, 20.2472, -159.193, -93.0968, 62.8171
2.336, -1, -32.6944, 1.82724, 20.2527, -159.219, -93.0878, 62.668
2.34, -1, -32.7768, 1.80523, 20.2581, -159.244, -93.0788, 62.5188
2.344, -1, -32.8591, 1.78321, 20.2635, -159.27, -93.0697, 62.3696
2.347, -1, -32.9415, 1.76119, 20.269, -159.295, -93.0607, 62.2204
2.352, -1, -33.0238, 1.73917, 20.2744, -159.321, -93.0517, 62.0712
2.356, -1, -33.1062, 1.71714, 20.2799, -159.347, -93.0426, 61.922
2.36, -1, -33.1886, 1.69512, 20.2853, -159.372, -93.0336, 61.7727
2.364, -1, -33.271, 1.67308, 20.2908, -159.398, -93.0245, 61.6234
2.367, -1, -33.3534, 1.65105, 20.2962, -159.423, -93.0155, 61.4741
2.372, -1, -33.4358, 1.62901, 20.3016, -159.449, -93.0064, 61.3248
2.376, -1, -33.5183, 1.60697, 20.3071, -159.475, -92.9974, 61.1754
2.38, -1, -33.6007, 1.58492, 20.3125, -159.5, -92.9884, 61.0261
2.383, -1, -33.6832, 1.56287, 20.318, -159.526, -92.9793, 60.8767
2.388, -1, -33.7657, 1.54082, 20.3234, -159.551, -92.9703, 60.7272
2.392, -1, -33.8482, 1.51877, 20.3289, -159.577, -92.9612, 60.5778
2.396, -1, -33.9307, 1.49671, 20.3343, -159.603, -92.9522, 60.4283
2.4, -1, -34.0132, 1.47465, 20.3398, -159.628, -92.9431, 60.2788
2.403, -1, -34.0957, 1.45258, 20.3452, -159.654, -92.9341, 60.1293
2.408, -1, -34.1782, 1.43051, 20.3507, -159.68, -92.925, 59.9798
2.412, -1, -34.2608, 1.40844, 20.3562, -159.705, -92.9159, 59.8302
2.416, -1, -34.3434, 1.38636, 20.3616, -159.731, -92.9069, 59.6807
2.42, -1, -34.4259, 1.36429, 20.3671, -159.757, -92.8978, 59.5311
2.423, -1, -34.5085, 1.3422, 20.3725, -159.782, -92.8888, 59.3814
2.428, -1, -34.5911, 1.32012, 20.378, -159.808, -92.8797, 59.2318
2.432, -1, -34.6737, 1.29803, 20.3834, -159.834, -92.8706, 59.0821
2.436, -1, -34.7564, 1.27594, 20.3889, -159.859, -92.8616, 58.9324
2.439, -1, -34.839, 1.25384, 20.3944, -159.885, -92.8525, 58.7827
2.444, -1, -34.9217, 1.23174, 20.3998, -159.911, -92.8434, 58.633
2.448, -1, -35.0043, 1.20964, 20.4053, -159.937, -92.8344, 58.4832
2.452, -1, -35.087, 1.18754, 20.4107, -159.962, -92.8253, 58.3334
2.456, -1, -35.1697, 1.16543, 20.4162, -159.988, -92.8162, 58.1836
2.459, -1, -35.2524, 1.14332, 20.4217, -160.014, -92.8071, 58.0338
2.464, -1, -35.3351, 1.12121, 20.4271, -160.039, -92.7981, 57.8839
2.468, -1, -35.4176, 1.09912, 20.4326, -160.065, -92.789, 57.7341
2.472, -1, -35.4998, 1.07708, 20.4381, -160.091, -92.7799, 57.5842
2.476, -1, -35.5816, 1.05512, 20.4437, -160.116, -92.7708, 57.4344
2.479, -1, -35.6629, 1.03329, 20.4493, -160.142, -92.7618, 57.2847
2.484, -1, -35.7434, 1.01162, 20.455, -160.168, -92.7527, 57.1353
2.488, -1, -35.8231, 0.99016, 20.4608, -160.193, -92.7437, 56.9863
2.492, -1, -35.9018, 0.968943, 20.4666, -160.219, -92.7347, 56.8381
2.495, -1, -35.9795, 0.948033, 20.4725, -160.244, -92.7257, 56.691
2.5, -1, -36.056, 0.927506, 20.4784, -160.269, -92.7169, 56.5453
2.504, -1, -36.1308, 0.907455, 20.4844, -160.293, -92.7082, 56.4017
2.508, -1, -36.2037, 0.887967, 20.4903, -160.318, -92.6996, 56.2606
2.512, -1, -36.2743, 0.86912, 20.4963, -160.341, -92.6912, 56.1228
2.515, -1, -36.3425, 0.850975, 20.5022, -160.364, -92.683, 55.989
2.52, -1, -36.408, 0.833573, 20.5079, -160.386, -92.6751, 55.8601
2.524, -1, -36.4706, 0.816948, 20.5133, -160.407, -92.6676, 55.7367
2.528, -1, -36.5302, 0.801133, 20.5185, -160.427, -92.6605, 55.6198
2.531, -1, -36.5866, 0.786178, 20.5232, -160.446, -92.6538, 55.5101
2.536, -1, -36.6395, 0.772139, 20.5276, -160.463, -92.6476, 55.4081
2.54, -1, -36.6888, 0.759062, 20.5314, -160.48, -92.6419, 55.3144
2.544, -1, -36.7343, 0.74697, 20.5348, -160.494, -92.6367, 55.2294
2.548, -1, -36.7761, 0.735855, 20.5376, -160.507, -92.6321, 55.1531
2.551, -1, -36.8143, 0.725688, 20.5398, -160.519, -92.628, 55.0858
2.556, -1, -36.8489, 0.716443, 20.5415, -160.529, -92.6245, 55.0272
2.56, -1, -36.8801, 0.708103, 20.5427, -160.537, -92.6215, 54.9771
2.564, -1, -36.9079, 0.700658, 20.5434, -160.545, -92.619, 54.9348
2.568, -1, -36.9323, 0.694099, 20.5438, -160.551, -92.6169, 54.8999
2.571, -1, -36.9535, 0.688407, 20.5438, -160.556, -92.6152, 54.8714
2.576, -1, -36.9717, 0.683543, 20.5436, -160.56, -92.6139, 54.8487
2.58, -1, -36.9872, 0.679445, 20.5433, -160.563, -92.6129, 54.8309
2.584, -1, -37.0002, 0.676034, 20.5429, -160.565, -92.6121, 54.8173
2.587, -1, -37.0112, 0.67323, 20.5424, -160.567, -92.6115, 54.8072
2.592, -1, -37.0203, 0.670965, 20.5419, -160.568, -92.6111, 54.7997
2.596, -1, -37.0277, 0.669174, 20.5414, -160.569, -92.6108, 54.7944
2.6, -1, -37.0336, 0.667799, 20.541, -160.57, -92.6106, 54.7907
2.604, 2, -37.038, 0.666779, 20.5407, -160.57, -92.6105, 54.7881
2.607, 2, -37.0413, 0.66605, 20.5404, -160.571, -92.6104, 54.7864
2.612, 2, -37.0436, 0.665546, 20.5402, -160.571, -92.6103, 54.7852
2.616, 2, -37.0451, 0.665202, 20.5401, -160.571, -92.6103, 54.7844
2.62, 2, -37.0462, 0.664969, 20.54, -160.571, -92.6102, 54.7839
2.624, 2, -37.0469, 0.664811, 20.54, -160.571, -92.6102, 54.7835
2.627, 2, -37.0474, 0.664704, 20.5399, -160.571, -92.6102, 54.7832
2.632, 2, -37.0477, 0.664632, 20.5399, -160.571, -92.6102, 54.7831
2.636, 2, -37.048, 0.664583, 20.5399, -160.571, -92.6102, 54.783
2.64, 2, -37.0481, 0.66455, 20.5399, -160.571, -92.6102, 54.7829
2.643, 2, -37.0482, 0.664527, 20.5399, -160.571, -92.6102, 54.7828
2.648, 2, -37.0483, 0.664512, 20.5399, -160.571, -92.6102, 54.7828
2.652, 2, -37.0483, 0.664502, 20.5399, -160.571, -92.6102, 54.7828
2.656, 2, -37.0484, 0.664495, 20.5399, -160.571, -92.6102, 54.7827
2.66, 2, -37.0484, 0.66449, 20.5399, -160.571, -92.6102, 54.7827
2.663, 2, -37.0484, 0.664487, 20.5399, -160.571, -92.6102, 54.7827
2.668, 2, -37.0484, 0.664485, 20.5399, -160.571, -92.6102, 54.7827
2.672, 2, -37.0484, 0.664483, 20.5399, -160.571, -92.6102, 54.7827
2.676, 2, -37.0484, 0.664482, 20.5399, -160.571, -92.6102, 54.7827
2.679, 2, -37.0484, 0.664481, 20.5399, -160.571, -92.6102, 54.7827
2.684, 2, -37.0484, 0.664481, 20.5399, -160.571, -92.6102, 54.7827
2.688, 2, -37.0484, 0.664481, 20.5399, -160.571, -92.6102, 54.7827
2.692, 2, -37.0484, 0.66448, 20.5399, -160.571, -92.6102, 54.7827
2.696, 2, -37.0484, 0.66448, 20.5399, -160.571, -92.6102, 54.7827
2.699, 2, -37.0484, 0.66448, 20.5399, -160.571, -92.6102, 54.7827
2.704, 2, -37.0484, 0.66448, 20.5399, -160.571, -92.6102, 54.7827
2.708, 2, -37.0484, 0.66448, 20.5399, -160.571, -92.6102, 54.7827
2.712, 2, -37.0484, 0.66448, 20.5399, -160.571, -92.6102, 54.7827
2.716, 2, -37.0484, 0.66448, 20.5399, -160.571, -92.6102, 54.7827
2.719, 2, -37.0484, 0.66448, 20.5399, -160.571, -92.6102, 54.7827
2.724, 2, -37.0484, 0.66448, 20.5399, -160.571, -92.6102, 54.7827
2.728, 2, -37.0484, 0.66448, 20.5399, -160.571, -92.6102, 54.7827
2.732, 2, -37.0484, 0.66448, 20.5399, -160.571, -92.6102, 54.7827
2.735, 2, -37.0484, 0.66448, 20.5399, -160.571, -92.6102, 54.7827
2.74, 2, -37.0484, 0.66448, 20.5399, -160.571, -92.6102, 54.7827
2.744, 2, -37.0484, 0.66448, 20.5399, -160.571, -92.6102, 54.7827
2.748, 2, -37.0484, 0.66448, 20.5399, -160.571, -92.6102, 54.7827
2.752, 2, -37.0484, 0.66448, 20.5399, -160.571, -92.6102, 54.7827
2.755, 2, -37.0484, 0.66448, 20.5399, -160.571, -92.6102, 54.7827
2.76, 2, -37.0484, 0.66448, 20.5399, -160.571, -92.6102, 54.7827
2.764, 2, -37.0484, 0.66448, 20.5399, -160.571, -92.6102, 54.7827
2.768, 2, -37.0484, 0.66448, 20.5399, -160.571, -92.6102, 54.7827
2.772, 2, -37.0484, 0.66448, 20.5399, -160.571, -92.6102, 54.7827
2.775, 2, -37.0484, 0.66448, 20.5399, -160.571, -92.6102, 54.7827
2.78, 2, -37.0484, 0.66448, 20.5399, -160.571, -92.6102, 54.7827
2.784, 2, -37.0484, 0.66448, 20.5399, -160.571, -92.6102, 54.7827
2.788, 2, -37.0484, 0.66448, 20.5399, -160.571, -92.6102, 54.7827
2.791, 2, -37.0484, 0.66448, 20.5399, -160.571, -92.6102, 54.7827
2.796, 2, -37.0484, 0.66448, 20.5399, -160.571, -92.6102, 54.7827
2.8, 2, -37.0484, 0.66448, 20.5399, -160.571, -92.6102, 54.7827
2.804, 2, -37.0484, 0.66448, 20.5399, -160.571, -92.6102, 54.7827
2.808, 2, -37.0484, 0.66448, 20.5399, -160.571, -92.6102, 54.7827
2.811, 2, -37.0484, 0.66448, 20.5399, -160.571, -92.6102, 54.7827
2.816, 2, -37.0484, 0.66448, 20.5399, -160.571, -92.6102, 54.7827
2.82, 2, -37.0484, 0.66448, 20.5399, -160.571, -92.6102, 54.7827
2.824, 2, -37.0484, 0.66448, 20.5399, -160.571, -92.6102, 54.7827
2.828, 2, -37.0484, 0.66448, 20.5399, -160.571, -92.6102, 54.7827
2.831, 2, -37.0484, 0.66448, 20.5399, -160.571, -92.6102, 54.7827
2.836, 2, -37.0484, 0.66448, 20.5399, -160.571, -92.6102, 54.7827
2.84, 2, -37.0484, 0.66448, 20.5399, -160.571, -92.6102, 54.7827
2.844, 2, -37.0484, 0.66448, 20.5399, -160.571, -92.6102, 54.7827
2.847, 2, -37.0484, 0.66448, 20.5399, -160.571, -92.6102, 54.7827
2.852, 2, -37.0484, 0.66448, 20.5399, -160.571, -92.6102, 54.7827
2.856, 2, -37.0484, 0.66448, 20.5399, -160.571, -92.6102, 54.7827
2.86, 2, -37.0484, 0.66448, 20.5399, -160.571, -92.6102, 54.7827
2.864, 2, -37.0484, 0.66448, 20.5399, -160.571, -92.6102, 54.7827
2.867, 2, -37.0484, 0.66448, 20.5399, -160.571, -92.6102, 54.7827
2.872, 2, -37.0484, 0.66448, 20.5399, -160.571, -92.6102, 54.7827
2.876, 2, -37.0484, 0.66448, 20.5399, -160.571, -92.6102, 54.7827
2.88, 2, -37.0484, 0.66448, 20.5399, -160.571, -92.6102, 54.7827
2.883, 2, -37.0484, 0.66448, 20.5399, -160.571, -92.6102, 54.7827
2.888, 2, -37.0484, 0.66448, 20.5399, -160.571, -92.6102, 54.7827
2.892, 2, -37.0484, 0.66448, 20.5399, -160.571, -92.6102, 54.7827
2.896, 2, -37.0484, 0.66448, 20.5399, -160.571, -92.6102, 54.7827
2.9, 2, -37.0484, 0.66448, 20.5399, -160.571, -92.6102, 54.7827
2.903, 2, -37.0484, 0.66448, 20.5399, -160.571, -92.6102, 54.7827
2.908, 2, -37.0484, 0.66448, 20.5399, -160.571, -92.6102, 54.7827
2.912, 2, -37.0484, 0.66448, 20.5399, -160.571, -92.6102, 54.7827
2.916, 2, -37.0484, 0.66448, 20.5399, -160.571, -92.6102, 54.7827
2.92, 2, -37.0484, 0.66448, 20.5399, -160.571, -92.6102, 54.7827
2.923, 2, -37.0484, 0.66448, 20.5399, -160.571, -92.6102, 54.7827
2.928, 2, -37.0484, 0.66448, 20.5399, -160.571, -92.6102, 54.7827
2.932, 2, -37.0484, 0.66448, 20.5399, -160.571, -92.6102, 54.7827
2.936, 2, -37.0484, 0.66448, 20.5399, -160.571, -92.6102, 54.7827
2.939, 2, -37.0484, 0.66448, 20.5399, -160.571, -92.6102, 54.7827
2.944, 2, -37.0484, 0.66448, 20.5399, -160.571, -92.6102, 54.7827
2.948, 2, -37.0484, 0.66448, 20.5399, -160.571, -92.6102, 54.7827
2.952, 2, -37.0484, 0.66448, 20.5399, -160.571, -92.6102, 54.7827
2.956, 2, -37.0484, 0.66448, 20.5399, -160.571, -92.6102, 54.7827
2.959, 2, -37.0484, 0.66448, 20.5399, -160.571, -92.6102, 54.7827
2.964, 2, -37.0484, 0.66448, 20.5399, -160.571, -92.6102, 54.7827
2.968, 2, -37.0484, 0.66448, 20.5399, -160.571, -92.6102, 54.7827
2.972, 2, -37.0484, 0.66448, 20.5399, -160.571, -92.6102, 54.7827
2.976, 2, -37.0484, 0.66448, 20.5399, -160.571, -92.6102, 54.7827
2.98, 2, -37.0484, 0.66448, 20.5399, -160.571, -92.6102, 54.7827
2.984, 2, -37.0484, 0.66448, 20.5399, -160.571, -92.6102, 54.7827
2.988, 2, -37.0484, 0.66448, 20.5399, -160.571, -92.6102, 54.7827
2.992, 2, -37.0484, 0.66448, 20.5399, -160.571, -92.6102, 54.7827
2.995, 2, -37.0484, 0.66448, 20.5399, -160.571, -92.6102, 54.7827
3, 2, -37.0484, 0.66448, 20.5399, -160.571, -92.6102, 54.7827
3.004, 2, -37.0484, 0.66448, 20.5399, -160.571, -92.6102, 54.7827
3.008, 2, -37.0484, 0.66448, 20.5399, -160.571, -92.6102, 54.7827
3.012, 2, -37.0484, 0.66448, 20.5399, -160.571, -92.6102, 54.7827
3.015, 2, -37.0484, 0.66448, 20.5399, -160.571, -92.6102, 54.7827
3.02, 2, -37.0484, 0.66448, 20.5399, -160.571, -92.6102, 54.7827
3.024, 2, -37.0484, 0.66448, 20.5399, -160.571, -92.6102, 54.7827
3.028, 2, -37.0484, 0.66448, 20.5399, -160.571, -92.6102, 54.7827
3.031, 2, -37.0484, 0.66448, 20.5399, -160.571, -92.6102, 54.7827
3.036, 2, -37.0484, 0.66448, 20.5399, -160.571, -92.6102, 54.7827
3.04, 2, -37.0484, 0.66448, 20.5399, -160.571, -92.6102, 54.7827
3.044, 2, -37.0484, 0.66448, 20.5399, -160.571, -92.6102, 54.7827
3.048, 2, -37.0484, 0.66448, 20.5399, -160.571, -92.6102, 54.7827
3.051, 2, -37.0484, 0.66448, 20.5399, -160.571, -92.6102, 54.7827
3.056, 2, -37.0484, 0.66448, 20.5399, -160.571, -92.6102, 54.7827
3.06, 2, -37.0484, 0.66448, 20.5399, -160.571, -92.6102, 54.7827
3.064, 2, -37.0484, 0.66448, 20.5399, -160.571, -92.6102, 54.7827
3.068, 2, -37.0484, 0.66448, 20.5399, -160.571, -92.6102, 54.7827
3.071, 2, -37.0484, 0.66448, 20.5399, -160.571, -92.6102, 54.7827
3.076, 2, -37.0484, 0.66448, 20.5399, -160.571, -92.6102, 54.7827
3.08, 2, -37.0484, 0.66448, 20.5399, -160.571, -92.6102, 54.7827
3.084, 2, -37.0484, 0.66448, 20.5399, -160.571, -92.6102, 54.7827
3.087, 2, -37.0484, 0.66448, 20.5399, -160.571, -92.6102, 54.7827
3.092, 2, -37.0484, 0.66448, 20.5399, -160.571, -92.6102, 54.7827
3.096, 2, -37.0484, 0.66448, 20.5399, -160.571, -92.6102, 54.7827
3.1, 2, -37.0484, 0.66448, 20.5399, -160.571, -92.6102, 54.7827
3.104, 2, -37.0484, 0.66448, 20.5399, -160.571, -92.6102, 54.7827
3.107, 2, -37.0484, 0.66448, 20.5399, -160.571, -92.6102, 54.7827
3.112, 2, -37.0484, 0.66448, 20.5399, -160.571, -92.6102, 54.7827
3.116, 2, -37.0484, 0.66448, 20.5399, -160.571, -92.6102, 54.7827
3.12, 2, -37.0484, 0.66448, 20.5399, -160.571, -92.6102, 54.7827
3.124, 2, -37.0484, 0.66448, 20.5399, -160.571, -92.6102, 54.7827
3.128, 2, -37.0484, 0.66448, 20.5399, -160.571, -92.6102, 54.7827
3.132, 2, -37.0484, 0.66448, 20.5399, -160.571, -92.6102, 54.7827
3.136, 2, -37.0484, 0.66448, 20.5399, -160.571, -92.6102, 54.7827
3.14, 2, -37.0484, 0.66448, 20.5399, -160.571, -92.6102, 54.7827
3.143, 2, -37.0484, 0.66448, 20.5399, -160.571, -92.6102, 54.7827
3.148, 2, -37.0484, 0.66448, 20.5399, -160.571, -92.6102, 54.7827
3.152, 2, -37.0484, 0.66448, 20.5399, -160.571, -92.6102, 54.7827
3.156, 2, -37.0484, 0.66448, 20.5399, -160.571, -92.6102, 54.7827
3.16, 2, -37.0484, 0.66448, 20.5399, -160.571, -92.6102, 54.7827
3.163, 2, -37.0484, 0.66448, 20.5399, -160.571, -92.6102, 54.7827
3.168, 2, -37.0484, 0.66448, 20.5399, -160.571, -92.6102, 54.7827
3.172, 2, -37.0484, 0.66448, 20.5399, -160.571, -92.6102, 54.7827
3.176, 2, -37.0484, 0.66448, 20.5399, -160.571, -92.6102, 54.7827
3.179, 2, -37.0484, 0.66448, 20.5399, -160.571, -92.6102, 54.7827
3.184, 2, -37.0484, 0.66448, 20.5399, -160.571, -92.6102, 54.7827
3.188, 2, -37.0484, 0.66448, 20.5399, -160.571, -92.6102, 54.7827
3.192, 2, -37.0484, 0.66448, 20.5399, -160.571, -92.6102, 54.7827
3.196, 2, -37.0484, 0.66448, 20.5399, -160.571, -92.6102, 54.7827
3.199, 2, -37.0484, 0.66448, 20.5399, -160.571, -92.6102, 54.7827
3.204, 2, -37.0484, 0.66448, 20.5399, -160.571, -92.6102, 54.7827
3.208, 2, -37.0484, 0.66448, 20.5399, -160.571, -92.6102, 54.7827
3.212, 2, -37.0484, 0.66448, 20.5399, -160.571, -92.6102, 54.7827
3.216, 2, -37.0484, 0.66448, 20.5399, -160.571, -92.6102, 54.7827
3.22, 2, -37.0484, 0.66448, 20.5399, -160.571, -92.6102, 54.7827
3.224, 2, -37.0484, 0.66448, 20.5399, -160.571, -92.6102, 54.7827
3.228, 2, -37.0484, 0.66448, 20.5399, -160.571, -92.6102, 54.7827
3.232, 2, -37.0484, 0.66448, 20.5399, -160.571, -92.6102, 54.7827
3.235, 2, -37.0484, 0.66448, 20.5399, -160.571, -92.6102, 54.7827
3.24, 2, -37.0484, 0.66448, 20.5399, -160.571, -92.6102, 54.7827
3.244, 2, -37.0484, 0.66448, 20.5399, -160.571, -92.6102, 54.7827
3.248, 2, -37.0484, 0.66448, 20.5399, -160.571, -92.6102, 54.7827
3.252, 2, -37.0484, 0.66448, 20.5399, -160.571, -92.6102, 54.7827
3.255, 2, -37.0484, 0.66448, 20.5399, -160.571, -92.6102, 54.7827
3.26, 2, -37.0484, 0.66448, 20.5399, -160.571, -92.6102, 54.7827
3.264, 2, -37.0484, 0.66448, 20.5399, -160.571, -92.6102, 54.7827
3.268, 2, -37.0484, 0.66448, 20.5399, -160.571, -92.6102, 54.7827
3.272, 2, -37.0484, 0.66448, 20.5399, -160.571, -92.6102, 54.7827
3.276, 2, -37.0484, 0.66448, 20.5399, -160.571, -92.6102, 54.7827
3.28, 2, -37.0484, 0.66448, 20.5399, -160.571, -92.6102, 54.7827
3.284, 2, -37.0484, 0.66448, 20.5399, -160.571, -92.6102, 54.7827
3.288, 2, -37.0484, 0.66448, 20.5399, -160.571, -92.6102, 54.7827
3.291, 2, -37.0484, 0.66448, 20.5399, -160.571, -92.6102, 54.7827
3.296, 2, -37.0484, 0.66448, 20.5399, -160.571, -92.6102, 54.7827
3.3, 2, -37.0484, 0.66448, 20.5399, -160.571, -92.6102, 54.7827
3.304, 2, -37.0484, 0.66448, 20.5399, -160.571, -92.6102, 54.7827
3.308, 2, -37.0484, 0.66448, 20.5399, -160.571, -92.6102, 54.7827
3.312, 2, -37.0484, 0.66448, 20.5399, -160.571, -92.6102, 54.7827
3.316, 2, -37.0484, 0.66448, 20.5399, -160.571, -92.6102, 54.7827
3.32, 2, -37.0484, 0.66448, 20.5399, -160.571, -92.6102, 54.7827
3.324, 2, -37.0484, 0.66448, 20.5399, -160.571, -92.6102, 54.7827
3.328, 2, -37.0484, 0.66448, 20.5399, -160.571, -92.6102, 54.7827
3.332, 2, -37.0484, 0.66448, 20.5399, -160.571, -92.6102, 54.7827
3.336, 2, -37.0484, 0.66448, 20.5399, -160.571, -92.6102, 54.7827
3.34, 2, -37.0484, 0.66448, 20.5399, -160.571, -92.6102, 54.7827
3.344, 2, -37.0484, 0.66448, 20.5399, -160.571, -92.6102, 54.7827
3.347, 2, -37.0484, 0.66448, 20.5399, -160.571, -92.6102, 54.7827
3.352, 2, -37.0484, 0.66448, 20.5399, -160.571, -92.6102, 54.7827
3.356, 2, -37.0484, 0.66448, 20.5399, -160.571, -92.6102, 54.7827
3.36, 2, -37.0484, 0.66448, 20.5399, -160.571, -92.6102, 54.7827
3.364, 2, -37.0484, 0.66448, 20.5399, -160.571, -92.6102, 54.7827
3.368, 2, -37.0484, 0.66448, 20.5399, -160.571, -92.6102, 54.7827
3.372, 2, -37.0484, 0.66448, 20.5399, -160.571, -92.6102, 54.7827
3.376, 2, -37.0484, 0.66448, 20.5399, -160.571, -92.6102, 54.7827
3.38, 2, -37.0484, 0.66448, 20.5399, -160.571, -92.6102, 54.7827
3.383, 2, -37.0484, 0.66448, 20.5399, -160.571, -92.6102, 54.7827
3.388, 2, -37.0484, 0.66448, 20.5399, -160.571, -92.6102, 54.7827
3.392, 2, -37.0484, 0.66448, 20.5399, -160.571, -92.6102, 54.7827
3.396, 2, -37.0484, 0.66448, 20.5399, -160.571, -92.6102, 54.7827
3.4, 2, -37.0484, 0.66448, 20.5399, -160.571, -92.6102, 54.7827
3.403, 2, -37.0484, 0.66448, 20.5399, -160.571, -92.6102, 54.7827
3.408, 2, -37.0484, 0.66448, 20.5399, -160.571, -92.6102, 54.7827
3.412, 2, -37.0484, 0.66448, 20.5399, -160.571, -92.6102, 54.7827
3.416, 2, -37.0484, 0.66448, 20.5399, -160.571, -92.6102, 54.7827
3.42, 2, -37.0484, 0.66448, 20.5399, -160.571, -92.6102, 54.7827
3.424, 2, -37.0484, 0.66448, 20.5399, -160.571, -92.6102, 54.7827
3.428, 2, -37.0484, 0.66448, 20.5399, -160.571, -92.6102, 54.7827
3.432, 2, -37.0484, 0.66448, 20.5399, -160.571, -92.6102, 54.7827
3.436, 2, -37.0484, 0.66448, 20.5399, -160.571, -92.6102, 54.7827
3.439, 2, -37.0484, 0.66448, 20.5399, -160.571, -92.6102, 54.7827
3.444, 2, -37.0484, 0.66448, 20.5399, -160.571, -92.6102, 54.7827
3.448, 2, -37.0484, 0.66448, 20.5399, -160.571, -92.6102, 54.7827
3.452, 2, -37.0484, 0.66448, 20.5399, -160.571, -92.6102, 54.7827
3.456, 2, -37.0484, 0.66448, 20.5399, -160.571, -92.6102, 54.7827
3.46, 2, -37.0484, 0.66448, 20.5399, -160.571, -92.6102, 54.7827
3.464, 2, -37.0484, 0.66448, 20.5399, -160.571, -92.6102, 54.7827
3.468, 2, -37.0484, 0.66448, 20.5399, -160.571, -92.6102, 54.7827
3.472, 2, -37.0484, 0.66448, 20.5399, -160.571, -92.6102, 54.7827
3.476, 2, -37.0484, 0.66448, 20.5399, -160.571, -92.6102, 54.7827
3.48, 2, -37.0484, 0.66448, 20.5399, -160.571, -92.6102, 54.7827
3.484, 2, -37.0484, 0.66448, 20.5399, -160.571, -92.6102, 54.7827
3.488, 2, -37.0484, 0.66448, 20.5399, -160.571, -92.6102, 54.7827
3.492, 2, -37.0484, 0.66448, 20.5399, -160.571, -92.6102, 54.7827
3.495, 2, -37.0484, 0.66448, 20.5399, -160.571, -92.6102, 54.7827
3.5, 2, -37.0484, 0.66448, 20.5399, -160.571, -92.6102, 54.7827
3.504, 2, -37.0484, 0.66448, 20.5399, -160.571, -92.6102, 54.7827
3.508, 2, -37.0484, 0.66448, 20.5399, -160.571, -92.6102, 54.7827
3.512, 2, -37.0484, 0.66448, 20.5399, -160.571, -92.6102, 54.7827
3.516, 2, -37.0484, 0.66448, 20.5399, -160.571, -92.6102, 54.7827
3.52, 2, -37.0484, 0.66448, 20.5399, -160.571, -92.6102, 54.7827
3.524, 2, -37.0484, 0.66448, 20.5399, -160.571, -92.6102, 54.7827
3.528, 2, -37.0484, 0.66448, 20.5399, -160.571, -92.6102, 54.7827
3.531, 2, -37.0484, 0.66448, 20.5399, -160.571, -92.6102, 54.7827
3.536, 2, -37.0484, 0.66448, 20.5399, -160.571, -92.6102, 54.7827
3.54, 2, -37.0484, 0.66448, 20.5399, -160.571, -92.6102, 54.7827
3.544, 2, -37.0484, 0.66448, 20.5399, -160.571, -92.6102, 54.7827
3.548, 2, -37.0484, 0.66448, 20.5399, -160.571, -92.6102, 54.7827
3.552, 2, -37.0484, 0.66448, 20.5399, -160.571, -92.6102, 54.7827
3.556, 2, -37.0484, 0.66448, 20.5399, -160.571, -92.6102, 54.7827
3.56, 2, -37.0484, 0.66448, 20.5399, -160.571, -92.6102, 54.7827
3.564, 2, -37.0484, 0.66448, 20.5399, -160.571, -92.6102, 54.7827
3.568, 2, -37.0484, 0.66448, 20.5399, -160.571, -92.6102, 54.7827
3.572, 2, -37.0484, 0.66448, 20.5399, -160.571, -92.6102, 54.7827
3.576, 2, -37.0484, 0.66448, 20.5399, -160.571, -92.6102, 54.7827
3.58, 2, -37.0484, 0.66448, 20.5399, -160.571, -92.6102, 54.7827
3.584, 2, -37.0484, 0.66448, 20.5399, -160.571, -92.6102, 54.7827
3.587, 2, -37.0484, 0.66448, 20.5399, -160.571, -92.6102, 54.7827
3.592, 2, -37.0484, 0.66448, 20.5399, -160.571, -92.6102, 54.7827
3.596, 2, -37.0484, 0.66448, 20.5399, -160.571, -92.6102, 54.7827
3.6, 2, -37.0484, 0.66448, 20.5399, -160.571, -92.6102, 54.7827
3.604, 2, -37.0484, 0.66448, 20.5399, -160.571, -92.6102, 54.7827
3.608, 2, -37.0484, 0.66448, 20.5399, -160.571, -92.6102, 54.7827
3.612, 2, -37.0484, 0.66448, 20.5399, -160.571, -92.6102, 54.7827
3.616, 2, -37.0484, 0.66448, 20.5399, -160.571, -92.6102, 54.7827
3.62, 2, -37.0484, 0.66448, 20.5399, -160.571, -92.6102, 54.7827
3.624, 2, -37.0484, 0.66448, 20.5399, -160.571, -92.6102, 54.7827
3.628, 2, -37.0484, 0.66448, 20.5399, -160.571, -92.6102, 54.7827
3.632, 2, -37.0484, 0.66448, 20.5399, -160.571, -92.6102, 54.7827
3.636, 2, -37.0484, 0.66448, 20.5399, -160.571, -92.6102, 54.7827
3.64, 2, -37.0484, 0.66448, 20.5399, -160.571, -92.6102, 54.7827
3.644, 2, -37.0484, 0.66448, 20.5399, -160.571, -92.6102, 54.7827
3.648, 2, -37.0484, 0.66448, 20.5399, -160.571, -92.6102, 54.7827
3.652, 2, -37.0484, 0.66448, 20.5399, -160.571, -92.6102, 54.7827
3.656, 2, -37.0484, 0.66448, 20.5399, -160.571, -92.6102, 54.7827
3.66, 2, -37.0484, 0.66448, 20.5399, -160.571, -92.6102, 54.7827
3.664, 2, -37.0484, 0.66448, 20.5399, -160.571, -92.6102, 54.7827
3.668, 2, -37.0484, 0.66448, 20.5399, -160.571, -92.6102, 54.7827
3.672, 2, -37.0484, 0.66448, 20.5399, -160.571, -92.6102, 54.7827
3.676, 4, -37.0484, 0.66448, 20.5399, -160.571, -92.6102, 54.7827
3.679, 4, -37.0484, 0.66448, 20.5399, -160.571, -92.6102, 54.7827
3.684, 4, -37.0484, 0.66448, 20.5399, -160.571, -92.6102, 54.7827
3.688, 4, -37.0484, 0.66448, 20.5399, -160.571, -92.6102, 54.7827
3.692, 4, -37.0484, 0.66448, 20.5399, -160.571, -92.6102, 54.7827
3.696, 4, -37.0484, 0.66448, 20.5399, -160.571, -92.6102, 54.7827
3.7, 4, -37.0484, 0.66448, 20.5399, -160.571, -92.6102, 54.7827
3.704, 4, -37.0484, 0.66448, 20.5399, -160.571, -92.6102, 54.7827
3.708, 4, -37.0484, 0.66448, 20.5399, -160.571, -92.6102, 54.7827
3.712, 4, -37.0484, 0.66448, 20.5399, -160.571, -92.6102, 54.7827
3.716, 4, -37.0484, 0.66448, 20.5399, -160.571, -92.6102, 54.7827
3.72, 4, -37.0484, 0.66448, 20.5399, -160.571, -92.6102, 54.7827
3.724, 4, -37.0484, 0.66448, 20.5399, -160.571, -92.6102, 54.7827
3.728, 4, -37.0484, 0.66448, 20.5399, -160.571, -92.6102, 54.7827
3.732, 4, -37.0484, 0.66448, 20.5399, -160.571, -92.6102, 54.7827
3.735, 4, -37.0484, 0.66448, 20.5399, -160.571, -92.6102, 54.7827
3.74, 4, -37.0484, 0.66448, 20.5399, -160.571, -92.6102, 54.7827
3.744, 4, -37.0484, 0.66448, 20.5399, -160.571, -92.6102, 54.7827
3.748, 4, -37.0484, 0.66448, 20.5399, -160.571, -92.6102, 54.7827
3.752, 4, -37.0484, 0.66448, 20.5399, -160.571, -92.6102, 54.7827
3.756, 4, -37.0484, 0.66448, 20.5399, -160.571, -92.6102, 54.7827
3.76, 4, -37.0484, 0.66448, 20.5399, -160.571, -92.6102, 54.7827
3.764, 4, -37.0484, 0.66448, 20.5399, -160.571, -92.6102, 54.7827
3.768, 4, -37.0484, 0.66448, 20.5399, -160.571, -92.6102, 54.7827
3.772, 4, -37.0484, 0.66448, 20.5399, -160.571, -92.6102, 54.7827
3.776, 4, -37.0484, 0.66448, 20.5399, -160.571, -92.6102, 54.7827
3.782, 4, -37.0484, 0.66448, 20.5399, -160.571, -92.6102, 54.7827
3.784, 4, -37.0484, 0.66448, 20.5399, -160.571, -92.6102, 54.7827
3.788, 4, -37.0484, 0.66448, 20.5399, -160.571, -92.6102, 54.7827
3.792, 4, -37.0484, 0.66448, 20.5399, -160.571, -92.6102, 54.7827
3.796, 4, -37.0484, 0.66448, 20.5399, -160.571, -92.6102, 54.7827
3.8, 4, -37.0484, 0.66448, 20.5399, -160.571, -92.6102, 54.7827
3.804, 4, -37.0484, 0.664476, 20.5399, -160.571, -92.6102, 54.7827
3.808, 4, -37.0483, 0.664449, 20.5399, -160.571, -92.6102, 54.7827
3.812, 4, -37.0481, 0.664342, 20.5399, -160.571, -92.6102, 54.7827
3.816, 4, -37.0475, 0.664058, 20.54, -160.571, -92.6102, 54.7827
3.82, 4, -37.0463, 0.663476, 20.5403, -160.571, -92.6102, 54.7827
3.824, 4, -37.0444, 0.662467, 20.5407, -160.571, -92.6103, 54.7827
3.828, 4, -37.0417, 0.660905, 20.5414, -160.571, -92.6103, 54.7827
3.832, 4, -37.0379, 0.658686, 20.5425, -160.571, -92.6104, 54.7827
3.836, 4, -37.0332, 0.655748, 20.5442, -160.571, -92.6104, 54.7826
3.84, 4, -37.0276, 0.652074, 20.5464, -160.571, -92.6105, 54.7826
3.844, 4, -37.0212, 0.647662, 20.5494, -160.57, -92.6105, 54.7825
3.848, 5, -37.0139, 0.642488, 20.5532, -160.57, -92.6105, 54.7824
3.852, 5, -37.0058, 0.636497, 20.558, -160.569, -92.6105, 54.7823
3.856, 5, -36.9967, 0.629624, 20.5639, -160.568, -92.6104, 54.7821
3.86, 5, -36.9865, 0.621816, 20.5711, -160.566, -92.6103, 54.7819
3.864, 5, -36.9753, 0.613046, 20.5796, -160.565, -92.6101, 54.7817
3.868, 5, -36.963, 0.603314, 20.5895, -160.563, -92.6099, 54.7814
3.872, 5, -36.9497, 0.592642, 20.6007, -160.56, -92.6096, 54.781
3.876, 5, -36.9353, 0.581069, 20.6133, -160.558, -92.6092, 54.7807
3.88, 5, -36.9201, 0.568629, 20.6272, -160.555, -92.6088, 54.7802
3.884, 5, -36.9038, 0.555324, 20.6424, -160.552, -92.6083, 54.7798
3.888, 5, -36.8866, 0.541115, 20.6587, -160.548, -92.6078, 54.7793
3.892, 5, -36.8682, 0.525958, 20.6762, -160.544, -92.6072, 54.7788
3.896, 5, -36.8487, 0.509843, 20.6946, -160.54, -92.6066, 54.7782
3.9, 5, -36.828, 0.492804, 20.7138, -160.536, -92.606, 54.7777
3.904, 5, -36.8063, 0.474911, 20.7338, -160.532, -92.6054, 54.7771
3.908, 5, -36.7836, 0.456264, 20.7544, -160.528, -92.6047, 54.7766
3.912, 5, -36.76, 0.436977, 20.7754, -160.523, -92.6041, 54.776
3.916, 5, -36.7357, 0.417169, 20.7969, -160.519, -92.6035, 54.7755
3.92, 5, -36.7108, 0.396946, 20.8186, -160.514, -92.6029, 54.7749
3.924, 5, -36.6854, 0.376392, 20.8405, -160.509, -92.6022, 54.7744
3.928, 5, -36.6594, 0.355576, 20.8626, -160.505, -92.6016, 54.7739
3.932, 5, -36.6331, 0.33456, 20.8848, -160.5, -92.601, 54.7734
3.936, 5, -36.6065, 0.3134, 20.907, -160.495, -92.6004, 54.7729
3.94, 5, -36.5796, 0.292142, 20.9293, -160.491, -92.5998, 54.7724
3.944, 5, -36.5526, 0.270823, 20.9516, -160.486, -92.5992, 54.7719
3.948, 5, -36.5255, 0.249466, 20.974, -160.481, -92.5986, 54.7715
3.952, 5, -36.4982, 0.228089, 20.9963, -160.476, -92.598, 54.7711
3.956, 5, -36.471, 0.206702, 21.0186, -160.472, -92.5974, 54.7707
3.96, 5, -36.4437, 0.185315, 21.0409, -160.467, -92.5968, 54.7703
3.964, 5, -36.4163, 0.163931, 21.0632, -160.462, -92.5962, 54.7699
3.968, 5, -36.3889, 0.142554, 21.0855, -160.457, -92.5956, 54.7695
3.972, 5, -36.3615, 0.121187, 21.1077, -160.453, -92.595, 54.7692
3.976, 5, -36.3341, 0.0998317, 21.13, -160.448, -92.5944, 54.7688
3.98, 5, -36.3066, 0.0784888, 21.1522, -160.443, -92.5938, 54.7685
3.984, 5, -36.2791, 0.0571591, 21.1744, -160.438, -92.5932, 54.7682
3.988, 5, -36.2516, 0.0358433, 21.1965, -160.433, -92.5926, 54.7679
3.992, 5, -36.2241, 0.0145417, 21.2187, -160.428, -92.592, 54.7677
3.996, 5, -36.1966, -0.00674545, 21.2408, -160.424, -92.5914, 54.7674
3.999, 5, -36.169, -0.028018, 21.2629, -160.419, -92.5909, 54.7672
4.004, 5, -36.1415, -0.0492758, 21.285, -160.414, -92.5903, 54.767
4.008, 5, -36.1139, -0.0705186, 21.307, -160.409, -92.5897, 54.7668
4.012, 5, -36.0863, -0.0917464, 21.3291, -160.404, -92.5891, 54.7666
4.016, 5, -36.0587, -0.112959, 21.3511, -160.399, -92.5885, 54.7664
4.02, 5, -36.031, -0.134156, 21.3731, -160.395, -92.5879, 54.7663
4.024, 5, -36.0034, -0.155338, 21.395, -160.39, -92.5873, 54.7661
4.028, 5, -35.9757, -0.176505, 21.417, -160.385, -92.5867, 54.766
4.032, 5, -35.948, -0.197656, 21.4389, -160.38, -92.5861, 54.7659
4.036, 5, -35.9203, -0.218793, 21.4608, -160.375, -92.5855, 54.7658
4.04, 5, -35.8926, -0.239914, 21.4826, -160.37, -92.5849, 54.7657
4.044, 5, -35.8649, -0.261021, 21.5045, -160.365, -92.5843, 54.7657
4.048, 5, -35.8371, -0.282112, 21.5263, -160.36, -92.5837, 54.7656
4.052, 5, -35.8094, -0.303188, 21.5481, -160.355, -92.5831, 54.7656
4.056, 5, -35.7816, -0.32425, 21.5699, -160.35, -92.5825, 54.7656
4.06, 5, -35.7538, -0.345295, 21.5917, -160.345, -92.5819, 54.7656
4.064, 5, -35.726, -0.366326, 21.6134, -160.34, -92.5813, 54.7657
4.068, 5, -35.6981, -0.387341, 21.6351, -160.336, -92.5807, 54.7657
4.072, 5, -35.6703, -0.408341, 21.6568, -160.331, -92.5801, 54.7658
4.076, 5, -35.6424, -0.429325, 21.6785, -160.326, -92.5795, 54.7658
4.08, 5, -35.6145, -0.450294, 21.7001, -160.321, -92.5789, 54.7659
4.084, 5, -35.5866, -0.471248, 21.7217, -160.316, -92.5783, 54.766
4.088, 5, -35.5587, -0.492186, 21.7433, -160.311, -92.5777, 54.7662
4.092, 5, -35.5308, -0.513109, 21.7649, -160.306, -92.5771, 54.7663
4.096, 5, -35.5028, -0.534016, 21.7865, -160.301, -92.5765, 54.7665
4.1, 5, -35.4749, -0.554908, 21.808, -160.296, -92.5759, 54.7666
4.104, 5, -35.4469, -0.575784, 21.8295, -160.291, -92.5753, 54.7668
4.108, 5, -35.4189, -0.596644, 21.851, -160.286, -92.5747, 54.767
4.112, 5, -35.3909, -0.617489, 21.8725, -160.281, -92.5741, 54.7673
4.116, 5, -35.3628, -0.638319, 21.8939, -160.276, -92.5735, 54.7675
4.12, 5, -35.3348, -0.659133, 21.9153, -160.27, -92.5729, 54.7678
4.124, 5, -35.3067, -0.679931, 21.9367, -160.265, -92.5723, 54.768
4.128, 5, -35.2786, -0.700714, 21.9581, -160.26, -92.5717, 54.7683
4.132, 5, -35.2505, -0.721481, 21.9794, -160.255, -92.5711, 54.7686
4.136, 5, -35.2224, -0.742233, 22.0008, -160.25, -92.5704, 54.769
4.14, 5, -35.1943, -0.762968, 22.0221, -160.245, -92.5698, 54.7693
4.144, 5, -35.1661, -0.783689, 22.0433, -160.24, -92.5692, 54.7696
4.148, 5, -35.1379, -0.804393, 22.0646, -160.235, -92.5686, 54.77
4.152, 5, -35.1098, -0.825082, 22.0858, -160.23, -92.568, 54.7704
4.156, 5, -35.0816, -0.845755, 22.107, -160.225, -92.5674, 54.7708
4.16, 5, -35.0533, -0.866413, 22.1282, -160.22, -92.5668, 54.7712
4.164, 5, -35.0251, -0.887055, 22.1494, -160.215, -92.5662, 54.7717
4.168, 5, -34.9968, -0.907681, 22.1705, -160.209, -92.5656, 54.7721
4.172, 5, -34.9686, -0.928291, 22.1917, -160.204, -92.5649, 54.7726
4.176, 5, -34.9403, -0.948885, 22.2128, -160.199, -92.5643, 54.7731
4.18, 5, -34.912, -0.969464, 22.2338, -160.194, -92.5637, 54.7736
4.184, 5, -34.8837, -0.990027, 22.2549, -160.189, -92.5631, 54.7741
4.188, 5, -34.8553, -1.01057, 22.2759, -160.184, -92.5625, 54.7746
4.192, 5, -34.827, -1.0311, 22.2969, -160.178, -92.5619, 54.7752
4.196, 5, -34.7986, -1.05162, 22.3179, -160.173, -92.5612, 54.7757
4.2, 5, -34.7702, -1.07212, 22.3389, -160.168, -92.5606, 54.7763
4.204, 5, -34.7418, -1.0926, 22.3598, -160.163, -92.56, 54.7769
4.208, 5, -34.7134, -1.11307, 22.3807, -160.158, -92.5594, 54.7775
4.212, 5, -34.685, -1.13352, 22.4016, -160.153, -92.5587, 54.7781
4.216, 5, -34.6565, -1.15396, 22.4225, -160.147, -92.5581, 54.7788
4.22, 5, -34.628, -1.17438, 22.4433, -160.142, -92.5575, 54.7795
4.224, 5, -34.5995, -1.19478, 22.4642, -160.137, -92.5569, 54.7801
4.228, 5, -34.571, -1.21517, 22.485, -160.132, -92.5562, 54.7808
4.232, 5, -34.5425, -1.23554, 22.5058, -160.126, -92.5556, 54.7815
4.236, 5, -34.514, -1.2559, 22.5265, -160.121, -92.555, 54.7823
4.24, 5, -34.4854, -1.27624, 22.5472, -160.116, -92.5544, 54.783
4.244, 5, -34.4569, -1.29656, 22.568, -160.111, -92.5537, 54.7838
4.248, 5, -34.4283, -1.31687, 22.5886, -160.105, -92.5531, 54.7845
4.252, 5, -34.3997, -1.33716, 22.6093, -160.1, -92.5524, 54.7853
4.256, 5, -34.371, -1.35743, 22.63, -160.095, -92.5518, 54.7861
4.26, 5, -34.3424, -1.37769, 22.6506, -160.09, -92.5512, 54.787
4.264, 5, -34.3137, -1.39793, 22.6712, -160.084, -92.5505, 54.7878
4.268, 5, -34.2851, -1.41816, 22.6917, -160.079, -92.5499, 54.7887
4.272, 5, -34.2564, -1.43837, 22.7123, -160.074, -92.5492, 54.7895
4.276, 5, -34.2277, -1.45856, 22.7328, -160.068, -92.5486, 54.7904
4.28, 5, -34.199, -1.47874, 22.7533, -160.063, -92.548, 54.7913
4.284, 5, -34.1702, -1.4989, 22.7738, -160.058, -92.5473, 54.7922
4.288, 5, -34.1415, -1.51905, 22.7943, -160.052, -92.5467, 54.7932
4.292, 5, -34.1127, -1.53918, 22.8147, -160.047, -92.546, 54.7941
4.296, 5, -34.0839, -1.55929, 22.8351, -160.042, -92.5454, 54.7951
4.3, 5, -34.0551, -1.57939, 22.8555, -160.036, -92.5447, 54.7961
4.304, 5, -34.0263, -1.59947, 22.8759, -160.031, -92.5441, 54.7971
4.308, 5, -33.9974, -1.61953, 22.8962, -160.026, -92.5434, 54.7981
4.312, 5, -33.9686, -1.63958, 22.9166, -160.02, -92.5427, 54.7991
4.316, 5, -33.9397, -1.65961, 22.9369, -160.015, -92.5421, 54.8002
4.32, 5, -33.9108, -1.67962, 22.9571, -160.01, -92.5414, 54.8012
4.324, 5, -33.8819, -1.69962, 22.9774, -160.004, -92.5408, 54.8023
4.328, 5, -33.853, -1.7196, 22.9976, -159.999, -92.5401, 54.8034
4.332, 5, -33.824, -1.73956, 23.0178, -159.993, -92.5394, 54.8045
4.336, 5, -33.7951, -1.75951, 23.038, -159.988, -92.5388, 54.8056
4.34, 5, -33.7661, -1.77944, 23.0582, -159.982, -92.5381, 54.8068
4.344, 5, -33.7371, -1.79936, 23.0783, -159.977, -92.5374, 54.8079
4.348, 5, -33.7081, -1.81926, 23.0985, -159.972, -92.5368, 54.8091
4.352, 5, -33.6791, -1.83916, 23.1186, -159.966, -92.5361, 54.8103
4.356, 5, -33.6501, -1.85906, 23.1386, -159.961, -92.5354, 54.8115
4.36, 5, -33.6211, -1.87897, 23.1587, -159.955, -92.5347, 54.8127
4.364, 5, -33.5921, -1.8989, 23.1787, -159.95, -92.534, 54.814
4.368, 5, -33.5631, -1.91886, 23.1988, -159.944, -92.5333, 54.8152
4.372, 5, -33.5341, -1.93886, 23.2188, -159.939, -92.5326, 54.8164
4.376, 5, -33.5052, -1.95891, 23.2388, -159.933, -92.5318, 54.8176
4.38, 5, -33.4762, -1.97901, 23.2589, -159.928, -92.531, 54.8187
4.384, 5, -33.4473, -1.99917, 23.279, -159.922, -92.5302, 54.8198
4.388, 6, -33.4185, -2.01941, 23.2991, -159.916, -92.5292, 54.8208
4.392, 6, -33.3896, -2.03974, 23.3193, -159.911, -92.5282, 54.8217
4.396, 6, -33.3609, -2.06016, 23.3395, -159.905, -92.527, 54.8224
4.4, 6, -33.3321, -2.0807, 23.3598, -159.899, -92.5257, 54.823
4.404, 6, -33.3034, -2.10135, 23.3803, -159.893, -92.5243, 54.8235
4.408, 6, -33.2747, -2.12213, 23.4008, -159.887, -92.5228, 54.8237
4.412, 6, -33.2461, -2.14305, 23.4214, -159.88, -92.521, 54.8238
4.416, 6, -33.2175, -2.16411, 23.4422, -159.874, -92.5191, 54.8236
4.42, 6, -33.189, -2.18533, 23.4632, -159.867, -92.5169, 54.8232
4.424, 6, -33.1606, -2.20672, 23.4842, -159.86, -92.5146, 54.8226
4.428, 6, -33.1322, -2.22828, 23.5054, -159.853, -92.512, 54.8217
4.432, 6, -33.1039, -2.25004, 23.5268, -159.846, -92.5093, 54.8206
4.436, 6, -33.0756, -2.27199, 23.5484, -159.839, -92.5063, 54.8192
4.44, 7, -33.0475, -2.29414, 23.57, -159.832, -92.5031, 54.8175
4.444, 7, -33.0194, -2.3165, 23.5919, -159.824, -92.4997, 54.8156
4.448, 7, -32.9915, -2.33907, 23.6139, -159.817, -92.496, 54.8134
4.452, 7, -32.9636, -2.36185, 23.6361, -159.809, -92.4922, 54.811
4.456, 7, -32.9358, -2.38484, 23.6584, -159.801, -92.4881, 54.8083
4.46, 7, -32.9081, -2.40805, 23.6809, -159.792, -92.4838, 54.8053
4.464, 7, -32.8804, -2.43147, 23.7035, -159.784, -92.4793, 54.8021
4.468, 7, -32.8529, -2.45511, 23.7263, -159.776, -92.4746, 54.7986
4.472, 7, -32.8255, -2.47896, 23.7493, -159.767, -92.4697, 54.7949
4.476, 7, -32.7981, -2.50303, 23.7724, -159.758, -92.4645, 54.7909
4.48, 7, -32.7709, -2.52731, 23.7957, -159.749, -92.4591, 54.7866
4.484, 7, -32.7437, -2.55181, 23.8191, -159.74, -92.4535, 54.7821
4.488, 7, -32.7166, -2.57653, 23.8427, -159.731, -92.4476, 54.7773
4.492, 8, -32.6897, -2.60147, 23.8665, -159.721, -92.4416, 54.7723
4.496, 8, -32.6628, -2.62662, 23.8904, -159.711, -92.4353, 54.767
4.5, 8, -32.636, -2.65199, 23.9145, -159.702, -92.4288, 54.7615
4.504, 8, -32.6092, -2.67758, 23.9387, -159.692, -92.4221, 54.7557
4.508, 8, -32.5826, -2.70339, 23.9631, -159.682, -92.4151, 54.7496
4.512, 8, -32.5561, -2.72942, 23.9877, -159.671, -92.408, 54.7433
4.516, 8, -32.5296, -2.75567, 24.0124, -159.661, -92.4006, 54.7367
4.52, 8, -32.5033, -2.78213, 24.0373, -159.65, -92.393, 54.7299
4.524, 8, -32.477, -2.80882, 24.0624, -159.639, -92.3851, 54.7228
4.528, 8, -32.4508, -2.83572, 24.0876, -159.629, -92.3771, 54.7154
4.532, 8, -32.4248, -2.86285, 24.113, -159.617, -92.3688, 54.7078
4.536, 8, -32.3988, -2.89019, 24.1385, -159.606, -92.3603, 54.6999
4.54, 8, -32.3729, -2.91776, 24.1642, -159.595, -92.3516, 54.6918
4.544, 9, -32.347, -2.94554, 24.19, -159.583, -92.3427, 54.6835
4.548, 9, -32.3213, -2.97355, 24.216, -159.572, -92.3335, 54.6748
4.552, 9, -32.2957, -3.00178, 24.2422, -159.56, -92.3241, 54.6659
4.556, 9, -32.2701, -3.03023, 24.2685, -159.548, -92.3145, 54.6568
4.56, 9, -32.2446, -3.0589, 24.295, -159.536, -92.3047, 54.6474
4.564, 9, -32.2193, -3.08779, 24.3217, -159.523, -92.2946, 54.6378
4.568, 9, -32.194, -3.11691, 24.3485, -159.511, -92.2844, 54.6279
4.572, 9, -32.1688, -3.14625, 24.3755, -159.498, -92.2739, 54.6177
4.576, 9, -32.1437, -3.17581, 24.4026, -159.486, -92.2632, 54.6073
4.58, 9, -32.1186, -3.20559, 24.4299, -159.473, -92.2522, 54.5966
4.584, 9, -32.0937, -3.2356, 24.4574, -159.46, -92.2411, 54.5857
4.588, 9, -32.0688, -3.26583, 24.485, -159.446, -92.2297, 54.5745
4.592, 10, -32.0441, -3.29628, 24.5128, -159.433, -92.2181, 54.5631
4.596, 10, -32.0194, -3.32696, 24.5407, -159.419, -92.2063, 54.5514
4.6, 10, -31.9948, -3.35786, 24.5688, -159.406, -92.1942, 54.5395
4.604, 10, -31.9703, -3.38899, 24.5971, -159.392, -92.1819, 54.5273
4.608, 10, -31.9459, -3.42034, 24.6255, -159.378, -92.1694, 54.5149
4.612, 10, -31.9216, -3.45191, 24.6541, -159.364, -92.1567, 54.5022
4.616, 10, -31.8973, -3.48371, 24.6828, -159.349, -92.1438, 54.4892
4.62, 10, -31.8732, -3.51573, 24.7117, -159.335, -92.1306, 54.476
4.624, 10, -31.8491, -3.54798, 24.7408, -159.32, -92.1173, 54.4626
4.628, 10, -31.8251, -3.58046, 24.77, -159.306, -92.1037, 54.4489
4.632, 10, -31.8012, -3.61316, 24.7994, -159.291, -92.0898, 54.4349
4.636, 10, -31.7774, -3.64608, 24.829, -159.276, -92.0758, 54.4207
4.64, 10, -31.7537, -3.67924, 24.8587, -159.26, -92.0615, 54.4063
4.644, 11, -31.7301, -3.71261, 24.8886, -159.245, -92.0471, 54.3916
4.648, 11, -31.7065, -3.74622, 24.9186, -159.23, -92.0323, 54.3766
4.652, 11, -31.6831, -3.78005, 24.9488, -159.214, -92.0174, 54.3614
4.656, 11, -31.6597, -3.81411, 24.9792, -159.198, -92.0023, 54.3459
4.66, 11, -31.6364, -3.84839, 25.0097, -159.182, -91.9869, 54.3302
4.664, 11, -31.6132, -3.88291, 25.0404, -159.166, -91.9713, 54.3143
4.668, 11, -31.5901, -3.91765, 25.0712, -159.15, -91.9555, 54.2981
4.672, 11, -31.567, -3.95262, 25.1022, -159.133, -91.9394, 54.2816
4.676, 11, -31.5441, -3.98781, 25.1334, -159.117, -91.9232, 54.2649
4.68, 11, -31.5212, -4.02323, 25.1647, -159.1, -91.9067, 54.248
4.684, 11, -31.4984, -4.05889, 25.1962, -159.083, -91.89, 54.2308
4.688, 11, -31.4757, -4.09477, 25.2279, -159.066, -91.8731, 54.2133
4.692, 11, -31.4531, -4.13087, 25.2597, -159.049, -91.8559, 54.1956
4.696, 12, -31.4306, -4.16721, 25.2917, -159.032, -91.8386, 54.1777
4.7, 12, -31.4082, -4.20378, 25.3238, -159.014, -91.821, 54.1595
4.704, 12, -31.3858, -4.24057, 25.3561, -158.997, -91.8032, 54.141
4.708, 12, -31.3635, -4.2776, 25.3886, -158.979, -91.7851, 54.1223
4.712, 12, -31.3414, -4.31485, 25.4212, -158.961, -91.7669, 54.1034
4.716, 12, -31.3193, -4.35234, 25.454, -158.943, -91.7484, 54.0842
4.72, 12, -31.2973, -4.39005, 25.487, -158.925, -91.7297, 54.0648
4.724, 12, -31.2753, -4.42799, 25.5201, -158.907, -91.7108, 54.0451
4.728, 12, -31.2535, -4.46617, 25.5534, -158.888, -91.6917, 54.0252
4.732, 12, -31.2317, -4.50457, 25.5868, -158.87, -91.6723, 54.005
4.736, 12, -31.21, -4.5432, 25.6204, -158.851, -91.6528, 53.9846
4.74, 12, -31.1885, -4.58207, 25.6542, -158.832, -91.633, 53.9639
4.744, 12, -31.167, -4.62116, 25.6881, -158.813, -91.613, 53.943
4.748, 13, -31.1455, -4.66049, 25.7222, -158.794, -91.5927, 53.9219
4.752, 13, -31.1242, -4.70004, 25.7565, -158.774, -91.5723, 53.9005
4.756, 13, -31.1029, -4.73983, 25.7909, -158.755, -91.5516, 53.8788
4.76, 13, -31.0818, -4.77985, 25.8255, -158.735, -91.5307, 53.8569
4.764, 13, -31.0607, -4.8201, 25.8603, -158.715, -91.5096, 53.8348
4.768, 13, -31.0397, -4.86058, 25.8952, -158.695, -91.4883, 53.8124
4.772, 13, -31.0188, -4.90129, 25.9302, -158.675, -91.4667, 53.7898
4.776, 13, -30.9979, -4.94224, 25.9655, -158.655, -91.445, 53.767
4.78, 13, -30.9772, -4.98341, 26.0009, -158.635, -91.423, 53.7439
4.784, 13, -30.9565, -5.02482, 26.0365, -158.614, -91.4008, 53.7205
4.788, 13, -30.9359, -5.06646, 26.0722, -158.594, -91.3784, 53.6969
4.792, 13, -30.9154, -5.10833, 26.1081, -158.573, -91.3557, 53.6731
4.796, 14, -30.895, -5.15043, 26.1442, -158.552, -91.3329, 53.649
4.8, 14, -30.8746, -5.19277, 26.1804, -158.531, -91.3098, 53.6247
4.804, 14, -30.8544, -5.23534, 26.2168, -158.509, -91.2865, 53.6002
4.808, 14, -30.8342, -5.27814, 26.2533, -158.488, -91.263, 53.5754
4.812, 14, -30.8141, -5.32117, 26.29, -158.466, -91.2392, 53.5503
4.816, 14, -30.7941, -5.36443, 26.3269, -158.445, -91.2153, 53.5251
4.82, 14, -30.7742, -5.40793, 26.364, -158.423, -91.1911, 53.4996
4.824, 14, -30.7544, -5.45166, 26.4012, -158.401, -91.1667, 53.4738
4.828, 14, -30.7346, -5.49562, 26.4385, -158.379, -91.1421, 53.4478
4.832, 14, -30.7149, -5.53982, 26.4761, -158.356, -91.1173, 53.4216
4.836, 14, -30.6954, -5.58425, 26.5138, -158.334, -91.0923, 53.3951
4.84, 14, -30.6758, -5.62891, 26.5517, -158.312, -91.067, 53.3684
4.844, 14, -30.6564, -5.6738, 26.5897, -158.289, -91.0416, 53.3415
4.848, 15, -30.6371, -5.71893, 26.6279, -158.266, -91.0159, 53.3143
4.852, 15, -30.6178, -5.76429, 26.6662, -158.243, -90.99, 53.2869
4.856, 15, -30.5986, -5.80988, 26.7048, -158.22, -90.9639, 53.2593
4.86, 15, -30.5795, -5.8557, 26.7435, -158.196, -90.9376, 53.2314
4.864, 15, -30.5605, -5.90176, 26.7823, -158.173, -90.911, 53.2033
4.868, 15, -30.5416, -5.94805, 26.8213, -158.149, -90.8843, 53.1749
4.872, 15, -30.5227, -5.99457, 26.8605, -158.126, -90.8573, 53.1463
4.876, 15, -30.5039, -6.04133, 26.8999, -158.102, -90.8301, 53.1175
4.88, 15, -30.4853, -6.08832, 26.9394, -158.078, -90.8027, 53.0885
4.884, 15, -30.4666, -6.13554, 26.9791, -158.054, -90.7751, 53.0592
4.888, 15, -30.4481, -6.18299, 27.0189, -158.029, -90.7473, 53.0297
4.892, 15, -30.4297, -6.23068, 27.0589, -158.005, -90.7192, 52.9999
4.896, 15, -30.4113, -6.2786, 27.0991, -157.98, -90.691, 52.97
4.9, 16, -30.393, -6.32675, 27.1394, -157.956, -90.6625, 52.9398
4.904, 16, -30.3748, -6.37514, 27.1799, -157.931, -90.6339, 52.9093
4.908, 16, -30.3567, -6.42376, 27.2206, -157.906, -90.605, 52.8787
4.912, 16, -30.3387, -6.47261, 27.2614, -157.881, -90.5759, 52.8478
4.916, 16, -30.3207, -6.52169, 27.3024, -157.855, -90.5466, 52.8166
4.92, 16, -30.3028, -6.571, 27.3436, -157.83, -90.517, 52.7853
4.924, 16, -30.285, -6.62055, 27.3849, -157.804, -90.4873, 52.7537
4.928, 16, -30.2673, -6.67033, 27.4264, -157.778, -90.4574, 52.7219
4.932, 16, -30.2497, -6.72034, 27.4681, -157.753, -90.4272, 52.6899
4.936, 16, -30.2321, -6.77059, 27.5099, -157.726, -90.3969, 52.6576
4.94, 16, -30.2146, -6.82106, 27.5519, -157.7, -90.3663, 52.6252
4.944, 16, -30.1972, -6.87177, 27.594, -157.674, -90.3355, 52.5925
4.948, 16, -30.1799, -6.9227, 27.6363, -157.647, -90.3046, 52.5595
4.952, 17, -30.1627, -6.97387, 27.6788, -157.621, -90.2734, 52.5264
4.956, 17, -30.1455, -7.02527, 27.7214, -157.594, -90.242, 52.493
4.96, 17, -30.1284, -7.0769, 27.7642, -157.567, -90.2104, 52.4594
4.964, 17, -30.1114, -7.12877, 27.8072, -157.54, -90.1786, 52.4256
4.968, 17, -30.0945, -7.18086, 27.8503, -157.513, -90.1465, 52.3916
4.972, 17, -30.0776, -7.23318, 27.8936, -157.486, -90.1143, 52.3573
4.976, 17, -30.0609, -7.28574, 27.9371, -157.458, -90.0819, 52.3229
4.98, 17, -30.0442, -7.33852, 27.9807, -157.431, -90.0493, 52.2882
4.984, 17, -30.0276, -7.39154, 28.0245, -157.403, -90.0164, 52.2533
4.988, 17, -30.0111, -7.44478, 28.0685, -157.375, -89.9834, 52.2182
4.992, 17, -29.9946, -7.49825, 28.1126, -157.347, -89.9502, 52.1829
4.996, 17, -29.9782, -7.55195, 28.1569, -157.319, -89.9167, 52.1473
5, 18, -29.9619, -7.60588, 28.2013, -157.29, -89.8831, 52.1116
5.004, 18, -29.9457, -7.66004, 28.2459, -157.262, -89.8492, 52.0756
5.008, 18, -29.9296, -7.71443, 28.2907, -157.233, -89.8152, 52.0394
5.012, 18, -29.9135, -7.76905, 28.3356, -157.204, -89.7809, 52.003
5.016, 18, -29.8975, -7.82389, 28.3807, -157.175, -89.7465, 51.9664
5.02, 18, -29.8816, -7.87896, 28.426, -157.146, -89.7118, 51.9296
5.024, 18, -29.8658, -7.93426, 28.4714, -157.117, -89.677, 51.8926
5.028, 18, -29.85, -7.98979, 28.517, -157.088, -89.642, 51.8553
5.032, 18, -29.8344, -8.04554, 28.5628, -157.058, -89.6067, 51.8179
5.036, 18, -29.8188, -8.10152, 28.6087, -157.029, -89.5713, 51.7803
5.04, 18, -29.8032, -8.15773, 28.6547, -156.999, -89.5356, 51.7424
5.044, 18, -29.7878, -8.21416, 28.701, -156.969, -89.4998, 51.7044
5.048, 18, -29.7724, -8.27081, 28.7474, -156.939, -89.4638, 51.6661
5.052, 19, -29.7571, -8.32769, 28.7939, -156.909, -89.4275, 51.6277
5.056, 19, -29.7419, -8.3848, 28.8407, -156.878, -89.3911, 51.5891
5.06, 19, -29.7268, -8.44213, 28.8875, -156.848, -89.3545, 51.5502
5.064, 19, -29.7117, -8.49968, 28.9346, -156.817, -89.3177, 51.5112
5.068, 19, -29.6967, -8.55746, 28.9818, -156.786, -89.2807, 51.4719
5.072, 19, -29.6818, -8.61546, 29.0291, -156.755, -89.2435, 51.4325
5.076, 19, -29.667, -8.67368, 29.0767, -156.724, -89.2062, 51.3928
5.08, 19, -29.6522, -8.73213, 29.1243, -156.693, -89.1686, 51.353
5.084, 19, -29.6375, -8.79079, 29.1722, -156.662, -89.1308, 51.313
5.088, 19, -29.6229, -8.84968, 29.2202, -156.63, -89.0929, 51.2728
5.092, 19, -29.6083, -8.90879, 29.2683, -156.599, -89.0548, 51.2324
5.096, 19, -29.5938, -8.96812, 29.3167, -156.567, -89.0164, 51.1918
5.1, 19, -29.5794, -9.02766, 29.3652, -156.535, -88.9779, 51.151
5.104, 20, -29.5651, -9.08743, 29.4138, -156.503, -88.9392, 51.1101
5.108, 20, -29.5509, -9.14742, 29.4626, -156.471, -88.9004, 51.0689
5.112, 20, -29.5367, -9.20762, 29.5115, -156.438, -88.8613, 51.0276
5.116, 20, -29.5226, -9.26804, 29.5606, -156.406, -88.822, 50.9861
5.12, 20, -29.5085, -9.32868, 29.6099, -156.373, -88.7826, 50.9444
5.124, 20, -29.4946, -9.38954, 29.6593, -156.34, -88.743, 50.9025
5.128, 20, -29.4807, -9.45061, 29.7089, -156.307, -88.7032, 50.8605
5.132, 20, -29.4669, -9.5119, 29.7587, -156.274, -88.6632, 50.8182
5.136, 20, -29.4531, -9.5734, 29.8086, -156.241, -88.6231, 50.7758
5.14, 20, -29.4394, -9.63511, 29.8586, -156.208, -88.5828, 50.7332
5.144, 20, -29.4258, -9.69704, 29.9088, -156.174, -88.5422, 50.6905
5.148, 20, -29.4123, -9.75919, 29.9592, -156.141, -88.5015, 50.6476
5.152, 20, -29.3988, -9.82154, 30.0097, -156.107, -88.4607, 50.6045
5.156, 21, -29.3854, -9.8841, 30.0604, -156.073, -88.4196, 50.5612
5.16, 21, -29.3721, -9.94688, 30.1112, -156.039, -88.3784, 50.5178
5.164, 21, -29.3589, -10.0099, 30.1622, -156.005, -88.337, 50.4742
5.168, 21, -29.3457, -10.0731, 30.2133, -155.97, -88.2955, 50.4305
5.172, 21, -29.3325, -10.1365, 30.2646, -155.936, -88.2537, 50.3865
5.176, 21, -29.3195, -10.2001, 30.316, -155.901, -88.2118, 50.3425
5.18, 21, -29.3065, -10.2639, 30.3676, -155.867, -88.1698, 50.2982
5.184, 21, -29.2936, -10.3279, 30.4193, -155.832, -88.1275, 50.2538
5.188, 21, -29.2807, -10.3922, 30.4712, -155.797, -88.0851, 50.2093
5.192, 21, -29.268, -10.4566, 30.5232, -155.761, -88.0425, 50.1646
5.196, 21, -29.2552, -10.5213, 30.5754, -155.726, -87.9998, 50.1198
5.2, 21, -29.2426, -10.5861, 30.6278, -155.691, -87.9569, 50.0748
5.204, 22, -29.23, -10.6511, 30.6802, -155.655, -87.9138, 50.0296
5.208, 22, -29.2175, -10.7164, 30.7329, -155.619, -87.8706, 49.9843
5.212, 22, -29.2051, -10.7819, 30.7856, -155.583, -87.8272, 49.9389
5.216, 22, -29.1927, -10.8475, 30.8386, -155.547, -87.7836, 49.8933
5.22, 22, -29.1803, -10.9134, 30.8916, -155.511, -87.7399, 49.8476
5.224, 22, -29.1681, -10.9794, 30.9449, -155.475, -87.696, 49.8017
5.228, 22, -29.1559, -11.0457, 30.9982, -155.439, -87.652, 49.7557
5.232, 22, -29.1438, -11.1121, 31.0517, -155.402, -87.6078, 49.7096
5.236, 22, -29.1317, -11.1787, 31.1054, -155.365, -87.5634, 49.6633
5.24, 22, -29.1197, -11.2456, 31.1592, -155.328, -87.5189, 49.617
5.244, 22, -29.1078, -11.3126, 31.2131, -155.291, -87.4743, 49.5704
5.248, 22, -29.0959, -11.3798, 31.2672, -155.254, -87.4295, 49.5238
5.252, 22, -29.0841, -11.4473, 31.3214, -155.217, -87.3845, 49.477
5.256, 23, -29.0723, -11.5149, 31.3758, -155.18, -87.3394, 49.4301
5.26, 23, -29.0606, -11.5827, 31.4303, -155.142, -87.2941, 49.3831
5.264, 23, -29.049, -11.6506, 31.4849, -155.104, -87.2487, 49.336
5.268, 23, -29.0374, -11.7188, 31.5397, -155.067, -87.2031, 49.2887
5.272, 23, -29.0259, -11.7872, 31.5947, -155.029, -87.1574, 49.2414
5.276, 23, -29.0144, -11.8557, 31.6497, -154.991, -87.1116, 49.1939
5.28, 23, -29.003, -11.9245, 31.7049, -154.952, -87.0656, 49.1463
5.284, 23, -28.9917, -11.9934, 31.7602, -154.914, -87.0195, 49.0986
5.288, 23, -28.9804, -12.0625, 31.8157, -154.876, -86.9732, 49.0508
5.292, 23, -28.9692, -12.1318, 31.8713, -154.837, -86.9268, 49.003
5.296, 23, -28.958, -12.2012, 31.9271, -154.798, -86.8802, 48.955
5.3, 23, -28.9469, -12.2709, 31.9829, -154.759, -86.8335, 48.9069
5.304, 23, -28.9359, -12.3407, 32.0389, -154.72, -86.7867, 48.8587
5.308, 24, -28.9249, -12.4107, 32.0951, -154.681, -86.7397, 48.8104
5.312, 24, -28.9139, -12.4809, 32.1513, -154.642, -86.6926, 48.7621
5.316, 24, -28.903, -12.5512, 32.2077, -154.602, -86.6454, 48.7136
5.32, 24, -28.8922, -12.6217, 32.2643, -154.563, -86.598, 48.6651
5.324, 24, -28.8814, -12.6924, 32.3209, -154.523, -86.5505, 48.6165
5.328, 24, -28.8707, -12.7633, 32.3777, -154.483, -86.5029, 48.5678
5.332, 24, -28.86, -12.8343, 32.4346, -154.443, -86.4551, 48.519
5.336, 24, -28.8494, -12.9055, 32.4917, -154.403, -86.4073, 48.4701
5.34, 24, -28.8388, -12.9769, 32.5488, -154.363, -86.3593, 48.4212
5.344, 24, -28.8283, -13.0485, 32.6061, -154.323, -86.3111, 48.3722
5.348, 24, -28.8178, -13.1202, 32.6635, -154.282, -86.2629, 48.3232
5.352, 24, -28.8074, -13.192, 32.7211, -154.242, -86.2145, 48.2741
5.356, 24, -28.797, -13.2641, 32.7787, -154.201, -86.166, 48.2249
5.36, 25, -28.7867, -13.3363, 32.8365, -154.16, -86.1174, 48.1757
5.364, 25, -28.7764, -13.4086, 32.8944, -154.119, -86.0687, 48.1264
5.368, 25, -28.7662, -13.4811, 32.9524, -154.078, -86.0199, 48.0771
5.372, 25, -28.756, -13.5538, 33.0105, -154.037, -85.9709, 48.0277
5.376, 25, -28.7459, -13.6266, 33.0688, -153.995, -85.9218, 47.9783
5.38, 25, -28.7358, -13.6996, 33.1272, -153.954, -85.8726, 47.9288
5.384, 25, -28.7257, -13.7728, 33.1856, -153.912, -85.8234, 47.8793
5.388, 25, -28.7157, -13.8461, 33.2442, -153.87, -85.774, 47.8297
5.392, 25, -28.7058, -13.9195, 33.303, -153.829, -85.7244, 47.7802
5.396, 25, -28.6958, -13.9931, 33.3618, -153.786, -85.6748, 47.7306
5.4, 25, -28.686, -14.0668, 33.4207, -153.744, -85.6251, 47.6809
5.404, 25, -28.6761, -14.1407, 33.4798, -153.702, -85.5753, 47.6313
5.408, 26, -28.6663, -14.2147, 33.5389, -153.66, -85.5254, 47.5816
5.412, 26, -28.6566, -14.2889, 33.5982, -153.617, -85.4753, 47.5319
5.416, 26, -28.6469, -14.3632, 33.6575, -153.575, -85.4252, 47.4822
5.42, 26, -28.6372, -14.4377, 33.717, -153.532, -85.375, 47.4325
5.424, 26, -28.6276, -14.5123, 33.7766, -153.489, -85.3247, 47.3828
5.428, 26, -28.618, -14.587, 33.8363, -153.446, -85.2743, 47.333
5.432, 26, -28.6084, -14.6619, 33.896, -153.403, -85.2237, 47.2833
5.436, 26, -28.5989, -14.7369, 33.9559, -153.36, -85.1731, 47.2336
5.44, 26, -28.5894, -14.812, 34.0159, -153.316, -85.1225, 47.1839
5.444, 26, -28.58, -14.8873, 34.076, -153.273, -85.0717, 47.1342
5.448, 26, -28.5706, -14.9627, 34.1362, -153.229, -85.0208, 47.0845
5.452, 26, -28.5612, -15.0382, 34.1965, -153.185, -84.9698, 47.0348
5.456, 26, -28.5519, -15.1138, 34.2568, -153.142, -84.9188, 46.9852
5.46, 27, -28.5426, -15.1896, 34.3173, -153.098, -84.8677, 46.9355
5.464, 27, -28.5333, -15.2655, 34.3779, -153.054, -84.8165, 46.886
5.468, 27, -28.524, -15.3415, 34.4385, -153.009, -84.7652, 46.8364
5.472, 27, -28.5148, -15.4177, 34.4993, -152.965, -84.7138, 46.7869
5.476, 27, -28.5056, -15.4939, 34.5601, -152.921, -84.6624, 46.7374
5.48, 27, -28.4965, -15.5703, 34.621, -152.876, -84.6109, 46.6879
5.484, 27, -28.4873, -15.6468, 34.682, -152.832, -84.5593, 46.6385
5.488, 27, -28.4782, -15.7234, 34.7431, -152.787, -84.5076, 46.5892
5.492, 27, -28.4692, -15.8001, 34.8043, -152.742, -84.4559, 46.5399
5.496, 27, -28.4601, -15.877, 34.8656, -152.697, -84.4041, 46.4907
5.5, 27, -28.4511, -15.9539, 34.9269, -152.652, -84.3522, 46.4415
5.504, 27, -28.4421, -16.031, 34.9883, -152.607, -84.3002, 46.3924
5.508, 27, -28.4331, -16.1081, 35.0498, -152.561, -84.2482, 46.3434
5.512, 28, -28.4241, -16.1854, 35.1114, -152.516, -84.1961, 46.2945
5.516, 28, -28.4152, -16.2627, 35.1731, -152.47, -84.144, 46.2456
5.52, 28, -28.4063, -16.3402, 35.2348, -152.425, -84.0918, 46.1968
5.524, 28, -28.3974, -16.4177, 35.2966, -152.379, -84.0395, 46.1481
5.528, 28, -28.3885, -16.4954, 35.3585, -152.333, -83.9872, 46.0995
5.532, 28, -28.3797, -16.5731, 35.4205, -152.287, -83.9349, 46.051
5.536, 28, -28.3709, -16.651, 35.4825, -152.241, -83.8824, 46.0026
5.54, 28, -28.362, -16.7289, 35.5446, -152.195, -83.8299, 45.9543
5.544, 28, -28.3532, -16.8069, 35.6067, -152.149, -83.7774, 45.9061
5.548, 28, -28.3445, -16.885, 35.669, -152.102, -83.7248, 45.8581
5.552, 28, -28.3357, -16.9632, 35.7313, -152.056, -83.6722, 45.8101
5.556, 28, -28.3269, -17.0415, 35.7936, -152.009, -83.6195, 45.7623
5.56, 28, -28.3182, -17.1199, 35.856, -151.963, -83.5667, 45.7146
5.564, 29, -28.3095, -17.1983, 35.9185, -151.916, -83.514, 45.667
5.568, 29, -28.3007, -17.2769, 35.981, -151.869, -83.4612, 45.6196
5.572, 29, -28.292, -17.3555, 36.0436, -151.822, -83.4083, 45.5723
5.576, 29, -28.2833, -17.4341, 36.1063, -151.775, -83.3554, 45.5251
5.58, 29, -28.2746, -17.5129, 36.169, -151.728, -83.3024, 45.4781
5.584, 29, -28.266, -17.5917, 36.2317, -151.68, -83.2495, 45.4313
5.588, 29, -28.2573, -17.6706, 36.2945, -151.633, -83.1964, 45.3846
5.592, 29, -28.2486, -17.7496, 36.3574, -151.586, -83.1434, 45.3381
5.596, 29, -28.2399, -17.8286, 36.4203, -151.538, -83.0903, 45.2918
5.6, 29, -28.2313, -17.9077, 36.4833, -151.49, -83.0372, 45.2456
5.604, 29, -28.2226, -17.9868, 36.5463, -151.443, -82.984, 45.1996
5.608, 29, -28.214, -18.0661, 36.6093, -151.395, -82.9309, 45.1538
5.612, 30, -28.2053, -18.1453, 36.6724, -151.347, -82.8776, 45.1082
5.616, 30, -28.1967, -18.2247, 36.7355, -151.299, -82.8244, 45.0627
5.62, 30, -28.188, -18.304, 36.7987, -151.251, -82.7711, 45.0175
5.624, 30, -28.1794, -18.3835, 36.8619, -151.202, -82.7179, 44.9725
5.628, 30, -28.1707, -18.463, 36.9251, -151.154, -82.6646, 44.9277
5.632, 30, -28.1621, -18.5425, 36.9884, -151.106, -82.6112, 44.8831
5.636, 30, -28.1534, -18.6221, 37.0517, -151.057, -82.5579, 44.8387
5.64, 30, -28.1447, -18.7017, 37.115, -151.009, -82.5045, 44.7945
5.644, 30, -28.136, -18.7814, 37.1784, -150.96, -82.4511, 44.7506
5.648, 30, -28.1274, -18.8611, 37.2418, -150.911, -82.3977, 44.7069
5.652, 30, -28.1187, -18.9409, 37.3052, -150.863, -82.3443, 44.6634
5.656, 30, -28.11, -19.0206, 37.3687, -150.814, -82.2909, 44.6202
5.66, 30, -28.1013, -19.1005, 37.4321, -150.765, -82.2375, 44.5772
5.664, 31, -28.0926, -19.1803, 37.4956, -150.716, -82.184, 44.5345
5.668, 31, -28.0838, -19.2602, 37.5592, -150.667, -82.1306, 44.4921
5.672, 31, -28.0751, -19.3402, 37.6227, -150.617, -82.0771, 44.4499
5.676, 31, -28.0663, -19.4201, 37.6862, -150.568, -82.0236, 44.408
5.68, 31, -28.0576, -19.5001, 37.7498, -150.519, -81.9702, 44.3664
5.684, 31, -28.0488, -19.5801, 37.8134, -150.469, -81.9167, 44.325
5.688, 31, -28.04, -19.6601, 37.877, -150.42, -81.8632, 44.2839
5.692, 31, -28.0312, -19.7401, 37.9406, -150.37, -81.8097, 44.2432
5.696, 31, -28.0223, -19.8202, 38.0042, -150.321, -81.7563, 44.2027
5.7, 31, -28.0135, -19.9003, 38.0679, -150.271, -81.7028, 44.1625
5.704, 31, -28.0046, -19.9804, 38.1315, -150.221, -81.6493, 44.1227
5.708, 31, -27.9957, -20.0605, 38.1951, -150.171, -81.5958, 44.0831
5.712, 31, -27.9868, -20.1406, 38.2588, -150.121, -81.5424, 44.0439
5.716, 32, -27.9778, -20.2207, 38.3224, -150.071, -81.4889, 44.005
5.72, 32, -27.9689, -20.3009, 38.386, -150.021, -81.4355, 43.9664
5.724, 32, -27.9599, -20.381, 38.4497, -149.971, -81.382, 43.9282
5.728, 32, -27.9508, -20.4611, 38.5133, -149.921, -81.3286, 43.8903
5.732, 32, -27.9418, -20.5413, 38.5769, -149.871, -81.2752, 43.8528
5.736, 32, -27.9327, -20.6214, 38.6406, -149.82, -81.2218, 43.8156
5.74, 32, -27.9236, -20.7015, 38.7042, -149.77, -81.1684, 43.7788
5.744, 32, -27.9145, -20.7817, 38.7678, -149.72, -81.115, 43.7423
5.748, 32, -27.9053, -20.8618, 38.8314, -149.669, -81.0616, 43.7062
5.752, 32, -27.8961, -20.9419, 38.8949, -149.618, -81.0083, 43.6705
5.756, 32, -27.8868, -21.022, 38.9585, -149.568, -80.955, 43.6352
5.76, 32, -27.8776, -21.1021, 39.022, -149.517, -80.9016, 43.6003
5.764, 32, -27.8683, -21.1821, 39.0856, -149.466, -80.8484, 43.5658
5.768, 33, -27.8589, -21.2622, 39.1491, -149.416, -80.7951, 43.5316
5.772, 33, -27.8495, -21.3422, 39.2125, -149.365, -80.7419, 43.4979
5.776, 33, -27.8401, -21.4222, 39.276, -149.314, -80.6886, 43.4646
5.78, 33, -27.8306, -21.5022, 39.3394, -149.263, -80.6354, 43.4317
5.784, 33, -27.8211, -21.5822, 39.4028, -149.212, -80.5823, 43.3992
5.788, 33, -27.8116, -21.6621, 39.4662, -149.161, -80.5291, 43.3672
5.792, 33, -27.802, -21.742, 39.5295, -149.11, -80.476, 43.3356
5.796, 33, -27.7924, -21.8219, 39.5929, -149.059, -80.4229, 43.3045
5.8, 33, -27.7827, -21.9017, 39.6561, -149.007, -80.3699, 43.2738
5.804, 33, -27.7729, -21.9815, 39.7194, -148.956, -80.3168, 43.2435
5.808, 33, -27.7632, -22.0613, 39.7826, -148.905, -80.2638, 43.2138
5.812, 33, -27.7533, -22.141, 39.8457, -148.854, -80.2109, 43.1844
5.816, 34, -27.7435, -22.2207, 39.9089, -148.802, -80.1579, 43.1556
5.82, 34, -27.7335, -22.3004, 39.9719, -148.751, -80.1051, 43.1273
5.824, 34, -27.7235, -22.38, 40.035, -148.699, -80.0522, 43.0994
5.828, 34, -27.7135, -22.4595, 40.098, -148.648, -79.9994, 43.072
5.832, 34, -27.7034, -22.539, 40.1609, -148.596, -79.9466, 43.0452
5.836, 34, -27.6933, -22.6185, 40.2238, -148.545, -79.8938, 43.0188
5.84, 34, -27.6831, -22.6979, 40.2866, -148.493, -79.8411, 42.9929
5.844, 34, -27.6728, -22.7772, 40.3494, -148.442, -79.7885, 42.9676
5.848, 34, -27.6625, -22.8565, 40.4121, -148.39, -79.7358, 42.9428
