hehonglu123/Motion-Primitive-Planning/simulation/robotstudio_sim/scripts/fitting_output/wood/100L/curve_exe_v400_z10.csv
timestamp, cmd_num, J1, J2, J3, J4, J5, J6
0, -1, 11.3784, 13.6124, 17.34, -145.519, -97.9231, 142.516
0.002, -1, 11.3784, 13.6124, 17.34, -145.519, -97.9231, 142.516
0.006, -1, 11.3784, 13.6124, 17.34, -145.519, -97.9231, 142.516
0.008, -1, 11.3784, 13.6124, 17.34, -145.519, -97.9231, 142.516
0.011, -1, 11.3784, 13.6124, 17.34, -145.519, -97.9231, 142.516
0.016, -1, 11.3784, 13.6124, 17.34, -145.519, -97.9231, 142.516
0.02, -1, 11.3784, 13.6124, 17.34, -145.519, -97.9231, 142.516
0.024, -1, 11.3784, 13.6124, 17.34, -145.519, -97.9231, 142.516
0.028, -1, 11.3784, 13.6124, 17.34, -145.519, -97.9231, 142.516
0.032, -1, 11.3783, 13.6124, 17.34, -145.519, -97.9231, 142.516
0.036, -1, 11.3783, 13.6124, 17.34, -145.519, -97.9231, 142.516
0.04, -1, 11.378, 13.6124, 17.34, -145.519, -97.9231, 142.516
0.044, -1, 11.3773, 13.6123, 17.3399, -145.519, -97.9231, 142.516
0.048, -1, 11.376, 13.6121, 17.3397, -145.519, -97.9231, 142.516
0.052, -1, 11.3739, 13.6118, 17.3395, -145.519, -97.9231, 142.515
0.056, -1, 11.3709, 13.6113, 17.3392, -145.519, -97.9231, 142.515
0.06, -1, 11.3669, 13.6105, 17.3388, -145.519, -97.923, 142.514
0.064, -1, 11.3616, 13.6095, 17.3382, -145.52, -97.9229, 142.511
0.068, -1, 11.355, 13.6081, 17.3376, -145.52, -97.9228, 142.508
0.072, -1, 11.3469, 13.6063, 17.3369, -145.521, -97.9225, 142.503
0.076, -1, 11.3368, 13.604, 17.3361, -145.523, -97.9221, 142.496
0.08, -1, 11.3245, 13.6011, 17.3353, -145.524, -97.9216, 142.485
0.084, -1, 11.3095, 13.5974, 17.3345, -145.527, -97.9208, 142.471
0.088, -1, 11.2916, 13.593, 17.3339, -145.53, -97.9197, 142.452
0.092, -1, 11.2709, 13.5878, 17.3334, -145.534, -97.9183, 142.428
0.096, -1, 11.2473, 13.5817, 17.3333, -145.54, -97.9165, 142.397
0.1, -1, 11.2208, 13.5749, 17.3336, -145.546, -97.9143, 142.359
0.104, -1, 11.1915, 13.5672, 17.3345, -145.554, -97.9116, 142.313
0.108, -1, 11.1592, 13.5585, 17.336, -145.563, -97.9083, 142.259
0.112, -1, 11.1237, 13.549, 17.3382, -145.574, -97.9045, 142.197
0.116, -1, 11.085, 13.5386, 17.341, -145.586, -97.9002, 142.125
0.12, -1, 11.0431, 13.5271, 17.3444, -145.6, -97.8953, 142.045
0.124, -1, 10.9978, 13.5148, 17.3483, -145.615, -97.8899, 141.956
0.128, -1, 10.9493, 13.5015, 17.3528, -145.632, -97.884, 141.86
0.131, -1, 10.8979, 13.4874, 17.3577, -145.65, -97.8777, 141.756
0.136, -1, 10.8436, 13.4725, 17.3631, -145.669, -97.8709, 141.645
0.139, -1, 10.7865, 13.4568, 17.3687, -145.689, -97.8638, 141.529
0.144, -1, 10.7267, 13.4404, 17.3745, -145.709, -97.8564, 141.407
0.148, -1, 10.6642, 13.4232, 17.3803, -145.731, -97.8487, 141.281
0.152, -1, 10.5993, 13.4055, 17.3861, -145.753, -97.8408, 141.152
0.156, -1, 10.5321, 13.3871, 17.3919, -145.776, -97.8328, 141.02
0.16, -1, 10.4629, 13.3682, 17.3975, -145.799, -97.8246, 140.886
0.164, -1, 10.3921, 13.3489, 17.4031, -145.822, -97.8164, 140.751
0.168, -1, 10.32, 13.3293, 17.4085, -145.845, -97.8081, 140.614
0.172, -1, 10.2468, 13.3094, 17.4139, -145.869, -97.7998, 140.477
0.176, -1, 10.1727, 13.2894, 17.4192, -145.893, -97.7914, 140.339
0.18, -1, 10.0979, 13.2691, 17.4245, -145.916, -97.783, 140.2
0.184, -1, 10.0225, 13.2488, 17.4297, -145.94, -97.7746, 140.062
0.188, -1, 9.94654, 13.2284, 17.4348, -145.964, -97.7661, 139.922
0.192, -1, 9.87027, 13.2079, 17.44, -145.988, -97.7577, 139.783
0.196, -1, 9.79375, 13.1874, 17.4451, -146.012, -97.7492, 139.644
0.2, -1, 9.71706, 13.1669, 17.4502, -146.036, -97.7408, 139.504
0.204, -1, 9.64025, 13.1463, 17.4553, -146.06, -97.7324, 139.365
0.208, -1, 9.56336, 13.1258, 17.4604, -146.084, -97.7239, 139.225
0.212, -1, 9.48641, 13.1052, 17.4655, -146.108, -97.7155, 139.086
0.216, -1, 9.40942, 13.0846, 17.4706, -146.131, -97.707, 138.946
0.22, -1, 9.3324, 13.064, 17.4757, -146.155, -97.6985, 138.807
0.224, -1, 9.25536, 13.0434, 17.4808, -146.179, -97.6901, 138.667
0.228, -1, 9.1783, 13.0228, 17.4859, -146.203, -97.6816, 138.527
0.232, -1, 9.10122, 13.0022, 17.491, -146.227, -97.6732, 138.388
0.236, -1, 9.02413, 12.9815, 17.4961, -146.251, -97.6647, 138.248
0.24, -1, 8.94703, 12.9609, 17.5012, -146.275, -97.6563, 138.108
0.244, -1, 8.86993, 12.9403, 17.5063, -146.299, -97.6478, 137.969
0.248, -1, 8.79281, 12.9197, 17.5114, -146.323, -97.6393, 137.829
0.252, -1, 8.71568, 12.8991, 17.5165, -146.347, -97.6309, 137.689
0.256, -1, 8.63855, 12.8785, 17.5216, -146.371, -97.6224, 137.55
0.26, -1, 8.56141, 12.8578, 17.5267, -146.395, -97.614, 137.41
0.264, -1, 8.48426, 12.8372, 17.5318, -146.419, -97.6055, 137.27
0.268, -1, 8.40711, 12.8166, 17.5369, -146.443, -97.597, 137.13
0.272, -1, 8.32994, 12.7959, 17.542, -146.467, -97.5886, 136.99
0.276, -1, 8.25277, 12.7753, 17.5471, -146.491, -97.5801, 136.851
0.28, -1, 8.1756, 12.7547, 17.5522, -146.515, -97.5716, 136.711
0.284, -1, 8.09841, 12.734, 17.5573, -146.539, -97.5632, 136.571
0.288, -1, 8.02122, 12.7134, 17.5624, -146.563, -97.5547, 136.431
0.292, -1, 7.94402, 12.6928, 17.5675, -146.587, -97.5462, 136.291
0.296, -1, 7.86681, 12.6721, 17.5726, -146.611, -97.5378, 136.151
0.3, -1, 7.7896, 12.6515, 17.5777, -146.635, -97.5293, 136.012
0.304, -1, 7.71238, 12.6308, 17.5828, -146.659, -97.5208, 135.872
0.308, -1, 7.63515, 12.6102, 17.5879, -146.683, -97.5123, 135.732
0.312, -1, 7.55791, 12.5895, 17.593, -146.707, -97.5039, 135.592
0.316, -1, 7.48067, 12.5689, 17.5981, -146.731, -97.4954, 135.452
0.32, -1, 7.40342, 12.5482, 17.6032, -146.755, -97.4869, 135.312
0.324, -1, 7.32616, 12.5276, 17.6083, -146.779, -97.4784, 135.172
0.328, -1, 7.24889, 12.5069, 17.6134, -146.803, -97.47, 135.032
0.332, -1, 7.17162, 12.4862, 17.6185, -146.827, -97.4615, 134.892
0.336, -1, 7.09434, 12.4656, 17.6236, -146.851, -97.453, 134.752
0.34, -1, 7.01705, 12.4449, 17.6287, -146.875, -97.4445, 134.612
0.344, -1, 6.93976, 12.4242, 17.6339, -146.899, -97.436, 134.472
0.348, -1, 6.86246, 12.4036, 17.639, -146.923, -97.4276, 134.332
0.352, -1, 6.78515, 12.3829, 17.6441, -146.947, -97.4191, 134.192
0.356, -1, 6.70783, 12.3622, 17.6492, -146.971, -97.4106, 134.052
0.36, -1, 6.63051, 12.3416, 17.6543, -146.995, -97.4021, 133.912
0.364, -1, 6.55317, 12.3209, 17.6594, -147.019, -97.3936, 133.772
0.368, -1, 6.47583, 12.3002, 17.6645, -147.043, -97.3851, 133.631
0.372, -1, 6.39849, 12.2795, 17.6696, -147.067, -97.3767, 133.491
0.376, -1, 6.32113, 12.2588, 17.6747, -147.091, -97.3682, 133.351
0.38, -1, 6.24377, 12.2382, 17.6798, -147.115, -97.3597, 133.211
0.384, -1, 6.1664, 12.2175, 17.6849, -147.14, -97.3512, 133.071
0.388, -1, 6.08903, 12.1968, 17.6901, -147.164, -97.3427, 132.931
0.392, -1, 6.01164, 12.1761, 17.6952, -147.188, -97.3342, 132.79
0.396, -1, 5.93425, 12.1554, 17.7003, -147.212, -97.3257, 132.65
0.4, -1, 5.85685, 12.1347, 17.7054, -147.236, -97.3172, 132.51
0.404, -1, 5.77945, 12.114, 17.7105, -147.26, -97.3087, 132.37
0.408, -1, 5.70203, 12.0933, 17.7156, -147.284, -97.3003, 132.23
0.412, -1, 5.62461, 12.0726, 17.7207, -147.308, -97.2918, 132.089
0.416, -1, 5.54718, 12.0519, 17.7259, -147.332, -97.2833, 131.949
0.42, -1, 5.46975, 12.0312, 17.731, -147.356, -97.2748, 131.809
0.424, -1, 5.3923, 12.0105, 17.7361, -147.38, -97.2663, 131.668
0.428, -1, 5.31485, 11.9898, 17.7412, -147.404, -97.2578, 131.528
0.432, -1, 5.23739, 11.9691, 17.7463, -147.428, -97.2493, 131.388
0.436, -1, 5.15992, 11.9484, 17.7515, -147.452, -97.2408, 131.247
0.44, -1, 5.08245, 11.9277, 17.7566, -147.476, -97.2323, 131.107
0.444, -1, 5.00497, 11.9069, 17.7617, -147.501, -97.2238, 130.967
0.448, -1, 4.92748, 11.8862, 17.7668, -147.525, -97.2153, 130.826
0.452, -1, 4.84998, 11.8655, 17.7719, -147.549, -97.2068, 130.686
0.456, -1, 4.77248, 11.8448, 17.7771, -147.573, -97.1983, 130.545
0.46, -1, 4.69496, 11.8241, 17.7822, -147.597, -97.1898, 130.405
0.464, -1, 4.61744, 11.8033, 17.7873, -147.621, -97.1813, 130.265
0.468, -1, 4.53991, 11.7826, 17.7924, -147.645, -97.1728, 130.124
0.472, -1, 4.46238, 11.7619, 17.7975, -147.669, -97.1642, 129.984
0.476, -1, 4.38483, 11.7411, 17.8027, -147.693, -97.1557, 129.843
0.48, -1, 4.30728, 11.7204, 17.8078, -147.717, -97.1472, 129.703
0.484, -1, 4.22972, 11.6997, 17.8129, -147.741, -97.1387, 129.562
0.488, -1, 4.15216, 11.6789, 17.818, -147.766, -97.1302, 129.422
0.492, -1, 4.07458, 11.6582, 17.8232, -147.79, -97.1217, 129.281
0.496, -1, 3.997, 11.6374, 17.8283, -147.814, -97.1132, 129.141
0.5, -1, 3.91941, 11.6167, 17.8334, -147.838, -97.1047, 129
0.504, -1, 3.84181, 11.5959, 17.8385, -147.862, -97.0962, 128.859
0.508, -1, 3.7642, 11.5752, 17.8437, -147.886, -97.0877, 128.719
0.512, -1, 3.68659, 11.5544, 17.8488, -147.91, -97.0791, 128.578
0.516, -1, 3.60896, 11.5337, 17.8539, -147.934, -97.0706, 128.438
0.52, -1, 3.53133, 11.5129, 17.8591, -147.959, -97.0621, 128.297
0.524, -1, 3.4537, 11.4922, 17.8642, -147.983, -97.0536, 128.156
0.528, -1, 3.37605, 11.4714, 17.8693, -148.007, -97.0451, 128.016
0.532, -1, 3.2984, 11.4507, 17.8745, -148.031, -97.0366, 127.875
0.536, -1, 3.22074, 11.4299, 17.8796, -148.055, -97.028, 127.734
0.54, -1, 3.14307, 11.4091, 17.8847, -148.079, -97.0195, 127.594
0.544, -1, 3.06539, 11.3884, 17.8898, -148.103, -97.011, 127.453
0.548, -1, 2.9877, 11.3676, 17.895, -148.128, -97.0025, 127.312
0.552, -1, 2.91001, 11.3468, 17.9001, -148.152, -96.9939, 127.171
0.556, -1, 2.83231, 11.326, 17.9052, -148.176, -96.9854, 127.031
0.56, -1, 2.7546, 11.3053, 17.9104, -148.2, -96.9769, 126.89
0.564, -1, 2.67688, 11.2845, 17.9155, -148.224, -96.9684, 126.749
0.568, -1, 2.59916, 11.2637, 17.9207, -148.248, -96.9598, 126.608
0.572, -1, 2.52143, 11.2429, 17.9258, -148.272, -96.9513, 126.467
0.576, -1, 2.44369, 11.2221, 17.9309, -148.297, -96.9428, 126.326
0.58, -1, 2.36594, 11.2013, 17.9361, -148.321, -96.9343, 126.186
0.584, -1, 2.28818, 11.1805, 17.9412, -148.345, -96.9257, 126.045
0.588, -1, 2.21042, 11.1598, 17.9463, -148.369, -96.9172, 125.904
0.592, -1, 2.13264, 11.139, 17.9515, -148.393, -96.9087, 125.763
0.596, -1, 2.05486, 11.1182, 17.9566, -148.417, -96.9001, 125.622
0.6, -1, 1.97708, 11.0974, 17.9618, -148.442, -96.8916, 125.481
0.604, -1, 1.89928, 11.0766, 17.9669, -148.466, -96.883, 125.34
0.608, -1, 1.82147, 11.0558, 17.972, -148.49, -96.8745, 125.199
0.612, -1, 1.74366, 11.035, 17.9772, -148.514, -96.866, 125.058
0.616, -1, 1.66584, 11.0142, 17.9823, -148.538, -96.8574, 124.917
0.62, -1, 1.58801, 10.9933, 17.9875, -148.563, -96.8489, 124.776
0.624, -1, 1.51018, 10.9725, 17.9926, -148.587, -96.8404, 124.635
0.628, -1, 1.43233, 10.9517, 17.9977, -148.611, -96.8318, 124.494
0.632, -1, 1.35448, 10.9309, 18.0029, -148.635, -96.8233, 124.353
0.636, -1, 1.27662, 10.9101, 18.008, -148.659, -96.8147, 124.212
0.64, -1, 1.19875, 10.8893, 18.0132, -148.684, -96.8062, 124.071
0.644, -1, 1.12087, 10.8684, 18.0183, -148.708, -96.7977, 123.93
0.648, -1, 1.04299, 10.8476, 18.0235, -148.732, -96.7891, 123.789
0.652, -1, 0.965097, 10.8268, 18.0286, -148.756, -96.7806, 123.648
0.656, -1, 0.887196, 10.806, 18.0338, -148.78, -96.772, 123.507
0.66, -1, 0.809287, 10.7851, 18.0389, -148.805, -96.7635, 123.366
0.664, -1, 0.731371, 10.7643, 18.0441, -148.829, -96.7549, 123.224
0.668, -1, 0.653446, 10.7435, 18.0492, -148.853, -96.7464, 123.083
0.672, -1, 0.575513, 10.7226, 18.0544, -148.877, -96.7378, 122.942
0.676, -1, 0.497571, 10.7018, 18.0595, -148.902, -96.7293, 122.801
0.68, -1, 0.419622, 10.6809, 18.0647, -148.926, -96.7207, 122.66
0.684, -1, 0.341664, 10.6601, 18.0698, -148.95, -96.7122, 122.518
0.688, -1, 0.263699, 10.6393, 18.075, -148.974, -96.7036, 122.377
0.692, -1, 0.185725, 10.6184, 18.0801, -148.998, -96.6951, 122.236
0.696, -1, 0.107742, 10.5976, 18.0853, -149.023, -96.6865, 122.095
0.7, -1, 0.0297514, 10.5767, 18.0904, -149.047, -96.6779, 121.953
0.704, -1, -0.0482476, 10.5559, 18.0956, -149.071, -96.6694, 121.812
0.708, -1, -0.126255, 10.535, 18.1007, -149.095, -96.6608, 121.671
0.712, -1, -0.204271, 10.5141, 18.1059, -149.12, -96.6523, 121.529
0.716, -1, -0.282295, 10.4933, 18.111, -149.144, -96.6437, 121.388
0.72, -1, -0.360327, 10.4724, 18.1162, -149.168, -96.6352, 121.247
0.724, -1, -0.438368, 10.4515, 18.1214, -149.192, -96.6266, 121.105
0.728, -1, -0.516417, 10.4307, 18.1265, -149.217, -96.618, 120.964
0.732, -1, -0.594474, 10.4098, 18.1317, -149.241, -96.6095, 120.822
0.736, -1, -0.67254, 10.3889, 18.1368, -149.265, -96.6009, 120.681
0.74, -1, -0.750614, 10.3681, 18.142, -149.29, -96.5923, 120.54
0.744, -1, -0.828697, 10.3472, 18.1471, -149.314, -96.5838, 120.398
0.748, -1, -0.906788, 10.3263, 18.1523, -149.338, -96.5752, 120.257
0.752, -1, -0.984887, 10.3054, 18.1575, -149.362, -96.5666, 120.115
0.756, -1, -1.063, 10.2845, 18.1626, -149.387, -96.5581, 119.974
0.76, -1, -1.14111, 10.2637, 18.1678, -149.411, -96.5495, 119.832
0.764, -1, -1.21924, 10.2428, 18.173, -149.435, -96.5409, 119.691
0.768, -1, -1.29737, 10.2219, 18.1781, -149.459, -96.5323, 119.549
0.772, -1, -1.37551, 10.201, 18.1833, -149.484, -96.5238, 119.407
0.776, -1, -1.45366, 10.1801, 18.1884, -149.508, -96.5152, 119.266
0.78, -1, -1.53182, 10.1592, 18.1936, -149.532, -96.5066, 119.124
0.784, -1, -1.60999, 10.1383, 18.1988, -149.557, -96.4981, 118.983
0.788, -1, -1.68817, 10.1174, 18.2039, -149.581, -96.4895, 118.841
0.792, -1, -1.76635, 10.0965, 18.2091, -149.605, -96.4809, 118.699
0.796, -1, -1.84455, 10.0756, 18.2143, -149.63, -96.4723, 118.558
0.8, -1, -1.92275, 10.0547, 18.2194, -149.654, -96.4637, 118.416
0.804, -1, -2.00096, 10.0338, 18.2246, -149.678, -96.4552, 118.274
0.808, -1, -2.07918, 10.0128, 18.2298, -149.702, -96.4466, 118.133
0.812, -1, -2.15741, 9.99193, 18.2349, -149.727, -96.438, 117.991
0.816, -1, -2.23565, 9.97101, 18.2401, -149.751, -96.4294, 117.849
0.82, -1, -2.31389, 9.95009, 18.2453, -149.775, -96.4208, 117.707
0.824, -1, -2.39215, 9.92917, 18.2505, -149.8, -96.4122, 117.566
0.828, -1, -2.47041, 9.90824, 18.2556, -149.824, -96.4037, 117.424
0.832, -1, -2.54868, 9.88731, 18.2608, -149.848, -96.3951, 117.282
0.836, -1, -2.62697, 9.86638, 18.266, -149.873, -96.3865, 117.14
0.84, -1, -2.70526, 9.84545, 18.2711, -149.897, -96.3779, 116.998
0.844, -1, -2.78355, 9.82452, 18.2763, -149.921, -96.3693, 116.857
0.848, -1, -2.86186, 9.80358, 18.2815, -149.946, -96.3607, 116.715
0.852, -1, -2.94018, 9.78264, 18.2867, -149.97, -96.3521, 116.573
0.856, -1, -3.0185, 9.7617, 18.2918, -149.994, -96.3435, 116.431
0.86, -1, -3.09684, 9.74076, 18.297, -150.019, -96.3349, 116.289
0.864, -1, -3.17518, 9.71981, 18.3022, -150.043, -96.3263, 116.147
0.868, -1, -3.25353, 9.69886, 18.3074, -150.067, -96.3177, 116.005
0.872, -1, -3.33189, 9.67791, 18.3125, -150.092, -96.3091, 115.863
0.876, -1, -3.41026, 9.65695, 18.3177, -150.116, -96.3005, 115.721
0.88, -1, -3.48864, 9.636, 18.3229, -150.141, -96.2919, 115.579
0.884, -1, -3.56702, 9.61504, 18.3281, -150.165, -96.2833, 115.437
0.888, -1, -3.64542, 9.59408, 18.3333, -150.189, -96.2747, 115.295
0.892, -1, -3.72382, 9.57312, 18.3384, -150.214, -96.2662, 115.153
0.896, -1, -3.80223, 9.55215, 18.3436, -150.238, -96.2575, 115.011
0.9, -1, -3.88066, 9.53118, 18.3488, -150.262, -96.2489, 114.869
0.904, -1, -3.95909, 9.51021, 18.354, -150.287, -96.2403, 114.727
0.908, -1, -4.03753, 9.48924, 18.3592, -150.311, -96.2317, 114.585
0.912, -1, -4.11597, 9.46827, 18.3644, -150.336, -96.2231, 114.443
0.916, -1, -4.19443, 9.44729, 18.3695, -150.36, -96.2145, 114.3
0.92, -1, -4.2729, 9.42631, 18.3747, -150.384, -96.2059, 114.158
0.924, -1, -4.35137, 9.40533, 18.3799, -150.409, -96.1973, 114.016
0.928, -1, -4.42986, 9.38434, 18.3851, -150.433, -96.1887, 113.874
0.932, -1, -4.50835, 9.36336, 18.3903, -150.458, -96.1801, 113.732
0.936, -1, -4.58685, 9.34237, 18.3955, -150.482, -96.1715, 113.59
0.94, -1, -4.66536, 9.32138, 18.4007, -150.506, -96.1628, 113.447
0.944, -1, -4.74388, 9.30038, 18.4058, -150.531, -96.1542, 113.305
0.948, -1, -4.82241, 9.27939, 18.411, -150.555, -96.1456, 113.163
0.952, -1, -4.90095, 9.25839, 18.4162, -150.58, -96.137, 113.021
0.956, -1, -4.97949, 9.23739, 18.4214, -150.604, -96.1284, 112.878
0.96, -1, -5.05805, 9.21638, 18.4266, -150.628, -96.1198, 112.736
0.964, -1, -5.13661, 9.19538, 18.4318, -150.653, -96.1111, 112.594
0.968, -1, -5.21519, 9.17437, 18.437, -150.677, -96.1025, 112.451
0.972, -1, -5.29377, 9.15336, 18.4422, -150.702, -96.0939, 112.309
0.976, -1, -5.37236, 9.13235, 18.4474, -150.726, -96.0853, 112.166
0.98, -1, -5.45096, 9.11133, 18.4526, -150.751, -96.0767, 112.024
0.984, -1, -5.52957, 9.09031, 18.4578, -150.775, -96.068, 111.882
0.988, -1, -5.60819, 9.06929, 18.4629, -150.799, -96.0594, 111.739
0.992, -1, -5.68681, 9.04827, 18.4681, -150.824, -96.0508, 111.597
0.996, -1, -5.76545, 9.02725, 18.4733, -150.848, -96.0422, 111.454
1, -1, -5.8441, 9.00622, 18.4785, -150.873, -96.0335, 111.312
1.004, -1, -5.92275, 8.98519, 18.4837, -150.897, -96.0249, 111.169
1.008, -1, -6.00141, 8.96416, 18.4889, -150.922, -96.0163, 111.027
1.012, -1, -6.08009, 8.94312, 18.4941, -150.946, -96.0076, 110.884
1.016, -1, -6.15877, 8.92208, 18.4993, -150.971, -95.999, 110.742
1.02, -1, -6.23746, 8.90104, 18.5045, -150.995, -95.9904, 110.599
1.024, -1, -6.31616, 8.88, 18.5097, -151.019, -95.9817, 110.457
1.027, -1, -6.39487, 8.85896, 18.5149, -151.044, -95.9731, 110.314
1.032, -1, -6.47358, 8.83791, 18.5201, -151.068, -95.9645, 110.171
1.036, -1, -6.55231, 8.81686, 18.5253, -151.093, -95.9558, 110.029
1.04, -1, -6.63105, 8.79581, 18.5305, -151.117, -95.9472, 109.886
1.044, -1, -6.70979, 8.77476, 18.5357, -151.142, -95.9386, 109.743
1.048, -1, -6.78854, 8.7537, 18.5409, -151.166, -95.9299, 109.601
1.052, -1, -6.86731, 8.73264, 18.5461, -151.191, -95.9213, 109.458
1.055, -1, -6.94608, 8.71158, 18.5513, -151.215, -95.9126, 109.315
1.06, -1, -7.02486, 8.69052, 18.5566, -151.24, -95.904, 109.173
1.064, -1, -7.10365, 8.66945, 18.5618, -151.264, -95.8954, 109.03
1.068, -1, -7.18245, 8.64838, 18.567, -151.289, -95.8867, 108.887
1.072, -1, -7.26126, 8.62731, 18.5722, -151.313, -95.8781, 108.744
1.076, -1, -7.34008, 8.60624, 18.5774, -151.338, -95.8694, 108.602
1.08, -1, -7.41891, 8.58516, 18.5826, -151.362, -95.8608, 108.459
1.084, -1, -7.49775, 8.56408, 18.5878, -151.387, -95.8521, 108.316
1.088, -1, -7.5766, 8.543, 18.593, -151.411, -95.8435, 108.173
1.091, -1, -7.65545, 8.52192, 18.5982, -151.436, -95.8348, 108.03
1.096, -1, -7.73432, 8.50083, 18.6034, -151.46, -95.8261, 107.887
1.1, -1, -7.81319, 8.47974, 18.6086, -151.485, -95.8175, 107.744
1.104, -1, -7.89208, 8.45865, 18.6139, -151.509, -95.8088, 107.602
1.108, -1, -7.97097, 8.43756, 18.6191, -151.534, -95.8002, 107.459
1.112, -1, -8.04988, 8.41646, 18.6243, -151.558, -95.7915, 107.316
1.116, -1, -8.12879, 8.39536, 18.6295, -151.583, -95.7829, 107.173
1.119, -1, -8.20771, 8.37426, 18.6347, -151.607, -95.7742, 107.03
1.124, -1, -8.28665, 8.35315, 18.6399, -151.632, -95.7656, 106.887
1.128, -1, -8.36559, 8.33205, 18.6451, -151.656, -95.7569, 106.744
1.132, -1, -8.44454, 8.31094, 18.6504, -151.681, -95.7482, 106.601
1.136, -1, -8.5235, 8.28983, 18.6556, -151.706, -95.7396, 106.458
1.14, -1, -8.60247, 8.26871, 18.6608, -151.73, -95.7309, 106.315
1.144, -1, -8.68145, 8.24759, 18.666, -151.755, -95.7222, 106.172
1.147, -1, -8.76044, 8.22647, 18.6712, -151.779, -95.7136, 106.028
1.152, -1, -8.83944, 8.20535, 18.6765, -151.804, -95.7049, 105.885
1.156, -1, -8.91845, 8.18423, 18.6817, -151.828, -95.6963, 105.742
1.16, -1, -8.99747, 8.1631, 18.6869, -151.853, -95.6876, 105.599
1.164, -1, -9.0765, 8.14197, 18.6921, -151.877, -95.6789, 105.456
1.168, -1, -9.15554, 8.12084, 18.6973, -151.902, -95.6702, 105.313
1.172, -1, -9.23459, 8.0997, 18.7026, -151.927, -95.6616, 105.169
1.175, -1, -9.31365, 8.07856, 18.7078, -151.951, -95.6529, 105.026
1.18, -1, -9.39271, 8.05742, 18.713, -151.976, -95.6442, 104.883
1.184, -1, -9.47179, 8.03628, 18.7182, -152, -95.6355, 104.74
1.188, -1, -9.55088, 8.01513, 18.7235, -152.025, -95.6269, 104.596
1.192, -1, -9.62998, 7.99399, 18.7287, -152.049, -95.6182, 104.453
1.196, -1, -9.70908, 7.97284, 18.7339, -152.074, -95.6095, 104.31
1.2, -1, -9.7882, 7.95168, 18.7391, -152.099, -95.6008, 104.166
1.204, -1, -9.86733, 7.93052, 18.7444, -152.123, -95.5921, 104.023
1.208, -1, -9.94647, 7.90937, 18.7496, -152.148, -95.5835, 103.88
1.212, -1, -10.0256, 7.88821, 18.7548, -152.172, -95.5748, 103.736
1.216, -1, -10.1048, 7.86704, 18.7601, -152.197, -95.5661, 103.593
1.22, -1, -10.1839, 7.84587, 18.7653, -152.222, -95.5574, 103.449
1.224, -1, -10.2631, 7.8247, 18.7705, -152.246, -95.5487, 103.306
1.228, -1, -10.3423, 7.80353, 18.7758, -152.271, -95.54, 103.163
1.232, -1, -10.4215, 7.78236, 18.781, -152.295, -95.5313, 103.019
1.236, -1, -10.5007, 7.76118, 18.7862, -152.32, -95.5227, 102.876
1.24, -1, -10.5799, 7.74, 18.7915, -152.345, -95.514, 102.732
1.244, -1, -10.6591, 7.71882, 18.7967, -152.369, -95.5053, 102.589
1.248, -1, -10.7384, 7.69763, 18.8019, -152.394, -95.4966, 102.445
1.252, -1, -10.8176, 7.67644, 18.8072, -152.419, -95.4879, 102.301
1.256, -1, -10.8969, 7.65525, 18.8124, -152.443, -95.4792, 102.158
1.26, -1, -10.9761, 7.63406, 18.8176, -152.468, -95.4705, 102.014
1.264, -1, -11.0554, 7.61286, 18.8229, -152.493, -95.4618, 101.871
1.267, -1, -11.1347, 7.59167, 18.8281, -152.517, -95.4531, 101.727
1.272, -1, -11.214, 7.57047, 18.8333, -152.542, -95.4444, 101.583
1.276, -1, -11.2933, 7.54926, 18.8386, -152.566, -95.4357, 101.44
1.28, -1, -11.3726, 7.52805, 18.8438, -152.591, -95.427, 101.296
1.284, -1, -11.4519, 7.50685, 18.8491, -152.616, -95.4183, 101.152
1.288, -1, -11.5313, 7.48563, 18.8543, -152.64, -95.4096, 101.009
1.292, -1, -11.6106, 7.46442, 18.8596, -152.665, -95.4009, 100.865
1.295, -1, -11.69, 7.4432, 18.8648, -152.69, -95.3922, 100.721
1.3, -1, -11.7693, 7.42198, 18.87, -152.714, -95.3835, 100.577
1.304, -1, -11.8487, 7.40076, 18.8753, -152.739, -95.3748, 100.433
1.308, -1, -11.9281, 7.37953, 18.8805, -152.764, -95.3661, 100.29
1.312, -1, -12.0075, 7.35831, 18.8858, -152.788, -95.3573, 100.146
1.316, -1, -12.0869, 7.33708, 18.891, -152.813, -95.3486, 100.002
1.32, -1, -12.1663, 7.31584, 18.8963, -152.838, -95.3399, 99.8581
1.324, -1, -12.2457, 7.29461, 18.9015, -152.863, -95.3312, 99.7142
1.328, -1, -12.3252, 7.27337, 18.9068, -152.887, -95.3225, 99.5703
1.332, -1, -12.4046, 7.25213, 18.912, -152.912, -95.3138, 99.4263
1.336, -1, -12.4841, 7.23088, 18.9173, -152.937, -95.3051, 99.2824
1.34, -1, -12.5635, 7.20964, 18.9225, -152.961, -95.2963, 99.1384
1.344, -1, -12.643, 7.18839, 18.9278, -152.986, -95.2876, 98.9945
1.348, -1, -12.7225, 7.16713, 18.933, -153.011, -95.2789, 98.8505
1.352, -1, -12.802, 7.14588, 18.9383, -153.035, -95.2702, 98.7064
1.356, -1, -12.8815, 7.12462, 18.9435, -153.06, -95.2615, 98.5624
1.36, -1, -12.961, 7.10336, 18.9488, -153.085, -95.2527, 98.4183
1.364, -1, -13.0405, 7.0821, 18.954, -153.11, -95.244, 98.2743
1.368, -1, -13.1201, 7.06083, 18.9593, -153.134, -95.2353, 98.1302
1.372, -1, -13.1996, 7.03957, 18.9645, -153.159, -95.2266, 97.9861
1.376, -1, -13.2792, 7.01829, 18.9698, -153.184, -95.2178, 97.8419
1.38, -1, -13.3588, 6.99702, 18.9751, -153.208, -95.2091, 97.6978
1.384, -1, -13.4383, 6.97574, 18.9803, -153.233, -95.2004, 97.5536
1.388, -1, -13.5179, 6.95447, 18.9856, -153.258, -95.1916, 97.4094
1.392, -1, -13.5975, 6.93318, 18.9908, -153.283, -95.1829, 97.2652
1.396, -1, -13.6771, 6.9119, 18.9961, -153.307, -95.1742, 97.121
1.4, -1, -13.7567, 6.89061, 19.0014, -153.332, -95.1654, 96.9768
1.404, -1, -13.8364, 6.86932, 19.0066, -153.357, -95.1567, 96.8325
1.408, -1, -13.916, 6.84803, 19.0119, -153.382, -95.148, 96.6882
1.412, -1, -13.9956, 6.82673, 19.0171, -153.406, -95.1392, 96.5439
1.416, -1, -14.0753, 6.80544, 19.0224, -153.431, -95.1305, 96.3996
1.42, -1, -14.155, 6.78413, 19.0277, -153.456, -95.1217, 96.2553
1.424, -1, -14.2347, 6.76283, 19.0329, -153.481, -95.113, 96.1109
1.428, -1, -14.3143, 6.74152, 19.0382, -153.505, -95.1043, 95.9666
1.432, -1, -14.394, 6.72021, 19.0435, -153.53, -95.0955, 95.8222
1.436, -1, -14.4738, 6.6989, 19.0487, -153.555, -95.0868, 95.6778
1.44, -1, -14.5535, 6.67759, 19.054, -153.58, -95.078, 95.5334
1.444, -1, -14.6332, 6.65627, 19.0593, -153.605, -95.0693, 95.3889
1.448, -1, -14.7129, 6.63495, 19.0645, -153.629, -95.0605, 95.2444
1.452, -1, -14.7927, 6.61363, 19.0698, -153.654, -95.0518, 95.1
1.456, -1, -14.8725, 6.5923, 19.0751, -153.679, -95.043, 94.9555
1.46, -1, -14.9522, 6.57097, 19.0804, -153.704, -95.0343, 94.8109
1.464, -1, -15.032, 6.54964, 19.0856, -153.729, -95.0255, 94.6664
1.468, -1, -15.1118, 6.52831, 19.0909, -153.753, -95.0168, 94.5219
1.472, -1, -15.1916, 6.50697, 19.0962, -153.778, -95.008, 94.3773
1.476, -1, -15.2714, 6.48563, 19.1014, -153.803, -94.9993, 94.2327
1.48, -1, -15.3512, 6.46429, 19.1067, -153.828, -94.9905, 94.0881
1.484, -1, -15.4311, 6.44294, 19.112, -153.853, -94.9817, 93.9434
1.488, -1, -15.5109, 6.42159, 19.1173, -153.877, -94.973, 93.7988
1.492, -1, -15.5908, 6.40024, 19.1225, -153.902, -94.9642, 93.6541
1.496, -1, -15.6707, 6.37889, 19.1278, -153.927, -94.9555, 93.5094
1.5, -1, -15.7505, 6.35753, 19.1331, -153.952, -94.9467, 93.3647
1.504, -1, -15.8304, 6.33617, 19.1384, -153.977, -94.9379, 93.22
1.508, -1, -15.9103, 6.31481, 19.1437, -154.002, -94.9292, 93.0752
1.512, -1, -15.9902, 6.29344, 19.1489, -154.026, -94.9204, 92.9304
1.516, -1, -16.0702, 6.27207, 19.1542, -154.051, -94.9116, 92.7857
1.52, -1, -16.1501, 6.2507, 19.1595, -154.076, -94.9029, 92.6408
1.524, -1, -16.23, 6.22933, 19.1648, -154.101, -94.8941, 92.496
1.528, -1, -16.31, 6.20795, 19.1701, -154.126, -94.8853, 92.3512
1.532, -1, -16.3899, 6.18657, 19.1753, -154.151, -94.8766, 92.2063
1.536, -1, -16.4699, 6.16519, 19.1806, -154.176, -94.8678, 92.0614
1.54, -1, -16.5499, 6.1438, 19.1859, -154.2, -94.859, 91.9165
1.544, -1, -16.6299, 6.12241, 19.1912, -154.225, -94.8502, 91.7716
1.548, -1, -16.7099, 6.10102, 19.1965, -154.25, -94.8414, 91.6266
1.552, -1, -16.7899, 6.07963, 19.2018, -154.275, -94.8327, 91.4816
1.556, -1, -16.87, 6.05823, 19.2071, -154.3, -94.8239, 91.3367
1.56, -1, -16.95, 6.03683, 19.2124, -154.325, -94.8151, 91.1917
1.564, -1, -17.0301, 6.01542, 19.2176, -154.35, -94.8063, 91.0466
1.568, -1, -17.1101, 5.99402, 19.2229, -154.374, -94.7975, 90.9016
1.572, -1, -17.1902, 5.97261, 19.2282, -154.399, -94.7888, 90.7565
1.576, -1, -17.2703, 5.9512, 19.2335, -154.424, -94.78, 90.6114
1.58, -1, -17.3504, 5.92978, 19.2388, -154.449, -94.7712, 90.4663
1.584, -1, -17.4305, 5.90836, 19.2441, -154.474, -94.7624, 90.3212
1.588, -1, -17.5106, 5.88694, 19.2494, -154.499, -94.7536, 90.176
1.592, -1, -17.5907, 5.86552, 19.2547, -154.524, -94.7448, 90.0309
1.596, -1, -17.6709, 5.84409, 19.26, -154.549, -94.736, 89.8857
1.6, -1, -17.751, 5.82266, 19.2653, -154.574, -94.7272, 89.7405
1.604, -1, -17.8312, 5.80123, 19.2706, -154.599, -94.7184, 89.5953
1.608, -1, -17.9114, 5.77979, 19.2759, -154.624, -94.7096, 89.45
1.612, -1, -17.9915, 5.75835, 19.2812, -154.648, -94.7008, 89.3047
1.616, -1, -18.0717, 5.73691, 19.2865, -154.673, -94.692, 89.1595
1.62, -1, -18.1519, 5.71547, 19.2918, -154.698, -94.6832, 89.0142
1.624, -1, -18.2321, 5.69402, 19.2971, -154.723, -94.6744, 88.8688
1.628, -1, -18.3124, 5.67257, 19.3024, -154.748, -94.6656, 88.7235
1.632, -1, -18.3926, 5.65112, 19.3077, -154.773, -94.6568, 88.5781
1.636, -1, -18.4729, 5.62966, 19.313, -154.798, -94.648, 88.4327
1.64, -1, -18.5531, 5.6082, 19.3183, -154.823, -94.6392, 88.2873
1.644, -1, -18.6334, 5.58674, 19.3236, -154.848, -94.6304, 88.1419
1.648, -1, -18.7137, 5.56528, 19.3289, -154.873, -94.6216, 87.9965
1.652, -1, -18.794, 5.54381, 19.3342, -154.898, -94.6128, 87.851
1.656, -1, -18.8743, 5.52234, 19.3395, -154.923, -94.604, 87.7055
1.66, -1, -18.9546, 5.50086, 19.3448, -154.948, -94.5952, 87.56
1.664, -1, -19.0349, 5.47939, 19.3501, -154.973, -94.5864, 87.4145
1.668, -1, -19.1153, 5.45791, 19.3554, -154.998, -94.5776, 87.2689
1.672, -1, -19.1956, 5.43642, 19.3607, -155.023, -94.5687, 87.1234
1.676, -1, -19.276, 5.41494, 19.366, -155.048, -94.5599, 86.9778
1.68, -1, -19.3563, 5.39345, 19.3713, -155.073, -94.5511, 86.8322
1.684, -1, -19.4367, 5.37196, 19.3767, -155.098, -94.5423, 86.6866
1.688, -1, -19.5171, 5.35046, 19.382, -155.123, -94.5335, 86.5409
1.692, -1, -19.5975, 5.32896, 19.3873, -155.148, -94.5247, 86.3953
1.696, -1, -19.6779, 5.30746, 19.3926, -155.173, -94.5158, 86.2496
1.7, -1, -19.7583, 5.28596, 19.3979, -155.198, -94.507, 86.1039
1.704, -1, -19.8388, 5.26445, 19.4032, -155.223, -94.4982, 85.9581
1.708, -1, -19.9192, 5.24294, 19.4085, -155.248, -94.4893, 85.8124
1.712, -1, -19.9997, 5.22143, 19.4139, -155.273, -94.4805, 85.6666
1.716, -1, -20.0802, 5.19992, 19.4192, -155.298, -94.4717, 85.5208
1.72, -1, -20.1606, 5.1784, 19.4245, -155.323, -94.4629, 85.375
1.724, -1, -20.2411, 5.15688, 19.4298, -155.348, -94.454, 85.2292
1.728, -1, -20.3216, 5.13535, 19.4351, -155.373, -94.4452, 85.0834
1.732, -1, -20.4022, 5.11383, 19.4405, -155.398, -94.4364, 84.9375
1.736, -1, -20.4827, 5.0923, 19.4458, -155.423, -94.4275, 84.7916
1.74, -1, -20.5632, 5.07076, 19.4511, -155.448, -94.4187, 84.6457
1.744, -1, -20.6438, 5.04923, 19.4564, -155.473, -94.4099, 84.4998
1.748, -1, -20.7243, 5.02769, 19.4617, -155.498, -94.401, 84.3538
1.752, -1, -20.8049, 5.00615, 19.4671, -155.523, -94.3922, 84.2079
1.756, -1, -20.8855, 4.9846, 19.4724, -155.548, -94.3833, 84.0619
1.76, -1, -20.9661, 4.96305, 19.4777, -155.573, -94.3745, 83.9159
1.764, -1, -21.0467, 4.9415, 19.483, -155.598, -94.3657, 83.7698
1.768, -1, -21.1273, 4.91995, 19.4884, -155.623, -94.3568, 83.6238
1.772, -1, -21.2079, 4.89839, 19.4937, -155.648, -94.348, 83.4777
1.776, -1, -21.2886, 4.87683, 19.499, -155.673, -94.3391, 83.3316
1.78, -1, -21.3692, 4.85527, 19.5043, -155.698, -94.3303, 83.1855
1.784, -1, -21.4499, 4.8337, 19.5097, -155.723, -94.3214, 83.0394
1.788, -1, -21.5305, 4.81213, 19.515, -155.748, -94.3126, 82.8933
1.792, -1, -21.6112, 4.79056, 19.5203, -155.774, -94.3037, 82.7471
1.796, -1, -21.6919, 4.76898, 19.5257, -155.799, -94.2949, 82.6009
1.8, -1, -21.7726, 4.74741, 19.531, -155.824, -94.286, 82.4547
1.804, -1, -21.8533, 4.72582, 19.5363, -155.849, -94.2772, 82.3084
1.808, -1, -21.9341, 4.70424, 19.5417, -155.874, -94.2683, 82.1622
1.812, -1, -22.0148, 4.68265, 19.547, -155.899, -94.2595, 82.0159
1.816, -1, -22.0956, 4.66106, 19.5523, -155.924, -94.2506, 81.8696
1.82, -1, -22.1763, 4.63947, 19.5577, -155.949, -94.2417, 81.7233
1.824, -1, -22.2571, 4.61787, 19.563, -155.974, -94.2329, 81.577
1.828, -1, -22.3379, 4.59627, 19.5684, -155.999, -94.224, 81.4306
1.832, -1, -22.4187, 4.57467, 19.5737, -156.025, -94.2151, 81.2843
1.836, -1, -22.4995, 4.55306, 19.579, -156.05, -94.2063, 81.1379
1.84, -1, -22.5803, 4.53146, 19.5844, -156.075, -94.1974, 80.9914
1.844, -1, -22.6611, 4.50984, 19.5897, -156.1, -94.1885, 80.845
1.848, -1, -22.742, 4.48823, 19.5951, -156.125, -94.1797, 80.6985
1.852, -1, -22.8228, 4.46661, 19.6004, -156.15, -94.1708, 80.5521
1.856, -1, -22.9037, 4.44499, 19.6057, -156.175, -94.1619, 80.4055
1.86, -1, -22.9846, 4.42337, 19.6111, -156.2, -94.1531, 80.259
1.864, -1, -23.0655, 4.40174, 19.6164, -156.226, -94.1442, 80.1125
1.868, -1, -23.1464, 4.38011, 19.6218, -156.251, -94.1353, 79.9659
1.872, -1, -23.2273, 4.35847, 19.6271, -156.276, -94.1264, 79.8193
1.876, -1, -23.3082, 4.33684, 19.6325, -156.301, -94.1175, 79.6727
1.88, -1, -23.3891, 4.3152, 19.6378, -156.326, -94.1087, 79.5261
1.884, -1, -23.4701, 4.29355, 19.6432, -156.351, -94.0998, 79.3794
1.888, -1, -23.5511, 4.27191, 19.6485, -156.377, -94.0909, 79.2328
1.892, -1, -23.632, 4.25026, 19.6539, -156.402, -94.082, 79.0861
1.896, -1, -23.713, 4.2286, 19.6592, -156.427, -94.0731, 78.9393
1.9, -1, -23.794, 4.20695, 19.6646, -156.452, -94.0643, 78.7926
1.904, -1, -23.875, 4.18529, 19.6699, -156.477, -94.0554, 78.6458
1.908, -1, -23.956, 4.16363, 19.6753, -156.502, -94.0465, 78.4991
1.912, -1, -24.0371, 4.14196, 19.6806, -156.528, -94.0376, 78.3523
1.916, -1, -24.1181, 4.12029, 19.686, -156.553, -94.0287, 78.2054
1.92, -1, -24.1992, 4.09862, 19.6913, -156.578, -94.0198, 78.0586
1.924, -1, -24.2802, 4.07694, 19.6967, -156.603, -94.0109, 77.9117
1.928, -1, -24.3613, 4.05527, 19.702, -156.628, -94.002, 77.7648
1.932, -1, -24.4424, 4.03358, 19.7074, -156.654, -93.9931, 77.6179
1.936, -1, -24.5235, 4.0119, 19.7128, -156.679, -93.9842, 77.471
1.94, -1, -24.6046, 3.99021, 19.7181, -156.704, -93.9753, 77.324
1.944, -1, -24.6857, 3.96852, 19.7235, -156.729, -93.9664, 77.1771
1.948, -1, -24.7669, 3.94683, 19.7288, -156.754, -93.9575, 77.0301
1.952, -1, -24.848, 3.92513, 19.7342, -156.78, -93.9486, 76.883
1.956, -1, -24.9292, 3.90343, 19.7396, -156.805, -93.9397, 76.736
1.96, -1, -25.0104, 3.88173, 19.7449, -156.83, -93.9308, 76.5889
1.964, -1, -25.0916, 3.86002, 19.7503, -156.855, -93.9219, 76.4419
1.968, -1, -25.1728, 3.83831, 19.7557, -156.881, -93.913, 76.2948
1.972, -1, -25.254, 3.8166, 19.761, -156.906, -93.9041, 76.1476
1.976, -1, -25.3352, 3.79488, 19.7664, -156.931, -93.8952, 76.0005
1.98, -1, -25.4164, 3.77316, 19.7718, -156.956, -93.8863, 75.8533
1.984, -1, -25.4977, 3.75144, 19.7771, -156.982, -93.8773, 75.7061
1.988, -1, -25.5789, 3.72971, 19.7825, -157.007, -93.8684, 75.5589
1.992, -1, -25.6602, 3.70798, 19.7879, -157.032, -93.8595, 75.4117
1.996, -1, -25.7415, 3.68625, 19.7932, -157.057, -93.8506, 75.2644
1.999, -1, -25.8228, 3.66452, 19.7986, -157.083, -93.8417, 75.1171
2.004, -1, -25.9041, 3.64278, 19.804, -157.108, -93.8328, 74.9699
2.008, -1, -25.9854, 3.62104, 19.8094, -157.133, -93.8238, 74.8225
2.012, -1, -26.0667, 3.59929, 19.8147, -157.158, -93.8149, 74.6752
2.015, -1, -26.1481, 3.57754, 19.8201, -157.184, -93.806, 74.5278
2.019, -1, -26.2294, 3.55579, 19.8255, -157.209, -93.7971, 74.3804
2.024, -1, -26.3108, 3.53404, 19.8309, -157.234, -93.7881, 74.233
2.028, -1, -26.3922, 3.51228, 19.8362, -157.26, -93.7792, 74.0856
2.031, -1, -26.4735, 3.49052, 19.8416, -157.285, -93.7703, 73.9382
2.036, -1, -26.5549, 3.46875, 19.847, -157.31, -93.7614, 73.7907
2.04, -1, -26.6364, 3.44699, 19.8524, -157.335, -93.7524, 73.6432
2.044, -1, -26.7178, 3.42522, 19.8578, -157.361, -93.7435, 73.4957
2.048, -1, -26.7992, 3.40344, 19.8631, -157.386, -93.7346, 73.3482
2.051, -1, -26.8807, 3.38167, 19.8685, -157.411, -93.7256, 73.2006
2.055, -1, -26.9621, 3.35989, 19.8739, -157.437, -93.7167, 73.053
2.06, -1, -27.0436, 3.3381, 19.8793, -157.462, -93.7077, 72.9054
2.064, -1, -27.1251, 3.31632, 19.8847, -157.487, -93.6988, 72.7578
2.068, -1, -27.2066, 3.29453, 19.8901, -157.513, -93.6899, 72.6101
2.071, -1, -27.2881, 3.27273, 19.8954, -157.538, -93.6809, 72.4625
2.076, -1, -27.3696, 3.25094, 19.9008, -157.563, -93.672, 72.3148
2.08, -1, -27.4511, 3.22914, 19.9062, -157.589, -93.663, 72.1671
2.084, -1, -27.5327, 3.20734, 19.9116, -157.614, -93.6541, 72.0194
2.087, -1, -27.6142, 3.18553, 19.917, -157.639, -93.6451, 71.8716
2.092, -1, -27.6958, 3.16372, 19.9224, -157.665, -93.6362, 71.7238
2.096, -1, -27.7774, 3.14191, 19.9278, -157.69, -93.6272, 71.576
2.1, -1, -27.859, 3.12009, 19.9332, -157.716, -93.6183, 71.4282
2.104, -1, -27.9406, 3.09828, 19.9386, -157.741, -93.6093, 71.2804
2.107, -1, -28.0222, 3.07646, 19.9439, -157.766, -93.6004, 71.1325
2.111, -1, -28.1038, 3.05463, 19.9493, -157.792, -93.5914, 70.9846
2.116, -1, -28.1855, 3.0328, 19.9547, -157.817, -93.5825, 70.8367
2.12, -1, -28.2671, 3.01097, 19.9601, -157.842, -93.5735, 70.6888
2.124, -1, -28.3488, 2.98914, 19.9655, -157.868, -93.5646, 70.5409
2.127, -1, -28.4304, 2.9673, 19.9709, -157.893, -93.5556, 70.3929
2.132, -1, -28.5121, 2.94546, 19.9763, -157.919, -93.5466, 70.2449
2.136, -1, -28.5938, 2.92361, 19.9817, -157.944, -93.5377, 70.0969
2.14, -1, -28.6755, 2.90177, 19.9871, -157.969, -93.5287, 69.9489
2.143, -1, -28.7573, 2.87992, 19.9925, -157.995, -93.5197, 69.8008
2.148, -1, -28.839, 2.85806, 19.9979, -158.02, -93.5108, 69.6527
2.152, -1, -28.9208, 2.83621, 20.0033, -158.046, -93.5018, 69.5046
2.156, -1, -29.0025, 2.81435, 20.0087, -158.071, -93.4928, 69.3565
2.16, -1, -29.0843, 2.79248, 20.0141, -158.096, -93.4839, 69.2084
2.163, -1, -29.1661, 2.77062, 20.0195, -158.122, -93.4749, 69.0602
2.168, -1, -29.2479, 2.74875, 20.0249, -158.147, -93.4659, 68.912
2.172, -1, -29.3297, 2.72687, 20.0303, -158.173, -93.4569, 68.7638
2.176, -1, -29.4115, 2.705, 20.0357, -158.198, -93.448, 68.6156
2.179, -1, -29.4933, 2.68312, 20.0411, -158.224, -93.439, 68.4673
2.184, -1, -29.5752, 2.66124, 20.0466, -158.249, -93.43, 68.319
2.188, -1, -29.657, 2.63935, 20.052, -158.274, -93.421, 68.1708
2.192, -1, -29.7389, 2.61746, 20.0574, -158.3, -93.412, 68.0224
2.196, -1, -29.8208, 2.59557, 20.0628, -158.325, -93.4031, 67.8741
2.199, -1, -29.9027, 2.57367, 20.0682, -158.351, -93.3941, 67.7257
2.204, -1, -29.9846, 2.55177, 20.0736, -158.376, -93.3851, 67.5773
2.208, -1, -30.0665, 2.52987, 20.079, -158.402, -93.3761, 67.4289
2.212, -1, -30.1484, 2.50797, 20.0844, -158.427, -93.3671, 67.2805
2.216, -1, -30.2304, 2.48606, 20.0898, -158.453, -93.3581, 67.1321
2.219, -1, -30.3123, 2.46414, 20.0953, -158.478, -93.3491, 66.9836
2.224, -1, -30.3943, 2.44223, 20.1007, -158.504, -93.3401, 66.8351
2.228, -1, -30.4763, 2.42031, 20.1061, -158.529, -93.3311, 66.6866
2.232, -1, -30.5583, 2.39839, 20.1115, -158.555, -93.3222, 66.538
2.235, -1, -30.6403, 2.37646, 20.1169, -158.58, -93.3132, 66.3895
2.24, -1, -30.7223, 2.35453, 20.1224, -158.606, -93.3041, 66.2409
2.244, -1, -30.8043, 2.3326, 20.1278, -158.631, -93.2952, 66.0922
2.248, -1, -30.8864, 2.31066, 20.1332, -158.657, -93.2861, 65.9436
2.252, -1, -30.9684, 2.28873, 20.1386, -158.682, -93.2771, 65.795
2.255, -1, -31.0505, 2.26678, 20.144, -158.708, -93.2681, 65.6463
2.259, -1, -31.1326, 2.24484, 20.1495, -158.733, -93.2591, 65.4976
2.264, -1, -31.2146, 2.22289, 20.1549, -158.759, -93.2501, 65.3489
2.268, -1, -31.2968, 2.20094, 20.1603, -158.784, -93.2411, 65.2001
2.272, -1, -31.3789, 2.17898, 20.1657, -158.81, -93.2321, 65.0513
2.275, -1, -31.461, 2.15702, 20.1712, -158.835, -93.2231, 64.9025
2.28, -1, -31.5431, 2.13506, 20.1766, -158.861, -93.2141, 64.7537
2.284, -1, -31.6253, 2.11309, 20.182, -158.886, -93.2051, 64.6049
2.288, -1, -31.7075, 2.09112, 20.1874, -158.912, -93.1961, 64.456
2.291, -1, -31.7896, 2.06915, 20.1929, -158.937, -93.187, 64.3072
2.296, -1, -31.8718, 2.04718, 20.1983, -158.963, -93.178, 64.1582
2.3, -1, -31.954, 2.0252, 20.2037, -158.988, -93.169, 64.0093
2.304, -1, -32.0363, 2.00322, 20.2092, -159.014, -93.16, 63.8604
2.308, -1, -32.1185, 1.98123, 20.2146, -159.04, -93.151, 63.7114
2.311, -1, -32.2007, 1.95924, 20.22, -159.065, -93.142, 63.5624
2.316, -1, -32.283, 1.93725, 20.2255, -159.091, -93.1329, 63.4134
2.32, -1, -32.3652, 1.91525, 20.2309, -159.116, -93.1239, 63.2644
2.324, -1, -32.4475, 1.89325, 20.2363, -159.142, -93.1149, 63.1153
2.328, -1, -32.5298, 1.87125, 20.2418, -159.167, -93.1059, 62.9662
2.331, -1, -32.6121, 1.84925, 20.2472, -159.193, -93.0968, 62.8171
2.336, -1, -32.6944, 1.82724, 20.2527, -159.219, -93.0878, 62.668
2.34, -1, -32.7768, 1.80523, 20.2581, -159.244, -93.0788, 62.5188
2.344, -1, -32.8591, 1.78321, 20.2635, -159.27, -93.0697, 62.3696
2.347, -1, -32.9415, 1.76119, 20.269, -159.295, -93.0607, 62.2204
2.352, -1, -33.0238, 1.73917, 20.2744, -159.321, -93.0517, 62.0712
2.356, -1, -33.1062, 1.71714, 20.2799, -159.347, -93.0426, 61.922
2.36, -1, -33.1886, 1.69512, 20.2853, -159.372, -93.0336, 61.7727
2.364, -1, -33.271, 1.67308, 20.2908, -159.398, -93.0245, 61.6234
2.367, -1, -33.3534, 1.65105, 20.2962, -159.423, -93.0155, 61.4741
2.372, -1, -33.4358, 1.62901, 20.3016, -159.449, -93.0064, 61.3248
2.376, -1, -33.5183, 1.60697, 20.3071, -159.475, -92.9974, 61.1754
2.38, -1, -33.6007, 1.58492, 20.3125, -159.5, -92.9884, 61.0261
2.383, -1, -33.6832, 1.56287, 20.318, -159.526, -92.9793, 60.8767
2.388, -1, -33.7657, 1.54082, 20.3234, -159.551, -92.9703, 60.7272
2.392, -1, -33.8482, 1.51877, 20.3289, -159.577, -92.9612, 60.5778
2.396, -1, -33.9307, 1.49671, 20.3343, -159.603, -92.9522, 60.4283
2.4, -1, -34.0132, 1.47465, 20.3398, -159.628, -92.9431, 60.2788
2.403, -1, -34.0957, 1.45258, 20.3452, -159.654, -92.9341, 60.1293
2.408, -1, -34.1782, 1.43051, 20.3507, -159.68, -92.925, 59.9798
2.412, -1, -34.2608, 1.40844, 20.3562, -159.705, -92.9159, 59.8302
2.416, -1, -34.3434, 1.38636, 20.3616, -159.731, -92.9069, 59.6807
2.42, -1, -34.4259, 1.36429, 20.3671, -159.757, -92.8978, 59.5311
2.423, -1, -34.5085, 1.3422, 20.3725, -159.782, -92.8888, 59.3814
2.428, -1, -34.5911, 1.32012, 20.378, -159.808, -92.8797, 59.2318
2.432, -1, -34.6737, 1.29803, 20.3834, -159.834, -92.8706, 59.0821
2.436, -1, -34.7564, 1.27594, 20.3889, -159.859, -92.8616, 58.9324
2.439, -1, -34.839, 1.25384, 20.3944, -159.885, -92.8525, 58.7827
2.444, -1, -34.9217, 1.23174, 20.3998, -159.911, -92.8434, 58.633
2.448, -1, -35.0043, 1.20964, 20.4053, -159.937, -92.8344, 58.4832
2.452, -1, -35.087, 1.18754, 20.4107, -159.962, -92.8253, 58.3334
2.456, -1, -35.1697, 1.16543, 20.4162, -159.988, -92.8162, 58.1836
2.459, -1, -35.2524, 1.14332, 20.4217, -160.014, -92.8071, 58.0338
2.464, -1, -35.3351, 1.12121, 20.4271, -160.039, -92.7981, 57.8839
2.468, -1, -35.4176, 1.09912, 20.4326, -160.065, -92.789, 57.7341
2.472, -1, -35.4998, 1.07708, 20.4381, -160.091, -92.7799, 57.5842
2.476, -1, -35.5816, 1.05512, 20.4437, -160.116, -92.7708, 57.4344
2.479, -1, -35.6629, 1.03329, 20.4493, -160.142, -92.7618, 57.2847
2.484, -1, -35.7434, 1.01162, 20.455, -160.168, -92.7527, 57.1353
2.488, -1, -35.8231, 0.99016, 20.4608, -160.193, -92.7437, 56.9863
2.492, -1, -35.9018, 0.968944, 20.4666, -160.219, -92.7347, 56.8381
2.495, -1, -35.9795, 0.948033, 20.4725, -160.244, -92.7257, 56.691
2.5, -1, -36.056, 0.927506, 20.4784, -160.269, -92.7169, 56.5453
2.504, -1, -36.1308, 0.907455, 20.4844, -160.293, -92.7082, 56.4017
2.508, -1, -36.2037, 0.887968, 20.4903, -160.318, -92.6996, 56.2606
2.512, -1, -36.2743, 0.869122, 20.4963, -160.341, -92.6912, 56.1228
2.515, -1, -36.3425, 0.850976, 20.5022, -160.364, -92.683, 55.989
2.52, -1, -36.408, 0.833574, 20.5079, -160.386, -92.6751, 55.8601
2.524, -1, -36.4706, 0.816949, 20.5133, -160.407, -92.6676, 55.7367
2.528, -1, -36.5302, 0.801133, 20.5185, -160.427, -92.6605, 55.6198
2.531, -1, -36.5866, 0.786178, 20.5232, -160.446, -92.6538, 55.5101
2.536, -1, -36.6395, 0.772138, 20.5276, -160.463, -92.6476, 55.4081
2.54, -1, -36.6888, 0.759062, 20.5314, -160.48, -92.6419, 55.3144
2.544, -1, -36.7343, 0.746971, 20.5348, -160.494, -92.6367, 55.2294
2.548, -1, -36.7761, 0.735855, 20.5376, -160.507, -92.6321, 55.1531
2.551, -1, -36.8143, 0.725688, 20.5398, -160.519, -92.628, 55.0858
2.556, -1, -36.8489, 0.716443, 20.5415, -160.529, -92.6245, 55.0272
2.56, -1, -36.8801, 0.708102, 20.5427, -160.537, -92.6215, 54.9771
2.564, -1, -36.9079, 0.700657, 20.5434, -160.545, -92.619, 54.9348
2.568, -1, -36.9323, 0.694098, 20.5438, -160.551, -92.6169, 54.8999
2.571, -1, -36.9535, 0.688406, 20.5438, -160.556, -92.6152, 54.8714
2.576, -1, -36.9717, 0.683543, 20.5436, -160.56, -92.6139, 54.8487
2.58, -1, -36.9872, 0.679445, 20.5433, -160.563, -92.6129, 54.8309
2.584, -1, -37.0002, 0.676034, 20.5429, -160.565, -92.6121, 54.8173
2.587, -1, -37.0112, 0.67323, 20.5424, -160.567, -92.6115, 54.8072
2.592, -1, -37.0203, 0.670965, 20.5419, -160.568, -92.6111, 54.7997
2.596, -1, -37.0277, 0.669174, 20.5414, -160.569, -92.6108, 54.7944
2.6, -1, -37.0336, 0.667799, 20.541, -160.57, -92.6106, 54.7907
2.604, 2, -37.038, 0.666779, 20.5407, -160.57, -92.6105, 54.7881
2.607, 2, -37.0413, 0.66605, 20.5404, -160.571, -92.6104, 54.7864
2.612, 2, -37.0436, 0.665546, 20.5402, -160.571, -92.6103, 54.7852
2.616, 2, -37.0451, 0.665202, 20.5401, -160.571, -92.6103, 54.7844
2.62, 2, -37.0462, 0.664969, 20.54, -160.571, -92.6102, 54.7839
2.624, 2, -37.0469, 0.664811, 20.54, -160.571, -92.6102, 54.7835
2.627, 2, -37.0474, 0.664704, 20.5399, -160.571, -92.6102, 54.7832
2.632, 2, -37.0477, 0.664632, 20.5399, -160.571, -92.6102, 54.7831
2.636, 2, -37.048, 0.664583, 20.5399, -160.571, -92.6102, 54.783
2.64, 2, -37.0481, 0.66455, 20.5399, -160.571, -92.6102, 54.7829
2.643, 2, -37.0482, 0.664527, 20.5399, -160.571, -92.6102, 54.7828
2.648, 2, -37.0483, 0.664512, 20.5399, -160.571, -92.6102, 54.7828
2.652, 2, -37.0483, 0.664502, 20.5399, -160.571, -92.6102, 54.7828
2.656, 2, -37.0484, 0.664495, 20.5399, -160.571, -92.6102, 54.7827
2.66, 2, -37.0484, 0.66449, 20.5399, -160.571, -92.6102, 54.7827
2.663, 2, -37.0484, 0.664487, 20.5399, -160.571, -92.6102, 54.7827
2.668, 2, -37.0484, 0.664485, 20.5399, -160.571, -92.6102, 54.7827
2.672, 2, -37.0484, 0.664483, 20.5399, -160.571, -92.6102, 54.7827
2.676, 2, -37.0484, 0.664482, 20.5399, -160.571, -92.6102, 54.7827
2.679, 2, -37.0484, 0.664481, 20.5399, -160.571, -92.6102, 54.7827
2.684, 2, -37.0484, 0.664481, 20.5399, -160.571, -92.6102, 54.7827
2.688, 2, -37.0484, 0.664481, 20.5399, -160.571, -92.6102, 54.7827
2.692, 2, -37.0484, 0.66448, 20.5399, -160.571, -92.6102, 54.7827
2.696, 2, -37.0484, 0.66448, 20.5399, -160.571, -92.6102, 54.7827
2.699, 2, -37.0484, 0.66448, 20.5399, -160.571, -92.6102, 54.7827
2.704, 2, -37.0484, 0.66448, 20.5399, -160.571, -92.6102, 54.7827
2.708, 2, -37.0484, 0.66448, 20.5399, -160.571, -92.6102, 54.7827
2.712, 2, -37.0484, 0.66448, 20.5399, -160.571, -92.6102, 54.7827
2.716, 2, -37.0484, 0.66448, 20.5399, -160.571, -92.6102, 54.7827
2.719, 2, -37.0484, 0.66448, 20.5399, -160.571, -92.6102, 54.7827
2.724, 2, -37.0484, 0.66448, 20.5399, -160.571, -92.6102, 54.7827
2.728, 2, -37.0484, 0.66448, 20.5399, -160.571, -92.6102, 54.7827
2.732, 2, -37.0484, 0.66448, 20.5399, -160.571, -92.6102, 54.7827
2.735, 2, -37.0484, 0.66448, 20.5399, -160.571, -92.6102, 54.7827
2.74, 2, -37.0484, 0.66448, 20.5399, -160.571, -92.6102, 54.7827
2.744, 2, -37.0484, 0.66448, 20.5399, -160.571, -92.6102, 54.7827
2.748, 2, -37.0484, 0.66448, 20.5399, -160.571, -92.6102, 54.7827
2.752, 2, -37.0484, 0.66448, 20.5399, -160.571, -92.6102, 54.7827
2.755, 2, -37.0484, 0.66448, 20.5399, -160.571, -92.6102, 54.7827
2.76, 2, -37.0484, 0.66448, 20.5399, -160.571, -92.6102, 54.7827
2.764, 2, -37.0484, 0.66448, 20.5399, -160.571, -92.6102, 54.7827
2.768, 2, -37.0484, 0.66448, 20.5399, -160.571, -92.6102, 54.7827
2.772, 2, -37.0484, 0.66448, 20.5399, -160.571, -92.6102, 54.7827
2.775, 2, -37.0484, 0.66448, 20.5399, -160.571, -92.6102, 54.7827
2.78, 2, -37.0484, 0.66448, 20.5399, -160.571, -92.6102, 54.7827
2.784, 2, -37.0484, 0.66448, 20.5399, -160.571, -92.6102, 54.7827
2.788, 2, -37.0484, 0.66448, 20.5399, -160.571, -92.6102, 54.7827
2.791, 2, -37.0484, 0.66448, 20.5399, -160.571, -92.6102, 54.7827
2.796, 2, -37.0484, 0.66448, 20.5399, -160.571, -92.6102, 54.7827
2.8, 2, -37.0484, 0.66448, 20.5399, -160.571, -92.6102, 54.7827
2.804, 2, -37.0484, 0.66448, 20.5399, -160.571, -92.6102, 54.7827
2.808, 2, -37.0484, 0.66448, 20.5399, -160.571, -92.6102, 54.7827
2.811, 2, -37.0484, 0.66448, 20.5399, -160.571, -92.6102, 54.7827
2.816, 2, -37.0484, 0.66448, 20.5399, -160.571, -92.6102, 54.7827
2.82, 2, -37.0484, 0.66448, 20.5399, -160.571, -92.6102, 54.7827
2.824, 2, -37.0484, 0.66448, 20.5399, -160.571, -92.6102, 54.7827
2.828, 2, -37.0484, 0.66448, 20.5399, -160.571, -92.6102, 54.7827
2.831, 2, -37.0484, 0.66448, 20.5399, -160.571, -92.6102, 54.7827
2.836, 2, -37.0484, 0.66448, 20.5399, -160.571, -92.6102, 54.7827
2.84, 2, -37.0484, 0.66448, 20.5399, -160.571, -92.6102, 54.7827
2.844, 2, -37.0484, 0.66448, 20.5399, -160.571, -92.6102, 54.7827
2.847, 2, -37.0484, 0.66448, 20.5399, -160.571, -92.6102, 54.7827
2.852, 2, -37.0484, 0.66448, 20.5399, -160.571, -92.6102, 54.7827
2.856, 2, -37.0484, 0.66448, 20.5399, -160.571, -92.6102, 54.7827
2.86, 2, -37.0484, 0.66448, 20.5399, -160.571, -92.6102, 54.7827
2.864, 2, -37.0484, 0.66448, 20.5399, -160.571, -92.6102, 54.7827
2.867, 2, -37.0484, 0.66448, 20.5399, -160.571, -92.6102, 54.7827
2.872, 2, -37.0484, 0.66448, 20.5399, -160.571, -92.6102, 54.7827
2.876, 2, -37.0484, 0.66448, 20.5399, -160.571, -92.6102, 54.7827
2.88, 2, -37.0484, 0.66448, 20.5399, -160.571, -92.6102, 54.7827
2.883, 2, -37.0484, 0.66448, 20.5399, -160.571, -92.6102, 54.7827
2.888, 2, -37.0484, 0.66448, 20.5399, -160.571, -92.6102, 54.7827
2.892, 2, -37.0484, 0.66448, 20.5399, -160.571, -92.6102, 54.7827
2.896, 2, -37.0484, 0.66448, 20.5399, -160.571, -92.6102, 54.7827
2.9, 2, -37.0484, 0.66448, 20.5399, -160.571, -92.6102, 54.7827
2.903, 2, -37.0484, 0.66448, 20.5399, -160.571, -92.6102, 54.7827
2.908, 2, -37.0484, 0.66448, 20.5399, -160.571, -92.6102, 54.7827
2.912, 2, -37.0484, 0.66448, 20.5399, -160.571, -92.6102, 54.7827
2.916, 2, -37.0484, 0.66448, 20.5399, -160.571, -92.6102, 54.7827
2.92, 2, -37.0484, 0.66448, 20.5399, -160.571, -92.6102, 54.7827
2.923, 2, -37.0484, 0.66448, 20.5399, -160.571, -92.6102, 54.7827
2.928, 2, -37.0484, 0.66448, 20.5399, -160.571, -92.6102, 54.7827
2.932, 2, -37.0484, 0.66448, 20.5399, -160.571, -92.6102, 54.7827
2.936, 2, -37.0484, 0.66448, 20.5399, -160.571, -92.6102, 54.7827
2.939, 2, -37.0484, 0.66448, 20.5399, -160.571, -92.6102, 54.7827
2.944, 2, -37.0484, 0.66448, 20.5399, -160.571, -92.6102, 54.7827
2.948, 2, -37.0484, 0.66448, 20.5399, -160.571, -92.6102, 54.7827
2.952, 2, -37.0484, 0.66448, 20.5399, -160.571, -92.6102, 54.7827
2.956, 2, -37.0484, 0.66448, 20.5399, -160.571, -92.6102, 54.7827
2.959, 2, -37.0484, 0.66448, 20.5399, -160.571, -92.6102, 54.7827
2.964, 2, -37.0484, 0.66448, 20.5399, -160.571, -92.6102, 54.7827
2.968, 2, -37.0484, 0.66448, 20.5399, -160.571, -92.6102, 54.7827
2.972, 2, -37.0484, 0.66448, 20.5399, -160.571, -92.6102, 54.7827
2.976, 2, -37.0484, 0.66448, 20.5399, -160.571, -92.6102, 54.7827
2.98, 2, -37.0484, 0.66448, 20.5399, -160.571, -92.6102, 54.7827
2.984, 2, -37.0484, 0.66448, 20.5399, -160.571, -92.6102, 54.7827
2.988, 2, -37.0484, 0.66448, 20.5399, -160.571, -92.6102, 54.7827
2.992, 2, -37.0484, 0.66448, 20.5399, -160.571, -92.6102, 54.7827
2.995, 2, -37.0484, 0.66448, 20.5399, -160.571, -92.6102, 54.7827
3, 2, -37.0484, 0.66448, 20.5399, -160.571, -92.6102, 54.7827
3.004, 2, -37.0484, 0.66448, 20.5399, -160.571, -92.6102, 54.7827
3.008, 2, -37.0484, 0.66448, 20.5399, -160.571, -92.6102, 54.7827
3.012, 2, -37.0484, 0.66448, 20.5399, -160.571, -92.6102, 54.7827
3.015, 2, -37.0484, 0.66448, 20.5399, -160.571, -92.6102, 54.7827
3.02, 2, -37.0484, 0.66448, 20.5399, -160.571, -92.6102, 54.7827
3.024, 2, -37.0484, 0.66448, 20.5399, -160.571, -92.6102, 54.7827
3.028, 2, -37.0484, 0.66448, 20.5399, -160.571, -92.6102, 54.7827
3.031, 2, -37.0484, 0.66448, 20.5399, -160.571, -92.6102, 54.7827
3.036, 2, -37.0484, 0.66448, 20.5399, -160.571, -92.6102, 54.7827
3.04, 2, -37.0484, 0.66448, 20.5399, -160.571, -92.6102, 54.7827
3.044, 2, -37.0484, 0.66448, 20.5399, -160.571, -92.6102, 54.7827
3.048, 2, -37.0484, 0.66448, 20.5399, -160.571, -92.6102, 54.7827
3.051, 2, -37.0484, 0.66448, 20.5399, -160.571, -92.6102, 54.7827
3.056, 2, -37.0484, 0.66448, 20.5399, -160.571, -92.6102, 54.7827
3.06, 2, -37.0484, 0.66448, 20.5399, -160.571, -92.6102, 54.7827
3.064, 2, -37.0484, 0.66448, 20.5399, -160.571, -92.6102, 54.7827
3.068, 2, -37.0484, 0.66448, 20.5399, -160.571, -92.6102, 54.7827
3.071, 2, -37.0484, 0.66448, 20.5399, -160.571, -92.6102, 54.7827
3.076, 2, -37.0484, 0.66448, 20.5399, -160.571, -92.6102, 54.7827
3.08, 2, -37.0484, 0.66448, 20.5399, -160.571, -92.6102, 54.7827
3.084, 2, -37.0484, 0.66448, 20.5399, -160.571, -92.6102, 54.7827
3.087, 2, -37.0484, 0.66448, 20.5399, -160.571, -92.6102, 54.7827
3.092, 2, -37.0484, 0.66448, 20.5399, -160.571, -92.6102, 54.7827
3.096, 2, -37.0484, 0.66448, 20.5399, -160.571, -92.6102, 54.7827
3.1, 2, -37.0484, 0.66448, 20.5399, -160.571, -92.6102, 54.7827
3.104, 2, -37.0484, 0.66448, 20.5399, -160.571, -92.6102, 54.7827
3.107, 2, -37.0484, 0.66448, 20.5399, -160.571, -92.6102, 54.7827
3.112, 2, -37.0484, 0.66448, 20.5399, -160.571, -92.6102, 54.7827
3.116, 2, -37.0484, 0.66448, 20.5399, -160.571, -92.6102, 54.7827
3.12, 2, -37.0484, 0.66448, 20.5399, -160.571, -92.6102, 54.7827
3.124, 2, -37.0484, 0.66448, 20.5399, -160.571, -92.6102, 54.7827
3.128, 2, -37.0484, 0.66448, 20.5399, -160.571, -92.6102, 54.7827
3.132, 2, -37.0484, 0.66448, 20.5399, -160.571, -92.6102, 54.7827
3.136, 2, -37.0484, 0.66448, 20.5399, -160.571, -92.6102, 54.7827
3.14, 2, -37.0484, 0.66448, 20.5399, -160.571, -92.6102, 54.7827
3.143, 2, -37.0484, 0.66448, 20.5399, -160.571, -92.6102, 54.7827
3.148, 2, -37.0484, 0.66448, 20.5399, -160.571, -92.6102, 54.7827
3.152, 2, -37.0484, 0.66448, 20.5399, -160.571, -92.6102, 54.7827
3.156, 2, -37.0484, 0.66448, 20.5399, -160.571, -92.6102, 54.7827
3.16, 2, -37.0484, 0.66448, 20.5399, -160.571, -92.6102, 54.7827
3.163, 2, -37.0484, 0.66448, 20.5399, -160.571, -92.6102, 54.7827
3.168, 2, -37.0484, 0.66448, 20.5399, -160.571, -92.6102, 54.7827
3.172, 2, -37.0484, 0.66448, 20.5399, -160.571, -92.6102, 54.7827
3.176, 2, -37.0484, 0.66448, 20.5399, -160.571, -92.6102, 54.7827
3.179, 2, -37.0484, 0.66448, 20.5399, -160.571, -92.6102, 54.7827
3.184, 2, -37.0484, 0.66448, 20.5399, -160.571, -92.6102, 54.7827
3.188, 2, -37.0484, 0.66448, 20.5399, -160.571, -92.6102, 54.7827
3.192, 2, -37.0484, 0.66448, 20.5399, -160.571, -92.6102, 54.7827
3.196, 2, -37.0484, 0.66448, 20.5399, -160.571, -92.6102, 54.7827
3.199, 2, -37.0484, 0.66448, 20.5399, -160.571, -92.6102, 54.7827
3.204, 2, -37.0484, 0.66448, 20.5399, -160.571, -92.6102, 54.7827
3.208, 2, -37.0484, 0.66448, 20.5399, -160.571, -92.6102, 54.7827
3.212, 2, -37.0484, 0.66448, 20.5399, -160.571, -92.6102, 54.7827
3.216, 2, -37.0484, 0.66448, 20.5399, -160.571, -92.6102, 54.7827
3.22, 2, -37.0484, 0.66448, 20.5399, -160.571, -92.6102, 54.7827
3.224, 2, -37.0484, 0.66448, 20.5399, -160.571, -92.6102, 54.7827
3.228, 2, -37.0484, 0.66448, 20.5399, -160.571, -92.6102, 54.7827
3.232, 2, -37.0484, 0.66448, 20.5399, -160.571, -92.6102, 54.7827
3.235, 2, -37.0484, 0.66448, 20.5399, -160.571, -92.6102, 54.7827
3.24, 2, -37.0484, 0.66448, 20.5399, -160.571, -92.6102, 54.7827
3.244, 2, -37.0484, 0.66448, 20.5399, -160.571, -92.6102, 54.7827
3.248, 2, -37.0484, 0.66448, 20.5399, -160.571, -92.6102, 54.7827
3.252, 2, -37.0484, 0.66448, 20.5399, -160.571, -92.6102, 54.7827
3.255, 2, -37.0484, 0.66448, 20.5399, -160.571, -92.6102, 54.7827
3.26, 2, -37.0484, 0.66448, 20.5399, -160.571, -92.6102, 54.7827
3.264, 2, -37.0484, 0.66448, 20.5399, -160.571, -92.6102, 54.7827
3.268, 2, -37.0484, 0.66448, 20.5399, -160.571, -92.6102, 54.7827
3.272, 2, -37.0484, 0.66448, 20.5399, -160.571, -92.6102, 54.7827
3.276, 2, -37.0484, 0.66448, 20.5399, -160.571, -92.6102, 54.7827
3.28, 2, -37.0484, 0.66448, 20.5399, -160.571, -92.6102, 54.7827
3.284, 2, -37.0484, 0.66448, 20.5399, -160.571, -92.6102, 54.7827
3.288, 2, -37.0484, 0.66448, 20.5399, -160.571, -92.6102, 54.7827
3.291, 2, -37.0484, 0.66448, 20.5399, -160.571, -92.6102, 54.7827
3.296, 2, -37.0484, 0.66448, 20.5399, -160.571, -92.6102, 54.7827
3.3, 2, -37.0484, 0.66448, 20.5399, -160.571, -92.6102, 54.7827
3.304, 2, -37.0484, 0.66448, 20.5399, -160.571, -92.6102, 54.7827
3.308, 2, -37.0484, 0.66448, 20.5399, -160.571, -92.6102, 54.7827
3.312, 2, -37.0484, 0.66448, 20.5399, -160.571, -92.6102, 54.7827
3.316, 2, -37.0484, 0.66448, 20.5399, -160.571, -92.6102, 54.7827
3.32, 2, -37.0484, 0.66448, 20.5399, -160.571, -92.6102, 54.7827
3.324, 2, -37.0484, 0.66448, 20.5399, -160.571, -92.6102, 54.7827
3.328, 2, -37.0484, 0.66448, 20.5399, -160.571, -92.6102, 54.7827
3.332, 2, -37.0484, 0.66448, 20.5399, -160.571, -92.6102, 54.7827
3.336, 2, -37.0484, 0.66448, 20.5399, -160.571, -92.6102, 54.7827
3.34, 2, -37.0484, 0.66448, 20.5399, -160.571, -92.6102, 54.7827
3.344, 2, -37.0484, 0.66448, 20.5399, -160.571, -92.6102, 54.7827
3.347, 2, -37.0484, 0.66448, 20.5399, -160.571, -92.6102, 54.7827
3.352, 2, -37.0484, 0.66448, 20.5399, -160.571, -92.6102, 54.7827
3.356, 2, -37.0484, 0.66448, 20.5399, -160.571, -92.6102, 54.7827
3.36, 2, -37.0484, 0.66448, 20.5399, -160.571, -92.6102, 54.7827
3.364, 2, -37.0484, 0.66448, 20.5399, -160.571, -92.6102, 54.7827
3.368, 2, -37.0484, 0.66448, 20.5399, -160.571, -92.6102, 54.7827
3.372, 2, -37.0484, 0.66448, 20.5399, -160.571, -92.6102, 54.7827
3.376, 2, -37.0484, 0.66448, 20.5399, -160.571, -92.6102, 54.7827
3.38, 2, -37.0484, 0.66448, 20.5399, -160.571, -92.6102, 54.7827
3.383, 2, -37.0484, 0.66448, 20.5399, -160.571, -92.6102, 54.7827
3.388, 2, -37.0484, 0.66448, 20.5399, -160.571, -92.6102, 54.7827
3.392, 2, -37.0484, 0.66448, 20.5399, -160.571, -92.6102, 54.7827
3.396, 2, -37.0484, 0.66448, 20.5399, -160.571, -92.6102, 54.7827
3.4, 2, -37.0484, 0.66448, 20.5399, -160.571, -92.6102, 54.7827
3.403, 2, -37.0484, 0.66448, 20.5399, -160.571, -92.6102, 54.7827
3.408, 2, -37.0484, 0.66448, 20.5399, -160.571, -92.6102, 54.7827
3.412, 2, -37.0484, 0.66448, 20.5399, -160.571, -92.6102, 54.7827
3.416, 2, -37.0484, 0.66448, 20.5399, -160.571, -92.6102, 54.7827
3.42, 2, -37.0484, 0.66448, 20.5399, -160.571, -92.6102, 54.7827
3.424, 2, -37.0484, 0.66448, 20.5399, -160.571, -92.6102, 54.7827
3.428, 2, -37.0484, 0.66448, 20.5399, -160.571, -92.6102, 54.7827
3.432, 2, -37.0484, 0.66448, 20.5399, -160.571, -92.6102, 54.7827
3.436, 2, -37.0484, 0.66448, 20.5399, -160.571, -92.6102, 54.7827
3.439, 2, -37.0484, 0.66448, 20.5399, -160.571, -92.6102, 54.7827
3.444, 2, -37.0484, 0.66448, 20.5399, -160.571, -92.6102, 54.7827
3.448, 2, -37.0484, 0.66448, 20.5399, -160.571, -92.6102, 54.7827
3.452, 2, -37.0484, 0.66448, 20.5399, -160.571, -92.6102, 54.7827
3.456, 2, -37.0484, 0.66448, 20.5399, -160.571, -92.6102, 54.7827
3.46, 2, -37.0484, 0.66448, 20.5399, -160.571, -92.6102, 54.7827
3.464, 2, -37.0484, 0.66448, 20.5399, -160.571, -92.6102, 54.7827
3.468, 2, -37.0484, 0.66448, 20.5399, -160.571, -92.6102, 54.7827
3.472, 2, -37.0484, 0.66448, 20.5399, -160.571, -92.6102, 54.7827
3.476, 2, -37.0484, 0.66448, 20.5399, -160.571, -92.6102, 54.7827
3.48, 2, -37.0484, 0.66448, 20.5399, -160.571, -92.6102, 54.7827
3.484, 2, -37.0484, 0.66448, 20.5399, -160.571, -92.6102, 54.7827
3.488, 2, -37.0484, 0.66448, 20.5399, -160.571, -92.6102, 54.7827
3.492, 2, -37.0484, 0.66448, 20.5399, -160.571, -92.6102, 54.7827
3.495, 2, -37.0484, 0.66448, 20.5399, -160.571, -92.6102, 54.7827
3.5, 2, -37.0484, 0.66448, 20.5399, -160.571, -92.6102, 54.7827
3.504, 2, -37.0484, 0.66448, 20.5399, -160.571, -92.6102, 54.7827
3.508, 2, -37.0484, 0.66448, 20.5399, -160.571, -92.6102, 54.7827
3.512, 2, -37.0484, 0.66448, 20.5399, -160.571, -92.6102, 54.7827
3.516, 2, -37.0484, 0.66448, 20.5399, -160.571, -92.6102, 54.7827
3.52, 2, -37.0484, 0.66448, 20.5399, -160.571, -92.6102, 54.7827
3.524, 2, -37.0484, 0.66448, 20.5399, -160.571, -92.6102, 54.7827
3.528, 2, -37.0484, 0.66448, 20.5399, -160.571, -92.6102, 54.7827
3.531, 2, -37.0484, 0.66448, 20.5399, -160.571, -92.6102, 54.7827
3.536, 2, -37.0484, 0.66448, 20.5399, -160.571, -92.6102, 54.7827
3.54, 2, -37.0484, 0.66448, 20.5399, -160.571, -92.6102, 54.7827
3.544, 2, -37.0484, 0.66448, 20.5399, -160.571, -92.6102, 54.7827
3.548, 2, -37.0484, 0.66448, 20.5399, -160.571, -92.6102, 54.7827
3.552, 2, -37.0484, 0.66448, 20.5399, -160.571, -92.6102, 54.7827
3.556, 2, -37.0484, 0.66448, 20.5399, -160.571, -92.6102, 54.7827
3.56, 2, -37.0484, 0.66448, 20.5399, -160.571, -92.6102, 54.7827
3.564, 2, -37.0484, 0.66448, 20.5399, -160.571, -92.6102, 54.7827
3.568, 2, -37.0484, 0.66448, 20.5399, -160.571, -92.6102, 54.7827
3.572, 2, -37.0484, 0.66448, 20.5399, -160.571, -92.6102, 54.7827
3.576, 2, -37.0484, 0.66448, 20.5399, -160.571, -92.6102, 54.7827
3.58, 2, -37.0484, 0.66448, 20.5399, -160.571, -92.6102, 54.7827
3.584, 2, -37.0484, 0.66448, 20.5399, -160.571, -92.6102, 54.7827
3.587, 2, -37.0484, 0.66448, 20.5399, -160.571, -92.6102, 54.7827
3.592, 2, -37.0484, 0.66448, 20.5399, -160.571, -92.6102, 54.7827
3.596, 2, -37.0484, 0.66448, 20.5399, -160.571, -92.6102, 54.7827
3.6, 2, -37.0484, 0.66448, 20.5399, -160.571, -92.6102, 54.7827
3.604, 2, -37.0484, 0.66448, 20.5399, -160.571, -92.6102, 54.7827
3.608, 2, -37.0484, 0.66448, 20.5399, -160.571, -92.6102, 54.7827
3.612, 2, -37.0484, 0.66448, 20.5399, -160.571, -92.6102, 54.7827
3.616, 2, -37.0484, 0.66448, 20.5399, -160.571, -92.6102, 54.7827
3.62, 2, -37.0484, 0.66448, 20.5399, -160.571, -92.6102, 54.7827
3.624, 2, -37.0484, 0.66448, 20.5399, -160.571, -92.6102, 54.7827
3.628, 2, -37.0484, 0.66448, 20.5399, -160.571, -92.6102, 54.7827
3.632, 2, -37.0484, 0.66448, 20.5399, -160.571, -92.6102, 54.7827
3.636, 2, -37.0484, 0.66448, 20.5399, -160.571, -92.6102, 54.7827
3.64, 2, -37.0484, 0.66448, 20.5399, -160.571, -92.6102, 54.7827
3.644, 2, -37.0484, 0.66448, 20.5399, -160.571, -92.6102, 54.7827
3.648, 2, -37.0484, 0.66448, 20.5399, -160.571, -92.6102, 54.7827
3.652, 2, -37.0484, 0.66448, 20.5399, -160.571, -92.6102, 54.7827
3.656, 2, -37.0484, 0.66448, 20.5399, -160.571, -92.6102, 54.7827
3.66, 2, -37.0484, 0.66448, 20.5399, -160.571, -92.6102, 54.7827
3.664, 2, -37.0484, 0.66448, 20.5399, -160.571, -92.6102, 54.7827
3.668, 2, -37.0484, 0.66448, 20.5399, -160.571, -92.6102, 54.7827
3.672, 2, -37.0484, 0.66448, 20.5399, -160.571, -92.6102, 54.7827
3.676, 4, -37.0484, 0.66448, 20.5399, -160.571, -92.6102, 54.7827
3.679, 4, -37.0484, 0.66448, 20.5399, -160.571, -92.6102, 54.7827
3.684, 4, -37.0484, 0.66448, 20.5399, -160.571, -92.6102, 54.7827
3.688, 4, -37.0484, 0.66448, 20.5399, -160.571, -92.6102, 54.7827
3.692, 4, -37.0484, 0.66448, 20.5399, -160.571, -92.6102, 54.7827
3.696, 4, -37.0484, 0.66448, 20.5399, -160.571, -92.6102, 54.7827
3.7, 4, -37.0484, 0.66448, 20.5399, -160.571, -92.6102, 54.7827
3.704, 4, -37.0484, 0.66448, 20.5399, -160.571, -92.6102, 54.7827
3.708, 4, -37.0484, 0.66448, 20.5399, -160.571, -92.6102, 54.7827
3.712, 4, -37.0484, 0.66448, 20.5399, -160.571, -92.6102, 54.7827
3.716, 4, -37.0484, 0.66448, 20.5399, -160.571, -92.6102, 54.7827
3.72, 4, -37.0484, 0.66448, 20.5399, -160.571, -92.6102, 54.7827
3.724, 4, -37.0484, 0.66448, 20.5399, -160.571, -92.6102, 54.7827
3.728, 4, -37.0484, 0.66448, 20.5399, -160.571, -92.6102, 54.7827
3.732, 4, -37.0484, 0.66448, 20.5399, -160.571, -92.6102, 54.7827
3.735, 4, -37.0484, 0.66448, 20.5399, -160.571, -92.6102, 54.7827
3.74, 4, -37.0484, 0.66448, 20.5399, -160.571, -92.6102, 54.7827
3.744, 4, -37.0484, 0.66448, 20.5399, -160.571, -92.6102, 54.7827
3.748, 4, -37.0484, 0.66448, 20.5399, -160.571, -92.6102, 54.7827
3.752, 4, -37.0484, 0.66448, 20.5399, -160.571, -92.6102, 54.7827
3.756, 4, -37.0484, 0.66448, 20.5399, -160.571, -92.6102, 54.7827
3.76, 4, -37.0484, 0.66448, 20.5399, -160.571, -92.6102, 54.7827
3.764, 4, -37.0484, 0.66448, 20.5399, -160.571, -92.6102, 54.7827
3.768, 4, -37.0484, 0.66448, 20.5399, -160.571, -92.6102, 54.7827
3.772, 4, -37.0484, 0.66448, 20.5399, -160.571, -92.6102, 54.7827
3.776, 4, -37.0484, 0.66448, 20.5399, -160.571, -92.6102, 54.7827
3.782, 4, -37.0484, 0.66448, 20.5399, -160.571, -92.6102, 54.7827
3.786, 4, -37.0484, 0.66448, 20.5399, -160.571, -92.6102, 54.7827
3.79, 4, -37.0484, 0.66448, 20.5399, -160.571, -92.6102, 54.7827
3.794, 4, -37.0484, 0.66448, 20.5399, -160.571, -92.6102, 54.7827
3.798, 4, -37.0484, 0.66448, 20.5399, -160.571, -92.6102, 54.7827
3.802, 4, -37.0484, 0.66448, 20.5399, -160.571, -92.6102, 54.7827
3.806, 4, -37.0484, 0.66448, 20.5399, -160.571, -92.6102, 54.7827
3.81, 4, -37.0484, 0.664476, 20.5399, -160.571, -92.6102, 54.7827
3.814, 4, -37.0483, 0.664449, 20.5399, -160.571, -92.6102, 54.7827
3.818, 4, -37.0481, 0.664342, 20.5399, -160.571, -92.6102, 54.7827
3.822, 4, -37.0475, 0.664058, 20.54, -160.571, -92.6102, 54.7827
3.826, 4, -37.0463, 0.663476, 20.5403, -160.571, -92.6102, 54.7827
3.83, 4, -37.0444, 0.662467, 20.5407, -160.571, -92.6103, 54.7827
3.834, 4, -37.0417, 0.6609, 20.5414, -160.571, -92.6103, 54.7827
3.838, 4, -37.0379, 0.658645, 20.5426, -160.571, -92.6104, 54.7827
3.84, 4, -37.0379, 0.658645, 20.5426, -160.571, -92.6104, 54.7827
3.844, 4, -37.0329, 0.655566, 20.5442, -160.571, -92.6104, 54.7826
3.848, 5, -37.0268, 0.651521, 20.5466, -160.571, -92.6105, 54.7826
3.852, 5, -37.0193, 0.646346, 20.5499, -160.57, -92.6106, 54.7825
3.856, 5, -37.0103, 0.639851, 20.5543, -160.569, -92.6106, 54.7824
3.86, 5, -36.9993, 0.631822, 20.56, -160.569, -92.6106, 54.7823
3.864, 5, -36.9864, 0.62208, 20.5674, -160.567, -92.6107, 54.7821
3.868, 5, -36.9712, 0.61053, 20.5767, -160.566, -92.6106, 54.7819
3.872, 5, -36.9539, 0.597173, 20.588, -160.564, -92.6105, 54.7816
3.876, 5, -36.9344, 0.582051, 20.6016, -160.561, -92.6103, 54.7812
3.88, 5, -36.913, 0.565197, 20.6175, -160.558, -92.61, 54.7807
3.884, 5, -36.8895, 0.546615, 20.636, -160.554, -92.6096, 54.7802
3.888, 5, -36.8638, 0.526278, 20.6571, -160.55, -92.609, 54.7796
3.892, 5, -36.8361, 0.504121, 20.6808, -160.545, -92.6084, 54.779
3.896, 5, -36.806, 0.480068, 20.7071, -160.539, -92.6076, 54.7783
3.9, 5, -36.7735, 0.454076, 20.7359, -160.533, -92.6067, 54.7775
3.904, 5, -36.7387, 0.426178, 20.7672, -160.527, -92.6057, 54.7767
3.908, 5, -36.7017, 0.396481, 20.8007, -160.519, -92.6047, 54.7759
3.912, 5, -36.6628, 0.365114, 20.8361, -160.512, -92.6035, 54.775
3.916, 5, -36.6219, 0.332178, 20.8734, -160.504, -92.6023, 54.7742
3.92, 5, -36.5792, 0.29774, 20.9121, -160.495, -92.6011, 54.7733
3.924, 5, -36.5347, 0.261861, 20.9522, -160.486, -92.5998, 54.7725
3.928, 5, -36.4884, 0.224626, 20.9933, -160.477, -92.5986, 54.7717
3.932, 5, -36.4403, 0.186155, 21.0353, -160.468, -92.5973, 54.7709
3.936, 5, -36.3905, 0.146602, 21.078, -160.459, -92.5961, 54.7702
3.94, 5, -36.3392, 0.106168, 21.1211, -160.449, -92.5948, 54.7695
3.944, 5, -36.2868, 0.0650746, 21.1646, -160.44, -92.5936, 54.7689
3.948, 5, -36.2336, 0.0235289, 21.2083, -160.43, -92.5924, 54.7683
3.952, 5, -36.1797, -0.0183076, 21.2522, -160.421, -92.5912, 54.7678
3.956, 5, -36.1253, -0.0603218, 21.296, -160.411, -92.59, 54.7674
3.96, 5, -36.0706, -0.102437, 21.3399, -160.401, -92.5888, 54.7671
3.964, 5, -36.0157, -0.144601, 21.3837, -160.392, -92.5876, 54.7668
3.968, 5, -35.9606, -0.186778, 21.4275, -160.382, -92.5864, 54.7665
3.972, 5, -35.9054, -0.228944, 21.4712, -160.372, -92.5852, 54.7663
3.976, 5, -35.8501, -0.271084, 21.5149, -160.362, -92.584, 54.7662
3.98, 5, -35.7946, -0.313186, 21.5585, -160.353, -92.5828, 54.7662
3.984, 5, -35.739, -0.355242, 21.602, -160.343, -92.5816, 54.7662
3.988, 5, -35.6834, -0.397248, 21.6454, -160.333, -92.5804, 54.7663
3.992, 5, -35.6277, -0.439199, 21.6887, -160.323, -92.5792, 54.7665
3.996, 5, -35.5719, -0.481094, 21.732, -160.313, -92.578, 54.7667
3.999, 5, -35.5161, -0.52293, 21.7751, -160.303, -92.5768, 54.767
4.004, 5, -35.4601, -0.564706, 21.8182, -160.293, -92.5756, 54.7673
4.008, 5, -35.4041, -0.606422, 21.8611, -160.283, -92.5744, 54.7677
4.012, 5, -35.3481, -0.648077, 21.904, -160.273, -92.5731, 54.7682
4.016, 5, -35.2919, -0.689671, 21.9468, -160.263, -92.5719, 54.7688
4.02, 5, -35.2357, -0.731202, 21.9895, -160.252, -92.5707, 54.7694
4.024, 5, -35.1795, -0.772671, 22.0321, -160.242, -92.5695, 54.77
4.028, 5, -35.1231, -0.814077, 22.0746, -160.232, -92.5683, 54.7708
4.032, 5, -35.0667, -0.855421, 22.117, -160.222, -92.567, 54.7716
4.036, 5, -35.0102, -0.896702, 22.1594, -160.212, -92.5658, 54.7725
4.04, 5, -34.9537, -0.93792, 22.2016, -160.201, -92.5646, 54.7734
4.044, 5, -34.8971, -0.979075, 22.2438, -160.191, -92.5634, 54.7744
4.048, 5, -34.8404, -1.02017, 22.2858, -160.181, -92.5621, 54.7755
4.052, 5, -34.7837, -1.06119, 22.3278, -160.17, -92.5609, 54.7766
4.056, 5, -34.7269, -1.10216, 22.3697, -160.16, -92.5596, 54.7778
4.06, 5, -34.67, -1.14306, 22.4115, -160.15, -92.5584, 54.779
4.064, 5, -34.613, -1.1839, 22.4532, -160.139, -92.5571, 54.7804
4.068, 5, -34.556, -1.22467, 22.4948, -160.129, -92.5559, 54.7818
4.072, 5, -34.499, -1.26538, 22.5363, -160.118, -92.5546, 54.7832
4.076, 5, -34.4418, -1.30602, 22.5777, -160.108, -92.5533, 54.7847
4.08, 5, -34.3846, -1.3466, 22.619, -160.097, -92.5521, 54.7863
4.084, 5, -34.3273, -1.38712, 22.6603, -160.087, -92.5508, 54.788
4.088, 5, -34.27, -1.42757, 22.7014, -160.076, -92.5495, 54.7897
4.092, 5, -34.2126, -1.46795, 22.7425, -160.065, -92.5482, 54.7914
4.096, 5, -34.1551, -1.50827, 22.7834, -160.055, -92.5469, 54.7933
4.1, 5, -34.0975, -1.54853, 22.8243, -160.044, -92.5456, 54.7952
4.104, 5, -34.0399, -1.58874, 22.8651, -160.033, -92.5443, 54.7971
4.108, 5, -33.9823, -1.62891, 22.9058, -160.023, -92.543, 54.7992
4.112, 5, -33.9246, -1.66909, 22.9464, -160.012, -92.5417, 54.8013
4.116, 5, -33.8669, -1.70931, 22.987, -160.001, -92.5404, 54.8034
4.12, 5, -33.8093, -1.7496, 23.0274, -159.99, -92.539, 54.8055
4.124, 5, -33.7517, -1.79002, 23.0679, -159.979, -92.5376, 54.8077
4.128, 5, -33.6942, -1.8306, 23.1083, -159.968, -92.536, 54.8098
4.132, 6, -33.6368, -1.87135, 23.1487, -159.957, -92.5344, 54.8118
4.136, 6, -33.5794, -1.91232, 23.1892, -159.946, -92.5326, 54.8137
4.14, 6, -33.5221, -1.95353, 23.2298, -159.934, -92.5305, 54.8153
4.144, 6, -33.4649, -1.99504, 23.2706, -159.923, -92.5282, 54.8166
4.148, 6, -33.4078, -2.0369, 23.3115, -159.911, -92.5255, 54.8175
4.152, 6, -33.3508, -2.07914, 23.3528, -159.898, -92.5223, 54.818
4.156, 6, -33.2939, -2.12183, 23.3944, -159.886, -92.5187, 54.8178
4.16, 7, -33.2372, -2.165, 23.4363, -159.873, -92.5145, 54.8171
4.164, 7, -33.1806, -2.20867, 23.4787, -159.859, -92.5097, 54.8155
4.168, 7, -33.1243, -2.25289, 23.5215, -159.845, -92.5041, 54.8132
4.172, 7, -33.0682, -2.2977, 23.5649, -159.83, -92.4978, 54.81
4.176, 7, -33.0123, -2.34312, 23.6089, -159.815, -92.4908, 54.8059
4.18, 7, -32.9567, -2.38922, 23.6534, -159.799, -92.4829, 54.8008
4.184, 8, -32.9014, -2.43603, 23.6985, -159.782, -92.4742, 54.7948
4.188, 8, -32.8464, -2.48361, 23.7442, -159.765, -92.4647, 54.7877
4.192, 8, -32.7917, -2.53198, 23.7905, -159.748, -92.4542, 54.7797
4.196, 8, -32.7374, -2.58117, 23.8375, -159.729, -92.4429, 54.7706
4.2, 8, -32.6834, -2.6312, 23.8851, -159.71, -92.4308, 54.7605
4.204, 8, -32.6298, -2.68208, 23.9334, -159.691, -92.4177, 54.7494
4.208, 8, -32.5765, -2.73381, 23.9822, -159.67, -92.4038, 54.7372
4.212, 9, -32.5236, -2.78641, 24.0317, -159.65, -92.389, 54.724
4.216, 9, -32.471, -2.83989, 24.0819, -159.628, -92.3733, 54.7098
4.22, 9, -32.4188, -2.89423, 24.1327, -159.606, -92.3567, 54.6946
4.224, 9, -32.3669, -2.94945, 24.1841, -159.583, -92.3392, 54.6783
4.228, 9, -32.3154, -3.00555, 24.2362, -159.56, -92.3209, 54.661
4.232, 9, -32.2643, -3.06254, 24.2889, -159.536, -92.3016, 54.6427
4.236, 10, -32.2135, -3.1204, 24.3423, -159.511, -92.2815, 54.6234
4.24, 10, -32.163, -3.17916, 24.3963, -159.486, -92.2605, 54.6031
4.244, 10, -32.113, -3.23881, 24.4509, -159.46, -92.2386, 54.5817
4.248, 10, -32.0632, -3.29935, 24.5062, -159.434, -92.2158, 54.5593
4.252, 10, -32.0138, -3.36078, 24.5622, -159.406, -92.1921, 54.536
4.256, 10, -31.9648, -3.4231, 24.6187, -159.379, -92.1675, 54.5116
4.26, 11, -31.9161, -3.48632, 24.676, -159.35, -92.1421, 54.4862
4.264, 11, -31.8678, -3.55044, 24.7338, -159.322, -92.1157, 54.4597
4.268, 11, -31.8198, -3.61547, 24.7923, -159.292, -92.0885, 54.4323
4.272, 11, -31.7722, -3.68139, 24.8515, -159.262, -92.0604, 54.4039
4.276, 11, -31.7249, -3.74822, 24.9113, -159.231, -92.0314, 54.3745
4.28, 11, -31.6779, -3.81595, 24.9717, -159.2, -92.0015, 54.344
4.284, 11, -31.6313, -3.88459, 25.0328, -159.168, -91.9707, 54.3126
4.288, 12, -31.5851, -3.95413, 25.0946, -159.135, -91.939, 54.2801
4.292, 12, -31.5392, -4.02459, 25.157, -159.102, -91.9065, 54.2467
4.296, 12, -31.4936, -4.09596, 25.22, -159.069, -91.873, 54.2123
4.3, 12, -31.4483, -4.16824, 25.2837, -159.034, -91.8387, 54.1768
4.304, 12, -31.4035, -4.24143, 25.348, -158.999, -91.8035, 54.1404
4.308, 12, -31.3589, -4.31554, 25.413, -158.964, -91.7674, 54.103
4.312, 13, -31.3147, -4.39057, 25.4786, -158.928, -91.7305, 54.0646
4.316, 13, -31.2708, -4.46651, 25.5449, -158.891, -91.6926, 54.0253
4.32, 13, -31.2273, -4.54337, 25.6119, -158.854, -91.6539, 53.9849
4.324, 13, -31.1841, -4.62115, 25.6795, -158.816, -91.6143, 53.9435
4.328, 13, -31.1412, -4.69986, 25.7477, -158.778, -91.5738, 53.9012
4.332, 13, -31.0987, -4.77948, 25.8166, -158.739, -91.5324, 53.8579
4.336, 14, -31.0565, -4.86003, 25.8862, -158.699, -91.4902, 53.8136
4.34, 14, -31.0147, -4.9415, 25.9564, -158.659, -91.447, 53.7684
4.344, 14, -30.9731, -5.0239, 26.0272, -158.618, -91.403, 53.7222
4.348, 14, -30.932, -5.10722, 26.0987, -158.577, -91.3582, 53.675
4.352, 14, -30.8911, -5.19147, 26.1709, -158.535, -91.3124, 53.6268
4.356, 14, -30.8506, -5.27665, 26.2437, -158.492, -91.2658, 53.5777
4.36, 14, -30.8104, -5.36276, 26.3172, -158.449, -91.2183, 53.5276
4.364, 15, -30.7705, -5.44979, 26.3913, -158.405, -91.1699, 53.4766
4.368, 15, -30.731, -5.53776, 26.4661, -158.361, -91.1207, 53.4246
4.372, 15, -30.6918, -5.62665, 26.5416, -158.316, -91.0706, 53.3717
4.376, 15, -30.653, -5.71647, 26.6177, -158.271, -91.0197, 53.3178
4.38, 15, -30.6144, -5.80721, 26.6945, -158.225, -90.9679, 53.2629
4.384, 15, -30.5762, -5.89889, 26.7719, -158.178, -90.9152, 53.2072
4.388, 16, -30.5383, -5.9915, 26.85, -158.131, -90.8617, 53.1505
4.392, 16, -30.5008, -6.08504, 26.9287, -158.083, -90.8073, 53.0928
4.396, 16, -30.4635, -6.1795, 27.0081, -158.035, -90.752, 53.0343
4.4, 16, -30.4266, -6.2749, 27.0882, -157.986, -90.696, 52.9748
4.404, 16, -30.3901, -6.37122, 27.1689, -157.936, -90.639, 52.9144
4.408, 16, -30.3538, -6.46847, 27.2503, -157.886, -90.5812, 52.853
4.412, 17, -30.3179, -6.56665, 27.3323, -157.836, -90.5226, 52.7908
4.416, 17, -30.2823, -6.66576, 27.415, -157.784, -90.4631, 52.7276
4.42, 17, -30.247, -6.76579, 27.4984, -157.733, -90.4028, 52.6636
4.424, 17, -30.212, -6.86675, 27.5824, -157.68, -90.3417, 52.5986
4.428, 17, -30.1773, -6.96863, 27.667, -157.627, -90.2797, 52.5328
4.432, 17, -30.143, -7.07143, 27.7524, -157.574, -90.2169, 52.4661
4.436, 17, -30.109, -7.17515, 27.8383, -157.52, -90.1533, 52.3985
4.44, 18, -30.0753, -7.27979, 27.925, -157.465, -90.0889, 52.33
4.444, 18, -30.0419, -7.38535, 28.0123, -157.41, -90.0236, 52.2607
4.448, 18, -30.0088, -7.49183, 28.1002, -157.354, -89.9575, 52.1904
4.452, 18, -29.976, -7.59922, 28.1888, -157.297, -89.8906, 52.1194
4.456, 18, -29.9436, -7.70752, 28.2781, -157.24, -89.8229, 52.0475
4.46, 18, -29.9114, -7.81674, 28.368, -157.183, -89.7544, 51.9747
4.464, 19, -29.8796, -7.92686, 28.4585, -157.125, -89.6852, 51.9011
4.468, 19, -29.8481, -8.03789, 28.5497, -157.066, -89.6151, 51.8267
4.472, 19, -29.8168, -8.14982, 28.6416, -157.007, -89.5442, 51.7514
4.476, 19, -29.7859, -8.26265, 28.7341, -156.947, -89.4725, 51.6754
4.48, 19, -29.7553, -8.37638, 28.8272, -156.886, -89.4001, 51.5985
4.484, 19, -29.725, -8.491, 28.921, -156.825, -89.3269, 51.5209
4.488, 19, -29.695, -8.60652, 29.0154, -156.764, -89.2529, 51.4424
4.492, 20, -29.6653, -8.72292, 29.1105, -156.702, -89.1782, 51.3632
4.496, 20, -29.6359, -8.84021, 29.2062, -156.639, -89.1027, 51.2832
4.5, 20, -29.6067, -8.95837, 29.3026, -156.576, -89.0264, 51.2025
4.504, 20, -29.5779, -9.07742, 29.3996, -156.512, -88.9494, 51.121
4.508, 20, -29.5494, -9.19733, 29.4972, -156.447, -88.8717, 51.0387
4.512, 20, -29.5211, -9.31811, 29.5954, -156.382, -88.7932, 50.9558
4.516, 21, -29.4932, -9.43976, 29.6943, -156.317, -88.714, 50.8721
4.52, 21, -29.4655, -9.56227, 29.7938, -156.25, -88.6341, 50.7877
4.524, 21, -29.4381, -9.68562, 29.8939, -156.184, -88.5534, 50.7026
4.528, 21, -29.411, -9.80983, 29.9946, -156.116, -88.4721, 50.6169
4.532, 21, -29.3842, -9.93489, 30.096, -156.049, -88.39, 50.5304
4.536, 21, -29.3576, -10.0608, 30.1979, -155.98, -88.3073, 50.4433
4.54, 22, -29.3313, -10.1875, 30.3005, -155.911, -88.2239, 50.3556
4.544, 22, -29.3053, -10.3151, 30.4037, -155.842, -88.1397, 50.2672
4.548, 22, -29.2796, -10.4434, 30.5075, -155.772, -88.055, 50.1782
4.552, 22, -29.2541, -10.5726, 30.6118, -155.701, -87.9695, 50.0886
4.556, 22, -29.2289, -10.7026, 30.7168, -155.63, -87.8834, 49.9984
4.56, 22, -29.204, -10.8334, 30.8224, -155.558, -87.7966, 49.9077
4.564, 22, -29.1793, -10.965, 30.9285, -155.486, -87.7092, 49.8163
4.568, 23, -29.1548, -11.0974, 31.0352, -155.413, -87.6212, 49.7244
4.572, 23, -29.1307, -11.2306, 31.1425, -155.339, -87.5326, 49.632
4.576, 23, -29.1067, -11.3645, 31.2504, -155.265, -87.4433, 49.5391
4.58, 23, -29.083, -11.4992, 31.3589, -155.191, -87.3534, 49.4457
4.584, 23, -29.0596, -11.6347, 31.4679, -155.116, -87.2629, 49.3518
4.588, 23, -29.0364, -11.7709, 31.5774, -155.04, -87.1719, 49.2575
4.592, 24, -29.0134, -11.9079, 31.6875, -154.964, -87.0802, 49.1627
4.596, 24, -28.9907, -12.0455, 31.7982, -154.887, -86.988, 49.0674
4.6, 24, -28.9682, -12.184, 31.9094, -154.81, -86.8952, 48.9718
4.604, 24, -28.9459, -12.3231, 32.0211, -154.732, -86.8019, 48.8758
4.608, 24, -28.9238, -12.4629, 32.1333, -154.654, -86.708, 48.7794
4.612, 24, -28.902, -12.6035, 32.2461, -154.575, -86.6136, 48.6826
4.616, 25, -28.8804, -12.7447, 32.3594, -154.496, -86.5187, 48.5856
4.62, 25, -28.859, -12.8866, 32.4732, -154.416, -86.4232, 48.4882
4.624, 25, -28.8377, -13.0292, 32.5875, -154.335, -86.3273, 48.3905
4.628, 25, -28.8167, -13.1725, 32.7023, -154.254, -86.2309, 48.2926
4.632, 25, -28.7959, -13.3164, 32.8176, -154.173, -86.1339, 48.1945
4.636, 25, -28.7752, -13.4609, 32.9333, -154.091, -86.0366, 48.0961
4.64, 25, -28.7548, -13.6061, 33.0496, -154.008, -85.9387, 47.9975
4.644, 26, -28.7345, -13.7518, 33.1662, -153.925, -85.8404, 47.8988
4.648, 26, -28.7144, -13.8982, 33.2834, -153.842, -85.7417, 47.7999
4.652, 26, -28.6945, -14.0452, 33.401, -153.758, -85.6425, 47.7009
4.656, 26, -28.6747, -14.1928, 33.519, -153.673, -85.543, 47.6018
4.66, 26, -28.6551, -14.3409, 33.6375, -153.588, -85.443, 47.5027
4.664, 26, -28.6357, -14.4896, 33.7564, -153.503, -85.3426, 47.4035
4.668, 27, -28.6164, -14.6389, 33.8757, -153.417, -85.2419, 47.3043
4.672, 27, -28.5972, -14.7887, 33.9954, -153.33, -85.1407, 47.2051
4.676, 27, -28.5782, -14.939, 34.1155, -153.243, -85.0393, 47.1059
4.68, 27, -28.5594, -15.0898, 34.236, -153.156, -84.9374, 47.0068
4.684, 27, -28.5406, -15.2411, 34.3569, -153.068, -84.8353, 46.9078
4.688, 27, -28.522, -15.393, 34.4781, -152.98, -84.7328, 46.809
4.692, 27, -28.5035, -15.5453, 34.5997, -152.891, -84.63, 46.7103
4.696, 28, -28.4851, -15.698, 34.7217, -152.802, -84.5269, 46.6118
4.7, 28, -28.4668, -15.8512, 34.844, -152.712, -84.4235, 46.5135
4.704, 28, -28.4487, -16.0049, 34.9666, -152.622, -84.3198, 46.4155
4.708, 28, -28.4306, -16.159, 35.0895, -152.531, -84.2159, 46.3177
4.712, 28, -28.4126, -16.3134, 35.2128, -152.44, -84.1117, 46.2203
4.716, 28, -28.3947, -16.4683, 35.3363, -152.349, -84.0072, 46.1232
4.72, 29, -28.3768, -16.6236, 35.4601, -152.257, -83.9026, 46.0265
4.724, 29, -28.3591, -16.7792, 35.5842, -152.165, -83.7977, 45.9302
4.728, 29, -28.3414, -16.9352, 35.7086, -152.072, -83.6926, 45.8344
4.732, 29, -28.3237, -17.0915, 35.8332, -151.979, -83.5873, 45.7391
4.736, 29, -28.3061, -17.2481, 35.958, -151.885, -83.4819, 45.6443
4.74, 29, -28.2886, -17.4051, 36.0831, -151.791, -83.3762, 45.55
4.744, 30, -28.2711, -17.5623, 36.2084, -151.697, -83.2704, 45.4564
4.748, 30, -28.2536, -17.7198, 36.334, -151.602, -83.1645, 45.3633
4.752, 30, -28.2361, -17.8776, 36.4597, -151.507, -83.0584, 45.271
4.756, 30, -28.2186, -18.0357, 36.5856, -151.412, -82.9522, 45.1794
4.76, 30, -28.2012, -18.194, 36.7116, -151.316, -82.8458, 45.0885
4.764, 30, -28.1838, -18.3525, 36.8378, -151.22, -82.7394, 44.9984
4.768, 30, -28.1663, -18.5112, 36.9642, -151.123, -82.6329, 44.9092
4.772, 31, -28.1488, -18.6701, 37.0907, -151.026, -82.5263, 44.8208
4.776, 31, -28.1313, -18.8292, 37.2174, -150.929, -82.4196, 44.7333
4.78, 31, -28.1138, -18.9884, 37.3441, -150.831, -82.3129, 44.6468
4.784, 31, -28.0963, -19.1478, 37.4709, -150.734, -82.2061, 44.5613
4.788, 31, -28.0787, -19.3073, 37.5978, -150.635, -82.0992, 44.4768
4.792, 31, -28.061, -19.4669, 37.7248, -150.537, -81.9924, 44.3934
4.796, 32, -28.0433, -19.6267, 37.8519, -150.438, -81.8855, 44.3111
4.8, 32, -28.0255, -19.7865, 37.979, -150.339, -81.7786, 44.23
4.804, 32, -28.0077, -19.9464, 38.1061, -150.24, -81.6718, 44.1501
4.808, 32, -27.9897, -20.1063, 38.2333, -150.14, -81.5649, 44.0714
4.812, 32, -27.9717, -20.2663, 38.3604, -150.04, -81.4581, 43.9941
4.816, 32, -27.9535, -20.4263, 38.4876, -149.94, -81.3512, 43.9181
4.82, 33, -27.9353, -20.5863, 38.6147, -149.839, -81.2445, 43.8435
4.824, 33, -27.9169, -20.7463, 38.7418, -149.739, -81.1378, 43.7703
4.828, 33, -27.8984, -20.9063, 38.8688, -149.638, -81.0311, 43.6986
4.832, 33, -27.8798, -21.0662, 38.9958, -149.536, -80.9245, 43.6284
4.836, 33, -27.861, -21.2261, 39.1227, -149.435, -80.818, 43.5598
4.84, 33, -27.8421, -21.3859, 39.2496, -149.333, -80.7116, 43.4929
4.844, 33, -27.823, -21.5456, 39.3763, -149.232, -80.6053, 43.4276
4.848, 34, -27.8038, -21.7052, 39.5029, -149.129, -80.499, 43.364
4.852, 34, -27.7843, -21.8647, 39.6294, -149.027, -80.3929, 43.3022
4.856, 34, -27.7647, -22.024, 39.7558, -148.925, -80.2869, 43.2422
4.86, 34, -27.7449, -22.1832, 39.8819, -148.822, -80.181, 43.1841
4.864, 34, -27.7249, -22.3422, 40.008, -148.719, -80.0753, 43.1279
4.868, 34, -27.7047, -22.5011, 40.1338, -148.617, -79.9697, 43.0737
4.872, 35, -27.6842, -22.6597, 40.2594, -148.514, -79.8642, 43.0215
4.876, 35, -27.6635, -22.8181, 40.3849, -148.41, -79.7589, 42.9714
4.88, 35, -27.6426, -22.9763, 40.5101, -148.307, -79.6538, 42.9234
4.884, 35, -27.6214, -23.1343, 40.635, -148.204, -79.5488, 42.8775
4.888, 35, -27.5999, -23.292, 40.7597, -148.1, -79.444, 42.8339
4.892, 35, -27.5782, -23.4494, 40.8842, -147.996, -79.3394, 42.7926
4.896, 35, -27.5562, -23.6065, 41.0083, -147.893, -79.235, 42.7536
4.9, 36, -27.534, -23.7633, 41.1322, -147.789, -79.1307, 42.7169
4.904, 36, -27.5114, -23.9198, 41.2557, -147.685, -79.0267, 42.6827
4.908, 36, -27.4885, -24.0759, 41.379, -147.581, -78.9228, 42.651
4.912, 36, -27.4653, -24.2317, 41.5018, -147.477, -78.8191, 42.6218
4.916, 36, -27.4418, -24.3871, 41.6244, -147.373, -78.7157, 42.5953
4.92, 36, -27.4179, -24.5421, 41.7465, -147.269, -78.6124, 42.5713
4.924, 37, -27.3937, -24.6967, 41.8683, -147.165, -78.5094, 42.5501
4.928, 37, -27.3691, -24.8509, 41.9896, -147.062, -78.4066, 42.5316
4.932, 37, -27.3442, -25.0046, 42.1106, -146.958, -78.304, 42.5159
4.936, 37, -27.3188, -25.1579, 42.2311, -146.854, -78.2017, 42.5031
4.94, 37, -27.2931, -25.3107, 42.3512, -146.75, -78.0996, 42.4932
4.944, 37, -27.267, -25.463, 42.4708, -146.646, -77.9977, 42.4863
4.948, 38, -27.2405, -25.6148, 42.5899, -146.542, -77.896, 42.4823
4.952, 38, -27.2135, -25.7661, 42.7086, -146.439, -77.7946, 42.4815
4.956, 38, -27.1861, -25.9168, 42.8267, -146.335, -77.6934, 42.4838
4.96, 38, -27.1582, -26.067, 42.9443, -146.232, -77.5924, 42.4893
4.964, 38, -27.1299, -26.2166, 43.0614, -146.129, -77.4917, 42.498
4.968, 38, -27.1011, -26.3656, 43.1779, -146.026, -77.3913, 42.51
4.972, 38, -27.0718, -26.5141, 43.2938, -145.923, -77.2911, 42.5254
4.976, 39, -27.042, -26.6618, 43.4091, -145.82, -77.1911, 42.5442
4.98, 39, -27.0117, -26.809, 43.5239, -145.717, -77.0914, 42.5664
4.984, 39, -26.9809, -26.9555, 43.638, -145.615, -76.9919, 42.5921
4.988, 39, -26.9495, -27.1013, 43.7514, -145.513, -76.8927, 42.6214
4.992, 39, -26.9176, -27.2464, 43.8642, -145.411, -76.7937, 42.6544
4.996, 39, -26.8851, -27.3908, 43.9763, -145.31, -76.695, 42.691
5, 40, -26.852, -27.5344, 44.0877, -145.209, -76.5965, 42.7313
5.004, 40, -26.8183, -27.6773, 44.1984, -145.108, -76.4983, 42.7754
5.008, 40, -26.784, -27.8194, 44.3084, -145.007, -76.4003, 42.8234
5.012, 40, -26.7491, -27.9607, 44.4176, -144.907, -76.3026, 42.8752
5.016, 40, -26.7135, -28.1013, 44.5261, -144.808, -76.2052, 42.931
5.02, 40, -26.6773, -28.2409, 44.6337, -144.708, -76.108, 42.9908
5.024, 41, -26.6404, -28.3797, 44.7405, -144.61, -76.011, 43.0546
5.028, 41, -26.6028, -28.5177, 44.8465, -144.511, -75.9143, 43.1226
5.032, 41, -26.5645, -28.6547, 44.9516, -144.413, -75.8179, 43.1946
5.038, 41, -26.4858, -28.926, 45.1592, -144.22, -75.6257, 43.3514
5.04, 41, -26.4858, -28.926, 45.1592, -144.22, -75.6257, 43.3514
5.046, 41, -26.404, -29.1934, 45.3631, -144.028, -75.4346, 43.5254
5.052, 42, -26.3619, -29.3256, 45.4636, -143.933, -75.3394, 43.619
5.054, 42, -26.319, -29.4568, 45.5632, -143.839, -75.2445, 43.7171
5.058, 42, -26.2753, -29.5868, 45.6617, -143.746, -75.1498, 43.8196
5.062, 42, -26.2307, -29.7158, 45.7591, -143.653, -75.0554, 43.9267
5.066, 42, -26.1853, -29.8437, 45.8555, -143.561, -74.9613, 44.0383
5.068, 42, -26.1853, -29.8437, 45.8555, -143.561, -74.9613, 44.0383
5.072, 42, -26.139, -29.9704, 45.9508, -143.47, -74.8674, 44.1546
5.076, 43, -26.0918, -30.096, 46.0449, -143.38, -74.7738, 44.2756
5.08, 43, -26.0436, -30.2203, 46.1379, -143.291, -74.6804, 44.4013
5.086, 43, -25.9445, -30.4653, 46.3204, -143.116, -74.4945, 44.667
5.088, 43, -25.9445, -30.4653, 46.3204, -143.116, -74.4945, 44.667
5.092, 43, -25.8935, -30.5859, 46.4098, -143.03, -74.402, 44.8072
5.096, 43, -25.8414, -30.7051, 46.4979, -142.945, -74.3097, 44.9522
5.1, 44, -25.7883, -30.823, 46.5848, -142.861, -74.2177, 45.1021
5.104, 44, -25.7342, -30.9394, 46.6703, -142.778, -74.126, 45.257
5.11, 44, -25.6227, -31.1681, 46.8372, -142.616, -73.9435, 45.5818
5.112, 44, -25.6227, -31.1681, 46.8372, -142.616, -73.9435, 45.5818
5.116, 44, -25.5653, -31.2801, 46.9185, -142.538, -73.8527, 45.7518
5.12, 44, -25.5067, -31.3907, 46.9984, -142.46, -73.7622, 45.9269
5.124, 44, -25.447, -31.4997, 47.0768, -142.384, -73.6721, 46.1072
5.128, 45, -25.3861, -31.607, 47.1536, -142.31, -73.5823, 46.2926
5.134, 45, -25.2606, -31.8167, 47.3026, -142.166, -73.4037, 46.679
5.137, 45, -25.2606, -31.8167, 47.3026, -142.166, -73.4037, 46.679
5.142, 45, -25.1301, -32.0194, 47.445, -142.028, -73.2266, 47.0863
5.145, 45, -25.1301, -32.0194, 47.445, -142.028, -73.2266, 47.0863
5.15, 45, -24.9944, -32.2148, 47.5806, -141.898, -73.051, 47.5148
5.154, 46, -24.9245, -32.3097, 47.6457, -141.836, -72.9639, 47.737
5.157, 46, -24.9245, -32.3097, 47.6457, -141.836, -72.9639, 47.737
5.162, 46, -24.7807, -32.4933, 47.7704, -141.717, -72.791, 48.1974
5.165, 46, -24.7807, -32.4933, 47.7704, -141.717, -72.791, 48.1974
5.17, 46, -24.6311, -32.6687, 47.8874, -141.607, -72.62, 48.6793
5.174, 46, -24.5541, -32.7532, 47.9429, -141.555, -72.5354, 48.9283
5.176, 46, -24.5541, -32.7532, 47.9429, -141.555, -72.5354, 48.9283
5.182, 47, -24.3957, -32.9153, 48.0478, -141.459, -72.3677, 49.4425
5.185, 47, -24.3957, -32.9153, 48.0478, -141.459, -72.3677, 49.4425
5.19, 47, -24.2312, -33.068, 48.1441, -141.372, -72.2025, 49.9782
5.194, 47, -24.1466, -33.1406, 48.1889, -141.333, -72.1208, 50.2542
5.197, 47, -24.1466, -33.1406, 48.1889, -141.333, -72.1208, 50.2542
5.202, 48, -23.9725, -33.2783, 48.2716, -141.261, -71.9598, 50.8223
5.206, 48, -23.8831, -33.3432, 48.3095, -141.23, -71.8804, 51.1143
5.21, 48, -23.792, -33.4053, 48.3449, -141.202, -71.8019, 51.4118
5.212, 48, -23.792, -33.4053, 48.3449, -141.202, -71.8019, 51.4118
5.216, 48, -23.6992, -33.4647, 48.3779, -141.176, -71.7242, 51.7145
5.22, 48, -23.6048, -33.5212, 48.4083, -141.153, -71.6475, 52.0226
5.224, 48, -23.5086, -33.5747, 48.4362, -141.134, -71.5717, 52.336
5.228, 49, -23.4108, -33.6253, 48.4614, -141.117, -71.4969, 52.6547
5.232, 49, -23.3112, -33.6728, 48.484, -141.104, -71.4232, 52.9786
5.236, 49, -23.2098, -33.7171, 48.5039, -141.094, -71.3505, 53.3077
5.24, 49, -23.1067, -33.7583, 48.521, -141.087, -71.2791, 53.642
5.244, 49, -23.0019, -33.7961, 48.5352, -141.084, -71.2089, 53.9815
5.248, 49, -22.8952, -33.8305, 48.5466, -141.084, -71.14, 54.3261
5.252, 49, -22.7868, -33.8616, 48.5551, -141.087, -71.0724, 54.6758
5.256, 50, -22.6766, -33.889, 48.5607, -141.094, -71.0062, 55.0305
5.26, 50, -22.5646, -33.9129, 48.5632, -141.105, -70.9415, 55.3902
5.264, 50, -22.4508, -33.9332, 48.5626, -141.119, -70.8784, 55.7548
5.268, 50, -22.3352, -33.9496, 48.5589, -141.137, -70.8169, 56.1244
5.272, 50, -22.2178, -33.9623, 48.5521, -141.158, -70.757, 56.4988
5.276, 50, -22.0986, -33.971, 48.542, -141.184, -70.699, 56.8779
5.28, 51, -21.9776, -33.9757, 48.5287, -141.213, -70.6428, 57.2619
5.284, 51, -21.8547, -33.9763, 48.5121, -141.246, -70.5886, 57.6504
5.288, 51, -21.7301, -33.9728, 48.4921, -141.283, -70.5363, 58.0436
5.292, 51, -21.6037, -33.9651, 48.4687, -141.324, -70.4862, 58.4414
5.296, 51, -21.4755, -33.953, 48.4419, -141.369, -70.4382, 58.8436
5.3, 51, -21.3456, -33.9366, 48.4116, -141.417, -70.3926, 59.2502
5.304, 52, -21.2139, -33.9156, 48.3777, -141.47, -70.3493, 59.6611
5.308, 52, -21.0804, -33.8902, 48.3403, -141.527, -70.3084, 60.0763
5.312, 52, -20.9452, -33.8601, 48.2993, -141.587, -70.2702, 60.4956
5.316, 52, -20.8083, -33.8252, 48.2546, -141.652, -70.2345, 60.9191
5.32, 52, -20.6698, -33.7856, 48.2062, -141.721, -70.2017, 61.3465
5.324, 52, -20.5295, -33.7411, 48.1541, -141.793, -70.1716, 61.7778
5.328, 52, -20.3876, -33.6916, 48.0982, -141.87, -70.1446, 62.213
5.332, 53, -20.2441, -33.6372, 48.0386, -141.951, -70.1206, 62.6519
5.336, 53, -20.099, -33.5776, 47.975, -142.036, -70.0997, 63.0944
5.34, 53, -19.9524, -33.5128, 47.9077, -142.124, -70.0821, 63.5405
5.344, 53, -19.8042, -33.4428, 47.8364, -142.217, -70.0679, 63.9899
5.348, 53, -19.6544, -33.3674, 47.7613, -142.313, -70.0571, 64.4427
5.352, 53, -19.5033, -33.2867, 47.6821, -142.414, -70.0499, 64.8988
5.356, 54, -19.3507, -33.2005, 47.5991, -142.518, -70.0464, 65.3579
5.36, 54, -19.1967, -33.1087, 47.512, -142.626, -70.0467, 65.8201
5.364, 54, -19.0413, -33.0114, 47.4209, -142.737, -70.0509, 66.2851
5.368, 54, -18.8847, -32.9084, 47.3259, -142.853, -70.059, 66.7529
5.372, 54, -18.7268, -32.7997, 47.2268, -142.971, -70.0713, 67.2233
5.376, 54, -18.5676, -32.6854, 47.1236, -143.094, -70.0877, 67.6963
5.38, 54, -18.4073, -32.5653, 47.0164, -143.22, -70.1085, 68.1717
5.384, 55, -18.2459, -32.4394, 46.9051, -143.349, -70.1337, 68.6494
5.388, 55, -18.0834, -32.3076, 46.7898, -143.481, -70.1633, 69.1292
5.392, 55, -17.9199, -32.1701, 46.6704, -143.617, -70.1976, 69.611
5.396, 55, -17.7554, -32.0267, 46.5469, -143.756, -70.2365, 70.0948
5.4, 55, -17.59, -31.8774, 46.4194, -143.898, -70.2802, 70.5803
5.404, 55, -17.4237, -31.7223, 46.2879, -144.042, -70.3288, 71.0674
5.408, 56, -17.2566, -31.5612, 46.1523, -144.19, -70.3823, 71.5561
5.412, 56, -17.0888, -31.3942, 46.0127, -144.34, -70.4409, 72.046
5.416, 56, -16.9202, -31.2213, 45.8691, -144.493, -70.5046, 72.5372
5.42, 56, -16.7511, -31.0424, 45.7215, -144.648, -70.5735, 73.0294
5.424, 56, -16.5814, -30.8576, 45.57, -144.805, -70.6476, 73.5226
5.428, 56, -16.4111, -30.6667, 45.4146, -144.965, -70.7271, 74.0165
5.432, 57, -16.2404, -30.4699, 45.2552, -145.127, -70.812, 74.5111
5.436, 57, -16.0694, -30.2672, 45.092, -145.29, -70.9023, 75.0061
5.44, 57, -15.898, -30.0585, 44.925, -145.456, -70.9982, 75.5015
5.444, 57, -15.7264, -29.8439, 44.7543, -145.623, -71.0995, 75.997
5.448, 57, -15.5546, -29.6234, 44.5797, -145.791, -71.2065, 76.4926
5.452, 57, -15.3827, -29.397, 44.4015, -145.961, -71.3191, 76.988
5.456, 57, -15.2107, -29.1649, 44.2197, -146.132, -71.4374, 77.4831
5.46, 58, -15.0388, -28.9269, 44.0343, -146.304, -71.5614, 77.9778
5.464, 58, -14.8669, -28.6832, 43.8455, -146.477, -71.691, 78.4719
5.468, 58, -14.6951, -28.4339, 43.6531, -146.65, -71.8264, 78.9652
5.472, 58, -14.5236, -28.1789, 43.4575, -146.824, -71.9675, 79.4577
5.476, 58, -14.3523, -27.9184, 43.2585, -146.999, -72.1143, 79.949
5.48, 58, -14.1813, -27.6524, 43.0563, -147.173, -72.2668, 80.4391
5.484, 59, -14.0107, -27.381, 42.851, -147.348, -72.425, 80.9278
5.488, 59, -13.8406, -27.1044, 42.6427, -147.523, -72.5889, 81.415
5.492, 59, -13.671, -26.8226, 42.4314, -147.697, -72.7584, 81.9004
5.496, 59, -13.502, -26.5357, 42.2172, -147.871, -72.9335, 82.384
5.5, 59, -13.3337, -26.2439, 42.0003, -148.045, -73.1142, 82.8655
5.504, 59, -13.166, -25.9473, 41.7807, -148.218, -73.3003, 83.3449
5.508, 60, -12.9991, -25.646, 41.5585, -148.39, -73.492, 83.8218
5.512, 60, -12.8331, -25.34, 41.3339, -148.561, -73.6889, 84.2963
5.516, 60, -12.668, -25.0296, 41.107, -148.731, -73.8912, 84.7681
5.52, 60, -12.5039, -24.7148, 40.8778, -148.899, -74.0987, 85.237
5.524, 60, -12.3408, -24.3958, 40.6466, -149.066, -74.3113, 85.7028
5.528, 60, -12.1789, -24.0727, 40.4134, -149.232, -74.5289, 86.1654
5.532, 60, -12.0182, -23.7458, 40.1784, -149.395, -74.7513, 86.6246
5.536, 61, -11.8587, -23.4151, 39.9417, -149.557, -74.9784, 87.0802
5.54, 61, -11.7004, -23.0809, 39.7036, -149.717, -75.2101, 87.5318
5.544, 61, -11.5435, -22.7434, 39.4642, -149.874, -75.4462, 87.9794
5.548, 61, -11.388, -22.4029, 39.2236, -150.03, -75.6865, 88.4227
5.552, 61, -11.2339, -22.0596, 38.9821, -150.182, -75.9309, 88.8614
5.556, 61, -11.0813, -21.7137, 38.7398, -150.333, -76.179, 89.2953
5.56, 62, -10.9303, -21.3655, 38.4969, -150.48, -76.4307, 89.7243
5.564, 62, -10.7808, -21.0152, 38.2537, -150.624, -76.6857, 90.1479
5.568, 62, -10.633, -20.6629, 38.0102, -150.766, -76.9439, 90.566
5.572, 62, -10.487, -20.3089, 37.7668, -150.905, -77.205, 90.9785
5.576, 62, -10.3426, -19.9534, 37.5234, -151.04, -77.4687, 91.3851
5.58, 62, -10.2001, -19.5964, 37.2805, -151.172, -77.735, 91.7856
5.584, 62, -10.0594, -19.2383, 37.038, -151.301, -78.0035, 92.18
5.588, 63, -9.92046, -18.8793, 36.796, -151.426, -78.2742, 92.5681
5.592, 63, -9.78341, -18.5194, 36.5548, -151.549, -78.5468, 92.9498
5.596, 63, -9.64819, -18.1587, 36.3144, -151.667, -78.8212, 93.325
5.6, 63, -9.51479, -17.7975, 36.0749, -151.783, -79.0974, 93.6938
5.604, 63, -9.38319, -17.4358, 35.8363, -151.894, -79.3751, 94.056
5.608, 63, -9.25336, -17.0737, 35.5988, -152.003, -79.6543, 94.4117
5.612, 64, -9.12527, -16.7113, 35.3623, -152.108, -79.935, 94.7608
5.616, 64, -8.99889, -16.3489, 35.1268, -152.21, -80.217, 95.1034
5.62, 64, -8.87422, -15.9866, 34.8925, -152.308, -80.5004, 95.4395
5.624, 64, -8.75122, -15.6245, 34.6594, -152.403, -80.785, 95.7689
5.628, 64, -8.62988, -15.2628, 34.4274, -152.494, -81.0708, 96.0918
5.632, 64, -8.51018, -14.9016, 34.1967, -152.582, -81.3577, 96.4079
5.636, 64, -8.3921, -14.5411, 33.9673, -152.667, -81.6456, 96.7173
5.64, 65, -8.27563, -14.1812, 33.7393, -152.749, -81.9343, 97.0197
5.644, 65, -8.16078, -13.8223, 33.5127, -152.827, -82.2238, 97.3151
5.648, 65, -8.04752, -13.4643, 33.2878, -152.901, -82.5138, 97.6033
5.652, 65, -7.93589, -13.1076, 33.0646, -152.972, -82.8041, 97.8841
5.656, 65, -7.82587, -12.7523, 32.8432, -153.04, -83.0946, 98.1573
5.66, 65, -7.7175, -12.3985, 32.6238, -153.105, -83.3851, 98.4227
5.664, 65, -7.61078, -12.0464, 32.4065, -153.166, -83.6753, 98.68
5.668, 66, -7.50575, -11.6963, 32.1915, -153.223, -83.965, 98.9292
5.672, 66, -7.40242, -11.3481, 31.9789, -153.278, -84.254, 99.1699
5.676, 66, -7.30081, -11.002, 31.7687, -153.328, -84.5421, 99.4021
5.68, 66, -7.20092, -10.6582, 31.5613, -153.376, -84.829, 99.6254
5.684, 66, -7.10276, -10.3168, 31.3565, -153.42, -85.1146, 99.8398
5.688, 66, -7.00631, -9.97799, 31.1546, -153.46, -85.3988, 100.045
5.692, 66, -6.91158, -9.64201, 30.9556, -153.498, -85.6815, 100.241
5.696, 67, -6.81857, -9.30896, 30.7596, -153.532, -85.9624, 100.428
5.7, 67, -6.72726, -8.97895, 30.5665, -153.563, -86.2415, 100.606
5.704, 67, -6.63763, -8.65207, 30.3765, -153.591, -86.5188, 100.774
5.708, 67, -6.54965, -8.32836, 30.1895, -153.615, -86.7941, 100.932
5.712, 67, -6.4633, -8.0079, 30.0056, -153.637, -87.0674, 101.081
5.716, 67, -6.37852, -7.69076, 29.8247, -153.656, -87.3387, 101.221
5.72, 67, -6.29529, -7.37702, 29.6469, -153.671, -87.608, 101.35
5.724, 68, -6.21358, -7.06673, 29.4721, -153.684, -87.8752, 101.471
5.728, 68, -6.13336, -6.75992, 29.3003, -153.694, -88.1404, 101.581
5.732, 68, -6.05458, -6.45661, 29.1314, -153.702, -88.4035, 101.682
5.736, 68, -5.97722, -6.15676, 28.9655, -153.706, -88.6646, 101.773
5.74, 68, -5.90122, -5.86037, 28.8025, -153.708, -88.9237, 101.855
5.744, 68, -5.82655, -5.56743, 28.6424, -153.708, -89.1808, 101.926
5.748, 68, -5.75317, -5.27796, 28.4851, -153.705, -89.4358, 101.988
5.752, 69, -5.68104, -4.99198, 28.3307, -153.699, -89.6889, 102.04
5.756, 69, -5.61015, -4.70948, 28.179, -153.691, -89.9399, 102.083
5.76, 69, -5.54044, -4.43046, 28.0302, -153.681, -90.189, 102.115
5.764, 69, -5.47189, -4.15488, 27.884, -153.669, -90.4361, 102.138
5.768, 69, -5.40445, -3.8827, 27.7406, -153.654, -90.6813, 102.15
5.772, 69, -5.33809, -3.6139, 27.5998, -153.638, -90.9245, 102.153
5.776, 69, -5.27278, -3.34851, 27.4617, -153.619, -91.1658, 102.146
5.78, 70, -5.20849, -3.08656, 27.3261, -153.598, -91.4052, 102.129
5.784, 70, -5.14519, -2.82808, 27.1932, -153.576, -91.6426, 102.102
5.788, 70, -5.08287, -2.57308, 27.0628, -153.551, -91.8781, 102.066
5.792, 70, -5.02148, -2.32157, 26.935, -153.525, -92.1118, 102.019
5.796, 70, -4.96099, -2.07351, 26.8096, -153.497, -92.3435, 101.963
5.8, 70, -4.90139, -1.82889, 26.6868, -153.467, -92.5732, 101.897
5.804, 70, -4.84263, -1.58773, 26.5664, -153.436, -92.8011, 101.821
5.808, 70, -4.7847, -1.35004, 26.4485, -153.403, -93.0269, 101.735
5.812, 71, -4.72757, -1.11587, 26.333, -153.369, -93.2508, 101.64
5.816, 71, -4.67121, -0.885223, 26.2199, -153.334, -93.4727, 101.535
5.82, 71, -4.6156, -0.658081, 26.1092, -153.297, -93.6925, 101.421
5.824, 71, -4.56069, -0.434417, 26.0009, -153.259, -93.9103, 101.298
5.828, 71, -4.50646, -0.214193, 25.8949, -153.22, -94.1259, 101.166
5.832, 71, -4.45286, 0.00261529, 25.7912, -153.18, -94.3395, 101.024
5.836, 71, -4.39986, 0.216014, 25.6898, -153.139, -94.551, 100.873
5.84, 72, -4.34744, 0.426002, 25.5907, -153.097, -94.7604, 100.714
5.844, 72, -4.29554, 0.632608, 25.4938, -153.055, -94.9676, 100.546
5.848, 72, -4.2441, 0.835904, 25.3991, -153.011, -95.1728, 100.369
