hehonglu123/Motion-Primitive-Planning/simulation/robotstudio_sim/multimove/wood/greedy_dual_output/curve_exe_v100_z1.csv
timestamp, cmd_num, J1, J2, J3, J4, J5, J6, J1_2, J2_2, J3_2, J4_2, J5_2, J6_2
0, -1, 74.095, 11.8286, 22.7205, 50.9074, -59.9036, -57.1238, 1.56292, 17.3371, 29.5786, -18.3679, -98.6421, 5.74773
0.004, -1, 74.095, 11.8286, 22.7205, 50.9074, -59.9036, -57.1238, 1.56292, 17.3371, 29.5786, -18.3679, -98.6421, 5.74773
0.01, -1, 74.095, 11.8286, 22.7205, 50.9074, -59.9036, -57.1238, 1.56292, 17.3371, 29.5786, -18.3679, -98.6421, 5.74773
0.01, -1, 74.095, 11.8286, 22.7205, 50.9074, -59.9036, -57.1238, 1.56292, 17.3371, 29.5786, -18.3679, -98.6421, 5.74773
0.013, -1, 74.095, 11.8286, 22.7205, 50.9074, -59.9036, -57.1238, 1.56292, 17.3371, 29.5786, -18.3679, -98.6421, 5.74773
0.016, -1, 74.095, 11.8286, 22.7205, 50.9074, -59.9036, -57.1238, 1.56292, 17.3371, 29.5786, -18.3679, -98.6421, 5.74773
0.02, -1, 74.095, 11.8286, 22.7205, 50.9074, -59.9036, -57.1238, 1.56292, 17.3371, 29.5786, -18.3679, -98.6421, 5.74773
0.024, -1, 74.095, 11.8286, 22.7205, 50.9074, -59.9036, -57.1238, 1.56292, 17.3371, 29.5786, -18.3679, -98.6421, 5.74773
0.028, -1, 74.095, 11.8286, 22.7205, 50.9074, -59.9036, -57.1238, 1.56292, 17.3371, 29.5786, -18.3679, -98.6421, 5.74773
0.032, -1, 74.095, 11.8286, 22.7205, 50.9074, -59.9036, -57.1238, 1.56292, 17.3371, 29.5786, -18.3679, -98.6421, 5.74773
0.036, -1, 74.095, 11.8286, 22.7205, 50.9074, -59.9036, -57.1238, 1.56292, 17.3371, 29.5786, -18.3679, -98.6421, 5.74773
0.04, -1, 74.095, 11.8286, 22.7205, 50.9074, -59.9036, -57.1238, 1.56292, 17.3371, 29.5786, -18.3679, -98.6421, 5.74773
0.044, -1, 74.095, 11.8286, 22.7205, 50.9074, -59.9036, -57.1238, 1.56294, 17.3372, 29.5786, -18.3679, -98.6421, 5.74773
0.048, -1, 74.095, 11.8286, 22.7205, 50.9074, -59.9036, -57.1238, 1.56306, 17.3375, 29.5786, -18.3679, -98.6421, 5.74773
0.052, -1, 74.095, 11.8286, 22.7205, 50.9074, -59.9036, -57.1238, 1.56339, 17.3384, 29.5785, -18.3679, -98.642, 5.74772
0.056, -1, 74.095, 11.8286, 22.7205, 50.9074, -59.9036, -57.1238, 1.56401, 17.3405, 29.5784, -18.3679, -98.6419, 5.7477
0.06, -1, 74.0949, 11.8285, 22.7204, 50.9074, -59.9036, -57.1238, 1.56494, 17.3442, 29.5783, -18.3678, -98.6416, 5.74763
0.064, -1, 74.0947, 11.8283, 22.7203, 50.9073, -59.9036, -57.1238, 1.56617, 17.35, 29.5779, -18.3676, -98.6411, 5.74749
0.068, -1, 74.0941, 11.8278, 22.7199, 50.9072, -59.9038, -57.1238, 1.56768, 17.3583, 29.5772, -18.3671, -98.6402, 5.74723
0.072, -1, 74.0931, 11.8269, 22.719, 50.907, -59.9041, -57.1237, 1.56946, 17.369, 29.5762, -18.3664, -98.6388, 5.74678
0.076, -1, 74.0914, 11.8253, 22.7175, 50.9064, -59.9046, -57.1236, 1.57148, 17.382, 29.5745, -18.3652, -98.6367, 5.74606
0.08, -1, 74.089, 11.8231, 22.7149, 50.9054, -59.9056, -57.1233, 1.57375, 17.3972, 29.5721, -18.3634, -98.6338, 5.745
0.084, -1, 74.0854, 11.82, 22.7108, 50.9037, -59.9071, -57.1228, 1.57638, 17.4147, 29.5689, -18.3609, -98.6299, 5.74351
0.088, -1, 74.0808, 11.816, 22.7049, 50.901, -59.9093, -57.122, 1.57953, 17.4347, 29.5645, -18.3574, -98.6247, 5.7415
0.092, -1, 74.0749, 11.8109, 22.6966, 50.8971, -59.9123, -57.1209, 1.58331, 17.4572, 29.5589, -18.353, -98.6181, 5.73889
0.096, -1, 74.0676, 11.8048, 22.6856, 50.8918, -59.9165, -57.1194, 1.58781, 17.4826, 29.5519, -18.3474, -98.6099, 5.7356
0.1, -1, 74.0587, 11.7974, 22.6716, 50.8848, -59.9218, -57.1173, 1.5931, 17.5108, 29.5433, -18.3405, -98.6, 5.73157
0.104, -1, 74.0482, 11.7888, 22.6544, 50.8761, -59.9283, -57.1148, 1.59919, 17.5416, 29.5331, -18.3323, -98.5882, 5.72674
0.108, -1, 74.036, 11.7788, 22.6337, 50.8655, -59.9361, -57.1117, 1.60611, 17.575, 29.5212, -18.3226, -98.5746, 5.72109
0.112, -1, 74.0221, 11.7674, 22.6097, 50.8532, -59.9453, -57.108, 1.61385, 17.6109, 29.5076, -18.3116, -98.5591, 5.71462
0.116, -1, 74.0065, 11.7548, 22.5825, 50.8391, -59.9556, -57.1039, 1.62241, 17.6494, 29.4924, -18.2991, -98.5417, 5.70734
0.12, -1, 73.9893, 11.7409, 22.5522, 50.8235, -59.9671, -57.0993, 1.63172, 17.6906, 29.4756, -18.2854, -98.5226, 5.69932
0.124, -1, 73.9707, 11.7259, 22.5193, 50.8064, -59.9797, -57.0943, 1.64175, 17.7344, 29.4573, -18.2705, -98.502, 5.6906
0.128, -1, 73.9508, 11.7098, 22.484, 50.7881, -59.9931, -57.0889, 1.65241, 17.7809, 29.4378, -18.2545, -98.4798, 5.68128
0.131, -1, 73.9297, 11.6929, 22.4469, 50.7689, -60.0072, -57.0833, 1.66363, 17.83, 29.4172, -18.2377, -98.4564, 5.67144
0.136, -1, 73.9078, 11.6752, 22.4083, 50.7489, -60.0219, -57.0774, 1.67528, 17.8816, 29.3957, -18.2201, -98.432, 5.66116
0.139, -1, 73.885, 11.6567, 22.3685, 50.7284, -60.0371, -57.0714, 1.68725, 17.9355, 29.3734, -18.2019, -98.4067, 5.65054
0.144, -1, 73.8615, 11.6377, 22.328, 50.7075, -60.0525, -57.0652, 1.69945, 17.9918, 29.3505, -18.1833, -98.3807, 5.63963
0.148, -1, 73.8376, 11.6183, 22.2869, 50.6865, -60.0681, -57.059, 1.71186, 18.0504, 29.3272, -18.1643, -98.3542, 5.62853
0.152, -1, 73.8133, 11.5985, 22.2455, 50.6653, -60.0838, -57.0528, 1.72451, 18.1113, 29.3035, -18.1451, -98.3273, 5.61728
0.156, -1, 73.7888, 11.5785, 22.204, 50.6441, -60.0996, -57.0466, 1.73741, 18.1743, 29.2797, -18.1257, -98.3001, 5.60595
0.16, -1, 73.7642, 11.5584, 22.1624, 50.6228, -60.1153, -57.0404, 1.75056, 18.2389, 29.2557, -18.1062, -98.2728, 5.59457
0.164, -1, 73.7395, 11.5383, 22.1207, 50.6016, -60.1311, -57.0342, 1.76396, 18.3046, 29.2316, -18.0867, -98.2453, 5.58316
0.168, -1, 73.7148, 11.5181, 22.0791, 50.5804, -60.1469, -57.0279, 1.77758, 18.371, 29.2075, -18.0672, -98.2178, 5.57174
0.172, -1, 73.6901, 11.498, 22.0375, 50.5592, -60.1627, -57.0217, 1.79136, 18.4379, 29.1834, -18.0477, -98.1903, 5.56032
0.176, -1, 73.6655, 11.4778, 21.9958, 50.5379, -60.1785, -57.0155, 1.80522, 18.5049, 29.1594, -18.0282, -98.1628, 5.5489
0.18, -1, 73.6408, 11.4577, 21.9542, 50.5167, -60.1943, -57.0093, 1.81909, 18.5719, 29.1353, -18.0087, -98.1352, 5.53748
0.184, -1, 73.6161, 11.4376, 21.9126, 50.4955, -60.2101, -57.003, 1.83296, 18.639, 29.1112, -17.9892, -98.1077, 5.52607
0.188, -1, 73.5915, 11.4175, 21.871, 50.4743, -60.2259, -56.9968, 1.84682, 18.706, 29.0871, -17.9697, -98.0802, 5.51466
0.192, -1, 73.5669, 11.3973, 21.8295, 50.4531, -60.2417, -56.9906, 1.86069, 18.773, 29.063, -17.9502, -98.0527, 5.50325
0.196, -1, 73.5422, 11.3772, 21.7879, 50.4319, -60.2574, -56.9844, 1.87454, 18.84, 29.0389, -17.9307, -98.0252, 5.49185
0.2, -1, 73.5176, 11.3571, 21.7463, 50.4108, -60.2732, -56.9782, 1.8884, 18.907, 29.0149, -17.9112, -97.9977, 5.48044
0.204, -1, 73.493, 11.337, 21.7048, 50.3896, -60.289, -56.972, 1.90225, 18.9739, 28.9908, -17.8918, -97.9702, 5.46905
0.208, -1, 73.4683, 11.3169, 21.6633, 50.3684, -60.3047, -56.9658, 1.9161, 19.0409, 28.9668, -17.8723, -97.9427, 5.45765
0.212, -1, 73.4437, 11.2968, 21.6217, 50.3472, -60.3205, -56.9595, 1.92995, 19.1078, 28.9427, -17.8528, -97.9153, 5.44625
0.216, -1, 73.4191, 11.2767, 21.5802, 50.3261, -60.3362, -56.9533, 1.94379, 19.1747, 28.9187, -17.8333, -97.8878, 5.43486
0.22, -1, 73.3945, 11.2566, 21.5387, 50.3049, -60.352, -56.9471, 1.95763, 19.2416, 28.8947, -17.8139, -97.8603, 5.42348
0.224, -1, 73.3699, 11.2366, 21.4972, 50.2838, -60.3677, -56.9409, 1.97146, 19.3085, 28.8706, -17.7944, -97.8329, 5.41209
0.228, -1, 73.3453, 11.2165, 21.4557, 50.2626, -60.3835, -56.9347, 1.9853, 19.3753, 28.8466, -17.775, -97.8054, 5.40071
0.232, -1, 73.3207, 11.1964, 21.4143, 50.2415, -60.3992, -56.9285, 1.99912, 19.4422, 28.8226, -17.7555, -97.778, 5.38933
0.236, -1, 73.2962, 11.1763, 21.3728, 50.2203, -60.4149, -56.9223, 2.01295, 19.509, 28.7986, -17.7361, -97.7506, 5.37795
0.24, -1, 73.2716, 11.1563, 21.3313, 50.1992, -60.4307, -56.9161, 2.02677, 19.5758, 28.7746, -17.7167, -97.7232, 5.36658
0.244, -1, 73.247, 11.1362, 21.2899, 50.1781, -60.4464, -56.9099, 2.04059, 19.6426, 28.7506, -17.6972, -97.6957, 5.3552
0.248, -1, 73.2224, 11.1162, 21.2485, 50.1569, -60.4621, -56.9037, 2.0544, 19.7094, 28.7266, -17.6778, -97.6683, 5.34383
0.252, -1, 73.1979, 11.0961, 21.207, 50.1358, -60.4778, -56.8975, 2.06822, 19.7762, 28.7026, -17.6584, -97.6409, 5.33247
0.256, -1, 73.1733, 11.0761, 21.1656, 50.1147, -60.4935, -56.8913, 2.08203, 19.8429, 28.6786, -17.639, -97.6135, 5.3211
0.26, -1, 73.1488, 11.056, 21.1242, 50.0936, -60.5092, -56.8852, 2.09583, 19.9097, 28.6546, -17.6196, -97.5861, 5.30974
0.264, -1, 73.1243, 11.036, 21.0828, 50.0725, -60.5249, -56.879, 2.10963, 19.9764, 28.6307, -17.6001, -97.5587, 5.29839
0.268, -1, 73.0997, 11.016, 21.0414, 50.0514, -60.5406, -56.8728, 2.12343, 20.0431, 28.6067, -17.5807, -97.5314, 5.28703
0.272, -1, 73.0752, 10.996, 21.0001, 50.0303, -60.5563, -56.8666, 2.13723, 20.1098, 28.5827, -17.5613, -97.504, 5.27568
0.276, -1, 73.0507, 10.9759, 20.9587, 50.0092, -60.572, -56.8604, 2.15102, 20.1764, 28.5588, -17.542, -97.4766, 5.26433
0.28, -1, 73.0262, 10.9559, 20.9173, 49.9881, -60.5877, -56.8542, 2.16481, 20.2431, 28.5348, -17.5226, -97.4493, 5.25298
0.284, -1, 73.0017, 10.9359, 20.876, 49.9671, -60.6034, -56.848, 2.17859, 20.3097, 28.5109, -17.5032, -97.4219, 5.24164
0.288, -1, 72.9771, 10.9159, 20.8346, 49.946, -60.6191, -56.8419, 2.19237, 20.3763, 28.487, -17.4838, -97.3946, 5.23029
0.292, -1, 72.9527, 10.8959, 20.7933, 49.9249, -60.6348, -56.8357, 2.20615, 20.4429, 28.463, -17.4644, -97.3672, 5.21896
0.296, -1, 72.9282, 10.8759, 20.752, 49.9039, -60.6505, -56.8295, 2.21993, 20.5095, 28.4391, -17.445, -97.3399, 5.20762
0.3, -1, 72.9037, 10.8559, 20.7107, 49.8828, -60.6661, -56.8233, 2.2337, 20.5761, 28.4152, -17.4257, -97.3126, 5.19629
0.304, -1, 72.8792, 10.836, 20.6694, 49.8618, -60.6818, -56.8171, 2.24747, 20.6426, 28.3913, -17.4063, -97.2853, 5.18495
0.308, -1, 72.8547, 10.816, 20.6281, 49.8407, -60.6975, -56.811, 2.26124, 20.7092, 28.3674, -17.387, -97.2579, 5.17363
0.312, -1, 72.8303, 10.796, 20.5868, 49.8197, -60.7131, -56.8048, 2.275, 20.7757, 28.3435, -17.3676, -97.2306, 5.1623
0.316, -1, 72.8058, 10.776, 20.5456, 49.7986, -60.7288, -56.7986, 2.28876, 20.8422, 28.3196, -17.3483, -97.2033, 5.15098
0.32, -1, 72.7813, 10.7561, 20.5043, 49.7776, -60.7444, -56.7925, 2.30251, 20.9087, 28.2957, -17.3289, -97.176, 5.13966
0.324, -1, 72.7569, 10.7361, 20.4631, 49.7566, -60.7601, -56.7863, 2.31627, 20.9752, 28.2718, -17.3096, -97.1488, 5.12834
0.328, -1, 72.7324, 10.7161, 20.4218, 49.7355, -60.7757, -56.7801, 2.33002, 21.0417, 28.2479, -17.2903, -97.1215, 5.11702
0.332, -1, 72.708, 10.6962, 20.3806, 49.7145, -60.7914, -56.774, 2.34376, 21.1081, 28.224, -17.2709, -97.0942, 5.10571
0.336, -1, 72.6836, 10.6762, 20.3394, 49.6935, -60.807, -56.7678, 2.3575, 21.1745, 28.2002, -17.2516, -97.0669, 5.0944
0.34, -1, 72.6591, 10.6563, 20.2982, 49.6725, -60.8226, -56.7616, 2.37124, 21.2409, 28.1763, -17.2323, -97.0397, 5.0831
0.344, -1, 72.6347, 10.6364, 20.257, 49.6515, -60.8383, -56.7555, 2.38498, 21.3073, 28.1525, -17.213, -97.0124, 5.07179
0.348, -1, 72.6103, 10.6164, 20.2158, 49.6305, -60.8539, -56.7493, 2.39871, 21.3737, 28.1286, -17.1937, -96.9852, 5.06049
0.352, -1, 72.5859, 10.5965, 20.1746, 49.6095, -60.8695, -56.7432, 2.41244, 21.4401, 28.1048, -17.1743, -96.9579, 5.04919
0.356, -1, 72.5615, 10.5766, 20.1334, 49.5885, -60.8851, -56.737, 2.42617, 21.5064, 28.0809, -17.155, -96.9307, 5.0379
0.36, -1, 72.5371, 10.5567, 20.0923, 49.5676, -60.9008, -56.7309, 2.43989, 21.5728, 28.0571, -17.1357, -96.9035, 5.0266
0.364, -1, 72.5127, 10.5367, 20.0511, 49.5466, -60.9164, -56.7247, 2.45361, 21.6391, 28.0333, -17.1165, -96.8762, 5.01531
0.368, -1, 72.4883, 10.5168, 20.01, 49.5256, -60.932, -56.7185, 2.46733, 21.7054, 28.0094, -17.0972, -96.849, 5.00402
0.372, -1, 72.4639, 10.4969, 19.9688, 49.5046, -60.9476, -56.7124, 2.48104, 21.7717, 27.9856, -17.0779, -96.8218, 4.99274
0.376, -1, 72.4396, 10.477, 19.9277, 49.4837, -60.9632, -56.7062, 2.49475, 21.838, 27.9618, -17.0586, -96.7946, 4.98145
0.38, -1, 72.4152, 10.4571, 19.8866, 49.4627, -60.9788, -56.7001, 2.50846, 21.9042, 27.938, -17.0393, -96.7674, 4.97017
0.384, -1, 72.3908, 10.4373, 19.8455, 49.4418, -60.9944, -56.694, 2.52217, 21.9705, 27.9142, -17.0201, -96.7402, 4.9589
0.388, -1, 72.3665, 10.4174, 19.8044, 49.4208, -61.01, -56.6878, 2.53587, 22.0367, 27.8904, -17.0008, -96.713, 4.94762
0.392, -1, 72.3421, 10.3975, 19.7633, 49.3999, -61.0256, -56.6817, 2.54956, 22.1029, 27.8666, -16.9815, -96.6859, 4.93635
0.396, -1, 72.3178, 10.3776, 19.7223, 49.3789, -61.0411, -56.6755, 2.56326, 22.1691, 27.8428, -16.9623, -96.6587, 4.92508
0.4, -1, 72.2934, 10.3577, 19.6812, 49.358, -61.0567, -56.6694, 2.57695, 22.2353, 27.8191, -16.943, -96.6315, 4.91381
0.404, -1, 72.2691, 10.3379, 19.6402, 49.3371, -61.0723, -56.6632, 2.59064, 22.3014, 27.7953, -16.9238, -96.6044, 4.90255
0.408, -1, 72.2448, 10.318, 19.5991, 49.3162, -61.0879, -56.6571, 2.60432, 22.3676, 27.7715, -16.9045, -96.5772, 4.89129
0.412, -1, 72.2204, 10.2982, 19.5581, 49.2952, -61.1034, -56.651, 2.618, 22.4337, 27.7478, -16.8853, -96.5501, 4.88003
0.416, -1, 72.1961, 10.2783, 19.517, 49.2743, -61.119, -56.6448, 2.63168, 22.4998, 27.724, -16.8661, -96.5229, 4.86877
0.42, -1, 72.1718, 10.2584, 19.476, 49.2534, -61.1346, -56.6387, 2.64536, 22.5659, 27.7003, -16.8468, -96.4958, 4.85752
0.424, -1, 72.1475, 10.2386, 19.435, 49.2325, -61.1501, -56.6326, 2.65903, 22.632, 27.6765, -16.8276, -96.4687, 4.84627
0.428, -1, 72.1232, 10.2188, 19.394, 49.2116, -61.1657, -56.6264, 2.6727, 22.6981, 27.6528, -16.8084, -96.4415, 4.83502
0.432, -1, 72.0989, 10.1989, 19.353, 49.1907, -61.1812, -56.6203, 2.68636, 22.7642, 27.629, -16.7892, -96.4144, 4.82377
0.436, -1, 72.0746, 10.1791, 19.3121, 49.1698, -61.1968, -56.6142, 2.70002, 22.8302, 27.6053, -16.77, -96.3873, 4.81253
0.44, -1, 72.0503, 10.1593, 19.2711, 49.1489, -61.2123, -56.6081, 2.71368, 22.8962, 27.5816, -16.7508, -96.3602, 4.80129
0.444, -1, 72.0261, 10.1395, 19.2301, 49.1281, -61.2279, -56.6019, 2.72734, 22.9622, 27.5579, -16.7316, -96.3331, 4.79005
0.448, -1, 72.0018, 10.1196, 19.1892, 49.1072, -61.2434, -56.5958, 2.74099, 23.0282, 27.5342, -16.7124, -96.306, 4.77882
0.452, -1, 71.9775, 10.0998, 19.1483, 49.0863, -61.2589, -56.5897, 2.75464, 23.0942, 27.5105, -16.6932, -96.279, 4.76758
0.456, -1, 71.9532, 10.08, 19.1073, 49.0655, -61.2745, -56.5836, 2.76829, 23.1602, 27.4868, -16.674, -96.2519, 4.75635
0.46, -1, 71.929, 10.0602, 19.0664, 49.0446, -61.29, -56.5775, 2.78193, 23.2261, 27.4631, -16.6548, -96.2248, 4.74513
0.464, -1, 71.9047, 10.0404, 19.0255, 49.0237, -61.3055, -56.5713, 2.79557, 23.292, 27.4394, -16.6356, -96.1977, 4.7339
0.468, -1, 71.8805, 10.0206, 18.9846, 49.0029, -61.321, -56.5652, 2.8092, 23.358, 27.4157, -16.6164, -96.1707, 4.72268
0.472, -1, 71.8563, 10.0008, 18.9437, 48.982, -61.3365, -56.5591, 2.82284, 23.4239, 27.392, -16.5973, -96.1436, 4.71146
0.476, -1, 71.832, 9.98106, 18.9028, 48.9612, -61.3521, -56.553, 2.83647, 23.4897, 27.3683, -16.5781, -96.1166, 4.70024
0.48, -1, 71.8078, 9.96128, 18.862, 48.9404, -61.3676, -56.5469, 2.8501, 23.5556, 27.3447, -16.5589, -96.0896, 4.68903
0.484, -1, 71.7836, 9.94151, 18.8211, 48.9195, -61.3831, -56.5408, 2.86372, 23.6215, 27.321, -16.5398, -96.0625, 4.67782
0.488, -1, 71.7594, 9.92174, 18.7802, 48.8987, -61.3986, -56.5347, 2.87734, 23.6873, 27.2974, -16.5206, -96.0355, 4.66661
0.492, -1, 71.7351, 9.90197, 18.7394, 48.8779, -61.4141, -56.5286, 2.89096, 23.7531, 27.2737, -16.5015, -96.0085, 4.6554
0.496, -1, 71.711, 9.88221, 18.6986, 48.8571, -61.4296, -56.5225, 2.90457, 23.8189, 27.2501, -16.4823, -95.9815, 4.6442
0.5, -1, 71.6868, 9.86246, 18.6577, 48.8363, -61.445, -56.5163, 2.91818, 23.8847, 27.2264, -16.4632, -95.9545, 4.633
0.504, -1, 71.6626, 9.84271, 18.6169, 48.8155, -61.4605, -56.5102, 2.93179, 23.9505, 27.2028, -16.4441, -95.9275, 4.6218
0.508, -1, 71.6384, 9.82296, 18.5761, 48.7947, -61.476, -56.5041, 2.9454, 24.0163, 27.1792, -16.4249, -95.9005, 4.6106
0.512, -1, 71.6142, 9.80322, 18.5353, 48.7739, -61.4915, -56.498, 2.959, 24.082, 27.1555, -16.4058, -95.8735, 4.59941
0.516, -1, 71.59, 9.78348, 18.4945, 48.7531, -61.507, -56.4919, 2.9726, 24.1478, 27.1319, -16.3867, -95.8465, 4.58822
0.52, -1, 71.5658, 9.76375, 18.4538, 48.7323, -61.5224, -56.4859, 2.98619, 24.2135, 27.1083, -16.3676, -95.8195, 4.57703
0.524, -1, 71.5417, 9.74402, 18.413, 48.7115, -61.5379, -56.4798, 2.99978, 24.2792, 27.0847, -16.3484, -95.7925, 4.56584
0.528, -1, 71.5175, 9.72429, 18.3722, 48.6907, -61.5534, -56.4737, 3.01337, 24.3449, 27.0611, -16.3293, -95.7656, 4.55466
0.532, -1, 71.4934, 9.70458, 18.3315, 48.67, -61.5688, -56.4676, 3.02696, 24.4105, 27.0375, -16.3102, -95.7386, 4.54348
0.536, -1, 71.4692, 9.68486, 18.2908, 48.6492, -61.5843, -56.4615, 3.04054, 24.4762, 27.0139, -16.2911, -95.7117, 4.5323
0.54, -1, 71.4451, 9.66515, 18.25, 48.6284, -61.5997, -56.4554, 3.05412, 24.5418, 26.9903, -16.272, -95.6847, 4.52113
0.544, -1, 71.4209, 9.64544, 18.2093, 48.6077, -61.6152, -56.4493, 3.0677, 24.6075, 26.9668, -16.2529, -95.6578, 4.50995
0.548, -1, 71.3968, 9.62574, 18.1686, 48.5869, -61.6306, -56.4432, 3.08127, 24.6731, 26.9432, -16.2339, -95.6309, 4.49879
0.552, -1, 71.3727, 9.60605, 18.1279, 48.5662, -61.6461, -56.4371, 3.09484, 24.7387, 26.9196, -16.2148, -95.6039, 4.48762
0.556, -1, 71.3485, 9.58636, 18.0872, 48.5454, -61.6615, -56.431, 3.10841, 24.8043, 26.896, -16.1957, -95.577, 4.47645
0.56, -1, 71.3244, 9.56667, 18.0465, 48.5247, -61.6769, -56.425, 3.12197, 24.8698, 26.8725, -16.1766, -95.5501, 4.46529
0.564, -1, 71.3003, 9.54698, 18.0058, 48.504, -61.6924, -56.4189, 3.13553, 24.9354, 26.8489, -16.1576, -95.5232, 4.45413
0.568, -1, 71.2762, 9.52731, 17.9652, 48.4832, -61.7078, -56.4128, 3.14909, 25.0009, 26.8254, -16.1385, -95.4963, 4.44297
0.572, -1, 71.2521, 9.50763, 17.9245, 48.4625, -61.7232, -56.4067, 3.16265, 25.0664, 26.8019, -16.1194, -95.4694, 4.43182
0.576, -1, 71.228, 9.48796, 17.8839, 48.4418, -61.7387, -56.4006, 3.1762, 25.1319, 26.7783, -16.1004, -95.4425, 4.42067
0.58, -1, 71.2039, 9.4683, 17.8432, 48.4211, -61.7541, -56.3946, 3.18975, 25.1974, 26.7548, -16.0813, -95.4156, 4.40952
0.584, -1, 71.1799, 9.44864, 17.8026, 48.4004, -61.7695, -56.3885, 3.20329, 25.2629, 26.7313, -16.0623, -95.3888, 4.39837
0.588, -1, 71.1558, 9.42898, 17.762, 48.3796, -61.7849, -56.3824, 3.21684, 25.3284, 26.7077, -16.0432, -95.3619, 4.38722
0.592, -1, 71.1317, 9.40933, 17.7214, 48.3589, -61.8003, -56.3763, 3.23037, 25.3938, 26.6842, -16.0242, -95.335, 4.37608
0.596, -1, 71.1076, 9.38968, 17.6808, 48.3382, -61.8157, -56.3703, 3.24391, 25.4592, 26.6607, -16.0052, -95.3082, 4.36494
0.6, -1, 71.0836, 9.37004, 17.6402, 48.3176, -61.8311, -56.3642, 3.25744, 25.5247, 26.6372, -15.9861, -95.2813, 4.35381
0.604, -1, 71.0595, 9.3504, 17.5996, 48.2969, -61.8465, -56.3581, 3.27097, 25.5901, 26.6137, -15.9671, -95.2545, 4.34267
0.608, -1, 71.0355, 9.33077, 17.559, 48.2762, -61.8619, -56.3521, 3.2845, 25.6555, 26.5902, -15.9481, -95.2276, 4.33154
0.612, -1, 71.0114, 9.31114, 17.5185, 48.2555, -61.8773, -56.346, 3.29802, 25.7208, 26.5667, -15.9291, -95.2008, 4.32041
0.616, -1, 70.9874, 9.29152, 17.4779, 48.2348, -61.8927, -56.3399, 3.31154, 25.7862, 26.5433, -15.9101, -95.174, 4.30928
0.62, -1, 70.9634, 9.2719, 17.4374, 48.2142, -61.9081, -56.3339, 3.32506, 25.8515, 26.5198, -15.8911, -95.1471, 4.29816
0.624, -1, 70.9393, 9.25228, 17.3969, 48.1935, -61.9234, -56.3278, 3.33858, 25.9169, 26.4963, -15.8721, -95.1203, 4.28704
0.628, -1, 70.9153, 9.23267, 17.3563, 48.1729, -61.9388, -56.3218, 3.35209, 25.9822, 26.4728, -15.8531, -95.0935, 4.27592
0.632, -1, 70.8913, 9.21306, 17.3158, 48.1522, -61.9542, -56.3157, 3.3656, 26.0475, 26.4494, -15.8341, -95.0667, 4.2648
0.636, -1, 70.8673, 9.19346, 17.2753, 48.1315, -61.9695, -56.3096, 3.3791, 26.1127, 26.4259, -15.8151, -95.0399, 4.25369
0.64, -1, 70.8433, 9.17386, 17.2348, 48.1109, -61.9849, -56.3036, 3.3926, 26.178, 26.4025, -15.7961, -95.0131, 4.24258
0.644, -1, 70.8193, 9.15427, 17.1943, 48.0903, -62.0003, -56.2975, 3.4061, 26.2433, 26.379, -15.7771, -94.9863, 4.23147
0.648, -1, 70.7953, 9.13468, 17.1538, 48.0696, -62.0156, -56.2915, 3.4196, 26.3085, 26.3556, -15.7581, -94.9596, 4.22036
0.652, -1, 70.7713, 9.1151, 17.1134, 48.049, -62.031, -56.2854, 3.43309, 26.3737, 26.3322, -15.7391, -94.9328, 4.20925
0.656, -1, 70.7473, 9.09551, 17.0729, 48.0284, -62.0463, -56.2794, 3.44658, 26.4389, 26.3087, -15.7202, -94.906, 4.19815
0.66, -1, 70.7233, 9.07594, 17.0325, 48.0077, -62.0617, -56.2733, 3.46007, 26.5041, 26.2853, -15.7012, -94.8793, 4.18705
0.664, -1, 70.6993, 9.05637, 16.992, 47.9871, -62.077, -56.2673, 3.47356, 26.5693, 26.2619, -15.6822, -94.8525, 4.17596
0.668, -1, 70.6754, 9.0368, 16.9516, 47.9665, -62.0924, -56.2612, 3.48704, 26.6345, 26.2385, -15.6633, -94.8258, 4.16486
0.672, -1, 70.6514, 9.01724, 16.9111, 47.9459, -62.1077, -56.2552, 3.50052, 26.6996, 26.2151, -15.6443, -94.799, 4.15377
0.676, -1, 70.6275, 8.99768, 16.8707, 47.9253, -62.1231, -56.2491, 3.51399, 26.7648, 26.1917, -15.6254, -94.7723, 4.14268
0.68, -1, 70.6035, 8.97812, 16.8303, 47.9047, -62.1384, -56.2431, 3.52746, 26.8299, 26.1683, -15.6064, -94.7455, 4.13159
0.684, -1, 70.5796, 8.95857, 16.7899, 47.8841, -62.1537, -56.2371, 3.54093, 26.895, 26.1449, -15.5875, -94.7188, 4.12051
0.688, -1, 70.5556, 8.93903, 16.7495, 47.8635, -62.169, -56.231, 3.5544, 26.9601, 26.1215, -15.5686, -94.6921, 4.10943
0.692, -1, 70.5317, 8.91948, 16.7092, 47.8429, -62.1844, -56.225, 3.56786, 27.0252, 26.0981, -15.5496, -94.6654, 4.09835
0.696, -1, 70.5078, 8.89995, 16.6688, 47.8224, -62.1997, -56.2189, 3.58132, 27.0903, 26.0747, -15.5307, -94.6387, 4.08727
0.7, -1, 70.4838, 8.88041, 16.6284, 47.8018, -62.215, -56.2129, 3.59478, 27.1553, 26.0513, -15.5118, -94.612, 4.07619
0.704, -1, 70.4599, 8.86089, 16.5881, 47.7812, -62.2303, -56.2069, 3.60823, 27.2203, 26.028, -15.4929, -94.5853, 4.06512
0.708, -1, 70.436, 8.84136, 16.5477, 47.7606, -62.2456, -56.2008, 3.62169, 27.2854, 26.0046, -15.4739, -94.5586, 4.05405
0.712, -1, 70.4121, 8.82184, 16.5074, 47.7401, -62.2609, -56.1948, 3.63513, 27.3504, 25.9813, -15.455, -94.5319, 4.04298
0.716, -1, 70.3882, 8.80233, 16.4671, 47.7195, -62.2762, -56.1888, 3.64858, 27.4154, 25.9579, -15.4361, -94.5052, 4.03192
0.72, -1, 70.3643, 8.78281, 16.4267, 47.699, -62.2915, -56.1828, 3.66202, 27.4804, 25.9346, -15.4172, -94.4786, 4.02086
0.724, -1, 70.3404, 8.76331, 16.3864, 47.6784, -62.3068, -56.1767, 3.67546, 27.5453, 25.9112, -15.3983, -94.4519, 4.0098
0.728, -1, 70.3165, 8.7438, 16.3461, 47.6579, -62.3221, -56.1707, 3.6889, 27.6103, 25.8879, -15.3794, -94.4252, 3.99874
0.732, -1, 70.2926, 8.72431, 16.3058, 47.6373, -62.3374, -56.1647, 3.70233, 27.6752, 25.8645, -15.3605, -94.3986, 3.98768
0.736, -1, 70.2687, 8.70481, 16.2655, 47.6168, -62.3527, -56.1587, 3.71576, 27.7401, 25.8412, -15.3417, -94.3719, 3.97663
0.74, -1, 70.2449, 8.68532, 16.2253, 47.5963, -62.3679, -56.1526, 3.72919, 27.805, 25.8179, -15.3228, -94.3453, 3.96558
0.744, -1, 70.221, 8.66584, 16.185, 47.5757, -62.3832, -56.1466, 3.74262, 27.8699, 25.7946, -15.3039, -94.3186, 3.95453
0.748, -1, 70.1971, 8.64636, 16.1448, 47.5552, -62.3985, -56.1406, 3.75604, 27.9348, 25.7713, -15.285, -94.292, 3.94349
0.752, -1, 70.1733, 8.62688, 16.1045, 47.5347, -62.4138, -56.1346, 3.76946, 27.9997, 25.748, -15.2662, -94.2654, 3.93244
0.756, -1, 70.1494, 8.60741, 16.0643, 47.5142, -62.429, -56.1286, 3.78287, 28.0645, 25.7247, -15.2473, -94.2388, 3.9214
0.76, -1, 70.1256, 8.58794, 16.024, 47.4937, -62.4443, -56.1225, 3.79629, 28.1294, 25.7014, -15.2284, -94.2122, 3.91036
0.764, -1, 70.1017, 8.56847, 15.9838, 47.4732, -62.4596, -56.1165, 3.8097, 28.1942, 25.6781, -15.2096, -94.1855, 3.89933
0.768, -1, 70.0779, 8.54902, 15.9436, 47.4527, -62.4748, -56.1105, 3.8231, 28.259, 25.6548, -15.1907, -94.1589, 3.8883
0.772, -1, 70.0541, 8.52956, 15.9034, 47.4322, -62.4901, -56.1045, 3.83651, 28.3238, 25.6315, -15.1719, -94.1323, 3.87726
0.776, -1, 70.0302, 8.51011, 15.8632, 47.4117, -62.5053, -56.0985, 3.84991, 28.3886, 25.6082, -15.153, -94.1058, 3.86624
0.78, -1, 70.0064, 8.49066, 15.823, 47.3912, -62.5206, -56.0925, 3.86331, 28.4533, 25.585, -15.1342, -94.0792, 3.85521
0.784, -1, 69.9826, 8.47122, 15.7828, 47.3707, -62.5358, -56.0865, 3.8767, 28.5181, 25.5617, -15.1153, -94.0526, 3.84419
0.788, -1, 69.9588, 8.45178, 15.7427, 47.3503, -62.551, -56.0805, 3.89009, 28.5828, 25.5385, -15.0965, -94.026, 3.83316
0.792, -1, 69.935, 8.43235, 15.7025, 47.3298, -62.5663, -56.0745, 3.90348, 28.6475, 25.5152, -15.0777, -93.9995, 3.82214
0.796, -1, 69.9112, 8.41292, 15.6624, 47.3093, -62.5815, -56.0685, 3.91687, 28.7123, 25.4919, -15.0589, -93.9729, 3.81113
0.8, -1, 69.8874, 8.39349, 15.6222, 47.2889, -62.5967, -56.0625, 3.93025, 28.777, 25.4687, -15.04, -93.9463, 3.80011
0.804, -1, 69.8636, 8.37407, 15.5821, 47.2684, -62.612, -56.0565, 3.94364, 28.8416, 25.4455, -15.0212, -93.9198, 3.7891
0.808, -1, 69.8398, 8.35465, 15.542, 47.2479, -62.6272, -56.0505, 3.95701, 28.9063, 25.4222, -15.0024, -93.8932, 3.77809
0.812, -1, 69.816, 8.33524, 15.5018, 47.2275, -62.6424, -56.0445, 3.97039, 28.971, 25.399, -14.9836, -93.8667, 3.76709
0.816, -1, 69.7923, 8.31583, 15.4617, 47.207, -62.6576, -56.0385, 3.98376, 29.0356, 25.3758, -14.9648, -93.8402, 3.75608
0.82, -1, 69.7685, 8.29642, 15.4216, 47.1866, -62.6728, -56.0325, 3.99713, 29.1002, 25.3526, -14.946, -93.8136, 3.74508
0.824, -1, 69.7447, 8.27702, 15.3815, 47.1662, -62.6881, -56.0265, 4.0105, 29.1648, 25.3293, -14.9272, -93.7871, 3.73408
0.828, -1, 69.721, 8.25763, 15.3415, 47.1457, -62.7033, -56.0205, 4.02386, 29.2294, 25.3061, -14.9084, -93.7606, 3.72308
0.832, -1, 69.6972, 8.23823, 15.3014, 47.1253, -62.7185, -56.0145, 4.03722, 29.294, 25.2829, -14.8896, -93.7341, 3.71209
0.836, -1, 69.6735, 8.21885, 15.2613, 47.1049, -62.7337, -56.0085, 4.05058, 29.3586, 25.2597, -14.8708, -93.7076, 3.70109
0.84, -1, 69.6497, 8.19946, 15.2213, 47.0845, -62.7489, -56.0025, 4.06393, 29.4231, 25.2365, -14.8521, -93.6811, 3.6901
0.844, -1, 69.626, 8.18008, 15.1812, 47.064, -62.7641, -55.9965, 4.07728, 29.4877, 25.2133, -14.8333, -93.6546, 3.67912
0.848, -1, 69.6022, 8.16071, 15.1412, 47.0436, -62.7793, -55.9905, 4.09063, 29.5522, 25.1902, -14.8145, -93.6281, 3.66813
0.852, -1, 69.5785, 8.14134, 15.1012, 47.0232, -62.7944, -55.9845, 4.10398, 29.6167, 25.167, -14.7958, -93.6016, 3.65715
0.856, -1, 69.5548, 8.12197, 15.0611, 47.0028, -62.8096, -55.9786, 4.11732, 29.6812, 25.1438, -14.777, -93.5752, 3.64617
0.86, -1, 69.5311, 8.10261, 15.0211, 46.9824, -62.8248, -55.9726, 4.13066, 29.7457, 25.1206, -14.7582, -93.5487, 3.63519
0.864, -1, 69.5074, 8.08325, 14.9811, 46.962, -62.84, -55.9666, 4.144, 29.8102, 25.0975, -14.7395, -93.5222, 3.62421
0.868, -1, 69.4837, 8.06389, 14.9411, 46.9417, -62.8552, -55.9606, 4.15733, 29.8746, 25.0743, -14.7207, -93.4958, 3.61324
0.872, -1, 69.46, 8.04455, 14.9011, 46.9213, -62.8703, -55.9546, 4.17066, 29.9391, 25.0512, -14.702, -93.4693, 3.60227
0.876, -1, 69.4363, 8.0252, 14.8612, 46.9009, -62.8855, -55.9487, 4.18399, 30.0035, 25.028, -14.6832, -93.4429, 3.5913
0.88, -1, 69.4126, 8.00586, 14.8212, 46.8805, -62.9007, -55.9427, 4.19732, 30.0679, 25.0049, -14.6645, -93.4164, 3.58033
0.884, -1, 69.3889, 7.98652, 14.7812, 46.8601, -62.9158, -55.9367, 4.21064, 30.1323, 24.9817, -14.6458, -93.39, 3.56937
0.888, -1, 69.3652, 7.96719, 14.7413, 46.8398, -62.931, -55.9307, 4.22396, 30.1967, 24.9586, -14.627, -93.3636, 3.55841
0.892, -1, 69.3415, 7.94786, 14.7013, 46.8194, -62.9461, -55.9248, 4.23728, 30.2611, 24.9355, -14.6083, -93.3371, 3.54745
0.896, -1, 69.3178, 7.92853, 14.6614, 46.7991, -62.9613, -55.9188, 4.25059, 30.3254, 24.9123, -14.5896, -93.3107, 3.53649
0.9, -1, 69.2942, 7.90921, 14.6215, 46.7787, -62.9764, -55.9128, 4.26391, 30.3898, 24.8892, -14.5709, -93.2843, 3.52554
0.904, -1, 69.2705, 7.88989, 14.5816, 46.7584, -62.9916, -55.9069, 4.27721, 30.4541, 24.8661, -14.5521, -93.2579, 3.51458
0.908, -1, 69.2469, 7.87058, 14.5417, 46.738, -63.0067, -55.9009, 4.29052, 30.5184, 24.843, -14.5334, -93.2315, 3.50363
0.912, -1, 69.2232, 7.85127, 14.5018, 46.7177, -63.0219, -55.8949, 4.30382, 30.5827, 24.8199, -14.5147, -93.2051, 3.49269
0.916, -1, 69.1996, 7.83197, 14.4619, 46.6973, -63.037, -55.889, 4.31712, 30.647, 24.7968, -14.496, -93.1787, 3.48174
0.92, -1, 69.1759, 7.81267, 14.422, 46.677, -63.0521, -55.883, 4.33042, 30.7113, 24.7737, -14.4773, -93.1523, 3.4708
0.924, -1, 69.1523, 7.79337, 14.3821, 46.6567, -63.0673, -55.877, 4.34371, 30.7756, 24.7506, -14.4586, -93.126, 3.45986
0.928, -1, 69.1287, 7.77408, 14.3423, 46.6364, -63.0824, -55.8711, 4.35701, 30.8398, 24.7275, -14.4399, -93.0996, 3.44892
0.932, -1, 69.105, 7.75479, 14.3024, 46.616, -63.0975, -55.8651, 4.37029, 30.904, 24.7045, -14.4213, -93.0732, 3.43798
0.936, -1, 69.0814, 7.73551, 14.2625, 46.5957, -63.1126, -55.8592, 4.38358, 30.9683, 24.6814, -14.4026, -93.0469, 3.42705
0.94, -1, 69.0578, 7.71623, 14.2227, 46.5754, -63.1277, -55.8532, 4.39686, 31.0325, 24.6583, -14.3839, -93.0205, 3.41612
0.944, -1, 69.0342, 7.69695, 14.1829, 46.5551, -63.1428, -55.8472, 4.41014, 31.0967, 24.6353, -14.3652, -92.9941, 3.40519
0.948, -1, 69.0106, 7.67768, 14.1431, 46.5348, -63.158, -55.8413, 4.42342, 31.1608, 24.6122, -14.3466, -92.9678, 3.39426
0.952, -1, 68.987, 7.65842, 14.1032, 46.5145, -63.1731, -55.8353, 4.43669, 31.225, 24.5891, -14.3279, -92.9415, 3.38334
0.956, -1, 68.9634, 7.63915, 14.0634, 46.4942, -63.1882, -55.8294, 4.44997, 31.2892, 24.5661, -14.3092, -92.9151, 3.37242
0.96, -1, 68.9398, 7.61989, 14.0236, 46.4739, -63.2033, -55.8234, 4.46323, 31.3533, 24.543, -14.2906, -92.8888, 3.3615
0.964, -1, 68.9162, 7.60064, 13.9838, 46.4537, -63.2184, -55.8175, 4.4765, 31.4174, 24.52, -14.2719, -92.8625, 3.35058
0.968, -1, 68.8926, 7.58139, 13.9441, 46.4334, -63.2335, -55.8115, 4.48976, 31.4815, 24.497, -14.2533, -92.8362, 3.33967
0.972, -1, 68.869, 7.56214, 13.9043, 46.4131, -63.2485, -55.8056, 4.50302, 31.5456, 24.4739, -14.2346, -92.8099, 3.32875
0.976, -1, 68.8455, 7.5429, 13.8645, 46.3928, -63.2636, -55.7996, 4.51628, 31.6097, 24.4509, -14.216, -92.7836, 3.31784
0.98, -1, 68.8219, 7.52366, 13.8248, 46.3726, -63.2787, -55.7937, 4.52954, 31.6738, 24.4279, -14.1973, -92.7572, 3.30693
0.984, -1, 68.7984, 7.50443, 13.785, 46.3523, -63.2938, -55.7878, 4.54279, 31.7379, 24.4049, -14.1787, -92.7309, 3.29603
0.988, -1, 68.7748, 7.4852, 13.7453, 46.3321, -63.3089, -55.7818, 4.55604, 31.8019, 24.3819, -14.1601, -92.7047, 3.28513
0.992, -1, 68.7512, 7.46597, 13.7056, 46.3118, -63.3239, -55.7759, 4.56928, 31.8659, 24.3589, -14.1414, -92.6784, 3.27422
0.996, -1, 68.7277, 7.44675, 13.6658, 46.2915, -63.339, -55.7699, 4.58253, 31.9299, 24.3359, -14.1228, -92.6521, 3.26333
1, -1, 68.7042, 7.42753, 13.6261, 46.2713, -63.3541, -55.764, 4.59577, 31.9939, 24.3129, -14.1042, -92.6258, 3.25243
1.004, -1, 68.6806, 7.40831, 13.5864, 46.2511, -63.3692, -55.7581, 4.60901, 32.0579, 24.2899, -14.0856, -92.5996, 3.24154
1.008, -1, 68.6571, 7.3891, 13.5467, 46.2308, -63.3842, -55.7521, 4.62224, 32.1219, 24.2669, -14.067, -92.5733, 3.23064
1.012, -1, 68.6336, 7.3699, 13.507, 46.2106, -63.3993, -55.7462, 4.63547, 32.1859, 24.2439, -14.0484, -92.5471, 3.21975
1.016, -1, 68.61, 7.3507, 13.4674, 46.1904, -63.4143, -55.7403, 4.6487, 32.2498, 24.2209, -14.0298, -92.5208, 3.20887
1.02, -1, 68.5865, 7.3315, 13.4277, 46.1701, -63.4294, -55.7343, 4.66193, 32.3138, 24.198, -14.0112, -92.4946, 3.19798
1.024, -1, 68.563, 7.31231, 13.388, 46.1499, -63.4444, -55.7284, 4.67515, 32.3777, 24.175, -13.9926, -92.4683, 3.1871
1.027, -1, 68.5395, 7.29312, 13.3484, 46.1297, -63.4595, -55.7225, 4.68837, 32.4416, 24.152, -13.974, -92.4421, 3.17622
1.032, -1, 68.516, 7.27393, 13.3087, 46.1095, -63.4745, -55.7165, 4.70159, 32.5055, 24.1291, -13.9554, -92.4159, 3.16534
1.036, -1, 68.4925, 7.25475, 13.2691, 46.0893, -63.4895, -55.7106, 4.71481, 32.5694, 24.1061, -13.9368, -92.3896, 3.15447
1.04, -1, 68.469, 7.23557, 13.2295, 46.0691, -63.5046, -55.7047, 4.72802, 32.6332, 24.0832, -13.9182, -92.3634, 3.14359
1.044, -1, 68.4455, 7.2164, 13.1898, 46.0489, -63.5196, -55.6988, 4.74123, 32.6971, 24.0602, -13.8997, -92.3372, 3.13272
1.048, -1, 68.4221, 7.19723, 13.1502, 46.0287, -63.5346, -55.6928, 4.75444, 32.7609, 24.0373, -13.8811, -92.311, 3.12185
1.052, -1, 68.3986, 7.17806, 13.1106, 46.0085, -63.5497, -55.6869, 4.76764, 32.8248, 24.0144, -13.8625, -92.2848, 3.11099
1.055, -1, 68.3751, 7.1589, 13.071, 45.9883, -63.5647, -55.681, 4.78084, 32.8886, 23.9914, -13.844, -92.2586, 3.10012
1.06, -1, 68.3517, 7.13974, 13.0314, 45.9682, -63.5797, -55.6751, 4.79404, 32.9524, 23.9685, -13.8254, -92.2324, 3.08926
1.064, -1, 68.3282, 7.12059, 12.9919, 45.948, -63.5947, -55.6692, 4.80724, 33.0162, 23.9456, -13.8068, -92.2062, 3.0784
1.068, -1, 68.3047, 7.10144, 12.9523, 45.9278, -63.6097, -55.6632, 4.82043, 33.0799, 23.9227, -13.7883, -92.1801, 3.06754
1.072, -1, 68.2813, 7.0823, 12.9127, 45.9076, -63.6248, -55.6573, 4.83362, 33.1437, 23.8998, -13.7697, -92.1539, 3.05669
1.076, -1, 68.2578, 7.06316, 12.8732, 45.8875, -63.6398, -55.6514, 4.84681, 33.2074, 23.8769, -13.7512, -92.1277, 3.04584
1.08, -1, 68.2344, 7.04402, 12.8336, 45.8673, -63.6548, -55.6455, 4.85999, 33.2712, 23.854, -13.7327, -92.1016, 3.03499
1.084, -1, 68.211, 7.02489, 12.7941, 45.8472, -63.6698, -55.6396, 4.87318, 33.3349, 23.8311, -13.7141, -92.0754, 3.02414
1.088, -1, 68.1875, 7.00576, 12.7546, 45.827, -63.6848, -55.6337, 4.88635, 33.3986, 23.8082, -13.6956, -92.0493, 3.01329
1.091, -1, 68.1641, 6.98663, 12.715, 45.8069, -63.6998, -55.6278, 4.89953, 33.4623, 23.7853, -13.6771, -92.0231, 3.00245
1.096, -1, 68.1407, 6.96751, 12.6755, 45.7867, -63.7148, -55.6219, 4.91271, 33.526, 23.7624, -13.6585, -91.997, 2.99161
1.1, -1, 68.1173, 6.94839, 12.636, 45.7666, -63.7297, -55.6159, 4.92588, 33.5896, 23.7395, -13.64, -91.9708, 2.98077
1.104, -1, 68.0938, 6.92928, 12.5965, 45.7464, -63.7447, -55.61, 4.93904, 33.6533, 23.7167, -13.6215, -91.9447, 2.96993
1.108, -1, 68.0704, 6.91017, 12.557, 45.7263, -63.7597, -55.6041, 4.95221, 33.7169, 23.6938, -13.603, -91.9186, 2.9591
1.112, -1, 68.047, 6.89107, 12.5176, 45.7062, -63.7747, -55.5982, 4.96537, 33.7806, 23.671, -13.5845, -91.8925, 2.94826
1.116, -1, 68.0236, 6.87196, 12.4781, 45.6861, -63.7897, -55.5923, 4.97853, 33.8442, 23.6481, -13.566, -91.8664, 2.93743
1.119, -1, 68.0002, 6.85287, 12.4386, 45.666, -63.8046, -55.5864, 4.99169, 33.9078, 23.6252, -13.5475, -91.8403, 2.92661
1.124, -1, 67.9769, 6.83377, 12.3992, 45.6458, -63.8196, -55.5805, 5.00485, 33.9714, 23.6024, -13.529, -91.8142, 2.91578
1.128, -1, 67.9535, 6.81468, 12.3597, 45.6257, -63.8346, -55.5746, 5.018, 34.0349, 23.5796, -13.5105, -91.7881, 2.90496
1.132, -1, 67.9301, 6.7956, 12.3203, 45.6056, -63.8495, -55.5687, 5.03115, 34.0985, 23.5567, -13.492, -91.762, 2.89414
1.136, -1, 67.9067, 6.77652, 12.2809, 45.5855, -63.8645, -55.5628, 5.04429, 34.162, 23.5339, -13.4735, -91.7359, 2.88332
1.14, -1, 67.8834, 6.75744, 12.2414, 45.5654, -63.8794, -55.5569, 5.05744, 34.2256, 23.5111, -13.455, -91.7098, 2.8725
1.144, -1, 67.86, 6.73837, 12.202, 45.5453, -63.8944, -55.551, 5.07058, 34.2891, 23.4882, -13.4365, -91.6837, 2.86169
1.147, -1, 67.8366, 6.7193, 12.1626, 45.5252, -63.9094, -55.5452, 5.08372, 34.3526, 23.4654, -13.4181, -91.6577, 2.85087
1.152, -1, 67.8133, 6.70023, 12.1232, 45.5052, -63.9243, -55.5393, 5.09685, 34.4161, 23.4426, -13.3996, -91.6316, 2.84006
1.156, -1, 67.7899, 6.68117, 12.0838, 45.4851, -63.9392, -55.5334, 5.10998, 34.4796, 23.4198, -13.3811, -91.6055, 2.82926
1.16, -1, 67.7666, 6.66211, 12.0444, 45.465, -63.9542, -55.5275, 5.12312, 34.5431, 23.397, -13.3627, -91.5795, 2.81845
1.164, -1, 67.7432, 6.64306, 12.0051, 45.4449, -63.9691, -55.5216, 5.13624, 34.6065, 23.3742, -13.3442, -91.5534, 2.80765
1.168, -1, 67.7199, 6.62401, 11.9657, 45.4249, -63.9841, -55.5157, 5.14937, 34.67, 23.3514, -13.3257, -91.5274, 2.79685
1.172, -1, 67.6966, 6.60496, 11.9263, 45.4048, -63.999, -55.5098, 5.16249, 34.7334, 23.3286, -13.3073, -91.5014, 2.78605
1.175, -1, 67.6733, 6.58592, 11.887, 45.3847, -64.0139, -55.5039, 5.17561, 34.7968, 23.3058, -13.2888, -91.4753, 2.77525
1.18, -1, 67.6499, 6.56688, 11.8477, 45.3647, -64.0289, -55.4981, 5.18873, 34.8602, 23.283, -13.2704, -91.4493, 2.76446
1.184, -1, 67.6266, 6.54784, 11.8083, 45.3446, -64.0438, -55.4922, 5.20184, 34.9236, 23.2603, -13.252, -91.4233, 2.75366
1.188, -1, 67.6033, 6.52881, 11.769, 45.3246, -64.0587, -55.4863, 5.21495, 34.987, 23.2375, -13.2335, -91.3973, 2.74287
1.192, -1, 67.58, 6.50979, 11.7297, 45.3046, -64.0736, -55.4804, 5.22806, 35.0504, 23.2147, -13.2151, -91.3713, 2.73208
1.196, -1, 67.5567, 6.49076, 11.6904, 45.2845, -64.0885, -55.4745, 5.24117, 35.1137, 23.192, -13.1967, -91.3453, 2.7213
1.2, -1, 67.5334, 6.47174, 11.6511, 45.2645, -64.1034, -55.4687, 5.25427, 35.1771, 23.1692, -13.1782, -91.3192, 2.71052
1.204, -1, 67.5101, 6.45273, 11.6118, 45.2444, -64.1183, -55.4628, 5.26737, 35.2404, 23.1465, -13.1598, -91.2933, 2.69973
1.208, -1, 67.4868, 6.43372, 11.5725, 45.2244, -64.1333, -55.4569, 5.28047, 35.3037, 23.1237, -13.1414, -91.2673, 2.68895
1.212, -1, 67.4635, 6.41471, 11.5332, 45.2044, -64.1482, -55.451, 5.29356, 35.367, 23.101, -13.123, -91.2413, 2.67818
1.216, -1, 67.4403, 6.39571, 11.4939, 45.1844, -64.1631, -55.4452, 5.30666, 35.4303, 23.0782, -13.1046, -91.2153, 2.6674
1.22, -1, 67.417, 6.37671, 11.4547, 45.1644, -64.178, -55.4393, 5.31975, 35.4936, 23.0555, -13.0862, -91.1893, 2.65663
1.224, -1, 67.3937, 6.35771, 11.4154, 45.1444, -64.1928, -55.4334, 5.33284, 35.5568, 23.0328, -13.0678, -91.1634, 2.64586
1.228, -1, 67.3705, 6.33872, 11.3762, 45.1243, -64.2077, -55.4276, 5.34592, 35.6201, 23.01, -13.0494, -91.1374, 2.63509
1.232, -1, 67.3472, 6.31973, 11.3369, 45.1043, -64.2226, -55.4217, 5.359, 35.6833, 22.9873, -13.031, -91.1114, 2.62432
1.236, -1, 67.3239, 6.30074, 11.2977, 45.0843, -64.2375, -55.4158, 5.37208, 35.7465, 22.9646, -13.0126, -91.0855, 2.61356
1.24, -1, 67.3007, 6.28176, 11.2585, 45.0643, -64.2524, -55.41, 5.38516, 35.8098, 22.9419, -12.9942, -91.0595, 2.6028
1.244, -1, 67.2774, 6.26278, 11.2193, 45.0444, -64.2673, -55.4041, 5.39824, 35.873, 22.9192, -12.9758, -91.0336, 2.59204
1.248, -1, 67.2542, 6.24381, 11.1801, 45.0244, -64.2822, -55.3982, 5.41131, 35.9361, 22.8965, -12.9574, -91.0077, 2.58128
1.252, -1, 67.231, 6.22484, 11.1409, 45.0044, -64.297, -55.3924, 5.42438, 35.9993, 22.8738, -12.939, -90.9817, 2.57053
1.256, -1, 67.2077, 6.20588, 11.1017, 44.9844, -64.3119, -55.3865, 5.43744, 36.0625, 22.8511, -12.9207, -90.9558, 2.55977
1.26, -1, 67.1845, 6.18691, 11.0625, 44.9644, -64.3268, -55.3807, 5.45051, 36.1256, 22.8284, -12.9023, -90.9299, 2.54902
1.264, -1, 67.1613, 6.16796, 11.0233, 44.9445, -64.3416, -55.3748, 5.46357, 36.1888, 22.8057, -12.8839, -90.904, 2.53827
1.267, -1, 67.1381, 6.149, 10.9841, 44.9245, -64.3565, -55.3689, 5.47663, 36.2519, 22.783, -12.8656, -90.8781, 2.52752
1.272, -1, 67.1149, 6.13005, 10.945, 44.9045, -64.3713, -55.3631, 5.48969, 36.315, 22.7603, -12.8472, -90.8521, 2.51678
1.276, -1, 67.0916, 6.1111, 10.9058, 44.8846, -64.3862, -55.3572, 5.50274, 36.3781, 22.7377, -12.8288, -90.8262, 2.50604
1.28, -1, 67.0684, 6.09216, 10.8667, 44.8646, -64.401, -55.3514, 5.51579, 36.4412, 22.715, -12.8105, -90.8003, 2.4953
1.284, -1, 67.0452, 6.07322, 10.8275, 44.8447, -64.4159, -55.3455, 5.52884, 36.5043, 22.6923, -12.7921, -90.7745, 2.48456
1.288, -1, 67.022, 6.05428, 10.7884, 44.8247, -64.4307, -55.3397, 5.54188, 36.5673, 22.6697, -12.7738, -90.7486, 2.47382
1.292, -1, 66.9989, 6.03535, 10.7493, 44.8048, -64.4456, -55.3338, 5.55493, 36.6304, 22.647, -12.7555, -90.7227, 2.46309
1.295, -1, 66.9757, 6.01642, 10.7102, 44.7848, -64.4604, -55.328, 5.56797, 36.6934, 22.6244, -12.7371, -90.6968, 2.45236
1.3, -1, 66.9525, 5.9975, 10.6711, 44.7649, -64.4753, -55.3221, 5.58101, 36.7565, 22.6017, -12.7188, -90.6709, 2.44163
1.304, -1, 66.9293, 5.97858, 10.632, 44.745, -64.4901, -55.3163, 5.59404, 36.8195, 22.5791, -12.7005, -90.6451, 2.4309
1.308, -1, 66.9061, 5.95966, 10.5929, 44.725, -64.5049, -55.3104, 5.60708, 36.8825, 22.5565, -12.6821, -90.6192, 2.42017
1.312, -1, 66.883, 5.94075, 10.5538, 44.7051, -64.5198, -55.3046, 5.62011, 36.9455, 22.5338, -12.6638, -90.5934, 2.40945
1.316, -1, 66.8598, 5.92184, 10.5147, 44.6852, -64.5346, -55.2988, 5.63314, 37.0084, 22.5112, -12.6455, -90.5675, 2.39873
1.32, -1, 66.8367, 5.90293, 10.4757, 44.6653, -64.5494, -55.2929, 5.64616, 37.0714, 22.4886, -12.6272, -90.5417, 2.38801
1.324, -1, 66.8135, 5.88403, 10.4366, 44.6454, -64.5642, -55.2871, 5.65918, 37.1343, 22.466, -12.6089, -90.5158, 2.37729
1.328, -1, 66.7904, 5.86513, 10.3975, 44.6255, -64.579, -55.2812, 5.6722, 37.1973, 22.4434, -12.5905, -90.49, 2.36658
1.332, -1, 66.7672, 5.84624, 10.3585, 44.6056, -64.5938, -55.2754, 5.68521, 37.2602, 22.4207, -12.5722, -90.4642, 2.35586
1.336, -1, 66.7441, 5.82735, 10.3195, 44.5857, -64.6087, -55.2696, 5.69817, 37.323, 22.3981, -12.5539, -90.4383, 2.34515
1.34, -1, 66.7209, 5.80846, 10.2804, 44.5658, -64.6235, -55.2637, 5.711, 37.3854, 22.3755, -12.5356, -90.4125, 2.33445
1.344, -1, 66.6978, 5.78958, 10.2414, 44.5459, -64.6383, -55.2579, 5.72362, 37.4473, 22.353, -12.5174, -90.3868, 2.32375
1.348, -1, 66.6747, 5.77073, 10.2024, 44.526, -64.6531, -55.2521, 5.736, 37.5085, 22.3304, -12.4991, -90.3611, 2.31307
1.352, -1, 66.6517, 5.75195, 10.1635, 44.5061, -64.6679, -55.2462, 5.74809, 37.5686, 22.308, -12.4809, -90.3355, 2.30241
1.356, -1, 66.6288, 5.73332, 10.1246, 44.4863, -64.6826, -55.2404, 5.75989, 37.6275, 22.2856, -12.4628, -90.3101, 2.29182
1.36, -1, 66.6061, 5.7149, 10.0859, 44.4665, -64.6973, -55.2346, 5.7714, 37.6848, 22.2635, -12.4448, -90.285, 2.28131
1.364, -1, 66.5837, 5.69683, 10.0475, 44.4468, -64.7119, -55.2288, 5.78266, 37.7403, 22.2416, -12.4271, -90.2602, 2.27094
1.368, -1, 66.5619, 5.67924, 10.0097, 44.4274, -64.7262, -55.2231, 5.79369, 37.794, 22.2202, -12.4097, -90.236, 2.26076
1.372, -1, 66.5406, 5.66228, 9.97258, 44.4082, -64.7403, -55.2175, 5.80447, 37.8456, 22.1993, -12.3927, -90.2124, 2.25084
1.376, -1, 66.5202, 5.64603, 9.93654, 44.3896, -64.754, -55.212, 5.81493, 37.8949, 22.1791, -12.3763, -90.1896, 2.24126
1.38, -1, 66.5007, 5.6306, 9.90191, 44.3716, -64.7672, -55.2067, 5.82498, 37.9416, 22.1598, -12.3607, -90.1678, 2.23208
1.384, -1, 66.4823, 5.61607, 9.86907, 44.3546, -64.7797, -55.2017, 5.83454, 37.9855, 22.1415, -12.3458, -90.1473, 2.2234
1.388, -1, 66.4651, 5.60252, 9.8384, 44.3387, -64.7914, -55.1971, 5.84353, 38.0265, 22.1244, -12.3319, -90.128, 2.2153
1.392, -1, 66.4493, 5.59002, 9.81026, 44.3241, -64.8021, -55.1928, 5.85191, 38.0649, 22.1087, -12.3192, -90.1103, 2.20784
1.396, -1, 66.4349, 5.57861, 9.78495, 44.311, -64.8117, -55.1889, 5.85963, 38.1006, 22.0945, -12.3076, -90.0942, 2.20108
1.4, -1, 66.4221, 5.56834, 9.7627, 44.2996, -64.8201, -55.1856, 5.86668, 38.1339, 22.0818, -12.2974, -90.0798, 2.19508
1.404, -1, 66.4109, 5.55923, 9.74362, 44.2898, -64.8274, -55.1827, 5.87304, 38.1649, 22.0707, -12.2884, -90.0672, 2.18985
1.408, -1, 66.4012, 5.55122, 9.72773, 44.2818, -64.8334, -55.1804, 5.87873, 38.1935, 22.0613, -12.2808, -90.0564, 2.1854
1.412, -1, 66.393, 5.54428, 9.7149, 44.2754, -64.8382, -55.1785, 5.88374, 38.2196, 22.0534, -12.2745, -90.0472, 2.18168
1.416, -1, 66.3862, 5.53835, 9.70491, 44.2706, -64.842, -55.1771, 5.88809, 38.243, 22.0469, -12.2693, -90.0396, 2.17866
1.42, -1, 66.3807, 5.53334, 9.69744, 44.2671, -64.8448, -55.1761, 5.89183, 38.2636, 22.0418, -12.2653, -90.0336, 2.17627
1.424, -1, 66.3763, 5.5292, 9.6921, 44.2647, -64.8468, -55.1754, 5.89502, 38.2813, 22.0379, -12.2622, -90.0288, 2.17444
1.428, -1, 66.3729, 5.52592, 9.68847, 44.2632, -64.8481, -55.1749, 5.89777, 38.2965, 22.035, -12.2599, -90.0252, 2.17309
1.432, -1, 66.3705, 5.52347, 9.68617, 44.2623, -64.849, -55.1747, 5.90023, 38.3093, 22.0329, -12.2583, -90.0225, 2.17214
1.436, -1, 66.3689, 5.52178, 9.68481, 44.2618, -64.8495, -55.1746, 5.90247, 38.3202, 22.0315, -12.2572, -90.0207, 2.1715
1.44, -1, 66.3679, 5.52069, 9.68407, 44.2616, -64.8497, -55.1745, 5.90447, 38.3291, 22.0306, -12.2565, -90.0194, 2.1711
1.444, -1, 66.3674, 5.52008, 9.68372, 44.2615, -64.8498, -55.1745, 5.90618, 38.336, 22.0301, -12.2561, -90.0186, 2.17087
1.448, -1, 66.3671, 5.5198, 9.68358, 44.2615, -64.8499, -55.1745, 5.90757, 38.3411, 22.0298, -12.2559, -90.0181, 2.17075
1.452, 2, 66.3671, 5.51971, 9.68354, 44.2615, -64.8499, -55.1745, 5.90862, 38.3447, 22.0296, -12.2558, -90.0178, 2.1707
1.456, 2, 66.367, 5.5197, 9.68353, 44.2615, -64.8499, -55.1745, 5.90931, 38.3468, 22.0296, -12.2558, -90.0177, 2.17068
1.46, 2, 66.367, 5.5197, 9.68353, 44.2615, -64.8499, -55.1745, 5.90965, 38.3478, 22.0296, -12.2558, -90.0177, 2.17067
1.464, 2, 66.367, 5.5197, 9.68353, 44.2615, -64.8499, -55.1745, 5.90977, 38.3481, 22.0296, -12.2558, -90.0176, 2.17067
1.468, 2, 66.367, 5.5197, 9.68353, 44.2615, -64.8499, -55.1745, 5.9098, 38.3481, 22.0296, -12.2558, -90.0176, 2.17067
1.472, 2, 66.367, 5.5197, 9.68353, 44.2615, -64.8499, -55.1745, 5.9098, 38.3481, 22.0296, -12.2558, -90.0176, 2.17067
1.476, 2, 66.367, 5.5197, 9.68353, 44.2615, -64.8499, -55.1745, 5.9098, 38.3481, 22.0296, -12.2558, -90.0176, 2.17067
1.48, 2, 66.367, 5.5197, 9.68353, 44.2615, -64.8499, -55.1745, 5.9098, 38.3481, 22.0296, -12.2558, -90.0176, 2.17067
1.484, 2, 66.367, 5.5197, 9.68353, 44.2615, -64.8499, -55.1745, 5.9098, 38.3481, 22.0296, -12.2558, -90.0176, 2.17067
1.488, 2, 66.367, 5.5197, 9.68353, 44.2615, -64.8499, -55.1745, 5.9098, 38.3481, 22.0296, -12.2558, -90.0176, 2.17067
1.492, 2, 66.367, 5.5197, 9.68353, 44.2615, -64.8499, -55.1745, 5.9098, 38.3481, 22.0296, -12.2558, -90.0176, 2.17067
1.496, 2, 66.367, 5.5197, 9.68353, 44.2615, -64.8499, -55.1745, 5.9098, 38.3481, 22.0296, -12.2558, -90.0176, 2.17067
1.5, 2, 66.367, 5.5197, 9.68353, 44.2615, -64.8499, -55.1745, 5.9098, 38.3481, 22.0296, -12.2558, -90.0176, 2.17067
1.504, 2, 66.367, 5.5197, 9.68353, 44.2615, -64.8499, -55.1745, 5.9098, 38.3481, 22.0296, -12.2558, -90.0176, 2.17067
1.508, 2, 66.367, 5.5197, 9.68353, 44.2615, -64.8499, -55.1745, 5.9098, 38.3481, 22.0296, -12.2558, -90.0176, 2.17067
1.512, 2, 66.367, 5.5197, 9.68353, 44.2615, -64.8499, -55.1745, 5.9098, 38.3481, 22.0296, -12.2558, -90.0176, 2.17067
1.516, 2, 66.367, 5.5197, 9.68353, 44.2615, -64.8499, -55.1745, 5.9098, 38.3481, 22.0296, -12.2558, -90.0176, 2.17067
1.52, 2, 66.367, 5.5197, 9.68353, 44.2615, -64.8499, -55.1745, 5.9098, 38.3481, 22.0296, -12.2558, -90.0176, 2.17067
1.524, 2, 66.367, 5.5197, 9.68353, 44.2615, -64.8499, -55.1745, 5.9098, 38.3481, 22.0296, -12.2558, -90.0176, 2.17067
1.528, 2, 66.367, 5.5197, 9.68353, 44.2615, -64.8499, -55.1745, 5.9098, 38.3481, 22.0296, -12.2558, -90.0176, 2.17067
1.532, 2, 66.367, 5.5197, 9.68353, 44.2615, -64.8499, -55.1745, 5.9098, 38.3481, 22.0296, -12.2558, -90.0176, 2.17067
1.536, 2, 66.367, 5.5197, 9.68353, 44.2615, -64.8499, -55.1745, 5.9098, 38.3481, 22.0296, -12.2558, -90.0176, 2.17067
1.54, 2, 66.367, 5.5197, 9.68353, 44.2615, -64.8499, -55.1745, 5.9098, 38.3481, 22.0296, -12.2558, -90.0176, 2.17067
1.544, 2, 66.367, 5.5197, 9.68353, 44.2615, -64.8499, -55.1745, 5.9098, 38.3481, 22.0296, -12.2558, -90.0176, 2.17067
1.548, 2, 66.367, 5.5197, 9.68353, 44.2615, -64.8499, -55.1745, 5.9098, 38.3481, 22.0296, -12.2558, -90.0176, 2.17067
1.552, 2, 66.367, 5.5197, 9.68353, 44.2615, -64.8499, -55.1745, 5.9098, 38.3481, 22.0296, -12.2558, -90.0176, 2.17067
1.556, 2, 66.367, 5.5197, 9.68353, 44.2615, -64.8499, -55.1745, 5.9098, 38.3481, 22.0296, -12.2558, -90.0176, 2.17067
1.56, 2, 66.367, 5.5197, 9.68353, 44.2615, -64.8499, -55.1745, 5.9098, 38.3481, 22.0296, -12.2558, -90.0176, 2.17067
1.564, 2, 66.367, 5.5197, 9.68353, 44.2615, -64.8499, -55.1745, 5.9098, 38.3481, 22.0296, -12.2558, -90.0176, 2.17067
1.568, 2, 66.367, 5.5197, 9.68353, 44.2615, -64.8499, -55.1745, 5.9098, 38.3481, 22.0296, -12.2558, -90.0176, 2.17067
1.572, 2, 66.367, 5.5197, 9.68353, 44.2615, -64.8499, -55.1745, 5.9098, 38.3481, 22.0296, -12.2558, -90.0176, 2.17067
1.576, 2, 66.367, 5.5197, 9.68353, 44.2615, -64.8499, -55.1745, 5.9098, 38.3481, 22.0296, -12.2558, -90.0176, 2.17067
1.58, 2, 66.367, 5.5197, 9.68353, 44.2615, -64.8499, -55.1745, 5.9098, 38.3481, 22.0296, -12.2558, -90.0176, 2.17067
1.584, 2, 66.367, 5.5197, 9.68353, 44.2615, -64.8499, -55.1745, 5.9098, 38.3481, 22.0296, -12.2558, -90.0176, 2.17067
1.588, 2, 66.367, 5.5197, 9.68353, 44.2615, -64.8499, -55.1745, 5.9098, 38.3481, 22.0296, -12.2558, -90.0176, 2.17067
1.592, 2, 66.367, 5.5197, 9.68353, 44.2615, -64.8499, -55.1745, 5.9098, 38.3481, 22.0296, -12.2558, -90.0176, 2.17067
1.596, 2, 66.367, 5.5197, 9.68353, 44.2615, -64.8499, -55.1745, 5.9098, 38.3481, 22.0296, -12.2558, -90.0176, 2.17067
1.6, 2, 66.367, 5.5197, 9.68353, 44.2615, -64.8499, -55.1745, 5.9098, 38.3481, 22.0296, -12.2558, -90.0176, 2.17067
1.604, 2, 66.367, 5.5197, 9.68353, 44.2615, -64.8499, -55.1745, 5.9098, 38.3481, 22.0296, -12.2558, -90.0176, 2.17067
1.608, 2, 66.367, 5.5197, 9.68353, 44.2615, -64.8499, -55.1745, 5.9098, 38.3481, 22.0296, -12.2558, -90.0176, 2.17067
1.612, 2, 66.367, 5.5197, 9.68353, 44.2615, -64.8499, -55.1745, 5.9098, 38.3481, 22.0296, -12.2558, -90.0176, 2.17067
1.616, 2, 66.367, 5.5197, 9.68353, 44.2615, -64.8499, -55.1745, 5.9098, 38.3481, 22.0296, -12.2558, -90.0176, 2.17067
1.62, 2, 66.367, 5.5197, 9.68353, 44.2615, -64.8499, -55.1745, 5.9098, 38.3481, 22.0296, -12.2558, -90.0176, 2.17067
1.624, 2, 66.367, 5.5197, 9.68353, 44.2615, -64.8499, -55.1745, 5.9098, 38.3481, 22.0296, -12.2558, -90.0176, 2.17067
1.628, 2, 66.367, 5.5197, 9.68353, 44.2615, -64.8499, -55.1745, 5.9098, 38.3481, 22.0296, -12.2558, -90.0176, 2.17067
1.632, 2, 66.367, 5.5197, 9.68353, 44.2615, -64.8499, -55.1745, 5.9098, 38.3481, 22.0296, -12.2558, -90.0176, 2.17067
1.636, 2, 66.367, 5.5197, 9.68353, 44.2615, -64.8499, -55.1745, 5.9098, 38.3481, 22.0296, -12.2558, -90.0176, 2.17067
1.64, 2, 66.367, 5.5197, 9.68353, 44.2615, -64.8499, -55.1745, 5.9098, 38.3481, 22.0296, -12.2558, -90.0176, 2.17067
1.644, 2, 66.367, 5.5197, 9.68353, 44.2615, -64.8499, -55.1745, 5.9098, 38.3481, 22.0296, -12.2558, -90.0176, 2.17067
1.648, 2, 66.367, 5.5197, 9.68353, 44.2615, -64.8499, -55.1745, 5.9098, 38.3481, 22.0296, -12.2558, -90.0176, 2.17067
1.652, 2, 66.367, 5.5197, 9.68353, 44.2615, -64.8499, -55.1745, 5.9098, 38.3481, 22.0296, -12.2558, -90.0176, 2.17067
1.656, 2, 66.367, 5.5197, 9.68353, 44.2615, -64.8499, -55.1745, 5.9098, 38.3481, 22.0296, -12.2558, -90.0176, 2.17067
1.66, 2, 66.367, 5.5197, 9.68353, 44.2615, -64.8499, -55.1745, 5.9098, 38.3481, 22.0296, -12.2558, -90.0176, 2.17067
1.664, 2, 66.367, 5.5197, 9.68353, 44.2615, -64.8499, -55.1745, 5.9098, 38.3481, 22.0296, -12.2558, -90.0176, 2.17067
1.668, 2, 66.367, 5.5197, 9.68353, 44.2615, -64.8499, -55.1745, 5.9098, 38.3481, 22.0296, -12.2558, -90.0176, 2.17067
1.672, 2, 66.367, 5.5197, 9.68353, 44.2615, -64.8499, -55.1745, 5.9098, 38.3481, 22.0296, -12.2558, -90.0176, 2.17067
1.676, 2, 66.367, 5.5197, 9.68353, 44.2615, -64.8499, -55.1745, 5.9098, 38.3481, 22.0296, -12.2558, -90.0176, 2.17067
1.68, 2, 66.367, 5.5197, 9.68353, 44.2615, -64.8499, -55.1745, 5.9098, 38.3481, 22.0296, -12.2558, -90.0176, 2.17067
1.684, 2, 66.367, 5.5197, 9.68353, 44.2615, -64.8499, -55.1745, 5.9098, 38.3481, 22.0296, -12.2558, -90.0176, 2.17067
1.688, 2, 66.367, 5.5197, 9.68353, 44.2615, -64.8499, -55.1745, 5.9098, 38.3481, 22.0296, -12.2558, -90.0176, 2.17067
1.692, 2, 66.367, 5.5197, 9.68353, 44.2615, -64.8499, -55.1745, 5.9098, 38.3481, 22.0296, -12.2558, -90.0176, 2.17067
1.696, 2, 66.367, 5.5197, 9.68353, 44.2615, -64.8499, -55.1745, 5.9098, 38.3481, 22.0296, -12.2558, -90.0176, 2.17067
1.7, 2, 66.367, 5.5197, 9.68353, 44.2615, -64.8499, -55.1745, 5.9098, 38.3481, 22.0296, -12.2558, -90.0176, 2.17067
1.704, 2, 66.367, 5.5197, 9.68353, 44.2615, -64.8499, -55.1745, 5.9098, 38.3481, 22.0296, -12.2558, -90.0176, 2.17067
1.708, 2, 66.367, 5.5197, 9.68353, 44.2615, -64.8499, -55.1745, 5.9098, 38.3481, 22.0296, -12.2558, -90.0176, 2.17067
1.712, 2, 66.367, 5.5197, 9.68353, 44.2615, -64.8499, -55.1745, 5.9098, 38.3481, 22.0296, -12.2558, -90.0176, 2.17067
1.716, 2, 66.367, 5.5197, 9.68353, 44.2615, -64.8499, -55.1745, 5.9098, 38.3481, 22.0296, -12.2558, -90.0176, 2.17067
1.72, 2, 66.367, 5.5197, 9.68353, 44.2615, -64.8499, -55.1745, 5.9098, 38.3481, 22.0296, -12.2558, -90.0176, 2.17067
1.724, 2, 66.367, 5.5197, 9.68353, 44.2615, -64.8499, -55.1745, 5.9098, 38.3481, 22.0296, -12.2558, -90.0176, 2.17067
1.728, 2, 66.367, 5.5197, 9.68353, 44.2615, -64.8499, -55.1745, 5.9098, 38.3481, 22.0296, -12.2558, -90.0176, 2.17067
1.732, 2, 66.367, 5.5197, 9.68353, 44.2615, -64.8499, -55.1745, 5.9098, 38.3481, 22.0296, -12.2558, -90.0176, 2.17067
1.736, 2, 66.367, 5.5197, 9.68353, 44.2615, -64.8499, -55.1745, 5.9098, 38.3481, 22.0296, -12.2558, -90.0176, 2.17067
1.74, 2, 66.367, 5.5197, 9.68353, 44.2615, -64.8499, -55.1745, 5.9098, 38.3481, 22.0296, -12.2558, -90.0176, 2.17067
1.744, 2, 66.367, 5.5197, 9.68353, 44.2615, -64.8499, -55.1745, 5.9098, 38.3481, 22.0296, -12.2558, -90.0176, 2.17067
1.748, 2, 66.367, 5.5197, 9.68353, 44.2615, -64.8499, -55.1745, 5.9098, 38.3481, 22.0296, -12.2558, -90.0176, 2.17067
1.752, 2, 66.367, 5.5197, 9.68353, 44.2615, -64.8499, -55.1745, 5.9098, 38.3481, 22.0296, -12.2558, -90.0176, 2.17067
1.756, 2, 66.367, 5.5197, 9.68353, 44.2615, -64.8499, -55.1745, 5.9098, 38.3481, 22.0296, -12.2558, -90.0176, 2.17067
1.76, 2, 66.367, 5.5197, 9.68353, 44.2615, -64.8499, -55.1745, 5.9098, 38.3481, 22.0296, -12.2558, -90.0176, 2.17067
1.764, 2, 66.367, 5.5197, 9.68353, 44.2615, -64.8499, -55.1745, 5.9098, 38.3481, 22.0296, -12.2558, -90.0176, 2.17067
1.768, 2, 66.367, 5.5197, 9.68353, 44.2615, -64.8499, -55.1745, 5.9098, 38.3481, 22.0296, -12.2558, -90.0176, 2.17067
1.772, 2, 66.367, 5.5197, 9.68353, 44.2615, -64.8499, -55.1745, 5.9098, 38.3481, 22.0296, -12.2558, -90.0176, 2.17067
1.776, 2, 66.367, 5.5197, 9.68353, 44.2615, -64.8499, -55.1745, 5.9098, 38.3481, 22.0296, -12.2558, -90.0176, 2.17067
1.78, 2, 66.367, 5.5197, 9.68353, 44.2615, -64.8499, -55.1745, 5.9098, 38.3481, 22.0296, -12.2558, -90.0176, 2.17067
1.784, 2, 66.367, 5.5197, 9.68353, 44.2615, -64.8499, -55.1745, 5.9098, 38.3481, 22.0296, -12.2558, -90.0176, 2.17067
1.788, 2, 66.367, 5.5197, 9.68353, 44.2615, -64.8499, -55.1745, 5.9098, 38.3481, 22.0296, -12.2558, -90.0176, 2.17067
1.792, 2, 66.367, 5.5197, 9.68353, 44.2615, -64.8499, -55.1745, 5.9098, 38.3481, 22.0296, -12.2558, -90.0176, 2.17067
1.796, 2, 66.367, 5.5197, 9.68353, 44.2615, -64.8499, -55.1745, 5.9098, 38.3481, 22.0296, -12.2558, -90.0176, 2.17067
1.8, 2, 66.367, 5.5197, 9.68353, 44.2615, -64.8499, -55.1745, 5.9098, 38.3481, 22.0296, -12.2558, -90.0176, 2.17067
1.804, 2, 66.367, 5.5197, 9.68353, 44.2615, -64.8499, -55.1745, 5.9098, 38.3481, 22.0296, -12.2558, -90.0176, 2.17067
1.808, 2, 66.367, 5.5197, 9.68353, 44.2615, -64.8499, -55.1745, 5.9098, 38.3481, 22.0296, -12.2558, -90.0176, 2.17067
1.812, 2, 66.367, 5.5197, 9.68353, 44.2615, -64.8499, -55.1745, 5.9098, 38.3481, 22.0296, -12.2558, -90.0176, 2.17067
1.816, 2, 66.367, 5.5197, 9.68353, 44.2615, -64.8499, -55.1745, 5.9098, 38.3481, 22.0296, -12.2558, -90.0176, 2.17067
1.82, 2, 66.367, 5.5197, 9.68353, 44.2615, -64.8499, -55.1745, 5.9098, 38.3481, 22.0296, -12.2558, -90.0176, 2.17067
1.824, 2, 66.367, 5.5197, 9.68353, 44.2615, -64.8499, -55.1745, 5.9098, 38.3481, 22.0296, -12.2558, -90.0176, 2.17067
1.828, 2, 66.367, 5.5197, 9.68353, 44.2615, -64.8499, -55.1745, 5.9098, 38.3481, 22.0296, -12.2558, -90.0176, 2.17067
1.832, 2, 66.367, 5.5197, 9.68353, 44.2615, -64.8499, -55.1745, 5.9098, 38.3481, 22.0296, -12.2558, -90.0176, 2.17067
1.836, 2, 66.367, 5.5197, 9.68353, 44.2615, -64.8499, -55.1745, 5.9098, 38.3481, 22.0296, -12.2558, -90.0176, 2.17067
1.84, 2, 66.367, 5.5197, 9.68353, 44.2615, -64.8499, -55.1745, 5.9098, 38.3481, 22.0296, -12.2558, -90.0176, 2.17067
1.844, 2, 66.367, 5.5197, 9.68353, 44.2615, -64.8499, -55.1745, 5.9098, 38.3481, 22.0296, -12.2558, -90.0176, 2.17067
1.848, 2, 66.367, 5.5197, 9.68353, 44.2615, -64.8499, -55.1745, 5.9098, 38.3481, 22.0296, -12.2558, -90.0176, 2.17067
1.852, 2, 66.367, 5.5197, 9.68353, 44.2615, -64.8499, -55.1745, 5.9098, 38.3481, 22.0296, -12.2558, -90.0176, 2.17067
1.856, 2, 66.367, 5.5197, 9.68353, 44.2615, -64.8499, -55.1745, 5.9098, 38.3481, 22.0296, -12.2558, -90.0176, 2.17067
1.86, 2, 66.367, 5.5197, 9.68353, 44.2615, -64.8499, -55.1745, 5.9098, 38.3481, 22.0296, -12.2558, -90.0176, 2.17067
1.864, 2, 66.367, 5.5197, 9.68353, 44.2615, -64.8499, -55.1745, 5.9098, 38.3481, 22.0296, -12.2558, -90.0176, 2.17067
1.868, 2, 66.367, 5.5197, 9.68353, 44.2615, -64.8499, -55.1745, 5.9098, 38.3481, 22.0296, -12.2558, -90.0176, 2.17067
1.872, 2, 66.367, 5.5197, 9.68353, 44.2615, -64.8499, -55.1745, 5.9098, 38.3481, 22.0296, -12.2558, -90.0176, 2.17067
1.876, 2, 66.367, 5.5197, 9.68353, 44.2615, -64.8499, -55.1745, 5.9098, 38.3481, 22.0296, -12.2558, -90.0176, 2.17067
1.88, 2, 66.367, 5.5197, 9.68353, 44.2615, -64.8499, -55.1745, 5.9098, 38.3481, 22.0296, -12.2558, -90.0176, 2.17067
1.884, 2, 66.367, 5.5197, 9.68353, 44.2615, -64.8499, -55.1745, 5.9098, 38.3481, 22.0296, -12.2558, -90.0176, 2.17067
1.888, 2, 66.367, 5.5197, 9.68353, 44.2615, -64.8499, -55.1745, 5.9098, 38.3481, 22.0296, -12.2558, -90.0176, 2.17067
1.892, 2, 66.367, 5.5197, 9.68353, 44.2615, -64.8499, -55.1745, 5.9098, 38.3481, 22.0296, -12.2558, -90.0176, 2.17067
1.896, 2, 66.367, 5.5197, 9.68353, 44.2615, -64.8499, -55.1745, 5.9098, 38.3481, 22.0296, -12.2558, -90.0176, 2.17067
1.9, 2, 66.367, 5.5197, 9.68353, 44.2615, -64.8499, -55.1745, 5.9098, 38.3481, 22.0296, -12.2558, -90.0176, 2.17067
1.904, 2, 66.367, 5.5197, 9.68353, 44.2615, -64.8499, -55.1745, 5.9098, 38.3481, 22.0296, -12.2558, -90.0176, 2.17067
1.908, 2, 66.367, 5.5197, 9.68353, 44.2615, -64.8499, -55.1745, 5.9098, 38.3481, 22.0296, -12.2558, -90.0176, 2.17067
1.912, 2, 66.367, 5.5197, 9.68353, 44.2615, -64.8499, -55.1745, 5.9098, 38.3481, 22.0296, -12.2558, -90.0176, 2.17067
1.916, 2, 66.367, 5.5197, 9.68353, 44.2615, -64.8499, -55.1745, 5.9098, 38.3481, 22.0296, -12.2558, -90.0176, 2.17067
1.92, 2, 66.367, 5.5197, 9.68353, 44.2615, -64.8499, -55.1745, 5.9098, 38.3481, 22.0296, -12.2558, -90.0176, 2.17067
1.924, 2, 66.367, 5.5197, 9.68353, 44.2615, -64.8499, -55.1745, 5.9098, 38.3481, 22.0296, -12.2558, -90.0176, 2.17067
1.928, 2, 66.367, 5.5197, 9.68353, 44.2615, -64.8499, -55.1745, 5.9098, 38.3481, 22.0296, -12.2558, -90.0176, 2.17067
1.932, 2, 66.367, 5.5197, 9.68353, 44.2615, -64.8499, -55.1745, 5.9098, 38.3481, 22.0296, -12.2558, -90.0176, 2.17067
1.936, 2, 66.367, 5.5197, 9.68353, 44.2615, -64.8499, -55.1745, 5.9098, 38.3481, 22.0296, -12.2558, -90.0176, 2.17067
1.94, 2, 66.367, 5.5197, 9.68353, 44.2615, -64.8499, -55.1745, 5.9098, 38.3481, 22.0296, -12.2558, -90.0176, 2.17067
1.944, 2, 66.367, 5.5197, 9.68353, 44.2615, -64.8499, -55.1745, 5.9098, 38.3481, 22.0296, -12.2558, -90.0176, 2.17067
1.948, 2, 66.367, 5.5197, 9.68353, 44.2615, -64.8499, -55.1745, 5.9098, 38.3481, 22.0296, -12.2558, -90.0176, 2.17067
1.952, 2, 66.367, 5.5197, 9.68353, 44.2615, -64.8499, -55.1745, 5.9098, 38.3481, 22.0296, -12.2558, -90.0176, 2.17067
1.956, 2, 66.367, 5.5197, 9.68353, 44.2615, -64.8499, -55.1745, 5.9098, 38.3481, 22.0296, -12.2558, -90.0176, 2.17067
1.96, 2, 66.367, 5.5197, 9.68353, 44.2615, -64.8499, -55.1745, 5.9098, 38.3481, 22.0296, -12.2558, -90.0176, 2.17067
1.964, 2, 66.367, 5.5197, 9.68353, 44.2615, -64.8499, -55.1745, 5.9098, 38.3481, 22.0296, -12.2558, -90.0176, 2.17067
1.968, 2, 66.367, 5.5197, 9.68353, 44.2615, -64.8499, -55.1745, 5.9098, 38.3481, 22.0296, -12.2558, -90.0176, 2.17067
1.972, 2, 66.367, 5.5197, 9.68353, 44.2615, -64.8499, -55.1745, 5.9098, 38.3481, 22.0296, -12.2558, -90.0176, 2.17067
1.976, 2, 66.367, 5.5197, 9.68353, 44.2615, -64.8499, -55.1745, 5.9098, 38.3481, 22.0296, -12.2558, -90.0176, 2.17067
1.98, 2, 66.367, 5.5197, 9.68353, 44.2615, -64.8499, -55.1745, 5.9098, 38.3481, 22.0296, -12.2558, -90.0176, 2.17067
1.984, 2, 66.367, 5.5197, 9.68353, 44.2615, -64.8499, -55.1745, 5.9098, 38.3481, 22.0296, -12.2558, -90.0176, 2.17067
1.988, 2, 66.367, 5.5197, 9.68353, 44.2615, -64.8499, -55.1745, 5.9098, 38.3481, 22.0296, -12.2558, -90.0176, 2.17067
1.992, 2, 66.367, 5.5197, 9.68353, 44.2615, -64.8499, -55.1745, 5.9098, 38.3481, 22.0296, -12.2558, -90.0176, 2.17067
1.996, 2, 66.367, 5.5197, 9.68353, 44.2615, -64.8499, -55.1745, 5.9098, 38.3481, 22.0296, -12.2558, -90.0176, 2.17067
1.999, 2, 66.367, 5.5197, 9.68353, 44.2615, -64.8499, -55.1745, 5.9098, 38.3481, 22.0296, -12.2558, -90.0176, 2.17067
2.004, 2, 66.367, 5.5197, 9.68353, 44.2615, -64.8499, -55.1745, 5.9098, 38.3481, 22.0296, -12.2558, -90.0176, 2.17067
2.008, 2, 66.367, 5.5197, 9.68353, 44.2615, -64.8499, -55.1745, 5.9098, 38.3481, 22.0296, -12.2558, -90.0176, 2.17067
2.012, 2, 66.367, 5.5197, 9.68353, 44.2615, -64.8499, -55.1745, 5.9098, 38.3481, 22.0296, -12.2558, -90.0176, 2.17067
2.015, 2, 66.367, 5.5197, 9.68353, 44.2615, -64.8499, -55.1745, 5.9098, 38.3481, 22.0296, -12.2558, -90.0176, 2.17067
2.019, 2, 66.367, 5.5197, 9.68353, 44.2615, -64.8499, -55.1745, 5.9098, 38.3481, 22.0296, -12.2558, -90.0176, 2.17067
2.024, 2, 66.367, 5.5197, 9.68353, 44.2615, -64.8499, -55.1745, 5.9098, 38.3481, 22.0296, -12.2558, -90.0176, 2.17067
2.028, 2, 66.367, 5.5197, 9.68353, 44.2615, -64.8499, -55.1745, 5.9098, 38.3481, 22.0296, -12.2558, -90.0176, 2.17067
2.031, 2, 66.367, 5.5197, 9.68353, 44.2615, -64.8499, -55.1745, 5.9098, 38.3481, 22.0296, -12.2558, -90.0176, 2.17067
2.036, 2, 66.367, 5.5197, 9.68353, 44.2615, -64.8499, -55.1745, 5.9098, 38.3481, 22.0296, -12.2558, -90.0176, 2.17067
2.04, 2, 66.367, 5.5197, 9.68353, 44.2615, -64.8499, -55.1745, 5.9098, 38.3481, 22.0296, -12.2558, -90.0176, 2.17067
2.044, 2, 66.367, 5.5197, 9.68353, 44.2615, -64.8499, -55.1745, 5.9098, 38.3481, 22.0296, -12.2558, -90.0176, 2.17067
2.048, 2, 66.367, 5.5197, 9.68353, 44.2615, -64.8499, -55.1745, 5.9098, 38.3481, 22.0296, -12.2558, -90.0176, 2.17067
2.051, 2, 66.367, 5.5197, 9.68353, 44.2615, -64.8499, -55.1745, 5.9098, 38.3481, 22.0296, -12.2558, -90.0176, 2.17067
2.055, 2, 66.367, 5.5197, 9.68353, 44.2615, -64.8499, -55.1745, 5.9098, 38.3481, 22.0296, -12.2558, -90.0176, 2.17067
2.06, 2, 66.367, 5.5197, 9.68353, 44.2615, -64.8499, -55.1745, 5.9098, 38.3481, 22.0296, -12.2558, -90.0176, 2.17067
2.064, 2, 66.367, 5.5197, 9.68353, 44.2615, -64.8499, -55.1745, 5.9098, 38.3481, 22.0296, -12.2558, -90.0176, 2.17067
2.068, 2, 66.367, 5.5197, 9.68353, 44.2615, -64.8499, -55.1745, 5.9098, 38.3481, 22.0296, -12.2558, -90.0176, 2.17067
2.071, 2, 66.367, 5.5197, 9.68353, 44.2615, -64.8499, -55.1745, 5.9098, 38.3481, 22.0296, -12.2558, -90.0176, 2.17067
2.076, 2, 66.367, 5.5197, 9.68353, 44.2615, -64.8499, -55.1745, 5.9098, 38.3481, 22.0296, -12.2558, -90.0176, 2.17067
2.08, 2, 66.367, 5.5197, 9.68353, 44.2615, -64.8499, -55.1745, 5.9098, 38.3481, 22.0296, -12.2558, -90.0176, 2.17067
2.084, 2, 66.367, 5.5197, 9.68353, 44.2615, -64.8499, -55.1745, 5.9098, 38.3481, 22.0296, -12.2558, -90.0176, 2.17067
2.087, 2, 66.367, 5.5197, 9.68353, 44.2615, -64.8499, -55.1745, 5.9098, 38.3481, 22.0296, -12.2558, -90.0176, 2.17067
2.092, 2, 66.367, 5.5197, 9.68353, 44.2615, -64.8499, -55.1745, 5.9098, 38.3481, 22.0296, -12.2558, -90.0176, 2.17067
2.096, 2, 66.367, 5.5197, 9.68353, 44.2615, -64.8499, -55.1745, 5.9098, 38.3481, 22.0296, -12.2558, -90.0176, 2.17067
2.1, 2, 66.367, 5.5197, 9.68353, 44.2615, -64.8499, -55.1745, 5.9098, 38.3481, 22.0296, -12.2558, -90.0176, 2.17067
2.104, 2, 66.367, 5.5197, 9.68353, 44.2615, -64.8499, -55.1745, 5.9098, 38.3481, 22.0296, -12.2558, -90.0176, 2.17067
2.107, 2, 66.367, 5.5197, 9.68353, 44.2615, -64.8499, -55.1745, 5.9098, 38.3481, 22.0296, -12.2558, -90.0176, 2.17067
2.111, 2, 66.367, 5.5197, 9.68353, 44.2615, -64.8499, -55.1745, 5.9098, 38.3481, 22.0296, -12.2558, -90.0176, 2.17067
2.116, 2, 66.367, 5.5197, 9.68353, 44.2615, -64.8499, -55.1745, 5.9098, 38.3481, 22.0296, -12.2558, -90.0176, 2.17067
2.12, 2, 66.367, 5.5197, 9.68353, 44.2615, -64.8499, -55.1745, 5.9098, 38.3481, 22.0296, -12.2558, -90.0176, 2.17067
2.124, 2, 66.367, 5.5197, 9.68353, 44.2615, -64.8499, -55.1745, 5.9098, 38.3481, 22.0296, -12.2558, -90.0176, 2.17067
2.127, 2, 66.367, 5.5197, 9.68353, 44.2615, -64.8499, -55.1745, 5.9098, 38.3481, 22.0296, -12.2558, -90.0176, 2.17067
2.132, 2, 66.367, 5.5197, 9.68353, 44.2615, -64.8499, -55.1745, 5.9098, 38.3481, 22.0296, -12.2558, -90.0176, 2.17067
2.136, 2, 66.367, 5.5197, 9.68353, 44.2615, -64.8499, -55.1745, 5.9098, 38.3481, 22.0296, -12.2558, -90.0176, 2.17067
2.14, 2, 66.367, 5.5197, 9.68353, 44.2615, -64.8499, -55.1745, 5.9098, 38.3481, 22.0296, -12.2558, -90.0176, 2.17067
2.143, 2, 66.367, 5.5197, 9.68353, 44.2615, -64.8499, -55.1745, 5.9098, 38.3481, 22.0296, -12.2558, -90.0176, 2.17067
2.148, 2, 66.367, 5.5197, 9.68353, 44.2615, -64.8499, -55.1745, 5.9098, 38.3481, 22.0296, -12.2558, -90.0176, 2.17067
2.152, 2, 66.367, 5.5197, 9.68353, 44.2615, -64.8499, -55.1745, 5.9098, 38.3481, 22.0296, -12.2558, -90.0176, 2.17067
2.156, 2, 66.367, 5.5197, 9.68353, 44.2615, -64.8499, -55.1745, 5.9098, 38.3481, 22.0296, -12.2558, -90.0176, 2.17067
2.16, 2, 66.367, 5.5197, 9.68353, 44.2615, -64.8499, -55.1745, 5.9098, 38.3481, 22.0296, -12.2558, -90.0176, 2.17067
2.163, 2, 66.367, 5.5197, 9.68353, 44.2615, -64.8499, -55.1745, 5.9098, 38.3481, 22.0296, -12.2558, -90.0176, 2.17067
2.168, 2, 66.367, 5.5197, 9.68353, 44.2615, -64.8499, -55.1745, 5.9098, 38.3481, 22.0296, -12.2558, -90.0176, 2.17067
2.172, 2, 66.367, 5.5197, 9.68353, 44.2615, -64.8499, -55.1745, 5.9098, 38.3481, 22.0296, -12.2558, -90.0176, 2.17067
2.176, 2, 66.367, 5.5197, 9.68353, 44.2615, -64.8499, -55.1745, 5.9098, 38.3481, 22.0296, -12.2558, -90.0176, 2.17067
2.179, 2, 66.367, 5.5197, 9.68353, 44.2615, -64.8499, -55.1745, 5.9098, 38.3481, 22.0296, -12.2558, -90.0176, 2.17067
2.184, 2, 66.367, 5.5197, 9.68353, 44.2615, -64.8499, -55.1745, 5.9098, 38.3481, 22.0296, -12.2558, -90.0176, 2.17067
2.188, 2, 66.367, 5.5197, 9.68353, 44.2615, -64.8499, -55.1745, 5.9098, 38.3481, 22.0296, -12.2558, -90.0176, 2.17067
2.192, 2, 66.367, 5.5197, 9.68353, 44.2615, -64.8499, -55.1745, 5.9098, 38.3481, 22.0296, -12.2558, -90.0176, 2.17067
2.196, 2, 66.367, 5.5197, 9.68353, 44.2615, -64.8499, -55.1745, 5.9098, 38.3481, 22.0296, -12.2558, -90.0176, 2.17067
2.199, 2, 66.367, 5.5197, 9.68353, 44.2615, -64.8499, -55.1745, 5.9098, 38.3481, 22.0296, -12.2558, -90.0176, 2.17067
2.204, 2, 66.367, 5.5197, 9.68353, 44.2615, -64.8499, -55.1745, 5.9098, 38.3481, 22.0296, -12.2558, -90.0176, 2.17067
2.208, 2, 66.367, 5.5197, 9.68353, 44.2615, -64.8499, -55.1745, 5.9098, 38.3481, 22.0296, -12.2558, -90.0176, 2.17067
2.212, 2, 66.367, 5.5197, 9.68353, 44.2615, -64.8499, -55.1745, 5.9098, 38.3481, 22.0296, -12.2558, -90.0176, 2.17067
2.216, 2, 66.367, 5.5197, 9.68353, 44.2615, -64.8499, -55.1745, 5.9098, 38.3481, 22.0296, -12.2558, -90.0176, 2.17067
2.219, 2, 66.367, 5.5197, 9.68353, 44.2615, -64.8499, -55.1745, 5.9098, 38.3481, 22.0296, -12.2558, -90.0176, 2.17067
2.224, 2, 66.367, 5.5197, 9.68353, 44.2615, -64.8499, -55.1745, 5.9098, 38.3481, 22.0296, -12.2558, -90.0176, 2.17067
2.228, 2, 66.367, 5.5197, 9.68353, 44.2615, -64.8499, -55.1745, 5.9098, 38.3481, 22.0296, -12.2558, -90.0176, 2.17067
2.232, 2, 66.367, 5.5197, 9.68353, 44.2615, -64.8499, -55.1745, 5.9098, 38.3481, 22.0296, -12.2558, -90.0176, 2.17067
2.235, 2, 66.367, 5.5197, 9.68353, 44.2615, -64.8499, -55.1745, 5.9098, 38.3481, 22.0296, -12.2558, -90.0176, 2.17067
2.24, 2, 66.367, 5.5197, 9.68353, 44.2615, -64.8499, -55.1745, 5.9098, 38.3481, 22.0296, -12.2558, -90.0176, 2.17067
2.244, 2, 66.367, 5.5197, 9.68353, 44.2615, -64.8499, -55.1745, 5.9098, 38.3481, 22.0296, -12.2558, -90.0176, 2.17067
2.248, 2, 66.367, 5.5197, 9.68353, 44.2615, -64.8499, -55.1745, 5.9098, 38.3481, 22.0296, -12.2558, -90.0176, 2.17067
2.252, 2, 66.367, 5.5197, 9.68353, 44.2615, -64.8499, -55.1745, 5.9098, 38.3481, 22.0296, -12.2558, -90.0176, 2.17067
2.255, 2, 66.367, 5.5197, 9.68353, 44.2615, -64.8499, -55.1745, 5.9098, 38.3481, 22.0296, -12.2558, -90.0176, 2.17067
2.259, 2, 66.367, 5.5197, 9.68353, 44.2615, -64.8499, -55.1745, 5.9098, 38.3481, 22.0296, -12.2558, -90.0176, 2.17067
2.264, 2, 66.367, 5.5197, 9.68353, 44.2615, -64.8499, -55.1745, 5.9098, 38.3481, 22.0296, -12.2558, -90.0176, 2.17067
2.268, 2, 66.367, 5.5197, 9.68353, 44.2615, -64.8499, -55.1745, 5.9098, 38.3481, 22.0296, -12.2558, -90.0176, 2.17067
2.272, 2, 66.367, 5.5197, 9.68353, 44.2615, -64.8499, -55.1745, 5.9098, 38.3481, 22.0296, -12.2558, -90.0176, 2.17067
2.275, 2, 66.367, 5.5197, 9.68353, 44.2615, -64.8499, -55.1745, 5.9098, 38.3481, 22.0296, -12.2558, -90.0176, 2.17067
2.28, 2, 66.367, 5.5197, 9.68353, 44.2615, -64.8499, -55.1745, 5.9098, 38.3481, 22.0296, -12.2558, -90.0176, 2.17067
2.284, 2, 66.367, 5.5197, 9.68353, 44.2615, -64.8499, -55.1745, 5.9098, 38.3481, 22.0296, -12.2558, -90.0176, 2.17067
2.288, 2, 66.367, 5.5197, 9.68353, 44.2615, -64.8499, -55.1745, 5.9098, 38.3481, 22.0296, -12.2558, -90.0176, 2.17067
2.291, 2, 66.367, 5.5197, 9.68353, 44.2615, -64.8499, -55.1745, 5.9098, 38.3481, 22.0296, -12.2558, -90.0176, 2.17067
2.296, 2, 66.367, 5.5197, 9.68353, 44.2615, -64.8499, -55.1745, 5.9098, 38.3481, 22.0296, -12.2558, -90.0176, 2.17067
2.3, 2, 66.367, 5.5197, 9.68353, 44.2615, -64.8499, -55.1745, 5.9098, 38.3481, 22.0296, -12.2558, -90.0176, 2.17067
2.304, 2, 66.367, 5.5197, 9.68353, 44.2615, -64.8499, -55.1745, 5.9098, 38.3481, 22.0296, -12.2558, -90.0176, 2.17067
2.308, 2, 66.367, 5.5197, 9.68353, 44.2615, -64.8499, -55.1745, 5.9098, 38.3481, 22.0296, -12.2558, -90.0176, 2.17067
2.311, 2, 66.367, 5.5197, 9.68353, 44.2615, -64.8499, -55.1745, 5.9098, 38.3481, 22.0296, -12.2558, -90.0176, 2.17067
2.316, 2, 66.367, 5.5197, 9.68353, 44.2615, -64.8499, -55.1745, 5.9098, 38.3481, 22.0296, -12.2558, -90.0176, 2.17067
2.32, 2, 66.367, 5.5197, 9.68353, 44.2615, -64.8499, -55.1745, 5.9098, 38.3481, 22.0296, -12.2558, -90.0176, 2.17067
2.324, 2, 66.367, 5.5197, 9.68353, 44.2615, -64.8499, -55.1745, 5.9098, 38.3481, 22.0296, -12.2558, -90.0176, 2.17067
2.328, 2, 66.367, 5.5197, 9.68353, 44.2615, -64.8499, -55.1745, 5.9098, 38.3481, 22.0296, -12.2558, -90.0176, 2.17067
2.331, 2, 66.367, 5.5197, 9.68353, 44.2615, -64.8499, -55.1745, 5.9098, 38.3481, 22.0296, -12.2558, -90.0176, 2.17067
2.336, 2, 66.367, 5.5197, 9.68353, 44.2615, -64.8499, -55.1745, 5.9098, 38.3481, 22.0296, -12.2558, -90.0176, 2.17067
2.34, 2, 66.367, 5.5197, 9.68353, 44.2615, -64.8499, -55.1745, 5.9098, 38.3481, 22.0296, -12.2558, -90.0176, 2.17067
2.344, 2, 66.367, 5.5197, 9.68353, 44.2615, -64.8499, -55.1745, 5.9098, 38.3481, 22.0296, -12.2558, -90.0176, 2.17067
2.347, 2, 66.367, 5.5197, 9.68353, 44.2615, -64.8499, -55.1745, 5.9098, 38.3481, 22.0296, -12.2558, -90.0176, 2.17067
2.352, 2, 66.367, 5.5197, 9.68353, 44.2615, -64.8499, -55.1745, 5.9098, 38.3481, 22.0296, -12.2558, -90.0176, 2.17067
2.356, 2, 66.367, 5.5197, 9.68353, 44.2615, -64.8499, -55.1745, 5.9098, 38.3481, 22.0296, -12.2558, -90.0176, 2.17067
2.36, 2, 66.367, 5.5197, 9.68353, 44.2615, -64.8499, -55.1745, 5.9098, 38.3481, 22.0296, -12.2558, -90.0176, 2.17067
2.364, 2, 66.367, 5.5197, 9.68353, 44.2615, -64.8499, -55.1745, 5.9098, 38.3481, 22.0296, -12.2558, -90.0176, 2.17067
2.367, 2, 66.367, 5.5197, 9.68353, 44.2615, -64.8499, -55.1745, 5.9098, 38.3481, 22.0296, -12.2558, -90.0176, 2.17067
2.372, 2, 66.367, 5.5197, 9.68353, 44.2615, -64.8499, -55.1745, 5.9098, 38.3481, 22.0296, -12.2558, -90.0176, 2.17067
2.376, 2, 66.367, 5.5197, 9.68353, 44.2615, -64.8499, -55.1745, 5.9098, 38.3481, 22.0296, -12.2558, -90.0176, 2.17067
2.38, 2, 66.367, 5.5197, 9.68353, 44.2615, -64.8499, -55.1745, 5.9098, 38.3481, 22.0296, -12.2558, -90.0176, 2.17067
2.383, 2, 66.367, 5.5197, 9.68353, 44.2615, -64.8499, -55.1745, 5.9098, 38.3481, 22.0296, -12.2558, -90.0176, 2.17067
2.388, 2, 66.367, 5.5197, 9.68353, 44.2615, -64.8499, -55.1745, 5.9098, 38.3481, 22.0296, -12.2558, -90.0176, 2.17067
2.392, 2, 66.367, 5.5197, 9.68353, 44.2615, -64.8499, -55.1745, 5.9098, 38.3481, 22.0296, -12.2558, -90.0176, 2.17067
2.396, 2, 66.367, 5.5197, 9.68353, 44.2615, -64.8499, -55.1745, 5.9098, 38.3481, 22.0296, -12.2558, -90.0176, 2.17067
2.4, 2, 66.367, 5.5197, 9.68353, 44.2615, -64.8499, -55.1745, 5.9098, 38.3481, 22.0296, -12.2558, -90.0176, 2.17067
2.403, 2, 66.367, 5.5197, 9.68353, 44.2615, -64.8499, -55.1745, 5.9098, 38.3481, 22.0296, -12.2558, -90.0176, 2.17067
2.408, 2, 66.367, 5.5197, 9.68353, 44.2615, -64.8499, -55.1745, 5.9098, 38.3481, 22.0296, -12.2558, -90.0176, 2.17067
2.412, 2, 66.367, 5.5197, 9.68353, 44.2615, -64.8499, -55.1745, 5.9098, 38.3481, 22.0296, -12.2558, -90.0176, 2.17067
2.416, 2, 66.367, 5.5197, 9.68353, 44.2615, -64.8499, -55.1745, 5.9098, 38.3481, 22.0296, -12.2558, -90.0176, 2.17067
2.42, 2, 66.367, 5.5197, 9.68353, 44.2615, -64.8499, -55.1745, 5.9098, 38.3481, 22.0296, -12.2558, -90.0176, 2.17067
2.423, 2, 66.367, 5.5197, 9.68353, 44.2615, -64.8499, -55.1745, 5.9098, 38.3481, 22.0296, -12.2558, -90.0176, 2.17067
2.428, 2, 66.367, 5.5197, 9.68353, 44.2615, -64.8499, -55.1745, 5.9098, 38.3481, 22.0296, -12.2558, -90.0176, 2.17067
2.432, 2, 66.367, 5.5197, 9.68353, 44.2615, -64.8499, -55.1745, 5.9098, 38.3481, 22.0296, -12.2558, -90.0176, 2.17067
2.436, 2, 66.367, 5.5197, 9.68353, 44.2615, -64.8499, -55.1745, 5.9098, 38.3481, 22.0296, -12.2558, -90.0176, 2.17067
2.439, 2, 66.367, 5.5197, 9.68353, 44.2615, -64.8499, -55.1745, 5.9098, 38.3481, 22.0296, -12.2558, -90.0176, 2.17067
2.444, 2, 66.367, 5.5197, 9.68353, 44.2615, -64.8499, -55.1745, 5.9098, 38.3481, 22.0296, -12.2558, -90.0176, 2.17067
2.448, 2, 66.367, 5.5197, 9.68353, 44.2615, -64.8499, -55.1745, 5.9098, 38.3481, 22.0296, -12.2558, -90.0176, 2.17067
2.452, 2, 66.367, 5.5197, 9.68353, 44.2615, -64.8499, -55.1745, 5.9098, 38.3481, 22.0296, -12.2558, -90.0176, 2.17067
2.456, 2, 66.367, 5.5197, 9.68353, 44.2615, -64.8499, -55.1745, 5.9098, 38.3481, 22.0296, -12.2558, -90.0176, 2.17067
2.459, 2, 66.367, 5.5197, 9.68353, 44.2615, -64.8499, -55.1745, 5.9098, 38.3481, 22.0296, -12.2558, -90.0176, 2.17067
2.464, 2, 66.367, 5.5197, 9.68353, 44.2615, -64.8499, -55.1745, 5.9098, 38.3481, 22.0296, -12.2558, -90.0176, 2.17067
2.468, 2, 66.367, 5.5197, 9.68353, 44.2615, -64.8499, -55.1745, 5.9098, 38.3481, 22.0296, -12.2558, -90.0176, 2.17067
2.472, 2, 66.367, 5.5197, 9.68353, 44.2615, -64.8499, -55.1745, 5.9098, 38.3481, 22.0296, -12.2558, -90.0176, 2.17067
2.476, 2, 66.367, 5.5197, 9.68353, 44.2615, -64.8499, -55.1745, 5.9098, 38.3481, 22.0296, -12.2558, -90.0176, 2.17067
2.479, 2, 66.367, 5.5197, 9.68353, 44.2615, -64.8499, -55.1745, 5.9098, 38.3481, 22.0296, -12.2558, -90.0176, 2.17067
2.484, 2, 66.367, 5.5197, 9.68353, 44.2615, -64.8499, -55.1745, 5.9098, 38.3481, 22.0296, -12.2558, -90.0176, 2.17067
2.488, 2, 66.367, 5.5197, 9.68353, 44.2615, -64.8499, -55.1745, 5.9098, 38.3481, 22.0296, -12.2558, -90.0176, 2.17067
2.492, 2, 66.367, 5.5197, 9.68353, 44.2615, -64.8499, -55.1745, 5.9098, 38.3481, 22.0296, -12.2558, -90.0176, 2.17067
2.495, 4, 66.367, 5.5197, 9.68353, 44.2615, -64.8499, -55.1745, 5.9098, 38.3481, 22.0296, -12.2558, -90.0176, 2.17067
2.5, 4, 66.367, 5.5197, 9.68353, 44.2615, -64.8499, -55.1745, 5.9098, 38.3481, 22.0296, -12.2558, -90.0176, 2.17067
2.504, 4, 66.367, 5.5197, 9.68353, 44.2615, -64.8499, -55.1745, 5.9098, 38.3481, 22.0296, -12.2558, -90.0176, 2.17067
2.508, 4, 66.367, 5.5197, 9.68353, 44.2615, -64.8499, -55.1745, 5.9098, 38.3481, 22.0296, -12.2558, -90.0176, 2.17067
2.512, 4, 66.367, 5.5197, 9.68353, 44.2615, -64.8499, -55.1745, 5.9098, 38.3481, 22.0296, -12.2558, -90.0176, 2.17067
2.515, 4, 66.367, 5.5197, 9.68353, 44.2615, -64.8499, -55.1745, 5.9098, 38.3481, 22.0296, -12.2558, -90.0176, 2.17067
2.52, 4, 66.367, 5.5197, 9.68353, 44.2615, -64.8499, -55.1745, 5.9098, 38.3481, 22.0296, -12.2558, -90.0176, 2.17067
2.524, 4, 66.367, 5.5197, 9.68353, 44.2615, -64.8499, -55.1745, 5.9098, 38.3481, 22.0296, -12.2558, -90.0176, 2.17067
2.528, 4, 66.367, 5.5197, 9.68353, 44.2615, -64.8499, -55.1745, 5.9098, 38.3481, 22.0296, -12.2558, -90.0176, 2.17067
2.531, 4, 66.367, 5.5197, 9.68353, 44.2615, -64.8499, -55.1745, 5.9098, 38.3481, 22.0296, -12.2558, -90.0176, 2.17067
2.536, 4, 66.367, 5.5197, 9.68353, 44.2615, -64.8499, -55.1745, 5.9098, 38.3481, 22.0296, -12.2558, -90.0176, 2.17067
2.54, 4, 66.367, 5.5197, 9.68353, 44.2615, -64.8499, -55.1745, 5.9098, 38.3481, 22.0296, -12.2558, -90.0176, 2.17067
2.544, 4, 66.367, 5.5197, 9.68353, 44.2615, -64.8499, -55.1745, 5.9098, 38.3481, 22.0296, -12.2558, -90.0176, 2.17067
2.548, 4, 66.367, 5.5197, 9.68353, 44.2615, -64.8499, -55.1745, 5.9098, 38.3481, 22.0296, -12.2558, -90.0176, 2.17067
2.551, 4, 66.367, 5.5197, 9.68353, 44.2615, -64.8499, -55.1745, 5.9098, 38.3481, 22.0296, -12.2558, -90.0176, 2.17067
2.556, 4, 66.367, 5.5197, 9.68353, 44.2615, -64.8499, -55.1745, 5.9098, 38.3481, 22.0296, -12.2558, -90.0176, 2.17067
2.56, 4, 66.367, 5.5197, 9.68353, 44.2615, -64.8499, -55.1745, 5.9098, 38.3481, 22.0296, -12.2558, -90.0176, 2.17067
2.564, 4, 66.367, 5.5197, 9.68353, 44.2615, -64.8499, -55.1745, 5.9098, 38.3481, 22.0296, -12.2558, -90.0176, 2.17067
2.568, 4, 66.367, 5.5197, 9.68353, 44.2615, -64.8499, -55.1745, 5.9098, 38.3481, 22.0296, -12.2558, -90.0176, 2.17067
2.571, 4, 66.367, 5.5197, 9.68353, 44.2615, -64.8499, -55.1745, 5.9098, 38.3481, 22.0296, -12.2558, -90.0176, 2.17067
2.576, 4, 66.367, 5.5197, 9.68353, 44.2615, -64.8499, -55.1745, 5.9098, 38.3481, 22.0296, -12.2558, -90.0176, 2.17067
2.58, 4, 66.367, 5.5197, 9.68353, 44.2615, -64.8499, -55.1745, 5.9098, 38.3481, 22.0296, -12.2558, -90.0176, 2.17067
2.584, 4, 66.367, 5.5197, 9.68353, 44.2615, -64.8499, -55.1745, 5.9098, 38.3481, 22.0296, -12.2558, -90.0176, 2.17067
2.587, 4, 66.367, 5.5197, 9.68353, 44.2615, -64.8499, -55.1745, 5.9098, 38.3481, 22.0296, -12.2558, -90.0176, 2.17067
2.592, 4, 66.367, 5.5197, 9.68353, 44.2615, -64.8499, -55.1745, 5.9098, 38.3481, 22.0296, -12.2558, -90.0176, 2.17067
2.596, 4, 66.367, 5.5197, 9.68353, 44.2615, -64.8499, -55.1745, 5.9098, 38.3481, 22.0296, -12.2558, -90.0176, 2.17067
2.6, 4, 66.367, 5.5197, 9.68353, 44.2615, -64.8499, -55.1745, 5.9098, 38.3481, 22.0296, -12.2558, -90.0176, 2.17067
2.604, 4, 66.367, 5.5197, 9.68353, 44.2615, -64.8499, -55.1745, 5.9098, 38.3481, 22.0296, -12.2558, -90.0176, 2.17067
2.607, 4, 66.367, 5.5197, 9.68353, 44.2615, -64.8499, -55.1745, 5.9098, 38.3481, 22.0296, -12.2558, -90.0176, 2.17067
2.612, 4, 66.367, 5.5197, 9.68353, 44.2615, -64.8499, -55.1745, 5.9098, 38.3481, 22.0296, -12.2558, -90.0176, 2.17067
2.616, 4, 66.367, 5.5197, 9.68353, 44.2615, -64.8499, -55.1745, 5.9098, 38.3481, 22.0296, -12.2558, -90.0176, 2.17067
2.62, 4, 66.367, 5.5197, 9.68353, 44.2615, -64.8499, -55.1745, 5.9098, 38.3481, 22.0296, -12.2558, -90.0176, 2.17067
2.624, 4, 66.367, 5.5197, 9.68353, 44.2615, -64.8499, -55.1745, 5.9098, 38.3481, 22.0296, -12.2558, -90.0176, 2.17067
2.627, 4, 66.367, 5.5197, 9.68353, 44.2615, -64.8499, -55.1745, 5.9098, 38.3481, 22.0296, -12.2558, -90.0176, 2.17067
2.632, 4, 66.367, 5.5197, 9.68353, 44.2615, -64.8499, -55.1745, 5.9098, 38.3481, 22.0296, -12.2558, -90.0176, 2.17067
2.636, 4, 66.367, 5.5197, 9.68353, 44.2615, -64.8499, -55.1745, 5.9098, 38.3481, 22.0296, -12.2558, -90.0176, 2.17067
2.64, 4, 66.367, 5.5197, 9.68353, 44.2615, -64.8499, -55.1745, 5.90976, 38.3481, 22.0296, -12.2558, -90.0176, 2.17067
2.643, 4, 66.367, 5.5197, 9.68353, 44.2615, -64.8499, -55.1745, 5.90957, 38.3477, 22.0295, -12.2558, -90.0177, 2.17067
2.648, 4, 66.367, 5.5197, 9.68353, 44.2615, -64.8499, -55.1745, 5.90908, 38.3467, 22.0294, -12.2558, -90.0177, 2.17066
2.652, 4, 66.3671, 5.51972, 9.68353, 44.2615, -64.8499, -55.1745, 5.90825, 38.3448, 22.0292, -12.2558, -90.0178, 2.17064
2.656, 4, 66.3672, 5.51983, 9.68357, 44.2615, -64.8499, -55.1745, 5.90714, 38.3423, 22.0289, -12.2557, -90.0179, 2.17059
2.66, 4, 66.3675, 5.52017, 9.68369, 44.2615, -64.8498, -55.1745, 5.90588, 38.3393, 22.0285, -12.2555, -90.0181, 2.17048
2.663, 4, 66.3683, 5.52086, 9.68399, 44.2616, -64.8496, -55.1744, 5.90453, 38.3359, 22.028, -12.2552, -90.0184, 2.1703
2.668, 4, 66.3694, 5.52191, 9.68454, 44.2617, -64.8492, -55.1743, 5.90318, 38.3324, 22.0273, -12.2548, -90.0187, 2.17003
2.672, 4, 66.371, 5.52332, 9.68547, 44.2619, -64.8485, -55.1741, 5.90194, 38.3289, 22.0266, -12.2541, -90.019, 2.16963
2.676, 4, 66.373, 5.52511, 9.6869, 44.2623, -64.8474, -55.1737, 5.90083, 38.3255, 22.0258, -12.2533, -90.0195, 2.16909
2.679, 4, 66.3755, 5.52722, 9.68896, 44.2628, -64.8457, -55.1731, 5.89974, 38.3218, 22.0249, -12.2523, -90.0201, 2.16842
2.687, 4, 66.3814, 5.53194, 9.6951, 44.2647, -64.8405, -55.1711, 5.89709, 38.313, 22.0224, -12.2495, -90.0215, 2.16662
2.688, 4, 66.3814, 5.53194, 9.6951, 44.2647, -64.8405, -55.1711, 5.89709, 38.313, 22.0224, -12.2495, -90.0215, 2.16662
2.692, 4, 66.3848, 5.53451, 9.69917, 44.266, -64.837, -55.1698, 5.89555, 38.3077, 22.0209, -12.2477, -90.0224, 2.1655
2.696, 4, 66.3885, 5.5374, 9.70384, 44.2675, -64.8329, -55.1683, 5.89406, 38.3023, 22.0193, -12.2458, -90.0233, 2.16424
2.699, 5, 66.3928, 5.54064, 9.70899, 44.2692, -64.8285, -55.1665, 5.89269, 38.297, 22.0176, -12.2436, -90.0243, 2.16284
2.704, 5, 66.3974, 5.54424, 9.71448, 44.2709, -64.8237, -55.1647, 5.89143, 38.2917, 22.0158, -12.2413, -90.0255, 2.16133
2.708, 5, 66.4025, 5.54818, 9.72022, 44.2727, -64.8188, -55.1628, 5.89015, 38.2862, 22.0139, -12.2388, -90.0266, 2.15972
2.712, 5, 66.4078, 5.55247, 9.7261, 44.2746, -64.8137, -55.1609, 5.88877, 38.2803, 22.0118, -12.2362, -90.0278, 2.15804
2.716, 5, 66.4135, 5.55699, 9.73206, 44.2764, -64.8086, -55.159, 5.88722, 38.274, 22.0097, -12.2335, -90.0291, 2.15631
2.719, 5, 66.4192, 5.56162, 9.73804, 44.2782, -64.8034, -55.1571, 5.88539, 38.2669, 22.0075, -12.2308, -90.0304, 2.15455
2.724, 5, 66.4249, 5.56627, 9.74401, 44.2801, -64.7982, -55.1552, 5.8832, 38.259, 22.0051, -12.228, -90.0318, 2.15278
2.728, 5, 66.4307, 5.57094, 9.74997, 44.2819, -64.7931, -55.1533, 5.88074, 38.2505, 22.0027, -12.2253, -90.0332, 2.151
2.732, 5, 66.4364, 5.57561, 9.75593, 44.2838, -64.7879, -55.1513, 5.87814, 38.2418, 22.0002, -12.2225, -90.0346, 2.14922
2.735, 5, 66.4421, 5.58028, 9.76187, 44.2856, -64.7827, -55.1494, 5.87551, 38.233, 21.9978, -12.2198, -90.036, 2.14745
2.74, 5, 66.4479, 5.58496, 9.76781, 44.2875, -64.7776, -55.1475, 5.87289, 38.2242, 21.9953, -12.217, -90.0373, 2.14567
2.744, 5, 66.4536, 5.58965, 9.77374, 44.2893, -64.7724, -55.1456, 5.87026, 38.2154, 21.9928, -12.2142, -90.0387, 2.1439
2.748, 5, 66.4593, 5.59434, 9.77965, 44.2911, -64.7672, -55.1436, 5.86763, 38.2066, 21.9904, -12.2115, -90.0401, 2.14212
2.752, 5, 66.465, 5.59904, 9.78556, 44.293, -64.762, -55.1417, 5.86501, 38.1978, 21.9879, -12.2087, -90.0415, 2.14035
2.755, 5, 66.4707, 5.60374, 9.79145, 44.2948, -64.7568, -55.1398, 5.86238, 38.189, 21.9854, -12.206, -90.0429, 2.13858
2.76, 5, 66.4764, 5.60846, 9.79734, 44.2966, -64.7516, -55.1378, 5.85975, 38.1802, 21.9829, -12.2032, -90.0443, 2.1368
2.764, 5, 66.4821, 5.61317, 9.80322, 44.2985, -64.7463, -55.1359, 5.85713, 38.1714, 21.9804, -12.2004, -90.0456, 2.13503
2.768, 5, 66.4878, 5.6179, 9.80908, 44.3003, -64.7411, -55.134, 5.8545, 38.1626, 21.9779, -12.1977, -90.047, 2.13326
2.772, 5, 66.4935, 5.62262, 9.81494, 44.3021, -64.7359, -55.132, 5.85187, 38.1538, 21.9754, -12.1949, -90.0484, 2.13149
2.775, 5, 66.4992, 5.62736, 9.82079, 44.304, -64.7307, -55.1301, 5.84924, 38.145, 21.9729, -12.1922, -90.0497, 2.12972
2.78, 5, 66.5049, 5.6321, 9.82663, 44.3058, -64.7254, -55.1282, 5.84662, 38.1363, 21.9703, -12.1894, -90.0511, 2.12795
2.784, 5, 66.5106, 5.63685, 9.83246, 44.3076, -64.7202, -55.1262, 5.84399, 38.1275, 21.9678, -12.1866, -90.0525, 2.12618
2.788, 5, 66.5163, 5.6416, 9.83827, 44.3094, -64.7149, -55.1243, 5.84136, 38.1187, 21.9653, -12.1839, -90.0538, 2.12441
2.791, 5, 66.522, 5.64636, 9.84408, 44.3113, -64.7097, -55.1224, 5.83874, 38.1099, 21.9627, -12.1811, -90.0552, 2.12264
2.796, 5, 66.5276, 5.65113, 9.84988, 44.3131, -64.7044, -55.1204, 5.83611, 38.1012, 21.9602, -12.1783, -90.0565, 2.12088
2.8, 5, 66.5333, 5.6559, 9.85567, 44.3149, -64.6992, -55.1185, 5.83348, 38.0924, 21.9576, -12.1756, -90.0579, 2.11911
2.804, 5, 66.539, 5.66067, 9.86145, 44.3167, -64.6939, -55.1166, 5.83085, 38.0837, 21.9551, -12.1728, -90.0592, 2.11734
2.808, 5, 66.5446, 5.66546, 9.86722, 44.3185, -64.6886, -55.1146, 5.82823, 38.0749, 21.9525, -12.1701, -90.0606, 2.11558
2.811, 5, 66.5503, 5.67025, 9.87298, 44.3204, -64.6833, -55.1127, 5.8256, 38.0662, 21.9499, -12.1673, -90.0619, 2.11381
2.816, 5, 66.556, 5.67504, 9.87873, 44.3222, -64.678, -55.1107, 5.82297, 38.0574, 21.9474, -12.1645, -90.0633, 2.11205
2.82, 5, 66.5616, 5.67984, 9.88447, 44.324, -64.6727, -55.1088, 5.82035, 38.0487, 21.9448, -12.1618, -90.0646, 2.11028
2.824, 5, 66.5673, 5.68465, 9.8902, 44.3258, -64.6674, -55.1069, 5.81772, 38.0399, 21.9422, -12.159, -90.066, 2.10852
2.828, 5, 66.5729, 5.68947, 9.89592, 44.3276, -64.6621, -55.1049, 5.81509, 38.0312, 21.9396, -12.1563, -90.0673, 2.10676
2.831, 5, 66.5786, 5.69428, 9.90164, 44.3294, -64.6568, -55.103, 5.81246, 38.0224, 21.937, -12.1535, -90.0686, 2.10499
2.836, 5, 66.5842, 5.69911, 9.90734, 44.3312, -64.6515, -55.101, 5.80984, 38.0137, 21.9344, -12.1507, -90.07, 2.10323
2.84, 5, 66.5898, 5.70394, 9.91303, 44.3331, -64.6462, -55.0991, 5.80721, 38.005, 21.9318, -12.148, -90.0713, 2.10147
2.844, 5, 66.5955, 5.70878, 9.91871, 44.3349, -64.6409, -55.0971, 5.80458, 37.9962, 21.9292, -12.1452, -90.0726, 2.09971
2.847, 5, 66.6011, 5.71362, 9.92438, 44.3367, -64.6356, -55.0952, 5.80196, 37.9875, 21.9266, -12.1425, -90.0739, 2.09795
2.852, 5, 66.6067, 5.71847, 9.93005, 44.3385, -64.6302, -55.0932, 5.79933, 37.9788, 21.924, -12.1397, -90.0753, 2.09619
2.856, 5, 66.6123, 5.72333, 9.9357, 44.3403, -64.6249, -55.0913, 5.7967, 37.9701, 21.9213, -12.1369, -90.0766, 2.09443
2.86, 5, 66.618, 5.72819, 9.94134, 44.3421, -64.6195, -55.0893, 5.79407, 37.9614, 21.9187, -12.1342, -90.0779, 2.09267
2.864, 5, 66.6236, 5.73306, 9.94698, 44.3439, -64.6142, -55.0874, 5.79145, 37.9527, 21.9161, -12.1314, -90.0792, 2.09091
2.867, 5, 66.6292, 5.73793, 9.9526, 44.3457, -64.6088, -55.0854, 5.78882, 37.9439, 21.9134, -12.1287, -90.0805, 2.08916
2.872, 5, 66.6348, 5.74281, 9.95821, 44.3475, -64.6034, -55.0835, 5.78619, 37.9352, 21.9108, -12.1259, -90.0818, 2.0874
2.876, 5, 66.6404, 5.7477, 9.96382, 44.3493, -64.5981, -55.0815, 5.78356, 37.9265, 21.9081, -12.1231, -90.0832, 2.08564
2.88, 5, 66.646, 5.75259, 9.96941, 44.3511, -64.5927, -55.0796, 5.78094, 37.9178, 21.9055, -12.1204, -90.0845, 2.08389
2.883, 5, 66.6516, 5.75749, 9.975, 44.3529, -64.5873, -55.0776, 5.77831, 37.9091, 21.9028, -12.1176, -90.0858, 2.08213
2.888, 5, 66.6572, 5.76239, 9.98057, 44.3547, -64.5819, -55.0757, 5.77568, 37.9004, 21.9001, -12.1149, -90.0871, 2.08038
2.892, 5, 66.6627, 5.7673, 9.98614, 44.3565, -64.5765, -55.0737, 5.77305, 37.8917, 21.8974, -12.1121, -90.0884, 2.07862
2.896, 5, 66.6683, 5.77221, 9.9917, 44.3583, -64.5711, -55.0718, 5.77043, 37.8831, 21.8948, -12.1093, -90.0897, 2.07687
2.9, 5, 66.6739, 5.77714, 9.99724, 44.3601, -64.5657, -55.0698, 5.7678, 37.8744, 21.8921, -12.1066, -90.091, 2.07512
2.903, 5, 66.6795, 5.78206, 10.0028, 44.3619, -64.5603, -55.0678, 5.76517, 37.8657, 21.8894, -12.1038, -90.0923, 2.07336
2.908, 5, 66.6851, 5.787, 10.0083, 44.3637, -64.5549, -55.0659, 5.76255, 37.857, 21.8867, -12.1011, -90.0936, 2.07161
2.912, 5, 66.6906, 5.79194, 10.0138, 44.3654, -64.5495, -55.0639, 5.75992, 37.8483, 21.884, -12.0983, -90.0948, 2.06986
2.916, 5, 66.6962, 5.79688, 10.0193, 44.3672, -64.5441, -55.062, 5.75729, 37.8397, 21.8813, -12.0955, -90.0961, 2.06811
2.92, 5, 66.7018, 5.80183, 10.0248, 44.369, -64.5387, -55.06, 5.75466, 37.831, 21.8786, -12.0928, -90.0974, 2.06636
2.923, 5, 66.7073, 5.80679, 10.0303, 44.3708, -64.5332, -55.058, 5.75204, 37.8223, 21.8758, -12.09, -90.0987, 2.06461
2.928, 5, 66.7129, 5.81176, 10.0358, 44.3726, -64.5278, -55.0561, 5.74941, 37.8137, 21.8731, -12.0873, -90.1, 2.06286
2.932, 5, 66.7184, 5.81673, 10.0413, 44.3744, -64.5223, -55.0541, 5.74678, 37.805, 21.8704, -12.0845, -90.1013, 2.06111
2.936, 5, 66.724, 5.8217, 10.0467, 44.3761, -64.5169, -55.0521, 5.74415, 37.7963, 21.8676, -12.0817, -90.1025, 2.05936
2.939, 5, 66.7295, 5.82668, 10.0522, 44.3779, -64.5114, -55.0502, 5.74153, 37.7877, 21.8649, -12.079, -90.1038, 2.05761
2.944, 5, 66.735, 5.83167, 10.0576, 44.3797, -64.506, -55.0482, 5.7389, 37.779, 21.8622, -12.0762, -90.1051, 2.05587
2.948, 5, 66.7406, 5.83666, 10.063, 44.3815, -64.5005, -55.0462, 5.73627, 37.7704, 21.8594, -12.0735, -90.1063, 2.05412
2.952, 5, 66.7461, 5.84166, 10.0685, 44.3833, -64.495, -55.0443, 5.73364, 37.7617, 21.8566, -12.0707, -90.1076, 2.05237
2.956, 5, 66.7516, 5.84667, 10.0739, 44.385, -64.4895, -55.0423, 5.73102, 37.7531, 21.8539, -12.0679, -90.1089, 2.05063
2.959, 5, 66.7571, 5.85168, 10.0793, 44.3868, -64.484, -55.0403, 5.72839, 37.7445, 21.8511, -12.0652, -90.1101, 2.04888
2.964, 5, 66.7627, 5.8567, 10.0847, 44.3886, -64.4786, -55.0384, 5.72576, 37.7358, 21.8483, -12.0624, -90.1114, 2.04714
2.968, 5, 66.7682, 5.86172, 10.09, 44.3904, -64.4731, -55.0364, 5.72313, 37.7272, 21.8456, -12.0597, -90.1126, 2.04539
2.972, 5, 66.7737, 5.86675, 10.0954, 44.3921, -64.4676, -55.0344, 5.72051, 37.7186, 21.8428, -12.0569, -90.1139, 2.04365
2.976, 5, 66.7792, 5.87179, 10.1008, 44.3939, -64.4621, -55.0325, 5.71788, 37.7099, 21.84, -12.0542, -90.1152, 2.04191
2.98, 5, 66.7847, 5.87683, 10.1061, 44.3957, -64.4565, -55.0305, 5.71525, 37.7013, 21.8372, -12.0514, -90.1164, 2.04016
2.984, 5, 66.7902, 5.88188, 10.1115, 44.3974, -64.451, -55.0285, 5.71262, 37.6927, 21.8344, -12.0486, -90.1177, 2.03842
2.988, 5, 66.7957, 5.88693, 10.1168, 44.3992, -64.4455, -55.0265, 5.71, 37.6841, 21.8316, -12.0459, -90.1189, 2.03668
2.992, 5, 66.8012, 5.89199, 10.1221, 44.401, -64.44, -55.0246, 5.70737, 37.6755, 21.8288, -12.0431, -90.1201, 2.03494
2.995, 5, 66.8067, 5.89705, 10.1274, 44.4027, -64.4344, -55.0226, 5.70474, 37.6669, 21.8259, -12.0404, -90.1214, 2.0332
3, 5, 66.8122, 5.90213, 10.1327, 44.4045, -64.4289, -55.0206, 5.70211, 37.6583, 21.8231, -12.0376, -90.1226, 2.03146
3.004, 5, 66.8177, 5.9072, 10.138, 44.4062, -64.4233, -55.0186, 5.69949, 37.6496, 21.8203, -12.0348, -90.1239, 2.02972
3.008, 5, 66.8231, 5.91229, 10.1433, 44.408, -64.4178, -55.0167, 5.69686, 37.641, 21.8174, -12.0321, -90.1251, 2.02798
3.012, 5, 66.8286, 5.91738, 10.1486, 44.4098, -64.4122, -55.0147, 5.69423, 37.6324, 21.8146, -12.0293, -90.1263, 2.02624
3.015, 5, 66.8341, 5.92247, 10.1538, 44.4115, -64.4067, -55.0127, 5.6916, 37.6239, 21.8118, -12.0266, -90.1276, 2.02451
3.02, 5, 66.8396, 5.92757, 10.1591, 44.4133, -64.4011, -55.0107, 5.68898, 37.6153, 21.8089, -12.0238, -90.1288, 2.02277
3.024, 5, 66.845, 5.93268, 10.1643, 44.415, -64.3955, -55.0087, 5.68635, 37.6067, 21.806, -12.021, -90.13, 2.02103
3.028, 5, 66.8505, 5.93779, 10.1696, 44.4168, -64.3899, -55.0068, 5.68372, 37.5981, 21.8032, -12.0183, -90.1312, 2.0193
3.031, 5, 66.8559, 5.94291, 10.1748, 44.4185, -64.3844, -55.0048, 5.68109, 37.5895, 21.8003, -12.0155, -90.1325, 2.01756
3.036, 5, 66.8614, 5.94804, 10.18, 44.4203, -64.3788, -55.0028, 5.67847, 37.5809, 21.7974, -12.0128, -90.1337, 2.01582
3.04, 5, 66.8668, 5.95317, 10.1852, 44.422, -64.3732, -55.0008, 5.67584, 37.5723, 21.7946, -12.01, -90.1349, 2.01409
3.044, 5, 66.8723, 5.95831, 10.1904, 44.4238, -64.3676, -54.9988, 5.67321, 37.5638, 21.7917, -12.0072, -90.1361, 2.01236
3.048, 5, 66.8777, 5.96345, 10.1956, 44.4255, -64.362, -54.9968, 5.67058, 37.5552, 21.7888, -12.0045, -90.1373, 2.01062
3.051, 5, 66.8832, 5.9686, 10.2008, 44.4273, -64.3564, -54.9948, 5.66795, 37.5466, 21.7859, -12.0017, -90.1385, 2.00889
3.056, 5, 66.8886, 5.97375, 10.2059, 44.429, -64.3507, -54.9929, 5.66533, 37.5381, 21.783, -11.999, -90.1397, 2.00716
3.06, 5, 66.894, 5.97892, 10.2111, 44.4308, -64.3451, -54.9909, 5.6627, 37.5295, 21.7801, -11.9962, -90.1409, 2.00542
3.064, 5, 66.8995, 5.98408, 10.2163, 44.4325, -64.3395, -54.9889, 5.66007, 37.521, 21.7772, -11.9935, -90.1421, 2.00369
3.068, 5, 66.9049, 5.98926, 10.2214, 44.4342, -64.3338, -54.9869, 5.65744, 37.5124, 21.7742, -11.9907, -90.1433, 2.00196
3.071, 5, 66.9103, 5.99443, 10.2265, 44.436, -64.3282, -54.9849, 5.65482, 37.5039, 21.7713, -11.9879, -90.1445, 2.00023
3.076, 5, 66.9157, 5.99962, 10.2316, 44.4377, -64.3226, -54.9829, 5.65219, 37.4953, 21.7684, -11.9852, -90.1457, 1.9985
3.08, 5, 66.9211, 6.00481, 10.2367, 44.4395, -64.3169, -54.9809, 5.64956, 37.4868, 21.7654, -11.9824, -90.1469, 1.99677
3.084, 5, 66.9265, 6.01001, 10.2418, 44.4412, -64.3112, -54.9789, 5.64693, 37.4782, 21.7625, -11.9797, -90.1481, 1.99504
3.087, 5, 66.9319, 6.01521, 10.2469, 44.4429, -64.3056, -54.9769, 5.64431, 37.4697, 21.7596, -11.9769, -90.1493, 1.99332
3.092, 5, 66.9373, 6.02042, 10.252, 44.4447, -64.2999, -54.9749, 5.64168, 37.4611, 21.7566, -11.9741, -90.1505, 1.99159
3.096, 5, 66.9427, 6.02564, 10.2571, 44.4464, -64.2942, -54.9729, 5.63905, 37.4526, 21.7536, -11.9714, -90.1517, 1.98986
3.1, 5, 66.9481, 6.03086, 10.2621, 44.4481, -64.2886, -54.9709, 5.63642, 37.4441, 21.7507, -11.9686, -90.1529, 1.98813
3.104, 5, 66.9535, 6.03608, 10.2672, 44.4498, -64.2829, -54.9689, 5.63379, 37.4356, 21.7477, -11.9659, -90.154, 1.98641
3.107, 5, 66.9589, 6.04132, 10.2722, 44.4516, -64.2772, -54.967, 5.63117, 37.427, 21.7447, -11.9631, -90.1552, 1.98468
3.112, 5, 66.9643, 6.04656, 10.2773, 44.4533, -64.2715, -54.965, 5.62854, 37.4185, 21.7418, -11.9604, -90.1564, 1.98296
3.116, 5, 66.9697, 6.0518, 10.2823, 44.455, -64.2658, -54.963, 5.62591, 37.41, 21.7388, -11.9576, -90.1576, 1.98123
3.12, 5, 66.975, 6.05705, 10.2873, 44.4567, -64.2601, -54.961, 5.62328, 37.4015, 21.7358, -11.9548, -90.1587, 1.97951
3.124, 5, 66.9804, 6.06231, 10.2923, 44.4585, -64.2544, -54.959, 5.62066, 37.393, 21.7328, -11.9521, -90.1599, 1.97778
3.128, 5, 66.9858, 6.06757, 10.2973, 44.4602, -64.2486, -54.957, 5.61803, 37.3845, 21.7298, -11.9493, -90.1611, 1.97606
3.132, 5, 66.9911, 6.07284, 10.3023, 44.4619, -64.2429, -54.955, 5.6154, 37.376, 21.7268, -11.9466, -90.1622, 1.97434
3.136, 5, 66.9965, 6.07811, 10.3072, 44.4636, -64.2372, -54.9529, 5.61277, 37.3675, 21.7238, -11.9438, -90.1634, 1.97261
3.14, 5, 67.0018, 6.0834, 10.3122, 44.4653, -64.2315, -54.951, 5.61015, 37.359, 21.7207, -11.941, -90.1646, 1.97089
3.143, 5, 67.0072, 6.08868, 10.3171, 44.467, -64.2257, -54.9489, 5.60752, 37.3505, 21.7177, -11.9383, -90.1657, 1.96917
3.148, 5, 67.0125, 6.09398, 10.3221, 44.4688, -64.22, -54.9469, 5.60489, 37.342, 21.7147, -11.9355, -90.1669, 1.96745
3.152, 5, 67.0179, 6.09928, 10.327, 44.4705, -64.2142, -54.9449, 5.60226, 37.3335, 21.7116, -11.9328, -90.168, 1.96573
3.156, 5, 67.0232, 6.10458, 10.3319, 44.4722, -64.2085, -54.9429, 5.59963, 37.325, 21.7086, -11.93, -90.1692, 1.96401
3.16, 5, 67.0286, 6.10989, 10.3369, 44.4739, -64.2027, -54.9409, 5.59701, 37.3165, 21.7056, -11.9273, -90.1703, 1.96229
3.163, 5, 67.0339, 6.11521, 10.3418, 44.4756, -64.1969, -54.9389, 5.59438, 37.3081, 21.7025, -11.9245, -90.1715, 1.96057
3.168, 5, 67.0392, 6.12053, 10.3466, 44.4773, -64.1912, -54.9369, 5.59175, 37.2996, 21.6994, -11.9217, -90.1726, 1.95885
3.172, 5, 67.0445, 6.12586, 10.3515, 44.479, -64.1854, -54.9349, 5.58912, 37.2911, 21.6964, -11.919, -90.1738, 1.95714
3.176, 5, 67.0499, 6.13119, 10.3564, 44.4807, -64.1796, -54.9329, 5.58649, 37.2826, 21.6933, -11.9162, -90.1749, 1.95542
3.179, 5, 67.0552, 6.13653, 10.3613, 44.4824, -64.1738, -54.9309, 5.58387, 37.2742, 21.6902, -11.9135, -90.176, 1.9537
3.184, 5, 67.0605, 6.14188, 10.3661, 44.4841, -64.168, -54.9289, 5.58124, 37.2657, 21.6872, -11.9107, -90.1772, 1.95199
3.188, 5, 67.0658, 6.14723, 10.371, 44.4858, -64.1622, -54.9268, 5.57861, 37.2573, 21.6841, -11.908, -90.1783, 1.95027
3.192, 5, 67.0711, 6.15259, 10.3758, 44.4875, -64.1564, -54.9248, 5.57598, 37.2488, 21.681, -11.9052, -90.1794, 1.94856
3.196, 5, 67.0764, 6.15796, 10.3806, 44.4892, -64.1506, -54.9228, 5.57336, 37.2404, 21.6779, -11.9024, -90.1805, 1.94684
3.199, 5, 67.0817, 6.16333, 10.3854, 44.4909, -64.1448, -54.9208, 5.57073, 37.2319, 21.6748, -11.8997, -90.1817, 1.94513
3.204, 5, 67.087, 6.16871, 10.3902, 44.4926, -64.1389, -54.9188, 5.5681, 37.2235, 21.6717, -11.8969, -90.1828, 1.94341
3.208, 5, 67.0923, 6.17409, 10.395, 44.4943, -64.1331, -54.9168, 5.56547, 37.215, 21.6686, -11.8942, -90.1839, 1.9417
3.212, 5, 67.0976, 6.17948, 10.3998, 44.496, -64.1273, -54.9148, 5.5628, 37.2066, 21.6654, -11.8914, -90.185, 1.93999
3.216, 5, 67.1029, 6.18487, 10.4046, 44.4977, -64.1214, -54.9127, 5.56007, 37.1982, 21.6623, -11.8886, -90.1862, 1.93827
3.22, 5, 67.1082, 6.19027, 10.4094, 44.4994, -64.1156, -54.9107, 5.55723, 37.19, 21.6591, -11.8859, -90.1873, 1.93655
3.224, 5, 67.1135, 6.19568, 10.4141, 44.501, -64.1097, -54.9087, 5.55425, 37.1818, 21.6559, -11.8831, -90.1884, 1.93481
3.228, 5, 67.1188, 6.20107, 10.4188, 44.5027, -64.1039, -54.9067, 5.55109, 37.1739, 21.6526, -11.8802, -90.1894, 1.93304
3.232, 5, 67.1243, 6.20645, 10.4235, 44.5044, -64.098, -54.9046, 5.54773, 37.1662, 21.6493, -11.8773, -90.1905, 1.93121
3.235, 5, 67.1299, 6.21178, 10.4282, 44.506, -64.092, -54.9026, 5.54421, 37.1589, 21.6458, -11.8742, -90.1915, 1.9293
3.24, 5, 67.1358, 6.21706, 10.4328, 44.5075, -64.0861, -54.9004, 5.5406, 37.152, 21.6423, -11.8709, -90.1925, 1.92726
3.244, 6, 67.1421, 6.22223, 10.4373, 44.5089, -64.08, -54.8982, 5.53699, 37.1452, 21.6386, -11.8674, -90.1934, 1.92504
3.248, 6, 67.1488, 6.22727, 10.4417, 44.5101, -64.0738, -54.8958, 5.53342, 37.1385, 21.6347, -11.8636, -90.1942, 1.92262
3.252, 6, 67.1559, 6.23215, 10.446, 44.5111, -64.0674, -54.8932, 5.52991, 37.1319, 21.6308, -11.8594, -90.195, 1.91995
3.255, 6, 67.1634, 6.23688, 10.4502, 44.5117, -64.0608, -54.8903, 5.52648, 37.1254, 21.6266, -11.8548, -90.1957, 1.91701
3.26, 6, 67.1714, 6.24147, 10.4542, 44.512, -64.0539, -54.8871, 5.5231, 37.1189, 21.6222, -11.8498, -90.1963, 1.91377
3.264, 6, 67.1798, 6.24589, 10.458, 44.5118, -64.0467, -54.8835, 5.51974, 37.1124, 21.6177, -11.8444, -90.1968, 1.91024
3.268, 6, 67.1886, 6.25018, 10.4617, 44.5112, -64.0392, -54.8795, 5.5164, 37.1059, 21.6129, -11.8385, -90.1972, 1.9064
3.272, 6, 67.1978, 6.25434, 10.4652, 44.5101, -64.0314, -54.8752, 5.51307, 37.0997, 21.608, -11.8322, -90.1974, 1.90227
3.276, 6, 67.2074, 6.25839, 10.4686, 44.5087, -64.0234, -54.8705, 5.5098, 37.0935, 21.6029, -11.8255, -90.1976, 1.89786
3.28, 6, 67.2175, 6.26229, 10.4719, 44.507, -64.0152, -54.8656, 5.50661, 37.0874, 21.5976, -11.8184, -90.1978, 1.8932
3.284, 6, 67.2279, 6.26606, 10.4749, 44.5051, -64.0069, -54.8605, 5.50349, 37.0813, 21.5921, -11.811, -90.1978, 1.88832
