hehonglu123/Motion-Primitive-Planning/simulation/robotstudio_sim/multimove/wood/greedy_dual_output/curve_exe_v400_z1.csv
timestamp, cmd_num, J1, J2, J3, J4, J5, J6, J1_2, J2_2, J3_2, J4_2, J5_2, J6_2
0.002, -1, 74.095, 11.8286, 22.7205, 50.9074, -59.9036, -57.1238, 1.56292, 17.3371, 29.5786, -18.3679, -98.6421, 5.74773
0.006, -1, 74.095, 11.8286, 22.7205, 50.9074, -59.9036, -57.1238, 1.56292, 17.3371, 29.5786, -18.3679, -98.6421, 5.74773
0.01, -1, 74.095, 11.8286, 22.7205, 50.9074, -59.9036, -57.1238, 1.56292, 17.3371, 29.5786, -18.3679, -98.6421, 5.74773
0.011, -1, 74.095, 11.8286, 22.7205, 50.9074, -59.9036, -57.1238, 1.56292, 17.3371, 29.5786, -18.3679, -98.6421, 5.74773
0.013, -1, 74.095, 11.8286, 22.7205, 50.9074, -59.9036, -57.1238, 1.56292, 17.3371, 29.5786, -18.3679, -98.6421, 5.74773
0.016, -1, 74.095, 11.8286, 22.7205, 50.9074, -59.9036, -57.1238, 1.56292, 17.3371, 29.5786, -18.3679, -98.6421, 5.74773
0.02, -1, 74.095, 11.8286, 22.7205, 50.9074, -59.9036, -57.1238, 1.56292, 17.3371, 29.5786, -18.3679, -98.6421, 5.74773
0.024, -1, 74.095, 11.8286, 22.7205, 50.9074, -59.9036, -57.1238, 1.56292, 17.3371, 29.5786, -18.3679, -98.6421, 5.74773
0.028, -1, 74.095, 11.8286, 22.7205, 50.9074, -59.9036, -57.1238, 1.56292, 17.3371, 29.5786, -18.3679, -98.6421, 5.74773
0.032, -1, 74.095, 11.8286, 22.7205, 50.9074, -59.9036, -57.1238, 1.56292, 17.3371, 29.5786, -18.3679, -98.6421, 5.74773
0.036, -1, 74.095, 11.8286, 22.7205, 50.9074, -59.9036, -57.1238, 1.56292, 17.3371, 29.5786, -18.3679, -98.6421, 5.74773
0.04, -1, 74.095, 11.8286, 22.7205, 50.9074, -59.9036, -57.1238, 1.56292, 17.3371, 29.5786, -18.3679, -98.6421, 5.74773
0.044, -1, 74.095, 11.8286, 22.7205, 50.9074, -59.9036, -57.1238, 1.56294, 17.3372, 29.5786, -18.3679, -98.6421, 5.74773
0.048, -1, 74.095, 11.8286, 22.7205, 50.9074, -59.9036, -57.1238, 1.56306, 17.3375, 29.5786, -18.3679, -98.6421, 5.74773
0.052, -1, 74.095, 11.8286, 22.7205, 50.9074, -59.9036, -57.1238, 1.56339, 17.3384, 29.5785, -18.3679, -98.642, 5.74772
0.056, -1, 74.095, 11.8286, 22.7205, 50.9074, -59.9036, -57.1238, 1.56401, 17.3405, 29.5784, -18.3679, -98.6419, 5.7477
0.06, -1, 74.0949, 11.8285, 22.7204, 50.9074, -59.9036, -57.1238, 1.56494, 17.3442, 29.5783, -18.3678, -98.6416, 5.74763
0.064, -1, 74.0947, 11.8283, 22.7203, 50.9073, -59.9036, -57.1238, 1.56617, 17.35, 29.5779, -18.3676, -98.6411, 5.74749
0.068, -1, 74.0941, 11.8278, 22.7199, 50.9072, -59.9038, -57.1238, 1.56768, 17.3583, 29.5772, -18.3671, -98.6402, 5.74723
0.072, -1, 74.0931, 11.8269, 22.719, 50.907, -59.9041, -57.1237, 1.56946, 17.369, 29.5762, -18.3664, -98.6388, 5.74678
0.076, -1, 74.0914, 11.8253, 22.7175, 50.9064, -59.9046, -57.1236, 1.57148, 17.382, 29.5745, -18.3652, -98.6367, 5.74606
0.08, -1, 74.089, 11.8231, 22.7149, 50.9054, -59.9056, -57.1233, 1.57375, 17.3972, 29.5721, -18.3634, -98.6338, 5.745
0.084, -1, 74.0854, 11.82, 22.7108, 50.9037, -59.9071, -57.1228, 1.57638, 17.4147, 29.5689, -18.3609, -98.6299, 5.74351
0.088, -1, 74.0808, 11.816, 22.7049, 50.901, -59.9093, -57.122, 1.57953, 17.4347, 29.5645, -18.3574, -98.6247, 5.7415
0.092, -1, 74.0749, 11.8109, 22.6966, 50.8971, -59.9123, -57.1209, 1.58331, 17.4572, 29.5589, -18.353, -98.6181, 5.73889
0.096, -1, 74.0676, 11.8048, 22.6856, 50.8918, -59.9165, -57.1194, 1.58781, 17.4826, 29.5519, -18.3474, -98.6099, 5.7356
0.1, -1, 74.0587, 11.7974, 22.6716, 50.8848, -59.9218, -57.1173, 1.5931, 17.5108, 29.5433, -18.3405, -98.6, 5.73157
0.104, -1, 74.0482, 11.7888, 22.6544, 50.8761, -59.9283, -57.1148, 1.59919, 17.5416, 29.5331, -18.3323, -98.5882, 5.72674
0.108, -1, 74.036, 11.7788, 22.6337, 50.8655, -59.9361, -57.1117, 1.60611, 17.575, 29.5212, -18.3226, -98.5746, 5.72109
0.112, -1, 74.0221, 11.7674, 22.6097, 50.8532, -59.9453, -57.108, 1.61385, 17.6109, 29.5076, -18.3116, -98.5591, 5.71462
0.116, -1, 74.0065, 11.7548, 22.5825, 50.8391, -59.9556, -57.1039, 1.62241, 17.6494, 29.4924, -18.2991, -98.5417, 5.70734
0.12, -1, 73.9893, 11.7409, 22.5522, 50.8235, -59.9671, -57.0993, 1.63172, 17.6906, 29.4756, -18.2854, -98.5226, 5.69932
0.124, -1, 73.9707, 11.7259, 22.5193, 50.8064, -59.9797, -57.0943, 1.64175, 17.7344, 29.4573, -18.2705, -98.502, 5.6906
0.128, -1, 73.9508, 11.7098, 22.484, 50.7881, -59.9931, -57.0889, 1.65241, 17.7809, 29.4378, -18.2545, -98.4798, 5.68128
0.131, -1, 73.9297, 11.6929, 22.4469, 50.7689, -60.0072, -57.0833, 1.66363, 17.83, 29.4172, -18.2377, -98.4564, 5.67144
0.136, -1, 73.9078, 11.6752, 22.4083, 50.7489, -60.0219, -57.0774, 1.67528, 17.8816, 29.3957, -18.2201, -98.432, 5.66116
0.139, -1, 73.885, 11.6567, 22.3685, 50.7284, -60.0371, -57.0714, 1.68725, 17.9355, 29.3734, -18.2019, -98.4067, 5.65054
0.144, -1, 73.8615, 11.6377, 22.328, 50.7075, -60.0525, -57.0652, 1.69945, 17.9918, 29.3505, -18.1833, -98.3807, 5.63963
0.148, -1, 73.8376, 11.6183, 22.2869, 50.6865, -60.0681, -57.059, 1.71186, 18.0504, 29.3272, -18.1643, -98.3542, 5.62853
0.152, -1, 73.8133, 11.5985, 22.2455, 50.6653, -60.0838, -57.0528, 1.72451, 18.1113, 29.3035, -18.1451, -98.3273, 5.61728
0.156, -1, 73.7888, 11.5785, 22.204, 50.6441, -60.0996, -57.0466, 1.73741, 18.1743, 29.2797, -18.1257, -98.3001, 5.60595
0.16, -1, 73.7642, 11.5584, 22.1624, 50.6228, -60.1153, -57.0404, 1.75056, 18.2389, 29.2557, -18.1062, -98.2728, 5.59457
0.164, -1, 73.7395, 11.5383, 22.1207, 50.6016, -60.1311, -57.0342, 1.76396, 18.3046, 29.2316, -18.0867, -98.2453, 5.58316
0.168, -1, 73.7148, 11.5181, 22.0791, 50.5804, -60.1469, -57.0279, 1.77758, 18.371, 29.2075, -18.0672, -98.2178, 5.57174
0.172, -1, 73.6901, 11.498, 22.0375, 50.5592, -60.1627, -57.0217, 1.79136, 18.4379, 29.1834, -18.0477, -98.1903, 5.56032
0.176, -1, 73.6655, 11.4778, 21.9958, 50.5379, -60.1785, -57.0155, 1.80522, 18.5049, 29.1594, -18.0282, -98.1628, 5.5489
0.18, -1, 73.6408, 11.4577, 21.9542, 50.5167, -60.1943, -57.0093, 1.81909, 18.5719, 29.1353, -18.0087, -98.1352, 5.53748
0.184, -1, 73.6161, 11.4376, 21.9126, 50.4955, -60.2101, -57.003, 1.83296, 18.639, 29.1112, -17.9892, -98.1077, 5.52607
0.188, -1, 73.5915, 11.4175, 21.871, 50.4743, -60.2259, -56.9968, 1.84682, 18.706, 29.0871, -17.9697, -98.0802, 5.51466
0.192, -1, 73.5669, 11.3973, 21.8295, 50.4531, -60.2417, -56.9906, 1.86069, 18.773, 29.063, -17.9502, -98.0527, 5.50325
0.196, -1, 73.5422, 11.3772, 21.7879, 50.4319, -60.2574, -56.9844, 1.87454, 18.84, 29.0389, -17.9307, -98.0252, 5.49185
0.2, -1, 73.5176, 11.3571, 21.7463, 50.4108, -60.2732, -56.9782, 1.8884, 18.907, 29.0149, -17.9112, -97.9977, 5.48044
0.204, -1, 73.493, 11.337, 21.7048, 50.3896, -60.289, -56.972, 1.90225, 18.9739, 28.9908, -17.8918, -97.9702, 5.46905
0.208, -1, 73.4683, 11.3169, 21.6633, 50.3684, -60.3047, -56.9658, 1.9161, 19.0409, 28.9668, -17.8723, -97.9427, 5.45765
0.212, -1, 73.4437, 11.2968, 21.6217, 50.3472, -60.3205, -56.9595, 1.92995, 19.1078, 28.9427, -17.8528, -97.9153, 5.44625
0.216, -1, 73.4191, 11.2767, 21.5802, 50.3261, -60.3362, -56.9533, 1.94379, 19.1747, 28.9187, -17.8333, -97.8878, 5.43486
0.22, -1, 73.3945, 11.2566, 21.5387, 50.3049, -60.352, -56.9471, 1.95763, 19.2416, 28.8947, -17.8139, -97.8603, 5.42348
0.224, -1, 73.3699, 11.2366, 21.4972, 50.2838, -60.3677, -56.9409, 1.97146, 19.3085, 28.8706, -17.7944, -97.8329, 5.41209
0.228, -1, 73.3453, 11.2165, 21.4557, 50.2626, -60.3835, -56.9347, 1.9853, 19.3753, 28.8466, -17.775, -97.8054, 5.40071
0.232, -1, 73.3207, 11.1964, 21.4143, 50.2415, -60.3992, -56.9285, 1.99912, 19.4422, 28.8226, -17.7555, -97.778, 5.38933
0.236, -1, 73.2962, 11.1763, 21.3728, 50.2203, -60.4149, -56.9223, 2.01295, 19.509, 28.7986, -17.7361, -97.7506, 5.37795
0.24, -1, 73.2716, 11.1563, 21.3313, 50.1992, -60.4307, -56.9161, 2.02677, 19.5758, 28.7746, -17.7167, -97.7232, 5.36658
0.244, -1, 73.247, 11.1362, 21.2899, 50.1781, -60.4464, -56.9099, 2.04059, 19.6426, 28.7506, -17.6972, -97.6957, 5.3552
0.248, -1, 73.2224, 11.1162, 21.2485, 50.1569, -60.4621, -56.9037, 2.0544, 19.7094, 28.7266, -17.6778, -97.6683, 5.34383
0.252, -1, 73.1979, 11.0961, 21.207, 50.1358, -60.4778, -56.8975, 2.06822, 19.7762, 28.7026, -17.6584, -97.6409, 5.33247
0.256, -1, 73.1733, 11.0761, 21.1656, 50.1147, -60.4935, -56.8913, 2.08203, 19.8429, 28.6786, -17.639, -97.6135, 5.3211
0.26, -1, 73.1488, 11.056, 21.1242, 50.0936, -60.5092, -56.8852, 2.09583, 19.9097, 28.6546, -17.6196, -97.5861, 5.30974
0.264, -1, 73.1243, 11.036, 21.0828, 50.0725, -60.5249, -56.879, 2.10963, 19.9764, 28.6307, -17.6001, -97.5587, 5.29839
0.268, -1, 73.0997, 11.016, 21.0414, 50.0514, -60.5406, -56.8728, 2.12343, 20.0431, 28.6067, -17.5807, -97.5314, 5.28703
0.272, -1, 73.0752, 10.996, 21.0001, 50.0303, -60.5563, -56.8666, 2.13723, 20.1098, 28.5827, -17.5613, -97.504, 5.27568
0.276, -1, 73.0507, 10.9759, 20.9587, 50.0092, -60.572, -56.8604, 2.15102, 20.1764, 28.5588, -17.542, -97.4766, 5.26433
0.28, -1, 73.0262, 10.9559, 20.9173, 49.9881, -60.5877, -56.8542, 2.16481, 20.2431, 28.5348, -17.5226, -97.4493, 5.25298
0.284, -1, 73.0017, 10.9359, 20.876, 49.9671, -60.6034, -56.848, 2.17859, 20.3097, 28.5109, -17.5032, -97.4219, 5.24164
0.288, -1, 72.9771, 10.9159, 20.8346, 49.946, -60.6191, -56.8419, 2.19237, 20.3763, 28.487, -17.4838, -97.3946, 5.23029
0.292, -1, 72.9527, 10.8959, 20.7933, 49.9249, -60.6348, -56.8357, 2.20615, 20.4429, 28.463, -17.4644, -97.3672, 5.21896
0.296, -1, 72.9282, 10.8759, 20.752, 49.9039, -60.6505, -56.8295, 2.21993, 20.5095, 28.4391, -17.445, -97.3399, 5.20762
0.3, -1, 72.9037, 10.8559, 20.7107, 49.8828, -60.6661, -56.8233, 2.2337, 20.5761, 28.4152, -17.4257, -97.3126, 5.19629
0.304, -1, 72.8792, 10.836, 20.6694, 49.8618, -60.6818, -56.8171, 2.24747, 20.6426, 28.3913, -17.4063, -97.2853, 5.18495
0.308, -1, 72.8547, 10.816, 20.6281, 49.8407, -60.6975, -56.811, 2.26124, 20.7092, 28.3674, -17.387, -97.2579, 5.17363
0.312, -1, 72.8303, 10.796, 20.5868, 49.8197, -60.7131, -56.8048, 2.275, 20.7757, 28.3435, -17.3676, -97.2306, 5.1623
0.316, -1, 72.8058, 10.776, 20.5456, 49.7986, -60.7288, -56.7986, 2.28876, 20.8422, 28.3196, -17.3483, -97.2033, 5.15098
0.32, -1, 72.7813, 10.7561, 20.5043, 49.7776, -60.7444, -56.7925, 2.30251, 20.9087, 28.2957, -17.3289, -97.176, 5.13966
0.324, -1, 72.7569, 10.7361, 20.4631, 49.7566, -60.7601, -56.7863, 2.31627, 20.9752, 28.2718, -17.3096, -97.1488, 5.12834
0.328, -1, 72.7324, 10.7161, 20.4218, 49.7355, -60.7757, -56.7801, 2.33002, 21.0417, 28.2479, -17.2903, -97.1215, 5.11702
0.332, -1, 72.708, 10.6962, 20.3806, 49.7145, -60.7914, -56.774, 2.34376, 21.1081, 28.224, -17.2709, -97.0942, 5.10571
0.336, -1, 72.6836, 10.6762, 20.3394, 49.6935, -60.807, -56.7678, 2.3575, 21.1745, 28.2002, -17.2516, -97.0669, 5.0944
0.34, -1, 72.6591, 10.6563, 20.2982, 49.6725, -60.8226, -56.7616, 2.37124, 21.2409, 28.1763, -17.2323, -97.0397, 5.0831
0.344, -1, 72.6347, 10.6364, 20.257, 49.6515, -60.8383, -56.7555, 2.38498, 21.3073, 28.1525, -17.213, -97.0124, 5.07179
0.348, -1, 72.6103, 10.6164, 20.2158, 49.6305, -60.8539, -56.7493, 2.39871, 21.3737, 28.1286, -17.1937, -96.9852, 5.06049
0.352, -1, 72.5859, 10.5965, 20.1746, 49.6095, -60.8695, -56.7432, 2.41244, 21.4401, 28.1048, -17.1743, -96.9579, 5.04919
0.356, -1, 72.5615, 10.5766, 20.1334, 49.5885, -60.8851, -56.737, 2.42617, 21.5064, 28.0809, -17.155, -96.9307, 5.0379
0.36, -1, 72.5371, 10.5567, 20.0923, 49.5676, -60.9008, -56.7309, 2.43989, 21.5728, 28.0571, -17.1357, -96.9035, 5.0266
0.364, -1, 72.5127, 10.5367, 20.0511, 49.5466, -60.9164, -56.7247, 2.45361, 21.6391, 28.0333, -17.1165, -96.8762, 5.01531
0.368, -1, 72.4883, 10.5168, 20.01, 49.5256, -60.932, -56.7185, 2.46733, 21.7054, 28.0094, -17.0972, -96.849, 5.00402
0.372, -1, 72.4639, 10.4969, 19.9688, 49.5046, -60.9476, -56.7124, 2.48104, 21.7717, 27.9856, -17.0779, -96.8218, 4.99274
0.376, -1, 72.4396, 10.477, 19.9277, 49.4837, -60.9632, -56.7062, 2.49475, 21.838, 27.9618, -17.0586, -96.7946, 4.98145
0.38, -1, 72.4152, 10.4571, 19.8866, 49.4627, -60.9788, -56.7001, 2.50846, 21.9042, 27.938, -17.0393, -96.7674, 4.97017
0.384, -1, 72.3908, 10.4373, 19.8455, 49.4418, -60.9944, -56.694, 2.52217, 21.9705, 27.9142, -17.0201, -96.7402, 4.9589
0.388, -1, 72.3665, 10.4174, 19.8044, 49.4208, -61.01, -56.6878, 2.53587, 22.0367, 27.8904, -17.0008, -96.713, 4.94762
0.392, -1, 72.3421, 10.3975, 19.7633, 49.3999, -61.0256, -56.6817, 2.54956, 22.1029, 27.8666, -16.9815, -96.6859, 4.93635
0.396, -1, 72.3178, 10.3776, 19.7223, 49.3789, -61.0411, -56.6755, 2.56326, 22.1691, 27.8428, -16.9623, -96.6587, 4.92508
0.4, -1, 72.2934, 10.3577, 19.6812, 49.358, -61.0567, -56.6694, 2.57695, 22.2353, 27.8191, -16.943, -96.6315, 4.91381
0.404, -1, 72.2691, 10.3379, 19.6402, 49.3371, -61.0723, -56.6632, 2.59064, 22.3014, 27.7953, -16.9238, -96.6044, 4.90255
0.408, -1, 72.2448, 10.318, 19.5991, 49.3162, -61.0879, -56.6571, 2.60432, 22.3676, 27.7715, -16.9045, -96.5772, 4.89129
0.412, -1, 72.2204, 10.2982, 19.5581, 49.2952, -61.1034, -56.651, 2.618, 22.4337, 27.7478, -16.8853, -96.5501, 4.88003
0.416, -1, 72.1961, 10.2783, 19.517, 49.2743, -61.119, -56.6448, 2.63168, 22.4998, 27.724, -16.8661, -96.5229, 4.86877
0.42, -1, 72.1718, 10.2584, 19.476, 49.2534, -61.1346, -56.6387, 2.64536, 22.5659, 27.7003, -16.8468, -96.4958, 4.85752
0.424, -1, 72.1475, 10.2386, 19.435, 49.2325, -61.1501, -56.6326, 2.65903, 22.632, 27.6765, -16.8276, -96.4687, 4.84627
0.428, -1, 72.1232, 10.2188, 19.394, 49.2116, -61.1657, -56.6264, 2.6727, 22.6981, 27.6528, -16.8084, -96.4415, 4.83502
0.432, -1, 72.0989, 10.1989, 19.353, 49.1907, -61.1812, -56.6203, 2.68636, 22.7642, 27.629, -16.7892, -96.4144, 4.82377
0.436, -1, 72.0746, 10.1791, 19.3121, 49.1698, -61.1968, -56.6142, 2.70002, 22.8302, 27.6053, -16.77, -96.3873, 4.81253
0.44, -1, 72.0503, 10.1593, 19.2711, 49.1489, -61.2123, -56.6081, 2.71368, 22.8962, 27.5816, -16.7508, -96.3602, 4.80129
0.444, -1, 72.0261, 10.1395, 19.2301, 49.1281, -61.2279, -56.6019, 2.72734, 22.9622, 27.5579, -16.7316, -96.3331, 4.79005
0.448, -1, 72.0018, 10.1196, 19.1892, 49.1072, -61.2434, -56.5958, 2.74099, 23.0282, 27.5342, -16.7124, -96.306, 4.77882
0.452, -1, 71.9775, 10.0998, 19.1483, 49.0863, -61.2589, -56.5897, 2.75464, 23.0942, 27.5105, -16.6932, -96.279, 4.76758
0.456, -1, 71.9532, 10.08, 19.1073, 49.0655, -61.2745, -56.5836, 2.76829, 23.1602, 27.4868, -16.674, -96.2519, 4.75635
0.46, -1, 71.929, 10.0602, 19.0664, 49.0446, -61.29, -56.5775, 2.78193, 23.2261, 27.4631, -16.6548, -96.2248, 4.74513
0.464, -1, 71.9047, 10.0404, 19.0255, 49.0237, -61.3055, -56.5713, 2.79557, 23.292, 27.4394, -16.6356, -96.1977, 4.7339
0.468, -1, 71.8805, 10.0206, 18.9846, 49.0029, -61.321, -56.5652, 2.8092, 23.358, 27.4157, -16.6164, -96.1707, 4.72268
0.472, -1, 71.8563, 10.0008, 18.9437, 48.982, -61.3365, -56.5591, 2.82284, 23.4239, 27.392, -16.5973, -96.1436, 4.71146
0.476, -1, 71.832, 9.98106, 18.9028, 48.9612, -61.3521, -56.553, 2.83647, 23.4897, 27.3683, -16.5781, -96.1166, 4.70024
0.48, -1, 71.8078, 9.96128, 18.862, 48.9404, -61.3676, -56.5469, 2.8501, 23.5556, 27.3447, -16.5589, -96.0896, 4.68903
0.484, -1, 71.7836, 9.94151, 18.8211, 48.9195, -61.3831, -56.5408, 2.86372, 23.6215, 27.321, -16.5398, -96.0625, 4.67782
0.488, -1, 71.7594, 9.92174, 18.7802, 48.8987, -61.3986, -56.5347, 2.87734, 23.6873, 27.2974, -16.5206, -96.0355, 4.66661
0.492, -1, 71.7351, 9.90197, 18.7394, 48.8779, -61.4141, -56.5286, 2.89096, 23.7531, 27.2737, -16.5015, -96.0085, 4.6554
0.496, -1, 71.711, 9.88221, 18.6986, 48.8571, -61.4296, -56.5225, 2.90457, 23.8189, 27.2501, -16.4823, -95.9815, 4.6442
0.5, -1, 71.6868, 9.86246, 18.6577, 48.8363, -61.445, -56.5163, 2.91818, 23.8847, 27.2264, -16.4632, -95.9545, 4.633
0.504, -1, 71.6626, 9.84271, 18.6169, 48.8155, -61.4605, -56.5102, 2.93179, 23.9505, 27.2028, -16.4441, -95.9275, 4.6218
0.508, -1, 71.6384, 9.82296, 18.5761, 48.7947, -61.476, -56.5041, 2.9454, 24.0163, 27.1792, -16.4249, -95.9005, 4.6106
0.512, -1, 71.6142, 9.80322, 18.5353, 48.7739, -61.4915, -56.498, 2.959, 24.082, 27.1555, -16.4058, -95.8735, 4.59941
0.516, -1, 71.59, 9.78348, 18.4945, 48.7531, -61.507, -56.4919, 2.9726, 24.1478, 27.1319, -16.3867, -95.8465, 4.58822
0.52, -1, 71.5658, 9.76375, 18.4538, 48.7323, -61.5224, -56.4859, 2.98619, 24.2135, 27.1083, -16.3676, -95.8195, 4.57703
0.524, -1, 71.5417, 9.74402, 18.413, 48.7115, -61.5379, -56.4798, 2.99978, 24.2792, 27.0847, -16.3484, -95.7925, 4.56584
0.528, -1, 71.5175, 9.72429, 18.3722, 48.6907, -61.5534, -56.4737, 3.01337, 24.3449, 27.0611, -16.3293, -95.7656, 4.55466
0.532, -1, 71.4934, 9.70458, 18.3315, 48.67, -61.5688, -56.4676, 3.02696, 24.4105, 27.0375, -16.3102, -95.7386, 4.54348
0.536, -1, 71.4692, 9.68486, 18.2908, 48.6492, -61.5843, -56.4615, 3.04054, 24.4762, 27.0139, -16.2911, -95.7117, 4.5323
0.54, -1, 71.4451, 9.66515, 18.25, 48.6284, -61.5997, -56.4554, 3.05412, 24.5418, 26.9903, -16.272, -95.6847, 4.52113
0.544, -1, 71.4209, 9.64544, 18.2093, 48.6077, -61.6152, -56.4493, 3.0677, 24.6075, 26.9668, -16.2529, -95.6578, 4.50995
0.548, -1, 71.3968, 9.62574, 18.1686, 48.5869, -61.6306, -56.4432, 3.08127, 24.6731, 26.9432, -16.2339, -95.6309, 4.49879
0.552, -1, 71.3727, 9.60605, 18.1279, 48.5662, -61.6461, -56.4371, 3.09484, 24.7387, 26.9196, -16.2148, -95.6039, 4.48762
0.556, -1, 71.3485, 9.58636, 18.0872, 48.5454, -61.6615, -56.431, 3.10841, 24.8043, 26.896, -16.1957, -95.577, 4.47645
0.56, -1, 71.3244, 9.56667, 18.0465, 48.5247, -61.6769, -56.425, 3.12197, 24.8698, 26.8725, -16.1766, -95.5501, 4.46529
0.564, -1, 71.3003, 9.54698, 18.0058, 48.504, -61.6924, -56.4189, 3.13553, 24.9354, 26.8489, -16.1576, -95.5232, 4.45413
0.568, -1, 71.2762, 9.52731, 17.9652, 48.4832, -61.7078, -56.4128, 3.14909, 25.0009, 26.8254, -16.1385, -95.4963, 4.44297
0.572, -1, 71.2521, 9.50763, 17.9245, 48.4625, -61.7232, -56.4067, 3.16265, 25.0664, 26.8019, -16.1194, -95.4694, 4.43182
0.576, -1, 71.228, 9.48796, 17.8839, 48.4418, -61.7387, -56.4006, 3.1762, 25.1319, 26.7783, -16.1004, -95.4425, 4.42067
0.58, -1, 71.2039, 9.4683, 17.8432, 48.4211, -61.7541, -56.3946, 3.18975, 25.1974, 26.7548, -16.0813, -95.4156, 4.40952
0.584, -1, 71.1799, 9.44864, 17.8026, 48.4004, -61.7695, -56.3885, 3.20329, 25.2629, 26.7313, -16.0623, -95.3888, 4.39837
0.588, -1, 71.1558, 9.42898, 17.762, 48.3796, -61.7849, -56.3824, 3.21684, 25.3284, 26.7077, -16.0432, -95.3619, 4.38722
0.592, -1, 71.1317, 9.40933, 17.7214, 48.3589, -61.8003, -56.3763, 3.23037, 25.3938, 26.6842, -16.0242, -95.335, 4.37608
0.596, -1, 71.1076, 9.38968, 17.6808, 48.3382, -61.8157, -56.3703, 3.24391, 25.4592, 26.6607, -16.0052, -95.3082, 4.36494
0.6, -1, 71.0836, 9.37004, 17.6402, 48.3176, -61.8311, -56.3642, 3.25744, 25.5247, 26.6372, -15.9861, -95.2813, 4.35381
0.604, -1, 71.0595, 9.3504, 17.5996, 48.2969, -61.8465, -56.3581, 3.27097, 25.5901, 26.6137, -15.9671, -95.2545, 4.34267
0.608, -1, 71.0355, 9.33077, 17.559, 48.2762, -61.8619, -56.3521, 3.2845, 25.6555, 26.5902, -15.9481, -95.2276, 4.33154
0.612, -1, 71.0114, 9.31114, 17.5185, 48.2555, -61.8773, -56.346, 3.29802, 25.7208, 26.5667, -15.9291, -95.2008, 4.32041
0.616, -1, 70.9874, 9.29152, 17.4779, 48.2348, -61.8927, -56.3399, 3.31154, 25.7862, 26.5433, -15.9101, -95.174, 4.30928
0.62, -1, 70.9634, 9.2719, 17.4374, 48.2142, -61.9081, -56.3339, 3.32506, 25.8515, 26.5198, -15.8911, -95.1471, 4.29816
0.624, -1, 70.9393, 9.25228, 17.3969, 48.1935, -61.9234, -56.3278, 3.33858, 25.9169, 26.4963, -15.8721, -95.1203, 4.28704
0.628, -1, 70.9153, 9.23267, 17.3563, 48.1729, -61.9388, -56.3218, 3.35209, 25.9822, 26.4728, -15.8531, -95.0935, 4.27592
0.632, -1, 70.8913, 9.21306, 17.3158, 48.1522, -61.9542, -56.3157, 3.3656, 26.0475, 26.4494, -15.8341, -95.0667, 4.2648
0.636, -1, 70.8673, 9.19346, 17.2753, 48.1315, -61.9695, -56.3096, 3.3791, 26.1127, 26.4259, -15.8151, -95.0399, 4.25369
0.64, -1, 70.8433, 9.17386, 17.2348, 48.1109, -61.9849, -56.3036, 3.3926, 26.178, 26.4025, -15.7961, -95.0131, 4.24258
0.644, -1, 70.8193, 9.15427, 17.1943, 48.0903, -62.0003, -56.2975, 3.4061, 26.2433, 26.379, -15.7771, -94.9863, 4.23147
0.648, -1, 70.7953, 9.13468, 17.1538, 48.0696, -62.0156, -56.2915, 3.4196, 26.3085, 26.3556, -15.7581, -94.9596, 4.22036
0.652, -1, 70.7713, 9.1151, 17.1134, 48.049, -62.031, -56.2854, 3.43309, 26.3737, 26.3322, -15.7391, -94.9328, 4.20925
0.656, -1, 70.7473, 9.09551, 17.0729, 48.0284, -62.0463, -56.2794, 3.44658, 26.4389, 26.3087, -15.7202, -94.906, 4.19815
0.66, -1, 70.7233, 9.07594, 17.0325, 48.0077, -62.0617, -56.2733, 3.46007, 26.5041, 26.2853, -15.7012, -94.8793, 4.18705
0.664, -1, 70.6993, 9.05637, 16.992, 47.9871, -62.077, -56.2673, 3.47356, 26.5693, 26.2619, -15.6822, -94.8525, 4.17596
0.668, -1, 70.6754, 9.0368, 16.9516, 47.9665, -62.0924, -56.2612, 3.48704, 26.6345, 26.2385, -15.6633, -94.8258, 4.16486
0.672, -1, 70.6514, 9.01724, 16.9111, 47.9459, -62.1077, -56.2552, 3.50052, 26.6996, 26.2151, -15.6443, -94.799, 4.15377
0.676, -1, 70.6275, 8.99768, 16.8707, 47.9253, -62.1231, -56.2491, 3.51399, 26.7648, 26.1917, -15.6254, -94.7723, 4.14268
0.68, -1, 70.6035, 8.97812, 16.8303, 47.9047, -62.1384, -56.2431, 3.52746, 26.8299, 26.1683, -15.6064, -94.7455, 4.13159
0.684, -1, 70.5796, 8.95857, 16.7899, 47.8841, -62.1537, -56.2371, 3.54093, 26.895, 26.1449, -15.5875, -94.7188, 4.12051
0.688, -1, 70.5556, 8.93903, 16.7495, 47.8635, -62.169, -56.231, 3.5544, 26.9601, 26.1215, -15.5686, -94.6921, 4.10943
0.692, -1, 70.5317, 8.91948, 16.7092, 47.8429, -62.1844, -56.225, 3.56786, 27.0252, 26.0981, -15.5496, -94.6654, 4.09835
0.696, -1, 70.5078, 8.89995, 16.6688, 47.8224, -62.1997, -56.2189, 3.58132, 27.0903, 26.0747, -15.5307, -94.6387, 4.08727
0.7, -1, 70.4838, 8.88041, 16.6284, 47.8018, -62.215, -56.2129, 3.59478, 27.1553, 26.0513, -15.5118, -94.612, 4.07619
0.704, -1, 70.4599, 8.86089, 16.5881, 47.7812, -62.2303, -56.2069, 3.60823, 27.2203, 26.028, -15.4929, -94.5853, 4.06512
0.708, -1, 70.436, 8.84136, 16.5477, 47.7606, -62.2456, -56.2008, 3.62169, 27.2854, 26.0046, -15.4739, -94.5586, 4.05405
0.712, -1, 70.4121, 8.82184, 16.5074, 47.7401, -62.2609, -56.1948, 3.63513, 27.3504, 25.9813, -15.455, -94.5319, 4.04298
0.716, -1, 70.3882, 8.80233, 16.4671, 47.7195, -62.2762, -56.1888, 3.64858, 27.4154, 25.9579, -15.4361, -94.5052, 4.03192
0.72, -1, 70.3643, 8.78281, 16.4267, 47.699, -62.2915, -56.1828, 3.66202, 27.4804, 25.9346, -15.4172, -94.4786, 4.02086
0.724, -1, 70.3404, 8.76331, 16.3864, 47.6784, -62.3068, -56.1767, 3.67546, 27.5453, 25.9112, -15.3983, -94.4519, 4.0098
0.728, -1, 70.3165, 8.7438, 16.3461, 47.6579, -62.3221, -56.1707, 3.6889, 27.6103, 25.8879, -15.3794, -94.4252, 3.99874
0.732, -1, 70.2926, 8.72431, 16.3058, 47.6373, -62.3374, -56.1647, 3.70233, 27.6752, 25.8645, -15.3605, -94.3986, 3.98768
0.736, -1, 70.2687, 8.70481, 16.2655, 47.6168, -62.3527, -56.1587, 3.71576, 27.7401, 25.8412, -15.3417, -94.3719, 3.97663
0.74, -1, 70.2449, 8.68532, 16.2253, 47.5963, -62.3679, -56.1526, 3.72919, 27.805, 25.8179, -15.3228, -94.3453, 3.96558
0.744, -1, 70.221, 8.66584, 16.185, 47.5757, -62.3832, -56.1466, 3.74262, 27.8699, 25.7946, -15.3039, -94.3186, 3.95453
0.748, -1, 70.1971, 8.64636, 16.1448, 47.5552, -62.3985, -56.1406, 3.75604, 27.9348, 25.7713, -15.285, -94.292, 3.94349
0.752, -1, 70.1733, 8.62688, 16.1045, 47.5347, -62.4138, -56.1346, 3.76946, 27.9997, 25.748, -15.2662, -94.2654, 3.93244
0.756, -1, 70.1494, 8.60741, 16.0643, 47.5142, -62.429, -56.1286, 3.78287, 28.0645, 25.7247, -15.2473, -94.2388, 3.9214
0.76, -1, 70.1256, 8.58794, 16.024, 47.4937, -62.4443, -56.1225, 3.79629, 28.1294, 25.7014, -15.2284, -94.2122, 3.91036
0.764, -1, 70.1017, 8.56847, 15.9838, 47.4732, -62.4596, -56.1165, 3.8097, 28.1942, 25.6781, -15.2096, -94.1855, 3.89933
0.768, -1, 70.0779, 8.54902, 15.9436, 47.4527, -62.4748, -56.1105, 3.8231, 28.259, 25.6548, -15.1907, -94.1589, 3.8883
0.772, -1, 70.0541, 8.52956, 15.9034, 47.4322, -62.4901, -56.1045, 3.83651, 28.3238, 25.6315, -15.1719, -94.1323, 3.87726
0.776, -1, 70.0302, 8.51011, 15.8632, 47.4117, -62.5053, -56.0985, 3.84991, 28.3886, 25.6082, -15.153, -94.1058, 3.86624
0.78, -1, 70.0064, 8.49066, 15.823, 47.3912, -62.5206, -56.0925, 3.86331, 28.4533, 25.585, -15.1342, -94.0792, 3.85521
0.784, -1, 69.9826, 8.47122, 15.7828, 47.3707, -62.5358, -56.0865, 3.8767, 28.5181, 25.5617, -15.1153, -94.0526, 3.84419
0.788, -1, 69.9588, 8.45178, 15.7427, 47.3503, -62.551, -56.0805, 3.89009, 28.5828, 25.5385, -15.0965, -94.026, 3.83316
0.792, -1, 69.935, 8.43235, 15.7025, 47.3298, -62.5663, -56.0745, 3.90348, 28.6475, 25.5152, -15.0777, -93.9995, 3.82214
0.796, -1, 69.9112, 8.41292, 15.6624, 47.3093, -62.5815, -56.0685, 3.91687, 28.7123, 25.4919, -15.0589, -93.9729, 3.81113
0.8, -1, 69.8874, 8.39349, 15.6222, 47.2889, -62.5967, -56.0625, 3.93025, 28.777, 25.4687, -15.04, -93.9463, 3.80011
0.804, -1, 69.8636, 8.37407, 15.5821, 47.2684, -62.612, -56.0565, 3.94364, 28.8416, 25.4455, -15.0212, -93.9198, 3.7891
0.808, -1, 69.8398, 8.35465, 15.542, 47.2479, -62.6272, -56.0505, 3.95701, 28.9063, 25.4222, -15.0024, -93.8932, 3.77809
0.812, -1, 69.816, 8.33524, 15.5018, 47.2275, -62.6424, -56.0445, 3.97039, 28.971, 25.399, -14.9836, -93.8667, 3.76709
0.816, -1, 69.7923, 8.31583, 15.4617, 47.207, -62.6576, -56.0385, 3.98376, 29.0356, 25.3758, -14.9648, -93.8402, 3.75608
0.82, -1, 69.7685, 8.29642, 15.4216, 47.1866, -62.6728, -56.0325, 3.99713, 29.1002, 25.3526, -14.946, -93.8136, 3.74508
0.824, -1, 69.7447, 8.27702, 15.3815, 47.1662, -62.6881, -56.0265, 4.0105, 29.1648, 25.3293, -14.9272, -93.7871, 3.73408
0.828, -1, 69.721, 8.25763, 15.3415, 47.1457, -62.7033, -56.0205, 4.02386, 29.2294, 25.3061, -14.9084, -93.7606, 3.72308
0.832, -1, 69.6972, 8.23823, 15.3014, 47.1253, -62.7185, -56.0145, 4.03722, 29.294, 25.2829, -14.8896, -93.7341, 3.71209
0.836, -1, 69.6735, 8.21885, 15.2613, 47.1049, -62.7337, -56.0085, 4.05058, 29.3586, 25.2597, -14.8708, -93.7076, 3.70109
0.84, -1, 69.6497, 8.19946, 15.2213, 47.0845, -62.7489, -56.0025, 4.06393, 29.4231, 25.2365, -14.8521, -93.6811, 3.6901
0.844, -1, 69.626, 8.18008, 15.1812, 47.064, -62.7641, -55.9965, 4.07728, 29.4877, 25.2133, -14.8333, -93.6546, 3.67912
0.848, -1, 69.6022, 8.16071, 15.1412, 47.0436, -62.7793, -55.9905, 4.09063, 29.5522, 25.1902, -14.8145, -93.6281, 3.66813
0.852, -1, 69.5785, 8.14134, 15.1012, 47.0232, -62.7944, -55.9845, 4.10398, 29.6167, 25.167, -14.7958, -93.6016, 3.65715
0.856, -1, 69.5548, 8.12197, 15.0611, 47.0028, -62.8096, -55.9786, 4.11732, 29.6812, 25.1438, -14.777, -93.5752, 3.64617
0.86, -1, 69.5311, 8.10261, 15.0211, 46.9824, -62.8248, -55.9726, 4.13066, 29.7457, 25.1206, -14.7582, -93.5487, 3.63519
0.864, -1, 69.5074, 8.08325, 14.9811, 46.962, -62.84, -55.9666, 4.144, 29.8102, 25.0975, -14.7395, -93.5222, 3.62421
0.868, -1, 69.4837, 8.06389, 14.9411, 46.9417, -62.8552, -55.9606, 4.15733, 29.8746, 25.0743, -14.7207, -93.4958, 3.61324
0.872, -1, 69.46, 8.04455, 14.9011, 46.9213, -62.8703, -55.9546, 4.17066, 29.9391, 25.0512, -14.702, -93.4693, 3.60227
0.876, -1, 69.4363, 8.0252, 14.8612, 46.9009, -62.8855, -55.9487, 4.18399, 30.0035, 25.028, -14.6832, -93.4429, 3.5913
0.88, -1, 69.4126, 8.00586, 14.8212, 46.8805, -62.9007, -55.9427, 4.19732, 30.0679, 25.0049, -14.6645, -93.4164, 3.58033
0.884, -1, 69.3889, 7.98652, 14.7812, 46.8601, -62.9158, -55.9367, 4.21064, 30.1323, 24.9817, -14.6458, -93.39, 3.56937
0.888, -1, 69.3652, 7.96719, 14.7413, 46.8398, -62.931, -55.9307, 4.22396, 30.1967, 24.9586, -14.627, -93.3636, 3.55841
0.892, -1, 69.3415, 7.94786, 14.7013, 46.8194, -62.9461, -55.9248, 4.23728, 30.2611, 24.9355, -14.6083, -93.3371, 3.54745
0.896, -1, 69.3178, 7.92853, 14.6614, 46.7991, -62.9613, -55.9188, 4.25059, 30.3254, 24.9123, -14.5896, -93.3107, 3.53649
0.9, -1, 69.2942, 7.90921, 14.6215, 46.7787, -62.9764, -55.9128, 4.26391, 30.3898, 24.8892, -14.5709, -93.2843, 3.52554
0.904, -1, 69.2705, 7.88989, 14.5816, 46.7584, -62.9916, -55.9069, 4.27721, 30.4541, 24.8661, -14.5521, -93.2579, 3.51458
0.908, -1, 69.2469, 7.87058, 14.5417, 46.738, -63.0067, -55.9009, 4.29052, 30.5184, 24.843, -14.5334, -93.2315, 3.50363
0.912, -1, 69.2232, 7.85127, 14.5018, 46.7177, -63.0219, -55.8949, 4.30382, 30.5827, 24.8199, -14.5147, -93.2051, 3.49269
0.916, -1, 69.1996, 7.83197, 14.4619, 46.6973, -63.037, -55.889, 4.31712, 30.647, 24.7968, -14.496, -93.1787, 3.48174
0.92, -1, 69.1759, 7.81267, 14.422, 46.677, -63.0521, -55.883, 4.33042, 30.7113, 24.7737, -14.4773, -93.1523, 3.4708
0.924, -1, 69.1523, 7.79337, 14.3821, 46.6567, -63.0673, -55.877, 4.34371, 30.7756, 24.7506, -14.4586, -93.126, 3.45986
0.928, -1, 69.1287, 7.77408, 14.3423, 46.6364, -63.0824, -55.8711, 4.35701, 30.8398, 24.7275, -14.4399, -93.0996, 3.44892
0.932, -1, 69.105, 7.75479, 14.3024, 46.616, -63.0975, -55.8651, 4.37029, 30.904, 24.7045, -14.4213, -93.0732, 3.43798
0.936, -1, 69.0814, 7.73551, 14.2625, 46.5957, -63.1126, -55.8592, 4.38358, 30.9683, 24.6814, -14.4026, -93.0469, 3.42705
0.94, -1, 69.0578, 7.71623, 14.2227, 46.5754, -63.1277, -55.8532, 4.39686, 31.0325, 24.6583, -14.3839, -93.0205, 3.41612
0.944, -1, 69.0342, 7.69695, 14.1829, 46.5551, -63.1428, -55.8472, 4.41014, 31.0967, 24.6353, -14.3652, -92.9941, 3.40519
0.948, -1, 69.0106, 7.67768, 14.1431, 46.5348, -63.158, -55.8413, 4.42342, 31.1608, 24.6122, -14.3466, -92.9678, 3.39426
0.952, -1, 68.987, 7.65842, 14.1032, 46.5145, -63.1731, -55.8353, 4.43669, 31.225, 24.5891, -14.3279, -92.9415, 3.38334
0.956, -1, 68.9634, 7.63915, 14.0634, 46.4942, -63.1882, -55.8294, 4.44997, 31.2892, 24.5661, -14.3092, -92.9151, 3.37242
0.96, -1, 68.9398, 7.61989, 14.0236, 46.4739, -63.2033, -55.8234, 4.46323, 31.3533, 24.543, -14.2906, -92.8888, 3.3615
0.964, -1, 68.9162, 7.60064, 13.9838, 46.4537, -63.2184, -55.8175, 4.4765, 31.4174, 24.52, -14.2719, -92.8625, 3.35058
0.968, -1, 68.8926, 7.58139, 13.9441, 46.4334, -63.2335, -55.8115, 4.48976, 31.4815, 24.497, -14.2533, -92.8362, 3.33967
0.972, -1, 68.869, 7.56214, 13.9043, 46.4131, -63.2485, -55.8056, 4.50302, 31.5456, 24.4739, -14.2346, -92.8099, 3.32875
0.976, -1, 68.8455, 7.5429, 13.8645, 46.3928, -63.2636, -55.7996, 4.51628, 31.6097, 24.4509, -14.216, -92.7836, 3.31784
0.98, -1, 68.8219, 7.52366, 13.8248, 46.3726, -63.2787, -55.7937, 4.52954, 31.6738, 24.4279, -14.1973, -92.7572, 3.30693
0.984, -1, 68.7984, 7.50443, 13.785, 46.3523, -63.2938, -55.7878, 4.54279, 31.7379, 24.4049, -14.1787, -92.7309, 3.29603
0.988, -1, 68.7748, 7.4852, 13.7453, 46.3321, -63.3089, -55.7818, 4.55604, 31.8019, 24.3819, -14.1601, -92.7047, 3.28513
0.992, -1, 68.7512, 7.46597, 13.7056, 46.3118, -63.3239, -55.7759, 4.56928, 31.8659, 24.3589, -14.1414, -92.6784, 3.27422
0.996, -1, 68.7277, 7.44675, 13.6658, 46.2915, -63.339, -55.7699, 4.58253, 31.9299, 24.3359, -14.1228, -92.6521, 3.26333
1, -1, 68.7042, 7.42753, 13.6261, 46.2713, -63.3541, -55.764, 4.59577, 31.9939, 24.3129, -14.1042, -92.6258, 3.25243
1.004, -1, 68.6806, 7.40831, 13.5864, 46.2511, -63.3692, -55.7581, 4.60901, 32.0579, 24.2899, -14.0856, -92.5996, 3.24154
1.008, -1, 68.6571, 7.3891, 13.5467, 46.2308, -63.3842, -55.7521, 4.62224, 32.1219, 24.2669, -14.067, -92.5733, 3.23064
1.012, -1, 68.6336, 7.3699, 13.507, 46.2106, -63.3993, -55.7462, 4.63547, 32.1859, 24.2439, -14.0484, -92.5471, 3.21975
1.016, -1, 68.61, 7.3507, 13.4674, 46.1904, -63.4143, -55.7403, 4.6487, 32.2498, 24.2209, -14.0298, -92.5208, 3.20887
1.02, -1, 68.5865, 7.3315, 13.4277, 46.1701, -63.4294, -55.7343, 4.66193, 32.3138, 24.198, -14.0112, -92.4946, 3.19798
1.024, -1, 68.563, 7.31231, 13.388, 46.1499, -63.4444, -55.7284, 4.67515, 32.3777, 24.175, -13.9926, -92.4683, 3.1871
1.027, -1, 68.5395, 7.29312, 13.3484, 46.1297, -63.4595, -55.7225, 4.68837, 32.4416, 24.152, -13.974, -92.4421, 3.17622
1.032, -1, 68.516, 7.27393, 13.3087, 46.1095, -63.4745, -55.7165, 4.70159, 32.5055, 24.1291, -13.9554, -92.4159, 3.16534
1.036, -1, 68.4925, 7.25475, 13.2691, 46.0893, -63.4895, -55.7106, 4.71481, 32.5694, 24.1061, -13.9368, -92.3896, 3.15447
1.04, -1, 68.469, 7.23557, 13.2295, 46.0691, -63.5046, -55.7047, 4.72802, 32.6332, 24.0832, -13.9182, -92.3634, 3.14359
1.044, -1, 68.4455, 7.2164, 13.1898, 46.0489, -63.5196, -55.6988, 4.74123, 32.6971, 24.0602, -13.8997, -92.3372, 3.13272
1.048, -1, 68.4221, 7.19723, 13.1502, 46.0287, -63.5346, -55.6928, 4.75444, 32.7609, 24.0373, -13.8811, -92.311, 3.12185
1.052, -1, 68.3986, 7.17806, 13.1106, 46.0085, -63.5497, -55.6869, 4.76764, 32.8248, 24.0144, -13.8625, -92.2848, 3.11099
1.055, -1, 68.3751, 7.1589, 13.071, 45.9883, -63.5647, -55.681, 4.78084, 32.8886, 23.9914, -13.844, -92.2586, 3.10012
1.06, -1, 68.3517, 7.13974, 13.0314, 45.9682, -63.5797, -55.6751, 4.79404, 32.9524, 23.9685, -13.8254, -92.2324, 3.08926
1.064, -1, 68.3282, 7.12059, 12.9919, 45.948, -63.5947, -55.6692, 4.80724, 33.0162, 23.9456, -13.8068, -92.2062, 3.0784
1.068, -1, 68.3047, 7.10144, 12.9523, 45.9278, -63.6097, -55.6632, 4.82043, 33.0799, 23.9227, -13.7883, -92.1801, 3.06754
1.072, -1, 68.2813, 7.0823, 12.9127, 45.9076, -63.6248, -55.6573, 4.83362, 33.1437, 23.8998, -13.7697, -92.1539, 3.05669
1.076, -1, 68.2578, 7.06316, 12.8732, 45.8875, -63.6398, -55.6514, 4.84681, 33.2074, 23.8769, -13.7512, -92.1277, 3.04584
1.08, -1, 68.2344, 7.04402, 12.8336, 45.8673, -63.6548, -55.6455, 4.85999, 33.2712, 23.854, -13.7327, -92.1016, 3.03499
1.084, -1, 68.211, 7.02489, 12.7941, 45.8472, -63.6698, -55.6396, 4.87318, 33.3349, 23.8311, -13.7141, -92.0754, 3.02414
1.088, -1, 68.1875, 7.00576, 12.7546, 45.827, -63.6848, -55.6337, 4.88635, 33.3986, 23.8082, -13.6956, -92.0493, 3.01329
1.091, -1, 68.1641, 6.98663, 12.715, 45.8069, -63.6998, -55.6278, 4.89953, 33.4623, 23.7853, -13.6771, -92.0231, 3.00245
1.096, -1, 68.1407, 6.96751, 12.6755, 45.7867, -63.7148, -55.6219, 4.91271, 33.526, 23.7624, -13.6585, -91.997, 2.99161
1.1, -1, 68.1173, 6.94839, 12.636, 45.7666, -63.7297, -55.6159, 4.92588, 33.5896, 23.7395, -13.64, -91.9708, 2.98077
1.104, -1, 68.0938, 6.92928, 12.5965, 45.7464, -63.7447, -55.61, 4.93904, 33.6533, 23.7167, -13.6215, -91.9447, 2.96993
1.108, -1, 68.0704, 6.91017, 12.557, 45.7263, -63.7597, -55.6041, 4.95221, 33.7169, 23.6938, -13.603, -91.9186, 2.9591
1.112, -1, 68.047, 6.89107, 12.5176, 45.7062, -63.7747, -55.5982, 4.96537, 33.7806, 23.671, -13.5845, -91.8925, 2.94826
1.116, -1, 68.0236, 6.87196, 12.4781, 45.6861, -63.7897, -55.5923, 4.97853, 33.8442, 23.6481, -13.566, -91.8664, 2.93743
1.119, -1, 68.0002, 6.85287, 12.4386, 45.666, -63.8046, -55.5864, 4.99169, 33.9078, 23.6252, -13.5475, -91.8403, 2.92661
1.124, -1, 67.9769, 6.83377, 12.3992, 45.6458, -63.8196, -55.5805, 5.00485, 33.9714, 23.6024, -13.529, -91.8142, 2.91578
1.128, -1, 67.9535, 6.81468, 12.3597, 45.6257, -63.8346, -55.5746, 5.018, 34.0349, 23.5796, -13.5105, -91.7881, 2.90496
1.132, -1, 67.9301, 6.7956, 12.3203, 45.6056, -63.8495, -55.5687, 5.03115, 34.0985, 23.5567, -13.492, -91.762, 2.89414
1.136, -1, 67.9067, 6.77652, 12.2809, 45.5855, -63.8645, -55.5628, 5.04429, 34.162, 23.5339, -13.4735, -91.7359, 2.88332
1.14, -1, 67.8834, 6.75744, 12.2414, 45.5654, -63.8794, -55.5569, 5.05744, 34.2256, 23.5111, -13.455, -91.7098, 2.8725
1.144, -1, 67.86, 6.73837, 12.202, 45.5453, -63.8944, -55.551, 5.07058, 34.2891, 23.4882, -13.4365, -91.6837, 2.86169
1.147, -1, 67.8366, 6.7193, 12.1626, 45.5252, -63.9094, -55.5452, 5.08372, 34.3526, 23.4654, -13.4181, -91.6577, 2.85087
1.152, -1, 67.8133, 6.70023, 12.1232, 45.5052, -63.9243, -55.5393, 5.09685, 34.4161, 23.4426, -13.3996, -91.6316, 2.84006
1.156, -1, 67.7899, 6.68117, 12.0838, 45.4851, -63.9392, -55.5334, 5.10998, 34.4796, 23.4198, -13.3811, -91.6055, 2.82926
1.16, -1, 67.7666, 6.66211, 12.0444, 45.465, -63.9542, -55.5275, 5.12312, 34.5431, 23.397, -13.3627, -91.5795, 2.81845
1.164, -1, 67.7432, 6.64306, 12.0051, 45.4449, -63.9691, -55.5216, 5.13624, 34.6065, 23.3742, -13.3442, -91.5534, 2.80765
1.168, -1, 67.7199, 6.62401, 11.9657, 45.4249, -63.9841, -55.5157, 5.14937, 34.67, 23.3514, -13.3257, -91.5274, 2.79685
1.172, -1, 67.6966, 6.60496, 11.9263, 45.4048, -63.999, -55.5098, 5.16249, 34.7334, 23.3286, -13.3073, -91.5014, 2.78605
1.175, -1, 67.6733, 6.58592, 11.887, 45.3847, -64.0139, -55.5039, 5.17561, 34.7968, 23.3058, -13.2888, -91.4753, 2.77525
1.18, -1, 67.6499, 6.56688, 11.8477, 45.3647, -64.0289, -55.4981, 5.18873, 34.8602, 23.283, -13.2704, -91.4493, 2.76446
1.184, -1, 67.6266, 6.54784, 11.8083, 45.3446, -64.0438, -55.4922, 5.20184, 34.9236, 23.2603, -13.252, -91.4233, 2.75366
1.188, -1, 67.6033, 6.52881, 11.769, 45.3246, -64.0587, -55.4863, 5.21495, 34.987, 23.2375, -13.2335, -91.3973, 2.74287
1.192, -1, 67.58, 6.50979, 11.7297, 45.3046, -64.0736, -55.4804, 5.22806, 35.0504, 23.2147, -13.2151, -91.3713, 2.73208
1.196, -1, 67.5567, 6.49076, 11.6904, 45.2845, -64.0885, -55.4745, 5.24117, 35.1137, 23.192, -13.1967, -91.3453, 2.7213
1.2, -1, 67.5334, 6.47174, 11.6511, 45.2645, -64.1034, -55.4687, 5.25427, 35.1771, 23.1692, -13.1782, -91.3192, 2.71052
1.204, -1, 67.5101, 6.45273, 11.6118, 45.2444, -64.1183, -55.4628, 5.26737, 35.2404, 23.1465, -13.1598, -91.2933, 2.69973
1.208, -1, 67.4868, 6.43372, 11.5725, 45.2244, -64.1333, -55.4569, 5.28047, 35.3037, 23.1237, -13.1414, -91.2673, 2.68895
1.212, -1, 67.4635, 6.41471, 11.5332, 45.2044, -64.1482, -55.451, 5.29356, 35.367, 23.101, -13.123, -91.2413, 2.67818
1.216, -1, 67.4403, 6.39571, 11.4939, 45.1844, -64.1631, -55.4452, 5.30666, 35.4303, 23.0782, -13.1046, -91.2153, 2.6674
1.22, -1, 67.417, 6.37671, 11.4547, 45.1644, -64.178, -55.4393, 5.31975, 35.4936, 23.0555, -13.0862, -91.1893, 2.65663
1.224, -1, 67.3937, 6.35771, 11.4154, 45.1444, -64.1928, -55.4334, 5.33284, 35.5568, 23.0328, -13.0678, -91.1634, 2.64586
1.228, -1, 67.3705, 6.33872, 11.3762, 45.1243, -64.2077, -55.4276, 5.34592, 35.6201, 23.01, -13.0494, -91.1374, 2.63509
1.232, -1, 67.3472, 6.31973, 11.3369, 45.1043, -64.2226, -55.4217, 5.359, 35.6833, 22.9873, -13.031, -91.1114, 2.62432
1.236, -1, 67.3239, 6.30074, 11.2977, 45.0843, -64.2375, -55.4158, 5.37208, 35.7465, 22.9646, -13.0126, -91.0855, 2.61356
1.24, -1, 67.3007, 6.28176, 11.2585, 45.0643, -64.2524, -55.41, 5.38516, 35.8098, 22.9419, -12.9942, -91.0595, 2.6028
1.244, -1, 67.2774, 6.26278, 11.2193, 45.0444, -64.2673, -55.4041, 5.39824, 35.873, 22.9192, -12.9758, -91.0336, 2.59204
1.248, -1, 67.2542, 6.24381, 11.1801, 45.0244, -64.2822, -55.3982, 5.41131, 35.9361, 22.8965, -12.9574, -91.0077, 2.58128
1.252, -1, 67.231, 6.22484, 11.1409, 45.0044, -64.297, -55.3924, 5.42438, 35.9993, 22.8738, -12.939, -90.9817, 2.57053
1.256, -1, 67.2077, 6.20588, 11.1017, 44.9844, -64.3119, -55.3865, 5.43744, 36.0625, 22.8511, -12.9207, -90.9558, 2.55977
1.26, -1, 67.1845, 6.18691, 11.0625, 44.9644, -64.3268, -55.3807, 5.45051, 36.1256, 22.8284, -12.9023, -90.9299, 2.54902
1.264, -1, 67.1613, 6.16796, 11.0233, 44.9445, -64.3416, -55.3748, 5.46357, 36.1888, 22.8057, -12.8839, -90.904, 2.53827
1.267, -1, 67.1381, 6.149, 10.9841, 44.9245, -64.3565, -55.3689, 5.47663, 36.2519, 22.783, -12.8656, -90.8781, 2.52752
1.272, -1, 67.1149, 6.13005, 10.945, 44.9045, -64.3713, -55.3631, 5.48969, 36.315, 22.7603, -12.8472, -90.8521, 2.51678
1.276, -1, 67.0916, 6.1111, 10.9058, 44.8846, -64.3862, -55.3572, 5.50274, 36.3781, 22.7377, -12.8288, -90.8262, 2.50604
1.28, -1, 67.0684, 6.09216, 10.8667, 44.8646, -64.401, -55.3514, 5.51579, 36.4412, 22.715, -12.8105, -90.8003, 2.4953
1.284, -1, 67.0452, 6.07322, 10.8275, 44.8447, -64.4159, -55.3455, 5.52884, 36.5043, 22.6923, -12.7921, -90.7745, 2.48456
1.288, -1, 67.022, 6.05428, 10.7884, 44.8247, -64.4307, -55.3397, 5.54188, 36.5673, 22.6697, -12.7738, -90.7486, 2.47382
1.292, -1, 66.9989, 6.03535, 10.7493, 44.8048, -64.4456, -55.3338, 5.55493, 36.6304, 22.647, -12.7555, -90.7227, 2.46309
1.295, -1, 66.9757, 6.01642, 10.7102, 44.7848, -64.4604, -55.328, 5.56797, 36.6934, 22.6244, -12.7371, -90.6968, 2.45236
1.3, -1, 66.9525, 5.9975, 10.6711, 44.7649, -64.4753, -55.3221, 5.58101, 36.7565, 22.6017, -12.7188, -90.6709, 2.44163
1.304, -1, 66.9293, 5.97858, 10.632, 44.745, -64.4901, -55.3163, 5.59404, 36.8195, 22.5791, -12.7005, -90.6451, 2.4309
1.308, -1, 66.9061, 5.95966, 10.5929, 44.725, -64.5049, -55.3104, 5.60708, 36.8825, 22.5565, -12.6821, -90.6192, 2.42017
1.312, -1, 66.883, 5.94075, 10.5538, 44.7051, -64.5198, -55.3046, 5.62011, 36.9455, 22.5338, -12.6638, -90.5934, 2.40945
1.316, -1, 66.8598, 5.92184, 10.5147, 44.6852, -64.5346, -55.2988, 5.63314, 37.0084, 22.5112, -12.6455, -90.5675, 2.39873
1.32, -1, 66.8367, 5.90293, 10.4757, 44.6653, -64.5494, -55.2929, 5.64616, 37.0714, 22.4886, -12.6272, -90.5417, 2.38801
1.324, -1, 66.8135, 5.88403, 10.4366, 44.6454, -64.5642, -55.2871, 5.65918, 37.1343, 22.466, -12.6089, -90.5158, 2.37729
1.328, -1, 66.7904, 5.86513, 10.3975, 44.6255, -64.579, -55.2812, 5.6722, 37.1973, 22.4434, -12.5905, -90.49, 2.36658
1.332, -1, 66.7672, 5.84624, 10.3585, 44.6056, -64.5938, -55.2754, 5.68521, 37.2602, 22.4207, -12.5722, -90.4642, 2.35586
1.336, -1, 66.7441, 5.82735, 10.3195, 44.5857, -64.6087, -55.2696, 5.69817, 37.323, 22.3981, -12.5539, -90.4383, 2.34515
1.34, -1, 66.7209, 5.80846, 10.2804, 44.5658, -64.6235, -55.2637, 5.711, 37.3854, 22.3755, -12.5356, -90.4125, 2.33445
1.344, -1, 66.6978, 5.78958, 10.2414, 44.5459, -64.6383, -55.2579, 5.72362, 37.4473, 22.353, -12.5174, -90.3868, 2.32375
1.348, -1, 66.6747, 5.77073, 10.2024, 44.526, -64.6531, -55.2521, 5.736, 37.5085, 22.3304, -12.4991, -90.3611, 2.31307
1.352, -1, 66.6517, 5.75195, 10.1635, 44.5061, -64.6679, -55.2462, 5.74809, 37.5686, 22.308, -12.4809, -90.3355, 2.30241
1.356, -1, 66.6288, 5.73332, 10.1246, 44.4863, -64.6826, -55.2404, 5.75989, 37.6275, 22.2856, -12.4628, -90.3101, 2.29182
1.36, -1, 66.6061, 5.7149, 10.0859, 44.4665, -64.6973, -55.2346, 5.7714, 37.6848, 22.2635, -12.4448, -90.285, 2.28131
1.364, -1, 66.5837, 5.69683, 10.0475, 44.4468, -64.7119, -55.2288, 5.78266, 37.7403, 22.2416, -12.4271, -90.2602, 2.27094
1.368, -1, 66.5619, 5.67924, 10.0097, 44.4274, -64.7262, -55.2231, 5.79369, 37.794, 22.2202, -12.4097, -90.236, 2.26076
1.372, -1, 66.5406, 5.66228, 9.97258, 44.4082, -64.7403, -55.2175, 5.80447, 37.8456, 22.1993, -12.3927, -90.2124, 2.25084
1.376, -1, 66.5202, 5.64603, 9.93654, 44.3896, -64.754, -55.212, 5.81493, 37.8949, 22.1791, -12.3763, -90.1896, 2.24126
1.38, -1, 66.5007, 5.6306, 9.90191, 44.3716, -64.7672, -55.2067, 5.82498, 37.9416, 22.1598, -12.3607, -90.1678, 2.23208
1.384, -1, 66.4823, 5.61607, 9.86907, 44.3546, -64.7797, -55.2017, 5.83454, 37.9855, 22.1415, -12.3458, -90.1473, 2.2234
1.388, -1, 66.4651, 5.60252, 9.8384, 44.3387, -64.7914, -55.1971, 5.84353, 38.0265, 22.1244, -12.3319, -90.128, 2.2153
1.392, -1, 66.4493, 5.59002, 9.81026, 44.3241, -64.8021, -55.1928, 5.85191, 38.0649, 22.1087, -12.3192, -90.1103, 2.20784
1.396, -1, 66.4349, 5.57861, 9.78495, 44.311, -64.8117, -55.1889, 5.85963, 38.1006, 22.0945, -12.3076, -90.0942, 2.20108
1.4, -1, 66.4221, 5.56834, 9.7627, 44.2996, -64.8201, -55.1856, 5.86668, 38.1339, 22.0818, -12.2974, -90.0798, 2.19508
1.404, -1, 66.4109, 5.55923, 9.74362, 44.2898, -64.8274, -55.1827, 5.87304, 38.1649, 22.0707, -12.2884, -90.0672, 2.18985
1.408, -1, 66.4012, 5.55122, 9.72773, 44.2818, -64.8334, -55.1804, 5.87873, 38.1935, 22.0613, -12.2808, -90.0564, 2.1854
1.412, -1, 66.393, 5.54428, 9.7149, 44.2754, -64.8382, -55.1785, 5.88374, 38.2196, 22.0534, -12.2745, -90.0472, 2.18168
1.416, -1, 66.3862, 5.53835, 9.70491, 44.2706, -64.842, -55.1771, 5.88809, 38.243, 22.0469, -12.2693, -90.0396, 2.17866
1.42, -1, 66.3807, 5.53334, 9.69744, 44.2671, -64.8448, -55.1761, 5.89183, 38.2636, 22.0418, -12.2653, -90.0336, 2.17627
1.424, -1, 66.3763, 5.5292, 9.6921, 44.2647, -64.8468, -55.1754, 5.89502, 38.2813, 22.0379, -12.2622, -90.0288, 2.17444
1.428, -1, 66.3729, 5.52592, 9.68847, 44.2632, -64.8481, -55.1749, 5.89777, 38.2965, 22.035, -12.2599, -90.0252, 2.17309
1.432, -1, 66.3705, 5.52347, 9.68617, 44.2623, -64.849, -55.1747, 5.90023, 38.3093, 22.0329, -12.2583, -90.0225, 2.17214
1.436, -1, 66.3689, 5.52178, 9.68481, 44.2618, -64.8495, -55.1746, 5.90247, 38.3202, 22.0315, -12.2572, -90.0207, 2.1715
1.44, -1, 66.3679, 5.52069, 9.68407, 44.2616, -64.8497, -55.1745, 5.90447, 38.3291, 22.0306, -12.2565, -90.0194, 2.1711
1.444, -1, 66.3674, 5.52008, 9.68372, 44.2615, -64.8498, -55.1745, 5.90618, 38.336, 22.0301, -12.2561, -90.0186, 2.17087
1.448, -1, 66.3671, 5.5198, 9.68358, 44.2615, -64.8499, -55.1745, 5.90757, 38.3411, 22.0298, -12.2559, -90.0181, 2.17075
1.452, 2, 66.3671, 5.51971, 9.68354, 44.2615, -64.8499, -55.1745, 5.90862, 38.3447, 22.0296, -12.2558, -90.0178, 2.1707
1.456, 2, 66.367, 5.5197, 9.68353, 44.2615, -64.8499, -55.1745, 5.90931, 38.3468, 22.0296, -12.2558, -90.0177, 2.17068
1.46, 2, 66.367, 5.5197, 9.68353, 44.2615, -64.8499, -55.1745, 5.90965, 38.3478, 22.0296, -12.2558, -90.0177, 2.17067
1.464, 2, 66.367, 5.5197, 9.68353, 44.2615, -64.8499, -55.1745, 5.90977, 38.3481, 22.0296, -12.2558, -90.0176, 2.17067
1.468, 2, 66.367, 5.5197, 9.68353, 44.2615, -64.8499, -55.1745, 5.9098, 38.3481, 22.0296, -12.2558, -90.0176, 2.17067
1.472, 2, 66.367, 5.5197, 9.68353, 44.2615, -64.8499, -55.1745, 5.9098, 38.3481, 22.0296, -12.2558, -90.0176, 2.17067
1.476, 2, 66.367, 5.5197, 9.68353, 44.2615, -64.8499, -55.1745, 5.9098, 38.3481, 22.0296, -12.2558, -90.0176, 2.17067
1.48, 2, 66.367, 5.5197, 9.68353, 44.2615, -64.8499, -55.1745, 5.9098, 38.3481, 22.0296, -12.2558, -90.0176, 2.17067
1.484, 2, 66.367, 5.5197, 9.68353, 44.2615, -64.8499, -55.1745, 5.9098, 38.3481, 22.0296, -12.2558, -90.0176, 2.17067
1.488, 2, 66.367, 5.5197, 9.68353, 44.2615, -64.8499, -55.1745, 5.9098, 38.3481, 22.0296, -12.2558, -90.0176, 2.17067
1.492, 2, 66.367, 5.5197, 9.68353, 44.2615, -64.8499, -55.1745, 5.9098, 38.3481, 22.0296, -12.2558, -90.0176, 2.17067
1.496, 2, 66.367, 5.5197, 9.68353, 44.2615, -64.8499, -55.1745, 5.9098, 38.3481, 22.0296, -12.2558, -90.0176, 2.17067
1.5, 2, 66.367, 5.5197, 9.68353, 44.2615, -64.8499, -55.1745, 5.9098, 38.3481, 22.0296, -12.2558, -90.0176, 2.17067
1.504, 2, 66.367, 5.5197, 9.68353, 44.2615, -64.8499, -55.1745, 5.9098, 38.3481, 22.0296, -12.2558, -90.0176, 2.17067
1.508, 2, 66.367, 5.5197, 9.68353, 44.2615, -64.8499, -55.1745, 5.9098, 38.3481, 22.0296, -12.2558, -90.0176, 2.17067
1.512, 2, 66.367, 5.5197, 9.68353, 44.2615, -64.8499, -55.1745, 5.9098, 38.3481, 22.0296, -12.2558, -90.0176, 2.17067
1.516, 2, 66.367, 5.5197, 9.68353, 44.2615, -64.8499, -55.1745, 5.9098, 38.3481, 22.0296, -12.2558, -90.0176, 2.17067
1.52, 2, 66.367, 5.5197, 9.68353, 44.2615, -64.8499, -55.1745, 5.9098, 38.3481, 22.0296, -12.2558, -90.0176, 2.17067
1.524, 2, 66.367, 5.5197, 9.68353, 44.2615, -64.8499, -55.1745, 5.9098, 38.3481, 22.0296, -12.2558, -90.0176, 2.17067
1.528, 2, 66.367, 5.5197, 9.68353, 44.2615, -64.8499, -55.1745, 5.9098, 38.3481, 22.0296, -12.2558, -90.0176, 2.17067
1.532, 2, 66.367, 5.5197, 9.68353, 44.2615, -64.8499, -55.1745, 5.9098, 38.3481, 22.0296, -12.2558, -90.0176, 2.17067
1.536, 2, 66.367, 5.5197, 9.68353, 44.2615, -64.8499, -55.1745, 5.9098, 38.3481, 22.0296, -12.2558, -90.0176, 2.17067
1.54, 2, 66.367, 5.5197, 9.68353, 44.2615, -64.8499, -55.1745, 5.9098, 38.3481, 22.0296, -12.2558, -90.0176, 2.17067
1.544, 2, 66.367, 5.5197, 9.68353, 44.2615, -64.8499, -55.1745, 5.9098, 38.3481, 22.0296, -12.2558, -90.0176, 2.17067
1.548, 2, 66.367, 5.5197, 9.68353, 44.2615, -64.8499, -55.1745, 5.9098, 38.3481, 22.0296, -12.2558, -90.0176, 2.17067
1.552, 2, 66.367, 5.5197, 9.68353, 44.2615, -64.8499, -55.1745, 5.9098, 38.3481, 22.0296, -12.2558, -90.0176, 2.17067
1.556, 2, 66.367, 5.5197, 9.68353, 44.2615, -64.8499, -55.1745, 5.9098, 38.3481, 22.0296, -12.2558, -90.0176, 2.17067
1.56, 2, 66.367, 5.5197, 9.68353, 44.2615, -64.8499, -55.1745, 5.9098, 38.3481, 22.0296, -12.2558, -90.0176, 2.17067
1.564, 2, 66.367, 5.5197, 9.68353, 44.2615, -64.8499, -55.1745, 5.9098, 38.3481, 22.0296, -12.2558, -90.0176, 2.17067
1.568, 2, 66.367, 5.5197, 9.68353, 44.2615, -64.8499, -55.1745, 5.9098, 38.3481, 22.0296, -12.2558, -90.0176, 2.17067
1.572, 2, 66.367, 5.5197, 9.68353, 44.2615, -64.8499, -55.1745, 5.9098, 38.3481, 22.0296, -12.2558, -90.0176, 2.17067
1.576, 2, 66.367, 5.5197, 9.68353, 44.2615, -64.8499, -55.1745, 5.9098, 38.3481, 22.0296, -12.2558, -90.0176, 2.17067
1.58, 2, 66.367, 5.5197, 9.68353, 44.2615, -64.8499, -55.1745, 5.9098, 38.3481, 22.0296, -12.2558, -90.0176, 2.17067
1.584, 2, 66.367, 5.5197, 9.68353, 44.2615, -64.8499, -55.1745, 5.9098, 38.3481, 22.0296, -12.2558, -90.0176, 2.17067
1.588, 2, 66.367, 5.5197, 9.68353, 44.2615, -64.8499, -55.1745, 5.9098, 38.3481, 22.0296, -12.2558, -90.0176, 2.17067
1.592, 2, 66.367, 5.5197, 9.68353, 44.2615, -64.8499, -55.1745, 5.9098, 38.3481, 22.0296, -12.2558, -90.0176, 2.17067
1.596, 2, 66.367, 5.5197, 9.68353, 44.2615, -64.8499, -55.1745, 5.9098, 38.3481, 22.0296, -12.2558, -90.0176, 2.17067
1.6, 2, 66.367, 5.5197, 9.68353, 44.2615, -64.8499, -55.1745, 5.9098, 38.3481, 22.0296, -12.2558, -90.0176, 2.17067
1.604, 2, 66.367, 5.5197, 9.68353, 44.2615, -64.8499, -55.1745, 5.9098, 38.3481, 22.0296, -12.2558, -90.0176, 2.17067
1.608, 2, 66.367, 5.5197, 9.68353, 44.2615, -64.8499, -55.1745, 5.9098, 38.3481, 22.0296, -12.2558, -90.0176, 2.17067
1.612, 2, 66.367, 5.5197, 9.68353, 44.2615, -64.8499, -55.1745, 5.9098, 38.3481, 22.0296, -12.2558, -90.0176, 2.17067
1.616, 2, 66.367, 5.5197, 9.68353, 44.2615, -64.8499, -55.1745, 5.9098, 38.3481, 22.0296, -12.2558, -90.0176, 2.17067
1.62, 2, 66.367, 5.5197, 9.68353, 44.2615, -64.8499, -55.1745, 5.9098, 38.3481, 22.0296, -12.2558, -90.0176, 2.17067
1.624, 2, 66.367, 5.5197, 9.68353, 44.2615, -64.8499, -55.1745, 5.9098, 38.3481, 22.0296, -12.2558, -90.0176, 2.17067
1.628, 2, 66.367, 5.5197, 9.68353, 44.2615, -64.8499, -55.1745, 5.9098, 38.3481, 22.0296, -12.2558, -90.0176, 2.17067
1.632, 2, 66.367, 5.5197, 9.68353, 44.2615, -64.8499, -55.1745, 5.9098, 38.3481, 22.0296, -12.2558, -90.0176, 2.17067
1.636, 2, 66.367, 5.5197, 9.68353, 44.2615, -64.8499, -55.1745, 5.9098, 38.3481, 22.0296, -12.2558, -90.0176, 2.17067
1.64, 2, 66.367, 5.5197, 9.68353, 44.2615, -64.8499, -55.1745, 5.9098, 38.3481, 22.0296, -12.2558, -90.0176, 2.17067
1.644, 2, 66.367, 5.5197, 9.68353, 44.2615, -64.8499, -55.1745, 5.9098, 38.3481, 22.0296, -12.2558, -90.0176, 2.17067
1.648, 2, 66.367, 5.5197, 9.68353, 44.2615, -64.8499, -55.1745, 5.9098, 38.3481, 22.0296, -12.2558, -90.0176, 2.17067
1.652, 2, 66.367, 5.5197, 9.68353, 44.2615, -64.8499, -55.1745, 5.9098, 38.3481, 22.0296, -12.2558, -90.0176, 2.17067
1.656, 2, 66.367, 5.5197, 9.68353, 44.2615, -64.8499, -55.1745, 5.9098, 38.3481, 22.0296, -12.2558, -90.0176, 2.17067
1.66, 2, 66.367, 5.5197, 9.68353, 44.2615, -64.8499, -55.1745, 5.9098, 38.3481, 22.0296, -12.2558, -90.0176, 2.17067
1.664, 2, 66.367, 5.5197, 9.68353, 44.2615, -64.8499, -55.1745, 5.9098, 38.3481, 22.0296, -12.2558, -90.0176, 2.17067
1.668, 2, 66.367, 5.5197, 9.68353, 44.2615, -64.8499, -55.1745, 5.9098, 38.3481, 22.0296, -12.2558, -90.0176, 2.17067
1.672, 2, 66.367, 5.5197, 9.68353, 44.2615, -64.8499, -55.1745, 5.9098, 38.3481, 22.0296, -12.2558, -90.0176, 2.17067
1.676, 2, 66.367, 5.5197, 9.68353, 44.2615, -64.8499, -55.1745, 5.9098, 38.3481, 22.0296, -12.2558, -90.0176, 2.17067
1.68, 2, 66.367, 5.5197, 9.68353, 44.2615, -64.8499, -55.1745, 5.9098, 38.3481, 22.0296, -12.2558, -90.0176, 2.17067
1.684, 2, 66.367, 5.5197, 9.68353, 44.2615, -64.8499, -55.1745, 5.9098, 38.3481, 22.0296, -12.2558, -90.0176, 2.17067
1.688, 2, 66.367, 5.5197, 9.68353, 44.2615, -64.8499, -55.1745, 5.9098, 38.3481, 22.0296, -12.2558, -90.0176, 2.17067
1.692, 2, 66.367, 5.5197, 9.68353, 44.2615, -64.8499, -55.1745, 5.9098, 38.3481, 22.0296, -12.2558, -90.0176, 2.17067
1.696, 2, 66.367, 5.5197, 9.68353, 44.2615, -64.8499, -55.1745, 5.9098, 38.3481, 22.0296, -12.2558, -90.0176, 2.17067
1.7, 2, 66.367, 5.5197, 9.68353, 44.2615, -64.8499, -55.1745, 5.9098, 38.3481, 22.0296, -12.2558, -90.0176, 2.17067
1.704, 2, 66.367, 5.5197, 9.68353, 44.2615, -64.8499, -55.1745, 5.9098, 38.3481, 22.0296, -12.2558, -90.0176, 2.17067
1.708, 2, 66.367, 5.5197, 9.68353, 44.2615, -64.8499, -55.1745, 5.9098, 38.3481, 22.0296, -12.2558, -90.0176, 2.17067
1.712, 2, 66.367, 5.5197, 9.68353, 44.2615, -64.8499, -55.1745, 5.9098, 38.3481, 22.0296, -12.2558, -90.0176, 2.17067
1.716, 2, 66.367, 5.5197, 9.68353, 44.2615, -64.8499, -55.1745, 5.9098, 38.3481, 22.0296, -12.2558, -90.0176, 2.17067
1.72, 2, 66.367, 5.5197, 9.68353, 44.2615, -64.8499, -55.1745, 5.9098, 38.3481, 22.0296, -12.2558, -90.0176, 2.17067
1.724, 2, 66.367, 5.5197, 9.68353, 44.2615, -64.8499, -55.1745, 5.9098, 38.3481, 22.0296, -12.2558, -90.0176, 2.17067
1.728, 2, 66.367, 5.5197, 9.68353, 44.2615, -64.8499, -55.1745, 5.9098, 38.3481, 22.0296, -12.2558, -90.0176, 2.17067
1.732, 2, 66.367, 5.5197, 9.68353, 44.2615, -64.8499, -55.1745, 5.9098, 38.3481, 22.0296, -12.2558, -90.0176, 2.17067
1.736, 2, 66.367, 5.5197, 9.68353, 44.2615, -64.8499, -55.1745, 5.9098, 38.3481, 22.0296, -12.2558, -90.0176, 2.17067
1.74, 2, 66.367, 5.5197, 9.68353, 44.2615, -64.8499, -55.1745, 5.9098, 38.3481, 22.0296, -12.2558, -90.0176, 2.17067
1.744, 2, 66.367, 5.5197, 9.68353, 44.2615, -64.8499, -55.1745, 5.9098, 38.3481, 22.0296, -12.2558, -90.0176, 2.17067
1.748, 2, 66.367, 5.5197, 9.68353, 44.2615, -64.8499, -55.1745, 5.9098, 38.3481, 22.0296, -12.2558, -90.0176, 2.17067
1.752, 2, 66.367, 5.5197, 9.68353, 44.2615, -64.8499, -55.1745, 5.9098, 38.3481, 22.0296, -12.2558, -90.0176, 2.17067
1.756, 2, 66.367, 5.5197, 9.68353, 44.2615, -64.8499, -55.1745, 5.9098, 38.3481, 22.0296, -12.2558, -90.0176, 2.17067
1.76, 2, 66.367, 5.5197, 9.68353, 44.2615, -64.8499, -55.1745, 5.9098, 38.3481, 22.0296, -12.2558, -90.0176, 2.17067
1.764, 2, 66.367, 5.5197, 9.68353, 44.2615, -64.8499, -55.1745, 5.9098, 38.3481, 22.0296, -12.2558, -90.0176, 2.17067
1.768, 2, 66.367, 5.5197, 9.68353, 44.2615, -64.8499, -55.1745, 5.9098, 38.3481, 22.0296, -12.2558, -90.0176, 2.17067
1.772, 2, 66.367, 5.5197, 9.68353, 44.2615, -64.8499, -55.1745, 5.9098, 38.3481, 22.0296, -12.2558, -90.0176, 2.17067
1.776, 2, 66.367, 5.5197, 9.68353, 44.2615, -64.8499, -55.1745, 5.9098, 38.3481, 22.0296, -12.2558, -90.0176, 2.17067
1.78, 2, 66.367, 5.5197, 9.68353, 44.2615, -64.8499, -55.1745, 5.9098, 38.3481, 22.0296, -12.2558, -90.0176, 2.17067
1.784, 2, 66.367, 5.5197, 9.68353, 44.2615, -64.8499, -55.1745, 5.9098, 38.3481, 22.0296, -12.2558, -90.0176, 2.17067
1.788, 2, 66.367, 5.5197, 9.68353, 44.2615, -64.8499, -55.1745, 5.9098, 38.3481, 22.0296, -12.2558, -90.0176, 2.17067
1.792, 2, 66.367, 5.5197, 9.68353, 44.2615, -64.8499, -55.1745, 5.9098, 38.3481, 22.0296, -12.2558, -90.0176, 2.17067
1.796, 2, 66.367, 5.5197, 9.68353, 44.2615, -64.8499, -55.1745, 5.9098, 38.3481, 22.0296, -12.2558, -90.0176, 2.17067
1.8, 2, 66.367, 5.5197, 9.68353, 44.2615, -64.8499, -55.1745, 5.9098, 38.3481, 22.0296, -12.2558, -90.0176, 2.17067
1.804, 2, 66.367, 5.5197, 9.68353, 44.2615, -64.8499, -55.1745, 5.9098, 38.3481, 22.0296, -12.2558, -90.0176, 2.17067
1.808, 2, 66.367, 5.5197, 9.68353, 44.2615, -64.8499, -55.1745, 5.9098, 38.3481, 22.0296, -12.2558, -90.0176, 2.17067
1.812, 2, 66.367, 5.5197, 9.68353, 44.2615, -64.8499, -55.1745, 5.9098, 38.3481, 22.0296, -12.2558, -90.0176, 2.17067
1.816, 2, 66.367, 5.5197, 9.68353, 44.2615, -64.8499, -55.1745, 5.9098, 38.3481, 22.0296, -12.2558, -90.0176, 2.17067
1.82, 2, 66.367, 5.5197, 9.68353, 44.2615, -64.8499, -55.1745, 5.9098, 38.3481, 22.0296, -12.2558, -90.0176, 2.17067
1.824, 2, 66.367, 5.5197, 9.68353, 44.2615, -64.8499, -55.1745, 5.9098, 38.3481, 22.0296, -12.2558, -90.0176, 2.17067
1.828, 2, 66.367, 5.5197, 9.68353, 44.2615, -64.8499, -55.1745, 5.9098, 38.3481, 22.0296, -12.2558, -90.0176, 2.17067
1.832, 2, 66.367, 5.5197, 9.68353, 44.2615, -64.8499, -55.1745, 5.9098, 38.3481, 22.0296, -12.2558, -90.0176, 2.17067
1.836, 2, 66.367, 5.5197, 9.68353, 44.2615, -64.8499, -55.1745, 5.9098, 38.3481, 22.0296, -12.2558, -90.0176, 2.17067
1.84, 2, 66.367, 5.5197, 9.68353, 44.2615, -64.8499, -55.1745, 5.9098, 38.3481, 22.0296, -12.2558, -90.0176, 2.17067
1.844, 2, 66.367, 5.5197, 9.68353, 44.2615, -64.8499, -55.1745, 5.9098, 38.3481, 22.0296, -12.2558, -90.0176, 2.17067
1.848, 2, 66.367, 5.5197, 9.68353, 44.2615, -64.8499, -55.1745, 5.9098, 38.3481, 22.0296, -12.2558, -90.0176, 2.17067
1.852, 2, 66.367, 5.5197, 9.68353, 44.2615, -64.8499, -55.1745, 5.9098, 38.3481, 22.0296, -12.2558, -90.0176, 2.17067
1.856, 2, 66.367, 5.5197, 9.68353, 44.2615, -64.8499, -55.1745, 5.9098, 38.3481, 22.0296, -12.2558, -90.0176, 2.17067
1.86, 2, 66.367, 5.5197, 9.68353, 44.2615, -64.8499, -55.1745, 5.9098, 38.3481, 22.0296, -12.2558, -90.0176, 2.17067
1.864, 2, 66.367, 5.5197, 9.68353, 44.2615, -64.8499, -55.1745, 5.9098, 38.3481, 22.0296, -12.2558, -90.0176, 2.17067
1.868, 2, 66.367, 5.5197, 9.68353, 44.2615, -64.8499, -55.1745, 5.9098, 38.3481, 22.0296, -12.2558, -90.0176, 2.17067
1.872, 2, 66.367, 5.5197, 9.68353, 44.2615, -64.8499, -55.1745, 5.9098, 38.3481, 22.0296, -12.2558, -90.0176, 2.17067
1.876, 2, 66.367, 5.5197, 9.68353, 44.2615, -64.8499, -55.1745, 5.9098, 38.3481, 22.0296, -12.2558, -90.0176, 2.17067
1.88, 2, 66.367, 5.5197, 9.68353, 44.2615, -64.8499, -55.1745, 5.9098, 38.3481, 22.0296, -12.2558, -90.0176, 2.17067
1.884, 2, 66.367, 5.5197, 9.68353, 44.2615, -64.8499, -55.1745, 5.9098, 38.3481, 22.0296, -12.2558, -90.0176, 2.17067
1.888, 2, 66.367, 5.5197, 9.68353, 44.2615, -64.8499, -55.1745, 5.9098, 38.3481, 22.0296, -12.2558, -90.0176, 2.17067
1.892, 2, 66.367, 5.5197, 9.68353, 44.2615, -64.8499, -55.1745, 5.9098, 38.3481, 22.0296, -12.2558, -90.0176, 2.17067
1.896, 2, 66.367, 5.5197, 9.68353, 44.2615, -64.8499, -55.1745, 5.9098, 38.3481, 22.0296, -12.2558, -90.0176, 2.17067
1.9, 2, 66.367, 5.5197, 9.68353, 44.2615, -64.8499, -55.1745, 5.9098, 38.3481, 22.0296, -12.2558, -90.0176, 2.17067
1.904, 2, 66.367, 5.5197, 9.68353, 44.2615, -64.8499, -55.1745, 5.9098, 38.3481, 22.0296, -12.2558, -90.0176, 2.17067
1.908, 2, 66.367, 5.5197, 9.68353, 44.2615, -64.8499, -55.1745, 5.9098, 38.3481, 22.0296, -12.2558, -90.0176, 2.17067
1.912, 2, 66.367, 5.5197, 9.68353, 44.2615, -64.8499, -55.1745, 5.9098, 38.3481, 22.0296, -12.2558, -90.0176, 2.17067
1.916, 2, 66.367, 5.5197, 9.68353, 44.2615, -64.8499, -55.1745, 5.9098, 38.3481, 22.0296, -12.2558, -90.0176, 2.17067
1.92, 2, 66.367, 5.5197, 9.68353, 44.2615, -64.8499, -55.1745, 5.9098, 38.3481, 22.0296, -12.2558, -90.0176, 2.17067
1.924, 2, 66.367, 5.5197, 9.68353, 44.2615, -64.8499, -55.1745, 5.9098, 38.3481, 22.0296, -12.2558, -90.0176, 2.17067
1.928, 2, 66.367, 5.5197, 9.68353, 44.2615, -64.8499, -55.1745, 5.9098, 38.3481, 22.0296, -12.2558, -90.0176, 2.17067
1.932, 2, 66.367, 5.5197, 9.68353, 44.2615, -64.8499, -55.1745, 5.9098, 38.3481, 22.0296, -12.2558, -90.0176, 2.17067
1.936, 2, 66.367, 5.5197, 9.68353, 44.2615, -64.8499, -55.1745, 5.9098, 38.3481, 22.0296, -12.2558, -90.0176, 2.17067
1.94, 2, 66.367, 5.5197, 9.68353, 44.2615, -64.8499, -55.1745, 5.9098, 38.3481, 22.0296, -12.2558, -90.0176, 2.17067
1.944, 2, 66.367, 5.5197, 9.68353, 44.2615, -64.8499, -55.1745, 5.9098, 38.3481, 22.0296, -12.2558, -90.0176, 2.17067
1.948, 2, 66.367, 5.5197, 9.68353, 44.2615, -64.8499, -55.1745, 5.9098, 38.3481, 22.0296, -12.2558, -90.0176, 2.17067
1.952, 2, 66.367, 5.5197, 9.68353, 44.2615, -64.8499, -55.1745, 5.9098, 38.3481, 22.0296, -12.2558, -90.0176, 2.17067
1.956, 2, 66.367, 5.5197, 9.68353, 44.2615, -64.8499, -55.1745, 5.9098, 38.3481, 22.0296, -12.2558, -90.0176, 2.17067
1.96, 2, 66.367, 5.5197, 9.68353, 44.2615, -64.8499, -55.1745, 5.9098, 38.3481, 22.0296, -12.2558, -90.0176, 2.17067
1.964, 2, 66.367, 5.5197, 9.68353, 44.2615, -64.8499, -55.1745, 5.9098, 38.3481, 22.0296, -12.2558, -90.0176, 2.17067
1.968, 2, 66.367, 5.5197, 9.68353, 44.2615, -64.8499, -55.1745, 5.9098, 38.3481, 22.0296, -12.2558, -90.0176, 2.17067
1.972, 2, 66.367, 5.5197, 9.68353, 44.2615, -64.8499, -55.1745, 5.9098, 38.3481, 22.0296, -12.2558, -90.0176, 2.17067
1.976, 2, 66.367, 5.5197, 9.68353, 44.2615, -64.8499, -55.1745, 5.9098, 38.3481, 22.0296, -12.2558, -90.0176, 2.17067
1.98, 2, 66.367, 5.5197, 9.68353, 44.2615, -64.8499, -55.1745, 5.9098, 38.3481, 22.0296, -12.2558, -90.0176, 2.17067
1.984, 2, 66.367, 5.5197, 9.68353, 44.2615, -64.8499, -55.1745, 5.9098, 38.3481, 22.0296, -12.2558, -90.0176, 2.17067
1.988, 2, 66.367, 5.5197, 9.68353, 44.2615, -64.8499, -55.1745, 5.9098, 38.3481, 22.0296, -12.2558, -90.0176, 2.17067
1.992, 2, 66.367, 5.5197, 9.68353, 44.2615, -64.8499, -55.1745, 5.9098, 38.3481, 22.0296, -12.2558, -90.0176, 2.17067
1.996, 2, 66.367, 5.5197, 9.68353, 44.2615, -64.8499, -55.1745, 5.9098, 38.3481, 22.0296, -12.2558, -90.0176, 2.17067
1.999, 2, 66.367, 5.5197, 9.68353, 44.2615, -64.8499, -55.1745, 5.9098, 38.3481, 22.0296, -12.2558, -90.0176, 2.17067
2.004, 2, 66.367, 5.5197, 9.68353, 44.2615, -64.8499, -55.1745, 5.9098, 38.3481, 22.0296, -12.2558, -90.0176, 2.17067
2.008, 2, 66.367, 5.5197, 9.68353, 44.2615, -64.8499, -55.1745, 5.9098, 38.3481, 22.0296, -12.2558, -90.0176, 2.17067
2.012, 2, 66.367, 5.5197, 9.68353, 44.2615, -64.8499, -55.1745, 5.9098, 38.3481, 22.0296, -12.2558, -90.0176, 2.17067
2.015, 2, 66.367, 5.5197, 9.68353, 44.2615, -64.8499, -55.1745, 5.9098, 38.3481, 22.0296, -12.2558, -90.0176, 2.17067
2.019, 2, 66.367, 5.5197, 9.68353, 44.2615, -64.8499, -55.1745, 5.9098, 38.3481, 22.0296, -12.2558, -90.0176, 2.17067
2.024, 2, 66.367, 5.5197, 9.68353, 44.2615, -64.8499, -55.1745, 5.9098, 38.3481, 22.0296, -12.2558, -90.0176, 2.17067
2.028, 2, 66.367, 5.5197, 9.68353, 44.2615, -64.8499, -55.1745, 5.9098, 38.3481, 22.0296, -12.2558, -90.0176, 2.17067
2.031, 2, 66.367, 5.5197, 9.68353, 44.2615, -64.8499, -55.1745, 5.9098, 38.3481, 22.0296, -12.2558, -90.0176, 2.17067
2.036, 2, 66.367, 5.5197, 9.68353, 44.2615, -64.8499, -55.1745, 5.9098, 38.3481, 22.0296, -12.2558, -90.0176, 2.17067
2.04, 2, 66.367, 5.5197, 9.68353, 44.2615, -64.8499, -55.1745, 5.9098, 38.3481, 22.0296, -12.2558, -90.0176, 2.17067
2.044, 2, 66.367, 5.5197, 9.68353, 44.2615, -64.8499, -55.1745, 5.9098, 38.3481, 22.0296, -12.2558, -90.0176, 2.17067
2.048, 2, 66.367, 5.5197, 9.68353, 44.2615, -64.8499, -55.1745, 5.9098, 38.3481, 22.0296, -12.2558, -90.0176, 2.17067
2.051, 2, 66.367, 5.5197, 9.68353, 44.2615, -64.8499, -55.1745, 5.9098, 38.3481, 22.0296, -12.2558, -90.0176, 2.17067
2.055, 2, 66.367, 5.5197, 9.68353, 44.2615, -64.8499, -55.1745, 5.9098, 38.3481, 22.0296, -12.2558, -90.0176, 2.17067
2.06, 2, 66.367, 5.5197, 9.68353, 44.2615, -64.8499, -55.1745, 5.9098, 38.3481, 22.0296, -12.2558, -90.0176, 2.17067
2.064, 2, 66.367, 5.5197, 9.68353, 44.2615, -64.8499, -55.1745, 5.9098, 38.3481, 22.0296, -12.2558, -90.0176, 2.17067
2.068, 2, 66.367, 5.5197, 9.68353, 44.2615, -64.8499, -55.1745, 5.9098, 38.3481, 22.0296, -12.2558, -90.0176, 2.17067
2.071, 2, 66.367, 5.5197, 9.68353, 44.2615, -64.8499, -55.1745, 5.9098, 38.3481, 22.0296, -12.2558, -90.0176, 2.17067
2.076, 2, 66.367, 5.5197, 9.68353, 44.2615, -64.8499, -55.1745, 5.9098, 38.3481, 22.0296, -12.2558, -90.0176, 2.17067
2.08, 2, 66.367, 5.5197, 9.68353, 44.2615, -64.8499, -55.1745, 5.9098, 38.3481, 22.0296, -12.2558, -90.0176, 2.17067
2.084, 2, 66.367, 5.5197, 9.68353, 44.2615, -64.8499, -55.1745, 5.9098, 38.3481, 22.0296, -12.2558, -90.0176, 2.17067
2.087, 2, 66.367, 5.5197, 9.68353, 44.2615, -64.8499, -55.1745, 5.9098, 38.3481, 22.0296, -12.2558, -90.0176, 2.17067
2.092, 2, 66.367, 5.5197, 9.68353, 44.2615, -64.8499, -55.1745, 5.9098, 38.3481, 22.0296, -12.2558, -90.0176, 2.17067
2.096, 2, 66.367, 5.5197, 9.68353, 44.2615, -64.8499, -55.1745, 5.9098, 38.3481, 22.0296, -12.2558, -90.0176, 2.17067
2.1, 2, 66.367, 5.5197, 9.68353, 44.2615, -64.8499, -55.1745, 5.9098, 38.3481, 22.0296, -12.2558, -90.0176, 2.17067
2.104, 2, 66.367, 5.5197, 9.68353, 44.2615, -64.8499, -55.1745, 5.9098, 38.3481, 22.0296, -12.2558, -90.0176, 2.17067
2.107, 2, 66.367, 5.5197, 9.68353, 44.2615, -64.8499, -55.1745, 5.9098, 38.3481, 22.0296, -12.2558, -90.0176, 2.17067
2.111, 2, 66.367, 5.5197, 9.68353, 44.2615, -64.8499, -55.1745, 5.9098, 38.3481, 22.0296, -12.2558, -90.0176, 2.17067
2.116, 2, 66.367, 5.5197, 9.68353, 44.2615, -64.8499, -55.1745, 5.9098, 38.3481, 22.0296, -12.2558, -90.0176, 2.17067
2.12, 2, 66.367, 5.5197, 9.68353, 44.2615, -64.8499, -55.1745, 5.9098, 38.3481, 22.0296, -12.2558, -90.0176, 2.17067
2.124, 2, 66.367, 5.5197, 9.68353, 44.2615, -64.8499, -55.1745, 5.9098, 38.3481, 22.0296, -12.2558, -90.0176, 2.17067
2.127, 2, 66.367, 5.5197, 9.68353, 44.2615, -64.8499, -55.1745, 5.9098, 38.3481, 22.0296, -12.2558, -90.0176, 2.17067
2.132, 2, 66.367, 5.5197, 9.68353, 44.2615, -64.8499, -55.1745, 5.9098, 38.3481, 22.0296, -12.2558, -90.0176, 2.17067
2.136, 2, 66.367, 5.5197, 9.68353, 44.2615, -64.8499, -55.1745, 5.9098, 38.3481, 22.0296, -12.2558, -90.0176, 2.17067
2.14, 2, 66.367, 5.5197, 9.68353, 44.2615, -64.8499, -55.1745, 5.9098, 38.3481, 22.0296, -12.2558, -90.0176, 2.17067
2.143, 2, 66.367, 5.5197, 9.68353, 44.2615, -64.8499, -55.1745, 5.9098, 38.3481, 22.0296, -12.2558, -90.0176, 2.17067
2.148, 2, 66.367, 5.5197, 9.68353, 44.2615, -64.8499, -55.1745, 5.9098, 38.3481, 22.0296, -12.2558, -90.0176, 2.17067
2.152, 2, 66.367, 5.5197, 9.68353, 44.2615, -64.8499, -55.1745, 5.9098, 38.3481, 22.0296, -12.2558, -90.0176, 2.17067
2.156, 2, 66.367, 5.5197, 9.68353, 44.2615, -64.8499, -55.1745, 5.9098, 38.3481, 22.0296, -12.2558, -90.0176, 2.17067
2.16, 2, 66.367, 5.5197, 9.68353, 44.2615, -64.8499, -55.1745, 5.9098, 38.3481, 22.0296, -12.2558, -90.0176, 2.17067
2.163, 2, 66.367, 5.5197, 9.68353, 44.2615, -64.8499, -55.1745, 5.9098, 38.3481, 22.0296, -12.2558, -90.0176, 2.17067
2.168, 2, 66.367, 5.5197, 9.68353, 44.2615, -64.8499, -55.1745, 5.9098, 38.3481, 22.0296, -12.2558, -90.0176, 2.17067
2.172, 2, 66.367, 5.5197, 9.68353, 44.2615, -64.8499, -55.1745, 5.9098, 38.3481, 22.0296, -12.2558, -90.0176, 2.17067
2.176, 2, 66.367, 5.5197, 9.68353, 44.2615, -64.8499, -55.1745, 5.9098, 38.3481, 22.0296, -12.2558, -90.0176, 2.17067
2.179, 2, 66.367, 5.5197, 9.68353, 44.2615, -64.8499, -55.1745, 5.9098, 38.3481, 22.0296, -12.2558, -90.0176, 2.17067
2.184, 2, 66.367, 5.5197, 9.68353, 44.2615, -64.8499, -55.1745, 5.9098, 38.3481, 22.0296, -12.2558, -90.0176, 2.17067
2.188, 2, 66.367, 5.5197, 9.68353, 44.2615, -64.8499, -55.1745, 5.9098, 38.3481, 22.0296, -12.2558, -90.0176, 2.17067
2.192, 2, 66.367, 5.5197, 9.68353, 44.2615, -64.8499, -55.1745, 5.9098, 38.3481, 22.0296, -12.2558, -90.0176, 2.17067
2.196, 2, 66.367, 5.5197, 9.68353, 44.2615, -64.8499, -55.1745, 5.9098, 38.3481, 22.0296, -12.2558, -90.0176, 2.17067
2.199, 2, 66.367, 5.5197, 9.68353, 44.2615, -64.8499, -55.1745, 5.9098, 38.3481, 22.0296, -12.2558, -90.0176, 2.17067
2.204, 2, 66.367, 5.5197, 9.68353, 44.2615, -64.8499, -55.1745, 5.9098, 38.3481, 22.0296, -12.2558, -90.0176, 2.17067
2.208, 2, 66.367, 5.5197, 9.68353, 44.2615, -64.8499, -55.1745, 5.9098, 38.3481, 22.0296, -12.2558, -90.0176, 2.17067
2.212, 2, 66.367, 5.5197, 9.68353, 44.2615, -64.8499, -55.1745, 5.9098, 38.3481, 22.0296, -12.2558, -90.0176, 2.17067
2.216, 2, 66.367, 5.5197, 9.68353, 44.2615, -64.8499, -55.1745, 5.9098, 38.3481, 22.0296, -12.2558, -90.0176, 2.17067
2.219, 2, 66.367, 5.5197, 9.68353, 44.2615, -64.8499, -55.1745, 5.9098, 38.3481, 22.0296, -12.2558, -90.0176, 2.17067
2.224, 2, 66.367, 5.5197, 9.68353, 44.2615, -64.8499, -55.1745, 5.9098, 38.3481, 22.0296, -12.2558, -90.0176, 2.17067
2.228, 2, 66.367, 5.5197, 9.68353, 44.2615, -64.8499, -55.1745, 5.9098, 38.3481, 22.0296, -12.2558, -90.0176, 2.17067
2.232, 2, 66.367, 5.5197, 9.68353, 44.2615, -64.8499, -55.1745, 5.9098, 38.3481, 22.0296, -12.2558, -90.0176, 2.17067
2.235, 2, 66.367, 5.5197, 9.68353, 44.2615, -64.8499, -55.1745, 5.9098, 38.3481, 22.0296, -12.2558, -90.0176, 2.17067
2.24, 2, 66.367, 5.5197, 9.68353, 44.2615, -64.8499, -55.1745, 5.9098, 38.3481, 22.0296, -12.2558, -90.0176, 2.17067
2.244, 2, 66.367, 5.5197, 9.68353, 44.2615, -64.8499, -55.1745, 5.9098, 38.3481, 22.0296, -12.2558, -90.0176, 2.17067
2.248, 2, 66.367, 5.5197, 9.68353, 44.2615, -64.8499, -55.1745, 5.9098, 38.3481, 22.0296, -12.2558, -90.0176, 2.17067
2.252, 2, 66.367, 5.5197, 9.68353, 44.2615, -64.8499, -55.1745, 5.9098, 38.3481, 22.0296, -12.2558, -90.0176, 2.17067
2.255, 2, 66.367, 5.5197, 9.68353, 44.2615, -64.8499, -55.1745, 5.9098, 38.3481, 22.0296, -12.2558, -90.0176, 2.17067
2.259, 2, 66.367, 5.5197, 9.68353, 44.2615, -64.8499, -55.1745, 5.9098, 38.3481, 22.0296, -12.2558, -90.0176, 2.17067
2.264, 2, 66.367, 5.5197, 9.68353, 44.2615, -64.8499, -55.1745, 5.9098, 38.3481, 22.0296, -12.2558, -90.0176, 2.17067
2.268, 2, 66.367, 5.5197, 9.68353, 44.2615, -64.8499, -55.1745, 5.9098, 38.3481, 22.0296, -12.2558, -90.0176, 2.17067
2.272, 2, 66.367, 5.5197, 9.68353, 44.2615, -64.8499, -55.1745, 5.9098, 38.3481, 22.0296, -12.2558, -90.0176, 2.17067
2.275, 2, 66.367, 5.5197, 9.68353, 44.2615, -64.8499, -55.1745, 5.9098, 38.3481, 22.0296, -12.2558, -90.0176, 2.17067
2.28, 2, 66.367, 5.5197, 9.68353, 44.2615, -64.8499, -55.1745, 5.9098, 38.3481, 22.0296, -12.2558, -90.0176, 2.17067
2.284, 2, 66.367, 5.5197, 9.68353, 44.2615, -64.8499, -55.1745, 5.9098, 38.3481, 22.0296, -12.2558, -90.0176, 2.17067
2.288, 2, 66.367, 5.5197, 9.68353, 44.2615, -64.8499, -55.1745, 5.9098, 38.3481, 22.0296, -12.2558, -90.0176, 2.17067
2.291, 2, 66.367, 5.5197, 9.68353, 44.2615, -64.8499, -55.1745, 5.9098, 38.3481, 22.0296, -12.2558, -90.0176, 2.17067
2.296, 2, 66.367, 5.5197, 9.68353, 44.2615, -64.8499, -55.1745, 5.9098, 38.3481, 22.0296, -12.2558, -90.0176, 2.17067
2.3, 2, 66.367, 5.5197, 9.68353, 44.2615, -64.8499, -55.1745, 5.9098, 38.3481, 22.0296, -12.2558, -90.0176, 2.17067
2.304, 2, 66.367, 5.5197, 9.68353, 44.2615, -64.8499, -55.1745, 5.9098, 38.3481, 22.0296, -12.2558, -90.0176, 2.17067
2.308, 2, 66.367, 5.5197, 9.68353, 44.2615, -64.8499, -55.1745, 5.9098, 38.3481, 22.0296, -12.2558, -90.0176, 2.17067
2.311, 2, 66.367, 5.5197, 9.68353, 44.2615, -64.8499, -55.1745, 5.9098, 38.3481, 22.0296, -12.2558, -90.0176, 2.17067
2.316, 2, 66.367, 5.5197, 9.68353, 44.2615, -64.8499, -55.1745, 5.9098, 38.3481, 22.0296, -12.2558, -90.0176, 2.17067
2.32, 2, 66.367, 5.5197, 9.68353, 44.2615, -64.8499, -55.1745, 5.9098, 38.3481, 22.0296, -12.2558, -90.0176, 2.17067
2.324, 2, 66.367, 5.5197, 9.68353, 44.2615, -64.8499, -55.1745, 5.9098, 38.3481, 22.0296, -12.2558, -90.0176, 2.17067
2.328, 2, 66.367, 5.5197, 9.68353, 44.2615, -64.8499, -55.1745, 5.9098, 38.3481, 22.0296, -12.2558, -90.0176, 2.17067
2.331, 2, 66.367, 5.5197, 9.68353, 44.2615, -64.8499, -55.1745, 5.9098, 38.3481, 22.0296, -12.2558, -90.0176, 2.17067
2.336, 2, 66.367, 5.5197, 9.68353, 44.2615, -64.8499, -55.1745, 5.9098, 38.3481, 22.0296, -12.2558, -90.0176, 2.17067
2.34, 2, 66.367, 5.5197, 9.68353, 44.2615, -64.8499, -55.1745, 5.9098, 38.3481, 22.0296, -12.2558, -90.0176, 2.17067
2.344, 2, 66.367, 5.5197, 9.68353, 44.2615, -64.8499, -55.1745, 5.9098, 38.3481, 22.0296, -12.2558, -90.0176, 2.17067
2.347, 2, 66.367, 5.5197, 9.68353, 44.2615, -64.8499, -55.1745, 5.9098, 38.3481, 22.0296, -12.2558, -90.0176, 2.17067
2.352, 2, 66.367, 5.5197, 9.68353, 44.2615, -64.8499, -55.1745, 5.9098, 38.3481, 22.0296, -12.2558, -90.0176, 2.17067
2.356, 2, 66.367, 5.5197, 9.68353, 44.2615, -64.8499, -55.1745, 5.9098, 38.3481, 22.0296, -12.2558, -90.0176, 2.17067
2.36, 2, 66.367, 5.5197, 9.68353, 44.2615, -64.8499, -55.1745, 5.9098, 38.3481, 22.0296, -12.2558, -90.0176, 2.17067
2.364, 2, 66.367, 5.5197, 9.68353, 44.2615, -64.8499, -55.1745, 5.9098, 38.3481, 22.0296, -12.2558, -90.0176, 2.17067
2.367, 2, 66.367, 5.5197, 9.68353, 44.2615, -64.8499, -55.1745, 5.9098, 38.3481, 22.0296, -12.2558, -90.0176, 2.17067
2.372, 2, 66.367, 5.5197, 9.68353, 44.2615, -64.8499, -55.1745, 5.9098, 38.3481, 22.0296, -12.2558, -90.0176, 2.17067
2.376, 2, 66.367, 5.5197, 9.68353, 44.2615, -64.8499, -55.1745, 5.9098, 38.3481, 22.0296, -12.2558, -90.0176, 2.17067
2.38, 2, 66.367, 5.5197, 9.68353, 44.2615, -64.8499, -55.1745, 5.9098, 38.3481, 22.0296, -12.2558, -90.0176, 2.17067
2.383, 2, 66.367, 5.5197, 9.68353, 44.2615, -64.8499, -55.1745, 5.9098, 38.3481, 22.0296, -12.2558, -90.0176, 2.17067
2.388, 2, 66.367, 5.5197, 9.68353, 44.2615, -64.8499, -55.1745, 5.9098, 38.3481, 22.0296, -12.2558, -90.0176, 2.17067
2.392, 2, 66.367, 5.5197, 9.68353, 44.2615, -64.8499, -55.1745, 5.9098, 38.3481, 22.0296, -12.2558, -90.0176, 2.17067
2.396, 2, 66.367, 5.5197, 9.68353, 44.2615, -64.8499, -55.1745, 5.9098, 38.3481, 22.0296, -12.2558, -90.0176, 2.17067
2.4, 2, 66.367, 5.5197, 9.68353, 44.2615, -64.8499, -55.1745, 5.9098, 38.3481, 22.0296, -12.2558, -90.0176, 2.17067
2.403, 2, 66.367, 5.5197, 9.68353, 44.2615, -64.8499, -55.1745, 5.9098, 38.3481, 22.0296, -12.2558, -90.0176, 2.17067
2.408, 2, 66.367, 5.5197, 9.68353, 44.2615, -64.8499, -55.1745, 5.9098, 38.3481, 22.0296, -12.2558, -90.0176, 2.17067
2.412, 2, 66.367, 5.5197, 9.68353, 44.2615, -64.8499, -55.1745, 5.9098, 38.3481, 22.0296, -12.2558, -90.0176, 2.17067
2.416, 2, 66.367, 5.5197, 9.68353, 44.2615, -64.8499, -55.1745, 5.9098, 38.3481, 22.0296, -12.2558, -90.0176, 2.17067
2.42, 2, 66.367, 5.5197, 9.68353, 44.2615, -64.8499, -55.1745, 5.9098, 38.3481, 22.0296, -12.2558, -90.0176, 2.17067
2.423, 2, 66.367, 5.5197, 9.68353, 44.2615, -64.8499, -55.1745, 5.9098, 38.3481, 22.0296, -12.2558, -90.0176, 2.17067
2.428, 2, 66.367, 5.5197, 9.68353, 44.2615, -64.8499, -55.1745, 5.9098, 38.3481, 22.0296, -12.2558, -90.0176, 2.17067
2.432, 2, 66.367, 5.5197, 9.68353, 44.2615, -64.8499, -55.1745, 5.9098, 38.3481, 22.0296, -12.2558, -90.0176, 2.17067
2.436, 2, 66.367, 5.5197, 9.68353, 44.2615, -64.8499, -55.1745, 5.9098, 38.3481, 22.0296, -12.2558, -90.0176, 2.17067
2.439, 2, 66.367, 5.5197, 9.68353, 44.2615, -64.8499, -55.1745, 5.9098, 38.3481, 22.0296, -12.2558, -90.0176, 2.17067
2.444, 2, 66.367, 5.5197, 9.68353, 44.2615, -64.8499, -55.1745, 5.9098, 38.3481, 22.0296, -12.2558, -90.0176, 2.17067
2.448, 2, 66.367, 5.5197, 9.68353, 44.2615, -64.8499, -55.1745, 5.9098, 38.3481, 22.0296, -12.2558, -90.0176, 2.17067
2.452, 2, 66.367, 5.5197, 9.68353, 44.2615, -64.8499, -55.1745, 5.9098, 38.3481, 22.0296, -12.2558, -90.0176, 2.17067
2.456, 2, 66.367, 5.5197, 9.68353, 44.2615, -64.8499, -55.1745, 5.9098, 38.3481, 22.0296, -12.2558, -90.0176, 2.17067
2.459, 2, 66.367, 5.5197, 9.68353, 44.2615, -64.8499, -55.1745, 5.9098, 38.3481, 22.0296, -12.2558, -90.0176, 2.17067
2.464, 2, 66.367, 5.5197, 9.68353, 44.2615, -64.8499, -55.1745, 5.9098, 38.3481, 22.0296, -12.2558, -90.0176, 2.17067
2.468, 2, 66.367, 5.5197, 9.68353, 44.2615, -64.8499, -55.1745, 5.9098, 38.3481, 22.0296, -12.2558, -90.0176, 2.17067
2.472, 2, 66.367, 5.5197, 9.68353, 44.2615, -64.8499, -55.1745, 5.9098, 38.3481, 22.0296, -12.2558, -90.0176, 2.17067
2.476, 2, 66.367, 5.5197, 9.68353, 44.2615, -64.8499, -55.1745, 5.9098, 38.3481, 22.0296, -12.2558, -90.0176, 2.17067
2.479, 2, 66.367, 5.5197, 9.68353, 44.2615, -64.8499, -55.1745, 5.9098, 38.3481, 22.0296, -12.2558, -90.0176, 2.17067
2.484, 2, 66.367, 5.5197, 9.68353, 44.2615, -64.8499, -55.1745, 5.9098, 38.3481, 22.0296, -12.2558, -90.0176, 2.17067
2.488, 2, 66.367, 5.5197, 9.68353, 44.2615, -64.8499, -55.1745, 5.9098, 38.3481, 22.0296, -12.2558, -90.0176, 2.17067
2.492, 2, 66.367, 5.5197, 9.68353, 44.2615, -64.8499, -55.1745, 5.9098, 38.3481, 22.0296, -12.2558, -90.0176, 2.17067
2.495, 4, 66.367, 5.5197, 9.68353, 44.2615, -64.8499, -55.1745, 5.9098, 38.3481, 22.0296, -12.2558, -90.0176, 2.17067
2.5, 4, 66.367, 5.5197, 9.68353, 44.2615, -64.8499, -55.1745, 5.9098, 38.3481, 22.0296, -12.2558, -90.0176, 2.17067
2.504, 4, 66.367, 5.5197, 9.68353, 44.2615, -64.8499, -55.1745, 5.9098, 38.3481, 22.0296, -12.2558, -90.0176, 2.17067
2.508, 4, 66.367, 5.5197, 9.68353, 44.2615, -64.8499, -55.1745, 5.9098, 38.3481, 22.0296, -12.2558, -90.0176, 2.17067
2.512, 4, 66.367, 5.5197, 9.68353, 44.2615, -64.8499, -55.1745, 5.9098, 38.3481, 22.0296, -12.2558, -90.0176, 2.17067
2.515, 4, 66.367, 5.5197, 9.68353, 44.2615, -64.8499, -55.1745, 5.9098, 38.3481, 22.0296, -12.2558, -90.0176, 2.17067
2.52, 4, 66.367, 5.5197, 9.68353, 44.2615, -64.8499, -55.1745, 5.9098, 38.3481, 22.0296, -12.2558, -90.0176, 2.17067
2.524, 4, 66.367, 5.5197, 9.68353, 44.2615, -64.8499, -55.1745, 5.9098, 38.3481, 22.0296, -12.2558, -90.0176, 2.17067
2.528, 4, 66.367, 5.5197, 9.68353, 44.2615, -64.8499, -55.1745, 5.9098, 38.3481, 22.0296, -12.2558, -90.0176, 2.17067
2.531, 4, 66.367, 5.5197, 9.68353, 44.2615, -64.8499, -55.1745, 5.9098, 38.3481, 22.0296, -12.2558, -90.0176, 2.17067
2.536, 4, 66.367, 5.5197, 9.68353, 44.2615, -64.8499, -55.1745, 5.9098, 38.3481, 22.0296, -12.2558, -90.0176, 2.17067
2.54, 4, 66.367, 5.5197, 9.68353, 44.2615, -64.8499, -55.1745, 5.9098, 38.3481, 22.0296, -12.2558, -90.0176, 2.17067
2.544, 4, 66.367, 5.5197, 9.68353, 44.2615, -64.8499, -55.1745, 5.9098, 38.3481, 22.0296, -12.2558, -90.0176, 2.17067
2.548, 4, 66.367, 5.5197, 9.68353, 44.2615, -64.8499, -55.1745, 5.9098, 38.3481, 22.0296, -12.2558, -90.0176, 2.17067
2.551, 4, 66.367, 5.5197, 9.68353, 44.2615, -64.8499, -55.1745, 5.9098, 38.3481, 22.0296, -12.2558, -90.0176, 2.17067
2.556, 4, 66.367, 5.5197, 9.68353, 44.2615, -64.8499, -55.1745, 5.9098, 38.3481, 22.0296, -12.2558, -90.0176, 2.17067
2.56, 4, 66.367, 5.5197, 9.68353, 44.2615, -64.8499, -55.1745, 5.9098, 38.3481, 22.0296, -12.2558, -90.0176, 2.17067
2.564, 4, 66.367, 5.5197, 9.68353, 44.2615, -64.8499, -55.1745, 5.9098, 38.3481, 22.0296, -12.2558, -90.0176, 2.17067
2.568, 4, 66.367, 5.5197, 9.68353, 44.2615, -64.8499, -55.1745, 5.9098, 38.3481, 22.0296, -12.2558, -90.0176, 2.17067
2.571, 4, 66.367, 5.5197, 9.68353, 44.2615, -64.8499, -55.1745, 5.9098, 38.3481, 22.0296, -12.2558, -90.0176, 2.17067
2.576, 4, 66.367, 5.5197, 9.68353, 44.2615, -64.8499, -55.1745, 5.9098, 38.3481, 22.0296, -12.2558, -90.0176, 2.17067
2.58, 4, 66.367, 5.5197, 9.68353, 44.2615, -64.8499, -55.1745, 5.9098, 38.3481, 22.0296, -12.2558, -90.0176, 2.17067
2.584, 4, 66.367, 5.5197, 9.68353, 44.2615, -64.8499, -55.1745, 5.9098, 38.3481, 22.0296, -12.2558, -90.0176, 2.17067
2.587, 4, 66.367, 5.5197, 9.68353, 44.2615, -64.8499, -55.1745, 5.9098, 38.3481, 22.0296, -12.2558, -90.0176, 2.17067
2.592, 4, 66.367, 5.5197, 9.68353, 44.2615, -64.8499, -55.1745, 5.9098, 38.3481, 22.0296, -12.2558, -90.0176, 2.17067
2.596, 4, 66.367, 5.5197, 9.68353, 44.2615, -64.8499, -55.1745, 5.9098, 38.3481, 22.0296, -12.2558, -90.0176, 2.17067
2.6, 4, 66.367, 5.5197, 9.68353, 44.2615, -64.8499, -55.1745, 5.9098, 38.3481, 22.0296, -12.2558, -90.0176, 2.17067
2.604, 4, 66.367, 5.5197, 9.68353, 44.2615, -64.8499, -55.1745, 5.9098, 38.3481, 22.0296, -12.2558, -90.0176, 2.17067
2.609, 4, 66.367, 5.5197, 9.68353, 44.2615, -64.8499, -55.1745, 5.9098, 38.3481, 22.0296, -12.2558, -90.0176, 2.17067
2.618, 4, 66.367, 5.5197, 9.68353, 44.2615, -64.8499, -55.1745, 5.9098, 38.3481, 22.0296, -12.2558, -90.0176, 2.17067
2.622, 4, 66.367, 5.5197, 9.68353, 44.2615, -64.8499, -55.1745, 5.9098, 38.3481, 22.0296, -12.2558, -90.0176, 2.17067
2.626, 4, 66.367, 5.5197, 9.68353, 44.2615, -64.8499, -55.1745, 5.9098, 38.3481, 22.0296, -12.2558, -90.0176, 2.17067
2.63, 4, 66.367, 5.5197, 9.68353, 44.2615, -64.8499, -55.1745, 5.9098, 38.3481, 22.0296, -12.2558, -90.0176, 2.17067
2.633, 4, 66.367, 5.5197, 9.68353, 44.2615, -64.8499, -55.1745, 5.9098, 38.3481, 22.0296, -12.2558, -90.0176, 2.17067
2.637, 4, 66.367, 5.5197, 9.68353, 44.2615, -64.8499, -55.1745, 5.9098, 38.3481, 22.0296, -12.2558, -90.0176, 2.17067
2.639, 4, 66.367, 5.5197, 9.68353, 44.2615, -64.8499, -55.1745, 5.9098, 38.3481, 22.0296, -12.2558, -90.0176, 2.17067
2.641, 4, 66.367, 5.5197, 9.68353, 44.2615, -64.8499, -55.1745, 5.9098, 38.3481, 22.0296, -12.2558, -90.0176, 2.17067
2.644, 4, 66.367, 5.5197, 9.68353, 44.2615, -64.8499, -55.1745, 5.9098, 38.3481, 22.0296, -12.2558, -90.0176, 2.17067
2.648, 4, 66.367, 5.5197, 9.68353, 44.2615, -64.8499, -55.1745, 5.9098, 38.3481, 22.0296, -12.2558, -90.0176, 2.17067
2.652, 4, 66.367, 5.5197, 9.68353, 44.2615, -64.8499, -55.1745, 5.90976, 38.3481, 22.0296, -12.2558, -90.0176, 2.17067
2.656, 4, 66.367, 5.5197, 9.68353, 44.2615, -64.8499, -55.1745, 5.90957, 38.3477, 22.0295, -12.2558, -90.0177, 2.17067
2.66, 4, 66.367, 5.5197, 9.68353, 44.2615, -64.8499, -55.1745, 5.90906, 38.3466, 22.0294, -12.2558, -90.0177, 2.17066
2.663, 4, 66.3671, 5.51972, 9.68353, 44.2615, -64.8499, -55.1745, 5.9081, 38.3443, 22.0291, -12.2557, -90.0178, 2.17064
2.668, 4, 66.3672, 5.51983, 9.68357, 44.2615, -64.8499, -55.1745, 5.90668, 38.3407, 22.0287, -12.2556, -90.018, 2.17058
2.672, 4, 66.3676, 5.52021, 9.6837, 44.2615, -64.8498, -55.1745, 5.9048, 38.3355, 22.0279, -12.2554, -90.0183, 2.17044
2.676, 4, 66.3685, 5.52105, 9.68405, 44.2616, -64.8496, -55.1744, 5.90248, 38.3287, 22.0269, -12.255, -90.0188, 2.17018
2.679, 4, 66.3701, 5.52258, 9.68477, 44.2617, -64.8491, -55.1743, 5.89979, 38.3202, 22.0255, -12.2543, -90.0194, 2.16974
2.684, 4, 66.3728, 5.52499, 9.68612, 44.262, -64.8481, -55.174, 5.89687, 38.3104, 22.0237, -12.2532, -90.0203, 2.16905
2.688, 4, 66.3767, 5.52851, 9.68841, 44.2625, -64.8463, -55.1734, 5.89376, 38.2995, 22.0215, -12.2516, -90.0214, 2.16804
2.692, 4, 66.382, 5.53325, 9.692, 44.2634, -64.8435, -55.1725, 5.89041, 38.2874, 22.0189, -12.2494, -90.0228, 2.16663
2.696, 4, 66.3889, 5.53917, 9.69721, 44.2648, -64.8392, -55.171, 5.88669, 38.2742, 22.0158, -12.2464, -90.0244, 2.16476
2.699, 4, 66.3972, 5.54619, 9.70437, 44.2668, -64.8333, -55.1689, 5.88253, 38.2596, 22.0121, -12.2428, -90.0264, 2.1624
2.704, 5, 66.4069, 5.55428, 9.7137, 44.2696, -64.8253, -55.166, 5.87786, 38.2435, 22.0079, -12.2382, -90.0288, 2.1595
2.708, 5, 66.4181, 5.56344, 9.72533, 44.2732, -64.8153, -55.1622, 5.87267, 38.2261, 22.003, -12.2329, -90.0315, 2.15604
2.712, 5, 66.4308, 5.57368, 9.73923, 44.2776, -64.8031, -55.1576, 5.86698, 38.2074, 21.9976, -12.2266, -90.0346, 2.15203
2.716, 5, 66.445, 5.58502, 9.75527, 44.2827, -64.789, -55.1523, 5.86081, 38.1874, 21.9915, -12.2196, -90.038, 2.14747
2.719, 5, 66.4606, 5.59755, 9.77318, 44.2884, -64.7731, -55.1463, 5.85422, 38.1663, 21.9849, -12.2117, -90.0417, 2.1424
2.724, 5, 66.4778, 5.61136, 9.79267, 44.2947, -64.7556, -55.1397, 5.84728, 38.144, 21.9777, -12.2031, -90.0458, 2.13687
2.728, 5, 66.4963, 5.62642, 9.81338, 44.3014, -64.7369, -55.1327, 5.84002, 38.1206, 21.97, -12.1938, -90.05, 2.13093
2.732, 5, 66.5159, 5.64261, 9.83496, 44.3083, -64.7174, -55.1254, 5.83246, 38.0958, 21.9618, -12.1841, -90.0546, 2.12466
2.735, 5, 66.5366, 5.65978, 9.8571, 44.3153, -64.6971, -55.1179, 5.82458, 38.0695, 21.9532, -12.1739, -90.0592, 2.11812
2.74, 5, 66.558, 5.67775, 9.87957, 44.3225, -64.6764, -55.1103, 5.81638, 38.0415, 21.944, -12.1634, -90.0641, 2.1114
2.744, 5, 66.5798, 5.69633, 9.90217, 44.3297, -64.6554, -55.1025, 5.80783, 38.012, 21.9345, -12.1527, -90.0691, 2.10454
2.748, 5, 66.602, 5.71533, 9.92478, 44.3369, -64.6342, -55.0948, 5.79887, 37.981, 21.9246, -12.1418, -90.0742, 2.09761
2.756, 5, 66.6467, 5.75409, 9.96973, 44.3514, -64.5914, -55.0792, 5.77979, 37.9157, 21.904, -12.1199, -90.0845, 2.08362
2.756, 5, 66.6467, 5.75409, 9.96973, 44.3514, -64.5914, -55.0792, 5.77979, 37.9157, 21.904, -12.1199, -90.0845, 2.08362
2.76, 5, 66.669, 5.77371, 9.992, 44.3585, -64.5698, -55.0714, 5.76976, 37.8818, 21.8934, -12.1088, -90.0897, 2.07661
2.764, 5, 66.6913, 5.79344, 10.0141, 44.3657, -64.5482, -55.0635, 5.75948, 37.8476, 21.8827, -12.0978, -90.0948, 2.0696
2.768, 5, 66.7135, 5.81326, 10.0361, 44.3728, -64.5265, -55.0557, 5.74905, 37.8131, 21.8718, -12.0868, -90.0999, 2.0626
2.772, 5, 66.7357, 5.83318, 10.0579, 44.38, -64.5046, -55.0478, 5.73856, 37.7785, 21.8608, -12.0757, -90.105, 2.05561
2.775, 5, 66.7578, 5.8532, 10.0795, 44.3871, -64.4827, -55.0399, 5.72805, 37.7439, 21.8498, -12.0647, -90.1101, 2.04863
2.78, 5, 66.7799, 5.87331, 10.101, 44.3941, -64.4607, -55.0321, 5.71754, 37.7094, 21.8386, -12.0536, -90.1151, 2.04165
2.784, 5, 66.8019, 5.89351, 10.1224, 44.4012, -64.4386, -55.0242, 5.70703, 37.6749, 21.8274, -12.0426, -90.1201, 2.03469
2.788, 5, 66.8238, 5.91381, 10.1436, 44.4083, -64.4165, -55.0163, 5.69652, 37.6405, 21.8161, -12.0316, -90.125, 2.02773
2.791, 5, 66.8457, 5.93421, 10.1646, 44.4153, -64.3942, -55.0083, 5.68601, 37.6061, 21.8047, -12.0205, -90.13, 2.02078
2.796, 5, 66.8675, 5.95471, 10.1855, 44.4223, -64.3718, -55.0004, 5.67554, 37.5719, 21.7932, -12.0095, -90.1348, 2.01384
2.8, 5, 66.8893, 5.9753, 10.2062, 44.4293, -64.3494, -54.9925, 5.66523, 37.5381, 21.7817, -11.9985, -90.1397, 2.0069
2.804, 5, 66.9109, 5.99598, 10.2267, 44.4362, -64.3269, -54.9845, 5.65524, 37.5053, 21.7701, -11.9875, -90.1444, 1.99999
2.808, 5, 66.9326, 6.01674, 10.2471, 44.4432, -64.3042, -54.9765, 5.64569, 37.474, 21.7587, -11.9765, -90.1491, 1.99309
2.811, 5, 66.954, 6.03749, 10.2674, 44.4501, -64.2816, -54.9685, 5.63652, 37.444, 21.7474, -11.9655, -90.1536, 1.98624
2.816, 5, 66.9752, 6.05804, 10.2873, 44.457, -64.2588, -54.9606, 5.62761, 37.4152, 21.7361, -11.9547, -90.1581, 1.97947
2.82, 5, 66.9958, 6.07818, 10.307, 44.4638, -64.2362, -54.9526, 5.61882, 37.3875, 21.725, -11.944, -90.1624, 1.97279
2.824, 5, 67.0157, 6.09774, 10.3262, 44.4705, -64.2138, -54.9447, 5.60995, 37.3608, 21.714, -11.9335, -90.1665, 1.96623
2.828, 5, 67.035, 6.11661, 10.3448, 44.4771, -64.1918, -54.937, 5.60068, 37.3347, 21.703, -11.9232, -90.1705, 1.95979
2.831, 5, 67.0538, 6.13466, 10.3627, 44.4834, -64.1704, -54.9295, 5.59061, 37.3087, 21.692, -11.913, -90.1743, 1.95344
2.836, 5, 67.0721, 6.15177, 10.3794, 44.4893, -64.1499, -54.9222, 5.57945, 37.2826, 21.6807, -11.9028, -90.1779, 1.94709
2.84, 6, 67.0904, 6.16802, 10.395, 44.4946, -64.1304, -54.9153, 5.56732, 37.2567, 21.6692, -11.8925, -90.1813, 1.9406
2.844, 6, 67.1094, 6.18365, 10.4092, 44.4991, -64.1119, -54.9085, 5.55462, 37.2313, 21.6573, -11.8817, -90.1844, 1.93381
2.847, 6, 67.1297, 6.19885, 10.4221, 44.5027, -64.0943, -54.9018, 5.54171, 37.2065, 21.6452, -11.8701, -90.1871, 1.92649
2.852, 6, 67.1517, 6.21362, 10.4337, 44.505, -64.0772, -54.8949, 5.52879, 37.1821, 21.6325, -11.8575, -90.1895, 1.91844
2.856, 6, 67.1755, 6.22791, 10.4442, 44.506, -64.06, -54.8873, 5.51607, 37.1578, 21.6192, -11.8436, -90.1915, 1.90947
2.86, 6, 67.2011, 6.24178, 10.4539, 44.5055, -64.0421, -54.8786, 5.50377, 37.1339, 21.6052, -11.8281, -90.1931, 1.8994
2.864, 6, 67.2285, 6.25529, 10.4631, 44.5034, -64.0228, -54.8684, 5.49187, 37.1107, 21.5905, -11.8108, -90.1944, 1.88812
2.867, 6, 67.2577, 6.26832, 10.4722, 44.4999, -64.0014, -54.8564, 5.48007, 37.0881, 21.5747, -11.7915, -90.1952, 1.87553
2.872, 6, 67.2883, 6.28073, 10.4813, 44.4949, -63.9777, -54.8423, 5.46803, 37.0661, 21.558, -11.7704, -90.1958, 1.8616
2.876, 6, 67.3204, 6.29262, 10.4907, 44.4888, -63.9515, -54.8263, 5.45571, 37.0447, 21.5401, -11.7472, -90.196, 1.84631
2.88, 6, 67.3543, 6.30434, 10.5003, 44.4816, -63.9229, -54.8086, 5.4433, 37.0246, 21.5212, -11.722, -90.1959, 1.8297
2.883, 6, 67.3906, 6.31621, 10.5101, 44.4735, -63.8923, -54.7894, 5.43105, 37.0063, 21.5015, -11.6951, -90.1956, 1.81184
2.888, 6, 67.429, 6.32839, 10.52, 44.4649, -63.8601, -54.7691, 5.41902, 36.9896, 21.481, -11.6665, -90.1951, 1.79288
2.892, 6, 67.4695, 6.34103, 10.5299, 44.4558, -63.8268, -54.7482, 5.40704, 36.9739, 21.4597, -11.6365, -90.1943, 1.77299
2.896, 6, 67.5118, 6.35425, 10.5398, 44.4464, -63.7928, -54.7268, 5.39481, 36.9589, 21.4377, -11.6055, -90.1935, 1.75237
2.9, 6, 67.5554, 6.36806, 10.5495, 44.4369, -63.7583, -54.7052, 5.38206, 36.9443, 21.415, -11.5737, -90.1925, 1.73123
2.903, 6, 67.5998, 6.38234, 10.559, 44.4271, -63.7235, -54.6834, 5.36861, 36.9295, 21.3916, -11.5414, -90.1916, 1.70975
2.908, 6, 67.6445, 6.39692, 10.5683, 44.4173, -63.6885, -54.6615, 5.3543, 36.9142, 21.3677, -11.5087, -90.1906, 1.68808
2.912, 6, 67.6892, 6.41169, 10.5774, 44.4074, -63.6534, -54.6396, 5.3391, 36.8982, 21.3433, -11.476, -90.1896, 1.66632
2.916, 6, 67.7338, 6.42661, 10.5862, 44.3974, -63.6182, -54.6176, 5.3232, 36.8815, 21.3185, -11.4432, -90.1886, 1.64451
2.92, 6, 67.7782, 6.44167, 10.5949, 44.3874, -63.5828, -54.5955, 5.30694, 36.8647, 21.2936, -11.4104, -90.1876, 1.62269
2.923, 6, 67.8225, 6.45689, 10.6033, 44.3773, -63.5474, -54.5733, 5.29057, 36.8479, 21.2685, -11.3776, -90.1866, 1.60086
2.928, 6, 67.8666, 6.47226, 10.6116, 44.367, -63.5117, -54.551, 5.27421, 36.8311, 21.2433, -11.3448, -90.1856, 1.57903
2.932, 6, 67.9106, 6.48777, 10.6196, 44.3567, -63.476, -54.5286, 5.25784, 36.8143, 21.2181, -11.312, -90.1846, 1.55718
2.936, 6, 67.9545, 6.50343, 10.6274, 44.3464, -63.4401, -54.5062, 5.24148, 36.7977, 21.1927, -11.2792, -90.1835, 1.53532
2.939, 6, 67.9983, 6.51925, 10.635, 44.3359, -63.4041, -54.4837, 5.22513, 36.7811, 21.1672, -11.2464, -90.1824, 1.51346
2.944, 6, 68.0419, 6.53521, 10.6424, 44.3254, -63.368, -54.4611, 5.20878, 36.7645, 21.1417, -11.2136, -90.1813, 1.49158
2.948, 6, 68.0853, 6.55132, 10.6496, 44.3148, -63.3317, -54.4384, 5.19243, 36.7481, 21.116, -11.1808, -90.1802, 1.4697
2.952, 6, 68.1287, 6.56757, 10.6566, 44.3041, -63.2953, -54.4156, 5.17608, 36.7317, 21.0902, -11.148, -90.179, 1.44781
2.96, 6, 68.215, 6.60053, 10.6699, 44.2825, -63.2222, -54.3698, 5.1434, 36.6991, 21.0384, -11.0825, -90.1766, 1.404
2.96, 6, 68.215, 6.60053, 10.6699, 44.2825, -63.2222, -54.3698, 5.1434, 36.6991, 21.0384, -11.0825, -90.1766, 1.404
2.964, 6, 68.2579, 6.61722, 10.6763, 44.2715, -63.1854, -54.3468, 5.12707, 36.6829, 21.0123, -11.0497, -90.1754, 1.38208
2.968, 6, 68.3007, 6.63407, 10.6824, 44.2605, -63.1485, -54.3237, 5.11073, 36.6668, 20.9862, -11.017, -90.1742, 1.36015
2.972, 6, 68.3434, 6.65106, 10.6884, 44.2494, -63.1115, -54.3005, 5.09441, 36.6507, 20.9599, -10.9843, -90.1729, 1.33821
2.976, 6, 68.3859, 6.6682, 10.6941, 44.2382, -63.0743, -54.2772, 5.07808, 36.6348, 20.9336, -10.9515, -90.1716, 1.31626
2.98, 6, 68.4283, 6.68549, 10.6997, 44.227, -63.0371, -54.2539, 5.06176, 36.6188, 20.9071, -10.9188, -90.1703, 1.2943
2.984, 6, 68.4706, 6.70292, 10.705, 44.2156, -62.9996, -54.2304, 5.04544, 36.603, 20.8805, -10.8861, -90.169, 1.27234
2.988, 6, 68.5127, 6.7205, 10.7101, 44.2042, -62.9621, -54.2069, 5.02913, 36.5872, 20.8539, -10.8533, -90.1676, 1.25036
2.992, 6, 68.5547, 6.73822, 10.715, 44.1927, -62.9244, -54.1833, 5.01281, 36.5715, 20.8271, -10.8206, -90.1663, 1.22837
2.995, 6, 68.5965, 6.75609, 10.7197, 44.1811, -62.8866, -54.1596, 4.99651, 36.5558, 20.8003, -10.7879, -90.1649, 1.20638
3, 6, 68.6383, 6.77411, 10.7242, 44.1694, -62.8487, -54.1358, 4.9802, 36.5402, 20.7733, -10.7552, -90.1635, 1.18437
3.004, 6, 68.6799, 6.79227, 10.7285, 44.1576, -62.8107, -54.112, 4.9639, 36.5247, 20.7463, -10.7225, -90.162, 1.16235
3.008, 6, 68.7213, 6.81058, 10.7326, 44.1457, -62.7725, -54.088, 4.9476, 36.5093, 20.7191, -10.6898, -90.1606, 1.14033
3.012, 6, 68.7626, 6.82903, 10.7364, 44.1338, -62.7342, -54.064, 4.93131, 36.4939, 20.6918, -10.6571, -90.1591, 1.11829
3.015, 6, 68.8038, 6.84763, 10.7401, 44.1218, -62.6957, -54.0399, 4.91508, 36.4786, 20.6645, -10.6245, -90.1576, 1.09625
3.02, 6, 68.8449, 6.86637, 10.7435, 44.1096, -62.6571, -54.0156, 4.89907, 36.4636, 20.6371, -10.5918, -90.1561, 1.0742
3.024, 6, 68.8858, 6.88527, 10.7468, 44.0974, -62.6184, -53.9914, 4.88345, 36.449, 20.6098, -10.5592, -90.1545, 1.05215
3.028, 6, 68.9265, 6.90428, 10.7498, 44.0851, -62.5796, -53.967, 4.86828, 36.435, 20.5825, -10.5266, -90.1529, 1.03013
3.031, 6, 68.967, 6.92337, 10.7527, 44.0728, -62.5407, -53.9425, 4.85349, 36.4217, 20.5552, -10.4942, -90.1513, 1.00818
3.036, 6, 69.0069, 6.94243, 10.7553, 44.0603, -62.5017, -53.918, 4.83904, 36.4092, 20.5281, -10.4619, -90.1496, 0.986333
3.04, 6, 69.0463, 6.96135, 10.7578, 44.0479, -62.4628, -53.8935, 4.82477, 36.3976, 20.5011, -10.4298, -90.1479, 0.964639
3.044, 6, 69.0851, 6.97998, 10.7601, 44.0354, -62.424, -53.8691, 4.8104, 36.3864, 20.4741, -10.398, -90.1462, 0.943115
3.048, 6, 69.1233, 6.99806, 10.7621, 44.023, -62.3857, -53.8449, 4.7956, 36.3753, 20.447, -10.3664, -90.1444, 0.921742
3.051, 6, 69.1613, 7.01538, 10.7639, 44.0107, -62.348, -53.821, 4.78033, 36.364, 20.4197, -10.3348, -90.1425, 0.900458
3.056, 7, 69.1995, 7.0319, 10.7655, 43.9985, -62.3112, -53.7976, 4.76479, 36.3525, 20.3922, -10.3031, -90.1405, 0.879158
3.06, 7, 69.2384, 7.04767, 10.7668, 43.9863, -62.2754, -53.7747, 4.74921, 36.341, 20.3645, -10.271, -90.1383, 0.85771
3.064, 7, 69.2784, 7.06269, 10.768, 43.9742, -62.2407, -53.7522, 4.73371, 36.3296, 20.3364, -10.2383, -90.1359, 0.835979
3.068, 7, 69.3195, 7.07689, 10.7692, 43.962, -62.207, -53.73, 4.71829, 36.3185, 20.308, -10.2049, -90.1333, 0.813841
3.071, 7, 69.3618, 7.09037, 10.7704, 43.9496, -62.1739, -53.7078, 4.70289, 36.3079, 20.2791, -10.1705, -90.1304, 0.791192
3.076, 7, 69.405, 7.10322, 10.7718, 43.9368, -62.141, -53.6852, 4.68742, 36.2977, 20.2496, -10.1351, -90.1273, 0.76795
3.08, 7, 69.449, 7.11536, 10.7734, 43.9236, -62.1079, -53.6619, 4.67178, 36.2877, 20.2193, -10.0985, -90.1238, 0.744046
3.084, 7, 69.4937, 7.1266, 10.7752, 43.9098, -62.0742, -53.6378, 4.65594, 36.2779, 20.1882, -10.0607, -90.12, 0.719423
3.089, 7, 69.539, 7.13696, 10.7771, 43.8954, -62.0397, -53.6126, 4.64002, 36.2681, 20.1562, -10.0216, -90.116, 0.694037
3.098, 7, 69.633, 7.15596, 10.781, 43.8647, -61.9681, -53.5595, 4.60943, 36.2502, 20.0901, -9.93949, -90.1072, 0.640934
3.099, 7, 69.6819, 7.16498, 10.7828, 43.8486, -61.9311, -53.5319, 4.59536, 36.2427, 20.0561, -9.89671, -90.1024, 0.613293
3.101, 7, 69.6819, 7.16498, 10.7828, 43.8486, -61.9311, -53.5319, 4.59536, 36.2427, 20.0561, -9.89671, -90.1024, 0.613293
3.104, 7, 69.732, 7.17394, 10.7842, 43.8322, -61.8935, -53.5039, 4.58193, 36.2361, 20.0215, -9.853, -90.0975, 0.585051
3.107, 7, 69.783, 7.18307, 10.7855, 43.8155, -61.8556, -53.4755, 4.5688, 36.2303, 19.9864, -9.80858, -90.0924, 0.556337
3.112, 7, 69.8347, 7.19248, 10.7864, 43.7986, -61.8174, -53.4469, 4.5557, 36.2252, 19.9508, -9.76366, -90.0871, 0.527285
3.116, 7, 69.8867, 7.20217, 10.7871, 43.7815, -61.779, -53.4182, 4.54239, 36.2203, 19.9147, -9.71844, -90.0818, 0.498014
3.12, 7, 69.9387, 7.21207, 10.7875, 43.7644, -61.7405, -53.3893, 4.52862, 36.2155, 19.8783, -9.67305, -90.0765, 0.468616
3.124, 7, 69.9906, 7.22218, 10.7877, 43.7471, -61.7018, -53.3604, 4.51434, 36.2105, 19.8415, -9.6276, -90.0712, 0.439149
3.128, 7, 70.0423, 7.23247, 10.7877, 43.7297, -61.6631, -53.3313, 4.4997, 36.2054, 19.8044, -9.58214, -90.0659, 0.409642
3.132, 7, 70.0939, 7.24295, 10.7874, 43.7122, -61.6242, -53.3021, 4.48492, 36.2004, 19.7672, -9.53667, -90.0605, 0.380106
3.136, 7, 70.1453, 7.25362, 10.7869, 43.6945, -61.5852, -53.2727, 4.47012, 36.1954, 19.7299, -9.49121, -90.0552, 0.350544
3.14, 7, 70.1966, 7.26447, 10.7862, 43.6768, -61.5461, -53.2433, 4.45531, 36.1905, 19.6925, -9.44576, -90.0498, 0.320957
3.143, 7, 70.2477, 7.27552, 10.7852, 43.6589, -61.5068, -53.2137, 4.44052, 36.1857, 19.6549, -9.40033, -90.0444, 0.291344
3.148, 7, 70.2987, 7.28675, 10.7841, 43.641, -61.4675, -53.184, 4.42573, 36.1809, 19.6173, -9.3549, -90.039, 0.261706
3.152, 7, 70.3495, 7.29816, 10.7826, 43.6229, -61.428, -53.1541, 4.41094, 36.1762, 19.5795, -9.30947, -90.0335, 0.232041
3.156, 7, 70.4002, 7.30977, 10.781, 43.6047, -61.3884, -53.1242, 4.39616, 36.1716, 19.5416, -9.26406, -90.0281, 0.202351
3.16, 7, 70.4507, 7.32156, 10.7791, 43.5864, -61.3487, -53.0941, 4.38139, 36.1671, 19.5037, -9.21866, -90.0226, 0.172636
3.163, 7, 70.5011, 7.33354, 10.777, 43.5679, -61.3088, -53.0639, 4.36662, 36.1626, 19.4655, -9.17327, -90.0172, 0.142894
3.168, 7, 70.5513, 7.3457, 10.7747, 43.5494, -61.2689, -53.0336, 4.35185, 36.1583, 19.4273, -9.12788, -90.0117, 0.113127
3.172, 7, 70.6013, 7.35805, 10.7721, 43.5307, -61.2288, -53.0032, 4.33709, 36.154, 19.389, -9.08251, -90.0062, 0.0833334
3.176, 7, 70.6512, 7.37059, 10.7693, 43.5119, -61.1886, -52.9726, 4.32233, 36.1498, 19.3506, -9.03714, -90.0006, 0.0535141
3.181, 7, 70.701, 7.38331, 10.7663, 43.493, -61.1483, -52.9419, 4.30758, 36.1456, 19.312, -8.99179, -89.9951, 0.0236689
3.189, 7, 70.8, 7.4093, 10.7595, 43.4549, -61.0673, -52.8801, 4.2781, 36.1376, 19.2346, -8.9011, -89.984, -0.0360997
3.189, 7, 70.8, 7.4093, 10.7595, 43.4549, -61.0673, -52.8801, 4.2781, 36.1376, 19.2346, -8.9011, -89.984, -0.0360997
3.192, 7, 70.8493, 7.42258, 10.7558, 43.4356, -61.0266, -52.8491, 4.26336, 36.1337, 19.1957, -8.85578, -89.9784, -0.0660232
3.196, 7, 70.8984, 7.43604, 10.7519, 43.4163, -60.9858, -52.8179, 4.24863, 36.1298, 19.1567, -8.81046, -89.9728, -0.0959728
3.199, 7, 70.9474, 7.44968, 10.7477, 43.3968, -60.9449, -52.7865, 4.23391, 36.1261, 19.1176, -8.76515, -89.9672, -0.125949
3.204, 7, 70.9962, 7.46351, 10.7433, 43.3772, -60.9038, -52.7551, 4.21919, 36.1224, 19.0783, -8.71985, -89.9616, -0.155951
3.208, 7, 71.0449, 7.47752, 10.7387, 43.3574, -60.8627, -52.7235, 4.20447, 36.1188, 19.039, -8.67456, -89.9559, -0.185979
3.212, 7, 71.0934, 7.49171, 10.7339, 43.3376, -60.8214, -52.6918, 4.18976, 36.1153, 18.9995, -8.62928, -89.9502, -0.216034
3.216, 7, 71.1418, 7.50609, 10.7288, 43.3176, -60.78, -52.66, 4.17505, 36.1119, 18.96, -8.58401, -89.9446, -0.246116
3.22, 7, 71.19, 7.52066, 10.7235, 43.2975, -60.7385, -52.628, 4.16035, 36.1085, 18.9203, -8.53875, -89.9389, -0.276224
3.224, 7, 71.238, 7.5354, 10.7179, 43.2773, -60.6969, -52.5959, 4.14566, 36.1052, 18.8805, -8.4935, -89.9332, -0.306358
3.228, 7, 71.2859, 7.55033, 10.7122, 43.2569, -60.6551, -52.5637, 4.13096, 36.102, 18.8406, -8.44826, -89.9274, -0.336519
3.232, 7, 71.3337, 7.56545, 10.7062, 43.2364, -60.6132, -52.5314, 4.11628, 36.0989, 18.8006, -8.40303, -89.9217, -0.366707
3.235, 7, 71.3813, 7.58074, 10.7, 43.2159, -60.5712, -52.4989, 4.10159, 36.0958, 18.7604, -8.35781, -89.9159, -0.396922
3.24, 7, 71.4287, 7.59622, 10.6936, 43.1951, -60.5291, -52.4663, 4.08692, 36.0929, 18.7202, -8.3126, -89.9102, -0.427163
3.244, 7, 71.476, 7.61188, 10.6869, 43.1743, -60.4869, -52.4336, 4.07224, 36.09, 18.6798, -8.2674, -89.9044, -0.457432
3.248, 7, 71.5231, 7.62773, 10.68, 43.1533, -60.4446, -52.4007, 4.05757, 36.0872, 18.6394, -8.22221, -89.8986, -0.487727
3.252, 7, 71.5701, 7.64375, 10.6729, 43.1322, -60.4021, -52.3677, 4.04291, 36.0844, 18.5988, -8.17703, -89.8928, -0.518049
3.255, 7, 71.6169, 7.65996, 10.6655, 43.111, -60.3595, -52.3346, 4.02825, 36.0818, 18.5581, -8.13186, -89.8869, -0.548399
3.26, 7, 71.6636, 7.67635, 10.658, 43.0896, -60.3168, -52.3013, 4.0136, 36.0792, 18.5173, -8.0867, -89.8811, -0.578776
3.264, 7, 71.71, 7.69293, 10.6502, 43.0682, -60.274, -52.2679, 3.99895, 36.0767, 18.4763, -8.04155, -89.8752, -0.60918
3.268, 7, 71.7564, 7.70969, 10.6421, 43.0465, -60.231, -52.2344, 3.9843, 36.0743, 18.4353, -7.99641, -89.8693, -0.639612
3.272, 7, 71.8026, 7.72663, 10.6339, 43.0248, -60.188, -52.2007, 3.96966, 36.0719, 18.3941, -7.95128, -89.8634, -0.670071
3.276, 7, 71.8486, 7.74375, 10.6254, 43.0029, -60.1448, -52.1669, 3.95503, 36.0697, 18.3528, -7.90616, -89.8575, -0.700558
3.284, 7, 71.9402, 7.77854, 10.6077, 42.9588, -60.058, -52.0989, 3.92577, 36.0654, 18.2699, -7.81596, -89.8457, -0.761614
3.284, 7, 71.9402, 7.77854, 10.6077, 42.9588, -60.058, -52.0989, 3.92577, 36.0654, 18.2699, -7.81596, -89.8457, -0.761614
