hehonglu123/Motion-Primitive-Planning/simulation/robotstudio_sim/scripts/fitting_output/curve_1/threshold0.4/curve_exe_v61.5234375_z10.csv
timestamp, cmd_num, J1, J2, J3, J4, J5, J6
0, -1, 11.8385, -6.60126, 28.5603, -150.164, -76.9782, 137.271
0.002, -1, 11.8385, -6.60126, 28.5603, -150.164, -76.9782, 137.271
0.006, -1, 11.8385, -6.60126, 28.5603, -150.164, -76.9782, 137.271
0.008, -1, 11.8385, -6.60126, 28.5603, -150.164, -76.9782, 137.271
0.011, -1, 11.8385, -6.60126, 28.5603, -150.164, -76.9782, 137.271
0.016, -1, 11.8385, -6.60126, 28.5603, -150.164, -76.9782, 137.271
0.02, -1, 11.8385, -6.60126, 28.5603, -150.164, -76.9782, 137.271
0.024, -1, 11.8385, -6.60126, 28.5603, -150.164, -76.9782, 137.271
0.028, -1, 11.8385, -6.60126, 28.5603, -150.164, -76.9782, 137.271
0.032, -1, 11.8385, -6.60126, 28.5603, -150.164, -76.9782, 137.271
0.036, -1, 11.8385, -6.60126, 28.5603, -150.164, -76.9782, 137.271
0.04, -1, 11.8385, -6.60124, 28.5603, -150.164, -76.9782, 137.271
0.044, -1, 11.8382, -6.6012, 28.5603, -150.164, -76.9782, 137.271
0.048, -1, 11.8375, -6.60109, 28.5602, -150.164, -76.9782, 137.271
0.052, -1, 11.8362, -6.60085, 28.5601, -150.164, -76.9782, 137.27
0.056, -1, 11.834, -6.60045, 28.5598, -150.164, -76.9783, 137.27
0.06, -1, 11.8308, -6.59983, 28.5593, -150.164, -76.9784, 137.269
0.064, -1, 11.8263, -6.59894, 28.5586, -150.164, -76.9788, 137.268
0.068, -1, 11.8205, -6.59773, 28.5577, -150.165, -76.9794, 137.265
0.072, -1, 11.813, -6.59615, 28.5565, -150.166, -76.9804, 137.26
0.076, -1, 11.8038, -6.59415, 28.5549, -150.167, -76.9819, 137.254
0.08, -1, 11.7923, -6.59165, 28.5528, -150.168, -76.9841, 137.244
0.084, -1, 11.7782, -6.58859, 28.5502, -150.17, -76.9873, 137.231
0.088, -1, 11.7612, -6.5849, 28.5471, -150.173, -76.9915, 137.213
0.092, -1, 11.741, -6.58056, 28.5432, -150.177, -76.9971, 137.189
0.096, -1, 11.7174, -6.57557, 28.5387, -150.181, -77.0043, 137.159
0.1, -1, 11.6905, -6.56998, 28.5335, -150.187, -77.0132, 137.122
0.104, -1, 11.6601, -6.56379, 28.5276, -150.194, -77.0241, 137.076
0.108, -1, 11.6263, -6.55702, 28.521, -150.203, -77.0372, 137.022
0.112, -1, 11.589, -6.54966, 28.5137, -150.212, -77.0524, 136.959
0.116, -1, 11.548, -6.54169, 28.5056, -150.224, -77.0698, 136.886
0.12, -1, 11.5032, -6.53306, 28.4967, -150.236, -77.0895, 136.805
0.124, -1, 11.4546, -6.52376, 28.4871, -150.25, -77.1112, 136.715
0.128, -1, 11.4024, -6.51378, 28.4767, -150.265, -77.1348, 136.617
0.131, -1, 11.3468, -6.50316, 28.4656, -150.281, -77.1603, 136.512
0.136, -1, 11.288, -6.49193, 28.4539, -150.299, -77.1874, 136.4
0.139, -1, 11.2265, -6.48012, 28.4415, -150.317, -77.2158, 136.283
0.144, -1, 11.1623, -6.46775, 28.4286, -150.336, -77.2454, 136.161
0.148, -1, 11.0956, -6.45481, 28.4152, -150.355, -77.2759, 136.034
0.152, -1, 11.0265, -6.44135, 28.4013, -150.375, -77.3072, 135.905
0.156, -1, 10.9551, -6.42739, 28.387, -150.395, -77.339, 135.774
0.16, -1, 10.8818, -6.41298, 28.3724, -150.416, -77.3711, 135.64
0.164, -1, 10.8067, -6.39821, 28.3574, -150.437, -77.4036, 135.506
0.168, -1, 10.7304, -6.38315, 28.3422, -150.457, -77.4362, 135.371
0.172, -1, 10.653, -6.3679, 28.3269, -150.478, -77.4689, 135.235
0.176, -1, 10.5749, -6.3525, 28.3114, -150.499, -77.5017, 135.099
0.18, -1, 10.4964, -6.33701, 28.2959, -150.52, -77.5346, 134.963
0.184, -1, 10.4176, -6.32145, 28.2803, -150.542, -77.5675, 134.826
0.188, -1, 10.3386, -6.30585, 28.2647, -150.563, -77.6005, 134.69
0.192, -1, 10.2594, -6.29022, 28.2491, -150.584, -77.6334, 134.553
0.196, -1, 10.1801, -6.27457, 28.2335, -150.605, -77.6664, 134.416
0.2, -1, 10.1008, -6.25891, 28.2178, -150.626, -77.6994, 134.279
0.204, -1, 10.0214, -6.24323, 28.2021, -150.647, -77.7324, 134.142
0.208, -1, 9.94192, -6.22755, 28.1865, -150.668, -77.7654, 134.005
0.212, -1, 9.86246, -6.21186, 28.1708, -150.689, -77.7984, 133.868
0.216, -1, 9.78298, -6.19617, 28.1551, -150.711, -77.8314, 133.732
0.22, -1, 9.70348, -6.18048, 28.1394, -150.732, -77.8644, 133.595
0.224, -1, 9.62397, -6.16478, 28.1237, -150.753, -77.8974, 133.458
0.228, -1, 9.54446, -6.14908, 28.1081, -150.774, -77.9305, 133.321
0.232, -1, 9.46493, -6.13338, 28.0924, -150.795, -77.9635, 133.184
0.236, -1, 9.3854, -6.11768, 28.0767, -150.816, -77.9965, 133.047
0.24, -1, 9.30585, -6.10198, 28.061, -150.838, -78.0295, 132.91
0.244, -1, 9.2263, -6.08627, 28.0453, -150.859, -78.0626, 132.773
0.248, -1, 9.14675, -6.07057, 28.0296, -150.88, -78.0956, 132.636
0.252, -1, 9.06719, -6.05486, 28.0139, -150.901, -78.1286, 132.499
0.256, -1, 8.98762, -6.03915, 27.9982, -150.922, -78.1617, 132.361
0.26, -1, 8.90805, -6.02344, 27.9825, -150.943, -78.1947, 132.224
0.264, -1, 8.82847, -6.00773, 27.9668, -150.965, -78.2278, 132.087
0.268, -1, 8.74888, -5.99202, 27.9511, -150.986, -78.2608, 131.95
0.272, -1, 8.66929, -5.9763, 27.9354, -151.007, -78.2939, 131.813
0.276, -1, 8.58969, -5.96059, 27.9197, -151.028, -78.3269, 131.676
0.28, -1, 8.51008, -5.94487, 27.904, -151.049, -78.36, 131.539
0.284, -1, 8.43047, -5.92916, 27.8883, -151.071, -78.393, 131.402
0.288, -1, 8.35085, -5.91344, 27.8726, -151.092, -78.4261, 131.265
0.292, -1, 8.27123, -5.89772, 27.8569, -151.113, -78.4591, 131.128
0.296, -1, 8.1916, -5.882, 27.8412, -151.134, -78.4922, 130.99
0.3, -1, 8.11197, -5.86628, 27.8255, -151.155, -78.5253, 130.853
0.304, -1, 8.03232, -5.85055, 27.8098, -151.176, -78.5583, 130.716
0.308, -1, 7.95267, -5.83483, 27.794, -151.198, -78.5914, 130.579
0.312, -1, 7.87302, -5.8191, 27.7783, -151.219, -78.6245, 130.442
0.316, -1, 7.79336, -5.80338, 27.7626, -151.24, -78.6576, 130.304
0.32, -1, 7.71369, -5.78765, 27.7469, -151.261, -78.6906, 130.167
0.324, -1, 7.63402, -5.77192, 27.7312, -151.282, -78.7237, 130.03
0.328, -1, 7.55434, -5.75619, 27.7155, -151.304, -78.7568, 129.893
0.332, -1, 7.47465, -5.74045, 27.6997, -151.325, -78.7899, 129.755
0.336, -1, 7.39496, -5.72472, 27.684, -151.346, -78.823, 129.618
0.34, -1, 7.31525, -5.70899, 27.6683, -151.367, -78.8561, 129.481
0.344, -1, 7.23555, -5.69325, 27.6526, -151.388, -78.8892, 129.344
0.348, -1, 7.15583, -5.67751, 27.6369, -151.41, -78.9223, 129.206
0.352, -1, 7.07611, -5.66177, 27.6211, -151.431, -78.9554, 129.069
0.356, -1, 6.99639, -5.64603, 27.6054, -151.452, -78.9885, 128.932
0.36, -1, 6.91665, -5.63029, 27.5897, -151.473, -79.0216, 128.794
0.364, -1, 6.83691, -5.61455, 27.5739, -151.495, -79.0547, 128.657
0.368, -1, 6.75717, -5.59881, 27.5582, -151.516, -79.0878, 128.52
0.372, -1, 6.67741, -5.58306, 27.5425, -151.537, -79.1209, 128.382
0.376, -1, 6.59765, -5.56731, 27.5267, -151.558, -79.154, 128.245
0.38, -1, 6.51789, -5.55157, 27.511, -151.579, -79.1872, 128.107
0.384, -1, 6.43811, -5.53582, 27.4953, -151.601, -79.2203, 127.97
0.388, -1, 6.35833, -5.52007, 27.4795, -151.622, -79.2534, 127.833
0.392, -1, 6.27854, -5.50431, 27.4638, -151.643, -79.2865, 127.695
0.396, -1, 6.19875, -5.48856, 27.4481, -151.664, -79.3197, 127.558
0.4, -1, 6.11894, -5.47281, 27.4323, -151.686, -79.3528, 127.42
0.404, -1, 6.03913, -5.45705, 27.4166, -151.707, -79.386, 127.283
0.408, -1, 5.95932, -5.44129, 27.4008, -151.728, -79.4191, 127.145
0.412, -1, 5.87949, -5.42553, 27.3851, -151.749, -79.4522, 127.008
0.416, -1, 5.79966, -5.40977, 27.3693, -151.77, -79.4854, 126.87
0.42, -1, 5.71982, -5.39401, 27.3536, -151.792, -79.5185, 126.733
0.424, -1, 5.63998, -5.37825, 27.3378, -151.813, -79.5517, 126.595
0.428, -1, 5.56013, -5.36248, 27.3221, -151.834, -79.5849, 126.458
0.432, -1, 5.48027, -5.34672, 27.3063, -151.855, -79.618, 126.32
0.436, -1, 5.4004, -5.33095, 27.2906, -151.877, -79.6512, 126.183
0.44, -1, 5.32052, -5.31518, 27.2748, -151.898, -79.6843, 126.045
0.444, -1, 5.24064, -5.29941, 27.2591, -151.919, -79.7175, 125.907
0.448, -1, 5.16075, -5.28364, 27.2433, -151.94, -79.7507, 125.77
0.452, -1, 5.08085, -5.26786, 27.2275, -151.962, -79.7839, 125.632
0.456, -1, 5.00095, -5.25209, 27.2118, -151.983, -79.817, 125.495
0.46, -1, 4.92104, -5.23631, 27.196, -152.004, -79.8502, 125.357
0.464, -1, 4.84112, -5.22053, 27.1802, -152.026, -79.8834, 125.219
0.468, -1, 4.76119, -5.20475, 27.1645, -152.047, -79.9166, 125.082
0.472, -1, 4.68125, -5.18897, 27.1487, -152.068, -79.9498, 124.944
0.476, -1, 4.60131, -5.17319, 27.1329, -152.089, -79.983, 124.806
0.48, -1, 4.52136, -5.15741, 27.1172, -152.111, -80.0162, 124.668
0.484, -1, 4.4414, -5.14162, 27.1014, -152.132, -80.0494, 124.531
0.488, -1, 4.36143, -5.12583, 27.0856, -152.153, -80.0826, 124.393
0.492, -1, 4.28146, -5.11004, 27.0698, -152.174, -80.1158, 124.255
0.496, -1, 4.20147, -5.09425, 27.0541, -152.196, -80.149, 124.117
0.5, -1, 4.12148, -5.07846, 27.0383, -152.217, -80.1822, 123.98
0.504, -1, 4.04148, -5.06267, 27.0225, -152.238, -80.2154, 123.842
0.508, -1, 3.96148, -5.04687, 27.0067, -152.26, -80.2486, 123.704
0.512, -1, 3.88146, -5.03108, 26.9909, -152.281, -80.2819, 123.566
0.516, -1, 3.80144, -5.01528, 26.9752, -152.302, -80.3151, 123.428
0.52, -1, 3.72141, -4.99948, 26.9594, -152.323, -80.3483, 123.291
0.524, -1, 3.64137, -4.98368, 26.9436, -152.345, -80.3816, 123.153
0.528, -1, 3.56133, -4.96787, 26.9278, -152.366, -80.4148, 123.015
0.532, -1, 3.48127, -4.95207, 26.912, -152.387, -80.448, 122.877
0.536, -1, 3.40121, -4.93626, 26.8962, -152.409, -80.4813, 122.739
0.54, -1, 3.32114, -4.92045, 26.8804, -152.43, -80.5145, 122.601
0.544, -1, 3.24106, -4.90464, 26.8646, -152.451, -80.5478, 122.463
0.548, -1, 3.16097, -4.88883, 26.8488, -152.473, -80.581, 122.325
0.552, -1, 3.08088, -4.87302, 26.833, -152.494, -80.6143, 122.187
0.556, -1, 3.00077, -4.85721, 26.8172, -152.515, -80.6476, 122.049
0.56, -1, 2.92066, -4.84139, 26.8014, -152.537, -80.6808, 121.911
0.564, -1, 2.84054, -4.82557, 26.7856, -152.558, -80.7141, 121.773
0.568, -1, 2.76041, -4.80975, 26.7698, -152.579, -80.7474, 121.635
0.572, -1, 2.68028, -4.79393, 26.754, -152.6, -80.7806, 121.497
0.576, -1, 2.60013, -4.77811, 26.7382, -152.622, -80.8139, 121.359
0.58, -1, 2.51998, -4.76229, 26.7224, -152.643, -80.8472, 121.221
0.584, -1, 2.43982, -4.74646, 26.7066, -152.664, -80.8805, 121.083
0.588, -1, 2.35965, -4.73063, 26.6907, -152.686, -80.9138, 120.945
0.592, -1, 2.27947, -4.7148, 26.6749, -152.707, -80.9471, 120.807
0.596, -1, 2.19928, -4.69897, 26.6591, -152.728, -80.9804, 120.669
0.6, -1, 2.11909, -4.68314, 26.6433, -152.75, -81.0136, 120.531
0.604, -1, 2.03888, -4.66731, 26.6275, -152.771, -81.047, 120.392
0.608, -1, 1.95867, -4.65147, 26.6116, -152.792, -81.0803, 120.254
0.612, -1, 1.87845, -4.63563, 26.5958, -152.814, -81.1136, 120.116
0.616, -1, 1.79822, -4.61979, 26.58, -152.835, -81.1469, 119.978
0.62, -1, 1.71798, -4.60395, 26.5642, -152.857, -81.1802, 119.84
0.624, -1, 1.63773, -4.58811, 26.5483, -152.878, -81.2135, 119.701
0.628, -1, 1.55748, -4.57227, 26.5325, -152.899, -81.2468, 119.563
0.632, -1, 1.47721, -4.55642, 26.5167, -152.921, -81.2802, 119.425
0.636, -1, 1.39694, -4.54057, 26.5008, -152.942, -81.3135, 119.287
0.64, -1, 1.31666, -4.52472, 26.485, -152.963, -81.3468, 119.148
0.644, -1, 1.23637, -4.50887, 26.4692, -152.985, -81.3802, 119.01
0.648, -1, 1.15607, -4.49302, 26.4533, -153.006, -81.4135, 118.872
0.652, -1, 1.07576, -4.47716, 26.4375, -153.027, -81.4469, 118.733
0.656, -1, 0.99544, -4.46131, 26.4216, -153.049, -81.4802, 118.595
0.66, -1, 0.915114, -4.44545, 26.4058, -153.07, -81.5136, 118.457
0.664, -1, 0.834779, -4.42959, 26.3899, -153.092, -81.5469, 118.318
0.668, -1, 0.754435, -4.41373, 26.3741, -153.113, -81.5803, 118.18
0.672, -1, 0.674082, -4.39786, 26.3582, -153.134, -81.6137, 118.042
0.676, -1, 0.59372, -4.382, 26.3424, -153.156, -81.647, 117.903
0.68, -1, 0.51335, -4.36613, 26.3265, -153.177, -81.6804, 117.765
0.684, -1, 0.432969, -4.35026, 26.3107, -153.198, -81.7138, 117.626
0.688, -1, 0.35258, -4.33439, 26.2948, -153.22, -81.7471, 117.488
0.692, -1, 0.272182, -4.31852, 26.279, -153.241, -81.7805, 117.349
0.696, -1, 0.191774, -4.30265, 26.2631, -153.263, -81.8139, 117.211
0.7, -1, 0.111357, -4.28677, 26.2472, -153.284, -81.8473, 117.072
0.704, -1, 0.0309304, -4.27089, 26.2314, -153.305, -81.8807, 116.934
0.708, -1, -0.0495054, -4.25501, 26.2155, -153.327, -81.9141, 116.795
0.712, -1, -0.12995, -4.23913, 26.1996, -153.348, -81.9475, 116.657
0.716, -1, -0.210405, -4.22325, 26.1838, -153.37, -81.9809, 116.518
0.72, -1, -0.290869, -4.20736, 26.1679, -153.391, -82.0143, 116.38
0.724, -1, -0.371343, -4.19147, 26.152, -153.412, -82.0477, 116.241
0.728, -1, -0.451826, -4.17558, 26.1361, -153.434, -82.0812, 116.102
0.732, -1, -0.532318, -4.15969, 26.1203, -153.455, -82.1146, 115.964
0.736, -1, -0.61282, -4.1438, 26.1044, -153.477, -82.148, 115.825
0.74, -1, -0.693332, -4.12791, 26.0885, -153.498, -82.1814, 115.686
0.744, -1, -0.773853, -4.11201, 26.0726, -153.52, -82.2149, 115.548
0.748, -1, -0.854384, -4.09611, 26.0567, -153.541, -82.2483, 115.409
0.752, -1, -0.934925, -4.08021, 26.0408, -153.562, -82.2818, 115.27
0.756, -1, -1.01548, -4.06431, 26.0249, -153.584, -82.3152, 115.131
0.76, -1, -1.09604, -4.0484, 26.0091, -153.605, -82.3486, 114.993
0.764, -1, -1.17661, -4.0325, 25.9932, -153.627, -82.3821, 114.854
0.768, -1, -1.25719, -4.01659, 25.9773, -153.648, -82.4156, 114.715
0.772, -1, -1.33778, -4.00068, 25.9614, -153.67, -82.449, 114.576
0.776, -1, -1.41838, -3.98476, 25.9455, -153.691, -82.4825, 114.437
0.78, -1, -1.49899, -3.96885, 25.9296, -153.712, -82.516, 114.299
0.784, -1, -1.57961, -3.95293, 25.9137, -153.734, -82.5494, 114.16
0.788, -1, -1.66024, -3.93702, 25.8978, -153.755, -82.5829, 114.021
0.792, -1, -1.74088, -3.9211, 25.8818, -153.777, -82.6164, 113.882
0.796, -1, -1.82153, -3.90517, 25.8659, -153.798, -82.6499, 113.743
0.8, -1, -1.90219, -3.88925, 25.85, -153.82, -82.6834, 113.604
0.804, -1, -1.98286, -3.87332, 25.8341, -153.841, -82.7169, 113.465
0.808, -1, -2.06354, -3.85739, 25.8182, -153.863, -82.7504, 113.326
0.812, -1, -2.14423, -3.84146, 25.8023, -153.884, -82.7839, 113.187
0.816, -1, -2.22493, -3.82553, 25.7864, -153.906, -82.8174, 113.048
0.82, -1, -2.30564, -3.8096, 25.7704, -153.927, -82.8509, 112.909
0.824, -1, -2.38636, -3.79366, 25.7545, -153.949, -82.8844, 112.77
0.828, -1, -2.4671, -3.77772, 25.7386, -153.97, -82.9179, 112.631
0.832, -1, -2.54784, -3.76178, 25.7227, -153.992, -82.9515, 112.492
0.836, -1, -2.62859, -3.74584, 25.7067, -154.013, -82.985, 112.353
0.84, -1, -2.70935, -3.7299, 25.6908, -154.035, -83.0185, 112.214
0.844, -1, -2.79012, -3.71395, 25.6749, -154.056, -83.0521, 112.075
0.848, -1, -2.87091, -3.698, 25.6589, -154.078, -83.0856, 111.935
0.852, -1, -2.9517, -3.68205, 25.643, -154.099, -83.1192, 111.796
0.856, -1, -3.0325, -3.6661, 25.6271, -154.12, -83.1527, 111.657
0.86, -1, -3.11332, -3.65015, 25.6111, -154.142, -83.1863, 111.518
0.864, -1, -3.19414, -3.63419, 25.5952, -154.164, -83.2198, 111.379
0.868, -1, -3.27498, -3.61823, 25.5792, -154.185, -83.2534, 111.239
0.872, -1, -3.35582, -3.60227, 25.5633, -154.207, -83.287, 111.1
0.876, -1, -3.43668, -3.58631, 25.5473, -154.228, -83.3205, 110.961
0.88, -1, -3.51754, -3.57034, 25.5314, -154.25, -83.3541, 110.822
0.884, -1, -3.59842, -3.55438, 25.5154, -154.271, -83.3877, 110.682
0.888, -1, -3.6793, -3.53841, 25.4995, -154.293, -83.4213, 110.543
0.892, -1, -3.7602, -3.52244, 25.4835, -154.314, -83.4549, 110.404
0.896, -1, -3.84111, -3.50646, 25.4675, -154.336, -83.4885, 110.264
0.9, -1, -3.92203, -3.49049, 25.4516, -154.357, -83.5221, 110.125
0.904, -1, -4.00296, -3.47451, 25.4356, -154.379, -83.5557, 109.986
0.908, -1, -4.0839, -3.45853, 25.4196, -154.4, -83.5893, 109.846
0.912, -1, -4.16485, -3.44255, 25.4037, -154.422, -83.6229, 109.707
0.916, -1, -4.24581, -3.42657, 25.3877, -154.443, -83.6565, 109.567
0.92, -1, -4.32678, -3.41058, 25.3717, -154.465, -83.6901, 109.428
0.924, -1, -4.40776, -3.39459, 25.3558, -154.486, -83.7238, 109.288
0.928, -1, -4.48876, -3.3786, 25.3398, -154.508, -83.7574, 109.149
0.932, -1, -4.56976, -3.36261, 25.3238, -154.53, -83.791, 109.009
0.936, -1, -4.65077, -3.34662, 25.3078, -154.551, -83.8247, 108.87
0.94, -1, -4.7318, -3.33062, 25.2918, -154.573, -83.8583, 108.73
0.944, -1, -4.81284, -3.31462, 25.2759, -154.594, -83.892, 108.591
0.948, -1, -4.89388, -3.29862, 25.2599, -154.616, -83.9256, 108.451
0.952, -1, -4.97494, -3.28262, 25.2439, -154.637, -83.9593, 108.311
0.956, -1, -5.05601, -3.26661, 25.2279, -154.659, -83.9929, 108.172
0.96, -1, -5.13709, -3.25061, 25.2119, -154.68, -84.0266, 108.032
0.964, -1, -5.21818, -3.2346, 25.1959, -154.702, -84.0603, 107.892
0.968, -1, -5.29928, -3.21859, 25.1799, -154.724, -84.0939, 107.753
0.972, -1, -5.38039, -3.20257, 25.1639, -154.745, -84.1276, 107.613
0.976, -1, -5.46151, -3.18656, 25.1479, -154.767, -84.1613, 107.473
0.98, -1, -5.54265, -3.17054, 25.1319, -154.788, -84.195, 107.333
0.984, -1, -5.62379, -3.15452, 25.1159, -154.81, -84.2287, 107.194
0.988, -1, -5.70495, -3.1385, 25.0999, -154.832, -84.2624, 107.054
0.992, -1, -5.78612, -3.12247, 25.0839, -154.853, -84.2961, 106.914
0.996, -1, -5.86729, -3.10645, 25.0678, -154.875, -84.3298, 106.774
1, -1, -5.94848, -3.09042, 25.0518, -154.896, -84.3635, 106.634
1.004, -1, -6.02968, -3.07439, 25.0358, -154.918, -84.3972, 106.495
1.008, -1, -6.1109, -3.05836, 25.0198, -154.94, -84.4309, 106.355
1.012, -1, -6.19212, -3.04232, 25.0038, -154.961, -84.4647, 106.215
1.016, -1, -6.27335, -3.02628, 24.9877, -154.983, -84.4984, 106.075
1.02, -1, -6.3546, -3.01024, 24.9717, -155.004, -84.5321, 105.935
1.024, -1, -6.43585, -2.9942, 24.9557, -155.026, -84.5659, 105.795
1.027, -1, -6.51712, -2.97816, 24.9397, -155.048, -84.5996, 105.655
1.032, -1, -6.5984, -2.96211, 24.9236, -155.069, -84.6334, 105.515
1.036, -1, -6.67969, -2.94606, 24.9076, -155.091, -84.6671, 105.375
1.04, -1, -6.76099, -2.93001, 24.8916, -155.113, -84.7009, 105.235
1.044, -1, -6.8423, -2.91396, 24.8755, -155.134, -84.7346, 105.095
1.048, -1, -6.92363, -2.8979, 24.8595, -155.156, -84.7684, 104.955
1.052, -1, -7.00496, -2.88185, 24.8434, -155.177, -84.8022, 104.815
1.055, -1, -7.08631, -2.86579, 24.8274, -155.199, -84.836, 104.675
1.06, -1, -7.16767, -2.84973, 24.8113, -155.221, -84.8697, 104.534
1.064, -1, -7.24904, -2.83366, 24.7953, -155.242, -84.9035, 104.394
1.068, -1, -7.33042, -2.8176, 24.7792, -155.264, -84.9373, 104.254
1.072, -1, -7.41181, -2.80153, 24.7632, -155.286, -84.9711, 104.114
1.076, -1, -7.49322, -2.78546, 24.7471, -155.307, -85.0049, 103.974
1.08, -1, -7.57463, -2.76938, 24.7311, -155.329, -85.0387, 103.833
1.084, -1, -7.65606, -2.75331, 24.715, -155.351, -85.0725, 103.693
1.088, -1, -7.7375, -2.73723, 24.6989, -155.372, -85.1063, 103.553
1.091, -1, -7.81895, -2.72115, 24.6829, -155.394, -85.1402, 103.413
1.096, -1, -7.90042, -2.70507, 24.6668, -155.416, -85.174, 103.272
1.1, -1, -7.98189, -2.68898, 24.6507, -155.437, -85.2078, 103.132
1.104, -1, -8.06338, -2.67289, 24.6346, -155.459, -85.2417, 102.992
1.108, -1, -8.14488, -2.6568, 24.6186, -155.481, -85.2755, 102.851
1.112, -1, -8.22639, -2.64071, 24.6025, -155.502, -85.3093, 102.711
1.116, -1, -8.30791, -2.62462, 24.5864, -155.524, -85.3432, 102.57
1.119, -1, -8.38945, -2.60852, 24.5703, -155.546, -85.377, 102.43
1.124, -1, -8.471, -2.59242, 24.5542, -155.568, -85.4109, 102.289
1.128, -1, -8.55256, -2.57632, 24.5381, -155.589, -85.4448, 102.149
1.132, -1, -8.63413, -2.56021, 24.522, -155.611, -85.4786, 102.009
1.136, -1, -8.71571, -2.54411, 24.506, -155.633, -85.5125, 101.868
1.14, -1, -8.79731, -2.528, 24.4899, -155.654, -85.5464, 101.727
1.144, -1, -8.87892, -2.51189, 24.4738, -155.676, -85.5803, 101.587
1.147, -1, -8.96054, -2.49577, 24.4577, -155.698, -85.6142, 101.446
1.152, -1, -9.04217, -2.47966, 24.4416, -155.72, -85.6481, 101.306
1.156, -1, -9.12381, -2.46354, 24.4255, -155.741, -85.682, 101.165
1.16, -1, -9.20547, -2.44742, 24.4093, -155.763, -85.7159, 101.024
1.164, -1, -9.28714, -2.4313, 24.3932, -155.785, -85.7498, 100.884
1.168, -1, -9.36882, -2.41517, 24.3771, -155.806, -85.7837, 100.743
1.172, -1, -9.45052, -2.39904, 24.361, -155.828, -85.8176, 100.602
1.175, -1, -9.53222, -2.38291, 24.3449, -155.85, -85.8516, 100.462
1.18, -1, -9.61394, -2.36678, 24.3288, -155.872, -85.8855, 100.321
1.184, -1, -9.69567, -2.35064, 24.3126, -155.893, -85.9194, 100.18
1.188, -1, -9.77742, -2.3345, 24.2965, -155.915, -85.9534, 100.039
1.192, -1, -9.85917, -2.31836, 24.2804, -155.937, -85.9873, 99.8984
1.196, -1, -9.94094, -2.30222, 24.2643, -155.959, -86.0213, 99.7576
1.2, -1, -10.0227, -2.28608, 24.2481, -155.98, -86.0552, 99.6167
1.204, -1, -10.1045, -2.26993, 24.232, -156.002, -86.0892, 99.4758
1.208, -1, -10.1863, -2.25378, 24.2159, -156.024, -86.1231, 99.3349
1.212, -1, -10.2681, -2.23762, 24.1997, -156.046, -86.1571, 99.194
1.216, -1, -10.35, -2.22147, 24.1836, -156.067, -86.1911, 99.053
1.22, -1, -10.4318, -2.20531, 24.1674, -156.089, -86.2251, 98.912
1.224, -1, -10.5137, -2.18915, 24.1513, -156.111, -86.2591, 98.771
1.228, -1, -10.5955, -2.17299, 24.1351, -156.133, -86.2931, 98.63
1.232, -1, -10.6774, -2.15682, 24.119, -156.155, -86.3271, 98.489
1.236, -1, -10.7593, -2.14066, 24.1028, -156.176, -86.3611, 98.3479
1.24, -1, -10.8412, -2.12449, 24.0867, -156.198, -86.3951, 98.2069
1.244, -1, -10.9231, -2.10831, 24.0705, -156.22, -86.4291, 98.0658
1.248, -1, -11.0051, -2.09214, 24.0543, -156.242, -86.4631, 97.9246
1.252, -1, -11.087, -2.07596, 24.0382, -156.264, -86.4971, 97.7835
1.256, -1, -11.169, -2.05978, 24.022, -156.285, -86.5312, 97.6423
1.26, -1, -11.2509, -2.0436, 24.0058, -156.307, -86.5652, 97.5011
1.264, -1, -11.3329, -2.02742, 23.9897, -156.329, -86.5992, 97.3599
1.267, -1, -11.4149, -2.01123, 23.9735, -156.351, -86.6333, 97.2187
1.272, -1, -11.4969, -1.99504, 23.9573, -156.373, -86.6673, 97.0774
1.276, -1, -11.5789, -1.97885, 23.9411, -156.394, -86.7014, 96.9362
1.28, -1, -11.661, -1.96265, 23.925, -156.416, -86.7355, 96.7949
1.284, -1, -11.743, -1.94645, 23.9088, -156.438, -86.7695, 96.6535
1.288, -1, -11.8251, -1.93025, 23.8926, -156.46, -86.8036, 96.5122
1.292, -1, -11.9071, -1.91405, 23.8764, -156.482, -86.8377, 96.3708
1.295, -1, -11.9892, -1.89785, 23.8602, -156.504, -86.8718, 96.2295
1.3, -1, -12.0713, -1.88164, 23.844, -156.525, -86.9058, 96.088
1.304, -1, -12.1534, -1.86543, 23.8278, -156.547, -86.9399, 95.9466
1.308, -1, -12.2355, -1.84922, 23.8116, -156.569, -86.974, 95.8052
1.312, -1, -12.3177, -1.833, 23.7954, -156.591, -87.0081, 95.6637
1.316, -1, -12.3998, -1.81678, 23.7792, -156.613, -87.0423, 95.5222
1.32, -1, -12.482, -1.80056, 23.763, -156.635, -87.0764, 95.3807
1.324, -1, -12.5641, -1.78434, 23.7468, -156.657, -87.1105, 95.2391
1.328, -1, -12.6463, -1.76812, 23.7306, -156.679, -87.1446, 95.0976
1.332, -1, -12.7285, -1.75189, 23.7144, -156.7, -87.1787, 94.956
1.336, -1, -12.8107, -1.73566, 23.6981, -156.722, -87.2129, 94.8144
1.34, -1, -12.893, -1.71943, 23.6819, -156.744, -87.247, 94.6728
1.344, -1, -12.9752, -1.70319, 23.6657, -156.766, -87.2812, 94.5311
1.348, -1, -13.0575, -1.68695, 23.6495, -156.788, -87.3153, 94.3894
1.352, -1, -13.1397, -1.67071, 23.6333, -156.81, -87.3495, 94.2477
1.356, -1, -13.222, -1.65447, 23.617, -156.832, -87.3836, 94.106
1.36, -1, -13.3043, -1.63822, 23.6008, -156.854, -87.4178, 93.9643
1.364, -1, -13.3866, -1.62198, 23.5846, -156.875, -87.452, 93.8225
1.368, -1, -13.4689, -1.60573, 23.5683, -156.897, -87.4862, 93.6807
1.372, -1, -13.5512, -1.58947, 23.5521, -156.919, -87.5203, 93.5389
1.376, -1, -13.6336, -1.57322, 23.5358, -156.941, -87.5545, 93.3971
1.38, -1, -13.7159, -1.55696, 23.5196, -156.963, -87.5887, 93.2553
1.384, -1, -13.7983, -1.5407, 23.5033, -156.985, -87.6229, 93.1134
1.388, -1, -13.8807, -1.52443, 23.4871, -157.007, -87.6571, 92.9715
1.392, -1, -13.963, -1.50817, 23.4708, -157.029, -87.6913, 92.8296
1.396, -1, -14.0455, -1.4919, 23.4546, -157.051, -87.7256, 92.6876
1.4, -1, -14.1279, -1.47563, 23.4383, -157.073, -87.7598, 92.5457
1.404, -1, -14.2103, -1.45935, 23.4221, -157.095, -87.794, 92.4037
1.408, -1, -14.2928, -1.44308, 23.4058, -157.117, -87.8283, 92.2617
1.412, -1, -14.3752, -1.4268, 23.3895, -157.139, -87.8625, 92.1196
1.416, -1, -14.4577, -1.41052, 23.3733, -157.16, -87.8967, 91.9776
1.42, -1, -14.5402, -1.39423, 23.357, -157.182, -87.931, 91.8355
1.424, -1, -14.6227, -1.37795, 23.3407, -157.204, -87.9652, 91.6934
1.428, -1, -14.7052, -1.36166, 23.3244, -157.226, -87.9995, 91.5513
1.432, -1, -14.7877, -1.34537, 23.3082, -157.248, -88.0338, 91.4091
1.436, -1, -14.8702, -1.32907, 23.2919, -157.27, -88.068, 91.267
1.44, -1, -14.9528, -1.31277, 23.2756, -157.292, -88.1023, 91.1248
1.444, -1, -15.0354, -1.29647, 23.2593, -157.314, -88.1366, 90.9826
1.448, -1, -15.1179, -1.28017, 23.243, -157.336, -88.1709, 90.8403
1.452, -1, -15.2005, -1.26386, 23.2267, -157.358, -88.2052, 90.6981
1.456, -1, -15.2831, -1.24756, 23.2104, -157.38, -88.2395, 90.5558
1.46, -1, -15.3657, -1.23125, 23.1941, -157.402, -88.2738, 90.4135
1.464, -1, -15.4484, -1.21493, 23.1778, -157.424, -88.3081, 90.2711
1.468, -1, -15.531, -1.19862, 23.1615, -157.446, -88.3424, 90.1288
1.472, -1, -15.6137, -1.1823, 23.1452, -157.468, -88.3767, 89.9864
1.476, -1, -15.6964, -1.16598, 23.1289, -157.49, -88.4111, 89.844
1.48, -1, -15.7791, -1.14965, 23.1126, -157.512, -88.4454, 89.7016
1.484, -1, -15.8618, -1.13332, 23.0963, -157.534, -88.4797, 89.5591
1.488, -1, -15.9445, -1.11699, 23.08, -157.556, -88.5141, 89.4166
1.492, -1, -16.0272, -1.10066, 23.0637, -157.578, -88.5484, 89.2741
1.496, -1, -16.1099, -1.08433, 23.0473, -157.6, -88.5828, 89.1316
1.5, -1, -16.1927, -1.06799, 23.031, -157.622, -88.6171, 88.9891
1.504, -1, -16.2755, -1.05165, 23.0147, -157.644, -88.6515, 88.8465
1.508, -1, -16.3582, -1.0353, 22.9984, -157.666, -88.6859, 88.7039
1.512, -1, -16.441, -1.01896, 22.982, -157.688, -88.7203, 88.5613
1.516, -1, -16.5239, -1.00261, 22.9657, -157.71, -88.7547, 88.4186
1.52, -1, -16.6067, -0.986258, 22.9493, -157.732, -88.789, 88.276
1.524, -1, -16.6895, -0.969904, 22.933, -157.754, -88.8234, 88.1333
1.528, -1, -16.7724, -0.953546, 22.9167, -157.776, -88.8578, 87.9906
1.532, -1, -16.8552, -0.937187, 22.9003, -157.798, -88.8923, 87.8478
1.536, -1, -16.9381, -0.920824, 22.884, -157.82, -88.9267, 87.7051
1.54, -1, -17.021, -0.904458, 22.8676, -157.842, -88.9611, 87.5623
1.544, -1, -17.1039, -0.88809, 22.8513, -157.865, -88.9955, 87.4195
1.548, -1, -17.1869, -0.871719, 22.8349, -157.887, -89.0299, 87.2766
1.552, -1, -17.2698, -0.855346, 22.8185, -157.909, -89.0644, 87.1338
1.556, -1, -17.3527, -0.838969, 22.8022, -157.931, -89.0988, 86.9909
1.56, -1, -17.4357, -0.82259, 22.7858, -157.953, -89.1333, 86.848
1.564, -1, -17.5187, -0.806208, 22.7694, -157.975, -89.1677, 86.7051
1.568, -1, -17.6017, -0.789823, 22.7531, -157.997, -89.2022, 86.5621
1.572, -1, -17.6847, -0.773436, 22.7367, -158.019, -89.2367, 86.4191
1.576, -1, -17.7677, -0.757046, 22.7203, -158.041, -89.2711, 86.2761
1.58, -1, -17.8508, -0.740653, 22.7039, -158.063, -89.3056, 86.1331
1.584, -1, -17.9338, -0.724257, 22.6875, -158.085, -89.3401, 85.9901
1.588, -1, -18.0169, -0.707858, 22.6712, -158.107, -89.3746, 85.847
1.592, -1, -18.0999, -0.691457, 22.6548, -158.13, -89.4091, 85.7039
1.596, -1, -18.183, -0.675053, 22.6384, -158.152, -89.4436, 85.5608
1.6, -1, -18.2661, -0.658646, 22.622, -158.174, -89.4781, 85.4176
1.604, -1, -18.3493, -0.642236, 22.6056, -158.196, -89.5126, 85.2744
1.608, -1, -18.4324, -0.625824, 22.5892, -158.218, -89.5471, 85.1312
1.612, -1, -18.5155, -0.609409, 22.5728, -158.24, -89.5817, 84.988
1.616, -1, -18.5987, -0.592991, 22.5564, -158.262, -89.6162, 84.8448
1.62, -1, -18.6819, -0.57657, 22.54, -158.284, -89.6507, 84.7015
1.624, -1, -18.7651, -0.560147, 22.5236, -158.307, -89.6853, 84.5582
1.628, -1, -18.8483, -0.54372, 22.5072, -158.329, -89.7198, 84.4149
1.632, -1, -18.9315, -0.527291, 22.4907, -158.351, -89.7544, 84.2716
1.636, -1, -19.0147, -0.51086, 22.4743, -158.373, -89.7889, 84.1282
1.64, -1, -19.098, -0.494425, 22.4579, -158.395, -89.8235, 83.9848
1.644, -1, -19.1812, -0.477988, 22.4415, -158.417, -89.8581, 83.8414
1.648, -1, -19.2645, -0.461548, 22.425, -158.439, -89.8926, 83.6979
1.652, -1, -19.3478, -0.445105, 22.4086, -158.462, -89.9272, 83.5545
1.656, -1, -19.4311, -0.428659, 22.3922, -158.484, -89.9618, 83.411
1.66, -1, -19.5144, -0.41221, 22.3757, -158.506, -89.9964, 83.2675
1.664, -1, -19.5977, -0.395759, 22.3593, -158.528, -90.031, 83.124
1.668, -1, -19.6811, -0.379305, 22.3429, -158.55, -90.0656, 82.9804
1.672, -1, -19.7645, -0.362848, 22.3264, -158.572, -90.1002, 82.8368
1.676, -1, -19.8478, -0.346388, 22.31, -158.595, -90.1348, 82.6932
1.68, -1, -19.9312, -0.329926, 22.2935, -158.617, -90.1695, 82.5496
1.684, -1, -20.0146, -0.313461, 22.2771, -158.639, -90.2041, 82.4059
1.688, -1, -20.098, -0.296993, 22.2606, -158.661, -90.2387, 82.2622
1.692, -1, -20.1815, -0.280522, 22.2442, -158.683, -90.2734, 82.1185
1.696, -1, -20.2649, -0.264048, 22.2277, -158.706, -90.308, 81.9748
1.7, -1, -20.3484, -0.247572, 22.2112, -158.728, -90.3427, 81.831
1.704, -1, -20.4318, -0.231093, 22.1948, -158.75, -90.3773, 81.6873
1.708, -1, -20.5153, -0.214611, 22.1783, -158.772, -90.412, 81.5434
1.712, -1, -20.5988, -0.198126, 22.1618, -158.794, -90.4467, 81.3996
1.716, -1, -20.6823, -0.181638, 22.1454, -158.817, -90.4814, 81.2558
1.72, -1, -20.7659, -0.165148, 22.1289, -158.839, -90.516, 81.1119
1.724, -1, -20.8494, -0.148655, 22.1124, -158.861, -90.5507, 80.968
1.728, -1, -20.933, -0.132159, 22.0959, -158.883, -90.5854, 80.8241
1.732, -1, -21.0165, -0.11566, 22.0794, -158.906, -90.6201, 80.6801
1.736, -1, -21.1001, -0.0991582, 22.0629, -158.928, -90.6548, 80.5361
1.74, -1, -21.1837, -0.0826537, 22.0465, -158.95, -90.6896, 80.3921
1.744, -1, -21.2673, -0.0661465, 22.03, -158.972, -90.7243, 80.2481
1.748, -1, -21.351, -0.0496364, 22.0135, -158.995, -90.759, 80.1041
1.752, -1, -21.4346, -0.0331236, 21.997, -159.017, -90.7937, 79.96
1.756, -1, -21.5183, -0.0166079, 21.9805, -159.039, -90.8285, 79.8159
1.76, -1, -21.6019, -8.94064E-5, 21.964, -159.061, -90.8632, 79.6718
1.764, -1, -21.6856, 0.0164319, 21.9474, -159.084, -90.8979, 79.5276
1.768, -1, -21.7693, 0.0329561, 21.9309, -159.106, -90.9327, 79.3835
1.772, -1, -21.853, 0.049483, 21.9144, -159.128, -90.9675, 79.2393
1.776, -1, -21.9368, 0.0660129, 21.8979, -159.15, -91.0022, 79.095
1.78, -1, -22.0205, 0.0825455, 21.8814, -159.173, -91.037, 78.9508
1.784, -1, -22.1043, 0.0990811, 21.8649, -159.195, -91.0718, 78.8065
1.788, -1, -22.188, 0.115619, 21.8483, -159.217, -91.1066, 78.6622
1.792, -1, -22.2718, 0.132161, 21.8318, -159.24, -91.1413, 78.5179
1.796, -1, -22.3556, 0.148705, 21.8153, -159.262, -91.1761, 78.3736
1.8, -1, -22.4394, 0.165252, 21.7987, -159.284, -91.211, 78.2292
1.804, -1, -22.5233, 0.181801, 21.7822, -159.307, -91.2458, 78.0848
1.808, -1, -22.6071, 0.198354, 21.7657, -159.329, -91.2806, 77.9404
1.812, -1, -22.691, 0.21491, 21.7491, -159.351, -91.3154, 77.7959
1.816, -1, -22.7748, 0.231468, 21.7326, -159.373, -91.3502, 77.6515
1.82, -1, -22.8587, 0.24803, 21.716, -159.396, -91.385, 77.507
1.824, -1, -22.9426, 0.264594, 21.6995, -159.418, -91.4199, 77.3625
1.828, -1, -23.0266, 0.281161, 21.6829, -159.44, -91.4547, 77.2179
1.832, -1, -23.1105, 0.297731, 21.6664, -159.463, -91.4896, 77.0733
1.836, -1, -23.1944, 0.314304, 21.6498, -159.485, -91.5244, 76.9287
1.84, -1, -23.2784, 0.33088, 21.6332, -159.507, -91.5593, 76.7841
1.844, -1, -23.3624, 0.347459, 21.6167, -159.53, -91.5942, 76.6395
1.848, -1, -23.4464, 0.36404, 21.6001, -159.552, -91.6291, 76.4948
1.852, -1, -23.5304, 0.380625, 21.5835, -159.574, -91.6639, 76.3501
1.856, -1, -23.6144, 0.397213, 21.567, -159.597, -91.6988, 76.2054
1.86, -1, -23.6984, 0.413803, 21.5504, -159.619, -91.7337, 76.0606
1.864, -1, -23.7825, 0.430396, 21.5338, -159.642, -91.7686, 75.9159
1.868, -1, -23.8666, 0.446993, 21.5172, -159.664, -91.8035, 75.771
1.872, -1, -23.9506, 0.463592, 21.5006, -159.686, -91.8384, 75.6262
1.876, -1, -24.0347, 0.480194, 21.4841, -159.709, -91.8734, 75.4814
1.88, -1, -24.1188, 0.496799, 21.4675, -159.731, -91.9083, 75.3365
1.884, -1, -24.203, 0.513408, 21.4509, -159.753, -91.9432, 75.1916
1.888, -1, -24.2871, 0.530019, 21.4343, -159.776, -91.9781, 75.0467
1.892, -1, -24.3713, 0.546632, 21.4177, -159.798, -92.0131, 74.9017
1.896, -1, -24.4554, 0.563249, 21.4011, -159.821, -92.048, 74.7567
1.9, -1, -24.5396, 0.579869, 21.3845, -159.843, -92.083, 74.6117
1.904, -1, -24.6238, 0.596492, 21.3678, -159.865, -92.118, 74.4667
1.908, -1, -24.708, 0.613117, 21.3512, -159.888, -92.1529, 74.3216
1.912, -1, -24.7923, 0.629746, 21.3346, -159.91, -92.1879, 74.1765
1.916, -1, -24.8765, 0.646377, 21.318, -159.933, -92.2229, 74.0314
1.92, -1, -24.9608, 0.663012, 21.3014, -159.955, -92.2579, 73.8863
1.924, -1, -25.045, 0.679649, 21.2848, -159.977, -92.2929, 73.7411
1.928, -1, -25.1293, 0.696289, 21.2681, -160, -92.3279, 73.596
1.932, -1, -25.2136, 0.712932, 21.2515, -160.022, -92.3629, 73.4508
1.936, -1, -25.2979, 0.729579, 21.2349, -160.045, -92.3979, 73.3055
1.94, -1, -25.3823, 0.746228, 21.2182, -160.067, -92.4329, 73.1603
1.944, -1, -25.4666, 0.762879, 21.2016, -160.09, -92.4679, 73.015
1.948, -1, -25.551, 0.779534, 21.1849, -160.112, -92.5029, 72.8697
1.952, -1, -25.6354, 0.796192, 21.1683, -160.135, -92.538, 72.7243
1.956, -1, -25.7197, 0.812853, 21.1517, -160.157, -92.573, 72.579
1.96, -1, -25.8041, 0.829516, 21.135, -160.179, -92.6081, 72.4336
1.964, -1, -25.8886, 0.846183, 21.1184, -160.202, -92.6431, 72.2882
1.968, -1, -25.973, 0.862852, 21.1017, -160.224, -92.6782, 72.1427
1.972, -1, -26.0575, 0.879524, 21.085, -160.247, -92.7132, 71.9973
1.976, -1, -26.1419, 0.896199, 21.0684, -160.269, -92.7483, 71.8518
1.98, -1, -26.2264, 0.912877, 21.0517, -160.292, -92.7834, 71.7063
1.984, -1, -26.3109, 0.929558, 21.035, -160.314, -92.8185, 71.5607
1.988, -1, -26.3954, 0.946242, 21.0184, -160.337, -92.8536, 71.4151
1.992, -1, -26.4799, 0.962929, 21.0017, -160.359, -92.8887, 71.2696
1.996, -1, -26.5645, 0.979619, 20.985, -160.382, -92.9238, 71.1239
1.999, -1, -26.649, 0.996311, 20.9683, -160.404, -92.9589, 70.9783
2.004, -1, -26.7336, 1.01301, 20.9517, -160.427, -92.994, 70.8326
2.008, -1, -26.8182, 1.02971, 20.935, -160.449, -93.0291, 70.6869
2.012, -1, -26.9028, 1.04641, 20.9183, -160.472, -93.0642, 70.5412
2.015, -1, -26.9874, 1.06311, 20.9016, -160.494, -93.0994, 70.3955
2.019, -1, -27.072, 1.07982, 20.8849, -160.517, -93.1345, 70.2497
2.024, -1, -27.1566, 1.09653, 20.8682, -160.539, -93.1697, 70.1039
2.028, -1, -27.2413, 1.11324, 20.8515, -160.562, -93.2048, 69.9581
2.031, -1, -27.326, 1.12996, 20.8348, -160.584, -93.24, 69.8123
2.036, -1, -27.4107, 1.14668, 20.8181, -160.607, -93.2751, 69.6664
2.04, -1, -27.4954, 1.1634, 20.8014, -160.629, -93.3103, 69.5205
2.044, -1, -27.5801, 1.18012, 20.7847, -160.652, -93.3455, 69.3746
2.048, -1, -27.6648, 1.19685, 20.768, -160.675, -93.3807, 69.2286
2.051, -1, -27.7495, 1.21358, 20.7512, -160.697, -93.4158, 69.0827
2.055, -1, -27.8343, 1.23031, 20.7345, -160.72, -93.451, 68.9367
2.06, -1, -27.9191, 1.24705, 20.7178, -160.742, -93.4862, 68.7906
2.064, -1, -28.0039, 1.26379, 20.7011, -160.765, -93.5215, 68.6446
2.068, -1, -28.0887, 1.28053, 20.6844, -160.787, -93.5567, 68.4985
2.071, -1, -28.1735, 1.29727, 20.6676, -160.81, -93.5919, 68.3524
2.076, -1, -28.2583, 1.31402, 20.6509, -160.832, -93.6271, 68.2063
2.08, -1, -28.3432, 1.33077, 20.6341, -160.855, -93.6623, 68.0602
2.084, -1, -28.428, 1.34752, 20.6174, -160.878, -93.6976, 67.914
2.087, -1, -28.5129, 1.36428, 20.6007, -160.9, -93.7328, 67.7678
2.092, -1, -28.5978, 1.38104, 20.5839, -160.923, -93.7681, 67.6216
2.096, -1, -28.6827, 1.3978, 20.5672, -160.945, -93.8033, 67.4753
2.1, -1, -28.7676, 1.41457, 20.5504, -160.968, -93.8386, 67.3291
2.104, -1, -28.8526, 1.43133, 20.5337, -160.991, -93.8738, 67.1828
2.107, -1, -28.9375, 1.44811, 20.5169, -161.013, -93.9091, 67.0364
2.111, -1, -29.0225, 1.46488, 20.5001, -161.036, -93.9444, 66.8901
2.116, -1, -29.1074, 1.48165, 20.4834, -161.058, -93.9797, 66.7437
2.12, -1, -29.1924, 1.49843, 20.4666, -161.081, -94.015, 66.5973
2.124, -1, -29.2774, 1.51522, 20.4499, -161.104, -94.0503, 66.4509
2.127, -1, -29.3625, 1.532, 20.4331, -161.126, -94.0856, 66.3044
2.132, -1, -29.4475, 1.54879, 20.4163, -161.149, -94.1209, 66.158
2.136, -1, -29.5325, 1.56558, 20.3995, -161.172, -94.1562, 66.0115
2.14, -1, -29.6176, 1.58237, 20.3827, -161.194, -94.1915, 65.865
2.143, -1, -29.7027, 1.59917, 20.366, -161.217, -94.2268, 65.7184
2.148, -1, -29.7878, 1.61597, 20.3492, -161.239, -94.2622, 65.5718
2.152, -1, -29.8729, 1.63277, 20.3324, -161.262, -94.2975, 65.4252
2.156, -1, -29.958, 1.64957, 20.3156, -161.285, -94.3329, 65.2786
2.16, -1, -30.0432, 1.66638, 20.2988, -161.307, -94.3682, 65.132
2.163, -1, -30.1283, 1.68319, 20.282, -161.33, -94.4036, 64.9853
2.168, -1, -30.2135, 1.70001, 20.2652, -161.353, -94.4389, 64.8386
2.172, -1, -30.2987, 1.71682, 20.2484, -161.375, -94.4743, 64.6919
2.176, -1, -30.3839, 1.73364, 20.2316, -161.398, -94.5097, 64.5451
2.179, -1, -30.4691, 1.75047, 20.2148, -161.421, -94.5451, 64.3983
2.184, -1, -30.5543, 1.76729, 20.198, -161.443, -94.5804, 64.2515
2.188, -1, -30.6395, 1.78412, 20.1812, -161.466, -94.6159, 64.1047
2.192, -1, -30.7248, 1.80095, 20.1643, -161.489, -94.6513, 63.9579
2.196, -1, -30.8101, 1.81779, 20.1475, -161.511, -94.6867, 63.811
2.199, -1, -30.8953, 1.83462, 20.1307, -161.534, -94.7221, 63.6641
2.204, -1, -30.9807, 1.85147, 20.1139, -161.557, -94.7575, 63.5171
2.208, -1, -31.066, 1.86831, 20.097, -161.579, -94.7929, 63.3702
2.212, -1, -31.1513, 1.88515, 20.0802, -161.602, -94.8283, 63.2232
2.216, -1, -31.2366, 1.902, 20.0634, -161.625, -94.8638, 63.0762
2.219, -1, -31.322, 1.91886, 20.0465, -161.648, -94.8992, 62.9292
2.224, -1, -31.4074, 1.93571, 20.0297, -161.67, -94.9347, 62.7821
2.228, -1, -31.4928, 1.95257, 20.0128, -161.693, -94.9701, 62.635
2.232, -1, -31.5782, 1.96943, 19.996, -161.716, -95.0056, 62.4879
2.235, -1, -31.6636, 1.98629, 19.9791, -161.739, -95.0411, 62.3408
2.24, -1, -31.749, 2.00316, 19.9623, -161.761, -95.0765, 62.1936
2.244, -1, -31.8345, 2.02003, 19.9454, -161.784, -95.112, 62.0465
2.248, -1, -31.9199, 2.0369, 19.9286, -161.807, -95.1475, 61.8993
2.252, -1, -32.0054, 2.05378, 19.9117, -161.829, -95.183, 61.752
2.255, -1, -32.0909, 2.07065, 19.8949, -161.852, -95.2185, 61.6048
2.259, -1, -32.1764, 2.08754, 19.878, -161.875, -95.254, 61.4575
2.264, -1, -32.2619, 2.10442, 19.8611, -161.898, -95.2895, 61.3102
2.268, -1, -32.3474, 2.1213, 19.8442, -161.92, -95.325, 61.1628
2.272, -1, -32.4328, 2.13817, 19.8274, -161.943, -95.3605, 61.0155
2.275, -1, -32.5179, 2.15501, 19.8105, -161.966, -95.3961, 60.8681
2.28, -1, -32.6027, 2.17179, 19.7938, -161.989, -95.4316, 60.7208
2.284, -1, -32.6868, 2.18848, 19.777, -162.011, -95.4671, 60.5736
2.288, -1, -32.7703, 2.20505, 19.7604, -162.034, -95.5025, 60.4265
2.291, -1, -32.8527, 2.22142, 19.744, -162.057, -95.5379, 60.2798
2.296, -1, -32.9338, 2.23752, 19.7278, -162.079, -95.5732, 60.1336
2.3, -1, -33.0133, 2.25327, 19.7118, -162.102, -95.6082, 59.9885
2.304, -1, -33.091, 2.2686, 19.6963, -162.124, -95.6428, 59.8447
2.308, -1, -33.1666, 2.28346, 19.6812, -162.146, -95.677, 59.7031
2.311, -1, -33.2398, 2.2978, 19.6665, -162.167, -95.7105, 59.5642
2.316, -1, -33.3105, 2.31162, 19.6524, -162.188, -95.7431, 59.4289
2.32, -1, -33.3785, 2.32489, 19.6388, -162.208, -95.7747, 59.2983
2.324, -1, -33.4437, 2.3376, 19.6258, -162.227, -95.8049, 59.1731
2.328, -1, -33.5059, 2.34971, 19.6134, -162.246, -95.8336, 59.0542
2.331, -1, -33.5648, 2.36119, 19.6017, -162.263, -95.8605, 58.9426
2.336, -1, -33.62, 2.37199, 19.5907, -162.279, -95.8855, 58.8389
2.34, -1, -33.6716, 2.38209, 19.5804, -162.293, -95.9085, 58.7437
2.344, -1, -33.7194, 2.39153, 19.571, -162.307, -95.9293, 58.6575
2.347, -1, -33.7637, 2.40031, 19.5622, -162.319, -95.9478, 58.5805
2.352, -1, -33.8045, 2.40847, 19.5542, -162.329, -95.9641, 58.5127
2.356, -1, -33.8418, 2.41601, 19.5468, -162.338, -95.9782, 58.4541
2.36, -1, -33.8757, 2.42291, 19.5402, -162.346, -95.9903, 58.4041
2.364, -1, -33.9059, 2.42915, 19.5343, -162.352, -96.0003, 58.3623
2.367, -1, -33.9326, 2.43469, 19.5291, -162.358, -96.0086, 58.3278
2.372, -1, -33.9557, 2.43951, 19.5247, -162.362, -96.0153, 58.2998
2.376, -1, -33.9754, 2.44365, 19.5209, -162.366, -96.0207, 58.2775
2.38, -1, -33.9922, 2.44715, 19.5177, -162.368, -96.0248, 58.2601
2.383, -1, -34.0063, 2.45008, 19.5151, -162.371, -96.028, 58.2468
2.388, -1, -34.0182, 2.45251, 19.513, -162.372, -96.0304, 58.2368
2.392, -1, -34.028, 2.45449, 19.5112, -162.373, -96.0321, 58.2296
2.396, -1, -34.036, 2.45607, 19.5099, -162.374, -96.0333, 58.2244
2.4, -1, -34.0424, 2.4573, 19.5088, -162.375, -96.0342, 58.2207
2.403, 2, -34.0473, 2.45822, 19.508, -162.375, -96.0348, 58.2182
2.408, 2, -34.0509, 2.45887, 19.5075, -162.376, -96.0352, 58.2165
2.412, 2, -34.0534, 2.45933, 19.5071, -162.376, -96.0355, 58.2153
2.416, 2, -34.0551, 2.45964, 19.5068, -162.376, -96.0357, 58.2145
2.42, 2, -34.0562, 2.45986, 19.5066, -162.376, -96.0358, 58.214
2.423, 2, -34.057, 2.46, 19.5065, -162.376, -96.0359, 58.2136
2.428, 2, -34.0576, 2.4601, 19.5064, -162.376, -96.0359, 58.2134
2.432, 2, -34.0579, 2.46016, 19.5064, -162.376, -96.036, 58.2132
2.436, 2, -34.0582, 2.46021, 19.5064, -162.376, -96.036, 58.2131
2.439, 2, -34.0583, 2.46024, 19.5063, -162.376, -96.036, 58.213
2.444, 2, -34.0584, 2.46026, 19.5063, -162.376, -96.036, 58.213
2.448, 2, -34.0585, 2.46027, 19.5063, -162.376, -96.036, 58.2129
2.452, 2, -34.0586, 2.46028, 19.5063, -162.376, -96.036, 58.2129
2.456, 2, -34.0586, 2.46029, 19.5063, -162.376, -96.036, 58.2129
2.459, 2, -34.0586, 2.46029, 19.5063, -162.376, -96.036, 58.2129
2.464, 2, -34.0586, 2.46029, 19.5063, -162.376, -96.0361, 58.2129
2.468, 2, -34.0587, 2.4603, 19.5063, -162.376, -96.0361, 58.2129
2.472, 2, -34.0587, 2.4603, 19.5063, -162.376, -96.0361, 58.2129
2.476, 2, -34.0587, 2.4603, 19.5063, -162.376, -96.0361, 58.2129
2.479, 2, -34.0587, 2.4603, 19.5063, -162.376, -96.0361, 58.2129
2.484, 2, -34.0587, 2.4603, 19.5063, -162.376, -96.0361, 58.2129
2.488, 2, -34.0587, 2.4603, 19.5063, -162.376, -96.0361, 58.2129
2.492, 2, -34.0587, 2.4603, 19.5063, -162.376, -96.0361, 58.2129
2.495, 2, -34.0587, 2.4603, 19.5063, -162.376, -96.0361, 58.2129
2.5, 2, -34.0587, 2.4603, 19.5063, -162.376, -96.0361, 58.2129
2.504, 2, -34.0587, 2.4603, 19.5063, -162.376, -96.0361, 58.2129
2.508, 2, -34.0587, 2.4603, 19.5063, -162.376, -96.0361, 58.2129
2.512, 2, -34.0587, 2.4603, 19.5063, -162.376, -96.0361, 58.2129
2.515, 2, -34.0587, 2.4603, 19.5063, -162.376, -96.0361, 58.2129
2.52, 2, -34.0587, 2.4603, 19.5063, -162.376, -96.0361, 58.2129
2.524, 2, -34.0587, 2.4603, 19.5063, -162.376, -96.0361, 58.2129
2.528, 2, -34.0587, 2.4603, 19.5063, -162.376, -96.0361, 58.2129
2.531, 2, -34.0587, 2.4603, 19.5063, -162.376, -96.0361, 58.2129
2.536, 2, -34.0587, 2.4603, 19.5063, -162.376, -96.0361, 58.2129
2.54, 2, -34.0587, 2.4603, 19.5063, -162.376, -96.0361, 58.2129
2.544, 2, -34.0587, 2.4603, 19.5063, -162.376, -96.0361, 58.2129
2.548, 2, -34.0587, 2.4603, 19.5063, -162.376, -96.0361, 58.2129
2.551, 2, -34.0587, 2.4603, 19.5063, -162.376, -96.0361, 58.2129
2.556, 2, -34.0587, 2.4603, 19.5063, -162.376, -96.0361, 58.2129
2.56, 2, -34.0587, 2.4603, 19.5063, -162.376, -96.0361, 58.2129
2.564, 2, -34.0587, 2.4603, 19.5063, -162.376, -96.0361, 58.2129
2.568, 2, -34.0587, 2.4603, 19.5063, -162.376, -96.0361, 58.2129
2.571, 2, -34.0587, 2.4603, 19.5063, -162.376, -96.0361, 58.2129
2.576, 2, -34.0587, 2.4603, 19.5063, -162.376, -96.0361, 58.2129
2.58, 2, -34.0587, 2.4603, 19.5063, -162.376, -96.0361, 58.2129
2.584, 2, -34.0587, 2.4603, 19.5063, -162.376, -96.0361, 58.2129
2.587, 2, -34.0587, 2.4603, 19.5063, -162.376, -96.0361, 58.2129
2.592, 2, -34.0587, 2.4603, 19.5063, -162.376, -96.0361, 58.2129
2.596, 2, -34.0587, 2.4603, 19.5063, -162.376, -96.0361, 58.2129
2.6, 2, -34.0587, 2.4603, 19.5063, -162.376, -96.0361, 58.2129
2.604, 2, -34.0587, 2.4603, 19.5063, -162.376, -96.0361, 58.2129
2.607, 2, -34.0587, 2.4603, 19.5063, -162.376, -96.0361, 58.2129
2.612, 2, -34.0587, 2.4603, 19.5063, -162.376, -96.0361, 58.2129
2.616, 2, -34.0587, 2.4603, 19.5063, -162.376, -96.0361, 58.2129
2.62, 2, -34.0587, 2.4603, 19.5063, -162.376, -96.0361, 58.2129
2.624, 2, -34.0587, 2.4603, 19.5063, -162.376, -96.0361, 58.2129
2.627, 2, -34.0587, 2.4603, 19.5063, -162.376, -96.0361, 58.2129
2.632, 2, -34.0587, 2.4603, 19.5063, -162.376, -96.0361, 58.2129
2.636, 2, -34.0587, 2.4603, 19.5063, -162.376, -96.0361, 58.2129
2.64, 2, -34.0587, 2.4603, 19.5063, -162.376, -96.0361, 58.2129
2.643, 2, -34.0587, 2.4603, 19.5063, -162.376, -96.0361, 58.2129
2.648, 2, -34.0587, 2.4603, 19.5063, -162.376, -96.0361, 58.2129
2.652, 2, -34.0587, 2.4603, 19.5063, -162.376, -96.0361, 58.2129
2.656, 2, -34.0587, 2.4603, 19.5063, -162.376, -96.0361, 58.2129
2.66, 2, -34.0587, 2.4603, 19.5063, -162.376, -96.0361, 58.2129
2.663, 2, -34.0587, 2.4603, 19.5063, -162.376, -96.0361, 58.2129
2.668, 2, -34.0587, 2.4603, 19.5063, -162.376, -96.0361, 58.2129
2.672, 2, -34.0587, 2.4603, 19.5063, -162.376, -96.0361, 58.2129
2.676, 2, -34.0587, 2.4603, 19.5063, -162.376, -96.0361, 58.2129
2.679, 2, -34.0587, 2.4603, 19.5063, -162.376, -96.0361, 58.2129
2.684, 2, -34.0587, 2.4603, 19.5063, -162.376, -96.0361, 58.2129
2.688, 2, -34.0587, 2.4603, 19.5063, -162.376, -96.0361, 58.2129
2.692, 2, -34.0587, 2.4603, 19.5063, -162.376, -96.0361, 58.2129
2.696, 2, -34.0587, 2.4603, 19.5063, -162.376, -96.0361, 58.2129
2.699, 2, -34.0587, 2.4603, 19.5063, -162.376, -96.0361, 58.2129
2.704, 2, -34.0587, 2.4603, 19.5063, -162.376, -96.0361, 58.2129
2.708, 2, -34.0587, 2.4603, 19.5063, -162.376, -96.0361, 58.2129
2.712, 2, -34.0587, 2.4603, 19.5063, -162.376, -96.0361, 58.2129
2.716, 2, -34.0587, 2.4603, 19.5063, -162.376, -96.0361, 58.2129
2.719, 2, -34.0587, 2.4603, 19.5063, -162.376, -96.0361, 58.2129
2.724, 2, -34.0587, 2.4603, 19.5063, -162.376, -96.0361, 58.2129
2.728, 2, -34.0587, 2.4603, 19.5063, -162.376, -96.0361, 58.2129
2.732, 2, -34.0587, 2.4603, 19.5063, -162.376, -96.0361, 58.2129
2.735, 2, -34.0587, 2.4603, 19.5063, -162.376, -96.0361, 58.2129
2.74, 2, -34.0587, 2.4603, 19.5063, -162.376, -96.0361, 58.2129
2.744, 2, -34.0587, 2.4603, 19.5063, -162.376, -96.0361, 58.2129
2.748, 2, -34.0587, 2.4603, 19.5063, -162.376, -96.0361, 58.2129
2.752, 2, -34.0587, 2.4603, 19.5063, -162.376, -96.0361, 58.2129
2.755, 2, -34.0587, 2.4603, 19.5063, -162.376, -96.0361, 58.2129
2.76, 2, -34.0587, 2.4603, 19.5063, -162.376, -96.0361, 58.2129
2.764, 2, -34.0587, 2.4603, 19.5063, -162.376, -96.0361, 58.2129
2.768, 2, -34.0587, 2.4603, 19.5063, -162.376, -96.0361, 58.2129
2.772, 2, -34.0587, 2.4603, 19.5063, -162.376, -96.0361, 58.2129
2.775, 2, -34.0587, 2.4603, 19.5063, -162.376, -96.0361, 58.2129
2.78, 2, -34.0587, 2.4603, 19.5063, -162.376, -96.0361, 58.2129
2.784, 2, -34.0587, 2.4603, 19.5063, -162.376, -96.0361, 58.2129
2.788, 2, -34.0587, 2.4603, 19.5063, -162.376, -96.0361, 58.2129
2.791, 2, -34.0587, 2.4603, 19.5063, -162.376, -96.0361, 58.2129
2.796, 2, -34.0587, 2.4603, 19.5063, -162.376, -96.0361, 58.2129
2.8, 2, -34.0587, 2.4603, 19.5063, -162.376, -96.0361, 58.2129
2.804, 2, -34.0587, 2.4603, 19.5063, -162.376, -96.0361, 58.2129
2.808, 2, -34.0587, 2.4603, 19.5063, -162.376, -96.0361, 58.2129
2.811, 2, -34.0587, 2.4603, 19.5063, -162.376, -96.0361, 58.2129
2.816, 2, -34.0587, 2.4603, 19.5063, -162.376, -96.0361, 58.2129
2.82, 2, -34.0587, 2.4603, 19.5063, -162.376, -96.0361, 58.2129
2.824, 2, -34.0587, 2.4603, 19.5063, -162.376, -96.0361, 58.2129
2.828, 2, -34.0587, 2.4603, 19.5063, -162.376, -96.0361, 58.2129
2.831, 2, -34.0587, 2.4603, 19.5063, -162.376, -96.0361, 58.2129
2.836, 2, -34.0587, 2.4603, 19.5063, -162.376, -96.0361, 58.2129
2.84, 2, -34.0587, 2.4603, 19.5063, -162.376, -96.0361, 58.2129
2.844, 2, -34.0587, 2.4603, 19.5063, -162.376, -96.0361, 58.2129
2.847, 2, -34.0587, 2.4603, 19.5063, -162.376, -96.0361, 58.2129
2.852, 2, -34.0587, 2.4603, 19.5063, -162.376, -96.0361, 58.2129
2.856, 2, -34.0587, 2.4603, 19.5063, -162.376, -96.0361, 58.2129
2.86, 2, -34.0587, 2.4603, 19.5063, -162.376, -96.0361, 58.2129
2.864, 2, -34.0587, 2.4603, 19.5063, -162.376, -96.0361, 58.2129
2.867, 2, -34.0587, 2.4603, 19.5063, -162.376, -96.0361, 58.2129
2.872, 2, -34.0587, 2.4603, 19.5063, -162.376, -96.0361, 58.2129
2.876, 2, -34.0587, 2.4603, 19.5063, -162.376, -96.0361, 58.2129
2.88, 2, -34.0587, 2.4603, 19.5063, -162.376, -96.0361, 58.2129
2.883, 2, -34.0587, 2.4603, 19.5063, -162.376, -96.0361, 58.2129
2.888, 2, -34.0587, 2.4603, 19.5063, -162.376, -96.0361, 58.2129
2.892, 2, -34.0587, 2.4603, 19.5063, -162.376, -96.0361, 58.2129
2.896, 2, -34.0587, 2.4603, 19.5063, -162.376, -96.0361, 58.2129
2.9, 2, -34.0587, 2.4603, 19.5063, -162.376, -96.0361, 58.2129
2.903, 2, -34.0587, 2.4603, 19.5063, -162.376, -96.0361, 58.2129
2.908, 2, -34.0587, 2.4603, 19.5063, -162.376, -96.0361, 58.2129
2.912, 2, -34.0587, 2.4603, 19.5063, -162.376, -96.0361, 58.2129
2.916, 2, -34.0587, 2.4603, 19.5063, -162.376, -96.0361, 58.2129
2.92, 2, -34.0587, 2.4603, 19.5063, -162.376, -96.0361, 58.2129
2.923, 2, -34.0587, 2.4603, 19.5063, -162.376, -96.0361, 58.2129
2.928, 2, -34.0587, 2.4603, 19.5063, -162.376, -96.0361, 58.2129
2.932, 2, -34.0587, 2.4603, 19.5063, -162.376, -96.0361, 58.2129
2.936, 2, -34.0587, 2.4603, 19.5063, -162.376, -96.0361, 58.2129
2.939, 2, -34.0587, 2.4603, 19.5063, -162.376, -96.0361, 58.2129
2.944, 2, -34.0587, 2.4603, 19.5063, -162.376, -96.0361, 58.2129
2.948, 2, -34.0587, 2.4603, 19.5063, -162.376, -96.0361, 58.2129
2.952, 2, -34.0587, 2.4603, 19.5063, -162.376, -96.0361, 58.2129
2.956, 2, -34.0587, 2.4603, 19.5063, -162.376, -96.0361, 58.2129
2.959, 2, -34.0587, 2.4603, 19.5063, -162.376, -96.0361, 58.2129
2.964, 2, -34.0587, 2.4603, 19.5063, -162.376, -96.0361, 58.2129
2.968, 2, -34.0587, 2.4603, 19.5063, -162.376, -96.0361, 58.2129
2.972, 2, -34.0587, 2.4603, 19.5063, -162.376, -96.0361, 58.2129
2.976, 2, -34.0587, 2.4603, 19.5063, -162.376, -96.0361, 58.2129
2.98, 2, -34.0587, 2.4603, 19.5063, -162.376, -96.0361, 58.2129
2.984, 2, -34.0587, 2.4603, 19.5063, -162.376, -96.0361, 58.2129
2.988, 2, -34.0587, 2.4603, 19.5063, -162.376, -96.0361, 58.2129
2.992, 2, -34.0587, 2.4603, 19.5063, -162.376, -96.0361, 58.2129
2.995, 2, -34.0587, 2.4603, 19.5063, -162.376, -96.0361, 58.2129
3, 2, -34.0587, 2.4603, 19.5063, -162.376, -96.0361, 58.2129
3.004, 2, -34.0587, 2.4603, 19.5063, -162.376, -96.0361, 58.2129
3.008, 2, -34.0587, 2.4603, 19.5063, -162.376, -96.0361, 58.2129
3.012, 2, -34.0587, 2.4603, 19.5063, -162.376, -96.0361, 58.2129
3.015, 2, -34.0587, 2.4603, 19.5063, -162.376, -96.0361, 58.2129
3.02, 2, -34.0587, 2.4603, 19.5063, -162.376, -96.0361, 58.2129
3.024, 2, -34.0587, 2.4603, 19.5063, -162.376, -96.0361, 58.2129
3.028, 2, -34.0587, 2.4603, 19.5063, -162.376, -96.0361, 58.2129
3.031, 2, -34.0587, 2.4603, 19.5063, -162.376, -96.0361, 58.2129
3.036, 2, -34.0587, 2.4603, 19.5063, -162.376, -96.0361, 58.2129
3.04, 2, -34.0587, 2.4603, 19.5063, -162.376, -96.0361, 58.2129
3.044, 2, -34.0587, 2.4603, 19.5063, -162.376, -96.0361, 58.2129
3.048, 2, -34.0587, 2.4603, 19.5063, -162.376, -96.0361, 58.2129
3.051, 2, -34.0587, 2.4603, 19.5063, -162.376, -96.0361, 58.2129
3.056, 2, -34.0587, 2.4603, 19.5063, -162.376, -96.0361, 58.2129
3.06, 2, -34.0587, 2.4603, 19.5063, -162.376, -96.0361, 58.2129
3.064, 2, -34.0587, 2.4603, 19.5063, -162.376, -96.0361, 58.2129
3.068, 2, -34.0587, 2.4603, 19.5063, -162.376, -96.0361, 58.2129
3.071, 2, -34.0587, 2.4603, 19.5063, -162.376, -96.0361, 58.2129
3.076, 2, -34.0587, 2.4603, 19.5063, -162.376, -96.0361, 58.2129
3.08, 2, -34.0587, 2.4603, 19.5063, -162.376, -96.0361, 58.2129
3.084, 2, -34.0587, 2.4603, 19.5063, -162.376, -96.0361, 58.2129
3.087, 2, -34.0587, 2.4603, 19.5063, -162.376, -96.0361, 58.2129
3.092, 2, -34.0587, 2.4603, 19.5063, -162.376, -96.0361, 58.2129
3.096, 2, -34.0587, 2.4603, 19.5063, -162.376, -96.0361, 58.2129
3.1, 2, -34.0587, 2.4603, 19.5063, -162.376, -96.0361, 58.2129
3.104, 2, -34.0587, 2.4603, 19.5063, -162.376, -96.0361, 58.2129
3.107, 2, -34.0587, 2.4603, 19.5063, -162.376, -96.0361, 58.2129
3.112, 2, -34.0587, 2.4603, 19.5063, -162.376, -96.0361, 58.2129
3.116, 2, -34.0587, 2.4603, 19.5063, -162.376, -96.0361, 58.2129
3.12, 2, -34.0587, 2.4603, 19.5063, -162.376, -96.0361, 58.2129
3.124, 2, -34.0587, 2.4603, 19.5063, -162.376, -96.0361, 58.2129
3.128, 2, -34.0587, 2.4603, 19.5063, -162.376, -96.0361, 58.2129
3.132, 2, -34.0587, 2.4603, 19.5063, -162.376, -96.0361, 58.2129
3.136, 2, -34.0587, 2.4603, 19.5063, -162.376, -96.0361, 58.2129
3.14, 2, -34.0587, 2.4603, 19.5063, -162.376, -96.0361, 58.2129
3.143, 2, -34.0587, 2.4603, 19.5063, -162.376, -96.0361, 58.2129
3.148, 2, -34.0587, 2.4603, 19.5063, -162.376, -96.0361, 58.2129
3.152, 2, -34.0587, 2.4603, 19.5063, -162.376, -96.0361, 58.2129
3.156, 2, -34.0587, 2.4603, 19.5063, -162.376, -96.0361, 58.2129
3.16, 2, -34.0587, 2.4603, 19.5063, -162.376, -96.0361, 58.2129
3.163, 2, -34.0587, 2.4603, 19.5063, -162.376, -96.0361, 58.2129
3.168, 2, -34.0587, 2.4603, 19.5063, -162.376, -96.0361, 58.2129
3.172, 2, -34.0587, 2.4603, 19.5063, -162.376, -96.0361, 58.2129
3.176, 2, -34.0587, 2.4603, 19.5063, -162.376, -96.0361, 58.2129
3.179, 2, -34.0587, 2.4603, 19.5063, -162.376, -96.0361, 58.2129
3.184, 2, -34.0587, 2.4603, 19.5063, -162.376, -96.0361, 58.2129
3.188, 2, -34.0587, 2.4603, 19.5063, -162.376, -96.0361, 58.2129
3.192, 2, -34.0587, 2.4603, 19.5063, -162.376, -96.0361, 58.2129
3.196, 2, -34.0587, 2.4603, 19.5063, -162.376, -96.0361, 58.2129
3.199, 2, -34.0587, 2.4603, 19.5063, -162.376, -96.0361, 58.2129
3.204, 2, -34.0587, 2.4603, 19.5063, -162.376, -96.0361, 58.2129
3.208, 2, -34.0587, 2.4603, 19.5063, -162.376, -96.0361, 58.2129
3.212, 2, -34.0587, 2.4603, 19.5063, -162.376, -96.0361, 58.2129
3.216, 2, -34.0587, 2.4603, 19.5063, -162.376, -96.0361, 58.2129
3.22, 2, -34.0587, 2.4603, 19.5063, -162.376, -96.0361, 58.2129
3.224, 2, -34.0587, 2.4603, 19.5063, -162.376, -96.0361, 58.2129
3.228, 2, -34.0587, 2.4603, 19.5063, -162.376, -96.0361, 58.2129
3.232, 2, -34.0587, 2.4603, 19.5063, -162.376, -96.0361, 58.2129
3.235, 2, -34.0587, 2.4603, 19.5063, -162.376, -96.0361, 58.2129
3.24, 2, -34.0587, 2.4603, 19.5063, -162.376, -96.0361, 58.2129
3.244, 2, -34.0587, 2.4603, 19.5063, -162.376, -96.0361, 58.2129
3.248, 2, -34.0587, 2.4603, 19.5063, -162.376, -96.0361, 58.2129
3.252, 2, -34.0587, 2.4603, 19.5063, -162.376, -96.0361, 58.2129
3.255, 2, -34.0587, 2.4603, 19.5063, -162.376, -96.0361, 58.2129
3.26, 2, -34.0587, 2.4603, 19.5063, -162.376, -96.0361, 58.2129
3.264, 2, -34.0587, 2.4603, 19.5063, -162.376, -96.0361, 58.2129
3.268, 2, -34.0587, 2.4603, 19.5063, -162.376, -96.0361, 58.2129
3.272, 2, -34.0587, 2.4603, 19.5063, -162.376, -96.0361, 58.2129
3.276, 2, -34.0587, 2.4603, 19.5063, -162.376, -96.0361, 58.2129
3.28, 2, -34.0587, 2.4603, 19.5063, -162.376, -96.0361, 58.2129
3.284, 2, -34.0587, 2.4603, 19.5063, -162.376, -96.0361, 58.2129
3.288, 2, -34.0587, 2.4603, 19.5063, -162.376, -96.0361, 58.2129
3.291, 2, -34.0587, 2.4603, 19.5063, -162.376, -96.0361, 58.2129
3.296, 2, -34.0587, 2.4603, 19.5063, -162.376, -96.0361, 58.2129
3.3, 2, -34.0587, 2.4603, 19.5063, -162.376, -96.0361, 58.2129
3.304, 2, -34.0587, 2.4603, 19.5063, -162.376, -96.0361, 58.2129
3.308, 2, -34.0587, 2.4603, 19.5063, -162.376, -96.0361, 58.2129
3.312, 2, -34.0587, 2.4603, 19.5063, -162.376, -96.0361, 58.2129
3.316, 2, -34.0587, 2.4603, 19.5063, -162.376, -96.0361, 58.2129
3.32, 2, -34.0587, 2.4603, 19.5063, -162.376, -96.0361, 58.2129
3.324, 2, -34.0587, 2.4603, 19.5063, -162.376, -96.0361, 58.2129
3.328, 2, -34.0587, 2.4603, 19.5063, -162.376, -96.0361, 58.2129
3.332, 2, -34.0587, 2.4603, 19.5063, -162.376, -96.0361, 58.2129
3.336, 2, -34.0587, 2.4603, 19.5063, -162.376, -96.0361, 58.2129
3.34, 2, -34.0587, 2.4603, 19.5063, -162.376, -96.0361, 58.2129
3.344, 2, -34.0587, 2.4603, 19.5063, -162.376, -96.0361, 58.2129
3.347, 2, -34.0587, 2.4603, 19.5063, -162.376, -96.0361, 58.2129
3.352, 2, -34.0587, 2.4603, 19.5063, -162.376, -96.0361, 58.2129
3.356, 2, -34.0587, 2.4603, 19.5063, -162.376, -96.0361, 58.2129
3.36, 2, -34.0587, 2.4603, 19.5063, -162.376, -96.0361, 58.2129
3.364, 2, -34.0587, 2.4603, 19.5063, -162.376, -96.0361, 58.2129
3.368, 2, -34.0587, 2.4603, 19.5063, -162.376, -96.0361, 58.2129
3.372, 2, -34.0587, 2.4603, 19.5063, -162.376, -96.0361, 58.2129
3.376, 2, -34.0587, 2.4603, 19.5063, -162.376, -96.0361, 58.2129
3.38, 2, -34.0587, 2.4603, 19.5063, -162.376, -96.0361, 58.2129
3.383, 2, -34.0587, 2.4603, 19.5063, -162.376, -96.0361, 58.2129
3.388, 2, -34.0587, 2.4603, 19.5063, -162.376, -96.0361, 58.2129
3.392, 2, -34.0587, 2.4603, 19.5063, -162.376, -96.0361, 58.2129
3.396, 2, -34.0587, 2.4603, 19.5063, -162.376, -96.0361, 58.2129
3.4, 2, -34.0587, 2.4603, 19.5063, -162.376, -96.0361, 58.2129
3.403, 2, -34.0587, 2.4603, 19.5063, -162.376, -96.0361, 58.2129
3.408, 2, -34.0587, 2.4603, 19.5063, -162.376, -96.0361, 58.2129
3.412, 2, -34.0587, 2.4603, 19.5063, -162.376, -96.0361, 58.2129
3.416, 2, -34.0587, 2.4603, 19.5063, -162.376, -96.0361, 58.2129
3.42, 2, -34.0587, 2.4603, 19.5063, -162.376, -96.0361, 58.2129
3.424, 2, -34.0587, 2.4603, 19.5063, -162.376, -96.0361, 58.2129
3.428, 2, -34.0587, 2.4603, 19.5063, -162.376, -96.0361, 58.2129
3.432, 2, -34.0587, 2.4603, 19.5063, -162.376, -96.0361, 58.2129
3.436, 2, -34.0587, 2.4603, 19.5063, -162.376, -96.0361, 58.2129
3.439, 2, -34.0587, 2.4603, 19.5063, -162.376, -96.0361, 58.2129
3.444, 2, -34.0587, 2.4603, 19.5063, -162.376, -96.0361, 58.2129
3.448, 2, -34.0587, 2.4603, 19.5063, -162.376, -96.0361, 58.2129
3.452, 2, -34.0587, 2.4603, 19.5063, -162.376, -96.0361, 58.2129
3.456, 2, -34.0587, 2.4603, 19.5063, -162.376, -96.0361, 58.2129
3.46, 2, -34.0587, 2.4603, 19.5063, -162.376, -96.0361, 58.2129
3.464, 2, -34.0587, 2.4603, 19.5063, -162.376, -96.0361, 58.2129
3.468, 2, -34.0587, 2.4603, 19.5063, -162.376, -96.0361, 58.2129
3.472, 2, -34.0587, 2.4603, 19.5063, -162.376, -96.0361, 58.2129
3.476, 4, -34.0587, 2.4603, 19.5063, -162.376, -96.0361, 58.2129
3.48, 4, -34.0587, 2.4603, 19.5063, -162.376, -96.0361, 58.2129
3.484, 4, -34.0587, 2.4603, 19.5063, -162.376, -96.0361, 58.2129
3.488, 4, -34.0587, 2.4603, 19.5063, -162.376, -96.0361, 58.2129
3.492, 4, -34.0587, 2.4603, 19.5063, -162.376, -96.0361, 58.2129
3.495, 4, -34.0587, 2.4603, 19.5063, -162.376, -96.0361, 58.2129
3.5, 4, -34.0587, 2.4603, 19.5063, -162.376, -96.0361, 58.2129
3.504, 4, -34.0587, 2.4603, 19.5063, -162.376, -96.0361, 58.2129
3.508, 4, -34.0587, 2.4603, 19.5063, -162.376, -96.0361, 58.2129
3.512, 4, -34.0587, 2.4603, 19.5063, -162.376, -96.0361, 58.2129
3.516, 4, -34.0587, 2.4603, 19.5063, -162.376, -96.0361, 58.2129
3.52, 4, -34.0587, 2.4603, 19.5063, -162.376, -96.0361, 58.2129
3.524, 4, -34.0587, 2.4603, 19.5063, -162.376, -96.0361, 58.2129
3.528, 4, -34.0587, 2.4603, 19.5063, -162.376, -96.0361, 58.2129
3.531, 4, -34.0587, 2.4603, 19.5063, -162.376, -96.0361, 58.2129
3.536, 4, -34.0587, 2.4603, 19.5063, -162.376, -96.0361, 58.2129
3.54, 4, -34.0587, 2.4603, 19.5063, -162.376, -96.0361, 58.2129
3.544, 4, -34.0587, 2.4603, 19.5063, -162.376, -96.0361, 58.2129
3.548, 4, -34.0587, 2.4603, 19.5063, -162.376, -96.0361, 58.2129
3.552, 4, -34.0587, 2.4603, 19.5063, -162.376, -96.0361, 58.2129
3.556, 4, -34.0587, 2.4603, 19.5063, -162.376, -96.0361, 58.2129
3.56, 4, -34.0587, 2.4603, 19.5063, -162.376, -96.0361, 58.2129
3.564, 4, -34.0587, 2.4603, 19.5063, -162.376, -96.0361, 58.2129
3.568, 4, -34.0587, 2.4603, 19.5063, -162.376, -96.0361, 58.2129
3.572, 4, -34.0587, 2.4603, 19.5063, -162.376, -96.0361, 58.2129
3.576, 4, -34.0587, 2.4603, 19.5063, -162.376, -96.0361, 58.2129
3.582, 4, -34.0587, 2.4603, 19.5063, -162.376, -96.0361, 58.2129
3.584, 4, -34.0587, 2.4603, 19.5063, -162.376, -96.0361, 58.2129
3.587, 4, -34.0587, 2.4603, 19.5063, -162.376, -96.0361, 58.2129
3.592, 4, -34.0587, 2.4603, 19.5063, -162.376, -96.0361, 58.2129
3.596, 4, -34.0587, 2.4603, 19.5063, -162.376, -96.0361, 58.2129
3.6, 4, -34.0587, 2.4603, 19.5063, -162.376, -96.0361, 58.2129
3.604, 4, -34.0587, 2.4603, 19.5063, -162.376, -96.0361, 58.2129
3.608, 4, -34.0587, 2.4603, 19.5063, -162.376, -96.0361, 58.2129
3.612, 4, -34.0587, 2.46027, 19.5063, -162.376, -96.0361, 58.2129
3.616, 4, -34.0586, 2.46017, 19.5063, -162.376, -96.0361, 58.2129
3.62, 4, -34.0583, 2.45989, 19.5064, -162.376, -96.0361, 58.2129
3.624, 4, -34.0579, 2.45933, 19.5065, -162.376, -96.036, 58.2128
3.628, 4, -34.0571, 2.45836, 19.5067, -162.376, -96.036, 58.2128
3.632, 4, -34.056, 2.45686, 19.5072, -162.376, -96.0358, 58.2126
3.636, 4, -34.0545, 2.45477, 19.5078, -162.376, -96.0356, 58.2123
3.64, 4, -34.0527, 2.45205, 19.5089, -162.375, -96.035, 58.2119
3.644, 4, -34.0506, 2.44874, 19.5103, -162.375, -96.0342, 58.2111
3.648, 4, -34.0484, 2.44487, 19.5123, -162.374, -96.0329, 58.21
3.652, 5, -34.0461, 2.44045, 19.5149, -162.373, -96.0311, 58.2085
3.656, 5, -34.0437, 2.43544, 19.5182, -162.371, -96.0287, 58.2064
3.66, 5, -34.0412, 2.4298, 19.5223, -162.369, -96.0255, 58.2038
3.664, 5, -34.0386, 2.42348, 19.5273, -162.367, -96.0216, 58.2005
3.668, 5, -34.0358, 2.41644, 19.5332, -162.364, -96.0169, 58.1966
3.672, 5, -34.033, 2.40869, 19.54, -162.36, -96.0114, 58.1921
3.676, 5, -34.03, 2.40028, 19.5477, -162.356, -96.005, 58.1869
3.679, 5, -34.027, 2.39125, 19.5563, -162.352, -95.9979, 58.181
3.684, 5, -34.024, 2.38164, 19.5657, -162.347, -95.9901, 58.1746
3.688, 5, -34.0209, 2.37144, 19.5758, -162.341, -95.9816, 58.1677
3.692, 5, -34.0177, 2.36061, 19.5866, -162.336, -95.9726, 58.1603
3.696, 5, -34.0142, 2.34911, 19.5979, -162.33, -95.9631, 58.1525
3.7, 5, -34.0104, 2.33692, 19.6097, -162.323, -95.9534, 58.1445
3.704, 5, -34.0062, 2.32406, 19.6218, -162.317, -95.9433, 58.1362
3.708, 5, -34.0017, 2.31061, 19.6342, -162.311, -95.9331, 58.1278
3.712, 5, -33.9969, 2.29666, 19.6469, -162.304, -95.9228, 58.1193
3.716, 5, -33.9918, 2.28233, 19.6597, -162.297, -95.9123, 58.1107
3.72, 5, -33.9865, 2.26775, 19.6726, -162.291, -95.9019, 58.102
3.724, 5, -33.9811, 2.25298, 19.6855, -162.284, -95.8913, 58.0933
3.728, 5, -33.9756, 2.23809, 19.6986, -162.277, -95.8808, 58.0846
3.732, 5, -33.9701, 2.22312, 19.7116, -162.271, -95.8703, 58.0759
3.735, 5, -33.9645, 2.20809, 19.7247, -162.264, -95.8597, 58.0672
3.74, 5, -33.9589, 2.19302, 19.7378, -162.257, -95.8492, 58.0584
3.744, 5, -33.9533, 2.17793, 19.7509, -162.25, -95.8386, 58.0497
3.748, 5, -33.9477, 2.16282, 19.764, -162.244, -95.828, 58.0409
3.752, 5, -33.9421, 2.1477, 19.7771, -162.237, -95.8175, 58.0321
3.756, 5, -33.9364, 2.13257, 19.7902, -162.23, -95.8069, 58.0234
3.76, 5, -33.9308, 2.11743, 19.8033, -162.223, -95.7963, 58.0146
3.764, 5, -33.9251, 2.10229, 19.8164, -162.217, -95.7858, 58.0058
3.768, 5, -33.9195, 2.08715, 19.8295, -162.21, -95.7752, 57.9971
3.772, 5, -33.9138, 2.07201, 19.8426, -162.203, -95.7647, 57.9883
3.776, 5, -33.9082, 2.05686, 19.8557, -162.196, -95.7541, 57.9795
3.78, 5, -33.9025, 2.04172, 19.8688, -162.189, -95.7435, 57.9707
3.784, 5, -33.8969, 2.02657, 19.8819, -162.183, -95.733, 57.962
3.788, 5, -33.8912, 2.01142, 19.895, -162.176, -95.7224, 57.9532
3.792, 5, -33.8856, 1.99628, 19.9082, -162.169, -95.7119, 57.9444
3.796, 5, -33.88, 1.98113, 19.9213, -162.162, -95.7013, 57.9356
3.8, 5, -33.8743, 1.96598, 19.9344, -162.156, -95.6908, 57.9269
3.804, 5, -33.8687, 1.95083, 19.9475, -162.149, -95.6803, 57.9181
3.808, 5, -33.863, 1.93569, 19.9606, -162.142, -95.6697, 57.9093
3.812, 5, -33.8574, 1.92054, 19.9737, -162.135, -95.6592, 57.9005
3.816, 5, -33.8517, 1.90539, 19.9868, -162.128, -95.6487, 57.8917
3.82, 5, -33.8461, 1.89024, 19.9999, -162.122, -95.6381, 57.8829
3.824, 5, -33.8404, 1.87509, 20.013, -162.115, -95.6276, 57.8741
3.828, 5, -33.8348, 1.85994, 20.0261, -162.108, -95.6171, 57.8654
3.832, 5, -33.8292, 1.84479, 20.0392, -162.101, -95.6065, 57.8566
3.836, 5, -33.8235, 1.82964, 20.0523, -162.094, -95.596, 57.8478
3.84, 5, -33.8179, 1.8145, 20.0654, -162.088, -95.5855, 57.839
3.844, 5, -33.8122, 1.79935, 20.0785, -162.081, -95.575, 57.8302
3.848, 5, -33.8066, 1.7842, 20.0916, -162.074, -95.5644, 57.8214
3.852, 5, -33.8009, 1.76905, 20.1047, -162.067, -95.5539, 57.8126
3.856, 5, -33.7953, 1.7539, 20.1178, -162.06, -95.5434, 57.8038
3.86, 5, -33.7897, 1.73875, 20.1309, -162.054, -95.5329, 57.795
3.864, 5, -33.784, 1.7236, 20.144, -162.047, -95.5224, 57.7862
3.868, 5, -33.7784, 1.70845, 20.1571, -162.04, -95.5119, 57.7774
3.872, 5, -33.7727, 1.6933, 20.1702, -162.033, -95.5014, 57.7686
3.876, 5, -33.7671, 1.67815, 20.1833, -162.026, -95.4909, 57.7598
3.88, 5, -33.7615, 1.663, 20.1964, -162.019, -95.4804, 57.751
3.884, 5, -33.7558, 1.64785, 20.2095, -162.013, -95.4699, 57.7422
3.888, 5, -33.7502, 1.63269, 20.2226, -162.006, -95.4594, 57.7334
3.892, 5, -33.7445, 1.61754, 20.2356, -161.999, -95.4489, 57.7246
3.896, 5, -33.7389, 1.60239, 20.2487, -161.992, -95.4384, 57.7158
3.9, 5, -33.7333, 1.58724, 20.2618, -161.985, -95.4279, 57.707
3.904, 5, -33.7276, 1.57209, 20.2749, -161.978, -95.4174, 57.6982
3.908, 5, -33.722, 1.55694, 20.288, -161.972, -95.4069, 57.6893
3.912, 5, -33.7164, 1.54179, 20.3011, -161.965, -95.3965, 57.6805
3.916, 5, -33.7107, 1.52664, 20.3142, -161.958, -95.386, 57.6717
3.92, 5, -33.7051, 1.51148, 20.3273, -161.951, -95.3755, 57.6629
3.924, 5, -33.6994, 1.49633, 20.3404, -161.944, -95.365, 57.6541
3.928, 5, -33.6938, 1.48118, 20.3535, -161.937, -95.3546, 57.6453
3.932, 5, -33.6882, 1.46603, 20.3665, -161.931, -95.3441, 57.6364
3.936, 5, -33.6825, 1.45088, 20.3796, -161.924, -95.3336, 57.6276
3.94, 5, -33.6769, 1.43572, 20.3927, -161.917, -95.3232, 57.6188
3.944, 5, -33.6713, 1.42057, 20.4058, -161.91, -95.3127, 57.61
3.948, 5, -33.6656, 1.40542, 20.4189, -161.903, -95.3022, 57.6012
3.952, 5, -33.66, 1.39027, 20.432, -161.896, -95.2918, 57.5923
3.956, 5, -33.6544, 1.37511, 20.445, -161.889, -95.2813, 57.5835
3.96, 5, -33.6487, 1.35996, 20.4581, -161.883, -95.2709, 57.5747
3.964, 5, -33.6431, 1.34481, 20.4712, -161.876, -95.2604, 57.5659
3.968, 5, -33.6375, 1.32965, 20.4843, -161.869, -95.25, 57.557
3.972, 5, -33.6319, 1.3145, 20.4974, -161.862, -95.2395, 57.5482
3.976, 5, -33.6262, 1.29935, 20.5104, -161.855, -95.2291, 57.5394
3.98, 5, -33.6206, 1.28419, 20.5235, -161.848, -95.2186, 57.5305
3.984, 5, -33.615, 1.26904, 20.5366, -161.841, -95.2082, 57.5217
3.988, 5, -33.6093, 1.25389, 20.5497, -161.834, -95.1977, 57.5129
3.992, 5, -33.6037, 1.23873, 20.5628, -161.828, -95.1873, 57.504
3.996, 5, -33.5981, 1.22358, 20.5758, -161.821, -95.1769, 57.4952
3.999, 5, -33.5924, 1.20842, 20.5889, -161.814, -95.1664, 57.4864
4.004, 5, -33.5868, 1.19327, 20.602, -161.807, -95.156, 57.4775
4.008, 5, -33.5812, 1.17811, 20.6151, -161.8, -95.1456, 57.4687
4.012, 5, -33.5756, 1.16296, 20.6281, -161.793, -95.1352, 57.4598
4.016, 5, -33.5699, 1.1478, 20.6412, -161.786, -95.1247, 57.451
4.02, 5, -33.5643, 1.13265, 20.6543, -161.779, -95.1143, 57.4421
4.024, 5, -33.5587, 1.11749, 20.6674, -161.773, -95.1039, 57.4333
4.028, 5, -33.5531, 1.10234, 20.6804, -161.766, -95.0935, 57.4245
4.032, 5, -33.5474, 1.08718, 20.6935, -161.759, -95.0831, 57.4156
4.036, 5, -33.5418, 1.07203, 20.7066, -161.752, -95.0727, 57.4068
4.04, 5, -33.5362, 1.05687, 20.7196, -161.745, -95.0622, 57.3979
4.044, 5, -33.5305, 1.04172, 20.7327, -161.738, -95.0518, 57.3891
4.048, 5, -33.5249, 1.02656, 20.7458, -161.731, -95.0414, 57.3802
4.052, 5, -33.5193, 1.01141, 20.7588, -161.724, -95.031, 57.3714
4.056, 5, -33.5137, 0.996249, 20.7719, -161.717, -95.0206, 57.3625
4.06, 5, -33.508, 0.981093, 20.785, -161.71, -95.0102, 57.3536
4.064, 5, -33.5024, 0.965937, 20.798, -161.704, -94.9998, 57.3448
4.068, 5, -33.4968, 0.95078, 20.8111, -161.697, -94.9894, 57.3359
4.072, 5, -33.4912, 0.935624, 20.8242, -161.69, -94.9791, 57.3271
4.076, 5, -33.4856, 0.920467, 20.8372, -161.683, -94.9687, 57.3182
4.08, 5, -33.4799, 0.90531, 20.8503, -161.676, -94.9583, 57.3094
4.084, 5, -33.4743, 0.890153, 20.8634, -161.669, -94.9479, 57.3005
4.088, 5, -33.4687, 0.874996, 20.8764, -161.662, -94.9375, 57.2916
4.092, 5, -33.4631, 0.859839, 20.8895, -161.655, -94.9271, 57.2828
4.096, 5, -33.4575, 0.844682, 20.9025, -161.648, -94.9168, 57.2739
4.1, 5, -33.4518, 0.829524, 20.9156, -161.641, -94.9064, 57.265
4.104, 5, -33.4462, 0.814367, 20.9287, -161.634, -94.896, 57.2562
4.108, 5, -33.4406, 0.799209, 20.9417, -161.627, -94.8856, 57.2473
4.112, 5, -33.435, 0.784051, 20.9548, -161.62, -94.8753, 57.2384
4.116, 5, -33.4294, 0.768893, 20.9678, -161.613, -94.8649, 57.2295
4.12, 5, -33.4237, 0.753735, 20.9809, -161.607, -94.8545, 57.2207
4.124, 5, -33.4181, 0.738577, 20.994, -161.6, -94.8442, 57.2118
4.128, 5, -33.4125, 0.723419, 21.007, -161.593, -94.8338, 57.2029
4.132, 5, -33.4069, 0.70826, 21.0201, -161.586, -94.8235, 57.1941
4.136, 5, -33.4013, 0.693102, 21.0331, -161.579, -94.8131, 57.1852
4.14, 5, -33.3956, 0.677943, 21.0462, -161.572, -94.8028, 57.1763
4.144, 5, -33.39, 0.662784, 21.0592, -161.565, -94.7924, 57.1674
4.148, 5, -33.3844, 0.647625, 21.0723, -161.558, -94.7821, 57.1585
4.152, 5, -33.3788, 0.632466, 21.0853, -161.551, -94.7717, 57.1497
4.156, 5, -33.3732, 0.617307, 21.0984, -161.544, -94.7614, 57.1408
4.16, 5, -33.3676, 0.602148, 21.1114, -161.537, -94.751, 57.1319
4.164, 5, -33.362, 0.586988, 21.1245, -161.53, -94.7407, 57.123
4.168, 5, -33.3563, 0.571829, 21.1375, -161.523, -94.7303, 57.1141
4.172, 5, -33.3507, 0.556669, 21.1506, -161.516, -94.72, 57.1052
4.176, 5, -33.3451, 0.541509, 21.1636, -161.509, -94.7097, 57.0963
4.18, 5, -33.3395, 0.526349, 21.1767, -161.502, -94.6994, 57.0874
4.184, 5, -33.3339, 0.511189, 21.1897, -161.495, -94.689, 57.0786
4.188, 5, -33.3283, 0.496029, 21.2028, -161.488, -94.6787, 57.0697
4.192, 5, -33.3227, 0.480868, 21.2158, -161.481, -94.6684, 57.0608
4.196, 5, -33.3171, 0.465708, 21.2289, -161.474, -94.6581, 57.0519
4.2, 5, -33.3114, 0.450547, 21.2419, -161.467, -94.6477, 57.043
4.204, 5, -33.3058, 0.435386, 21.255, -161.46, -94.6374, 57.0341
4.208, 5, -33.3002, 0.420226, 21.268, -161.453, -94.6271, 57.0252
4.212, 5, -33.2946, 0.405065, 21.2811, -161.446, -94.6168, 57.0163
4.216, 5, -33.289, 0.389903, 21.2941, -161.439, -94.6065, 57.0074
4.22, 5, -33.2834, 0.374742, 21.3071, -161.432, -94.5962, 56.9985
4.224, 5, -33.2778, 0.359581, 21.3202, -161.426, -94.5859, 56.9896
4.228, 5, -33.2722, 0.344419, 21.3332, -161.419, -94.5756, 56.9807
4.232, 5, -33.2666, 0.329258, 21.3463, -161.412, -94.5653, 56.9718
4.236, 5, -33.261, 0.314096, 21.3593, -161.405, -94.555, 56.9629
4.24, 5, -33.2553, 0.298934, 21.3723, -161.398, -94.5447, 56.9539
4.244, 5, -33.2497, 0.283772, 21.3854, -161.391, -94.5344, 56.945
4.248, 5, -33.2441, 0.26861, 21.3984, -161.384, -94.5241, 56.9361
4.252, 5, -33.2385, 0.253447, 21.4115, -161.377, -94.5138, 56.9272
4.256, 5, -33.2329, 0.238285, 21.4245, -161.37, -94.5035, 56.9183
4.26, 5, -33.2273, 0.223122, 21.4375, -161.363, -94.4932, 56.9094
4.264, 5, -33.2217, 0.20796, 21.4506, -161.356, -94.483, 56.9005
4.268, 5, -33.2161, 0.192797, 21.4636, -161.349, -94.4727, 56.8916
4.272, 5, -33.2105, 0.177634, 21.4766, -161.342, -94.4624, 56.8826
4.276, 5, -33.2049, 0.162471, 21.4897, -161.335, -94.4521, 56.8737
4.28, 5, -33.1993, 0.147308, 21.5027, -161.327, -94.4419, 56.8648
4.284, 5, -33.1937, 0.132144, 21.5157, -161.32, -94.4316, 56.8559
4.288, 5, -33.1881, 0.116981, 21.5288, -161.313, -94.4213, 56.847
4.292, 5, -33.1825, 0.101817, 21.5418, -161.306, -94.411, 56.838
4.296, 5, -33.1769, 0.0866535, 21.5548, -161.299, -94.4008, 56.8291
4.3, 5, -33.1713, 0.0714897, 21.5679, -161.292, -94.3905, 56.8202
4.304, 5, -33.1657, 0.0563257, 21.5809, -161.285, -94.3803, 56.8113
4.308, 5, -33.1601, 0.0411616, 21.5939, -161.278, -94.37, 56.8023
4.312, 5, -33.1545, 0.0259973, 21.6069, -161.271, -94.3598, 56.7934
4.316, 5, -33.1489, 0.010833, 21.62, -161.264, -94.3495, 56.7845
4.32, 5, -33.1433, -0.00433154, 21.633, -161.257, -94.3393, 56.7755
4.324, 5, -33.1377, -0.0194962, 21.646, -161.25, -94.329, 56.7666
4.328, 5, -33.1321, -0.0346609, 21.659, -161.243, -94.3188, 56.7577
4.332, 5, -33.1265, -0.0498258, 21.6721, -161.236, -94.3085, 56.7487
4.336, 5, -33.1209, -0.0649908, 21.6851, -161.229, -94.2983, 56.7398
4.34, 5, -33.1153, -0.080156, 21.6981, -161.222, -94.288, 56.7309
4.344, 5, -33.1097, -0.0953213, 21.7111, -161.215, -94.2778, 56.7219
4.348, 5, -33.1041, -0.110487, 21.7242, -161.208, -94.2676, 56.713
4.352, 5, -33.0985, -0.125652, 21.7372, -161.201, -94.2573, 56.704
4.356, 5, -33.0929, -0.140818, 21.7502, -161.194, -94.2471, 56.6951
4.36, 5, -33.0873, -0.155984, 21.7632, -161.187, -94.2369, 56.6862
4.364, 5, -33.0817, -0.17115, 21.7762, -161.18, -94.2267, 56.6772
4.368, 5, -33.0761, -0.186316, 21.7893, -161.173, -94.2164, 56.6683
4.372, 5, -33.0705, -0.201482, 21.8023, -161.166, -94.2062, 56.6593
4.376, 5, -33.0649, -0.216648, 21.8153, -161.159, -94.196, 56.6504
4.38, 5, -33.0593, -0.231815, 21.8283, -161.152, -94.1858, 56.6414
4.384, 5, -33.0537, -0.246981, 21.8413, -161.144, -94.1756, 56.6325
4.388, 5, -33.0481, -0.262148, 21.8544, -161.137, -94.1654, 56.6235
4.392, 5, -33.0425, -0.277315, 21.8674, -161.13, -94.1552, 56.6146
4.396, 5, -33.0369, -0.292482, 21.8804, -161.123, -94.145, 56.6056
4.4, 5, -33.0313, -0.307649, 21.8934, -161.116, -94.1348, 56.5967
4.404, 5, -33.0257, -0.322816, 21.9064, -161.109, -94.1246, 56.5877
4.408, 5, -33.0201, -0.337983, 21.9194, -161.102, -94.1144, 56.5788
4.412, 5, -33.0145, -0.353151, 21.9324, -161.095, -94.1042, 56.5698
4.416, 5, -33.0089, -0.368318, 21.9455, -161.088, -94.094, 56.5608
4.42, 5, -33.0033, -0.383486, 21.9585, -161.081, -94.0838, 56.5519
4.424, 5, -32.9977, -0.398654, 21.9715, -161.074, -94.0736, 56.5429
4.428, 5, -32.9922, -0.413822, 21.9845, -161.067, -94.0634, 56.534
4.432, 5, -32.9866, -0.42899, 21.9975, -161.06, -94.0532, 56.525
4.436, 5, -32.981, -0.444158, 22.0105, -161.052, -94.043, 56.516
4.44, 5, -32.9754, -0.459327, 22.0235, -161.045, -94.0328, 56.5071
4.444, 5, -32.9698, -0.474495, 22.0365, -161.038, -94.0227, 56.4981
4.448, 5, -32.9642, -0.489664, 22.0495, -161.031, -94.0125, 56.4891
4.452, 5, -32.9586, -0.504833, 22.0625, -161.024, -94.0023, 56.4802
4.456, 5, -32.953, -0.520002, 22.0755, -161.017, -93.9921, 56.4712
4.46, 5, -32.9474, -0.535171, 22.0886, -161.01, -93.982, 56.4622
4.464, 5, -32.9418, -0.55034, 22.1016, -161.003, -93.9718, 56.4532
4.468, 5, -32.9363, -0.565509, 22.1146, -160.996, -93.9616, 56.4443
4.472, 5, -32.9307, -0.580679, 22.1276, -160.989, -93.9515, 56.4353
4.476, 5, -32.9251, -0.595848, 22.1406, -160.981, -93.9413, 56.4263
4.48, 5, -32.9195, -0.611018, 22.1536, -160.974, -93.9312, 56.4173
4.484, 5, -32.9139, -0.626188, 22.1666, -160.967, -93.921, 56.4084
4.488, 5, -32.9083, -0.641358, 22.1796, -160.96, -93.9109, 56.3994
4.492, 5, -32.9027, -0.656528, 22.1926, -160.953, -93.9007, 56.3904
4.496, 5, -32.8971, -0.671698, 22.2056, -160.946, -93.8906, 56.3814
4.5, 5, -32.8916, -0.686869, 22.2186, -160.939, -93.8804, 56.3724
4.504, 5, -32.886, -0.702039, 22.2316, -160.932, -93.8703, 56.3634
4.508, 5, -32.8804, -0.71721, 22.2446, -160.925, -93.8601, 56.3545
4.512, 5, -32.8748, -0.73238, 22.2576, -160.917, -93.85, 56.3455
4.516, 5, -32.8692, -0.747551, 22.2706, -160.91, -93.8399, 56.3365
4.52, 5, -32.8636, -0.762722, 22.2836, -160.903, -93.8297, 56.3275
4.524, 5, -32.858, -0.777893, 22.2966, -160.896, -93.8196, 56.3185
4.528, 5, -32.8525, -0.793065, 22.3096, -160.889, -93.8095, 56.3095
4.532, 5, -32.8469, -0.808236, 22.3226, -160.882, -93.7993, 56.3005
4.536, 5, -32.8413, -0.823408, 22.3355, -160.875, -93.7892, 56.2915
4.54, 5, -32.8357, -0.838579, 22.3485, -160.867, -93.7791, 56.2825
4.544, 5, -32.8301, -0.853751, 22.3615, -160.86, -93.769, 56.2735
4.548, 5, -32.8246, -0.868923, 22.3745, -160.853, -93.7589, 56.2645
4.552, 5, -32.819, -0.884095, 22.3875, -160.846, -93.7487, 56.2555
4.556, 5, -32.8134, -0.899267, 22.4005, -160.839, -93.7386, 56.2465
4.56, 5, -32.8078, -0.91444, 22.4135, -160.832, -93.7285, 56.2375
4.564, 5, -32.8022, -0.929612, 22.4265, -160.825, -93.7184, 56.2285
4.568, 5, -32.7966, -0.944785, 22.4395, -160.817, -93.7083, 56.2195
4.572, 5, -32.7911, -0.959957, 22.4525, -160.81, -93.6982, 56.2105
4.576, 5, -32.7855, -0.97513, 22.4655, -160.803, -93.6881, 56.2015
4.58, 5, -32.7799, -0.990303, 22.4784, -160.796, -93.678, 56.1925
4.584, 5, -32.7743, -1.00548, 22.4914, -160.789, -93.6679, 56.1835
4.588, 5, -32.7688, -1.02065, 22.5044, -160.782, -93.6578, 56.1745
4.592, 5, -32.7632, -1.03582, 22.5174, -160.774, -93.6477, 56.1655
4.596, 5, -32.7576, -1.051, 22.5304, -160.767, -93.6376, 56.1565
4.6, 5, -32.752, -1.06617, 22.5434, -160.76, -93.6275, 56.1475
4.604, 5, -32.7464, -1.08134, 22.5564, -160.753, -93.6174, 56.1384
4.608, 5, -32.7409, -1.09652, 22.5693, -160.746, -93.6074, 56.1294
4.612, 5, -32.7353, -1.11169, 22.5823, -160.739, -93.5973, 56.1204
4.616, 5, -32.7297, -1.12687, 22.5953, -160.731, -93.5872, 56.1114
4.62, 5, -32.7241, -1.14204, 22.6083, -160.724, -93.5771, 56.1024
4.624, 5, -32.7186, -1.15721, 22.6213, -160.717, -93.5671, 56.0934
4.628, 5, -32.713, -1.17239, 22.6342, -160.71, -93.557, 56.0843
4.632, 5, -32.7074, -1.18756, 22.6472, -160.703, -93.5469, 56.0753
4.636, 5, -32.7018, -1.20274, 22.6602, -160.696, -93.5368, 56.0663
4.64, 5, -32.6963, -1.21791, 22.6732, -160.688, -93.5268, 56.0573
4.644, 5, -32.6907, -1.23309, 22.6862, -160.681, -93.5167, 56.0482
4.648, 5, -32.6851, -1.24826, 22.6991, -160.674, -93.5067, 56.0392
4.652, 5, -32.6795, -1.26344, 22.7121, -160.667, -93.4966, 56.0302
4.656, 5, -32.674, -1.27861, 22.7251, -160.66, -93.4865, 56.0212
4.66, 5, -32.6684, -1.29379, 22.7381, -160.652, -93.4765, 56.0121
4.664, 5, -32.6628, -1.30897, 22.751, -160.645, -93.4664, 56.0031
4.668, 5, -32.6573, -1.32414, 22.764, -160.638, -93.4564, 55.9941
4.672, 5, -32.6517, -1.33932, 22.777, -160.631, -93.4463, 55.985
4.676, 5, -32.6461, -1.35449, 22.79, -160.624, -93.4363, 55.976
4.68, 5, -32.6405, -1.36967, 22.8029, -160.616, -93.4263, 55.967
4.684, 5, -32.635, -1.38485, 22.8159, -160.609, -93.4162, 55.9579
4.688, 5, -32.6294, -1.40002, 22.8289, -160.602, -93.4062, 55.9489
4.692, 5, -32.6238, -1.4152, 22.8418, -160.595, -93.3962, 55.9398
4.696, 5, -32.6183, -1.43038, 22.8548, -160.588, -93.3861, 55.9308
4.7, 5, -32.6127, -1.44555, 22.8678, -160.58, -93.3761, 55.9218
4.704, 5, -32.6071, -1.46073, 22.8808, -160.573, -93.3661, 55.9127
4.708, 5, -32.6016, -1.47591, 22.8937, -160.566, -93.356, 55.9037
4.712, 5, -32.596, -1.49109, 22.9067, -160.559, -93.346, 55.8946
4.716, 5, -32.5904, -1.50626, 22.9197, -160.551, -93.336, 55.8856
4.72, 5, -32.5849, -1.52144, 22.9326, -160.544, -93.326, 55.8765
4.724, 5, -32.5793, -1.53662, 22.9456, -160.537, -93.316, 55.8675
4.728, 5, -32.5737, -1.5518, 22.9586, -160.53, -93.3059, 55.8584
4.732, 5, -32.5681, -1.56697, 22.9715, -160.523, -93.2959, 55.8494
4.736, 5, -32.5626, -1.58215, 22.9845, -160.515, -93.2859, 55.8403
4.74, 5, -32.557, -1.59733, 22.9974, -160.508, -93.2759, 55.8313
4.744, 5, -32.5515, -1.61251, 23.0104, -160.501, -93.2659, 55.8222
4.748, 5, -32.5459, -1.62769, 23.0234, -160.494, -93.2559, 55.8132
4.752, 5, -32.5403, -1.64287, 23.0363, -160.486, -93.2459, 55.8041
4.756, 5, -32.5348, -1.65805, 23.0493, -160.479, -93.2359, 55.7951
4.76, 5, -32.5292, -1.67322, 23.0623, -160.472, -93.2259, 55.786
4.764, 5, -32.5236, -1.6884, 23.0752, -160.465, -93.2159, 55.7769
4.768, 5, -32.5181, -1.70358, 23.0882, -160.457, -93.2059, 55.7679
4.772, 5, -32.5125, -1.71876, 23.1011, -160.45, -93.196, 55.7588
4.776, 5, -32.5069, -1.73394, 23.1141, -160.443, -93.186, 55.7498
4.78, 5, -32.5014, -1.74912, 23.127, -160.436, -93.176, 55.7407
4.784, 5, -32.4958, -1.7643, 23.14, -160.428, -93.166, 55.7316
4.788, 5, -32.4903, -1.77948, 23.153, -160.421, -93.156, 55.7226
4.792, 5, -32.4847, -1.79466, 23.1659, -160.414, -93.1461, 55.7135
4.796, 5, -32.4791, -1.80984, 23.1789, -160.407, -93.1361, 55.7044
4.8, 5, -32.4736, -1.82502, 23.1918, -160.399, -93.1261, 55.6954
4.804, 5, -32.468, -1.8402, 23.2048, -160.392, -93.1161, 55.6863
4.808, 5, -32.4625, -1.85538, 23.2177, -160.385, -93.1062, 55.6772
4.812, 5, -32.4569, -1.87056, 23.2307, -160.377, -93.0962, 55.6681
4.816, 5, -32.4513, -1.88574, 23.2436, -160.37, -93.0863, 55.6591
4.82, 5, -32.4458, -1.90092, 23.2566, -160.363, -93.0763, 55.65
4.824, 5, -32.4402, -1.91611, 23.2695, -160.356, -93.0663, 55.6409
4.828, 5, -32.4347, -1.93129, 23.2825, -160.348, -93.0564, 55.6318
4.832, 5, -32.4291, -1.94647, 23.2954, -160.341, -93.0464, 55.6227
4.836, 5, -32.4235, -1.96165, 23.3084, -160.334, -93.0365, 55.6137
4.84, 5, -32.418, -1.97683, 23.3213, -160.327, -93.0265, 55.6046
4.844, 5, -32.4124, -1.99201, 23.3343, -160.319, -93.0166, 55.5955
4.848, 5, -32.4069, -2.00719, 23.3472, -160.312, -93.0067, 55.5864
4.852, 5, -32.4013, -2.02238, 23.3602, -160.305, -92.9967, 55.5773
4.856, 5, -32.3958, -2.03756, 23.3731, -160.297, -92.9868, 55.5682
4.86, 5, -32.3902, -2.05274, 23.3861, -160.29, -92.9768, 55.5591
4.864, 5, -32.3846, -2.06792, 23.399, -160.283, -92.9669, 55.5501
4.868, 5, -32.3791, -2.08311, 23.412, -160.275, -92.957, 55.541
4.872, 5, -32.3735, -2.09829, 23.4249, -160.268, -92.947, 55.5319
4.876, 5, -32.368, -2.11347, 23.4378, -160.261, -92.9371, 55.5228
4.88, 5, -32.3624, -2.12865, 23.4508, -160.254, -92.9272, 55.5137
4.884, 5, -32.3569, -2.14384, 23.4637, -160.246, -92.9173, 55.5046
4.888, 5, -32.3513, -2.15902, 23.4767, -160.239, -92.9074, 55.4955
4.892, 5, -32.3458, -2.1742, 23.4896, -160.232, -92.8974, 55.4864
4.896, 5, -32.3402, -2.18939, 23.5026, -160.224, -92.8875, 55.4773
4.9, 5, -32.3347, -2.20457, 23.5155, -160.217, -92.8776, 55.4682
4.904, 5, -32.3291, -2.21975, 23.5284, -160.21, -92.8677, 55.4591
4.908, 5, -32.3236, -2.23494, 23.5414, -160.202, -92.8578, 55.45
4.912, 5, -32.318, -2.25012, 23.5543, -160.195, -92.8479, 55.4409
4.916, 5, -32.3125, -2.26531, 23.5672, -160.188, -92.838, 55.4318
4.92, 5, -32.3069, -2.28049, 23.5802, -160.18, -92.8281, 55.4227
4.924, 5, -32.3013, -2.29568, 23.5931, -160.173, -92.8182, 55.4136
4.928, 5, -32.2958, -2.31086, 23.6061, -160.166, -92.8083, 55.4045
4.932, 5, -32.2903, -2.32604, 23.619, -160.158, -92.7984, 55.3954
4.936, 5, -32.2847, -2.34123, 23.6319, -160.151, -92.7885, 55.3863
4.94, 5, -32.2792, -2.35641, 23.6449, -160.144, -92.7786, 55.3771
4.944, 5, -32.2736, -2.3716, 23.6578, -160.136, -92.7687, 55.368
4.948, 5, -32.2681, -2.38678, 23.6707, -160.129, -92.7588, 55.3589
4.952, 5, -32.2625, -2.40197, 23.6837, -160.122, -92.749, 55.3498
4.956, 5, -32.257, -2.41716, 23.6966, -160.114, -92.7391, 55.3407
4.96, 5, -32.2514, -2.43234, 23.7095, -160.107, -92.7292, 55.3316
4.964, 5, -32.2459, -2.44753, 23.7224, -160.1, -92.7193, 55.3225
4.968, 5, -32.2403, -2.46271, 23.7354, -160.092, -92.7095, 55.3133
4.972, 5, -32.2348, -2.4779, 23.7483, -160.085, -92.6996, 55.3042
4.976, 5, -32.2292, -2.49308, 23.7612, -160.078, -92.6897, 55.2951
4.98, 5, -32.2237, -2.50827, 23.7742, -160.07, -92.6799, 55.286
4.984, 5, -32.2181, -2.52346, 23.7871, -160.063, -92.67, 55.2769
4.988, 5, -32.2126, -2.53864, 23.8, -160.056, -92.6601, 55.2677
4.992, 5, -32.207, -2.55383, 23.8129, -160.048, -92.6503, 55.2586
4.996, 5, -32.2015, -2.56902, 23.8259, -160.041, -92.6404, 55.2495
5, 5, -32.196, -2.5842, 23.8388, -160.034, -92.6306, 55.2403
5.004, 5, -32.1904, -2.59939, 23.8517, -160.026, -92.6207, 55.2312
5.008, 5, -32.1849, -2.61458, 23.8646, -160.019, -92.6109, 55.2221
5.012, 5, -32.1793, -2.62977, 23.8776, -160.011, -92.601, 55.213
5.016, 5, -32.1738, -2.64495, 23.8905, -160.004, -92.5912, 55.2038
5.02, 5, -32.1682, -2.66014, 23.9034, -159.997, -92.5813, 55.1947
5.024, 5, -32.1627, -2.67533, 23.9163, -159.989, -92.5715, 55.1855
5.028, 5, -32.1572, -2.69052, 23.9292, -159.982, -92.5617, 55.1764
5.032, 5, -32.1516, -2.7057, 23.9422, -159.975, -92.5518, 55.1673
5.036, 5, -32.1461, -2.72089, 23.9551, -159.967, -92.542, 55.1581
5.04, 5, -32.1405, -2.73608, 23.968, -159.96, -92.5322, 55.149
5.044, 5, -32.135, -2.75127, 23.9809, -159.952, -92.5223, 55.1399
5.048, 5, -32.1294, -2.76646, 23.9938, -159.945, -92.5125, 55.1307
5.052, 5, -32.1239, -2.78165, 24.0067, -159.938, -92.5027, 55.1216
5.056, 5, -32.1184, -2.79684, 24.0197, -159.93, -92.4929, 55.1124
5.06, 5, -32.1128, -2.81203, 24.0326, -159.923, -92.4831, 55.1033
5.064, 5, -32.1073, -2.82721, 24.0455, -159.915, -92.4732, 55.0941
5.068, 5, -32.1017, -2.8424, 24.0584, -159.908, -92.4634, 55.085
5.072, 5, -32.0962, -2.85759, 24.0713, -159.901, -92.4536, 55.0758
5.076, 5, -32.0907, -2.87278, 24.0842, -159.893, -92.4438, 55.0667
5.08, 5, -32.0851, -2.88797, 24.0971, -159.886, -92.434, 55.0575
5.084, 5, -32.0796, -2.90316, 24.1101, -159.878, -92.4242, 55.0484
5.088, 5, -32.0741, -2.91835, 24.123, -159.871, -92.4144, 55.0392
5.092, 5, -32.0685, -2.93354, 24.1359, -159.864, -92.4046, 55.0301
5.096, 5, -32.063, -2.94873, 24.1488, -159.856, -92.3948, 55.0209
5.1, 5, -32.0574, -2.96392, 24.1617, -159.849, -92.385, 55.0118
5.104, 5, -32.0519, -2.97911, 24.1746, -159.841, -92.3752, 55.0026
5.108, 5, -32.0464, -2.9943, 24.1875, -159.834, -92.3654, 54.9934
5.112, 5, -32.0408, -3.00949, 24.2004, -159.827, -92.3557, 54.9843
5.116, 5, -32.0353, -3.02469, 24.2133, -159.819, -92.3459, 54.9751
5.12, 5, -32.0298, -3.03988, 24.2262, -159.812, -92.3361, 54.966
5.124, 5, -32.0242, -3.05507, 24.2391, -159.804, -92.3263, 54.9568
5.128, 5, -32.0187, -3.07026, 24.2521, -159.797, -92.3165, 54.9476
5.132, 5, -32.0132, -3.08545, 24.265, -159.789, -92.3068, 54.9385
5.136, 5, -32.0076, -3.10064, 24.2779, -159.782, -92.297, 54.9293
5.14, 5, -32.0021, -3.11583, 24.2908, -159.775, -92.2872, 54.9201
5.144, 5, -31.9966, -3.13103, 24.3037, -159.767, -92.2774, 54.911
5.148, 5, -31.991, -3.14622, 24.3166, -159.76, -92.2677, 54.9018
5.152, 5, -31.9855, -3.16141, 24.3295, -159.752, -92.2579, 54.8926
5.156, 5, -31.98, -3.1766, 24.3424, -159.745, -92.2482, 54.8834
5.16, 5, -31.9744, -3.19179, 24.3553, -159.737, -92.2384, 54.8743
5.164, 5, -31.9689, -3.20699, 24.3682, -159.73, -92.2286, 54.8651
5.168, 5, -31.9634, -3.22218, 24.3811, -159.723, -92.2189, 54.8559
5.172, 5, -31.9578, -3.23737, 24.394, -159.715, -92.2091, 54.8467
5.176, 5, -31.9523, -3.25256, 24.4069, -159.708, -92.1994, 54.8376
5.18, 5, -31.9468, -3.26776, 24.4198, -159.7, -92.1896, 54.8284
5.184, 5, -31.9413, -3.28295, 24.4327, -159.693, -92.1799, 54.8192
5.188, 5, -31.9357, -3.29814, 24.4456, -159.685, -92.1702, 54.81
5.192, 5, -31.9302, -3.31334, 24.4585, -159.678, -92.1604, 54.8008
5.196, 5, -31.9247, -3.32853, 24.4714, -159.67, -92.1507, 54.7916
5.2, 5, -31.9191, -3.34373, 24.4843, -159.663, -92.1409, 54.7825
5.204, 5, -31.9136, -3.35892, 24.4971, -159.655, -92.1312, 54.7733
5.208, 5, -31.9081, -3.37411, 24.51, -159.648, -92.1215, 54.7641
5.212, 5, -31.9026, -3.38931, 24.5229, -159.641, -92.1118, 54.7549
5.216, 5, -31.897, -3.4045, 24.5358, -159.633, -92.102, 54.7457
5.22, 5, -31.8915, -3.4197, 24.5487, -159.626, -92.0923, 54.7365
5.224, 5, -31.886, -3.43489, 24.5616, -159.618, -92.0826, 54.7273
5.228, 5, -31.8805, -3.45009, 24.5745, -159.611, -92.0729, 54.7181
5.232, 5, -31.8749, -3.46528, 24.5874, -159.603, -92.0632, 54.7089
5.236, 5, -31.8694, -3.48047, 24.6003, -159.596, -92.0535, 54.6997
5.24, 5, -31.8639, -3.49567, 24.6132, -159.588, -92.0437, 54.6905
5.244, 5, -31.8584, -3.51087, 24.6261, -159.581, -92.034, 54.6813
5.248, 5, -31.8528, -3.52606, 24.6389, -159.573, -92.0243, 54.6721
5.252, 5, -31.8473, -3.54126, 24.6518, -159.566, -92.0146, 54.6629
5.256, 5, -31.8418, -3.55645, 24.6647, -159.558, -92.0049, 54.6537
5.26, 5, -31.8363, -3.57165, 24.6776, -159.551, -91.9952, 54.6445
5.264, 5, -31.8307, -3.58684, 24.6905, -159.543, -91.9855, 54.6353
5.268, 5, -31.8252, -3.60204, 24.7034, -159.536, -91.9758, 54.6261
5.272, 5, -31.8197, -3.61724, 24.7163, -159.528, -91.9661, 54.6169
5.276, 5, -31.8142, -3.63243, 24.7291, -159.521, -91.9565, 54.6077
5.28, 5, -31.8086, -3.64763, 24.742, -159.513, -91.9468, 54.5985
5.284, 5, -31.8031, -3.66283, 24.7549, -159.506, -91.9371, 54.5893
5.288, 5, -31.7976, -3.67802, 24.7678, -159.498, -91.9274, 54.5801
5.292, 5, -31.7921, -3.69322, 24.7807, -159.491, -91.9177, 54.5709
5.296, 5, -31.7866, -3.70842, 24.7935, -159.483, -91.9081, 54.5616
5.3, 5, -31.781, -3.72361, 24.8064, -159.476, -91.8984, 54.5524
5.304, 5, -31.7755, -3.73881, 24.8193, -159.468, -91.8887, 54.5432
5.308, 5, -31.77, -3.75401, 24.8322, -159.461, -91.879, 54.534
5.312, 5, -31.7645, -3.76921, 24.8451, -159.453, -91.8694, 54.5248
5.316, 5, -31.759, -3.7844, 24.8579, -159.446, -91.8597, 54.5156
5.32, 5, -31.7534, -3.7996, 24.8708, -159.438, -91.85, 54.5063
5.324, 5, -31.7479, -3.8148, 24.8837, -159.431, -91.8404, 54.4971
5.328, 5, -31.7424, -3.83, 24.8966, -159.423, -91.8307, 54.4879
5.332, 5, -31.7369, -3.8452, 24.9094, -159.416, -91.8211, 54.4787
5.336, 5, -31.7314, -3.86039, 24.9223, -159.408, -91.8114, 54.4694
5.34, 5, -31.7259, -3.87559, 24.9352, -159.401, -91.8018, 54.4602
5.344, 5, -31.7203, -3.89079, 24.9481, -159.393, -91.7921, 54.451
5.348, 5, -31.7148, -3.90599, 24.9609, -159.385, -91.7825, 54.4418
5.352, 5, -31.7093, -3.92119, 24.9738, -159.378, -91.7728, 54.4325
5.356, 5, -31.7038, -3.93639, 24.9867, -159.37, -91.7632, 54.4233
5.36, 5, -31.6983, -3.95159, 24.9996, -159.363, -91.7536, 54.4141
5.364, 5, -31.6928, -3.96679, 25.0124, -159.355, -91.7439, 54.4048
5.368, 5, -31.6872, -3.98199, 25.0253, -159.348, -91.7343, 54.3956
5.372, 5, -31.6817, -3.99719, 25.0382, -159.34, -91.7247, 54.3864
5.376, 5, -31.6762, -4.01238, 25.051, -159.333, -91.715, 54.3771
5.38, 5, -31.6707, -4.02759, 25.0639, -159.325, -91.7054, 54.3679
5.384, 5, -31.6652, -4.04278, 25.0768, -159.318, -91.6958, 54.3587
5.388, 5, -31.6597, -4.05799, 25.0896, -159.31, -91.6861, 54.3494
5.392, 5, -31.6542, -4.07319, 25.1025, -159.302, -91.6765, 54.3402
5.396, 5, -31.6487, -4.08839, 25.1154, -159.295, -91.6669, 54.3309
5.4, 5, -31.6431, -4.10359, 25.1282, -159.287, -91.6573, 54.3217
5.404, 5, -31.6376, -4.11879, 25.1411, -159.28, -91.6477, 54.3124
5.408, 5, -31.6321, -4.13399, 25.154, -159.272, -91.6381, 54.3032
5.412, 5, -31.6266, -4.14919, 25.1668, -159.265, -91.6285, 54.294
5.416, 5, -31.6211, -4.16439, 25.1797, -159.257, -91.6189, 54.2847
5.42, 5, -31.6156, -4.17959, 25.1926, -159.25, -91.6093, 54.2755
5.424, 5, -31.6101, -4.19479, 25.2054, -159.242, -91.5997, 54.2662
5.428, 5, -31.6046, -4.20999, 25.2183, -159.234, -91.5901, 54.257
5.432, 5, -31.5991, -4.2252, 25.2311, -159.227, -91.5805, 54.2477
5.436, 5, -31.5935, -4.2404, 25.244, -159.219, -91.5709, 54.2384
5.44, 5, -31.588, -4.2556, 25.2569, -159.212, -91.5613, 54.2292
5.444, 5, -31.5825, -4.2708, 25.2697, -159.204, -91.5517, 54.2199
5.448, 5, -31.577, -4.286, 25.2826, -159.197, -91.5421, 54.2107
5.452, 5, -31.5715, -4.30121, 25.2954, -159.189, -91.5325, 54.2014
5.456, 5, -31.566, -4.31641, 25.3083, -159.181, -91.523, 54.1922
5.46, 5, -31.5605, -4.33161, 25.3211, -159.174, -91.5134, 54.1829
5.464, 5, -31.555, -4.34681, 25.334, -159.166, -91.5038, 54.1736
5.468, 5, -31.5495, -4.36202, 25.3469, -159.159, -91.4942, 54.1644
5.472, 5, -31.544, -4.37722, 25.3597, -159.151, -91.4847, 54.1551
5.476, 5, -31.5385, -4.39242, 25.3726, -159.143, -91.4751, 54.1459
5.48, 5, -31.533, -4.40763, 25.3854, -159.136, -91.4655, 54.1366
5.484, 5, -31.5275, -4.42283, 25.3983, -159.128, -91.456, 54.1273
5.488, 5, -31.5219, -4.43803, 25.4111, -159.121, -91.4464, 54.118
5.492, 5, -31.5164, -4.45324, 25.424, -159.113, -91.4369, 54.1088
5.496, 5, -31.5109, -4.46844, 25.4368, -159.105, -91.4273, 54.0995
5.5, 5, -31.5054, -4.48365, 25.4497, -159.098, -91.4177, 54.0902
5.504, 5, -31.4999, -4.49885, 25.4625, -159.09, -91.4082, 54.081
5.508, 5, -31.4944, -4.51405, 25.4754, -159.083, -91.3986, 54.0717
5.512, 5, -31.4889, -4.52926, 25.4882, -159.075, -91.3891, 54.0624
5.516, 5, -31.4834, -4.54446, 25.5011, -159.067, -91.3796, 54.0531
5.52, 5, -31.4779, -4.55967, 25.5139, -159.06, -91.37, 54.0439
5.524, 5, -31.4724, -4.57487, 25.5268, -159.052, -91.3605, 54.0346
5.528, 5, -31.4669, -4.59008, 25.5396, -159.044, -91.3509, 54.0253
5.532, 5, -31.4614, -4.60528, 25.5525, -159.037, -91.3414, 54.016
5.536, 5, -31.4559, -4.62049, 25.5653, -159.029, -91.3319, 54.0067
5.54, 5, -31.4504, -4.63569, 25.5781, -159.022, -91.3223, 53.9975
5.544, 5, -31.4449, -4.6509, 25.591, -159.014, -91.3128, 53.9882
5.548, 5, -31.4394, -4.66611, 25.6038, -159.006, -91.3033, 53.9789
5.552, 5, -31.4339, -4.68131, 25.6167, -158.999, -91.2938, 53.9696
5.556, 5, -31.4284, -4.69652, 25.6295, -158.991, -91.2842, 53.9603
5.56, 5, -31.4229, -4.71172, 25.6424, -158.983, -91.2747, 53.951
5.564, 5, -31.4174, -4.72693, 25.6552, -158.976, -91.2652, 53.9417
5.568, 5, -31.4119, -4.74214, 25.668, -158.968, -91.2557, 53.9324
5.572, 5, -31.4064, -4.75734, 25.6809, -158.96, -91.2462, 53.9231
5.576, 5, -31.4009, -4.77255, 25.6937, -158.953, -91.2367, 53.9138
5.58, 5, -31.3954, -4.78776, 25.7066, -158.945, -91.2272, 53.9046
5.584, 5, -31.3899, -4.80296, 25.7194, -158.938, -91.2177, 53.8953
5.588, 5, -31.3844, -4.81817, 25.7322, -158.93, -91.2082, 53.886
5.592, 5, -31.3789, -4.83338, 25.7451, -158.922, -91.1987, 53.8767
5.596, 5, -31.3734, -4.84858, 25.7579, -158.915, -91.1892, 53.8674
5.6, 5, -31.3679, -4.86379, 25.7708, -158.907, -91.1797, 53.8581
5.604, 5, -31.3624, -4.879, 25.7836, -158.899, -91.1702, 53.8488
5.608, 5, -31.3569, -4.89421, 25.7964, -158.892, -91.1607, 53.8395
5.612, 5, -31.3514, -4.90942, 25.8093, -158.884, -91.1512, 53.8302
5.616, 5, -31.3459, -4.92462, 25.8221, -158.876, -91.1417, 53.8209
5.62, 5, -31.3404, -4.93983, 25.8349, -158.869, -91.1323, 53.8115
5.624, 5, -31.3349, -4.95504, 25.8478, -158.861, -91.1228, 53.8022
5.628, 5, -31.3295, -4.97025, 25.8606, -158.853, -91.1133, 53.7929
5.632, 5, -31.324, -4.98546, 25.8734, -158.846, -91.1038, 53.7836
5.636, 5, -31.3185, -5.00067, 25.8862, -158.838, -91.0944, 53.7743
5.64, 5, -31.313, -5.01588, 25.8991, -158.83, -91.0849, 53.765
5.644, 5, -31.3075, -5.03108, 25.9119, -158.822, -91.0754, 53.7557
5.648, 5, -31.302, -5.04629, 25.9247, -158.815, -91.066, 53.7464
5.652, 5, -31.2965, -5.0615, 25.9376, -158.807, -91.0565, 53.7371
5.656, 5, -31.291, -5.07671, 25.9504, -158.799, -91.0471, 53.7277
5.66, 5, -31.2855, -5.09192, 25.9632, -158.792, -91.0376, 53.7184
5.664, 5, -31.28, -5.10713, 25.976, -158.784, -91.0281, 53.7091
5.668, 5, -31.2745, -5.12234, 25.9889, -158.776, -91.0187, 53.6998
5.672, 5, -31.269, -5.13755, 26.0017, -158.769, -91.0092, 53.6905
5.676, 5, -31.2635, -5.15276, 26.0145, -158.761, -90.9998, 53.6811
5.68, 5, -31.2581, -5.16797, 26.0273, -158.753, -90.9903, 53.6718
5.684, 5, -31.2526, -5.18318, 26.0402, -158.746, -90.9809, 53.6625
5.688, 5, -31.2471, -5.19839, 26.053, -158.738, -90.9715, 53.6532
5.692, 5, -31.2416, -5.2136, 26.0658, -158.73, -90.962, 53.6438
5.696, 5, -31.2361, -5.22881, 26.0786, -158.722, -90.9526, 53.6345
5.7, 5, -31.2306, -5.24403, 26.0915, -158.715, -90.9432, 53.6252
5.704, 5, -31.2251, -5.25924, 26.1043, -158.707, -90.9337, 53.6158
5.708, 5, -31.2196, -5.27445, 26.1171, -158.699, -90.9243, 53.6065
5.712, 5, -31.2141, -5.28966, 26.1299, -158.692, -90.9149, 53.5972
5.716, 5, -31.2086, -5.30487, 26.1427, -158.684, -90.9055, 53.5878
5.72, 5, -31.2032, -5.32008, 26.1556, -158.676, -90.896, 53.5785
5.724, 5, -31.1977, -5.3353, 26.1684, -158.668, -90.8866, 53.5692
5.728, 5, -31.1922, -5.35051, 26.1812, -158.661, -90.8772, 53.5598
5.732, 5, -31.1867, -5.36572, 26.194, -158.653, -90.8678, 53.5505
5.736, 5, -31.1812, -5.38093, 26.2068, -158.645, -90.8584, 53.5412
5.74, 5, -31.1757, -5.39614, 26.2196, -158.638, -90.849, 53.5318
5.744, 5, -31.1702, -5.41136, 26.2325, -158.63, -90.8396, 53.5225
5.748, 5, -31.1648, -5.42657, 26.2453, -158.622, -90.8302, 53.5131
5.752, 5, -31.1593, -5.44178, 26.2581, -158.614, -90.8208, 53.5038
5.756, 5, -31.1538, -5.457, 26.2709, -158.607, -90.8114, 53.4944
5.76, 5, -31.1483, -5.47221, 26.2837, -158.599, -90.802, 53.4851
5.764, 5, -31.1428, -5.48742, 26.2965, -158.591, -90.7926, 53.4757
5.768, 5, -31.1373, -5.50263, 26.3093, -158.583, -90.7832, 53.4664
5.772, 5, -31.1319, -5.51785, 26.3221, -158.576, -90.7738, 53.4571
5.776, 5, -31.1264, -5.53306, 26.3349, -158.568, -90.7644, 53.4477
5.78, 5, -31.1209, -5.54828, 26.3478, -158.56, -90.7551, 53.4384
5.784, 5, -31.1154, -5.56349, 26.3606, -158.552, -90.7457, 53.429
5.788, 5, -31.1099, -5.5787, 26.3734, -158.545, -90.7363, 53.4196
5.792, 5, -31.1044, -5.59392, 26.3862, -158.537, -90.7269, 53.4103
5.796, 5, -31.099, -5.60913, 26.399, -158.529, -90.7175, 53.4009
5.8, 5, -31.0935, -5.62435, 26.4118, -158.521, -90.7082, 53.3916
5.804, 5, -31.088, -5.63956, 26.4246, -158.514, -90.6988, 53.3822
5.808, 5, -31.0825, -5.65478, 26.4374, -158.506, -90.6894, 53.3729
5.812, 5, -31.077, -5.66999, 26.4502, -158.498, -90.6801, 53.3635
5.816, 5, -31.0716, -5.68521, 26.463, -158.49, -90.6707, 53.3541
5.82, 5, -31.0661, -5.70042, 26.4758, -158.483, -90.6614, 53.3448
5.824, 5, -31.0606, -5.71564, 26.4886, -158.475, -90.652, 53.3354
5.828, 5, -31.0551, -5.73085, 26.5014, -158.467, -90.6426, 53.326
5.832, 5, -31.0496, -5.74607, 26.5142, -158.459, -90.6333, 53.3167
5.836, 5, -31.0442, -5.76128, 26.527, -158.451, -90.6239, 53.3073
5.84, 5, -31.0387, -5.7765, 26.5398, -158.444, -90.6146, 53.2979
5.844, 5, -31.0332, -5.79172, 26.5526, -158.436, -90.6053, 53.2886
5.848, 5, -31.0277, -5.80693, 26.5654, -158.428, -90.5959, 53.2792
5.852, 5, -31.0222, -5.82215, 26.5782, -158.42, -90.5866, 53.2698
5.856, 5, -31.0168, -5.83737, 26.591, -158.413, -90.5772, 53.2604
5.86, 5, -31.0113, -5.85258, 26.6038, -158.405, -90.5679, 53.2511
