hehonglu123/Motion-Primitive-Planning/simulation/robotstudio_sim/scripts/fitting_output_new/matlab_movej_0.1/curve_exe_v300_z10.csv
timestamp, cmd_num, J1, J2, J3, J4, J5, J6
0, 1, -0.804314, 64.433, 8.47718, 44.6, -96.4084, 169.856
0.002, 1, -0.804314, 64.433, 8.47718, 44.6, -96.4084, 169.856
0.004, 1, -0.804314, 64.433, 8.47718, 44.6, -96.4084, 169.856
0.008, 1, -0.804314, 64.433, 8.47718, 44.6, -96.4084, 169.856
0.011, 1, -0.804314, 64.433, 8.47718, 44.6, -96.4084, 169.856
0.016, 1, -0.804314, 64.433, 8.47718, 44.6, -96.4084, 169.856
0.02, 1, -0.804314, 64.433, 8.47718, 44.6, -96.4084, 169.856
0.024, 1, -0.804314, 64.433, 8.47718, 44.6, -96.4084, 169.856
0.028, 1, -0.804314, 64.433, 8.47718, 44.6, -96.4084, 169.856
0.032, 1, -0.804305, 64.433, 8.47718, 44.6, -96.4084, 169.856
0.036, 1, -0.804241, 64.433, 8.47718, 44.6, -96.4084, 169.856
0.04, 1, -0.804017, 64.4329, 8.47719, 44.6, -96.4084, 169.856
0.044, 1, -0.803489, 64.4328, 8.47721, 44.6, -96.4084, 169.856
0.048, 1, -0.802514, 64.4325, 8.47724, 44.6, -96.4083, 169.856
0.052, 1, -0.800981, 64.432, 8.47728, 44.6002, -96.4082, 169.856
0.056, 1, -0.798817, 64.4312, 8.4773, 44.6004, -96.408, 169.855
0.06, 1, -0.795973, 64.4301, 8.47728, 44.6008, -96.4077, 169.854
0.064, 1, -0.792413, 64.4287, 8.47715, 44.6016, -96.407, 169.852
0.068, 1, -0.788089, 64.4268, 8.47688, 44.6029, -96.4059, 169.849
0.072, 1, -0.782906, 64.4245, 8.47636, 44.6048, -96.4043, 169.844
0.076, 1, -0.776705, 64.4215, 8.47551, 44.6076, -96.4018, 169.837
0.08, 1, -0.769287, 64.4179, 8.47423, 44.6116, -96.3984, 169.828
0.084, 1, -0.760453, 64.4136, 8.47237, 44.617, -96.3938, 169.815
0.088, 1, -0.750043, 64.4085, 8.46981, 44.6242, -96.3876, 169.797
0.092, 1, -0.737953, 64.4025, 8.46635, 44.6335, -96.3795, 169.775
0.096, 1, -0.7241, 64.3957, 8.46184, 44.6453, -96.3693, 169.746
0.1, 1, -0.708383, 64.3879, 8.4561, 44.6599, -96.3567, 169.711
0.104, 1, -0.690673, 64.3792, 8.44896, 44.6778, -96.3412, 169.668
0.108, 1, -0.670843, 64.3694, 8.44027, 44.6992, -96.3226, 169.616
0.112, 1, -0.648818, 64.3586, 8.42988, 44.7245, -96.3007, 169.555
0.116, 1, -0.624591, 64.347, 8.41766, 44.754, -96.2752, 169.484
0.12, 1, -0.598204, 64.3346, 8.40349, 44.7878, -96.2459, 169.403
0.124, 1, -0.569719, 64.3215, 8.38728, 44.8261, -96.2127, 169.311
0.128, 1, -0.539196, 64.3079, 8.369, 44.8691, -96.1755, 169.207
0.131, 1, -0.506678, 64.2938, 8.34864, 44.9166, -96.1342, 169.093
0.136, 1, -0.472165, 64.2791, 8.32623, 44.9687, -96.0891, 168.968
0.139, 1, -0.435607, 64.2636, 8.30187, 45.0251, -96.0401, 168.832
0.144, 1, -0.396955, 64.2473, 8.27569, 45.0855, -95.9877, 168.687
0.148, 1, -0.356219, 64.2301, 8.24782, 45.1498, -95.9319, 168.533
0.152, 1, -0.313495, 64.2119, 8.21843, 45.2176, -95.8731, 168.37
0.156, 1, -0.268925, 64.1928, 8.18769, 45.2884, -95.8116, 168.2
0.16, 1, -0.222638, 64.1728, 8.15578, 45.362, -95.7478, 168.023
0.164, 1, -0.174716, 64.152, 8.12289, 45.4378, -95.682, 167.841
0.168, 1, -0.125219, 64.1304, 8.08921, 45.5155, -95.6146, 167.654
0.172, 1, -0.0742244, 64.108, 8.05492, 45.5948, -95.5458, 167.463
0.176, 1, -0.0218354, 64.0849, 8.02018, 45.6753, -95.4759, 167.27
0.18, 1, 0.0318294, 64.061, 7.98511, 45.7567, -95.4053, 167.074
0.184, 1, 0.0866319, 64.0365, 7.94981, 45.8388, -95.3341, 166.877
0.188, 1, 0.142405, 64.0115, 7.91436, 45.9214, -95.2625, 166.678
0.192, 1, 0.198969, 63.9862, 7.87882, 46.0043, -95.1905, 166.479
0.196, 1, 0.256171, 63.9605, 7.8432, 46.0875, -95.1184, 166.279
0.2, 1, 0.313901, 63.9346, 7.80756, 46.1708, -95.0461, 166.079
0.204, 1, 0.372069, 63.9086, 7.77189, 46.2542, -94.9738, 165.878
0.208, 1, 0.430586, 63.8824, 7.73621, 46.3377, -94.9014, 165.677
0.212, 1, 0.489358, 63.8561, 7.70054, 46.4212, -94.8289, 165.476
0.216, 1, 0.548302, 63.8298, 7.66488, 46.5047, -94.7565, 165.276
0.22, 1, 0.607353, 63.8035, 7.62922, 46.5882, -94.6841, 165.075
0.224, 1, 0.666468, 63.7771, 7.59358, 46.6717, -94.6117, 164.874
0.228, 1, 0.725617, 63.7507, 7.55795, 46.7552, -94.5393, 164.673
0.232, 1, 0.78478, 63.7244, 7.52234, 46.8386, -94.4669, 164.473
0.236, 1, 0.843943, 63.698, 7.48674, 46.922, -94.3946, 164.272
0.24, 1, 0.903098, 63.6716, 7.45116, 47.0053, -94.3223, 164.072
0.244, 1, 0.962237, 63.6453, 7.41559, 47.0887, -94.2501, 163.871
0.248, 1, 1.02136, 63.6189, 7.38004, 47.1719, -94.1778, 163.671
0.252, 1, 1.08045, 63.5926, 7.34451, 47.2552, -94.1057, 163.471
0.256, 1, 1.13952, 63.5663, 7.309, 47.3384, -94.0335, 163.271
0.26, 1, 1.19857, 63.54, 7.2735, 47.4215, -93.9614, 163.071
0.264, 1, 1.25759, 63.5137, 7.23802, 47.5047, -93.8893, 162.871
0.268, 1, 1.31658, 63.4874, 7.20256, 47.5877, -93.8172, 162.671
0.272, 1, 1.37554, 63.4611, 7.16712, 47.6708, -93.7452, 162.471
0.276, 1, 1.43447, 63.4349, 7.13169, 47.7538, -93.6732, 162.272
0.28, 1, 1.49337, 63.4086, 7.09628, 47.8367, -93.6013, 162.072
0.284, 1, 1.55225, 63.3824, 7.06089, 47.9196, -93.5294, 161.873
0.288, 1, 1.61109, 63.3562, 7.02552, 48.0025, -93.4575, 161.674
0.292, 1, 1.6699, 63.33, 6.99017, 48.0853, -93.3857, 161.474
0.296, 1, 1.72869, 63.3038, 6.95483, 48.1681, -93.3139, 161.275
0.3, 1, 1.78744, 63.2776, 6.91951, 48.2509, -93.2421, 161.076
0.304, 1, 1.84616, 63.2514, 6.88421, 48.3336, -93.1704, 160.878
0.308, 1, 1.90485, 63.2253, 6.84893, 48.4162, -93.0987, 160.679
0.312, 1, 1.96351, 63.1992, 6.81367, 48.4988, -93.0271, 160.48
0.316, 1, 2.02214, 63.173, 6.77843, 48.5814, -92.9555, 160.282
0.32, 1, 2.08074, 63.1469, 6.7432, 48.6639, -92.8839, 160.083
0.324, 1, 2.13931, 63.1208, 6.708, 48.7464, -92.8124, 159.885
0.328, 1, 2.19785, 63.0947, 6.67281, 48.8288, -92.7409, 159.686
0.332, 1, 2.25635, 63.0687, 6.63764, 48.9112, -92.6694, 159.488
0.336, 1, 2.31483, 63.0426, 6.60249, 48.9936, -92.598, 159.29
0.34, 1, 2.37327, 63.0166, 6.56736, 49.0759, -92.5266, 159.092
0.344, 1, 2.43168, 62.9906, 6.53225, 49.1581, -92.4553, 158.895
0.348, 1, 2.49005, 62.9646, 6.49716, 49.2403, -92.384, 158.697
0.352, 1, 2.5484, 62.9386, 6.46209, 49.3225, -92.3127, 158.499
0.356, 1, 2.60671, 62.9126, 6.42703, 49.4046, -92.2415, 158.302
0.36, 1, 2.66499, 62.8866, 6.392, 49.4867, -92.1703, 158.104
0.364, 1, 2.72324, 62.8607, 6.35698, 49.5687, -92.0992, 157.907
0.368, 1, 2.78145, 62.8347, 6.32199, 49.6507, -92.0281, 157.71
0.372, 1, 2.83963, 62.8088, 6.28701, 49.7327, -91.957, 157.513
0.376, 1, 2.89778, 62.7829, 6.25206, 49.8145, -91.886, 157.316
0.38, 1, 2.9559, 62.757, 6.21712, 49.8964, -91.815, 157.119
0.384, 1, 3.01398, 62.7311, 6.18221, 49.9782, -91.744, 156.922
0.388, 1, 3.07203, 62.7053, 6.14731, 50.0599, -91.6731, 156.726
0.392, 1, 3.13004, 62.6794, 6.11244, 50.1416, -91.6023, 156.529
0.396, 1, 3.18802, 62.6536, 6.07758, 50.2233, -91.5315, 156.333
0.4, 1, 3.24597, 62.6278, 6.04275, 50.3049, -91.4607, 156.137
0.404, 1, 3.30388, 62.602, 6.00794, 50.3865, -91.39, 155.941
0.408, 1, 3.36176, 62.5762, 5.97314, 50.468, -91.3193, 155.745
0.412, 1, 3.41961, 62.5504, 5.93837, 50.5494, -91.2486, 155.549
0.416, 1, 3.47742, 62.5246, 5.90362, 50.6309, -91.178, 155.353
0.42, 1, 3.5352, 62.4989, 5.86889, 50.7122, -91.1074, 155.157
0.424, 1, 3.59294, 62.4732, 5.83418, 50.7935, -91.0369, 154.962
0.428, 1, 3.65064, 62.4475, 5.79949, 50.8748, -90.9664, 154.766
0.432, 1, 3.70832, 62.4218, 5.76482, 50.956, -90.896, 154.571
0.436, 1, 3.76595, 62.3961, 5.73017, 51.0372, -90.8256, 154.376
0.44, 1, 3.82355, 62.3704, 5.69554, 51.1183, -90.7552, 154.181
0.444, 1, 3.88112, 62.3448, 5.66094, 51.1994, -90.6849, 153.986
0.448, 1, 3.93865, 62.3191, 5.62636, 51.2804, -90.6147, 153.791
0.452, 1, 3.99615, 62.2935, 5.59179, 51.3614, -90.5444, 153.596
0.456, 1, 4.05361, 62.2679, 5.55725, 51.4423, -90.4743, 153.401
0.46, 1, 4.11103, 62.2423, 5.52273, 51.5232, -90.4041, 153.207
0.464, 1, 4.16842, 62.2168, 5.48824, 51.604, -90.334, 153.013
0.468, 1, 4.22577, 62.1912, 5.45376, 51.6848, -90.264, 152.818
0.472, 1, 4.28308, 62.1657, 5.41931, 51.7655, -90.194, 152.624
0.476, 1, 4.34036, 62.1401, 5.38488, 51.8461, -90.124, 152.43
0.48, 1, 4.39761, 62.1146, 5.35047, 51.9268, -90.0541, 152.236
0.484, 1, 4.45481, 62.0892, 5.31608, 52.0073, -89.9842, 152.043
0.488, 1, 4.51198, 62.0637, 5.28171, 52.0878, -89.9144, 151.849
0.492, 1, 4.56911, 62.0382, 5.24737, 52.1683, -89.8446, 151.656
0.496, 1, 4.62621, 62.0128, 5.21305, 52.2487, -89.7749, 151.462
0.5, 1, 4.68327, 61.9874, 5.17875, 52.3291, -89.7052, 151.269
0.504, 1, 4.74029, 61.962, 5.14447, 52.4094, -89.6356, 151.076
0.508, 1, 4.79727, 61.9366, 5.11022, 52.4896, -89.5659, 150.883
0.512, 1, 4.85422, 61.9112, 5.07599, 52.5698, -89.4964, 150.69
0.516, 1, 4.91112, 61.8858, 5.04178, 52.6499, -89.4269, 150.497
0.52, 1, 4.96799, 61.8605, 5.00759, 52.73, -89.3574, 150.305
0.524, 1, 5.02483, 61.8352, 4.97343, 52.8101, -89.288, 150.112
0.528, 1, 5.08162, 61.8099, 4.93929, 52.8901, -89.2187, 149.92
0.532, 1, 5.13838, 61.7846, 4.90517, 52.97, -89.1493, 149.728
0.536, 1, 5.1951, 61.7593, 4.87107, 53.0499, -89.0801, 149.536
0.54, 1, 5.25178, 61.7341, 4.837, 53.1297, -89.0108, 149.344
0.544, 1, 5.30842, 61.7088, 4.80295, 53.2094, -88.9417, 149.152
0.548, 1, 5.36503, 61.6836, 4.76893, 53.2892, -88.8725, 148.96
0.552, 1, 5.42159, 61.6584, 4.73493, 53.3688, -88.8034, 148.769
0.556, 1, 5.47812, 61.6332, 4.70095, 53.4484, -88.7344, 148.577
0.56, 1, 5.53461, 61.6081, 4.66699, 53.528, -88.6654, 148.386
0.564, 1, 5.59105, 61.5829, 4.63306, 53.6075, -88.5965, 148.195
0.568, 1, 5.64746, 61.5578, 4.59915, 53.6869, -88.5275, 148.004
0.572, 1, 5.70384, 61.5327, 4.56526, 53.7663, -88.4587, 147.813
0.576, 1, 5.76017, 61.5076, 4.5314, 53.8456, -88.3899, 147.622
0.58, 1, 5.81646, 61.4825, 4.49756, 53.9249, -88.3212, 147.431
0.584, 1, 5.87271, 61.4574, 4.46375, 54.0041, -88.2524, 147.241
0.588, 1, 5.92892, 61.4324, 4.42996, 54.0833, -88.1838, 147.05
0.592, 1, 5.98509, 61.4074, 4.39619, 54.1624, -88.1152, 146.86
0.596, 1, 6.04123, 61.3823, 4.36245, 54.2414, -88.0466, 146.67
0.6, 1, 6.09732, 61.3574, 4.32873, 54.3204, -87.9781, 146.48
0.604, 1, 6.15337, 61.3324, 4.29503, 54.3994, -87.9097, 146.29
0.608, 1, 6.20938, 61.3074, 4.26136, 54.4783, -87.8412, 146.1
0.612, 1, 6.26536, 61.2825, 4.22772, 54.5571, -87.7729, 145.911
0.616, 1, 6.32129, 61.2576, 4.19409, 54.6359, -87.7046, 145.721
0.62, 1, 6.37718, 61.2327, 4.1605, 54.7146, -87.6363, 145.532
0.624, 1, 6.43303, 61.2078, 4.12692, 54.7932, -87.5681, 145.343
0.628, 1, 6.48884, 61.1829, 4.09337, 54.8718, -87.4999, 145.154
0.632, 1, 6.54461, 61.1581, 4.05985, 54.9504, -87.4318, 144.965
0.636, 1, 6.60034, 61.1332, 4.02635, 55.0288, -87.3637, 144.776
0.64, 1, 6.65603, 61.1084, 3.99287, 55.1073, -87.2957, 144.588
0.644, 1, 6.71168, 61.0836, 3.95942, 55.1856, -87.2278, 144.399
0.648, 1, 6.76728, 61.0589, 3.926, 55.2639, -87.1598, 144.211
0.652, 1, 6.82285, 61.0341, 3.8926, 55.3422, -87.092, 144.023
0.656, 1, 6.87837, 61.0094, 3.85922, 55.4204, -87.0242, 143.835
0.66, 1, 6.93385, 60.9846, 3.82587, 55.4985, -86.9564, 143.647
0.664, 1, 6.98929, 60.9599, 3.79255, 55.5766, -86.8887, 143.459
0.668, 1, 7.04469, 60.9353, 3.75925, 55.6546, -86.821, 143.272
0.672, 1, 7.10004, 60.9106, 3.72597, 55.7326, -86.7534, 143.084
0.676, 1, 7.15536, 60.886, 3.69272, 55.8104, -86.6859, 142.897
0.68, 1, 7.21063, 60.8613, 3.6595, 55.8883, -86.6184, 142.71
0.684, 1, 7.26586, 60.8367, 3.6263, 55.9661, -86.5509, 142.523
0.688, 1, 7.32105, 60.8121, 3.59312, 56.0438, -86.4835, 142.336
0.692, 1, 7.37619, 60.7876, 3.55997, 56.1214, -86.4161, 142.149
0.696, 1, 7.4313, 60.763, 3.52685, 56.199, -86.3488, 141.962
0.7, 1, 7.48636, 60.7385, 3.49375, 56.2766, -86.2816, 141.776
0.704, 1, 7.54138, 60.714, 3.46068, 56.3541, -86.2144, 141.589
0.708, 1, 7.59635, 60.6895, 3.42763, 56.4315, -86.1473, 141.403
0.712, 1, 7.65128, 60.665, 3.39461, 56.5088, -86.0802, 141.217
0.716, 1, 7.70617, 60.6405, 3.36162, 56.5861, -86.0131, 141.031
0.72, 1, 7.76102, 60.6161, 3.32865, 56.6634, -85.9461, 140.846
0.724, 1, 7.81583, 60.5917, 3.29571, 56.7406, -85.8792, 140.66
0.728, 1, 7.87059, 60.5673, 3.26279, 56.8177, -85.8123, 140.475
0.732, 1, 7.9253, 60.5429, 3.2299, 56.8947, -85.7455, 140.289
0.736, 1, 7.97998, 60.5186, 3.19703, 56.9717, -85.6787, 140.104
0.74, 1, 8.03461, 60.4942, 3.16419, 57.0487, -85.612, 139.919
0.744, 1, 8.0892, 60.4699, 3.13138, 57.1255, -85.5453, 139.734
0.748, 1, 8.14374, 60.4456, 3.09859, 57.2023, -85.4787, 139.549
0.752, 1, 8.19825, 60.4213, 3.06583, 57.2791, -85.4121, 139.365
0.756, 1, 8.2527, 60.397, 3.0331, 57.3558, -85.3456, 139.181
0.76, 1, 8.30712, 60.3728, 3.00039, 57.4324, -85.2792, 138.996
0.764, 1, 8.36149, 60.3486, 2.96771, 57.509, -85.2128, 138.812
0.768, 1, 8.41581, 60.3244, 2.93505, 57.5855, -85.1464, 138.628
0.772, 1, 8.4701, 60.3002, 2.90242, 57.6619, -85.0801, 138.444
0.776, 1, 8.52434, 60.276, 2.86982, 57.7383, -85.0139, 138.261
0.78, 1, 8.57853, 60.2519, 2.83724, 57.8146, -84.9477, 138.077
0.784, 1, 8.63268, 60.2278, 2.80469, 57.8909, -84.8816, 137.894
0.788, 1, 8.68679, 60.2036, 2.77217, 57.9671, -84.8155, 137.71
0.792, 1, 8.74085, 60.1796, 2.73967, 58.0432, -84.7495, 137.527
0.796, 1, 8.79487, 60.1555, 2.7072, 58.1193, -84.6835, 137.344
0.8, 1, 8.84884, 60.1315, 2.67476, 58.1953, -84.6176, 137.162
0.804, 1, 8.90277, 60.1074, 2.64234, 58.2712, -84.5517, 136.979
0.808, 1, 8.95665, 60.0834, 2.60995, 58.3471, -84.4859, 136.797
0.812, 1, 9.0105, 60.0594, 2.57759, 58.4229, -84.4201, 136.614
0.816, 1, 9.06429, 60.0355, 2.54525, 58.4987, -84.3544, 136.432
0.82, 1, 9.11804, 60.0115, 2.51295, 58.5744, -84.2888, 136.25
0.824, 1, 9.17175, 59.9876, 2.48066, 58.65, -84.2232, 136.068
0.828, 1, 9.22541, 59.9637, 2.44841, 58.7256, -84.1577, 135.886
0.832, 1, 9.27903, 59.9398, 2.41618, 58.8011, -84.0922, 135.705
0.836, 1, 9.3326, 59.9159, 2.38398, 58.8765, -84.0267, 135.523
0.84, 1, 9.38613, 59.8921, 2.3518, 58.9519, -83.9614, 135.342
0.844, 1, 9.43961, 59.8682, 2.31966, 59.0272, -83.8961, 135.161
0.848, 1, 9.49305, 59.8444, 2.28754, 59.1024, -83.8308, 134.98
0.852, 1, 9.54644, 59.8207, 2.25544, 59.1776, -83.7656, 134.799
0.856, 1, 9.59979, 59.7969, 2.22338, 59.2528, -83.7004, 134.619
0.86, 1, 9.65309, 59.7731, 2.19134, 59.3278, -83.6353, 134.438
0.864, 1, 9.70635, 59.7494, 2.15933, 59.4028, -83.5703, 134.258
0.868, 1, 9.75956, 59.7257, 2.12734, 59.4777, -83.5053, 134.078
0.872, 1, 9.81273, 59.702, 2.09538, 59.5526, -83.4404, 133.897
0.876, 1, 9.86585, 59.6784, 2.06345, 59.6274, -83.3755, 133.718
0.88, 1, 9.91892, 59.6547, 2.03155, 59.7022, -83.3107, 133.538
0.884, 1, 9.97195, 59.6311, 1.99967, 59.7768, -83.2459, 133.358
0.888, 1, 10.0249, 59.6075, 1.96783, 59.8514, -83.1812, 133.179
0.892, 1, 10.0779, 59.5839, 1.93601, 59.926, -83.1166, 133
0.896, 1, 10.1308, 59.5603, 1.90421, 60.0005, -83.052, 132.82
0.9, 1, 10.1836, 59.5368, 1.87245, 60.0749, -82.9874, 132.641
0.904, 1, 10.2364, 59.5133, 1.84071, 60.1492, -82.9229, 132.463
0.908, 1, 10.2892, 59.4897, 1.809, 60.2235, -82.8585, 132.284
0.912, 1, 10.3419, 59.4663, 1.77731, 60.2978, -82.7941, 132.105
0.916, 1, 10.3946, 59.4428, 1.74566, 60.3719, -82.7298, 131.927
0.92, 1, 10.4472, 59.4194, 1.71403, 60.446, -82.6655, 131.749
0.924, 1, 10.4998, 59.3959, 1.68243, 60.5201, -82.6013, 131.571
0.928, 1, 10.5523, 59.3725, 1.65085, 60.594, -82.5372, 131.393
0.932, 1, 10.6048, 59.3492, 1.61931, 60.6679, -82.4731, 131.215
0.936, 1, 10.6572, 59.3258, 1.58779, 60.7418, -82.409, 131.038
0.94, 1, 10.7096, 59.3024, 1.5563, 60.8155, -82.3451, 130.86
0.944, 1, 10.7619, 59.2791, 1.52483, 60.8893, -82.2811, 130.683
0.948, 1, 10.8142, 59.2558, 1.4934, 60.9629, -82.2173, 130.506
0.952, 1, 10.8665, 59.2325, 1.46199, 61.0365, -82.1534, 130.329
0.956, 1, 10.9187, 59.2093, 1.43061, 61.11, -82.0897, 130.152
0.96, 1, 10.9709, 59.1861, 1.39926, 61.1835, -82.026, 129.976
0.964, 1, 11.023, 59.1628, 1.36793, 61.2568, -81.9623, 129.799
0.968, 1, 11.075, 59.1396, 1.33664, 61.3302, -81.8988, 129.623
0.972, 1, 11.1271, 59.1165, 1.30537, 61.4034, -81.8352, 129.447
0.976, 1, 11.179, 59.0933, 1.27413, 61.4766, -81.7717, 129.271
0.98, 1, 11.231, 59.0702, 1.24291, 61.5497, -81.7083, 129.095
0.984, 1, 11.2829, 59.0471, 1.21173, 61.6228, -81.645, 128.919
0.988, 1, 11.3347, 59.024, 1.18057, 61.6958, -81.5817, 128.743
0.992, 1, 11.3865, 59.0009, 1.14944, 61.7687, -81.5184, 128.568
0.996, 1, 11.4382, 58.9778, 1.11834, 61.8416, -81.4552, 128.393
1, 1, 11.4899, 58.9548, 1.08727, 61.9144, -81.3921, 128.218
1.004, 1, 11.5416, 58.9318, 1.05622, 61.9871, -81.329, 128.043
1.008, 1, 11.5932, 58.9088, 1.0252, 62.0598, -81.266, 127.868
1.012, 1, 11.6447, 58.8858, 0.99421, 62.1324, -81.203, 127.694
1.016, 1, 11.6963, 58.8629, 0.963248, 62.2049, -81.1401, 127.519
1.02, 1, 11.7477, 58.8399, 0.932313, 62.2774, -81.0772, 127.345
1.024, 1, 11.7991, 58.817, 0.901406, 62.3498, -81.0144, 127.171
1.027, 1, 11.8505, 58.7942, 0.870528, 62.4221, -80.9517, 126.997
1.032, 1, 11.9018, 58.7713, 0.839677, 62.4944, -80.889, 126.823
1.036, 1, 11.9531, 58.7484, 0.808854, 62.5666, -80.8264, 126.649
1.04, 1, 12.0044, 58.7256, 0.778059, 62.6388, -80.7638, 126.476
1.044, 1, 12.0555, 58.7028, 0.747292, 62.7108, -80.7013, 126.302
1.048, 1, 12.1067, 58.68, 0.716554, 62.7829, -80.6389, 126.129
1.052, 1, 12.1578, 58.6573, 0.685843, 62.8548, -80.5765, 125.956
1.055, 1, 12.2088, 58.6345, 0.65516, 62.9267, -80.5141, 125.783
1.06, 1, 12.2598, 58.6118, 0.624505, 62.9985, -80.4518, 125.611
1.064, 1, 12.3108, 58.5891, 0.593878, 63.0703, -80.3896, 125.438
1.068, 1, 12.3617, 58.5664, 0.56328, 63.1419, -80.3274, 125.266
1.072, 1, 12.4126, 58.5438, 0.532709, 63.2136, -80.2653, 125.093
1.076, 1, 12.4634, 58.5211, 0.502166, 63.2851, -80.2033, 124.921
1.08, 1, 12.5141, 58.4985, 0.471652, 63.3566, -80.1413, 124.749
1.084, 1, 12.5649, 58.4759, 0.441165, 63.428, -80.0793, 124.578
1.088, 1, 12.6155, 58.4533, 0.410706, 63.4994, -80.0174, 124.406
1.091, 1, 12.6662, 58.4308, 0.380276, 63.5707, -79.9556, 124.235
1.096, 1, 12.7168, 58.4082, 0.349873, 63.6419, -79.8938, 124.063
1.1, 1, 12.7673, 58.3857, 0.319499, 63.7131, -79.8321, 123.892
1.104, 1, 12.8178, 58.3632, 0.289152, 63.7842, -79.7704, 123.721
1.108, 1, 12.8682, 58.3408, 0.258834, 63.8552, -79.7088, 123.55
1.112, 1, 12.9186, 58.3183, 0.228543, 63.9261, -79.6473, 123.38
1.116, 1, 12.969, 58.2959, 0.198281, 63.997, -79.5858, 123.209
1.119, 1, 13.0193, 58.2735, 0.168046, 64.0679, -79.5244, 123.039
1.124, 1, 13.0695, 58.2511, 0.13784, 64.1386, -79.463, 122.869
1.128, 1, 13.1198, 58.2287, 0.107661, 64.2094, -79.4017, 122.699
1.132, 1, 13.1699, 58.2064, 0.0775106, 64.28, -79.3404, 122.529
1.136, 1, 13.22, 58.184, 0.047388, 64.3506, -79.2792, 122.359
1.14, 1, 13.2701, 58.1617, 0.0172933, 64.4211, -79.2181, 122.19
1.144, 1, 13.3201, 58.1394, -0.0127735, 64.4915, -79.157, 122.02
1.147, 1, 13.3701, 58.1172, -0.0428123, 64.5619, -79.096, 121.851
1.152, 1, 13.42, 58.0949, -0.0728232, 64.6322, -79.035, 121.682
1.156, 1, 13.4699, 58.0727, -0.102806, 64.7024, -78.9741, 121.513
1.16, 1, 13.5198, 58.0505, -0.132761, 64.7726, -78.9132, 121.344
1.164, 1, 13.5696, 58.0283, -0.162689, 64.8427, -78.8524, 121.176
1.168, 1, 13.6193, 58.0062, -0.192588, 64.9128, -78.7916, 121.007
1.172, 1, 13.669, 57.984, -0.22246, 64.9827, -78.731, 120.839
1.175, 1, 13.7187, 57.9619, -0.252304, 65.0527, -78.6703, 120.671
1.18, 1, 13.7683, 57.9398, -0.28212, 65.1225, -78.6097, 120.503
1.184, 1, 13.8178, 57.9177, -0.311908, 65.1923, -78.5492, 120.335
1.188, 1, 13.8674, 57.8956, -0.341668, 65.262, -78.4887, 120.167
1.192, 1, 13.9168, 57.8736, -0.371401, 65.3317, -78.4283, 120
1.196, 1, 13.9663, 57.8516, -0.401106, 65.4013, -78.368, 119.832
1.2, 1, 14.0156, 57.8296, -0.430783, 65.4708, -78.3077, 119.665
1.204, 1, 14.065, 57.8076, -0.460432, 65.5403, -78.2474, 119.498
1.208, 1, 14.1143, 57.7857, -0.490054, 65.6096, -78.1872, 119.331
1.212, 1, 14.1635, 57.7637, -0.519648, 65.679, -78.1271, 119.164
1.216, 1, 14.2127, 57.7418, -0.549214, 65.7482, -78.067, 118.998
1.22, 1, 14.2618, 57.7199, -0.578753, 65.8175, -78.007, 118.832
1.224, 1, 14.3109, 57.698, -0.608264, 65.8866, -77.9471, 118.665
1.228, 1, 14.36, 57.6762, -0.637747, 65.9557, -77.8872, 118.499
1.232, 1, 14.409, 57.6544, -0.667203, 66.0247, -77.8273, 118.333
1.236, 1, 14.458, 57.6325, -0.696631, 66.0936, -77.7675, 118.167
1.24, 1, 14.5069, 57.6107, -0.726032, 66.1625, -77.7078, 118.002
1.244, 1, 14.5558, 57.589, -0.755404, 66.2313, -77.6481, 117.836
1.248, 1, 14.6046, 57.5672, -0.78475, 66.3001, -77.5885, 117.671
1.252, 1, 14.6534, 57.5455, -0.814068, 66.3687, -77.5289, 117.506
1.256, 1, 14.7021, 57.5238, -0.843358, 66.4374, -77.4694, 117.341
1.26, 1, 14.7508, 57.5021, -0.872621, 66.5059, -77.4099, 117.176
1.264, 1, 14.7994, 57.4804, -0.901856, 66.5744, -77.3505, 117.011
1.267, 1, 14.848, 57.4588, -0.931064, 66.6428, -77.2912, 116.847
1.272, 1, 14.8966, 57.4371, -0.960245, 66.7112, -77.2319, 116.682
1.276, 1, 14.9451, 57.4155, -0.989398, 66.7795, -77.1727, 116.518
1.28, 1, 14.9935, 57.3939, -1.01852, 66.8477, -77.1135, 116.354
1.284, 1, 15.042, 57.3724, -1.04762, 66.9159, -77.0544, 116.19
1.288, 1, 15.0903, 57.3508, -1.07669, 66.984, -76.9953, 116.026
1.292, 1, 15.1387, 57.3293, -1.10574, 67.052, -76.9363, 115.862
1.295, 1, 15.1869, 57.3078, -1.13475, 67.12, -76.8773, 115.699
1.3, 1, 15.2352, 57.2863, -1.16374, 67.1879, -76.8184, 115.536
1.304, 1, 15.2834, 57.2648, -1.19271, 67.2558, -76.7596, 115.373
1.308, 1, 15.3315, 57.2434, -1.22164, 67.3236, -76.7008, 115.209
1.312, 1, 15.3796, 57.222, -1.25055, 67.3913, -76.6421, 115.047
1.316, 1, 15.4277, 57.2006, -1.27943, 67.459, -76.5834, 114.884
1.32, 1, 15.4757, 57.1792, -1.30828, 67.5266, -76.5248, 114.721
1.324, 1, 15.5236, 57.1578, -1.33711, 67.5941, -76.4662, 114.559
1.328, 1, 15.5715, 57.1365, -1.3659, 67.6616, -76.4077, 114.397
1.332, 1, 15.6194, 57.1151, -1.39468, 67.729, -76.3492, 114.235
1.336, 1, 15.6672, 57.0938, -1.42342, 67.7963, -76.2908, 114.073
1.34, 1, 15.715, 57.0725, -1.45214, 67.8636, -76.2325, 113.911
1.344, 1, 15.7628, 57.0513, -1.48083, 67.9308, -76.1742, 113.749
1.348, 1, 15.8104, 57.03, -1.50949, 67.9979, -76.1159, 113.588
1.352, 1, 15.8581, 57.0088, -1.53812, 68.065, -76.0578, 113.426
1.356, 1, 15.9057, 56.9876, -1.56673, 68.132, -75.9996, 113.265
1.36, 1, 15.9533, 56.9664, -1.59531, 68.199, -75.9416, 113.104
1.364, 1, 16.0008, 56.9452, -1.62387, 68.2659, -75.8835, 112.943
1.368, 1, 16.0482, 56.9241, -1.6524, 68.3327, -75.8256, 112.783
1.372, 1, 16.0957, 56.903, -1.6809, 68.3995, -75.7677, 112.622
1.376, 1, 16.143, 56.8819, -1.70937, 68.4662, -75.7098, 112.462
1.38, 1, 16.1904, 56.8608, -1.73782, 68.5329, -75.652, 112.301
1.384, 1, 16.2376, 56.8397, -1.76624, 68.5994, -75.5943, 112.141
1.388, 1, 16.2849, 56.8187, -1.79463, 68.666, -75.5366, 111.981
1.392, 1, 16.3321, 56.7976, -1.823, 68.7324, -75.479, 111.821
1.396, 1, 16.3792, 56.7766, -1.85134, 68.7988, -75.4214, 111.662
1.4, 1, 16.4264, 56.7556, -1.87965, 68.8651, -75.3638, 111.502
1.404, 1, 16.4734, 56.7347, -1.90793, 68.9314, -75.3064, 111.343
1.408, 1, 16.5204, 56.7137, -1.93619, 68.9976, -75.2489, 111.184
1.412, 1, 16.5674, 56.6928, -1.96443, 69.0638, -75.1916, 111.025
1.416, 1, 16.6144, 56.6719, -1.99263, 69.1298, -75.1343, 110.866
1.42, 1, 16.6612, 56.651, -2.02081, 69.1959, -75.077, 110.707
1.424, 1, 16.7081, 56.6301, -2.04896, 69.2618, -75.0198, 110.548
1.428, 1, 16.7549, 56.6093, -2.07709, 69.3277, -74.9627, 110.39
1.432, 1, 16.8016, 56.5885, -2.10519, 69.3935, -74.9056, 110.232
1.436, 1, 16.8484, 56.5677, -2.13326, 69.4593, -74.8485, 110.073
1.44, 1, 16.895, 56.5469, -2.16131, 69.525, -74.7915, 109.915
1.444, 1, 16.9417, 56.5261, -2.18933, 69.5907, -74.7346, 109.757
1.448, 1, 16.9882, 56.5053, -2.21732, 69.6562, -74.6777, 109.6
1.452, 1, 17.0348, 56.4846, -2.24529, 69.7218, -74.6209, 109.442
1.456, 1, 17.0813, 56.4639, -2.27323, 69.7872, -74.5641, 109.285
1.46, 1, 17.1277, 56.4432, -2.30115, 69.8526, -74.5074, 109.128
1.464, 1, 17.1741, 56.4225, -2.32904, 69.918, -74.4507, 108.97
1.468, 1, 17.2205, 56.4019, -2.3569, 69.9832, -74.3941, 108.813
1.472, 1, 17.2668, 56.3812, -2.38474, 70.0485, -74.3376, 108.657
1.476, 1, 17.3131, 56.3606, -2.41255, 70.1136, -74.2811, 108.5
1.48, 1, 17.3593, 56.34, -2.44033, 70.1787, -74.2246, 108.343
1.484, 1, 17.4055, 56.3195, -2.46809, 70.2437, -74.1682, 108.187
1.488, 1, 17.4516, 56.2989, -2.49582, 70.3087, -74.1119, 108.031
1.492, 1, 17.4978, 56.2784, -2.52353, 70.3736, -74.0556, 107.875
1.496, 1, 17.5438, 56.2578, -2.55121, 70.4385, -73.9993, 107.719
1.5, 1, 17.5898, 56.2374, -2.57887, 70.5033, -73.9431, 107.563
1.504, 1, 17.6358, 56.2169, -2.6065, 70.568, -73.887, 107.407
1.508, 1, 17.6817, 56.1964, -2.6341, 70.6327, -73.8309, 107.252
1.512, 1, 17.7276, 56.176, -2.66168, 70.6973, -73.7749, 107.096
1.516, 1, 17.7735, 56.1555, -2.68923, 70.7618, -73.7189, 106.941
1.52, 1, 17.8193, 56.1351, -2.71675, 70.8263, -73.663, 106.786
1.524, 1, 17.865, 56.1148, -2.74425, 70.8907, -73.6071, 106.631
1.528, 1, 17.9107, 56.0944, -2.77173, 70.9551, -73.5513, 106.476
1.532, 1, 17.9564, 56.074, -2.79918, 71.0194, -73.4955, 106.322
1.536, 1, 18.0021, 56.0537, -2.8266, 71.0836, -73.4398, 106.167
1.54, 1, 18.0476, 56.0334, -2.854, 71.1478, -73.3841, 106.013
1.544, 1, 18.0932, 56.0131, -2.88137, 71.212, -73.3285, 105.859
1.548, 1, 18.1387, 55.9928, -2.90872, 71.276, -73.2729, 105.704
1.552, 1, 18.1842, 55.9726, -2.93604, 71.34, -73.2174, 105.551
1.556, 1, 18.2296, 55.9524, -2.96334, 71.404, -73.1619, 105.397
1.56, 1, 18.275, 55.9321, -2.99061, 71.4679, -73.1065, 105.243
1.564, 1, 18.3203, 55.9119, -3.01786, 71.5317, -73.0512, 105.09
1.568, 1, 18.3656, 55.8918, -3.04508, 71.5955, -72.9959, 104.936
1.572, 1, 18.4108, 55.8716, -3.07227, 71.6592, -72.9406, 104.783
1.576, 1, 18.4561, 55.8515, -3.09944, 71.7229, -72.8854, 104.63
1.58, 1, 18.5012, 55.8313, -3.12659, 71.7865, -72.8303, 104.477
1.584, 1, 18.5464, 55.8112, -3.15371, 71.85, -72.7752, 104.324
1.588, 1, 18.5914, 55.7912, -3.1808, 71.9135, -72.7201, 104.172
1.592, 1, 18.6365, 55.7711, -3.20787, 71.9769, -72.6651, 104.019
1.596, 1, 18.6815, 55.751, -3.23492, 72.0402, -72.6101, 103.867
1.6, 1, 18.7264, 55.731, -3.26194, 72.1036, -72.5552, 103.714
1.604, 1, 18.7714, 55.711, -3.28894, 72.1668, -72.5004, 103.562
1.608, 1, 18.8162, 55.691, -3.31591, 72.23, -72.4456, 103.41
1.612, 1, 18.8611, 55.671, -3.34285, 72.2931, -72.3908, 103.259
1.616, 1, 18.9059, 55.6511, -3.36978, 72.3562, -72.3361, 103.107
1.62, 1, 18.9506, 55.6312, -3.39667, 72.4192, -72.2815, 102.955
1.624, 1, 18.9953, 55.6112, -3.42354, 72.4821, -72.2269, 102.804
1.628, 1, 19.04, 55.5913, -3.45039, 72.545, -72.1723, 102.653
1.632, 1, 19.0846, 55.5715, -3.47721, 72.6079, -72.1179, 102.502
1.636, 1, 19.1292, 55.5516, -3.50401, 72.6707, -72.0634, 102.351
1.64, 1, 19.1738, 55.5317, -3.53078, 72.7334, -72.009, 102.2
1.644, 1, 19.2183, 55.5119, -3.55753, 72.7961, -71.9547, 102.049
1.648, 1, 19.2628, 55.4921, -3.58425, 72.8587, -71.9004, 101.898
1.652, 1, 19.3072, 55.4723, -3.61095, 72.9212, -71.8461, 101.748
1.656, 1, 19.3516, 55.4525, -3.63763, 72.9837, -71.7919, 101.598
1.66, 1, 19.3959, 55.4328, -3.66428, 73.0461, -71.7378, 101.448
1.664, 1, 19.4402, 55.4131, -3.69091, 73.1085, -71.6837, 101.298
1.668, 1, 19.4845, 55.3933, -3.71751, 73.1708, -71.6296, 101.148
1.672, 1, 19.5287, 55.3736, -3.74409, 73.2331, -71.5756, 100.998
1.676, 1, 19.5729, 55.354, -3.77064, 73.2953, -71.5217, 100.848
1.68, 1, 19.617, 55.3343, -3.79717, 73.3575, -71.4678, 100.699
1.684, 1, 19.6611, 55.3146, -3.82367, 73.4196, -71.4139, 100.55
1.688, 1, 19.7052, 55.295, -3.85015, 73.4816, -71.3601, 100.4
1.692, 1, 19.7492, 55.2754, -3.87661, 73.5436, -71.3063, 100.251
1.696, 1, 19.7932, 55.2558, -3.90304, 73.6055, -71.2526, 100.102
1.7, 1, 19.8372, 55.2362, -3.92945, 73.6674, -71.199, 99.9536
1.704, 1, 19.8811, 55.2167, -3.95584, 73.7292, -71.1454, 99.805
1.708, 1, 19.9249, 55.1971, -3.9822, 73.7909, -71.0918, 99.6565
1.712, 1, 19.9688, 55.1776, -4.00853, 73.8527, -71.0383, 99.5081
1.716, 1, 20.0125, 55.1581, -4.03485, 73.9143, -70.9848, 99.3598
1.72, 1, 20.0563, 55.1386, -4.06114, 73.9759, -70.9314, 99.2117
1.724, 1, 20.1, 55.1191, -4.0874, 74.0374, -70.878, 99.0637
1.728, 1, 20.1437, 55.0997, -4.11364, 74.0989, -70.8247, 98.9159
1.732, 1, 20.1873, 55.0803, -4.13986, 74.1603, -70.7715, 98.7682
1.736, 1, 20.2309, 55.0609, -4.16605, 74.2217, -70.7182, 98.6206
1.74, 1, 20.2744, 55.0415, -4.19222, 74.283, -70.6651, 98.4732
1.744, 1, 20.3179, 55.0221, -4.21837, 74.3443, -70.6119, 98.3258
1.748, 1, 20.3614, 55.0027, -4.24449, 74.4055, -70.5589, 98.1787
1.752, 1, 20.4048, 54.9834, -4.27059, 74.4666, -70.5058, 98.0316
1.756, 1, 20.4482, 54.964, -4.29667, 74.5277, -70.4528, 97.8847
1.76, 1, 20.4916, 54.9447, -4.32272, 74.5887, -70.3999, 97.7379
1.764, 1, 20.5349, 54.9254, -4.34875, 74.6497, -70.347, 97.5913
1.768, 1, 20.5781, 54.9061, -4.37476, 74.7106, -70.2942, 97.4448
1.772, 1, 20.6214, 54.8869, -4.40074, 74.7715, -70.2414, 97.2984
1.776, 1, 20.6646, 54.8676, -4.4267, 74.8323, -70.1886, 97.1521
1.78, 1, 20.7077, 54.8484, -4.45264, 74.8931, -70.1359, 97.006
1.784, 1, 20.7509, 54.8292, -4.47855, 74.9538, -70.0833, 96.86
1.788, 1, 20.7939, 54.81, -4.50444, 75.0145, -70.0307, 96.7141
1.792, 1, 20.837, 54.7908, -4.5303, 75.0751, -69.9781, 96.5684
1.796, 1, 20.88, 54.7717, -4.55615, 75.1356, -69.9256, 96.4228
1.8, 1, 20.923, 54.7525, -4.58197, 75.1961, -69.8732, 96.2773
1.804, 1, 20.9659, 54.7334, -4.60777, 75.2565, -69.8207, 96.132
1.808, 1, 21.0088, 54.7143, -4.63354, 75.3169, -69.7684, 95.9867
1.812, 1, 21.0516, 54.6952, -4.65929, 75.3773, -69.716, 95.8417
1.816, 1, 21.0944, 54.6762, -4.68502, 75.4375, -69.6638, 95.6967
1.82, 1, 21.1372, 54.6571, -4.71073, 75.4977, -69.6115, 95.5519
1.824, 1, 21.18, 54.6381, -4.73641, 75.5579, -69.5593, 95.4072
1.828, 1, 21.2227, 54.619, -4.76207, 75.618, -69.5072, 95.2626
1.832, 1, 21.2653, 54.6, -4.78771, 75.6781, -69.4551, 95.1181
1.836, 1, 21.3079, 54.581, -4.81333, 75.7381, -69.4031, 94.9738
1.84, 1, 21.3505, 54.5621, -4.83892, 75.7981, -69.3511, 94.8296
1.844, 1, 21.3931, 54.5431, -4.86449, 75.858, -69.2991, 94.6855
1.848, 1, 21.4356, 54.5242, -4.89004, 75.9178, -69.2472, 94.5416
1.852, 1, 21.4781, 54.5053, -4.91557, 75.9776, -69.1953, 94.3978
1.856, 1, 21.5205, 54.4864, -4.94107, 76.0374, -69.1435, 94.2541
1.86, 1, 21.5629, 54.4675, -4.96655, 76.0971, -69.0917, 94.1105
1.864, 1, 21.6053, 54.4486, -4.99201, 76.1567, -69.04, 93.9671
1.868, 1, 21.6476, 54.4297, -5.01745, 76.2163, -68.9883, 93.8238
1.872, 1, 21.6899, 54.4109, -5.04286, 76.2759, -68.9367, 93.6806
1.876, 1, 21.7322, 54.3921, -5.06826, 76.3354, -68.8851, 93.5375
1.88, 1, 21.7744, 54.3733, -5.09363, 76.3948, -68.8335, 93.3946
1.884, 1, 21.8166, 54.3545, -5.11898, 76.4542, -68.782, 93.2518
1.888, 1, 21.8587, 54.3357, -5.1443, 76.5135, -68.7306, 93.1091
1.892, 1, 21.9008, 54.3169, -5.16961, 76.5728, -68.6792, 92.9665
1.896, 1, 21.9429, 54.2982, -5.19489, 76.632, -68.6278, 92.8241
1.9, 1, 21.9849, 54.2795, -5.22015, 76.6912, -68.5765, 92.6817
1.904, 1, 22.0269, 54.2608, -5.24539, 76.7504, -68.5252, 92.5396
1.908, 1, 22.0689, 54.2421, -5.27061, 76.8094, -68.4739, 92.3975
1.912, 1, 22.1108, 54.2234, -5.2958, 76.8685, -68.4228, 92.2555
1.916, 1, 22.1527, 54.2047, -5.32098, 76.9274, -68.3716, 92.1137
1.92, 1, 22.1945, 54.1861, -5.34613, 76.9864, -68.3205, 91.972
1.924, 1, 22.2364, 54.1675, -5.37126, 77.0452, -68.2694, 91.8304
1.928, 1, 22.2781, 54.1489, -5.39637, 77.1041, -68.2184, 91.6889
1.932, 1, 22.3199, 54.1303, -5.42146, 77.1628, -68.1674, 91.5476
1.936, 1, 22.3616, 54.1117, -5.44652, 77.2216, -68.1165, 91.4064
1.94, 1, 22.4033, 54.0931, -5.47157, 77.2802, -68.0656, 91.2653
1.944, 1, 22.4449, 54.0746, -5.49659, 77.3389, -68.0148, 91.1243
1.948, 1, 22.4865, 54.056, -5.52159, 77.3974, -67.964, 90.9834
1.952, 1, 22.5281, 54.0375, -5.54657, 77.456, -67.9132, 90.8427
1.956, 1, 22.5696, 54.019, -5.57153, 77.5144, -67.8625, 90.702
1.96, 1, 22.6111, 54.0005, -5.59647, 77.5729, -67.8118, 90.5616
1.964, 1, 22.6526, 53.9821, -5.62139, 77.6312, -67.7612, 90.4212
1.968, 1, 22.694, 53.9636, -5.64628, 77.6896, -67.7106, 90.2809
1.972, 1, 22.7354, 53.9452, -5.67116, 77.7478, -67.6601, 90.1408
1.976, 1, 22.7768, 53.9267, -5.69601, 77.8061, -67.6096, 90.0007
1.98, 1, 22.8181, 53.9083, -5.72084, 77.8642, -67.5591, 89.8608
1.984, 1, 22.8594, 53.8899, -5.74565, 77.9224, -67.5087, 89.721
1.988, 1, 22.9006, 53.8716, -5.77044, 77.9804, -67.4584, 89.5814
1.992, 1, 22.9418, 53.8532, -5.79521, 78.0385, -67.408, 89.4418
1.996, 1, 22.983, 53.8349, -5.81996, 78.0965, -67.3577, 89.3024
1.999, 1, 23.0242, 53.8165, -5.84469, 78.1544, -67.3075, 89.1631
2.004, 1, 23.0653, 53.7982, -5.8694, 78.2123, -67.2573, 89.0239
2.008, 1, 23.1064, 53.7799, -5.89408, 78.2701, -67.2071, 88.8848
2.012, 1, 23.1474, 53.7616, -5.91875, 78.3279, -67.157, 88.7458
2.015, 1, 23.1884, 53.7434, -5.94339, 78.3856, -67.1069, 88.607
2.019, 1, 23.2294, 53.7251, -5.96802, 78.4433, -67.0569, 88.4682
2.024, 1, 23.2703, 53.7069, -5.99262, 78.501, -67.0069, 88.3296
2.028, 1, 23.3112, 53.6887, -6.0172, 78.5586, -66.957, 88.1911
2.031, 1, 23.3521, 53.6704, -6.04177, 78.6161, -66.9071, 88.0527
2.036, 1, 23.3929, 53.6523, -6.06631, 78.6736, -66.8572, 87.9144
2.04, 1, 23.4337, 53.6341, -6.09083, 78.731, -66.8074, 87.7763
2.044, 1, 23.4745, 53.6159, -6.11533, 78.7884, -66.7576, 87.6383
2.048, 1, 23.5153, 53.5978, -6.13981, 78.8458, -66.7079, 87.5003
2.051, 1, 23.556, 53.5796, -6.16427, 78.9031, -66.6581, 87.3625
2.055, 1, 23.5966, 53.5615, -6.18871, 78.9604, -66.6085, 87.2248
2.06, 1, 23.6373, 53.5434, -6.21313, 79.0176, -66.5589, 87.0872
2.064, 1, 23.6779, 53.5253, -6.23753, 79.0747, -66.5093, 86.9498
2.068, 1, 23.7184, 53.5073, -6.26191, 79.1319, -66.4598, 86.8124
2.071, 1, 23.759, 53.4892, -6.28627, 79.1889, -66.4103, 86.6752
2.076, 1, 23.7995, 53.4712, -6.31061, 79.2459, -66.3608, 86.538
2.08, 1, 23.8399, 53.4531, -6.33493, 79.3029, -66.3114, 86.401
2.084, 1, 23.8804, 53.4351, -6.35923, 79.3599, -66.262, 86.2641
2.087, 1, 23.9208, 53.4171, -6.38351, 79.4167, -66.2127, 86.1273
2.092, 1, 23.9611, 53.3991, -6.40777, 79.4736, -66.1634, 85.9906
2.096, 1, 24.0015, 53.3812, -6.43201, 79.5304, -66.1142, 85.8541
2.1, 1, 24.0418, 53.3632, -6.45623, 79.5871, -66.0649, 85.7176
2.104, 1, 24.082, 53.3453, -6.48043, 79.6438, -66.0158, 85.5813
2.107, 1, 24.1223, 53.3274, -6.50461, 79.7004, -65.9666, 85.445
2.111, 1, 24.1625, 53.3094, -6.52877, 79.757, -65.9175, 85.3089
2.116, 1, 24.2027, 53.2916, -6.55291, 79.8136, -65.8685, 85.1729
2.12, 1, 24.2428, 53.2737, -6.57703, 79.8701, -65.8195, 85.037
2.124, 1, 24.2829, 53.2558, -6.60113, 79.9266, -65.7705, 84.9012
2.127, 1, 24.323, 53.238, -6.62521, 79.983, -65.7216, 84.7655
2.132, 1, 24.363, 53.2201, -6.64927, 80.0394, -65.6727, 84.63
2.136, 1, 24.403, 53.2023, -6.67331, 80.0957, -65.6238, 84.4945
2.14, 1, 24.443, 53.1845, -6.69734, 80.152, -65.575, 84.3592
2.143, 1, 24.4829, 53.1667, -6.72134, 80.2082, -65.5263, 84.2239
2.148, 1, 24.5229, 53.1489, -6.74533, 80.2644, -65.4775, 84.0888
2.152, 1, 24.5627, 53.1312, -6.76929, 80.3206, -65.4288, 83.9538
2.156, 1, 24.6026, 53.1134, -6.79324, 80.3767, -65.3802, 83.8189
2.16, 1, 24.6424, 53.0957, -6.81716, 80.4327, -65.3316, 83.6841
2.163, 1, 24.6822, 53.0779, -6.84107, 80.4887, -65.283, 83.5494
2.168, 1, 24.7219, 53.0602, -6.86496, 80.5447, -65.2345, 83.4148
2.172, 1, 24.7617, 53.0425, -6.88883, 80.6006, -65.186, 83.2803
2.176, 1, 24.8013, 53.0249, -6.91268, 80.6565, -65.1375, 83.1459
2.179, 1, 24.841, 53.0072, -6.93651, 80.7123, -65.0891, 83.0117
2.184, 1, 24.8806, 52.9895, -6.96032, 80.7681, -65.0407, 82.8775
2.188, 1, 24.9202, 52.9719, -6.98412, 80.8238, -64.9923, 82.7434
2.192, 1, 24.9598, 52.9543, -7.00789, 80.8795, -64.944, 82.6095
2.196, 1, 24.9993, 52.9367, -7.03165, 80.9352, -64.8958, 82.4756
2.199, 1, 25.0388, 52.9191, -7.05538, 80.9908, -64.8475, 82.3419
2.204, 1, 25.0783, 52.9015, -7.0791, 81.0464, -64.7993, 82.2083
2.208, 1, 25.1177, 52.8839, -7.1028, 81.1019, -64.7512, 82.0748
2.212, 1, 25.1571, 52.8664, -7.12648, 81.1574, -64.7031, 81.9413
2.216, 1, 25.1965, 52.8488, -7.15014, 81.2128, -64.655, 81.808
2.219, 1, 25.2358, 52.8313, -7.17379, 81.2682, -64.607, 81.6748
2.224, 1, 25.2752, 52.8138, -7.19741, 81.3236, -64.559, 81.5417
2.228, 1, 25.3144, 52.7963, -7.22102, 81.3789, -64.511, 81.4087
2.232, 1, 25.3537, 52.7788, -7.24461, 81.4341, -64.4631, 81.2758
2.235, 1, 25.3929, 52.7613, -7.26818, 81.4893, -64.4152, 81.143
2.24, 1, 25.4321, 52.7439, -7.29173, 81.5445, -64.3673, 81.0103
2.244, 1, 25.4713, 52.7264, -7.31526, 81.5997, -64.3195, 80.8777
2.248, 1, 25.5104, 52.709, -7.33878, 81.6547, -64.2717, 80.7452
2.252, 1, 25.5495, 52.6916, -7.36227, 81.7098, -64.224, 80.6129
2.255, 1, 25.5886, 52.6742, -7.38575, 81.7648, -64.1763, 80.4806
2.259, 1, 25.6276, 52.6568, -7.40921, 81.8198, -64.1286, 80.3484
2.264, 1, 25.6666, 52.6394, -7.43265, 81.8747, -64.081, 80.2163
2.268, 1, 25.7056, 52.6221, -7.45608, 81.9296, -64.0334, 80.0844
2.272, 1, 25.7445, 52.6047, -7.47948, 81.9844, -63.9858, 79.9525
2.275, 1, 25.7835, 52.5874, -7.50287, 82.0392, -63.9383, 79.8207
2.28, 1, 25.8223, 52.57, -7.52624, 82.0939, -63.8908, 79.689
2.284, 1, 25.8612, 52.5527, -7.54959, 82.1487, -63.8434, 79.5575
2.288, 1, 25.9, 52.5354, -7.57293, 82.2033, -63.796, 79.426
2.291, 1, 25.9388, 52.5182, -7.59624, 82.2579, -63.7486, 79.2946
2.296, 1, 25.9776, 52.5009, -7.61954, 82.3125, -63.7012, 79.1634
2.3, 1, 26.0163, 52.4836, -7.64282, 82.3671, -63.6539, 79.0322
2.304, 1, 26.0551, 52.4664, -7.66609, 82.4216, -63.6067, 78.9011
2.308, 1, 26.0937, 52.4492, -7.68933, 82.476, -63.5594, 78.7702
2.311, 1, 26.1324, 52.4319, -7.71256, 82.5304, -63.5122, 78.6393
2.316, 1, 26.171, 52.4147, -7.73577, 82.5848, -63.4651, 78.5085
2.32, 1, 26.2096, 52.3975, -7.75896, 82.6392, -63.418, 78.3779
2.324, 1, 26.2482, 52.3804, -7.78214, 82.6935, -63.3709, 78.2473
2.328, 1, 26.2867, 52.3632, -7.8053, 82.7477, -63.3238, 78.1168
2.331, 1, 26.3252, 52.346, -7.82844, 82.8019, -63.2768, 77.9865
2.336, 1, 26.3637, 52.3289, -7.85156, 82.8561, -63.2298, 77.8562
2.34, 1, 26.4021, 52.3118, -7.87466, 82.9102, -63.1829, 77.726
2.344, 1, 26.4406, 52.2947, -7.89775, 82.9643, -63.136, 77.5959
2.347, 1, 26.4789, 52.2775, -7.92082, 83.0184, -63.0891, 77.466
2.352, 1, 26.5173, 52.2605, -7.94388, 83.0724, -63.0422, 77.3361
2.356, 1, 26.5556, 52.2434, -7.96691, 83.1263, -62.9954, 77.2063
2.36, 1, 26.5939, 52.2263, -7.98993, 83.1803, -62.9487, 77.0766
2.364, 1, 26.6322, 52.2093, -8.01293, 83.2342, -62.9019, 76.947
2.367, 1, 26.6705, 52.1922, -8.03592, 83.288, -62.8552, 76.8175
2.372, 1, 26.7087, 52.1752, -8.05888, 83.3418, -62.8086, 76.6881
2.376, 1, 26.7469, 52.1582, -8.08183, 83.3956, -62.7619, 76.5588
2.38, 1, 26.785, 52.1412, -8.10477, 83.4493, -62.7153, 76.4296
2.383, 1, 26.8232, 52.1242, -8.12768, 83.503, -62.6688, 76.3005
2.388, 1, 26.8613, 52.1072, -8.15058, 83.5567, -62.6222, 76.1714
2.392, 1, 26.8994, 52.0903, -8.17347, 83.6103, -62.5757, 76.0425
2.396, 1, 26.9374, 52.0733, -8.19633, 83.6638, -62.5293, 75.9137
2.4, 1, 26.9754, 52.0564, -8.21918, 83.7174, -62.4829, 75.785
2.403, 1, 27.0134, 52.0395, -8.24201, 83.7709, -62.4365, 75.6563
2.408, 1, 27.0514, 52.0226, -8.26483, 83.8243, -62.3901, 75.5278
2.412, 1, 27.0893, 52.0056, -8.28763, 83.8777, -62.3438, 75.3993
2.416, 1, 27.1272, 51.9888, -8.31041, 83.9311, -62.2975, 75.271
2.42, 1, 27.1651, 51.9719, -8.33317, 83.9844, -62.2512, 75.1427
2.423, 1, 27.203, 51.955, -8.35592, 84.0377, -62.205, 75.0145
2.428, 1, 27.2408, 51.9382, -8.37865, 84.091, -62.1588, 74.8865
2.432, 1, 27.2786, 51.9213, -8.40137, 84.1442, -62.1127, 74.7585
2.436, 1, 27.3164, 51.9045, -8.42407, 84.1974, -62.0666, 74.6306
2.439, 1, 27.3541, 51.8877, -8.44675, 84.2505, -62.0205, 74.5028
2.444, 1, 27.3918, 51.8709, -8.46941, 84.3036, -61.9744, 74.3751
2.448, 1, 27.4295, 51.8541, -8.49206, 84.3567, -61.9284, 74.2475
2.452, 1, 27.4672, 51.8373, -8.5147, 84.4097, -61.8824, 74.12
2.456, 1, 27.5048, 51.8206, -8.53731, 84.4627, -61.8365, 73.9926
2.459, 1, 27.5424, 51.8038, -8.55991, 84.5156, -61.7905, 73.8652
2.464, 1, 27.58, 51.7871, -8.5825, 84.5685, -61.7446, 73.738
2.468, 1, 27.6176, 51.7703, -8.60507, 84.6214, -61.6988, 73.6108
2.472, 1, 27.6551, 51.7536, -8.62762, 84.6742, -61.653, 73.4838
2.476, 1, 27.6926, 51.7369, -8.65015, 84.727, -61.6072, 73.3568
2.479, 1, 27.7301, 51.7202, -8.67267, 84.7798, -61.5614, 73.2299
2.484, 1, 27.7675, 51.7035, -8.69517, 84.8325, -61.5157, 73.1032
2.488, 1, 27.8049, 51.6869, -8.71766, 84.8852, -61.47, 72.9765
2.492, 1, 27.8423, 51.6702, -8.74013, 84.9379, -61.4244, 72.8499
2.495, 1, 27.8797, 51.6536, -8.76259, 84.9905, -61.3787, 72.7234
2.5, 1, 27.917, 51.6369, -8.78503, 85.043, -61.3331, 72.5969
2.504, 1, 27.9543, 51.6203, -8.80745, 85.0956, -61.2876, 72.4706
2.508, 1, 27.9916, 51.6037, -8.82985, 85.1481, -61.2421, 72.3444
2.512, 1, 28.0289, 51.5871, -8.85225, 85.2005, -61.1966, 72.2182
2.515, 1, 28.0661, 51.5705, -8.87462, 85.2529, -61.1511, 72.0921
2.52, 1, 28.1033, 51.5539, -8.89698, 85.3053, -61.1057, 71.9662
2.524, 1, 28.1405, 51.5374, -8.91932, 85.3577, -61.0603, 71.8403
2.528, 1, 28.1777, 51.5208, -8.94165, 85.41, -61.0149, 71.7145
2.531, 1, 28.2148, 51.5043, -8.96396, 85.4622, -60.9696, 71.5888
2.536, 1, 28.2519, 51.4878, -8.98626, 85.5145, -60.9243, 71.4632
2.54, 1, 28.289, 51.4712, -9.00854, 85.5667, -60.879, 71.3376
2.544, 1, 28.326, 51.4547, -9.03081, 85.6189, -60.8337, 71.2122
2.548, 1, 28.363, 51.4383, -9.05306, 85.671, -60.7885, 71.0868
2.551, 1, 28.4, 51.4218, -9.07529, 85.7231, -60.7434, 70.9615
2.556, 1, 28.437, 51.4053, -9.09751, 85.7751, -60.6982, 70.8364
2.56, 1, 28.474, 51.3888, -9.11971, 85.8271, -60.6531, 70.7113
2.564, 1, 28.5109, 51.3724, -9.1419, 85.8791, -60.608, 70.5863
2.568, 1, 28.5478, 51.356, -9.16407, 85.9311, -60.563, 70.4613
2.571, 1, 28.5847, 51.3395, -9.18623, 85.983, -60.5179, 70.3365
2.576, 1, 28.6215, 51.3231, -9.20837, 86.0349, -60.4729, 70.2117
2.58, 1, 28.6583, 51.3067, -9.2305, 86.0867, -60.428, 70.0871
2.584, 1, 28.6951, 51.2903, -9.25261, 86.1385, -60.3831, 69.9625
2.587, 1, 28.7319, 51.2739, -9.27471, 86.1903, -60.3382, 69.838
2.592, 1, 28.7686, 51.2576, -9.29679, 86.242, -60.2933, 69.7136
2.596, 1, 28.8053, 51.2412, -9.31886, 86.2937, -60.2485, 69.5893
2.6, 1, 28.842, 51.2249, -9.34091, 86.3454, -60.2037, 69.465
2.604, 1, 28.8787, 51.2085, -9.36294, 86.397, -60.1589, 69.3409
2.607, 1, 28.9154, 51.1922, -9.38496, 86.4486, -60.1141, 69.2168
2.612, 1, 28.952, 51.1759, -9.40697, 86.5001, -60.0694, 69.0928
2.616, 1, 28.9886, 51.1596, -9.42896, 86.5517, -60.0247, 68.9689
2.62, 1, 29.0251, 51.1433, -9.45094, 86.6031, -59.9801, 68.8451
2.624, 1, 29.0617, 51.127, -9.4729, 86.6546, -59.9355, 68.7214
2.627, 1, 29.0982, 51.1108, -9.49485, 86.706, -59.8909, 68.5977
2.632, 1, 29.1347, 51.0945, -9.51678, 86.7574, -59.8463, 68.4741
2.636, 1, 29.1712, 51.0783, -9.5387, 86.8087, -59.8018, 68.3507
2.64, 1, 29.2076, 51.062, -9.5606, 86.8601, -59.7573, 68.2273
2.643, 1, 29.244, 51.0458, -9.58249, 86.9113, -59.7128, 68.1039
2.648, 1, 29.2804, 51.0296, -9.60436, 86.9626, -59.6684, 67.9807
2.652, 1, 29.3168, 51.0134, -9.62622, 87.0138, -59.6239, 67.8576
2.656, 1, 29.3532, 50.9972, -9.64806, 87.065, -59.5796, 67.7345
2.66, 1, 29.3895, 50.981, -9.66989, 87.1161, -59.5352, 67.6115
2.663, 1, 29.4258, 50.9648, -9.69171, 87.1672, -59.4909, 67.4886
2.668, 1, 29.4621, 50.9487, -9.71351, 87.2183, -59.4466, 67.3658
2.672, 1, 29.4983, 50.9325, -9.73529, 87.2693, -59.4023, 67.243
2.676, 1, 29.5345, 50.9164, -9.75706, 87.3204, -59.3581, 67.1203
2.679, 1, 29.5708, 50.9003, -9.77882, 87.3713, -59.3139, 66.9978
2.684, 1, 29.6069, 50.8841, -9.80056, 87.4223, -59.2697, 66.8753
2.688, 1, 29.6431, 50.868, -9.82229, 87.4732, -59.2255, 66.7528
2.692, 1, 29.6792, 50.8519, -9.84401, 87.524, -59.1814, 66.6305
2.696, 1, 29.7153, 50.8358, -9.86571, 87.5749, -59.1373, 66.5082
2.699, 1, 29.7514, 50.8198, -9.88739, 87.6257, -59.0933, 66.3861
2.704, 1, 29.7875, 50.8037, -9.90907, 87.6765, -59.0492, 66.264
2.708, 1, 29.8235, 50.7877, -9.93072, 87.7272, -59.0052, 66.1419
2.712, 1, 29.8595, 50.7716, -9.95237, 87.7779, -58.9613, 66.02
2.716, 1, 29.8955, 50.7556, -9.974, 87.8286, -58.9173, 65.8981
2.719, 1, 29.9315, 50.7396, -9.99561, 87.8792, -58.8734, 65.7764
2.724, 1, 29.9674, 50.7235, -10.0172, 87.9298, -58.8295, 65.6546
2.728, 1, 30.0034, 50.7075, -10.0388, 87.9804, -58.7856, 65.533
2.732, 1, 30.0393, 50.6916, -10.0604, 88.0309, -58.7418, 65.4115
2.735, 1, 30.0751, 50.6756, -10.0819, 88.0815, -58.698, 65.29
2.74, 1, 30.111, 50.6596, -10.1035, 88.1319, -58.6542, 65.1686
2.744, 1, 30.1468, 50.6436, -10.125, 88.1824, -58.6105, 65.0473
2.748, 1, 30.1826, 50.6277, -10.1465, 88.2328, -58.5667, 64.9261
2.752, 1, 30.2184, 50.6117, -10.168, 88.2832, -58.5231, 64.8049
2.755, 1, 30.2542, 50.5958, -10.1895, 88.3335, -58.4794, 64.6838
2.76, 1, 30.2899, 50.5799, -10.211, 88.3838, -58.4357, 64.5628
2.764, 1, 30.3256, 50.564, -10.2325, 88.4341, -58.3921, 64.4419
2.768, 1, 30.3613, 50.5481, -10.2539, 88.4844, -58.3486, 64.3211
2.772, 1, 30.397, 50.5322, -10.2753, 88.5346, -58.305, 64.2003
2.775, 1, 30.4326, 50.5163, -10.2968, 88.5848, -58.2615, 64.0796
2.78, 1, 30.4683, 50.5004, -10.3182, 88.6349, -58.218, 63.959
2.784, 1, 30.5039, 50.4846, -10.3396, 88.6851, -58.1745, 63.8385
2.788, 1, 30.5394, 50.4687, -10.3609, 88.7351, -58.1311, 63.718
2.791, 1, 30.575, 50.4529, -10.3823, 88.7852, -58.0877, 63.5976
2.796, 1, 30.6105, 50.4371, -10.4037, 88.8352, -58.0443, 63.4773
2.8, 1, 30.646, 50.4212, -10.425, 88.8852, -58.0009, 63.3571
2.804, 1, 30.6815, 50.4054, -10.4463, 88.9352, -57.9576, 63.2369
2.808, 1, 30.717, 50.3896, -10.4676, 88.9851, -57.9143, 63.1168
2.811, 1, 30.7524, 50.3739, -10.4889, 89.035, -57.871, 62.9968
2.816, 1, 30.7879, 50.3581, -10.5102, 89.0849, -57.8277, 62.8769
2.82, 1, 30.8233, 50.3423, -10.5315, 89.1347, -57.7845, 62.757
2.824, 1, 30.8586, 50.3265, -10.5528, 89.1845, -57.7413, 62.6372
2.828, 1, 30.894, 50.3108, -10.574, 89.2343, -57.6981, 62.5175
2.831, 1, 30.9293, 50.295, -10.5953, 89.2841, -57.655, 62.3979
2.836, 1, 30.9646, 50.2793, -10.6165, 89.3338, -57.6119, 62.2783
2.84, 1, 30.9999, 50.2636, -10.6377, 89.3835, -57.5688, 62.1589
2.844, 1, 31.0352, 50.2479, -10.6589, 89.4331, -57.5257, 62.0394
2.847, 1, 31.0704, 50.2322, -10.6801, 89.4827, -57.4827, 61.9201
2.852, 1, 31.1057, 50.2165, -10.7012, 89.5323, -57.4397, 61.8008
2.856, 1, 31.1409, 50.2008, -10.7224, 89.5819, -57.3967, 61.6817
2.86, 1, 31.176, 50.1851, -10.7435, 89.6314, -57.3537, 61.5625
2.864, 1, 31.2112, 50.1695, -10.7646, 89.6809, -57.3108, 61.4435
2.867, 1, 31.2463, 50.1538, -10.7858, 89.7304, -57.2679, 61.3245
2.872, 1, 31.2815, 50.1382, -10.8069, 89.7798, -57.225, 61.2056
2.876, 1, 31.3166, 50.1225, -10.828, 89.8293, -57.1822, 61.0868
2.88, 1, 31.3516, 50.1069, -10.849, 89.8786, -57.1393, 60.9681
2.883, 1, 31.3867, 50.0913, -10.8701, 89.928, -57.0965, 60.8494
2.888, 1, 31.4217, 50.0757, -10.8912, 89.9773, -57.0538, 60.7308
2.892, 1, 31.4567, 50.0601, -10.9122, 90.0266, -57.011, 60.6122
2.896, 1, 31.4917, 50.0445, -10.9332, 90.0759, -56.9683, 60.4938
2.9, 1, 31.5267, 50.0289, -10.9542, 90.1251, -56.9256, 60.3754
2.903, 1, 31.5616, 50.0134, -10.9752, 90.1743, -56.8829, 60.2571
2.908, 1, 31.5965, 49.9978, -10.9962, 90.2235, -56.8403, 60.1388
2.912, 1, 31.6314, 49.9823, -11.0172, 90.2726, -56.7977, 60.0206
2.916, 1, 31.6663, 49.9667, -11.0382, 90.3217, -56.7551, 59.9025
2.92, 1, 31.7012, 49.9512, -11.0591, 90.3708, -56.7125, 59.7845
2.923, 1, 31.736, 49.9357, -11.08, 90.4198, -56.67, 59.6665
2.928, 1, 31.7708, 49.9202, -11.101, 90.4689, -56.6274, 59.5486
2.932, 1, 31.8056, 49.9047, -11.1219, 90.5179, -56.585, 59.4308
2.936, 1, 31.8404, 49.8892, -11.1428, 90.5668, -56.5425, 59.3131
2.939, 1, 31.8752, 49.8737, -11.1637, 90.6158, -56.5, 59.1954
2.944, 1, 31.9099, 49.8582, -11.1845, 90.6647, -56.4576, 59.0778
2.948, 1, 31.9446, 49.8428, -11.2054, 90.7135, -56.4152, 58.9602
2.952, 1, 31.9793, 49.8273, -11.2263, 90.7624, -56.3729, 58.8428
2.956, 1, 32.014, 49.8119, -11.2471, 90.8112, -56.3305, 58.7254
2.959, 1, 32.0487, 49.7964, -11.2679, 90.86, -56.2882, 58.608
2.964, 1, 32.0833, 49.781, -11.2887, 90.9088, -56.2459, 58.4908
2.968, 1, 32.1179, 49.7656, -11.3095, 90.9575, -56.2037, 58.3736
2.972, 1, 32.1525, 49.7502, -11.3303, 91.0062, -56.1614, 58.2564
2.976, 1, 32.1871, 49.7348, -11.3511, 91.0549, -56.1192, 58.1394
2.98, 1, 32.2216, 49.7194, -11.3719, 91.1035, -56.077, 58.0224
2.984, 1, 32.2562, 49.704, -11.3926, 91.1521, -56.0349, 57.9055
2.988, 1, 32.2907, 49.6886, -11.4133, 91.2007, -55.9927, 57.7886
2.992, 1, 32.3252, 49.6732, -11.4341, 91.2493, -55.9506, 57.6718
2.995, 1, 32.3596, 49.6579, -11.4548, 91.2978, -55.9085, 57.5551
3, 1, 32.3941, 49.6425, -11.4755, 91.3463, -55.8664, 57.4385
3.004, 1, 32.4285, 49.6272, -11.4962, 91.3948, -55.8244, 57.3219
3.008, 1, 32.4629, 49.6119, -11.5169, 91.4433, -55.7824, 57.2054
3.012, 1, 32.4973, 49.5965, -11.5375, 91.4917, -55.7404, 57.0889
3.015, 1, 32.5317, 49.5812, -11.5582, 91.5401, -55.6984, 56.9726
3.02, 1, 32.5661, 49.5659, -11.5788, 91.5884, -55.6565, 56.8562
3.024, 1, 32.6004, 49.5506, -11.5995, 91.6368, -55.6145, 56.74
3.028, 1, 32.6347, 49.5354, -11.6201, 91.6851, -55.5726, 56.6238
3.031, 1, 32.669, 49.5201, -11.6407, 91.7334, -55.5308, 56.5077
3.036, 1, 32.7033, 49.5048, -11.6613, 91.7816, -55.4889, 56.3917
3.04, 1, 32.7375, 49.4895, -11.6819, 91.8299, -55.4471, 56.2757
3.044, 1, 32.7718, 49.4743, -11.7025, 91.8781, -55.4053, 56.1598
3.048, 1, 32.806, 49.4591, -11.723, 91.9262, -55.3635, 56.0439
3.051, 1, 32.8402, 49.4438, -11.7436, 91.9744, -55.3218, 55.9281
3.056, 1, 32.8743, 49.4286, -11.7641, 92.0225, -55.28, 55.8124
3.06, 1, 32.9085, 49.4134, -11.7846, 92.0706, -55.2383, 55.6968
3.064, 1, 32.9426, 49.3982, -11.8051, 92.1186, -55.1966, 55.5812
3.068, 1, 32.9768, 49.383, -11.8257, 92.1667, -55.155, 55.4657
3.071, 1, 33.0109, 49.3678, -11.8461, 92.2147, -55.1133, 55.3502
3.076, 1, 33.0449, 49.3526, -11.8666, 92.2627, -55.0717, 55.2348
3.08, 1, 33.079, 49.3374, -11.8871, 92.3106, -55.0301, 55.1195
3.084, 1, 33.113, 49.3223, -11.9076, 92.3586, -54.9886, 55.0042
3.087, 1, 33.1471, 49.3071, -11.928, 92.4065, -54.947, 54.889
3.092, 1, 33.1811, 49.292, -11.9484, 92.4543, -54.9055, 54.7739
3.096, 1, 33.2151, 49.2768, -11.9689, 92.5022, -54.864, 54.6588
3.1, 1, 33.249, 49.2617, -11.9893, 92.55, -54.8225, 54.5438
3.104, 1, 33.283, 49.2466, -12.0097, 92.5978, -54.7811, 54.4289
3.107, 1, 33.3169, 49.2314, -12.0301, 92.6456, -54.7396, 54.314
3.112, 1, 33.3508, 49.2163, -12.0504, 92.6933, -54.6982, 54.1992
3.116, 1, 33.3847, 49.2012, -12.0708, 92.741, -54.6568, 54.0844
3.12, 1, 33.4186, 49.1862, -12.0912, 92.7887, -54.6155, 53.9697
3.124, 1, 33.4524, 49.1711, -12.1115, 92.8364, -54.5741, 53.8551
3.128, 1, 33.4863, 49.156, -12.1318, 92.884, -54.5328, 53.7405
3.132, 1, 33.5201, 49.1409, -12.1522, 92.9316, -54.4915, 53.626
3.136, 1, 33.5539, 49.1259, -12.1725, 92.9792, -54.4503, 53.5116
3.14, 1, 33.5877, 49.1108, -12.1928, 93.0268, -54.409, 53.3972
3.143, 1, 33.6214, 49.0958, -12.2131, 93.0743, -54.3678, 53.2829
3.148, 1, 33.6552, 49.0808, -12.2333, 93.1218, -54.3266, 53.1687
3.152, 1, 33.6889, 49.0657, -12.2536, 93.1693, -54.2854, 53.0545
3.156, 1, 33.7226, 49.0507, -12.2739, 93.2168, -54.2442, 52.9404
3.16, 1, 33.7563, 49.0357, -12.2941, 93.2642, -54.2031, 52.8263
3.163, 1, 33.79, 49.0207, -12.3143, 93.3116, -54.162, 52.7123
3.168, 1, 33.8236, 49.0057, -12.3346, 93.359, -54.1209, 52.5984
3.172, 1, 33.8572, 48.9907, -12.3548, 93.4063, -54.0798, 52.4845
3.176, 1, 33.8909, 48.9758, -12.375, 93.4537, -54.0388, 52.3706
3.179, 1, 33.9245, 48.9608, -12.3952, 93.501, -53.9978, 52.2569
3.184, 1, 33.958, 48.9458, -12.4154, 93.5483, -53.9568, 52.1432
3.188, 1, 33.9916, 48.9309, -12.4355, 93.5955, -53.9158, 52.0296
3.192, 1, 34.0251, 48.9159, -12.4557, 93.6427, -53.8748, 51.916
3.196, 1, 34.0587, 48.901, -12.4758, 93.6899, -53.8339, 51.8025
3.199, 1, 34.0922, 48.8861, -12.496, 93.7371, -53.793, 51.689
3.204, 1, 34.1257, 48.8712, -12.5161, 93.7843, -53.7521, 51.5756
3.208, 1, 34.1591, 48.8563, -12.5362, 93.8314, -53.7112, 51.4623
3.212, 1, 34.1926, 48.8413, -12.5563, 93.8785, -53.6704, 51.349
3.216, 1, 34.226, 48.8265, -12.5764, 93.9256, -53.6295, 51.2358
3.22, 1, 34.2595, 48.8116, -12.5965, 93.9726, -53.5887, 51.1227
3.224, 1, 34.2929, 48.7967, -12.6166, 94.0197, -53.5479, 51.0096
3.228, 1, 34.3262, 48.7818, -12.6366, 94.0667, -53.5072, 50.8965
3.232, 1, 34.3596, 48.7669, -12.6567, 94.1136, -53.4664, 50.7836
3.235, 1, 34.393, 48.7521, -12.6767, 94.1606, -53.4257, 50.6706
3.24, 1, 34.4263, 48.7372, -12.6967, 94.2075, -53.385, 50.5578
3.244, 1, 34.4596, 48.7224, -12.7168, 94.2544, -53.3443, 50.445
3.248, 1, 34.4929, 48.7076, -12.7368, 94.3013, -53.3037, 50.3322
3.252, 1, 34.5262, 48.6927, -12.7568, 94.3482, -53.263, 50.2196
3.255, 1, 34.5594, 48.6779, -12.7768, 94.395, -53.2224, 50.1069
3.26, 1, 34.5927, 48.6631, -12.7967, 94.4418, -53.1818, 49.9944
3.264, 1, 34.6259, 48.6483, -12.8167, 94.4886, -53.1413, 49.8819
3.268, 1, 34.6591, 48.6335, -12.8367, 94.5353, -53.1007, 49.7694
3.272, 1, 34.6923, 48.6187, -12.8566, 94.5821, -53.0602, 49.657
3.276, 1, 34.7255, 48.604, -12.8766, 94.6288, -53.0197, 49.5447
3.28, 1, 34.7586, 48.5892, -12.8965, 94.6755, -52.9792, 49.4324
3.284, 1, 34.7918, 48.5744, -12.9164, 94.7221, -52.9387, 49.3202
3.288, 1, 34.8249, 48.5597, -12.9363, 94.7688, -52.8983, 49.2081
3.291, 1, 34.858, 48.5449, -12.9562, 94.8154, -52.8578, 49.096
3.296, 1, 34.8911, 48.5302, -12.9761, 94.862, -52.8174, 48.9839
3.3, 1, 34.9242, 48.5154, -12.996, 94.9085, -52.777, 48.872
3.304, 1, 34.9572, 48.5007, -13.0158, 94.9551, -52.7367, 48.76
3.308, 1, 34.9903, 48.486, -13.0357, 95.0016, -52.6963, 48.6482
3.312, 1, 35.0233, 48.4713, -13.0555, 95.0481, -52.656, 48.5364
3.316, 1, 35.0563, 48.4566, -13.0754, 95.0946, -52.6157, 48.4246
3.32, 1, 35.0893, 48.4419, -13.0952, 95.141, -52.5754, 48.3129
3.324, 1, 35.1223, 48.4272, -13.115, 95.1874, -52.5352, 48.2013
3.328, 1, 35.1552, 48.4125, -13.1348, 95.2338, -52.4949, 48.0897
3.332, 1, 35.1882, 48.3978, -13.1546, 95.2802, -52.4547, 47.9781
3.336, 1, 35.2211, 48.3832, -13.1744, 95.3266, -52.4145, 47.8667
3.34, 1, 35.254, 48.3685, -13.1942, 95.3729, -52.3743, 47.7552
3.344, 1, 35.2869, 48.3539, -13.2139, 95.4192, -52.3341, 47.6439
3.347, 1, 35.3198, 48.3392, -13.2337, 95.4655, -52.294, 47.5326
3.352, 1, 35.3525, 48.3246, -13.2534, 95.5117, -52.2539, 47.4213
3.356, 1, 35.3851, 48.3101, -13.2732, 95.558, -52.2138, 47.3101
3.36, 1, 35.4172, 48.2958, -13.293, 95.6042, -52.1737, 47.199
3.364, 1, 35.4487, 48.2817, -13.3128, 95.6503, -52.1337, 47.0881
3.368, 1, 35.4794, 48.268, -13.3327, 95.6963, -52.0939, 46.9774
3.372, 1, 35.5092, 48.2548, -13.3525, 95.7421, -52.0542, 46.8672
3.376, 1, 35.5379, 48.2422, -13.3724, 95.7876, -52.0148, 46.7577
3.38, 1, 35.5654, 48.2302, -13.3923, 95.8327, -51.9758, 46.6492
3.383, 1, 35.5919, 48.2188, -13.4119, 95.877, -51.9374, 46.5424
3.388, 1, 35.6174, 48.208, -13.4313, 95.9205, -51.8997, 46.4377
3.392, 1, 35.6419, 48.1977, -13.4502, 95.9628, -51.8632, 46.3358
3.396, 1, 35.6655, 48.1878, -13.4685, 96.0037, -51.8278, 46.2374
3.4, 1, 35.688, 48.1784, -13.486, 96.0428, -51.794, 46.1432
3.403, 1, 35.7095, 48.1695, -13.5026, 96.0799, -51.7619, 46.0538
3.408, 1, 35.7299, 48.1609, -13.5182, 96.1148, -51.7318, 45.9699
3.412, 1, 35.7493, 48.1527, -13.5326, 96.1471, -51.7038, 45.892
3.416, 1, 35.7677, 48.1449, -13.5457, 96.1767, -51.6781, 45.8207
3.42, 1, 35.7853, 48.1372, -13.5574, 96.2035, -51.6549, 45.7562
3.424, 1, 35.8022, 48.1297, -13.5676, 96.2274, -51.6342, 45.6988
3.428, 1, 35.8183, 48.1224, -13.5763, 96.2483, -51.616, 45.6484
3.432, 1, 35.8337, 48.1152, -13.5837, 96.2665, -51.6002, 45.6049
3.436, 1, 35.8482, 48.1083, -13.5897, 96.2819, -51.5868, 45.568
3.439, 1, 35.8616, 48.1018, -13.5945, 96.2948, -51.5755, 45.5371
3.444, 1, 35.8738, 48.0957, -13.5982, 96.3054, -51.5662, 45.5117
3.448, 2, 35.8848, 48.0903, -13.6011, 96.314, -51.5587, 45.4912
3.452, 2, 35.8944, 48.0854, -13.6033, 96.3208, -51.5527, 45.475
3.456, 2, 35.903, 48.0811, -13.6048, 96.3261, -51.548, 45.4623
3.46, 2, 35.9107, 48.0773, -13.6058, 96.3301, -51.5445, 45.4528
3.464, 2, 35.9174, 48.074, -13.6065, 96.3331, -51.5418, 45.4457
3.468, 2, 35.9232, 48.0711, -13.6068, 96.3353, -51.5398, 45.4405
3.472, 2, 35.9282, 48.0688, -13.607, 96.3368, -51.5384, 45.4369
3.476, 2, 35.9321, 48.067, -13.6071, 96.3379, -51.5374, 45.4343
3.48, 2, 35.9352, 48.0656, -13.6071, 96.3387, -51.5368, 45.4326
3.484, 2, 35.9375, 48.0646, -13.6071, 96.3392, -51.5363, 45.4314
3.488, 2, 35.939, 48.0639, -13.6072, 96.3395, -51.536, 45.4306
3.492, 2, 35.9401, 48.0635, -13.6072, 96.3398, -51.5358, 45.43
3.495, 2, 35.9408, 48.0632, -13.6072, 96.3399, -51.5356, 45.4297
3.5, 2, 35.9413, 48.0629, -13.6072, 96.34, -51.5355, 45.4294
3.504, 2, 35.9416, 48.0628, -13.6072, 96.3401, -51.5354, 45.4292
3.508, 2, 35.9419, 48.0627, -13.6072, 96.3402, -51.5354, 45.4291
3.512, 2, 35.942, 48.0626, -13.6072, 96.3402, -51.5354, 45.429
3.516, 2, 35.9421, 48.0626, -13.6072, 96.3402, -51.5353, 45.429
3.52, 2, 35.9422, 48.0626, -13.6072, 96.3402, -51.5353, 45.429
3.524, 2, 35.9422, 48.0625, -13.6072, 96.3402, -51.5353, 45.4289
3.528, 2, 35.9423, 48.0625, -13.6072, 96.3402, -51.5353, 45.4289
3.531, 2, 35.9423, 48.0625, -13.6072, 96.3402, -51.5353, 45.4289
3.536, 2, 35.9423, 48.0625, -13.6072, 96.3402, -51.5353, 45.4289
3.54, 2, 35.9423, 48.0625, -13.6072, 96.3403, -51.5353, 45.4289
3.544, 2, 35.9423, 48.0625, -13.6072, 96.3403, -51.5353, 45.4289
3.548, 2, 35.9423, 48.0625, -13.6072, 96.3403, -51.5353, 45.4289
3.552, 2, 35.9423, 48.0625, -13.6072, 96.3403, -51.5353, 45.4289
3.556, 2, 35.9423, 48.0625, -13.6072, 96.3403, -51.5353, 45.4289
3.56, 2, 35.9423, 48.0625, -13.6072, 96.3403, -51.5353, 45.4289
3.564, 2, 35.9423, 48.0625, -13.6072, 96.3403, -51.5353, 45.4289
3.568, 2, 35.9423, 48.0625, -13.6072, 96.3403, -51.5353, 45.4289
3.572, 2, 35.9423, 48.0625, -13.6072, 96.3403, -51.5353, 45.4289
3.576, 2, 35.9423, 48.0625, -13.6072, 96.3403, -51.5353, 45.4289
3.58, 2, 35.9423, 48.0625, -13.6072, 96.3403, -51.5353, 45.4289
3.584, 2, 35.9423, 48.0625, -13.6072, 96.3403, -51.5353, 45.4289
3.587, 2, 35.9423, 48.0625, -13.6072, 96.3403, -51.5353, 45.4289
3.592, 2, 35.9423, 48.0625, -13.6072, 96.3403, -51.5353, 45.4289
3.596, 2, 35.9423, 48.0625, -13.6072, 96.3403, -51.5353, 45.4289
3.6, 2, 35.9423, 48.0625, -13.6072, 96.3403, -51.5353, 45.4289
3.604, 2, 35.9423, 48.0625, -13.6072, 96.3403, -51.5353, 45.4289
3.608, 2, 35.9423, 48.0625, -13.6072, 96.3403, -51.5353, 45.4289
3.612, 2, 35.9423, 48.0625, -13.6072, 96.3403, -51.5353, 45.4289
3.616, 2, 35.9423, 48.0625, -13.6072, 96.3403, -51.5353, 45.4289
3.62, 2, 35.9423, 48.0625, -13.6072, 96.3403, -51.5353, 45.4289
3.624, 2, 35.9423, 48.0625, -13.6072, 96.3403, -51.5353, 45.4289
3.628, 2, 35.9423, 48.0625, -13.6072, 96.3403, -51.5353, 45.4289
3.632, 2, 35.9423, 48.0625, -13.6072, 96.3403, -51.5353, 45.4289
3.636, 2, 35.9423, 48.0625, -13.6072, 96.3403, -51.5353, 45.4289
3.64, 2, 35.9423, 48.0625, -13.6072, 96.3403, -51.5353, 45.4289
3.644, 2, 35.9423, 48.0625, -13.6072, 96.3403, -51.5353, 45.4289
3.648, 2, 35.9423, 48.0625, -13.6072, 96.3403, -51.5353, 45.4289
3.652, 2, 35.9423, 48.0625, -13.6072, 96.3403, -51.5353, 45.4289
3.656, 2, 35.9423, 48.0625, -13.6072, 96.3403, -51.5353, 45.4289
3.66, 2, 35.9423, 48.0625, -13.6072, 96.3403, -51.5353, 45.4289
3.664, 2, 35.9423, 48.0625, -13.6072, 96.3403, -51.5353, 45.4289
3.668, 2, 35.9423, 48.0625, -13.6072, 96.3403, -51.5353, 45.4289
3.672, 2, 35.9423, 48.0625, -13.6072, 96.3403, -51.5353, 45.4289
3.676, 2, 35.9423, 48.0625, -13.6072, 96.3403, -51.5353, 45.4289
3.679, 2, 35.9423, 48.0625, -13.6072, 96.3403, -51.5353, 45.4289
3.684, 2, 35.9423, 48.0625, -13.6072, 96.3403, -51.5353, 45.4289
3.688, 2, 35.9423, 48.0625, -13.6072, 96.3403, -51.5353, 45.4289
3.692, 2, 35.9423, 48.0625, -13.6072, 96.3403, -51.5353, 45.4289
3.696, 2, 35.9423, 48.0625, -13.6072, 96.3403, -51.5353, 45.4289
3.7, 2, 35.9423, 48.0625, -13.6072, 96.3403, -51.5353, 45.4289
3.704, 2, 35.9423, 48.0625, -13.6072, 96.3403, -51.5353, 45.4289
3.708, 2, 35.9423, 48.0625, -13.6072, 96.3403, -51.5353, 45.4289
3.712, 2, 35.9423, 48.0625, -13.6072, 96.3403, -51.5353, 45.4289
3.716, 2, 35.9423, 48.0625, -13.6072, 96.3403, -51.5353, 45.4289
3.72, 2, 35.9423, 48.0625, -13.6072, 96.3403, -51.5353, 45.4289
3.724, 2, 35.9423, 48.0625, -13.6072, 96.3403, -51.5353, 45.4289
3.728, 2, 35.9423, 48.0625, -13.6072, 96.3403, -51.5353, 45.4289
3.732, 2, 35.9423, 48.0625, -13.6072, 96.3403, -51.5353, 45.4289
3.735, 2, 35.9423, 48.0625, -13.6072, 96.3403, -51.5353, 45.4289
3.74, 2, 35.9423, 48.0625, -13.6072, 96.3403, -51.5353, 45.4289
3.744, 2, 35.9423, 48.0625, -13.6072, 96.3403, -51.5353, 45.4289
3.748, 2, 35.9423, 48.0625, -13.6072, 96.3403, -51.5353, 45.4289
3.752, 2, 35.9423, 48.0625, -13.6072, 96.3403, -51.5353, 45.4289
3.756, 2, 35.9423, 48.0625, -13.6072, 96.3403, -51.5353, 45.4289
3.76, 2, 35.9423, 48.0625, -13.6072, 96.3403, -51.5353, 45.4289
3.764, 2, 35.9423, 48.0625, -13.6072, 96.3403, -51.5353, 45.4289
3.768, 2, 35.9423, 48.0625, -13.6072, 96.3403, -51.5353, 45.4289
3.772, 2, 35.9423, 48.0625, -13.6072, 96.3403, -51.5353, 45.4289
3.776, 2, 35.9423, 48.0625, -13.6072, 96.3403, -51.5353, 45.4289
3.78, 2, 35.9423, 48.0625, -13.6072, 96.3403, -51.5353, 45.4289
3.784, 2, 35.9423, 48.0625, -13.6072, 96.3403, -51.5353, 45.4289
3.788, 2, 35.9423, 48.0625, -13.6072, 96.3403, -51.5353, 45.4289
3.792, 2, 35.9423, 48.0625, -13.6072, 96.3403, -51.5353, 45.4289
3.796, 2, 35.9423, 48.0625, -13.6072, 96.3403, -51.5353, 45.4289
3.8, 2, 35.9423, 48.0625, -13.6072, 96.3403, -51.5353, 45.4289
3.804, 2, 35.9423, 48.0625, -13.6072, 96.3403, -51.5353, 45.4289
3.808, 2, 35.9423, 48.0625, -13.6072, 96.3403, -51.5353, 45.4289
3.812, 2, 35.9423, 48.0625, -13.6072, 96.3403, -51.5353, 45.4289
3.816, 2, 35.9423, 48.0625, -13.6072, 96.3403, -51.5353, 45.4289
3.82, 2, 35.9423, 48.0625, -13.6072, 96.3403, -51.5353, 45.4289
3.824, 2, 35.9423, 48.0625, -13.6072, 96.3403, -51.5353, 45.4289
3.828, 2, 35.9423, 48.0625, -13.6072, 96.3403, -51.5353, 45.4289
3.832, 2, 35.9423, 48.0625, -13.6072, 96.3403, -51.5353, 45.4289
3.836, 2, 35.9423, 48.0625, -13.6072, 96.3403, -51.5353, 45.4289
3.84, 2, 35.9423, 48.0625, -13.6072, 96.3403, -51.5353, 45.4289
3.844, 2, 35.9423, 48.0625, -13.6072, 96.3403, -51.5353, 45.4289
3.848, 2, 35.9423, 48.0625, -13.6072, 96.3403, -51.5353, 45.4289
3.852, 2, 35.9423, 48.0625, -13.6072, 96.3403, -51.5353, 45.4289
3.856, 2, 35.9423, 48.0625, -13.6072, 96.3403, -51.5353, 45.4289
3.86, 2, 35.9423, 48.0625, -13.6072, 96.3403, -51.5353, 45.4289
3.864, 2, 35.9423, 48.0625, -13.6072, 96.3403, -51.5353, 45.4289
3.868, 2, 35.9423, 48.0625, -13.6072, 96.3403, -51.5353, 45.4289
3.872, 2, 35.9423, 48.0625, -13.6072, 96.3403, -51.5353, 45.4289
3.876, 2, 35.9423, 48.0625, -13.6072, 96.3403, -51.5353, 45.4289
3.88, 2, 35.9423, 48.0625, -13.6072, 96.3403, -51.5353, 45.4289
3.884, 2, 35.9423, 48.0625, -13.6072, 96.3403, -51.5353, 45.4289
3.888, 2, 35.9423, 48.0625, -13.6072, 96.3403, -51.5353, 45.4289
3.892, 2, 35.9423, 48.0625, -13.6072, 96.3403, -51.5353, 45.4289
3.896, 2, 35.9423, 48.0625, -13.6072, 96.3403, -51.5353, 45.4289
3.9, 2, 35.9423, 48.0625, -13.6072, 96.3403, -51.5353, 45.4289
3.904, 2, 35.9423, 48.0625, -13.6072, 96.3403, -51.5353, 45.4289
3.908, 2, 35.9423, 48.0625, -13.6072, 96.3403, -51.5353, 45.4289
3.912, 2, 35.9423, 48.0625, -13.6072, 96.3403, -51.5353, 45.4289
3.916, 2, 35.9423, 48.0625, -13.6072, 96.3403, -51.5353, 45.4289
3.92, 2, 35.9423, 48.0625, -13.6072, 96.3403, -51.5353, 45.4289
3.924, 2, 35.9423, 48.0625, -13.6072, 96.3403, -51.5353, 45.4289
3.928, 2, 35.9423, 48.0625, -13.6072, 96.3403, -51.5353, 45.4289
3.932, 2, 35.9423, 48.0625, -13.6072, 96.3403, -51.5353, 45.4289
3.936, 2, 35.9423, 48.0625, -13.6072, 96.3403, -51.5353, 45.4289
3.94, 2, 35.9423, 48.0625, -13.6072, 96.3403, -51.5353, 45.4289
3.944, 2, 35.9423, 48.0625, -13.6072, 96.3403, -51.5353, 45.4289
3.948, 2, 35.9423, 48.0625, -13.6072, 96.3403, -51.5353, 45.4289
3.952, 2, 35.9423, 48.0625, -13.6072, 96.3403, -51.5353, 45.4289
3.956, 2, 35.9423, 48.0625, -13.6072, 96.3403, -51.5353, 45.4289
3.96, 2, 35.9423, 48.0625, -13.6072, 96.3403, -51.5353, 45.4289
3.964, 2, 35.9423, 48.0625, -13.6072, 96.3403, -51.5353, 45.4289
3.968, 2, 35.9423, 48.0625, -13.6072, 96.3403, -51.5353, 45.4289
3.972, 2, 35.9423, 48.0625, -13.6072, 96.3403, -51.5353, 45.4289
3.976, 2, 35.9423, 48.0625, -13.6072, 96.3403, -51.5353, 45.4289
3.98, 2, 35.9423, 48.0625, -13.6072, 96.3403, -51.5353, 45.4289
3.984, 2, 35.9423, 48.0625, -13.6072, 96.3403, -51.5353, 45.4289
3.988, 2, 35.9423, 48.0625, -13.6072, 96.3403, -51.5353, 45.4289
3.992, 2, 35.9423, 48.0625, -13.6072, 96.3403, -51.5353, 45.4289
3.996, 2, 35.9423, 48.0625, -13.6072, 96.3403, -51.5353, 45.4289
3.999, 2, 35.9423, 48.0625, -13.6072, 96.3403, -51.5353, 45.4289
4.004, 2, 35.9423, 48.0625, -13.6072, 96.3403, -51.5353, 45.4289
4.008, 2, 35.9423, 48.0625, -13.6072, 96.3403, -51.5353, 45.4289
4.012, 2, 35.9423, 48.0625, -13.6072, 96.3403, -51.5353, 45.4289
4.016, 2, 35.9423, 48.0625, -13.6072, 96.3403, -51.5353, 45.4289
4.02, 2, 35.9423, 48.0625, -13.6072, 96.3403, -51.5353, 45.4289
4.024, 2, 35.9423, 48.0625, -13.6072, 96.3403, -51.5353, 45.4289
4.028, 2, 35.9423, 48.0625, -13.6072, 96.3403, -51.5353, 45.4289
4.032, 2, 35.9423, 48.0625, -13.6072, 96.3403, -51.5353, 45.4289
4.036, 2, 35.9423, 48.0625, -13.6072, 96.3403, -51.5353, 45.4289
4.04, 2, 35.9423, 48.0625, -13.6072, 96.3403, -51.5353, 45.4289
4.044, 2, 35.9423, 48.0625, -13.6072, 96.3403, -51.5353, 45.4289
4.048, 2, 35.9423, 48.0625, -13.6072, 96.3403, -51.5353, 45.4289
4.052, 2, 35.9423, 48.0625, -13.6072, 96.3403, -51.5353, 45.4289
4.056, 2, 35.9423, 48.0625, -13.6072, 96.3403, -51.5353, 45.4289
4.06, 2, 35.9423, 48.0625, -13.6072, 96.3403, -51.5353, 45.4289
4.064, 2, 35.9423, 48.0625, -13.6072, 96.3403, -51.5353, 45.4289
4.068, 2, 35.9423, 48.0625, -13.6072, 96.3403, -51.5353, 45.4289
4.072, 2, 35.9423, 48.0625, -13.6072, 96.3403, -51.5353, 45.4289
4.076, 2, 35.9423, 48.0625, -13.6072, 96.3403, -51.5353, 45.4289
4.08, 2, 35.9423, 48.0625, -13.6072, 96.3403, -51.5353, 45.4289
4.084, 2, 35.9423, 48.0625, -13.6072, 96.3403, -51.5353, 45.4289
4.088, 2, 35.9423, 48.0625, -13.6072, 96.3403, -51.5353, 45.4289
4.092, 2, 35.9423, 48.0625, -13.6072, 96.3403, -51.5353, 45.4289
4.096, 2, 35.9423, 48.0625, -13.6072, 96.3403, -51.5353, 45.4289
4.1, 2, 35.9423, 48.0625, -13.6072, 96.3403, -51.5353, 45.4289
4.104, 2, 35.9423, 48.0625, -13.6072, 96.3403, -51.5353, 45.4289
4.108, 2, 35.9423, 48.0625, -13.6072, 96.3403, -51.5353, 45.4289
4.112, 2, 35.9423, 48.0625, -13.6072, 96.3403, -51.5353, 45.4289
4.116, 2, 35.9423, 48.0625, -13.6072, 96.3403, -51.5353, 45.4289
4.12, 2, 35.9423, 48.0625, -13.6072, 96.3403, -51.5353, 45.4289
4.124, 2, 35.9423, 48.0625, -13.6072, 96.3403, -51.5353, 45.4289
4.128, 2, 35.9423, 48.0625, -13.6072, 96.3403, -51.5353, 45.4289
4.132, 2, 35.9423, 48.0625, -13.6072, 96.3403, -51.5353, 45.4289
4.136, 2, 35.9423, 48.0625, -13.6072, 96.3403, -51.5353, 45.4289
4.14, 2, 35.9423, 48.0625, -13.6072, 96.3403, -51.5353, 45.4289
4.144, 2, 35.9423, 48.0625, -13.6072, 96.3403, -51.5353, 45.4289
4.148, 2, 35.9423, 48.0625, -13.6072, 96.3403, -51.5353, 45.4289
4.152, 2, 35.9423, 48.0625, -13.6072, 96.3403, -51.5353, 45.4289
4.156, 2, 35.9423, 48.0625, -13.6072, 96.3403, -51.5353, 45.4289
4.16, 2, 35.9423, 48.0625, -13.6072, 96.3403, -51.5353, 45.4289
4.164, 2, 35.9423, 48.0625, -13.6072, 96.3403, -51.5353, 45.4289
4.168, 2, 35.9423, 48.0625, -13.6072, 96.3403, -51.5353, 45.4289
4.172, 2, 35.9423, 48.0625, -13.6072, 96.3403, -51.5353, 45.4289
4.176, 2, 35.9423, 48.0625, -13.6072, 96.3403, -51.5353, 45.4289
4.18, 2, 35.9423, 48.0625, -13.6072, 96.3403, -51.5353, 45.4289
4.184, 2, 35.9423, 48.0625, -13.6072, 96.3403, -51.5353, 45.4289
4.188, 2, 35.9423, 48.0625, -13.6072, 96.3403, -51.5353, 45.4289
4.192, 2, 35.9423, 48.0625, -13.6072, 96.3403, -51.5353, 45.4289
4.196, 2, 35.9423, 48.0625, -13.6072, 96.3403, -51.5353, 45.4289
4.2, 2, 35.9423, 48.0625, -13.6072, 96.3403, -51.5353, 45.4289
4.204, 2, 35.9423, 48.0625, -13.6072, 96.3403, -51.5353, 45.4289
4.208, 2, 35.9423, 48.0625, -13.6072, 96.3403, -51.5353, 45.4289
4.212, 2, 35.9423, 48.0625, -13.6072, 96.3403, -51.5353, 45.4289
4.216, 2, 35.9423, 48.0625, -13.6072, 96.3403, -51.5353, 45.4289
4.22, 2, 35.9423, 48.0625, -13.6072, 96.3403, -51.5353, 45.4289
4.224, 2, 35.9423, 48.0625, -13.6072, 96.3403, -51.5353, 45.4289
4.228, 2, 35.9423, 48.0625, -13.6072, 96.3403, -51.5353, 45.4289
4.232, 2, 35.9423, 48.0625, -13.6072, 96.3403, -51.5353, 45.4289
4.236, 2, 35.9423, 48.0625, -13.6072, 96.3403, -51.5353, 45.4289
4.24, 2, 35.9423, 48.0625, -13.6072, 96.3403, -51.5353, 45.4289
4.244, 2, 35.9423, 48.0625, -13.6072, 96.3403, -51.5353, 45.4289
4.248, 2, 35.9423, 48.0625, -13.6072, 96.3403, -51.5353, 45.4289
4.252, 2, 35.9423, 48.0625, -13.6072, 96.3403, -51.5353, 45.4289
4.256, 2, 35.9423, 48.0625, -13.6072, 96.3403, -51.5353, 45.4289
4.26, 2, 35.9423, 48.0625, -13.6072, 96.3403, -51.5353, 45.4289
4.264, 2, 35.9423, 48.0625, -13.6072, 96.3403, -51.5353, 45.4289
4.268, 2, 35.9423, 48.0625, -13.6072, 96.3403, -51.5353, 45.4289
4.272, 2, 35.9423, 48.0625, -13.6072, 96.3403, -51.5353, 45.4289
4.276, 2, 35.9423, 48.0625, -13.6072, 96.3403, -51.5353, 45.4289
4.28, 2, 35.9423, 48.0625, -13.6072, 96.3403, -51.5353, 45.4289
4.284, 2, 35.9423, 48.0625, -13.6072, 96.3403, -51.5353, 45.4289
4.288, 2, 35.9423, 48.0625, -13.6072, 96.3403, -51.5353, 45.4289
4.292, 2, 35.9423, 48.0625, -13.6072, 96.3403, -51.5353, 45.4289
4.296, 2, 35.9423, 48.0625, -13.6072, 96.3403, -51.5353, 45.4289
4.3, 2, 35.9423, 48.0625, -13.6072, 96.3403, -51.5353, 45.4289
4.304, 2, 35.9423, 48.0625, -13.6072, 96.3403, -51.5353, 45.4289
4.308, 2, 35.9423, 48.0625, -13.6072, 96.3403, -51.5353, 45.4289
4.312, 2, 35.9423, 48.0625, -13.6072, 96.3403, -51.5353, 45.4289
4.316, 2, 35.9423, 48.0625, -13.6072, 96.3403, -51.5353, 45.4289
4.32, 2, 35.9423, 48.0625, -13.6072, 96.3403, -51.5353, 45.4289
4.324, 2, 35.9423, 48.0625, -13.6072, 96.3403, -51.5353, 45.4289
4.328, 2, 35.9423, 48.0625, -13.6072, 96.3403, -51.5353, 45.4289
4.332, 2, 35.9423, 48.0625, -13.6072, 96.3403, -51.5353, 45.4289
4.336, 2, 35.9423, 48.0625, -13.6072, 96.3403, -51.5353, 45.4289
4.34, 2, 35.9423, 48.0625, -13.6072, 96.3403, -51.5353, 45.4289
4.344, 2, 35.9423, 48.0625, -13.6072, 96.3403, -51.5353, 45.4289
4.348, 2, 35.9423, 48.0625, -13.6072, 96.3403, -51.5353, 45.4289
4.352, 2, 35.9423, 48.0625, -13.6072, 96.3403, -51.5353, 45.4289
4.356, 2, 35.9423, 48.0625, -13.6072, 96.3403, -51.5353, 45.4289
4.36, 2, 35.9423, 48.0625, -13.6072, 96.3403, -51.5353, 45.4289
4.364, 2, 35.9423, 48.0625, -13.6072, 96.3403, -51.5353, 45.4289
4.368, 2, 35.9423, 48.0625, -13.6072, 96.3403, -51.5353, 45.4289
4.372, 2, 35.9423, 48.0625, -13.6072, 96.3403, -51.5353, 45.4289
4.376, 2, 35.9423, 48.0625, -13.6072, 96.3403, -51.5353, 45.4289
4.38, 2, 35.9423, 48.0625, -13.6072, 96.3403, -51.5353, 45.4289
4.384, 2, 35.9423, 48.0625, -13.6072, 96.3403, -51.5353, 45.4289
4.388, 2, 35.9423, 48.0625, -13.6072, 96.3403, -51.5353, 45.4289
4.392, 2, 35.9423, 48.0625, -13.6072, 96.3403, -51.5353, 45.4289
4.396, 2, 35.9423, 48.0625, -13.6072, 96.3403, -51.5353, 45.4289
4.4, 2, 35.9423, 48.0625, -13.6072, 96.3403, -51.5353, 45.4289
4.404, 2, 35.9423, 48.0625, -13.6072, 96.3403, -51.5353, 45.4289
4.408, 2, 35.9423, 48.0625, -13.6072, 96.3403, -51.5353, 45.4289
4.412, 2, 35.9423, 48.0625, -13.6072, 96.3403, -51.5353, 45.4289
4.416, 2, 35.9423, 48.0625, -13.6072, 96.3403, -51.5353, 45.4289
4.42, 2, 35.9423, 48.0625, -13.6072, 96.3403, -51.5353, 45.4289
4.424, 2, 35.9423, 48.0625, -13.6072, 96.3403, -51.5353, 45.4289
4.428, 2, 35.9423, 48.0625, -13.6072, 96.3403, -51.5353, 45.4289
4.432, 2, 35.9423, 48.0625, -13.6072, 96.3403, -51.5353, 45.4289
4.436, 2, 35.9423, 48.0625, -13.6072, 96.3403, -51.5353, 45.4289
4.44, 2, 35.9423, 48.0625, -13.6072, 96.3403, -51.5353, 45.4289
4.444, 2, 35.9423, 48.0625, -13.6072, 96.3403, -51.5353, 45.4289
4.448, 3, 35.9423, 48.0625, -13.6072, 96.3403, -51.5353, 45.4289
4.452, 3, 35.9423, 48.0625, -13.6072, 96.3403, -51.5353, 45.4289
4.456, 3, 35.9423, 48.0625, -13.6072, 96.3403, -51.5353, 45.4289
4.46, 3, 35.9423, 48.0625, -13.6072, 96.3403, -51.5353, 45.4289
4.464, 3, 35.9423, 48.0625, -13.6072, 96.3403, -51.5353, 45.4289
4.468, 3, 35.9423, 48.0625, -13.6072, 96.3403, -51.5353, 45.4289
4.472, 3, 35.9423, 48.0625, -13.6072, 96.3403, -51.5353, 45.4289
4.476, 3, 35.9423, 48.0625, -13.6072, 96.3403, -51.5353, 45.4289
4.48, 3, 35.9423, 48.0625, -13.6072, 96.3403, -51.5353, 45.4289
4.484, 4, 35.9423, 48.0625, -13.6072, 96.3403, -51.5353, 45.4289
4.488, 4, 35.9423, 48.0625, -13.6072, 96.3403, -51.5353, 45.4289
4.492, 4, 35.9423, 48.0625, -13.6072, 96.3403, -51.5353, 45.4289
4.496, 4, 35.9423, 48.0625, -13.6072, 96.3403, -51.5353, 45.4289
4.5, 4, 35.9423, 48.0625, -13.6072, 96.3403, -51.5353, 45.4289
4.504, 4, 35.9423, 48.0625, -13.6072, 96.3403, -51.5353, 45.4289
4.508, 4, 35.9423, 48.0625, -13.6072, 96.3403, -51.5353, 45.4289
4.512, 4, 35.9423, 48.0625, -13.6072, 96.3403, -51.5353, 45.4289
4.516, 4, 35.9423, 48.0625, -13.6072, 96.3403, -51.5353, 45.4289
4.52, 4, 35.9423, 48.0625, -13.6072, 96.3403, -51.5353, 45.4289
4.524, 4, 35.9423, 48.0625, -13.6072, 96.3403, -51.5353, 45.4289
4.528, 4, 35.9423, 48.0625, -13.6072, 96.3403, -51.5353, 45.4289
4.532, 4, 35.9423, 48.0625, -13.6072, 96.3403, -51.5353, 45.4289
4.536, 4, 35.9423, 48.0625, -13.6072, 96.3403, -51.5353, 45.4289
4.54, 4, 35.9423, 48.0625, -13.6072, 96.3403, -51.5353, 45.4289
4.544, 4, 35.9423, 48.0625, -13.6072, 96.3403, -51.5353, 45.4289
4.548, 4, 35.9423, 48.0625, -13.6072, 96.3403, -51.5353, 45.4289
4.552, 4, 35.9423, 48.0625, -13.6072, 96.3403, -51.5353, 45.4289
4.556, 4, 35.9423, 48.0625, -13.6072, 96.3403, -51.5353, 45.4289
4.56, 4, 35.9423, 48.0625, -13.6072, 96.3403, -51.5353, 45.4289
4.564, 4, 35.9423, 48.0625, -13.6072, 96.3403, -51.5353, 45.4289
4.568, 4, 35.9423, 48.0625, -13.6072, 96.3403, -51.5353, 45.4289
4.572, 4, 35.9423, 48.0625, -13.6072, 96.3403, -51.5353, 45.4289
4.576, 4, 35.9423, 48.0625, -13.6072, 96.3403, -51.5353, 45.4289
4.58, 4, 35.9423, 48.0625, -13.6072, 96.3403, -51.5353, 45.4289
4.584, 6, 35.9423, 48.0625, -13.6072, 96.3403, -51.5353, 45.4289
4.588, 6, 35.9423, 48.0625, -13.6072, 96.3403, -51.5353, 45.4289
4.592, 7, 35.9423, 48.0625, -13.6072, 96.3403, -51.5353, 45.4289
4.596, 7, 35.9423, 48.0625, -13.6072, 96.3403, -51.5353, 45.4289
4.6, 8, 35.9423, 48.0625, -13.6072, 96.3403, -51.5353, 45.4289
4.604, 9, 35.9423, 48.0625, -13.6072, 96.3403, -51.5353, 45.4289
4.608, 9, 35.9423, 48.0625, -13.6072, 96.3403, -51.5353, 45.4289
4.612, 10, 35.9423, 48.0625, -13.6072, 96.3403, -51.5353, 45.4289
4.616, 10, 35.9423, 48.0625, -13.6072, 96.3403, -51.5353, 45.4289
4.62, 11, 35.9423, 48.0625, -13.6072, 96.3403, -51.5353, 45.4289
4.624, 12, 35.9423, 48.0625, -13.6072, 96.3403, -51.5353, 45.4289
4.628, 12, 35.9423, 48.0625, -13.6072, 96.3403, -51.5353, 45.4289
4.632, 13, 35.9423, 48.0625, -13.6072, 96.3403, -51.5353, 45.4289
4.636, 13, 35.9423, 48.0625, -13.6072, 96.3403, -51.5353, 45.4289
4.64, 14, 35.9423, 48.0625, -13.6072, 96.3403, -51.5353, 45.4289
4.644, 15, 35.9423, 48.0625, -13.6072, 96.3403, -51.5353, 45.4289
4.648, 15, 35.9422, 48.0627, -13.6072, 96.3403, -51.5353, 45.4289
4.652, 15, 35.942, 48.0631, -13.6072, 96.3403, -51.5354, 45.4288
4.656, 15, 35.9415, 48.0638, -13.6073, 96.3403, -51.5355, 45.4287
4.66, 15, 35.9407, 48.0651, -13.6074, 96.3404, -51.5359, 45.4284
4.664, 15, 35.9397, 48.067, -13.6076, 96.3406, -51.5367, 45.4277
4.668, 15, 35.9383, 48.0696, -13.608, 96.3409, -51.5381, 45.4263
4.672, 15, 35.9366, 48.073, -13.6085, 96.3414, -51.5406, 45.4241
4.676, 15, 35.9347, 48.0772, -13.6093, 96.3422, -51.5446, 45.4204
4.68, 15, 35.9326, 48.0822, -13.6103, 96.3434, -51.5505, 45.415
4.684, 15, 35.9304, 48.088, -13.6117, 96.3452, -51.559, 45.4072
4.688, 15, 35.9282, 48.0947, -13.6135, 96.3475, -51.5705, 45.3966
4.692, 16, 35.9258, 48.1024, -13.6158, 96.3506, -51.5858, 45.3827
4.696, 16, 35.9233, 48.1111, -13.6186, 96.3546, -51.6051, 45.3649
4.7, 16, 35.9208, 48.1208, -13.622, 96.3595, -51.6292, 45.3428
4.704, 16, 35.9182, 48.1314, -13.6261, 96.3654, -51.6584, 45.3161
4.708, 16, 35.9157, 48.1429, -13.6309, 96.3724, -51.6929, 45.2844
4.712, 16, 35.9133, 48.1552, -13.6363, 96.3805, -51.733, 45.2476
4.716, 17, 35.9109, 48.1683, -13.6424, 96.3898, -51.7787, 45.2057
4.72, 17, 35.9086, 48.1824, -13.6492, 96.4001, -51.8298, 45.1589
4.724, 17, 35.9062, 48.1973, -13.6566, 96.4115, -51.886, 45.1072
4.728, 17, 35.9038, 48.2133, -13.6646, 96.4238, -51.947, 45.0513
4.732, 17, 35.9012, 48.2304, -13.6733, 96.437, -52.0123, 44.9914
4.736, 17, 35.8986, 48.2486, -13.6824, 96.451, -52.0813, 44.928
4.74, 17, 35.8958, 48.2677, -13.6919, 96.4656, -52.1536, 44.8616
4.744, 17, 35.8929, 48.2877, -13.7019, 96.4808, -52.2287, 44.7928
4.748, 17, 35.8898, 48.3087, -13.7121, 96.4965, -52.306, 44.7219
4.752, 17, 35.8865, 48.3304, -13.7226, 96.5124, -52.3851, 44.6494
4.756, 17, 35.883, 48.3529, -13.7333, 96.5286, -52.4655, 44.5756
4.76, 17, 35.8791, 48.3761, -13.7441, 96.545, -52.547, 44.501
4.764, 18, 35.875, 48.3999, -13.7551, 96.5614, -52.6292, 44.4257
4.768, 18, 35.8707, 48.4242, -13.7661, 96.5778, -52.7121, 44.35
4.772, 18, 35.8662, 48.4489, -13.7772, 96.5942, -52.7953, 44.2742
4.776, 18, 35.8616, 48.474, -13.7882, 96.6103, -52.8789, 44.1982
4.78, 18, 35.8571, 48.4994, -13.7993, 96.6263, -52.9628, 44.1222
4.784, 18, 35.8527, 48.5249, -13.8104, 96.642, -53.047, 44.0462
4.788, 18, 35.8484, 48.5508, -13.8215, 96.6574, -53.1315, 43.9703
4.792, 18, 35.8443, 48.5768, -13.8328, 96.6727, -53.2164, 43.8944
4.796, 18, 35.8404, 48.6032, -13.8442, 96.6878, -53.3017, 43.8186
4.8, 18, 35.8366, 48.6298, -13.8559, 96.7029, -53.3876, 43.7427
4.804, 18, 35.8329, 48.6567, -13.868, 96.7181, -53.4742, 43.6668
4.808, 18, 35.8292, 48.6839, -13.8806, 96.7335, -53.5615, 43.5905
4.812, 19, 35.8255, 48.7114, -13.8939, 96.7493, -53.6498, 43.514
4.816, 19, 35.8218, 48.7392, -13.9079, 96.7657, -53.7391, 43.437
4.82, 19, 35.8181, 48.7674, -13.9227, 96.7829, -53.8296, 43.3594
4.824, 19, 35.8143, 48.796, -13.9386, 96.8008, -53.9212, 43.2812
4.828, 19, 35.8105, 48.8249, -13.9554, 96.8197, -54.0142, 43.2022
4.832, 19, 35.8065, 48.8542, -13.9732, 96.8397, -54.1083, 43.1226
4.836, 19, 35.8024, 48.8837, -13.992, 96.8606, -54.2037, 43.0421
4.84, 19, 35.7981, 48.9136, -14.0118, 96.8824, -54.3002, 42.961
4.844, 19, 35.7936, 48.9437, -14.0324, 96.9052, -54.3976, 42.8792
4.848, 19, 35.789, 48.974, -14.0537, 96.9286, -54.4959, 42.7968
4.852, 19, 35.7842, 49.0045, -14.0755, 96.9525, -54.5949, 42.7141
4.856, 19, 35.7794, 49.0352, -14.0977, 96.9767, -54.6943, 42.631
4.86, 19, 35.7746, 49.0659, -14.12, 97.0011, -54.794, 42.5479
4.864, 19, 35.77, 49.0967, -14.1424, 97.0253, -54.8938, 42.4647
4.868, 19, 35.7656, 49.1275, -14.1647, 97.0493, -54.9934, 42.3817
4.872, 19, 35.7614, 49.1584, -14.1867, 97.0729, -55.0928, 42.2989
4.876, 19, 35.7575, 49.1892, -14.2083, 97.0958, -55.1919, 42.2165
4.88, 19, 35.7537, 49.22, -14.2294, 97.1181, -55.2904, 42.1346
4.884, 20, 35.7501, 49.2508, -14.25, 97.1396, -55.3885, 42.0531
4.888, 20, 35.7465, 49.2814, -14.27, 97.1605, -55.486, 41.972
4.892, 20, 35.743, 49.3118, -14.2895, 97.1805, -55.583, 41.8915
4.896, 20, 35.7395, 49.3421, -14.3084, 97.1999, -55.6795, 41.8114
4.9, 20, 35.7361, 49.3721, -14.3269, 97.2187, -55.7755, 41.7317
4.904, 20, 35.7326, 49.4019, -14.3449, 97.2368, -55.871, 41.6524
4.908, 20, 35.7291, 49.4315, -14.3624, 97.2545, -55.9662, 41.5734
4.912, 20, 35.7256, 49.461, -14.3796, 97.2717, -56.0611, 41.4947
4.916, 20, 35.722, 49.4902, -14.3964, 97.2884, -56.1557, 41.4164
4.92, 20, 35.7184, 49.5193, -14.4128, 97.3046, -56.2501, 41.3385
4.924, 20, 35.7147, 49.5483, -14.4289, 97.3202, -56.3444, 41.2612
4.928, 20, 35.7111, 49.5772, -14.4445, 97.3351, -56.4384, 41.1846
4.932, 21, 35.7074, 49.6059, -14.4598, 97.3491, -56.5324, 41.1091
4.936, 21, 35.7037, 49.6346, -14.4747, 97.3622, -56.6262, 41.0347
4.94, 21, 35.7, 49.6633, -14.4892, 97.3741, -56.7201, 40.9617
4.944, 21, 35.6963, 49.6919, -14.5034, 97.3848, -56.8139, 40.8901
4.948, 21, 35.6925, 49.7204, -14.5172, 97.3944, -56.9079, 40.8198
4.952, 21, 35.6887, 49.7489, -14.5308, 97.403, -57.0022, 40.7508
4.956, 22, 35.6848, 49.7773, -14.5441, 97.4107, -57.0967, 40.6829
4.96, 22, 35.6809, 49.8058, -14.5572, 97.4174, -57.1915, 40.616
4.964, 22, 35.6769, 49.8343, -14.5703, 97.4234, -57.2867, 40.5501
4.968, 22, 35.6729, 49.8627, -14.5834, 97.4288, -57.3824, 40.4848
4.972, 22, 35.669, 49.8911, -14.5966, 97.4338, -57.4785, 40.42
4.976, 22, 35.6652, 49.919, -14.6099, 97.4386, -57.575, 40.3554
4.98, 23, 35.6615, 49.9464, -14.6234, 97.4434, -57.6719, 40.2908
4.984, 23, 35.6581, 49.9729, -14.637, 97.4484, -57.7689, 40.2262
4.988, 23, 35.6549, 49.9986, -14.6507, 97.4536, -57.8658, 40.1615
4.992, 23, 35.652, 50.0234, -14.6644, 97.4591, -57.962, 40.097
4.996, 23, 35.6492, 50.0476, -14.6779, 97.4647, -58.0571, 40.0332
5, 23, 35.6466, 50.0713, -14.6912, 97.4703, -58.1504, 39.9705
5.004, 24, 35.6439, 50.0949, -14.7042, 97.4755, -58.2412, 39.9097
5.008, 24, 35.6411, 50.1184, -14.7165, 97.48, -58.3291, 39.8512
5.012, 24, 35.638, 50.142, -14.7282, 97.4837, -58.4136, 39.7956
5.016, 24, 35.6346, 50.1657, -14.7391, 97.4864, -58.4945, 39.7433
5.02, 24, 35.6308, 50.1896, -14.7492, 97.4879, -58.5716, 39.6942
5.024, 24, 35.6265, 50.2139, -14.7583, 97.4882, -58.6452, 39.6485
5.028, 24, 35.6218, 50.2386, -14.7666, 97.4875, -58.7155, 39.6058
5.032, 24, 35.6167, 50.2635, -14.774, 97.4857, -58.7832, 39.5657
5.036, 24, 35.6115, 50.2884, -14.7807, 97.4829, -58.8489, 39.5277
5.04, 24, 35.6062, 50.3132, -14.7868, 97.4793, -58.9136, 39.4912
5.044, 24, 35.601, 50.3376, -14.7924, 97.4749, -58.9781, 39.4556
5.048, 24, 35.5961, 50.3614, -14.7978, 97.4699, -59.0433, 39.4201
5.052, 24, 35.5915, 50.3848, -14.803, 97.4646, -59.1102, 39.384
5.056, 24, 35.5872, 50.4076, -14.8082, 97.4591, -59.1793, 39.3468
5.06, 24, 35.5831, 50.4299, -14.8135, 97.4536, -59.2512, 39.3078
5.064, 24, 35.5793, 50.452, -14.8189, 97.4483, -59.3263, 39.2668
5.068, 24, 35.5757, 50.4738, -14.8246, 97.4433, -59.4046, 39.2236
5.072, 24, 35.5723, 50.4956, -14.8306, 97.4384, -59.4862, 39.1782
5.076, 25, 35.5688, 50.5173, -14.8368, 97.4338, -59.5707, 39.1308
5.08, 25, 35.5654, 50.5392, -14.8432, 97.4293, -59.6578, 39.0815
5.084, 25, 35.5618, 50.5616, -14.8499, 97.4248, -59.7469, 39.0307
5.088, 25, 35.558, 50.5845, -14.8567, 97.4204, -59.8376, 38.9785
5.092, 25, 35.5541, 50.6081, -14.8636, 97.4161, -59.9295, 38.9253
5.096, 25, 35.55, 50.6324, -14.8705, 97.4118, -60.0222, 38.8711
5.1, 25, 35.5458, 50.6574, -14.8775, 97.4076, -60.1154, 38.8162
5.104, 25, 35.5415, 50.6829, -14.8845, 97.4036, -60.2089, 38.7605
5.108, 25, 35.5374, 50.7089, -14.8917, 97.3998, -60.3026, 38.7041
5.112, 25, 35.5332, 50.7352, -14.899, 97.3963, -60.3966, 38.6471
5.116, 25, 35.5292, 50.7618, -14.9066, 97.3932, -60.4907, 38.5893
5.12, 25, 35.5252, 50.7886, -14.9145, 97.3905, -60.5852, 38.5309
5.124, 26, 35.5212, 50.8156, -14.9228, 97.3885, -60.68, 38.4717
5.128, 26, 35.5171, 50.8429, -14.9316, 97.3871, -60.7752, 38.4117
5.132, 26, 35.5129, 50.8703, -14.941, 97.3864, -60.8709, 38.351
5.136, 26, 35.5085, 50.8978, -14.9511, 97.3865, -60.9673, 38.2896
5.14, 26, 35.5041, 50.9255, -14.9618, 97.3874, -61.0642, 38.2275
5.144, 26, 35.4995, 50.953, -14.9732, 97.389, -61.1618, 38.1647
5.148, 27, 35.495, 50.9803, -14.9853, 97.3914, -61.26, 38.1014
5.152, 27, 35.4906, 51.0069, -14.998, 97.3945, -61.3586, 38.0376
5.156, 27, 35.4865, 51.0326, -15.0112, 97.3982, -61.4574, 37.9736
5.16, 27, 35.4827, 51.0573, -15.0248, 97.4025, -61.556, 37.9097
5.164, 27, 35.4792, 51.0809, -15.0386, 97.4071, -61.6538, 37.8463
5.168, 27, 35.4761, 51.1035, -15.0524, 97.412, -61.75, 37.7838
5.172, 27, 35.4732, 51.1251, -15.0661, 97.4171, -61.8439, 37.7228
5.176, 27, 35.4703, 51.1459, -15.0796, 97.4223, -61.9346, 37.6639
5.18, 27, 35.4673, 51.166, -15.0926, 97.4273, -62.0212, 37.6076
5.184, 27, 35.4642, 51.1855, -15.1048, 97.4321, -62.1029, 37.5546
5.188, 27, 35.4609, 51.2046, -15.1163, 97.4367, -62.1789, 37.5052
5.192, 27, 35.4575, 51.2234, -15.1267, 97.4408, -62.2487, 37.4599
5.196, 27, 35.4536, 51.2422, -15.136, 97.4444, -62.3122, 37.4188
5.2, 27, 35.4493, 51.2614, -15.1441, 97.4475, -62.3693, 37.3821
5.204, 27, 35.4444, 51.281, -15.151, 97.4498, -62.4205, 37.3495
5.208, 27, 35.4389, 51.3009, -15.1566, 97.4511, -62.4666, 37.3207
5.212, 27, 35.4328, 51.321, -15.1611, 97.4514, -62.5087, 37.2951
5.216, 27, 35.4263, 51.3409, -15.1645, 97.4505, -62.5481, 37.2721
5.22, 28, 35.4198, 51.3603, -15.1668, 97.4482, -62.5862, 37.2508
5.224, 28, 35.4137, 51.3789, -15.1681, 97.4444, -62.6247, 37.2305
5.228, 28, 35.4081, 51.3966, -15.1685, 97.4389, -62.6649, 37.2103
5.232, 28, 35.403, 51.4134, -15.1681, 97.4318, -62.7081, 37.1896
5.236, 28, 35.3985, 51.4295, -15.1671, 97.4229, -62.7554, 37.1676
5.24, 28, 35.3943, 51.4448, -15.1656, 97.4124, -62.8075, 37.144
5.244, 29, 35.3905, 51.4597, -15.1637, 97.4002, -62.8648, 37.1185
5.248, 29, 35.387, 51.4741, -15.1615, 97.3864, -62.9273, 37.0909
5.252, 29, 35.3837, 51.4883, -15.159, 97.3712, -62.995, 37.0613
5.256, 29, 35.3806, 51.5023, -15.1563, 97.3549, -63.0674, 37.0298
5.26, 29, 35.3776, 51.5165, -15.1534, 97.3374, -63.1436, 36.9967
5.264, 29, 35.3743, 51.5312, -15.1504, 97.3192, -63.223, 36.9623
5.268, 29, 35.3707, 51.5468, -15.1473, 97.3003, -63.3046, 36.9271
5.272, 29, 35.3668, 51.5634, -15.144, 97.2811, -63.3877, 36.8914
5.276, 29, 35.3624, 51.5814, -15.1405, 97.2615, -63.4715, 36.8556
5.28, 29, 35.3577, 51.6006, -15.1369, 97.2419, -63.5557, 36.8198
5.284, 29, 35.3528, 51.6208, -15.1333, 97.2223, -63.6399, 36.7844
5.288, 29, 35.3477, 51.642, -15.1296, 97.2028, -63.724, 36.7492
5.292, 30, 35.3424, 51.6636, -15.1259, 97.1834, -63.8081, 36.7143
5.296, 30, 35.3368, 51.6854, -15.1223, 97.1644, -63.8921, 36.6795
5.3, 30, 35.331, 51.7074, -15.1188, 97.1456, -63.9763, 36.6448
5.304, 30, 35.325, 51.7295, -15.1155, 97.1271, -64.0608, 36.6101
5.308, 30, 35.3191, 51.7518, -15.1125, 97.1089, -64.1459, 36.5752
5.312, 30, 35.3135, 51.7742, -15.1098, 97.091, -64.2317, 36.54
5.316, 30, 35.3081, 51.7968, -15.1075, 97.0734, -64.3185, 36.5044
5.32, 30, 35.3029, 51.8194, -15.1055, 97.0561, -64.4063, 36.4682
5.324, 30, 35.2977, 51.8419, -15.104, 97.039, -64.4953, 36.4313
5.328, 30, 35.2926, 51.8641, -15.1029, 97.0223, -64.5854, 36.3938
5.332, 30, 35.2874, 51.8861, -15.1022, 97.0057, -64.6765, 36.3556
5.336, 30, 35.2821, 51.9078, -15.1019, 96.9894, -64.7685, 36.3169
5.34, 31, 35.2766, 51.929, -15.1019, 96.9732, -64.861, 36.2778
5.344, 31, 35.271, 51.9499, -15.1022, 96.9573, -64.9537, 36.2384
5.348, 31, 35.2651, 51.9706, -15.1026, 96.9415, -65.0461, 36.199
5.352, 31, 35.259, 51.9913, -15.103, 96.9259, -65.1379, 36.1598
5.356, 31, 35.2525, 52.0119, -15.1033, 96.9105, -65.2287, 36.121
5.36, 31, 35.2458, 52.0327, -15.1034, 96.8952, -65.3182, 36.0828
5.364, 31, 35.2388, 52.0536, -15.1031, 96.88, -65.4062, 36.0452
5.368, 31, 35.2318, 52.0748, -15.1022, 96.8647, -65.4925, 36.0083
5.372, 31, 35.2248, 52.0961, -15.1007, 96.8493, -65.5771, 35.9723
5.376, 31, 35.2177, 52.1173, -15.0984, 96.8335, -65.66, 35.937
5.38, 31, 35.2105, 52.1384, -15.0953, 96.8174, -65.7414, 35.9026
5.384, 31, 35.2033, 52.1591, -15.0912, 96.8008, -65.8215, 35.8689
5.388, 32, 35.1961, 52.1795, -15.0862, 96.7836, -65.9004, 35.8358
5.392, 32, 35.189, 52.1994, -15.0801, 96.7658, -65.9785, 35.8032
5.396, 32, 35.1821, 52.2187, -15.073, 96.7472, -66.0561, 35.771
5.4, 32, 35.1755, 52.2371, -15.065, 96.7278, -66.1334, 35.7391
5.404, 32, 35.1694, 52.2546, -15.056, 96.7077, -66.2108, 35.7073
5.408, 32, 35.1639, 52.2711, -15.0463, 96.6869, -66.2882, 35.6756
5.412, 32, 35.1589, 52.2864, -15.036, 96.6654, -66.3658, 35.6441
5.416, 32, 35.1543, 52.3009, -15.0252, 96.6436, -66.4434, 35.6126
5.42, 32, 35.1499, 52.3148, -15.0141, 96.6215, -66.5208, 35.5814
5.424, 32, 35.1453, 52.3286, -15.0029, 96.5993, -66.5977, 35.5506
5.428, 32, 35.1404, 52.3425, -14.9919, 96.5774, -66.6737, 35.5203
5.432, 32, 35.135, 52.3568, -14.9811, 96.5559, -66.7486, 35.4908
5.436, 33, 35.129, 52.3716, -14.9707, 96.5347, -66.8224, 35.4622
5.44, 33, 35.1224, 52.3869, -14.9607, 96.5142, -66.8948, 35.4346
5.444, 33, 35.1152, 52.4025, -14.9513, 96.4941, -66.966, 35.4079
5.448, 33, 35.1075, 52.4185, -14.9423, 96.4746, -67.0361, 35.3821
5.452, 33, 35.0994, 52.4348, -14.9337, 96.4554, -67.1053, 35.3571
5.456, 33, 35.091, 52.4515, -14.9255, 96.4366, -67.174, 35.3327
5.46, 33, 35.0823, 52.4684, -14.9176, 96.418, -67.2425, 35.3087
5.464, 33, 35.0735, 52.4855, -14.9099, 96.3994, -67.3113, 35.285
5.468, 33, 35.0646, 52.5025, -14.9022, 96.3806, -67.3809, 35.2614
5.472, 33, 35.0561, 52.5193, -14.8945, 96.3616, -67.4516, 35.2375
5.476, 33, 35.048, 52.5359, -14.8867, 96.3422, -67.5238, 35.2132
5.48, 33, 35.0406, 52.5521, -14.8786, 96.3222, -67.5977, 35.1883
5.484, 35, 35.034, 52.5677, -14.8701, 96.3017, -67.6734, 35.1627
5.488, 35, 35.0283, 52.5828, -14.8614, 96.2806, -67.7507, 35.1364
5.492, 35, 35.0234, 52.5972, -14.8523, 96.259, -67.8294, 35.1095
5.496, 35, 35.0189, 52.6109, -14.8429, 96.237, -67.9092, 35.082
5.5, 35, 35.0147, 52.624, -14.8332, 96.2148, -67.9895, 35.0544
5.504, 35, 35.0103, 52.6366, -14.8233, 96.1924, -68.0696, 35.0268
5.508, 35, 35.0056, 52.6492, -14.8133, 96.17, -68.1491, 34.9995
5.512, 35, 35.0004, 52.6621, -14.8032, 96.1477, -68.2273, 34.973
5.516, 35, 34.9944, 52.6755, -14.7929, 96.1255, -68.3037, 34.9473
5.52, 35, 34.9879, 52.6896, -14.7826, 96.1034, -68.378, 34.9228
5.524, 35, 34.9806, 52.7044, -14.7721, 96.0816, -68.45, 34.8995
5.528, 35, 34.9726, 52.7198, -14.7614, 96.06, -68.5199, 34.8774
5.532, 36, 34.9642, 52.7354, -14.7504, 96.0384, -68.5877, 34.8565
5.536, 36, 34.9552, 52.7512, -14.7392, 96.017, -68.6539, 34.8366
5.54, 36, 34.9461, 52.7668, -14.7276, 95.9954, -68.7187, 34.8176
5.544, 36, 34.9368, 52.7822, -14.7156, 95.9737, -68.7828, 34.7994
5.548, 36, 34.9277, 52.7973, -14.7032, 95.9516, -68.8467, 34.7816
5.552, 36, 34.9189, 52.8121, -14.6903, 95.9291, -68.911, 34.7642
5.556, 36, 34.9104, 52.8265, -14.6769, 95.9061, -68.9762, 34.7467
5.56, 36, 34.9022, 52.8403, -14.663, 95.8826, -69.0427, 34.729
5.564, 36, 34.8943, 52.8537, -14.6486, 95.8584, -69.1109, 34.7109
5.568, 36, 34.8866, 52.8666, -14.6337, 95.8337, -69.1811, 34.6922
5.572, 36, 34.879, 52.879, -14.6183, 95.8083, -69.2533, 34.673
5.576, 36, 34.8715, 52.8909, -14.6024, 95.7823, -69.3275, 34.6532
5.58, 37, 34.864, 52.9025, -14.5859, 95.7556, -69.4033, 34.633
5.584, 37, 34.8562, 52.9139, -14.5688, 95.7282, -69.4806, 34.6125
5.588, 37, 34.8481, 52.925, -14.5509, 95.7001, -69.5588, 34.5921
5.592, 37, 34.8397, 52.936, -14.5322, 95.671, -69.6377, 34.572
5.596, 37, 34.831, 52.9468, -14.5125, 95.6409, -69.7167, 34.5525
5.6, 37, 34.8221, 52.9576, -14.4916, 95.6097, -69.7956, 34.5338
5.604, 37, 34.8129, 52.9682, -14.4696, 95.5773, -69.874, 34.5162
5.608, 37, 34.8035, 52.9786, -14.4462, 95.5436, -69.9517, 34.4997
5.612, 37, 34.794, 52.9887, -14.4214, 95.5087, -70.0285, 34.4845
5.616, 37, 34.7845, 52.9985, -14.3952, 95.4726, -70.1044, 34.4706
5.62, 37, 34.775, 53.0079, -14.3678, 95.4354, -70.1792, 34.4579
5.624, 37, 34.7655, 53.0169, -14.3391, 95.3972, -70.2531, 34.4462
5.628, 37, 34.7561, 53.0256, -14.3094, 95.3583, -70.3261, 34.4355
5.632, 37, 34.7468, 53.0339, -14.2789, 95.3188, -70.3982, 34.4254
5.636, 37, 34.7376, 53.0421, -14.2477, 95.2791, -70.4696, 34.4158
5.64, 37, 34.7283, 53.05, -14.216, 95.2392, -70.5405, 34.4064
5.644, 37, 34.719, 53.0577, -14.1842, 95.1995, -70.611, 34.397
5.648, 37, 34.7094, 53.0652, -14.1524, 95.1602, -70.6813, 34.3874
5.652, 38, 34.6996, 53.0725, -14.1207, 95.1214, -70.7516, 34.3773
5.656, 38, 34.6894, 53.0796, -14.0894, 95.0832, -70.822, 34.3666
5.66, 38, 34.679, 53.0866, -14.0583, 95.0457, -70.8925, 34.3553
5.664, 38, 34.6684, 53.0935, -14.0277, 95.0088, -70.9633, 34.3433
5.668, 38, 34.6575, 53.1002, -13.9974, 94.9724, -71.0343, 34.3308
5.672, 38, 34.6465, 53.1069, -13.9675, 94.9366, -71.1055, 34.3179
5.676, 39, 34.6353, 53.1135, -13.9379, 94.9011, -71.1768, 34.3046
5.68, 39, 34.6242, 53.12, -13.9085, 94.8659, -71.2482, 34.291
5.684, 39, 34.6131, 53.1265, -13.8792, 94.831, -71.3196, 34.2774
5.688, 39, 34.6022, 53.1332, -13.8501, 94.7962, -71.391, 34.2637
5.692, 39, 34.5916, 53.1401, -13.8209, 94.7617, -71.4623, 34.2501
5.696, 39, 34.5812, 53.1472, -13.7919, 94.7273, -71.5335, 34.2367
5.7, 39, 34.5709, 53.1545, -13.7628, 94.6932, -71.6046, 34.2234
5.704, 39, 34.5608, 53.162, -13.7339, 94.6593, -71.6757, 34.2104
5.708, 39, 34.5507, 53.1695, -13.7051, 94.6256, -71.747, 34.1976
5.712, 39, 34.5405, 53.1771, -13.6765, 94.5922, -71.8184, 34.1849
5.716, 39, 34.5303, 53.1846, -13.6482, 94.5591, -71.89, 34.1725
5.72, 39, 34.52, 53.1924, -13.6202, 94.5263, -71.962, 34.1603
5.724, 39, 34.5097, 53.2004, -13.5926, 94.4937, -72.0344, 34.1482
5.728, 39, 34.4995, 53.2086, -13.5653, 94.4614, -72.1072, 34.1363
5.732, 39, 34.4892, 53.217, -13.5384, 94.4293, -72.1806, 34.1244
5.736, 39, 34.4789, 53.2255, -13.5119, 94.3974, -72.2545, 34.1126
5.74, 39, 34.4687, 53.2339, -13.4859, 94.3657, -72.3291, 34.1008
5.744, 39, 34.4587, 53.2421, -13.4603, 94.3341, -72.4041, 34.089
5.748, 41, 34.4489, 53.25, -13.435, 94.3027, -72.4796, 34.0771
5.752, 41, 34.4396, 53.2575, -13.4102, 94.2715, -72.5552, 34.0652
5.756, 41, 34.4307, 53.2646, -13.3858, 94.2405, -72.6306, 34.0534
5.76, 41, 34.4222, 53.2711, -13.3619, 94.2099, -72.7055, 34.0416
5.764, 41, 34.414, 53.2769, -13.3383, 94.1797, -72.7794, 34.03
5.768, 41, 34.4059, 53.2821, -13.3151, 94.1502, -72.8518, 34.0188
5.772, 41, 34.3977, 53.2868, -13.2922, 94.1213, -72.9221, 34.008
5.776, 41, 34.3894, 53.2911, -13.2697, 94.0931, -72.9897, 33.9978
5.78, 41, 34.381, 53.2954, -13.2475, 94.0657, -73.0541, 33.9885
5.784, 41, 34.3724, 53.3, -13.2254, 94.0391, -73.1149, 33.9802
5.788, 41, 34.3636, 53.3052, -13.2035, 94.0133, -73.1719, 33.973
5.792, 41, 34.3542, 53.3109, -13.1816, 93.9881, -73.225, 33.9669
5.796, 41, 34.3441, 53.3171, -13.1595, 93.9636, -73.2745, 33.962
5.8, 41, 34.3334, 53.3234, -13.1373, 93.9396, -73.3205, 33.9581
5.804, 41, 34.322, 53.3296, -13.1146, 93.9158, -73.3638, 33.9552
5.808, 41, 34.3102, 53.3355, -13.0914, 93.892, -73.405, 33.9532
5.812, 41, 34.2985, 53.3409, -13.0674, 93.8679, -73.4448, 33.9519
5.816, 41, 34.287, 53.3458, -13.0425, 93.8432, -73.484, 33.9511
5.82, 41, 34.2759, 53.35, -13.0167, 93.8178, -73.5236, 33.9507
5.824, 41, 34.2654, 53.3535, -12.9897, 93.7913, -73.5641, 33.9504
5.828, 41, 34.2553, 53.3562, -12.9616, 93.7637, -73.6064, 33.9501
5.832, 41, 34.2454, 53.358, -12.9323, 93.7348, -73.651, 33.9497
5.836, 41, 34.2357, 53.359, -12.9019, 93.7047, -73.6981, 33.9489
5.84, 41, 34.2262, 53.3593, -12.8704, 93.6733, -73.7481, 33.9477
5.844, 42, 34.2167, 53.359, -12.8379, 93.6406, -73.8008, 33.9462
5.848, 42, 34.2073, 53.3584, -12.8044, 93.6068, -73.856, 33.9443
5.852, 42, 34.198, 53.3576, -12.77, 93.572, -73.9136, 33.9421
5.856, 42, 34.1885, 53.3567, -12.7348, 93.5362, -73.973, 33.9397
5.86, 42, 34.1788, 53.3558, -12.6989, 93.4996, -74.0339, 33.9372
5.864, 42, 34.1686, 53.3549, -12.6624, 93.4625, -74.0958, 33.9347
5.868, 42, 34.1579, 53.354, -12.6253, 93.4251, -74.1585, 33.9321
5.872, 42, 34.1467, 53.3532, -12.5877, 93.3874, -74.2214, 33.9297
5.876, 42, 34.1351, 53.3526, -12.5496, 93.3496, -74.2844, 33.9275
5.88, 42, 34.1232, 53.3521, -12.5111, 93.3117, -74.3471, 33.9255
5.884, 42, 34.111, 53.3517, -12.4721, 93.2739, -74.4095, 33.9238
5.888, 42, 34.0988, 53.3512, -12.4327, 93.2361, -74.4714, 33.9224
5.892, 43, 34.0864, 53.3505, -12.3928, 93.1983, -74.5327, 33.9213
5.896, 43, 34.0739, 53.3494, -12.3524, 93.1605, -74.5934, 33.9204
5.9, 43, 34.0613, 53.3482, -12.3115, 93.1227, -74.6536, 33.9199
5.904, 43, 34.0488, 53.3468, -12.2701, 93.0848, -74.7131, 33.9197
5.908, 43, 34.0364, 53.3453, -12.2283, 93.0468, -74.7721, 33.9198
5.912, 43, 34.0241, 53.3436, -12.186, 93.0087, -74.8306, 33.9201
5.916, 44, 34.012, 53.3417, -12.1434, 92.9705, -74.8887, 33.9206
5.92, 44, 34.0002, 53.3395, -12.1004, 92.9321, -74.9464, 33.9212
5.924, 44, 33.9887, 53.3368, -12.0573, 92.8935, -75.0039, 33.922
5.928, 44, 33.9775, 53.3336, -12.0141, 92.8548, -75.0612, 33.9228
5.932, 44, 33.9668, 53.3299, -11.9709, 92.8162, -75.118, 33.9236
5.936, 44, 33.9564, 53.3257, -11.9281, 92.7778, -75.1744, 33.9244
5.94, 44, 33.9462, 53.3211, -11.8858, 92.7397, -75.23, 33.9252
5.944, 44, 33.9361, 53.3163, -11.8442, 92.7024, -75.2845, 33.926
5.948, 44, 33.9257, 53.3115, -11.8035, 92.6659, -75.3377, 33.9269
5.952, 44, 33.9149, 53.3069, -11.7639, 92.6306, -75.3893, 33.9278
5.956, 44, 33.9038, 53.3026, -11.7254, 92.5966, -75.4391, 33.9287
5.96, 44, 33.8922, 53.2988, -11.6882, 92.5639, -75.4869, 33.9298
5.964, 44, 33.88, 53.2953, -11.652, 92.5326, -75.5327, 33.9311
5.968, 44, 33.8673, 53.2923, -11.6168, 92.5025, -75.5766, 33.9326
5.972, 44, 33.8541, 53.2895, -11.5823, 92.4734, -75.6187, 33.9344
5.976, 44, 33.8405, 53.2868, -11.5482, 92.445, -75.6593, 33.9365
5.98, 44, 33.8264, 53.284, -11.5143, 92.4171, -75.6988, 33.9389
5.984, 44, 33.8122, 53.281, -11.4802, 92.3892, -75.7375, 33.9417
5.988, 45, 33.7981, 53.2778, -11.4454, 92.361, -75.7759, 33.945
5.992, 45, 33.7843, 53.2741, -11.4097, 92.3322, -75.8143, 33.9486
5.996, 45, 33.771, 53.27, -11.3727, 92.3025, -75.8532, 33.9526
6, 45, 33.7582, 53.2651, -11.3342, 92.2714, -75.893, 33.9571
6.004, 45, 33.746, 53.2596, -11.2941, 92.239, -75.9338, 33.9619
6.008, 45, 33.7341, 53.2533, -11.2523, 92.2049, -75.976, 33.967
6.012, 45, 33.7226, 53.2462, -11.2088, 92.1693, -76.0195, 33.9724
6.016, 45, 33.7112, 53.2385, -11.1637, 92.1322, -76.0643, 33.9781
