hehonglu123/Motion-Primitive-Planning/simulation/robotstudio_sim/scripts/fitting_output/threshold0.5/curve_exe_v5000_z1.csv
timestamp, cmd_num, J1, J2, J3, J4, J5, J6
0, 1, -1.04611, 64.0155, 9.27262, 43.2937, -96.0658, 171.467
0.002, 1, -1.04611, 64.0155, 9.27262, 43.2937, -96.0658, 171.467
0.004, 1, -1.04611, 64.0155, 9.27262, 43.2937, -96.0658, 171.467
0.008, 1, -1.04611, 64.0155, 9.27262, 43.2937, -96.0658, 171.467
0.011, 1, -1.04611, 64.0155, 9.27262, 43.2937, -96.0658, 171.467
0.016, 1, -1.04611, 64.0155, 9.27262, 43.2937, -96.0658, 171.467
0.02, 1, -1.04611, 64.0155, 9.27262, 43.2937, -96.0658, 171.467
0.024, 1, -1.04611, 64.0155, 9.27262, 43.2937, -96.0658, 171.467
0.028, 1, -1.04611, 64.0155, 9.27262, 43.2937, -96.0658, 171.467
0.032, 1, -1.04611, 64.0155, 9.27262, 43.2937, -96.0658, 171.467
0.036, 1, -1.0461, 64.0155, 9.27262, 43.2937, -96.0658, 171.467
0.04, 1, -1.04604, 64.0155, 9.27262, 43.2937, -96.0658, 171.467
0.044, 1, -1.04582, 64.0154, 9.27263, 43.2937, -96.0658, 171.467
0.048, 1, -1.04529, 64.0153, 9.27265, 43.2937, -96.0658, 171.467
0.052, 1, -1.04432, 64.015, 9.27267, 43.2938, -96.0658, 171.467
0.056, 1, -1.0428, 64.0145, 9.2727, 43.2939, -96.0657, 171.467
0.06, 1, -1.04065, 64.0138, 9.27271, 43.2941, -96.0655, 171.466
0.064, 1, -1.03782, 64.0127, 9.27267, 43.2946, -96.0651, 171.465
0.068, 1, -1.03428, 64.0113, 9.27251, 43.2954, -96.0644, 171.463
0.072, 1, -1.02997, 64.0094, 9.27219, 43.2967, -96.0634, 171.46
0.076, 1, -1.02481, 64.0071, 9.2716, 43.2987, -96.0617, 171.455
0.08, 1, -1.01862, 64.0042, 9.27067, 43.3017, -96.0593, 171.448
0.084, 1, -1.01122, 64.0007, 9.26926, 43.3059, -96.0559, 171.438
0.088, 1, -1.0024, 63.9965, 9.26725, 43.3116, -96.0512, 171.425
0.092, 1, -0.991992, 63.9914, 9.26448, 43.3191, -96.045, 171.407
0.096, 1, -0.9799, 63.9856, 9.26077, 43.3289, -96.037, 171.385
0.1, 1, -0.966033, 63.9789, 9.25595, 43.3413, -96.0268, 171.356
0.104, 1, -0.95029, 63.9713, 9.24983, 43.3567, -96.0141, 171.32
0.108, 1, -0.932536, 63.9627, 9.24224, 43.3755, -95.9987, 171.277
0.112, 1, -0.912641, 63.9531, 9.23301, 43.3981, -95.9801, 171.224
0.116, 1, -0.890518, 63.9426, 9.222, 43.4247, -95.9582, 171.163
0.12, 1, -0.866143, 63.9311, 9.20907, 43.4557, -95.9327, 171.091
0.124, 1, -0.839541, 63.9189, 9.19409, 43.4912, -95.9034, 171.009
0.128, 1, -0.810752, 63.9061, 9.17698, 43.5315, -95.8702, 170.916
0.131, 1, -0.779824, 63.8927, 9.15769, 43.5767, -95.833, 170.811
0.136, 1, -0.746796, 63.8787, 9.13621, 43.6268, -95.7917, 170.696
0.139, 1, -0.711674, 63.8642, 9.11257, 43.6816, -95.7465, 170.569
0.144, 1, -0.674425, 63.8489, 9.08685, 43.7411, -95.6974, 170.432
0.148, 1, -0.635014, 63.8328, 9.05917, 43.805, -95.6447, 170.284
0.152, 1, -0.593459, 63.8158, 9.02967, 43.873, -95.5886, 170.127
0.156, 1, -0.549854, 63.7979, 8.99852, 43.9448, -95.5295, 169.962
0.16, 1, -0.50433, 63.7791, 8.96587, 44.02, -95.4675, 169.788
0.164, 1, -0.457007, 63.7594, 8.93192, 44.0981, -95.403, 169.608
0.168, 1, -0.407966, 63.7388, 8.89687, 44.1788, -95.3365, 169.421
0.172, 1, -0.35728, 63.7175, 8.86091, 44.2617, -95.2681, 169.23
0.176, 1, -0.305052, 63.6954, 8.82423, 44.3464, -95.1983, 169.035
0.18, 1, -0.251415, 63.6725, 8.78699, 44.4324, -95.1273, 168.836
0.184, 1, -0.19651, 63.6489, 8.74933, 44.5196, -95.0555, 168.635
0.188, 1, -0.14048, 63.6247, 8.71138, 44.6076, -94.9829, 168.431
0.192, 1, -0.0834747, 63.6, 8.67322, 44.6962, -94.9099, 168.227
0.196, 1, -0.0256473, 63.5749, 8.63491, 44.7853, -94.8364, 168.021
0.2, 1, 0.0328737, 63.5494, 8.59651, 44.8746, -94.7628, 167.815
0.204, 1, 0.0919971, 63.5237, 8.55806, 44.9642, -94.6889, 167.608
0.208, 1, 0.151642, 63.4978, 8.51958, 45.0539, -94.615, 167.4
0.212, 1, 0.211708, 63.4718, 8.48108, 45.1436, -94.541, 167.193
0.216, 1, 0.272083, 63.4456, 8.44259, 45.2334, -94.467, 166.986
0.22, 1, 0.332664, 63.4194, 8.40411, 45.3232, -94.393, 166.778
0.224, 1, 0.393375, 63.3931, 8.36563, 45.413, -94.319, 166.571
0.228, 1, 0.454162, 63.3668, 8.32718, 45.5028, -94.245, 166.363
0.232, 1, 0.514989, 63.3406, 8.28874, 45.5925, -94.171, 166.156
0.236, 1, 0.575834, 63.3143, 8.25031, 45.6822, -94.0971, 165.949
0.24, 1, 0.636678, 63.288, 8.21191, 45.7719, -94.0232, 165.742
0.244, 1, 0.697512, 63.2617, 8.17353, 45.8615, -93.9493, 165.535
0.248, 1, 0.758327, 63.2354, 8.13517, 45.951, -93.8755, 165.328
0.252, 1, 0.819118, 63.2092, 8.09683, 46.0406, -93.8017, 165.121
0.256, 1, 0.879882, 63.1829, 8.05851, 46.13, -93.728, 164.914
0.26, 1, 0.940616, 63.1567, 8.02021, 46.2194, -93.6543, 164.708
0.264, 1, 1.00132, 63.1305, 7.98193, 46.3088, -93.5806, 164.501
0.268, 1, 1.06199, 63.1043, 7.94368, 46.3981, -93.507, 164.295
0.272, 1, 1.12262, 63.0781, 7.90545, 46.4874, -93.4334, 164.089
0.276, 1, 1.18323, 63.0519, 7.86724, 46.5766, -93.3599, 163.883
0.28, 1, 1.24379, 63.0257, 7.82905, 46.6657, -93.2864, 163.677
0.284, 1, 1.30433, 62.9996, 7.79089, 46.7548, -93.2129, 163.471
0.288, 1, 1.36482, 62.9735, 7.75274, 46.8439, -93.1395, 163.265
0.292, 1, 1.42528, 62.9473, 7.71462, 46.9329, -93.0662, 163.059
0.296, 1, 1.48571, 62.9212, 7.67653, 47.0218, -92.9929, 162.854
0.3, 1, 1.5461, 62.8952, 7.63845, 47.1107, -92.9196, 162.648
0.304, 1, 1.60645, 62.8691, 7.6004, 47.1996, -92.8464, 162.443
0.308, 1, 1.66677, 62.843, 7.56237, 47.2884, -92.7732, 162.238
0.312, 1, 1.72705, 62.817, 7.52437, 47.3771, -92.7, 162.033
0.316, 1, 1.7873, 62.791, 7.48639, 47.4658, -92.6269, 161.828
0.32, 1, 1.8475, 62.765, 7.44843, 47.5544, -92.5539, 161.623
0.324, 1, 1.90768, 62.739, 7.41049, 47.643, -92.4809, 161.419
0.328, 1, 1.96781, 62.713, 7.37258, 47.7315, -92.4079, 161.214
0.332, 1, 2.02791, 62.6871, 7.33469, 47.8199, -92.335, 161.01
0.336, 1, 2.08797, 62.6611, 7.29682, 47.9083, -92.2621, 160.806
0.34, 1, 2.14799, 62.6352, 7.25898, 47.9967, -92.1893, 160.602
0.344, 1, 2.20797, 62.6093, 7.22116, 48.085, -92.1165, 160.398
0.348, 1, 2.26792, 62.5834, 7.18336, 48.1732, -92.0438, 160.194
0.352, 1, 2.32783, 62.5575, 7.14559, 48.2614, -91.9711, 159.99
0.356, 1, 2.3877, 62.5317, 7.10785, 48.3496, -91.8985, 159.786
0.36, 1, 2.44753, 62.5058, 7.07012, 48.4376, -91.8259, 159.583
0.364, 1, 2.50733, 62.48, 7.03242, 48.5257, -91.7533, 159.38
0.368, 1, 2.56708, 62.4542, 6.99475, 48.6136, -91.6808, 159.176
0.372, 1, 2.6268, 62.4284, 6.95709, 48.7015, -91.6083, 158.973
0.376, 1, 2.68648, 62.4026, 6.91947, 48.7894, -91.5359, 158.77
0.38, 1, 2.74612, 62.3768, 6.88186, 48.8772, -91.4636, 158.567
0.384, 1, 2.80573, 62.3511, 6.84429, 48.9649, -91.3912, 158.365
0.388, 1, 2.86529, 62.3254, 6.80673, 49.0526, -91.319, 158.162
0.392, 1, 2.92481, 62.2997, 6.7692, 49.1402, -91.2467, 157.96
0.396, 1, 2.9843, 62.274, 6.7317, 49.2278, -91.1746, 157.757
0.4, 1, 3.04374, 62.2483, 6.69422, 49.3153, -91.1024, 157.555
0.404, 1, 3.10315, 62.2226, 6.65676, 49.4027, -91.0304, 157.353
0.408, 1, 3.16252, 62.197, 6.61933, 49.4901, -90.9583, 157.151
0.412, 1, 3.22185, 62.1714, 6.58193, 49.5774, -90.8863, 156.95
0.416, 1, 3.28113, 62.1458, 6.54455, 49.6647, -90.8144, 156.748
0.42, 1, 3.34038, 62.1202, 6.50719, 49.7519, -90.7425, 156.546
0.424, 1, 3.39959, 62.0946, 6.46986, 49.8391, -90.6707, 156.345
0.428, 1, 3.45876, 62.069, 6.43256, 49.9262, -90.5989, 156.144
0.432, 1, 3.51788, 62.0435, 6.39528, 50.0132, -90.5272, 155.943
0.436, 1, 3.57697, 62.018, 6.35803, 50.1002, -90.4555, 155.742
0.44, 1, 3.63602, 61.9925, 6.3208, 50.1871, -90.3838, 155.541
0.444, 1, 3.69502, 61.967, 6.2836, 50.2739, -90.3122, 155.34
0.448, 1, 3.75399, 61.9415, 6.24642, 50.3607, -90.2407, 155.14
0.452, 1, 3.81291, 61.9161, 6.20927, 50.4475, -90.1692, 154.939
0.456, 1, 3.8718, 61.8906, 6.17215, 50.5342, -90.0977, 154.739
0.46, 1, 3.93064, 61.8652, 6.13505, 50.6208, -90.0263, 154.539
0.464, 1, 3.98944, 61.8398, 6.09798, 50.7073, -89.955, 154.339
0.468, 1, 4.0482, 61.8145, 6.06093, 50.7938, -89.8837, 154.139
0.472, 1, 4.10691, 61.7891, 6.02391, 50.8802, -89.8125, 153.94
0.476, 1, 4.16559, 61.7637, 5.98692, 50.9666, -89.7413, 153.74
0.48, 1, 4.22423, 61.7384, 5.94995, 51.0529, -89.6701, 153.541
0.484, 1, 4.28282, 61.7131, 5.91301, 51.1392, -89.599, 153.341
0.488, 1, 4.34137, 61.6878, 5.87609, 51.2254, -89.528, 153.142
0.492, 1, 4.39988, 61.6626, 5.8392, 51.3115, -89.457, 152.943
0.496, 1, 4.45834, 61.6373, 5.80234, 51.3975, -89.3861, 152.744
0.5, 1, 4.51677, 61.6121, 5.76551, 51.4835, -89.3152, 152.546
0.504, 1, 4.57515, 61.5868, 5.7287, 51.5695, -89.2443, 152.347
0.508, 1, 4.63349, 61.5617, 5.69192, 51.6554, -89.1736, 152.149
0.512, 1, 4.69179, 61.5365, 5.65516, 51.7412, -89.1028, 151.951
0.516, 1, 4.75004, 61.5113, 5.61843, 51.8269, -89.0322, 151.753
0.52, 1, 4.80826, 61.4862, 5.58173, 51.9126, -88.9615, 151.555
0.524, 1, 4.86643, 61.461, 5.54506, 51.9982, -88.8909, 151.357
0.528, 1, 4.92455, 61.4359, 5.50841, 52.0838, -88.8204, 151.159
0.532, 1, 4.98264, 61.4109, 5.47179, 52.1693, -88.7499, 150.962
0.536, 1, 5.04068, 61.3858, 5.4352, 52.2547, -88.6795, 150.764
0.54, 1, 5.09867, 61.3607, 5.39864, 52.3401, -88.6092, 150.567
0.544, 1, 5.15663, 61.3357, 5.3621, 52.4254, -88.5388, 150.37
0.548, 1, 5.21454, 61.3107, 5.32559, 52.5106, -88.4686, 150.173
0.552, 1, 5.2724, 61.2857, 5.28911, 52.5958, -88.3984, 149.976
0.556, 1, 5.33023, 61.2607, 5.25265, 52.6809, -88.3282, 149.779
0.56, 1, 5.38801, 61.2358, 5.21622, 52.766, -88.2581, 149.583
0.564, 1, 5.44574, 61.2108, 5.17982, 52.8509, -88.1881, 149.387
0.568, 1, 5.50343, 61.1859, 5.14345, 52.9359, -88.1181, 149.19
0.572, 1, 5.56108, 61.161, 5.1071, 53.0207, -88.0481, 148.994
0.576, 1, 5.61868, 61.1361, 5.07079, 53.1055, -87.9782, 148.799
0.58, 1, 5.67624, 61.1113, 5.0345, 53.1902, -87.9084, 148.603
0.584, 1, 5.73376, 61.0864, 4.99824, 53.2749, -87.8386, 148.407
0.588, 1, 5.79123, 61.0616, 4.962, 53.3595, -87.7689, 148.212
0.592, 1, 5.84865, 61.0368, 4.9258, 53.444, -87.6992, 148.016
0.596, 1, 5.90603, 61.012, 4.88962, 53.5285, -87.6296, 147.821
0.6, 1, 5.96337, 60.9873, 4.85347, 53.6129, -87.56, 147.626
0.604, 1, 6.02066, 60.9625, 4.81735, 53.6972, -87.4905, 147.431
0.608, 1, 6.07791, 60.9378, 4.78126, 53.7815, -87.4211, 147.237
0.612, 1, 6.13511, 60.9131, 4.74519, 53.8657, -87.3516, 147.042
0.616, 1, 6.19227, 60.8884, 4.70916, 53.9498, -87.2823, 146.848
0.62, 1, 6.24938, 60.8637, 4.67315, 54.0339, -87.213, 146.654
0.624, 1, 6.30645, 60.8391, 4.63717, 54.1179, -87.1438, 146.46
0.628, 1, 6.36347, 60.8145, 4.60122, 54.2018, -87.0746, 146.266
0.632, 1, 6.42045, 60.7898, 4.5653, 54.2857, -87.0054, 146.072
0.636, 1, 6.47738, 60.7653, 4.52941, 54.3695, -86.9364, 145.878
0.64, 1, 6.53426, 60.7407, 4.49354, 54.4532, -86.8674, 145.685
0.644, 1, 6.5911, 60.7161, 4.45771, 54.5369, -86.7984, 145.492
0.648, 1, 6.6479, 60.6916, 4.4219, 54.6205, -86.7295, 145.298
0.652, 1, 6.70464, 60.6671, 4.38612, 54.704, -86.6606, 145.105
0.656, 1, 6.76135, 60.6426, 4.35038, 54.7875, -86.5918, 144.913
0.66, 1, 6.818, 60.6181, 4.31466, 54.8709, -86.5231, 144.72
0.664, 1, 6.87462, 60.5937, 4.27896, 54.9542, -86.4544, 144.527
0.668, 1, 6.93118, 60.5693, 4.2433, 55.0374, -86.3858, 144.335
0.672, 1, 6.9877, 60.5448, 4.20767, 55.1206, -86.3172, 144.143
0.676, 1, 7.04417, 60.5205, 4.17207, 55.2038, -86.2487, 143.951
0.68, 1, 7.1006, 60.4961, 4.13649, 55.2868, -86.1802, 143.759
0.684, 1, 7.15698, 60.4717, 4.10095, 55.3698, -86.1118, 143.567
0.688, 1, 7.21331, 60.4474, 4.06543, 55.4527, -86.0435, 143.376
0.692, 1, 7.2696, 60.4231, 4.02995, 55.5356, -85.9752, 143.184
0.696, 1, 7.32584, 60.3988, 3.99449, 55.6184, -85.907, 142.993
0.7, 1, 7.38203, 60.3745, 3.95906, 55.7011, -85.8388, 142.802
0.704, 1, 7.43818, 60.3503, 3.92366, 55.7837, -85.7707, 142.611
0.708, 1, 7.49428, 60.326, 3.8883, 55.8663, -85.7026, 142.42
0.712, 1, 7.55033, 60.3018, 3.85296, 55.9488, -85.6346, 142.23
0.716, 1, 7.60634, 60.2776, 3.81765, 56.0312, -85.5666, 142.039
0.72, 1, 7.66229, 60.2535, 3.78237, 56.1136, -85.4987, 141.849
0.724, 1, 7.71821, 60.2293, 3.74712, 56.1959, -85.4309, 141.659
0.728, 1, 7.77407, 60.2052, 3.7119, 56.2781, -85.3631, 141.469
0.732, 1, 7.82989, 60.1811, 3.67671, 56.3603, -85.2954, 141.279
0.736, 1, 7.88566, 60.157, 3.64155, 56.4424, -85.2277, 141.089
0.74, 1, 7.94138, 60.1329, 3.60642, 56.5244, -85.1601, 140.9
0.744, 1, 7.99706, 60.1089, 3.57132, 56.6063, -85.0926, 140.71
0.748, 1, 8.05269, 60.0849, 3.53625, 56.6882, -85.0251, 140.521
0.752, 1, 8.10827, 60.0609, 3.50121, 56.77, -84.9576, 140.332
0.756, 1, 8.1638, 60.0369, 3.4662, 56.8518, -84.8903, 140.143
0.76, 1, 8.21929, 60.0129, 3.43122, 56.9334, -84.823, 139.955
0.764, 1, 8.27473, 59.989, 3.39626, 57.015, -84.7557, 139.766
0.768, 1, 8.33012, 59.965, 3.36134, 57.0966, -84.6885, 139.578
0.772, 1, 8.38546, 59.9411, 3.32645, 57.178, -84.6213, 139.39
0.776, 1, 8.44076, 59.9173, 3.29159, 57.2594, -84.5543, 139.202
0.78, 1, 8.49601, 59.8934, 3.25676, 57.3407, -84.4872, 139.014
0.784, 1, 8.55121, 59.8696, 3.22196, 57.422, -84.4203, 138.826
0.788, 1, 8.60636, 59.8457, 3.18719, 57.5032, -84.3533, 138.638
0.792, 1, 8.66146, 59.8219, 3.15245, 57.5843, -84.2865, 138.451
0.796, 1, 8.71652, 59.7982, 3.11774, 57.6653, -84.2197, 138.264
0.8, 1, 8.77153, 59.7744, 3.08306, 57.7463, -84.153, 138.077
0.804, 1, 8.82649, 59.7507, 3.04842, 57.8272, -84.0863, 137.89
0.808, 1, 8.8814, 59.727, 3.0138, 57.908, -84.0197, 137.703
0.812, 1, 8.93627, 59.7033, 2.97921, 57.9888, -83.9531, 137.517
0.816, 1, 8.99108, 59.6796, 2.94465, 58.0694, -83.8866, 137.33
0.82, 1, 9.04585, 59.6559, 2.91012, 58.15, -83.8201, 137.144
0.824, 1, 9.10057, 59.6323, 2.87563, 58.2306, -83.7538, 136.958
0.828, 1, 9.15524, 59.6087, 2.84116, 58.3111, -83.6874, 136.772
0.832, 1, 9.20987, 59.5851, 2.80673, 58.3915, -83.6212, 136.586
0.836, 1, 9.26444, 59.5615, 2.77232, 58.4718, -83.5549, 136.401
0.84, 1, 9.31897, 59.538, 2.73794, 58.552, -83.4888, 136.215
0.844, 1, 9.37345, 59.5144, 2.7036, 58.6322, -83.4227, 136.03
0.848, 1, 9.42788, 59.4909, 2.66929, 58.7123, -83.3567, 135.845
0.852, 1, 9.48226, 59.4674, 2.635, 58.7924, -83.2907, 135.66
0.856, 1, 9.53659, 59.444, 2.60075, 58.8723, -83.2248, 135.475
0.86, 1, 9.59088, 59.4205, 2.56653, 58.9522, -83.1589, 135.291
0.864, 1, 9.64511, 59.3971, 2.53233, 59.0321, -83.0931, 135.106
0.868, 1, 9.6993, 59.3737, 2.49817, 59.1118, -83.0274, 134.922
0.872, 1, 9.75344, 59.3503, 2.46404, 59.1915, -82.9617, 134.738
0.876, 1, 9.80753, 59.327, 2.42994, 59.2711, -82.8961, 134.554
0.88, 1, 9.86158, 59.3036, 2.39587, 59.3507, -82.8305, 134.37
0.884, 1, 9.91557, 59.2803, 2.36183, 59.4301, -82.765, 134.186
0.888, 1, 9.96951, 59.257, 2.32783, 59.5095, -82.6995, 134.003
0.892, 1, 10.0234, 59.2337, 2.29385, 59.5889, -82.6342, 133.82
0.896, 1, 10.0773, 59.2105, 2.2599, 59.6681, -82.5688, 133.637
0.9, 1, 10.1311, 59.1872, 2.22599, 59.7473, -82.5036, 133.454
0.904, 1, 10.1848, 59.164, 2.1921, 59.8264, -82.4384, 133.271
0.908, 1, 10.2385, 59.1408, 2.15825, 59.9055, -82.3732, 133.088
0.912, 1, 10.2922, 59.1177, 2.12442, 59.9844, -82.3081, 132.906
0.916, 1, 10.3458, 59.0945, 2.09063, 60.0633, -82.2431, 132.724
0.92, 1, 10.3993, 59.0714, 2.05687, 60.1422, -82.1781, 132.541
0.924, 1, 10.4528, 59.0483, 2.02314, 60.2209, -82.1132, 132.36
0.928, 1, 10.5063, 59.0252, 1.98944, 60.2996, -82.0483, 132.178
0.932, 1, 10.5597, 59.0021, 1.95577, 60.3782, -81.9835, 131.996
0.936, 1, 10.6131, 58.9791, 1.92213, 60.4567, -81.9188, 131.815
0.94, 1, 10.6664, 58.956, 1.88852, 60.5352, -81.8541, 131.633
0.944, 1, 10.7196, 58.933, 1.85494, 60.6136, -81.7895, 131.452
0.948, 1, 10.7728, 58.9101, 1.8214, 60.6919, -81.725, 131.271
0.952, 1, 10.826, 58.8871, 1.78788, 60.7702, -81.6604, 131.091
0.956, 1, 10.8791, 58.8642, 1.7544, 60.8483, -81.596, 130.91
0.96, 1, 10.9322, 58.8412, 1.72094, 60.9264, -81.5316, 130.729
0.964, 1, 10.9852, 58.8183, 1.68752, 61.0045, -81.4673, 130.549
0.968, 1, 11.0382, 58.7955, 1.65413, 61.0824, -81.4031, 130.369
0.972, 1, 11.0911, 58.7726, 1.62077, 61.1603, -81.3388, 130.189
0.976, 1, 11.144, 58.7498, 1.58743, 61.2381, -81.2747, 130.009
0.98, 1, 11.1968, 58.727, 1.55414, 61.3159, -81.2106, 129.83
0.984, 1, 11.2496, 58.7042, 1.52087, 61.3936, -81.1466, 129.65
0.988, 1, 11.3023, 58.6814, 1.48763, 61.4712, -81.0826, 129.471
0.992, 1, 11.355, 58.6586, 1.45442, 61.5487, -81.0187, 129.292
0.996, 1, 11.4076, 58.6359, 1.42125, 61.6262, -80.9549, 129.113
1, 1, 11.4602, 58.6132, 1.3881, 61.7035, -80.8911, 128.934
1.004, 1, 11.5127, 58.5905, 1.35499, 61.7808, -80.8274, 128.756
1.008, 1, 11.5652, 58.5679, 1.3219, 61.8581, -80.7637, 128.577
1.012, 1, 11.6176, 58.5452, 1.28885, 61.9353, -80.7001, 128.399
1.016, 1, 11.67, 58.5226, 1.25583, 62.0124, -80.6365, 128.221
1.02, 1, 11.7223, 58.5, 1.22284, 62.0894, -80.5731, 128.043
1.024, 1, 11.7746, 58.4774, 1.18988, 62.1663, -80.5096, 127.865
1.027, 1, 11.8268, 58.4548, 1.15695, 62.2432, -80.4463, 127.687
1.032, 1, 11.879, 58.4323, 1.12405, 62.32, -80.3829, 127.51
1.036, 1, 11.9312, 58.4098, 1.09118, 62.3968, -80.3197, 127.333
1.04, 1, 11.9833, 58.3873, 1.05835, 62.4734, -80.2565, 127.155
1.044, 1, 12.0353, 58.3648, 1.02554, 62.55, -80.1934, 126.978
1.048, 1, 12.0873, 58.3424, 0.992768, 62.6265, -80.1303, 126.802
1.052, 1, 12.1392, 58.3199, 0.960024, 62.703, -80.0673, 126.625
1.055, 1, 12.1911, 58.2975, 0.927311, 62.7794, -80.0043, 126.449
1.06, 1, 12.243, 58.2751, 0.894629, 62.8557, -79.9414, 126.272
1.064, 1, 12.2948, 58.2528, 0.861978, 62.9319, -79.8786, 126.096
1.068, 1, 12.3465, 58.2304, 0.829358, 63.008, -79.8158, 125.92
1.072, 1, 12.3982, 58.2081, 0.796768, 63.0841, -79.7531, 125.744
1.076, 1, 12.4499, 58.1858, 0.76421, 63.1601, -79.6904, 125.569
1.08, 1, 12.5015, 58.1635, 0.731682, 63.2361, -79.6278, 125.393
1.084, 1, 12.553, 58.1412, 0.699185, 63.312, -79.5653, 125.218
1.088, 1, 12.6045, 58.119, 0.666718, 63.3878, -79.5028, 125.043
1.091, 1, 12.656, 58.0968, 0.634283, 63.4635, -79.4404, 124.868
1.096, 1, 12.7074, 58.0746, 0.601878, 63.5391, -79.378, 124.693
1.1, 1, 12.7587, 58.0524, 0.569504, 63.6147, -79.3157, 124.519
1.104, 1, 12.81, 58.0302, 0.53716, 63.6902, -79.2535, 124.344
1.108, 1, 12.8613, 58.0081, 0.504847, 63.7657, -79.1913, 124.17
1.112, 1, 12.9125, 57.986, 0.472565, 63.8411, -79.1292, 123.996
1.116, 1, 12.9637, 57.9639, 0.440314, 63.9164, -79.0671, 123.822
1.119, 1, 13.0148, 57.9418, 0.408093, 63.9916, -79.0051, 123.648
1.124, 1, 13.0659, 57.9198, 0.375902, 64.0667, -78.9432, 123.474
1.128, 1, 13.1169, 57.8977, 0.343743, 64.1418, -78.8813, 123.301
1.132, 1, 13.1678, 57.8757, 0.311613, 64.2168, -78.8194, 123.128
1.136, 1, 13.2188, 57.8537, 0.279515, 64.2918, -78.7577, 122.954
1.14, 1, 13.2696, 57.8317, 0.247446, 64.3666, -78.696, 122.781
1.144, 1, 13.3205, 57.8098, 0.215409, 64.4414, -78.6343, 122.609
1.147, 1, 13.3712, 57.7879, 0.183401, 64.5162, -78.5727, 122.436
1.152, 1, 13.422, 57.766, 0.151425, 64.5908, -78.5112, 122.263
1.156, 1, 13.4726, 57.7441, 0.119478, 64.6654, -78.4497, 122.091
1.16, 1, 13.5233, 57.7222, 0.0875621, 64.7399, -78.3883, 121.919
1.164, 1, 13.5738, 57.7004, 0.0556764, 64.8144, -78.3269, 121.747
1.168, 1, 13.6244, 57.6785, 0.0238212, 64.8887, -78.2656, 121.575
1.172, 1, 13.6749, 57.6567, -0.0080038, 64.9631, -78.2044, 121.404
1.175, 1, 13.7253, 57.635, -0.0397984, 65.0373, -78.1432, 121.232
1.18, 1, 13.7757, 57.6132, -0.0715628, 65.1114, -78.082, 121.061
1.184, 1, 13.826, 57.5914, -0.103297, 65.1855, -78.021, 120.89
1.188, 1, 13.8763, 57.5697, -0.135001, 65.2596, -77.96, 120.719
1.192, 1, 13.9266, 57.548, -0.166674, 65.3335, -77.899, 120.548
1.196, 1, 13.9768, 57.5264, -0.198318, 65.4074, -77.8381, 120.377
1.2, 1, 14.0269, 57.5047, -0.229931, 65.4812, -77.7773, 120.206
1.204, 1, 14.077, 57.4831, -0.261514, 65.5549, -77.7165, 120.036
1.208, 1, 14.1271, 57.4614, -0.293067, 65.6286, -77.6558, 119.866
1.212, 1, 14.1771, 57.4398, -0.32459, 65.7022, -77.5951, 119.696
1.216, 1, 14.2271, 57.4183, -0.356083, 65.7757, -77.5345, 119.526
1.22, 1, 14.277, 57.3967, -0.387546, 65.8492, -77.4739, 119.356
1.224, 1, 14.3268, 57.3752, -0.418978, 65.9226, -77.4135, 119.187
1.228, 1, 14.3767, 57.3537, -0.450381, 65.9959, -77.353, 119.017
1.232, 1, 14.4264, 57.3322, -0.481754, 66.0691, -77.2926, 118.848
1.236, 1, 14.4761, 57.3107, -0.513097, 66.1423, -77.2323, 118.679
1.24, 1, 14.5258, 57.2892, -0.54441, 66.2154, -77.1721, 118.51
1.244, 1, 14.5755, 57.2678, -0.575693, 66.2885, -77.1119, 118.341
1.248, 1, 14.625, 57.2464, -0.606946, 66.3614, -77.0517, 118.173
1.252, 1, 14.6746, 57.225, -0.638169, 66.4343, -76.9916, 118.004
1.256, 1, 14.7241, 57.2036, -0.669362, 66.5071, -76.9316, 117.836
1.26, 1, 14.7735, 57.1823, -0.700526, 66.5799, -76.8716, 117.668
1.264, 1, 14.8229, 57.161, -0.73166, 66.6526, -76.8117, 117.5
1.267, 1, 14.8722, 57.1396, -0.762764, 66.7252, -76.7519, 117.332
1.272, 1, 14.9215, 57.1184, -0.793838, 66.7978, -76.692, 117.165
1.276, 1, 14.9708, 57.0971, -0.824883, 66.8702, -76.6323, 116.997
1.28, 1, 15.02, 57.0758, -0.855898, 66.9427, -76.5726, 116.83
1.284, 1, 15.0691, 57.0546, -0.886883, 67.015, -76.513, 116.663
1.288, 1, 15.1182, 57.0334, -0.917839, 67.0873, -76.4534, 116.496
1.292, 1, 15.1673, 57.0122, -0.948765, 67.1595, -76.3939, 116.329
1.295, 1, 15.2163, 56.991, -0.979662, 67.2316, -76.3344, 116.162
1.3, 1, 15.2653, 56.9699, -1.01053, 67.3037, -76.275, 115.996
1.304, 1, 15.3142, 56.9488, -1.04137, 67.3757, -76.2157, 115.83
1.308, 1, 15.3631, 56.9277, -1.07218, 67.4476, -76.1564, 115.663
1.312, 1, 15.4119, 56.9066, -1.10295, 67.5195, -76.0972, 115.497
1.316, 1, 15.4607, 56.8855, -1.1337, 67.5913, -76.038, 115.331
1.32, 1, 15.5094, 56.8645, -1.16442, 67.663, -75.9789, 115.166
1.324, 1, 15.5581, 56.8434, -1.19511, 67.7346, -75.9198, 115
1.328, 1, 15.6068, 56.8224, -1.22577, 67.8062, -75.8608, 114.835
1.332, 1, 15.6553, 56.8014, -1.25641, 67.8777, -75.8019, 114.67
1.336, 1, 15.7039, 56.7805, -1.28701, 67.9492, -75.743, 114.505
1.34, 1, 15.7524, 56.7595, -1.31758, 68.0206, -75.6841, 114.34
1.344, 1, 15.8009, 56.7386, -1.34813, 68.0919, -75.6253, 114.175
1.348, 1, 15.8493, 56.7177, -1.37865, 68.1631, -75.5666, 114.01
1.352, 1, 15.8976, 56.6968, -1.40913, 68.2343, -75.5079, 113.846
1.356, 1, 15.9459, 56.676, -1.43959, 68.3054, -75.4493, 113.682
1.36, 1, 15.9942, 56.6551, -1.47002, 68.3764, -75.3908, 113.517
1.364, 1, 16.0424, 56.6343, -1.50042, 68.4474, -75.3323, 113.353
1.368, 1, 16.0906, 56.6135, -1.53078, 68.5183, -75.2738, 113.19
1.372, 1, 16.1388, 56.5927, -1.56113, 68.5892, -75.2154, 113.026
1.376, 1, 16.1868, 56.5719, -1.59144, 68.6599, -75.1571, 112.862
1.38, 1, 16.2349, 56.5512, -1.62172, 68.7306, -75.0988, 112.699
1.384, 1, 16.2829, 56.5304, -1.65197, 68.8013, -75.0406, 112.536
1.388, 1, 16.3308, 56.5097, -1.6822, 68.8718, -74.9824, 112.373
1.392, 1, 16.3787, 56.489, -1.71239, 68.9423, -74.9243, 112.21
1.396, 1, 16.4266, 56.4684, -1.74256, 69.0128, -74.8663, 112.047
1.4, 1, 16.4744, 56.4477, -1.7727, 69.0831, -74.8083, 111.885
1.404, 1, 16.5222, 56.4271, -1.80281, 69.1534, -74.7503, 111.722
1.408, 1, 16.5699, 56.4065, -1.83289, 69.2237, -74.6924, 111.56
1.412, 1, 16.6176, 56.3859, -1.86294, 69.2938, -74.6346, 111.398
1.416, 1, 16.6652, 56.3653, -1.89297, 69.3639, -74.5768, 111.236
1.42, 1, 16.7128, 56.3448, -1.92296, 69.434, -74.5191, 111.074
1.424, 1, 16.7604, 56.3242, -1.95293, 69.5039, -74.4614, 110.913
1.428, 1, 16.8079, 56.3037, -1.98287, 69.5738, -74.4038, 110.751
1.432, 1, 16.8553, 56.2832, -2.01278, 69.6437, -74.3462, 110.59
1.436, 1, 16.9027, 56.2628, -2.04266, 69.7134, -74.2887, 110.429
1.44, 1, 16.9501, 56.2423, -2.07251, 69.7831, -74.2313, 110.268
1.444, 1, 16.9974, 56.2219, -2.10234, 69.8528, -74.1739, 110.107
1.448, 1, 17.0447, 56.2015, -2.13214, 69.9223, -74.1165, 109.946
1.452, 1, 17.0919, 56.1811, -2.16191, 69.9918, -74.0593, 109.785
1.456, 1, 17.1391, 56.1607, -2.19165, 70.0613, -74.002, 109.625
1.46, 1, 17.1862, 56.1403, -2.22136, 70.1306, -73.9448, 109.465
1.464, 1, 17.2333, 56.12, -2.25104, 70.2, -73.8877, 109.305
1.468, 1, 17.2804, 56.0997, -2.2807, 70.2692, -73.8306, 109.145
1.472, 1, 17.3274, 56.0794, -2.31033, 70.3384, -73.7736, 108.985
1.476, 1, 17.3743, 56.0591, -2.33993, 70.4075, -73.7167, 108.825
1.48, 1, 17.4213, 56.0388, -2.36951, 70.4765, -73.6597, 108.666
1.484, 1, 17.4681, 56.0186, -2.39905, 70.5455, -73.6029, 108.506
1.488, 1, 17.515, 55.9984, -2.42857, 70.6144, -73.5461, 108.347
1.492, 1, 17.5617, 55.9782, -2.45806, 70.6833, -73.4893, 108.188
1.496, 1, 17.6085, 55.958, -2.48752, 70.7521, -73.4326, 108.029
1.5, 1, 17.6552, 55.9378, -2.51696, 70.8208, -73.376, 107.87
1.504, 1, 17.7018, 55.9177, -2.54636, 70.8895, -73.3194, 107.712
1.508, 1, 17.7484, 55.8975, -2.57574, 70.958, -73.2628, 107.553
1.512, 1, 17.795, 55.8774, -2.60509, 71.0266, -73.2064, 107.395
1.516, 1, 17.8415, 55.8573, -2.63442, 71.095, -73.1499, 107.237
1.52, 1, 17.888, 55.8373, -2.66372, 71.1634, -73.0935, 107.079
1.524, 1, 17.9345, 55.8172, -2.69299, 71.2318, -73.0372, 106.921
1.528, 1, 17.9808, 55.7972, -2.72223, 71.3, -72.9809, 106.763
1.532, 1, 18.0272, 55.7772, -2.75144, 71.3683, -72.9247, 106.605
1.536, 1, 18.0735, 55.7572, -2.78063, 71.4364, -72.8685, 106.448
1.54, 1, 18.1198, 55.7372, -2.80979, 71.5045, -72.8124, 106.291
1.544, 1, 18.166, 55.7172, -2.83893, 71.5725, -72.7563, 106.133
1.548, 1, 18.2122, 55.6973, -2.86803, 71.6405, -72.7003, 105.976
1.552, 1, 18.2583, 55.6773, -2.89711, 71.7084, -72.6444, 105.82
1.556, 1, 18.3044, 55.6574, -2.92616, 71.7762, -72.5885, 105.663
1.56, 1, 18.3504, 55.6376, -2.95519, 71.844, -72.5326, 105.506
1.564, 1, 18.3964, 55.6177, -2.98419, 71.9117, -72.4768, 105.35
1.568, 1, 18.4424, 55.5978, -3.01316, 71.9793, -72.421, 105.194
1.572, 1, 18.4883, 55.578, -3.0421, 72.0469, -72.3653, 105.037
1.576, 1, 18.5342, 55.5582, -3.07102, 72.1144, -72.3097, 104.882
1.58, 1, 18.58, 55.5384, -3.09991, 72.1818, -72.2541, 104.726
1.584, 1, 18.6258, 55.5186, -3.12878, 72.2492, -72.1985, 104.57
1.588, 1, 18.6716, 55.4989, -3.15761, 72.3166, -72.143, 104.414
1.592, 1, 18.7173, 55.4791, -3.18642, 72.3838, -72.0876, 104.259
1.596, 1, 18.763, 55.4594, -3.21521, 72.451, -72.0322, 104.104
1.6, 1, 18.8086, 55.4397, -3.24396, 72.5182, -71.9769, 103.949
1.604, 1, 18.8542, 55.42, -3.2727, 72.5853, -71.9216, 103.794
1.608, 1, 18.8997, 55.4004, -3.3014, 72.6523, -71.8663, 103.639
1.612, 1, 18.9452, 55.3807, -3.33008, 72.7192, -71.8111, 103.484
1.616, 1, 18.9907, 55.3611, -3.35873, 72.7861, -71.756, 103.33
1.62, 1, 19.0361, 55.3415, -3.38736, 72.853, -71.7009, 103.175
1.624, 1, 19.0814, 55.3219, -3.41595, 72.9197, -71.6459, 103.021
1.628, 1, 19.1268, 55.3023, -3.44453, 72.9864, -71.5909, 102.867
1.632, 1, 19.1721, 55.2827, -3.47307, 73.0531, -71.5359, 102.713
1.636, 1, 19.2173, 55.2632, -3.50159, 73.1197, -71.4811, 102.559
1.64, 1, 19.2625, 55.2437, -3.53009, 73.1862, -71.4262, 102.405
1.644, 1, 19.3077, 55.2242, -3.55855, 73.2527, -71.3714, 102.252
1.648, 1, 19.3528, 55.2047, -3.587, 73.3191, -71.3167, 102.098
1.652, 1, 19.3979, 55.1852, -3.61541, 73.3854, -71.262, 101.945
1.656, 1, 19.4429, 55.1658, -3.6438, 73.4517, -71.2074, 101.792
1.66, 1, 19.4879, 55.1463, -3.67217, 73.5179, -71.1528, 101.639
1.664, 1, 19.5329, 55.1269, -3.7005, 73.5841, -71.0983, 101.486
1.668, 1, 19.5778, 55.1075, -3.72882, 73.6502, -71.0438, 101.333
1.672, 1, 19.6227, 55.0881, -3.7571, 73.7162, -70.9893, 101.181
1.676, 1, 19.6675, 55.0688, -3.78536, 73.7822, -70.9349, 101.028
1.68, 1, 19.7123, 55.0494, -3.8136, 73.8481, -70.8806, 100.876
1.684, 1, 19.7571, 55.0301, -3.8418, 73.914, -70.8263, 100.724
1.688, 1, 19.8018, 55.0108, -3.86999, 73.9798, -70.7721, 100.572
1.692, 1, 19.8464, 54.9915, -3.89815, 74.0455, -70.7179, 100.42
1.696, 1, 19.8911, 54.9722, -3.92628, 74.1112, -70.6638, 100.268
1.7, 1, 19.9357, 54.953, -3.95438, 74.1768, -70.6097, 100.117
1.704, 1, 19.9802, 54.9337, -3.98247, 74.2424, -70.5556, 99.9651
1.708, 1, 20.0247, 54.9145, -4.01052, 74.3079, -70.5016, 99.8138
1.712, 1, 20.0692, 54.8953, -4.03855, 74.3733, -70.4477, 99.6626
1.716, 1, 20.1136, 54.8761, -4.06656, 74.4387, -70.3938, 99.5115
1.72, 1, 20.158, 54.857, -4.09454, 74.5041, -70.34, 99.3606
1.724, 1, 20.2024, 54.8378, -4.12249, 74.5693, -70.2862, 99.2098
1.728, 1, 20.2467, 54.8187, -4.15042, 74.6345, -70.2324, 99.0591
1.732, 1, 20.291, 54.7995, -4.17832, 74.6997, -70.1787, 98.9086
1.736, 1, 20.3352, 54.7805, -4.2062, 74.7648, -70.1251, 98.7582
1.74, 1, 20.3794, 54.7614, -4.23406, 74.8298, -70.0714, 98.608
1.744, 1, 20.4235, 54.7423, -4.26189, 74.8948, -70.0179, 98.4579
1.748, 1, 20.4676, 54.7233, -4.28969, 74.9597, -69.9644, 98.3079
1.752, 1, 20.5117, 54.7042, -4.31747, 75.0245, -69.9109, 98.1581
1.756, 1, 20.5558, 54.6852, -4.34522, 75.0893, -69.8575, 98.0084
1.76, 1, 20.5997, 54.6662, -4.37295, 75.1541, -69.8042, 97.8588
1.764, 1, 20.6437, 54.6472, -4.40066, 75.2188, -69.7508, 97.7094
1.768, 1, 20.6876, 54.6283, -4.42834, 75.2834, -69.6976, 97.56
1.772, 1, 20.7315, 54.6093, -4.45599, 75.348, -69.6443, 97.4109
1.776, 1, 20.7753, 54.5904, -4.48362, 75.4125, -69.5912, 97.2618
1.78, 1, 20.8191, 54.5715, -4.51123, 75.4769, -69.538, 97.1129
1.784, 1, 20.8629, 54.5526, -4.53881, 75.5413, -69.485, 96.9641
1.788, 1, 20.9066, 54.5337, -4.56637, 75.6057, -69.4319, 96.8155
1.792, 1, 20.9503, 54.5148, -4.5939, 75.6699, -69.3789, 96.667
1.796, 1, 20.9939, 54.496, -4.62141, 75.7342, -69.326, 96.5186
1.8, 1, 21.0375, 54.4771, -4.64889, 75.7983, -69.2731, 96.3703
1.804, 1, 21.0811, 54.4583, -4.67635, 75.8624, -69.2203, 96.2222
1.808, 1, 21.1246, 54.4395, -4.70379, 75.9265, -69.1675, 96.0742
1.812, 1, 21.1681, 54.4208, -4.7312, 75.9905, -69.1147, 95.9264
1.816, 1, 21.2116, 54.402, -4.75859, 76.0544, -69.062, 95.7786
1.82, 1, 21.255, 54.3832, -4.78595, 76.1183, -69.0093, 95.6311
1.824, 1, 21.2984, 54.3645, -4.81329, 76.1822, -68.9567, 95.4836
1.828, 1, 21.3417, 54.3458, -4.8406, 76.2459, -68.9042, 95.3362
1.832, 1, 21.385, 54.3271, -4.8679, 76.3096, -68.8516, 95.189
1.836, 1, 21.4283, 54.3084, -4.89516, 76.3733, -68.7992, 95.0419
1.84, 1, 21.4715, 54.2898, -4.92241, 76.4369, -68.7467, 94.895
1.844, 1, 21.5147, 54.2711, -4.94963, 76.5005, -68.6944, 94.7482
1.848, 1, 21.5578, 54.2525, -4.97682, 76.564, -68.642, 94.6015
1.852, 1, 21.6009, 54.2339, -5.00399, 76.6274, -68.5897, 94.4549
1.856, 1, 21.644, 54.2153, -5.03114, 76.6908, -68.5375, 94.3084
1.86, 1, 21.687, 54.1967, -5.05827, 76.7541, -68.4853, 94.1621
1.864, 1, 21.73, 54.1781, -5.08537, 76.8174, -68.4331, 94.0159
1.868, 1, 21.773, 54.1595, -5.11245, 76.8806, -68.381, 93.8699
1.872, 1, 21.8159, 54.141, -5.1395, 76.9438, -68.3289, 93.7239
1.876, 1, 21.8588, 54.1225, -5.16654, 77.0069, -68.2769, 93.5781
1.88, 1, 21.9017, 54.104, -5.19354, 77.07, -68.2249, 93.4324
1.884, 1, 21.9445, 54.0855, -5.22053, 77.133, -68.173, 93.2869
1.888, 1, 21.9872, 54.067, -5.24749, 77.1959, -68.1211, 93.1415
1.892, 1, 22.03, 54.0486, -5.27443, 77.2588, -68.0693, 92.9961
1.896, 1, 22.0727, 54.0301, -5.30134, 77.3216, -68.0175, 92.851
1.9, 1, 22.1154, 54.0117, -5.32824, 77.3844, -67.9657, 92.7059
1.904, 1, 22.158, 53.9933, -5.3551, 77.4472, -67.914, 92.561
1.908, 1, 22.2006, 53.9749, -5.38195, 77.5098, -67.8624, 92.4162
1.912, 1, 22.2431, 53.9565, -5.40877, 77.5725, -67.8107, 92.2715
1.916, 1, 22.2856, 53.9382, -5.43557, 77.635, -67.7592, 92.1269
1.92, 1, 22.3281, 53.9198, -5.46235, 77.6976, -67.7076, 91.9825
1.924, 1, 22.3706, 53.9015, -5.4891, 77.76, -67.6561, 91.8382
1.928, 1, 22.413, 53.8832, -5.51584, 77.8224, -67.6047, 91.694
1.932, 1, 22.4554, 53.8649, -5.54254, 77.8848, -67.5533, 91.5499
1.936, 1, 22.4977, 53.8466, -5.56923, 77.9471, -67.5019, 91.406
1.94, 1, 22.54, 53.8283, -5.59589, 78.0093, -67.4506, 91.2621
1.944, 1, 22.5823, 53.8101, -5.62253, 78.0715, -67.3994, 91.1184
1.948, 1, 22.6245, 53.7918, -5.64915, 78.1337, -67.3481, 90.9749
1.952, 1, 22.6667, 53.7736, -5.67575, 78.1958, -67.2969, 90.8314
1.956, 1, 22.7089, 53.7554, -5.70232, 78.2578, -67.2458, 90.6881
1.96, 1, 22.751, 53.7372, -5.72887, 78.3198, -67.1947, 90.5448
1.964, 1, 22.7931, 53.719, -5.7554, 78.3818, -67.1437, 90.4017
1.968, 1, 22.8351, 53.7009, -5.7819, 78.4436, -67.0927, 90.2588
1.972, 1, 22.8771, 53.6827, -5.80839, 78.5055, -67.0417, 90.1159
1.976, 1, 22.9191, 53.6646, -5.83485, 78.5673, -66.9908, 89.9732
1.98, 1, 22.9611, 53.6465, -5.86129, 78.629, -66.9399, 89.8306
1.984, 1, 23.003, 53.6284, -5.8877, 78.6907, -66.889, 89.6881
1.988, 1, 23.0448, 53.6103, -5.9141, 78.7523, -66.8382, 89.5457
1.992, 1, 23.0867, 53.5922, -5.94047, 78.8139, -66.7875, 89.4035
1.996, 1, 23.1285, 53.5742, -5.96682, 78.8754, -66.7368, 89.2613
1.999, 1, 23.1703, 53.5561, -5.99315, 78.9369, -66.6861, 89.1193
2.004, 1, 23.212, 53.5381, -6.01945, 78.9983, -66.6355, 88.9774
2.008, 1, 23.2537, 53.5201, -6.04574, 79.0596, -66.5849, 88.8356
2.012, 1, 23.2954, 53.5021, -6.072, 79.121, -66.5344, 88.694
2.015, 1, 23.337, 53.4841, -6.09824, 79.1822, -66.4839, 88.5524
2.019, 1, 23.3786, 53.4662, -6.12446, 79.2434, -66.4334, 88.411
2.024, 1, 23.4202, 53.4482, -6.15066, 79.3046, -66.383, 88.2697
2.028, 1, 23.4617, 53.4303, -6.17683, 79.3657, -66.3326, 88.1285
2.031, 1, 23.5032, 53.4124, -6.20299, 79.4268, -66.2823, 87.9874
2.036, 1, 23.5446, 53.3945, -6.22912, 79.4878, -66.232, 87.8465
2.04, 1, 23.5861, 53.3766, -6.25523, 79.5487, -66.1817, 87.7056
2.044, 1, 23.6275, 53.3587, -6.28132, 79.6096, -66.1315, 87.5649
2.048, 1, 23.6688, 53.3409, -6.30738, 79.6705, -66.0814, 87.4243
2.051, 1, 23.7101, 53.323, -6.33343, 79.7313, -66.0312, 87.2838
2.055, 1, 23.7514, 53.3052, -6.35945, 79.7921, -65.9812, 87.1434
2.06, 1, 23.7927, 53.2874, -6.38545, 79.8528, -65.9311, 87.0032
2.064, 1, 23.8339, 53.2696, -6.41144, 79.9135, -65.8811, 86.863
2.068, 1, 23.8751, 53.2518, -6.4374, 79.9741, -65.8312, 86.723
2.071, 1, 23.9162, 53.234, -6.46333, 80.0346, -65.7812, 86.5831
2.076, 1, 23.9574, 53.2162, -6.48925, 80.0951, -65.7314, 86.4433
2.08, 1, 23.9985, 53.1985, -6.51515, 80.1556, -65.6815, 86.3036
2.084, 1, 24.0395, 53.1808, -6.54102, 80.216, -65.6317, 86.164
2.087, 1, 24.0805, 53.1631, -6.56688, 80.2764, -65.582, 86.0245
2.092, 1, 24.1215, 53.1454, -6.59271, 80.3367, -65.5323, 85.8852
2.096, 1, 24.1625, 53.1277, -6.61852, 80.3969, -65.4826, 85.746
2.1, 1, 24.2034, 53.11, -6.64431, 80.4572, -65.433, 85.6068
2.104, 1, 24.2443, 53.0923, -6.67008, 80.5173, -65.3834, 85.4678
2.107, 1, 24.2851, 53.0747, -6.69583, 80.5775, -65.3338, 85.3289
2.111, 1, 24.3259, 53.0571, -6.72156, 80.6375, -65.2843, 85.1901
2.116, 1, 24.3667, 53.0395, -6.74727, 80.6975, -65.2348, 85.0515
2.12, 1, 24.4075, 53.0219, -6.77296, 80.7575, -65.1854, 84.9129
2.124, 1, 24.4482, 53.0043, -6.79862, 80.8175, -65.136, 84.7745
2.127, 1, 24.4889, 52.9867, -6.82427, 80.8773, -65.0866, 84.6361
2.132, 1, 24.5296, 52.9691, -6.8499, 80.9372, -65.0373, 84.4979
2.136, 1, 24.5702, 52.9516, -6.8755, 80.9969, -64.988, 84.3598
2.14, 1, 24.6108, 52.9341, -6.90109, 81.0567, -64.9388, 84.2218
2.143, 1, 24.6513, 52.9166, -6.92665, 81.1164, -64.8896, 84.0839
2.148, 1, 24.6919, 52.8991, -6.9522, 81.176, -64.8404, 83.9461
2.152, 1, 24.7324, 52.8816, -6.97772, 81.2356, -64.7913, 83.8084
2.156, 1, 24.7728, 52.8641, -7.00322, 81.2951, -64.7422, 83.6708
2.16, 1, 24.8133, 52.8466, -7.02871, 81.3546, -64.6932, 83.5334
2.163, 1, 24.8537, 52.8292, -7.05417, 81.4141, -64.6442, 83.396
2.168, 1, 24.894, 52.8118, -7.07961, 81.4735, -64.5952, 83.2588
2.172, 1, 24.9344, 52.7943, -7.10504, 81.5329, -64.5463, 83.1217
2.176, 1, 24.9747, 52.7769, -7.13044, 81.5922, -64.4974, 82.9846
2.179, 1, 25.0149, 52.7595, -7.15582, 81.6514, -64.4486, 82.8477
2.184, 1, 25.0552, 52.7422, -7.18118, 81.7106, -64.3997, 82.7109
2.188, 1, 25.0954, 52.7248, -7.20653, 81.7698, -64.351, 82.5742
2.192, 1, 25.1356, 52.7075, -7.23185, 81.8289, -64.3022, 82.4376
2.196, 1, 25.1757, 52.6901, -7.25715, 81.888, -64.2535, 82.3011
2.199, 1, 25.2158, 52.6728, -7.28244, 81.947, -64.2049, 82.1647
2.204, 1, 25.2559, 52.6555, -7.3077, 82.006, -64.1563, 82.0285
2.208, 1, 25.2959, 52.6382, -7.33295, 82.065, -64.1077, 81.8923
2.212, 1, 25.336, 52.6209, -7.35817, 82.1239, -64.0591, 81.7562
2.216, 1, 25.376, 52.6036, -7.38338, 82.1827, -64.0106, 81.6203
2.219, 1, 25.4159, 52.5864, -7.40856, 82.2415, -63.9622, 81.4844
2.224, 1, 25.4558, 52.5691, -7.43373, 82.3003, -63.9137, 81.3486
2.228, 1, 25.4957, 52.5519, -7.45887, 82.359, -63.8653, 81.213
2.232, 1, 25.5356, 52.5347, -7.484, 82.4176, -63.817, 81.0775
2.235, 1, 25.5754, 52.5175, -7.50911, 82.4763, -63.7687, 80.942
2.24, 1, 25.6152, 52.5003, -7.5342, 82.5348, -63.7204, 80.8067
2.244, 1, 25.655, 52.4831, -7.55926, 82.5934, -63.6721, 80.6715
2.248, 1, 25.6948, 52.466, -7.58431, 82.6519, -63.6239, 80.5364
2.252, 1, 25.7345, 52.4488, -7.60934, 82.7103, -63.5758, 80.4014
2.255, 1, 25.7742, 52.4317, -7.63436, 82.7687, -63.5276, 80.2664
2.259, 1, 25.8138, 52.4146, -7.65935, 82.827, -63.4795, 80.1316
2.264, 1, 25.8534, 52.3974, -7.68432, 82.8854, -63.4315, 79.9969
2.268, 1, 25.893, 52.3803, -7.70927, 82.9436, -63.3834, 79.8623
2.272, 1, 25.9326, 52.3633, -7.73421, 83.0018, -63.3355, 79.7278
2.275, 1, 25.9721, 52.3462, -7.75913, 83.06, -63.2875, 79.5934
2.28, 1, 26.0116, 52.3291, -7.78402, 83.1181, -63.2396, 79.4591
2.284, 1, 26.0511, 52.3121, -7.8089, 83.1762, -63.1917, 79.3249
2.288, 1, 26.0905, 52.2951, -7.83376, 83.2343, -63.1439, 79.1908
2.291, 1, 26.1299, 52.278, -7.8586, 83.2923, -63.0961, 79.0568
2.296, 1, 26.1693, 52.261, -7.88342, 83.3502, -63.0483, 78.9229
2.3, 1, 26.2087, 52.244, -7.90823, 83.4081, -63.0006, 78.7891
2.304, 1, 26.248, 52.2271, -7.93301, 83.466, -62.9529, 78.6555
2.308, 1, 26.2873, 52.2101, -7.95777, 83.5238, -62.9052, 78.5219
2.311, 1, 26.3265, 52.1931, -7.98252, 83.5816, -62.8576, 78.3884
2.316, 1, 26.3658, 52.1762, -8.00725, 83.6393, -62.81, 78.255
2.32, 1, 26.405, 52.1593, -8.03196, 83.697, -62.7624, 78.1217
2.324, 1, 26.4442, 52.1423, -8.05665, 83.7547, -62.7149, 77.9885
2.328, 1, 26.4833, 52.1254, -8.08132, 83.8123, -62.6674, 77.8554
2.331, 1, 26.5224, 52.1085, -8.10598, 83.8698, -62.62, 77.7224
2.336, 1, 26.5615, 52.0917, -8.13061, 83.9273, -62.5726, 77.5896
2.34, 1, 26.6006, 52.0748, -8.15523, 83.9848, -62.5252, 77.4568
2.344, 1, 26.6396, 52.0579, -8.17983, 84.0423, -62.4779, 77.3241
2.347, 1, 26.6786, 52.0411, -8.20441, 84.0996, -62.4305, 77.1915
2.352, 1, 26.7176, 52.0243, -8.22898, 84.157, -62.3833, 77.059
2.356, 1, 26.7565, 52.0075, -8.25352, 84.2143, -62.336, 76.9266
2.36, 1, 26.7954, 51.9907, -8.27805, 84.2716, -62.2888, 76.7943
2.364, 1, 26.8343, 51.9739, -8.30255, 84.3288, -62.2417, 76.6621
2.367, 1, 26.8731, 51.9571, -8.32704, 84.386, -62.1945, 76.53
2.372, 1, 26.912, 51.9403, -8.35152, 84.4431, -62.1474, 76.398
2.376, 1, 26.9508, 51.9236, -8.37597, 84.5002, -62.1004, 76.2661
2.38, 1, 26.9895, 51.9068, -8.40041, 84.5573, -62.0534, 76.1343
2.383, 1, 27.0283, 51.8901, -8.42482, 84.6143, -62.0064, 76.0025
2.388, 1, 27.067, 51.8734, -8.44923, 84.6712, -61.9594, 75.8709
2.392, 1, 27.1057, 51.8567, -8.47361, 84.7282, -61.9125, 75.7394
2.396, 1, 27.1443, 51.84, -8.49797, 84.785, -61.8656, 75.608
2.4, 1, 27.183, 51.8233, -8.52232, 84.8419, -61.8187, 75.4766
2.403, 1, 27.2216, 51.8066, -8.54665, 84.8987, -61.7719, 75.3454
2.408, 1, 27.2601, 51.79, -8.57096, 84.9554, -61.7251, 75.2143
2.412, 1, 27.2987, 51.7733, -8.59525, 85.0122, -61.6784, 75.0832
2.416, 1, 27.3372, 51.7567, -8.61953, 85.0688, -61.6317, 74.9523
2.42, 1, 27.3757, 51.7401, -8.64379, 85.1255, -61.585, 74.8214
2.423, 1, 27.4141, 51.7235, -8.66803, 85.1821, -61.5383, 74.6907
2.428, 1, 27.4526, 51.7069, -8.69225, 85.2386, -61.4917, 74.56
2.432, 1, 27.491, 51.6903, -8.71646, 85.2952, -61.4451, 74.4294
2.436, 1, 27.5294, 51.6737, -8.74065, 85.3516, -61.3986, 74.299
2.439, 1, 27.5677, 51.6571, -8.76482, 85.4081, -61.3521, 74.1686
2.444, 1, 27.606, 51.6406, -8.78897, 85.4645, -61.3056, 74.0383
2.448, 1, 27.6443, 51.6241, -8.81311, 85.5208, -61.2591, 73.9081
2.452, 1, 27.6826, 51.6075, -8.83723, 85.5771, -61.2127, 73.778
2.456, 1, 27.7208, 51.591, -8.86133, 85.6334, -61.1663, 73.648
2.459, 1, 27.759, 51.5745, -8.88541, 85.6896, -61.12, 73.5181
2.464, 1, 27.7972, 51.558, -8.90948, 85.7458, -61.0736, 73.3882
2.468, 1, 27.8354, 51.5415, -8.93353, 85.802, -61.0274, 73.2585
2.472, 1, 27.8735, 51.5251, -8.95756, 85.8581, -60.9811, 73.1289
2.476, 1, 27.9116, 51.5086, -8.98158, 85.9142, -60.9349, 72.9993
2.479, 1, 27.9497, 51.4922, -9.00558, 85.9702, -60.8887, 72.8699
2.484, 1, 27.9877, 51.4757, -9.02956, 86.0262, -60.8425, 72.7405
2.488, 1, 28.0258, 51.4593, -9.05353, 86.0821, -60.7964, 72.6112
2.492, 1, 28.0638, 51.4429, -9.07748, 86.1381, -60.7503, 72.482
2.495, 1, 28.1017, 51.4265, -9.10141, 86.1939, -60.7043, 72.353
2.5, 1, 28.1397, 51.4101, -9.12532, 86.2498, -60.6583, 72.224
2.504, 1, 28.1776, 51.3938, -9.14922, 86.3056, -60.6123, 72.0951
2.508, 1, 28.2155, 51.3774, -9.1731, 86.3613, -60.5663, 71.9662
2.512, 1, 28.2533, 51.361, -9.19697, 86.417, -60.5204, 71.8375
2.515, 1, 28.2912, 51.3447, -9.22081, 86.4727, -60.4745, 71.7089
2.52, 1, 28.329, 51.3284, -9.24465, 86.5284, -60.4286, 71.5803
2.524, 1, 28.3668, 51.3121, -9.26846, 86.584, -60.3828, 71.4519
2.528, 1, 28.4045, 51.2958, -9.29226, 86.6395, -60.337, 71.3235
2.531, 1, 28.4423, 51.2795, -9.31604, 86.6951, -60.2912, 71.1952
2.536, 1, 28.48, 51.2632, -9.33981, 86.7505, -60.2455, 71.067
2.54, 1, 28.5176, 51.2469, -9.36356, 86.806, -60.1998, 70.9389
2.544, 1, 28.5553, 51.2306, -9.38729, 86.8614, -60.1541, 70.8109
2.548, 1, 28.5929, 51.2144, -9.41101, 86.9168, -60.1085, 70.683
2.551, 1, 28.6305, 51.1982, -9.43471, 86.9721, -60.0628, 70.5551
2.556, 1, 28.6681, 51.1819, -9.45839, 87.0274, -60.0173, 70.4274
2.56, 1, 28.7057, 51.1657, -9.48206, 87.0827, -59.9717, 70.2997
2.564, 1, 28.7432, 51.1495, -9.50571, 87.1379, -59.9262, 70.1721
2.568, 1, 28.7807, 51.1333, -9.52934, 87.1931, -59.8807, 70.0446
2.571, 1, 28.8182, 51.1171, -9.55296, 87.2482, -59.8353, 69.9172
2.576, 1, 28.8556, 51.101, -9.57657, 87.3033, -59.7898, 69.7899
2.58, 1, 28.893, 51.0848, -9.60015, 87.3584, -59.7444, 69.6627
2.584, 1, 28.9304, 51.0687, -9.62372, 87.4134, -59.6991, 69.5355
2.587, 1, 28.9678, 51.0525, -9.64728, 87.4684, -59.6538, 69.4085
2.592, 1, 29.0051, 51.0364, -9.67082, 87.5234, -59.6085, 69.2815
2.596, 1, 29.0425, 51.0203, -9.69434, 87.5783, -59.5632, 69.1546
2.6, 1, 29.0798, 51.0042, -9.71785, 87.6332, -59.5179, 69.0278
2.604, 1, 29.117, 50.9881, -9.74134, 87.688, -59.4727, 68.9011
2.607, 1, 29.1543, 50.972, -9.76482, 87.7428, -59.4276, 68.7744
2.612, 1, 29.1915, 50.9559, -9.78828, 87.7976, -59.3824, 68.6479
2.616, 1, 29.2287, 50.9398, -9.81172, 87.8524, -59.3373, 68.5214
2.62, 1, 29.2659, 50.9238, -9.83515, 87.9071, -59.2922, 68.3951
2.624, 1, 29.303, 50.9078, -9.85856, 87.9617, -59.2471, 68.2688
2.627, 1, 29.3401, 50.8917, -9.88196, 88.0163, -59.2021, 68.1426
2.632, 1, 29.3772, 50.8757, -9.90534, 88.0709, -59.1571, 68.0164
2.636, 1, 29.4143, 50.8597, -9.92871, 88.1255, -59.1121, 67.8904
2.64, 1, 29.4513, 50.8437, -9.95206, 88.18, -59.0672, 67.7644
2.643, 1, 29.4884, 50.8277, -9.97539, 88.2345, -59.0223, 67.6386
2.648, 1, 29.5254, 50.8117, -9.99871, 88.2889, -58.9774, 67.5128
2.652, 1, 29.5623, 50.7958, -10.022, 88.3434, -58.9326, 67.3871
2.656, 1, 29.5993, 50.7798, -10.0453, 88.3977, -58.8877, 67.2614
2.66, 1, 29.6362, 50.7639, -10.0686, 88.4521, -58.843, 67.1359
2.663, 1, 29.6731, 50.7479, -10.0918, 88.5064, -58.7982, 67.0104
2.668, 1, 29.71, 50.732, -10.1151, 88.5606, -58.7535, 66.8851
2.672, 1, 29.7468, 50.7161, -10.1383, 88.6149, -58.7088, 66.7598
2.676, 1, 29.7837, 50.7002, -10.1615, 88.6691, -58.6641, 66.6346
2.679, 1, 29.8205, 50.6843, -10.1847, 88.7232, -58.6194, 66.5094
2.684, 1, 29.8573, 50.6684, -10.2079, 88.7774, -58.5748, 66.3844
2.688, 1, 29.894, 50.6525, -10.2311, 88.8314, -58.5302, 66.2594
2.692, 1, 29.9307, 50.6367, -10.2542, 88.8855, -58.4857, 66.1345
2.696, 1, 29.9675, 50.6208, -10.2774, 88.9395, -58.4412, 66.0097
2.699, 1, 30.0041, 50.605, -10.3005, 88.9935, -58.3967, 65.885
2.704, 1, 30.0408, 50.5891, -10.3236, 89.0475, -58.3522, 65.7604
2.708, 1, 30.0774, 50.5733, -10.3467, 89.1014, -58.3078, 65.6358
2.712, 1, 30.114, 50.5575, -10.3698, 89.1553, -58.2633, 65.5113
2.716, 1, 30.1506, 50.5417, -10.3928, 89.2091, -58.219, 65.3869
2.719, 1, 30.1872, 50.5259, -10.4159, 89.2629, -58.1746, 65.2626
2.724, 1, 30.2237, 50.5101, -10.4389, 89.3167, -58.1303, 65.1383
2.728, 1, 30.2603, 50.4944, -10.4619, 89.3704, -58.086, 65.0142
2.732, 1, 30.2968, 50.4786, -10.4849, 89.4241, -58.0417, 64.8901
2.735, 1, 30.3332, 50.4629, -10.5079, 89.4778, -57.9975, 64.7661
2.74, 1, 30.3697, 50.4471, -10.5309, 89.5314, -57.9533, 64.6422
2.744, 1, 30.4061, 50.4314, -10.5538, 89.5851, -57.9091, 64.5183
2.748, 1, 30.4425, 50.4157, -10.5768, 89.6386, -57.8649, 64.3946
2.752, 1, 30.4789, 50.4, -10.5997, 89.6922, -57.8208, 64.2709
2.755, 1, 30.5152, 50.3843, -10.6226, 89.7457, -57.7767, 64.1473
2.76, 1, 30.5516, 50.3686, -10.6455, 89.7991, -57.7326, 64.0237
2.764, 1, 30.5879, 50.3529, -10.6684, 89.8526, -57.6886, 63.9003
2.768, 1, 30.6242, 50.3372, -10.6913, 89.906, -57.6446, 63.7769
2.772, 1, 30.6604, 50.3215, -10.7141, 89.9593, -57.6006, 63.6536
2.775, 1, 30.6967, 50.3059, -10.737, 90.0127, -57.5566, 63.5304
2.78, 1, 30.7329, 50.2903, -10.7598, 90.066, -57.5127, 63.4072
2.784, 1, 30.7691, 50.2746, -10.7826, 90.1192, -57.4688, 63.2842
2.788, 1, 30.8053, 50.259, -10.8054, 90.1725, -57.4249, 63.1612
2.791, 1, 30.8414, 50.2434, -10.8282, 90.2257, -57.381, 63.0383
2.796, 1, 30.8775, 50.2278, -10.851, 90.2788, -57.3372, 62.9155
2.8, 1, 30.9137, 50.2122, -10.8737, 90.332, -57.2934, 62.7927
2.804, 1, 30.9497, 50.1966, -10.8965, 90.3851, -57.2496, 62.67
2.808, 1, 30.9858, 50.181, -10.9192, 90.4381, -57.2059, 62.5474
2.811, 1, 31.0218, 50.1655, -10.9419, 90.4912, -57.1622, 62.4249
2.816, 1, 31.0578, 50.1499, -10.9646, 90.5442, -57.1185, 62.3024
2.82, 1, 31.0938, 50.1344, -10.9873, 90.5971, -57.0748, 62.1801
2.824, 1, 31.1298, 50.1189, -11.01, 90.6501, -57.0312, 62.0578
2.828, 1, 31.1658, 50.1033, -11.0327, 90.703, -56.9876, 61.9356
2.831, 1, 31.2017, 50.0878, -11.0553, 90.7558, -56.944, 61.8134
2.836, 1, 31.2376, 50.0723, -11.0779, 90.8087, -56.9005, 61.6913
2.84, 1, 31.2735, 50.0568, -11.1005, 90.8615, -56.8569, 61.5693
2.844, 1, 31.3093, 50.0413, -11.1231, 90.9143, -56.8134, 61.4474
2.847, 1, 31.3452, 50.0258, -11.1457, 90.967, -56.77, 61.3256
2.852, 1, 31.381, 50.0104, -11.1683, 91.0197, -56.7265, 61.2038
2.856, 1, 31.4168, 49.9949, -11.1909, 91.0724, -56.6831, 61.0821
2.86, 1, 31.4526, 49.9795, -11.2134, 91.125, -56.6397, 60.9605
2.864, 1, 31.4883, 49.964, -11.236, 91.1776, -56.5963, 60.8389
2.867, 1, 31.524, 49.9486, -11.2585, 91.2302, -56.553, 60.7174
2.872, 1, 31.5597, 49.9332, -11.281, 91.2828, -56.5097, 60.596
2.876, 1, 31.5954, 49.9178, -11.3035, 91.3353, -56.4664, 60.4747
2.88, 1, 31.6311, 49.9024, -11.3259, 91.3878, -56.4231, 60.3535
2.883, 1, 31.6667, 49.887, -11.3484, 91.4402, -56.3799, 60.2323
2.888, 1, 31.7024, 49.8716, -11.3709, 91.4926, -56.3367, 60.1112
2.892, 1, 31.738, 49.8562, -11.3933, 91.545, -56.2935, 59.9901
2.896, 1, 31.7735, 49.8409, -11.4157, 91.5974, -56.2504, 59.8692
2.9, 1, 31.8091, 49.8255, -11.4381, 91.6497, -56.2072, 59.7483
2.903, 1, 31.8446, 49.8102, -11.4605, 91.702, -56.1641, 59.6275
2.908, 1, 31.8802, 49.7948, -11.4829, 91.7543, -56.121, 59.5067
2.912, 1, 31.9156, 49.7795, -11.5053, 91.8065, -56.078, 59.386
2.916, 1, 31.9511, 49.7642, -11.5277, 91.8587, -56.035, 59.2654
2.92, 1, 31.9866, 49.7489, -11.55, 91.9109, -55.992, 59.1449
2.923, 1, 32.022, 49.7336, -11.5723, 91.963, -55.949, 59.0244
2.928, 1, 32.0574, 49.7183, -11.5947, 92.0151, -55.906, 58.904
2.932, 1, 32.0928, 49.703, -11.617, 92.0672, -55.8631, 58.7837
2.936, 1, 32.1282, 49.6877, -11.6392, 92.1192, -55.8202, 58.6635
2.939, 1, 32.1635, 49.6724, -11.6615, 92.1713, -55.7773, 58.5433
2.944, 1, 32.1988, 49.6572, -11.6838, 92.2232, -55.7345, 58.4232
2.948, 1, 32.2341, 49.6419, -11.706, 92.2752, -55.6916, 58.3032
2.952, 1, 32.2694, 49.6267, -11.7283, 92.3271, -55.6488, 58.1832
2.956, 1, 32.3047, 49.6115, -11.7505, 92.379, -55.6061, 58.0633
2.959, 1, 32.3399, 49.5963, -11.7727, 92.4309, -55.5633, 57.9435
2.964, 1, 32.3752, 49.581, -11.7949, 92.4827, -55.5206, 57.8237
2.968, 1, 32.4104, 49.5658, -11.8171, 92.5345, -55.4779, 57.704
2.972, 1, 32.4455, 49.5506, -11.8393, 92.5863, -55.4352, 57.5844
2.976, 1, 32.4807, 49.5355, -11.8615, 92.638, -55.3926, 57.4649
2.98, 1, 32.5159, 49.5203, -11.8836, 92.6898, -55.3499, 57.3454
2.984, 1, 32.551, 49.5051, -11.9057, 92.7414, -55.3073, 57.226
2.988, 1, 32.5861, 49.49, -11.9279, 92.7931, -55.2648, 57.1066
2.992, 1, 32.6212, 49.4748, -11.95, 92.8447, -55.2222, 56.9874
2.995, 1, 32.6562, 49.4597, -11.9721, 92.8963, -55.1797, 56.8682
3, 1, 32.6913, 49.4445, -11.9942, 92.9479, -55.1372, 56.749
3.004, 1, 32.7263, 49.4294, -12.0162, 92.9994, -55.0947, 56.63
3.008, 1, 32.7613, 49.4143, -12.0383, 93.0509, -55.0522, 56.511
3.012, 1, 32.7963, 49.3992, -12.0603, 93.1024, -55.0098, 56.392
3.015, 1, 32.8312, 49.3841, -12.0824, 93.1539, -54.9674, 56.2732
3.02, 1, 32.8662, 49.369, -12.1044, 93.2053, -54.925, 56.1544
3.024, 1, 32.9011, 49.3539, -12.1264, 93.2567, -54.8826, 56.0356
3.028, 1, 32.936, 49.3389, -12.1484, 93.308, -54.8403, 55.917
3.031, 1, 32.9709, 49.3238, -12.1704, 93.3594, -54.798, 55.7984
3.036, 1, 33.0057, 49.3087, -12.1924, 93.4107, -54.7557, 55.6799
3.04, 1, 33.0406, 49.2937, -12.2143, 93.4619, -54.7135, 55.5614
3.044, 1, 33.0754, 49.2786, -12.2363, 93.5132, -54.6712, 55.443
3.048, 1, 33.1102, 49.2636, -12.2582, 93.5644, -54.629, 55.3247
3.051, 1, 33.145, 49.2486, -12.2801, 93.6156, -54.5868, 55.2064
3.056, 1, 33.1797, 49.2336, -12.302, 93.6667, -54.5446, 55.0882
3.06, 1, 33.2145, 49.2186, -12.3239, 93.7179, -54.5025, 54.9701
3.064, 1, 33.2492, 49.2036, -12.3458, 93.769, -54.4604, 54.852
3.068, 1, 33.2839, 49.1886, -12.3677, 93.82, -54.4183, 54.7341
3.071, 1, 33.3186, 49.1736, -12.3896, 93.8711, -54.3762, 54.6161
3.076, 1, 33.3533, 49.1586, -12.4114, 93.9221, -54.3341, 54.4983
3.08, 1, 33.3879, 49.1437, -12.4333, 93.9731, -54.2921, 54.3805
3.084, 1, 33.4225, 49.1287, -12.4551, 94.0241, -54.2501, 54.2627
3.087, 1, 33.4571, 49.1138, -12.4769, 94.075, -54.2081, 54.1451
3.092, 1, 33.4917, 49.0988, -12.4987, 94.1259, -54.1662, 54.0275
3.096, 1, 33.5263, 49.0839, -12.5205, 94.1768, -54.1242, 53.9099
3.1, 1, 33.5609, 49.069, -12.5423, 94.2276, -54.0823, 53.7924
3.104, 1, 33.5954, 49.0541, -12.564, 94.2784, -54.0404, 53.675
3.107, 1, 33.6299, 49.0392, -12.5858, 94.3292, -53.9986, 53.5577
3.112, 1, 33.6644, 49.0243, -12.6075, 94.38, -53.9567, 53.4404
3.116, 1, 33.6989, 49.0094, -12.6293, 94.4307, -53.9149, 53.3232
3.12, 1, 33.7333, 48.9945, -12.651, 94.4814, -53.8731, 53.206
3.124, 1, 33.7678, 48.9796, -12.6727, 94.5321, -53.8313, 53.089
3.128, 1, 33.8022, 48.9648, -12.6944, 94.5828, -53.7896, 52.9719
3.132, 1, 33.8366, 48.9499, -12.7161, 94.6334, -53.7479, 52.855
3.136, 1, 33.871, 48.9351, -12.7377, 94.684, -53.7062, 52.7381
3.14, 1, 33.9053, 48.9202, -12.7594, 94.7346, -53.6645, 52.6212
3.143, 1, 33.9397, 48.9054, -12.781, 94.7851, -53.6228, 52.5045
3.148, 1, 33.974, 48.8906, -12.8027, 94.8356, -53.5812, 52.3878
3.152, 1, 34.0083, 48.8758, -12.8243, 94.8861, -53.5396, 52.2711
3.156, 1, 34.0426, 48.861, -12.8459, 94.9366, -53.498, 52.1545
3.16, 1, 34.0769, 48.8462, -12.8675, 94.987, -53.4564, 52.038
3.163, 1, 34.1111, 48.8314, -12.8891, 95.0374, -53.4148, 51.9216
3.168, 1, 34.1454, 48.8166, -12.9107, 95.0878, -53.3733, 51.8052
3.172, 1, 34.1796, 48.8018, -12.9322, 95.1381, -53.3318, 51.6888
3.176, 1, 34.2138, 48.787, -12.9538, 95.1885, -53.2903, 51.5726
3.179, 1, 34.2479, 48.7723, -12.9753, 95.2387, -53.2489, 51.4564
3.184, 1, 34.2821, 48.7575, -12.9969, 95.289, -53.2074, 51.3402
3.188, 1, 34.3162, 48.7428, -13.0184, 95.3393, -53.166, 51.2241
3.192, 1, 34.3504, 48.728, -13.0399, 95.3895, -53.1246, 51.1081
3.196, 1, 34.3845, 48.7133, -13.0614, 95.4397, -53.0833, 50.9922
3.199, 1, 34.4186, 48.6986, -13.0829, 95.4898, -53.0419, 50.8763
3.204, 1, 34.4526, 48.6839, -13.1044, 95.54, -53.0006, 50.7604
3.208, 1, 34.4867, 48.6692, -13.1258, 95.5901, -52.9593, 50.6446
3.212, 1, 34.5207, 48.6545, -13.1473, 95.6402, -52.918, 50.5289
3.216, 1, 34.5547, 48.6398, -13.1687, 95.6902, -52.8767, 50.4133
3.22, 1, 34.5887, 48.6251, -13.1901, 95.7403, -52.8355, 50.2977
3.224, 1, 34.6227, 48.6104, -13.2116, 95.7903, -52.7943, 50.1821
3.228, 1, 34.6567, 48.5958, -13.233, 95.8403, -52.7531, 50.0667
3.232, 1, 34.6906, 48.5811, -13.2544, 95.8902, -52.7119, 49.9513
3.235, 1, 34.7246, 48.5664, -13.2758, 95.9401, -52.6707, 49.8359
3.24, 1, 34.7585, 48.5518, -13.2971, 95.99, -52.6296, 49.7206
3.244, 1, 34.7924, 48.5372, -13.3185, 96.0399, -52.5885, 49.6054
3.248, 1, 34.8262, 48.5225, -13.3398, 96.0898, -52.5474, 49.4902
3.252, 1, 34.8601, 48.5079, -13.3612, 96.1396, -52.5063, 49.3751
3.255, 1, 34.8939, 48.4933, -13.3825, 96.1894, -52.4653, 49.26
3.26, 1, 34.9278, 48.4787, -13.4038, 96.2392, -52.4243, 49.1451
3.264, 1, 34.9616, 48.4641, -13.4251, 96.2889, -52.3832, 49.0301
3.268, 1, 34.9953, 48.4495, -13.4464, 96.3386, -52.3423, 48.9152
3.272, 1, 35.0291, 48.4349, -13.4677, 96.3883, -52.3013, 48.8004
3.276, 1, 35.0629, 48.4203, -13.489, 96.438, -52.2604, 48.6857
3.28, 1, 35.0966, 48.4058, -13.5103, 96.4877, -52.2194, 48.571
3.284, 1, 35.1303, 48.3912, -13.5315, 96.5373, -52.1785, 48.4563
3.288, 1, 35.164, 48.3767, -13.5527, 96.5869, -52.1376, 48.3417
3.291, 1, 35.1976, 48.3622, -13.574, 96.6364, -52.0968, 48.2272
3.296, 1, 35.2309, 48.3477, -13.5952, 96.686, -52.056, 48.1128
3.3, 1, 35.264, 48.3334, -13.6165, 96.7355, -52.0152, 47.9984
3.304, 1, 35.2966, 48.3192, -13.6377, 96.7849, -51.9744, 47.8842
3.308, 1, 35.3289, 48.3053, -13.659, 96.8343, -51.9338, 47.7701
3.312, 1, 35.3606, 48.2915, -13.6802, 96.8835, -51.8932, 47.6564
3.316, 1, 35.3919, 48.278, -13.7014, 96.9325, -51.8528, 47.5431
3.32, 1, 35.4226, 48.2649, -13.7226, 96.9812, -51.8127, 47.4305
3.324, 1, 35.4526, 48.2521, -13.7437, 97.0296, -51.7729, 47.3187
3.328, 1, 35.4817, 48.2398, -13.7646, 97.0774, -51.7335, 47.208
3.332, 1, 35.5098, 48.2281, -13.7854, 97.1246, -51.6947, 47.099
3.336, 1, 35.5369, 48.2169, -13.8059, 97.1709, -51.6566, 46.9919
3.34, 1, 35.5628, 48.2063, -13.826, 97.2161, -51.6194, 46.8874
3.344, 1, 35.5877, 48.1962, -13.8455, 97.2599, -51.5834, 46.786
3.347, 1, 35.6116, 48.1866, -13.8644, 97.3021, -51.5487, 46.6884
3.352, 1, 35.6345, 48.1773, -13.8824, 97.3424, -51.5156, 46.5952
3.356, 1, 35.6564, 48.1684, -13.8994, 97.3805, -51.4843, 46.507
3.36, 1, 35.6772, 48.1599, -13.9152, 97.4163, -51.4549, 46.4243
3.364, 1, 35.6969, 48.1518, -13.9299, 97.4494, -51.4276, 46.3475
3.368, 1, 35.7154, 48.1441, -13.9433, 97.4799, -51.4025, 46.2771
3.372, 1, 35.7329, 48.1367, -13.9553, 97.5075, -51.3798, 46.2134
3.376, 1, 35.7495, 48.1296, -13.9659, 97.5321, -51.3595, 46.1565
3.38, 1, 35.7653, 48.1226, -13.9751, 97.5538, -51.3416, 46.1063
3.383, 1, 35.7803, 48.1158, -13.9828, 97.5727, -51.326, 46.0628
3.388, 1, 35.7945, 48.1093, -13.9892, 97.5888, -51.3127, 46.0257
3.392, 1, 35.8076, 48.1031, -13.9943, 97.6023, -51.3014, 45.9946
3.396, 1, 35.8196, 48.0973, -13.9984, 97.6135, -51.2921, 45.9688
3.4, 2, 35.8303, 48.0921, -14.0016, 97.6226, -51.2845, 45.9479
3.403, 2, 35.8398, 48.0874, -14.004, 97.6299, -51.2784, 45.9312
3.408, 2, 35.8483, 48.0832, -14.0057, 97.6356, -51.2737, 45.9182
3.412, 2, 35.8559, 48.0794, -14.0069, 97.6399, -51.27, 45.9083
3.416, 2, 35.8627, 48.0762, -14.0077, 97.6432, -51.2672, 45.9009
3.42, 2, 35.8686, 48.0734, -14.0081, 97.6456, -51.2652, 45.8955
3.424, 2, 35.8736, 48.071, -14.0084, 97.6473, -51.2637, 45.8916
3.428, 2, 35.8777, 48.0691, -14.0085, 97.6485, -51.2627, 45.889
3.432, 2, 35.8809, 48.0677, -14.0086, 97.6493, -51.262, 45.8871
3.436, 2, 35.8832, 48.0667, -14.0086, 97.6498, -51.2615, 45.8858
3.439, 2, 35.8849, 48.066, -14.0086, 97.6502, -51.2612, 45.885
3.444, 2, 35.886, 48.0655, -14.0086, 97.6505, -51.2609, 45.8844
3.448, 2, 35.8868, 48.0651, -14.0086, 97.6507, -51.2608, 45.884
3.452, 2, 35.8873, 48.0649, -14.0086, 97.6508, -51.2607, 45.8837
3.456, 2, 35.8877, 48.0648, -14.0086, 97.6509, -51.2606, 45.8836
3.46, 2, 35.8879, 48.0647, -14.0086, 97.6509, -51.2606, 45.8834
3.464, 2, 35.8881, 48.0646, -14.0086, 97.6509, -51.2605, 45.8834
3.468, 2, 35.8882, 48.0645, -14.0086, 97.651, -51.2605, 45.8833
3.472, 2, 35.8883, 48.0645, -14.0086, 97.651, -51.2605, 45.8833
3.476, 2, 35.8883, 48.0645, -14.0086, 97.651, -51.2605, 45.8832
3.48, 2, 35.8883, 48.0645, -14.0086, 97.651, -51.2605, 45.8832
3.484, 2, 35.8884, 48.0645, -14.0086, 97.651, -51.2605, 45.8832
3.488, 2, 35.8884, 48.0645, -14.0086, 97.651, -51.2605, 45.8832
3.492, 2, 35.8884, 48.0645, -14.0086, 97.651, -51.2605, 45.8832
3.495, 2, 35.8884, 48.0645, -14.0086, 97.651, -51.2605, 45.8832
3.5, 2, 35.8884, 48.0644, -14.0086, 97.651, -51.2605, 45.8832
3.504, 2, 35.8884, 48.0644, -14.0086, 97.651, -51.2605, 45.8832
3.508, 2, 35.8884, 48.0644, -14.0086, 97.651, -51.2605, 45.8832
3.512, 2, 35.8884, 48.0644, -14.0086, 97.651, -51.2605, 45.8832
3.516, 2, 35.8884, 48.0644, -14.0086, 97.651, -51.2605, 45.8832
3.52, 2, 35.8884, 48.0644, -14.0086, 97.651, -51.2605, 45.8832
3.524, 2, 35.8884, 48.0644, -14.0086, 97.651, -51.2605, 45.8832
3.528, 2, 35.8884, 48.0644, -14.0086, 97.651, -51.2605, 45.8832
3.531, 2, 35.8884, 48.0644, -14.0086, 97.651, -51.2605, 45.8832
3.536, 2, 35.8884, 48.0644, -14.0086, 97.651, -51.2605, 45.8832
3.54, 2, 35.8884, 48.0644, -14.0086, 97.651, -51.2605, 45.8832
3.544, 2, 35.8884, 48.0644, -14.0086, 97.651, -51.2605, 45.8832
3.548, 2, 35.8884, 48.0644, -14.0086, 97.651, -51.2605, 45.8832
3.552, 2, 35.8884, 48.0644, -14.0086, 97.651, -51.2605, 45.8832
3.556, 2, 35.8884, 48.0644, -14.0086, 97.651, -51.2605, 45.8832
3.56, 2, 35.8884, 48.0644, -14.0086, 97.651, -51.2605, 45.8832
3.564, 2, 35.8884, 48.0644, -14.0086, 97.651, -51.2605, 45.8832
3.568, 2, 35.8884, 48.0644, -14.0086, 97.651, -51.2605, 45.8832
3.572, 2, 35.8884, 48.0644, -14.0086, 97.651, -51.2605, 45.8832
3.576, 2, 35.8884, 48.0644, -14.0086, 97.651, -51.2605, 45.8832
3.58, 2, 35.8884, 48.0644, -14.0086, 97.651, -51.2605, 45.8832
3.584, 2, 35.8884, 48.0644, -14.0086, 97.651, -51.2605, 45.8832
3.587, 2, 35.8884, 48.0644, -14.0086, 97.651, -51.2605, 45.8832
3.592, 2, 35.8884, 48.0644, -14.0086, 97.651, -51.2605, 45.8832
3.596, 2, 35.8884, 48.0644, -14.0086, 97.651, -51.2605, 45.8832
3.6, 2, 35.8884, 48.0644, -14.0086, 97.651, -51.2605, 45.8832
3.604, 2, 35.8884, 48.0644, -14.0086, 97.651, -51.2605, 45.8832
3.608, 2, 35.8884, 48.0644, -14.0086, 97.651, -51.2605, 45.8832
3.612, 2, 35.8884, 48.0644, -14.0086, 97.651, -51.2605, 45.8832
3.616, 2, 35.8884, 48.0644, -14.0086, 97.651, -51.2605, 45.8832
3.62, 2, 35.8884, 48.0644, -14.0086, 97.651, -51.2605, 45.8832
3.624, 2, 35.8884, 48.0644, -14.0086, 97.651, -51.2605, 45.8832
3.628, 2, 35.8884, 48.0644, -14.0086, 97.651, -51.2605, 45.8832
3.632, 2, 35.8884, 48.0644, -14.0086, 97.651, -51.2605, 45.8832
3.636, 2, 35.8884, 48.0644, -14.0086, 97.651, -51.2605, 45.8832
3.64, 2, 35.8884, 48.0644, -14.0086, 97.651, -51.2605, 45.8832
3.644, 2, 35.8884, 48.0644, -14.0086, 97.651, -51.2605, 45.8832
3.648, 2, 35.8884, 48.0644, -14.0086, 97.651, -51.2605, 45.8832
3.652, 2, 35.8884, 48.0644, -14.0086, 97.651, -51.2605, 45.8832
3.656, 2, 35.8884, 48.0644, -14.0086, 97.651, -51.2605, 45.8832
3.66, 2, 35.8884, 48.0644, -14.0086, 97.651, -51.2605, 45.8832
3.664, 2, 35.8884, 48.0644, -14.0086, 97.651, -51.2605, 45.8832
3.668, 2, 35.8884, 48.0644, -14.0086, 97.651, -51.2605, 45.8832
3.672, 2, 35.8884, 48.0644, -14.0086, 97.651, -51.2605, 45.8832
3.676, 2, 35.8884, 48.0644, -14.0086, 97.651, -51.2605, 45.8832
3.679, 2, 35.8884, 48.0644, -14.0086, 97.651, -51.2605, 45.8832
3.684, 2, 35.8884, 48.0644, -14.0086, 97.651, -51.2605, 45.8832
3.688, 2, 35.8884, 48.0644, -14.0086, 97.651, -51.2605, 45.8832
3.692, 2, 35.8884, 48.0644, -14.0086, 97.651, -51.2605, 45.8832
3.696, 2, 35.8884, 48.0644, -14.0086, 97.651, -51.2605, 45.8832
3.7, 2, 35.8884, 48.0644, -14.0086, 97.651, -51.2605, 45.8832
3.704, 2, 35.8884, 48.0644, -14.0086, 97.651, -51.2605, 45.8832
3.708, 2, 35.8884, 48.0644, -14.0086, 97.651, -51.2605, 45.8832
3.712, 2, 35.8884, 48.0644, -14.0086, 97.651, -51.2605, 45.8832
3.716, 2, 35.8884, 48.0644, -14.0086, 97.651, -51.2605, 45.8832
3.72, 2, 35.8884, 48.0644, -14.0086, 97.651, -51.2605, 45.8832
3.724, 2, 35.8884, 48.0644, -14.0086, 97.651, -51.2605, 45.8832
3.728, 2, 35.8884, 48.0644, -14.0086, 97.651, -51.2605, 45.8832
3.732, 2, 35.8884, 48.0644, -14.0086, 97.651, -51.2605, 45.8832
3.735, 2, 35.8884, 48.0644, -14.0086, 97.651, -51.2605, 45.8832
3.74, 2, 35.8884, 48.0644, -14.0086, 97.651, -51.2605, 45.8832
3.744, 2, 35.8884, 48.0644, -14.0086, 97.651, -51.2605, 45.8832
3.748, 2, 35.8884, 48.0644, -14.0086, 97.651, -51.2605, 45.8832
3.752, 2, 35.8884, 48.0644, -14.0086, 97.651, -51.2605, 45.8832
3.756, 2, 35.8884, 48.0644, -14.0086, 97.651, -51.2605, 45.8832
3.76, 2, 35.8884, 48.0644, -14.0086, 97.651, -51.2605, 45.8832
3.764, 2, 35.8884, 48.0644, -14.0086, 97.651, -51.2605, 45.8832
3.768, 2, 35.8884, 48.0644, -14.0086, 97.651, -51.2605, 45.8832
3.772, 2, 35.8884, 48.0644, -14.0086, 97.651, -51.2605, 45.8832
3.776, 2, 35.8884, 48.0644, -14.0086, 97.651, -51.2605, 45.8832
3.78, 2, 35.8884, 48.0644, -14.0086, 97.651, -51.2605, 45.8832
3.784, 2, 35.8884, 48.0644, -14.0086, 97.651, -51.2605, 45.8832
3.788, 2, 35.8884, 48.0644, -14.0086, 97.651, -51.2605, 45.8832
3.792, 2, 35.8884, 48.0644, -14.0086, 97.651, -51.2605, 45.8832
3.796, 2, 35.8884, 48.0644, -14.0086, 97.651, -51.2605, 45.8832
3.8, 2, 35.8884, 48.0644, -14.0086, 97.651, -51.2605, 45.8832
3.804, 2, 35.8884, 48.0644, -14.0086, 97.651, -51.2605, 45.8832
3.808, 2, 35.8884, 48.0644, -14.0086, 97.651, -51.2605, 45.8832
3.812, 2, 35.8884, 48.0644, -14.0086, 97.651, -51.2605, 45.8832
3.816, 2, 35.8884, 48.0644, -14.0086, 97.651, -51.2605, 45.8832
3.82, 2, 35.8884, 48.0644, -14.0086, 97.651, -51.2605, 45.8832
3.824, 2, 35.8884, 48.0644, -14.0086, 97.651, -51.2605, 45.8832
3.828, 2, 35.8884, 48.0644, -14.0086, 97.651, -51.2605, 45.8832
3.832, 2, 35.8884, 48.0644, -14.0086, 97.651, -51.2605, 45.8832
3.836, 2, 35.8884, 48.0644, -14.0086, 97.651, -51.2605, 45.8832
3.84, 2, 35.8884, 48.0644, -14.0086, 97.651, -51.2605, 45.8832
3.844, 2, 35.8884, 48.0644, -14.0086, 97.651, -51.2605, 45.8832
3.848, 2, 35.8884, 48.0644, -14.0086, 97.651, -51.2605, 45.8832
3.852, 2, 35.8884, 48.0644, -14.0086, 97.651, -51.2605, 45.8832
3.856, 2, 35.8884, 48.0644, -14.0086, 97.651, -51.2605, 45.8832
3.86, 2, 35.8884, 48.0644, -14.0086, 97.651, -51.2605, 45.8832
3.864, 2, 35.8884, 48.0644, -14.0086, 97.651, -51.2605, 45.8832
3.868, 2, 35.8884, 48.0644, -14.0086, 97.651, -51.2605, 45.8832
3.872, 2, 35.8884, 48.0644, -14.0086, 97.651, -51.2605, 45.8832
3.876, 2, 35.8884, 48.0644, -14.0086, 97.651, -51.2605, 45.8832
3.88, 2, 35.8884, 48.0644, -14.0086, 97.651, -51.2605, 45.8832
3.884, 2, 35.8884, 48.0644, -14.0086, 97.651, -51.2605, 45.8832
3.888, 2, 35.8884, 48.0644, -14.0086, 97.651, -51.2605, 45.8832
3.892, 2, 35.8884, 48.0644, -14.0086, 97.651, -51.2605, 45.8832
3.896, 2, 35.8884, 48.0644, -14.0086, 97.651, -51.2605, 45.8832
3.9, 2, 35.8884, 48.0644, -14.0086, 97.651, -51.2605, 45.8832
3.904, 2, 35.8884, 48.0644, -14.0086, 97.651, -51.2605, 45.8832
3.908, 2, 35.8884, 48.0644, -14.0086, 97.651, -51.2605, 45.8832
3.912, 2, 35.8884, 48.0644, -14.0086, 97.651, -51.2605, 45.8832
3.916, 2, 35.8884, 48.0644, -14.0086, 97.651, -51.2605, 45.8832
3.92, 2, 35.8884, 48.0644, -14.0086, 97.651, -51.2605, 45.8832
3.924, 2, 35.8884, 48.0644, -14.0086, 97.651, -51.2605, 45.8832
3.928, 2, 35.8884, 48.0644, -14.0086, 97.651, -51.2605, 45.8832
3.932, 2, 35.8884, 48.0644, -14.0086, 97.651, -51.2605, 45.8832
3.936, 2, 35.8884, 48.0644, -14.0086, 97.651, -51.2605, 45.8832
3.94, 2, 35.8884, 48.0644, -14.0086, 97.651, -51.2605, 45.8832
3.944, 2, 35.8884, 48.0644, -14.0086, 97.651, -51.2605, 45.8832
3.948, 2, 35.8884, 48.0644, -14.0086, 97.651, -51.2605, 45.8832
3.952, 2, 35.8884, 48.0644, -14.0086, 97.651, -51.2605, 45.8832
3.956, 2, 35.8884, 48.0644, -14.0086, 97.651, -51.2605, 45.8832
3.96, 2, 35.8884, 48.0644, -14.0086, 97.651, -51.2605, 45.8832
3.964, 2, 35.8884, 48.0644, -14.0086, 97.651, -51.2605, 45.8832
3.968, 2, 35.8884, 48.0644, -14.0086, 97.651, -51.2605, 45.8832
3.972, 2, 35.8884, 48.0644, -14.0086, 97.651, -51.2605, 45.8832
3.976, 2, 35.8884, 48.0644, -14.0086, 97.651, -51.2605, 45.8832
3.98, 2, 35.8884, 48.0644, -14.0086, 97.651, -51.2605, 45.8832
3.984, 2, 35.8884, 48.0644, -14.0086, 97.651, -51.2605, 45.8832
3.988, 2, 35.8884, 48.0644, -14.0086, 97.651, -51.2605, 45.8832
3.992, 2, 35.8884, 48.0644, -14.0086, 97.651, -51.2605, 45.8832
3.996, 2, 35.8884, 48.0644, -14.0086, 97.651, -51.2605, 45.8832
3.999, 2, 35.8884, 48.0644, -14.0086, 97.651, -51.2605, 45.8832
4.004, 2, 35.8884, 48.0644, -14.0086, 97.651, -51.2605, 45.8832
4.008, 2, 35.8884, 48.0644, -14.0086, 97.651, -51.2605, 45.8832
4.012, 2, 35.8884, 48.0644, -14.0086, 97.651, -51.2605, 45.8832
4.016, 2, 35.8884, 48.0644, -14.0086, 97.651, -51.2605, 45.8832
4.02, 2, 35.8884, 48.0644, -14.0086, 97.651, -51.2605, 45.8832
4.024, 2, 35.8884, 48.0644, -14.0086, 97.651, -51.2605, 45.8832
4.028, 2, 35.8884, 48.0644, -14.0086, 97.651, -51.2605, 45.8832
4.032, 2, 35.8884, 48.0644, -14.0086, 97.651, -51.2605, 45.8832
4.036, 2, 35.8884, 48.0644, -14.0086, 97.651, -51.2605, 45.8832
4.04, 2, 35.8884, 48.0644, -14.0086, 97.651, -51.2605, 45.8832
4.044, 2, 35.8884, 48.0644, -14.0086, 97.651, -51.2605, 45.8832
4.048, 2, 35.8884, 48.0644, -14.0086, 97.651, -51.2605, 45.8832
4.052, 2, 35.8884, 48.0644, -14.0086, 97.651, -51.2605, 45.8832
4.056, 2, 35.8884, 48.0644, -14.0086, 97.651, -51.2605, 45.8832
4.06, 2, 35.8884, 48.0644, -14.0086, 97.651, -51.2605, 45.8832
4.064, 2, 35.8884, 48.0644, -14.0086, 97.651, -51.2605, 45.8832
4.068, 2, 35.8884, 48.0644, -14.0086, 97.651, -51.2605, 45.8832
4.072, 2, 35.8884, 48.0644, -14.0086, 97.651, -51.2605, 45.8832
4.076, 2, 35.8884, 48.0644, -14.0086, 97.651, -51.2605, 45.8832
4.08, 2, 35.8884, 48.0644, -14.0086, 97.651, -51.2605, 45.8832
4.084, 2, 35.8884, 48.0644, -14.0086, 97.651, -51.2605, 45.8832
4.088, 2, 35.8884, 48.0644, -14.0086, 97.651, -51.2605, 45.8832
4.092, 2, 35.8884, 48.0644, -14.0086, 97.651, -51.2605, 45.8832
4.096, 2, 35.8884, 48.0644, -14.0086, 97.651, -51.2605, 45.8832
4.1, 2, 35.8884, 48.0644, -14.0086, 97.651, -51.2605, 45.8832
4.104, 2, 35.8884, 48.0644, -14.0086, 97.651, -51.2605, 45.8832
4.108, 2, 35.8884, 48.0644, -14.0086, 97.651, -51.2605, 45.8832
4.112, 2, 35.8884, 48.0644, -14.0086, 97.651, -51.2605, 45.8832
4.116, 2, 35.8884, 48.0644, -14.0086, 97.651, -51.2605, 45.8832
4.12, 2, 35.8884, 48.0644, -14.0086, 97.651, -51.2605, 45.8832
4.124, 2, 35.8884, 48.0644, -14.0086, 97.651, -51.2605, 45.8832
4.128, 2, 35.8884, 48.0644, -14.0086, 97.651, -51.2605, 45.8832
4.132, 2, 35.8884, 48.0644, -14.0086, 97.651, -51.2605, 45.8832
4.136, 2, 35.8884, 48.0644, -14.0086, 97.651, -51.2605, 45.8832
4.14, 2, 35.8884, 48.0644, -14.0086, 97.651, -51.2605, 45.8832
4.144, 2, 35.8884, 48.0644, -14.0086, 97.651, -51.2605, 45.8832
4.148, 2, 35.8884, 48.0644, -14.0086, 97.651, -51.2605, 45.8832
4.152, 2, 35.8884, 48.0644, -14.0086, 97.651, -51.2605, 45.8832
4.156, 2, 35.8884, 48.0644, -14.0086, 97.651, -51.2605, 45.8832
4.16, 2, 35.8884, 48.0644, -14.0086, 97.651, -51.2605, 45.8832
4.164, 2, 35.8884, 48.0644, -14.0086, 97.651, -51.2605, 45.8832
4.168, 2, 35.8884, 48.0644, -14.0086, 97.651, -51.2605, 45.8832
4.172, 2, 35.8884, 48.0644, -14.0086, 97.651, -51.2605, 45.8832
4.176, 2, 35.8884, 48.0644, -14.0086, 97.651, -51.2605, 45.8832
4.18, 2, 35.8884, 48.0644, -14.0086, 97.651, -51.2605, 45.8832
4.184, 2, 35.8884, 48.0644, -14.0086, 97.651, -51.2605, 45.8832
4.188, 2, 35.8884, 48.0644, -14.0086, 97.651, -51.2605, 45.8832
4.192, 2, 35.8884, 48.0644, -14.0086, 97.651, -51.2605, 45.8832
4.196, 2, 35.8884, 48.0644, -14.0086, 97.651, -51.2605, 45.8832
4.2, 2, 35.8884, 48.0644, -14.0086, 97.651, -51.2605, 45.8832
4.204, 2, 35.8884, 48.0644, -14.0086, 97.651, -51.2605, 45.8832
4.208, 2, 35.8884, 48.0644, -14.0086, 97.651, -51.2605, 45.8832
4.212, 2, 35.8884, 48.0644, -14.0086, 97.651, -51.2605, 45.8832
4.216, 2, 35.8884, 48.0644, -14.0086, 97.651, -51.2605, 45.8832
4.22, 2, 35.8884, 48.0644, -14.0086, 97.651, -51.2605, 45.8832
4.224, 2, 35.8884, 48.0644, -14.0086, 97.651, -51.2605, 45.8832
4.228, 2, 35.8884, 48.0644, -14.0086, 97.651, -51.2605, 45.8832
4.232, 2, 35.8884, 48.0644, -14.0086, 97.651, -51.2605, 45.8832
4.236, 2, 35.8884, 48.0644, -14.0086, 97.651, -51.2605, 45.8832
4.24, 2, 35.8884, 48.0644, -14.0086, 97.651, -51.2605, 45.8832
4.244, 2, 35.8884, 48.0644, -14.0086, 97.651, -51.2605, 45.8832
4.248, 2, 35.8884, 48.0644, -14.0086, 97.651, -51.2605, 45.8832
4.252, 2, 35.8884, 48.0644, -14.0086, 97.651, -51.2605, 45.8832
4.256, 2, 35.8884, 48.0644, -14.0086, 97.651, -51.2605, 45.8832
4.26, 2, 35.8884, 48.0644, -14.0086, 97.651, -51.2605, 45.8832
4.264, 2, 35.8884, 48.0644, -14.0086, 97.651, -51.2605, 45.8832
4.268, 2, 35.8884, 48.0644, -14.0086, 97.651, -51.2605, 45.8832
4.272, 2, 35.8884, 48.0644, -14.0086, 97.651, -51.2605, 45.8832
4.276, 2, 35.8884, 48.0644, -14.0086, 97.651, -51.2605, 45.8832
4.28, 2, 35.8884, 48.0644, -14.0086, 97.651, -51.2605, 45.8832
4.284, 2, 35.8884, 48.0644, -14.0086, 97.651, -51.2605, 45.8832
4.288, 2, 35.8884, 48.0644, -14.0086, 97.651, -51.2605, 45.8832
4.292, 2, 35.8884, 48.0644, -14.0086, 97.651, -51.2605, 45.8832
4.296, 2, 35.8884, 48.0644, -14.0086, 97.651, -51.2605, 45.8832
4.3, 2, 35.8884, 48.0644, -14.0086, 97.651, -51.2605, 45.8832
4.304, 2, 35.8884, 48.0644, -14.0086, 97.651, -51.2605, 45.8832
4.308, 2, 35.8884, 48.0644, -14.0086, 97.651, -51.2605, 45.8832
4.312, 2, 35.8884, 48.0644, -14.0086, 97.651, -51.2605, 45.8832
4.316, 2, 35.8884, 48.0644, -14.0086, 97.651, -51.2605, 45.8832
4.32, 2, 35.8884, 48.0644, -14.0086, 97.651, -51.2605, 45.8832
4.324, 2, 35.8884, 48.0644, -14.0086, 97.651, -51.2605, 45.8832
4.328, 2, 35.8884, 48.0644, -14.0086, 97.651, -51.2605, 45.8832
4.332, 2, 35.8884, 48.0644, -14.0086, 97.651, -51.2605, 45.8832
4.336, 2, 35.8884, 48.0644, -14.0086, 97.651, -51.2605, 45.8832
4.34, 2, 35.8884, 48.0644, -14.0086, 97.651, -51.2605, 45.8832
4.344, 2, 35.8884, 48.0644, -14.0086, 97.651, -51.2605, 45.8832
4.348, 2, 35.8884, 48.0644, -14.0086, 97.651, -51.2605, 45.8832
4.352, 2, 35.8884, 48.0644, -14.0086, 97.651, -51.2605, 45.8832
4.356, 2, 35.8884, 48.0644, -14.0086, 97.651, -51.2605, 45.8832
4.36, 2, 35.8884, 48.0644, -14.0086, 97.651, -51.2605, 45.8832
4.364, 2, 35.8884, 48.0644, -14.0086, 97.651, -51.2605, 45.8832
4.368, 2, 35.8884, 48.0644, -14.0086, 97.651, -51.2605, 45.8832
4.372, 2, 35.8884, 48.0644, -14.0086, 97.651, -51.2605, 45.8832
4.376, 2, 35.8884, 48.0644, -14.0086, 97.651, -51.2605, 45.8832
4.38, 2, 35.8884, 48.0644, -14.0086, 97.651, -51.2605, 45.8832
4.384, 2, 35.8884, 48.0644, -14.0086, 97.651, -51.2605, 45.8832
4.388, 2, 35.8884, 48.0644, -14.0086, 97.651, -51.2605, 45.8832
4.392, 2, 35.8884, 48.0644, -14.0086, 97.651, -51.2605, 45.8832
4.396, 2, 35.8884, 48.0644, -14.0086, 97.651, -51.2605, 45.8832
4.4, 3, 35.8884, 48.0644, -14.0086, 97.651, -51.2605, 45.8832
4.404, 3, 35.8884, 48.0644, -14.0086, 97.651, -51.2605, 45.8832
4.408, 3, 35.8884, 48.0644, -14.0086, 97.651, -51.2605, 45.8832
4.412, 3, 35.8884, 48.0644, -14.0086, 97.651, -51.2605, 45.8832
4.416, 3, 35.8884, 48.0644, -14.0086, 97.651, -51.2605, 45.8832
4.42, 3, 35.8884, 48.0644, -14.0086, 97.651, -51.2605, 45.8832
4.424, 3, 35.8884, 48.0644, -14.0086, 97.651, -51.2605, 45.8832
4.428, 3, 35.8884, 48.0644, -14.0086, 97.651, -51.2605, 45.8832
4.432, 3, 35.8884, 48.0644, -14.0086, 97.651, -51.2605, 45.8832
4.436, 4, 35.8884, 48.0644, -14.0086, 97.651, -51.2605, 45.8832
4.44, 4, 35.8884, 48.0644, -14.0086, 97.651, -51.2605, 45.8832
4.444, 4, 35.8884, 48.0644, -14.0086, 97.651, -51.2605, 45.8832
4.448, 4, 35.8884, 48.0644, -14.0086, 97.651, -51.2605, 45.8832
4.452, 4, 35.8884, 48.0644, -14.0086, 97.651, -51.2605, 45.8832
4.456, 4, 35.8884, 48.0644, -14.0086, 97.651, -51.2605, 45.8832
4.46, 4, 35.8884, 48.0644, -14.0086, 97.651, -51.2605, 45.8832
4.464, 4, 35.8884, 48.0644, -14.0086, 97.651, -51.2605, 45.8832
4.468, 4, 35.8884, 48.0644, -14.0086, 97.651, -51.2605, 45.8832
4.472, 4, 35.8884, 48.0644, -14.0086, 97.651, -51.2605, 45.8832
4.476, 4, 35.8884, 48.0644, -14.0086, 97.651, -51.2605, 45.8832
4.48, 4, 35.8884, 48.0644, -14.0086, 97.651, -51.2605, 45.8832
4.484, 4, 35.8884, 48.0644, -14.0086, 97.651, -51.2605, 45.8832
4.488, 4, 35.8884, 48.0644, -14.0086, 97.651, -51.2605, 45.8832
4.492, 4, 35.8884, 48.0644, -14.0086, 97.651, -51.2605, 45.8832
4.496, 4, 35.8884, 48.0644, -14.0086, 97.651, -51.2605, 45.8832
4.5, 4, 35.8884, 48.0644, -14.0086, 97.651, -51.2605, 45.8832
4.504, 4, 35.8884, 48.0644, -14.0086, 97.651, -51.2605, 45.8832
4.508, 4, 35.8884, 48.0644, -14.0086, 97.651, -51.2605, 45.8832
4.512, 4, 35.8884, 48.0644, -14.0086, 97.651, -51.2605, 45.8832
4.516, 4, 35.8884, 48.0644, -14.0086, 97.651, -51.2605, 45.8832
4.52, 4, 35.8884, 48.0644, -14.0086, 97.651, -51.2605, 45.8832
4.524, 4, 35.8884, 48.0644, -14.0086, 97.651, -51.2605, 45.8832
4.528, 4, 35.8884, 48.0644, -14.0086, 97.651, -51.2605, 45.8832
4.532, 4, 35.8884, 48.0644, -14.0086, 97.651, -51.2605, 45.8832
4.536, 5, 35.8884, 48.0644, -14.0086, 97.651, -51.2605, 45.8832
4.54, 6, 35.8884, 48.0644, -14.0086, 97.651, -51.2605, 45.8832
4.544, 6, 35.8884, 48.0644, -14.0086, 97.651, -51.2605, 45.8832
4.548, 6, 35.8884, 48.0644, -14.0086, 97.651, -51.2605, 45.8832
4.552, 7, 35.8884, 48.0644, -14.0086, 97.651, -51.2605, 45.8832
4.556, 7, 35.8884, 48.0644, -14.0086, 97.651, -51.2605, 45.8832
4.56, 7, 35.8884, 48.0644, -14.0086, 97.651, -51.2605, 45.8832
4.564, 8, 35.8884, 48.0644, -14.0086, 97.651, -51.2605, 45.8832
4.568, 8, 35.8884, 48.0644, -14.0086, 97.651, -51.2605, 45.8832
4.572, 8, 35.8884, 48.0644, -14.0086, 97.651, -51.2605, 45.8832
4.576, 8, 35.8884, 48.0644, -14.0086, 97.651, -51.2605, 45.8832
4.58, 8, 35.8884, 48.0644, -14.0086, 97.651, -51.2605, 45.8832
4.584, 8, 35.8884, 48.0645, -14.0086, 97.651, -51.2605, 45.8832
4.588, 8, 35.8884, 48.0646, -14.0086, 97.651, -51.2605, 45.8832
4.592, 8, 35.8884, 48.065, -14.0086, 97.651, -51.2605, 45.8832
4.596, 8, 35.8884, 48.0657, -14.0086, 97.651, -51.2606, 45.8831
4.6, 8, 35.8884, 48.067, -14.0087, 97.651, -51.261, 45.883
4.604, 8, 35.8885, 48.0688, -14.0088, 97.6509, -51.2617, 45.8828
4.608, 8, 35.8885, 48.0714, -14.009, 97.6509, -51.263, 45.8823
4.612, 8, 35.8885, 48.0749, -14.0093, 97.6507, -51.2652, 45.8816
4.616, 8, 35.8885, 48.0793, -14.0098, 97.6504, -51.2688, 45.8803
4.62, 8, 35.8886, 48.0849, -14.0106, 97.65, -51.2744, 45.8784
4.624, 8, 35.8886, 48.0919, -14.0117, 97.6493, -51.2825, 45.8757
4.628, 8, 35.8886, 48.1006, -14.0132, 97.6484, -51.2938, 45.8718
4.632, 8, 35.8886, 48.1112, -14.0153, 97.6472, -51.3093, 45.8666
4.636, 9, 35.8886, 48.1238, -14.0181, 97.6455, -51.3297, 45.8597
4.64, 9, 35.8885, 48.1387, -14.0217, 97.6433, -51.3562, 45.8508
4.644, 9, 35.8884, 48.1559, -14.0262, 97.6405, -51.3898, 45.8394
4.648, 9, 35.8883, 48.1755, -14.0318, 97.637, -51.4314, 45.8254
4.652, 9, 35.8881, 48.1979, -14.0386, 97.6327, -51.4821, 45.8084
4.656, 9, 35.8879, 48.2232, -14.0466, 97.6274, -51.5429, 45.788
4.66, 9, 35.8877, 48.2516, -14.0561, 97.621, -51.6146, 45.7639
4.664, 9, 35.8873, 48.2833, -14.067, 97.6135, -51.6981, 45.736
4.668, 9, 35.8869, 48.3186, -14.0794, 97.6048, -51.7941, 45.7039
4.672, 9, 35.8862, 48.3575, -14.0935, 97.5946, -51.9031, 45.6676
4.676, 9, 35.8855, 48.4004, -14.1092, 97.583, -52.0258, 45.6269
4.68, 9, 35.8846, 48.4473, -14.1265, 97.5697, -52.1626, 45.5815
4.684, 9, 35.8836, 48.4983, -14.1455, 97.5547, -52.3138, 45.5316
4.688, 9, 35.8825, 48.5537, -14.166, 97.5379, -52.4796, 45.477
4.692, 9, 35.8812, 48.6135, -14.1882, 97.5191, -52.6602, 45.4177
4.696, 9, 35.8799, 48.678, -14.2118, 97.4982, -52.8557, 45.3537
4.7, 9, 35.8785, 48.7471, -14.2369, 97.475, -53.0663, 45.2851
4.704, 9, 35.8769, 48.8209, -14.2634, 97.4495, -53.2919, 45.2118
4.708, 10, 35.8751, 48.8995, -14.2912, 97.4214, -53.5327, 45.134
4.712, 10, 35.873, 48.9828, -14.3201, 97.3907, -53.7886, 45.0516
4.716, 10, 35.8706, 49.0708, -14.3501, 97.3571, -54.0597, 44.9647
4.72, 10, 35.8678, 49.1635, -14.3811, 97.3205, -54.346, 44.8734
4.724, 10, 35.8646, 49.2608, -14.4129, 97.2807, -54.6475, 44.7777
4.728, 10, 35.8609, 49.3624, -14.4454, 97.2375, -54.9642, 44.6777
4.732, 10, 35.8568, 49.4683, -14.4785, 97.1908, -55.2961, 44.5734
4.736, 10, 35.8522, 49.578, -14.5121, 97.1404, -55.6429, 44.465
4.74, 10, 35.847, 49.6913, -14.5459, 97.0861, -56.0046, 44.3525
4.744, 10, 35.8414, 49.808, -14.5799, 97.0277, -56.3807, 44.2362
4.748, 10, 35.8351, 49.9278, -14.6137, 96.9652, -56.7708, 44.1161
4.752, 10, 35.8282, 50.0506, -14.6472, 96.8985, -57.1743, 43.9926
4.756, 10, 35.8206, 50.1763, -14.68, 96.8276, -57.5903, 43.8659
4.76, 10, 35.8123, 50.3044, -14.712, 96.7524, -58.0181, 43.7363
4.764, 10, 35.8034, 50.4344, -14.7429, 96.6729, -58.4567, 43.6041
4.768, 10, 35.7937, 50.5658, -14.7724, 96.5892, -58.9049, 43.4697
4.772, 10, 35.7835, 50.6979, -14.8005, 96.5015, -59.3616, 43.3334
4.776, 10, 35.7727, 50.8302, -14.8267, 96.4098, -59.8253, 43.1957
4.78, 11, 35.7613, 50.9624, -14.8511, 96.3145, -60.2944, 43.057
4.784, 11, 35.7492, 51.0943, -14.8733, 96.2158, -60.7673, 42.9178
4.788, 11, 35.7366, 51.2258, -14.8933, 96.114, -61.2422, 42.7785
4.792, 11, 35.7233, 51.3568, -14.911, 96.0096, -61.7173, 42.6398
4.796, 11, 35.7094, 51.487, -14.9262, 95.903, -62.1909, 42.502
4.8, 11, 35.6949, 51.6161, -14.9389, 95.7946, -62.6614, 42.3657
4.804, 11, 35.6799, 51.7437, -14.9491, 95.6848, -63.127, 42.2312
4.808, 11, 35.6646, 51.8692, -14.9569, 95.5741, -63.5862, 42.0989
4.812, 11, 35.6491, 51.9923, -14.9622, 95.463, -64.0376, 41.9693
4.816, 11, 35.6333, 52.1129, -14.9651, 95.3519, -64.4798, 41.8427
4.82, 11, 35.6174, 52.2307, -14.9658, 95.2413, -64.9116, 41.7193
4.824, 11, 35.6012, 52.3455, -14.9643, 95.1316, -65.332, 41.5995
4.828, 11, 35.5848, 52.4572, -14.9608, 95.0232, -65.7401, 41.4835
4.832, 11, 35.5682, 52.5655, -14.9555, 94.9164, -66.1352, 41.3713
4.836, 11, 35.5512, 52.6702, -14.9486, 94.8115, -66.5168, 41.2632
4.84, 11, 35.534, 52.7708, -14.9401, 94.7089, -66.8845, 41.1591
4.844, 11, 35.5167, 52.8673, -14.9303, 94.6087, -67.2381, 41.0592
4.848, 11, 35.4994, 52.9595, -14.9193, 94.5112, -67.5774, 40.9634
4.852, 11, 35.4822, 53.0472, -14.9074, 94.4166, -67.9023, 40.8718
4.856, 11, 35.4652, 53.1305, -14.8946, 94.3252, -68.2125, 40.7844
4.86, 11, 35.4485, 53.2094, -14.8813, 94.237, -68.5081, 40.7012
4.864, 11, 35.4322, 53.2839, -14.8675, 94.1524, -68.7888, 40.6222
4.868, 11, 35.4164, 53.3541, -14.8535, 94.0714, -69.0546, 40.5475
4.872, 11, 35.4011, 53.4199, -14.8393, 93.9942, -69.3054, 40.477
4.876, 11, 35.3862, 53.4816, -14.8251, 93.921, -69.5411, 40.4108
4.88, 11, 35.3714, 53.5393, -14.811, 93.8518, -69.7618, 40.3488
4.884, 11, 35.3564, 53.5935, -14.797, 93.7868, -69.9674, 40.2913
4.888, 11, 35.3409, 53.6445, -14.783, 93.7258, -70.1582, 40.2381
4.892, 11, 35.3242, 53.6927, -14.7687, 93.6685, -70.3346, 40.1894
4.896, 11, 35.3064, 53.7386, -14.7539, 93.6146, -70.4973, 40.1453
4.9, 11, 35.2872, 53.7826, -14.738, 93.5636, -70.6473, 40.1057
4.904, 11, 35.2669, 53.8249, -14.7205, 93.5145, -70.7861, 40.0707
4.908, 11, 35.2456, 53.8656, -14.7007, 93.4665, -70.9153, 40.0401
4.912, 11, 35.2235, 53.9044, -14.6775, 93.4185, -71.037, 40.0139
4.916, 11, 35.2006, 53.9412, -14.65, 93.3694, -71.1535, 39.9919
4.92, 11, 35.1769, 53.9759, -14.6173, 93.3179, -71.2672, 39.9737
4.924, 11, 35.1523, 54.0084, -14.5783, 93.2626, -71.3807, 39.9592
4.928, 11, 35.1265, 54.0385, -14.5323, 93.2025, -71.4964, 39.948
4.932, 11, 35.0997, 54.0662, -14.4786, 93.1362, -71.617, 39.9398
4.936, 11, 35.0717, 54.0914, -14.4166, 93.0626, -71.7448, 39.9341
4.94, 11, 35.0424, 54.1142, -14.3459, 92.9808, -71.882, 39.9306
4.944, 11, 35.0117, 54.1345, -14.2662, 92.89, -72.0305, 39.9288
4.948, 11, 34.9795, 54.1524, -14.177, 92.7895, -72.1918, 39.9284
4.952, 11, 34.9454, 54.1683, -14.078, 92.679, -72.367, 39.929
4.956, 11, 34.9094, 54.1822, -13.969, 92.5581, -72.5571, 39.9302
4.96, 11, 34.8713, 54.1943, -13.8501, 92.4268, -72.7623, 39.9319
4.964, 11, 34.8314, 54.2048, -13.7215, 92.2851, -72.9828, 39.9337
4.968, 11, 34.7898, 54.2137, -13.5833, 92.1334, -73.2183, 39.9355
4.972, 11, 34.7466, 54.2211, -13.4358, 91.9722, -73.468, 39.9372
4.976, 11, 34.7022, 54.2267, -13.2795, 91.802, -73.731, 39.9386
4.98, 11, 34.6566, 54.2308, -13.1149, 91.6239, -74.0059, 39.9396
4.984, 11, 34.6102, 54.2332, -12.9426, 91.4387, -74.2911, 39.9402
4.988, 11, 34.563, 54.2344, -12.7637, 91.2479, -74.5848, 39.9402
4.992, 11, 34.5152, 54.2345, -12.5791, 91.0525, -74.8848, 39.9396
4.996, 11, 34.467, 54.2336, -12.3902, 90.8542, -75.1891, 39.9384
5, 11, 34.4184, 54.2321, -12.1985, 90.6543, -75.4954, 39.9365
5.004, 11, 34.3694, 54.2301, -12.0054, 90.4543, -75.8015, 39.9339
5.008, 11, 34.32, 54.2281, -11.8124, 90.2557, -76.1051, 39.9308
5.012, 11, 34.2701, 54.2262, -11.6209, 90.0598, -76.4041, 39.927
5.016, 11, 34.2196, 54.2246, -11.4322, 89.8679, -76.6966, 39.9226
5.02, 11, 34.1687, 54.2234, -11.2475, 89.6813, -76.9808, 39.9177
5.024, 11, 34.1178, 54.2227, -11.0678, 89.5008, -77.2553, 39.9124
5.028, 11, 34.0672, 54.2223, -10.894, 89.3273, -77.5189, 39.9067
5.032, 11, 34.0175, 54.2222, -10.7269, 89.1613, -77.7707, 39.9006
5.036, 11, 33.969, 54.2221, -10.5671, 89.0035, -78.01, 39.8944
5.04, 11, 33.9223, 54.2218, -10.415, 88.8539, -78.2365, 39.8881
5.044, 11, 33.8775, 54.2212, -10.2711, 88.713, -78.4496, 39.8817
5.048, 11, 33.8346, 54.2202, -10.1354, 88.5809, -78.6492, 39.8754
5.052, 11, 33.7936, 54.2188, -10.0081, 88.4576, -78.8352, 39.8693
5.056, 11, 33.7542, 54.217, -9.88917, 88.3431, -79.0075, 39.8637
5.06, 11, 33.7161, 54.2149, -9.7783, 88.2372, -79.1662, 39.859
5.064, 11, 33.6789, 54.2124, -9.67502, 88.1396, -79.3115, 39.8555
5.068, 11, 33.6423, 54.2096, -9.57864, 88.0497, -79.4438, 39.8539
5.072, 11, 33.6059, 54.2064, -9.48821, 87.9667, -79.5637, 39.8547
5.076, 11, 33.5696, 54.2025, -9.40256, 87.8898, -79.672, 39.8586
5.08, 11, 33.5332, 54.1977, -9.32035, 87.8178, -79.7697, 39.8663
5.084, 11, 33.4967, 54.1916, -9.24006, 87.7495, -79.8582, 39.8785
5.088, 11, 33.4601, 54.1838, -9.16006, 87.6835, -79.9387, 39.8957
5.092, 11, 33.4235, 54.174, -9.07865, 87.6185, -80.0128, 39.9188
5.096, 11, 33.3868, 54.162, -8.99411, 87.553, -80.0821, 39.9482
5.1, 11, 33.35, 54.1475, -8.90476, 87.4857, -80.1481, 39.9844
5.104, 11, 33.3132, 54.1301, -8.80903, 87.4152, -80.2124, 40.0279
5.108, 11, 33.276, 54.1096, -8.70555, 87.3403, -80.2766, 40.0789
5.112, 11, 33.2383, 54.0854, -8.59315, 87.2599, -80.342, 40.1376
5.116, 12, 33.1998, 54.0572, -8.4709, 87.173, -80.4101, 40.204
5.12, 12, 33.1601, 54.0248, -8.33805, 87.0791, -80.4817, 40.2782
5.124, 12, 33.1188, 53.9879, -8.1941, 86.9775, -80.558, 40.3599
5.128, 12, 33.0756, 53.9465, -8.03873, 86.8678, -80.6394, 40.4492
5.132, 12, 33.0303, 53.9009, -7.87175, 86.75, -80.7265, 40.5456
5.136, 12, 32.9826, 53.8514, -7.69311, 86.6238, -80.8196, 40.6491
5.14, 12, 32.9325, 53.798, -7.50291, 86.4894, -80.9188, 40.7595
5.144, 12, 32.8798, 53.7411, -7.30138, 86.3469, -81.0242, 40.8764
5.148, 12, 32.8246, 53.6809, -7.08887, 86.1966, -81.1358, 40.9995
5.152, 12, 32.7669, 53.6176, -6.86588, 86.0387, -81.2533, 41.1285
5.156, 12, 32.707, 53.5514, -6.63298, 85.8737, -81.3766, 41.2629
5.16, 12, 32.6448, 53.4825, -6.39093, 85.7022, -81.5053, 41.4021
5.164, 12, 32.5808, 53.4112, -6.14057, 85.5246, -81.6391, 41.5458
5.168, 12, 32.5154, 53.3378, -5.88292, 85.3417, -81.7775, 41.6932
5.172, 12, 32.4488, 53.2626, -5.61908, 85.1543, -81.92, 41.8436
5.176, 12, 32.3815, 53.186, -5.35027, 84.9632, -82.066, 41.9964
5.18, 12, 32.3133, 53.1083, -5.07774, 84.7692, -82.2148, 42.1508
5.184, 12, 32.2444, 53.03, -4.80281, 84.5735, -82.3657, 42.306
5.188, 12, 32.1747, 52.9513, -4.52678, 84.3768, -82.518, 42.4612
5.192, 12, 32.1042, 52.8726, -4.25094, 84.1802, -82.6711, 42.6158
5.196, 12, 32.033, 52.7943, -3.9765, 83.9845, -82.8241, 42.7688
5.2, 12, 31.9612, 52.7166, -3.70462, 83.7905, -82.9765, 42.9199
5.204, 12, 31.889, 52.64, -3.43635, 83.599, -83.1277, 43.0683
5.208, 12, 31.8169, 52.5646, -3.17265, 83.4107, -83.2769, 43.2135
5.212, 12, 31.7449, 52.4906, -2.91435, 83.2262, -83.4239, 43.3552
5.216, 12, 31.6736, 52.4184, -2.66217, 83.046, -83.568, 43.4929
5.22, 12, 31.603, 52.348, -2.41673, 82.8706, -83.7089, 43.6263
5.224, 12, 31.5334, 52.2796, -2.17851, 82.7003, -83.8463, 43.7553
5.228, 12, 31.4653, 52.2134, -1.94793, 82.5354, -83.9799, 43.8796
5.232, 12, 31.3987, 52.1493, -1.72528, 82.3761, -84.1094, 43.9991
5.236, 12, 31.3341, 52.0875, -1.51083, 82.2225, -84.2346, 44.1139
5.24, 12, 31.2715, 52.0281, -1.30476, 82.0749, -84.3555, 44.2237
5.244, 12, 31.2111, 51.9711, -1.10722, 81.9333, -84.4718, 44.3286
5.248, 12, 31.1531, 51.9165, -0.918343, 81.7978, -84.5834, 44.4285
5.252, 12, 31.0973, 51.8643, -0.738181, 81.6685, -84.6902, 44.5235
5.256, 12, 31.0437, 51.8144, -0.566718, 81.5455, -84.7921, 44.6137
5.26, 12, 30.992, 51.7668, -0.403833, 81.4286, -84.8889, 44.6991
5.264, 12, 30.9418, 51.7212, -0.24928, 81.3178, -84.9806, 44.7802
5.268, 12, 30.8929, 51.6777, -0.102645, 81.2126, -85.067, 44.8574
5.272, 12, 30.8448, 51.6359, 0.0366869, 81.1125, -85.1483, 44.9314
5.276, 12, 30.7971, 51.5956, 0.169543, 81.0168, -85.2245, 45.0033
5.28, 12, 30.7495, 51.5566, 0.296956, 80.9246, -85.2957, 45.074
5.284, 12, 30.7019, 51.5184, 0.420149, 80.8348, -85.3625, 45.1448
5.288, 12, 30.6542, 51.4806, 0.540517, 80.7462, -85.4251, 45.2169
5.292, 12, 30.6065, 51.4429, 0.659598, 80.6574, -85.4842, 45.2916
5.296, 12, 30.5586, 51.4046, 0.779024, 80.5672, -85.5404, 45.3703
5.3, 12, 30.5105, 51.3655, 0.900452, 80.4742, -85.5944, 45.4542
5.304, 12, 30.4622, 51.3251, 1.02547, 80.3771, -85.6471, 45.5444
5.308, 12, 30.4137, 51.2834, 1.15552, 80.2746, -85.6991, 45.6422
5.312, 12, 30.3649, 51.24, 1.29184, 80.1657, -85.7514, 45.7484
5.316, 12, 30.3157, 51.1948, 1.43545, 80.0494, -85.8046, 45.8636
5.32, 12, 30.2662, 51.1476, 1.58711, 79.9252, -85.8595, 45.9882
5.324, 12, 30.2162, 51.0981, 1.7473, 79.7925, -85.9166, 46.1223
5.328, 12, 30.1654, 51.0461, 1.91621, 79.6515, -85.9765, 46.2657
5.332, 12, 30.1135, 50.9917, 2.0938, 79.5022, -86.0394, 46.4179
5.336, 12, 30.0604, 50.9347, 2.27976, 79.3451, -86.1054, 46.5784
5.34, 12, 30.0058, 50.8754, 2.47354, 79.1807, -86.1747, 46.7464
5.344, 12, 29.9499, 50.814, 2.67433, 79.0099, -86.2471, 46.9211
5.348, 12, 29.8929, 50.7508, 2.88113, 78.8333, -86.3224, 47.1014
5.352, 12, 29.8351, 50.6862, 3.09281, 78.652, -86.4003, 47.2865
5.356, 12, 29.7766, 50.6206, 3.30816, 78.4671, -86.4804, 47.4751
5.36, 12, 29.7175, 50.5544, 3.52592, 78.2795, -86.5623, 47.6662
5.364, 12, 29.6579, 50.4879, 3.7448, 78.0905, -86.6457, 47.8586
5.368, 12, 29.5975, 50.4216, 3.96357, 77.9011, -86.73, 48.0511
5.372, 12, 29.5365, 50.3559, 4.18101, 77.7124, -86.8147, 48.2426
5.376, 12, 29.475, 50.291, 4.39597, 77.5255, -86.8995, 48.4321
5.38, 13, 29.4133, 50.2274, 4.6074, 77.3412, -86.9838, 48.6187
5.384, 13, 29.3518, 50.1653, 4.81433, 77.1604, -87.0673, 48.8014
5.388, 13, 29.2908, 50.1049, 5.01592, 76.984, -87.1496, 48.9796
5.392, 13, 29.2308, 50.0466, 5.2114, 76.8125, -87.2302, 49.1526
5.396, 13, 29.172, 49.9904, 5.40013, 76.6465, -87.3088, 49.3198
5.4, 13, 29.1147, 49.9366, 5.58154, 76.4867, -87.3852, 49.4806
5.404, 13, 29.059, 49.8852, 5.75518, 76.3335, -87.459, 49.6346
5.408, 13, 29.0051, 49.8363, 5.92067, 76.1872, -87.5299, 49.7814
5.412, 13, 28.9531, 49.7898, 6.07777, 76.0482, -87.5979, 49.9209
5.416, 13, 28.9031, 49.7455, 6.22633, 75.9166, -87.6627, 50.0528
5.42, 13, 28.8548, 49.7033, 6.36636, 75.7925, -87.7241, 50.177
5.424, 13, 28.8081, 49.6629, 6.49802, 75.676, -87.782, 50.2936
5.428, 13, 28.7626, 49.624, 6.62166, 75.567, -87.8362, 50.4029
5.432, 13, 28.718, 49.5864, 6.73781, 75.4653, -87.8868, 50.5051
5.436, 13, 28.6739, 49.5499, 6.84721, 75.3702, -87.9339, 50.6008
5.44, 13, 28.6301, 49.5144, 6.95077, 75.2814, -87.9773, 50.6908
5.444, 13, 28.5863, 49.4796, 7.0496, 75.1978, -88.0174, 50.776
5.448, 13, 28.5426, 49.4451, 7.14494, 75.1187, -88.0545, 50.8575
5.452, 13, 28.4988, 49.4107, 7.23815, 75.0429, -88.0889, 50.9365
5.456, 13, 28.4548, 49.3757, 7.33069, 74.9693, -88.121, 51.0141
5.46, 13, 28.4105, 49.3398, 7.42402, 74.8966, -88.1512, 51.0917
5.464, 13, 28.3659, 49.3025, 7.51961, 74.8238, -88.1801, 51.1706
5.468, 13, 28.3207, 49.2634, 7.61886, 74.7494, -88.2082, 51.252
5.472, 13, 28.2748, 49.2221, 7.72309, 74.6725, -88.236, 51.3372
5.476, 13, 28.2277, 49.1782, 7.83343, 74.5919, -88.264, 51.4272
5.48, 13, 28.1792, 49.1312, 7.95089, 74.5066, -88.2928, 51.5229
5.484, 13, 28.129, 49.0809, 8.07626, 74.4159, -88.3227, 51.6252
5.488, 13, 28.0767, 49.027, 8.21016, 74.3191, -88.3542, 51.7345
5.492, 13, 28.022, 48.9693, 8.353, 74.2157, -88.3877, 51.8514
5.496, 13, 27.9648, 48.9077, 8.50501, 74.1055, -88.4233, 51.976
5.5, 13, 27.9049, 48.8425, 8.66621, 73.9883, -88.4612, 52.1084
5.504, 13, 27.8423, 48.7738, 8.83649, 73.864, -88.5016, 52.2485
5.508, 13, 27.7771, 48.7019, 9.01554, 73.7329, -88.5444, 52.3962
5.512, 13, 27.7094, 48.6272, 9.20288, 73.5951, -88.5896, 52.5511
5.516, 13, 27.6392, 48.5498, 9.39792, 73.4511, -88.6372, 52.7127
5.52, 13, 27.5667, 48.4702, 9.5999, 73.3014, -88.6871, 52.8803
5.524, 13, 27.4922, 48.3886, 9.80798, 73.1465, -88.7391, 53.0534
5.528, 13, 27.416, 48.3053, 10.0212, 72.9872, -88.793, 53.231
5.532, 13, 27.3388, 48.2207, 10.2384, 72.8243, -88.8486, 53.4123
5.536, 13, 27.2606, 48.135, 10.4585, 72.6585, -88.9057, 53.5963
5.54, 13, 27.1819, 48.0486, 10.6803, 72.4907, -88.9639, 53.7821
5.544, 13, 27.1026, 47.9619, 10.9026, 72.3219, -89.0229, 53.9686
5.548, 13, 27.0227, 47.8754, 11.1243, 72.153, -89.0825, 54.1548
5.552, 13, 26.9425, 47.7894, 11.344, 71.9849, -89.1423, 54.3396
5.556, 13, 26.862, 47.7044, 11.5609, 71.8186, -89.202, 54.5222
5.56, 13, 26.7815, 47.6207, 11.7738, 71.6547, -89.2613, 54.7016
5.564, 13, 26.7016, 47.5389, 11.9818, 71.4941, -89.3199, 54.877
5.568, 13, 26.6228, 47.4592, 12.1841, 71.3373, -89.3775, 55.0478
5.572, 13, 26.5454, 47.382, 12.38, 71.1851, -89.4339, 55.2133
5.576, 13, 26.47, 47.3075, 12.5687, 71.038, -89.4888, 55.373
5.58, 13, 26.3967, 47.2358, 12.7499, 70.8963, -89.5421, 55.5264
5.584, 13, 26.3257, 47.167, 12.9232, 70.7605, -89.5934, 55.6732
5.588, 13, 26.2569, 47.1008, 13.0882, 70.631, -89.6425, 55.8131
5.592, 13, 26.1902, 47.0372, 13.245, 70.5078, -89.6893, 55.9462
5.596, 13, 26.1254, 46.976, 13.3936, 70.3909, -89.7335, 56.0726
5.6, 13, 26.0622, 46.9169, 13.5343, 70.2803, -89.7747, 56.1929
5.604, 13, 26.0004, 46.8597, 13.6676, 70.1754, -89.8127, 56.3078
5.608, 13, 25.9395, 46.804, 13.7943, 70.0758, -89.8474, 56.4182
5.612, 13, 25.8793, 46.7497, 13.9154, 69.9806, -89.8787, 56.5253
5.616, 13, 25.8196, 46.6962, 14.0319, 69.889, -89.9064, 56.6304
5.62, 13, 25.7604, 46.6434, 14.1451, 69.7998, -89.9307, 56.7349
5.624, 13, 25.7015, 46.5906, 14.2563, 69.712, -89.9516, 56.8404
5.628, 13, 25.6425, 46.5376, 14.367, 69.6243, -89.9693, 56.9483
5.632, 13, 25.5835, 46.484, 14.4785, 69.5356, -89.984, 57.0602
5.636, 13, 25.5242, 46.4294, 14.5924, 69.4446, -89.9961, 57.1774
5.64, 13, 25.4645, 46.3735, 14.7097, 69.3502, -90.0057, 57.3013
5.644, 14, 25.404, 46.3158, 14.8317, 69.2514, -90.0134, 57.433
5.648, 14, 25.3424, 46.2558, 14.9595, 69.1472, -90.0196, 57.5734
5.652, 14, 25.2794, 46.1932, 15.0937, 69.0368, -90.0245, 57.7232
5.656, 14, 25.2144, 46.1276, 15.2351, 68.9198, -90.0288, 57.883
5.66, 14, 25.1471, 46.0587, 15.3842, 68.7955, -90.0327, 58.053
5.664, 14, 25.0769, 45.9862, 15.5412, 68.6637, -90.0365, 58.2334
5.668, 14, 25.0034, 45.9102, 15.7063, 68.5243, -90.0404, 58.4244
5.672, 14, 24.9263, 45.8306, 15.8796, 68.377, -90.0447, 58.6259
5.676, 14, 24.8452, 45.7475, 16.061, 68.2218, -90.0494, 58.8379
5.68, 14, 24.76, 45.6609, 16.2504, 68.0586, -90.0548, 59.0604
5.684, 14, 24.6706, 45.571, 16.4476, 67.8875, -90.0609, 59.2933
5.688, 14, 24.5769, 45.4779, 16.6525, 67.7084, -90.0678, 59.5366
5.692, 14, 24.4789, 45.3816, 16.865, 67.5214, -90.0756, 59.7901
5.696, 14, 24.3764, 45.2824, 17.0847, 67.3264, -90.0844, 60.0536
5.7, 14, 24.2696, 45.1805, 17.3114, 67.1235, -90.0943, 60.3272
5.704, 14, 24.1582, 45.0759, 17.5449, 66.9128, -90.1054, 60.6105
5.708, 14, 24.0424, 44.969, 17.7849, 66.6943, -90.1177, 60.9035
5.712, 14, 23.922, 44.8598, 18.031, 66.4682, -90.1314, 61.2059
5.716, 14, 23.7973, 44.7486, 18.2831, 66.2345, -90.1464, 61.5176
5.72, 14, 23.6685, 44.6357, 18.5406, 65.9933, -90.163, 61.8383
5.724, 14, 23.5358, 44.5215, 18.8034, 65.7449, -90.1811, 62.1676
5.728, 14, 23.3995, 44.4061, 19.0708, 65.4894, -90.2008, 62.5053
5.732, 14, 23.2601, 44.2899, 19.3423, 65.2272, -90.2222, 62.8509
5.736, 14, 23.1178, 44.1731, 19.6173, 64.9587, -90.2453, 63.2036
5.74, 14, 22.973, 44.056, 19.8951, 64.6845, -90.2701, 63.5627
5.744, 14, 22.826, 43.9387, 20.1749, 64.4053, -90.2965, 63.9272
5.748, 14, 22.6771, 43.8215, 20.4557, 64.1219, -90.3246, 64.296
5.752, 14, 22.5266, 43.7048, 20.7367, 63.8353, -90.3544, 64.668
5.756, 14, 22.3749, 43.5889, 21.0169, 63.5463, -90.3856, 65.0418
5.76, 14, 22.2223, 43.4743, 21.2952, 63.2561, -90.4183, 65.4162
5.764, 14, 22.069, 43.3614, 21.5708, 62.9656, -90.4523, 65.7898
5.768, 14, 21.9152, 43.2505, 21.8427, 62.676, -90.4875, 66.1612
5.772, 14, 21.761, 43.142, 22.1099, 62.3882, -90.5236, 66.5292
5.776, 14, 21.6068, 43.0361, 22.3718, 62.1033, -90.5607, 66.8925
5.78, 14, 21.4529, 42.9331, 22.6275, 61.8222, -90.5985, 67.25
5.784, 14, 21.2997, 42.8331, 22.8764, 61.5457, -90.6368, 67.6007
5.788, 14, 21.1477, 42.7364, 23.1181, 61.2745, -90.6755, 67.9437
5.792, 14, 20.9975, 42.643, 23.3523, 61.0091, -90.7144, 68.2785
5.796, 14, 20.8494, 42.5533, 23.5786, 60.7501, -90.7535, 68.6044
5.8, 14, 20.7041, 42.4672, 23.7969, 60.4977, -90.7925, 68.9212
5.804, 14, 20.5617, 42.3847, 24.0071, 60.2523, -90.8314, 69.2286
5.808, 14, 20.4227, 42.306, 24.2091, 60.014, -90.87, 69.5263
5.812, 14, 20.2873, 42.2309, 24.4031, 59.7831, -90.9082, 69.8141
5.816, 14, 20.1555, 42.1594, 24.589, 59.5596, -90.9459, 70.0921
5.82, 14, 20.0277, 42.0914, 24.7669, 59.3438, -90.983, 70.3599
5.824, 14, 19.9038, 42.027, 24.9369, 59.1357, -91.0194, 70.6177
5.828, 14, 19.784, 41.9659, 25.0991, 58.9354, -91.0551, 70.8654
5.832, 14, 19.6685, 41.908, 25.2536, 58.743, -91.09, 71.1029
5.836, 14, 19.5573, 41.8534, 25.4006, 58.5584, -91.1239, 71.3303
5.84, 14, 19.4506, 41.8019, 25.5402, 58.3818, -91.1568, 71.5475
5.844, 14, 19.3483, 41.7534, 25.6725, 58.2131, -91.1886, 71.7547
5.848, 14, 19.2505, 41.7078, 25.7977, 58.0524, -91.2193, 71.9517
5.852, 14, 19.1573, 41.6649, 25.9158, 57.8996, -91.2489, 72.1388
5.856, 14, 19.0684, 41.6246, 26.0271, 57.7548, -91.2771, 72.3158
5.86, 14, 18.9837, 41.5866, 26.1317, 57.6179, -91.3041, 72.4831
5.864, 14, 18.9027, 41.5504, 26.23, 57.4888, -91.3296, 72.6409
5.868, 14, 18.8252, 41.5157, 26.3222, 57.3672, -91.3535, 72.7898
5.872, 14, 18.7506, 41.4823, 26.4088, 57.2527, -91.3757, 72.9305
5.876, 14, 18.6785, 41.4499, 26.4903, 57.1446, -91.3957, 73.0643
5.88, 14, 18.6083, 41.4182, 26.5673, 57.0423, -91.4135, 73.1924
5.884, 15, 18.5396, 41.3873, 26.6406, 56.9448, -91.4287, 73.3166
5.888, 15, 18.4721, 41.357, 26.7109, 56.8509, -91.4412, 73.4386
5.892, 15, 18.4054, 41.327, 26.7791, 56.7596, -91.4507, 73.5603
5.896, 15, 18.3393, 41.2971, 26.8463, 56.6695, -91.4571, 73.6836
5.9, 15, 18.2734, 41.2668, 26.9132, 56.5793, -91.4605, 73.8106
5.904, 15, 18.2074, 41.236, 26.9809, 56.4878, -91.4607, 73.9432
5.908, 15, 18.1411, 41.2042, 27.0503, 56.3935, -91.4577, 74.0832
5.912, 15, 18.0741, 41.1713, 27.1222, 56.2953, -91.4518, 74.2324
5.916, 15, 18.0061, 41.1371, 27.1972, 56.192, -91.4429, 74.3923
5.92, 15, 17.9366, 41.1014, 27.2761, 56.0825, -91.4314, 74.564
5.924, 15, 17.8652, 41.0639, 27.3594, 55.9662, -91.4174, 74.7486
5.928, 15, 17.7914, 41.0244, 27.4473, 55.8424, -91.4013, 74.9466
5.932, 15, 17.7146, 40.9828, 27.5402, 55.7105, -91.3833, 75.1584
5.936, 15, 17.6344, 40.9389, 27.6383, 55.5703, -91.3638, 75.3842
5.94, 15, 17.5502, 40.8928, 27.7415, 55.4215, -91.343, 75.6242
5.944, 15, 17.4618, 40.8446, 27.8499, 55.264, -91.3211, 75.8783
5.948, 15, 17.3688, 40.7944, 27.9632, 55.0977, -91.2982, 76.1465
5.952, 15, 17.271, 40.7424, 28.0816, 54.9225, -91.2745, 76.4289
5.956, 15, 17.1683, 40.6887, 28.2046, 54.7385, -91.2501, 76.7254
5.96, 15, 17.0606, 40.6336, 28.3324, 54.5455, -91.2251, 77.0359
5.964, 15, 16.9478, 40.5771, 28.4645, 54.3436, -91.1996, 77.3603
5.968, 15, 16.83, 40.5196, 28.601, 54.1328, -91.1738, 77.6987
5.972, 15, 16.707, 40.4611, 28.7414, 53.9131, -91.1478, 78.0508
5.976, 15, 16.5788, 40.4018, 28.8857, 53.6846, -91.1216, 78.4167
5.98, 15, 16.4455, 40.3418, 29.0337, 53.4472, -91.0954, 78.7961
5.984, 15, 16.3069, 40.2813, 29.185, 53.2011, -91.0693, 79.189
5.988, 15, 16.1632, 40.2203, 29.3395, 52.9462, -91.0434, 79.5953
5.992, 15, 16.0144, 40.159, 29.4968, 52.6828, -91.0178, 80.0147
5.996, 15, 15.8606, 40.0975, 29.6568, 52.4107, -90.9927, 80.4471
6, 15, 15.7022, 40.0362, 29.8192, 52.1303, -90.9681, 80.8923
6.004, 15, 15.5395, 39.9751, 29.9836, 51.8416, -90.9442, 81.3499
6.008, 15, 15.3728, 39.9145, 30.1497, 51.5449, -90.9211, 81.8195
6.012, 15, 15.2026, 39.8547, 30.317, 51.2408, -90.8989, 82.3004
6.016, 15, 15.0294, 39.7959, 30.4852, 50.9296, -90.8778, 82.7917
6.02, 15, 14.8534, 39.7384, 30.6537, 50.6121, -90.8578, 83.2923
6.024, 15, 14.6753, 39.6823, 30.822, 50.2893, -90.8391, 83.8008
6.028, 15, 14.4953, 39.6278, 30.9895, 49.962, -90.8218, 84.3157
6.032, 15, 14.3138, 39.5752, 31.1555, 49.6313, -90.8059, 84.8354
6.036, 15, 14.1313, 39.5247, 31.3195, 49.2985, -90.7916, 85.358
6.04, 15, 13.9482, 39.4764, 31.4809, 48.9646, -90.7789, 85.8818
6.044, 15, 13.7647, 39.4306, 31.639, 48.6309, -90.7678, 86.4047
