hehonglu123/Motion-Primitive-Planning/simulation/robotstudio_sim/scripts/fitting_output/threshold0.5/curve_exe_v500_fine.csv
timestamp, cmd_num, J1, J2, J3, J4, J5, J6
0, 1, -0.874649, 64.1352, 8.9035, 44.2849, -96.0792, 168.995
0.002, 1, -0.874649, 64.1352, 8.9035, 44.2849, -96.0792, 168.995
0.004, 1, -0.874649, 64.1352, 8.9035, 44.2849, -96.0792, 168.995
0.008, 1, -0.874649, 64.1352, 8.9035, 44.2849, -96.0792, 168.995
0.011, 1, -0.874649, 64.1352, 8.9035, 44.2849, -96.0792, 168.995
0.016, 1, -0.874649, 64.1352, 8.9035, 44.2849, -96.0792, 168.995
0.02, 1, -0.874649, 64.1352, 8.9035, 44.2849, -96.0792, 168.995
0.024, 1, -0.874649, 64.1352, 8.9035, 44.2849, -96.0792, 168.995
0.028, 1, -0.874649, 64.1352, 8.9035, 44.2849, -96.0792, 168.995
0.032, 1, -0.874649, 64.1352, 8.9035, 44.2849, -96.0792, 168.995
0.036, 1, -0.87464, 64.1352, 8.9035, 44.2849, -96.0792, 168.995
0.04, 1, -0.874576, 64.1352, 8.90351, 44.2849, -96.0792, 168.995
0.044, 1, -0.874353, 64.1351, 8.90351, 44.2849, -96.0792, 168.995
0.048, 1, -0.873827, 64.135, 8.90353, 44.2849, -96.0792, 168.995
0.052, 1, -0.872854, 64.1347, 8.90356, 44.285, -96.0792, 168.995
0.056, 1, -0.871327, 64.1342, 8.90359, 44.2851, -96.0791, 168.995
0.06, 1, -0.869169, 64.1334, 8.90361, 44.2853, -96.0789, 168.994
0.064, 1, -0.866332, 64.1323, 8.90357, 44.2858, -96.0785, 168.993
0.068, 1, -0.86278, 64.1309, 8.90342, 44.2866, -96.0778, 168.991
0.072, 1, -0.858465, 64.1291, 8.90311, 44.2879, -96.0768, 168.988
0.076, 1, -0.85329, 64.1267, 8.90255, 44.2899, -96.0751, 168.983
0.08, 1, -0.847097, 64.1238, 8.90164, 44.2928, -96.0727, 168.976
0.084, 1, -0.839686, 64.1203, 8.90026, 44.2969, -96.0693, 168.967
0.088, 1, -0.830855, 64.116, 8.89829, 44.3025, -96.0646, 168.954
0.092, 1, -0.820446, 64.1109, 8.89558, 44.3099, -96.0584, 168.937
0.096, 1, -0.808352, 64.105, 8.89194, 44.3196, -96.0503, 168.914
0.1, 1, -0.794488, 64.0982, 8.8872, 44.3318, -96.0401, 168.886
0.104, 1, -0.778753, 64.0906, 8.88118, 44.3469, -96.0274, 168.851
0.108, 1, -0.761014, 64.0819, 8.87371, 44.3654, -96.0119, 168.808
0.112, 1, -0.741143, 64.0722, 8.86463, 44.3876, -95.9933, 168.757
0.116, 1, -0.719055, 64.0616, 8.85379, 44.4138, -95.9714, 168.696
0.12, 1, -0.69473, 64.05, 8.84104, 44.4442, -95.9458, 168.626
0.124, 1, -0.668195, 64.0377, 8.82628, 44.4792, -95.9165, 168.545
0.128, 1, -0.639496, 64.0247, 8.80941, 44.5189, -95.8831, 168.454
0.131, 1, -0.60868, 64.0112, 8.79038, 44.5633, -95.8458, 168.351
0.136, 1, -0.575786, 63.9972, 8.76919, 44.6126, -95.8045, 168.237
0.139, 1, -0.540816, 63.9825, 8.74588, 44.6665, -95.7591, 168.113
0.144, 1, -0.503733, 63.9672, 8.72051, 44.725, -95.71, 167.978
0.148, 1, -0.4645, 63.951, 8.69322, 44.7879, -95.6572, 167.833
0.152, 1, -0.423132, 63.9338, 8.66413, 44.8547, -95.601, 167.679
0.156, 1, -0.379725, 63.9157, 8.63342, 44.9253, -95.5418, 167.517
0.16, 1, -0.334411, 63.8967, 8.60124, 44.9991, -95.4797, 167.346
0.164, 1, -0.287311, 63.8769, 8.56779, 45.0759, -95.4152, 167.169
0.168, 1, -0.238506, 63.8562, 8.53325, 45.1552, -95.3486, 166.987
0.172, 1, -0.188062, 63.8347, 8.49783, 45.2366, -95.2802, 166.799
0.176, 1, -0.136074, 63.8123, 8.4617, 45.3197, -95.2103, 166.607
0.18, 1, -0.0826733, 63.7893, 8.42503, 45.4042, -95.1393, 166.412
0.184, 1, -0.0280023, 63.7655, 8.38795, 45.4898, -95.0674, 166.215
0.188, 1, 0.0277915, 63.7411, 8.35059, 45.5762, -94.9948, 166.016
0.192, 1, 0.0845509, 63.7162, 8.31303, 45.6632, -94.9217, 165.815
0.196, 1, 0.142118, 63.6909, 8.27532, 45.7507, -94.8483, 165.614
0.2, 1, 0.200363, 63.6652, 8.23753, 45.8384, -94.7746, 165.411
0.204, 1, 0.259195, 63.6393, 8.19968, 45.9263, -94.7007, 165.208
0.208, 1, 0.318538, 63.6132, 8.16181, 46.0144, -94.6268, 165.005
0.212, 1, 0.378302, 63.5869, 8.12392, 46.1025, -94.5528, 164.802
0.216, 1, 0.438378, 63.5606, 8.08603, 46.1907, -94.4787, 164.599
0.22, 1, 0.498665, 63.5342, 8.04816, 46.2789, -94.4047, 164.395
0.224, 1, 0.559085, 63.5077, 8.01029, 46.367, -94.3307, 164.192
0.228, 1, 0.619583, 63.4812, 7.97244, 46.4551, -94.2566, 163.989
0.232, 1, 0.680124, 63.4548, 7.93461, 46.5432, -94.1826, 163.785
0.236, 1, 0.740682, 63.4283, 7.8968, 46.6313, -94.1087, 163.582
0.24, 1, 0.80124, 63.4018, 7.85901, 46.7193, -94.0348, 163.379
0.244, 1, 0.861788, 63.3753, 7.82123, 46.8073, -93.9609, 163.176
0.248, 1, 0.922316, 63.3488, 7.78348, 46.8952, -93.887, 162.973
0.252, 1, 0.982821, 63.3224, 7.74575, 46.9831, -93.8132, 162.771
0.256, 1, 1.0433, 63.2959, 7.70804, 47.0709, -93.7395, 162.568
0.26, 1, 1.10374, 63.2695, 7.67035, 47.1587, -93.6658, 162.365
0.264, 1, 1.16416, 63.2431, 7.63269, 47.2464, -93.5921, 162.163
0.268, 1, 1.22454, 63.2167, 7.59505, 47.3341, -93.5185, 161.961
0.272, 1, 1.28489, 63.1903, 7.55742, 47.4217, -93.4449, 161.759
0.276, 1, 1.3452, 63.164, 7.51983, 47.5093, -93.3713, 161.557
0.28, 1, 1.40547, 63.1376, 7.48225, 47.5968, -93.2978, 161.355
0.284, 1, 1.46572, 63.1113, 7.4447, 47.6843, -93.2244, 161.153
0.288, 1, 1.52592, 63.0849, 7.40717, 47.7717, -93.151, 160.951
0.292, 1, 1.58609, 63.0586, 7.36966, 47.859, -93.0776, 160.75
0.296, 1, 1.64622, 63.0323, 7.33217, 47.9463, -93.0043, 160.548
0.3, 1, 1.70632, 63.0061, 7.29471, 48.0336, -92.931, 160.347
0.304, 1, 1.76638, 62.9798, 7.25727, 48.1208, -92.8578, 160.146
0.308, 1, 1.8264, 62.9536, 7.21985, 48.2079, -92.7846, 159.945
0.312, 1, 1.88639, 62.9273, 7.18246, 48.295, -92.7114, 159.744
0.316, 1, 1.94634, 62.9011, 7.14509, 48.3821, -92.6383, 159.543
0.32, 1, 2.00625, 62.8749, 7.10774, 48.4691, -92.5653, 159.343
0.324, 1, 2.06612, 62.8488, 7.07042, 48.556, -92.4923, 159.142
0.328, 1, 2.12596, 62.8226, 7.03312, 48.6429, -92.4193, 158.942
0.332, 1, 2.18576, 62.7965, 6.99584, 48.7297, -92.3464, 158.741
0.336, 1, 2.24552, 62.7703, 6.95859, 48.8164, -92.2735, 158.541
0.34, 1, 2.30524, 62.7442, 6.92136, 48.9031, -92.2007, 158.341
0.344, 1, 2.36493, 62.7181, 6.88415, 48.9898, -92.1279, 158.141
0.348, 1, 2.42457, 62.6921, 6.84697, 49.0764, -92.0552, 157.941
0.352, 1, 2.48418, 62.666, 6.80981, 49.1629, -91.9825, 157.742
0.356, 1, 2.54375, 62.64, 6.77268, 49.2494, -91.9099, 157.542
0.36, 1, 2.60328, 62.6139, 6.73557, 49.3359, -91.8373, 157.343
0.364, 1, 2.66277, 62.5879, 6.69848, 49.4222, -91.7647, 157.144
0.368, 1, 2.72223, 62.5619, 6.66142, 49.5086, -91.6922, 156.944
0.372, 1, 2.78164, 62.5359, 6.62438, 49.5948, -91.6198, 156.745
0.376, 1, 2.84102, 62.51, 6.58737, 49.681, -91.5474, 156.547
0.38, 1, 2.90035, 62.484, 6.55038, 49.7672, -91.4751, 156.348
0.384, 1, 2.95965, 62.4581, 6.51341, 49.8533, -91.4027, 156.149
0.388, 1, 3.01891, 62.4322, 6.47647, 49.9393, -91.3305, 155.951
0.392, 1, 3.07812, 62.4063, 6.43956, 50.0253, -91.2583, 155.752
0.396, 1, 3.1373, 62.3805, 6.40267, 50.1112, -91.1861, 155.554
0.4, 1, 3.19644, 62.3546, 6.3658, 50.1971, -91.114, 155.356
0.404, 1, 3.25554, 62.3288, 6.32896, 50.2829, -91.042, 155.158
0.408, 1, 3.3146, 62.3029, 6.29214, 50.3686, -90.9699, 154.96
0.412, 1, 3.37362, 62.2771, 6.25535, 50.4543, -90.898, 154.763
0.416, 1, 3.43259, 62.2514, 6.21859, 50.54, -90.8261, 154.565
0.42, 1, 3.49153, 62.2256, 6.18185, 50.6255, -90.7542, 154.368
0.424, 1, 3.55043, 62.1998, 6.14513, 50.711, -90.6824, 154.17
0.428, 1, 3.60929, 62.1741, 6.10844, 50.7965, -90.6106, 153.973
0.432, 1, 3.6681, 62.1484, 6.07178, 50.8819, -90.5389, 153.776
0.436, 1, 3.72688, 62.1227, 6.03514, 50.9672, -90.4672, 153.579
0.44, 1, 3.78561, 62.097, 5.99853, 51.0525, -90.3956, 153.383
0.444, 1, 3.8443, 62.0714, 5.96194, 51.1377, -90.324, 153.186
0.448, 1, 3.90295, 62.0457, 5.92538, 51.2229, -90.2525, 152.99
0.452, 1, 3.96156, 62.0201, 5.88884, 51.308, -90.1811, 152.793
0.456, 1, 4.02013, 61.9945, 5.85233, 51.393, -90.1096, 152.597
0.46, 1, 4.07866, 61.9689, 5.81585, 51.478, -90.0383, 152.401
0.464, 1, 4.13714, 61.9433, 5.77939, 51.5629, -89.967, 152.205
0.468, 1, 4.19559, 61.9178, 5.74296, 51.6477, -89.8957, 152.01
0.472, 1, 4.25399, 61.8923, 5.70655, 51.7325, -89.8245, 151.814
0.476, 1, 4.31235, 61.8667, 5.67017, 51.8173, -89.7533, 151.618
0.48, 1, 4.37067, 61.8412, 5.63382, 51.9019, -89.6822, 151.423
0.484, 1, 4.42894, 61.8158, 5.59749, 51.9865, -89.6112, 151.228
0.488, 1, 4.48717, 61.7903, 5.56119, 52.0711, -89.5402, 151.033
0.492, 1, 4.54537, 61.7649, 5.52491, 52.1556, -89.4692, 150.838
0.496, 1, 4.60351, 61.7394, 5.48867, 52.24, -89.3983, 150.643
0.5, 1, 4.66162, 61.714, 5.45245, 52.3244, -89.3275, 150.449
0.504, 1, 4.71968, 61.6887, 5.41625, 52.4087, -89.2567, 150.254
0.508, 1, 4.7777, 61.6633, 5.38008, 52.4929, -89.1859, 150.06
0.512, 1, 4.83568, 61.6379, 5.34394, 52.5771, -89.1152, 149.866
0.516, 1, 4.89361, 61.6126, 5.30783, 52.6612, -89.0446, 149.672
0.52, 1, 4.9515, 61.5873, 5.27174, 52.7452, -88.974, 149.478
0.524, 1, 5.00935, 61.562, 5.23568, 52.8292, -88.9035, 149.284
0.528, 1, 5.06715, 61.5368, 5.19965, 52.9131, -88.833, 149.09
0.532, 1, 5.12492, 61.5115, 5.16364, 52.997, -88.7625, 148.897
0.536, 1, 5.18263, 61.4863, 5.12767, 53.0808, -88.6922, 148.704
0.54, 1, 5.24031, 61.4611, 5.09171, 53.1645, -88.6218, 148.51
0.544, 1, 5.29794, 61.4359, 5.05579, 53.2482, -88.5516, 148.317
0.548, 1, 5.35552, 61.4107, 5.01989, 53.3318, -88.4814, 148.125
0.552, 1, 5.41307, 61.3855, 4.98402, 53.4153, -88.4112, 147.932
0.556, 1, 5.47056, 61.3604, 4.94818, 53.4988, -88.3411, 147.739
0.56, 1, 5.52802, 61.3353, 4.91237, 53.5822, -88.271, 147.547
0.564, 1, 5.58543, 61.3102, 4.87658, 53.6656, -88.201, 147.355
0.568, 1, 5.64279, 61.2851, 4.84082, 53.7489, -88.1311, 147.162
0.572, 1, 5.70012, 61.26, 4.80509, 53.8321, -88.0612, 146.97
0.576, 1, 5.75739, 61.235, 4.76938, 53.9153, -87.9914, 146.779
0.58, 1, 5.81463, 61.21, 4.73371, 53.9983, -87.9216, 146.587
0.584, 1, 5.87181, 61.185, 4.69806, 54.0814, -87.8518, 146.395
0.588, 1, 5.92896, 61.16, 4.66244, 54.1643, -87.7822, 146.204
0.592, 1, 5.98605, 61.135, 4.62684, 54.2472, -87.7125, 146.013
0.596, 1, 6.04311, 61.1101, 4.59128, 54.3301, -87.643, 145.822
0.6, 1, 6.10012, 61.0852, 4.55574, 54.4128, -87.5735, 145.631
0.604, 1, 6.15708, 61.0603, 4.52023, 54.4955, -87.504, 145.44
0.608, 1, 6.214, 61.0354, 4.48475, 54.5782, -87.4346, 145.249
0.612, 1, 6.27087, 61.0105, 4.4493, 54.6608, -87.3653, 145.059
0.616, 1, 6.3277, 60.9857, 4.41387, 54.7433, -87.296, 144.868
0.62, 1, 6.38449, 60.9608, 4.37848, 54.8257, -87.2267, 144.678
0.624, 1, 6.44122, 60.936, 4.34311, 54.9081, -87.1575, 144.488
0.628, 1, 6.49792, 60.9112, 4.30777, 54.9904, -87.0884, 144.298
0.632, 1, 6.55456, 60.8865, 4.27246, 55.0726, -87.0194, 144.109
0.636, 1, 6.61117, 60.8617, 4.23717, 55.1548, -86.9503, 143.919
0.64, 1, 6.66772, 60.837, 4.20192, 55.2369, -86.8814, 143.73
0.644, 1, 6.72423, 60.8123, 4.16669, 55.319, -86.8125, 143.54
0.648, 1, 6.7807, 60.7876, 4.1315, 55.4009, -86.7436, 143.351
0.652, 1, 6.83711, 60.763, 4.09633, 55.4828, -86.6748, 143.162
0.656, 1, 6.89349, 60.7383, 4.06119, 55.5647, -86.6061, 142.973
0.66, 1, 6.94981, 60.7137, 4.02608, 55.6465, -86.5374, 142.785
0.664, 1, 7.00609, 60.6891, 3.99099, 55.7282, -86.4688, 142.596
0.668, 1, 7.06233, 60.6645, 3.95594, 55.8098, -86.4002, 142.408
0.672, 1, 7.11851, 60.6399, 3.92092, 55.8914, -86.3317, 142.22
0.676, 1, 7.17465, 60.6154, 3.88592, 55.9729, -86.2633, 142.032
0.68, 1, 7.23075, 60.5909, 3.85095, 56.0543, -86.1949, 141.844
0.684, 1, 7.2868, 60.5664, 3.81602, 56.1357, -86.1265, 141.656
0.688, 1, 7.3428, 60.5419, 3.78111, 56.217, -86.0583, 141.469
0.692, 1, 7.39875, 60.5174, 3.74623, 56.2982, -85.99, 141.281
0.696, 1, 7.45466, 60.493, 3.71138, 56.3794, -85.9219, 141.094
0.7, 1, 7.51052, 60.4686, 3.67656, 56.4605, -85.8538, 140.907
0.704, 1, 7.56634, 60.4442, 3.64176, 56.5416, -85.7857, 140.72
0.708, 1, 7.62211, 60.4198, 3.607, 56.6225, -85.7177, 140.533
0.712, 1, 7.67783, 60.3954, 3.57227, 56.7034, -85.6498, 140.346
0.716, 1, 7.7335, 60.3711, 3.53756, 56.7842, -85.5819, 140.16
0.72, 1, 7.78913, 60.3468, 3.50289, 56.865, -85.514, 139.974
0.724, 1, 7.84471, 60.3225, 3.46824, 56.9457, -85.4463, 139.788
0.728, 1, 7.90024, 60.2982, 3.43363, 57.0263, -85.3786, 139.602
0.732, 1, 7.95573, 60.2739, 3.39904, 57.1069, -85.3109, 139.416
0.736, 1, 8.01117, 60.2497, 3.36448, 57.1874, -85.2433, 139.23
0.74, 1, 8.06656, 60.2255, 3.32996, 57.2678, -85.1758, 139.045
0.744, 1, 8.1219, 60.2013, 3.29546, 57.3481, -85.1083, 138.859
0.748, 1, 8.1772, 60.1771, 3.26099, 57.4284, -85.0409, 138.674
0.752, 1, 8.23245, 60.153, 3.22655, 57.5086, -84.9735, 138.489
0.756, 1, 8.28765, 60.1288, 3.19214, 57.5888, -84.9062, 138.304
0.76, 1, 8.3428, 60.1047, 3.15776, 57.6688, -84.839, 138.119
0.764, 1, 8.39791, 60.0806, 3.12341, 57.7488, -84.7718, 137.935
0.768, 1, 8.45297, 60.0565, 3.08909, 57.8288, -84.7046, 137.75
0.772, 1, 8.50798, 60.0325, 3.0548, 57.9086, -84.6376, 137.566
0.776, 1, 8.56294, 60.0085, 3.02054, 57.9884, -84.5706, 137.382
0.78, 1, 8.61786, 59.9845, 2.98631, 58.0681, -84.5036, 137.198
0.784, 1, 8.67273, 59.9605, 2.95211, 58.1478, -84.4367, 137.014
0.788, 1, 8.72755, 59.9365, 2.91794, 58.2274, -84.3699, 136.831
0.792, 1, 8.78232, 59.9126, 2.8838, 58.3069, -84.3031, 136.647
0.796, 1, 8.83705, 59.8886, 2.84969, 58.3864, -84.2364, 136.464
0.8, 1, 8.89172, 59.8647, 2.8156, 58.4657, -84.1697, 136.281
0.804, 1, 8.94635, 59.8409, 2.78155, 58.545, -84.1031, 136.098
0.808, 1, 9.00093, 59.817, 2.74753, 58.6243, -84.0365, 135.915
0.812, 1, 9.05547, 59.7932, 2.71354, 58.7034, -83.9701, 135.733
0.816, 1, 9.10995, 59.7693, 2.67958, 58.7825, -83.9036, 135.55
0.82, 1, 9.16439, 59.7455, 2.64565, 58.8616, -83.8373, 135.368
0.824, 1, 9.21878, 59.7218, 2.61175, 58.9405, -83.7709, 135.186
0.828, 1, 9.27312, 59.698, 2.57787, 59.0194, -83.7047, 135.004
0.832, 1, 9.32741, 59.6743, 2.54403, 59.0982, -83.6385, 134.822
0.836, 1, 9.38166, 59.6506, 2.51022, 59.177, -83.5724, 134.64
0.84, 1, 9.43585, 59.6269, 2.47644, 59.2557, -83.5063, 134.459
0.844, 1, 9.49, 59.6032, 2.44269, 59.3343, -83.4403, 134.277
0.848, 1, 9.5441, 59.5795, 2.40897, 59.4128, -83.3743, 134.096
0.852, 1, 9.59815, 59.5559, 2.37528, 59.4913, -83.3084, 133.915
0.856, 1, 9.65215, 59.5323, 2.34162, 59.5697, -83.2426, 133.734
0.86, 1, 9.70611, 59.5087, 2.30798, 59.648, -83.1768, 133.553
0.864, 1, 9.76001, 59.4852, 2.27438, 59.7263, -83.111, 133.373
0.868, 1, 9.81387, 59.4616, 2.24081, 59.8045, -83.0454, 133.193
0.872, 1, 9.86768, 59.4381, 2.20727, 59.8826, -82.9798, 133.012
0.876, 1, 9.92144, 59.4146, 2.17376, 59.9606, -82.9142, 132.832
0.88, 1, 9.97516, 59.3911, 2.14028, 60.0386, -82.8487, 132.652
0.884, 1, 10.0288, 59.3676, 2.10683, 60.1165, -82.7833, 132.473
0.888, 1, 10.0824, 59.3442, 2.07341, 60.1943, -82.7179, 132.293
0.892, 1, 10.136, 59.3208, 2.04002, 60.2721, -82.6526, 132.114
0.896, 1, 10.1895, 59.2974, 2.00666, 60.3498, -82.5874, 131.934
0.9, 1, 10.243, 59.274, 1.97333, 60.4274, -82.5222, 131.755
0.904, 1, 10.2964, 59.2507, 1.94004, 60.505, -82.4571, 131.576
0.908, 1, 10.3498, 59.2273, 1.90677, 60.5825, -82.392, 131.398
0.912, 1, 10.4031, 59.204, 1.87353, 60.6599, -82.327, 131.219
0.916, 1, 10.4564, 59.1807, 1.84032, 60.7372, -82.262, 131.041
0.92, 1, 10.5096, 59.1575, 1.80714, 60.8145, -82.1971, 130.862
0.924, 1, 10.5628, 59.1342, 1.774, 60.8917, -82.1323, 130.684
0.928, 1, 10.6159, 59.111, 1.74088, 60.9688, -82.0675, 130.506
0.932, 1, 10.669, 59.0878, 1.70779, 61.0459, -82.0028, 130.329
0.936, 1, 10.7221, 59.0646, 1.67473, 61.1229, -81.9381, 130.151
0.94, 1, 10.775, 59.0414, 1.64171, 61.1998, -81.8735, 129.974
0.944, 1, 10.828, 59.0183, 1.60871, 61.2767, -81.809, 129.796
0.948, 1, 10.8809, 58.9952, 1.57575, 61.3535, -81.7445, 129.619
0.952, 1, 10.9337, 58.9721, 1.54281, 61.4302, -81.6801, 129.442
0.956, 1, 10.9865, 58.949, 1.5099, 61.5068, -81.6157, 129.265
0.96, 1, 11.0392, 58.9259, 1.47703, 61.5834, -81.5514, 129.089
0.964, 1, 11.0919, 58.9029, 1.44419, 61.6599, -81.4872, 128.912
0.968, 1, 11.1446, 58.8799, 1.41137, 61.7363, -81.423, 128.736
0.972, 1, 11.1972, 58.8569, 1.37859, 61.8126, -81.3588, 128.56
0.976, 1, 11.2497, 58.8339, 1.34583, 61.8889, -81.2948, 128.384
0.98, 1, 11.3022, 58.811, 1.31311, 61.9651, -81.2308, 128.208
0.984, 1, 11.3547, 58.788, 1.28042, 62.0413, -81.1668, 128.032
0.988, 1, 11.4071, 58.7651, 1.24775, 62.1174, -81.1029, 127.857
0.992, 1, 11.4594, 58.7422, 1.21512, 62.1934, -81.0391, 127.682
0.996, 1, 11.5117, 58.7194, 1.18252, 62.2693, -80.9753, 127.506
1, 1, 11.564, 58.6965, 1.14995, 62.3452, -80.9116, 127.331
1.004, 1, 11.6162, 58.6737, 1.1174, 62.421, -80.848, 127.157
1.008, 1, 11.6684, 58.6509, 1.08489, 62.4967, -80.7844, 126.982
1.012, 1, 11.7205, 58.6281, 1.05241, 62.5723, -80.7208, 126.807
1.016, 1, 11.7725, 58.6054, 1.01996, 62.6479, -80.6574, 126.633
1.02, 1, 11.8246, 58.5826, 0.98754, 62.7234, -80.5939, 126.459
1.024, 1, 11.8765, 58.5599, 0.95515, 62.7989, -80.5306, 126.285
1.027, 1, 11.9284, 58.5372, 0.92279, 62.8742, -80.4673, 126.111
1.032, 1, 11.9803, 58.5145, 0.89046, 62.9495, -80.404, 125.937
1.036, 1, 12.0321, 58.4919, 0.858161, 63.0248, -80.3409, 125.764
1.04, 1, 12.0839, 58.4693, 0.825891, 63.0999, -80.2777, 125.59
1.044, 1, 12.1356, 58.4466, 0.793652, 63.175, -80.2147, 125.417
1.048, 1, 12.1873, 58.4241, 0.761443, 63.25, -80.1517, 125.244
1.052, 1, 12.2389, 58.4015, 0.729265, 63.325, -80.0887, 125.071
1.055, 1, 12.2905, 58.3789, 0.697117, 63.3998, -80.0259, 124.898
1.06, 1, 12.342, 58.3564, 0.664998, 63.4746, -79.963, 124.726
1.064, 1, 12.3935, 58.3339, 0.632911, 63.5494, -79.9003, 124.553
1.068, 1, 12.445, 58.3114, 0.600853, 63.624, -79.8376, 124.381
1.072, 1, 12.4963, 58.289, 0.568825, 63.6986, -79.7749, 124.209
1.076, 1, 12.5477, 58.2665, 0.536828, 63.7732, -79.7123, 124.037
1.08, 1, 12.599, 58.2441, 0.504861, 63.8476, -79.6498, 123.865
1.084, 1, 12.6502, 58.2217, 0.472924, 63.922, -79.5873, 123.694
1.088, 1, 12.7014, 58.1993, 0.441017, 63.9963, -79.5249, 123.522
1.091, 1, 12.7525, 58.177, 0.40914, 64.0706, -79.4626, 123.351
1.096, 1, 12.8036, 58.1546, 0.377294, 64.1447, -79.4003, 123.18
1.1, 1, 12.8547, 58.1323, 0.345477, 64.2188, -79.338, 123.009
1.104, 1, 12.9057, 58.11, 0.313691, 64.2929, -79.2759, 122.838
1.108, 1, 12.9566, 58.0877, 0.281935, 64.3668, -79.2137, 122.668
1.112, 1, 13.0075, 58.0655, 0.250208, 64.4407, -79.1517, 122.497
1.116, 1, 13.0584, 58.0433, 0.218512, 64.5145, -79.0897, 122.327
1.119, 1, 13.1092, 58.0211, 0.186846, 64.5883, -79.0277, 122.157
1.124, 1, 13.16, 57.9989, 0.155209, 64.662, -78.9659, 121.987
1.128, 1, 13.2107, 57.9767, 0.123603, 64.7356, -78.904, 121.817
1.132, 1, 13.2613, 57.9546, 0.0920261, 64.8091, -78.8423, 121.647
1.136, 1, 13.312, 57.9324, 0.0604794, 64.8826, -78.7806, 121.478
1.14, 1, 13.3625, 57.9103, 0.0289625, 64.956, -78.7189, 121.308
1.144, 1, 13.413, 57.8882, -0.00252446, 65.0294, -78.6573, 121.139
1.147, 1, 13.4635, 57.8662, -0.0339817, 65.1026, -78.5958, 120.97
1.152, 1, 13.5139, 57.8441, -0.0654091, 65.1758, -78.5343, 120.801
1.156, 1, 13.5643, 57.8221, -0.0968067, 65.2489, -78.4729, 120.633
1.16, 1, 13.6147, 57.8001, -0.128175, 65.322, -78.4116, 120.464
1.164, 1, 13.6649, 57.7781, -0.159513, 65.395, -78.3503, 120.296
1.168, 1, 13.7152, 57.7562, -0.190821, 65.4679, -78.289, 120.127
1.172, 1, 13.7654, 57.7342, -0.2221, 65.5408, -78.2278, 119.959
1.175, 1, 13.8155, 57.7123, -0.253349, 65.6135, -78.1667, 119.791
1.18, 1, 13.8656, 57.6904, -0.284569, 65.6863, -78.1056, 119.624
1.184, 1, 13.9156, 57.6685, -0.315759, 65.7589, -78.0446, 119.456
1.188, 1, 13.9656, 57.6467, -0.346919, 65.8315, -77.9837, 119.289
1.192, 1, 14.0156, 57.6249, -0.37805, 65.904, -77.9228, 119.121
1.196, 1, 14.0655, 57.603, -0.409152, 65.9764, -77.8619, 118.954
1.2, 1, 14.1153, 57.5812, -0.440224, 66.0488, -77.8012, 118.787
1.204, 1, 14.1651, 57.5595, -0.471266, 66.1211, -77.7404, 118.621
1.208, 1, 14.2149, 57.5377, -0.502279, 66.1933, -77.6798, 118.454
1.212, 1, 14.2646, 57.516, -0.533263, 66.2655, -77.6192, 118.287
1.216, 1, 14.3143, 57.4943, -0.564217, 66.3376, -77.5586, 118.121
1.22, 1, 14.3639, 57.4726, -0.595142, 66.4096, -77.4981, 117.955
1.224, 1, 14.4135, 57.4509, -0.626038, 66.4816, -77.4377, 117.789
1.228, 1, 14.463, 57.4293, -0.656904, 66.5535, -77.3773, 117.623
1.232, 1, 14.5125, 57.4076, -0.687741, 66.6253, -77.317, 117.457
1.236, 1, 14.5619, 57.386, -0.718549, 66.697, -77.2568, 117.292
1.24, 1, 14.6113, 57.3645, -0.749327, 66.7687, -77.1965, 117.127
1.244, 1, 14.6606, 57.3429, -0.780077, 66.8403, -77.1364, 116.961
1.248, 1, 14.7099, 57.3213, -0.810797, 66.9119, -77.0763, 116.796
1.252, 1, 14.7592, 57.2998, -0.841488, 66.9834, -77.0163, 116.631
1.256, 1, 14.8083, 57.2783, -0.87215, 67.0548, -76.9563, 116.467
1.26, 1, 14.8575, 57.2568, -0.902783, 67.1261, -76.8964, 116.302
1.264, 1, 14.9066, 57.2354, -0.933386, 67.1974, -76.8365, 116.138
1.267, 1, 14.9557, 57.2139, -0.963961, 67.2686, -76.7767, 115.973
1.272, 1, 15.0047, 57.1925, -0.994507, 67.3398, -76.717, 115.809
1.276, 1, 15.0536, 57.1711, -1.02502, 67.4108, -76.6573, 115.645
1.28, 1, 15.1026, 57.1497, -1.05551, 67.4818, -76.5976, 115.481
1.284, 1, 15.1514, 57.1283, -1.08597, 67.5528, -76.5381, 115.318
1.288, 1, 15.2002, 57.107, -1.1164, 67.6237, -76.4785, 115.154
1.292, 1, 15.249, 57.0857, -1.1468, 67.6945, -76.4191, 114.991
1.295, 1, 15.2978, 57.0644, -1.17717, 67.7652, -76.3597, 114.828
1.3, 1, 15.3464, 57.0431, -1.20752, 67.8359, -76.3003, 114.665
1.304, 1, 15.3951, 57.0218, -1.23783, 67.9065, -76.241, 114.502
1.308, 1, 15.4437, 57.0006, -1.26812, 67.977, -76.1818, 114.339
1.312, 1, 15.4922, 56.9794, -1.29838, 68.0475, -76.1226, 114.176
1.316, 1, 15.5407, 56.9582, -1.32861, 68.1179, -76.0635, 114.014
1.32, 1, 15.5892, 56.937, -1.35881, 68.1882, -76.0044, 113.852
1.324, 1, 15.6376, 56.9158, -1.38898, 68.2585, -75.9454, 113.69
1.328, 1, 15.686, 56.8947, -1.41912, 68.3287, -75.8864, 113.528
1.332, 1, 15.7343, 56.8736, -1.44924, 68.3989, -75.8275, 113.366
1.336, 1, 15.7826, 56.8525, -1.47932, 68.4689, -75.7686, 113.204
1.34, 1, 15.8308, 56.8314, -1.50938, 68.5389, -75.7099, 113.043
1.344, 1, 15.879, 56.8103, -1.53941, 68.6089, -75.6511, 112.881
1.348, 1, 15.9271, 56.7893, -1.56941, 68.6788, -75.5924, 112.72
1.352, 1, 15.9752, 56.7682, -1.59938, 68.7486, -75.5338, 112.559
1.356, 1, 16.0232, 56.7472, -1.62933, 68.8183, -75.4752, 112.398
1.36, 1, 16.0712, 56.7263, -1.65924, 68.888, -75.4167, 112.238
1.364, 1, 16.1192, 56.7053, -1.68913, 68.9576, -75.3583, 112.077
1.368, 1, 16.1671, 56.6844, -1.71899, 69.0271, -75.2999, 111.916
1.372, 1, 16.215, 56.6634, -1.74882, 69.0966, -75.2415, 111.756
1.376, 1, 16.2628, 56.6425, -1.77862, 69.166, -75.1832, 111.596
1.38, 1, 16.3106, 56.6217, -1.8084, 69.2354, -75.125, 111.436
1.384, 1, 16.3583, 56.6008, -1.83814, 69.3047, -75.0668, 111.276
1.388, 1, 16.406, 56.5799, -1.86786, 69.3739, -75.0087, 111.117
1.392, 1, 16.4536, 56.5591, -1.89755, 69.443, -74.9506, 110.957
1.396, 1, 16.5012, 56.5383, -1.92721, 69.5121, -74.8926, 110.798
1.4, 1, 16.5488, 56.5175, -1.95685, 69.5811, -74.8346, 110.638
1.404, 1, 16.5963, 56.4968, -1.98645, 69.6501, -74.7767, 110.479
1.408, 1, 16.6437, 56.476, -2.01603, 69.719, -74.7188, 110.32
1.412, 1, 16.6911, 56.4553, -2.04558, 69.7878, -74.661, 110.162
1.416, 1, 16.7385, 56.4346, -2.0751, 69.8566, -74.6033, 110.003
1.42, 1, 16.7858, 56.4139, -2.10459, 69.9253, -74.5456, 109.845
1.424, 1, 16.8331, 56.3932, -2.13406, 69.9939, -74.4879, 109.686
1.428, 1, 16.8803, 56.3726, -2.1635, 70.0624, -74.4304, 109.528
1.432, 1, 16.9275, 56.352, -2.19291, 70.131, -74.3728, 109.37
1.436, 1, 16.9747, 56.3313, -2.22229, 70.1994, -74.3154, 109.212
1.44, 1, 17.0218, 56.3108, -2.25165, 70.2678, -74.2579, 109.054
1.444, 1, 17.0688, 56.2902, -2.28098, 70.3361, -74.2006, 108.897
1.448, 1, 17.1159, 56.2696, -2.31028, 70.4043, -74.1432, 108.739
1.452, 1, 17.1628, 56.2491, -2.33955, 70.4725, -74.086, 108.582
1.456, 1, 17.2098, 56.2286, -2.3688, 70.5406, -74.0288, 108.425
1.46, 1, 17.2566, 56.2081, -2.39802, 70.6087, -73.9716, 108.268
1.464, 1, 17.3035, 56.1876, -2.42721, 70.6767, -73.9145, 108.111
1.468, 1, 17.3503, 56.1672, -2.45637, 70.7446, -73.8575, 107.954
1.472, 1, 17.397, 56.1467, -2.48551, 70.8124, -73.8005, 107.798
1.476, 1, 17.4437, 56.1263, -2.51462, 70.8802, -73.7435, 107.642
1.48, 1, 17.4904, 56.1059, -2.5437, 70.948, -73.6867, 107.485
1.484, 1, 17.537, 56.0855, -2.57276, 71.0157, -73.6298, 107.329
1.488, 1, 17.5836, 56.0652, -2.60179, 71.0833, -73.573, 107.173
1.492, 1, 17.6301, 56.0448, -2.63079, 71.1508, -73.5163, 107.017
1.496, 1, 17.6766, 56.0245, -2.65976, 71.2183, -73.4596, 106.862
1.5, 1, 17.7231, 56.0042, -2.68871, 71.2857, -73.403, 106.706
1.504, 1, 17.7695, 55.9839, -2.71763, 71.3531, -73.3464, 106.551
1.508, 1, 17.8159, 55.9637, -2.74653, 71.4204, -73.2899, 106.395
1.512, 1, 17.8622, 55.9434, -2.77539, 71.4876, -73.2335, 106.24
1.516, 1, 17.9085, 55.9232, -2.80423, 71.5548, -73.177, 106.085
1.52, 1, 17.9547, 55.903, -2.83305, 71.6219, -73.1207, 105.931
1.524, 1, 18.0009, 55.8828, -2.86183, 71.6889, -73.0644, 105.776
1.528, 1, 18.047, 55.8626, -2.89059, 71.7559, -73.0081, 105.621
1.532, 1, 18.0931, 55.8424, -2.91933, 71.8229, -72.9519, 105.467
1.536, 1, 18.1392, 55.8223, -2.94803, 71.8897, -72.8958, 105.313
1.54, 1, 18.1852, 55.8022, -2.97672, 71.9565, -72.8397, 105.159
1.544, 1, 18.2312, 55.7821, -3.00537, 72.0233, -72.7836, 105.005
1.548, 1, 18.2771, 55.762, -3.034, 72.0899, -72.7276, 104.851
1.552, 1, 18.323, 55.742, -3.0626, 72.1565, -72.6717, 104.697
1.556, 1, 18.3689, 55.7219, -3.09117, 72.2231, -72.6158, 104.544
1.56, 1, 18.4147, 55.7019, -3.11972, 72.2896, -72.5599, 104.39
1.564, 1, 18.4605, 55.6819, -3.14825, 72.356, -72.5041, 104.237
1.568, 1, 18.5062, 55.6619, -3.17674, 72.4224, -72.4484, 104.084
1.572, 1, 18.5519, 55.6419, -3.20521, 72.4887, -72.3927, 103.931
1.576, 1, 18.5975, 55.622, -3.23366, 72.555, -72.3371, 103.778
1.58, 1, 18.6431, 55.602, -3.26208, 72.6212, -72.2815, 103.625
1.584, 1, 18.6887, 55.5821, -3.29047, 72.6873, -72.2259, 103.473
1.588, 1, 18.7342, 55.5622, -3.31883, 72.7533, -72.1704, 103.32
1.592, 1, 18.7797, 55.5424, -3.34718, 72.8194, -72.115, 103.168
1.596, 1, 18.8251, 55.5225, -3.37549, 72.8853, -72.0596, 103.016
1.6, 1, 18.8705, 55.5027, -3.40378, 72.9512, -72.0043, 102.864
1.604, 1, 18.9158, 55.4828, -3.43204, 73.017, -71.949, 102.712
1.608, 1, 18.9611, 55.463, -3.46028, 73.0828, -71.8938, 102.56
1.612, 1, 19.0064, 55.4432, -3.48849, 73.1485, -71.8386, 102.409
1.616, 1, 19.0516, 55.4235, -3.51667, 73.2141, -71.7835, 102.257
1.62, 1, 19.0968, 55.4037, -3.54483, 73.2797, -71.7284, 102.106
1.624, 1, 19.142, 55.384, -3.57297, 73.3453, -71.6733, 101.955
1.628, 1, 19.1871, 55.3643, -3.60108, 73.4107, -71.6184, 101.804
1.632, 1, 19.2321, 55.3446, -3.62916, 73.4761, -71.5634, 101.653
1.636, 1, 19.2771, 55.3249, -3.65722, 73.5415, -71.5085, 101.502
1.64, 1, 19.3221, 55.3052, -3.68525, 73.6068, -71.4537, 101.352
1.644, 1, 19.3671, 55.2856, -3.71326, 73.672, -71.3989, 101.201
1.648, 1, 19.412, 55.266, -3.74124, 73.7372, -71.3442, 101.051
1.652, 1, 19.4568, 55.2464, -3.7692, 73.8023, -71.2895, 100.901
1.656, 1, 19.5016, 55.2268, -3.79713, 73.8673, -71.2349, 100.75
1.66, 1, 19.5464, 55.2072, -3.82503, 73.9324, -71.1803, 100.601
1.664, 1, 19.5912, 55.1876, -3.85291, 73.9973, -71.1257, 100.451
1.668, 1, 19.6359, 55.1681, -3.88077, 74.0622, -71.0713, 100.301
1.672, 1, 19.6805, 55.1486, -3.9086, 74.127, -71.0168, 100.152
1.676, 1, 19.7251, 55.1291, -3.93641, 74.1917, -70.9624, 100.002
1.68, 1, 19.7697, 55.1096, -3.96419, 74.2564, -70.9081, 99.8528
1.684, 1, 19.8142, 55.0901, -3.99194, 74.3211, -70.8538, 99.7037
1.688, 1, 19.8587, 55.0707, -4.01967, 74.3857, -70.7996, 99.5547
1.692, 1, 19.9032, 55.0512, -4.04738, 74.4502, -70.7454, 99.4058
1.696, 1, 19.9476, 55.0318, -4.07506, 74.5147, -70.6912, 99.2571
1.7, 1, 19.992, 55.0124, -4.10272, 74.5791, -70.6371, 99.1085
1.704, 1, 20.0363, 54.993, -4.13035, 74.6434, -70.5831, 98.9601
1.708, 1, 20.0806, 54.9737, -4.15795, 74.7077, -70.5291, 98.8117
1.712, 1, 20.1249, 54.9543, -4.18554, 74.772, -70.4751, 98.6635
1.716, 1, 20.1691, 54.935, -4.21309, 74.8362, -70.4212, 98.5154
1.72, 1, 20.2133, 54.9157, -4.24063, 74.9003, -70.3674, 98.3675
1.724, 1, 20.2574, 54.8964, -4.26814, 74.9644, -70.3136, 98.2197
1.728, 1, 20.3015, 54.8771, -4.29562, 75.0284, -70.2598, 98.072
1.732, 1, 20.3456, 54.8579, -4.32308, 75.0923, -70.2061, 97.9245
1.736, 1, 20.3896, 54.8386, -4.35051, 75.1562, -70.1524, 97.7771
1.74, 1, 20.4336, 54.8194, -4.37792, 75.2201, -70.0988, 97.6298
1.744, 1, 20.4775, 54.8002, -4.40531, 75.2839, -70.0452, 97.4827
1.748, 1, 20.5214, 54.781, -4.43267, 75.3476, -69.9917, 97.3357
1.752, 1, 20.5653, 54.7618, -4.46001, 75.4113, -69.9382, 97.1888
1.756, 1, 20.6091, 54.7427, -4.48732, 75.4749, -69.8848, 97.042
1.76, 1, 20.6529, 54.7235, -4.51461, 75.5384, -69.8314, 96.8954
1.764, 1, 20.6967, 54.7044, -4.54188, 75.6019, -69.7781, 96.7489
1.768, 1, 20.7404, 54.6853, -4.56912, 75.6654, -69.7248, 96.6025
1.772, 1, 20.784, 54.6662, -4.59633, 75.7288, -69.6716, 96.4563
1.776, 1, 20.8277, 54.6471, -4.62353, 75.7921, -69.6184, 96.3102
1.78, 1, 20.8713, 54.6281, -4.65069, 75.8554, -69.5652, 96.1642
1.784, 1, 20.9148, 54.609, -4.67784, 75.9186, -69.5121, 96.0183
1.788, 1, 20.9584, 54.59, -4.70496, 75.9818, -69.4591, 95.8726
1.792, 1, 21.0018, 54.571, -4.73206, 76.0449, -69.4061, 95.727
1.796, 1, 21.0453, 54.552, -4.75913, 76.1079, -69.3531, 95.5816
1.8, 1, 21.0887, 54.533, -4.78618, 76.171, -69.3002, 95.4362
1.804, 1, 21.132, 54.5141, -4.81321, 76.2339, -69.2474, 95.291
1.808, 1, 21.1754, 54.4952, -4.84021, 76.2968, -69.1945, 95.1459
1.812, 1, 21.2187, 54.4762, -4.86719, 76.3596, -69.1418, 95.0009
1.816, 1, 21.2619, 54.4573, -4.89415, 76.4224, -69.089, 94.8561
1.82, 1, 21.3051, 54.4384, -4.92108, 76.4851, -69.0364, 94.7114
1.824, 1, 21.3483, 54.4196, -4.94799, 76.5478, -68.9837, 94.5668
1.828, 1, 21.3915, 54.4007, -4.97488, 76.6104, -68.9311, 94.4223
1.832, 1, 21.4346, 54.3819, -5.00174, 76.673, -68.8786, 94.278
1.836, 1, 21.4776, 54.363, -5.02858, 76.7355, -68.8261, 94.1338
1.84, 1, 21.5207, 54.3442, -5.05539, 76.798, -68.7736, 93.9897
1.844, 1, 21.5637, 54.3254, -5.08219, 76.8604, -68.7212, 93.8457
1.848, 1, 21.6066, 54.3067, -5.10896, 76.9227, -68.6688, 93.7019
1.852, 1, 21.6495, 54.2879, -5.1357, 76.985, -68.6165, 93.5582
1.856, 1, 21.6924, 54.2691, -5.16243, 77.0473, -68.5643, 93.4146
1.86, 1, 21.7353, 54.2504, -5.18913, 77.1095, -68.512, 93.2711
1.864, 1, 21.7781, 54.2317, -5.21581, 77.1716, -68.4598, 93.1278
1.868, 1, 21.8208, 54.213, -5.24246, 77.2337, -68.4077, 92.9846
1.872, 1, 21.8636, 54.1943, -5.2691, 77.2957, -68.3556, 92.8415
1.876, 1, 21.9063, 54.1757, -5.29571, 77.3577, -68.3036, 92.6985
1.88, 1, 21.9489, 54.157, -5.32229, 77.4196, -68.2515, 92.5556
1.884, 1, 21.9916, 54.1384, -5.34886, 77.4815, -68.1996, 92.4129
1.888, 1, 22.0342, 54.1198, -5.3754, 77.5433, -68.1477, 92.2703
1.892, 1, 22.0767, 54.1012, -5.40192, 77.6051, -68.0958, 92.1278
1.896, 1, 22.1192, 54.0826, -5.42842, 77.6668, -68.044, 91.9854
1.9, 1, 22.1617, 54.064, -5.45489, 77.7284, -67.9922, 91.8432
1.904, 1, 22.2042, 54.0455, -5.48134, 77.7901, -67.9404, 91.701
1.908, 1, 22.2466, 54.0269, -5.50777, 77.8516, -67.8887, 91.559
1.912, 1, 22.2889, 54.0084, -5.53418, 77.9131, -67.8371, 91.4171
1.916, 1, 22.3313, 53.9899, -5.56056, 77.9746, -67.7855, 91.2754
1.92, 1, 22.3736, 53.9714, -5.58693, 78.036, -67.7339, 91.1337
1.924, 1, 22.4158, 53.9529, -5.61327, 78.0973, -67.6824, 90.9922
1.928, 1, 22.4581, 53.9345, -5.63959, 78.1586, -67.6309, 90.8508
1.932, 1, 22.5003, 53.916, -5.66588, 78.2199, -67.5795, 90.7095
1.936, 1, 22.5424, 53.8976, -5.69216, 78.2811, -67.5281, 90.5683
1.94, 1, 22.5846, 53.8792, -5.71841, 78.3422, -67.4767, 90.4273
1.944, 1, 22.6266, 53.8608, -5.74464, 78.4033, -67.4254, 90.2863
1.948, 1, 22.6687, 53.8424, -5.77085, 78.4643, -67.3741, 90.1455
1.952, 1, 22.7107, 53.824, -5.79703, 78.5253, -67.3229, 90.0048
1.956, 1, 22.7527, 53.8057, -5.8232, 78.5863, -67.2717, 89.8642
1.96, 1, 22.7947, 53.7873, -5.84934, 78.6472, -67.2206, 89.7238
1.964, 1, 22.8366, 53.769, -5.87546, 78.708, -67.1695, 89.5834
1.968, 1, 22.8785, 53.7507, -5.90156, 78.7688, -67.1185, 89.4432
1.972, 1, 22.9203, 53.7324, -5.92764, 78.8295, -67.0675, 89.3031
1.976, 1, 22.9621, 53.7142, -5.95369, 78.8902, -67.0165, 89.163
1.98, 1, 23.0039, 53.6959, -5.97973, 78.9509, -66.9656, 89.0232
1.984, 1, 23.0456, 53.6777, -6.00574, 79.0114, -66.9147, 88.8834
1.988, 1, 23.0873, 53.6594, -6.03173, 79.072, -66.8638, 88.7438
1.992, 1, 23.129, 53.6412, -6.0577, 79.1325, -66.813, 88.6042
1.996, 1, 23.1706, 53.623, -6.08365, 79.1929, -66.7623, 88.4648
1.999, 1, 23.2122, 53.6048, -6.10957, 79.2533, -66.7116, 88.3255
2.004, 1, 23.2538, 53.5866, -6.13548, 79.3136, -66.6609, 88.1863
2.008, 1, 23.2953, 53.5685, -6.16136, 79.3739, -66.6103, 88.0472
2.012, 1, 23.3368, 53.5504, -6.18723, 79.4341, -66.5597, 87.9082
2.015, 1, 23.3783, 53.5322, -6.21307, 79.4943, -66.5091, 87.7694
2.019, 1, 23.4197, 53.5141, -6.23889, 79.5545, -66.4586, 87.6307
2.024, 1, 23.4611, 53.496, -6.26469, 79.6146, -66.4082, 87.492
2.028, 1, 23.5025, 53.4779, -6.29047, 79.6746, -66.3577, 87.3535
2.031, 1, 23.5438, 53.4599, -6.31622, 79.7346, -66.3073, 87.2151
2.036, 1, 23.5851, 53.4418, -6.34196, 79.7945, -66.257, 87.0769
2.04, 1, 23.6264, 53.4238, -6.36767, 79.8544, -66.2067, 86.9387
2.044, 1, 23.6676, 53.4058, -6.39337, 79.9143, -66.1564, 86.8006
2.048, 1, 23.7088, 53.3878, -6.41904, 79.9741, -66.1062, 86.6627
2.051, 1, 23.75, 53.3698, -6.44469, 80.0338, -66.056, 86.5248
2.055, 1, 23.7911, 53.3518, -6.47033, 80.0935, -66.0059, 86.3871
2.06, 1, 23.8322, 53.3338, -6.49594, 80.1532, -65.9558, 86.2495
2.064, 1, 23.8733, 53.3159, -6.52153, 80.2128, -65.9058, 86.112
2.068, 1, 23.9143, 53.2979, -6.54709, 80.2723, -65.8557, 85.9746
2.071, 1, 23.9553, 53.28, -6.57264, 80.3318, -65.8058, 85.8374
2.076, 1, 23.9962, 53.2621, -6.59817, 80.3913, -65.7558, 85.7002
2.08, 1, 24.0372, 53.2442, -6.62368, 80.4507, -65.7059, 85.5631
2.084, 1, 24.0781, 53.2263, -6.64917, 80.5101, -65.6561, 85.4262
2.087, 1, 24.1189, 53.2085, -6.67463, 80.5694, -65.6063, 85.2894
2.092, 1, 24.1598, 53.1906, -6.70008, 80.6286, -65.5565, 85.1526
2.096, 1, 24.2006, 53.1728, -6.7255, 80.6879, -65.5068, 85.016
2.1, 1, 24.2413, 53.155, -6.75091, 80.747, -65.4571, 84.8795
2.104, 1, 24.2821, 53.1372, -6.77629, 80.8062, -65.4074, 84.7431
2.107, 1, 24.3228, 53.1194, -6.80166, 80.8652, -65.3578, 84.6068
2.111, 1, 24.3634, 53.1016, -6.827, 80.9243, -65.3082, 84.4707
2.116, 1, 24.4041, 53.0838, -6.85233, 80.9832, -65.2587, 84.3346
2.12, 1, 24.4447, 53.0661, -6.87763, 81.0422, -65.2092, 84.1986
2.124, 1, 24.4853, 53.0484, -6.90291, 81.1011, -65.1597, 84.0628
2.127, 1, 24.5258, 53.0306, -6.92818, 81.1599, -65.1103, 83.927
2.132, 1, 24.5663, 53.0129, -6.95342, 81.2187, -65.0609, 83.7914
2.136, 1, 24.6068, 52.9952, -6.97865, 81.2775, -65.0116, 83.6559
2.14, 1, 24.6472, 52.9776, -7.00385, 81.3362, -64.9623, 83.5204
2.143, 1, 24.6876, 52.9599, -7.02903, 81.3948, -64.913, 83.3851
2.148, 1, 24.728, 52.9423, -7.0542, 81.4534, -64.8638, 83.2499
2.152, 1, 24.7684, 52.9246, -7.07934, 81.512, -64.8146, 83.1148
2.156, 1, 24.8087, 52.907, -7.10447, 81.5705, -64.7655, 82.9798
2.16, 1, 24.849, 52.8894, -7.12957, 81.629, -64.7164, 82.8449
2.163, 1, 24.8892, 52.8718, -7.15466, 81.6874, -64.6673, 82.7101
2.168, 1, 24.9294, 52.8542, -7.17972, 81.7458, -64.6183, 82.5754
2.172, 1, 24.9696, 52.8366, -7.20477, 81.8041, -64.5693, 82.4409
2.176, 1, 25.0098, 52.8191, -7.2298, 81.8624, -64.5203, 82.3064
2.179, 1, 25.0499, 52.8015, -7.2548, 81.9207, -64.4714, 82.172
2.184, 1, 25.09, 52.784, -7.27979, 81.9789, -64.4225, 82.0378
2.188, 1, 25.1301, 52.7665, -7.30476, 82.037, -64.3737, 81.9036
2.192, 1, 25.1701, 52.749, -7.32971, 82.0951, -64.3249, 81.7695
2.196, 1, 25.2101, 52.7315, -7.35464, 82.1532, -64.2761, 81.6356
2.199, 1, 25.2501, 52.7141, -7.37955, 82.2112, -64.2274, 81.5017
2.204, 1, 25.29, 52.6966, -7.40444, 82.2692, -64.1787, 81.368
2.208, 1, 25.3299, 52.6791, -7.42931, 82.3271, -64.1301, 81.2344
2.212, 1, 25.3698, 52.6617, -7.45417, 82.385, -64.0814, 81.1008
2.216, 1, 25.4097, 52.6443, -7.479, 82.4428, -64.0329, 80.9674
2.219, 1, 25.4495, 52.6269, -7.50382, 82.5006, -63.9843, 80.834
2.224, 1, 25.4893, 52.6095, -7.52861, 82.5584, -63.9358, 80.7008
2.228, 1, 25.529, 52.5921, -7.55339, 82.6161, -63.8874, 80.5677
2.232, 1, 25.5688, 52.5747, -7.57815, 82.6738, -63.8389, 80.4347
2.235, 1, 25.6085, 52.5574, -7.60289, 82.7314, -63.7905, 80.3017
2.24, 1, 25.6481, 52.5401, -7.62761, 82.789, -63.7422, 80.1689
2.244, 1, 25.6878, 52.5227, -7.65231, 82.8465, -63.6939, 80.0362
2.248, 1, 25.7274, 52.5054, -7.67699, 82.904, -63.6456, 79.9035
2.252, 1, 25.767, 52.4881, -7.70166, 82.9614, -63.5973, 79.771
2.255, 1, 25.8065, 52.4708, -7.7263, 83.0188, -63.5491, 79.6386
2.259, 1, 25.846, 52.4536, -7.75093, 83.0762, -63.5009, 79.5063
2.264, 1, 25.8855, 52.4363, -7.77554, 83.1335, -63.4528, 79.374
2.268, 1, 25.925, 52.4191, -7.80013, 83.1908, -63.4047, 79.2419
2.272, 1, 25.9644, 52.4018, -7.8247, 83.248, -63.3566, 79.1099
2.275, 1, 26.0038, 52.3846, -7.84925, 83.3052, -63.3086, 78.978
2.28, 1, 26.0432, 52.3674, -7.87379, 83.3624, -63.2606, 78.8461
2.284, 1, 26.0825, 52.3502, -7.8983, 83.4195, -63.2127, 78.7144
2.288, 1, 26.1218, 52.333, -7.9228, 83.4765, -63.1647, 78.5828
2.291, 1, 26.1611, 52.3158, -7.94728, 83.5335, -63.1169, 78.4512
2.296, 1, 26.2003, 52.2987, -7.97174, 83.5905, -63.069, 78.3198
2.3, 1, 26.2396, 52.2815, -7.99619, 83.6474, -63.0212, 78.1885
2.304, 1, 26.2788, 52.2644, -8.02061, 83.7043, -62.9734, 78.0572
2.308, 1, 26.3179, 52.2473, -8.04502, 83.7612, -62.9257, 77.9261
2.311, 1, 26.3571, 52.2302, -8.06941, 83.818, -62.878, 77.7951
2.316, 1, 26.3962, 52.2131, -8.09378, 83.8747, -62.8303, 77.6641
2.32, 1, 26.4352, 52.196, -8.11813, 83.9315, -62.7827, 77.5332
2.324, 1, 26.4743, 52.1789, -8.14247, 83.9881, -62.7351, 77.4025
2.328, 1, 26.5133, 52.1619, -8.16678, 84.0448, -62.6875, 77.2718
2.331, 1, 26.5523, 52.1448, -8.19108, 84.1014, -62.64, 77.1413
2.336, 1, 26.5913, 52.1278, -8.21536, 84.1579, -62.5925, 77.0108
2.34, 1, 26.6302, 52.1108, -8.23962, 84.2144, -62.545, 76.8804
2.344, 1, 26.6691, 52.0938, -8.26387, 84.2709, -62.4976, 76.7502
2.347, 1, 26.708, 52.0768, -8.2881, 84.3273, -62.4502, 76.62
2.352, 1, 26.7468, 52.0598, -8.31231, 84.3837, -62.4028, 76.4899
2.356, 1, 26.7856, 52.0428, -8.3365, 84.4401, -62.3555, 76.3599
2.36, 1, 26.8244, 52.0259, -8.36067, 84.4964, -62.3082, 76.23
2.364, 1, 26.8632, 52.0089, -8.38483, 84.5526, -62.261, 76.1002
2.367, 1, 26.9019, 51.992, -8.40897, 84.6089, -62.2138, 75.9705
2.372, 1, 26.9406, 51.9751, -8.43309, 84.6651, -62.1666, 75.8409
2.376, 1, 26.9793, 51.9582, -8.4572, 84.7212, -62.1194, 75.7114
2.38, 1, 27.018, 51.9413, -8.48128, 84.7773, -62.0723, 75.582
2.383, 1, 27.0566, 51.9244, -8.50535, 84.8334, -62.0252, 75.4527
2.388, 1, 27.0952, 51.9075, -8.5294, 84.8894, -61.9782, 75.3234
2.392, 1, 27.1338, 51.8907, -8.55344, 84.9454, -61.9312, 75.1943
2.396, 1, 27.1723, 51.8738, -8.57746, 85.0013, -61.8842, 75.0652
2.4, 1, 27.2108, 51.857, -8.60146, 85.0572, -61.8372, 74.9363
2.403, 1, 27.2493, 51.8402, -8.62544, 85.113, -61.7903, 74.8074
2.408, 1, 27.2877, 51.8234, -8.64941, 85.1689, -61.7435, 74.6786
2.412, 1, 27.3262, 51.8066, -8.67335, 85.2246, -61.6966, 74.55
2.416, 1, 27.3646, 51.7898, -8.69729, 85.2804, -61.6498, 74.4214
2.42, 1, 27.4029, 51.773, -8.7212, 85.3361, -61.603, 74.2929
2.423, 1, 27.4413, 51.7562, -8.7451, 85.3917, -61.5563, 74.1645
2.428, 1, 27.4796, 51.7395, -8.76898, 85.4474, -61.5096, 74.0362
2.432, 1, 27.5179, 51.7228, -8.79284, 85.5029, -61.4629, 73.9079
2.436, 1, 27.5562, 51.706, -8.81669, 85.5585, -61.4162, 73.7798
2.439, 1, 27.5944, 51.6893, -8.84052, 85.614, -61.3696, 73.6518
2.444, 1, 27.6326, 51.6726, -8.86433, 85.6694, -61.323, 73.5238
2.448, 1, 27.6708, 51.6559, -8.88812, 85.7249, -61.2765, 73.396
2.452, 1, 27.709, 51.6392, -8.9119, 85.7803, -61.23, 73.2682
2.456, 1, 27.7471, 51.6226, -8.93566, 85.8356, -61.1835, 73.1405
2.459, 1, 27.7852, 51.6059, -8.95941, 85.8909, -61.1371, 73.0129
2.464, 1, 27.8233, 51.5893, -8.98314, 85.9462, -61.0906, 72.8854
2.468, 1, 27.8613, 51.5726, -9.00685, 86.0014, -61.0443, 72.758
2.472, 1, 27.8993, 51.556, -9.03054, 86.0566, -60.9979, 72.6307
2.476, 1, 27.9373, 51.5394, -9.05422, 86.1117, -60.9516, 72.5035
2.479, 1, 27.9753, 51.5228, -9.07788, 86.1668, -60.9053, 72.3764
2.484, 1, 28.0132, 51.5062, -9.10153, 86.2219, -60.8591, 72.2493
2.488, 1, 28.0512, 51.4897, -9.12516, 86.277, -60.8128, 72.1223
2.492, 1, 28.089, 51.4731, -9.14877, 86.332, -60.7666, 71.9955
2.495, 1, 28.1269, 51.4565, -9.17237, 86.3869, -60.7205, 71.8687
2.5, 1, 28.1647, 51.44, -9.19595, 86.4418, -60.6744, 71.742
2.504, 1, 28.2026, 51.4235, -9.21951, 86.4967, -60.6283, 71.6154
2.508, 1, 28.2403, 51.407, -9.24306, 86.5516, -60.5822, 71.4889
2.512, 1, 28.2781, 51.3905, -9.26659, 86.6064, -60.5362, 71.3624
2.515, 1, 28.3158, 51.374, -9.2901, 86.6611, -60.4902, 71.2361
2.52, 1, 28.3535, 51.3575, -9.3136, 86.7159, -60.4442, 71.1098
2.524, 1, 28.3912, 51.341, -9.33708, 86.7706, -60.3983, 70.9837
2.528, 1, 28.4289, 51.3246, -9.36055, 86.8252, -60.3524, 70.8576
2.531, 1, 28.4665, 51.3081, -9.384, 86.8798, -60.3065, 70.7316
2.536, 1, 28.5041, 51.2917, -9.40743, 86.9344, -60.2607, 70.6057
2.54, 1, 28.5417, 51.2752, -9.43085, 86.989, -60.2149, 70.4798
2.544, 1, 28.5792, 51.2588, -9.45425, 87.0435, -60.1691, 70.3541
2.548, 1, 28.6168, 51.2424, -9.47764, 87.0979, -60.1234, 70.2284
2.551, 1, 28.6543, 51.226, -9.50101, 87.1524, -60.0776, 70.1029
2.556, 1, 28.6917, 51.2097, -9.52436, 87.2067, -60.032, 69.9774
2.56, 1, 28.7292, 51.1933, -9.5477, 87.2611, -59.9863, 69.852
2.564, 1, 28.7666, 51.1769, -9.57102, 87.3154, -59.9407, 69.7267
2.568, 1, 28.804, 51.1606, -9.59433, 87.3697, -59.8951, 69.6014
2.571, 1, 28.8414, 51.1442, -9.61762, 87.424, -59.8495, 69.4763
2.576, 1, 28.8787, 51.1279, -9.6409, 87.4782, -59.804, 69.3512
2.58, 1, 28.9161, 51.1116, -9.66416, 87.5324, -59.7585, 69.2262
2.584, 1, 28.9534, 51.0953, -9.6874, 87.5865, -59.713, 69.1013
2.587, 1, 28.9906, 51.079, -9.71063, 87.6406, -59.6676, 68.9765
2.592, 1, 29.0279, 51.0627, -9.73384, 87.6947, -59.6222, 68.8518
2.596, 1, 29.0651, 51.0464, -9.75704, 87.7487, -59.5768, 68.7271
2.6, 1, 29.1023, 51.0302, -9.78022, 87.8027, -59.5315, 68.6026
2.604, 1, 29.1395, 51.0139, -9.80339, 87.8567, -59.4862, 68.4781
2.607, 1, 29.1766, 50.9977, -9.82654, 87.9106, -59.4409, 68.3537
2.612, 1, 29.2138, 50.9815, -9.84968, 87.9645, -59.3956, 68.2294
2.616, 1, 29.2509, 50.9653, -9.8728, 88.0183, -59.3504, 68.1052
2.62, 1, 29.2879, 50.949, -9.8959, 88.0721, -59.3052, 67.981
2.624, 1, 29.325, 50.9328, -9.91899, 88.1259, -59.26, 67.8569
2.627, 1, 29.362, 50.9167, -9.94207, 88.1796, -59.2149, 67.733
2.632, 1, 29.399, 50.9005, -9.96513, 88.2334, -59.1698, 67.6091
2.636, 1, 29.436, 50.8843, -9.98817, 88.287, -59.1247, 67.4852
2.64, 1, 29.4729, 50.8682, -10.0112, 88.3407, -59.0797, 67.3615
2.643, 1, 29.5099, 50.852, -10.0342, 88.3943, -59.0346, 67.2378
2.648, 1, 29.5468, 50.8359, -10.0572, 88.4479, -58.9896, 67.1143
2.652, 1, 29.5837, 50.8198, -10.0802, 88.5014, -58.9447, 66.9908
2.656, 1, 29.6205, 50.8037, -10.1032, 88.5549, -58.8998, 66.8673
2.66, 1, 29.6574, 50.7876, -10.1261, 88.6083, -58.8549, 66.744
2.663, 1, 29.6942, 50.7715, -10.1491, 88.6618, -58.81, 66.6207
2.668, 1, 29.7309, 50.7554, -10.172, 88.7152, -58.7651, 66.4976
2.672, 1, 29.7677, 50.7393, -10.1949, 88.7685, -58.7203, 66.3745
2.676, 1, 29.8044, 50.7233, -10.2178, 88.8219, -58.6755, 66.2514
2.679, 1, 29.8412, 50.7072, -10.2407, 88.8752, -58.6308, 66.1285
2.684, 1, 29.8779, 50.6912, -10.2635, 88.9284, -58.5861, 66.0056
2.688, 1, 29.9145, 50.6751, -10.2864, 88.9816, -58.5414, 65.8829
2.692, 1, 29.9512, 50.6591, -10.3092, 89.0348, -58.4967, 65.7602
2.696, 1, 29.9878, 50.6431, -10.3321, 89.088, -58.452, 65.6375
2.699, 1, 30.0244, 50.6271, -10.3549, 89.1411, -58.4074, 65.515
2.704, 1, 30.061, 50.6111, -10.3777, 89.1942, -58.3628, 65.3925
2.708, 1, 30.0975, 50.5952, -10.4004, 89.2472, -58.3183, 65.2701
2.712, 1, 30.134, 50.5792, -10.4232, 89.3003, -58.2738, 65.1478
2.716, 1, 30.1705, 50.5632, -10.4459, 89.3532, -58.2293, 65.0256
2.719, 1, 30.207, 50.5473, -10.4687, 89.4062, -58.1848, 64.9034
2.724, 1, 30.2435, 50.5314, -10.4914, 89.4591, -58.1403, 64.7813
2.728, 1, 30.2799, 50.5154, -10.5141, 89.512, -58.0959, 64.6593
2.732, 1, 30.3163, 50.4995, -10.5368, 89.5648, -58.0515, 64.5374
2.735, 1, 30.3527, 50.4836, -10.5595, 89.6177, -58.0072, 64.4156
2.74, 1, 30.3891, 50.4677, -10.5821, 89.6705, -57.9629, 64.2938
2.744, 1, 30.4254, 50.4518, -10.6048, 89.7232, -57.9186, 64.1721
2.748, 1, 30.4617, 50.436, -10.6274, 89.7759, -57.8743, 64.0505
2.752, 1, 30.498, 50.4201, -10.65, 89.8286, -57.83, 63.9289
2.755, 1, 30.5343, 50.4042, -10.6726, 89.8813, -57.7858, 63.8075
2.76, 1, 30.5706, 50.3884, -10.6952, 89.9339, -57.7416, 63.6861
2.764, 1, 30.6068, 50.3725, -10.7178, 89.9865, -57.6975, 63.5648
2.768, 1, 30.643, 50.3567, -10.7404, 90.039, -57.6533, 63.4435
2.772, 1, 30.6792, 50.3409, -10.7629, 90.0915, -57.6092, 63.3224
2.775, 1, 30.7153, 50.3251, -10.7855, 90.144, -57.5651, 63.2013
2.78, 1, 30.7515, 50.3093, -10.808, 90.1965, -57.5211, 63.0803
2.784, 1, 30.7876, 50.2935, -10.8305, 90.2489, -57.4771, 62.9593
2.788, 1, 30.8237, 50.2777, -10.853, 90.3013, -57.4331, 62.8385
2.791, 1, 30.8598, 50.262, -10.8755, 90.3537, -57.3891, 62.7177
2.796, 1, 30.8958, 50.2462, -10.8979, 90.406, -57.3451, 62.597
2.8, 1, 30.9318, 50.2305, -10.9204, 90.4583, -57.3012, 62.4763
2.804, 1, 30.9678, 50.2147, -10.9428, 90.5105, -57.2573, 62.3558
2.808, 1, 31.0038, 50.199, -10.9652, 90.5628, -57.2135, 62.2353
2.811, 1, 31.0398, 50.1833, -10.9877, 90.615, -57.1696, 62.1149
2.816, 1, 31.0757, 50.1676, -11.01, 90.6671, -57.1258, 61.9945
2.82, 1, 31.1116, 50.1519, -11.0324, 90.7193, -57.082, 61.8743
2.824, 1, 31.1475, 50.1362, -11.0548, 90.7714, -57.0383, 61.7541
2.828, 1, 31.1834, 50.1205, -11.0772, 90.8234, -56.9945, 61.634
2.831, 1, 31.2193, 50.1048, -11.0995, 90.8755, -56.9508, 61.5139
2.836, 1, 31.2551, 50.0892, -11.1218, 90.9275, -56.9072, 61.3939
2.84, 1, 31.2909, 50.0735, -11.1441, 90.9795, -56.8635, 61.274
2.844, 1, 31.3267, 50.0579, -11.1664, 91.0314, -56.8199, 61.1542
2.847, 1, 31.3624, 50.0422, -11.1887, 91.0833, -56.7763, 61.0344
2.852, 1, 31.3982, 50.0266, -11.211, 91.1352, -56.7327, 60.9147
2.856, 1, 31.4339, 50.011, -11.2333, 91.187, -56.6892, 60.7951
2.86, 1, 31.4696, 49.9954, -11.2555, 91.2389, -56.6457, 60.6756
2.864, 1, 31.5053, 49.9798, -11.2778, 91.2906, -56.6022, 60.5561
2.867, 1, 31.5409, 49.9642, -11.3, 91.3424, -56.5587, 60.4367
2.872, 1, 31.5766, 49.9486, -11.3222, 91.3941, -56.5153, 60.3174
2.876, 1, 31.6122, 49.9331, -11.3444, 91.4458, -56.4718, 60.1982
2.88, 1, 31.6478, 49.9175, -11.3666, 91.4975, -56.4285, 60.079
2.883, 1, 31.6833, 49.902, -11.3887, 91.5491, -56.3851, 59.9599
2.888, 1, 31.7189, 49.8864, -11.4109, 91.6007, -56.3418, 59.8408
2.892, 1, 31.7544, 49.8709, -11.433, 91.6523, -56.2984, 59.7218
2.896, 1, 31.7899, 49.8554, -11.4551, 91.7038, -56.2552, 59.603
2.9, 1, 31.8254, 49.8399, -11.4773, 91.7553, -56.2119, 59.4841
2.903, 1, 31.8609, 49.8244, -11.4994, 91.8068, -56.1687, 59.3654
2.908, 1, 31.8963, 49.8089, -11.5215, 91.8583, -56.1255, 59.2467
2.912, 1, 31.9318, 49.7934, -11.5435, 91.9097, -56.0823, 59.1281
2.916, 1, 31.9672, 49.7779, -11.5656, 91.9611, -56.0391, 59.0095
2.92, 1, 32.0025, 49.7624, -11.5876, 92.0124, -55.996, 58.891
2.923, 1, 32.0379, 49.747, -11.6097, 92.0638, -55.9529, 58.7726
2.928, 1, 32.0732, 49.7315, -11.6317, 92.1151, -55.9098, 58.6543
2.932, 1, 32.1086, 49.7161, -11.6537, 92.1663, -55.8667, 58.536
2.936, 1, 32.1439, 49.7007, -11.6757, 92.2176, -55.8237, 58.4178
2.939, 1, 32.1791, 49.6852, -11.6977, 92.2688, -55.7807, 58.2997
2.944, 1, 32.2144, 49.6698, -11.7197, 92.3199, -55.7377, 58.1816
2.948, 1, 32.2496, 49.6544, -11.7416, 92.3711, -55.6948, 58.0636
2.952, 1, 32.2849, 49.639, -11.7636, 92.4222, -55.6518, 57.9457
2.956, 1, 32.3201, 49.6236, -11.7855, 92.4733, -55.6089, 57.8278
2.959, 1, 32.3552, 49.6083, -11.8074, 92.5244, -55.5661, 57.71
2.964, 1, 32.3904, 49.5929, -11.8293, 92.5754, -55.5232, 57.5923
2.968, 1, 32.4255, 49.5775, -11.8512, 92.6264, -55.4804, 57.4747
2.972, 1, 32.4606, 49.5622, -11.8731, 92.6774, -55.4376, 57.3571
2.976, 1, 32.4957, 49.5468, -11.895, 92.7283, -55.3948, 57.2396
2.98, 1, 32.5308, 49.5315, -11.9169, 92.7792, -55.352, 57.1221
2.984, 1, 32.5659, 49.5162, -11.9387, 92.8301, -55.3093, 57.0047
2.988, 1, 32.6009, 49.5009, -11.9605, 92.881, -55.2666, 56.8874
2.992, 1, 32.6359, 49.4856, -11.9824, 92.9318, -55.2239, 56.7702
2.995, 1, 32.6709, 49.4703, -12.0042, 92.9826, -55.1812, 56.653
3, 1, 32.7059, 49.455, -12.026, 93.0333, -55.1386, 56.5359
3.004, 1, 32.7408, 49.4397, -12.0477, 93.0841, -55.096, 56.4188
3.008, 1, 32.7758, 49.4244, -12.0695, 93.1348, -55.0534, 56.3018
3.012, 1, 32.8107, 49.4092, -12.0913, 93.1855, -55.0108, 56.1849
3.015, 1, 32.8456, 49.3939, -12.113, 93.2361, -54.9683, 56.068
3.02, 1, 32.8805, 49.3787, -12.1348, 93.2868, -54.9258, 55.9512
3.024, 1, 32.9153, 49.3634, -12.1565, 93.3373, -54.8833, 55.8345
3.028, 1, 32.9502, 49.3482, -12.1782, 93.3879, -54.8408, 55.7179
3.031, 1, 32.985, 49.333, -12.1999, 93.4385, -54.7984, 55.6013
3.036, 1, 33.0198, 49.3178, -12.2216, 93.489, -54.7559, 55.4847
3.04, 1, 33.0546, 49.3026, -12.2433, 93.5395, -54.7135, 55.3683
3.044, 1, 33.0893, 49.2874, -12.2649, 93.5899, -54.6712, 55.2519
3.048, 1, 33.1241, 49.2722, -12.2866, 93.6403, -54.6288, 55.1356
3.051, 1, 33.1588, 49.257, -12.3082, 93.6907, -54.5865, 55.0193
3.056, 1, 33.1935, 49.2418, -12.3298, 93.7411, -54.5442, 54.9031
3.06, 1, 33.2282, 49.2267, -12.3515, 93.7915, -54.5019, 54.7869
3.064, 1, 33.2628, 49.2115, -12.3731, 93.8418, -54.4596, 54.6709
3.068, 1, 33.2975, 49.1964, -12.3946, 93.8921, -54.4174, 54.5549
3.071, 1, 33.3321, 49.1812, -12.4162, 93.9423, -54.3752, 54.4389
3.076, 1, 33.3667, 49.1661, -12.4378, 93.9926, -54.333, 54.323
3.08, 1, 33.4013, 49.151, -12.4593, 94.0428, -54.2908, 54.2072
3.084, 1, 33.4359, 49.1359, -12.4809, 94.0929, -54.2487, 54.0914
3.087, 1, 33.4704, 49.1208, -12.5024, 94.1431, -54.2066, 53.9758
3.092, 1, 33.505, 49.1057, -12.5239, 94.1932, -54.1645, 53.8601
3.096, 1, 33.5395, 49.0906, -12.5455, 94.2433, -54.1224, 53.7446
3.1, 1, 33.574, 49.0755, -12.5669, 94.2934, -54.0804, 53.6291
3.104, 1, 33.6084, 49.0605, -12.5884, 94.3434, -54.0383, 53.5136
3.107, 1, 33.6429, 49.0454, -12.6099, 94.3934, -53.9963, 53.3982
3.112, 1, 33.6773, 49.0303, -12.6314, 94.4434, -53.9544, 53.2829
3.116, 1, 33.7118, 49.0153, -12.6528, 94.4934, -53.9124, 53.1677
3.12, 1, 33.7462, 49.0003, -12.6743, 94.5433, -53.8705, 53.0525
3.124, 1, 33.7805, 48.9852, -12.6957, 94.5932, -53.8286, 52.9373
3.128, 1, 33.8149, 48.9702, -12.7171, 94.6431, -53.7867, 52.8223
3.132, 1, 33.8492, 48.9552, -12.7385, 94.6929, -53.7448, 52.7073
3.136, 1, 33.8836, 48.9402, -12.7599, 94.7428, -53.7029, 52.5923
3.14, 1, 33.9179, 48.9252, -12.7813, 94.7926, -53.6611, 52.4774
3.143, 1, 33.9522, 48.9102, -12.8026, 94.8423, -53.6193, 52.3626
3.148, 1, 33.9864, 48.8952, -12.824, 94.8921, -53.5775, 52.2479
3.152, 1, 34.0207, 48.8803, -12.8453, 94.9418, -53.5358, 52.1332
3.156, 1, 34.0549, 48.8653, -12.8667, 94.9915, -53.4941, 52.0185
3.16, 1, 34.0891, 48.8503, -12.888, 95.0412, -53.4523, 51.9039
3.163, 1, 34.1233, 48.8354, -12.9093, 95.0908, -53.4107, 51.7894
3.168, 1, 34.1575, 48.8204, -12.9306, 95.1404, -53.369, 51.675
3.172, 1, 34.1917, 48.8055, -12.9519, 95.19, -53.3273, 51.5606
3.176, 1, 34.2258, 48.7906, -12.9732, 95.2396, -53.2857, 51.4462
3.179, 1, 34.2599, 48.7757, -12.9945, 95.2891, -53.2441, 51.332
3.184, 1, 34.2941, 48.7608, -13.0157, 95.3386, -53.2025, 51.2178
3.188, 1, 34.3281, 48.7459, -13.037, 95.3881, -53.161, 51.1036
3.192, 1, 34.3622, 48.731, -13.0582, 95.4376, -53.1194, 50.9895
3.196, 1, 34.3963, 48.7161, -13.0794, 95.487, -53.0779, 50.8755
3.199, 1, 34.4303, 48.7012, -13.1006, 95.5364, -53.0364, 50.7615
3.204, 1, 34.4643, 48.6863, -13.1218, 95.5858, -52.995, 50.6476
3.208, 1, 34.4983, 48.6715, -13.143, 95.6351, -52.9535, 50.5337
3.212, 1, 34.5323, 48.6566, -13.1642, 95.6844, -52.9121, 50.4199
3.216, 1, 34.5663, 48.6418, -13.1854, 95.7337, -52.8707, 50.3062
3.22, 1, 34.6002, 48.6269, -13.2065, 95.783, -52.8293, 50.1925
3.224, 1, 34.6342, 48.6121, -13.2277, 95.8323, -52.7879, 50.0789
3.228, 1, 34.6681, 48.5973, -13.2488, 95.8815, -52.7466, 49.9653
3.232, 1, 34.702, 48.5824, -13.2699, 95.9307, -52.7053, 49.8518
3.235, 1, 34.7358, 48.5676, -13.291, 95.9799, -52.664, 49.7384
3.24, 1, 34.7697, 48.5528, -13.3121, 96.029, -52.6227, 49.625
3.244, 1, 34.8036, 48.538, -13.3332, 96.0782, -52.5814, 49.5117
3.248, 1, 34.8374, 48.5233, -13.3543, 96.1273, -52.5402, 49.3984
3.252, 1, 34.8712, 48.5085, -13.3754, 96.1763, -52.499, 49.2852
3.255, 1, 34.905, 48.4937, -13.3964, 96.2254, -52.4578, 49.1721
3.26, 1, 34.9388, 48.4789, -13.4175, 96.2744, -52.4166, 49.059
3.264, 1, 34.9725, 48.4642, -13.4385, 96.3234, -52.3755, 48.9459
3.268, 1, 35.0062, 48.4494, -13.4595, 96.3724, -52.3344, 48.833
3.272, 1, 35.04, 48.4347, -13.4806, 96.4213, -52.2932, 48.72
3.276, 1, 35.0737, 48.42, -13.5016, 96.4702, -52.2522, 48.6072
3.28, 1, 35.1074, 48.4052, -13.5226, 96.5191, -52.2111, 48.4944
3.284, 1, 35.141, 48.3905, -13.5435, 96.568, -52.17, 48.3816
3.288, 1, 35.1747, 48.3758, -13.5645, 96.6169, -52.129, 48.2689
3.291, 1, 35.2083, 48.3611, -13.5855, 96.6657, -52.088, 48.1563
3.296, 1, 35.2419, 48.3464, -13.6064, 96.7145, -52.047, 48.0437
3.3, 1, 35.2754, 48.3318, -13.6274, 96.7633, -52.0061, 47.9312
3.304, 1, 35.3088, 48.3171, -13.6483, 96.812, -51.9651, 47.8187
3.308, 1, 35.3421, 48.3025, -13.6693, 96.8607, -51.9242, 47.7063
3.312, 1, 35.375, 48.2881, -13.6902, 96.9094, -51.8834, 47.5941
3.316, 1, 35.4073, 48.2741, -13.7112, 96.958, -51.8426, 47.4819
3.32, 1, 35.4386, 48.2604, -13.7323, 97.0065, -51.8019, 47.3701
3.324, 1, 35.4687, 48.2474, -13.7534, 97.0547, -51.7614, 47.2587
3.328, 1, 35.4975, 48.2351, -13.7745, 97.1026, -51.7213, 47.1481
3.332, 1, 35.5249, 48.2236, -13.7956, 97.1499, -51.6816, 47.0388
3.336, 1, 35.5511, 48.2127, -13.8164, 97.1965, -51.6426, 46.9313
3.34, 1, 35.5762, 48.2024, -13.8368, 97.2419, -51.6045, 46.8263
3.344, 1, 35.6003, 48.1926, -13.8567, 97.286, -51.5677, 46.7245
3.347, 1, 35.6234, 48.1832, -13.8758, 97.3283, -51.5323, 46.6268
3.352, 1, 35.6455, 48.1743, -13.894, 97.3685, -51.4986, 46.5338
3.356, 1, 35.6666, 48.1658, -13.9111, 97.4064, -51.4669, 46.4462
3.36, 1, 35.6865, 48.1576, -13.9269, 97.4416, -51.4374, 46.3648
3.364, 1, 35.7054, 48.1498, -13.9413, 97.474, -51.4102, 46.2901
3.368, 1, 35.7235, 48.1422, -13.9543, 97.5032, -51.3857, 46.2225
3.372, 1, 35.7409, 48.1347, -13.9656, 97.5294, -51.3638, 46.1622
3.376, 1, 35.7576, 48.1273, -13.9753, 97.5522, -51.3445, 46.1095
3.38, 1, 35.7738, 48.1198, -13.9833, 97.572, -51.3279, 46.064
3.383, 1, 35.7892, 48.1126, -13.9899, 97.5887, -51.3137, 46.0255
3.388, 1, 35.8036, 48.1057, -13.9951, 97.6027, -51.3019, 45.9934
3.392, 1, 35.8167, 48.0992, -13.9991, 97.6141, -51.2922, 45.9672
3.396, 2, 35.8285, 48.0934, -14.0022, 97.6233, -51.2844, 45.9462
3.4, 2, 35.8389, 48.0881, -14.0045, 97.6305, -51.2782, 45.9296
3.403, 2, 35.848, 48.0835, -14.0061, 97.6361, -51.2734, 45.9168
3.408, 2, 35.8561, 48.0795, -14.0071, 97.6404, -51.2698, 45.9072
3.412, 2, 35.8631, 48.0761, -14.0078, 97.6435, -51.267, 45.9
3.416, 2, 35.8691, 48.0732, -14.0082, 97.6458, -51.265, 45.8948
3.42, 2, 35.8741, 48.0708, -14.0084, 97.6475, -51.2636, 45.8912
3.424, 2, 35.8782, 48.069, -14.0085, 97.6486, -51.2626, 45.8886
3.428, 2, 35.8813, 48.0676, -14.0086, 97.6494, -51.2619, 45.8869
3.432, 2, 35.8835, 48.0666, -14.0086, 97.6499, -51.2615, 45.8857
3.436, 2, 35.8851, 48.0661, -14.0086, 97.6503, -51.2612, 45.8849
3.439, 2, 35.8862, 48.066, -14.0086, 97.6505, -51.261, 45.8843
3.444, 2, 35.8869, 48.0664, -14.0086, 97.6507, -51.261, 45.8839
3.448, 2, 35.8874, 48.0674, -14.0087, 97.6508, -51.2612, 45.8835
3.452, 2, 35.8878, 48.0691, -14.0088, 97.6508, -51.2618, 45.8831
3.456, 2, 35.888, 48.0716, -14.009, 97.6507, -51.2631, 45.8826
3.46, 2, 35.8882, 48.075, -14.0093, 97.6506, -51.2653, 45.8817
3.464, 2, 35.8883, 48.0794, -14.0098, 97.6503, -51.2689, 45.8804
3.468, 2, 35.8884, 48.085, -14.0106, 97.6499, -51.2744, 45.8785
3.472, 2, 35.8885, 48.092, -14.0117, 97.6493, -51.2825, 45.8758
3.476, 2, 35.8886, 48.1006, -14.0132, 97.6484, -51.2938, 45.8719
3.48, 2, 35.8886, 48.1112, -14.0153, 97.6472, -51.3093, 45.8666
3.484, 2, 35.8886, 48.1237, -14.0181, 97.6455, -51.3297, 45.8597
3.488, 2, 35.8885, 48.1383, -14.0217, 97.6433, -51.3562, 45.8508
3.492, 2, 35.8885, 48.1551, -14.0262, 97.6405, -51.3896, 45.8395
3.495, 2, 35.8884, 48.174, -14.0317, 97.637, -51.431, 45.8255
3.5, 2, 35.8883, 48.1952, -14.0384, 97.6327, -51.4813, 45.8086
3.504, 2, 35.8882, 48.2187, -14.0464, 97.6275, -51.5411, 45.7885
3.508, 2, 35.8881, 48.2447, -14.0556, 97.6214, -51.6113, 45.765
3.512, 2, 35.888, 48.2732, -14.0662, 97.6141, -51.6922, 45.7379
3.516, 2, 35.8879, 48.3042, -14.0782, 97.6058, -51.7841, 45.7072
3.52, 2, 35.8878, 48.3375, -14.0915, 97.5963, -51.8873, 45.6728
3.524, 2, 35.8877, 48.3732, -14.1062, 97.5855, -52.0015, 45.6348
3.528, 2, 35.8876, 48.4112, -14.1222, 97.5736, -52.1265, 45.5933
3.531, 2, 35.8875, 48.4513, -14.1393, 97.5604, -52.2617, 45.5485
3.536, 2, 35.8876, 48.4937, -14.1575, 97.5461, -52.4065, 45.5007
3.54, 2, 35.8876, 48.5385, -14.1766, 97.5306, -52.5599, 45.4502
3.544, 2, 35.8878, 48.5855, -14.1965, 97.514, -52.721, 45.3972
3.548, 2, 35.888, 48.6346, -14.217, 97.4964, -52.8889, 45.3421
3.552, 2, 35.8882, 48.6857, -14.238, 97.4777, -53.0625, 45.2854
3.556, 2, 35.8883, 48.7386, -14.2594, 97.4582, -53.241, 45.2272
3.56, 2, 35.8885, 48.7931, -14.281, 97.4378, -53.4234, 45.1679
3.564, 2, 35.8886, 48.849, -14.3027, 97.4166, -53.6088, 45.1078
3.568, 2, 35.8885, 48.9062, -14.3244, 97.3947, -53.7965, 45.0471
3.572, 2, 35.8883, 48.9646, -14.346, 97.3721, -53.986, 44.9861
3.576, 2, 35.888, 49.0239, -14.3675, 97.3489, -54.1766, 44.9249
3.58, 2, 35.8875, 49.0841, -14.3887, 97.3251, -54.368, 44.8636
3.584, 2, 35.8868, 49.1449, -14.4097, 97.3008, -54.5599, 44.8024
3.587, 2, 35.886, 49.2062, -14.4304, 97.2758, -54.752, 44.7412
3.592, 2, 35.885, 49.2676, -14.4508, 97.2504, -54.9443, 44.6803
3.596, 2, 35.8838, 49.3292, -14.4708, 97.2245, -55.1365, 44.6195
3.6, 2, 35.8825, 49.3908, -14.4905, 97.198, -55.3287, 44.5589
3.604, 2, 35.8811, 49.4524, -14.5099, 97.1711, -55.5208, 44.4986
3.608, 2, 35.8795, 49.5139, -14.5289, 97.1437, -55.7127, 44.4384
3.612, 2, 35.8777, 49.5753, -14.5476, 97.1158, -55.9045, 44.3785
3.616, 2, 35.8758, 49.6365, -14.5658, 97.0874, -56.0962, 44.3188
3.62, 2, 35.8738, 49.6977, -14.5838, 97.0585, -56.2876, 44.2593
3.624, 2, 35.8716, 49.7587, -14.6013, 97.0292, -56.4789, 44.2001
3.628, 2, 35.8692, 49.8195, -14.6185, 96.9994, -56.67, 44.1411
3.632, 2, 35.8667, 49.8801, -14.6354, 96.9691, -56.8609, 44.0823
3.636, 2, 35.8641, 49.9406, -14.6518, 96.9384, -57.0515, 44.0237
3.64, 2, 35.8613, 50.001, -14.6679, 96.9072, -57.242, 43.9654
3.644, 2, 35.8583, 50.0611, -14.6837, 96.8756, -57.4323, 43.9072
3.648, 2, 35.8552, 50.1211, -14.699, 96.8435, -57.6224, 43.8493
3.652, 2, 35.852, 50.181, -14.714, 96.8109, -57.8124, 43.7916
3.656, 2, 35.8486, 50.2406, -14.7285, 96.778, -58.0021, 43.7341
3.66, 2, 35.8451, 50.3001, -14.7428, 96.7445, -58.1916, 43.6768
3.664, 2, 35.8414, 50.3593, -14.7566, 96.7107, -58.3809, 43.6196
3.668, 2, 35.8376, 50.4185, -14.77, 96.6764, -58.57, 43.5627
3.672, 2, 35.8336, 50.4774, -14.7831, 96.6416, -58.759, 43.506
3.676, 2, 35.8295, 50.5361, -14.7958, 96.6065, -58.9477, 43.4494
3.679, 2, 35.8252, 50.5947, -14.8081, 96.5709, -59.1362, 43.3931
3.684, 2, 35.8208, 50.653, -14.82, 96.5349, -59.3246, 43.3369
3.688, 2, 35.8162, 50.7112, -14.8315, 96.4985, -59.5127, 43.2809
3.692, 2, 35.8115, 50.7692, -14.8427, 96.4616, -59.7007, 43.2251
3.696, 2, 35.8067, 50.827, -14.8534, 96.4244, -59.8884, 43.1695
3.7, 2, 35.8017, 50.8846, -14.8637, 96.3867, -60.076, 43.114
3.704, 2, 35.7965, 50.942, -14.8737, 96.3486, -60.2633, 43.0587
3.708, 2, 35.7912, 50.9993, -14.8833, 96.3101, -60.4505, 43.0036
3.712, 2, 35.7858, 51.0563, -14.8924, 96.2712, -60.6374, 42.9486
3.716, 2, 35.7802, 51.1131, -14.9012, 96.2319, -60.8242, 42.8939
3.72, 2, 35.7745, 51.1697, -14.9096, 96.1922, -61.0108, 42.8392
3.724, 2, 35.7686, 51.2262, -14.9175, 96.1521, -61.1972, 42.7847
3.728, 2, 35.7626, 51.2824, -14.9251, 96.1116, -61.3834, 42.7304
3.732, 2, 35.7564, 51.3384, -14.9323, 96.0708, -61.5694, 42.6762
3.735, 2, 35.7501, 51.3942, -14.939, 96.0295, -61.7551, 42.6222
3.74, 2, 35.7437, 51.4499, -14.9454, 95.9878, -61.9407, 42.5683
3.744, 2, 35.7371, 51.5053, -14.9514, 95.9458, -62.1261, 42.5146
3.748, 2, 35.7304, 51.5605, -14.9569, 95.9034, -62.3113, 42.461
3.752, 2, 35.7235, 51.6154, -14.962, 95.8606, -62.4964, 42.4075
3.756, 2, 35.7164, 51.6702, -14.9668, 95.8174, -62.6812, 42.3542
3.76, 2, 35.7093, 51.7248, -14.9711, 95.7738, -62.8658, 42.301
3.764, 2, 35.702, 51.7791, -14.975, 95.7299, -63.0502, 42.2479
3.768, 2, 35.6945, 51.8333, -14.9785, 95.6856, -63.2344, 42.195
3.772, 2, 35.6869, 51.8872, -14.9815, 95.641, -63.4185, 42.1422
3.776, 2, 35.6791, 51.9409, -14.9842, 95.5959, -63.6023, 42.0895
3.78, 2, 35.6713, 51.9944, -14.9864, 95.5506, -63.786, 42.0369
3.784, 2, 35.6632, 52.0477, -14.9882, 95.5048, -63.9694, 41.9844
3.788, 2, 35.655, 52.1007, -14.9896, 95.4587, -64.1527, 41.9321
3.792, 2, 35.6467, 52.1535, -14.9906, 95.4122, -64.3357, 41.8799
3.796, 2, 35.6383, 52.2061, -14.9911, 95.3654, -64.5186, 41.8278
3.8, 2, 35.6297, 52.2585, -14.9912, 95.3183, -64.7012, 41.7758
3.804, 2, 35.6209, 52.3106, -14.9909, 95.2708, -64.8837, 41.7239
3.808, 2, 35.612, 52.3626, -14.9902, 95.2229, -65.066, 41.6721
3.812, 2, 35.603, 52.4142, -14.989, 95.1747, -65.2481, 41.6204
3.816, 2, 35.5938, 52.4657, -14.9875, 95.1261, -65.43, 41.5688
3.82, 2, 35.5845, 52.5169, -14.9854, 95.0772, -65.6116, 41.5173
3.824, 2, 35.575, 52.5679, -14.983, 95.028, -65.7931, 41.4659
3.828, 2, 35.5654, 52.6187, -14.9801, 94.9784, -65.9744, 41.4146
3.832, 2, 35.5557, 52.6692, -14.9768, 94.9285, -66.1556, 41.3634
3.836, 2, 35.5458, 52.7195, -14.973, 94.8783, -66.3365, 41.3122
3.84, 2, 35.5357, 52.7695, -14.9688, 94.8277, -66.5172, 41.2612
3.844, 2, 35.5256, 52.8194, -14.9642, 94.7768, -66.6977, 41.2102
3.848, 2, 35.5152, 52.8689, -14.9591, 94.7256, -66.8781, 41.1594
3.852, 2, 35.5048, 52.9183, -14.9536, 94.674, -67.0582, 41.1086
3.856, 2, 35.4942, 52.9673, -14.9476, 94.6221, -67.2382, 41.0579
3.86, 2, 35.4835, 53.0162, -14.9412, 94.5699, -67.418, 41.0072
3.864, 2, 35.4726, 53.0647, -14.9344, 94.5174, -67.5975, 40.9567
3.868, 2, 35.4617, 53.1129, -14.9271, 94.4645, -67.7769, 40.9062
3.872, 2, 35.4507, 53.1606, -14.9194, 94.4113, -67.9561, 40.8558
3.876, 2, 35.4399, 53.2077, -14.9112, 94.3579, -68.1349, 40.8055
3.88, 2, 35.4291, 53.2541, -14.9026, 94.3042, -68.3134, 40.7553
3.884, 2, 35.4186, 53.2995, -14.8936, 94.2503, -68.4913, 40.7053
3.888, 2, 35.4084, 53.344, -14.8842, 94.1963, -68.6685, 40.6556
3.892, 2, 35.3985, 53.3874, -14.8744, 94.1422, -68.8446, 40.6061
3.896, 2, 35.3888, 53.4297, -14.8643, 94.0883, -69.0192, 40.557
3.9, 2, 35.3795, 53.4708, -14.8539, 94.0346, -69.1921, 40.5085
3.904, 2, 35.3706, 53.5105, -14.8432, 93.9813, -69.3625, 40.4607
3.908, 2, 35.362, 53.5487, -14.8323, 93.9287, -69.5298, 40.4137
3.912, 2, 35.3537, 53.5855, -14.8213, 93.877, -69.6934, 40.3678
3.916, 2, 35.3457, 53.6207, -14.8103, 93.8265, -69.8524, 40.3231
3.92, 2, 35.3379, 53.6545, -14.7994, 93.7776, -70.0058, 40.2801
3.924, 2, 35.3302, 53.6869, -14.7887, 93.7305, -70.1527, 40.2388
3.928, 2, 35.3227, 53.7179, -14.7782, 93.6855, -70.2923, 40.1996
3.932, 2, 35.3153, 53.7475, -14.7682, 93.643, -70.4238, 40.1627
3.936, 2, 35.3081, 53.7755, -14.7586, 93.6032, -70.5464, 40.1283
3.94, 2, 35.3011, 53.8018, -14.7496, 93.5663, -70.6597, 40.0965
3.944, 2, 35.2944, 53.8264, -14.7413, 93.5325, -70.7632, 40.0674
3.948, 2, 35.288, 53.8493, -14.7336, 93.5019, -70.8566, 40.0412
3.952, 2, 35.2818, 53.8708, -14.7267, 93.4745, -70.9399, 40.0178
3.956, 2, 35.2757, 53.8908, -14.7206, 93.4504, -71.013, 39.9973
3.96, 2, 35.2698, 53.9095, -14.7153, 93.4295, -71.0764, 39.9795
3.964, 2, 35.264, 53.9268, -14.7107, 93.4116, -71.1305, 39.9643
3.968, 2, 35.2586, 53.9428, -14.7068, 93.3965, -71.176, 39.9515
3.972, 2, 35.2535, 53.9573, -14.7036, 93.384, -71.2136, 39.9409
3.976, 2, 35.2488, 53.9703, -14.701, 93.3738, -71.2442, 39.9323
3.98, 2, 35.2445, 53.9819, -14.6989, 93.3657, -71.2688, 39.9254
3.984, 3, 35.2406, 53.9922, -14.6972, 93.3592, -71.2881, 39.92
3.988, 3, 35.237, 54.0013, -14.696, 93.3543, -71.303, 39.9158
3.992, 3, 35.2338, 54.0092, -14.695, 93.3505, -71.3142, 39.9127
3.996, 3, 35.2309, 54.016, -14.6943, 93.3478, -71.3225, 39.9103
3.999, 3, 35.2283, 54.0215, -14.6939, 93.3458, -71.3284, 39.9087
4.004, 3, 35.2261, 54.026, -14.6935, 93.3444, -71.3326, 39.9075
4.008, 3, 35.2244, 54.0293, -14.6933, 93.3434, -71.3355, 39.9067
4.012, 3, 35.223, 54.0317, -14.6931, 93.3428, -71.3375, 39.9061
4.016, 3, 35.222, 54.0335, -14.693, 93.3423, -71.3389, 39.9057
4.02, 3, 35.2213, 54.0347, -14.6929, 93.342, -71.3398, 39.9055
4.024, 3, 35.2206, 54.0356, -14.6929, 93.3418, -71.3404, 39.9053
4.028, 3, 35.2197, 54.0364, -14.6928, 93.3416, -71.3409, 39.9052
4.032, 3, 35.2183, 54.0374, -14.6926, 93.3414, -71.3414, 39.9051
4.036, 3, 35.2164, 54.0388, -14.6923, 93.3411, -71.342, 39.9051
4.04, 3, 35.2139, 54.0405, -14.6916, 93.3405, -71.3431, 39.905
4.044, 3, 35.2106, 54.0428, -14.6905, 93.3393, -71.3449, 39.9051
4.048, 3, 35.2066, 54.0456, -14.6887, 93.3375, -71.3479, 39.9051
4.052, 3, 35.2021, 54.049, -14.6858, 93.3345, -71.3526, 39.9053
4.056, 3, 35.1969, 54.0528, -14.6816, 93.33, -71.3597, 39.9055
4.06, 3, 35.1912, 54.057, -14.6756, 93.3235, -71.3697, 39.9058
4.064, 3, 35.1848, 54.0617, -14.6675, 93.3147, -71.3835, 39.9062
4.068, 3, 35.1777, 54.0666, -14.6569, 93.303, -71.4018, 39.9068
4.072, 3, 35.1699, 54.0718, -14.6432, 93.2879, -71.4253, 39.9075
4.076, 3, 35.1615, 54.077, -14.6262, 93.269, -71.4547, 39.9084
4.08, 3, 35.1525, 54.082, -14.6056, 93.2458, -71.4906, 39.9095
4.084, 3, 35.1431, 54.0867, -14.5809, 93.2182, -71.5336, 39.9108
4.088, 3, 35.1334, 54.0908, -14.552, 93.1857, -71.5839, 39.9123
4.092, 3, 35.1233, 54.0945, -14.5189, 93.1484, -71.6417, 39.914
4.096, 3, 35.1127, 54.0977, -14.4816, 93.1063, -71.7069, 39.9159
4.1, 3, 35.1016, 54.1006, -14.4402, 93.0596, -71.7793, 39.918
4.104, 3, 35.0899, 54.1034, -14.3949, 93.0086, -71.8583, 39.9202
4.108, 3, 35.0774, 54.1062, -14.346, 92.9536, -71.9434, 39.9226
4.112, 3, 35.0642, 54.109, -14.2938, 92.895, -72.034, 39.925
4.116, 3, 35.0504, 54.1119, -14.2387, 92.8333, -72.1295, 39.9276
4.12, 3, 35.0359, 54.1151, -14.1811, 92.769, -72.229, 39.9302
4.124, 3, 35.0206, 54.1186, -14.1213, 92.7024, -72.3318, 39.9328
4.128, 3, 35.0046, 54.1225, -14.0598, 92.6341, -72.4374, 39.9354
4.132, 3, 34.9877, 54.1268, -13.9969, 92.5644, -72.545, 39.938
4.136, 3, 34.97, 54.1315, -13.9328, 92.4937, -72.6542, 39.9406
4.14, 3, 34.9514, 54.1367, -13.8679, 92.4223, -72.7645, 39.9431
4.144, 3, 34.9321, 54.1423, -13.8023, 92.3504, -72.8755, 39.9455
4.148, 3, 34.9122, 54.1481, -13.7361, 92.2781, -72.987, 39.9478
4.152, 3, 34.8918, 54.154, -13.6694, 92.2055, -73.0989, 39.9501
4.156, 3, 34.8711, 54.1599, -13.6025, 92.1328, -73.2109, 39.9522
4.16, 3, 34.8501, 54.1659, -13.5352, 92.0599, -73.3232, 39.9543
4.164, 3, 34.8289, 54.1717, -13.4676, 91.987, -73.4355, 39.9563
4.168, 3, 34.8076, 54.1774, -13.3997, 91.914, -73.5479, 39.9582
4.172, 3, 34.7861, 54.1831, -13.3316, 91.8409, -73.6602, 39.96
4.176, 3, 34.7646, 54.1885, -13.2633, 91.7678, -73.7727, 39.9617
4.18, 3, 34.7429, 54.1939, -13.1947, 91.6947, -73.885, 39.9632
4.184, 3, 34.7211, 54.1991, -13.126, 91.6215, -73.9974, 39.9647
4.188, 3, 34.6992, 54.2041, -13.057, 91.5484, -74.1098, 39.9661
4.192, 3, 34.6772, 54.2089, -12.9878, 91.4752, -74.2222, 39.9674
4.196, 3, 34.6552, 54.2136, -12.9184, 91.4019, -74.3345, 39.9686
4.2, 3, 34.6331, 54.2182, -12.8488, 91.3287, -74.4468, 39.9697
4.204, 3, 34.6109, 54.2226, -12.7789, 91.2554, -74.5591, 39.9707
4.208, 3, 34.5886, 54.2268, -12.7089, 91.1821, -74.6714, 39.9716
4.212, 3, 34.5662, 54.2308, -12.6386, 91.1088, -74.7836, 39.9723
4.216, 3, 34.5438, 54.2347, -12.5682, 91.0355, -74.8958, 39.973
4.22, 3, 34.5212, 54.2384, -12.4976, 90.9622, -75.008, 39.9736
4.224, 3, 34.4986, 54.242, -12.4267, 90.8888, -75.1202, 39.974
4.228, 3, 34.4759, 54.2454, -12.3556, 90.8154, -75.2323, 39.9744
4.232, 3, 34.4532, 54.2486, -12.2844, 90.742, -75.3445, 39.9746
4.236, 3, 34.4303, 54.2517, -12.2129, 90.6686, -75.4566, 39.9748
4.24, 3, 34.4074, 54.2546, -12.1412, 90.5951, -75.5686, 39.9748
4.244, 3, 34.3844, 54.2573, -12.0694, 90.5217, -75.6807, 39.9748
4.248, 3, 34.3613, 54.2599, -11.9973, 90.4482, -75.7927, 39.9746
4.252, 3, 34.3382, 54.2623, -11.925, 90.3747, -75.9047, 39.9743
4.256, 3, 34.315, 54.2645, -11.8526, 90.3011, -76.0167, 39.9739
4.26, 3, 34.2916, 54.2666, -11.7799, 90.2276, -76.1286, 39.9734
4.264, 3, 34.2683, 54.2685, -11.707, 90.154, -76.2406, 39.9728
4.268, 3, 34.2448, 54.2702, -11.6339, 90.0804, -76.3525, 39.972
4.272, 3, 34.2212, 54.2718, -11.5607, 90.0068, -76.4644, 39.9712
4.276, 3, 34.1976, 54.2732, -11.4872, 89.9332, -76.5762, 39.9702
4.28, 3, 34.1739, 54.2744, -11.4136, 89.8595, -76.6881, 39.9692
4.284, 3, 34.1501, 54.2755, -11.3397, 89.7858, -76.7999, 39.968
4.288, 3, 34.1263, 54.2764, -11.2657, 89.7121, -76.9117, 39.9667
4.292, 3, 34.1024, 54.2771, -11.1914, 89.6384, -77.0235, 39.9653
4.296, 3, 34.0783, 54.2777, -11.117, 89.5647, -77.1352, 39.9638
4.3, 3, 34.0543, 54.2781, -11.0423, 89.4909, -77.247, 39.9621
4.304, 3, 34.0301, 54.2783, -10.9675, 89.4171, -77.3587, 39.9604
4.308, 3, 34.0058, 54.2784, -10.8925, 89.3433, -77.4704, 39.9585
4.312, 3, 33.9815, 54.2783, -10.8173, 89.2694, -77.582, 39.9565
4.316, 3, 33.9571, 54.278, -10.7419, 89.1956, -77.6937, 39.9544
4.32, 3, 33.9326, 54.2775, -10.6663, 89.1217, -77.8053, 39.9522
4.324, 3, 33.9081, 54.2769, -10.5905, 89.0477, -77.9169, 39.9499
4.328, 3, 33.8835, 54.2762, -10.5145, 88.9738, -78.0285, 39.9474
4.332, 3, 33.8587, 54.2752, -10.4384, 88.8998, -78.14, 39.9448
4.336, 3, 33.834, 54.2741, -10.362, 88.8258, -78.2516, 39.9421
4.34, 3, 33.8091, 54.2728, -10.2855, 88.7518, -78.3631, 39.9393
4.344, 3, 33.7843, 54.2714, -10.2087, 88.6778, -78.4746, 39.9363
4.348, 3, 33.7597, 54.2697, -10.1319, 88.6037, -78.586, 39.9332
4.352, 3, 33.7355, 54.2676, -10.0548, 88.5297, -78.6974, 39.9301
4.356, 3, 33.7119, 54.2652, -9.97775, 88.4557, -78.8087, 39.9267
4.36, 3, 33.6889, 54.2624, -9.90071, 88.3818, -78.9196, 39.9233
4.364, 3, 33.6668, 54.259, -9.82388, 88.3083, -79.03, 39.9198
4.368, 3, 33.6454, 54.2549, -9.74749, 88.2352, -79.1397, 39.9162
4.372, 3, 33.6249, 54.2502, -9.67184, 88.1629, -79.2481, 39.9125
4.376, 3, 33.6051, 54.245, -9.59731, 88.0917, -79.3547, 39.9087
4.38, 3, 33.5859, 54.2393, -9.52432, 88.0221, -79.459, 39.905
4.384, 3, 33.5673, 54.2334, -9.45336, 87.9545, -79.5602, 39.9013
4.388, 3, 33.5493, 54.2275, -9.38491, 87.8893, -79.6577, 39.8976
4.392, 3, 33.532, 54.2218, -9.3195, 87.8271, -79.7507, 39.894
4.396, 3, 33.5155, 54.2165, -9.25759, 87.7684, -79.8386, 39.8905
4.4, 3, 33.4998, 54.2117, -9.19964, 87.7134, -79.9206, 39.8873
4.404, 3, 33.4848, 54.2076, -9.14605, 87.6627, -79.9964, 39.8842
4.408, 3, 33.4706, 54.2044, -9.09712, 87.6165, -80.0654, 39.8813
4.412, 3, 33.4569, 54.202, -9.05305, 87.575, -80.1274, 39.8787
4.416, 3, 33.4439, 54.2008, -9.01395, 87.5383, -80.1822, 39.8764
4.42, 3, 33.4314, 54.2006, -8.97977, 87.5064, -80.2299, 39.8743
4.424, 3, 33.4195, 54.2015, -8.95038, 87.4791, -80.2708, 39.8726
4.428, 3, 33.4085, 54.203, -8.9255, 87.4561, -80.3052, 39.8711
4.432, 3, 33.3983, 54.2051, -8.90481, 87.437, -80.3337, 39.8698
4.436, 4, 33.3891, 54.2074, -8.88788, 87.4216, -80.3569, 39.8688
4.44, 4, 33.3809, 54.2098, -8.87429, 87.4092, -80.3755, 39.868
4.444, 4, 33.3736, 54.212, -8.86357, 87.3995, -80.39, 39.8673
4.448, 4, 33.3671, 54.2142, -8.8553, 87.3921, -80.4011, 39.8668
4.452, 4, 33.3613, 54.2161, -8.84904, 87.3866, -80.4094, 39.8664
4.456, 4, 33.3563, 54.2178, -8.84441, 87.3825, -80.4155, 39.8662
4.46, 4, 33.3519, 54.2192, -8.84106, 87.3796, -80.4199, 39.866
4.464, 4, 33.3483, 54.2204, -8.83868, 87.3776, -80.423, 39.8658
4.468, 4, 33.3455, 54.2213, -8.83702, 87.3762, -80.4251, 39.8657
4.472, 4, 33.3433, 54.2219, -8.83587, 87.3753, -80.4266, 39.8657
4.476, 4, 33.3415, 54.2224, -8.83506, 87.3746, -80.4276, 39.8656
4.48, 4, 33.3399, 54.2227, -8.83444, 87.3741, -80.4282, 39.8656
4.484, 4, 33.3382, 54.2228, -8.83386, 87.3737, -80.4288, 39.8657
4.488, 4, 33.3361, 54.2229, -8.83314, 87.3733, -80.4293, 39.8658
4.492, 4, 33.3335, 54.2227, -8.83209, 87.3727, -80.4298, 39.8662
4.496, 4, 33.3303, 54.2223, -8.83043, 87.3718, -80.4306, 39.867
4.5, 4, 33.3265, 54.2216, -8.82783, 87.3703, -80.4317, 39.8682
4.504, 4, 33.322, 54.2205, -8.82389, 87.3679, -80.4335, 39.8703
4.508, 4, 33.3168, 54.2189, -8.81811, 87.3643, -80.436, 39.8735
4.512, 4, 33.3107, 54.2166, -8.80994, 87.3591, -80.4397, 39.878
4.516, 4, 33.3035, 54.2133, -8.7987, 87.3518, -80.4448, 39.8844
4.52, 4, 33.2951, 54.2089, -8.78369, 87.3419, -80.4516, 39.8931
4.524, 4, 33.2854, 54.2032, -8.76416, 87.329, -80.4605, 39.9045
4.528, 4, 33.2747, 54.196, -8.73934, 87.3123, -80.4719, 39.9192
4.532, 4, 33.2629, 54.187, -8.70853, 87.2914, -80.4862, 39.9376
4.536, 4, 33.2502, 54.1761, -8.67108, 87.2657, -80.5037, 39.9602
4.54, 4, 33.2368, 54.1631, -8.6265, 87.235, -80.5246, 39.9872
4.544, 4, 33.2225, 54.148, -8.57443, 87.1988, -80.5492, 40.019
4.548, 4, 33.2074, 54.1307, -8.51473, 87.1572, -80.5774, 40.0555
4.552, 4, 33.1914, 54.1111, -8.44741, 87.1102, -80.6094, 40.0968
4.556, 4, 33.1742, 54.0894, -8.3727, 87.0578, -80.645, 40.1427
4.56, 4, 33.1561, 54.0657, -8.29096, 87.0004, -80.684, 40.193
4.564, 4, 33.1368, 54.0401, -8.20272, 86.9384, -80.7263, 40.2472
4.568, 4, 33.1167, 54.0128, -8.10862, 86.8723, -80.7714, 40.3051
4.572, 4, 33.0956, 53.9841, -8.00938, 86.8024, -80.8191, 40.3661
4.576, 4, 33.0736, 53.954, -7.90575, 86.7295, -80.8691, 40.4297
4.58, 4, 33.0505, 53.9229, -7.79851, 86.6541, -80.9209, 40.4954
4.584, 4, 33.0262, 53.891, -7.68837, 86.5766, -80.9742, 40.5628
4.588, 4, 33.0007, 53.8584, -7.57602, 86.4977, -81.0286, 40.6314
4.592, 4, 32.974, 53.8254, -7.46204, 86.4178, -81.084, 40.7007
4.596, 4, 32.9461, 53.792, -7.3469, 86.3371, -81.14, 40.7707
4.6, 4, 32.9173, 53.7584, -7.23098, 86.2559, -81.1965, 40.8409
4.604, 4, 32.8877, 53.7246, -7.11456, 86.1744, -81.2535, 40.9113
4.608, 4, 32.8575, 53.6907, -6.99784, 86.0926, -81.3107, 40.9817
4.612, 4, 32.8269, 53.6568, -6.88096, 86.0108, -81.3681, 41.0522
4.616, 4, 32.7961, 53.6228, -6.76401, 85.9289, -81.4257, 41.1225
4.62, 4, 32.765, 53.5889, -6.64704, 85.847, -81.4835, 41.1928
4.624, 4, 32.7338, 53.5549, -6.53011, 85.7651, -81.5415, 41.263
4.628, 4, 32.7024, 53.521, -6.41325, 85.6832, -81.5996, 41.333
4.632, 4, 32.6709, 53.487, -6.29646, 85.6014, -81.6578, 41.4028
4.636, 4, 32.6393, 53.4531, -6.17977, 85.5196, -81.7162, 41.4725
4.64, 4, 32.6076, 53.4192, -6.06318, 85.4378, -81.7746, 41.5421
4.644, 4, 32.5759, 53.3854, -5.9467, 85.3561, -81.8332, 41.6115
4.648, 4, 32.544, 53.3515, -5.83033, 85.2744, -81.8919, 41.6807
4.652, 4, 32.5121, 53.3177, -5.71408, 85.1928, -81.9507, 41.7497
4.656, 4, 32.4802, 53.2839, -5.59794, 85.1112, -82.0096, 41.8186
4.66, 4, 32.4481, 53.2502, -5.48191, 85.0297, -82.0686, 41.8874
4.664, 4, 32.416, 53.2164, -5.36601, 84.9482, -82.1278, 41.9559
4.668, 4, 32.3838, 53.1827, -5.25022, 84.8668, -82.187, 42.0243
4.672, 4, 32.3516, 53.149, -5.13455, 84.7854, -82.2463, 42.0925
4.676, 4, 32.3192, 53.1153, -5.01899, 84.7041, -82.3058, 42.1606
4.68, 4, 32.2868, 53.0817, -4.90355, 84.6228, -82.3654, 42.2285
4.684, 4, 32.2544, 53.048, -4.78823, 84.5416, -82.425, 42.2962
4.688, 4, 32.2219, 53.0144, -4.67302, 84.4604, -82.4848, 42.3637
4.692, 4, 32.1893, 52.9809, -4.55793, 84.3793, -82.5447, 42.4311
4.696, 4, 32.1566, 52.9473, -4.44295, 84.2982, -82.6047, 42.4983
4.7, 4, 32.1239, 52.9138, -4.32809, 84.2172, -82.6647, 42.5654
4.704, 4, 32.0911, 52.8802, -4.21334, 84.1362, -82.7249, 42.6323
4.708, 4, 32.0582, 52.8467, -4.09871, 84.0553, -82.7852, 42.699
4.712, 4, 32.0253, 52.8133, -3.98419, 83.9744, -82.8456, 42.7655
4.716, 4, 31.9923, 52.7798, -3.86978, 83.8936, -82.9061, 42.8319
4.72, 4, 31.9592, 52.7464, -3.75549, 83.8128, -82.9667, 42.8981
4.724, 4, 31.9261, 52.7129, -3.64131, 83.732, -83.0274, 42.9642
4.728, 4, 31.8929, 52.6795, -3.52724, 83.6513, -83.0882, 43.03
4.732, 4, 31.8596, 52.6461, -3.41328, 83.5707, -83.1491, 43.0957
4.736, 4, 31.8263, 52.6128, -3.29943, 83.4901, -83.2101, 43.1613
4.74, 4, 31.7929, 52.5794, -3.1857, 83.4095, -83.2712, 43.2267
4.744, 4, 31.7594, 52.5461, -3.07207, 83.329, -83.3325, 43.2919
4.748, 4, 31.7258, 52.5128, -2.95856, 83.2485, -83.3938, 43.3569
4.752, 4, 31.6922, 52.4795, -2.84515, 83.168, -83.4552, 43.4218
4.756, 4, 31.6585, 52.4462, -2.73186, 83.0876, -83.5167, 43.4865
4.76, 4, 31.6248, 52.4129, -2.61867, 83.0073, -83.5783, 43.551
4.764, 4, 31.5909, 52.3797, -2.50559, 82.9269, -83.64, 43.6154
4.768, 4, 31.557, 52.3464, -2.39262, 82.8467, -83.7018, 43.6796
4.772, 4, 31.5231, 52.3132, -2.27976, 82.7664, -83.7637, 43.7437
4.776, 4, 31.489, 52.28, -2.16701, 82.6862, -83.8257, 43.8075
4.78, 4, 31.4549, 52.2468, -2.05436, 82.6061, -83.8878, 43.8712
4.784, 4, 31.4207, 52.2136, -1.94182, 82.526, -83.9499, 43.9348
4.788, 4, 31.3865, 52.1804, -1.82939, 82.4459, -84.0122, 43.9981
4.792, 4, 31.3521, 52.1473, -1.71706, 82.3658, -84.0746, 44.0614
4.796, 4, 31.3178, 52.1141, -1.60484, 82.2858, -84.1371, 44.1244
4.8, 4, 31.2833, 52.081, -1.49272, 82.2059, -84.1997, 44.1873
4.804, 4, 31.2488, 52.0479, -1.38071, 82.1259, -84.2623, 44.25
4.808, 4, 31.2142, 52.0148, -1.26881, 82.046, -84.3251, 44.3125
4.812, 4, 31.1795, 51.9817, -1.15701, 81.9662, -84.3879, 44.3749
4.816, 4, 31.1449, 51.9486, -1.04533, 81.8864, -84.4509, 44.4371
4.82, 4, 31.1106, 51.9155, -0.933793, 81.8066, -84.5139, 44.4991
4.824, 4, 31.0766, 51.8825, -0.822443, 81.7269, -84.577, 44.5609
4.828, 4, 31.0431, 51.8496, -0.711357, 81.6473, -84.6401, 44.6225
4.832, 4, 31.0101, 51.8167, -0.600652, 81.5679, -84.7031, 44.6839
4.836, 4, 30.9777, 51.7841, -0.490493, 81.4888, -84.766, 44.7448
4.84, 4, 30.9459, 51.7517, -0.381094, 81.4102, -84.8287, 44.8053
4.844, 4, 30.9146, 51.7196, -0.272728, 81.3322, -84.8909, 44.8651
4.848, 4, 30.8838, 51.6878, -0.16572, 81.2551, -84.9525, 44.9241
4.852, 4, 30.8536, 51.6567, -0.0604542, 81.1791, -85.0133, 44.9821
4.856, 4, 30.8242, 51.6261, 0.0426367, 81.1047, -85.0729, 45.0389
4.86, 4, 30.7957, 51.5964, 0.143076, 81.0321, -85.1311, 45.0941
4.864, 4, 30.7682, 51.5676, 0.240358, 80.9617, -85.1877, 45.1476
4.868, 4, 30.7417, 51.5399, 0.333961, 80.8939, -85.2422, 45.199
4.872, 4, 30.7163, 51.5135, 0.423369, 80.8291, -85.2943, 45.248
4.876, 4, 30.692, 51.4884, 0.508094, 80.7678, -85.3438, 45.2944
4.88, 4, 30.6688, 51.4648, 0.587694, 80.7101, -85.3903, 45.3379
4.884, 4, 30.6467, 51.4428, 0.66179, 80.6565, -85.4337, 45.3783
4.888, 4, 30.6259, 51.4225, 0.730084, 80.6071, -85.4736, 45.4154
4.892, 4, 30.6064, 51.4039, 0.792372, 80.5622, -85.5101, 45.4492
4.896, 4, 30.5883, 51.3871, 0.848548, 80.5217, -85.5429, 45.4796
4.9, 4, 30.5714, 51.3722, 0.898612, 80.4857, -85.5722, 45.5066
4.904, 4, 30.5558, 51.3589, 0.942671, 80.4541, -85.5979, 45.5303
4.908, 4, 30.5414, 51.3474, 0.98093, 80.4268, -85.6202, 45.5507
4.912, 4, 30.5281, 51.3375, 1.01369, 80.4035, -85.6392, 45.5681
4.916, 4, 30.5161, 51.329, 1.04133, 80.384, -85.6552, 45.5827
4.92, 4, 30.5054, 51.322, 1.0643, 80.3679, -85.6684, 45.5948
4.924, 4, 30.4958, 51.3161, 1.08308, 80.3548, -85.6792, 45.6045
4.928, 5, 30.4875, 51.3114, 1.09816, 80.3443, -85.6879, 45.6123
4.932, 5, 30.4802, 51.3077, 1.11007, 80.3362, -85.6946, 45.6184
4.936, 5, 30.4737, 51.3048, 1.11929, 80.3299, -85.6998, 45.6231
4.94, 5, 30.468, 51.3025, 1.12629, 80.3252, -85.7037, 45.6266
4.944, 5, 30.4631, 51.3008, 1.1315, 80.3218, -85.7066, 45.6291
4.948, 5, 30.4588, 51.2995, 1.13528, 80.3194, -85.7087, 45.631
4.952, 5, 30.4554, 51.2986, 1.13798, 80.3177, -85.7101, 45.6322
4.956, 5, 30.4526, 51.298, 1.13987, 80.3165, -85.7111, 45.6331
4.96, 5, 30.4505, 51.2975, 1.14118, 80.3157, -85.7118, 45.6337
4.964, 5, 30.4488, 51.2972, 1.14211, 80.3151, -85.7123, 45.6341
4.968, 5, 30.4473, 51.2969, 1.14281, 80.3147, -85.7126, 45.6345
4.972, 5, 30.4456, 51.2965, 1.14346, 80.3144, -85.7129, 45.6347
4.976, 5, 30.4436, 51.2961, 1.14422, 80.314, -85.7132, 45.6351
4.98, 5, 30.4411, 51.2955, 1.14532, 80.3134, -85.7135, 45.6357
4.984, 5, 30.438, 51.2946, 1.14701, 80.3123, -85.714, 45.6367
4.988, 5, 30.4343, 51.2933, 1.14961, 80.3107, -85.7147, 45.6384
4.992, 5, 30.43, 51.2914, 1.15352, 80.308, -85.7158, 45.6411
4.996, 5, 30.4248, 51.2887, 1.15922, 80.304, -85.7174, 45.6452
5, 5, 30.4187, 51.2852, 1.16725, 80.2982, -85.7197, 45.6512
5.004, 5, 30.4114, 51.2804, 1.17827, 80.29, -85.7229, 45.6596
5.008, 5, 30.4028, 51.2741, 1.19297, 80.279, -85.7273, 45.6709
5.012, 5, 30.3928, 51.2663, 1.21211, 80.2644, -85.7329, 45.6859
5.016, 5, 30.3814, 51.2566, 1.23645, 80.2455, -85.7402, 45.7052
5.02, 5, 30.3686, 51.245, 1.26675, 80.2217, -85.7494, 45.7295
5.024, 5, 30.3544, 51.2315, 1.30367, 80.1925, -85.7607, 45.7595
5.028, 5, 30.339, 51.2158, 1.34783, 80.1571, -85.7742, 45.7957
5.032, 5, 30.3222, 51.1979, 1.3997, 80.1152, -85.7903, 45.8385
5.036, 5, 30.304, 51.1779, 1.4596, 80.0666, -85.809, 45.8883
5.04, 5, 30.2843, 51.1555, 1.52768, 80.011, -85.8304, 45.9451
5.044, 5, 30.2631, 51.1308, 1.60392, 79.9485, -85.8545, 46.0089
5.048, 5, 30.2403, 51.1038, 1.68815, 79.8793, -85.8813, 46.0796
5.052, 5, 30.216, 51.0746, 1.78002, 79.8035, -85.9107, 46.1569
5.056, 5, 30.1902, 51.0433, 1.87905, 79.7216, -85.9426, 46.2404
5.06, 5, 30.163, 51.0099, 1.98462, 79.6342, -85.9769, 46.3296
5.064, 5, 30.1343, 50.9747, 2.09606, 79.5417, -86.0132, 46.4238
5.068, 5, 30.1041, 50.9378, 2.21262, 79.4448, -86.0515, 46.5224
5.072, 5, 30.0723, 50.8994, 2.33357, 79.3443, -86.0915, 46.6247
5.076, 5, 30.0391, 50.8596, 2.45815, 79.2406, -86.133, 46.73
5.08, 5, 30.0045, 50.8189, 2.58568, 79.1345, -86.1757, 46.8378
5.084, 5, 29.9686, 50.7772, 2.71551, 79.0263, -86.2195, 46.9476
5.088, 5, 29.9317, 50.735, 2.84711, 78.9167, -86.2642, 47.0588
5.092, 5, 29.8937, 50.6923, 2.98001, 78.8058, -86.3097, 47.1711
5.096, 5, 29.855, 50.6493, 3.1138, 78.6941, -86.3559, 47.2842
5.1, 5, 29.8155, 50.6062, 3.24819, 78.5817, -86.4026, 47.3978
5.104, 5, 29.7753, 50.563, 3.38292, 78.4689, -86.4498, 47.5118
5.108, 5, 29.7345, 50.5197, 3.5178, 78.3558, -86.4975, 47.6259
5.112, 5, 29.6933, 50.4766, 3.65269, 78.2426, -86.5456, 47.7402
5.116, 5, 29.6516, 50.4336, 3.78748, 78.1292, -86.594, 47.8544
5.12, 5, 29.6096, 50.3907, 3.92209, 78.0158, -86.6428, 47.9685
5.124, 5, 29.5674, 50.348, 4.05648, 77.9023, -86.6918, 48.0826
5.128, 5, 29.5249, 50.3054, 4.1906, 77.7889, -86.7413, 48.1965
5.132, 5, 29.4823, 50.2631, 4.32444, 77.6755, -86.791, 48.3104
5.136, 5, 29.4394, 50.221, 4.45797, 77.5622, -86.841, 48.424
5.14, 5, 29.3965, 50.1791, 4.5912, 77.4489, -86.8913, 48.5375
5.144, 5, 29.3534, 50.1374, 4.72411, 77.3356, -86.9419, 48.6509
5.148, 5, 29.3101, 50.0959, 4.8567, 77.2224, -86.9928, 48.7641
5.152, 5, 29.2667, 50.0547, 4.98896, 77.1092, -87.044, 48.8771
5.156, 5, 29.2232, 50.0136, 5.12089, 76.9961, -87.0955, 48.99
5.16, 5, 29.1796, 49.9728, 5.2525, 76.883, -87.1473, 49.1026
5.164, 5, 29.1358, 49.9323, 5.38379, 76.7701, -87.1994, 49.2152
5.168, 5, 29.0919, 49.8919, 5.51474, 76.6571, -87.2517, 49.3275
5.172, 5, 29.0479, 49.8517, 5.64537, 76.5443, -87.3044, 49.4397
5.176, 5, 29.0037, 49.8118, 5.77568, 76.4314, -87.3573, 49.5517
5.18, 5, 28.9595, 49.7721, 5.90565, 76.3187, -87.4105, 49.6636
5.184, 5, 28.915, 49.7326, 6.03531, 76.206, -87.464, 49.7752
5.188, 5, 28.8705, 49.6933, 6.16463, 76.0934, -87.5178, 49.8867
5.192, 5, 28.8259, 49.6543, 6.29363, 75.9808, -87.5719, 49.9981
5.196, 5, 28.7815, 49.6154, 6.42227, 75.8683, -87.6262, 50.1092
5.2, 5, 28.7374, 49.5769, 6.5505, 75.7559, -87.6808, 50.2202
5.204, 5, 28.694, 49.5386, 6.67822, 75.6436, -87.7357, 50.3308
5.208, 5, 28.6514, 49.5007, 6.80528, 75.5316, -87.7907, 50.4412
5.212, 5, 28.6097, 49.4632, 6.93145, 75.4201, -87.8457, 50.5509
5.216, 5, 28.569, 49.4261, 7.05639, 75.3093, -87.9007, 50.6598
5.22, 5, 28.5294, 49.3897, 7.17969, 75.1996, -87.9553, 50.7675
5.224, 5, 28.4908, 49.3541, 7.30086, 75.0916, -88.0094, 50.8736
5.228, 5, 28.4531, 49.3194, 7.41932, 74.9856, -88.0627, 50.9774
5.232, 5, 28.4164, 49.2857, 7.53446, 74.8825, -88.1148, 51.0785
5.236, 5, 28.3807, 49.2532, 7.64562, 74.7827, -88.1654, 51.1762
5.24, 5, 28.3464, 49.2222, 7.75216, 74.6869, -88.2141, 51.2698
5.244, 5, 28.3133, 49.1927, 7.85344, 74.5957, -88.2607, 51.3589
5.248, 5, 28.2818, 49.165, 7.94891, 74.5098, -88.3048, 51.4429
5.252, 5, 28.2517, 49.1391, 8.03809, 74.4295, -88.3461, 51.5212
5.256, 5, 28.2233, 49.1151, 8.12058, 74.3552, -88.3845, 51.5937
5.26, 5, 28.1964, 49.0932, 8.19611, 74.2873, -88.4197, 51.6599
5.264, 5, 28.1713, 49.0733, 8.26454, 74.2259, -88.4517, 51.7198
5.268, 5, 28.1477, 49.0554, 8.32586, 74.1709, -88.4803, 51.7733
5.272, 5, 28.1258, 49.0396, 8.38019, 74.1224, -88.5057, 51.8206
5.276, 5, 28.1056, 49.0257, 8.42778, 74.08, -88.528, 51.8618
5.28, 5, 28.0872, 49.0136, 8.46897, 74.0435, -88.5472, 51.8973
5.284, 5, 28.0706, 49.0033, 8.50419, 74.0124, -88.5637, 51.9276
5.288, 5, 28.0558, 48.9945, 8.53394, 73.9863, -88.5775, 51.953
5.292, 5, 28.0429, 48.9872, 8.55874, 73.9646, -88.5891, 51.9741
5.296, 5, 28.0317, 48.9812, 8.57912, 73.9468, -88.5985, 51.9914
5.3, 6, 28.022, 48.9763, 8.59562, 73.9326, -88.6062, 52.0053
5.304, 6, 28.0136, 48.9724, 8.60876, 73.9213, -88.6122, 52.0162
5.308, 6, 28.0063, 48.9692, 8.61905, 73.9126, -88.6169, 52.0247
5.312, 6, 27.9998, 48.9668, 8.62696, 73.9059, -88.6205, 52.0312
5.316, 6, 27.9942, 48.965, 8.6329, 73.9011, -88.6231, 52.0359
5.32, 6, 27.9894, 48.9636, 8.63727, 73.8975, -88.6251, 52.0393
5.324, 6, 27.9854, 48.9626, 8.64043, 73.8951, -88.6264, 52.0418
5.328, 6, 27.9822, 48.9619, 8.64266, 73.8933, -88.6274, 52.0435
5.332, 6, 27.9797, 48.9614, 8.64421, 73.8921, -88.6281, 52.0446
5.336, 6, 27.978, 48.9611, 8.64527, 73.8913, -88.6285, 52.0454
5.34, 6, 27.9767, 48.9608, 8.64599, 73.8908, -88.6288, 52.0459
5.344, 6, 27.9759, 48.9606, 8.64648, 73.8904, -88.629, 52.0463
5.348, 6, 27.9754, 48.9604, 8.64682, 73.8902, -88.6292, 52.0465
5.352, 6, 27.9751, 48.9599, 8.64707, 73.89, -88.6292, 52.0467
5.356, 6, 27.975, 48.9591, 8.64728, 73.89, -88.6292, 52.0469
5.36, 6, 27.975, 48.9576, 8.64748, 73.8901, -88.6291, 52.047
5.364, 6, 27.9753, 48.9552, 8.64771, 73.8903, -88.6288, 52.0472
5.368, 6, 27.9756, 48.952, 8.64802, 73.8909, -88.6281, 52.0475
5.372, 6, 27.9761, 48.9476, 8.64844, 73.892, -88.6269, 52.0479
5.376, 6, 27.9766, 48.9422, 8.64899, 73.8938, -88.6249, 52.0485
5.38, 6, 27.9771, 48.9358, 8.64971, 73.8965, -88.6218, 52.0492
5.384, 6, 27.9774, 48.9285, 8.65063, 73.9004, -88.6173, 52.05
5.388, 6, 27.9777, 48.9204, 8.65175, 73.9058, -88.6111, 52.0508
5.392, 6, 27.9777, 48.912, 8.65311, 73.913, -88.6027, 52.0513
5.396, 6, 27.9775, 48.9033, 8.65471, 73.9222, -88.5919, 52.0513
5.4, 6, 27.9771, 48.8947, 8.65653, 73.9337, -88.5785, 52.0507
5.404, 6, 27.9766, 48.8864, 8.65856, 73.9474, -88.5624, 52.049
5.408, 6, 27.976, 48.8784, 8.66074, 73.9633, -88.5437, 52.0462
5.412, 6, 27.9753, 48.8706, 8.66304, 73.9812, -88.5227, 52.0421
5.416, 6, 27.9746, 48.8629, 8.66539, 74.0007, -88.4996, 52.0366
5.42, 6, 27.9739, 48.8552, 8.66773, 74.0216, -88.475, 52.0296
5.424, 6, 27.9733, 48.8474, 8.66998, 74.0433, -88.4494, 52.0213
5.428, 6, 27.9729, 48.8395, 8.67211, 74.0653, -88.4234, 52.0118
5.432, 6, 27.9726, 48.8315, 8.67407, 74.0871, -88.3977, 52.0012
5.436, 6, 27.9725, 48.8233, 8.67581, 74.1082, -88.3727, 51.99
5.44, 6, 27.9726, 48.8149, 8.67732, 74.128, -88.3492, 51.9784
5.444, 6, 27.9728, 48.8063, 8.67857, 74.1463, -88.3276, 51.9668
5.448, 6, 27.9732, 48.7975, 8.67956, 74.1626, -88.3083, 51.9557
5.452, 6, 27.9736, 48.7887, 8.68032, 74.1769, -88.2914, 51.9452
5.456, 6, 27.974, 48.78, 8.68085, 74.189, -88.277, 51.9358
5.46, 7, 27.9744, 48.7718, 8.6812, 74.1991, -88.2651, 51.9275
5.464, 7, 27.9746, 48.7642, 8.6814, 74.2072, -88.2555, 51.9204
5.468, 7, 27.9748, 48.7575, 8.68148, 74.2137, -88.2479, 51.9146
5.472, 7, 27.9748, 48.7517, 8.6815, 74.2186, -88.242, 51.9099
5.476, 7, 27.9748, 48.7468, 8.68146, 74.2224, -88.2376, 51.9063
5.48, 7, 27.9747, 48.7427, 8.6814, 74.2251, -88.2344, 51.9036
5.484, 7, 27.9745, 48.7394, 8.68133, 74.2271, -88.232, 51.9016
5.488, 7, 27.9744, 48.7368, 8.68127, 74.2285, -88.2304, 51.9002
5.492, 7, 27.9743, 48.7349, 8.68121, 74.2294, -88.2293, 51.8992
5.496, 7, 27.9741, 48.7335, 8.68118, 74.2301, -88.2285, 51.8985
5.5, 7, 27.9738, 48.7324, 8.68118, 74.2305, -88.228, 51.8981
5.504, 7, 27.9732, 48.7316, 8.68124, 74.2308, -88.2277, 51.8978
5.508, 7, 27.9722, 48.7309, 8.68143, 74.2309, -88.2275, 51.8977
5.512, 7, 27.9707, 48.73, 8.68184, 74.2309, -88.2274, 51.8978
5.516, 7, 27.9686, 48.729, 8.68262, 74.2306, -88.2274, 51.8981
5.52, 7, 27.9658, 48.7276, 8.68394, 74.2299, -88.2276, 51.899
5.524, 7, 27.9623, 48.7256, 8.68608, 74.2287, -88.228, 51.9004
5.528, 7, 27.9581, 48.7228, 8.68937, 74.2266, -88.2286, 51.9029
5.532, 7, 27.9531, 48.7192, 8.69419, 74.2235, -88.2295, 51.9066
5.536, 7, 27.9471, 48.7144, 8.70102, 74.219, -88.2309, 51.9121
5.54, 7, 27.9399, 48.7083, 8.71039, 74.2125, -88.2327, 51.9197
5.544, 7, 27.9312, 48.7007, 8.72291, 74.2038, -88.2353, 51.9302
5.548, 7, 27.921, 48.6915, 8.73921, 74.1923, -88.2386, 51.9439
5.552, 7, 27.9093, 48.6806, 8.75996, 74.1773, -88.2429, 51.9617
5.556, 7, 27.896, 48.668, 8.78581, 74.1585, -88.2482, 51.9841
5.56, 7, 27.8811, 48.6534, 8.81737, 74.1352, -88.2548, 52.0118
5.564, 7, 27.8646, 48.6367, 8.85519, 74.1071, -88.2627, 52.0453
5.568, 7, 27.8463, 48.6177, 8.89971, 74.0737, -88.272, 52.0849
5.572, 7, 27.8264, 48.5964, 8.95128, 74.0347, -88.2829, 52.1312
5.576, 7, 27.8046, 48.5726, 9.0101, 73.9901, -88.2954, 52.1841
5.58, 7, 27.7809, 48.5462, 9.0762, 73.9396, -88.3095, 52.2438
5.584, 7, 27.7553, 48.5175, 9.14953, 73.8835, -88.3253, 52.3103
5.588, 7, 27.7279, 48.4864, 9.22984, 73.8217, -88.3427, 52.3833
5.592, 7, 27.6988, 48.4533, 9.31677, 73.7546, -88.3616, 52.4625
5.596, 7, 27.6679, 48.4181, 9.40987, 73.6825, -88.382, 52.5475
5.6, 7, 27.6352, 48.3811, 9.50856, 73.6059, -88.4037, 52.6378
5.604, 7, 27.6008, 48.3422, 9.61226, 73.5253, -88.4267, 52.7327
5.608, 7, 27.5646, 48.3017, 9.7203, 73.4411, -88.4508, 52.8316
5.612, 7, 27.5267, 48.2596, 9.83203, 73.3539, -88.476, 52.9339
5.616, 7, 27.4873, 48.216, 9.94682, 73.2641, -88.502, 53.039
5.62, 7, 27.4466, 48.1712, 10.0641, 73.1723, -88.5287, 53.1465
5.624, 7, 27.4046, 48.1254, 10.1833, 73.0788, -88.5562, 53.2557
5.628, 7, 27.3615, 48.0787, 10.3039, 72.984, -88.5841, 53.3663
5.632, 7, 27.3174, 48.0314, 10.4256, 72.8881, -88.6126, 53.4779
5.636, 7, 27.2724, 47.9837, 10.548, 72.7915, -88.6414, 53.5903
5.64, 7, 27.2266, 47.9357, 10.6709, 72.6943, -88.6706, 53.7031
5.644, 7, 27.1801, 47.8874, 10.794, 72.5967, -88.7001, 53.8161
5.648, 7, 27.1329, 47.8391, 10.9171, 72.4988, -88.7299, 53.9294
5.652, 7, 27.0852, 47.7907, 11.0402, 72.4007, -88.7599, 54.0427
5.656, 7, 27.0372, 47.7425, 11.1632, 72.3025, -88.7902, 54.156
5.66, 7, 26.9888, 47.6943, 11.2859, 72.2041, -88.8206, 54.2692
5.664, 7, 26.9402, 47.6462, 11.4084, 72.1056, -88.8513, 54.3823
5.668, 7, 26.8913, 47.5983, 11.5306, 72.007, -88.8821, 54.4953
5.672, 7, 26.8423, 47.5506, 11.6526, 71.9084, -88.9132, 54.6082
5.676, 7, 26.7931, 47.503, 11.7742, 71.8097, -88.9444, 54.7209
5.68, 7, 26.7437, 47.4557, 11.8955, 71.7109, -88.9759, 54.8335
5.684, 7, 26.6942, 47.4085, 12.0164, 71.6121, -89.0075, 54.946
5.688, 7, 26.6445, 47.3615, 12.1371, 71.5133, -89.0393, 55.0583
5.692, 7, 26.5947, 47.3147, 12.2574, 71.4144, -89.0713, 55.1705
5.696, 7, 26.5448, 47.2681, 12.3774, 71.3155, -89.1035, 55.2825
5.7, 7, 26.4947, 47.2217, 12.4971, 71.2165, -89.1358, 55.3944
5.704, 7, 26.4444, 47.1755, 12.6164, 71.1175, -89.1684, 55.506
5.708, 7, 26.394, 47.1294, 12.7354, 71.0184, -89.2011, 55.6176
5.712, 7, 26.3435, 47.0836, 12.8541, 70.9193, -89.234, 55.729
5.716, 7, 26.2929, 47.038, 12.9724, 70.8201, -89.2671, 55.8402
5.72, 7, 26.2421, 46.9925, 13.0904, 70.7209, -89.3004, 55.9513
5.724, 7, 26.1911, 46.9473, 13.2081, 70.6217, -89.3338, 56.0622
5.728, 7, 26.14, 46.9022, 13.3255, 70.5224, -89.3675, 56.173
5.732, 7, 26.0888, 46.8573, 13.4425, 70.4231, -89.4013, 56.2836
5.736, 7, 26.0375, 46.8127, 13.5592, 70.3238, -89.4352, 56.3941
5.74, 7, 25.986, 46.7682, 13.6756, 70.2244, -89.4694, 56.5044
5.744, 7, 25.9343, 46.7239, 13.7916, 70.1249, -89.5038, 56.6145
5.748, 7, 25.8825, 46.6798, 13.9074, 70.0254, -89.5383, 56.7245
5.752, 7, 25.8306, 46.6359, 14.0228, 69.9259, -89.573, 56.8343
5.756, 7, 25.7786, 46.5922, 14.1378, 69.8264, -89.6079, 56.944
5.76, 7, 25.7264, 46.5487, 14.2526, 69.7267, -89.6429, 57.0535
5.764, 7, 25.674, 46.5054, 14.367, 69.6271, -89.6781, 57.1629
5.768, 7, 25.6215, 46.4622, 14.4811, 69.5274, -89.7135, 57.2721
5.772, 7, 25.5689, 46.4193, 14.5949, 69.4277, -89.7491, 57.3811
5.776, 7, 25.5161, 46.3765, 14.7083, 69.3279, -89.7849, 57.49
5.78, 7, 25.4632, 46.334, 14.8215, 69.2281, -89.8208, 57.5988
5.784, 7, 25.4102, 46.2916, 14.9343, 69.1282, -89.8569, 57.7074
5.788, 7, 25.357, 46.2494, 15.0468, 69.0283, -89.8932, 57.8158
5.792, 7, 25.3037, 46.2074, 15.1589, 68.9284, -89.9296, 57.9241
5.796, 7, 25.2502, 46.1656, 15.2708, 68.8284, -89.9663, 58.0322
5.8, 7, 25.1966, 46.124, 15.3823, 68.7284, -90.0031, 58.1401
5.804, 7, 25.1428, 46.0826, 15.4935, 68.6283, -90.04, 58.2479
5.808, 7, 25.0889, 46.0413, 15.6043, 68.5282, -90.0771, 58.3556
5.812, 7, 25.0349, 46.0003, 15.7149, 68.4281, -90.1145, 58.4631
5.816, 7, 24.9808, 45.9594, 15.8251, 68.3279, -90.1519, 58.5704
5.82, 7, 24.9268, 45.9188, 15.935, 68.2277, -90.1896, 58.6776
5.824, 7, 24.8731, 45.8784, 16.0445, 68.1274, -90.2274, 58.7845
5.828, 7, 24.82, 45.8383, 16.1536, 68.0272, -90.2653, 58.8913
5.832, 7, 24.7676, 45.7987, 16.2621, 67.9271, -90.3033, 58.9977
5.836, 7, 24.7162, 45.7595, 16.3698, 67.8273, -90.3414, 59.1036
5.84, 7, 24.6658, 45.7208, 16.4766, 67.728, -90.3794, 59.2089
5.844, 7, 24.6164, 45.6829, 16.5821, 67.6294, -90.4172, 59.3131
5.848, 7, 24.5681, 45.6457, 16.6859, 67.5321, -90.4546, 59.4158
5.852, 7, 24.521, 45.6095, 16.7875, 67.4364, -90.4916, 59.5166
5.856, 7, 24.475, 45.5743, 16.8865, 67.3429, -90.5278, 59.615
5.86, 7, 24.4306, 45.5404, 16.9823, 67.2521, -90.563, 59.7104
5.864, 7, 24.3877, 45.5078, 17.0744, 67.1646, -90.5971, 59.8022
5.868, 7, 24.3467, 45.4768, 17.1622, 67.081, -90.6297, 59.8898
5.872, 7, 24.3076, 45.4475, 17.2451, 67.0019, -90.6607, 59.9726
5.876, 7, 24.2703, 45.42, 17.3228, 66.9277, -90.6898, 60.0502
5.88, 7, 24.2351, 45.3944, 17.3948, 66.8588, -90.7169, 60.122
5.884, 7, 24.2019, 45.3708, 17.4609, 66.7957, -90.7418, 60.1879
5.888, 7, 24.1709, 45.3492, 17.5208, 66.7385, -90.7644, 60.2475
5.892, 7, 24.1419, 45.3296, 17.5744, 66.6873, -90.7848, 60.3008
5.896, 7, 24.1152, 45.3121, 17.622, 66.642, -90.8028, 60.3479
5.9, 7, 24.0907, 45.2966, 17.6636, 66.6025, -90.8186, 60.389
5.904, 7, 24.0684, 45.283, 17.6995, 66.5685, -90.8322, 60.4243
5.908, 7, 24.0484, 45.2712, 17.7301, 66.5397, -90.8437, 60.4542
5.912, 7, 24.0305, 45.2611, 17.7557, 66.5156, -90.8535, 60.4792
5.916, 7, 24.0148, 45.2526, 17.777, 66.4958, -90.8615, 60.4998
5.92, 8, 24.0012, 45.2455, 17.7944, 66.4797, -90.868, 60.5165
5.924, 8, 23.9895, 45.2396, 17.8083, 66.4669, -90.8732, 60.5299
5.928, 8, 23.9796, 45.2349, 17.8193, 66.4568, -90.8774, 60.5403
5.932, 8, 23.9711, 45.231, 17.8279, 66.4491, -90.8805, 60.5483
5.936, 8, 23.9638, 45.228, 17.8344, 66.4433, -90.8829, 60.5544
5.94, 8, 23.9576, 45.2256, 17.8393, 66.439, -90.8847, 60.5588
5.944, 8, 23.9524, 45.2238, 17.8428, 66.4359, -90.886, 60.5621
5.948, 8, 23.9482, 45.2224, 17.8454, 66.4337, -90.887, 60.5643
5.952, 8, 23.9448, 45.2214, 17.8472, 66.4322, -90.8876, 60.5659
5.956, 8, 23.9421, 45.2206, 17.8485, 66.4311, -90.888, 60.567
5.96, 8, 23.9401, 45.22, 17.8493, 66.4304, -90.8883, 60.5677
5.964, 8, 23.9383, 45.2195, 17.85, 66.4299, -90.8885, 60.5683
5.968, 8, 23.9365, 45.2188, 17.8506, 66.4295, -90.8887, 60.5687
5.972, 8, 23.9344, 45.2178, 17.8512, 66.4291, -90.8888, 60.5692
5.976, 8, 23.932, 45.2164, 17.8521, 66.4286, -90.8889, 60.57
5.98, 8, 23.929, 45.2145, 17.8534, 66.4278, -90.8889, 60.5712
5.984, 8, 23.9254, 45.2117, 17.8553, 66.4264, -90.8889, 60.5731
5.988, 8, 23.9211, 45.2082, 17.8582, 66.4244, -90.8888, 60.5763
5.992, 8, 23.916, 45.2036, 17.8625, 66.4212, -90.8886, 60.581
5.996, 8, 23.9098, 45.1979, 17.8684, 66.4166, -90.8883, 60.5878
6, 8, 23.9024, 45.191, 17.8765, 66.4102, -90.8879, 60.5974
6.004, 8, 23.8935, 45.1826, 17.8874, 66.4016, -90.8872, 60.6104
6.008, 8, 23.8829, 45.1727, 17.9015, 66.3901, -90.8864, 60.6276
6.012, 8, 23.8705, 45.1609, 17.9194, 66.3752, -90.8852, 60.6498
6.016, 8, 23.8562, 45.1472, 17.9418, 66.3564, -90.8837, 60.6778
6.02, 8, 23.8398, 45.1313, 17.9692, 66.3332, -90.8819, 60.7125
6.024, 8, 23.8213, 45.113, 18.0022, 66.3049, -90.8796, 60.7547
6.028, 8, 23.8004, 45.092, 18.0412, 66.2711, -90.8769, 60.805
6.032, 8, 23.777, 45.0683, 18.0867, 66.2315, -90.8737, 60.864
6.036, 8, 23.7512, 45.0417, 18.139, 66.1857, -90.87, 60.9321
6.04, 8, 23.7229, 45.0121, 18.1982, 66.1334, -90.8658, 61.0098
6.044, 8, 23.692, 44.9796, 18.2645, 66.0745, -90.8611, 61.0972
6.048, 8, 23.6587, 44.9443, 18.3378, 66.0091, -90.856, 61.1943
6.052, 8, 23.623, 44.9062, 18.4178, 65.9372, -90.8504, 61.3008
6.056, 8, 23.5849, 44.8654, 18.5044, 65.8591, -90.8444, 61.4164
6.06, 8, 23.5443, 44.8222, 18.597, 65.7751, -90.8381, 61.5405
