hehonglu123/Motion-Primitive-Planning/simulation/robotstudio_sim/scripts/fitting_output/threshold0.5/curve_exe_v500_z10.csv
timestamp, cmd_num, J1, J2, J3, J4, J5, J6
0, 1, -1.04611, 64.0155, 9.27262, 43.2937, -96.0658, 171.467
0.002, 1, -1.04611, 64.0155, 9.27262, 43.2937, -96.0658, 171.467
0.004, 1, -1.04611, 64.0155, 9.27262, 43.2937, -96.0658, 171.467
0.008, 1, -1.04611, 64.0155, 9.27262, 43.2937, -96.0658, 171.467
0.011, 1, -1.04611, 64.0155, 9.27262, 43.2937, -96.0658, 171.467
0.016, 1, -1.04611, 64.0155, 9.27262, 43.2937, -96.0658, 171.467
0.02, 1, -1.04611, 64.0155, 9.27262, 43.2937, -96.0658, 171.467
0.024, 1, -1.04611, 64.0155, 9.27262, 43.2937, -96.0658, 171.467
0.028, 1, -1.04611, 64.0155, 9.27262, 43.2937, -96.0658, 171.467
0.032, 1, -1.04611, 64.0155, 9.27262, 43.2937, -96.0658, 171.467
0.036, 1, -1.0461, 64.0155, 9.27262, 43.2937, -96.0658, 171.467
0.04, 1, -1.04604, 64.0155, 9.27262, 43.2937, -96.0658, 171.467
0.044, 1, -1.04582, 64.0154, 9.27263, 43.2937, -96.0658, 171.467
0.048, 1, -1.04529, 64.0153, 9.27265, 43.2937, -96.0658, 171.467
0.052, 1, -1.04432, 64.015, 9.27267, 43.2938, -96.0658, 171.467
0.056, 1, -1.0428, 64.0145, 9.2727, 43.2939, -96.0657, 171.467
0.06, 1, -1.04065, 64.0138, 9.27271, 43.2941, -96.0655, 171.466
0.064, 1, -1.03782, 64.0127, 9.27267, 43.2946, -96.0651, 171.465
0.068, 1, -1.03428, 64.0113, 9.27251, 43.2954, -96.0644, 171.463
0.072, 1, -1.02997, 64.0094, 9.27219, 43.2967, -96.0634, 171.46
0.076, 1, -1.02481, 64.0071, 9.2716, 43.2987, -96.0617, 171.455
0.08, 1, -1.01862, 64.0042, 9.27067, 43.3017, -96.0593, 171.448
0.084, 1, -1.01122, 64.0007, 9.26926, 43.3059, -96.0559, 171.438
0.088, 1, -1.0024, 63.9965, 9.26725, 43.3116, -96.0512, 171.425
0.092, 1, -0.991992, 63.9914, 9.26448, 43.3191, -96.045, 171.407
0.096, 1, -0.9799, 63.9856, 9.26077, 43.3289, -96.037, 171.385
0.1, 1, -0.966033, 63.9789, 9.25595, 43.3413, -96.0268, 171.356
0.104, 1, -0.95029, 63.9713, 9.24983, 43.3567, -96.0141, 171.32
0.108, 1, -0.932536, 63.9627, 9.24224, 43.3755, -95.9987, 171.277
0.112, 1, -0.912641, 63.9531, 9.23301, 43.3981, -95.9801, 171.224
0.116, 1, -0.890518, 63.9426, 9.222, 43.4247, -95.9582, 171.163
0.12, 1, -0.866144, 63.9311, 9.20907, 43.4557, -95.9327, 171.091
0.124, 1, -0.839541, 63.9189, 9.19409, 43.4912, -95.9034, 171.009
0.128, 1, -0.810752, 63.9061, 9.17698, 43.5315, -95.8702, 170.916
0.131, 1, -0.779824, 63.8927, 9.15769, 43.5767, -95.833, 170.811
0.136, 1, -0.746796, 63.8787, 9.13621, 43.6268, -95.7917, 170.696
0.139, 1, -0.711674, 63.8642, 9.11257, 43.6816, -95.7465, 170.569
0.144, 1, -0.674425, 63.8489, 9.08685, 43.7411, -95.6974, 170.432
0.148, 1, -0.635014, 63.8328, 9.05917, 43.805, -95.6447, 170.284
0.152, 1, -0.593459, 63.8158, 9.02967, 43.873, -95.5886, 170.127
0.156, 1, -0.549854, 63.7979, 8.99852, 43.9448, -95.5295, 169.962
0.16, 1, -0.504331, 63.7791, 8.96587, 44.02, -95.4675, 169.788
0.164, 1, -0.457007, 63.7594, 8.93192, 44.0981, -95.403, 169.608
0.168, 1, -0.407966, 63.7388, 8.89687, 44.1788, -95.3365, 169.421
0.172, 1, -0.35728, 63.7175, 8.86091, 44.2617, -95.2681, 169.23
0.176, 1, -0.305051, 63.6954, 8.82423, 44.3464, -95.1983, 169.035
0.18, 1, -0.251414, 63.6725, 8.78699, 44.4324, -95.1273, 168.836
0.184, 1, -0.19651, 63.6489, 8.74933, 44.5196, -95.0555, 168.635
0.188, 1, -0.14048, 63.6247, 8.71138, 44.6076, -94.9829, 168.431
0.192, 1, -0.0834746, 63.6, 8.67322, 44.6962, -94.9099, 168.227
0.196, 1, -0.0256472, 63.5749, 8.63491, 44.7853, -94.8364, 168.021
0.2, 1, 0.0328738, 63.5494, 8.59651, 44.8746, -94.7628, 167.815
0.204, 1, 0.0919972, 63.5237, 8.55806, 44.9642, -94.6889, 167.608
0.208, 1, 0.151642, 63.4978, 8.51958, 45.0539, -94.615, 167.4
0.212, 1, 0.211708, 63.4718, 8.48108, 45.1436, -94.541, 167.193
0.216, 1, 0.272083, 63.4456, 8.44259, 45.2334, -94.467, 166.986
0.22, 1, 0.332664, 63.4194, 8.40411, 45.3232, -94.393, 166.778
0.224, 1, 0.393375, 63.3931, 8.36563, 45.413, -94.319, 166.571
0.228, 1, 0.454162, 63.3668, 8.32718, 45.5028, -94.245, 166.363
0.232, 1, 0.514989, 63.3406, 8.28874, 45.5925, -94.171, 166.156
0.236, 1, 0.575834, 63.3143, 8.25031, 45.6822, -94.0971, 165.949
0.24, 1, 0.636678, 63.288, 8.21191, 45.7719, -94.0232, 165.742
0.244, 1, 0.697512, 63.2617, 8.17353, 45.8615, -93.9493, 165.535
0.248, 1, 0.758327, 63.2354, 8.13517, 45.951, -93.8755, 165.328
0.252, 1, 0.819118, 63.2092, 8.09683, 46.0406, -93.8017, 165.121
0.256, 1, 0.879882, 63.1829, 8.05851, 46.13, -93.728, 164.914
0.26, 1, 0.940616, 63.1567, 8.02021, 46.2194, -93.6543, 164.708
0.264, 1, 1.00132, 63.1305, 7.98193, 46.3088, -93.5806, 164.501
0.268, 1, 1.06199, 63.1043, 7.94368, 46.3981, -93.507, 164.295
0.272, 1, 1.12262, 63.0781, 7.90545, 46.4874, -93.4334, 164.089
0.276, 1, 1.18323, 63.0519, 7.86724, 46.5766, -93.3599, 163.883
0.28, 1, 1.24379, 63.0257, 7.82905, 46.6657, -93.2864, 163.677
0.284, 1, 1.30433, 62.9996, 7.79089, 46.7548, -93.2129, 163.471
0.288, 1, 1.36482, 62.9735, 7.75274, 46.8439, -93.1395, 163.265
0.292, 1, 1.42528, 62.9473, 7.71462, 46.9329, -93.0662, 163.059
0.296, 1, 1.48571, 62.9212, 7.67653, 47.0218, -92.9929, 162.854
0.3, 1, 1.5461, 62.8952, 7.63845, 47.1107, -92.9196, 162.648
0.304, 1, 1.60645, 62.8691, 7.6004, 47.1996, -92.8464, 162.443
0.308, 1, 1.66677, 62.843, 7.56237, 47.2884, -92.7732, 162.238
0.312, 1, 1.72705, 62.817, 7.52437, 47.3771, -92.7, 162.033
0.316, 1, 1.7873, 62.791, 7.48639, 47.4658, -92.6269, 161.828
0.32, 1, 1.8475, 62.765, 7.44843, 47.5544, -92.5539, 161.623
0.324, 1, 1.90768, 62.739, 7.41049, 47.643, -92.4809, 161.419
0.328, 1, 1.96781, 62.713, 7.37258, 47.7315, -92.4079, 161.214
0.332, 1, 2.02791, 62.6871, 7.33469, 47.8199, -92.335, 161.01
0.336, 1, 2.08797, 62.6611, 7.29682, 47.9083, -92.2621, 160.806
0.34, 1, 2.14799, 62.6352, 7.25898, 47.9967, -92.1893, 160.602
0.344, 1, 2.20797, 62.6093, 7.22116, 48.085, -92.1165, 160.398
0.348, 1, 2.26792, 62.5834, 7.18336, 48.1732, -92.0438, 160.194
0.352, 1, 2.32783, 62.5575, 7.14559, 48.2614, -91.9711, 159.99
0.356, 1, 2.3877, 62.5317, 7.10785, 48.3496, -91.8985, 159.786
0.36, 1, 2.44753, 62.5058, 7.07012, 48.4376, -91.8259, 159.583
0.364, 1, 2.50733, 62.48, 7.03242, 48.5257, -91.7533, 159.38
0.368, 1, 2.56708, 62.4542, 6.99475, 48.6136, -91.6808, 159.176
0.372, 1, 2.6268, 62.4284, 6.95709, 48.7015, -91.6083, 158.973
0.376, 1, 2.68648, 62.4026, 6.91947, 48.7894, -91.5359, 158.77
0.38, 1, 2.74612, 62.3768, 6.88186, 48.8772, -91.4636, 158.567
0.384, 1, 2.80573, 62.3511, 6.84429, 48.9649, -91.3912, 158.365
0.388, 1, 2.86529, 62.3254, 6.80673, 49.0526, -91.319, 158.162
0.392, 1, 2.92481, 62.2997, 6.7692, 49.1402, -91.2467, 157.96
0.396, 1, 2.9843, 62.274, 6.7317, 49.2278, -91.1746, 157.757
0.4, 1, 3.04374, 62.2483, 6.69422, 49.3153, -91.1024, 157.555
0.404, 1, 3.10315, 62.2226, 6.65676, 49.4027, -91.0304, 157.353
0.408, 1, 3.16252, 62.197, 6.61933, 49.4901, -90.9583, 157.151
0.412, 1, 3.22185, 62.1714, 6.58193, 49.5774, -90.8863, 156.95
0.416, 1, 3.28113, 62.1458, 6.54455, 49.6647, -90.8144, 156.748
0.42, 1, 3.34038, 62.1202, 6.50719, 49.7519, -90.7425, 156.546
0.424, 1, 3.39959, 62.0946, 6.46986, 49.8391, -90.6707, 156.345
0.428, 1, 3.45876, 62.069, 6.43256, 49.9262, -90.5989, 156.144
0.432, 1, 3.51788, 62.0435, 6.39528, 50.0132, -90.5272, 155.943
0.436, 1, 3.57697, 62.018, 6.35803, 50.1002, -90.4555, 155.742
0.44, 1, 3.63602, 61.9925, 6.3208, 50.1871, -90.3838, 155.541
0.444, 1, 3.69502, 61.967, 6.2836, 50.2739, -90.3122, 155.34
0.448, 1, 3.75399, 61.9415, 6.24642, 50.3607, -90.2407, 155.14
0.452, 1, 3.81291, 61.9161, 6.20927, 50.4475, -90.1692, 154.939
0.456, 1, 3.8718, 61.8906, 6.17215, 50.5342, -90.0977, 154.739
0.46, 1, 3.93064, 61.8652, 6.13505, 50.6208, -90.0263, 154.539
0.464, 1, 3.98944, 61.8398, 6.09798, 50.7073, -89.955, 154.339
0.468, 1, 4.0482, 61.8145, 6.06093, 50.7938, -89.8837, 154.139
0.472, 1, 4.10691, 61.7891, 6.02391, 50.8802, -89.8125, 153.94
0.476, 1, 4.16559, 61.7637, 5.98692, 50.9666, -89.7413, 153.74
0.48, 1, 4.22423, 61.7384, 5.94995, 51.0529, -89.6701, 153.541
0.484, 1, 4.28282, 61.7131, 5.91301, 51.1392, -89.599, 153.341
0.488, 1, 4.34137, 61.6878, 5.87609, 51.2254, -89.528, 153.142
0.492, 1, 4.39988, 61.6626, 5.8392, 51.3115, -89.457, 152.943
0.496, 1, 4.45834, 61.6373, 5.80234, 51.3975, -89.3861, 152.744
0.5, 1, 4.51677, 61.6121, 5.76551, 51.4835, -89.3152, 152.546
0.504, 1, 4.57515, 61.5868, 5.7287, 51.5695, -89.2443, 152.347
0.508, 1, 4.63349, 61.5617, 5.69192, 51.6554, -89.1736, 152.149
0.512, 1, 4.69179, 61.5365, 5.65516, 51.7412, -89.1028, 151.951
0.516, 1, 4.75004, 61.5113, 5.61843, 51.8269, -89.0322, 151.753
0.52, 1, 4.80826, 61.4862, 5.58173, 51.9126, -88.9615, 151.555
0.524, 1, 4.86643, 61.461, 5.54506, 51.9982, -88.8909, 151.357
0.528, 1, 4.92455, 61.4359, 5.50841, 52.0838, -88.8204, 151.159
0.532, 1, 4.98264, 61.4109, 5.47179, 52.1693, -88.7499, 150.962
0.536, 1, 5.04068, 61.3858, 5.4352, 52.2547, -88.6795, 150.764
0.54, 1, 5.09867, 61.3607, 5.39864, 52.3401, -88.6092, 150.567
0.544, 1, 5.15663, 61.3357, 5.3621, 52.4254, -88.5388, 150.37
0.548, 1, 5.21454, 61.3107, 5.32559, 52.5106, -88.4686, 150.173
0.552, 1, 5.2724, 61.2857, 5.28911, 52.5958, -88.3984, 149.976
0.556, 1, 5.33023, 61.2607, 5.25265, 52.6809, -88.3282, 149.779
0.56, 1, 5.38801, 61.2358, 5.21622, 52.766, -88.2581, 149.583
0.564, 1, 5.44574, 61.2108, 5.17982, 52.8509, -88.1881, 149.387
0.568, 1, 5.50343, 61.1859, 5.14345, 52.9359, -88.1181, 149.19
0.572, 1, 5.56108, 61.161, 5.1071, 53.0207, -88.0481, 148.994
0.576, 1, 5.61868, 61.1361, 5.07079, 53.1055, -87.9782, 148.799
0.58, 1, 5.67624, 61.1113, 5.0345, 53.1902, -87.9084, 148.603
0.584, 1, 5.73376, 61.0864, 4.99824, 53.2749, -87.8386, 148.407
0.588, 1, 5.79123, 61.0616, 4.962, 53.3595, -87.7689, 148.212
0.592, 1, 5.84865, 61.0368, 4.9258, 53.444, -87.6992, 148.016
0.596, 1, 5.90603, 61.012, 4.88962, 53.5285, -87.6296, 147.821
0.6, 1, 5.96337, 60.9873, 4.85347, 53.6129, -87.56, 147.626
0.604, 1, 6.02066, 60.9625, 4.81735, 53.6972, -87.4905, 147.431
0.608, 1, 6.07791, 60.9378, 4.78126, 53.7815, -87.4211, 147.237
0.612, 1, 6.13511, 60.9131, 4.74519, 53.8657, -87.3516, 147.042
0.616, 1, 6.19227, 60.8884, 4.70916, 53.9498, -87.2823, 146.848
0.62, 1, 6.24938, 60.8637, 4.67315, 54.0339, -87.213, 146.654
0.624, 1, 6.30645, 60.8391, 4.63717, 54.1179, -87.1438, 146.46
0.628, 1, 6.36347, 60.8145, 4.60122, 54.2018, -87.0746, 146.266
0.632, 1, 6.42045, 60.7898, 4.5653, 54.2857, -87.0054, 146.072
0.636, 1, 6.47738, 60.7653, 4.52941, 54.3695, -86.9364, 145.878
0.64, 1, 6.53426, 60.7407, 4.49354, 54.4532, -86.8674, 145.685
0.644, 1, 6.5911, 60.7161, 4.45771, 54.5369, -86.7984, 145.492
0.648, 1, 6.6479, 60.6916, 4.4219, 54.6205, -86.7295, 145.298
0.652, 1, 6.70464, 60.6671, 4.38612, 54.704, -86.6606, 145.105
0.656, 1, 6.76135, 60.6426, 4.35038, 54.7875, -86.5918, 144.913
0.66, 1, 6.818, 60.6181, 4.31466, 54.8709, -86.5231, 144.72
0.664, 1, 6.87462, 60.5937, 4.27896, 54.9542, -86.4544, 144.527
0.668, 1, 6.93118, 60.5693, 4.2433, 55.0374, -86.3858, 144.335
0.672, 1, 6.9877, 60.5448, 4.20767, 55.1206, -86.3172, 144.143
0.676, 1, 7.04417, 60.5205, 4.17207, 55.2038, -86.2487, 143.951
0.68, 1, 7.1006, 60.4961, 4.13649, 55.2868, -86.1802, 143.759
0.684, 1, 7.15698, 60.4717, 4.10095, 55.3698, -86.1118, 143.567
0.688, 1, 7.21331, 60.4474, 4.06543, 55.4527, -86.0435, 143.376
0.692, 1, 7.2696, 60.4231, 4.02995, 55.5356, -85.9752, 143.184
0.696, 1, 7.32584, 60.3988, 3.99449, 55.6184, -85.907, 142.993
0.7, 1, 7.38203, 60.3745, 3.95906, 55.7011, -85.8388, 142.802
0.704, 1, 7.43818, 60.3503, 3.92366, 55.7837, -85.7707, 142.611
0.708, 1, 7.49428, 60.326, 3.8883, 55.8663, -85.7026, 142.42
0.712, 1, 7.55033, 60.3018, 3.85296, 55.9488, -85.6346, 142.23
0.716, 1, 7.60634, 60.2776, 3.81765, 56.0312, -85.5666, 142.039
0.72, 1, 7.66229, 60.2535, 3.78237, 56.1136, -85.4987, 141.849
0.724, 1, 7.71821, 60.2293, 3.74712, 56.1959, -85.4309, 141.659
0.728, 1, 7.77407, 60.2052, 3.7119, 56.2781, -85.3631, 141.469
0.732, 1, 7.82989, 60.1811, 3.67671, 56.3603, -85.2954, 141.279
0.736, 1, 7.88566, 60.157, 3.64155, 56.4424, -85.2277, 141.089
0.74, 1, 7.94138, 60.1329, 3.60642, 56.5244, -85.1601, 140.9
0.744, 1, 7.99706, 60.1089, 3.57132, 56.6063, -85.0926, 140.71
0.748, 1, 8.05269, 60.0849, 3.53625, 56.6882, -85.0251, 140.521
0.752, 1, 8.10827, 60.0609, 3.50121, 56.77, -84.9576, 140.332
0.756, 1, 8.1638, 60.0369, 3.4662, 56.8518, -84.8903, 140.143
0.76, 1, 8.21929, 60.0129, 3.43122, 56.9334, -84.823, 139.955
0.764, 1, 8.27473, 59.989, 3.39626, 57.015, -84.7557, 139.766
0.768, 1, 8.33012, 59.965, 3.36134, 57.0966, -84.6885, 139.578
0.772, 1, 8.38546, 59.9411, 3.32645, 57.178, -84.6213, 139.39
0.776, 1, 8.44076, 59.9173, 3.29159, 57.2594, -84.5543, 139.202
0.78, 1, 8.49601, 59.8934, 3.25676, 57.3407, -84.4872, 139.014
0.784, 1, 8.55121, 59.8696, 3.22196, 57.422, -84.4203, 138.826
0.788, 1, 8.60636, 59.8457, 3.18719, 57.5032, -84.3533, 138.638
0.792, 1, 8.66146, 59.8219, 3.15245, 57.5843, -84.2865, 138.451
0.796, 1, 8.71652, 59.7982, 3.11774, 57.6653, -84.2197, 138.264
0.8, 1, 8.77153, 59.7744, 3.08306, 57.7463, -84.153, 138.077
0.804, 1, 8.82649, 59.7507, 3.04842, 57.8272, -84.0863, 137.89
0.808, 1, 8.8814, 59.727, 3.0138, 57.908, -84.0197, 137.703
0.812, 1, 8.93627, 59.7033, 2.97921, 57.9888, -83.9531, 137.517
0.816, 1, 8.99108, 59.6796, 2.94465, 58.0694, -83.8866, 137.33
0.82, 1, 9.04585, 59.6559, 2.91012, 58.15, -83.8201, 137.144
0.824, 1, 9.10057, 59.6323, 2.87563, 58.2306, -83.7538, 136.958
0.828, 1, 9.15524, 59.6087, 2.84116, 58.3111, -83.6874, 136.772
0.832, 1, 9.20987, 59.5851, 2.80673, 58.3915, -83.6212, 136.586
0.836, 1, 9.26444, 59.5615, 2.77232, 58.4718, -83.5549, 136.401
0.84, 1, 9.31897, 59.538, 2.73794, 58.552, -83.4888, 136.215
0.844, 1, 9.37345, 59.5144, 2.7036, 58.6322, -83.4227, 136.03
0.848, 1, 9.42788, 59.4909, 2.66929, 58.7123, -83.3567, 135.845
0.852, 1, 9.48226, 59.4674, 2.635, 58.7924, -83.2907, 135.66
0.856, 1, 9.53659, 59.444, 2.60075, 58.8723, -83.2248, 135.475
0.86, 1, 9.59088, 59.4205, 2.56653, 58.9522, -83.1589, 135.291
0.864, 1, 9.64511, 59.3971, 2.53233, 59.0321, -83.0931, 135.106
0.868, 1, 9.6993, 59.3737, 2.49817, 59.1118, -83.0274, 134.922
0.872, 1, 9.75344, 59.3503, 2.46404, 59.1915, -82.9617, 134.738
0.876, 1, 9.80753, 59.327, 2.42994, 59.2711, -82.8961, 134.554
0.88, 1, 9.86158, 59.3036, 2.39587, 59.3507, -82.8305, 134.37
0.884, 1, 9.91557, 59.2803, 2.36183, 59.4301, -82.765, 134.186
0.888, 1, 9.96951, 59.257, 2.32783, 59.5095, -82.6995, 134.003
0.892, 1, 10.0234, 59.2337, 2.29385, 59.5889, -82.6342, 133.82
0.896, 1, 10.0773, 59.2105, 2.2599, 59.6681, -82.5688, 133.637
0.9, 1, 10.1311, 59.1872, 2.22599, 59.7473, -82.5036, 133.454
0.904, 1, 10.1848, 59.164, 2.1921, 59.8264, -82.4384, 133.271
0.908, 1, 10.2385, 59.1408, 2.15825, 59.9055, -82.3732, 133.088
0.912, 1, 10.2922, 59.1177, 2.12442, 59.9844, -82.3081, 132.906
0.916, 1, 10.3458, 59.0945, 2.09063, 60.0633, -82.2431, 132.724
0.92, 1, 10.3993, 59.0714, 2.05687, 60.1422, -82.1781, 132.541
0.924, 1, 10.4528, 59.0483, 2.02314, 60.2209, -82.1132, 132.36
0.928, 1, 10.5063, 59.0252, 1.98944, 60.2996, -82.0483, 132.178
0.932, 1, 10.5597, 59.0021, 1.95577, 60.3782, -81.9835, 131.996
0.936, 1, 10.6131, 58.9791, 1.92213, 60.4567, -81.9188, 131.815
0.94, 1, 10.6664, 58.956, 1.88852, 60.5352, -81.8541, 131.633
0.944, 1, 10.7196, 58.933, 1.85494, 60.6136, -81.7895, 131.452
0.948, 1, 10.7728, 58.9101, 1.8214, 60.6919, -81.725, 131.271
0.952, 1, 10.826, 58.8871, 1.78788, 60.7702, -81.6604, 131.091
0.956, 1, 10.8791, 58.8642, 1.7544, 60.8483, -81.596, 130.91
0.96, 1, 10.9322, 58.8412, 1.72094, 60.9264, -81.5316, 130.729
0.964, 1, 10.9852, 58.8183, 1.68752, 61.0045, -81.4673, 130.549
0.968, 1, 11.0382, 58.7955, 1.65413, 61.0824, -81.4031, 130.369
0.972, 1, 11.0911, 58.7726, 1.62077, 61.1603, -81.3388, 130.189
0.976, 1, 11.144, 58.7498, 1.58743, 61.2381, -81.2747, 130.009
0.98, 1, 11.1968, 58.727, 1.55414, 61.3159, -81.2106, 129.83
0.984, 1, 11.2496, 58.7042, 1.52087, 61.3936, -81.1466, 129.65
0.988, 1, 11.3023, 58.6814, 1.48763, 61.4712, -81.0826, 129.471
0.992, 1, 11.355, 58.6586, 1.45442, 61.5487, -81.0187, 129.292
0.996, 1, 11.4076, 58.6359, 1.42125, 61.6262, -80.9549, 129.113
1, 1, 11.4602, 58.6132, 1.3881, 61.7035, -80.8911, 128.934
1.004, 1, 11.5127, 58.5905, 1.35499, 61.7808, -80.8274, 128.756
1.008, 1, 11.5652, 58.5679, 1.3219, 61.8581, -80.7637, 128.577
1.012, 1, 11.6176, 58.5452, 1.28885, 61.9353, -80.7001, 128.399
1.016, 1, 11.67, 58.5226, 1.25583, 62.0124, -80.6365, 128.221
1.02, 1, 11.7223, 58.5, 1.22284, 62.0894, -80.5731, 128.043
1.024, 1, 11.7746, 58.4774, 1.18988, 62.1663, -80.5096, 127.865
1.027, 1, 11.8268, 58.4548, 1.15695, 62.2432, -80.4463, 127.687
1.032, 1, 11.879, 58.4323, 1.12405, 62.32, -80.3829, 127.51
1.036, 1, 11.9312, 58.4098, 1.09118, 62.3968, -80.3197, 127.333
1.04, 1, 11.9833, 58.3873, 1.05835, 62.4734, -80.2565, 127.155
1.044, 1, 12.0353, 58.3648, 1.02554, 62.55, -80.1934, 126.978
1.048, 1, 12.0873, 58.3424, 0.992768, 62.6265, -80.1303, 126.802
1.052, 1, 12.1392, 58.3199, 0.960024, 62.703, -80.0673, 126.625
1.055, 1, 12.1911, 58.2975, 0.927311, 62.7794, -80.0043, 126.449
1.06, 1, 12.243, 58.2751, 0.894629, 62.8557, -79.9414, 126.272
1.064, 1, 12.2948, 58.2528, 0.861978, 62.9319, -79.8786, 126.096
1.068, 1, 12.3465, 58.2304, 0.829358, 63.008, -79.8158, 125.92
1.072, 1, 12.3982, 58.2081, 0.796768, 63.0841, -79.7531, 125.744
1.076, 1, 12.4499, 58.1858, 0.76421, 63.1601, -79.6904, 125.569
1.08, 1, 12.5015, 58.1635, 0.731682, 63.2361, -79.6278, 125.393
1.084, 1, 12.553, 58.1412, 0.699185, 63.312, -79.5653, 125.218
1.088, 1, 12.6045, 58.119, 0.666718, 63.3878, -79.5028, 125.043
1.091, 1, 12.656, 58.0968, 0.634283, 63.4635, -79.4404, 124.868
1.096, 1, 12.7074, 58.0746, 0.601878, 63.5391, -79.378, 124.693
1.1, 1, 12.7587, 58.0524, 0.569504, 63.6147, -79.3157, 124.519
1.104, 1, 12.81, 58.0302, 0.53716, 63.6902, -79.2535, 124.344
1.108, 1, 12.8613, 58.0081, 0.504847, 63.7657, -79.1913, 124.17
1.112, 1, 12.9125, 57.986, 0.472565, 63.8411, -79.1292, 123.996
1.116, 1, 12.9637, 57.9639, 0.440314, 63.9164, -79.0671, 123.822
1.119, 1, 13.0148, 57.9418, 0.408093, 63.9916, -79.0051, 123.648
1.124, 1, 13.0659, 57.9198, 0.375902, 64.0667, -78.9432, 123.474
1.128, 1, 13.1169, 57.8977, 0.343743, 64.1418, -78.8813, 123.301
1.132, 1, 13.1678, 57.8757, 0.311613, 64.2168, -78.8194, 123.128
1.136, 1, 13.2188, 57.8537, 0.279515, 64.2918, -78.7577, 122.954
1.14, 1, 13.2696, 57.8317, 0.247446, 64.3666, -78.696, 122.781
1.144, 1, 13.3205, 57.8098, 0.215409, 64.4414, -78.6343, 122.609
1.147, 1, 13.3712, 57.7879, 0.183401, 64.5162, -78.5727, 122.436
1.152, 1, 13.422, 57.766, 0.151425, 64.5908, -78.5112, 122.263
1.156, 1, 13.4726, 57.7441, 0.119478, 64.6654, -78.4497, 122.091
1.16, 1, 13.5233, 57.7222, 0.0875621, 64.7399, -78.3883, 121.919
1.164, 1, 13.5738, 57.7004, 0.0556764, 64.8144, -78.3269, 121.747
1.168, 1, 13.6244, 57.6785, 0.0238212, 64.8887, -78.2656, 121.575
1.172, 1, 13.6749, 57.6567, -0.0080038, 64.9631, -78.2044, 121.404
1.175, 1, 13.7253, 57.635, -0.0397984, 65.0373, -78.1432, 121.232
1.18, 1, 13.7757, 57.6132, -0.0715628, 65.1114, -78.082, 121.061
1.184, 1, 13.826, 57.5914, -0.103297, 65.1855, -78.021, 120.89
1.188, 1, 13.8763, 57.5697, -0.135001, 65.2596, -77.96, 120.719
1.192, 1, 13.9266, 57.548, -0.166674, 65.3335, -77.899, 120.548
1.196, 1, 13.9768, 57.5264, -0.198318, 65.4074, -77.8381, 120.377
1.2, 1, 14.0269, 57.5047, -0.229931, 65.4812, -77.7773, 120.206
1.204, 1, 14.077, 57.4831, -0.261514, 65.5549, -77.7165, 120.036
1.208, 1, 14.1271, 57.4614, -0.293067, 65.6286, -77.6558, 119.866
1.212, 1, 14.1771, 57.4398, -0.32459, 65.7022, -77.5951, 119.696
1.216, 1, 14.2271, 57.4183, -0.356083, 65.7757, -77.5345, 119.526
1.22, 1, 14.277, 57.3967, -0.387546, 65.8492, -77.4739, 119.356
1.224, 1, 14.3268, 57.3752, -0.418978, 65.9226, -77.4135, 119.187
1.228, 1, 14.3767, 57.3537, -0.450381, 65.9959, -77.353, 119.017
1.232, 1, 14.4264, 57.3322, -0.481754, 66.0691, -77.2926, 118.848
1.236, 1, 14.4761, 57.3107, -0.513097, 66.1423, -77.2323, 118.679
1.24, 1, 14.5258, 57.2892, -0.54441, 66.2154, -77.1721, 118.51
1.244, 1, 14.5755, 57.2678, -0.575693, 66.2885, -77.1119, 118.341
1.248, 1, 14.625, 57.2464, -0.606946, 66.3614, -77.0517, 118.173
1.252, 1, 14.6746, 57.225, -0.638169, 66.4343, -76.9916, 118.004
1.256, 1, 14.7241, 57.2036, -0.669362, 66.5071, -76.9316, 117.836
1.26, 1, 14.7735, 57.1823, -0.700526, 66.5799, -76.8716, 117.668
1.264, 1, 14.8229, 57.161, -0.73166, 66.6526, -76.8117, 117.5
1.267, 1, 14.8722, 57.1396, -0.762764, 66.7252, -76.7519, 117.332
1.272, 1, 14.9215, 57.1184, -0.793838, 66.7978, -76.692, 117.165
1.276, 1, 14.9708, 57.0971, -0.824883, 66.8702, -76.6323, 116.997
1.28, 1, 15.02, 57.0758, -0.855898, 66.9427, -76.5726, 116.83
1.284, 1, 15.0691, 57.0546, -0.886883, 67.015, -76.513, 116.663
1.288, 1, 15.1182, 57.0334, -0.917839, 67.0873, -76.4534, 116.496
1.292, 1, 15.1673, 57.0122, -0.948765, 67.1595, -76.3939, 116.329
1.295, 1, 15.2163, 56.991, -0.979662, 67.2316, -76.3344, 116.162
1.3, 1, 15.2653, 56.9699, -1.01053, 67.3037, -76.275, 115.996
1.304, 1, 15.3142, 56.9488, -1.04137, 67.3757, -76.2157, 115.83
1.308, 1, 15.3631, 56.9277, -1.07218, 67.4476, -76.1564, 115.663
1.312, 1, 15.4119, 56.9066, -1.10295, 67.5195, -76.0972, 115.497
1.316, 1, 15.4607, 56.8855, -1.1337, 67.5913, -76.038, 115.331
1.32, 1, 15.5094, 56.8645, -1.16442, 67.663, -75.9789, 115.166
1.324, 1, 15.5581, 56.8434, -1.19511, 67.7346, -75.9198, 115
1.328, 1, 15.6068, 56.8224, -1.22577, 67.8062, -75.8608, 114.835
1.332, 1, 15.6553, 56.8014, -1.25641, 67.8777, -75.8019, 114.67
1.336, 1, 15.7039, 56.7805, -1.28701, 67.9492, -75.743, 114.505
1.34, 1, 15.7524, 56.7595, -1.31758, 68.0206, -75.6841, 114.34
1.344, 1, 15.8009, 56.7386, -1.34813, 68.0919, -75.6253, 114.175
1.348, 1, 15.8493, 56.7177, -1.37865, 68.1631, -75.5666, 114.01
1.352, 1, 15.8976, 56.6968, -1.40913, 68.2343, -75.5079, 113.846
1.356, 1, 15.9459, 56.676, -1.43959, 68.3054, -75.4493, 113.682
1.36, 1, 15.9942, 56.6551, -1.47002, 68.3764, -75.3908, 113.517
1.364, 1, 16.0424, 56.6343, -1.50042, 68.4474, -75.3323, 113.353
1.368, 1, 16.0906, 56.6135, -1.53078, 68.5183, -75.2738, 113.19
1.372, 1, 16.1388, 56.5927, -1.56113, 68.5892, -75.2154, 113.026
1.376, 1, 16.1868, 56.5719, -1.59144, 68.6599, -75.1571, 112.862
1.38, 1, 16.2349, 56.5512, -1.62172, 68.7306, -75.0988, 112.699
1.384, 1, 16.2829, 56.5304, -1.65197, 68.8013, -75.0406, 112.536
1.388, 1, 16.3308, 56.5097, -1.6822, 68.8718, -74.9824, 112.373
1.392, 1, 16.3787, 56.489, -1.71239, 68.9423, -74.9243, 112.21
1.396, 1, 16.4266, 56.4684, -1.74256, 69.0128, -74.8663, 112.047
1.4, 1, 16.4744, 56.4477, -1.7727, 69.0831, -74.8083, 111.885
1.404, 1, 16.5222, 56.4271, -1.80281, 69.1534, -74.7503, 111.722
1.408, 1, 16.5699, 56.4065, -1.83289, 69.2237, -74.6924, 111.56
1.412, 1, 16.6176, 56.3859, -1.86294, 69.2938, -74.6346, 111.398
1.416, 1, 16.6652, 56.3653, -1.89297, 69.3639, -74.5768, 111.236
1.42, 1, 16.7128, 56.3448, -1.92296, 69.434, -74.5191, 111.074
1.424, 1, 16.7604, 56.3242, -1.95293, 69.5039, -74.4614, 110.913
1.428, 1, 16.8079, 56.3037, -1.98287, 69.5738, -74.4038, 110.751
1.432, 1, 16.8553, 56.2832, -2.01278, 69.6437, -74.3462, 110.59
1.436, 1, 16.9027, 56.2628, -2.04266, 69.7134, -74.2887, 110.429
1.44, 1, 16.9501, 56.2423, -2.07251, 69.7831, -74.2313, 110.268
1.444, 1, 16.9974, 56.2219, -2.10234, 69.8528, -74.1739, 110.107
1.448, 1, 17.0447, 56.2015, -2.13214, 69.9223, -74.1165, 109.946
1.452, 1, 17.0919, 56.1811, -2.16191, 69.9918, -74.0593, 109.785
1.456, 1, 17.1391, 56.1607, -2.19165, 70.0613, -74.002, 109.625
1.46, 1, 17.1862, 56.1403, -2.22136, 70.1306, -73.9448, 109.465
1.464, 1, 17.2333, 56.12, -2.25104, 70.2, -73.8877, 109.305
1.468, 1, 17.2804, 56.0997, -2.2807, 70.2692, -73.8306, 109.145
1.472, 1, 17.3274, 56.0794, -2.31033, 70.3384, -73.7736, 108.985
1.476, 1, 17.3743, 56.0591, -2.33993, 70.4075, -73.7167, 108.825
1.48, 1, 17.4213, 56.0388, -2.36951, 70.4765, -73.6597, 108.666
1.484, 1, 17.4681, 56.0186, -2.39905, 70.5455, -73.6029, 108.506
1.488, 1, 17.515, 55.9984, -2.42857, 70.6144, -73.5461, 108.347
1.492, 1, 17.5617, 55.9782, -2.45806, 70.6833, -73.4893, 108.188
1.496, 1, 17.6085, 55.958, -2.48752, 70.7521, -73.4326, 108.029
1.5, 1, 17.6552, 55.9378, -2.51696, 70.8208, -73.376, 107.87
1.504, 1, 17.7018, 55.9177, -2.54636, 70.8895, -73.3194, 107.712
1.508, 1, 17.7484, 55.8975, -2.57574, 70.958, -73.2628, 107.553
1.512, 1, 17.795, 55.8774, -2.60509, 71.0266, -73.2064, 107.395
1.516, 1, 17.8415, 55.8573, -2.63442, 71.095, -73.1499, 107.237
1.52, 1, 17.888, 55.8373, -2.66372, 71.1634, -73.0935, 107.079
1.524, 1, 17.9345, 55.8172, -2.69299, 71.2318, -73.0372, 106.921
1.528, 1, 17.9808, 55.7972, -2.72223, 71.3, -72.9809, 106.763
1.532, 1, 18.0272, 55.7772, -2.75144, 71.3683, -72.9247, 106.605
1.536, 1, 18.0735, 55.7572, -2.78063, 71.4364, -72.8685, 106.448
1.54, 1, 18.1198, 55.7372, -2.80979, 71.5045, -72.8124, 106.291
1.544, 1, 18.166, 55.7172, -2.83893, 71.5725, -72.7563, 106.133
1.548, 1, 18.2122, 55.6973, -2.86803, 71.6405, -72.7003, 105.976
1.552, 1, 18.2583, 55.6773, -2.89711, 71.7084, -72.6444, 105.82
1.556, 1, 18.3044, 55.6574, -2.92616, 71.7762, -72.5885, 105.663
1.56, 1, 18.3504, 55.6376, -2.95519, 71.844, -72.5326, 105.506
1.564, 1, 18.3964, 55.6177, -2.98419, 71.9117, -72.4768, 105.35
1.568, 1, 18.4424, 55.5978, -3.01316, 71.9793, -72.421, 105.194
1.572, 1, 18.4883, 55.578, -3.0421, 72.0469, -72.3653, 105.037
1.576, 1, 18.5342, 55.5582, -3.07102, 72.1144, -72.3097, 104.882
1.58, 1, 18.58, 55.5384, -3.09991, 72.1818, -72.2541, 104.726
1.584, 1, 18.6258, 55.5186, -3.12878, 72.2492, -72.1985, 104.57
1.588, 1, 18.6716, 55.4989, -3.15761, 72.3166, -72.143, 104.414
1.592, 1, 18.7173, 55.4791, -3.18642, 72.3838, -72.0876, 104.259
1.596, 1, 18.763, 55.4594, -3.21521, 72.451, -72.0322, 104.104
1.6, 1, 18.8086, 55.4397, -3.24396, 72.5182, -71.9769, 103.949
1.604, 1, 18.8542, 55.42, -3.2727, 72.5853, -71.9216, 103.794
1.608, 1, 18.8997, 55.4004, -3.3014, 72.6523, -71.8663, 103.639
1.612, 1, 18.9452, 55.3807, -3.33008, 72.7192, -71.8111, 103.484
1.616, 1, 18.9907, 55.3611, -3.35873, 72.7861, -71.756, 103.33
1.62, 1, 19.0361, 55.3415, -3.38736, 72.853, -71.7009, 103.175
1.624, 1, 19.0814, 55.3219, -3.41595, 72.9197, -71.6459, 103.021
1.628, 1, 19.1268, 55.3023, -3.44453, 72.9864, -71.5909, 102.867
1.632, 1, 19.1721, 55.2827, -3.47307, 73.0531, -71.5359, 102.713
1.636, 1, 19.2173, 55.2632, -3.50159, 73.1197, -71.4811, 102.559
1.64, 1, 19.2625, 55.2437, -3.53009, 73.1862, -71.4262, 102.405
1.644, 1, 19.3077, 55.2242, -3.55855, 73.2527, -71.3714, 102.252
1.648, 1, 19.3528, 55.2047, -3.587, 73.3191, -71.3167, 102.098
1.652, 1, 19.3979, 55.1852, -3.61541, 73.3854, -71.262, 101.945
1.656, 1, 19.4429, 55.1658, -3.6438, 73.4517, -71.2074, 101.792
1.66, 1, 19.4879, 55.1463, -3.67217, 73.5179, -71.1528, 101.639
1.664, 1, 19.5329, 55.1269, -3.7005, 73.5841, -71.0983, 101.486
1.668, 1, 19.5778, 55.1075, -3.72882, 73.6502, -71.0438, 101.333
1.672, 1, 19.6227, 55.0881, -3.7571, 73.7162, -70.9893, 101.181
1.676, 1, 19.6675, 55.0688, -3.78536, 73.7822, -70.9349, 101.028
1.68, 1, 19.7123, 55.0494, -3.8136, 73.8481, -70.8806, 100.876
1.684, 1, 19.7571, 55.0301, -3.8418, 73.914, -70.8263, 100.724
1.688, 1, 19.8018, 55.0108, -3.86999, 73.9798, -70.7721, 100.572
1.692, 1, 19.8464, 54.9915, -3.89815, 74.0455, -70.7179, 100.42
1.696, 1, 19.8911, 54.9722, -3.92628, 74.1112, -70.6638, 100.268
1.7, 1, 19.9357, 54.953, -3.95438, 74.1768, -70.6097, 100.117
1.704, 1, 19.9802, 54.9337, -3.98247, 74.2424, -70.5556, 99.9651
1.708, 1, 20.0247, 54.9145, -4.01052, 74.3079, -70.5016, 99.8138
1.712, 1, 20.0692, 54.8953, -4.03855, 74.3733, -70.4477, 99.6626
1.716, 1, 20.1136, 54.8761, -4.06656, 74.4387, -70.3938, 99.5115
1.72, 1, 20.158, 54.857, -4.09454, 74.5041, -70.34, 99.3606
1.724, 1, 20.2024, 54.8378, -4.12249, 74.5693, -70.2862, 99.2098
1.728, 1, 20.2467, 54.8187, -4.15042, 74.6345, -70.2324, 99.0591
1.732, 1, 20.291, 54.7995, -4.17832, 74.6997, -70.1787, 98.9086
1.736, 1, 20.3352, 54.7805, -4.2062, 74.7648, -70.1251, 98.7582
1.74, 1, 20.3794, 54.7614, -4.23406, 74.8298, -70.0714, 98.608
1.744, 1, 20.4235, 54.7423, -4.26189, 74.8948, -70.0179, 98.4579
1.748, 1, 20.4676, 54.7233, -4.28969, 74.9597, -69.9644, 98.3079
1.752, 1, 20.5117, 54.7042, -4.31747, 75.0245, -69.9109, 98.1581
1.756, 1, 20.5558, 54.6852, -4.34522, 75.0893, -69.8575, 98.0084
1.76, 1, 20.5997, 54.6662, -4.37295, 75.1541, -69.8042, 97.8588
1.764, 1, 20.6437, 54.6472, -4.40066, 75.2188, -69.7508, 97.7094
1.768, 1, 20.6876, 54.6283, -4.42834, 75.2834, -69.6976, 97.56
1.772, 1, 20.7315, 54.6093, -4.45599, 75.348, -69.6443, 97.4109
1.776, 1, 20.7753, 54.5904, -4.48362, 75.4125, -69.5912, 97.2618
1.78, 1, 20.8191, 54.5715, -4.51123, 75.4769, -69.538, 97.1129
1.784, 1, 20.8629, 54.5526, -4.53881, 75.5413, -69.485, 96.9641
1.788, 1, 20.9066, 54.5337, -4.56637, 75.6057, -69.4319, 96.8155
1.792, 1, 20.9503, 54.5148, -4.5939, 75.6699, -69.3789, 96.667
1.796, 1, 20.9939, 54.496, -4.62141, 75.7342, -69.326, 96.5186
1.8, 1, 21.0375, 54.4771, -4.64889, 75.7983, -69.2731, 96.3703
1.804, 1, 21.0811, 54.4583, -4.67635, 75.8624, -69.2203, 96.2222
1.808, 1, 21.1246, 54.4395, -4.70379, 75.9265, -69.1675, 96.0742
1.812, 1, 21.1681, 54.4208, -4.7312, 75.9905, -69.1147, 95.9264
1.816, 1, 21.2116, 54.402, -4.75859, 76.0544, -69.062, 95.7786
1.82, 1, 21.255, 54.3832, -4.78595, 76.1183, -69.0093, 95.6311
1.824, 1, 21.2984, 54.3645, -4.81329, 76.1822, -68.9567, 95.4836
1.828, 1, 21.3417, 54.3458, -4.8406, 76.2459, -68.9042, 95.3362
1.832, 1, 21.385, 54.3271, -4.8679, 76.3096, -68.8516, 95.189
1.836, 1, 21.4283, 54.3084, -4.89516, 76.3733, -68.7992, 95.0419
1.84, 1, 21.4715, 54.2898, -4.92241, 76.4369, -68.7467, 94.895
1.844, 1, 21.5147, 54.2711, -4.94963, 76.5005, -68.6944, 94.7482
1.848, 1, 21.5578, 54.2525, -4.97682, 76.564, -68.642, 94.6015
1.852, 1, 21.6009, 54.2339, -5.00399, 76.6274, -68.5897, 94.4549
1.856, 1, 21.644, 54.2153, -5.03114, 76.6908, -68.5375, 94.3084
1.86, 1, 21.687, 54.1967, -5.05827, 76.7541, -68.4853, 94.1621
1.864, 1, 21.73, 54.1781, -5.08537, 76.8174, -68.4331, 94.0159
1.868, 1, 21.773, 54.1595, -5.11245, 76.8806, -68.381, 93.8699
1.872, 1, 21.8159, 54.141, -5.1395, 76.9438, -68.3289, 93.7239
1.876, 1, 21.8588, 54.1225, -5.16654, 77.0069, -68.2769, 93.5781
1.88, 1, 21.9017, 54.104, -5.19354, 77.07, -68.2249, 93.4324
1.884, 1, 21.9445, 54.0855, -5.22053, 77.133, -68.173, 93.2869
1.888, 1, 21.9872, 54.067, -5.24749, 77.1959, -68.1211, 93.1415
1.892, 1, 22.03, 54.0486, -5.27443, 77.2588, -68.0693, 92.9961
1.896, 1, 22.0727, 54.0301, -5.30134, 77.3216, -68.0175, 92.851
1.9, 1, 22.1154, 54.0117, -5.32824, 77.3844, -67.9657, 92.7059
1.904, 1, 22.158, 53.9933, -5.3551, 77.4472, -67.914, 92.561
1.908, 1, 22.2006, 53.9749, -5.38195, 77.5098, -67.8624, 92.4162
1.912, 1, 22.2431, 53.9565, -5.40877, 77.5725, -67.8107, 92.2715
1.916, 1, 22.2856, 53.9382, -5.43557, 77.635, -67.7592, 92.1269
1.92, 1, 22.3281, 53.9198, -5.46235, 77.6976, -67.7076, 91.9825
1.924, 1, 22.3706, 53.9015, -5.4891, 77.76, -67.6561, 91.8382
1.928, 1, 22.413, 53.8832, -5.51584, 77.8224, -67.6047, 91.694
1.932, 1, 22.4554, 53.8649, -5.54254, 77.8848, -67.5533, 91.5499
1.936, 1, 22.4977, 53.8466, -5.56923, 77.9471, -67.5019, 91.406
1.94, 1, 22.54, 53.8283, -5.59589, 78.0093, -67.4506, 91.2621
1.944, 1, 22.5823, 53.8101, -5.62253, 78.0715, -67.3994, 91.1184
1.948, 1, 22.6245, 53.7918, -5.64915, 78.1337, -67.3481, 90.9749
1.952, 1, 22.6667, 53.7736, -5.67575, 78.1958, -67.2969, 90.8314
1.956, 1, 22.7089, 53.7554, -5.70232, 78.2578, -67.2458, 90.6881
1.96, 1, 22.751, 53.7372, -5.72887, 78.3198, -67.1947, 90.5448
1.964, 1, 22.7931, 53.719, -5.7554, 78.3818, -67.1437, 90.4017
1.968, 1, 22.8351, 53.7009, -5.7819, 78.4436, -67.0927, 90.2588
1.972, 1, 22.8771, 53.6827, -5.80839, 78.5055, -67.0417, 90.1159
1.976, 1, 22.9191, 53.6646, -5.83485, 78.5673, -66.9908, 89.9732
1.98, 1, 22.9611, 53.6465, -5.86129, 78.629, -66.9399, 89.8306
1.984, 1, 23.003, 53.6284, -5.8877, 78.6907, -66.889, 89.6881
1.988, 1, 23.0448, 53.6103, -5.9141, 78.7523, -66.8382, 89.5457
1.992, 1, 23.0867, 53.5922, -5.94047, 78.8139, -66.7875, 89.4035
1.996, 1, 23.1285, 53.5742, -5.96682, 78.8754, -66.7368, 89.2613
1.999, 1, 23.1703, 53.5561, -5.99315, 78.9369, -66.6861, 89.1193
2.004, 1, 23.212, 53.5381, -6.01945, 78.9983, -66.6355, 88.9774
2.008, 1, 23.2537, 53.5201, -6.04574, 79.0596, -66.5849, 88.8356
2.012, 1, 23.2954, 53.5021, -6.072, 79.121, -66.5344, 88.694
2.015, 1, 23.337, 53.4841, -6.09824, 79.1822, -66.4839, 88.5524
2.019, 1, 23.3786, 53.4662, -6.12446, 79.2434, -66.4334, 88.411
2.024, 1, 23.4202, 53.4482, -6.15066, 79.3046, -66.383, 88.2697
2.028, 1, 23.4617, 53.4303, -6.17683, 79.3657, -66.3326, 88.1285
2.031, 1, 23.5032, 53.4124, -6.20299, 79.4268, -66.2823, 87.9874
2.036, 1, 23.5446, 53.3945, -6.22912, 79.4878, -66.232, 87.8465
2.04, 1, 23.5861, 53.3766, -6.25523, 79.5487, -66.1817, 87.7056
2.044, 1, 23.6275, 53.3587, -6.28132, 79.6096, -66.1315, 87.5649
2.048, 1, 23.6688, 53.3409, -6.30738, 79.6705, -66.0814, 87.4243
2.051, 1, 23.7101, 53.323, -6.33343, 79.7313, -66.0312, 87.2838
2.055, 1, 23.7514, 53.3052, -6.35945, 79.7921, -65.9812, 87.1434
2.06, 1, 23.7927, 53.2874, -6.38545, 79.8528, -65.9311, 87.0032
2.064, 1, 23.8339, 53.2696, -6.41144, 79.9135, -65.8811, 86.863
2.068, 1, 23.8751, 53.2518, -6.4374, 79.9741, -65.8312, 86.723
2.071, 1, 23.9162, 53.234, -6.46333, 80.0346, -65.7812, 86.5831
2.076, 1, 23.9574, 53.2162, -6.48925, 80.0951, -65.7314, 86.4433
2.08, 1, 23.9985, 53.1985, -6.51515, 80.1556, -65.6815, 86.3036
2.084, 1, 24.0395, 53.1808, -6.54102, 80.216, -65.6317, 86.164
2.087, 1, 24.0805, 53.1631, -6.56688, 80.2764, -65.582, 86.0245
2.092, 1, 24.1215, 53.1454, -6.59271, 80.3367, -65.5323, 85.8852
2.096, 1, 24.1625, 53.1277, -6.61852, 80.3969, -65.4826, 85.746
2.1, 1, 24.2034, 53.11, -6.64431, 80.4572, -65.433, 85.6068
2.104, 1, 24.2443, 53.0923, -6.67008, 80.5173, -65.3834, 85.4678
2.107, 1, 24.2851, 53.0747, -6.69583, 80.5775, -65.3338, 85.3289
2.111, 1, 24.3259, 53.0571, -6.72156, 80.6375, -65.2843, 85.1901
2.116, 1, 24.3667, 53.0395, -6.74727, 80.6975, -65.2348, 85.0515
2.12, 1, 24.4075, 53.0219, -6.77296, 80.7575, -65.1854, 84.9129
2.124, 1, 24.4482, 53.0043, -6.79862, 80.8175, -65.136, 84.7745
2.127, 1, 24.4889, 52.9867, -6.82427, 80.8773, -65.0866, 84.6361
2.132, 1, 24.5296, 52.9691, -6.8499, 80.9372, -65.0373, 84.4979
2.136, 1, 24.5702, 52.9516, -6.8755, 80.9969, -64.988, 84.3598
2.14, 1, 24.6108, 52.9341, -6.90109, 81.0567, -64.9388, 84.2218
2.143, 1, 24.6513, 52.9166, -6.92665, 81.1164, -64.8896, 84.0839
2.148, 1, 24.6919, 52.8991, -6.9522, 81.176, -64.8404, 83.9461
2.152, 1, 24.7324, 52.8816, -6.97772, 81.2356, -64.7913, 83.8084
2.156, 1, 24.7728, 52.8641, -7.00322, 81.2951, -64.7422, 83.6708
2.16, 1, 24.8133, 52.8466, -7.02871, 81.3546, -64.6932, 83.5334
2.163, 1, 24.8537, 52.8292, -7.05417, 81.4141, -64.6442, 83.396
2.168, 1, 24.894, 52.8118, -7.07961, 81.4735, -64.5952, 83.2588
2.172, 1, 24.9344, 52.7943, -7.10504, 81.5329, -64.5463, 83.1217
2.176, 1, 24.9747, 52.7769, -7.13044, 81.5922, -64.4974, 82.9846
2.179, 1, 25.0149, 52.7595, -7.15582, 81.6514, -64.4486, 82.8477
2.184, 1, 25.0552, 52.7422, -7.18118, 81.7106, -64.3997, 82.7109
2.188, 1, 25.0954, 52.7248, -7.20653, 81.7698, -64.351, 82.5742
2.192, 1, 25.1356, 52.7075, -7.23185, 81.8289, -64.3022, 82.4376
2.196, 1, 25.1757, 52.6901, -7.25715, 81.888, -64.2535, 82.3011
2.199, 1, 25.2158, 52.6728, -7.28244, 81.947, -64.2049, 82.1647
2.204, 1, 25.2559, 52.6555, -7.3077, 82.006, -64.1563, 82.0285
2.208, 1, 25.2959, 52.6382, -7.33295, 82.065, -64.1077, 81.8923
2.212, 1, 25.336, 52.6209, -7.35817, 82.1239, -64.0591, 81.7562
2.216, 1, 25.376, 52.6036, -7.38338, 82.1827, -64.0106, 81.6203
2.219, 1, 25.4159, 52.5864, -7.40856, 82.2415, -63.9622, 81.4844
2.224, 1, 25.4558, 52.5691, -7.43373, 82.3003, -63.9137, 81.3486
2.228, 1, 25.4957, 52.5519, -7.45887, 82.359, -63.8653, 81.213
2.232, 1, 25.5356, 52.5347, -7.484, 82.4176, -63.817, 81.0775
2.235, 1, 25.5754, 52.5175, -7.50911, 82.4763, -63.7687, 80.942
2.24, 1, 25.6152, 52.5003, -7.5342, 82.5348, -63.7204, 80.8067
2.244, 1, 25.655, 52.4831, -7.55926, 82.5934, -63.6721, 80.6715
2.248, 1, 25.6948, 52.466, -7.58431, 82.6519, -63.6239, 80.5364
2.252, 1, 25.7345, 52.4488, -7.60934, 82.7103, -63.5758, 80.4014
2.255, 1, 25.7742, 52.4317, -7.63436, 82.7687, -63.5276, 80.2664
2.259, 1, 25.8138, 52.4146, -7.65935, 82.827, -63.4795, 80.1316
2.264, 1, 25.8534, 52.3974, -7.68432, 82.8854, -63.4315, 79.9969
2.268, 1, 25.893, 52.3803, -7.70927, 82.9436, -63.3834, 79.8623
2.272, 1, 25.9326, 52.3633, -7.73421, 83.0018, -63.3355, 79.7278
2.275, 1, 25.9721, 52.3462, -7.75913, 83.06, -63.2875, 79.5934
2.28, 1, 26.0116, 52.3291, -7.78402, 83.1181, -63.2396, 79.4591
2.284, 1, 26.0511, 52.3121, -7.8089, 83.1762, -63.1917, 79.3249
2.288, 1, 26.0905, 52.2951, -7.83376, 83.2343, -63.1439, 79.1908
2.291, 1, 26.1299, 52.278, -7.8586, 83.2923, -63.0961, 79.0568
2.296, 1, 26.1693, 52.261, -7.88342, 83.3502, -63.0483, 78.9229
2.3, 1, 26.2087, 52.244, -7.90823, 83.4081, -63.0006, 78.7891
2.304, 1, 26.248, 52.2271, -7.93301, 83.466, -62.9529, 78.6555
2.308, 1, 26.2873, 52.2101, -7.95777, 83.5238, -62.9052, 78.5219
2.311, 1, 26.3265, 52.1931, -7.98252, 83.5816, -62.8576, 78.3884
2.316, 1, 26.3658, 52.1762, -8.00725, 83.6393, -62.81, 78.255
2.32, 1, 26.405, 52.1593, -8.03196, 83.697, -62.7624, 78.1217
2.324, 1, 26.4442, 52.1423, -8.05665, 83.7547, -62.7149, 77.9885
2.328, 1, 26.4833, 52.1254, -8.08132, 83.8123, -62.6674, 77.8554
2.331, 1, 26.5224, 52.1085, -8.10598, 83.8698, -62.62, 77.7224
2.336, 1, 26.5615, 52.0917, -8.13061, 83.9273, -62.5726, 77.5896
2.34, 1, 26.6006, 52.0748, -8.15523, 83.9848, -62.5252, 77.4568
2.344, 1, 26.6396, 52.0579, -8.17983, 84.0423, -62.4779, 77.3241
2.347, 1, 26.6786, 52.0411, -8.20441, 84.0996, -62.4305, 77.1915
2.352, 1, 26.7176, 52.0243, -8.22898, 84.157, -62.3833, 77.059
2.356, 1, 26.7565, 52.0075, -8.25352, 84.2143, -62.336, 76.9266
2.36, 1, 26.7954, 51.9907, -8.27805, 84.2716, -62.2888, 76.7943
2.364, 1, 26.8343, 51.9739, -8.30255, 84.3288, -62.2417, 76.6621
2.367, 1, 26.8731, 51.9571, -8.32704, 84.386, -62.1945, 76.53
2.372, 1, 26.912, 51.9403, -8.35152, 84.4431, -62.1474, 76.398
2.376, 1, 26.9508, 51.9236, -8.37597, 84.5002, -62.1004, 76.2661
2.38, 1, 26.9895, 51.9068, -8.40041, 84.5573, -62.0534, 76.1343
2.383, 1, 27.0283, 51.8901, -8.42482, 84.6143, -62.0064, 76.0025
2.388, 1, 27.067, 51.8734, -8.44923, 84.6712, -61.9594, 75.8709
2.392, 1, 27.1057, 51.8567, -8.47361, 84.7282, -61.9125, 75.7394
2.396, 1, 27.1443, 51.84, -8.49797, 84.785, -61.8656, 75.608
2.4, 1, 27.183, 51.8233, -8.52232, 84.8419, -61.8187, 75.4766
2.403, 1, 27.2216, 51.8066, -8.54665, 84.8987, -61.7719, 75.3454
2.408, 1, 27.2601, 51.79, -8.57096, 84.9554, -61.7251, 75.2143
2.412, 1, 27.2987, 51.7733, -8.59525, 85.0122, -61.6784, 75.0832
2.416, 1, 27.3372, 51.7567, -8.61953, 85.0688, -61.6317, 74.9523
2.42, 1, 27.3757, 51.7401, -8.64379, 85.1255, -61.585, 74.8214
2.423, 1, 27.4141, 51.7235, -8.66803, 85.1821, -61.5383, 74.6907
2.428, 1, 27.4526, 51.7069, -8.69225, 85.2386, -61.4917, 74.56
2.432, 1, 27.491, 51.6903, -8.71646, 85.2952, -61.4451, 74.4294
2.436, 1, 27.5294, 51.6737, -8.74065, 85.3516, -61.3986, 74.299
2.439, 1, 27.5677, 51.6571, -8.76482, 85.4081, -61.3521, 74.1686
2.444, 1, 27.606, 51.6406, -8.78897, 85.4645, -61.3056, 74.0383
2.448, 1, 27.6443, 51.6241, -8.81311, 85.5208, -61.2591, 73.9081
2.452, 1, 27.6826, 51.6075, -8.83723, 85.5771, -61.2127, 73.778
2.456, 1, 27.7208, 51.591, -8.86133, 85.6334, -61.1663, 73.648
2.459, 1, 27.759, 51.5745, -8.88541, 85.6896, -61.12, 73.5181
2.464, 1, 27.7972, 51.558, -8.90948, 85.7458, -61.0736, 73.3882
2.468, 1, 27.8354, 51.5415, -8.93353, 85.802, -61.0274, 73.2585
2.472, 1, 27.8735, 51.5251, -8.95756, 85.8581, -60.9811, 73.1289
2.476, 1, 27.9116, 51.5086, -8.98158, 85.9142, -60.9349, 72.9993
2.479, 1, 27.9497, 51.4922, -9.00558, 85.9702, -60.8887, 72.8699
2.484, 1, 27.9877, 51.4757, -9.02956, 86.0262, -60.8425, 72.7405
2.488, 1, 28.0258, 51.4593, -9.05353, 86.0821, -60.7964, 72.6112
2.492, 1, 28.0638, 51.4429, -9.07748, 86.1381, -60.7503, 72.482
2.495, 1, 28.1017, 51.4265, -9.10141, 86.1939, -60.7043, 72.353
2.5, 1, 28.1397, 51.4101, -9.12532, 86.2498, -60.6583, 72.224
2.504, 1, 28.1776, 51.3938, -9.14922, 86.3056, -60.6123, 72.0951
2.508, 1, 28.2155, 51.3774, -9.1731, 86.3613, -60.5663, 71.9662
2.512, 1, 28.2533, 51.361, -9.19697, 86.417, -60.5204, 71.8375
2.515, 1, 28.2912, 51.3447, -9.22081, 86.4727, -60.4745, 71.7089
2.52, 1, 28.329, 51.3284, -9.24465, 86.5284, -60.4286, 71.5803
2.524, 1, 28.3668, 51.3121, -9.26846, 86.584, -60.3828, 71.4519
2.528, 1, 28.4045, 51.2958, -9.29226, 86.6395, -60.337, 71.3235
2.531, 1, 28.4423, 51.2795, -9.31604, 86.6951, -60.2912, 71.1952
2.536, 1, 28.48, 51.2632, -9.33981, 86.7505, -60.2455, 71.067
2.54, 1, 28.5176, 51.2469, -9.36356, 86.806, -60.1998, 70.9389
2.544, 1, 28.5553, 51.2306, -9.38729, 86.8614, -60.1541, 70.8109
2.548, 1, 28.5929, 51.2144, -9.41101, 86.9168, -60.1085, 70.683
2.551, 1, 28.6305, 51.1982, -9.43471, 86.9721, -60.0628, 70.5551
2.556, 1, 28.6681, 51.1819, -9.45839, 87.0274, -60.0173, 70.4274
2.56, 1, 28.7057, 51.1657, -9.48206, 87.0827, -59.9717, 70.2997
2.564, 1, 28.7432, 51.1495, -9.50571, 87.1379, -59.9262, 70.1721
2.568, 1, 28.7807, 51.1333, -9.52934, 87.1931, -59.8807, 70.0446
2.571, 1, 28.8182, 51.1171, -9.55296, 87.2482, -59.8353, 69.9172
2.576, 1, 28.8556, 51.101, -9.57657, 87.3033, -59.7898, 69.7899
2.58, 1, 28.893, 51.0848, -9.60015, 87.3584, -59.7444, 69.6627
2.584, 1, 28.9304, 51.0687, -9.62372, 87.4134, -59.6991, 69.5355
2.587, 1, 28.9678, 51.0525, -9.64728, 87.4684, -59.6538, 69.4085
2.592, 1, 29.0051, 51.0364, -9.67082, 87.5234, -59.6085, 69.2815
2.596, 1, 29.0425, 51.0203, -9.69434, 87.5783, -59.5632, 69.1546
2.6, 1, 29.0798, 51.0042, -9.71785, 87.6332, -59.5179, 69.0278
2.604, 1, 29.117, 50.9881, -9.74134, 87.688, -59.4727, 68.9011
2.607, 1, 29.1543, 50.972, -9.76482, 87.7428, -59.4276, 68.7744
2.612, 1, 29.1915, 50.9559, -9.78828, 87.7976, -59.3824, 68.6479
2.616, 1, 29.2287, 50.9398, -9.81172, 87.8524, -59.3373, 68.5214
2.62, 1, 29.2659, 50.9238, -9.83515, 87.9071, -59.2922, 68.3951
2.624, 1, 29.303, 50.9078, -9.85856, 87.9617, -59.2471, 68.2688
2.627, 1, 29.3401, 50.8917, -9.88196, 88.0163, -59.2021, 68.1426
2.632, 1, 29.3772, 50.8757, -9.90534, 88.0709, -59.1571, 68.0164
2.636, 1, 29.4143, 50.8597, -9.92871, 88.1255, -59.1121, 67.8904
2.64, 1, 29.4513, 50.8437, -9.95206, 88.18, -59.0672, 67.7644
2.643, 1, 29.4884, 50.8277, -9.97539, 88.2345, -59.0223, 67.6386
2.648, 1, 29.5254, 50.8117, -9.99871, 88.2889, -58.9774, 67.5128
2.652, 1, 29.5623, 50.7958, -10.022, 88.3434, -58.9326, 67.3871
2.656, 1, 29.5993, 50.7798, -10.0453, 88.3977, -58.8877, 67.2614
2.66, 1, 29.6362, 50.7639, -10.0686, 88.4521, -58.843, 67.1359
2.663, 1, 29.6731, 50.7479, -10.0918, 88.5064, -58.7982, 67.0104
2.668, 1, 29.71, 50.732, -10.1151, 88.5606, -58.7535, 66.8851
2.672, 1, 29.7468, 50.7161, -10.1383, 88.6149, -58.7088, 66.7598
2.676, 1, 29.7837, 50.7002, -10.1615, 88.6691, -58.6641, 66.6346
2.679, 1, 29.8205, 50.6843, -10.1847, 88.7232, -58.6194, 66.5094
2.684, 1, 29.8573, 50.6684, -10.2079, 88.7774, -58.5748, 66.3844
2.688, 1, 29.894, 50.6525, -10.2311, 88.8314, -58.5302, 66.2594
2.692, 1, 29.9307, 50.6367, -10.2542, 88.8855, -58.4857, 66.1345
2.696, 1, 29.9675, 50.6208, -10.2774, 88.9395, -58.4412, 66.0097
2.699, 1, 30.0041, 50.605, -10.3005, 88.9935, -58.3967, 65.885
2.704, 1, 30.0408, 50.5891, -10.3236, 89.0475, -58.3522, 65.7604
2.708, 1, 30.0774, 50.5733, -10.3467, 89.1014, -58.3078, 65.6358
2.712, 1, 30.114, 50.5575, -10.3698, 89.1553, -58.2633, 65.5113
2.716, 1, 30.1506, 50.5417, -10.3928, 89.2091, -58.219, 65.3869
2.719, 1, 30.1872, 50.5259, -10.4159, 89.2629, -58.1746, 65.2626
2.724, 1, 30.2237, 50.5101, -10.4389, 89.3167, -58.1303, 65.1383
2.728, 1, 30.2603, 50.4944, -10.4619, 89.3704, -58.086, 65.0142
2.732, 1, 30.2968, 50.4786, -10.4849, 89.4241, -58.0417, 64.8901
2.735, 1, 30.3332, 50.4629, -10.5079, 89.4778, -57.9975, 64.7661
2.74, 1, 30.3697, 50.4471, -10.5309, 89.5314, -57.9533, 64.6422
2.744, 1, 30.4061, 50.4314, -10.5538, 89.5851, -57.9091, 64.5183
2.748, 1, 30.4425, 50.4157, -10.5768, 89.6386, -57.8649, 64.3946
2.752, 1, 30.4789, 50.4, -10.5997, 89.6922, -57.8208, 64.2709
2.755, 1, 30.5152, 50.3843, -10.6226, 89.7457, -57.7767, 64.1473
2.76, 1, 30.5516, 50.3686, -10.6455, 89.7991, -57.7326, 64.0237
2.764, 1, 30.5879, 50.3529, -10.6684, 89.8526, -57.6886, 63.9003
2.768, 1, 30.6242, 50.3372, -10.6913, 89.906, -57.6446, 63.7769
2.772, 1, 30.6604, 50.3215, -10.7141, 89.9593, -57.6006, 63.6536
2.775, 1, 30.6967, 50.3059, -10.737, 90.0127, -57.5566, 63.5304
2.78, 1, 30.7329, 50.2903, -10.7598, 90.066, -57.5127, 63.4072
2.784, 1, 30.7691, 50.2746, -10.7826, 90.1192, -57.4688, 63.2842
2.788, 1, 30.8053, 50.259, -10.8054, 90.1725, -57.4249, 63.1612
2.791, 1, 30.8414, 50.2434, -10.8282, 90.2257, -57.381, 63.0383
2.796, 1, 30.8775, 50.2278, -10.851, 90.2788, -57.3372, 62.9155
2.8, 1, 30.9137, 50.2122, -10.8737, 90.332, -57.2934, 62.7927
2.804, 1, 30.9497, 50.1966, -10.8965, 90.3851, -57.2496, 62.67
2.808, 1, 30.9858, 50.181, -10.9192, 90.4381, -57.2059, 62.5474
2.811, 1, 31.0218, 50.1655, -10.9419, 90.4912, -57.1622, 62.4249
2.816, 1, 31.0578, 50.1499, -10.9646, 90.5442, -57.1185, 62.3024
2.82, 1, 31.0938, 50.1344, -10.9873, 90.5971, -57.0748, 62.1801
2.824, 1, 31.1298, 50.1189, -11.01, 90.6501, -57.0312, 62.0578
2.828, 1, 31.1658, 50.1033, -11.0327, 90.703, -56.9876, 61.9356
2.831, 1, 31.2017, 50.0878, -11.0553, 90.7558, -56.944, 61.8134
2.836, 1, 31.2376, 50.0723, -11.0779, 90.8087, -56.9005, 61.6913
2.84, 1, 31.2735, 50.0568, -11.1005, 90.8615, -56.8569, 61.5693
2.844, 1, 31.3093, 50.0413, -11.1231, 90.9143, -56.8134, 61.4474
2.847, 1, 31.3452, 50.0258, -11.1457, 90.967, -56.77, 61.3256
2.852, 1, 31.381, 50.0104, -11.1683, 91.0197, -56.7265, 61.2038
2.856, 1, 31.4168, 49.9949, -11.1909, 91.0724, -56.6831, 61.0821
2.86, 1, 31.4526, 49.9795, -11.2134, 91.125, -56.6397, 60.9605
2.864, 1, 31.4883, 49.964, -11.236, 91.1776, -56.5963, 60.8389
2.867, 1, 31.524, 49.9486, -11.2585, 91.2302, -56.553, 60.7174
2.872, 1, 31.5597, 49.9332, -11.281, 91.2828, -56.5097, 60.596
2.876, 1, 31.5954, 49.9178, -11.3035, 91.3353, -56.4664, 60.4747
2.88, 1, 31.6311, 49.9024, -11.3259, 91.3878, -56.4231, 60.3535
2.883, 1, 31.6667, 49.887, -11.3484, 91.4402, -56.3799, 60.2323
2.888, 1, 31.7024, 49.8716, -11.3709, 91.4926, -56.3367, 60.1112
2.892, 1, 31.738, 49.8562, -11.3933, 91.545, -56.2935, 59.9901
2.896, 1, 31.7735, 49.8409, -11.4157, 91.5974, -56.2504, 59.8692
2.9, 1, 31.8091, 49.8255, -11.4381, 91.6497, -56.2072, 59.7483
2.903, 1, 31.8446, 49.8102, -11.4605, 91.702, -56.1641, 59.6275
2.908, 1, 31.8802, 49.7948, -11.4829, 91.7543, -56.121, 59.5067
2.912, 1, 31.9156, 49.7795, -11.5053, 91.8065, -56.078, 59.386
2.916, 1, 31.9511, 49.7642, -11.5277, 91.8587, -56.035, 59.2654
2.92, 1, 31.9866, 49.7489, -11.55, 91.9109, -55.992, 59.1449
2.923, 1, 32.022, 49.7336, -11.5723, 91.963, -55.949, 59.0244
2.928, 1, 32.0574, 49.7183, -11.5947, 92.0151, -55.906, 58.904
2.932, 1, 32.0928, 49.703, -11.617, 92.0672, -55.8631, 58.7837
2.936, 1, 32.1282, 49.6877, -11.6392, 92.1192, -55.8202, 58.6635
2.939, 1, 32.1635, 49.6724, -11.6615, 92.1713, -55.7773, 58.5433
2.944, 1, 32.1988, 49.6572, -11.6838, 92.2232, -55.7345, 58.4232
2.948, 1, 32.2341, 49.6419, -11.706, 92.2752, -55.6916, 58.3032
2.952, 1, 32.2694, 49.6267, -11.7283, 92.3271, -55.6488, 58.1832
2.956, 1, 32.3047, 49.6115, -11.7505, 92.379, -55.6061, 58.0633
2.959, 1, 32.3399, 49.5963, -11.7727, 92.4309, -55.5633, 57.9435
2.964, 1, 32.3752, 49.581, -11.7949, 92.4827, -55.5206, 57.8237
2.968, 1, 32.4104, 49.5658, -11.8171, 92.5345, -55.4779, 57.704
2.972, 1, 32.4455, 49.5506, -11.8393, 92.5863, -55.4352, 57.5844
2.976, 1, 32.4807, 49.5355, -11.8615, 92.638, -55.3926, 57.4649
2.98, 1, 32.5159, 49.5203, -11.8836, 92.6898, -55.3499, 57.3454
2.984, 1, 32.551, 49.5051, -11.9057, 92.7414, -55.3073, 57.226
2.988, 1, 32.5861, 49.49, -11.9279, 92.7931, -55.2648, 57.1066
2.992, 1, 32.6212, 49.4748, -11.95, 92.8447, -55.2222, 56.9874
2.995, 1, 32.6562, 49.4597, -11.9721, 92.8963, -55.1797, 56.8682
3, 1, 32.6913, 49.4445, -11.9942, 92.9479, -55.1372, 56.749
3.004, 1, 32.7263, 49.4294, -12.0162, 92.9994, -55.0947, 56.63
3.008, 1, 32.7613, 49.4143, -12.0383, 93.0509, -55.0522, 56.511
3.012, 1, 32.7963, 49.3992, -12.0603, 93.1024, -55.0098, 56.392
3.015, 1, 32.8312, 49.3841, -12.0824, 93.1539, -54.9674, 56.2732
3.02, 1, 32.8662, 49.369, -12.1044, 93.2053, -54.925, 56.1544
3.024, 1, 32.9011, 49.3539, -12.1264, 93.2567, -54.8826, 56.0356
3.028, 1, 32.936, 49.3389, -12.1484, 93.308, -54.8403, 55.917
3.031, 1, 32.9709, 49.3238, -12.1704, 93.3594, -54.798, 55.7984
3.036, 1, 33.0057, 49.3087, -12.1924, 93.4107, -54.7557, 55.6799
3.04, 1, 33.0406, 49.2937, -12.2143, 93.4619, -54.7135, 55.5614
3.044, 1, 33.0754, 49.2786, -12.2363, 93.5132, -54.6712, 55.443
3.048, 1, 33.1102, 49.2636, -12.2582, 93.5644, -54.629, 55.3247
3.051, 1, 33.145, 49.2486, -12.2801, 93.6156, -54.5868, 55.2064
3.056, 1, 33.1797, 49.2336, -12.302, 93.6667, -54.5446, 55.0882
3.06, 1, 33.2145, 49.2186, -12.3239, 93.7179, -54.5025, 54.9701
3.064, 1, 33.2492, 49.2036, -12.3458, 93.769, -54.4604, 54.852
3.068, 1, 33.2839, 49.1886, -12.3677, 93.82, -54.4183, 54.7341
3.071, 1, 33.3186, 49.1736, -12.3896, 93.8711, -54.3762, 54.6161
3.076, 1, 33.3533, 49.1586, -12.4114, 93.9221, -54.3341, 54.4983
3.08, 1, 33.3879, 49.1437, -12.4333, 93.9731, -54.2921, 54.3805
3.084, 1, 33.4225, 49.1287, -12.4551, 94.0241, -54.2501, 54.2627
3.087, 1, 33.4571, 49.1138, -12.4769, 94.075, -54.2081, 54.1451
3.092, 1, 33.4917, 49.0988, -12.4987, 94.1259, -54.1662, 54.0275
3.096, 1, 33.5263, 49.0839, -12.5205, 94.1768, -54.1242, 53.9099
3.1, 1, 33.5609, 49.069, -12.5423, 94.2276, -54.0823, 53.7924
3.104, 1, 33.5954, 49.0541, -12.564, 94.2784, -54.0404, 53.675
3.107, 1, 33.6299, 49.0392, -12.5858, 94.3292, -53.9986, 53.5577
3.112, 1, 33.6644, 49.0243, -12.6075, 94.38, -53.9567, 53.4404
3.116, 1, 33.6989, 49.0094, -12.6293, 94.4307, -53.9149, 53.3232
3.12, 1, 33.7333, 48.9945, -12.651, 94.4814, -53.8731, 53.206
3.124, 1, 33.7678, 48.9796, -12.6727, 94.5321, -53.8313, 53.089
3.128, 1, 33.8022, 48.9648, -12.6944, 94.5828, -53.7896, 52.9719
3.132, 1, 33.8366, 48.9499, -12.7161, 94.6334, -53.7479, 52.855
3.136, 1, 33.871, 48.9351, -12.7377, 94.684, -53.7062, 52.7381
3.14, 1, 33.9053, 48.9202, -12.7594, 94.7346, -53.6645, 52.6212
3.143, 1, 33.9397, 48.9054, -12.781, 94.7851, -53.6228, 52.5045
3.148, 1, 33.974, 48.8906, -12.8027, 94.8356, -53.5812, 52.3878
3.152, 1, 34.0083, 48.8758, -12.8243, 94.8861, -53.5396, 52.2711
3.156, 1, 34.0426, 48.861, -12.8459, 94.9366, -53.498, 52.1545
3.16, 1, 34.0769, 48.8462, -12.8675, 94.987, -53.4564, 52.038
3.163, 1, 34.1111, 48.8314, -12.8891, 95.0374, -53.4148, 51.9216
3.168, 1, 34.1454, 48.8166, -12.9107, 95.0878, -53.3733, 51.8052
3.172, 1, 34.1796, 48.8018, -12.9322, 95.1381, -53.3318, 51.6888
3.176, 1, 34.2138, 48.787, -12.9538, 95.1885, -53.2903, 51.5726
3.179, 1, 34.2479, 48.7723, -12.9753, 95.2387, -53.2489, 51.4564
3.184, 1, 34.2821, 48.7575, -12.9969, 95.289, -53.2074, 51.3402
3.188, 1, 34.3162, 48.7428, -13.0184, 95.3393, -53.166, 51.2241
3.192, 1, 34.3504, 48.728, -13.0399, 95.3895, -53.1246, 51.1081
3.196, 1, 34.3845, 48.7133, -13.0614, 95.4397, -53.0833, 50.9922
3.199, 1, 34.4186, 48.6986, -13.0829, 95.4898, -53.0419, 50.8763
3.204, 1, 34.4526, 48.6839, -13.1044, 95.54, -53.0006, 50.7604
3.208, 1, 34.4867, 48.6692, -13.1258, 95.5901, -52.9593, 50.6446
3.212, 1, 34.5207, 48.6545, -13.1473, 95.6402, -52.918, 50.5289
3.216, 1, 34.5547, 48.6398, -13.1687, 95.6902, -52.8767, 50.4133
3.22, 1, 34.5887, 48.6251, -13.1901, 95.7403, -52.8355, 50.2977
3.224, 1, 34.6227, 48.6104, -13.2116, 95.7903, -52.7943, 50.1821
3.228, 1, 34.6567, 48.5958, -13.233, 95.8403, -52.7531, 50.0667
3.232, 1, 34.6906, 48.5811, -13.2544, 95.8902, -52.7119, 49.9513
3.235, 1, 34.7246, 48.5664, -13.2758, 95.9401, -52.6707, 49.8359
3.24, 1, 34.7585, 48.5518, -13.2971, 95.99, -52.6296, 49.7206
3.244, 1, 34.7924, 48.5372, -13.3185, 96.0399, -52.5885, 49.6054
3.248, 1, 34.8262, 48.5225, -13.3398, 96.0898, -52.5474, 49.4902
3.252, 1, 34.8601, 48.5079, -13.3612, 96.1396, -52.5063, 49.3751
3.255, 1, 34.8939, 48.4933, -13.3825, 96.1894, -52.4653, 49.26
3.26, 1, 34.9278, 48.4787, -13.4038, 96.2392, -52.4243, 49.1451
3.264, 1, 34.9616, 48.4641, -13.4251, 96.2889, -52.3832, 49.0301
3.268, 1, 34.9953, 48.4495, -13.4464, 96.3386, -52.3423, 48.9152
3.272, 1, 35.0291, 48.4349, -13.4677, 96.3883, -52.3013, 48.8004
3.276, 1, 35.0629, 48.4203, -13.489, 96.438, -52.2604, 48.6857
3.28, 1, 35.0966, 48.4058, -13.5103, 96.4877, -52.2194, 48.571
3.284, 1, 35.1303, 48.3912, -13.5315, 96.5373, -52.1785, 48.4563
3.288, 1, 35.164, 48.3767, -13.5527, 96.5869, -52.1376, 48.3417
3.291, 1, 35.1976, 48.3622, -13.574, 96.6364, -52.0968, 48.2272
3.296, 1, 35.2309, 48.3477, -13.5952, 96.686, -52.056, 48.1128
3.3, 1, 35.264, 48.3334, -13.6165, 96.7355, -52.0152, 47.9984
3.304, 1, 35.2966, 48.3192, -13.6377, 96.7849, -51.9744, 47.8842
3.308, 1, 35.3289, 48.3053, -13.659, 96.8343, -51.9338, 47.7701
3.312, 1, 35.3606, 48.2915, -13.6802, 96.8835, -51.8932, 47.6564
3.316, 1, 35.3919, 48.278, -13.7014, 96.9325, -51.8528, 47.5431
3.32, 1, 35.4226, 48.2649, -13.7226, 96.9812, -51.8127, 47.4305
3.324, 1, 35.4526, 48.2521, -13.7437, 97.0296, -51.7729, 47.3187
3.328, 1, 35.4817, 48.2398, -13.7646, 97.0774, -51.7335, 47.208
3.332, 1, 35.5098, 48.2281, -13.7854, 97.1246, -51.6947, 47.099
3.336, 1, 35.5369, 48.2169, -13.8059, 97.1709, -51.6566, 46.9919
3.34, 1, 35.5628, 48.2063, -13.826, 97.2161, -51.6194, 46.8874
3.344, 1, 35.5877, 48.1962, -13.8455, 97.2599, -51.5834, 46.786
3.347, 1, 35.6116, 48.1866, -13.8644, 97.3021, -51.5487, 46.6884
3.352, 1, 35.6345, 48.1773, -13.8824, 97.3424, -51.5156, 46.5952
3.356, 1, 35.6564, 48.1684, -13.8994, 97.3805, -51.4843, 46.507
3.36, 1, 35.6772, 48.1599, -13.9152, 97.4163, -51.4549, 46.4243
3.364, 1, 35.6969, 48.1518, -13.9299, 97.4494, -51.4276, 46.3475
3.368, 1, 35.7154, 48.1441, -13.9433, 97.4799, -51.4025, 46.2771
3.372, 1, 35.7329, 48.1367, -13.9553, 97.5075, -51.3798, 46.2134
3.376, 1, 35.7495, 48.1296, -13.9659, 97.5321, -51.3595, 46.1565
3.38, 1, 35.7653, 48.1226, -13.9751, 97.5538, -51.3416, 46.1063
3.383, 1, 35.7803, 48.1158, -13.9828, 97.5727, -51.326, 46.0628
3.388, 1, 35.7945, 48.1093, -13.9892, 97.5888, -51.3127, 46.0257
3.392, 1, 35.8076, 48.1031, -13.9943, 97.6023, -51.3014, 45.9946
3.396, 1, 35.8196, 48.0973, -13.9984, 97.6135, -51.2921, 45.9688
3.4, 2, 35.8303, 48.0921, -14.0016, 97.6226, -51.2845, 45.9479
3.403, 2, 35.8398, 48.0874, -14.004, 97.6299, -51.2784, 45.9312
3.408, 2, 35.8483, 48.0832, -14.0057, 97.6356, -51.2737, 45.9182
3.412, 2, 35.8559, 48.0794, -14.0069, 97.6399, -51.27, 45.9083
3.416, 2, 35.8627, 48.0762, -14.0077, 97.6432, -51.2672, 45.9009
3.42, 2, 35.8686, 48.0734, -14.0081, 97.6456, -51.2652, 45.8955
3.424, 2, 35.8736, 48.071, -14.0084, 97.6473, -51.2637, 45.8916
3.428, 2, 35.8777, 48.0691, -14.0085, 97.6485, -51.2627, 45.889
3.432, 2, 35.8809, 48.0677, -14.0086, 97.6493, -51.262, 45.8871
3.436, 2, 35.8832, 48.0667, -14.0086, 97.6498, -51.2615, 45.8858
3.439, 2, 35.8849, 48.066, -14.0086, 97.6502, -51.2612, 45.885
3.444, 2, 35.886, 48.0655, -14.0086, 97.6505, -51.2609, 45.8844
3.448, 2, 35.8868, 48.0651, -14.0086, 97.6507, -51.2608, 45.884
3.452, 2, 35.8873, 48.0649, -14.0086, 97.6508, -51.2607, 45.8837
3.456, 2, 35.8877, 48.0648, -14.0086, 97.6509, -51.2606, 45.8836
3.46, 2, 35.8879, 48.0647, -14.0086, 97.6509, -51.2606, 45.8834
3.464, 2, 35.8881, 48.0646, -14.0086, 97.6509, -51.2605, 45.8834
3.468, 2, 35.8882, 48.0645, -14.0086, 97.651, -51.2605, 45.8833
3.472, 2, 35.8883, 48.0645, -14.0086, 97.651, -51.2605, 45.8833
3.476, 2, 35.8883, 48.0645, -14.0086, 97.651, -51.2605, 45.8832
3.48, 2, 35.8883, 48.0645, -14.0086, 97.651, -51.2605, 45.8832
3.484, 2, 35.8884, 48.0645, -14.0086, 97.651, -51.2605, 45.8832
3.488, 2, 35.8884, 48.0645, -14.0086, 97.651, -51.2605, 45.8832
3.492, 2, 35.8884, 48.0645, -14.0086, 97.651, -51.2605, 45.8832
3.495, 2, 35.8884, 48.0645, -14.0086, 97.651, -51.2605, 45.8832
3.5, 2, 35.8884, 48.0644, -14.0086, 97.651, -51.2605, 45.8832
3.504, 2, 35.8884, 48.0644, -14.0086, 97.651, -51.2605, 45.8832
3.508, 2, 35.8884, 48.0644, -14.0086, 97.651, -51.2605, 45.8832
3.512, 2, 35.8884, 48.0644, -14.0086, 97.651, -51.2605, 45.8832
3.516, 2, 35.8884, 48.0644, -14.0086, 97.651, -51.2605, 45.8832
3.52, 2, 35.8884, 48.0644, -14.0086, 97.651, -51.2605, 45.8832
3.524, 2, 35.8884, 48.0644, -14.0086, 97.651, -51.2605, 45.8832
3.528, 2, 35.8884, 48.0644, -14.0086, 97.651, -51.2605, 45.8832
3.531, 2, 35.8884, 48.0644, -14.0086, 97.651, -51.2605, 45.8832
3.536, 2, 35.8884, 48.0644, -14.0086, 97.651, -51.2605, 45.8832
3.54, 2, 35.8884, 48.0644, -14.0086, 97.651, -51.2605, 45.8832
3.544, 2, 35.8884, 48.0644, -14.0086, 97.651, -51.2605, 45.8832
3.548, 2, 35.8884, 48.0644, -14.0086, 97.651, -51.2605, 45.8832
3.552, 2, 35.8884, 48.0644, -14.0086, 97.651, -51.2605, 45.8832
3.556, 2, 35.8884, 48.0644, -14.0086, 97.651, -51.2605, 45.8832
3.56, 2, 35.8884, 48.0644, -14.0086, 97.651, -51.2605, 45.8832
3.564, 2, 35.8884, 48.0644, -14.0086, 97.651, -51.2605, 45.8832
3.568, 2, 35.8884, 48.0644, -14.0086, 97.651, -51.2605, 45.8832
3.572, 2, 35.8884, 48.0644, -14.0086, 97.651, -51.2605, 45.8832
3.576, 2, 35.8884, 48.0644, -14.0086, 97.651, -51.2605, 45.8832
3.58, 2, 35.8884, 48.0644, -14.0086, 97.651, -51.2605, 45.8832
3.584, 2, 35.8884, 48.0644, -14.0086, 97.651, -51.2605, 45.8832
3.587, 2, 35.8884, 48.0644, -14.0086, 97.651, -51.2605, 45.8832
3.592, 2, 35.8884, 48.0644, -14.0086, 97.651, -51.2605, 45.8832
3.596, 2, 35.8884, 48.0644, -14.0086, 97.651, -51.2605, 45.8832
3.6, 2, 35.8884, 48.0644, -14.0086, 97.651, -51.2605, 45.8832
3.604, 2, 35.8884, 48.0644, -14.0086, 97.651, -51.2605, 45.8832
3.608, 2, 35.8884, 48.0644, -14.0086, 97.651, -51.2605, 45.8832
3.612, 2, 35.8884, 48.0644, -14.0086, 97.651, -51.2605, 45.8832
3.616, 2, 35.8884, 48.0644, -14.0086, 97.651, -51.2605, 45.8832
3.62, 2, 35.8884, 48.0644, -14.0086, 97.651, -51.2605, 45.8832
3.624, 2, 35.8884, 48.0644, -14.0086, 97.651, -51.2605, 45.8832
3.628, 2, 35.8884, 48.0644, -14.0086, 97.651, -51.2605, 45.8832
3.632, 2, 35.8884, 48.0644, -14.0086, 97.651, -51.2605, 45.8832
3.636, 2, 35.8884, 48.0644, -14.0086, 97.651, -51.2605, 45.8832
3.64, 2, 35.8884, 48.0644, -14.0086, 97.651, -51.2605, 45.8832
3.644, 2, 35.8884, 48.0644, -14.0086, 97.651, -51.2605, 45.8832
3.648, 2, 35.8884, 48.0644, -14.0086, 97.651, -51.2605, 45.8832
3.652, 2, 35.8884, 48.0644, -14.0086, 97.651, -51.2605, 45.8832
3.656, 2, 35.8884, 48.0644, -14.0086, 97.651, -51.2605, 45.8832
3.66, 2, 35.8884, 48.0644, -14.0086, 97.651, -51.2605, 45.8832
3.664, 2, 35.8884, 48.0644, -14.0086, 97.651, -51.2605, 45.8832
3.668, 2, 35.8884, 48.0644, -14.0086, 97.651, -51.2605, 45.8832
3.672, 2, 35.8884, 48.0644, -14.0086, 97.651, -51.2605, 45.8832
3.676, 2, 35.8884, 48.0644, -14.0086, 97.651, -51.2605, 45.8832
3.679, 2, 35.8884, 48.0644, -14.0086, 97.651, -51.2605, 45.8832
3.684, 2, 35.8884, 48.0644, -14.0086, 97.651, -51.2605, 45.8832
3.688, 2, 35.8884, 48.0644, -14.0086, 97.651, -51.2605, 45.8832
3.692, 2, 35.8884, 48.0644, -14.0086, 97.651, -51.2605, 45.8832
3.696, 2, 35.8884, 48.0644, -14.0086, 97.651, -51.2605, 45.8832
3.7, 2, 35.8884, 48.0644, -14.0086, 97.651, -51.2605, 45.8832
3.704, 2, 35.8884, 48.0644, -14.0086, 97.651, -51.2605, 45.8832
3.708, 2, 35.8884, 48.0644, -14.0086, 97.651, -51.2605, 45.8832
3.712, 2, 35.8884, 48.0644, -14.0086, 97.651, -51.2605, 45.8832
3.716, 2, 35.8884, 48.0644, -14.0086, 97.651, -51.2605, 45.8832
3.72, 2, 35.8884, 48.0644, -14.0086, 97.651, -51.2605, 45.8832
3.724, 2, 35.8884, 48.0644, -14.0086, 97.651, -51.2605, 45.8832
3.728, 2, 35.8884, 48.0644, -14.0086, 97.651, -51.2605, 45.8832
3.732, 2, 35.8884, 48.0644, -14.0086, 97.651, -51.2605, 45.8832
3.735, 2, 35.8884, 48.0644, -14.0086, 97.651, -51.2605, 45.8832
3.74, 2, 35.8884, 48.0644, -14.0086, 97.651, -51.2605, 45.8832
3.744, 2, 35.8884, 48.0644, -14.0086, 97.651, -51.2605, 45.8832
3.748, 2, 35.8884, 48.0644, -14.0086, 97.651, -51.2605, 45.8832
3.752, 2, 35.8884, 48.0644, -14.0086, 97.651, -51.2605, 45.8832
3.756, 2, 35.8884, 48.0644, -14.0086, 97.651, -51.2605, 45.8832
3.76, 2, 35.8884, 48.0644, -14.0086, 97.651, -51.2605, 45.8832
3.764, 2, 35.8884, 48.0644, -14.0086, 97.651, -51.2605, 45.8832
3.768, 2, 35.8884, 48.0644, -14.0086, 97.651, -51.2605, 45.8832
3.772, 2, 35.8884, 48.0644, -14.0086, 97.651, -51.2605, 45.8832
3.776, 2, 35.8884, 48.0644, -14.0086, 97.651, -51.2605, 45.8832
3.78, 2, 35.8884, 48.0644, -14.0086, 97.651, -51.2605, 45.8832
3.784, 2, 35.8884, 48.0644, -14.0086, 97.651, -51.2605, 45.8832
3.788, 2, 35.8884, 48.0644, -14.0086, 97.651, -51.2605, 45.8832
3.792, 2, 35.8884, 48.0644, -14.0086, 97.651, -51.2605, 45.8832
3.796, 2, 35.8884, 48.0644, -14.0086, 97.651, -51.2605, 45.8832
3.8, 2, 35.8884, 48.0644, -14.0086, 97.651, -51.2605, 45.8832
3.804, 2, 35.8884, 48.0644, -14.0086, 97.651, -51.2605, 45.8832
3.808, 2, 35.8884, 48.0644, -14.0086, 97.651, -51.2605, 45.8832
3.812, 2, 35.8884, 48.0644, -14.0086, 97.651, -51.2605, 45.8832
3.816, 2, 35.8884, 48.0644, -14.0086, 97.651, -51.2605, 45.8832
3.82, 2, 35.8884, 48.0644, -14.0086, 97.651, -51.2605, 45.8832
3.824, 2, 35.8884, 48.0644, -14.0086, 97.651, -51.2605, 45.8832
3.828, 2, 35.8884, 48.0644, -14.0086, 97.651, -51.2605, 45.8832
3.832, 2, 35.8884, 48.0644, -14.0086, 97.651, -51.2605, 45.8832
3.836, 2, 35.8884, 48.0644, -14.0086, 97.651, -51.2605, 45.8832
3.84, 2, 35.8884, 48.0644, -14.0086, 97.651, -51.2605, 45.8832
3.844, 2, 35.8884, 48.0644, -14.0086, 97.651, -51.2605, 45.8832
3.848, 2, 35.8884, 48.0644, -14.0086, 97.651, -51.2605, 45.8832
3.852, 2, 35.8884, 48.0644, -14.0086, 97.651, -51.2605, 45.8832
3.856, 2, 35.8884, 48.0644, -14.0086, 97.651, -51.2605, 45.8832
3.86, 2, 35.8884, 48.0644, -14.0086, 97.651, -51.2605, 45.8832
3.864, 2, 35.8884, 48.0644, -14.0086, 97.651, -51.2605, 45.8832
3.868, 2, 35.8884, 48.0644, -14.0086, 97.651, -51.2605, 45.8832
3.872, 2, 35.8884, 48.0644, -14.0086, 97.651, -51.2605, 45.8832
3.876, 2, 35.8884, 48.0644, -14.0086, 97.651, -51.2605, 45.8832
3.88, 2, 35.8884, 48.0644, -14.0086, 97.651, -51.2605, 45.8832
3.884, 2, 35.8884, 48.0644, -14.0086, 97.651, -51.2605, 45.8832
3.888, 2, 35.8884, 48.0644, -14.0086, 97.651, -51.2605, 45.8832
3.892, 2, 35.8884, 48.0644, -14.0086, 97.651, -51.2605, 45.8832
3.896, 2, 35.8884, 48.0644, -14.0086, 97.651, -51.2605, 45.8832
3.9, 2, 35.8884, 48.0644, -14.0086, 97.651, -51.2605, 45.8832
3.904, 2, 35.8884, 48.0644, -14.0086, 97.651, -51.2605, 45.8832
3.908, 2, 35.8884, 48.0644, -14.0086, 97.651, -51.2605, 45.8832
3.912, 2, 35.8884, 48.0644, -14.0086, 97.651, -51.2605, 45.8832
3.916, 2, 35.8884, 48.0644, -14.0086, 97.651, -51.2605, 45.8832
3.92, 2, 35.8884, 48.0644, -14.0086, 97.651, -51.2605, 45.8832
3.924, 2, 35.8884, 48.0644, -14.0086, 97.651, -51.2605, 45.8832
3.928, 2, 35.8884, 48.0644, -14.0086, 97.651, -51.2605, 45.8832
3.932, 2, 35.8884, 48.0644, -14.0086, 97.651, -51.2605, 45.8832
3.936, 2, 35.8884, 48.0644, -14.0086, 97.651, -51.2605, 45.8832
3.94, 2, 35.8884, 48.0644, -14.0086, 97.651, -51.2605, 45.8832
3.944, 2, 35.8884, 48.0644, -14.0086, 97.651, -51.2605, 45.8832
3.948, 2, 35.8884, 48.0644, -14.0086, 97.651, -51.2605, 45.8832
3.952, 2, 35.8884, 48.0644, -14.0086, 97.651, -51.2605, 45.8832
3.956, 2, 35.8884, 48.0644, -14.0086, 97.651, -51.2605, 45.8832
3.96, 2, 35.8884, 48.0644, -14.0086, 97.651, -51.2605, 45.8832
3.964, 2, 35.8884, 48.0644, -14.0086, 97.651, -51.2605, 45.8832
3.968, 2, 35.8884, 48.0644, -14.0086, 97.651, -51.2605, 45.8832
3.972, 2, 35.8884, 48.0644, -14.0086, 97.651, -51.2605, 45.8832
3.976, 2, 35.8884, 48.0644, -14.0086, 97.651, -51.2605, 45.8832
3.98, 2, 35.8884, 48.0644, -14.0086, 97.651, -51.2605, 45.8832
3.984, 2, 35.8884, 48.0644, -14.0086, 97.651, -51.2605, 45.8832
3.988, 2, 35.8884, 48.0644, -14.0086, 97.651, -51.2605, 45.8832
3.992, 2, 35.8884, 48.0644, -14.0086, 97.651, -51.2605, 45.8832
3.996, 2, 35.8884, 48.0644, -14.0086, 97.651, -51.2605, 45.8832
3.999, 2, 35.8884, 48.0644, -14.0086, 97.651, -51.2605, 45.8832
4.004, 2, 35.8884, 48.0644, -14.0086, 97.651, -51.2605, 45.8832
4.008, 2, 35.8884, 48.0644, -14.0086, 97.651, -51.2605, 45.8832
4.012, 2, 35.8884, 48.0644, -14.0086, 97.651, -51.2605, 45.8832
4.016, 2, 35.8884, 48.0644, -14.0086, 97.651, -51.2605, 45.8832
4.02, 2, 35.8884, 48.0644, -14.0086, 97.651, -51.2605, 45.8832
4.024, 2, 35.8884, 48.0644, -14.0086, 97.651, -51.2605, 45.8832
4.028, 2, 35.8884, 48.0644, -14.0086, 97.651, -51.2605, 45.8832
4.032, 2, 35.8884, 48.0644, -14.0086, 97.651, -51.2605, 45.8832
4.036, 2, 35.8884, 48.0644, -14.0086, 97.651, -51.2605, 45.8832
4.04, 2, 35.8884, 48.0644, -14.0086, 97.651, -51.2605, 45.8832
4.044, 2, 35.8884, 48.0644, -14.0086, 97.651, -51.2605, 45.8832
4.048, 2, 35.8884, 48.0644, -14.0086, 97.651, -51.2605, 45.8832
4.052, 2, 35.8884, 48.0644, -14.0086, 97.651, -51.2605, 45.8832
4.056, 2, 35.8884, 48.0644, -14.0086, 97.651, -51.2605, 45.8832
4.06, 2, 35.8884, 48.0644, -14.0086, 97.651, -51.2605, 45.8832
4.064, 2, 35.8884, 48.0644, -14.0086, 97.651, -51.2605, 45.8832
4.068, 2, 35.8884, 48.0644, -14.0086, 97.651, -51.2605, 45.8832
4.072, 2, 35.8884, 48.0644, -14.0086, 97.651, -51.2605, 45.8832
4.076, 2, 35.8884, 48.0644, -14.0086, 97.651, -51.2605, 45.8832
4.08, 2, 35.8884, 48.0644, -14.0086, 97.651, -51.2605, 45.8832
4.084, 2, 35.8884, 48.0644, -14.0086, 97.651, -51.2605, 45.8832
4.088, 2, 35.8884, 48.0644, -14.0086, 97.651, -51.2605, 45.8832
4.092, 2, 35.8884, 48.0644, -14.0086, 97.651, -51.2605, 45.8832
4.096, 2, 35.8884, 48.0644, -14.0086, 97.651, -51.2605, 45.8832
4.1, 2, 35.8884, 48.0644, -14.0086, 97.651, -51.2605, 45.8832
4.104, 2, 35.8884, 48.0644, -14.0086, 97.651, -51.2605, 45.8832
4.108, 2, 35.8884, 48.0644, -14.0086, 97.651, -51.2605, 45.8832
4.112, 2, 35.8884, 48.0644, -14.0086, 97.651, -51.2605, 45.8832
4.116, 2, 35.8884, 48.0644, -14.0086, 97.651, -51.2605, 45.8832
4.12, 2, 35.8884, 48.0644, -14.0086, 97.651, -51.2605, 45.8832
4.124, 2, 35.8884, 48.0644, -14.0086, 97.651, -51.2605, 45.8832
4.128, 2, 35.8884, 48.0644, -14.0086, 97.651, -51.2605, 45.8832
4.132, 2, 35.8884, 48.0644, -14.0086, 97.651, -51.2605, 45.8832
4.136, 2, 35.8884, 48.0644, -14.0086, 97.651, -51.2605, 45.8832
4.14, 2, 35.8884, 48.0644, -14.0086, 97.651, -51.2605, 45.8832
4.144, 2, 35.8884, 48.0644, -14.0086, 97.651, -51.2605, 45.8832
4.148, 2, 35.8884, 48.0644, -14.0086, 97.651, -51.2605, 45.8832
4.152, 2, 35.8884, 48.0644, -14.0086, 97.651, -51.2605, 45.8832
4.156, 2, 35.8884, 48.0644, -14.0086, 97.651, -51.2605, 45.8832
4.16, 2, 35.8884, 48.0644, -14.0086, 97.651, -51.2605, 45.8832
4.164, 2, 35.8884, 48.0644, -14.0086, 97.651, -51.2605, 45.8832
4.168, 2, 35.8884, 48.0644, -14.0086, 97.651, -51.2605, 45.8832
4.172, 2, 35.8884, 48.0644, -14.0086, 97.651, -51.2605, 45.8832
4.176, 2, 35.8884, 48.0644, -14.0086, 97.651, -51.2605, 45.8832
4.18, 2, 35.8884, 48.0644, -14.0086, 97.651, -51.2605, 45.8832
4.184, 2, 35.8884, 48.0644, -14.0086, 97.651, -51.2605, 45.8832
4.188, 2, 35.8884, 48.0644, -14.0086, 97.651, -51.2605, 45.8832
4.192, 2, 35.8884, 48.0644, -14.0086, 97.651, -51.2605, 45.8832
4.196, 2, 35.8884, 48.0644, -14.0086, 97.651, -51.2605, 45.8832
4.2, 2, 35.8884, 48.0644, -14.0086, 97.651, -51.2605, 45.8832
4.204, 2, 35.8884, 48.0644, -14.0086, 97.651, -51.2605, 45.8832
4.208, 2, 35.8884, 48.0644, -14.0086, 97.651, -51.2605, 45.8832
4.212, 2, 35.8884, 48.0644, -14.0086, 97.651, -51.2605, 45.8832
4.216, 2, 35.8884, 48.0644, -14.0086, 97.651, -51.2605, 45.8832
4.22, 2, 35.8884, 48.0644, -14.0086, 97.651, -51.2605, 45.8832
4.224, 2, 35.8884, 48.0644, -14.0086, 97.651, -51.2605, 45.8832
4.228, 2, 35.8884, 48.0644, -14.0086, 97.651, -51.2605, 45.8832
4.232, 2, 35.8884, 48.0644, -14.0086, 97.651, -51.2605, 45.8832
4.236, 2, 35.8884, 48.0644, -14.0086, 97.651, -51.2605, 45.8832
4.24, 2, 35.8884, 48.0644, -14.0086, 97.651, -51.2605, 45.8832
4.244, 2, 35.8884, 48.0644, -14.0086, 97.651, -51.2605, 45.8832
4.248, 2, 35.8884, 48.0644, -14.0086, 97.651, -51.2605, 45.8832
4.252, 2, 35.8884, 48.0644, -14.0086, 97.651, -51.2605, 45.8832
4.256, 2, 35.8884, 48.0644, -14.0086, 97.651, -51.2605, 45.8832
4.26, 2, 35.8884, 48.0644, -14.0086, 97.651, -51.2605, 45.8832
4.264, 2, 35.8884, 48.0644, -14.0086, 97.651, -51.2605, 45.8832
4.268, 2, 35.8884, 48.0644, -14.0086, 97.651, -51.2605, 45.8832
4.272, 2, 35.8884, 48.0644, -14.0086, 97.651, -51.2605, 45.8832
4.276, 2, 35.8884, 48.0644, -14.0086, 97.651, -51.2605, 45.8832
4.28, 2, 35.8884, 48.0644, -14.0086, 97.651, -51.2605, 45.8832
4.284, 2, 35.8884, 48.0644, -14.0086, 97.651, -51.2605, 45.8832
4.288, 2, 35.8884, 48.0644, -14.0086, 97.651, -51.2605, 45.8832
4.292, 2, 35.8884, 48.0644, -14.0086, 97.651, -51.2605, 45.8832
4.296, 2, 35.8884, 48.0644, -14.0086, 97.651, -51.2605, 45.8832
4.3, 2, 35.8884, 48.0644, -14.0086, 97.651, -51.2605, 45.8832
4.304, 2, 35.8884, 48.0644, -14.0086, 97.651, -51.2605, 45.8832
4.308, 2, 35.8884, 48.0644, -14.0086, 97.651, -51.2605, 45.8832
4.312, 2, 35.8884, 48.0644, -14.0086, 97.651, -51.2605, 45.8832
4.316, 2, 35.8884, 48.0644, -14.0086, 97.651, -51.2605, 45.8832
4.32, 2, 35.8884, 48.0644, -14.0086, 97.651, -51.2605, 45.8832
4.324, 2, 35.8884, 48.0644, -14.0086, 97.651, -51.2605, 45.8832
4.328, 2, 35.8884, 48.0644, -14.0086, 97.651, -51.2605, 45.8832
4.332, 2, 35.8884, 48.0644, -14.0086, 97.651, -51.2605, 45.8832
4.336, 2, 35.8884, 48.0644, -14.0086, 97.651, -51.2605, 45.8832
4.34, 2, 35.8884, 48.0644, -14.0086, 97.651, -51.2605, 45.8832
4.344, 2, 35.8884, 48.0644, -14.0086, 97.651, -51.2605, 45.8832
4.348, 2, 35.8884, 48.0644, -14.0086, 97.651, -51.2605, 45.8832
4.352, 2, 35.8884, 48.0644, -14.0086, 97.651, -51.2605, 45.8832
4.356, 2, 35.8884, 48.0644, -14.0086, 97.651, -51.2605, 45.8832
4.36, 2, 35.8884, 48.0644, -14.0086, 97.651, -51.2605, 45.8832
4.364, 2, 35.8884, 48.0644, -14.0086, 97.651, -51.2605, 45.8832
4.368, 2, 35.8884, 48.0644, -14.0086, 97.651, -51.2605, 45.8832
4.372, 2, 35.8884, 48.0644, -14.0086, 97.651, -51.2605, 45.8832
4.376, 2, 35.8884, 48.0644, -14.0086, 97.651, -51.2605, 45.8832
4.38, 2, 35.8884, 48.0644, -14.0086, 97.651, -51.2605, 45.8832
4.384, 2, 35.8884, 48.0644, -14.0086, 97.651, -51.2605, 45.8832
4.388, 2, 35.8884, 48.0644, -14.0086, 97.651, -51.2605, 45.8832
4.392, 2, 35.8884, 48.0644, -14.0086, 97.651, -51.2605, 45.8832
4.396, 2, 35.8884, 48.0644, -14.0086, 97.651, -51.2605, 45.8832
4.4, 3, 35.8884, 48.0644, -14.0086, 97.651, -51.2605, 45.8832
4.404, 3, 35.8884, 48.0644, -14.0086, 97.651, -51.2605, 45.8832
4.408, 3, 35.8884, 48.0644, -14.0086, 97.651, -51.2605, 45.8832
4.412, 3, 35.8884, 48.0644, -14.0086, 97.651, -51.2605, 45.8832
4.416, 3, 35.8884, 48.0644, -14.0086, 97.651, -51.2605, 45.8832
4.42, 3, 35.8884, 48.0644, -14.0086, 97.651, -51.2605, 45.8832
4.424, 3, 35.8884, 48.0644, -14.0086, 97.651, -51.2605, 45.8832
4.428, 3, 35.8884, 48.0644, -14.0086, 97.651, -51.2605, 45.8832
4.432, 3, 35.8884, 48.0644, -14.0086, 97.651, -51.2605, 45.8832
4.436, 4, 35.8884, 48.0644, -14.0086, 97.651, -51.2605, 45.8832
4.44, 4, 35.8884, 48.0644, -14.0086, 97.651, -51.2605, 45.8832
4.444, 4, 35.8884, 48.0644, -14.0086, 97.651, -51.2605, 45.8832
4.448, 4, 35.8884, 48.0644, -14.0086, 97.651, -51.2605, 45.8832
4.452, 4, 35.8884, 48.0644, -14.0086, 97.651, -51.2605, 45.8832
4.456, 4, 35.8884, 48.0644, -14.0086, 97.651, -51.2605, 45.8832
4.46, 4, 35.8884, 48.0644, -14.0086, 97.651, -51.2605, 45.8832
4.464, 4, 35.8884, 48.0644, -14.0086, 97.651, -51.2605, 45.8832
4.468, 4, 35.8884, 48.0644, -14.0086, 97.651, -51.2605, 45.8832
4.472, 4, 35.8884, 48.0644, -14.0086, 97.651, -51.2605, 45.8832
4.476, 4, 35.8884, 48.0644, -14.0086, 97.651, -51.2605, 45.8832
4.48, 4, 35.8884, 48.0644, -14.0086, 97.651, -51.2605, 45.8832
4.484, 4, 35.8884, 48.0644, -14.0086, 97.651, -51.2605, 45.8832
4.488, 4, 35.8884, 48.0644, -14.0086, 97.651, -51.2605, 45.8832
4.492, 4, 35.8884, 48.0644, -14.0086, 97.651, -51.2605, 45.8832
4.496, 4, 35.8884, 48.0644, -14.0086, 97.651, -51.2605, 45.8832
4.5, 4, 35.8884, 48.0644, -14.0086, 97.651, -51.2605, 45.8832
4.504, 4, 35.8884, 48.0644, -14.0086, 97.651, -51.2605, 45.8832
4.508, 4, 35.8884, 48.0644, -14.0086, 97.651, -51.2605, 45.8832
4.512, 4, 35.8884, 48.0644, -14.0086, 97.651, -51.2605, 45.8832
4.516, 4, 35.8884, 48.0644, -14.0086, 97.651, -51.2605, 45.8832
4.52, 4, 35.8884, 48.0644, -14.0086, 97.651, -51.2605, 45.8832
4.524, 4, 35.8884, 48.0644, -14.0086, 97.651, -51.2605, 45.8832
4.528, 4, 35.8884, 48.0644, -14.0086, 97.651, -51.2605, 45.8832
4.532, 4, 35.8884, 48.0644, -14.0086, 97.651, -51.2605, 45.8832
4.536, 5, 35.8884, 48.0644, -14.0086, 97.651, -51.2605, 45.8832
4.54, 6, 35.8884, 48.0644, -14.0086, 97.651, -51.2605, 45.8832
4.544, 6, 35.8884, 48.0644, -14.0086, 97.651, -51.2605, 45.8832
4.548, 6, 35.8884, 48.0644, -14.0086, 97.651, -51.2605, 45.8832
4.552, 6, 35.8884, 48.0644, -14.0086, 97.651, -51.2605, 45.8832
4.556, 6, 35.8884, 48.0644, -14.0086, 97.651, -51.2605, 45.8832
4.56, 6, 35.8884, 48.0644, -14.0086, 97.651, -51.2605, 45.8832
4.564, 6, 35.8884, 48.0644, -14.0086, 97.651, -51.2605, 45.8832
4.568, 6, 35.8884, 48.0644, -14.0086, 97.651, -51.2605, 45.8832
4.572, 6, 35.8884, 48.0645, -14.0086, 97.651, -51.2605, 45.8832
4.576, 6, 35.8884, 48.0646, -14.0086, 97.651, -51.2605, 45.8832
4.58, 6, 35.8884, 48.065, -14.0086, 97.651, -51.2605, 45.8832
4.584, 6, 35.8884, 48.0657, -14.0086, 97.651, -51.2606, 45.8831
4.588, 6, 35.8884, 48.067, -14.0087, 97.651, -51.261, 45.883
4.592, 6, 35.8885, 48.0688, -14.0088, 97.6509, -51.2617, 45.8828
4.596, 6, 35.8885, 48.0714, -14.009, 97.6509, -51.263, 45.8823
4.6, 6, 35.8885, 48.0749, -14.0093, 97.6507, -51.2652, 45.8816
4.604, 6, 35.8885, 48.0793, -14.0098, 97.6504, -51.2688, 45.8803
4.608, 6, 35.8886, 48.0849, -14.0106, 97.65, -51.2744, 45.8784
4.612, 6, 35.8886, 48.0919, -14.0117, 97.6493, -51.2825, 45.8757
4.616, 6, 35.8886, 48.1006, -14.0132, 97.6484, -51.2938, 45.8718
4.62, 6, 35.8886, 48.1111, -14.0153, 97.6472, -51.3093, 45.8666
4.624, 6, 35.8886, 48.1237, -14.0181, 97.6455, -51.3297, 45.8597
4.628, 6, 35.8885, 48.1383, -14.0217, 97.6433, -51.3562, 45.8508
4.632, 6, 35.8885, 48.1551, -14.0262, 97.6405, -51.3896, 45.8395
4.636, 6, 35.8884, 48.174, -14.0317, 97.637, -51.431, 45.8255
4.64, 6, 35.8883, 48.1952, -14.0384, 97.6327, -51.4813, 45.8086
4.644, 6, 35.8882, 48.2187, -14.0464, 97.6275, -51.5411, 45.7885
4.648, 6, 35.8881, 48.2447, -14.0556, 97.6214, -51.6113, 45.765
4.652, 6, 35.888, 48.2732, -14.0662, 97.6141, -51.6922, 45.7379
4.656, 6, 35.8879, 48.3042, -14.0782, 97.6058, -51.7841, 45.7072
4.66, 6, 35.8878, 48.3375, -14.0916, 97.5963, -51.8873, 45.6728
4.664, 6, 35.8877, 48.3732, -14.1062, 97.5855, -52.0015, 45.6348
4.668, 6, 35.8876, 48.4112, -14.1222, 97.5736, -52.1265, 45.5933
4.672, 6, 35.8875, 48.4513, -14.1393, 97.5604, -52.2617, 45.5485
4.676, 6, 35.8876, 48.4937, -14.1575, 97.5461, -52.4065, 45.5007
4.68, 6, 35.8876, 48.5385, -14.1766, 97.5306, -52.5599, 45.4502
4.684, 6, 35.8878, 48.5855, -14.1965, 97.514, -52.721, 45.3972
4.688, 6, 35.888, 48.6346, -14.217, 97.4964, -52.8889, 45.3421
4.692, 6, 35.8882, 48.6857, -14.238, 97.4777, -53.0625, 45.2854
4.696, 6, 35.8884, 48.7386, -14.2594, 97.4582, -53.241, 45.2272
4.7, 6, 35.8885, 48.7931, -14.281, 97.4378, -53.4234, 45.1679
4.704, 6, 35.8886, 48.849, -14.3027, 97.4166, -53.6088, 45.1078
4.708, 6, 35.8885, 48.9062, -14.3244, 97.3947, -53.7966, 45.0471
4.712, 6, 35.8883, 48.9646, -14.346, 97.3721, -53.986, 44.9861
4.716, 6, 35.888, 49.0239, -14.3675, 97.3489, -54.1766, 44.9249
4.72, 6, 35.8875, 49.0841, -14.3887, 97.3251, -54.368, 44.8636
4.724, 6, 35.8868, 49.1449, -14.4097, 97.3007, -54.5599, 44.8024
4.728, 6, 35.886, 49.2062, -14.4304, 97.2758, -54.7521, 44.7413
4.732, 6, 35.885, 49.2676, -14.4508, 97.2504, -54.9443, 44.6803
4.736, 6, 35.8839, 49.3292, -14.4709, 97.2244, -55.1365, 44.6195
4.74, 6, 35.8826, 49.3908, -14.4906, 97.198, -55.3287, 44.559
4.744, 6, 35.8811, 49.4524, -14.51, 97.1711, -55.5208, 44.4986
4.748, 6, 35.8795, 49.5139, -14.529, 97.1436, -55.7128, 44.4385
4.752, 6, 35.8778, 49.5753, -14.5476, 97.1157, -55.9046, 44.3786
4.756, 6, 35.8759, 49.6365, -14.566, 97.0873, -56.0962, 44.3189
4.76, 6, 35.8738, 49.6977, -14.5839, 97.0584, -56.2877, 44.2595
4.764, 6, 35.8716, 49.7586, -14.6015, 97.0291, -56.479, 44.2003
4.768, 6, 35.8693, 49.8195, -14.6187, 96.9993, -56.67, 44.1413
4.772, 6, 35.8668, 49.8801, -14.6356, 96.969, -56.8609, 44.0825
4.776, 6, 35.8642, 49.9406, -14.652, 96.9383, -57.0516, 44.024
4.78, 6, 35.8614, 50.001, -14.6681, 96.9071, -57.2421, 43.9656
4.784, 6, 35.8584, 50.0611, -14.6839, 96.8754, -57.4324, 43.9075
4.788, 6, 35.8553, 50.1211, -14.6992, 96.8433, -57.6225, 43.8496
4.792, 6, 35.8521, 50.1809, -14.7142, 96.8108, -57.8125, 43.7919
4.796, 6, 35.8487, 50.2406, -14.7288, 96.7778, -58.0022, 43.7344
4.8, 6, 35.8452, 50.3, -14.7431, 96.7444, -58.1917, 43.6771
4.804, 7, 35.8415, 50.3593, -14.7569, 96.7105, -58.381, 43.62
4.808, 7, 35.8377, 50.4184, -14.7704, 96.6762, -58.5701, 43.5631
4.812, 7, 35.8337, 50.4773, -14.7835, 96.6414, -58.7591, 43.5064
4.816, 7, 35.8296, 50.5361, -14.7962, 96.6063, -58.9478, 43.4499
4.82, 7, 35.8253, 50.5946, -14.8085, 96.5707, -59.1363, 43.3936
4.824, 7, 35.8209, 50.653, -14.8204, 96.5347, -59.3246, 43.3374
4.828, 7, 35.8164, 50.7112, -14.8319, 96.4983, -59.5128, 43.2814
4.832, 7, 35.8117, 50.7692, -14.8431, 96.4614, -59.7007, 43.2256
4.836, 7, 35.8068, 50.827, -14.8538, 96.4241, -59.8884, 43.17
4.84, 7, 35.8018, 50.8846, -14.8642, 96.3865, -60.076, 43.1146
4.844, 7, 35.7967, 50.942, -14.8742, 96.3484, -60.2633, 43.0593
4.848, 7, 35.7914, 50.9992, -14.8837, 96.3099, -60.4504, 43.0042
4.852, 7, 35.786, 51.0562, -14.8929, 96.271, -60.6374, 42.9492
4.856, 7, 35.7804, 51.113, -14.9017, 96.2317, -60.8241, 42.8945
4.86, 7, 35.7747, 51.1696, -14.91, 96.192, -61.0107, 42.8398
4.864, 7, 35.7688, 51.2261, -14.918, 96.1519, -61.197, 42.7853
4.868, 7, 35.7628, 51.2823, -14.9256, 96.1115, -61.3832, 42.731
4.872, 7, 35.7566, 51.3383, -14.9327, 96.0706, -61.5691, 42.6768
4.876, 7, 35.7503, 51.3941, -14.9395, 96.0293, -61.7549, 42.6228
4.88, 7, 35.7438, 51.4497, -14.9458, 95.9877, -61.9404, 42.5689
4.884, 7, 35.7372, 51.5051, -14.9518, 95.9457, -62.1258, 42.5152
4.888, 7, 35.7305, 51.5603, -14.9573, 95.9033, -62.3109, 42.4616
4.892, 7, 35.7236, 51.6153, -14.9624, 95.8605, -62.4959, 42.4081
4.896, 7, 35.7166, 51.67, -14.9671, 95.8173, -62.6807, 42.3548
4.9, 7, 35.7094, 51.7246, -14.9714, 95.7738, -62.8652, 42.3015
4.904, 7, 35.7021, 51.7789, -14.9753, 95.7299, -63.0496, 42.2485
4.908, 7, 35.6946, 51.833, -14.9787, 95.6856, -63.2338, 42.1955
4.912, 7, 35.687, 51.887, -14.9818, 95.641, -63.4178, 42.1427
4.916, 7, 35.6793, 51.9406, -14.9844, 95.596, -63.6016, 42.09
4.92, 7, 35.6714, 51.9941, -14.9866, 95.5507, -63.7851, 42.0374
4.924, 7, 35.6633, 52.0474, -14.9884, 95.5049, -63.9686, 41.9849
4.928, 7, 35.6552, 52.1004, -14.9897, 95.4588, -64.1518, 41.9326
4.932, 7, 35.6468, 52.1532, -14.9907, 95.4124, -64.3348, 41.8803
4.936, 7, 35.6384, 52.2058, -14.9912, 95.3656, -64.5176, 41.8282
4.94, 7, 35.6297, 52.2582, -14.9913, 95.3185, -64.7002, 41.7762
4.944, 7, 35.621, 52.3103, -14.9909, 95.271, -64.8827, 41.7243
4.948, 7, 35.6121, 52.3622, -14.9902, 95.2231, -65.0649, 41.6724
4.952, 7, 35.6031, 52.4139, -14.989, 95.1749, -65.247, 41.6207
4.956, 7, 35.5939, 52.4654, -14.9874, 95.1264, -65.4289, 41.5691
4.96, 7, 35.5846, 52.5166, -14.9853, 95.0775, -65.6106, 41.5176
4.964, 7, 35.5751, 52.5676, -14.9829, 95.0283, -65.7921, 41.4662
4.968, 7, 35.5655, 52.6183, -14.98, 94.9787, -65.9734, 41.4149
4.972, 7, 35.5557, 52.6689, -14.9766, 94.9288, -66.1545, 41.3637
4.976, 7, 35.5458, 52.7192, -14.9729, 94.8786, -66.3354, 41.3125
4.98, 7, 35.5358, 52.7692, -14.9687, 94.828, -66.5161, 41.2615
4.984, 7, 35.5256, 52.819, -14.964, 94.7771, -66.6967, 41.2105
4.988, 7, 35.5153, 52.8686, -14.959, 94.7259, -66.877, 41.1596
4.992, 7, 35.5049, 52.918, -14.9535, 94.6743, -67.0572, 41.1088
4.996, 7, 35.4943, 52.9671, -14.9476, 94.6224, -67.2372, 41.0581
5, 7, 35.4835, 53.0159, -14.9412, 94.5702, -67.417, 41.0075
5.004, 7, 35.4726, 53.0646, -14.9344, 94.5177, -67.5966, 40.9569
5.008, 7, 35.4616, 53.1129, -14.9271, 94.4648, -67.776, 40.9064
5.012, 7, 35.4505, 53.1611, -14.9194, 94.4117, -67.9552, 40.856
5.016, 7, 35.4392, 53.2089, -14.9113, 94.3582, -68.1343, 40.8057
5.02, 7, 35.4277, 53.2564, -14.9027, 94.3044, -68.3131, 40.7554
5.024, 7, 35.4161, 53.3036, -14.8937, 94.2502, -68.4918, 40.7052
5.028, 7, 35.4043, 53.3502, -14.8841, 94.1958, -68.6702, 40.6551
5.032, 7, 35.3922, 53.3961, -14.874, 94.141, -68.8483, 40.6052
5.036, 7, 35.3799, 53.4412, -14.8632, 94.0859, -69.026, 40.5555
5.04, 7, 35.3672, 53.4853, -14.8518, 94.0304, -69.2032, 40.5061
5.044, 7, 35.3543, 53.5283, -14.8394, 93.9745, -69.3796, 40.4573
5.048, 7, 35.341, 53.5701, -14.8259, 93.9182, -69.5551, 40.4091
5.052, 7, 35.3274, 53.6106, -14.8112, 93.8613, -69.7293, 40.3619
5.056, 7, 35.3135, 53.6498, -14.795, 93.8038, -69.9018, 40.3159
5.06, 7, 35.2992, 53.6877, -14.7769, 93.7457, -70.0723, 40.2715
5.064, 7, 35.2847, 53.7243, -14.7568, 93.6869, -70.2405, 40.229
5.068, 7, 35.2698, 53.7594, -14.7343, 93.6272, -70.4058, 40.1887
5.072, 7, 35.2545, 53.7931, -14.7092, 93.5667, -70.5679, 40.1509
5.076, 7, 35.239, 53.8253, -14.6812, 93.5052, -70.7265, 40.116
5.08, 7, 35.2231, 53.8559, -14.6501, 93.4426, -70.8812, 40.0843
5.084, 7, 35.2069, 53.8849, -14.6158, 93.3791, -71.0319, 40.0558
5.088, 7, 35.1904, 53.9123, -14.5782, 93.3145, -71.1784, 40.0307
5.092, 7, 35.1737, 53.9381, -14.5373, 93.2488, -71.3207, 40.009
5.096, 7, 35.1567, 53.9622, -14.4932, 93.1821, -71.459, 39.9906
5.1, 7, 35.1393, 53.9849, -14.4459, 93.1144, -71.5933, 39.9754
5.104, 7, 35.1217, 54.0061, -14.3957, 93.0458, -71.7241, 39.9632
5.108, 7, 35.1038, 54.0258, -14.3427, 92.9764, -71.8516, 39.9536
5.112, 7, 35.0855, 54.0441, -14.2874, 92.9063, -71.9762, 39.9464
5.116, 8, 35.067, 54.0611, -14.2298, 92.8356, -72.0983, 39.9412
5.12, 8, 35.0482, 54.0766, -14.1705, 92.7643, -72.2183, 39.9377
5.124, 8, 35.0291, 54.0908, -14.1095, 92.6925, -72.3366, 39.9356
5.128, 8, 35.0097, 54.1035, -14.0472, 92.6205, -72.4535, 39.9346
5.132, 8, 34.99, 54.1151, -13.9838, 92.5481, -72.5694, 39.9343
5.136, 8, 34.97, 54.1255, -13.9195, 92.4756, -72.6845, 39.9346
5.14, 8, 34.9497, 54.135, -13.8545, 92.4028, -72.799, 39.9353
5.144, 8, 34.9291, 54.1437, -13.789, 92.33, -72.9131, 39.9362
5.148, 8, 34.9084, 54.1517, -13.723, 92.2571, -73.0269, 39.9372
5.152, 8, 34.8874, 54.1593, -13.6566, 92.1841, -73.1406, 39.9383
5.156, 8, 34.8663, 54.1664, -13.5898, 92.1111, -73.2541, 39.9394
5.16, 8, 34.8451, 54.1732, -13.5228, 92.038, -73.3674, 39.9405
5.164, 8, 34.8237, 54.1798, -13.4555, 91.9649, -73.4807, 39.9416
5.168, 8, 34.8023, 54.1861, -13.388, 91.8917, -73.594, 39.9425
5.172, 8, 34.7808, 54.1922, -13.3202, 91.8186, -73.7071, 39.9434
5.176, 8, 34.7591, 54.1981, -13.2521, 91.7454, -73.8203, 39.9442
5.18, 8, 34.7374, 54.2038, -13.1839, 91.6722, -73.9333, 39.9449
5.184, 8, 34.7156, 54.2093, -13.1154, 91.5989, -74.0464, 39.9456
5.188, 8, 34.6938, 54.2146, -13.0467, 91.5257, -74.1594, 39.9461
5.192, 8, 34.6718, 54.2198, -12.9778, 91.4524, -74.2724, 39.9465
5.196, 8, 34.6498, 54.2248, -12.9087, 91.3791, -74.3854, 39.9469
5.2, 8, 34.6277, 54.2296, -12.8393, 91.3058, -74.4983, 39.9471
5.204, 8, 34.6055, 54.2342, -12.7698, 91.2325, -74.6112, 39.9472
5.208, 8, 34.5832, 54.2387, -12.7, 91.1591, -74.724, 39.9472
5.212, 8, 34.5608, 54.243, -12.63, 91.0857, -74.8369, 39.9471
5.216, 8, 34.5384, 54.2471, -12.5598, 91.0123, -74.9497, 39.947
5.22, 8, 34.5159, 54.2511, -12.4894, 90.9389, -75.0625, 39.9467
5.224, 8, 34.4933, 54.2549, -12.4188, 90.8655, -75.1752, 39.9463
5.228, 8, 34.4706, 54.2585, -12.348, 90.792, -75.288, 39.9458
5.232, 8, 34.4479, 54.262, -12.277, 90.7185, -75.4007, 39.9452
5.236, 8, 34.4251, 54.2652, -12.2057, 90.645, -75.5134, 39.9444
5.24, 8, 34.4022, 54.2683, -12.1343, 90.5715, -75.626, 39.9436
5.244, 8, 34.3792, 54.2713, -12.0626, 90.4979, -75.7386, 39.9427
5.248, 8, 34.3561, 54.2741, -11.9908, 90.4243, -75.8512, 39.9416
5.252, 8, 34.333, 54.2767, -11.9187, 90.3507, -75.9638, 39.9405
5.256, 8, 34.3098, 54.2791, -11.8465, 90.2771, -76.0764, 39.9392
5.26, 8, 34.2865, 54.2814, -11.774, 90.2035, -76.1889, 39.9379
5.264, 8, 34.2631, 54.2835, -11.7013, 90.1298, -76.3014, 39.9364
5.268, 8, 34.2397, 54.2854, -11.6284, 90.0561, -76.4139, 39.9348
5.272, 8, 34.2161, 54.2871, -11.5554, 89.9824, -76.5263, 39.9331
5.276, 8, 34.1925, 54.2887, -11.4821, 89.9086, -76.6387, 39.9312
5.28, 8, 34.1688, 54.2901, -11.4086, 89.8349, -76.7511, 39.9293
5.284, 8, 34.1451, 54.2914, -11.3349, 89.7611, -76.8635, 39.9272
5.288, 8, 34.1212, 54.2924, -11.261, 89.6873, -76.9758, 39.9251
5.292, 8, 34.0973, 54.2933, -11.187, 89.6134, -77.0882, 39.9228
5.296, 8, 34.0733, 54.2941, -11.1127, 89.5396, -77.2005, 39.9204
5.3, 8, 34.0492, 54.2946, -11.0382, 89.4657, -77.3127, 39.9179
5.304, 8, 34.0251, 54.295, -10.9635, 89.3917, -77.425, 39.9153
5.308, 8, 34.0009, 54.2952, -10.8886, 89.3178, -77.5372, 39.9125
5.312, 8, 33.9766, 54.2953, -10.8136, 89.2438, -77.6494, 39.9096
5.316, 8, 33.9522, 54.2951, -10.7383, 89.1698, -77.7616, 39.9067
5.32, 8, 33.9277, 54.2948, -10.6628, 89.0958, -77.8738, 39.9035
5.324, 8, 33.9032, 54.2943, -10.5872, 89.0218, -77.9859, 39.9003
5.328, 8, 33.8785, 54.2936, -10.5113, 88.9477, -78.098, 39.897
5.332, 9, 33.8538, 54.2927, -10.4352, 88.8736, -78.2101, 39.8935
5.336, 9, 33.8289, 54.2913, -10.3589, 88.7995, -78.3221, 39.89
5.34, 9, 33.8039, 54.2895, -10.2823, 88.7253, -78.434, 39.8865
5.344, 9, 33.7787, 54.2871, -10.2053, 88.6511, -78.5458, 39.883
5.348, 9, 33.7533, 54.284, -10.1279, 88.5768, -78.6573, 39.8798
5.352, 9, 33.7277, 54.2801, -10.05, 88.5024, -78.7684, 39.877
5.356, 9, 33.7019, 54.2752, -9.97138, 88.4278, -78.879, 39.875
5.36, 9, 33.676, 54.2692, -9.89193, 88.3531, -78.9887, 39.8739
5.364, 9, 33.6499, 54.2622, -9.81147, 88.2782, -79.0973, 39.8743
5.368, 9, 33.6236, 54.2541, -9.72982, 88.2031, -79.2046, 39.8765
5.372, 9, 33.5972, 54.2449, -9.64677, 88.1276, -79.3102, 39.8809
5.376, 9, 33.5707, 54.2345, -9.56213, 88.0518, -79.4139, 39.8879
5.38, 9, 33.5439, 54.223, -9.47572, 87.9757, -79.5153, 39.8981
5.384, 9, 33.517, 54.2102, -9.38737, 87.8992, -79.6141, 39.9117
5.388, 9, 33.4898, 54.1963, -9.29695, 87.8223, -79.71, 39.9293
5.392, 9, 33.4625, 54.1813, -9.20433, 87.7449, -79.8028, 39.951
5.396, 9, 33.4349, 54.165, -9.10946, 87.6671, -79.8923, 39.9772
5.4, 9, 33.4071, 54.1477, -9.01231, 87.5889, -79.9785, 40.0078
5.404, 9, 33.3792, 54.1292, -8.91291, 87.5103, -80.0614, 40.0431
5.408, 9, 33.351, 54.1096, -8.81131, 87.4313, -80.141, 40.0827
5.412, 9, 33.3226, 54.0888, -8.70763, 87.3518, -80.2175, 40.1266
5.416, 9, 33.294, 54.067, -8.602, 87.2721, -80.2911, 40.1744
5.42, 9, 33.2652, 54.044, -8.4946, 87.192, -80.362, 40.2257
5.424, 9, 33.2362, 54.0199, -8.3856, 87.1116, -80.4307, 40.2803
5.428, 9, 33.2069, 53.9946, -8.27522, 87.0311, -80.4973, 40.3377
5.432, 9, 33.1776, 53.9683, -8.16365, 86.9503, -80.5622, 40.3975
5.436, 9, 33.1481, 53.9409, -8.05109, 86.8693, -80.6256, 40.4592
5.44, 9, 33.1184, 53.9125, -7.93772, 86.7882, -80.688, 40.5225
5.444, 9, 33.0887, 53.8831, -7.82372, 86.7071, -80.7496, 40.5869
5.448, 9, 33.0588, 53.8531, -7.70925, 86.6258, -80.8106, 40.6523
5.452, 9, 33.0287, 53.8223, -7.59443, 86.5445, -80.8712, 40.7182
5.456, 9, 32.9985, 53.791, -7.4794, 86.4632, -80.9315, 40.7845
5.46, 9, 32.968, 53.7593, -7.36423, 86.3819, -80.9917, 40.851
5.464, 9, 32.9375, 53.7273, -7.24901, 86.3007, -81.0518, 40.9175
5.468, 9, 32.9067, 53.6951, -7.13378, 86.2194, -81.1119, 40.9841
5.472, 9, 32.8759, 53.6628, -7.01858, 86.1382, -81.1721, 41.0507
5.476, 9, 32.8449, 53.6304, -6.90344, 86.0571, -81.2323, 41.1172
5.48, 9, 32.8139, 53.598, -6.78837, 85.976, -81.2926, 41.1835
5.484, 9, 32.7828, 53.5655, -6.67339, 85.8949, -81.353, 41.2497
5.488, 9, 32.7516, 53.5331, -6.5585, 85.8139, -81.4134, 41.3158
5.492, 9, 32.7203, 53.5006, -6.44371, 85.733, -81.474, 41.3818
5.496, 9, 32.6889, 53.4681, -6.32902, 85.6521, -81.5346, 41.4475
5.5, 9, 32.6575, 53.4357, -6.21444, 85.5712, -81.5953, 41.5132
5.504, 9, 32.6261, 53.4032, -6.09996, 85.4904, -81.6562, 41.5786
5.508, 9, 32.5945, 53.3708, -5.98559, 85.4097, -81.7171, 41.6439
5.512, 9, 32.5629, 53.3384, -5.87132, 85.329, -81.7782, 41.709
5.516, 9, 32.5312, 53.306, -5.75716, 85.2484, -81.8393, 41.774
5.52, 9, 32.4995, 53.2736, -5.64311, 85.1678, -81.9005, 41.8388
5.524, 9, 32.4676, 53.2412, -5.52916, 85.0873, -81.9619, 41.9035
5.528, 9, 32.4358, 53.2089, -5.41532, 85.0068, -82.0233, 41.968
5.532, 9, 32.4038, 53.1766, -5.30159, 84.9264, -82.0849, 42.0323
5.536, 9, 32.3718, 53.1442, -5.18796, 84.846, -82.1465, 42.0964
5.54, 9, 32.3397, 53.1119, -5.07443, 84.7657, -82.2083, 42.1604
5.544, 9, 32.3075, 53.0797, -4.96101, 84.6854, -82.2701, 42.2242
5.549, 10, 32.2753, 53.0474, -4.8477, 84.6052, -82.332, 42.2879
5.551, 10, 32.243, 53.0151, -4.73449, 84.525, -82.3941, 42.3514
5.556, 10, 32.2107, 52.9829, -4.62138, 84.4449, -82.4562, 42.4147
5.56, 10, 32.1783, 52.9507, -4.50837, 84.3648, -82.5185, 42.4778
5.564, 10, 32.1458, 52.9184, -4.39547, 84.2848, -82.5808, 42.5408
5.568, 10, 32.1132, 52.8862, -4.28267, 84.2048, -82.6432, 42.6037
5.572, 10, 32.0806, 52.8541, -4.16998, 84.1249, -82.7058, 42.6663
5.576, 10, 32.0479, 52.8219, -4.05738, 84.045, -82.7684, 42.7288
5.58, 10, 32.0152, 52.7897, -3.94489, 83.9651, -82.8311, 42.7912
5.584, 10, 31.9823, 52.7576, -3.8325, 83.8853, -82.8939, 42.8533
5.588, 10, 31.9494, 52.7254, -3.72021, 83.8056, -82.9568, 42.9153
5.592, 10, 31.9165, 52.6933, -3.60802, 83.7258, -83.0199, 42.9772
5.596, 10, 31.8834, 52.6612, -3.49593, 83.6462, -83.083, 43.0389
5.6, 10, 31.8503, 52.6291, -3.38393, 83.5666, -83.1462, 43.1004
5.604, 10, 31.8172, 52.597, -3.27204, 83.487, -83.2094, 43.1617
5.608, 10, 31.7839, 52.5649, -3.16025, 83.4074, -83.2728, 43.2229
5.612, 10, 31.7506, 52.5328, -3.04856, 83.3279, -83.3363, 43.2839
5.616, 10, 31.7172, 52.5008, -2.93696, 83.2485, -83.3999, 43.3448
5.62, 10, 31.6838, 52.4687, -2.82547, 83.169, -83.4636, 43.4055
5.624, 10, 31.6503, 52.4366, -2.71407, 83.0897, -83.5273, 43.466
5.628, 10, 31.6167, 52.4046, -2.60277, 83.0103, -83.5912, 43.5264
5.632, 10, 31.583, 52.3726, -2.49156, 82.931, -83.6551, 43.5866
5.636, 10, 31.5493, 52.3405, -2.38045, 82.8518, -83.7192, 43.6466
5.64, 10, 31.5155, 52.3085, -2.26944, 82.7726, -83.7833, 43.7065
5.644, 10, 31.4817, 52.2765, -2.15853, 82.6934, -83.8475, 43.7662
5.648, 10, 31.4477, 52.2445, -2.04771, 82.6142, -83.9118, 43.8257
5.652, 10, 31.4137, 52.2125, -1.93699, 82.5351, -83.9762, 43.8851
5.656, 10, 31.3796, 52.1805, -1.82636, 82.456, -84.0407, 43.9443
5.66, 10, 31.3455, 52.1485, -1.71583, 82.377, -84.1052, 44.0034
5.664, 10, 31.3113, 52.1165, -1.60539, 82.298, -84.1699, 44.0622
5.668, 10, 31.277, 52.0845, -1.49505, 82.219, -84.2347, 44.121
5.672, 10, 31.2427, 52.0525, -1.3848, 82.1401, -84.2995, 44.1795
5.676, 10, 31.2082, 52.0205, -1.27465, 82.0612, -84.3644, 44.2379
5.68, 10, 31.1737, 51.9886, -1.16457, 81.9823, -84.4295, 44.2961
5.684, 10, 31.139, 51.9565, -1.05457, 81.9035, -84.4946, 44.3542
5.688, 10, 31.1042, 51.9245, -0.944614, 81.8247, -84.5597, 44.4122
5.692, 10, 31.0693, 51.8923, -0.834664, 81.7458, -84.625, 44.47
5.696, 10, 31.0342, 51.86, -0.724669, 81.6669, -84.6902, 44.5279
5.7, 10, 30.9988, 51.8276, -0.614555, 81.5878, -84.7555, 44.5859
5.704, 10, 30.9633, 51.7949, -0.504234, 81.5085, -84.8207, 44.6442
5.708, 10, 30.9277, 51.762, -0.393595, 81.4288, -84.8858, 44.7031
5.712, 10, 30.8918, 51.7288, -0.28251, 81.3486, -84.9507, 44.7627
5.716, 10, 30.8558, 51.6953, -0.17083, 81.2677, -85.0152, 44.8234
5.72, 10, 30.8196, 51.6615, -0.0583951, 81.1859, -85.0793, 44.8856
5.724, 10, 30.7832, 51.6271, 0.0549667, 81.1029, -85.1428, 44.9496
5.728, 10, 30.7466, 51.5923, 0.169431, 81.0186, -85.2056, 45.0159
5.732, 10, 30.7098, 51.557, 0.285169, 80.9327, -85.2675, 45.0847
5.736, 10, 30.6727, 51.5211, 0.402339, 80.845, -85.3286, 45.1565
5.74, 10, 30.6355, 51.4847, 0.521082, 80.7553, -85.3886, 45.2316
5.744, 10, 30.598, 51.4477, 0.641509, 80.6634, -85.4474, 45.3103
5.748, 10, 30.5603, 51.4101, 0.763697, 80.5692, -85.5051, 45.3929
5.752, 10, 30.5224, 51.3719, 0.887689, 80.4727, -85.5616, 45.4794
5.756, 10, 30.4843, 51.3331, 1.01348, 80.3737, -85.6169, 45.5699
5.76, 10, 30.446, 51.2937, 1.14104, 80.2725, -85.6711, 45.6643
5.764, 10, 30.4075, 51.2538, 1.27028, 80.1689, -85.7242, 45.7625
5.768, 10, 30.3688, 51.2133, 1.4011, 80.0633, -85.7764, 45.8642
5.772, 10, 30.3298, 51.1723, 1.53333, 79.9557, -85.8277, 45.9691
5.776, 10, 30.2906, 51.1308, 1.66683, 79.8464, -85.8783, 46.0769
5.78, 10, 30.2511, 51.0889, 1.80141, 79.7355, -85.9283, 46.1872
5.784, 10, 30.2115, 51.0466, 1.93687, 79.6233, -85.9779, 46.2997
5.788, 10, 30.1716, 51.0041, 2.07304, 79.51, -86.0272, 46.4139
5.792, 10, 30.1315, 50.9614, 2.20972, 79.3959, -86.0763, 46.5296
5.796, 10, 30.0912, 50.9186, 2.34676, 79.2811, -86.1253, 46.6463
5.8, 10, 30.0506, 50.8757, 2.48401, 79.1658, -86.1743, 46.7637
5.804, 10, 30.0097, 50.8327, 2.62133, 79.0501, -86.2235, 46.8817
5.808, 10, 29.9685, 50.7898, 2.75863, 78.9342, -86.2728, 47.0001
5.812, 10, 29.9272, 50.747, 2.8958, 78.8182, -86.3223, 47.1186
5.816, 10, 29.8856, 50.7042, 3.03278, 78.702, -86.3721, 47.2371
5.82, 10, 29.8439, 50.6617, 3.16953, 78.5859, -86.4221, 47.3557
5.824, 10, 29.802, 50.6193, 3.306, 78.4698, -86.4725, 47.4741
5.828, 10, 29.7599, 50.5771, 3.44217, 78.3537, -86.5231, 47.5925
5.832, 10, 29.7177, 50.5351, 3.57803, 78.2376, -86.574, 47.7108
5.836, 10, 29.6753, 50.4934, 3.71357, 78.1216, -86.6252, 47.8289
5.84, 10, 29.6328, 50.4518, 3.84877, 78.0056, -86.6767, 47.9468
5.844, 10, 29.5902, 50.4105, 3.98363, 77.8897, -86.7285, 48.0646
5.848, 10, 29.5474, 50.3694, 4.11816, 77.7738, -86.7806, 48.1822
5.852, 10, 29.5045, 50.3286, 4.25234, 77.6581, -86.833, 48.2997
5.856, 10, 29.4615, 50.288, 4.38619, 77.5424, -86.8858, 48.417
5.86, 10, 29.4184, 50.2476, 4.51969, 77.4267, -86.9388, 48.5341
5.864, 10, 29.3751, 50.2074, 4.65285, 77.3111, -86.9922, 48.651
5.868, 10, 29.3317, 50.1675, 4.78567, 77.1956, -87.0458, 48.7677
5.872, 10, 29.2881, 50.1278, 4.91814, 77.0802, -87.0998, 48.8843
5.876, 10, 29.2445, 50.0882, 5.05028, 76.9648, -87.154, 49.0007
5.88, 10, 29.2008, 50.0488, 5.18207, 76.8495, -87.2086, 49.1169
5.884, 10, 29.1569, 50.0095, 5.31353, 76.7343, -87.2634, 49.233
5.888, 10, 29.1131, 49.9702, 5.44465, 76.6193, -87.3185, 49.3488
5.892, 10, 29.0691, 49.9308, 5.57543, 76.5044, -87.3737, 49.4644
5.896, 10, 29.0252, 49.8912, 5.70587, 76.3897, -87.4291, 49.5798
5.9, 10, 28.9812, 49.8514, 5.83598, 76.2754, -87.4845, 49.6949
5.904, 10, 28.9371, 49.8113, 5.96575, 76.1614, -87.5397, 49.8097
5.908, 10, 28.8931, 49.7709, 6.09518, 76.0479, -87.5947, 49.9241
5.912, 10, 28.849, 49.73, 6.22428, 75.9351, -87.6492, 50.0382
5.916, 10, 28.8048, 49.6887, 6.35305, 75.823, -87.7032, 50.1518
5.92, 10, 28.7606, 49.6469, 6.48148, 75.7119, -87.7564, 50.2648
5.924, 10, 28.7163, 49.6046, 6.60957, 75.6017, -87.8086, 50.3773
5.928, 10, 28.672, 49.562, 6.73733, 75.4927, -87.8597, 50.4891
5.932, 10, 28.6276, 49.519, 6.86476, 75.3849, -87.9094, 50.6001
5.936, 10, 28.5831, 49.4757, 6.99185, 75.2785, -87.9577, 50.7105
5.94, 10, 28.5384, 49.4322, 7.11862, 75.1736, -88.0045, 50.82
5.944, 10, 28.4936, 49.3884, 7.24505, 75.0701, -88.0495, 50.9287
5.948, 10, 28.4486, 49.3445, 7.37116, 74.9682, -88.0928, 51.0365
5.952, 10, 28.4035, 49.3003, 7.49694, 74.8679, -88.1343, 51.1435
5.956, 10, 28.3582, 49.256, 7.6224, 74.769, -88.1741, 51.2496
5.96, 10, 28.3128, 49.2113, 7.74755, 74.6716, -88.2122, 51.355
5.964, 10, 28.2672, 49.1663, 7.87238, 74.5755, -88.2488, 51.4596
5.968, 10, 28.2215, 49.1209, 7.99691, 74.4807, -88.2839, 51.5636
5.972, 10, 28.1757, 49.075, 8.12114, 74.387, -88.3178, 51.6669
5.976, 10, 28.1299, 49.0287, 8.24507, 74.2943, -88.3506, 51.7696
5.98, 10, 28.084, 48.9819, 8.36872, 74.2024, -88.3824, 51.8718
5.984, 10, 28.038, 48.9346, 8.49208, 74.1113, -88.4135, 51.9736
5.988, 10, 27.992, 48.8868, 8.61517, 74.0208, -88.4439, 52.075
5.992, 10, 27.946, 48.8386, 8.73798, 73.9307, -88.4739, 52.176
5.996, 10, 27.8999, 48.7901, 8.86052, 73.841, -88.5035, 52.2768
6, 10, 27.8539, 48.7412, 8.98279, 73.7516, -88.533, 52.3774
6.004, 10, 27.8078, 48.692, 9.1048, 73.6624, -88.5624, 52.4778
6.008, 10, 27.7618, 48.6427, 9.22655, 73.5733, -88.5918, 52.5779
6.012, 10, 27.7157, 48.5933, 9.34804, 73.4842, -88.6212, 52.678
6.016, 10, 27.6695, 48.5439, 9.46926, 73.3952, -88.6507, 52.7779
6.02, 10, 27.6233, 48.4945, 9.59024, 73.3063, -88.6804, 52.8776
6.024, 10, 27.577, 48.4452, 9.71095, 73.2173, -88.7101, 52.9772
6.028, 10, 27.5306, 48.396, 9.83141, 73.1284, -88.74, 53.0767
6.032, 10, 27.4841, 48.347, 9.95161, 73.0394, -88.7701, 53.1761
6.036, 10, 27.4376, 48.298, 10.0716, 72.9504, -88.8003, 53.2753
6.04, 10, 27.3909, 48.2492, 10.1912, 72.8615, -88.8306, 53.3744
6.044, 10, 27.3441, 48.2005, 10.3107, 72.7725, -88.8611, 53.4735
6.048, 10, 27.2973, 48.152, 10.4299, 72.6835, -88.8918, 53.5723
6.052, 11, 27.2503, 48.1036, 10.5488, 72.5945, -88.9227, 53.6711
