hehonglu123/Motion-Primitive-Planning/simulation/robotstudio_sim/scripts/fitting_output/threshold0.5/curve_exe_v5000_z1.csv
timestamp, cmd_num, J1, J2, J3, J4, J5, J6
0, 1, -0.874649, 64.1352, 8.9035, 44.2849, -96.0792, 168.995
0.002, 1, -0.874649, 64.1352, 8.9035, 44.2849, -96.0792, 168.995
0.004, 1, -0.874649, 64.1352, 8.9035, 44.2849, -96.0792, 168.995
0.008, 1, -0.874649, 64.1352, 8.9035, 44.2849, -96.0792, 168.995
0.011, 1, -0.874649, 64.1352, 8.9035, 44.2849, -96.0792, 168.995
0.016, 1, -0.874649, 64.1352, 8.9035, 44.2849, -96.0792, 168.995
0.02, 1, -0.874649, 64.1352, 8.9035, 44.2849, -96.0792, 168.995
0.024, 1, -0.874649, 64.1352, 8.9035, 44.2849, -96.0792, 168.995
0.028, 1, -0.874649, 64.1352, 8.9035, 44.2849, -96.0792, 168.995
0.032, 1, -0.874649, 64.1352, 8.9035, 44.2849, -96.0792, 168.995
0.036, 1, -0.87464, 64.1352, 8.9035, 44.2849, -96.0792, 168.995
0.04, 1, -0.874576, 64.1352, 8.90351, 44.2849, -96.0792, 168.995
0.044, 1, -0.874353, 64.1351, 8.90351, 44.2849, -96.0792, 168.995
0.048, 1, -0.873827, 64.135, 8.90353, 44.2849, -96.0792, 168.995
0.052, 1, -0.872854, 64.1347, 8.90356, 44.285, -96.0792, 168.995
0.056, 1, -0.871327, 64.1342, 8.90359, 44.2851, -96.0791, 168.995
0.06, 1, -0.869169, 64.1334, 8.90361, 44.2853, -96.0789, 168.994
0.064, 1, -0.866332, 64.1323, 8.90357, 44.2858, -96.0785, 168.993
0.068, 1, -0.86278, 64.1309, 8.90342, 44.2866, -96.0778, 168.991
0.072, 1, -0.858465, 64.1291, 8.90311, 44.2879, -96.0768, 168.988
0.076, 1, -0.85329, 64.1267, 8.90255, 44.2899, -96.0751, 168.983
0.08, 1, -0.847097, 64.1238, 8.90164, 44.2928, -96.0727, 168.976
0.084, 1, -0.839686, 64.1203, 8.90026, 44.2969, -96.0693, 168.967
0.088, 1, -0.830855, 64.116, 8.89829, 44.3025, -96.0646, 168.954
0.092, 1, -0.820446, 64.1109, 8.89558, 44.3099, -96.0584, 168.937
0.096, 1, -0.808352, 64.105, 8.89194, 44.3196, -96.0503, 168.914
0.1, 1, -0.794488, 64.0982, 8.8872, 44.3318, -96.0401, 168.886
0.104, 1, -0.778753, 64.0906, 8.88118, 44.3469, -96.0274, 168.851
0.108, 1, -0.761015, 64.0819, 8.87371, 44.3654, -96.0119, 168.808
0.112, 1, -0.741143, 64.0722, 8.86463, 44.3876, -95.9933, 168.757
0.116, 1, -0.719055, 64.0616, 8.85379, 44.4138, -95.9714, 168.696
0.12, 1, -0.69473, 64.05, 8.84104, 44.4442, -95.9458, 168.626
0.124, 1, -0.668195, 64.0377, 8.82628, 44.4792, -95.9165, 168.545
0.128, 1, -0.639496, 64.0247, 8.80941, 44.5189, -95.8831, 168.454
0.131, 1, -0.60868, 64.0112, 8.79038, 44.5633, -95.8458, 168.351
0.136, 1, -0.575786, 63.9972, 8.76919, 44.6126, -95.8045, 168.237
0.139, 1, -0.540816, 63.9825, 8.74588, 44.6665, -95.7591, 168.113
0.144, 1, -0.503733, 63.9672, 8.72051, 44.725, -95.71, 167.978
0.148, 1, -0.4645, 63.951, 8.69322, 44.7879, -95.6572, 167.833
0.152, 1, -0.423132, 63.9338, 8.66413, 44.8547, -95.601, 167.679
0.156, 1, -0.379725, 63.9157, 8.63342, 44.9253, -95.5418, 167.517
0.16, 1, -0.334411, 63.8967, 8.60124, 44.9991, -95.4797, 167.346
0.164, 1, -0.287312, 63.8769, 8.56779, 45.0759, -95.4152, 167.169
0.168, 1, -0.238506, 63.8562, 8.53325, 45.1552, -95.3486, 166.987
0.172, 1, -0.188062, 63.8347, 8.49783, 45.2366, -95.2802, 166.799
0.176, 1, -0.136074, 63.8123, 8.4617, 45.3197, -95.2103, 166.607
0.18, 1, -0.0826734, 63.7893, 8.42503, 45.4042, -95.1393, 166.412
0.184, 1, -0.0280023, 63.7655, 8.38795, 45.4898, -95.0674, 166.215
0.188, 1, 0.0277914, 63.7411, 8.35059, 45.5762, -94.9948, 166.016
0.192, 1, 0.0845509, 63.7162, 8.31303, 45.6632, -94.9217, 165.815
0.196, 1, 0.142118, 63.6909, 8.27532, 45.7507, -94.8483, 165.614
0.2, 1, 0.200363, 63.6652, 8.23753, 45.8384, -94.7746, 165.411
0.204, 1, 0.259195, 63.6393, 8.19968, 45.9263, -94.7007, 165.208
0.208, 1, 0.318538, 63.6132, 8.16181, 46.0144, -94.6268, 165.005
0.212, 1, 0.378302, 63.5869, 8.12392, 46.1025, -94.5528, 164.802
0.216, 1, 0.438378, 63.5606, 8.08603, 46.1907, -94.4787, 164.599
0.22, 1, 0.498665, 63.5342, 8.04816, 46.2789, -94.4047, 164.395
0.224, 1, 0.559085, 63.5077, 8.01029, 46.367, -94.3307, 164.192
0.228, 1, 0.619583, 63.4812, 7.97244, 46.4551, -94.2566, 163.989
0.232, 1, 0.680124, 63.4548, 7.93461, 46.5432, -94.1826, 163.785
0.236, 1, 0.740682, 63.4283, 7.8968, 46.6313, -94.1087, 163.582
0.24, 1, 0.80124, 63.4018, 7.85901, 46.7193, -94.0348, 163.379
0.244, 1, 0.861788, 63.3753, 7.82123, 46.8073, -93.9609, 163.176
0.248, 1, 0.922316, 63.3488, 7.78348, 46.8952, -93.887, 162.973
0.252, 1, 0.982821, 63.3224, 7.74575, 46.9831, -93.8132, 162.771
0.256, 1, 1.0433, 63.2959, 7.70804, 47.0709, -93.7395, 162.568
0.26, 1, 1.10374, 63.2695, 7.67035, 47.1587, -93.6658, 162.365
0.264, 1, 1.16416, 63.2431, 7.63269, 47.2464, -93.5921, 162.163
0.268, 1, 1.22454, 63.2167, 7.59505, 47.3341, -93.5185, 161.961
0.272, 1, 1.28489, 63.1903, 7.55742, 47.4217, -93.4449, 161.759
0.276, 1, 1.3452, 63.164, 7.51983, 47.5093, -93.3713, 161.557
0.28, 1, 1.40547, 63.1376, 7.48225, 47.5968, -93.2978, 161.355
0.284, 1, 1.46572, 63.1113, 7.4447, 47.6843, -93.2244, 161.153
0.288, 1, 1.52592, 63.0849, 7.40717, 47.7717, -93.151, 160.951
0.292, 1, 1.58609, 63.0586, 7.36966, 47.859, -93.0776, 160.75
0.296, 1, 1.64622, 63.0323, 7.33217, 47.9463, -93.0043, 160.548
0.3, 1, 1.70632, 63.0061, 7.29471, 48.0336, -92.931, 160.347
0.304, 1, 1.76638, 62.9798, 7.25727, 48.1208, -92.8578, 160.146
0.308, 1, 1.8264, 62.9536, 7.21985, 48.2079, -92.7846, 159.945
0.312, 1, 1.88639, 62.9273, 7.18246, 48.295, -92.7114, 159.744
0.316, 1, 1.94634, 62.9011, 7.14509, 48.3821, -92.6383, 159.543
0.32, 1, 2.00625, 62.8749, 7.10774, 48.4691, -92.5653, 159.343
0.324, 1, 2.06612, 62.8488, 7.07042, 48.556, -92.4923, 159.142
0.328, 1, 2.12596, 62.8226, 7.03312, 48.6429, -92.4193, 158.942
0.332, 1, 2.18576, 62.7965, 6.99584, 48.7297, -92.3464, 158.741
0.336, 1, 2.24552, 62.7703, 6.95859, 48.8164, -92.2735, 158.541
0.34, 1, 2.30524, 62.7442, 6.92136, 48.9031, -92.2007, 158.341
0.344, 1, 2.36493, 62.7181, 6.88415, 48.9898, -92.1279, 158.141
0.348, 1, 2.42457, 62.6921, 6.84697, 49.0764, -92.0552, 157.941
0.352, 1, 2.48418, 62.666, 6.80981, 49.1629, -91.9825, 157.742
0.356, 1, 2.54375, 62.64, 6.77268, 49.2494, -91.9099, 157.542
0.36, 1, 2.60328, 62.6139, 6.73557, 49.3359, -91.8373, 157.343
0.364, 1, 2.66277, 62.5879, 6.69848, 49.4222, -91.7647, 157.144
0.368, 1, 2.72223, 62.5619, 6.66142, 49.5086, -91.6922, 156.944
0.372, 1, 2.78164, 62.5359, 6.62438, 49.5948, -91.6198, 156.745
0.376, 1, 2.84102, 62.51, 6.58737, 49.681, -91.5474, 156.547
0.38, 1, 2.90035, 62.484, 6.55038, 49.7672, -91.4751, 156.348
0.384, 1, 2.95965, 62.4581, 6.51341, 49.8533, -91.4027, 156.149
0.388, 1, 3.01891, 62.4322, 6.47647, 49.9393, -91.3305, 155.951
0.392, 1, 3.07812, 62.4063, 6.43956, 50.0253, -91.2583, 155.752
0.396, 1, 3.1373, 62.3805, 6.40267, 50.1112, -91.1861, 155.554
0.4, 1, 3.19644, 62.3546, 6.3658, 50.1971, -91.114, 155.356
0.404, 1, 3.25554, 62.3288, 6.32896, 50.2829, -91.042, 155.158
0.408, 1, 3.3146, 62.3029, 6.29214, 50.3686, -90.9699, 154.96
0.412, 1, 3.37362, 62.2771, 6.25535, 50.4543, -90.898, 154.763
0.416, 1, 3.43259, 62.2514, 6.21859, 50.54, -90.8261, 154.565
0.42, 1, 3.49153, 62.2256, 6.18185, 50.6255, -90.7542, 154.368
0.424, 1, 3.55043, 62.1998, 6.14513, 50.711, -90.6824, 154.17
0.428, 1, 3.60929, 62.1741, 6.10844, 50.7965, -90.6106, 153.973
0.432, 1, 3.6681, 62.1484, 6.07178, 50.8819, -90.5389, 153.776
0.436, 1, 3.72688, 62.1227, 6.03514, 50.9672, -90.4672, 153.579
0.44, 1, 3.78561, 62.097, 5.99853, 51.0525, -90.3956, 153.383
0.444, 1, 3.8443, 62.0714, 5.96194, 51.1377, -90.324, 153.186
0.448, 1, 3.90295, 62.0457, 5.92538, 51.2229, -90.2525, 152.99
0.452, 1, 3.96156, 62.0201, 5.88884, 51.308, -90.1811, 152.793
0.456, 1, 4.02013, 61.9945, 5.85233, 51.393, -90.1096, 152.597
0.46, 1, 4.07866, 61.9689, 5.81585, 51.478, -90.0383, 152.401
0.464, 1, 4.13714, 61.9433, 5.77939, 51.5629, -89.967, 152.205
0.468, 1, 4.19559, 61.9178, 5.74296, 51.6477, -89.8957, 152.01
0.472, 1, 4.25399, 61.8923, 5.70655, 51.7325, -89.8245, 151.814
0.476, 1, 4.31235, 61.8667, 5.67017, 51.8173, -89.7533, 151.618
0.48, 1, 4.37067, 61.8412, 5.63382, 51.9019, -89.6822, 151.423
0.484, 1, 4.42894, 61.8158, 5.59749, 51.9865, -89.6112, 151.228
0.488, 1, 4.48717, 61.7903, 5.56119, 52.0711, -89.5402, 151.033
0.492, 1, 4.54537, 61.7649, 5.52491, 52.1556, -89.4692, 150.838
0.496, 1, 4.60351, 61.7394, 5.48867, 52.24, -89.3983, 150.643
0.5, 1, 4.66162, 61.714, 5.45245, 52.3244, -89.3275, 150.449
0.504, 1, 4.71968, 61.6887, 5.41625, 52.4087, -89.2567, 150.254
0.508, 1, 4.7777, 61.6633, 5.38008, 52.4929, -89.1859, 150.06
0.512, 1, 4.83568, 61.6379, 5.34394, 52.5771, -89.1152, 149.866
0.516, 1, 4.89361, 61.6126, 5.30783, 52.6612, -89.0446, 149.672
0.52, 1, 4.9515, 61.5873, 5.27174, 52.7452, -88.974, 149.478
0.524, 1, 5.00935, 61.562, 5.23568, 52.8292, -88.9035, 149.284
0.528, 1, 5.06715, 61.5368, 5.19965, 52.9131, -88.833, 149.09
0.532, 1, 5.12492, 61.5115, 5.16364, 52.997, -88.7625, 148.897
0.536, 1, 5.18263, 61.4863, 5.12767, 53.0808, -88.6922, 148.704
0.54, 1, 5.24031, 61.4611, 5.09171, 53.1645, -88.6218, 148.51
0.544, 1, 5.29794, 61.4359, 5.05579, 53.2482, -88.5516, 148.317
0.548, 1, 5.35552, 61.4107, 5.01989, 53.3318, -88.4814, 148.125
0.552, 1, 5.41307, 61.3855, 4.98402, 53.4153, -88.4112, 147.932
0.556, 1, 5.47056, 61.3604, 4.94818, 53.4988, -88.3411, 147.739
0.56, 1, 5.52802, 61.3353, 4.91237, 53.5822, -88.271, 147.547
0.564, 1, 5.58543, 61.3102, 4.87658, 53.6656, -88.201, 147.355
0.568, 1, 5.64279, 61.2851, 4.84082, 53.7489, -88.1311, 147.162
0.572, 1, 5.70012, 61.26, 4.80509, 53.8321, -88.0612, 146.97
0.576, 1, 5.75739, 61.235, 4.76938, 53.9153, -87.9914, 146.779
0.58, 1, 5.81463, 61.21, 4.73371, 53.9983, -87.9216, 146.587
0.584, 1, 5.87181, 61.185, 4.69806, 54.0814, -87.8518, 146.395
0.588, 1, 5.92896, 61.16, 4.66244, 54.1643, -87.7822, 146.204
0.592, 1, 5.98605, 61.135, 4.62684, 54.2472, -87.7125, 146.013
0.596, 1, 6.04311, 61.1101, 4.59128, 54.3301, -87.643, 145.822
0.6, 1, 6.10012, 61.0852, 4.55574, 54.4128, -87.5735, 145.631
0.604, 1, 6.15708, 61.0603, 4.52023, 54.4955, -87.504, 145.44
0.608, 1, 6.214, 61.0354, 4.48475, 54.5782, -87.4346, 145.249
0.612, 1, 6.27087, 61.0105, 4.4493, 54.6608, -87.3653, 145.059
0.616, 1, 6.3277, 60.9857, 4.41387, 54.7433, -87.296, 144.868
0.62, 1, 6.38449, 60.9608, 4.37848, 54.8257, -87.2267, 144.678
0.624, 1, 6.44122, 60.936, 4.34311, 54.9081, -87.1575, 144.488
0.628, 1, 6.49792, 60.9112, 4.30777, 54.9904, -87.0884, 144.298
0.632, 1, 6.55456, 60.8865, 4.27246, 55.0726, -87.0194, 144.109
0.636, 1, 6.61117, 60.8617, 4.23717, 55.1548, -86.9503, 143.919
0.64, 1, 6.66772, 60.837, 4.20192, 55.2369, -86.8814, 143.73
0.644, 1, 6.72423, 60.8123, 4.16669, 55.319, -86.8125, 143.54
0.648, 1, 6.7807, 60.7876, 4.1315, 55.4009, -86.7436, 143.351
0.652, 1, 6.83711, 60.763, 4.09633, 55.4828, -86.6748, 143.162
0.656, 1, 6.89349, 60.7383, 4.06119, 55.5647, -86.6061, 142.973
0.66, 1, 6.94981, 60.7137, 4.02608, 55.6465, -86.5374, 142.785
0.664, 1, 7.00609, 60.6891, 3.99099, 55.7282, -86.4688, 142.596
0.668, 1, 7.06233, 60.6645, 3.95594, 55.8098, -86.4002, 142.408
0.672, 1, 7.11851, 60.6399, 3.92092, 55.8914, -86.3317, 142.22
0.676, 1, 7.17465, 60.6154, 3.88592, 55.9729, -86.2633, 142.032
0.68, 1, 7.23075, 60.5909, 3.85095, 56.0543, -86.1949, 141.844
0.684, 1, 7.2868, 60.5664, 3.81602, 56.1357, -86.1265, 141.656
0.688, 1, 7.3428, 60.5419, 3.78111, 56.217, -86.0583, 141.469
0.692, 1, 7.39875, 60.5174, 3.74623, 56.2982, -85.99, 141.281
0.696, 1, 7.45466, 60.493, 3.71138, 56.3794, -85.9219, 141.094
0.7, 1, 7.51052, 60.4686, 3.67656, 56.4605, -85.8538, 140.907
0.704, 1, 7.56634, 60.4442, 3.64176, 56.5416, -85.7857, 140.72
0.708, 1, 7.62211, 60.4198, 3.607, 56.6225, -85.7177, 140.533
0.712, 1, 7.67783, 60.3954, 3.57227, 56.7034, -85.6498, 140.346
0.716, 1, 7.7335, 60.3711, 3.53756, 56.7842, -85.5819, 140.16
0.72, 1, 7.78913, 60.3468, 3.50289, 56.865, -85.514, 139.974
0.724, 1, 7.84471, 60.3225, 3.46824, 56.9457, -85.4463, 139.788
0.728, 1, 7.90024, 60.2982, 3.43363, 57.0263, -85.3786, 139.602
0.732, 1, 7.95573, 60.2739, 3.39904, 57.1069, -85.3109, 139.416
0.736, 1, 8.01117, 60.2497, 3.36448, 57.1874, -85.2433, 139.23
0.74, 1, 8.06656, 60.2255, 3.32996, 57.2678, -85.1758, 139.045
0.744, 1, 8.1219, 60.2013, 3.29546, 57.3481, -85.1083, 138.859
0.748, 1, 8.1772, 60.1771, 3.26099, 57.4284, -85.0409, 138.674
0.752, 1, 8.23245, 60.153, 3.22655, 57.5086, -84.9735, 138.489
0.756, 1, 8.28765, 60.1288, 3.19214, 57.5888, -84.9062, 138.304
0.76, 1, 8.3428, 60.1047, 3.15776, 57.6688, -84.839, 138.119
0.764, 1, 8.39791, 60.0806, 3.12341, 57.7488, -84.7718, 137.935
0.768, 1, 8.45297, 60.0565, 3.08909, 57.8288, -84.7046, 137.75
0.772, 1, 8.50798, 60.0325, 3.0548, 57.9086, -84.6376, 137.566
0.776, 1, 8.56294, 60.0085, 3.02054, 57.9884, -84.5706, 137.382
0.78, 1, 8.61786, 59.9845, 2.98631, 58.0681, -84.5036, 137.198
0.784, 1, 8.67273, 59.9605, 2.95211, 58.1478, -84.4367, 137.014
0.788, 1, 8.72755, 59.9365, 2.91794, 58.2274, -84.3699, 136.831
0.792, 1, 8.78232, 59.9126, 2.8838, 58.3069, -84.3031, 136.647
0.796, 1, 8.83705, 59.8886, 2.84969, 58.3864, -84.2364, 136.464
0.8, 1, 8.89172, 59.8647, 2.8156, 58.4657, -84.1697, 136.281
0.804, 1, 8.94635, 59.8409, 2.78155, 58.545, -84.1031, 136.098
0.808, 1, 9.00093, 59.817, 2.74753, 58.6243, -84.0365, 135.915
0.812, 1, 9.05547, 59.7932, 2.71354, 58.7034, -83.9701, 135.733
0.816, 1, 9.10995, 59.7693, 2.67958, 58.7825, -83.9036, 135.55
0.82, 1, 9.16439, 59.7455, 2.64565, 58.8616, -83.8373, 135.368
0.824, 1, 9.21878, 59.7218, 2.61175, 58.9405, -83.7709, 135.186
0.828, 1, 9.27312, 59.698, 2.57787, 59.0194, -83.7047, 135.004
0.832, 1, 9.32741, 59.6743, 2.54403, 59.0982, -83.6385, 134.822
0.836, 1, 9.38166, 59.6506, 2.51022, 59.177, -83.5724, 134.64
0.84, 1, 9.43585, 59.6269, 2.47644, 59.2557, -83.5063, 134.459
0.844, 1, 9.49, 59.6032, 2.44269, 59.3343, -83.4403, 134.277
0.848, 1, 9.5441, 59.5795, 2.40897, 59.4128, -83.3743, 134.096
0.852, 1, 9.59815, 59.5559, 2.37528, 59.4913, -83.3084, 133.915
0.856, 1, 9.65215, 59.5323, 2.34162, 59.5697, -83.2426, 133.734
0.86, 1, 9.70611, 59.5087, 2.30798, 59.648, -83.1768, 133.553
0.864, 1, 9.76001, 59.4852, 2.27438, 59.7263, -83.111, 133.373
0.868, 1, 9.81387, 59.4616, 2.24081, 59.8045, -83.0454, 133.193
0.872, 1, 9.86768, 59.4381, 2.20727, 59.8826, -82.9798, 133.012
0.876, 1, 9.92144, 59.4146, 2.17376, 59.9606, -82.9142, 132.832
0.88, 1, 9.97516, 59.3911, 2.14028, 60.0386, -82.8487, 132.652
0.884, 1, 10.0288, 59.3676, 2.10683, 60.1165, -82.7833, 132.473
0.888, 1, 10.0824, 59.3442, 2.07341, 60.1943, -82.7179, 132.293
0.892, 1, 10.136, 59.3208, 2.04002, 60.2721, -82.6526, 132.114
0.896, 1, 10.1895, 59.2974, 2.00666, 60.3498, -82.5874, 131.934
0.9, 1, 10.243, 59.274, 1.97333, 60.4274, -82.5222, 131.755
0.904, 1, 10.2964, 59.2507, 1.94004, 60.505, -82.4571, 131.576
0.908, 1, 10.3498, 59.2273, 1.90677, 60.5825, -82.392, 131.398
0.912, 1, 10.4031, 59.204, 1.87353, 60.6599, -82.327, 131.219
0.916, 1, 10.4564, 59.1807, 1.84032, 60.7372, -82.262, 131.041
0.92, 1, 10.5096, 59.1575, 1.80714, 60.8145, -82.1971, 130.862
0.924, 1, 10.5628, 59.1342, 1.774, 60.8917, -82.1323, 130.684
0.928, 1, 10.6159, 59.111, 1.74088, 60.9688, -82.0675, 130.506
0.932, 1, 10.669, 59.0878, 1.70779, 61.0459, -82.0028, 130.329
0.936, 1, 10.7221, 59.0646, 1.67473, 61.1229, -81.9381, 130.151
0.94, 1, 10.775, 59.0414, 1.64171, 61.1998, -81.8735, 129.974
0.944, 1, 10.828, 59.0183, 1.60871, 61.2767, -81.809, 129.796
0.948, 1, 10.8809, 58.9952, 1.57575, 61.3535, -81.7445, 129.619
0.952, 1, 10.9337, 58.9721, 1.54281, 61.4302, -81.6801, 129.442
0.956, 1, 10.9865, 58.949, 1.5099, 61.5068, -81.6157, 129.265
0.96, 1, 11.0392, 58.9259, 1.47703, 61.5834, -81.5514, 129.089
0.964, 1, 11.0919, 58.9029, 1.44419, 61.6599, -81.4872, 128.912
0.968, 1, 11.1446, 58.8799, 1.41137, 61.7363, -81.423, 128.736
0.972, 1, 11.1972, 58.8569, 1.37859, 61.8126, -81.3588, 128.56
0.976, 1, 11.2497, 58.8339, 1.34583, 61.8889, -81.2948, 128.384
0.98, 1, 11.3022, 58.811, 1.31311, 61.9651, -81.2308, 128.208
0.984, 1, 11.3547, 58.788, 1.28042, 62.0413, -81.1668, 128.032
0.988, 1, 11.4071, 58.7651, 1.24775, 62.1174, -81.1029, 127.857
0.992, 1, 11.4594, 58.7422, 1.21512, 62.1934, -81.0391, 127.682
0.996, 1, 11.5117, 58.7194, 1.18252, 62.2693, -80.9753, 127.506
1, 1, 11.564, 58.6965, 1.14995, 62.3452, -80.9116, 127.331
1.004, 1, 11.6162, 58.6737, 1.1174, 62.421, -80.848, 127.157
1.008, 1, 11.6684, 58.6509, 1.08489, 62.4967, -80.7844, 126.982
1.012, 1, 11.7205, 58.6281, 1.05241, 62.5723, -80.7208, 126.807
1.016, 1, 11.7725, 58.6054, 1.01996, 62.6479, -80.6574, 126.633
1.02, 1, 11.8246, 58.5826, 0.98754, 62.7234, -80.5939, 126.459
1.024, 1, 11.8765, 58.5599, 0.95515, 62.7989, -80.5306, 126.285
1.027, 1, 11.9284, 58.5372, 0.92279, 62.8742, -80.4673, 126.111
1.032, 1, 11.9803, 58.5145, 0.89046, 62.9495, -80.404, 125.937
1.036, 1, 12.0321, 58.4919, 0.858161, 63.0248, -80.3409, 125.764
1.04, 1, 12.0839, 58.4693, 0.825891, 63.0999, -80.2777, 125.59
1.044, 1, 12.1356, 58.4466, 0.793652, 63.175, -80.2147, 125.417
1.048, 1, 12.1873, 58.4241, 0.761443, 63.25, -80.1517, 125.244
1.052, 1, 12.2389, 58.4015, 0.729265, 63.325, -80.0887, 125.071
1.055, 1, 12.2905, 58.3789, 0.697117, 63.3998, -80.0259, 124.898
1.06, 1, 12.342, 58.3564, 0.664998, 63.4746, -79.963, 124.726
1.064, 1, 12.3935, 58.3339, 0.632911, 63.5494, -79.9003, 124.553
1.068, 1, 12.445, 58.3114, 0.600853, 63.624, -79.8376, 124.381
1.072, 1, 12.4963, 58.289, 0.568825, 63.6986, -79.7749, 124.209
1.076, 1, 12.5477, 58.2665, 0.536828, 63.7732, -79.7123, 124.037
1.08, 1, 12.599, 58.2441, 0.504861, 63.8476, -79.6498, 123.865
1.084, 1, 12.6502, 58.2217, 0.472924, 63.922, -79.5873, 123.694
1.088, 1, 12.7014, 58.1993, 0.441017, 63.9963, -79.5249, 123.522
1.091, 1, 12.7525, 58.177, 0.40914, 64.0706, -79.4626, 123.351
1.096, 1, 12.8036, 58.1546, 0.377294, 64.1447, -79.4003, 123.18
1.1, 1, 12.8547, 58.1323, 0.345477, 64.2188, -79.338, 123.009
1.104, 1, 12.9057, 58.11, 0.313691, 64.2929, -79.2759, 122.838
1.108, 1, 12.9566, 58.0877, 0.281935, 64.3668, -79.2137, 122.668
1.112, 1, 13.0075, 58.0655, 0.250208, 64.4407, -79.1517, 122.497
1.116, 1, 13.0584, 58.0433, 0.218512, 64.5145, -79.0897, 122.327
1.119, 1, 13.1092, 58.0211, 0.186846, 64.5883, -79.0277, 122.157
1.124, 1, 13.16, 57.9989, 0.155209, 64.662, -78.9659, 121.987
1.128, 1, 13.2107, 57.9767, 0.123603, 64.7356, -78.904, 121.817
1.132, 1, 13.2613, 57.9546, 0.0920261, 64.8091, -78.8423, 121.647
1.136, 1, 13.312, 57.9324, 0.0604794, 64.8826, -78.7806, 121.478
1.14, 1, 13.3625, 57.9103, 0.0289625, 64.956, -78.7189, 121.308
1.144, 1, 13.413, 57.8882, -0.00252446, 65.0294, -78.6573, 121.139
1.147, 1, 13.4635, 57.8662, -0.0339817, 65.1026, -78.5958, 120.97
1.152, 1, 13.5139, 57.8441, -0.0654091, 65.1758, -78.5343, 120.801
1.156, 1, 13.5643, 57.8221, -0.0968067, 65.2489, -78.4729, 120.633
1.16, 1, 13.6147, 57.8001, -0.128175, 65.322, -78.4116, 120.464
1.164, 1, 13.6649, 57.7781, -0.159513, 65.395, -78.3503, 120.296
1.168, 1, 13.7152, 57.7562, -0.190821, 65.4679, -78.289, 120.127
1.172, 1, 13.7654, 57.7342, -0.2221, 65.5408, -78.2278, 119.959
1.175, 1, 13.8155, 57.7123, -0.253349, 65.6135, -78.1667, 119.791
1.18, 1, 13.8656, 57.6904, -0.284569, 65.6863, -78.1056, 119.624
1.184, 1, 13.9156, 57.6685, -0.315759, 65.7589, -78.0446, 119.456
1.188, 1, 13.9656, 57.6467, -0.346919, 65.8315, -77.9837, 119.289
1.192, 1, 14.0156, 57.6249, -0.37805, 65.904, -77.9228, 119.121
1.196, 1, 14.0655, 57.603, -0.409152, 65.9764, -77.8619, 118.954
1.2, 1, 14.1153, 57.5812, -0.440224, 66.0488, -77.8012, 118.787
1.204, 1, 14.1651, 57.5595, -0.471266, 66.1211, -77.7404, 118.621
1.208, 1, 14.2149, 57.5377, -0.502279, 66.1933, -77.6798, 118.454
1.212, 1, 14.2646, 57.516, -0.533263, 66.2655, -77.6192, 118.287
1.216, 1, 14.3143, 57.4943, -0.564217, 66.3376, -77.5586, 118.121
1.22, 1, 14.3639, 57.4726, -0.595142, 66.4096, -77.4981, 117.955
1.224, 1, 14.4135, 57.4509, -0.626038, 66.4816, -77.4377, 117.789
1.228, 1, 14.463, 57.4293, -0.656904, 66.5535, -77.3773, 117.623
1.232, 1, 14.5125, 57.4076, -0.687741, 66.6253, -77.317, 117.457
1.236, 1, 14.5619, 57.386, -0.718549, 66.697, -77.2568, 117.292
1.24, 1, 14.6113, 57.3645, -0.749327, 66.7687, -77.1965, 117.127
1.244, 1, 14.6606, 57.3429, -0.780077, 66.8403, -77.1364, 116.961
1.248, 1, 14.7099, 57.3213, -0.810797, 66.9119, -77.0763, 116.796
1.252, 1, 14.7592, 57.2998, -0.841488, 66.9834, -77.0163, 116.631
1.256, 1, 14.8083, 57.2783, -0.87215, 67.0548, -76.9563, 116.467
1.26, 1, 14.8575, 57.2568, -0.902783, 67.1261, -76.8964, 116.302
1.264, 1, 14.9066, 57.2354, -0.933386, 67.1974, -76.8365, 116.138
1.267, 1, 14.9557, 57.2139, -0.963961, 67.2686, -76.7767, 115.973
1.272, 1, 15.0047, 57.1925, -0.994507, 67.3398, -76.717, 115.809
1.276, 1, 15.0536, 57.1711, -1.02502, 67.4108, -76.6573, 115.645
1.28, 1, 15.1026, 57.1497, -1.05551, 67.4818, -76.5976, 115.481
1.284, 1, 15.1514, 57.1283, -1.08597, 67.5528, -76.5381, 115.318
1.288, 1, 15.2002, 57.107, -1.1164, 67.6237, -76.4785, 115.154
1.292, 1, 15.249, 57.0857, -1.1468, 67.6945, -76.4191, 114.991
1.295, 1, 15.2978, 57.0644, -1.17717, 67.7652, -76.3597, 114.828
1.3, 1, 15.3464, 57.0431, -1.20752, 67.8359, -76.3003, 114.665
1.304, 1, 15.3951, 57.0218, -1.23783, 67.9065, -76.241, 114.502
1.308, 1, 15.4437, 57.0006, -1.26812, 67.977, -76.1818, 114.339
1.312, 1, 15.4922, 56.9794, -1.29838, 68.0475, -76.1226, 114.176
1.316, 1, 15.5407, 56.9582, -1.32861, 68.1179, -76.0635, 114.014
1.32, 1, 15.5892, 56.937, -1.35881, 68.1882, -76.0044, 113.852
1.324, 1, 15.6376, 56.9158, -1.38898, 68.2585, -75.9454, 113.69
1.328, 1, 15.686, 56.8947, -1.41912, 68.3287, -75.8864, 113.528
1.332, 1, 15.7343, 56.8736, -1.44924, 68.3989, -75.8275, 113.366
1.336, 1, 15.7826, 56.8525, -1.47932, 68.4689, -75.7686, 113.204
1.34, 1, 15.8308, 56.8314, -1.50938, 68.5389, -75.7099, 113.043
1.344, 1, 15.879, 56.8103, -1.53941, 68.6089, -75.6511, 112.881
1.348, 1, 15.9271, 56.7893, -1.56941, 68.6788, -75.5924, 112.72
1.352, 1, 15.9752, 56.7682, -1.59938, 68.7486, -75.5338, 112.559
1.356, 1, 16.0232, 56.7472, -1.62933, 68.8183, -75.4752, 112.398
1.36, 1, 16.0712, 56.7263, -1.65924, 68.888, -75.4167, 112.238
1.364, 1, 16.1192, 56.7053, -1.68913, 68.9576, -75.3583, 112.077
1.368, 1, 16.1671, 56.6844, -1.71899, 69.0271, -75.2999, 111.916
1.372, 1, 16.215, 56.6634, -1.74882, 69.0966, -75.2415, 111.756
1.376, 1, 16.2628, 56.6425, -1.77862, 69.166, -75.1832, 111.596
1.38, 1, 16.3106, 56.6217, -1.8084, 69.2354, -75.125, 111.436
1.384, 1, 16.3583, 56.6008, -1.83814, 69.3047, -75.0668, 111.276
1.388, 1, 16.406, 56.5799, -1.86786, 69.3739, -75.0087, 111.117
1.392, 1, 16.4536, 56.5591, -1.89755, 69.443, -74.9506, 110.957
1.396, 1, 16.5012, 56.5383, -1.92721, 69.5121, -74.8926, 110.798
1.4, 1, 16.5488, 56.5175, -1.95685, 69.5811, -74.8346, 110.638
1.404, 1, 16.5963, 56.4968, -1.98645, 69.6501, -74.7767, 110.479
1.408, 1, 16.6437, 56.476, -2.01603, 69.719, -74.7188, 110.32
1.412, 1, 16.6911, 56.4553, -2.04558, 69.7878, -74.661, 110.162
1.416, 1, 16.7385, 56.4346, -2.0751, 69.8566, -74.6033, 110.003
1.42, 1, 16.7858, 56.4139, -2.10459, 69.9253, -74.5456, 109.845
1.424, 1, 16.8331, 56.3932, -2.13406, 69.9939, -74.4879, 109.686
1.428, 1, 16.8803, 56.3726, -2.1635, 70.0624, -74.4304, 109.528
1.432, 1, 16.9275, 56.352, -2.19291, 70.131, -74.3728, 109.37
1.436, 1, 16.9747, 56.3313, -2.22229, 70.1994, -74.3154, 109.212
1.44, 1, 17.0218, 56.3108, -2.25165, 70.2678, -74.2579, 109.054
1.444, 1, 17.0688, 56.2902, -2.28098, 70.3361, -74.2006, 108.897
1.448, 1, 17.1159, 56.2696, -2.31028, 70.4043, -74.1432, 108.739
1.452, 1, 17.1628, 56.2491, -2.33955, 70.4725, -74.086, 108.582
1.456, 1, 17.2098, 56.2286, -2.3688, 70.5406, -74.0288, 108.425
1.46, 1, 17.2566, 56.2081, -2.39802, 70.6087, -73.9716, 108.268
1.464, 1, 17.3035, 56.1876, -2.42721, 70.6767, -73.9145, 108.111
1.468, 1, 17.3503, 56.1672, -2.45637, 70.7446, -73.8575, 107.954
1.472, 1, 17.397, 56.1467, -2.48551, 70.8124, -73.8005, 107.798
1.476, 1, 17.4437, 56.1263, -2.51462, 70.8802, -73.7435, 107.642
1.48, 1, 17.4904, 56.1059, -2.5437, 70.948, -73.6867, 107.485
1.484, 1, 17.537, 56.0855, -2.57276, 71.0157, -73.6298, 107.329
1.488, 1, 17.5836, 56.0652, -2.60179, 71.0833, -73.573, 107.173
1.492, 1, 17.6301, 56.0448, -2.63079, 71.1508, -73.5163, 107.017
1.496, 1, 17.6766, 56.0245, -2.65976, 71.2183, -73.4596, 106.862
1.5, 1, 17.7231, 56.0042, -2.68871, 71.2857, -73.403, 106.706
1.504, 1, 17.7695, 55.9839, -2.71763, 71.3531, -73.3464, 106.551
1.508, 1, 17.8159, 55.9637, -2.74653, 71.4204, -73.2899, 106.395
1.512, 1, 17.8622, 55.9434, -2.77539, 71.4876, -73.2335, 106.24
1.516, 1, 17.9085, 55.9232, -2.80423, 71.5548, -73.177, 106.085
1.52, 1, 17.9547, 55.903, -2.83305, 71.6219, -73.1207, 105.931
1.524, 1, 18.0009, 55.8828, -2.86183, 71.6889, -73.0644, 105.776
1.528, 1, 18.047, 55.8626, -2.89059, 71.7559, -73.0081, 105.621
1.532, 1, 18.0931, 55.8424, -2.91933, 71.8229, -72.9519, 105.467
1.536, 1, 18.1392, 55.8223, -2.94803, 71.8897, -72.8958, 105.313
1.54, 1, 18.1852, 55.8022, -2.97672, 71.9565, -72.8397, 105.159
1.544, 1, 18.2312, 55.7821, -3.00537, 72.0233, -72.7836, 105.005
1.548, 1, 18.2771, 55.762, -3.034, 72.0899, -72.7276, 104.851
1.552, 1, 18.323, 55.742, -3.0626, 72.1565, -72.6717, 104.697
1.556, 1, 18.3689, 55.7219, -3.09117, 72.2231, -72.6158, 104.544
1.56, 1, 18.4147, 55.7019, -3.11972, 72.2896, -72.5599, 104.39
1.564, 1, 18.4605, 55.6819, -3.14825, 72.356, -72.5041, 104.237
1.568, 1, 18.5062, 55.6619, -3.17674, 72.4224, -72.4484, 104.084
1.572, 1, 18.5519, 55.6419, -3.20521, 72.4887, -72.3927, 103.931
1.576, 1, 18.5975, 55.622, -3.23366, 72.555, -72.3371, 103.778
1.58, 1, 18.6431, 55.602, -3.26208, 72.6212, -72.2815, 103.625
1.584, 1, 18.6887, 55.5821, -3.29047, 72.6873, -72.2259, 103.473
1.588, 1, 18.7342, 55.5622, -3.31883, 72.7533, -72.1704, 103.32
1.592, 1, 18.7797, 55.5424, -3.34718, 72.8194, -72.115, 103.168
1.596, 1, 18.8251, 55.5225, -3.37549, 72.8853, -72.0596, 103.016
1.6, 1, 18.8705, 55.5027, -3.40378, 72.9512, -72.0043, 102.864
1.604, 1, 18.9158, 55.4828, -3.43204, 73.017, -71.949, 102.712
1.608, 1, 18.9611, 55.463, -3.46028, 73.0828, -71.8938, 102.56
1.612, 1, 19.0064, 55.4432, -3.48849, 73.1485, -71.8386, 102.409
1.616, 1, 19.0516, 55.4235, -3.51667, 73.2141, -71.7835, 102.257
1.62, 1, 19.0968, 55.4037, -3.54483, 73.2797, -71.7284, 102.106
1.624, 1, 19.142, 55.384, -3.57297, 73.3453, -71.6733, 101.955
1.628, 1, 19.1871, 55.3643, -3.60108, 73.4107, -71.6184, 101.804
1.632, 1, 19.2321, 55.3446, -3.62916, 73.4761, -71.5634, 101.653
1.636, 1, 19.2771, 55.3249, -3.65722, 73.5415, -71.5085, 101.502
1.64, 1, 19.3221, 55.3052, -3.68525, 73.6068, -71.4537, 101.352
1.644, 1, 19.3671, 55.2856, -3.71326, 73.672, -71.3989, 101.201
1.648, 1, 19.412, 55.266, -3.74124, 73.7372, -71.3442, 101.051
1.652, 1, 19.4568, 55.2464, -3.7692, 73.8023, -71.2895, 100.901
1.656, 1, 19.5016, 55.2268, -3.79713, 73.8673, -71.2349, 100.75
1.66, 1, 19.5464, 55.2072, -3.82503, 73.9324, -71.1803, 100.601
1.664, 1, 19.5912, 55.1876, -3.85291, 73.9973, -71.1257, 100.451
1.668, 1, 19.6359, 55.1681, -3.88077, 74.0622, -71.0713, 100.301
1.672, 1, 19.6805, 55.1486, -3.9086, 74.127, -71.0168, 100.152
1.676, 1, 19.7251, 55.1291, -3.93641, 74.1917, -70.9624, 100.002
1.68, 1, 19.7697, 55.1096, -3.96419, 74.2564, -70.9081, 99.8528
1.684, 1, 19.8142, 55.0901, -3.99194, 74.3211, -70.8538, 99.7037
1.688, 1, 19.8587, 55.0707, -4.01967, 74.3857, -70.7996, 99.5547
1.692, 1, 19.9032, 55.0512, -4.04738, 74.4502, -70.7454, 99.4058
1.696, 1, 19.9476, 55.0318, -4.07506, 74.5147, -70.6912, 99.2571
1.7, 1, 19.992, 55.0124, -4.10272, 74.5791, -70.6371, 99.1085
1.704, 1, 20.0363, 54.993, -4.13035, 74.6434, -70.5831, 98.9601
1.708, 1, 20.0806, 54.9737, -4.15795, 74.7077, -70.5291, 98.8117
1.712, 1, 20.1249, 54.9543, -4.18554, 74.772, -70.4751, 98.6635
1.716, 1, 20.1691, 54.935, -4.21309, 74.8362, -70.4212, 98.5154
1.72, 1, 20.2133, 54.9157, -4.24063, 74.9003, -70.3674, 98.3675
1.724, 1, 20.2574, 54.8964, -4.26814, 74.9644, -70.3136, 98.2197
1.728, 1, 20.3015, 54.8771, -4.29562, 75.0284, -70.2598, 98.072
1.732, 1, 20.3456, 54.8579, -4.32308, 75.0923, -70.2061, 97.9245
1.736, 1, 20.3896, 54.8386, -4.35051, 75.1562, -70.1524, 97.7771
1.74, 1, 20.4336, 54.8194, -4.37792, 75.2201, -70.0988, 97.6298
1.744, 1, 20.4775, 54.8002, -4.40531, 75.2839, -70.0452, 97.4827
1.748, 1, 20.5214, 54.781, -4.43267, 75.3476, -69.9917, 97.3357
1.752, 1, 20.5653, 54.7618, -4.46001, 75.4113, -69.9382, 97.1888
1.756, 1, 20.6091, 54.7427, -4.48732, 75.4749, -69.8848, 97.042
1.76, 1, 20.6529, 54.7235, -4.51461, 75.5384, -69.8314, 96.8954
1.764, 1, 20.6967, 54.7044, -4.54188, 75.6019, -69.7781, 96.7489
1.768, 1, 20.7404, 54.6853, -4.56912, 75.6654, -69.7248, 96.6025
1.772, 1, 20.784, 54.6662, -4.59633, 75.7288, -69.6716, 96.4563
1.776, 1, 20.8277, 54.6471, -4.62353, 75.7921, -69.6184, 96.3102
1.78, 1, 20.8713, 54.6281, -4.65069, 75.8554, -69.5652, 96.1642
1.784, 1, 20.9148, 54.609, -4.67784, 75.9186, -69.5121, 96.0183
1.788, 1, 20.9584, 54.59, -4.70496, 75.9818, -69.4591, 95.8726
1.792, 1, 21.0018, 54.571, -4.73206, 76.0449, -69.4061, 95.727
1.796, 1, 21.0453, 54.552, -4.75913, 76.1079, -69.3531, 95.5816
1.8, 1, 21.0887, 54.533, -4.78618, 76.171, -69.3002, 95.4362
1.804, 1, 21.132, 54.5141, -4.81321, 76.2339, -69.2474, 95.291
1.808, 1, 21.1754, 54.4952, -4.84021, 76.2968, -69.1945, 95.1459
1.812, 1, 21.2187, 54.4762, -4.86719, 76.3596, -69.1418, 95.0009
1.816, 1, 21.2619, 54.4573, -4.89415, 76.4224, -69.089, 94.8561
1.82, 1, 21.3051, 54.4384, -4.92108, 76.4851, -69.0364, 94.7114
1.824, 1, 21.3483, 54.4196, -4.94799, 76.5478, -68.9837, 94.5668
1.828, 1, 21.3915, 54.4007, -4.97488, 76.6104, -68.9311, 94.4223
1.832, 1, 21.4346, 54.3819, -5.00174, 76.673, -68.8786, 94.278
1.836, 1, 21.4776, 54.363, -5.02858, 76.7355, -68.8261, 94.1338
1.84, 1, 21.5207, 54.3442, -5.05539, 76.798, -68.7736, 93.9897
1.844, 1, 21.5637, 54.3254, -5.08219, 76.8604, -68.7212, 93.8457
1.848, 1, 21.6066, 54.3067, -5.10896, 76.9227, -68.6688, 93.7019
1.852, 1, 21.6495, 54.2879, -5.1357, 76.985, -68.6165, 93.5582
1.856, 1, 21.6924, 54.2691, -5.16243, 77.0473, -68.5643, 93.4146
1.86, 1, 21.7353, 54.2504, -5.18913, 77.1095, -68.512, 93.2711
1.864, 1, 21.7781, 54.2317, -5.21581, 77.1716, -68.4598, 93.1278
1.868, 1, 21.8208, 54.213, -5.24246, 77.2337, -68.4077, 92.9846
1.872, 1, 21.8636, 54.1943, -5.2691, 77.2957, -68.3556, 92.8415
1.876, 1, 21.9063, 54.1757, -5.29571, 77.3577, -68.3036, 92.6985
1.88, 1, 21.9489, 54.157, -5.32229, 77.4196, -68.2515, 92.5556
1.884, 1, 21.9916, 54.1384, -5.34886, 77.4815, -68.1996, 92.4129
1.888, 1, 22.0342, 54.1198, -5.3754, 77.5433, -68.1477, 92.2703
1.892, 1, 22.0767, 54.1012, -5.40192, 77.6051, -68.0958, 92.1278
1.896, 1, 22.1192, 54.0826, -5.42842, 77.6668, -68.044, 91.9854
1.9, 1, 22.1617, 54.064, -5.45489, 77.7284, -67.9922, 91.8432
1.904, 1, 22.2042, 54.0455, -5.48134, 77.7901, -67.9404, 91.701
1.908, 1, 22.2466, 54.0269, -5.50777, 77.8516, -67.8887, 91.559
1.912, 1, 22.2889, 54.0084, -5.53418, 77.9131, -67.8371, 91.4171
1.916, 1, 22.3313, 53.9899, -5.56056, 77.9746, -67.7855, 91.2754
1.92, 1, 22.3736, 53.9714, -5.58693, 78.036, -67.7339, 91.1337
1.924, 1, 22.4158, 53.9529, -5.61327, 78.0973, -67.6824, 90.9922
1.928, 1, 22.4581, 53.9345, -5.63959, 78.1586, -67.6309, 90.8508
1.932, 1, 22.5003, 53.916, -5.66588, 78.2199, -67.5795, 90.7095
1.936, 1, 22.5424, 53.8976, -5.69216, 78.2811, -67.5281, 90.5683
1.94, 1, 22.5846, 53.8792, -5.71841, 78.3422, -67.4767, 90.4273
1.944, 1, 22.6266, 53.8608, -5.74464, 78.4033, -67.4254, 90.2863
1.948, 1, 22.6687, 53.8424, -5.77085, 78.4643, -67.3741, 90.1455
1.952, 1, 22.7107, 53.824, -5.79703, 78.5253, -67.3229, 90.0048
1.956, 1, 22.7527, 53.8057, -5.8232, 78.5863, -67.2717, 89.8642
1.96, 1, 22.7947, 53.7873, -5.84934, 78.6472, -67.2206, 89.7238
1.964, 1, 22.8366, 53.769, -5.87546, 78.708, -67.1695, 89.5834
1.968, 1, 22.8785, 53.7507, -5.90156, 78.7688, -67.1185, 89.4432
1.972, 1, 22.9203, 53.7324, -5.92764, 78.8295, -67.0675, 89.3031
1.976, 1, 22.9621, 53.7142, -5.95369, 78.8902, -67.0165, 89.163
1.98, 1, 23.0039, 53.6959, -5.97973, 78.9509, -66.9656, 89.0232
1.984, 1, 23.0456, 53.6777, -6.00574, 79.0114, -66.9147, 88.8834
1.988, 1, 23.0873, 53.6594, -6.03173, 79.072, -66.8638, 88.7438
1.992, 1, 23.129, 53.6412, -6.0577, 79.1325, -66.813, 88.6042
1.996, 1, 23.1706, 53.623, -6.08365, 79.1929, -66.7623, 88.4648
1.999, 1, 23.2122, 53.6048, -6.10957, 79.2533, -66.7116, 88.3255
2.004, 1, 23.2538, 53.5866, -6.13548, 79.3136, -66.6609, 88.1863
2.008, 1, 23.2953, 53.5685, -6.16136, 79.3739, -66.6103, 88.0472
2.012, 1, 23.3368, 53.5504, -6.18723, 79.4341, -66.5597, 87.9082
2.015, 1, 23.3783, 53.5322, -6.21307, 79.4943, -66.5091, 87.7694
2.019, 1, 23.4197, 53.5141, -6.23889, 79.5545, -66.4586, 87.6307
2.024, 1, 23.4611, 53.496, -6.26469, 79.6146, -66.4082, 87.492
2.028, 1, 23.5025, 53.4779, -6.29047, 79.6746, -66.3577, 87.3535
2.031, 1, 23.5438, 53.4599, -6.31622, 79.7346, -66.3073, 87.2151
2.036, 1, 23.5851, 53.4418, -6.34196, 79.7945, -66.257, 87.0769
2.04, 1, 23.6264, 53.4238, -6.36767, 79.8544, -66.2067, 86.9387
2.044, 1, 23.6676, 53.4058, -6.39337, 79.9143, -66.1564, 86.8006
2.048, 1, 23.7088, 53.3878, -6.41904, 79.9741, -66.1062, 86.6627
2.051, 1, 23.75, 53.3698, -6.44469, 80.0338, -66.056, 86.5248
2.055, 1, 23.7911, 53.3518, -6.47033, 80.0935, -66.0059, 86.3871
2.06, 1, 23.8322, 53.3338, -6.49594, 80.1532, -65.9558, 86.2495
2.064, 1, 23.8733, 53.3159, -6.52153, 80.2128, -65.9058, 86.112
2.068, 1, 23.9143, 53.2979, -6.54709, 80.2723, -65.8557, 85.9746
2.071, 1, 23.9553, 53.28, -6.57264, 80.3318, -65.8058, 85.8374
2.076, 1, 23.9962, 53.2621, -6.59817, 80.3913, -65.7558, 85.7002
2.08, 1, 24.0372, 53.2442, -6.62368, 80.4507, -65.7059, 85.5631
2.084, 1, 24.0781, 53.2263, -6.64917, 80.5101, -65.6561, 85.4262
2.087, 1, 24.1189, 53.2085, -6.67463, 80.5694, -65.6063, 85.2894
2.092, 1, 24.1598, 53.1906, -6.70008, 80.6286, -65.5565, 85.1526
2.096, 1, 24.2006, 53.1728, -6.7255, 80.6879, -65.5068, 85.016
2.1, 1, 24.2413, 53.155, -6.75091, 80.747, -65.4571, 84.8795
2.104, 1, 24.2821, 53.1372, -6.77629, 80.8062, -65.4074, 84.7431
2.107, 1, 24.3228, 53.1194, -6.80166, 80.8652, -65.3578, 84.6068
2.111, 1, 24.3634, 53.1016, -6.827, 80.9243, -65.3082, 84.4707
2.116, 1, 24.4041, 53.0838, -6.85233, 80.9832, -65.2587, 84.3346
2.12, 1, 24.4447, 53.0661, -6.87763, 81.0422, -65.2092, 84.1986
2.124, 1, 24.4853, 53.0484, -6.90291, 81.1011, -65.1597, 84.0628
2.127, 1, 24.5258, 53.0306, -6.92818, 81.1599, -65.1103, 83.927
2.132, 1, 24.5663, 53.0129, -6.95342, 81.2187, -65.0609, 83.7914
2.136, 1, 24.6068, 52.9952, -6.97865, 81.2775, -65.0116, 83.6559
2.14, 1, 24.6472, 52.9776, -7.00385, 81.3362, -64.9623, 83.5204
2.143, 1, 24.6876, 52.9599, -7.02903, 81.3948, -64.913, 83.3851
2.148, 1, 24.728, 52.9423, -7.0542, 81.4534, -64.8638, 83.2499
2.152, 1, 24.7684, 52.9246, -7.07934, 81.512, -64.8146, 83.1148
2.156, 1, 24.8087, 52.907, -7.10447, 81.5705, -64.7655, 82.9798
2.16, 1, 24.849, 52.8894, -7.12957, 81.629, -64.7164, 82.8449
2.163, 1, 24.8892, 52.8718, -7.15466, 81.6874, -64.6673, 82.7101
2.168, 1, 24.9294, 52.8542, -7.17972, 81.7458, -64.6183, 82.5754
2.172, 1, 24.9696, 52.8366, -7.20477, 81.8041, -64.5693, 82.4409
2.176, 1, 25.0098, 52.8191, -7.2298, 81.8624, -64.5203, 82.3064
2.179, 1, 25.0499, 52.8015, -7.2548, 81.9207, -64.4714, 82.172
2.184, 1, 25.09, 52.784, -7.27979, 81.9789, -64.4225, 82.0378
2.188, 1, 25.1301, 52.7665, -7.30476, 82.037, -64.3737, 81.9036
2.192, 1, 25.1701, 52.749, -7.32971, 82.0951, -64.3249, 81.7695
2.196, 1, 25.2101, 52.7315, -7.35464, 82.1532, -64.2761, 81.6356
2.199, 1, 25.2501, 52.7141, -7.37955, 82.2112, -64.2274, 81.5017
2.204, 1, 25.29, 52.6966, -7.40444, 82.2692, -64.1787, 81.368
2.208, 1, 25.3299, 52.6791, -7.42931, 82.3271, -64.1301, 81.2344
2.212, 1, 25.3698, 52.6617, -7.45417, 82.385, -64.0814, 81.1008
2.216, 1, 25.4097, 52.6443, -7.479, 82.4428, -64.0329, 80.9674
2.219, 1, 25.4495, 52.6269, -7.50382, 82.5006, -63.9843, 80.834
2.224, 1, 25.4893, 52.6095, -7.52861, 82.5584, -63.9358, 80.7008
2.228, 1, 25.529, 52.5921, -7.55339, 82.6161, -63.8874, 80.5677
2.232, 1, 25.5688, 52.5747, -7.57815, 82.6738, -63.8389, 80.4347
2.235, 1, 25.6085, 52.5574, -7.60289, 82.7314, -63.7905, 80.3017
2.24, 1, 25.6481, 52.5401, -7.62761, 82.789, -63.7422, 80.1689
2.244, 1, 25.6878, 52.5227, -7.65231, 82.8465, -63.6939, 80.0362
2.248, 1, 25.7274, 52.5054, -7.67699, 82.904, -63.6456, 79.9035
2.252, 1, 25.767, 52.4881, -7.70166, 82.9614, -63.5973, 79.771
2.255, 1, 25.8065, 52.4708, -7.7263, 83.0188, -63.5491, 79.6386
2.259, 1, 25.846, 52.4536, -7.75093, 83.0762, -63.5009, 79.5063
2.264, 1, 25.8855, 52.4363, -7.77554, 83.1335, -63.4528, 79.374
2.268, 1, 25.925, 52.4191, -7.80013, 83.1908, -63.4047, 79.2419
2.272, 1, 25.9644, 52.4018, -7.8247, 83.248, -63.3566, 79.1099
2.275, 1, 26.0038, 52.3846, -7.84925, 83.3052, -63.3086, 78.978
2.28, 1, 26.0432, 52.3674, -7.87379, 83.3624, -63.2606, 78.8461
2.284, 1, 26.0825, 52.3502, -7.8983, 83.4195, -63.2127, 78.7144
2.288, 1, 26.1218, 52.333, -7.9228, 83.4765, -63.1647, 78.5828
2.291, 1, 26.1611, 52.3158, -7.94728, 83.5335, -63.1169, 78.4512
2.296, 1, 26.2003, 52.2987, -7.97174, 83.5905, -63.069, 78.3198
2.3, 1, 26.2396, 52.2815, -7.99619, 83.6474, -63.0212, 78.1885
2.304, 1, 26.2788, 52.2644, -8.02061, 83.7043, -62.9734, 78.0572
2.308, 1, 26.3179, 52.2473, -8.04502, 83.7612, -62.9257, 77.9261
2.311, 1, 26.3571, 52.2302, -8.06941, 83.818, -62.878, 77.7951
2.316, 1, 26.3962, 52.2131, -8.09378, 83.8747, -62.8303, 77.6641
2.32, 1, 26.4352, 52.196, -8.11813, 83.9315, -62.7827, 77.5332
2.324, 1, 26.4743, 52.1789, -8.14247, 83.9881, -62.7351, 77.4025
2.328, 1, 26.5133, 52.1619, -8.16678, 84.0448, -62.6875, 77.2718
2.331, 1, 26.5523, 52.1448, -8.19108, 84.1014, -62.64, 77.1413
2.336, 1, 26.5913, 52.1278, -8.21536, 84.1579, -62.5925, 77.0108
2.34, 1, 26.6302, 52.1108, -8.23962, 84.2144, -62.545, 76.8804
2.344, 1, 26.6691, 52.0938, -8.26387, 84.2709, -62.4976, 76.7502
2.347, 1, 26.708, 52.0768, -8.2881, 84.3273, -62.4502, 76.62
2.352, 1, 26.7468, 52.0598, -8.31231, 84.3837, -62.4028, 76.4899
2.356, 1, 26.7856, 52.0428, -8.3365, 84.4401, -62.3555, 76.3599
2.36, 1, 26.8244, 52.0259, -8.36067, 84.4964, -62.3082, 76.23
2.364, 1, 26.8632, 52.0089, -8.38483, 84.5526, -62.261, 76.1002
2.367, 1, 26.9019, 51.992, -8.40897, 84.6089, -62.2138, 75.9705
2.372, 1, 26.9406, 51.9751, -8.43309, 84.6651, -62.1666, 75.8409
2.376, 1, 26.9793, 51.9582, -8.4572, 84.7212, -62.1194, 75.7114
2.38, 1, 27.018, 51.9413, -8.48128, 84.7773, -62.0723, 75.582
2.383, 1, 27.0566, 51.9244, -8.50535, 84.8334, -62.0252, 75.4527
2.388, 1, 27.0952, 51.9075, -8.5294, 84.8894, -61.9782, 75.3234
2.392, 1, 27.1338, 51.8907, -8.55344, 84.9454, -61.9312, 75.1943
2.396, 1, 27.1723, 51.8738, -8.57746, 85.0013, -61.8842, 75.0652
2.4, 1, 27.2108, 51.857, -8.60146, 85.0572, -61.8372, 74.9363
2.403, 1, 27.2493, 51.8402, -8.62544, 85.113, -61.7903, 74.8074
2.408, 1, 27.2877, 51.8234, -8.64941, 85.1689, -61.7435, 74.6786
2.412, 1, 27.3262, 51.8066, -8.67335, 85.2246, -61.6966, 74.55
2.416, 1, 27.3646, 51.7898, -8.69729, 85.2804, -61.6498, 74.4214
2.42, 1, 27.4029, 51.773, -8.7212, 85.3361, -61.603, 74.2929
2.423, 1, 27.4413, 51.7562, -8.7451, 85.3917, -61.5563, 74.1645
2.428, 1, 27.4796, 51.7395, -8.76898, 85.4474, -61.5096, 74.0362
2.432, 1, 27.5179, 51.7228, -8.79284, 85.5029, -61.4629, 73.9079
2.436, 1, 27.5562, 51.706, -8.81669, 85.5585, -61.4162, 73.7798
2.439, 1, 27.5944, 51.6893, -8.84052, 85.614, -61.3696, 73.6518
2.444, 1, 27.6326, 51.6726, -8.86433, 85.6694, -61.323, 73.5238
2.448, 1, 27.6708, 51.6559, -8.88812, 85.7249, -61.2765, 73.396
2.452, 1, 27.709, 51.6392, -8.9119, 85.7803, -61.23, 73.2682
2.456, 1, 27.7471, 51.6226, -8.93566, 85.8356, -61.1835, 73.1405
2.459, 1, 27.7852, 51.6059, -8.95941, 85.8909, -61.1371, 73.0129
2.464, 1, 27.8233, 51.5893, -8.98314, 85.9462, -61.0906, 72.8854
2.468, 1, 27.8613, 51.5726, -9.00685, 86.0014, -61.0443, 72.758
2.472, 1, 27.8993, 51.556, -9.03054, 86.0566, -60.9979, 72.6307
2.476, 1, 27.9373, 51.5394, -9.05422, 86.1117, -60.9516, 72.5035
2.479, 1, 27.9753, 51.5228, -9.07788, 86.1668, -60.9053, 72.3764
2.484, 1, 28.0132, 51.5062, -9.10153, 86.2219, -60.8591, 72.2493
2.488, 1, 28.0512, 51.4897, -9.12516, 86.277, -60.8128, 72.1223
2.492, 1, 28.089, 51.4731, -9.14877, 86.332, -60.7666, 71.9955
2.495, 1, 28.1269, 51.4565, -9.17237, 86.3869, -60.7205, 71.8687
2.5, 1, 28.1647, 51.44, -9.19595, 86.4418, -60.6744, 71.742
2.504, 1, 28.2026, 51.4235, -9.21951, 86.4967, -60.6283, 71.6154
2.508, 1, 28.2403, 51.407, -9.24306, 86.5516, -60.5822, 71.4889
2.512, 1, 28.2781, 51.3905, -9.26659, 86.6064, -60.5362, 71.3624
2.515, 1, 28.3158, 51.374, -9.2901, 86.6611, -60.4902, 71.2361
2.52, 1, 28.3535, 51.3575, -9.3136, 86.7159, -60.4442, 71.1098
2.524, 1, 28.3912, 51.341, -9.33708, 86.7706, -60.3983, 70.9837
2.528, 1, 28.4289, 51.3246, -9.36055, 86.8252, -60.3524, 70.8576
2.531, 1, 28.4665, 51.3081, -9.384, 86.8798, -60.3065, 70.7316
2.536, 1, 28.5041, 51.2917, -9.40743, 86.9344, -60.2607, 70.6057
2.54, 1, 28.5417, 51.2752, -9.43085, 86.989, -60.2149, 70.4798
2.544, 1, 28.5792, 51.2588, -9.45425, 87.0435, -60.1691, 70.3541
2.548, 1, 28.6168, 51.2424, -9.47764, 87.0979, -60.1234, 70.2284
2.551, 1, 28.6543, 51.226, -9.50101, 87.1524, -60.0776, 70.1029
2.556, 1, 28.6917, 51.2097, -9.52436, 87.2067, -60.032, 69.9774
2.56, 1, 28.7292, 51.1933, -9.5477, 87.2611, -59.9863, 69.852
2.564, 1, 28.7666, 51.1769, -9.57102, 87.3154, -59.9407, 69.7267
2.568, 1, 28.804, 51.1606, -9.59433, 87.3697, -59.8951, 69.6014
2.571, 1, 28.8414, 51.1442, -9.61762, 87.424, -59.8495, 69.4763
2.576, 1, 28.8787, 51.1279, -9.6409, 87.4782, -59.804, 69.3512
2.58, 1, 28.9161, 51.1116, -9.66416, 87.5324, -59.7585, 69.2262
2.584, 1, 28.9534, 51.0953, -9.6874, 87.5865, -59.713, 69.1013
2.587, 1, 28.9906, 51.079, -9.71063, 87.6406, -59.6676, 68.9765
2.592, 1, 29.0279, 51.0627, -9.73384, 87.6947, -59.6222, 68.8518
2.596, 1, 29.0651, 51.0464, -9.75704, 87.7487, -59.5768, 68.7271
2.6, 1, 29.1023, 51.0302, -9.78022, 87.8027, -59.5315, 68.6026
2.604, 1, 29.1395, 51.0139, -9.80339, 87.8567, -59.4862, 68.4781
2.607, 1, 29.1766, 50.9977, -9.82654, 87.9106, -59.4409, 68.3537
2.612, 1, 29.2138, 50.9815, -9.84968, 87.9645, -59.3956, 68.2294
2.616, 1, 29.2509, 50.9653, -9.8728, 88.0183, -59.3504, 68.1052
2.62, 1, 29.2879, 50.949, -9.8959, 88.0721, -59.3052, 67.981
2.624, 1, 29.325, 50.9328, -9.91899, 88.1259, -59.26, 67.8569
2.627, 1, 29.362, 50.9167, -9.94207, 88.1796, -59.2149, 67.733
2.632, 1, 29.399, 50.9005, -9.96513, 88.2334, -59.1698, 67.6091
2.636, 1, 29.436, 50.8843, -9.98817, 88.287, -59.1247, 67.4852
2.64, 1, 29.4729, 50.8682, -10.0112, 88.3407, -59.0797, 67.3615
2.643, 1, 29.5099, 50.852, -10.0342, 88.3943, -59.0346, 67.2378
2.648, 1, 29.5468, 50.8359, -10.0572, 88.4479, -58.9896, 67.1143
2.652, 1, 29.5837, 50.8198, -10.0802, 88.5014, -58.9447, 66.9908
2.656, 1, 29.6205, 50.8037, -10.1032, 88.5549, -58.8998, 66.8673
2.66, 1, 29.6574, 50.7876, -10.1261, 88.6083, -58.8549, 66.744
2.663, 1, 29.6942, 50.7715, -10.1491, 88.6618, -58.81, 66.6207
2.668, 1, 29.7309, 50.7554, -10.172, 88.7152, -58.7651, 66.4976
2.672, 1, 29.7677, 50.7393, -10.1949, 88.7685, -58.7203, 66.3745
2.676, 1, 29.8044, 50.7233, -10.2178, 88.8219, -58.6755, 66.2514
2.679, 1, 29.8412, 50.7072, -10.2407, 88.8752, -58.6308, 66.1285
2.684, 1, 29.8779, 50.6912, -10.2635, 88.9284, -58.5861, 66.0056
2.688, 1, 29.9145, 50.6751, -10.2864, 88.9816, -58.5414, 65.8829
2.692, 1, 29.9512, 50.6591, -10.3092, 89.0348, -58.4967, 65.7602
2.696, 1, 29.9878, 50.6431, -10.3321, 89.088, -58.452, 65.6375
2.699, 1, 30.0244, 50.6271, -10.3549, 89.1411, -58.4074, 65.515
2.704, 1, 30.061, 50.6111, -10.3777, 89.1942, -58.3628, 65.3925
2.708, 1, 30.0975, 50.5952, -10.4004, 89.2472, -58.3183, 65.2701
2.712, 1, 30.134, 50.5792, -10.4232, 89.3003, -58.2738, 65.1478
2.716, 1, 30.1705, 50.5632, -10.4459, 89.3532, -58.2293, 65.0256
2.719, 1, 30.207, 50.5473, -10.4687, 89.4062, -58.1848, 64.9034
2.724, 1, 30.2435, 50.5314, -10.4914, 89.4591, -58.1403, 64.7813
2.728, 1, 30.2799, 50.5154, -10.5141, 89.512, -58.0959, 64.6593
2.732, 1, 30.3163, 50.4995, -10.5368, 89.5648, -58.0515, 64.5374
2.735, 1, 30.3527, 50.4836, -10.5595, 89.6177, -58.0072, 64.4156
2.74, 1, 30.3891, 50.4677, -10.5821, 89.6705, -57.9629, 64.2938
2.744, 1, 30.4254, 50.4518, -10.6048, 89.7232, -57.9186, 64.1721
2.748, 1, 30.4617, 50.436, -10.6274, 89.7759, -57.8743, 64.0505
2.752, 1, 30.498, 50.4201, -10.65, 89.8286, -57.83, 63.9289
2.755, 1, 30.5343, 50.4042, -10.6726, 89.8813, -57.7858, 63.8075
2.76, 1, 30.5706, 50.3884, -10.6952, 89.9339, -57.7416, 63.6861
2.764, 1, 30.6068, 50.3725, -10.7178, 89.9865, -57.6975, 63.5648
2.768, 1, 30.643, 50.3567, -10.7404, 90.039, -57.6533, 63.4435
2.772, 1, 30.6792, 50.3409, -10.7629, 90.0915, -57.6092, 63.3224
2.775, 1, 30.7153, 50.3251, -10.7855, 90.144, -57.5651, 63.2013
2.78, 1, 30.7515, 50.3093, -10.808, 90.1965, -57.5211, 63.0803
2.784, 1, 30.7876, 50.2935, -10.8305, 90.2489, -57.4771, 62.9593
2.788, 1, 30.8237, 50.2777, -10.853, 90.3013, -57.4331, 62.8385
2.791, 1, 30.8598, 50.262, -10.8755, 90.3537, -57.3891, 62.7177
2.796, 1, 30.8958, 50.2462, -10.8979, 90.406, -57.3451, 62.597
2.8, 1, 30.9318, 50.2305, -10.9204, 90.4583, -57.3012, 62.4763
2.804, 1, 30.9678, 50.2147, -10.9428, 90.5105, -57.2573, 62.3558
2.808, 1, 31.0038, 50.199, -10.9652, 90.5628, -57.2135, 62.2353
2.811, 1, 31.0398, 50.1833, -10.9877, 90.615, -57.1696, 62.1149
2.816, 1, 31.0757, 50.1676, -11.01, 90.6671, -57.1258, 61.9945
2.82, 1, 31.1116, 50.1519, -11.0324, 90.7193, -57.082, 61.8743
2.824, 1, 31.1475, 50.1362, -11.0548, 90.7714, -57.0383, 61.7541
2.828, 1, 31.1834, 50.1205, -11.0772, 90.8234, -56.9945, 61.634
2.831, 1, 31.2193, 50.1048, -11.0995, 90.8755, -56.9508, 61.5139
2.836, 1, 31.2551, 50.0892, -11.1218, 90.9275, -56.9072, 61.3939
2.84, 1, 31.2909, 50.0735, -11.1441, 90.9795, -56.8635, 61.274
2.844, 1, 31.3267, 50.0579, -11.1664, 91.0314, -56.8199, 61.1542
2.847, 1, 31.3624, 50.0422, -11.1887, 91.0833, -56.7763, 61.0344
2.852, 1, 31.3982, 50.0266, -11.211, 91.1352, -56.7327, 60.9147
2.856, 1, 31.4339, 50.011, -11.2333, 91.187, -56.6892, 60.7951
2.86, 1, 31.4696, 49.9954, -11.2555, 91.2389, -56.6457, 60.6756
2.864, 1, 31.5053, 49.9798, -11.2778, 91.2906, -56.6022, 60.5561
2.867, 1, 31.5409, 49.9642, -11.3, 91.3424, -56.5587, 60.4367
2.872, 1, 31.5766, 49.9486, -11.3222, 91.3941, -56.5153, 60.3174
2.876, 1, 31.6122, 49.9331, -11.3444, 91.4458, -56.4718, 60.1982
2.88, 1, 31.6478, 49.9175, -11.3666, 91.4975, -56.4285, 60.079
2.883, 1, 31.6833, 49.902, -11.3887, 91.5491, -56.3851, 59.9599
2.888, 1, 31.7189, 49.8864, -11.4109, 91.6007, -56.3418, 59.8408
2.892, 1, 31.7544, 49.8709, -11.433, 91.6523, -56.2984, 59.7218
2.896, 1, 31.7899, 49.8554, -11.4551, 91.7038, -56.2552, 59.603
2.9, 1, 31.8254, 49.8399, -11.4773, 91.7553, -56.2119, 59.4841
2.903, 1, 31.8609, 49.8244, -11.4994, 91.8068, -56.1687, 59.3654
2.908, 1, 31.8963, 49.8089, -11.5215, 91.8583, -56.1255, 59.2467
2.912, 1, 31.9318, 49.7934, -11.5435, 91.9097, -56.0823, 59.1281
2.916, 1, 31.9672, 49.7779, -11.5656, 91.9611, -56.0391, 59.0095
2.92, 1, 32.0025, 49.7624, -11.5876, 92.0124, -55.996, 58.891
2.923, 1, 32.0379, 49.747, -11.6097, 92.0638, -55.9529, 58.7726
2.928, 1, 32.0732, 49.7315, -11.6317, 92.1151, -55.9098, 58.6543
2.932, 1, 32.1086, 49.7161, -11.6537, 92.1663, -55.8667, 58.536
2.936, 1, 32.1439, 49.7007, -11.6757, 92.2176, -55.8237, 58.4178
2.939, 1, 32.1791, 49.6852, -11.6977, 92.2688, -55.7807, 58.2997
2.944, 1, 32.2144, 49.6698, -11.7197, 92.3199, -55.7377, 58.1816
2.948, 1, 32.2496, 49.6544, -11.7416, 92.3711, -55.6948, 58.0636
2.952, 1, 32.2849, 49.639, -11.7636, 92.4222, -55.6518, 57.9457
2.956, 1, 32.3201, 49.6236, -11.7855, 92.4733, -55.6089, 57.8278
2.959, 1, 32.3552, 49.6083, -11.8074, 92.5244, -55.5661, 57.71
2.964, 1, 32.3904, 49.5929, -11.8293, 92.5754, -55.5232, 57.5923
2.968, 1, 32.4255, 49.5775, -11.8512, 92.6264, -55.4804, 57.4747
2.972, 1, 32.4606, 49.5622, -11.8731, 92.6774, -55.4376, 57.3571
2.976, 1, 32.4957, 49.5468, -11.895, 92.7283, -55.3948, 57.2396
2.98, 1, 32.5308, 49.5315, -11.9169, 92.7792, -55.352, 57.1221
2.984, 1, 32.5659, 49.5162, -11.9387, 92.8301, -55.3093, 57.0047
2.988, 1, 32.6009, 49.5009, -11.9605, 92.881, -55.2666, 56.8874
2.992, 1, 32.6359, 49.4856, -11.9824, 92.9318, -55.2239, 56.7702
2.995, 1, 32.6709, 49.4703, -12.0042, 92.9826, -55.1812, 56.653
3, 1, 32.7059, 49.455, -12.026, 93.0333, -55.1386, 56.5359
3.004, 1, 32.7408, 49.4397, -12.0477, 93.0841, -55.096, 56.4188
3.008, 1, 32.7758, 49.4244, -12.0695, 93.1348, -55.0534, 56.3018
3.012, 1, 32.8107, 49.4092, -12.0913, 93.1855, -55.0108, 56.1849
3.015, 1, 32.8456, 49.3939, -12.113, 93.2361, -54.9683, 56.068
3.02, 1, 32.8805, 49.3787, -12.1348, 93.2868, -54.9258, 55.9512
3.024, 1, 32.9153, 49.3634, -12.1565, 93.3373, -54.8833, 55.8345
3.028, 1, 32.9502, 49.3482, -12.1782, 93.3879, -54.8408, 55.7179
3.031, 1, 32.985, 49.333, -12.1999, 93.4385, -54.7984, 55.6013
3.036, 1, 33.0198, 49.3178, -12.2216, 93.489, -54.7559, 55.4847
3.04, 1, 33.0546, 49.3026, -12.2433, 93.5395, -54.7135, 55.3683
3.044, 1, 33.0893, 49.2874, -12.2649, 93.5899, -54.6712, 55.2519
3.048, 1, 33.1241, 49.2722, -12.2866, 93.6403, -54.6288, 55.1356
3.051, 1, 33.1588, 49.257, -12.3082, 93.6907, -54.5865, 55.0193
3.056, 1, 33.1935, 49.2418, -12.3298, 93.7411, -54.5442, 54.9031
3.06, 1, 33.2282, 49.2267, -12.3515, 93.7915, -54.5019, 54.7869
3.064, 1, 33.2628, 49.2115, -12.3731, 93.8418, -54.4596, 54.6709
3.068, 1, 33.2975, 49.1964, -12.3946, 93.8921, -54.4174, 54.5549
3.071, 1, 33.3321, 49.1812, -12.4162, 93.9423, -54.3752, 54.4389
3.076, 1, 33.3667, 49.1661, -12.4378, 93.9926, -54.333, 54.323
3.08, 1, 33.4013, 49.151, -12.4593, 94.0428, -54.2908, 54.2072
3.084, 1, 33.4359, 49.1359, -12.4809, 94.0929, -54.2487, 54.0914
3.087, 1, 33.4704, 49.1208, -12.5024, 94.1431, -54.2066, 53.9758
3.092, 1, 33.505, 49.1057, -12.5239, 94.1932, -54.1645, 53.8601
3.096, 1, 33.5395, 49.0906, -12.5455, 94.2433, -54.1224, 53.7446
3.1, 1, 33.574, 49.0755, -12.5669, 94.2934, -54.0804, 53.6291
3.104, 1, 33.6084, 49.0605, -12.5884, 94.3434, -54.0383, 53.5136
3.107, 1, 33.6429, 49.0454, -12.6099, 94.3934, -53.9963, 53.3982
3.112, 1, 33.6773, 49.0303, -12.6314, 94.4434, -53.9544, 53.2829
3.116, 1, 33.7118, 49.0153, -12.6528, 94.4934, -53.9124, 53.1677
3.12, 1, 33.7462, 49.0003, -12.6743, 94.5433, -53.8705, 53.0525
3.124, 1, 33.7805, 48.9852, -12.6957, 94.5932, -53.8286, 52.9373
3.128, 1, 33.8149, 48.9702, -12.7171, 94.6431, -53.7867, 52.8223
3.132, 1, 33.8492, 48.9552, -12.7385, 94.6929, -53.7448, 52.7073
3.136, 1, 33.8836, 48.9402, -12.7599, 94.7428, -53.7029, 52.5923
3.14, 1, 33.9179, 48.9252, -12.7813, 94.7926, -53.6611, 52.4774
3.143, 1, 33.9522, 48.9102, -12.8026, 94.8423, -53.6193, 52.3626
3.148, 1, 33.9864, 48.8952, -12.824, 94.8921, -53.5775, 52.2479
3.152, 1, 34.0207, 48.8803, -12.8453, 94.9418, -53.5358, 52.1332
3.156, 1, 34.0549, 48.8653, -12.8667, 94.9915, -53.4941, 52.0185
3.16, 1, 34.0891, 48.8503, -12.888, 95.0412, -53.4523, 51.9039
3.163, 1, 34.1233, 48.8354, -12.9093, 95.0908, -53.4107, 51.7894
3.168, 1, 34.1575, 48.8204, -12.9306, 95.1404, -53.369, 51.675
3.172, 1, 34.1917, 48.8055, -12.9519, 95.19, -53.3273, 51.5606
3.176, 1, 34.2258, 48.7906, -12.9732, 95.2396, -53.2857, 51.4462
3.179, 1, 34.2599, 48.7757, -12.9945, 95.2891, -53.2441, 51.332
3.184, 1, 34.2941, 48.7608, -13.0157, 95.3386, -53.2025, 51.2178
3.188, 1, 34.3281, 48.7459, -13.037, 95.3881, -53.161, 51.1036
3.192, 1, 34.3622, 48.731, -13.0582, 95.4376, -53.1194, 50.9895
3.196, 1, 34.3963, 48.7161, -13.0794, 95.487, -53.0779, 50.8755
3.199, 1, 34.4303, 48.7012, -13.1006, 95.5364, -53.0364, 50.7615
3.204, 1, 34.4643, 48.6863, -13.1218, 95.5858, -52.995, 50.6476
3.208, 1, 34.4983, 48.6715, -13.143, 95.6351, -52.9535, 50.5337
3.212, 1, 34.5323, 48.6566, -13.1642, 95.6844, -52.9121, 50.4199
3.216, 1, 34.5663, 48.6418, -13.1854, 95.7337, -52.8707, 50.3062
3.22, 1, 34.6002, 48.6269, -13.2065, 95.783, -52.8293, 50.1925
3.224, 1, 34.6342, 48.6121, -13.2277, 95.8323, -52.7879, 50.0789
3.228, 1, 34.6681, 48.5973, -13.2488, 95.8815, -52.7466, 49.9653
3.232, 1, 34.702, 48.5824, -13.2699, 95.9307, -52.7053, 49.8518
3.235, 1, 34.7358, 48.5676, -13.291, 95.9799, -52.664, 49.7384
3.24, 1, 34.7697, 48.5528, -13.3121, 96.029, -52.6227, 49.625
3.244, 1, 34.8036, 48.538, -13.3332, 96.0782, -52.5814, 49.5117
3.248, 1, 34.8374, 48.5233, -13.3543, 96.1273, -52.5402, 49.3984
3.252, 1, 34.8712, 48.5085, -13.3754, 96.1763, -52.499, 49.2852
3.255, 1, 34.905, 48.4937, -13.3964, 96.2254, -52.4578, 49.1721
3.26, 1, 34.9388, 48.4789, -13.4175, 96.2744, -52.4166, 49.059
3.264, 1, 34.9725, 48.4642, -13.4385, 96.3234, -52.3755, 48.9459
3.268, 1, 35.0062, 48.4494, -13.4595, 96.3724, -52.3344, 48.833
3.272, 1, 35.04, 48.4347, -13.4806, 96.4213, -52.2932, 48.72
3.276, 1, 35.0737, 48.42, -13.5016, 96.4702, -52.2522, 48.6072
3.28, 1, 35.1074, 48.4052, -13.5226, 96.5191, -52.2111, 48.4944
3.284, 1, 35.141, 48.3905, -13.5435, 96.568, -52.17, 48.3816
3.288, 1, 35.1747, 48.3758, -13.5645, 96.6169, -52.129, 48.2689
3.291, 1, 35.2083, 48.3611, -13.5855, 96.6657, -52.088, 48.1563
3.296, 1, 35.2419, 48.3464, -13.6064, 96.7145, -52.047, 48.0437
3.3, 1, 35.2754, 48.3318, -13.6274, 96.7633, -52.0061, 47.9312
3.304, 1, 35.3088, 48.3171, -13.6483, 96.812, -51.9651, 47.8187
3.308, 1, 35.3421, 48.3025, -13.6693, 96.8607, -51.9242, 47.7063
3.312, 1, 35.375, 48.2881, -13.6902, 96.9094, -51.8834, 47.5941
3.316, 1, 35.4073, 48.2741, -13.7112, 96.958, -51.8426, 47.4819
3.32, 1, 35.4386, 48.2604, -13.7323, 97.0065, -51.8019, 47.3701
3.324, 1, 35.4687, 48.2474, -13.7534, 97.0547, -51.7614, 47.2587
3.328, 1, 35.4975, 48.2351, -13.7745, 97.1026, -51.7213, 47.1481
3.332, 1, 35.5249, 48.2236, -13.7956, 97.1499, -51.6816, 47.0388
3.336, 1, 35.5511, 48.2127, -13.8164, 97.1965, -51.6426, 46.9313
3.34, 1, 35.5762, 48.2024, -13.8368, 97.2419, -51.6045, 46.8263
3.344, 1, 35.6003, 48.1926, -13.8567, 97.286, -51.5677, 46.7245
3.347, 1, 35.6234, 48.1832, -13.8758, 97.3283, -51.5323, 46.6268
3.352, 1, 35.6455, 48.1743, -13.894, 97.3685, -51.4986, 46.5338
3.356, 1, 35.6666, 48.1658, -13.9111, 97.4064, -51.4669, 46.4462
3.36, 1, 35.6865, 48.1576, -13.9269, 97.4416, -51.4374, 46.3648
3.364, 1, 35.7054, 48.1498, -13.9413, 97.474, -51.4102, 46.2901
3.368, 1, 35.7235, 48.1422, -13.9543, 97.5032, -51.3857, 46.2225
3.372, 1, 35.7409, 48.1347, -13.9656, 97.5294, -51.3638, 46.1622
3.376, 1, 35.7576, 48.1273, -13.9753, 97.5522, -51.3445, 46.1095
3.38, 1, 35.7738, 48.1198, -13.9833, 97.572, -51.3279, 46.064
3.383, 1, 35.7892, 48.1126, -13.9899, 97.5887, -51.3137, 46.0255
3.388, 1, 35.8036, 48.1057, -13.9951, 97.6027, -51.3019, 45.9934
3.392, 1, 35.8167, 48.0992, -13.9991, 97.6141, -51.2922, 45.9672
3.396, 2, 35.8285, 48.0934, -14.0022, 97.6233, -51.2844, 45.9462
3.4, 3, 35.8389, 48.0881, -14.0045, 97.6305, -51.2782, 45.9296
3.403, 3, 35.848, 48.0835, -14.0061, 97.6361, -51.2734, 45.9168
3.408, 3, 35.8561, 48.0795, -14.0071, 97.6404, -51.2698, 45.9072
3.412, 4, 35.8631, 48.0761, -14.0078, 97.6435, -51.267, 45.9
3.416, 4, 35.8691, 48.0732, -14.0082, 97.6458, -51.265, 45.8948
3.42, 4, 35.8741, 48.0708, -14.0084, 97.6475, -51.2636, 45.8912
3.424, 4, 35.8782, 48.069, -14.0085, 97.6486, -51.2626, 45.8886
3.428, 4, 35.8813, 48.0676, -14.0086, 97.6494, -51.2619, 45.8869
3.432, 4, 35.8835, 48.0666, -14.0086, 97.6499, -51.2615, 45.8857
3.436, 4, 35.8851, 48.0659, -14.0086, 97.6503, -51.2611, 45.8849
3.439, 4, 35.8862, 48.0654, -14.0086, 97.6505, -51.2609, 45.8843
3.444, 4, 35.8869, 48.0652, -14.0086, 97.6507, -51.2608, 45.884
3.448, 4, 35.8874, 48.0651, -14.0086, 97.6508, -51.2607, 45.8837
3.452, 4, 35.8877, 48.0653, -14.0086, 97.6509, -51.2607, 45.8835
3.456, 4, 35.888, 48.066, -14.0086, 97.6509, -51.2607, 45.8834
3.46, 5, 35.8881, 48.0671, -14.0087, 97.6509, -51.261, 45.8832
3.464, 5, 35.8882, 48.0689, -14.0088, 97.6509, -51.2617, 45.8829
3.468, 5, 35.8883, 48.0715, -14.009, 97.6508, -51.263, 45.8824
3.472, 5, 35.8884, 48.0749, -14.0093, 97.6507, -51.2652, 45.8816
3.476, 5, 35.8885, 48.0793, -14.0098, 97.6504, -51.2689, 45.8804
3.48, 5, 35.8885, 48.0849, -14.0106, 97.65, -51.2744, 45.8785
3.484, 5, 35.8886, 48.0919, -14.0117, 97.6493, -51.2825, 45.8757
3.488, 5, 35.8886, 48.1006, -14.0132, 97.6484, -51.2938, 45.8719
3.492, 5, 35.8886, 48.1112, -14.0153, 97.6472, -51.3093, 45.8666
3.495, 5, 35.8886, 48.1238, -14.0181, 97.6455, -51.3297, 45.8597
3.5, 5, 35.8885, 48.1387, -14.0217, 97.6433, -51.3562, 45.8508
3.504, 5, 35.8884, 48.1559, -14.0262, 97.6405, -51.3898, 45.8394
3.508, 6, 35.8883, 48.1755, -14.0318, 97.637, -51.4314, 45.8254
3.512, 6, 35.8881, 48.1979, -14.0386, 97.6327, -51.4821, 45.8084
3.516, 6, 35.8879, 48.2232, -14.0466, 97.6274, -51.5429, 45.788
3.52, 6, 35.8877, 48.2516, -14.0561, 97.621, -51.6146, 45.7639
3.524, 6, 35.8873, 48.2833, -14.067, 97.6135, -51.6981, 45.736
3.528, 6, 35.8869, 48.3186, -14.0794, 97.6048, -51.7941, 45.7039
3.531, 6, 35.8862, 48.3575, -14.0935, 97.5946, -51.9031, 45.6676
3.536, 6, 35.8855, 48.4004, -14.1092, 97.583, -52.0258, 45.6269
3.54, 6, 35.8846, 48.4473, -14.1265, 97.5697, -52.1626, 45.5815
3.544, 6, 35.8836, 48.4983, -14.1455, 97.5547, -52.3138, 45.5316
3.548, 6, 35.8825, 48.5537, -14.166, 97.5379, -52.4796, 45.477
3.552, 6, 35.8812, 48.6135, -14.1882, 97.5191, -52.6602, 45.4177
3.556, 6, 35.8799, 48.678, -14.2118, 97.4982, -52.8557, 45.3537
3.56, 6, 35.8785, 48.7471, -14.2369, 97.475, -53.0663, 45.2851
3.564, 6, 35.8769, 48.8209, -14.2634, 97.4495, -53.2919, 45.2118
3.568, 6, 35.8751, 48.8995, -14.2912, 97.4214, -53.5327, 45.134
3.572, 6, 35.873, 48.9828, -14.3201, 97.3907, -53.7886, 45.0516
3.576, 6, 35.8706, 49.0708, -14.3501, 97.3571, -54.0597, 44.9647
3.58, 7, 35.8678, 49.1635, -14.3811, 97.3205, -54.346, 44.8734
3.584, 7, 35.8646, 49.2608, -14.4129, 97.2807, -54.6475, 44.7777
3.587, 7, 35.8609, 49.3624, -14.4454, 97.2375, -54.9642, 44.6777
3.592, 7, 35.8568, 49.4683, -14.4785, 97.1908, -55.2961, 44.5734
3.596, 7, 35.8522, 49.578, -14.5121, 97.1404, -55.6429, 44.465
3.6, 7, 35.847, 49.6913, -14.546, 97.0861, -56.0046, 44.3525
3.604, 7, 35.8414, 49.8079, -14.5799, 97.0277, -56.3807, 44.2362
3.608, 7, 35.8351, 49.9278, -14.6137, 96.9652, -56.7708, 44.1161
3.612, 7, 35.8282, 50.0506, -14.6472, 96.8986, -57.1743, 43.9926
3.616, 7, 35.8206, 50.1762, -14.68, 96.8276, -57.5903, 43.8659
3.62, 7, 35.8123, 50.3043, -14.712, 96.7524, -58.0181, 43.7363
3.624, 7, 35.8034, 50.4343, -14.7429, 96.6729, -58.4567, 43.6041
3.628, 7, 35.7938, 50.5657, -14.7724, 96.5892, -58.9049, 43.4697
3.632, 7, 35.7835, 50.6978, -14.8005, 96.5015, -59.3615, 43.3334
3.636, 7, 35.7727, 50.8301, -14.8267, 96.4098, -59.8252, 43.1957
3.64, 7, 35.7613, 50.9623, -14.8511, 96.3145, -60.2942, 43.057
3.644, 7, 35.7493, 51.0942, -14.8733, 96.2158, -60.7671, 42.9178
3.648, 7, 35.7366, 51.2257, -14.8933, 96.1141, -61.2419, 42.7786
3.652, 8, 35.7233, 51.3567, -14.911, 96.0097, -61.717, 42.6399
3.656, 8, 35.7094, 51.4869, -14.9262, 95.9031, -62.1906, 42.5021
3.66, 8, 35.6949, 51.616, -14.9389, 95.7947, -62.6609, 42.3658
3.664, 8, 35.68, 51.7435, -14.9491, 95.6849, -63.1265, 42.2313
3.668, 8, 35.6647, 51.869, -14.9569, 95.5743, -63.5856, 42.0991
3.672, 8, 35.6491, 51.9921, -14.9622, 95.4632, -64.0369, 41.9695
3.676, 8, 35.6334, 52.1126, -14.9651, 95.3521, -64.4791, 41.8429
3.679, 8, 35.6174, 52.2304, -14.9658, 95.2415, -64.9108, 41.7196
3.684, 8, 35.6013, 52.3452, -14.9643, 95.1319, -65.3311, 41.5998
3.688, 8, 35.5849, 52.4569, -14.9609, 95.0235, -65.7391, 41.4838
3.692, 8, 35.5682, 52.5652, -14.9556, 94.9167, -66.1341, 41.3716
3.696, 8, 35.5513, 52.6699, -14.9486, 94.8119, -66.5156, 41.2635
3.7, 8, 35.5341, 52.7705, -14.9401, 94.7093, -66.8832, 41.1595
3.704, 8, 35.5168, 52.8669, -14.9303, 94.6091, -67.2368, 41.0596
3.708, 8, 35.4995, 52.9591, -14.9194, 94.5117, -67.576, 40.9638
3.712, 8, 35.4823, 53.0468, -14.9074, 94.4171, -67.9007, 40.8722
3.716, 8, 35.4653, 53.1301, -14.8947, 94.3257, -68.2109, 40.7849
3.72, 8, 35.4486, 53.209, -14.8814, 94.2376, -68.5063, 40.7017
3.724, 8, 35.4323, 53.2835, -14.8676, 94.1529, -68.787, 40.6227
3.728, 8, 35.4165, 53.3536, -14.8536, 94.072, -69.0527, 40.548
3.732, 8, 35.4012, 53.4194, -14.8394, 93.9948, -69.3034, 40.4775
3.735, 8, 35.3863, 53.481, -14.8253, 93.9216, -69.539, 40.4113
3.74, 8, 35.3716, 53.5388, -14.8112, 93.8525, -69.7596, 40.3494
3.744, 8, 35.3567, 53.5928, -14.7972, 93.7876, -69.9651, 40.2919
3.748, 8, 35.3413, 53.6437, -14.7832, 93.7266, -70.1557, 40.2388
3.752, 8, 35.3248, 53.6918, -14.769, 93.6694, -70.332, 40.1901
3.756, 8, 35.307, 53.7375, -14.7543, 93.6157, -70.4945, 40.146
3.76, 8, 35.2881, 53.7813, -14.7386, 93.5648, -70.6442, 40.1064
3.764, 8, 35.2679, 53.8234, -14.7213, 93.516, -70.7825, 40.0715
3.768, 8, 35.2467, 53.8637, -14.7016, 93.4683, -70.9112, 40.041
3.772, 8, 35.2247, 53.9023, -14.6788, 93.4207, -71.0323, 40.0149
3.776, 8, 35.202, 53.9388, -14.6516, 93.3721, -71.1479, 39.9931
3.78, 8, 35.1784, 53.9733, -14.6192, 93.3211, -71.2605, 39.9752
3.784, 8, 35.1539, 54.0055, -14.5807, 93.2665, -71.3727, 39.961
3.788, 8, 35.1284, 54.0353, -14.5351, 93.2072, -71.487, 39.9502
3.792, 8, 35.1017, 54.0627, -14.4819, 93.1417, -71.6059, 39.9425
3.796, 9, 35.0738, 54.0876, -14.4204, 93.0691, -71.7318, 39.9374
3.8, 9, 35.0447, 54.11, -14.3502, 92.9884, -71.8669, 39.9347
3.804, 9, 35.0142, 54.1299, -14.2709, 92.8986, -72.013, 39.9338
3.808, 9, 34.9822, 54.1475, -14.1822, 92.7993, -72.1717, 39.9344
3.812, 9, 34.9483, 54.1629, -14.0836, 92.6899, -72.3443, 39.9362
3.816, 9, 34.9124, 54.1764, -13.9751, 92.5703, -72.5316, 39.9388
3.82, 9, 34.8745, 54.188, -13.8566, 92.4402, -72.7339, 39.9419
3.824, 9, 34.8346, 54.1981, -13.7282, 92.2998, -72.9514, 39.9453
3.828, 9, 34.7928, 54.2067, -13.5902, 92.1493, -73.1839, 39.9488
3.832, 9, 34.7494, 54.2137, -13.4428, 91.9892, -73.4308, 39.9523
3.836, 9, 34.7046, 54.2192, -13.2864, 91.82, -73.6911, 39.9557
3.84, 9, 34.6584, 54.2231, -13.1216, 91.6426, -73.9636, 39.9587
3.844, 9, 34.611, 54.2256, -12.9488, 91.4579, -74.2469, 39.9614
3.848, 9, 34.5626, 54.2267, -12.7689, 91.2671, -74.5392, 39.9636
3.852, 9, 34.5134, 54.2267, -12.5829, 91.0713, -74.8387, 39.9652
3.856, 9, 34.4637, 54.2257, -12.3921, 90.872, -75.1432, 39.9662
3.86, 9, 34.4136, 54.2238, -12.1977, 90.6704, -75.4508, 39.9666
3.864, 9, 34.3631, 54.2214, -12.0012, 90.468, -75.7593, 39.9663
3.868, 9, 34.3122, 54.2188, -11.8039, 90.2661, -76.0666, 39.9653
3.872, 9, 34.2608, 54.2161, -11.6074, 90.0661, -76.3707, 39.9636
3.876, 9, 34.2087, 54.2137, -11.4127, 89.8693, -76.6696, 39.9613
3.88, 9, 34.1561, 54.2116, -11.2211, 89.6768, -76.9616, 39.9583
3.884, 9, 34.1032, 54.2099, -11.0337, 89.4896, -77.2452, 39.9548
3.888, 9, 34.0505, 54.2084, -10.8514, 89.3085, -77.5193, 39.9507
3.892, 9, 33.9984, 54.2071, -10.675, 89.1343, -77.7827, 39.9463
3.896, 9, 33.9475, 54.2057, -10.5052, 88.9674, -78.0347, 39.9414
3.9, 9, 33.898, 54.2042, -10.3425, 88.8083, -78.2748, 39.9362
3.904, 9, 33.8504, 54.2025, -10.1873, 88.6572, -78.5024, 39.9308
3.908, 9, 33.8047, 54.2005, -10.0401, 88.5145, -78.7172, 39.9253
3.912, 9, 33.7611, 54.1982, -9.9011, 88.3804, -78.9189, 39.9198
3.916, 9, 33.7195, 54.1956, -9.77043, 88.2549, -79.1074, 39.9144
3.92, 9, 33.6795, 54.1927, -9.64811, 88.1381, -79.2825, 39.9093
3.924, 9, 33.6409, 54.1895, -9.53399, 88.0299, -79.4442, 39.9049
3.928, 9, 33.6034, 54.186, -9.42767, 87.93, -79.5926, 39.9015
3.932, 9, 33.5666, 54.1822, -9.32857, 87.838, -79.728, 39.8996
3.936, 9, 33.5302, 54.1781, -9.23582, 87.7531, -79.8509, 39.9
3.94, 9, 33.4938, 54.1735, -9.14837, 87.6746, -79.9619, 39.9032
3.944, 9, 33.4574, 54.1681, -9.06493, 87.6015, -80.0621, 39.9099
3.948, 9, 33.4209, 54.1616, -8.98403, 87.5324, -80.1524, 39.921
3.952, 9, 33.3844, 54.1536, -8.90409, 87.4663, -80.2342, 39.937
3.956, 9, 33.3479, 54.1437, -8.82343, 87.4016, -80.3089, 39.9586
3.96, 9, 33.3113, 54.1315, -8.74032, 87.337, -80.378, 39.9865
3.964, 9, 33.2747, 54.117, -8.65305, 87.2711, -80.4431, 40.0213
3.968, 9, 33.2381, 54.0997, -8.56001, 87.2026, -80.5057, 40.0634
3.972, 9, 33.2012, 54.0793, -8.45973, 87.13, -80.5672, 40.1132
3.976, 9, 33.1639, 54.0555, -8.35096, 87.0524, -80.6293, 40.171
3.98, 9, 33.1259, 54.0278, -8.23264, 86.9687, -80.6931, 40.2367
3.984, 9, 33.0868, 53.996, -8.10396, 86.8782, -80.7599, 40.3105
3.988, 9, 33.0462, 53.9597, -7.96431, 86.7802, -80.8307, 40.3923
3.992, 9, 33.0039, 53.919, -7.8133, 86.6743, -80.906, 40.4819
3.996, 9, 32.9595, 53.8738, -7.65066, 86.5603, -80.9866, 40.5791
3.999, 9, 32.9128, 53.8244, -7.4763, 86.438, -81.0728, 40.6838
4.004, 9, 32.8637, 53.7711, -7.29026, 86.3074, -81.1647, 40.7958
4.008, 9, 32.8121, 53.7141, -7.09271, 86.1687, -81.2626, 40.9147
4.012, 9, 32.7579, 53.6536, -6.88396, 86.0219, -81.3663, 41.0403
4.016, 9, 32.7013, 53.5898, -6.66444, 85.8675, -81.4758, 41.1723
4.02, 9, 32.6422, 53.523, -6.4347, 85.7057, -81.591, 41.3101
4.024, 9, 32.5809, 53.4533, -6.19541, 85.5372, -81.7116, 41.4533
4.028, 9, 32.5175, 53.3811, -5.94739, 85.3623, -81.8372, 41.6014
4.032, 9, 32.4526, 53.3066, -5.69156, 85.1817, -81.9675, 41.7538
4.036, 9, 32.3864, 53.2301, -5.42901, 84.9962, -82.102, 41.9098
4.04, 9, 32.3192, 53.152, -5.16088, 84.8065, -82.2402, 42.0687
4.044, 9, 32.2512, 53.0727, -4.88843, 84.6136, -82.3814, 42.2297
4.048, 9, 32.1825, 52.9925, -4.61296, 84.4183, -82.5251, 42.392
4.052, 9, 32.1129, 52.9117, -4.33575, 84.2217, -82.6704, 42.5547
4.056, 9, 32.0425, 52.8308, -4.05813, 84.0246, -82.8169, 42.7172
4.06, 9, 31.9713, 52.7501, -3.78134, 83.828, -82.9637, 42.8785
4.064, 9, 31.8995, 52.67, -3.50658, 83.6327, -83.1103, 43.0381
4.068, 9, 31.8271, 52.5906, -3.23496, 83.4395, -83.256, 43.1953
4.072, 9, 31.7546, 52.5125, -2.96748, 83.2492, -83.4003, 43.3495
4.076, 9, 31.6822, 52.4357, -2.70503, 83.0623, -83.5425, 43.5002
4.08, 9, 31.6103, 52.3606, -2.4484, 82.8795, -83.6824, 43.647
4.084, 9, 31.539, 52.2873, -2.19826, 82.7012, -83.8194, 43.7895
4.088, 9, 31.4686, 52.216, -1.95514, 82.5279, -83.9532, 43.9275
4.092, 9, 31.3995, 52.1468, -1.71951, 82.3598, -84.0835, 44.0607
4.096, 9, 31.3318, 52.0798, -1.4917, 82.1972, -84.2101, 44.1891
4.1, 9, 31.2659, 52.0152, -1.27199, 82.0403, -84.3327, 44.3124
4.104, 9, 31.202, 51.9529, -1.0606, 81.8892, -84.4512, 44.4306
4.108, 10, 31.1402, 51.8931, -0.857682, 81.744, -84.5655, 44.5438
4.112, 10, 31.0807, 51.8357, -0.663369, 81.6049, -84.6754, 44.6518
4.116, 10, 31.0234, 51.7808, -0.477732, 81.472, -84.7807, 44.7547
4.12, 10, 30.9683, 51.7283, -0.300763, 81.3452, -84.8814, 44.8525
4.124, 10, 30.9151, 51.678, -0.132352, 81.2246, -84.9774, 44.9453
4.128, 10, 30.8635, 51.6298, 0.0277292, 81.1099, -85.0684, 45.0334
4.132, 10, 30.8131, 51.5836, 0.179871, 81.0009, -85.1546, 45.1174
4.136, 10, 30.7636, 51.5392, 0.324657, 80.8971, -85.2358, 45.1978
4.14, 10, 30.7144, 51.4963, 0.462883, 80.7978, -85.312, 45.2756
4.144, 10, 30.6654, 51.4546, 0.595545, 80.7021, -85.3836, 45.3517
4.148, 10, 30.6164, 51.4138, 0.723833, 80.609, -85.4507, 45.4274
4.152, 10, 30.5673, 51.3734, 0.849107, 80.5172, -85.5138, 45.5038
4.156, 10, 30.5181, 51.333, 0.972873, 80.4256, -85.5733, 45.5822
4.16, 10, 30.4688, 51.2922, 1.09673, 80.3329, -85.63, 45.664
4.164, 10, 30.4193, 51.2505, 1.22233, 80.2376, -85.6844, 45.7503
4.168, 10, 30.3695, 51.2077, 1.35124, 80.1386, -85.7373, 45.8423
4.172, 10, 30.3194, 51.1634, 1.48495, 80.0346, -85.7895, 45.9412
4.176, 10, 30.2688, 51.1176, 1.62475, 79.9244, -85.8417, 46.0479
4.18, 10, 30.2178, 51.0698, 1.77174, 79.8071, -85.8947, 46.1632
4.184, 10, 30.166, 51.0199, 1.92678, 79.6821, -85.9492, 46.2874
4.188, 10, 30.1134, 50.9676, 2.09049, 79.5487, -86.0059, 46.4208
4.192, 10, 30.0596, 50.9128, 2.26322, 79.4069, -86.0652, 46.5635
4.196, 10, 30.0045, 50.8554, 2.4451, 79.2565, -86.1277, 46.7151
4.2, 10, 29.9476, 50.7952, 2.63605, 79.0979, -86.1934, 46.8753
4.204, 10, 29.889, 50.7324, 2.83571, 78.9312, -86.2626, 47.0436
4.208, 10, 29.8285, 50.6671, 3.04354, 78.7571, -86.3353, 47.2195
4.212, 10, 29.7665, 50.5996, 3.25874, 78.5761, -86.4114, 47.4021
4.216, 10, 29.7032, 50.5302, 3.4804, 78.3891, -86.4906, 47.5906
4.22, 10, 29.6388, 50.4593, 3.70744, 78.1969, -86.5728, 47.7842
4.224, 10, 29.5736, 50.3872, 3.9387, 78.0004, -86.6575, 47.9818
4.228, 10, 29.5075, 50.3143, 4.17294, 77.8007, -86.7444, 48.1822
4.232, 10, 29.4406, 50.2411, 4.4089, 77.599, -86.8331, 48.3845
4.236, 10, 29.373, 50.1678, 4.64531, 77.3964, -86.923, 48.5874
4.24, 10, 29.3048, 50.095, 4.88091, 77.1938, -87.0138, 48.7899
4.244, 10, 29.236, 50.0229, 5.1145, 76.9924, -87.105, 48.9909
4.248, 10, 29.167, 49.9521, 5.34497, 76.7932, -87.1961, 49.1894
4.252, 10, 29.098, 49.8826, 5.57127, 76.5971, -87.2866, 49.3846
4.256, 10, 29.0294, 49.815, 5.79246, 76.4049, -87.3761, 49.5756
4.26, 10, 28.9615, 49.7493, 6.00771, 76.2174, -87.4643, 49.7616
4.264, 10, 28.8945, 49.6858, 6.21627, 76.0353, -87.5507, 49.9419
4.268, 10, 28.8289, 49.6248, 6.41754, 75.8593, -87.635, 50.1161
4.272, 10, 28.7649, 49.5662, 6.61097, 75.6897, -87.7168, 50.2836
4.276, 10, 28.7029, 49.5104, 6.79611, 75.5269, -87.796, 50.4441
4.28, 10, 28.6433, 49.4573, 6.9726, 75.3715, -87.8722, 50.5973
4.284, 10, 28.5862, 49.4071, 7.14012, 75.2236, -87.9453, 50.7428
4.288, 10, 28.5318, 49.3598, 7.29841, 75.0835, -88.0149, 50.8805
4.292, 10, 28.4803, 49.3155, 7.44725, 74.9515, -88.081, 51.01
4.296, 10, 28.4319, 49.2741, 7.58643, 74.8278, -88.1433, 51.1313
4.3, 10, 28.3864, 49.2357, 7.71583, 74.7126, -88.2016, 51.2441
4.304, 10, 28.3438, 49.2001, 7.83535, 74.6062, -88.2558, 51.3483
4.308, 10, 28.3042, 49.1671, 7.945, 74.5085, -88.3057, 51.4439
4.312, 10, 28.2674, 49.1364, 8.04483, 74.4197, -88.3513, 51.5309
4.316, 10, 28.2335, 49.1077, 8.135, 74.3398, -88.3923, 51.6093
4.32, 10, 28.2023, 49.0807, 8.21578, 74.2687, -88.4288, 51.6796
4.324, 10, 28.1739, 49.0552, 8.28751, 74.2064, -88.4605, 51.7418
4.328, 10, 28.1482, 49.0311, 8.35064, 74.1528, -88.4873, 51.7966
4.332, 10, 28.1251, 49.0085, 8.40566, 74.1078, -88.5091, 51.8441
4.336, 10, 28.1043, 48.9876, 8.45317, 74.071, -88.5257, 51.8849
4.34, 10, 28.0856, 48.9683, 8.49382, 74.0422, -88.5371, 51.9195
4.344, 10, 28.0689, 48.9506, 8.52826, 74.021, -88.5435, 51.9481
4.348, 10, 28.054, 48.9345, 8.5572, 74.007, -88.5449, 51.9714
4.352, 10, 28.0408, 48.9199, 8.58132, 73.9994, -88.5415, 51.9897
4.356, 10, 28.0292, 48.9065, 8.60128, 73.9977, -88.5338, 52.0034
4.36, 10, 28.019, 48.8941, 8.61772, 74.0011, -88.5222, 52.0131
4.364, 10, 28.0099, 48.8826, 8.63123, 74.0089, -88.5072, 52.019
4.368, 10, 28.0016, 48.8718, 8.64236, 74.0202, -88.4893, 52.0217
4.372, 10, 27.9937, 48.8616, 8.65166, 74.0342, -88.4692, 52.0215
4.376, 10, 27.986, 48.8516, 8.65966, 74.0501, -88.4475, 52.0189
4.38, 10, 27.9784, 48.8414, 8.66689, 74.067, -88.4251, 52.0144
4.384, 10, 27.9706, 48.8307, 8.67391, 74.084, -88.4025, 52.0086
4.388, 10, 27.9626, 48.8191, 8.6813, 74.1, -88.3806, 52.0025
4.392, 10, 27.9543, 48.8065, 8.68973, 74.1141, -88.36, 51.9969
4.396, 10, 27.9456, 48.7926, 8.69989, 74.1256, -88.3413, 51.9927
4.4, 10, 27.936, 48.7773, 8.71254, 74.1334, -88.3249, 51.9911
4.404, 10, 27.9254, 48.7604, 8.72849, 74.137, -88.3112, 51.9931
4.408, 10, 27.9133, 48.742, 8.74859, 74.1355, -88.3005, 51.9996
4.412, 10, 27.8994, 48.7219, 8.7737, 74.1284, -88.2929, 52.0116
4.416, 10, 27.8837, 48.7, 8.80464, 74.1151, -88.2884, 52.03
4.42, 10, 27.8657, 48.6761, 8.84217, 74.0951, -88.2873, 52.0556
4.424, 10, 27.8455, 48.6501, 8.88703, 74.068, -88.2895, 52.0891
4.428, 10, 27.8228, 48.6217, 8.93985, 74.0333, -88.2949, 52.1312
4.432, 10, 27.7975, 48.5908, 9.00122, 73.9908, -88.3036, 52.1822
4.436, 10, 27.7694, 48.5573, 9.07162, 73.9401, -88.3155, 52.2425
4.44, 10, 27.7384, 48.5211, 9.15145, 73.8813, -88.3304, 52.3123
4.444, 10, 27.7041, 48.482, 9.24102, 73.8141, -88.3483, 52.3918
4.448, 10, 27.6665, 48.4398, 9.34054, 73.7387, -88.3689, 52.4809
4.452, 10, 27.6253, 48.3945, 9.45012, 73.6549, -88.3923, 52.5796
4.456, 10, 27.5804, 48.3459, 9.56979, 73.5629, -88.4185, 52.6879
4.46, 10, 27.5317, 48.2937, 9.69952, 73.4626, -88.4473, 52.8056
4.464, 10, 27.479, 48.238, 9.83924, 73.3541, -88.4787, 52.9327
4.468, 10, 27.4224, 48.1786, 9.98884, 73.2374, -88.5128, 53.0692
4.472, 10, 27.3617, 48.1156, 10.1482, 73.1126, -88.5497, 53.2148
4.476, 10, 27.297, 48.049, 10.3171, 72.9797, -88.5892, 53.3694
4.48, 10, 27.2282, 47.979, 10.4954, 72.8388, -88.6316, 53.533
4.484, 10, 27.1553, 47.9055, 10.6829, 72.6898, -88.6767, 53.7054
4.488, 10, 27.0786, 47.8288, 10.8794, 72.5331, -88.7246, 53.8864
4.492, 10, 26.9981, 47.7491, 11.0844, 72.3685, -88.7754, 54.0759
4.496, 10, 26.9144, 47.6667, 11.2978, 72.1962, -88.829, 54.2736
4.5, 10, 26.8276, 47.5819, 11.5189, 72.0166, -88.8855, 54.4791
4.504, 10, 26.7382, 47.4951, 11.7472, 71.8299, -88.9447, 54.692
4.508, 10, 26.6464, 47.4065, 11.982, 71.6367, -89.0066, 54.9115
4.512, 10, 26.5525, 47.3164, 12.2223, 71.4377, -89.071, 55.1371
4.516, 10, 26.4569, 47.2251, 12.4672, 71.2335, -89.1377, 55.3676
4.52, 10, 26.3598, 47.1327, 12.7157, 71.025, -89.2064, 55.6021
4.524, 10, 26.2615, 47.0395, 12.9664, 70.8133, -89.2768, 55.8394
4.528, 10, 26.1623, 46.946, 13.2183, 70.5994, -89.3487, 56.0785
4.532, 10, 26.0624, 46.8525, 13.4701, 70.3842, -89.4216, 56.318
4.536, 10, 25.9621, 46.7596, 13.7204, 70.169, -89.4953, 56.5568
4.54, 10, 25.8612, 46.6676, 13.9681, 69.9548, -89.5693, 56.7937
4.544, 10, 25.76, 46.577, 14.2121, 69.7426, -89.6433, 57.0275
4.548, 10, 25.6587, 46.4881, 14.4514, 69.5333, -89.7169, 57.2572
4.552, 10, 25.5577, 46.4013, 14.685, 69.328, -89.7899, 57.4819
4.556, 10, 25.4573, 46.3167, 14.9122, 69.1272, -89.8618, 57.7008
4.56, 10, 25.3581, 46.2346, 15.1324, 68.9317, -89.9325, 57.9133
4.564, 11, 25.2605, 46.1554, 15.345, 68.7419, -90.0016, 58.1189
4.568, 11, 25.1651, 46.0791, 15.5498, 68.5581, -90.0691, 58.3173
4.572, 11, 25.0723, 46.006, 15.7464, 68.3807, -90.1347, 58.5082
4.576, 11, 24.9823, 45.936, 15.9347, 68.21, -90.1984, 58.6914
4.58, 11, 24.8954, 45.8694, 16.1146, 68.0461, -90.2599, 58.8667
4.584, 11, 24.8118, 45.806, 16.2859, 67.8892, -90.3191, 59.034
4.588, 11, 24.7317, 45.7458, 16.4486, 67.7394, -90.376, 59.1933
4.592, 11, 24.6551, 45.6887, 16.6028, 67.5969, -90.4304, 59.3444
4.596, 11, 24.5821, 45.6344, 16.7484, 67.4619, -90.4822, 59.4874
4.6, 11, 24.5125, 45.5828, 16.8856, 67.3342, -90.5312, 59.6224
4.604, 11, 24.446, 45.5336, 17.0146, 67.214, -90.5772, 59.7496
4.608, 11, 24.3823, 45.4864, 17.1357, 67.1011, -90.6201, 59.8694
4.612, 11, 24.3209, 45.4409, 17.2494, 66.9952, -90.6595, 59.9825
4.616, 11, 24.2614, 45.3968, 17.3563, 66.896, -90.6952, 60.0896
4.62, 11, 24.2034, 45.3539, 17.4571, 66.8027, -90.7271, 60.1919
4.624, 11, 24.1466, 45.312, 17.5528, 66.7145, -90.755, 60.2905
4.628, 11, 24.0906, 45.2706, 17.6445, 66.6306, -90.779, 60.3869
4.632, 11, 24.0354, 45.2294, 17.7333, 66.5499, -90.799, 60.4826
4.636, 12, 23.9806, 45.1881, 17.8205, 66.4711, -90.8151, 60.579
4.64, 12, 23.9259, 45.1464, 17.9074, 66.3931, -90.8275, 60.6778
4.644, 12, 23.8713, 45.1038, 17.9953, 66.3146, -90.8364, 60.7805
4.648, 12, 23.8164, 45.0599, 18.0854, 66.2344, -90.842, 60.8888
4.652, 12, 23.761, 45.0143, 18.1789, 66.1512, -90.8447, 61.0038
4.656, 12, 23.705, 44.9666, 18.2769, 66.064, -90.8448, 61.127
4.66, 13, 23.6478, 44.9164, 18.3803, 65.9716, -90.8427, 61.2593
4.664, 13, 23.5892, 44.8634, 18.4899, 65.8734, -90.8389, 61.4015
4.668, 13, 23.5288, 44.8072, 18.6063, 65.7685, -90.8337, 61.5543
4.672, 13, 23.466, 44.7476, 18.7299, 65.6565, -90.8274, 61.7181
4.676, 13, 23.4003, 44.6844, 18.8611, 65.537, -90.8203, 61.8931
4.68, 13, 23.3312, 44.6176, 18.9999, 65.4097, -90.8126, 62.0795
4.684, 13, 23.2583, 44.5473, 19.1464, 65.2746, -90.8045, 62.2775
4.688, 13, 23.1814, 44.4734, 19.3006, 65.1314, -90.7961, 62.4869
4.692, 13, 23.1003, 44.3961, 19.4625, 64.9801, -90.7875, 62.7079
4.696, 13, 23.0148, 44.3155, 19.6317, 64.8207, -90.7788, 62.9403
4.7, 13, 22.9249, 44.2316, 19.8083, 64.6532, -90.7701, 63.1841
4.704, 13, 22.8304, 44.1445, 19.992, 64.4776, -90.7616, 63.4392
4.708, 13, 22.7313, 44.0546, 20.1826, 64.2938, -90.7532, 63.7055
4.712, 13, 22.6276, 43.9618, 20.38, 64.1018, -90.7451, 63.983
4.716, 13, 22.5191, 43.8663, 20.5838, 63.9018, -90.7373, 64.2715
4.72, 13, 22.406, 43.7683, 20.7939, 63.6937, -90.73, 64.5708
4.724, 13, 22.2881, 43.668, 21.0101, 63.4775, -90.7233, 64.881
4.728, 13, 22.1654, 43.5656, 21.232, 63.2533, -90.7171, 65.2018
4.732, 13, 22.038, 43.4613, 21.4594, 63.0212, -90.7117, 65.5331
4.736, 13, 21.9058, 43.3552, 21.6921, 62.7811, -90.7071, 65.8748
4.74, 13, 21.7691, 43.2477, 21.9297, 62.5331, -90.7033, 66.2267
4.744, 13, 21.628, 43.1391, 22.1719, 62.2774, -90.7006, 66.5886
4.748, 13, 21.483, 43.0297, 22.4182, 62.0141, -90.6989, 66.9601
4.752, 13, 21.3342, 42.9196, 22.6684, 61.7434, -90.6983, 67.341
4.756, 13, 21.182, 42.8091, 22.9217, 61.4657, -90.699, 67.7304
4.76, 13, 21.0269, 42.6984, 23.1777, 61.1816, -90.701, 68.1278
4.764, 13, 20.869, 42.5877, 23.4355, 60.8916, -90.7043, 68.5322
4.768, 13, 20.709, 42.4773, 23.6945, 60.5965, -90.7089, 68.9425
4.772, 13, 20.547, 42.3675, 23.9537, 60.2973, -90.715, 69.3574
4.776, 13, 20.3835, 42.2586, 24.2123, 59.9948, -90.7225, 69.7756
4.78, 13, 20.2188, 42.1511, 24.4694, 59.6901, -90.7315, 70.1957
4.784, 13, 20.0533, 42.0453, 24.7241, 59.3844, -90.7418, 70.6161
4.788, 13, 19.8872, 41.9416, 24.9755, 59.0786, -90.7534, 71.0354
4.792, 13, 19.7207, 41.8403, 25.2227, 58.7741, -90.7664, 71.4519
4.796, 13, 19.5539, 41.7417, 25.4649, 58.4717, -90.7805, 71.8643
4.8, 13, 19.3872, 41.6459, 25.7015, 58.1727, -90.7958, 72.2712
4.804, 13, 19.2211, 41.5532, 25.9318, 57.8779, -90.8121, 72.6713
4.808, 13, 19.0561, 41.4638, 26.1554, 57.5882, -90.8294, 73.0637
4.812, 13, 18.8926, 41.3778, 26.3718, 57.3042, -90.8475, 73.4473
4.816, 13, 18.7313, 41.2954, 26.5808, 57.0265, -90.8663, 73.8216
4.82, 13, 18.5726, 41.2165, 26.7822, 56.7556, -90.8856, 74.186
4.824, 13, 18.417, 41.1413, 26.9758, 56.4918, -90.9055, 74.5401
4.828, 13, 18.2648, 41.0698, 27.1618, 56.2354, -90.9257, 74.8835
4.832, 13, 18.1163, 41.0019, 27.34, 55.9867, -90.9462, 75.216
4.836, 13, 17.9715, 40.9376, 27.5106, 55.7458, -90.9669, 75.5374
4.84, 13, 17.8309, 40.8767, 27.6736, 55.5128, -90.9877, 75.8476
4.844, 13, 17.6944, 40.8192, 27.8293, 55.2879, -91.0084, 76.1467
4.848, 13, 17.5622, 40.765, 27.9776, 55.0712, -91.0291, 76.4344
4.852, 13, 17.4346, 40.7139, 28.1188, 54.8625, -91.0496, 76.7109
4.856, 13, 17.3115, 40.6658, 28.2531, 54.6621, -91.0698, 76.9762
4.86, 13, 17.193, 40.6207, 28.3805, 54.4699, -91.0897, 77.2302
4.864, 13, 17.0793, 40.5784, 28.5014, 54.2858, -91.1092, 77.4731
4.868, 13, 16.9704, 40.5387, 28.6158, 54.11, -91.1283, 77.7049
4.872, 13, 16.8663, 40.5017, 28.7238, 53.9423, -91.1469, 77.9256
4.876, 13, 16.767, 40.467, 28.8257, 53.7828, -91.1649, 78.1353
4.88, 13, 16.6724, 40.4347, 28.9217, 53.6315, -91.1823, 78.3341
4.884, 13, 16.5823, 40.4043, 29.0118, 53.4883, -91.199, 78.5221
4.888, 13, 16.4963, 40.3757, 29.0963, 53.353, -91.215, 78.6997
4.892, 13, 16.4139, 40.3485, 29.1756, 53.2255, -91.23, 78.8672
4.896, 13, 16.3348, 40.3224, 29.2498, 53.1054, -91.244, 79.0255
4.9, 13, 16.2584, 40.2973, 29.3196, 52.992, -91.2567, 79.1757
4.904, 13, 16.1842, 40.273, 29.3853, 52.8847, -91.2679, 79.3192
4.908, 13, 16.1118, 40.2494, 29.4476, 52.7824, -91.2775, 79.4575
4.912, 13, 16.0407, 40.2263, 29.5072, 52.6842, -91.2851, 79.5927
4.916, 13, 15.9706, 40.2037, 29.5647, 52.5888, -91.2907, 79.7267
4.92, 13, 15.9011, 40.1813, 29.621, 52.4949, -91.2941, 79.8616
4.924, 13, 15.832, 40.1589, 29.6768, 52.4012, -91.2952, 79.9995
4.928, 13, 15.7628, 40.1362, 29.733, 52.3063, -91.2939, 80.1425
4.932, 13, 15.6933, 40.113, 29.7903, 52.2089, -91.2903, 80.2927
4.936, 13, 15.6232, 40.0893, 29.8494, 52.1076, -91.2844, 80.452
4.94, 13, 15.5521, 40.0648, 29.9109, 52.0013, -91.2762, 80.6222
4.944, 13, 15.4796, 40.0394, 29.9754, 51.8889, -91.2659, 80.8046
4.948, 13, 15.4052, 40.0129, 30.0433, 51.7695, -91.2537, 81.0004
4.952, 13, 15.3284, 39.9852, 30.115, 51.6424, -91.2397, 81.2104
4.956, 13, 15.2487, 39.9562, 30.1906, 51.507, -91.2243, 81.435
4.96, 13, 15.1655, 39.9259, 30.2704, 51.3632, -91.2075, 81.6747
4.964, 13, 15.0783, 39.8944, 30.3542, 51.2105, -91.1897, 81.9295
4.968, 13, 14.9867, 39.8616, 30.4421, 51.0489, -91.171, 82.1996
4.972, 14, 14.8905, 39.8278, 30.534, 50.8782, -91.1516, 82.485
4.976, 14, 14.7894, 39.7932, 30.6298, 50.6984, -91.1316, 82.7857
4.98, 14, 14.6832, 39.7578, 30.7292, 50.5094, -91.111, 83.1016
4.984, 14, 14.5719, 39.7217, 30.8322, 50.3113, -91.0901, 83.4329
4.988, 14, 14.4554, 39.6851, 30.9386, 50.104, -91.069, 83.7793
4.992, 14, 14.3337, 39.6481, 31.0482, 49.8876, -91.0476, 84.1408
4.996, 14, 14.2067, 39.6107, 31.1607, 49.6622, -91.0263, 84.5175
5, 14, 14.0744, 39.5731, 31.2761, 49.4276, -91.0049, 84.9091
5.004, 14, 13.9367, 39.5356, 31.3939, 49.1841, -90.9838, 85.3156
5.008, 14, 13.7938, 39.4983, 31.5142, 48.9316, -90.9629, 85.7369
5.012, 14, 13.6456, 39.4614, 31.6364, 48.6703, -90.9424, 86.1729
5.016, 14, 13.4922, 39.4252, 31.7606, 48.4002, -90.9224, 86.6233
5.02, 15, 13.3336, 39.3898, 31.8863, 48.1215, -90.9031, 87.0882
5.024, 15, 13.17, 39.3554, 32.0133, 47.8342, -90.8844, 87.5672
5.028, 15, 13.0017, 39.3223, 32.1414, 47.5386, -90.8667, 88.0602
5.032, 15, 12.8289, 39.2906, 32.2703, 47.2348, -90.8499, 88.5668
5.036, 15, 12.652, 39.2606, 32.3996, 46.9232, -90.8341, 89.0865
5.04, 15, 12.4711, 39.2323, 32.5291, 46.6041, -90.8196, 89.6187
5.044, 15, 12.2866, 39.206, 32.6582, 46.2781, -90.8064, 90.1626
5.048, 15, 12.0987, 39.1819, 32.7868, 45.9457, -90.7945, 90.7174
5.052, 15, 11.908, 39.16, 32.9143, 45.6076, -90.7842, 91.2817
5.056, 15, 11.715, 39.1404, 33.0403, 45.2647, -90.7754, 91.8545
5.06, 15, 11.5203, 39.1234, 33.1645, 44.9178, -90.7682, 92.4343
5.064, 15, 11.3244, 39.1091, 33.2864, 44.5678, -90.7627, 93.0196
5.068, 15, 11.1277, 39.0974, 33.4056, 44.2159, -90.759, 93.6087
5.072, 15, 10.9304, 39.0884, 33.5218, 43.863, -90.7569, 94.1999
5.076, 15, 10.7326, 39.0823, 33.6345, 43.5103, -90.7565, 94.7912
5.08, 15, 10.5346, 39.0791, 33.7433, 43.159, -90.7578, 95.3809
5.084, 15, 10.3367, 39.0787, 33.8481, 42.81, -90.7607, 95.9673
5.088, 15, 10.1392, 39.0812, 33.9485, 42.4644, -90.7652, 96.5486
5.092, 15, 9.94282, 39.0864, 34.0443, 42.1232, -90.7711, 97.1233
5.096, 15, 9.74813, 39.0943, 34.1356, 41.7872, -90.7785, 97.6901
5.1, 15, 9.55568, 39.1048, 34.2221, 41.457, -90.7871, 98.2478
5.104, 15, 9.36591, 39.1177, 34.3038, 41.1335, -90.797, 98.7951
5.108, 15, 9.17923, 39.1329, 34.3808, 40.817, -90.8079, 99.3312
5.112, 15, 8.99597, 39.1503, 34.4532, 40.5082, -90.8198, 99.8551
5.116, 15, 8.81643, 39.1695, 34.521, 40.2074, -90.8325, 100.366
5.12, 15, 8.64092, 39.1905, 34.5843, 39.9149, -90.846, 100.864
5.124, 15, 8.46974, 39.2131, 34.6433, 39.631, -90.8601, 101.348
5.128, 15, 8.30316, 39.2368, 34.6982, 39.3558, -90.8747, 101.819
5.132, 15, 8.14139, 39.2617, 34.7491, 39.0895, -90.8897, 102.274
5.136, 15, 7.98458, 39.2874, 34.7962, 38.8322, -90.905, 102.715
5.14, 15, 7.83286, 39.3137, 34.8398, 38.5839, -90.9206, 103.142
5.144, 15, 7.68633, 39.3407, 34.88, 38.3448, -90.9363, 103.553
5.148, 15, 7.54504, 39.3681, 34.917, 38.1148, -90.952, 103.949
5.152, 15, 7.40908, 39.3958, 34.9509, 37.894, -90.9677, 104.33
5.156, 15, 7.2785, 39.4237, 34.982, 37.6824, -90.9832, 104.696
5.16, 15, 7.15333, 39.4517, 35.0105, 37.4799, -90.9986, 105.047
5.164, 15, 7.03362, 39.4796, 35.0364, 37.2867, -91.0136, 105.382
5.168, 15, 6.9194, 39.5073, 35.0601, 37.1026, -91.0284, 105.702
5.172, 15, 6.81068, 39.5346, 35.0815, 36.9277, -91.0428, 106.006
5.176, 15, 6.7075, 39.5614, 35.1009, 36.762, -91.0567, 106.295
5.18, 15, 6.60986, 39.5874, 35.1185, 36.6054, -91.0701, 106.569
5.184, 15, 6.51779, 39.6127, 35.1343, 36.4579, -91.083, 106.826
5.188, 15, 6.43128, 39.637, 35.1485, 36.3194, -91.0953, 107.069
5.192, 15, 6.35033, 39.6602, 35.1613, 36.19, -91.107, 107.295
5.196, 15, 6.27488, 39.6823, 35.1726, 36.0697, -91.1181, 107.507
5.2, 15, 6.20481, 39.7032, 35.1826, 35.9584, -91.1284, 107.702
5.204, 15, 6.13996, 39.7228, 35.1915, 35.856, -91.138, 107.882
5.208, 15, 6.08016, 39.7411, 35.1991, 35.7625, -91.1467, 108.047
5.212, 15, 6.0253, 39.758, 35.2057, 35.6778, -91.1547, 108.197
5.216, 15, 5.97532, 39.7735, 35.2114, 35.6018, -91.1616, 108.332
5.22, 15, 5.93022, 39.7874, 35.216, 35.5344, -91.1675, 108.453
5.224, 15, 5.89002, 39.7997, 35.2199, 35.4754, -91.1721, 108.56
5.228, 15, 5.85473, 39.8104, 35.223, 35.4247, -91.1753, 108.655
5.232, 15, 5.82428, 39.8194, 35.2252, 35.3822, -91.1768, 108.737
5.236, 15, 5.79844, 39.8268, 35.2267, 35.3481, -91.1763, 108.809
5.24, 15, 5.77684, 39.833, 35.2272, 35.3223, -91.1736, 108.871
5.244, 15, 5.75911, 39.8382, 35.2268, 35.305, -91.1683, 108.925
5.248, 15, 5.74492, 39.8427, 35.2252, 35.2963, -91.1602, 108.973
5.252, 15, 5.734, 39.8468, 35.2225, 35.2961, -91.1492, 109.015
5.256, 15, 5.72611, 39.8507, 35.2186, 35.3045, -91.1352, 109.054
5.26, 16, 5.72096, 39.8543, 35.2134, 35.321, -91.1183, 109.091
5.264, 16, 5.71821, 39.8577, 35.2069, 35.3452, -91.0989, 109.129
5.268, 16, 5.71735, 39.8609, 35.1991, 35.3765, -91.0774, 109.168
5.272, 16, 5.71784, 39.864, 35.19, 35.414, -91.0543, 109.209
5.276, 16, 5.71917, 39.867, 35.1797, 35.4566, -91.0302, 109.255
5.28, 16, 5.72102, 39.8699, 35.1683, 35.5032, -91.0059, 109.306
5.284, 16, 5.72322, 39.8729, 35.156, 35.552, -90.982, 109.361
5.288, 16, 5.72574, 39.876, 35.1432, 35.6017, -90.9595, 109.423
5.292, 16, 5.7286, 39.8791, 35.1302, 35.6504, -90.9389, 109.49
5.296, 16, 5.73172, 39.8824, 35.1171, 35.6965, -90.9209, 109.562
5.3, 16, 5.73487, 39.886, 35.1045, 35.7385, -90.9061, 109.638
5.304, 16, 5.73761, 39.89, 35.0923, 35.775, -90.8945, 109.717
5.308, 16, 5.73936, 39.8946, 35.081, 35.8051, -90.8864, 109.8
5.312, 16, 5.73955, 39.9002, 35.0706, 35.8281, -90.8817, 109.884
5.316, 16, 5.73763, 39.907, 35.0612, 35.8435, -90.8802, 109.969
5.32, 16, 5.73316, 39.9151, 35.0529, 35.8512, -90.8816, 110.056
5.324, 16, 5.72578, 39.9246, 35.0457, 35.8509, -90.8856, 110.143
5.328, 16, 5.71514, 39.9357, 35.0396, 35.8429, -90.8918, 110.232
5.332, 16, 5.70098, 39.9484, 35.0343, 35.8272, -90.9, 110.323
5.336, 16, 5.68306, 39.9629, 35.0299, 35.8041, -90.9099, 110.418
5.34, 16, 5.66118, 39.9793, 35.0261, 35.7738, -90.9214, 110.517
5.344, 16, 5.63517, 39.9976, 35.0227, 35.7363, -90.9342, 110.623
5.348, 16, 5.60486, 40.018, 35.0197, 35.6919, -90.9484, 110.737
5.352, 16, 5.57015, 40.0406, 35.0168, 35.6406, -90.964, 110.862
5.356, 16, 5.53098, 40.0654, 35.014, 35.5823, -90.9811, 110.998
5.36, 16, 5.48728, 40.0925, 35.011, 35.5167, -90.9997, 111.147
5.364, 16, 5.439, 40.1223, 35.0077, 35.4438, -91.02, 111.311
5.368, 16, 5.38603, 40.1547, 35.0039, 35.3633, -91.0423, 111.492
5.372, 16, 5.32825, 40.1902, 34.9996, 35.2749, -91.0665, 111.69
5.376, 16, 5.26555, 40.2288, 34.9946, 35.1786, -91.093, 111.905
5.38, 16, 5.1978, 40.2709, 34.9886, 35.0742, -91.1216, 112.14
5.384, 16, 5.12485, 40.3166, 34.9817, 34.9617, -91.1526, 112.393
5.388, 16, 5.04661, 40.3662, 34.9736, 34.841, -91.186, 112.666
5.392, 16, 4.96303, 40.4198, 34.9641, 34.7122, -91.2217, 112.959
5.396, 16, 4.87413, 40.4776, 34.9532, 34.5754, -91.2598, 113.271
5.4, 16, 4.78002, 40.5397, 34.9405, 34.4306, -91.3004, 113.603
5.404, 16, 4.68101, 40.606, 34.9262, 34.278, -91.3435, 113.956
5.408, 16, 4.57746, 40.6763, 34.9099, 34.1176, -91.3889, 114.329
5.412, 16, 4.46982, 40.7506, 34.8917, 33.9498, -91.4367, 114.721
5.416, 16, 4.35848, 40.8287, 34.8713, 33.775, -91.4869, 115.134
5.42, 16, 4.24384, 40.9104, 34.8488, 33.5936, -91.5393, 115.565
5.424, 16, 4.12627, 40.9957, 34.824, 33.4063, -91.5937, 116.013
5.428, 16, 4.00619, 41.0844, 34.7967, 33.2137, -91.6499, 116.478
5.432, 16, 3.88407, 41.1763, 34.767, 33.0167, -91.7077, 116.958
5.436, 16, 3.76044, 41.2712, 34.7349, 32.8163, -91.7668, 117.45
5.44, 16, 3.63581, 41.3687, 34.7002, 32.6134, -91.8269, 117.953
5.444, 16, 3.51067, 41.4682, 34.6632, 32.4092, -91.8877, 118.464
5.448, 16, 3.3854, 41.5693, 34.6239, 32.2047, -91.9488, 118.98
