hehonglu123/Motion-Primitive-Planning/simulation/robotstudio_sim/scripts/fitting_output/threshold0.5/curve_exe_v500_z10.csv
timestamp, cmd_num, J1, J2, J3, J4, J5, J6
0, 1, -0.874649, 64.1352, 8.9035, 44.2849, -96.0792, 168.995
0.002, 1, -0.874649, 64.1352, 8.9035, 44.2849, -96.0792, 168.995
0.004, 1, -0.874649, 64.1352, 8.9035, 44.2849, -96.0792, 168.995
0.008, 1, -0.874649, 64.1352, 8.9035, 44.2849, -96.0792, 168.995
0.011, 1, -0.874649, 64.1352, 8.9035, 44.2849, -96.0792, 168.995
0.016, 1, -0.874649, 64.1352, 8.9035, 44.2849, -96.0792, 168.995
0.02, 1, -0.874649, 64.1352, 8.9035, 44.2849, -96.0792, 168.995
0.024, 1, -0.874649, 64.1352, 8.9035, 44.2849, -96.0792, 168.995
0.028, 1, -0.874649, 64.1352, 8.9035, 44.2849, -96.0792, 168.995
0.032, 1, -0.874649, 64.1352, 8.9035, 44.2849, -96.0792, 168.995
0.036, 1, -0.87464, 64.1352, 8.9035, 44.2849, -96.0792, 168.995
0.04, 1, -0.874576, 64.1352, 8.90351, 44.2849, -96.0792, 168.995
0.044, 1, -0.874353, 64.1351, 8.90351, 44.2849, -96.0792, 168.995
0.048, 1, -0.873827, 64.135, 8.90353, 44.2849, -96.0792, 168.995
0.052, 1, -0.872854, 64.1347, 8.90356, 44.285, -96.0792, 168.995
0.056, 1, -0.871327, 64.1342, 8.90359, 44.2851, -96.0791, 168.995
0.06, 1, -0.869169, 64.1334, 8.90361, 44.2853, -96.0789, 168.994
0.064, 1, -0.866332, 64.1323, 8.90357, 44.2858, -96.0785, 168.993
0.068, 1, -0.86278, 64.1309, 8.90342, 44.2866, -96.0778, 168.991
0.072, 1, -0.858465, 64.1291, 8.90311, 44.2879, -96.0768, 168.988
0.076, 1, -0.85329, 64.1267, 8.90255, 44.2899, -96.0751, 168.983
0.08, 1, -0.847097, 64.1238, 8.90164, 44.2928, -96.0727, 168.976
0.084, 1, -0.839686, 64.1203, 8.90026, 44.2969, -96.0693, 168.967
0.088, 1, -0.830855, 64.116, 8.89829, 44.3025, -96.0646, 168.954
0.092, 1, -0.820446, 64.1109, 8.89558, 44.3099, -96.0584, 168.937
0.096, 1, -0.808352, 64.105, 8.89194, 44.3196, -96.0503, 168.914
0.1, 1, -0.794488, 64.0982, 8.8872, 44.3318, -96.0401, 168.886
0.104, 1, -0.778753, 64.0906, 8.88118, 44.3469, -96.0274, 168.851
0.108, 1, -0.761014, 64.0819, 8.87371, 44.3654, -96.0119, 168.808
0.112, 1, -0.741143, 64.0722, 8.86463, 44.3876, -95.9933, 168.757
0.116, 1, -0.719055, 64.0616, 8.85379, 44.4138, -95.9714, 168.696
0.12, 1, -0.69473, 64.05, 8.84104, 44.4442, -95.9458, 168.626
0.124, 1, -0.668195, 64.0377, 8.82628, 44.4792, -95.9165, 168.545
0.128, 1, -0.639496, 64.0247, 8.80941, 44.5189, -95.8831, 168.454
0.131, 1, -0.60868, 64.0112, 8.79038, 44.5633, -95.8458, 168.351
0.136, 1, -0.575786, 63.9972, 8.76919, 44.6126, -95.8045, 168.237
0.139, 1, -0.540816, 63.9825, 8.74588, 44.6665, -95.7591, 168.113
0.144, 1, -0.503733, 63.9672, 8.72051, 44.725, -95.71, 167.978
0.148, 1, -0.4645, 63.951, 8.69322, 44.7879, -95.6572, 167.833
0.152, 1, -0.423132, 63.9338, 8.66413, 44.8547, -95.601, 167.679
0.156, 1, -0.379725, 63.9157, 8.63342, 44.9253, -95.5418, 167.517
0.16, 1, -0.334411, 63.8967, 8.60124, 44.9991, -95.4797, 167.346
0.164, 1, -0.287312, 63.8769, 8.56779, 45.0759, -95.4152, 167.169
0.168, 1, -0.238506, 63.8562, 8.53325, 45.1552, -95.3486, 166.987
0.172, 1, -0.188062, 63.8347, 8.49783, 45.2366, -95.2802, 166.799
0.176, 1, -0.136074, 63.8123, 8.4617, 45.3197, -95.2103, 166.607
0.18, 1, -0.0826732, 63.7893, 8.42503, 45.4042, -95.1393, 166.412
0.184, 1, -0.0280022, 63.7655, 8.38795, 45.4898, -95.0674, 166.215
0.188, 1, 0.0277915, 63.7411, 8.35059, 45.5762, -94.9948, 166.016
0.192, 1, 0.084551, 63.7162, 8.31303, 45.6632, -94.9217, 165.815
0.196, 1, 0.142118, 63.6909, 8.27532, 45.7507, -94.8483, 165.614
0.2, 1, 0.200363, 63.6652, 8.23753, 45.8384, -94.7746, 165.411
0.204, 1, 0.259195, 63.6393, 8.19968, 45.9263, -94.7007, 165.208
0.208, 1, 0.318538, 63.6132, 8.16181, 46.0144, -94.6268, 165.005
0.212, 1, 0.378302, 63.5869, 8.12392, 46.1025, -94.5528, 164.802
0.216, 1, 0.438378, 63.5606, 8.08603, 46.1907, -94.4787, 164.599
0.22, 1, 0.498665, 63.5342, 8.04816, 46.2789, -94.4047, 164.395
0.224, 1, 0.559085, 63.5077, 8.01029, 46.367, -94.3307, 164.192
0.228, 1, 0.619583, 63.4812, 7.97244, 46.4551, -94.2566, 163.989
0.232, 1, 0.680124, 63.4548, 7.93461, 46.5432, -94.1826, 163.785
0.236, 1, 0.740682, 63.4283, 7.8968, 46.6313, -94.1087, 163.582
0.24, 1, 0.80124, 63.4018, 7.85901, 46.7193, -94.0348, 163.379
0.244, 1, 0.861788, 63.3753, 7.82123, 46.8073, -93.9609, 163.176
0.248, 1, 0.922316, 63.3488, 7.78348, 46.8952, -93.887, 162.973
0.252, 1, 0.982821, 63.3224, 7.74575, 46.9831, -93.8132, 162.771
0.256, 1, 1.0433, 63.2959, 7.70804, 47.0709, -93.7395, 162.568
0.26, 1, 1.10374, 63.2695, 7.67035, 47.1587, -93.6658, 162.365
0.264, 1, 1.16416, 63.2431, 7.63269, 47.2464, -93.5921, 162.163
0.268, 1, 1.22454, 63.2167, 7.59505, 47.3341, -93.5185, 161.961
0.272, 1, 1.28489, 63.1903, 7.55742, 47.4217, -93.4449, 161.759
0.276, 1, 1.3452, 63.164, 7.51983, 47.5093, -93.3713, 161.557
0.28, 1, 1.40547, 63.1376, 7.48225, 47.5968, -93.2978, 161.355
0.284, 1, 1.46572, 63.1113, 7.4447, 47.6843, -93.2244, 161.153
0.288, 1, 1.52592, 63.0849, 7.40717, 47.7717, -93.151, 160.951
0.292, 1, 1.58609, 63.0586, 7.36966, 47.859, -93.0776, 160.75
0.296, 1, 1.64622, 63.0323, 7.33217, 47.9463, -93.0043, 160.548
0.3, 1, 1.70632, 63.0061, 7.29471, 48.0336, -92.931, 160.347
0.304, 1, 1.76638, 62.9798, 7.25727, 48.1208, -92.8578, 160.146
0.308, 1, 1.8264, 62.9536, 7.21985, 48.2079, -92.7846, 159.945
0.312, 1, 1.88639, 62.9273, 7.18246, 48.295, -92.7114, 159.744
0.316, 1, 1.94634, 62.9011, 7.14509, 48.3821, -92.6383, 159.543
0.32, 1, 2.00625, 62.8749, 7.10774, 48.4691, -92.5653, 159.343
0.324, 1, 2.06612, 62.8488, 7.07042, 48.556, -92.4923, 159.142
0.328, 1, 2.12596, 62.8226, 7.03312, 48.6429, -92.4193, 158.942
0.332, 1, 2.18576, 62.7965, 6.99584, 48.7297, -92.3464, 158.741
0.336, 1, 2.24552, 62.7703, 6.95859, 48.8164, -92.2735, 158.541
0.34, 1, 2.30524, 62.7442, 6.92136, 48.9031, -92.2007, 158.341
0.344, 1, 2.36493, 62.7181, 6.88415, 48.9898, -92.1279, 158.141
0.348, 1, 2.42457, 62.6921, 6.84697, 49.0764, -92.0552, 157.941
0.352, 1, 2.48418, 62.666, 6.80981, 49.1629, -91.9825, 157.742
0.356, 1, 2.54375, 62.64, 6.77268, 49.2494, -91.9099, 157.542
0.36, 1, 2.60328, 62.6139, 6.73557, 49.3359, -91.8373, 157.343
0.364, 1, 2.66277, 62.5879, 6.69848, 49.4222, -91.7647, 157.144
0.368, 1, 2.72223, 62.5619, 6.66142, 49.5086, -91.6922, 156.944
0.372, 1, 2.78164, 62.5359, 6.62438, 49.5948, -91.6198, 156.745
0.376, 1, 2.84102, 62.51, 6.58737, 49.681, -91.5474, 156.547
0.38, 1, 2.90035, 62.484, 6.55038, 49.7672, -91.4751, 156.348
0.384, 1, 2.95965, 62.4581, 6.51341, 49.8533, -91.4027, 156.149
0.388, 1, 3.01891, 62.4322, 6.47647, 49.9393, -91.3305, 155.951
0.392, 1, 3.07812, 62.4063, 6.43956, 50.0253, -91.2583, 155.752
0.396, 1, 3.1373, 62.3805, 6.40267, 50.1112, -91.1861, 155.554
0.4, 1, 3.19644, 62.3546, 6.3658, 50.1971, -91.114, 155.356
0.404, 1, 3.25554, 62.3288, 6.32896, 50.2829, -91.042, 155.158
0.408, 1, 3.3146, 62.3029, 6.29214, 50.3686, -90.9699, 154.96
0.412, 1, 3.37362, 62.2771, 6.25535, 50.4543, -90.898, 154.763
0.416, 1, 3.43259, 62.2514, 6.21859, 50.54, -90.8261, 154.565
0.42, 1, 3.49153, 62.2256, 6.18185, 50.6255, -90.7542, 154.368
0.424, 1, 3.55043, 62.1998, 6.14513, 50.711, -90.6824, 154.17
0.428, 1, 3.60929, 62.1741, 6.10844, 50.7965, -90.6106, 153.973
0.432, 1, 3.6681, 62.1484, 6.07178, 50.8819, -90.5389, 153.776
0.436, 1, 3.72688, 62.1227, 6.03514, 50.9672, -90.4672, 153.579
0.44, 1, 3.78561, 62.097, 5.99853, 51.0525, -90.3956, 153.383
0.444, 1, 3.8443, 62.0714, 5.96194, 51.1377, -90.324, 153.186
0.448, 1, 3.90295, 62.0457, 5.92538, 51.2229, -90.2525, 152.99
0.452, 1, 3.96156, 62.0201, 5.88884, 51.308, -90.1811, 152.793
0.456, 1, 4.02013, 61.9945, 5.85233, 51.393, -90.1096, 152.597
0.46, 1, 4.07866, 61.9689, 5.81585, 51.478, -90.0383, 152.401
0.464, 1, 4.13714, 61.9433, 5.77939, 51.5629, -89.967, 152.205
0.468, 1, 4.19559, 61.9178, 5.74296, 51.6477, -89.8957, 152.01
0.472, 1, 4.25399, 61.8923, 5.70655, 51.7325, -89.8245, 151.814
0.476, 1, 4.31235, 61.8667, 5.67017, 51.8173, -89.7533, 151.618
0.48, 1, 4.37067, 61.8412, 5.63382, 51.9019, -89.6822, 151.423
0.484, 1, 4.42894, 61.8158, 5.59749, 51.9865, -89.6112, 151.228
0.488, 1, 4.48717, 61.7903, 5.56119, 52.0711, -89.5402, 151.033
0.492, 1, 4.54537, 61.7649, 5.52491, 52.1556, -89.4692, 150.838
0.496, 1, 4.60351, 61.7394, 5.48867, 52.24, -89.3983, 150.643
0.5, 1, 4.66162, 61.714, 5.45245, 52.3244, -89.3275, 150.449
0.504, 1, 4.71968, 61.6887, 5.41625, 52.4087, -89.2567, 150.254
0.508, 1, 4.7777, 61.6633, 5.38008, 52.4929, -89.1859, 150.06
0.512, 1, 4.83568, 61.6379, 5.34394, 52.5771, -89.1152, 149.866
0.516, 1, 4.89361, 61.6126, 5.30783, 52.6612, -89.0446, 149.672
0.52, 1, 4.9515, 61.5873, 5.27174, 52.7452, -88.974, 149.478
0.524, 1, 5.00935, 61.562, 5.23568, 52.8292, -88.9035, 149.284
0.528, 1, 5.06715, 61.5368, 5.19965, 52.9131, -88.833, 149.09
0.532, 1, 5.12492, 61.5115, 5.16364, 52.997, -88.7625, 148.897
0.536, 1, 5.18263, 61.4863, 5.12767, 53.0808, -88.6922, 148.704
0.54, 1, 5.24031, 61.4611, 5.09171, 53.1645, -88.6218, 148.51
0.544, 1, 5.29794, 61.4359, 5.05579, 53.2482, -88.5516, 148.317
0.548, 1, 5.35552, 61.4107, 5.01989, 53.3318, -88.4814, 148.125
0.552, 1, 5.41307, 61.3855, 4.98402, 53.4153, -88.4112, 147.932
0.556, 1, 5.47056, 61.3604, 4.94818, 53.4988, -88.3411, 147.739
0.56, 1, 5.52802, 61.3353, 4.91237, 53.5822, -88.271, 147.547
0.564, 1, 5.58543, 61.3102, 4.87658, 53.6656, -88.201, 147.355
0.568, 1, 5.64279, 61.2851, 4.84082, 53.7489, -88.1311, 147.162
0.572, 1, 5.70012, 61.26, 4.80509, 53.8321, -88.0612, 146.97
0.576, 1, 5.75739, 61.235, 4.76938, 53.9153, -87.9914, 146.779
0.58, 1, 5.81463, 61.21, 4.73371, 53.9983, -87.9216, 146.587
0.584, 1, 5.87181, 61.185, 4.69806, 54.0814, -87.8518, 146.395
0.588, 1, 5.92896, 61.16, 4.66244, 54.1643, -87.7822, 146.204
0.592, 1, 5.98605, 61.135, 4.62684, 54.2472, -87.7125, 146.013
0.596, 1, 6.04311, 61.1101, 4.59128, 54.3301, -87.643, 145.822
0.6, 1, 6.10012, 61.0852, 4.55574, 54.4128, -87.5735, 145.631
0.604, 1, 6.15708, 61.0603, 4.52023, 54.4955, -87.504, 145.44
0.608, 1, 6.214, 61.0354, 4.48475, 54.5782, -87.4346, 145.249
0.612, 1, 6.27087, 61.0105, 4.4493, 54.6608, -87.3653, 145.059
0.616, 1, 6.3277, 60.9857, 4.41387, 54.7433, -87.296, 144.868
0.62, 1, 6.38449, 60.9608, 4.37848, 54.8257, -87.2267, 144.678
0.624, 1, 6.44122, 60.936, 4.34311, 54.9081, -87.1575, 144.488
0.628, 1, 6.49792, 60.9112, 4.30777, 54.9904, -87.0884, 144.298
0.632, 1, 6.55456, 60.8865, 4.27246, 55.0726, -87.0194, 144.109
0.636, 1, 6.61117, 60.8617, 4.23717, 55.1548, -86.9503, 143.919
0.64, 1, 6.66772, 60.837, 4.20192, 55.2369, -86.8814, 143.73
0.644, 1, 6.72423, 60.8123, 4.16669, 55.319, -86.8125, 143.54
0.648, 1, 6.7807, 60.7876, 4.1315, 55.4009, -86.7436, 143.351
0.652, 1, 6.83711, 60.763, 4.09633, 55.4828, -86.6748, 143.162
0.656, 1, 6.89349, 60.7383, 4.06119, 55.5647, -86.6061, 142.973
0.66, 1, 6.94981, 60.7137, 4.02608, 55.6465, -86.5374, 142.785
0.664, 1, 7.00609, 60.6891, 3.99099, 55.7282, -86.4688, 142.596
0.668, 1, 7.06233, 60.6645, 3.95594, 55.8098, -86.4002, 142.408
0.672, 1, 7.11851, 60.6399, 3.92092, 55.8914, -86.3317, 142.22
0.676, 1, 7.17465, 60.6154, 3.88592, 55.9729, -86.2633, 142.032
0.68, 1, 7.23075, 60.5909, 3.85095, 56.0543, -86.1949, 141.844
0.684, 1, 7.2868, 60.5664, 3.81602, 56.1357, -86.1265, 141.656
0.688, 1, 7.3428, 60.5419, 3.78111, 56.217, -86.0583, 141.469
0.692, 1, 7.39875, 60.5174, 3.74623, 56.2982, -85.99, 141.281
0.696, 1, 7.45466, 60.493, 3.71138, 56.3794, -85.9219, 141.094
0.7, 1, 7.51052, 60.4686, 3.67656, 56.4605, -85.8538, 140.907
0.704, 1, 7.56634, 60.4442, 3.64176, 56.5416, -85.7857, 140.72
0.708, 1, 7.62211, 60.4198, 3.607, 56.6225, -85.7177, 140.533
0.712, 1, 7.67783, 60.3954, 3.57227, 56.7034, -85.6498, 140.346
0.716, 1, 7.7335, 60.3711, 3.53756, 56.7842, -85.5819, 140.16
0.72, 1, 7.78913, 60.3468, 3.50289, 56.865, -85.514, 139.974
0.724, 1, 7.84471, 60.3225, 3.46824, 56.9457, -85.4463, 139.788
0.728, 1, 7.90024, 60.2982, 3.43363, 57.0263, -85.3786, 139.602
0.732, 1, 7.95573, 60.2739, 3.39904, 57.1069, -85.3109, 139.416
0.736, 1, 8.01117, 60.2497, 3.36448, 57.1874, -85.2433, 139.23
0.74, 1, 8.06656, 60.2255, 3.32996, 57.2678, -85.1758, 139.045
0.744, 1, 8.1219, 60.2013, 3.29546, 57.3481, -85.1083, 138.859
0.748, 1, 8.1772, 60.1771, 3.26099, 57.4284, -85.0409, 138.674
0.752, 1, 8.23245, 60.153, 3.22655, 57.5086, -84.9735, 138.489
0.756, 1, 8.28765, 60.1288, 3.19214, 57.5888, -84.9062, 138.304
0.76, 1, 8.3428, 60.1047, 3.15776, 57.6688, -84.839, 138.119
0.764, 1, 8.39791, 60.0806, 3.12341, 57.7488, -84.7718, 137.935
0.768, 1, 8.45297, 60.0565, 3.08909, 57.8288, -84.7046, 137.75
0.772, 1, 8.50798, 60.0325, 3.0548, 57.9086, -84.6376, 137.566
0.776, 1, 8.56294, 60.0085, 3.02054, 57.9884, -84.5706, 137.382
0.78, 1, 8.61786, 59.9845, 2.98631, 58.0681, -84.5036, 137.198
0.784, 1, 8.67273, 59.9605, 2.95211, 58.1478, -84.4367, 137.014
0.788, 1, 8.72755, 59.9365, 2.91794, 58.2274, -84.3699, 136.831
0.792, 1, 8.78232, 59.9126, 2.8838, 58.3069, -84.3031, 136.647
0.796, 1, 8.83705, 59.8886, 2.84969, 58.3864, -84.2364, 136.464
0.8, 1, 8.89172, 59.8647, 2.8156, 58.4657, -84.1697, 136.281
0.804, 1, 8.94635, 59.8409, 2.78155, 58.545, -84.1031, 136.098
0.808, 1, 9.00093, 59.817, 2.74753, 58.6243, -84.0365, 135.915
0.812, 1, 9.05547, 59.7932, 2.71354, 58.7034, -83.9701, 135.733
0.816, 1, 9.10995, 59.7693, 2.67958, 58.7825, -83.9036, 135.55
0.82, 1, 9.16439, 59.7455, 2.64565, 58.8616, -83.8373, 135.368
0.824, 1, 9.21878, 59.7218, 2.61175, 58.9405, -83.7709, 135.186
0.828, 1, 9.27312, 59.698, 2.57787, 59.0194, -83.7047, 135.004
0.832, 1, 9.32741, 59.6743, 2.54403, 59.0982, -83.6385, 134.822
0.836, 1, 9.38166, 59.6506, 2.51022, 59.177, -83.5724, 134.64
0.84, 1, 9.43585, 59.6269, 2.47644, 59.2557, -83.5063, 134.459
0.844, 1, 9.49, 59.6032, 2.44269, 59.3343, -83.4403, 134.277
0.848, 1, 9.5441, 59.5795, 2.40897, 59.4128, -83.3743, 134.096
0.852, 1, 9.59815, 59.5559, 2.37528, 59.4913, -83.3084, 133.915
0.856, 1, 9.65215, 59.5323, 2.34162, 59.5697, -83.2426, 133.734
0.86, 1, 9.70611, 59.5087, 2.30798, 59.648, -83.1768, 133.553
0.864, 1, 9.76001, 59.4852, 2.27438, 59.7263, -83.111, 133.373
0.868, 1, 9.81387, 59.4616, 2.24081, 59.8045, -83.0454, 133.193
0.872, 1, 9.86768, 59.4381, 2.20727, 59.8826, -82.9798, 133.012
0.876, 1, 9.92144, 59.4146, 2.17376, 59.9606, -82.9142, 132.832
0.88, 1, 9.97516, 59.3911, 2.14028, 60.0386, -82.8487, 132.652
0.884, 1, 10.0288, 59.3676, 2.10683, 60.1165, -82.7833, 132.473
0.888, 1, 10.0824, 59.3442, 2.07341, 60.1943, -82.7179, 132.293
0.892, 1, 10.136, 59.3208, 2.04002, 60.2721, -82.6526, 132.114
0.896, 1, 10.1895, 59.2974, 2.00666, 60.3498, -82.5874, 131.934
0.9, 1, 10.243, 59.274, 1.97333, 60.4274, -82.5222, 131.755
0.904, 1, 10.2964, 59.2507, 1.94004, 60.505, -82.4571, 131.576
0.908, 1, 10.3498, 59.2273, 1.90677, 60.5825, -82.392, 131.398
0.912, 1, 10.4031, 59.204, 1.87353, 60.6599, -82.327, 131.219
0.916, 1, 10.4564, 59.1807, 1.84032, 60.7372, -82.262, 131.041
0.92, 1, 10.5096, 59.1575, 1.80714, 60.8145, -82.1971, 130.862
0.924, 1, 10.5628, 59.1342, 1.774, 60.8917, -82.1323, 130.684
0.928, 1, 10.6159, 59.111, 1.74088, 60.9688, -82.0675, 130.506
0.932, 1, 10.669, 59.0878, 1.70779, 61.0459, -82.0028, 130.329
0.936, 1, 10.7221, 59.0646, 1.67473, 61.1229, -81.9381, 130.151
0.94, 1, 10.775, 59.0414, 1.64171, 61.1998, -81.8735, 129.974
0.944, 1, 10.828, 59.0183, 1.60871, 61.2767, -81.809, 129.796
0.948, 1, 10.8809, 58.9952, 1.57575, 61.3535, -81.7445, 129.619
0.952, 1, 10.9337, 58.9721, 1.54281, 61.4302, -81.6801, 129.442
0.956, 1, 10.9865, 58.949, 1.5099, 61.5068, -81.6157, 129.265
0.96, 1, 11.0392, 58.9259, 1.47703, 61.5834, -81.5514, 129.089
0.964, 1, 11.0919, 58.9029, 1.44419, 61.6599, -81.4872, 128.912
0.968, 1, 11.1446, 58.8799, 1.41137, 61.7363, -81.423, 128.736
0.972, 1, 11.1972, 58.8569, 1.37859, 61.8126, -81.3588, 128.56
0.976, 1, 11.2497, 58.8339, 1.34583, 61.8889, -81.2948, 128.384
0.98, 1, 11.3022, 58.811, 1.31311, 61.9651, -81.2308, 128.208
0.984, 1, 11.3547, 58.788, 1.28042, 62.0413, -81.1668, 128.032
0.988, 1, 11.4071, 58.7651, 1.24775, 62.1174, -81.1029, 127.857
0.992, 1, 11.4594, 58.7422, 1.21512, 62.1934, -81.0391, 127.682
0.996, 1, 11.5117, 58.7194, 1.18252, 62.2693, -80.9753, 127.506
1, 1, 11.564, 58.6965, 1.14995, 62.3452, -80.9116, 127.331
1.004, 1, 11.6162, 58.6737, 1.1174, 62.421, -80.848, 127.157
1.008, 1, 11.6684, 58.6509, 1.08489, 62.4967, -80.7844, 126.982
1.012, 1, 11.7205, 58.6281, 1.05241, 62.5723, -80.7208, 126.807
1.016, 1, 11.7725, 58.6054, 1.01996, 62.6479, -80.6574, 126.633
1.02, 1, 11.8246, 58.5826, 0.98754, 62.7234, -80.5939, 126.459
1.024, 1, 11.8765, 58.5599, 0.95515, 62.7989, -80.5306, 126.285
1.027, 1, 11.9284, 58.5372, 0.92279, 62.8742, -80.4673, 126.111
1.032, 1, 11.9803, 58.5145, 0.89046, 62.9495, -80.404, 125.937
1.036, 1, 12.0321, 58.4919, 0.858161, 63.0248, -80.3409, 125.764
1.04, 1, 12.0839, 58.4693, 0.825891, 63.0999, -80.2777, 125.59
1.044, 1, 12.1356, 58.4466, 0.793652, 63.175, -80.2147, 125.417
1.048, 1, 12.1873, 58.4241, 0.761443, 63.25, -80.1517, 125.244
1.052, 1, 12.2389, 58.4015, 0.729265, 63.325, -80.0887, 125.071
1.055, 1, 12.2905, 58.3789, 0.697117, 63.3998, -80.0259, 124.898
1.06, 1, 12.342, 58.3564, 0.664998, 63.4746, -79.963, 124.726
1.064, 1, 12.3935, 58.3339, 0.632911, 63.5494, -79.9003, 124.553
1.068, 1, 12.445, 58.3114, 0.600853, 63.624, -79.8376, 124.381
1.072, 1, 12.4963, 58.289, 0.568825, 63.6986, -79.7749, 124.209
1.076, 1, 12.5477, 58.2665, 0.536828, 63.7732, -79.7123, 124.037
1.08, 1, 12.599, 58.2441, 0.504861, 63.8476, -79.6498, 123.865
1.084, 1, 12.6502, 58.2217, 0.472924, 63.922, -79.5873, 123.694
1.088, 1, 12.7014, 58.1993, 0.441017, 63.9963, -79.5249, 123.522
1.091, 1, 12.7525, 58.177, 0.40914, 64.0706, -79.4626, 123.351
1.096, 1, 12.8036, 58.1546, 0.377294, 64.1447, -79.4003, 123.18
1.1, 1, 12.8547, 58.1323, 0.345477, 64.2188, -79.338, 123.009
1.104, 1, 12.9057, 58.11, 0.313691, 64.2929, -79.2759, 122.838
1.108, 1, 12.9566, 58.0877, 0.281935, 64.3668, -79.2137, 122.668
1.112, 1, 13.0075, 58.0655, 0.250208, 64.4407, -79.1517, 122.497
1.116, 1, 13.0584, 58.0433, 0.218512, 64.5145, -79.0897, 122.327
1.119, 1, 13.1092, 58.0211, 0.186846, 64.5883, -79.0277, 122.157
1.124, 1, 13.16, 57.9989, 0.155209, 64.662, -78.9659, 121.987
1.128, 1, 13.2107, 57.9767, 0.123603, 64.7356, -78.904, 121.817
1.132, 1, 13.2613, 57.9546, 0.0920261, 64.8091, -78.8423, 121.647
1.136, 1, 13.312, 57.9324, 0.0604794, 64.8826, -78.7806, 121.478
1.14, 1, 13.3625, 57.9103, 0.0289625, 64.956, -78.7189, 121.308
1.144, 1, 13.413, 57.8882, -0.00252446, 65.0294, -78.6573, 121.139
1.147, 1, 13.4635, 57.8662, -0.0339817, 65.1026, -78.5958, 120.97
1.152, 1, 13.5139, 57.8441, -0.0654091, 65.1758, -78.5343, 120.801
1.156, 1, 13.5643, 57.8221, -0.0968067, 65.2489, -78.4729, 120.633
1.16, 1, 13.6147, 57.8001, -0.128175, 65.322, -78.4116, 120.464
1.164, 1, 13.6649, 57.7781, -0.159513, 65.395, -78.3503, 120.296
1.168, 1, 13.7152, 57.7562, -0.190821, 65.4679, -78.289, 120.127
1.172, 1, 13.7654, 57.7342, -0.2221, 65.5408, -78.2278, 119.959
1.175, 1, 13.8155, 57.7123, -0.253349, 65.6135, -78.1667, 119.791
1.18, 1, 13.8656, 57.6904, -0.284569, 65.6863, -78.1056, 119.624
1.184, 1, 13.9156, 57.6685, -0.315759, 65.7589, -78.0446, 119.456
1.188, 1, 13.9656, 57.6467, -0.346919, 65.8315, -77.9837, 119.289
1.192, 1, 14.0156, 57.6249, -0.37805, 65.904, -77.9228, 119.121
1.196, 1, 14.0655, 57.603, -0.409152, 65.9764, -77.8619, 118.954
1.2, 1, 14.1153, 57.5812, -0.440224, 66.0488, -77.8012, 118.787
1.204, 1, 14.1651, 57.5595, -0.471266, 66.1211, -77.7404, 118.621
1.208, 1, 14.2149, 57.5377, -0.502279, 66.1933, -77.6798, 118.454
1.212, 1, 14.2646, 57.516, -0.533263, 66.2655, -77.6192, 118.287
1.216, 1, 14.3143, 57.4943, -0.564217, 66.3376, -77.5586, 118.121
1.22, 1, 14.3639, 57.4726, -0.595142, 66.4096, -77.4981, 117.955
1.224, 1, 14.4135, 57.4509, -0.626038, 66.4816, -77.4377, 117.789
1.228, 1, 14.463, 57.4293, -0.656904, 66.5535, -77.3773, 117.623
1.232, 1, 14.5125, 57.4076, -0.687741, 66.6253, -77.317, 117.457
1.236, 1, 14.5619, 57.386, -0.718549, 66.697, -77.2568, 117.292
1.24, 1, 14.6113, 57.3645, -0.749327, 66.7687, -77.1965, 117.127
1.244, 1, 14.6606, 57.3429, -0.780077, 66.8403, -77.1364, 116.961
1.248, 1, 14.7099, 57.3213, -0.810797, 66.9119, -77.0763, 116.796
1.252, 1, 14.7592, 57.2998, -0.841488, 66.9834, -77.0163, 116.631
1.256, 1, 14.8083, 57.2783, -0.87215, 67.0548, -76.9563, 116.467
1.26, 1, 14.8575, 57.2568, -0.902783, 67.1261, -76.8964, 116.302
1.264, 1, 14.9066, 57.2354, -0.933386, 67.1974, -76.8365, 116.138
1.267, 1, 14.9557, 57.2139, -0.963961, 67.2686, -76.7767, 115.973
1.272, 1, 15.0047, 57.1925, -0.994507, 67.3398, -76.717, 115.809
1.276, 1, 15.0536, 57.1711, -1.02502, 67.4108, -76.6573, 115.645
1.28, 1, 15.1026, 57.1497, -1.05551, 67.4818, -76.5976, 115.481
1.284, 1, 15.1514, 57.1283, -1.08597, 67.5528, -76.5381, 115.318
1.288, 1, 15.2002, 57.107, -1.1164, 67.6237, -76.4785, 115.154
1.292, 1, 15.249, 57.0857, -1.1468, 67.6945, -76.4191, 114.991
1.295, 1, 15.2978, 57.0644, -1.17717, 67.7652, -76.3597, 114.828
1.3, 1, 15.3464, 57.0431, -1.20752, 67.8359, -76.3003, 114.665
1.304, 1, 15.3951, 57.0218, -1.23783, 67.9065, -76.241, 114.502
1.308, 1, 15.4437, 57.0006, -1.26812, 67.977, -76.1818, 114.339
1.312, 1, 15.4922, 56.9794, -1.29838, 68.0475, -76.1226, 114.176
1.316, 1, 15.5407, 56.9582, -1.32861, 68.1179, -76.0635, 114.014
1.32, 1, 15.5892, 56.937, -1.35881, 68.1882, -76.0044, 113.852
1.324, 1, 15.6376, 56.9158, -1.38898, 68.2585, -75.9454, 113.69
1.328, 1, 15.686, 56.8947, -1.41912, 68.3287, -75.8864, 113.528
1.332, 1, 15.7343, 56.8736, -1.44924, 68.3989, -75.8275, 113.366
1.336, 1, 15.7826, 56.8525, -1.47932, 68.4689, -75.7686, 113.204
1.34, 1, 15.8308, 56.8314, -1.50938, 68.5389, -75.7099, 113.043
1.344, 1, 15.879, 56.8103, -1.53941, 68.6089, -75.6511, 112.881
1.348, 1, 15.9271, 56.7893, -1.56941, 68.6788, -75.5924, 112.72
1.352, 1, 15.9752, 56.7682, -1.59938, 68.7486, -75.5338, 112.559
1.356, 1, 16.0232, 56.7472, -1.62933, 68.8183, -75.4752, 112.398
1.36, 1, 16.0712, 56.7263, -1.65924, 68.888, -75.4167, 112.238
1.364, 1, 16.1192, 56.7053, -1.68913, 68.9576, -75.3583, 112.077
1.368, 1, 16.1671, 56.6844, -1.71899, 69.0271, -75.2999, 111.916
1.372, 1, 16.215, 56.6634, -1.74882, 69.0966, -75.2415, 111.756
1.376, 1, 16.2628, 56.6425, -1.77862, 69.166, -75.1832, 111.596
1.38, 1, 16.3106, 56.6217, -1.8084, 69.2354, -75.125, 111.436
1.384, 1, 16.3583, 56.6008, -1.83814, 69.3047, -75.0668, 111.276
1.388, 1, 16.406, 56.5799, -1.86786, 69.3739, -75.0087, 111.117
1.392, 1, 16.4536, 56.5591, -1.89755, 69.443, -74.9506, 110.957
1.396, 1, 16.5012, 56.5383, -1.92721, 69.5121, -74.8926, 110.798
1.4, 1, 16.5488, 56.5175, -1.95685, 69.5811, -74.8346, 110.638
1.404, 1, 16.5963, 56.4968, -1.98645, 69.6501, -74.7767, 110.479
1.408, 1, 16.6437, 56.476, -2.01603, 69.719, -74.7188, 110.32
1.412, 1, 16.6911, 56.4553, -2.04558, 69.7878, -74.661, 110.162
1.416, 1, 16.7385, 56.4346, -2.0751, 69.8566, -74.6033, 110.003
1.42, 1, 16.7858, 56.4139, -2.10459, 69.9253, -74.5456, 109.845
1.424, 1, 16.8331, 56.3932, -2.13406, 69.9939, -74.4879, 109.686
1.428, 1, 16.8803, 56.3726, -2.1635, 70.0624, -74.4304, 109.528
1.432, 1, 16.9275, 56.352, -2.19291, 70.131, -74.3728, 109.37
1.436, 1, 16.9747, 56.3313, -2.22229, 70.1994, -74.3154, 109.212
1.44, 1, 17.0218, 56.3108, -2.25165, 70.2678, -74.2579, 109.054
1.444, 1, 17.0688, 56.2902, -2.28098, 70.3361, -74.2006, 108.897
1.448, 1, 17.1159, 56.2696, -2.31028, 70.4043, -74.1432, 108.739
1.452, 1, 17.1628, 56.2491, -2.33955, 70.4725, -74.086, 108.582
1.456, 1, 17.2098, 56.2286, -2.3688, 70.5406, -74.0288, 108.425
1.46, 1, 17.2566, 56.2081, -2.39802, 70.6087, -73.9716, 108.268
1.464, 1, 17.3035, 56.1876, -2.42721, 70.6767, -73.9145, 108.111
1.468, 1, 17.3503, 56.1672, -2.45637, 70.7446, -73.8575, 107.954
1.472, 1, 17.397, 56.1467, -2.48551, 70.8124, -73.8005, 107.798
1.476, 1, 17.4437, 56.1263, -2.51462, 70.8802, -73.7435, 107.642
1.48, 1, 17.4904, 56.1059, -2.5437, 70.948, -73.6867, 107.485
1.484, 1, 17.537, 56.0855, -2.57276, 71.0157, -73.6298, 107.329
1.488, 1, 17.5836, 56.0652, -2.60179, 71.0833, -73.573, 107.173
1.492, 1, 17.6301, 56.0448, -2.63079, 71.1508, -73.5163, 107.017
1.496, 1, 17.6766, 56.0245, -2.65976, 71.2183, -73.4596, 106.862
1.5, 1, 17.7231, 56.0042, -2.68871, 71.2857, -73.403, 106.706
1.504, 1, 17.7695, 55.9839, -2.71763, 71.3531, -73.3464, 106.551
1.508, 1, 17.8159, 55.9637, -2.74653, 71.4204, -73.2899, 106.395
1.512, 1, 17.8622, 55.9434, -2.77539, 71.4876, -73.2335, 106.24
1.516, 1, 17.9085, 55.9232, -2.80423, 71.5548, -73.177, 106.085
1.52, 1, 17.9547, 55.903, -2.83305, 71.6219, -73.1207, 105.931
1.524, 1, 18.0009, 55.8828, -2.86183, 71.6889, -73.0644, 105.776
1.528, 1, 18.047, 55.8626, -2.89059, 71.7559, -73.0081, 105.621
1.532, 1, 18.0931, 55.8424, -2.91933, 71.8229, -72.9519, 105.467
1.536, 1, 18.1392, 55.8223, -2.94803, 71.8897, -72.8958, 105.313
1.54, 1, 18.1852, 55.8022, -2.97672, 71.9565, -72.8397, 105.159
1.544, 1, 18.2312, 55.7821, -3.00537, 72.0233, -72.7836, 105.005
1.548, 1, 18.2771, 55.762, -3.034, 72.0899, -72.7276, 104.851
1.552, 1, 18.323, 55.742, -3.0626, 72.1565, -72.6717, 104.697
1.556, 1, 18.3689, 55.7219, -3.09117, 72.2231, -72.6158, 104.544
1.56, 1, 18.4147, 55.7019, -3.11972, 72.2896, -72.5599, 104.39
1.564, 1, 18.4605, 55.6819, -3.14825, 72.356, -72.5041, 104.237
1.568, 1, 18.5062, 55.6619, -3.17674, 72.4224, -72.4484, 104.084
1.572, 1, 18.5519, 55.6419, -3.20521, 72.4887, -72.3927, 103.931
1.576, 1, 18.5975, 55.622, -3.23366, 72.555, -72.3371, 103.778
1.58, 1, 18.6431, 55.602, -3.26208, 72.6212, -72.2815, 103.625
1.584, 1, 18.6887, 55.5821, -3.29047, 72.6873, -72.2259, 103.473
1.588, 1, 18.7342, 55.5622, -3.31883, 72.7533, -72.1704, 103.32
1.592, 1, 18.7797, 55.5424, -3.34718, 72.8194, -72.115, 103.168
1.596, 1, 18.8251, 55.5225, -3.37549, 72.8853, -72.0596, 103.016
1.6, 1, 18.8705, 55.5027, -3.40378, 72.9512, -72.0043, 102.864
1.604, 1, 18.9158, 55.4828, -3.43204, 73.017, -71.949, 102.712
1.608, 1, 18.9611, 55.463, -3.46028, 73.0828, -71.8938, 102.56
1.612, 1, 19.0064, 55.4432, -3.48849, 73.1485, -71.8386, 102.409
1.616, 1, 19.0516, 55.4235, -3.51667, 73.2141, -71.7835, 102.257
1.62, 1, 19.0968, 55.4037, -3.54483, 73.2797, -71.7284, 102.106
1.624, 1, 19.142, 55.384, -3.57297, 73.3453, -71.6733, 101.955
1.628, 1, 19.1871, 55.3643, -3.60108, 73.4107, -71.6184, 101.804
1.632, 1, 19.2321, 55.3446, -3.62916, 73.4761, -71.5634, 101.653
1.636, 1, 19.2771, 55.3249, -3.65722, 73.5415, -71.5085, 101.502
1.64, 1, 19.3221, 55.3052, -3.68525, 73.6068, -71.4537, 101.352
1.644, 1, 19.3671, 55.2856, -3.71326, 73.672, -71.3989, 101.201
1.648, 1, 19.412, 55.266, -3.74124, 73.7372, -71.3442, 101.051
1.652, 1, 19.4568, 55.2464, -3.7692, 73.8023, -71.2895, 100.901
1.656, 1, 19.5016, 55.2268, -3.79713, 73.8673, -71.2349, 100.75
1.66, 1, 19.5464, 55.2072, -3.82503, 73.9324, -71.1803, 100.601
1.664, 1, 19.5912, 55.1876, -3.85291, 73.9973, -71.1257, 100.451
1.668, 1, 19.6359, 55.1681, -3.88077, 74.0622, -71.0713, 100.301
1.672, 1, 19.6805, 55.1486, -3.9086, 74.127, -71.0168, 100.152
1.676, 1, 19.7251, 55.1291, -3.93641, 74.1917, -70.9624, 100.002
1.68, 1, 19.7697, 55.1096, -3.96419, 74.2564, -70.9081, 99.8528
1.684, 1, 19.8142, 55.0901, -3.99194, 74.3211, -70.8538, 99.7037
1.688, 1, 19.8587, 55.0707, -4.01967, 74.3857, -70.7996, 99.5547
1.692, 1, 19.9032, 55.0512, -4.04738, 74.4502, -70.7454, 99.4058
1.696, 1, 19.9476, 55.0318, -4.07506, 74.5147, -70.6912, 99.2571
1.7, 1, 19.992, 55.0124, -4.10272, 74.5791, -70.6371, 99.1085
1.704, 1, 20.0363, 54.993, -4.13035, 74.6434, -70.5831, 98.9601
1.708, 1, 20.0806, 54.9737, -4.15795, 74.7077, -70.5291, 98.8117
1.712, 1, 20.1249, 54.9543, -4.18554, 74.772, -70.4751, 98.6635
1.716, 1, 20.1691, 54.935, -4.21309, 74.8362, -70.4212, 98.5154
1.72, 1, 20.2133, 54.9157, -4.24063, 74.9003, -70.3674, 98.3675
1.724, 1, 20.2574, 54.8964, -4.26814, 74.9644, -70.3136, 98.2197
1.728, 1, 20.3015, 54.8771, -4.29562, 75.0284, -70.2598, 98.072
1.732, 1, 20.3456, 54.8579, -4.32308, 75.0923, -70.2061, 97.9245
1.736, 1, 20.3896, 54.8386, -4.35051, 75.1562, -70.1524, 97.7771
1.74, 1, 20.4336, 54.8194, -4.37792, 75.2201, -70.0988, 97.6298
1.744, 1, 20.4775, 54.8002, -4.40531, 75.2839, -70.0452, 97.4827
1.748, 1, 20.5214, 54.781, -4.43267, 75.3476, -69.9917, 97.3357
1.752, 1, 20.5653, 54.7618, -4.46001, 75.4113, -69.9382, 97.1888
1.756, 1, 20.6091, 54.7427, -4.48732, 75.4749, -69.8848, 97.042
1.76, 1, 20.6529, 54.7235, -4.51461, 75.5384, -69.8314, 96.8954
1.764, 1, 20.6967, 54.7044, -4.54188, 75.6019, -69.7781, 96.7489
1.768, 1, 20.7404, 54.6853, -4.56912, 75.6654, -69.7248, 96.6025
1.772, 1, 20.784, 54.6662, -4.59633, 75.7288, -69.6716, 96.4563
1.776, 1, 20.8277, 54.6471, -4.62353, 75.7921, -69.6184, 96.3102
1.78, 1, 20.8713, 54.6281, -4.65069, 75.8554, -69.5652, 96.1642
1.784, 1, 20.9148, 54.609, -4.67784, 75.9186, -69.5121, 96.0183
1.788, 1, 20.9584, 54.59, -4.70496, 75.9818, -69.4591, 95.8726
1.792, 1, 21.0018, 54.571, -4.73206, 76.0449, -69.4061, 95.727
1.796, 1, 21.0453, 54.552, -4.75913, 76.1079, -69.3531, 95.5816
1.8, 1, 21.0887, 54.533, -4.78618, 76.171, -69.3002, 95.4362
1.804, 1, 21.132, 54.5141, -4.81321, 76.2339, -69.2474, 95.291
1.808, 1, 21.1754, 54.4952, -4.84021, 76.2968, -69.1945, 95.1459
1.812, 1, 21.2187, 54.4762, -4.86719, 76.3596, -69.1418, 95.0009
1.816, 1, 21.2619, 54.4573, -4.89415, 76.4224, -69.089, 94.8561
1.82, 1, 21.3051, 54.4384, -4.92108, 76.4851, -69.0364, 94.7114
1.824, 1, 21.3483, 54.4196, -4.94799, 76.5478, -68.9837, 94.5668
1.828, 1, 21.3915, 54.4007, -4.97488, 76.6104, -68.9311, 94.4223
1.832, 1, 21.4346, 54.3819, -5.00174, 76.673, -68.8786, 94.278
1.836, 1, 21.4776, 54.363, -5.02858, 76.7355, -68.8261, 94.1338
1.84, 1, 21.5207, 54.3442, -5.05539, 76.798, -68.7736, 93.9897
1.844, 1, 21.5637, 54.3254, -5.08219, 76.8604, -68.7212, 93.8457
1.848, 1, 21.6066, 54.3067, -5.10896, 76.9227, -68.6688, 93.7019
1.852, 1, 21.6495, 54.2879, -5.1357, 76.985, -68.6165, 93.5582
1.856, 1, 21.6924, 54.2691, -5.16243, 77.0473, -68.5643, 93.4146
1.86, 1, 21.7353, 54.2504, -5.18913, 77.1095, -68.512, 93.2711
1.864, 1, 21.7781, 54.2317, -5.21581, 77.1716, -68.4598, 93.1278
1.868, 1, 21.8208, 54.213, -5.24246, 77.2337, -68.4077, 92.9846
1.872, 1, 21.8636, 54.1943, -5.2691, 77.2957, -68.3556, 92.8415
1.876, 1, 21.9063, 54.1757, -5.29571, 77.3577, -68.3036, 92.6985
1.88, 1, 21.9489, 54.157, -5.32229, 77.4196, -68.2515, 92.5556
1.884, 1, 21.9916, 54.1384, -5.34886, 77.4815, -68.1996, 92.4129
1.888, 1, 22.0342, 54.1198, -5.3754, 77.5433, -68.1477, 92.2703
1.892, 1, 22.0767, 54.1012, -5.40192, 77.6051, -68.0958, 92.1278
1.896, 1, 22.1192, 54.0826, -5.42842, 77.6668, -68.044, 91.9854
1.9, 1, 22.1617, 54.064, -5.45489, 77.7284, -67.9922, 91.8432
1.904, 1, 22.2042, 54.0455, -5.48134, 77.7901, -67.9404, 91.701
1.908, 1, 22.2466, 54.0269, -5.50777, 77.8516, -67.8887, 91.559
1.912, 1, 22.2889, 54.0084, -5.53418, 77.9131, -67.8371, 91.4171
1.916, 1, 22.3313, 53.9899, -5.56056, 77.9746, -67.7855, 91.2754
1.92, 1, 22.3736, 53.9714, -5.58693, 78.036, -67.7339, 91.1337
1.924, 1, 22.4158, 53.9529, -5.61327, 78.0973, -67.6824, 90.9922
1.928, 1, 22.4581, 53.9345, -5.63959, 78.1586, -67.6309, 90.8508
1.932, 1, 22.5003, 53.916, -5.66588, 78.2199, -67.5795, 90.7095
1.936, 1, 22.5424, 53.8976, -5.69216, 78.2811, -67.5281, 90.5683
1.94, 1, 22.5846, 53.8792, -5.71841, 78.3422, -67.4767, 90.4273
1.944, 1, 22.6266, 53.8608, -5.74464, 78.4033, -67.4254, 90.2863
1.948, 1, 22.6687, 53.8424, -5.77085, 78.4643, -67.3741, 90.1455
1.952, 1, 22.7107, 53.824, -5.79703, 78.5253, -67.3229, 90.0048
1.956, 1, 22.7527, 53.8057, -5.8232, 78.5863, -67.2717, 89.8642
1.96, 1, 22.7947, 53.7873, -5.84934, 78.6472, -67.2206, 89.7238
1.964, 1, 22.8366, 53.769, -5.87546, 78.708, -67.1695, 89.5834
1.968, 1, 22.8785, 53.7507, -5.90156, 78.7688, -67.1185, 89.4432
1.972, 1, 22.9203, 53.7324, -5.92764, 78.8295, -67.0675, 89.3031
1.976, 1, 22.9621, 53.7142, -5.95369, 78.8902, -67.0165, 89.163
1.98, 1, 23.0039, 53.6959, -5.97973, 78.9509, -66.9656, 89.0232
1.984, 1, 23.0456, 53.6777, -6.00574, 79.0114, -66.9147, 88.8834
1.988, 1, 23.0873, 53.6594, -6.03173, 79.072, -66.8638, 88.7438
1.992, 1, 23.129, 53.6412, -6.0577, 79.1325, -66.813, 88.6042
1.996, 1, 23.1706, 53.623, -6.08365, 79.1929, -66.7623, 88.4648
1.999, 1, 23.2122, 53.6048, -6.10957, 79.2533, -66.7116, 88.3255
2.004, 1, 23.2538, 53.5866, -6.13548, 79.3136, -66.6609, 88.1863
2.008, 1, 23.2953, 53.5685, -6.16136, 79.3739, -66.6103, 88.0472
2.012, 1, 23.3368, 53.5504, -6.18723, 79.4341, -66.5597, 87.9082
2.015, 1, 23.3783, 53.5322, -6.21307, 79.4943, -66.5091, 87.7694
2.019, 1, 23.4197, 53.5141, -6.23889, 79.5545, -66.4586, 87.6307
2.024, 1, 23.4611, 53.496, -6.26469, 79.6146, -66.4082, 87.492
2.028, 1, 23.5025, 53.4779, -6.29047, 79.6746, -66.3577, 87.3535
2.031, 1, 23.5438, 53.4599, -6.31622, 79.7346, -66.3073, 87.2151
2.036, 1, 23.5851, 53.4418, -6.34196, 79.7945, -66.257, 87.0769
2.04, 1, 23.6264, 53.4238, -6.36767, 79.8544, -66.2067, 86.9387
2.044, 1, 23.6676, 53.4058, -6.39337, 79.9143, -66.1564, 86.8006
2.048, 1, 23.7088, 53.3878, -6.41904, 79.9741, -66.1062, 86.6627
2.051, 1, 23.75, 53.3698, -6.44469, 80.0338, -66.056, 86.5248
2.055, 1, 23.7911, 53.3518, -6.47033, 80.0935, -66.0059, 86.3871
2.06, 1, 23.8322, 53.3338, -6.49594, 80.1532, -65.9558, 86.2495
2.064, 1, 23.8733, 53.3159, -6.52153, 80.2128, -65.9058, 86.112
2.068, 1, 23.9143, 53.2979, -6.54709, 80.2723, -65.8557, 85.9746
2.071, 1, 23.9553, 53.28, -6.57264, 80.3318, -65.8058, 85.8374
2.076, 1, 23.9962, 53.2621, -6.59817, 80.3913, -65.7558, 85.7002
2.08, 1, 24.0372, 53.2442, -6.62368, 80.4507, -65.7059, 85.5631
2.084, 1, 24.0781, 53.2263, -6.64917, 80.5101, -65.6561, 85.4262
2.087, 1, 24.1189, 53.2085, -6.67463, 80.5694, -65.6063, 85.2894
2.092, 1, 24.1598, 53.1906, -6.70008, 80.6286, -65.5565, 85.1526
2.096, 1, 24.2006, 53.1728, -6.7255, 80.6879, -65.5068, 85.016
2.1, 1, 24.2413, 53.155, -6.75091, 80.747, -65.4571, 84.8795
2.104, 1, 24.2821, 53.1372, -6.77629, 80.8062, -65.4074, 84.7431
2.107, 1, 24.3228, 53.1194, -6.80166, 80.8652, -65.3578, 84.6068
2.111, 1, 24.3634, 53.1016, -6.827, 80.9243, -65.3082, 84.4707
2.116, 1, 24.4041, 53.0838, -6.85233, 80.9832, -65.2587, 84.3346
2.12, 1, 24.4447, 53.0661, -6.87763, 81.0422, -65.2092, 84.1986
2.124, 1, 24.4853, 53.0484, -6.90291, 81.1011, -65.1597, 84.0628
2.127, 1, 24.5258, 53.0306, -6.92818, 81.1599, -65.1103, 83.927
2.132, 1, 24.5663, 53.0129, -6.95342, 81.2187, -65.0609, 83.7914
2.136, 1, 24.6068, 52.9952, -6.97865, 81.2775, -65.0116, 83.6559
2.14, 1, 24.6472, 52.9776, -7.00385, 81.3362, -64.9623, 83.5204
2.143, 1, 24.6876, 52.9599, -7.02903, 81.3948, -64.913, 83.3851
2.148, 1, 24.728, 52.9423, -7.0542, 81.4534, -64.8638, 83.2499
2.152, 1, 24.7684, 52.9246, -7.07934, 81.512, -64.8146, 83.1148
2.156, 1, 24.8087, 52.907, -7.10447, 81.5705, -64.7655, 82.9798
2.16, 1, 24.849, 52.8894, -7.12957, 81.629, -64.7164, 82.8449
2.163, 1, 24.8892, 52.8718, -7.15466, 81.6874, -64.6673, 82.7101
2.168, 1, 24.9294, 52.8542, -7.17972, 81.7458, -64.6183, 82.5754
2.172, 1, 24.9696, 52.8366, -7.20477, 81.8041, -64.5693, 82.4409
2.176, 1, 25.0098, 52.8191, -7.2298, 81.8624, -64.5203, 82.3064
2.179, 1, 25.0499, 52.8015, -7.2548, 81.9207, -64.4714, 82.172
2.184, 1, 25.09, 52.784, -7.27979, 81.9789, -64.4225, 82.0378
2.188, 1, 25.1301, 52.7665, -7.30476, 82.037, -64.3737, 81.9036
2.192, 1, 25.1701, 52.749, -7.32971, 82.0951, -64.3249, 81.7695
2.196, 1, 25.2101, 52.7315, -7.35464, 82.1532, -64.2761, 81.6356
2.199, 1, 25.2501, 52.7141, -7.37955, 82.2112, -64.2274, 81.5017
2.204, 1, 25.29, 52.6966, -7.40444, 82.2692, -64.1787, 81.368
2.208, 1, 25.3299, 52.6791, -7.42931, 82.3271, -64.1301, 81.2344
2.212, 1, 25.3698, 52.6617, -7.45417, 82.385, -64.0814, 81.1008
2.216, 1, 25.4097, 52.6443, -7.479, 82.4428, -64.0329, 80.9674
2.219, 1, 25.4495, 52.6269, -7.50382, 82.5006, -63.9843, 80.834
2.224, 1, 25.4893, 52.6095, -7.52861, 82.5584, -63.9358, 80.7008
2.228, 1, 25.529, 52.5921, -7.55339, 82.6161, -63.8874, 80.5677
2.232, 1, 25.5688, 52.5747, -7.57815, 82.6738, -63.8389, 80.4347
2.235, 1, 25.6085, 52.5574, -7.60289, 82.7314, -63.7905, 80.3017
2.24, 1, 25.6481, 52.5401, -7.62761, 82.789, -63.7422, 80.1689
2.244, 1, 25.6878, 52.5227, -7.65231, 82.8465, -63.6939, 80.0362
2.248, 1, 25.7274, 52.5054, -7.67699, 82.904, -63.6456, 79.9035
2.252, 1, 25.767, 52.4881, -7.70166, 82.9614, -63.5973, 79.771
2.255, 1, 25.8065, 52.4708, -7.7263, 83.0188, -63.5491, 79.6386
2.259, 1, 25.846, 52.4536, -7.75093, 83.0762, -63.5009, 79.5063
2.264, 1, 25.8855, 52.4363, -7.77554, 83.1335, -63.4528, 79.374
2.268, 1, 25.925, 52.4191, -7.80013, 83.1908, -63.4047, 79.2419
2.272, 1, 25.9644, 52.4018, -7.8247, 83.248, -63.3566, 79.1099
2.275, 1, 26.0038, 52.3846, -7.84925, 83.3052, -63.3086, 78.978
2.28, 1, 26.0432, 52.3674, -7.87379, 83.3624, -63.2606, 78.8461
2.284, 1, 26.0825, 52.3502, -7.8983, 83.4195, -63.2127, 78.7144
2.288, 1, 26.1218, 52.333, -7.9228, 83.4765, -63.1647, 78.5828
2.291, 1, 26.1611, 52.3158, -7.94728, 83.5335, -63.1169, 78.4512
2.296, 1, 26.2003, 52.2987, -7.97174, 83.5905, -63.069, 78.3198
2.3, 1, 26.2396, 52.2815, -7.99619, 83.6474, -63.0212, 78.1885
2.304, 1, 26.2788, 52.2644, -8.02061, 83.7043, -62.9734, 78.0572
2.308, 1, 26.3179, 52.2473, -8.04502, 83.7612, -62.9257, 77.9261
2.311, 1, 26.3571, 52.2302, -8.06941, 83.818, -62.878, 77.7951
2.316, 1, 26.3962, 52.2131, -8.09378, 83.8747, -62.8303, 77.6641
2.32, 1, 26.4352, 52.196, -8.11813, 83.9315, -62.7827, 77.5332
2.324, 1, 26.4743, 52.1789, -8.14247, 83.9881, -62.7351, 77.4025
2.328, 1, 26.5133, 52.1619, -8.16678, 84.0448, -62.6875, 77.2718
2.331, 1, 26.5523, 52.1448, -8.19108, 84.1014, -62.64, 77.1413
2.336, 1, 26.5913, 52.1278, -8.21536, 84.1579, -62.5925, 77.0108
2.34, 1, 26.6302, 52.1108, -8.23962, 84.2144, -62.545, 76.8804
2.344, 1, 26.6691, 52.0938, -8.26387, 84.2709, -62.4976, 76.7502
2.347, 1, 26.708, 52.0768, -8.2881, 84.3273, -62.4502, 76.62
2.352, 1, 26.7468, 52.0598, -8.31231, 84.3837, -62.4028, 76.4899
2.356, 1, 26.7856, 52.0428, -8.3365, 84.4401, -62.3555, 76.3599
2.36, 1, 26.8244, 52.0259, -8.36067, 84.4964, -62.3082, 76.23
2.364, 1, 26.8632, 52.0089, -8.38483, 84.5526, -62.261, 76.1002
2.367, 1, 26.9019, 51.992, -8.40897, 84.6089, -62.2138, 75.9705
2.372, 1, 26.9406, 51.9751, -8.43309, 84.6651, -62.1666, 75.8409
2.376, 1, 26.9793, 51.9582, -8.4572, 84.7212, -62.1194, 75.7114
2.38, 1, 27.018, 51.9413, -8.48128, 84.7773, -62.0723, 75.582
2.383, 1, 27.0566, 51.9244, -8.50535, 84.8334, -62.0252, 75.4527
2.388, 1, 27.0952, 51.9075, -8.5294, 84.8894, -61.9782, 75.3234
2.392, 1, 27.1338, 51.8907, -8.55344, 84.9454, -61.9312, 75.1943
2.396, 1, 27.1723, 51.8738, -8.57746, 85.0013, -61.8842, 75.0652
2.4, 1, 27.2108, 51.857, -8.60146, 85.0572, -61.8372, 74.9363
2.403, 1, 27.2493, 51.8402, -8.62544, 85.113, -61.7903, 74.8074
2.408, 1, 27.2877, 51.8234, -8.64941, 85.1689, -61.7435, 74.6786
2.412, 1, 27.3262, 51.8066, -8.67335, 85.2246, -61.6966, 74.55
2.416, 1, 27.3646, 51.7898, -8.69729, 85.2804, -61.6498, 74.4214
2.42, 1, 27.4029, 51.773, -8.7212, 85.3361, -61.603, 74.2929
2.423, 1, 27.4413, 51.7562, -8.7451, 85.3917, -61.5563, 74.1645
2.428, 1, 27.4796, 51.7395, -8.76898, 85.4474, -61.5096, 74.0362
2.432, 1, 27.5179, 51.7228, -8.79284, 85.5029, -61.4629, 73.9079
2.436, 1, 27.5562, 51.706, -8.81669, 85.5585, -61.4162, 73.7798
2.439, 1, 27.5944, 51.6893, -8.84052, 85.614, -61.3696, 73.6518
2.444, 1, 27.6326, 51.6726, -8.86433, 85.6694, -61.323, 73.5238
2.448, 1, 27.6708, 51.6559, -8.88812, 85.7249, -61.2765, 73.396
2.452, 1, 27.709, 51.6392, -8.9119, 85.7803, -61.23, 73.2682
2.456, 1, 27.7471, 51.6226, -8.93566, 85.8356, -61.1835, 73.1405
2.459, 1, 27.7852, 51.6059, -8.95941, 85.8909, -61.1371, 73.0129
2.464, 1, 27.8233, 51.5893, -8.98314, 85.9462, -61.0906, 72.8854
2.468, 1, 27.8613, 51.5726, -9.00685, 86.0014, -61.0443, 72.758
2.472, 1, 27.8993, 51.556, -9.03054, 86.0566, -60.9979, 72.6307
2.476, 1, 27.9373, 51.5394, -9.05422, 86.1117, -60.9516, 72.5035
2.479, 1, 27.9753, 51.5228, -9.07788, 86.1668, -60.9053, 72.3764
2.484, 1, 28.0132, 51.5062, -9.10153, 86.2219, -60.8591, 72.2493
2.488, 1, 28.0512, 51.4897, -9.12516, 86.277, -60.8128, 72.1223
2.492, 1, 28.089, 51.4731, -9.14877, 86.332, -60.7666, 71.9955
2.495, 1, 28.1269, 51.4565, -9.17237, 86.3869, -60.7205, 71.8687
2.5, 1, 28.1647, 51.44, -9.19595, 86.4418, -60.6744, 71.742
2.504, 1, 28.2026, 51.4235, -9.21951, 86.4967, -60.6283, 71.6154
2.508, 1, 28.2403, 51.407, -9.24306, 86.5516, -60.5822, 71.4889
2.512, 1, 28.2781, 51.3905, -9.26659, 86.6064, -60.5362, 71.3624
2.515, 1, 28.3158, 51.374, -9.2901, 86.6611, -60.4902, 71.2361
2.52, 1, 28.3535, 51.3575, -9.3136, 86.7159, -60.4442, 71.1098
2.524, 1, 28.3912, 51.341, -9.33708, 86.7706, -60.3983, 70.9837
2.528, 1, 28.4289, 51.3246, -9.36055, 86.8252, -60.3524, 70.8576
2.531, 1, 28.4665, 51.3081, -9.384, 86.8798, -60.3065, 70.7316
2.536, 1, 28.5041, 51.2917, -9.40743, 86.9344, -60.2607, 70.6057
2.54, 1, 28.5417, 51.2752, -9.43085, 86.989, -60.2149, 70.4798
2.544, 1, 28.5792, 51.2588, -9.45425, 87.0435, -60.1691, 70.3541
2.548, 1, 28.6168, 51.2424, -9.47764, 87.0979, -60.1234, 70.2284
2.551, 1, 28.6543, 51.226, -9.50101, 87.1524, -60.0776, 70.1029
2.556, 1, 28.6917, 51.2097, -9.52436, 87.2067, -60.032, 69.9774
2.56, 1, 28.7292, 51.1933, -9.5477, 87.2611, -59.9863, 69.852
2.564, 1, 28.7666, 51.1769, -9.57102, 87.3154, -59.9407, 69.7267
2.568, 1, 28.804, 51.1606, -9.59433, 87.3697, -59.8951, 69.6014
2.571, 1, 28.8414, 51.1442, -9.61762, 87.424, -59.8495, 69.4763
2.576, 1, 28.8787, 51.1279, -9.6409, 87.4782, -59.804, 69.3512
2.58, 1, 28.9161, 51.1116, -9.66416, 87.5324, -59.7585, 69.2262
2.584, 1, 28.9534, 51.0953, -9.6874, 87.5865, -59.713, 69.1013
2.587, 1, 28.9906, 51.079, -9.71063, 87.6406, -59.6676, 68.9765
2.592, 1, 29.0279, 51.0627, -9.73384, 87.6947, -59.6222, 68.8518
2.596, 1, 29.0651, 51.0464, -9.75704, 87.7487, -59.5768, 68.7271
2.6, 1, 29.1023, 51.0302, -9.78022, 87.8027, -59.5315, 68.6026
2.604, 1, 29.1395, 51.0139, -9.80339, 87.8567, -59.4862, 68.4781
2.607, 1, 29.1766, 50.9977, -9.82654, 87.9106, -59.4409, 68.3537
2.612, 1, 29.2138, 50.9815, -9.84968, 87.9645, -59.3956, 68.2294
2.616, 1, 29.2509, 50.9653, -9.8728, 88.0183, -59.3504, 68.1052
2.62, 1, 29.2879, 50.949, -9.8959, 88.0721, -59.3052, 67.981
2.624, 1, 29.325, 50.9328, -9.91899, 88.1259, -59.26, 67.8569
2.627, 1, 29.362, 50.9167, -9.94207, 88.1796, -59.2149, 67.733
2.632, 1, 29.399, 50.9005, -9.96513, 88.2334, -59.1698, 67.6091
2.636, 1, 29.436, 50.8843, -9.98817, 88.287, -59.1247, 67.4852
2.64, 1, 29.4729, 50.8682, -10.0112, 88.3407, -59.0797, 67.3615
2.643, 1, 29.5099, 50.852, -10.0342, 88.3943, -59.0346, 67.2378
2.648, 1, 29.5468, 50.8359, -10.0572, 88.4479, -58.9896, 67.1143
2.652, 1, 29.5837, 50.8198, -10.0802, 88.5014, -58.9447, 66.9908
2.656, 1, 29.6205, 50.8037, -10.1032, 88.5549, -58.8998, 66.8673
2.66, 1, 29.6574, 50.7876, -10.1261, 88.6083, -58.8549, 66.744
2.663, 1, 29.6942, 50.7715, -10.1491, 88.6618, -58.81, 66.6207
2.668, 1, 29.7309, 50.7554, -10.172, 88.7152, -58.7651, 66.4976
2.672, 1, 29.7677, 50.7393, -10.1949, 88.7685, -58.7203, 66.3745
2.676, 1, 29.8044, 50.7233, -10.2178, 88.8219, -58.6755, 66.2514
2.679, 1, 29.8412, 50.7072, -10.2407, 88.8752, -58.6308, 66.1285
2.684, 1, 29.8779, 50.6912, -10.2635, 88.9284, -58.5861, 66.0056
2.688, 1, 29.9145, 50.6751, -10.2864, 88.9816, -58.5414, 65.8829
2.692, 1, 29.9512, 50.6591, -10.3092, 89.0348, -58.4967, 65.7602
2.696, 1, 29.9878, 50.6431, -10.3321, 89.088, -58.452, 65.6375
2.699, 1, 30.0244, 50.6271, -10.3549, 89.1411, -58.4074, 65.515
2.704, 1, 30.061, 50.6111, -10.3777, 89.1942, -58.3628, 65.3925
2.708, 1, 30.0975, 50.5952, -10.4004, 89.2472, -58.3183, 65.2701
2.712, 1, 30.134, 50.5792, -10.4232, 89.3003, -58.2738, 65.1478
2.716, 1, 30.1705, 50.5632, -10.4459, 89.3532, -58.2293, 65.0256
2.719, 1, 30.207, 50.5473, -10.4687, 89.4062, -58.1848, 64.9034
2.724, 1, 30.2435, 50.5314, -10.4914, 89.4591, -58.1403, 64.7813
2.728, 1, 30.2799, 50.5154, -10.5141, 89.512, -58.0959, 64.6593
2.732, 1, 30.3163, 50.4995, -10.5368, 89.5648, -58.0515, 64.5374
2.735, 1, 30.3527, 50.4836, -10.5595, 89.6177, -58.0072, 64.4156
2.74, 1, 30.3891, 50.4677, -10.5821, 89.6705, -57.9629, 64.2938
2.744, 1, 30.4254, 50.4518, -10.6048, 89.7232, -57.9186, 64.1721
2.748, 1, 30.4617, 50.436, -10.6274, 89.7759, -57.8743, 64.0505
2.752, 1, 30.498, 50.4201, -10.65, 89.8286, -57.83, 63.9289
2.755, 1, 30.5343, 50.4042, -10.6726, 89.8813, -57.7858, 63.8075
2.76, 1, 30.5706, 50.3884, -10.6952, 89.9339, -57.7416, 63.6861
2.764, 1, 30.6068, 50.3725, -10.7178, 89.9865, -57.6975, 63.5648
2.768, 1, 30.643, 50.3567, -10.7404, 90.039, -57.6533, 63.4435
2.772, 1, 30.6792, 50.3409, -10.7629, 90.0915, -57.6092, 63.3224
2.775, 1, 30.7153, 50.3251, -10.7855, 90.144, -57.5651, 63.2013
2.78, 1, 30.7515, 50.3093, -10.808, 90.1965, -57.5211, 63.0803
2.784, 1, 30.7876, 50.2935, -10.8305, 90.2489, -57.4771, 62.9593
2.788, 1, 30.8237, 50.2777, -10.853, 90.3013, -57.4331, 62.8385
2.791, 1, 30.8598, 50.262, -10.8755, 90.3537, -57.3891, 62.7177
2.796, 1, 30.8958, 50.2462, -10.8979, 90.406, -57.3451, 62.597
2.8, 1, 30.9318, 50.2305, -10.9204, 90.4583, -57.3012, 62.4763
2.804, 1, 30.9678, 50.2147, -10.9428, 90.5105, -57.2573, 62.3558
2.808, 1, 31.0038, 50.199, -10.9652, 90.5628, -57.2135, 62.2353
2.811, 1, 31.0398, 50.1833, -10.9877, 90.615, -57.1696, 62.1149
2.816, 1, 31.0757, 50.1676, -11.01, 90.6671, -57.1258, 61.9945
2.82, 1, 31.1116, 50.1519, -11.0324, 90.7193, -57.082, 61.8743
2.824, 1, 31.1475, 50.1362, -11.0548, 90.7714, -57.0383, 61.7541
2.828, 1, 31.1834, 50.1205, -11.0772, 90.8234, -56.9945, 61.634
2.831, 1, 31.2193, 50.1048, -11.0995, 90.8755, -56.9508, 61.5139
2.836, 1, 31.2551, 50.0892, -11.1218, 90.9275, -56.9072, 61.3939
2.84, 1, 31.2909, 50.0735, -11.1441, 90.9795, -56.8635, 61.274
2.844, 1, 31.3267, 50.0579, -11.1664, 91.0314, -56.8199, 61.1542
2.847, 1, 31.3624, 50.0422, -11.1887, 91.0833, -56.7763, 61.0344
2.852, 1, 31.3982, 50.0266, -11.211, 91.1352, -56.7327, 60.9147
2.856, 1, 31.4339, 50.011, -11.2333, 91.187, -56.6892, 60.7951
2.86, 1, 31.4696, 49.9954, -11.2555, 91.2389, -56.6457, 60.6756
2.864, 1, 31.5053, 49.9798, -11.2778, 91.2906, -56.6022, 60.5561
2.867, 1, 31.5409, 49.9642, -11.3, 91.3424, -56.5587, 60.4367
2.872, 1, 31.5766, 49.9486, -11.3222, 91.3941, -56.5153, 60.3174
2.876, 1, 31.6122, 49.9331, -11.3444, 91.4458, -56.4718, 60.1982
2.88, 1, 31.6478, 49.9175, -11.3666, 91.4975, -56.4285, 60.079
2.883, 1, 31.6833, 49.902, -11.3887, 91.5491, -56.3851, 59.9599
2.888, 1, 31.7189, 49.8864, -11.4109, 91.6007, -56.3418, 59.8408
2.892, 1, 31.7544, 49.8709, -11.433, 91.6523, -56.2984, 59.7218
2.896, 1, 31.7899, 49.8554, -11.4551, 91.7038, -56.2552, 59.603
2.9, 1, 31.8254, 49.8399, -11.4773, 91.7553, -56.2119, 59.4841
2.903, 1, 31.8609, 49.8244, -11.4994, 91.8068, -56.1687, 59.3654
2.908, 1, 31.8963, 49.8089, -11.5215, 91.8583, -56.1255, 59.2467
2.912, 1, 31.9318, 49.7934, -11.5435, 91.9097, -56.0823, 59.1281
2.916, 1, 31.9672, 49.7779, -11.5656, 91.9611, -56.0391, 59.0095
2.92, 1, 32.0025, 49.7624, -11.5876, 92.0124, -55.996, 58.891
2.923, 1, 32.0379, 49.747, -11.6097, 92.0638, -55.9529, 58.7726
2.928, 1, 32.0732, 49.7315, -11.6317, 92.1151, -55.9098, 58.6543
2.932, 1, 32.1086, 49.7161, -11.6537, 92.1663, -55.8667, 58.536
2.936, 1, 32.1439, 49.7007, -11.6757, 92.2176, -55.8237, 58.4178
2.939, 1, 32.1791, 49.6852, -11.6977, 92.2688, -55.7807, 58.2997
2.944, 1, 32.2144, 49.6698, -11.7197, 92.3199, -55.7377, 58.1816
2.948, 1, 32.2496, 49.6544, -11.7416, 92.3711, -55.6948, 58.0636
2.952, 1, 32.2849, 49.639, -11.7636, 92.4222, -55.6518, 57.9457
2.956, 1, 32.3201, 49.6236, -11.7855, 92.4733, -55.6089, 57.8278
2.959, 1, 32.3552, 49.6083, -11.8074, 92.5244, -55.5661, 57.71
2.964, 1, 32.3904, 49.5929, -11.8293, 92.5754, -55.5232, 57.5923
2.968, 1, 32.4255, 49.5775, -11.8512, 92.6264, -55.4804, 57.4747
2.972, 1, 32.4606, 49.5622, -11.8731, 92.6774, -55.4376, 57.3571
2.976, 1, 32.4957, 49.5468, -11.895, 92.7283, -55.3948, 57.2396
2.98, 1, 32.5308, 49.5315, -11.9169, 92.7792, -55.352, 57.1221
2.984, 1, 32.5659, 49.5162, -11.9387, 92.8301, -55.3093, 57.0047
2.988, 1, 32.6009, 49.5009, -11.9605, 92.881, -55.2666, 56.8874
2.992, 1, 32.6359, 49.4856, -11.9824, 92.9318, -55.2239, 56.7702
2.995, 1, 32.6709, 49.4703, -12.0042, 92.9826, -55.1812, 56.653
3, 1, 32.7059, 49.455, -12.026, 93.0333, -55.1386, 56.5359
3.004, 1, 32.7408, 49.4397, -12.0477, 93.0841, -55.096, 56.4188
3.008, 1, 32.7758, 49.4244, -12.0695, 93.1348, -55.0534, 56.3018
3.012, 1, 32.8107, 49.4092, -12.0913, 93.1855, -55.0108, 56.1849
3.015, 1, 32.8456, 49.3939, -12.113, 93.2361, -54.9683, 56.068
3.02, 1, 32.8805, 49.3787, -12.1348, 93.2868, -54.9258, 55.9512
3.024, 1, 32.9153, 49.3634, -12.1565, 93.3373, -54.8833, 55.8345
3.028, 1, 32.9502, 49.3482, -12.1782, 93.3879, -54.8408, 55.7179
3.031, 1, 32.985, 49.333, -12.1999, 93.4385, -54.7984, 55.6013
3.036, 1, 33.0198, 49.3178, -12.2216, 93.489, -54.7559, 55.4847
3.04, 1, 33.0546, 49.3026, -12.2433, 93.5395, -54.7135, 55.3683
3.044, 1, 33.0893, 49.2874, -12.2649, 93.5899, -54.6712, 55.2519
3.048, 1, 33.1241, 49.2722, -12.2866, 93.6403, -54.6288, 55.1356
3.051, 1, 33.1588, 49.257, -12.3082, 93.6907, -54.5865, 55.0193
3.056, 1, 33.1935, 49.2418, -12.3298, 93.7411, -54.5442, 54.9031
3.06, 1, 33.2282, 49.2267, -12.3515, 93.7915, -54.5019, 54.7869
3.064, 1, 33.2628, 49.2115, -12.3731, 93.8418, -54.4596, 54.6709
3.068, 1, 33.2975, 49.1964, -12.3946, 93.8921, -54.4174, 54.5549
3.071, 1, 33.3321, 49.1812, -12.4162, 93.9423, -54.3752, 54.4389
3.076, 1, 33.3667, 49.1661, -12.4378, 93.9926, -54.333, 54.323
3.08, 1, 33.4013, 49.151, -12.4593, 94.0428, -54.2908, 54.2072
3.084, 1, 33.4359, 49.1359, -12.4809, 94.0929, -54.2487, 54.0914
3.087, 1, 33.4704, 49.1208, -12.5024, 94.1431, -54.2066, 53.9758
3.092, 1, 33.505, 49.1057, -12.5239, 94.1932, -54.1645, 53.8601
3.096, 1, 33.5395, 49.0906, -12.5455, 94.2433, -54.1224, 53.7446
3.1, 1, 33.574, 49.0755, -12.5669, 94.2934, -54.0804, 53.6291
3.104, 1, 33.6084, 49.0605, -12.5884, 94.3434, -54.0383, 53.5136
3.107, 1, 33.6429, 49.0454, -12.6099, 94.3934, -53.9963, 53.3982
3.112, 1, 33.6773, 49.0303, -12.6314, 94.4434, -53.9544, 53.2829
3.116, 1, 33.7118, 49.0153, -12.6528, 94.4934, -53.9124, 53.1677
3.12, 1, 33.7462, 49.0003, -12.6743, 94.5433, -53.8705, 53.0525
3.124, 1, 33.7805, 48.9852, -12.6957, 94.5932, -53.8286, 52.9373
3.128, 1, 33.8149, 48.9702, -12.7171, 94.6431, -53.7867, 52.8223
3.132, 1, 33.8492, 48.9552, -12.7385, 94.6929, -53.7448, 52.7073
3.136, 1, 33.8836, 48.9402, -12.7599, 94.7428, -53.7029, 52.5923
3.14, 1, 33.9179, 48.9252, -12.7813, 94.7926, -53.6611, 52.4774
3.143, 1, 33.9522, 48.9102, -12.8026, 94.8423, -53.6193, 52.3626
3.148, 1, 33.9864, 48.8952, -12.824, 94.8921, -53.5775, 52.2479
3.152, 1, 34.0207, 48.8803, -12.8453, 94.9418, -53.5358, 52.1332
3.156, 1, 34.0549, 48.8653, -12.8667, 94.9915, -53.4941, 52.0185
3.16, 1, 34.0891, 48.8503, -12.888, 95.0412, -53.4523, 51.9039
3.163, 1, 34.1233, 48.8354, -12.9093, 95.0908, -53.4107, 51.7894
3.168, 1, 34.1575, 48.8204, -12.9306, 95.1404, -53.369, 51.675
3.172, 1, 34.1917, 48.8055, -12.9519, 95.19, -53.3273, 51.5606
3.176, 1, 34.2258, 48.7906, -12.9732, 95.2396, -53.2857, 51.4462
3.179, 1, 34.2599, 48.7757, -12.9945, 95.2891, -53.2441, 51.332
3.184, 1, 34.2941, 48.7608, -13.0157, 95.3386, -53.2025, 51.2178
3.188, 1, 34.3281, 48.7459, -13.037, 95.3881, -53.161, 51.1036
3.192, 1, 34.3622, 48.731, -13.0582, 95.4376, -53.1194, 50.9895
3.196, 1, 34.3963, 48.7161, -13.0794, 95.487, -53.0779, 50.8755
3.199, 1, 34.4303, 48.7012, -13.1006, 95.5364, -53.0364, 50.7615
3.204, 1, 34.4643, 48.6863, -13.1218, 95.5858, -52.995, 50.6476
3.208, 1, 34.4983, 48.6715, -13.143, 95.6351, -52.9535, 50.5337
3.212, 1, 34.5323, 48.6566, -13.1642, 95.6844, -52.9121, 50.4199
3.216, 1, 34.5663, 48.6418, -13.1854, 95.7337, -52.8707, 50.3062
3.22, 1, 34.6002, 48.6269, -13.2065, 95.783, -52.8293, 50.1925
3.224, 1, 34.6342, 48.6121, -13.2277, 95.8323, -52.7879, 50.0789
3.228, 1, 34.6681, 48.5973, -13.2488, 95.8815, -52.7466, 49.9653
3.232, 1, 34.702, 48.5824, -13.2699, 95.9307, -52.7053, 49.8518
3.235, 1, 34.7358, 48.5676, -13.291, 95.9799, -52.664, 49.7384
3.24, 1, 34.7697, 48.5528, -13.3121, 96.029, -52.6227, 49.625
3.244, 1, 34.8036, 48.538, -13.3332, 96.0782, -52.5814, 49.5117
3.248, 1, 34.8374, 48.5233, -13.3543, 96.1273, -52.5402, 49.3984
3.252, 1, 34.8712, 48.5085, -13.3754, 96.1763, -52.499, 49.2852
3.255, 1, 34.905, 48.4937, -13.3964, 96.2254, -52.4578, 49.1721
3.26, 1, 34.9388, 48.4789, -13.4175, 96.2744, -52.4166, 49.059
3.264, 1, 34.9725, 48.4642, -13.4385, 96.3234, -52.3755, 48.9459
3.268, 1, 35.0062, 48.4494, -13.4595, 96.3724, -52.3344, 48.833
3.272, 1, 35.04, 48.4347, -13.4806, 96.4213, -52.2932, 48.72
3.276, 1, 35.0737, 48.42, -13.5016, 96.4702, -52.2522, 48.6072
3.28, 1, 35.1074, 48.4052, -13.5226, 96.5191, -52.2111, 48.4944
3.284, 1, 35.141, 48.3905, -13.5435, 96.568, -52.17, 48.3816
3.288, 1, 35.1747, 48.3758, -13.5645, 96.6169, -52.129, 48.2689
3.291, 1, 35.2083, 48.3611, -13.5855, 96.6657, -52.088, 48.1563
3.296, 1, 35.2419, 48.3464, -13.6064, 96.7145, -52.047, 48.0437
3.3, 1, 35.2754, 48.3318, -13.6274, 96.7633, -52.0061, 47.9312
3.304, 1, 35.3088, 48.3171, -13.6483, 96.812, -51.9651, 47.8187
3.308, 1, 35.3421, 48.3025, -13.6693, 96.8607, -51.9242, 47.7063
3.312, 1, 35.375, 48.2881, -13.6902, 96.9094, -51.8834, 47.5941
3.316, 1, 35.4073, 48.2741, -13.7112, 96.958, -51.8426, 47.4819
3.32, 1, 35.4386, 48.2604, -13.7323, 97.0065, -51.8019, 47.3701
3.324, 1, 35.4687, 48.2474, -13.7534, 97.0547, -51.7614, 47.2587
3.328, 1, 35.4975, 48.2351, -13.7745, 97.1026, -51.7213, 47.1481
3.332, 1, 35.5249, 48.2236, -13.7956, 97.1499, -51.6816, 47.0388
3.336, 1, 35.5511, 48.2127, -13.8164, 97.1965, -51.6426, 46.9313
3.34, 1, 35.5762, 48.2024, -13.8368, 97.2419, -51.6045, 46.8263
3.344, 1, 35.6003, 48.1926, -13.8567, 97.286, -51.5677, 46.7245
3.347, 1, 35.6234, 48.1832, -13.8758, 97.3283, -51.5323, 46.6268
3.352, 1, 35.6455, 48.1743, -13.894, 97.3685, -51.4986, 46.5338
3.356, 1, 35.6666, 48.1658, -13.9111, 97.4064, -51.4669, 46.4462
3.36, 1, 35.6865, 48.1576, -13.9269, 97.4416, -51.4374, 46.3648
3.364, 1, 35.7054, 48.1498, -13.9413, 97.474, -51.4102, 46.2901
3.368, 1, 35.7235, 48.1422, -13.9543, 97.5032, -51.3857, 46.2225
3.372, 1, 35.7409, 48.1347, -13.9656, 97.5294, -51.3638, 46.1622
3.376, 1, 35.7576, 48.1273, -13.9753, 97.5522, -51.3445, 46.1095
3.38, 1, 35.7738, 48.1198, -13.9833, 97.572, -51.3279, 46.064
3.383, 1, 35.7892, 48.1126, -13.9899, 97.5887, -51.3137, 46.0255
3.388, 1, 35.8036, 48.1057, -13.9951, 97.6027, -51.3019, 45.9934
3.392, 1, 35.8167, 48.0992, -13.9991, 97.6141, -51.2922, 45.9672
3.396, 2, 35.8285, 48.0934, -14.0022, 97.6233, -51.2844, 45.9462
3.4, 2, 35.8389, 48.0881, -14.0045, 97.6305, -51.2782, 45.9296
3.403, 2, 35.848, 48.0835, -14.0061, 97.6361, -51.2734, 45.9168
3.408, 2, 35.8561, 48.0795, -14.0071, 97.6404, -51.2698, 45.9072
3.412, 2, 35.8631, 48.0761, -14.0078, 97.6435, -51.267, 45.9
3.416, 2, 35.8691, 48.0732, -14.0082, 97.6458, -51.265, 45.8948
3.42, 2, 35.8741, 48.0708, -14.0084, 97.6475, -51.2636, 45.8912
3.424, 2, 35.8782, 48.069, -14.0085, 97.6486, -51.2626, 45.8886
3.428, 2, 35.8813, 48.0676, -14.0086, 97.6494, -51.2619, 45.8869
3.432, 2, 35.8835, 48.0666, -14.0086, 97.6499, -51.2615, 45.8857
3.436, 2, 35.8851, 48.0659, -14.0086, 97.6503, -51.2611, 45.8849
3.439, 2, 35.8862, 48.0654, -14.0086, 97.6505, -51.2609, 45.8843
3.444, 2, 35.8869, 48.0651, -14.0086, 97.6507, -51.2608, 45.884
3.448, 2, 35.8874, 48.0649, -14.0086, 97.6508, -51.2607, 45.8837
3.452, 2, 35.8877, 48.0648, -14.0086, 97.6509, -51.2606, 45.8835
3.456, 2, 35.8879, 48.0647, -14.0086, 97.6509, -51.2606, 45.8834
3.46, 2, 35.8881, 48.0646, -14.0086, 97.6509, -51.2605, 45.8834
3.464, 2, 35.8882, 48.0645, -14.0086, 97.651, -51.2605, 45.8833
3.468, 2, 35.8883, 48.0645, -14.0086, 97.651, -51.2605, 45.8833
3.472, 2, 35.8883, 48.0645, -14.0086, 97.651, -51.2605, 45.8832
3.476, 2, 35.8884, 48.0645, -14.0086, 97.651, -51.2605, 45.8832
3.48, 2, 35.8884, 48.0645, -14.0086, 97.651, -51.2605, 45.8832
3.484, 2, 35.8884, 48.0645, -14.0086, 97.651, -51.2605, 45.8832
3.488, 2, 35.8884, 48.0645, -14.0086, 97.651, -51.2605, 45.8832
3.492, 2, 35.8884, 48.0645, -14.0086, 97.651, -51.2605, 45.8832
3.495, 2, 35.8884, 48.0644, -14.0086, 97.651, -51.2605, 45.8832
3.5, 2, 35.8884, 48.0644, -14.0086, 97.651, -51.2605, 45.8832
3.504, 2, 35.8884, 48.0644, -14.0086, 97.651, -51.2605, 45.8832
3.508, 2, 35.8884, 48.0644, -14.0086, 97.651, -51.2605, 45.8832
3.512, 2, 35.8884, 48.0644, -14.0086, 97.651, -51.2605, 45.8832
3.516, 2, 35.8884, 48.0644, -14.0086, 97.651, -51.2605, 45.8832
3.52, 2, 35.8884, 48.0644, -14.0086, 97.651, -51.2605, 45.8832
3.524, 2, 35.8884, 48.0644, -14.0086, 97.651, -51.2605, 45.8832
3.528, 2, 35.8884, 48.0644, -14.0086, 97.651, -51.2605, 45.8832
3.531, 2, 35.8884, 48.0644, -14.0086, 97.651, -51.2605, 45.8832
3.536, 2, 35.8884, 48.0644, -14.0086, 97.651, -51.2605, 45.8832
3.54, 2, 35.8884, 48.0644, -14.0086, 97.651, -51.2605, 45.8832
3.544, 2, 35.8884, 48.0644, -14.0086, 97.651, -51.2605, 45.8832
3.548, 2, 35.8884, 48.0644, -14.0086, 97.651, -51.2605, 45.8832
3.552, 2, 35.8884, 48.0644, -14.0086, 97.651, -51.2605, 45.8832
3.556, 2, 35.8884, 48.0644, -14.0086, 97.651, -51.2605, 45.8832
3.56, 2, 35.8884, 48.0644, -14.0086, 97.651, -51.2605, 45.8832
3.564, 2, 35.8884, 48.0644, -14.0086, 97.651, -51.2605, 45.8832
3.568, 2, 35.8884, 48.0644, -14.0086, 97.651, -51.2605, 45.8832
3.572, 2, 35.8884, 48.0644, -14.0086, 97.651, -51.2605, 45.8832
3.576, 2, 35.8884, 48.0644, -14.0086, 97.651, -51.2605, 45.8832
3.58, 2, 35.8884, 48.0644, -14.0086, 97.651, -51.2605, 45.8832
3.584, 2, 35.8884, 48.0644, -14.0086, 97.651, -51.2605, 45.8832
3.587, 2, 35.8884, 48.0644, -14.0086, 97.651, -51.2605, 45.8832
3.592, 2, 35.8884, 48.0644, -14.0086, 97.651, -51.2605, 45.8832
3.596, 2, 35.8884, 48.0644, -14.0086, 97.651, -51.2605, 45.8832
3.6, 2, 35.8884, 48.0644, -14.0086, 97.651, -51.2605, 45.8832
3.604, 2, 35.8884, 48.0644, -14.0086, 97.651, -51.2605, 45.8832
3.608, 2, 35.8884, 48.0644, -14.0086, 97.651, -51.2605, 45.8832
3.612, 2, 35.8884, 48.0644, -14.0086, 97.651, -51.2605, 45.8832
3.616, 2, 35.8884, 48.0644, -14.0086, 97.651, -51.2605, 45.8832
3.62, 2, 35.8884, 48.0644, -14.0086, 97.651, -51.2605, 45.8832
3.624, 2, 35.8884, 48.0644, -14.0086, 97.651, -51.2605, 45.8832
3.628, 2, 35.8884, 48.0644, -14.0086, 97.651, -51.2605, 45.8832
3.632, 2, 35.8884, 48.0644, -14.0086, 97.651, -51.2605, 45.8832
3.636, 2, 35.8884, 48.0644, -14.0086, 97.651, -51.2605, 45.8832
3.64, 2, 35.8884, 48.0644, -14.0086, 97.651, -51.2605, 45.8832
3.644, 2, 35.8884, 48.0644, -14.0086, 97.651, -51.2605, 45.8832
3.648, 2, 35.8884, 48.0644, -14.0086, 97.651, -51.2605, 45.8832
3.652, 2, 35.8884, 48.0644, -14.0086, 97.651, -51.2605, 45.8832
3.656, 2, 35.8884, 48.0644, -14.0086, 97.651, -51.2605, 45.8832
3.66, 2, 35.8884, 48.0644, -14.0086, 97.651, -51.2605, 45.8832
3.664, 2, 35.8884, 48.0644, -14.0086, 97.651, -51.2605, 45.8832
3.668, 2, 35.8884, 48.0644, -14.0086, 97.651, -51.2605, 45.8832
3.672, 2, 35.8884, 48.0644, -14.0086, 97.651, -51.2605, 45.8832
3.676, 2, 35.8884, 48.0644, -14.0086, 97.651, -51.2605, 45.8832
3.679, 2, 35.8884, 48.0644, -14.0086, 97.651, -51.2605, 45.8832
3.684, 2, 35.8884, 48.0644, -14.0086, 97.651, -51.2605, 45.8832
3.688, 2, 35.8884, 48.0644, -14.0086, 97.651, -51.2605, 45.8832
3.692, 2, 35.8884, 48.0644, -14.0086, 97.651, -51.2605, 45.8832
3.696, 2, 35.8884, 48.0644, -14.0086, 97.651, -51.2605, 45.8832
3.7, 2, 35.8884, 48.0644, -14.0086, 97.651, -51.2605, 45.8832
3.704, 2, 35.8884, 48.0644, -14.0086, 97.651, -51.2605, 45.8832
3.708, 2, 35.8884, 48.0644, -14.0086, 97.651, -51.2605, 45.8832
3.712, 2, 35.8884, 48.0644, -14.0086, 97.651, -51.2605, 45.8832
3.716, 2, 35.8884, 48.0644, -14.0086, 97.651, -51.2605, 45.8832
3.72, 2, 35.8884, 48.0644, -14.0086, 97.651, -51.2605, 45.8832
3.724, 2, 35.8884, 48.0644, -14.0086, 97.651, -51.2605, 45.8832
3.728, 2, 35.8884, 48.0644, -14.0086, 97.651, -51.2605, 45.8832
3.732, 2, 35.8884, 48.0644, -14.0086, 97.651, -51.2605, 45.8832
3.735, 2, 35.8884, 48.0644, -14.0086, 97.651, -51.2605, 45.8832
3.74, 2, 35.8884, 48.0644, -14.0086, 97.651, -51.2605, 45.8832
3.744, 2, 35.8884, 48.0644, -14.0086, 97.651, -51.2605, 45.8832
3.748, 2, 35.8884, 48.0644, -14.0086, 97.651, -51.2605, 45.8832
3.752, 2, 35.8884, 48.0644, -14.0086, 97.651, -51.2605, 45.8832
3.756, 2, 35.8884, 48.0644, -14.0086, 97.651, -51.2605, 45.8832
3.76, 2, 35.8884, 48.0644, -14.0086, 97.651, -51.2605, 45.8832
3.764, 2, 35.8884, 48.0644, -14.0086, 97.651, -51.2605, 45.8832
3.768, 2, 35.8884, 48.0644, -14.0086, 97.651, -51.2605, 45.8832
3.772, 2, 35.8884, 48.0644, -14.0086, 97.651, -51.2605, 45.8832
3.776, 2, 35.8884, 48.0644, -14.0086, 97.651, -51.2605, 45.8832
3.78, 2, 35.8884, 48.0644, -14.0086, 97.651, -51.2605, 45.8832
3.784, 2, 35.8884, 48.0644, -14.0086, 97.651, -51.2605, 45.8832
3.788, 2, 35.8884, 48.0644, -14.0086, 97.651, -51.2605, 45.8832
3.792, 2, 35.8884, 48.0644, -14.0086, 97.651, -51.2605, 45.8832
3.796, 2, 35.8884, 48.0644, -14.0086, 97.651, -51.2605, 45.8832
3.8, 2, 35.8884, 48.0644, -14.0086, 97.651, -51.2605, 45.8832
3.804, 2, 35.8884, 48.0644, -14.0086, 97.651, -51.2605, 45.8832
3.808, 2, 35.8884, 48.0644, -14.0086, 97.651, -51.2605, 45.8832
3.812, 2, 35.8884, 48.0644, -14.0086, 97.651, -51.2605, 45.8832
3.816, 2, 35.8884, 48.0644, -14.0086, 97.651, -51.2605, 45.8832
3.82, 2, 35.8884, 48.0644, -14.0086, 97.651, -51.2605, 45.8832
3.824, 2, 35.8884, 48.0644, -14.0086, 97.651, -51.2605, 45.8832
3.828, 2, 35.8884, 48.0644, -14.0086, 97.651, -51.2605, 45.8832
3.832, 2, 35.8884, 48.0644, -14.0086, 97.651, -51.2605, 45.8832
3.836, 2, 35.8884, 48.0644, -14.0086, 97.651, -51.2605, 45.8832
3.84, 2, 35.8884, 48.0644, -14.0086, 97.651, -51.2605, 45.8832
3.844, 2, 35.8884, 48.0644, -14.0086, 97.651, -51.2605, 45.8832
3.848, 2, 35.8884, 48.0644, -14.0086, 97.651, -51.2605, 45.8832
3.852, 2, 35.8884, 48.0644, -14.0086, 97.651, -51.2605, 45.8832
3.856, 2, 35.8884, 48.0644, -14.0086, 97.651, -51.2605, 45.8832
3.86, 2, 35.8884, 48.0644, -14.0086, 97.651, -51.2605, 45.8832
3.864, 2, 35.8884, 48.0644, -14.0086, 97.651, -51.2605, 45.8832
3.868, 2, 35.8884, 48.0644, -14.0086, 97.651, -51.2605, 45.8832
3.872, 2, 35.8884, 48.0644, -14.0086, 97.651, -51.2605, 45.8832
3.876, 2, 35.8884, 48.0644, -14.0086, 97.651, -51.2605, 45.8832
3.88, 2, 35.8884, 48.0644, -14.0086, 97.651, -51.2605, 45.8832
3.884, 2, 35.8884, 48.0644, -14.0086, 97.651, -51.2605, 45.8832
3.888, 2, 35.8884, 48.0644, -14.0086, 97.651, -51.2605, 45.8832
3.892, 2, 35.8884, 48.0644, -14.0086, 97.651, -51.2605, 45.8832
3.896, 2, 35.8884, 48.0644, -14.0086, 97.651, -51.2605, 45.8832
3.9, 2, 35.8884, 48.0644, -14.0086, 97.651, -51.2605, 45.8832
3.904, 2, 35.8884, 48.0644, -14.0086, 97.651, -51.2605, 45.8832
3.908, 2, 35.8884, 48.0644, -14.0086, 97.651, -51.2605, 45.8832
3.912, 2, 35.8884, 48.0644, -14.0086, 97.651, -51.2605, 45.8832
3.916, 2, 35.8884, 48.0644, -14.0086, 97.651, -51.2605, 45.8832
3.92, 2, 35.8884, 48.0644, -14.0086, 97.651, -51.2605, 45.8832
3.924, 2, 35.8884, 48.0644, -14.0086, 97.651, -51.2605, 45.8832
3.928, 2, 35.8884, 48.0644, -14.0086, 97.651, -51.2605, 45.8832
3.932, 2, 35.8884, 48.0644, -14.0086, 97.651, -51.2605, 45.8832
3.936, 2, 35.8884, 48.0644, -14.0086, 97.651, -51.2605, 45.8832
3.94, 2, 35.8884, 48.0644, -14.0086, 97.651, -51.2605, 45.8832
3.944, 2, 35.8884, 48.0644, -14.0086, 97.651, -51.2605, 45.8832
3.948, 2, 35.8884, 48.0644, -14.0086, 97.651, -51.2605, 45.8832
3.952, 2, 35.8884, 48.0644, -14.0086, 97.651, -51.2605, 45.8832
3.956, 2, 35.8884, 48.0644, -14.0086, 97.651, -51.2605, 45.8832
3.96, 2, 35.8884, 48.0644, -14.0086, 97.651, -51.2605, 45.8832
3.964, 2, 35.8884, 48.0644, -14.0086, 97.651, -51.2605, 45.8832
3.968, 2, 35.8884, 48.0644, -14.0086, 97.651, -51.2605, 45.8832
3.972, 2, 35.8884, 48.0644, -14.0086, 97.651, -51.2605, 45.8832
3.976, 2, 35.8884, 48.0644, -14.0086, 97.651, -51.2605, 45.8832
3.98, 2, 35.8884, 48.0644, -14.0086, 97.651, -51.2605, 45.8832
3.984, 2, 35.8884, 48.0644, -14.0086, 97.651, -51.2605, 45.8832
3.988, 2, 35.8884, 48.0644, -14.0086, 97.651, -51.2605, 45.8832
3.992, 2, 35.8884, 48.0644, -14.0086, 97.651, -51.2605, 45.8832
3.996, 2, 35.8884, 48.0644, -14.0086, 97.651, -51.2605, 45.8832
3.999, 2, 35.8884, 48.0644, -14.0086, 97.651, -51.2605, 45.8832
4.004, 2, 35.8884, 48.0644, -14.0086, 97.651, -51.2605, 45.8832
4.008, 2, 35.8884, 48.0644, -14.0086, 97.651, -51.2605, 45.8832
4.012, 2, 35.8884, 48.0644, -14.0086, 97.651, -51.2605, 45.8832
4.016, 2, 35.8884, 48.0644, -14.0086, 97.651, -51.2605, 45.8832
4.02, 2, 35.8884, 48.0644, -14.0086, 97.651, -51.2605, 45.8832
4.024, 2, 35.8884, 48.0644, -14.0086, 97.651, -51.2605, 45.8832
4.028, 2, 35.8884, 48.0644, -14.0086, 97.651, -51.2605, 45.8832
4.032, 2, 35.8884, 48.0644, -14.0086, 97.651, -51.2605, 45.8832
4.036, 2, 35.8884, 48.0644, -14.0086, 97.651, -51.2605, 45.8832
4.04, 2, 35.8884, 48.0644, -14.0086, 97.651, -51.2605, 45.8832
4.044, 2, 35.8884, 48.0644, -14.0086, 97.651, -51.2605, 45.8832
4.048, 2, 35.8884, 48.0644, -14.0086, 97.651, -51.2605, 45.8832
4.052, 2, 35.8884, 48.0644, -14.0086, 97.651, -51.2605, 45.8832
4.056, 2, 35.8884, 48.0644, -14.0086, 97.651, -51.2605, 45.8832
4.06, 2, 35.8884, 48.0644, -14.0086, 97.651, -51.2605, 45.8832
4.064, 2, 35.8884, 48.0644, -14.0086, 97.651, -51.2605, 45.8832
4.068, 2, 35.8884, 48.0644, -14.0086, 97.651, -51.2605, 45.8832
4.072, 2, 35.8884, 48.0644, -14.0086, 97.651, -51.2605, 45.8832
4.076, 2, 35.8884, 48.0644, -14.0086, 97.651, -51.2605, 45.8832
4.08, 2, 35.8884, 48.0644, -14.0086, 97.651, -51.2605, 45.8832
4.084, 2, 35.8884, 48.0644, -14.0086, 97.651, -51.2605, 45.8832
4.088, 2, 35.8884, 48.0644, -14.0086, 97.651, -51.2605, 45.8832
4.092, 2, 35.8884, 48.0644, -14.0086, 97.651, -51.2605, 45.8832
4.096, 2, 35.8884, 48.0644, -14.0086, 97.651, -51.2605, 45.8832
4.1, 2, 35.8884, 48.0644, -14.0086, 97.651, -51.2605, 45.8832
4.104, 2, 35.8884, 48.0644, -14.0086, 97.651, -51.2605, 45.8832
4.108, 2, 35.8884, 48.0644, -14.0086, 97.651, -51.2605, 45.8832
4.112, 2, 35.8884, 48.0644, -14.0086, 97.651, -51.2605, 45.8832
4.116, 2, 35.8884, 48.0644, -14.0086, 97.651, -51.2605, 45.8832
4.12, 2, 35.8884, 48.0644, -14.0086, 97.651, -51.2605, 45.8832
4.124, 2, 35.8884, 48.0644, -14.0086, 97.651, -51.2605, 45.8832
4.128, 2, 35.8884, 48.0644, -14.0086, 97.651, -51.2605, 45.8832
4.132, 2, 35.8884, 48.0644, -14.0086, 97.651, -51.2605, 45.8832
4.136, 2, 35.8884, 48.0644, -14.0086, 97.651, -51.2605, 45.8832
4.14, 2, 35.8884, 48.0644, -14.0086, 97.651, -51.2605, 45.8832
4.144, 2, 35.8884, 48.0644, -14.0086, 97.651, -51.2605, 45.8832
4.148, 2, 35.8884, 48.0644, -14.0086, 97.651, -51.2605, 45.8832
4.152, 2, 35.8884, 48.0644, -14.0086, 97.651, -51.2605, 45.8832
4.156, 2, 35.8884, 48.0644, -14.0086, 97.651, -51.2605, 45.8832
4.16, 2, 35.8884, 48.0644, -14.0086, 97.651, -51.2605, 45.8832
4.164, 2, 35.8884, 48.0644, -14.0086, 97.651, -51.2605, 45.8832
4.168, 2, 35.8884, 48.0644, -14.0086, 97.651, -51.2605, 45.8832
4.172, 2, 35.8884, 48.0644, -14.0086, 97.651, -51.2605, 45.8832
4.176, 2, 35.8884, 48.0644, -14.0086, 97.651, -51.2605, 45.8832
4.18, 2, 35.8884, 48.0644, -14.0086, 97.651, -51.2605, 45.8832
4.184, 2, 35.8884, 48.0644, -14.0086, 97.651, -51.2605, 45.8832
4.188, 2, 35.8884, 48.0644, -14.0086, 97.651, -51.2605, 45.8832
4.192, 2, 35.8884, 48.0644, -14.0086, 97.651, -51.2605, 45.8832
4.196, 2, 35.8884, 48.0644, -14.0086, 97.651, -51.2605, 45.8832
4.2, 2, 35.8884, 48.0644, -14.0086, 97.651, -51.2605, 45.8832
4.204, 2, 35.8884, 48.0644, -14.0086, 97.651, -51.2605, 45.8832
4.208, 2, 35.8884, 48.0644, -14.0086, 97.651, -51.2605, 45.8832
4.212, 2, 35.8884, 48.0644, -14.0086, 97.651, -51.2605, 45.8832
4.216, 2, 35.8884, 48.0644, -14.0086, 97.651, -51.2605, 45.8832
4.22, 2, 35.8884, 48.0644, -14.0086, 97.651, -51.2605, 45.8832
4.224, 2, 35.8884, 48.0644, -14.0086, 97.651, -51.2605, 45.8832
4.228, 2, 35.8884, 48.0644, -14.0086, 97.651, -51.2605, 45.8832
4.232, 2, 35.8884, 48.0644, -14.0086, 97.651, -51.2605, 45.8832
4.236, 2, 35.8884, 48.0644, -14.0086, 97.651, -51.2605, 45.8832
4.24, 2, 35.8884, 48.0644, -14.0086, 97.651, -51.2605, 45.8832
4.244, 2, 35.8884, 48.0644, -14.0086, 97.651, -51.2605, 45.8832
4.248, 2, 35.8884, 48.0644, -14.0086, 97.651, -51.2605, 45.8832
4.252, 2, 35.8884, 48.0644, -14.0086, 97.651, -51.2605, 45.8832
4.256, 2, 35.8884, 48.0644, -14.0086, 97.651, -51.2605, 45.8832
4.26, 2, 35.8884, 48.0644, -14.0086, 97.651, -51.2605, 45.8832
4.264, 2, 35.8884, 48.0644, -14.0086, 97.651, -51.2605, 45.8832
4.268, 2, 35.8884, 48.0644, -14.0086, 97.651, -51.2605, 45.8832
4.272, 2, 35.8884, 48.0644, -14.0086, 97.651, -51.2605, 45.8832
4.276, 2, 35.8884, 48.0644, -14.0086, 97.651, -51.2605, 45.8832
4.28, 2, 35.8884, 48.0644, -14.0086, 97.651, -51.2605, 45.8832
4.284, 2, 35.8884, 48.0644, -14.0086, 97.651, -51.2605, 45.8832
4.288, 2, 35.8884, 48.0644, -14.0086, 97.651, -51.2605, 45.8832
4.292, 2, 35.8884, 48.0644, -14.0086, 97.651, -51.2605, 45.8832
4.296, 2, 35.8884, 48.0644, -14.0086, 97.651, -51.2605, 45.8832
4.3, 2, 35.8884, 48.0644, -14.0086, 97.651, -51.2605, 45.8832
4.304, 2, 35.8884, 48.0644, -14.0086, 97.651, -51.2605, 45.8832
4.308, 2, 35.8884, 48.0644, -14.0086, 97.651, -51.2605, 45.8832
4.312, 2, 35.8884, 48.0644, -14.0086, 97.651, -51.2605, 45.8832
4.316, 2, 35.8884, 48.0644, -14.0086, 97.651, -51.2605, 45.8832
4.32, 2, 35.8884, 48.0644, -14.0086, 97.651, -51.2605, 45.8832
4.324, 2, 35.8884, 48.0644, -14.0086, 97.651, -51.2605, 45.8832
4.328, 2, 35.8884, 48.0644, -14.0086, 97.651, -51.2605, 45.8832
4.332, 2, 35.8884, 48.0644, -14.0086, 97.651, -51.2605, 45.8832
4.336, 2, 35.8884, 48.0644, -14.0086, 97.651, -51.2605, 45.8832
4.34, 2, 35.8884, 48.0644, -14.0086, 97.651, -51.2605, 45.8832
4.344, 2, 35.8884, 48.0644, -14.0086, 97.651, -51.2605, 45.8832
4.348, 2, 35.8884, 48.0644, -14.0086, 97.651, -51.2605, 45.8832
4.352, 2, 35.8884, 48.0644, -14.0086, 97.651, -51.2605, 45.8832
4.356, 2, 35.8884, 48.0644, -14.0086, 97.651, -51.2605, 45.8832
4.36, 2, 35.8884, 48.0644, -14.0086, 97.651, -51.2605, 45.8832
4.364, 2, 35.8884, 48.0644, -14.0086, 97.651, -51.2605, 45.8832
4.368, 2, 35.8884, 48.0644, -14.0086, 97.651, -51.2605, 45.8832
4.372, 2, 35.8884, 48.0644, -14.0086, 97.651, -51.2605, 45.8832
4.376, 2, 35.8884, 48.0644, -14.0086, 97.651, -51.2605, 45.8832
4.38, 2, 35.8884, 48.0644, -14.0086, 97.651, -51.2605, 45.8832
4.384, 2, 35.8884, 48.0644, -14.0086, 97.651, -51.2605, 45.8832
4.388, 2, 35.8884, 48.0644, -14.0086, 97.651, -51.2605, 45.8832
4.392, 2, 35.8884, 48.0644, -14.0086, 97.651, -51.2605, 45.8832
4.396, 3, 35.8884, 48.0644, -14.0086, 97.651, -51.2605, 45.8832
4.4, 3, 35.8884, 48.0644, -14.0086, 97.651, -51.2605, 45.8832
4.404, 3, 35.8884, 48.0644, -14.0086, 97.651, -51.2605, 45.8832
4.408, 3, 35.8884, 48.0644, -14.0086, 97.651, -51.2605, 45.8832
4.412, 3, 35.8884, 48.0644, -14.0086, 97.651, -51.2605, 45.8832
4.416, 3, 35.8884, 48.0644, -14.0086, 97.651, -51.2605, 45.8832
4.42, 3, 35.8884, 48.0644, -14.0086, 97.651, -51.2605, 45.8832
4.424, 3, 35.8884, 48.0644, -14.0086, 97.651, -51.2605, 45.8832
4.428, 3, 35.8884, 48.0644, -14.0086, 97.651, -51.2605, 45.8832
4.432, 4, 35.8884, 48.0644, -14.0086, 97.651, -51.2605, 45.8832
4.436, 4, 35.8884, 48.0644, -14.0086, 97.651, -51.2605, 45.8832
4.44, 4, 35.8884, 48.0644, -14.0086, 97.651, -51.2605, 45.8832
4.444, 4, 35.8884, 48.0644, -14.0086, 97.651, -51.2605, 45.8832
4.448, 4, 35.8884, 48.0644, -14.0086, 97.651, -51.2605, 45.8832
4.452, 4, 35.8884, 48.0644, -14.0086, 97.651, -51.2605, 45.8832
4.456, 4, 35.8884, 48.0644, -14.0086, 97.651, -51.2605, 45.8832
4.46, 4, 35.8884, 48.0644, -14.0086, 97.651, -51.2605, 45.8832
4.464, 4, 35.8884, 48.0644, -14.0086, 97.651, -51.2605, 45.8832
4.468, 4, 35.8884, 48.0644, -14.0086, 97.651, -51.2605, 45.8832
4.472, 4, 35.8884, 48.0644, -14.0086, 97.651, -51.2605, 45.8832
4.476, 4, 35.8884, 48.0644, -14.0086, 97.651, -51.2605, 45.8832
4.48, 4, 35.8884, 48.0644, -14.0086, 97.651, -51.2605, 45.8832
4.484, 4, 35.8884, 48.0644, -14.0086, 97.651, -51.2605, 45.8832
4.488, 4, 35.8884, 48.0644, -14.0086, 97.651, -51.2605, 45.8832
4.492, 4, 35.8884, 48.0644, -14.0086, 97.651, -51.2605, 45.8832
4.496, 4, 35.8884, 48.0644, -14.0086, 97.651, -51.2605, 45.8832
4.5, 4, 35.8884, 48.0644, -14.0086, 97.651, -51.2605, 45.8832
4.504, 4, 35.8884, 48.0644, -14.0086, 97.651, -51.2605, 45.8832
4.508, 4, 35.8884, 48.0644, -14.0086, 97.651, -51.2605, 45.8832
4.512, 4, 35.8884, 48.0644, -14.0086, 97.651, -51.2605, 45.8832
4.516, 4, 35.8884, 48.0644, -14.0086, 97.651, -51.2605, 45.8832
4.52, 4, 35.8884, 48.0644, -14.0086, 97.651, -51.2605, 45.8832
4.524, 4, 35.8884, 48.0644, -14.0086, 97.651, -51.2605, 45.8832
4.528, 4, 35.8884, 48.0644, -14.0086, 97.651, -51.2605, 45.8832
4.532, 5, 35.8884, 48.0644, -14.0086, 97.651, -51.2605, 45.8832
4.536, 6, 35.8884, 48.0644, -14.0086, 97.651, -51.2605, 45.8832
4.54, 6, 35.8884, 48.0644, -14.0086, 97.651, -51.2605, 45.8832
4.544, 6, 35.8884, 48.0644, -14.0086, 97.651, -51.2605, 45.8832
4.548, 6, 35.8884, 48.0644, -14.0086, 97.651, -51.2605, 45.8832
4.552, 6, 35.8884, 48.0644, -14.0086, 97.651, -51.2605, 45.8832
4.556, 6, 35.8884, 48.0644, -14.0086, 97.651, -51.2605, 45.8832
4.56, 6, 35.8884, 48.0644, -14.0086, 97.651, -51.2605, 45.8832
4.564, 6, 35.8884, 48.0644, -14.0086, 97.651, -51.2605, 45.8832
4.568, 6, 35.8884, 48.0645, -14.0086, 97.651, -51.2605, 45.8832
4.572, 6, 35.8884, 48.0646, -14.0086, 97.651, -51.2605, 45.8832
4.576, 6, 35.8884, 48.065, -14.0086, 97.651, -51.2605, 45.8832
4.58, 6, 35.8884, 48.0657, -14.0086, 97.651, -51.2606, 45.8831
4.584, 6, 35.8884, 48.067, -14.0087, 97.651, -51.261, 45.883
4.588, 6, 35.8885, 48.0688, -14.0088, 97.6509, -51.2617, 45.8828
4.592, 6, 35.8885, 48.0714, -14.009, 97.6509, -51.263, 45.8823
4.596, 6, 35.8885, 48.0749, -14.0093, 97.6507, -51.2652, 45.8816
4.6, 6, 35.8885, 48.0793, -14.0098, 97.6504, -51.2688, 45.8803
4.604, 6, 35.8886, 48.0849, -14.0106, 97.65, -51.2744, 45.8784
4.608, 6, 35.8886, 48.0919, -14.0117, 97.6493, -51.2825, 45.8757
4.612, 6, 35.8886, 48.1006, -14.0132, 97.6484, -51.2938, 45.8718
4.616, 6, 35.8886, 48.1111, -14.0153, 97.6472, -51.3093, 45.8666
4.62, 6, 35.8886, 48.1237, -14.0181, 97.6455, -51.3297, 45.8597
4.624, 6, 35.8885, 48.1383, -14.0217, 97.6433, -51.3562, 45.8508
4.628, 6, 35.8885, 48.1551, -14.0262, 97.6405, -51.3896, 45.8395
4.632, 6, 35.8884, 48.174, -14.0317, 97.637, -51.431, 45.8255
4.636, 6, 35.8883, 48.1952, -14.0384, 97.6327, -51.4813, 45.8086
4.64, 6, 35.8882, 48.2187, -14.0464, 97.6275, -51.5411, 45.7885
4.644, 6, 35.8881, 48.2447, -14.0556, 97.6214, -51.6113, 45.765
4.648, 6, 35.888, 48.2732, -14.0662, 97.6141, -51.6922, 45.7379
4.652, 6, 35.8879, 48.3042, -14.0782, 97.6058, -51.7841, 45.7072
4.656, 6, 35.8878, 48.3375, -14.0916, 97.5963, -51.8873, 45.6728
4.66, 6, 35.8877, 48.3732, -14.1062, 97.5855, -52.0015, 45.6348
4.664, 6, 35.8876, 48.4112, -14.1222, 97.5736, -52.1265, 45.5933
4.668, 6, 35.8875, 48.4513, -14.1393, 97.5604, -52.2617, 45.5485
4.672, 6, 35.8876, 48.4937, -14.1575, 97.5461, -52.4065, 45.5007
4.676, 6, 35.8876, 48.5385, -14.1766, 97.5306, -52.5599, 45.4502
4.68, 6, 35.8878, 48.5855, -14.1965, 97.514, -52.721, 45.3972
4.684, 6, 35.888, 48.6346, -14.217, 97.4964, -52.8889, 45.3421
4.688, 6, 35.8882, 48.6857, -14.238, 97.4777, -53.0625, 45.2854
4.692, 6, 35.8884, 48.7386, -14.2594, 97.4582, -53.241, 45.2272
4.696, 6, 35.8885, 48.7931, -14.281, 97.4378, -53.4234, 45.1679
4.7, 6, 35.8886, 48.849, -14.3027, 97.4166, -53.6088, 45.1078
4.704, 6, 35.8885, 48.9062, -14.3244, 97.3947, -53.7966, 45.0471
4.708, 6, 35.8883, 48.9646, -14.346, 97.3721, -53.986, 44.9861
4.712, 6, 35.888, 49.0239, -14.3675, 97.3489, -54.1766, 44.9249
4.716, 6, 35.8875, 49.0841, -14.3887, 97.3251, -54.368, 44.8636
4.72, 6, 35.8868, 49.1449, -14.4097, 97.3007, -54.5599, 44.8024
4.724, 6, 35.886, 49.2062, -14.4304, 97.2758, -54.7521, 44.7413
4.728, 6, 35.885, 49.2676, -14.4508, 97.2504, -54.9443, 44.6803
4.732, 6, 35.8839, 49.3292, -14.4709, 97.2244, -55.1365, 44.6195
4.736, 6, 35.8826, 49.3908, -14.4906, 97.198, -55.3287, 44.559
4.74, 6, 35.8811, 49.4524, -14.51, 97.1711, -55.5208, 44.4986
4.744, 6, 35.8795, 49.5139, -14.529, 97.1436, -55.7128, 44.4385
4.748, 6, 35.8778, 49.5753, -14.5476, 97.1157, -55.9046, 44.3786
4.752, 6, 35.8759, 49.6365, -14.566, 97.0873, -56.0962, 44.3189
4.756, 6, 35.8738, 49.6977, -14.5839, 97.0584, -56.2877, 44.2595
4.76, 6, 35.8716, 49.7586, -14.6015, 97.0291, -56.479, 44.2003
4.764, 6, 35.8693, 49.8195, -14.6187, 96.9993, -56.67, 44.1413
4.768, 6, 35.8668, 49.8801, -14.6356, 96.969, -56.8609, 44.0825
4.772, 6, 35.8642, 49.9406, -14.652, 96.9383, -57.0516, 44.024
4.776, 6, 35.8614, 50.001, -14.6681, 96.9071, -57.2421, 43.9656
4.78, 6, 35.8584, 50.0611, -14.6839, 96.8754, -57.4324, 43.9075
4.784, 6, 35.8553, 50.1211, -14.6992, 96.8433, -57.6225, 43.8496
4.788, 6, 35.8521, 50.1809, -14.7142, 96.8108, -57.8125, 43.7919
4.792, 6, 35.8487, 50.2406, -14.7288, 96.7778, -58.0022, 43.7344
4.796, 6, 35.8452, 50.3, -14.7431, 96.7444, -58.1917, 43.6771
4.8, 7, 35.8415, 50.3593, -14.7569, 96.7105, -58.381, 43.62
4.804, 7, 35.8377, 50.4184, -14.7704, 96.6762, -58.5701, 43.5631
4.808, 7, 35.8337, 50.4773, -14.7835, 96.6414, -58.7591, 43.5064
4.812, 7, 35.8296, 50.5361, -14.7962, 96.6063, -58.9478, 43.4499
4.816, 7, 35.8253, 50.5946, -14.8085, 96.5707, -59.1363, 43.3936
4.82, 7, 35.8209, 50.653, -14.8204, 96.5347, -59.3246, 43.3374
4.824, 7, 35.8164, 50.7112, -14.8319, 96.4983, -59.5128, 43.2814
4.828, 7, 35.8117, 50.7692, -14.8431, 96.4614, -59.7007, 43.2256
4.832, 7, 35.8068, 50.827, -14.8538, 96.4241, -59.8884, 43.17
4.836, 7, 35.8018, 50.8846, -14.8642, 96.3865, -60.076, 43.1146
4.84, 7, 35.7967, 50.942, -14.8742, 96.3484, -60.2633, 43.0593
4.844, 7, 35.7914, 50.9992, -14.8837, 96.3099, -60.4504, 43.0042
4.848, 7, 35.786, 51.0562, -14.8929, 96.271, -60.6374, 42.9492
4.852, 7, 35.7804, 51.113, -14.9017, 96.2317, -60.8241, 42.8945
4.856, 7, 35.7747, 51.1696, -14.91, 96.192, -61.0107, 42.8398
4.86, 7, 35.7688, 51.2261, -14.918, 96.1519, -61.197, 42.7853
4.864, 7, 35.7628, 51.2823, -14.9256, 96.1115, -61.3832, 42.731
4.868, 7, 35.7566, 51.3383, -14.9327, 96.0706, -61.5691, 42.6768
4.872, 7, 35.7503, 51.3941, -14.9395, 96.0293, -61.7549, 42.6228
4.876, 7, 35.7438, 51.4497, -14.9458, 95.9877, -61.9404, 42.5689
4.88, 7, 35.7372, 51.5051, -14.9518, 95.9457, -62.1258, 42.5152
4.884, 7, 35.7305, 51.5603, -14.9573, 95.9033, -62.3109, 42.4616
4.888, 7, 35.7236, 51.6153, -14.9624, 95.8605, -62.4959, 42.4081
4.892, 7, 35.7166, 51.67, -14.9671, 95.8173, -62.6807, 42.3548
4.896, 7, 35.7094, 51.7246, -14.9714, 95.7738, -62.8652, 42.3015
4.9, 7, 35.7021, 51.7789, -14.9753, 95.7299, -63.0496, 42.2485
4.904, 7, 35.6946, 51.833, -14.9787, 95.6856, -63.2338, 42.1955
4.908, 7, 35.687, 51.887, -14.9818, 95.641, -63.4178, 42.1427
4.912, 7, 35.6793, 51.9406, -14.9844, 95.596, -63.6016, 42.09
4.916, 7, 35.6714, 51.9941, -14.9866, 95.5507, -63.7851, 42.0374
4.92, 7, 35.6633, 52.0474, -14.9884, 95.5049, -63.9686, 41.9849
4.924, 7, 35.6552, 52.1004, -14.9897, 95.4588, -64.1518, 41.9326
4.928, 7, 35.6468, 52.1532, -14.9907, 95.4124, -64.3348, 41.8803
4.932, 7, 35.6384, 52.2058, -14.9912, 95.3656, -64.5176, 41.8282
4.936, 7, 35.6297, 52.2582, -14.9913, 95.3185, -64.7002, 41.7762
4.94, 7, 35.621, 52.3103, -14.9909, 95.271, -64.8827, 41.7243
4.944, 7, 35.6121, 52.3622, -14.9902, 95.2231, -65.0649, 41.6724
4.948, 7, 35.6031, 52.4139, -14.989, 95.1749, -65.247, 41.6207
4.952, 7, 35.5939, 52.4654, -14.9874, 95.1264, -65.4289, 41.5691
4.956, 7, 35.5846, 52.5166, -14.9853, 95.0775, -65.6106, 41.5176
4.96, 7, 35.5751, 52.5676, -14.9829, 95.0283, -65.7921, 41.4662
4.964, 7, 35.5655, 52.6183, -14.98, 94.9787, -65.9734, 41.4149
4.968, 7, 35.5557, 52.6689, -14.9766, 94.9288, -66.1545, 41.3637
4.972, 7, 35.5458, 52.7192, -14.9729, 94.8786, -66.3354, 41.3125
4.976, 7, 35.5358, 52.7692, -14.9687, 94.828, -66.5161, 41.2615
4.98, 7, 35.5256, 52.819, -14.964, 94.7771, -66.6967, 41.2105
4.984, 7, 35.5153, 52.8686, -14.959, 94.7259, -66.877, 41.1596
4.988, 7, 35.5049, 52.918, -14.9535, 94.6743, -67.0572, 41.1088
4.992, 7, 35.4943, 52.9671, -14.9476, 94.6224, -67.2372, 41.0581
4.996, 7, 35.4835, 53.0159, -14.9412, 94.5702, -67.417, 41.0075
5, 7, 35.4726, 53.0646, -14.9344, 94.5177, -67.5966, 40.9569
5.004, 7, 35.4616, 53.1129, -14.9271, 94.4648, -67.776, 40.9064
5.008, 7, 35.4505, 53.1611, -14.9194, 94.4117, -67.9552, 40.856
5.012, 7, 35.4392, 53.2089, -14.9113, 94.3582, -68.1343, 40.8057
5.016, 7, 35.4277, 53.2564, -14.9027, 94.3044, -68.3131, 40.7554
5.02, 7, 35.4161, 53.3036, -14.8937, 94.2502, -68.4918, 40.7052
5.024, 7, 35.4043, 53.3501, -14.8841, 94.1958, -68.6702, 40.6551
5.028, 7, 35.3922, 53.3961, -14.874, 94.141, -68.8483, 40.6052
5.032, 7, 35.3799, 53.4411, -14.8632, 94.0859, -69.026, 40.5555
5.036, 7, 35.3672, 53.4852, -14.8517, 94.0304, -69.2032, 40.5061
5.04, 7, 35.3542, 53.5282, -14.8394, 93.9745, -69.3796, 40.4573
5.044, 7, 35.341, 53.5699, -14.8259, 93.9182, -69.555, 40.4092
5.048, 7, 35.3274, 53.6104, -14.8111, 93.8613, -69.7292, 40.362
5.052, 7, 35.3134, 53.6495, -14.7949, 93.8038, -69.9017, 40.3161
5.056, 7, 35.2992, 53.6873, -14.7768, 93.7457, -70.0721, 40.2718
5.06, 7, 35.2846, 53.7238, -14.7566, 93.6869, -70.2402, 40.2293
5.064, 7, 35.2697, 53.7588, -14.734, 93.6272, -70.4054, 40.1892
5.068, 7, 35.2545, 53.7924, -14.7088, 93.5667, -70.5674, 40.1516
5.072, 7, 35.2389, 53.8245, -14.6806, 93.5052, -70.7257, 40.117
5.076, 7, 35.223, 53.8549, -14.6494, 93.4427, -70.8802, 40.0854
5.08, 7, 35.2068, 53.8838, -14.6149, 93.3791, -71.0306, 40.0573
5.084, 7, 35.1903, 53.911, -14.5771, 93.3145, -71.1768, 40.0326
5.088, 7, 35.1735, 53.9365, -14.536, 93.2488, -71.3188, 40.0113
5.092, 7, 35.1565, 53.9605, -14.4915, 93.1821, -71.4566, 39.9934
5.096, 7, 35.1391, 53.9829, -14.444, 93.1145, -71.5906, 39.9788
5.1, 7, 35.1214, 54.0038, -14.3934, 93.0459, -71.7209, 39.9671
5.104, 7, 35.1035, 54.0233, -14.3401, 92.9765, -71.8479, 39.9582
5.108, 7, 35.0852, 54.0413, -14.2844, 92.9064, -71.9719, 39.9517
5.112, 8, 35.0666, 54.0579, -14.2265, 92.8357, -72.0935, 39.9472
5.116, 8, 35.0477, 54.0732, -14.1667, 92.7644, -72.2129, 39.9444
5.12, 8, 35.0286, 54.087, -14.1053, 92.6927, -72.3306, 39.9431
5.124, 8, 35.0092, 54.0995, -14.0426, 92.6207, -72.4469, 39.9428
5.128, 8, 34.9894, 54.1107, -13.9788, 92.5483, -72.5622, 39.9433
5.132, 8, 34.9694, 54.1208, -13.9141, 92.4758, -72.6766, 39.9444
5.136, 8, 34.9491, 54.1299, -13.8487, 92.4031, -72.7906, 39.9459
5.14, 8, 34.9285, 54.1382, -13.7828, 92.3303, -72.9041, 39.9476
5.144, 8, 34.9077, 54.1459, -13.7163, 92.2574, -73.0173, 39.9495
5.148, 8, 34.8867, 54.1531, -13.6495, 92.1844, -73.1303, 39.9514
5.152, 8, 34.8655, 54.1599, -13.5824, 92.1115, -73.2432, 39.9533
5.156, 8, 34.8443, 54.1664, -13.515, 92.0384, -73.3559, 39.9552
5.16, 8, 34.8229, 54.1726, -13.4473, 91.9653, -73.4686, 39.9571
5.164, 8, 34.8014, 54.1786, -13.3793, 91.8922, -73.5812, 39.9589
5.168, 8, 34.7798, 54.1843, -13.3111, 91.8191, -73.6938, 39.9606
5.172, 8, 34.7581, 54.1899, -13.2427, 91.746, -73.8063, 39.9622
5.176, 8, 34.7364, 54.1952, -13.1741, 91.6728, -73.9188, 39.9638
5.18, 8, 34.7145, 54.2004, -13.1052, 91.5996, -74.0312, 39.9652
5.184, 8, 34.6926, 54.2054, -13.0362, 91.5264, -74.1436, 39.9666
5.188, 8, 34.6706, 54.2103, -12.9669, 91.4532, -74.256, 39.9678
5.192, 8, 34.6485, 54.215, -12.8974, 91.38, -74.3684, 39.969
5.196, 8, 34.6264, 54.2195, -12.8277, 91.3067, -74.4807, 39.97
5.2, 8, 34.6041, 54.2238, -12.7578, 91.2334, -74.593, 39.971
5.204, 8, 34.5818, 54.228, -12.6877, 91.1601, -74.7053, 39.9718
5.208, 8, 34.5594, 54.232, -12.6174, 91.0868, -74.8175, 39.9726
5.212, 8, 34.537, 54.2358, -12.5469, 91.0135, -74.9297, 39.9732
5.216, 8, 34.5144, 54.2395, -12.4762, 90.9401, -75.0419, 39.9737
5.22, 8, 34.4918, 54.243, -12.4053, 90.8667, -75.1541, 39.9742
5.224, 8, 34.4691, 54.2463, -12.3341, 90.7933, -75.2663, 39.9745
5.228, 8, 34.4463, 54.2495, -12.2628, 90.7199, -75.3784, 39.9747
5.232, 8, 34.4234, 54.2525, -12.1913, 90.6465, -75.4905, 39.9748
5.236, 8, 34.4005, 54.2554, -12.1195, 90.573, -75.6026, 39.9748
5.24, 8, 34.3774, 54.258, -12.0476, 90.4996, -75.7146, 39.9747
5.244, 8, 34.3543, 54.2606, -11.9755, 90.4261, -75.8267, 39.9745
5.248, 8, 34.3312, 54.2629, -11.9031, 90.3525, -75.9387, 39.9742
5.252, 8, 34.3079, 54.2651, -11.8306, 90.279, -76.0506, 39.9738
5.256, 8, 34.2846, 54.2671, -11.7579, 90.2054, -76.1626, 39.9732
5.26, 8, 34.2611, 54.269, -11.6849, 90.1319, -76.2745, 39.9726
5.264, 8, 34.2377, 54.2706, -11.6118, 90.0582, -76.3864, 39.9718
5.268, 8, 34.2141, 54.2722, -11.5385, 89.9846, -76.4983, 39.9709
5.272, 8, 34.1904, 54.2735, -11.4649, 89.911, -76.6102, 39.97
5.276, 8, 34.1667, 54.2747, -11.3912, 89.8373, -76.722, 39.9688
5.28, 8, 34.1429, 54.2757, -11.3173, 89.7636, -76.8339, 39.9676
5.284, 8, 34.119, 54.2766, -11.2432, 89.6899, -76.9456, 39.9663
5.288, 8, 34.0951, 54.2772, -11.1689, 89.6161, -77.0574, 39.9649
5.292, 8, 34.071, 54.2778, -11.0944, 89.5424, -77.1692, 39.9633
5.296, 8, 34.0469, 54.2781, -11.0197, 89.4686, -77.2809, 39.9616
5.3, 8, 34.0227, 54.2783, -10.9448, 89.3948, -77.3926, 39.9598
5.304, 8, 33.9985, 54.2783, -10.8697, 89.3209, -77.5043, 39.9579
5.308, 8, 33.9741, 54.2782, -10.7944, 89.2471, -77.616, 39.9559
5.312, 8, 33.9497, 54.2778, -10.719, 89.1732, -77.7276, 39.9538
5.316, 8, 33.9252, 54.2774, -10.6433, 89.0993, -77.8392, 39.9515
5.32, 8, 33.9006, 54.2767, -10.5675, 89.0254, -77.9508, 39.9491
5.324, 8, 33.876, 54.2759, -10.4914, 88.9514, -78.0624, 39.9466
5.328, 8, 33.8512, 54.2749, -10.4152, 88.8774, -78.174, 39.944
5.332, 8, 33.8264, 54.2737, -10.3388, 88.8034, -78.2855, 39.9413
5.336, 8, 33.8015, 54.2724, -10.2622, 88.7294, -78.397, 39.9384
5.34, 8, 33.7765, 54.2708, -10.1854, 88.6553, -78.5085, 39.9354
5.344, 8, 33.7514, 54.2688, -10.1083, 88.5812, -78.6199, 39.9324
5.348, 8, 33.7261, 54.2664, -10.031, 88.5071, -78.7313, 39.9293
5.352, 8, 33.7007, 54.2635, -9.95337, 88.4329, -78.8425, 39.9262
5.356, 8, 33.675, 54.2599, -9.87534, 88.3587, -78.9536, 39.9234
5.36, 8, 33.6492, 54.2555, -9.7968, 88.2843, -79.0642, 39.9209
5.364, 8, 33.6232, 54.2501, -9.71763, 88.2099, -79.1744, 39.9191
5.368, 8, 33.597, 54.2438, -9.63766, 88.1352, -79.2837, 39.9182
5.372, 8, 33.5706, 54.2363, -9.55672, 88.0604, -79.3921, 39.9186
5.376, 9, 33.5441, 54.2277, -9.47462, 87.9853, -79.4992, 39.9208
5.38, 9, 33.5175, 54.218, -9.39115, 87.9099, -79.6047, 39.9252
5.384, 9, 33.4906, 54.2072, -9.30612, 87.8341, -79.7083, 39.9322
5.388, 9, 33.4636, 54.1951, -9.21933, 87.758, -79.8096, 39.9422
5.392, 9, 33.4364, 54.1819, -9.1306, 87.6814, -79.9084, 39.9558
5.396, 9, 33.409, 54.1675, -9.03977, 87.6044, -80.0043, 39.9733
5.4, 9, 33.3814, 54.1518, -8.94672, 87.527, -80.0971, 39.9951
5.404, 9, 33.3536, 54.1349, -8.85136, 87.449, -80.1866, 40.0214
5.408, 9, 33.3256, 54.1169, -8.75366, 87.3706, -80.2726, 40.0525
5.412, 9, 33.2973, 54.0976, -8.65361, 87.2916, -80.3552, 40.0883
5.416, 9, 33.2689, 54.0773, -8.55128, 87.2123, -80.4344, 40.1287
5.42, 9, 33.2402, 54.0557, -8.44675, 87.1324, -80.5103, 40.1737
5.424, 9, 33.2113, 54.0331, -8.34016, 87.0522, -80.5832, 40.2228
5.428, 9, 33.1822, 54.0092, -8.23167, 86.9716, -80.6533, 40.2759
5.432, 9, 33.1529, 53.9842, -8.12147, 86.8907, -80.7208, 40.3324
5.436, 9, 33.1233, 53.9581, -8.00976, 86.8095, -80.7862, 40.3921
5.44, 9, 33.0936, 53.9308, -7.89676, 86.7281, -80.8497, 40.4543
5.444, 9, 33.0638, 53.9024, -7.78266, 86.6464, -80.9116, 40.5188
5.448, 9, 33.0338, 53.873, -7.66767, 86.5646, -80.9723, 40.585
5.452, 9, 33.0037, 53.8426, -7.55196, 86.4826, -81.032, 40.6526
5.456, 9, 32.9735, 53.8114, -7.43572, 86.4006, -81.0911, 40.7212
5.46, 9, 32.9431, 53.7795, -7.31908, 86.3185, -81.1497, 40.7906
5.464, 9, 32.9125, 53.7469, -7.20218, 86.2363, -81.208, 40.8604
5.468, 9, 32.8818, 53.714, -7.08511, 86.1542, -81.2661, 40.9305
5.472, 9, 32.8508, 53.6806, -6.96797, 86.0721, -81.3241, 41.0007
5.476, 9, 32.8198, 53.6471, -6.85081, 85.99, -81.3821, 41.071
5.48, 9, 32.7886, 53.6134, -6.73368, 85.9079, -81.4402, 41.1412
5.484, 9, 32.7572, 53.5796, -6.6166, 85.8259, -81.4983, 41.2114
5.488, 9, 32.7258, 53.5458, -6.49961, 85.7439, -81.5564, 41.2814
5.492, 9, 32.6943, 53.5119, -6.38271, 85.662, -81.6146, 41.3514
5.496, 10, 32.6627, 53.4781, -6.26591, 85.5801, -81.673, 41.4212
5.5, 10, 32.6311, 53.4442, -6.14921, 85.4983, -81.7314, 41.4908
5.504, 10, 32.5994, 53.4103, -6.03263, 85.4165, -81.7899, 41.5603
5.508, 10, 32.5676, 53.3765, -5.91617, 85.3348, -81.8486, 41.6297
5.512, 10, 32.5357, 53.3427, -5.79982, 85.2531, -81.9073, 41.6988
5.516, 10, 32.5038, 53.3089, -5.68358, 85.1715, -81.9662, 41.7678
5.52, 10, 32.4718, 53.2751, -5.56747, 85.09, -82.0251, 41.8367
5.524, 10, 32.4397, 53.2413, -5.45147, 85.0085, -82.0842, 41.9054
5.528, 10, 32.4076, 53.2076, -5.33559, 84.927, -82.1434, 41.9739
5.532, 10, 32.3753, 53.1739, -5.21982, 84.8456, -82.2026, 42.0422
5.536, 10, 32.3431, 53.1402, -5.10418, 84.7642, -82.262, 42.1104
5.54, 10, 32.3107, 53.1065, -4.98865, 84.6829, -82.3215, 42.1784
5.544, 10, 32.2783, 53.0729, -4.87324, 84.6017, -82.3811, 42.2463
5.548, 10, 32.2459, 53.0393, -4.75794, 84.5205, -82.4408, 42.3139
5.552, 10, 32.2133, 53.0057, -4.64276, 84.4393, -82.5006, 42.3814
5.556, 10, 32.1807, 52.9721, -4.52769, 84.3582, -82.5605, 42.4488
5.56, 10, 32.148, 52.9385, -4.41274, 84.2771, -82.6205, 42.516
5.564, 10, 32.1153, 52.905, -4.29791, 84.1961, -82.6806, 42.583
5.568, 10, 32.0825, 52.8715, -4.18319, 84.1152, -82.7408, 42.6498
5.572, 10, 32.0496, 52.838, -4.06858, 84.0342, -82.8012, 42.7165
5.576, 10, 32.0166, 52.8045, -3.95409, 83.9534, -82.8616, 42.783
5.58, 10, 31.9836, 52.771, -3.83971, 83.8725, -82.9221, 42.8493
5.584, 10, 31.9505, 52.7376, -3.72544, 83.7917, -82.9828, 42.9155
5.588, 10, 31.9174, 52.7042, -3.61129, 83.711, -83.0435, 42.9815
5.592, 10, 31.8841, 52.6708, -3.49725, 83.6303, -83.1043, 43.0473
5.596, 10, 31.8509, 52.6374, -3.38332, 83.5497, -83.1652, 43.113
5.6, 10, 31.8175, 52.604, -3.2695, 83.4691, -83.2263, 43.1785
5.604, 10, 31.7841, 52.5707, -3.15579, 83.3885, -83.2874, 43.2438
5.608, 10, 31.7506, 52.5374, -3.04219, 83.308, -83.3486, 43.309
5.612, 10, 31.717, 52.5041, -2.9287, 83.2275, -83.41, 43.374
5.616, 10, 31.6833, 52.4708, -2.81532, 83.1471, -83.4714, 43.4388
5.62, 10, 31.6496, 52.4375, -2.70205, 83.0667, -83.5329, 43.5035
5.624, 10, 31.6159, 52.4042, -2.5889, 82.9863, -83.5946, 43.568
5.628, 10, 31.582, 52.371, -2.47584, 82.906, -83.6563, 43.6323
5.632, 10, 31.5481, 52.3377, -2.3629, 82.8257, -83.7181, 43.6965
5.636, 10, 31.5141, 52.3045, -2.25007, 82.7455, -83.78, 43.7605
5.64, 10, 31.48, 52.2713, -2.13734, 82.6653, -83.8421, 43.8243
5.644, 10, 31.4459, 52.2381, -2.02472, 82.5851, -83.9042, 43.888
5.648, 10, 31.4117, 52.2049, -1.91221, 82.505, -83.9664, 43.9515
5.652, 10, 31.3775, 52.1717, -1.7998, 82.4249, -84.0287, 44.0148
5.656, 10, 31.3431, 52.1386, -1.6875, 82.3449, -84.0911, 44.078
5.66, 10, 31.3087, 52.1054, -1.57531, 82.2649, -84.1536, 44.141
5.664, 10, 31.2742, 52.0723, -1.46322, 82.1849, -84.2162, 44.2038
5.668, 10, 31.2397, 52.0392, -1.35124, 82.105, -84.2789, 44.2664
5.672, 10, 31.205, 52.0061, -1.23936, 82.0251, -84.3417, 44.3289
5.676, 10, 31.1704, 51.973, -1.12758, 81.9453, -84.4045, 44.3913
5.68, 10, 31.1356, 51.9399, -1.01591, 81.8654, -84.4675, 44.4534
5.684, 10, 31.1007, 51.9068, -0.904341, 81.7856, -84.5305, 44.5154
5.688, 10, 31.0658, 51.8737, -0.792858, 81.7059, -84.5937, 44.5773
5.692, 10, 31.0307, 51.8405, -0.681444, 81.6262, -84.6569, 44.639
5.696, 10, 30.9954, 51.8073, -0.570072, 81.5464, -84.7202, 44.7005
5.7, 10, 30.96, 51.774, -0.458699, 81.4666, -84.7836, 44.7621
5.704, 10, 30.9244, 51.7405, -0.347266, 81.3868, -84.847, 44.8236
5.708, 10, 30.8887, 51.7069, -0.235697, 81.3067, -84.9104, 44.8854
5.712, 10, 30.8527, 51.673, -0.123898, 81.2264, -84.9737, 44.9474
5.716, 10, 30.8166, 51.6389, -0.0117562, 81.1457, -85.0368, 45.0101
5.72, 10, 30.7803, 51.6045, 0.100858, 81.0644, -85.0996, 45.0736
5.724, 10, 30.7439, 51.5697, 0.21409, 80.9824, -85.162, 45.1381
5.728, 10, 30.7073, 51.5344, 0.328095, 80.8994, -85.224, 45.2042
5.732, 10, 30.6704, 51.4988, 0.443038, 80.8153, -85.2853, 45.272
5.736, 10, 30.6334, 51.4626, 0.559079, 80.7298, -85.3458, 45.3419
5.74, 10, 30.5961, 51.4259, 0.676375, 80.6429, -85.4055, 45.4143
5.744, 10, 30.5586, 51.3886, 0.795062, 80.5541, -85.4642, 45.4895
5.748, 10, 30.521, 51.3508, 0.915259, 80.4635, -85.5218, 45.5677
5.752, 10, 30.4831, 51.3124, 1.03705, 80.3708, -85.5783, 45.6492
5.756, 10, 30.445, 51.2735, 1.1605, 80.276, -85.6335, 45.7342
5.761, 11, 30.4068, 51.234, 1.28561, 80.1791, -85.6876, 45.8226
5.764, 11, 30.3683, 51.194, 1.41236, 80.0799, -85.7405, 45.9146
5.768, 11, 30.3296, 51.1534, 1.54071, 79.9787, -85.7923, 46.0099
5.772, 11, 30.2907, 51.1122, 1.67055, 79.8755, -85.8431, 46.1084
5.776, 11, 30.2516, 51.0706, 1.80177, 79.7704, -85.893, 46.2098
5.78, 11, 30.2123, 51.0284, 1.93422, 79.6637, -85.942, 46.314
5.784, 11, 30.1727, 50.9857, 2.06773, 79.5555, -85.9905, 46.4205
5.788, 11, 30.133, 50.9428, 2.20214, 79.446, -86.0384, 46.529
5.792, 11, 30.093, 50.8995, 2.33725, 79.3354, -86.086, 46.6393
5.796, 11, 30.0528, 50.8559, 2.47291, 79.224, -86.1332, 46.7509
5.8, 11, 30.0124, 50.8122, 2.60896, 79.1118, -86.1804, 46.8636
5.804, 11, 29.9717, 50.7683, 2.74524, 78.9991, -86.2275, 46.9771
5.808, 11, 29.9307, 50.7244, 2.88163, 78.886, -86.2746, 47.0911
5.812, 11, 29.8896, 50.6805, 3.01802, 78.7727, -86.3219, 47.2054
5.816, 11, 29.8482, 50.6366, 3.15432, 78.6592, -86.3694, 47.32
5.82, 11, 29.8066, 50.5929, 3.29047, 78.5456, -86.417, 47.4347
5.824, 11, 29.7647, 50.5492, 3.42639, 78.432, -86.4649, 47.5493
5.828, 11, 29.7228, 50.5057, 3.56207, 78.3184, -86.5131, 47.6639
5.832, 11, 29.6806, 50.4624, 3.69746, 78.2047, -86.5615, 47.7784
5.836, 11, 29.6384, 50.4192, 3.83255, 78.0911, -86.6102, 47.8928
5.84, 11, 29.596, 50.3763, 3.96733, 77.9775, -86.6592, 48.0071
5.844, 11, 29.5534, 50.3336, 4.1018, 77.864, -86.7085, 48.1212
5.848, 11, 29.5107, 50.2911, 4.23594, 77.7505, -86.758, 48.2352
5.852, 11, 29.4679, 50.2488, 4.36975, 77.6371, -86.8079, 48.349
5.856, 11, 29.425, 50.2068, 4.50323, 77.5237, -86.858, 48.4626
5.86, 11, 29.3819, 50.1649, 4.63639, 77.4104, -86.9085, 48.5761
5.864, 11, 29.3387, 50.1233, 4.76921, 77.2971, -86.9592, 48.6894
5.868, 11, 29.2954, 50.0819, 4.9017, 77.1839, -87.0102, 48.8025
5.872, 11, 29.252, 50.0407, 5.03386, 77.0708, -87.0615, 48.9155
5.876, 11, 29.2084, 49.9998, 5.1657, 76.9577, -87.1131, 49.0283
5.88, 11, 29.1647, 49.959, 5.2972, 76.8446, -87.165, 49.1409
5.884, 11, 29.1209, 49.9185, 5.42838, 76.7317, -87.2172, 49.2534
5.888, 11, 29.077, 49.8782, 5.55922, 76.6188, -87.2696, 49.3657
5.892, 11, 29.0329, 49.8381, 5.68974, 76.5059, -87.3224, 49.4778
5.896, 11, 28.9887, 49.7983, 5.81993, 76.3931, -87.3754, 49.5898
5.9, 11, 28.9444, 49.7586, 5.9498, 76.2804, -87.4287, 49.7016
5.904, 11, 28.8999, 49.7192, 6.07934, 76.1677, -87.4823, 49.8132
5.908, 11, 28.8554, 49.68, 6.20855, 76.0551, -87.5362, 49.9246
5.912, 11, 28.8109, 49.641, 6.33742, 75.9425, -87.5904, 50.0359
5.916, 11, 28.7667, 49.6023, 6.46591, 75.8301, -87.6448, 50.147
5.92, 11, 28.723, 49.5638, 6.59395, 75.7177, -87.6994, 50.2578
5.924, 11, 28.6798, 49.5257, 6.72144, 75.6056, -87.7543, 50.3683
5.928, 11, 28.6374, 49.4879, 6.8482, 75.4938, -87.8093, 50.4784
5.932, 11, 28.5959, 49.4505, 6.974, 75.3825, -87.8643, 50.5879
5.936, 11, 28.5552, 49.4137, 7.09851, 75.272, -87.9192, 50.6965
5.94, 11, 28.5154, 49.3774, 7.22134, 75.1627, -87.9738, 50.8038
5.944, 11, 28.4765, 49.342, 7.34199, 75.0551, -88.0278, 50.9094
5.948, 11, 28.4387, 49.3074, 7.4599, 74.9496, -88.0809, 51.0128
5.952, 11, 28.4022, 49.2739, 7.57444, 74.8469, -88.1328, 51.1133
5.956, 11, 28.367, 49.2416, 7.68493, 74.7476, -88.1833, 51.2105
5.96, 11, 28.3334, 49.2106, 7.7907, 74.6524, -88.2318, 51.3036
5.964, 11, 28.3012, 49.1808, 7.8911, 74.562, -88.278, 51.392
5.968, 11, 28.2706, 49.1521, 7.98553, 74.477, -88.3216, 51.4751
5.972, 11, 28.2415, 49.1243, 8.0735, 74.3982, -88.3621, 51.5525
5.976, 11, 28.214, 49.0971, 8.15462, 74.326, -88.3991, 51.6237
5.98, 11, 28.1882, 49.0707, 8.22866, 74.2609, -88.4322, 51.6887
5.984, 11, 28.164, 49.0451, 8.2955, 74.2035, -88.4609, 51.7472
5.988, 11, 28.1416, 49.0205, 8.35521, 74.1538, -88.4849, 51.7992
5.992, 11, 28.1208, 48.9973, 8.40795, 74.1123, -88.5038, 51.8448
5.996, 11, 28.1016, 48.9756, 8.45407, 74.0788, -88.5173, 51.8841
6, 11, 28.0839, 48.9557, 8.49401, 74.0533, -88.5254, 51.9174
6.004, 11, 28.0676, 48.9375, 8.52829, 74.0355, -88.5281, 51.9448
6.008, 11, 28.0527, 48.9207, 8.55749, 74.0247, -88.5255, 51.9666
6.012, 11, 28.0391, 48.9053, 8.58222, 74.0205, -88.518, 51.9833
6.016, 11, 28.0265, 48.8911, 8.60315, 74.022, -88.5061, 51.9953
6.02, 11, 28.0146, 48.8779, 8.62093, 74.0282, -88.4904, 52.0032
6.024, 11, 28.0032, 48.8653, 8.63625, 74.0382, -88.4716, 52.0076
6.028, 11, 27.9922, 48.8533, 8.64978, 74.051, -88.4505, 52.009
6.032, 11, 27.9812, 48.8415, 8.66225, 74.0653, -88.4281, 52.0082
6.036, 11, 27.9702, 48.8294, 8.67438, 74.0801, -88.4051, 52.0062
6.04, 11, 27.9591, 48.8165, 8.68696, 74.094, -88.3827, 52.0038
6.044, 11, 27.9478, 48.8022, 8.70078, 74.1058, -88.3615, 52.0022
6.048, 11, 27.9361, 48.7862, 8.71667, 74.1145, -88.3425, 52.0026
