hehonglu123/Motion-Primitive-Planning/simulation/robotstudio_sim/scripts/fitting_output/threshold0.5/curve_exe_v500_fine.csv
timestamp, cmd_num, J1, J2, J3, J4, J5, J6
0, 1, -1.04611, 64.0155, 9.27262, 43.2937, -96.0658, 171.467
0.002, 1, -1.04611, 64.0155, 9.27262, 43.2937, -96.0658, 171.467
0.004, 1, -1.04611, 64.0155, 9.27262, 43.2937, -96.0658, 171.467
0.008, 1, -1.04611, 64.0155, 9.27262, 43.2937, -96.0658, 171.467
0.011, 1, -1.04611, 64.0155, 9.27262, 43.2937, -96.0658, 171.467
0.016, 1, -1.04611, 64.0155, 9.27262, 43.2937, -96.0658, 171.467
0.02, 1, -1.04611, 64.0155, 9.27262, 43.2937, -96.0658, 171.467
0.024, 1, -1.04611, 64.0155, 9.27262, 43.2937, -96.0658, 171.467
0.028, 1, -1.04611, 64.0155, 9.27262, 43.2937, -96.0658, 171.467
0.032, 1, -1.0461, 64.0155, 9.27262, 43.2937, -96.0658, 171.467
0.036, 1, -1.04604, 64.0155, 9.27262, 43.2937, -96.0658, 171.467
0.04, 1, -1.04582, 64.0154, 9.27263, 43.2937, -96.0658, 171.467
0.044, 1, -1.04529, 64.0153, 9.27265, 43.2937, -96.0658, 171.467
0.048, 1, -1.04432, 64.015, 9.27267, 43.2938, -96.0658, 171.467
0.052, 1, -1.0428, 64.0145, 9.2727, 43.2939, -96.0657, 171.467
0.056, 1, -1.04065, 64.0138, 9.27271, 43.2941, -96.0655, 171.466
0.06, 1, -1.03782, 64.0127, 9.27267, 43.2946, -96.0651, 171.465
0.064, 1, -1.03428, 64.0113, 9.27251, 43.2954, -96.0644, 171.463
0.068, 1, -1.02997, 64.0094, 9.27219, 43.2967, -96.0634, 171.46
0.072, 1, -1.02481, 64.0071, 9.2716, 43.2987, -96.0617, 171.455
0.076, 1, -1.01862, 64.0042, 9.27067, 43.3017, -96.0593, 171.448
0.08, 1, -1.01122, 64.0007, 9.26926, 43.3059, -96.0559, 171.438
0.084, 1, -1.0024, 63.9965, 9.26725, 43.3116, -96.0512, 171.425
0.088, 1, -0.991992, 63.9914, 9.26448, 43.3191, -96.045, 171.407
0.092, 1, -0.9799, 63.9856, 9.26077, 43.3289, -96.037, 171.385
0.096, 1, -0.966033, 63.9789, 9.25595, 43.3413, -96.0268, 171.356
0.1, 1, -0.95029, 63.9713, 9.24983, 43.3567, -96.0141, 171.32
0.104, 1, -0.932536, 63.9627, 9.24224, 43.3755, -95.9987, 171.277
0.108, 1, -0.912641, 63.9531, 9.23301, 43.3981, -95.9801, 171.224
0.112, 1, -0.890518, 63.9426, 9.222, 43.4247, -95.9582, 171.163
0.116, 1, -0.866144, 63.9311, 9.20907, 43.4557, -95.9327, 171.091
0.12, 1, -0.839541, 63.9189, 9.19409, 43.4912, -95.9034, 171.009
0.124, 1, -0.810752, 63.9061, 9.17698, 43.5315, -95.8702, 170.916
0.128, 1, -0.779824, 63.8927, 9.15769, 43.5767, -95.833, 170.811
0.131, 1, -0.746796, 63.8787, 9.13621, 43.6268, -95.7917, 170.696
0.136, 1, -0.711674, 63.8642, 9.11257, 43.6816, -95.7465, 170.569
0.139, 1, -0.674425, 63.8489, 9.08685, 43.7411, -95.6974, 170.432
0.144, 1, -0.635014, 63.8328, 9.05917, 43.805, -95.6447, 170.284
0.148, 1, -0.593459, 63.8158, 9.02967, 43.873, -95.5886, 170.127
0.152, 1, -0.549854, 63.7979, 8.99852, 43.9448, -95.5295, 169.962
0.156, 1, -0.504331, 63.7791, 8.96587, 44.02, -95.4675, 169.788
0.16, 1, -0.457007, 63.7594, 8.93192, 44.0981, -95.403, 169.608
0.164, 1, -0.407966, 63.7388, 8.89687, 44.1788, -95.3365, 169.421
0.168, 1, -0.35728, 63.7175, 8.86091, 44.2617, -95.2681, 169.23
0.172, 1, -0.305051, 63.6954, 8.82423, 44.3464, -95.1983, 169.035
0.176, 1, -0.251414, 63.6725, 8.78699, 44.4324, -95.1273, 168.836
0.18, 1, -0.19651, 63.6489, 8.74933, 44.5196, -95.0555, 168.635
0.184, 1, -0.14048, 63.6247, 8.71138, 44.6076, -94.9829, 168.431
0.188, 1, -0.0834746, 63.6, 8.67322, 44.6962, -94.9099, 168.227
0.192, 1, -0.0256472, 63.5749, 8.63491, 44.7853, -94.8364, 168.021
0.196, 1, 0.0328738, 63.5494, 8.59651, 44.8746, -94.7628, 167.815
0.2, 1, 0.0919972, 63.5237, 8.55806, 44.9642, -94.6889, 167.608
0.204, 1, 0.151642, 63.4978, 8.51958, 45.0539, -94.615, 167.4
0.208, 1, 0.211708, 63.4718, 8.48108, 45.1436, -94.541, 167.193
0.212, 1, 0.272083, 63.4456, 8.44259, 45.2334, -94.467, 166.986
0.216, 1, 0.332664, 63.4194, 8.40411, 45.3232, -94.393, 166.778
0.22, 1, 0.393375, 63.3931, 8.36563, 45.413, -94.319, 166.571
0.224, 1, 0.454162, 63.3668, 8.32718, 45.5028, -94.245, 166.363
0.228, 1, 0.514989, 63.3406, 8.28874, 45.5925, -94.171, 166.156
0.232, 1, 0.575834, 63.3143, 8.25031, 45.6822, -94.0971, 165.949
0.236, 1, 0.636678, 63.288, 8.21191, 45.7719, -94.0232, 165.742
0.24, 1, 0.697512, 63.2617, 8.17353, 45.8615, -93.9493, 165.535
0.244, 1, 0.758327, 63.2354, 8.13517, 45.951, -93.8755, 165.328
0.248, 1, 0.819118, 63.2092, 8.09683, 46.0406, -93.8017, 165.121
0.252, 1, 0.879882, 63.1829, 8.05851, 46.13, -93.728, 164.914
0.256, 1, 0.940616, 63.1567, 8.02021, 46.2194, -93.6543, 164.708
0.26, 1, 1.00132, 63.1305, 7.98193, 46.3088, -93.5806, 164.501
0.264, 1, 1.06199, 63.1043, 7.94368, 46.3981, -93.507, 164.295
0.268, 1, 1.12262, 63.0781, 7.90545, 46.4874, -93.4334, 164.089
0.272, 1, 1.18323, 63.0519, 7.86724, 46.5766, -93.3599, 163.883
0.276, 1, 1.24379, 63.0257, 7.82905, 46.6657, -93.2864, 163.677
0.28, 1, 1.30433, 62.9996, 7.79089, 46.7548, -93.2129, 163.471
0.284, 1, 1.36482, 62.9735, 7.75274, 46.8439, -93.1395, 163.265
0.288, 1, 1.42528, 62.9473, 7.71462, 46.9329, -93.0662, 163.059
0.292, 1, 1.48571, 62.9212, 7.67653, 47.0218, -92.9929, 162.854
0.296, 1, 1.5461, 62.8952, 7.63845, 47.1107, -92.9196, 162.648
0.3, 1, 1.60645, 62.8691, 7.6004, 47.1996, -92.8464, 162.443
0.304, 1, 1.66677, 62.843, 7.56237, 47.2884, -92.7732, 162.238
0.308, 1, 1.72705, 62.817, 7.52437, 47.3771, -92.7, 162.033
0.312, 1, 1.7873, 62.791, 7.48639, 47.4658, -92.6269, 161.828
0.316, 1, 1.8475, 62.765, 7.44843, 47.5544, -92.5539, 161.623
0.32, 1, 1.90768, 62.739, 7.41049, 47.643, -92.4809, 161.419
0.324, 1, 1.96781, 62.713, 7.37258, 47.7315, -92.4079, 161.214
0.328, 1, 2.02791, 62.6871, 7.33469, 47.8199, -92.335, 161.01
0.332, 1, 2.08797, 62.6611, 7.29682, 47.9083, -92.2621, 160.806
0.336, 1, 2.14799, 62.6352, 7.25898, 47.9967, -92.1893, 160.602
0.34, 1, 2.20797, 62.6093, 7.22116, 48.085, -92.1165, 160.398
0.344, 1, 2.26792, 62.5834, 7.18336, 48.1732, -92.0438, 160.194
0.348, 1, 2.32783, 62.5575, 7.14559, 48.2614, -91.9711, 159.99
0.352, 1, 2.3877, 62.5317, 7.10785, 48.3496, -91.8985, 159.786
0.356, 1, 2.44753, 62.5058, 7.07012, 48.4376, -91.8259, 159.583
0.36, 1, 2.50733, 62.48, 7.03242, 48.5257, -91.7533, 159.38
0.364, 1, 2.56708, 62.4542, 6.99475, 48.6136, -91.6808, 159.176
0.368, 1, 2.6268, 62.4284, 6.95709, 48.7015, -91.6083, 158.973
0.372, 1, 2.68648, 62.4026, 6.91947, 48.7894, -91.5359, 158.77
0.376, 1, 2.74612, 62.3768, 6.88186, 48.8772, -91.4636, 158.567
0.38, 1, 2.80573, 62.3511, 6.84429, 48.9649, -91.3912, 158.365
0.384, 1, 2.86529, 62.3254, 6.80673, 49.0526, -91.319, 158.162
0.388, 1, 2.92481, 62.2997, 6.7692, 49.1402, -91.2467, 157.96
0.392, 1, 2.9843, 62.274, 6.7317, 49.2278, -91.1746, 157.757
0.396, 1, 3.04374, 62.2483, 6.69422, 49.3153, -91.1024, 157.555
0.4, 1, 3.10315, 62.2226, 6.65676, 49.4027, -91.0304, 157.353
0.404, 1, 3.16252, 62.197, 6.61933, 49.4901, -90.9583, 157.151
0.408, 1, 3.22185, 62.1714, 6.58193, 49.5774, -90.8863, 156.95
0.412, 1, 3.28113, 62.1458, 6.54455, 49.6647, -90.8144, 156.748
0.416, 1, 3.34038, 62.1202, 6.50719, 49.7519, -90.7425, 156.546
0.42, 1, 3.39959, 62.0946, 6.46986, 49.8391, -90.6707, 156.345
0.424, 1, 3.45876, 62.069, 6.43256, 49.9262, -90.5989, 156.144
0.428, 1, 3.51788, 62.0435, 6.39528, 50.0132, -90.5272, 155.943
0.432, 1, 3.57697, 62.018, 6.35803, 50.1002, -90.4555, 155.742
0.436, 1, 3.63602, 61.9925, 6.3208, 50.1871, -90.3838, 155.541
0.44, 1, 3.69502, 61.967, 6.2836, 50.2739, -90.3122, 155.34
0.444, 1, 3.75399, 61.9415, 6.24642, 50.3607, -90.2407, 155.14
0.448, 1, 3.81291, 61.9161, 6.20927, 50.4475, -90.1692, 154.939
0.452, 1, 3.8718, 61.8906, 6.17215, 50.5342, -90.0977, 154.739
0.456, 1, 3.93064, 61.8652, 6.13505, 50.6208, -90.0263, 154.539
0.46, 1, 3.98944, 61.8398, 6.09798, 50.7073, -89.955, 154.339
0.464, 1, 4.0482, 61.8145, 6.06093, 50.7938, -89.8837, 154.139
0.468, 1, 4.10691, 61.7891, 6.02391, 50.8802, -89.8125, 153.94
0.472, 1, 4.16559, 61.7637, 5.98692, 50.9666, -89.7413, 153.74
0.476, 1, 4.22423, 61.7384, 5.94995, 51.0529, -89.6701, 153.541
0.48, 1, 4.28282, 61.7131, 5.91301, 51.1392, -89.599, 153.341
0.484, 1, 4.34137, 61.6878, 5.87609, 51.2254, -89.528, 153.142
0.488, 1, 4.39988, 61.6626, 5.8392, 51.3115, -89.457, 152.943
0.492, 1, 4.45834, 61.6373, 5.80234, 51.3975, -89.3861, 152.744
0.496, 1, 4.51677, 61.6121, 5.76551, 51.4835, -89.3152, 152.546
0.5, 1, 4.57515, 61.5868, 5.7287, 51.5695, -89.2443, 152.347
0.504, 1, 4.63349, 61.5617, 5.69192, 51.6554, -89.1736, 152.149
0.508, 1, 4.69179, 61.5365, 5.65516, 51.7412, -89.1028, 151.951
0.512, 1, 4.75004, 61.5113, 5.61843, 51.8269, -89.0322, 151.753
0.516, 1, 4.80826, 61.4862, 5.58173, 51.9126, -88.9615, 151.555
0.52, 1, 4.86643, 61.461, 5.54506, 51.9982, -88.8909, 151.357
0.524, 1, 4.92455, 61.4359, 5.50841, 52.0838, -88.8204, 151.159
0.528, 1, 4.98264, 61.4109, 5.47179, 52.1693, -88.7499, 150.962
0.532, 1, 5.04068, 61.3858, 5.4352, 52.2547, -88.6795, 150.764
0.536, 1, 5.09867, 61.3607, 5.39864, 52.3401, -88.6092, 150.567
0.54, 1, 5.15663, 61.3357, 5.3621, 52.4254, -88.5388, 150.37
0.544, 1, 5.21454, 61.3107, 5.32559, 52.5106, -88.4686, 150.173
0.548, 1, 5.2724, 61.2857, 5.28911, 52.5958, -88.3984, 149.976
0.552, 1, 5.33023, 61.2607, 5.25265, 52.6809, -88.3282, 149.779
0.556, 1, 5.38801, 61.2358, 5.21622, 52.766, -88.2581, 149.583
0.56, 1, 5.44574, 61.2108, 5.17982, 52.8509, -88.1881, 149.387
0.564, 1, 5.50343, 61.1859, 5.14345, 52.9359, -88.1181, 149.19
0.568, 1, 5.56108, 61.161, 5.1071, 53.0207, -88.0481, 148.994
0.572, 1, 5.61868, 61.1361, 5.07079, 53.1055, -87.9782, 148.799
0.576, 1, 5.67624, 61.1113, 5.0345, 53.1902, -87.9084, 148.603
0.58, 1, 5.73376, 61.0864, 4.99824, 53.2749, -87.8386, 148.407
0.584, 1, 5.79123, 61.0616, 4.962, 53.3595, -87.7689, 148.212
0.588, 1, 5.84865, 61.0368, 4.9258, 53.444, -87.6992, 148.016
0.592, 1, 5.90603, 61.012, 4.88962, 53.5285, -87.6296, 147.821
0.596, 1, 5.96337, 60.9873, 4.85347, 53.6129, -87.56, 147.626
0.6, 1, 6.02066, 60.9625, 4.81735, 53.6972, -87.4905, 147.431
0.604, 1, 6.07791, 60.9378, 4.78126, 53.7815, -87.4211, 147.237
0.608, 1, 6.13511, 60.9131, 4.74519, 53.8657, -87.3516, 147.042
0.612, 1, 6.19227, 60.8884, 4.70916, 53.9498, -87.2823, 146.848
0.616, 1, 6.24938, 60.8637, 4.67315, 54.0339, -87.213, 146.654
0.62, 1, 6.30645, 60.8391, 4.63717, 54.1179, -87.1438, 146.46
0.624, 1, 6.36347, 60.8145, 4.60122, 54.2018, -87.0746, 146.266
0.628, 1, 6.42045, 60.7898, 4.5653, 54.2857, -87.0054, 146.072
0.632, 1, 6.47738, 60.7653, 4.52941, 54.3695, -86.9364, 145.878
0.636, 1, 6.53426, 60.7407, 4.49354, 54.4532, -86.8674, 145.685
0.64, 1, 6.5911, 60.7161, 4.45771, 54.5369, -86.7984, 145.492
0.644, 1, 6.6479, 60.6916, 4.4219, 54.6205, -86.7295, 145.298
0.648, 1, 6.70464, 60.6671, 4.38612, 54.704, -86.6606, 145.105
0.652, 1, 6.76135, 60.6426, 4.35038, 54.7875, -86.5918, 144.913
0.656, 1, 6.818, 60.6181, 4.31466, 54.8709, -86.5231, 144.72
0.66, 1, 6.87462, 60.5937, 4.27896, 54.9542, -86.4544, 144.527
0.664, 1, 6.93118, 60.5693, 4.2433, 55.0374, -86.3858, 144.335
0.668, 1, 6.9877, 60.5448, 4.20767, 55.1206, -86.3172, 144.143
0.672, 1, 7.04417, 60.5205, 4.17207, 55.2038, -86.2487, 143.951
0.676, 1, 7.1006, 60.4961, 4.13649, 55.2868, -86.1802, 143.759
0.68, 1, 7.15698, 60.4717, 4.10095, 55.3698, -86.1118, 143.567
0.684, 1, 7.21331, 60.4474, 4.06543, 55.4527, -86.0435, 143.376
0.688, 1, 7.2696, 60.4231, 4.02995, 55.5356, -85.9752, 143.184
0.692, 1, 7.32584, 60.3988, 3.99449, 55.6184, -85.907, 142.993
0.696, 1, 7.38203, 60.3745, 3.95906, 55.7011, -85.8388, 142.802
0.7, 1, 7.43818, 60.3503, 3.92366, 55.7837, -85.7707, 142.611
0.704, 1, 7.49428, 60.326, 3.8883, 55.8663, -85.7026, 142.42
0.708, 1, 7.55033, 60.3018, 3.85296, 55.9488, -85.6346, 142.23
0.712, 1, 7.60634, 60.2776, 3.81765, 56.0312, -85.5666, 142.039
0.716, 1, 7.66229, 60.2535, 3.78237, 56.1136, -85.4987, 141.849
0.72, 1, 7.71821, 60.2293, 3.74712, 56.1959, -85.4309, 141.659
0.724, 1, 7.77407, 60.2052, 3.7119, 56.2781, -85.3631, 141.469
0.728, 1, 7.82989, 60.1811, 3.67671, 56.3603, -85.2954, 141.279
0.732, 1, 7.88566, 60.157, 3.64155, 56.4424, -85.2277, 141.089
0.736, 1, 7.94138, 60.1329, 3.60642, 56.5244, -85.1601, 140.9
0.74, 1, 7.99706, 60.1089, 3.57132, 56.6063, -85.0926, 140.71
0.744, 1, 8.05269, 60.0849, 3.53625, 56.6882, -85.0251, 140.521
0.748, 1, 8.10827, 60.0609, 3.50121, 56.77, -84.9576, 140.332
0.752, 1, 8.1638, 60.0369, 3.4662, 56.8518, -84.8903, 140.143
0.756, 1, 8.21929, 60.0129, 3.43122, 56.9334, -84.823, 139.955
0.76, 1, 8.27473, 59.989, 3.39626, 57.015, -84.7557, 139.766
0.764, 1, 8.33012, 59.965, 3.36134, 57.0966, -84.6885, 139.578
0.768, 1, 8.38546, 59.9411, 3.32645, 57.178, -84.6213, 139.39
0.772, 1, 8.44076, 59.9173, 3.29159, 57.2594, -84.5543, 139.202
0.776, 1, 8.49601, 59.8934, 3.25676, 57.3407, -84.4872, 139.014
0.78, 1, 8.55121, 59.8696, 3.22196, 57.422, -84.4203, 138.826
0.784, 1, 8.60636, 59.8457, 3.18719, 57.5032, -84.3533, 138.638
0.788, 1, 8.66146, 59.8219, 3.15245, 57.5843, -84.2865, 138.451
0.792, 1, 8.71652, 59.7982, 3.11774, 57.6653, -84.2197, 138.264
0.796, 1, 8.77153, 59.7744, 3.08306, 57.7463, -84.153, 138.077
0.8, 1, 8.82649, 59.7507, 3.04842, 57.8272, -84.0863, 137.89
0.804, 1, 8.8814, 59.727, 3.0138, 57.908, -84.0197, 137.703
0.808, 1, 8.93627, 59.7033, 2.97921, 57.9888, -83.9531, 137.517
0.812, 1, 8.99108, 59.6796, 2.94465, 58.0694, -83.8866, 137.33
0.816, 1, 9.04585, 59.6559, 2.91012, 58.15, -83.8201, 137.144
0.82, 1, 9.10057, 59.6323, 2.87563, 58.2306, -83.7538, 136.958
0.824, 1, 9.15524, 59.6087, 2.84116, 58.3111, -83.6874, 136.772
0.828, 1, 9.20987, 59.5851, 2.80673, 58.3915, -83.6212, 136.586
0.832, 1, 9.26444, 59.5615, 2.77232, 58.4718, -83.5549, 136.401
0.836, 1, 9.31897, 59.538, 2.73794, 58.552, -83.4888, 136.215
0.84, 1, 9.37345, 59.5144, 2.7036, 58.6322, -83.4227, 136.03
0.844, 1, 9.42788, 59.4909, 2.66929, 58.7123, -83.3567, 135.845
0.848, 1, 9.48226, 59.4674, 2.635, 58.7924, -83.2907, 135.66
0.852, 1, 9.53659, 59.444, 2.60075, 58.8723, -83.2248, 135.475
0.856, 1, 9.59088, 59.4205, 2.56653, 58.9522, -83.1589, 135.291
0.86, 1, 9.64511, 59.3971, 2.53233, 59.0321, -83.0931, 135.106
0.864, 1, 9.6993, 59.3737, 2.49817, 59.1118, -83.0274, 134.922
0.868, 1, 9.75344, 59.3503, 2.46404, 59.1915, -82.9617, 134.738
0.872, 1, 9.80753, 59.327, 2.42994, 59.2711, -82.8961, 134.554
0.876, 1, 9.86158, 59.3036, 2.39587, 59.3507, -82.8305, 134.37
0.88, 1, 9.91557, 59.2803, 2.36183, 59.4301, -82.765, 134.186
0.884, 1, 9.96951, 59.257, 2.32783, 59.5095, -82.6995, 134.003
0.888, 1, 10.0234, 59.2337, 2.29385, 59.5889, -82.6342, 133.82
0.892, 1, 10.0773, 59.2105, 2.2599, 59.6681, -82.5688, 133.637
0.896, 1, 10.1311, 59.1872, 2.22599, 59.7473, -82.5036, 133.454
0.9, 1, 10.1848, 59.164, 2.1921, 59.8264, -82.4384, 133.271
0.904, 1, 10.2385, 59.1408, 2.15825, 59.9055, -82.3732, 133.088
0.908, 1, 10.2922, 59.1177, 2.12442, 59.9844, -82.3081, 132.906
0.912, 1, 10.3458, 59.0945, 2.09063, 60.0633, -82.2431, 132.724
0.916, 1, 10.3993, 59.0714, 2.05687, 60.1422, -82.1781, 132.541
0.92, 1, 10.4528, 59.0483, 2.02314, 60.2209, -82.1132, 132.36
0.924, 1, 10.5063, 59.0252, 1.98944, 60.2996, -82.0483, 132.178
0.928, 1, 10.5597, 59.0021, 1.95577, 60.3782, -81.9835, 131.996
0.932, 1, 10.6131, 58.9791, 1.92213, 60.4567, -81.9188, 131.815
0.936, 1, 10.6664, 58.956, 1.88852, 60.5352, -81.8541, 131.633
0.94, 1, 10.7196, 58.933, 1.85494, 60.6136, -81.7895, 131.452
0.944, 1, 10.7728, 58.9101, 1.8214, 60.6919, -81.725, 131.271
0.948, 1, 10.826, 58.8871, 1.78788, 60.7702, -81.6604, 131.091
0.952, 1, 10.8791, 58.8642, 1.7544, 60.8483, -81.596, 130.91
0.956, 1, 10.9322, 58.8412, 1.72094, 60.9264, -81.5316, 130.729
0.96, 1, 10.9852, 58.8183, 1.68752, 61.0045, -81.4673, 130.549
0.964, 1, 11.0382, 58.7955, 1.65413, 61.0824, -81.4031, 130.369
0.968, 1, 11.0911, 58.7726, 1.62077, 61.1603, -81.3388, 130.189
0.972, 1, 11.144, 58.7498, 1.58743, 61.2381, -81.2747, 130.009
0.976, 1, 11.1968, 58.727, 1.55414, 61.3159, -81.2106, 129.83
0.98, 1, 11.2496, 58.7042, 1.52087, 61.3936, -81.1466, 129.65
0.984, 1, 11.3023, 58.6814, 1.48763, 61.4712, -81.0826, 129.471
0.988, 1, 11.355, 58.6586, 1.45442, 61.5487, -81.0187, 129.292
0.992, 1, 11.4076, 58.6359, 1.42125, 61.6262, -80.9549, 129.113
0.996, 1, 11.4602, 58.6132, 1.3881, 61.7035, -80.8911, 128.934
1, 1, 11.5127, 58.5905, 1.35499, 61.7808, -80.8274, 128.756
1.004, 1, 11.5652, 58.5679, 1.3219, 61.8581, -80.7637, 128.577
1.008, 1, 11.6176, 58.5452, 1.28885, 61.9353, -80.7001, 128.399
1.012, 1, 11.67, 58.5226, 1.25583, 62.0124, -80.6365, 128.221
1.016, 1, 11.7223, 58.5, 1.22284, 62.0894, -80.5731, 128.043
1.02, 1, 11.7746, 58.4774, 1.18988, 62.1663, -80.5096, 127.865
1.024, 1, 11.8268, 58.4548, 1.15695, 62.2432, -80.4463, 127.687
1.027, 1, 11.879, 58.4323, 1.12405, 62.32, -80.3829, 127.51
1.032, 1, 11.9312, 58.4098, 1.09118, 62.3968, -80.3197, 127.333
1.036, 1, 11.9833, 58.3873, 1.05835, 62.4734, -80.2565, 127.155
1.04, 1, 12.0353, 58.3648, 1.02554, 62.55, -80.1934, 126.978
1.044, 1, 12.0873, 58.3424, 0.992768, 62.6265, -80.1303, 126.802
1.048, 1, 12.1392, 58.3199, 0.960024, 62.703, -80.0673, 126.625
1.052, 1, 12.1911, 58.2975, 0.927311, 62.7794, -80.0043, 126.449
1.055, 1, 12.243, 58.2751, 0.894629, 62.8557, -79.9414, 126.272
1.06, 1, 12.2948, 58.2528, 0.861978, 62.9319, -79.8786, 126.096
1.064, 1, 12.3465, 58.2304, 0.829358, 63.008, -79.8158, 125.92
1.068, 1, 12.3982, 58.2081, 0.796768, 63.0841, -79.7531, 125.744
1.072, 1, 12.4499, 58.1858, 0.76421, 63.1601, -79.6904, 125.569
1.076, 1, 12.5015, 58.1635, 0.731682, 63.2361, -79.6278, 125.393
1.08, 1, 12.553, 58.1412, 0.699185, 63.312, -79.5653, 125.218
1.084, 1, 12.6045, 58.119, 0.666718, 63.3878, -79.5028, 125.043
1.088, 1, 12.656, 58.0968, 0.634283, 63.4635, -79.4404, 124.868
1.091, 1, 12.7074, 58.0746, 0.601878, 63.5391, -79.378, 124.693
1.096, 1, 12.7587, 58.0524, 0.569504, 63.6147, -79.3157, 124.519
1.1, 1, 12.81, 58.0302, 0.53716, 63.6902, -79.2535, 124.344
1.104, 1, 12.8613, 58.0081, 0.504847, 63.7657, -79.1913, 124.17
1.108, 1, 12.9125, 57.986, 0.472565, 63.8411, -79.1292, 123.996
1.112, 1, 12.9637, 57.9639, 0.440314, 63.9164, -79.0671, 123.822
1.116, 1, 13.0148, 57.9418, 0.408093, 63.9916, -79.0051, 123.648
1.119, 1, 13.0659, 57.9198, 0.375902, 64.0667, -78.9432, 123.474
1.124, 1, 13.1169, 57.8977, 0.343743, 64.1418, -78.8813, 123.301
1.128, 1, 13.1678, 57.8757, 0.311613, 64.2168, -78.8194, 123.128
1.132, 1, 13.2188, 57.8537, 0.279515, 64.2918, -78.7577, 122.954
1.136, 1, 13.2696, 57.8317, 0.247446, 64.3666, -78.696, 122.781
1.14, 1, 13.3205, 57.8098, 0.215409, 64.4414, -78.6343, 122.609
1.144, 1, 13.3712, 57.7879, 0.183401, 64.5162, -78.5727, 122.436
1.147, 1, 13.422, 57.766, 0.151425, 64.5908, -78.5112, 122.263
1.152, 1, 13.4726, 57.7441, 0.119478, 64.6654, -78.4497, 122.091
1.156, 1, 13.5233, 57.7222, 0.0875621, 64.7399, -78.3883, 121.919
1.16, 1, 13.5738, 57.7004, 0.0556764, 64.8144, -78.3269, 121.747
1.164, 1, 13.6244, 57.6785, 0.0238212, 64.8887, -78.2656, 121.575
1.168, 1, 13.6749, 57.6567, -0.0080038, 64.9631, -78.2044, 121.404
1.172, 1, 13.7253, 57.635, -0.0397984, 65.0373, -78.1432, 121.232
1.175, 1, 13.7757, 57.6132, -0.0715628, 65.1114, -78.082, 121.061
1.18, 1, 13.826, 57.5914, -0.103297, 65.1855, -78.021, 120.89
1.184, 1, 13.8763, 57.5697, -0.135001, 65.2596, -77.96, 120.719
1.188, 1, 13.9266, 57.548, -0.166674, 65.3335, -77.899, 120.548
1.192, 1, 13.9768, 57.5264, -0.198318, 65.4074, -77.8381, 120.377
1.196, 1, 14.0269, 57.5047, -0.229931, 65.4812, -77.7773, 120.206
1.2, 1, 14.077, 57.4831, -0.261514, 65.5549, -77.7165, 120.036
1.204, 1, 14.1271, 57.4614, -0.293067, 65.6286, -77.6558, 119.866
1.208, 1, 14.1771, 57.4398, -0.32459, 65.7022, -77.5951, 119.696
1.212, 1, 14.2271, 57.4183, -0.356083, 65.7757, -77.5345, 119.526
1.216, 1, 14.277, 57.3967, -0.387546, 65.8492, -77.4739, 119.356
1.22, 1, 14.3268, 57.3752, -0.418978, 65.9226, -77.4135, 119.187
1.224, 1, 14.3767, 57.3537, -0.450381, 65.9959, -77.353, 119.017
1.228, 1, 14.4264, 57.3322, -0.481754, 66.0691, -77.2926, 118.848
1.232, 1, 14.4761, 57.3107, -0.513097, 66.1423, -77.2323, 118.679
1.236, 1, 14.5258, 57.2892, -0.54441, 66.2154, -77.1721, 118.51
1.24, 1, 14.5755, 57.2678, -0.575693, 66.2885, -77.1119, 118.341
1.244, 1, 14.625, 57.2464, -0.606946, 66.3614, -77.0517, 118.173
1.248, 1, 14.6746, 57.225, -0.638169, 66.4343, -76.9916, 118.004
1.252, 1, 14.7241, 57.2036, -0.669362, 66.5071, -76.9316, 117.836
1.256, 1, 14.7735, 57.1823, -0.700526, 66.5799, -76.8716, 117.668
1.26, 1, 14.8229, 57.161, -0.73166, 66.6526, -76.8117, 117.5
1.264, 1, 14.8722, 57.1396, -0.762764, 66.7252, -76.7519, 117.332
1.267, 1, 14.9215, 57.1184, -0.793838, 66.7978, -76.692, 117.165
1.272, 1, 14.9708, 57.0971, -0.824883, 66.8702, -76.6323, 116.997
1.276, 1, 15.02, 57.0758, -0.855898, 66.9427, -76.5726, 116.83
1.28, 1, 15.0691, 57.0546, -0.886883, 67.015, -76.513, 116.663
1.284, 1, 15.1182, 57.0334, -0.917839, 67.0873, -76.4534, 116.496
1.288, 1, 15.1673, 57.0122, -0.948765, 67.1595, -76.3939, 116.329
1.292, 1, 15.2163, 56.991, -0.979662, 67.2316, -76.3344, 116.162
1.295, 1, 15.2653, 56.9699, -1.01053, 67.3037, -76.275, 115.996
1.3, 1, 15.3142, 56.9488, -1.04137, 67.3757, -76.2157, 115.83
1.304, 1, 15.3631, 56.9277, -1.07218, 67.4476, -76.1564, 115.663
1.308, 1, 15.4119, 56.9066, -1.10295, 67.5195, -76.0972, 115.497
1.312, 1, 15.4607, 56.8855, -1.1337, 67.5913, -76.038, 115.331
1.316, 1, 15.5094, 56.8645, -1.16442, 67.663, -75.9789, 115.166
1.32, 1, 15.5581, 56.8434, -1.19511, 67.7346, -75.9198, 115
1.324, 1, 15.6068, 56.8224, -1.22577, 67.8062, -75.8608, 114.835
1.328, 1, 15.6553, 56.8014, -1.25641, 67.8777, -75.8019, 114.67
1.332, 1, 15.7039, 56.7805, -1.28701, 67.9492, -75.743, 114.505
1.336, 1, 15.7524, 56.7595, -1.31758, 68.0206, -75.6841, 114.34
1.34, 1, 15.8009, 56.7386, -1.34813, 68.0919, -75.6253, 114.175
1.344, 1, 15.8493, 56.7177, -1.37865, 68.1631, -75.5666, 114.01
1.348, 1, 15.8976, 56.6968, -1.40913, 68.2343, -75.5079, 113.846
1.352, 1, 15.9459, 56.676, -1.43959, 68.3054, -75.4493, 113.682
1.356, 1, 15.9942, 56.6551, -1.47002, 68.3764, -75.3908, 113.517
1.36, 1, 16.0424, 56.6343, -1.50042, 68.4474, -75.3323, 113.353
1.364, 1, 16.0906, 56.6135, -1.53078, 68.5183, -75.2738, 113.19
1.368, 1, 16.1388, 56.5927, -1.56113, 68.5892, -75.2154, 113.026
1.372, 1, 16.1868, 56.5719, -1.59144, 68.6599, -75.1571, 112.862
1.376, 1, 16.2349, 56.5512, -1.62172, 68.7306, -75.0988, 112.699
1.38, 1, 16.2829, 56.5304, -1.65197, 68.8013, -75.0406, 112.536
1.384, 1, 16.3308, 56.5097, -1.6822, 68.8718, -74.9824, 112.373
1.388, 1, 16.3787, 56.489, -1.71239, 68.9423, -74.9243, 112.21
1.392, 1, 16.4266, 56.4684, -1.74256, 69.0128, -74.8663, 112.047
1.396, 1, 16.4744, 56.4477, -1.7727, 69.0831, -74.8083, 111.885
1.4, 1, 16.5222, 56.4271, -1.80281, 69.1534, -74.7503, 111.722
1.404, 1, 16.5699, 56.4065, -1.83289, 69.2237, -74.6924, 111.56
1.408, 1, 16.6176, 56.3859, -1.86294, 69.2938, -74.6346, 111.398
1.412, 1, 16.6652, 56.3653, -1.89297, 69.3639, -74.5768, 111.236
1.416, 1, 16.7128, 56.3448, -1.92296, 69.434, -74.5191, 111.074
1.42, 1, 16.7604, 56.3242, -1.95293, 69.5039, -74.4614, 110.913
1.424, 1, 16.8079, 56.3037, -1.98287, 69.5738, -74.4038, 110.751
1.428, 1, 16.8553, 56.2832, -2.01278, 69.6437, -74.3462, 110.59
1.432, 1, 16.9027, 56.2628, -2.04266, 69.7134, -74.2887, 110.429
1.436, 1, 16.9501, 56.2423, -2.07251, 69.7831, -74.2313, 110.268
1.44, 1, 16.9974, 56.2219, -2.10234, 69.8528, -74.1739, 110.107
1.444, 1, 17.0447, 56.2015, -2.13214, 69.9223, -74.1165, 109.946
1.448, 1, 17.0919, 56.1811, -2.16191, 69.9918, -74.0593, 109.785
1.452, 1, 17.1391, 56.1607, -2.19165, 70.0613, -74.002, 109.625
1.456, 1, 17.1862, 56.1403, -2.22136, 70.1306, -73.9448, 109.465
1.46, 1, 17.2333, 56.12, -2.25104, 70.2, -73.8877, 109.305
1.464, 1, 17.2804, 56.0997, -2.2807, 70.2692, -73.8306, 109.145
1.468, 1, 17.3274, 56.0794, -2.31033, 70.3384, -73.7736, 108.985
1.472, 1, 17.3743, 56.0591, -2.33993, 70.4075, -73.7167, 108.825
1.476, 1, 17.4213, 56.0388, -2.36951, 70.4765, -73.6597, 108.666
1.48, 1, 17.4681, 56.0186, -2.39905, 70.5455, -73.6029, 108.506
1.484, 1, 17.515, 55.9984, -2.42857, 70.6144, -73.5461, 108.347
1.488, 1, 17.5617, 55.9782, -2.45806, 70.6833, -73.4893, 108.188
1.492, 1, 17.6085, 55.958, -2.48752, 70.7521, -73.4326, 108.029
1.496, 1, 17.6552, 55.9378, -2.51696, 70.8208, -73.376, 107.87
1.5, 1, 17.7018, 55.9177, -2.54636, 70.8895, -73.3194, 107.712
1.504, 1, 17.7484, 55.8975, -2.57574, 70.958, -73.2628, 107.553
1.508, 1, 17.795, 55.8774, -2.60509, 71.0266, -73.2064, 107.395
1.512, 1, 17.8415, 55.8573, -2.63442, 71.095, -73.1499, 107.237
1.516, 1, 17.888, 55.8373, -2.66372, 71.1634, -73.0935, 107.079
1.52, 1, 17.9345, 55.8172, -2.69299, 71.2318, -73.0372, 106.921
1.524, 1, 17.9808, 55.7972, -2.72223, 71.3, -72.9809, 106.763
1.528, 1, 18.0272, 55.7772, -2.75144, 71.3683, -72.9247, 106.605
1.532, 1, 18.0735, 55.7572, -2.78063, 71.4364, -72.8685, 106.448
1.536, 1, 18.1198, 55.7372, -2.80979, 71.5045, -72.8124, 106.291
1.54, 1, 18.166, 55.7172, -2.83893, 71.5725, -72.7563, 106.133
1.544, 1, 18.2122, 55.6973, -2.86803, 71.6405, -72.7003, 105.976
1.548, 1, 18.2583, 55.6773, -2.89711, 71.7084, -72.6444, 105.82
1.552, 1, 18.3044, 55.6574, -2.92616, 71.7762, -72.5885, 105.663
1.556, 1, 18.3504, 55.6376, -2.95519, 71.844, -72.5326, 105.506
1.56, 1, 18.3964, 55.6177, -2.98419, 71.9117, -72.4768, 105.35
1.564, 1, 18.4424, 55.5978, -3.01316, 71.9793, -72.421, 105.194
1.568, 1, 18.4883, 55.578, -3.0421, 72.0469, -72.3653, 105.037
1.572, 1, 18.5342, 55.5582, -3.07102, 72.1144, -72.3097, 104.882
1.576, 1, 18.58, 55.5384, -3.09991, 72.1818, -72.2541, 104.726
1.58, 1, 18.6258, 55.5186, -3.12878, 72.2492, -72.1985, 104.57
1.584, 1, 18.6716, 55.4989, -3.15761, 72.3166, -72.143, 104.414
1.588, 1, 18.7173, 55.4791, -3.18642, 72.3838, -72.0876, 104.259
1.592, 1, 18.763, 55.4594, -3.21521, 72.451, -72.0322, 104.104
1.596, 1, 18.8086, 55.4397, -3.24396, 72.5182, -71.9769, 103.949
1.6, 1, 18.8542, 55.42, -3.2727, 72.5853, -71.9216, 103.794
1.604, 1, 18.8997, 55.4004, -3.3014, 72.6523, -71.8663, 103.639
1.608, 1, 18.9452, 55.3807, -3.33008, 72.7192, -71.8111, 103.484
1.612, 1, 18.9907, 55.3611, -3.35873, 72.7861, -71.756, 103.33
1.616, 1, 19.0361, 55.3415, -3.38736, 72.853, -71.7009, 103.175
1.62, 1, 19.0814, 55.3219, -3.41595, 72.9197, -71.6459, 103.021
1.624, 1, 19.1268, 55.3023, -3.44453, 72.9864, -71.5909, 102.867
1.628, 1, 19.1721, 55.2827, -3.47307, 73.0531, -71.5359, 102.713
1.632, 1, 19.2173, 55.2632, -3.50159, 73.1197, -71.4811, 102.559
1.636, 1, 19.2625, 55.2437, -3.53009, 73.1862, -71.4262, 102.405
1.64, 1, 19.3077, 55.2242, -3.55855, 73.2527, -71.3714, 102.252
1.644, 1, 19.3528, 55.2047, -3.587, 73.3191, -71.3167, 102.098
1.648, 1, 19.3979, 55.1852, -3.61541, 73.3854, -71.262, 101.945
1.652, 1, 19.4429, 55.1658, -3.6438, 73.4517, -71.2074, 101.792
1.656, 1, 19.4879, 55.1463, -3.67217, 73.5179, -71.1528, 101.639
1.66, 1, 19.5329, 55.1269, -3.7005, 73.5841, -71.0983, 101.486
1.664, 1, 19.5778, 55.1075, -3.72882, 73.6502, -71.0438, 101.333
1.668, 1, 19.6227, 55.0881, -3.7571, 73.7162, -70.9893, 101.181
1.672, 1, 19.6675, 55.0688, -3.78536, 73.7822, -70.9349, 101.028
1.676, 1, 19.7123, 55.0494, -3.8136, 73.8481, -70.8806, 100.876
1.68, 1, 19.7571, 55.0301, -3.8418, 73.914, -70.8263, 100.724
1.684, 1, 19.8018, 55.0108, -3.86999, 73.9798, -70.7721, 100.572
1.688, 1, 19.8464, 54.9915, -3.89815, 74.0455, -70.7179, 100.42
1.692, 1, 19.8911, 54.9722, -3.92628, 74.1112, -70.6638, 100.268
1.696, 1, 19.9357, 54.953, -3.95438, 74.1768, -70.6097, 100.117
1.7, 1, 19.9802, 54.9337, -3.98247, 74.2424, -70.5556, 99.9651
1.704, 1, 20.0247, 54.9145, -4.01052, 74.3079, -70.5016, 99.8138
1.708, 1, 20.0692, 54.8953, -4.03855, 74.3733, -70.4477, 99.6626
1.712, 1, 20.1136, 54.8761, -4.06656, 74.4387, -70.3938, 99.5115
1.716, 1, 20.158, 54.857, -4.09454, 74.5041, -70.34, 99.3606
1.72, 1, 20.2024, 54.8378, -4.12249, 74.5693, -70.2862, 99.2098
1.724, 1, 20.2467, 54.8187, -4.15042, 74.6345, -70.2324, 99.0591
1.728, 1, 20.291, 54.7995, -4.17832, 74.6997, -70.1787, 98.9086
1.732, 1, 20.3352, 54.7805, -4.2062, 74.7648, -70.1251, 98.7582
1.736, 1, 20.3794, 54.7614, -4.23406, 74.8298, -70.0714, 98.608
1.74, 1, 20.4235, 54.7423, -4.26189, 74.8948, -70.0179, 98.4579
1.744, 1, 20.4676, 54.7233, -4.28969, 74.9597, -69.9644, 98.3079
1.748, 1, 20.5117, 54.7042, -4.31747, 75.0245, -69.9109, 98.1581
1.752, 1, 20.5558, 54.6852, -4.34522, 75.0893, -69.8575, 98.0084
1.756, 1, 20.5997, 54.6662, -4.37295, 75.1541, -69.8042, 97.8588
1.76, 1, 20.6437, 54.6472, -4.40066, 75.2188, -69.7508, 97.7094
1.764, 1, 20.6876, 54.6283, -4.42834, 75.2834, -69.6976, 97.56
1.768, 1, 20.7315, 54.6093, -4.45599, 75.348, -69.6443, 97.4109
1.772, 1, 20.7753, 54.5904, -4.48362, 75.4125, -69.5912, 97.2618
1.776, 1, 20.8191, 54.5715, -4.51123, 75.4769, -69.538, 97.1129
1.78, 1, 20.8629, 54.5526, -4.53881, 75.5413, -69.485, 96.9641
1.784, 1, 20.9066, 54.5337, -4.56637, 75.6057, -69.4319, 96.8155
1.788, 1, 20.9503, 54.5148, -4.5939, 75.6699, -69.3789, 96.667
1.792, 1, 20.9939, 54.496, -4.62141, 75.7342, -69.326, 96.5186
1.796, 1, 21.0375, 54.4771, -4.64889, 75.7983, -69.2731, 96.3703
1.8, 1, 21.0811, 54.4583, -4.67635, 75.8624, -69.2203, 96.2222
1.804, 1, 21.1246, 54.4395, -4.70379, 75.9265, -69.1675, 96.0742
1.808, 1, 21.1681, 54.4208, -4.7312, 75.9905, -69.1147, 95.9264
1.812, 1, 21.2116, 54.402, -4.75859, 76.0544, -69.062, 95.7786
1.816, 1, 21.255, 54.3832, -4.78595, 76.1183, -69.0093, 95.6311
1.82, 1, 21.2984, 54.3645, -4.81329, 76.1822, -68.9567, 95.4836
1.824, 1, 21.3417, 54.3458, -4.8406, 76.2459, -68.9042, 95.3362
1.828, 1, 21.385, 54.3271, -4.8679, 76.3096, -68.8516, 95.189
1.832, 1, 21.4283, 54.3084, -4.89516, 76.3733, -68.7992, 95.0419
1.836, 1, 21.4715, 54.2898, -4.92241, 76.4369, -68.7467, 94.895
1.84, 1, 21.5147, 54.2711, -4.94963, 76.5005, -68.6944, 94.7482
1.844, 1, 21.5578, 54.2525, -4.97682, 76.564, -68.642, 94.6015
1.848, 1, 21.6009, 54.2339, -5.00399, 76.6274, -68.5897, 94.4549
1.852, 1, 21.644, 54.2153, -5.03114, 76.6908, -68.5375, 94.3084
1.856, 1, 21.687, 54.1967, -5.05827, 76.7541, -68.4853, 94.1621
1.86, 1, 21.73, 54.1781, -5.08537, 76.8174, -68.4331, 94.0159
1.864, 1, 21.773, 54.1595, -5.11245, 76.8806, -68.381, 93.8699
1.868, 1, 21.8159, 54.141, -5.1395, 76.9438, -68.3289, 93.7239
1.872, 1, 21.8588, 54.1225, -5.16654, 77.0069, -68.2769, 93.5781
1.876, 1, 21.9017, 54.104, -5.19354, 77.07, -68.2249, 93.4324
1.88, 1, 21.9445, 54.0855, -5.22053, 77.133, -68.173, 93.2869
1.884, 1, 21.9872, 54.067, -5.24749, 77.1959, -68.1211, 93.1415
1.888, 1, 22.03, 54.0486, -5.27443, 77.2588, -68.0693, 92.9961
1.892, 1, 22.0727, 54.0301, -5.30134, 77.3216, -68.0175, 92.851
1.896, 1, 22.1154, 54.0117, -5.32824, 77.3844, -67.9657, 92.7059
1.9, 1, 22.158, 53.9933, -5.3551, 77.4472, -67.914, 92.561
1.904, 1, 22.2006, 53.9749, -5.38195, 77.5098, -67.8624, 92.4162
1.908, 1, 22.2431, 53.9565, -5.40877, 77.5725, -67.8107, 92.2715
1.912, 1, 22.2856, 53.9382, -5.43557, 77.635, -67.7592, 92.1269
1.916, 1, 22.3281, 53.9198, -5.46235, 77.6976, -67.7076, 91.9825
1.92, 1, 22.3706, 53.9015, -5.4891, 77.76, -67.6561, 91.8382
1.924, 1, 22.413, 53.8832, -5.51584, 77.8224, -67.6047, 91.694
1.928, 1, 22.4554, 53.8649, -5.54254, 77.8848, -67.5533, 91.5499
1.932, 1, 22.4977, 53.8466, -5.56923, 77.9471, -67.5019, 91.406
1.936, 1, 22.54, 53.8283, -5.59589, 78.0093, -67.4506, 91.2621
1.94, 1, 22.5823, 53.8101, -5.62253, 78.0715, -67.3994, 91.1184
1.944, 1, 22.6245, 53.7918, -5.64915, 78.1337, -67.3481, 90.9749
1.948, 1, 22.6667, 53.7736, -5.67575, 78.1958, -67.2969, 90.8314
1.952, 1, 22.7089, 53.7554, -5.70232, 78.2578, -67.2458, 90.6881
1.956, 1, 22.751, 53.7372, -5.72887, 78.3198, -67.1947, 90.5448
1.96, 1, 22.7931, 53.719, -5.7554, 78.3818, -67.1437, 90.4017
1.964, 1, 22.8351, 53.7009, -5.7819, 78.4436, -67.0927, 90.2588
1.968, 1, 22.8771, 53.6827, -5.80839, 78.5055, -67.0417, 90.1159
1.972, 1, 22.9191, 53.6646, -5.83485, 78.5673, -66.9908, 89.9732
1.976, 1, 22.9611, 53.6465, -5.86129, 78.629, -66.9399, 89.8306
1.98, 1, 23.003, 53.6284, -5.8877, 78.6907, -66.889, 89.6881
1.984, 1, 23.0448, 53.6103, -5.9141, 78.7523, -66.8382, 89.5457
1.988, 1, 23.0867, 53.5922, -5.94047, 78.8139, -66.7875, 89.4035
1.992, 1, 23.1285, 53.5742, -5.96682, 78.8754, -66.7368, 89.2613
1.996, 1, 23.1703, 53.5561, -5.99315, 78.9369, -66.6861, 89.1193
1.999, 1, 23.212, 53.5381, -6.01945, 78.9983, -66.6355, 88.9774
2.004, 1, 23.2537, 53.5201, -6.04574, 79.0596, -66.5849, 88.8356
2.008, 1, 23.2954, 53.5021, -6.072, 79.121, -66.5344, 88.694
2.012, 1, 23.337, 53.4841, -6.09824, 79.1822, -66.4839, 88.5524
2.015, 1, 23.3786, 53.4662, -6.12446, 79.2434, -66.4334, 88.411
2.019, 1, 23.4202, 53.4482, -6.15066, 79.3046, -66.383, 88.2697
2.024, 1, 23.4617, 53.4303, -6.17683, 79.3657, -66.3326, 88.1285
2.028, 1, 23.5032, 53.4124, -6.20299, 79.4268, -66.2823, 87.9874
2.031, 1, 23.5446, 53.3945, -6.22912, 79.4878, -66.232, 87.8465
2.036, 1, 23.5861, 53.3766, -6.25523, 79.5487, -66.1817, 87.7056
2.04, 1, 23.6275, 53.3587, -6.28132, 79.6096, -66.1315, 87.5649
2.044, 1, 23.6688, 53.3409, -6.30738, 79.6705, -66.0814, 87.4243
2.048, 1, 23.7101, 53.323, -6.33343, 79.7313, -66.0312, 87.2838
2.051, 1, 23.7514, 53.3052, -6.35945, 79.7921, -65.9812, 87.1434
2.055, 1, 23.7927, 53.2874, -6.38545, 79.8528, -65.9311, 87.0032
2.06, 1, 23.8339, 53.2696, -6.41144, 79.9135, -65.8811, 86.863
2.064, 1, 23.8751, 53.2518, -6.4374, 79.9741, -65.8312, 86.723
2.068, 1, 23.9162, 53.234, -6.46333, 80.0346, -65.7812, 86.5831
2.071, 1, 23.9574, 53.2162, -6.48925, 80.0951, -65.7314, 86.4433
2.076, 1, 23.9985, 53.1985, -6.51515, 80.1556, -65.6815, 86.3036
2.08, 1, 24.0395, 53.1808, -6.54102, 80.216, -65.6317, 86.164
2.084, 1, 24.0805, 53.1631, -6.56688, 80.2764, -65.582, 86.0245
2.087, 1, 24.1215, 53.1454, -6.59271, 80.3367, -65.5323, 85.8852
2.092, 1, 24.1625, 53.1277, -6.61852, 80.3969, -65.4826, 85.746
2.096, 1, 24.2034, 53.11, -6.64431, 80.4572, -65.433, 85.6068
2.1, 1, 24.2443, 53.0923, -6.67008, 80.5173, -65.3834, 85.4678
2.104, 1, 24.2851, 53.0747, -6.69583, 80.5775, -65.3338, 85.3289
2.107, 1, 24.3259, 53.0571, -6.72156, 80.6375, -65.2843, 85.1901
2.111, 1, 24.3667, 53.0395, -6.74727, 80.6975, -65.2348, 85.0515
2.116, 1, 24.4075, 53.0219, -6.77296, 80.7575, -65.1854, 84.9129
2.12, 1, 24.4482, 53.0043, -6.79862, 80.8175, -65.136, 84.7745
2.124, 1, 24.4889, 52.9867, -6.82427, 80.8773, -65.0866, 84.6361
2.127, 1, 24.5296, 52.9691, -6.8499, 80.9372, -65.0373, 84.4979
2.132, 1, 24.5702, 52.9516, -6.8755, 80.9969, -64.988, 84.3598
2.136, 1, 24.6108, 52.9341, -6.90109, 81.0567, -64.9388, 84.2218
2.14, 1, 24.6513, 52.9166, -6.92665, 81.1164, -64.8896, 84.0839
2.143, 1, 24.6919, 52.8991, -6.9522, 81.176, -64.8404, 83.9461
2.148, 1, 24.7324, 52.8816, -6.97772, 81.2356, -64.7913, 83.8084
2.152, 1, 24.7728, 52.8641, -7.00322, 81.2951, -64.7422, 83.6708
2.156, 1, 24.8133, 52.8466, -7.02871, 81.3546, -64.6932, 83.5334
2.16, 1, 24.8537, 52.8292, -7.05417, 81.4141, -64.6442, 83.396
2.163, 1, 24.894, 52.8118, -7.07961, 81.4735, -64.5952, 83.2588
2.168, 1, 24.9344, 52.7943, -7.10504, 81.5329, -64.5463, 83.1217
2.172, 1, 24.9747, 52.7769, -7.13044, 81.5922, -64.4974, 82.9846
2.176, 1, 25.0149, 52.7595, -7.15582, 81.6514, -64.4486, 82.8477
2.179, 1, 25.0552, 52.7422, -7.18118, 81.7106, -64.3997, 82.7109
2.184, 1, 25.0954, 52.7248, -7.20653, 81.7698, -64.351, 82.5742
2.188, 1, 25.1356, 52.7075, -7.23185, 81.8289, -64.3022, 82.4376
2.192, 1, 25.1757, 52.6901, -7.25715, 81.888, -64.2535, 82.3011
2.196, 1, 25.2158, 52.6728, -7.28244, 81.947, -64.2049, 82.1647
2.199, 1, 25.2559, 52.6555, -7.3077, 82.006, -64.1563, 82.0285
2.204, 1, 25.2959, 52.6382, -7.33295, 82.065, -64.1077, 81.8923
2.208, 1, 25.336, 52.6209, -7.35817, 82.1239, -64.0591, 81.7562
2.212, 1, 25.376, 52.6036, -7.38338, 82.1827, -64.0106, 81.6203
2.216, 1, 25.4159, 52.5864, -7.40856, 82.2415, -63.9622, 81.4844
2.219, 1, 25.4558, 52.5691, -7.43373, 82.3003, -63.9137, 81.3486
2.224, 1, 25.4957, 52.5519, -7.45887, 82.359, -63.8653, 81.213
2.228, 1, 25.5356, 52.5347, -7.484, 82.4176, -63.817, 81.0775
2.232, 1, 25.5754, 52.5175, -7.50911, 82.4763, -63.7687, 80.942
2.235, 1, 25.6152, 52.5003, -7.5342, 82.5348, -63.7204, 80.8067
2.24, 1, 25.655, 52.4831, -7.55926, 82.5934, -63.6721, 80.6715
2.244, 1, 25.6948, 52.466, -7.58431, 82.6519, -63.6239, 80.5364
2.248, 1, 25.7345, 52.4488, -7.60934, 82.7103, -63.5758, 80.4014
2.252, 1, 25.7742, 52.4317, -7.63436, 82.7687, -63.5276, 80.2664
2.255, 1, 25.8138, 52.4146, -7.65935, 82.827, -63.4795, 80.1316
2.259, 1, 25.8534, 52.3974, -7.68432, 82.8854, -63.4315, 79.9969
2.264, 1, 25.893, 52.3803, -7.70927, 82.9436, -63.3834, 79.8623
2.268, 1, 25.9326, 52.3633, -7.73421, 83.0018, -63.3355, 79.7278
2.272, 1, 25.9721, 52.3462, -7.75913, 83.06, -63.2875, 79.5934
2.275, 1, 26.0116, 52.3291, -7.78402, 83.1181, -63.2396, 79.4591
2.28, 1, 26.0511, 52.3121, -7.8089, 83.1762, -63.1917, 79.3249
2.284, 1, 26.0905, 52.2951, -7.83376, 83.2343, -63.1439, 79.1908
2.288, 1, 26.1299, 52.278, -7.8586, 83.2923, -63.0961, 79.0568
2.291, 1, 26.1693, 52.261, -7.88342, 83.3502, -63.0483, 78.9229
2.296, 1, 26.2087, 52.244, -7.90823, 83.4081, -63.0006, 78.7891
2.3, 1, 26.248, 52.2271, -7.93301, 83.466, -62.9529, 78.6555
2.304, 1, 26.2873, 52.2101, -7.95777, 83.5238, -62.9052, 78.5219
2.308, 1, 26.3265, 52.1931, -7.98252, 83.5816, -62.8576, 78.3884
2.311, 1, 26.3658, 52.1762, -8.00725, 83.6393, -62.81, 78.255
2.316, 1, 26.405, 52.1593, -8.03196, 83.697, -62.7624, 78.1217
2.32, 1, 26.4442, 52.1423, -8.05665, 83.7547, -62.7149, 77.9885
2.324, 1, 26.4833, 52.1254, -8.08132, 83.8123, -62.6674, 77.8554
2.328, 1, 26.5224, 52.1085, -8.10598, 83.8698, -62.62, 77.7224
2.331, 1, 26.5615, 52.0917, -8.13061, 83.9273, -62.5726, 77.5896
2.336, 1, 26.6006, 52.0748, -8.15523, 83.9848, -62.5252, 77.4568
2.34, 1, 26.6396, 52.0579, -8.17983, 84.0423, -62.4779, 77.3241
2.344, 1, 26.6786, 52.0411, -8.20441, 84.0996, -62.4305, 77.1915
2.347, 1, 26.7176, 52.0243, -8.22898, 84.157, -62.3833, 77.059
2.352, 1, 26.7565, 52.0075, -8.25352, 84.2143, -62.336, 76.9266
2.356, 1, 26.7954, 51.9907, -8.27805, 84.2716, -62.2888, 76.7943
2.36, 1, 26.8343, 51.9739, -8.30255, 84.3288, -62.2417, 76.6621
2.364, 1, 26.8731, 51.9571, -8.32704, 84.386, -62.1945, 76.53
2.367, 1, 26.912, 51.9403, -8.35152, 84.4431, -62.1474, 76.398
2.372, 1, 26.9508, 51.9236, -8.37597, 84.5002, -62.1004, 76.2661
2.376, 1, 26.9895, 51.9068, -8.40041, 84.5573, -62.0534, 76.1343
2.38, 1, 27.0283, 51.8901, -8.42482, 84.6143, -62.0064, 76.0025
2.383, 1, 27.067, 51.8734, -8.44923, 84.6712, -61.9594, 75.8709
2.388, 1, 27.1057, 51.8567, -8.47361, 84.7282, -61.9125, 75.7394
2.392, 1, 27.1443, 51.84, -8.49797, 84.785, -61.8656, 75.608
2.396, 1, 27.183, 51.8233, -8.52232, 84.8419, -61.8187, 75.4766
2.4, 1, 27.2216, 51.8066, -8.54665, 84.8987, -61.7719, 75.3454
2.403, 1, 27.2601, 51.79, -8.57096, 84.9554, -61.7251, 75.2143
2.408, 1, 27.2987, 51.7733, -8.59525, 85.0122, -61.6784, 75.0832
2.412, 1, 27.3372, 51.7567, -8.61953, 85.0688, -61.6317, 74.9523
2.416, 1, 27.3757, 51.7401, -8.64379, 85.1255, -61.585, 74.8214
2.42, 1, 27.4141, 51.7235, -8.66803, 85.1821, -61.5383, 74.6907
2.423, 1, 27.4526, 51.7069, -8.69225, 85.2386, -61.4917, 74.56
2.428, 1, 27.491, 51.6903, -8.71646, 85.2952, -61.4451, 74.4294
2.432, 1, 27.5294, 51.6737, -8.74065, 85.3516, -61.3986, 74.299
2.436, 1, 27.5677, 51.6571, -8.76482, 85.4081, -61.3521, 74.1686
2.439, 1, 27.606, 51.6406, -8.78897, 85.4645, -61.3056, 74.0383
2.444, 1, 27.6443, 51.6241, -8.81311, 85.5208, -61.2591, 73.9081
2.448, 1, 27.6826, 51.6075, -8.83723, 85.5771, -61.2127, 73.778
2.452, 1, 27.7208, 51.591, -8.86133, 85.6334, -61.1663, 73.648
2.456, 1, 27.759, 51.5745, -8.88541, 85.6896, -61.12, 73.5181
2.459, 1, 27.7972, 51.558, -8.90948, 85.7458, -61.0736, 73.3882
2.464, 1, 27.8354, 51.5415, -8.93353, 85.802, -61.0274, 73.2585
2.468, 1, 27.8735, 51.5251, -8.95756, 85.8581, -60.9811, 73.1289
2.472, 1, 27.9116, 51.5086, -8.98158, 85.9142, -60.9349, 72.9993
2.476, 1, 27.9497, 51.4922, -9.00558, 85.9702, -60.8887, 72.8699
2.479, 1, 27.9877, 51.4757, -9.02956, 86.0262, -60.8425, 72.7405
2.484, 1, 28.0258, 51.4593, -9.05353, 86.0821, -60.7964, 72.6112
2.488, 1, 28.0638, 51.4429, -9.07748, 86.1381, -60.7503, 72.482
2.492, 1, 28.1017, 51.4265, -9.10141, 86.1939, -60.7043, 72.353
2.495, 1, 28.1397, 51.4101, -9.12532, 86.2498, -60.6583, 72.224
2.5, 1, 28.1776, 51.3938, -9.14922, 86.3056, -60.6123, 72.0951
2.504, 1, 28.2155, 51.3774, -9.1731, 86.3613, -60.5663, 71.9662
2.508, 1, 28.2533, 51.361, -9.19697, 86.417, -60.5204, 71.8375
2.512, 1, 28.2912, 51.3447, -9.22081, 86.4727, -60.4745, 71.7089
2.515, 1, 28.329, 51.3284, -9.24465, 86.5284, -60.4286, 71.5803
2.52, 1, 28.3668, 51.3121, -9.26846, 86.584, -60.3828, 71.4519
2.524, 1, 28.4045, 51.2958, -9.29226, 86.6395, -60.337, 71.3235
2.528, 1, 28.4423, 51.2795, -9.31604, 86.6951, -60.2912, 71.1952
2.531, 1, 28.48, 51.2632, -9.33981, 86.7505, -60.2455, 71.067
2.536, 1, 28.5176, 51.2469, -9.36356, 86.806, -60.1998, 70.9389
2.54, 1, 28.5553, 51.2306, -9.38729, 86.8614, -60.1541, 70.8109
2.544, 1, 28.5929, 51.2144, -9.41101, 86.9168, -60.1085, 70.683
2.548, 1, 28.6305, 51.1982, -9.43471, 86.9721, -60.0628, 70.5551
2.551, 1, 28.6681, 51.1819, -9.45839, 87.0274, -60.0173, 70.4274
2.556, 1, 28.7057, 51.1657, -9.48206, 87.0827, -59.9717, 70.2997
2.56, 1, 28.7432, 51.1495, -9.50571, 87.1379, -59.9262, 70.1721
2.564, 1, 28.7807, 51.1333, -9.52934, 87.1931, -59.8807, 70.0446
2.568, 1, 28.8182, 51.1171, -9.55296, 87.2482, -59.8353, 69.9172
2.571, 1, 28.8556, 51.101, -9.57657, 87.3033, -59.7898, 69.7899
2.576, 1, 28.893, 51.0848, -9.60015, 87.3584, -59.7444, 69.6627
2.58, 1, 28.9304, 51.0687, -9.62372, 87.4134, -59.6991, 69.5355
2.584, 1, 28.9678, 51.0525, -9.64728, 87.4684, -59.6538, 69.4085
2.587, 1, 29.0051, 51.0364, -9.67082, 87.5234, -59.6085, 69.2815
2.592, 1, 29.0425, 51.0203, -9.69434, 87.5783, -59.5632, 69.1546
2.596, 1, 29.0798, 51.0042, -9.71785, 87.6332, -59.5179, 69.0278
2.6, 1, 29.117, 50.9881, -9.74134, 87.688, -59.4727, 68.9011
2.604, 1, 29.1543, 50.972, -9.76482, 87.7428, -59.4276, 68.7744
2.607, 1, 29.1915, 50.9559, -9.78828, 87.7976, -59.3824, 68.6479
2.612, 1, 29.2287, 50.9398, -9.81172, 87.8524, -59.3373, 68.5214
2.616, 1, 29.2659, 50.9238, -9.83515, 87.9071, -59.2922, 68.3951
2.62, 1, 29.303, 50.9078, -9.85856, 87.9617, -59.2471, 68.2688
2.624, 1, 29.3401, 50.8917, -9.88196, 88.0163, -59.2021, 68.1426
2.627, 1, 29.3772, 50.8757, -9.90534, 88.0709, -59.1571, 68.0164
2.632, 1, 29.4143, 50.8597, -9.92871, 88.1255, -59.1121, 67.8904
2.636, 1, 29.4513, 50.8437, -9.95206, 88.18, -59.0672, 67.7644
2.64, 1, 29.4884, 50.8277, -9.97539, 88.2345, -59.0223, 67.6386
2.643, 1, 29.5254, 50.8117, -9.99871, 88.2889, -58.9774, 67.5128
2.648, 1, 29.5623, 50.7958, -10.022, 88.3434, -58.9326, 67.3871
2.652, 1, 29.5993, 50.7798, -10.0453, 88.3977, -58.8877, 67.2614
2.656, 1, 29.6362, 50.7639, -10.0686, 88.4521, -58.843, 67.1359
2.66, 1, 29.6731, 50.7479, -10.0918, 88.5064, -58.7982, 67.0104
2.663, 1, 29.71, 50.732, -10.1151, 88.5606, -58.7535, 66.8851
2.668, 1, 29.7468, 50.7161, -10.1383, 88.6149, -58.7088, 66.7598
2.672, 1, 29.7837, 50.7002, -10.1615, 88.6691, -58.6641, 66.6346
2.676, 1, 29.8205, 50.6843, -10.1847, 88.7232, -58.6194, 66.5094
2.679, 1, 29.8573, 50.6684, -10.2079, 88.7774, -58.5748, 66.3844
2.684, 1, 29.894, 50.6525, -10.2311, 88.8314, -58.5302, 66.2594
2.688, 1, 29.9307, 50.6367, -10.2542, 88.8855, -58.4857, 66.1345
2.692, 1, 29.9675, 50.6208, -10.2774, 88.9395, -58.4412, 66.0097
2.696, 1, 30.0041, 50.605, -10.3005, 88.9935, -58.3967, 65.885
2.699, 1, 30.0408, 50.5891, -10.3236, 89.0475, -58.3522, 65.7604
2.704, 1, 30.0774, 50.5733, -10.3467, 89.1014, -58.3078, 65.6358
2.708, 1, 30.114, 50.5575, -10.3698, 89.1553, -58.2633, 65.5113
2.712, 1, 30.1506, 50.5417, -10.3928, 89.2091, -58.219, 65.3869
2.716, 1, 30.1872, 50.5259, -10.4159, 89.2629, -58.1746, 65.2626
2.719, 1, 30.2237, 50.5101, -10.4389, 89.3167, -58.1303, 65.1383
2.724, 1, 30.2603, 50.4944, -10.4619, 89.3704, -58.086, 65.0142
2.728, 1, 30.2968, 50.4786, -10.4849, 89.4241, -58.0417, 64.8901
2.732, 1, 30.3332, 50.4629, -10.5079, 89.4778, -57.9975, 64.7661
2.735, 1, 30.3697, 50.4471, -10.5309, 89.5314, -57.9533, 64.6422
2.74, 1, 30.4061, 50.4314, -10.5538, 89.5851, -57.9091, 64.5183
2.744, 1, 30.4425, 50.4157, -10.5768, 89.6386, -57.8649, 64.3946
2.748, 1, 30.4789, 50.4, -10.5997, 89.6922, -57.8208, 64.2709
2.752, 1, 30.5152, 50.3843, -10.6226, 89.7457, -57.7767, 64.1473
2.755, 1, 30.5516, 50.3686, -10.6455, 89.7991, -57.7326, 64.0237
2.76, 1, 30.5879, 50.3529, -10.6684, 89.8526, -57.6886, 63.9003
2.764, 1, 30.6242, 50.3372, -10.6913, 89.906, -57.6446, 63.7769
2.768, 1, 30.6604, 50.3215, -10.7141, 89.9593, -57.6006, 63.6536
2.772, 1, 30.6967, 50.3059, -10.737, 90.0127, -57.5566, 63.5304
2.775, 1, 30.7329, 50.2903, -10.7598, 90.066, -57.5127, 63.4072
2.78, 1, 30.7691, 50.2746, -10.7826, 90.1192, -57.4688, 63.2842
2.784, 1, 30.8053, 50.259, -10.8054, 90.1725, -57.4249, 63.1612
2.788, 1, 30.8414, 50.2434, -10.8282, 90.2257, -57.381, 63.0383
2.791, 1, 30.8775, 50.2278, -10.851, 90.2788, -57.3372, 62.9155
2.796, 1, 30.9137, 50.2122, -10.8737, 90.332, -57.2934, 62.7927
2.8, 1, 30.9497, 50.1966, -10.8965, 90.3851, -57.2496, 62.67
2.804, 1, 30.9858, 50.181, -10.9192, 90.4381, -57.2059, 62.5474
2.808, 1, 31.0218, 50.1655, -10.9419, 90.4912, -57.1622, 62.4249
2.811, 1, 31.0578, 50.1499, -10.9646, 90.5442, -57.1185, 62.3024
2.816, 1, 31.0938, 50.1344, -10.9873, 90.5971, -57.0748, 62.1801
2.82, 1, 31.1298, 50.1189, -11.01, 90.6501, -57.0312, 62.0578
2.824, 1, 31.1658, 50.1033, -11.0327, 90.703, -56.9876, 61.9356
2.828, 1, 31.2017, 50.0878, -11.0553, 90.7558, -56.944, 61.8134
2.831, 1, 31.2376, 50.0723, -11.0779, 90.8087, -56.9005, 61.6913
2.836, 1, 31.2735, 50.0568, -11.1005, 90.8615, -56.8569, 61.5693
2.84, 1, 31.3093, 50.0413, -11.1231, 90.9143, -56.8134, 61.4474
2.844, 1, 31.3452, 50.0258, -11.1457, 90.967, -56.77, 61.3256
2.847, 1, 31.381, 50.0104, -11.1683, 91.0197, -56.7265, 61.2038
2.852, 1, 31.4168, 49.9949, -11.1909, 91.0724, -56.6831, 61.0821
2.856, 1, 31.4526, 49.9795, -11.2134, 91.125, -56.6397, 60.9605
2.86, 1, 31.4883, 49.964, -11.236, 91.1776, -56.5963, 60.8389
2.864, 1, 31.524, 49.9486, -11.2585, 91.2302, -56.553, 60.7174
2.867, 1, 31.5597, 49.9332, -11.281, 91.2828, -56.5097, 60.596
2.872, 1, 31.5954, 49.9178, -11.3035, 91.3353, -56.4664, 60.4747
2.876, 1, 31.6311, 49.9024, -11.3259, 91.3878, -56.4231, 60.3535
2.88, 1, 31.6667, 49.887, -11.3484, 91.4402, -56.3799, 60.2323
2.883, 1, 31.7024, 49.8716, -11.3709, 91.4926, -56.3367, 60.1112
2.888, 1, 31.738, 49.8562, -11.3933, 91.545, -56.2935, 59.9901
2.892, 1, 31.7735, 49.8409, -11.4157, 91.5974, -56.2504, 59.8692
2.896, 1, 31.8091, 49.8255, -11.4381, 91.6497, -56.2072, 59.7483
2.9, 1, 31.8446, 49.8102, -11.4605, 91.702, -56.1641, 59.6275
2.903, 1, 31.8802, 49.7948, -11.4829, 91.7543, -56.121, 59.5067
2.908, 1, 31.9156, 49.7795, -11.5053, 91.8065, -56.078, 59.386
2.912, 1, 31.9511, 49.7642, -11.5277, 91.8587, -56.035, 59.2654
2.916, 1, 31.9866, 49.7489, -11.55, 91.9109, -55.992, 59.1449
2.92, 1, 32.022, 49.7336, -11.5723, 91.963, -55.949, 59.0244
2.923, 1, 32.0574, 49.7183, -11.5947, 92.0151, -55.906, 58.904
2.928, 1, 32.0928, 49.703, -11.617, 92.0672, -55.8631, 58.7837
2.932, 1, 32.1282, 49.6877, -11.6392, 92.1192, -55.8202, 58.6635
2.936, 1, 32.1635, 49.6724, -11.6615, 92.1713, -55.7773, 58.5433
2.939, 1, 32.1988, 49.6572, -11.6838, 92.2232, -55.7345, 58.4232
2.944, 1, 32.2341, 49.6419, -11.706, 92.2752, -55.6916, 58.3032
2.948, 1, 32.2694, 49.6267, -11.7283, 92.3271, -55.6488, 58.1832
2.952, 1, 32.3047, 49.6115, -11.7505, 92.379, -55.6061, 58.0633
2.956, 1, 32.3399, 49.5963, -11.7727, 92.4309, -55.5633, 57.9435
2.959, 1, 32.3752, 49.581, -11.7949, 92.4827, -55.5206, 57.8237
2.964, 1, 32.4104, 49.5658, -11.8171, 92.5345, -55.4779, 57.704
2.968, 1, 32.4455, 49.5506, -11.8393, 92.5863, -55.4352, 57.5844
2.972, 1, 32.4807, 49.5355, -11.8615, 92.638, -55.3926, 57.4649
2.976, 1, 32.5159, 49.5203, -11.8836, 92.6898, -55.3499, 57.3454
2.98, 1, 32.551, 49.5051, -11.9057, 92.7414, -55.3073, 57.226
2.984, 1, 32.5861, 49.49, -11.9279, 92.7931, -55.2648, 57.1066
2.988, 1, 32.6212, 49.4748, -11.95, 92.8447, -55.2222, 56.9874
2.992, 1, 32.6562, 49.4597, -11.9721, 92.8963, -55.1797, 56.8682
2.995, 1, 32.6913, 49.4445, -11.9942, 92.9479, -55.1372, 56.749
3, 1, 32.7263, 49.4294, -12.0162, 92.9994, -55.0947, 56.63
3.004, 1, 32.7613, 49.4143, -12.0383, 93.0509, -55.0522, 56.511
3.008, 1, 32.7963, 49.3992, -12.0603, 93.1024, -55.0098, 56.392
3.012, 1, 32.8312, 49.3841, -12.0824, 93.1539, -54.9674, 56.2732
3.015, 1, 32.8662, 49.369, -12.1044, 93.2053, -54.925, 56.1544
3.02, 1, 32.9011, 49.3539, -12.1264, 93.2567, -54.8826, 56.0356
3.024, 1, 32.936, 49.3389, -12.1484, 93.308, -54.8403, 55.917
3.028, 1, 32.9709, 49.3238, -12.1704, 93.3594, -54.798, 55.7984
3.031, 1, 33.0057, 49.3087, -12.1924, 93.4107, -54.7557, 55.6799
3.036, 1, 33.0406, 49.2937, -12.2143, 93.4619, -54.7135, 55.5614
3.04, 1, 33.0754, 49.2786, -12.2363, 93.5132, -54.6712, 55.443
3.044, 1, 33.1102, 49.2636, -12.2582, 93.5644, -54.629, 55.3247
3.048, 1, 33.145, 49.2486, -12.2801, 93.6156, -54.5868, 55.2064
3.051, 1, 33.1797, 49.2336, -12.302, 93.6667, -54.5446, 55.0882
3.056, 1, 33.2145, 49.2186, -12.3239, 93.7179, -54.5025, 54.9701
3.06, 1, 33.2492, 49.2036, -12.3458, 93.769, -54.4604, 54.852
3.064, 1, 33.2839, 49.1886, -12.3677, 93.82, -54.4183, 54.7341
3.068, 1, 33.3186, 49.1736, -12.3896, 93.8711, -54.3762, 54.6161
3.071, 1, 33.3533, 49.1586, -12.4114, 93.9221, -54.3341, 54.4983
3.076, 1, 33.3879, 49.1437, -12.4333, 93.9731, -54.2921, 54.3805
3.08, 1, 33.4225, 49.1287, -12.4551, 94.0241, -54.2501, 54.2627
3.084, 1, 33.4571, 49.1138, -12.4769, 94.075, -54.2081, 54.1451
3.087, 1, 33.4917, 49.0988, -12.4987, 94.1259, -54.1662, 54.0275
3.092, 1, 33.5263, 49.0839, -12.5205, 94.1768, -54.1242, 53.9099
3.096, 1, 33.5609, 49.069, -12.5423, 94.2276, -54.0823, 53.7924
3.1, 1, 33.5954, 49.0541, -12.564, 94.2784, -54.0404, 53.675
3.104, 1, 33.6299, 49.0392, -12.5858, 94.3292, -53.9986, 53.5577
3.107, 1, 33.6644, 49.0243, -12.6075, 94.38, -53.9567, 53.4404
3.112, 1, 33.6989, 49.0094, -12.6293, 94.4307, -53.9149, 53.3232
3.116, 1, 33.7333, 48.9945, -12.651, 94.4814, -53.8731, 53.206
3.12, 1, 33.7678, 48.9796, -12.6727, 94.5321, -53.8313, 53.089
3.124, 1, 33.8022, 48.9648, -12.6944, 94.5828, -53.7896, 52.9719
3.128, 1, 33.8366, 48.9499, -12.7161, 94.6334, -53.7479, 52.855
3.132, 1, 33.871, 48.9351, -12.7377, 94.684, -53.7062, 52.7381
3.136, 1, 33.9053, 48.9202, -12.7594, 94.7346, -53.6645, 52.6212
3.14, 1, 33.9397, 48.9054, -12.781, 94.7851, -53.6228, 52.5045
3.143, 1, 33.974, 48.8906, -12.8027, 94.8356, -53.5812, 52.3878
3.148, 1, 34.0083, 48.8758, -12.8243, 94.8861, -53.5396, 52.2711
3.152, 1, 34.0426, 48.861, -12.8459, 94.9366, -53.498, 52.1545
3.156, 1, 34.0769, 48.8462, -12.8675, 94.987, -53.4564, 52.038
3.16, 1, 34.1111, 48.8314, -12.8891, 95.0374, -53.4148, 51.9216
3.163, 1, 34.1454, 48.8166, -12.9107, 95.0878, -53.3733, 51.8052
3.168, 1, 34.1796, 48.8018, -12.9322, 95.1381, -53.3318, 51.6888
3.172, 1, 34.2138, 48.787, -12.9538, 95.1885, -53.2903, 51.5726
3.176, 1, 34.2479, 48.7723, -12.9753, 95.2387, -53.2489, 51.4564
3.179, 1, 34.2821, 48.7575, -12.9969, 95.289, -53.2074, 51.3402
3.184, 1, 34.3162, 48.7428, -13.0184, 95.3393, -53.166, 51.2241
3.188, 1, 34.3504, 48.728, -13.0399, 95.3895, -53.1246, 51.1081
3.192, 1, 34.3845, 48.7133, -13.0614, 95.4397, -53.0833, 50.9922
3.196, 1, 34.4186, 48.6986, -13.0829, 95.4898, -53.0419, 50.8763
3.199, 1, 34.4526, 48.6839, -13.1044, 95.54, -53.0006, 50.7604
3.204, 1, 34.4867, 48.6692, -13.1258, 95.5901, -52.9593, 50.6446
3.208, 1, 34.5207, 48.6545, -13.1473, 95.6402, -52.918, 50.5289
3.212, 1, 34.5547, 48.6398, -13.1687, 95.6902, -52.8767, 50.4133
3.216, 1, 34.5887, 48.6251, -13.1901, 95.7403, -52.8355, 50.2977
3.22, 1, 34.6227, 48.6104, -13.2116, 95.7903, -52.7943, 50.1821
3.224, 1, 34.6567, 48.5958, -13.233, 95.8403, -52.7531, 50.0667
3.228, 1, 34.6906, 48.5811, -13.2544, 95.8902, -52.7119, 49.9513
3.232, 1, 34.7246, 48.5664, -13.2758, 95.9401, -52.6707, 49.8359
3.235, 1, 34.7585, 48.5518, -13.2971, 95.99, -52.6296, 49.7206
3.24, 1, 34.7924, 48.5372, -13.3185, 96.0399, -52.5885, 49.6054
3.244, 1, 34.8262, 48.5225, -13.3398, 96.0898, -52.5474, 49.4902
3.248, 1, 34.8601, 48.5079, -13.3612, 96.1396, -52.5063, 49.3751
3.252, 1, 34.8939, 48.4933, -13.3825, 96.1894, -52.4653, 49.26
3.255, 1, 34.9278, 48.4787, -13.4038, 96.2392, -52.4243, 49.1451
3.26, 1, 34.9616, 48.4641, -13.4251, 96.2889, -52.3832, 49.0301
3.264, 1, 34.9953, 48.4495, -13.4464, 96.3386, -52.3423, 48.9152
3.268, 1, 35.0291, 48.4349, -13.4677, 96.3883, -52.3013, 48.8004
3.272, 1, 35.0629, 48.4203, -13.489, 96.438, -52.2604, 48.6857
3.276, 1, 35.0966, 48.4058, -13.5103, 96.4877, -52.2194, 48.571
3.28, 1, 35.1303, 48.3912, -13.5315, 96.5373, -52.1785, 48.4563
3.284, 1, 35.164, 48.3767, -13.5527, 96.5869, -52.1376, 48.3417
3.288, 1, 35.1976, 48.3622, -13.574, 96.6364, -52.0968, 48.2272
3.291, 1, 35.2309, 48.3477, -13.5952, 96.686, -52.056, 48.1128
3.296, 1, 35.264, 48.3334, -13.6165, 96.7355, -52.0152, 47.9984
3.3, 1, 35.2966, 48.3192, -13.6377, 96.7849, -51.9744, 47.8842
3.304, 1, 35.3289, 48.3053, -13.659, 96.8343, -51.9338, 47.7701
3.308, 1, 35.3606, 48.2915, -13.6802, 96.8835, -51.8932, 47.6564
3.312, 1, 35.3919, 48.278, -13.7014, 96.9325, -51.8528, 47.5431
3.316, 1, 35.4226, 48.2649, -13.7226, 96.9812, -51.8127, 47.4305
3.32, 1, 35.4526, 48.2521, -13.7437, 97.0296, -51.7729, 47.3187
3.324, 1, 35.4817, 48.2398, -13.7646, 97.0774, -51.7335, 47.208
3.328, 1, 35.5098, 48.2281, -13.7854, 97.1246, -51.6947, 47.099
3.332, 1, 35.5369, 48.2169, -13.8059, 97.1709, -51.6566, 46.9919
3.336, 1, 35.5628, 48.2063, -13.826, 97.2161, -51.6194, 46.8874
3.34, 1, 35.5877, 48.1962, -13.8455, 97.2599, -51.5834, 46.786
3.344, 1, 35.6116, 48.1866, -13.8644, 97.3021, -51.5487, 46.6884
3.347, 1, 35.6345, 48.1773, -13.8824, 97.3424, -51.5156, 46.5952
3.352, 1, 35.6564, 48.1684, -13.8994, 97.3805, -51.4843, 46.507
3.356, 1, 35.6772, 48.1599, -13.9152, 97.4163, -51.4549, 46.4243
3.36, 1, 35.6969, 48.1518, -13.9299, 97.4494, -51.4276, 46.3475
3.364, 1, 35.7154, 48.1441, -13.9433, 97.4799, -51.4025, 46.2771
3.368, 1, 35.7329, 48.1367, -13.9553, 97.5075, -51.3798, 46.2134
3.372, 1, 35.7495, 48.1296, -13.9659, 97.5321, -51.3595, 46.1565
3.376, 1, 35.7653, 48.1226, -13.9751, 97.5538, -51.3416, 46.1063
3.38, 1, 35.7803, 48.1158, -13.9828, 97.5727, -51.326, 46.0628
3.383, 1, 35.7945, 48.1093, -13.9892, 97.5888, -51.3127, 46.0257
3.388, 1, 35.8076, 48.1031, -13.9943, 97.6023, -51.3014, 45.9946
3.392, 1, 35.8196, 48.0973, -13.9984, 97.6135, -51.2921, 45.9688
3.396, 2, 35.8303, 48.0921, -14.0016, 97.6226, -51.2845, 45.9479
3.4, 2, 35.8398, 48.0874, -14.004, 97.6299, -51.2784, 45.9312
3.403, 2, 35.8483, 48.0832, -14.0057, 97.6356, -51.2737, 45.9182
3.408, 2, 35.8559, 48.0794, -14.0069, 97.6399, -51.27, 45.9083
3.412, 2, 35.8627, 48.0762, -14.0077, 97.6432, -51.2672, 45.9009
3.416, 2, 35.8686, 48.0734, -14.0081, 97.6456, -51.2652, 45.8955
3.42, 2, 35.8736, 48.071, -14.0084, 97.6473, -51.2637, 45.8916
3.424, 2, 35.8777, 48.0691, -14.0085, 97.6485, -51.2627, 45.889
3.428, 2, 35.8809, 48.0677, -14.0086, 97.6493, -51.262, 45.8871
3.432, 2, 35.8832, 48.0667, -14.0086, 97.6498, -51.2615, 45.8858
3.436, 2, 35.8849, 48.066, -14.0086, 97.6502, -51.2612, 45.885
3.439, 2, 35.886, 48.0655, -14.0086, 97.6505, -51.2609, 45.8844
3.444, 2, 35.8868, 48.0651, -14.0086, 97.6507, -51.2608, 45.884
3.448, 2, 35.8873, 48.0649, -14.0086, 97.6508, -51.2607, 45.8837
3.452, 2, 35.8877, 48.0648, -14.0086, 97.6509, -51.2606, 45.8836
3.456, 2, 35.8879, 48.0647, -14.0086, 97.6509, -51.2606, 45.8834
3.46, 2, 35.8881, 48.0646, -14.0086, 97.6509, -51.2605, 45.8834
3.464, 2, 35.8882, 48.0645, -14.0086, 97.651, -51.2605, 45.8833
3.468, 2, 35.8883, 48.0645, -14.0086, 97.651, -51.2605, 45.8833
3.472, 2, 35.8883, 48.0645, -14.0086, 97.651, -51.2605, 45.8832
3.476, 2, 35.8883, 48.0645, -14.0086, 97.651, -51.2605, 45.8832
3.48, 2, 35.8884, 48.0645, -14.0086, 97.651, -51.2605, 45.8832
3.484, 2, 35.8884, 48.0645, -14.0086, 97.651, -51.2605, 45.8832
3.488, 2, 35.8884, 48.0645, -14.0086, 97.651, -51.2605, 45.8832
3.492, 2, 35.8884, 48.0645, -14.0086, 97.651, -51.2605, 45.8832
3.495, 2, 35.8884, 48.0644, -14.0086, 97.651, -51.2605, 45.8832
3.5, 2, 35.8884, 48.0644, -14.0086, 97.651, -51.2605, 45.8832
3.504, 2, 35.8884, 48.0644, -14.0086, 97.651, -51.2605, 45.8832
3.508, 2, 35.8884, 48.0644, -14.0086, 97.651, -51.2605, 45.8832
3.512, 2, 35.8884, 48.0644, -14.0086, 97.651, -51.2605, 45.8832
3.516, 2, 35.8884, 48.0644, -14.0086, 97.651, -51.2605, 45.8832
3.52, 2, 35.8884, 48.0644, -14.0086, 97.651, -51.2605, 45.8832
3.524, 2, 35.8884, 48.0644, -14.0086, 97.651, -51.2605, 45.8832
3.528, 2, 35.8884, 48.0644, -14.0086, 97.651, -51.2605, 45.8832
3.531, 2, 35.8884, 48.0644, -14.0086, 97.651, -51.2605, 45.8832
3.536, 2, 35.8884, 48.0644, -14.0086, 97.651, -51.2605, 45.8832
3.54, 2, 35.8884, 48.0644, -14.0086, 97.651, -51.2605, 45.8832
3.544, 2, 35.8884, 48.0644, -14.0086, 97.651, -51.2605, 45.8832
3.548, 2, 35.8884, 48.0644, -14.0086, 97.651, -51.2605, 45.8832
3.552, 2, 35.8884, 48.0644, -14.0086, 97.651, -51.2605, 45.8832
3.556, 2, 35.8884, 48.0644, -14.0086, 97.651, -51.2605, 45.8832
3.56, 2, 35.8884, 48.0644, -14.0086, 97.651, -51.2605, 45.8832
3.564, 2, 35.8884, 48.0644, -14.0086, 97.651, -51.2605, 45.8832
3.568, 2, 35.8884, 48.0644, -14.0086, 97.651, -51.2605, 45.8832
3.572, 2, 35.8884, 48.0644, -14.0086, 97.651, -51.2605, 45.8832
3.576, 2, 35.8884, 48.0644, -14.0086, 97.651, -51.2605, 45.8832
3.58, 2, 35.8884, 48.0644, -14.0086, 97.651, -51.2605, 45.8832
3.584, 2, 35.8884, 48.0644, -14.0086, 97.651, -51.2605, 45.8832
3.587, 2, 35.8884, 48.0644, -14.0086, 97.651, -51.2605, 45.8832
3.592, 2, 35.8884, 48.0644, -14.0086, 97.651, -51.2605, 45.8832
3.596, 2, 35.8884, 48.0644, -14.0086, 97.651, -51.2605, 45.8832
3.6, 2, 35.8884, 48.0644, -14.0086, 97.651, -51.2605, 45.8832
3.604, 2, 35.8884, 48.0644, -14.0086, 97.651, -51.2605, 45.8832
3.608, 2, 35.8884, 48.0644, -14.0086, 97.651, -51.2605, 45.8832
3.612, 2, 35.8884, 48.0644, -14.0086, 97.651, -51.2605, 45.8832
3.616, 2, 35.8884, 48.0644, -14.0086, 97.651, -51.2605, 45.8832
3.62, 2, 35.8884, 48.0644, -14.0086, 97.651, -51.2605, 45.8832
3.624, 2, 35.8884, 48.0644, -14.0086, 97.651, -51.2605, 45.8832
3.628, 2, 35.8884, 48.0644, -14.0086, 97.651, -51.2605, 45.8832
3.632, 2, 35.8884, 48.0644, -14.0086, 97.651, -51.2605, 45.8832
3.636, 2, 35.8884, 48.0644, -14.0086, 97.651, -51.2605, 45.8832
3.64, 2, 35.8884, 48.0644, -14.0086, 97.651, -51.2605, 45.8832
3.644, 2, 35.8884, 48.0644, -14.0086, 97.651, -51.2605, 45.8832
3.648, 2, 35.8884, 48.0644, -14.0086, 97.651, -51.2605, 45.8832
3.652, 2, 35.8884, 48.0644, -14.0086, 97.651, -51.2605, 45.8832
3.656, 2, 35.8884, 48.0644, -14.0086, 97.651, -51.2605, 45.8832
3.66, 2, 35.8884, 48.0644, -14.0086, 97.651, -51.2605, 45.8832
3.664, 2, 35.8884, 48.0644, -14.0086, 97.651, -51.2605, 45.8832
3.668, 2, 35.8884, 48.0644, -14.0086, 97.651, -51.2605, 45.8832
3.672, 2, 35.8884, 48.0644, -14.0086, 97.651, -51.2605, 45.8832
3.676, 2, 35.8884, 48.0644, -14.0086, 97.651, -51.2605, 45.8832
3.679, 2, 35.8884, 48.0644, -14.0086, 97.651, -51.2605, 45.8832
3.684, 2, 35.8884, 48.0644, -14.0086, 97.651, -51.2605, 45.8832
3.688, 2, 35.8884, 48.0644, -14.0086, 97.651, -51.2605, 45.8832
3.692, 2, 35.8884, 48.0644, -14.0086, 97.651, -51.2605, 45.8832
3.696, 2, 35.8884, 48.0644, -14.0086, 97.651, -51.2605, 45.8832
3.7, 2, 35.8884, 48.0644, -14.0086, 97.651, -51.2605, 45.8832
3.704, 2, 35.8884, 48.0644, -14.0086, 97.651, -51.2605, 45.8832
3.708, 2, 35.8884, 48.0644, -14.0086, 97.651, -51.2605, 45.8832
3.712, 2, 35.8884, 48.0644, -14.0086, 97.651, -51.2605, 45.8832
3.716, 2, 35.8884, 48.0644, -14.0086, 97.651, -51.2605, 45.8832
3.72, 2, 35.8884, 48.0644, -14.0086, 97.651, -51.2605, 45.8832
3.724, 2, 35.8884, 48.0644, -14.0086, 97.651, -51.2605, 45.8832
3.728, 2, 35.8884, 48.0644, -14.0086, 97.651, -51.2605, 45.8832
3.732, 2, 35.8884, 48.0644, -14.0086, 97.651, -51.2605, 45.8832
3.735, 2, 35.8884, 48.0644, -14.0086, 97.651, -51.2605, 45.8832
3.74, 2, 35.8884, 48.0644, -14.0086, 97.651, -51.2605, 45.8832
3.744, 2, 35.8884, 48.0644, -14.0086, 97.651, -51.2605, 45.8832
3.748, 2, 35.8884, 48.0644, -14.0086, 97.651, -51.2605, 45.8832
3.752, 2, 35.8884, 48.0644, -14.0086, 97.651, -51.2605, 45.8832
3.756, 2, 35.8884, 48.0644, -14.0086, 97.651, -51.2605, 45.8832
3.76, 2, 35.8884, 48.0644, -14.0086, 97.651, -51.2605, 45.8832
3.764, 2, 35.8884, 48.0644, -14.0086, 97.651, -51.2605, 45.8832
3.768, 2, 35.8884, 48.0644, -14.0086, 97.651, -51.2605, 45.8832
3.772, 2, 35.8884, 48.0644, -14.0086, 97.651, -51.2605, 45.8832
3.776, 2, 35.8884, 48.0644, -14.0086, 97.651, -51.2605, 45.8832
3.78, 2, 35.8884, 48.0644, -14.0086, 97.651, -51.2605, 45.8832
3.784, 2, 35.8884, 48.0644, -14.0086, 97.651, -51.2605, 45.8832
3.788, 2, 35.8884, 48.0644, -14.0086, 97.651, -51.2605, 45.8832
3.792, 2, 35.8884, 48.0644, -14.0086, 97.651, -51.2605, 45.8832
3.796, 2, 35.8884, 48.0644, -14.0086, 97.651, -51.2605, 45.8832
3.8, 2, 35.8884, 48.0644, -14.0086, 97.651, -51.2605, 45.8832
3.804, 2, 35.8884, 48.0644, -14.0086, 97.651, -51.2605, 45.8832
3.808, 2, 35.8884, 48.0644, -14.0086, 97.651, -51.2605, 45.8832
3.812, 2, 35.8884, 48.0644, -14.0086, 97.651, -51.2605, 45.8832
3.816, 2, 35.8884, 48.0644, -14.0086, 97.651, -51.2605, 45.8832
3.82, 2, 35.8884, 48.0644, -14.0086, 97.651, -51.2605, 45.8832
3.824, 2, 35.8884, 48.0644, -14.0086, 97.651, -51.2605, 45.8832
3.828, 2, 35.8884, 48.0644, -14.0086, 97.651, -51.2605, 45.8832
3.832, 2, 35.8884, 48.0644, -14.0086, 97.651, -51.2605, 45.8832
3.836, 2, 35.8884, 48.0644, -14.0086, 97.651, -51.2605, 45.8832
3.84, 2, 35.8884, 48.0644, -14.0086, 97.651, -51.2605, 45.8832
3.844, 2, 35.8884, 48.0644, -14.0086, 97.651, -51.2605, 45.8832
3.848, 2, 35.8884, 48.0644, -14.0086, 97.651, -51.2605, 45.8832
3.852, 2, 35.8884, 48.0644, -14.0086, 97.651, -51.2605, 45.8832
3.856, 2, 35.8884, 48.0644, -14.0086, 97.651, -51.2605, 45.8832
3.86, 2, 35.8884, 48.0644, -14.0086, 97.651, -51.2605, 45.8832
3.864, 2, 35.8884, 48.0644, -14.0086, 97.651, -51.2605, 45.8832
3.868, 2, 35.8884, 48.0644, -14.0086, 97.651, -51.2605, 45.8832
3.872, 2, 35.8884, 48.0644, -14.0086, 97.651, -51.2605, 45.8832
3.876, 2, 35.8884, 48.0644, -14.0086, 97.651, -51.2605, 45.8832
3.88, 2, 35.8884, 48.0644, -14.0086, 97.651, -51.2605, 45.8832
3.884, 2, 35.8884, 48.0644, -14.0086, 97.651, -51.2605, 45.8832
3.888, 2, 35.8884, 48.0644, -14.0086, 97.651, -51.2605, 45.8832
3.892, 2, 35.8884, 48.0644, -14.0086, 97.651, -51.2605, 45.8832
3.896, 2, 35.8884, 48.0644, -14.0086, 97.651, -51.2605, 45.8832
3.9, 2, 35.8884, 48.0644, -14.0086, 97.651, -51.2605, 45.8832
3.904, 2, 35.8884, 48.0644, -14.0086, 97.651, -51.2605, 45.8832
3.908, 2, 35.8884, 48.0644, -14.0086, 97.651, -51.2605, 45.8832
3.912, 2, 35.8884, 48.0644, -14.0086, 97.651, -51.2605, 45.8832
3.916, 2, 35.8884, 48.0644, -14.0086, 97.651, -51.2605, 45.8832
3.92, 2, 35.8884, 48.0644, -14.0086, 97.651, -51.2605, 45.8832
3.924, 2, 35.8884, 48.0644, -14.0086, 97.651, -51.2605, 45.8832
3.928, 2, 35.8884, 48.0644, -14.0086, 97.651, -51.2605, 45.8832
3.932, 2, 35.8884, 48.0644, -14.0086, 97.651, -51.2605, 45.8832
3.936, 2, 35.8884, 48.0644, -14.0086, 97.651, -51.2605, 45.8832
3.94, 2, 35.8884, 48.0644, -14.0086, 97.651, -51.2605, 45.8832
3.944, 2, 35.8884, 48.0644, -14.0086, 97.651, -51.2605, 45.8832
3.948, 2, 35.8884, 48.0644, -14.0086, 97.651, -51.2605, 45.8832
3.952, 2, 35.8884, 48.0644, -14.0086, 97.651, -51.2605, 45.8832
3.956, 2, 35.8884, 48.0644, -14.0086, 97.651, -51.2605, 45.8832
3.96, 2, 35.8884, 48.0644, -14.0086, 97.651, -51.2605, 45.8832
3.964, 2, 35.8884, 48.0644, -14.0086, 97.651, -51.2605, 45.8832
3.968, 2, 35.8884, 48.0644, -14.0086, 97.651, -51.2605, 45.8832
3.972, 2, 35.8884, 48.0644, -14.0086, 97.651, -51.2605, 45.8832
3.976, 2, 35.8884, 48.0644, -14.0086, 97.651, -51.2605, 45.8832
3.98, 2, 35.8884, 48.0644, -14.0086, 97.651, -51.2605, 45.8832
3.984, 2, 35.8884, 48.0644, -14.0086, 97.651, -51.2605, 45.8832
3.988, 2, 35.8884, 48.0644, -14.0086, 97.651, -51.2605, 45.8832
3.992, 2, 35.8884, 48.0644, -14.0086, 97.651, -51.2605, 45.8832
3.996, 2, 35.8884, 48.0644, -14.0086, 97.651, -51.2605, 45.8832
3.999, 2, 35.8884, 48.0644, -14.0086, 97.651, -51.2605, 45.8832
4.004, 2, 35.8884, 48.0644, -14.0086, 97.651, -51.2605, 45.8832
4.008, 2, 35.8884, 48.0644, -14.0086, 97.651, -51.2605, 45.8832
4.012, 2, 35.8884, 48.0644, -14.0086, 97.651, -51.2605, 45.8832
4.016, 2, 35.8884, 48.0644, -14.0086, 97.651, -51.2605, 45.8832
4.02, 2, 35.8884, 48.0644, -14.0086, 97.651, -51.2605, 45.8832
4.024, 2, 35.8884, 48.0644, -14.0086, 97.651, -51.2605, 45.8832
4.028, 2, 35.8884, 48.0644, -14.0086, 97.651, -51.2605, 45.8832
4.032, 2, 35.8884, 48.0644, -14.0086, 97.651, -51.2605, 45.8832
4.036, 2, 35.8884, 48.0644, -14.0086, 97.651, -51.2605, 45.8832
4.04, 2, 35.8884, 48.0644, -14.0086, 97.651, -51.2605, 45.8832
4.044, 2, 35.8884, 48.0644, -14.0086, 97.651, -51.2605, 45.8832
4.048, 2, 35.8884, 48.0644, -14.0086, 97.651, -51.2605, 45.8832
4.052, 2, 35.8884, 48.0644, -14.0086, 97.651, -51.2605, 45.8832
4.056, 2, 35.8884, 48.0644, -14.0086, 97.651, -51.2605, 45.8832
4.06, 2, 35.8884, 48.0644, -14.0086, 97.651, -51.2605, 45.8832
4.064, 2, 35.8884, 48.0644, -14.0086, 97.651, -51.2605, 45.8832
4.068, 2, 35.8884, 48.0644, -14.0086, 97.651, -51.2605, 45.8832
4.072, 2, 35.8884, 48.0644, -14.0086, 97.651, -51.2605, 45.8832
4.076, 2, 35.8884, 48.0644, -14.0086, 97.651, -51.2605, 45.8832
4.08, 2, 35.8884, 48.0644, -14.0086, 97.651, -51.2605, 45.8832
4.084, 2, 35.8884, 48.0644, -14.0086, 97.651, -51.2605, 45.8832
4.088, 2, 35.8884, 48.0644, -14.0086, 97.651, -51.2605, 45.8832
4.092, 2, 35.8884, 48.0644, -14.0086, 97.651, -51.2605, 45.8832
4.096, 2, 35.8884, 48.0644, -14.0086, 97.651, -51.2605, 45.8832
4.1, 2, 35.8884, 48.0644, -14.0086, 97.651, -51.2605, 45.8832
4.104, 2, 35.8884, 48.0644, -14.0086, 97.651, -51.2605, 45.8832
4.108, 2, 35.8884, 48.0644, -14.0086, 97.651, -51.2605, 45.8832
4.112, 2, 35.8884, 48.0644, -14.0086, 97.651, -51.2605, 45.8832
4.116, 2, 35.8884, 48.0644, -14.0086, 97.651, -51.2605, 45.8832
4.12, 2, 35.8884, 48.0644, -14.0086, 97.651, -51.2605, 45.8832
4.124, 2, 35.8884, 48.0644, -14.0086, 97.651, -51.2605, 45.8832
4.128, 2, 35.8884, 48.0644, -14.0086, 97.651, -51.2605, 45.8832
4.132, 2, 35.8884, 48.0644, -14.0086, 97.651, -51.2605, 45.8832
4.136, 2, 35.8884, 48.0644, -14.0086, 97.651, -51.2605, 45.8832
4.14, 2, 35.8884, 48.0644, -14.0086, 97.651, -51.2605, 45.8832
4.144, 2, 35.8884, 48.0644, -14.0086, 97.651, -51.2605, 45.8832
4.148, 2, 35.8884, 48.0644, -14.0086, 97.651, -51.2605, 45.8832
4.152, 2, 35.8884, 48.0644, -14.0086, 97.651, -51.2605, 45.8832
4.156, 2, 35.8884, 48.0644, -14.0086, 97.651, -51.2605, 45.8832
4.16, 2, 35.8884, 48.0644, -14.0086, 97.651, -51.2605, 45.8832
4.164, 2, 35.8884, 48.0644, -14.0086, 97.651, -51.2605, 45.8832
4.168, 2, 35.8884, 48.0644, -14.0086, 97.651, -51.2605, 45.8832
4.172, 2, 35.8884, 48.0644, -14.0086, 97.651, -51.2605, 45.8832
4.176, 2, 35.8884, 48.0644, -14.0086, 97.651, -51.2605, 45.8832
4.18, 2, 35.8884, 48.0644, -14.0086, 97.651, -51.2605, 45.8832
4.184, 2, 35.8884, 48.0644, -14.0086, 97.651, -51.2605, 45.8832
4.188, 2, 35.8884, 48.0644, -14.0086, 97.651, -51.2605, 45.8832
4.192, 2, 35.8884, 48.0644, -14.0086, 97.651, -51.2605, 45.8832
4.196, 2, 35.8884, 48.0644, -14.0086, 97.651, -51.2605, 45.8832
4.2, 2, 35.8884, 48.0644, -14.0086, 97.651, -51.2605, 45.8832
4.204, 2, 35.8884, 48.0644, -14.0086, 97.651, -51.2605, 45.8832
4.208, 2, 35.8884, 48.0644, -14.0086, 97.651, -51.2605, 45.8832
4.212, 2, 35.8884, 48.0644, -14.0086, 97.651, -51.2605, 45.8832
4.216, 2, 35.8884, 48.0644, -14.0086, 97.651, -51.2605, 45.8832
4.22, 2, 35.8884, 48.0644, -14.0086, 97.651, -51.2605, 45.8832
4.224, 2, 35.8884, 48.0644, -14.0086, 97.651, -51.2605, 45.8832
4.228, 2, 35.8884, 48.0644, -14.0086, 97.651, -51.2605, 45.8832
4.232, 2, 35.8884, 48.0644, -14.0086, 97.651, -51.2605, 45.8832
4.236, 2, 35.8884, 48.0644, -14.0086, 97.651, -51.2605, 45.8832
4.24, 2, 35.8884, 48.0644, -14.0086, 97.651, -51.2605, 45.8832
4.244, 2, 35.8884, 48.0644, -14.0086, 97.651, -51.2605, 45.8832
4.248, 2, 35.8884, 48.0644, -14.0086, 97.651, -51.2605, 45.8832
4.252, 2, 35.8884, 48.0644, -14.0086, 97.651, -51.2605, 45.8832
4.256, 2, 35.8884, 48.0644, -14.0086, 97.651, -51.2605, 45.8832
4.26, 2, 35.8884, 48.0644, -14.0086, 97.651, -51.2605, 45.8832
4.264, 2, 35.8884, 48.0644, -14.0086, 97.651, -51.2605, 45.8832
4.268, 2, 35.8884, 48.0644, -14.0086, 97.651, -51.2605, 45.8832
4.272, 2, 35.8884, 48.0644, -14.0086, 97.651, -51.2605, 45.8832
4.276, 2, 35.8884, 48.0644, -14.0086, 97.651, -51.2605, 45.8832
4.28, 2, 35.8884, 48.0644, -14.0086, 97.651, -51.2605, 45.8832
4.284, 2, 35.8884, 48.0644, -14.0086, 97.651, -51.2605, 45.8832
4.288, 2, 35.8884, 48.0644, -14.0086, 97.651, -51.2605, 45.8832
4.292, 2, 35.8884, 48.0644, -14.0086, 97.651, -51.2605, 45.8832
4.296, 2, 35.8884, 48.0644, -14.0086, 97.651, -51.2605, 45.8832
4.3, 2, 35.8884, 48.0644, -14.0086, 97.651, -51.2605, 45.8832
4.304, 2, 35.8884, 48.0644, -14.0086, 97.651, -51.2605, 45.8832
4.308, 2, 35.8884, 48.0644, -14.0086, 97.651, -51.2605, 45.8832
4.312, 2, 35.8884, 48.0644, -14.0086, 97.651, -51.2605, 45.8832
4.316, 2, 35.8884, 48.0644, -14.0086, 97.651, -51.2605, 45.8832
4.32, 2, 35.8884, 48.0644, -14.0086, 97.651, -51.2605, 45.8832
4.324, 2, 35.8884, 48.0644, -14.0086, 97.651, -51.2605, 45.8832
4.328, 2, 35.8884, 48.0644, -14.0086, 97.651, -51.2605, 45.8832
4.332, 2, 35.8884, 48.0644, -14.0086, 97.651, -51.2605, 45.8832
4.336, 2, 35.8884, 48.0644, -14.0086, 97.651, -51.2605, 45.8832
4.34, 2, 35.8884, 48.0644, -14.0086, 97.651, -51.2605, 45.8832
4.344, 2, 35.8884, 48.0644, -14.0086, 97.651, -51.2605, 45.8832
4.348, 2, 35.8884, 48.0644, -14.0086, 97.651, -51.2605, 45.8832
4.352, 2, 35.8884, 48.0644, -14.0086, 97.651, -51.2605, 45.8832
4.356, 2, 35.8884, 48.0644, -14.0086, 97.651, -51.2605, 45.8832
4.36, 2, 35.8884, 48.0644, -14.0086, 97.651, -51.2605, 45.8832
4.364, 2, 35.8884, 48.0644, -14.0086, 97.651, -51.2605, 45.8832
4.368, 2, 35.8884, 48.0644, -14.0086, 97.651, -51.2605, 45.8832
4.372, 2, 35.8884, 48.0644, -14.0086, 97.651, -51.2605, 45.8832
4.376, 2, 35.8884, 48.0644, -14.0086, 97.651, -51.2605, 45.8832
4.38, 2, 35.8884, 48.0644, -14.0086, 97.651, -51.2605, 45.8832
4.384, 2, 35.8884, 48.0644, -14.0086, 97.651, -51.2605, 45.8832
4.388, 2, 35.8884, 48.0644, -14.0086, 97.651, -51.2605, 45.8832
4.392, 2, 35.8884, 48.0644, -14.0086, 97.651, -51.2605, 45.8832
4.396, 3, 35.8884, 48.0644, -14.0086, 97.651, -51.2605, 45.8832
4.4, 3, 35.8884, 48.0644, -14.0086, 97.651, -51.2605, 45.8832
4.404, 3, 35.8884, 48.0644, -14.0086, 97.651, -51.2605, 45.8832
4.408, 3, 35.8884, 48.0644, -14.0086, 97.651, -51.2605, 45.8832
4.412, 3, 35.8884, 48.0644, -14.0086, 97.651, -51.2605, 45.8832
4.416, 3, 35.8884, 48.0644, -14.0086, 97.651, -51.2605, 45.8832
4.42, 3, 35.8884, 48.0644, -14.0086, 97.651, -51.2605, 45.8832
4.424, 3, 35.8884, 48.0644, -14.0086, 97.651, -51.2605, 45.8832
4.428, 3, 35.8884, 48.0644, -14.0086, 97.651, -51.2605, 45.8832
4.432, 4, 35.8884, 48.0644, -14.0086, 97.651, -51.2605, 45.8832
4.436, 4, 35.8884, 48.0644, -14.0086, 97.651, -51.2605, 45.8832
4.44, 4, 35.8884, 48.0644, -14.0086, 97.651, -51.2605, 45.8832
4.444, 4, 35.8884, 48.0644, -14.0086, 97.651, -51.2605, 45.8832
4.448, 4, 35.8884, 48.0644, -14.0086, 97.651, -51.2605, 45.8832
4.452, 4, 35.8884, 48.0644, -14.0086, 97.651, -51.2605, 45.8832
4.456, 4, 35.8884, 48.0644, -14.0086, 97.651, -51.2605, 45.8832
4.46, 4, 35.8884, 48.0644, -14.0086, 97.651, -51.2605, 45.8832
4.464, 4, 35.8884, 48.0644, -14.0086, 97.651, -51.2605, 45.8832
4.468, 4, 35.8884, 48.0644, -14.0086, 97.651, -51.2605, 45.8832
4.472, 4, 35.8884, 48.0644, -14.0086, 97.651, -51.2605, 45.8832
4.476, 4, 35.8884, 48.0644, -14.0086, 97.651, -51.2605, 45.8832
4.48, 4, 35.8884, 48.0644, -14.0086, 97.651, -51.2605, 45.8832
4.484, 4, 35.8884, 48.0644, -14.0086, 97.651, -51.2605, 45.8832
4.488, 4, 35.8884, 48.0644, -14.0086, 97.651, -51.2605, 45.8832
4.492, 4, 35.8884, 48.0644, -14.0086, 97.651, -51.2605, 45.8832
4.496, 4, 35.8884, 48.0644, -14.0086, 97.651, -51.2605, 45.8832
4.5, 4, 35.8884, 48.0644, -14.0086, 97.651, -51.2605, 45.8832
4.504, 4, 35.8884, 48.0644, -14.0086, 97.651, -51.2605, 45.8832
4.508, 4, 35.8884, 48.0644, -14.0086, 97.651, -51.2605, 45.8832
4.512, 4, 35.8884, 48.0644, -14.0086, 97.651, -51.2605, 45.8832
4.516, 4, 35.8884, 48.0644, -14.0086, 97.651, -51.2605, 45.8832
4.52, 4, 35.8884, 48.0644, -14.0086, 97.651, -51.2605, 45.8832
4.524, 4, 35.8884, 48.0644, -14.0086, 97.651, -51.2605, 45.8832
4.528, 4, 35.8884, 48.0644, -14.0086, 97.651, -51.2605, 45.8832
4.532, 5, 35.8884, 48.0644, -14.0086, 97.651, -51.2605, 45.8832
4.536, 5, 35.8884, 48.0644, -14.0086, 97.651, -51.2605, 45.8832
4.54, 5, 35.8884, 48.0644, -14.0086, 97.651, -51.2605, 45.8832
4.544, 5, 35.8884, 48.0644, -14.0086, 97.651, -51.2605, 45.8832
4.548, 5, 35.8884, 48.0644, -14.0086, 97.651, -51.2605, 45.8832
4.552, 5, 35.8884, 48.0644, -14.0086, 97.651, -51.2605, 45.8832
4.556, 5, 35.8884, 48.0644, -14.0086, 97.651, -51.2605, 45.8832
4.56, 5, 35.8884, 48.0644, -14.0086, 97.651, -51.2605, 45.8832
4.564, 5, 35.8884, 48.0644, -14.0086, 97.651, -51.2605, 45.8832
4.568, 5, 35.8884, 48.0645, -14.0086, 97.651, -51.2605, 45.8832
4.572, 5, 35.8884, 48.0646, -14.0086, 97.651, -51.2605, 45.8832
4.576, 5, 35.8884, 48.065, -14.0086, 97.651, -51.2605, 45.8832
4.58, 5, 35.8884, 48.0657, -14.0086, 97.651, -51.2606, 45.8831
4.584, 5, 35.8884, 48.067, -14.0087, 97.651, -51.261, 45.883
4.588, 5, 35.8885, 48.0688, -14.0088, 97.6509, -51.2617, 45.8828
4.592, 5, 35.8885, 48.0714, -14.009, 97.6509, -51.263, 45.8823
4.596, 5, 35.8885, 48.0749, -14.0093, 97.6507, -51.2652, 45.8816
4.6, 5, 35.8885, 48.0793, -14.0098, 97.6504, -51.2688, 45.8803
4.604, 5, 35.8886, 48.0849, -14.0106, 97.65, -51.2744, 45.8784
4.608, 5, 35.8886, 48.0919, -14.0117, 97.6493, -51.2825, 45.8757
4.612, 5, 35.8886, 48.1006, -14.0132, 97.6484, -51.2938, 45.8718
4.616, 5, 35.8886, 48.1111, -14.0153, 97.6472, -51.3093, 45.8666
4.62, 5, 35.8886, 48.1237, -14.0181, 97.6455, -51.3297, 45.8597
4.624, 5, 35.8885, 48.1383, -14.0217, 97.6433, -51.3562, 45.8508
4.628, 5, 35.8885, 48.1551, -14.0262, 97.6405, -51.3896, 45.8395
4.632, 5, 35.8884, 48.174, -14.0317, 97.637, -51.431, 45.8255
4.636, 5, 35.8883, 48.1952, -14.0384, 97.6327, -51.4813, 45.8086
4.64, 5, 35.8882, 48.2187, -14.0464, 97.6275, -51.5411, 45.7885
4.644, 5, 35.8881, 48.2447, -14.0556, 97.6214, -51.6113, 45.765
4.648, 5, 35.888, 48.2732, -14.0662, 97.6141, -51.6922, 45.7379
4.652, 5, 35.8879, 48.3042, -14.0782, 97.6058, -51.7841, 45.7072
4.656, 5, 35.8878, 48.3375, -14.0916, 97.5963, -51.8873, 45.6728
4.66, 5, 35.8877, 48.3732, -14.1062, 97.5855, -52.0015, 45.6348
4.664, 5, 35.8876, 48.4112, -14.1222, 97.5736, -52.1265, 45.5933
4.668, 5, 35.8875, 48.4513, -14.1393, 97.5604, -52.2617, 45.5485
4.672, 5, 35.8876, 48.4937, -14.1575, 97.5461, -52.4065, 45.5007
4.676, 5, 35.8876, 48.5385, -14.1766, 97.5306, -52.5599, 45.4502
4.68, 5, 35.8878, 48.5855, -14.1965, 97.514, -52.721, 45.3972
4.684, 5, 35.888, 48.6346, -14.217, 97.4964, -52.8889, 45.3421
4.688, 5, 35.8882, 48.6857, -14.238, 97.4777, -53.0625, 45.2854
4.692, 5, 35.8883, 48.7386, -14.2594, 97.4582, -53.241, 45.2272
4.696, 5, 35.8885, 48.7931, -14.281, 97.4378, -53.4234, 45.1679
4.7, 5, 35.8886, 48.849, -14.3027, 97.4166, -53.6088, 45.1078
4.704, 5, 35.8885, 48.9062, -14.3244, 97.3947, -53.7965, 45.0471
4.708, 5, 35.8883, 48.9646, -14.346, 97.3721, -53.986, 44.9861
4.712, 5, 35.888, 49.0239, -14.3675, 97.3489, -54.1766, 44.9249
4.716, 5, 35.8875, 49.0841, -14.3887, 97.3251, -54.368, 44.8636
4.72, 5, 35.8868, 49.1449, -14.4097, 97.3008, -54.5599, 44.8024
4.724, 5, 35.886, 49.2062, -14.4304, 97.2758, -54.752, 44.7412
4.728, 5, 35.885, 49.2676, -14.4508, 97.2504, -54.9443, 44.6803
4.732, 5, 35.8838, 49.3292, -14.4708, 97.2245, -55.1365, 44.6195
4.736, 5, 35.8825, 49.3908, -14.4905, 97.198, -55.3287, 44.5589
4.74, 5, 35.8811, 49.4524, -14.5099, 97.1711, -55.5208, 44.4986
4.744, 5, 35.8795, 49.5139, -14.5289, 97.1437, -55.7127, 44.4384
4.748, 5, 35.8777, 49.5753, -14.5476, 97.1158, -55.9045, 44.3785
4.752, 5, 35.8758, 49.6365, -14.5658, 97.0874, -56.0962, 44.3188
4.756, 5, 35.8738, 49.6977, -14.5838, 97.0585, -56.2876, 44.2593
4.76, 5, 35.8716, 49.7587, -14.6013, 97.0292, -56.4789, 44.2001
4.764, 5, 35.8692, 49.8195, -14.6185, 96.9994, -56.67, 44.1411
4.768, 5, 35.8667, 49.8801, -14.6354, 96.9691, -56.8609, 44.0823
4.772, 5, 35.8641, 49.9406, -14.6518, 96.9384, -57.0515, 44.0237
4.776, 5, 35.8613, 50.001, -14.6679, 96.9072, -57.242, 43.9654
4.78, 5, 35.8583, 50.0611, -14.6837, 96.8756, -57.4323, 43.9072
4.784, 5, 35.8552, 50.1211, -14.699, 96.8435, -57.6224, 43.8493
4.788, 5, 35.852, 50.181, -14.714, 96.8109, -57.8124, 43.7916
4.792, 5, 35.8486, 50.2406, -14.7285, 96.778, -58.0021, 43.7341
4.796, 5, 35.8451, 50.3001, -14.7428, 96.7445, -58.1916, 43.6768
4.8, 5, 35.8414, 50.3593, -14.7566, 96.7107, -58.3809, 43.6196
4.804, 5, 35.8376, 50.4185, -14.77, 96.6764, -58.57, 43.5627
4.808, 5, 35.8336, 50.4774, -14.7831, 96.6416, -58.759, 43.506
4.812, 5, 35.8295, 50.5361, -14.7958, 96.6065, -58.9477, 43.4494
4.816, 5, 35.8252, 50.5947, -14.8081, 96.5709, -59.1362, 43.3931
4.82, 5, 35.8208, 50.653, -14.82, 96.5349, -59.3246, 43.3369
4.824, 5, 35.8162, 50.7112, -14.8315, 96.4985, -59.5127, 43.2809
4.828, 5, 35.8115, 50.7692, -14.8427, 96.4616, -59.7007, 43.2251
4.832, 5, 35.8067, 50.827, -14.8534, 96.4244, -59.8884, 43.1695
4.836, 5, 35.8017, 50.8846, -14.8637, 96.3867, -60.076, 43.114
4.84, 5, 35.7965, 50.942, -14.8737, 96.3486, -60.2633, 43.0587
4.844, 5, 35.7912, 50.9993, -14.8833, 96.3101, -60.4505, 43.0036
4.848, 5, 35.7858, 51.0563, -14.8924, 96.2712, -60.6374, 42.9486
4.852, 5, 35.7802, 51.1131, -14.9012, 96.2319, -60.8242, 42.8939
4.856, 5, 35.7745, 51.1697, -14.9096, 96.1922, -61.0108, 42.8392
4.86, 5, 35.7686, 51.2262, -14.9175, 96.1521, -61.1972, 42.7847
4.864, 5, 35.7626, 51.2824, -14.9251, 96.1116, -61.3834, 42.7304
4.868, 5, 35.7564, 51.3384, -14.9323, 96.0708, -61.5694, 42.6762
4.872, 5, 35.7501, 51.3942, -14.939, 96.0295, -61.7551, 42.6222
4.876, 5, 35.7437, 51.4499, -14.9454, 95.9878, -61.9407, 42.5683
4.88, 5, 35.7371, 51.5053, -14.9514, 95.9458, -62.1261, 42.5146
4.884, 5, 35.7304, 51.5605, -14.9569, 95.9034, -62.3113, 42.461
4.888, 5, 35.7235, 51.6154, -14.962, 95.8606, -62.4964, 42.4075
4.892, 5, 35.7164, 51.6702, -14.9668, 95.8174, -62.6812, 42.3542
4.896, 5, 35.7093, 51.7248, -14.9711, 95.7738, -62.8658, 42.301
4.9, 5, 35.702, 51.7791, -14.975, 95.7299, -63.0502, 42.2479
4.904, 5, 35.6945, 51.8333, -14.9785, 95.6856, -63.2344, 42.195
4.908, 5, 35.6869, 51.8872, -14.9815, 95.641, -63.4185, 42.1422
4.912, 5, 35.6791, 51.9409, -14.9842, 95.5959, -63.6023, 42.0895
4.916, 5, 35.6713, 51.9944, -14.9864, 95.5506, -63.786, 42.0369
4.92, 5, 35.6632, 52.0477, -14.9882, 95.5048, -63.9694, 41.9844
4.924, 5, 35.655, 52.1007, -14.9896, 95.4587, -64.1527, 41.9321
4.928, 5, 35.6467, 52.1535, -14.9906, 95.4122, -64.3357, 41.8799
4.932, 5, 35.6383, 52.2061, -14.9911, 95.3654, -64.5186, 41.8278
4.936, 5, 35.6297, 52.2585, -14.9912, 95.3183, -64.7012, 41.7758
4.94, 5, 35.6209, 52.3106, -14.9909, 95.2708, -64.8837, 41.7239
4.944, 5, 35.612, 52.3626, -14.9902, 95.2229, -65.066, 41.6721
4.948, 5, 35.603, 52.4142, -14.989, 95.1747, -65.2481, 41.6204
4.952, 5, 35.5938, 52.4657, -14.9875, 95.1261, -65.43, 41.5688
4.956, 5, 35.5845, 52.5169, -14.9854, 95.0772, -65.6116, 41.5173
4.96, 5, 35.575, 52.5679, -14.983, 95.028, -65.7931, 41.4659
4.964, 5, 35.5654, 52.6187, -14.9801, 94.9784, -65.9744, 41.4146
4.968, 5, 35.5557, 52.6692, -14.9768, 94.9285, -66.1556, 41.3634
4.972, 5, 35.5458, 52.7195, -14.973, 94.8783, -66.3365, 41.3122
4.976, 5, 35.5357, 52.7695, -14.9688, 94.8277, -66.5172, 41.2612
4.98, 5, 35.5256, 52.8194, -14.9642, 94.7768, -66.6977, 41.2102
4.984, 5, 35.5152, 52.8689, -14.9591, 94.7256, -66.8781, 41.1594
4.988, 5, 35.5048, 52.9183, -14.9536, 94.674, -67.0582, 41.1086
4.992, 5, 35.4942, 52.9673, -14.9476, 94.6221, -67.2382, 41.0579
4.996, 5, 35.4835, 53.0162, -14.9412, 94.5699, -67.418, 41.0072
5, 5, 35.4726, 53.0647, -14.9344, 94.5174, -67.5975, 40.9567
5.004, 5, 35.4617, 53.1129, -14.9271, 94.4645, -67.7769, 40.9062
5.008, 5, 35.4507, 53.1606, -14.9194, 94.4113, -67.9561, 40.8558
5.012, 5, 35.4399, 53.2077, -14.9112, 94.3579, -68.1349, 40.8055
5.016, 5, 35.4291, 53.2541, -14.9026, 94.3042, -68.3134, 40.7553
5.02, 5, 35.4186, 53.2995, -14.8936, 94.2503, -68.4913, 40.7053
5.024, 5, 35.4084, 53.344, -14.8842, 94.1963, -68.6685, 40.6556
5.028, 5, 35.3985, 53.3874, -14.8744, 94.1422, -68.8446, 40.6061
5.032, 5, 35.3888, 53.4297, -14.8643, 94.0883, -69.0192, 40.557
5.036, 5, 35.3795, 53.4708, -14.8539, 94.0346, -69.1921, 40.5085
5.04, 5, 35.3706, 53.5105, -14.8432, 93.9813, -69.3625, 40.4607
5.044, 5, 35.362, 53.5487, -14.8323, 93.9287, -69.5298, 40.4137
5.048, 5, 35.3537, 53.5855, -14.8213, 93.877, -69.6934, 40.3678
5.052, 5, 35.3457, 53.6207, -14.8103, 93.8265, -69.8524, 40.3231
5.056, 5, 35.3379, 53.6545, -14.7994, 93.7776, -70.0058, 40.2801
5.06, 5, 35.3302, 53.6869, -14.7887, 93.7305, -70.1527, 40.2388
5.064, 5, 35.3227, 53.7179, -14.7782, 93.6855, -70.2923, 40.1996
5.068, 5, 35.3153, 53.7475, -14.7682, 93.643, -70.4238, 40.1627
5.072, 5, 35.3081, 53.7755, -14.7586, 93.6032, -70.5464, 40.1283
5.076, 5, 35.3011, 53.8018, -14.7496, 93.5663, -70.6597, 40.0965
5.08, 5, 35.2944, 53.8264, -14.7413, 93.5325, -70.7632, 40.0674
5.084, 5, 35.288, 53.8493, -14.7336, 93.5019, -70.8566, 40.0412
5.088, 5, 35.2818, 53.8708, -14.7267, 93.4745, -70.9399, 40.0178
5.092, 5, 35.2757, 53.8908, -14.7206, 93.4504, -71.013, 39.9973
5.096, 5, 35.2698, 53.9095, -14.7153, 93.4295, -71.0764, 39.9795
5.1, 5, 35.264, 53.9268, -14.7107, 93.4116, -71.1305, 39.9643
5.104, 5, 35.2586, 53.9428, -14.7068, 93.3965, -71.176, 39.9515
5.108, 5, 35.2535, 53.9573, -14.7036, 93.384, -71.2136, 39.9409
5.112, 5, 35.2488, 53.9703, -14.701, 93.3738, -71.2442, 39.9323
5.116, 5, 35.2445, 53.9819, -14.6989, 93.3657, -71.2688, 39.9254
5.12, 6, 35.2406, 53.9922, -14.6972, 93.3592, -71.2881, 39.92
5.124, 6, 35.237, 54.0013, -14.696, 93.3543, -71.303, 39.9158
5.128, 6, 35.2338, 54.0092, -14.695, 93.3505, -71.3142, 39.9127
5.132, 6, 35.2309, 54.016, -14.6943, 93.3478, -71.3225, 39.9103
5.136, 6, 35.2283, 54.0215, -14.6939, 93.3458, -71.3284, 39.9087
5.14, 6, 35.2261, 54.026, -14.6935, 93.3444, -71.3326, 39.9075
5.144, 6, 35.2244, 54.0293, -14.6933, 93.3434, -71.3355, 39.9067
5.148, 6, 35.223, 54.0317, -14.6931, 93.3428, -71.3375, 39.9061
5.152, 6, 35.222, 54.0335, -14.693, 93.3423, -71.3389, 39.9057
5.156, 6, 35.2213, 54.0347, -14.6929, 93.342, -71.3398, 39.9055
5.16, 6, 35.2206, 54.0356, -14.6929, 93.3418, -71.3404, 39.9053
5.164, 6, 35.2197, 54.0364, -14.6928, 93.3416, -71.3409, 39.9052
5.168, 6, 35.2184, 54.0374, -14.6926, 93.3414, -71.3414, 39.9051
5.172, 6, 35.2165, 54.0388, -14.6923, 93.3411, -71.342, 39.905
5.176, 6, 35.2139, 54.0405, -14.6917, 93.3405, -71.3431, 39.905
5.18, 6, 35.2107, 54.0428, -14.6906, 93.3394, -71.3449, 39.905
5.184, 6, 35.2068, 54.0456, -14.6887, 93.3375, -71.3479, 39.9051
5.188, 6, 35.2022, 54.049, -14.6859, 93.3345, -71.3526, 39.9052
5.192, 6, 35.1971, 54.0529, -14.6818, 93.3301, -71.3596, 39.9054
5.196, 6, 35.1915, 54.0571, -14.6759, 93.3237, -71.3696, 39.9056
5.2, 6, 35.1851, 54.0618, -14.668, 93.315, -71.3833, 39.9059
5.204, 6, 35.178, 54.0669, -14.6575, 93.3034, -71.4016, 39.9063
5.208, 6, 35.1703, 54.0722, -14.6441, 93.2884, -71.425, 39.9069
5.212, 6, 35.1618, 54.0776, -14.6273, 93.2696, -71.4543, 39.9076
5.216, 6, 35.1529, 54.0827, -14.6069, 93.2466, -71.4902, 39.9084
5.22, 6, 35.1436, 54.0876, -14.5826, 93.2191, -71.5332, 39.9094
5.224, 6, 35.1339, 54.0919, -14.5541, 93.1868, -71.5836, 39.9105
5.228, 6, 35.1238, 54.0958, -14.5214, 93.1497, -71.6414, 39.9118
5.232, 6, 35.1133, 54.0993, -14.4845, 93.1078, -71.7067, 39.9132
5.236, 6, 35.1022, 54.1024, -14.4436, 93.0613, -71.7792, 39.9147
5.24, 6, 35.0905, 54.1055, -14.3987, 93.0104, -71.8584, 39.9164
5.244, 6, 35.0781, 54.1085, -14.3503, 92.9555, -71.9438, 39.9181
5.248, 6, 35.065, 54.1116, -14.2985, 92.897, -72.0348, 39.9199
5.252, 6, 35.0512, 54.1148, -14.2439, 92.8354, -72.1306, 39.9218
5.256, 6, 35.0368, 54.1183, -14.1868, 92.7711, -72.2306, 39.9237
5.26, 6, 35.0216, 54.1221, -14.1275, 92.7046, -72.334, 39.9255
5.264, 6, 35.0056, 54.1263, -14.0664, 92.6363, -72.44, 39.9274
5.268, 6, 34.9888, 54.1309, -14.004, 92.5667, -72.5482, 39.9292
5.272, 6, 34.9712, 54.136, -13.9404, 92.496, -72.658, 39.9309
5.276, 6, 34.9527, 54.1415, -13.8758, 92.4246, -72.7688, 39.9326
5.28, 6, 34.9334, 54.1474, -13.8106, 92.3526, -72.8804, 39.9342
5.284, 6, 34.9136, 54.1535, -13.7449, 92.2803, -72.9926, 39.9358
5.288, 6, 34.8933, 54.1598, -13.6787, 92.2077, -73.1051, 39.9372
5.292, 6, 34.8726, 54.1661, -13.6121, 92.1349, -73.2178, 39.9386
5.296, 6, 34.8517, 54.1724, -13.5452, 92.0621, -73.3306, 39.9398
5.3, 6, 34.8305, 54.1786, -13.478, 91.9891, -73.4435, 39.941
5.304, 6, 34.8092, 54.1847, -13.4106, 91.916, -73.5565, 39.942
5.308, 6, 34.7878, 54.1906, -13.3429, 91.8429, -73.6695, 39.943
5.312, 6, 34.7663, 54.1964, -13.2749, 91.7698, -73.7825, 39.9439
5.316, 6, 34.7447, 54.2021, -13.2068, 91.6966, -73.8956, 39.9447
5.32, 6, 34.7229, 54.2076, -13.1384, 91.6234, -74.0086, 39.9453
5.324, 6, 34.7011, 54.213, -13.0698, 91.5502, -74.1215, 39.9459
5.328, 6, 34.6792, 54.2182, -13.0009, 91.4769, -74.2345, 39.9464
5.332, 6, 34.6572, 54.2232, -12.9319, 91.4037, -74.3474, 39.9467
5.336, 6, 34.6351, 54.2281, -12.8626, 91.3304, -74.4603, 39.947
5.34, 6, 34.6129, 54.2327, -12.7931, 91.257, -74.5732, 39.9472
5.344, 6, 34.5907, 54.2373, -12.7235, 91.1837, -74.6861, 39.9472
5.348, 6, 34.5684, 54.2416, -12.6536, 91.1103, -74.7989, 39.9472
5.352, 6, 34.546, 54.2458, -12.5834, 91.0369, -74.9117, 39.947
5.356, 6, 34.5235, 54.2498, -12.5131, 90.9635, -75.0245, 39.9468
5.36, 6, 34.5009, 54.2537, -12.4426, 90.8901, -75.1373, 39.9464
5.364, 6, 34.4783, 54.2574, -12.3718, 90.8166, -75.25, 39.9459
5.368, 6, 34.4556, 54.2609, -12.3009, 90.7431, -75.3627, 39.9454
5.372, 6, 34.4328, 54.2642, -12.2297, 90.6697, -75.4754, 39.9447
5.376, 6, 34.4099, 54.2674, -12.1584, 90.5961, -75.588, 39.9439
5.38, 6, 34.3869, 54.2704, -12.0868, 90.5226, -75.7007, 39.943
5.384, 6, 34.3639, 54.2732, -12.015, 90.449, -75.8133, 39.942
5.388, 6, 34.3408, 54.2759, -11.943, 90.3754, -75.9258, 39.9409
5.392, 6, 34.3176, 54.2783, -11.8708, 90.3018, -76.0384, 39.9397
5.396, 6, 34.2943, 54.2807, -11.7984, 90.2282, -76.1509, 39.9383
5.4, 6, 34.271, 54.2828, -11.7258, 90.1545, -76.2634, 39.9369
5.404, 6, 34.2476, 54.2848, -11.653, 90.0809, -76.3759, 39.9353
5.408, 6, 34.2241, 54.2866, -11.58, 90.0072, -76.4883, 39.9336
5.412, 6, 34.2005, 54.2882, -11.5068, 89.9334, -76.6008, 39.9319
5.416, 6, 34.1768, 54.2897, -11.4334, 89.8597, -76.7132, 39.93
5.42, 6, 34.1531, 54.291, -11.3598, 89.7859, -76.8255, 39.9279
5.424, 6, 34.1293, 54.2921, -11.286, 89.7121, -76.9379, 39.9258
5.428, 6, 34.1054, 54.2931, -11.212, 89.6383, -77.0502, 39.9236
5.432, 6, 34.0814, 54.2939, -11.1378, 89.5644, -77.1625, 39.9212
5.436, 6, 34.0574, 54.2945, -11.0634, 89.4905, -77.2748, 39.9187
5.44, 6, 34.0333, 54.2949, -10.9887, 89.4166, -77.3871, 39.9162
5.444, 6, 34.0091, 54.2952, -10.9139, 89.3427, -77.4993, 39.9134
5.448, 6, 33.9848, 54.2953, -10.8389, 89.2688, -77.6115, 39.9106
5.452, 6, 33.9604, 54.2952, -10.7637, 89.1948, -77.7237, 39.9077
5.456, 6, 33.936, 54.295, -10.6883, 89.1208, -77.8359, 39.9046
5.46, 6, 33.9115, 54.2945, -10.6127, 89.0468, -77.948, 39.9014
5.464, 6, 33.8869, 54.294, -10.537, 88.9727, -78.0601, 39.8981
5.468, 6, 33.8623, 54.2932, -10.461, 88.8986, -78.1722, 39.8947
5.472, 6, 33.8378, 54.2922, -10.3848, 88.8245, -78.2843, 39.8911
5.476, 6, 33.8137, 54.2909, -10.3085, 88.7504, -78.3963, 39.8875
5.48, 6, 33.7902, 54.2891, -10.2321, 88.6763, -78.5081, 39.8837
5.484, 6, 33.7674, 54.2869, -10.1557, 88.6024, -78.6197, 39.8798
5.488, 6, 33.7456, 54.284, -10.0796, 88.5287, -78.7309, 39.8758
5.492, 6, 33.7247, 54.2803, -10.0038, 88.4555, -78.8412, 39.8717
5.496, 6, 33.7047, 54.2759, -9.92883, 88.3831, -78.9502, 39.8675
5.5, 6, 33.6856, 54.271, -9.855, 88.3119, -79.0574, 39.8633
5.504, 6, 33.667, 54.2656, -9.78279, 88.2424, -79.162, 39.8591
5.508, 6, 33.649, 54.2601, -9.7127, 88.1749, -79.2634, 39.855
5.512, 6, 33.6316, 54.2546, -9.64526, 88.1101, -79.3609, 39.8509
5.516, 6, 33.6149, 54.2493, -9.58099, 88.0484, -79.4535, 39.847
5.52, 6, 33.599, 54.2445, -9.5204, 87.9903, -79.5407, 39.8432
5.524, 6, 33.5838, 54.2402, -9.46394, 87.9363, -79.6219, 39.8397
5.528, 6, 33.5694, 54.2367, -9.41201, 87.8867, -79.6963, 39.8364
5.532, 6, 33.5556, 54.234, -9.36489, 87.8418, -79.7637, 39.8333
5.536, 6, 33.5423, 54.2324, -9.32277, 87.8018, -79.8237, 39.8306
5.54, 6, 33.5295, 54.2319, -9.28571, 87.7667, -79.8763, 39.8281
5.544, 6, 33.5173, 54.2325, -9.25361, 87.7365, -79.9217, 39.826
5.548, 6, 33.5056, 54.234, -9.22629, 87.711, -79.9601, 39.8242
5.552, 6, 33.4948, 54.2362, -9.20343, 87.6897, -79.9921, 39.8227
5.556, 6, 33.485, 54.2388, -9.18463, 87.6723, -80.0183, 39.8215
5.56, 7, 33.4761, 54.2416, -9.16946, 87.6583, -80.0393, 39.8204
5.564, 7, 33.4682, 54.2443, -9.15744, 87.6473, -80.0558, 39.8196
5.568, 7, 33.4612, 54.2468, -9.1481, 87.6389, -80.0686, 39.819
5.572, 7, 33.4549, 54.2491, -9.14099, 87.6325, -80.0783, 39.8186
5.576, 7, 33.4495, 54.251, -9.13569, 87.6278, -80.0854, 39.8182
5.58, 7, 33.4448, 54.2527, -9.13182, 87.6244, -80.0905, 39.818
5.584, 7, 33.4408, 54.2541, -9.12906, 87.622, -80.0941, 39.8178
5.588, 7, 33.4376, 54.2552, -9.12712, 87.6204, -80.0966, 39.8177
5.592, 7, 33.4352, 54.2561, -9.12578, 87.6192, -80.0984, 39.8176
5.596, 7, 33.4334, 54.2566, -9.12486, 87.6185, -80.0996, 39.8175
5.6, 7, 33.432, 54.257, -9.12421, 87.6179, -80.1004, 39.8175
5.604, 7, 33.4306, 54.2573, -9.1237, 87.6175, -80.1009, 39.8175
5.608, 7, 33.429, 54.2574, -9.12319, 87.6172, -80.1014, 39.8175
5.612, 7, 33.427, 54.2574, -9.12253, 87.6168, -80.1018, 39.8177
5.616, 7, 33.4244, 54.2573, -9.12152, 87.6163, -80.1023, 39.8181
5.62, 7, 33.4213, 54.257, -9.1199, 87.6154, -80.1031, 39.8188
5.624, 7, 33.4175, 54.2564, -9.11734, 87.6138, -80.1043, 39.82
5.628, 7, 33.413, 54.2554, -9.11343, 87.6115, -80.1061, 39.822
5.632, 7, 33.4078, 54.2539, -9.10771, 87.6079, -80.1088, 39.825
5.636, 7, 33.4017, 54.2517, -9.09961, 87.6026, -80.1126, 39.8294
5.64, 7, 33.3945, 54.2487, -9.08848, 87.5954, -80.1179, 39.8356
5.644, 7, 33.3862, 54.2446, -9.07361, 87.5855, -80.1251, 39.8439
5.648, 7, 33.3766, 54.2393, -9.05427, 87.5726, -80.1344, 39.8548
5.652, 7, 33.3659, 54.2325, -9.02971, 87.5559, -80.1464, 39.8689
5.656, 7, 33.3542, 54.2239, -8.99924, 87.5351, -80.1613, 39.8865
5.66, 7, 33.3417, 54.2136, -8.96222, 87.5095, -80.1796, 39.908
5.664, 7, 33.3284, 54.2012, -8.91818, 87.4789, -80.2015, 39.9338
5.668, 7, 33.3143, 54.1866, -8.86677, 87.443, -80.2271, 39.9641
5.672, 7, 33.2993, 54.17, -8.80785, 87.4016, -80.2566, 39.999
5.676, 7, 33.2835, 54.1512, -8.74145, 87.3548, -80.29, 40.0383
5.68, 7, 33.2666, 54.1303, -8.66779, 87.3028, -80.3271, 40.082
5.684, 7, 33.2486, 54.1074, -8.58724, 87.2459, -80.3677, 40.1298
5.688, 7, 33.2296, 54.0828, -8.50032, 87.1844, -80.4117, 40.1814
5.692, 7, 33.2097, 54.0565, -8.40766, 87.1188, -80.4587, 40.2364
5.696, 7, 33.1889, 54.0288, -8.30996, 87.0496, -80.5084, 40.2944
5.7, 7, 33.1671, 53.9999, -8.20798, 86.9773, -80.5603, 40.3548
5.704, 7, 33.1443, 53.97, -8.10245, 86.9026, -80.6142, 40.4172
5.708, 7, 33.1204, 53.9393, -7.99411, 86.8259, -80.6695, 40.4811
5.712, 7, 33.0952, 53.908, -7.8836, 86.7478, -80.7261, 40.5462
5.716, 7, 33.0688, 53.8763, -7.77149, 86.6686, -80.7835, 40.612
5.72, 7, 33.0413, 53.8443, -7.65826, 86.5887, -80.8417, 40.6783
5.724, 7, 33.0128, 53.812, -7.54426, 86.5084, -80.9003, 40.7449
5.728, 7, 32.9835, 53.7797, -7.42977, 86.4277, -80.9594, 40.8116
5.732, 7, 32.9537, 53.7472, -7.31497, 86.3469, -81.0187, 40.8784
5.736, 7, 32.9236, 53.7147, -7.20002, 86.2659, -81.0783, 40.9452
5.74, 7, 32.8931, 53.6822, -7.08498, 86.1849, -81.138, 41.0119
5.744, 7, 32.8624, 53.6496, -6.96993, 86.1038, -81.1979, 41.0785
5.748, 7, 32.8316, 53.6171, -6.8549, 86.0228, -81.258, 41.1449
5.752, 7, 32.8006, 53.5846, -6.73992, 85.9418, -81.3182, 41.2113
5.756, 7, 32.7695, 53.552, -6.62502, 85.8608, -81.3785, 41.2775
5.76, 7, 32.7383, 53.5195, -6.5102, 85.7798, -81.4389, 41.3435
5.764, 7, 32.7071, 53.487, -6.39547, 85.6989, -81.4995, 41.4094
5.768, 7, 32.6757, 53.4545, -6.28084, 85.6181, -81.5602, 41.4751
5.772, 7, 32.6443, 53.4221, -6.16631, 85.5373, -81.6209, 41.5407
5.776, 7, 32.6128, 53.3896, -6.05188, 85.4565, -81.6818, 41.6061
5.78, 7, 32.5812, 53.3572, -5.93755, 85.3758, -81.7428, 41.6713
5.784, 7, 32.5496, 53.3248, -5.82333, 85.2951, -81.8038, 41.7364
5.788, 7, 32.5179, 53.2924, -5.70922, 85.2145, -81.865, 41.8013
5.792, 7, 32.4861, 53.26, -5.59521, 85.134, -81.9263, 41.866
5.796, 7, 32.4542, 53.2276, -5.48131, 85.0535, -81.9877, 41.9306
5.8, 7, 32.4223, 53.1953, -5.36751, 84.973, -82.0492, 41.995
5.804, 7, 32.3904, 53.163, -5.25382, 84.8926, -82.1108, 42.0592
5.808, 7, 32.3583, 53.1307, -5.14023, 84.8123, -82.1725, 42.1233
5.812, 7, 32.3262, 53.0984, -5.02675, 84.732, -82.2342, 42.1872
5.816, 7, 32.294, 53.0661, -4.91337, 84.6517, -82.2961, 42.251
5.82, 7, 32.2618, 53.0338, -4.8001, 84.5715, -82.3581, 42.3146
5.824, 7, 32.2295, 53.0016, -4.68693, 84.4914, -82.4202, 42.378
5.828, 7, 32.1971, 52.9693, -4.57386, 84.4113, -82.4824, 42.4413
5.832, 7, 32.1646, 52.9371, -4.4609, 84.3312, -82.5447, 42.5043
5.836, 7, 32.1321, 52.9049, -4.34804, 84.2512, -82.607, 42.5673
5.84, 7, 32.0995, 52.8727, -4.23528, 84.1712, -82.6695, 42.63
5.844, 7, 32.0669, 52.8405, -4.12263, 84.0913, -82.7321, 42.6926
5.848, 7, 32.0342, 52.8084, -4.01007, 84.0114, -82.7948, 42.7551
5.852, 7, 32.0014, 52.7762, -3.89762, 83.9316, -82.8575, 42.8173
5.856, 7, 31.9685, 52.7441, -3.78527, 83.8518, -82.9204, 42.8794
5.86, 7, 31.9356, 52.7119, -3.67302, 83.7721, -82.9833, 42.9414
5.864, 7, 31.9026, 52.6798, -3.56087, 83.6924, -83.0464, 43.0031
5.868, 7, 31.8695, 52.6477, -3.44882, 83.6127, -83.1095, 43.0648
5.872, 7, 31.8364, 52.6156, -3.33687, 83.5331, -83.1728, 43.1262
5.876, 7, 31.8032, 52.5835, -3.22502, 83.4536, -83.2361, 43.1875
5.88, 7, 31.7699, 52.5514, -3.11327, 83.374, -83.2995, 43.2486
5.884, 7, 31.7366, 52.5193, -3.00162, 83.2945, -83.3631, 43.3095
5.888, 7, 31.7032, 52.4873, -2.89007, 83.2151, -83.4267, 43.3703
5.892, 7, 31.6697, 52.4552, -2.77861, 83.1357, -83.4904, 43.4309
5.896, 7, 31.6362, 52.4232, -2.66725, 83.0563, -83.5542, 43.4914
5.9, 7, 31.6025, 52.3911, -2.55599, 82.977, -83.618, 43.5517
5.904, 7, 31.5689, 52.3591, -2.44483, 82.8977, -83.682, 43.6118
5.908, 7, 31.5351, 52.3271, -2.33377, 82.8185, -83.7461, 43.6718
5.912, 7, 31.5013, 52.295, -2.2228, 82.7393, -83.8103, 43.7316
5.916, 7, 31.4674, 52.263, -2.11192, 82.6601, -83.8745, 43.7912
5.92, 7, 31.4334, 52.231, -2.00115, 82.581, -83.9389, 43.8507
5.924, 7, 31.3994, 52.199, -1.89047, 82.5019, -84.0033, 43.91
5.928, 7, 31.3653, 52.167, -1.77988, 82.4228, -84.0678, 43.9691
5.932, 7, 31.3311, 52.135, -1.66939, 82.3438, -84.1324, 44.0281
5.936, 7, 31.2969, 52.103, -1.55899, 82.2648, -84.1971, 44.0869
5.94, 7, 31.2626, 52.0711, -1.4487, 82.1858, -84.2619, 44.1456
5.944, 7, 31.2285, 52.0391, -1.33852, 82.1069, -84.3268, 44.2041
5.948, 7, 31.1946, 52.0072, -1.22847, 82.0281, -84.3917, 44.2624
5.952, 7, 31.1611, 51.9752, -1.11862, 81.9493, -84.4567, 44.3205
5.956, 7, 31.1281, 51.9434, -1.00905, 81.8706, -84.5217, 44.3783
5.96, 7, 31.0956, 51.9117, -0.899874, 81.7922, -84.5866, 44.4359
5.964, 7, 31.0637, 51.8801, -0.791267, 81.7141, -84.6513, 44.4931
5.968, 7, 31.0323, 51.8488, -0.683449, 81.6365, -84.7158, 44.5499
5.972, 7, 31.0014, 51.8177, -0.576693, 81.5595, -84.7797, 44.6059
5.976, 7, 30.971, 51.7871, -0.471328, 81.4835, -84.843, 44.6612
5.98, 7, 30.9413, 51.757, -0.367738, 81.4087, -84.9053, 44.7155
5.984, 7, 30.9123, 51.7275, -0.266355, 81.3354, -84.9664, 44.7686
5.988, 7, 30.8843, 51.6988, -0.167653, 81.2639, -85.0261, 44.8202
5.992, 7, 30.8573, 51.6711, -0.0721361, 81.1947, -85.084, 44.8702
5.996, 7, 30.8313, 51.6444, 0.0196823, 81.1281, -85.1397, 44.9181
6, 7, 30.8063, 51.6189, 0.107297, 81.0646, -85.1929, 44.9637
6.004, 7, 30.7824, 51.5948, 0.190231, 81.0045, -85.2434, 45.0069
6.008, 7, 30.7596, 51.5721, 0.268058, 80.9481, -85.2907, 45.0473
6.012, 7, 30.738, 51.551, 0.340415, 80.8957, -85.3348, 45.0847
6.016, 7, 30.7176, 51.5316, 0.407018, 80.8475, -85.3754, 45.1191
6.02, 7, 30.6986, 51.5138, 0.467677, 80.8037, -85.4123, 45.1504
6.024, 7, 30.6809, 51.4978, 0.522301, 80.7643, -85.4456, 45.1784
6.028, 7, 30.6644, 51.4836, 0.570901, 80.7294, -85.4752, 45.2033
6.032, 7, 30.6491, 51.471, 0.613593, 80.6987, -85.5011, 45.2251
6.036, 7, 30.635, 51.4601, 0.650594, 80.6723, -85.5235, 45.2439
6.04, 7, 30.622, 51.4507, 0.682213, 80.6499, -85.5426, 45.2598
6.044, 7, 30.6103, 51.4428, 0.708835, 80.6311, -85.5586, 45.2731
6.048, 7, 30.5998, 51.4362, 0.730906, 80.6156, -85.5719, 45.2841
6.052, 7, 30.5905, 51.4307, 0.748906, 80.603, -85.5826, 45.293
6.056, 8, 30.5824, 51.4264, 0.763337, 80.593, -85.5912, 45.3001
