hehonglu123/Motion-Primitive-Planning/ILC/recorded_data/realrobot/wood/iteration_23/run_0.csv
timestamp, cmd_num, J1, J2, J3, J4, J5, J6
0.000374, -1, 11.3766, 13.6143, 17.335, -145.52, -97.9264, 142.516
0.003674, -1, 11.3766, 13.6143, 17.335, -145.52, -97.9264, 142.516
0.025646, -1, 11.3766, 13.6143, 17.335, -145.52, -97.9265, 142.516
0.028284, -1, 11.3766, 13.6143, 17.335, -145.52, -97.9264, 142.516
0.029664, -1, 11.3766, 13.6143, 17.335, -145.52, -97.9264, 142.516
0.033691, -1, 11.3766, 13.6143, 17.335, -145.52, -97.9264, 142.516
0.039936, -1, 11.3766, 13.6143, 17.335, -145.52, -97.9264, 142.516
0.04784, -1, 11.3764, 13.6142, 17.335, -145.52, -97.9265, 142.516
0.055986, -1, 11.3751, 13.6142, 17.335, -145.52, -97.9264, 142.516
0.062811, -1, 11.3734, 13.614, 17.3349, -145.52, -97.9264, 142.516
0.07085, -1, 11.367, 13.6133, 17.3345, -145.52, -97.9264, 142.516
0.080364, -1, 11.3481, 13.6101, 17.3333, -145.52, -97.9264, 142.512
0.086838, -1, 11.3385, 13.6081, 17.3328, -145.521, -97.9263, 142.507
0.094852, -1, 11.3117, 13.6022, 17.3318, -145.525, -97.9257, 142.486
0.104287, -1, 11.2497, 13.5872, 17.3309, -145.536, -97.9227, 142.417
0.110807, -1, 11.2232, 13.5806, 17.331, -145.543, -97.9208, 142.381
0.120407, -1, 11.1265, 13.556, 17.3341, -145.571, -97.9118, 142.224
0.129001, -1, 11.0472, 13.5348, 17.3392, -145.597, -97.9029, 142.076
0.136388, -1, 10.9562, 13.5101, 17.3465, -145.628, -97.8917, 141.894
0.144413, -1, 10.854, 13.482, 17.3559, -145.664, -97.8787, 141.681
0.152425, -1, 10.7989, 13.4667, 17.3667, -145.705, -97.8643, 141.444
0.160345, -1, 10.6804, 13.4337, 17.3723, -145.727, -97.8568, 141.319
0.167846, -1, 10.5514, 13.398, 17.3834, -145.771, -97.8412, 141.058
0.175876, -1, 10.4133, 13.3599, 17.394, -145.817, -97.8253, 140.789
0.183799, -1, 10.2684, 13.3202, 17.4042, -145.865, -97.8091, 140.514
0.191881, -1, 10.119, 13.2796, 17.4141, -145.912, -97.7925, 140.237
0.199802, -1, 9.96657, 13.2384, 17.4241, -145.96, -97.7756, 139.959
0.207794, -1, 9.81184, 13.1969, 17.4341, -146.008, -97.7583, 139.68
0.215921, -1, 9.65627, 13.1554, 17.4442, -146.056, -97.7411, 139.4
0.223801, -1, 9.50109, 13.114, 17.4542, -146.104, -97.7239, 139.121
0.231807, -1, 9.34636, 13.0727, 17.464, -146.152, -97.707, 138.841
0.239863, -1, 9.19184, 13.0314, 17.474, -146.2, -97.6902, 138.562
0.247804, -1, 9.03793, 12.9902, 17.484, -146.248, -97.6735, 138.282
0.255852, -1, 8.88416, 12.9491, 17.4942, -146.296, -97.6567, 138.002
0.263861, -1, 8.73058, 12.908, 17.5043, -146.344, -97.6395, 137.722
0.271812, -1, 8.57757, 12.8668, 17.5144, -146.392, -97.622, 137.442
0.279861, -1, 8.42476, 12.8255, 17.5245, -146.44, -97.6044, 137.161
0.287841, -1, 8.27179, 12.7841, 17.5348, -146.488, -97.5871, 136.881
0.295865, -1, 8.11833, 12.7425, 17.5449, -146.536, -97.57, 136.601
0.30479, -1, 7.96442, 12.7008, 17.5552, -146.584, -97.5532, 136.321
0.311809, -1, 7.80986, 12.6591, 17.5654, -146.632, -97.5366, 136.041
0.319796, -1, 7.65496, 12.6173, 17.5755, -146.68, -97.5199, 135.76
0.327854, -1, 7.50002, 12.5756, 17.5858, -146.728, -97.503, 135.48
0.335857, -1, 7.34495, 12.5341, 17.596, -146.776, -97.4858, 135.2
0.343864, -1, 7.18993, 12.4925, 17.6062, -146.824, -97.4685, 134.919
0.351866, -1, 7.03485, 12.451, 17.6166, -146.873, -97.4511, 134.639
0.359831, -1, 6.8797, 12.4097, 17.6269, -146.921, -97.434, 134.359
0.493175, -1, 4.3206, 11.725, 17.7985, -147.715, -97.1518, 129.726
0.494988, -1, 4.3206, 11.725, 17.7985, -147.715, -97.1518, 129.726
0.496677, -1, 4.2429, 11.7043, 17.8038, -147.739, -97.1432, 129.586
0.497955, -1, 4.2429, 11.7043, 17.8038, -147.739, -97.1432, 129.586
0.500664, -1, 4.1653, 11.6836, 17.809, -147.763, -97.1347, 129.445
0.501868, -1, 4.1653, 11.6836, 17.809, -147.763, -97.1347, 129.445
0.503954, -1, 4.08782, 11.6629, 17.8143, -147.787, -97.1263, 129.304
0.507984, -1, 4.01046, 11.6422, 17.8195, -147.811, -97.1178, 129.164
0.509301, -1, 4.01046, 11.6422, 17.8195, -147.811, -97.1178, 129.164
0.51051, -1, 4.01046, 11.6422, 17.8195, -147.811, -97.1178, 129.164
0.513394, -1, 3.9332, 11.6215, 17.8246, -147.835, -97.1093, 129.023
0.515396, -1, 3.9332, 11.6215, 17.8246, -147.86, -97.1009, 128.883
0.51686, -1, 3.85599, 11.6008, 17.8298, -147.86, -97.1009, 128.883
0.518163, -1, 3.85599, 11.6008, 17.8298, -147.86, -97.1009, 128.883
0.520193, -1, 3.7788, 11.58, 17.835, -147.884, -97.0925, 128.742
0.522537, -1, 3.7788, 11.58, 17.835, -147.884, -97.0925, 128.742
0.525271, -1, 3.7016, 11.5592, 17.8402, -147.908, -97.0841, 128.601
0.526578, -1, 3.7016, 11.5592, 17.8402, -147.908, -97.0841, 128.601
0.528621, -1, 3.62437, 11.5385, 17.8454, -147.932, -97.0756, 128.46
0.529894, -1, 3.62437, 11.5385, 17.8454, -147.932, -97.0756, 128.46
0.531749, -1, 3.5471, 11.5176, 17.8506, -147.956, -97.067, 128.32
0.536765, -1, 3.4698, 11.4968, 17.8558, -147.981, -97.0584, 128.179
0.543796, -1, 3.31501, 11.4552, 17.8663, -148.029, -97.0409, 127.898
0.551831, -1, 3.15988, 11.4135, 17.8767, -148.077, -97.0233, 127.616
0.560751, -1, 3.00466, 11.3717, 17.8872, -148.125, -97.0059, 127.334
0.567872, -1, 2.84921, 11.3299, 17.8977, -148.174, -96.9888, 127.053
0.57611, -1, 2.69342, 11.2882, 17.908, -148.222, -96.9719, 126.771
0.582815, -1, 2.61544, 11.2673, 17.9131, -148.246, -96.9635, 126.63
0.592063, -1, 2.38106, 11.2047, 17.9289, -148.319, -96.9384, 126.207
0.598781, -1, 2.30284, 11.1838, 17.9341, -148.343, -96.9299, 126.066
0.608231, -1, 2.06783, 11.1212, 17.9498, -148.415, -96.9042, 125.644
0.616318, -1, 1.91113, 11.0795, 17.9602, -148.464, -96.8867, 125.362
0.624522, -1, 1.75469, 11.0379, 17.9706, -148.512, -96.8693, 125.08
0.635087, -1, 1.59833, 10.9961, 17.9811, -148.56, -96.852, 124.798
0.640444, -1, 1.44229, 10.9545, 17.9916, -148.609, -96.835, 124.516
0.648401, -1, 1.28641, 10.9129, 18.0021, -148.657, -96.8181, 124.234
0.657261, -1, 1.13086, 10.8711, 18.0125, -148.706, -96.8013, 123.952
0.662795, -1, 1.05324, 10.8503, 18.0176, -148.73, -96.7928, 123.81
0.803102, -1, -1.68078, 10.1184, 18.2006, -149.579, -96.4932, 118.862
0.806073, -1, -1.75878, 10.0975, 18.2058, -149.604, -96.4846, 118.72
0.807463, -1, -1.75878, 10.0975, 18.2058, -149.604, -96.4846, 118.72
0.808772, -1, -1.75878, 10.0975, 18.2058, -149.604, -96.4846, 118.72
0.810854, -1, -1.83668, 10.0766, 18.211, -149.628, -96.476, 118.578
0.812069, -1, -1.83668, 10.0766, 18.211, -149.628, -96.476, 118.578
0.814071, -1, -1.91452, 10.0556, 18.2162, -149.652, -96.4673, 118.436
0.816934, -1, -1.91452, 10.0556, 18.2162, -149.652, -96.4673, 118.436
0.818996, -1, -1.99225, 10.0347, 18.2215, -149.676, -96.4585, 118.294
0.820203, -1, -1.99225, 10.0347, 18.2215, -149.676, -96.4585, 118.294
0.822225, -1, -2.06989, 10.0138, 18.2267, -149.701, -96.4497, 118.153
0.823466, -1, -2.06989, 10.0138, 18.2267, -149.701, -96.4497, 118.153
0.824726, -1, -2.06989, 10.0138, 18.2267, -149.701, -96.4497, 118.153
0.827411, -1, -2.14743, 9.99285, 18.2319, -149.725, -96.4409, 118.011
0.830428, -1, -2.22497, 9.97193, 18.2371, -149.75, -96.4321, 117.869
0.834977, -1, -2.30256, 9.95102, 18.2423, -149.774, -96.4233, 117.727
0.836267, -1, -2.30256, 9.95102, 18.2423, -149.774, -96.4233, 117.727
0.83835, -1, -2.38022, 9.93007, 18.2475, -149.798, -96.4147, 117.585
0.839664, -1, -2.38022, 9.93007, 18.2475, -149.798, -96.4147, 117.585
0.840852, -1, -2.38022, 9.93007, 18.2475, -149.798, -96.4147, 117.585
0.842924, -1, -2.458, 9.90908, 18.2528, -149.822, -96.4061, 117.444
0.844183, -1, -2.458, 9.90908, 18.2528, -149.822, -96.4061, 117.444
0.848814, -1, -2.53583, 9.88809, 18.2581, -149.846, -96.3976, 117.302
0.854865, -1, -2.69164, 9.8462, 18.2684, -149.895, -96.3808, 117.018
0.863879, -1, -2.84788, 9.80427, 18.2789, -149.944, -96.3641, 116.734
0.871782, -1, -3.00456, 9.7623, 18.2893, -149.992, -96.3472, 116.451
0.879779, -1, -3.16153, 9.72039, 18.2997, -150.041, -96.33, 116.167
0.887841, -1, -3.31897, 9.67842, 18.3102, -150.09, -96.3125, 115.883
0.895837, -1, -3.47679, 9.63639, 18.3207, -150.138, -96.2948, 115.599
0.903776, -1, -3.63461, 9.59449, 18.3312, -150.187, -96.2774, 115.315
0.911861, -1, -3.79246, 9.55262, 18.3416, -150.235, -96.2601, 115.031
0.91977, -1, -3.9505, 9.51057, 18.352, -150.284, -96.2431, 114.746
0.92774, -1, -4.10837, 9.46866, 18.3624, -150.333, -96.2261, 114.462
0.935904, -1, -4.26616, 9.42674, 18.3728, -150.382, -96.2091, 114.178
0.943774, -1, -4.42384, 9.38473, 18.3831, -150.431, -96.1919, 113.893
0.951789, -1, -4.58101, 9.34278, 18.3935, -150.48, -96.1744, 113.609
0.959974, -1, -4.73781, 9.30074, 18.4039, -150.528, -96.1566, 113.324
0.967775, -1, -4.89429, 9.25866, 18.4144, -150.577, -96.1389, 113.039
0.975836, -1, -5.05041, 9.21663, 18.425, -150.626, -96.1216, 112.754
0.983927, -1, -5.20628, 9.1746, 18.4356, -150.675, -96.1045, 112.469
0.991824, -1, -5.36222, 9.13248, 18.4461, -150.723, -96.0875, 112.185
0.999864, -1, -5.51832, 9.09035, 18.4566, -150.773, -96.0706, 111.9
1.00793, -1, -5.67463, 9.04827, 18.467, -150.821, -96.0536, 111.615
1.01593, -1, -5.83137, 9.00612, 18.4775, -150.87, -96.0363, 111.331
1.02398, -1, -5.98851, 8.96394, 18.4879, -150.919, -96.0187, 111.046
1.03192, -1, -6.14621, 8.92183, 18.4982, -150.968, -96.0011, 110.76
1.03978, -1, -6.30433, 8.87971, 18.5086, -151.017, -95.9837, 110.475
1.04801, -1, -6.46272, 8.83758, 18.519, -151.066, -95.9666, 110.19
1.05586, -1, -6.6212, 8.79549, 18.5295, -151.115, -95.9495, 109.905
1.06388, -1, -6.77981, 8.75331, 18.5401, -151.164, -95.9325, 109.619
1.07196, -1, -6.93842, 8.71121, 18.5506, -151.213, -95.9155, 109.334
1.07995, -1, -7.09703, 8.66909, 18.5611, -151.261, -95.8981, 109.048
1.08681, -1, -7.17627, 8.64801, 18.5663, -151.286, -95.8894, 108.906
1.09638, -1, -7.41368, 8.58468, 18.5819, -151.36, -95.8628, 108.477
1.10411, -1, -7.57146, 8.54239, 18.5924, -151.409, -95.8451, 108.191
1.11077, -1, -7.65027, 8.52123, 18.5977, -151.433, -95.8364, 108.048
1.12027, -1, -7.88609, 8.45785, 18.6134, -151.507, -95.8107, 107.62
1.12832, -1, -8.04289, 8.4155, 18.6238, -151.556, -95.7937, 107.334
1.13652, -1, -8.19949, 8.37317, 18.6342, -151.605, -95.7768, 107.048
1.14477, -1, -8.35599, 8.33086, 18.6448, -151.654, -95.7596, 106.762
1.15237, -1, -8.51286, 8.28846, 18.6554, -151.703, -95.7423, 106.476
1.16043, -1, -8.59139, 8.26729, 18.6659, -151.752, -95.7246, 106.19
1.16777, -1, -8.74873, 8.22503, 18.6711, -151.777, -95.7158, 106.046
1.17583, -1, -8.90645, 8.18269, 18.6815, -151.826, -95.6982, 105.76
1.18381, -1, -9.06459, 8.14036, 18.6919, -151.875, -95.6809, 105.474
1.19181, -1, -9.22319, 8.09809, 18.7024, -151.924, -95.6637, 105.187
1.1998, -1, -9.38204, 8.05575, 18.7128, -151.973, -95.6467, 104.9
1.20784, -1, -9.54117, 8.01339, 18.7234, -152.022, -95.6295, 104.614
1.21584, -1, -9.70033, 7.97116, 18.7338, -152.072, -95.6122, 104.327
1.22376, -1, -9.85962, 7.92887, 18.7443, -152.121, -95.5947, 104.04
1.23178, -1, -10.019, 7.88649, 18.755, -152.17, -95.5768, 103.752
1.23977, -1, -10.1782, 7.84404, 18.7656, -152.22, -95.559, 103.466
1.24783, -1, -10.3373, 7.80156, 18.7762, -152.269, -95.5414, 103.179
1.25583, -1, -10.4963, 7.75906, 18.7868, -152.318, -95.5241, 102.892
1.26376, -1, -10.6548, 7.71661, 18.7972, -152.368, -95.5071, 102.605
1.27198, -1, -10.8128, 7.67408, 18.8077, -152.416, -95.4901, 102.318
1.27977, -1, -10.9707, 7.63149, 18.8182, -152.466, -95.473, 102.031
1.28777, -1, -11.1283, 7.589, 18.8286, -152.515, -95.4556, 101.743
1.2968, -1, -11.2857, 7.54653, 18.8391, -152.564, -95.4379, 101.456
1.30376, -1, -11.4431, 7.50405, 18.8496, -152.614, -95.4201, 101.169
1.31277, -1, -11.6007, 7.46157, 18.8602, -152.663, -95.4025, 100.881
1.31982, -1, -11.7585, 7.41915, 18.8708, -152.712, -95.3851, 100.593
1.32776, -1, -11.9169, 7.37671, 18.8814, -152.762, -95.3678, 100.305
1.33592, -1, -12.0756, 7.33431, 18.892, -152.811, -95.3506, 100.018
1.34376, -1, -12.2348, 7.29189, 18.9025, -152.86, -95.3334, 99.73
1.35178, -1, -12.3944, 7.24945, 18.9129, -152.91, -95.316, 99.4419
1.36004, -1, -12.5543, 7.20701, 18.9235, -152.959, -95.2982, 99.154
1.36779, -1, -12.7142, 7.16457, 18.9341, -153.009, -95.2802, 98.8663
1.37582, -1, -12.8743, 7.12209, 18.9446, -153.059, -95.2624, 98.5783
1.38464, -1, -13.0344, 7.07953, 18.9552, -153.108, -95.2447, 98.2901
1.39176, -1, -13.1943, 7.03694, 18.9657, -153.157, -95.2274, 98.0021
1.39977, -1, -13.3541, 6.99435, 18.9763, -153.207, -95.2102, 97.714
1.40856, -1, -13.5136, 6.95165, 18.9869, -153.256, -95.1931, 97.4255
1.41584, -1, -13.6728, 6.90887, 18.9975, -153.305, -95.1758, 97.1367
1.42377, -1, -13.8318, 6.86619, 19.0081, -153.355, -95.1583, 96.8483
1.43254, -1, -13.9904, 6.8235, 19.0185, -153.404, -95.1405, 96.5597
1.43975, -1, -14.1487, 6.78084, 19.0291, -153.454, -95.1227, 96.2709
1.44776, -1, -14.3069, 6.73823, 19.0396, -153.504, -95.1051, 95.9819
1.45661, -1, -14.4651, 6.6955, 19.0501, -153.553, -95.0878, 95.6929
1.46381, -1, -14.6236, 6.65288, 19.0607, -153.602, -95.0705, 95.4038
1.47176, -1, -14.7824, 6.61039, 19.0713, -153.652, -95.0534, 95.1144
1.48068, -1, -14.9416, 6.56774, 19.0819, -153.701, -95.0361, 94.8251
1.48779, -1, -15.1011, 6.52509, 19.0927, -153.751, -95.0185, 94.5362
1.49587, -1, -15.261, 6.48251, 19.1034, -153.801, -95.0006, 94.247
1.50483, -1, -15.4213, 6.43984, 19.1141, -153.85, -94.9826, 93.9578
1.51185, -1, -15.5819, 6.39712, 19.1247, -153.9, -94.9647, 93.6684
1.51993, -1, -15.7427, 6.35441, 19.1352, -153.95, -94.9472, 93.3792
1.52909, -1, -15.9034, 6.31158, 19.1459, -153.999, -94.9299, 93.0898
1.53542, -1, -16.0643, 6.26871, 19.1566, -154.049, -94.9129, 92.8
1.54399, -1, -16.2251, 6.22589, 19.1671, -154.099, -94.8957, 92.5103
1.55327, -1, -16.3857, 6.18291, 19.1776, -154.148, -94.8783, 92.221
1.5588, -1, -16.4659, 6.1614, 19.1829, -154.173, -94.8695, 92.0761
1.56787, -1, -16.7062, 6.09699, 19.1988, -154.248, -94.8427, 91.6408
1.57474, -1, -16.7861, 6.07549, 19.2041, -154.272, -94.8337, 91.4957
1.58395, -1, -17.0252, 6.01104, 19.2201, -154.347, -94.8073, 91.0606
1.59208, -1, -17.1844, 5.96809, 19.2307, -154.397, -94.7899, 90.7703
1.59879, -1, -17.2639, 5.94664, 19.236, -154.421, -94.7813, 90.6251
1.60815, -1, -17.5027, 5.88243, 19.252, -154.496, -94.7552, 90.1895
1.61478, -1, -17.5823, 5.86102, 19.2574, -154.521, -94.7466, 90.0445
1.62583, -1, -17.8215, 5.79682, 19.2734, -154.596, -94.7201, 89.609
1.63238, -1, -17.9813, 5.75403, 19.284, -154.646, -94.702, 89.3184
1.64029, -1, -18.1416, 5.71127, 19.2946, -154.696, -94.684, 89.028
1.64988, -1, -18.3023, 5.66847, 19.3053, -154.745, -94.6662, 88.7374
1.65642, -1, -18.4634, 5.6256, 19.316, -154.796, -94.6486, 88.4464
1.6643, -1, -18.5442, 5.60413, 19.3214, -154.821, -94.64, 88.1554
1.67175, -1, -18.7057, 5.56116, 19.3321, -154.87, -94.6227, 88.0101
1.67981, -1, -18.8673, 5.51817, 19.3427, -154.921, -94.6054, 87.7192
1.68775, -1, -19.0291, 5.47513, 19.3533, -154.971, -94.5879, 87.428
1.69584, -1, -19.1906, 5.43199, 19.3639, -155.02, -94.57, 87.1365
1.70384, -1, -19.3521, 5.38885, 19.3745, -155.07, -94.5519, 86.8452
1.71174, -1, -19.5133, 5.3457, 19.3851, -155.12, -94.534, 86.5538
1.71975, -1, -19.6743, 5.30246, 19.3958, -155.17, -94.5162, 86.2621
1.72775, -1, -19.835, 5.25931, 19.4064, -155.22, -94.4987, 85.9703
1.73581, -1, -19.9954, 5.21617, 19.4171, -155.27, -94.4812, 85.6788
1.74379, -1, -20.1554, 5.17302, 19.428, -155.32, -94.4639, 85.3873
1.75178, -1, -20.3152, 5.13006, 19.4388, -155.37, -94.4463, 85.0956
1.75974, -1, -20.4751, 5.08702, 19.4496, -155.42, -94.4285, 84.8036
1.76781, -1, -20.6352, 5.04394, 19.4603, -155.47, -94.4103, 84.5121
1.77581, -1, -20.7955, 5.00104, 19.4711, -155.521, -94.3924, 84.2203
1.78375, -1, -20.9562, 4.95803, 19.4818, -155.57, -94.3746, 83.9281
1.79182, -1, -21.1173, 4.91494, 19.4924, -155.621, -94.3571, 83.6361
1.79977, -1, -21.2787, 4.87187, 19.5031, -155.671, -94.3398, 83.3442
1.80878, -1, -21.4408, 4.82865, 19.5137, -155.721, -94.3225, 83.0519
1.81586, -1, -21.6029, 4.78536, 19.5245, -155.772, -94.3052, 82.7592
1.82475, -1, -21.7652, 4.74217, 19.5353, -155.822, -94.2875, 82.4666
1.83181, -1, -21.9276, 4.69879, 19.5459, -155.872, -94.2695, 82.174
1.83974, -1, -22.0901, 4.65538, 19.5568, -155.922, -94.2515, 81.8812
1.84776, -1, -22.2526, 4.61204, 19.5674, -155.972, -94.2338, 81.5882
1.85587, -1, -22.415, 4.56858, 19.5781, -156.022, -94.2162, 81.2954
1.86377, -1, -22.577, 4.52518, 19.5889, -156.073, -94.1987, 81.0028
1.87179, -1, -22.7387, 4.48175, 19.5995, -156.123, -94.1812, 80.7099
1.87981, -1, -22.9001, 4.43831, 19.6102, -156.173, -94.1637, 80.4168
1.88775, -1, -23.0612, 4.39497, 19.6209, -156.224, -94.1458, 80.1238
1.89582, -1, -23.2223, 4.35169, 19.6316, -156.274, -94.1276, 79.8307
1.90381, -1, -23.3831, 4.30838, 19.6425, -156.324, -94.1093, 79.5372
1.91174, -1, -23.544, 4.26513, 19.6533, -156.375, -94.0912, 79.2437
1.91981, -1, -23.7051, 4.22184, 19.6641, -156.425, -94.0735, 78.9505
1.92789, -1, -23.8663, 4.1786, 19.6749, -156.475, -94.0559, 78.657
1.93579, -1, -24.0278, 4.13525, 19.6855, -156.526, -94.0385, 78.3631
1.94375, -1, -24.1897, 4.09187, 19.6963, -156.576, -94.021, 78.0691
1.95181, -1, -24.3521, 4.04849, 19.707, -156.627, -94.0034, 77.7753
1.95974, -1, -24.515, 4.00502, 19.7176, -156.677, -93.9853, 77.4813
1.96797, -1, -24.678, 3.96145, 19.7283, -156.727, -93.9672, 77.1869
1.9758, -1, -24.8413, 3.91787, 19.739, -156.778, -93.9492, 76.8929
1.98375, -1, -25.0047, 3.87431, 19.7498, -156.828, -93.9315, 76.599
1.99198, -1, -25.1681, 3.83072, 19.7607, -156.878, -93.9139, 76.3047
1.99982, -1, -25.3313, 3.78714, 19.7716, -156.929, -93.8964, 76.0102
2.00784, -1, -25.4943, 3.74347, 19.7824, -156.979, -93.8789, 75.716
2.01639, -1, -25.657, 3.69975, 19.7931, -157.03, -93.8611, 75.4216
2.02384, -1, -25.8196, 3.65621, 19.8039, -157.08, -93.8429, 75.127
2.03187, -1, -25.982, 3.6127, 19.8147, -157.131, -93.8245, 74.8322
2.04037, -1, -26.144, 3.56912, 19.8254, -157.181, -93.8063, 74.5378
2.04776, -1, -26.3056, 3.52569, 19.8362, -157.232, -93.7883, 74.2431
2.05582, -1, -26.4671, 3.48227, 19.847, -157.282, -93.7706, 73.9481
2.0647, -1, -26.6289, 3.43873, 19.8577, -157.333, -93.753, 73.6528
2.07178, -1, -26.791, 3.39522, 19.8686, -157.384, -93.7354, 73.3577
2.07987, -1, -26.9534, 3.35167, 19.8794, -157.434, -93.7176, 73.0623
2.08876, -1, -27.1161, 3.30798, 19.8903, -157.485, -93.6995, 72.7667
2.09611, -1, -27.2791, 3.26439, 19.901, -157.536, -93.6812, 72.4714
2.10277, -1, -27.3608, 3.24256, 19.9064, -157.561, -93.672, 72.3239
2.11303, -1, -27.6064, 3.17682, 19.9226, -157.637, -93.645, 71.8806
2.11875, -1, -27.6884, 3.15497, 19.928, -157.662, -93.6361, 71.7328
2.12823, -1, -27.9346, 3.08943, 19.9442, -157.738, -93.6095, 71.2893
2.13714, -1, -28.0989, 3.04566, 19.955, -157.789, -93.5917, 70.9937
2.14432, -1, -28.2632, 3.00195, 19.9657, -157.84, -93.5739, 70.6977
2.1523, -1, -28.4273, 2.95819, 19.9766, -157.89, -93.5556, 70.4015
2.16121, -1, -28.5093, 2.93631, 19.9875, -157.941, -93.5372, 70.1057
2.16673, -1, -28.673, 2.89263, 19.9929, -157.967, -93.528, 69.9578
2.17696, -1, -28.918, 2.82702, 20.0091, -158.043, -93.5008, 69.5134
2.18374, -1, -28.9995, 2.80516, 20.0145, -158.068, -93.4918, 69.3651
2.19074, -1, -29.1622, 2.76149, 20.0252, -158.119, -93.474, 69.0687
2.19976, -1, -29.3249, 2.71779, 20.0361, -158.17, -93.4564, 68.772
2.20777, -1, -29.4876, 2.67407, 20.0469, -158.221, -93.4387, 68.4752
2.21578, -1, -29.6504, 2.63028, 20.0578, -158.272, -93.4207, 68.1782
2.22373, -1, -29.8134, 2.58643, 20.0686, -158.323, -93.4024, 67.8817
2.23173, -1, -29.9765, 2.54265, 20.0795, -158.374, -93.384, 67.5849
2.23873, -1, -30.1399, 2.4987, 20.0905, -158.425, -93.3657, 67.2879
2.24774, -1, -30.3037, 2.45469, 20.1015, -158.475, -93.3477, 66.9907
2.25575, -1, -30.4681, 2.41072, 20.1124, -158.527, -93.3299, 66.6939
2.26379, -1, -30.6329, 2.36665, 20.1232, -158.577, -93.3122, 66.3967
2.27173, -1, -30.7979, 2.32266, 20.134, -158.628, -93.2944, 66.0992
2.27975, -1, -30.9629, 2.27871, 20.145, -158.68, -93.2763, 65.8019
2.28673, -1, -31.128, 2.23465, 20.1558, -158.73, -93.2579, 65.5047
2.29573, -1, -31.2931, 2.19073, 20.1667, -158.782, -93.2393, 65.2073
2.30477, -1, -31.458, 2.14686, 20.1775, -158.833, -93.2211, 64.9096
2.31072, -1, -31.6225, 2.1028, 20.1883, -158.884, -93.2031, 64.6117
2.31975, -1, -31.7871, 2.05881, 20.1993, -158.935, -93.1853, 64.3139
2.32773, -1, -31.9513, 2.0149, 20.2102, -158.986, -93.1677, 64.0157
2.3358, -1, -32.1153, 1.9709, 20.2212, -159.037, -93.1501, 63.7176
2.34373, -1, -32.2789, 1.92688, 20.2322, -159.089, -93.1322, 63.4198
2.35179, -1, -32.4424, 1.88286, 20.243, -159.14, -93.114, 63.1218
2.35975, -1, -32.6061, 1.83873, 20.254, -159.191, -93.0955, 62.8235
2.36776, -1, -32.77, 1.79467, 20.2649, -159.243, -93.0773, 62.5251
2.37594, -1, -32.934, 1.75055, 20.2758, -159.293, -93.0593, 62.227
2.38373, -1, -33.0984, 1.70631, 20.2868, -159.344, -93.0414, 61.9284
2.39174, -1, -33.263, 1.66212, 20.2976, -159.396, -93.0236, 61.6296
2.39981, -1, -33.428, 1.61794, 20.3086, -159.447, -93.0058, 61.3311
2.40773, -1, -33.5935, 1.57369, 20.3196, -159.498, -92.9876, 61.0326
2.41574, -1, -33.7592, 1.52946, 20.3305, -159.55, -92.9692, 60.7337
2.42381, -1, -33.9251, 1.48524, 20.3414, -159.601, -92.9505, 60.4346
2.43172, -1, -34.091, 1.44108, 20.3523, -159.652, -92.932, 60.1355
2.43974, -1, -34.257, 1.39693, 20.3633, -159.704, -92.9138, 59.8361
2.4478, -1, -34.423, 1.35271, 20.3742, -159.755, -92.8959, 59.5364
2.45572, -1, -34.5889, 1.30854, 20.3852, -159.807, -92.8781, 59.2368
2.46373, -1, -34.7545, 1.26438, 20.3961, -159.858, -92.8602, 58.9376
2.47182, -1, -34.9195, 1.22016, 20.4071, -159.909, -92.8422, 58.6381
2.47975, -1, -35.0844, 1.17594, 20.4181, -159.961, -92.8238, 58.3383
2.48774, -1, -35.2491, 1.13163, 20.4292, -160.012, -92.8053, 58.0385
2.49583, -1, -35.4134, 1.0874, 20.4403, -160.063, -92.7869, 57.7389
2.50384, -1, -35.5767, 1.04342, 20.4515, -160.115, -92.7686, 57.439
2.51183, -1, -35.7378, 0.999851, 20.4629, -160.166, -92.7506, 57.1395
2.51991, -1, -35.8954, 0.957138, 20.4746, -160.217, -92.7328, 56.8424
2.52783, -1, -36.0486, 0.915804, 20.4865, -160.267, -92.7152, 56.5498
2.53587, -1, -36.1955, 0.876378, 20.4985, -160.315, -92.6978, 56.2651
2.54394, -1, -36.3335, 0.839593, 20.5103, -160.361, -92.681, 55.9936
2.55173, -1, -36.4611, 0.805819, 20.5215, -160.405, -92.6651, 55.7419
2.55978, -1, -36.5767, 0.775228, 20.5315, -160.443, -92.6509, 55.5156
2.56784, -1, -36.6788, 0.748314, 20.5399, -160.476, -92.6387, 55.3203
2.57578, -1, -36.766, 0.72518, 20.5461, -160.503, -92.6288, 55.1598
2.58386, -1, -36.8389, 0.705906, 20.55, -160.524, -92.6213, 55.0342
2.59206, -1, -36.8986, 0.690265, 20.552, -160.54, -92.6158, 54.9427
2.59875, -1, -36.9235, 0.683681, 20.5526, -160.546, -92.6138, 54.9079
2.60839, -1, -36.9798, 0.668581, 20.5529, -160.559, -92.61, 54.8385
2.61624, -1, -37.0046, 0.662288, 20.5525, -160.563, -92.6088, 54.8147
2.62415, -1, -37.0207, 0.658365, 20.5521, -160.565, -92.6081, 54.8018
2.63228, -1, -37.03, 0.656147, 20.5518, -160.567, -92.6078, 54.7955
2.64045, 2, -37.0342, 0.655049, 20.5517, -160.567, -92.6076, 54.7927
2.64828, 2, -37.0348, 0.654565, 20.5517, -160.567, -92.6076, 54.7914
2.65652, 2, -37.0342, 0.654358, 20.5516, -160.568, -92.6075, 54.7908
2.66438, 2, -37.0337, 0.65426, 20.5516, -160.568, -92.6075, 54.7906
2.67225, 2, -37.0337, 0.654229, 20.5516, -160.568, -92.6075, 54.7905
2.68065, 2, -37.0345, 0.654168, 20.5516, -160.568, -92.6075, 54.7904
2.68777, 2, -37.035, 0.654152, 20.5515, -160.568, -92.6076, 54.7904
2.69574, 2, -37.0361, 0.654037, 20.5514, -160.568, -92.6076, 54.7904
2.70375, 2, -37.0377, 0.653825, 20.5512, -160.568, -92.6076, 54.7905
2.71181, 2, -37.039, 0.653561, 20.551, -160.568, -92.6077, 54.7905
2.71974, 2, -37.0402, 0.653293, 20.5508, -160.568, -92.6077, 54.7906
2.72773, 2, -37.0411, 0.653078, 20.5507, -160.568, -92.6077, 54.7906
2.73577, 2, -37.0416, 0.652967, 20.5504, -160.568, -92.6077, 54.7907
2.74372, 2, -37.0416, 0.652911, 20.5503, -160.568, -92.6078, 54.7909
2.75172, 2, -37.0411, 0.652903, 20.5501, -160.568, -92.6078, 54.791
2.75981, 2, -37.0403, 0.65291, 20.5501, -160.568, -92.6079, 54.7911
2.76772, 2, -37.0392, 0.65297, 20.55, -160.568, -92.608, 54.7913
2.77572, 2, -37.0377, 0.653046, 20.5499, -160.568, -92.608, 54.7915
2.78379, 2, -37.0362, 0.653124, 20.5499, -160.568, -92.608, 54.7917
2.79172, 2, -37.0352, 0.65316, 20.5498, -160.568, -92.608, 54.7917
2.79974, 2, -37.0346, 0.653147, 20.5497, -160.568, -92.608, 54.7918
2.80874, 2, -37.0344, 0.653114, 20.5497, -160.568, -92.608, 54.7918
2.81572, 2, -37.0344, 0.653083, 20.5497, -160.568, -92.608, 54.7919
2.82472, 2, -37.0346, 0.652994, 20.5497, -160.567, -92.6081, 54.792
2.83178, 2, -37.0349, 0.652941, 20.5497, -160.567, -92.6081, 54.792
2.83974, 2, -37.0355, 0.652909, 20.5496, -160.567, -92.608, 54.792
2.84773, 2, -37.0362, 0.652877, 20.5496, -160.567, -92.608, 54.792
2.85579, 2, -37.037, 0.652875, 20.5496, -160.567, -92.6081, 54.7921
2.86372, 2, -37.0376, 0.652881, 20.5496, -160.567, -92.6081, 54.7921
2.87176, 2, -37.038, 0.6529, 20.5496, -160.567, -92.6081, 54.7921
2.87994, 2, -37.0382, 0.652934, 20.5496, -160.567, -92.6081, 54.7922
2.88772, 2, -37.0382, 0.652958, 20.5496, -160.567, -92.6081, 54.7922
2.89571, 2, -37.0381, 0.652985, 20.5496, -160.567, -92.6081, 54.7923
2.90379, 2, -37.0377, 0.652998, 20.5496, -160.567, -92.6081, 54.7923
2.91172, 2, -37.0373, 0.652997, 20.5496, -160.567, -92.6081, 54.7924
2.91974, 2, -37.0371, 0.652979, 20.5496, -160.567, -92.6081, 54.7924
2.92781, 2, -37.0369, 0.652952, 20.5496, -160.567, -92.6081, 54.7925
2.93572, 2, -37.0368, 0.652929, 20.5496, -160.567, -92.6081, 54.7925
2.94373, 2, -37.0367, 0.652911, 20.5495, -160.567, -92.6082, 54.7925
2.95179, 2, -37.0368, 0.652914, 20.5495, -160.567, -92.6081, 54.7926
2.95974, 2, -37.0368, 0.652911, 20.5495, -160.567, -92.6081, 54.7926
2.96773, 2, -37.0368, 0.652921, 20.5495, -160.567, -92.6081, 54.7927
2.97581, 2, -37.0369, 0.652908, 20.5495, -160.567, -92.6082, 54.7928
2.98372, 2, -37.0371, 0.65293, 20.5494, -160.567, -92.6082, 54.7928
2.99174, 2, -37.0373, 0.652961, 20.5494, -160.567, -92.6082, 54.7929
2.99985, 2, -37.0374, 0.65297, 20.5495, -160.567, -92.6083, 54.7929
3.00783, 2, -37.0375, 0.652984, 20.5494, -160.567, -92.6082, 54.7929
3.01582, 2, -37.0374, 0.652974, 20.5495, -160.567, -92.6083, 54.7931
3.02388, 2, -37.0374, 0.65295, 20.5494, -160.567, -92.6082, 54.7931
3.03183, 2, -37.0374, 0.65295, 20.5494, -160.567, -92.6082, 54.7931
3.03988, 2, -37.0374, 0.652957, 20.5494, -160.567, -92.6082, 54.7931
3.04793, 2, -37.0374, 0.652932, 20.5494, -160.567, -92.6083, 54.7932
3.05573, 2, -37.0373, 0.652941, 20.5494, -160.567, -92.6082, 54.7932
3.06375, 2, -37.0373, 0.652935, 20.5493, -160.567, -92.6083, 54.7932
3.07184, 2, -37.0373, 0.652921, 20.5493, -160.567, -92.6083, 54.7933
3.07994, 2, -37.0373, 0.652937, 20.5493, -160.567, -92.6083, 54.7933
3.08699, 2, -37.0373, 0.652934, 20.5493, -160.567, -92.6083, 54.7933
3.09597, 2, -37.0373, 0.652962, 20.5493, -160.567, -92.6083, 54.7935
3.10399, 2, -37.0373, 0.652963, 20.5493, -160.567, -92.6083, 54.7935
3.11079, 2, -37.0373, 0.652963, 20.5493, -160.567, -92.6083, 54.7935
3.12017, 2, -37.0373, 0.652963, 20.5493, -160.567, -92.6083, 54.7936
3.1267, 2, -37.0373, 0.652971, 20.5493, -160.567, -92.6083, 54.7936
3.13659, 2, -37.0373, 0.65299, 20.5493, -160.567, -92.6083, 54.7937
3.14432, 2, -37.0373, 0.652957, 20.5493, -160.567, -92.6083, 54.7937
3.15226, 2, -37.0373, 0.652961, 20.5493, -160.567, -92.6084, 54.7938
3.16057, 2, -37.0372, 0.652951, 20.5493, -160.567, -92.6084, 54.7938
3.16835, 2, -37.0372, 0.652951, 20.5492, -160.567, -92.6083, 54.7939
3.17647, 2, -37.0373, 0.652955, 20.5492, -160.567, -92.6084, 54.7939
3.18456, 2, -37.0372, 0.652968, 20.5492, -160.567, -92.6084, 54.7939
3.19176, 2, -37.0372, 0.652974, 20.5492, -160.567, -92.6084, 54.7939
3.19974, 2, -37.0372, 0.652981, 20.5492, -160.567, -92.6083, 54.794
3.20796, 2, -37.0372, 0.652971, 20.5492, -160.567, -92.6084, 54.7941
3.21579, 2, -37.0372, 0.652969, 20.5492, -160.567, -92.6084, 54.7941
3.2237, 2, -37.0372, 0.652966, 20.5492, -160.567, -92.6084, 54.7941
3.23171, 2, -37.0372, 0.652977, 20.5492, -160.567, -92.6084, 54.7942
3.23977, 2, -37.0372, 0.652975, 20.5492, -160.567, -92.6084, 54.7941
3.2477, 2, -37.0371, 0.652969, 20.5492, -160.567, -92.6084, 54.7942
3.25571, 2, -37.0371, 0.652973, 20.5492, -160.567, -92.6084, 54.7942
3.26381, 2, -37.0371, 0.652973, 20.5491, -160.567, -92.6084, 54.7942
3.27171, 2, -37.0371, 0.65295, 20.5491, -160.567, -92.6084, 54.7943
3.27973, 2, -37.0371, 0.652957, 20.5491, -160.567, -92.6084, 54.7943
3.28777, 2, -37.0371, 0.652973, 20.5491, -160.567, -92.6085, 54.7943
3.2957, 2, -37.0371, 0.652968, 20.5491, -160.567, -92.6085, 54.7943
3.30563, 2, -37.0371, 0.652972, 20.5491, -160.567, -92.6085, 54.7944
3.31179, 2, -37.0371, 0.652984, 20.5491, -160.567, -92.6085, 54.7944
3.32079, 2, -37.0371, 0.652998, 20.5491, -160.567, -92.6085, 54.7944
3.32777, 2, -37.037, 0.652991, 20.549, -160.567, -92.6084, 54.7944
3.33577, 2, -37.037, 0.652994, 20.549, -160.567, -92.6085, 54.7945
3.3437, 2, -37.037, 0.652977, 20.549, -160.567, -92.6085, 54.7945
3.3517, 2, -37.037, 0.65297, 20.549, -160.567, -92.6085, 54.7945
3.35979, 2, -37.037, 0.652967, 20.549, -160.567, -92.6085, 54.7945
3.36771, 2, -37.037, 0.652972, 20.549, -160.567, -92.6085, 54.7945
3.37574, 2, -37.037, 0.652973, 20.549, -160.567, -92.6085, 54.7945
3.38381, 2, -37.0369, 0.652975, 20.549, -160.567, -92.6085, 54.7946
3.39171, 2, -37.0369, 0.652986, 20.549, -160.567, -92.6085, 54.7946
3.39972, 2, -37.0369, 0.652956, 20.549, -160.567, -92.6085, 54.7947
3.40777, 2, -37.0369, 0.65296, 20.5489, -160.567, -92.6085, 54.7947
3.4157, 2, -37.0369, 0.652969, 20.5489, -160.567, -92.6085, 54.7948
3.4237, 2, -37.0369, 0.652991, 20.5489, -160.567, -92.6085, 54.7948
3.43179, 2, -37.0368, 0.652981, 20.5489, -160.567, -92.6085, 54.7948
3.43972, 2, -37.0368, 0.652984, 20.5489, -160.567, -92.6085, 54.7948
3.4477, 2, -37.0368, 0.65298, 20.5489, -160.567, -92.6085, 54.7948
3.45578, 2, -37.0368, 0.652984, 20.5489, -160.567, -92.6085, 54.7948
3.46371, 2, -37.0368, 0.65299, 20.5489, -160.567, -92.6085, 54.7948
3.47171, 2, -37.0367, 0.652976, 20.5489, -160.567, -92.6085, 54.7948
3.47981, 2, -37.0367, 0.652969, 20.5489, -160.566, -92.6085, 54.7948
3.48771, 2, -37.0367, 0.652966, 20.5489, -160.567, -92.6085, 54.7949
3.49572, 2, -37.0367, 0.652954, 20.5489, -160.567, -92.6085, 54.7949
3.50382, 2, -37.0367, 0.652971, 20.5489, -160.566, -92.6086, 54.7949
3.51179, 2, -37.0367, 0.652972, 20.5488, -160.566, -92.6086, 54.7949
3.51981, 2, -37.0367, 0.652968, 20.5488, -160.566, -92.6085, 54.795
3.52787, 2, -37.0367, 0.652973, 20.5488, -160.566, -92.6085, 54.795
3.53581, 2, -37.0367, 0.652992, 20.5488, -160.566, -92.6085, 54.7949
3.54384, 2, -37.0367, 0.653001, 20.5488, -160.566, -92.6085, 54.795
3.5519, 2, -37.0367, 0.652998, 20.5488, -160.566, -92.6085, 54.795
3.55973, 2, -37.0366, 0.652999, 20.5488, -160.566, -92.6085, 54.795
3.56774, 2, -37.0366, 0.652997, 20.5488, -160.566, -92.6085, 54.795
3.57584, 2, -37.0366, 0.652999, 20.5488, -160.566, -92.6085, 54.795
3.58384, 2, -37.0366, 0.652997, 20.5488, -160.566, -92.6085, 54.795
3.59183, 2, -37.0366, 0.652979, 20.5488, -160.566, -92.6085, 54.795
3.60008, 2, -37.0366, 0.652971, 20.5487, -160.566, -92.6085, 54.7951
3.60672, 2, -37.0366, 0.652968, 20.5488, -160.566, -92.6085, 54.7951
3.61604, 2, -37.0366, 0.652972, 20.5487, -160.566, -92.6086, 54.7951
3.62269, 2, -37.0366, 0.652984, 20.5487, -160.566, -92.6086, 54.7951
3.6322, 2, -37.0366, 0.652989, 20.5487, -160.566, -92.6085, 54.7951
3.64067, 2, -37.0366, 0.652988, 20.5487, -160.566, -92.6085, 54.7951
3.64846, 2, -37.0366, 0.652987, 20.5487, -160.566, -92.6086, 54.7951
3.65649, 2, -37.0366, 0.652999, 20.5487, -160.566, -92.6086, 54.7951
3.66428, 2, -37.0366, 0.653004, 20.5487, -160.566, -92.6086, 54.7951
3.67235, 2, -37.0365, 0.653007, 20.5487, -160.566, -92.6085, 54.7951
3.67969, 2, -37.0365, 0.653008, 20.5487, -160.566, -92.6085, 54.7951
3.68769, 2, -37.0365, 0.653008, 20.5487, -160.566, -92.6085, 54.7952
3.69574, 2, -37.0365, 0.653009, 20.5487, -160.566, -92.6085, 54.7952
3.70376, 4, -37.0365, 0.653009, 20.5486, -160.566, -92.6086, 54.7952
3.71173, 4, -37.0365, 0.653009, 20.5486, -160.566, -92.6086, 54.7952
3.71979, 4, -37.0365, 0.653009, 20.5486, -160.566, -92.6086, 54.7952
3.72769, 4, -37.0365, 0.653009, 20.5486, -160.566, -92.6086, 54.7951
3.73569, 4, -37.0365, 0.653009, 20.5486, -160.566, -92.6087, 54.7951
3.74374, 4, -37.0365, 0.653009, 20.5486, -160.566, -92.6086, 54.7952
3.75168, 4, -37.0365, 0.653009, 20.5486, -160.566, -92.6086, 54.7952
3.75971, 4, -37.0365, 0.653009, 20.5486, -160.566, -92.6086, 54.7952
3.76787, 4, -37.0365, 0.653009, 20.5486, -160.566, -92.6087, 54.7951
3.77569, 4, -37.0365, 0.653009, 20.5486, -160.566, -92.6086, 54.7952
3.78369, 4, -37.0365, 0.653009, 20.5486, -160.566, -92.6086, 54.7953
3.79068, 4, -37.0364, 0.653009, 20.5485, -160.566, -92.6087, 54.7953
3.79971, 4, -37.0364, 0.653009, 20.5485, -160.566, -92.6087, 54.7952
3.8263, 4, -37.0364, 0.653009, 20.5485, -160.566, -92.6087, 54.7952
3.8283, 4, -37.0364, 0.653009, 20.5485, -160.566, -92.6087, 54.7952
3.83108, 4, -37.0364, 0.653009, 20.5485, -160.566, -92.6087, 54.7952
3.83361, 4, -37.0364, 0.653009, 20.5485, -160.566, -92.6087, 54.7952
3.84303, 4, -37.0364, 0.653009, 20.5485, -160.566, -92.6086, 54.7952
3.85033, 4, -37.0361, 0.652953, 20.5485, -160.566, -92.6087, 54.7952
3.85576, 4, -37.0356, 0.652861, 20.5485, -160.566, -92.6087, 54.7952
3.86369, 4, -37.033, 0.65198, 20.5486, -160.566, -92.6086, 54.7952
3.8717, 4, -37.0272, 0.649177, 20.5495, -160.566, -92.6086, 54.7952
3.87986, 4, -37.0176, 0.643266, 20.552, -160.566, -92.6087, 54.7952
3.88772, 4, -37.0042, 0.633748, 20.5575, -160.565, -92.6087, 54.7952
3.8957, 4, -36.986, 0.620039, 20.5672, -160.563, -92.6087, 54.7952
3.90386, 5, -36.9621, 0.601777, 20.5827, -160.56, -92.6086, 54.7952
3.91128, 5, -36.9329, 0.579112, 20.6047, -160.556, -92.6085, 54.7951
3.91969, 5, -36.8989, 0.551823, 20.6335, -160.55, -92.6081, 54.7951
3.92769, 5, -36.8602, 0.520259, 20.6691, -160.542, -92.6074, 54.7951
3.93578, 5, -36.8163, 0.483774, 20.7104, -160.533, -92.6062, 54.7951
3.94369, 5, -36.7673, 0.442804, 20.7569, -160.522, -92.6047, 54.7951
3.95192, 5, -36.7132, 0.397785, 20.8072, -160.511, -92.603, 54.795
3.95964, 5, -36.6549, 0.349525, 20.86, -160.499, -92.6011, 54.795
3.96778, 5, -36.5926, 0.298864, 20.9144, -160.487, -92.5993, 54.795
3.97592, 5, -36.527, 0.246375, 20.9697, -160.475, -92.5974, 54.795
3.98492, 5, -36.4597, 0.192911, 21.0253, -160.462, -92.5955, 54.795
3.99113, 5, -36.3915, 0.139094, 21.0809, -160.45, -92.5935, 54.795
3.99968, 5, -36.3228, 0.0850733, 21.1365, -160.438, -92.5916, 54.795
4.00864, 5, -36.254, 0.0310954, 21.192, -160.426, -92.5896, 54.795
4.01578, 5, -36.1851, -0.0227242, 21.2476, -160.414, -92.5876, 54.7951
4.02725, 5, -36.0821, -0.102996, 21.3308, -160.396, -92.5846, 54.7953
4.032, 5, -36.0479, -0.129622, 21.3585, -160.389, -92.5835, 54.7954
4.03979, 5, -35.9794, -0.18273, 21.4138, -160.377, -92.5814, 54.7957
4.04784, 5, -35.9108, -0.235729, 21.4691, -160.364, -92.5792, 54.7961
4.0559, 5, -35.8422, -0.288477, 21.5243, -160.351, -92.5771, 54.7967
4.06372, 5, -35.7733, -0.341172, 21.5794, -160.338, -92.575, 54.7976
4.07172, 5, -35.7043, -0.393887, 21.6344, -160.326, -92.5729, 54.7986
4.07997, 5, -35.635, -0.446605, 21.6892, -160.313, -92.5708, 54.7998
4.0879, 5, -35.5653, -0.499462, 21.7437, -160.3, -92.5686, 54.8011
4.09598, 5, -35.4954, -0.552293, 21.7982, -160.288, -92.5665, 54.8025
4.10283, 5, -35.4603, -0.57871, 21.8253, -160.282, -92.5654, 54.8033
4.11293, 5, -35.3549, -0.657946, 21.9064, -160.263, -92.5622, 54.8058
4.12006, 5, -35.2844, -0.710767, 21.9605, -160.25, -92.56, 54.8076
4.12687, 5, -35.2491, -0.737145, 21.9874, -160.243, -92.5589, 54.8086
4.13715, 5, -35.1433, -0.815722, 22.0681, -160.223, -92.5556, 54.8118
4.14267, 5, -35.108, -0.841886, 22.095, -160.216, -92.5545, 54.8129
4.15257, 5, -35.0021, -0.920043, 22.1754, -160.196, -92.5511, 54.8164
4.16122, 5, -34.9316, -0.971726, 22.2288, -160.183, -92.5489, 54.8189
4.16669, 5, -34.8964, -0.997527, 22.2555, -160.177, -92.5477, 54.8202
4.1783, 5, -34.7907, -1.07471, 22.3355, -160.157, -92.5443, 54.8243
4.18495, 5, -34.7202, -1.12615, 22.3884, -160.145, -92.5419, 54.8271
4.19302, 5, -34.6494, -1.17745, 22.4413, -160.132, -92.5395, 54.83
4.19968, 5, -34.6139, -1.2031, 22.4677, -160.125, -92.5383, 54.8316
4.20772, 5, -34.5429, -1.25451, 22.5201, -160.112, -92.536, 54.8346
4.21571, 5, -34.4718, -1.30587, 22.5726, -160.099, -92.5337, 54.8378
4.22372, 5, -34.4004, -1.35724, 22.6249, -160.085, -92.5313, 54.8412
4.23566, 5, -34.293, -1.43429, 22.703, -160.064, -92.5278, 54.8463
4.23972, 5, -34.2572, -1.45991, 22.729, -160.057, -92.5266, 54.8481
4.24767, 5, -34.1853, -1.51099, 22.7809, -160.044, -92.5241, 54.8519
4.25568, 5, -34.1133, -1.56185, 22.8327, -160.03, -92.5218, 54.8557
4.26374, 5, -34.0412, -1.61254, 22.8843, -160.017, -92.5194, 54.8596
4.27169, 5, -33.9691, -1.663, 22.9359, -160.003, -92.517, 54.8636
4.27994, 5, -33.8969, -1.71324, 22.9874, -159.99, -92.5146, 54.8677
4.28793, 5, -33.8248, -1.76331, 23.0386, -159.976, -92.5122, 54.8719
4.29568, 5, -33.7527, -1.81328, 23.0897, -159.962, -92.5098, 54.876
4.30383, 5, -33.6804, -1.86316, 23.1407, -159.948, -92.5074, 54.8804
4.3125, 5, -33.608, -1.91299, 23.1914, -159.933, -92.5051, 54.8846
4.3197, 5, -33.5354, -1.96306, 23.2421, -159.919, -92.5028, 54.8888
4.32872, 5, -33.4626, -2.01339, 23.2926, -159.905, -92.5005, 54.8929
4.33574, 5, -33.3897, -2.06403, 23.343, -159.891, -92.4982, 54.8961
4.3437, 5, -33.3169, -2.11503, 23.3933, -159.877, -92.4959, 54.8979
4.35282, 6, -33.2444, -2.16658, 23.4437, -159.863, -92.4936, 54.898
4.35984, 6, -33.1723, -2.21897, 23.4944, -159.848, -92.4909, 54.8962
4.36774, 6, -33.1005, -2.27222, 23.5455, -159.833, -92.4877, 54.8906
4.37646, 7, -33.0293, -2.32646, 23.5974, -159.816, -92.4835, 54.8792
4.38372, 7, -32.9585, -2.3818, 23.6504, -159.798, -92.478, 54.8641
4.39178, 7, -32.8882, -2.43837, 23.7047, -159.779, -92.4708, 54.8464
4.40308, 7, -32.7837, -2.52608, 23.7891, -159.747, -92.4561, 54.8186
4.4078, 7, -32.7493, -2.55607, 23.8179, -159.737, -92.45, 54.8095
4.41481, 8, -32.6808, -2.61735, 23.8766, -159.714, -92.4366, 54.7919
4.42377, 8, -32.6131, -2.68024, 23.9367, -159.69, -92.4211, 54.7749
4.43184, 8, -32.5461, -2.74501, 23.9981, -159.664, -92.4036, 54.7576
4.43998, 8, -32.4798, -2.81143, 24.0605, -159.637, -92.3842, 54.7396
4.44768, 8, -32.4143, -2.8794, 24.1239, -159.609, -92.3634, 54.7201
4.45591, 9, -32.3493, -2.94883, 24.1883, -159.581, -92.3414, 54.699
4.46376, 9, -32.285, -3.01957, 24.2537, -159.552, -92.3183, 54.6762
4.47167, 9, -32.2213, -3.09167, 24.3201, -159.521, -92.2941, 54.6515
4.47989, 9, -32.158, -3.16502, 24.3875, -159.489, -92.2683, 54.6255
4.48795, 9, -32.0953, -3.23962, 24.4559, -159.457, -92.2407, 54.5984
4.49576, 9, -32.0332, -3.31556, 24.5252, -159.424, -92.2115, 54.5698
4.50372, 10, -31.9718, -3.39277, 24.5956, -159.39, -92.1813, 54.5394
4.51185, 10, -31.9109, -3.47141, 24.667, -159.354, -92.15, 54.5071
4.51983, 10, -31.8505, -3.55148, 24.7395, -159.318, -92.117, 54.4727
4.52809, 10, -31.7907, -3.63293, 24.8131, -159.281, -92.082, 54.4371
4.53665, 10, -31.7316, -3.71586, 24.8876, -159.243, -92.046, 54.4005
4.54379, 11, -31.6729, -3.8003, 24.9632, -159.204, -92.0092, 54.3623
4.55393, 11, -31.6148, -3.88622, 25.0395, -159.164, -91.9709, 54.3221
4.56003, 11, -31.5571, -3.97358, 25.1169, -159.124, -91.9304, 54.2801
4.56872, 11, -31.5, -4.06241, 25.1952, -159.081, -91.8891, 54.2369
4.57575, 11, -31.4435, -4.15271, 25.2747, -159.038, -91.8467, 54.1926
4.58377, 12, -31.3874, -4.24451, 25.3551, -158.995, -91.8022, 54.1465
4.59186, 12, -31.3319, -4.33766, 25.4367, -158.95, -91.7564, 54.0981
4.59988, 12, -31.2769, -4.43217, 25.5194, -158.904, -91.71, 54.0488
4.60829, 12, -31.2224, -4.52802, 25.603, -158.858, -91.6616, 53.9982
4.61604, 12, -31.1684, -4.62531, 25.6876, -158.811, -91.6118, 53.9456
4.62271, 13, -31.1416, -4.67446, 25.7303, -158.786, -91.5867, 53.9185
4.63221, 13, -31.0619, -4.82405, 25.8596, -158.713, -91.5084, 53.8364
4.64019, 13, -31.0094, -4.92564, 25.9472, -158.663, -91.4546, 53.7797
4.64831, 13, -30.9575, -5.02882, 26.0358, -158.611, -91.4, 53.721
4.66015, 13, -30.906, -5.13334, 26.1709, -158.533, -91.3146, 53.6315
4.66421, 14, -30.8805, -5.23927, 26.2164, -158.506, -91.2859, 53.6007
4.67233, 14, -30.83, -5.29285, 26.3083, -158.453, -91.2267, 53.5375
4.68045, 14, -30.78, -5.45569, 26.401, -158.399, -91.1662, 53.474
4.68919, 14, -30.7305, -5.56615, 26.4946, -158.342, -91.1051, 53.4086
4.69467, 14, -30.6816, -5.62195, 26.5418, -158.314, -91.0733, 53.3749
4.70366, 15, -30.6331, -5.73463, 26.637, -158.258, -91.0095, 53.3072
4.71171, 15, -30.585, -5.8487, 26.7334, -158.199, -90.9444, 53.2385
4.7197, 15, -30.5376, -5.96399, 26.831, -158.141, -90.8776, 53.1674
4.73074, 15, -30.4673, -6.13959, 26.9792, -158.051, -90.7756, 53.0596
4.73856, 15, -30.4211, -6.25847, 27.0792, -157.99, -90.7057, 52.9847
4.74263, 15, -30.3982, -6.31843, 27.1294, -157.959, -90.6704, 52.947
4.75166, 16, -30.3528, -6.4396, 27.2307, -157.896, -90.598, 52.8708
4.75983, 16, -30.3079, -6.56226, 27.3332, -157.833, -90.5253, 52.7919
4.76719, 16, -30.2634, -6.68624, 27.4368, -157.768, -90.4507, 52.7127
4.77727, 16, -30.1976, -6.87518, 27.5944, -157.671, -90.3365, 52.5906
4.78388, 17, -30.1759, -6.9389, 27.6474, -157.637, -90.2977, 52.5495
4.79172, 17, -30.1329, -7.06756, 27.7539, -157.571, -90.2194, 52.4661
4.79968, 17, -30.0905, -7.19785, 27.8614, -157.503, -90.1396, 52.3812
4.80781, 17, -30.0485, -7.32952, 27.9698, -157.434, -90.0583, 52.2956
4.81641, 17, -30.007, -7.46241, 28.0794, -157.364, -89.976, 52.2077
4.82374, 17, -29.9661, -7.59672, 28.1904, -157.294, -89.8922, 52.1192
4.83166, 18, -29.9256, -7.73249, 28.3023, -157.222, -89.8072, 52.0289
4.84065, 18, -29.8856, -7.8697, 28.4152, -157.15, -89.7207, 51.9377
4.84772, 18, -29.8461, -8.00826, 28.5287, -157.076, -89.6334, 51.8444
4.85673, 18, -29.8071, -8.14795, 28.6434, -157.002, -89.5446, 51.7504
4.86702, 18, -29.7494, -8.3601, 28.8176, -156.889, -89.409, 51.6066
4.87072, 19, -29.7304, -8.43154, 28.8763, -156.851, -89.3633, 51.5582
4.88251, 19, -29.6741, -8.64835, 29.0538, -156.736, -89.224, 51.4108
4.88792, 19, -29.6556, -8.72135, 29.1133, -156.697, -89.1768, 51.3611
4.89586, 19, -29.6189, -8.86823, 29.233, -156.618, -89.0822, 51.261
4.90366, 19, -29.5826, -9.01637, 29.3536, -156.539, -88.9861, 51.16
4.91172, 20, -29.547, -9.16603, 29.4753, -156.458, -88.8888, 51.0574
4.91965, 20, -29.5116, -9.31721, 29.5983, -156.377, -88.7908, 50.9538
4.92766, 20, -29.4767, -9.46988, 29.7222, -156.295, -88.6917, 50.849
4.93582, 20, -29.4423, -9.62355, 29.8468, -156.212, -88.5912, 50.7427
4.94274, 20, -29.4084, -9.77845, 29.9725, -156.128, -88.4899, 50.6356
4.95175, 21, -29.375, -9.93476, 30.0991, -156.043, -88.3874, 50.527
4.95967, 21, -29.3419, -10.0926, 30.2267, -155.957, -88.2836, 50.4177
4.96767, 21, -29.3093, -10.2519, 30.3555, -155.871, -88.179, 50.3071
4.97574, 21, -29.2771, -10.412, 30.4851, -155.784, -88.0734, 50.1959
4.98387, 21, -29.2453, -10.5733, 30.6156, -155.696, -87.9665, 50.0839
4.99175, 22, -29.214, -10.7359, 30.7469, -155.606, -87.8589, 49.9709
4.99993, 22, -29.1829, -10.9, 30.8792, -155.516, -87.7501, 49.8571
5.00789, 22, -29.1523, -11.0651, 31.0125, -155.425, -87.6405, 49.7425
5.01701, 22, -29.1222, -11.2312, 31.1467, -155.333, -87.5297, 49.6266
5.02387, 22, -29.0923, -11.3984, 31.2818, -155.241, -87.4179, 49.5103
5.03172, 23, -29.0629, -11.5674, 31.4178, -155.147, -87.3054, 49.393
5.04024, 23, -29.0338, -11.7378, 31.5546, -155.053, -87.1917, 49.2748
5.04776, 23, -29.005, -11.909, 31.6921, -154.958, -87.0773, 49.1563
5.05774, 23, -28.9767, -12.0811, 31.8305, -154.862, -86.9622, 49.0371
5.06401, 23, -28.9488, -12.2546, 31.9699, -154.765, -86.8459, 48.9172
5.07177, 23, -28.9213, -12.4297, 32.1102, -154.667, -86.7287, 48.7967
5.08259, 24, -28.8941, -12.6054, 32.2513, -154.568, -86.6105, 48.676
5.0881, 24, -28.8671, -12.7815, 32.3929, -154.469, -86.4917, 48.5543
5.09672, 24, -28.8406, -12.9589, 32.5353, -154.369, -86.3719, 48.4322
5.10385, 24, -28.8144, -13.138, 32.6788, -154.268, -86.2512, 48.3093
5.11224, 24, -28.7884, -13.318, 32.8232, -154.166, -86.1301, 48.1861
5.11867, 25, -28.7756, -13.4081, 32.8956, -154.114, -86.0692, 48.1244
5.12673, 25, -28.7502, -13.589, 33.0408, -154.011, -85.9466, 48.0009
5.13629, 25, -28.7123, -13.8628, 33.2598, -153.855, -85.762, 47.8156
5.14425, 25, -28.6873, -14.0467, 33.4069, -153.75, -85.6377, 47.6917
5.15217, 25, -28.6628, -14.2311, 33.5548, -153.644, -85.5131, 47.5679
5.16073, 26, -28.6385, -14.4161, 33.7032, -153.538, -85.3876, 47.4437
5.16842, 26, -28.6145, -14.6027, 33.8519, -153.43, -85.262, 47.3193
5.17624, 26, -28.6026, -14.6965, 34.0017, -153.322, -85.1354, 47.195
5.18444, 26, -28.579, -14.9783, 34.1522, -153.213, -85.0083, 47.0706
5.19312, 26, -28.5554, -15.1665, 34.3032, -153.103, -84.8807, 46.9467
5.19864, 27, -28.532, -15.261, 34.3788, -153.048, -84.8167, 46.8847
5.2086, 27, -28.509, -15.4508, 34.5304, -152.938, -84.6885, 46.7616
5.21718, 27, -28.4861, -15.6409, 34.7593, -152.77, -84.4949, 46.5766
5.22277, 27, -28.4634, -15.8313, 34.836, -152.714, -84.4302, 46.5151
5.23169, 27, -28.4411, -16.0229, 34.9894, -152.601, -84.3006, 46.3925
5.23967, 28, -28.4187, -16.216, 35.1429, -152.488, -84.1704, 46.2699
5.24765, 28, -28.3963, -16.4096, 35.2971, -152.374, -84.0399, 46.1479
5.25755, 28, -28.3632, -16.7008, 35.5298, -152.201, -83.8436, 45.9658
5.26379, 28, -28.3522, -16.7985, 35.6075, -152.144, -83.778, 45.9055
5.27167, 28, -28.33, -16.9943, 35.763, -152.028, -83.6464, 45.7855
5.28109, 29, -28.308, -17.1901, 35.9189, -151.852, -83.4489, 45.6072
5.28767, 29, -28.2861, -17.386, 36.0755, -151.793, -83.3828, 45.5482
5.29566, 29, -28.2644, -17.5827, 36.2325, -151.675, -83.2505, 45.4309
5.30719, 29, -28.2317, -17.8788, 36.4679, -151.497, -83.0513, 45.2568
5.3118, 29, -28.221, -17.9775, 36.5465, -151.438, -82.9849, 45.1991
5.31994, 30, -28.1996, -18.1752, 36.7043, -151.318, -82.8518, 45.0849
5.32774, 30, -28.1782, -18.3739, 36.8629, -151.197, -82.7185, 44.9716
5.33684, 30, -28.1568, -18.5729, 37.0214, -151.076, -82.5853, 44.8594
5.3437, 30, -28.1355, -18.772, 37.1798, -150.954, -82.4514, 44.7485
5.35166, 30, -28.1143, -18.9719, 37.3387, -150.831, -82.3177, 44.639
5.35985, 31, -28.0929, -19.1729, 37.4982, -150.708, -82.1834, 44.5311
5.36772, 31, -28.0715, -19.374, 37.6578, -150.585, -82.0494, 44.4245
5.37564, 31, -28.0502, -19.5749, 37.8171, -150.46, -81.9149, 44.3195
5.38371, 31, -28.029, -19.7763, 37.9768, -150.335, -81.7807, 44.2164
5.39167, 31, -28.0075, -19.9779, 38.1372, -150.21, -81.6463, 44.1146
5.3999, 32, -27.986, -20.179, 38.2976, -150.084, -81.5119, 44.0148
5.40789, 32, -27.9644, -20.3799, 38.4574, -149.957, -81.3776, 43.9168
5.41562, 32, -27.9424, -20.5815, 38.6171, -149.831, -81.2434, 43.8214
5.42365, 32, -27.9201, -20.7832, 38.7771, -149.704, -81.1095, 43.7279
5.432, 32, -27.8976, -20.9842, 38.9371, -149.576, -80.9755, 43.6374
5.44059, 32, -27.8749, -21.1851, 39.0963, -149.449, -80.8422, 43.5495
5.44863, 33, -27.8518, -21.3861, 39.2551, -149.321, -80.7092, 43.4648
5.45779, 33, -27.8284, -21.5864, 39.4141, -149.194, -80.5767, 43.3829
5.4638, 33, -27.8045, -21.7857, 39.5727, -149.066, -80.4444, 43.3042
5.47172, 33, -27.7801, -21.9849, 39.7304, -148.938, -80.3129, 43.2289
5.47969, 33, -27.7552, -22.1838, 39.8873, -148.811, -80.1815, 43.1564
5.48766, 34, -27.7299, -22.3818, 40.0441, -148.683, -80.0507, 43.088
5.49574, 34, -27.7041, -22.5789, 40.2007, -148.556, -79.92, 43.0223
5.50365, 34, -27.6778, -22.7759, 40.3566, -148.428, -79.7892, 42.9596
5.51188, 34, -27.6512, -22.9725, 40.5117, -148.3, -79.6586, 42.9008
5.51975, 34, -27.6239, -23.1683, 40.6668, -148.172, -79.5278, 42.8448
5.52774, 35, -27.5964, -23.3637, 40.822, -148.044, -79.3972, 42.7918
5.53579, 35, -27.5687, -23.5595, 40.9767, -147.915, -79.2665, 42.7429
5.54377, 35, -27.5407, -23.7552, 41.1308, -147.786, -79.1363, 42.6974
5.55175, 35, -27.5124, -23.9502, 41.2848, -147.657, -79.0061, 42.6549
5.55999, 35, -27.4839, -24.1448, 41.439, -147.527, -78.8762, 42.6156
5.5677, 36, -27.4549, -24.3396, 41.5929, -147.396, -78.7462, 42.5803
5.57568, 36, -27.4256, -24.5338, 41.7462, -147.266, -78.6168, 42.5493
5.58404, 36, -27.396, -24.727, 41.8988, -147.135, -78.4879, 42.5226
5.59326, 36, -27.3659, -24.9201, 42.0514, -147.004, -78.359, 42.5001
5.59985, 36, -27.335, -25.1131, 42.2033, -146.873, -78.231, 42.4818
5.60788, 37, -27.3033, -25.305, 42.354, -146.742, -78.1031, 42.4682
5.61677, 37, -27.2708, -25.4957, 42.5036, -146.612, -77.976, 42.4594
5.62404, 37, -27.2375, -25.6857, 42.6526, -146.482, -77.849, 42.455
5.63311, 37, -27.2035, -25.8751, 42.8005, -146.353, -77.7228, 42.4535
5.641, 37, -27.1685, -26.0628, 42.9473, -146.225, -77.5968, 42.4561
5.64825, 37, -27.1326, -26.2489, 43.0928, -146.097, -77.4713, 42.4655
5.65704, 38, -27.096, -26.4342, 43.2373, -145.969, -77.3466, 42.4803
5.66425, 38, -27.0586, -26.6187, 43.3812, -145.842, -77.2221, 42.5005
5.67313, 38, -27.0204, -26.8017, 43.5243, -145.715, -77.0982, 42.5262
5.68205, 38, -26.9814, -26.9834, 43.6663, -145.588, -76.9747, 42.5575
5.68853, 38, -26.9416, -27.1647, 43.8073, -145.462, -76.8517, 42.5949
5.69766, 39, -26.9012, -27.3455, 43.9476, -145.335, -76.7289, 42.6386
5.70363, 39, -26.8806, -27.4354, 44.0173, -145.272, -76.6675, 42.6626
5.7154, 39, -26.8174, -27.7032, 44.2254, -145.083, -76.4839, 42.7425
5.71959, 39, -26.7961, -27.7922, 44.2942, -145.02, -76.4227, 42.7723
5.72772, 39, -26.7526, -27.9699, 44.4309, -144.895, -76.3005, 42.8371
5.73568, 40, -26.7082, -28.1465, 44.5664, -144.77, -76.1784, 42.9073
5.74272, 40, -26.6626, -28.3214, 44.701, -144.646, -76.0565, 42.9846
5.75163, 40, -26.6163, -28.4949, 44.8343, -144.522, -75.9352, 43.0681
5.75879, 40, -26.5689, -28.6674, 44.9664, -144.4, -75.8138, 43.1577
5.76916, 40, -26.4957, -28.9237, 45.162, -144.217, -75.6332, 43.3051
5.77568, 41, -26.4709, -29.0082, 45.2265, -144.156, -75.5731, 43.3576
5.78373, 41, -26.4203, -29.1759, 45.3546, -144.036, -75.4531, 43.4677
5.79163, 41, -26.3686, -29.3426, 45.4814, -143.916, -75.3339, 43.5844
5.79968, 41, -26.3155, -29.508, 45.6069, -143.798, -75.2148, 43.7082
5.80781, 41, -26.2613, -29.6713, 45.7307, -143.68, -75.0965, 43.8393
5.81578, 42, -26.2056, -29.8327, 45.8526, -143.564, -74.9785, 43.9775
5.82365, 42, -26.1484, -29.9923, 45.9727, -143.449, -74.8609, 44.1233
5.83257, 42, -26.0895, -30.1501, 46.0905, -143.336, -74.7442, 44.2758
5.83963, 42, -26.0289, -30.3057, 46.2062, -143.225, -74.6277, 44.4358
5.84768, 42, -25.9667, -30.4588, 46.3198, -143.116, -74.512, 44.6027
5.85662, 43, -25.9027, -30.6095, 46.4311, -143.009, -74.3966, 44.7768
5.86381, 43, -25.8371, -30.7581, 46.5402, -142.904, -74.2817, 44.9588
5.87259, 43, -25.7698, -30.9045, 46.6473, -142.8, -74.1673, 45.1485
5.88314, 43, -25.6657, -31.1197, 46.8042, -142.648, -73.9963, 45.4474
5.88782, 43, -25.6303, -31.1903, 46.8556, -142.599, -73.9396, 45.5508
5.89562, 44, -25.5583, -31.3301, 46.9569, -142.501, -73.8266, 45.7635
5.90372, 44, -25.4846, -31.4678, 47.056, -142.405, -73.7141, 45.9841
5.91179, 44, -25.4091, -31.6034, 47.1527, -142.311, -73.6023, 46.213
5.91983, 44, -25.3318, -31.7366, 47.2469, -142.22, -73.491, 46.4498
5.92762, 44, -25.2528, -31.8671, 47.3388, -142.131, -73.3805, 46.6948
5.9356, 45, -25.172, -31.995, 47.4282, -142.045, -73.2707, 46.9479
5.94369, 45, -25.0892, -32.1201, 47.5152, -141.962, -73.1612, 47.2098
5.95162, 45, -25.0043, -32.2424, 47.5997, -141.882, -73.0525, 47.4799
5.95986, 45, -24.9173, -32.3618, 47.6812, -141.804, -72.9441, 47.7582
5.96767, 45, -24.828, -32.4781, 47.7597, -141.729, -72.836, 48.0447
5.97565, 45, -24.7364, -32.5911, 47.8351, -141.657, -72.7288, 48.3397
5.98372, 46, -24.6424, -32.7007, 47.9076, -141.589, -72.6219, 48.6433
5.99163, 46, -24.546, -32.8069, 47.9771, -141.524, -72.5159, 48.9552
5.99971, 46, -24.4471, -32.9096, 48.0436, -141.464, -72.4109, 49.2753
6.008, 46, -24.3462, -33.0085, 48.1067, -141.406, -72.3065, 49.604
6.01661, 46, -24.2428, -33.1038, 48.1665, -141.353, -72.2037, 49.9407
6.02461, 47, -24.1372, -33.1952, 48.2227, -141.304, -72.1018, 50.2854
6.03363, 47, -24.029, -33.2826, 48.2753, -141.258, -72.0007, 50.6386
6.03972, 47, -23.9182, -33.3659, 48.3243, -141.217, -71.9013, 51
6.04779, 47, -23.8048, -33.445, 48.3694, -141.181, -71.8027, 51.37
6.05574, 47, -23.6886, -33.5201, 48.4107, -141.15, -71.7052, 51.7491
6.06399, 48, -23.5696, -33.5908, 48.4479, -141.122, -71.6095, 52.1368
6.07171, 48, -23.4481, -33.6569, 48.481, -141.1, -71.5152, 52.5331
6.07971, 48, -23.324, -33.7184, 48.5099, -141.082, -71.4223, 52.9396
6.08968, 48, -23.1974, -33.7749, 48.5348, -141.069, -71.3317, 53.355
6.09573, 48, -23.0679, -33.8262, 48.555, -141.062, -71.2429, 53.7796
6.10385, 49, -22.9355, -33.8724, 48.571, -141.059, -71.1559, 54.2127
6.11226, 49, -22.8002, -33.9131, 48.5823, -141.06, -71.0709, 54.6529
6.11999, 49, -22.6619, -33.9483, 48.5889, -141.068, -70.9881, 55.1014
6.12664, 49, -22.5917, -33.9637, 48.5905, -141.075, -70.9475, 55.3282
6.13646, 49, -22.3768, -34.0014, 48.5885, -141.103, -70.8292, 56.0199
6.1441, 50, -22.2302, -34.0189, 48.5808, -141.13, -70.754, 56.4903
6.15225, 50, -22.0809, -34.0303, 48.5681, -141.162, -70.6812, 56.9674
6.16019, 50, -21.9288, -34.0354, 48.5501, -141.2, -70.6119, 57.4531
6.16824, 50, -21.7738, -34.0346, 48.5269, -141.245, -70.5453, 57.9461
6.17642, 50, -21.6156, -34.0274, 48.4979, -141.297, -70.4826, 58.4465
6.18457, 51, -21.4544, -34.0134, 48.4637, -141.354, -70.4234, 58.953
6.19247, 51, -21.2905, -33.9926, 48.4241, -141.418, -70.3674, 59.466
6.19967, 51, -21.2076, -33.9796, 48.4021, -141.452, -70.3411, 59.7248
6.21087, 51, -20.955, -33.9298, 48.3279, -141.564, -70.2673, 60.5101
6.21579, 51, -20.8695, -33.9096, 48.3003, -141.604, -70.2445, 60.7747
6.22358, 52, -20.6966, -33.8635, 48.2407, -141.69, -70.2023, 61.3078
6.23166, 52, -20.5211, -33.8096, 48.1752, -141.781, -70.1652, 61.8476
6.24122, 52, -20.2525, -33.7139, 48.0658, -141.931, -70.1175, 62.6699
6.24766, 52, -20.1615, -33.6779, 48.0262, -141.985, -70.1039, 62.9473
6.25562, 52, -19.9777, -33.5997, 47.9424, -142.096, -70.0806, 63.5059
6.26358, 53, -19.7913, -33.5132, 47.8523, -142.213, -70.0627, 64.071
6.27167, 53, -19.6028, -33.4181, 47.7561, -142.337, -70.0504, 64.6417
6.27962, 53, -19.4124, -33.3147, 47.6538, -142.466, -70.0436, 65.2174
6.28777, 53, -19.2201, -33.2033, 47.5456, -142.602, -70.0415, 65.796
6.29566, 53, -19.026, -33.0837, 47.4316, -142.743, -70.0446, 66.3786
6.30386, 54, -18.8301, -32.9558, 47.3117, -142.889, -70.0539, 66.964
6.31179, 54, -18.6326, -32.8195, 47.1859, -143.039, -70.0694, 67.5506
6.32053, 54, -18.4331, -32.675, 47.0544, -143.194, -70.0916, 68.1382
6.32761, 54, -18.2316, -32.5223, 46.9174, -143.354, -70.1206, 68.7271
6.33805, 54, -17.9268, -32.2776, 46.7013, -143.602, -70.1753, 69.6134
6.34384, 54, -17.8246, -32.1915, 46.6262, -143.687, -70.1969, 69.9097
6.35457, 55, -17.5167, -31.9193, 46.3915, -143.948, -70.2744, 70.8034
6.35963, 55, -17.4135, -31.824, 46.3102, -144.038, -70.3038, 71.1035
6.36769, 55, -17.2058, -31.6262, 46.1423, -144.221, -70.3688, 71.7073
6.37563, 55, -16.9964, -31.4182, 45.9667, -144.409, -70.4432, 72.3151
6.38371, 55, -16.7851, -31.1992, 45.7836, -144.602, -70.526, 72.9282
6.39176, 56, -16.5723, -30.97, 45.5939, -144.8, -70.6185, 73.5461
6.40214, 56, -16.2505, -30.606, 45.2955, -145.105, -70.7738, 74.4798
6.40762, 56, -16.1428, -30.479, 45.1921, -145.209, -70.8304, 74.7924
6.41577, 56, -15.9277, -30.2175, 44.9806, -145.42, -70.9505, 75.4201
6.42367, 56, -15.7127, -29.9454, 44.7632, -145.633, -71.0799, 76.0504
6.43161, 57, -15.4966, -29.6623, 44.5385, -145.85, -71.219, 76.6811
6.43962, 57, -15.2796, -29.3695, 44.3074, -146.069, -71.3674, 77.3131
6.44769, 57, -15.0616, -29.0661, 44.0704, -146.291, -71.526, 77.9462
6.45563, 57, -14.8433, -28.7538, 43.8268, -146.514, -71.6938, 78.5785
6.46501, 57, -14.6254, -28.433, 43.5784, -146.738, -71.8711, 79.2088
6.47179, 58, -14.4083, -28.1044, 43.3256, -146.962, -72.0567, 79.8366
6.48006, 58, -14.1924, -27.7684, 43.0687, -147.185, -72.2499, 80.46
6.48762, 58, -13.9779, -27.4247, 42.8092, -147.407, -72.4504, 81.0764
6.49571, 58, -13.7651, -27.0743, 42.5465, -147.627, -72.6578, 81.6861
6.50364, 58, -13.5537, -26.7173, 42.2811, -147.845, -72.8719, 82.2896
6.51161, 59, -13.3434, -26.3537, 42.0127, -148.06, -73.0928, 82.8869
6.5199, 59, -13.1349, -25.9827, 41.7402, -148.274, -73.3212, 83.478
6.52771, 59, -12.9282, -25.6052, 41.4646, -148.486, -73.5576, 84.0653
6.53603, 59, -12.7228, -25.2207, 41.1845, -148.696, -73.8022, 84.6491
6.54389, 59, -12.5183, -24.8292, 40.9008, -148.905, -74.0557, 85.2298
6.55206, 60, -12.3148, -24.4296, 40.6125, -149.113, -74.3184, 85.8066
6.56021, 60, -12.1124, -24.0224, 40.3199, -149.318, -74.5901, 86.3809
6.57212, 60, -11.9116, -23.3993, 39.8745, -149.623, -75.0142, 87.2362
6.57455, 60, -11.8117, -23.3993, 39.8745, -149.623, -75.0142, 87.2362
6.58365, 60, -11.5147, -22.7623, 39.4236, -149.922, -75.4569, 88.0806
6.59205, 61, -11.3197, -22.3317, 39.1204, -150.117, -75.7606, 88.6368
6.59973, 61, -11.127, -21.8975, 38.8167, -150.308, -76.0701, 89.1856
6.60788, 61, -10.9365, -21.4595, 38.5121, -150.493, -76.3842, 89.7254
6.61616, 61, -10.7483, -21.0182, 38.208, -150.674, -76.7024, 90.255
6.62642, 61, -10.5625, -20.5736, 37.9038, -150.85, -77.0244, 90.7755
6.63204, 61, -10.3792, -20.1256, 37.6002, -151.02, -77.3501, 91.2861
6.64008, 62, -10.1986, -19.6747, 37.2966, -151.185, -77.6801, 91.7882
6.6466, 62, -10.1094, -19.4484, 37.1447, -151.266, -77.8468, 92.036
6.65616, 62, -9.84569, -18.7659, 36.6883, -151.501, -78.3546, 92.7678
6.66504, 62, -9.67328, -18.3084, 36.3831, -151.653, -78.6994, 93.2467
6.67312, 62, -9.50317, -17.8497, 36.0782, -151.799, -79.0489, 93.7177
6.68024, 63, -9.33512, -17.3897, 35.7733, -151.941, -79.4025, 94.1801
6.68825, 63, -9.25195, -17.1592, 35.6216, -152.078, -79.7592, 94.632
6.69634, 63, -9.08749, -16.697, 35.1686, -152.209, -80.1185, 95.0745
6.7036, 63, -8.92557, -16.233, 35.0183, -152.272, -80.299, 95.2916
6.7116, 63, -8.76617, -15.7665, 34.7191, -152.395, -80.6616, 95.7176
6.72098, 64, -8.5318, -15.0631, 34.273, -152.569, -81.2104, 96.3384
6.72761, 64, -8.45487, -14.8279, 34.1251, -152.625, -81.395, 96.5401
6.73564, 64, -8.30286, -14.3562, 33.8289, -152.733, -81.767, 96.9361
6.74562, 64, -8.07903, -13.648, 33.3854, -152.885, -82.3336, 97.5135
6.7516, 64, -8.00557, -13.4121, 33.2375, -152.933, -82.5245, 97.7007
6.75962, 65, -7.86044, -12.9408, 32.9431, -153.026, -82.9086, 98.0669
6.76775, 65, -7.71795, -12.471, 32.6508, -153.114, -83.2949, 98.4217
6.77566, 65, -7.57837, -12.0022, 32.3615, -153.195, -83.6818, 98.763
6.7836, 65, -7.44193, -11.5344, 32.0765, -153.271, -84.0683, 99.09
6.79173, 65, -7.30845, -11.0672, 31.7953, -153.341, -84.4535, 99.4026
6.79974, 66, -7.17798, -10.6016, 31.519, -153.404, -84.8376, 99.7002
6.80771, 66, -7.04985, -10.1389, 31.2461, -153.461, -85.2204, 99.9827
6.81594, 66, -6.92378, -9.67995, 30.977, -153.514, -85.6028, 100.25
6.8236, 66, -6.79984, -9.22626, 30.712, -153.56, -85.9846, 100.501
6.83259, 66, -6.67808, -8.77889, 30.4499, -153.601, -86.3652, 100.737
6.84066, 67, -6.55853, -8.33771, 30.1927, -153.636, -86.7435, 100.956
6.84839, 67, -6.44156, -7.90295, 29.9405, -153.666, -87.1183, 101.158
6.85563, 67, -6.32768, -7.4742, 29.6945, -153.69, -87.4886, 101.342
6.86772, 67, -6.1622, -6.84186, 29.3394, -153.715, -88.0332, 101.584
6.8728, 67, -6.10836, -6.63409, 29.2242, -153.72, -88.2118, 101.656
6.88244, 68, -5.95042, -6.02023, 28.8888, -153.729, -88.7395, 101.845
6.88767, 68, -5.8988, -5.81895, 28.7801, -153.73, -88.9132, 101.9
6.89567, 68, -5.79688, -5.42044, 28.5657, -153.729, -89.2582, 101.996
6.90363, 68, -5.69663, -5.02782, 28.3551, -153.723, -89.6008, 102.074
6.91161, 68, -5.59804, -4.64049, 28.1484, -153.712, -89.9422, 102.134
6.9198, 68, -5.50107, -4.25858, 27.9446, -153.697, -90.2827, 102.176
6.92758, 69, -5.40584, -3.88017, 27.7439, -153.677, -90.6227, 102.199
6.9356, 69, -5.31237, -3.50543, 27.5476, -153.653, -90.9622, 102.206
6.94357, 69, -5.22054, -3.13414, 27.355, -153.624, -91.3011, 102.192
6.95179, 69, -5.1305, -2.76698, 27.1655, -153.591, -91.6392, 102.157
6.9596, 69, -5.04216, -2.4027, 26.9799, -153.555, -91.976, 102.101
6.96782, 70, -4.95527, -2.04227, 26.7985, -153.515, -92.3115, 102.022
6.97732, 70, -4.86961, -1.6861, 26.6205, -153.471, -92.6455, 101.922
6.9836, 70, -4.78514, -1.33546, 26.446, -153.423, -92.9777, 101.798
6.99486, 70, -4.70172, -0.819129, 26.1928, -153.346, -93.4719, 101.573
6.99982, 70, -4.61945, -0.650154, 26.1104, -153.318, -93.6354, 101.487
7.00762, 71, -4.53812, -0.316988, 25.9484, -153.261, -93.9598, 101.299
7.01594, 71, -4.45787, 0.00958999, 25.791, -153.202, -94.2811, 101.09
7.02371, 71, -4.37864, 0.329158, 25.6394, -153.139, -94.5985, 100.86
7.03192, 71, -4.30017, 0.642866, 25.4928, -153.075, -94.9119, 100.61
7.03969, 71, -4.22253, 0.949684, 25.3509, -153.008, -95.2215, 100.34
7.04784, 72, -4.14571, 1.24982, 25.2137, -152.94, -95.5273, 100.05
7.05619, 72, -4.06916, 1.54311, 25.0806, -152.87, -95.8298, 99.7403
7.06366, 72, -3.99292, 1.82956, 24.9511, -152.799, -96.1293, 99.4101
7.07232, 72, -3.91685, 2.11019, 24.825, -152.726, -96.4262, 99.0593
7.07963, 72, -3.84077, 2.38441, 24.7019, -152.654, -96.7206, 98.6875
7.08763, 73, -3.76482, 2.6526, 24.5819, -152.58, -97.0127, 98.2937
7.09687, 73, -3.68891, 2.915, 24.4651, -152.507, -97.3022, 97.8782
7.10405, 73, -3.61271, 3.1706, 24.3518, -152.433, -97.5891, 97.4401
7.11259, 73, -3.53625, 3.41982, 24.2422, -152.36, -97.8731, 96.9802
7.12003, 73, -3.45939, 3.66277, 24.1366, -152.287, -98.1536, 96.4999
7.12903, 73, -3.38207, 3.8978, 24.035, -152.216, -98.4304, 95.9989
7.1346, 74, -3.34311, 4.01216, 23.9856, -152.181, -98.5671, 95.7418
7.14533, 74, -3.22534, 4.34298, 23.8435, -152.077, -98.969, 94.9456
7.15282, 74, -3.14596, 4.55244, 23.7539, -152.01, -99.2295, 94.3976
7.16015, 74, -3.06601, 4.75218, 23.6686, -151.946, -99.4831, 93.8374
7.16814, 74, -2.98523, 4.94251, 23.5876, -151.883, -99.7294, 93.2664
7.17715, 75, -2.90349, 5.12334, 23.5108, -151.824, -99.9673, 92.6859
7.18419, 75, -2.8207, 5.29351, 23.4378, -151.768, -100.197, 92.0976
7.19699, 75, -2.77896, 5.37449, 23.4028, -151.74, -100.524, 91.2001
7.20047, 75, -2.69479, 5.52851, 23.3034, -151.664, -100.628, 90.897
7.20847, 75, -2.60971, 5.6719, 23.2722, -151.64, -100.83, 90.2853
7.21559, 76, -2.52367, 5.80404, 23.213, -151.594, -100.928, 89.9768
7.22323, 76, -2.43668, 5.92479, 23.1581, -151.553, -101.116, 89.3528
7.23164, 76, -2.34885, 6.0338, 23.1077, -151.516, -101.295, 88.7198
7.23961, 76, -2.26024, 6.13055, 23.0616, -151.482, -101.465, 88.079
7.24775, 76, -2.17079, 6.21477, 23.0203, -151.452, -101.623, 87.4321
7.2558, 77, -2.08054, 6.2859, 22.9841, -151.426, -101.771, 86.7801
7.26359, 77, -1.98937, 6.34384, 22.9532, -151.405, -101.905, 86.1268
7.27304, 77, -1.85086, 6.40506, 22.9175, -151.38, -102.082, 85.151
7.27858, 77, -1.80427, 6.41836, 22.9085, -151.374, -102.134, 84.8269
7.2876, 77, -1.71051, 6.43439, 22.8949, -151.364, -102.226, 84.1818
7.2972, 78, -1.56838, 6.43111, 22.8854, -151.356, -102.336, 83.2237
7.30375, 78, -1.52065, 6.42239, 22.8848, -151.354, -102.365, 82.9061
7.31162, 78, -1.42473, 6.39354, 22.8881, -151.354, -102.411, 82.2736
7.32299, 78, -1.28018, 6.32076, 22.9043, -151.359, -102.451, 81.3336
7.32775, 78, -1.23186, 6.28844, 22.9129, -151.363, -102.456, 81.0229
7.33571, 79, -1.13511, 6.21171, 22.935, -151.373, -102.455, 80.4055
7.34461, 79, -1.03826, 6.11882, 22.964, -151.386, -102.436, 79.7948
7.35377, 79, -0.892728, 5.94927, 23.0215, -151.411, -102.374, 78.8953
7.35967, 79, -0.844251, 5.88466, 23.0443, -151.421, -102.345, 78.6001
7.36761, 79, -0.747236, 5.7429, 23.0957, -151.442, -102.273, 78.0167
7.37578, 80, -0.650218, 5.58461, 23.1548, -151.467, -102.183, 77.4437
7.38366, 80, -0.553111, 5.40978, 23.2213, -151.493, -102.074, 76.8816
7.39159, 80, -0.456003, 5.2185, 23.2956, -151.521, -101.947, 76.33
7.40032, 80, -0.359037, 5.01055, 23.3781, -151.55, -101.802, 75.7877
7.40858, 80, -0.262229, 4.78478, 23.4687, -151.581, -101.638, 75.2549
7.41563, 80, -0.165513, 4.54066, 23.568, -151.614, -101.454, 74.7318
7.42638, 81, -0.0207636, 4.14295, 23.7334, -151.665, -101.143, 73.9652
7.43172, 81, 0.0273774, 4.00186, 23.7931, -151.682, -101.03, 73.7139
7.44213, 81, 0.123602, 3.70707, 23.9195, -151.718, -100.789, 72.9747
7.44758, 81, 0.219564, 3.39564, 24.0557, -151.755, -100.528, 72.7331
7.45678, 82, 0.315264, 3.06653, 24.2019, -151.792, -100.249, 72.2571
7.46459, 82, 0.410826, 2.72092, 24.3577, -151.829, -99.9503, 71.7906
7.47162, 82, 0.506075, 2.3587, 24.5226, -151.866, -99.6323, 71.3336
7.47877, 82, 0.60109, 1.98102, 24.6971, -151.904, -99.2961, 70.8863
7.48759, 82, 0.695921, 1.58658, 24.8813, -151.941, -98.9421, 70.4485
7.49565, 82, 0.790615, 1.1758, 25.0747, -151.977, -98.5708, 70.0217
7.50388, 83, 0.885362, 0.749975, 25.2772, -152.013, -98.1831, 69.6048
7.51218, 83, 0.980031, 0.309555, 25.4901, -152.048, -97.779, 69.1982
7.51968, 83, 1.0748, -0.14533, 25.7129, -152.082, -97.3597, 68.8022
7.53157, 83, 1.21711, -0.854736, 26.0629, -152.129, -96.7019, 68.2266
7.53591, 83, 1.26459, -1.09842, 26.1846, -152.144, -96.4752, 68.0397
7.54403, 84, 1.35974, -1.59597, 26.4352, -152.173, -96.0099, 67.6729
7.55123, 84, 1.45508, -2.10689, 26.6957, -152.202, -95.5298, 67.3138
7.55975, 84, 1.55075, -2.63115, 26.9669, -152.228, -95.0341, 66.9622
7.56775, 84, 1.64682, -3.16892, 27.2479, -152.253, -94.5227, 66.6181
7.57562, 84, 1.74319, -3.72009, 27.5399, -152.276, -93.9965, 66.2804
7.58393, 85, 1.83999, -4.2845, 27.8418, -152.298, -93.4553, 65.9498
7.59234, 85, 1.93699, -4.86093, 28.154, -152.318, -92.8989, 65.6272
7.59981, 85, 2.0344, -5.44777, 28.4757, -152.336, -92.3289, 65.3124
7.61012, 85, 2.13212, -6.04457, 28.8066, -152.351, -91.748, 65.0055
7.61616, 85, 2.2304, -6.64992, 29.1462, -152.364, -91.1566, 64.7075
7.62391, 86, 2.32941, -7.26309, 29.4942, -152.374, -90.5554, 64.4192
7.632, 86, 2.42914, -7.88286, 29.8494, -152.381, -89.9448, 64.1409
7.63876, 86, 2.47944, -8.19486, 30.0297, -152.384, -89.6363, 64.0057
7.64895, 86, 2.63169, -9.14042, 30.5796, -152.387, -88.6994, 63.6167
7.65609, 86, 2.73408, -9.77692, 30.953, -152.386, -88.0701, 63.3718
7.66421, 86, 2.83785, -10.4175, 31.3317, -152.382, -87.4355, 63.1386
7.673, 87, 2.94228, -11.0611, 31.7155, -152.374, -86.7952, 62.9171
7.68017, 87, 3.04767, -11.7076, 32.1039, -152.362, -86.15, 62.708
7.68904, 87, 3.10079, -12.0318, 32.4965, -152.346, -85.5002, 62.5116
7.6962, 87, 3.20751, -12.6816, 32.6947, -152.337, -85.174, 62.328
7.70413, 87, 3.31491, -13.3338, 33.095, -152.315, -84.5189, 62.241
7.71158, 88, 3.42302, -13.9884, 33.5001, -152.29, -83.8588, 62.0768
7.71957, 88, 3.53176, -14.6457, 33.9097, -152.26, -83.1935, 61.9259
7.72765, 88, 3.64104, -15.3047, 34.3245, -152.227, -82.5237, 61.7887
7.73687, 88, 3.80603, -16.2944, 34.9551, -152.168, -81.5111, 61.6102
7.74513, 88, 3.86121, -16.9541, 35.381, -152.123, -80.8329, 61.5103
7.75064, 89, 3.97171, -17.2835, 35.5951, -152.099, -80.493, 61.4669
7.76792, 89, 4.19341, -18.5944, 36.4567, -151.987, -79.1285, 61.3378
7.77131, 89, 4.24895, -18.9203, 36.6731, -151.957, -78.786, 61.3172
7.7757, 89, 4.30456, -19.2453, 36.8895, -151.924, -78.4439, 61.3015
7.78356, 89, 4.41572, -19.8913, 37.3214, -151.855, -77.7636, 61.2846
7.79165, 90, 4.52705, -20.5319, 37.7519, -151.781, -77.0868, 61.2881
7.79958, 90, 4.63909, -21.1673, 38.1813, -151.702, -76.4123, 61.3159
7.80758, 90, 4.7514, -21.7974, 38.6089, -151.617, -75.7413, 61.3675
7.81947, 90, 4.91993, -22.7332, 39.247, -151.479, -74.7431, 61.4902
7.82371, 90, 4.97605, -23.0428, 39.4591, -151.43, -74.4129, 61.5444
7.83155, 91, 5.08817, -23.6589, 39.8824, -151.327, -73.7539, 61.6722
7.83965, 91, 5.20006, -24.2703, 40.3053, -151.218, -73.0949, 61.8281
7.84759, 91, 5.31127, -24.8757, 40.728, -151.102, -72.4363, 62.0123
7.85558, 91, 5.4217, -25.4755, 41.1502, -150.98, -71.7762, 62.2261
7.86366, 91, 5.53134, -26.0687, 41.5721, -150.851, -71.1155, 62.47
7.87154, 92, 5.64051, -26.6549, 41.9929, -150.716, -70.4564, 62.7452
7.87968, 92, 5.74975, -27.2334, 42.4114, -150.574, -69.7991, 63.052
7.88757, 92, 5.85958, -27.8039, 42.8264, -150.427, -69.1441, 63.3898
7.89558, 92, 5.97, -28.3658, 43.2364, -150.276, -68.4923, 63.7588
7.90363, 92, 6.08124, -28.9181, 43.6409, -150.12, -67.845, 64.1593
7.9118, 93, 6.19379, -29.4594, 44.0388, -149.961, -67.2047, 64.591
7.92616, 93, 6.42388, -30.5099, 44.8151, -149.636, -65.9389, 65.5504
7.92769, 93, 6.42388, -30.5099, 44.8151, -149.636, -65.9389, 65.5504
7.93558, 93, 6.54229, -31.0212, 45.1946, -149.472, -65.311, 66.079
7.94361, 93, 6.66276, -31.5259, 45.5694, -149.307, -64.6849, 66.6431
7.95157, 93, 6.78556, -32.0247, 45.9397, -149.141, -64.0592, 67.2469
7.95964, 94, 6.91062, -32.5187, 46.3074, -148.975, -63.4305, 67.8947
7.96758, 94, 7.0379, -33.0079, 46.673, -148.808, -62.7954, 68.5924
7.97633, 94, 7.16712, -33.4898, 47.037, -148.641, -62.1541, 69.3436
7.98358, 94, 7.29886, -33.9645, 47.3986, -148.476, -61.5062, 70.1467
7.99157, 94, 7.43421, -34.4317, 47.7553, -148.316, -60.8536, 71.0031
8.00035, 95, 7.57397, -34.8892, 48.1047, -148.163, -60.2024, 71.9114
8.00757, 95, 7.71938, -35.3364, 48.4441, -148.021, -59.555, 72.8614
8.01561, 95, 7.87095, -35.7713, 48.772, -147.893, -58.9138, 73.8528
8.02485, 95, 8.02919, -36.1909, 49.0858, -147.78, -58.281, 74.8791
8.03167, 95, 8.19436, -36.591, 49.384, -147.684, -57.6571, 75.94
8.03975, 96, 8.36641, -36.9707, 49.6663, -147.607, -57.0464, 77.0317
8.0477, 96, 8.54484, -37.328, 49.9312, -147.55, -56.4499, 78.153
8.05582, 96, 8.72859, -37.6613, 50.1795, -147.514, -55.8677, 79.2993
8.06374, 96, 8.91742, -37.9688, 50.4094, -147.498, -55.3018, 80.466
8.07162, 96, 9.11031, -38.2513, 50.6195, -147.503, -54.7549, 81.6448
8.07977, 96, 9.30564, -38.5087, 50.8105, -147.529, -54.2294, 82.835
8.08821, 97, 9.5019, -38.7406, 50.9815, -147.578, -53.7281, 84.0319
8.09562, 97, 9.69786, -38.9473, 51.1316, -147.646, -53.2524, 85.229
8.10376, 97, 9.89269, -39.1298, 51.262, -147.734, -52.8048, 86.4148
8.11246, 97, 10.0857, -39.2868, 51.3728, -147.837, -52.3864, 87.5853
8.11975, 97, 10.2754, -39.4181, 51.4642, -147.954, -51.9986, 88.7311
8.12866, 97, 10.4612, -39.5241, 51.5369, -148.083, -51.6416, 89.8466
8.13667, 98, 10.644, -39.6053, 51.5914, -148.222, -51.3151, 90.9268
8.14403, 98, 10.8248, -39.6633, 51.6284, -148.37, -51.018, 91.9783
8.15056, 98, 10.9146, -39.6837, 51.6404, -148.448, -50.8795, 92.4958
8.16102, 98, 11.1815, -39.7102, 51.6506, -148.7, -50.4985, 94.0411
8.1666, 98, 11.2694, -39.7073, 51.6457, -148.789, -50.3817, 94.5585
8.17689, 98, 11.5322, -39.6635, 51.6046, -149.08, -50.0592, 96.1372
8.18416, 98, 11.7078, -39.6045, 51.5552, -149.29, -49.8684, 97.2162
8.19216, 99, 11.7952, -39.5228, 51.4876, -149.513, -49.6994, 98.3157
8.19955, 99, 11.9689, -39.4734, 51.4468, -149.628, -49.6238, 98.8699
8.20755, 99, 12.1397, -39.3577, 51.3515, -149.865, -49.4933, 99.9814
8.21564, 99, 12.3069, -39.2197, 51.2381, -150.107, -49.392, 101.088
8.22356, 99, 12.4687, -39.0594, 51.1073, -150.351, -49.3218, 102.178
8.23162, 99, 12.6231, -38.8769, 50.9606, -150.594, -49.2824, 103.243
8.23956, 100, 12.769, -38.6705, 50.7983, -150.834, -49.2743, 104.277
8.24764, 100, 12.9061, -38.4399, 50.6193, -151.068, -49.2983, 105.283
8.25556, 100, 13.0341, -38.1866, 50.4231, -151.298, -49.3536, 106.259
8.26355, 100, 13.1536, -37.9113, 50.2107, -151.521, -49.4402, 107.213
8.27158, 100, 13.2651, -37.6152, 49.9806, -151.738, -49.558, 108.142
8.2796, 100, 13.3683, -37.296, 49.7322, -151.948, -49.7066, 109.05
8.28755, 101, 13.4635, -36.953, 49.4672, -152.151, -49.8853, 109.936
8.29556, 101, 13.5507, -36.5848, 49.1848, -152.345, -50.0937, 110.798
8.30361, 101, 13.63, -36.1911, 48.8857, -152.531, -50.3317, 111.639
8.31163, 101, 13.7012, -35.7724, 48.5688, -152.706, -50.5997, 112.454
8.33048, 102, 13.8424, -34.6255, 47.7, -153.1, -51.4076, 114.398
8.33176, 102, 13.8424, -34.6255, 47.7, -153.1, -51.4076, 114.398
8.33558, 102, 13.864, -34.3792, 47.5135, -153.171, -51.5937, 114.769
8.34356, 102, 13.9, -33.8687, 47.1275, -153.301, -51.9899, 115.495
8.35159, 102, 13.9265, -33.3344, 46.7256, -153.419, -52.4186, 116.196
8.35964, 102, 13.9439, -32.7778, 46.3093, -153.524, -52.8793, 116.87
8.36758, 102, 13.9532, -32.1996, 45.8791, -153.614, -53.3695, 117.519
8.37552, 103, 13.9548, -31.6006, 45.4353, -153.691, -53.8867, 118.142
8.38367, 103, 13.9496, -30.9826, 44.9789, -153.755, -54.4288, 118.738
8.39156, 103, 13.9379, -30.3473, 44.5112, -153.805, -54.9932, 119.308
8.39956, 103, 13.9205, -29.6966, 44.0332, -153.842, -55.5765, 119.853
8.40764, 103, 13.8976, -29.0314, 43.547, -153.868, -56.1776, 120.373
8.41558, 103, 13.8699, -28.3534, 43.0539, -153.882, -56.7943, 120.867
8.42356, 104, 13.8379, -27.6649, 42.5553, -153.887, -57.4238, 121.336
8.43162, 104, 13.802, -26.9675, 42.0529, -153.881, -58.0666, 121.782
8.43956, 104, 13.7623, -26.2623, 41.5473, -153.865, -58.7243, 122.207
8.44756, 104, 13.7195, -25.5512, 41.0395, -153.84, -59.3942, 122.613
8.45563, 104, 13.6747, -24.8368, 40.5305, -153.808, -60.0751, 123.003
8.46355, 104, 13.6282, -24.1197, 40.0207, -153.767, -60.7631, 123.378
8.47155, 104, 13.5799, -23.3998, 39.5111, -153.72, -61.457, 123.744
8.47962, 104, 13.5301, -22.678, 39.0024, -153.669, -62.1562, 124.103
8.48757, 104, 13.4794, -21.9552, 38.4949, -153.611, -62.858, 124.456
8.49555, 104, 13.428, -21.2316, 37.9888, -153.55, -63.5618, 124.807
8.50362, 104, 13.3759, -20.5086, 37.4843, -153.484, -64.2657, 125.157
8.51156, 104, 13.3237, -19.7857, 36.9816, -153.414, -64.9701, 125.504
8.51959, 104, 13.2713, -19.0622, 36.4808, -153.34, -65.6769, 125.85
8.52769, 104, 13.2187, -18.3384, 35.9818, -153.262, -66.3842, 126.196
8.53566, 104, 13.1664, -17.6144, 35.4855, -153.18, -67.0926, 126.541
8.54368, 104, 13.1144, -16.8897, 34.9912, -153.094, -67.8006, 126.885
8.55174, 104, 13.0627, -16.1655, 34.4987, -153.004, -68.5082, 127.229
8.55966, 104, 13.0114, -15.4411, 34.0084, -152.91, -69.2182, 127.573
8.56766, 104, 12.9604, -14.7163, 33.5205, -152.813, -69.9294, 127.916
8.57617, 104, 12.9096, -13.991, 33.0353, -152.711, -70.6404, 128.259
8.58362, 104, 12.8593, -13.2659, 32.5526, -152.606, -71.3505, 128.603
8.59159, 104, 12.8093, -12.5403, 32.0724, -152.497, -72.0619, 128.947
8.60047, 104, 12.7595, -11.8149, 31.5949, -152.384, -72.7746, 129.291
8.60771, 104, 12.7102, -11.0897, 31.1197, -152.267, -73.4872, 129.636
8.61574, 104, 12.6613, -10.3644, 30.6471, -152.146, -74.2005, 129.982
8.62447, 104, 12.6126, -9.63869, 30.1779, -152.022, -74.9136, 130.328
8.63181, 104, 12.5644, -8.91323, 29.7118, -151.893, -75.6268, 130.675
8.63992, 104, 12.5167, -8.18704, 29.2486, -151.76, -76.3414, 131.023
8.64803, 104, 12.4694, -7.46098, 28.7889, -151.623, -77.0567, 131.372
8.65605, 104, 12.4228, -6.73543, 28.3323, -151.482, -77.7724, 131.723
8.66409, 104, 12.3767, -6.01027, 27.8788, -151.336, -78.4867, 132.075
8.67218, 104, 12.3311, -5.2857, 27.429, -151.187, -79.2008, 132.427
8.68014, 104, 12.2862, -4.56224, 26.9833, -151.033, -79.9162, 132.781
8.68816, 104, 12.2642, -3.84049, 26.542, -150.876, -80.6318, 133.137
8.6971, 104, 12.2209, -3.48093, 26.1061, -150.714, -81.3453, 133.493
8.70254, 104, 12.1786, -2.76543, 25.8898, -150.632, -81.7004, 133.671
8.71155, 104, 12.1376, -2.0558, 25.4619, -150.465, -82.4076, 134.028
8.71963, 104, 12.0979, -1.35379, 25.0416, -150.294, -83.1111, 134.383
8.72754, 104, 12.0591, -0.660203, 24.6295, -150.121, -83.8077, 134.737
8.73555, 104, 12.0213, 0.0233411, 24.2272, -149.947, -84.4941, 135.088
8.74361, 104, 11.9845, 0.696079, 23.8358, -149.771, -85.1674, 135.434
8.75159, 104, 11.9487, 1.35628, 23.4569, -149.595, -85.8261, 135.776
8.75955, 104, 11.9143, 2.00339, 23.0904, -149.419, -86.4709, 136.111
8.76758, 104, 11.881, 2.63532, 22.7365, -149.243, -87.1001, 136.441
8.77554, 104, 11.8485, 3.25109, 22.3951, -149.068, -87.7133, 136.763
8.78357, 104, 11.8176, 3.85055, 22.0672, -148.894, -88.3102, 137.079
8.79158, 104, 11.7879, 4.43299, 21.7517, -148.722, -88.8892, 137.389
8.79955, 104, 11.7594, 4.99891, 21.4487, -148.55, -89.4509, 137.691
8.80756, 104, 11.7323, 5.54745, 21.1569, -148.381, -89.9972, 137.986
8.81559, 104, 11.7062, 6.07886, 20.8774, -148.214, -90.5276, 138.275
8.82355, 104, 11.6813, 6.59377, 20.6094, -148.049, -91.0414, 138.556
8.83155, 104, 11.6576, 7.09156, 20.3531, -147.886, -91.5387, 138.829
8.84054, 104, 11.6351, 7.57234, 20.1084, -147.726, -92.0186, 139.095
8.84754, 104, 11.6137, 8.03681, 19.8743, -147.569, -92.4816, 139.354
8.85555, 104, 11.5935, 8.48454, 19.6513, -147.415, -92.9282, 139.605
8.86369, 104, 11.5744, 8.91481, 19.4394, -147.264, -93.3582, 139.848
8.87156, 104, 11.5564, 9.32796, 19.2374, -147.117, -93.7714, 140.082
8.87956, 104, 11.5396, 9.72374, 19.0457, -146.975, -94.1675, 140.308
8.88762, 104, 11.5238, 10.1013, 18.8651, -146.837, -94.5461, 140.525
8.89554, 104, 11.5091, 10.4599, 18.695, -146.703, -94.9064, 140.733
8.90355, 104, 11.4954, 10.7994, 18.5349, -146.576, -95.2479, 140.931
8.91159, 104, 11.4827, 11.1197, 18.3858, -146.454, -95.5699, 141.119
8.91961, 104, 11.4711, 11.4193, 18.2475, -146.338, -95.8714, 141.295
8.92754, 104, 11.4605, 11.6983, 18.1196, -146.23, -96.1522, 141.46
8.93559, 104, 11.4509, 11.956, 18.0024, -146.128, -96.4117, 141.613
8.94357, 104, 11.4421, 12.1925, 17.8959, -146.035, -96.6493, 141.753
8.95153, 104, 11.4339, 12.4082, 17.7997, -145.949, -96.8651, 141.882
8.95958, 104, 11.4266, 12.6029, 17.714, -145.872, -97.0588, 141.997
8.96758, 104, 11.4201, 12.7761, 17.6384, -145.803, -97.2304, 142.099
8.97554, 104, 11.4142, 12.9287, 17.5729, -145.743, -97.3802, 142.189
8.98361, 104, 11.4089, 13.0618, 17.517, -145.691, -97.508, 142.265
8.99156, 104, 11.4041, 13.1759, 17.4705, -145.648, -97.6151, 142.329
8.99955, 104, 11.3996, 13.2718, 17.4325, -145.613, -97.702, 142.381
9.00759, 104, 11.3956, 13.3509, 17.4023, -145.584, -97.7711, 142.423
9.01556, 104, 11.3919, 13.4155, 17.3794, -145.562, -97.823, 142.455
9.02359, 104, 11.3886, 13.4672, 17.3626, -145.546, -97.861, 142.478
9.03165, 104, 11.3859, 13.5073, 17.3508, -145.535, -97.8879, 142.493
9.03967, 104, 11.3836, 13.5373, 17.3431, -145.528, -97.9058, 142.504
9.04763, 104, 11.3818, 13.5596, 17.3382, -145.523, -97.9171, 142.51
9.05572, 104, 11.3804, 13.5756, 17.3353, -145.52, -97.9234, 142.513
9.06368, 104, 11.3793, 13.5864, 17.3338, -145.519, -97.9267, 142.515
9.07164, 104, 11.3786, 13.5938, 17.333, -145.518, -97.9283, 142.516
9.0797, 105, 11.378, 13.5986, 17.3327, -145.518, -97.929, 142.516
9.08763, 105, 11.3776, 13.6017, 17.3325, -145.518, -97.9293, 142.516
9.09558, 105, 11.3772, 13.604, 17.3324, -145.518, -97.9294, 142.516
9.10363, 105, 11.377, 13.606, 17.3324, -145.518, -97.9295, 142.516
9.11167, 105, 11.3768, 13.6077, 17.3324, -145.518, -97.9295, 142.517
9.11984, 105, 11.3767, 13.6092, 17.3324, -145.518, -97.9295, 142.516
9.12808, 105, 11.3766, 13.6105, 17.3324, -145.518, -97.9294, 142.517
9.13583, 105, 11.3765, 13.6116, 17.3324, -145.518, -97.9292, 142.517
9.14396, 105, 11.3764, 13.6126, 17.3324, -145.518, -97.9291, 142.516
9.15201, 105, 11.3764, 13.6133, 17.3324, -145.518, -97.929, 142.517
9.15853, 105, 11.3763, 13.6136, 17.3324, -145.518, -97.929, 142.517
9.16812, 105, 11.3763, 13.6143, 17.3325, -145.518, -97.9288, 142.516
9.17674, 105, 11.3763, 13.6145, 17.3325, -145.518, -97.9287, 142.516
9.18429, 105, 11.3763, 13.6146, 17.3326, -145.518, -97.9285, 142.517
9.19212, 105, 11.3763, 13.6147, 17.3326, -145.518, -97.9283, 142.517
9.20034, 105, 11.3763, 13.6147, 17.3326, -145.518, -97.9282, 142.517
