hehonglu123/Motion-Primitive-Planning/simulation/robotstudio_sim/multimove/greedy_dual_output/curve_exe_vmax_z10.csv
timestamp, cmd_num, J1, J2, J3, J4, J5, J6, J1_2, J2_2, J3_2, J4_2, J5_2, J6_2
0.002, -1, 18.7351, -0.713156, -11.5331, 30.6259, -91.5639, -66.2905, -10.4991, 32.0981, -14.5434, -22.3469, -109.638, -9.73442
0.006, -1, 18.7351, -0.713156, -11.5331, 30.6259, -91.5639, -66.2905, -10.4991, 32.0981, -14.5434, -22.3469, -109.638, -9.73442
0.01, -1, 18.7351, -0.713156, -11.5331, 30.6259, -91.5639, -66.2905, -10.4991, 32.0981, -14.5434, -22.3469, -109.638, -9.73442
0.011, -1, 18.7351, -0.713156, -11.5331, 30.6259, -91.5639, -66.2905, -10.4991, 32.0981, -14.5434, -22.3469, -109.638, -9.73442
0.013, -1, 18.7351, -0.713156, -11.5331, 30.6259, -91.5639, -66.2905, -10.4991, 32.0981, -14.5434, -22.3469, -109.638, -9.73442
0.016, -1, 18.7351, -0.713156, -11.5331, 30.6259, -91.5639, -66.2905, -10.4991, 32.0981, -14.5434, -22.3469, -109.638, -9.73442
0.02, -1, 18.7351, -0.713156, -11.5331, 30.6259, -91.5639, -66.2905, -10.4991, 32.0981, -14.5434, -22.3469, -109.638, -9.73442
0.024, -1, 18.7351, -0.713156, -11.5331, 30.6259, -91.5639, -66.2905, -10.4991, 32.0981, -14.5434, -22.3469, -109.638, -9.73442
0.028, -1, 18.7351, -0.713156, -11.5331, 30.6259, -91.5639, -66.2905, -10.4991, 32.0981, -14.5434, -22.3469, -109.638, -9.73442
0.032, -1, 18.7351, -0.713156, -11.5331, 30.6259, -91.5639, -66.2905, -10.4991, 32.0981, -14.5434, -22.3469, -109.638, -9.73442
0.036, -1, 18.7351, -0.713156, -11.5331, 30.6259, -91.5639, -66.2905, -10.4991, 32.0981, -14.5434, -22.3469, -109.638, -9.73442
0.04, -1, 18.7351, -0.713156, -11.5331, 30.6259, -91.5639, -66.2905, -10.4991, 32.0981, -14.5434, -22.3469, -109.638, -9.73442
0.044, -1, 18.7351, -0.713156, -11.5331, 30.6259, -91.5639, -66.2905, -10.499, 32.0982, -14.5434, -22.3469, -109.638, -9.73442
0.048, -1, 18.7351, -0.713156, -11.5331, 30.6259, -91.5639, -66.2905, -10.4983, 32.0984, -14.5432, -22.3469, -109.638, -9.73441
0.052, -1, 18.7351, -0.713156, -11.5331, 30.6259, -91.5639, -66.2905, -10.4966, 32.0991, -14.5426, -22.3469, -109.638, -9.73439
0.056, -1, 18.7351, -0.713139, -11.5331, 30.6259, -91.5639, -66.2905, -10.4932, 32.1008, -14.5415, -22.347, -109.638, -9.7343
0.06, -1, 18.7353, -0.713026, -11.5331, 30.6259, -91.5639, -66.2905, -10.4879, 32.1038, -14.5394, -22.347, -109.637, -9.73409
0.064, -1, 18.7361, -0.712666, -11.533, 30.6259, -91.5638, -66.2905, -10.4807, 32.1081, -14.5361, -22.3471, -109.637, -9.73362
0.068, -1, 18.7379, -0.711879, -11.5327, 30.626, -91.5636, -66.2904, -10.4716, 32.1136, -14.5313, -22.3473, -109.636, -9.73273
0.072, -1, 18.7411, -0.710514, -11.532, 30.6264, -91.5631, -66.2903, -10.4608, 32.1199, -14.5248, -22.3475, -109.634, -9.73122
0.076, -1, 18.7463, -0.708456, -11.5305, 30.6273, -91.5622, -66.2902, -10.4488, 32.1267, -14.5164, -22.3478, -109.631, -9.72884
0.08, -1, 18.754, -0.705634, -11.528, 30.629, -91.5604, -66.2898, -10.4363, 32.1333, -14.5061, -22.3482, -109.627, -9.72536
0.084, -1, 18.7645, -0.702112, -11.5238, 30.6319, -91.5576, -66.2892, -10.4232, 32.1394, -14.4935, -22.3487, -109.622, -9.72053
0.088, -1, 18.778, -0.698128, -11.5176, 30.6366, -91.5532, -66.2882, -10.4094, 32.145, -14.4784, -22.3493, -109.615, -9.71418
0.092, -1, 18.7943, -0.693965, -11.5088, 30.6435, -91.547, -66.2867, -10.3947, 32.1502, -14.4605, -22.3499, -109.606, -9.70615
0.096, -1, 18.8134, -0.689803, -11.4971, 30.6528, -91.5386, -66.2848, -10.379, 32.1554, -14.4397, -22.3508, -109.595, -9.69633
0.1, -1, 18.8353, -0.685701, -11.4823, 30.6648, -91.528, -66.2824, -10.3624, 32.1604, -14.4159, -22.3517, -109.583, -9.68467
0.104, -1, 18.86, -0.681659, -11.4645, 30.6794, -91.5152, -66.2794, -10.3449, 32.1652, -14.3891, -22.3527, -109.568, -9.67118
0.108, -1, 18.8874, -0.677574, -11.4439, 30.6964, -91.5004, -66.2759, -10.3266, 32.1697, -14.3594, -22.3539, -109.552, -9.6559
0.112, -1, 18.9177, -0.673204, -11.4209, 30.7155, -91.4838, -66.272, -10.3077, 32.1738, -14.3271, -22.3551, -109.533, -9.63896
0.116, -1, 18.9509, -0.668291, -11.3959, 30.7361, -91.4658, -66.2678, -10.2882, 32.1772, -14.2924, -22.3565, -109.513, -9.6205
0.12, -1, 18.9867, -0.6627, -11.3694, 30.7579, -91.4467, -66.2633, -10.268, 32.1803, -14.2554, -22.358, -109.492, -9.60074
0.124, -1, 19.0248, -0.656425, -11.3418, 30.7805, -91.4269, -66.2587, -10.2467, 32.1835, -14.2164, -22.3595, -109.469, -9.57992
0.128, -1, 19.0647, -0.649523, -11.3135, 30.8036, -91.4066, -66.2539, -10.2239, 32.1874, -14.1755, -22.3611, -109.446, -9.55828
0.131, -1, 19.106, -0.64209, -11.2849, 30.827, -91.386, -66.2492, -10.1994, 32.1922, -14.1328, -22.3628, -109.422, -9.53605
0.136, -1, 19.1483, -0.634278, -11.256, 30.8504, -91.3653, -66.2443, -10.1732, 32.1983, -14.0887, -22.3645, -109.398, -9.51343
0.139, -1, 19.191, -0.626241, -11.227, 30.874, -91.3445, -66.2395, -10.1452, 32.2056, -14.0435, -22.3663, -109.373, -9.49055
0.144, -1, 19.2341, -0.618085, -11.198, 30.8975, -91.3237, -66.2347, -10.1156, 32.2141, -13.9975, -22.3681, -109.348, -9.46755
0.148, -1, 19.2772, -0.609871, -11.1689, 30.9211, -91.3029, -66.2298, -10.0847, 32.2234, -13.9509, -22.3699, -109.323, -9.44448
0.152, -1, 19.3204, -0.601633, -11.1399, 30.9446, -91.2821, -66.225, -10.053, 32.2331, -13.904, -22.3717, -109.298, -9.42137
0.156, -1, 19.3636, -0.593391, -11.1109, 30.9681, -91.2613, -66.2201, -10.0207, 32.2429, -13.8569, -22.3735, -109.273, -9.39827
0.16, -1, 19.4068, -0.585151, -11.0818, 30.9917, -91.2405, -66.2153, -9.98808, 32.2529, -13.8098, -22.3753, -109.248, -9.37516
0.164, -1, 19.45, -0.576913, -11.0528, 31.0152, -91.2197, -66.2105, -9.95526, 32.2628, -13.7626, -22.3772, -109.222, -9.35206
0.168, -1, 19.4932, -0.568678, -11.0238, 31.0387, -91.1989, -66.2057, -9.92242, 32.2728, -13.7154, -22.379, -109.197, -9.32897
0.172, -1, 19.5363, -0.560445, -10.9948, 31.0622, -91.1781, -66.2008, -9.88958, 32.2828, -13.6683, -22.3808, -109.172, -9.30588
0.176, -1, 19.5795, -0.552214, -10.9658, 31.0857, -91.1573, -66.196, -9.85675, 32.2928, -13.6212, -22.3826, -109.147, -9.2828
0.18, -1, 19.6226, -0.543986, -10.9368, 31.1092, -91.1366, -66.1912, -9.82393, 32.3028, -13.5741, -22.3845, -109.122, -9.25973
0.184, -1, 19.6657, -0.53576, -10.9079, 31.1327, -91.1158, -66.1863, -9.79112, 32.3127, -13.527, -22.3863, -109.097, -9.23666
0.188, -1, 19.7088, -0.527537, -10.8789, 31.1562, -91.0951, -66.1815, -9.75832, 32.3227, -13.4799, -22.3881, -109.072, -9.2136
0.192, -1, 19.7519, -0.519316, -10.8499, 31.1797, -91.0743, -66.1767, -9.72553, 32.3327, -13.4328, -22.39, -109.047, -9.19055
0.196, -1, 19.795, -0.511098, -10.821, 31.2031, -91.0536, -66.1719, -9.69275, 32.3426, -13.3858, -22.3918, -109.022, -9.1675
0.2, -1, 19.838, -0.502881, -10.7921, 31.2266, -91.0328, -66.167, -9.65998, 32.3526, -13.3387, -22.3936, -108.997, -9.14446
0.204, -1, 19.8811, -0.494668, -10.7631, 31.25, -91.0121, -66.1622, -9.62722, 32.3625, -13.2917, -22.3954, -108.972, -9.12143
0.208, -1, 19.9241, -0.486456, -10.7342, 31.2735, -90.9914, -66.1574, -9.59447, 32.3725, -13.2447, -22.3972, -108.947, -9.0984
0.212, -1, 19.9672, -0.478247, -10.7053, 31.2969, -90.9706, -66.1526, -9.56172, 32.3824, -13.1977, -22.3991, -108.922, -9.07539
0.216, -1, 20.0102, -0.470041, -10.6764, 31.3203, -90.9499, -66.1478, -9.52899, 32.3924, -13.1507, -22.4009, -108.897, -9.05237
0.22, -1, 20.0532, -0.461837, -10.6475, 31.3438, -90.9292, -66.143, -9.49627, 32.4023, -13.1037, -22.4027, -108.872, -9.02937
0.224, -1, 20.0962, -0.453635, -10.6186, 31.3672, -90.9085, -66.1382, -9.46355, 32.4123, -13.0567, -22.4045, -108.847, -9.00637
0.228, -1, 20.1391, -0.445435, -10.5897, 31.3906, -90.8878, -66.1333, -9.43085, 32.4222, -13.0098, -22.4064, -108.822, -8.98337
0.232, -1, 20.1821, -0.437238, -10.5608, 31.414, -90.8671, -66.1285, -9.39815, 32.4321, -12.9629, -22.4082, -108.797, -8.96039
0.236, -1, 20.2251, -0.429043, -10.532, 31.4374, -90.8465, -66.1237, -9.36546, 32.4421, -12.9159, -22.41, -108.772, -8.93741
0.24, -1, 20.268, -0.420851, -10.5031, 31.4608, -90.8258, -66.1189, -9.33278, 32.452, -12.869, -22.4118, -108.747, -8.91444
0.244, -1, 20.3109, -0.412661, -10.4743, 31.4842, -90.8051, -66.1141, -9.30012, 32.4619, -12.8221, -22.4136, -108.722, -8.89147
0.248, -1, 20.3538, -0.404473, -10.4454, 31.5076, -90.7844, -66.1093, -9.26746, 32.4719, -12.7753, -22.4154, -108.697, -8.86851
0.252, -1, 20.3967, -0.396288, -10.4166, 31.5309, -90.7638, -66.1045, -9.23481, 32.4818, -12.7284, -22.4173, -108.672, -8.84556
0.256, -1, 20.4396, -0.388104, -10.3878, 31.5543, -90.7431, -66.0997, -9.20217, 32.4917, -12.6815, -22.4191, -108.647, -8.82261
0.26, -1, 20.4825, -0.379924, -10.359, 31.5776, -90.7225, -66.0949, -9.16953, 32.5016, -12.6347, -22.4209, -108.622, -8.79967
0.264, -1, 20.5254, -0.371745, -10.3302, 31.601, -90.7018, -66.0901, -9.13691, 32.5115, -12.5879, -22.4227, -108.598, -8.77674
0.268, -1, 20.5682, -0.363569, -10.3014, 31.6243, -90.6812, -66.0853, -9.1043, 32.5214, -12.5411, -22.4245, -108.573, -8.75381
0.272, -1, 20.6111, -0.355395, -10.2726, 31.6477, -90.6606, -66.0805, -9.0717, 32.5313, -12.4943, -22.4263, -108.548, -8.73089
0.276, -1, 20.6539, -0.347224, -10.2438, 31.671, -90.6399, -66.0757, -9.0391, 32.5413, -12.4475, -22.4282, -108.523, -8.70797
0.28, -1, 20.6967, -0.339054, -10.215, 31.6943, -90.6193, -66.0709, -9.00652, 32.5512, -12.4007, -22.43, -108.498, -8.68506
0.284, -1, 20.7395, -0.330887, -10.1862, 31.7177, -90.5987, -66.0661, -8.97394, 32.5611, -12.3539, -22.4318, -108.473, -8.66216
0.288, -1, 20.7823, -0.322723, -10.1575, 31.741, -90.5781, -66.0613, -8.94138, 32.5709, -12.3072, -22.4336, -108.448, -8.63927
0.292, -1, 20.8251, -0.31456, -10.1287, 31.7643, -90.5575, -66.0566, -8.90882, 32.5808, -12.2605, -22.4354, -108.423, -8.61638
0.296, -1, 20.8679, -0.3064, -10.1, 31.7876, -90.5369, -66.0518, -8.87627, 32.5907, -12.2137, -22.4372, -108.399, -8.5935
0.3, -1, 20.9106, -0.298242, -10.0712, 31.8109, -90.5163, -66.047, -8.84373, 32.6006, -12.167, -22.439, -108.374, -8.57062
0.304, -1, 20.9534, -0.290086, -10.0425, 31.8342, -90.4957, -66.0422, -8.8112, 32.6105, -12.1203, -22.4408, -108.349, -8.54775
0.308, -1, 20.9961, -0.281933, -10.0138, 31.8574, -90.4751, -66.0374, -8.77868, 32.6204, -12.0736, -22.4426, -108.324, -8.52489
0.312, -1, 21.0388, -0.273782, -9.98509, 31.8807, -90.4545, -66.0326, -8.74617, 32.6303, -12.027, -22.4445, -108.299, -8.50203
0.316, -1, 21.0816, -0.265633, -9.95638, 31.904, -90.434, -66.0279, -8.71366, 32.6401, -11.9803, -22.4463, -108.274, -8.47918
0.32, -1, 21.1243, -0.257486, -9.92769, 31.9272, -90.4134, -66.0231, -8.68117, 32.65, -11.9337, -22.4481, -108.25, -8.45633
0.324, -1, 21.1669, -0.249342, -9.899, 31.9505, -90.3929, -66.0183, -8.64868, 32.6599, -11.887, -22.4499, -108.225, -8.4335
0.328, -1, 21.2096, -0.241199, -9.87032, 31.9737, -90.3723, -66.0135, -8.61621, 32.6698, -11.8404, -22.4517, -108.2, -8.41066
0.332, -1, 21.2523, -0.233059, -9.84165, 31.997, -90.3518, -66.0087, -8.58374, 32.6796, -11.7938, -22.4535, -108.175, -8.38784
0.336, -1, 21.2949, -0.224922, -9.81298, 32.0202, -90.3312, -66.004, -8.55128, 32.6895, -11.7472, -22.4553, -108.15, -8.36502
0.34, -1, 21.3376, -0.216786, -9.78433, 32.0434, -90.3107, -65.9992, -8.51883, 32.6994, -11.7006, -22.4571, -108.126, -8.3422
0.344, -1, 21.3802, -0.208653, -9.75568, 32.0667, -90.2902, -65.9944, -8.48639, 32.7092, -11.6541, -22.4589, -108.101, -8.3194
0.348, -1, 21.4228, -0.200522, -9.72704, 32.0899, -90.2696, -65.9897, -8.45396, 32.7191, -11.6075, -22.4607, -108.076, -8.2966
0.352, -1, 21.4654, -0.192393, -9.6984, 32.1131, -90.2491, -65.9849, -8.42153, 32.7289, -11.561, -22.4625, -108.051, -8.2738
0.356, -1, 21.508, -0.184266, -9.66978, 32.1363, -90.2286, -65.9801, -8.38912, 32.7388, -11.5144, -22.4643, -108.027, -8.25101
0.36, -1, 21.5506, -0.176142, -9.64116, 32.1595, -90.2081, -65.9753, -8.35671, 32.7486, -11.4679, -22.4661, -108.002, -8.22823
0.364, -1, 21.5932, -0.16802, -9.61255, 32.1827, -90.1876, -65.9706, -8.32431, 32.7585, -11.4214, -22.4679, -107.977, -8.20545
0.368, -1, 21.6357, -0.1599, -9.58395, 32.2059, -90.1671, -65.9658, -8.29193, 32.7683, -11.3749, -22.4697, -107.952, -8.18268
0.372, -1, 21.6783, -0.151782, -9.55536, 32.229, -90.1466, -65.9611, -8.25955, 32.7781, -11.3284, -22.4715, -107.928, -8.15992
0.376, -1, 21.7208, -0.143666, -9.52677, 32.2522, -90.1261, -65.9563, -8.22718, 32.788, -11.282, -22.4733, -107.903, -8.13716
0.38, -1, 21.7634, -0.135553, -9.49819, 32.2754, -90.1056, -65.9515, -8.19481, 32.7978, -11.2355, -22.4751, -107.878, -8.11441
0.384, -1, 21.8059, -0.127441, -9.46962, 32.2985, -90.0852, -65.9468, -8.16246, 32.8076, -11.1891, -22.4769, -107.853, -8.09167
0.388, -1, 21.8484, -0.119332, -9.44106, 32.3217, -90.0647, -65.942, -8.13012, 32.8175, -11.1426, -22.4787, -107.829, -8.06893
0.392, -1, 21.8909, -0.111225, -9.4125, 32.3448, -90.0442, -65.9373, -8.09778, 32.8273, -11.0962, -22.4805, -107.804, -8.04619
0.396, -1, 21.9333, -0.103121, -9.38395, 32.368, -90.0238, -65.9325, -8.06545, 32.8371, -11.0498, -22.4823, -107.779, -8.02347
0.4, -1, 21.9758, -0.0950181, -9.35541, 32.3911, -90.0033, -65.9278, -8.03314, 32.8469, -11.0034, -22.4841, -107.755, -8.00075
0.404, -1, 22.0183, -0.0869178, -9.32688, 32.4142, -89.9829, -65.923, -8.00082, 32.8568, -10.9571, -22.4859, -107.73, -7.97803
0.408, -1, 22.0607, -0.0788195, -9.29836, 32.4374, -89.9624, -65.9183, -7.96852, 32.8666, -10.9107, -22.4877, -107.705, -7.95532
0.412, -1, 22.1031, -0.0707235, -9.26984, 32.4605, -89.942, -65.9135, -7.93623, 32.8764, -10.8643, -22.4895, -107.681, -7.93262
0.416, -1, 22.1456, -0.0626296, -9.24133, 32.4836, -89.9216, -65.9088, -7.90395, 32.8862, -10.818, -22.4913, -107.656, -7.90992
0.42, -1, 22.188, -0.0545379, -9.21283, 32.5067, -89.9011, -65.904, -7.87167, 32.896, -10.7717, -22.4931, -107.631, -7.88723
0.424, -1, 22.2304, -0.0464483, -9.18433, 32.5298, -89.8807, -65.8993, -7.8394, 32.9058, -10.7253, -22.4949, -107.607, -7.86455
0.428, -1, 22.2728, -0.0383608, -9.15585, 32.5529, -89.8603, -65.8945, -7.80715, 32.9156, -10.679, -22.4967, -107.582, -7.84187
0.432, -1, 22.3152, -0.0302755, -9.12737, 32.576, -89.8399, -65.8898, -7.7749, 32.9254, -10.6327, -22.4985, -107.557, -7.8192
0.436, -1, 22.3575, -0.0221924, -9.0989, 32.5991, -89.8195, -65.885, -7.74266, 32.9352, -10.5865, -22.5003, -107.533, -7.79653
0.44, -1, 22.3999, -0.0141113, -9.07043, 32.6221, -89.7991, -65.8803, -7.71042, 32.945, -10.5402, -22.5021, -107.508, -7.77387
0.444, -1, 22.4422, -0.00603246, -9.04197, 32.6452, -89.7787, -65.8756, -7.6782, 32.9548, -10.4939, -22.5039, -107.484, -7.75121
0.448, -1, 22.4846, 0.0020443, -9.01352, 32.6683, -89.7583, -65.8708, -7.64598, 32.9646, -10.4477, -22.5057, -107.459, -7.72857
0.452, -1, 22.5269, 0.0101189, -8.98508, 32.6913, -89.7379, -65.8661, -7.61378, 32.9744, -10.4015, -22.5075, -107.434, -7.70592
0.456, -1, 22.5692, 0.0181914, -8.95665, 32.7144, -89.7176, -65.8613, -7.58158, 32.9842, -10.3552, -22.5093, -107.41, -7.68329
0.46, -1, 22.6115, 0.0262618, -8.92822, 32.7374, -89.6972, -65.8566, -7.54939, 32.9939, -10.309, -22.5111, -107.385, -7.66066
0.464, -1, 22.6538, 0.0343301, -8.8998, 32.7604, -89.6768, -65.8519, -7.5172, 33.0037, -10.2628, -22.5129, -107.361, -7.63803
0.468, -1, 22.6961, 0.0423963, -8.87139, 32.7835, -89.6565, -65.8471, -7.48503, 33.0135, -10.2166, -22.5147, -107.336, -7.61541
0.472, -1, 22.7383, 0.0504603, -8.84298, 32.8065, -89.6361, -65.8424, -7.45287, 33.0233, -10.1705, -22.5164, -107.312, -7.5928
0.476, -1, 22.7806, 0.0585223, -8.81459, 32.8295, -89.6158, -65.8377, -7.42071, 33.0331, -10.1243, -22.5182, -107.287, -7.57019
0.48, -1, 22.8228, 0.0665821, -8.7862, 32.8525, -89.5954, -65.8329, -7.38856, 33.0428, -10.0782, -22.52, -107.262, -7.54759
0.484, -1, 22.8651, 0.0746398, -8.75782, 32.8755, -89.5751, -65.8282, -7.35642, 33.0526, -10.032, -22.5218, -107.238, -7.525
0.488, -1, 22.9073, 0.0826955, -8.72944, 32.8985, -89.5547, -65.8235, -7.32429, 33.0624, -9.9859, -22.5236, -107.213, -7.50241
0.492, -1, 22.9495, 0.0907491, -8.70107, 32.9215, -89.5344, -65.8188, -7.29217, 33.0721, -9.93979, -22.5254, -107.189, -7.47982
0.496, -1, 22.9917, 0.0988005, -8.67271, 32.9445, -89.5141, -65.814, -7.26005, 33.0819, -9.89369, -22.5272, -107.164, -7.45724
0.5, -1, 23.0339, 0.10685, -8.64436, 32.9675, -89.4938, -65.8093, -7.22795, 33.0916, -9.8476, -22.529, -107.14, -7.43467
0.504, -1, 23.0761, 0.114897, -8.61601, 32.9905, -89.4735, -65.8046, -7.19585, 33.1014, -9.80153, -22.5307, -107.115, -7.41211
0.508, -1, 23.1182, 0.122942, -8.58768, 33.0134, -89.4532, -65.7999, -7.16376, 33.1111, -9.75546, -22.5325, -107.091, -7.38955
0.512, -1, 23.1604, 0.130986, -8.55934, 33.0364, -89.4329, -65.7952, -7.13168, 33.1209, -9.70941, -22.5343, -107.066, -7.36699
0.516, -1, 23.2025, 0.139027, -8.53102, 33.0594, -89.4126, -65.7905, -7.0996, 33.1306, -9.66337, -22.5361, -107.042, -7.34444
0.52, -1, 23.2447, 0.147066, -8.5027, 33.0823, -89.3923, -65.7857, -7.06754, 33.1404, -9.61734, -22.5379, -107.017, -7.3219
0.524, -1, 23.2868, 0.155103, -8.47439, 33.1053, -89.372, -65.781, -7.03548, 33.1501, -9.57133, -22.5397, -106.993, -7.29936
0.528, -1, 23.3289, 0.163138, -8.44609, 33.1282, -89.3517, -65.7763, -7.00343, 33.1599, -9.52532, -22.5415, -106.968, -7.27683
0.532, -1, 23.371, 0.17117, -8.4178, 33.1511, -89.3314, -65.7716, -6.97139, 33.1696, -9.47933, -22.5432, -106.944, -7.25431
0.536, -1, 23.4131, 0.179201, -8.38951, 33.1741, -89.3111, -65.7669, -6.93936, 33.1793, -9.43335, -22.545, -106.919, -7.23179
0.54, -1, 23.4552, 0.18723, -8.36123, 33.197, -89.2909, -65.7622, -6.90733, 33.1891, -9.38738, -22.5468, -106.895, -7.20927
0.544, -1, 23.4973, 0.195256, -8.33296, 33.2199, -89.2706, -65.7575, -6.87532, 33.1988, -9.34142, -22.5486, -106.871, -7.18677
0.548, -1, 23.5393, 0.203281, -8.30469, 33.2428, -89.2504, -65.7527, -6.84331, 33.2085, -9.29547, -22.5504, -106.846, -7.16426
0.552, -1, 23.5814, 0.211303, -8.27643, 33.2657, -89.2301, -65.748, -6.81131, 33.2182, -9.24954, -22.5521, -106.822, -7.14177
0.556, -1, 23.6234, 0.219323, -8.24818, 33.2886, -89.2099, -65.7433, -6.77932, 33.228, -9.20362, -22.5539, -106.797, -7.11928
0.56, -1, 23.6654, 0.227341, -8.21994, 33.3115, -89.1896, -65.7386, -6.74734, 33.2377, -9.1577, -22.5557, -106.773, -7.09679
0.564, -1, 23.7074, 0.235357, -8.1917, 33.3344, -89.1694, -65.7339, -6.71536, 33.2474, -9.1118, -22.5575, -106.748, -7.07431
0.568, -1, 23.7495, 0.243371, -8.16347, 33.3573, -89.1492, -65.7292, -6.6834, 33.2571, -9.06592, -22.5593, -106.724, -7.05184
0.572, -1, 23.7915, 0.251383, -8.13525, 33.3802, -89.129, -65.7245, -6.65144, 33.2668, -9.02004, -22.561, -106.7, -7.02937
0.576, -1, 23.8334, 0.259393, -8.10703, 33.4031, -89.1087, -65.7198, -6.61949, 33.2765, -8.97418, -22.5628, -106.675, -7.00691
0.58, -1, 23.8754, 0.267401, -8.07882, 33.4259, -89.0885, -65.7151, -6.58754, 33.2862, -8.92832, -22.5646, -106.651, -6.98445
0.584, -1, 23.9174, 0.275407, -8.05062, 33.4488, -89.0683, -65.7104, -6.55561, 33.2959, -8.88248, -22.5664, -106.626, -6.962
0.588, -1, 23.9593, 0.283412, -8.02243, 33.4716, -89.0481, -65.7057, -6.52368, 33.3056, -8.83665, -22.5682, -106.602, -6.93955
0.592, -1, 24.0013, 0.291414, -7.99424, 33.4945, -89.0279, -65.701, -6.49176, 33.3153, -8.79083, -22.5699, -106.578, -6.91711
0.596, -1, 24.0432, 0.299414, -7.96606, 33.5173, -89.0077, -65.6964, -6.45985, 33.325, -8.74502, -22.5717, -106.553, -6.89468
0.6, -1, 24.0851, 0.307413, -7.93789, 33.5402, -88.9875, -65.6917, -6.42795, 33.3347, -8.69923, -22.5735, -106.529, -6.87225
0.604, -1, 24.127, 0.315409, -7.90972, 33.563, -88.9673, -65.687, -6.39605, 33.3444, -8.65344, -22.5753, -106.505, -6.84983
0.608, -1, 24.1689, 0.323404, -7.88156, 33.5858, -88.9472, -65.6823, -6.36417, 33.3541, -8.60767, -22.577, -106.48, -6.82741
0.612, -1, 24.2108, 0.331396, -7.85341, 33.6086, -88.927, -65.6776, -6.33229, 33.3638, -8.56191, -22.5788, -106.456, -6.805
0.616, -1, 24.2527, 0.339386, -7.82526, 33.6315, -88.9068, -65.6729, -6.30042, 33.3735, -8.51616, -22.5806, -106.432, -6.78259
0.62, -1, 24.2946, 0.347375, -7.79712, 33.6543, -88.8867, -65.6682, -6.26855, 33.3832, -8.47042, -22.5824, -106.407, -6.76019
0.624, -1, 24.3364, 0.355361, -7.76899, 33.6771, -88.8665, -65.6635, -6.2367, 33.3928, -8.42469, -22.5841, -106.383, -6.73779
0.628, -1, 24.3783, 0.363346, -7.74087, 33.6999, -88.8463, -65.6588, -6.20485, 33.4025, -8.37898, -22.5859, -106.359, -6.7154
0.632, -1, 24.4201, 0.371328, -7.71275, 33.7227, -88.8262, -65.6542, -6.17301, 33.4122, -8.33327, -22.5877, -106.334, -6.69302
0.636, -1, 24.462, 0.379309, -7.68464, 33.7454, -88.806, -65.6495, -6.14118, 33.4219, -8.28758, -22.5894, -106.31, -6.67064
0.64, -1, 24.5038, 0.387287, -7.65654, 33.7682, -88.7859, -65.6448, -6.10935, 33.4315, -8.24189, -22.5912, -106.286, -6.64827
0.644, -1, 24.5456, 0.395264, -7.62844, 33.791, -88.7658, -65.6401, -6.07753, 33.4412, -8.19622, -22.593, -106.261, -6.6259
0.648, -1, 24.5874, 0.403239, -7.60035, 33.8138, -88.7456, -65.6354, -6.04572, 33.4509, -8.15056, -22.5948, -106.237, -6.60354
0.652, -1, 24.6292, 0.411212, -7.57227, 33.8365, -88.7255, -65.6308, -6.01392, 33.4605, -8.10491, -22.5965, -106.213, -6.58118
0.656, -1, 24.671, 0.419182, -7.54419, 33.8593, -88.7054, -65.6261, -5.98213, 33.4702, -8.05928, -22.5983, -106.189, -6.55883
0.66, -1, 24.7127, 0.427151, -7.51612, 33.882, -88.6853, -65.6214, -5.95034, 33.4799, -8.01365, -22.6001, -106.164, -6.53648
0.664, -1, 24.7545, 0.435118, -7.48806, 33.9048, -88.6652, -65.6167, -5.91856, 33.4895, -7.96803, -22.6018, -106.14, -6.51414
0.668, -1, 24.7962, 0.443083, -7.46001, 33.9275, -88.6451, -65.6121, -5.88679, 33.4992, -7.92243, -22.6036, -106.116, -6.49181
0.672, -1, 24.838, 0.451047, -7.43196, 33.9503, -88.625, -65.6074, -5.85503, 33.5088, -7.87683, -22.6054, -106.091, -6.46948
0.676, -1, 24.8797, 0.459008, -7.40391, 33.973, -88.6049, -65.6027, -5.82327, 33.5185, -7.83125, -22.6071, -106.067, -6.44715
0.68, -1, 24.9214, 0.466967, -7.37588, 33.9957, -88.5848, -65.5981, -5.79153, 33.5281, -7.78568, -22.6089, -106.043, -6.42483
0.684, -1, 24.9631, 0.474925, -7.34785, 34.0184, -88.5647, -65.5934, -5.75979, 33.5378, -7.74012, -22.6107, -106.019, -6.40252
0.688, -1, 25.0048, 0.48288, -7.31983, 34.0412, -88.5446, -65.5887, -5.72805, 33.5474, -7.69457, -22.6124, -105.994, -6.38021
0.692, -1, 25.0465, 0.490834, -7.29181, 34.0639, -88.5245, -65.5841, -5.69633, 33.5571, -7.64902, -22.6142, -105.97, -6.35791
0.696, -1, 25.0882, 0.498786, -7.2638, 34.0866, -88.5045, -65.5794, -5.66461, 33.5667, -7.6035, -22.616, -105.946, -6.33561
0.7, -1, 25.1299, 0.506736, -7.2358, 34.1093, -88.4844, -65.5747, -5.6329, 33.5763, -7.55798, -22.6177, -105.922, -6.31332
0.704, -1, 25.1715, 0.514684, -7.2078, 34.132, -88.4643, -65.5701, -5.6012, 33.586, -7.51247, -22.6195, -105.898, -6.29103
0.708, -1, 25.2132, 0.52263, -7.17981, 34.1547, -88.4443, -65.5654, -5.5695, 33.5956, -7.46697, -22.6213, -105.873, -6.26875
0.712, -1, 25.2548, 0.530574, -7.15183, 34.1773, -88.4242, -65.5607, -5.53782, 33.6052, -7.42149, -22.623, -105.849, -6.24647
0.716, -1, 25.2964, 0.538517, -7.12386, 34.2, -88.4042, -65.5561, -5.50614, 33.6148, -7.37601, -22.6248, -105.825, -6.2242
0.72, -1, 25.3381, 0.546457, -7.09589, 34.2227, -88.3841, -65.5514, -5.47446, 33.6245, -7.33054, -22.6266, -105.801, -6.20193
0.724, -1, 25.3797, 0.554396, -7.06792, 34.2454, -88.3641, -65.5468, -5.4428, 33.6341, -7.28509, -22.6283, -105.777, -6.17967
0.728, -1, 25.4213, 0.562333, -7.03997, 34.268, -88.3441, -65.5421, -5.41114, 33.6437, -7.23965, -22.6301, -105.752, -6.15741
0.732, -1, 25.4629, 0.570268, -7.01202, 34.2907, -88.324, -65.5374, -5.37949, 33.6533, -7.19421, -22.6318, -105.728, -6.13516
0.736, -1, 25.5044, 0.578201, -6.98407, 34.3133, -88.304, -65.5328, -5.34785, 33.6629, -7.14879, -22.6336, -105.704, -6.11291
0.74, -1, 25.546, 0.586133, -6.95613, 34.336, -88.284, -65.5281, -5.31621, 33.6726, -7.10338, -22.6354, -105.68, -6.09067
0.744, -1, 25.5876, 0.594062, -6.9282, 34.3586, -88.264, -65.5235, -5.28458, 33.6822, -7.05798, -22.6371, -105.656, -6.06844
0.748, -1, 25.6291, 0.60199, -6.90028, 34.3812, -88.244, -65.5188, -5.25296, 33.6918, -7.01258, -22.6389, -105.632, -6.04621
0.752, -1, 25.6707, 0.609916, -6.87236, 34.4039, -88.224, -65.5142, -5.22135, 33.7014, -6.9672, -22.6406, -105.608, -6.02398
0.756, -1, 25.7122, 0.61784, -6.84445, 34.4265, -88.204, -65.5095, -5.18974, 33.711, -6.92183, -22.6424, -105.583, -6.00176
0.76, -1, 25.7537, 0.625762, -6.81655, 34.4491, -88.184, -65.5049, -5.15814, 33.7206, -6.87647, -22.6442, -105.559, -5.97955
0.764, -1, 25.7952, 0.633682, -6.78865, 34.4717, -88.164, -65.5002, -5.12655, 33.7302, -6.83112, -22.6459, -105.535, -5.95734
0.768, -1, 25.8367, 0.641601, -6.76076, 34.4943, -88.144, -65.4956, -5.09496, 33.7398, -6.78579, -22.6477, -105.511, -5.93513
0.772, -1, 25.8782, 0.649518, -6.73287, 34.5169, -88.124, -65.491, -5.06339, 33.7494, -6.74046, -22.6494, -105.487, -5.91293
0.776, -1, 25.9197, 0.657433, -6.70499, 34.5396, -88.104, -65.4863, -5.03182, 33.759, -6.69514, -22.6512, -105.463, -5.89074
0.78, -1, 25.9612, 0.665346, -6.67712, 34.5621, -88.084, -65.4817, -5.00025, 33.7686, -6.64983, -22.6529, -105.439, -5.86855
0.784, -1, 26.0027, 0.673257, -6.64925, 34.5847, -88.0641, -65.477, -4.9687, 33.7782, -6.60453, -22.6547, -105.415, -5.84636
0.788, -1, 26.0441, 0.681167, -6.62139, 34.6073, -88.0441, -65.4724, -4.93715, 33.7877, -6.55925, -22.6565, -105.391, -5.82418
0.792, -1, 26.0856, 0.689074, -6.59354, 34.6299, -88.0242, -65.4677, -4.90561, 33.7973, -6.51397, -22.6582, -105.366, -5.80201
0.796, -1, 26.127, 0.69698, -6.56569, 34.6525, -88.0042, -65.4631, -4.87407, 33.8069, -6.4687, -22.66, -105.342, -5.77984
0.8, -1, 26.1684, 0.704884, -6.53785, 34.675, -87.9842, -65.4585, -4.84255, 33.8165, -6.42345, -22.6617, -105.318, -5.75768
0.804, -1, 26.2099, 0.712787, -6.51001, 34.6976, -87.9643, -65.4538, -4.81103, 33.8261, -6.3782, -22.6635, -105.294, -5.73552
0.808, -1, 26.2513, 0.720687, -6.48219, 34.7202, -87.9444, -65.4492, -4.77951, 33.8356, -6.33297, -22.6652, -105.27, -5.71336
0.812, -1, 26.2927, 0.728586, -6.45436, 34.7427, -87.9244, -65.4446, -4.74801, 33.8452, -6.28774, -22.667, -105.246, -5.69121
0.816, -1, 26.3341, 0.736483, -6.42655, 34.7653, -87.9045, -65.4399, -4.71651, 33.8548, -6.24253, -22.6687, -105.222, -5.66907
0.82, -1, 26.3754, 0.744378, -6.39874, 34.7878, -87.8846, -65.4353, -4.68502, 33.8644, -6.19732, -22.6705, -105.198, -5.64693
0.824, -1, 26.4168, 0.752272, -6.37093, 34.8103, -87.8646, -65.4307, -4.65353, 33.8739, -6.15213, -22.6722, -105.174, -5.62479
0.828, -1, 26.4582, 0.760163, -6.34314, 34.8329, -87.8447, -65.426, -4.62205, 33.8835, -6.10694, -22.674, -105.15, -5.60266
0.832, -1, 26.4995, 0.768053, -6.31535, 34.8554, -87.8248, -65.4214, -4.59058, 33.8931, -6.06177, -22.6757, -105.126, -5.58054
0.836, -1, 26.5409, 0.775941, -6.28756, 34.8779, -87.8049, -65.4168, -4.55912, 33.9026, -6.0166, -22.6775, -105.102, -5.55842
0.84, -1, 26.5822, 0.783828, -6.25978, 34.9004, -87.785, -65.4122, -4.52766, 33.9122, -5.97145, -22.6793, -105.078, -5.53631
0.844, -1, 26.6235, 0.791712, -6.23201, 34.9229, -87.7651, -65.4075, -4.49621, 33.9217, -5.9263, -22.681, -105.054, -5.5142
0.848, -1, 26.6649, 0.799595, -6.20424, 34.9455, -87.7452, -65.4029, -4.46477, 33.9313, -5.88117, -22.6828, -105.03, -5.49209
0.852, -1, 26.7062, 0.807476, -6.17648, 34.968, -87.7253, -65.3983, -4.43334, 33.9408, -5.83604, -22.6845, -105.006, -5.46999
0.856, -1, 26.7475, 0.815356, -6.14873, 34.9905, -87.7054, -65.3937, -4.40191, 33.9504, -5.79093, -22.6863, -104.982, -5.4479
0.86, -1, 26.7888, 0.823233, -6.12098, 35.0129, -87.6855, -65.389, -4.37049, 33.9599, -5.74583, -22.688, -104.958, -5.42581
0.864, -1, 26.83, 0.831109, -6.09324, 35.0354, -87.6656, -65.3844, -4.33907, 33.9695, -5.70073, -22.6897, -104.934, -5.40372
0.868, -1, 26.8713, 0.838983, -6.0655, 35.0579, -87.6458, -65.3798, -4.30767, 33.979, -5.65565, -22.6915, -104.91, -5.38164
0.872, -1, 26.9126, 0.846855, -6.03778, 35.0804, -87.6259, -65.3752, -4.27627, 33.9886, -5.61057, -22.6932, -104.886, -5.35957
0.876, -1, 26.9538, 0.854726, -6.01005, 35.1029, -87.606, -65.3706, -4.24487, 33.9981, -5.56551, -22.695, -104.862, -5.33749
0.88, -1, 26.9951, 0.862595, -5.98234, 35.1253, -87.5862, -65.3659, -4.21348, 34.0076, -5.52045, -22.6967, -104.838, -5.31543
0.884, -1, 27.0363, 0.870462, -5.95462, 35.1478, -87.5663, -65.3613, -4.18211, 34.0172, -5.47541, -22.6985, -104.814, -5.29337
0.888, -1, 27.0775, 0.878328, -5.92692, 35.1703, -87.5464, -65.3567, -4.15073, 34.0267, -5.43038, -22.7002, -104.79, -5.27131
0.892, -1, 27.1187, 0.886191, -5.89922, 35.1927, -87.5266, -65.3521, -4.11937, 34.0362, -5.38535, -22.702, -104.766, -5.24926
0.896, -1, 27.16, 0.894053, -5.87153, 35.2152, -87.5068, -65.3475, -4.08801, 34.0458, -5.34034, -22.7037, -104.742, -5.22722
0.9, -1, 27.2011, 0.901914, -5.84384, 35.2376, -87.4869, -65.3429, -4.05665, 34.0553, -5.29533, -22.7055, -104.718, -5.20517
0.904, -1, 27.2423, 0.909772, -5.81616, 35.26, -87.4671, -65.3383, -4.02531, 34.0648, -5.25034, -22.7072, -104.694, -5.18314
0.908, -1, 27.2835, 0.917629, -5.78849, 35.2825, -87.4473, -65.3337, -3.99397, 34.0743, -5.20535, -22.709, -104.67, -5.1611
0.912, -1, 27.3247, 0.925484, -5.76082, 35.3049, -87.4274, -65.329, -3.96264, 34.0839, -5.16037, -22.7107, -104.646, -5.13908
0.916, -1, 27.3659, 0.933338, -5.73315, 35.3273, -87.4076, -65.3244, -3.93132, 34.0934, -5.11541, -22.7124, -104.622, -5.11706
0.92, -1, 27.407, 0.941189, -5.7055, 35.3497, -87.3878, -65.3198, -3.9, 34.1029, -5.07045, -22.7142, -104.599, -5.09504
0.924, -1, 27.4482, 0.949039, -5.67785, 35.3722, -87.368, -65.3152, -3.86869, 34.1124, -5.02551, -22.7159, -104.575, -5.07302
0.928, -1, 27.4893, 0.956888, -5.6502, 35.3946, -87.3482, -65.3106, -3.83738, 34.1219, -4.98057, -22.7177, -104.551, -5.05102
0.932, -1, 27.5304, 0.964734, -5.62256, 35.417, -87.3283, -65.306, -3.80608, 34.1314, -4.93564, -22.7194, -104.527, -5.02901
0.936, -1, 27.5715, 0.972579, -5.59493, 35.4394, -87.3085, -65.3014, -3.77479, 34.1409, -4.89072, -22.7212, -104.503, -5.00701
0.94, -1, 27.6126, 0.980423, -5.5673, 35.4618, -87.2887, -65.2968, -3.74351, 34.1505, -4.84582, -22.7229, -104.479, -4.98502
0.944, -1, 27.6537, 0.988264, -5.53968, 35.4841, -87.269, -65.2922, -3.71223, 34.16, -4.80092, -22.7246, -104.455, -4.96303
0.948, -1, 27.6948, 0.996104, -5.51207, 35.5065, -87.2492, -65.2876, -3.68096, 34.1695, -4.75603, -22.7264, -104.431, -4.94105
0.952, -1, 27.7359, 1.00394, -5.48446, 35.5289, -87.2294, -65.283, -3.6497, 34.179, -4.71115, -22.7281, -104.407, -4.91907
0.956, -1, 27.777, 1.01178, -5.45685, 35.5513, -87.2096, -65.2784, -3.61844, 34.1885, -4.66628, -22.7299, -104.384, -4.89709
0.96, -1, 27.8181, 1.01961, -5.42926, 35.5737, -87.1898, -65.2738, -3.58719, 34.198, -4.62142, -22.7316, -104.36, -4.87512
0.964, -1, 27.8591, 1.02745, -5.40167, 35.596, -87.1701, -65.2692, -3.55594, 34.2075, -4.57657, -22.7333, -104.336, -4.85316
0.968, -1, 27.9002, 1.03528, -5.37408, 35.6184, -87.1503, -65.2646, -3.52471, 34.2169, -4.53173, -22.7351, -104.312, -4.8312
0.972, -1, 27.9412, 1.04311, -5.3465, 35.6407, -87.1305, -65.26, -3.49347, 34.2264, -4.4869, -22.7368, -104.288, -4.80924
0.976, -1, 27.9822, 1.05094, -5.31893, 35.6631, -87.1108, -65.2554, -3.46225, 34.2359, -4.44208, -22.7385, -104.264, -4.78729
0.98, -1, 28.0233, 1.05876, -5.29136, 35.6854, -87.091, -65.2509, -3.43103, 34.2454, -4.39727, -22.7403, -104.24, -4.76534
0.984, -1, 28.0643, 1.06659, -5.2638, 35.7078, -87.0713, -65.2463, -3.39982, 34.2549, -4.35246, -22.742, -104.217, -4.7434
0.988, -1, 28.1053, 1.07441, -5.23624, 35.7301, -87.0515, -65.2417, -3.36862, 34.2644, -4.30767, -22.7438, -104.193, -4.72146
0.992, -1, 28.1463, 1.08223, -5.20869, 35.7524, -87.0318, -65.2371, -3.33742, 34.2739, -4.26289, -22.7455, -104.169, -4.69953
0.996, -1, 28.1873, 1.09005, -5.18115, 35.7748, -87.012, -65.2325, -3.30623, 34.2833, -4.21811, -22.7472, -104.145, -4.6776
1, -1, 28.2282, 1.09787, -5.15361, 35.7971, -86.9923, -65.2279, -3.27504, 34.2928, -4.17335, -22.749, -104.121, -4.65568
1.004, -1, 28.2692, 1.10569, -5.12607, 35.8194, -86.9726, -65.2233, -3.24386, 34.3023, -4.12859, -22.7507, -104.098, -4.63376
1.008, -1, 28.3102, 1.1135, -5.09855, 35.8417, -86.9528, -65.2187, -3.21269, 34.3118, -4.08384, -22.7524, -104.074, -4.61184
1.012, -1, 28.3511, 1.12132, -5.07102, 35.864, -86.9331, -65.2142, -3.18153, 34.3212, -4.03911, -22.7542, -104.05, -4.58993
1.016, -1, 28.3921, 1.12913, -5.04351, 35.8863, -86.9134, -65.2096, -3.15037, 34.3307, -3.99438, -22.7559, -104.026, -4.56803
1.02, -1, 28.433, 1.13694, -5.016, 35.9086, -86.8937, -65.205, -3.11921, 34.3402, -3.94966, -22.7576, -104.002, -4.54612
1.024, -1, 28.4739, 1.14475, -4.98849, 35.9309, -86.874, -65.2004, -3.08807, 34.3496, -3.90495, -22.7594, -103.979, -4.52423
1.027, -1, 28.5149, 1.15255, -4.96099, 35.9532, -86.8543, -65.1958, -3.05693, 34.3591, -3.86025, -22.7611, -103.955, -4.50234
1.032, -1, 28.5558, 1.16036, -4.9335, 35.9755, -86.8346, -65.1912, -3.0258, 34.3685, -3.81556, -22.7628, -103.931, -4.48045
1.036, -1, 28.5967, 1.16816, -4.90601, 35.9978, -86.8149, -65.1867, -2.99467, 34.378, -3.77088, -22.7646, -103.907, -4.45857
1.04, -1, 28.6376, 1.17596, -4.87853, 36.0201, -86.7952, -65.1821, -2.96355, 34.3875, -3.72621, -22.7663, -103.883, -4.43669
1.044, -1, 28.6785, 1.18377, -4.85105, 36.0423, -86.7755, -65.1775, -2.93244, 34.3969, -3.68155, -22.768, -103.86, -4.41481
1.048, -1, 28.7193, 1.19156, -4.82358, 36.0646, -86.7558, -65.1729, -2.90133, 34.4064, -3.63689, -22.7698, -103.836, -4.39294
1.052, -1, 28.7602, 1.19936, -4.79612, 36.0869, -86.7361, -65.1684, -2.87023, 34.4158, -3.59225, -22.7715, -103.812, -4.37108
1.055, -1, 28.8011, 1.20716, -4.76866, 36.1091, -86.7164, -65.1638, -2.83913, 34.4253, -3.54761, -22.7732, -103.788, -4.34922
1.06, -1, 28.8419, 1.21495, -4.74121, 36.1314, -86.6968, -65.1592, -2.80804, 34.4347, -3.50299, -22.775, -103.765, -4.32736
1.064, -1, 28.8827, 1.22274, -4.71376, 36.1536, -86.6771, -65.1546, -2.77696, 34.4442, -3.45837, -22.7767, -103.741, -4.30551
1.068, -1, 28.9236, 1.23053, -4.68632, 36.1759, -86.6574, -65.1501, -2.74589, 34.4536, -3.41376, -22.7784, -103.717, -4.28367
1.072, -1, 28.9644, 1.23832, -4.65888, 36.1981, -86.6378, -65.1455, -2.71482, 34.463, -3.36916, -22.7801, -103.694, -4.26182
1.076, -1, 29.0052, 1.24611, -4.63145, 36.2204, -86.6181, -65.1409, -2.68376, 34.4725, -3.32457, -22.7819, -103.67, -4.23998
1.08, -1, 29.046, 1.2539, -4.60402, 36.2426, -86.5985, -65.1364, -2.6527, 34.4819, -3.27999, -22.7836, -103.646, -4.21815
1.084, -1, 29.0868, 1.26168, -4.5766, 36.2648, -86.5788, -65.1318, -2.62165, 34.4914, -3.23542, -22.7853, -103.622, -4.19632
1.088, -1, 29.1276, 1.26946, -4.54919, 36.287, -86.5592, -65.1272, -2.5906, 34.5008, -3.19086, -22.7871, -103.599, -4.1745
1.091, -1, 29.1684, 1.27725, -4.52178, 36.3093, -86.5395, -65.1227, -2.55957, 34.5102, -3.14631, -22.7888, -103.575, -4.15268
1.096, -1, 29.2092, 1.28503, -4.49438, 36.3315, -86.5199, -65.1181, -2.52854, 34.5196, -3.10176, -22.7905, -103.551, -4.13086
1.1, -1, 29.25, 1.2928, -4.46698, 36.3537, -86.5003, -65.1135, -2.49751, 34.5291, -3.05723, -22.7922, -103.528, -4.10905
1.104, -1, 29.2907, 1.30058, -4.43959, 36.3759, -86.4806, -65.109, -2.46649, 34.5385, -3.0127, -22.794, -103.504, -4.08724
1.108, -1, 29.3315, 1.30836, -4.4122, 36.3981, -86.461, -65.1044, -2.43548, 34.5479, -2.96818, -22.7957, -103.48, -4.06544
1.112, -1, 29.3722, 1.31613, -4.38482, 36.4203, -86.4414, -65.0999, -2.40447, 34.5574, -2.92368, -22.7974, -103.457, -4.04364
1.116, -1, 29.413, 1.3239, -4.35744, 36.4425, -86.4218, -65.0953, -2.37347, 34.5668, -2.87918, -22.7991, -103.433, -4.02185
1.119, -1, 29.4537, 1.33167, -4.33007, 36.4647, -86.4021, -65.0907, -2.34248, 34.5762, -2.83469, -22.8009, -103.409, -4.00006
1.124, -1, 29.4944, 1.33944, -4.30271, 36.4868, -86.3825, -65.0862, -2.31149, 34.5856, -2.7902, -22.8026, -103.386, -3.97827
1.128, -1, 29.5351, 1.34721, -4.27535, 36.509, -86.3629, -65.0816, -2.28051, 34.595, -2.74573, -22.8043, -103.362, -3.95649
1.132, -1, 29.5758, 1.35497, -4.24799, 36.5312, -86.3433, -65.0771, -2.24954, 34.6044, -2.70127, -22.806, -103.338, -3.93472
1.136, -1, 29.6165, 1.36274, -4.22065, 36.5534, -86.3237, -65.0725, -2.21857, 34.6138, -2.65681, -22.8078, -103.315, -3.91294
1.14, -1, 29.6572, 1.3705, -4.1933, 36.5755, -86.3041, -65.068, -2.1876, 34.6232, -2.61237, -22.8095, -103.291, -3.89118
1.144, -1, 29.6979, 1.37826, -4.16597, 36.5977, -86.2845, -65.0634, -2.15665, 34.6327, -2.56793, -22.8112, -103.267, -3.86941
1.147, -1, 29.7386, 1.38602, -4.13863, 36.6198, -86.265, -65.0589, -2.1257, 34.6421, -2.5235, -22.8129, -103.244, -3.84765
1.152, -1, 29.7792, 1.39378, -4.11131, 36.642, -86.2454, -65.0543, -2.09475, 34.6515, -2.47908, -22.8147, -103.22, -3.8259
1.156, -1, 29.8199, 1.40154, -4.08398, 36.6641, -86.2258, -65.0498, -2.06381, 34.6609, -2.43467, -22.8164, -103.196, -3.80415
1.16, -1, 29.8605, 1.40929, -4.05667, 36.6863, -86.2062, -65.0452, -2.03288, 34.6703, -2.39027, -22.8181, -103.173, -3.7824
1.164, -1, 29.9012, 1.41704, -4.02936, 36.7084, -86.1867, -65.0407, -2.00195, 34.6797, -2.34587, -22.8198, -103.149, -3.76066
1.168, -1, 29.9418, 1.4248, -4.00205, 36.7305, -86.1671, -65.0361, -1.97103, 34.6891, -2.30149, -22.8215, -103.126, -3.73892
1.172, -1, 29.9824, 1.43255, -3.97475, 36.7527, -86.1475, -65.0316, -1.94012, 34.6985, -2.25711, -22.8233, -103.102, -3.71719
1.175, -1, 30.023, 1.4403, -3.94746, 36.7748, -86.128, -65.027, -1.90921, 34.7078, -2.21274, -22.825, -103.078, -3.69546
1.18, -1, 30.0636, 1.44804, -3.92017, 36.7969, -86.1084, -65.0225, -1.87831, 34.7172, -2.16838, -22.8267, -103.055, -3.67373
1.184, -1, 30.1042, 1.45579, -3.89289, 36.819, -86.0889, -65.0179, -1.84741, 34.7266, -2.12403, -22.8284, -103.031, -3.65201
1.188, -1, 30.1448, 1.46353, -3.86561, 36.8411, -86.0693, -65.0134, -1.81652, 34.736, -2.07969, -22.8301, -103.008, -3.6303
1.192, -1, 30.1854, 1.47128, -3.83833, 36.8633, -86.0498, -65.0088, -1.78564, 34.7454, -2.03536, -22.8319, -102.984, -3.60859
1.196, -1, 30.226, 1.47902, -3.81107, 36.8854, -86.0302, -65.0043, -1.75476, 34.7548, -1.99103, -22.8336, -102.96, -3.58688
1.2, -1, 30.2666, 1.48676, -3.7838, 36.9075, -86.0107, -64.9998, -1.72389, 34.7642, -1.94672, -22.8353, -102.937, -3.56517
1.204, -1, 30.3071, 1.4945, -3.75655, 36.9296, -85.9912, -64.9952, -1.69302, 34.7735, -1.90241, -22.837, -102.913, -3.54347
1.208, -1, 30.3477, 1.50223, -3.72929, 36.9516, -85.9716, -64.9907, -1.66216, 34.7829, -1.85811, -22.8387, -102.89, -3.52178
1.212, -1, 30.3882, 1.50997, -3.70205, 36.9737, -85.9521, -64.9861, -1.6313, 34.7923, -1.81382, -22.8405, -102.866, -3.50009
1.216, -1, 30.4288, 1.5177, -3.67481, 36.9958, -85.9326, -64.9816, -1.60045, 34.8017, -1.76954, -22.8422, -102.843, -3.4784
1.22, -1, 30.4693, 1.52544, -3.64757, 37.0179, -85.9131, -64.9771, -1.56961, 34.811, -1.72526, -22.8439, -102.819, -3.45672
1.224, -1, 30.5098, 1.53317, -3.62034, 37.04, -85.8935, -64.9725, -1.53877, 34.8204, -1.681, -22.8456, -102.796, -3.43504
1.228, -1, 30.5503, 1.5409, -3.59311, 37.062, -85.874, -64.968, -1.50794, 34.8298, -1.63674, -22.8473, -102.772, -3.41336
1.232, -1, 30.5908, 1.54862, -3.56589, 37.0841, -85.8545, -64.9635, -1.47711, 34.8391, -1.59249, -22.849, -102.748, -3.39169
1.236, -1, 30.6313, 1.55635, -3.53867, 37.1062, -85.835, -64.9589, -1.44629, 34.8485, -1.54825, -22.8507, -102.725, -3.37002
1.24, -1, 30.6718, 1.56408, -3.51146, 37.1282, -85.8155, -64.9544, -1.41548, 34.8579, -1.50402, -22.8525, -102.701, -3.34836
1.244, -1, 30.7123, 1.5718, -3.48426, 37.1503, -85.796, -64.9499, -1.38467, 34.8672, -1.4598, -22.8542, -102.678, -3.3267
1.248, -1, 30.7528, 1.57952, -3.45706, 37.1723, -85.7765, -64.9453, -1.35387, 34.8766, -1.41558, -22.8559, -102.654, -3.30505
1.252, -1, 30.7932, 1.58724, -3.42986, 37.1944, -85.757, -64.9408, -1.32307, 34.886, -1.37137, -22.8576, -102.631, -3.2834
1.256, -1, 30.8337, 1.59496, -3.40267, 37.2164, -85.7376, -64.9363, -1.29228, 34.8953, -1.32717, -22.8593, -102.607, -3.26175
1.26, -1, 30.8742, 1.60268, -3.37548, 37.2384, -85.7181, -64.9317, -1.26149, 34.9047, -1.28298, -22.861, -102.584, -3.24011
1.264, -1, 30.9146, 1.6104, -3.3483, 37.2605, -85.6986, -64.9272, -1.23071, 34.914, -1.2388, -22.8627, -102.56, -3.21847
1.267, -1, 30.955, 1.61811, -3.32112, 37.2825, -85.6791, -64.9227, -1.19994, 34.9234, -1.19462, -22.8645, -102.537, -3.19683
1.272, -1, 30.9955, 1.62583, -3.29395, 37.3045, -85.6597, -64.9182, -1.16917, 34.9327, -1.15045, -22.8662, -102.513, -3.1752
1.276, -1, 31.0359, 1.63354, -3.26679, 37.3266, -85.6402, -64.9136, -1.13841, 34.9421, -1.10629, -22.8679, -102.49, -3.15357
1.28, -1, 31.0763, 1.64125, -3.23962, 37.3486, -85.6207, -64.9091, -1.10765, 34.9514, -1.06214, -22.8696, -102.466, -3.13195
1.284, -1, 31.1167, 1.64896, -3.21247, 37.3706, -85.6013, -64.9046, -1.0769, 34.9608, -1.018, -22.8713, -102.443, -3.11033
1.288, -1, 31.1571, 1.65667, -3.18531, 37.3926, -85.5818, -64.9001, -1.04615, 34.9701, -0.973864, -22.873, -102.419, -3.08871
1.292, -1, 31.1975, 1.66438, -3.15817, 37.4146, -85.5624, -64.8955, -1.01541, 34.9794, -0.929736, -22.8747, -102.396, -3.0671
1.295, -1, 31.2379, 1.67208, -3.13103, 37.4366, -85.5429, -64.891, -0.984672, 34.9888, -0.885616, -22.8764, -102.372, -3.04549
1.3, -1, 31.2783, 1.67979, -3.10389, 37.4586, -85.5235, -64.8865, -0.953942, 34.9981, -0.841504, -22.8782, -102.349, -3.02389
1.304, -1, 31.3187, 1.68749, -3.07676, 37.4806, -85.504, -64.882, -0.923217, 35.0075, -0.7974, -22.8799, -102.325, -3.00229
1.308, -1, 31.359, 1.69519, -3.04963, 37.5026, -85.4846, -64.8775, -0.892498, 35.0168, -0.753304, -22.8816, -102.302, -2.98069
1.312, -1, 31.3994, 1.70289, -3.02251, 37.5246, -85.4651, -64.873, -0.861784, 35.0261, -0.709216, -22.8833, -102.279, -2.9591
1.316, -1, 31.4398, 1.71059, -2.99539, 37.5466, -85.4457, -64.8684, -0.831076, 35.0355, -0.665135, -22.885, -102.255, -2.93751
1.32, -1, 31.4801, 1.71829, -2.96827, 37.5685, -85.4263, -64.8639, -0.800373, 35.0448, -0.621063, -22.8867, -102.232, -2.91593
1.324, -1, 31.5204, 1.72598, -2.94117, 37.5905, -85.4068, -64.8594, -0.769675, 35.0541, -0.576998, -22.8884, -102.208, -2.89435
1.328, -1, 31.5608, 1.73368, -2.91406, 37.6125, -85.3874, -64.8549, -0.738983, 35.0634, -0.532941, -22.8901, -102.185, -2.87277
1.332, -1, 31.6011, 1.74137, -2.88696, 37.6344, -85.368, -64.8504, -0.708297, 35.0728, -0.488891, -22.8918, -102.161, -2.85119
1.336, -1, 31.6414, 1.74906, -2.85987, 37.6564, -85.3486, -64.8459, -0.677616, 35.0821, -0.44485, -22.8935, -102.138, -2.82963
1.34, -1, 31.6817, 1.75675, -2.83278, 37.6784, -85.3292, -64.8413, -0.64694, 35.0914, -0.400816, -22.8952, -102.115, -2.80806
1.344, -1, 31.722, 1.76444, -2.8057, 37.7003, -85.3098, -64.8368, -0.616269, 35.1007, -0.35679, -22.8969, -102.091, -2.7865
1.348, -1, 31.7623, 1.77213, -2.77862, 37.7223, -85.2904, -64.8323, -0.585604, 35.11, -0.312771, -22.8987, -102.068, -2.76494
1.352, -1, 31.8026, 1.77982, -2.75154, 37.7442, -85.271, -64.8278, -0.554944, 35.1194, -0.268761, -22.9004, -102.044, -2.74338
1.356, -1, 31.8429, 1.7875, -2.72447, 37.7662, -85.2516, -64.8233, -0.52429, 35.1287, -0.224757, -22.9021, -102.021, -2.72183
1.36, -1, 31.8832, 1.79519, -2.6974, 37.7881, -85.2322, -64.8188, -0.493641, 35.138, -0.180762, -22.9038, -101.997, -2.70029
1.364, -1, 31.9234, 1.80287, -2.67034, 37.81, -85.2128, -64.8143, -0.462997, 35.1473, -0.136774, -22.9055, -101.974, -2.67874
1.368, -1, 31.9637, 1.81055, -2.64329, 37.832, -85.1934, -64.8098, -0.432359, 35.1566, -0.0927942, -22.9072, -101.951, -2.6572
1.372, -1, 32.004, 1.81823, -2.61624, 37.8539, -85.174, -64.8053, -0.401726, 35.1659, -0.0488217, -22.9089, -101.927, -2.63567
1.376, -1, 32.0442, 1.82591, -2.58919, 37.8758, -85.1546, -64.8008, -0.371098, 35.1752, -0.00485679, -22.9106, -101.904, -2.61414
1.38, -1, 32.0844, 1.83359, -2.56215, 37.8977, -85.1352, -64.7963, -0.340475, 35.1845, 0.0391005, -22.9123, -101.881, -2.59261
1.384, -1, 32.1247, 1.84126, -2.53511, 37.9197, -85.1159, -64.7918, -0.309858, 35.1938, 0.0830503, -22.914, -101.857, -2.57108
1.388, -1, 32.1649, 1.84894, -2.50808, 37.9416, -85.0965, -64.7873, -0.279246, 35.2031, 0.126993, -22.9157, -101.834, -2.54956
1.392, -1, 32.2051, 1.85661, -2.48105, 37.9635, -85.0771, -64.7828, -0.248639, 35.2124, 0.170927, -22.9174, -101.81, -2.52804
1.396, -1, 32.2453, 1.86428, -2.45402, 37.9854, -85.0578, -64.7783, -0.218038, 35.2217, 0.214854, -22.9191, -101.787, -2.50653
1.4, -1, 32.2855, 1.87195, -2.42701, 38.0073, -85.0384, -64.7738, -0.187441, 35.231, 0.258774, -22.9208, -101.764, -2.48502
1.404, -1, 32.3257, 1.87962, -2.39999, 38.0292, -85.019, -64.7693, -0.15685, 35.2403, 0.302686, -22.9225, -101.74, -2.46351
1.408, -1, 32.3659, 1.88729, -2.37298, 38.0511, -84.9997, -64.7648, -0.126265, 35.2496, 0.346591, -22.9242, -101.717, -2.44201
1.412, -1, 32.4061, 1.89496, -2.34598, 38.073, -84.9803, -64.7603, -0.0956847, 35.2589, 0.390488, -22.9259, -101.694, -2.42051
1.416, -1, 32.4463, 1.90262, -2.31897, 38.0948, -84.961, -64.7558, -0.0651097, 35.2682, 0.434377, -22.9276, -101.67, -2.39902
1.42, -1, 32.4865, 1.91029, -2.29198, 38.1167, -84.9416, -64.7513, -0.03454, 35.2775, 0.478259, -22.9293, -101.647, -2.37753
1.424, -1, 32.5266, 1.91795, -2.26499, 38.1386, -84.9223, -64.7468, -0.00397531, 35.2868, 0.522134, -22.931, -101.624, -2.35604
1.428, -1, 32.5668, 1.92561, -2.238, 38.1605, -84.903, -64.7423, 0.0265843, 35.2961, 0.566001, -22.9327, -101.6, -2.33455
1.432, -1, 32.6069, 1.93327, -2.21102, 38.1824, -84.8836, -64.7378, 0.057139, 35.3054, 0.609861, -22.9344, -101.577, -2.31307
1.436, -1, 32.6471, 1.94093, -2.18404, 38.2042, -84.8643, -64.7333, 0.0876887, 35.3146, 0.653714, -22.9361, -101.554, -2.2916
1.44, -1, 32.6872, 1.94859, -2.15707, 38.2261, -84.845, -64.7288, 0.118233, 35.3239, 0.69756, -22.9378, -101.53, -2.27012
1.444, -1, 32.7273, 1.95625, -2.1301, 38.248, -84.8256, -64.7243, 0.148773, 35.3332, 0.741398, -22.9395, -101.507, -2.24865
1.448, -1, 32.7675, 1.9639, -2.10313, 38.2698, -84.8063, -64.7198, 0.179307, 35.3425, 0.785229, -22.9412, -101.484, -2.22719
1.452, -1, 32.8076, 1.97156, -2.07617, 38.2917, -84.787, -64.7153, 0.209837, 35.3518, 0.829052, -22.9429, -101.46, -2.20572
1.456, -1, 32.8477, 1.97921, -2.04922, 38.3135, -84.7677, -64.7108, 0.240361, 35.361, 0.872868, -22.9446, -101.437, -2.18426
1.46, -1, 32.8878, 1.98686, -2.02227, 38.3354, -84.7484, -64.7064, 0.27088, 35.3703, 0.916677, -22.9463, -101.414, -2.16281
1.464, -1, 32.9279, 1.99451, -1.99532, 38.3572, -84.729, -64.7019, 0.301394, 35.3796, 0.960479, -22.948, -101.39, -2.14136
1.468, -1, 32.968, 2.00216, -1.96838, 38.379, -84.7097, -64.6974, 0.331903, 35.3889, 1.00427, -22.9497, -101.367, -2.11991
1.472, -1, 33.0081, 2.00981, -1.94144, 38.4009, -84.6904, -64.6929, 0.362407, 35.3981, 1.04806, -22.9514, -101.344, -2.09846
1.476, -1, 33.0482, 2.01745, -1.91451, 38.4227, -84.6711, -64.6884, 0.392906, 35.4074, 1.09184, -22.9531, -101.32, -2.07702
1.48, -1, 33.0882, 2.0251, -1.88758, 38.4445, -84.6518, -64.6839, 0.423399, 35.4167, 1.13561, -22.9548, -101.297, -2.05558
1.484, -1, 33.1283, 2.03274, -1.86066, 38.4664, -84.6325, -64.6794, 0.453888, 35.4259, 1.17938, -22.9565, -101.274, -2.03415
1.488, -1, 33.1684, 2.04038, -1.83374, 38.4882, -84.6133, -64.6749, 0.484371, 35.4352, 1.22314, -22.9582, -101.251, -2.01272
1.492, -1, 33.2084, 2.04803, -1.80682, 38.51, -84.594, -64.6705, 0.51485, 35.4444, 1.26689, -22.9599, -101.227, -1.99129
1.496, -1, 33.2484, 2.05567, -1.77991, 38.5318, -84.5747, -64.666, 0.545324, 35.4537, 1.31063, -22.9616, -101.204, -1.96987
1.5, -1, 33.2885, 2.0633, -1.753, 38.5536, -84.5554, -64.6615, 0.575792, 35.463, 1.35437, -22.9633, -101.181, -1.94845
1.504, -1, 33.3285, 2.07094, -1.7261, 38.5754, -84.5361, -64.657, 0.606256, 35.4722, 1.3981, -22.965, -101.158, -1.92703
1.508, -1, 33.3685, 2.07858, -1.6992, 38.5972, -84.5169, -64.6525, 0.636715, 35.4815, 1.44183, -22.9667, -101.134, -1.90561
1.512, -1, 33.4086, 2.08621, -1.67231, 38.619, -84.4976, -64.6481, 0.667169, 35.4907, 1.48554, -22.9684, -101.111, -1.8842
1.516, -1, 33.4486, 2.09385, -1.64542, 38.6408, -84.4783, -64.6436, 0.697619, 35.5, 1.52925, -22.9701, -101.088, -1.8628
1.52, -1, 33.4886, 2.10148, -1.61854, 38.6626, -84.459, -64.6391, 0.728063, 35.5092, 1.57295, -22.9718, -101.065, -1.8414
1.524, -1, 33.5286, 2.10911, -1.59165, 38.6844, -84.4398, -64.6346, 0.758503, 35.5185, 1.61665, -22.9735, -101.041, -1.82
1.528, -1, 33.5686, 2.11674, -1.56478, 38.7062, -84.4205, -64.6301, 0.788937, 35.5277, 1.66034, -22.9752, -101.018, -1.7986
1.532, -1, 33.6086, 2.12437, -1.53791, 38.728, -84.4013, -64.6257, 0.819367, 35.537, 1.70402, -22.9769, -100.995, -1.77721
1.536, -1, 33.6485, 2.132, -1.51104, 38.7498, -84.382, -64.6212, 0.849792, 35.5462, 1.74769, -22.9785, -100.972, -1.75582
1.54, -1, 33.6885, 2.13962, -1.48418, 38.7715, -84.3628, -64.6167, 0.880212, 35.5555, 1.79136, -22.9802, -100.948, -1.73443
1.544, -1, 33.7285, 2.14725, -1.45732, 38.7933, -84.3435, -64.6123, 0.910627, 35.5647, 1.83502, -22.9819, -100.925, -1.71305
1.548, -1, 33.7684, 2.15487, -1.43046, 38.8151, -84.3243, -64.6078, 0.941037, 35.5739, 1.87867, -22.9836, -100.902, -1.69167
1.552, -1, 33.8084, 2.1625, -1.40361, 38.8368, -84.305, -64.6033, 0.971442, 35.5832, 1.92231, -22.9853, -100.879, -1.67029
1.556, -1, 33.8483, 2.17012, -1.37677, 38.8586, -84.2858, -64.5988, 1.00184, 35.5924, 1.96595, -22.987, -100.855, -1.64892
1.56, -1, 33.8883, 2.17774, -1.34992, 38.8804, -84.2666, -64.5944, 1.03224, 35.6017, 2.00958, -22.9887, -100.832, -1.62755
1.564, -1, 33.9282, 2.18536, -1.32309, 38.9021, -84.2473, -64.5899, 1.06263, 35.6109, 2.05321, -22.9904, -100.809, -1.60619
1.568, -1, 33.9681, 2.19298, -1.29625, 38.9239, -84.2281, -64.5854, 1.09302, 35.6201, 2.09683, -22.9921, -100.786, -1.58482
1.572, -1, 34.0081, 2.20059, -1.26942, 38.9456, -84.2089, -64.581, 1.1234, 35.6294, 2.14044, -22.9938, -100.763, -1.56347
1.576, -1, 34.048, 2.20821, -1.2426, 38.9674, -84.1897, -64.5765, 1.15377, 35.6386, 2.18404, -22.9955, -100.739, -1.54211
1.58, -1, 34.0879, 2.21582, -1.21578, 38.9891, -84.1704, -64.572, 1.18415, 35.6478, 2.22764, -22.9972, -100.716, -1.52076
1.584, -1, 34.1278, 2.22344, -1.18896, 39.0108, -84.1512, -64.5676, 1.21451, 35.657, 2.27123, -22.9988, -100.693, -1.49941
1.588, -1, 34.1677, 2.23105, -1.16215, 39.0326, -84.132, -64.5631, 1.24488, 35.6663, 2.31482, -23.0005, -100.67, -1.47806
1.592, -1, 34.2076, 2.23866, -1.13534, 39.0543, -84.1128, -64.5586, 1.27523, 35.6755, 2.35839, -23.0022, -100.647, -1.45672
1.596, -1, 34.2475, 2.24627, -1.10854, 39.076, -84.0936, -64.5542, 1.30559, 35.6847, 2.40196, -23.0039, -100.624, -1.43538
1.6, -1, 34.2874, 2.25388, -1.08174, 39.0978, -84.0744, -64.5497, 1.33593, 35.6939, 2.44553, -23.0056, -100.6, -1.41405
1.604, -1, 34.3272, 2.26148, -1.05494, 39.1195, -84.0552, -64.5452, 1.36628, 35.7032, 2.48908, -23.0073, -100.577, -1.39272
1.608, -1, 34.3671, 2.26909, -1.02815, 39.1412, -84.036, -64.5408, 1.39662, 35.7124, 2.53263, -23.009, -100.554, -1.37139
1.612, -1, 34.407, 2.2767, -1.00136, 39.1629, -84.0168, -64.5363, 1.42695, 35.7216, 2.57618, -23.0107, -100.531, -1.35006
1.616, -1, 34.4468, 2.2843, -0.974579, 39.1846, -83.9976, -64.5319, 1.45728, 35.7308, 2.61971, -23.0124, -100.508, -1.32874
1.62, -1, 34.4867, 2.2919, -0.9478, 39.2063, -83.9784, -64.5274, 1.4876, 35.74, 2.66324, -23.014, -100.485, -1.30742
1.624, -1, 34.5265, 2.2995, -0.921025, 39.228, -83.9592, -64.5229, 1.51792, 35.7492, 2.70677, -23.0157, -100.461, -1.2861
1.628, -1, 34.5663, 2.3071, -0.894254, 39.2497, -83.94, -64.5185, 1.54824, 35.7585, 2.75028, -23.0174, -100.438, -1.26479
1.632, -1, 34.6062, 2.3147, -0.867487, 39.2714, -83.9208, -64.514, 1.57855, 35.7677, 2.79379, -23.0191, -100.415, -1.24348
1.636, -1, 34.646, 2.3223, -0.840725, 39.2931, -83.9017, -64.5096, 1.60886, 35.7769, 2.8373, -23.0208, -100.392, -1.22218
1.64, -1, 34.6858, 2.3299, -0.813966, 39.3148, -83.8825, -64.5051, 1.63916, 35.7861, 2.88079, -23.0225, -100.369, -1.20087
1.644, -1, 34.7256, 2.33749, -0.787211, 39.3365, -83.8633, -64.5006, 1.66946, 35.7953, 2.92428, -23.0242, -100.346, -1.17958
1.648, -1, 34.7654, 2.34509, -0.760461, 39.3582, -83.8441, -64.4962, 1.69975, 35.8045, 2.96777, -23.0259, -100.323, -1.15828
1.652, -1, 34.8052, 2.35268, -0.733714, 39.3799, -83.825, -64.4917, 1.73004, 35.8137, 3.01124, -23.0275, -100.299, -1.13699
1.656, -1, 34.845, 2.36027, -0.706972, 39.4015, -83.8058, -64.4873, 1.76032, 35.8229, 3.05471, -23.0292, -100.276, -1.1157
1.66, -1, 34.8848, 2.36786, -0.680233, 39.4232, -83.7867, -64.4828, 1.7906, 35.8321, 3.09818, -23.0309, -100.253, -1.09441
1.664, -1, 34.9246, 2.37545, -0.653499, 39.4449, -83.7675, -64.4784, 1.82087, 35.8413, 3.14163, -23.0326, -100.23, -1.07313
1.668, -1, 34.9644, 2.38304, -0.626769, 39.4666, -83.7483, -64.4739, 1.85114, 35.8505, 3.18508, -23.0343, -100.207, -1.05185
1.672, -1, 35.0041, 2.39063, -0.600042, 39.4882, -83.7292, -64.4695, 1.88141, 35.8597, 3.22853, -23.036, -100.184, -1.03057
1.676, -1, 35.0439, 2.39822, -0.57332, 39.5099, -83.71, -64.465, 1.91167, 35.8689, 3.27197, -23.0376, -100.161, -1.0093
1.68, -1, 35.0837, 2.4058, -0.546601, 39.5315, -83.6909, -64.4606, 1.94192, 35.8781, 3.3154, -23.0393, -100.138, -0.988025
1.684, -1, 35.1234, 2.41339, -0.519887, 39.5532, -83.6718, -64.4561, 1.97217, 35.8873, 3.35882, -23.041, -100.115, -0.966757
1.688, -1, 35.1632, 2.42097, -0.493177, 39.5748, -83.6526, -64.4517, 2.00242, 35.8965, 3.40224, -23.0427, -100.091, -0.945493
1.692, -1, 35.2029, 2.42855, -0.46647, 39.5965, -83.6335, -64.4472, 2.03266, 35.9057, 3.44565, -23.0444, -100.068, -0.924232
1.696, -1, 35.2426, 2.43613, -0.439768, 39.6181, -83.6143, -64.4428, 2.0629, 35.9148, 3.48906, -23.0461, -100.045, -0.902974
1.7, -1, 35.2824, 2.44371, -0.413069, 39.6398, -83.5952, -64.4383, 2.09313, 35.924, 3.53246, -23.0477, -100.022, -0.881719
1.704, -1, 35.3221, 2.45129, -0.386375, 39.6614, -83.5761, -64.4339, 2.12336, 35.9332, 3.57585, -23.0494, -99.9991, -0.860467
1.708, -1, 35.3618, 2.45887, -0.359684, 39.6831, -83.5569, -64.4294, 2.15359, 35.9424, 3.61923, -23.0511, -99.976, -0.839219
1.712, -1, 35.4015, 2.46645, -0.332997, 39.7047, -83.5378, -64.425, 2.18381, 35.9516, 3.66261, -23.0528, -99.9529, -0.817974
1.716, -1, 35.4412, 2.47402, -0.306314, 39.7263, -83.5187, -64.4205, 2.21402, 35.9608, 3.70599, -23.0545, -99.9299, -0.796731
1.72, -1, 35.4809, 2.48159, -0.279635, 39.7479, -83.4996, -64.4161, 2.24423, 35.9699, 3.74935, -23.0562, -99.9068, -0.775492
1.724, -1, 35.5206, 2.48917, -0.25296, 39.7696, -83.4805, -64.4117, 2.27444, 35.9791, 3.79271, -23.0578, -99.8837, -0.754256
1.728, -1, 35.5603, 2.49674, -0.226289, 39.7912, -83.4614, -64.4072, 2.30464, 35.9883, 3.83607, -23.0595, -99.8607, -0.733023
1.732, -1, 35.6, 2.50431, -0.199622, 39.8128, -83.4422, -64.4028, 2.33484, 35.9975, 3.87942, -23.0612, -99.8376, -0.711793
1.736, -1, 35.6397, 2.51188, -0.172959, 39.8344, -83.4231, -64.3983, 2.36504, 36.0066, 3.92276, -23.0629, -99.8146, -0.690566
1.74, -1, 35.6793, 2.51945, -0.146299, 39.856, -83.404, -64.3939, 2.39522, 36.0158, 3.96609, -23.0646, -99.7915, -0.669343
1.744, -1, 35.719, 2.52702, -0.119643, 39.8776, -83.3849, -64.3895, 2.42541, 36.025, 4.00942, -23.0662, -99.7684, -0.648122
1.748, -1, 35.7587, 2.53458, -0.0929915, 39.8992, -83.3658, -64.385, 2.45559, 36.0342, 4.05275, -23.0679, -99.7454, -0.626904
1.752, -1, 35.7983, 2.54215, -0.0663435, 39.9208, -83.3467, -64.3806, 2.48577, 36.0433, 4.09606, -23.0696, -99.7224, -0.60569
1.756, -1, 35.838, 2.54971, -0.0396994, 39.9424, -83.3276, -64.3761, 2.51594, 36.0525, 4.13937, -23.0713, -99.6993, -0.584478
1.76, -1, 35.8776, 2.55728, -0.0130591, 39.964, -83.3086, -64.3717, 2.54611, 36.0617, 4.18268, -23.073, -99.6763, -0.56327
1.764, -1, 35.9172, 2.56484, 0.0135774, 39.9856, -83.2895, -64.3673, 2.57627, 36.0708, 4.22598, -23.0746, -99.6533, -0.542064
1.768, -1, 35.9569, 2.5724, 0.0402101, 40.0072, -83.2704, -64.3628, 2.60643, 36.08, 4.26927, -23.0763, -99.6302, -0.520862
1.772, -1, 35.9965, 2.57996, 0.066839, 40.0288, -83.2513, -64.3584, 2.63658, 36.0892, 4.31255, -23.078, -99.6072, -0.499663
1.776, -1, 36.0361, 2.58752, 0.0934641, 40.0504, -83.2322, -64.354, 2.66673, 36.0983, 4.35583, -23.0797, -99.5842, -0.478466
1.78, -1, 36.0757, 2.59508, 0.120085, 40.072, -83.2131, -64.3495, 2.69688, 36.1075, 4.39911, -23.0813, -99.5612, -0.457273
1.784, -1, 36.1153, 2.60263, 0.146703, 40.0935, -83.1941, -64.3451, 2.72702, 36.1166, 4.44237, -23.083, -99.5381, -0.436083
1.788, -1, 36.1549, 2.61019, 0.173317, 40.1151, -83.175, -64.3407, 2.75716, 36.1258, 4.48563, -23.0847, -99.5151, -0.414895
1.792, -1, 36.1945, 2.61774, 0.199927, 40.1367, -83.1559, -64.3362, 2.78729, 36.135, 4.52889, -23.0864, -99.4921, -0.393711
1.796, -1, 36.2341, 2.6253, 0.226533, 40.1582, -83.1369, -64.3318, 2.81742, 36.1441, 4.57214, -23.0881, -99.4691, -0.37253
1.8, -1, 36.2737, 2.63285, 0.253136, 40.1798, -83.1178, -64.3274, 2.84754, 36.1533, 4.61538, -23.0897, -99.4461, -0.351351
1.804, -1, 36.3133, 2.6404, 0.279734, 40.2014, -83.0987, -64.3229, 2.87767, 36.1624, 4.65862, -23.0914, -99.4231, -0.330176
1.808, -1, 36.3529, 2.64795, 0.30633, 40.2229, -83.0797, -64.3185, 2.90778, 36.1716, 4.70185, -23.0931, -99.4001, -0.309003
1.812, -1, 36.3924, 2.6555, 0.332921, 40.2445, -83.0606, -64.3141, 2.93789, 36.1807, 4.74507, -23.0948, -99.3771, -0.287834
1.816, -1, 36.432, 2.66305, 0.359509, 40.266, -83.0416, -64.3096, 2.968, 36.1899, 4.78829, -23.0964, -99.3541, -0.266667
1.82, -1, 36.4715, 2.6706, 0.386093, 40.2876, -83.0225, -64.3052, 2.99811, 36.199, 4.8315, -23.0981, -99.3311, -0.245504
1.824, -1, 36.5111, 2.67814, 0.412673, 40.3091, -83.0035, -64.3008, 3.0282, 36.2082, 4.87471, -23.0998, -99.3082, -0.224343
1.828, -1, 36.5507, 2.68569, 0.439249, 40.3307, -82.9844, -64.2964, 3.0583, 36.2173, 4.91791, -23.1015, -99.2852, -0.203185
1.832, -1, 36.5902, 2.69323, 0.465822, 40.3522, -82.9654, -64.2919, 3.08839, 36.2265, 4.96111, -23.1031, -99.2622, -0.182031
1.836, -1, 36.6297, 2.70077, 0.492391, 40.3737, -82.9463, -64.2875, 3.11848, 36.2356, 5.00429, -23.1048, -99.2392, -0.160879
1.84, -1, 36.6693, 2.70832, 0.518957, 40.3953, -82.9273, -64.2831, 3.14856, 36.2447, 5.04748, -23.1065, -99.2162, -0.13973
1.844, -1, 36.7088, 2.71586, 0.545519, 40.4168, -82.9083, -64.2787, 3.17864, 36.2539, 5.09065, -23.1082, -99.1933, -0.118584
1.848, -1, 36.7483, 2.7234, 0.572077, 40.4383, -82.8892, -64.2742, 3.20871, 36.263, 5.13382, -23.1098, -99.1703, -0.0974406
1.852, -1, 36.7878, 2.73094, 0.598632, 40.4599, -82.8702, -64.2698, 3.23879, 36.2722, 5.17699, -23.1115, -99.1474, -0.0763004
1.856, -1, 36.8273, 2.73847, 0.625183, 40.4814, -82.8512, -64.2654, 3.26885, 36.2813, 5.22015, -23.1132, -99.1244, -0.055163
1.86, -1, 36.8668, 2.74601, 0.65173, 40.5029, -82.8322, -64.261, 3.29891, 36.2904, 5.2633, -23.1149, -99.1014, -0.0340285
1.864, -1, 36.9063, 2.75355, 0.678274, 40.5244, -82.8131, -64.2565, 3.32897, 36.2996, 5.30645, -23.1165, -99.0785, -0.0128969
1.868, -1, 36.9458, 2.76108, 0.704814, 40.5459, -82.7941, -64.2521, 3.35903, 36.3087, 5.34959, -23.1182, -99.0555, 0.0082318
1.872, -1, 36.9853, 2.76861, 0.731351, 40.5674, -82.7751, -64.2477, 3.38908, 36.3178, 5.39273, -23.1199, -99.0326, 0.0293577
1.876, -1, 37.0248, 2.77615, 0.757884, 40.589, -82.7561, -64.2433, 3.41912, 36.327, 5.43586, -23.1215, -99.0097, 0.0504807
1.88, -1, 37.0643, 2.78368, 0.784413, 40.6105, -82.7371, -64.2389, 3.44916, 36.3361, 5.47898, -23.1232, -98.9867, 0.0716009
1.884, -1, 37.1037, 2.79121, 0.810939, 40.632, -82.7181, -64.2345, 3.4792, 36.3452, 5.5221, -23.1249, -98.9638, 0.0927182
1.888, -1, 37.1432, 2.79874, 0.837461, 40.6535, -82.6991, -64.23, 3.50924, 36.3543, 5.56521, -23.1266, -98.9408, 0.113833
1.892, -1, 37.1827, 2.80627, 0.86398, 40.675, -82.6801, -64.2256, 3.53927, 36.3635, 5.60832, -23.1282, -98.9179, 0.134944
1.896, -1, 37.2221, 2.8138, 0.890495, 40.6964, -82.6611, -64.2212, 3.56929, 36.3726, 5.65142, -23.1299, -98.895, 0.156053
1.9, -1, 37.2616, 2.82132, 0.917007, 40.7179, -82.6421, -64.2168, 3.59931, 36.3817, 5.69451, -23.1316, -98.8721, 0.177159
1.904, -1, 37.301, 2.82885, 0.943515, 40.7394, -82.6231, -64.2124, 3.62933, 36.3908, 5.7376, -23.1332, -98.8491, 0.198262
1.908, -1, 37.3405, 2.83637, 0.97002, 40.7609, -82.6041, -64.208, 3.65934, 36.3999, 5.78068, -23.1349, -98.8262, 0.219363
1.912, -1, 37.3799, 2.8439, 0.996521, 40.7824, -82.5851, -64.2035, 3.68935, 36.4091, 5.82376, -23.1366, -98.8033, 0.24046
1.916, -1, 37.4193, 2.85142, 1.02302, 40.8039, -82.5661, -64.1991, 3.71936, 36.4182, 5.86683, -23.1383, -98.7804, 0.261555
1.92, -1, 37.4587, 2.85894, 1.04951, 40.8253, -82.5471, -64.1947, 3.74936, 36.4273, 5.9099, -23.1399, -98.7575, 0.282647
1.924, -1, 37.4982, 2.86646, 1.076, 40.8468, -82.5281, -64.1903, 3.77936, 36.4364, 5.95296, -23.1416, -98.7346, 0.303736
1.928, -1, 37.5376, 2.87398, 1.10249, 40.8683, -82.5091, -64.1859, 3.80935, 36.4455, 5.99602, -23.1433, -98.7117, 0.324823
1.932, -1, 37.577, 2.8815, 1.12897, 40.8898, -82.4902, -64.1815, 3.83934, 36.4546, 6.03907, -23.1449, -98.6888, 0.345907
1.936, -1, 37.6164, 2.88902, 1.15545, 40.9112, -82.4712, -64.1771, 3.86933, 36.4638, 6.08211, -23.1466, -98.6659, 0.366988
1.94, -1, 37.6558, 2.89654, 1.18193, 40.9327, -82.4522, -64.1727, 3.89931, 36.4729, 6.12515, -23.1483, -98.643, 0.388066
1.944, -1, 37.6952, 2.90405, 1.2084, 40.9542, -82.4333, -64.1683, 3.92929, 36.482, 6.16818, -23.1499, -98.6201, 0.409142
1.948, -1, 37.7346, 2.91157, 1.23487, 40.9756, -82.4143, -64.1638, 3.95927, 36.4911, 6.21121, -23.1516, -98.5972, 0.430215
1.952, -1, 37.774, 2.91908, 1.26134, 40.9971, -82.3953, -64.1594, 3.98924, 36.5002, 6.25423, -23.1533, -98.5743, 0.451285
1.956, -1, 37.8133, 2.92659, 1.2878, 41.0185, -82.3764, -64.155, 4.01921, 36.5093, 6.29725, -23.1549, -98.5514, 0.472352
1.96, -1, 37.8527, 2.9341, 1.31426, 41.04, -82.3574, -64.1506, 4.04917, 36.5184, 6.34026, -23.1566, -98.5285, 0.493418
1.964, -1, 37.8921, 2.94162, 1.34072, 41.0614, -82.3384, -64.1462, 4.07913, 36.5275, 6.38327, -23.1583, -98.5057, 0.51448
1.968, -1, 37.9314, 2.94913, 1.36717, 41.0828, -82.3195, -64.1418, 4.10909, 36.5366, 6.42627, -23.1599, -98.4828, 0.53554
1.972, -1, 37.9708, 2.95664, 1.39363, 41.1043, -82.3005, -64.1374, 4.13905, 36.5457, 6.46926, -23.1616, -98.4599, 0.556597
1.976, -1, 38.0102, 2.96414, 1.42007, 41.1257, -82.2816, -64.133, 4.16899, 36.5548, 6.51225, -23.1633, -98.437, 0.577652
1.98, -1, 38.0495, 2.97165, 1.44652, 41.1472, -82.2626, -64.1286, 4.19894, 36.5639, 6.55524, -23.1649, -98.4142, 0.598704
1.984, -1, 38.0889, 2.97916, 1.47296, 41.1686, -82.2437, -64.1242, 4.22888, 36.573, 6.59822, -23.1666, -98.3913, 0.619754
1.988, -1, 38.1282, 2.98666, 1.4994, 41.19, -82.2247, -64.1198, 4.25882, 36.5821, 6.64119, -23.1683, -98.3685, 0.640801
1.992, -1, 38.1675, 2.99417, 1.52583, 41.2115, -82.2058, -64.1154, 4.28875, 36.5912, 6.68416, -23.1699, -98.3456, 0.661846
1.996, -1, 38.2069, 3.00167, 1.55226, 41.2329, -82.1868, -64.111, 4.31869, 36.6003, 6.72713, -23.1716, -98.3227, 0.682888
1.999, -1, 38.2462, 3.00918, 1.57869, 41.2543, -82.1679, -64.1066, 4.34861, 36.6094, 6.77009, -23.1733, -98.2999, 0.703927
2.004, -1, 38.2855, 3.01668, 1.60511, 41.2757, -82.149, -64.1022, 4.37854, 36.6185, 6.81304, -23.1749, -98.277, 0.724964
2.008, -1, 38.3248, 3.02418, 1.63154, 41.2971, -82.13, -64.0978, 4.40846, 36.6276, 6.85599, -23.1766, -98.2542, 0.745999
2.012, -1, 38.3641, 3.03168, 1.65796, 41.3186, -82.1111, -64.0934, 4.43837, 36.6367, 6.89894, -23.1783, -98.2314, 0.767031
2.015, -1, 38.4035, 3.03918, 1.68437, 41.34, -82.0922, -64.089, 4.46829, 36.6458, 6.94187, -23.1799, -98.2085, 0.788061
2.019, -1, 38.4428, 3.04668, 1.71078, 41.3614, -82.0732, -64.0846, 4.4982, 36.6548, 6.98481, -23.1816, -98.1857, 0.809088
2.024, -1, 38.4821, 3.05418, 1.73719, 41.3828, -82.0543, -64.0802, 4.5281, 36.6639, 7.02774, -23.1833, -98.1628, 0.830113
2.028, -1, 38.5213, 3.06167, 1.7636, 41.4042, -82.0354, -64.0758, 4.55801, 36.673, 7.07066, -23.1849, -98.14, 0.851136
2.031, -1, 38.5606, 3.06917, 1.79, 41.4256, -82.0165, -64.0714, 4.58791, 36.6821, 7.11358, -23.1866, -98.1172, 0.872156
2.036, -1, 38.5999, 3.07666, 1.8164, 41.447, -81.9976, -64.067, 4.6178, 36.6912, 7.1565, -23.1883, -98.0943, 0.893173
2.04, -1, 38.6392, 3.08416, 1.8428, 41.4684, -81.9786, -64.0626, 4.6477, 36.7003, 7.19941, -23.1899, -98.0715, 0.914188
2.044, -1, 38.6785, 3.09165, 1.8692, 41.4898, -81.9597, -64.0582, 4.67758, 36.7094, 7.24231, -23.1916, -98.0487, 0.935201
2.048, -1, 38.7177, 3.09914, 1.89559, 41.5112, -81.9408, -64.0538, 4.70747, 36.7184, 7.28521, -23.1932, -98.0259, 0.956211
2.051, -1, 38.757, 3.10663, 1.92198, 41.5326, -81.9219, -64.0494, 4.73735, 36.7275, 7.3281, -23.1949, -98.0031, 0.977219
2.055, -1, 38.7963, 3.11412, 1.94836, 41.554, -81.903, -64.045, 4.76723, 36.7366, 7.37099, -23.1966, -97.9802, 0.998224
2.06, -1, 38.8355, 3.12161, 1.97474, 41.5753, -81.8841, -64.0406, 4.79711, 36.7457, 7.41388, -23.1982, -97.9574, 1.01923
2.064, -1, 38.8748, 3.1291, 2.00112, 41.5967, -81.8652, -64.0362, 4.82698, 36.7547, 7.45676, -23.1999, -97.9346, 1.04023
2.068, -1, 38.914, 3.13659, 2.0275, 41.6181, -81.8463, -64.0318, 4.85685, 36.7638, 7.49963, -23.2016, -97.9118, 1.06123
2.071, -1, 38.9533, 3.14408, 2.05387, 41.6395, -81.8274, -64.0274, 4.88671, 36.7729, 7.5425, -23.2032, -97.889, 1.08222
2.076, -1, 38.9925, 3.15156, 2.08025, 41.6609, -81.8085, -64.023, 4.91657, 36.782, 7.58537, -23.2049, -97.8662, 1.10322
2.08, -1, 39.0317, 3.15905, 2.10661, 41.6822, -81.7896, -64.0186, 4.94643, 36.791, 7.62823, -23.2065, -97.8434, 1.12421
2.084, -1, 39.071, 3.16653, 2.13298, 41.7036, -81.7707, -64.0143, 4.97629, 36.8001, 7.67108, -23.2082, -97.8206, 1.1452
2.087, -1, 39.1102, 3.17401, 2.15934, 41.725, -81.7518, -64.0099, 5.00614, 36.8092, 7.71393, -23.2099, -97.7978, 1.16618
2.092, -1, 39.1494, 3.1815, 2.1857, 41.7463, -81.7329, -64.0055, 5.03599, 36.8183, 7.75678, -23.2115, -97.775, 1.18717
2.096, -1, 39.1886, 3.18898, 2.21205, 41.7677, -81.714, -64.0011, 5.06583, 36.8273, 7.79962, -23.2132, -97.7522, 1.20815
2.1, -1, 39.2279, 3.19646, 2.23841, 41.7891, -81.6951, -63.9967, 5.09567, 36.8364, 7.84246, -23.2148, -97.7294, 1.22913
2.104, -1, 39.2671, 3.20394, 2.26476, 41.8104, -81.6763, -63.9923, 5.12551, 36.8455, 7.88529, -23.2165, -97.7066, 1.2501
2.107, -1, 39.3063, 3.21142, 2.2911, 41.8318, -81.6574, -63.9879, 5.15535, 36.8545, 7.92812, -23.2182, -97.6839, 1.27108
2.111, -1, 39.3455, 3.2189, 2.31745, 41.8531, -81.6385, -63.9835, 5.18518, 36.8636, 7.97094, -23.2198, -97.6611, 1.29205
2.116, -1, 39.3847, 3.22638, 2.34379, 41.8745, -81.6196, -63.9791, 5.21501, 36.8727, 8.01375, -23.2215, -97.6383, 1.31302
2.12, -1, 39.4239, 3.23386, 2.37013, 41.8958, -81.6008, -63.9748, 5.24483, 36.8817, 8.05657, -23.2232, -97.6155, 1.33399
2.124, -1, 39.4631, 3.24133, 2.39646, 41.9172, -81.5819, -63.9704, 5.27465, 36.8908, 8.09938, -23.2248, -97.5928, 1.35495
2.127, -1, 39.5022, 3.24881, 2.4228, 41.9385, -81.563, -63.966, 5.30447, 36.8998, 8.14218, -23.2265, -97.57, 1.37592
2.132, -1, 39.5414, 3.25628, 2.44913, 41.9599, -81.5441, -63.9616, 5.33429, 36.9089, 8.18498, -23.2281, -97.5472, 1.39688
2.136, -1, 39.5806, 3.26376, 2.47545, 41.9812, -81.5253, -63.9572, 5.3641, 36.918, 8.22777, -23.2298, -97.5245, 1.41784
2.14, -1, 39.6198, 3.27123, 2.50178, 42.0025, -81.5064, -63.9528, 5.39391, 36.927, 8.27056, -23.2314, -97.5017, 1.43879
2.143, -1, 39.6589, 3.2787, 2.5281, 42.0239, -81.4875, -63.9484, 5.42371, 36.9361, 8.31335, -23.2331, -97.4789, 1.45975
2.148, -1, 39.6981, 3.28618, 2.55441, 42.0452, -81.4687, -63.9441, 5.45352, 36.9451, 8.35613, -23.2348, -97.4562, 1.4807
2.152, -1, 39.7372, 3.29365, 2.58073, 42.0665, -81.4498, -63.9397, 5.48332, 36.9542, 8.3989, -23.2364, -97.4334, 1.50165
2.156, -1, 39.7764, 3.30112, 2.60704, 42.0879, -81.431, -63.9353, 5.51311, 36.9632, 8.44167, -23.2381, -97.4107, 1.52259
2.16, -1, 39.8156, 3.30859, 2.63335, 42.1092, -81.4121, -63.9309, 5.5429, 36.9723, 8.48444, -23.2397, -97.3879, 1.54354
2.163, -1, 39.8547, 3.31605, 2.65966, 42.1305, -81.3933, -63.9265, 5.57269, 36.9813, 8.5272, -23.2414, -97.3652, 1.56448
2.168, -1, 39.8938, 3.32352, 2.68596, 42.1518, -81.3744, -63.9221, 5.60248, 36.9904, 8.56996, -23.2431, -97.3424, 1.58542
2.172, -1, 39.933, 3.33099, 2.71226, 42.1732, -81.3556, -63.9178, 5.63226, 36.9994, 8.61271, -23.2447, -97.3197, 1.60636
2.176, -1, 39.9721, 3.33845, 2.73856, 42.1945, -81.3367, -63.9134, 5.66204, 37.0085, 8.65546, -23.2464, -97.297, 1.6273
2.179, -1, 40.0112, 3.34592, 2.76486, 42.2158, -81.3179, -63.909, 5.69182, 37.0175, 8.6982, -23.248, -97.2742, 1.64823
2.184, -1, 40.0504, 3.35338, 2.79115, 42.2371, -81.299, -63.9046, 5.72159, 37.0266, 8.74094, -23.2497, -97.2515, 1.66916
2.188, -1, 40.0895, 3.36085, 2.81744, 42.2584, -81.2802, -63.9003, 5.75137, 37.0356, 8.78367, -23.2513, -97.2287, 1.69009
2.192, -1, 40.1286, 3.36831, 2.84373, 42.2797, -81.2614, -63.8959, 5.78113, 37.0447, 8.82641, -23.253, -97.206, 1.71102
2.196, -1, 40.1677, 3.37577, 2.87001, 42.301, -81.2425, -63.8915, 5.8109, 37.0537, 8.86913, -23.2547, -97.1833, 1.73194
2.199, -1, 40.2068, 3.38323, 2.89629, 42.3223, -81.2237, -63.8871, 5.84066, 37.0628, 8.91185, -23.2563, -97.1606, 1.75287
2.204, -1, 40.2459, 3.39069, 2.92257, 42.3436, -81.2049, -63.8827, 5.87042, 37.0718, 8.95457, -23.258, -97.1378, 1.77379
2.208, -1, 40.285, 3.39815, 2.94885, 42.3649, -81.186, -63.8784, 5.90017, 37.0808, 8.99728, -23.2596, -97.1151, 1.79471
2.212, -1, 40.3241, 3.40561, 2.97512, 42.3862, -81.1672, -63.874, 5.92992, 37.0899, 9.03999, -23.2613, -97.0924, 1.81562
2.216, -1, 40.3632, 3.41307, 3.00139, 42.4075, -81.1484, -63.8696, 5.95967, 37.0989, 9.08269, -23.2629, -97.0697, 1.83654
2.219, -1, 40.4023, 3.42053, 3.02766, 42.4288, -81.1296, -63.8652, 5.98942, 37.108, 9.12539, -23.2646, -97.047, 1.85745
2.224, -1, 40.4414, 3.42799, 3.05392, 42.4501, -81.1107, -63.8609, 6.01916, 37.117, 9.16808, -23.2662, -97.0243, 1.87836
2.228, -1, 40.4805, 3.43544, 3.08019, 42.4714, -81.0919, -63.8565, 6.0489, 37.126, 9.21077, -23.2679, -97.0015, 1.89927
2.232, -1, 40.5195, 3.4429, 3.10645, 42.4927, -81.0731, -63.8521, 6.07864, 37.1351, 9.25346, -23.2696, -96.9788, 1.92017
2.235, -1, 40.5586, 3.45035, 3.1327, 42.514, -81.0543, -63.8477, 6.10837, 37.1441, 9.29614, -23.2712, -96.9561, 1.94108
2.24, -1, 40.5977, 3.45781, 3.15896, 42.5353, -81.0355, -63.8434, 6.1381, 37.1531, 9.33882, -23.2729, -96.9334, 1.96198
2.244, -1, 40.6367, 3.46526, 3.18521, 42.5565, -81.0167, -63.839, 6.16783, 37.1622, 9.38149, -23.2745, -96.9107, 1.98288
2.248, -1, 40.6758, 3.47271, 3.21146, 42.5778, -80.9979, -63.8346, 6.19756, 37.1712, 9.42416, -23.2762, -96.888, 2.00377
2.252, -1, 40.7149, 3.48016, 3.23771, 42.5991, -80.979, -63.8303, 6.22728, 37.1802, 9.46682, -23.2778, -96.8653, 2.02467
2.255, -1, 40.7539, 3.48761, 3.26395, 42.6204, -80.9602, -63.8259, 6.257, 37.1893, 9.50948, -23.2795, -96.8426, 2.04556
2.259, -1, 40.793, 3.49506, 3.29019, 42.6416, -80.9414, -63.8215, 6.28671, 37.1983, 9.55214, -23.2811, -96.82, 2.06645
2.264, -1, 40.832, 3.50251, 3.31643, 42.6629, -80.9226, -63.8171, 6.31642, 37.2073, 9.59479, -23.2828, -96.7973, 2.08734
2.268, -1, 40.871, 3.50996, 3.34267, 42.6842, -80.9038, -63.8128, 6.34613, 37.2164, 9.63744, -23.2844, -96.7746, 2.10823
2.272, -1, 40.9101, 3.51741, 3.3689, 42.7054, -80.885, -63.8084, 6.37584, 37.2254, 9.68008, -23.2861, -96.7519, 2.12911
2.275, -1, 40.9491, 3.52485, 3.39513, 42.7267, -80.8662, -63.804, 6.40555, 37.2344, 9.72272, -23.2878, -96.7292, 2.15
2.28, -1, 40.9881, 3.5323, 3.42136, 42.748, -80.8474, -63.7997, 6.43525, 37.2434, 9.76536, -23.2894, -96.7065, 2.17088
2.284, -1, 41.0272, 3.53975, 3.44758, 42.7692, -80.8286, -63.7953, 6.46494, 37.2525, 9.80799, -23.2911, -96.6839, 2.19175
2.288, -1, 41.0662, 3.54719, 3.47381, 42.7905, -80.8099, -63.7909, 6.49464, 37.2615, 9.85061, -23.2927, -96.6612, 2.21263
2.291, -1, 41.1052, 3.55463, 3.50003, 42.8117, -80.7911, -63.7866, 6.52433, 37.2705, 9.89323, -23.2944, -96.6385, 2.2335
2.296, -1, 41.1442, 3.56208, 3.52625, 42.833, -80.7723, -63.7822, 6.55402, 37.2795, 9.93585, -23.296, -96.6158, 2.25438
2.3, -1, 41.1832, 3.56952, 3.55246, 42.8542, -80.7535, -63.7778, 6.58371, 37.2885, 9.97846, -23.2977, -96.5932, 2.27525
2.304, -1, 41.2222, 3.57696, 3.57867, 42.8755, -80.7347, -63.7735, 6.61339, 37.2976, 10.0211, -23.2993, -96.5705, 2.29612
2.308, -1, 41.2612, 3.5844, 3.60488, 42.8967, -80.7159, -63.7691, 6.64307, 37.3066, 10.0637, -23.301, -96.5478, 2.31698
2.311, -1, 41.3002, 3.59184, 3.63109, 42.918, -80.6971, -63.7647, 6.67275, 37.3156, 10.1063, -23.3026, -96.5252, 2.33785
2.316, -1, 41.3392, 3.59928, 3.6573, 42.9392, -80.6784, -63.7604, 6.70242, 37.3246, 10.1489, -23.3043, -96.5025, 2.35871
2.32, -1, 41.3782, 3.60672, 3.6835, 42.9605, -80.6596, -63.756, 6.7321, 37.3336, 10.1915, -23.3059, -96.4799, 2.37957
2.324, -1, 41.4172, 3.61416, 3.7097, 42.9817, -80.6408, -63.7516, 6.76177, 37.3427, 10.2341, -23.3076, -96.4572, 2.40043
2.328, -1, 41.4562, 3.6216, 3.7359, 43.0029, -80.622, -63.7473, 6.79143, 37.3517, 10.2766, -23.3092, -96.4345, 2.42128
2.331, -1, 41.4952, 3.62904, 3.76209, 43.0242, -80.6033, -63.7429, 6.8211, 37.3607, 10.3192, -23.3109, -96.4119, 2.44214
2.336, -1, 41.5341, 3.63647, 3.78829, 43.0454, -80.5845, -63.7385, 6.85076, 37.3697, 10.3618, -23.3125, -96.3893, 2.46299
2.34, -1, 41.5731, 3.64391, 3.81448, 43.0666, -80.5657, -63.7342, 6.88041, 37.3787, 10.4044, -23.3142, -96.3666, 2.48384
2.344, -1, 41.6121, 3.65134, 3.84066, 43.0878, -80.547, -63.7298, 6.91007, 37.3877, 10.4469, -23.3158, -96.3439, 2.50469
2.347, -1, 41.6511, 3.65878, 3.86685, 43.1091, -80.5282, -63.7255, 6.93972, 37.3967, 10.4895, -23.3175, -96.3213, 2.52553
2.352, -1, 41.69, 3.66621, 3.89303, 43.1303, -80.5094, -63.7211, 6.96937, 37.4057, 10.5321, -23.3191, -96.2987, 2.54638
2.356, -1, 41.729, 3.67364, 3.91921, 43.1515, -80.4907, -63.7167, 6.99902, 37.4147, 10.5746, -23.3208, -96.276, 2.56722
2.36, -1, 41.7679, 3.68107, 3.94539, 43.1727, -80.4719, -63.7124, 7.02866, 37.4238, 10.6172, -23.3224, -96.2534, 2.58806
2.364, -1, 41.8069, 3.6885, 3.97157, 43.194, -80.4532, -63.708, 7.0583, 37.4328, 10.6597, -23.3241, -96.2308, 2.6089
2.367, -1, 41.8458, 3.69594, 3.99774, 43.2152, -80.4344, -63.7037, 7.08794, 37.4418, 10.7023, -23.3257, -96.2081, 2.62973
2.372, -1, 41.8848, 3.70336, 4.02391, 43.2364, -80.4156, -63.6993, 7.11758, 37.4508, 10.7448, -23.3274, -96.1855, 2.65057
2.376, -1, 41.9237, 3.71079, 4.05008, 43.2576, -80.3969, -63.6949, 7.14721, 37.4598, 10.7873, -23.329, -96.1629, 2.6714
2.38, -1, 41.9626, 3.71822, 4.07624, 43.2788, -80.3781, -63.6906, 7.17684, 37.4688, 10.8299, -23.3307, -96.1403, 2.69223
2.383, -1, 42.0016, 3.72565, 4.10241, 43.3, -80.3594, -63.6862, 7.20647, 37.4778, 10.8724, -23.3323, -96.1176, 2.71306
2.388, -1, 42.0405, 3.73308, 4.12857, 43.3212, -80.3406, -63.6819, 7.23609, 37.4868, 10.9149, -23.334, -96.095, 2.73389
2.392, -1, 42.0794, 3.7405, 4.15473, 43.3424, -80.3219, -63.6775, 7.26572, 37.4958, 10.9575, -23.3356, -96.0724, 2.75471
2.396, -1, 42.1183, 3.74793, 4.18088, 43.3636, -80.3032, -63.6732, 7.29534, 37.5048, 11, -23.3373, -96.0498, 2.77554
2.4, -1, 42.1573, 3.75535, 4.20704, 43.3848, -80.2844, -63.6688, 7.32495, 37.5138, 11.0425, -23.3389, -96.0271, 2.79636
2.403, -1, 42.1962, 3.76278, 4.23319, 43.406, -80.2657, -63.6644, 7.35457, 37.5228, 11.085, -23.3406, -96.0045, 2.81718
2.408, -1, 42.2351, 3.7702, 4.25934, 43.4272, -80.2469, -63.6601, 7.38418, 37.5318, 11.1275, -23.3422, -95.9819, 2.83799
2.412, -1, 42.274, 3.77763, 4.28548, 43.4484, -80.2282, -63.6557, 7.41379, 37.5408, 11.17, -23.3439, -95.9593, 2.85881
2.416, -1, 42.3129, 3.78505, 4.31163, 43.4696, -80.2095, -63.6514, 7.44339, 37.5498, 11.2125, -23.3455, -95.9367, 2.87962
2.42, -1, 42.3518, 3.79247, 4.33777, 43.4908, -80.1907, -63.647, 7.473, 37.5588, 11.255, -23.3472, -95.9141, 2.90044
2.423, -1, 42.3907, 3.79989, 4.36391, 43.512, -80.172, -63.6427, 7.5026, 37.5678, 11.2975, -23.3488, -95.8915, 2.92125
2.428, -1, 42.4296, 3.80731, 4.39005, 43.5332, -80.1533, -63.6383, 7.53219, 37.5768, 11.34, -23.3505, -95.8689, 2.94205
2.432, -1, 42.4685, 3.81473, 4.41618, 43.5544, -80.1345, -63.634, 7.56179, 37.5857, 11.3825, -23.3521, -95.8463, 2.96286
2.436, -1, 42.5074, 3.82215, 4.44232, 43.5756, -80.1158, -63.6296, 7.59138, 37.5947, 11.4249, -23.3538, -95.8237, 2.98366
2.439, -1, 42.5463, 3.82957, 4.46845, 43.5967, -80.0971, -63.6253, 7.62097, 37.6037, 11.4674, -23.3554, -95.8011, 3.00447
2.444, -1, 42.5851, 3.83699, 4.49458, 43.6179, -80.0784, -63.6209, 7.65056, 37.6127, 11.5099, -23.357, -95.7785, 3.02527
2.448, -1, 42.624, 3.8444, 4.5207, 43.6391, -80.0596, -63.6166, 7.68015, 37.6217, 11.5524, -23.3587, -95.7559, 3.04607
2.452, -1, 42.6629, 3.85182, 4.54682, 43.6603, -80.0409, -63.6122, 7.70973, 37.6307, 11.5948, -23.3603, -95.7333, 3.06686
2.456, -1, 42.7018, 3.85924, 4.57295, 43.6814, -80.0222, -63.6079, 7.73931, 37.6397, 11.6373, -23.362, -95.7107, 3.08766
2.459, -1, 42.7406, 3.86665, 4.59907, 43.7026, -80.0035, -63.6035, 7.76889, 37.6487, 11.6797, -23.3636, -95.6882, 3.10845
2.464, -1, 42.7795, 3.87407, 4.62518, 43.7238, -79.9848, -63.5992, 7.79846, 37.6577, 11.7222, -23.3653, -95.6656, 3.12925
2.468, -1, 42.8183, 3.88148, 4.6513, 43.7449, -79.9661, -63.5948, 7.82803, 37.6666, 11.7646, -23.3669, -95.643, 3.15004
2.472, -1, 42.8572, 3.88889, 4.67741, 43.7661, -79.9473, -63.5905, 7.8576, 37.6756, 11.8071, -23.3686, -95.6204, 3.17082
2.476, -1, 42.8961, 3.89631, 4.70352, 43.7873, -79.9286, -63.5861, 7.88717, 37.6846, 11.8495, -23.3702, -95.5978, 3.19161
2.479, -1, 42.9349, 3.90372, 4.72963, 43.8084, -79.9099, -63.5818, 7.91674, 37.6936, 11.892, -23.3719, -95.5753, 3.21239
2.484, -1, 42.9738, 3.91113, 4.75573, 43.8296, -79.8912, -63.5774, 7.9463, 37.7026, 11.9344, -23.3735, -95.5527, 3.23318
2.488, -1, 43.0126, 3.91854, 4.78184, 43.8508, -79.8725, -63.5731, 7.97586, 37.7116, 11.9768, -23.3752, -95.5301, 3.25396
2.492, -1, 43.0514, 3.92595, 4.80794, 43.8719, -79.8538, -63.5687, 8.00541, 37.7205, 12.0193, -23.3768, -95.5075, 3.27474
2.495, -1, 43.0903, 3.93336, 4.83404, 43.8931, -79.8351, -63.5644, 8.03497, 37.7295, 12.0617, -23.3784, -95.485, 3.29552
2.5, -1, 43.1291, 3.94077, 4.86013, 43.9142, -79.8164, -63.56, 8.06452, 37.7385, 12.1041, -23.3801, -95.4624, 3.31629
2.504, -1, 43.1679, 3.94818, 4.88623, 43.9354, -79.7977, -63.5557, 8.09407, 37.7475, 12.1465, -23.3817, -95.4398, 3.33707
2.508, -1, 43.2068, 3.95559, 4.91232, 43.9565, -79.779, -63.5513, 8.12362, 37.7565, 12.1889, -23.3834, -95.4173, 3.35784
2.512, -1, 43.2456, 3.96299, 4.93841, 43.9777, -79.7603, -63.547, 8.15316, 37.7654, 12.2313, -23.385, -95.3947, 3.37861
2.515, -1, 43.2844, 3.9704, 4.9645, 43.9988, -79.7416, -63.5426, 8.18271, 37.7744, 12.2738, -23.3867, -95.3722, 3.39938
2.52, -1, 43.3232, 3.9778, 4.99059, 44.02, -79.7229, -63.5383, 8.21225, 37.7834, 12.3162, -23.3883, -95.3496, 3.42015
2.524, -1, 43.362, 3.98521, 5.01667, 44.0411, -79.7042, -63.534, 8.24178, 37.7924, 12.3586, -23.39, -95.327, 3.44091
2.528, -1, 43.4008, 3.99261, 5.04275, 44.0623, -79.6855, -63.5296, 8.27132, 37.8013, 12.401, -23.3916, -95.3045, 3.46167
2.531, -1, 43.4397, 4.00002, 5.06883, 44.0834, -79.6668, -63.5253, 8.30085, 37.8103, 12.4433, -23.3932, -95.2819, 3.48244
2.536, -1, 43.4785, 4.00742, 5.09491, 44.1045, -79.6482, -63.5209, 8.33038, 37.8193, 12.4857, -23.3949, -95.2594, 3.5032
2.54, -1, 43.5173, 4.01482, 5.12098, 44.1257, -79.6295, -63.5166, 8.35991, 37.8283, 12.5281, -23.3965, -95.2369, 3.52396
2.544, -1, 43.5561, 4.02223, 5.14706, 44.1468, -79.6108, -63.5122, 8.38943, 37.8372, 12.5705, -23.3982, -95.2143, 3.54471
2.548, -1, 43.5949, 4.02963, 5.17313, 44.1679, -79.5921, -63.5079, 8.41896, 37.8462, 12.6129, -23.3998, -95.1918, 3.56547
2.551, -1, 43.6336, 4.03703, 5.1992, 44.1891, -79.5734, -63.5035, 8.44848, 37.8552, 12.6553, -23.4015, -95.1692, 3.58622
2.556, -1, 43.6724, 4.04443, 5.22526, 44.2102, -79.5547, -63.4992, 8.478, 37.8641, 12.6976, -23.4031, -95.1467, 3.60697
2.56, -1, 43.7112, 4.05183, 5.25133, 44.2313, -79.5361, -63.4949, 8.50751, 37.8731, 12.74, -23.4047, -95.1241, 3.62772
2.564, -1, 43.75, 4.05923, 5.27739, 44.2525, -79.5174, -63.4905, 8.53703, 37.8821, 12.7824, -23.4064, -95.1016, 3.64847
2.568, -1, 43.7888, 4.06663, 5.30345, 44.2736, -79.4987, -63.4862, 8.56654, 37.891, 12.8247, -23.408, -95.0791, 3.66922
2.571, -1, 43.8276, 4.07403, 5.32951, 44.2947, -79.48, -63.4818, 8.59605, 37.9, 12.8671, -23.4097, -95.0565, 3.68997
2.576, -1, 43.8663, 4.08142, 5.35557, 44.3158, -79.4614, -63.4775, 8.62555, 37.909, 12.9094, -23.4113, -95.034, 3.71071
2.58, -1, 43.9051, 4.08882, 5.38162, 44.337, -79.4427, -63.4732, 8.65506, 37.9179, 12.9518, -23.413, -95.0115, 3.73145
2.584, -1, 43.9439, 4.09622, 5.40768, 44.3581, -79.424, -63.4688, 8.68456, 37.9269, 12.9941, -23.4146, -94.9889, 3.75219
2.587, -1, 43.9826, 4.10361, 5.43373, 44.3792, -79.4054, -63.4645, 8.71406, 37.9359, 13.0365, -23.4162, -94.9664, 3.77293
2.592, -1, 44.0214, 4.11101, 5.45977, 44.4003, -79.3867, -63.4601, 8.74356, 37.9448, 13.0788, -23.4179, -94.9439, 3.79367
2.596, -1, 44.0602, 4.1184, 5.48582, 44.4214, -79.368, -63.4558, 8.77305, 37.9538, 13.1212, -23.4195, -94.9214, 3.8144
2.6, -1, 44.0989, 4.1258, 5.51187, 44.4425, -79.3494, -63.4515, 8.80254, 37.9628, 13.1635, -23.4212, -94.8989, 3.83514
2.604, -1, 44.1377, 4.13319, 5.53791, 44.4636, -79.3307, -63.4471, 8.83203, 37.9717, 13.2058, -23.4228, -94.8763, 3.85587
2.607, -1, 44.1764, 4.14058, 5.56395, 44.4847, -79.312, -63.4428, 8.86152, 37.9807, 13.2482, -23.4244, -94.8538, 3.8766
2.612, -1, 44.2152, 4.14797, 5.58999, 44.5059, -79.2934, -63.4385, 8.89101, 37.9896, 13.2905, -23.4261, -94.8313, 3.89733
2.616, -1, 44.2539, 4.15537, 5.61602, 44.527, -79.2747, -63.4341, 8.92049, 37.9986, 13.3328, -23.4277, -94.8088, 3.91806
2.62, -1, 44.2926, 4.16276, 5.64206, 44.5481, -79.2561, -63.4298, 8.94997, 38.0076, 13.3751, -23.4294, -94.7863, 3.93878
2.624, -1, 44.3314, 4.17015, 5.66809, 44.5692, -79.2374, -63.4255, 8.97945, 38.0165, 13.4174, -23.431, -94.7638, 3.95951
2.627, -1, 44.3701, 4.17754, 5.69412, 44.5903, -79.2188, -63.4211, 9.00893, 38.0255, 13.4598, -23.4326, -94.7413, 3.98023
2.632, -1, 44.4088, 4.18493, 5.72015, 44.6114, -79.2001, -63.4168, 9.0384, 38.0344, 13.5021, -23.4343, -94.7188, 4.00095
2.636, -1, 44.4476, 4.19232, 5.74618, 44.6325, -79.1815, -63.4124, 9.06788, 38.0434, 13.5444, -23.4359, -94.6962, 4.02167
2.64, -1, 44.4863, 4.1997, 5.7722, 44.6536, -79.1628, -63.4081, 9.09735, 38.0523, 13.5867, -23.4376, -94.6737, 4.04239
2.643, -1, 44.525, 4.20709, 5.79822, 44.6746, -79.1442, -63.4038, 9.12682, 38.0613, 13.629, -23.4392, -94.6512, 4.06311
2.648, -1, 44.5637, 4.21448, 5.82424, 44.6957, -79.1255, -63.3994, 9.15628, 38.0702, 13.6713, -23.4408, -94.6287, 4.08382
2.652, -1, 44.6025, 4.22187, 5.85026, 44.7168, -79.1069, -63.3951, 9.18575, 38.0792, 13.7136, -23.4425, -94.6062, 4.10454
2.656, -1, 44.6412, 4.22925, 5.87628, 44.7379, -79.0882, -63.3908, 9.21521, 38.0882, 13.7559, -23.4441, -94.5837, 4.12525
2.66, -1, 44.6799, 4.23664, 5.90229, 44.759, -79.0696, -63.3864, 9.24467, 38.0971, 13.7982, -23.4458, -94.5612, 4.14596
2.663, -1, 44.7186, 4.24402, 5.92831, 44.7801, -79.0509, -63.3821, 9.27412, 38.1061, 13.8404, -23.4474, -94.5387, 4.16667
2.668, -1, 44.7573, 4.25141, 5.95432, 44.8012, -79.0323, -63.3778, 9.30358, 38.115, 13.8827, -23.449, -94.5163, 4.18738
2.672, -1, 44.796, 4.25879, 5.98033, 44.8223, -79.0137, -63.3734, 9.33303, 38.124, 13.925, -23.4507, -94.4938, 4.20808
2.676, -1, 44.8347, 4.26617, 6.00634, 44.8433, -78.995, -63.3691, 9.36248, 38.1329, 13.9673, -23.4523, -94.4713, 4.22879
2.679, -1, 44.8734, 4.27356, 6.03234, 44.8644, -78.9764, -63.3648, 9.39193, 38.1419, 14.0095, -23.454, -94.4488, 4.24949
2.684, -1, 44.9121, 4.28094, 6.05834, 44.8855, -78.9578, -63.3604, 9.42138, 38.1508, 14.0518, -23.4556, -94.4263, 4.27019
2.688, -1, 44.9508, 4.28832, 6.08435, 44.9066, -78.9391, -63.3561, 9.45083, 38.1597, 14.0941, -23.4572, -94.4038, 4.29089
2.692, -1, 44.9895, 4.2957, 6.11035, 44.9277, -78.9205, -63.3518, 9.48027, 38.1687, 14.1363, -23.4589, -94.3813, 4.31159
2.696, -1, 45.0282, 4.30308, 6.13634, 44.9487, -78.9019, -63.3475, 9.50971, 38.1776, 14.1786, -23.4605, -94.3589, 4.33229
2.699, -1, 45.0668, 4.31047, 6.16234, 44.9698, -78.8832, -63.3431, 9.53915, 38.1866, 14.2209, -23.4622, -94.3364, 4.35298
2.704, -1, 45.1055, 4.31785, 6.18834, 44.9909, -78.8646, -63.3388, 9.56859, 38.1955, 14.2631, -23.4638, -94.3139, 4.37368
2.708, -1, 45.1442, 4.32522, 6.21433, 45.0119, -78.846, -63.3345, 9.59803, 38.2045, 14.3054, -23.4654, -94.2914, 4.39437
2.712, -1, 45.1829, 4.3326, 6.24032, 45.033, -78.8274, -63.3301, 9.62746, 38.2134, 14.3476, -23.4671, -94.269, 4.41506
2.716, -1, 45.2216, 4.33998, 6.26631, 45.0541, -78.8087, -63.3258, 9.65689, 38.2224, 14.3899, -23.4687, -94.2465, 4.43575
2.719, -1, 45.2602, 4.34736, 6.2923, 45.0751, -78.7901, -63.3215, 9.68632, 38.2313, 14.4321, -23.4703, -94.224, 4.45644
2.724, -1, 45.2989, 4.35474, 6.31828, 45.0962, -78.7715, -63.3172, 9.71575, 38.2402, 14.4744, -23.472, -94.2015, 4.47713
2.728, -1, 45.3376, 4.36212, 6.34427, 45.1173, -78.7529, -63.3128, 9.74518, 38.2492, 14.5166, -23.4736, -94.1791, 4.49782
2.732, -1, 45.3762, 4.36949, 6.37025, 45.1383, -78.7342, -63.3085, 9.7746, 38.2581, 14.5588, -23.4753, -94.1566, 4.51851
2.735, -1, 45.4149, 4.37687, 6.39624, 45.1594, -78.7156, -63.3042, 9.80402, 38.2671, 14.6011, -23.4769, -94.1341, 4.53919
2.74, -1, 45.4536, 4.38424, 6.42222, 45.1805, -78.697, -63.2998, 9.83344, 38.276, 14.6433, -23.4785, -94.1117, 4.55987
2.744, -1, 45.4922, 4.39162, 6.44819, 45.2015, -78.6784, -63.2955, 9.86286, 38.2849, 14.6855, -23.4802, -94.0892, 4.58055
2.748, -1, 45.5309, 4.39899, 6.47417, 45.2226, -78.6598, -63.2912, 9.89228, 38.2939, 14.7278, -23.4818, -94.0667, 4.60123
2.752, -1, 45.5695, 4.40637, 6.50015, 45.2436, -78.6412, -63.2869, 9.92169, 38.3028, 14.77, -23.4834, -94.0443, 4.62191
2.755, -1, 45.6082, 4.41374, 6.52612, 45.2647, -78.6226, -63.2825, 9.9511, 38.3118, 14.8122, -23.4851, -94.0218, 4.64259
2.76, -1, 45.6468, 4.42112, 6.5521, 45.2857, -78.6039, -63.2782, 9.98052, 38.3207, 14.8544, -23.4867, -93.9994, 4.66327
2.764, -1, 45.6855, 4.42849, 6.57807, 45.3068, -78.5853, -63.2739, 10.0099, 38.3296, 14.8966, -23.4884, -93.9769, 4.68395
2.768, -1, 45.7241, 4.43586, 6.60404, 45.3278, -78.5667, -63.2696, 10.0393, 38.3386, 14.9388, -23.49, -93.9544, 4.70462
2.772, -1, 45.7627, 4.44323, 6.63, 45.3489, -78.5481, -63.2652, 10.0687, 38.3475, 14.9811, -23.4916, -93.932, 4.72529
2.775, -1, 45.8014, 4.45061, 6.65597, 45.3699, -78.5295, -63.2609, 10.0981, 38.3564, 15.0233, -23.4933, -93.9095, 4.74596
2.78, -1, 45.84, 4.45798, 6.68194, 45.391, -78.5109, -63.2566, 10.1275, 38.3654, 15.0655, -23.4949, -93.8871, 4.76664
2.784, -1, 45.8787, 4.46535, 6.7079, 45.412, -78.4923, -63.2523, 10.1569, 38.3743, 15.1077, -23.4965, -93.8646, 4.78731
2.788, -1, 45.9173, 4.47272, 6.73386, 45.4331, -78.4737, -63.2479, 10.1863, 38.3832, 15.1499, -23.4982, -93.8422, 4.80797
2.791, -1, 45.9559, 4.48009, 6.75982, 45.4541, -78.4551, -63.2436, 10.2157, 38.3922, 15.1921, -23.4998, -93.8197, 4.82864
2.796, -1, 45.9945, 4.48746, 6.78578, 45.4752, -78.4365, -63.2393, 10.2451, 38.4011, 15.2343, -23.5015, -93.7973, 4.84931
2.8, -1, 46.0332, 4.49483, 6.81174, 45.4962, -78.4179, -63.235, 10.2745, 38.41, 15.2765, -23.5031, -93.7748, 4.86997
2.804, -1, 46.0718, 4.5022, 6.83769, 45.5172, -78.3993, -63.2306, 10.3039, 38.419, 15.3187, -23.5047, -93.7524, 4.89064
2.808, -1, 46.1104, 4.50957, 6.86365, 45.5383, -78.3807, -63.2263, 10.3333, 38.4279, 15.3608, -23.5064, -93.73, 4.9113
2.811, -1, 46.149, 4.51693, 6.8896, 45.5593, -78.3621, -63.222, 10.3627, 38.4368, 15.403, -23.508, -93.7075, 4.93196
2.816, -1, 46.1877, 4.5243, 6.91555, 45.5804, -78.3435, -63.2177, 10.3921, 38.4457, 15.4452, -23.5096, -93.6851, 4.95262
2.82, -1, 46.2263, 4.53167, 6.9415, 45.6014, -78.3249, -63.2133, 10.4215, 38.4547, 15.4874, -23.5113, -93.6626, 4.97328
2.824, -1, 46.2649, 4.53903, 6.96745, 45.6224, -78.3063, -63.209, 10.4509, 38.4636, 15.5296, -23.5129, -93.6402, 4.99393
2.828, -1, 46.3035, 4.5464, 6.9934, 45.6435, -78.2877, -63.2047, 10.4802, 38.4725, 15.5718, -23.5145, -93.6178, 5.01459
2.831, -1, 46.3421, 4.55377, 7.01934, 45.6645, -78.2691, -63.2004, 10.5096, 38.4815, 15.6139, -23.5162, -93.5953, 5.03525
2.836, -1, 46.3807, 4.56113, 7.04529, 45.6855, -78.2505, -63.1961, 10.539, 38.4904, 15.6561, -23.5178, -93.5729, 5.0559
2.84, -1, 46.4193, 4.5685, 7.07123, 45.7065, -78.2319, -63.1917, 10.5684, 38.4993, 15.6983, -23.5194, -93.5505, 5.07655
2.844, -1, 46.4579, 4.57586, 7.09717, 45.7276, -78.2133, -63.1874, 10.5978, 38.5082, 15.7404, -23.5211, -93.528, 5.09721
2.847, -1, 46.4965, 4.58323, 7.12311, 45.7486, -78.1947, -63.1831, 10.6271, 38.5172, 15.7826, -23.5227, -93.5056, 5.11786
2.852, -1, 46.5351, 4.59059, 7.14905, 45.7696, -78.1762, -63.1788, 10.6565, 38.5261, 15.8248, -23.5243, -93.4832, 5.1385
2.856, -1, 46.5737, 4.59795, 7.17498, 45.7906, -78.1576, -63.1745, 10.6859, 38.535, 15.8669, -23.526, -93.4607, 5.15915
2.86, -1, 46.6123, 4.60532, 7.20092, 45.8117, -78.139, -63.1701, 10.7152, 38.5439, 15.9091, -23.5276, -93.4383, 5.1798
2.864, -1, 46.6509, 4.61268, 7.22685, 45.8327, -78.1204, -63.1658, 10.7446, 38.5529, 15.9512, -23.5293, -93.4159, 5.20045
2.867, -1, 46.6895, 4.62004, 7.25279, 45.8537, -78.1018, -63.1615, 10.774, 38.5618, 15.9934, -23.5309, -93.3935, 5.22109
2.872, -1, 46.7281, 4.6274, 7.27872, 45.8747, -78.0832, -63.1572, 10.8033, 38.5707, 16.0355, -23.5325, -93.371, 5.24173
2.876, -1, 46.7666, 4.63476, 7.30465, 45.8958, -78.0647, -63.1529, 10.8327, 38.5796, 16.0777, -23.5342, -93.3486, 5.26238
2.88, -1, 46.8052, 4.64212, 7.33057, 45.9168, -78.0461, -63.1485, 10.8621, 38.5885, 16.1198, -23.5358, -93.3262, 5.28302
2.883, -1, 46.8438, 4.64949, 7.3565, 45.9378, -78.0275, -63.1442, 10.8914, 38.5975, 16.162, -23.5374, -93.3038, 5.30366
2.888, -1, 46.8824, 4.65685, 7.38242, 45.9588, -78.0089, -63.1399, 10.9208, 38.6064, 16.2041, -23.5391, -93.2814, 5.3243
2.892, -1, 46.921, 4.66421, 7.40835, 45.9798, -77.9903, -63.1356, 10.9501, 38.6153, 16.2463, -23.5407, -93.259, 5.34493
2.896, -1, 46.9595, 4.67156, 7.43427, 46.0008, -77.9718, -63.1313, 10.9795, 38.6242, 16.2884, -23.5423, -93.2365, 5.36557
2.9, -1, 46.9981, 4.67892, 7.46019, 46.0218, -77.9532, -63.127, 11.0088, 38.6331, 16.3305, -23.544, -93.2141, 5.38621
2.903, -1, 47.0367, 4.68628, 7.48611, 46.0429, -77.9346, -63.1226, 11.0382, 38.6421, 16.3727, -23.5456, -93.1917, 5.40684
2.908, -1, 47.0752, 4.69364, 7.51203, 46.0639, -77.916, -63.1183, 11.0675, 38.651, 16.4148, -23.5472, -93.1693, 5.42747
2.912, -1, 47.1138, 4.701, 7.53794, 46.0849, -77.8975, -63.114, 11.0969, 38.6599, 16.4569, -23.5489, -93.1469, 5.44811
2.916, -1, 47.1524, 4.70835, 7.56386, 46.1059, -77.8789, -63.1097, 11.1262, 38.6688, 16.4991, -23.5505, -93.1245, 5.46874
2.92, -1, 47.1909, 4.71571, 7.58977, 46.1269, -77.8603, -63.1054, 11.1556, 38.6777, 16.5412, -23.5521, -93.1021, 5.48937
2.923, -1, 47.2295, 4.72307, 7.61569, 46.1479, -77.8418, -63.1011, 11.1849, 38.6866, 16.5833, -23.5538, -93.0797, 5.51
2.928, -1, 47.268, 4.73042, 7.6416, 46.1689, -77.8232, -63.0967, 11.2143, 38.6956, 16.6254, -23.5554, -93.0573, 5.53062
2.932, -1, 47.3066, 4.73778, 7.66751, 46.1899, -77.8046, -63.0924, 11.2436, 38.7045, 16.6675, -23.557, -93.0349, 5.55125
2.936, -1, 47.3451, 4.74514, 7.69341, 46.2109, -77.7861, -63.0881, 11.2729, 38.7134, 16.7096, -23.5587, -93.0125, 5.57188
2.939, -1, 47.3837, 4.75249, 7.71932, 46.2319, -77.7675, -63.0838, 11.3023, 38.7223, 16.7518, -23.5603, -92.9901, 5.5925
2.944, -1, 47.4222, 4.75984, 7.74523, 46.2529, -77.7489, -63.0795, 11.3316, 38.7312, 16.7939, -23.5619, -92.9677, 5.61312
2.948, -1, 47.4608, 4.7672, 7.77113, 46.2739, -77.7304, -63.0752, 11.3609, 38.7401, 16.836, -23.5636, -92.9453, 5.63375
2.952, -1, 47.4993, 4.77455, 7.79703, 46.2949, -77.7118, -63.0709, 11.3903, 38.749, 16.8781, -23.5652, -92.9229, 5.65437
2.956, -1, 47.5379, 4.78191, 7.82293, 46.3159, -77.6932, -63.0665, 11.4196, 38.758, 16.9202, -23.5668, -92.9005, 5.67499
2.959, -1, 47.5764, 4.78926, 7.84883, 46.3369, -77.6747, -63.0622, 11.4489, 38.7669, 16.9623, -23.5685, -92.8781, 5.69561
2.964, -1, 47.6149, 4.79661, 7.87473, 46.3579, -77.6561, -63.0579, 11.4783, 38.7758, 17.0044, -23.5701, -92.8557, 5.71623
2.968, -1, 47.6535, 4.80396, 7.90063, 46.3789, -77.6376, -63.0536, 11.5076, 38.7847, 17.0465, -23.5717, -92.8333, 5.73684
2.972, -1, 47.692, 4.81132, 7.92653, 46.3998, -77.619, -63.0493, 11.5369, 38.7936, 17.0886, -23.5733, -92.8109, 5.75746
2.976, -1, 47.7306, 4.81867, 7.95242, 46.4208, -77.6005, -63.045, 11.5662, 38.8025, 17.1307, -23.575, -92.7885, 5.77807
2.98, -1, 47.7691, 4.82602, 7.97831, 46.4418, -77.5819, -63.0407, 11.5956, 38.8114, 17.1728, -23.5766, -92.7661, 5.79869
2.984, -1, 47.8076, 4.83337, 8.0042, 46.4628, -77.5633, -63.0363, 11.6249, 38.8203, 17.2148, -23.5782, -92.7437, 5.8193
2.988, -1, 47.8461, 4.84072, 8.0301, 46.4838, -77.5448, -63.032, 11.6542, 38.8292, 17.2569, -23.5799, -92.7213, 5.83991
2.992, -1, 47.8847, 4.84807, 8.05599, 46.5048, -77.5262, -63.0277, 11.6835, 38.8381, 17.299, -23.5815, -92.6989, 5.86052
2.995, -1, 47.9232, 4.85542, 8.08187, 46.5258, -77.5077, -63.0234, 11.7128, 38.847, 17.3411, -23.5831, -92.6766, 5.88113
3, -1, 47.9617, 4.86277, 8.10776, 46.5468, -77.4891, -63.0191, 11.7422, 38.856, 17.3832, -23.5848, -92.6542, 5.90174
3.004, -1, 48.0002, 4.87012, 8.13365, 46.5677, -77.4706, -63.0148, 11.7715, 38.8649, 17.4253, -23.5864, -92.6318, 5.92235
3.008, -1, 48.0388, 4.87747, 8.15953, 46.5887, -77.452, -63.0105, 11.8008, 38.8738, 17.4673, -23.588, -92.6094, 5.94296
3.012, -1, 48.0773, 4.88482, 8.18542, 46.6097, -77.4335, -63.0062, 11.8301, 38.8827, 17.5094, -23.5897, -92.587, 5.96356
3.015, -1, 48.1158, 4.89216, 8.2113, 46.6307, -77.4149, -63.0019, 11.8594, 38.8916, 17.5515, -23.5913, -92.5646, 5.98417
3.02, -1, 48.1543, 4.89951, 8.23718, 46.6517, -77.3964, -62.9975, 11.8887, 38.9005, 17.5935, -23.5929, -92.5423, 6.00478
3.024, -1, 48.1928, 4.90686, 8.26306, 46.6726, -77.3778, -62.9932, 11.918, 38.9094, 17.6356, -23.5946, -92.5199, 6.02538
3.028, -1, 48.2313, 4.91421, 8.28894, 46.6936, -77.3593, -62.9889, 11.9473, 38.9183, 17.6777, -23.5962, -92.4975, 6.04598
3.031, -1, 48.2698, 4.92155, 8.31482, 46.7146, -77.3408, -62.9846, 11.9764, 38.9271, 17.7197, -23.5978, -92.4751, 6.06658
3.036, -1, 48.3083, 4.9289, 8.3407, 46.7356, -77.3222, -62.9803, 12.0052, 38.9358, 17.7617, -23.5994, -92.4528, 6.08718
3.04, -1, 48.3468, 4.93624, 8.36658, 46.7566, -77.3037, -62.976, 12.0335, 38.9444, 17.8035, -23.6011, -92.4304, 6.10776
3.044, -1, 48.3853, 4.94357, 8.39244, 46.7775, -77.2851, -62.9717, 12.0611, 38.9526, 17.845, -23.6027, -92.4081, 6.1283
3.048, -1, 48.4236, 4.95085, 8.41828, 46.7985, -77.2666, -62.9674, 12.0878, 38.9603, 17.886, -23.6043, -92.386, 6.14877
3.051, -1, 48.4617, 4.95805, 8.44406, 46.8194, -77.2481, -62.9631, 12.1132, 38.9674, 17.9263, -23.6058, -92.364, 6.1691
3.056, -1, 48.4993, 4.9651, 8.46972, 46.8403, -77.2297, -62.9588, 12.1372, 38.9739, 17.9656, -23.6073, -92.3423, 6.18918
3.06, -1, 48.5361, 4.97188, 8.49512, 46.861, -77.2115, -62.9545, 12.1599, 38.9797, 18.0036, -23.6088, -92.321, 6.20886
3.064, -1, 48.5716, 4.97828, 8.52009, 46.8815, -77.1935, -62.9503, 12.1812, 38.9849, 18.04, -23.6101, -92.3005, 6.22797
3.068, -1, 48.6054, 4.9842, 8.54435, 46.9015, -77.1761, -62.9462, 12.2012, 38.9897, 18.0746, -23.6115, -92.2808, 6.24629
3.071, -1, 48.6371, 4.98956, 8.56755, 46.9207, -77.1594, -62.9423, 12.2204, 38.9944, 18.1074, -23.6127, -92.2622, 6.26358
3.076, -1, 48.6662, 4.99435, 8.58928, 46.9388, -77.1437, -62.9386, 12.2388, 38.9991, 18.1381, -23.6139, -92.2449, 6.27965
3.08, -1, 48.6924, 4.99862, 8.60911, 46.9553, -77.1293, -62.9352, 12.2565, 39.0037, 18.1664, -23.615, -92.229, 6.29431
3.084, -1, 48.716, 5.00252, 8.62667, 46.9699, -77.1167, -62.9323, 12.2732, 39.0084, 18.1923, -23.616, -92.2149, 6.30742
3.087, -1, 48.7369, 5.00619, 8.64165, 46.9822, -77.1059, -62.9297, 12.2889, 39.0131, 18.2154, -23.6168, -92.2024, 6.31892
3.092, -1, 48.7552, 5.00971, 8.6539, 46.9922, -77.0971, -62.9277, 12.3033, 39.0175, 18.2357, -23.6176, -92.1917, 6.32877
3.096, -1, 48.7709, 5.01307, 8.66347, 46.9997, -77.0903, -62.9261, 12.3165, 39.0219, 18.2532, -23.6183, -92.1827, 6.33699
3.1, -1, 48.7842, 5.01625, 8.67055, 47.0051, -77.0853, -62.925, 12.3284, 39.026, 18.2679, -23.6189, -92.1754, 6.34363
3.104, -1, 48.795, 5.01912, 8.67549, 47.0086, -77.0819, -62.9243, 12.3393, 39.0301, 18.2802, -23.6194, -92.1696, 6.3488
3.107, -1, 48.8032, 5.02151, 8.6787, 47.0107, -77.0797, -62.9238, 12.3495, 39.0343, 18.2903, -23.6198, -92.1653, 6.35265
3.112, -1, 48.8091, 5.02334, 8.68063, 47.0118, -77.0784, -62.9236, 12.3591, 39.0384, 18.2984, -23.6202, -92.1622, 6.35536
3.116, -1, 48.8129, 5.02461, 8.68168, 47.0124, -77.0777, -62.9234, 12.368, 39.0424, 18.3048, -23.6204, -92.16, 6.35715
3.12, -1, 48.8152, 5.0254, 8.6822, 47.0126, -77.0774, -62.9234, 12.3759, 39.046, 18.3096, -23.6206, -92.1587, 6.35824
3.124, -1, 48.8164, 5.02581, 8.68242, 47.0126, -77.0773, -62.9234, 12.3822, 39.049, 18.3129, -23.6208, -92.1579, 6.35884
3.128, 2, 48.8168, 5.02598, 8.68249, 47.0127, -77.0772, -62.9234, 12.387, 39.0513, 18.3151, -23.6209, -92.1574, 6.35914
3.132, 2, 48.8169, 5.02602, 8.6825, 47.0127, -77.0772, -62.9234, 12.3903, 39.0528, 18.3164, -23.621, -92.1572, 6.35926
3.136, 2, 48.8169, 5.02602, 8.6825, 47.0127, -77.0772, -62.9234, 12.3922, 39.0537, 18.3171, -23.621, -92.1572, 6.3593
3.14, 2, 48.8169, 5.02602, 8.6825, 47.0127, -77.0772, -62.9234, 12.393, 39.0541, 18.3173, -23.621, -92.1571, 6.35931
3.143, 2, 48.8169, 5.02602, 8.6825, 47.0127, -77.0772, -62.9234, 12.3932, 39.0542, 18.3173, -23.621, -92.1571, 6.35932
3.148, 2, 48.8169, 5.02602, 8.6825, 47.0127, -77.0772, -62.9234, 12.3932, 39.0542, 18.3174, -23.621, -92.1571, 6.35932
3.152, 2, 48.8169, 5.02602, 8.6825, 47.0127, -77.0772, -62.9234, 12.3932, 39.0542, 18.3174, -23.621, -92.1571, 6.35932
3.156, 2, 48.8169, 5.02602, 8.6825, 47.0127, -77.0772, -62.9234, 12.3932, 39.0542, 18.3174, -23.621, -92.1571, 6.35932
3.16, 2, 48.8169, 5.02602, 8.6825, 47.0127, -77.0772, -62.9234, 12.3932, 39.0542, 18.3174, -23.621, -92.1571, 6.35932
3.163, 2, 48.8169, 5.02602, 8.6825, 47.0127, -77.0772, -62.9234, 12.3932, 39.0542, 18.3174, -23.621, -92.1571, 6.35932
3.168, 2, 48.8169, 5.02602, 8.6825, 47.0127, -77.0772, -62.9234, 12.3932, 39.0542, 18.3174, -23.621, -92.1571, 6.35932
3.172, 2, 48.8169, 5.02602, 8.6825, 47.0127, -77.0772, -62.9234, 12.3932, 39.0542, 18.3174, -23.621, -92.1571, 6.35932
3.176, 2, 48.8169, 5.02602, 8.6825, 47.0127, -77.0772, -62.9234, 12.3932, 39.0542, 18.3174, -23.621, -92.1571, 6.35932
3.179, 2, 48.8169, 5.02602, 8.6825, 47.0127, -77.0772, -62.9234, 12.3932, 39.0542, 18.3174, -23.621, -92.1571, 6.35932
