hehonglu123/Motion-Primitive-Planning/simulation/robotstudio_sim/scripts/fitting_output/movec/curve_exe_v50_z10.csv
timestamp, cmd_num, J1, J2, J3, J4, J5, J6
0, 1, -0.927828, 64.2001, 8.9313, 43.8985, -96.224, 170.633
0.002, 1, -0.927828, 64.2001, 8.9313, 43.8985, -96.224, 170.633
0.004, 1, -0.927828, 64.2001, 8.9313, 43.8985, -96.224, 170.633
0.008, 1, -0.927828, 64.2001, 8.9313, 43.8985, -96.224, 170.633
0.011, 1, -0.927828, 64.2001, 8.9313, 43.8985, -96.224, 170.633
0.016, 1, -0.927828, 64.2001, 8.9313, 43.8985, -96.224, 170.633
0.02, 1, -0.927828, 64.2001, 8.9313, 43.8985, -96.224, 170.633
0.024, 1, -0.927828, 64.2001, 8.9313, 43.8985, -96.224, 170.633
0.028, 1, -0.927828, 64.2001, 8.9313, 43.8985, -96.224, 170.633
0.032, 1, -0.927828, 64.2001, 8.9313, 43.8985, -96.224, 170.633
0.036, 1, -0.927818, 64.2001, 8.9313, 43.8985, -96.224, 170.633
0.04, 1, -0.927754, 64.2, 8.9313, 43.8985, -96.224, 170.633
0.044, 1, -0.927532, 64.2, 8.93131, 43.8985, -96.224, 170.633
0.048, 1, -0.927006, 64.1998, 8.93133, 43.8986, -96.224, 170.633
0.052, 1, -0.926034, 64.1995, 8.93135, 43.8986, -96.224, 170.633
0.056, 1, -0.924508, 64.1991, 8.93138, 43.8987, -96.2239, 170.633
0.06, 1, -0.922352, 64.1983, 8.93139, 43.899, -96.2237, 170.632
0.064, 1, -0.919517, 64.1972, 8.93135, 43.8994, -96.2233, 170.631
0.068, 1, -0.915968, 64.1958, 8.9312, 43.9002, -96.2227, 170.629
0.072, 1, -0.911656, 64.194, 8.93088, 43.9016, -96.2216, 170.626
0.076, 1, -0.906485, 64.1916, 8.9303, 43.9036, -96.22, 170.621
0.08, 1, -0.900296, 64.1888, 8.92937, 43.9065, -96.2176, 170.614
0.084, 1, -0.892889, 64.1852, 8.92798, 43.9107, -96.2142, 170.605
0.088, 1, -0.884065, 64.181, 8.92597, 43.9163, -96.2095, 170.591
0.092, 1, -0.873662, 64.1759, 8.92322, 43.9238, -96.2034, 170.574
0.096, 1, -0.861574, 64.1701, 8.91953, 43.9335, -96.1954, 170.551
0.1, 1, -0.847717, 64.1634, 8.91473, 43.9459, -96.1853, 170.523
0.104, 1, -0.831989, 64.1558, 8.90863, 43.9612, -96.1727, 170.487
0.108, 1, -0.814257, 64.1472, 8.90107, 43.9798, -96.1573, 170.444
0.112, 1, -0.794393, 64.1377, 8.89187, 44.0022, -96.1389, 170.392
0.116, 1, -0.772309, 64.1271, 8.8809, 44.0286, -96.1171, 170.331
0.12, 1, -0.747984, 64.1157, 8.86801, 44.0594, -96.0917, 170.259
0.124, 1, -0.721443, 64.1035, 8.85307, 44.0947, -96.0626, 170.178
0.128, 1, -0.692728, 64.0906, 8.83602, 44.1348, -96.0296, 170.085
0.131, 1, -0.661886, 64.0772, 8.81678, 44.1796, -95.9925, 169.981
0.136, 1, -0.628956, 64.0633, 8.79536, 44.2294, -95.9515, 169.866
0.139, 1, -0.593942, 64.0487, 8.77178, 44.2838, -95.9065, 169.74
0.144, 1, -0.55681, 64.0335, 8.74613, 44.3429, -95.8578, 169.603
0.148, 1, -0.517525, 64.0174, 8.71853, 44.4064, -95.8054, 169.457
0.152, 1, -0.476104, 64.0004, 8.68911, 44.4739, -95.7496, 169.3
0.156, 1, -0.432638, 63.9825, 8.65804, 44.5452, -95.6908, 169.136
0.16, 1, -0.387261, 63.9636, 8.62548, 44.6198, -95.6292, 168.963
0.164, 1, -0.34009, 63.9439, 8.59163, 44.6974, -95.5651, 168.784
0.168, 1, -0.291205, 63.9234, 8.55667, 44.7776, -95.4989, 168.598
0.172, 1, -0.240676, 63.9021, 8.5208, 44.8599, -95.4309, 168.408
0.176, 1, -0.188604, 63.88, 8.48422, 44.944, -95.3615, 168.213
0.18, 1, -0.135122, 63.8571, 8.44707, 45.0295, -95.291, 168.016
0.184, 1, -0.0803706, 63.8335, 8.40951, 45.1161, -95.2195, 167.815
0.188, 1, -0.0244948, 63.8094, 8.37166, 45.2035, -95.1473, 167.613
0.192, 1, 0.032354, 63.7846, 8.3336, 45.2915, -95.0747, 167.41
0.196, 1, 0.0900214, 63.7595, 8.29539, 45.38, -95.0017, 167.205
0.2, 1, 0.14838, 63.7341, 8.25708, 45.4687, -94.9284, 167
0.204, 1, 0.207338, 63.7084, 8.21873, 45.5577, -94.855, 166.794
0.208, 1, 0.266818, 63.6825, 8.18034, 45.6468, -94.7814, 166.587
0.212, 1, 0.326724, 63.6564, 8.14194, 45.736, -94.7079, 166.381
0.216, 1, 0.386942, 63.6303, 8.10355, 45.8252, -94.6342, 166.175
0.22, 1, 0.447371, 63.604, 8.06516, 45.9144, -94.5606, 165.968
0.224, 1, 0.507932, 63.5778, 8.02678, 46.0036, -94.487, 165.762
0.228, 1, 0.568571, 63.5515, 7.98842, 46.0928, -94.4134, 165.555
0.232, 1, 0.629252, 63.5252, 7.95007, 46.182, -94.3398, 165.349
0.236, 1, 0.689951, 63.4989, 7.91174, 46.2711, -94.2663, 165.143
0.24, 1, 0.750651, 63.4726, 7.87344, 46.3601, -94.1928, 164.937
0.244, 1, 0.81134, 63.4463, 7.83515, 46.4492, -94.1193, 164.731
0.248, 1, 0.872011, 63.4201, 7.79688, 46.5382, -94.0459, 164.525
0.252, 1, 0.932659, 63.3938, 7.75864, 46.6271, -93.9725, 164.319
0.256, 1, 0.993279, 63.3676, 7.72041, 46.716, -93.8992, 164.113
0.26, 1, 1.05387, 63.3413, 7.68221, 46.8048, -93.8259, 163.908
0.264, 1, 1.11443, 63.3151, 7.64403, 46.8936, -93.7526, 163.702
0.268, 1, 1.17496, 63.2889, 7.60587, 46.9823, -93.6794, 163.497
0.272, 1, 1.23545, 63.2627, 7.56774, 47.071, -93.6062, 163.292
0.276, 1, 1.29591, 63.2365, 7.52962, 47.1596, -93.5331, 163.087
0.28, 1, 1.35633, 63.2104, 7.49153, 47.2482, -93.46, 162.882
0.284, 1, 1.41672, 63.1842, 7.45346, 47.3367, -93.3869, 162.677
0.288, 1, 1.47708, 63.1581, 7.41541, 47.4252, -93.3139, 162.472
0.292, 1, 1.53739, 63.132, 7.37739, 47.5136, -93.2409, 162.267
0.296, 1, 1.59768, 63.1059, 7.33938, 47.602, -93.168, 162.063
0.3, 1, 1.65792, 63.0798, 7.3014, 47.6903, -93.0951, 161.858
0.304, 1, 1.71814, 63.0537, 7.26345, 47.7786, -93.0223, 161.654
0.308, 1, 1.77831, 63.0277, 7.22551, 47.8668, -92.9495, 161.45
0.312, 1, 1.83845, 63.0016, 7.1876, 47.9549, -92.8768, 161.246
0.316, 1, 1.89855, 62.9756, 7.14971, 48.043, -92.8041, 161.042
0.32, 1, 1.95862, 62.9496, 7.11185, 48.1311, -92.7314, 160.838
0.324, 1, 2.01865, 62.9236, 7.07401, 48.2191, -92.6588, 160.635
0.328, 1, 2.07864, 62.8976, 7.03619, 48.307, -92.5862, 160.431
0.332, 1, 2.13859, 62.8717, 6.99839, 48.3949, -92.5137, 160.228
0.336, 1, 2.19851, 62.8457, 6.96062, 48.4827, -92.4412, 160.025
0.34, 1, 2.25839, 62.8198, 6.92287, 48.5705, -92.3688, 159.821
0.344, 1, 2.31824, 62.7939, 6.88515, 48.6583, -92.2964, 159.618
0.348, 1, 2.37804, 62.768, 6.84745, 48.7459, -92.2241, 159.416
0.352, 1, 2.43781, 62.7421, 6.80977, 48.8335, -92.1518, 159.213
0.356, 1, 2.49754, 62.7163, 6.77211, 48.9211, -92.0795, 159.01
0.36, 1, 2.55723, 62.6904, 6.73448, 49.0086, -92.0073, 158.808
0.364, 1, 2.61688, 62.6646, 6.69688, 49.096, -91.9351, 158.605
0.368, 1, 2.6765, 62.6388, 6.6593, 49.1834, -91.863, 158.403
0.372, 1, 2.73608, 62.613, 6.62174, 49.2708, -91.791, 158.201
0.376, 1, 2.79562, 62.5872, 6.5842, 49.358, -91.7189, 157.999
0.38, 1, 2.85512, 62.5614, 6.54669, 49.4453, -91.647, 157.797
0.384, 1, 2.91458, 62.5357, 6.50921, 49.5324, -91.575, 157.595
0.388, 1, 2.974, 62.51, 6.47175, 49.6195, -91.5031, 157.394
0.392, 1, 3.03338, 62.4842, 6.43431, 49.7066, -91.4313, 157.192
0.396, 1, 3.09273, 62.4586, 6.3969, 49.7936, -91.3595, 156.991
0.4, 1, 3.15204, 62.4329, 6.35951, 49.8805, -91.2878, 156.79
0.404, 1, 3.2113, 62.4072, 6.32215, 49.9674, -91.2161, 156.589
0.408, 1, 3.27053, 62.3816, 6.28481, 50.0542, -91.1444, 156.388
0.412, 1, 3.32972, 62.3559, 6.2475, 50.141, -91.0729, 156.187
0.416, 1, 3.38887, 62.3303, 6.21022, 50.2277, -91.0013, 155.986
0.42, 1, 3.44797, 62.3047, 6.17295, 50.3143, -90.9298, 155.786
0.424, 1, 3.50704, 62.2792, 6.13572, 50.4009, -90.8583, 155.586
0.428, 1, 3.56607, 62.2536, 6.09851, 50.4875, -90.7869, 155.385
0.432, 1, 3.62506, 62.2281, 6.06132, 50.5739, -90.7156, 155.185
0.436, 1, 3.68401, 62.2025, 6.02416, 50.6603, -90.6443, 154.985
0.44, 1, 3.74291, 62.177, 5.98702, 50.7467, -90.573, 154.785
0.444, 1, 3.80178, 62.1516, 5.94991, 50.833, -90.5018, 154.586
0.448, 1, 3.86061, 62.1261, 5.91283, 50.9192, -90.4306, 154.386
0.452, 1, 3.91939, 62.1006, 5.87577, 51.0054, -90.3595, 154.187
0.456, 1, 3.97814, 62.0752, 5.83874, 51.0915, -90.2885, 153.987
0.46, 1, 4.03684, 62.0498, 5.80173, 51.1776, -90.2175, 153.788
0.464, 1, 4.0955, 62.0244, 5.76475, 51.2636, -90.1465, 153.589
0.468, 1, 4.15412, 61.999, 5.7278, 51.3495, -90.0756, 153.39
0.472, 1, 4.2127, 61.9736, 5.69087, 51.4354, -90.0047, 153.192
0.476, 1, 4.27124, 61.9483, 5.65397, 51.5212, -89.9339, 152.993
0.48, 1, 4.32974, 61.923, 5.61709, 51.6069, -89.8632, 152.795
0.484, 1, 4.38819, 61.8977, 5.58024, 51.6926, -89.7925, 152.596
0.488, 1, 4.44661, 61.8724, 5.54342, 51.7782, -89.7218, 152.398
0.492, 1, 4.50498, 61.8471, 5.50662, 51.8638, -89.6512, 152.2
0.496, 1, 4.56331, 61.8218, 5.46985, 51.9493, -89.5806, 152.002
0.5, 1, 4.62159, 61.7966, 5.4331, 52.0347, -89.5101, 151.805
0.504, 1, 4.67984, 61.7714, 5.39639, 52.1201, -89.4397, 151.607
0.508, 1, 4.73804, 61.7462, 5.3597, 52.2054, -89.3693, 151.41
0.512, 1, 4.7962, 61.721, 5.32303, 52.2907, -89.2989, 151.212
0.516, 1, 4.85432, 61.6958, 5.2864, 52.3759, -89.2286, 151.015
0.52, 1, 4.9124, 61.6707, 5.24979, 52.461, -89.1584, 150.818
0.524, 1, 4.97043, 61.6456, 5.2132, 52.5461, -89.0882, 150.621
0.528, 1, 5.02842, 61.6205, 5.17665, 52.6311, -89.018, 150.425
0.532, 1, 5.08637, 61.5954, 5.14012, 52.716, -88.9479, 150.228
0.536, 1, 5.14427, 61.5703, 5.10362, 52.8009, -88.8779, 150.032
0.54, 1, 5.20214, 61.5452, 5.06714, 52.8857, -88.8079, 149.835
0.544, 1, 5.25995, 61.5202, 5.03069, 52.9705, -88.738, 149.639
0.548, 1, 5.31773, 61.4952, 4.99427, 53.0552, -88.6681, 149.443
0.552, 1, 5.37546, 61.4702, 4.95788, 53.1398, -88.5982, 149.247
0.556, 1, 5.43315, 61.4452, 4.92151, 53.2244, -88.5285, 149.052
0.56, 1, 5.49079, 61.4203, 4.88518, 53.3089, -88.4587, 148.856
0.564, 1, 5.54839, 61.3953, 4.84887, 53.3933, -88.3891, 148.661
0.568, 1, 5.60595, 61.3704, 4.81258, 53.4777, -88.3194, 148.465
0.572, 1, 5.66346, 61.3455, 4.77633, 53.562, -88.2499, 148.27
0.576, 1, 5.72093, 61.3206, 4.7401, 53.6462, -88.1803, 148.075
0.58, 1, 5.77836, 61.2958, 4.7039, 53.7304, -88.1109, 147.881
0.584, 1, 5.83574, 61.2709, 4.66773, 53.8145, -88.0415, 147.686
0.588, 1, 5.89307, 61.2461, 4.63158, 53.8986, -87.9721, 147.491
0.592, 1, 5.95037, 61.2213, 4.59547, 53.9825, -87.9028, 147.297
0.596, 1, 6.00761, 61.1965, 4.55938, 54.0665, -87.8336, 147.103
0.6, 1, 6.06482, 61.1717, 4.52332, 54.1503, -87.7644, 146.909
0.604, 1, 6.12198, 61.147, 4.48728, 54.2341, -87.6952, 146.715
0.608, 1, 6.17909, 61.1223, 4.45128, 54.3178, -87.6261, 146.521
0.612, 1, 6.23616, 61.0976, 4.4153, 54.4015, -87.5571, 146.328
0.616, 1, 6.29319, 61.0729, 4.37936, 54.4851, -87.4881, 146.134
0.62, 1, 6.35017, 61.0482, 4.34344, 54.5686, -87.4192, 145.941
0.624, 1, 6.4071, 61.0235, 4.30755, 54.652, -87.3503, 145.748
0.628, 1, 6.46399, 60.9989, 4.27168, 54.7354, -87.2815, 145.555
0.632, 1, 6.52084, 60.9743, 4.23585, 54.8188, -87.2128, 145.362
0.636, 1, 6.57763, 60.9497, 4.20004, 54.902, -87.1441, 145.169
0.64, 1, 6.63439, 60.9251, 4.16427, 54.9852, -87.0754, 144.977
0.644, 1, 6.6911, 60.9006, 4.12852, 55.0683, -87.0068, 144.784
0.648, 1, 6.74776, 60.8761, 4.0928, 55.1514, -86.9383, 144.592
0.652, 1, 6.80438, 60.8515, 4.05711, 55.2344, -86.8698, 144.4
0.656, 1, 6.86095, 60.827, 4.02145, 55.3173, -86.8013, 144.208
0.66, 1, 6.91748, 60.8026, 3.98581, 55.4002, -86.733, 144.016
0.664, 1, 6.97396, 60.7781, 3.95021, 55.483, -86.6646, 143.825
0.668, 1, 7.03039, 60.7537, 3.91463, 55.5657, -86.5964, 143.633
0.672, 1, 7.08678, 60.7293, 3.87909, 55.6484, -86.5282, 143.442
0.676, 1, 7.14313, 60.7049, 3.84357, 55.7309, -86.46, 143.251
0.68, 1, 7.19942, 60.6805, 3.80808, 55.8135, -86.3919, 143.06
0.684, 1, 7.25567, 60.6561, 3.77262, 55.8959, -86.3239, 142.869
0.688, 1, 7.31188, 60.6318, 3.73719, 55.9783, -86.2559, 142.679
0.692, 1, 7.36803, 60.6075, 3.70179, 56.0606, -86.188, 142.488
0.696, 1, 7.42415, 60.5832, 3.66642, 56.1429, -86.1201, 142.298
0.7, 1, 7.48021, 60.5589, 3.63108, 56.2251, -86.0523, 142.108
0.704, 1, 7.53623, 60.5347, 3.59577, 56.3072, -85.9845, 141.917
0.708, 1, 7.5922, 60.5104, 3.56048, 56.3892, -85.9168, 141.728
0.712, 1, 7.64813, 60.4862, 3.52523, 56.4712, -85.8492, 141.538
0.716, 1, 7.70401, 60.462, 3.49, 56.5531, -85.7816, 141.348
0.72, 1, 7.75984, 60.4379, 3.45481, 56.6349, -85.7141, 141.159
0.724, 1, 7.81562, 60.4137, 3.41964, 56.7167, -85.6466, 140.97
0.728, 1, 7.87136, 60.3896, 3.38451, 56.7984, -85.5792, 140.781
0.732, 1, 7.92705, 60.3655, 3.3494, 56.8801, -85.5118, 140.592
0.736, 1, 7.9827, 60.3414, 3.31433, 56.9616, -85.4445, 140.403
0.74, 1, 8.0383, 60.3173, 3.27928, 57.0431, -85.3772, 140.214
0.744, 1, 8.09385, 60.2933, 3.24426, 57.1245, -85.31, 140.026
0.748, 1, 8.14935, 60.2692, 3.20928, 57.2059, -85.2429, 139.838
0.752, 1, 8.20481, 60.2452, 3.17432, 57.2872, -85.1758, 139.65
0.756, 1, 8.26022, 60.2212, 3.13939, 57.3684, -85.1088, 139.462
0.76, 1, 8.31558, 60.1973, 3.10449, 57.4495, -85.0418, 139.274
0.764, 1, 8.37089, 60.1733, 3.06963, 57.5306, -84.9749, 139.086
0.768, 1, 8.42616, 60.1494, 3.03479, 57.6116, -84.9081, 138.899
0.772, 1, 8.48138, 60.1255, 2.99998, 57.6926, -84.8413, 138.711
0.776, 1, 8.53655, 60.1016, 2.9652, 57.7734, -84.7746, 138.524
0.78, 1, 8.59167, 60.0777, 2.93045, 57.8542, -84.7079, 138.337
0.784, 1, 8.64675, 60.0539, 2.89573, 57.935, -84.6413, 138.15
0.788, 1, 8.70178, 60.0301, 2.86105, 58.0156, -84.5747, 137.964
0.792, 1, 8.75676, 60.0063, 2.82639, 58.0962, -84.5082, 137.777
0.796, 1, 8.81169, 59.9825, 2.79176, 58.1767, -84.4417, 137.591
0.8, 1, 8.86658, 59.9587, 2.75716, 58.2572, -84.3754, 137.405
0.804, 1, 8.92142, 59.935, 2.7226, 58.3376, -84.309, 137.219
0.808, 1, 8.97621, 59.9112, 2.68806, 58.4179, -84.2428, 137.033
0.812, 1, 9.03095, 59.8875, 2.65355, 58.4981, -84.1766, 136.847
0.816, 1, 9.08565, 59.8639, 2.61908, 58.5783, -84.1104, 136.662
0.82, 1, 9.1403, 59.8402, 2.58463, 58.6584, -84.0443, 136.476
0.824, 1, 9.19489, 59.8166, 2.55021, 58.7384, -83.9783, 136.291
0.828, 1, 9.24945, 59.7929, 2.51583, 58.8184, -83.9123, 136.106
0.832, 1, 9.30395, 59.7693, 2.48147, 58.8983, -83.8464, 135.921
0.836, 1, 9.35841, 59.7458, 2.44715, 58.9781, -83.7805, 135.736
0.84, 1, 9.41281, 59.7222, 2.41285, 59.0578, -83.7147, 135.552
0.844, 1, 9.46717, 59.6987, 2.37859, 59.1375, -83.6489, 135.368
0.848, 1, 9.52148, 59.6752, 2.34435, 59.2171, -83.5832, 135.183
0.852, 1, 9.57574, 59.6517, 2.31015, 59.2967, -83.5176, 134.999
0.856, 1, 9.62996, 59.6282, 2.27597, 59.3761, -83.452, 134.815
0.86, 1, 9.68412, 59.6048, 2.24183, 59.4555, -83.3865, 134.632
0.864, 1, 9.73824, 59.5813, 2.20772, 59.5348, -83.3211, 134.448
0.868, 1, 9.79231, 59.5579, 2.17364, 59.6141, -83.2557, 134.265
0.872, 1, 9.84633, 59.5345, 2.13958, 59.6933, -83.1903, 134.081
0.876, 1, 9.90031, 59.5112, 2.10556, 59.7724, -83.125, 133.898
0.88, 1, 9.95423, 59.4878, 2.07157, 59.8514, -83.0598, 133.715
0.884, 1, 10.0081, 59.4645, 2.03761, 59.9304, -82.9946, 133.533
0.888, 1, 10.0619, 59.4412, 2.00368, 60.0093, -82.9295, 133.35
0.892, 1, 10.1157, 59.4179, 1.96978, 60.0881, -82.8645, 133.168
0.896, 1, 10.1694, 59.3946, 1.93591, 60.1669, -82.7995, 132.985
0.9, 1, 10.2231, 59.3714, 1.90207, 60.2456, -82.7346, 132.803
0.904, 1, 10.2768, 59.3482, 1.86827, 60.3242, -82.6697, 132.621
0.908, 1, 10.3304, 59.325, 1.83449, 60.4027, -82.6049, 132.44
0.912, 1, 10.3839, 59.3018, 1.80074, 60.4812, -82.5401, 132.258
0.916, 1, 10.4374, 59.2786, 1.76702, 60.5596, -82.4754, 132.077
0.92, 1, 10.4908, 59.2555, 1.73334, 60.6379, -82.4108, 131.895
0.924, 1, 10.5442, 59.2324, 1.69968, 60.7162, -82.3462, 131.714
0.928, 1, 10.5976, 59.2093, 1.66606, 60.7944, -82.2817, 131.533
0.932, 1, 10.6508, 59.1862, 1.63247, 60.8725, -82.2172, 131.352
0.936, 1, 10.7041, 59.1632, 1.5989, 60.9506, -82.1528, 131.172
0.94, 1, 10.7573, 59.1401, 1.56537, 61.0285, -82.0885, 130.991
0.944, 1, 10.8104, 59.1171, 1.53187, 61.1064, -82.0242, 130.811
0.948, 1, 10.8635, 59.0941, 1.4984, 61.1843, -81.96, 130.631
0.952, 1, 10.9166, 59.0712, 1.46496, 61.262, -81.8958, 130.451
0.956, 1, 10.9696, 59.0482, 1.43155, 61.3397, -81.8317, 130.271
0.96, 1, 11.0226, 59.0253, 1.39817, 61.4173, -81.7676, 130.092
0.964, 1, 11.0755, 59.0024, 1.36482, 61.4949, -81.7037, 129.912
0.968, 1, 11.1283, 58.9795, 1.3315, 61.5723, -81.6397, 129.733
0.972, 1, 11.1811, 58.9566, 1.29821, 61.6497, -81.5758, 129.554
0.976, 1, 11.2339, 58.9338, 1.26496, 61.7271, -81.512, 129.375
0.98, 1, 11.2866, 58.911, 1.23173, 61.8043, -81.4483, 129.196
0.984, 1, 11.3393, 58.8882, 1.19854, 61.8815, -81.3846, 129.017
0.988, 1, 11.3919, 58.8654, 1.16537, 61.9586, -81.3209, 128.839
0.992, 1, 11.4444, 58.8426, 1.13224, 62.0357, -81.2574, 128.661
0.996, 1, 11.497, 58.8199, 1.09914, 62.1127, -81.1938, 128.482
1, 1, 11.5494, 58.7972, 1.06606, 62.1896, -81.1304, 128.305
1.004, 1, 11.6019, 58.7745, 1.03302, 62.2664, -81.067, 128.127
1.008, 1, 11.6542, 58.7518, 1.00001, 62.3432, -81.0036, 127.949
1.012, 1, 11.7065, 58.7292, 0.967031, 62.4199, -80.9404, 127.772
1.016, 1, 11.7588, 58.7065, 0.934082, 62.4965, -80.8771, 127.594
1.02, 1, 11.811, 58.6839, 0.901163, 62.573, -80.814, 127.417
1.024, 1, 11.8632, 58.6613, 0.868275, 62.6495, -80.7509, 127.24
1.027, 1, 11.9154, 58.6388, 0.835417, 62.7259, -80.6878, 127.063
1.032, 1, 11.9674, 58.6162, 0.802591, 62.8022, -80.6248, 126.887
1.036, 1, 12.0195, 58.5937, 0.769795, 62.8785, -80.5619, 126.71
1.04, 1, 12.0714, 58.5712, 0.737029, 62.9547, -80.499, 126.534
1.044, 1, 12.1234, 58.5487, 0.704294, 63.0308, -80.4362, 126.358
1.048, 1, 12.1753, 58.5262, 0.67159, 63.1069, -80.3734, 126.182
1.052, 1, 12.2271, 58.5038, 0.638917, 63.1828, -80.3107, 126.006
1.055, 1, 12.2789, 58.4814, 0.606274, 63.2587, -80.2481, 125.83
1.06, 1, 12.3306, 58.459, 0.573662, 63.3346, -80.1855, 125.655
1.064, 1, 12.3823, 58.4366, 0.541081, 63.4103, -80.123, 125.479
1.068, 1, 12.434, 58.4142, 0.50853, 63.486, -80.0605, 125.304
1.072, 1, 12.4856, 58.3919, 0.47601, 63.5617, -79.9982, 125.129
1.076, 1, 12.5371, 58.3696, 0.443521, 63.6372, -79.9358, 124.954
1.08, 1, 12.5886, 58.3473, 0.411062, 63.7127, -79.8735, 124.78
1.084, 1, 12.6401, 58.325, 0.378633, 63.7881, -79.8113, 124.605
1.088, 1, 12.6915, 58.3028, 0.346236, 63.8634, -79.7491, 124.431
1.091, 1, 12.7428, 58.2805, 0.313869, 63.9387, -79.687, 124.257
1.096, 1, 12.7941, 58.2583, 0.281532, 64.0139, -79.625, 124.083
1.1, 1, 12.8454, 58.2361, 0.249226, 64.089, -79.563, 123.909
1.104, 1, 12.8966, 58.214, 0.21695, 64.1641, -79.501, 123.735
1.108, 1, 12.9477, 58.1918, 0.184705, 64.239, -79.4392, 123.562
1.112, 1, 12.9988, 58.1697, 0.152491, 64.3139, -79.3774, 123.388
1.116, 1, 13.0499, 58.1476, 0.120307, 64.3888, -79.3156, 123.215
1.119, 1, 13.1009, 58.1255, 0.0881528, 64.4636, -79.2539, 123.042
1.124, 1, 13.1519, 58.1034, 0.0560294, 64.5383, -79.1923, 122.869
1.128, 1, 13.2028, 58.0814, 0.0239364, 64.6129, -79.1307, 122.697
1.132, 1, 13.2537, 58.0594, -0.00812625, 64.6874, -79.0692, 122.524
1.136, 1, 13.3045, 58.0374, -0.0401586, 64.7619, -79.0077, 122.352
1.14, 1, 13.3553, 58.0154, -0.0721606, 64.8363, -78.9463, 122.179
1.144, 1, 13.406, 57.9934, -0.104132, 64.9107, -78.8849, 122.007
1.147, 1, 13.4567, 57.9715, -0.136074, 64.985, -78.8236, 121.835
1.152, 1, 13.5073, 57.9496, -0.167985, 65.0592, -78.7624, 121.664
1.156, 1, 13.5579, 57.9277, -0.199866, 65.1333, -78.7012, 121.492
1.16, 1, 13.6084, 57.9058, -0.231717, 65.2074, -78.6401, 121.321
1.164, 1, 13.6589, 57.8839, -0.263537, 65.2814, -78.579, 121.15
1.168, 1, 13.7093, 57.8621, -0.295327, 65.3553, -78.5181, 120.978
1.172, 1, 13.7597, 57.8403, -0.327088, 65.4291, -78.4571, 120.808
1.175, 1, 13.8101, 57.8185, -0.358818, 65.5029, -78.3962, 120.637
1.18, 1, 13.8604, 57.7967, -0.390518, 65.5766, -78.3354, 120.466
1.184, 1, 13.9106, 57.775, -0.422188, 65.6503, -78.2746, 120.296
1.188, 1, 13.9608, 57.7532, -0.453828, 65.7238, -78.2139, 120.126
1.192, 1, 14.011, 57.7315, -0.485438, 65.7973, -78.1533, 119.955
1.196, 1, 14.0611, 57.7098, -0.517018, 65.8708, -78.0927, 119.786
1.2, 1, 14.1111, 57.6882, -0.548568, 65.9442, -78.0321, 119.616
1.204, 1, 14.1611, 57.6665, -0.580087, 66.0174, -77.9716, 119.446
1.208, 1, 14.2111, 57.6449, -0.611578, 66.0907, -77.9112, 119.277
1.212, 1, 14.261, 57.6233, -0.643038, 66.1638, -77.8508, 119.107
1.216, 1, 14.3109, 57.6017, -0.674468, 66.2369, -77.7905, 118.938
1.22, 1, 14.3607, 57.5801, -0.705868, 66.3099, -77.7303, 118.769
1.224, 1, 14.4105, 57.5586, -0.737239, 66.3829, -77.6701, 118.6
1.228, 1, 14.4602, 57.5371, -0.76858, 66.4557, -77.6099, 118.432
1.232, 1, 14.5099, 57.5156, -0.799891, 66.5286, -77.5499, 118.263
1.236, 1, 14.5595, 57.4941, -0.831172, 66.6013, -77.4898, 118.095
1.24, 1, 14.6091, 57.4726, -0.862423, 66.674, -77.4299, 117.927
1.244, 1, 14.6586, 57.4512, -0.893645, 66.7466, -77.37, 117.759
1.248, 1, 14.7081, 57.4297, -0.924837, 66.8191, -77.3101, 117.591
1.252, 1, 14.7576, 57.4083, -0.956, 66.8916, -77.2503, 117.423
1.256, 1, 14.807, 57.3869, -0.987132, 66.964, -77.1906, 117.256
1.26, 1, 14.8563, 57.3656, -1.01824, 67.0363, -77.1309, 117.088
1.264, 1, 14.9056, 57.3442, -1.04931, 67.1086, -77.0713, 116.921
1.267, 1, 14.9549, 57.3229, -1.08035, 67.1807, -77.0117, 116.754
1.272, 1, 15.0041, 57.3016, -1.11137, 67.2529, -76.9522, 116.587
1.276, 1, 15.0532, 57.2803, -1.14235, 67.3249, -76.8927, 116.42
1.28, 1, 15.1024, 57.2591, -1.17331, 67.3969, -76.8333, 116.254
1.284, 1, 15.1514, 57.2378, -1.20423, 67.4688, -76.774, 116.087
1.288, 1, 15.2004, 57.2166, -1.23513, 67.5406, -76.7147, 115.921
1.292, 1, 15.2494, 57.1954, -1.266, 67.6124, -76.6555, 115.755
1.295, 1, 15.2983, 57.1742, -1.29684, 67.6841, -76.5963, 115.589
1.3, 1, 15.3472, 57.1531, -1.32765, 67.7558, -76.5372, 115.423
1.304, 1, 15.3961, 57.1319, -1.35843, 67.8274, -76.4781, 115.258
1.308, 1, 15.4449, 57.1108, -1.38918, 67.8989, -76.4191, 115.092
1.312, 1, 15.4936, 57.0897, -1.4199, 67.9703, -76.3601, 114.927
1.316, 1, 15.5423, 57.0686, -1.45059, 68.0417, -76.3013, 114.762
1.32, 1, 15.5909, 57.0476, -1.48125, 68.113, -76.2424, 114.597
1.324, 1, 15.6395, 57.0265, -1.51188, 68.1842, -76.1836, 114.432
1.328, 1, 15.6881, 57.0055, -1.54249, 68.2554, -76.1249, 114.267
1.332, 1, 15.7366, 56.9845, -1.57306, 68.3265, -76.0662, 114.103
1.336, 1, 15.7851, 56.9635, -1.60361, 68.3975, -76.0076, 113.938
1.34, 1, 15.8335, 56.9425, -1.63413, 68.4685, -75.9491, 113.774
1.344, 1, 15.8819, 56.9216, -1.66462, 68.5394, -75.8906, 113.61
1.348, 1, 15.9302, 56.9007, -1.69508, 68.6102, -75.8321, 113.446
1.352, 1, 15.9785, 56.8798, -1.72551, 68.6809, -75.7737, 113.282
1.356, 1, 16.0267, 56.8589, -1.75591, 68.7516, -75.7154, 113.119
1.36, 1, 16.0749, 56.838, -1.78628, 68.8223, -75.6571, 112.955
1.364, 1, 16.123, 56.8172, -1.81662, 68.8928, -75.5989, 112.792
1.368, 1, 16.1711, 56.7964, -1.84694, 68.9633, -75.5407, 112.629
1.372, 1, 16.2192, 56.7756, -1.87722, 69.0337, -75.4826, 112.466
1.376, 1, 16.2672, 56.7548, -1.90748, 69.1041, -75.4245, 112.303
1.38, 1, 16.3152, 56.734, -1.93771, 69.1744, -75.3665, 112.14
1.384, 1, 16.3631, 56.7133, -1.96791, 69.2446, -75.3086, 111.978
1.388, 1, 16.411, 56.6926, -1.99808, 69.3148, -75.2507, 111.816
1.392, 1, 16.4588, 56.6719, -2.02822, 69.3849, -75.1929, 111.653
1.396, 1, 16.5066, 56.6512, -2.05833, 69.4549, -75.1351, 111.491
1.4, 1, 16.5543, 56.6305, -2.08842, 69.5248, -75.0773, 111.329
1.404, 1, 16.602, 56.6099, -2.11847, 69.5947, -75.0197, 111.168
1.408, 1, 16.6496, 56.5892, -2.1485, 69.6646, -74.962, 111.006
1.412, 1, 16.6972, 56.5686, -2.1785, 69.7343, -74.9045, 110.845
1.416, 1, 16.7448, 56.548, -2.20847, 69.804, -74.847, 110.683
1.42, 1, 16.7923, 56.5275, -2.23842, 69.8736, -74.7895, 110.522
1.424, 1, 16.8398, 56.5069, -2.26833, 69.9432, -74.7321, 110.361
1.428, 1, 16.8872, 56.4864, -2.29822, 70.0127, -74.6748, 110.2
1.432, 1, 16.9346, 56.4659, -2.32808, 70.0821, -74.6175, 110.04
1.436, 1, 16.9819, 56.4454, -2.35791, 70.1515, -74.5602, 109.879
1.44, 1, 17.0292, 56.4249, -2.38771, 70.2208, -74.503, 109.719
1.444, 1, 17.0764, 56.4045, -2.41748, 70.29, -74.4459, 109.559
1.448, 1, 17.1236, 56.384, -2.44723, 70.3592, -74.3888, 109.398
1.452, 1, 17.1708, 56.3636, -2.47695, 70.4283, -74.3318, 109.239
1.456, 1, 17.2179, 56.3432, -2.50663, 70.4974, -74.2748, 109.079
1.46, 1, 17.2649, 56.3229, -2.5363, 70.5663, -74.2179, 108.919
1.464, 1, 17.312, 56.3025, -2.56593, 70.6352, -74.161, 108.76
1.468, 1, 17.3589, 56.2822, -2.59554, 70.7041, -74.1042, 108.6
1.472, 1, 17.4059, 56.2619, -2.62512, 70.7729, -74.0475, 108.441
1.476, 1, 17.4528, 56.2416, -2.65467, 70.8416, -73.9908, 108.282
1.48, 1, 17.4996, 56.2213, -2.68419, 70.9102, -73.9341, 108.123
1.484, 1, 17.5464, 56.201, -2.71369, 70.9788, -73.8775, 107.965
1.488, 1, 17.5932, 56.1808, -2.74315, 71.0473, -73.821, 107.806
1.492, 1, 17.6399, 56.1606, -2.77259, 71.1158, -73.7645, 107.648
1.496, 1, 17.6865, 56.1404, -2.80201, 71.1842, -73.708, 107.489
1.5, 1, 17.7332, 56.1202, -2.83139, 71.2525, -73.6516, 107.331
1.504, 1, 17.7798, 56.1, -2.86075, 71.3208, -73.5953, 107.173
1.508, 1, 17.8263, 56.0799, -2.89008, 71.389, -73.539, 107.015
1.512, 1, 17.8728, 56.0597, -2.91939, 71.4571, -73.4828, 106.858
1.516, 1, 17.9192, 56.0396, -2.94866, 71.5252, -73.4266, 106.7
1.52, 1, 17.9657, 56.0195, -2.97791, 71.5932, -73.3705, 106.543
1.524, 1, 18.012, 55.9995, -3.00713, 71.6612, -73.3144, 106.385
1.528, 1, 18.0583, 55.9794, -3.03633, 71.7291, -73.2584, 106.228
1.532, 1, 18.1046, 55.9594, -3.06549, 71.7969, -73.2024, 106.071
1.536, 1, 18.1509, 55.9394, -3.09463, 71.8647, -73.1465, 105.915
1.54, 1, 18.1971, 55.9194, -3.12375, 71.9324, -73.0907, 105.758
1.544, 1, 18.2432, 55.8994, -3.15283, 72, -73.0348, 105.601
1.548, 1, 18.2893, 55.8794, -3.18189, 72.0676, -72.9791, 105.445
1.552, 1, 18.3354, 55.8595, -3.21093, 72.1351, -72.9234, 105.289
1.556, 1, 18.3814, 55.8396, -3.23993, 72.2025, -72.8677, 105.133
1.56, 1, 18.4274, 55.8196, -3.26891, 72.2699, -72.8121, 104.977
1.564, 1, 18.4733, 55.7998, -3.29786, 72.3372, -72.7565, 104.821
1.568, 1, 18.5192, 55.7799, -3.32679, 72.4045, -72.701, 104.665
1.572, 1, 18.5651, 55.76, -3.35569, 72.4717, -72.6456, 104.51
1.576, 1, 18.6109, 55.7402, -3.38456, 72.5388, -72.5902, 104.354
1.58, 1, 18.6567, 55.7204, -3.4134, 72.6059, -72.5348, 104.199
1.584, 1, 18.7024, 55.7006, -3.44222, 72.6729, -72.4795, 104.044
1.588, 1, 18.7481, 55.6808, -3.47101, 72.7399, -72.4243, 103.889
1.592, 1, 18.7937, 55.6611, -3.49978, 72.8068, -72.3691, 103.734
1.596, 1, 18.8393, 55.6413, -3.52852, 72.8736, -72.3139, 103.58
1.6, 1, 18.8849, 55.6216, -3.55723, 72.9404, -72.2588, 103.425
1.604, 1, 18.9304, 55.6019, -3.58592, 73.0071, -72.2038, 103.271
1.608, 1, 18.9759, 55.5822, -3.61458, 73.0737, -72.1488, 103.117
1.612, 1, 19.0213, 55.5625, -3.64321, 73.1403, -72.0939, 102.962
1.616, 1, 19.0667, 55.5429, -3.67182, 73.2068, -72.039, 102.809
1.62, 1, 19.112, 55.5233, -3.7004, 73.2733, -71.9841, 102.655
1.624, 1, 19.1573, 55.5036, -3.72896, 73.3397, -71.9293, 102.501
1.628, 1, 19.2026, 55.484, -3.75749, 73.406, -71.8746, 102.348
1.632, 1, 19.2478, 55.4645, -3.78599, 73.4723, -71.8199, 102.194
1.636, 1, 19.293, 55.4449, -3.81447, 73.5385, -71.7652, 102.041
1.64, 1, 19.3382, 55.4254, -3.84292, 73.6047, -71.7106, 101.888
1.644, 1, 19.3833, 55.4058, -3.87134, 73.6708, -71.6561, 101.735
1.648, 1, 19.4283, 55.3863, -3.89974, 73.7368, -71.6016, 101.582
1.652, 1, 19.4734, 55.3668, -3.92811, 73.8028, -71.5472, 101.429
1.656, 1, 19.5183, 55.3474, -3.95646, 73.8687, -71.4928, 101.277
1.66, 1, 19.5633, 55.3279, -3.98478, 73.9346, -71.4384, 101.124
1.664, 1, 19.6082, 55.3085, -4.01308, 74.0004, -71.3841, 100.972
1.668, 1, 19.653, 55.2891, -4.04135, 74.0661, -71.3299, 100.82
1.672, 1, 19.6978, 55.2697, -4.06959, 74.1318, -71.2757, 100.668
1.676, 1, 19.7426, 55.2503, -4.09781, 74.1974, -71.2215, 100.516
1.68, 1, 19.7873, 55.2309, -4.12601, 74.263, -71.1674, 100.364
1.684, 1, 19.832, 55.2116, -4.15417, 74.3285, -71.1134, 100.213
1.688, 1, 19.8767, 55.1922, -4.18232, 74.3939, -71.0594, 100.061
1.692, 1, 19.9213, 55.1729, -4.21043, 74.4593, -71.0054, 99.9101
1.696, 1, 19.9659, 55.1536, -4.23852, 74.5246, -70.9515, 99.7589
1.7, 1, 20.0104, 55.1343, -4.26659, 74.5899, -70.8977, 99.6078
1.704, 1, 20.0549, 55.1151, -4.29463, 74.6551, -70.8439, 99.457
1.708, 1, 20.0994, 55.0958, -4.32265, 74.7203, -70.7901, 99.3062
1.712, 1, 20.1438, 55.0766, -4.35064, 74.7853, -70.7364, 99.1556
1.716, 1, 20.1881, 55.0574, -4.3786, 74.8504, -70.6827, 99.0051
1.72, 1, 20.2325, 55.0382, -4.40654, 74.9153, -70.6291, 98.8547
1.724, 1, 20.2768, 55.019, -4.43446, 74.9803, -70.5755, 98.7045
1.728, 1, 20.321, 54.9999, -4.46235, 75.0451, -70.522, 98.5544
1.732, 1, 20.3652, 54.9808, -4.49021, 75.1099, -70.4686, 98.4045
1.736, 1, 20.4094, 54.9616, -4.51805, 75.1746, -70.4151, 98.2547
1.74, 1, 20.4536, 54.9425, -4.54587, 75.2393, -70.3618, 98.105
1.744, 1, 20.4976, 54.9234, -4.57366, 75.3039, -70.3084, 97.9554
1.748, 1, 20.5417, 54.9044, -4.60142, 75.3685, -70.2552, 97.806
1.752, 1, 20.5857, 54.8853, -4.62916, 75.433, -70.2019, 97.6567
1.756, 1, 20.6297, 54.8663, -4.65688, 75.4975, -70.1487, 97.5076
1.76, 1, 20.6736, 54.8473, -4.68457, 75.5619, -70.0956, 97.3586
1.764, 1, 20.7175, 54.8282, -4.71224, 75.6262, -70.0425, 97.2097
1.768, 1, 20.7614, 54.8093, -4.73988, 75.6905, -69.9895, 97.0609
1.772, 1, 20.8052, 54.7903, -4.7675, 75.7547, -69.9365, 96.9123
1.776, 1, 20.849, 54.7713, -4.79509, 75.8189, -69.8835, 96.7638
1.78, 1, 20.8927, 54.7524, -4.82266, 75.883, -69.8306, 96.6155
1.784, 1, 20.9365, 54.7335, -4.8502, 75.947, -69.7778, 96.4672
1.788, 1, 20.9801, 54.7146, -4.87772, 76.011, -69.725, 96.3192
1.792, 1, 21.0238, 54.6957, -4.90522, 76.075, -69.6722, 96.1712
1.796, 1, 21.0673, 54.6768, -4.93269, 76.1388, -69.6195, 96.0234
1.8, 1, 21.1109, 54.658, -4.96014, 76.2027, -69.5668, 95.8757
1.804, 1, 21.1544, 54.6391, -4.98756, 76.2664, -69.5142, 95.7281
1.808, 1, 21.1979, 54.6203, -5.01496, 76.3301, -69.4616, 95.5806
1.812, 1, 21.2413, 54.6015, -5.04234, 76.3938, -69.4091, 95.4333
1.816, 1, 21.2847, 54.5827, -5.06969, 76.4574, -69.3566, 95.2861
1.82, 1, 21.3281, 54.5639, -5.09701, 76.5209, -69.3042, 95.1391
1.824, 1, 21.3714, 54.5452, -5.12432, 76.5844, -69.2518, 94.9921
1.828, 1, 21.4147, 54.5265, -5.1516, 76.6479, -69.1994, 94.8453
1.832, 1, 21.4579, 54.5077, -5.17885, 76.7113, -69.1471, 94.6987
1.836, 1, 21.5012, 54.489, -5.20609, 76.7746, -69.0949, 94.5521
1.84, 1, 21.5443, 54.4703, -5.23329, 76.8378, -69.0427, 94.4057
1.844, 1, 21.5875, 54.4517, -5.26048, 76.9011, -68.9905, 94.2594
1.848, 1, 21.6306, 54.433, -5.28764, 76.9642, -68.9384, 94.1133
1.852, 1, 21.6736, 54.4144, -5.31478, 77.0273, -68.8863, 93.9672
1.856, 1, 21.7166, 54.3957, -5.34189, 77.0904, -68.8343, 93.8213
1.86, 1, 21.7596, 54.3771, -5.36898, 77.1534, -68.7823, 93.6755
1.864, 1, 21.8026, 54.3585, -5.39605, 77.2163, -68.7304, 93.5299
1.868, 1, 21.8455, 54.34, -5.42309, 77.2792, -68.6785, 93.3843
1.872, 1, 21.8884, 54.3214, -5.45012, 77.342, -68.6266, 93.2389
1.876, 1, 21.9312, 54.3029, -5.47711, 77.4048, -68.5748, 93.0936
1.88, 1, 21.974, 54.2843, -5.50409, 77.4675, -68.523, 92.9485
1.884, 1, 22.0168, 54.2658, -5.53104, 77.5302, -68.4713, 92.8034
1.888, 1, 22.0595, 54.2473, -5.55797, 77.5928, -68.4197, 92.6585
1.892, 1, 22.1022, 54.2288, -5.58487, 77.6554, -68.368, 92.5137
1.896, 1, 22.1448, 54.2104, -5.61175, 77.7179, -68.3164, 92.3691
1.9, 1, 22.1875, 54.1919, -5.63861, 77.7804, -68.2649, 92.2245
1.904, 1, 22.23, 54.1735, -5.66545, 77.8428, -68.2134, 92.0801
1.908, 1, 22.2726, 54.1551, -5.69226, 77.9051, -68.162, 91.9358
1.912, 1, 22.3151, 54.1367, -5.71905, 77.9674, -68.1105, 91.7917
1.916, 1, 22.3576, 54.1183, -5.74582, 78.0297, -68.0592, 91.6476
1.92, 1, 22.4, 54.0999, -5.77256, 78.0919, -68.0079, 91.5037
1.924, 1, 22.4424, 54.0816, -5.79929, 78.154, -67.9566, 91.3599
1.928, 1, 22.4848, 54.0632, -5.82598, 78.2161, -67.9053, 91.2162
1.932, 1, 22.5271, 54.0449, -5.85266, 78.2781, -67.8542, 91.0727
1.936, 1, 22.5694, 54.0266, -5.87932, 78.3401, -67.803, 90.9292
1.94, 1, 22.6117, 54.0083, -5.90595, 78.402, -67.7519, 90.7859
1.944, 1, 22.6539, 53.99, -5.93256, 78.4639, -67.7009, 90.6427
1.948, 1, 22.6961, 53.9718, -5.95914, 78.5257, -67.6498, 90.4996
1.952, 1, 22.7382, 53.9535, -5.98571, 78.5875, -67.5989, 90.3567
1.956, 1, 22.7803, 53.9353, -6.01225, 78.6492, -67.5479, 90.2139
1.96, 1, 22.8224, 53.9171, -6.03877, 78.7109, -67.497, 90.0712
1.964, 1, 22.8645, 53.8989, -6.06527, 78.7725, -67.4462, 89.9286
1.968, 1, 22.9065, 53.8807, -6.09174, 78.8341, -67.3954, 89.7861
1.972, 1, 22.9484, 53.8625, -6.11819, 78.8956, -67.3446, 89.6437
1.976, 1, 22.9904, 53.8443, -6.14462, 78.957, -67.2939, 89.5015
1.98, 1, 23.0323, 53.8262, -6.17103, 79.0184, -67.2432, 89.3594
1.984, 1, 23.0742, 53.8081, -6.19742, 79.0798, -67.1926, 89.2174
1.988, 1, 23.116, 53.79, -6.22378, 79.1411, -67.142, 89.0755
1.992, 1, 23.1578, 53.7719, -6.25013, 79.2024, -67.0915, 88.9338
1.996, 1, 23.1995, 53.7538, -6.27645, 79.2636, -67.041, 88.7921
1.999, 1, 23.2413, 53.7357, -6.30275, 79.3247, -66.9905, 88.6506
2.004, 1, 23.283, 53.7177, -6.32902, 79.3858, -66.9401, 88.5092
2.008, 1, 23.3246, 53.6997, -6.35528, 79.4469, -66.8897, 88.3679
2.012, 1, 23.3663, 53.6816, -6.38151, 79.5079, -66.8394, 88.2267
2.015, 1, 23.4078, 53.6636, -6.40772, 79.5688, -66.7891, 88.0857
2.019, 1, 23.4494, 53.6456, -6.43391, 79.6297, -66.7388, 87.9447
2.024, 1, 23.4909, 53.6277, -6.46008, 79.6906, -66.6886, 87.8039
2.028, 1, 23.5324, 53.6097, -6.48623, 79.7514, -66.6384, 87.6632
2.031, 1, 23.5739, 53.5918, -6.51235, 79.8121, -66.5883, 87.5226
2.036, 1, 23.6153, 53.5738, -6.53845, 79.8728, -66.5382, 87.3822
2.04, 1, 23.6567, 53.5559, -6.56454, 79.9335, -66.4881, 87.2418
2.044, 1, 23.698, 53.538, -6.5906, 79.9941, -66.4381, 87.1016
2.048, 1, 23.7393, 53.5201, -6.61664, 80.0546, -66.3882, 86.9614
2.051, 1, 23.7806, 53.5023, -6.64265, 80.1152, -66.3382, 86.8214
2.055, 1, 23.8219, 53.4844, -6.66865, 80.1756, -66.2884, 86.6815
2.06, 1, 23.8631, 53.4666, -6.69463, 80.236, -66.2385, 86.5417
2.064, 1, 23.9043, 53.4487, -6.72058, 80.2964, -66.1887, 86.4021
2.068, 1, 23.9454, 53.4309, -6.74651, 80.3567, -66.139, 86.2625
2.071, 1, 23.9865, 53.4131, -6.77242, 80.4169, -66.0892, 86.1231
2.076, 1, 24.0276, 53.3953, -6.79831, 80.4771, -66.0396, 85.9838
2.08, 1, 24.0687, 53.3776, -6.82418, 80.5373, -65.9899, 85.8446
2.084, 1, 24.1097, 53.3598, -6.85003, 80.5974, -65.9403, 85.7055
2.087, 1, 24.1507, 53.3421, -6.87586, 80.6574, -65.8907, 85.5665
2.092, 1, 24.1916, 53.3243, -6.90167, 80.7175, -65.8412, 85.4276
2.096, 1, 24.2325, 53.3066, -6.92745, 80.7774, -65.7917, 85.2888
2.1, 1, 24.2734, 53.2889, -6.95322, 80.8373, -65.7423, 85.1502
2.104, 1, 24.3143, 53.2712, -6.97896, 80.8972, -65.6929, 85.0116
2.107, 1, 24.3551, 53.2536, -7.00468, 80.957, -65.6435, 84.8732
2.111, 1, 24.3959, 53.2359, -7.03039, 81.0168, -65.5942, 84.7349
2.116, 1, 24.4366, 53.2183, -7.05607, 81.0765, -65.5449, 84.5967
2.12, 1, 24.4773, 53.2007, -7.08173, 81.1362, -65.4957, 84.4586
2.124, 1, 24.518, 53.183, -7.10737, 81.1958, -65.4465, 84.3206
2.127, 1, 24.5587, 53.1654, -7.13299, 81.2554, -65.3973, 84.1827
2.132, 1, 24.5993, 53.1479, -7.15859, 81.3149, -65.3482, 84.045
2.136, 1, 24.6399, 53.1303, -7.18417, 81.3744, -65.2991, 83.9073
2.14, 1, 24.6804, 53.1127, -7.20973, 81.4338, -65.2501, 83.7698
2.143, 1, 24.721, 53.0952, -7.23527, 81.4932, -65.2011, 83.6323
2.148, 1, 24.7615, 53.0777, -7.26079, 81.5526, -65.1521, 83.495
2.152, 1, 24.8019, 53.0601, -7.28629, 81.6118, -65.1032, 83.3578
2.156, 1, 24.8424, 53.0426, -7.31177, 81.6711, -65.0543, 83.2207
2.16, 1, 24.8828, 53.0252, -7.33723, 81.7303, -65.0054, 83.0837
2.163, 1, 24.9231, 53.0077, -7.36266, 81.7895, -64.9566, 82.9468
2.168, 1, 24.9635, 52.9902, -7.38808, 81.8486, -64.9078, 82.81
2.172, 1, 25.0038, 52.9728, -7.41348, 81.9076, -64.8591, 82.6733
2.176, 1, 25.044, 52.9553, -7.43886, 81.9666, -64.8104, 82.5367
2.179, 1, 25.0843, 52.9379, -7.46422, 82.0256, -64.7617, 82.4003
2.184, 1, 25.1245, 52.9205, -7.48956, 82.0845, -64.7131, 82.2639
2.188, 1, 25.1646, 52.9031, -7.51488, 82.1434, -64.6645, 82.1277
2.192, 1, 25.2048, 52.8857, -7.54017, 82.2022, -64.616, 81.9915
2.196, 1, 25.2449, 52.8684, -7.56545, 82.261, -64.5675, 81.8555
2.199, 1, 25.285, 52.851, -7.59071, 82.3198, -64.519, 81.7195
2.204, 1, 25.325, 52.8337, -7.61595, 82.3785, -64.4706, 81.5837
2.208, 1, 25.3651, 52.8164, -7.64118, 82.4371, -64.4222, 81.448
2.212, 1, 25.405, 52.7991, -7.66638, 82.4957, -64.3738, 81.3124
2.216, 1, 25.445, 52.7818, -7.69156, 82.5543, -64.3255, 81.1769
2.219, 1, 25.4849, 52.7645, -7.71672, 82.6128, -64.2772, 81.0415
2.224, 1, 25.5248, 52.7472, -7.74186, 82.6712, -64.229, 80.9062
2.228, 1, 25.5647, 52.73, -7.76699, 82.7297, -64.1808, 80.771
2.232, 1, 25.6045, 52.7127, -7.79209, 82.788, -64.1326, 80.6359
2.235, 1, 25.6443, 52.6955, -7.81718, 82.8464, -64.0844, 80.5009
2.24, 1, 25.6841, 52.6783, -7.84224, 82.9047, -64.0364, 80.366
2.244, 1, 25.7238, 52.6611, -7.86729, 82.9629, -63.9883, 80.2312
2.248, 1, 25.7636, 52.6439, -7.89231, 83.0211, -63.9403, 80.0965
2.252, 1, 25.8032, 52.6267, -7.91732, 83.0793, -63.8923, 79.9619
2.255, 1, 25.8429, 52.6095, -7.94231, 83.1374, -63.8443, 79.8275
2.259, 1, 25.8825, 52.5924, -7.96728, 83.1954, -63.7964, 79.6931
2.264, 1, 25.9221, 52.5752, -7.99223, 83.2534, -63.7485, 79.5588
2.268, 1, 25.9617, 52.5581, -8.01717, 83.3114, -63.7007, 79.4247
2.272, 1, 26.0012, 52.541, -8.04208, 83.3694, -63.6529, 79.2906
2.275, 1, 26.0407, 52.5239, -8.06697, 83.4272, -63.6051, 79.1566
2.28, 1, 26.0802, 52.5068, -8.09185, 83.4851, -63.5574, 79.0228
2.284, 1, 26.1196, 52.4897, -8.1167, 83.5429, -63.5097, 78.889
2.288, 1, 26.159, 52.4727, -8.14154, 83.6007, -63.462, 78.7553
2.291, 1, 26.1984, 52.4556, -8.16636, 83.6584, -63.4144, 78.6218
2.296, 1, 26.2378, 52.4386, -8.19116, 83.716, -63.3668, 78.4883
2.3, 1, 26.2771, 52.4216, -8.21594, 83.7737, -63.3192, 78.3549
2.304, 1, 26.3164, 52.4046, -8.24071, 83.8312, -63.2717, 78.2217
2.308, 1, 26.3556, 52.3876, -8.26545, 83.8888, -63.2242, 78.0885
2.311, 1, 26.3949, 52.3706, -8.29018, 83.9463, -63.1768, 77.9555
2.316, 1, 26.4341, 52.3536, -8.31489, 84.0037, -63.1294, 77.8225
2.32, 1, 26.4732, 52.3366, -8.33958, 84.0612, -63.082, 77.6896
2.324, 1, 26.5124, 52.3197, -8.36425, 84.1185, -63.0347, 77.5569
2.328, 1, 26.5515, 52.3028, -8.3889, 84.1758, -62.9874, 77.4242
2.331, 1, 26.5906, 52.2858, -8.41353, 84.2331, -62.9401, 77.2916
2.336, 1, 26.6297, 52.2689, -8.43815, 84.2904, -62.8929, 77.1592
2.34, 1, 26.6687, 52.252, -8.46275, 84.3476, -62.8457, 77.0268
2.344, 1, 26.7077, 52.2352, -8.48733, 84.4047, -62.7985, 76.8945
2.347, 1, 26.7467, 52.2183, -8.51189, 84.4618, -62.7514, 76.7624
2.352, 1, 26.7856, 52.2014, -8.53643, 84.5189, -62.7043, 76.6303
2.356, 1, 26.8245, 52.1846, -8.56096, 84.576, -62.6572, 76.4983
2.36, 1, 26.8634, 52.1677, -8.58546, 84.6329, -62.6102, 76.3664
2.364, 1, 26.9023, 52.1509, -8.60995, 84.6899, -62.5632, 76.2346
2.367, 1, 26.9411, 52.1341, -8.63442, 84.7468, -62.5162, 76.103
2.372, 1, 26.9799, 52.1173, -8.65887, 84.8036, -62.4693, 75.9714
2.376, 1, 27.0187, 52.1005, -8.68331, 84.8605, -62.4224, 75.8399
2.38, 1, 27.0574, 52.0838, -8.70773, 84.9173, -62.3756, 75.7085
2.383, 1, 27.0961, 52.067, -8.73213, 84.974, -62.3287, 75.5772
2.388, 1, 27.1348, 52.0503, -8.75651, 85.0307, -62.282, 75.446
2.392, 1, 27.1735, 52.0335, -8.78087, 85.0873, -62.2352, 75.3148
2.396, 1, 27.2121, 52.0168, -8.80522, 85.144, -62.1885, 75.1838
2.4, 1, 27.2507, 52.0001, -8.82955, 85.2005, -62.1418, 75.0529
2.403, 1, 27.2893, 51.9834, -8.85386, 85.2571, -62.0951, 74.9221
2.408, 1, 27.3278, 51.9667, -8.87815, 85.3136, -62.0485, 74.7914
2.412, 1, 27.3664, 51.95, -8.90243, 85.37, -62.0019, 74.6607
2.416, 1, 27.4048, 51.9334, -8.92668, 85.4264, -61.9554, 74.5302
2.42, 1, 27.4433, 51.9167, -8.95093, 85.4828, -61.9089, 74.3997
2.423, 1, 27.4817, 51.9001, -8.97515, 85.5391, -61.8624, 74.2694
2.428, 1, 27.5202, 51.8834, -8.99935, 85.5954, -61.816, 74.1391
2.432, 1, 27.5585, 51.8668, -9.02354, 85.6516, -61.7695, 74.0089
2.436, 1, 27.5969, 51.8502, -9.04771, 85.7078, -61.7232, 73.8789
2.439, 1, 27.6352, 51.8336, -9.07187, 85.764, -61.6768, 73.7489
2.444, 1, 27.6735, 51.8171, -9.096, 85.8201, -61.6305, 73.619
2.448, 1, 27.7118, 51.8005, -9.12012, 85.8762, -61.5842, 73.4892
2.452, 1, 27.75, 51.7839, -9.14422, 85.9323, -61.538, 73.3595
2.456, 1, 27.7882, 51.7674, -9.16831, 85.9883, -61.4917, 73.2299
2.459, 1, 27.8264, 51.7509, -9.19238, 86.0443, -61.4456, 73.1004
2.464, 1, 27.8646, 51.7343, -9.21642, 86.1002, -61.3994, 72.971
2.468, 1, 27.9027, 51.7178, -9.24046, 86.1561, -61.3533, 72.8416
2.472, 1, 27.9408, 51.7013, -9.26447, 86.2119, -61.3072, 72.7124
2.476, 1, 27.9789, 51.6848, -9.28847, 86.2677, -61.2612, 72.5832
2.479, 1, 28.017, 51.6684, -9.31246, 86.3235, -61.2151, 72.4542
2.484, 1, 28.055, 51.6519, -9.33642, 86.3792, -61.1691, 72.3252
2.488, 1, 28.093, 51.6355, -9.36037, 86.4349, -61.1232, 72.1963
2.492, 1, 28.131, 51.619, -9.3843, 86.4906, -61.0773, 72.0675
2.495, 1, 28.1689, 51.6026, -9.40822, 86.5462, -61.0314, 71.9388
2.5, 1, 28.2069, 51.5862, -9.43212, 86.6018, -60.9855, 71.8102
2.504, 1, 28.2448, 51.5698, -9.456, 86.6573, -60.9397, 71.6817
2.508, 1, 28.2826, 51.5534, -9.47986, 86.7128, -60.8939, 71.5533
2.512, 1, 28.3205, 51.537, -9.50371, 86.7682, -60.8481, 71.4249
2.515, 1, 28.3583, 51.5206, -9.52754, 86.8237, -60.8024, 71.2967
2.52, 1, 28.3961, 51.5043, -9.55136, 86.879, -60.7567, 71.1685
2.524, 1, 28.4338, 51.4879, -9.57516, 86.9344, -60.711, 71.0405
2.528, 1, 28.4716, 51.4716, -9.59894, 86.9897, -60.6654, 70.9125
2.531, 1, 28.5093, 51.4553, -9.62271, 87.0449, -60.6198, 70.7846
2.536, 1, 28.547, 51.4389, -9.64646, 87.1002, -60.5742, 70.6568
2.54, 1, 28.5846, 51.4226, -9.67019, 87.1554, -60.5287, 70.5291
2.544, 1, 28.6223, 51.4063, -9.69391, 87.2105, -60.4832, 70.4014
2.548, 1, 28.6599, 51.3901, -9.71761, 87.2656, -60.4377, 70.2739
2.551, 1, 28.6974, 51.3738, -9.74129, 87.3207, -60.3922, 70.1464
2.556, 1, 28.735, 51.3575, -9.76496, 87.3757, -60.3468, 70.0191
2.56, 1, 28.7725, 51.3413, -9.78861, 87.4307, -60.3014, 69.8918
2.564, 1, 28.81, 51.3251, -9.81225, 87.4857, -60.2561, 69.7646
2.568, 1, 28.8475, 51.3088, -9.83587, 87.5406, -60.2108, 69.6375
2.571, 1, 28.885, 51.2926, -9.85947, 87.5955, -60.1655, 69.5104
2.576, 1, 28.9224, 51.2764, -9.88306, 87.6504, -60.1202, 69.3835
2.58, 1, 28.9598, 51.2602, -9.90663, 87.7052, -60.075, 69.2567
2.584, 1, 28.9972, 51.244, -9.93019, 87.76, -60.0298, 69.1299
2.587, 1, 29.0345, 51.2279, -9.95373, 87.8147, -59.9846, 69.0032
2.592, 1, 29.0719, 51.2117, -9.97726, 87.8694, -59.9394, 68.8766
2.596, 1, 29.1092, 51.1956, -10.0008, 87.9241, -59.8943, 68.7501
2.6, 1, 29.1464, 51.1794, -10.0243, 87.9787, -59.8493, 68.6237
2.604, 1, 29.1837, 51.1633, -10.0477, 88.0333, -59.8042, 68.4973
2.607, 1, 29.2209, 51.1472, -10.0712, 88.0879, -59.7592, 68.3711
2.612, 1, 29.2581, 51.1311, -10.0946, 88.1424, -59.7142, 68.2449
2.616, 1, 29.2953, 51.115, -10.1181, 88.1969, -59.6692, 68.1188
2.62, 1, 29.3325, 51.0989, -10.1415, 88.2513, -59.6243, 67.9928
2.624, 1, 29.3696, 51.0828, -10.1649, 88.3057, -59.5794, 67.8669
2.627, 1, 29.4067, 51.0668, -10.1883, 88.3601, -59.5345, 67.7411
2.632, 1, 29.4438, 51.0507, -10.2116, 88.4144, -59.4897, 67.6153
2.636, 1, 29.4808, 51.0347, -10.235, 88.4688, -59.4449, 67.4896
2.64, 1, 29.5179, 51.0186, -10.2583, 88.523, -59.4001, 67.3641
2.643, 1, 29.5549, 51.0026, -10.2816, 88.5772, -59.3553, 67.2386
2.648, 1, 29.5918, 50.9866, -10.305, 88.6314, -59.3106, 67.1131
2.652, 1, 29.6288, 50.9706, -10.3282, 88.6856, -59.2659, 66.9878
2.656, 1, 29.6657, 50.9546, -10.3515, 88.7397, -59.2213, 66.8625
2.66, 1, 29.7026, 50.9386, -10.3748, 88.7938, -59.1766, 66.7374
2.663, 1, 29.7395, 50.9227, -10.398, 88.8479, -59.132, 66.6123
2.668, 1, 29.7764, 50.9067, -10.4213, 88.9019, -59.0874, 66.4873
2.672, 1, 29.8132, 50.8908, -10.4445, 88.9559, -59.0429, 66.3624
2.676, 1, 29.85, 50.8748, -10.4677, 89.0098, -58.9984, 66.2375
2.679, 1, 29.8868, 50.8589, -10.4909, 89.0637, -58.9539, 66.1127
2.684, 1, 29.9236, 50.843, -10.514, 89.1176, -58.9094, 65.9881
2.688, 1, 29.9603, 50.8271, -10.5372, 89.1715, -58.865, 65.8634
2.692, 1, 29.997, 50.8112, -10.5603, 89.2253, -58.8206, 65.7389
2.696, 1, 30.0337, 50.7953, -10.5834, 89.279, -58.7762, 65.6145
2.699, 1, 30.0704, 50.7794, -10.6066, 89.3328, -58.7319, 65.4901
2.704, 1, 30.107, 50.7636, -10.6296, 89.3865, -58.6876, 65.3658
2.708, 1, 30.1437, 50.7477, -10.6527, 89.4402, -58.6433, 65.2416
2.712, 1, 30.1803, 50.7319, -10.6758, 89.4938, -58.599, 65.1175
2.716, 1, 30.2168, 50.716, -10.6988, 89.5474, -58.5548, 64.9935
2.719, 1, 30.2534, 50.7002, -10.7219, 89.601, -58.5106, 64.8695
2.724, 1, 30.2899, 50.6844, -10.7449, 89.6545, -58.4664, 64.7456
2.728, 1, 30.3264, 50.6686, -10.7679, 89.708, -58.4223, 64.6218
2.732, 1, 30.3629, 50.6528, -10.7909, 89.7615, -58.3781, 64.4981
2.735, 1, 30.3994, 50.637, -10.8139, 89.8149, -58.3341, 64.3745
2.74, 1, 30.4358, 50.6213, -10.8368, 89.8683, -58.29, 64.2509
2.744, 1, 30.4722, 50.6055, -10.8598, 89.9216, -58.246, 64.1274
2.748, 1, 30.5086, 50.5897, -10.8827, 89.975, -58.202, 64.004
2.752, 1, 30.545, 50.574, -10.9056, 90.0283, -58.158, 63.8807
2.755, 1, 30.5813, 50.5583, -10.9285, 90.0815, -58.114, 63.7574
2.76, 1, 30.6176, 50.5425, -10.9514, 90.1347, -58.0701, 63.6342
2.764, 1, 30.6539, 50.5268, -10.9743, 90.1879, -58.0262, 63.5111
2.768, 1, 30.6902, 50.5111, -10.9972, 90.2411, -57.9823, 63.3881
2.772, 1, 30.7265, 50.4954, -11.02, 90.2942, -57.9385, 63.2652
2.775, 1, 30.7627, 50.4798, -11.0428, 90.3473, -57.8947, 63.1423
2.78, 1, 30.7989, 50.4641, -11.0657, 90.4004, -57.8509, 63.0195
2.784, 1, 30.8351, 50.4484, -11.0885, 90.4534, -57.8071, 62.8968
2.788, 1, 30.8712, 50.4328, -11.1112, 90.5064, -57.7634, 62.7742
2.791, 1, 30.9074, 50.4171, -11.134, 90.5594, -57.7197, 62.6516
2.796, 1, 30.9435, 50.4015, -11.1568, 90.6123, -57.676, 62.5291
2.8, 1, 30.9796, 50.3859, -11.1795, 90.6652, -57.6324, 62.4067
2.804, 1, 31.0156, 50.3703, -11.2023, 90.718, -57.5888, 62.2844
2.808, 1, 31.0517, 50.3546, -11.225, 90.7709, -57.5452, 62.1621
2.811, 1, 31.0877, 50.3391, -11.2477, 90.8237, -57.5016, 62.0399
2.816, 1, 31.1237, 50.3235, -11.2704, 90.8764, -57.4581, 61.9178
2.82, 1, 31.1597, 50.3079, -11.293, 90.9292, -57.4146, 61.7958
2.824, 1, 31.1957, 50.2923, -11.3157, 90.9819, -57.3711, 61.6739
2.828, 1, 31.2316, 50.2768, -11.3384, 91.0345, -57.3276, 61.552
2.831, 1, 31.2675, 50.2612, -11.361, 91.0872, -57.2842, 61.4302
2.836, 1, 31.3034, 50.2457, -11.3836, 91.1398, -57.2408, 61.3084
2.84, 1, 31.3393, 50.2302, -11.4062, 91.1923, -57.1974, 61.1868
2.844, 1, 31.3751, 50.2146, -11.4288, 91.2449, -57.154, 61.0652
2.847, 1, 31.411, 50.1991, -11.4514, 91.2974, -57.1107, 60.9437
2.852, 1, 31.4468, 50.1836, -11.474, 91.3498, -57.0674, 60.8223
2.856, 1, 31.4825, 50.1681, -11.4965, 91.4023, -57.0241, 60.7009
2.86, 1, 31.5183, 50.1526, -11.519, 91.4547, -56.9809, 60.5796
2.864, 1, 31.554, 50.1372, -11.5416, 91.5071, -56.9377, 60.4584
2.867, 1, 31.5898, 50.1217, -11.5641, 91.5594, -56.8945, 60.3373
2.872, 1, 31.6255, 50.1063, -11.5866, 91.6117, -56.8513, 60.2162
2.876, 1, 31.6611, 50.0908, -11.6091, 91.664, -56.8082, 60.0952
2.88, 1, 31.6968, 50.0754, -11.6315, 91.7163, -56.765, 59.9743
2.883, 1, 31.7324, 50.06, -11.654, 91.7685, -56.7219, 59.8535
2.888, 1, 31.768, 50.0445, -11.6764, 91.8207, -56.6789, 59.7327
2.892, 1, 31.8036, 50.0291, -11.6989, 91.8728, -56.6358, 59.612
2.896, 1, 31.8392, 50.0137, -11.7213, 91.9249, -56.5928, 59.4914
2.9, 1, 31.8747, 49.9983, -11.7437, 91.977, -56.5498, 59.3708
2.903, 1, 31.9103, 49.983, -11.7661, 92.0291, -56.5069, 59.2503
2.908, 1, 31.9458, 49.9676, -11.7884, 92.0811, -56.4639, 59.1299
2.912, 1, 31.9812, 49.9522, -11.8108, 92.1331, -56.421, 59.0096
2.916, 1, 32.0167, 49.9369, -11.8331, 92.1851, -56.3781, 58.8893
2.92, 1, 32.0522, 49.9215, -11.8555, 92.2371, -56.3353, 58.7691
2.923, 1, 32.0876, 49.9062, -11.8778, 92.289, -56.2925, 58.649
2.928, 1, 32.123, 49.8909, -11.9001, 92.3408, -56.2496, 58.5289
2.932, 1, 32.1584, 49.8756, -11.9224, 92.3927, -56.2069, 58.4089
2.936, 1, 32.1937, 49.8603, -11.9447, 92.4445, -56.1641, 58.289
2.939, 1, 32.229, 49.845, -11.967, 92.4963, -56.1214, 58.1692
2.944, 1, 32.2644, 49.8297, -11.9892, 92.548, -56.0786, 58.0494
2.948, 1, 32.2997, 49.8144, -12.0115, 92.5998, -56.036, 57.9297
2.952, 1, 32.3349, 49.7991, -12.0337, 92.6515, -55.9933, 57.8101
2.956, 1, 32.3702, 49.7839, -12.0559, 92.7031, -55.9507, 57.6905
2.959, 1, 32.4054, 49.7686, -12.0781, 92.7548, -55.9081, 57.571
2.964, 1, 32.4406, 49.7534, -12.1003, 92.8064, -55.8655, 57.4516
2.968, 1, 32.4758, 49.7381, -12.1225, 92.858, -55.8229, 57.3322
2.972, 1, 32.511, 49.7229, -12.1447, 92.9095, -55.7804, 57.2129
2.976, 1, 32.5462, 49.7077, -12.1668, 92.961, -55.7379, 57.0937
2.98, 1, 32.5813, 49.6925, -12.189, 93.0125, -55.6954, 56.9746
2.984, 1, 32.6164, 49.6773, -12.2111, 93.064, -55.6529, 56.8555
2.988, 1, 32.6515, 49.6621, -12.2332, 93.1154, -55.6105, 56.7365
2.992, 1, 32.6866, 49.6469, -12.2553, 93.1668, -55.5681, 56.6175
2.995, 1, 32.7216, 49.6317, -12.2774, 93.2182, -55.5257, 56.4986
3, 1, 32.7567, 49.6166, -12.2995, 93.2695, -55.4833, 56.3798
3.004, 1, 32.7917, 49.6014, -12.3215, 93.3208, -55.441, 56.2611
3.008, 1, 32.8267, 49.5863, -12.3436, 93.3721, -55.3986, 56.1424
3.012, 1, 32.8616, 49.5711, -12.3656, 93.4233, -55.3564, 56.0238
3.015, 1, 32.8966, 49.556, -12.3877, 93.4746, -55.3141, 55.9053
3.02, 1, 32.9315, 49.5409, -12.4097, 93.5258, -55.2718, 55.7868
3.024, 1, 32.9664, 49.5258, -12.4317, 93.5769, -55.2296, 55.6684
3.028, 1, 33.0013, 49.5106, -12.4537, 93.6281, -55.1874, 55.5501
3.031, 1, 33.0362, 49.4956, -12.4756, 93.6792, -55.1452, 55.4318
3.036, 1, 33.071, 49.4805, -12.4976, 93.7302, -55.1031, 55.3136
3.04, 1, 33.1059, 49.4654, -12.5196, 93.7813, -55.061, 55.1954
3.044, 1, 33.1407, 49.4503, -12.5415, 93.8323, -55.0189, 55.0774
3.048, 1, 33.1755, 49.4352, -12.5634, 93.8833, -54.9768, 54.9594
3.051, 1, 33.2103, 49.4202, -12.5853, 93.9343, -54.9347, 54.8414
3.056, 1, 33.245, 49.4051, -12.6072, 93.9852, -54.8927, 54.7235
3.06, 1, 33.2798, 49.3901, -12.6291, 94.0361, -54.8507, 54.6057
3.064, 1, 33.3145, 49.3751, -12.651, 94.087, -54.8087, 54.488
3.068, 1, 33.3492, 49.3601, -12.6729, 94.1378, -54.7668, 54.3703
3.071, 1, 33.3838, 49.345, -12.6947, 94.1887, -54.7248, 54.2527
3.076, 1, 33.4185, 49.33, -12.7166, 94.2395, -54.6829, 54.1352
3.08, 1, 33.4531, 49.315, -12.7384, 94.2902, -54.641, 54.0177
3.084, 1, 33.4878, 49.3001, -12.7602, 94.341, -54.5991, 53.9003
3.087, 1, 33.5224, 49.2851, -12.782, 94.3917, -54.5573, 53.7829
3.092, 1, 33.557, 49.2701, -12.8038, 94.4424, -54.5155, 53.6656
3.096, 1, 33.5915, 49.2551, -12.8256, 94.493, -54.4737, 53.5484
3.1, 1, 33.6261, 49.2402, -12.8474, 94.5436, -54.4319, 53.4312
3.104, 1, 33.6606, 49.2252, -12.8691, 94.5942, -54.3901, 53.3141
3.107, 1, 33.6951, 49.2103, -12.8909, 94.6448, -54.3484, 53.1971
3.112, 1, 33.7296, 49.1954, -12.9126, 94.6954, -54.3067, 53.0801
3.116, 1, 33.7641, 49.1805, -12.9344, 94.7459, -54.265, 52.9632
3.12, 1, 33.7985, 49.1655, -12.9561, 94.7964, -54.2234, 52.8464
3.124, 1, 33.8329, 49.1506, -12.9778, 94.8468, -54.1817, 52.7296
3.128, 1, 33.8673, 49.1357, -12.9994, 94.8973, -54.1401, 52.6129
3.132, 1, 33.9017, 49.1208, -13.0211, 94.9477, -54.0985, 52.4963
3.136, 1, 33.9361, 49.106, -13.0428, 94.998, -54.0569, 52.3797
3.14, 1, 33.9705, 49.0911, -13.0644, 95.0484, -54.0154, 52.2632
3.143, 1, 34.0048, 49.0762, -13.0861, 95.0987, -53.9738, 52.1467
3.148, 1, 34.0391, 49.0614, -13.1077, 95.149, -53.9323, 52.0303
3.152, 1, 34.0734, 49.0465, -13.1293, 95.1993, -53.8909, 51.914
3.156, 1, 34.1077, 49.0317, -13.1509, 95.2495, -53.8494, 51.7977
3.16, 1, 34.142, 49.0168, -13.1725, 95.2997, -53.808, 51.6815
3.163, 1, 34.1762, 49.002, -13.1941, 95.3499, -53.7665, 51.5653
3.168, 1, 34.2105, 48.9872, -13.2157, 95.4001, -53.7251, 51.4492
3.172, 1, 34.2447, 48.9724, -13.2372, 95.4502, -53.6838, 51.3332
3.176, 1, 34.2789, 48.9576, -13.2588, 95.5003, -53.6424, 51.2173
3.179, 1, 34.313, 48.9428, -13.2803, 95.5504, -53.6011, 51.1014
3.184, 1, 34.3472, 48.928, -13.3019, 95.6005, -53.5598, 50.9855
3.188, 1, 34.3813, 48.9132, -13.3234, 95.6505, -53.5185, 50.8698
3.192, 1, 34.4154, 48.8985, -13.3449, 95.7005, -53.4772, 50.754
3.196, 1, 34.4496, 48.8837, -13.3664, 95.7505, -53.436, 50.6384
3.199, 1, 34.4836, 48.8689, -13.3878, 95.8004, -53.3948, 50.5228
3.204, 1, 34.5177, 48.8542, -13.4093, 95.8504, -53.3536, 50.4072
3.208, 1, 34.5517, 48.8395, -13.4308, 95.9003, -53.3124, 50.2918
3.212, 1, 34.5858, 48.8247, -13.4522, 95.9501, -53.2713, 50.1764
3.216, 1, 34.6198, 48.81, -13.4737, 96, -53.2301, 50.061
3.22, 1, 34.6538, 48.7953, -13.4951, 96.0498, -53.189, 49.9457
3.224, 1, 34.6878, 48.7806, -13.5165, 96.0996, -53.1479, 49.8305
3.228, 1, 34.7217, 48.7659, -13.5379, 96.1494, -53.1069, 49.7153
3.232, 1, 34.7557, 48.7512, -13.5593, 96.1991, -53.0658, 49.6002
3.235, 1, 34.7896, 48.7365, -13.5807, 96.2488, -53.0248, 49.4852
3.24, 1, 34.8235, 48.7218, -13.602, 96.2985, -52.9838, 49.3702
3.244, 1, 34.8574, 48.7071, -13.6234, 96.3482, -52.9428, 49.2552
3.248, 1, 34.8912, 48.6925, -13.6447, 96.3978, -52.9018, 49.1404
3.252, 1, 34.9251, 48.6778, -13.6661, 96.4474, -52.8609, 49.0256
3.255, 1, 34.9589, 48.6632, -13.6874, 96.497, -52.82, 48.9108
3.26, 1, 34.9928, 48.6485, -13.7087, 96.5466, -52.7791, 48.7961
3.264, 1, 35.0266, 48.6339, -13.73, 96.5961, -52.7382, 48.6815
3.268, 1, 35.0603, 48.6193, -13.7513, 96.6456, -52.6973, 48.5669
3.272, 1, 35.0941, 48.6047, -13.7726, 96.6951, -52.6565, 48.4524
3.276, 1, 35.1279, 48.5901, -13.7938, 96.7446, -52.6157, 48.3379
3.28, 1, 35.1616, 48.5755, -13.8151, 96.794, -52.5749, 48.2235
3.284, 1, 35.1953, 48.5609, -13.8364, 96.8434, -52.5341, 48.1092
3.288, 1, 35.229, 48.5463, -13.8576, 96.8928, -52.4934, 47.9949
3.291, 1, 35.2627, 48.5317, -13.8788, 96.9422, -52.4526, 47.8806
3.296, 1, 35.2962, 48.5171, -13.9, 96.9915, -52.4119, 47.7665
3.3, 1, 35.3296, 48.5027, -13.9213, 97.0408, -52.3713, 47.6524
3.304, 1, 35.3628, 48.4883, -13.9425, 97.0901, -52.3306, 47.5384
3.308, 1, 35.3956, 48.474, -13.9637, 97.1393, -52.29, 47.4244
3.312, 1, 35.428, 48.4599, -13.985, 97.1884, -52.2495, 47.3107
3.316, 1, 35.4598, 48.4461, -14.0062, 97.2374, -52.209, 47.1972
3.32, 1, 35.4907, 48.4328, -14.0275, 97.2863, -52.1688, 47.0841
3.324, 1, 35.5207, 48.42, -14.0488, 97.3348, -52.1287, 46.9717
3.328, 1, 35.5496, 48.4078, -14.07, 97.383, -52.0891, 46.8602
3.332, 1, 35.5773, 48.3962, -14.0911, 97.4305, -52.0499, 46.7501
3.336, 1, 35.6038, 48.3854, -14.112, 97.4772, -52.0115, 46.642
3.34, 1, 35.6292, 48.375, -14.1324, 97.5227, -51.9741, 46.5365
3.344, 1, 35.6535, 48.3652, -14.1523, 97.5668, -51.9378, 46.4342
3.347, 1, 35.6769, 48.3559, -14.1715, 97.6092, -51.9029, 46.3359
3.352, 1, 35.6992, 48.3469, -14.1897, 97.6496, -51.8697, 46.2424
3.356, 1, 35.7205, 48.3383, -14.2068, 97.6876, -51.8384, 46.1543
3.36, 1, 35.7407, 48.3301, -14.2227, 97.723, -51.8092, 46.0722
3.364, 1, 35.7598, 48.3223, -14.2372, 97.7556, -51.7824, 45.9966
3.368, 1, 35.778, 48.3147, -14.2503, 97.7853, -51.758, 45.928
3.372, 1, 35.7954, 48.3073, -14.2618, 97.8118, -51.7361, 45.8665
3.376, 1, 35.812, 48.3, -14.2718, 97.8352, -51.7167, 45.8124
3.38, 1, 35.828, 48.2928, -14.2802, 97.8555, -51.6999, 45.7654
3.383, 1, 35.8432, 48.2858, -14.2871, 97.8729, -51.6856, 45.7254
3.388, 1, 35.8575, 48.279, -14.2926, 97.8874, -51.6735, 45.6918
3.392, 1, 35.8705, 48.2727, -14.297, 97.8994, -51.6634, 45.6642
3.396, 2, 35.8823, 48.2669, -14.3004, 97.9092, -51.6553, 45.6417
3.4, 2, 35.8927, 48.2617, -14.3029, 97.917, -51.6488, 45.6239
3.403, 2, 35.9019, 48.2571, -14.3047, 97.923, -51.6437, 45.61
3.408, 2, 35.91, 48.2531, -14.306, 97.9277, -51.6398, 45.5994
3.412, 2, 35.9172, 48.2496, -14.3068, 97.9312, -51.6368, 45.5915
3.416, 2, 35.9234, 48.2466, -14.3073, 97.9337, -51.6346, 45.5857
3.42, 2, 35.9287, 48.2442, -14.3076, 97.9355, -51.6331, 45.5815
3.424, 2, 35.933, 48.2422, -14.3077, 97.9368, -51.632, 45.5787
3.428, 2, 35.9364, 48.2406, -14.3078, 97.9377, -51.6312, 45.5767
3.432, 2, 35.939, 48.2395, -14.3078, 97.9383, -51.6307, 45.5753
3.436, 2, 35.9407, 48.2388, -14.3078, 97.9387, -51.6303, 45.5744
3.439, 2, 35.942, 48.2382, -14.3078, 97.939, -51.6301, 45.5738
3.444, 2, 35.9428, 48.2379, -14.3078, 97.9392, -51.6299, 45.5733
3.448, 2, 35.9434, 48.2376, -14.3078, 97.9393, -51.6298, 45.573
3.452, 2, 35.9437, 48.2375, -14.3078, 97.9394, -51.6297, 45.5728
3.456, 2, 35.944, 48.2374, -14.3078, 97.9395, -51.6297, 45.5727
3.46, 2, 35.9442, 48.2373, -14.3078, 97.9395, -51.6296, 45.5726
3.464, 2, 35.9443, 48.2372, -14.3078, 97.9395, -51.6296, 45.5726
3.468, 2, 35.9444, 48.2372, -14.3078, 97.9395, -51.6296, 45.5725
3.472, 2, 35.9444, 48.2372, -14.3078, 97.9395, -51.6296, 45.5725
3.476, 2, 35.9445, 48.2372, -14.3078, 97.9396, -51.6296, 45.5725
3.48, 2, 35.9445, 48.2372, -14.3078, 97.9396, -51.6296, 45.5725
3.484, 2, 35.9445, 48.2371, -14.3078, 97.9396, -51.6296, 45.5725
3.488, 2, 35.9445, 48.2371, -14.3078, 97.9396, -51.6296, 45.5725
3.492, 2, 35.9445, 48.2371, -14.3078, 97.9396, -51.6296, 45.5724
3.495, 2, 35.9445, 48.2371, -14.3078, 97.9396, -51.6295, 45.5724
3.5, 2, 35.9445, 48.2371, -14.3078, 97.9396, -51.6295, 45.5724
3.504, 2, 35.9445, 48.2371, -14.3078, 97.9396, -51.6295, 45.5724
3.508, 2, 35.9445, 48.2371, -14.3078, 97.9396, -51.6295, 45.5724
3.512, 2, 35.9445, 48.2371, -14.3078, 97.9396, -51.6295, 45.5724
3.516, 2, 35.9445, 48.2371, -14.3078, 97.9396, -51.6295, 45.5724
3.52, 2, 35.9445, 48.2371, -14.3078, 97.9396, -51.6295, 45.5724
3.524, 2, 35.9445, 48.2371, -14.3078, 97.9396, -51.6295, 45.5724
3.528, 2, 35.9445, 48.2371, -14.3078, 97.9396, -51.6295, 45.5724
3.531, 2, 35.9445, 48.2371, -14.3078, 97.9396, -51.6295, 45.5724
3.536, 2, 35.9445, 48.2371, -14.3078, 97.9396, -51.6295, 45.5724
3.54, 2, 35.9445, 48.2371, -14.3078, 97.9396, -51.6295, 45.5724
3.544, 2, 35.9445, 48.2371, -14.3078, 97.9396, -51.6295, 45.5724
3.548, 2, 35.9445, 48.2371, -14.3078, 97.9396, -51.6295, 45.5724
3.552, 2, 35.9445, 48.2371, -14.3078, 97.9396, -51.6295, 45.5724
3.556, 2, 35.9445, 48.2371, -14.3078, 97.9396, -51.6295, 45.5724
3.56, 2, 35.9445, 48.2371, -14.3078, 97.9396, -51.6295, 45.5724
3.564, 2, 35.9445, 48.2371, -14.3078, 97.9396, -51.6295, 45.5724
3.568, 2, 35.9445, 48.2371, -14.3078, 97.9396, -51.6295, 45.5724
3.572, 2, 35.9445, 48.2371, -14.3078, 97.9396, -51.6295, 45.5724
3.576, 2, 35.9445, 48.2371, -14.3078, 97.9396, -51.6295, 45.5724
3.58, 2, 35.9445, 48.2371, -14.3078, 97.9396, -51.6295, 45.5724
3.584, 2, 35.9445, 48.2371, -14.3078, 97.9396, -51.6295, 45.5724
3.587, 2, 35.9445, 48.2371, -14.3078, 97.9396, -51.6295, 45.5724
3.592, 2, 35.9445, 48.2371, -14.3078, 97.9396, -51.6295, 45.5724
3.596, 2, 35.9445, 48.2371, -14.3078, 97.9396, -51.6295, 45.5724
3.6, 2, 35.9445, 48.2371, -14.3078, 97.9396, -51.6295, 45.5724
3.604, 2, 35.9445, 48.2371, -14.3078, 97.9396, -51.6295, 45.5724
3.608, 2, 35.9445, 48.2371, -14.3078, 97.9396, -51.6295, 45.5724
3.612, 2, 35.9445, 48.2371, -14.3078, 97.9396, -51.6295, 45.5724
3.616, 2, 35.9445, 48.2371, -14.3078, 97.9396, -51.6295, 45.5724
3.62, 2, 35.9445, 48.2371, -14.3078, 97.9396, -51.6295, 45.5724
3.624, 2, 35.9445, 48.2371, -14.3078, 97.9396, -51.6295, 45.5724
3.628, 2, 35.9445, 48.2371, -14.3078, 97.9396, -51.6295, 45.5724
3.632, 2, 35.9445, 48.2371, -14.3078, 97.9396, -51.6295, 45.5724
3.636, 2, 35.9445, 48.2371, -14.3078, 97.9396, -51.6295, 45.5724
3.64, 2, 35.9445, 48.2371, -14.3078, 97.9396, -51.6295, 45.5724
3.644, 2, 35.9445, 48.2371, -14.3078, 97.9396, -51.6295, 45.5724
3.648, 2, 35.9445, 48.2371, -14.3078, 97.9396, -51.6295, 45.5724
3.652, 2, 35.9445, 48.2371, -14.3078, 97.9396, -51.6295, 45.5724
3.656, 2, 35.9445, 48.2371, -14.3078, 97.9396, -51.6295, 45.5724
3.66, 2, 35.9445, 48.2371, -14.3078, 97.9396, -51.6295, 45.5724
3.664, 2, 35.9445, 48.2371, -14.3078, 97.9396, -51.6295, 45.5724
3.668, 2, 35.9445, 48.2371, -14.3078, 97.9396, -51.6295, 45.5724
3.672, 2, 35.9445, 48.2371, -14.3078, 97.9396, -51.6295, 45.5724
3.676, 2, 35.9445, 48.2371, -14.3078, 97.9396, -51.6295, 45.5724
3.679, 2, 35.9445, 48.2371, -14.3078, 97.9396, -51.6295, 45.5724
3.684, 2, 35.9445, 48.2371, -14.3078, 97.9396, -51.6295, 45.5724
3.688, 2, 35.9445, 48.2371, -14.3078, 97.9396, -51.6295, 45.5724
3.692, 2, 35.9445, 48.2371, -14.3078, 97.9396, -51.6295, 45.5724
3.696, 2, 35.9445, 48.2371, -14.3078, 97.9396, -51.6295, 45.5724
3.7, 2, 35.9445, 48.2371, -14.3078, 97.9396, -51.6295, 45.5724
3.704, 2, 35.9445, 48.2371, -14.3078, 97.9396, -51.6295, 45.5724
3.708, 2, 35.9445, 48.2371, -14.3078, 97.9396, -51.6295, 45.5724
3.712, 2, 35.9445, 48.2371, -14.3078, 97.9396, -51.6295, 45.5724
3.716, 2, 35.9445, 48.2371, -14.3078, 97.9396, -51.6295, 45.5724
3.72, 2, 35.9445, 48.2371, -14.3078, 97.9396, -51.6295, 45.5724
3.724, 2, 35.9445, 48.2371, -14.3078, 97.9396, -51.6295, 45.5724
3.728, 2, 35.9445, 48.2371, -14.3078, 97.9396, -51.6295, 45.5724
3.732, 2, 35.9445, 48.2371, -14.3078, 97.9396, -51.6295, 45.5724
3.735, 2, 35.9445, 48.2371, -14.3078, 97.9396, -51.6295, 45.5724
3.74, 2, 35.9445, 48.2371, -14.3078, 97.9396, -51.6295, 45.5724
3.744, 2, 35.9445, 48.2371, -14.3078, 97.9396, -51.6295, 45.5724
3.748, 2, 35.9445, 48.2371, -14.3078, 97.9396, -51.6295, 45.5724
3.752, 2, 35.9445, 48.2371, -14.3078, 97.9396, -51.6295, 45.5724
3.756, 2, 35.9445, 48.2371, -14.3078, 97.9396, -51.6295, 45.5724
3.76, 2, 35.9445, 48.2371, -14.3078, 97.9396, -51.6295, 45.5724
3.764, 2, 35.9445, 48.2371, -14.3078, 97.9396, -51.6295, 45.5724
3.768, 2, 35.9445, 48.2371, -14.3078, 97.9396, -51.6295, 45.5724
3.772, 2, 35.9445, 48.2371, -14.3078, 97.9396, -51.6295, 45.5724
3.776, 2, 35.9445, 48.2371, -14.3078, 97.9396, -51.6295, 45.5724
3.78, 2, 35.9445, 48.2371, -14.3078, 97.9396, -51.6295, 45.5724
3.784, 2, 35.9445, 48.2371, -14.3078, 97.9396, -51.6295, 45.5724
3.788, 2, 35.9445, 48.2371, -14.3078, 97.9396, -51.6295, 45.5724
3.792, 2, 35.9445, 48.2371, -14.3078, 97.9396, -51.6295, 45.5724
3.796, 2, 35.9445, 48.2371, -14.3078, 97.9396, -51.6295, 45.5724
3.8, 2, 35.9445, 48.2371, -14.3078, 97.9396, -51.6295, 45.5724
3.804, 2, 35.9445, 48.2371, -14.3078, 97.9396, -51.6295, 45.5724
3.808, 2, 35.9445, 48.2371, -14.3078, 97.9396, -51.6295, 45.5724
3.812, 2, 35.9445, 48.2371, -14.3078, 97.9396, -51.6295, 45.5724
3.816, 2, 35.9445, 48.2371, -14.3078, 97.9396, -51.6295, 45.5724
3.82, 2, 35.9445, 48.2371, -14.3078, 97.9396, -51.6295, 45.5724
3.824, 2, 35.9445, 48.2371, -14.3078, 97.9396, -51.6295, 45.5724
3.828, 2, 35.9445, 48.2371, -14.3078, 97.9396, -51.6295, 45.5724
3.832, 2, 35.9445, 48.2371, -14.3078, 97.9396, -51.6295, 45.5724
3.836, 2, 35.9445, 48.2371, -14.3078, 97.9396, -51.6295, 45.5724
3.84, 2, 35.9445, 48.2371, -14.3078, 97.9396, -51.6295, 45.5724
3.844, 2, 35.9445, 48.2371, -14.3078, 97.9396, -51.6295, 45.5724
3.848, 2, 35.9445, 48.2371, -14.3078, 97.9396, -51.6295, 45.5724
3.852, 2, 35.9445, 48.2371, -14.3078, 97.9396, -51.6295, 45.5724
3.856, 2, 35.9445, 48.2371, -14.3078, 97.9396, -51.6295, 45.5724
3.86, 2, 35.9445, 48.2371, -14.3078, 97.9396, -51.6295, 45.5724
3.864, 2, 35.9445, 48.2371, -14.3078, 97.9396, -51.6295, 45.5724
3.868, 2, 35.9445, 48.2371, -14.3078, 97.9396, -51.6295, 45.5724
3.872, 2, 35.9445, 48.2371, -14.3078, 97.9396, -51.6295, 45.5724
3.876, 2, 35.9445, 48.2371, -14.3078, 97.9396, -51.6295, 45.5724
3.88, 2, 35.9445, 48.2371, -14.3078, 97.9396, -51.6295, 45.5724
3.884, 2, 35.9445, 48.2371, -14.3078, 97.9396, -51.6295, 45.5724
3.888, 2, 35.9445, 48.2371, -14.3078, 97.9396, -51.6295, 45.5724
3.892, 2, 35.9445, 48.2371, -14.3078, 97.9396, -51.6295, 45.5724
3.896, 2, 35.9445, 48.2371, -14.3078, 97.9396, -51.6295, 45.5724
3.9, 2, 35.9445, 48.2371, -14.3078, 97.9396, -51.6295, 45.5724
3.904, 2, 35.9445, 48.2371, -14.3078, 97.9396, -51.6295, 45.5724
3.908, 2, 35.9445, 48.2371, -14.3078, 97.9396, -51.6295, 45.5724
3.912, 2, 35.9445, 48.2371, -14.3078, 97.9396, -51.6295, 45.5724
3.916, 2, 35.9445, 48.2371, -14.3078, 97.9396, -51.6295, 45.5724
3.92, 2, 35.9445, 48.2371, -14.3078, 97.9396, -51.6295, 45.5724
3.924, 2, 35.9445, 48.2371, -14.3078, 97.9396, -51.6295, 45.5724
3.928, 2, 35.9445, 48.2371, -14.3078, 97.9396, -51.6295, 45.5724
3.932, 2, 35.9445, 48.2371, -14.3078, 97.9396, -51.6295, 45.5724
3.936, 2, 35.9445, 48.2371, -14.3078, 97.9396, -51.6295, 45.5724
3.94, 2, 35.9445, 48.2371, -14.3078, 97.9396, -51.6295, 45.5724
3.944, 2, 35.9445, 48.2371, -14.3078, 97.9396, -51.6295, 45.5724
3.948, 2, 35.9445, 48.2371, -14.3078, 97.9396, -51.6295, 45.5724
3.952, 2, 35.9445, 48.2371, -14.3078, 97.9396, -51.6295, 45.5724
3.956, 2, 35.9445, 48.2371, -14.3078, 97.9396, -51.6295, 45.5724
3.96, 2, 35.9445, 48.2371, -14.3078, 97.9396, -51.6295, 45.5724
3.964, 2, 35.9445, 48.2371, -14.3078, 97.9396, -51.6295, 45.5724
3.968, 2, 35.9445, 48.2371, -14.3078, 97.9396, -51.6295, 45.5724
3.972, 2, 35.9445, 48.2371, -14.3078, 97.9396, -51.6295, 45.5724
3.976, 2, 35.9445, 48.2371, -14.3078, 97.9396, -51.6295, 45.5724
3.98, 2, 35.9445, 48.2371, -14.3078, 97.9396, -51.6295, 45.5724
3.984, 2, 35.9445, 48.2371, -14.3078, 97.9396, -51.6295, 45.5724
3.988, 2, 35.9445, 48.2371, -14.3078, 97.9396, -51.6295, 45.5724
3.992, 2, 35.9445, 48.2371, -14.3078, 97.9396, -51.6295, 45.5724
3.996, 2, 35.9445, 48.2371, -14.3078, 97.9396, -51.6295, 45.5724
3.999, 2, 35.9445, 48.2371, -14.3078, 97.9396, -51.6295, 45.5724
4.004, 2, 35.9445, 48.2371, -14.3078, 97.9396, -51.6295, 45.5724
4.008, 2, 35.9445, 48.2371, -14.3078, 97.9396, -51.6295, 45.5724
4.012, 2, 35.9445, 48.2371, -14.3078, 97.9396, -51.6295, 45.5724
4.016, 2, 35.9445, 48.2371, -14.3078, 97.9396, -51.6295, 45.5724
4.02, 2, 35.9445, 48.2371, -14.3078, 97.9396, -51.6295, 45.5724
4.024, 2, 35.9445, 48.2371, -14.3078, 97.9396, -51.6295, 45.5724
4.028, 2, 35.9445, 48.2371, -14.3078, 97.9396, -51.6295, 45.5724
4.032, 2, 35.9445, 48.2371, -14.3078, 97.9396, -51.6295, 45.5724
4.036, 2, 35.9445, 48.2371, -14.3078, 97.9396, -51.6295, 45.5724
4.04, 2, 35.9445, 48.2371, -14.3078, 97.9396, -51.6295, 45.5724
4.044, 2, 35.9445, 48.2371, -14.3078, 97.9396, -51.6295, 45.5724
4.048, 2, 35.9445, 48.2371, -14.3078, 97.9396, -51.6295, 45.5724
4.052, 2, 35.9445, 48.2371, -14.3078, 97.9396, -51.6295, 45.5724
4.056, 2, 35.9445, 48.2371, -14.3078, 97.9396, -51.6295, 45.5724
4.06, 2, 35.9445, 48.2371, -14.3078, 97.9396, -51.6295, 45.5724
4.064, 2, 35.9445, 48.2371, -14.3078, 97.9396, -51.6295, 45.5724
4.068, 2, 35.9445, 48.2371, -14.3078, 97.9396, -51.6295, 45.5724
4.072, 2, 35.9445, 48.2371, -14.3078, 97.9396, -51.6295, 45.5724
4.076, 2, 35.9445, 48.2371, -14.3078, 97.9396, -51.6295, 45.5724
4.08, 2, 35.9445, 48.2371, -14.3078, 97.9396, -51.6295, 45.5724
4.084, 2, 35.9445, 48.2371, -14.3078, 97.9396, -51.6295, 45.5724
4.088, 2, 35.9445, 48.2371, -14.3078, 97.9396, -51.6295, 45.5724
4.092, 2, 35.9445, 48.2371, -14.3078, 97.9396, -51.6295, 45.5724
4.096, 2, 35.9445, 48.2371, -14.3078, 97.9396, -51.6295, 45.5724
4.1, 2, 35.9445, 48.2371, -14.3078, 97.9396, -51.6295, 45.5724
4.104, 2, 35.9445, 48.2371, -14.3078, 97.9396, -51.6295, 45.5724
4.108, 2, 35.9445, 48.2371, -14.3078, 97.9396, -51.6295, 45.5724
4.112, 2, 35.9445, 48.2371, -14.3078, 97.9396, -51.6295, 45.5724
4.116, 2, 35.9445, 48.2371, -14.3078, 97.9396, -51.6295, 45.5724
4.12, 2, 35.9445, 48.2371, -14.3078, 97.9396, -51.6295, 45.5724
4.124, 2, 35.9445, 48.2371, -14.3078, 97.9396, -51.6295, 45.5724
4.128, 2, 35.9445, 48.2371, -14.3078, 97.9396, -51.6295, 45.5724
4.132, 2, 35.9445, 48.2371, -14.3078, 97.9396, -51.6295, 45.5724
4.136, 2, 35.9445, 48.2371, -14.3078, 97.9396, -51.6295, 45.5724
4.14, 2, 35.9445, 48.2371, -14.3078, 97.9396, -51.6295, 45.5724
4.144, 2, 35.9445, 48.2371, -14.3078, 97.9396, -51.6295, 45.5724
4.148, 2, 35.9445, 48.2371, -14.3078, 97.9396, -51.6295, 45.5724
4.152, 2, 35.9445, 48.2371, -14.3078, 97.9396, -51.6295, 45.5724
4.156, 2, 35.9445, 48.2371, -14.3078, 97.9396, -51.6295, 45.5724
4.16, 2, 35.9445, 48.2371, -14.3078, 97.9396, -51.6295, 45.5724
4.164, 2, 35.9445, 48.2371, -14.3078, 97.9396, -51.6295, 45.5724
4.168, 2, 35.9445, 48.2371, -14.3078, 97.9396, -51.6295, 45.5724
4.172, 2, 35.9445, 48.2371, -14.3078, 97.9396, -51.6295, 45.5724
4.176, 2, 35.9445, 48.2371, -14.3078, 97.9396, -51.6295, 45.5724
4.18, 2, 35.9445, 48.2371, -14.3078, 97.9396, -51.6295, 45.5724
4.184, 2, 35.9445, 48.2371, -14.3078, 97.9396, -51.6295, 45.5724
4.188, 2, 35.9445, 48.2371, -14.3078, 97.9396, -51.6295, 45.5724
4.192, 2, 35.9445, 48.2371, -14.3078, 97.9396, -51.6295, 45.5724
4.196, 2, 35.9445, 48.2371, -14.3078, 97.9396, -51.6295, 45.5724
4.2, 2, 35.9445, 48.2371, -14.3078, 97.9396, -51.6295, 45.5724
4.204, 2, 35.9445, 48.2371, -14.3078, 97.9396, -51.6295, 45.5724
4.208, 2, 35.9445, 48.2371, -14.3078, 97.9396, -51.6295, 45.5724
4.212, 2, 35.9445, 48.2371, -14.3078, 97.9396, -51.6295, 45.5724
4.216, 2, 35.9445, 48.2371, -14.3078, 97.9396, -51.6295, 45.5724
4.22, 2, 35.9445, 48.2371, -14.3078, 97.9396, -51.6295, 45.5724
4.224, 2, 35.9445, 48.2371, -14.3078, 97.9396, -51.6295, 45.5724
4.228, 2, 35.9445, 48.2371, -14.3078, 97.9396, -51.6295, 45.5724
4.232, 2, 35.9445, 48.2371, -14.3078, 97.9396, -51.6295, 45.5724
4.236, 2, 35.9445, 48.2371, -14.3078, 97.9396, -51.6295, 45.5724
4.24, 2, 35.9445, 48.2371, -14.3078, 97.9396, -51.6295, 45.5724
4.244, 2, 35.9445, 48.2371, -14.3078, 97.9396, -51.6295, 45.5724
4.248, 2, 35.9445, 48.2371, -14.3078, 97.9396, -51.6295, 45.5724
4.252, 2, 35.9445, 48.2371, -14.3078, 97.9396, -51.6295, 45.5724
4.256, 2, 35.9445, 48.2371, -14.3078, 97.9396, -51.6295, 45.5724
4.26, 2, 35.9445, 48.2371, -14.3078, 97.9396, -51.6295, 45.5724
4.264, 2, 35.9445, 48.2371, -14.3078, 97.9396, -51.6295, 45.5724
4.268, 2, 35.9445, 48.2371, -14.3078, 97.9396, -51.6295, 45.5724
4.272, 2, 35.9445, 48.2371, -14.3078, 97.9396, -51.6295, 45.5724
4.276, 2, 35.9445, 48.2371, -14.3078, 97.9396, -51.6295, 45.5724
4.28, 2, 35.9445, 48.2371, -14.3078, 97.9396, -51.6295, 45.5724
4.284, 2, 35.9445, 48.2371, -14.3078, 97.9396, -51.6295, 45.5724
4.288, 2, 35.9445, 48.2371, -14.3078, 97.9396, -51.6295, 45.5724
4.292, 2, 35.9445, 48.2371, -14.3078, 97.9396, -51.6295, 45.5724
4.296, 2, 35.9445, 48.2371, -14.3078, 97.9396, -51.6295, 45.5724
4.3, 2, 35.9445, 48.2371, -14.3078, 97.9396, -51.6295, 45.5724
4.304, 2, 35.9445, 48.2371, -14.3078, 97.9396, -51.6295, 45.5724
4.308, 2, 35.9445, 48.2371, -14.3078, 97.9396, -51.6295, 45.5724
4.312, 2, 35.9445, 48.2371, -14.3078, 97.9396, -51.6295, 45.5724
4.316, 2, 35.9445, 48.2371, -14.3078, 97.9396, -51.6295, 45.5724
4.32, 2, 35.9445, 48.2371, -14.3078, 97.9396, -51.6295, 45.5724
4.324, 2, 35.9445, 48.2371, -14.3078, 97.9396, -51.6295, 45.5724
4.328, 2, 35.9445, 48.2371, -14.3078, 97.9396, -51.6295, 45.5724
4.332, 2, 35.9445, 48.2371, -14.3078, 97.9396, -51.6295, 45.5724
4.336, 2, 35.9445, 48.2371, -14.3078, 97.9396, -51.6295, 45.5724
4.34, 2, 35.9445, 48.2371, -14.3078, 97.9396, -51.6295, 45.5724
4.344, 2, 35.9445, 48.2371, -14.3078, 97.9396, -51.6295, 45.5724
4.348, 2, 35.9445, 48.2371, -14.3078, 97.9396, -51.6295, 45.5724
4.352, 2, 35.9445, 48.2371, -14.3078, 97.9396, -51.6295, 45.5724
4.356, 2, 35.9445, 48.2371, -14.3078, 97.9396, -51.6295, 45.5724
4.36, 2, 35.9445, 48.2371, -14.3078, 97.9396, -51.6295, 45.5724
4.364, 2, 35.9445, 48.2371, -14.3078, 97.9396, -51.6295, 45.5724
4.368, 2, 35.9445, 48.2371, -14.3078, 97.9396, -51.6295, 45.5724
4.372, 2, 35.9445, 48.2371, -14.3078, 97.9396, -51.6295, 45.5724
4.376, 2, 35.9445, 48.2371, -14.3078, 97.9396, -51.6295, 45.5724
4.38, 2, 35.9445, 48.2371, -14.3078, 97.9396, -51.6295, 45.5724
4.384, 2, 35.9445, 48.2371, -14.3078, 97.9396, -51.6295, 45.5724
4.388, 2, 35.9445, 48.2371, -14.3078, 97.9396, -51.6295, 45.5724
4.392, 2, 35.9445, 48.2371, -14.3078, 97.9396, -51.6295, 45.5724
4.396, 3, 35.9445, 48.2371, -14.3078, 97.9396, -51.6295, 45.5724
4.4, 3, 35.9445, 48.2371, -14.3078, 97.9396, -51.6295, 45.5724
4.404, 3, 35.9445, 48.2371, -14.3078, 97.9396, -51.6295, 45.5724
4.408, 3, 35.9445, 48.2371, -14.3078, 97.9396, -51.6295, 45.5724
4.412, 3, 35.9445, 48.2371, -14.3078, 97.9396, -51.6295, 45.5724
4.416, 3, 35.9445, 48.2371, -14.3078, 97.9396, -51.6295, 45.5724
4.42, 3, 35.9445, 48.2371, -14.3078, 97.9396, -51.6295, 45.5724
4.424, 3, 35.9445, 48.2371, -14.3078, 97.9396, -51.6295, 45.5724
4.428, 3, 35.9445, 48.2371, -14.3078, 97.9396, -51.6295, 45.5724
4.432, 4, 35.9445, 48.2371, -14.3078, 97.9396, -51.6295, 45.5724
4.436, 4, 35.9445, 48.2371, -14.3078, 97.9396, -51.6295, 45.5724
4.44, 4, 35.9445, 48.2371, -14.3078, 97.9396, -51.6295, 45.5724
4.444, 4, 35.9445, 48.2371, -14.3078, 97.9396, -51.6295, 45.5724
4.448, 4, 35.9445, 48.2371, -14.3078, 97.9396, -51.6295, 45.5724
4.452, 4, 35.9445, 48.2371, -14.3078, 97.9396, -51.6295, 45.5724
4.456, 4, 35.9445, 48.2371, -14.3078, 97.9396, -51.6295, 45.5724
4.46, 4, 35.9445, 48.2371, -14.3078, 97.9396, -51.6295, 45.5724
4.464, 4, 35.9445, 48.2371, -14.3078, 97.9396, -51.6295, 45.5724
4.468, 4, 35.9445, 48.2371, -14.3078, 97.9396, -51.6295, 45.5724
4.472, 4, 35.9445, 48.2371, -14.3078, 97.9396, -51.6295, 45.5724
4.476, 4, 35.9445, 48.2371, -14.3078, 97.9396, -51.6295, 45.5724
4.48, 4, 35.9445, 48.2371, -14.3078, 97.9396, -51.6295, 45.5724
4.484, 4, 35.9445, 48.2371, -14.3078, 97.9396, -51.6295, 45.5724
4.488, 4, 35.9445, 48.2371, -14.3078, 97.9396, -51.6295, 45.5724
4.492, 4, 35.9445, 48.2371, -14.3078, 97.9396, -51.6295, 45.5724
4.496, 4, 35.9445, 48.2371, -14.3078, 97.9396, -51.6295, 45.5724
4.5, 4, 35.9445, 48.2371, -14.3078, 97.9396, -51.6295, 45.5724
4.504, 4, 35.9445, 48.2371, -14.3078, 97.9396, -51.6295, 45.5724
4.508, 4, 35.9445, 48.2371, -14.3078, 97.9396, -51.6295, 45.5724
4.512, 4, 35.9445, 48.2371, -14.3078, 97.9396, -51.6295, 45.5724
4.516, 4, 35.9445, 48.2371, -14.3078, 97.9396, -51.6295, 45.5724
4.52, 4, 35.9445, 48.2371, -14.3078, 97.9396, -51.6295, 45.5724
4.524, 4, 35.9445, 48.2371, -14.3078, 97.9396, -51.6295, 45.5724
4.528, 4, 35.9445, 48.2371, -14.3078, 97.9396, -51.6295, 45.5724
4.532, 5, 35.9445, 48.2371, -14.3078, 97.9396, -51.6295, 45.5724
4.536, 5, 35.9445, 48.2371, -14.3078, 97.9396, -51.6295, 45.5724
4.54, 5, 35.9445, 48.2371, -14.3078, 97.9396, -51.6295, 45.5724
4.544, 5, 35.9445, 48.2371, -14.3078, 97.9396, -51.6295, 45.5724
4.548, 5, 35.9445, 48.2371, -14.3078, 97.9396, -51.6295, 45.5724
4.552, 5, 35.9445, 48.2371, -14.3078, 97.9396, -51.6295, 45.5724
4.556, 5, 35.9445, 48.2371, -14.3078, 97.9396, -51.6295, 45.5724
4.56, 5, 35.9445, 48.2371, -14.3078, 97.9396, -51.6295, 45.5724
4.564, 5, 35.9445, 48.2371, -14.3078, 97.9396, -51.6295, 45.5724
4.568, 5, 35.9445, 48.2371, -14.3078, 97.9396, -51.6295, 45.5724
4.572, 5, 35.9445, 48.2372, -14.3078, 97.9396, -51.6295, 45.5724
4.576, 5, 35.9445, 48.2373, -14.3078, 97.9396, -51.6296, 45.5724
4.58, 5, 35.9445, 48.2377, -14.3078, 97.9396, -51.6296, 45.5724
4.584, 5, 35.9445, 48.2383, -14.3078, 97.9396, -51.6297, 45.5724
4.588, 5, 35.9444, 48.2394, -14.3079, 97.9395, -51.63, 45.5723
4.592, 5, 35.9443, 48.2407, -14.308, 97.9395, -51.6306, 45.5721
4.596, 5, 35.9442, 48.2424, -14.3081, 97.9393, -51.6317, 45.5718
4.6, 5, 35.9441, 48.2444, -14.3083, 97.9391, -51.6334, 45.5712
4.604, 5, 35.9441, 48.2465, -14.3086, 97.9389, -51.6361, 45.5704
4.608, 5, 35.944, 48.2487, -14.309, 97.9385, -51.6397, 45.5693
4.612, 5, 35.9439, 48.251, -14.3095, 97.9379, -51.6445, 45.5678
4.616, 5, 35.9439, 48.2535, -14.3102, 97.9372, -51.6507, 45.5658
4.62, 5, 35.9439, 48.2563, -14.311, 97.9364, -51.6582, 45.5635
4.624, 5, 35.9439, 48.2594, -14.312, 97.9353, -51.6672, 45.5607
4.628, 5, 35.9439, 48.2626, -14.3132, 97.9342, -51.6777, 45.5575
4.632, 5, 35.9439, 48.266, -14.3145, 97.9328, -51.6895, 45.5538
4.636, 5, 35.944, 48.2695, -14.316, 97.9313, -51.7027, 45.5497
4.64, 5, 35.9441, 48.2731, -14.3176, 97.9297, -51.7172, 45.5452
4.644, 5, 35.9442, 48.2769, -14.3193, 97.9279, -51.7327, 45.5403
4.648, 5, 35.9443, 48.2809, -14.3211, 97.926, -51.7491, 45.5353
4.652, 5, 35.9444, 48.2852, -14.323, 97.9241, -51.7662, 45.5299
4.656, 5, 35.9445, 48.2899, -14.325, 97.922, -51.7839, 45.5245
4.66, 5, 35.9445, 48.295, -14.327, 97.92, -51.8019, 45.5189
4.664, 5, 35.9446, 48.3004, -14.329, 97.9179, -51.8201, 45.5132
4.668, 5, 35.9446, 48.306, -14.331, 97.9158, -51.8385, 45.5075
4.672, 5, 35.9446, 48.3118, -14.3331, 97.9136, -51.8571, 45.5018
4.676, 5, 35.9446, 48.3177, -14.3351, 97.9115, -51.8757, 45.496
4.68, 5, 35.9447, 48.3237, -14.3372, 97.9093, -51.8944, 45.4902
4.684, 5, 35.9447, 48.3297, -14.3392, 97.9071, -51.9131, 45.4844
4.688, 5, 35.9447, 48.3357, -14.3413, 97.905, -51.9318, 45.4786
4.692, 5, 35.9447, 48.3418, -14.3433, 97.9028, -51.9505, 45.4728
4.696, 5, 35.9447, 48.3479, -14.3454, 97.9006, -51.9693, 45.467
4.7, 5, 35.9447, 48.354, -14.3474, 97.8984, -51.988, 45.4612
4.704, 5, 35.9447, 48.3601, -14.3495, 97.8962, -52.0068, 45.4554
4.708, 5, 35.9447, 48.3662, -14.3515, 97.894, -52.0255, 45.4496
4.712, 5, 35.9447, 48.3723, -14.3536, 97.8917, -52.0443, 45.4438
4.716, 5, 35.9447, 48.3784, -14.3556, 97.8895, -52.063, 45.438
4.72, 5, 35.9447, 48.3845, -14.3576, 97.8873, -52.0818, 45.4322
4.724, 5, 35.9447, 48.3906, -14.3596, 97.8851, -52.1006, 45.4264
4.728, 5, 35.9447, 48.3967, -14.3617, 97.8828, -52.1193, 45.4207
4.732, 5, 35.9446, 48.4028, -14.3637, 97.8806, -52.1381, 45.4149
4.736, 5, 35.9446, 48.4089, -14.3657, 97.8784, -52.1568, 45.4091
4.74, 5, 35.9446, 48.415, -14.3677, 97.8761, -52.1756, 45.4033
4.744, 5, 35.9446, 48.4211, -14.3697, 97.8739, -52.1943, 45.3975
4.748, 5, 35.9446, 48.4271, -14.3718, 97.8716, -52.2131, 45.3918
4.752, 5, 35.9446, 48.4332, -14.3738, 97.8693, -52.2318, 45.386
4.756, 5, 35.9446, 48.4393, -14.3758, 97.8671, -52.2506, 45.3802
4.76, 5, 35.9445, 48.4454, -14.3778, 97.8648, -52.2693, 45.3745
4.764, 5, 35.9445, 48.4515, -14.3798, 97.8625, -52.2881, 45.3687
4.768, 5, 35.9445, 48.4576, -14.3818, 97.8603, -52.3068, 45.3629
4.772, 5, 35.9445, 48.4637, -14.3837, 97.858, -52.3255, 45.3572
4.776, 5, 35.9444, 48.4698, -14.3857, 97.8557, -52.3443, 45.3514
4.78, 5, 35.9444, 48.4758, -14.3877, 97.8534, -52.363, 45.3457
4.784, 5, 35.9444, 48.4819, -14.3897, 97.8511, -52.3817, 45.3399
4.788, 5, 35.9444, 48.488, -14.3917, 97.8488, -52.4005, 45.3342
4.792, 5, 35.9443, 48.4941, -14.3936, 97.8465, -52.4192, 45.3284
4.796, 5, 35.9443, 48.5002, -14.3956, 97.8442, -52.4379, 45.3227
4.8, 5, 35.9443, 48.5062, -14.3976, 97.8418, -52.4566, 45.3169
4.804, 5, 35.9442, 48.5123, -14.3996, 97.8395, -52.4754, 45.3112
4.808, 5, 35.9442, 48.5184, -14.4015, 97.8372, -52.4941, 45.3055
4.812, 5, 35.9441, 48.5245, -14.4035, 97.8349, -52.5128, 45.2997
4.816, 5, 35.9441, 48.5305, -14.4054, 97.8325, -52.5315, 45.294
4.82, 5, 35.9441, 48.5366, -14.4074, 97.8302, -52.5502, 45.2883
4.824, 5, 35.944, 48.5427, -14.4093, 97.8278, -52.5689, 45.2826
4.828, 5, 35.944, 48.5487, -14.4113, 97.8255, -52.5877, 45.2768
4.832, 5, 35.9439, 48.5548, -14.4132, 97.8231, -52.6064, 45.2711
4.836, 5, 35.9439, 48.5609, -14.4151, 97.8208, -52.6251, 45.2654
4.84, 5, 35.9438, 48.5669, -14.4171, 97.8184, -52.6438, 45.2597
4.844, 5, 35.9438, 48.573, -14.419, 97.816, -52.6625, 45.254
4.848, 5, 35.9437, 48.579, -14.4209, 97.8136, -52.6812, 45.2483
4.852, 5, 35.9437, 48.5851, -14.4229, 97.8113, -52.6999, 45.2426
4.856, 5, 35.9436, 48.5911, -14.4248, 97.8089, -52.7186, 45.2369
4.86, 5, 35.9436, 48.5972, -14.4267, 97.8065, -52.7373, 45.2312
4.864, 5, 35.9435, 48.6033, -14.4286, 97.8041, -52.756, 45.2255
4.868, 5, 35.9435, 48.6093, -14.4305, 97.8017, -52.7747, 45.2198
4.872, 5, 35.9434, 48.6154, -14.4324, 97.7993, -52.7934, 45.2141
4.876, 5, 35.9433, 48.6214, -14.4343, 97.7969, -52.8121, 45.2084
4.88, 5, 35.9433, 48.6275, -14.4362, 97.7945, -52.8307, 45.2027
4.884, 5, 35.9432, 48.6335, -14.4381, 97.7921, -52.8494, 45.197
4.888, 5, 35.9432, 48.6395, -14.44, 97.7896, -52.8681, 45.1913
4.892, 5, 35.9431, 48.6456, -14.4419, 97.7872, -52.8868, 45.1856
4.896, 5, 35.943, 48.6516, -14.4438, 97.7848, -52.9055, 45.18
4.9, 5, 35.943, 48.6577, -14.4457, 97.7823, -52.9242, 45.1743
4.904, 5, 35.9429, 48.6637, -14.4476, 97.7799, -52.9428, 45.1686
4.908, 5, 35.9428, 48.6697, -14.4495, 97.7775, -52.9615, 45.1629
4.912, 5, 35.9427, 48.6758, -14.4513, 97.775, -52.9802, 45.1573
4.916, 5, 35.9427, 48.6818, -14.4532, 97.7726, -52.9989, 45.1516
4.92, 5, 35.9426, 48.6878, -14.4551, 97.7701, -53.0175, 45.146
4.924, 5, 35.9425, 48.6939, -14.457, 97.7676, -53.0362, 45.1403
4.928, 5, 35.9424, 48.6999, -14.4588, 97.7652, -53.0549, 45.1346
4.932, 5, 35.9424, 48.7059, -14.4607, 97.7627, -53.0735, 45.129
4.936, 5, 35.9423, 48.712, -14.4625, 97.7602, -53.0922, 45.1233
4.94, 5, 35.9422, 48.718, -14.4644, 97.7577, -53.1108, 45.1177
4.944, 5, 35.9421, 48.724, -14.4662, 97.7552, -53.1295, 45.112
4.948, 5, 35.942, 48.73, -14.4681, 97.7527, -53.1482, 45.1064
4.952, 5, 35.9419, 48.7361, -14.4699, 97.7502, -53.1668, 45.1007
4.956, 5, 35.9418, 48.7421, -14.4718, 97.7477, -53.1855, 45.0951
4.96, 5, 35.9418, 48.7481, -14.4736, 97.7452, -53.2041, 45.0895
4.964, 5, 35.9417, 48.7541, -14.4754, 97.7427, -53.2228, 45.0838
4.968, 5, 35.9416, 48.7601, -14.4773, 97.7402, -53.2414, 45.0782
4.972, 5, 35.9415, 48.7661, -14.4791, 97.7377, -53.2601, 45.0726
4.976, 5, 35.9414, 48.7722, -14.4809, 97.7352, -53.2787, 45.0669
4.98, 5, 35.9413, 48.7782, -14.4827, 97.7326, -53.2973, 45.0613
4.984, 5, 35.9412, 48.7842, -14.4845, 97.7301, -53.316, 45.0557
4.988, 5, 35.9411, 48.7902, -14.4864, 97.7276, -53.3346, 45.0501
4.992, 5, 35.941, 48.7962, -14.4882, 97.725, -53.3533, 45.0445
4.996, 5, 35.9409, 48.8022, -14.49, 97.7225, -53.3719, 45.0388
5, 5, 35.9408, 48.8082, -14.4918, 97.7199, -53.3905, 45.0332
5.004, 5, 35.9407, 48.8142, -14.4936, 97.7174, -53.4092, 45.0276
5.008, 5, 35.9406, 48.8202, -14.4954, 97.7148, -53.4278, 45.022
5.012, 5, 35.9405, 48.8262, -14.4972, 97.7123, -53.4464, 45.0164
5.016, 5, 35.9404, 48.8322, -14.4989, 97.7097, -53.465, 45.0108
5.02, 5, 35.9402, 48.8382, -14.5007, 97.7071, -53.4837, 45.0052
5.024, 5, 35.9401, 48.8442, -14.5025, 97.7045, -53.5023, 44.9996
5.028, 5, 35.94, 48.8502, -14.5043, 97.7019, -53.5209, 44.994
5.032, 5, 35.9399, 48.8562, -14.5061, 97.6993, -53.5395, 44.9884
5.036, 5, 35.9398, 48.8622, -14.5078, 97.6968, -53.5581, 44.9828
5.04, 5, 35.9397, 48.8681, -14.5096, 97.6942, -53.5768, 44.9772
5.044, 5, 35.9395, 48.8741, -14.5114, 97.6916, -53.5954, 44.9717
5.048, 5, 35.9394, 48.8801, -14.5131, 97.689, -53.614, 44.9661
5.052, 5, 35.9393, 48.8861, -14.5149, 97.6863, -53.6326, 44.9605
5.056, 5, 35.9392, 48.8921, -14.5166, 97.6837, -53.6512, 44.9549
5.06, 5, 35.9391, 48.8981, -14.5184, 97.6811, -53.6698, 44.9493
5.064, 5, 35.9389, 48.904, -14.5201, 97.6785, -53.6884, 44.9438
5.068, 5, 35.9388, 48.91, -14.5219, 97.6759, -53.707, 44.9382
5.072, 5, 35.9387, 48.916, -14.5236, 97.6732, -53.7256, 44.9326
5.076, 5, 35.9385, 48.922, -14.5254, 97.6706, -53.7442, 44.9271
5.08, 5, 35.9384, 48.9279, -14.5271, 97.6679, -53.7628, 44.9215
5.084, 5, 35.9383, 48.9339, -14.5288, 97.6653, -53.7814, 44.9159
5.088, 5, 35.9381, 48.9399, -14.5306, 97.6626, -53.8, 44.9104
5.092, 5, 35.938, 48.9459, -14.5323, 97.66, -53.8186, 44.9048
5.096, 5, 35.9379, 48.9518, -14.534, 97.6573, -53.8372, 44.8993
5.1, 5, 35.9377, 48.9578, -14.5357, 97.6547, -53.8557, 44.8937
5.104, 5, 35.9376, 48.9638, -14.5374, 97.652, -53.8743, 44.8882
5.108, 5, 35.9375, 48.9697, -14.5392, 97.6493, -53.8929, 44.8826
5.112, 5, 35.9373, 48.9757, -14.5409, 97.6466, -53.9115, 44.8771
5.116, 5, 35.9372, 48.9816, -14.5426, 97.644, -53.9301, 44.8715
5.12, 5, 35.937, 48.9876, -14.5443, 97.6413, -53.9487, 44.866
5.124, 5, 35.9369, 48.9936, -14.546, 97.6386, -53.9672, 44.8605
5.128, 5, 35.9367, 48.9995, -14.5477, 97.6359, -53.9858, 44.8549
5.132, 5, 35.9366, 49.0055, -14.5493, 97.6332, -54.0044, 44.8494
5.136, 5, 35.9364, 49.0114, -14.551, 97.6305, -54.0229, 44.8439
5.14, 5, 35.9363, 49.0174, -14.5527, 97.6278, -54.0415, 44.8383
5.144, 5, 35.9361, 49.0233, -14.5544, 97.625, -54.0601, 44.8328
5.148, 5, 35.936, 49.0293, -14.5561, 97.6223, -54.0786, 44.8273
5.152, 5, 35.9358, 49.0352, -14.5577, 97.6196, -54.0972, 44.8218
5.156, 5, 35.9356, 49.0412, -14.5594, 97.6169, -54.1158, 44.8162
5.16, 5, 35.9355, 49.0471, -14.5611, 97.6141, -54.1343, 44.8107
5.164, 5, 35.9353, 49.053, -14.5627, 97.6114, -54.1529, 44.8052
5.168, 5, 35.9352, 49.059, -14.5644, 97.6087, -54.1714, 44.7997
5.172, 5, 35.935, 49.0649, -14.5661, 97.6059, -54.19, 44.7942
5.176, 5, 35.9348, 49.0709, -14.5677, 97.6031, -54.2085, 44.7887
5.18, 5, 35.9347, 49.0768, -14.5694, 97.6004, -54.2271, 44.7832
5.184, 5, 35.9345, 49.0827, -14.571, 97.5976, -54.2456, 44.7777
5.188, 5, 35.9343, 49.0887, -14.5727, 97.5949, -54.2642, 44.7722
5.192, 5, 35.9342, 49.0946, -14.5743, 97.5921, -54.2827, 44.7667
5.196, 5, 35.934, 49.1005, -14.5759, 97.5893, -54.3013, 44.7612
5.2, 5, 35.9338, 49.1064, -14.5776, 97.5866, -54.3198, 44.7557
5.204, 5, 35.9336, 49.1124, -14.5792, 97.5838, -54.3383, 44.7502
5.208, 5, 35.9335, 49.1183, -14.5808, 97.581, -54.3569, 44.7447
5.212, 5, 35.9333, 49.1242, -14.5824, 97.5782, -54.3754, 44.7392
5.216, 5, 35.9331, 49.1301, -14.5841, 97.5754, -54.3939, 44.7337
5.22, 5, 35.9329, 49.1361, -14.5857, 97.5726, -54.4125, 44.7283
5.224, 5, 35.9327, 49.142, -14.5873, 97.5698, -54.431, 44.7228
5.228, 5, 35.9325, 49.1479, -14.5889, 97.567, -54.4495, 44.7173
5.232, 5, 35.9324, 49.1538, -14.5905, 97.5642, -54.468, 44.7118
5.236, 5, 35.9322, 49.1597, -14.5921, 97.5614, -54.4866, 44.7064
5.24, 5, 35.932, 49.1656, -14.5937, 97.5585, -54.5051, 44.7009
5.244, 5, 35.9318, 49.1715, -14.5953, 97.5557, -54.5236, 44.6954
5.248, 5, 35.9316, 49.1774, -14.5969, 97.5529, -54.5421, 44.6899
5.252, 5, 35.9314, 49.1833, -14.5985, 97.55, -54.5606, 44.6845
5.256, 5, 35.9312, 49.1893, -14.6, 97.5472, -54.5792, 44.679
5.26, 5, 35.931, 49.1952, -14.6016, 97.5444, -54.5977, 44.6736
5.264, 5, 35.9308, 49.2011, -14.6032, 97.5415, -54.6162, 44.6681
5.268, 5, 35.9306, 49.207, -14.6048, 97.5387, -54.6347, 44.6627
5.272, 5, 35.9304, 49.2129, -14.6063, 97.5358, -54.6532, 44.6572
5.276, 5, 35.9302, 49.2188, -14.6079, 97.5329, -54.6717, 44.6518
5.28, 5, 35.93, 49.2247, -14.6095, 97.5301, -54.6902, 44.6463
5.284, 5, 35.9298, 49.2306, -14.611, 97.5272, -54.7087, 44.6409
5.288, 5, 35.9296, 49.2364, -14.6126, 97.5243, -54.7272, 44.6354
5.292, 5, 35.9294, 49.2423, -14.6141, 97.5214, -54.7457, 44.63
5.296, 5, 35.9292, 49.2482, -14.6157, 97.5186, -54.7642, 44.6245
5.3, 5, 35.929, 49.2541, -14.6172, 97.5157, -54.7827, 44.6191
5.304, 5, 35.9288, 49.26, -14.6188, 97.5128, -54.8012, 44.6137
5.308, 5, 35.9286, 49.2659, -14.6203, 97.5099, -54.8197, 44.6082
5.312, 5, 35.9284, 49.2718, -14.6218, 97.507, -54.8382, 44.6028
5.316, 5, 35.9282, 49.2777, -14.6234, 97.5041, -54.8566, 44.5974
5.32, 5, 35.9279, 49.2835, -14.6249, 97.5012, -54.8751, 44.5919
5.324, 5, 35.9277, 49.2894, -14.6264, 97.4983, -54.8936, 44.5865
5.328, 5, 35.9275, 49.2953, -14.6279, 97.4953, -54.9121, 44.5811
5.332, 5, 35.9273, 49.3012, -14.6295, 97.4924, -54.9306, 44.5757
5.336, 5, 35.9271, 49.307, -14.631, 97.4895, -54.949, 44.5703
5.34, 5, 35.9268, 49.3129, -14.6325, 97.4866, -54.9675, 44.5648
5.344, 5, 35.9266, 49.3188, -14.634, 97.4836, -54.986, 44.5594
5.348, 5, 35.9264, 49.3246, -14.6355, 97.4807, -55.0045, 44.554
5.352, 5, 35.9262, 49.3305, -14.637, 97.4777, -55.0229, 44.5486
5.356, 5, 35.9259, 49.3364, -14.6385, 97.4748, -55.0414, 44.5432
5.36, 5, 35.9257, 49.3422, -14.64, 97.4718, -55.0599, 44.5378
5.364, 5, 35.9255, 49.3481, -14.6415, 97.4689, -55.0783, 44.5324
5.368, 5, 35.9252, 49.354, -14.643, 97.4659, -55.0968, 44.527
5.372, 5, 35.925, 49.3598, -14.6444, 97.463, -55.1152, 44.5216
5.376, 5, 35.9248, 49.3657, -14.6459, 97.46, -55.1337, 44.5162
5.38, 5, 35.9245, 49.3715, -14.6474, 97.457, -55.1521, 44.5108
5.384, 5, 35.9243, 49.3774, -14.6489, 97.454, -55.1706, 44.5054
5.388, 5, 35.924, 49.3832, -14.6503, 97.4511, -55.1891, 44.5
5.392, 5, 35.9238, 49.3891, -14.6518, 97.4481, -55.2075, 44.4946
5.396, 5, 35.9236, 49.395, -14.6533, 97.4451, -55.226, 44.4893
5.4, 5, 35.9233, 49.4008, -14.6547, 97.4421, -55.2444, 44.4839
5.404, 5, 35.9231, 49.4066, -14.6562, 97.4391, -55.2628, 44.4785
5.408, 5, 35.9228, 49.4125, -14.6576, 97.4361, -55.2813, 44.4731
5.412, 5, 35.9226, 49.4183, -14.6591, 97.4331, -55.2997, 44.4677
5.416, 5, 35.9223, 49.4242, -14.6605, 97.4301, -55.3182, 44.4624
5.42, 5, 35.9221, 49.43, -14.6619, 97.427, -55.3366, 44.457
5.424, 5, 35.9218, 49.4359, -14.6634, 97.424, -55.355, 44.4516
5.428, 5, 35.9216, 49.4417, -14.6648, 97.421, -55.3735, 44.4462
5.432, 5, 35.9213, 49.4475, -14.6662, 97.418, -55.3919, 44.4409
5.436, 5, 35.9211, 49.4534, -14.6677, 97.4149, -55.4103, 44.4355
5.44, 5, 35.9208, 49.4592, -14.6691, 97.4119, -55.4288, 44.4302
5.444, 5, 35.9205, 49.465, -14.6705, 97.4089, -55.4472, 44.4248
5.448, 5, 35.9203, 49.4708, -14.6719, 97.4058, -55.4656, 44.4194
5.452, 5, 35.92, 49.4767, -14.6733, 97.4028, -55.484, 44.4141
5.456, 5, 35.9198, 49.4825, -14.6747, 97.3997, -55.5025, 44.4087
5.46, 5, 35.9195, 49.4883, -14.6761, 97.3967, -55.5209, 44.4034
5.464, 5, 35.9192, 49.4941, -14.6775, 97.3936, -55.5393, 44.398
5.468, 5, 35.9189, 49.5, -14.6789, 97.3905, -55.5577, 44.3927
5.472, 5, 35.9187, 49.5058, -14.6803, 97.3874, -55.5761, 44.3873
5.476, 5, 35.9184, 49.5116, -14.6817, 97.3844, -55.5945, 44.382
5.48, 5, 35.9181, 49.5174, -14.6831, 97.3813, -55.6129, 44.3766
5.484, 5, 35.9179, 49.5232, -14.6845, 97.3782, -55.6314, 44.3713
5.488, 5, 35.9176, 49.529, -14.6859, 97.3751, -55.6498, 44.366
5.492, 5, 35.9173, 49.5349, -14.6872, 97.372, -55.6682, 44.3606
5.496, 5, 35.917, 49.5407, -14.6886, 97.3689, -55.6866, 44.3553
5.5, 5, 35.9168, 49.5465, -14.69, 97.3658, -55.705, 44.35
5.504, 5, 35.9165, 49.5523, -14.6914, 97.3627, -55.7234, 44.3446
5.508, 5, 35.9162, 49.5581, -14.6927, 97.3596, -55.7418, 44.3393
5.512, 5, 35.9159, 49.5639, -14.6941, 97.3565, -55.7602, 44.334
5.516, 5, 35.9156, 49.5697, -14.6954, 97.3534, -55.7785, 44.3287
5.52, 5, 35.9153, 49.5755, -14.6968, 97.3503, -55.7969, 44.3233
5.524, 5, 35.9151, 49.5813, -14.6981, 97.3471, -55.8153, 44.318
5.528, 5, 35.9148, 49.5871, -14.6995, 97.344, -55.8337, 44.3127
5.532, 5, 35.9145, 49.5929, -14.7008, 97.3409, -55.8521, 44.3074
5.536, 5, 35.9142, 49.5987, -14.7021, 97.3377, -55.8705, 44.3021
5.54, 5, 35.9139, 49.6045, -14.7035, 97.3346, -55.8889, 44.2968
5.544, 5, 35.9136, 49.6102, -14.7048, 97.3315, -55.9072, 44.2914
5.548, 5, 35.9133, 49.616, -14.7061, 97.3283, -55.9256, 44.2861
5.552, 5, 35.913, 49.6218, -14.7075, 97.3251, -55.944, 44.2808
5.556, 5, 35.9127, 49.6276, -14.7088, 97.322, -55.9624, 44.2755
5.56, 5, 35.9124, 49.6334, -14.7101, 97.3188, -55.9807, 44.2702
5.564, 5, 35.9121, 49.6392, -14.7114, 97.3157, -55.9991, 44.2649
5.568, 5, 35.9118, 49.6449, -14.7127, 97.3125, -56.0175, 44.2596
5.572, 5, 35.9115, 49.6507, -14.714, 97.3093, -56.0359, 44.2543
5.576, 5, 35.9112, 49.6565, -14.7153, 97.3061, -56.0542, 44.249
5.58, 5, 35.9109, 49.6623, -14.7166, 97.303, -56.0726, 44.2437
5.584, 5, 35.9106, 49.668, -14.7179, 97.2998, -56.0909, 44.2385
5.588, 5, 35.9103, 49.6738, -14.7192, 97.2966, -56.1093, 44.2332
5.592, 5, 35.91, 49.6796, -14.7205, 97.2934, -56.1277, 44.2279
5.596, 5, 35.9096, 49.6853, -14.7218, 97.2902, -56.146, 44.2226
5.6, 5, 35.9093, 49.6911, -14.7231, 97.287, -56.1644, 44.2173
5.604, 5, 35.909, 49.6969, -14.7243, 97.2838, -56.1827, 44.212
5.608, 5, 35.9087, 49.7026, -14.7256, 97.2806, -56.2011, 44.2068
5.612, 5, 35.9084, 49.7084, -14.7269, 97.2773, -56.2194, 44.2015
5.616, 5, 35.9081, 49.7142, -14.7281, 97.2741, -56.2378, 44.1962
5.62, 5, 35.9077, 49.7199, -14.7294, 97.2709, -56.2561, 44.1909
5.624, 5, 35.9074, 49.7257, -14.7307, 97.2677, -56.2745, 44.1857
5.628, 5, 35.9071, 49.7314, -14.7319, 97.2644, -56.2928, 44.1804
5.632, 5, 35.9068, 49.7372, -14.7332, 97.2612, -56.3111, 44.1751
5.636, 5, 35.9064, 49.7429, -14.7344, 97.258, -56.3295, 44.1699
5.64, 5, 35.9061, 49.7487, -14.7356, 97.2547, -56.3478, 44.1646
5.644, 5, 35.9058, 49.7544, -14.7369, 97.2515, -56.3661, 44.1593
5.648, 5, 35.9054, 49.7602, -14.7381, 97.2482, -56.3845, 44.1541
5.652, 5, 35.9051, 49.7659, -14.7394, 97.2449, -56.4028, 44.1488
5.656, 5, 35.9048, 49.7717, -14.7406, 97.2417, -56.4211, 44.1436
5.66, 5, 35.9044, 49.7774, -14.7418, 97.2384, -56.4395, 44.1383
5.664, 5, 35.9041, 49.7831, -14.743, 97.2352, -56.4578, 44.1331
5.668, 5, 35.9038, 49.7889, -14.7443, 97.2319, -56.4761, 44.1278
5.672, 5, 35.9034, 49.7946, -14.7455, 97.2286, -56.4944, 44.1226
5.676, 5, 35.9031, 49.8003, -14.7467, 97.2253, -56.5127, 44.1173
5.68, 5, 35.9027, 49.8061, -14.7479, 97.222, -56.5311, 44.1121
5.684, 5, 35.9024, 49.8118, -14.7491, 97.2188, -56.5494, 44.1068
5.688, 5, 35.9021, 49.8175, -14.7503, 97.2155, -56.5677, 44.1016
5.692, 5, 35.9017, 49.8233, -14.7515, 97.2122, -56.586, 44.0964
5.696, 5, 35.9014, 49.829, -14.7527, 97.2088, -56.6043, 44.0911
5.7, 5, 35.901, 49.8347, -14.7539, 97.2055, -56.6226, 44.0859
5.704, 5, 35.9007, 49.8404, -14.7551, 97.2022, -56.6409, 44.0807
5.708, 5, 35.9003, 49.8462, -14.7562, 97.1989, -56.6592, 44.0754
5.712, 5, 35.9, 49.8519, -14.7574, 97.1956, -56.6775, 44.0702
5.716, 5, 35.8996, 49.8576, -14.7586, 97.1923, -56.6958, 44.065
5.72, 5, 35.8993, 49.8633, -14.7598, 97.189, -56.7141, 44.0597
5.724, 5, 35.8989, 49.869, -14.7609, 97.1856, -56.7324, 44.0545
5.728, 5, 35.8985, 49.8747, -14.7621, 97.1823, -56.7507, 44.0493
5.732, 5, 35.8982, 49.8804, -14.7633, 97.179, -56.769, 44.0441
5.736, 5, 35.8978, 49.8861, -14.7644, 97.1756, -56.7873, 44.0389
5.74, 5, 35.8975, 49.8918, -14.7656, 97.1723, -56.8056, 44.0337
5.744, 5, 35.8971, 49.8976, -14.7667, 97.1689, -56.8239, 44.0284
5.748, 5, 35.8967, 49.9033, -14.7679, 97.1656, -56.8422, 44.0232
5.752, 5, 35.8964, 49.909, -14.769, 97.1622, -56.8605, 44.018
5.756, 5, 35.896, 49.9147, -14.7702, 97.1588, -56.8787, 44.0128
5.76, 5, 35.8956, 49.9204, -14.7713, 97.1555, -56.897, 44.0076
5.764, 5, 35.8953, 49.9261, -14.7724, 97.1521, -56.9153, 44.0024
5.768, 5, 35.8949, 49.9317, -14.7736, 97.1487, -56.9336, 43.9972
5.772, 5, 35.8945, 49.9374, -14.7747, 97.1454, -56.9519, 43.992
5.776, 5, 35.8941, 49.9431, -14.7758, 97.142, -56.9701, 43.9868
5.78, 5, 35.8938, 49.9488, -14.7769, 97.1386, -56.9884, 43.9816
5.784, 5, 35.8934, 49.9545, -14.778, 97.1352, -57.0067, 43.9764
5.788, 5, 35.893, 49.9602, -14.7791, 97.1318, -57.0249, 43.9712
5.792, 5, 35.8926, 49.9659, -14.7802, 97.1284, -57.0432, 43.966
5.796, 5, 35.8922, 49.9716, -14.7814, 97.125, -57.0615, 43.9608
5.8, 5, 35.8919, 49.9772, -14.7825, 97.1216, -57.0797, 43.9556
5.804, 5, 35.8915, 49.9829, -14.7835, 97.1182, -57.098, 43.9505
5.808, 5, 35.8911, 49.9886, -14.7846, 97.1148, -57.1162, 43.9453
5.812, 5, 35.8907, 49.9943, -14.7857, 97.1114, -57.1345, 43.9401
5.816, 5, 35.8903, 49.9999, -14.7868, 97.1079, -57.1528, 43.9349
5.82, 5, 35.8899, 50.0056, -14.7879, 97.1045, -57.171, 43.9297
5.824, 5, 35.8895, 50.0113, -14.789, 97.1011, -57.1893, 43.9246
5.828, 5, 35.8891, 50.0169, -14.79, 97.0976, -57.2075, 43.9194
5.832, 5, 35.8887, 50.0226, -14.7911, 97.0942, -57.2258, 43.9142
5.836, 5, 35.8883, 50.0283, -14.7922, 97.0908, -57.244, 43.909
5.84, 5, 35.8879, 50.0339, -14.7932, 97.0873, -57.2623, 43.9039
5.844, 5, 35.8875, 50.0396, -14.7943, 97.0839, -57.2805, 43.8987
5.848, 5, 35.8871, 50.0453, -14.7954, 97.0804, -57.2987, 43.8935
5.852, 5, 35.8867, 50.0509, -14.7964, 97.077, -57.317, 43.8884
5.856, 5, 35.8863, 50.0566, -14.7975, 97.0735, -57.3352, 43.8832
5.86, 5, 35.8859, 50.0622, -14.7985, 97.07, -57.3534, 43.878
5.864, 5, 35.8855, 50.0679, -14.7995, 97.0666, -57.3717, 43.8729
5.868, 5, 35.8851, 50.0735, -14.8006, 97.0631, -57.3899, 43.8677
5.872, 5, 35.8847, 50.0792, -14.8016, 97.0596, -57.4081, 43.8626
5.876, 5, 35.8843, 50.0848, -14.8027, 97.0561, -57.4264, 43.8574
5.88, 5, 35.8839, 50.0905, -14.8037, 97.0527, -57.4446, 43.8523
5.884, 5, 35.8835, 50.0961, -14.8047, 97.0492, -57.4628, 43.8471
5.888, 5, 35.8831, 50.1018, -14.8057, 97.0457, -57.481, 43.842
5.892, 5, 35.8827, 50.1074, -14.8067, 97.0422, -57.4993, 43.8368
5.896, 5, 35.8822, 50.113, -14.8077, 97.0387, -57.5175, 43.8317
5.9, 5, 35.8818, 50.1187, -14.8088, 97.0352, -57.5357, 43.8265
5.904, 5, 35.8814, 50.1243, -14.8098, 97.0317, -57.5539, 43.8214
5.908, 5, 35.881, 50.1299, -14.8108, 97.0281, -57.5721, 43.8163
5.912, 5, 35.8806, 50.1356, -14.8118, 97.0246, -57.5903, 43.8111
5.916, 5, 35.8801, 50.1412, -14.8128, 97.0211, -57.6085, 43.806
5.92, 5, 35.8797, 50.1468, -14.8137, 97.0176, -57.6267, 43.8008
5.924, 5, 35.8793, 50.1525, -14.8147, 97.0141, -57.645, 43.7957
5.928, 5, 35.8789, 50.1581, -14.8157, 97.0105, -57.6632, 43.7906
5.932, 5, 35.8784, 50.1637, -14.8167, 97.007, -57.6814, 43.7855
5.936, 5, 35.878, 50.1693, -14.8177, 97.0035, -57.6996, 43.7803
5.94, 5, 35.8776, 50.1749, -14.8186, 96.9999, -57.7178, 43.7752
5.944, 5, 35.8771, 50.1806, -14.8196, 96.9964, -57.736, 43.7701
5.948, 5, 35.8767, 50.1862, -14.8206, 96.9928, -57.7541, 43.765
5.952, 5, 35.8763, 50.1918, -14.8215, 96.9893, -57.7723, 43.7598
5.956, 5, 35.8758, 50.1974, -14.8225, 96.9857, -57.7905, 43.7547
5.96, 5, 35.8754, 50.203, -14.8234, 96.9821, -57.8087, 43.7496
5.964, 5, 35.875, 50.2086, -14.8244, 96.9786, -57.8269, 43.7445
5.968, 5, 35.8745, 50.2142, -14.8253, 96.975, -57.8451, 43.7394
5.972, 5, 35.8741, 50.2198, -14.8263, 96.9714, -57.8633, 43.7343
5.976, 5, 35.8736, 50.2254, -14.8272, 96.9678, -57.8815, 43.7292
5.98, 5, 35.8732, 50.231, -14.8282, 96.9643, -57.8996, 43.724
5.984, 5, 35.8727, 50.2366, -14.8291, 96.9607, -57.9178, 43.7189
5.988, 5, 35.8723, 50.2422, -14.83, 96.9571, -57.936, 43.7138
5.992, 5, 35.8718, 50.2478, -14.8309, 96.9535, -57.9542, 43.7087
5.996, 5, 35.8714, 50.2534, -14.8319, 96.9499, -57.9723, 43.7036
6, 5, 35.8709, 50.259, -14.8328, 96.9463, -57.9905, 43.6985
6.004, 5, 35.8705, 50.2646, -14.8337, 96.9427, -58.0087, 43.6934
6.008, 5, 35.87, 50.2702, -14.8346, 96.9391, -58.0268, 43.6883
6.012, 5, 35.8696, 50.2758, -14.8355, 96.9355, -58.045, 43.6832
6.016, 5, 35.8691, 50.2814, -14.8364, 96.9319, -58.0632, 43.6781
6.02, 5, 35.8686, 50.2869, -14.8373, 96.9282, -58.0813, 43.6731
6.024, 5, 35.8682, 50.2925, -14.8382, 96.9246, -58.0995, 43.668
6.028, 5, 35.8677, 50.2981, -14.8391, 96.921, -58.1177, 43.6629
6.032, 5, 35.8673, 50.3037, -14.84, 96.9174, -58.1358, 43.6578
