hehonglu123/Motion-Primitive-Planning/ILC/recorded_data/realrobot/from_NX/iteration_6/run_0.csv
timestamp, cmd_num, J1, J2, J3, J4, J5, J6
0.000369, -1, 39.6311, 32.4445, 11.8317, 12.5471, 113.714, -48.8707
0.007513, -1, 39.6311, 32.4445, 11.8317, 12.547, 113.714, -48.8707
0.010174, -1, 39.6311, 32.4445, 11.8317, 12.547, 113.714, -48.8707
0.03356, -1, 39.6311, 32.4445, 11.8317, 12.5471, 113.714, -48.8706
0.035008, -1, 39.6311, 32.4445, 11.8317, 12.5471, 113.714, -48.8706
0.037458, -1, 39.6311, 32.4445, 11.8317, 12.5471, 113.714, -48.8706
0.039188, -1, 39.6311, 32.4445, 11.8317, 12.5471, 113.714, -48.8706
0.047355, -1, 39.6311, 32.4445, 11.8317, 12.5471, 113.714, -48.8707
0.055246, -1, 39.631, 32.4445, 11.8317, 12.5471, 113.714, -48.8708
0.063264, -1, 39.63, 32.4444, 11.8317, 12.5471, 113.714, -48.8708
0.071322, -1, 39.6264, 32.4436, 11.8316, 12.547, 113.714, -48.8709
0.079249, -1, 39.6195, 32.4417, 11.8314, 12.547, 113.714, -48.8712
0.088242, -1, 39.6087, 32.4378, 11.8312, 12.547, 113.713, -48.8732
0.096258, -1, 39.5926, 32.431, 11.8312, 12.547, 113.711, -48.8804
0.105071, -1, 39.5687, 32.4207, 11.8312, 12.547, 113.706, -48.8959
0.112244, -1, 39.5352, 32.4058, 11.8321, 12.547, 113.696, -48.9222
0.120249, -1, 39.4915, 32.3853, 11.835, 12.547, 113.681, -48.9635
0.129029, -1, 39.4359, 32.3583, 11.8412, 12.547, 113.658, -49.0239
0.136252, -1, 39.3672, 32.3243, 11.8514, 12.5472, 113.626, -49.1065
0.143315, -1, 39.2849, 32.2826, 11.8663, 12.5475, 113.584, -49.2132
0.151259, -1, 39.1889, 32.233, 11.8862, 12.5481, 113.533, -49.3458
0.159246, -1, 39.0788, 32.1755, 11.9106, 12.5492, 113.47, -49.5035
0.16745, -1, 38.9548, 32.1101, 11.9391, 12.5507, 113.399, -49.6852
0.175278, -1, 38.818, 32.0378, 11.9713, 12.5526, 113.318, -49.8877
0.183336, -1, 38.6694, 31.9594, 12.0064, 12.5547, 113.232, -50.1082
0.191612, -1, 38.5098, 31.8753, 12.0433, 12.557, 113.139, -50.3425
0.199342, -1, 38.3413, 31.7869, 12.0816, 12.5593, 113.042, -50.5869
0.207398, -1, 38.1658, 31.695, 12.1205, 12.5617, 112.943, -50.8381
0.215861, -1, 37.9847, 31.6005, 12.1594, 12.5641, 112.842, -51.0934
0.225451, -1, 37.799, 31.5042, 12.1981, 12.5665, 112.74, -51.3513
0.231443, -1, 37.61, 31.4067, 12.2368, 12.569, 112.638, -51.6104
0.240015, -1, 37.4189, 31.3088, 12.2756, 12.5714, 112.535, -51.8702
0.247302, -1, 37.227, 31.2108, 12.3144, 12.5739, 112.432, -52.1298
0.255348, -1, 37.0348, 31.113, 12.3531, 12.5764, 112.329, -52.3897
0.264226, -1, 36.8427, 31.0152, 12.3918, 12.579, 112.226, -52.65
0.271436, -1, 36.6509, 30.9174, 12.4306, 12.5815, 112.123, -52.9107
0.279562, -1, 36.4593, 30.8196, 12.4696, 12.5841, 112.02, -53.1709
0.288311, -1, 36.2678, 30.7218, 12.5084, 12.5866, 111.917, -53.4315
0.295677, -1, 36.0762, 30.6239, 12.5473, 12.5891, 111.814, -53.6919
0.303737, -1, 35.8847, 30.5259, 12.5862, 12.5917, 111.711, -53.9527
0.312587, -1, 35.6931, 30.4278, 12.6252, 12.5941, 111.608, -54.2132
0.319799, -1, 35.5011, 30.3297, 12.6641, 12.5967, 111.505, -54.4735
0.329299, -1, 35.309, 30.2314, 12.7029, 12.5993, 111.402, -54.7339
0.335818, -1, 35.1165, 30.1331, 12.7418, 12.6018, 111.299, -54.9947
0.344351, -1, 34.9242, 30.0347, 12.7808, 12.6043, 111.196, -55.2556
0.352714, -1, 34.8281, 29.9362, 12.8197, 12.6069, 111.093, -55.5162
0.359234, -1, 34.6358, 29.887, 12.8391, 12.6081, 111.041, -55.6466
0.367243, -1, 34.4435, 29.7885, 12.8781, 12.6106, 110.938, -55.9074
0.501992, -1, 31.1641, 28.1133, 13.5411, 12.6557, 109.186, -60.346
0.503192, -1, 31.1641, 28.1133, 13.5411, 12.6557, 109.186, -60.346
0.5051, -1, 31.1641, 28.1133, 13.5411, 12.6572, 109.135, -60.4768
0.506461, -1, 31.0678, 28.0641, 13.5607, 12.6572, 109.135, -60.4768
0.507742, -1, 31.0678, 28.0641, 13.5607, 12.6572, 109.135, -60.4768
0.509768, -1, 30.9716, 28.0148, 13.5802, 12.6586, 109.083, -60.6076
0.511077, -1, 30.9716, 28.0148, 13.5802, 12.6586, 109.083, -60.6076
0.514362, -1, 30.8755, 27.9655, 13.5997, 12.6599, 109.032, -60.7382
0.515643, -1, 30.8755, 27.9655, 13.5997, 12.6599, 109.032, -60.7382
0.517804, -1, 30.7795, 27.9162, 13.6192, 12.6613, 108.98, -60.8688
0.519081, -1, 30.7795, 27.9162, 13.6192, 12.6613, 108.98, -60.8688
0.520338, -1, 30.7795, 27.9162, 13.6192, 12.6613, 108.98, -60.8688
0.523133, -1, 30.6835, 27.8669, 13.6387, 12.6627, 108.928, -60.9995
0.524361, -1, 30.6835, 27.8669, 13.6387, 12.6627, 108.928, -60.9995
0.526471, -1, 30.5875, 27.8177, 13.6583, 12.6641, 108.877, -61.1302
0.527984, -1, 30.5875, 27.8177, 13.6583, 12.6641, 108.877, -61.1302
0.530087, -1, 30.4915, 27.7684, 13.6778, 12.6655, 108.825, -61.2608
0.531392, -1, 30.4915, 27.7684, 13.6778, 12.6655, 108.825, -61.2608
0.533295, -1, 30.4915, 27.7684, 13.6778, 12.6655, 108.773, -61.3915
0.534697, -1, 30.3955, 27.719, 13.6973, 12.6669, 108.773, -61.3915
0.536105, -1, 30.3955, 27.719, 13.6973, 12.6669, 108.773, -61.3915
0.543222, -1, 30.2034, 27.6203, 13.7363, 12.6696, 108.67, -61.6533
0.551279, -1, 30.011, 27.5216, 13.7754, 12.6723, 108.567, -61.9151
0.559297, -1, 29.8182, 27.4229, 13.8144, 12.6749, 108.464, -62.1766
0.567258, -1, 29.6249, 27.3241, 13.8533, 12.6775, 108.361, -62.4383
0.575229, -1, 29.4309, 27.2253, 13.8923, 12.6801, 108.257, -62.7002
0.583302, -1, 29.2368, 27.1265, 13.9313, 12.6827, 108.154, -62.9621
0.59123, -1, 29.0424, 27.0277, 13.9703, 12.6852, 108.051, -63.2235
0.599331, -1, 28.8481, 26.9287, 14.0093, 12.6877, 107.947, -63.485
0.607248, -1, 28.6539, 26.8299, 14.0483, 12.6902, 107.844, -63.7465
0.615381, -1, 28.4599, 26.7311, 14.0874, 12.6927, 107.741, -64.0083
0.623226, -1, 28.2662, 26.6325, 14.1265, 12.6951, 107.637, -64.2698
0.631241, -1, 28.073, 26.5337, 14.1655, 12.6975, 107.534, -64.5314
0.639298, -1, 27.8802, 26.435, 14.2045, 12.7, 107.431, -64.7932
0.647238, -1, 27.6875, 26.3361, 14.2436, 12.7024, 107.327, -65.0552
0.655276, -1, 27.4952, 26.2372, 14.2825, 12.7048, 107.224, -65.3168
0.791539, -1, 24.2104, 24.5572, 14.9454, 12.7441, 105.469, -69.7659
0.79299, -1, 24.2104, 24.5572, 14.9454, 12.7441, 105.469, -69.7659
0.794211, -1, 24.2104, 24.5572, 14.9454, 12.7441, 105.469, -69.7659
0.796241, -1, 24.1141, 24.5078, 14.9649, 12.7452, 105.417, -69.8967
0.797668, -1, 24.1141, 24.5078, 14.9649, 12.7452, 105.417, -69.8967
0.800276, -1, 24.0178, 24.4584, 14.9844, 12.7463, 105.365, -70.0273
0.801617, -1, 24.0178, 24.4584, 14.9844, 12.7463, 105.365, -70.0273
0.80638, -1, 23.9214, 24.409, 15.0039, 12.7475, 105.314, -70.1581
0.809823, -1, 23.825, 24.3596, 15.0234, 12.7488, 105.262, -70.289
0.811639, -1, 23.7285, 24.3101, 15.0429, 12.75, 105.21, -70.4199
0.813212, -1, 23.7285, 24.3101, 15.0429, 12.75, 105.21, -70.4199
0.814464, -1, 23.7285, 24.3101, 15.0429, 12.75, 105.21, -70.4199
0.816483, -1, 23.632, 24.2607, 15.0623, 12.7512, 105.159, -70.5508
0.817695, -1, 23.632, 24.2607, 15.0623, 12.7512, 105.159, -70.5508
0.819596, -1, 23.632, 24.2607, 15.0623, 12.7523, 105.107, -70.6817
0.824767, -1, 23.4387, 24.1619, 15.1013, 12.7535, 105.055, -70.8125
0.826134, -1, 23.4387, 24.1619, 15.1013, 12.7535, 105.055, -70.8125
0.828918, -1, 23.3419, 24.1124, 15.1208, 12.7548, 105.004, -70.9433
0.830288, -1, 23.3419, 24.1124, 15.1208, 12.7548, 105.004, -70.9433
0.832313, -1, 23.2449, 24.063, 15.1402, 12.756, 104.952, -71.0742
0.833606, -1, 23.2449, 24.063, 15.1402, 12.756, 104.952, -71.0742
0.834872, -1, 23.2449, 24.063, 15.1402, 12.756, 104.952, -71.0742
0.839825, -1, 23.051, 23.9641, 15.1791, 12.7584, 104.849, -71.3358
0.848803, -1, 22.857, 23.8653, 15.218, 12.7609, 104.745, -71.5978
0.855947, -1, 22.76, 23.8159, 15.2375, 12.7621, 104.693, -71.7287
0.863786, -1, 22.5661, 23.7172, 15.2765, 12.7646, 104.59, -71.9903
0.873096, -1, 22.2758, 23.5693, 15.3351, 12.7683, 104.435, -72.3824
0.88027, -1, 22.0826, 23.4706, 15.374, 12.771, 104.332, -72.6439
0.887352, -1, 21.9861, 23.4213, 15.3934, 12.7723, 104.28, -72.7748
0.897232, -1, 21.6971, 23.2733, 15.452, 12.7762, 104.125, -73.1669
0.903239, -1, 21.6011, 23.2239, 15.4715, 12.7776, 104.073, -73.2975
0.911255, -1, 21.4089, 23.1251, 15.5104, 12.7802, 103.971, -73.5589
0.92124, -1, 21.1205, 22.9771, 15.5689, 12.7842, 103.816, -73.9514
0.927233, -1, 21.0242, 22.9278, 15.5884, 12.7856, 103.764, -74.0821
0.936693, -1, 20.7355, 22.7798, 15.6468, 12.7897, 103.609, -74.4737
0.945567, -1, 20.5429, 22.6812, 15.6857, 12.7925, 103.506, -74.7349
0.951265, -1, 20.4464, 22.6319, 15.7051, 12.7938, 103.455, -74.8656
0.960843, -1, 20.156, 22.4838, 15.7635, 12.7978, 103.3, -75.2576
0.968788, -1, 20.0591, 22.3851, 15.8024, 12.8006, 103.197, -75.5187
0.976831, -1, 19.8655, 22.3358, 15.8217, 12.8033, 103.095, -75.7799
0.984812, -1, 19.6718, 22.2371, 15.8605, 12.8046, 103.043, -76.0412
0.992273, -1, 19.4782, 22.1386, 15.8995, 12.8074, 102.94, -76.1719
1.00022, -1, 19.285, 22.04, 15.9384, 12.8101, 102.837, -76.4328
1.00723, -1, 19.0921, 21.9413, 15.9773, 12.8128, 102.734, -76.6936
1.01523, -1, 18.8994, 21.8428, 16.0162, 12.8156, 102.631, -76.9545
1.02327, -1, 18.7071, 21.744, 16.0549, 12.8182, 102.528, -77.2155
1.03123, -1, 18.5153, 21.6454, 16.0938, 12.8209, 102.425, -77.4765
1.03924, -1, 18.3235, 21.5468, 16.1327, 12.8235, 102.322, -77.737
1.04725, -1, 18.1317, 21.4484, 16.1715, 12.8261, 102.219, -77.9978
1.05528, -1, 17.9398, 21.3499, 16.2104, 12.8287, 102.116, -78.2587
1.06326, -1, 17.7479, 21.2516, 16.2493, 12.8312, 102.013, -78.5195
1.07124, -1, 17.5557, 21.1533, 16.2881, 12.8337, 101.91, -78.78
1.07923, -1, 17.3631, 21.055, 16.327, 12.836, 101.807, -79.0403
1.08727, -1, 17.1701, 20.9567, 16.3658, 12.8385, 101.704, -79.3009
1.09522, -1, 16.9769, 20.8585, 16.4046, 12.8409, 101.602, -79.5617
1.10327, -1, 16.7838, 20.7602, 16.4434, 12.8431, 101.499, -79.822
1.11126, -1, 16.5907, 20.6621, 16.4822, 12.8454, 101.396, -80.0825
1.11922, -1, 16.3977, 20.5639, 16.5209, 12.8478, 101.294, -80.3431
1.12724, -1, 16.2052, 20.4656, 16.5597, 12.8501, 101.191, -80.6038
1.13526, -1, 16.0131, 20.3672, 16.5984, 12.8524, 101.088, -80.864
1.14332, -1, 15.8212, 20.2688, 16.6372, 12.8547, 100.986, -81.1241
1.15122, -1, 15.6297, 20.1703, 16.6758, 12.857, 100.883, -81.3842
1.15926, -1, 15.4386, 20.0719, 16.7144, 12.8594, 100.78, -81.6444
1.16803, -1, 15.2475, 19.9737, 16.7532, 12.8617, 100.678, -81.9045
1.17625, -1, 15.0564, 19.8755, 16.7919, 12.864, 100.575, -82.1641
1.18325, -1, 14.8651, 19.7773, 16.8306, 12.8663, 100.473, -82.4239
1.19207, -1, 14.6738, 19.6792, 16.8693, 12.8686, 100.37, -82.684
1.19956, -1, 14.4821, 19.5811, 16.908, 12.8709, 100.267, -82.944
1.20732, -1, 14.29, 19.483, 16.9467, 12.8732, 100.165, -83.2036
1.21606, -1, 14.0977, 19.385, 16.9854, 12.8754, 100.062, -83.4629
1.22383, -1, 13.9053, 19.2871, 17.0241, 12.8777, 99.9596, -83.7225
1.23227, -1, 13.7127, 19.1893, 17.0626, 12.88, 99.8573, -83.9821
1.24008, -1, 13.5203, 19.0915, 17.1014, 12.8823, 99.7547, -84.2414
1.248, -1, 13.3281, 18.9936, 17.1399, 12.8847, 99.6523, -84.5008
1.25625, -1, 13.1363, 18.8957, 17.1784, 12.887, 99.5502, -84.7601
1.26411, -1, 12.9449, 18.7978, 17.2171, 12.8894, 99.4476, -85.0195
1.27202, -1, 12.7539, 18.6998, 17.2557, 12.8917, 99.3453, -85.2786
1.28026, -1, 12.5631, 18.6019, 17.2942, 12.8942, 99.2431, -85.5376
1.2888, -1, 12.3727, 18.5042, 17.3328, 12.8966, 99.1408, -85.7965
1.29636, -1, 12.1826, 18.4064, 17.3712, 12.899, 99.0385, -86.0556
1.30363, -1, 11.9924, 18.3087, 17.4098, 12.9014, 98.9365, -86.3144
1.31179, -1, 11.802, 18.2111, 17.4484, 12.9038, 98.8344, -86.5728
1.31973, -1, 11.6113, 18.1135, 17.4869, 12.9062, 98.7327, -86.8314
1.32838, -1, 11.4204, 18.0158, 17.5255, 12.9087, 98.6307, -87.09
1.33589, -1, 11.2293, 17.9183, 17.5641, 12.9111, 98.5287, -87.3487
1.3438, -1, 11.0378, 17.8208, 17.6026, 12.9135, 98.427, -87.6071
1.35234, -1, 10.8462, 17.7234, 17.6411, 12.916, 98.3249, -87.8654
1.35993, -1, 10.7503, 17.6747, 17.6603, 12.9185, 98.2229, -88.1235
1.36829, -1, 10.463, 17.5284, 17.7179, 12.9211, 98.1212, -88.382
1.3752, -1, 10.3674, 17.4796, 17.7371, 12.9224, 98.0702, -88.5112
1.38431, -1, 10.0809, 17.3333, 17.7948, 12.9262, 97.9174, -88.8982
1.39126, -1, 9.98569, 17.2845, 17.814, 12.9276, 97.8666, -89.0272
1.40039, -1, 9.70046, 17.1382, 17.8715, 12.9315, 97.7136, -89.4145
1.40725, -1, 9.60553, 17.0895, 17.8907, 12.9329, 97.6626, -89.5436
1.41655, -1, 9.32158, 16.9435, 17.9482, 12.937, 97.5099, -89.9301
1.42323, -1, 9.22694, 16.8949, 17.9674, 12.9384, 97.4589, -90.0589
1.43276, -1, 8.94292, 16.7491, 18.0249, 12.9423, 97.3062, -90.4452
1.43926, -1, 8.84816, 16.7005, 18.0441, 12.9436, 97.2554, -90.574
1.44874, -1, 8.56378, 16.5547, 18.1018, 12.9476, 97.1028, -90.96
1.45684, -1, 8.37399, 16.4576, 18.1401, 12.9502, 97.0013, -91.2172
1.46321, -1, 8.27895, 16.4091, 18.1592, 12.9515, 96.9506, -91.3458
1.4728, -1, 8.08851, 16.2638, 18.2167, 12.9555, 96.7981, -91.7318
1.4818, -1, 7.89797, 16.2153, 18.2359, 12.9582, 96.6968, -91.9887
1.48819, -1, 7.70742, 16.1184, 18.2741, 12.9595, 96.6461, -92.117
1.49626, -1, 7.51685, 16.0214, 18.3125, 12.962, 96.5445, -92.3736
1.50321, -1, 7.32654, 15.9245, 18.3507, 12.9646, 96.4432, -92.6304
1.51222, -1, 7.13653, 15.8275, 18.3888, 12.9671, 96.342, -92.8874
1.52021, -1, 6.94695, 15.7305, 18.4271, 12.9697, 96.2406, -93.1437
1.52823, -1, 6.75778, 15.6336, 18.4653, 12.9722, 96.1397, -93.4002
1.53519, -1, 6.56897, 15.5367, 18.5033, 12.9747, 96.0388, -93.6565
1.54324, -1, 6.38067, 15.44, 18.5415, 12.9771, 95.9378, -93.9129
1.55121, -1, 6.19261, 15.3433, 18.5797, 12.9797, 95.8368, -94.1692
1.55933, -1, 6.00446, 15.2466, 18.6178, 12.9821, 95.7358, -94.4251
1.56719, -1, 5.81612, 15.1499, 18.656, 12.9843, 95.6348, -94.681
1.57525, -1, 5.62769, 15.0532, 18.6941, 12.9867, 95.534, -94.937
1.58326, -1, 5.43909, 14.9566, 18.7322, 12.989, 95.4333, -95.1928
1.59119, -1, 5.25019, 14.8601, 18.7704, 12.9913, 95.3325, -95.4482
1.59921, -1, 5.06084, 14.7638, 18.8085, 12.9935, 95.2319, -95.7036
1.60728, -1, 4.8714, 14.6674, 18.8465, 12.9957, 95.1312, -95.9592
1.6152, -1, 4.68198, 14.571, 18.8846, 12.998, 95.0303, -96.2147
1.62322, -1, 4.49263, 14.4747, 18.9227, 13.0002, 94.9297, -96.4697
1.63124, -1, 4.30354, 14.3783, 18.9606, 13.0024, 94.8289, -96.7246
1.63923, -1, 4.11467, 14.2819, 18.9987, 13.0045, 94.728, -96.9796
1.6472, -1, 3.92634, 14.1856, 19.0365, 13.0069, 94.6273, -97.2347
1.65525, -1, 3.73861, 14.0895, 19.0745, 13.0091, 94.5264, -97.4896
1.66323, -1, 3.55124, 13.9933, 19.1125, 13.0114, 94.4257, -97.7442
1.6712, -1, 3.36427, 13.8972, 19.1503, 13.0137, 94.3253, -97.9988
1.67929, -1, 3.17726, 13.8012, 19.1881, 13.016, 94.2245, -98.2537
1.68723, -1, 2.99027, 13.7052, 19.226, 13.0182, 94.1238, -98.5082
1.69528, -1, 2.80332, 13.6091, 19.2639, 13.0205, 94.0233, -98.7624
1.70336, -1, 2.61606, 13.5131, 19.3018, 13.0227, 93.9226, -99.0165
1.7113, -1, 2.42872, 13.4172, 19.3396, 13.0251, 93.8222, -99.2706
1.7193, -1, 2.24118, 13.3214, 19.3773, 13.0273, 93.722, -99.5248
1.72741, -1, 2.0531, 13.2256, 19.4152, 13.0295, 93.6216, -99.7787
1.7352, -1, 1.86495, 13.1298, 19.453, 13.0318, 93.5216, -100.032
1.74335, -1, 1.67675, 13.0339, 19.4907, 13.0341, 93.4217, -100.286
1.75131, -1, 1.48856, 12.9381, 19.5285, 13.0363, 93.3215, -100.54
1.75923, -1, 1.30054, 12.8423, 19.5664, 13.0386, 93.2215, -100.793
1.76732, -1, 1.11297, 12.7465, 19.604, 13.0409, 93.1215, -101.046
1.77571, -1, 0.925935, 12.6508, 19.6418, 13.0433, 93.0214, -101.299
1.7834, -1, 0.739373, 12.5553, 19.6795, 13.0457, 92.9217, -101.552
1.79159, -1, 0.553258, 12.4598, 19.717, 13.0481, 92.822, -101.805
1.79954, -1, 0.367548, 12.3644, 19.7547, 13.0505, 92.7221, -102.058
1.80759, -1, 0.181967, 12.2691, 19.7924, 13.053, 92.6228, -102.311
1.81577, -1, -0.00347445, 12.1737, 19.8299, 13.0555, 92.5232, -102.563
1.82446, -1, -0.18902, 12.0785, 19.8675, 13.0579, 92.4236, -102.816
1.83175, -1, -0.374773, 11.9833, 19.9052, 13.0604, 92.3242, -103.068
1.84029, -1, -0.560884, 11.8881, 19.9427, 13.063, 92.2248, -103.32
1.84779, -1, -0.747189, 11.7932, 19.9803, 13.0654, 92.1253, -103.572
1.85624, -1, -0.933769, 11.6981, 20.0178, 13.0679, 92.0259, -103.824
1.86385, -1, -1.02713, 11.6506, 20.0365, 13.0691, 91.9265, -104.076
1.87245, -1, -1.30746, 11.508, 20.0927, 13.0729, 91.8271, -104.328
1.87918, -1, -1.40095, 11.4605, 20.1115, 13.0742, 91.7775, -104.453
1.88831, -1, -1.6809, 11.3178, 20.1676, 13.078, 91.6288, -104.831
1.89523, -1, -1.77407, 11.2703, 20.1863, 13.0793, 91.5792, -104.957
1.90438, -1, -2.05285, 11.1278, 20.2425, 13.0833, 91.4306, -105.334
1.91121, -1, -2.14542, 11.0804, 20.2612, 13.0846, 91.381, -105.459
1.92066, -1, -2.42271, 10.938, 20.3172, 13.0886, 91.2321, -105.835
1.92854, -1, -2.60712, 10.8433, 20.3545, 13.0912, 91.1332, -106.087
1.93518, -1, -2.69907, 10.7959, 20.3732, 13.0925, 91.0836, -106.212
1.94471, -1, -2.97495, 10.6538, 20.4292, 13.0964, 90.9349, -106.588
1.95271, -1, -3.15911, 10.5591, 20.4665, 13.099, 90.8362, -106.839
1.96082, -1, -3.34336, 10.4646, 20.5037, 13.1016, 90.7372, -107.089
1.96901, -1, -3.52799, 10.3701, 20.5409, 13.1041, 90.6383, -107.34
1.97676, -1, -3.62038, 10.3229, 20.5782, 13.1067, 90.5396, -107.59
1.98482, -1, -3.80533, 10.2285, 20.5968, 13.1092, 90.4407, -107.84
1.99219, -1, -3.99056, 10.1342, 20.6341, 13.1104, 90.3914, -107.965
2.00023, -1, -4.17593, 10.0398, 20.6713, 13.1129, 90.2928, -108.215
2.00824, -1, -4.36163, 9.94555, 20.7084, 13.1152, 90.1942, -108.465
2.01621, -1, -4.54709, 9.85118, 20.7456, 13.1175, 90.0956, -108.714
2.0232, -1, -4.73218, 9.75697, 20.7829, 13.1198, 89.9972, -108.964
2.03119, -1, -4.91684, 9.66282, 20.8199, 13.1222, 89.8987, -109.213
2.03997, -1, -5.10105, 9.56877, 20.857, 13.1246, 89.8001, -109.463
2.04718, -1, -5.28451, 9.47473, 20.8942, 13.1269, 89.7019, -109.712
2.05518, -1, -5.46764, 9.38078, 20.9312, 13.1292, 89.6034, -109.961
2.06405, -1, -5.65034, 9.28691, 20.9683, 13.1314, 89.5051, -110.21
2.07223, -1, -5.83279, 9.19301, 21.0054, 13.1337, 89.4071, -110.458
2.08016, -1, -6.01514, 9.09913, 21.0424, 13.136, 89.3089, -110.707
2.08819, -1, -6.19774, 9.00528, 21.0794, 13.1382, 89.2107, -110.955
2.09624, -1, -6.38055, 8.91158, 21.1165, 13.1404, 89.113, -111.204
2.1042, -1, -6.56362, 8.81793, 21.1533, 13.1426, 89.015, -111.452
2.11218, -1, -6.74695, 8.7243, 21.1901, 13.1448, 88.917, -111.7
2.12024, -1, -6.93074, 8.63072, 21.2271, 13.1469, 88.8192, -111.948
2.12818, -1, -7.11473, 8.53711, 21.264, 13.149, 88.7213, -112.196
2.13619, -1, -7.29903, 8.44355, 21.3009, 13.1511, 88.6235, -112.444
2.14318, -1, -7.48301, 8.34988, 21.3378, 13.1533, 88.5259, -112.691
2.15125, -1, -7.66672, 8.25636, 21.3746, 13.1554, 88.4282, -112.939
2.15999, -1, -7.85003, 8.16293, 21.4114, 13.1576, 88.3307, -113.186
2.16822, -1, -8.0328, 8.06955, 21.4483, 13.1599, 88.2334, -113.433
2.17539, -1, -8.21495, 7.97627, 21.485, 13.1621, 88.136, -113.68
2.18404, -1, -8.39654, 7.88304, 21.5218, 13.1644, 88.0385, -113.928
2.19218, -1, -8.57772, 7.78979, 21.5587, 13.1666, 87.9413, -114.174
2.19951, -1, -8.75857, 7.69663, 21.5955, 13.1689, 87.8438, -114.421
2.20807, -1, -8.93924, 7.6035, 21.6322, 13.1711, 87.7463, -114.667
2.21621, -1, -9.1202, 7.51043, 21.669, 13.1734, 87.6493, -114.914
2.22375, -1, -9.30137, 7.41753, 21.7056, 13.1756, 87.552, -115.16
2.23212, -1, -9.48287, 7.32475, 21.7422, 13.1778, 87.4548, -115.406
2.23918, -1, -9.66464, 7.2319, 21.7789, 13.18, 87.3579, -115.652
2.24801, -1, -9.84677, 7.13918, 21.8155, 13.1823, 87.2606, -115.898
2.25625, -1, -10.0293, 7.04647, 21.8521, 13.1844, 87.1634, -116.144
2.26322, -1, -10.212, 6.95372, 21.8887, 13.1867, 87.0664, -116.39
2.2721, -1, -10.3946, 6.86098, 21.9253, 13.1889, 86.969, -116.636
2.28029, -1, -10.577, 6.76829, 21.9619, 13.1912, 86.872, -116.881
2.28738, -1, -10.759, 6.67565, 21.9985, 13.1935, 86.7751, -117.126
2.29636, -1, -10.9406, 6.58309, 22.0348, 13.196, 86.6781, -117.372
2.30358, -1, -11.1214, 6.49056, 22.0713, 13.1983, 86.5813, -117.617
2.31166, -1, -11.3014, 6.3981, 22.1079, 13.2008, 86.4848, -117.862
2.32049, -1, -11.4811, 6.30567, 22.1444, 13.2032, 86.388, -118.107
2.32772, -1, -11.6606, 6.21326, 22.1808, 13.2056, 86.2913, -118.352
2.33574, -1, -11.8398, 6.12091, 22.2173, 13.2081, 86.1948, -118.596
2.3447, -1, -12.0191, 6.02866, 22.2537, 13.2105, 86.098, -118.841
2.3528, -1, -12.1087, 5.93652, 22.2901, 13.213, 86.0016, -119.085
2.36018, -1, -12.3781, 5.84451, 22.3266, 13.2155, 85.9053, -119.329
2.36717, -1, -12.4681, 5.79849, 22.3447, 13.2167, 85.8572, -119.451
2.37517, -1, -12.6484, 5.70646, 22.3809, 13.2192, 85.7608, -119.695
2.38423, -1, -12.9195, 5.5686, 22.4355, 13.2229, 85.6168, -120.061
2.39117, -1, -13.0101, 5.52266, 22.4536, 13.2242, 85.5688, -120.182
2.39922, -1, -13.1914, 5.43067, 22.4898, 13.2266, 85.4728, -120.426
2.40846, -1, -13.4631, 5.29271, 22.5442, 13.2302, 85.3291, -120.792
2.41519, -1, -13.5534, 5.24677, 22.5623, 13.2315, 85.2813, -120.913
2.42577, -1, -13.8239, 5.10898, 22.6164, 13.2353, 85.1375, -121.277
2.43266, -1, -14.0034, 5.01715, 22.6526, 13.2379, 85.0418, -121.521
2.44061, -1, -14.182, 4.92542, 22.6887, 13.2404, 84.9462, -121.764
2.44871, -1, -14.3603, 4.83373, 22.7247, 13.243, 84.8506, -122.006
2.45516, -1, -14.4493, 4.78792, 22.7428, 13.2443, 84.8028, -122.127
2.46476, -1, -14.7159, 4.65048, 22.7972, 13.2481, 84.6594, -122.491
2.47277, -1, -14.8935, 4.55894, 22.8332, 13.2504, 84.5636, -122.734
2.47919, -1, -14.9823, 4.51318, 22.8512, 13.2517, 84.5158, -122.855
2.48871, -1, -15.1601, 4.42188, 22.8874, 13.2541, 84.4203, -123.097
2.49618, -1, -15.3383, 4.33061, 22.9234, 13.2566, 84.3245, -123.339
2.50317, -1, -15.5171, 4.23926, 22.9594, 13.2589, 84.2289, -123.58
2.51216, -1, -15.6962, 4.14801, 22.9954, 13.2612, 84.1335, -123.822
2.52018, -1, -15.8754, 4.05679, 23.0313, 13.2634, 84.0379, -124.064
2.52819, -1, -16.0548, 3.96555, 23.0672, 13.2656, 83.9424, -124.305
2.53618, -1, -16.2347, 3.87427, 23.1033, 13.2678, 83.8472, -124.547
2.54419, -1, -16.4143, 3.78307, 23.1391, 13.2699, 83.7516, -124.788
2.5522, -1, -16.5935, 3.69191, 23.1749, 13.2721, 83.6562, -125.03
2.56016, -1, -16.7722, 3.6008, 23.2107, 13.2744, 83.561, -125.271
2.56821, -1, -16.9502, 3.50975, 23.2466, 13.2766, 83.4654, -125.512
2.5778, -1, -17.2157, 3.37332, 23.3002, 13.2799, 83.3225, -125.873
2.58416, -1, -17.3039, 3.32785, 23.3182, 13.281, 83.2751, -125.993
2.59223, -1, -17.4803, 3.23699, 23.3539, 13.2831, 83.1799, -126.234
2.60017, -1, -17.6565, 3.14622, 23.3897, 13.2853, 83.085, -126.474
2.60816, -1, -17.8325, 3.05558, 23.4256, 13.2875, 82.9902, -126.714
2.61624, -1, -18.0086, 2.96502, 23.4614, 13.2896, 82.8953, -126.954
2.62417, -1, -18.185, 2.87464, 23.497, 13.2917, 82.8005, -127.195
2.63216, -1, -18.3617, 2.78422, 23.5328, 13.2938, 82.706, -127.435
2.63916, -1, -18.539, 2.6938, 23.5685, 13.2958, 82.6112, -127.674
2.64729, -1, -18.7166, 2.60344, 23.6041, 13.2979, 82.5166, -127.914
2.65516, -1, -18.8945, 2.51308, 23.6399, 13.2999, 82.4222, -128.153
2.66316, -1, -19.0727, 2.42259, 23.6755, 13.3018, 82.3277, -128.393
2.67129, -1, -19.2509, 2.33218, 23.7111, 13.3039, 82.2333, -128.632
2.67917, -1, -19.4289, 2.2418, 23.7467, 13.3059, 82.1392, -128.871
2.68721, -1, -19.6062, 2.15144, 23.7823, 13.3081, 82.0451, -129.11
2.6956, -1, -19.7831, 2.06113, 23.8177, 13.3103, 81.951, -129.349
2.70325, -1, -19.9591, 1.97086, 23.8532, 13.3125, 81.8568, -129.588
2.71125, -1, -20.1346, 1.88063, 23.8888, 13.3146, 81.7628, -129.827
2.71967, -1, -20.3095, 1.79049, 23.9243, 13.3169, 81.6688, -130.065
2.72728, -1, -20.4843, 1.70035, 23.9598, 13.3191, 81.5748, -130.304
2.73531, -1, -20.6587, 1.61035, 23.9954, 13.3212, 81.481, -130.542
2.74395, -1, -20.8333, 1.52042, 24.0308, 13.3234, 81.387, -130.78
2.75226, -1, -21.0081, 1.4306, 24.0663, 13.3257, 81.2933, -131.018
2.7592, -1, -21.1833, 1.34088, 24.1019, 13.3278, 81.1997, -131.256
2.76807, -1, -21.3589, 1.25111, 24.1373, 13.3299, 81.1057, -131.493
2.77623, -1, -21.5348, 1.16145, 24.1726, 13.3321, 81.0118, -131.731
2.78335, -1, -21.7109, 1.07183, 24.2081, 13.3343, 80.9181, -131.969
2.79157, -1, -21.8872, 0.982147, 24.2435, 13.3365, 80.8242, -132.206
2.79946, -1, -22.0638, 0.892537, 24.2789, 13.3386, 80.7305, -132.443
2.80765, -1, -22.2403, 0.802968, 24.3144, 13.3408, 80.637, -132.681
2.81627, -1, -22.4166, 0.713491, 24.3497, 13.343, 80.5433, -132.918
2.82366, -1, -22.5924, 0.623976, 24.3848, 13.3453, 80.4496, -133.155
2.83225, -1, -22.7677, 0.534551, 24.4201, 13.3477, 80.3563, -133.391
2.84011, -1, -22.9421, 0.445166, 24.4554, 13.35, 80.2625, -133.628
2.84774, -1, -23.1158, 0.355747, 24.4906, 13.3526, 80.169, -133.865
2.85626, -1, -23.2894, 0.266412, 24.5257, 13.355, 80.0756, -134.102
2.86378, -1, -23.376, 0.221744, 24.5434, 13.3562, 80.0289, -134.338
2.87217, -1, -23.6357, 0.087959, 24.5962, 13.3598, 79.8887, -134.574
2.87921, -1, -23.7224, 0.0433798, 24.6138, 13.361, 79.8421, -134.692
2.8886, -1, -23.9825, -0.0901215, 24.6666, 13.3646, 79.7023, -135.047
2.89515, -1, -24.0693, -0.1346, 24.6841, 13.3658, 79.6557, -135.165
2.9043, -1, -24.3302, -0.268103, 24.7367, 13.3695, 79.5163, -135.518
2.91116, -1, -24.4173, -0.312561, 24.7544, 13.3707, 79.4698, -135.636
2.92043, -1, -24.6791, -0.445865, 24.807, 13.3744, 79.3301, -135.989
2.9272, -1, -24.7665, -0.490329, 24.8245, 13.3756, 79.2836, -136.107
2.9369, -1, -25.0291, -0.623607, 24.8773, 13.3791, 79.1441, -136.46
2.94462, -1, -25.204, -0.712412, 24.9123, 13.3816, 79.0512, -136.695
2.95267, -1, -25.3785, -0.801159, 24.9473, 13.3839, 78.9584, -136.93
2.96074, -1, -25.5527, -0.889996, 24.9824, 13.3864, 78.8659, -137.165
2.96872, -1, -25.7262, -0.97875, 25.0173, 13.3889, 78.7731, -137.4
2.97676, -1, -25.899, -1.06744, 25.0522, 13.3913, 78.6804, -137.635
2.98501, -1, -25.9853, -1.1118, 25.0697, 13.3937, 78.5883, -137.869
2.99122, -1, -26.1575, -1.20049, 25.1048, 13.3949, 78.5419, -137.987
3.0002, -1, -26.3294, -1.28907, 25.1397, 13.3973, 78.4493, -138.221
3.00821, -1, -26.5012, -1.37754, 25.1745, 13.3996, 78.3569, -138.456
3.01615, -1, -26.6732, -1.4659, 25.2096, 13.4018, 78.2645, -138.69
3.02421, -1, -26.8454, -1.55414, 25.2445, 13.404, 78.172, -138.924
3.03216, -1, -27.0177, -1.64228, 25.2794, 13.4063, 78.0796, -139.158
3.03922, -1, -27.1903, -1.73047, 25.3144, 13.4085, 77.9876, -139.392
3.04715, -1, -27.3629, -1.81866, 25.3492, 13.4107, 77.8953, -139.626
3.05517, -1, -27.536, -1.90666, 25.384, 13.4128, 77.8033, -139.859
3.06322, -1, -27.7092, -1.99485, 25.4189, 13.4148, 77.7115, -140.092
3.07119, -1, -27.8825, -2.08296, 25.4538, 13.417, 77.6193, -140.326
3.07929, -1, -28.0558, -2.17097, 25.4885, 13.419, 77.5272, -140.559
3.08715, -1, -28.229, -2.25899, 25.5233, 13.421, 77.4353, -140.793
3.09516, -1, -28.4019, -2.34704, 25.5581, 13.4231, 77.3431, -141.026
3.10393, -1, -28.5745, -2.43503, 25.5928, 13.4252, 77.251, -141.258
3.11221, -1, -28.7466, -2.52301, 25.6275, 13.4273, 77.1591, -141.491
3.12016, -1, -28.9179, -2.61105, 25.6622, 13.4295, 77.067, -141.724
3.12816, -1, -29.0887, -2.69897, 25.6968, 13.4317, 76.9752, -141.957
3.13621, -1, -29.2593, -2.78681, 25.7314, 13.4338, 76.8835, -142.189
3.14315, -1, -29.4299, -2.87457, 25.7661, 13.4358, 76.7915, -142.422
3.15196, -1, -29.6008, -2.96219, 25.8007, 13.4378, 76.6998, -142.654
3.16023, -1, -29.7717, -3.04972, 25.8352, 13.4399, 76.6079, -142.887
3.16715, -1, -29.9427, -3.13724, 25.8699, 13.442, 76.5162, -143.119
3.17523, -1, -30.1137, -3.22472, 25.9045, 13.4441, 76.4244, -143.351
3.18316, -1, -30.2847, -3.3122, 25.939, 13.4461, 76.3326, -143.583
3.19128, -1, -30.456, -3.39958, 25.9736, 13.4482, 76.2412, -143.815
3.20001, -1, -30.6277, -3.48714, 26.0081, 13.4502, 76.1496, -144.046
3.20814, -1, -30.7996, -3.57457, 26.0425, 13.4523, 76.0582, -144.278
3.21532, -1, -30.9714, -3.66194, 26.077, 13.4542, 75.967, -144.509
3.2245, -1, -31.1431, -3.74929, 26.1116, 13.4562, 75.8755, -144.74
3.23126, -1, -31.3146, -3.83662, 26.1459, 13.4583, 75.7841, -144.972
3.23935, -1, -31.4857, -3.92398, 26.1804, 13.4604, 75.693, -145.203
3.24715, -1, -31.6563, -4.01122, 26.2149, 13.4627, 75.6015, -145.434
3.25522, -1, -31.8266, -4.0985, 26.2492, 13.4647, 75.5103, -145.665
3.26325, -1, -31.9965, -4.18577, 26.2835, 13.4669, 75.4194, -145.896
3.27125, -1, -32.166, -4.27291, 26.318, 13.4692, 75.3282, -146.127
3.27938, -1, -32.3353, -4.36, 26.3523, 13.4713, 75.2371, -146.357
3.2874, -1, -32.5049, -4.44702, 26.3865, 13.4735, 75.1464, -146.588
3.29542, -1, -32.6746, -4.53395, 26.4209, 13.4755, 75.0555, -146.818
3.30358, -1, -32.8442, -4.62087, 26.4553, 13.4777, 74.9647, -147.049
3.31153, -1, -33.0139, -4.7078, 26.4894, 13.4799, 74.874, -147.279
3.31968, -1, -33.1837, -4.79472, 26.5237, 13.4821, 74.7835, -147.509
3.32823, -1, -33.3536, -4.88154, 26.558, 13.4843, 74.6928, -147.739
3.33567, -1, -33.5239, -4.9685, 26.5923, 13.4866, 74.6021, -147.969
3.3451, -1, -33.6942, -5.05538, 26.6264, 13.4887, 74.5118, -148.199
3.35183, -1, -33.8644, -5.14211, 26.6607, 13.4909, 74.421, -148.429
3.36032, -1, -34.0347, -5.22884, 26.6948, 13.4932, 74.3306, -148.658
3.36769, -1, -34.1198, -5.27221, 26.7119, 13.4943, 74.2854, -148.773
3.37575, -1, -34.2899, -5.35891, 26.7461, 13.4966, 74.1949, -149.002
3.38425, -1, -34.5446, -5.48885, 26.7974, 13.5001, 74.0588, -149.346
3.39114, -1, -34.6293, -5.53217, 26.8144, 13.5013, 74.0136, -149.461
3.40028, -1, -34.8826, -5.66208, 26.8656, 13.5048, 73.8778, -149.805
3.40717, -1, -34.9668, -5.70537, 26.8827, 13.5061, 73.8325, -149.919
3.41642, -1, -35.2193, -5.83507, 26.9337, 13.5098, 73.697, -150.263
3.42314, -1, -35.3035, -5.87828, 26.9507, 13.511, 73.6519, -150.377
3.43251, -1, -35.5562, -6.00763, 27.0019, 13.5146, 73.5163, -150.721
3.43918, -1, -35.6405, -6.05075, 27.0189, 13.5158, 73.4711, -150.835
3.44926, -1, -35.8932, -6.18004, 27.0698, 13.5193, 73.3358, -151.178
3.45517, -1, -35.9775, -6.22312, 27.0869, 13.5205, 73.2905, -151.292
3.46473, -1, -36.2303, -6.35228, 27.1379, 13.5241, 73.1549, -151.635
3.4728, -1, -36.399, -6.43845, 27.1717, 13.5265, 73.0647, -151.864
3.48073, -1, -36.4834, -6.52466, 27.2057, 13.5288, 72.9741, -152.092
3.48874, -1, -36.6523, -6.56773, 27.2227, 13.53, 72.8839, -152.32
3.49687, -1, -36.8212, -6.65392, 27.2566, 13.5322, 72.794, -152.548
3.50413, -1, -36.9901, -6.74001, 27.2904, 13.5345, 72.749, -152.662
3.51217, -1, -37.159, -6.82616, 27.3244, 13.5368, 72.6587, -152.89
3.52138, -1, -37.4119, -6.9552, 27.3751, 13.5401, 72.524, -153.232
3.52713, -1, -37.4961, -6.99821, 27.392, 13.5413, 72.4791, -153.345
3.53513, -1, -37.6639, -7.08421, 27.426, 13.5436, 72.3891, -153.573
3.5432, -1, -37.8316, -7.17019, 27.4598, 13.5458, 72.2993, -153.8
3.55114, -1, -37.9991, -7.25609, 27.4936, 13.548, 72.2097, -154.028
3.55913, -1, -38.1665, -7.34199, 27.5275, 13.5503, 72.1198, -154.255
3.56721, -1, -38.334, -7.42779, 27.5614, 13.5524, 72.03, -154.482
3.57517, -1, -38.5013, -7.51347, 27.5952, 13.5545, 71.9405, -154.709
3.58314, -1, -38.6686, -7.59922, 27.629, 13.5565, 71.8508, -154.937
3.59121, -1, -38.8359, -7.68493, 27.6629, 13.5586, 71.7614, -155.164
3.59913, -1, -39.0032, -7.77059, 27.6965, 13.5607, 71.672, -155.391
3.60713, -1, -39.1706, -7.85619, 27.7303, 13.5627, 71.5828, -155.618
3.6152, -1, -39.3381, -7.94191, 27.7642, 13.5647, 71.4933, -155.844
3.62317, -1, -39.5057, -8.02754, 27.7979, 13.5666, 71.4039, -156.071
3.63115, -1, -39.6733, -8.11305, 27.8315, 13.5686, 71.3149, -156.298
3.63921, -1, -39.841, -8.19855, 27.8653, 13.5706, 71.2253, -156.524
3.64717, -1, -40.0085, -8.28402, 27.899, 13.5725, 71.136, -156.751
3.65515, -1, -40.176, -8.36939, 27.9327, 13.5744, 71.0467, -156.977
3.6632, -1, -40.3433, -8.45475, 27.9664, 13.5764, 70.9573, -157.203
3.67114, -1, -40.5103, -8.54014, 28.0002, 13.5784, 70.8681, -157.429
3.67914, -1, -40.6772, -8.6255, 28.0338, 13.5803, 70.779, -157.655
3.68721, -1, -40.844, -8.71085, 28.0674, 13.5823, 70.6899, -157.881
3.69518, -1, -41.0105, -8.79617, 28.1012, 13.5844, 70.6008, -158.107
3.70322, -1, -41.1769, -8.88147, 28.1348, 13.5864, 70.5116, -158.333
3.71129, -1, -41.3431, -8.96662, 28.1683, 13.5884, 70.4226, -158.559
3.71923, -1, -41.5093, -9.05178, 28.2021, 13.5904, 70.3333, -158.784
3.72723, -1, -41.6756, -9.1369, 28.2357, 13.5924, 70.2441, -159.01
3.7353, -1, -41.842, -9.22196, 28.2692, 13.5944, 70.1553, -159.235
3.74327, -1, -42.0085, -9.30702, 28.3029, 13.5964, 70.066, -159.461
3.75115, -1, -42.1748, -9.39208, 28.3366, 13.5985, 69.9771, -159.686
3.75934, -1, -42.3411, -9.47718, 28.3701, 13.6005, 69.8883, -159.911
3.76724, -1, -42.5074, -9.56213, 28.4036, 13.6025, 69.7992, -160.136
3.77527, -1, -42.6737, -9.64711, 28.4372, 13.6045, 69.7104, -160.362
3.78332, -1, -42.8401, -9.73208, 28.4706, 13.6066, 69.6215, -160.587
3.79136, -1, -43.0064, -9.817, 28.504, 13.6086, 69.5327, -160.812
3.7994, -1, -43.1727, -9.9019, 28.5376, 13.6106, 69.4439, -161.037
3.80783, -1, -43.3388, -9.98684, 28.5711, 13.6127, 69.3552, -161.261
3.81624, -1, -43.5048, -10.0717, 28.6045, 13.6148, 69.2668, -161.486
3.8236, -1, -43.6708, -10.1567, 28.638, 13.6168, 69.178, -161.711
3.83177, -1, -43.8367, -10.2415, 28.6715, 13.619, 69.0895, -161.936
3.84029, -1, -44.0025, -10.3263, 28.7048, 13.6212, 69.0012, -162.16
3.84769, -1, -44.168, -10.4111, 28.7383, 13.6232, 68.9125, -162.384
3.85625, -1, -44.3333, -10.4957, 28.7718, 13.6255, 68.8239, -162.609
3.8637, -1, -44.4159, -10.538, 28.7885, 13.6276, 68.7353, -162.833
3.87164, -1, -44.5811, -10.6225, 28.8218, 13.6288, 68.6911, -162.945
3.88016, -1, -44.8289, -10.7493, 28.872, 13.632, 68.5582, -163.281
3.88712, -1, -44.9116, -10.7915, 28.8887, 13.6331, 68.5139, -163.393
3.89622, -1, -45.1595, -10.9182, 28.9387, 13.6364, 68.3814, -163.729
3.90318, -1, -45.2422, -10.9605, 28.9554, 13.6375, 68.3371, -163.841
3.91115, -1, -45.4074, -11.0449, 28.9889, 13.6398, 68.2487, -164.066
3.92041, -1, -45.6552, -11.1716, 29.0386, 13.6433, 68.1165, -164.401
3.92717, -1, -45.7379, -11.2138, 29.0552, 13.6444, 68.0722, -164.513
3.93513, -1, -45.9028, -11.2981, 29.0887, 13.6466, 67.9838, -164.737
3.94456, -1, -46.1462, -11.4222, 29.1388, 13.6501, 67.8515, -165.071
3.95315, -1, -46.3033, -11.5016, 29.1724, 13.6524, 67.7641, -165.292
3.95916, -1, -46.3795, -11.5397, 29.1892, 13.6536, 67.7211, -165.401
3.96867, -1, -46.595, -11.6467, 29.2381, 13.6571, 67.5974, -165.714
3.97673, -1, -46.7247, -11.7101, 29.268, 13.6593, 67.5226, -165.904
3.98482, -1, -46.8399, -11.7663, 29.2944, 13.6613, 67.4556, -166.073
3.99273, -1, -46.8914, -11.7917, 29.3061, 13.663, 67.3997, -166.215
4.00095, -1, -46.9822, -11.8378, 29.3256, 13.6637, 67.3758, -166.276
4.00712, -1, -47.057, -11.8778, 29.3394, 13.6647, 67.3365, -166.374
4.01621, -1, -47.1169, -11.9111, 29.3486, 13.6653, 67.3081, -166.446
4.02415, -1, -47.1624, -11.9369, 29.3541, 13.6656, 67.2892, -166.494
4.03218, -1, -47.1955, -11.9556, 29.3568, 13.6658, 67.2775, -166.523
4.03911, -1, -47.2182, -11.9683, 29.3581, 13.6659, 67.2709, -166.54
4.04718, -1, -47.2325, -11.9761, 29.3586, 13.6659, 67.2675, -166.549
4.05514, -1, -47.2406, -11.9804, 29.3589, 13.666, 67.2658, -166.553
4.06312, 2, -47.2444, -11.9824, 29.3591, 13.666, 67.2651, -166.554
4.07118, 2, -47.2452, -11.9833, 29.3592, 13.6661, 67.2648, -166.555
4.07916, 2, -47.245, -11.9836, 29.3593, 13.666, 67.2646, -166.556
4.08712, 2, -47.2449, -11.9837, 29.3593, 13.666, 67.2645, -166.556
4.09519, 2, -47.245, -11.9838, 29.3593, 13.6661, 67.2645, -166.556
4.10312, 2, -47.2457, -11.9839, 29.3594, 13.6661, 67.2644, -166.556
4.11111, 2, -47.2467, -11.9844, 29.3594, 13.6661, 67.2644, -166.556
4.11918, 2, -47.2484, -11.985, 29.3594, 13.6661, 67.2644, -166.556
4.12715, 2, -47.2501, -11.9859, 29.3594, 13.666, 67.2644, -166.556
4.13513, 2, -47.2516, -11.9868, 29.3594, 13.666, 67.2644, -166.556
4.1432, 2, -47.2528, -11.9875, 29.3594, 13.666, 67.2644, -166.556
4.15112, 2, -47.2535, -11.9881, 29.3594, 13.6661, 67.2644, -166.556
4.15914, 2, -47.2538, -11.9884, 29.3594, 13.6661, 67.2644, -166.556
4.16725, 2, -47.2539, -11.9885, 29.3594, 13.6661, 67.2644, -166.556
4.17513, 2, -47.2539, -11.9885, 29.3594, 13.6661, 67.2644, -166.556
4.18313, 2, -47.2534, -11.9885, 29.3594, 13.6661, 67.2644, -166.556
4.19121, 2, -47.2529, -11.9885, 29.3594, 13.6661, 67.2645, -166.556
4.19917, 2, -47.2525, -11.9885, 29.3594, 13.666, 67.2644, -166.556
4.2072, 2, -47.2522, -11.9885, 29.3594, 13.6661, 67.2644, -166.556
4.21533, 2, -47.2521, -11.9885, 29.3594, 13.6661, 67.2644, -166.556
4.22321, 2, -47.2522, -11.9886, 29.3594, 13.6661, 67.2645, -166.556
4.23122, 2, -47.2523, -11.9889, 29.3594, 13.6661, 67.2645, -166.556
4.23929, 2, -47.2527, -11.9892, 29.3594, 13.6661, 67.2644, -166.556
4.24725, 2, -47.2533, -11.9895, 29.3594, 13.666, 67.2645, -166.556
4.25513, 2, -47.2538, -11.9898, 29.3594, 13.6661, 67.2645, -166.556
4.26322, 2, -47.2541, -11.9899, 29.3594, 13.666, 67.2644, -166.556
4.27115, 2, -47.2541, -11.9899, 29.3594, 13.6661, 67.2645, -166.556
4.27921, 2, -47.254, -11.9899, 29.3594, 13.666, 67.2645, -166.556
4.28768, 2, -47.2539, -11.9899, 29.3594, 13.666, 67.2645, -166.556
4.29538, 2, -47.2536, -11.9898, 29.3594, 13.666, 67.2645, -166.556
4.30338, 2, -47.2532, -11.9897, 29.3594, 13.666, 67.2645, -166.556
4.31191, 2, -47.2529, -11.9898, 29.3594, 13.666, 67.2644, -166.556
4.32022, 2, -47.2527, -11.9897, 29.3594, 13.6661, 67.2645, -166.556
4.32761, 2, -47.2525, -11.9898, 29.3594, 13.666, 67.2645, -166.556
4.33607, 2, -47.2524, -11.9898, 29.3594, 13.666, 67.2646, -166.556
4.34366, 2, -47.2524, -11.9898, 29.3594, 13.666, 67.2645, -166.556
4.35228, 2, -47.2524, -11.9899, 29.3594, 13.666, 67.2645, -166.556
4.36002, 2, -47.2524, -11.99, 29.3594, 13.666, 67.2645, -166.556
4.36763, 2, -47.2524, -11.99, 29.3594, 13.666, 67.2645, -166.556
4.37611, 2, -47.2524, -11.99, 29.3594, 13.666, 67.2645, -166.556
4.38402, 2, -47.2524, -11.99, 29.3594, 13.666, 67.2645, -166.556
4.39111, 2, -47.2524, -11.9899, 29.3594, 13.666, 67.2645, -166.556
4.40022, 2, -47.2523, -11.9898, 29.3594, 13.666, 67.2646, -166.556
4.40715, 2, -47.2522, -11.9898, 29.3594, 13.666, 67.2645, -166.556
4.41516, 2, -47.2521, -11.9897, 29.3594, 13.666, 67.2645, -166.556
4.42436, 2, -47.2519, -11.9897, 29.3594, 13.666, 67.2645, -166.556
4.43115, 2, -47.2519, -11.9897, 29.3594, 13.666, 67.2645, -166.556
4.4391, 2, -47.2518, -11.9897, 29.3594, 13.666, 67.2645, -166.556
4.44853, 2, -47.2517, -11.9897, 29.3594, 13.666, 67.2645, -166.556
4.45517, 2, -47.2517, -11.9898, 29.3594, 13.666, 67.2646, -166.556
4.46314, 2, -47.2517, -11.9898, 29.3594, 13.666, 67.2646, -166.556
4.47267, 2, -47.2515, -11.9898, 29.3594, 13.666, 67.2646, -166.556
4.48107, 2, -47.2515, -11.9897, 29.3594, 13.666, 67.2646, -166.555
4.4871, 2, -47.2514, -11.9897, 29.3594, 13.666, 67.2646, -166.555
4.49671, 2, -47.2513, -11.9897, 29.3594, 13.666, 67.2645, -166.556
4.50501, 2, -47.2511, -11.9896, 29.3594, 13.666, 67.2646, -166.555
4.5111, 2, -47.2511, -11.9896, 29.3594, 13.666, 67.2646, -166.555
4.5191, 2, -47.251, -11.9895, 29.3594, 13.666, 67.2646, -166.555
4.52717, 2, -47.2509, -11.9894, 29.3594, 13.666, 67.2646, -166.555
4.53615, 2, -47.2509, -11.9894, 29.3594, 13.666, 67.2646, -166.555
4.5441, 2, -47.2508, -11.9894, 29.3594, 13.666, 67.2646, -166.555
4.5521, 2, -47.2507, -11.9894, 29.3594, 13.666, 67.2647, -166.555
4.5591, 2, -47.2505, -11.9894, 29.3594, 13.666, 67.2646, -166.555
4.5671, 2, -47.2505, -11.9894, 29.3594, 13.666, 67.2647, -166.555
4.57517, 2, -47.2504, -11.9894, 29.3594, 13.6659, 67.2646, -166.555
4.58314, 2, -47.2502, -11.9894, 29.3594, 13.6659, 67.2646, -166.555
4.5911, 2, -47.2501, -11.9894, 29.3594, 13.666, 67.2646, -166.555
4.60013, 2, -47.2501, -11.9894, 29.3594, 13.666, 67.2647, -166.555
4.6071, 2, -47.25, -11.9893, 29.3594, 13.666, 67.2647, -166.555
4.61511, 2, -47.2499, -11.9892, 29.3594, 13.6659, 67.2647, -166.555
4.6241, 2, -47.2498, -11.9891, 29.3594, 13.6659, 67.2647, -166.555
4.63113, 2, -47.2497, -11.9891, 29.3594, 13.6659, 67.2647, -166.555
4.6391, 2, -47.2496, -11.989, 29.3594, 13.6659, 67.2647, -166.555
4.6481, 2, -47.2495, -11.989, 29.3594, 13.6659, 67.2646, -166.555
4.65617, 2, -47.2495, -11.989, 29.3594, 13.6659, 67.2647, -166.555
4.66312, 2, -47.2494, -11.989, 29.3594, 13.6659, 67.2647, -166.555
4.67117, 2, -47.2494, -11.989, 29.3594, 13.6659, 67.2647, -166.555
4.67911, 2, -47.2493, -11.989, 29.3594, 13.6659, 67.2647, -166.555
4.6871, 2, -47.2493, -11.989, 29.3594, 13.6659, 67.2647, -166.555
4.69521, 2, -47.2493, -11.989, 29.3594, 13.6659, 67.2647, -166.555
4.70316, 2, -47.2492, -11.9889, 29.3594, 13.6658, 67.2647, -166.555
4.71119, 2, -47.2491, -11.9889, 29.3594, 13.6658, 67.2647, -166.555
4.71926, 2, -47.2491, -11.9888, 29.3594, 13.6658, 67.2647, -166.555
4.7272, 2, -47.249, -11.9887, 29.3594, 13.6658, 67.2647, -166.555
4.73522, 2, -47.2489, -11.9887, 29.3594, 13.6658, 67.2647, -166.555
4.74327, 2, -47.2488, -11.9886, 29.3594, 13.6658, 67.2647, -166.555
4.75119, 2, -47.2487, -11.9886, 29.3594, 13.6658, 67.2647, -166.555
4.75911, 2, -47.2487, -11.9886, 29.3594, 13.6658, 67.2647, -166.555
4.76719, 2, -47.2487, -11.9886, 29.3594, 13.6658, 67.2647, -166.555
4.7754, 2, -47.2486, -11.9886, 29.3594, 13.6658, 67.2647, -166.555
4.78322, 2, -47.2486, -11.9886, 29.3594, 13.6658, 67.2647, -166.555
4.7913, 2, -47.2486, -11.9886, 29.3594, 13.6658, 67.2647, -166.555
4.79942, 2, -47.2485, -11.9886, 29.3594, 13.6658, 67.2647, -166.555
4.8081, 2, -47.2485, -11.9885, 29.3594, 13.6657, 67.2647, -166.555
4.81553, 2, -47.2485, -11.9885, 29.3594, 13.6657, 67.2647, -166.554
4.82376, 2, -47.2484, -11.9884, 29.3594, 13.6658, 67.2648, -166.554
4.83218, 2, -47.2483, -11.9883, 29.3594, 13.6658, 67.2648, -166.554
4.83967, 2, -47.2482, -11.9882, 29.3594, 13.6657, 67.2648, -166.554
4.84826, 2, -47.2481, -11.9882, 29.3594, 13.6657, 67.2647, -166.554
4.85567, 2, -47.248, -11.9882, 29.3594, 13.6656, 67.2647, -166.554
4.86424, 2, -47.248, -11.9882, 29.3594, 13.6656, 67.2648, -166.554
4.87194, 2, -47.2479, -11.9882, 29.3594, 13.6656, 67.2648, -166.554
4.88011, 2, -47.2479, -11.9882, 29.3594, 13.6656, 67.2648, -166.554
4.88785, 2, -47.2479, -11.9882, 29.3594, 13.6656, 67.2648, -166.554
4.89621, 2, -47.2479, -11.9882, 29.3594, 13.6656, 67.2648, -166.554
4.90308, 2, -47.2479, -11.9881, 29.3594, 13.6656, 67.2648, -166.554
4.91222, 2, -47.2478, -11.9881, 29.3594, 13.6656, 67.2649, -166.554
4.91913, 2, -47.2478, -11.988, 29.3594, 13.6656, 67.2649, -166.554
4.92709, 2, -47.2477, -11.988, 29.3594, 13.6656, 67.2649, -166.554
4.93643, 2, -47.2476, -11.9879, 29.3594, 13.6656, 67.265, -166.554
4.9431, 2, -47.2475, -11.9879, 29.3594, 13.6656, 67.2649, -166.554
4.95251, 2, -47.2474, -11.9878, 29.3594, 13.6655, 67.265, -166.554
4.95914, 2, -47.2473, -11.9878, 29.3594, 13.6655, 67.265, -166.554
4.96895, 2, -47.2472, -11.9878, 29.3594, 13.6655, 67.265, -166.554
4.97664, 2, -47.2472, -11.9878, 29.3594, 13.6655, 67.265, -166.554
4.98468, 2, -47.2472, -11.9878, 29.3594, 13.6655, 67.265, -166.554
4.99279, 2, -47.2472, -11.9877, 29.3594, 13.6655, 67.265, -166.554
5.00074, 2, -47.2472, -11.9877, 29.3594, 13.6655, 67.265, -166.554
5.00809, 2, -47.2471, -11.9877, 29.3594, 13.6655, 67.2651, -166.554
5.01614, 2, -47.2471, -11.9877, 29.3594, 13.6655, 67.265, -166.554
5.02412, 2, -47.2471, -11.9876, 29.3594, 13.6654, 67.265, -166.554
5.03209, 2, -47.2471, -11.9876, 29.3594, 13.6655, 67.265, -166.554
5.04015, 2, -47.2469, -11.9875, 29.3594, 13.6655, 67.265, -166.554
5.04808, 2, -47.2468, -11.9875, 29.3594, 13.6654, 67.2651, -166.554
5.05608, 2, -47.2468, -11.9874, 29.3594, 13.6654, 67.2651, -166.554
5.06448, 2, -47.2467, -11.9874, 29.3594, 13.6654, 67.2651, -166.554
5.07105, 2, -47.2466, -11.9874, 29.3594, 13.6654, 67.2651, -166.554
5.08008, 2, -47.2465, -11.9874, 29.3594, 13.6655, 67.2651, -166.554
5.08815, 2, -47.2465, -11.9874, 29.3594, 13.6654, 67.2651, -166.554
5.0961, 2, -47.2465, -11.9874, 29.3594, 13.6654, 67.2651, -166.554
5.10411, 2, -47.2464, -11.9874, 29.3594, 13.6654, 67.2651, -166.554
5.11215, 2, -47.2464, -11.9873, 29.3594, 13.6654, 67.2651, -166.554
5.12005, 2, -47.2464, -11.9873, 29.3594, 13.6654, 67.2651, -166.554
5.12808, 2, -47.2464, -11.9872, 29.3594, 13.6653, 67.2651, -166.554
5.13616, 2, -47.2463, -11.9872, 29.3594, 13.6652, 67.2651, -166.554
5.14309, 4, -47.2462, -11.9871, 29.3594, 13.6653, 67.2651, -166.554
5.15209, 4, -47.2461, -11.9871, 29.3594, 13.6652, 67.2652, -166.554
5.16015, 4, -47.2461, -11.9871, 29.3594, 13.6653, 67.2652, -166.553
5.1671, 4, -47.246, -11.987, 29.3594, 13.6653, 67.2652, -166.553
5.1761, 4, -47.246, -11.987, 29.3594, 13.6652, 67.2652, -166.553
5.18309, 4, -47.2459, -11.987, 29.3594, 13.6652, 67.2652, -166.553
5.1911, 4, -47.2459, -11.987, 29.3594, 13.6652, 67.2652, -166.553
5.19919, 4, -47.2458, -11.987, 29.3594, 13.6652, 67.2653, -166.553
5.20715, 4, -47.2458, -11.987, 29.3594, 13.6652, 67.2653, -166.553
5.21518, 4, -47.2458, -11.987, 29.3594, 13.6651, 67.2653, -166.553
5.22324, 4, -47.2458, -11.9869, 29.3594, 13.6652, 67.2652, -166.553
5.2312, 4, -47.2457, -11.9869, 29.3594, 13.6652, 67.2652, -166.553
5.23919, 4, -47.2457, -11.9869, 29.3594, 13.6651, 67.2653, -166.553
5.24743, 4, -47.2456, -11.9868, 29.3594, 13.6651, 67.2652, -166.553
5.27192, 4, -47.2455, -11.9867, 29.3594, 13.6651, 67.2653, -166.553
5.27522, 4, -47.2454, -11.9867, 29.3594, 13.6651, 67.2653, -166.553
5.27721, 4, -47.2454, -11.9867, 29.3594, 13.6651, 67.2653, -166.553
5.28027, 4, -47.2454, -11.9867, 29.3594, 13.6651, 67.2653, -166.553
5.28952, 4, -47.2453, -11.9867, 29.3594, 13.665, 67.2653, -166.553
5.29625, 4, -47.2453, -11.9867, 29.3594, 13.665, 67.2653, -166.553
5.30452, 4, -47.2453, -11.9867, 29.3594, 13.6651, 67.2653, -166.553
5.31224, 4, -47.2453, -11.9866, 29.3594, 13.665, 67.2653, -166.553
5.3199, 4, -47.2453, -11.9866, 29.3594, 13.665, 67.2653, -166.553
5.33002, 4, -47.2452, -11.9866, 29.3594, 13.665, 67.2653, -166.553
5.33722, 4, -47.2452, -11.9866, 29.3594, 13.6649, 67.2653, -166.553
5.34741, 4, -47.2451, -11.9865, 29.3594, 13.665, 67.2653, -166.553
5.35234, 4, -47.2451, -11.9865, 29.3594, 13.6649, 67.2653, -166.553
5.36031, 4, -47.2451, -11.9865, 29.3594, 13.6649, 67.2653, -166.553
5.3737, 4, -47.245, -11.9864, 29.3594, 13.6649, 67.2653, -166.553
5.37723, 4, -47.2449, -11.9864, 29.3594, 13.6649, 67.2653, -166.553
5.38387, 4, -47.2449, -11.9864, 29.3594, 13.6649, 67.2653, -166.553
5.39402, 4, -47.2449, -11.9864, 29.3594, 13.6648, 67.2653, -166.553
5.40185, 4, -47.2449, -11.9864, 29.3594, 13.6648, 67.2653, -166.553
5.41317, 4, -47.2459, -11.9869, 29.3598, 13.665, 67.2655, -166.553
5.41521, 4, -47.2459, -11.9869, 29.3598, 13.665, 67.2655, -166.553
5.4231, 4, -47.2482, -11.9887, 29.3616, 13.6667, 67.266, -166.553
5.43288, 4, -47.2555, -11.997, 29.3723, 13.6864, 67.2708, -166.55
5.43913, 5, -47.2595, -12.0021, 29.3797, 13.7012, 67.2747, -166.547
5.44859, 5, -47.2791, -12.0282, 29.423, 13.7882, 67.2988, -166.528
5.45653, 5, -47.3012, -12.0579, 29.477, 13.9002, 67.3304, -166.502
5.46462, 5, -47.333, -12.0996, 29.5584, 14.0719, 67.3783, -166.463
5.4734, 5, -47.3762, -12.155, 29.673, 14.3168, 67.4458, -166.406
5.47909, 5, -47.4026, -12.1882, 29.7437, 14.4695, 67.488, -166.371
5.48715, 5, -47.465, -12.266, 29.9133, 14.8385, 67.5878, -166.286
5.49692, 5, -47.5398, -12.411, 30.2402, 15.5457, 67.7773, -166.125
5.50326, 5, -47.6266, -12.4666, 30.3672, 15.8181, 67.8493, -166.063
5.51523, 5, -47.7765, -12.6521, 30.7943, 16.7213, 68.0857, -165.859
5.52234, 5, -47.887, -12.7894, 31.1107, 17.3771, 68.2536, -165.714
5.52899, 5, -47.9445, -12.8612, 31.276, 17.7151, 68.3393, -165.566
5.53522, 5, -48.063, -13.0097, 31.6171, 18.4025, 68.5108, -165.491
5.54728, 5, -48.244, -13.239, 32.1437, 19.4452, 68.765, -165.269
5.55618, 5, -48.3624, -13.3913, 32.4983, 20.1319, 68.93, -165.121
5.5592, 5, -48.4197, -13.4662, 32.6754, 20.4693, 69.011, -165.046
5.56831, 6, -48.5276, -13.6119, 33.0251, 21.1254, 69.1709, -164.886
5.57844, 6, -48.6647, -13.8133, 33.5276, 22.0398, 69.4085, -164.6
5.58428, 6, -48.7017, -13.8752, 33.6867, 22.3221, 69.4884, -164.486
5.5938, 7, -48.7817, -14.0464, 34.1345, 23.0945, 69.7349, -164.062
5.5993, 7, -48.7978, -14.0989, 34.2735, 23.3277, 69.8205, -163.888
5.60825, 8, -48.8146, -14.1964, 34.5358, 23.7634, 69.9995, -163.488
5.61529, 8, -48.8121, -14.2832, 34.7805, 24.1667, 70.1914, -163.017
5.62428, 9, -48.7921, -14.3616, 35.0118, 24.548, 70.3972, -162.479
5.63262, 9, -48.7573, -14.4349, 35.2331, 24.9188, 70.6174, -161.887
5.64242, 10, -48.6831, -14.5379, 35.5585, 25.4708, 70.9692, -160.929
5.64999, 10, -48.6535, -14.5704, 35.6669, 25.8418, 71.2139, -160.263
5.65624, 11, -48.5887, -14.6336, 35.8844, 26.0285, 71.3377, -159.926
5.66328, 11, -48.5178, -14.6957, 36.1043, 26.4041, 71.5856, -159.253
5.68401, 12, -48.3249, -14.8528, 36.6559, 27.3587, 72.2001, -157.588
5.68654, 12, -48.2852, -14.8842, 36.7645, 27.5524, 72.3221, -157.258
5.68854, 13, -48.2852, -14.8842, 36.7645, 27.5524, 72.3221, -157.258
5.69543, 13, -48.206, -14.9462, 36.9782, 27.9416, 72.5653, -156.603
5.71043, 14, -48.1273, -15.0073, 37.185, 28.5243, 72.9258, -155.32
5.71254, 14, -48.0498, -15.0669, 37.3832, 28.7154, 73.0435, -155.32
5.72353, 15, -47.9389, -15.1498, 37.6602, 29.2657, 73.3814, -154.42
5.72823, 15, -47.9039, -15.1747, 37.7453, 29.4378, 73.4867, -154.14
5.73914, 15, -47.8063, -15.2403, 37.9759, 29.9049, 73.7719, -153.381
5.7434, 15, -47.7767, -15.2593, 38.0435, 30.0416, 73.8553, -153.16
5.7523, 15, -47.7218, -15.2933, 38.1629, 30.2831, 74.0024, -152.768
5.76139, 15, -47.6735, -15.3216, 38.261, 30.4803, 74.1229, -152.449
5.76801, 15, -47.6325, -15.3444, 38.3386, 30.6335, 74.2164, -152.201
5.77672, 15, -47.5991, -15.3616, 38.3974, 30.7473, 74.2861, -152.017
5.78838, 15, -47.5632, -15.3789, 38.4557, 30.855, 74.3528, -151.84
5.79648, 15, -47.5466, -15.3863, 38.4797, 30.8965, 74.3782, -151.774
5.80022, 15, -47.5401, -15.389, 38.4883, 30.9103, 74.3867, -151.752
5.80814, 15, -47.5297, -15.3931, 38.5003, 30.9282, 74.3975, -151.723
5.81633, 15, -47.5228, -15.3958, 38.5075, 30.9375, 74.4032, -151.709
5.82656, 15, -47.5184, -15.3976, 38.512, 30.9421, 74.406, -151.702
5.83257, 15, -47.5143, -15.3992, 38.5154, 30.9451, 74.4078, -151.698
5.84072, 15, -47.5086, -15.4015, 38.5202, 30.9494, 74.4104, -151.692
5.84858, 15, -47.499, -15.4053, 38.5291, 30.9606, 74.4168, -151.675
5.85632, 16, -47.4833, -15.4116, 38.5452, 30.9853, 74.4316, -151.636
5.86488, 16, -47.4588, -15.4218, 38.5723, 31.0327, 74.4601, -151.561
5.87238, 16, -47.4231, -15.4374, 38.6145, 31.1139, 74.5075, -151.434
5.88101, 16, -47.3749, -15.4595, 38.6754, 31.237, 74.5782, -151.239
5.88854, 17, -47.3145, -15.4886, 38.757, 31.4089, 74.677, -150.967
5.89739, 17, -47.2417, -15.5251, 38.8602, 31.6306, 74.8034, -150.615
5.90442, 18, -47.1562, -15.5688, 38.9836, 31.899, 74.955, -150.19
5.91631, 19, -47.0048, -15.6469, 39.1996, 32.3714, 75.2182, -149.443
5.92066, 19, -46.9484, -15.6762, 39.2781, 32.543, 75.3127, -149.173
5.92735, 19, -46.889, -15.7069, 39.3591, 32.7197, 75.409, -148.895
5.93524, 20, -46.7618, -15.7719, 39.5265, 33.0833, 75.6051, -148.326
5.94322, 20, -46.6244, -15.8412, 39.6978, 33.4549, 75.8023, -147.749
5.95121, 21, -46.478, -15.9144, 39.8703, 33.8299, 75.9975, -147.171
5.96102, 21, -46.2452, -16.031, 40.1283, 34.3929, 76.2832, -146.309
5.97125, 22, -46.0821, -16.1119, 40.2984, 34.7663, 76.4676, -145.742
5.97732, 22, -45.9132, -16.1945, 40.4655, 35.1367, 76.6469, -145.182
5.98771, 23, -45.7389, -16.2792, 40.6302, 35.5032, 76.8208, -144.627
5.99128, 23, -45.6496, -16.3223, 40.7118, 35.6849, 76.9056, -144.351
6.00199, 24, -45.3729, -16.4539, 40.9517, 36.2231, 77.1524, -143.532
6.00731, 24, -45.2777, -16.4985, 41.0295, 36.3998, 77.2319, -143.262
6.0178, 25, -44.9827, -16.6338, 41.2566, 36.9205, 77.4635, -142.455
6.02419, 25, -44.8811, -16.6793, 41.3301, 37.0908, 77.5383, -142.188
6.03129, 26, -44.6729, -16.7709, 41.4737, 37.4265, 77.6846, -141.656
6.04022, 26, -44.4574, -16.863, 41.6121, 37.755, 77.8266, -141.127
6.04945, 27, -44.1196, -17.0007, 41.809, 38.2335, 78.032, -140.337
6.06116, 27, -43.885, -17.0917, 41.933, 38.5424, 78.1639, -139.812
6.06419, 28, -43.765, -17.1369, 41.9926, 38.6939, 78.2286, -139.549
6.07459, 28, -43.394, -17.2707, 42.1614, 39.1354, 78.4169, -138.764
6.08812, 29, -43.0077, -17.401, 42.3148, 39.558, 78.5984, -137.98
6.09086, 29, -42.8756, -17.4437, 42.3624, 39.6947, 78.6571, -137.719
6.09838, 30, -42.6062, -17.5275, 42.4522, 39.9616, 78.7726, -137.197
6.1032, 30, -42.4687, -17.5687, 42.4943, 40.0918, 78.8293, -136.936
6.11131, 31, -42.1881, -17.649, 42.5733, 40.3459, 78.9401, -136.416
6.1192, 31, -41.9007, -17.7267, 42.6453, 40.5914, 79.0484, -135.895
6.1282, 32, -41.6066, -17.8023, 42.7103, 40.8284, 79.1542, -135.375
6.1381, 32, -41.1529, -17.9109, 42.7952, 41.1683, 79.3077, -134.597
6.14422, 33, -40.9981, -17.9457, 42.82, 41.2777, 79.3579, -134.338
6.15199, 33, -40.6828, -18.0126, 42.8642, 41.4903, 79.456, -133.821
6.16248, 34, -40.1969, -18.1078, 42.9168, 41.7939, 79.5979, -133.047
6.16916, 34, -40.0322, -18.1382, 42.9306, 41.891, 79.6439, -132.79
6.17535, 35, -39.6985, -18.1967, 42.953, 42.0794, 79.7344, -132.276
6.18415, 35, -39.3588, -18.2518, 42.9684, 42.2605, 79.8221, -131.763
6.19227, 36, -39.0127, -18.3036, 42.9767, 42.4337, 79.9079, -131.252
6.20119, 36, -38.6598, -18.352, 42.9783, 42.5993, 79.9913, -130.741
6.20728, 37, -38.3014, -18.3972, 42.9732, 42.7572, 80.0726, -130.232
6.21908, 37, -37.7542, -18.458, 42.9526, 42.9801, 80.1911, -129.472
6.22336, 38, -37.5693, -18.4764, 42.9424, 43.0508, 80.2293, -129.219
6.23166, 38, -37.1961, -18.5109, 42.9171, 43.1864, 80.3047, -128.715
6.24022, 39, -36.818, -18.542, 42.8851, 43.3146, 80.3773, -128.213
6.24824, 39, -36.4348, -18.5694, 42.8463, 43.4356, 80.4486, -127.713
6.25695, 40, -36.0455, -18.593, 42.8009, 43.5492, 80.5176, -127.214
6.26423, 40, -35.6495, -18.6128, 42.7491, 43.6557, 80.5852, -126.718
6.27224, 41, -35.2473, -18.6285, 42.6907, 43.7549, 80.6504, -126.223
6.28118, 41, -34.8398, -18.6407, 42.6258, 43.8468, 80.7137, -125.73
6.28925, 42, -34.4289, -18.6495, 42.5545, 43.9319, 80.7753, -125.241
6.2981, 42, -34.0154, -18.6552, 42.4768, 44.0096, 80.8342, -124.752
6.30758, 43, -33.3895, -18.6577, 42.3489, 44.1127, 80.9207, -124.025
6.31981, 44, -32.7524, -18.6519, 42.208, 44.2003, 81.0027, -123.302
6.32166, 44, -32.7524, -18.6519, 42.208, 44.2003, 81.0027, -123.302
6.32828, 44, -32.3196, -18.6432, 42.1068, 44.2491, 81.0557, -122.824
6.33628, 45, -31.8803, -18.6308, 41.9997, 44.2912, 81.1062, -122.348
6.34806, 46, -31.2128, -18.6057, 41.8278, 44.3401, 81.1803, -121.638
6.35184, 46, -30.989, -18.5956, 41.7675, 44.3526, 81.2038, -121.402
6.36157, 46, -30.5397, -18.5727, 41.6426, 44.3715, 81.2492, -120.934
6.3683, 47, -30.0868, -18.5458, 41.5119, 44.383, 81.2943, -120.466
6.37678, 47, -29.6283, -18.5142, 41.3752, 44.3877, 81.3382, -120.001
6.38618, 48, -29.1636, -18.4785, 41.2325, 44.3848, 81.3803, -119.538
6.39317, 48, -28.6932, -18.4384, 41.0837, 44.3729, 81.422, -119.077
6.39978, 49, -28.4562, -18.4167, 41.007, 44.3638, 81.443, -118.847
6.40824, 49, -27.9804, -18.37, 40.7682, 44.3226, 81.5047, -118.159
6.41887, 50, -27.2623, -18.2915, 40.6009, 44.2828, 81.5453, -117.702
6.4247, 50, -26.7784, -18.2324, 40.427, 44.2345, 81.5871, -117.246
6.43237, 51, -26.2872, -18.1677, 40.2469, 44.1764, 81.6296, -116.79
6.43903, 51, -26.0385, -18.1334, 40.1543, 44.1434, 81.6507, -116.563
6.44877, 52, -25.2825, -18.0219, 39.8653, 44.0304, 81.7153, -115.882
6.45524, 52, -25.0284, -17.9822, 39.7653, 43.9873, 81.7376, -115.656
6.46503, 53, -24.2632, -17.8547, 39.4567, 43.8432, 81.8047, -114.976
6.47369, 53, -23.7487, -17.7624, 39.2418, 43.7346, 81.8504, -114.524
6.47927, 54, -23.4891, -17.7139, 39.1314, 43.6763, 81.8743, -114.299
6.48717, 54, -22.964, -17.6122, 38.9059, 43.5518, 81.9234, -113.847
6.49529, 55, -22.431, -17.5044, 38.6735, 43.4162, 81.9735, -113.395
6.50543, 55, -21.6235, -17.3311, 38.3105, 43.1906, 82.0543, -112.717
6.5142, 56, -21.0821, -17.2083, 38.0607, 43.0257, 82.1098, -112.266
6.5209, 56, -20.8099, -17.1448, 37.9329, 42.9389, 82.1382, -111.815
6.52906, 57, -19.9815, -16.9461, 37.5398, 42.6614, 82.2272, -111.364
6.53504, 57, -19.7005, -16.877, 37.4056, 42.563, 82.2572, -111.139
6.54425, 58, -19.1325, -16.7341, 37.1315, 42.3567, 82.3195, -110.689
6.55498, 59, -18.2727, -16.5087, 36.7092, 42.0238, 82.4162, -110.014
6.55922, 59, -17.985, -16.431, 36.565, 41.9067, 82.4497, -109.79
6.56991, 59, -17.1138, -16.191, 36.1234, 41.5364, 82.5534, -109.116
6.57614, 60, -16.819, -16.1087, 35.9731, 41.4066, 82.5891, -108.891
6.5854, 60, -16.2215, -15.9397, 35.6684, 41.1374, 82.6621, -108.218
6.5922, 61, -15.618, -15.7656, 35.3587, 40.8548, 82.7361, -107.993
6.59958, 61, -15.0115, -15.5872, 35.0432, 40.5596, 82.8126, -107.545
6.61479, 62, -13.7831, -15.2167, 34.396, 39.9311, 82.9721, -106.648
6.61845, 63, -13.47, -15.1203, 34.2313, 39.7654, 83.0136, -106.423
6.62894, 63, -12.8367, -14.9222, 33.8973, 39.4226, 83.0991, -105.974
6.63229, 63, -12.5174, -14.8211, 33.7284, 39.2455, 83.143, -105.749
6.63926, 64, -11.8757, -14.6155, 33.3862, 38.88, 83.2344, -105.298
6.64727, 64, -11.2295, -14.4038, 33.0374, 38.4997, 83.3296, -104.846
6.65841, 65, -10.242, -14.0721, 32.5025, 37.9009, 83.4815, -104.165
6.66429, 65, -9.90768, -13.9583, 32.3216, 37.6933, 83.5345, -103.937
6.67216, 66, -9.23301, -13.7265, 31.9564, 37.2658, 83.6447, -103.48
6.68132, 66, -8.55281, -13.4881, 31.5868, 36.8233, 83.7602, -103.021
6.68727, 67, -7.86689, -13.2424, 31.2108, 36.3651, 83.8809, -102.56
6.69878, 68, -6.81997, -12.8594, 30.6375, 35.6493, 84.0738, -101.865
6.70338, 68, -6.46642, -12.7278, 30.4444, 35.4028, 84.1412, -101.631
6.71925, 69, -5.03353, -12.1845, 29.6608, 34.3781, 84.4287, -100.694
6.72115, 69, -5.03353, -12.1845, 29.6608, 34.3781, 84.4287, -100.694
6.72819, 69, -4.30593, -11.9006, 29.2613, 33.8417, 84.5836, -100.22
6.73531, 70, -3.56883, -11.6094, 28.8586, 33.2898, 84.7462, -99.7446
6.74679, 71, -2.82285, -11.1566, 28.2486, 32.4301, 85.0052, -99.0254
6.75578, 71, -1.68889, -10.8449, 27.837, 31.8375, 85.1881, -98.543
6.75936, 71, -1.30693, -10.6862, 27.6303, 31.5357, 85.283, -98.3006
6.76821, 72, -0.538586, -10.3649, 27.2154, 30.9206, 85.4791, -97.8137
6.78004, 73, 0.624744, -9.87078, 26.5929, 29.9729, 85.7873, -97.0784
6.78341, 73, 1.0153, -9.70177, 26.386, 29.6525, 85.8932, -96.8327
6.79534, 74, 2.19417, -9.18518, 25.7682, 28.6781, 86.2211, -96.0929
6.80175, 74, 2.58863, -9.01065, 25.564, 28.3497, 86.3335, -95.8453
6.81685, 75, 4.17348, -8.30058, 24.7585, 27.0215, 86.7982, -94.8511
6.81999, 75, 4.17348, -8.30058, 24.7585, 27.0215, 86.7982, -94.8511
6.82416, 75, 4.97073, -7.93533, 24.3626, 26.3525, 87.0394, -94.3524
6.83147, 76, 5.76934, -7.5632, 23.9708, 25.6803, 87.2877, -93.8516
6.85018, 77, 7.36769, -6.79962, 23.1996, 24.326, 87.8094, -92.8434
6.85303, 77, 7.76843, -6.60359, 23.0085, 23.985, 87.9462, -92.5899
6.85614, 77, 8.16942, -6.40548, 22.818, 23.643, 88.0858, -92.336
6.8636, 78, 8.97078, -6.00324, 22.4394, 22.9565, 88.3734, -91.8261
6.87251, 78, 9.7708, -5.5939, 22.0651, 22.2666, 88.6727, -91.3123
6.88009, 79, 10.5696, -5.1758, 21.695, 21.5756, 88.9825, -90.7952
6.88703, 79, 10.9685, -4.96345, 21.5119, 21.2311, 89.1412, -90.5352
6.89506, 80, 11.7641, -4.53094, 21.1498, 20.5444, 89.4654, -90.013
6.90499, 80, 12.9498, -3.86318, 20.6199, 19.5224, 89.9683, -89.2213
6.91214, 81, 13.7343, -3.40688, 20.275, 18.8519, 90.3148, -88.6878
6.91903, 81, 14.1245, -3.17591, 20.105, 18.5202, 90.4915, -88.4191
6.92829, 82, 15.2845, -2.47059, 19.6049, 17.5397, 91.0349, -87.6076
6.93502, 82, 15.6668, -2.23124, 19.4419, 17.2184, 91.2206, -87.335
6.94449, 83, 16.7963, -1.50226, 18.9631, 16.2745, 91.7906, -86.5118
6.95258, 83, 17.5337, -1.00826, 18.653, 15.6657, 92.1805, -85.9598
6.96057, 84, 18.2555, -0.508642, 18.3509, 15.0739, 92.577, -85.4074
6.96853, 84, 18.9596, -0.0037526, 18.0579, 14.5039, 92.9801, -84.8542
6.97733, 85, 19.6468, 0.507374, 17.7726, 13.9555, 93.3893, -84.3016
6.98302, 85, 19.9841, 0.765001, 17.6329, 13.6902, 93.5964, -84.0258
6.99348, 86, 20.9722, 1.54464, 17.2241, 12.9284, 94.224, -83.2011
6.99913, 86, 21.2937, 1.8065, 17.0913, 12.686, 94.4352, -82.9268
7.00965, 87, 22.2366, 2.60153, 16.7037, 11.9926, 95.0758, -82.1029
7.01689, 87, 22.5441, 2.87076, 16.5774, 11.7726, 95.5096, -81.5512
7.02409, 87, 23.1503, 3.41634, 16.3285, 11.3472, 95.7286, -81.2744
7.03103, 88, 23.7459, 3.96956, 16.0842, 10.9403, 96.1714, -80.7171
7.04002, 88, 24.331, 4.53003, 15.844, 10.5499, 96.6196, -80.1519
7.04714, 89, 24.9042, 5.10034, 15.6102, 10.1755, 97.0741, -79.5783
7.05503, 89, 25.4661, 5.6814, 15.3818, 9.81662, 97.5347, -78.994
7.06406, 90, 26.0206, 6.27187, 15.1564, 9.47348, 98.001, -78.3981
7.07203, 90, 26.5687, 6.87055, 14.935, 9.14495, 98.4737, -77.7883
7.08016, 91, 27.1059, 7.4774, 14.7186, 8.83341, 98.9529, -77.1647
7.08802, 91, 27.6289, 8.09386, 14.5069, 8.53983, 99.4381, -76.5293
7.09608, 92, 28.1399, 8.72087, 14.2996, 8.26631, 99.929, -75.8816
7.10415, 92, 28.6428, 9.35867, 14.0969, 8.01476, 100.424, -75.2238
7.11203, 93, 29.1384, 10.0055, 13.8992, 7.78521, 100.922, -74.5589
7.12008, 93, 29.6227, 10.6588, 13.7082, 7.57908, 101.421, -73.887
7.12805, 94, 30.0938, 11.3172, 13.525, 7.3963, 101.92, -73.208
7.13602, 94, 30.5503, 11.979, 13.3492, 7.23716, 102.416, -72.5237
7.14411, 95, 30.9929, 12.6432, 13.1802, 7.10171, 102.909, -71.835
7.15209, 95, 31.4215, 13.3093, 13.0192, 6.99018, 103.4, -71.14
7.16003, 96, 31.8362, 13.977, 12.8658, 6.90176, 103.886, -70.4396
7.1671, 96, 32.2356, 14.6453, 12.7188, 6.83792, 104.369, -69.7348
7.17502, 97, 32.6187, 15.3142, 12.5783, 6.79702, 104.848, -69.0237
7.18408, 97, 32.9859, 15.9824, 12.4451, 6.7771, 105.321, -68.3069
7.19105, 98, 33.3374, 16.6489, 12.3201, 6.77911, 105.788, -67.5879
7.20005, 98, 33.6744, 17.3122, 12.2038, 6.80307, 106.247, -66.8648
7.20705, 99, 33.9974, 17.9706, 12.0966, 6.84666, 106.696, -66.1398
7.21602, 99, 34.3077, 18.6228, 11.9986, 6.91057, 107.135, -65.4164
7.22416, 100, 34.6064, 19.2669, 11.9097, 6.99222, 107.561, -64.6939
7.23114, 100, 34.8937, 19.9026, 11.8293, 7.09167, 107.975, -63.9734
7.23919, 101, 35.169, 20.5281, 11.7573, 7.20725, 108.375, -63.2595
7.24713, 101, 35.4328, 21.1428, 11.6934, 7.338, 108.761, -62.5513
7.25506, 102, 35.6854, 21.7458, 11.6382, 7.48217, 109.13, -61.8505
7.26407, 102, 35.9257, 22.3363, 11.5915, 7.63825, 109.482, -61.1609
7.27234, 103, 36.1539, 22.9131, 11.5534, 7.80436, 109.817, -60.4827
7.28, 103, 36.3732, 23.4744, 11.524, 7.97975, 110.134, -59.8155
7.28805, 103, 36.5853, 24.0196, 11.5038, 8.16398, 110.432, -59.1614
7.29609, 104, 36.7899, 24.549, 11.4925, 8.3573, 110.71, -58.521
7.30407, 104, 36.9871, 25.0622, 11.4887, 8.55977, 110.969, -57.8919
7.31137, 104, 37.1782, 25.5589, 11.4917, 8.77051, 111.207, -57.2756
7.31929, 104, 37.3621, 26.0395, 11.501, 8.98802, 111.425, -56.6735
7.32737, 104, 37.5368, 26.5033, 11.5145, 9.21038, 111.625, -56.0861
7.33554, 104, 37.7025, 26.9503, 11.5309, 9.43545, 111.808, -55.515
7.34502, 104, 37.8617, 27.3822, 11.5501, 9.66041, 111.978, -54.9631
7.35211, 104, 38.0161, 27.7979, 11.5709, 9.88288, 112.136, -54.4333
7.36028, 104, 38.1654, 28.197, 11.592, 10.101, 112.285, -53.9261
7.36758, 104, 38.3084, 28.579, 11.6127, 10.3141, 112.426, -53.4421
7.37612, 104, 38.4447, 28.9445, 11.6322, 10.5204, 112.559, -52.9824
7.38386, 104, 38.5102, 29.2916, 11.6505, 10.7195, 112.684, -52.5472
7.39302, 104, 38.6944, 29.6205, 11.6677, 10.9104, 112.801, -52.1371
7.40005, 104, 38.8069, 29.9299, 11.6837, 11.0925, 112.911, -51.7518
7.40704, 104, 38.86, 30.0777, 11.6913, 11.18, 112.963, -51.5684
7.41615, 104, 39.0075, 30.4932, 11.7125, 11.4277, 113.107, -51.0566
7.42304, 104, 39.0528, 30.6217, 11.719, 11.5051, 113.152, -50.8989
7.43248, 104, 39.1771, 30.9779, 11.7366, 11.7209, 113.274, -50.463
7.43903, 104, 39.2146, 31.0868, 11.7418, 11.7873, 113.311, -50.3305
7.44842, 104, 39.3153, 31.3834, 11.7566, 11.9691, 113.412, -49.9704
7.45504, 104, 39.345, 31.4726, 11.7611, 12.0238, 113.442, -49.863
7.46459, 104, 39.4233, 31.711, 11.7728, 12.1699, 113.522, -49.5782
7.4726, 104, 39.4674, 31.846, 11.7797, 12.2523, 113.565, -49.4193
7.48062, 104, 39.5058, 31.9632, 11.786, 12.3223, 113.603, -49.2846
7.48863, 104, 39.5381, 32.0635, 11.7916, 12.3813, 113.634, -49.1733
7.49709, 104, 39.5648, 32.1475, 11.7965, 12.4281, 113.658, -49.0831
7.50308, 104, 39.5762, 32.184, 11.7988, 12.4476, 113.668, -49.0456
7.51265, 104, 39.5955, 32.2469, 11.803, 12.4925, 113.691, -48.961
7.52093, 104, 39.6166, 32.3189, 11.8087, 12.5128, 113.701, -48.9237
7.52807, 104, 39.622, 32.3376, 11.8104, 12.5206, 113.704, -48.9097
7.53607, 104, 39.6307, 32.3677, 11.8134, 12.5321, 113.709, -48.8893
7.54513, 104, 39.637, 32.3993, 11.8174, 12.542, 113.713, -48.8728
7.55107, 104, 39.6411, 32.407, 11.8185, 12.5438, 113.714, -48.87
7.56005, 104, 39.6435, 32.4186, 11.8204, 12.5461, 113.714, -48.8668
7.56801, 104, 39.6447, 32.4259, 11.8217, 12.5473, 113.715, -48.8654
7.57603, 105, 39.6449, 32.4304, 11.8228, 12.5479, 113.715, -48.8648
7.58412, 105, 39.6441, 32.4335, 11.8237, 12.5481, 113.715, -48.8647
7.592, 105, 39.643, 32.4356, 11.8245, 12.5483, 113.715, -48.8648
7.60003, 105, 39.642, 32.4372, 11.8251, 12.5483, 113.715, -48.865
7.60808, 105, 39.6409, 32.4386, 11.8257, 12.5483, 113.715, -48.8654
7.616, 105, 39.6398, 32.4398, 11.8263, 12.5483, 113.715, -48.8657
7.62412, 105, 39.639, 32.4409, 11.8268, 12.5484, 113.715, -48.8661
7.63204, 105, 39.6385, 32.442, 11.8274, 12.5483, 113.715, -48.8665
7.64001, 105, 39.6381, 32.4431, 11.828, 12.5483, 113.715, -48.8668
7.64803, 105, 39.6379, 32.444, 11.8285, 12.5483, 113.715, -48.867
7.65607, 105, 39.6377, 32.4449, 11.829, 12.5483, 113.715, -48.8673
7.66406, 105, 39.6374, 32.4455, 11.8293, 12.5483, 113.715, -48.8675
7.67203, 105, 39.6371, 32.4459, 11.8296, 12.5483, 113.715, -48.8678
7.68009, 105, 39.6367, 32.4461, 11.8299, 12.5483, 113.715, -48.868
7.68706, 105, 39.6364, 32.4462, 11.83, 12.5483, 113.715, -48.8682
