hehonglu123/Motion-Primitive-Planning/ILC/recorded_data/realrobot/from_NX/iteration_6/run_3.csv
timestamp, cmd_num, J1, J2, J3, J4, J5, J6
0.00038, -1, 39.6317, 32.446, 11.8315, 12.5469, 113.714, -48.871
0.004427, -1, 39.6317, 32.446, 11.8315, 12.5469, 113.714, -48.871
0.007853, -1, 39.6317, 32.446, 11.8315, 12.5469, 113.714, -48.871
0.029625, -1, 39.6318, 32.446, 11.8315, 12.5469, 113.714, -48.871
0.031505, -1, 39.6318, 32.446, 11.8315, 12.5469, 113.714, -48.871
0.034326, -1, 39.6317, 32.446, 11.8315, 12.5469, 113.714, -48.871
0.039762, -1, 39.6317, 32.446, 11.8315, 12.5469, 113.714, -48.871
0.048185, -1, 39.6316, 32.446, 11.8315, 12.5469, 113.714, -48.871
0.055987, -1, 39.6304, 32.4458, 11.8315, 12.5469, 113.714, -48.871
0.063899, -1, 39.6267, 32.445, 11.8315, 12.547, 113.714, -48.871
0.07209, -1, 39.6198, 32.4429, 11.8314, 12.5469, 113.714, -48.8716
0.080016, -1, 39.6089, 32.4389, 11.8314, 12.5469, 113.713, -48.8742
0.088779, -1, 39.5928, 32.432, 11.8314, 12.5469, 113.71, -48.8816
0.096278, -1, 39.5689, 32.4215, 11.8315, 12.5469, 113.705, -48.8971
0.10405, -1, 39.5533, 32.4147, 11.8319, 12.5469, 113.696, -48.9235
0.111437, -1, 39.5148, 32.3971, 11.8339, 12.5469, 113.689, -48.9421
0.120085, -1, 39.4654, 32.3733, 11.8388, 12.5469, 113.67, -48.9924
0.127503, -1, 39.4032, 32.3429, 11.8471, 12.5469, 113.643, -49.064
0.135498, -1, 39.3278, 32.305, 11.8598, 12.547, 113.605, -49.1581
0.143484, -1, 39.2387, 32.2594, 11.8776, 12.5472, 113.559, -49.2779
0.151442, -1, 39.1356, 32.2058, 11.9001, 12.5477, 113.502, -49.4231
0.159513, -1, 39.0185, 32.1444, 11.9268, 12.5487, 113.435, -49.593
0.167489, -1, 38.888, 32.0757, 11.9574, 12.5502, 113.359, -49.7853
0.175504, -1, 38.7451, 32.0004, 11.9914, 12.5519, 113.275, -49.9971
0.183458, -1, 38.5907, 31.9191, 12.0276, 12.554, 113.185, -50.2248
0.19154, -1, 38.4264, 31.8329, 12.0654, 12.5563, 113.09, -50.4646
0.199447, -1, 38.2542, 31.7427, 12.1042, 12.5587, 112.992, -50.7127
0.207436, -1, 38.0758, 31.6496, 12.1432, 12.5611, 112.892, -50.9661
0.215567, -1, 37.8922, 31.5542, 12.1821, 12.5635, 112.79, -51.2227
0.223445, -1, 37.7047, 31.4574, 12.2209, 12.5658, 112.688, -51.4813
0.233865, -1, 37.5146, 31.3597, 12.2596, 12.5683, 112.586, -51.8706
0.239441, -1, 37.323, 31.2618, 12.2984, 12.5708, 112.483, -52.0004
0.24844, -1, 37.1309, 31.1639, 12.3372, 12.5732, 112.38, -52.2601
0.255614, -1, 36.9386, 31.0662, 12.3759, 12.5759, 112.277, -52.5202
0.264488, -1, 36.7466, 30.9684, 12.4147, 12.5784, 112.174, -52.7805
0.271449, -1, 36.555, 30.8707, 12.4536, 12.5809, 112.072, -53.041
0.279508, -1, 36.3633, 30.773, 12.4924, 12.5836, 111.969, -53.3012
0.287435, -1, 36.1718, 30.6752, 12.5313, 12.5862, 111.866, -53.5617
0.29552, -1, 35.9803, 30.5773, 12.5702, 12.5887, 111.763, -53.8224
0.303502, -1, 35.7888, 30.4793, 12.6091, 12.5914, 111.66, -54.083
0.311442, -1, 35.597, 30.3813, 12.648, 12.5938, 111.557, -54.3433
0.319451, -1, 35.405, 30.2831, 12.6868, 12.5965, 111.454, -54.6036
0.327444, -1, 35.2126, 30.1848, 12.7256, 12.5991, 111.351, -54.8642
0.335494, -1, 35.0201, 30.0864, 12.7645, 12.6017, 111.248, -55.125
0.343513, -1, 34.8279, 29.988, 12.8034, 12.6043, 111.144, -55.3857
0.351456, -1, 34.6357, 29.8895, 12.8422, 12.6069, 111.041, -55.6465
0.488238, -1, 31.357, 28.2142, 13.5038, 12.6524, 109.289, -60.0846
0.489494, -1, 31.357, 28.2142, 13.5038, 12.6524, 109.289, -60.0846
0.492198, -1, 31.2606, 28.165, 13.5233, 12.6538, 109.238, -60.2153
0.493543, -1, 31.2606, 28.165, 13.5233, 12.6538, 109.238, -60.2153
0.495657, -1, 31.1642, 28.1158, 13.5429, 12.6552, 109.187, -60.346
0.496887, -1, 31.1642, 28.1158, 13.5429, 12.6552, 109.187, -60.346
0.498338, -1, 31.1642, 28.1158, 13.5429, 12.6552, 109.187, -60.346
0.503966, -1, 30.9718, 28.0172, 13.582, 12.658, 109.083, -60.6075
0.50522, -1, 30.9718, 28.0172, 13.582, 12.658, 109.083, -60.6075
0.506544, -1, 30.9718, 28.0172, 13.582, 12.658, 109.083, -60.6075
0.508626, -1, 30.8756, 27.968, 13.6015, 12.6594, 109.032, -60.7382
0.509922, -1, 30.8756, 27.968, 13.6015, 12.6594, 109.032, -60.7382
0.512735, -1, 30.7796, 27.9187, 13.6209, 12.6608, 108.98, -60.8688
0.513945, -1, 30.7796, 27.9187, 13.6209, 12.6608, 108.98, -60.8688
0.516856, -1, 30.6836, 27.8694, 13.6404, 12.6622, 108.928, -60.9995
0.51998, -1, 30.5876, 27.8201, 13.6599, 12.6636, 108.877, -61.13
0.521247, -1, 30.5876, 27.8201, 13.6599, 12.6636, 108.877, -61.13
0.522512, -1, 30.5876, 27.8201, 13.6599, 12.6636, 108.877, -61.13
0.524569, -1, 30.4917, 27.7708, 13.6794, 12.665, 108.825, -61.2607
0.525855, -1, 30.4917, 27.7708, 13.6794, 12.665, 108.825, -61.2607
0.527758, -1, 30.3957, 27.7215, 13.6989, 12.6664, 108.773, -61.3914
0.529269, -1, 30.3957, 27.7215, 13.6989, 12.6664, 108.773, -61.3914
0.537508, -1, 30.2036, 27.6227, 13.7379, 12.6691, 108.67, -61.6531
0.543866, -1, 30.0112, 27.524, 13.7769, 12.6719, 108.567, -61.9149
0.551928, -1, 29.8185, 27.4253, 13.8159, 12.6746, 108.464, -62.1764
0.559842, -1, 29.6252, 27.3265, 13.8547, 12.6772, 108.361, -62.4381
0.568035, -1, 29.4313, 27.2277, 13.8937, 12.6798, 108.258, -62.6999
0.576041, -1, 29.2372, 27.1289, 13.9327, 12.6823, 108.154, -62.9618
0.583979, -1, 29.0428, 27.0301, 13.9717, 12.6848, 108.051, -63.2232
0.592126, -1, 28.8485, 26.9312, 14.0106, 12.6873, 107.947, -63.4845
0.600881, -1, 28.7514, 26.8323, 14.0495, 12.6899, 107.844, -63.7463
0.608012, -1, 28.5573, 26.7828, 14.069, 12.6911, 107.741, -64.0082
0.6166, -1, 28.2667, 26.6347, 14.1277, 12.6948, 107.637, -64.2696
0.623434, -1, 28.17, 26.5854, 14.1471, 12.696, 107.586, -64.4004
0.632567, -1, 27.8806, 26.4372, 14.2057, 12.6996, 107.431, -64.7931
0.639423, -1, 27.7843, 26.3877, 14.2252, 12.7008, 107.379, -64.9241
0.779927, -1, 24.4033, 24.658, 14.9071, 12.7415, 105.572, -69.5042
0.781962, -1, 24.3072, 24.6085, 14.9266, 12.7427, 105.52, -69.6349
0.783225, -1, 24.3072, 24.6085, 14.9266, 12.7427, 105.52, -69.6349
0.784488, -1, 24.3072, 24.6085, 14.9266, 12.7427, 105.52, -69.6349
0.786462, -1, 24.2109, 24.5591, 14.9461, 12.7439, 105.469, -69.7657
0.787756, -1, 24.2109, 24.5591, 14.9461, 12.7439, 105.469, -69.7657
0.789545, -1, 24.1146, 24.5097, 14.9656, 12.7451, 105.417, -69.8964
0.792494, -1, 24.1146, 24.5097, 14.9656, 12.7451, 105.417, -69.8964
0.795338, -1, 24.0183, 24.4603, 14.9851, 12.7462, 105.366, -70.0271
0.79654, -1, 24.0183, 24.4603, 14.9851, 12.7462, 105.366, -70.0271
0.798663, -1, 23.9219, 24.4109, 15.0045, 12.7474, 105.314, -70.1579
0.799885, -1, 23.9219, 24.4109, 15.0045, 12.7474, 105.314, -70.1579
0.801878, -1, 23.8254, 24.3615, 15.024, 12.7486, 105.262, -70.2887
0.804128, -1, 23.8254, 24.3615, 15.024, 12.7486, 105.262, -70.2887
0.805934, -1, 23.729, 24.3121, 15.0434, 12.7499, 105.21, -70.4195
0.808137, -1, 23.729, 24.3121, 15.0434, 12.7499, 105.21, -70.4195
0.810021, -1, 23.6325, 24.2626, 15.0629, 12.751, 105.159, -70.5504
0.811372, -1, 23.6325, 24.2626, 15.0629, 12.751, 105.159, -70.5504
0.81263, -1, 23.6325, 24.2626, 15.0629, 12.751, 105.159, -70.5504
0.814611, -1, 23.5359, 24.2132, 15.0823, 12.7522, 105.107, -70.6814
0.815982, -1, 23.5359, 24.2132, 15.0823, 12.7522, 105.107, -70.6814
0.818638, -1, 23.4392, 24.1638, 15.1018, 12.7534, 105.055, -70.8122
0.825933, -1, 23.2455, 24.0649, 15.1408, 12.7558, 104.952, -71.0738
0.831413, -1, 23.1485, 24.0154, 15.1602, 12.7571, 104.9, -71.2047
0.839482, -1, 22.9546, 23.9166, 15.1991, 12.7595, 104.797, -71.4665
0.847418, -1, 22.7605, 23.8178, 15.2381, 12.762, 104.693, -71.7284
0.855494, -1, 22.5667, 23.719, 15.2771, 12.7645, 104.59, -71.99
0.863532, -1, 22.3731, 23.6205, 15.316, 12.7669, 104.487, -72.2514
0.871418, -1, 22.1799, 23.5218, 15.3549, 12.7695, 104.383, -72.5129
0.879429, -1, 21.9867, 23.423, 15.3939, 12.7721, 104.28, -72.7745
0.887483, -1, 21.794, 23.3244, 15.4329, 12.7748, 104.177, -73.0361
0.895473, -1, 21.6017, 23.2256, 15.4718, 12.7774, 104.074, -73.2973
0.903424, -1, 21.4095, 23.1269, 15.5107, 12.7802, 103.971, -73.5587
0.911479, -1, 21.2171, 23.0281, 15.5497, 12.7827, 103.867, -73.8204
0.919426, -1, 21.0247, 22.9295, 15.5886, 12.7855, 103.764, -74.0818
0.927449, -1, 20.8323, 22.8309, 15.6275, 12.7881, 103.661, -74.343
0.935622, -1, 20.6398, 22.7323, 15.6665, 12.7909, 103.558, -74.6041
0.943495, -1, 20.4469, 22.6337, 15.7053, 12.7936, 103.455, -74.8653
0.951799, -1, 20.2535, 22.535, 15.7442, 12.7963, 103.352, -75.1268
0.959522, -1, 20.0598, 22.4362, 15.7832, 12.7991, 103.249, -75.3879
0.967506, -1, 19.8662, 22.3376, 15.8219, 12.8018, 103.146, -75.649
0.976034, -1, 19.6725, 22.2389, 15.8607, 12.8045, 103.043, -75.9103
0.984489, -1, 19.479, 22.1403, 15.8997, 12.8073, 102.94, -76.1716
0.991425, -1, 19.2858, 22.0417, 15.9385, 12.8099, 102.837, -76.4326
1.00022, -1, 19.093, 21.943, 15.9774, 12.8127, 102.734, -76.6935
1.00744, -1, 18.9003, 21.8444, 16.0163, 12.8154, 102.631, -76.9543
1.01565, -1, 18.708, 21.7457, 16.0551, 12.818, 102.528, -77.2153
1.0244, -1, 18.5161, 21.647, 16.0939, 12.8208, 102.425, -77.4763
1.03163, -1, 18.3242, 21.5485, 16.1329, 12.8234, 102.322, -77.7369
1.03967, -1, 18.1324, 21.45, 16.1717, 12.8259, 102.219, -77.9975
1.04856, -1, 17.9406, 21.3515, 16.2105, 12.8285, 102.116, -78.2585
1.05584, -1, 17.7486, 21.2531, 16.2494, 12.831, 102.013, -78.5192
1.06411, -1, 17.5564, 21.1548, 16.2882, 12.8336, 101.911, -78.7797
1.07275, -1, 17.3637, 21.0565, 16.3271, 12.836, 101.807, -79.0401
1.07996, -1, 17.1707, 20.9581, 16.3659, 12.8384, 101.704, -79.3006
1.08851, -1, 16.9776, 20.8599, 16.4046, 12.8407, 101.602, -79.5613
1.09686, -1, 16.7846, 20.7617, 16.4435, 12.843, 101.499, -79.8217
1.10401, -1, 16.688, 20.6635, 16.4822, 12.8453, 101.396, -80.0823
1.11228, -1, 16.3985, 20.5653, 16.5209, 12.8477, 101.294, -80.3428
1.11942, -1, 16.3021, 20.5161, 16.5403, 12.8488, 101.242, -80.4732
1.12741, -1, 16.1099, 20.4178, 16.5791, 12.8511, 101.14, -80.7337
1.13551, -1, 15.9179, 20.3194, 16.6178, 12.8534, 101.037, -80.9937
1.14341, -1, 15.7262, 20.2209, 16.6565, 12.8558, 100.934, -81.2538
1.1514, -1, 15.5349, 20.1224, 16.6951, 12.8581, 100.832, -81.514
1.15947, -1, 15.3438, 20.0242, 16.7337, 12.8604, 100.729, -81.7742
1.16745, -1, 15.1527, 19.9259, 16.7725, 12.8627, 100.626, -82.034
1.17673, -1, 14.8659, 19.7786, 16.8305, 12.8661, 100.473, -82.4237
1.1834, -1, 14.7702, 19.7295, 16.8498, 12.8672, 100.421, -82.5536
1.19143, -1, 14.5787, 19.6314, 16.8886, 12.8695, 100.319, -82.8138
1.19952, -1, 14.3868, 19.5333, 16.9273, 12.8718, 100.216, -83.0735
1.2074, -1, 14.1946, 19.4353, 16.966, 12.8741, 100.114, -83.333
1.21547, -1, 14.0022, 19.3373, 17.0047, 12.8764, 100.011, -83.5926
1.22356, -1, 13.8097, 19.2395, 17.0432, 12.8787, 99.9086, -83.8522
1.2314, -1, 13.6172, 19.1416, 17.0819, 12.881, 99.8061, -84.1118
1.24187, -1, 13.4249, 19.0438, 17.1207, 12.8833, 99.7035, -84.371
1.24748, -1, 13.2329, 18.9459, 17.1591, 12.8856, 99.6013, -84.6303
1.25645, -1, 13.0413, 18.848, 17.1977, 12.888, 99.4989, -84.8896
1.26344, -1, 12.85, 18.75, 17.2364, 12.8903, 99.3964, -85.149
1.27147, -1, 12.6591, 18.652, 17.2749, 12.8927, 99.2944, -85.4079
1.27941, -1, 12.4685, 18.5542, 17.3134, 12.8952, 99.192, -85.6667
1.28741, -1, 12.2783, 18.4565, 17.352, 12.8976, 99.0897, -85.9257
1.29547, -1, 12.0881, 18.3587, 17.3904, 12.9, 98.9877, -86.1847
1.30341, -1, 11.8978, 18.2611, 17.4291, 12.9024, 98.8856, -86.4434
1.31183, -1, 11.7074, 18.1635, 17.4677, 12.9048, 98.7836, -86.7018
1.3194, -1, 11.5165, 18.0658, 17.5061, 12.9073, 98.6819, -86.9604
1.32741, -1, 11.3256, 17.9682, 17.5447, 12.9097, 98.5798, -87.2191
1.33626, -1, 11.1343, 17.8707, 17.5833, 12.9121, 98.4779, -87.4776
1.34341, -1, 10.9427, 17.7732, 17.6218, 12.9147, 98.3762, -87.7358
1.35142, -1, 10.751, 17.6758, 17.6603, 12.9171, 98.274, -87.994
1.3602, -1, 10.5594, 17.5783, 17.6987, 12.9197, 98.1723, -88.2523
1.36744, -1, 10.3682, 17.4808, 17.7371, 12.9223, 98.0704, -88.5108
1.37548, -1, 10.1771, 17.3832, 17.7756, 12.9247, 97.9685, -88.7687
1.3842, -1, 9.98638, 17.2856, 17.8139, 12.9274, 97.8667, -89.0268
1.39141, -1, 9.79614, 17.1881, 17.8523, 12.93, 97.7647, -89.2849
1.39941, -1, 9.60624, 17.0906, 17.8906, 12.9327, 97.6628, -89.5432
1.40821, -1, 9.41688, 16.9932, 17.9289, 12.9354, 97.561, -89.8008
1.41546, -1, 9.22765, 16.8959, 17.9673, 12.9381, 97.459, -90.0585
1.42359, -1, 9.0383, 16.7986, 18.0057, 12.9408, 97.3571, -90.316
1.43224, -1, 8.84891, 16.7015, 18.044, 12.9435, 97.2555, -90.5736
1.43943, -1, 8.65937, 16.6043, 18.0824, 12.9461, 97.1537, -90.8311
1.44781, -1, 8.46974, 16.5072, 18.1208, 12.9488, 97.0522, -91.0881
1.45634, -1, 8.27971, 16.4102, 18.1591, 12.9515, 96.9508, -91.3454
1.4635, -1, 8.08924, 16.3132, 18.1975, 12.9541, 96.8491, -91.6027
1.47192, -1, 7.89872, 16.2164, 18.2358, 12.9567, 96.7476, -91.8598
1.4803, -1, 7.70815, 16.1195, 18.274, 12.9593, 96.6462, -92.1166
1.48747, -1, 7.51762, 16.0225, 18.3124, 12.9619, 96.5447, -92.3732
1.49619, -1, 7.32732, 15.9256, 18.3506, 12.9645, 96.4433, -92.6301
1.50441, -1, 7.13732, 15.8287, 18.3887, 12.967, 96.3421, -92.8869
1.51143, -1, 6.94767, 15.7316, 18.4271, 12.9696, 96.2407, -93.1434
1.52032, -1, 6.75845, 15.6348, 18.4653, 12.9721, 96.1398, -93.3997
1.52846, -1, 6.56976, 15.5379, 18.5033, 12.9746, 96.039, -93.656
1.53568, -1, 6.38146, 15.4412, 18.5415, 12.9771, 95.9378, -93.9125
1.54453, -1, 6.19333, 15.3445, 18.5797, 12.9796, 95.8369, -94.1688
1.55254, -1, 6.0052, 15.2478, 18.6177, 12.9819, 95.736, -94.4246
1.55985, -1, 5.81685, 15.1511, 18.656, 12.9843, 95.635, -94.6806
1.56866, -1, 5.62837, 15.0544, 18.6941, 12.9866, 95.5342, -94.9367
1.57594, -1, 5.43974, 14.9579, 18.7321, 12.9889, 95.4335, -95.1924
1.58401, -1, 5.25084, 14.8614, 18.7703, 12.9911, 95.3327, -95.4479
1.59283, -1, 5.06149, 14.765, 18.8084, 12.9934, 95.2321, -95.7033
1.6, -1, 4.87208, 14.6686, 18.8464, 12.9957, 95.1314, -95.9589
1.60802, -1, 4.68275, 14.5723, 18.8845, 12.9979, 95.0305, -96.2143
1.61682, -1, 4.58804, 14.5241, 18.9036, 13, 94.9299, -96.4693
1.6234, -1, 4.39881, 14.4277, 18.9416, 13.0011, 94.8795, -96.5967
1.63144, -1, 4.20986, 14.3313, 18.9796, 13.0033, 94.7786, -96.8516
1.63938, -1, 4.0212, 14.2349, 19.0175, 13.0056, 94.6778, -97.1067
1.64737, -1, 3.8332, 14.1387, 19.0554, 13.0079, 94.577, -97.3617
1.65655, -1, 3.55198, 13.9944, 19.1124, 13.0113, 94.4259, -97.7438
1.66341, -1, 3.45847, 13.9464, 19.1313, 13.0125, 94.3757, -97.8711
1.67139, -1, 3.27157, 13.8504, 19.1691, 13.0148, 94.275, -98.1258
1.68073, -1, 2.99105, 13.7063, 19.226, 13.0181, 94.1239, -98.5079
1.6874, -1, 2.89756, 13.6583, 19.2449, 13.0192, 94.0737, -98.635
1.69545, -1, 2.71051, 13.5623, 19.2828, 13.0215, 93.9731, -98.8892
1.70496, -1, 2.42948, 13.4183, 19.3396, 13.0249, 93.8224, -99.2703
1.71304, -1, 2.24185, 13.3225, 19.3774, 13.0272, 93.7222, -99.5244
1.71939, -1, 2.14788, 13.2746, 19.3963, 13.0283, 93.672, -99.6514
1.72743, -1, 1.95974, 13.1788, 19.4342, 13.0306, 93.5718, -99.9049
1.73712, -1, 1.77158, 13.0829, 19.4908, 13.034, 93.4219, -100.285
1.74348, -1, 1.5833, 12.9871, 19.5096, 13.0351, 93.3717, -100.412
1.75342, -1, 1.30127, 12.8434, 19.5664, 13.0385, 93.2217, -100.792
1.75941, -1, 1.20742, 12.7955, 19.5852, 13.0397, 93.1718, -100.919
1.7684, -1, 1.02006, 12.6998, 19.6229, 13.0421, 93.0716, -101.172
1.77549, -1, 0.833288, 12.6042, 19.6607, 13.0445, 92.9716, -101.425
1.78344, -1, 0.647001, 12.5086, 19.6983, 13.0468, 92.8721, -101.678
1.79141, -1, 0.461097, 12.4132, 19.7359, 13.0493, 92.7722, -101.931
1.79943, -1, 0.275451, 12.3178, 19.7736, 13.0517, 92.6725, -102.184
1.80739, -1, 0.0899983, 12.2224, 19.8112, 13.0542, 92.5733, -102.436
1.81551, -1, -0.0953771, 12.1271, 19.8487, 13.0567, 92.4735, -102.689
1.82339, -1, -0.281096, 12.0319, 19.8864, 13.0591, 92.374, -102.942
1.83139, -1, -0.467044, 11.9367, 19.9239, 13.0616, 92.2748, -103.194
1.83945, -1, -0.653272, 11.8416, 19.9614, 13.0641, 92.1751, -103.446
1.84739, -1, -0.839689, 11.7467, 19.999, 13.0665, 92.0757, -103.698
1.85546, -1, -1.02631, 11.6516, 20.0365, 13.0691, 91.9765, -103.95
1.86347, -1, -1.21321, 11.5565, 20.0739, 13.0716, 91.877, -104.202
1.87143, -1, -1.40023, 11.4615, 20.1115, 13.074, 91.7778, -104.453
1.87939, -1, -1.58694, 11.3663, 20.1489, 13.0767, 91.6787, -104.705
1.88745, -1, -1.77335, 11.2712, 20.1863, 13.0792, 91.5794, -104.956
1.89543, -1, -1.95935, 11.1762, 20.2238, 13.0819, 91.4803, -105.208
1.9034, -1, -2.14477, 11.0814, 20.2612, 13.0845, 91.3812, -105.458
1.91145, -1, -2.32965, 10.9864, 20.2985, 13.0871, 91.2819, -105.709
1.91938, -1, -2.5143, 10.8916, 20.3359, 13.0898, 91.1828, -105.96
1.92757, -1, -2.69846, 10.7968, 20.3731, 13.0925, 91.0838, -106.212
1.93547, -1, -2.88231, 10.7021, 20.4105, 13.0951, 90.9848, -106.462
1.94344, -1, -3.06629, 10.6074, 20.4479, 13.0977, 90.8858, -106.713
1.95168, -1, -3.25043, 10.5128, 20.4851, 13.1002, 90.7869, -106.963
1.95948, -1, -3.43494, 10.4182, 20.5223, 13.1028, 90.688, -107.214
1.96748, -1, -3.61968, 10.3239, 20.5596, 13.1054, 90.5892, -107.465
1.97593, -1, -3.80459, 10.2296, 20.5968, 13.1078, 90.4903, -107.715
1.98446, -1, -3.98981, 10.1352, 20.6341, 13.1102, 90.3916, -107.964
1.99156, -1, -4.17522, 10.0409, 20.6713, 13.1127, 90.2929, -108.214
2.00001, -1, -4.36086, 9.94662, 20.7084, 13.115, 90.1943, -108.464
2.0084, -1, -4.54625, 9.8523, 20.7456, 13.1174, 90.0957, -108.714
2.01547, -1, -4.73135, 9.75804, 20.7828, 13.1198, 89.9973, -108.963
2.02421, -1, -4.91613, 9.66384, 20.8199, 13.1222, 89.8988, -109.213
2.03179, -1, -5.10027, 9.56979, 20.8569, 13.1245, 89.8003, -109.462
2.03964, -1, -5.28378, 9.47573, 20.8941, 13.1268, 89.7021, -109.711
2.04849, -1, -5.46697, 9.38176, 20.9312, 13.1292, 89.6036, -109.96
2.05583, -1, -5.64963, 9.28783, 20.9682, 13.1314, 89.5053, -110.209
2.06382, -1, -5.83201, 9.19392, 21.0053, 13.1337, 89.4073, -110.458
2.07256, -1, -6.01436, 9.10003, 21.0423, 13.1359, 89.3091, -110.707
2.08021, -1, -6.19699, 9.00618, 21.0793, 13.1382, 89.2109, -110.955
2.08795, -1, -6.37982, 8.91245, 21.1164, 13.1404, 89.1133, -111.203
2.0967, -1, -6.56281, 8.81883, 21.1532, 13.1425, 89.0152, -111.452
2.10403, -1, -6.7462, 8.72521, 21.1901, 13.1447, 88.9172, -111.7
2.11197, -1, -6.83807, 8.67844, 21.2086, 13.1468, 88.8194, -111.948
2.12067, -1, -7.02191, 8.58484, 21.2455, 13.1479, 88.7705, -112.072
2.12822, -1, -7.20609, 8.49131, 21.2823, 13.15, 88.6726, -112.319
2.13544, -1, -7.39031, 8.3977, 21.3193, 13.1521, 88.5747, -112.567
2.14338, -1, -7.57415, 8.30407, 21.3562, 13.1543, 88.4773, -112.815
2.15142, -1, -7.7576, 8.21067, 21.3929, 13.1564, 88.3796, -113.062
2.15938, -1, -7.94074, 8.11725, 21.4298, 13.1587, 88.2822, -113.309
2.16737, -1, -8.12326, 8.02386, 21.4666, 13.1609, 88.185, -113.556
2.17548, -1, -8.30505, 7.93056, 21.5033, 13.1632, 88.0875, -113.803
2.18338, -1, -8.48644, 7.83728, 21.5402, 13.1654, 87.9901, -114.05
2.19138, -1, -8.66741, 7.74413, 21.577, 13.1677, 87.8929, -114.297
2.19944, -1, -8.84817, 7.65095, 21.6137, 13.1699, 87.7954, -114.543
2.20904, -1, -9.11947, 7.51136, 21.6689, 13.1733, 87.6495, -114.913
2.21543, -1, -9.21004, 7.46488, 21.6872, 13.1744, 87.6008, -115.036
2.22344, -1, -9.39132, 7.37208, 21.7238, 13.1766, 87.5037, -115.283
2.23138, -1, -9.57293, 7.27928, 21.7606, 13.1788, 87.4065, -115.529
2.24179, -1, -9.75486, 7.18649, 21.7972, 13.1811, 87.2607, -115.898
2.24745, -1, -9.93722, 7.09378, 21.8338, 13.1833, 87.2122, -116.021
2.25642, -1, -10.1198, 7.00103, 21.8704, 13.1855, 87.115, -116.267
2.26339, -1, -10.3025, 6.90825, 21.907, 13.1878, 87.018, -116.513
2.27147, -1, -10.485, 6.8155, 21.9436, 13.19, 86.9208, -116.758
2.2794, -1, -10.6673, 6.72281, 21.9802, 13.1923, 86.8237, -117.003
2.28737, -1, -10.8491, 6.63021, 22.0166, 13.1947, 86.7269, -117.249
2.29542, -1, -11.0303, 6.5376, 22.053, 13.1971, 86.6299, -117.494
2.30338, -1, -11.2107, 6.44509, 22.0896, 13.1994, 86.5332, -117.739
2.31144, -1, -11.3906, 6.35261, 22.1261, 13.2019, 86.4367, -117.984
2.31939, -1, -11.5702, 6.26014, 22.1625, 13.2043, 86.3398, -118.229
2.32738, -1, -11.7496, 6.16767, 22.199, 13.2068, 86.2432, -118.473
2.33549, -1, -11.9288, 6.07536, 22.2355, 13.2093, 86.1468, -118.718
2.34337, -1, -12.1081, 5.98314, 22.2718, 13.2117, 86.05, -118.962
2.35138, -1, -12.2875, 5.8911, 22.3083, 13.2142, 85.9537, -119.206
2.35946, -1, -12.4674, 5.79909, 22.3446, 13.2167, 85.8575, -119.45
2.36737, -1, -12.6477, 5.70705, 22.3808, 13.2191, 85.761, -119.694
2.37547, -1, -12.8284, 5.61512, 22.4172, 13.2216, 85.6649, -119.938
2.38344, -1, -13.0093, 5.52324, 22.4535, 13.224, 85.5691, -120.182
2.39137, -1, -13.1906, 5.43122, 22.4897, 13.2265, 85.4731, -120.425
2.401, -1, -13.3718, 5.33922, 22.5259, 13.2289, 85.3771, -120.669
2.40737, -1, -13.5526, 5.24731, 22.5622, 13.2314, 85.2815, -120.912
2.41549, -1, -13.733, 5.15546, 22.5983, 13.2339, 85.1856, -121.155
2.42338, -1, -13.913, 5.06359, 22.6344, 13.2365, 85.0898, -121.398
2.43139, -1, -14.0921, 4.97182, 22.6707, 13.239, 84.9944, -121.641
2.43949, -1, -14.2705, 4.88012, 22.7067, 13.2416, 84.8986, -121.884
2.44763, -1, -14.4487, 4.78845, 22.7428, 13.2442, 84.8031, -122.127
2.45551, -1, -14.6264, 4.6968, 22.7791, 13.2467, 84.7076, -122.369
2.46353, -1, -14.804, 4.60528, 22.8152, 13.2492, 84.6117, -122.612
2.47178, -1, -14.9816, 4.51381, 22.8512, 13.2517, 84.516, -122.854
2.47948, -1, -15.1594, 4.42248, 22.8875, 13.2541, 84.4205, -123.096
2.48754, -1, -15.3376, 4.33123, 22.9235, 13.2566, 84.3248, -123.338
2.49597, -1, -15.5163, 4.23995, 22.9596, 13.2588, 84.2291, -123.58
2.50337, -1, -15.6955, 4.14869, 22.9956, 13.2612, 84.1338, -123.822
2.51146, -1, -15.8747, 4.05747, 23.0315, 13.2634, 84.0381, -124.063
2.52098, -1, -16.054, 3.9662, 23.0675, 13.2656, 83.9427, -124.305
2.52836, -1, -16.2339, 3.87489, 23.1036, 13.2677, 83.8475, -124.546
2.53565, -1, -16.4135, 3.78368, 23.1395, 13.2699, 83.7519, -124.788
2.54579, -1, -16.5927, 3.6925, 23.1752, 13.2721, 83.6565, -125.029
2.55236, -1, -16.7714, 3.60135, 23.2111, 13.2743, 83.5613, -125.27
2.55974, -1, -16.9494, 3.51031, 23.247, 13.2766, 83.4657, -125.511
2.56852, -1, -17.1266, 3.41932, 23.2828, 13.2787, 83.3704, -125.752
2.57595, -1, -17.3032, 3.32837, 23.3187, 13.281, 83.2754, -125.992
2.58453, -1, -17.4797, 3.23754, 23.3544, 13.2831, 83.1801, -126.233
2.59269, -1, -17.6559, 3.14677, 23.3902, 13.2853, 83.0852, -126.474
2.59998, -1, -17.8318, 3.0562, 23.4261, 13.2874, 82.9906, -126.714
2.60854, -1, -18.0079, 2.96568, 23.4619, 13.2895, 82.8956, -126.954
2.61675, -1, -18.0961, 2.87529, 23.4976, 13.2916, 82.8008, -127.194
2.62394, -1, -18.2727, 2.83009, 23.5154, 13.2927, 82.7535, -127.434
2.63245, -1, -18.5383, 2.6945, 23.569, 13.2957, 82.6114, -127.674
2.63937, -1, -18.6271, 2.64931, 23.5868, 13.2967, 82.5641, -127.793
2.64741, -1, -18.8047, 2.55898, 23.6225, 13.2989, 82.4695, -128.033
2.65542, -1, -18.9828, 2.46849, 23.6582, 13.3009, 82.3752, -128.272
2.6634, -1, -19.161, 2.37798, 23.6938, 13.3029, 82.2807, -128.512
2.67142, -1, -19.3392, 2.28759, 23.7293, 13.3048, 82.1864, -128.751
2.67936, -1, -19.5169, 2.19717, 23.765, 13.307, 82.0926, -128.99
2.68736, -1, -19.694, 2.10679, 23.8004, 13.3091, 81.9983, -129.229
2.69546, -1, -19.8705, 2.01652, 23.8358, 13.3113, 81.9041, -129.468
2.70495, -1, -20.1339, 1.88116, 23.8892, 13.3145, 81.7631, -129.826
2.71449, -1, -20.3089, 1.79101, 23.9246, 13.3168, 81.6691, -130.065
2.71936, -1, -20.3963, 1.74596, 23.9423, 13.3178, 81.622, -130.184
2.72894, -1, -20.6581, 1.61096, 23.9957, 13.3212, 81.4812, -130.541
2.73548, -1, -20.7453, 1.56599, 24.0134, 13.3222, 81.4341, -130.66
2.74343, -1, -20.92, 1.4761, 24.0488, 13.3244, 81.3404, -130.898
2.75235, -1, -21.095, 1.38639, 24.0843, 13.3266, 81.2468, -131.136
2.75943, -1, -21.2704, 1.29663, 24.1198, 13.3289, 81.1529, -131.374
2.76841, -1, -21.4461, 1.20693, 24.1551, 13.331, 81.059, -131.612
2.77544, -1, -21.6222, 1.11733, 24.1905, 13.3331, 80.9652, -131.85
2.78343, -1, -21.7984, 1.02766, 24.226, 13.3353, 80.8714, -132.087
2.79136, -1, -21.9747, 0.938035, 24.2613, 13.3375, 80.7776, -132.324
2.79943, -1, -22.1513, 0.848427, 24.2967, 13.3396, 80.684, -132.561
2.80736, -1, -22.3278, 0.758867, 24.3321, 13.3418, 80.5903, -132.799
2.81548, -1, -22.5039, 0.669397, 24.3673, 13.344, 80.4968, -133.036
2.82335, -1, -22.6794, 0.5799, 24.4025, 13.3464, 80.4032, -133.272
2.83136, -1, -22.8543, 0.490496, 24.4378, 13.3488, 80.3096, -133.509
2.83943, -1, -23.0282, 0.401076, 24.473, 13.3512, 80.216, -133.746
2.84735, -1, -23.2019, 0.311728, 24.5081, 13.3537, 80.1225, -133.983
2.85544, -1, -23.3752, 0.222411, 24.5433, 13.3561, 80.0291, -134.219
2.86342, -1, -23.5483, 0.133197, 24.5785, 13.3586, 79.9357, -134.456
2.87135, -1, -23.7217, 0.0440397, 24.6137, 13.3609, 79.8424, -134.692
2.87941, -1, -23.8951, -0.0450088, 24.6489, 13.3633, 79.7494, -134.928
2.88742, -1, -24.0686, -0.133921, 24.684, 13.3658, 79.6561, -135.164
2.89541, -1, -24.2424, -0.222917, 24.719, 13.3683, 79.563, -135.4
2.9034, -1, -24.4165, -0.311844, 24.7542, 13.3707, 79.4702, -135.635
2.91139, -1, -24.5909, -0.400692, 24.7893, 13.3731, 79.3769, -135.871
2.91935, -1, -24.7657, -0.489635, 24.8243, 13.3755, 79.2839, -136.106
2.92754, -1, -24.9408, -0.578515, 24.8594, 13.3779, 79.1911, -136.342
2.93544, -1, -25.1158, -0.667332, 24.8945, 13.3803, 79.0979, -136.577
2.94341, -1, -25.2905, -0.756094, 24.9295, 13.3826, 79.005, -136.812
2.95175, -1, -25.4648, -0.844875, 24.9645, 13.3851, 78.9126, -137.047
2.95944, -1, -25.6387, -0.933633, 24.9995, 13.3875, 78.8197, -137.282
2.96745, -1, -25.8119, -1.02233, 25.0343, 13.39, 78.727, -137.517
2.9759, -1, -25.9845, -1.11105, 25.0692, 13.3924, 78.6348, -137.751
2.98346, -1, -26.1568, -1.19971, 25.1042, 13.3948, 78.5422, -137.986
2.99147, -1, -26.3287, -1.2883, 25.1391, 13.3972, 78.4496, -138.22
3.00016, -1, -26.5005, -1.37678, 25.1739, 13.3995, 78.3572, -138.455
3.00737, -1, -26.6725, -1.46517, 25.2089, 13.4017, 78.2647, -138.689
3.01543, -1, -26.8446, -1.55345, 25.2438, 13.404, 78.1723, -138.923
3.02419, -1, -27.0169, -1.64159, 25.2786, 13.4062, 78.0798, -139.157
3.03149, -1, -27.1894, -1.72979, 25.3136, 13.4084, 77.9878, -139.391
3.03952, -1, -27.3621, -1.81797, 25.3484, 13.4107, 77.8956, -139.625
3.04861, -1, -27.5351, -1.90602, 25.3831, 13.4128, 77.8036, -139.858
3.0558, -1, -27.7084, -1.99422, 25.418, 13.4149, 77.7117, -140.092
3.06442, -1, -27.8817, -2.08236, 25.4529, 13.4169, 77.6195, -140.325
3.07257, -1, -28.0551, -2.17037, 25.4876, 13.4189, 77.5275, -140.559
3.07991, -1, -28.2283, -2.2584, 25.5224, 13.421, 77.4356, -140.792
3.0885, -1, -28.4012, -2.3465, 25.5572, 13.423, 77.3434, -141.025
3.09683, -1, -28.5738, -2.43448, 25.5919, 13.4251, 77.2513, -141.258
3.10399, -1, -28.7458, -2.52241, 25.6265, 13.4273, 77.1594, -141.491
3.11253, -1, -28.9172, -2.61044, 25.6613, 13.4294, 77.0673, -141.724
3.12074, -1, -29.0026, -2.65441, 25.6786, 13.4305, 76.9755, -141.956
3.12814, -1, -29.1732, -2.74226, 25.7132, 13.4327, 76.8838, -142.189
3.1354, -1, -29.3438, -2.83006, 25.7479, 13.4347, 76.8379, -142.305
3.14334, -1, -29.5146, -2.91775, 25.7826, 13.4368, 76.7459, -142.537
3.15243, -1, -29.771, -3.04911, 25.8343, 13.4398, 76.6082, -142.886
3.15934, -1, -29.8565, -3.09286, 25.8516, 13.4408, 76.5624, -143.002
3.16735, -1, -30.0275, -3.18034, 25.8863, 13.443, 76.4704, -143.234
3.1767, -1, -30.284, -3.31162, 25.938, 13.4461, 76.3329, -143.582
3.18336, -1, -30.3696, -3.35531, 25.9553, 13.4472, 76.2873, -143.698
3.19289, -1, -30.627, -3.48652, 26.0072, 13.4502, 76.1499, -144.046
3.20082, -1, -30.7989, -3.57396, 26.0416, 13.4522, 76.0585, -144.277
3.20885, -1, -30.9708, -3.66132, 26.0762, 13.4542, 75.9673, -144.508
3.21704, -1, -31.1425, -3.74868, 26.1107, 13.4562, 75.8757, -144.74
3.22337, -1, -31.2283, -3.79234, 26.1279, 13.4573, 75.8301, -144.855
3.2329, -1, -31.485, -3.92328, 26.1795, 13.4604, 75.6933, -145.202
3.24112, -1, -31.6556, -4.01051, 26.214, 13.4626, 75.6018, -145.433
3.24736, -1, -31.7408, -4.05412, 26.2312, 13.4636, 75.5562, -145.549
3.25633, -1, -31.9108, -4.14136, 26.2656, 13.4658, 75.4651, -145.78
3.26439, -1, -32.0805, -4.22856, 26.3, 13.4681, 75.3742, -146.01
3.27234, -1, -32.2499, -4.31568, 26.3344, 13.4702, 75.283, -146.242
3.27947, -1, -32.4194, -4.40275, 26.3686, 13.4723, 75.1919, -146.472
3.28734, -1, -32.5891, -4.48974, 26.4029, 13.4745, 75.1014, -146.702
3.29542, -1, -32.7587, -4.57666, 26.4374, 13.4766, 75.0104, -146.933
3.30342, -1, -32.9283, -4.6636, 26.4716, 13.4788, 74.9196, -147.163
3.31134, -1, -33.098, -4.75056, 26.5058, 13.481, 74.8291, -147.393
3.31936, -1, -33.2679, -4.83742, 26.5402, 13.4832, 74.7384, -147.623
3.32741, -1, -33.438, -4.9243, 26.5745, 13.4854, 74.6478, -147.853
3.3354, -1, -33.6083, -5.01124, 26.6087, 13.4876, 74.5573, -148.083
3.34416, -1, -33.7786, -5.09802, 26.643, 13.4898, 74.4667, -148.313
3.35133, -1, -33.9488, -5.18475, 26.6771, 13.4921, 74.3762, -148.543
3.3594, -1, -34.119, -5.27145, 26.7112, 13.4943, 74.2856, -148.772
3.3681, -1, -34.2891, -5.35814, 26.7454, 13.4966, 74.1952, -149.001
3.37642, -1, -34.459, -5.44476, 26.7797, 13.4989, 74.1045, -149.231
3.38441, -1, -34.6285, -5.5314, 26.8138, 13.5012, 74.0139, -149.46
3.39234, -1, -34.7974, -5.61804, 26.8479, 13.5036, 73.9235, -149.69
3.39934, -1, -34.966, -5.70461, 26.8822, 13.5061, 73.8328, -149.919
3.40734, -1, -35.1344, -5.79113, 26.9162, 13.5086, 73.7424, -150.147
3.41656, -1, -35.3027, -5.87759, 26.9503, 13.511, 73.6523, -150.376
3.42335, -1, -35.4712, -5.96385, 26.9844, 13.5133, 73.5618, -150.605
3.43141, -1, -35.6397, -6.05008, 27.0185, 13.5157, 73.4715, -150.834
3.43949, -1, -35.8082, -6.13631, 27.0524, 13.518, 73.3814, -151.063
3.44745, -1, -35.9768, -6.22244, 27.0865, 13.5205, 73.2908, -151.291
3.45556, -1, -36.1453, -6.30853, 27.1206, 13.5229, 73.2005, -151.52
3.46362, -1, -36.3139, -6.39467, 27.1545, 13.5253, 73.1101, -151.748
3.47144, -1, -36.4827, -6.48088, 27.1885, 13.5276, 73.0197, -151.977
3.47951, -1, -36.6515, -6.56701, 27.2225, 13.5299, 72.9294, -152.205
3.48782, -1, -36.8204, -6.65322, 27.2564, 13.5322, 72.8391, -152.433
3.49633, -1, -36.9894, -6.73934, 27.2903, 13.5345, 72.7493, -152.661
3.50352, -1, -37.1582, -6.8255, 27.3243, 13.5367, 72.6591, -152.889
3.512, -1, -37.3268, -6.91157, 27.3581, 13.539, 72.5692, -153.117
3.52039, -1, -37.4952, -6.9976, 27.392, 13.5413, 72.4795, -153.344
3.5275, -1, -37.6631, -7.08365, 27.4261, 13.5436, 72.3894, -153.572
3.53619, -1, -37.8308, -7.16967, 27.4599, 13.5458, 72.2996, -153.799
3.54352, -1, -37.9984, -7.25562, 27.4937, 13.548, 72.21, -154.027
3.55165, -1, -38.1659, -7.34154, 27.5276, 13.5502, 72.1201, -154.254
3.5605, -1, -38.3332, -7.42734, 27.5614, 13.5523, 72.0304, -154.481
3.56771, -1, -38.5005, -7.51304, 27.5952, 13.5544, 71.9409, -154.709
3.57596, -1, -38.6677, -7.59879, 27.629, 13.5565, 71.8513, -154.936
3.58448, -1, -38.8351, -7.68448, 27.6628, 13.5585, 71.7617, -155.163
3.59187, -1, -39.0024, -7.77012, 27.6965, 13.5606, 71.6723, -155.39
3.60044, -1, -39.1698, -7.85573, 27.7302, 13.5627, 71.5831, -155.617
3.6079, -1, -39.3373, -7.9414, 27.764, 13.5647, 71.4937, -155.843
3.6165, -1, -39.5049, -8.02703, 27.7978, 13.5667, 71.4042, -156.07
3.62405, -1, -39.5887, -8.0698, 27.8313, 13.5686, 71.3151, -156.297
3.63134, -1, -39.7564, -8.15533, 27.8481, 13.5696, 71.2703, -156.41
3.64036, -1, -40.0077, -8.28353, 27.8988, 13.5725, 71.1362, -156.75
3.64739, -1, -40.0915, -8.32623, 27.9156, 13.5735, 71.0916, -156.863
3.65542, -1, -40.2589, -8.41157, 27.9492, 13.5755, 71.0025, -157.089
3.66334, -1, -40.4261, -8.49695, 27.983, 13.5774, 70.9129, -157.315
3.6726, -1, -40.6766, -8.62506, 28.0334, 13.5804, 70.7794, -157.654
3.67933, -1, -40.76, -8.66775, 28.0501, 13.5813, 70.7349, -157.767
3.68733, -1, -40.9266, -8.75309, 28.0839, 13.5834, 70.6456, -157.993
3.69698, -1, -41.1762, -8.88103, 28.1344, 13.5864, 70.512, -158.332
3.70477, -1, -41.3424, -8.96623, 28.1679, 13.5884, 70.4229, -158.558
3.71286, -1, -41.5087, -9.05137, 28.2016, 13.5903, 70.3337, -158.783
3.72123, -1, -41.675, -9.13649, 28.2352, 13.5924, 70.2444, -159.009
3.72734, -1, -41.7581, -9.17905, 28.252, 13.5934, 70.2, -159.122
3.73689, -1, -42.0077, -9.30661, 28.3024, 13.5964, 70.0664, -159.46
3.74505, -1, -42.0909, -9.39166, 28.3361, 13.5984, 69.9774, -159.685
3.75133, -1, -42.2571, -9.43422, 28.3529, 13.5994, 69.9329, -159.798
3.7594, -1, -42.4233, -9.51925, 28.3863, 13.6014, 69.8443, -160.023
3.76838, -1, -42.5897, -9.60421, 28.4199, 13.6035, 69.7551, -160.248
3.77535, -1, -42.7561, -9.68916, 28.4534, 13.6055, 69.6662, -160.473
3.78349, -1, -42.9225, -9.7741, 28.4868, 13.6075, 69.5776, -160.699
3.79133, -1, -43.0889, -9.85902, 28.5204, 13.6096, 69.4886, -160.923
3.79934, -1, -43.2551, -9.94394, 28.5539, 13.6116, 69.4, -161.148
3.80739, -1, -43.4212, -10.0288, 28.5874, 13.6137, 69.3114, -161.373
3.81533, -1, -43.5872, -10.1137, 28.6209, 13.6158, 69.2227, -161.598
3.82339, -1, -43.7531, -10.1987, 28.6544, 13.6179, 69.1342, -161.823
3.8314, -1, -43.9189, -10.2835, 28.6878, 13.6201, 69.0457, -162.047
3.83933, -1, -44.0845, -10.3683, 28.7212, 13.6222, 68.9573, -162.271
3.84733, -1, -44.2498, -10.453, 28.7547, 13.6244, 68.8686, -162.496
3.8554, -1, -44.415, -10.5375, 28.7882, 13.6266, 68.7799, -162.72
3.86335, -1, -44.5802, -10.6221, 28.8215, 13.6288, 68.6915, -162.944
3.87134, -1, -44.7454, -10.7066, 28.8549, 13.6309, 68.6027, -163.168
3.87939, -1, -44.9108, -10.7911, 28.8884, 13.6332, 68.5142, -163.392
3.88733, -1, -45.0761, -10.8756, 28.9218, 13.6353, 68.426, -163.616
3.89533, -1, -45.2414, -10.9601, 28.9552, 13.6375, 68.3374, -163.84
3.90341, -1, -45.4067, -11.0446, 28.9886, 13.6398, 68.2491, -164.065
3.91133, -1, -45.5719, -11.129, 29.0218, 13.6421, 68.1609, -164.288
3.91933, -1, -45.7372, -11.2134, 29.055, 13.6443, 68.0726, -164.512
3.92741, -1, -45.9022, -11.2977, 29.0885, 13.6466, 67.9842, -164.736
3.93533, -1, -46.0653, -11.3809, 29.1219, 13.6489, 67.8958, -164.959
3.94337, -1, -46.2248, -11.462, 29.1554, 13.6513, 67.8082, -165.182
3.9515, -1, -46.3788, -11.5394, 29.1891, 13.6537, 67.7214, -165.4
3.9594, -1, -46.525, -11.612, 29.2222, 13.656, 67.6378, -165.612
3.96742, -1, -46.6609, -11.6789, 29.2534, 13.6583, 67.5595, -165.811
3.9755, -1, -46.7837, -11.7388, 29.2817, 13.6603, 67.4881, -165.991
3.98346, -1, -46.8909, -11.7915, 29.3061, 13.6623, 67.4264, -166.147
3.99144, -1, -46.9817, -11.8375, 29.3257, 13.6637, 67.376, -166.275
3.99951, -1, -47.0567, -11.8776, 29.3395, 13.6648, 67.3367, -166.374
4.00733, -1, -47.1166, -11.9109, 29.3487, 13.6653, 67.3082, -166.446
4.01538, -1, -47.1622, -11.9367, 29.3542, 13.6656, 67.2892, -166.494
4.02348, -1, -47.1953, -11.9555, 29.3569, 13.6658, 67.2775, -166.523
4.03139, -1, -47.2181, -11.9681, 29.3582, 13.6659, 67.271, -166.54
4.03945, -1, -47.2324, -11.976, 29.3587, 13.666, 67.2676, -166.548
4.04755, -1, -47.2405, -11.9803, 29.359, 13.666, 67.2659, -166.552
4.05646, 2, -47.2443, -11.9823, 29.3592, 13.666, 67.2651, -166.554
4.0639, 2, -47.2451, -11.9832, 29.3593, 13.6661, 67.2648, -166.555
4.07234, 2, -47.2449, -11.9835, 29.3594, 13.6661, 67.2646, -166.556
4.07974, 2, -47.2448, -11.9836, 29.3594, 13.6661, 67.2645, -166.556
4.08782, 2, -47.245, -11.9837, 29.3594, 13.6661, 67.2644, -166.556
4.09642, 2, -47.2457, -11.9838, 29.3595, 13.666, 67.2644, -166.556
4.10391, 2, -47.2467, -11.9842, 29.3595, 13.666, 67.2644, -166.556
4.11243, 2, -47.2483, -11.9849, 29.3595, 13.666, 67.2644, -166.556
4.12044, 2, -47.2501, -11.9857, 29.3595, 13.666, 67.2645, -166.556
4.12792, 2, -47.2508, -11.9862, 29.3595, 13.666, 67.2645, -166.556
4.13632, 2, -47.2527, -11.9873, 29.3595, 13.6661, 67.2644, -166.556
4.14429, 2, -47.2534, -11.9878, 29.3595, 13.6661, 67.2644, -166.556
4.15132, 2, -47.2536, -11.988, 29.3595, 13.6661, 67.2644, -166.556
4.16053, 2, -47.2538, -11.9882, 29.3595, 13.6661, 67.2644, -166.556
4.16741, 2, -47.2538, -11.9883, 29.3595, 13.6661, 67.2644, -166.556
4.17543, 2, -47.2535, -11.9883, 29.3595, 13.6661, 67.2644, -166.556
4.1834, 2, -47.253, -11.9883, 29.3595, 13.6661, 67.2644, -166.556
4.19135, 2, -47.2526, -11.9882, 29.3595, 13.6661, 67.2644, -166.556
4.19932, 2, -47.2522, -11.9882, 29.3595, 13.6661, 67.2644, -166.556
4.2089, 2, -47.2521, -11.9883, 29.3595, 13.6661, 67.2645, -166.556
4.21695, 2, -47.2521, -11.9884, 29.3595, 13.6661, 67.2644, -166.556
4.22333, 2, -47.2522, -11.9885, 29.3595, 13.6661, 67.2644, -166.556
4.23286, 2, -47.2527, -11.9889, 29.3595, 13.6661, 67.2644, -166.556
4.24095, 2, -47.2533, -11.9893, 29.3595, 13.6661, 67.2644, -166.556
4.24894, 2, -47.2535, -11.9895, 29.3595, 13.666, 67.2644, -166.556
4.25535, 2, -47.2538, -11.9896, 29.3595, 13.6661, 67.2645, -166.556
4.26433, 2, -47.254, -11.9897, 29.3595, 13.666, 67.2644, -166.556
4.27233, 2, -47.254, -11.9897, 29.3595, 13.666, 67.2644, -166.556
4.27937, 2, -47.2539, -11.9897, 29.3596, 13.666, 67.2644, -166.556
4.28742, 2, -47.2537, -11.9896, 29.3595, 13.6661, 67.2644, -166.556
4.29633, 2, -47.2532, -11.9896, 29.3595, 13.6661, 67.2645, -166.556
4.30336, 2, -47.2529, -11.9895, 29.3595, 13.6661, 67.2645, -166.556
4.31135, 2, -47.2526, -11.9895, 29.3595, 13.6661, 67.2645, -166.556
4.31932, 2, -47.2524, -11.9895, 29.3595, 13.666, 67.2645, -166.556
4.32735, 2, -47.2523, -11.9896, 29.3595, 13.666, 67.2645, -166.556
4.33534, 2, -47.2523, -11.9896, 29.3595, 13.666, 67.2645, -166.556
4.34333, 2, -47.2523, -11.9897, 29.3595, 13.666, 67.2644, -166.556
4.35135, 2, -47.2523, -11.9898, 29.3595, 13.666, 67.2644, -166.556
4.35935, 2, -47.2523, -11.9898, 29.3595, 13.666, 67.2644, -166.556
4.36731, 2, -47.2523, -11.9898, 29.3595, 13.666, 67.2644, -166.556
4.37535, 2, -47.2523, -11.9898, 29.3595, 13.666, 67.2645, -166.556
4.38337, 2, -47.2523, -11.9897, 29.3595, 13.666, 67.2645, -166.556
4.39131, 2, -47.2522, -11.9897, 29.3595, 13.666, 67.2645, -166.556
4.39935, 2, -47.2521, -11.9896, 29.3595, 13.666, 67.2645, -166.556
4.40735, 2, -47.252, -11.9895, 29.3595, 13.666, 67.2645, -166.555
4.41532, 2, -47.2519, -11.9895, 29.3595, 13.666, 67.2645, -166.556
4.42337, 2, -47.2517, -11.9895, 29.3595, 13.666, 67.2645, -166.556
4.43136, 2, -47.2516, -11.9895, 29.3595, 13.666, 67.2645, -166.556
4.43932, 2, -47.2516, -11.9895, 29.3595, 13.666, 67.2645, -166.556
4.44742, 2, -47.2515, -11.9896, 29.3595, 13.666, 67.2645, -166.556
4.45547, 2, -47.2514, -11.9896, 29.3595, 13.666, 67.2645, -166.556
4.46342, 2, -47.2514, -11.9896, 29.3595, 13.666, 67.2645, -166.555
4.47144, 2, -47.2514, -11.9896, 29.3595, 13.666, 67.2646, -166.555
4.47945, 2, -47.2513, -11.9895, 29.3595, 13.666, 67.2645, -166.555
4.48742, 2, -47.2513, -11.9895, 29.3595, 13.666, 67.2646, -166.555
4.49546, 2, -47.2512, -11.9895, 29.3595, 13.666, 67.2646, -166.555
4.50347, 2, -47.2511, -11.9894, 29.3595, 13.666, 67.2646, -166.555
4.51132, 2, -47.251, -11.9893, 29.3595, 13.666, 67.2645, -166.555
4.51939, 2, -47.2508, -11.9893, 29.3595, 13.666, 67.2646, -166.555
4.52744, 2, -47.2508, -11.9893, 29.3595, 13.666, 67.2646, -166.555
4.53537, 2, -47.2507, -11.9893, 29.3595, 13.666, 67.2645, -166.555
4.54352, 2, -47.2506, -11.9893, 29.3595, 13.666, 67.2646, -166.555
4.55161, 2, -47.2505, -11.9893, 29.3595, 13.666, 67.2646, -166.555
4.55957, 2, -47.2504, -11.9893, 29.3595, 13.666, 67.2646, -166.555
4.56771, 2, -47.2503, -11.9893, 29.3595, 13.666, 67.2646, -166.555
4.57579, 2, -47.2502, -11.9893, 29.3595, 13.6659, 67.2646, -166.555
4.58443, 2, -47.25, -11.9893, 29.3595, 13.6659, 67.2646, -166.555
4.5919, 2, -47.2499, -11.9892, 29.3595, 13.666, 67.2646, -166.555
4.60044, 2, -47.2498, -11.9892, 29.3595, 13.666, 67.2646, -166.555
4.60787, 2, -47.2498, -11.9891, 29.3595, 13.666, 67.2646, -166.555
4.61641, 2, -47.2497, -11.989, 29.3595, 13.6659, 67.2646, -166.555
4.62411, 2, -47.2496, -11.989, 29.3595, 13.666, 67.2646, -166.555
4.63183, 2, -47.2495, -11.989, 29.3595, 13.6659, 67.2647, -166.555
4.64031, 2, -47.2494, -11.9889, 29.3595, 13.6659, 67.2646, -166.555
4.6474, 2, -47.2494, -11.9889, 29.3595, 13.6659, 67.2647, -166.555
4.65531, 2, -47.2493, -11.9889, 29.3595, 13.6659, 67.2647, -166.555
4.6644, 2, -47.2492, -11.9889, 29.3595, 13.6659, 67.2647, -166.555
4.67133, 2, -47.2492, -11.9889, 29.3595, 13.6659, 67.2647, -166.555
4.6793, 2, -47.2492, -11.9889, 29.3595, 13.6659, 67.2647, -166.555
4.68864, 2, -47.2492, -11.9889, 29.3595, 13.6659, 67.2647, -166.555
4.69533, 2, -47.2492, -11.9889, 29.3595, 13.6659, 67.2647, -166.555
4.70332, 2, -47.2491, -11.9889, 29.3595, 13.6659, 67.2647, -166.555
4.71283, 2, -47.249, -11.9888, 29.3595, 13.6659, 67.2647, -166.555
4.72092, 2, -47.2489, -11.9887, 29.3595, 13.6658, 67.2647, -166.555
4.72895, 2, -47.2488, -11.9886, 29.3595, 13.6658, 67.2647, -166.555
4.73533, 2, -47.2487, -11.9886, 29.3595, 13.6658, 67.2647, -166.555
4.74494, 2, -47.2487, -11.9886, 29.3595, 13.6658, 67.2647, -166.555
4.75289, 2, -47.2486, -11.9885, 29.3595, 13.6658, 67.2647, -166.555
4.76029, 2, -47.2486, -11.9886, 29.3595, 13.6658, 67.2647, -166.555
4.76834, 2, -47.2486, -11.9886, 29.3595, 13.6658, 67.2647, -166.555
4.7753, 2, -47.2486, -11.9886, 29.3595, 13.6658, 67.2647, -166.555
4.78337, 2, -47.2485, -11.9886, 29.3595, 13.6657, 67.2647, -166.555
4.79141, 2, -47.2485, -11.9885, 29.3595, 13.6657, 67.2647, -166.555
4.7993, 2, -47.2485, -11.9885, 29.3595, 13.6657, 67.2647, -166.555
4.80733, 2, -47.2484, -11.9885, 29.3595, 13.6658, 67.2648, -166.555
4.81533, 2, -47.2484, -11.9884, 29.3595, 13.6658, 67.2648, -166.554
4.82332, 2, -47.2483, -11.9883, 29.3595, 13.6657, 67.2648, -166.554
4.83133, 2, -47.2482, -11.9883, 29.3595, 13.6657, 67.2648, -166.554
4.83934, 2, -47.2481, -11.9882, 29.3595, 13.6657, 67.2648, -166.554
4.8473, 2, -47.248, -11.9882, 29.3595, 13.6657, 67.2648, -166.554
4.85533, 2, -47.248, -11.9882, 29.3595, 13.6657, 67.2648, -166.554
4.86334, 2, -47.2479, -11.9882, 29.3595, 13.6657, 67.2648, -166.554
4.8713, 2, -47.2479, -11.9881, 29.3595, 13.6657, 67.2648, -166.554
4.87933, 2, -47.2479, -11.9881, 29.3595, 13.6657, 67.2648, -166.554
4.88734, 2, -47.2479, -11.9881, 29.3595, 13.6657, 67.2649, -166.554
4.89533, 2, -47.2478, -11.9881, 29.3595, 13.6656, 67.2649, -166.554
4.90335, 2, -47.2478, -11.9881, 29.3595, 13.6656, 67.2649, -166.554
4.91134, 2, -47.2478, -11.988, 29.3595, 13.6656, 67.2649, -166.554
4.9193, 2, -47.2477, -11.988, 29.3595, 13.6656, 67.2649, -166.554
4.92733, 2, -47.2476, -11.9879, 29.3595, 13.6655, 67.265, -166.554
4.93534, 2, -47.2475, -11.9879, 29.3595, 13.6655, 67.265, -166.554
4.94332, 2, -47.2474, -11.9878, 29.3595, 13.6655, 67.2649, -166.554
4.95138, 2, -47.2474, -11.9878, 29.3595, 13.6655, 67.265, -166.554
4.95948, 2, -47.2473, -11.9878, 29.3595, 13.6655, 67.265, -166.554
4.96738, 2, -47.2473, -11.9878, 29.3595, 13.6655, 67.265, -166.554
4.97556, 2, -47.2472, -11.9878, 29.3595, 13.6655, 67.265, -166.554
4.98346, 2, -47.2472, -11.9878, 29.3595, 13.6655, 67.265, -166.554
4.9914, 2, -47.2472, -11.9877, 29.3595, 13.6654, 67.2651, -166.554
4.99944, 2, -47.2471, -11.9877, 29.3595, 13.6654, 67.2651, -166.554
5.00746, 2, -47.2471, -11.9877, 29.3595, 13.6654, 67.2651, -166.554
5.0153, 2, -47.2471, -11.9876, 29.3595, 13.6654, 67.2651, -166.554
5.02339, 2, -47.247, -11.9876, 29.3595, 13.6654, 67.2651, -166.554
5.03157, 2, -47.2469, -11.9875, 29.3595, 13.6654, 67.2651, -166.554
5.03938, 2, -47.2468, -11.9875, 29.3595, 13.6654, 67.2651, -166.554
5.04747, 2, -47.2467, -11.9874, 29.3595, 13.6653, 67.2651, -166.554
5.05617, 2, -47.2467, -11.9874, 29.3595, 13.6654, 67.2651, -166.554
5.06362, 2, -47.2466, -11.9874, 29.3595, 13.6654, 67.2651, -166.554
5.07162, 2, -47.2466, -11.9874, 29.3595, 13.6654, 67.2651, -166.554
5.07986, 2, -47.2465, -11.9874, 29.3595, 13.6654, 67.2651, -166.554
5.08841, 2, -47.2465, -11.9874, 29.3595, 13.6653, 67.2651, -166.554
5.09592, 2, -47.2465, -11.9874, 29.3595, 13.6652, 67.2651, -166.554
5.1039, 2, -47.2465, -11.9873, 29.3595, 13.6652, 67.2651, -166.554
5.11242, 2, -47.2464, -11.9873, 29.3595, 13.6653, 67.2651, -166.554
5.11986, 2, -47.2464, -11.9873, 29.3595, 13.6652, 67.2652, -166.554
5.12839, 2, -47.2463, -11.9872, 29.3595, 13.6653, 67.2652, -166.554
5.13582, 2, -47.2463, -11.9872, 29.3595, 13.6653, 67.2652, -166.554
5.14328, 4, -47.2462, -11.9871, 29.3595, 13.6652, 67.2652, -166.554
5.15232, 4, -47.2461, -11.9871, 29.3595, 13.6652, 67.2653, -166.554
5.16032, 4, -47.2461, -11.9871, 29.3595, 13.6652, 67.2652, -166.554
5.16729, 4, -47.246, -11.987, 29.3595, 13.6652, 67.2652, -166.554
5.17658, 4, -47.2459, -11.9871, 29.3595, 13.6651, 67.2653, -166.554
5.18333, 4, -47.2459, -11.987, 29.3595, 13.6651, 67.2653, -166.554
5.19129, 4, -47.2459, -11.987, 29.3595, 13.6651, 67.2653, -166.554
5.20063, 4, -47.2459, -11.987, 29.3595, 13.6651, 67.2653, -166.554
5.20732, 4, -47.2459, -11.987, 29.3595, 13.6651, 67.2652, -166.554
5.21529, 4, -47.2458, -11.987, 29.3595, 13.6651, 67.2652, -166.554
5.2251, 4, -47.2458, -11.9869, 29.3595, 13.6651, 67.2652, -166.553
5.23132, 4, -47.2458, -11.9869, 29.3595, 13.6651, 67.2652, -166.553
5.23929, 4, -47.2458, -11.9868, 29.3595, 13.6651, 67.2653, -166.553
5.25507, 4, -47.2457, -11.9868, 29.3595, 13.6651, 67.2652, -166.553
5.25773, 4, -47.2456, -11.9868, 29.3595, 13.665, 67.2652, -166.553
5.26507, 4, -47.2456, -11.9867, 29.3595, 13.665, 67.2653, -166.553
5.27391, 4, -47.2454, -11.9867, 29.3595, 13.665, 67.2653, -166.553
5.2795, 4, -47.2454, -11.9867, 29.3595, 13.665, 67.2653, -166.553
5.28748, 4, -47.2454, -11.9867, 29.3595, 13.665, 67.2653, -166.553
5.29559, 4, -47.2453, -11.9867, 29.3595, 13.665, 67.2653, -166.553
5.30443, 4, -47.2453, -11.9867, 29.3595, 13.665, 67.2653, -166.553
5.31558, 4, -47.2453, -11.9867, 29.3595, 13.6649, 67.2653, -166.553
5.31944, 4, -47.2453, -11.9866, 29.3595, 13.6649, 67.2653, -166.553
5.33018, 4, -47.2453, -11.9866, 29.3595, 13.665, 67.2653, -166.553
5.33543, 4, -47.2453, -11.9866, 29.3595, 13.6649, 67.2653, -166.553
5.3445, 4, -47.2452, -11.9865, 29.3595, 13.6649, 67.2653, -166.553
5.3525, 4, -47.2452, -11.9865, 29.3595, 13.6649, 67.2653, -166.553
5.35944, 4, -47.2451, -11.9865, 29.3595, 13.6649, 67.2654, -166.553
5.36749, 4, -47.245, -11.9865, 29.3595, 13.6649, 67.2654, -166.553
5.3764, 4, -47.245, -11.9864, 29.3595, 13.6648, 67.2654, -166.553
5.38345, 4, -47.2449, -11.9864, 29.3595, 13.6648, 67.2654, -166.553
5.39309, 4, -47.2449, -11.9864, 29.3595, 13.6648, 67.2654, -166.553
5.40261, 4, -47.245, -11.9864, 29.3595, 13.6648, 67.2653, -166.553
5.40845, 4, -47.2451, -11.9864, 29.3595, 13.6648, 67.2654, -166.553
5.41572, 4, -47.2459, -11.9869, 29.3598, 13.6649, 67.2655, -166.553
5.42343, 4, -47.2482, -11.9886, 29.3617, 13.6667, 67.266, -166.553
5.43349, 4, -47.2524, -11.9932, 29.3671, 13.6763, 67.2683, -166.551
5.44533, 4, -47.2645, -12.0088, 29.3902, 13.7219, 67.2804, -166.542
5.44811, 4, -47.271, -12.0174, 29.4044, 13.7502, 67.2882, -166.536
5.45561, 5, -47.289, -12.0417, 29.447, 13.8379, 67.3127, -166.516
5.46449, 5, -47.3158, -12.0772, 29.5139, 13.9776, 67.3523, -166.485
5.4735, 5, -47.353, -12.1256, 29.6113, 14.1845, 67.4092, -166.437
5.47966, 5, -47.4026, -12.1884, 29.7437, 14.4696, 67.488, -166.371
5.48851, 5, -47.4649, -12.2661, 29.9134, 14.8385, 67.5878, -166.287
5.49979, 5, -47.5398, -12.3591, 30.1217, 15.5458, 67.7773, -166.125
5.50443, 5, -47.6267, -12.4666, 30.367, 15.8183, 67.8493, -166.063
5.51317, 5, -47.7243, -12.5874, 30.6444, 16.4078, 68.0043, -165.93
5.52044, 5, -47.831, -12.7196, 30.9497, 17.0452, 68.1689, -165.787
5.53348, 5, -48.0033, -12.9347, 31.4449, 18.0573, 68.4251, -165.566
5.53625, 5, -48.063, -13.0097, 31.6169, 18.4026, 68.5108, -165.491
5.54372, 5, -48.1836, -13.1622, 31.9665, 19.0979, 68.681, -165.343
5.55188, 5, -48.3037, -13.3154, 32.3206, 19.7903, 68.848, -165.195
5.55999, 5, -48.4198, -13.4662, 32.6749, 20.4693, 69.011, -165.046
5.57027, 5, -48.5277, -13.612, 33.0247, 21.1254, 69.1709, -164.886
5.57649, 6, -48.623, -13.749, 33.3634, 21.7457, 69.3292, -164.704
5.58458, 6, -48.7018, -13.8753, 33.6864, 22.3221, 69.4884, -164.486
5.59249, 7, -48.7605, -13.9918, 33.99, 22.8495, 69.6512, -164.218
5.60487, 7, -48.8088, -14.1492, 34.4069, 23.5503, 69.9085, -163.697
5.60835, 7, -48.8147, -14.1967, 34.5355, 23.7634, 69.9995, -163.488
5.61825, 8, -48.8123, -14.2835, 34.7802, 24.1667, 70.1913, -163.016
5.62456, 9, -48.7923, -14.3618, 35.0114, 24.548, 70.3971, -162.479
5.63311, 9, -48.7573, -14.435, 35.2328, 24.9187, 70.6173, -161.887
5.6401, 10, -48.7351, -14.5045, 35.4499, 25.2865, 70.8495, -161.255
5.64816, 10, -48.683, -14.5379, 35.6665, 25.6559, 71.0909, -160.598
5.65889, 10, -48.5887, -14.6336, 35.884, 26.0284, 71.3376, -159.926
5.66344, 11, -48.5539, -14.6646, 35.9937, 26.2159, 71.4616, -159.589
5.6735, 12, -48.4424, -14.7582, 36.326, 26.783, 71.8324, -158.584
5.68879, 12, -48.2835, -14.8846, 36.765, 27.553, 72.3225, -157.257
5.69311, 13, -48.2425, -14.9161, 36.8733, 27.7481, 72.4447, -156.928
5.69541, 13, -48.2425, -14.9161, 36.8733, 27.7481, 72.4447, -156.928
5.70512, 14, -48.1164, -15.0104, 37.1922, 28.34, 72.812, -155.942
5.71293, 14, -48.0286, -15.0734, 37.4002, 28.739, 73.0576, -155.284
5.72244, 15, -47.9374, -15.136, 37.6055, 29.1405, 73.3037, -154.63
5.7275, 15, -47.8906, -15.1667, 37.7067, 29.3417, 73.4265, -154.304
5.73589, 16, -47.7941, -15.2269, 37.9065, 29.7442, 73.671, -153.652
5.74344, 16, -47.6932, -15.286, 38.1041, 30.1457, 73.9137, -153.004
5.75437, 17, -47.5313, -15.3761, 38.3961, 30.7455, 74.2727, -152.041
5.7595, 17, -47.4746, -15.4068, 38.4918, 30.9444, 74.3906, -151.722
5.76807, 18, -47.3577, -15.4689, 38.6812, 31.3402, 74.6229, -151.088
5.77543, 18, -47.2357, -15.5317, 38.8686, 31.733, 74.8506, -150.46
5.78824, 19, -47.0429, -15.6283, 39.145, 32.3164, 75.1819, -149.533
5.79532, 19, -46.9076, -15.6956, 39.3267, 32.7023, 75.3956, -148.924
5.80051, 20, -46.8381, -15.7301, 39.4172, 32.8944, 75.5004, -148.622
5.80803, 20, -46.6952, -15.8009, 39.5971, 33.2768, 75.7061, -148.025
5.81654, 21, -46.5475, -15.8741, 39.7746, 33.6573, 75.9066, -147.436
5.82838, 21, -46.3172, -15.9897, 40.0365, 34.2245, 76.1979, -146.564
5.83143, 21, -46.2381, -16.0296, 40.1231, 34.4126, 76.2923, -146.277
5.84247, 22, -46.0757, -16.1112, 40.2948, 34.7867, 76.477, -145.427
5.85044, 23, -45.8216, -16.2367, 40.5465, 35.3412, 76.744, -144.869
5.85591, 23, -45.7338, -16.2794, 40.6291, 35.524, 76.8302, -144.592
5.86348, 23, -45.5534, -16.3664, 40.7925, 35.8864, 76.9985, -144.042
5.87242, 24, -45.3664, -16.4548, 40.9521, 36.2438, 77.1615, -143.497
5.88103, 25, -45.1727, -16.5445, 41.1071, 36.5955, 77.3192, -142.958
5.88743, 25, -44.9727, -16.6352, 41.258, 36.9409, 77.4722, -142.421
5.89552, 26, -44.7661, -16.7266, 41.4044, 37.2796, 77.6207, -141.888
5.90815, 26, -44.4432, -16.8647, 41.6145, 37.7745, 77.8349, -141.093
5.91285, 27, -44.332, -16.9108, 41.6817, 37.9357, 77.9043, -140.83
5.9254, 27, -43.9882, -17.0482, 41.8746, 38.4075, 78.1061, -140.04
5.92826, 27, -43.8703, -17.0936, 41.9358, 38.5606, 78.1716, -139.778
5.93979, 28, -43.5067, -17.2285, 42.1096, 39.0077, 78.3623, -138.992
5.94448, 29, -43.3822, -17.2728, 42.1642, 39.1524, 78.4243, -138.731
5.95538, 29, -43.1283, -17.3602, 42.2683, 39.5742, 78.6054, -137.947
5.96037, 30, -42.8677, -17.446, 42.3652, 39.7107, 78.6639, -137.686
5.96843, 30, -42.599, -17.5299, 42.4548, 39.977, 78.7793, -137.164
5.97555, 30, -42.3214, -17.6114, 42.5374, 40.2349, 78.8916, -136.644
5.98776, 31, -41.8897, -17.729, 42.6477, 40.6056, 79.0547, -135.863
5.99158, 32, -41.7421, -17.767, 42.6811, 40.725, 79.1079, -135.604
6.00142, 32, -41.4419, -17.8413, 42.7427, 40.9573, 79.212, -135.084
6.00764, 33, -41.1353, -17.9129, 42.7974, 41.1814, 79.3137, -134.566
6.01647, 33, -40.8221, -17.9814, 42.8449, 41.3976, 79.4131, -134.049
6.02452, 34, -40.5023, -18.0468, 42.8852, 41.6055, 79.5095, -133.532
6.03242, 34, -40.1774, -18.1095, 42.9182, 41.8053, 79.6033, -133.017
6.04189, 35, -39.8481, -18.1695, 42.9439, 41.997, 79.6948, -132.502
6.04848, 35, -39.5129, -18.2262, 42.9625, 42.1814, 79.7835, -131.99
6.05723, 36, -39.1711, -18.2795, 42.9741, 42.3581, 79.8703, -131.478
6.06859, 36, -38.6446, -18.3532, 42.9786, 42.6086, 79.9962, -130.712
6.07245, 37, -38.4657, -18.3761, 42.9767, 42.6883, 80.0371, -130.457
6.08042, 37, -38.1036, -18.4193, 42.9679, 42.842, 80.1171, -129.95
6.08918, 38, -37.7356, -18.4587, 42.9522, 42.9884, 80.1956, -129.443
6.09627, 38, -37.3629, -18.4947, 42.9298, 43.1274, 80.2715, -128.939
6.10423, 39, -36.9857, -18.5274, 42.9008, 43.2588, 80.3456, -128.436
6.11439, 39, -36.604, -18.5565, 42.8651, 43.383, 80.4171, -127.935
6.12232, 40, -36.2175, -18.5818, 42.8226, 43.4998, 80.4874, -127.436
6.13046, 40, -35.8252, -18.6034, 42.7738, 43.6094, 80.5553, -126.938
6.13752, 41, -35.4269, -18.6209, 42.7182, 43.7119, 80.6219, -126.443
6.14668, 41, -35.0229, -18.6347, 42.6562, 43.8068, 80.6856, -125.949
6.15217, 41, -34.819, -18.6403, 42.6228, 43.8519, 80.7484, -125.458
6.16289, 42, -34.2022, -18.652, 42.513, 43.976, 80.8082, -124.969
6.16873, 43, -33.787, -18.6558, 42.4319, 44.0499, 80.8669, -124.482
6.17802, 43, -33.368, -18.6564, 42.3449, 44.1164, 80.9238, -123.998
6.18351, 44, -33.1564, -18.6553, 42.2992, 44.1474, 80.9511, -123.756
6.19142, 44, -32.7286, -18.6504, 42.2035, 44.2034, 81.0057, -123.276
6.19949, 45, -32.2945, -18.6416, 42.1021, 44.2518, 81.0586, -122.798
6.2114, 45, -31.6325, -18.6215, 41.9387, 44.3115, 81.134, -122.085
6.21549, 46, -31.4098, -18.6131, 41.8813, 44.3276, 81.1588, -121.848
6.22346, 46, -30.9629, -18.5937, 41.7618, 44.3539, 81.2065, -121.376
6.2315, 47, -30.5142, -18.5706, 41.6366, 44.3724, 81.2518, -120.908
6.2421, 47, -29.8339, -18.5282, 41.4378, 44.3864, 81.3189, -120.208
6.25037, 48, -29.3727, -18.4944, 41.2979, 44.3873, 81.3617, -119.744
6.25803, 48, -28.905, -18.4562, 41.1517, 44.3793, 81.4034, -119.282
6.26492, 49, -28.6689, -18.4355, 41.0763, 44.372, 81.4453, -118.822
6.27143, 49, -28.1935, -18.3908, 40.9213, 44.3512, 81.4662, -118.593
6.2874, 50, -27.2356, -18.2878, 40.5928, 44.2805, 81.5476, -117.677
6.29085, 50, -26.9939, -18.2589, 40.5064, 44.2572, 81.5683, -117.449
6.29842, 51, -26.5055, -18.1967, 40.3291, 44.2037, 81.6107, -116.993
6.30438, 51, -26.2585, -18.1636, 40.2382, 44.173, 81.632, -116.766
6.31341, 52, -25.7588, -18.0931, 39.9542, 44.0666, 81.6958, -116.085
6.3225, 52, -24.9997, -17.9774, 39.7557, 43.9826, 81.74, -115.631
6.32956, 53, -24.7454, -17.9362, 39.6542, 43.9367, 81.7848, -115.178
6.3364, 53, -24.2355, -17.8496, 39.4467, 43.8377, 81.8071, -114.952
6.34355, 54, -23.7211, -17.757, 39.2312, 43.7285, 81.8529, -114.5
6.35613, 54, -22.9358, -17.6063, 38.8948, 43.5449, 81.926, -113.823
6.36234, 55, -22.4022, -17.4982, 38.6618, 43.4086, 81.9762, -113.371
6.36748, 55, -22.1335, -17.4418, 38.5423, 43.3361, 82.0025, -113.145
6.3754, 56, -21.5939, -17.3244, 38.2984, 43.1821, 82.0573, -112.693
6.38723, 56, -20.7796, -17.1376, 37.9204, 42.9295, 82.1414, -112.016
6.39148, 57, -20.5056, -17.0726, 37.7907, 42.8396, 82.1707, -111.791
6.40103, 57, -19.9503, -16.9384, 37.5268, 42.651, 82.2304, -111.34
6.40845, 58, -19.3858, -16.7983, 37.2559, 42.4504, 82.2912, -110.89
6.4155, 58, -18.8149, -16.6522, 36.9785, 42.2372, 82.355, -110.44
6.42447, 59, -18.2414, -16.5002, 36.695, 42.0114, 82.4197, -109.99
6.43143, 59, -17.6651, -16.3433, 36.4046, 41.7733, 82.4877, -109.541
6.4394, 60, -17.0822, -16.182, 36.1085, 41.5225, 82.5572, -109.092
6.44748, 60, -16.4893, -16.0156, 35.8061, 41.2592, 82.6294, -108.643
6.46271, 61, -15.5856, -15.756, 35.3431, 40.693, 82.7783, -107.745
6.46464, 61, -15.2825, -15.6672, 35.1858, 40.693, 82.7783, -107.745
6.47164, 62, -14.6743, -15.4865, 34.8674, 40.391, 82.8557, -107.297
6.48048, 62, -14.0602, -15.3011, 34.5432, 40.0759, 82.9358, -106.848
6.4897, 63, -13.4356, -15.1095, 34.2145, 39.7474, 83.0181, -106.399
6.49562, 63, -12.8018, -14.9111, 33.8803, 39.4039, 83.1037, -105.95
6.50439, 64, -12.1617, -14.7077, 33.5408, 39.0451, 83.1932, -105.5
6.5115, 64, -11.5177, -14.4989, 33.1947, 38.6714, 83.2866, -105.048
6.52052, 65, -10.8671, -14.2829, 32.8426, 38.2827, 83.3845, -104.595
6.5302, 65, -10.2055, -14.0597, 32.484, 37.8788, 83.4872, -104.141
6.53638, 66, -9.53458, -13.8304, 32.1209, 37.4586, 83.5947, -103.684
6.54575, 66, -8.8564, -13.5951, 31.7532, 37.0228, 83.708, -103.226
6.55435, 67, -8.17359, -13.3527, 31.3803, 36.5717, 83.8264, -102.766
6.56137, 67, -7.48275, -13.1029, 31.0014, 36.1053, 83.9505, -102.304
6.56842, 68, -6.78151, -12.8451, 30.6176, 35.623, 84.0809, -101.839
6.57666, 68, -6.07159, -12.5801, 30.2302, 35.1255, 84.2178, -101.373
6.58769, 69, -4.99379, -12.1694, 29.6404, 34.3496, 84.4368, -100.668
6.59607, 69, -4.26539, -11.8851, 29.2405, 33.8125, 84.5921, -100.195
6.60015, 70, -3.89769, -11.7402, 29.0394, 33.5383, 84.6727, -99.9574
6.60878, 70, -3.15531, -11.4444, 28.6349, 32.9766, 84.8397, -99.4797
6.61599, 71, -2.40486, -11.1398, 28.2273, 32.3988, 85.0148, -98.9997
6.62502, 71, -1.64659, -10.8277, 27.8155, 31.8053, 85.1982, -98.5171
6.6329, 72, -0.881146, -10.5087, 27.4014, 31.1973, 85.3906, -98.0315
6.64084, 72, -0.109863, -10.1845, 26.9862, 30.5734, 85.591, -97.543
6.64806, 73, 0.278017, -10.0196, 26.5712, 29.9386, 85.7986, -97.0522
6.66059, 73, 1.84309, -9.34004, 25.9519, 28.9697, 86.122, -96.3137
6.66737, 74, 2.23695, -9.16639, 25.7468, 28.6429, 86.2331, -96.0664
6.67305, 74, 2.63149, -8.99183, 25.5426, 28.3143, 86.4599, -95.5708
6.67941, 75, 3.42245, -8.63993, 25.1375, 27.6526, 86.5755, -95.3223
6.68747, 75, 4.21683, -8.28109, 24.7376, 26.9855, 86.8111, -94.8243
6.69744, 76, 5.41336, -7.72998, 24.1457, 25.9811, 87.1761, -94.0756
6.7056, 76, 6.21192, -7.35481, 23.7565, 25.3062, 87.4284, -93.5735
6.71754, 77, 7.41139, -6.77855, 23.1794, 24.2894, 87.8239, -92.8162
6.73113, 78, 8.61399, -6.18353, 22.6083, 23.2634, 88.2436, -92.0541
6.73319, 78, 9.01464, -5.98132, 22.4196, 22.9194, 88.3891, -91.7986
6.7352, 78, 9.01464, -5.98132, 22.4196, 22.9194, 88.3891, -91.7986
6.74329, 78, 9.81464, -5.57145, 22.0456, 22.2295, 88.6889, -91.2847
6.75128, 79, 10.6132, -5.15308, 21.6758, 21.5388, 88.9993, -90.7674
6.76114, 80, 11.807, -4.50755, 21.1312, 20.5076, 89.4829, -89.9848
6.76728, 80, 12.2032, -4.28731, 20.9532, 20.1651, 89.6485, -89.7221
6.77626, 80, 12.9919, -3.83913, 20.602, 19.4861, 89.9867, -89.1928
6.78324, 81, 13.7763, -3.38232, 20.2573, 18.8161, 90.3337, -88.659
6.79128, 81, 14.5549, -2.91814, 19.9188, 18.1557, 90.6899, -88.1204
6.8003, 82, 15.3258, -2.4452, 19.5876, 17.5053, 91.0547, -87.5784
6.80734, 82, 16.0867, -1.96415, 19.2636, 16.8662, 91.4289, -87.032
6.81757, 83, 17.2063, -1.22971, 18.791, 15.9353, 92.0056, -86.2064
6.82327, 83, 17.5727, -0.981628, 18.637, 15.6334, 92.2016, -85.9303
6.83124, 84, 18.2931, -0.481777, 18.3356, 15.0429, 92.5984, -85.3778
6.83926, 84, 18.9961, 0.0233865, 18.043, 14.4738, 93.0019, -84.8245
6.84828, 85, 19.6824, 0.534797, 17.7581, 13.9268, 93.4114, -84.272
6.85623, 85, 20.3526, 1.05172, 17.4809, 13.4028, 93.827, -83.7207
6.86425, 86, 21.0068, 1.57261, 17.2101, 12.9021, 94.2465, -83.1717
6.87231, 86, 21.6454, 2.09781, 16.9468, 12.424, 94.6703, -82.6229
6.8802, 87, 22.2696, 2.63015, 16.6905, 11.9687, 95.0989, -82.0732
6.88823, 87, 22.8808, 3.17148, 16.4393, 11.5348, 95.533, -81.5215
6.8965, 88, 23.481, 3.72149, 16.1932, 11.1198, 95.973, -80.9667
6.90323, 88, 24.0707, 4.27858, 15.9511, 10.7221, 96.4189, -80.4051
6.9113, 88, 24.6495, 4.84423, 15.7142, 10.3407, 96.8704, -79.8356
6.91924, 89, 25.2161, 5.42048, 15.4837, 9.97482, 97.3283, -79.2561
6.92726, 89, 25.7733, 6.00668, 15.257, 9.62495, 97.7921, -78.6658
6.93531, 90, 26.3248, 6.60202, 15.0335, 9.28957, 98.2619, -78.0622
6.94324, 90, 26.8677, 7.20537, 14.8148, 8.97031, 98.7382, -77.4447
6.95132, 91, 27.3967, 7.81719, 14.6013, 8.66862, 99.2207, -76.8144
6.9593, 91, 27.9123, 8.43937, 14.392, 8.38588, 99.7093, -76.1721
6.96738, 92, 28.4183, 9.07256, 14.1871, 8.12437, 100.202, -75.5185
6.97539, 92, 28.9174, 9.71575, 13.987, 7.88495, 100.7, -74.8565
6.98339, 93, 29.4072, 10.3664, 13.7927, 7.66807, 101.198, -74.1879
6.99134, 93, 29.8843, 11.0228, 13.6061, 7.47502, 101.697, -73.512
6.99939, 94, 30.3473, 11.683, 13.4273, 7.30532, 102.195, -72.8296
7.00742, 94, 30.7962, 12.3464, 13.2552, 7.15929, 102.689, -72.143
7.0153, 95, 31.231, 13.0117, 13.0905, 7.03709, 103.181, -71.4509
7.02324, 95, 31.6519, 13.6786, 12.9338, 6.93844, 103.669, -70.7528
7.03134, 96, 32.0581, 14.3465, 12.784, 6.86332, 104.154, -70.0501
7.04012, 96, 32.4485, 15.0151, 12.6405, 6.81263, 104.635, -69.3418
7.04732, 97, 32.823, 15.6839, 12.5039, 6.78336, 105.111, -68.6272
7.05624, 97, 33.1815, 16.3512, 12.3751, 6.77536, 105.581, -67.9092
7.06376, 98, 33.5246, 17.0162, 12.2549, 6.78986, 106.043, -67.1882
7.07262, 98, 33.8538, 17.6769, 12.1435, 6.82483, 106.497, -66.4634
7.08031, 99, 34.1696, 18.3323, 12.0414, 6.87954, 106.941, -65.7391
7.08768, 99, 34.4734, 18.9803, 11.9485, 6.95375, 107.372, -65.0165
7.09574, 100, 34.7661, 19.6199, 11.8643, 7.04512, 107.792, -64.2946
7.10435, 100, 35.0469, 20.2503, 11.7887, 7.15386, 108.198, -63.5774
7.11196, 101, 35.3157, 20.8699, 11.7211, 7.27792, 108.59, -62.8667
7.12074, 101, 35.5733, 21.4782, 11.662, 7.41635, 108.967, -62.1623
7.12795, 102, 35.8192, 22.0744, 11.6114, 7.56723, 109.327, -61.4673
7.13633, 102, 36.0526, 22.6578, 11.5694, 7.72901, 109.669, -60.7841
7.14388, 103, 36.1651, 22.944, 11.5362, 7.90035, 109.994, -60.1119
7.1523, 103, 36.4907, 23.7785, 11.5118, 8.08059, 110.301, -59.4515
7.15933, 103, 36.5956, 24.0488, 11.5031, 8.17413, 110.447, -59.1267
7.16726, 104, 36.7999, 24.5772, 11.4922, 8.36791, 110.725, -58.4869
7.17708, 104, 37.093, 25.3393, 11.4897, 8.67548, 111.103, -57.5492
7.18437, 104, 37.2804, 25.8272, 11.4963, 8.89022, 111.33, -56.9406
7.19141, 104, 37.371, 26.0648, 11.5017, 8.99988, 111.436, -56.6417
7.19929, 104, 37.5453, 26.5277, 11.5155, 9.22242, 111.635, -56.055
7.20873, 104, 37.7909, 27.1917, 11.5414, 9.56017, 111.903, -55.207
7.21672, 104, 37.9474, 27.6144, 11.5618, 9.784, 112.067, -54.6669
7.22468, 104, 38.0992, 28.0211, 11.5828, 10.0043, 112.22, -54.1497
7.2328, 104, 38.2452, 28.4106, 11.6037, 10.2197, 112.364, -53.6551
7.24078, 104, 38.3845, 28.7838, 11.6238, 10.4292, 112.5, -53.1848
7.24945, 104, 38.5168, 29.139, 11.6426, 10.6317, 112.629, -52.7383
7.25522, 104, 38.5801, 29.3098, 11.6516, 10.73, 112.69, -52.5244
7.26482, 104, 38.7004, 29.6377, 11.6688, 10.9204, 112.863, -51.9209
7.27221, 104, 38.8124, 29.9462, 11.6847, 11.102, 112.917, -51.7319
7.2803, 104, 38.9162, 30.2364, 11.6995, 11.274, 113.018, -51.3728
7.28825, 104, 39.0121, 30.5074, 11.7134, 11.4361, 113.112, -51.0395
7.29529, 104, 39.1004, 30.7585, 11.726, 11.5876, 113.199, -50.7316
7.30325, 104, 39.1808, 30.9902, 11.7374, 11.7282, 113.278, -50.4487
7.3113, 104, 39.2533, 31.202, 11.7476, 11.8575, 113.351, -50.1911
7.31935, 104, 39.3181, 31.3937, 11.7573, 11.9751, 113.415, -49.9587
7.32723, 104, 39.3753, 31.5662, 11.7659, 12.081, 113.473, -49.7514
7.33523, 104, 39.4254, 31.7193, 11.7734, 12.1746, 113.524, -49.5693
7.3433, 104, 39.4691, 31.8532, 11.7803, 12.2564, 113.567, -49.4118
7.35123, 104, 39.5073, 31.9695, 11.7865, 12.3258, 113.604, -49.2781
7.35929, 104, 39.5393, 32.0688, 11.792, 12.3842, 113.635, -49.1679
7.3673, 104, 39.5657, 32.152, 11.7969, 12.4303, 113.659, -49.0789
7.37526, 104, 39.5872, 32.2207, 11.8014, 12.4664, 113.678, -49.01
7.38323, 104, 39.6041, 32.2767, 11.8054, 12.4938, 113.691, -48.9588
7.39129, 104, 39.617, 32.3213, 11.809, 12.5137, 113.701, -48.9223
7.39929, 104, 39.6269, 32.3555, 11.8122, 12.5275, 113.707, -48.8975
7.40722, 104, 39.6342, 32.3811, 11.8151, 12.5366, 113.711, -48.8817
7.4153, 104, 39.6392, 32.4003, 11.8176, 12.5421, 113.713, -48.8726
7.42323, 104, 39.6423, 32.414, 11.8197, 12.5452, 113.714, -48.8679
7.43123, 104, 39.6441, 32.423, 11.8212, 12.5468, 113.715, -48.8658
7.43936, 105, 39.6447, 32.4286, 11.8224, 12.5476, 113.715, -48.8649
7.44722, 105, 39.6443, 32.4322, 11.8234, 12.548, 113.715, -48.8646
7.45523, 105, 39.6433, 32.4347, 11.8242, 12.5482, 113.715, -48.8647
7.46332, 105, 39.6423, 32.4365, 11.8249, 12.5483, 113.715, -48.865
7.47129, 105, 39.6413, 32.438, 11.8255, 12.5483, 113.715, -48.8652
7.47945, 105, 39.6402, 32.4392, 11.8261, 12.5483, 113.715, -48.8655
7.48738, 105, 39.6392, 32.4404, 11.8266, 12.5483, 113.715, -48.8658
7.49532, 105, 39.6386, 32.4415, 11.8272, 12.5483, 113.715, -48.8662
7.50333, 105, 39.6383, 32.4426, 11.8278, 12.5484, 113.715, -48.8665
7.5114, 105, 39.638, 32.4436, 11.8283, 12.5484, 113.715, -48.8668
7.51941, 105, 39.6377, 32.4445, 11.8288, 12.5484, 113.715, -48.8671
7.52724, 105, 39.6375, 32.4452, 11.8292, 12.5484, 113.715, -48.8674
7.53532, 105, 39.6371, 32.4456, 11.8295, 12.5483, 113.715, -48.8677
7.54328, 105, 39.6368, 32.4459, 11.8298, 12.5483, 113.715, -48.868
7.55132, 105, 39.6366, 32.4461, 11.83, 12.5483, 113.715, -48.8682
7.55982, 105, 39.6362, 32.4462, 11.8301, 12.5483, 113.715, -48.8684
