hehonglu123/Motion-Primitive-Planning/simulation/robotstudio_sim/scripts/fitting_output/from_NX/threshold0.2/curve_exe_v316.40625_z10.csv
timestamp, cmd_num, J1, J2, J3, J4, J5, J6
0, -1, 38.5362, 29.0712, 12.0284, 10.9082, 112.209, -53.6537
0.002, -1, 38.5362, 29.0712, 12.0284, 10.9082, 112.209, -53.6537
0.006, -1, 38.5362, 29.0712, 12.0284, 10.9082, 112.209, -53.6537
0.008, -1, 38.5362, 29.0712, 12.0284, 10.9082, 112.209, -53.6537
0.011, -1, 38.5362, 29.0712, 12.0284, 10.9082, 112.209, -53.6537
0.016, -1, 38.5362, 29.0712, 12.0284, 10.9082, 112.209, -53.6537
0.02, -1, 38.5362, 29.0712, 12.0284, 10.9082, 112.209, -53.6537
0.024, -1, 38.5362, 29.0712, 12.0284, 10.9082, 112.209, -53.6537
0.028, -1, 38.5362, 29.0712, 12.0284, 10.9082, 112.209, -53.6537
0.032, -1, 38.5362, 29.0712, 12.0284, 10.9082, 112.209, -53.6537
0.036, -1, 38.5361, 29.0712, 12.0284, 10.9082, 112.209, -53.6537
0.04, -1, 38.5358, 29.0711, 12.0284, 10.9082, 112.209, -53.6537
0.044, -1, 38.5352, 29.071, 12.0283, 10.9082, 112.209, -53.6537
0.048, -1, 38.5341, 29.0708, 12.0282, 10.9082, 112.209, -53.6537
0.052, -1, 38.5323, 29.0703, 12.0281, 10.9082, 112.209, -53.6539
0.056, -1, 38.5297, 29.0696, 12.0279, 10.9082, 112.209, -53.6542
0.06, -1, 38.5262, 29.0686, 12.0276, 10.9082, 112.209, -53.6549
0.064, -1, 38.5219, 29.0672, 12.0273, 10.9083, 112.209, -53.656
0.068, -1, 38.5165, 29.0654, 12.0271, 10.9084, 112.208, -53.6578
0.072, -1, 38.5099, 29.0629, 12.0268, 10.9085, 112.207, -53.6605
0.076, -1, 38.5019, 29.0598, 12.0267, 10.9088, 112.205, -53.6644
0.08, -1, 38.4922, 29.0558, 12.0268, 10.9092, 112.203, -53.67
0.084, -1, 38.4806, 29.0509, 12.0271, 10.9098, 112.201, -53.6775
0.088, -1, 38.4666, 29.0449, 12.0278, 10.9105, 112.197, -53.6875
0.092, -1, 38.4503, 29.0377, 12.0289, 10.9115, 112.192, -53.7004
0.096, -1, 38.4314, 29.0292, 12.0307, 10.9128, 112.186, -53.7168
0.1, -1, 38.4096, 29.0193, 12.0331, 10.9145, 112.178, -53.7371
0.104, -1, 38.3849, 29.0078, 12.0365, 10.9165, 112.168, -53.7618
0.108, -1, 38.3569, 28.9947, 12.0408, 10.919, 112.157, -53.7915
0.112, -1, 38.3255, 28.9799, 12.0461, 10.9219, 112.143, -53.8265
0.116, -1, 38.2904, 28.9631, 12.0526, 10.9253, 112.128, -53.8672
0.12, -1, 38.2517, 28.9445, 12.0604, 10.9293, 112.109, -53.914
0.124, -1, 38.2093, 28.9239, 12.0695, 10.9338, 112.089, -53.9671
0.128, -1, 38.1631, 28.9013, 12.0799, 10.9389, 112.066, -54.0267
0.131, -1, 38.113, 28.8767, 12.0917, 10.9446, 112.04, -54.0929
0.136, -1, 38.0592, 28.8501, 12.1049, 10.9509, 112.012, -54.1656
0.139, -1, 38.0014, 28.8215, 12.1194, 10.9577, 111.981, -54.2448
0.144, -1, 37.9399, 28.7909, 12.1353, 10.9651, 111.948, -54.3303
0.148, -1, 37.8747, 28.7584, 12.1523, 10.973, 111.912, -54.4218
0.152, -1, 37.8058, 28.7241, 12.1705, 10.9814, 111.874, -54.5191
0.156, -1, 37.7336, 28.688, 12.1897, 10.9903, 111.834, -54.6217
0.16, -1, 37.6582, 28.6504, 12.2099, 10.9996, 111.792, -54.7291
0.164, -1, 37.5797, 28.6112, 12.231, 11.0093, 111.749, -54.841
0.168, -1, 37.4983, 28.5706, 12.2527, 11.0193, 111.704, -54.9567
0.172, -1, 37.4142, 28.5287, 12.2749, 11.0297, 111.657, -55.0759
0.176, -1, 37.3275, 28.4856, 12.2977, 11.0402, 111.61, -55.198
0.18, -1, 37.2388, 28.4414, 12.3207, 11.051, 111.561, -55.3226
0.184, -1, 37.1482, 28.3963, 12.344, 11.0619, 111.512, -55.4492
0.188, -1, 37.056, 28.3503, 12.3675, 11.073, 111.462, -55.5774
0.192, -1, 36.9624, 28.3037, 12.3912, 11.0842, 111.411, -55.7069
0.196, -1, 36.8676, 28.2565, 12.4148, 11.0954, 111.361, -55.8374
0.2, -1, 36.7715, 28.2087, 12.4385, 11.1067, 111.31, -55.9687
0.204, -1, 36.6744, 28.1606, 12.4622, 11.1181, 111.258, -56.1006
0.208, -1, 36.5762, 28.1121, 12.4859, 11.1294, 111.207, -56.2328
0.212, -1, 36.4771, 28.0633, 12.5096, 11.1408, 111.155, -56.3653
0.216, -1, 36.3774, 28.0144, 12.5332, 11.1522, 111.104, -56.4981
0.22, -1, 36.2772, 27.9653, 12.5568, 11.1636, 111.052, -56.631
0.224, -1, 36.1767, 27.9161, 12.5804, 11.175, 111, -56.764
0.228, -1, 36.076, 27.8669, 12.604, 11.1864, 110.949, -56.897
0.232, -1, 35.9751, 27.8176, 12.6276, 11.1979, 110.897, -57.0302
0.236, -1, 35.8741, 27.7683, 12.6512, 11.2093, 110.845, -57.1634
0.24, -1, 35.773, 27.7189, 12.6748, 11.2207, 110.793, -57.2966
0.244, -1, 35.6718, 27.6695, 12.6984, 11.2322, 110.741, -57.4299
0.248, -1, 35.5706, 27.6201, 12.7221, 11.2436, 110.69, -57.5632
0.252, -1, 35.4694, 27.5707, 12.7457, 11.255, 110.638, -57.6966
0.256, -1, 35.3681, 27.5212, 12.7693, 11.2665, 110.586, -57.83
0.26, -1, 35.2668, 27.4718, 12.7929, 11.2779, 110.534, -57.9634
0.264, -1, 35.1654, 27.4223, 12.8166, 11.2894, 110.482, -58.0969
0.268, -1, 35.064, 27.3729, 12.8402, 11.3008, 110.43, -58.2304
0.272, -1, 34.9626, 27.3234, 12.8638, 11.3123, 110.378, -58.3639
0.276, -1, 34.8612, 27.2739, 12.8875, 11.3237, 110.326, -58.4974
0.28, -1, 34.7598, 27.2244, 12.9112, 11.3352, 110.274, -58.631
0.284, -1, 34.6583, 27.1749, 12.9348, 11.3467, 110.222, -58.7646
0.288, -1, 34.5568, 27.1253, 12.9585, 11.3581, 110.171, -58.8982
0.292, -1, 34.4553, 27.0758, 12.9821, 11.3696, 110.119, -59.0319
0.296, -1, 34.3538, 27.0262, 13.0058, 11.381, 110.067, -59.1656
0.3, -1, 34.2522, 26.9767, 13.0295, 11.3925, 110.015, -59.2993
0.304, -1, 34.1506, 26.9271, 13.0532, 11.404, 109.963, -59.433
0.308, -1, 34.049, 26.8775, 13.0769, 11.4155, 109.911, -59.5668
0.312, -1, 33.9474, 26.8279, 13.1006, 11.4269, 109.859, -59.7006
0.316, -1, 33.8458, 26.7783, 13.1242, 11.4384, 109.807, -59.8344
0.32, -1, 33.7441, 26.7287, 13.148, 11.4499, 109.755, -59.9683
0.324, -1, 33.6424, 26.6791, 13.1717, 11.4614, 109.703, -60.1021
0.328, -1, 33.5407, 26.6295, 13.1954, 11.4729, 109.65, -60.236
0.332, -1, 33.439, 26.5798, 13.2191, 11.4844, 109.598, -60.37
0.336, -1, 33.3373, 26.5302, 13.2428, 11.4959, 109.546, -60.5039
0.34, -1, 33.2355, 26.4805, 13.2665, 11.5073, 109.494, -60.6379
0.344, -1, 33.1338, 26.4309, 13.2903, 11.5188, 109.442, -60.7719
0.348, -1, 33.032, 26.3812, 13.314, 11.5303, 109.39, -60.9059
0.352, -1, 32.9301, 26.3315, 13.3377, 11.5418, 109.338, -61.04
0.356, -1, 32.8283, 26.2818, 13.3615, 11.5533, 109.286, -61.1741
0.36, -1, 32.7264, 26.2321, 13.3852, 11.5648, 109.234, -61.3082
0.364, -1, 32.6246, 26.1824, 13.409, 11.5764, 109.182, -61.4423
0.368, -1, 32.5227, 26.1327, 13.4327, 11.5879, 109.129, -61.5765
0.372, -1, 32.4208, 26.0829, 13.4565, 11.5994, 109.077, -61.7107
0.376, -1, 32.3188, 26.0332, 13.4803, 11.6109, 109.025, -61.8449
0.38, -1, 32.2169, 25.9834, 13.504, 11.6224, 108.973, -61.9791
0.384, -1, 32.1149, 25.9337, 13.5278, 11.6339, 108.921, -62.1133
0.388, -1, 32.0129, 25.8839, 13.5516, 11.6454, 108.868, -62.2476
0.392, -1, 31.9109, 25.8341, 13.5754, 11.657, 108.816, -62.3819
0.396, -1, 31.8089, 25.7843, 13.5991, 11.6685, 108.764, -62.5163
0.4, -1, 31.7069, 25.7345, 13.6229, 11.68, 108.712, -62.6506
0.404, -1, 31.6048, 25.6847, 13.6467, 11.6915, 108.66, -62.785
0.408, -1, 31.5028, 25.6349, 13.6705, 11.7031, 108.607, -62.9194
0.412, -1, 31.4007, 25.5851, 13.6943, 11.7146, 108.555, -63.0538
0.416, -1, 31.2986, 25.5353, 13.7181, 11.7261, 108.503, -63.1882
0.42, -1, 31.1964, 25.4854, 13.7419, 11.7377, 108.451, -63.3227
0.424, -1, 31.0943, 25.4356, 13.7658, 11.7492, 108.398, -63.4572
0.428, -1, 30.9921, 25.3857, 13.7896, 11.7607, 108.346, -63.5917
0.432, -1, 30.89, 25.3359, 13.8134, 11.7723, 108.294, -63.7262
0.436, -1, 30.7878, 25.286, 13.8372, 11.7838, 108.241, -63.8607
0.44, -1, 30.6856, 25.2361, 13.861, 11.7954, 108.189, -63.9953
0.444, -1, 30.5833, 25.1862, 13.8849, 11.8069, 108.137, -64.1299
0.448, -1, 30.4811, 25.1363, 13.9087, 11.8184, 108.084, -64.2645
0.452, -1, 30.3788, 25.0864, 13.9326, 11.83, 108.032, -64.3992
0.456, -1, 30.2766, 25.0365, 13.9564, 11.8415, 107.98, -64.5338
0.46, -1, 30.1743, 24.9866, 13.9802, 11.8531, 107.927, -64.6685
0.464, -1, 30.072, 24.9367, 14.0041, 11.8647, 107.875, -64.8032
0.468, -1, 29.9697, 24.8868, 14.028, 11.8762, 107.823, -64.9379
0.472, -1, 29.8673, 24.8368, 14.0518, 11.8878, 107.77, -65.0726
0.476, -1, 29.765, 24.7869, 14.0757, 11.8993, 107.718, -65.2074
0.48, -1, 29.6626, 24.7369, 14.0995, 11.9109, 107.665, -65.3422
0.484, -1, 29.5602, 24.6869, 14.1234, 11.9225, 107.613, -65.477
0.488, -1, 29.4578, 24.637, 14.1473, 11.934, 107.561, -65.6118
0.492, -1, 29.3554, 24.587, 14.1712, 11.9456, 107.508, -65.7466
0.496, -1, 29.253, 24.537, 14.195, 11.9572, 107.456, -65.8815
0.5, -1, 29.1506, 24.487, 14.2189, 11.9687, 107.403, -66.0163
0.504, -1, 29.0481, 24.437, 14.2428, 11.9803, 107.351, -66.1512
0.508, -1, 28.9457, 24.387, 14.2667, 11.9919, 107.298, -66.2861
0.512, -1, 28.8432, 24.337, 14.2906, 12.0034, 107.246, -66.4211
0.516, -1, 28.7407, 24.287, 14.3145, 12.015, 107.194, -66.556
0.52, -1, 28.6382, 24.237, 14.3384, 12.0266, 107.141, -66.691
0.524, -1, 28.5357, 24.187, 14.3623, 12.0382, 107.089, -66.826
0.528, -1, 28.4331, 24.1369, 14.3862, 12.0498, 107.036, -66.961
0.532, -1, 28.3306, 24.0869, 14.4101, 12.0613, 106.984, -67.096
0.536, -1, 28.228, 24.0368, 14.434, 12.0729, 106.931, -67.231
0.54, -1, 28.1255, 23.9868, 14.4579, 12.0845, 106.879, -67.3661
0.544, -1, 28.0229, 23.9367, 14.4818, 12.0961, 106.826, -67.5011
0.548, -1, 27.9203, 23.8867, 14.5058, 12.1077, 106.774, -67.6362
0.552, -1, 27.8177, 23.8366, 14.5297, 12.1193, 106.721, -67.7713
0.556, -1, 27.7151, 23.7865, 14.5536, 12.1309, 106.669, -67.9064
0.56, -1, 27.6124, 23.7364, 14.5775, 12.1424, 106.616, -68.0415
0.564, -1, 27.5098, 23.6863, 14.6015, 12.154, 106.563, -68.1767
0.568, -1, 27.4071, 23.6362, 14.6254, 12.1656, 106.511, -68.3118
0.572, -1, 27.3045, 23.5861, 14.6493, 12.1772, 106.458, -68.447
0.576, -1, 27.2018, 23.536, 14.6733, 12.1888, 106.406, -68.5822
0.58, -1, 27.0991, 23.4859, 14.6972, 12.2004, 106.353, -68.7174
0.584, -1, 26.9964, 23.4358, 14.7212, 12.212, 106.301, -68.8526
0.588, -1, 26.8937, 23.3857, 14.7451, 12.2236, 106.248, -68.9879
0.592, -1, 26.7909, 23.3355, 14.7691, 12.2352, 106.196, -69.1231
0.596, -1, 26.6882, 23.2854, 14.793, 12.2468, 106.143, -69.2584
0.6, -1, 26.5855, 23.2353, 14.817, 12.2584, 106.09, -69.3937
0.604, -1, 26.4827, 23.1851, 14.8409, 12.27, 106.038, -69.5289
0.608, -1, 26.3799, 23.135, 14.8649, 12.2816, 105.985, -69.6642
0.612, -1, 26.2772, 23.0848, 14.8888, 12.2933, 105.933, -69.7996
0.616, -1, 26.1744, 23.0347, 14.9128, 12.3049, 105.88, -69.9349
0.62, -1, 26.0716, 22.9845, 14.9368, 12.3165, 105.827, -70.0702
0.624, -1, 25.9688, 22.9343, 14.9607, 12.3281, 105.775, -70.2056
0.628, -1, 25.866, 22.8842, 14.9847, 12.3397, 105.722, -70.341
0.632, -1, 25.7632, 22.834, 15.0087, 12.3513, 105.669, -70.4763
0.636, -1, 25.6603, 22.7838, 15.0326, 12.3629, 105.617, -70.6117
0.64, -1, 25.5575, 22.7336, 15.0566, 12.3745, 105.564, -70.7471
0.644, -1, 25.4546, 22.6834, 15.0806, 12.3862, 105.512, -70.8825
0.648, -1, 25.3518, 22.6332, 15.1046, 12.3978, 105.459, -71.018
0.652, -1, 25.2489, 22.583, 15.1286, 12.4094, 105.406, -71.1534
0.656, -1, 25.146, 22.5328, 15.1526, 12.421, 105.354, -71.2888
0.66, -1, 25.0431, 22.4826, 15.1765, 12.4326, 105.301, -71.4243
0.664, -1, 24.9402, 22.4324, 15.2005, 12.4442, 105.248, -71.5598
0.668, -1, 24.8373, 22.3822, 15.2245, 12.4559, 105.196, -71.6953
0.672, -1, 24.7344, 22.332, 15.2485, 12.4675, 105.143, -71.8307
0.676, -1, 24.6315, 22.2818, 15.2725, 12.4791, 105.09, -71.9662
0.68, -1, 24.5286, 22.2315, 15.2965, 12.4907, 105.038, -72.1018
0.684, -1, 24.4257, 22.1813, 15.3205, 12.5024, 104.985, -72.2373
0.688, -1, 24.3227, 22.1311, 15.3445, 12.514, 104.932, -72.3728
0.692, -1, 24.2198, 22.0809, 15.3685, 12.5256, 104.88, -72.5083
0.696, -1, 24.1168, 22.0306, 15.3925, 12.5372, 104.827, -72.6439
0.7, -1, 24.0139, 21.9804, 15.4165, 12.5489, 104.774, -72.7794
0.704, -1, 23.9109, 21.9301, 15.4405, 12.5605, 104.721, -72.915
0.708, -1, 23.8079, 21.8799, 15.4645, 12.5721, 104.669, -73.0506
0.712, -1, 23.7049, 21.8296, 15.4885, 12.5838, 104.616, -73.1862
0.716, -1, 23.602, 21.7794, 15.5125, 12.5954, 104.563, -73.3218
0.72, -1, 23.499, 21.7291, 15.5365, 12.607, 104.511, -73.4574
0.724, -1, 23.396, 21.6789, 15.5605, 12.6187, 104.458, -73.593
0.728, -1, 23.293, 21.6286, 15.5846, 12.6303, 104.405, -73.7286
0.732, -1, 23.19, 21.5783, 15.6086, 12.6419, 104.352, -73.8642
0.736, -1, 23.0869, 21.5281, 15.6326, 12.6536, 104.3, -73.9998
0.74, -1, 22.9839, 21.4778, 15.6566, 12.6652, 104.247, -74.1355
0.744, -1, 22.8809, 21.4275, 15.6806, 12.6768, 104.194, -74.2711
0.748, -1, 22.7779, 21.3772, 15.7046, 12.6885, 104.141, -74.4068
0.752, -1, 22.6748, 21.327, 15.7287, 12.7001, 104.089, -74.5424
0.756, -1, 22.5718, 21.2767, 15.7527, 12.7117, 104.036, -74.6781
0.76, -1, 22.4688, 21.2264, 15.7767, 12.7234, 103.983, -74.8137
0.764, -1, 22.3657, 21.1761, 15.8007, 12.735, 103.931, -74.9494
0.768, -1, 22.2627, 21.1258, 15.8248, 12.7467, 103.878, -75.0851
0.772, -1, 22.1596, 21.0755, 15.8488, 12.7583, 103.825, -75.2208
0.776, -1, 22.0565, 21.0252, 15.8728, 12.7699, 103.772, -75.3565
0.78, -1, 21.9535, 20.9749, 15.8968, 12.7816, 103.72, -75.4922
0.784, -1, 21.8504, 20.9247, 15.9209, 12.7932, 103.667, -75.6279
0.788, -1, 21.7473, 20.8744, 15.9449, 12.8049, 103.614, -75.7636
0.792, -1, 21.6443, 20.8241, 15.9689, 12.8165, 103.561, -75.8993
0.796, -1, 21.5412, 20.7738, 15.993, 12.8281, 103.508, -76.035
0.8, -1, 21.4381, 20.7235, 16.017, 12.8398, 103.456, -76.1707
0.804, -1, 21.335, 20.6732, 16.041, 12.8514, 103.403, -76.3064
0.808, -1, 21.2319, 20.6229, 16.0651, 12.8631, 103.35, -76.4421
0.812, -1, 21.1288, 20.5725, 16.0891, 12.8747, 103.297, -76.5779
0.816, -1, 21.0258, 20.5222, 16.1131, 12.8864, 103.245, -76.7136
0.82, -1, 20.9227, 20.4719, 16.1372, 12.898, 103.192, -76.8493
0.824, -1, 20.8196, 20.4216, 16.1612, 12.9096, 103.139, -76.9851
0.828, -1, 20.7165, 20.3713, 16.1852, 12.9213, 103.086, -77.1208
0.832, -1, 20.6134, 20.321, 16.2093, 12.9329, 103.034, -77.2565
0.836, -1, 20.5103, 20.2707, 16.2333, 12.9446, 102.981, -77.3923
0.84, -1, 20.4072, 20.2204, 16.2573, 12.9562, 102.928, -77.528
0.844, -1, 20.3041, 20.1701, 16.2814, 12.9679, 102.875, -77.6638
0.848, -1, 20.201, 20.1198, 16.3054, 12.9795, 102.823, -77.7995
0.852, -1, 20.0979, 20.0695, 16.3295, 12.9912, 102.77, -77.9353
0.856, -1, 19.9947, 20.0191, 16.3535, 13.0028, 102.717, -78.071
0.86, -1, 19.8916, 19.9688, 16.3775, 13.0144, 102.664, -78.2068
0.864, -1, 19.7885, 19.9185, 16.4016, 13.0261, 102.611, -78.3425
0.868, -1, 19.6854, 19.8682, 16.4256, 13.0377, 102.559, -78.4783
0.872, -1, 19.5823, 19.8179, 16.4496, 13.0494, 102.506, -78.614
0.876, -1, 19.4792, 19.7676, 16.4737, 13.061, 102.453, -78.7498
0.88, -1, 19.3761, 19.7173, 16.4977, 13.0727, 102.4, -78.8855
0.884, -1, 19.273, 19.6669, 16.5218, 13.0843, 102.348, -79.0213
0.888, -1, 19.1699, 19.6166, 16.5458, 13.096, 102.295, -79.157
0.892, -1, 19.0668, 19.5663, 16.5698, 13.1076, 102.242, -79.2928
0.896, -1, 18.9637, 19.516, 16.5939, 13.1192, 102.189, -79.4285
0.9, -1, 18.8606, 19.4657, 16.6179, 13.1309, 102.136, -79.5642
0.904, -1, 18.7575, 19.4154, 16.6419, 13.1425, 102.084, -79.7
0.908, -1, 18.6544, 19.3651, 16.666, 13.1542, 102.031, -79.8357
0.912, -1, 18.5513, 19.3148, 16.69, 13.1658, 101.978, -79.9715
0.916, -1, 18.4482, 19.2645, 16.714, 13.1775, 101.925, -80.1072
0.92, -1, 18.3451, 19.2141, 16.7381, 13.1891, 101.873, -80.243
0.924, -1, 18.242, 19.1638, 16.7621, 13.2008, 101.82, -80.3787
0.928, -1, 18.1389, 19.1135, 16.7861, 13.2124, 101.767, -80.5144
0.932, -1, 18.0358, 19.0632, 16.8102, 13.224, 101.714, -80.6501
0.936, -1, 17.9327, 19.0129, 16.8342, 13.2357, 101.662, -80.7859
0.94, -1, 17.8296, 18.9626, 16.8582, 13.2473, 101.609, -80.9216
0.944, -1, 17.7265, 18.9123, 16.8823, 13.259, 101.556, -81.0573
0.948, -1, 17.6235, 18.862, 16.9063, 13.2706, 101.503, -81.193
0.952, -1, 17.5204, 18.8117, 16.9303, 13.2822, 101.451, -81.3287
0.956, -1, 17.4173, 18.7614, 16.9544, 13.2939, 101.398, -81.4644
0.96, -1, 17.3142, 18.7111, 16.9784, 13.3055, 101.345, -81.6001
0.964, -1, 17.2112, 18.6608, 17.0024, 13.3172, 101.292, -81.7358
0.968, -1, 17.1081, 18.6105, 17.0265, 13.3288, 101.24, -81.8715
0.972, -1, 17.005, 18.5603, 17.0505, 13.3405, 101.187, -82.0072
0.976, -1, 16.902, 18.51, 17.0745, 13.3521, 101.134, -82.1429
0.98, -1, 16.7989, 18.4597, 17.0985, 13.3637, 101.081, -82.2786
0.984, -1, 16.6959, 18.4094, 17.1226, 13.3754, 101.029, -82.4142
0.988, -1, 16.5928, 18.3591, 17.1466, 13.387, 100.976, -82.5499
0.992, -1, 16.4898, 18.3088, 17.1706, 13.3986, 100.923, -82.6856
0.996, -1, 16.3868, 18.2586, 17.1946, 13.4103, 100.87, -82.8212
1, -1, 16.2837, 18.2083, 17.2186, 13.4219, 100.818, -82.9569
1.004, -1, 16.1807, 18.158, 17.2427, 13.4335, 100.765, -83.0925
1.008, -1, 16.0777, 18.1077, 17.2667, 13.4452, 100.712, -83.2281
1.012, -1, 15.9747, 18.0575, 17.2907, 13.4568, 100.659, -83.3638
1.016, -1, 15.8717, 18.0072, 17.3147, 13.4685, 100.607, -83.4994
1.02, -1, 15.7687, 17.9569, 17.3387, 13.4801, 100.554, -83.635
1.024, -1, 15.6657, 17.9067, 17.3627, 13.4917, 100.501, -83.7706
1.027, -1, 15.5627, 17.8564, 17.3867, 13.5034, 100.449, -83.9062
1.032, -1, 15.4597, 17.8062, 17.4107, 13.515, 100.396, -84.0418
1.036, -1, 15.3567, 17.7559, 17.4348, 13.5266, 100.343, -84.1774
1.04, -1, 15.2537, 17.7057, 17.4588, 13.5382, 100.29, -84.313
1.044, -1, 15.1507, 17.6554, 17.4828, 13.5499, 100.238, -84.4485
1.048, -1, 15.0478, 17.6052, 17.5068, 13.5615, 100.185, -84.5841
1.052, -1, 14.9448, 17.5549, 17.5308, 13.5731, 100.132, -84.7196
1.055, -1, 14.8419, 17.5047, 17.5548, 13.5848, 100.08, -84.8552
1.06, -1, 14.7389, 17.4545, 17.5788, 13.5964, 100.027, -84.9907
1.064, -1, 14.636, 17.4042, 17.6028, 13.608, 99.9742, -85.1262
1.068, -1, 14.5331, 17.354, 17.6268, 13.6196, 99.9215, -85.2618
1.072, -1, 14.4301, 17.3038, 17.6508, 13.6313, 99.8689, -85.3973
1.076, -1, 14.3272, 17.2536, 17.6748, 13.6429, 99.8162, -85.5328
1.08, -1, 14.2243, 17.2034, 17.6987, 13.6545, 99.7635, -85.6682
1.084, -1, 14.1214, 17.1532, 17.7227, 13.6661, 99.7108, -85.8037
1.088, -1, 14.0185, 17.1029, 17.7467, 13.6777, 99.6582, -85.9392
1.091, -1, 13.9156, 17.0527, 17.7707, 13.6894, 99.6055, -86.0746
1.096, -1, 13.8127, 17.0025, 17.7947, 13.701, 99.5529, -86.2101
1.1, -1, 13.7099, 16.9523, 17.8187, 13.7126, 99.5002, -86.3455
1.104, -1, 13.607, 16.9022, 17.8426, 13.7242, 99.4476, -86.4809
1.108, -1, 13.5042, 16.852, 17.8666, 13.7358, 99.3949, -86.6164
1.112, -1, 13.4013, 16.8018, 17.8906, 13.7474, 99.3423, -86.7518
1.116, -1, 13.2985, 16.7516, 17.9146, 13.7591, 99.2896, -86.8872
1.119, -1, 13.1956, 16.7014, 17.9385, 13.7707, 99.237, -87.0225
1.124, -1, 13.0928, 16.6513, 17.9625, 13.7823, 99.1844, -87.1579
1.128, -1, 12.99, 16.6011, 17.9865, 13.7939, 99.1318, -87.2933
1.132, -1, 12.8872, 16.5509, 18.0104, 13.8055, 99.0792, -87.4286
1.136, -1, 12.7844, 16.5008, 18.0344, 13.8171, 99.0265, -87.5639
1.14, -1, 12.6816, 16.4506, 18.0584, 13.8287, 98.9739, -87.6992
1.144, -1, 12.5789, 16.4005, 18.0823, 13.8403, 98.9213, -87.8345
1.147, -1, 12.4761, 16.3503, 18.1063, 13.8519, 98.8687, -87.9698
1.152, -1, 12.3734, 16.3002, 18.1302, 13.8635, 98.8161, -88.1051
1.156, -1, 12.2706, 16.2501, 18.1542, 13.8751, 98.7636, -88.2404
1.16, -1, 12.1679, 16.1999, 18.1781, 13.8867, 98.711, -88.3756
1.164, -1, 12.0652, 16.1498, 18.2021, 13.8983, 98.6584, -88.5109
1.168, -1, 11.9625, 16.0997, 18.226, 13.9099, 98.6058, -88.6461
1.172, -1, 11.8598, 16.0496, 18.25, 13.9215, 98.5533, -88.7813
1.175, -1, 11.7571, 15.9995, 18.2739, 13.9331, 98.5007, -88.9165
1.18, -1, 11.6544, 15.9494, 18.2978, 13.9447, 98.4482, -89.0517
1.184, -1, 11.5517, 15.8993, 18.3218, 13.9563, 98.3956, -89.1869
1.188, -1, 11.4491, 15.8492, 18.3457, 13.9679, 98.3431, -89.322
1.192, -1, 11.3464, 15.7991, 18.3696, 13.9795, 98.2905, -89.4571
1.196, -1, 11.2438, 15.749, 18.3936, 13.9911, 98.238, -89.5923
1.2, -1, 11.1412, 15.6989, 18.4175, 14.0027, 98.1855, -89.7274
1.204, -1, 11.0386, 15.6489, 18.4414, 14.0143, 98.133, -89.8625
1.208, -1, 10.936, 15.5988, 18.4653, 14.0259, 98.0805, -89.9975
1.212, -1, 10.8334, 15.5487, 18.4892, 14.0375, 98.028, -90.1326
1.216, -1, 10.7308, 15.4987, 18.5132, 14.049, 97.9755, -90.2676
1.22, -1, 10.6282, 15.4486, 18.5371, 14.0606, 97.923, -90.4027
1.224, -1, 10.5257, 15.3986, 18.561, 14.0722, 97.8705, -90.5377
1.228, -1, 10.4232, 15.3486, 18.5849, 14.0838, 97.818, -90.6727
1.232, -1, 10.3206, 15.2986, 18.6088, 14.0954, 97.7655, -90.8077
1.236, -1, 10.2181, 15.2485, 18.6327, 14.1069, 97.7131, -90.9426
1.24, -1, 10.1156, 15.1985, 18.6566, 14.1185, 97.6606, -91.0776
1.244, -1, 10.0131, 15.1485, 18.6805, 14.1301, 97.6081, -91.2125
1.248, -1, 9.91067, 15.0985, 18.7043, 14.1417, 97.5557, -91.3474
1.252, -1, 9.80821, 15.0485, 18.7282, 14.1532, 97.5033, -91.4823
1.256, -1, 9.70577, 14.9985, 18.7521, 14.1648, 97.4508, -91.6172
1.26, -1, 9.60334, 14.9485, 18.776, 14.1764, 97.3984, -91.752
1.264, -1, 9.50092, 14.8986, 18.7999, 14.1879, 97.346, -91.8868
1.267, -1, 9.39852, 14.8486, 18.8237, 14.1995, 97.2936, -92.0217
1.272, -1, 9.29613, 14.7986, 18.8476, 14.2111, 97.2412, -92.1565
1.276, -1, 9.19375, 14.7487, 18.8715, 14.2226, 97.1888, -92.2913
1.28, -1, 9.09139, 14.6987, 18.8953, 14.2342, 97.1364, -92.426
1.284, -1, 8.98905, 14.6488, 18.9192, 14.2458, 97.084, -92.5608
1.288, -1, 8.88671, 14.5989, 18.943, 14.2573, 97.0316, -92.6955
1.292, -1, 8.7844, 14.5489, 18.9669, 14.2689, 96.9792, -92.8302
1.295, -1, 8.6821, 14.499, 18.9907, 14.2804, 96.9269, -92.9649
1.3, -1, 8.57981, 14.4491, 19.0146, 14.292, 96.8745, -93.0995
1.304, -1, 8.47754, 14.3992, 19.0384, 14.3035, 96.8222, -93.2342
1.308, -1, 8.37528, 14.3493, 19.0623, 14.3151, 96.7699, -93.3688
1.312, -1, 8.27304, 14.2994, 19.0861, 14.3266, 96.7175, -93.5034
1.316, -1, 8.17081, 14.2495, 19.1099, 14.3382, 96.6652, -93.638
1.32, -1, 8.0686, 14.1997, 19.1338, 14.3497, 96.6129, -93.7726
1.324, -1, 7.9664, 14.1498, 19.1576, 14.3612, 96.5606, -93.9071
1.328, -1, 7.86422, 14.1, 19.1814, 14.3728, 96.5083, -94.0416
1.332, -1, 7.76206, 14.0501, 19.2052, 14.3843, 96.456, -94.1761
1.336, -1, 7.65991, 14.0003, 19.229, 14.3959, 96.4037, -94.3106
1.34, -1, 7.55778, 13.9504, 19.2528, 14.4074, 96.3515, -94.4451
1.344, -1, 7.45566, 13.9006, 19.2766, 14.4189, 96.2992, -94.5795
1.348, -1, 7.35356, 13.8508, 19.3004, 14.4305, 96.2469, -94.7139
1.352, -1, 7.25148, 13.801, 19.3242, 14.442, 96.1947, -94.8483
1.356, -1, 7.14941, 13.7512, 19.348, 14.4535, 96.1424, -94.9827
1.36, -1, 7.04736, 13.7014, 19.3718, 14.465, 96.0902, -95.117
1.364, -1, 6.94532, 13.6516, 19.3956, 14.4766, 96.038, -95.2514
1.368, -1, 6.84331, 13.6018, 19.4194, 14.4881, 95.9858, -95.3857
1.372, -1, 6.74131, 13.552, 19.4432, 14.4996, 95.9336, -95.52
1.376, -1, 6.63932, 13.5023, 19.4669, 14.5111, 95.8814, -95.6542
1.38, -1, 6.53735, 13.4525, 19.4907, 14.5226, 95.8292, -95.7885
1.384, -1, 6.43541, 13.4028, 19.5145, 14.5341, 95.777, -95.9227
1.388, -1, 6.33347, 13.353, 19.5382, 14.5457, 95.7248, -96.0569
1.392, -1, 6.23156, 13.3033, 19.562, 14.5572, 95.6727, -96.1911
1.396, -1, 6.12966, 13.2536, 19.5858, 14.5687, 95.6205, -96.3252
1.4, -1, 6.02778, 13.2039, 19.6095, 14.5802, 95.5684, -96.4594
1.404, -1, 5.92592, 13.1542, 19.6333, 14.5917, 95.5162, -96.5935
1.408, -1, 5.82407, 13.1045, 19.657, 14.6032, 95.4641, -96.7275
1.412, -1, 5.72224, 13.0548, 19.6807, 14.6147, 95.412, -96.8616
1.416, -1, 5.62043, 13.0051, 19.7045, 14.6262, 95.3599, -96.9956
1.42, -1, 5.51864, 12.9554, 19.7282, 14.6377, 95.3078, -97.1296
1.424, -1, 5.41687, 12.9058, 19.7519, 14.6492, 95.2557, -97.2636
1.428, -1, 5.31511, 12.8561, 19.7756, 14.6607, 95.2036, -97.3976
1.432, -1, 5.21338, 12.8065, 19.7994, 14.6722, 95.1516, -97.5315
1.436, -1, 5.11166, 12.7569, 19.8231, 14.6836, 95.0995, -97.6654
1.44, -1, 5.00996, 12.7072, 19.8468, 14.6951, 95.0474, -97.7993
1.444, -1, 4.90828, 12.6576, 19.8705, 14.7066, 94.9954, -97.9332
1.448, -1, 4.80662, 12.608, 19.8942, 14.7181, 94.9434, -98.067
1.452, -1, 4.70497, 12.5584, 19.9179, 14.7296, 94.8914, -98.2009
1.456, -1, 4.60335, 12.5088, 19.9416, 14.741, 94.8393, -98.3346
1.46, -1, 4.50174, 12.4593, 19.9652, 14.7525, 94.7873, -98.4684
1.464, -1, 4.40016, 12.4097, 19.9889, 14.764, 94.7354, -98.6022
1.468, -1, 4.29859, 12.3601, 20.0126, 14.7755, 94.6834, -98.7359
1.472, -1, 4.19704, 12.3106, 20.0363, 14.7869, 94.6314, -98.8696
1.476, -1, 4.09551, 12.261, 20.0599, 14.7984, 94.5794, -99.0032
1.48, -1, 3.99401, 12.2115, 20.0836, 14.8099, 94.5275, -99.1369
1.484, -1, 3.89252, 12.162, 20.1073, 14.8213, 94.4755, -99.2705
1.488, -1, 3.79105, 12.1125, 20.1309, 14.8328, 94.4236, -99.4041
1.492, -1, 3.6896, 12.063, 20.1546, 14.8442, 94.3717, -99.5376
1.496, -1, 3.58817, 12.0135, 20.1782, 14.8557, 94.3198, -99.6712
1.5, -1, 3.48676, 11.964, 20.2019, 14.8671, 94.2679, -99.8047
1.504, -1, 3.38537, 11.9145, 20.2255, 14.8786, 94.216, -99.9381
1.508, -1, 3.284, 11.8651, 20.2491, 14.89, 94.1641, -100.072
1.512, -1, 3.18265, 11.8156, 20.2727, 14.9015, 94.1122, -100.205
1.516, -1, 3.08133, 11.7662, 20.2964, 14.9129, 94.0604, -100.338
1.52, -1, 2.98002, 11.7168, 20.32, 14.9244, 94.0085, -100.472
1.524, -1, 2.87873, 11.6673, 20.3436, 14.9358, 93.9567, -100.605
1.528, -1, 2.77747, 11.6179, 20.3672, 14.9472, 93.9048, -100.738
1.532, -1, 2.67622, 11.5685, 20.3908, 14.9587, 93.853, -100.872
1.536, -1, 2.575, 11.5191, 20.4144, 14.9701, 93.8012, -101.005
1.54, -1, 2.4738, 11.4698, 20.438, 14.9815, 93.7494, -101.138
1.544, -1, 2.37261, 11.4204, 20.4616, 14.993, 93.6976, -101.271
1.548, -1, 2.27145, 11.371, 20.4852, 15.0044, 93.6459, -101.405
1.552, -1, 2.17031, 11.3217, 20.5087, 15.0158, 93.5941, -101.538
1.556, -1, 2.0692, 11.2723, 20.5323, 15.0272, 93.5424, -101.671
1.56, -1, 1.9681, 11.223, 20.5559, 15.0387, 93.4906, -101.804
1.564, -1, 1.86703, 11.1737, 20.5794, 15.0501, 93.4389, -101.937
1.568, -1, 1.76598, 11.1244, 20.603, 15.0615, 93.3872, -102.07
1.572, -1, 1.66494, 11.0751, 20.6265, 15.0729, 93.3355, -102.203
1.576, -1, 1.56394, 11.0258, 20.6501, 15.0843, 93.2838, -102.336
1.58, -1, 1.46295, 10.9765, 20.6736, 15.0957, 93.2321, -102.469
1.584, -1, 1.36199, 10.9273, 20.6972, 15.1071, 93.1804, -102.602
1.588, -1, 1.26104, 10.878, 20.7207, 15.1185, 93.1287, -102.735
1.592, -1, 1.16013, 10.8288, 20.7442, 15.1299, 93.0771, -102.868
1.596, -1, 1.05923, 10.7795, 20.7677, 15.1413, 93.0254, -103.001
1.6, -1, 0.958354, 10.7303, 20.7913, 15.1527, 92.9738, -103.133
1.604, -1, 0.857502, 10.6811, 20.8148, 15.1641, 92.9222, -103.266
1.608, -1, 0.756673, 10.6319, 20.8383, 15.1755, 92.8706, -103.399
1.612, -1, 0.655867, 10.5827, 20.8618, 15.1868, 92.819, -103.532
1.616, -1, 0.555084, 10.5335, 20.8853, 15.1982, 92.7674, -103.664
1.62, -1, 0.454324, 10.4844, 20.9087, 15.2096, 92.7159, -103.797
1.624, -1, 0.353587, 10.4352, 20.9322, 15.221, 92.6643, -103.93
1.628, -1, 0.252873, 10.3861, 20.9557, 15.2324, 92.6128, -104.062
1.632, -1, 0.152182, 10.337, 20.9792, 15.2437, 92.5612, -104.195
1.636, -1, 0.051515, 10.2878, 21.0026, 15.2551, 92.5097, -104.327
1.64, -1, -0.0491292, 10.2387, 21.0261, 15.2665, 92.4582, -104.46
1.644, -1, -0.14975, 10.1896, 21.0496, 15.2778, 92.4067, -104.592
1.648, -1, -0.250348, 10.1406, 21.073, 15.2892, 92.3552, -104.725
1.652, -1, -0.350922, 10.0915, 21.0965, 15.3005, 92.3037, -104.857
1.656, -1, -0.451472, 10.0424, 21.1199, 15.3119, 92.2523, -104.989
1.66, -1, -0.551999, 9.99337, 21.1433, 15.3233, 92.2008, -105.122
1.664, -1, -0.652502, 9.94433, 21.1668, 15.3346, 92.1494, -105.254
1.668, -1, -0.752982, 9.8953, 21.1902, 15.346, 92.098, -105.386
1.672, -1, -0.853437, 9.84629, 21.2136, 15.3573, 92.0465, -105.519
1.676, -1, -0.953869, 9.79729, 21.237, 15.3686, 91.9951, -105.651
1.68, -1, -1.05428, 9.7483, 21.2604, 15.38, 91.9438, -105.783
1.684, -1, -1.15466, 9.69932, 21.2838, 15.3913, 91.8924, -105.915
1.688, -1, -1.25502, 9.65035, 21.3072, 15.4026, 91.841, -106.047
1.692, -1, -1.35535, 9.60139, 21.3306, 15.414, 91.7897, -106.179
1.696, -1, -1.45567, 9.55245, 21.354, 15.4253, 91.7383, -106.311
1.7, -1, -1.55595, 9.50352, 21.3774, 15.4366, 91.687, -106.443
1.704, -1, -1.65621, 9.4546, 21.4007, 15.448, 91.6357, -106.575
1.708, -1, -1.75645, 9.40569, 21.4241, 15.4593, 91.5844, -106.707
1.712, -1, -1.85667, 9.35679, 21.4474, 15.4706, 91.5331, -106.839
1.716, -1, -1.95686, 9.30791, 21.4708, 15.4819, 91.4818, -106.971
1.72, -1, -2.05702, 9.25903, 21.4942, 15.4932, 91.4306, -107.103
1.724, -1, -2.15716, 9.21017, 21.5175, 15.5045, 91.3793, -107.235
1.728, -1, -2.25728, 9.16132, 21.5408, 15.5158, 91.3281, -107.367
1.732, -1, -2.35737, 9.11248, 21.5642, 15.5271, 91.2768, -107.498
1.736, -1, -2.45743, 9.06366, 21.5875, 15.5384, 91.2256, -107.63
1.74, -1, -2.55747, 9.01485, 21.6108, 15.5497, 91.1744, -107.762
1.744, -1, -2.65749, 8.96605, 21.6341, 15.561, 91.1232, -107.894
1.748, -1, -2.75748, 8.91726, 21.6574, 15.5723, 91.0721, -108.025
1.752, -1, -2.85745, 8.86848, 21.6807, 15.5836, 91.0209, -108.157
1.756, -1, -2.95739, 8.81972, 21.704, 15.5949, 90.9698, -108.288
1.76, -1, -3.05731, 8.77097, 21.7273, 15.6062, 90.9186, -108.42
1.764, -1, -3.1572, 8.72223, 21.7506, 15.6175, 90.8675, -108.551
1.768, -1, -3.25707, 8.6735, 21.7739, 15.6287, 90.8164, -108.683
1.772, -1, -3.35691, 8.62478, 21.7972, 15.64, 90.7653, -108.814
1.776, -1, -3.45672, 8.57608, 21.8204, 15.6513, 90.7142, -108.946
1.78, -1, -3.55651, 8.52739, 21.8437, 15.6626, 90.6631, -109.077
1.784, -1, -3.65628, 8.47871, 21.8669, 15.6738, 90.6121, -109.208
1.788, -1, -3.75602, 8.43005, 21.8902, 15.6851, 90.561, -109.34
1.792, -1, -3.85573, 8.3814, 21.9134, 15.6963, 90.51, -109.471
1.796, -1, -3.95542, 8.33276, 21.9367, 15.7076, 90.459, -109.602
1.8, -1, -4.05508, 8.28413, 21.9599, 15.7189, 90.408, -109.733
1.804, -1, -4.15472, 8.23551, 21.9831, 15.7301, 90.357, -109.865
1.808, -1, -4.25433, 8.18691, 22.0064, 15.7414, 90.306, -109.996
1.812, -1, -4.35391, 8.13832, 22.0296, 15.7526, 90.255, -110.127
1.816, -1, -4.45347, 8.08974, 22.0528, 15.7638, 90.2041, -110.258
1.82, -1, -4.55301, 8.04118, 22.076, 15.7751, 90.1531, -110.389
1.824, -1, -4.65251, 7.99263, 22.0992, 15.7863, 90.1022, -110.52
1.828, -1, -4.75199, 7.94409, 22.1224, 15.7976, 90.0513, -110.651
1.832, -1, -4.85145, 7.89556, 22.1455, 15.8088, 90.0004, -110.782
1.836, -1, -4.95088, 7.84705, 22.1687, 15.82, 89.9495, -110.913
1.84, -1, -5.05028, 7.79855, 22.1919, 15.8312, 89.8986, -111.044
1.844, -1, -5.14966, 7.75006, 22.2151, 15.8425, 89.8478, -111.174
1.848, -1, -5.249, 7.70158, 22.2382, 15.8537, 89.7969, -111.305
1.852, -1, -5.34833, 7.65312, 22.2614, 15.8649, 89.7461, -111.436
1.856, -1, -5.44762, 7.60467, 22.2845, 15.8761, 89.6953, -111.567
1.86, -1, -5.5469, 7.55624, 22.3077, 15.8873, 89.6445, -111.697
1.864, -1, -5.64614, 7.50781, 22.3308, 15.8985, 89.5937, -111.828
1.868, -1, -5.74536, 7.4594, 22.3539, 15.9097, 89.5429, -111.959
1.872, -1, -5.84454, 7.41101, 22.377, 15.9209, 89.4921, -112.089
1.876, -1, -5.94371, 7.36262, 22.4002, 15.9321, 89.4414, -112.22
1.88, -1, -6.04285, 7.31425, 22.4233, 15.9433, 89.3906, -112.35
1.884, -1, -6.14195, 7.26589, 22.4464, 15.9545, 89.3399, -112.481
1.888, -1, -6.24104, 7.21755, 22.4695, 15.9657, 89.2892, -112.611
1.892, -1, -6.34009, 7.16922, 22.4926, 15.9769, 89.2385, -112.742
1.896, -1, -6.43912, 7.1209, 22.5156, 15.9881, 89.1878, -112.872
1.9, -1, -6.53812, 7.07259, 22.5387, 15.9993, 89.1372, -113.002
1.904, -1, -6.6371, 7.0243, 22.5618, 16.0104, 89.0865, -113.133
1.908, -1, -6.73604, 6.97602, 22.5849, 16.0216, 89.0359, -113.263
1.912, -1, -6.83496, 6.92776, 22.6079, 16.0328, 88.9852, -113.393
1.916, -1, -6.93386, 6.8795, 22.631, 16.044, 88.9346, -113.523
1.92, -1, -7.03272, 6.83126, 22.654, 16.0551, 88.884, -113.653
1.924, -1, -7.13156, 6.78304, 22.6771, 16.0663, 88.8334, -113.784
1.928, -1, -7.23037, 6.73483, 22.7001, 16.0774, 88.7829, -113.914
1.932, -1, -7.32915, 6.68663, 22.7231, 16.0886, 88.7323, -114.044
1.936, -1, -7.42791, 6.63844, 22.7461, 16.0998, 88.6818, -114.174
1.94, -1, -7.52664, 6.59027, 22.7691, 16.1109, 88.6312, -114.304
1.944, -1, -7.62533, 6.54212, 22.7922, 16.122, 88.5807, -114.434
1.948, -1, -7.72401, 6.49397, 22.8152, 16.1332, 88.5302, -114.564
1.952, -1, -7.82265, 6.44584, 22.8382, 16.1443, 88.4797, -114.693
1.956, -1, -7.92127, 6.39772, 22.8611, 16.1555, 88.4293, -114.823
1.96, -1, -8.01985, 6.34962, 22.8841, 16.1666, 88.3788, -114.953
1.964, -1, -8.11841, 6.30153, 22.9071, 16.1777, 88.3284, -115.083
1.968, -1, -8.21695, 6.25345, 22.9301, 16.1889, 88.2779, -115.213
1.972, -1, -8.31545, 6.20539, 22.953, 16.2, 88.2275, -115.342
1.976, -1, -8.41393, 6.15734, 22.976, 16.2111, 88.1771, -115.472
1.98, -1, -8.51238, 6.10931, 22.9989, 16.2222, 88.1267, -115.601
1.984, -1, -8.6108, 6.06128, 23.0219, 16.2333, 88.0764, -115.731
1.988, -1, -8.70919, 6.01328, 23.0448, 16.2444, 88.026, -115.861
1.992, -1, -8.80756, 5.96528, 23.0677, 16.2556, 87.9757, -115.99
1.996, -1, -8.9059, 5.9173, 23.0907, 16.2667, 87.9253, -116.119
1.999, -1, -9.0042, 5.86934, 23.1136, 16.2778, 87.875, -116.249
2.004, -1, -9.10248, 5.82138, 23.1365, 16.2889, 87.8247, -116.378
2.008, -1, -9.20074, 5.77344, 23.1594, 16.3, 87.7745, -116.508
2.012, -1, -9.29896, 5.72552, 23.1823, 16.311, 87.7242, -116.637
2.015, -1, -9.39716, 5.67761, 23.2052, 16.3221, 87.6739, -116.766
2.019, -1, -9.49533, 5.62971, 23.2281, 16.3332, 87.6237, -116.895
2.024, -1, -9.59347, 5.58182, 23.2509, 16.3443, 87.5735, -117.025
2.028, -1, -9.69158, 5.53395, 23.2738, 16.3554, 87.5232, -117.154
2.031, -1, -9.78966, 5.4861, 23.2967, 16.3665, 87.473, -117.283
2.036, -1, -9.88772, 5.43825, 23.3195, 16.3775, 87.4229, -117.412
2.04, -1, -9.98575, 5.39042, 23.3424, 16.3886, 87.3727, -117.541
2.044, -1, -10.0837, 5.34261, 23.3652, 16.3997, 87.3225, -117.67
2.048, -1, -10.1817, 5.29481, 23.388, 16.4107, 87.2724, -117.799
2.051, -1, -10.2797, 5.24702, 23.4109, 16.4218, 87.2223, -117.928
2.055, -1, -10.3776, 5.19924, 23.4337, 16.4329, 87.1722, -118.057
2.06, -1, -10.4755, 5.15148, 23.4565, 16.4439, 87.1221, -118.186
2.064, -1, -10.5733, 5.10374, 23.4793, 16.455, 87.072, -118.315
2.068, -1, -10.6712, 5.056, 23.5021, 16.466, 87.0219, -118.443
2.071, -1, -10.769, 5.00828, 23.5249, 16.4771, 86.9719, -118.572
2.076, -1, -10.8667, 4.96058, 23.5477, 16.4881, 86.9218, -118.701
2.08, -1, -10.9645, 4.91289, 23.5705, 16.4991, 86.8718, -118.83
2.084, -1, -11.0622, 4.86521, 23.5933, 16.5102, 86.8218, -118.958
2.087, -1, -11.1599, 4.81755, 23.6161, 16.5212, 86.7718, -119.087
2.092, -1, -11.2575, 4.7699, 23.6388, 16.5322, 86.7218, -119.215
2.096, -1, -11.3552, 4.72226, 23.6616, 16.5433, 86.6718, -119.344
2.1, -1, -11.4528, 4.67464, 23.6843, 16.5543, 86.6219, -119.472
2.104, -1, -11.5504, 4.62703, 23.7071, 16.5653, 86.572, -119.601
2.107, -1, -11.6479, 4.57943, 23.7298, 16.5763, 86.522, -119.729
2.111, -1, -11.7454, 4.53185, 23.7525, 16.5873, 86.4721, -119.858
2.116, -1, -11.8429, 4.48428, 23.7753, 16.5983, 86.4222, -119.986
2.12, -1, -11.9404, 4.43673, 23.798, 16.6093, 86.3724, -120.114
2.124, -1, -12.0378, 4.38919, 23.8207, 16.6203, 86.3225, -120.243
2.127, -1, -12.1352, 4.34167, 23.8434, 16.6313, 86.2726, -120.371
2.132, -1, -12.2326, 4.29416, 23.8661, 16.6423, 86.2228, -120.499
2.136, -1, -12.3299, 4.24666, 23.8888, 16.6533, 86.173, -120.627
2.14, -1, -12.4272, 4.19917, 23.9115, 16.6643, 86.1232, -120.755
2.143, -1, -12.5245, 4.15171, 23.9342, 16.6753, 86.0734, -120.883
2.148, -1, -12.6218, 4.10425, 23.9568, 16.6863, 86.0236, -121.011
2.152, -1, -12.719, 4.05681, 23.9795, 16.6973, 85.9738, -121.139
2.156, -1, -12.8162, 4.00938, 24.0022, 16.7082, 85.9241, -121.267
2.16, -1, -12.9134, 3.96197, 24.0248, 16.7192, 85.8744, -121.395
2.163, -1, -13.0106, 3.91457, 24.0475, 16.7302, 85.8246, -121.523
2.168, -1, -13.1077, 3.86718, 24.0701, 16.7412, 85.7749, -121.651
2.172, -1, -13.2048, 3.81981, 24.0927, 16.7521, 85.7253, -121.779
2.176, -1, -13.3018, 3.77245, 24.1153, 16.7631, 85.6756, -121.907
2.179, -1, -13.3989, 3.72511, 24.138, 16.774, 85.6259, -122.034
2.184, -1, -13.4959, 3.67778, 24.1606, 16.785, 85.5763, -122.162
2.188, -1, -13.5928, 3.63046, 24.1832, 16.7959, 85.5266, -122.29
2.192, -1, -13.6898, 3.58316, 24.2058, 16.8069, 85.477, -122.417
2.196, -1, -13.7867, 3.53587, 24.2284, 16.8178, 85.4274, -122.545
2.199, -1, -13.8836, 3.4886, 24.251, 16.8288, 85.3778, -122.672
2.204, -1, -13.9804, 3.44134, 24.2735, 16.8397, 85.3283, -122.8
2.208, -1, -14.0773, 3.3941, 24.2961, 16.8507, 85.2787, -122.927
2.212, -1, -14.1741, 3.34687, 24.3187, 16.8616, 85.2292, -123.055
2.216, -1, -14.2708, 3.29965, 24.3412, 16.8725, 85.1796, -123.182
2.219, -1, -14.3676, 3.25245, 24.3638, 16.8834, 85.1301, -123.31
2.224, -1, -14.4643, 3.20526, 24.3863, 16.8944, 85.0806, -123.437
2.228, -1, -14.561, 3.15808, 24.4089, 16.9053, 85.0312, -123.564
2.232, -1, -14.6576, 3.11092, 24.4314, 16.9162, 84.9817, -123.691
2.235, -1, -14.7543, 3.06378, 24.4539, 16.9271, 84.9322, -123.819
2.24, -1, -14.8509, 3.01665, 24.4764, 16.938, 84.8828, -123.946
2.244, -1, -14.9474, 2.96953, 24.4989, 16.9489, 84.8334, -124.073
2.248, -1, -15.044, 2.92242, 24.5214, 16.9598, 84.784, -124.2
2.252, -1, -15.1405, 2.87533, 24.5439, 16.9707, 84.7346, -124.327
2.255, -1, -15.237, 2.82826, 24.5664, 16.9816, 84.6852, -124.454
2.259, -1, -15.3334, 2.7812, 24.5889, 16.9925, 84.6358, -124.581
2.264, -1, -15.4298, 2.73415, 24.6114, 17.0034, 84.5865, -124.708
2.268, -1, -15.5262, 2.68712, 24.6339, 17.0143, 84.5372, -124.835
2.272, -1, -15.6226, 2.6401, 24.6563, 17.0252, 84.4878, -124.962
2.275, -1, -15.7189, 2.5931, 24.6788, 17.036, 84.4385, -125.089
2.28, -1, -15.8153, 2.54611, 24.7012, 17.0469, 84.3892, -125.215
2.284, -1, -15.9115, 2.49913, 24.7237, 17.0578, 84.34, -125.342
2.288, -1, -16.0078, 2.45217, 24.7461, 17.0687, 84.2907, -125.469
2.291, -1, -16.104, 2.40522, 24.7685, 17.0795, 84.2415, -125.596
2.296, -1, -16.2002, 2.35829, 24.791, 17.0904, 84.1922, -125.722
2.3, -1, -16.2963, 2.31137, 24.8134, 17.1012, 84.143, -125.849
2.304, -1, -16.3925, 2.26447, 24.8358, 17.1121, 84.0938, -125.975
2.308, -1, -16.4886, 2.21758, 24.8582, 17.123, 84.0446, -126.102
2.311, -1, -16.5847, 2.1707, 24.8806, 17.1338, 83.9955, -126.228
2.316, -1, -16.6807, 2.12384, 24.903, 17.1447, 83.9463, -126.355
2.32, -1, -16.7767, 2.07699, 24.9253, 17.1555, 83.8972, -126.481
2.324, -1, -16.8727, 2.03016, 24.9477, 17.1663, 83.8481, -126.607
2.328, -1, -16.9687, 1.98334, 24.9701, 17.1772, 83.7989, -126.734
2.331, -1, -17.0646, 1.93654, 24.9924, 17.188, 83.7499, -126.86
2.336, -1, -17.1605, 1.88975, 25.0148, 17.1988, 83.7008, -126.986
2.34, -1, -17.2563, 1.84297, 25.0371, 17.2097, 83.6517, -127.113
2.344, -1, -17.3522, 1.79621, 25.0595, 17.2205, 83.6027, -127.239
2.347, -1, -17.448, 1.74946, 25.0818, 17.2313, 83.5536, -127.365
2.352, -1, -17.5438, 1.70273, 25.1041, 17.2421, 83.5046, -127.491
2.356, -1, -17.6395, 1.65601, 25.1265, 17.2529, 83.4556, -127.617
2.36, -1, -17.7353, 1.6093, 25.1488, 17.2637, 83.4066, -127.743
2.364, -1, -17.831, 1.56261, 25.1711, 17.2745, 83.3576, -127.869
2.367, -1, -17.9266, 1.51594, 25.1934, 17.2854, 83.3087, -127.995
2.372, -1, -18.0223, 1.46928, 25.2157, 17.2962, 83.2597, -128.121
2.376, -1, -18.1179, 1.42263, 25.238, 17.3069, 83.2108, -128.247
2.38, -1, -18.2134, 1.376, 25.2602, 17.3177, 83.1619, -128.372
2.383, -1, -18.309, 1.32938, 25.2825, 17.3285, 83.113, -128.498
2.388, -1, -18.4045, 1.28277, 25.3048, 17.3393, 83.0641, -128.624
2.392, -1, -18.5, 1.23618, 25.327, 17.3501, 83.0152, -128.75
2.396, -1, -18.5955, 1.1896, 25.3493, 17.3609, 82.9664, -128.875
2.4, -1, -18.6909, 1.14304, 25.3715, 17.3717, 82.9175, -129.001
2.403, -1, -18.7863, 1.09648, 25.3938, 17.3824, 82.8687, -129.127
2.408, -1, -18.8817, 1.04995, 25.416, 17.3932, 82.8199, -129.252
2.412, -1, -18.977, 1.00343, 25.4382, 17.404, 82.7711, -129.378
2.416, -1, -19.0723, 0.956917, 25.4604, 17.4147, 82.7223, -129.503
2.42, -1, -19.1676, 0.910423, 25.4827, 17.4255, 82.6736, -129.629
2.423, -1, -19.2629, 0.863943, 25.5049, 17.4363, 82.6248, -129.754
2.428, -1, -19.3581, 0.817477, 25.5271, 17.447, 82.5761, -129.879
2.432, -1, -19.4533, 0.771025, 25.5493, 17.4578, 82.5273, -130.005
2.436, -1, -19.5485, 0.724587, 25.5714, 17.4685, 82.4786, -130.13
2.439, -1, -19.6437, 0.678163, 25.5936, 17.4793, 82.4299, -130.255
2.444, -1, -19.7388, 0.631753, 25.6158, 17.49, 82.3813, -130.381
2.448, -1, -19.8339, 0.585357, 25.638, 17.5007, 82.3326, -130.506
2.452, -1, -19.9289, 0.538975, 25.6601, 17.5115, 82.2839, -130.631
2.456, -1, -20.024, 0.492607, 25.6823, 17.5222, 82.2353, -130.756
2.459, -1, -20.119, 0.446252, 25.7044, 17.5329, 82.1867, -130.881
2.464, -1, -20.2139, 0.399912, 25.7266, 17.5437, 82.1381, -131.006
2.468, -1, -20.3089, 0.353585, 25.7487, 17.5544, 82.0895, -131.131
2.472, -1, -20.4038, 0.307273, 25.7708, 17.5651, 82.0409, -131.256
2.476, -1, -20.4987, 0.260974, 25.7929, 17.5758, 81.9923, -131.381
2.479, -1, -20.5936, 0.214689, 25.815, 17.5865, 81.9438, -131.506
2.484, -1, -20.6884, 0.168418, 25.8371, 17.5972, 81.8953, -131.631
2.488, -1, -20.7832, 0.122161, 25.8592, 17.6079, 81.8467, -131.755
2.492, -1, -20.878, 0.0759183, 25.8813, 17.6186, 81.7982, -131.88
2.495, -1, -20.9727, 0.0296891, 25.9034, 17.6293, 81.7497, -132.005
2.5, -1, -21.0674, -0.0165263, 25.9255, 17.64, 81.7013, -132.13
2.504, -1, -21.1621, -0.0627278, 25.9476, 17.6507, 81.6528, -132.254
2.508, -1, -21.2568, -0.108915, 25.9696, 17.6614, 81.6044, -132.379
2.512, -1, -21.3514, -0.155089, 25.9917, 17.6721, 81.5559, -132.504
2.515, -1, -21.446, -0.201249, 26.0138, 17.6828, 81.5075, -132.628
2.52, -1, -21.5406, -0.247395, 26.0358, 17.6935, 81.4591, -132.753
2.524, -1, -21.6352, -0.293527, 26.0578, 17.7041, 81.4107, -132.877
2.528, -1, -21.7297, -0.339646, 26.0799, 17.7148, 81.3623, -133.001
2.531, -1, -21.8242, -0.38575, 26.1019, 17.7255, 81.314, -133.126
2.536, -1, -21.9186, -0.431841, 26.1239, 17.7362, 81.2656, -133.25
2.54, -1, -22.0131, -0.477918, 26.1459, 17.7468, 81.2173, -133.375
2.544, -1, -22.1075, -0.523981, 26.1679, 17.7575, 81.169, -133.499
2.548, -1, -22.2019, -0.570031, 26.1899, 17.7681, 81.1207, -133.623
2.551, -1, -22.2962, -0.616066, 26.2119, 17.7788, 81.0724, -133.747
2.556, -1, -22.3905, -0.662088, 26.2339, 17.7894, 81.0241, -133.871
2.56, -1, -22.4848, -0.708095, 26.2559, 17.8001, 80.9759, -133.996
2.564, -1, -22.5791, -0.75409, 26.2779, 17.8107, 80.9276, -134.12
2.568, -1, -22.6733, -0.80007, 26.2998, 17.8214, 80.8794, -134.244
2.571, -1, -22.7676, -0.846036, 26.3218, 17.832, 80.8312, -134.368
2.576, -1, -22.8617, -0.891989, 26.3438, 17.8427, 80.783, -134.492
2.58, -1, -22.9559, -0.937928, 26.3657, 17.8533, 80.7348, -134.616
2.584, -1, -23.05, -0.983853, 26.3876, 17.8639, 80.6866, -134.74
2.587, -1, -23.1441, -1.02976, 26.4096, 17.8745, 80.6385, -134.863
2.592, -1, -23.2382, -1.07566, 26.4315, 17.8852, 80.5903, -134.987
2.596, -1, -23.3322, -1.12155, 26.4534, 17.8958, 80.5422, -135.111
2.6, -1, -23.4262, -1.16742, 26.4753, 17.9064, 80.4941, -135.235
2.604, -1, -23.5202, -1.21327, 26.4972, 17.917, 80.446, -135.359
2.607, -1, -23.6142, -1.25912, 26.5191, 17.9276, 80.3979, -135.482
2.612, -1, -23.7081, -1.30494, 26.541, 17.9382, 80.3498, -135.606
2.616, -1, -23.802, -1.35076, 26.5629, 17.9488, 80.3018, -135.73
2.62, -1, -23.8959, -1.39656, 26.5848, 17.9594, 80.2537, -135.853
2.624, -1, -23.9897, -1.44235, 26.6067, 17.97, 80.2057, -135.977
2.627, -1, -24.0835, -1.48812, 26.6286, 17.9806, 80.1577, -136.1
2.632, -1, -24.1773, -1.53388, 26.6504, 17.9912, 80.1097, -136.224
2.636, -1, -24.2711, -1.57963, 26.6723, 18.0018, 80.0617, -136.347
2.64, -1, -24.3648, -1.62536, 26.6941, 18.0124, 80.0137, -136.47
2.643, -1, -24.4585, -1.67108, 26.716, 18.023, 79.9658, -136.594
2.648, -1, -24.5522, -1.71679, 26.7378, 18.0336, 79.9178, -136.717
2.652, -1, -24.6458, -1.76248, 26.7596, 18.0441, 79.8699, -136.84
2.656, -1, -24.7395, -1.80816, 26.7814, 18.0547, 79.822, -136.964
2.66, -1, -24.833, -1.85382, 26.8033, 18.0653, 79.7741, -137.087
2.663, -1, -24.9266, -1.89947, 26.8251, 18.0758, 79.7262, -137.21
2.668, -1, -25.0201, -1.94511, 26.8469, 18.0864, 79.6783, -137.333
2.672, -1, -25.1136, -1.99074, 26.8687, 18.097, 79.6305, -137.456
2.676, -1, -25.2071, -2.03635, 26.8905, 18.1075, 79.5827, -137.579
2.679, -1, -25.3006, -2.08194, 26.9122, 18.1181, 79.5348, -137.702
2.684, -1, -25.394, -2.12752, 26.934, 18.1286, 79.487, -137.825
2.688, -1, -25.4874, -2.17309, 26.9558, 18.1392, 79.4392, -137.948
2.692, -1, -25.5808, -2.21865, 26.9776, 18.1497, 79.3914, -138.071
2.696, -1, -25.6741, -2.26419, 26.9993, 18.1603, 79.3437, -138.194
2.699, -1, -25.7674, -2.30972, 27.0211, 18.1708, 79.2959, -138.317
2.704, -1, -25.8607, -2.35524, 27.0428, 18.1813, 79.2482, -138.44
2.708, -1, -25.954, -2.40074, 27.0645, 18.1919, 79.2004, -138.562
2.712, -1, -26.0472, -2.44623, 27.0863, 18.2024, 79.1527, -138.685
2.716, -1, -26.1404, -2.4917, 27.108, 18.2129, 79.105, -138.808
2.719, -1, -26.2336, -2.53716, 27.1297, 18.2234, 79.0573, -138.931
2.724, -1, -26.3267, -2.58261, 27.1514, 18.2339, 79.0097, -139.053
2.728, -1, -26.4198, -2.62804, 27.1731, 18.2445, 78.962, -139.176
2.732, -1, -26.5129, -2.67347, 27.1948, 18.255, 78.9144, -139.298
2.735, -1, -26.606, -2.71887, 27.2165, 18.2655, 78.8667, -139.421
2.74, -1, -26.699, -2.76427, 27.2382, 18.276, 78.8191, -139.543
2.744, -1, -26.792, -2.80965, 27.2599, 18.2865, 78.7715, -139.666
2.748, -1, -26.885, -2.85502, 27.2816, 18.297, 78.7239, -139.788
2.752, -1, -26.978, -2.90037, 27.3032, 18.3075, 78.6764, -139.911
2.755, -1, -27.0709, -2.94572, 27.3249, 18.318, 78.6288, -140.033
2.76, -1, -27.1638, -2.99105, 27.3466, 18.3285, 78.5813, -140.155
2.764, -1, -27.2567, -3.03636, 27.3682, 18.339, 78.5337, -140.277
2.768, -1, -27.3495, -3.08167, 27.3899, 18.3495, 78.4862, -140.4
2.772, -1, -27.4424, -3.12695, 27.4115, 18.3599, 78.4387, -140.522
2.775, -1, -27.5352, -3.17223, 27.4331, 18.3704, 78.3912, -140.644
2.78, -1, -27.6279, -3.2175, 27.4547, 18.3809, 78.3437, -140.766
2.784, -1, -27.7207, -3.26275, 27.4764, 18.3914, 78.2963, -140.888
2.788, -1, -27.8134, -3.30798, 27.498, 18.4018, 78.2488, -141.01
2.791, -1, -27.9061, -3.35321, 27.5196, 18.4123, 78.2014, -141.132
2.796, -1, -27.9987, -3.39842, 27.5412, 18.4228, 78.154, -141.254
2.8, -1, -28.0914, -3.44362, 27.5628, 18.4332, 78.1066, -141.376
2.804, -1, -28.184, -3.48881, 27.5844, 18.4437, 78.0592, -141.498
2.808, -1, -28.2766, -3.53398, 27.6059, 18.4541, 78.0118, -141.62
2.811, -1, -28.3691, -3.57914, 27.6275, 18.4646, 77.9644, -141.742
2.816, -1, -28.4617, -3.62429, 27.6491, 18.475, 77.9171, -141.864
2.82, -1, -28.5542, -3.66942, 27.6707, 18.4855, 77.8697, -141.986
2.824, -1, -28.6466, -3.71454, 27.6922, 18.4959, 77.8224, -142.107
2.828, -1, -28.7391, -3.75965, 27.7138, 18.5064, 77.7751, -142.229
2.831, -1, -28.8315, -3.80475, 27.7353, 18.5168, 77.7278, -142.351
2.836, -1, -28.9239, -3.84983, 27.7568, 18.5272, 77.6805, -142.472
2.84, -1, -29.0163, -3.8949, 27.7784, 18.5377, 77.6332, -142.594
2.844, -1, -29.1086, -3.93996, 27.7999, 18.5481, 77.5859, -142.715
2.847, -1, -29.201, -3.985, 27.8214, 18.5585, 77.5387, -142.837
2.852, -1, -29.2932, -4.03004, 27.8429, 18.569, 77.4915, -142.958
2.856, -1, -29.3855, -4.07505, 27.8644, 18.5794, 77.4442, -143.08
2.86, -1, -29.4778, -4.12006, 27.8859, 18.5898, 77.397, -143.201
2.864, -1, -29.57, -4.16505, 27.9074, 18.6002, 77.3498, -143.323
2.867, -1, -29.6622, -4.21004, 27.9289, 18.6106, 77.3027, -143.444
2.872, -1, -29.7543, -4.255, 27.9504, 18.621, 77.2555, -143.565
2.876, -1, -29.8465, -4.29996, 27.9719, 18.6314, 77.2083, -143.687
2.88, -1, -29.9386, -4.3449, 27.9934, 18.6418, 77.1612, -143.808
2.883, -1, -30.0307, -4.38983, 28.0148, 18.6522, 77.1141, -143.929
2.888, -1, -30.1227, -4.43475, 28.0363, 18.6626, 77.0669, -144.05
2.892, -1, -30.2148, -4.47966, 28.0577, 18.673, 77.0198, -144.172
2.896, -1, -30.3068, -4.52455, 28.0792, 18.6834, 76.9728, -144.293
2.9, -1, -30.3987, -4.56943, 28.1006, 18.6938, 76.9257, -144.414
2.903, -1, -30.4907, -4.6143, 28.1221, 18.7042, 76.8786, -144.535
2.908, -1, -30.5826, -4.65915, 28.1435, 18.7146, 76.8316, -144.656
2.912, -1, -30.6745, -4.70399, 28.1649, 18.7249, 76.7845, -144.777
2.916, -1, -30.7664, -4.74882, 28.1863, 18.7353, 76.7375, -144.898
2.92, -1, -30.8583, -4.79364, 28.2077, 18.7457, 76.6905, -145.019
2.923, -1, -30.9501, -4.83844, 28.2291, 18.7561, 76.6435, -145.14
2.928, -1, -31.0419, -4.88324, 28.2505, 18.7664, 76.5965, -145.261
2.932, -1, -31.1337, -4.92802, 28.2719, 18.7768, 76.5496, -145.381
2.936, -1, -31.2254, -4.97278, 28.2933, 18.7871, 76.5026, -145.502
2.939, -1, -31.3172, -5.01754, 28.3147, 18.7975, 76.4557, -145.623
2.944, -1, -31.4089, -5.06228, 28.3361, 18.8079, 76.4087, -145.744
2.948, -1, -31.5005, -5.10701, 28.3575, 18.8182, 76.3618, -145.864
2.952, -1, -31.5922, -5.15173, 28.3788, 18.8286, 76.3149, -145.985
2.956, -1, -31.6838, -5.19643, 28.4002, 18.8389, 76.268, -146.106
2.959, -1, -31.7754, -5.24112, 28.4215, 18.8493, 76.2211, -146.226
2.964, -1, -31.867, -5.2858, 28.4429, 18.8596, 76.1743, -146.347
2.968, -1, -31.9585, -5.33047, 28.4642, 18.8699, 76.1274, -146.467
2.972, -1, -32.05, -5.37513, 28.4855, 18.8803, 76.0806, -146.588
2.976, -1, -32.1415, -5.41977, 28.5069, 18.8906, 76.0338, -146.708
2.98, -1, -32.233, -5.4644, 28.5282, 18.9009, 75.9869, -146.829
2.984, -1, -32.3245, -5.50902, 28.5495, 18.9113, 75.9401, -146.949
2.988, -1, -32.4159, -5.55363, 28.5708, 18.9216, 75.8934, -147.069
2.992, -1, -32.5073, -5.59822, 28.5921, 18.9319, 75.8466, -147.19
2.995, -1, -32.5986, -5.6428, 28.6134, 18.9422, 75.7998, -147.31
3, -1, -32.69, -5.68737, 28.6347, 18.9525, 75.7531, -147.43
3.004, -1, -32.7813, -5.73193, 28.656, 18.9628, 75.7063, -147.55
3.008, -1, -32.8726, -5.77647, 28.6773, 18.9732, 75.6596, -147.671
3.012, -1, -32.9639, -5.821, 28.6986, 18.9835, 75.6129, -147.791
3.015, -1, -33.0551, -5.86553, 28.7198, 18.9938, 75.5662, -147.911
3.02, -1, -33.1463, -5.91003, 28.7411, 19.0041, 75.5195, -148.031
3.024, -1, -33.2375, -5.95453, 28.7623, 19.0144, 75.4728, -148.151
3.028, -1, -33.3287, -5.99901, 28.7836, 19.0247, 75.4262, -148.271
3.031, -1, -33.4198, -6.04348, 28.8048, 19.035, 75.3795, -148.391
3.036, -1, -33.511, -6.08794, 28.8261, 19.0452, 75.3329, -148.511
3.04, -1, -33.6021, -6.13239, 28.8473, 19.0555, 75.2863, -148.631
3.044, -1, -33.6931, -6.17683, 28.8685, 19.0658, 75.2397, -148.751
3.048, -1, -33.7842, -6.22125, 28.8898, 19.0761, 75.1931, -148.871
3.051, -1, -33.8752, -6.26566, 28.911, 19.0864, 75.1465, -148.99
3.056, -1, -33.9662, -6.31006, 28.9322, 19.0967, 75.0999, -149.11
3.06, -1, -34.0572, -6.35445, 28.9534, 19.1069, 75.0534, -149.23
3.064, -1, -34.1481, -6.39882, 28.9746, 19.1172, 75.0068, -149.35
3.068, -1, -34.239, -6.44318, 28.9958, 19.1275, 74.9603, -149.469
3.071, -1, -34.3299, -6.48754, 29.017, 19.1377, 74.9138, -149.589
3.076, -1, -34.4208, -6.53188, 29.0382, 19.148, 74.8673, -149.709
3.08, -1, -34.5117, -6.5762, 29.0593, 19.1583, 74.8208, -149.828
3.084, -1, -34.6025, -6.62052, 29.0805, 19.1685, 74.7743, -149.948
3.087, -1, -34.6933, -6.66482, 29.1017, 19.1788, 74.7278, -150.067
3.092, -1, -34.7841, -6.70912, 29.1228, 19.189, 74.6814, -150.187
3.096, -1, -34.8748, -6.7534, 29.144, 19.1993, 74.6349, -150.306
3.1, -1, -34.9655, -6.79766, 29.1651, 19.2095, 74.5885, -150.426
3.104, -1, -35.0562, -6.84192, 29.1863, 19.2198, 74.5421, -150.545
3.107, -1, -35.1469, -6.88617, 29.2074, 19.23, 74.4957, -150.665
3.112, -1, -35.2376, -6.9304, 29.2286, 19.2402, 74.4493, -150.784
3.116, -1, -35.3282, -6.97462, 29.2497, 19.2505, 74.4029, -150.903
3.12, -1, -35.4188, -7.01883, 29.2708, 19.2607, 74.3565, -151.023
3.124, -1, -35.5094, -7.06303, 29.2919, 19.2709, 74.3101, -151.142
3.128, -1, -35.6, -7.10722, 29.313, 19.2812, 74.2638, -151.261
3.132, -1, -35.6905, -7.15139, 29.3341, 19.2914, 74.2175, -151.38
3.136, -1, -35.781, -7.19556, 29.3552, 19.3016, 74.1711, -151.499
3.14, -1, -35.8715, -7.23971, 29.3763, 19.3118, 74.1248, -151.618
3.143, -1, -35.962, -7.28385, 29.3974, 19.322, 74.0785, -151.738
3.148, -1, -36.0524, -7.32799, 29.4185, 19.3322, 74.0322, -151.857
3.152, -1, -36.1429, -7.3721, 29.4396, 19.3425, 73.986, -151.976
3.156, -1, -36.2333, -7.41621, 29.4607, 19.3527, 73.9397, -152.095
3.16, -1, -36.3236, -7.46031, 29.4817, 19.3629, 73.8934, -152.214
3.163, -1, -36.414, -7.5044, 29.5028, 19.3731, 73.8472, -152.333
3.168, -1, -36.5043, -7.54847, 29.5238, 19.3833, 73.801, -152.452
3.172, -1, -36.5946, -7.59253, 29.5449, 19.3935, 73.7547, -152.57
3.176, -1, -36.6849, -7.63658, 29.5659, 19.4037, 73.7085, -152.689
3.179, -1, -36.7752, -7.68062, 29.587, 19.4139, 73.6623, -152.808
3.184, -1, -36.8654, -7.72465, 29.608, 19.4241, 73.6162, -152.927
3.188, -1, -36.9556, -7.76867, 29.629, 19.4342, 73.57, -153.046
3.192, -1, -37.0458, -7.81268, 29.6501, 19.4444, 73.5238, -153.164
3.196, -1, -37.136, -7.85668, 29.6711, 19.4546, 73.4777, -153.283
3.199, -1, -37.2261, -7.90066, 29.6921, 19.4648, 73.4315, -153.402
3.204, -1, -37.3163, -7.94463, 29.7131, 19.475, 73.3854, -153.52
3.208, -1, -37.4064, -7.9886, 29.7341, 19.4851, 73.3393, -153.639
3.212, -1, -37.4964, -8.03255, 29.7551, 19.4953, 73.2932, -153.758
3.216, -1, -37.5865, -8.07649, 29.7761, 19.5055, 73.2471, -153.876
3.22, -1, -37.6765, -8.12042, 29.7971, 19.5157, 73.201, -153.995
3.224, -1, -37.7666, -8.16434, 29.8181, 19.5258, 73.155, -154.113
3.228, -1, -37.8565, -8.20825, 29.839, 19.536, 73.1089, -154.232
3.232, -1, -37.9465, -8.25214, 29.86, 19.5461, 73.0629, -154.35
3.235, -1, -38.0365, -8.29603, 29.881, 19.5563, 73.0168, -154.469
3.24, -1, -38.1264, -8.3399, 29.9019, 19.5665, 72.9708, -154.587
3.244, -1, -38.2163, -8.38377, 29.9229, 19.5766, 72.9248, -154.705
3.248, -1, -38.3062, -8.42762, 29.9439, 19.5868, 72.8788, -154.824
3.252, -1, -38.396, -8.47146, 29.9648, 19.5969, 72.8328, -154.942
3.255, -1, -38.4858, -8.5153, 29.9857, 19.607, 72.7869, -155.06
3.26, -1, -38.5756, -8.55912, 30.0067, 19.6172, 72.7409, -155.178
3.264, -1, -38.6654, -8.60293, 30.0276, 19.6273, 72.6949, -155.297
3.268, -1, -38.7552, -8.64672, 30.0485, 19.6375, 72.649, -155.415
3.272, -1, -38.8449, -8.69051, 30.0694, 19.6476, 72.6031, -155.533
3.276, -1, -38.9347, -8.73429, 30.0904, 19.6577, 72.5572, -155.651
3.28, -1, -39.0244, -8.77806, 30.1113, 19.6679, 72.5112, -155.769
3.284, -1, -39.114, -8.82181, 30.1322, 19.678, 72.4653, -155.887
3.288, -1, -39.2037, -8.86556, 30.1531, 19.6881, 72.4195, -156.005
3.291, -1, -39.2933, -8.90929, 30.174, 19.6982, 72.3736, -156.123
3.296, -1, -39.3829, -8.95302, 30.1949, 19.7084, 72.3277, -156.241
3.3, -1, -39.4725, -8.99673, 30.2157, 19.7185, 72.2819, -156.359
3.304, -1, -39.5621, -9.04043, 30.2366, 19.7286, 72.236, -156.477
3.308, -1, -39.6517, -9.08413, 30.2575, 19.7387, 72.1902, -156.595
3.312, -1, -39.7412, -9.12781, 30.2784, 19.7488, 72.1444, -156.713
3.316, -1, -39.8307, -9.17148, 30.2992, 19.7589, 72.0986, -156.831
3.32, -1, -39.9202, -9.21514, 30.3201, 19.769, 72.0528, -156.948
3.324, -1, -40.0096, -9.25879, 30.3409, 19.7791, 72.007, -157.066
3.328, -1, -40.0991, -9.30243, 30.3618, 19.7892, 71.9612, -157.184
3.332, -1, -40.1885, -9.34606, 30.3826, 19.7993, 71.9155, -157.302
3.336, -1, -40.2779, -9.38968, 30.4035, 19.8094, 71.8697, -157.419
3.34, -1, -40.3672, -9.43328, 30.4243, 19.8195, 71.824, -157.537
3.344, -1, -40.4566, -9.47688, 30.4451, 19.8296, 71.7782, -157.655
3.347, -1, -40.5459, -9.52047, 30.466, 19.8397, 71.7325, -157.772
3.352, -1, -40.6352, -9.56404, 30.4868, 19.8498, 71.6868, -157.89
3.356, -1, -40.7245, -9.60761, 30.5076, 19.8599, 71.6411, -158.007
3.36, -1, -40.8138, -9.65117, 30.5284, 19.8699, 71.5954, -158.125
3.364, -1, -40.903, -9.69471, 30.5492, 19.88, 71.5498, -158.242
3.368, -1, -40.9923, -9.73825, 30.57, 19.8901, 71.5041, -158.36
3.372, -1, -41.0815, -9.78177, 30.5908, 19.9002, 71.4585, -158.477
3.376, -1, -41.1707, -9.82528, 30.6116, 19.9102, 71.4128, -158.595
3.38, -1, -41.2598, -9.86879, 30.6324, 19.9203, 71.3672, -158.712
3.383, -1, -41.349, -9.91228, 30.6531, 19.9304, 71.3216, -158.829
3.388, -1, -41.4381, -9.95577, 30.6739, 19.9404, 71.2759, -158.947
3.392, -1, -41.5272, -9.99924, 30.6947, 19.9505, 71.2303, -159.064
3.396, -1, -41.6162, -10.0427, 30.7154, 19.9606, 71.1848, -159.181
3.4, -1, -41.7053, -10.0862, 30.7362, 19.9706, 71.1392, -159.298
3.403, -1, -41.7943, -10.1296, 30.757, 19.9807, 71.0936, -159.416
3.408, -1, -41.8834, -10.173, 30.7777, 19.9907, 71.0481, -159.533
3.412, -1, -41.9723, -10.2165, 30.7985, 20.0008, 71.0025, -159.65
3.416, -1, -42.0613, -10.2599, 30.8192, 20.0108, 70.957, -159.767
3.42, -1, -42.1503, -10.3033, 30.8399, 20.0209, 70.9115, -159.884
3.424, -1, -42.2392, -10.3467, 30.8607, 20.0309, 70.8659, -160.001
3.428, -1, -42.3281, -10.39, 30.8814, 20.0409, 70.8204, -160.118
3.432, -1, -42.417, -10.4334, 30.9021, 20.051, 70.7749, -160.235
3.436, -1, -42.5059, -10.4768, 30.9228, 20.061, 70.7295, -160.352
3.439, -1, -42.5947, -10.5201, 30.9435, 20.0711, 70.684, -160.469
3.444, -1, -42.6835, -10.5635, 30.9642, 20.0811, 70.6385, -160.586
3.448, -1, -42.7724, -10.6068, 30.9849, 20.0911, 70.5931, -160.703
3.452, -1, -42.8611, -10.6501, 31.0056, 20.1011, 70.5476, -160.82
3.456, -1, -42.9499, -10.6934, 31.0263, 20.1112, 70.5022, -160.937
3.46, -1, -43.0387, -10.7367, 31.047, 20.1212, 70.4568, -161.054
3.464, -1, -43.1274, -10.78, 31.0677, 20.1312, 70.4114, -161.171
3.468, -1, -43.2161, -10.8233, 31.0884, 20.1412, 70.366, -161.287
3.472, -1, -43.3048, -10.8666, 31.1091, 20.1512, 70.3206, -161.404
3.476, -1, -43.3934, -10.9098, 31.1297, 20.1612, 70.2752, -161.521
3.48, -1, -43.4821, -10.9531, 31.1504, 20.1713, 70.2299, -161.637
3.484, -1, -43.5707, -10.9963, 31.171, 20.1813, 70.1845, -161.754
3.488, -1, -43.6593, -11.0396, 31.1917, 20.1913, 70.1392, -161.871
3.492, -1, -43.7479, -11.0828, 31.2123, 20.2013, 70.0938, -161.987
3.495, -1, -43.8365, -11.126, 31.233, 20.2113, 70.0485, -162.104
3.5, -1, -43.925, -11.1692, 31.2536, 20.2213, 70.0032, -162.221
3.504, -1, -44.0135, -11.2124, 31.2743, 20.2313, 69.9579, -162.337
3.508, -1, -44.1021, -11.2556, 31.2949, 20.2413, 69.9126, -162.454
3.512, -1, -44.1905, -11.2988, 31.3155, 20.2513, 69.8673, -162.57
3.516, -1, -44.279, -11.3419, 31.3361, 20.2613, 69.822, -162.687
3.52, -1, -44.3675, -11.3851, 31.3568, 20.2712, 69.7767, -162.803
3.524, -1, -44.4559, -11.4282, 31.3774, 20.2812, 69.7315, -162.919
3.528, -1, -44.5443, -11.4714, 31.398, 20.2912, 69.6862, -163.036
3.531, -1, -44.6327, -11.5145, 31.4186, 20.3012, 69.641, -163.152
3.536, -1, -44.7211, -11.5576, 31.4392, 20.3112, 69.5958, -163.269
3.54, -1, -44.8094, -11.6007, 31.4598, 20.3212, 69.5505, -163.385
3.544, -1, -44.8978, -11.6438, 31.4804, 20.3311, 69.5053, -163.501
3.548, -1, -44.9861, -11.6869, 31.501, 20.3411, 69.4601, -163.617
3.552, -1, -45.0744, -11.73, 31.5216, 20.3511, 69.4149, -163.734
3.556, -1, -45.1627, -11.7731, 31.5421, 20.361, 69.3698, -163.85
3.56, -1, -45.2509, -11.8162, 31.5627, 20.371, 69.3246, -163.966
3.564, -1, -45.3392, -11.8592, 31.5833, 20.381, 69.2794, -164.082
3.568, -1, -45.4274, -11.9023, 31.6038, 20.3909, 69.2343, -164.198
3.572, -1, -45.5156, -11.9453, 31.6244, 20.4009, 69.1891, -164.314
3.576, -1, -45.6038, -11.9883, 31.645, 20.4109, 69.144, -164.431
3.58, -1, -45.6919, -12.0313, 31.6655, 20.4208, 69.0989, -164.547
3.584, -1, -45.7801, -12.0744, 31.6861, 20.4308, 69.0538, -164.663
3.587, -1, -45.8682, -12.1174, 31.7066, 20.4407, 69.0087, -164.779
3.592, -1, -45.9563, -12.1603, 31.7271, 20.4507, 68.9636, -164.895
3.596, -1, -46.0444, -12.2033, 31.7477, 20.4606, 68.9185, -165.011
3.6, -1, -46.1325, -12.2463, 31.7682, 20.4706, 68.8734, -165.127
3.604, -1, -46.2205, -12.2893, 31.7887, 20.4805, 68.8283, -165.243
3.608, -1, -46.3086, -12.3322, 31.8093, 20.4904, 68.7833, -165.358
3.612, -1, -46.3966, -12.3752, 31.8298, 20.5004, 68.7382, -165.474
3.616, -1, -46.4846, -12.4181, 31.8503, 20.5103, 68.6932, -165.59
3.62, -1, -46.5726, -12.461, 31.8708, 20.5203, 68.6482, -165.706
3.624, -1, -46.6605, -12.504, 31.8913, 20.5302, 68.6032, -165.822
3.628, -1, -46.7485, -12.5469, 31.9118, 20.5401, 68.5582, -165.938
3.632, -1, -46.8364, -12.5898, 31.9323, 20.5501, 68.5132, -166.053
3.636, -1, -46.9243, -12.6327, 31.9528, 20.56, 68.4682, -166.169
3.64, -1, -47.0122, -12.6755, 31.9733, 20.5699, 68.4232, -166.285
3.644, -1, -47.1001, -12.7184, 31.9938, 20.5798, 68.3782, -166.4
3.648, -1, -47.1879, -12.7613, 32.0142, 20.5898, 68.3332, -166.516
3.652, -1, -47.2758, -12.8041, 32.0347, 20.5997, 68.2883, -166.632
3.656, -1, -47.3636, -12.847, 32.0552, 20.6096, 68.2433, -166.747
3.66, -1, -47.4514, -12.8898, 32.0757, 20.6195, 68.1984, -166.863
3.664, -1, -47.5391, -12.9326, 32.0961, 20.6294, 68.1535, -166.978
3.668, -1, -47.6267, -12.9754, 32.1166, 20.6393, 68.1086, -167.094
3.672, -1, -47.714, -13.018, 32.1371, 20.6492, 68.0637, -167.209
3.676, -1, -47.801, -13.0605, 32.1576, 20.6592, 68.0188, -167.325
3.679, -1, -47.8875, -13.1027, 32.178, 20.6691, 67.974, -167.44
3.684, -1, -47.9734, -13.1446, 32.1985, 20.6789, 67.9293, -167.555
3.688, -1, -48.0586, -13.1861, 32.219, 20.6888, 67.8848, -167.67
3.692, -1, -48.143, -13.2272, 32.2394, 20.6986, 67.8404, -167.784
3.696, -1, -48.2264, -13.2676, 32.2596, 20.7084, 67.7965, -167.897
3.7, -1, -48.3085, -13.3072, 32.2798, 20.718, 67.7529, -168.009
3.704, -1, -48.389, -13.3459, 32.2997, 20.7276, 67.71, -168.119
3.708, -1, -48.4674, -13.3833, 32.3193, 20.7369, 67.6679, -168.227
3.712, -1, -48.5436, -13.4195, 32.3385, 20.7461, 67.6268, -168.333
3.716, -1, -48.6171, -13.4543, 32.3572, 20.755, 67.5869, -168.436
3.72, -1, -48.6876, -13.4875, 32.3752, 20.7635, 67.5485, -168.534
3.724, -1, -48.7549, -13.5192, 32.3924, 20.7717, 67.5119, -168.628
3.728, -1, -48.8187, -13.5493, 32.4086, 20.7794, 67.4773, -168.717
3.732, -1, -48.8787, -13.5776, 32.4237, 20.7866, 67.445, -168.8
3.735, -1, -48.9346, -13.604, 32.4376, 20.7933, 67.4151, -168.877
3.74, -1, -48.9862, -13.6286, 32.4502, 20.7993, 67.3879, -168.947
3.744, -1, -49.0333, -13.6512, 32.4615, 20.8048, 67.3633, -169.01
3.748, -1, -49.076, -13.6721, 32.4714, 20.8096, 67.3416, -169.066
3.752, -1, -49.1145, -13.6911, 32.4798, 20.8137, 67.3225, -169.115
3.756, -1, -49.1487, -13.7084, 32.487, 20.8173, 67.3062, -169.157
3.76, -1, -49.1788, -13.7239, 32.4928, 20.8202, 67.2924, -169.193
3.764, -1, -49.2049, -13.7376, 32.4975, 20.8227, 67.281, -169.222
3.768, -1, -49.2273, -13.7496, 32.5012, 20.8246, 67.2718, -169.246
3.772, -1, -49.2463, -13.7599, 32.504, 20.8262, 67.2644, -169.265
3.776, -1, -49.2622, -13.7686, 32.506, 20.8273, 67.2586, -169.28
3.78, -1, -49.2754, -13.7758, 32.5075, 20.8282, 67.2542, -169.291
3.784, -1, -49.2862, -13.7818, 32.5085, 20.8288, 67.2509, -169.3
3.788, -1, -49.295, -13.7865, 32.5092, 20.8293, 67.2486, -169.306
3.792, -1, -49.302, -13.7903, 32.5096, 20.8296, 67.2469, -169.31
3.796, 2, -49.3074, -13.7932, 32.5098, 20.8298, 67.2457, -169.313
3.8, 2, -49.3115, -13.7953, 32.5099, 20.83, 67.2449, -169.315
3.804, 2, -49.3144, -13.7968, 32.51, 20.83, 67.2443, -169.317
3.808, 2, -49.3164, -13.7979, 32.5101, 20.8301, 67.2439, -169.318
3.812, 2, -49.3178, -13.7986, 32.5101, 20.8302, 67.2437, -169.318
3.816, 2, -49.3187, -13.799, 32.5101, 20.8302, 67.2435, -169.319
3.82, 2, -49.3194, -13.7994, 32.5101, 20.8302, 67.2434, -169.319
3.824, 2, -49.3198, -13.7996, 32.5102, 20.8302, 67.2433, -169.319
3.828, 2, -49.3201, -13.7997, 32.5102, 20.8302, 67.2433, -169.32
3.832, 2, -49.3203, -13.7998, 32.5102, 20.8302, 67.2432, -169.32
3.836, 2, -49.3204, -13.7999, 32.5102, 20.8302, 67.2432, -169.32
3.84, 2, -49.3205, -13.8, 32.5102, 20.8302, 67.2432, -169.32
3.844, 2, -49.3206, -13.8, 32.5102, 20.8302, 67.2432, -169.32
3.848, 2, -49.3206, -13.8, 32.5102, 20.8302, 67.2432, -169.32
3.852, 2, -49.3206, -13.8, 32.5102, 20.8302, 67.2432, -169.32
3.856, 2, -49.3207, -13.8, 32.5102, 20.8302, 67.2432, -169.32
3.86, 2, -49.3207, -13.8, 32.5102, 20.8302, 67.2432, -169.32
3.864, 2, -49.3207, -13.8, 32.5102, 20.8302, 67.2432, -169.32
3.868, 2, -49.3207, -13.8001, 32.5102, 20.8302, 67.2431, -169.32
3.872, 2, -49.3207, -13.8001, 32.5102, 20.8302, 67.2431, -169.32
3.876, 2, -49.3207, -13.8001, 32.5102, 20.8302, 67.2431, -169.32
3.88, 2, -49.3207, -13.8001, 32.5102, 20.8302, 67.2431, -169.32
3.884, 2, -49.3207, -13.8001, 32.5102, 20.8302, 67.2431, -169.32
3.888, 2, -49.3207, -13.8001, 32.5102, 20.8302, 67.2431, -169.32
3.892, 2, -49.3207, -13.8001, 32.5102, 20.8302, 67.2431, -169.32
3.896, 2, -49.3207, -13.8001, 32.5102, 20.8302, 67.2431, -169.32
3.9, 2, -49.3207, -13.8001, 32.5102, 20.8302, 67.2431, -169.32
3.904, 2, -49.3207, -13.8001, 32.5102, 20.8302, 67.2431, -169.32
3.908, 2, -49.3207, -13.8001, 32.5102, 20.8302, 67.2431, -169.32
3.912, 2, -49.3207, -13.8001, 32.5102, 20.8302, 67.2431, -169.32
3.916, 2, -49.3207, -13.8001, 32.5102, 20.8302, 67.2431, -169.32
3.92, 2, -49.3207, -13.8001, 32.5102, 20.8302, 67.2431, -169.32
3.924, 2, -49.3207, -13.8001, 32.5102, 20.8302, 67.2431, -169.32
3.928, 2, -49.3207, -13.8001, 32.5102, 20.8302, 67.2431, -169.32
3.932, 2, -49.3207, -13.8001, 32.5102, 20.8302, 67.2431, -169.32
3.936, 2, -49.3207, -13.8001, 32.5102, 20.8302, 67.2431, -169.32
3.94, 2, -49.3207, -13.8001, 32.5102, 20.8302, 67.2431, -169.32
3.944, 2, -49.3207, -13.8001, 32.5102, 20.8302, 67.2431, -169.32
3.948, 2, -49.3207, -13.8001, 32.5102, 20.8302, 67.2431, -169.32
3.952, 2, -49.3207, -13.8001, 32.5102, 20.8302, 67.2431, -169.32
3.956, 2, -49.3207, -13.8001, 32.5102, 20.8302, 67.2431, -169.32
3.96, 2, -49.3207, -13.8001, 32.5102, 20.8302, 67.2431, -169.32
3.964, 2, -49.3207, -13.8001, 32.5102, 20.8302, 67.2431, -169.32
3.968, 2, -49.3207, -13.8001, 32.5102, 20.8302, 67.2431, -169.32
3.972, 2, -49.3207, -13.8001, 32.5102, 20.8302, 67.2431, -169.32
3.976, 2, -49.3207, -13.8001, 32.5102, 20.8302, 67.2431, -169.32
3.98, 2, -49.3207, -13.8001, 32.5102, 20.8302, 67.2431, -169.32
3.984, 2, -49.3207, -13.8001, 32.5102, 20.8302, 67.2431, -169.32
3.988, 2, -49.3207, -13.8001, 32.5102, 20.8302, 67.2431, -169.32
3.992, 2, -49.3207, -13.8001, 32.5102, 20.8302, 67.2431, -169.32
3.996, 2, -49.3207, -13.8001, 32.5102, 20.8302, 67.2431, -169.32
3.999, 2, -49.3207, -13.8001, 32.5102, 20.8302, 67.2431, -169.32
4.004, 2, -49.3207, -13.8001, 32.5102, 20.8302, 67.2431, -169.32
4.008, 2, -49.3207, -13.8001, 32.5102, 20.8302, 67.2431, -169.32
4.012, 2, -49.3207, -13.8001, 32.5102, 20.8302, 67.2431, -169.32
4.016, 2, -49.3207, -13.8001, 32.5102, 20.8302, 67.2431, -169.32
4.02, 2, -49.3207, -13.8001, 32.5102, 20.8302, 67.2431, -169.32
4.024, 2, -49.3207, -13.8001, 32.5102, 20.8302, 67.2431, -169.32
4.028, 2, -49.3207, -13.8001, 32.5102, 20.8302, 67.2431, -169.32
4.032, 2, -49.3207, -13.8001, 32.5102, 20.8302, 67.2431, -169.32
4.036, 2, -49.3207, -13.8001, 32.5102, 20.8302, 67.2431, -169.32
4.04, 2, -49.3207, -13.8001, 32.5102, 20.8302, 67.2431, -169.32
4.044, 2, -49.3207, -13.8001, 32.5102, 20.8302, 67.2431, -169.32
4.048, 2, -49.3207, -13.8001, 32.5102, 20.8302, 67.2431, -169.32
4.052, 2, -49.3207, -13.8001, 32.5102, 20.8302, 67.2431, -169.32
4.056, 2, -49.3207, -13.8001, 32.5102, 20.8302, 67.2431, -169.32
4.06, 2, -49.3207, -13.8001, 32.5102, 20.8302, 67.2431, -169.32
4.064, 2, -49.3207, -13.8001, 32.5102, 20.8302, 67.2431, -169.32
4.068, 2, -49.3207, -13.8001, 32.5102, 20.8302, 67.2431, -169.32
4.072, 2, -49.3207, -13.8001, 32.5102, 20.8302, 67.2431, -169.32
4.076, 2, -49.3207, -13.8001, 32.5102, 20.8302, 67.2431, -169.32
4.08, 2, -49.3207, -13.8001, 32.5102, 20.8302, 67.2431, -169.32
4.084, 2, -49.3207, -13.8001, 32.5102, 20.8302, 67.2431, -169.32
4.088, 2, -49.3207, -13.8001, 32.5102, 20.8302, 67.2431, -169.32
4.092, 2, -49.3207, -13.8001, 32.5102, 20.8302, 67.2431, -169.32
4.096, 2, -49.3207, -13.8001, 32.5102, 20.8302, 67.2431, -169.32
4.1, 2, -49.3207, -13.8001, 32.5102, 20.8302, 67.2431, -169.32
4.104, 2, -49.3207, -13.8001, 32.5102, 20.8302, 67.2431, -169.32
4.108, 2, -49.3207, -13.8001, 32.5102, 20.8302, 67.2431, -169.32
4.112, 2, -49.3207, -13.8001, 32.5102, 20.8302, 67.2431, -169.32
4.116, 2, -49.3207, -13.8001, 32.5102, 20.8302, 67.2431, -169.32
4.12, 2, -49.3207, -13.8001, 32.5102, 20.8302, 67.2431, -169.32
4.124, 2, -49.3207, -13.8001, 32.5102, 20.8302, 67.2431, -169.32
4.128, 2, -49.3207, -13.8001, 32.5102, 20.8302, 67.2431, -169.32
4.132, 2, -49.3207, -13.8001, 32.5102, 20.8302, 67.2431, -169.32
4.136, 2, -49.3207, -13.8001, 32.5102, 20.8302, 67.2431, -169.32
4.14, 2, -49.3207, -13.8001, 32.5102, 20.8302, 67.2431, -169.32
4.144, 2, -49.3207, -13.8001, 32.5102, 20.8302, 67.2431, -169.32
4.148, 2, -49.3207, -13.8001, 32.5102, 20.8302, 67.2431, -169.32
4.152, 2, -49.3207, -13.8001, 32.5102, 20.8302, 67.2431, -169.32
4.156, 2, -49.3207, -13.8001, 32.5102, 20.8302, 67.2431, -169.32
4.16, 2, -49.3207, -13.8001, 32.5102, 20.8302, 67.2431, -169.32
4.164, 2, -49.3207, -13.8001, 32.5102, 20.8302, 67.2431, -169.32
4.168, 2, -49.3207, -13.8001, 32.5102, 20.8302, 67.2431, -169.32
4.172, 2, -49.3207, -13.8001, 32.5102, 20.8302, 67.2431, -169.32
4.176, 2, -49.3207, -13.8001, 32.5102, 20.8302, 67.2431, -169.32
4.18, 2, -49.3207, -13.8001, 32.5102, 20.8302, 67.2431, -169.32
4.184, 2, -49.3207, -13.8001, 32.5102, 20.8302, 67.2431, -169.32
4.188, 2, -49.3207, -13.8001, 32.5102, 20.8302, 67.2431, -169.32
4.192, 2, -49.3207, -13.8001, 32.5102, 20.8302, 67.2431, -169.32
4.196, 2, -49.3207, -13.8001, 32.5102, 20.8302, 67.2431, -169.32
4.2, 2, -49.3207, -13.8001, 32.5102, 20.8302, 67.2431, -169.32
4.204, 2, -49.3207, -13.8001, 32.5102, 20.8302, 67.2431, -169.32
4.208, 2, -49.3207, -13.8001, 32.5102, 20.8302, 67.2431, -169.32
4.212, 2, -49.3207, -13.8001, 32.5102, 20.8302, 67.2431, -169.32
4.216, 2, -49.3207, -13.8001, 32.5102, 20.8302, 67.2431, -169.32
4.22, 2, -49.3207, -13.8001, 32.5102, 20.8302, 67.2431, -169.32
4.224, 2, -49.3207, -13.8001, 32.5102, 20.8302, 67.2431, -169.32
4.228, 2, -49.3207, -13.8001, 32.5102, 20.8302, 67.2431, -169.32
4.232, 2, -49.3207, -13.8001, 32.5102, 20.8302, 67.2431, -169.32
4.236, 2, -49.3207, -13.8001, 32.5102, 20.8302, 67.2431, -169.32
4.24, 2, -49.3207, -13.8001, 32.5102, 20.8302, 67.2431, -169.32
4.244, 2, -49.3207, -13.8001, 32.5102, 20.8302, 67.2431, -169.32
4.248, 2, -49.3207, -13.8001, 32.5102, 20.8302, 67.2431, -169.32
4.252, 2, -49.3207, -13.8001, 32.5102, 20.8302, 67.2431, -169.32
4.256, 2, -49.3207, -13.8001, 32.5102, 20.8302, 67.2431, -169.32
4.26, 2, -49.3207, -13.8001, 32.5102, 20.8302, 67.2431, -169.32
4.264, 2, -49.3207, -13.8001, 32.5102, 20.8302, 67.2431, -169.32
4.268, 2, -49.3207, -13.8001, 32.5102, 20.8302, 67.2431, -169.32
4.272, 2, -49.3207, -13.8001, 32.5102, 20.8302, 67.2431, -169.32
4.276, 2, -49.3207, -13.8001, 32.5102, 20.8302, 67.2431, -169.32
4.28, 2, -49.3207, -13.8001, 32.5102, 20.8302, 67.2431, -169.32
4.284, 2, -49.3207, -13.8001, 32.5102, 20.8302, 67.2431, -169.32
4.288, 2, -49.3207, -13.8001, 32.5102, 20.8302, 67.2431, -169.32
4.292, 2, -49.3207, -13.8001, 32.5102, 20.8302, 67.2431, -169.32
4.296, 2, -49.3207, -13.8001, 32.5102, 20.8302, 67.2431, -169.32
4.3, 2, -49.3207, -13.8001, 32.5102, 20.8302, 67.2431, -169.32
4.304, 2, -49.3207, -13.8001, 32.5102, 20.8302, 67.2431, -169.32
4.308, 2, -49.3207, -13.8001, 32.5102, 20.8302, 67.2431, -169.32
4.312, 2, -49.3207, -13.8001, 32.5102, 20.8302, 67.2431, -169.32
4.316, 2, -49.3207, -13.8001, 32.5102, 20.8302, 67.2431, -169.32
4.32, 2, -49.3207, -13.8001, 32.5102, 20.8302, 67.2431, -169.32
4.324, 2, -49.3207, -13.8001, 32.5102, 20.8302, 67.2431, -169.32
4.328, 2, -49.3207, -13.8001, 32.5102, 20.8302, 67.2431, -169.32
4.332, 2, -49.3207, -13.8001, 32.5102, 20.8302, 67.2431, -169.32
4.336, 2, -49.3207, -13.8001, 32.5102, 20.8302, 67.2431, -169.32
4.34, 2, -49.3207, -13.8001, 32.5102, 20.8302, 67.2431, -169.32
4.344, 2, -49.3207, -13.8001, 32.5102, 20.8302, 67.2431, -169.32
4.348, 2, -49.3207, -13.8001, 32.5102, 20.8302, 67.2431, -169.32
4.352, 2, -49.3207, -13.8001, 32.5102, 20.8302, 67.2431, -169.32
4.356, 2, -49.3207, -13.8001, 32.5102, 20.8302, 67.2431, -169.32
4.36, 2, -49.3207, -13.8001, 32.5102, 20.8302, 67.2431, -169.32
4.364, 2, -49.3207, -13.8001, 32.5102, 20.8302, 67.2431, -169.32
4.368, 2, -49.3207, -13.8001, 32.5102, 20.8302, 67.2431, -169.32
4.372, 2, -49.3207, -13.8001, 32.5102, 20.8302, 67.2431, -169.32
4.376, 2, -49.3207, -13.8001, 32.5102, 20.8302, 67.2431, -169.32
4.38, 2, -49.3207, -13.8001, 32.5102, 20.8302, 67.2431, -169.32
4.384, 2, -49.3207, -13.8001, 32.5102, 20.8302, 67.2431, -169.32
4.388, 2, -49.3207, -13.8001, 32.5102, 20.8302, 67.2431, -169.32
4.392, 2, -49.3207, -13.8001, 32.5102, 20.8302, 67.2431, -169.32
4.396, 2, -49.3207, -13.8001, 32.5102, 20.8302, 67.2431, -169.32
4.4, 2, -49.3207, -13.8001, 32.5102, 20.8302, 67.2431, -169.32
4.404, 2, -49.3207, -13.8001, 32.5102, 20.8302, 67.2431, -169.32
4.408, 2, -49.3207, -13.8001, 32.5102, 20.8302, 67.2431, -169.32
4.412, 2, -49.3207, -13.8001, 32.5102, 20.8302, 67.2431, -169.32
4.416, 2, -49.3207, -13.8001, 32.5102, 20.8302, 67.2431, -169.32
4.42, 2, -49.3207, -13.8001, 32.5102, 20.8302, 67.2431, -169.32
4.424, 2, -49.3207, -13.8001, 32.5102, 20.8302, 67.2431, -169.32
4.428, 2, -49.3207, -13.8001, 32.5102, 20.8302, 67.2431, -169.32
4.432, 2, -49.3207, -13.8001, 32.5102, 20.8302, 67.2431, -169.32
4.436, 2, -49.3207, -13.8001, 32.5102, 20.8302, 67.2431, -169.32
4.44, 2, -49.3207, -13.8001, 32.5102, 20.8302, 67.2431, -169.32
4.444, 2, -49.3207, -13.8001, 32.5102, 20.8302, 67.2431, -169.32
4.448, 2, -49.3207, -13.8001, 32.5102, 20.8302, 67.2431, -169.32
4.452, 2, -49.3207, -13.8001, 32.5102, 20.8302, 67.2431, -169.32
4.456, 2, -49.3207, -13.8001, 32.5102, 20.8302, 67.2431, -169.32
4.46, 2, -49.3207, -13.8001, 32.5102, 20.8302, 67.2431, -169.32
4.464, 2, -49.3207, -13.8001, 32.5102, 20.8302, 67.2431, -169.32
4.468, 2, -49.3207, -13.8001, 32.5102, 20.8302, 67.2431, -169.32
4.472, 2, -49.3207, -13.8001, 32.5102, 20.8302, 67.2431, -169.32
4.476, 2, -49.3207, -13.8001, 32.5102, 20.8302, 67.2431, -169.32
4.48, 2, -49.3207, -13.8001, 32.5102, 20.8302, 67.2431, -169.32
4.484, 2, -49.3207, -13.8001, 32.5102, 20.8302, 67.2431, -169.32
4.488, 2, -49.3207, -13.8001, 32.5102, 20.8302, 67.2431, -169.32
4.492, 2, -49.3207, -13.8001, 32.5102, 20.8302, 67.2431, -169.32
4.496, 2, -49.3207, -13.8001, 32.5102, 20.8302, 67.2431, -169.32
4.5, 2, -49.3207, -13.8001, 32.5102, 20.8302, 67.2431, -169.32
4.504, 2, -49.3207, -13.8001, 32.5102, 20.8302, 67.2431, -169.32
4.508, 2, -49.3207, -13.8001, 32.5102, 20.8302, 67.2431, -169.32
4.512, 2, -49.3207, -13.8001, 32.5102, 20.8302, 67.2431, -169.32
4.516, 2, -49.3207, -13.8001, 32.5102, 20.8302, 67.2431, -169.32
4.52, 2, -49.3207, -13.8001, 32.5102, 20.8302, 67.2431, -169.32
4.524, 2, -49.3207, -13.8001, 32.5102, 20.8302, 67.2431, -169.32
4.528, 2, -49.3207, -13.8001, 32.5102, 20.8302, 67.2431, -169.32
4.532, 2, -49.3207, -13.8001, 32.5102, 20.8302, 67.2431, -169.32
4.536, 2, -49.3207, -13.8001, 32.5102, 20.8302, 67.2431, -169.32
4.54, 2, -49.3207, -13.8001, 32.5102, 20.8302, 67.2431, -169.32
4.544, 2, -49.3207, -13.8001, 32.5102, 20.8302, 67.2431, -169.32
4.548, 2, -49.3207, -13.8001, 32.5102, 20.8302, 67.2431, -169.32
4.552, 2, -49.3207, -13.8001, 32.5102, 20.8302, 67.2431, -169.32
4.556, 2, -49.3207, -13.8001, 32.5102, 20.8302, 67.2431, -169.32
4.56, 2, -49.3207, -13.8001, 32.5102, 20.8302, 67.2431, -169.32
4.564, 2, -49.3207, -13.8001, 32.5102, 20.8302, 67.2431, -169.32
4.568, 2, -49.3207, -13.8001, 32.5102, 20.8302, 67.2431, -169.32
4.572, 2, -49.3207, -13.8001, 32.5102, 20.8302, 67.2431, -169.32
4.576, 2, -49.3207, -13.8001, 32.5102, 20.8302, 67.2431, -169.32
4.58, 2, -49.3207, -13.8001, 32.5102, 20.8302, 67.2431, -169.32
4.584, 2, -49.3207, -13.8001, 32.5102, 20.8302, 67.2431, -169.32
4.588, 2, -49.3207, -13.8001, 32.5102, 20.8302, 67.2431, -169.32
4.592, 2, -49.3207, -13.8001, 32.5102, 20.8302, 67.2431, -169.32
4.596, 2, -49.3207, -13.8001, 32.5102, 20.8302, 67.2431, -169.32
4.6, 2, -49.3207, -13.8001, 32.5102, 20.8302, 67.2431, -169.32
4.604, 2, -49.3207, -13.8001, 32.5102, 20.8302, 67.2431, -169.32
4.608, 2, -49.3207, -13.8001, 32.5102, 20.8302, 67.2431, -169.32
4.612, 2, -49.3207, -13.8001, 32.5102, 20.8302, 67.2431, -169.32
4.616, 2, -49.3207, -13.8001, 32.5102, 20.8302, 67.2431, -169.32
4.62, 2, -49.3207, -13.8001, 32.5102, 20.8302, 67.2431, -169.32
4.624, 2, -49.3207, -13.8001, 32.5102, 20.8302, 67.2431, -169.32
4.628, 2, -49.3207, -13.8001, 32.5102, 20.8302, 67.2431, -169.32
4.632, 2, -49.3207, -13.8001, 32.5102, 20.8302, 67.2431, -169.32
4.636, 2, -49.3207, -13.8001, 32.5102, 20.8302, 67.2431, -169.32
4.64, 2, -49.3207, -13.8001, 32.5102, 20.8302, 67.2431, -169.32
4.644, 2, -49.3207, -13.8001, 32.5102, 20.8302, 67.2431, -169.32
4.648, 2, -49.3207, -13.8001, 32.5102, 20.8302, 67.2431, -169.32
4.652, 2, -49.3207, -13.8001, 32.5102, 20.8302, 67.2431, -169.32
4.656, 2, -49.3207, -13.8001, 32.5102, 20.8302, 67.2431, -169.32
4.66, 2, -49.3207, -13.8001, 32.5102, 20.8302, 67.2431, -169.32
4.664, 2, -49.3207, -13.8001, 32.5102, 20.8302, 67.2431, -169.32
4.668, 2, -49.3207, -13.8001, 32.5102, 20.8302, 67.2431, -169.32
4.672, 2, -49.3207, -13.8001, 32.5102, 20.8302, 67.2431, -169.32
4.676, 2, -49.3207, -13.8001, 32.5102, 20.8302, 67.2431, -169.32
4.68, 2, -49.3207, -13.8001, 32.5102, 20.8302, 67.2431, -169.32
4.684, 2, -49.3207, -13.8001, 32.5102, 20.8302, 67.2431, -169.32
4.688, 2, -49.3207, -13.8001, 32.5102, 20.8302, 67.2431, -169.32
4.692, 2, -49.3207, -13.8001, 32.5102, 20.8302, 67.2431, -169.32
4.696, 2, -49.3207, -13.8001, 32.5102, 20.8302, 67.2431, -169.32
4.7, 2, -49.3207, -13.8001, 32.5102, 20.8302, 67.2431, -169.32
4.704, 2, -49.3207, -13.8001, 32.5102, 20.8302, 67.2431, -169.32
4.708, 2, -49.3207, -13.8001, 32.5102, 20.8302, 67.2431, -169.32
4.712, 2, -49.3207, -13.8001, 32.5102, 20.8302, 67.2431, -169.32
4.716, 2, -49.3207, -13.8001, 32.5102, 20.8302, 67.2431, -169.32
4.72, 2, -49.3207, -13.8001, 32.5102, 20.8302, 67.2431, -169.32
4.724, 2, -49.3207, -13.8001, 32.5102, 20.8302, 67.2431, -169.32
4.728, 2, -49.3207, -13.8001, 32.5102, 20.8302, 67.2431, -169.32
4.732, 2, -49.3207, -13.8001, 32.5102, 20.8302, 67.2431, -169.32
4.736, 2, -49.3207, -13.8001, 32.5102, 20.8302, 67.2431, -169.32
4.74, 2, -49.3207, -13.8001, 32.5102, 20.8302, 67.2431, -169.32
4.744, 2, -49.3207, -13.8001, 32.5102, 20.8302, 67.2431, -169.32
4.748, 2, -49.3207, -13.8001, 32.5102, 20.8302, 67.2431, -169.32
4.752, 2, -49.3207, -13.8001, 32.5102, 20.8302, 67.2431, -169.32
4.756, 2, -49.3207, -13.8001, 32.5102, 20.8302, 67.2431, -169.32
4.76, 2, -49.3207, -13.8001, 32.5102, 20.8302, 67.2431, -169.32
4.764, 2, -49.3207, -13.8001, 32.5102, 20.8302, 67.2431, -169.32
4.768, 2, -49.3207, -13.8001, 32.5102, 20.8302, 67.2431, -169.32
4.772, 2, -49.3207, -13.8001, 32.5102, 20.8302, 67.2431, -169.32
4.776, 2, -49.3207, -13.8001, 32.5102, 20.8302, 67.2431, -169.32
4.78, 2, -49.3207, -13.8001, 32.5102, 20.8302, 67.2431, -169.32
4.784, 2, -49.3207, -13.8001, 32.5102, 20.8302, 67.2431, -169.32
4.788, 2, -49.3207, -13.8001, 32.5102, 20.8302, 67.2431, -169.32
4.792, 2, -49.3207, -13.8001, 32.5102, 20.8302, 67.2431, -169.32
4.796, 2, -49.3207, -13.8001, 32.5102, 20.8302, 67.2431, -169.32
4.8, 2, -49.3207, -13.8001, 32.5102, 20.8302, 67.2431, -169.32
4.804, 2, -49.3207, -13.8001, 32.5102, 20.8302, 67.2431, -169.32
4.808, 2, -49.3207, -13.8001, 32.5102, 20.8302, 67.2431, -169.32
4.812, 2, -49.3207, -13.8001, 32.5102, 20.8302, 67.2431, -169.32
4.816, 2, -49.3207, -13.8001, 32.5102, 20.8302, 67.2431, -169.32
4.82, 2, -49.3207, -13.8001, 32.5102, 20.8302, 67.2431, -169.32
4.824, 2, -49.3207, -13.8001, 32.5102, 20.8302, 67.2431, -169.32
4.828, 2, -49.3207, -13.8001, 32.5102, 20.8302, 67.2431, -169.32
4.832, 2, -49.3207, -13.8001, 32.5102, 20.8302, 67.2431, -169.32
4.836, 2, -49.3207, -13.8001, 32.5102, 20.8302, 67.2431, -169.32
4.84, 2, -49.3207, -13.8001, 32.5102, 20.8302, 67.2431, -169.32
4.844, 2, -49.3207, -13.8001, 32.5102, 20.8302, 67.2431, -169.32
4.848, 2, -49.3207, -13.8001, 32.5102, 20.8302, 67.2431, -169.32
4.852, 2, -49.3207, -13.8001, 32.5102, 20.8302, 67.2431, -169.32
4.856, 2, -49.3207, -13.8001, 32.5102, 20.8302, 67.2431, -169.32
4.86, 2, -49.3207, -13.8001, 32.5102, 20.8302, 67.2431, -169.32
4.864, 2, -49.3207, -13.8001, 32.5102, 20.8302, 67.2431, -169.32
4.868, 2, -49.3207, -13.8001, 32.5102, 20.8302, 67.2431, -169.32
4.872, 4, -49.3207, -13.8001, 32.5102, 20.8302, 67.2431, -169.32
4.876, 4, -49.3207, -13.8001, 32.5102, 20.8302, 67.2431, -169.32
4.88, 4, -49.3207, -13.8001, 32.5102, 20.8302, 67.2431, -169.32
4.884, 4, -49.3207, -13.8001, 32.5102, 20.8302, 67.2431, -169.32
4.888, 4, -49.3207, -13.8001, 32.5102, 20.8302, 67.2431, -169.32
4.892, 4, -49.3207, -13.8001, 32.5102, 20.8302, 67.2431, -169.32
4.896, 4, -49.3207, -13.8001, 32.5102, 20.8302, 67.2431, -169.32
4.9, 4, -49.3207, -13.8001, 32.5102, 20.8302, 67.2431, -169.32
4.904, 4, -49.3207, -13.8001, 32.5102, 20.8302, 67.2431, -169.32
4.908, 4, -49.3207, -13.8001, 32.5102, 20.8302, 67.2431, -169.32
4.912, 4, -49.3207, -13.8001, 32.5102, 20.8302, 67.2431, -169.32
4.916, 4, -49.3207, -13.8001, 32.5102, 20.8302, 67.2431, -169.32
4.92, 4, -49.3207, -13.8001, 32.5102, 20.8302, 67.2431, -169.32
4.924, 4, -49.3207, -13.8001, 32.5102, 20.8302, 67.2431, -169.32
4.928, 4, -49.3207, -13.8001, 32.5102, 20.8302, 67.2431, -169.32
4.932, 4, -49.3207, -13.8001, 32.5102, 20.8302, 67.2431, -169.32
4.936, 4, -49.3207, -13.8001, 32.5102, 20.8302, 67.2431, -169.32
4.94, 4, -49.3207, -13.8001, 32.5102, 20.8302, 67.2431, -169.32
4.944, 4, -49.3207, -13.8001, 32.5102, 20.8302, 67.2431, -169.32
4.948, 4, -49.3207, -13.8001, 32.5102, 20.8302, 67.2431, -169.32
4.952, 4, -49.3207, -13.8001, 32.5102, 20.8302, 67.2431, -169.32
4.956, 4, -49.3207, -13.8001, 32.5102, 20.8302, 67.2431, -169.32
4.96, 4, -49.3207, -13.8001, 32.5102, 20.8302, 67.2431, -169.32
4.964, 4, -49.3207, -13.8001, 32.5102, 20.8302, 67.2431, -169.32
4.968, 4, -49.3207, -13.8001, 32.5102, 20.8302, 67.2431, -169.32
4.972, 4, -49.3207, -13.8001, 32.5102, 20.8302, 67.2431, -169.32
4.978, 4, -49.3207, -13.8001, 32.5102, 20.8302, 67.2431, -169.32
4.979, 4, -49.3207, -13.8001, 32.5102, 20.8302, 67.2431, -169.32
4.984, 4, -49.3207, -13.8001, 32.5102, 20.8302, 67.2431, -169.32
4.988, 4, -49.3207, -13.8001, 32.5102, 20.8302, 67.2431, -169.32
4.992, 4, -49.3207, -13.8001, 32.5102, 20.8302, 67.2431, -169.32
4.996, 4, -49.3207, -13.8001, 32.5102, 20.8302, 67.2431, -169.32
5, 4, -49.3207, -13.8001, 32.5102, 20.8302, 67.2431, -169.32
5.004, 4, -49.3207, -13.8001, 32.5102, 20.8302, 67.2431, -169.32
5.008, 4, -49.3207, -13.8001, 32.5102, 20.8302, 67.2432, -169.32
5.012, 4, -49.3206, -13.8001, 32.5103, 20.8303, 67.2432, -169.32
5.016, 4, -49.3204, -13.8002, 32.5105, 20.8303, 67.2432, -169.32
5.02, 4, -49.32, -13.8004, 32.5109, 20.8305, 67.2434, -169.319
5.024, 4, -49.3193, -13.8008, 32.5117, 20.8309, 67.2438, -169.319
5.028, 4, -49.3182, -13.8015, 32.5131, 20.8317, 67.2445, -169.317
5.032, 4, -49.3168, -13.8024, 32.5153, 20.8331, 67.2457, -169.314
5.036, 4, -49.3151, -13.8037, 32.5185, 20.8356, 67.2478, -169.309
5.04, 4, -49.313, -13.8054, 32.5229, 20.8394, 67.251, -169.3
5.044, 4, -49.3108, -13.8075, 32.5287, 20.845, 67.2557, -169.288
5.048, 5, -49.3084, -13.8102, 32.5363, 20.8527, 67.2621, -169.271
5.052, 5, -49.3058, -13.8134, 32.5459, 20.863, 67.2706, -169.248
5.056, 5, -49.3031, -13.8172, 32.5576, 20.8761, 67.2813, -169.219
5.06, 5, -49.3001, -13.8217, 32.5716, 20.8922, 67.2945, -169.183
5.064, 5, -49.2969, -13.8269, 32.5881, 20.9115, 67.3103, -169.141
5.068, 5, -49.2935, -13.8328, 32.6071, 20.9341, 67.3288, -169.09
5.072, 5, -49.2899, -13.8394, 32.6285, 20.9599, 67.3498, -169.033
5.076, 5, -49.2862, -13.8466, 32.6522, 20.9888, 67.3733, -168.969
5.08, 5, -49.2823, -13.8544, 32.678, 21.0207, 67.3991, -168.899
5.084, 5, -49.2782, -13.8628, 32.7058, 21.0551, 67.427, -168.822
5.088, 5, -49.2738, -13.8717, 32.7353, 21.0917, 67.4567, -168.741
5.092, 5, -49.2692, -13.8811, 32.7663, 21.1303, 67.4879, -168.656
5.096, 5, -49.2642, -13.8909, 32.7986, 21.1703, 67.5203, -168.568
5.1, 5, -49.2588, -13.9011, 32.832, 21.2115, 67.5536, -168.478
5.104, 5, -49.253, -13.9115, 32.8661, 21.2535, 67.5875, -168.386
5.108, 5, -49.2469, -13.9222, 32.9008, 21.2962, 67.622, -168.293
5.112, 5, -49.2405, -13.9331, 32.936, 21.3393, 67.6567, -168.199
5.116, 5, -49.2339, -13.9441, 32.9714, 21.3828, 67.6917, -168.104
5.12, 5, -49.2271, -13.9551, 33.0069, 21.4265, 67.7269, -168.009
5.124, 5, -49.2203, -13.9662, 33.0426, 21.4705, 67.7622, -167.914
5.128, 5, -49.2133, -13.9773, 33.0783, 21.5147, 67.7976, -167.819
5.132, 5, -49.2063, -13.9884, 33.114, 21.559, 67.8331, -167.723
5.136, 5, -49.1992, -13.9995, 33.1498, 21.6034, 67.8686, -167.628
5.14, 5, -49.192, -14.0107, 33.1855, 21.648, 67.9042, -167.533
5.144, 5, -49.1848, -14.0217, 33.2212, 21.6926, 67.9397, -167.437
5.148, 5, -49.1776, -14.0328, 33.2568, 21.7374, 67.9754, -167.342
5.152, 5, -49.1703, -14.0439, 33.2924, 21.7823, 68.011, -167.246
5.156, 5, -49.163, -14.055, 33.328, 21.8273, 68.0467, -167.151
5.16, 5, -49.1556, -14.066, 33.3635, 21.8725, 68.0824, -167.055
5.164, 5, -49.1482, -14.077, 33.399, 21.9177, 68.1181, -166.96
5.168, 5, -49.1407, -14.088, 33.4344, 21.963, 68.1539, -166.865
5.172, 5, -49.1332, -14.099, 33.4698, 22.0084, 68.1897, -166.769
5.176, 5, -49.1256, -14.11, 33.5052, 22.054, 68.2255, -166.674
5.18, 5, -49.1181, -14.1209, 33.5404, 22.0996, 68.2613, -166.579
5.184, 5, -49.1104, -14.1318, 33.5757, 22.1453, 68.2971, -166.483
5.188, 5, -49.1028, -14.1427, 33.6109, 22.1912, 68.333, -166.388
5.192, 5, -49.0951, -14.1536, 33.646, 22.2371, 68.3689, -166.293
5.196, 5, -49.0873, -14.1645, 33.6811, 22.2832, 68.4047, -166.197
5.2, 5, -49.0795, -14.1753, 33.7162, 22.3293, 68.4407, -166.102
5.204, 5, -49.0717, -14.1862, 33.7512, 22.3756, 68.4766, -166.007
5.208, 5, -49.0639, -14.197, 33.7861, 22.4219, 68.5126, -165.912
5.212, 5, -49.056, -14.2077, 33.821, 22.4684, 68.5485, -165.817
5.216, 5, -49.048, -14.2185, 33.8559, 22.515, 68.5845, -165.721
5.22, 5, -49.04, -14.2293, 33.8907, 22.5616, 68.6205, -165.626
5.224, 5, -49.032, -14.24, 33.9255, 22.6084, 68.6566, -165.531
5.228, 5, -49.024, -14.2507, 33.9602, 22.6553, 68.6926, -165.436
5.232, 5, -49.0159, -14.2614, 33.9949, 22.7023, 68.7287, -165.341
5.236, 5, -49.0077, -14.2721, 34.0295, 22.7494, 68.7648, -165.246
5.24, 5, -48.9996, -14.2827, 34.0641, 22.7966, 68.8009, -165.151
5.244, 5, -48.9914, -14.2933, 34.0986, 22.8439, 68.837, -165.056
5.248, 5, -48.9831, -14.304, 34.1331, 22.8913, 68.8731, -164.961
5.252, 5, -48.9748, -14.3145, 34.1675, 22.9388, 68.9093, -164.866
5.256, 5, -48.9665, -14.3251, 34.2019, 22.9864, 68.9454, -164.771
5.26, 5, -48.9581, -14.3357, 34.2362, 23.0341, 68.9816, -164.676
5.264, 5, -48.9497, -14.3462, 34.2705, 23.0819, 69.0178, -164.582
5.268, 5, -48.9413, -14.3567, 34.3047, 23.1299, 69.054, -164.487
5.272, 5, -48.9328, -14.3672, 34.3389, 23.1779, 69.0902, -164.392
5.276, 5, -48.9243, -14.3777, 34.373, 23.226, 69.1265, -164.297
5.28, 5, -48.9158, -14.3881, 34.4071, 23.2743, 69.1627, -164.202
5.284, 5, -48.9072, -14.3985, 34.4412, 23.3226, 69.199, -164.108
5.288, 5, -48.8985, -14.409, 34.4752, 23.3711, 69.2353, -164.013
5.292, 5, -48.8899, -14.4193, 34.5091, 23.4196, 69.2716, -163.918
5.296, 5, -48.8812, -14.4297, 34.543, 23.4683, 69.3079, -163.823
5.3, 5, -48.8724, -14.4401, 34.5769, 23.5171, 69.3442, -163.729
5.304, 5, -48.8636, -14.4504, 34.6107, 23.566, 69.3806, -163.634
5.308, 5, -48.8548, -14.4607, 34.6445, 23.6149, 69.4169, -163.539
5.312, 5, -48.846, -14.471, 34.6782, 23.664, 69.4533, -163.445
5.318, 5, -48.8282, -14.4915, 34.7454, 23.7625, 69.5261, -163.256
5.32, 5, -48.8282, -14.4915, 34.7454, 23.7625, 69.5261, -163.256
5.324, 5, -48.8192, -14.5017, 34.779, 23.8119, 69.5625, -163.161
5.328, 5, -48.8102, -14.5119, 34.8125, 23.8615, 69.5989, -163.067
5.332, 5, -48.8012, -14.5221, 34.846, 23.9111, 69.6353, -162.972
5.336, 5, -48.7921, -14.5322, 34.8794, 23.9608, 69.6717, -162.878
5.34, 5, -48.783, -14.5424, 34.9128, 24.0106, 69.7082, -162.783
5.344, 5, -48.7738, -14.5525, 34.9461, 24.0606, 69.7446, -162.689
5.348, 5, -48.7646, -14.5626, 34.9794, 24.1106, 69.7811, -162.595
5.352, 5, -48.7554, -14.5727, 35.0127, 24.1608, 69.8176, -162.5
5.356, 5, -48.7462, -14.5827, 35.0459, 24.2111, 69.854, -162.406
5.36, 5, -48.7369, -14.5928, 35.079, 24.2614, 69.8905, -162.312
5.364, 5, -48.7275, -14.6028, 35.1121, 24.3119, 69.927, -162.217
5.368, 5, -48.7182, -14.6128, 35.1451, 24.3625, 69.9636, -162.123
5.372, 5, -48.7088, -14.6227, 35.1781, 24.4132, 70.0001, -162.029
5.376, 5, -48.6993, -14.6327, 35.2111, 24.464, 70.0366, -161.935
5.38, 5, -48.6899, -14.6426, 35.244, 24.5149, 70.0732, -161.841
5.384, 5, -48.6804, -14.6525, 35.2768, 24.5659, 70.1097, -161.747
5.388, 5, -48.6708, -14.6624, 35.3097, 24.617, 70.1463, -161.652
5.392, 5, -48.6612, -14.6723, 35.3424, 24.6683, 70.1828, -161.558
5.396, 5, -48.6516, -14.6821, 35.3751, 24.7196, 70.2194, -161.464
5.4, 5, -48.642, -14.6919, 35.4078, 24.7711, 70.256, -161.37
5.404, 5, -48.6323, -14.7017, 35.4404, 24.8226, 70.2925, -161.276
5.408, 5, -48.6226, -14.7115, 35.473, 24.8743, 70.3291, -161.182
5.412, 5, -48.6128, -14.7212, 35.5055, 24.926, 70.3657, -161.088
5.416, 5, -48.603, -14.731, 35.538, 24.9779, 70.4023, -160.994
5.42, 5, -48.5932, -14.7407, 35.5704, 25.0299, 70.4389, -160.9
5.424, 5, -48.5834, -14.7504, 35.6028, 25.082, 70.4755, -160.807
5.428, 5, -48.5735, -14.76, 35.6351, 25.1342, 70.5122, -160.713
5.432, 5, -48.5635, -14.7697, 35.6674, 25.1865, 70.5488, -160.619
5.436, 5, -48.5536, -14.7793, 35.6997, 25.239, 70.5854, -160.525
5.44, 5, -48.5436, -14.7889, 35.7319, 25.2915, 70.622, -160.431
5.444, 5, -48.5335, -14.7985, 35.764, 25.3441, 70.6587, -160.338
5.448, 5, -48.5235, -14.808, 35.7961, 25.3969, 70.6953, -160.244
5.452, 5, -48.5134, -14.8175, 35.8282, 25.4498, 70.732, -160.15
5.456, 5, -48.5032, -14.8271, 35.8602, 25.5027, 70.7686, -160.056
5.46, 5, -48.4931, -14.8365, 35.8921, 25.5558, 70.8053, -159.963
5.464, 5, -48.4829, -14.846, 35.9241, 25.609, 70.8419, -159.869
5.468, 5, -48.4726, -14.8554, 35.9559, 25.6623, 70.8786, -159.776
5.472, 5, -48.4623, -14.8649, 35.9877, 25.7157, 70.9152, -159.682
5.476, 5, -48.452, -14.8743, 36.0195, 25.7692, 70.9519, -159.588
5.48, 5, -48.4417, -14.8836, 36.0512, 25.8229, 70.9885, -159.495
5.484, 5, -48.4313, -14.893, 36.0829, 25.8766, 71.0252, -159.402
5.488, 5, -48.4209, -14.9023, 36.1145, 25.9304, 71.0619, -159.308
5.492, 5, -48.4105, -14.9116, 36.1461, 25.9844, 71.0985, -159.215
5.496, 5, -48.4, -14.9209, 36.1777, 26.0385, 71.1352, -159.121
5.5, 5, -48.3895, -14.9302, 36.2092, 26.0927, 71.1719, -159.028
5.504, 5, -48.379, -14.9394, 36.2406, 26.147, 71.2085, -158.935
5.508, 5, -48.3684, -14.9486, 36.272, 26.2014, 71.2452, -158.841
5.512, 5, -48.3578, -14.9578, 36.3033, 26.2559, 71.2819, -158.748
5.516, 5, -48.3472, -14.967, 36.3346, 26.3105, 71.3185, -158.655
5.52, 5, -48.3365, -14.9761, 36.3659, 26.3652, 71.3552, -158.561
5.524, 5, -48.3258, -14.9852, 36.3971, 26.4201, 71.3918, -158.468
5.528, 5, -48.315, -14.9943, 36.4283, 26.475, 71.4285, -158.375
5.532, 5, -48.3043, -15.0034, 36.4594, 26.5301, 71.4652, -158.282
5.536, 5, -48.2935, -15.0124, 36.4905, 26.5853, 71.5018, -158.189
5.54, 5, -48.2826, -15.0215, 36.5215, 26.6406, 71.5385, -158.096
5.544, 5, -48.2718, -15.0305, 36.5525, 26.696, 71.5751, -158.003
5.548, 5, -48.2609, -15.0394, 36.5834, 26.7515, 71.6118, -157.91
5.552, 5, -48.25, -15.0484, 36.6143, 26.8071, 71.6484, -157.817
5.556, 5, -48.239, -15.0573, 36.6451, 26.8629, 71.6851, -157.724
5.56, 5, -48.228, -15.0662, 36.6759, 26.9187, 71.7217, -157.631
5.564, 5, -48.217, -15.0751, 36.7066, 26.9747, 71.7583, -157.538
5.568, 5, -48.2059, -15.084, 36.7373, 27.0308, 71.795, -157.445
5.572, 5, -48.1948, -15.0928, 36.768, 27.0869, 71.8316, -157.352
5.576, 5, -48.1837, -15.1016, 36.7986, 27.1432, 71.8682, -157.259
5.58, 5, -48.1725, -15.1104, 36.8292, 27.1997, 71.9049, -157.166
5.584, 5, -48.1614, -15.1192, 36.8597, 27.2562, 71.9415, -157.074
5.588, 5, -48.1501, -15.1279, 36.8901, 27.3128, 71.9781, -156.981
5.592, 5, -48.1389, -15.1367, 36.9206, 27.3696, 72.0147, -156.888
5.596, 5, -48.1276, -15.1454, 36.951, 27.4264, 72.0513, -156.795
5.6, 5, -48.1163, -15.154, 36.9813, 27.4834, 72.0879, -156.703
5.604, 5, -48.105, -15.1627, 37.0116, 27.5405, 72.1245, -156.61
5.608, 5, -48.0936, -15.1713, 37.0418, 27.5977, 72.1611, -156.518
5.612, 5, -48.0822, -15.1799, 37.072, 27.655, 72.1976, -156.425
5.616, 5, -48.0707, -15.1885, 37.1022, 27.7125, 72.2342, -156.332
5.62, 5, -48.0593, -15.197, 37.1323, 27.77, 72.2708, -156.24
5.624, 5, -48.0478, -15.2056, 37.1623, 27.8277, 72.3073, -156.147
5.628, 5, -48.0362, -15.2141, 37.1923, 27.8854, 72.3439, -156.055
5.632, 5, -48.0247, -15.2225, 37.2223, 27.9433, 72.3804, -155.963
5.636, 5, -48.0131, -15.231, 37.2522, 28.0013, 72.417, -155.87
5.64, 5, -48.0015, -15.2394, 37.2821, 28.0594, 72.4535, -155.778
5.644, 5, -47.9898, -15.2478, 37.3119, 28.1176, 72.49, -155.685
5.648, 5, -47.9781, -15.2562, 37.3417, 28.176, 72.5265, -155.593
5.652, 5, -47.9664, -15.2646, 37.3715, 28.2344, 72.563, -155.501
5.656, 5, -47.9547, -15.2729, 37.4012, 28.293, 72.5995, -155.409
5.66, 5, -47.9429, -15.2812, 37.4308, 28.3517, 72.636, -155.316
5.664, 5, -47.9311, -15.2895, 37.4604, 28.4105, 72.6725, -155.224
5.668, 5, -47.9193, -15.2978, 37.49, 28.4694, 72.7089, -155.132
5.672, 5, -47.9074, -15.306, 37.5195, 28.5284, 72.7454, -155.04
5.676, 5, -47.8955, -15.3142, 37.549, 28.5875, 72.7818, -154.948
5.68, 5, -47.8836, -15.3224, 37.5784, 28.6467, 72.8183, -154.856
5.684, 5, -47.8716, -15.3306, 37.6078, 28.7061, 72.8547, -154.764
5.688, 5, -47.8596, -15.3387, 37.6371, 28.7656, 72.8911, -154.672
5.692, 5, -47.8476, -15.3468, 37.6664, 28.8252, 72.9275, -154.58
5.696, 5, -47.8356, -15.3549, 37.6957, 28.8848, 72.9639, -154.488
5.7, 5, -47.8235, -15.363, 37.7249, 28.9447, 73.0003, -154.396
5.704, 5, -47.8114, -15.371, 37.7541, 29.0046, 73.0366, -154.304
5.708, 5, -47.7993, -15.3791, 37.7832, 29.0646, 73.073, -154.212
5.712, 5, -47.7871, -15.3871, 37.8122, 29.1248, 73.1093, -154.12
5.716, 5, -47.7749, -15.395, 37.8413, 29.185, 73.1457, -154.028
5.72, 5, -47.7627, -15.403, 37.8703, 29.2454, 73.182, -153.936
5.724, 5, -47.7505, -15.4109, 37.8992, 29.3059, 73.2183, -153.845
5.728, 5, -47.7382, -15.4188, 37.9281, 29.3665, 73.2546, -153.753
5.732, 5, -47.7259, -15.4267, 37.9569, 29.4272, 73.2908, -153.661
5.736, 5, -47.7135, -15.4345, 37.9857, 29.4881, 73.3271, -153.57
5.74, 5, -47.7012, -15.4423, 38.0145, 29.549, 73.3633, -153.478
5.744, 5, -47.6888, -15.4501, 38.0432, 29.6101, 73.3996, -153.387
5.75, 5, -47.6639, -15.4656, 38.1005, 29.7325, 73.472, -153.203
5.752, 5, -47.6639, -15.4656, 38.1005, 29.7325, 73.472, -153.203
5.756, 5, -47.6514, -15.4734, 38.1291, 29.7939, 73.5082, -153.112
5.76, 5, -47.6389, -15.4811, 38.1577, 29.8555, 73.5444, -153.02
5.764, 5, -47.6264, -15.4887, 38.1862, 29.9171, 73.5805, -152.929
5.768, 5, -47.6138, -15.4964, 38.2146, 29.9788, 73.6167, -152.838
5.772, 5, -47.6012, -15.504, 38.243, 30.0407, 73.6528, -152.746
5.776, 5, -47.5886, -15.5116, 38.2714, 30.1027, 73.6889, -152.655
5.78, 5, -47.5759, -15.5192, 38.2997, 30.1648, 73.725, -152.564
5.784, 5, -47.5633, -15.5267, 38.328, 30.227, 73.7611, -152.472
5.788, 5, -47.5506, -15.5342, 38.3562, 30.2893, 73.7971, -152.381
5.792, 5, -47.5378, -15.5417, 38.3844, 30.3517, 73.8332, -152.29
5.796, 5, -47.5251, -15.5492, 38.4126, 30.4142, 73.8692, -152.199
5.8, 5, -47.5123, -15.5567, 38.4407, 30.4769, 73.9052, -152.108
5.804, 5, -47.4995, -15.5641, 38.4688, 30.5397, 73.9412, -152.016
5.808, 5, -47.4866, -15.5715, 38.4968, 30.6026, 73.9772, -151.925
5.812, 5, -47.4738, -15.5788, 38.5248, 30.6656, 74.0131, -151.834
5.816, 5, -47.4608, -15.5862, 38.5527, 30.7287, 74.0491, -151.743
5.82, 5, -47.4479, -15.5935, 38.5806, 30.7919, 74.085, -151.652
5.824, 5, -47.435, -15.6008, 38.6084, 30.8553, 74.1209, -151.561
5.828, 5, -47.422, -15.6081, 38.6362, 30.9187, 74.1567, -151.47
5.832, 5, -47.409, -15.6153, 38.664, 30.9823, 74.1926, -151.38
5.836, 5, -47.3959, -15.6225, 38.6917, 31.046, 74.2284, -151.289
5.84, 5, -47.3829, -15.6297, 38.7194, 31.1098, 74.2643, -151.198
5.844, 5, -47.3698, -15.6369, 38.747, 31.1737, 74.3, -151.107
5.848, 5, -47.3567, -15.644, 38.7746, 31.2377, 74.3358, -151.016
5.852, 5, -47.3435, -15.6512, 38.8022, 31.3019, 74.3716, -150.926
5.856, 5, -47.3304, -15.6582, 38.8297, 31.3661, 74.4073, -150.835
5.86, 5, -47.3172, -15.6653, 38.8571, 31.4305, 74.443, -150.744
5.864, 5, -47.3039, -15.6724, 38.8845, 31.495, 74.4787, -150.654
5.868, 5, -47.2907, -15.6794, 38.9119, 31.5596, 74.5144, -150.563
5.872, 5, -47.2774, -15.6864, 38.9392, 31.6243, 74.55, -150.473
5.876, 5, -47.2641, -15.6933, 38.9665, 31.6892, 74.5856, -150.382
5.88, 5, -47.2508, -15.7003, 38.9938, 31.7541, 74.6212, -150.292
5.884, 5, -47.2374, -15.7072, 39.021, 31.8192, 74.6568, -150.201
5.888, 5, -47.224, -15.7141, 39.0481, 31.8844, 74.6924, -150.111
5.892, 5, -47.2106, -15.7209, 39.0753, 31.9497, 74.7279, -150.02
5.896, 5, -47.1972, -15.7278, 39.1023, 32.0151, 74.7634, -149.93
5.9, 5, -47.1836, -15.7346, 39.1294, 32.0806, 74.7989, -149.84
5.904, 5, -47.17, -15.7415, 39.1564, 32.1462, 74.8343, -149.75
5.908, 5, -47.1562, -15.7483, 39.1833, 32.2119, 74.8697, -149.659
5.912, 5, -47.1423, -15.7552, 39.2102, 32.2777, 74.9051, -149.569
5.916, 5, -47.1283, -15.7621, 39.2371, 32.3435, 74.9404, -149.479
5.92, 5, -47.114, -15.7691, 39.2639, 32.4092, 74.9757, -149.389
5.924, 5, -47.0995, -15.7761, 39.2906, 32.4749, 75.0108, -149.299
5.928, 5, -47.0848, -15.7833, 39.3173, 32.5405, 75.0459, -149.21
5.932, 5, -47.0698, -15.7905, 39.3439, 32.6058, 75.0808, -149.12
5.936, 5, -47.0546, -15.7978, 39.3704, 32.6708, 75.1156, -149.031
5.94, 5, -47.0391, -15.8052, 39.3968, 32.7354, 75.1501, -148.942
5.944, 5, -47.0233, -15.8127, 39.4232, 32.7995, 75.1844, -148.853
5.948, 5, -47.0072, -15.8204, 39.4495, 32.8631, 75.2185, -148.764
5.952, 6, -46.9907, -15.8282, 39.4756, 32.926, 75.2523, -148.676
5.956, 6, -46.9738, -15.8362, 39.5017, 32.9881, 75.2857, -148.589
5.96, 6, -46.9565, -15.8444, 39.5276, 33.0495, 75.3188, -148.502
