hehonglu123/Motion-Primitive-Planning/ILC/recorded_data/realrobot/wood/iteration_14/run_4.csv
timestamp, cmd_num, J1, J2, J3, J4, J5, J6
0.00036, -1, 11.3757, 13.6141, 17.3366, -145.52, -97.9256, 142.516
0.003105, -1, 11.3756, 13.6141, 17.3366, -145.52, -97.9256, 142.516
0.00792, -1, 11.3756, 13.6141, 17.3366, -145.52, -97.9256, 142.516
0.028355, -1, 11.3757, 13.6141, 17.3366, -145.521, -97.9256, 142.516
0.031122, -1, 11.3757, 13.6141, 17.3366, -145.521, -97.9256, 142.516
0.032371, -1, 11.3757, 13.6141, 17.3366, -145.521, -97.9256, 142.516
0.039778, -1, 11.3757, 13.6141, 17.3366, -145.521, -97.9256, 142.516
0.047722, -1, 11.3756, 13.6141, 17.3366, -145.521, -97.9257, 142.516
0.055788, -1, 11.3751, 13.6141, 17.3366, -145.521, -97.9257, 142.516
0.063719, -1, 11.3723, 13.6139, 17.3365, -145.521, -97.9257, 142.516
0.071759, -1, 11.3657, 13.6131, 17.3363, -145.521, -97.9256, 142.515
0.079784, -1, 11.3545, 13.6114, 17.3359, -145.521, -97.9256, 142.514
0.087719, -1, 11.337, 13.608, 17.3351, -145.523, -97.9254, 142.506
0.095712, -1, 11.3101, 13.602, 17.3343, -145.526, -97.9247, 142.485
0.103807, -1, 11.2716, 13.5928, 17.3337, -145.533, -97.9228, 142.446
0.111783, -1, 11.2214, 13.5804, 17.3339, -145.545, -97.9194, 142.381
0.119709, -1, 11.1596, 13.565, 17.3356, -145.562, -97.9139, 142.285
0.127866, -1, 11.0863, 13.5459, 17.3396, -145.585, -97.9061, 142.154
0.135715, -1, 11.0011, 13.5229, 17.346, -145.614, -97.8959, 141.989
0.143824, -1, 10.9042, 13.4965, 17.3545, -145.648, -97.8837, 141.791
0.152012, -1, 10.7966, 13.4668, 17.365, -145.687, -97.87, 141.565
0.159803, -1, 10.678, 13.434, 17.3762, -145.729, -97.8552, 141.318
0.167872, -1, 10.5489, 13.3983, 17.3874, -145.774, -97.8398, 141.058
0.176186, -1, 10.4108, 13.3603, 17.3981, -145.82, -97.8239, 140.789
0.183832, -1, 10.2658, 13.3207, 17.4083, -145.867, -97.8077, 140.514
0.19188, -1, 10.1163, 13.2803, 17.4184, -145.914, -97.7911, 140.237
0.200349, -1, 9.96395, 13.2393, 17.4285, -145.962, -97.7741, 139.958
0.207766, -1, 9.80923, 13.1979, 17.4385, -146.01, -97.7569, 139.679
0.215807, -1, 9.65365, 13.1565, 17.4486, -146.058, -97.7397, 139.4
0.224679, -1, 9.49844, 13.1152, 17.4586, -146.106, -97.7226, 139.12
0.231829, -1, 9.34374, 13.074, 17.4684, -146.154, -97.7058, 138.841
0.240245, -1, 9.1893, 13.0329, 17.4784, -146.202, -97.689, 138.561
0.246731, -1, 9.11226, 13.0123, 17.4834, -146.225, -97.6807, 138.421
0.254766, -1, 8.95848, 12.9712, 17.4935, -146.274, -97.6639, 138.141
0.264139, -1, 8.72807, 12.9097, 17.5088, -146.346, -97.6384, 137.721
0.270915, -1, 8.65148, 12.8891, 17.5138, -146.369, -97.6296, 137.581
0.280255, -1, 8.42223, 12.8273, 17.5289, -146.442, -97.6033, 137.161
0.288226, -1, 8.26925, 12.786, 17.5391, -146.489, -97.5861, 136.881
0.296941, -1, 8.1158, 12.7444, 17.5492, -146.537, -97.569, 136.601
0.304348, -1, 7.96194, 12.7028, 17.5595, -146.586, -97.5522, 136.321
0.312299, -1, 7.88475, 12.682, 17.5696, -146.633, -97.5356, 136.04
0.32106, -1, 7.72999, 12.6403, 17.5746, -146.657, -97.5273, 135.76
0.326735, -1, 7.57509, 12.5986, 17.5848, -146.705, -97.5106, 135.62
0.33682, -1, 7.34261, 12.5363, 17.6, -146.777, -97.485, 135.199
0.344781, -1, 7.18767, 12.4948, 17.6102, -146.825, -97.4676, 134.919
0.351697, -1, 7.11017, 12.474, 17.6154, -146.849, -97.4589, 134.779
0.359706, -1, 6.955, 12.4326, 17.6257, -146.898, -97.4418, 134.499
0.498608, -1, 4.24111, 11.7062, 17.8068, -147.74, -97.1427, 129.585
0.499894, -1, 4.24111, 11.7062, 17.8068, -147.74, -97.1427, 129.585
0.502598, -1, 4.24111, 11.7062, 17.8068, -147.764, -97.1341, 129.445
0.503866, -1, 4.16351, 11.6854, 17.812, -147.764, -97.1341, 129.445
0.505052, -1, 4.16351, 11.6854, 17.812, -147.764, -97.1341, 129.445
0.507147, -1, 4.08601, 11.6647, 17.8172, -147.788, -97.1256, 129.304
0.50834, -1, 4.08601, 11.6647, 17.8172, -147.788, -97.1256, 129.304
0.512816, -1, 4.00863, 11.644, 17.8224, -147.812, -97.1172, 129.163
0.515763, -1, 3.93135, 11.6233, 17.8275, -147.836, -97.1087, 129.023
0.516965, -1, 3.93135, 11.6233, 17.8275, -147.836, -97.1087, 129.023
0.519088, -1, 3.85413, 11.6025, 17.8327, -147.861, -97.1003, 128.882
0.520277, -1, 3.85413, 11.6025, 17.8327, -147.861, -97.1003, 128.882
0.522156, -1, 3.77694, 11.5818, 17.8379, -147.885, -97.0919, 128.742
0.523632, -1, 3.77694, 11.5818, 17.8379, -147.885, -97.0919, 128.742
0.52483, -1, 3.77694, 11.5818, 17.8379, -147.885, -97.0919, 128.742
0.527836, -1, 3.69973, 11.561, 17.843, -147.909, -97.0835, 128.601
0.529053, -1, 3.69973, 11.561, 17.843, -147.909, -97.0835, 128.601
0.531125, -1, 3.62246, 11.5401, 17.8482, -147.933, -97.075, 128.46
0.532318, -1, 3.62246, 11.5401, 17.8482, -147.933, -97.075, 128.46
0.534261, -1, 3.54519, 11.5193, 17.8533, -147.957, -97.0664, 128.319
0.535715, -1, 3.54519, 11.5193, 17.8533, -147.957, -97.0664, 128.319
0.536912, -1, 3.54519, 11.5193, 17.8533, -147.957, -97.0664, 128.319
0.546267, -1, 3.31306, 11.4568, 17.869, -148.03, -97.0403, 127.897
0.551699, -1, 3.23557, 11.436, 17.8742, -148.054, -97.0315, 127.756
0.559763, -1, 3.08044, 11.3942, 17.8846, -148.102, -97.014, 127.475
0.5677, -1, 2.92511, 11.3524, 17.895, -148.15, -96.9967, 127.193
0.575756, -1, 2.76959, 11.3107, 17.9053, -148.199, -96.9798, 126.911
0.583776, -1, 2.61376, 11.269, 17.9157, -148.247, -96.963, 126.63
0.591691, -1, 2.45762, 11.2272, 17.9261, -148.295, -96.9462, 126.348
0.599704, -1, 2.30125, 11.1855, 17.9365, -148.344, -96.9294, 126.066
0.607769, -1, 2.14469, 11.1438, 17.9469, -148.391, -96.9122, 125.784
0.615696, -1, 1.98788, 11.102, 17.9573, -148.44, -96.8949, 125.502
0.623879, -1, 1.83136, 11.0604, 17.9677, -148.489, -96.8774, 125.221
0.631746, -1, 1.67497, 11.0187, 17.9781, -148.537, -96.86, 124.938
0.639767, -1, 1.51878, 10.9769, 17.9886, -148.586, -96.8429, 124.656
0.647725, -1, 1.36284, 10.9353, 17.999, -148.634, -96.826, 124.374
0.65578, -1, 1.20706, 10.8936, 18.0094, -148.682, -96.8092, 124.092
0.792182, -1, -1.44738, 10.1825, 18.1864, -149.507, -96.5181, 119.286
0.79363, -1, -1.44738, 10.1825, 18.1864, -149.507, -96.5181, 119.286
0.794825, -1, -1.44738, 10.1825, 18.1864, -149.507, -96.5181, 119.286
0.796889, -1, -1.52574, 10.1616, 18.1916, -149.531, -96.5097, 119.144
0.798098, -1, -1.52574, 10.1616, 18.1916, -149.531, -96.5097, 119.144
0.800174, -1, -1.52574, 10.1616, 18.1969, -149.555, -96.5012, 119.002
0.801654, -1, -1.60394, 10.1407, 18.1969, -149.555, -96.5012, 119.002
0.808319, -1, -1.76008, 10.0988, 18.2074, -149.604, -96.4841, 118.719
0.809771, -1, -1.76008, 10.0988, 18.2074, -149.604, -96.4841, 118.719
0.81098, -1, -1.76008, 10.0988, 18.2074, -149.604, -96.4841, 118.719
0.813014, -1, -1.83801, 10.0779, 18.2127, -149.628, -96.4755, 118.577
0.814212, -1, -1.83801, 10.0779, 18.2127, -149.628, -96.4755, 118.577
0.815516, -1, -1.83801, 10.0779, 18.2127, -149.628, -96.4755, 118.577
0.817576, -1, -1.91584, 10.0569, 18.2179, -149.653, -96.4668, 118.436
0.818771, -1, -1.91584, 10.0569, 18.2179, -149.653, -96.4668, 118.436
0.821248, -1, -1.99358, 10.036, 18.2231, -149.677, -96.458, 118.294
0.822473, -1, -1.99358, 10.036, 18.2231, -149.677, -96.458, 118.294
0.824313, -1, -1.99358, 10.036, 18.2231, -149.701, -96.4492, 118.152
0.825703, -1, -2.0712, 10.015, 18.2283, -149.701, -96.4492, 118.152
0.827009, -1, -2.0712, 10.015, 18.2283, -149.701, -96.4492, 118.152
0.830577, -1, -2.14875, 9.99409, 18.2335, -149.726, -96.4404, 118.01
0.832736, -1, -2.22632, 9.97315, 18.2387, -149.75, -96.4316, 117.869
0.841806, -1, -2.38159, 9.93125, 18.2491, -149.799, -96.4143, 117.585
0.847726, -1, -2.45935, 9.91026, 18.2543, -149.823, -96.4057, 117.443
0.85571, -1, -2.61499, 9.86829, 18.2647, -149.871, -96.3888, 117.159
0.863686, -1, -2.77095, 9.82637, 18.2751, -149.92, -96.372, 116.875
0.87174, -1, -2.92742, 9.78439, 18.2855, -149.968, -96.3552, 116.592
0.879699, -1, -3.08423, 9.74245, 18.2959, -150.017, -96.3382, 116.308
0.887686, -1, -3.24139, 9.70053, 18.3063, -150.066, -96.3208, 116.024
0.895743, -1, -3.39902, 9.65852, 18.3168, -150.114, -96.3032, 115.74
0.903693, -1, -3.5568, 9.61653, 18.3273, -150.163, -96.2857, 115.457
0.911791, -1, -3.71461, 9.57467, 18.3377, -150.212, -96.2683, 115.172
0.919676, -1, -3.87258, 9.53271, 18.3481, -150.26, -96.2512, 114.888
0.927691, -1, -4.03053, 9.4907, 18.3585, -150.31, -96.2342, 114.604
0.93575, -1, -4.18837, 9.44881, 18.3688, -150.358, -96.2172, 114.32
0.943679, -1, -4.34618, 9.40683, 18.3791, -150.407, -96.2001, 114.035
0.951698, -1, -4.50364, 9.36482, 18.3895, -150.456, -96.1828, 113.75
0.960689, -1, -4.66065, 9.32279, 18.3999, -150.505, -96.1651, 113.466
0.967729, -1, -4.81719, 9.28075, 18.4103, -150.553, -96.1473, 113.181
0.976698, -1, -4.97348, 9.23865, 18.4208, -150.603, -96.1298, 112.896
0.983748, -1, -5.12953, 9.19663, 18.4314, -150.651, -96.1126, 112.611
0.991694, -1, -5.28538, 9.15456, 18.4419, -150.7, -96.0956, 112.327
0.999689, -1, -5.44139, 9.11238, 18.4524, -150.749, -96.0787, 112.042
1.00775, -1, -5.59757, 9.0703, 18.4628, -150.798, -96.0618, 111.757
1.01569, -1, -5.75403, 9.02822, 18.4733, -150.846, -96.0446, 111.472
1.02393, -1, -5.91094, 8.98603, 18.4837, -150.895, -96.0272, 111.188
1.03169, -1, -6.06833, 8.9439, 18.494, -150.944, -96.0096, 110.903
1.03969, -1, -6.2263, 8.90178, 18.5044, -150.993, -95.992, 110.617
1.04845, -1, -6.3846, 8.85964, 18.5148, -151.042, -95.9747, 110.332
1.05568, -1, -6.54302, 8.81756, 18.5251, -151.091, -95.9576, 110.047
1.06369, -1, -6.7016, 8.77541, 18.5357, -151.14, -95.9406, 109.761
1.07256, -1, -6.86029, 8.73326, 18.5462, -151.189, -95.9236, 109.476
1.07973, -1, -7.01878, 8.69119, 18.5567, -151.238, -95.9065, 109.19
1.08769, -1, -7.17731, 8.64906, 18.5672, -151.287, -95.889, 108.905
1.09649, -1, -7.33564, 8.60691, 18.5775, -151.336, -95.8714, 108.619
1.10369, -1, -7.4937, 8.56462, 18.588, -151.385, -95.8536, 108.333
1.1117, -1, -7.65136, 8.52232, 18.5985, -151.434, -95.8361, 108.047
1.12047, -1, -7.80865, 8.48006, 18.6089, -151.483, -95.8189, 107.762
1.12768, -1, -7.96565, 8.4378, 18.6194, -151.532, -95.8018, 107.476
1.13584, -1, -8.1223, 8.39543, 18.6297, -151.581, -95.7849, 107.19
1.14505, -1, -8.27876, 8.35311, 18.6402, -151.63, -95.7679, 106.904
1.15173, -1, -8.43544, 8.31074, 18.6508, -151.679, -95.7506, 106.618
1.16002, -1, -8.59246, 8.26835, 18.6613, -151.728, -95.7332, 106.332
1.16777, -1, -8.74984, 8.22608, 18.6718, -151.778, -95.7154, 106.046
1.17577, -1, -8.90756, 8.18376, 18.6821, -151.826, -95.6978, 105.759
1.1842, -1, -9.06564, 8.14143, 18.6926, -151.875, -95.6805, 105.473
1.19126, -1, -9.14486, 8.09916, 18.7031, -151.925, -95.6634, 105.187
1.19968, -1, -9.38311, 8.05685, 18.7135, -151.974, -95.6463, 104.9
1.20844, -1, -9.54219, 8.01453, 18.724, -152.023, -95.6292, 104.613
1.21571, -1, -9.70131, 7.97231, 18.7345, -152.073, -95.6118, 104.326
1.22371, -1, -9.86059, 7.93004, 18.7449, -152.121, -95.5943, 104.039
1.2326, -1, -10.02, 7.88765, 18.7556, -152.171, -95.5764, 103.752
1.23988, -1, -10.1792, 7.84524, 18.7662, -152.22, -95.5586, 103.465
1.24677, -1, -10.2588, 7.82399, 18.7715, -152.245, -95.5498, 103.322
1.2568, -1, -10.4972, 7.76023, 18.7873, -152.319, -95.5238, 102.892
1.26403, -1, -10.6557, 7.71778, 18.7978, -152.368, -95.5068, 102.605
1.27213, -1, -10.8138, 7.67524, 18.8083, -152.417, -95.4898, 102.318
1.27868, -1, -10.8927, 7.65394, 18.8135, -152.442, -95.4812, 102.174
1.28674, -1, -11.0505, 7.61138, 18.8239, -152.491, -95.464, 101.887
1.29623, -1, -11.2867, 7.54765, 18.8396, -152.565, -95.4375, 101.456
1.30507, -1, -11.4442, 7.50517, 18.8501, -152.615, -95.4198, 101.168
1.31228, -1, -11.6017, 7.46266, 18.8606, -152.664, -95.4022, 100.881
1.32045, -1, -11.7596, 7.4202, 18.8713, -152.713, -95.3848, 100.593
1.32917, -1, -11.8387, 7.39898, 18.8765, -152.737, -95.3761, 100.449
1.33475, -1, -11.9972, 7.35658, 18.8871, -152.787, -95.3589, 100.161
1.34472, -1, -12.2358, 7.29299, 18.9029, -152.861, -95.3331, 99.7298
1.35168, -1, -12.3156, 7.27179, 18.9081, -152.886, -95.3244, 99.5858
1.35874, -1, -12.4752, 7.22938, 18.9187, -152.935, -95.3068, 99.2977
1.36773, -1, -12.6352, 7.187, 18.9292, -152.985, -95.2888, 99.0098
1.37566, -1, -12.7952, 7.14457, 18.9398, -153.034, -95.2709, 98.7221
1.38367, -1, -12.9554, 7.10205, 18.9503, -153.084, -95.2532, 98.434
1.39173, -1, -13.1154, 7.05947, 18.9608, -153.133, -95.2357, 98.1459
1.39967, -1, -13.2753, 7.01686, 18.9714, -153.183, -95.2185, 97.8579
1.40767, -1, -13.4349, 6.97422, 18.982, -153.232, -95.2014, 97.5695
1.41572, -1, -13.5942, 6.93145, 18.9925, -153.281, -95.1843, 97.2809
1.42367, -1, -13.7534, 6.88873, 19.0032, -153.331, -95.1668, 96.9922
1.43174, -1, -13.9122, 6.84605, 19.0136, -153.38, -95.1492, 96.7038
1.43868, -1, -14.0706, 6.80334, 19.0241, -153.429, -95.1313, 96.4152
1.44766, -1, -14.2288, 6.7607, 19.0347, -153.479, -95.1136, 96.1262
1.45573, -1, -14.387, 6.71801, 19.0451, -153.529, -95.0961, 95.8371
1.46473, -1, -14.5452, 6.67535, 19.0557, -153.578, -95.0789, 95.5481
1.47173, -1, -14.7038, 6.63281, 19.0663, -153.628, -95.0617, 95.2589
1.47974, -1, -14.8628, 6.59029, 19.0768, -153.677, -95.0445, 94.9694
1.48767, -1, -15.0221, 6.54761, 19.0876, -153.726, -95.0271, 94.6804
1.49567, -1, -15.1819, 6.50501, 19.0983, -153.777, -95.0093, 94.3913
1.50373, -1, -15.342, 6.46245, 19.1089, -153.826, -94.9913, 94.1022
1.51168, -1, -15.5025, 6.41973, 19.1196, -153.875, -94.9734, 93.8127
1.51967, -1, -15.6632, 6.37706, 19.1301, -153.926, -94.9557, 93.5235
1.52773, -1, -15.8238, 6.33432, 19.1408, -153.975, -94.9384, 93.2341
1.53566, -1, -15.9847, 6.29142, 19.1515, -154.025, -94.9212, 92.9444
1.5437, -1, -16.1456, 6.24857, 19.162, -154.075, -94.9041, 92.6545
1.55173, -1, -16.3063, 6.20566, 19.1726, -154.124, -94.8867, 92.3651
1.55967, -1, -16.4668, 6.16263, 19.183, -154.173, -94.8692, 92.0756
1.56773, -1, -16.6272, 6.11967, 19.1936, -154.223, -94.8515, 91.7854
1.57566, -1, -16.7871, 6.07672, 19.2043, -154.273, -94.8335, 91.4953
1.58371, -1, -16.9465, 6.03373, 19.2149, -154.323, -94.8159, 91.2053
1.59174, -1, -17.1058, 5.99079, 19.2256, -154.373, -94.7984, 90.9152
1.59966, -1, -17.2648, 5.94786, 19.2361, -154.422, -94.7811, 90.6249
1.60767, -1, -17.4239, 5.90504, 19.2467, -154.472, -94.7637, 90.3344
1.61573, -1, -17.5832, 5.86226, 19.2574, -154.522, -94.7464, 90.0443
1.62366, -1, -17.7426, 5.81945, 19.2681, -154.571, -94.7288, 89.754
1.63176, -1, -17.9022, 5.77668, 19.2788, -154.622, -94.7108, 89.4637
1.63979, -1, -18.0623, 5.7339, 19.2895, -154.671, -94.6927, 89.1731
1.64769, -1, -18.2227, 5.69114, 19.3, -154.721, -94.6748, 88.8827
1.6557, -1, -18.3837, 5.64835, 19.3108, -154.771, -94.6572, 88.5919
1.66379, -1, -18.545, 5.60541, 19.3215, -154.821, -94.6398, 88.3008
1.67176, -1, -18.7066, 5.56244, 19.3322, -154.871, -94.6226, 88.0101
1.67984, -1, -18.8683, 5.51949, 19.3428, -154.921, -94.6053, 87.7193
1.68778, -1, -19.03, 5.47645, 19.3534, -154.971, -94.5877, 87.4281
1.69577, -1, -19.1915, 5.43327, 19.364, -155.021, -94.5699, 87.1365
1.70384, -1, -19.353, 5.39014, 19.3747, -155.071, -94.5518, 86.8453
1.71167, -1, -19.5143, 5.34699, 19.3852, -155.121, -94.5338, 86.5537
1.71969, -1, -19.6752, 5.30374, 19.3959, -155.17, -94.5161, 86.262
1.72774, -1, -19.8359, 5.26057, 19.4065, -155.221, -94.4985, 85.9701
1.73573, -1, -19.9963, 5.21739, 19.4172, -155.27, -94.481, 85.6786
1.74388, -1, -20.1563, 5.17425, 19.428, -155.32, -94.4637, 85.3871
1.7529, -1, -20.3161, 5.13129, 19.4389, -155.371, -94.4461, 85.0954
1.75996, -1, -20.476, 5.08828, 19.4497, -155.421, -94.4283, 84.8035
1.76807, -1, -20.6361, 5.04521, 19.4604, -155.471, -94.4102, 84.5117
1.77468, -1, -20.7162, 5.02372, 19.4657, -155.496, -94.4012, 84.3658
1.78413, -1, -20.9571, 4.95925, 19.4818, -155.571, -94.3744, 83.9276
1.79067, -1, -21.0376, 4.93768, 19.4871, -155.596, -94.3657, 83.7814
1.80116, -1, -21.2797, 4.87308, 19.5031, -155.672, -94.3397, 83.3437
1.80673, -1, -21.3606, 4.85152, 19.5084, -155.697, -94.3311, 83.1976
1.8163, -1, -21.6037, 4.78664, 19.5245, -155.772, -94.3051, 82.7586
1.82511, -1, -21.6849, 4.76503, 19.5299, -155.822, -94.2874, 82.4661
1.83073, -1, -21.8472, 4.72176, 19.5406, -155.847, -94.2785, 82.3199
1.84069, -1, -22.091, 4.65668, 19.5568, -155.923, -94.2514, 81.8808
1.84768, -1, -22.1723, 4.63502, 19.5621, -155.948, -94.2425, 81.7343
1.85565, -1, -22.3347, 4.59164, 19.5727, -155.998, -94.2248, 81.4415
1.8637, -1, -22.4969, 4.54821, 19.5835, -156.048, -94.2073, 81.149
1.87166, -1, -22.6588, 4.50479, 19.5942, -156.099, -94.1898, 80.8563
1.87873, -1, -22.8203, 4.46132, 19.6048, -156.148, -94.1724, 80.5633
1.8877, -1, -22.9815, 4.41795, 19.6155, -156.199, -94.1546, 80.2703
1.89566, -1, -23.1426, 4.37464, 19.6261, -156.249, -94.1366, 79.9773
1.9037, -1, -23.3036, 4.3313, 19.6369, -156.299, -94.1183, 79.6839
1.91165, -1, -23.4644, 4.28805, 19.6479, -156.35, -94.1001, 79.3904
1.91966, -1, -23.6253, 4.24478, 19.6586, -156.4, -94.0822, 79.0972
1.92666, -1, -23.7865, 4.20152, 19.6694, -156.45, -94.0646, 78.8038
1.93565, -1, -23.9478, 4.15826, 19.6801, -156.501, -94.0471, 78.5101
1.94366, -1, -24.1094, 4.1149, 19.6908, -156.552, -94.0297, 78.2162
1.95172, -1, -24.2717, 4.07152, 19.7016, -156.602, -94.0121, 77.9223
1.95965, -1, -24.4343, 4.02816, 19.7122, -156.653, -93.9943, 77.6284
1.96867, -1, -24.5972, 3.98468, 19.7229, -156.703, -93.9762, 77.3341
1.97466, -1, -24.7605, 3.94111, 19.7335, -156.753, -93.9581, 77.0398
1.9837, -1, -24.9239, 3.89755, 19.7443, -156.804, -93.9403, 76.746
1.99184, -1, -25.0872, 3.85402, 19.7552, -156.854, -93.9226, 76.4518
1.99965, -1, -25.2505, 3.81042, 19.7661, -156.904, -93.9051, 76.1575
2.00767, -1, -25.4136, 3.76681, 19.7769, -156.955, -93.8876, 75.863
2.01651, -1, -25.5764, 3.72314, 19.7877, -157.005, -93.8699, 75.5689
2.02366, -1, -25.7391, 3.67951, 19.7983, -157.055, -93.852, 75.2743
2.03165, -1, -25.9016, 3.63602, 19.8092, -157.106, -93.8337, 74.9795
2.04044, -1, -26.0639, 3.59244, 19.8199, -157.156, -93.8153, 74.6849
2.04873, -1, -26.2257, 3.54894, 19.8307, -157.207, -93.7972, 74.3904
2.05564, -1, -26.3872, 3.50557, 19.8415, -157.258, -93.7794, 74.0956
2.06445, -1, -26.5488, 3.46207, 19.8522, -157.308, -93.7617, 73.8003
2.07273, -1, -26.7107, 3.41859, 19.863, -157.359, -93.7441, 73.5052
2.07968, -1, -26.873, 3.37508, 19.8739, -157.41, -93.7264, 73.2099
2.09145, -1, -27.117, 3.30962, 19.8901, -157.486, -93.6994, 72.7667
2.09572, -1, -27.1985, 3.28784, 19.8955, -157.511, -93.6903, 72.619
2.10366, -1, -27.3616, 3.24422, 19.9062, -157.561, -93.672, 72.3238
2.11165, -1, -27.5253, 3.2004, 19.917, -157.612, -93.6539, 72.0284
2.11972, -1, -27.6892, 3.15665, 19.9278, -157.663, -93.6361, 71.7328
2.12765, -1, -27.8532, 3.11298, 19.9385, -157.713, -93.6183, 71.4371
2.13565, -1, -28.0174, 3.06922, 19.9493, -157.764, -93.6006, 71.1415
2.14377, -1, -28.1817, 3.02544, 19.9601, -157.815, -93.5828, 70.8457
2.15173, -1, -28.346, 2.9817, 19.9709, -157.865, -93.5647, 70.5496
2.15973, -1, -28.5101, 2.93792, 19.9818, -157.916, -93.5464, 70.2537
2.16781, -1, -28.6738, 2.89421, 19.9927, -157.967, -93.5279, 69.9578
2.17574, -1, -28.8373, 2.8505, 20.0035, -158.018, -93.5097, 69.6616
2.18381, -1, -29.0004, 2.80677, 20.0142, -158.069, -93.4918, 69.3651
2.19182, -1, -29.1631, 2.76314, 20.0249, -158.12, -93.4741, 69.0687
2.19978, -1, -29.3258, 2.71945, 20.0358, -158.17, -93.4565, 68.7721
2.20766, -1, -29.4886, 2.67572, 20.0466, -158.222, -93.4387, 68.4753
2.21573, -1, -29.6513, 2.63198, 20.0574, -158.273, -93.4207, 68.1784
2.22374, -1, -29.8143, 2.58815, 20.0682, -158.323, -93.4024, 67.8818
2.23169, -1, -29.9774, 2.54441, 20.0791, -158.375, -93.384, 67.5851
2.23988, -1, -30.1406, 2.50052, 20.0901, -158.425, -93.3657, 67.2881
2.24783, -1, -30.3045, 2.4565, 20.101, -158.476, -93.3478, 66.9909
2.25589, -1, -30.4688, 2.41257, 20.112, -158.527, -93.3299, 66.6942
2.26409, -1, -30.6335, 2.3685, 20.1228, -158.578, -93.3122, 66.3969
2.27067, -1, -30.716, 2.34648, 20.1281, -158.603, -93.3034, 66.2482
2.28008, -1, -30.9636, 2.28059, 20.1445, -158.68, -93.2764, 65.8022
2.28665, -1, -31.0461, 2.25855, 20.1499, -158.706, -93.2672, 65.6537
2.29617, -1, -31.2938, 2.19257, 20.1662, -158.782, -93.2394, 65.2077
2.3042, -1, -31.4587, 2.14871, 20.177, -158.833, -93.2211, 64.9098
2.31231, -1, -31.6234, 2.1047, 20.1878, -158.884, -93.2031, 64.6121
2.32027, -1, -31.7879, 2.06075, 20.1987, -158.936, -93.1854, 64.3142
2.32837, -1, -31.9522, 2.01682, 20.2097, -158.987, -93.1678, 64.0161
2.33637, -1, -32.0342, 1.99483, 20.2207, -159.038, -93.1501, 63.7179
2.34364, -1, -32.198, 1.95082, 20.2261, -159.063, -93.1412, 63.569
2.35164, -1, -32.3616, 1.90686, 20.237, -159.115, -93.1231, 63.2712
2.35969, -1, -32.525, 1.86281, 20.2479, -159.166, -93.1048, 62.973
2.36764, -1, -32.6888, 1.81867, 20.2589, -159.217, -93.0865, 62.6744
2.37475, -1, -32.8527, 1.77463, 20.2698, -159.269, -93.0683, 62.3763
2.3837, -1, -33.0168, 1.73043, 20.2807, -159.319, -93.0504, 62.078
2.39165, -1, -33.1813, 1.68617, 20.2915, -159.371, -93.0326, 61.7792
2.3997, -1, -33.3461, 1.64202, 20.3024, -159.422, -93.0148, 61.4803
2.40764, -1, -33.5114, 1.59777, 20.3134, -159.473, -92.9969, 61.1819
2.41564, -1, -33.6771, 1.55349, 20.3243, -159.524, -92.9786, 60.8833
2.42266, -1, -33.8428, 1.50931, 20.3352, -159.576, -92.9599, 60.5843
2.43164, -1, -34.0087, 1.46509, 20.3461, -159.627, -92.9413, 60.2851
2.43964, -1, -34.1746, 1.42093, 20.357, -159.678, -92.9229, 59.986
2.44772, -1, -34.3407, 1.37678, 20.368, -159.73, -92.9049, 59.6865
2.45564, -1, -34.5068, 1.33257, 20.3789, -159.781, -92.887, 59.3867
2.46526, -1, -34.6725, 1.28844, 20.3898, -159.833, -92.8692, 58.9377
2.47172, -1, -34.8378, 1.24425, 20.4007, -159.884, -92.8513, 58.788
2.4807, -1, -35.0029, 1.20007, 20.4117, -159.935, -92.8331, 58.4884
2.4877, -1, -35.1675, 1.15581, 20.4228, -159.987, -92.8146, 58.1885
2.4957, -1, -35.332, 1.11151, 20.4338, -160.038, -92.7962, 57.889
2.50363, -1, -35.496, 1.06737, 20.4449, -160.09, -92.7778, 57.5893
2.51164, -1, -35.6583, 1.02355, 20.4562, -160.141, -92.7597, 57.2893
2.51972, -1, -35.8178, 0.980283, 20.4676, -160.192, -92.7418, 56.9907
2.52765, -1, -35.9734, 0.938198, 20.4795, -160.243, -92.724, 56.6955
2.53564, -1, -36.1238, 0.897742, 20.4914, -160.292, -92.7066, 56.4064
2.54372, -1, -36.2666, 0.859466, 20.5034, -160.339, -92.6895, 56.1273
2.55164, -1, -36.3997, 0.82413, 20.5149, -160.384, -92.6729, 55.8647
2.55963, -1, -36.5216, 0.791854, 20.5255, -160.425, -92.6577, 55.6248
2.56772, -1, -36.6307, 0.76301, 20.5348, -160.46, -92.6445, 55.4132
2.57564, -1, -36.7255, 0.737924, 20.5421, -160.49, -92.6335, 55.2347
2.58365, -1, -36.8056, 0.716678, 20.5472, -160.515, -92.6248, 55.0915
2.59171, -1, -36.8718, 0.699207, 20.5501, -160.534, -92.6183, 54.983
2.59964, -1, -36.925, 0.6852, 20.5515, -160.547, -92.6138, 54.9062
2.60765, -1, -36.9655, 0.674333, 20.5519, -160.556, -92.611, 54.8545
2.61573, -1, -36.995, 0.666545, 20.5517, -160.562, -92.6093, 54.823
2.62364, -1, -37.0153, 0.66146, 20.5512, -160.565, -92.6084, 54.8051
2.63163, -1, -37.0277, 0.65845, 20.5509, -160.567, -92.6079, 54.7961
2.63968, 2, -37.0344, 0.656872, 20.5508, -160.568, -92.6077, 54.7918
2.6477, 2, -37.0366, 0.656153, 20.5507, -160.568, -92.6076, 54.7898
2.65572, 2, -37.0365, 0.655853, 20.5506, -160.568, -92.6076, 54.7889
2.66385, 2, -37.0359, 0.655704, 20.5506, -160.568, -92.6075, 54.7885
2.67173, 2, -37.0357, 0.655655, 20.5506, -160.568, -92.6075, 54.7884
2.67974, 2, -37.0361, 0.655606, 20.5506, -160.568, -92.6075, 54.7883
2.68781, 2, -37.0371, 0.655572, 20.5506, -160.568, -92.6075, 54.7884
2.69574, 2, -37.0382, 0.655455, 20.5504, -160.568, -92.6076, 54.7883
2.70374, 2, -37.0397, 0.655257, 20.5502, -160.568, -92.6076, 54.7884
2.71182, 2, -37.041, 0.654991, 20.55, -160.568, -92.6076, 54.7885
2.71967, 2, -37.0422, 0.654728, 20.5499, -160.568, -92.6077, 54.7885
2.72769, 2, -37.0432, 0.654507, 20.5497, -160.568, -92.6077, 54.7886
2.73574, 2, -37.0436, 0.654396, 20.5495, -160.568, -92.6078, 54.7888
2.74373, 2, -37.0436, 0.654331, 20.5494, -160.568, -92.6079, 54.7889
2.75213, 2, -37.0432, 0.654312, 20.5492, -160.568, -92.6079, 54.789
2.75864, 2, -37.0428, 0.65433, 20.5492, -160.568, -92.6079, 54.7891
2.76806, 2, -37.0413, 0.65442, 20.5491, -160.568, -92.608, 54.7894
2.77635, 2, -37.0398, 0.654494, 20.5491, -160.568, -92.608, 54.7895
2.7841, 2, -37.0383, 0.654597, 20.5489, -160.568, -92.608, 54.7897
2.79211, 2, -37.0374, 0.654644, 20.5489, -160.568, -92.608, 54.7899
2.80037, 2, -37.0368, 0.654654, 20.5488, -160.568, -92.6081, 54.7899
2.80819, 2, -37.0366, 0.654633, 20.5488, -160.568, -92.6081, 54.79
2.81644, 2, -37.0367, 0.654593, 20.5488, -160.568, -92.6081, 54.79
2.82469, 2, -37.0369, 0.654526, 20.5488, -160.568, -92.6081, 54.79
2.83226, 2, -37.037, 0.654493, 20.5488, -160.568, -92.6081, 54.7901
2.83963, 2, -37.0373, 0.654463, 20.5487, -160.568, -92.6081, 54.7901
2.84845, 2, -37.0383, 0.654412, 20.5487, -160.568, -92.6081, 54.7901
2.85567, 2, -37.0387, 0.654405, 20.5487, -160.568, -92.6081, 54.7901
2.86361, 2, -37.0395, 0.654396, 20.5487, -160.568, -92.6081, 54.7902
2.87163, 2, -37.04, 0.654441, 20.5487, -160.568, -92.6081, 54.7902
2.87969, 2, -37.0402, 0.654474, 20.5487, -160.568, -92.6081, 54.7902
2.88764, 2, -37.0403, 0.65449, 20.5487, -160.568, -92.6081, 54.7903
2.89563, 2, -37.0403, 0.654497, 20.5487, -160.568, -92.6081, 54.7903
2.90368, 2, -37.0401, 0.6545, 20.5487, -160.568, -92.6081, 54.7904
2.91162, 2, -37.0397, 0.654501, 20.5487, -160.568, -92.6081, 54.7905
2.91963, 2, -37.0393, 0.654502, 20.5487, -160.568, -92.6081, 54.7905
2.92769, 2, -37.0392, 0.654502, 20.5486, -160.568, -92.6081, 54.7905
2.93563, 2, -37.039, 0.654483, 20.5486, -160.568, -92.6081, 54.7906
2.94362, 2, -37.039, 0.654476, 20.5486, -160.568, -92.6081, 54.7906
2.95169, 2, -37.039, 0.654453, 20.5486, -160.568, -92.6081, 54.7907
2.95962, 2, -37.039, 0.654426, 20.5486, -160.568, -92.6082, 54.7907
2.96764, 2, -37.0391, 0.654435, 20.5486, -160.568, -92.6082, 54.7908
2.97569, 2, -37.0392, 0.654436, 20.5485, -160.568, -92.6082, 54.7909
2.98367, 2, -37.0393, 0.65446, 20.5486, -160.568, -92.6083, 54.7909
2.99353, 2, -37.0395, 0.654483, 20.5486, -160.568, -92.6082, 54.791
2.99969, 2, -37.0396, 0.654494, 20.5486, -160.568, -92.6083, 54.791
3.00764, 2, -37.0397, 0.654498, 20.5486, -160.568, -92.6083, 54.7911
3.01563, 2, -37.0397, 0.654501, 20.5486, -160.568, -92.6083, 54.7912
3.0238, 2, -37.0397, 0.654502, 20.5486, -160.568, -92.6083, 54.7912
3.03162, 2, -37.0397, 0.654502, 20.5486, -160.568, -92.6083, 54.7912
3.03962, 2, -37.0397, 0.654483, 20.5485, -160.568, -92.6083, 54.7913
3.0477, 2, -37.0396, 0.654481, 20.5485, -160.568, -92.6083, 54.7913
3.05563, 2, -37.0396, 0.65445, 20.5485, -160.568, -92.6083, 54.7913
3.06363, 2, -37.0395, 0.654454, 20.5485, -160.568, -92.6083, 54.7914
3.07169, 2, -37.0396, 0.654468, 20.5484, -160.568, -92.6084, 54.7915
3.07963, 2, -37.0396, 0.654482, 20.5484, -160.568, -92.6084, 54.7915
3.08763, 2, -37.0396, 0.654493, 20.5484, -160.568, -92.6083, 54.7916
3.09569, 2, -37.0396, 0.654491, 20.5484, -160.568, -92.6083, 54.7917
3.10363, 2, -37.0396, 0.654492, 20.5484, -160.568, -92.6083, 54.7917
3.11162, 2, -37.0396, 0.654498, 20.5484, -160.568, -92.6083, 54.7918
3.11969, 2, -37.0396, 0.6545, 20.5484, -160.568, -92.6083, 54.7918
3.12764, 2, -37.0396, 0.654501, 20.5484, -160.568, -92.6084, 54.7918
3.13562, 2, -37.0396, 0.654502, 20.5484, -160.568, -92.6084, 54.7918
3.1437, 2, -37.0396, 0.654502, 20.5484, -160.568, -92.6084, 54.7918
3.15168, 2, -37.0396, 0.654502, 20.5484, -160.568, -92.6084, 54.7918
3.1597, 2, -37.0396, 0.654472, 20.5484, -160.568, -92.6084, 54.7919
3.16778, 2, -37.0395, 0.654469, 20.5484, -160.568, -92.6084, 54.792
3.17572, 2, -37.0395, 0.654482, 20.5484, -160.568, -92.6084, 54.792
3.18373, 2, -37.0395, 0.654474, 20.5483, -160.568, -92.6084, 54.792
3.19179, 2, -37.0395, 0.654472, 20.5483, -160.568, -92.6084, 54.792
3.19973, 2, -37.0395, 0.654489, 20.5483, -160.568, -92.6084, 54.7921
3.20774, 2, -37.0395, 0.654514, 20.5483, -160.568, -92.6084, 54.7921
3.21575, 2, -37.0394, 0.654508, 20.5483, -160.568, -92.6084, 54.7922
3.22366, 2, -37.0395, 0.654504, 20.5483, -160.568, -92.6084, 54.7922
3.23176, 2, -37.0394, 0.65451, 20.5483, -160.568, -92.6084, 54.7922
3.23981, 2, -37.0394, 0.654506, 20.5483, -160.568, -92.6084, 54.7922
3.24777, 2, -37.0394, 0.654523, 20.5483, -160.568, -92.6084, 54.7923
3.25581, 2, -37.0394, 0.654512, 20.5483, -160.568, -92.6084, 54.7923
3.26401, 2, -37.0394, 0.654507, 20.5483, -160.568, -92.6085, 54.7923
3.27194, 2, -37.0393, 0.654485, 20.5482, -160.568, -92.6085, 54.7924
3.27867, 2, -37.0393, 0.654483, 20.5482, -160.568, -92.6085, 54.7924
3.28817, 2, -37.0394, 0.654488, 20.5482, -160.568, -92.6085, 54.7925
3.29619, 2, -37.0393, 0.654496, 20.5482, -160.568, -92.6085, 54.7925
3.30413, 2, -37.0393, 0.654499, 20.5482, -160.568, -92.6085, 54.7925
3.31226, 2, -37.0393, 0.654501, 20.5482, -160.568, -92.6085, 54.7925
3.32024, 2, -37.0393, 0.654513, 20.5482, -160.568, -92.6085, 54.7925
3.32823, 2, -37.0393, 0.654526, 20.5482, -160.568, -92.6085, 54.7926
3.33633, 2, -37.0393, 0.654529, 20.5482, -160.568, -92.6085, 54.7926
3.34361, 2, -37.0393, 0.654544, 20.5482, -160.568, -92.6085, 54.7926
3.35161, 2, -37.0392, 0.654529, 20.5482, -160.568, -92.6085, 54.7927
3.35968, 2, -37.0392, 0.654515, 20.5481, -160.568, -92.6085, 54.7927
3.36762, 2, -37.0392, 0.654508, 20.5481, -160.568, -92.6085, 54.7927
3.37561, 2, -37.0392, 0.654505, 20.5481, -160.568, -92.6085, 54.7928
3.38367, 2, -37.0392, 0.654504, 20.5481, -160.567, -92.6085, 54.7928
3.39161, 2, -37.0391, 0.654496, 20.5481, -160.567, -92.6085, 54.7928
3.39962, 2, -37.0391, 0.654494, 20.548, -160.567, -92.6085, 54.7928
3.40768, 2, -37.0391, 0.654499, 20.548, -160.567, -92.6085, 54.7928
3.41561, 2, -37.0391, 0.654512, 20.5481, -160.567, -92.6086, 54.7928
3.42361, 2, -37.0391, 0.654533, 20.548, -160.567, -92.6086, 54.7928
3.43167, 2, -37.039, 0.654546, 20.5481, -160.567, -92.6085, 54.7928
3.43961, 2, -37.039, 0.654559, 20.548, -160.567, -92.6085, 54.7928
3.44762, 2, -37.039, 0.654536, 20.548, -160.567, -92.6085, 54.7928
3.45462, 2, -37.039, 0.654518, 20.548, -160.567, -92.6085, 54.7928
3.46361, 2, -37.039, 0.654521, 20.548, -160.567, -92.6086, 54.7928
3.47161, 2, -37.039, 0.654518, 20.548, -160.567, -92.6086, 54.7928
3.47969, 2, -37.039, 0.65451, 20.548, -160.567, -92.6085, 54.7928
3.48767, 2, -37.039, 0.654506, 20.548, -160.567, -92.6086, 54.7928
3.49662, 2, -37.039, 0.654504, 20.548, -160.567, -92.6085, 54.7929
3.50368, 2, -37.039, 0.654503, 20.5479, -160.567, -92.6086, 54.7929
3.51161, 2, -37.039, 0.654503, 20.5479, -160.567, -92.6086, 54.7929
3.51961, 2, -37.039, 0.654521, 20.5479, -160.567, -92.6086, 54.7929
3.5277, 2, -37.0389, 0.654511, 20.5479, -160.567, -92.6086, 54.793
3.53561, 2, -37.0389, 0.654536, 20.5479, -160.567, -92.6086, 54.793
3.5437, 2, -37.0389, 0.654544, 20.5479, -160.567, -92.6085, 54.793
3.55168, 2, -37.0389, 0.654551, 20.5479, -160.567, -92.6085, 54.793
3.5596, 2, -37.0389, 0.654561, 20.5479, -160.567, -92.6085, 54.7931
3.56762, 2, -37.0389, 0.654566, 20.5479, -160.567, -92.6085, 54.793
3.57568, 2, -37.0389, 0.654568, 20.5479, -160.567, -92.6085, 54.7931
3.58361, 2, -37.0389, 0.654559, 20.5479, -160.567, -92.6086, 54.793
3.59161, 2, -37.0388, 0.654528, 20.5479, -160.567, -92.6086, 54.793
3.59967, 2, -37.0388, 0.654514, 20.5479, -160.567, -92.6086, 54.7931
3.60764, 2, -37.0388, 0.654508, 20.5478, -160.567, -92.6086, 54.7931
3.61561, 2, -37.0388, 0.654505, 20.5478, -160.567, -92.6086, 54.7931
3.62368, 2, -37.0388, 0.654504, 20.5478, -160.567, -92.6086, 54.7931
3.63167, 2, -37.0388, 0.654503, 20.5478, -160.567, -92.6086, 54.7931
3.63978, 2, -37.0387, 0.654503, 20.5478, -160.567, -92.6086, 54.7932
3.64785, 2, -37.0387, 0.654503, 20.5478, -160.567, -92.6086, 54.7931
3.65566, 2, -37.0387, 0.654503, 20.5478, -160.567, -92.6086, 54.7932
3.66376, 2, -37.0387, 0.654503, 20.5478, -160.567, -92.6086, 54.7932
3.67179, 2, -37.0387, 0.654503, 20.5478, -160.567, -92.6087, 54.7932
3.6798, 2, -37.0387, 0.654513, 20.5478, -160.567, -92.6087, 54.7932
3.68733, 2, -37.0387, 0.654533, 20.5478, -160.567, -92.6087, 54.7932
3.69577, 2, -37.0387, 0.654517, 20.5478, -160.567, -92.6087, 54.7932
3.70367, 4, -37.0387, 0.654509, 20.5478, -160.567, -92.6087, 54.7932
3.71167, 4, -37.0387, 0.654505, 20.5477, -160.567, -92.6087, 54.7932
3.71974, 4, -37.0387, 0.654504, 20.5477, -160.567, -92.6087, 54.7932
3.72765, 4, -37.0387, 0.654514, 20.5477, -160.567, -92.6087, 54.7932
3.73575, 4, -37.0386, 0.654515, 20.5477, -160.567, -92.6087, 54.7932
3.74374, 4, -37.0386, 0.654538, 20.5477, -160.567, -92.6087, 54.7932
3.75172, 4, -37.0386, 0.654537, 20.5477, -160.567, -92.6087, 54.7932
3.75979, 4, -37.0386, 0.654537, 20.5477, -160.567, -92.6087, 54.7932
3.76824, 4, -37.0385, 0.654555, 20.5477, -160.567, -92.6087, 54.7932
3.77591, 4, -37.0385, 0.654563, 20.5477, -160.567, -92.6087, 54.7932
3.78416, 4, -37.0385, 0.654567, 20.5477, -160.567, -92.6086, 54.7932
3.79244, 4, -37.0385, 0.654551, 20.5477, -160.567, -92.6086, 54.7932
3.80022, 4, -37.0385, 0.65455, 20.5477, -160.567, -92.6087, 54.7932
3.82613, 4, -37.0385, 0.654543, 20.5476, -160.567, -92.6087, 54.7933
3.82973, 4, -37.0385, 0.654541, 20.5476, -160.567, -92.6087, 54.7932
3.83236, 4, -37.0385, 0.654541, 20.5476, -160.567, -92.6087, 54.7932
3.83441, 4, -37.0385, 0.654539, 20.5476, -160.567, -92.6087, 54.7932
3.84046, 4, -37.0385, 0.654563, 20.5476, -160.567, -92.6087, 54.7932
3.84863, 4, -37.0384, 0.654543, 20.5476, -160.567, -92.6087, 54.7932
3.85642, 4, -37.0382, 0.654512, 20.5476, -160.567, -92.6087, 54.7933
3.8636, 4, -37.0367, 0.6541, 20.5477, -160.567, -92.6087, 54.7933
3.87341, 4, -37.0292, 0.650639, 20.5486, -160.567, -92.6087, 54.7932
3.88118, 4, -37.0248, 0.644751, 20.5511, -160.567, -92.6087, 54.7932
3.88765, 4, -37.0134, 0.64048, 20.5534, -160.566, -92.6087, 54.7932
3.89562, 4, -36.9978, 0.629002, 20.5607, -160.565, -92.6088, 54.7932
3.90361, 5, -36.9768, 0.612992, 20.5732, -160.563, -92.6088, 54.7931
3.91165, 5, -36.9502, 0.592527, 20.5919, -160.559, -92.6086, 54.7931
3.9196, 5, -36.9185, 0.567582, 20.6171, -160.554, -92.6084, 54.7931
3.92775, 5, -36.8822, 0.538153, 20.6494, -160.547, -92.6079, 54.793
3.93861, 5, -36.8183, 0.48536, 20.7092, -160.534, -92.6063, 54.793
3.94369, 5, -36.7944, 0.465421, 20.7318, -160.529, -92.6056, 54.793
3.95242, 5, -36.7427, 0.42241, 20.7802, -160.518, -92.6042, 54.7929
3.95957, 5, -36.6862, 0.37571, 20.8317, -160.506, -92.6025, 54.793
3.96768, 5, -36.6258, 0.326191, 20.8853, -160.494, -92.6007, 54.7929
3.97665, 5, -36.5616, 0.274609, 20.9401, -160.482, -92.599, 54.7929
3.9836, 5, -36.4949, 0.221632, 20.9955, -160.47, -92.5972, 54.7929
3.99171, 5, -36.4271, 0.168084, 21.0509, -160.458, -92.5953, 54.7929
3.99979, 5, -36.3584, 0.114267, 21.1064, -160.446, -92.5934, 54.7929
4.00765, 5, -36.2897, 0.0603841, 21.1618, -160.434, -92.5915, 54.7929
4.01559, 5, -36.2207, 0.0066104, 21.2173, -160.422, -92.5896, 54.7929
4.02377, 5, -36.1519, -0.0469514, 21.2727, -160.409, -92.5876, 54.793
4.03243, 5, -36.0833, -0.100298, 21.3281, -160.397, -92.5857, 54.7931
4.0396, 5, -36.0146, -0.153448, 21.3833, -160.384, -92.5837, 54.7932
4.04766, 5, -35.946, -0.206389, 21.4385, -160.371, -92.5817, 54.7934
4.05559, 5, -35.8774, -0.259167, 21.4936, -160.358, -92.5797, 54.7937
4.06361, 5, -35.8086, -0.311794, 21.5486, -160.346, -92.5776, 54.7941
4.07282, 5, -35.7395, -0.364472, 21.6035, -160.333, -92.5756, 54.7948
4.08148, 5, -35.6703, -0.417114, 21.6583, -160.32, -92.5736, 54.7958
4.08717, 5, -35.6008, -0.469834, 21.7128, -160.308, -92.5716, 54.7968
4.09899, 5, -35.496, -0.548966, 21.7943, -160.289, -92.5686, 54.7987
4.10374, 5, -35.4609, -0.575347, 21.8214, -160.283, -92.5676, 54.7995
4.11161, 5, -35.3906, -0.628084, 21.8755, -160.27, -92.5655, 54.801
4.11966, 5, -35.3201, -0.680775, 21.9294, -160.257, -92.5634, 54.8027
4.12776, 5, -35.2495, -0.73346, 21.9833, -160.244, -92.5613, 54.8045
4.13666, 5, -35.179, -0.785805, 22.037, -160.231, -92.5592, 54.8063
4.14362, 5, -35.1083, -0.838004, 22.0907, -160.217, -92.5571, 54.8084
4.15183, 5, -35.0378, -0.890118, 22.1442, -160.204, -92.555, 54.8106
4.15979, 5, -34.9672, -0.941858, 22.1976, -160.191, -92.5528, 54.8129
4.16769, 5, -34.8967, -0.993455, 22.2509, -160.178, -92.5506, 54.8153
4.17596, 5, -34.8262, -1.04486, 22.3041, -160.165, -92.5485, 54.8179
4.18489, 5, -34.7556, -1.09626, 22.3571, -160.152, -92.5462, 54.8206
4.1917, 5, -34.6848, -1.14767, 22.4099, -160.14, -92.5441, 54.8234
4.20005, 5, -34.6139, -1.19892, 22.4625, -160.127, -92.5419, 54.8263
4.20803, 5, -34.5429, -1.25029, 22.5149, -160.114, -92.5396, 54.8294
4.21523, 5, -34.5073, -1.27595, 22.5672, -160.1, -92.5373, 54.8324
4.2259, 5, -34.4002, -1.35286, 22.6194, -160.086, -92.5351, 54.8357
4.23273, 5, -34.3287, -1.40416, 22.6714, -160.072, -92.5328, 54.8389
4.23972, 5, -34.257, -1.45535, 22.7232, -160.059, -92.5305, 54.8424
4.24766, 5, -34.1851, -1.50634, 22.775, -160.045, -92.5282, 54.846
4.25598, 5, -34.1131, -1.55712, 22.8266, -160.032, -92.5259, 54.8497
4.26385, 5, -34.0409, -1.60776, 22.8782, -160.018, -92.5236, 54.8535
4.27064, 5, -34.0049, -1.63296, 22.9039, -160.011, -92.5225, 54.8555
4.2803, 5, -33.8966, -1.70823, 22.9809, -159.991, -92.519, 54.8614
4.28809, 5, -33.8245, -1.75821, 23.032, -159.978, -92.5167, 54.8656
4.29603, 5, -33.7523, -1.80812, 23.083, -159.964, -92.5144, 54.8697
4.30454, 5, -33.68, -1.85795, 23.1337, -159.95, -92.5121, 54.8739
4.31379, 5, -33.6075, -1.90775, 23.1843, -159.935, -92.5098, 54.8783
4.32018, 5, -33.5348, -1.95779, 23.2348, -159.921, -92.5076, 54.8826
4.32823, 5, -33.462, -2.00813, 23.2852, -159.907, -92.5053, 54.8866
4.33716, 5, -33.4257, -2.05881, 23.3356, -159.893, -92.503, 54.8896
4.34261, 5, -33.353, -2.08433, 23.3608, -159.886, -92.5018, 54.8906
4.35344, 6, -33.2445, -2.16161, 23.4367, -159.864, -92.498, 54.8914
4.36175, 6, -33.2085, -2.21418, 23.4878, -159.849, -92.4949, 54.8896
4.36763, 6, -33.1367, -2.24082, 23.5136, -159.842, -92.4932, 54.8877
4.3756, 6, -33.0654, -2.29474, 23.5657, -159.826, -92.489, 54.8801
4.38364, 7, -32.9946, -2.3498, 23.619, -159.808, -92.4835, 54.8674
4.39159, 7, -32.9242, -2.406, 23.6734, -159.789, -92.4765, 54.852
4.39964, 7, -32.8544, -2.4636, 23.729, -159.77, -92.4677, 54.8348
4.40771, 7, -32.7851, -2.52266, 23.7862, -159.748, -92.457, 54.8173
4.41562, 7, -32.7165, -2.58329, 23.8445, -159.726, -92.4443, 54.8002
4.42359, 8, -32.6485, -2.64553, 23.9042, -159.703, -92.4297, 54.7833
4.43077, 8, -32.5813, -2.70945, 23.9651, -159.678, -92.4132, 54.7665
4.43962, 8, -32.5148, -2.77507, 24.027, -159.651, -92.3948, 54.7491
4.4466, 8, -32.449, -2.84223, 24.0899, -159.624, -92.3747, 54.7305
4.45559, 8, -32.3838, -2.91088, 24.1538, -159.596, -92.3532, 54.7105
4.46359, 9, -32.3192, -2.98091, 24.2186, -159.568, -92.3308, 54.6885
4.47257, 9, -32.2551, -3.05223, 24.2845, -159.538, -92.3072, 54.6649
4.47983, 9, -32.1916, -3.12485, 24.3514, -159.506, -92.2822, 54.6395
4.48838, 9, -32.1287, -3.19874, 24.4192, -159.474, -92.2556, 54.613
4.49563, 9, -32.0662, -3.27394, 24.488, -159.442, -92.2271, 54.5851
4.50362, 10, -32.0044, -3.35042, 24.5579, -159.408, -92.1974, 54.5558
4.51174, 10, -31.9433, -3.4283, 24.6287, -159.373, -92.1668, 54.5246
4.51962, 10, -31.8826, -3.50766, 24.7006, -159.337, -92.1348, 54.4913
4.53004, 10, -31.7926, -3.62932, 24.8105, -159.282, -92.0831, 54.4384
4.53574, 10, -31.7629, -3.67061, 24.8476, -159.264, -92.0652, 54.4202
4.54457, 11, -31.7039, -3.75426, 24.9226, -159.225, -92.029, 54.3829
4.5516, 11, -31.6455, -3.83943, 24.9985, -159.185, -91.9916, 54.3439
4.55971, 11, -31.5876, -3.92605, 25.0753, -159.145, -91.9522, 54.3028
4.57019, 11, -31.5018, -4.0587, 25.1923, -159.083, -91.8905, 54.2385
4.57565, 11, -31.4734, -4.10365, 25.2319, -159.061, -91.8696, 54.2166
4.58355, 12, -31.4172, -4.19464, 25.3118, -159.018, -91.8263, 54.1715
4.5916, 12, -31.3613, -4.28703, 25.3927, -158.975, -91.7809, 54.1243
4.59964, 12, -31.306, -4.38084, 25.4748, -158.929, -91.735, 54.0754
4.6078, 12, -31.2513, -4.47592, 25.5578, -158.883, -91.6879, 54.0256
4.61584, 12, -31.197, -4.57238, 25.6419, -158.836, -91.6385, 53.9742
4.62355, 13, -31.1433, -4.67034, 25.727, -158.788, -91.5885, 53.9206
4.63168, 13, -31.09, -4.76967, 25.8129, -158.739, -91.537, 53.866
4.63962, 13, -31.0373, -4.87046, 25.8999, -158.69, -91.4834, 53.8103
4.64774, 13, -30.9851, -4.97287, 25.988, -158.639, -91.4295, 53.7527
4.65577, 13, -30.9333, -5.0767, 26.0772, -158.588, -91.3737, 53.6935
4.66422, 14, -30.8821, -5.18192, 26.1674, -158.535, -91.3166, 53.6335
4.67184, 14, -30.8316, -5.28867, 26.2588, -158.481, -91.2588, 53.5713
4.68036, 14, -30.7816, -5.39686, 26.351, -158.428, -91.1985, 53.5079
4.68859, 14, -30.732, -5.50651, 26.4442, -158.373, -91.1381, 53.4439
4.69568, 14, -30.683, -5.61771, 26.5383, -158.316, -91.0756, 53.3774
4.70465, 15, -30.6345, -5.73039, 26.6334, -158.26, -91.0118, 53.3096
4.71168, 15, -30.5865, -5.84447, 26.7298, -158.201, -90.9467, 53.2409
4.71959, 15, -30.539, -5.95969, 26.8273, -158.143, -90.8799, 53.1699
4.72986, 15, -30.4921, -6.07634, 26.9258, -158.083, -90.8126, 53.0984
4.73594, 15, -30.4456, -6.19452, 27.0253, -158.023, -90.743, 53.0248
4.74362, 15, -30.3996, -6.31402, 27.1256, -157.961, -90.6729, 52.9493
4.7518, 16, -30.3542, -6.43515, 27.2269, -157.898, -90.6006, 52.8733
4.75983, 16, -30.3094, -6.55775, 27.3293, -157.835, -90.5279, 52.7946
4.7679, 16, -30.2649, -6.68172, 27.433, -157.771, -90.4532, 52.7155
4.77457, 16, -30.2428, -6.7443, 27.4852, -157.738, -90.4156, 52.6754
4.78433, 16, -30.1775, -6.93423, 27.6435, -157.64, -90.3004, 52.5523
4.792, 17, -30.1344, -7.06286, 27.7501, -157.573, -90.2222, 52.4689
4.80042, 17, -30.0919, -7.19304, 27.8575, -157.505, -90.1424, 52.3841
4.80861, 17, -30.0499, -7.32465, 27.9659, -157.436, -90.0611, 52.2984
4.81703, 17, -30.0084, -7.45752, 28.0755, -157.367, -89.9788, 52.2104
4.82432, 17, -29.9674, -7.59172, 28.1864, -157.296, -89.895, 52.1219
4.8322, 18, -29.9269, -7.72742, 28.2983, -157.225, -89.8101, 52.0316
4.84021, 18, -29.9068, -7.79578, 28.4111, -157.152, -89.7236, 51.9404
4.84844, 18, -29.8671, -7.93368, 28.5247, -157.079, -89.6364, 51.8473
4.85697, 18, -29.8082, -8.14279, 28.6393, -157.005, -89.5476, 51.7534
4.86499, 18, -29.7889, -8.28381, 28.7551, -156.93, -89.4574, 51.6576
4.87159, 19, -29.7505, -8.35484, 28.8135, -156.892, -89.412, 51.6096
4.88243, 19, -29.694, -8.57035, 28.9903, -156.777, -89.274, 51.4631
4.88908, 19, -29.6567, -8.71595, 29.1091, -156.7, -89.1801, 51.3642
4.89554, 19, -29.6383, -8.78924, 29.1689, -156.66, -89.1328, 51.3142
4.90257, 19, -29.6019, -8.93668, 29.2889, -156.581, -89.0375, 51.2141
4.91153, 20, -29.566, -9.08558, 29.41, -156.501, -88.941, 51.1119
4.91957, 20, -29.5305, -9.23589, 29.5324, -156.421, -88.8433, 51.0092
4.92769, 20, -29.4953, -9.38783, 29.6558, -156.339, -88.7448, 50.9048
4.94023, 20, -29.4436, -9.61801, 29.8425, -156.215, -88.5947, 50.7462
4.94358, 20, -29.4266, -9.69527, 29.9052, -156.173, -88.5443, 50.6929
4.95178, 21, -29.3929, -9.85078, 30.0313, -156.089, -88.4424, 50.5851
4.95957, 21, -29.3597, -10.0078, 30.1583, -156.003, -88.3392, 50.4764
4.96914, 21, -29.3267, -10.1665, 30.2865, -155.917, -88.2351, 50.3113
4.97556, 21, -29.2943, -10.3262, 30.4157, -155.83, -88.13, 50.2558
4.98539, 21, -29.2623, -10.4868, 30.5457, -155.743, -87.9703, 50.0882
4.99173, 21, -29.2307, -10.6486, 30.6766, -155.654, -87.9166, 50.0317
5.00055, 22, -29.1995, -10.812, 30.8084, -155.564, -87.8084, 49.9184
5.00765, 22, -29.1686, -10.9766, 30.9412, -155.474, -87.6992, 49.8041
5.01574, 22, -29.1382, -11.1421, 31.0749, -155.383, -87.5891, 49.6888
5.02357, 22, -29.1083, -11.3086, 31.2094, -155.291, -87.4778, 49.5727
5.03173, 22, -29.0786, -11.4766, 31.345, -155.197, -87.3657, 49.4557
5.04063, 23, -29.0494, -11.6463, 31.4814, -155.103, -87.2527, 49.3382
5.04764, 23, -29.0204, -11.8172, 31.6186, -155.009, -87.1386, 49.2198
5.05678, 23, -28.9919, -11.9887, 31.7565, -154.913, -87.024, 49.1009
5.06372, 23, -28.9638, -12.1614, 31.8953, -154.817, -86.9082, 48.9816
5.07158, 23, -28.9361, -12.3357, 32.0351, -154.72, -86.7915, 48.8613
5.08033, 24, -28.9086, -12.5112, 32.1757, -154.621, -86.6739, 48.7407
5.08762, 24, -28.8815, -12.6871, 32.3171, -154.522, -86.5553, 48.6198
5.09558, 24, -28.8547, -12.8637, 32.459, -154.422, -86.4362, 48.4976
5.10702, 24, -28.8152, -13.1316, 32.6737, -154.271, -86.2554, 48.3137
5.11169, 24, -28.8022, -13.2215, 32.7458, -154.22, -86.195, 48.2523
5.11957, 25, -28.7765, -13.4017, 32.8904, -154.118, -86.0734, 48.129
5.1277, 25, -28.7511, -13.5826, 33.0356, -154.015, -85.9509, 48.0055
5.13568, 25, -28.7258, -13.7646, 33.1814, -153.911, -85.8281, 47.8822
5.14358, 25, -28.7007, -13.9482, 33.3279, -153.807, -85.7041, 47.7582
5.15157, 25, -28.676, -14.1324, 33.4754, -153.701, -85.5799, 47.6343
5.15979, 26, -28.6515, -14.317, 33.6235, -153.595, -85.4549, 47.5105
5.16805, 26, -28.6273, -14.5027, 33.7721, -153.488, -85.3292, 47.386
5.17564, 26, -28.6035, -14.6901, 33.9213, -153.38, -85.2032, 47.2616
5.18389, 26, -28.5798, -14.8779, 34.0715, -153.271, -85.0763, 47.1374
5.19166, 26, -28.5561, -15.0659, 34.2222, -153.162, -84.9491, 47.0132
5.19972, 27, -28.5328, -15.2545, 34.3733, -153.052, -84.8211, 46.8892
5.20849, 27, -28.5098, -15.4441, 34.5249, -152.942, -84.6929, 46.7659
5.21644, 27, -28.4869, -15.6343, 34.6773, -152.83, -84.564, 46.6424
5.22421, 27, -28.4641, -15.8246, 34.8304, -152.718, -84.4347, 46.5195
5.23307, 27, -28.4418, -16.016, 34.9839, -152.605, -84.3051, 46.3969
5.24146, 28, -28.4195, -16.209, 35.1375, -152.492, -84.1749, 46.2742
5.24861, 28, -28.3971, -16.4025, 35.2916, -152.378, -84.0445, 46.1523
5.25569, 28, -28.3749, -16.5964, 35.4466, -152.263, -83.9136, 46.0307
5.26489, 28, -28.3529, -16.7912, 35.602, -152.148, -83.7826, 45.9099
5.27189, 28, -28.3308, -16.9869, 35.7575, -152.032, -83.651, 45.7898
5.27995, 28, -28.3088, -17.1827, 35.9134, -151.915, -83.5195, 45.6707
5.28882, 29, -28.2869, -17.3785, 36.0699, -151.797, -83.3874, 45.5524
5.29598, 29, -28.2651, -17.5751, 36.227, -151.679, -83.2551, 45.4351
5.30491, 29, -28.2432, -17.7725, 36.3839, -151.561, -83.1224, 45.319
5.3125, 29, -28.2214, -17.9696, 36.5409, -151.442, -82.9896, 45.2033
5.32012, 29, -28.1999, -18.167, 36.6987, -151.322, -82.8565, 45.0893
5.32907, 30, -28.1784, -18.3653, 36.8571, -151.202, -82.7234, 44.9762
5.33645, 30, -28.1568, -18.564, 37.0153, -151.081, -82.5902, 44.8644
5.34552, 30, -28.1353, -18.7625, 37.1734, -150.959, -82.4567, 44.7542
5.35221, 30, -28.1245, -18.862, 37.2525, -150.898, -82.39, 44.6996
5.35957, 30, -28.1029, -19.0619, 37.4113, -150.776, -82.2563, 44.5917
5.36753, 31, -28.0812, -19.2625, 37.5704, -150.653, -82.1224, 44.4852
5.3756, 31, -28.0595, -19.4629, 37.7294, -150.53, -81.9887, 44.3802
5.38372, 31, -28.038, -19.6633, 37.8884, -150.406, -81.8545, 44.2769
5.39308, 31, -28.0164, -19.8644, 38.1282, -150.218, -81.6534, 44.1247
5.39956, 31, -27.9948, -20.0655, 38.2084, -150.155, -81.5861, 44.0746
5.40757, 32, -27.9732, -20.2662, 38.3684, -150.029, -81.4519, 43.9761
5.4156, 32, -27.9514, -20.4674, 38.5282, -149.903, -81.3173, 43.8788
5.42355, 32, -27.9293, -20.6694, 38.6884, -149.776, -81.1831, 43.784
5.43398, 32, -27.896, -20.9717, 38.9292, -149.584, -80.9813, 43.6454
5.4413, 32, -27.8847, -21.0723, 39.0092, -149.52, -80.9143, 43.6006
5.44755, 33, -27.8619, -21.2737, 39.1688, -149.392, -80.7803, 43.5129
5.45556, 33, -27.8389, -21.4749, 39.3283, -149.264, -80.6467, 43.4287
5.4637, 33, -27.8155, -21.6751, 39.4878, -149.135, -80.5135, 43.3471
5.47161, 33, -27.7915, -21.8746, 39.6466, -149.007, -80.3808, 43.2694
5.48054, 33, -27.7669, -22.0743, 39.8042, -148.879, -80.2487, 43.1948
5.48755, 34, -27.742, -22.2733, 39.9612, -148.752, -80.117, 43.1239
5.49556, 34, -27.7165, -22.4711, 40.118, -148.624, -79.9861, 43.0567
5.50366, 34, -27.6905, -22.6682, 40.2743, -148.496, -79.8552, 42.992
5.5117, 34, -27.6642, -22.8653, 40.4297, -148.368, -79.7248, 42.9313
5.51962, 34, -27.6374, -23.0619, 40.5848, -148.241, -79.5942, 42.8739
5.52774, 35, -27.61, -23.2576, 40.74, -148.112, -79.4641, 42.8193
5.5357, 35, -27.5826, -23.4534, 40.895, -147.984, -79.3338, 42.7682
5.54363, 35, -27.5549, -23.6497, 41.0494, -147.855, -79.204, 42.721
5.55155, 35, -27.5269, -23.8454, 41.2033, -147.726, -79.0743, 42.6769
5.5597, 35, -27.4987, -24.0404, 41.3573, -147.596, -78.9445, 42.6359
5.56781, 36, -27.4701, -24.2356, 41.5114, -147.466, -78.815, 42.5983
5.57557, 36, -27.441, -24.4305, 41.665, -147.335, -78.6853, 42.565
5.58479, 36, -27.4117, -24.6246, 41.8178, -147.205, -78.5564, 42.5359
5.59501, 36, -27.382, -24.8178, 41.9703, -147.074, -78.4275, 42.5111
5.59959, 36, -27.3516, -25.0111, 42.1226, -146.943, -78.2992, 42.4906
5.60859, 37, -27.3204, -25.2038, 42.2739, -146.812, -78.1713, 42.4744
5.61556, 37, -27.2882, -25.3951, 42.424, -146.682, -78.0437, 42.463
5.62359, 37, -27.2554, -25.5853, 42.5732, -146.552, -77.9167, 42.4564
5.63368, 37, -27.2217, -25.775, 42.7217, -146.422, -77.79, 42.4535
5.63976, 37, -27.187, -25.9634, 42.869, -146.293, -77.664, 42.4537
5.64762, 37, -27.1514, -26.1499, 43.0151, -146.165, -77.5381, 42.4598
5.65556, 38, -27.1149, -26.3351, 43.1598, -146.038, -77.4131, 42.4721
5.66356, 38, -27.0777, -26.5196, 43.3037, -145.911, -77.2887, 42.4895
5.67169, 38, -27.0396, -26.7029, 43.4468, -145.784, -77.1646, 42.5126
5.67964, 38, -27.0007, -26.8846, 43.5888, -145.658, -77.0411, 42.5411
5.68801, 38, -26.9611, -27.0655, 43.7298, -145.532, -76.918, 42.5754
5.69572, 39, -26.9207, -27.2463, 43.87, -145.406, -76.7954, 42.6159
5.70366, 39, -26.8797, -27.4261, 44.0094, -145.28, -76.6727, 42.6622
5.71189, 39, -26.8376, -27.6046, 44.1482, -145.154, -76.5504, 42.7138
5.72011, 39, -26.7949, -27.7825, 44.2861, -145.028, -76.428, 42.7715
5.72755, 39, -26.7516, -27.9602, 44.423, -144.903, -76.3056, 42.8359
5.73565, 40, -26.7072, -28.137, 44.5588, -144.778, -76.1834, 42.9056
5.74359, 40, -26.6619, -28.312, 44.6938, -144.653, -76.0612, 42.9824
5.75159, 40, -26.6158, -28.4858, 44.8275, -144.529, -75.9397, 43.0655
5.75997, 40, -26.5687, -28.6587, 44.96, -144.406, -75.8181, 43.1545
5.76885, 40, -26.5203, -28.8303, 45.091, -144.284, -75.6975, 43.251
5.77582, 41, -26.4709, -28.9999, 45.2206, -144.162, -75.5771, 43.3537
5.7851, 41, -26.4204, -29.1676, 45.3488, -144.041, -75.4571, 43.4635
5.79192, 41, -26.3686, -29.3342, 45.4755, -143.922, -75.3378, 43.5798
5.80076, 41, -26.3154, -29.4996, 45.6007, -143.803, -75.2187, 43.7032
5.80809, 41, -26.261, -29.6627, 45.7242, -143.686, -75.1005, 43.8337
5.81664, 42, -26.2052, -29.824, 45.8458, -143.57, -74.9826, 43.9715
5.82493, 42, -26.1479, -29.9836, 45.9657, -143.456, -74.865, 44.1167
5.8321, 42, -26.089, -30.1414, 46.0835, -143.343, -74.7483, 44.2688
5.84095, 42, -26.0285, -30.2972, 46.1993, -143.232, -74.6317, 44.4283
5.84807, 42, -25.9977, -30.3741, 46.2565, -143.177, -74.5737, 44.5951
5.85557, 42, -25.9349, -30.5262, 46.3693, -143.068, -74.4582, 44.6811
5.86532, 43, -25.8705, -30.6762, 46.48, -142.909, -74.2855, 44.9511
5.87154, 43, -25.8044, -30.8242, 46.5886, -142.857, -74.2282, 45.045
5.87955, 43, -25.7366, -30.9698, 46.6951, -142.754, -74.1138, 45.2384
5.88767, 43, -25.6672, -31.1131, 46.7996, -142.652, -73.9996, 45.4396
5.89559, 43, -25.5962, -31.2541, 46.9023, -142.553, -73.8862, 45.6484
5.90354, 44, -25.5235, -31.3929, 47.0028, -142.456, -73.773, 45.865
5.91178, 44, -25.449, -31.5295, 47.101, -142.361, -73.6604, 46.0896
5.92585, 44, -25.2943, -31.7956, 47.2899, -142.177, -73.4363, 46.5631
5.92755, 44, -25.2943, -31.7956, 47.2899, -142.177, -73.4363, 46.5631
5.93555, 44, -25.2142, -31.9245, 47.3807, -142.089, -73.3254, 46.8121
5.94353, 45, -25.1322, -32.0508, 47.4691, -142.004, -73.2148, 47.0694
5.95161, 45, -25.0483, -32.1743, 47.5551, -141.922, -73.105, 47.3354
5.95977, 45, -24.9623, -32.295, 47.6382, -141.843, -72.9959, 47.6095
5.97048, 45, -24.8294, -32.4706, 47.7573, -141.729, -72.8334, 48.0361
5.97559, 45, -24.7839, -32.5275, 47.7955, -141.693, -72.7798, 48.1824
5.98357, 46, -24.6912, -32.639, 47.8695, -141.623, -72.673, 48.4819
5.9916, 46, -24.5963, -32.7471, 47.9407, -141.557, -72.5668, 48.79
6.00056, 46, -24.4989, -32.852, 48.0089, -141.493, -72.4618, 49.106
6.01008, 46, -24.3486, -33.0026, 48.1053, -141.406, -72.3055, 49.5968
6.01569, 46, -24.2974, -33.0509, 48.1357, -141.379, -72.2541, 49.7646
6.02451, 47, -24.1931, -33.1448, 48.1939, -141.327, -72.1519, 50.106
6.03155, 47, -24.0865, -33.2347, 48.2485, -141.28, -72.0505, 50.456
6.03953, 47, -23.9772, -33.3205, 48.2995, -141.236, -71.9503, 50.8144
6.04753, 47, -23.8653, -33.4021, 48.3466, -141.198, -71.8513, 51.1809
6.05572, 47, -23.7505, -33.4795, 48.39, -141.164, -71.7534, 51.5561
6.06368, 48, -23.6329, -33.5525, 48.4294, -141.135, -71.6566, 51.9394
6.07155, 48, -23.5126, -33.6211, 48.4647, -141.11, -71.5617, 52.3306
6.0796, 48, -23.3898, -33.6849, 48.4958, -141.089, -71.4682, 52.7304
6.08753, 48, -23.2646, -33.744, 48.5229, -141.074, -71.3763, 53.139
6.0956, 48, -23.1366, -33.7979, 48.5457, -141.064, -71.2867, 53.5556
6.10358, 49, -23.0057, -33.8468, 48.5642, -141.059, -71.1989, 53.9807
6.11171, 49, -22.8721, -33.8904, 48.5783, -141.058, -71.1127, 54.4132
6.12053, 49, -22.7355, -33.9286, 48.5877, -141.062, -71.0289, 54.8537
6.12753, 49, -22.5959, -33.9612, 48.5924, -141.073, -70.9469, 55.3022
6.13569, 49, -22.4536, -33.9882, 48.5927, -141.09, -70.8675, 55.7584
6.14448, 50, -22.3085, -34.0092, 48.5881, -141.113, -70.7903, 56.2235
6.1517, 50, -22.1608, -34.0241, 48.5784, -141.142, -70.7164, 56.696
6.16011, 50, -22.0103, -34.0327, 48.5634, -141.177, -70.6451, 57.1773
6.1677, 50, -21.8569, -34.0353, 48.5431, -141.218, -70.5773, 57.6676
6.17562, 50, -21.7005, -34.0318, 48.5172, -141.267, -70.5124, 58.1658
6.18469, 51, -21.5409, -34.0215, 48.4857, -141.321, -70.452, 58.6714
6.19347, 51, -21.3784, -34.0044, 48.4489, -141.381, -70.3941, 59.183
6.19962, 51, -21.2132, -33.9805, 48.4066, -141.448, -70.3405, 59.7008
6.21033, 51, -21.0454, -33.9495, 48.3587, -141.521, -70.2905, 60.2239
6.21586, 51, -20.8753, -33.9115, 48.3054, -141.6, -70.2436, 60.7522
6.22359, 51, -20.7026, -33.8661, 48.2464, -141.685, -70.2012, 61.2849
6.23159, 52, -20.5273, -33.8129, 48.1816, -141.777, -70.1635, 61.8232
6.24011, 52, -20.3493, -33.7519, 48.1109, -141.874, -70.1301, 62.3675
6.25021, 52, -20.1684, -33.6828, 48.0342, -141.978, -70.1011, 62.9179
6.25566, 52, -19.9849, -33.6055, 47.9512, -142.088, -70.0773, 63.4737
6.26373, 52, -19.799, -33.5198, 47.862, -142.205, -70.059, 64.0358
6.2718, 53, -19.6109, -33.4254, 47.7664, -142.327, -70.0463, 64.6043
6.27991, 53, -19.4209, -33.3225, 47.6644, -142.457, -70.0392, 65.1788
6.28894, 53, -19.2286, -33.2115, 47.5563, -142.592, -70.0372, 65.7577
6.2974, 53, -19.0344, -33.0921, 47.442, -142.733, -70.0404, 66.3414
6.30399, 53, -18.8384, -32.9642, 47.3216, -142.879, -70.0499, 66.9292
6.31209, 54, -18.6405, -32.8278, 47.195, -143.03, -70.0658, 67.5187
6.32055, 54, -18.4407, -32.6831, 47.0628, -143.186, -70.0883, 68.1092
6.32806, 54, -18.239, -32.5302, 46.9251, -143.347, -70.1177, 68.701
6.33614, 54, -18.0358, -32.3691, 46.782, -143.511, -70.1531, 69.2938
6.34446, 54, -17.8316, -32.1993, 46.6332, -143.68, -70.1945, 69.8875
6.35364, 55, -17.6265, -32.0203, 46.4785, -143.854, -70.2441, 70.483
6.36016, 55, -17.5236, -31.9274, 46.3988, -143.942, -70.2718, 70.7821
6.36758, 55, -17.3167, -31.7349, 46.235, -144.122, -70.332, 71.3834
6.37557, 55, -17.1081, -31.5327, 46.0644, -144.307, -70.4013, 71.9885
6.38352, 55, -16.8979, -31.3201, 45.8862, -144.498, -70.4787, 72.598
6.39172, 56, -16.686, -31.0968, 45.701, -144.693, -70.5656, 73.2125
6.39969, 56, -16.4726, -30.8633, 45.5094, -144.892, -70.6612, 73.8316
6.40753, 56, -16.2579, -30.6189, 45.31, -145.096, -70.766, 74.4536
6.41744, 56, -15.9354, -30.2318, 44.9967, -145.41, -70.9413, 75.393
6.42485, 56, -15.828, -29.9602, 44.7801, -145.623, -71.07, 76.0227
6.43191, 57, -15.6126, -29.8201, 44.6689, -145.731, -71.1381, 76.3381
6.43953, 57, -15.396, -29.5323, 44.4408, -145.949, -71.2815, 76.9693
6.44759, 57, -15.1783, -29.2342, 44.2066, -146.17, -71.435, 77.6024
6.45552, 57, -14.9598, -28.9258, 43.9658, -146.393, -71.5983, 78.2363
6.46353, 57, -14.7416, -28.6089, 43.7187, -146.617, -71.7714, 78.8689
6.47472, 58, -14.4152, -28.1182, 43.3395, -146.954, -72.0477, 79.8137
6.48049, 58, -14.3069, -27.951, 43.2108, -147.066, -72.1438, 80.1267
6.48759, 58, -14.0915, -27.6106, 42.9513, -147.289, -72.3413, 80.7482
6.49659, 58, -13.8778, -27.2632, 42.6894, -147.511, -72.5459, 81.3623
6.50353, 58, -13.6656, -26.909, 42.4244, -147.73, -72.7569, 81.9698
6.51164, 58, -13.4546, -26.5486, 42.1573, -147.946, -72.9745, 82.5706
6.51952, 59, -13.2451, -26.1812, 41.8865, -148.161, -73.199, 83.1648
6.52752, 59, -13.0375, -25.8072, 41.6125, -148.374, -73.431, 83.7538
6.53559, 59, -12.8315, -25.4263, 41.3349, -148.585, -73.6713, 84.3393
6.54381, 59, -12.6266, -25.0388, 41.053, -148.795, -73.9199, 84.9216
6.55255, 59, -12.4226, -24.6434, 40.7673, -149.003, -74.1778, 85.5003
6.55952, 60, -12.2196, -24.2404, 40.4766, -149.209, -74.4445, 86.0758
6.56801, 60, -12.018, -23.83, 40.1825, -149.414, -74.7205, 86.6486
6.57635, 60, -11.8178, -23.4132, 39.8847, -149.617, -75.0051, 87.2182
6.58353, 60, -11.6193, -22.9899, 39.5846, -149.817, -75.298, 87.7824
6.5923, 60, -11.4229, -22.5618, 39.2824, -150.014, -75.5983, 88.3418
6.59952, 61, -11.229, -22.1295, 38.9789, -150.207, -75.905, 88.8949
6.60752, 61, -11.0373, -21.6933, 38.6749, -150.395, -76.2167, 89.4396
6.61831, 61, -10.8479, -21.2537, 38.3703, -150.579, -76.6923, 90.2385
6.62367, 61, -10.6609, -20.8105, 38.0662, -150.757, -76.8529, 90.5001
6.63174, 61, -10.4762, -20.3638, 37.7619, -150.93, -77.1768, 91.0163
6.63949, 62, -10.2939, -19.9137, 37.4583, -151.098, -77.5048, 91.5235
6.64754, 62, -10.1145, -19.4604, 37.1539, -151.261, -77.8377, 92.0222
6.65557, 62, -9.9377, -19.0046, 36.8491, -151.42, -78.1758, 92.5131
6.6636, 62, -9.76352, -18.5458, 36.5429, -151.574, -78.5197, 92.9976
6.67268, 62, -9.59188, -18.0847, 36.2364, -151.725, -78.869, 93.4748
6.68048, 63, -9.42228, -17.6218, 35.9293, -151.87, -79.2236, 93.9448
6.68791, 63, -9.25476, -17.1569, 35.6226, -152.011, -79.583, 94.4053
6.69568, 63, -9.08951, -16.6902, 35.3169, -152.146, -79.946, 94.8567
6.70392, 63, -8.92687, -16.2219, 35.0122, -152.277, -80.312, 95.2982
6.71167, 63, -8.76687, -15.7521, 34.7093, -152.401, -80.6805, 95.7288
6.71988, 64, -8.60956, -15.2812, 34.4082, -152.52, -81.0508, 96.149
6.72809, 64, -8.45491, -14.8098, 34.1098, -152.633, -81.423, 96.5576
6.73554, 64, -8.30284, -14.338, 33.8125, -152.741, -81.7968, 96.9546
6.74432, 64, -8.1533, -13.8669, 33.5176, -152.844, -82.1725, 97.3409
6.75155, 64, -8.00618, -13.3965, 33.224, -152.941, -82.5498, 97.7155
6.75964, 64, -7.86167, -12.9275, 32.9329, -153.032, -82.9287, 98.0777
6.76913, 65, -7.71975, -12.4603, 32.6445, -153.118, -83.3088, 98.4282
6.77609, 65, -7.58059, -11.9943, 32.3588, -153.198, -83.6898, 98.7654
6.78482, 65, -7.44455, -11.5298, 32.0769, -153.272, -84.0713, 99.0894
6.79459, 65, -7.31124, -11.0662, 31.7978, -153.341, -84.4533, 99.4001
6.80029, 65, -7.1808, -10.6037, 31.5224, -153.404, -84.8358, 99.697
6.80882, 66, -7.05275, -10.1434, 31.2496, -153.462, -85.2182, 99.9794
6.81602, 66, -6.92669, -9.68581, 30.9801, -153.514, -85.6014, 100.247
6.82565, 66, -6.8026, -9.23265, 30.7143, -153.56, -85.9845, 100.499
6.83229, 66, -6.68068, -8.78517, 30.4515, -153.601, -86.3665, 100.736
6.84008, 66, -6.5611, -8.34303, 30.1935, -153.637, -86.7463, 100.955
6.84838, 67, -6.44412, -7.90701, 29.9407, -153.667, -87.1225, 101.157
6.85548, 67, -6.38674, -7.69117, 29.8165, -153.679, -87.3088, 101.252
6.86409, 67, -6.27425, -7.26436, 29.5739, -153.7, -87.6773, 101.427
6.87254, 67, -6.1105, -6.63473, 29.223, -153.721, -88.2189, 101.656
6.88133, 67, -6.00448, -6.2231, 28.9973, -153.728, -88.5724, 101.787
6.88752, 68, -5.95228, -6.01986, 28.8871, -153.73, -88.7474, 101.846
6.89806, 68, -5.79851, -5.42009, 28.564, -153.73, -89.2665, 101.996
6.90355, 68, -5.7481, -5.22327, 28.4582, -153.727, -89.438, 102.038
6.9115, 68, -5.64859, -4.83432, 28.25, -153.719, -89.7798, 102.107
6.91952, 68, -5.55078, -4.45125, 28.0454, -153.706, -90.1201, 102.158
6.92941, 69, -5.40732, -3.88572, 27.7443, -153.678, -90.6279, 102.2
6.93551, 69, -5.36039, -3.69925, 27.6462, -153.667, -90.7966, 102.206
6.94351, 69, -5.26781, -3.32923, 27.4535, -153.64, -91.1326, 102.204
6.95366, 69, -5.13233, -2.78124, 27.1707, -153.592, -91.6337, 102.162
6.95952, 69, -5.08805, -2.60025, 27.0783, -153.575, -91.7998, 102.138
6.96754, 70, -5.00065, -2.24017, 26.8967, -153.537, -92.1312, 102.072
6.97565, 70, -4.91455, -1.88401, 26.7188, -153.495, -92.4616, 101.985
6.98349, 70, -4.82958, -1.53204, 26.5435, -153.449, -92.7914, 101.876
6.9925, 70, -4.74559, -1.18552, 26.3719, -153.4, -93.1205, 101.745
6.99966, 70, -4.66258, -0.843771, 26.2045, -153.347, -93.4489, 101.591
7.00754, 71, -4.58063, -0.50809, 26.0403, -153.291, -93.7757, 101.414
7.01562, 71, -4.49972, -0.178276, 25.8799, -153.234, -94.1001, 101.216
7.02373, 71, -4.41983, 0.145108, 25.7246, -153.172, -94.4216, 100.997
7.0315, 71, -4.34086, 0.462862, 25.5748, -153.109, -94.7388, 100.757
7.03952, 71, -4.26276, 0.775172, 25.4298, -153.043, -95.0521, 100.496
7.04861, 72, -4.1856, 1.08081, 25.2896, -152.976, -95.3614, 100.216
7.05892, 72, -4.07079, 1.52731, 25.0872, -152.871, -95.8188, 99.7573
7.0635, 72, -4.03264, 1.67255, 25.0216, -152.836, -95.9697, 99.594
7.07503, 72, -3.91833, 2.09899, 24.8296, -152.728, -96.4193, 99.0719
7.07953, 72, -3.88025, 2.23794, 24.7671, -152.692, -96.568, 98.8872
7.08757, 72, -3.80411, 2.51064, 24.6444, -152.618, -96.8638, 98.5014
7.0955, 73, -3.72813, 2.77729, 24.5249, -152.545, -97.1568, 98.0937
7.1066, 73, -3.6139, 3.16491, 24.3524, -152.434, -97.5906, 97.4417
7.11249, 73, -3.57573, 3.29069, 24.2969, -152.397, -97.7334, 97.2137
7.12405, 73, -3.46074, 3.65865, 24.1365, -152.288, -98.1558, 96.5008
7.12767, 73, -3.42221, 3.77756, 24.0852, -152.252, -98.2943, 96.2534
7.13595, 74, -3.3446, 4.00878, 23.9857, -152.181, -98.5679, 95.7455
7.14351, 74, -3.26631, 4.23154, 23.8901, -152.112, -98.836, 95.2212
7.15158, 74, -3.18739, 4.44547, 23.7987, -152.044, -99.0984, 94.6825
7.15951, 74, -3.10778, 4.64958, 23.7115, -151.978, -99.3545, 94.1311
7.16757, 74, -3.02744, 4.84412, 23.6284, -151.915, -99.6037, 93.5676
7.17571, 75, -2.94625, 5.02939, 23.5496, -151.854, -99.8451, 92.9936
7.18447, 75, -2.86405, 5.20458, 23.4747, -151.797, -100.078, 92.4109
7.19165, 75, -2.78083, 5.36894, 23.4037, -151.741, -100.303, 91.8202
7.20048, 75, -2.6967, 5.52277, 23.3366, -151.689, -100.519, 91.2214
7.20844, 75, -2.61171, 5.66605, 23.2734, -151.641, -100.725, 90.6152
7.21571, 76, -2.52581, 5.79811, 23.2144, -151.595, -100.923, 90.0016
7.22612, 76, -2.43885, 5.91882, 23.1597, -151.554, -101.111, 89.3796
7.23167, 76, -2.35102, 6.02789, 23.1094, -151.516, -101.29, 88.7486
7.24016, 76, -2.26252, 6.12477, 23.0634, -151.482, -101.459, 88.1099
7.24754, 76, -2.17308, 6.20918, 23.0221, -151.452, -101.619, 87.4648
7.25598, 77, -2.08269, 6.28071, 22.9858, -151.426, -101.766, 86.814
7.26457, 77, -1.99147, 6.33909, 22.9546, -151.404, -101.902, 86.1614
7.27165, 77, -1.89933, 6.38401, 22.929, -151.386, -102.024, 85.5098
7.28058, 77, -1.80638, 6.41474, 22.909, -151.373, -102.131, 84.86
7.28792, 77, -1.71257, 6.43134, 22.8949, -151.363, -102.224, 84.213
7.29629, 78, -1.618, 6.43353, 22.8866, -151.356, -102.302, 83.5703
7.30497, 78, -1.52271, 6.4206, 22.8837, -151.353, -102.365, 82.9319
7.312, 78, -1.42672, 6.39235, 22.8865, -151.353, -102.411, 82.2966
7.32087, 78, -1.33031, 6.34835, 22.8955, -151.356, -102.442, 81.6658
7.32824, 78, -1.23359, 6.28813, 22.9107, -151.362, -102.457, 81.0406
7.33708, 78, -1.13666, 6.21161, 22.9327, -151.372, -102.457, 80.4206
7.34491, 79, -1.08817, 6.11871, 22.9617, -151.385, -102.438, 79.8067
7.35318, 79, -0.942405, 6.00954, 22.9982, -151.402, -102.401, 79.2011
7.3595, 79, -0.893854, 5.94887, 23.0193, -151.411, -102.376, 78.9018
7.36755, 79, -0.796854, 5.81523, 23.0671, -151.432, -102.313, 78.3095
7.37556, 79, -0.699843, 5.66498, 23.1227, -151.455, -102.231, 77.727
7.38353, 80, -0.602742, 5.49834, 23.1857, -151.481, -102.132, 77.1553
7.39154, 80, -0.505663, 5.31527, 23.2563, -151.508, -102.013, 76.5959
7.3995, 80, -0.408658, 5.11587, 23.3349, -151.537, -101.877, 76.0476
7.4078, 80, -0.31174, 4.8995, 23.4215, -151.567, -101.722, 75.5103
7.41576, 80, -0.214959, 4.66487, 23.5163, -151.599, -101.548, 74.9838
7.42346, 81, -0.118314, 4.41285, 23.6197, -151.632, -101.356, 74.4684
7.43171, 81, -0.0218984, 4.14457, 23.7318, -151.665, -101.144, 73.9626
7.44165, 81, 0.0742491, 3.71088, 23.9171, -151.718, -100.791, 73.221
7.44749, 81, 0.170245, 3.5582, 23.9837, -151.736, -100.664, 72.9784
7.45572, 81, 0.265963, 3.23962, 24.1241, -151.773, -100.396, 72.5004
7.46606, 82, 0.40911, 2.73045, 24.3529, -151.828, -99.9579, 71.8009
7.47318, 82, 0.504286, 2.37039, 24.517, -151.865, -99.642, 71.3463
7.48028, 82, 0.551782, 2.18459, 24.6025, -151.884, -99.4771, 71.1226
7.48748, 82, 0.646661, 1.80051, 24.7807, -151.921, -99.134, 70.6821
7.49649, 82, 0.741394, 1.3997, 24.9683, -151.957, -98.7733, 70.2516
7.50622, 83, 0.883537, 0.768292, 25.2672, -152.01, -98.2003, 69.6247
7.51172, 83, 0.930898, 0.550371, 25.3719, -152.028, -98.001, 69.4205
7.51952, 83, 1.02565, 0.103245, 25.5894, -152.062, -97.5902, 69.0195
7.52749, 83, 1.12055, -0.358817, 25.816, -152.095, -97.1635, 68.6281
7.53627, 83, 1.21554, -0.835443, 26.0518, -152.126, -96.7208, 68.2454
7.54657, 84, 1.35834, -1.57775, 26.4251, -152.171, -96.0272, 67.6887
7.55151, 84, 1.40607, -1.83223, 26.5545, -152.186, -95.7881, 67.507
7.55957, 84, 1.50158, -2.35087, 26.8215, -152.214, -95.2986, 67.1493
7.56749, 84, 1.59741, -2.88314, 27.0986, -152.24, -94.7932, 66.7994
7.57561, 84, 1.69364, -3.42915, 27.386, -152.264, -94.2724, 66.4563
7.58797, 85, 1.83873, -4.27309, 27.8366, -152.297, -93.4639, 65.9555
7.59164, 85, 1.88719, -4.56054, 27.9916, -152.307, -93.1869, 65.7925
7.59959, 85, 1.98441, -5.14348, 28.3093, -152.327, -92.622, 65.4729
7.6075, 85, 2.08198, -5.73682, 28.6359, -152.344, -92.0455, 65.1612
7.61615, 85, 2.18002, -6.33906, 28.9717, -152.358, -91.4593, 64.8582
7.62666, 86, 2.32845, -7.2563, 29.4906, -152.374, -90.5606, 64.4216
7.63151, 86, 2.37822, -7.56565, 29.6674, -152.378, -90.2562, 64.281
7.63961, 86, 2.47851, -8.18862, 30.0261, -152.383, -89.6412, 64.0079
7.64749, 86, 2.57984, -8.81754, 30.3912, -152.386, -89.0182, 63.7456
7.65555, 86, 2.68186, -9.45188, 30.7618, -152.387, -88.3905, 63.4948
7.66736, 86, 2.8371, -10.4113, 31.328, -152.382, -87.4407, 63.1404
7.67174, 87, 2.88932, -10.7329, 31.5195, -152.378, -87.1213, 63.0281
7.67953, 87, 2.99422, -11.3781, 31.9055, -152.368, -86.4784, 62.8126
7.68767, 87, 3.10022, -12.0261, 32.2961, -152.355, -85.8306, 62.6095
7.6957, 87, 3.20697, -12.6765, 32.6913, -152.337, -85.1789, 62.4192
7.70359, 87, 3.31441, -13.3297, 33.0919, -152.315, -84.5232, 62.2416
7.71159, 88, 3.42256, -13.9856, 33.4977, -152.29, -83.8622, 62.077
7.7199, 88, 3.53123, -14.6439, 33.9082, -152.261, -83.1956, 61.9254
7.72843, 88, 3.6404, -15.3035, 34.3241, -152.227, -82.5237, 61.7874
7.73565, 88, 3.75005, -15.9634, 34.7449, -152.189, -81.847, 61.6637
7.74364, 88, 3.85997, -16.6223, 35.1695, -152.146, -81.1683, 61.5553
7.75164, 89, 3.97019, -17.279, 35.5973, -152.099, -80.4881, 61.4635
7.75955, 89, 4.08075, -17.9331, 36.0266, -152.046, -79.8076, 61.3895
7.77699, 89, 4.30315, -19.231, 36.8854, -151.925, -78.4481, 61.2982
7.77882, 89, 4.30315, -19.231, 36.8854, -151.925, -78.4481, 61.2982
7.78407, 89, 4.41484, -19.8737, 37.3134, -151.856, -77.7739, 61.2819
7.79228, 90, 4.52684, -20.5117, 37.7398, -151.783, -77.1037, 61.2862
7.8, 90, 4.63951, -21.1452, 38.1659, -151.704, -76.4351, 61.3144
7.8079, 90, 4.75215, -21.7738, 38.5914, -151.62, -75.7676, 61.3658
7.81605, 90, 4.8645, -22.3982, 39.0168, -151.529, -75.1014, 61.4407
7.82401, 90, 4.97651, -23.0189, 39.4429, -151.433, -74.4375, 61.5417
7.83281, 91, 5.08814, -23.6367, 39.8692, -151.33, -73.7738, 61.6689
7.84004, 91, 5.19944, -24.2506, 40.2959, -151.22, -73.109, 61.8244
7.84825, 91, 5.31018, -24.8598, 40.7229, -151.104, -72.4436, 62.0091
7.85708, 91, 5.36531, -25.1625, 41.1492, -150.98, -71.7771, 62.2234
7.86349, 91, 5.475, -25.7634, 41.362, -150.916, -71.4438, 62.342
7.8715, 92, 5.58418, -26.3566, 41.786, -150.783, -70.7794, 62.602
7.87949, 92, 5.69317, -26.9415, 42.2077, -150.644, -70.118, 62.8938
7.88754, 92, 5.80267, -27.5172, 42.6252, -150.499, -69.4602, 63.2162
7.89548, 92, 5.91296, -28.0834, 43.0369, -150.35, -68.8072, 63.569
7.90353, 92, 6.02408, -28.6396, 43.4425, -150.196, -68.1591, 63.9528
7.91147, 92, 6.13639, -29.1843, 43.8411, -150.039, -67.5182, 64.367
7.91948, 93, 6.25006, -29.7173, 44.2328, -149.88, -66.8846, 64.8122
7.93368, 93, 6.42402, -30.4961, 44.9968, -149.556, -65.6305, 65.7973
7.93542, 93, 6.48308, -30.7509, 44.9968, -149.556, -65.6305, 65.7973
7.94353, 93, 6.60271, -31.2549, 45.371, -149.393, -65.0074, 66.3398
7.95153, 93, 6.72449, -31.7537, 45.7411, -149.229, -64.3849, 66.919
7.95945, 94, 6.84833, -32.2477, 46.1083, -149.063, -63.7612, 67.5405
7.96902, 94, 7.03762, -32.9799, 46.6551, -148.814, -62.8148, 68.5622
7.97548, 94, 7.10153, -33.2211, 46.8369, -148.731, -62.4961, 68.9291
7.9835, 94, 7.23079, -33.6982, 47.1988, -148.566, -61.8543, 69.702
7.99246, 94, 7.36302, -34.1687, 47.5578, -148.403, -61.2067, 70.5257
7.99948, 95, 7.49906, -34.6312, 47.9102, -148.247, -60.5577, 71.4028
8.00749, 95, 7.63995, -35.0833, 48.2543, -148.099, -59.9118, 72.3259
8.01554, 95, 7.78689, -35.5248, 48.5876, -147.963, -59.2707, 73.2895
8.02353, 95, 7.94026, -35.953, 48.9085, -147.841, -58.6368, 74.2922
8.03172, 95, 8.10054, -36.3635, 49.2144, -147.736, -58.0106, 75.3288
8.03968, 96, 8.26759, -36.7537, 49.505, -147.649, -57.3939, 76.3999
8.04754, 96, 8.44158, -37.1226, 49.7791, -147.58, -56.7914, 77.5001
8.05548, 96, 8.62169, -37.4687, 50.0363, -147.532, -56.2028, 78.6294
8.06349, 96, 8.80721, -37.7903, 50.2764, -147.505, -55.6285, 79.7811
8.07154, 96, 8.99759, -38.0864, 50.4972, -147.497, -55.0714, 80.9503
8.0808, 96, 9.19152, -38.3579, 50.6988, -147.51, -54.5339, 82.1316
8.08754, 97, 9.38749, -38.604, 50.8813, -147.546, -54.0185, 83.3236
8.09548, 97, 9.58415, -38.8245, 51.0433, -147.603, -53.5274, 84.5215
8.10351, 97, 9.78023, -39.0208, 51.1852, -147.68, -53.0623, 85.716
8.11154, 97, 9.97508, -39.1923, 51.3077, -147.774, -52.6252, 86.8989
8.11952, 97, 10.1676, -39.3382, 51.4106, -147.884, -52.218, 88.0625
8.12747, 97, 10.3567, -39.459, 51.4944, -148.007, -51.8411, 89.2014
8.13576, 98, 10.5423, -39.5545, 51.5599, -148.141, -51.495, 90.3079
8.14347, 98, 10.7254, -39.6258, 51.6074, -148.285, -51.1793, 91.3818
8.15154, 98, 10.9067, -39.6743, 51.6373, -148.439, -50.8918, 92.4305
8.15948, 98, 11.0865, -39.6997, 51.6498, -148.604, -50.629, 93.4679
8.1675, 98, 11.2641, -39.7016, 51.6455, -148.781, -50.3876, 94.5071
8.17555, 98, 11.4401, -39.6799, 51.6238, -148.971, -50.1656, 95.5585
8.18372, 98, 11.6161, -39.6344, 51.5844, -149.174, -49.9632, 96.6298
8.1916, 99, 11.7914, -39.5657, 51.5272, -149.391, -49.7817, 97.7201
8.19957, 99, 11.965, -39.4745, 51.4516, -149.618, -49.6236, 98.8265
8.20785, 99, 12.1356, -39.3607, 51.3574, -149.854, -49.4923, 99.9367
8.21557, 99, 12.3024, -39.2248, 51.2453, -150.096, -49.3906, 101.041
8.22357, 99, 12.4636, -39.0668, 51.1158, -150.34, -49.3197, 102.129
8.23159, 99, 12.6176, -38.887, 50.9703, -150.582, -49.2796, 103.192
8.23993, 100, 12.763, -38.6835, 50.8096, -150.821, -49.2705, 104.223
8.24757, 100, 12.8996, -38.4559, 50.6326, -151.055, -49.293, 105.225
8.25552, 100, 13.0271, -38.2058, 50.4387, -151.283, -49.3466, 106.198
8.26352, 100, 13.1462, -37.9335, 50.2286, -151.505, -49.4309, 107.146
8.27165, 100, 13.2573, -37.6403, 50.0011, -151.721, -49.5461, 108.072
8.27972, 100, 13.3603, -37.3243, 49.7552, -151.931, -49.6917, 108.976
8.28784, 101, 13.4555, -36.9845, 49.4926, -152.134, -49.8674, 109.86
8.29583, 101, 13.543, -36.62, 49.2126, -152.328, -50.0728, 110.72
8.3039, 101, 13.6229, -36.2302, 48.9157, -152.514, -50.3077, 111.561
8.31197, 101, 13.6949, -35.8155, 48.6009, -152.69, -50.5724, 112.377
8.32061, 101, 13.7587, -35.3775, 48.2687, -152.857, -50.8679, 113.172
8.33861, 102, 13.8603, -34.4343, 47.5532, -153.157, -51.5545, 114.694
8.34074, 102, 13.8799, -34.1843, 47.3638, -153.224, -51.7463, 115.06
8.34408, 102, 13.897, -33.928, 47.1703, -153.288, -51.946, 115.42
8.35292, 102, 13.9117, -33.6656, 46.7718, -153.407, -52.3694, 116.121
8.36003, 102, 13.9339, -33.1233, 46.567, -153.462, -52.8247, 116.794
8.36805, 102, 13.9472, -32.5587, 46.1471, -153.56, -53.064, 117.122
8.37546, 102, 13.9525, -31.9725, 45.7131, -153.645, -53.5633, 117.758
8.38346, 103, 13.9504, -31.3658, 45.2652, -153.716, -54.0898, 118.368
8.39151, 103, 13.9417, -30.7404, 44.8045, -153.774, -54.6412, 118.953
8.39948, 103, 13.9269, -30.098, 44.3319, -153.819, -55.2152, 119.515
8.40747, 103, 13.9067, -29.4399, 43.8488, -153.852, -55.809, 120.052
8.41546, 103, 13.8813, -28.7671, 43.3574, -153.873, -56.4213, 120.564
8.42351, 104, 13.8516, -28.0822, 42.8592, -153.883, -57.0485, 121.051
8.43152, 104, 13.8177, -27.3872, 42.3562, -153.884, -57.6882, 121.514
8.43947, 104, 13.7801, -26.6841, 41.8496, -153.873, -58.3418, 121.954
8.44747, 104, 13.7386, -25.9738, 41.3405, -153.854, -59.0083, 122.373
8.45701, 104, 13.6719, -24.9007, 40.5754, -153.809, -60.0278, 122.967
8.46347, 104, 13.6488, -24.5417, 40.3202, -153.79, -60.3713, 123.158
8.47146, 104, 13.6012, -23.8222, 39.8098, -153.746, -61.0622, 123.529
8.48105, 104, 13.5519, -23.1007, 39.3003, -153.672, -62.1089, 124.07
8.48747, 104, 13.5017, -22.3781, 38.792, -153.644, -62.4594, 124.248
8.49647, 104, 13.4507, -21.6546, 38.2853, -153.584, -63.1621, 124.6
8.50355, 104, 13.3992, -20.9312, 37.78, -153.522, -63.8657, 124.951
8.51253, 104, 13.3472, -20.2082, 37.276, -153.454, -64.5694, 125.299
8.51947, 104, 13.2951, -19.4848, 36.7742, -153.382, -65.2746, 125.646
8.52754, 104, 13.2427, -18.7612, 36.2743, -153.307, -65.9813, 125.992
8.53546, 104, 13.1904, -18.0376, 35.7766, -153.227, -66.6889, 126.338
8.54348, 104, 13.1384, -17.3137, 35.2813, -153.144, -67.3971, 126.682
8.55153, 104, 13.0866, -16.5893, 34.7877, -153.056, -68.1044, 127.026
8.55946, 104, 13.0352, -15.8652, 34.2963, -152.965, -68.8125, 127.37
8.56746, 104, 12.9842, -15.1406, 33.8069, -152.869, -69.523, 127.714
8.57553, 104, 12.9333, -14.4152, 33.3198, -152.77, -70.2344, 128.057
8.58347, 104, 12.8829, -13.6897, 32.8357, -152.667, -70.9446, 128.4
8.59155, 104, 12.833, -12.9644, 32.3543, -152.56, -71.6543, 128.744
8.59948, 104, 12.7833, -12.2387, 31.8753, -152.45, -72.3664, 129.088
8.60747, 104, 12.7339, -11.5134, 31.3989, -152.335, -73.079, 129.433
8.61551, 104, 12.685, -10.7881, 30.925, -152.217, -73.7917, 129.779
8.62359, 104, 12.6363, -10.0625, 30.4538, -152.094, -74.5043, 130.124
8.63147, 104, 12.5879, -9.33682, 29.9857, -151.968, -75.2173, 130.471
8.6395, 104, 12.54, -8.61099, 29.5206, -151.837, -75.9311, 130.819
8.64748, 104, 12.4926, -7.88477, 29.059, -151.703, -76.6454, 131.167
8.65555, 104, 12.4457, -7.15935, 28.6006, -151.564, -77.3608, 131.517
8.66346, 104, 12.3996, -6.43428, 28.1453, -151.421, -78.0762, 131.869
8.67184, 104, 12.3539, -5.7096, 27.6936, -151.274, -78.7897, 132.221
8.67947, 104, 12.3087, -4.98572, 27.2454, -151.123, -79.5041, 132.574
8.6875, 104, 12.2644, -4.26319, 26.8016, -150.968, -80.2192, 132.928
8.6956, 104, 12.2211, -3.54285, 26.3628, -150.809, -80.9339, 133.284
8.70355, 104, 12.1789, -2.82727, 25.929, -150.646, -81.6446, 133.64
8.71163, 104, 12.138, -2.11752, 25.5012, -150.479, -82.3511, 133.996
8.71961, 104, 12.0983, -1.41522, 25.0806, -150.309, -83.0543, 134.352
8.72757, 104, 12.0595, -0.721298, 24.6682, -150.137, -83.7506, 134.705
8.73563, 104, 12.0218, -0.037183, 24.2654, -149.962, -84.4372, 135.056
8.74347, 104, 11.9851, 0.636208, 23.8732, -149.787, -85.1112, 135.403
8.7515, 104, 11.9494, 1.29702, 23.4934, -149.611, -85.7707, 135.744
8.75969, 104, 11.9149, 1.94492, 23.1259, -149.435, -86.4165, 136.081
8.76835, 104, 11.8816, 2.578, 22.771, -149.259, -87.0468, 136.411
8.77557, 104, 11.8491, 3.19492, 22.4284, -149.084, -87.661, 136.734
8.78371, 104, 11.8182, 3.79546, 22.0994, -148.91, -88.259, 137.05
8.79175, 104, 11.7884, 4.37918, 21.7828, -148.738, -88.8395, 137.36
8.79986, 104, 11.7599, 4.94651, 21.4786, -148.566, -89.4026, 137.663
8.80788, 104, 11.7329, 5.49682, 21.1857, -148.397, -89.9502, 137.959
8.81658, 104, 11.7067, 6.02981, 20.905, -148.229, -90.4819, 138.248
8.82399, 104, 11.6818, 6.54615, 20.636, -148.064, -90.997, 138.53
8.83256, 104, 11.6581, 7.04557, 20.3785, -147.901, -91.4958, 138.805
8.84006, 104, 11.6356, 7.52784, 20.133, -147.74, -91.977, 139.071
8.84873, 104, 11.6142, 7.9937, 19.8981, -147.583, -92.4413, 139.33
8.85609, 104, 11.5939, 8.44298, 19.6739, -147.429, -92.8894, 139.582
8.86487, 104, 11.5842, 8.66128, 19.566, -147.353, -93.1071, 139.705
8.87145, 104, 11.5657, 9.08448, 19.3582, -147.204, -93.5302, 139.944
8.88021, 104, 11.5482, 9.49066, 19.1603, -147.059, -93.9361, 140.288
8.88747, 104, 11.5319, 9.87889, 18.9733, -146.918, -94.3252, 140.398
8.89544, 104, 11.5166, 10.249, 18.797, -146.782, -94.6961, 140.611
8.90344, 104, 11.5024, 10.5998, 18.6309, -146.651, -95.0489, 140.815
8.91145, 104, 11.4892, 10.9316, 18.4751, -146.525, -95.3824, 141.009
8.91955, 104, 11.477, 11.2435, 18.3305, -146.406, -95.696, 141.192
8.92748, 104, 11.4658, 11.5347, 18.1965, -146.293, -95.989, 141.363
8.93549, 104, 11.4557, 11.8054, 18.0729, -146.188, -96.261, 141.523
8.9435, 104, 11.4465, 12.0545, 17.96, -146.09, -96.5116, 141.671
8.95144, 104, 11.4379, 12.2824, 17.8577, -145.999, -96.7402, 141.807
8.95956, 104, 11.4301, 12.4897, 17.7657, -145.917, -96.9469, 141.93
8.96752, 104, 11.4232, 12.6756, 17.6841, -145.843, -97.1315, 142.04
8.97544, 104, 11.417, 12.8403, 17.6127, -145.778, -97.2941, 142.137
8.98344, 104, 11.4114, 12.9849, 17.5512, -145.721, -97.4348, 142.221
8.99302, 104, 11.4063, 13.1101, 17.4992, -145.672, -97.5539, 142.323
8.99954, 104, 11.4016, 13.2166, 17.4562, -145.633, -97.6525, 142.351
9.00747, 104, 11.3974, 13.3054, 17.4215, -145.6, -97.732, 142.399
9.01551, 104, 11.3935, 13.3783, 17.3943, -145.575, -97.7938, 142.436
9.02344, 104, 11.39, 13.4374, 17.3741, -145.555, -97.8396, 142.465
9.03145, 104, 11.3869, 13.4842, 17.3594, -145.541, -97.8727, 142.484
9.03956, 104, 11.3844, 13.5198, 17.3494, -145.532, -97.8957, 142.498
9.04746, 104, 11.3824, 13.5463, 17.343, -145.526, -97.9106, 142.506
9.05544, 104, 11.3808, 13.566, 17.339, -145.522, -97.9195, 142.511
9.06351, 104, 11.3795, 13.5796, 17.3368, -145.52, -97.9244, 142.513
9.07144, 104, 11.3786, 13.5888, 17.3356, -145.519, -97.9268, 142.515
9.07949, 105, 11.3779, 13.595, 17.3351, -145.519, -97.928, 142.515
9.08753, 105, 11.3774, 13.599, 17.3348, -145.519, -97.9285, 142.516
9.09546, 105, 11.377, 13.6017, 17.3347, -145.518, -97.9287, 142.516
9.10344, 105, 11.3767, 13.6039, 17.3347, -145.518, -97.9288, 142.516
9.11151, 105, 11.3765, 13.6057, 17.3346, -145.518, -97.9289, 142.516
9.1195, 105, 11.3763, 13.6073, 17.3346, -145.518, -97.9289, 142.516
9.12754, 105, 11.3762, 13.6087, 17.3346, -145.518, -97.9289, 142.516
9.13551, 105, 11.3761, 13.6099, 17.3347, -145.518, -97.9287, 142.516
9.14344, 105, 11.376, 13.6109, 17.3347, -145.518, -97.9287, 142.516
9.15144, 105, 11.3759, 13.6117, 17.3347, -145.518, -97.9285, 142.516
9.1596, 105, 11.3759, 13.6124, 17.3347, -145.518, -97.9284, 142.516
9.16746, 105, 11.3759, 13.6128, 17.3347, -145.518, -97.9283, 142.516
9.17544, 105, 11.3759, 13.6132, 17.3348, -145.519, -97.9281, 142.516
9.18352, 105, 11.3759, 13.6133, 17.3348, -145.519, -97.928, 142.516
9.19149, 105, 11.3759, 13.6134, 17.3349, -145.519, -97.9279, 142.516
