hehonglu123/Motion-Primitive-Planning/ILC/recorded_data/realrobot/wood/iteration_30/run_3.csv
timestamp, cmd_num, J1, J2, J3, J4, J5, J6
0.000418, -1, 11.3763, 13.6177, 17.3312, -145.52, -97.9267, 142.517
0.003644, -1, 11.3763, 13.6177, 17.3312, -145.52, -97.9267, 142.517
0.007939, -1, 11.3763, 13.6177, 17.3312, -145.52, -97.9267, 142.517
0.02859, -1, 11.3763, 13.6177, 17.3312, -145.52, -97.9267, 142.517
0.029795, -1, 11.3763, 13.6177, 17.3312, -145.52, -97.9267, 142.517
0.032567, -1, 11.3763, 13.6177, 17.3312, -145.52, -97.9267, 142.517
0.039699, -1, 11.3763, 13.6177, 17.3312, -145.52, -97.9267, 142.517
0.177857, -1, 10.3401, 13.345, 17.398, -145.843, -97.8167, 140.654
0.17904, -1, 10.3401, 13.345, 17.398, -145.843, -97.8167, 140.654
0.181074, -1, 10.2669, 13.325, 17.4031, -145.866, -97.8085, 140.516
0.18239, -1, 10.2669, 13.325, 17.4031, -145.866, -97.8085, 140.516
0.18359, -1, 10.2669, 13.325, 17.4031, -145.866, -97.8085, 140.516
0.185722, -1, 10.1927, 13.3049, 17.4081, -145.89, -97.8003, 140.378
0.187022, -1, 10.1927, 13.3049, 17.4081, -145.89, -97.8003, 140.378
0.190756, -1, 10.1175, 13.2845, 17.4131, -145.914, -97.7919, 140.239
0.192683, -1, 10.0416, 13.2641, 17.4182, -145.937, -97.7835, 140.1
0.194026, -1, 10.0416, 13.2641, 17.4182, -145.937, -97.7835, 140.1
0.195394, -1, 10.0416, 13.2641, 17.4182, -145.937, -97.7835, 140.1
0.198932, -1, 9.96506, 13.2434, 17.4232, -145.961, -97.775, 139.961
0.201108, -1, 9.88792, 13.2227, 17.4283, -145.985, -97.7664, 139.821
0.202437, -1, 9.88792, 13.2227, 17.4283, -145.985, -97.7664, 139.821
0.205438, -1, 9.88792, 13.2227, 17.4283, -145.985, -97.7664, 139.821
0.206796, -1, 9.81037, 13.202, 17.4333, -146.009, -97.7577, 139.682
0.208617, -1, 9.81037, 13.202, 17.4383, -146.033, -97.7491, 139.542
0.210053, -1, 9.73259, 13.1813, 17.4383, -146.033, -97.7491, 139.542
0.211288, -1, 9.73259, 13.1813, 17.4383, -146.033, -97.7491, 139.542
0.213361, -1, 9.65479, 13.1605, 17.4434, -146.057, -97.7405, 139.402
0.214583, -1, 9.65479, 13.1605, 17.4434, -146.057, -97.7405, 139.402
0.216714, -1, 9.57711, 13.1399, 17.4484, -146.081, -97.732, 139.262
0.223657, -1, 9.49956, 13.1192, 17.4534, -146.105, -97.7235, 139.122
0.231656, -1, 9.34483, 13.078, 17.4633, -146.153, -97.7067, 138.843
0.239701, -1, 9.19042, 13.0369, 17.4733, -146.201, -97.69, 138.563
0.247698, -1, 9.03646, 12.9958, 17.4834, -146.249, -97.6733, 138.283
0.255736, -1, 8.88274, 12.9547, 17.4936, -146.297, -97.6564, 138.003
0.263628, -1, 8.72916, 12.9136, 17.5037, -146.345, -97.6393, 137.723
0.271651, -1, 8.57611, 12.8725, 17.5138, -146.393, -97.6218, 137.443
0.279691, -1, 8.42335, 12.8313, 17.524, -146.441, -97.6043, 137.163
0.287625, -1, 8.27035, 12.7899, 17.5342, -146.489, -97.587, 136.883
0.295717, -1, 8.1169, 12.7483, 17.5444, -146.537, -97.5699, 136.603
0.303687, -1, 7.96304, 12.7067, 17.5547, -146.585, -97.5531, 136.322
0.312684, -1, 7.80849, 12.665, 17.5648, -146.633, -97.5364, 136.042
0.319638, -1, 7.65359, 12.6232, 17.5749, -146.68, -97.5198, 135.762
0.327688, -1, 7.49864, 12.5815, 17.5851, -146.729, -97.503, 135.481
0.335705, -1, 7.34362, 12.54, 17.5953, -146.776, -97.4859, 135.201
0.343634, -1, 7.18866, 12.4984, 17.6056, -146.824, -97.4685, 134.92
0.351703, -1, 7.03362, 12.4568, 17.6159, -146.873, -97.4513, 134.64
0.35962, -1, 6.87847, 12.4155, 17.6262, -146.921, -97.4342, 134.36
0.367813, -1, 6.72355, 12.3742, 17.6365, -146.969, -97.4173, 134.08
0.375736, -1, 6.56883, 12.3329, 17.647, -147.017, -97.4005, 133.799
0.383626, -1, 6.41435, 12.2916, 17.6574, -147.065, -97.3839, 133.519
0.391668, -1, 6.26006, 12.2502, 17.6678, -147.113, -97.367, 133.238
0.39971, -1, 6.10581, 12.2087, 17.6781, -147.162, -97.3499, 132.957
0.407622, -1, 5.95133, 12.1672, 17.6883, -147.209, -97.3325, 132.677
0.416356, -1, 5.79672, 12.1256, 17.6987, -147.257, -97.3149, 132.396
0.423621, -1, 5.64192, 12.0839, 17.7089, -147.306, -97.2974, 132.115
0.431639, -1, 5.48691, 12.0422, 17.7192, -147.354, -97.2803, 131.834
0.440421, -1, 5.33167, 12.0005, 17.7295, -147.402, -97.2633, 131.553
0.447617, -1, 5.17616, 11.9588, 17.7398, -147.45, -97.2466, 131.272
0.45568, -1, 5.02042, 11.9171, 17.7503, -147.498, -97.2298, 130.991
0.46443, -1, 4.86464, 11.8755, 17.7608, -147.546, -97.2129, 130.71
0.471632, -1, 4.70891, 11.8339, 17.7712, -147.594, -97.1956, 130.429
0.479624, -1, 4.55316, 11.7923, 17.7817, -147.643, -97.1782, 130.148
0.48857, -1, 4.39753, 11.7508, 17.7921, -147.691, -97.1607, 129.867
0.495715, -1, 4.24211, 11.7093, 17.8025, -147.739, -97.1435, 129.586
0.636625, -1, 1.51981, 10.9797, 17.9846, -148.585, -96.8437, 124.658
0.637949, -1, 1.51981, 10.9797, 17.9846, -148.585, -96.8437, 124.658
0.639135, -1, 1.51981, 10.9797, 17.9846, -148.585, -96.8437, 124.658
0.641165, -1, 1.44183, 10.9588, 17.9898, -148.609, -96.8353, 124.517
0.642391, -1, 1.44183, 10.9588, 17.9898, -148.609, -96.8353, 124.517
0.644268, -1, 1.36388, 10.938, 17.9951, -148.633, -96.8268, 124.376
0.645623, -1, 1.36388, 10.938, 17.9951, -148.633, -96.8268, 124.376
0.648813, -1, 1.28597, 10.9172, 18.0003, -148.657, -96.8184, 124.235
0.650133, -1, 1.28597, 10.9172, 18.0003, -148.657, -96.8184, 124.235
0.651379, -1, 1.28597, 10.9172, 18.0003, -148.657, -96.8184, 124.235
0.653449, -1, 1.20813, 10.8963, 18.0055, -148.681, -96.8099, 124.094
0.654658, -1, 1.20813, 10.8963, 18.0055, -148.681, -96.8099, 124.094
0.657484, -1, 1.13037, 10.8754, 18.0106, -148.706, -96.8015, 123.953
0.660145, -1, 1.13037, 10.8754, 18.0106, -148.706, -96.8015, 123.811
0.661596, -1, 1.05269, 10.8545, 18.0158, -148.73, -96.7931, 123.811
0.663387, -1, 1.05269, 10.8545, 18.0158, -148.73, -96.7931, 123.811
0.66547, -1, 0.975117, 10.8336, 18.021, -148.754, -96.7845, 123.67
0.666687, -1, 0.975117, 10.8336, 18.021, -148.754, -96.7845, 123.67
0.668838, -1, 0.897644, 10.8127, 18.0262, -148.779, -96.7759, 123.529
0.670047, -1, 0.897644, 10.8127, 18.0262, -148.779, -96.7759, 123.529
0.671333, -1, 0.897644, 10.8127, 18.0262, -148.779, -96.7759, 123.529
0.673428, -1, 0.82022, 10.7918, 18.0314, -148.803, -96.7673, 123.388
0.68163, -1, 0.665493, 10.75, 18.0418, -148.851, -96.7498, 123.105
0.687617, -1, 0.588179, 10.7291, 18.047, -148.876, -96.741, 122.964
0.695665, -1, 0.433404, 10.6873, 18.0574, -148.924, -96.7234, 122.681
0.703652, -1, 0.278256, 10.6454, 18.0678, -148.972, -96.7061, 122.399
0.711611, -1, 0.122777, 10.6035, 18.0783, -149.021, -96.6891, 122.116
0.71961, -1, -0.0331793, 10.5617, 18.0888, -149.069, -96.6723, 121.833
0.727691, -1, -0.189535, 10.5198, 18.0994, -149.117, -96.6555, 121.55
0.734621, -1, -0.346113, 10.478, 18.1099, -149.166, -96.6387, 121.268
0.74365, -1, -0.503087, 10.4361, 18.1204, -149.215, -96.6217, 120.985
0.751719, -1, -0.660332, 10.3942, 18.1308, -149.263, -96.6043, 120.702
0.758629, -1, -0.817702, 10.3523, 18.1412, -149.312, -96.5868, 120.419
0.767606, -1, -0.97508, 10.3105, 18.1516, -149.36, -96.5695, 120.137
0.775718, -1, -1.1323, 10.2687, 18.162, -149.409, -96.5524, 119.854
0.782691, -1, -1.28937, 10.2268, 18.1724, -149.458, -96.5356, 119.57
0.791671, -1, -1.44626, 10.185, 18.1827, -149.506, -96.5188, 119.287
0.799607, -1, -1.60292, 10.1431, 18.1932, -149.554, -96.5019, 119.004
0.808671, -1, -1.75902, 10.1012, 18.2037, -149.603, -96.4849, 118.721
0.815728, -1, -1.9147, 10.0593, 18.2141, -149.652, -96.4675, 118.437
0.824664, -1, -2.07008, 10.0174, 18.2246, -149.7, -96.4499, 118.154
0.831604, -1, -2.2252, 9.97553, 18.2351, -149.749, -96.4323, 117.87
0.839671, -1, -2.38043, 9.93363, 18.2455, -149.798, -96.415, 117.587
0.847606, -1, -2.53597, 9.89162, 18.2559, -149.846, -96.398, 117.303
0.855665, -1, -2.69176, 9.84969, 18.2664, -149.895, -96.3811, 117.019
0.863678, -1, -2.84795, 9.80774, 18.2767, -149.943, -96.3643, 116.736
0.87165, -1, -3.00458, 9.76578, 18.2872, -149.992, -96.3474, 116.452
0.879618, -1, -3.16157, 9.72386, 18.2976, -150.041, -96.3303, 116.168
0.88767, -1, -3.31899, 9.68191, 18.308, -150.089, -96.3127, 115.884
0.895677, -1, -3.47676, 9.63988, 18.3186, -150.138, -96.2951, 115.6
0.903622, -1, -3.63449, 9.59796, 18.329, -150.187, -96.2777, 115.316
0.911667, -1, -3.79239, 9.55608, 18.3394, -150.235, -96.2604, 115.032
0.919676, -1, -3.95044, 9.51399, 18.3498, -150.284, -96.2434, 114.747
0.927606, -1, -4.10836, 9.47204, 18.3602, -150.333, -96.2264, 114.463
0.935732, -1, -4.26619, 9.43008, 18.3706, -150.382, -96.2094, 114.179
0.943604, -1, -4.42386, 9.38802, 18.381, -150.43, -96.1922, 113.894
0.951627, -1, -4.58113, 9.346, 18.3913, -150.48, -96.1747, 113.61
0.959677, -1, -4.73791, 9.30394, 18.4017, -150.528, -96.1569, 113.325
0.9676, -1, -4.89431, 9.26187, 18.4122, -150.577, -96.1393, 113.04
0.975668, -1, -5.05044, 9.21978, 18.4228, -150.626, -96.1219, 112.755
0.983678, -1, -5.20631, 9.17771, 18.4333, -150.675, -96.1048, 112.47
0.991607, -1, -5.36219, 9.13558, 18.4439, -150.723, -96.0878, 112.186
0.999648, -1, -5.51825, 9.09343, 18.4544, -150.773, -96.0709, 111.901
1.00776, -1, -5.67456, 9.05136, 18.4648, -150.821, -96.0539, 111.616
1.01575, -1, -5.83127, 9.00918, 18.4753, -150.87, -96.0365, 111.331
1.02378, -1, -5.98838, 8.96698, 18.4857, -150.919, -96.019, 111.047
1.03171, -1, -6.14602, 8.92486, 18.4961, -150.968, -96.0013, 110.761
1.03971, -1, -6.30422, 8.88269, 18.5065, -151.017, -95.9839, 110.476
1.04779, -1, -6.46257, 8.84056, 18.5168, -151.066, -95.9668, 110.191
1.05566, -1, -6.62101, 8.79845, 18.5273, -151.114, -95.9497, 109.906
1.06366, -1, -6.77971, 8.75623, 18.5378, -151.164, -95.9328, 109.62
1.07199, -1, -6.93831, 8.71409, 18.5484, -151.213, -95.9157, 109.334
1.07966, -1, -7.09691, 8.67198, 18.5589, -151.261, -95.8984, 109.049
1.08785, -1, -7.25537, 8.62979, 18.5693, -151.311, -95.8808, 108.763
1.09594, -1, -7.41361, 8.58753, 18.5797, -151.36, -95.863, 108.478
1.10385, -1, -7.57144, 8.54523, 18.5903, -151.409, -95.8453, 108.192
1.11207, -1, -7.7289, 8.50292, 18.6008, -151.458, -95.828, 107.906
1.11862, -1, -7.80748, 8.4818, 18.606, -151.483, -95.8195, 107.763
1.12809, -1, -8.04285, 8.41831, 18.6217, -151.556, -95.7939, 107.334
1.13463, -1, -8.12116, 8.39711, 18.6269, -151.58, -95.7854, 107.191
1.14416, -1, -8.35599, 8.33358, 18.6426, -151.654, -95.7599, 106.763
1.15218, -1, -8.51281, 8.29114, 18.6532, -151.703, -95.7425, 106.477
1.16023, -1, -8.66994, 8.24878, 18.6637, -151.752, -95.7249, 106.19
1.16845, -1, -8.74867, 8.22764, 18.669, -151.801, -95.7072, 105.904
1.17619, -1, -8.90634, 8.18529, 18.6794, -151.825, -95.6897, 105.618
1.18364, -1, -9.06444, 8.1429, 18.6898, -151.875, -95.6811, 105.474
1.1916, -1, -9.22296, 8.1006, 18.7003, -151.924, -95.6639, 105.188
1.19959, -1, -9.38186, 8.05823, 18.7108, -151.973, -95.6468, 104.901
1.20766, -1, -9.54093, 8.01586, 18.7213, -152.022, -95.6297, 104.614
1.21566, -1, -9.70003, 7.9736, 18.7318, -152.072, -95.6125, 104.328
1.22359, -1, -9.85929, 7.93132, 18.7422, -152.121, -95.5949, 104.041
1.23161, -1, -10.0187, 7.88889, 18.7529, -152.17, -95.5771, 103.754
1.23962, -1, -10.1779, 7.84644, 18.7636, -152.22, -95.5592, 103.467
1.24765, -1, -10.337, 7.80393, 18.7742, -152.269, -95.5416, 103.18
1.25572, -1, -10.4959, 7.76138, 18.7848, -152.318, -95.5243, 102.893
1.2636, -1, -10.6545, 7.71892, 18.7952, -152.368, -95.5073, 102.606
1.27164, -1, -10.8126, 7.67639, 18.8057, -152.416, -95.4903, 102.319
1.2796, -1, -10.9705, 7.63379, 18.8163, -152.466, -95.4732, 102.032
1.2876, -1, -11.1281, 7.59127, 18.8267, -152.515, -95.4558, 101.745
1.29462, -1, -11.2854, 7.5488, 18.8372, -152.564, -95.4381, 101.457
1.3036, -1, -11.4429, 7.50631, 18.8477, -152.614, -95.4203, 101.17
1.31266, -1, -11.6004, 7.46376, 18.8582, -152.663, -95.4027, 100.883
1.31966, -1, -11.7583, 7.4213, 18.8689, -152.712, -95.3853, 100.595
1.32766, -1, -11.9167, 7.37886, 18.8795, -152.762, -95.368, 100.307
1.33663, -1, -12.0754, 7.33645, 18.8901, -152.811, -95.3509, 100.019
1.34367, -1, -12.2346, 7.29403, 18.9006, -152.86, -95.3336, 99.7313
1.3516, -1, -12.3941, 7.25157, 18.9111, -152.91, -95.3162, 99.4432
1.35963, -1, -12.5539, 7.20912, 18.9217, -152.959, -95.2984, 99.1554
1.36761, -1, -12.7139, 7.16666, 18.9322, -153.009, -95.2804, 98.8674
1.37564, -1, -12.874, 7.12416, 18.9428, -153.058, -95.2625, 98.5795
1.38373, -1, -13.0342, 7.0816, 18.9534, -153.108, -95.2449, 98.2913
1.39159, -1, -13.1941, 7.039, 18.9639, -153.157, -95.2276, 98.0032
1.39961, -1, -13.3539, 6.99639, 18.9746, -153.207, -95.2104, 97.7151
1.40841, -1, -13.5134, 6.95367, 18.9852, -153.256, -95.1933, 97.4266
1.41564, -1, -13.6726, 6.91088, 18.9958, -153.305, -95.176, 97.1377
1.42366, -1, -13.8316, 6.86816, 19.0064, -153.355, -95.1585, 96.8492
1.43237, -1, -13.9901, 6.82546, 19.0168, -153.404, -95.1407, 96.5608
1.43959, -1, -14.1484, 6.78277, 19.0274, -153.454, -95.1229, 96.272
1.44759, -1, -14.3065, 6.74014, 19.038, -153.503, -95.1053, 95.983
1.45645, -1, -14.4648, 6.69742, 19.0485, -153.552, -95.088, 95.694
1.46361, -1, -14.6232, 6.65476, 19.0591, -153.602, -95.0707, 95.405
1.47159, -1, -14.782, 6.61223, 19.0697, -153.652, -95.0536, 95.1157
1.48042, -1, -14.9412, 6.56961, 19.0803, -153.701, -95.0364, 94.8263
1.48759, -1, -15.1007, 6.5269, 19.0911, -153.751, -95.0188, 94.5372
1.49565, -1, -15.2607, 6.48429, 19.1018, -153.801, -95.0008, 94.2481
1.50476, -1, -15.421, 6.44164, 19.1125, -153.85, -94.9827, 93.9588
1.51168, -1, -15.5816, 6.39889, 19.1231, -153.9, -94.9649, 93.6693
1.51975, -1, -15.7424, 6.35616, 19.1337, -153.95, -94.9474, 93.3802
1.528, -1, -15.9031, 6.3133, 19.1444, -153.999, -94.9302, 93.0907
1.53574, -1, -16.064, 6.27038, 19.155, -154.049, -94.913, 92.801
1.54376, -1, -16.2248, 6.22756, 19.1656, -154.099, -94.8959, 92.5112
1.5522, -1, -16.3854, 6.18458, 19.1762, -154.148, -94.8785, 92.2218
1.5596, -1, -16.5459, 6.14159, 19.1867, -154.198, -94.8608, 91.9319
1.56773, -1, -16.706, 6.09866, 19.1973, -154.247, -94.8429, 91.6417
1.57734, -1, -16.8656, 6.05565, 19.208, -154.297, -94.8251, 91.3516
1.58366, -1, -17.025, 6.01267, 19.2186, -154.347, -94.8075, 91.0615
1.59188, -1, -17.1842, 5.96973, 19.2292, -154.397, -94.7901, 90.7713
1.60137, -1, -17.3432, 5.92681, 19.2398, -154.446, -94.7728, 90.4808
1.60787, -1, -17.5024, 5.88402, 19.2505, -154.496, -94.7555, 90.1905
1.61607, -1, -17.6617, 5.84119, 19.2612, -154.546, -94.738, 89.9004
1.62259, -1, -17.7414, 5.81976, 19.2666, -154.571, -94.7292, 89.7552
1.63208, -1, -17.9809, 5.75553, 19.2826, -154.646, -94.7022, 89.3194
1.64018, -1, -18.1413, 5.71272, 19.2932, -154.695, -94.6842, 89.029
1.64969, -1, -18.302, 5.6699, 19.3039, -154.745, -94.6664, 88.7385
1.65624, -1, -18.4631, 5.62704, 19.3146, -154.796, -94.6489, 88.4474
1.66418, -1, -18.5438, 5.58408, 19.3253, -154.845, -94.6316, 88.1564
1.67299, -1, -18.7054, 5.5626, 19.3307, -154.87, -94.6143, 87.8656
1.68017, -1, -18.867, 5.5196, 19.3413, -154.921, -94.6056, 87.5746
1.68757, -1, -19.0288, 5.47654, 19.3519, -154.97, -94.5881, 87.429
1.69806, -1, -19.1902, 5.43336, 19.3625, -155.02, -94.5702, 86.9919
1.70363, -1, -19.3518, 5.3902, 19.3732, -155.07, -94.552, 86.8462
1.71158, -1, -19.5131, 5.34703, 19.3838, -155.12, -94.5341, 86.5548
1.71958, -1, -19.6739, 5.30381, 19.3944, -155.17, -94.5164, 86.2632
1.72758, -1, -19.8346, 5.26063, 19.4051, -155.22, -94.4988, 85.9714
1.73566, -1, -19.9951, 5.21746, 19.4158, -155.27, -94.4814, 85.6799
1.74365, -1, -20.1551, 5.17429, 19.4266, -155.32, -94.464, 85.3885
1.75158, -1, -20.3149, 5.13131, 19.4375, -155.37, -94.4464, 85.0967
1.75974, -1, -20.4748, 5.08829, 19.4483, -155.42, -94.4286, 84.8048
1.76762, -1, -20.6349, 5.0452, 19.459, -155.47, -94.4105, 84.5131
1.77566, -1, -20.7952, 5.00226, 19.4697, -155.521, -94.3924, 84.2211
1.78358, -1, -20.9558, 4.95927, 19.4805, -155.57, -94.3747, 83.929
1.7906, -1, -21.1169, 4.91615, 19.4912, -155.621, -94.3572, 83.6368
1.79958, -1, -21.2783, 4.87305, 19.5018, -155.671, -94.34, 83.3448
1.80757, -1, -21.4403, 4.82982, 19.5125, -155.721, -94.3227, 83.0527
1.8157, -1, -21.6025, 4.78653, 19.5232, -155.772, -94.3054, 82.7601
1.82471, -1, -21.7647, 4.74332, 19.534, -155.822, -94.2877, 82.4675
1.83157, -1, -21.9271, 4.69993, 19.5447, -155.871, -94.2697, 82.1749
1.83964, -1, -22.0897, 4.65654, 19.5556, -155.922, -94.2517, 81.8821
1.84758, -1, -22.2522, 4.61319, 19.5663, -155.972, -94.2339, 81.5892
1.85569, -1, -22.4146, 4.56971, 19.577, -156.022, -94.2163, 81.2965
1.86358, -1, -22.5766, 4.5263, 19.5877, -156.073, -94.1988, 81.0039
1.87163, -1, -22.7384, 4.48286, 19.5984, -156.123, -94.1814, 80.7111
1.87964, -1, -22.8997, 4.43944, 19.6091, -156.173, -94.1638, 80.418
1.88758, -1, -23.0608, 4.39607, 19.6199, -156.223, -94.1459, 80.1251
1.89564, -1, -23.2219, 4.35273, 19.6305, -156.274, -94.1277, 79.8321
1.90366, -1, -23.3827, 4.30938, 19.6414, -156.324, -94.1094, 79.5386
1.9116, -1, -23.5435, 4.26607, 19.6523, -156.375, -94.0914, 79.2452
1.91958, -1, -23.7045, 4.22277, 19.6631, -156.425, -94.0736, 78.952
1.9277, -1, -23.8658, 4.17945, 19.6738, -156.475, -94.056, 78.6584
1.93563, -1, -24.0272, 4.13608, 19.6845, -156.526, -94.0386, 78.3645
1.94358, -1, -24.1892, 4.09265, 19.6953, -156.576, -94.0212, 78.0705
1.95167, -1, -24.3517, 4.04922, 19.7061, -156.626, -94.0035, 77.7767
1.95957, -1, -24.5145, 4.00574, 19.7167, -156.677, -93.9855, 77.4825
1.96759, -1, -24.6776, 3.96214, 19.7274, -156.727, -93.9673, 77.1882
1.97568, -1, -24.8408, 3.91857, 19.7381, -156.778, -93.9494, 76.8941
1.98357, -1, -25.0043, 3.87502, 19.7489, -156.828, -93.9316, 76.6001
1.99196, -1, -25.1676, 3.83142, 19.7599, -156.878, -93.914, 76.3058
1.9996, -1, -25.3308, 3.78782, 19.7708, -156.929, -93.8965, 76.0113
2.00762, -1, -25.4938, 3.74418, 19.7816, -156.979, -93.879, 75.717
2.01601, -1, -25.6565, 3.70046, 19.7923, -157.029, -93.8612, 75.4226
2.02367, -1, -25.8192, 3.65689, 19.8031, -157.08, -93.8431, 75.1278
2.03168, -1, -25.9815, 3.61334, 19.8139, -157.131, -93.8247, 74.833
2.04028, -1, -26.1436, 3.56976, 19.8247, -157.181, -93.8064, 74.5386
2.04767, -1, -26.3052, 3.52632, 19.8355, -157.232, -93.7884, 74.2438
2.05569, -1, -26.4667, 3.48291, 19.8463, -157.282, -93.7707, 73.9487
2.06433, -1, -26.6285, 3.43935, 19.857, -157.333, -93.7531, 73.6534
2.07163, -1, -26.7906, 3.39586, 19.8679, -157.384, -93.7355, 73.3584
2.07964, -1, -26.9531, 3.35228, 19.8788, -157.434, -93.7177, 73.0631
2.08855, -1, -27.1158, 3.30862, 19.8897, -157.485, -93.6996, 72.7675
2.09591, -1, -27.2788, 3.26506, 19.9005, -157.536, -93.6813, 72.4722
2.10378, -1, -27.4422, 3.22132, 19.9112, -157.586, -93.6631, 72.1771
2.11263, -1, -27.6061, 3.17754, 19.9221, -157.637, -93.6451, 71.8817
2.12001, -1, -27.77, 3.13387, 19.9329, -157.687, -93.6272, 71.586
2.12658, -1, -27.852, 3.11203, 19.9382, -157.713, -93.6184, 71.4382
2.13717, -1, -28.0983, 3.04639, 19.9545, -157.789, -93.5919, 70.9948
2.14428, -1, -28.2626, 3.00266, 19.9652, -157.84, -93.574, 70.6989
2.1521, -1, -28.4268, 2.95888, 19.9761, -157.89, -93.5558, 70.4026
2.16092, -1, -28.5907, 2.91515, 19.9871, -157.941, -93.5373, 70.1069
2.16819, -1, -28.7543, 2.87145, 19.998, -157.992, -93.5189, 69.8109
2.17611, -1, -28.836, 2.84956, 20.0034, -158.017, -93.5098, 69.5144
2.18356, -1, -28.9991, 2.80578, 20.0141, -158.068, -93.4919, 69.366
2.19065, -1, -29.1619, 2.76209, 20.0249, -158.119, -93.4741, 69.0696
2.20081, -1, -29.4059, 2.69652, 20.0411, -158.195, -93.4477, 68.6245
2.20757, -1, -29.4873, 2.67465, 20.0465, -158.221, -93.4387, 68.476
2.2156, -1, -29.6501, 2.63088, 20.0574, -158.272, -93.4207, 68.1791
2.22356, -1, -29.8131, 2.58706, 20.0682, -158.323, -93.4025, 67.8826
2.23156, -1, -29.9762, 2.54332, 20.0792, -158.374, -93.384, 67.5858
2.23963, -1, -30.1395, 2.49938, 20.0902, -158.425, -93.3657, 67.2887
2.24758, -1, -30.3033, 2.45538, 20.1012, -158.475, -93.3478, 66.9916
2.25556, -1, -30.4676, 2.41145, 20.1121, -158.527, -93.33, 66.6948
2.26374, -1, -30.6324, 2.36739, 20.1229, -158.577, -93.3123, 66.3975
2.27156, -1, -30.7974, 2.32338, 20.1337, -158.628, -93.2944, 66.1
2.27956, -1, -30.9624, 2.27941, 20.1447, -158.68, -93.2763, 65.8028
2.28763, -1, -31.1275, 2.2353, 20.1555, -158.73, -93.258, 65.5057
2.29556, -1, -31.2925, 2.19132, 20.1664, -158.781, -93.2394, 65.2083
2.30357, -1, -31.4575, 2.14742, 20.1772, -158.833, -93.2211, 64.9104
2.31257, -1, -31.6222, 2.10334, 20.188, -158.883, -93.2031, 64.6127
2.31956, -1, -31.7868, 2.05937, 20.199, -158.935, -93.1853, 64.3148
2.32858, -1, -31.951, 2.01543, 20.21, -158.986, -93.1678, 64.0165
2.33563, -1, -32.115, 1.9714, 20.221, -159.037, -93.1501, 63.7183
2.34357, -1, -32.2786, 1.92739, 20.2319, -159.089, -93.1322, 63.4206
2.35156, -1, -32.4421, 1.88335, 20.2427, -159.14, -93.114, 63.1227
2.35957, -1, -32.6057, 1.83921, 20.2538, -159.191, -93.0957, 62.8243
2.36757, -1, -32.7696, 1.79513, 20.2647, -159.242, -93.0773, 62.5259
2.37562, -1, -32.9336, 1.75105, 20.2756, -159.293, -93.0594, 62.2277
2.38356, -1, -33.0979, 1.7068, 20.2865, -159.344, -93.0415, 61.9291
2.39157, -1, -33.2626, 1.6626, 20.2973, -159.396, -93.0237, 61.6303
2.39962, -1, -33.4276, 1.61841, 20.3083, -159.447, -93.0058, 61.3316
2.40758, -1, -33.5931, 1.57414, 20.3193, -159.498, -92.9877, 61.033
2.41559, -1, -33.7588, 1.5299, 20.3303, -159.55, -92.9693, 60.734
2.42362, -1, -33.9245, 1.48567, 20.3412, -159.6, -92.9506, 60.4348
2.43162, -1, -34.0905, 1.44145, 20.3521, -159.652, -92.9321, 60.1357
2.43962, -1, -34.2566, 1.39727, 20.363, -159.704, -92.9139, 59.8364
2.44763, -1, -34.4227, 1.35302, 20.374, -159.755, -92.8959, 59.5367
2.45555, -1, -34.5886, 1.30881, 20.3849, -159.806, -92.8782, 59.2372
2.46357, -1, -34.7541, 1.26464, 20.3959, -159.858, -92.8603, 58.938
2.47162, -1, -34.9193, 1.22038, 20.4068, -159.909, -92.8423, 58.6385
2.47956, -1, -35.0842, 1.17615, 20.4179, -159.961, -92.8239, 58.3389
2.48756, -1, -35.2488, 1.13186, 20.429, -160.012, -92.8054, 58.0391
2.49563, -1, -35.4132, 1.08759, 20.4401, -160.063, -92.7869, 57.7395
2.5036, -1, -35.5764, 1.0436, 20.4514, -160.115, -92.7687, 57.4395
2.51163, -1, -35.7374, 1.00002, 20.4627, -160.166, -92.7506, 57.1401
2.51971, -1, -35.8951, 0.957299, 20.4745, -160.217, -92.7328, 56.8429
2.52766, -1, -36.0483, 0.915947, 20.4864, -160.267, -92.7152, 56.5504
2.53566, -1, -36.1951, 0.876492, 20.4983, -160.315, -92.6978, 56.2656
2.54373, -1, -36.3331, 0.83969, 20.5102, -160.361, -92.681, 55.9942
2.55166, -1, -36.4608, 0.805907, 20.5214, -160.404, -92.665, 55.7423
2.55956, -1, -36.5765, 0.775298, 20.5314, -160.443, -92.6508, 55.5159
2.56766, -1, -36.6785, 0.748339, 20.5398, -160.475, -92.6386, 55.3206
2.57561, -1, -36.7658, 0.725168, 20.546, -160.503, -92.6288, 55.1599
2.58368, -1, -36.8389, 0.705868, 20.5499, -160.524, -92.6212, 55.0344
2.59179, -1, -36.8985, 0.690236, 20.5519, -160.54, -92.6158, 54.9428
2.59981, -1, -36.9452, 0.677811, 20.5528, -160.551, -92.6122, 54.8793
2.60814, -1, -36.9799, 0.668559, 20.5528, -160.559, -92.61, 54.8386
2.61451, -1, -36.9934, 0.665057, 20.5526, -160.561, -92.6093, 54.8249
2.62396, -1, -37.0208, 0.658297, 20.552, -160.565, -92.6081, 54.8018
2.6306, -1, -37.0261, 0.656992, 20.5519, -160.566, -92.6079, 54.7981
2.64015, 2, -37.0342, 0.65495, 20.5517, -160.567, -92.6076, 54.7926
2.6481, 2, -37.0348, 0.654481, 20.5516, -160.567, -92.6075, 54.7913
2.65634, 2, -37.0342, 0.654285, 20.5515, -160.568, -92.6074, 54.7907
2.66426, 2, -37.0337, 0.654202, 20.5515, -160.568, -92.6075, 54.7906
2.67212, 2, -37.0336, 0.654182, 20.5515, -160.568, -92.6075, 54.7905
2.68044, 2, -37.0345, 0.654096, 20.5515, -160.568, -92.6076, 54.7904
2.68815, 2, -37.035, 0.65407, 20.5515, -160.568, -92.6075, 54.7904
2.69554, 2, -37.0361, 0.653966, 20.5513, -160.568, -92.6076, 54.7904
2.70356, 2, -37.0376, 0.653761, 20.5511, -160.568, -92.6076, 54.7905
2.71163, 2, -37.039, 0.653515, 20.551, -160.568, -92.6076, 54.7905
2.71955, 2, -37.0402, 0.653261, 20.5508, -160.568, -92.6077, 54.7905
2.72756, 2, -37.0411, 0.653033, 20.5506, -160.568, -92.6077, 54.7906
2.73559, 2, -37.0415, 0.652908, 20.5504, -160.568, -92.6077, 54.7907
2.74357, 2, -37.0416, 0.652859, 20.5502, -160.568, -92.6078, 54.7908
2.75157, 2, -37.0411, 0.652874, 20.5501, -160.568, -92.6079, 54.7909
2.7596, 2, -37.0403, 0.652897, 20.55, -160.568, -92.6079, 54.7911
2.76761, 2, -37.0393, 0.652951, 20.55, -160.568, -92.608, 54.7912
2.77555, 2, -37.0378, 0.653026, 20.5499, -160.568, -92.608, 54.7914
2.78362, 2, -37.0363, 0.653108, 20.5498, -160.568, -92.608, 54.7916
2.79154, 2, -37.0352, 0.653152, 20.5498, -160.568, -92.608, 54.7917
2.79955, 2, -37.0346, 0.653162, 20.5497, -160.568, -92.608, 54.7918
2.8091, 2, -37.0343, 0.65314, 20.5497, -160.568, -92.608, 54.7918
2.81554, 2, -37.0344, 0.6531, 20.5497, -160.568, -92.608, 54.7918
2.82454, 2, -37.0346, 0.653031, 20.5497, -160.568, -92.608, 54.7918
2.83161, 2, -37.0348, 0.652965, 20.5497, -160.568, -92.608, 54.7919
2.83955, 2, -37.0353, 0.652928, 20.5496, -160.568, -92.608, 54.792
2.84755, 2, -37.0361, 0.65291, 20.5496, -160.568, -92.608, 54.792
2.85561, 2, -37.0369, 0.652902, 20.5496, -160.567, -92.6081, 54.7921
2.86356, 2, -37.0375, 0.652928, 20.5496, -160.567, -92.608, 54.7921
2.87153, 2, -37.0379, 0.652929, 20.5496, -160.567, -92.6081, 54.7921
2.87961, 2, -37.038, 0.652955, 20.5496, -160.568, -92.6081, 54.7921
2.88755, 2, -37.0381, 0.652972, 20.5496, -160.567, -92.6081, 54.7922
2.89555, 2, -37.038, 0.652992, 20.5496, -160.567, -92.6081, 54.7922
2.90362, 2, -37.0377, 0.653001, 20.5496, -160.567, -92.6081, 54.7923
2.91156, 2, -37.0373, 0.653005, 20.5496, -160.568, -92.6081, 54.7923
2.91956, 2, -37.037, 0.653007, 20.5496, -160.567, -92.6081, 54.7924
2.92761, 2, -37.0368, 0.652959, 20.5496, -160.567, -92.6081, 54.7924
2.9356, 2, -37.0367, 0.652943, 20.5496, -160.567, -92.6081, 54.7925
2.94355, 2, -37.0367, 0.65293, 20.5495, -160.567, -92.6081, 54.7925
2.95163, 2, -37.0367, 0.652911, 20.5495, -160.567, -92.6081, 54.7925
2.95955, 2, -37.0367, 0.652921, 20.5495, -160.567, -92.6081, 54.7926
2.96755, 2, -37.0368, 0.652937, 20.5495, -160.567, -92.6081, 54.7926
2.97561, 2, -37.0369, 0.65294, 20.5495, -160.567, -92.6081, 54.7927
2.98355, 2, -37.037, 0.652965, 20.5494, -160.567, -92.6082, 54.7928
2.99155, 2, -37.0372, 0.652977, 20.5494, -160.567, -92.6081, 54.7929
2.99961, 2, -37.0374, 0.652994, 20.5494, -160.567, -92.6081, 54.7929
3.00758, 2, -37.0374, 0.652983, 20.5495, -160.567, -92.6082, 54.793
3.01563, 2, -37.0374, 0.652992, 20.5494, -160.567, -92.6082, 54.793
3.02383, 2, -37.0374, 0.653001, 20.5495, -160.567, -92.6082, 54.793
3.03164, 2, -37.0374, 0.652998, 20.5494, -160.567, -92.6082, 54.793
3.03965, 2, -37.0374, 0.652979, 20.5494, -160.567, -92.6082, 54.793
3.04772, 2, -37.0374, 0.652972, 20.5494, -160.567, -92.6082, 54.7931
3.0556, 2, -37.0373, 0.652931, 20.5494, -160.567, -92.6083, 54.7932
3.06357, 2, -37.0373, 0.652923, 20.5494, -160.567, -92.6083, 54.7932
3.07163, 2, -37.0373, 0.652934, 20.5493, -160.567, -92.6083, 54.7932
3.07959, 2, -37.0373, 0.652944, 20.5493, -160.567, -92.6083, 54.7933
3.08766, 2, -37.0373, 0.65296, 20.5493, -160.567, -92.6083, 54.7934
3.0957, 2, -37.0373, 0.652981, 20.5493, -160.567, -92.6083, 54.7934
3.1041, 2, -37.0373, 0.653007, 20.5493, -160.567, -92.6083, 54.7935
3.11205, 2, -37.0373, 0.653016, 20.5493, -160.567, -92.6083, 54.7935
3.11991, 2, -37.0373, 0.653005, 20.5493, -160.567, -92.6083, 54.7936
3.12794, 2, -37.0373, 0.652982, 20.5493, -160.567, -92.6083, 54.7936
3.13459, 2, -37.0373, 0.652984, 20.5493, -160.567, -92.6083, 54.7937
3.14409, 2, -37.0372, 0.652986, 20.5493, -160.567, -92.6083, 54.7937
3.1523, 2, -37.0372, 0.652974, 20.5493, -160.567, -92.6083, 54.7937
3.16031, 2, -37.0372, 0.652968, 20.5493, -160.567, -92.6083, 54.7938
3.16816, 2, -37.0372, 0.652966, 20.5493, -160.567, -92.6083, 54.7939
3.1761, 2, -37.0372, 0.652965, 20.5493, -160.567, -92.6083, 54.7939
3.18437, 2, -37.0372, 0.65298, 20.5492, -160.567, -92.6084, 54.7939
3.19155, 2, -37.0372, 0.652989, 20.5492, -160.567, -92.6084, 54.7939
3.19953, 2, -37.0371, 0.65298, 20.5492, -160.567, -92.6084, 54.7939
3.20845, 2, -37.0371, 0.652991, 20.5492, -160.567, -92.6084, 54.794
3.21558, 2, -37.0371, 0.652993, 20.5492, -160.567, -92.6084, 54.794
3.22354, 2, -37.0371, 0.652997, 20.5492, -160.567, -92.6084, 54.7941
3.23153, 2, -37.0372, 0.653003, 20.5492, -160.567, -92.6085, 54.7941
3.23958, 2, -37.0372, 0.653006, 20.5492, -160.567, -92.6084, 54.7942
3.24762, 2, -37.0371, 0.653019, 20.5492, -160.567, -92.6084, 54.7942
3.25555, 2, -37.0371, 0.652996, 20.5492, -160.567, -92.6084, 54.7942
3.2636, 2, -37.0371, 0.652984, 20.5491, -160.567, -92.6084, 54.7943
3.27158, 2, -37.0371, 0.65298, 20.5491, -160.567, -92.6084, 54.7943
3.27957, 2, -37.037, 0.652976, 20.5491, -160.567, -92.6085, 54.7943
3.2876, 2, -37.0371, 0.652982, 20.5491, -160.567, -92.6085, 54.7943
3.29553, 2, -37.037, 0.652979, 20.5491, -160.567, -92.6084, 54.7944
3.30354, 2, -37.037, 0.652995, 20.5491, -160.567, -92.6084, 54.7944
3.31159, 2, -37.037, 0.653003, 20.5491, -160.567, -92.6085, 54.7944
3.32059, 2, -37.037, 0.653017, 20.5491, -160.567, -92.6084, 54.7944
3.32753, 2, -37.037, 0.65302, 20.5491, -160.567, -92.6085, 54.7945
3.33559, 2, -37.037, 0.653014, 20.5491, -160.567, -92.6085, 54.7945
3.34459, 2, -37.0369, 0.653011, 20.5491, -160.567, -92.6085, 54.7945
3.35153, 2, -37.0369, 0.652998, 20.5491, -160.567, -92.6085, 54.7945
3.3596, 2, -37.037, 0.653004, 20.5491, -160.567, -92.6085, 54.7945
3.36753, 2, -37.0369, 0.653025, 20.549, -160.567, -92.6085, 54.7945
3.37553, 2, -37.0369, 0.653016, 20.549, -160.567, -92.6084, 54.7946
3.38361, 2, -37.0369, 0.653012, 20.549, -160.567, -92.6085, 54.7946
3.39153, 2, -37.0368, 0.65301, 20.549, -160.567, -92.6085, 54.7947
3.39963, 2, -37.0368, 0.653002, 20.549, -160.567, -92.6085, 54.7947
3.4076, 2, -37.0368, 0.653019, 20.549, -160.567, -92.6085, 54.7947
3.41554, 2, -37.0368, 0.653032, 20.549, -160.567, -92.6085, 54.7947
3.42355, 2, -37.0368, 0.653031, 20.549, -160.567, -92.6085, 54.7947
3.43159, 2, -37.0368, 0.653037, 20.549, -160.567, -92.6085, 54.7947
3.43958, 2, -37.0368, 0.653029, 20.549, -160.567, -92.6085, 54.7948
3.44753, 2, -37.0367, 0.653018, 20.549, -160.567, -92.6085, 54.7948
3.45559, 2, -37.0367, 0.653013, 20.5489, -160.567, -92.6085, 54.7948
3.46355, 2, -37.0367, 0.653011, 20.5489, -160.567, -92.6085, 54.7948
3.47152, 2, -37.0367, 0.653003, 20.5489, -160.567, -92.6085, 54.7948
3.47959, 2, -37.0367, 0.653001, 20.5489, -160.566, -92.6085, 54.7948
3.48753, 2, -37.0367, 0.653035, 20.5489, -160.566, -92.6085, 54.7948
3.49553, 2, -37.0367, 0.653028, 20.5489, -160.566, -92.6085, 54.7949
3.50361, 2, -37.0367, 0.65301, 20.5489, -160.566, -92.6085, 54.7948
3.51156, 2, -37.0367, 0.653005, 20.5489, -160.566, -92.6086, 54.7948
3.51961, 2, -37.0366, 0.653036, 20.5488, -160.566, -92.6085, 54.7948
3.52768, 2, -37.0366, 0.653047, 20.5488, -160.566, -92.6085, 54.7949
3.53562, 2, -37.0366, 0.653056, 20.5489, -160.566, -92.6085, 54.795
3.54363, 2, -37.0366, 0.653049, 20.5489, -160.566, -92.6085, 54.795
3.5517, 2, -37.0367, 0.653035, 20.5488, -160.566, -92.6086, 54.7949
3.55953, 2, -37.0366, 0.653021, 20.5488, -160.566, -92.6086, 54.795
3.56753, 2, -37.0366, 0.653014, 20.5488, -160.566, -92.6085, 54.7951
3.57562, 2, -37.0366, 0.653011, 20.5488, -160.566, -92.6086, 54.7951
3.58359, 2, -37.0366, 0.653021, 20.5488, -160.566, -92.6086, 54.7951
3.59166, 2, -37.0366, 0.653022, 20.5488, -160.566, -92.6086, 54.7951
3.59975, 2, -37.0366, 0.653015, 20.5488, -160.566, -92.6086, 54.7951
3.60782, 2, -37.0365, 0.653023, 20.5488, -160.566, -92.6087, 54.7951
3.61576, 2, -37.0366, 0.653034, 20.5487, -160.566, -92.6087, 54.7951
3.624, 2, -37.0365, 0.653046, 20.5487, -160.566, -92.6086, 54.7951
3.63196, 2, -37.0365, 0.653044, 20.5487, -160.566, -92.6086, 54.7951
3.64024, 2, -37.0366, 0.653055, 20.5487, -160.566, -92.6086, 54.7951
3.64857, 2, -37.0365, 0.653056, 20.5487, -160.566, -92.6086, 54.7952
3.65613, 2, -37.0365, 0.65306, 20.5487, -160.566, -92.6086, 54.7951
3.66411, 2, -37.0365, 0.653058, 20.5487, -160.566, -92.6086, 54.7951
3.67216, 2, -37.0365, 0.65305, 20.5487, -160.566, -92.6086, 54.7951
3.68039, 2, -37.0365, 0.653048, 20.5487, -160.566, -92.6086, 54.7951
3.68804, 2, -37.0365, 0.653034, 20.5487, -160.566, -92.6087, 54.7951
3.69556, 2, -37.0365, 0.653021, 20.5487, -160.566, -92.6086, 54.7951
3.70353, 4, -37.0364, 0.653014, 20.5487, -160.566, -92.6087, 54.7951
3.71151, 4, -37.0364, 0.653011, 20.5487, -160.566, -92.6086, 54.7951
3.71958, 4, -37.0364, 0.653028, 20.5487, -160.566, -92.6087, 54.7952
3.72753, 4, -37.0364, 0.653036, 20.5486, -160.566, -92.6086, 54.7952
3.73551, 4, -37.0364, 0.653051, 20.5486, -160.566, -92.6086, 54.7951
3.74357, 4, -37.0364, 0.653047, 20.5486, -160.566, -92.6086, 54.7951
3.75154, 4, -37.0364, 0.653063, 20.5486, -160.566, -92.6086, 54.7951
3.75954, 4, -37.0364, 0.653059, 20.5486, -160.566, -92.6085, 54.7951
3.76757, 4, -37.0364, 0.653043, 20.5486, -160.566, -92.6086, 54.7951
3.77558, 4, -37.0363, 0.653061, 20.5486, -160.566, -92.6086, 54.7951
3.78352, 4, -37.0363, 0.653059, 20.5486, -160.566, -92.6086, 54.7951
3.79158, 4, -37.0363, 0.653043, 20.5486, -160.566, -92.6085, 54.7952
3.7995, 4, -37.0363, 0.653043, 20.5486, -160.566, -92.6086, 54.7952
3.80768, 4, -37.0362, 0.653061, 20.5485, -160.566, -92.6086, 54.7952
3.83145, 4, -37.0362, 0.653066, 20.5485, -160.566, -92.6087, 54.7952
3.83407, 4, -37.0362, 0.653069, 20.5485, -160.566, -92.6087, 54.7952
3.83589, 4, -37.0362, 0.653069, 20.5485, -160.566, -92.6087, 54.7952
3.84068, 4, -37.0362, 0.653061, 20.5485, -160.566, -92.6086, 54.7952
3.84836, 4, -37.0362, 0.653051, 20.5485, -160.566, -92.6087, 54.7951
3.85552, 4, -37.036, 0.652998, 20.5485, -160.566, -92.6087, 54.7952
3.86353, 4, -37.0345, 0.652597, 20.5486, -160.566, -92.6086, 54.7952
3.8738, 4, -37.0305, 0.650909, 20.549, -160.566, -92.6087, 54.7952
3.87967, 4, -37.0229, 0.646663, 20.5505, -160.566, -92.6087, 54.7952
3.88757, 4, -37.0114, 0.638964, 20.5543, -160.566, -92.6087, 54.7952
3.89936, 5, -36.9859, 0.620003, 20.5672, -160.563, -92.6087, 54.7951
3.90367, 5, -36.9747, 0.611414, 20.5742, -160.562, -92.6087, 54.7951
3.91149, 5, -36.9481, 0.590976, 20.5928, -160.558, -92.6086, 54.7951
3.91961, 5, -36.9165, 0.566007, 20.6182, -160.553, -92.6083, 54.7951
3.92753, 5, -36.8801, 0.536581, 20.6505, -160.546, -92.6077, 54.7951
3.93551, 5, -36.8389, 0.502626, 20.6891, -160.538, -92.6068, 54.7951
3.94365, 5, -36.7925, 0.463848, 20.7331, -160.528, -92.6055, 54.7951
3.95168, 5, -36.7409, 0.420798, 20.7817, -160.517, -92.6038, 54.7951
3.95957, 5, -36.6845, 0.374042, 20.8333, -160.505, -92.6021, 54.7951
3.96752, 5, -36.6242, 0.324499, 20.8871, -160.493, -92.6003, 54.7951
3.97566, 5, -36.5601, 0.272864, 20.942, -160.481, -92.5984, 54.7951
3.98357, 5, -36.4935, 0.219798, 20.9975, -160.469, -92.5965, 54.7951
3.99164, 5, -36.4257, 0.166125, 21.0531, -160.457, -92.5945, 54.795
3.99972, 5, -36.3572, 0.112187, 21.1087, -160.444, -92.5926, 54.795
4.00854, 5, -36.2885, 0.0581895, 21.1642, -160.432, -92.5906, 54.795
4.01578, 5, -36.2196, 0.00429813, 21.2198, -160.42, -92.5886, 54.7951
4.02469, 5, -36.1508, -0.0493521, 21.2754, -160.408, -92.5865, 54.7953
4.03422, 5, -36.0822, -0.102785, 21.3309, -160.396, -92.5845, 54.7954
4.03991, 5, -36.0135, -0.156011, 21.3862, -160.383, -92.5824, 54.7955
4.04768, 5, -35.9449, -0.209052, 21.4416, -160.37, -92.5803, 54.7959
4.05569, 5, -35.8764, -0.261886, 21.4968, -160.357, -92.5782, 54.7965
4.06413, 5, -35.8076, -0.314595, 21.552, -160.344, -92.5761, 54.7972
4.07373, 5, -35.7387, -0.367334, 21.6071, -160.332, -92.574, 54.7981
4.07983, 5, -35.6695, -0.420034, 21.662, -160.319, -92.5719, 54.7992
4.09062, 5, -35.6001, -0.472809, 21.7166, -160.307, -92.5698, 54.8005
4.09563, 5, -35.5303, -0.525657, 21.7711, -160.294, -92.5676, 54.8019
4.10399, 5, -35.4603, -0.578498, 21.8254, -160.282, -92.5654, 54.8034
4.11256, 5, -35.3901, -0.63136, 21.8796, -160.269, -92.5633, 54.8051
4.12021, 5, -35.3198, -0.68416, 21.9337, -160.256, -92.5611, 54.8069
4.1281, 5, -35.2493, -0.736936, 21.9877, -160.243, -92.5589, 54.8088
4.13672, 5, -35.1787, -0.78937, 22.0415, -160.23, -92.5567, 54.8109
4.14403, 5, -35.1081, -0.841673, 22.0953, -160.216, -92.5545, 54.8131
4.15245, 5, -35.0375, -0.893857, 22.1489, -160.203, -92.5523, 54.8153
4.16095, 5, -34.9669, -0.945678, 22.2024, -160.19, -92.55, 54.8177
4.16822, 5, -34.8965, -0.997342, 22.2558, -160.177, -92.5477, 54.8202
4.17636, 5, -34.826, -1.04885, 22.3091, -160.164, -92.5454, 54.8228
4.18566, 5, -34.7554, -1.10029, 22.3622, -160.151, -92.5431, 54.8256
4.19203, 5, -34.7201, -1.12605, 22.3887, -160.145, -92.5419, 54.827
4.19951, 5, -34.6494, -1.1774, 22.4416, -160.132, -92.5396, 54.83
4.20755, 5, -34.5785, -1.22877, 22.4942, -160.119, -92.5372, 54.833
4.2155, 5, -34.5074, -1.28023, 22.5467, -160.105, -92.5348, 54.8361
4.22535, 5, -34.4003, -1.35728, 22.6252, -160.085, -92.5314, 54.841
4.23283, 5, -34.3646, -1.40868, 22.6773, -160.071, -92.5289, 54.8445
4.2395, 5, -34.293, -1.43434, 22.7033, -160.064, -92.5277, 54.8463
4.24751, 5, -34.2212, -1.48554, 22.7553, -160.05, -92.5253, 54.8498
4.25557, 5, -34.1493, -1.53651, 22.8072, -160.037, -92.5229, 54.8535
4.26361, 5, -34.0773, -1.58728, 22.8588, -160.023, -92.5205, 54.8573
4.2715, 5, -34.0052, -1.63787, 22.9105, -160.01, -92.5181, 54.8613
4.28179, 5, -33.8969, -1.71331, 22.9877, -159.99, -92.5146, 54.8674
4.28754, 5, -33.8609, -1.73838, 23.0133, -159.983, -92.5133, 54.8694
4.29552, 5, -33.7888, -1.78839, 23.0645, -159.969, -92.5109, 54.8737
4.30364, 5, -33.7165, -1.83831, 23.1155, -159.955, -92.5086, 54.8779
4.31147, 5, -33.6442, -1.88817, 23.1664, -159.941, -92.5063, 54.8822
4.3205, 5, -33.5717, -1.93808, 23.217, -159.926, -92.504, 54.8865
4.32753, 5, -33.499, -1.98829, 23.2676, -159.912, -92.5017, 54.8908
4.3355, 5, -33.426, -2.03876, 23.3181, -159.898, -92.4993, 54.8944
4.34356, 5, -33.3532, -2.08954, 23.3684, -159.884, -92.497, 54.8968
4.35187, 6, -33.2806, -2.14071, 23.4188, -159.87, -92.4947, 54.8979
4.36033, 6, -33.2082, -2.19259, 23.4693, -159.855, -92.4922, 54.8971
4.36751, 6, -33.1363, -2.24541, 23.5201, -159.841, -92.4893, 54.8938
4.37632, 6, -33.0648, -2.29908, 23.5716, -159.825, -92.4858, 54.8856
4.38349, 7, -32.9938, -2.35384, 23.624, -159.807, -92.481, 54.8722
4.3915, 7, -32.9232, -2.40976, 23.6776, -159.789, -92.4746, 54.8559
4.40295, 7, -32.8184, -2.49631, 23.7608, -159.758, -92.4615, 54.8283
4.40765, 7, -32.7837, -2.52593, 23.7893, -159.747, -92.456, 54.8192
4.41555, 7, -32.7149, -2.58639, 23.8473, -159.725, -92.4435, 54.8013
4.42351, 8, -32.6468, -2.64846, 23.9067, -159.702, -92.4291, 54.784
4.43253, 8, -32.5794, -2.71232, 23.9674, -159.677, -92.4126, 54.767
4.43956, 8, -32.5127, -2.77795, 24.0293, -159.65, -92.3942, 54.7493
4.44751, 8, -32.4468, -2.84513, 24.0922, -159.623, -92.374, 54.7307
4.45565, 8, -32.3816, -2.9138, 24.156, -159.595, -92.3526, 54.7105
4.46562, 9, -32.317, -2.98389, 24.2209, -159.567, -92.3301, 54.6886
4.4715, 9, -32.253, -3.05525, 24.2868, -159.537, -92.3064, 54.6648
4.47973, 9, -32.1895, -3.12794, 24.3537, -159.505, -92.2814, 54.6395
4.48767, 9, -32.1266, -3.20191, 24.4215, -159.473, -92.2547, 54.6128
4.49552, 9, -32.0642, -3.27722, 24.4904, -159.441, -92.2261, 54.585
4.50356, 10, -32.0024, -3.35376, 24.5602, -159.407, -92.1965, 54.5555
4.51171, 10, -31.9413, -3.43172, 24.6311, -159.372, -92.1658, 54.5243
4.51956, 10, -31.8806, -3.51113, 24.7031, -159.336, -92.1338, 54.4908
4.528, 10, -31.8205, -3.59191, 24.7761, -159.3, -92.0997, 54.4557
4.53901, 10, -31.761, -3.7158, 24.8876, -159.243, -92.046, 54.4012
4.54366, 11, -31.702, -3.75781, 24.9252, -159.223, -92.0277, 54.3822
4.55203, 11, -31.6436, -3.84305, 25.0012, -159.184, -91.9903, 54.3431
4.5596, 11, -31.5858, -3.92969, 25.0781, -159.144, -91.9508, 54.3018
4.56814, 11, -31.5284, -4.0178, 25.1559, -159.103, -91.9098, 54.2591
4.57701, 11, -31.4717, -4.10736, 25.2348, -159.06, -91.8681, 54.2154
4.58537, 12, -31.4154, -4.19844, 25.3148, -159.017, -91.8247, 54.1703
4.59251, 12, -31.3596, -4.29092, 25.3958, -158.973, -91.7793, 54.1229
4.59964, 12, -31.3043, -4.3848, 25.478, -158.927, -91.7333, 54.074
4.60869, 12, -31.2496, -4.47998, 25.5611, -158.881, -91.6861, 54.0241
4.61662, 12, -31.1953, -4.57654, 25.6453, -158.835, -91.6367, 53.9726
4.62416, 13, -31.1416, -4.67453, 25.7303, -158.786, -91.5867, 53.919
4.6327, 13, -31.0884, -4.7739, 25.8164, -158.738, -91.5351, 53.8644
4.63994, 13, -31.0356, -4.87475, 25.9034, -158.688, -91.4815, 53.8086
4.64881, 13, -30.9834, -4.97713, 25.9915, -158.637, -91.4276, 53.7507
4.65641, 13, -30.9317, -5.08097, 26.0808, -158.586, -91.3717, 53.6914
4.66453, 13, -30.8805, -5.18617, 26.1711, -158.534, -91.3146, 53.6313
4.67286, 14, -30.8301, -5.29293, 26.2625, -158.48, -91.2567, 53.5691
4.68035, 14, -30.7801, -5.40114, 26.3547, -158.426, -91.1964, 53.5057
4.68969, 14, -30.7306, -5.51079, 26.4478, -158.371, -91.1361, 53.4414
4.69549, 14, -30.706, -5.56624, 26.4947, -158.342, -91.1051, 53.4084
4.70351, 14, -30.6574, -5.67819, 26.5894, -158.286, -91.0413, 53.341
4.71153, 15, -30.6091, -5.79156, 26.6852, -158.229, -90.9773, 53.273
4.71948, 15, -30.5614, -5.90624, 26.7821, -158.17, -90.9109, 53.2032
4.72935, 15, -30.4907, -6.08076, 26.9296, -158.081, -90.8103, 53.0959
4.73563, 15, -30.4674, -6.13968, 26.9792, -158.051, -90.7756, 53.0594
4.74354, 15, -30.4211, -6.2585, 27.0792, -157.99, -90.7057, 52.9844
4.75148, 16, -30.3754, -6.37875, 27.1799, -157.928, -90.6344, 52.909
4.7595, 16, -30.3303, -6.50065, 27.2818, -157.865, -90.5619, 52.8314
4.76748, 16, -30.2856, -6.62393, 27.3849, -157.801, -90.4882, 52.7523
4.77548, 16, -30.2413, -6.74867, 27.4891, -157.736, -90.413, 52.6726
4.7858, 16, -30.176, -6.93866, 27.6475, -157.637, -90.2977, 52.5494
4.79153, 17, -30.1544, -7.00279, 27.7007, -157.604, -90.2588, 52.508
4.79949, 17, -30.1116, -7.13224, 27.8077, -157.537, -90.1796, 52.4236
4.80762, 17, -30.0693, -7.26318, 27.9156, -157.468, -90.0992, 52.3387
4.81545, 17, -30.0276, -7.39551, 28.0246, -157.399, -90.0172, 52.2516
4.82356, 17, -29.9865, -7.52903, 28.1349, -157.329, -89.9343, 52.1635
4.83253, 18, -29.9458, -7.66411, 28.2463, -157.258, -89.8499, 52.0739
4.83949, 18, -29.9055, -7.80056, 28.3588, -157.186, -89.7639, 51.9832
4.84761, 18, -29.8659, -7.93848, 28.472, -157.114, -89.6773, 51.8908
4.85769, 18, -29.8071, -8.14759, 28.6435, -157.002, -89.5446, 51.7502
4.86559, 18, -29.7877, -8.21799, 28.7013, -156.965, -89.4996, 51.7023
4.87151, 19, -29.7494, -8.35977, 28.8177, -156.889, -89.4089, 51.6063
4.87949, 19, -29.7116, -8.50305, 28.9353, -156.813, -89.3172, 51.5088
4.88762, 19, -29.6741, -8.64794, 29.0539, -156.736, -89.224, 51.4105
4.89548, 19, -29.6372, -8.79433, 29.1732, -156.658, -89.1295, 51.3107
4.90355, 19, -29.6007, -8.94182, 29.2932, -156.579, -89.0342, 51.2104
4.9117, 20, -29.5647, -9.09073, 29.4143, -156.499, -88.9376, 51.1082
4.9195, 20, -29.5292, -9.24119, 29.5367, -156.418, -88.8398, 51.0054
4.92756, 20, -29.4941, -9.3932, 29.6603, -156.336, -88.7414, 50.901
4.93571, 20, -29.4595, -9.54638, 29.7846, -156.254, -88.6415, 50.7957
4.94454, 20, -29.4253, -9.70063, 29.9097, -156.17, -88.5407, 50.689
4.95251, 21, -29.3918, -9.85619, 30.0358, -156.086, -88.4388, 50.5811
4.96048, 21, -29.3585, -10.0132, 30.1629, -156, -88.3355, 50.4724
4.96748, 21, -29.3256, -10.1719, 30.2911, -155.914, -88.2314, 50.3624
4.97548, 21, -29.2933, -10.3316, 30.4203, -155.827, -88.1264, 50.2517
4.98388, 21, -29.2613, -10.4922, 30.5504, -155.74, -88.02, 50.1402
4.99267, 21, -29.2297, -10.6542, 30.6813, -155.651, -87.9128, 50.0275
5.00048, 22, -29.1985, -10.8176, 30.8131, -155.561, -87.8047, 49.9143
5.00962, 22, -29.1676, -10.9823, 30.9458, -155.471, -87.6954, 49.8
5.01572, 22, -29.1373, -11.1478, 31.0795, -155.379, -87.5853, 49.6846
5.02362, 22, -29.1073, -11.3145, 31.2141, -155.287, -87.4738, 49.5686
5.03157, 22, -29.0776, -11.4826, 31.3498, -155.194, -87.3617, 49.4515
5.03965, 23, -29.0483, -11.6524, 31.4862, -155.1, -87.2487, 49.3339
5.04764, 23, -29.0193, -11.8232, 31.6233, -155.005, -87.1346, 49.2156
5.05557, 23, -28.9908, -11.9948, 31.7613, -154.91, -87.0199, 49.0966
5.06382, 23, -28.9628, -12.1676, 31.9001, -154.813, -86.9042, 48.9773
5.07148, 23, -28.935, -12.3419, 32.0399, -154.716, -86.7874, 48.857
5.07965, 24, -28.9077, -12.5174, 32.1806, -154.618, -86.6698, 48.7364
5.08778, 24, -28.8806, -12.6934, 32.322, -154.519, -86.5511, 48.6153
5.09553, 24, -28.8538, -12.8701, 32.464, -154.419, -86.432, 48.4932
5.10368, 24, -28.8276, -13.0483, 32.6069, -154.318, -86.3116, 48.3708
5.11208, 24, -28.8015, -13.228, 32.7508, -154.217, -86.1908, 48.2478
5.11989, 25, -28.7757, -13.4082, 32.8956, -154.114, -86.0692, 48.1244
5.12787, 25, -28.7503, -13.5891, 33.0408, -154.011, -85.9467, 48.0009
5.136, 25, -28.725, -13.7713, 33.1866, -153.907, -85.8239, 47.8774
5.14466, 25, -28.6999, -13.9548, 33.3331, -153.803, -85.6998, 47.7536
5.15204, 25, -28.6752, -14.139, 33.4806, -153.697, -85.5756, 47.6297
5.1605, 26, -28.6507, -14.3237, 33.6288, -153.591, -85.4504, 47.5058
5.16895, 26, -28.6265, -14.5095, 33.7774, -153.484, -85.3248, 47.3815
5.17608, 26, -28.6027, -14.6968, 33.9265, -153.376, -85.1988, 47.2571
5.18499, 26, -28.579, -14.8846, 34.0767, -153.268, -85.0719, 47.1329
5.19247, 26, -28.5553, -15.0726, 34.2275, -153.158, -84.9447, 47.0086
5.20045, 27, -28.532, -15.2614, 34.3786, -153.048, -84.8167, 46.8847
5.20899, 27, -28.5205, -15.3562, 34.4543, -152.993, -84.7526, 46.7615
5.21696, 27, -28.4975, -15.5462, 34.6825, -152.826, -84.5595, 46.638
5.22347, 27, -28.4746, -15.7365, 34.759, -152.77, -84.4949, 46.5765
5.23405, 27, -28.441, -16.0233, 34.9892, -152.601, -84.3005, 46.3923
5.23977, 27, -28.4299, -16.1197, 35.0659, -152.545, -84.2355, 46.3309
5.24747, 28, -28.4076, -16.3131, 35.2197, -152.431, -84.1052, 46.209
5.25551, 28, -28.3853, -16.507, 35.3743, -152.317, -83.9744, 46.0871
5.26758, 28, -28.3523, -16.7992, 35.6073, -152.144, -83.778, 45.9054
5.27148, 28, -28.3413, -16.8972, 35.6851, -152.086, -83.7122, 45.8453
5.28145, 28, -28.3085, -17.1915, 35.919, -151.91, -83.5148, 45.6661
5.28747, 29, -28.2977, -17.2896, 35.9973, -151.852, -83.4489, 45.6066
5.29555, 29, -28.2761, -17.4864, 36.1545, -151.734, -83.3165, 45.4885
5.30347, 29, -28.2546, -17.6841, 36.312, -151.615, -83.1838, 45.3709
5.31866, 29, -28.2118, -18.0799, 36.6274, -151.376, -82.9176, 45.1384
5.32188, 30, -28.2013, -18.1791, 36.7067, -151.316, -82.8508, 45.0809
5.32753, 30, -28.1907, -18.2785, 36.7861, -151.255, -82.784, 45.0237
5.33713, 30, -28.1694, -18.4777, 36.9449, -151.134, -82.6507, 44.9105
5.34429, 30, -28.1481, -18.6769, 37.1035, -151.012, -82.517, 44.7985
5.35153, 30, -28.1269, -18.8764, 37.2621, -150.89, -82.3834, 44.6886
5.35959, 30, -28.1055, -19.0768, 37.421, -150.767, -82.2494, 44.5803
5.36748, 31, -28.084, -19.2777, 37.5803, -150.644, -82.1154, 44.4736
5.37548, 31, -28.0625, -19.4784, 37.7393, -150.521, -81.9815, 44.3686
5.38436, 31, -28.041, -19.6791, 37.8982, -150.397, -81.8473, 44.2653
5.39148, 31, -28.0195, -19.8801, 38.0579, -150.272, -81.7133, 44.1638
5.39952, 31, -27.9977, -20.0809, 38.218, -150.146, -81.5789, 44.0632
5.40846, 32, -27.9759, -20.2812, 38.3778, -150.02, -81.4447, 43.9649
5.4156, 32, -27.9539, -20.482, 38.5373, -149.894, -81.3104, 43.8683
5.42346, 32, -27.9316, -20.6835, 38.6971, -149.767, -81.1765, 43.7742
5.43493, 32, -27.8978, -20.9849, 38.937, -149.576, -80.9755, 43.6373
5.43966, 32, -27.8864, -21.0852, 39.0167, -149.513, -80.9089, 43.5931
5.44846, 33, -27.8635, -21.2862, 39.1755, -149.385, -80.7757, 43.5066
5.4566, 33, -27.8403, -21.4869, 39.3344, -149.257, -80.6429, 43.4236
5.46746, 33, -27.8046, -21.7862, 39.5726, -149.066, -80.4445, 43.3042
5.47148, 33, -27.7925, -21.8858, 39.6515, -149.002, -80.3786, 43.2663
5.47952, 33, -27.7678, -22.0849, 39.8088, -148.875, -80.2472, 43.1923
5.4875, 34, -27.7427, -22.2834, 39.9656, -148.747, -80.116, 43.1219
5.49553, 34, -27.7171, -22.481, 40.1223, -148.619, -79.9853, 43.055
5.50349, 34, -27.691, -22.678, 40.2787, -148.492, -79.8545, 42.9905
5.51187, 34, -27.6646, -22.8749, 40.4342, -148.364, -79.724, 42.9299
5.52291, 34, -27.6377, -23.0712, 40.667, -148.172, -79.5279, 42.8449
5.52843, 35, -27.6103, -23.2668, 40.7447, -148.108, -79.4626, 42.818
5.53591, 35, -27.5828, -23.4625, 40.8998, -147.98, -79.3319, 42.767
5.54356, 35, -27.5551, -23.6587, 41.0542, -147.851, -79.2017, 42.7197
5.55192, 35, -27.5271, -23.8542, 41.2084, -147.721, -79.0716, 42.6757
5.56096, 35, -27.4989, -24.0493, 41.3626, -147.592, -78.9416, 42.6346
5.56863, 36, -27.4704, -24.2446, 41.517, -147.461, -78.812, 42.5971
5.57649, 36, -27.4415, -24.4398, 41.6709, -147.331, -78.6824, 42.5638
5.58349, 36, -27.4124, -24.634, 41.824, -147.2, -78.5536, 42.5346
5.59187, 36, -27.3829, -24.8275, 41.9769, -147.069, -78.4249, 42.5098
5.59959, 36, -27.3526, -25.021, 42.1295, -146.938, -78.2968, 42.4893
5.60761, 36, -27.3214, -25.2137, 42.281, -146.807, -78.1692, 42.4734
5.61574, 37, -27.2894, -25.4049, 42.4311, -146.677, -78.042, 42.4621
5.62374, 37, -27.2564, -25.5951, 42.5803, -146.547, -77.9154, 42.4557
5.63178, 37, -27.2226, -25.7845, 42.7283, -146.418, -77.7891, 42.4529
5.64035, 37, -27.1877, -25.9726, 42.8751, -146.29, -77.6636, 42.4534
5.65191, 37, -27.1519, -26.1588, 43.0205, -146.163, -77.5382, 42.466
5.65598, 38, -27.1151, -26.3438, 43.1645, -146.036, -77.4136, 42.4731
5.66456, 38, -27.0777, -26.5281, 43.3078, -145.909, -77.2894, 42.4911
5.67207, 38, -27.0394, -26.711, 43.4504, -145.783, -77.1655, 42.5145
5.68005, 38, -27.0003, -26.8926, 43.5924, -145.657, -77.0419, 42.5432
5.68852, 38, -26.9606, -27.0734, 43.7335, -145.53, -76.9185, 42.5775
5.69639, 39, -26.9203, -27.2541, 43.874, -145.404, -76.7956, 42.6181
5.70406, 39, -26.8999, -27.3442, 43.9439, -145.341, -76.734, 42.6406
5.71227, 39, -26.8584, -27.5234, 44.0833, -145.214, -76.5496, 42.7159
5.721, 39, -26.8162, -27.7017, 44.291, -145.024, -76.4267, 42.7737
5.72745, 39, -26.7732, -27.8796, 44.3598, -144.961, -76.3652, 42.8052
5.73545, 40, -26.7295, -28.0571, 44.4963, -144.836, -76.2424, 42.8724
5.74346, 40, -26.6846, -28.2331, 44.6319, -144.71, -76.1196, 42.9455
5.75146, 40, -26.6388, -28.4075, 44.7663, -144.586, -75.9974, 43.0261
5.76199, 40, -26.5685, -28.6671, 44.9655, -144.401, -75.8148, 43.1577
5.76768, 40, -26.5444, -28.7531, 45.0311, -144.339, -75.7543, 43.2054
5.77542, 41, -26.4956, -28.9237, 45.1615, -144.217, -75.6338, 43.305
5.78345, 41, -26.4456, -29.0924, 45.2904, -144.096, -75.5134, 43.4118
5.79355, 41, -26.3685, -29.343, 45.4813, -143.916, -75.3342, 43.5843
5.79945, 41, -26.3422, -29.4259, 45.5442, -143.857, -75.2746, 43.6452
5.80753, 41, -26.2886, -29.5903, 45.6689, -143.739, -75.1557, 43.7727
5.8156, 42, -26.2336, -29.7526, 45.7918, -143.622, -75.0377, 43.9074
5.82343, 42, -26.1772, -29.9132, 45.9127, -143.506, -74.9197, 44.0494
5.83247, 42, -26.1192, -30.0718, 46.0317, -143.392, -74.8027, 44.1986
5.84234, 42, -26.029, -30.3061, 46.206, -143.225, -74.6279, 44.4357
5.84753, 42, -25.9981, -30.3829, 46.2631, -143.17, -74.5699, 44.5183
5.85551, 42, -25.9351, -30.5348, 46.3755, -143.062, -74.4545, 44.6886
5.86361, 43, -25.8703, -30.6844, 46.4856, -142.956, -74.3393, 44.8667
5.87379, 43, -25.7699, -30.9049, 46.6469, -142.8, -74.1675, 45.1483
5.87945, 43, -25.7356, -30.9772, 46.6997, -142.749, -74.1103, 45.246
5.88763, 43, -25.6659, -31.12, 46.8038, -142.649, -73.9964, 45.4472
5.89647, 43, -25.5947, -31.2607, 46.9061, -142.55, -73.8832, 45.6561
5.90345, 44, -25.5218, -31.3994, 47.0063, -142.453, -73.7703, 45.8726
5.91269, 44, -25.4472, -31.536, 47.1042, -142.358, -73.6582, 46.0974
5.92293, 44, -25.332, -31.7368, 47.2464, -142.22, -73.4911, 46.4494
5.92748, 44, -25.2928, -31.8023, 47.2926, -142.175, -73.4357, 46.571
5.93626, 44, -25.2128, -31.9315, 47.3833, -142.088, -73.3256, 46.8199
5.94345, 45, -25.1311, -32.058, 47.4715, -142.003, -73.2159, 47.0774
5.95149, 45, -25.0473, -32.1817, 47.5573, -141.921, -73.1069, 47.3435
5.96248, 45, -24.9176, -32.3618, 47.6807, -141.804, -72.9442, 47.7578
5.96768, 45, -24.8733, -32.4203, 47.7203, -141.766, -72.89, 47.9
5.97573, 45, -24.7828, -32.5349, 47.7973, -141.693, -72.7825, 48.1908
5.98344, 46, -24.6899, -32.6462, 47.8713, -141.623, -72.6755, 48.4904
5.99146, 46, -24.5948, -32.754, 47.9423, -141.556, -72.5689, 48.798
5.99947, 46, -24.4971, -32.8584, 48.0103, -141.493, -72.4634, 49.1138
6.00771, 46, -24.3972, -32.9592, 48.0751, -141.435, -72.3588, 49.4383
6.01568, 46, -24.2951, -33.0563, 48.1366, -141.379, -72.255, 49.771
6.0245, 47, -24.1905, -33.1496, 48.1946, -141.328, -72.1527, 50.1117
6.0318, 47, -24.0837, -33.239, 48.249, -141.281, -72.0512, 50.4606
6.03954, 47, -23.9741, -33.3243, 48.2998, -141.237, -71.9509, 50.818
6.04782, 47, -23.862, -33.4056, 48.3469, -141.199, -71.8519, 51.1837
6.05561, 47, -23.7472, -33.4828, 48.3901, -141.165, -71.7539, 51.5583
6.06369, 48, -23.6296, -33.5556, 48.4294, -141.136, -71.6573, 51.9416
6.07309, 48, -23.5093, -33.6241, 48.4645, -141.111, -71.5623, 52.3336
6.07952, 48, -23.3864, -33.6879, 48.4955, -141.09, -71.4687, 52.735
6.08955, 48, -23.2611, -33.7469, 48.5225, -141.075, -71.3768, 53.146
6.09565, 48, -23.1331, -33.8008, 48.545, -141.065, -71.2872, 53.5658
6.10407, 49, -23.0022, -33.8496, 48.5631, -141.06, -71.1993, 53.9948
6.11436, 49, -22.8684, -33.8932, 48.5768, -141.059, -71.1131, 54.4314
6.11971, 49, -22.7316, -33.9311, 48.5858, -141.064, -71.0295, 54.8756
6.12858, 49, -22.5919, -33.9634, 48.59, -141.075, -70.9476, 55.3276
6.13575, 49, -22.4493, -33.9901, 48.5899, -141.092, -70.8683, 55.7868
6.14488, 50, -22.304, -34.0107, 48.5849, -141.116, -70.7912, 56.2538
6.15291, 50, -22.156, -34.0252, 48.5747, -141.145, -70.7174, 56.7273
6.15997, 50, -22.0054, -34.0333, 48.5595, -141.18, -70.6462, 57.2087
6.1705, 50, -21.8518, -34.0355, 48.5389, -141.222, -70.5784, 57.6981
6.17602, 50, -21.6952, -34.0316, 48.5129, -141.27, -70.5133, 58.1948
6.18402, 50, -21.5355, -34.0209, 48.4813, -141.324, -70.4528, 58.6985
6.19316, 51, -21.373, -34.0035, 48.4444, -141.385, -70.3949, 59.2081
6.19943, 51, -21.2907, -33.9922, 48.4239, -141.418, -70.3674, 59.4655
6.20748, 51, -21.1242, -33.9644, 48.3787, -141.487, -70.3158, 59.9844
6.21628, 51, -20.9552, -33.9294, 48.3278, -141.564, -70.2446, 60.7741
6.22492, 51, -20.7836, -33.8632, 48.2407, -141.69, -70.2025, 61.3073
6.23144, 52, -20.6093, -33.8372, 48.2087, -141.735, -70.1833, 61.5763
6.23957, 52, -20.4324, -33.7793, 48.1403, -141.83, -70.1483, 62.1195
6.24908, 52, -20.2526, -33.7136, 48.0263, -141.984, -70.104, 62.9466
6.25683, 52, -19.9777, -33.5995, 47.9425, -142.096, -70.0807, 63.5053
6.26531, 52, -19.7914, -33.5129, 47.8523, -142.213, -70.0628, 64.0703
6.27367, 53, -19.6029, -33.4178, 47.7561, -142.336, -70.0504, 64.6411
6.27944, 53, -19.508, -33.3672, 47.7057, -142.401, -70.0463, 64.9284
6.28744, 53, -19.3166, -33.2599, 47.6005, -142.533, -70.042, 65.5056
6.2955, 53, -19.1233, -33.1443, 47.4894, -142.671, -70.0424, 66.0865
6.30344, 53, -18.9283, -33.0205, 47.3725, -142.815, -70.0485, 66.6704
6.31144, 54, -18.7316, -32.8885, 47.2496, -142.963, -70.0609, 67.2567
6.31958, 54, -18.5331, -32.7481, 47.1209, -143.116, -70.0796, 67.8436
6.32748, 54, -18.3326, -32.5994, 46.9867, -143.273, -70.1052, 68.4317
6.33648, 54, -18.1304, -32.4427, 46.8469, -143.435, -70.1373, 69.0214
6.34362, 54, -17.9269, -32.2773, 46.7014, -143.602, -70.1752, 69.6127
6.35166, 55, -17.7224, -32.1028, 46.5496, -143.773, -70.2206, 70.2058
6.36049, 55, -17.5169, -31.9189, 46.3915, -143.948, -70.2744, 70.8026
6.36743, 55, -17.31, -31.7258, 46.2271, -144.128, -70.335, 71.404
6.3755, 55, -17.1014, -31.523, 46.0554, -144.314, -70.4051, 72.0098
6.38344, 55, -16.891, -31.3094, 45.876, -144.505, -70.4832, 72.6201
6.39398, 56, -16.5724, -30.9693, 45.5938, -144.8, -70.6184, 73.5452
6.39959, 56, -16.4655, -30.8508, 45.4963, -144.9, -70.6678, 73.8558
6.4075, 56, -16.2506, -30.6052, 45.2954, -145.105, -70.7735, 74.4788
6.41543, 56, -16.0354, -30.3488, 45.0868, -145.314, -70.8889, 75.1048
6.42359, 56, -15.8206, -30.0822, 44.8726, -145.525, -71.0133, 75.7334
6.43183, 57, -15.6054, -29.8047, 44.6518, -145.74, -71.1471, 76.3631
6.43944, 57, -15.389, -29.5172, 44.424, -145.958, -71.2902, 76.9931
6.44744, 57, -15.1716, -29.2194, 44.1903, -146.178, -71.443, 77.6243
6.4555, 57, -14.9536, -28.9117, 43.9505, -146.399, -71.605, 78.2553
6.46344, 57, -14.7359, -28.5958, 43.7048, -146.622, -71.7766, 78.8845
6.47169, 58, -14.5185, -28.2713, 43.4549, -146.845, -71.957, 79.5117
6.48048, 58, -14.3021, -27.9394, 43.2004, -147.069, -72.1454, 80.1359
6.48743, 58, -14.087, -27.5995, 42.9424, -147.291, -72.3418, 80.7553
6.49553, 58, -13.8734, -27.2525, 42.6815, -147.512, -72.5456, 81.3681
6.50345, 58, -13.6612, -26.8986, 42.4169, -147.731, -72.7568, 81.9759
6.51152, 58, -13.4501, -26.5382, 42.1497, -147.948, -72.975, 82.5777
6.51947, 59, -13.2404, -26.1705, 41.8787, -148.163, -73.2007, 83.1737
6.52755, 59, -13.0326, -25.7963, 41.6043, -148.377, -73.4341, 83.7648
6.53558, 59, -12.8264, -25.4152, 41.3262, -148.589, -73.6757, 84.3521
6.54382, 59, -12.6215, -25.0276, 41.044, -148.799, -73.9254, 84.9357
6.55238, 59, -12.4175, -24.6324, 40.7583, -149.008, -74.1836, 85.5146
6.55954, 60, -12.2147, -24.2304, 40.4682, -149.214, -74.4502, 86.0896
6.56886, 60, -12.0134, -23.8217, 40.1752, -149.418, -74.7252, 86.6608
6.57743, 60, -11.8137, -23.407, 39.8788, -149.619, -75.008, 87.2278
6.58427, 60, -11.6156, -22.9859, 39.5809, -149.818, -75.2984, 87.7885
6.59146, 60, -11.4199, -22.5598, 39.2811, -150.013, -75.5958, 88.3439
6.59948, 61, -11.2266, -22.1296, 38.98, -150.205, -75.8993, 88.893
6.60841, 61, -11.0354, -21.6953, 38.6778, -150.392, -76.2082, 89.4343
6.6156, 61, -10.8465, -21.2575, 38.3749, -150.574, -76.5218, 89.9666
6.62473, 61, -10.6596, -20.8161, 38.072, -150.751, -76.8403, 90.4905
6.63273, 61, -10.475, -20.3706, 37.7683, -150.924, -77.1636, 91.0059
6.63983, 61, -10.2928, -19.9213, 37.4645, -151.092, -77.4916, 91.5132
6.64869, 62, -10.1134, -19.4684, 37.1598, -151.256, -77.8249, 92.0128
6.65595, 62, -9.93667, -19.0129, 36.8545, -151.415, -78.1639, 92.5046
6.66483, 62, -9.76256, -18.5547, 36.5478, -151.57, -78.5085, 92.9902
6.6724, 62, -9.59095, -18.095, 36.2409, -151.72, -78.858, 93.4677
6.68006, 62, -9.42151, -17.6346, 35.9344, -151.866, -79.2117, 93.9371
6.6888, 63, -9.33764, -17.1731, 35.6294, -152.006, -79.5686, 94.3962
6.69619, 63, -9.17162, -16.7102, 35.3263, -152.14, -79.9276, 94.8445
6.70342, 63, -9.00827, -16.478, 35.1754, -152.205, -80.1076, 95.0647
6.71147, 63, -8.84755, -16.0122, 34.8756, -152.331, -80.4687, 95.4963
6.72023, 63, -8.68942, -15.544, 34.5774, -152.45, -80.8314, 95.9171
6.72746, 64, -8.53375, -15.074, 34.2813, -152.565, -81.1968, 96.3278
6.73548, 64, -8.3805, -14.6026, 33.9858, -152.675, -81.5659, 96.7281
6.74344, 64, -8.22955, -14.1299, 33.6898, -152.78, -81.9398, 97.1199
6.75149, 64, -8.08078, -13.6574, 33.394, -152.881, -82.3192, 97.5031
6.75943, 64, -7.93424, -13.1852, 33.0978, -152.977, -82.7034, 97.8763
6.76769, 65, -7.7901, -12.7137, 32.803, -153.068, -83.091, 98.2387
6.77732, 65, -7.57922, -12.0088, 32.3653, -153.194, -83.6749, 98.7584
6.78342, 65, -7.51046, -11.7743, 32.2216, -153.232, -83.8695, 98.9245
6.79445, 65, -7.30881, -11.0714, 31.7966, -153.34, -84.4508, 99.4007
6.79963, 65, -7.24315, -10.8376, 31.6574, -153.372, -84.6437, 99.5519
6.80742, 66, -7.11382, -10.3719, 31.3824, -153.433, -85.0279, 99.8425
6.81546, 66, -6.9868, -9.90971, 31.111, -153.488, -85.4109, 100.118
6.82645, 66, -6.80006, -9.22587, 30.7118, -153.56, -85.9842, 100.501
6.83148, 66, -6.73888, -9.00105, 30.5804, -153.581, -86.1746, 100.621
6.84048, 66, -6.61803, -8.55653, 30.3207, -153.619, -86.5543, 100.848
6.8476, 67, -6.49966, -8.11815, 30.0661, -153.652, -86.9311, 101.059
6.85549, 67, -6.38429, -7.68608, 29.8166, -153.679, -87.3037, 101.251
6.86348, 67, -6.27191, -7.26023, 29.5744, -153.7, -87.6712, 101.426
6.87159, 67, -6.16227, -6.83999, 29.3394, -153.715, -88.0328, 101.584
6.88028, 67, -6.05523, -6.42615, 29.1107, -153.724, -88.3886, 101.723
6.88848, 68, -5.95052, -6.01855, 28.8888, -153.729, -88.7392, 101.845
6.89651, 68, -5.84783, -5.61764, 28.6724, -153.73, -89.0857, 101.949
6.90342, 68, -5.74673, -5.22211, 28.4599, -153.726, -89.4294, 102.036
6.91148, 68, -5.64731, -4.83231, 28.2513, -153.718, -89.7712, 102.106
6.91941, 68, -5.54951, -4.44771, 28.0461, -153.705, -90.1123, 102.157
6.92857, 69, -5.45345, -4.06769, 27.8436, -153.688, -90.4523, 102.189
6.9355, 69, -5.3591, -3.6911, 27.6452, -153.666, -90.7922, 102.204
6.94341, 69, -5.26646, -3.31824, 27.451, -153.639, -91.1314, 102.202
6.95144, 69, -5.17554, -2.94911, 27.26, -153.608, -91.47, 102.177
6.95942, 69, -5.08632, -2.58356, 27.0722, -153.574, -91.8075, 102.132
6.96745, 70, -4.99871, -2.22105, 26.8888, -153.536, -92.1437, 102.064
6.97561, 70, -4.91244, -1.86299, 26.7091, -153.493, -92.4784, 101.975
6.98447, 70, -4.82737, -1.50967, 26.5327, -153.447, -92.8116, 101.863
6.99241, 70, -4.74338, -1.16173, 26.3605, -153.398, -93.1427, 101.729
6.99957, 70, -4.66051, -0.818843, 26.1929, -153.346, -93.4717, 101.573
7.00838, 71, -4.57872, -0.482638, 26.029, -153.289, -93.7977, 101.396
7.01552, 71, -4.49798, -0.15271, 25.8691, -153.232, -94.1206, 101.197
7.02413, 71, -4.41833, 0.17015, 25.7146, -153.17, -94.44, 100.978
7.03153, 71, -4.33951, 0.48676, 25.5656, -153.107, -94.7554, 100.738
7.0395, 71, -4.26148, 0.797193, 25.4214, -153.042, -95.0669, 100.478
7.04854, 71, -4.18434, 1.10052, 25.2819, -152.974, -95.3746, 100.198
7.05566, 72, -4.10769, 1.39732, 25.1468, -152.905, -95.6786, 99.8983
7.06353, 72, -4.03123, 1.68713, 25.0155, -152.834, -95.9796, 99.5781
7.07347, 72, -3.95508, 1.97076, 24.8878, -152.763, -96.2778, 99.2375
7.08046, 72, -3.879, 2.24846, 24.7631, -152.69, -96.5735, 98.8763
7.08751, 72, -3.80298, 2.51968, 24.6416, -152.617, -96.8668, 98.4933
7.09546, 73, -3.7271, 2.78529, 24.523, -152.544, -97.1577, 98.0883
7.10379, 73, -3.65102, 3.04472, 24.4078, -152.47, -97.4463, 97.6609
7.11341, 73, -3.5747, 3.29763, 24.2961, -152.396, -97.7322, 97.2106
7.11975, 73, -3.49802, 3.54445, 24.1882, -152.323, -98.015, 96.7393
7.12798, 73, -3.42094, 3.78431, 24.0842, -152.251, -98.2944, 96.2467
7.13572, 74, -3.3432, 4.01588, 23.9842, -152.18, -98.5698, 95.7346
7.14387, 74, -3.26479, 4.23928, 23.888, -152.111, -98.84, 95.205
7.15245, 74, -3.18576, 4.45407, 23.7959, -152.043, -99.1045, 94.6604
7.15994, 74, -3.10605, 4.65916, 23.7081, -151.977, -99.3626, 94.1034
7.16806, 74, -3.02571, 4.85448, 23.6247, -151.914, -99.6133, 93.535
7.1764, 75, -2.94447, 5.04027, 23.5456, -151.853, -99.8558, 92.9569
7.18402, 75, -2.86225, 5.21567, 23.4708, -151.796, -100.09, 92.3717
7.192, 75, -2.82075, 5.38009, 23.3999, -151.74, -100.314, 91.7792
7.20117, 75, -2.69484, 5.53374, 23.333, -151.689, -100.529, 91.18
7.21123, 75, -2.6098, 5.67655, 23.2702, -151.64, -100.735, 90.5745
7.21651, 76, -2.52377, 5.80805, 23.2116, -151.594, -100.931, 89.962
7.22341, 76, -2.48038, 5.8695, 23.1839, -151.573, -101.026, 89.6529
7.23139, 76, -2.39292, 5.98366, 23.1318, -151.534, -101.209, 89.0277
7.2394, 76, -2.3047, 6.08582, 23.0839, -151.499, -101.382, 88.3933
7.24746, 76, -2.21573, 6.17559, 23.0405, -151.467, -101.546, 87.7523
7.25558, 77, -2.12591, 6.25264, 23.002, -151.439, -101.699, 87.1045
7.2634, 77, -2.03524, 6.31671, 22.9684, -151.415, -101.84, 86.4528
7.2729, 77, -1.89755, 6.38798, 22.9286, -151.387, -102.027, 85.4764
7.2794, 77, -1.85123, 6.40472, 22.9181, -151.38, -102.082, 85.1521
7.28752, 77, -1.75788, 6.42771, 22.9015, -151.368, -102.182, 84.5054
7.2954, 77, -1.66374, 6.43653, 22.8908, -151.36, -102.267, 83.863
7.30355, 78, -1.56881, 6.43062, 22.8858, -151.356, -102.336, 83.2256
7.31148, 78, -1.47323, 6.40941, 22.8862, -151.354, -102.39, 82.5914
7.3194, 78, -1.37714, 6.37288, 22.8924, -151.355, -102.428, 81.9611
7.32757, 78, -1.28067, 6.32042, 22.9047, -151.359, -102.45, 81.3356
7.33773, 79, -1.13554, 6.2115, 22.9352, -151.373, -102.455, 80.4076
7.34342, 79, -1.08711, 6.16711, 22.9488, -151.379, -102.448, 80.1013
7.35242, 79, -0.990107, 6.06629, 22.9814, -151.393, -102.419, 79.4947
7.3594, 79, -0.893095, 5.94927, 23.0215, -151.411, -102.374, 78.8973
7.36746, 79, -0.796077, 5.81589, 23.0691, -151.431, -102.311, 78.3092
7.37548, 79, -0.699086, 5.66591, 23.1243, -151.454, -102.23, 77.731
7.3834, 80, -0.60207, 5.49951, 23.1869, -151.48, -102.131, 77.1631
7.39142, 80, -0.504963, 5.3165, 23.2572, -151.506, -102.013, 76.6064
7.40411, 80, -0.359406, 5.0109, 23.3778, -151.55, -101.802, 75.7895
7.40853, 80, -0.310991, 4.90036, 23.4221, -151.565, -101.723, 75.522
7.4156, 80, -0.214245, 4.66539, 23.517, -151.597, -101.549, 74.9938
7.42341, 81, -0.117645, 4.41278, 23.6206, -151.63, -101.356, 74.4758
7.43162, 81, -0.0211753, 4.14363, 23.733, -151.665, -101.144, 73.9669
7.44044, 81, 0.0750532, 3.85732, 23.8547, -151.699, -100.913, 73.4669
7.44741, 81, 0.171127, 3.55451, 23.986, -151.736, -100.662, 72.9764
7.45571, 81, 0.266964, 3.2342, 24.1272, -151.773, -100.392, 72.4956
7.46444, 82, 0.362603, 2.8968, 24.2783, -151.81, -100.103, 72.0245
7.47247, 82, 0.458014, 2.54277, 24.4387, -151.847, -99.7947, 71.5626
7.4804, 82, 0.553105, 2.17291, 24.6084, -151.885, -99.4675, 71.1106
7.48748, 82, 0.648072, 1.78682, 24.7878, -151.923, -99.1224, 70.668
7.4954, 82, 0.742842, 1.38426, 24.9766, -151.959, -98.7598, 70.2357
7.50485, 83, 0.837579, 0.965703, 25.1744, -151.995, -98.3801, 69.8139
7.5151, 83, 0.979664, 0.310492, 25.4898, -152.048, -97.7803, 69.2
7.51942, 83, 1.02706, 0.08486, 25.6002, -152.065, -97.5726, 69.0007
7.52769, 83, 1.1219, -0.377445, 25.827, -152.098, -97.1457, 68.6095
7.5364, 83, 1.21677, -0.853877, 26.0626, -152.129, -96.7034, 68.2281
7.54465, 84, 1.31182, -1.3446, 26.3084, -152.159, -96.246, 67.8567
7.55241, 84, 1.40714, -1.8491, 26.5639, -152.188, -95.7731, 67.4937
7.5595, 84, 1.50262, -2.36644, 26.8297, -152.215, -95.2856, 67.1387
7.56795, 84, 1.59839, -2.89742, 27.1057, -152.241, -94.782, 66.7906
7.5759, 84, 1.69459, -3.44192, 27.3921, -152.265, -94.2632, 66.4497
7.58634, 85, 1.79122, -3.99986, 27.6893, -152.287, -93.7297, 66.1153
7.59177, 85, 1.88812, -4.57068, 27.9962, -152.308, -93.1808, 65.7887
7.60048, 85, 1.98539, -5.15258, 28.3133, -152.327, -92.6172, 65.47
7.60835, 85, 2.08294, -5.74464, 28.6395, -152.344, -92.0417, 65.159
7.61584, 85, 2.18091, -6.3461, 28.975, -152.358, -91.4556, 64.8563
7.62391, 85, 2.27958, -6.95542, 29.3188, -152.369, -90.8592, 64.5632
7.63248, 86, 2.37885, -7.57187, 29.6704, -152.378, -90.2534, 64.2798
7.64139, 86, 2.4791, -8.19447, 30.029, -152.383, -89.6382, 64.0068
7.64939, 86, 2.58041, -8.82338, 30.3943, -152.386, -89.0149, 63.7445
7.65592, 86, 2.68238, -9.45795, 30.7651, -152.387, -88.3873, 63.4938
7.66456, 86, 2.78548, -10.0965, 31.1411, -152.385, -87.7557, 63.2547
7.67197, 87, 2.88966, -10.7387, 31.5227, -152.378, -87.1182, 63.0272
7.68051, 87, 2.99441, -11.3835, 31.9087, -152.368, -86.4754, 62.8119
7.68804, 87, 3.10027, -12.0305, 32.299, -152.354, -85.8281, 62.6089
7.6965, 87, 3.20684, -12.6792, 32.6935, -152.337, -85.1769, 62.4189
7.70416, 87, 3.26036, -13.0042, 33.0929, -152.315, -84.5227, 62.2419
7.71136, 88, 3.36803, -13.6558, 33.2944, -152.303, -84.1939, 62.1582
7.72043, 88, 3.53084, -14.6372, 33.9051, -152.261, -83.2015, 61.9279
7.72746, 88, 3.58545, -14.9654, 34.111, -152.245, -82.8689, 61.8579
7.7354, 88, 3.69529, -15.6223, 34.5255, -152.209, -82.2004, 61.7287
7.74722, 88, 3.86101, -16.61, 35.1555, -152.147, -81.1922, 61.563
7.75162, 89, 3.91642, -16.9394, 35.3678, -152.124, -80.8547, 61.5154
7.75939, 89, 4.02739, -17.5972, 35.7947, -152.074, -80.1776, 61.4335
7.77328, 89, 4.19395, -18.5804, 36.4412, -151.989, -79.154, 61.3432
7.77553, 89, 4.24947, -18.9069, 36.6581, -151.958, -78.8107, 61.3222
7.78344, 89, 4.36043, -19.5572, 37.0925, -151.892, -78.1243, 61.295
7.79326, 90, 4.52678, -20.5227, 37.7436, -151.783, -77.0998, 61.2909
7.7994, 90, 4.5825, -20.8422, 37.9602, -151.743, -76.7592, 61.3013
7.809, 90, 4.75044, -21.7934, 38.6074, -151.617, -75.743, 61.3687
7.81706, 90, 4.86268, -22.4212, 39.0355, -151.526, -75.0728, 61.4437
7.82356, 90, 4.91883, -22.7332, 39.2486, -151.478, -74.7404, 61.4911
7.8316, 90, 5.03119, -23.3535, 39.6733, -151.378, -74.0796, 61.6058
7.83939, 91, 5.14348, -23.969, 40.0964, -151.273, -73.4208, 61.7473
7.84842, 91, 5.25536, -24.5782, 40.5185, -151.161, -72.7631, 61.9173
7.8555, 91, 5.36634, -25.1808, 40.9405, -151.042, -72.1051, 62.1159
7.8634, 91, 5.47641, -25.7768, 41.3619, -150.916, -71.4452, 62.3445
7.87495, 92, 5.64028, -26.6573, 41.9927, -150.716, -70.4573, 62.745
7.87939, 92, 5.69481, -26.9472, 42.2023, -150.646, -70.1287, 62.8944
7.88744, 92, 5.80424, -27.5209, 42.6191, -150.502, -69.4727, 63.2165
7.89545, 92, 5.91431, -28.0865, 43.0315, -150.352, -68.8196, 63.5696
7.9034, 92, 6.02507, -28.6435, 43.4388, -150.199, -68.1698, 63.9544
7.91141, 92, 6.13695, -29.1901, 43.8399, -150.041, -67.5258, 64.3704
7.91946, 93, 6.25023, -29.7256, 44.2346, -149.881, -66.8887, 64.818
7.93005, 93, 6.42367, -30.5096, 44.8146, -149.636, -65.9407, 65.5495
7.93546, 93, 6.48258, -30.7662, 45.0051, -149.554, -65.6264, 65.8093
7.9434, 93, 6.60196, -31.274, 45.3821, -149.39, -64.9997, 66.3553
7.95141, 93, 6.72352, -31.7757, 45.7542, -149.225, -64.3741, 66.9383
7.95936, 94, 6.84732, -32.2721, 46.1232, -149.059, -63.7475, 67.5634
7.9675, 94, 6.97356, -32.7638, 46.4897, -148.892, -63.1156, 68.2351
7.97539, 94, 7.10178, -33.2498, 46.8547, -148.725, -62.4774, 68.9592
7.98341, 94, 7.23217, -33.7279, 47.2176, -148.559, -61.833, 69.7364
7.99146, 94, 7.36565, -34.1988, 47.5773, -148.396, -61.182, 70.5655
7.99936, 95, 7.5031, -34.6616, 47.9304, -148.239, -60.5295, 71.449
8.00744, 95, 7.64552, -35.1138, 48.2752, -148.091, -59.88, 72.3787
8.01546, 95, 7.7939, -35.5552, 48.6088, -147.956, -59.2355, 73.3494
8.02347, 95, 7.94872, -35.9831, 48.9302, -147.835, -58.5981, 74.3594
8.03149, 95, 8.11047, -36.3932, 49.2363, -147.73, -57.9694, 75.4025
8.03985, 95, 8.27892, -36.7831, 49.5267, -147.643, -57.3515, 76.479
8.04754, 96, 8.45422, -37.1518, 49.8002, -147.576, -56.7479, 77.5856
8.05554, 96, 8.63548, -37.4974, 50.057, -147.53, -56.1585, 78.7207
8.06349, 96, 8.82181, -37.8181, 50.2964, -147.504, -55.5843, 79.8774
8.07149, 96, 9.01283, -38.113, 50.5163, -147.498, -55.0277, 81.0507
8.08009, 96, 9.20718, -38.383, 50.7169, -147.513, -54.4911, 82.2353
8.08845, 97, 9.40315, -38.6276, 50.8981, -147.551, -53.9772, 83.4296
8.09547, 97, 9.59944, -38.8469, 51.0587, -147.609, -53.4884, 84.6279
8.10348, 97, 9.79487, -39.0416, 51.1989, -147.688, -53.0264, 85.8199
8.11147, 97, 9.98891, -39.2115, 51.3196, -147.783, -52.5932, 86.9996
8.11955, 97, 10.1804, -39.3555, 51.4206, -147.894, -52.19, 88.1581
8.12766, 97, 10.3683, -39.4742, 51.5026, -148.017, -51.8173, 89.29
8.13598, 97, 10.5524, -39.5677, 51.5662, -148.151, -51.4756, 90.3877
8.14373, 98, 10.7342, -39.6372, 51.612, -148.295, -51.164, 91.453
8.1524, 98, 10.9143, -39.6838, 51.6403, -148.448, -50.8804, 92.4931
8.15991, 98, 11.0927, -39.7073, 51.6513, -148.612, -50.621, 93.5227
8.16853, 98, 11.269, -39.7075, 51.6457, -148.789, -50.3825, 94.5555
8.17594, 98, 11.4441, -39.6842, 51.6228, -148.979, -50.1627, 95.6027
8.18451, 98, 11.6196, -39.637, 51.5822, -149.182, -49.9619, 96.6713
8.19196, 99, 11.7073, -39.5666, 51.5238, -149.399, -49.7816, 97.7605
8.19995, 99, 11.8819, -39.5229, 51.4877, -149.512, -49.6244, 98.8667
8.2089, 99, 12.1393, -39.3579, 51.3517, -149.864, -49.4937, 99.9781
8.21534, 99, 12.2234, -39.2917, 51.2972, -149.985, -49.4392, 100.533
8.22337, 99, 12.3882, -39.1425, 51.175, -150.228, -49.3535, 101.632
8.23273, 99, 12.6228, -38.8772, 50.9607, -150.593, -49.2825, 103.24
8.23936, 100, 12.6968, -38.7771, 50.8816, -150.714, -49.2746, 103.76
8.24754, 100, 12.8384, -38.5583, 50.7111, -150.951, -49.2823, 104.78
8.25538, 100, 12.9709, -38.3162, 50.5235, -151.183, -49.3222, 105.771
8.26337, 100, 13.0946, -38.0517, 50.3192, -151.409, -49.3928, 106.736
8.27361, 100, 13.2649, -37.6151, 49.9806, -151.737, -49.5578, 108.139
8.27938, 100, 13.3175, -37.4585, 49.8585, -151.843, -49.6283, 108.596
8.28746, 101, 13.4166, -37.1271, 49.6018, -152.05, -49.7917, 109.494
8.29727, 101, 13.5502, -36.5831, 49.1848, -152.345, -50.0932, 110.796
8.30338, 101, 13.5908, -36.3883, 49.0371, -152.439, -50.2086, 111.219
8.31376, 101, 13.7005, -35.7654, 48.5671, -152.706, -50.6003, 112.454
8.3312, 101, 13.8178, -34.8509, 47.8758, -153.028, -51.235, 114.028
8.33303, 101, 13.8178, -34.8509, 47.6915, -153.102, -51.4147, 114.408
8.33532, 102, 13.8418, -34.6074, 47.6915, -153.102, -51.4147, 114.408
8.34337, 102, 13.8829, -34.1024, 47.3093, -153.24, -51.7995, 115.151
8.35143, 102, 13.9148, -33.5733, 46.9099, -153.366, -52.2178, 115.872
8.36043, 102, 13.9377, -33.0208, 46.494, -153.478, -52.6694, 116.568
8.36744, 102, 13.9521, -32.4462, 46.0639, -153.576, -53.1524, 117.238
8.37546, 102, 13.9583, -31.8497, 45.6202, -153.661, -53.6634, 117.882
8.38338, 103, 13.9571, -31.2328, 45.1634, -153.731, -54.2002, 118.497
8.39137, 103, 13.9488, -30.5982, 44.6956, -153.788, -54.7596, 119.084
8.39945, 103, 13.9342, -29.9481, 44.2179, -153.83, -55.3391, 119.644
8.40743, 103, 13.9136, -29.284, 43.7321, -153.86, -55.936, 120.177
8.41541, 103, 13.8876, -28.607, 43.2397, -153.879, -56.5489, 120.683
8.4235, 104, 13.8569, -27.9195, 42.742, -153.886, -57.175, 121.162
8.43137, 104, 13.822, -27.2227, 42.2405, -153.884, -57.8134, 121.618
8.43941, 104, 13.7831, -26.5184, 41.7358, -153.871, -58.466, 122.051
8.44749, 104, 13.7409, -25.8078, 41.2286, -153.849, -59.1316, 122.463
8.45538, 104, 13.6964, -25.0934, 40.7199, -153.819, -59.8091, 122.859
8.46337, 104, 13.6502, -24.3761, 40.2103, -153.781, -60.4952, 123.239
8.47144, 104, 13.6022, -23.6563, 39.7006, -153.736, -61.1871, 123.607
8.47938, 104, 13.5526, -22.9347, 39.1915, -153.687, -61.885, 123.968
8.48744, 104, 13.502, -22.2123, 38.6833, -153.631, -62.5865, 124.324
8.49545, 104, 13.4506, -21.489, 38.1768, -153.571, -63.2901, 124.676
8.50338, 104, 13.3986, -20.7658, 37.6715, -153.507, -63.9944, 125.026
8.51137, 104, 13.3463, -20.0428, 37.1676, -153.438, -64.699, 125.374
8.51944, 104, 13.2938, -19.3195, 36.6658, -153.366, -65.4054, 125.72
8.52764, 104, 13.2411, -18.5959, 36.1659, -153.289, -66.1128, 126.066
8.5354, 104, 13.1886, -17.8722, 35.6683, -153.209, -66.8213, 126.412
8.54356, 104, 13.1365, -17.1479, 35.1733, -153.125, -67.53, 126.756
8.55171, 104, 13.0846, -16.4235, 34.68, -153.036, -68.2379, 127.1
8.55947, 104, 13.0332, -15.6992, 34.1889, -152.944, -68.9473, 127.444
8.56759, 104, 12.982, -14.9744, 33.6997, -152.848, -69.6587, 127.788
8.57549, 104, 12.9309, -14.249, 33.2131, -152.748, -70.3703, 128.131
8.58345, 104, 12.8804, -13.5239, 32.7292, -152.644, -71.0811, 128.475
8.59144, 104, 12.8301, -12.7986, 32.2481, -152.536, -71.7918, 128.819
8.5994, 104, 12.7801, -12.073, 31.7695, -152.425, -72.5048, 129.163
8.60752, 104, 12.7305, -11.348, 31.2933, -152.309, -73.2179, 129.508
8.61561, 104, 12.6814, -10.6228, 30.8196, -152.19, -73.9313, 129.853
8.62349, 104, 12.6325, -9.89729, 30.349, -152.067, -74.6447, 130.199
8.63169, 104, 12.584, -9.17177, 29.8814, -151.94, -75.3579, 130.546
8.63969, 104, 12.5361, -8.44597, 29.4169, -151.808, -76.0726, 130.894
8.64773, 104, 12.4886, -7.71979, 28.9557, -151.673, -76.7879, 131.243
8.65588, 104, 12.4415, -6.99394, 28.4978, -151.533, -77.5041, 131.593
8.6645, 104, 12.3952, -6.26851, 28.0429, -151.389, -78.2196, 131.945
8.67279, 104, 12.3494, -5.54349, 27.5916, -151.241, -78.9337, 132.297
8.68001, 104, 12.3041, -4.81935, 27.1441, -151.089, -79.6492, 132.65
8.688, 104, 12.2597, -4.09661, 26.7008, -150.933, -80.3655, 133.006
8.69596, 104, 12.2166, -3.37656, 26.2625, -150.773, -81.0809, 133.362
8.70447, 104, 12.1744, -2.66151, 25.8291, -150.608, -81.7924, 133.719
8.71202, 104, 12.1538, -2.30623, 25.6147, -150.525, -82.1466, 134.076
8.71937, 104, 12.1136, -1.60112, 25.1908, -150.356, -82.8528, 134.254
8.7284, 104, 12.0551, -0.559106, 24.5708, -150.097, -83.8998, 134.785
8.73537, 104, 12.0361, -0.216696, 24.3689, -150.009, -84.244, 134.96
8.74336, 104, 11.9988, 0.460326, 23.9731, -149.834, -84.9229, 135.309
8.75255, 104, 11.9449, 1.45338, 23.4022, -149.57, -85.9146, 135.822
8.75936, 104, 11.9276, 1.77793, 23.2181, -149.482, -86.2381, 135.991
8.76742, 104, 11.8938, 2.4157, 22.8598, -149.306, -86.8734, 136.323
8.77545, 104, 11.8609, 3.03726, 22.5135, -149.131, -87.4924, 136.648
8.78336, 104, 11.8293, 3.64269, 22.1808, -148.956, -88.0956, 136.966
8.79359, 104, 11.7844, 4.51909, 21.7056, -148.697, -88.9675, 137.432
8.79941, 104, 11.77, 4.80292, 21.5535, -148.611, -89.2492, 137.583
8.80964, 104, 11.7292, 5.62874, 21.1138, -148.357, -90.0717, 138.027
8.81537, 104, 11.716, 5.89521, 20.9733, -148.273, -90.3379, 138.172
8.8256, 104, 11.6907, 6.41587, 20.5695, -148.025, -91.1114, 138.595
8.83136, 104, 11.6666, 6.9195, 20.4407, -147.944, -91.3611, 138.732
8.84037, 104, 11.6436, 7.4062, 20.1919, -147.783, -91.8475, 139.001
8.84749, 104, 11.6218, 7.8766, 19.9539, -147.624, -92.3167, 139.262
8.85643, 104, 11.6011, 8.33021, 19.7268, -147.469, -92.7694, 139.516
8.86338, 104, 11.5815, 8.76691, 19.511, -147.317, -93.2056, 139.762
8.87142, 104, 11.5632, 9.18591, 19.3055, -147.169, -93.6251, 139.999
8.87938, 104, 11.5459, 9.58798, 19.11, -147.025, -94.0274, 140.229
8.88742, 104, 11.5297, 9.97201, 18.9255, -146.885, -94.4125, 140.449
8.89543, 104, 11.5145, 10.3375, 18.7517, -146.75, -94.7794, 140.66
8.90341, 104, 11.5004, 10.6836, 18.5879, -146.62, -95.128, 140.862
8.91136, 104, 11.4874, 11.011, 18.4348, -146.496, -95.4571, 141.053
8.91944, 104, 11.4753, 11.3179, 18.2928, -146.378, -95.766, 141.234
8.92741, 104, 11.4643, 11.6043, 18.1612, -146.267, -96.0546, 141.403
8.93537, 104, 11.4544, 11.8698, 18.0401, -146.163, -96.3217, 141.56
8.94345, 104, 11.4453, 12.1137, 17.9298, -146.067, -96.5673, 141.705
8.95137, 104, 11.4368, 12.3367, 17.83, -145.979, -96.7909, 141.838
8.95936, 104, 11.4292, 12.5389, 17.7405, -145.899, -96.9924, 141.957
8.96748, 104, 11.4223, 12.7198, 17.6614, -145.826, -97.172, 142.065
8.97536, 104, 11.4162, 12.8796, 17.5924, -145.763, -97.3296, 142.158
8.98336, 104, 11.4107, 13.0194, 17.5331, -145.708, -97.4652, 142.24
8.99142, 104, 11.4057, 13.1401, 17.4833, -145.662, -97.5798, 142.308
8.99939, 104, 11.4012, 13.2423, 17.4425, -145.624, -97.6736, 142.364
9.00741, 104, 11.3971, 13.327, 17.4095, -145.593, -97.749, 142.409
9.01543, 104, 11.3932, 13.3965, 17.3842, -145.569, -97.8067, 142.445
9.02336, 104, 11.3898, 13.4525, 17.3654, -145.551, -97.8494, 142.471
9.0314, 104, 11.3868, 13.4965, 17.3518, -145.538, -97.8798, 142.489
9.03946, 104, 11.3844, 13.5297, 17.3429, -145.53, -97.9007, 142.501
9.04755, 104, 11.3825, 13.5545, 17.3371, -145.524, -97.9142, 142.508
9.05546, 104, 11.381, 13.5726, 17.3336, -145.521, -97.9219, 142.512
9.06351, 104, 11.3798, 13.5849, 17.3316, -145.519, -97.9261, 142.515
9.07146, 104, 11.3789, 13.5934, 17.3306, -145.519, -97.9282, 142.516
9.07945, 105, 11.3783, 13.5991, 17.3301, -145.518, -97.9291, 142.516
9.0876, 105, 11.3779, 13.6027, 17.3298, -145.518, -97.9296, 142.516
9.09538, 105, 11.3775, 13.6053, 17.3297, -145.518, -97.9298, 142.516
9.10343, 105, 11.3772, 13.6074, 17.3297, -145.518, -97.9299, 142.516
9.11148, 105, 11.377, 13.6092, 17.3296, -145.518, -97.9298, 142.517
9.11948, 105, 11.3769, 13.6108, 17.3296, -145.518, -97.9298, 142.517
9.12758, 105, 11.3767, 13.6122, 17.3296, -145.518, -97.9297, 142.517
9.13567, 105, 11.3766, 13.6133, 17.3296, -145.518, -97.9297, 142.517
9.14369, 105, 11.3766, 13.6143, 17.3297, -145.518, -97.9297, 142.517
9.1518, 105, 11.3765, 13.6152, 17.3297, -145.518, -97.9295, 142.517
9.16041, 105, 11.3765, 13.6158, 17.3297, -145.518, -97.9294, 142.517
9.16796, 105, 11.3765, 13.6162, 17.3297, -145.518, -97.9293, 142.517
9.17589, 105, 11.3765, 13.6165, 17.3297, -145.518, -97.9291, 142.517
9.18391, 105, 11.3765, 13.6167, 17.3298, -145.518, -97.929, 142.517
9.19254, 105, 11.3765, 13.6168, 17.3298, -145.518, -97.9288, 142.517
9.20047, 105, 11.3765, 13.6168, 17.3298, -145.518, -97.9287, 142.517
