hehonglu123/Motion-Primitive-Planning/ILC/recorded_data/realrobot/wood/iteration_30/run_0.csv
timestamp, cmd_num, J1, J2, J3, J4, J5, J6
0.000383, -1, 11.3767, 13.6166, 17.3322, -145.52, -97.9268, 142.517
0.004395, -1, 11.3767, 13.6166, 17.3322, -145.52, -97.9268, 142.517
0.007816, -1, 11.3767, 13.6166, 17.3322, -145.52, -97.9268, 142.517
0.02848, -1, 11.3767, 13.6166, 17.3322, -145.52, -97.9268, 142.517
0.031152, -1, 11.3767, 13.6166, 17.3322, -145.52, -97.9269, 142.517
0.033591, -1, 11.3767, 13.6166, 17.3322, -145.52, -97.9269, 142.517
0.039729, -1, 11.3767, 13.6166, 17.3322, -145.52, -97.9269, 142.517
0.04872, -1, 11.3766, 13.6166, 17.3322, -145.52, -97.9268, 142.517
0.19058, -1, 10.1941, 13.302, 17.4062, -145.888, -97.8011, 140.378
0.191953, -1, 10.1189, 13.2816, 17.4111, -145.912, -97.7928, 140.239
0.19316, -1, 10.1189, 13.2816, 17.4111, -145.912, -97.7928, 140.239
0.195205, -1, 10.043, 13.2611, 17.4161, -145.936, -97.7843, 140.1
0.196508, -1, 10.043, 13.2611, 17.4161, -145.936, -97.7843, 140.1
0.197909, -1, 10.043, 13.2611, 17.4161, -145.936, -97.7843, 140.1
0.201376, -1, 9.96646, 13.2404, 17.4211, -145.959, -97.7758, 139.961
0.205866, -1, 9.88932, 13.2196, 17.4262, -145.984, -97.7672, 139.822
0.207906, -1, 9.81177, 13.1989, 17.4312, -146.008, -97.7586, 139.682
0.20938, -1, 9.81177, 13.1989, 17.4312, -146.008, -97.7586, 139.682
0.21179, -1, 9.73403, 13.1781, 17.4362, -146.032, -97.7499, 139.542
0.213038, -1, 9.73403, 13.1781, 17.4362, -146.032, -97.7499, 139.542
0.214999, -1, 9.65628, 13.1573, 17.4412, -146.056, -97.7413, 139.402
0.216404, -1, 9.65628, 13.1573, 17.4412, -146.056, -97.7413, 139.402
0.217752, -1, 9.65628, 13.1573, 17.4412, -146.056, -97.7413, 139.402
0.220533, -1, 9.57859, 13.1366, 17.4463, -146.08, -97.7327, 139.262
0.221729, -1, 9.57859, 13.1366, 17.4463, -146.08, -97.7327, 139.262
0.225108, -1, 9.50103, 13.1159, 17.4513, -146.103, -97.7242, 139.123
0.227037, -1, 9.50103, 13.0952, 17.4562, -146.128, -97.7158, 138.983
0.228449, -1, 9.4236, 13.0952, 17.4562, -146.128, -97.7158, 138.983
0.229802, -1, 9.4236, 13.0952, 17.4562, -146.128, -97.7158, 138.983
0.231926, -1, 9.34626, 13.0746, 17.4611, -146.152, -97.7074, 138.843
0.235117, -1, 9.26901, 13.054, 17.466, -146.176, -97.699, 138.703
0.23975, -1, 9.19182, 13.0334, 17.471, -146.2, -97.6905, 138.563
0.249323, -1, 9.03787, 12.9922, 17.4812, -146.248, -97.6738, 138.283
0.255765, -1, 8.88419, 12.951, 17.4913, -146.296, -97.657, 138.004
0.263852, -1, 8.73067, 12.9099, 17.5015, -146.344, -97.6397, 137.724
0.272242, -1, 8.57769, 12.8687, 17.5116, -146.392, -97.6223, 137.444
0.279484, -1, 8.42494, 12.8274, 17.5217, -146.44, -97.6048, 137.163
0.287801, -1, 8.27196, 12.786, 17.5319, -146.488, -97.5874, 136.883
0.296169, -1, 8.11852, 12.7444, 17.5422, -146.536, -97.5703, 136.603
0.302705, -1, 8.04161, 12.7235, 17.5473, -146.56, -97.5619, 136.463
0.311802, -1, 7.80999, 12.661, 17.5626, -146.632, -97.5368, 136.042
0.32151, -1, 7.65513, 12.6192, 17.5727, -146.68, -97.5202, 135.762
0.328032, -1, 7.50018, 12.5775, 17.583, -146.728, -97.5033, 135.482
0.334742, -1, 7.42265, 12.5568, 17.5881, -146.752, -97.4948, 135.341
0.34401, -1, 7.19008, 12.4944, 17.6035, -146.824, -97.4688, 134.921
0.352045, -1, 7.03505, 12.453, 17.6138, -146.872, -97.4514, 134.64
0.358704, -1, 6.95744, 12.4323, 17.619, -146.896, -97.4429, 134.5
0.368175, -1, 6.72485, 12.3704, 17.6346, -146.968, -97.4175, 134.08
0.374707, -1, 6.64745, 12.3497, 17.6398, -146.992, -97.4091, 133.939
0.384633, -1, 6.41568, 12.2878, 17.6555, -147.065, -97.3841, 133.519
0.39225, -1, 6.2614, 12.2465, 17.6659, -147.113, -97.3672, 133.238
0.398742, -1, 6.18426, 12.2257, 17.6711, -147.137, -97.3586, 133.098
0.408374, -1, 6.02992, 12.1842, 17.6814, -147.209, -97.3326, 132.676
0.415659, -1, 5.87535, 12.1428, 17.6918, -147.233, -97.3238, 132.536
0.423718, -1, 5.72056, 12.1011, 17.7022, -147.281, -97.3062, 132.256
0.431667, -1, 5.56558, 12.0595, 17.7124, -147.329, -97.2889, 131.975
0.439741, -1, 5.41051, 12.0179, 17.7228, -147.377, -97.2719, 131.694
0.447758, -1, 5.25513, 11.9762, 17.7331, -147.426, -97.2551, 131.413
0.455667, -1, 5.09949, 11.9345, 17.7435, -147.474, -97.2384, 131.132
0.463672, -1, 4.9437, 11.8929, 17.7541, -147.522, -97.2215, 130.851
0.471712, -1, 4.78793, 11.8513, 17.7646, -147.57, -97.2044, 130.57
0.479666, -1, 4.63214, 11.8098, 17.7751, -147.618, -97.1871, 130.289
0.487661, -1, 4.47648, 11.7684, 17.7856, -147.666, -97.1695, 130.008
0.495704, -1, 4.32093, 11.7269, 17.796, -147.715, -97.1522, 129.727
0.503713, -1, 4.16556, 11.6854, 17.8065, -147.763, -97.1351, 129.446
0.51182, -1, 4.01066, 11.644, 17.817, -147.811, -97.1181, 129.165
0.648696, -1, 1.36458, 10.9354, 17.9945, -148.633, -96.827, 124.376
0.65076, -1, 1.28666, 10.9146, 17.9998, -148.657, -96.8184, 124.235
0.65206, -1, 1.28666, 10.9146, 17.9998, -148.657, -96.8184, 124.235
0.653236, -1, 1.28666, 10.9146, 17.9998, -148.657, -96.8184, 124.235
0.655291, -1, 1.20879, 10.8938, 18.005, -148.681, -96.8101, 124.094
0.656536, -1, 1.20879, 10.8938, 18.005, -148.681, -96.8101, 124.094
0.659218, -1, 1.13101, 10.8729, 18.0102, -148.705, -96.8017, 123.953
0.662414, -1, 1.13101, 10.8729, 18.0154, -148.73, -96.7932, 123.811
0.663857, -1, 1.05334, 10.852, 18.0154, -148.73, -96.7932, 123.811
0.665086, -1, 1.05334, 10.852, 18.0154, -148.73, -96.7932, 123.811
0.667263, -1, 0.97577, 10.8311, 18.0205, -148.754, -96.7847, 123.67
0.6685, -1, 0.97577, 10.8311, 18.0205, -148.754, -96.7847, 123.67
0.670463, -1, 0.97577, 10.8311, 18.0205, -148.754, -96.7761, 123.529
0.671821, -1, 0.898281, 10.8103, 18.0258, -148.778, -96.7761, 123.529
0.673104, -1, 0.898281, 10.8103, 18.0258, -148.778, -96.7761, 123.529
0.676524, -1, 0.820859, 10.7894, 18.031, -148.803, -96.7675, 123.388
0.678509, -1, 0.820859, 10.7894, 18.031, -148.803, -96.7675, 123.247
0.679893, -1, 0.743488, 10.7685, 18.0362, -148.827, -96.7587, 123.247
0.681081, -1, 0.743488, 10.7685, 18.0362, -148.827, -96.7587, 123.247
0.683789, -1, 0.666161, 10.7476, 18.0414, -148.851, -96.7499, 123.106
0.686592, -1, 0.666161, 10.7476, 18.0414, -148.851, -96.7411, 122.964
0.688137, -1, 0.58885, 10.7267, 18.0466, -148.876, -96.7411, 122.964
0.697711, -1, 0.434072, 10.6849, 18.0571, -148.924, -96.7235, 122.681
0.703662, -1, 0.278928, 10.6431, 18.0675, -148.972, -96.7062, 122.399
0.711732, -1, 0.123381, 10.6012, 18.078, -149.021, -96.6892, 122.116
0.719693, -1, -0.0326353, 10.5594, 18.0886, -149.069, -96.6724, 121.833
0.727684, -1, -0.189007, 10.5176, 18.0991, -149.117, -96.6557, 121.55
0.735774, -1, -0.345563, 10.4757, 18.1096, -149.166, -96.6388, 121.268
0.743751, -1, -0.5026, 10.4339, 18.1201, -149.215, -96.6217, 120.985
0.751753, -1, -0.659861, 10.392, 18.1306, -149.263, -96.6043, 120.702
0.759823, -1, -0.817195, 10.3502, 18.141, -149.312, -96.5869, 120.42
0.767752, -1, -0.974603, 10.3084, 18.1515, -149.36, -96.5696, 120.137
0.775848, -1, -1.13187, 10.2665, 18.1619, -149.409, -96.5526, 119.854
0.783666, -1, -1.28898, 10.2247, 18.1723, -149.458, -96.5357, 119.571
0.79166, -1, -1.44585, 10.1829, 18.1826, -149.506, -96.5189, 119.287
0.799752, -1, -1.60241, 10.1411, 18.1931, -149.554, -96.502, 119.004
0.807767, -1, -1.7585, 10.0992, 18.2037, -149.603, -96.485, 118.721
0.815742, -1, -1.91424, 10.0573, 18.2141, -149.652, -96.4676, 118.437
0.823837, -1, -2.06961, 10.0155, 18.2247, -149.7, -96.45, 118.154
0.831927, -1, -2.22473, 9.97359, 18.2351, -149.749, -96.4324, 117.87
0.839917, -1, -2.38, 9.93169, 18.2455, -149.798, -96.4151, 117.587
0.848061, -1, -2.53556, 9.88973, 18.256, -149.846, -96.3981, 117.303
0.854654, -1, -2.61342, 9.86876, 18.2612, -149.871, -96.3896, 117.161
0.864107, -1, -2.84751, 9.80588, 18.2768, -149.943, -96.3644, 116.735
0.87065, -1, -2.92578, 9.7849, 18.282, -149.968, -96.3559, 116.594
0.880265, -1, -3.16118, 9.722, 18.2976, -150.041, -96.3303, 116.168
0.888238, -1, -3.31857, 9.68005, 18.3081, -150.089, -96.3128, 115.884
0.896279, -1, -3.47633, 9.638, 18.3187, -150.138, -96.2952, 115.6
0.904299, -1, -3.55524, 9.61703, 18.3239, -150.187, -96.2777, 115.316
0.912184, -1, -3.71307, 9.57517, 18.3344, -150.211, -96.2691, 115.174
0.919697, -1, -3.8711, 9.53321, 18.3448, -150.26, -96.2519, 114.889
0.927648, -1, -4.02904, 9.4912, 18.3552, -150.309, -96.2349, 114.605
0.935643, -1, -4.18693, 9.44931, 18.3656, -150.358, -96.218, 114.321
0.943786, -1, -4.34468, 9.40734, 18.3759, -150.406, -96.2009, 114.036
0.951654, -1, -4.50213, 9.36537, 18.3863, -150.455, -96.1836, 113.752
0.959645, -1, -4.65915, 9.32337, 18.3967, -150.504, -96.1659, 113.467
0.967688, -1, -4.81575, 9.28133, 18.4072, -150.553, -96.1482, 113.182
0.975643, -1, -4.97204, 9.23923, 18.4177, -150.602, -96.1306, 112.898
0.98364, -1, -5.12805, 9.19721, 18.4282, -150.65, -96.1134, 112.613
0.991703, -1, -5.28386, 9.15515, 18.4388, -150.699, -96.0964, 112.328
0.999645, -1, -5.43984, 9.113, 18.4494, -150.748, -96.0795, 112.043
1.00765, -1, -5.59601, 9.07089, 18.4598, -150.797, -96.0625, 111.759
1.01582, -1, -5.75246, 9.02881, 18.4702, -150.845, -96.0454, 111.474
1.02365, -1, -5.90937, 8.9866, 18.4807, -150.895, -96.0279, 111.189
1.03318, -1, -6.06681, 8.94444, 18.4911, -150.943, -96.0014, 110.761
1.03964, -1, -6.22476, 8.90231, 18.5015, -150.992, -95.9927, 110.619
1.04872, -1, -6.38302, 8.8602, 18.5119, -151.041, -95.9754, 110.333
1.05573, -1, -6.54149, 8.81812, 18.5222, -151.09, -95.9584, 110.048
1.0636, -1, -6.70007, 8.77596, 18.5328, -151.139, -95.9414, 109.763
1.07165, -1, -6.85877, 8.73381, 18.5433, -151.188, -95.9244, 109.477
1.07973, -1, -7.01735, 8.6917, 18.5539, -151.237, -95.9072, 109.192
1.08766, -1, -7.17586, 8.64954, 18.5643, -151.286, -95.8897, 108.906
1.09572, -1, -7.33421, 8.60735, 18.5747, -151.335, -95.872, 108.62
1.10364, -1, -7.49225, 8.56503, 18.5852, -151.384, -95.8543, 108.335
1.11173, -1, -7.64989, 8.52274, 18.5958, -151.433, -95.8367, 108.049
1.11972, -1, -7.80718, 8.48044, 18.6062, -151.483, -95.8195, 107.763
1.12765, -1, -7.96412, 8.43815, 18.6166, -151.531, -95.8025, 107.477
1.13565, -1, -8.12079, 8.39578, 18.627, -151.58, -95.7855, 107.192
1.14413, -1, -8.27731, 8.35346, 18.6375, -151.63, -95.7685, 106.906
1.15075, -1, -8.43396, 8.31109, 18.6481, -151.678, -95.7513, 106.62
1.15965, -1, -8.59096, 8.26868, 18.6587, -151.727, -95.7338, 106.333
1.16846, -1, -8.74833, 8.22641, 18.6692, -151.777, -95.7161, 106.047
1.17564, -1, -8.90599, 8.18408, 18.6796, -151.825, -95.6985, 105.761
1.18365, -1, -9.06412, 8.14172, 18.69, -151.875, -95.6812, 105.475
1.19245, -1, -9.22268, 8.09945, 18.7005, -151.924, -95.664, 105.188
1.19964, -1, -9.38159, 8.05711, 18.711, -151.973, -95.6469, 104.901
1.2077, -1, -9.5407, 8.01473, 18.7215, -152.022, -95.6298, 104.615
1.21653, -1, -9.69988, 7.97247, 18.732, -152.072, -95.6125, 104.328
1.22366, -1, -9.85912, 7.93021, 18.7425, -152.121, -95.595, 104.041
1.23184, -1, -10.0185, 7.88782, 18.7532, -152.17, -95.5771, 103.754
1.24048, -1, -10.1777, 7.84538, 18.7638, -152.22, -95.5593, 103.467
1.24774, -1, -10.3368, 7.80289, 18.7744, -152.269, -95.5417, 103.18
1.25603, -1, -10.4957, 7.76036, 18.785, -152.318, -95.5244, 102.893
1.26455, -1, -10.6542, 7.7179, 18.7954, -152.367, -95.5074, 102.606
1.27184, -1, -10.8122, 7.67538, 18.806, -152.416, -95.4904, 102.319
1.28033, -1, -10.9702, 7.63279, 18.8165, -152.466, -95.4732, 102.032
1.28856, -1, -11.1278, 7.59028, 18.827, -152.515, -95.4559, 101.745
1.29565, -1, -11.2852, 7.54782, 18.8375, -152.564, -95.4382, 101.457
1.30442, -1, -11.4426, 7.50533, 18.848, -152.614, -95.4204, 101.17
1.31261, -1, -11.6002, 7.46282, 18.8585, -152.663, -95.4027, 100.882
1.31977, -1, -11.7581, 7.42038, 18.8692, -152.712, -95.3853, 100.595
1.32877, -1, -11.9164, 7.37795, 18.8798, -152.762, -95.3681, 100.307
1.33666, -1, -12.0751, 7.33553, 18.8904, -152.811, -95.3509, 100.019
1.34423, -1, -12.2343, 7.29312, 18.9009, -152.86, -95.3337, 99.7313
1.35063, -1, -12.314, 7.27191, 18.9061, -152.885, -95.325, 99.5873
1.36003, -1, -12.5538, 7.20825, 18.922, -152.959, -95.2984, 99.1552
1.36817, -1, -12.7137, 7.16581, 18.9326, -153.008, -95.2804, 98.8674
1.37615, -1, -12.8739, 7.1233, 18.9431, -153.058, -95.2626, 98.5794
1.38502, -1, -13.034, 7.08072, 18.9537, -153.108, -95.245, 98.2912
1.39241, -1, -13.1939, 7.03814, 18.9643, -153.157, -95.2277, 98.0031
1.40021, -1, -13.2738, 6.99553, 18.9749, -153.207, -95.2105, 97.7149
1.40897, -1, -13.4335, 6.97419, 18.9802, -153.231, -95.1934, 97.4264
1.41629, -1, -13.5928, 6.9314, 18.9908, -153.28, -95.1761, 97.1377
1.42364, -1, -13.7519, 6.88871, 19.0014, -153.33, -95.1674, 96.9933
1.43163, -1, -13.9107, 6.84603, 19.0119, -153.38, -95.1497, 96.7049
1.43968, -1, -14.069, 6.80331, 19.0224, -153.429, -95.1318, 96.4163
1.4477, -1, -14.2272, 6.7607, 19.033, -153.478, -95.1141, 96.1275
1.45563, -1, -14.3854, 6.71803, 19.0435, -153.528, -95.0966, 95.8384
1.46369, -1, -14.5438, 6.67529, 19.0541, -153.577, -95.0794, 95.5494
1.47163, -1, -14.7024, 6.63273, 19.0647, -153.627, -95.0622, 95.2603
1.47963, -1, -14.8615, 6.59018, 19.0752, -153.676, -95.045, 94.9708
1.48767, -1, -15.0209, 6.54748, 19.086, -153.726, -95.0276, 94.6817
1.49563, -1, -15.1806, 6.50486, 19.0967, -153.776, -95.0099, 94.3927
1.50364, -1, -15.3407, 6.46227, 19.1074, -153.825, -94.9918, 94.1035
1.51163, -1, -15.5012, 6.41952, 19.1181, -153.875, -94.9739, 93.8141
1.51963, -1, -15.6618, 6.37685, 19.1287, -153.925, -94.9562, 93.5249
1.52662, -1, -15.8225, 6.33409, 19.1393, -153.974, -94.9389, 93.2356
1.53563, -1, -15.9834, 6.2912, 19.15, -154.024, -94.9217, 92.946
1.54364, -1, -16.1442, 6.24834, 19.1606, -154.074, -94.9045, 92.6561
1.55169, -1, -16.3049, 6.20541, 19.1711, -154.123, -94.8872, 92.3667
1.56067, -1, -16.4654, 6.16236, 19.1816, -154.173, -94.8698, 92.0771
1.56763, -1, -16.6257, 6.11938, 19.1922, -154.223, -94.852, 91.787
1.57569, -1, -16.7856, 6.07641, 19.2028, -154.272, -94.834, 91.4968
1.58364, -1, -16.9451, 6.03339, 19.2135, -154.322, -94.8163, 91.2068
1.59162, -1, -17.1043, 5.99041, 19.2242, -154.372, -94.7988, 90.9167
1.59969, -1, -17.2634, 5.94746, 19.2348, -154.421, -94.7815, 90.6262
1.60763, -1, -17.4225, 5.90461, 19.2454, -154.471, -94.7642, 90.3357
1.6157, -1, -17.5818, 5.8618, 19.2561, -154.521, -94.7468, 90.0456
1.6237, -1, -17.7412, 5.81898, 19.2668, -154.571, -94.7292, 89.7553
1.63163, -1, -17.9008, 5.77619, 19.2775, -154.621, -94.7113, 89.4649
1.63969, -1, -18.0609, 5.73338, 19.2881, -154.671, -94.6932, 89.1744
1.64762, -1, -18.2214, 5.69061, 19.2987, -154.72, -94.6753, 88.884
1.65563, -1, -18.3822, 5.64782, 19.3095, -154.771, -94.6576, 88.5933
1.66374, -1, -18.5436, 5.60484, 19.3202, -154.821, -94.6402, 88.3021
1.67163, -1, -18.7052, 5.56187, 19.3308, -154.87, -94.623, 88.0113
1.67961, -1, -18.8668, 5.5189, 19.3415, -154.921, -94.6057, 87.7204
1.68769, -1, -19.0286, 5.47584, 19.3521, -154.97, -94.5881, 87.4293
1.69562, -1, -19.1901, 5.43266, 19.3627, -155.02, -94.5702, 87.1378
1.70364, -1, -19.3516, 5.38954, 19.3734, -155.07, -94.5522, 86.8464
1.71169, -1, -19.5129, 5.34639, 19.384, -155.12, -94.5341, 86.5549
1.71963, -1, -19.6737, 5.30316, 19.3946, -155.17, -94.5163, 86.2633
1.72772, -1, -19.8344, 5.26002, 19.4052, -155.22, -94.4988, 85.9715
1.73566, -1, -19.9949, 5.21686, 19.416, -155.27, -94.4814, 85.68
1.74371, -1, -20.1549, 5.1737, 19.4268, -155.32, -94.464, 85.3885
1.75198, -1, -20.3147, 5.13074, 19.4376, -155.37, -94.4465, 85.0966
1.75972, -1, -20.4747, 5.08772, 19.4485, -155.42, -94.4286, 84.8048
1.76773, -1, -20.6347, 5.04462, 19.4592, -155.47, -94.4105, 84.5132
1.77623, -1, -20.795, 5.00169, 19.4699, -155.521, -94.3924, 84.2213
1.78381, -1, -20.9557, 4.95871, 19.4807, -155.57, -94.3747, 83.9289
1.79163, -1, -21.1167, 4.91562, 19.4913, -155.621, -94.3573, 83.6368
1.80041, -1, -21.2782, 4.87253, 19.502, -155.671, -94.34, 83.3449
1.80766, -1, -21.4402, 4.8293, 19.5126, -155.721, -94.3228, 83.0528
1.81568, -1, -21.6023, 4.78603, 19.5233, -155.772, -94.3054, 82.7601
1.82466, -1, -21.7646, 4.74282, 19.5342, -155.822, -94.2877, 82.4676
1.83178, -1, -21.9271, 4.69944, 19.5449, -155.871, -94.2698, 82.175
1.83985, -1, -22.0895, 4.65605, 19.5557, -155.922, -94.2517, 81.8822
1.8488, -1, -22.2521, 4.61272, 19.5664, -155.972, -94.2339, 81.5894
1.85602, -1, -22.4144, 4.56927, 19.5771, -156.022, -94.2164, 81.2967
1.86261, -1, -22.4955, 4.54756, 19.5825, -156.047, -94.2076, 81.1504
1.87298, -1, -22.7382, 4.48243, 19.5985, -156.123, -94.1814, 80.7112
1.88012, -1, -22.8996, 4.439, 19.6093, -156.173, -94.1638, 80.4182
1.8882, -1, -23.0607, 4.39568, 19.62, -156.223, -94.1459, 80.1253
1.8971, -1, -23.2217, 4.35238, 19.6307, -156.274, -94.1278, 79.8323
1.90268, -1, -23.3022, 4.33069, 19.6361, -156.299, -94.1186, 79.6857
1.91226, -1, -23.463, 4.28742, 19.6525, -156.375, -94.0914, 79.2454
1.92105, -1, -23.624, 4.24413, 19.6578, -156.4, -94.0825, 79.0988
1.92677, -1, -23.7851, 4.20081, 19.6686, -156.45, -94.0649, 78.8053
1.93664, -1, -24.0272, 4.13581, 19.6847, -156.526, -94.0387, 78.3646
1.94365, -1, -24.1081, 4.11412, 19.69, -156.551, -94.03, 78.2176
1.95066, -1, -24.2702, 4.07073, 19.7008, -156.601, -94.0124, 77.9236
1.95966, -1, -24.4329, 4.02728, 19.7115, -156.652, -93.9946, 77.6296
1.96762, -1, -24.5958, 3.98377, 19.7222, -156.702, -93.9764, 77.3353
1.97462, -1, -24.759, 3.94017, 19.7329, -156.752, -93.9583, 77.0409
1.98361, -1, -24.9224, 3.89659, 19.7437, -156.803, -93.9404, 76.7471
1.99162, -1, -25.0859, 3.85301, 19.7546, -156.853, -93.9228, 76.4528
1.99968, -1, -25.2491, 3.80946, 19.7655, -156.903, -93.9053, 76.1584
2.00761, -1, -25.4122, 3.76582, 19.7764, -156.954, -93.8878, 75.864
2.01563, -1, -25.5751, 3.72214, 19.7871, -157.004, -93.8702, 75.5698
2.0226, -1, -25.7378, 3.67857, 19.7978, -157.055, -93.8522, 75.2752
2.03161, -1, -25.9002, 3.63507, 19.8087, -157.105, -93.8339, 74.9804
2.03963, -1, -26.0624, 3.5915, 19.8195, -157.156, -93.8155, 74.6859
2.04861, -1, -26.2242, 3.54805, 19.8302, -157.206, -93.7975, 74.3913
2.05561, -1, -26.3857, 3.50468, 19.841, -157.257, -93.7796, 74.0965
2.06365, -1, -26.5474, 3.46118, 19.8518, -157.307, -93.7619, 73.8014
2.07168, -1, -26.7093, 3.41768, 19.8626, -157.358, -93.7443, 73.5062
2.07962, -1, -26.8716, 3.3742, 19.8735, -157.409, -93.7266, 73.2111
2.08891, -1, -27.0342, 3.3306, 19.8844, -157.459, -93.7087, 72.9157
2.09562, -1, -27.197, 3.28701, 19.8952, -157.51, -93.6904, 72.6201
2.10368, -1, -27.3602, 3.24343, 19.906, -157.561, -93.6721, 72.325
2.11161, -1, -27.524, 3.19963, 19.9168, -157.611, -93.6541, 72.0297
2.11973, -1, -27.6879, 3.15593, 19.9276, -157.662, -93.6362, 71.7342
2.12773, -1, -27.8519, 3.11231, 19.9383, -157.712, -93.6184, 71.4386
2.13562, -1, -28.0162, 3.06855, 19.9492, -157.763, -93.6007, 71.1431
2.14361, -1, -28.1804, 3.02481, 19.96, -157.814, -93.5829, 70.8472
2.15167, -1, -28.3446, 2.98109, 19.9708, -157.865, -93.5649, 70.551
2.15961, -1, -28.5087, 2.93732, 19.9818, -157.915, -93.5465, 70.255
2.16761, -1, -28.6724, 2.89364, 19.9926, -157.966, -93.5281, 69.959
2.17569, -1, -28.8359, 2.84992, 20.0034, -158.017, -93.5098, 69.6627
2.18362, -1, -28.999, 2.80621, 20.0142, -158.068, -93.4919, 69.3661
2.19161, -1, -29.1617, 2.76254, 20.0249, -158.119, -93.4741, 69.0696
2.19968, -1, -29.3244, 2.71885, 20.0358, -158.17, -93.4565, 68.773
2.2076, -1, -29.4871, 2.67516, 20.0466, -158.221, -93.4389, 68.4761
2.21561, -1, -29.6498, 2.63138, 20.0575, -158.272, -93.4208, 68.179
2.22368, -1, -29.8129, 2.58753, 20.0683, -158.323, -93.4025, 67.8825
2.23163, -1, -29.976, 2.54377, 20.0792, -158.374, -93.3841, 67.5859
2.23965, -1, -30.1393, 2.49985, 20.0902, -158.425, -93.3658, 67.2888
2.24776, -1, -30.3032, 2.45583, 20.1012, -158.475, -93.3479, 66.9917
2.2557, -1, -30.4674, 2.4119, 20.1121, -158.527, -93.33, 66.6948
2.26371, -1, -30.6322, 2.36786, 20.1229, -158.577, -93.3123, 66.3977
2.27179, -1, -30.7973, 2.32387, 20.1337, -158.628, -93.2944, 66.1002
2.27971, -1, -30.9624, 2.2799, 20.1446, -158.68, -93.2764, 65.8029
2.2878, -1, -31.1274, 2.23578, 20.1555, -158.73, -93.258, 65.5057
2.29581, -1, -31.2925, 2.19181, 20.1664, -158.781, -93.2395, 65.2083
2.30364, -1, -31.4574, 2.14793, 20.1772, -158.833, -93.2211, 64.9105
2.31185, -1, -31.622, 2.10384, 20.188, -158.883, -93.2031, 64.6127
2.31973, -1, -31.7866, 2.05983, 20.1989, -158.935, -93.1853, 64.3148
2.32771, -1, -31.9508, 2.01586, 20.2099, -158.986, -93.1678, 64.0168
2.33581, -1, -32.1148, 1.97181, 20.2209, -159.037, -93.1502, 63.7186
2.34391, -1, -32.2784, 1.92777, 20.2318, -159.088, -93.1323, 63.4209
2.35192, -1, -32.4419, 1.88372, 20.2427, -159.14, -93.1141, 63.1228
2.36035, -1, -32.6056, 1.83952, 20.2537, -159.191, -93.0957, 62.8244
2.36885, -1, -32.7695, 1.79542, 20.2646, -159.242, -93.0774, 62.5261
2.37613, -1, -32.9334, 1.75128, 20.2755, -159.293, -93.0595, 62.2278
2.38422, -1, -33.0977, 1.70702, 20.2864, -159.344, -93.0415, 61.9293
2.39306, -1, -33.2624, 1.6628, 20.2973, -159.396, -93.0238, 61.6304
2.40019, -1, -33.4274, 1.61857, 20.3083, -159.447, -93.0059, 61.3318
2.40835, -1, -33.593, 1.57429, 20.3193, -159.498, -92.9877, 61.0332
2.41707, -1, -33.6758, 1.55215, 20.3248, -159.524, -92.9786, 60.7343
2.42265, -1, -33.8415, 1.50793, 20.3357, -159.575, -92.96, 60.5847
2.43263, -1, -34.0905, 1.44159, 20.3521, -159.652, -92.9321, 60.1361
2.4396, -1, -34.1734, 1.41949, 20.3576, -159.678, -92.923, 59.9865
2.4476, -1, -34.3395, 1.3753, 20.3686, -159.729, -92.9049, 59.687
2.45572, -1, -34.5055, 1.33107, 20.3795, -159.781, -92.887, 59.3872
2.46362, -1, -34.6712, 1.28688, 20.3905, -159.832, -92.8692, 59.0879
2.47161, -1, -34.8365, 1.24265, 20.4014, -159.883, -92.8513, 58.7886
2.47964, -1, -35.0015, 1.19841, 20.4124, -159.935, -92.8332, 58.489
2.4876, -1, -35.1662, 1.1541, 20.4235, -159.986, -92.8146, 58.1893
2.49561, -1, -35.3308, 1.1098, 20.4346, -160.037, -92.7961, 57.8896
2.50373, -1, -35.4947, 1.06564, 20.4458, -160.089, -92.7777, 57.5899
2.5116, -1, -35.657, 1.0218, 20.4571, -160.14, -92.7597, 57.29
2.5196, -1, -35.8165, 0.978583, 20.4686, -160.191, -92.7418, 56.9914
2.52766, -1, -35.972, 0.936493, 20.4805, -160.242, -92.7241, 56.6963
2.5356, -1, -36.1224, 0.896001, 20.4925, -160.291, -92.7065, 56.4071
2.5436, -1, -36.2652, 0.857744, 20.5044, -160.338, -92.6894, 56.1282
2.55262, -1, -36.3983, 0.82243, 20.516, -160.384, -92.673, 55.8658
2.5596, -1, -36.5201, 0.790144, 20.5266, -160.424, -92.6577, 55.6259
2.56861, -1, -36.6292, 0.761317, 20.5359, -160.46, -92.6445, 55.4144
2.57567, -1, -36.7239, 0.736232, 20.5432, -160.49, -92.6335, 55.2361
2.5836, -1, -36.8039, 0.715003, 20.5483, -160.514, -92.6247, 55.0931
2.59161, -1, -36.8701, 0.697571, 20.5512, -160.533, -92.6183, 54.9847
2.59966, -1, -36.9233, 0.683581, 20.5525, -160.546, -92.6139, 54.9081
2.60759, -1, -36.9636, 0.672749, 20.5529, -160.555, -92.611, 54.8564
2.61557, -1, -36.9932, 0.665022, 20.5527, -160.561, -92.6093, 54.825
2.62385, -1, -37.0135, 0.660014, 20.5522, -160.564, -92.6084, 54.8072
2.63162, -1, -37.0259, 0.657034, 20.5519, -160.566, -92.6079, 54.7982
2.63957, 2, -37.0325, 0.655413, 20.5518, -160.567, -92.6077, 54.7939
2.64766, 2, -37.0347, 0.654705, 20.5517, -160.567, -92.6076, 54.792
2.65561, 2, -37.0345, 0.654394, 20.5516, -160.568, -92.6076, 54.7911
2.66359, 2, -37.0338, 0.654268, 20.5516, -160.568, -92.6076, 54.7907
2.67166, 2, -37.0336, 0.654219, 20.5516, -160.568, -92.6076, 54.7905
2.67959, 2, -37.034, 0.654169, 20.5516, -160.568, -92.6075, 54.7904
2.68759, 2, -37.035, 0.65413, 20.5515, -160.568, -92.6076, 54.7904
2.69567, 2, -37.0361, 0.65402, 20.5514, -160.568, -92.6076, 54.7904
2.7036, 2, -37.0376, 0.653817, 20.5512, -160.568, -92.6077, 54.7904
2.7116, 2, -37.039, 0.653565, 20.551, -160.568, -92.6077, 54.7905
2.71966, 2, -37.0402, 0.653319, 20.5508, -160.568, -92.6077, 54.7905
2.7276, 2, -37.0411, 0.653095, 20.5506, -160.568, -92.6078, 54.7906
2.73561, 2, -37.0416, 0.65297, 20.5504, -160.568, -92.6077, 54.7907
2.74369, 2, -37.0416, 0.652918, 20.5503, -160.568, -92.6078, 54.7909
2.75169, 2, -37.0411, 0.652917, 20.5502, -160.568, -92.6078, 54.791
2.75979, 2, -37.0403, 0.652973, 20.5501, -160.568, -92.6079, 54.7911
2.76776, 2, -37.0393, 0.653029, 20.55, -160.568, -92.6079, 54.7914
2.77571, 2, -37.0378, 0.653073, 20.55, -160.568, -92.608, 54.7915
2.7837, 2, -37.0363, 0.653136, 20.5499, -160.568, -92.608, 54.7917
2.79185, 2, -37.0352, 0.653165, 20.5498, -160.568, -92.6081, 54.7918
2.79962, 2, -37.0346, 0.653179, 20.5497, -160.568, -92.608, 54.7919
2.80762, 2, -37.0344, 0.653155, 20.5497, -160.567, -92.6081, 54.7919
2.8157, 2, -37.0346, 0.653107, 20.5497, -160.567, -92.6081, 54.792
2.82371, 2, -37.0348, 0.653023, 20.5496, -160.568, -92.608, 54.792
2.83172, 2, -37.0351, 0.652984, 20.5496, -160.568, -92.6081, 54.7921
2.83986, 2, -37.0357, 0.652943, 20.5496, -160.567, -92.6081, 54.7921
2.84805, 2, -37.0364, 0.652929, 20.5496, -160.567, -92.6081, 54.7921
2.85592, 2, -37.0371, 0.652937, 20.5496, -160.567, -92.6081, 54.7921
2.86407, 2, -37.0377, 0.652944, 20.5496, -160.567, -92.6081, 54.7922
2.87059, 2, -37.038, 0.65295, 20.5496, -160.567, -92.6081, 54.7922
2.8801, 2, -37.0383, 0.652998, 20.5495, -160.567, -92.6081, 54.7923
2.88835, 2, -37.0383, 0.653041, 20.5495, -160.567, -92.6081, 54.7924
2.89663, 2, -37.0383, 0.65306, 20.5495, -160.567, -92.6082, 54.7924
2.90418, 2, -37.0378, 0.653069, 20.5495, -160.567, -92.6082, 54.7924
2.91224, 2, -37.0375, 0.653044, 20.5495, -160.567, -92.6081, 54.7925
2.92048, 2, -37.0372, 0.653043, 20.5495, -160.567, -92.6081, 54.7925
2.92759, 2, -37.0371, 0.653032, 20.5495, -160.567, -92.6082, 54.7925
2.93624, 2, -37.037, 0.652989, 20.5495, -160.567, -92.6082, 54.7924
2.94454, 2, -37.0369, 0.652957, 20.5495, -160.567, -92.6082, 54.7926
2.95159, 2, -37.0369, 0.652953, 20.5495, -160.567, -92.6082, 54.7926
2.95971, 2, -37.037, 0.652948, 20.5495, -160.567, -92.6082, 54.7927
2.9676, 2, -37.037, 0.652961, 20.5494, -160.567, -92.6082, 54.7928
2.97559, 2, -37.0371, 0.65297, 20.5495, -160.567, -92.6082, 54.7929
2.98363, 2, -37.0372, 0.653009, 20.5495, -160.567, -92.6081, 54.7929
2.99159, 2, -37.0374, 0.653009, 20.5494, -160.567, -92.6081, 54.7929
2.99958, 2, -37.0375, 0.653009, 20.5494, -160.567, -92.6082, 54.793
3.00768, 2, -37.0376, 0.65302, 20.5494, -160.567, -92.6082, 54.7931
3.0156, 2, -37.0376, 0.653021, 20.5494, -160.567, -92.6082, 54.7931
3.02359, 2, -37.0376, 0.653015, 20.5494, -160.567, -92.6082, 54.7931
3.03165, 2, -37.0376, 0.653012, 20.5494, -160.567, -92.6082, 54.7932
3.03958, 2, -37.0375, 0.653003, 20.5494, -160.567, -92.6083, 54.7932
3.04761, 2, -37.0375, 0.652989, 20.5494, -160.567, -92.6083, 54.7932
3.05566, 2, -37.0376, 0.65298, 20.5494, -160.567, -92.6083, 54.7933
3.06555, 2, -37.0376, 0.652984, 20.5493, -160.567, -92.6083, 54.7934
3.07159, 2, -37.0376, 0.652974, 20.5493, -160.567, -92.6083, 54.7934
3.07976, 2, -37.0376, 0.652968, 20.5493, -160.567, -92.6083, 54.7934
3.08758, 2, -37.0376, 0.65299, 20.5493, -160.567, -92.6083, 54.7934
3.09559, 2, -37.0375, 0.653019, 20.5493, -160.567, -92.6083, 54.7935
3.10365, 2, -37.0375, 0.653043, 20.5493, -160.567, -92.6083, 54.7936
3.11158, 2, -37.0375, 0.65305, 20.5493, -160.567, -92.6083, 54.7936
3.11958, 2, -37.0375, 0.653046, 20.5493, -160.567, -92.6083, 54.7936
3.12772, 2, -37.0375, 0.653044, 20.5493, -160.567, -92.6084, 54.7937
3.13561, 2, -37.0375, 0.653025, 20.5493, -160.567, -92.6084, 54.7938
3.14358, 2, -37.0375, 0.653016, 20.5493, -160.567, -92.6084, 54.7938
3.15165, 2, -37.0375, 0.653, 20.5493, -160.567, -92.6084, 54.7938
3.15958, 2, -37.0375, 0.652993, 20.5492, -160.567, -92.6084, 54.7939
3.16758, 2, -37.0375, 0.653001, 20.5492, -160.567, -92.6084, 54.7939
3.17565, 2, -37.0375, 0.653005, 20.5492, -160.567, -92.6084, 54.794
3.18358, 2, -37.0374, 0.653018, 20.5492, -160.567, -92.6084, 54.794
3.19159, 2, -37.0374, 0.653039, 20.5492, -160.567, -92.6085, 54.794
3.19965, 2, -37.0374, 0.653041, 20.5492, -160.567, -92.6084, 54.7941
3.20758, 2, -37.0374, 0.653024, 20.5492, -160.567, -92.6084, 54.7941
3.21559, 2, -37.0374, 0.653027, 20.5492, -160.567, -92.6084, 54.7942
3.22365, 2, -37.0374, 0.653043, 20.5492, -160.567, -92.6084, 54.7942
3.23159, 2, -37.0374, 0.653043, 20.5492, -160.567, -92.6085, 54.7943
3.2396, 2, -37.0374, 0.653025, 20.5492, -160.567, -92.6085, 54.7943
3.24769, 2, -37.0374, 0.653016, 20.5492, -160.567, -92.6084, 54.7943
3.25568, 2, -37.0373, 0.653023, 20.5491, -160.567, -92.6084, 54.7943
3.26377, 2, -37.0373, 0.653023, 20.5491, -160.567, -92.6084, 54.7944
3.27175, 2, -37.0373, 0.653015, 20.5491, -160.567, -92.6084, 54.7944
3.27968, 2, -37.0373, 0.653, 20.5491, -160.567, -92.6085, 54.7944
3.28769, 2, -37.0373, 0.653023, 20.5491, -160.567, -92.6085, 54.7944
3.29584, 2, -37.0373, 0.653014, 20.5491, -160.567, -92.6085, 54.7944
3.30361, 2, -37.0372, 0.65303, 20.5491, -160.567, -92.6085, 54.7945
3.31162, 2, -37.0372, 0.653026, 20.5491, -160.567, -92.6085, 54.7945
3.31968, 2, -37.0372, 0.653017, 20.5491, -160.567, -92.6085, 54.7945
3.32792, 2, -37.0372, 0.653042, 20.5491, -160.567, -92.6085, 54.7945
3.33576, 2, -37.0372, 0.65305, 20.5491, -160.567, -92.6085, 54.7946
3.34383, 2, -37.0372, 0.653028, 20.5491, -160.567, -92.6085, 54.7947
3.35183, 2, -37.0372, 0.653028, 20.549, -160.567, -92.6085, 54.7947
3.35997, 2, -37.0371, 0.653036, 20.549, -160.567, -92.6085, 54.7947
3.36804, 2, -37.0371, 0.65304, 20.549, -160.567, -92.6085, 54.7947
3.37456, 2, -37.0371, 0.653041, 20.549, -160.567, -92.6084, 54.7948
3.38418, 2, -37.0371, 0.653019, 20.549, -160.567, -92.6085, 54.7948
3.39229, 2, -37.0371, 0.653032, 20.5489, -160.567, -92.6085, 54.7948
3.40011, 2, -37.0371, 0.653019, 20.5489, -160.567, -92.6085, 54.7948
3.40821, 2, -37.0371, 0.653025, 20.5489, -160.567, -92.6085, 54.7948
3.41619, 2, -37.0371, 0.653053, 20.5489, -160.567, -92.6085, 54.7948
3.42434, 2, -37.0371, 0.65305, 20.5489, -160.567, -92.6085, 54.7948
3.43158, 2, -37.037, 0.653057, 20.5489, -160.567, -92.6085, 54.7948
3.43962, 2, -37.037, 0.653068, 20.5489, -160.567, -92.6085, 54.7948
3.44757, 2, -37.037, 0.653073, 20.5489, -160.567, -92.6086, 54.7948
3.45561, 2, -37.037, 0.653075, 20.5489, -160.567, -92.6085, 54.7948
3.46369, 2, -37.037, 0.653058, 20.5489, -160.566, -92.6086, 54.7949
3.47159, 2, -37.037, 0.653057, 20.5489, -160.566, -92.6085, 54.7949
3.47957, 2, -37.037, 0.65306, 20.5489, -160.566, -92.6085, 54.7949
3.48762, 2, -37.037, 0.653051, 20.5489, -160.566, -92.6085, 54.7949
3.49558, 2, -37.0369, 0.653065, 20.5489, -160.566, -92.6085, 54.7949
3.50358, 2, -37.0369, 0.65306, 20.5488, -160.566, -92.6086, 54.7949
3.51162, 2, -37.0369, 0.653051, 20.5488, -160.566, -92.6086, 54.7949
3.51967, 2, -37.0369, 0.653047, 20.5488, -160.566, -92.6087, 54.7949
3.52757, 2, -37.0369, 0.653055, 20.5488, -160.566, -92.6086, 54.795
3.53563, 2, -37.0369, 0.653049, 20.5488, -160.566, -92.6086, 54.795
3.54357, 2, -37.0369, 0.653064, 20.5488, -160.566, -92.6085, 54.795
3.55256, 2, -37.0369, 0.653071, 20.5488, -160.566, -92.6086, 54.795
3.55963, 2, -37.0369, 0.653063, 20.5488, -160.566, -92.6086, 54.795
3.56868, 2, -37.0369, 0.653034, 20.5488, -160.566, -92.6086, 54.7951
3.57558, 2, -37.0369, 0.65305, 20.5488, -160.566, -92.6086, 54.7951
3.58364, 2, -37.0369, 0.653064, 20.5488, -160.566, -92.6086, 54.7951
3.59157, 2, -37.0368, 0.653071, 20.5487, -160.566, -92.6087, 54.7951
3.59957, 2, -37.0368, 0.653063, 20.5487, -160.566, -92.6087, 54.7951
3.60763, 2, -37.0368, 0.653063, 20.5487, -160.566, -92.6086, 54.7951
3.61557, 2, -37.0368, 0.653071, 20.5487, -160.566, -92.6087, 54.7951
3.62357, 2, -37.0368, 0.653074, 20.5487, -160.566, -92.6086, 54.7951
3.63171, 2, -37.0367, 0.653076, 20.5487, -160.566, -92.6086, 54.7951
3.63973, 2, -37.0367, 0.653076, 20.5487, -160.566, -92.6087, 54.7951
3.64857, 2, -37.0367, 0.653077, 20.5487, -160.566, -92.6087, 54.7951
3.6556, 2, -37.0367, 0.653077, 20.5487, -160.566, -92.6086, 54.7952
3.66356, 2, -37.0367, 0.653077, 20.5487, -160.566, -92.6087, 54.7951
3.67157, 2, -37.0367, 0.653077, 20.5487, -160.566, -92.6086, 54.7951
3.6796, 2, -37.0367, 0.653077, 20.5487, -160.566, -92.6086, 54.7951
3.68755, 2, -37.0367, 0.653077, 20.5487, -160.566, -92.6086, 54.7951
3.69558, 2, -37.0367, 0.653077, 20.5486, -160.566, -92.6087, 54.7951
3.7036, 4, -37.0366, 0.653077, 20.5486, -160.566, -92.6087, 54.7951
3.71157, 4, -37.0366, 0.653058, 20.5486, -160.566, -92.6087, 54.7952
3.71957, 4, -37.0366, 0.653068, 20.5486, -160.566, -92.6087, 54.7952
3.72764, 4, -37.0366, 0.653073, 20.5486, -160.566, -92.6087, 54.7951
3.73558, 4, -37.0366, 0.653075, 20.5486, -160.566, -92.6086, 54.7952
3.74365, 4, -37.0366, 0.653076, 20.5486, -160.566, -92.6087, 54.7952
3.75169, 4, -37.0366, 0.653076, 20.5486, -160.566, -92.6087, 54.7952
3.75966, 4, -37.0366, 0.653077, 20.5486, -160.566, -92.6086, 54.7952
3.76766, 4, -37.0365, 0.653077, 20.5486, -160.566, -92.6087, 54.7952
3.77573, 4, -37.0365, 0.653077, 20.5486, -160.566, -92.6086, 54.7952
3.78367, 4, -37.0365, 0.653077, 20.5485, -160.566, -92.6087, 54.7952
3.79167, 4, -37.0365, 0.653077, 20.5485, -160.566, -92.6087, 54.7952
3.79981, 4, -37.0365, 0.653077, 20.5485, -160.566, -92.6087, 54.7952
3.808, 4, -37.0365, 0.653077, 20.5485, -160.566, -92.6087, 54.7952
3.83772, 4, -37.0364, 0.653077, 20.5485, -160.566, -92.6086, 54.7951
3.84027, 4, -37.0364, 0.653077, 20.5485, -160.566, -92.6086, 54.7952
3.84164, 4, -37.0364, 0.653077, 20.5485, -160.566, -92.6086, 54.7952
3.84284, 4, -37.0364, 0.653077, 20.5485, -160.566, -92.6086, 54.7952
3.84788, 4, -37.0363, 0.653077, 20.5485, -160.566, -92.6087, 54.7952
3.85587, 4, -37.0356, 0.652921, 20.5485, -160.566, -92.6087, 54.7953
3.8639, 4, -37.033, 0.651984, 20.5487, -160.566, -92.6086, 54.7953
3.87209, 4, -37.0273, 0.649153, 20.5495, -160.566, -92.6087, 54.7952
3.88005, 4, -37.0177, 0.643255, 20.552, -160.566, -92.6087, 54.7952
3.88847, 4, -37.0043, 0.633717, 20.5575, -160.565, -92.6087, 54.7952
3.89655, 4, -36.9861, 0.62, 20.5672, -160.563, -92.6087, 54.7952
3.90415, 5, -36.9623, 0.601717, 20.5827, -160.56, -92.6086, 54.7952
3.91337, 5, -36.9331, 0.579048, 20.6046, -160.556, -92.6084, 54.7951
3.92036, 5, -36.8991, 0.551751, 20.6334, -160.55, -92.608, 54.7951
3.92822, 5, -36.8804, 0.536504, 20.6504, -160.546, -92.6077, 54.7951
3.93556, 5, -36.8391, 0.502493, 20.689, -160.538, -92.6067, 54.7951
3.94357, 5, -36.7925, 0.463677, 20.733, -160.528, -92.6053, 54.7951
3.9516, 5, -36.7409, 0.420579, 20.7816, -160.517, -92.6038, 54.7951
3.95955, 5, -36.6845, 0.373761, 20.8332, -160.505, -92.602, 54.795
3.96778, 5, -36.6242, 0.324188, 20.8869, -160.493, -92.6001, 54.795
3.97556, 5, -36.56, 0.272489, 20.9419, -160.481, -92.5982, 54.795
3.9836, 5, -36.4934, 0.219405, 20.9974, -160.469, -92.5963, 54.795
3.99171, 5, -36.4256, 0.165767, 21.0529, -160.457, -92.5944, 54.795
3.99976, 5, -36.3571, 0.111851, 21.1085, -160.444, -92.5924, 54.795
4.00761, 5, -36.2885, 0.0578135, 21.1641, -160.433, -92.5905, 54.7951
4.01573, 5, -36.2196, 0.00392846, 21.2196, -160.42, -92.5885, 54.7951
4.02359, 5, -36.1508, -0.0497507, 21.2752, -160.408, -92.5864, 54.7952
4.03155, 5, -36.0823, -0.103163, 21.3306, -160.396, -92.5844, 54.7953
4.04037, 5, -36.0137, -0.156376, 21.386, -160.383, -92.5823, 54.7955
4.04835, 5, -35.9451, -0.209435, 21.4414, -160.37, -92.5802, 54.7959
4.05557, 5, -35.8766, -0.262288, 21.4966, -160.357, -92.5781, 54.7964
4.06638, 5, -35.7734, -0.341329, 21.5794, -160.338, -92.5749, 54.7976
4.07177, 5, -35.7388, -0.367705, 21.6069, -160.332, -92.5739, 54.7981
4.07952, 5, -35.6696, -0.420422, 21.6617, -160.319, -92.5718, 54.7992
4.08756, 5, -35.6001, -0.473194, 21.7164, -160.307, -92.5696, 54.8004
4.09573, 5, -35.5303, -0.526013, 21.7709, -160.294, -92.5675, 54.8019
4.10452, 5, -35.4602, -0.57882, 21.8252, -160.282, -92.5654, 54.8033
4.11156, 5, -35.39, -0.63162, 21.8794, -160.269, -92.5632, 54.805
4.11978, 5, -35.3196, -0.68438, 21.9334, -160.256, -92.561, 54.8068
4.12858, 5, -35.249, -0.737131, 21.9874, -160.243, -92.5589, 54.8088
4.13564, 5, -35.1784, -0.789564, 22.0412, -160.229, -92.5567, 54.8108
4.14379, 5, -35.1079, -0.84183, 22.095, -160.216, -92.5544, 54.8129
4.15259, 5, -35.0373, -0.89402, 22.1486, -160.203, -92.5521, 54.8152
4.15956, 5, -34.9668, -0.945846, 22.2021, -160.19, -92.5499, 54.8176
4.16799, 5, -34.8964, -0.997505, 22.2555, -160.177, -92.5476, 54.8201
4.17637, 5, -34.826, -1.04895, 22.3089, -160.164, -92.5453, 54.8227
4.18356, 5, -34.7555, -1.10038, 22.362, -160.151, -92.543, 54.8256
4.19231, 5, -34.6848, -1.15179, 22.415, -160.138, -92.5407, 54.8284
4.19955, 5, -34.6139, -1.20309, 22.4678, -160.125, -92.5383, 54.8314
4.20755, 5, -34.5428, -1.25451, 22.5203, -160.112, -92.536, 54.8345
4.21774, 5, -34.4717, -1.30589, 22.5728, -160.099, -92.5337, 54.8376
4.22369, 5, -34.4003, -1.35726, 22.6251, -160.085, -92.5313, 54.8409
4.23355, 5, -34.3287, -1.40861, 22.6773, -160.071, -92.5289, 54.8444
4.23955, 5, -34.2571, -1.45991, 22.7293, -160.057, -92.5265, 54.8479
4.24764, 5, -34.1853, -1.51102, 22.7812, -160.044, -92.5241, 54.8516
4.25592, 5, -34.1133, -1.56187, 22.833, -160.03, -92.5217, 54.8554
4.26364, 5, -34.0412, -1.6126, 22.8847, -160.017, -92.5193, 54.8593
4.27187, 5, -33.9691, -1.66311, 22.9363, -160.003, -92.5169, 54.8632
4.27965, 5, -33.8969, -1.71334, 22.9877, -159.99, -92.5145, 54.8673
4.28766, 5, -33.8249, -1.76346, 23.0389, -159.976, -92.5121, 54.8715
4.29591, 5, -33.7527, -1.81346, 23.09, -159.962, -92.5097, 54.8757
4.30372, 5, -33.6804, -1.86338, 23.141, -159.948, -92.5074, 54.88
4.31225, 5, -33.6079, -1.91321, 23.1917, -159.933, -92.5051, 54.8844
4.31964, 5, -33.5353, -1.96329, 23.2423, -159.919, -92.5027, 54.8886
4.32759, 5, -33.4625, -2.01362, 23.2929, -159.905, -92.5004, 54.8927
4.33653, 5, -33.3895, -2.06423, 23.3433, -159.891, -92.4982, 54.8958
4.34418, 5, -33.3169, -2.11522, 23.3936, -159.877, -92.4959, 54.8976
4.35204, 6, -33.2443, -2.16676, 23.4441, -159.863, -92.4935, 54.8979
4.36063, 6, -33.1722, -2.21914, 23.4947, -159.848, -92.4908, 54.8959
4.36792, 6, -33.1005, -2.27237, 23.5458, -159.833, -92.4877, 54.8904
4.37636, 7, -33.0293, -2.32659, 23.5978, -159.816, -92.4835, 54.8792
4.38496, 7, -32.9584, -2.38193, 23.6508, -159.798, -92.478, 54.8642
4.39255, 7, -32.8881, -2.43852, 23.7051, -159.779, -92.4707, 54.8466
4.40169, 7, -32.8183, -2.49662, 23.7609, -159.758, -92.4615, 54.8279
4.40809, 7, -32.7492, -2.55622, 23.8182, -159.736, -92.4501, 54.8098
4.41617, 7, -32.6807, -2.61752, 23.877, -159.714, -92.4365, 54.7923
4.42493, 8, -32.6467, -2.64873, 23.9371, -159.69, -92.421, 54.7752
4.43154, 8, -32.5794, -2.71256, 23.9676, -159.677, -92.4125, 54.7666
4.44276, 8, -32.4797, -2.81154, 24.0608, -159.637, -92.3843, 54.7397
4.44837, 8, -32.4468, -2.84533, 24.0924, -159.623, -92.374, 54.7202
4.45664, 8, -32.3492, -2.9489, 24.1886, -159.581, -92.3414, 54.6993
4.46357, 9, -32.317, -2.98409, 24.2211, -159.567, -92.3301, 54.6881
4.47176, 9, -32.253, -3.05544, 24.2871, -159.537, -92.3065, 54.6644
4.47954, 9, -32.1895, -3.12813, 24.3539, -159.505, -92.2815, 54.639
4.48754, 9, -32.1266, -3.20207, 24.4218, -159.473, -92.2548, 54.6124
4.49555, 9, -32.0642, -3.27738, 24.4906, -159.441, -92.2262, 54.5846
4.50359, 10, -32.0023, -3.35394, 24.5604, -159.407, -92.1966, 54.5551
4.51155, 10, -31.9412, -3.43191, 24.6313, -159.372, -92.1658, 54.5238
4.51968, 10, -31.8806, -3.51129, 24.7033, -159.336, -92.1337, 54.4904
4.52758, 10, -31.8205, -3.59204, 24.7763, -159.3, -92.0996, 54.4553
4.53555, 10, -31.7611, -3.67425, 24.8504, -159.262, -92.064, 54.4193
4.54354, 11, -31.7021, -3.75791, 24.9253, -159.223, -92.0277, 54.382
4.55166, 11, -31.6437, -3.84311, 25.0013, -159.184, -91.9903, 54.3429
4.55954, 11, -31.5859, -3.92976, 25.0782, -159.144, -91.9508, 54.3018
4.56932, 11, -31.5285, -4.01778, 25.156, -159.103, -91.9098, 54.2591
4.57856, 11, -31.4435, -4.1527, 25.2747, -159.038, -91.8467, 54.1932
4.58353, 12, -31.4154, -4.19842, 25.3148, -159.017, -91.8248, 54.1704
4.59265, 12, -31.3596, -4.29086, 25.3958, -158.973, -91.7793, 54.123
4.60154, 12, -31.3043, -4.38471, 25.4779, -158.927, -91.7333, 54.074
4.60754, 12, -31.2496, -4.47989, 25.561, -158.881, -91.6861, 54.0242
4.61632, 12, -31.1953, -4.57642, 25.6452, -158.835, -91.6367, 53.9727
4.62361, 13, -31.1416, -4.67442, 25.7302, -158.786, -91.5868, 53.919
4.63156, 13, -31.0883, -4.77379, 25.8162, -158.738, -91.5351, 53.8644
4.64242, 13, -31.0095, -4.92559, 25.9471, -158.663, -91.4547, 53.7799
4.64771, 13, -30.9834, -4.97698, 25.9914, -158.637, -91.4276, 53.7507
4.6556, 13, -30.9317, -5.08084, 26.0806, -158.586, -91.3717, 53.6914
4.6635, 14, -30.8805, -5.18602, 26.1709, -158.534, -91.3145, 53.6314
4.67156, 14, -30.83, -5.29277, 26.2623, -158.479, -91.2567, 53.5691
4.6796, 14, -30.78, -5.40099, 26.3546, -158.426, -91.1963, 53.5056
4.68754, 14, -30.7305, -5.51063, 26.4477, -158.371, -91.1359, 53.4415
4.69568, 14, -30.6816, -5.62187, 26.5418, -158.314, -91.0733, 53.3748
4.70363, 14, -30.6331, -5.73461, 26.6371, -158.258, -91.0095, 53.307
4.71155, 15, -30.585, -5.84872, 26.7334, -158.199, -90.9444, 53.2384
4.71975, 15, -30.5376, -5.96405, 26.831, -158.141, -90.8775, 53.1673
4.72773, 15, -30.4906, -6.08078, 26.9296, -158.081, -90.8102, 53.0956
4.73554, 15, -30.4441, -6.199, 27.0291, -158.02, -90.7406, 53.022
4.74361, 15, -30.3982, -6.3185, 27.1294, -157.959, -90.6704, 52.9465
4.75158, 16, -30.3528, -6.43966, 27.2307, -157.896, -90.5981, 52.8704
4.75961, 16, -30.3078, -6.56231, 27.3332, -157.833, -90.5254, 52.7915
4.76781, 16, -30.2633, -6.68627, 27.4368, -157.769, -90.4506, 52.7123
4.77912, 16, -30.2193, -6.8118, 27.5416, -157.671, -90.3365, 52.5901
4.7837, 16, -30.1759, -6.93883, 27.6474, -157.637, -90.2977, 52.549
4.79165, 17, -30.1328, -7.0675, 27.754, -157.571, -90.2194, 52.4656
4.79964, 17, -30.0904, -7.19774, 27.8614, -157.503, -90.1396, 52.3808
4.80778, 17, -30.0484, -7.32935, 27.9698, -157.434, -90.0583, 52.2951
4.81703, 17, -30.0069, -7.46226, 28.0795, -157.364, -89.976, 52.2072
4.82558, 17, -29.966, -7.5966, 28.1904, -157.294, -89.8921, 52.1188
4.83166, 18, -29.9255, -7.73236, 28.3023, -157.222, -89.8072, 52.0285
4.83973, 18, -29.8856, -7.86956, 28.4151, -157.15, -89.7206, 51.9372
4.84811, 18, -29.8461, -8.00816, 28.5287, -157.077, -89.6334, 51.844
4.85579, 18, -29.807, -8.1479, 28.6433, -157.002, -89.5446, 51.75
4.86385, 18, -29.7685, -8.28894, 28.7591, -156.927, -89.4544, 51.6542
4.87201, 19, -29.7303, -8.4314, 28.8761, -156.851, -89.3634, 51.5576
4.88001, 19, -29.6927, -8.57554, 28.9943, -156.774, -89.2708, 51.4595
4.88803, 19, -29.6555, -8.72117, 29.1132, -156.697, -89.1768, 51.3607
4.89684, 19, -29.6188, -8.86805, 29.2329, -156.618, -89.082, 51.2606
4.90558, 19, -29.5825, -9.01618, 29.3535, -156.539, -88.986, 51.1595
4.91212, 20, -29.5469, -9.16584, 29.4752, -156.458, -88.8888, 51.057
4.92018, 20, -29.5291, -9.24126, 29.5983, -156.377, -88.7908, 50.9533
4.92808, 20, -29.494, -9.39328, 29.6601, -156.336, -88.7414, 50.8487
4.93687, 20, -29.4593, -9.54645, 29.7844, -156.254, -88.6415, 50.7957
4.94445, 20, -29.4252, -9.70076, 29.9096, -156.17, -88.4899, 50.6355
4.9515, 21, -29.3916, -9.85637, 30.0357, -156.086, -88.4388, 50.5813
4.95958, 21, -29.3583, -10.0135, 30.1628, -156, -88.3355, 50.4725
4.9677, 21, -29.3254, -10.1721, 30.2911, -155.914, -88.2314, 50.3626
4.97582, 21, -29.293, -10.3318, 30.4203, -155.827, -88.1264, 50.2519
4.98354, 21, -29.2611, -10.4925, 30.5504, -155.74, -88.02, 50.1404
4.99175, 22, -29.2295, -10.6544, 30.6812, -155.651, -87.9129, 50.0278
4.99957, 22, -29.1984, -10.8177, 30.813, -155.561, -87.8047, 49.9146
5.00753, 22, -29.1675, -10.9823, 30.9458, -155.471, -87.6954, 49.8003
5.01812, 22, -29.1221, -11.2311, 31.1467, -155.333, -87.5297, 49.6271
5.02367, 22, -29.1072, -11.3145, 31.2142, -155.287, -87.4738, 49.569
5.03152, 22, -29.0775, -11.4826, 31.3498, -155.194, -87.3618, 49.452
5.04029, 23, -29.0483, -11.6523, 31.4862, -155.1, -87.2488, 49.3345
5.04753, 23, -29.0193, -11.8232, 31.6234, -155.005, -87.1346, 49.2161
5.05552, 23, -28.9908, -11.9948, 31.7614, -154.91, -87.0199, 49.0972
5.06695, 23, -28.9488, -12.2545, 31.9699, -154.765, -86.8459, 48.9177
5.07165, 23, -28.9349, -12.3418, 32.0399, -154.716, -86.7874, 48.8575
5.07948, 24, -28.9075, -12.5173, 32.1807, -154.618, -86.6698, 48.7369
5.0876, 24, -28.8804, -12.6934, 32.3221, -154.519, -86.5512, 48.6159
5.09568, 24, -28.8537, -12.87, 32.464, -154.419, -86.432, 48.4938
5.10351, 24, -28.8274, -13.0482, 32.6069, -154.318, -86.3116, 48.3712
5.11152, 24, -28.8013, -13.2279, 32.751, -154.217, -86.1908, 48.2483
5.11958, 25, -28.7755, -13.4081, 32.8956, -154.114, -86.0692, 48.1249
5.12752, 25, -28.7501, -13.589, 33.0409, -154.011, -85.9467, 48.0013
5.13552, 25, -28.7249, -13.7711, 33.1867, -153.908, -85.8239, 47.8779
5.14367, 25, -28.6998, -13.9547, 33.3332, -153.803, -85.6998, 47.754
5.15154, 25, -28.675, -14.139, 33.4807, -153.697, -85.5755, 47.6301
5.15952, 26, -28.6506, -14.3237, 33.6289, -153.591, -85.4505, 47.5063
5.16784, 26, -28.6264, -14.5094, 33.7774, -153.484, -85.3248, 47.3818
5.17736, 26, -28.6026, -14.6968, 33.9267, -153.376, -85.1988, 47.2574
5.18354, 26, -28.5789, -14.8847, 34.0769, -153.268, -85.0718, 47.1331
5.19187, 26, -28.5553, -15.0726, 34.2276, -153.158, -84.9446, 47.009
5.19966, 27, -28.532, -15.2613, 34.3788, -153.048, -84.8167, 46.885
5.20753, 27, -28.509, -15.451, 34.5304, -152.938, -84.6884, 46.7617
5.21768, 27, -28.4861, -15.6411, 34.6827, -152.826, -84.5595, 46.6382
5.22374, 27, -28.4634, -15.8315, 34.8359, -152.714, -84.4302, 46.5151
5.23155, 27, -28.441, -16.0231, 34.9894, -152.601, -84.3005, 46.3925
5.23949, 28, -28.4187, -16.2161, 35.1429, -152.488, -84.1704, 46.27
5.24773, 28, -28.3964, -16.4097, 35.2971, -152.374, -84.04, 46.148
5.25556, 28, -28.3742, -16.6037, 35.4521, -152.259, -83.909, 46.0265
5.26398, 28, -28.3523, -16.7989, 35.6076, -152.144, -83.7781, 45.9057
5.27177, 28, -28.3303, -16.9949, 35.7631, -152.027, -83.6464, 45.7855
5.28047, 29, -28.3085, -17.1911, 35.9191, -151.91, -83.5149, 45.6662
5.28793, 29, -28.2869, -17.3875, 36.0759, -151.793, -83.3827, 45.5475
5.29585, 29, -28.2655, -17.5847, 36.2333, -151.675, -83.2503, 45.4295
5.30491, 29, -28.2439, -17.7827, 36.3907, -151.555, -83.1173, 45.3126
5.31172, 29, -28.2225, -17.9806, 36.5483, -151.436, -82.9842, 45.196
5.31995, 30, -28.2013, -18.1787, 36.7067, -151.316, -82.8509, 45.0808
5.32837, 30, -28.1801, -18.3777, 36.8655, -151.195, -82.7174, 44.9667
5.33558, 30, -28.1588, -18.577, 37.0243, -151.073, -82.584, 44.8539
5.34471, 30, -28.1376, -18.7762, 37.1826, -150.951, -82.4501, 44.7431
5.35259, 30, -28.1163, -18.9761, 37.3413, -150.829, -82.3165, 44.6337
5.36013, 30, -28.0948, -19.1771, 37.5005, -150.706, -82.1823, 44.5265
5.3687, 31, -28.0733, -19.3779, 37.6596, -150.583, -82.0486, 44.4206
5.37591, 31, -28.0518, -19.5785, 37.8184, -150.459, -81.9144, 44.3164
5.38485, 31, -28.0303, -19.7794, 37.9777, -150.334, -81.7804, 44.2141
5.3929, 31, -28.0087, -19.9805, 38.1376, -150.209, -81.6462, 44.1129
5.40092, 31, -27.9869, -20.181, 38.2976, -150.083, -81.5118, 44.0137
5.409, 32, -27.965, -20.3815, 38.4573, -149.957, -81.3776, 43.9159
5.41607, 32, -27.9428, -20.5826, 38.6168, -149.831, -81.2434, 43.8207
5.4244, 32, -27.9204, -20.7839, 38.7768, -149.704, -81.1095, 43.7273
5.43251, 32, -27.8978, -20.9848, 38.9367, -149.576, -80.9755, 43.6369
5.44015, 32, -27.8864, -21.0851, 39.0164, -149.513, -80.9088, 43.549
5.44748, 33, -27.8635, -21.286, 39.1752, -149.385, -80.7757, 43.5062
5.45551, 33, -27.8403, -21.4867, 39.3341, -149.257, -80.6429, 43.4232
5.46356, 33, -27.8166, -21.6865, 39.493, -149.13, -80.5106, 43.3427
5.47166, 33, -27.7924, -21.8856, 39.6512, -149.002, -80.3785, 43.2659
5.47958, 33, -27.7678, -22.0848, 39.8085, -148.875, -80.2471, 43.1919
5.48755, 34, -27.7427, -22.2835, 39.9654, -148.747, -80.116, 43.1215
5.49575, 34, -27.7171, -22.4809, 40.1221, -148.619, -79.9853, 43.0547
5.50726, 34, -27.6779, -22.7764, 40.3563, -148.428, -79.7892, 42.9593
5.51147, 34, -27.6647, -22.8749, 40.4339, -148.364, -79.7239, 42.9295
5.51955, 34, -27.6377, -23.0713, 40.589, -148.236, -79.5932, 42.8722
5.52751, 35, -27.6103, -23.2669, 40.7443, -148.108, -79.4627, 42.8176
5.53552, 35, -27.5828, -23.4627, 40.8995, -147.98, -79.332, 42.7666
5.54535, 35, -27.5411, -23.7567, 41.1311, -147.786, -79.1366, 42.697
5.55166, 35, -27.5271, -23.8545, 41.2082, -147.722, -79.0716, 42.6754
5.55952, 35, -27.4989, -24.0496, 41.3625, -147.592, -78.9416, 42.6343
5.56827, 36, -27.4704, -24.2448, 41.5168, -147.461, -78.812, 42.5969
5.57561, 36, -27.4416, -24.4399, 41.6707, -147.331, -78.6823, 42.5636
5.58459, 36, -27.4124, -24.6341, 41.8239, -147.2, -78.5536, 42.5345
5.59557, 36, -27.3678, -24.9244, 42.0532, -147.003, -78.3607, 42.4989
5.60069, 36, -27.3526, -25.0211, 42.1294, -146.938, -78.2968, 42.4892
5.60985, 37, -27.3056, -25.3097, 42.3563, -146.742, -78.1054, 42.4669
5.61557, 37, -27.2894, -25.4051, 42.4312, -146.677, -78.0419, 42.4619
5.62368, 37, -27.2566, -25.5952, 42.5802, -146.547, -77.9154, 42.4555
5.6325, 37, -27.2227, -25.7846, 42.7283, -146.418, -77.7891, 42.4527
5.63953, 37, -27.1879, -25.9727, 42.8751, -146.29, -77.6636, 42.4533
5.64761, 37, -27.1519, -26.1588, 43.0204, -146.163, -77.5382, 42.4603
5.65556, 38, -27.1152, -26.3436, 43.1645, -146.036, -77.4136, 42.4733
5.66351, 38, -27.0778, -26.5278, 43.3078, -145.909, -77.2893, 42.4914
5.67172, 38, -27.0395, -26.7108, 43.4505, -145.783, -77.1654, 42.5149
5.67972, 38, -27.0004, -26.8924, 43.5925, -145.657, -77.0419, 42.5437
5.6875, 38, -26.9607, -27.0732, 43.7336, -145.53, -76.9185, 42.5781
5.69558, 39, -26.9204, -27.2539, 43.874, -145.404, -76.7956, 42.6187
5.70351, 39, -26.8794, -27.4338, 44.0138, -145.277, -76.6724, 42.665
5.71163, 39, -26.8374, -27.6125, 44.1528, -145.151, -76.5496, 42.7166
5.71996, 39, -26.7948, -27.7905, 44.2911, -145.024, -76.4266, 42.7743
5.72836, 39, -26.7515, -27.9684, 44.4282, -144.898, -76.3037, 42.8389
5.73551, 40, -26.7072, -28.1453, 44.5642, -144.773, -76.181, 42.9088
5.74542, 40, -26.6619, -28.3205, 44.6992, -144.648, -76.0584, 42.9858
5.75153, 40, -26.6157, -28.4943, 44.833, -144.524, -75.9365, 43.0691
5.75967, 40, -26.5685, -28.6672, 44.9655, -144.401, -75.8147, 43.1584
5.76762, 40, -26.5202, -28.8387, 45.0964, -144.278, -75.6939, 43.2551
5.78002, 41, -26.4457, -29.0925, 45.2904, -144.096, -75.5133, 43.4122
5.78366, 41, -26.4203, -29.1762, 45.3544, -144.036, -75.4534, 43.4679
5.7916, 41, -26.3686, -29.343, 45.4813, -143.916, -75.3342, 43.5845
5.80011, 41, -26.3156, -29.5084, 45.6068, -143.798, -75.2149, 43.7082
5.8075, 41, -26.2613, -29.6718, 45.7306, -143.68, -75.0967, 43.8392
5.8157, 42, -26.2057, -29.8331, 45.8525, -143.564, -74.9786, 43.9774
5.82454, 42, -26.1484, -29.9928, 45.9726, -143.449, -74.8611, 44.1232
5.83153, 42, -26.0896, -30.1506, 46.0905, -143.336, -74.7444, 44.2757
5.84042, 42, -26.029, -30.3062, 46.2062, -143.225, -74.6278, 44.4355
5.84864, 42, -25.9669, -30.4592, 46.3198, -143.116, -74.5121, 44.6024
5.85606, 43, -25.9029, -30.61, 46.4311, -143.009, -74.3969, 44.7766
5.86465, 43, -25.8373, -30.7586, 46.5402, -142.904, -74.2818, 44.9586
5.87215, 43, -25.7699, -30.9049, 46.6472, -142.8, -74.1675, 45.1482
5.8808, 43, -25.701, -31.049, 46.7523, -142.699, -74.0532, 45.3455
5.88805, 43, -25.6305, -31.1907, 46.8555, -142.599, -73.9397, 45.5505
5.89604, 43, -25.5585, -31.3304, 46.9568, -142.501, -73.8267, 45.7633
5.90479, 44, -25.4848, -31.4681, 47.0559, -142.405, -73.7141, 45.9838
5.91211, 44, -25.4093, -31.6036, 47.1526, -142.311, -73.6025, 46.2126
5.92133, 44, -25.3321, -31.7369, 47.2468, -142.22, -73.4911, 46.4494
5.93127, 44, -25.253, -31.8674, 47.3386, -142.131, -73.3806, 46.6945
5.93546, 44, -25.2128, -31.9316, 47.3836, -142.088, -73.3256, 46.82
5.94352, 45, -25.131, -32.0581, 47.4718, -142.003, -73.216, 47.0776
5.95154, 45, -25.0471, -32.1817, 47.5577, -141.922, -73.1069, 47.3436
5.95949, 45, -24.9612, -32.3026, 47.6407, -141.842, -72.9984, 47.6176
5.9699, 45, -24.8282, -32.4781, 47.7595, -141.729, -72.8362, 48.0442
5.97726, 45, -24.7827, -32.535, 47.7976, -141.693, -72.7825, 48.1906
5.98357, 46, -24.6899, -32.6463, 47.8716, -141.623, -72.6755, 48.4903
5.99162, 46, -24.5947, -32.7541, 47.9426, -141.557, -72.5689, 48.7979
5.99963, 46, -24.497, -32.8586, 48.0106, -141.493, -72.4634, 49.1136
6.00746, 46, -24.3971, -32.9594, 48.0755, -141.435, -72.3587, 49.4382
6.01555, 46, -24.295, -33.0564, 48.137, -141.379, -72.255, 49.7709
6.02349, 47, -24.1905, -33.1497, 48.195, -141.328, -72.1526, 50.1116
6.03149, 47, -24.0836, -33.2391, 48.2494, -141.281, -72.0512, 50.4605
6.03956, 47, -23.9741, -33.3244, 48.3002, -141.237, -71.9509, 50.8179
6.04749, 47, -23.862, -33.4057, 48.3472, -141.199, -71.8519, 51.1836
6.05712, 47, -23.7472, -33.4829, 48.3905, -141.165, -71.7539, 51.7488
6.06348, 48, -23.6296, -33.5558, 48.4298, -141.136, -71.6572, 51.9415
6.07329, 48, -23.5093, -33.6242, 48.4649, -141.111, -71.5623, 52.3333
6.07954, 48, -23.3865, -33.688, 48.4959, -141.09, -71.4687, 52.7348
6.0886, 48, -23.2611, -33.747, 48.5229, -141.075, -71.3769, 53.1457
6.09567, 48, -23.1332, -33.8009, 48.5455, -141.065, -71.2872, 53.5656
6.10353, 49, -23.0022, -33.8497, 48.5635, -141.06, -71.1993, 53.9947
6.1115, 49, -22.8684, -33.8932, 48.5772, -141.059, -71.1131, 54.4313
6.12046, 49, -22.7316, -33.9312, 48.5862, -141.064, -71.0294, 54.8757
6.12848, 49, -22.5918, -33.9635, 48.5905, -141.075, -70.9475, 55.3278
6.13555, 49, -22.4493, -33.9901, 48.5903, -141.092, -70.8682, 55.7869
6.14447, 50, -22.304, -34.0108, 48.5851, -141.116, -70.7912, 56.2539
6.15166, 50, -22.156, -34.0252, 48.5749, -141.145, -70.7174, 56.7273
6.15957, 50, -22.0053, -34.0334, 48.5595, -141.18, -70.6462, 57.2088
6.17097, 50, -21.774, -34.0344, 48.5266, -141.245, -70.5454, 57.9455
6.17563, 50, -21.6953, -34.0316, 48.5129, -141.27, -70.5134, 58.1948
6.18447, 51, -21.5355, -34.021, 48.4812, -141.324, -70.4528, 58.6985
6.19249, 51, -21.373, -34.0036, 48.4444, -141.385, -70.3948, 59.2081
6.19971, 51, -21.2078, -33.9793, 48.4019, -141.452, -70.3411, 59.7242
6.20853, 51, -21.04, -33.9478, 48.3538, -141.525, -70.2913, 60.2463
6.21556, 51, -20.8697, -33.9093, 48.3001, -141.604, -70.2445, 60.7742
6.22361, 51, -20.6969, -33.8633, 48.2406, -141.689, -70.2025, 61.3073
6.23271, 52, -20.5212, -33.8093, 48.1751, -141.781, -70.1653, 61.8472
6.2395, 52, -20.3429, -33.7475, 48.1036, -141.88, -70.1325, 62.3936
6.24774, 52, -20.1617, -33.6776, 48.0261, -141.984, -70.104, 62.9468
6.25552, 52, -19.9778, -33.5995, 47.9423, -142.096, -70.0807, 63.5054
6.26362, 52, -19.7915, -33.5129, 47.8522, -142.213, -70.0628, 64.0704
6.2737, 53, -19.603, -33.4179, 47.756, -142.336, -70.0504, 64.6412
6.27975, 53, -19.4127, -33.3145, 47.6537, -142.466, -70.0436, 65.2168
6.28849, 53, -19.2202, -33.2031, 47.5456, -142.602, -70.0416, 65.7955
6.29559, 53, -19.0261, -33.0835, 47.4316, -142.742, -70.0446, 66.3781
6.30374, 53, -18.8303, -32.9556, 47.3117, -142.888, -70.0539, 66.9634
6.31293, 54, -18.6327, -32.8193, 47.1859, -143.039, -70.0695, 67.5502
6.31951, 54, -18.4332, -32.6748, 47.0544, -143.194, -70.0916, 68.1375
6.32778, 54, -18.2318, -32.5221, 46.9175, -143.354, -70.1205, 68.7265
6.33553, 54, -18.0289, -32.3611, 46.7748, -143.518, -70.1555, 69.317
6.34361, 54, -17.8248, -32.1913, 46.6262, -143.687, -70.1969, 69.9089
6.35206, 55, -17.6199, -32.0121, 46.4714, -143.86, -70.2465, 70.5037
6.36005, 55, -17.4138, -31.8235, 46.3101, -144.038, -70.3038, 71.1028
6.36849, 55, -17.2061, -31.6257, 46.1422, -144.221, -70.3688, 71.7065
6.37629, 55, -16.9966, -31.4176, 45.9667, -144.409, -70.4432, 72.3142
6.38636, 55, -16.7854, -31.1987, 45.7836, -144.602, -70.5259, 72.9274
6.39199, 56, -16.5724, -30.9694, 45.5937, -144.8, -70.6184, 73.5453
6.40136, 56, -16.3582, -30.7295, 45.3968, -145.002, -70.7194, 74.167
6.4089, 56, -16.1432, -30.4783, 45.192, -145.209, -70.8301, 74.7913
6.41608, 56, -15.9281, -30.2169, 44.9806, -145.419, -70.95, 75.4188
6.42513, 56, -15.8208, -29.945, 44.7634, -145.632, -71.079, 76.0483
6.43195, 57, -15.6055, -29.8049, 44.6521, -145.74, -71.1472, 76.3632
6.44014, 57, -15.3892, -29.5173, 44.4241, -145.958, -71.3653, 77.3087
6.44748, 57, -15.1718, -29.2197, 44.1905, -146.178, -71.4429, 77.6242
6.45548, 57, -14.9539, -28.912, 43.9505, -146.399, -71.605, 78.2554
6.46354, 57, -14.736, -28.596, 43.7048, -146.622, -71.7766, 78.8844
6.47144, 58, -14.5186, -28.2715, 43.455, -146.845, -71.957, 79.5117
6.47964, 58, -14.3022, -27.9398, 43.2006, -147.068, -72.1454, 80.1359
6.48752, 58, -14.0871, -27.5999, 42.9425, -147.291, -72.3417, 80.7553
6.4955, 58, -13.8735, -27.2528, 42.6814, -147.512, -72.5456, 81.3681
6.50354, 58, -13.6614, -26.8988, 42.4169, -147.731, -72.7567, 81.9757
6.5115, 58, -13.4503, -26.5385, 42.1499, -147.948, -72.9749, 82.5776
6.51948, 59, -13.2406, -26.1708, 41.8788, -148.164, -73.2007, 83.1737
6.52973, 59, -12.9295, -25.6068, 41.4658, -148.483, -73.5538, 84.0588
6.53787, 59, -12.724, -25.2225, 41.1855, -148.695, -73.7994, 84.6442
6.54349, 59, -12.6216, -25.0279, 41.0441, -148.799, -73.9252, 84.9354
6.55163, 59, -12.4177, -24.633, 40.7585, -149.008, -74.1836, 85.5146
6.55947, 60, -12.2149, -24.231, 40.4684, -149.214, -74.4502, 86.0896
6.56848, 60, -12.0136, -23.8221, 40.1754, -149.418, -74.7252, 86.6607
6.57564, 60, -11.8139, -23.4075, 39.8791, -149.62, -75.0079, 87.2277
6.58385, 60, -11.6159, -22.9865, 39.581, -149.818, -75.2984, 87.7885
6.59148, 60, -11.42, -22.5602, 39.281, -150.013, -75.5957, 88.3439
6.59949, 61, -11.2267, -22.13, 38.9799, -150.205, -75.8992, 88.8929
6.60755, 61, -11.0356, -21.6959, 38.678, -150.392, -76.2081, 89.4343
6.61547, 61, -10.8465, -21.2581, 38.3752, -150.574, -76.5218, 89.9666
6.62591, 61, -10.5671, -20.5944, 37.9204, -150.838, -77.0014, 90.749
6.63163, 61, -10.4752, -20.3712, 37.7685, -150.924, -77.1635, 91.0056
6.63951, 62, -10.293, -19.9218, 37.4648, -151.092, -77.4916, 91.5131
6.64748, 62, -10.1136, -19.4687, 37.1599, -151.256, -77.8249, 92.0125
6.65563, 62, -9.93688, -19.0132, 36.8546, -151.415, -78.1639, 92.5043
6.66399, 62, -9.7627, -18.5551, 36.5479, -151.57, -78.5083, 92.9897
6.67154, 62, -9.59099, -18.0954, 36.2411, -151.72, -78.8579, 93.4674
6.67945, 63, -9.42153, -17.6351, 35.9345, -151.866, -79.2116, 93.9369
6.68749, 63, -9.25436, -17.1735, 35.6295, -152.006, -79.5686, 94.396
6.69554, 63, -9.08967, -16.7106, 35.3265, -152.14, -79.9276, 94.8443
6.70355, 63, -8.92771, -16.246, 35.0254, -152.268, -80.2879, 95.2818
6.71147, 63, -8.76826, -15.779, 34.7265, -152.391, -80.6498, 95.7078
6.71955, 63, -8.6114, -15.3099, 34.4291, -152.508, -81.0137, 96.1236
6.72785, 64, -8.4569, -14.8392, 34.1337, -152.621, -81.3808, 96.5291
6.73725, 64, -8.30477, -14.3669, 33.838, -152.728, -81.7521, 96.9249
6.74362, 64, -8.15487, -13.8942, 33.5421, -152.831, -82.1289, 97.3126
6.75222, 64, -8.00717, -13.4217, 33.2457, -152.93, -82.5107, 97.6909
6.76065, 65, -7.86184, -12.9498, 32.9502, -153.023, -82.8969, 98.0588
6.76947, 65, -7.71909, -12.4791, 32.6563, -153.111, -83.2855, 98.4154
6.77773, 65, -7.57925, -12.0091, 32.3654, -153.194, -83.6749, 98.7585
6.78405, 65, -7.44255, -11.5401, 32.079, -153.27, -84.0636, 99.087
6.79157, 65, -7.30893, -11.0716, 31.7967, -153.34, -84.4506, 99.4008
6.79957, 65, -7.17827, -10.6046, 31.5196, -153.403, -84.836, 99.6992
6.80851, 66, -7.05004, -10.1407, 31.2463, -153.461, -85.2194, 99.9821
6.81603, 66, -6.92391, -9.68058, 30.977, -153.513, -85.6022, 100.249
6.82372, 66, -6.79995, -9.22611, 30.7118, -153.56, -85.9842, 100.501
6.83183, 66, -6.6782, -8.7784, 30.4499, -153.601, -86.3648, 100.737
6.83998, 66, -6.55855, -8.33686, 30.1928, -153.636, -86.7432, 100.955
6.84765, 67, -6.44157, -7.90172, 29.9406, -153.666, -87.1179, 101.157
6.85608, 67, -6.32771, -7.47283, 29.6947, -153.69, -87.4882, 101.341
6.86454, 67, -6.21667, -7.04981, 29.4563, -153.708, -87.8529, 101.507
6.87189, 67, -6.10833, -6.63239, 29.2242, -153.72, -88.2115, 101.655
6.88096, 67, -6.00254, -6.22164, 28.9989, -153.727, -88.5645, 101.786
6.88828, 68, -5.89887, -5.81757, 28.7801, -153.73, -88.9129, 101.899
6.89608, 68, -5.79704, -5.41923, 28.5656, -153.729, -89.2578, 101.995
6.90406, 68, -5.69672, -5.02668, 28.3551, -153.723, -89.6005, 102.074
6.91259, 68, -5.59816, -4.6395, 28.1485, -153.712, -89.9419, 102.134
6.92004, 68, -5.50116, -4.25753, 27.9447, -153.697, -90.2825, 102.176
6.92804, 69, -5.45334, -4.06793, 27.8438, -153.677, -90.6224, 102.199
6.93925, 69, -5.31247, -3.50441, 27.5478, -153.653, -90.962, 102.206
6.94407, 69, -5.26632, -3.3183, 27.4511, -153.64, -91.1314, 102.192
6.95148, 69, -5.17541, -2.94918, 27.26, -153.608, -91.4699, 102.177
6.96027, 69, -5.08625, -2.58388, 27.0723, -153.574, -91.8074, 102.101
6.96742, 70, -4.9987, -2.22151, 26.8889, -153.536, -92.1437, 102.064
6.97553, 70, -4.91236, -1.86332, 26.7092, -153.493, -92.4783, 101.975
6.98354, 70, -4.82737, -1.50996, 26.5328, -153.447, -92.8115, 101.863
6.99146, 70, -4.74338, -1.16209, 26.3606, -153.398, -93.1428, 101.729
6.99956, 70, -4.66055, -0.819223, 26.1929, -153.346, -93.4716, 101.573
7.00762, 71, -4.57877, -0.482933, 26.029, -153.289, -93.7976, 101.396
7.01557, 71, -4.49798, -0.152936, 25.8691, -153.232, -94.1206, 101.197
7.02358, 71, -4.41832, 0.170022, 25.7146, -153.17, -94.4401, 100.978
7.03148, 71, -4.33953, 0.48673, 25.5656, -153.107, -94.7554, 100.738
7.03953, 71, -4.26143, 0.797202, 25.4214, -153.042, -95.0669, 100.478
7.04766, 72, -4.18425, 1.10055, 25.2819, -152.974, -95.3746, 100.198
7.05564, 72, -4.10763, 1.3974, 25.1468, -152.905, -95.6787, 99.898
7.06725, 72, -3.99312, 1.82965, 24.9512, -152.799, -96.129, 99.4102
7.07146, 72, -3.95506, 1.97077, 24.8877, -152.763, -96.2778, 99.2373
7.08181, 72, -3.84096, 2.38482, 24.702, -152.654, -96.7204, 98.6875
7.08761, 72, -3.80294, 2.51964, 24.6415, -152.617, -96.8669, 98.4932
7.09855, 73, -3.68901, 2.91572, 24.4649, -152.507, -97.3023, 97.8774
7.10353, 73, -3.6509, 3.04461, 24.4077, -152.47, -97.4463, 97.6609
7.11146, 73, -3.57457, 3.2975, 24.2961, -152.396, -97.7322, 97.2107
7.11952, 73, -3.4979, 3.54438, 24.1881, -152.323, -98.0151, 96.7393
7.12753, 73, -3.42085, 3.78431, 24.0841, -152.251, -98.2944, 96.2467
7.13561, 74, -3.3431, 4.01595, 23.9841, -152.18, -98.5698, 95.7345
7.146, 74, -3.22521, 4.34807, 23.8413, -152.077, -98.973, 94.9344
7.15152, 74, -3.18562, 4.45432, 23.7958, -152.043, -99.1045, 94.6605
7.15968, 74, -3.10596, 4.65936, 23.708, -151.977, -99.3626, 94.1035
7.16851, 74, -3.02565, 4.85471, 23.6246, -151.914, -99.6133, 93.5349
7.17545, 75, -2.94445, 5.04052, 23.5456, -151.853, -99.8558, 92.9571
7.1846, 75, -2.86228, 5.21596, 23.4707, -151.796, -100.09, 92.3717
7.19569, 75, -2.77908, 5.45855, 23.3659, -151.714, -100.423, 91.4805
7.19946, 75, -2.69495, 5.53405, 23.3329, -151.689, -100.53, 91.1802
7.20759, 75, -2.6099, 5.67684, 23.2701, -151.64, -100.735, 90.5747
7.21545, 76, -2.52384, 5.8083, 23.2115, -151.594, -100.931, 89.9623
7.22355, 76, -2.43681, 5.92833, 23.1572, -151.553, -101.119, 89.3416
7.23454, 76, -2.30476, 6.08613, 23.0839, -151.499, -101.382, 88.3935
7.23953, 76, -2.26039, 6.13256, 23.0616, -151.483, -101.465, 88.0737
7.24746, 76, -2.17102, 6.21605, 23.0205, -151.452, -101.624, 87.4292
7.25546, 77, -2.08079, 6.28662, 22.9845, -151.426, -101.771, 86.779
7.264, 77, -1.98968, 6.34414, 22.9537, -151.405, -101.905, 86.1269
7.27224, 77, -1.89764, 6.38825, 22.9285, -151.387, -102.027, 85.4764
7.27986, 77, -1.80472, 6.41826, 22.909, -151.374, -102.134, 84.8284
7.28784, 77, -1.71096, 6.43423, 22.8954, -151.364, -102.226, 84.1838
7.29554, 78, -1.6164, 6.43575, 22.8876, -151.358, -102.303, 83.544
7.30397, 78, -1.52114, 6.42218, 22.8853, -151.354, -102.365, 82.9082
7.31155, 78, -1.42523, 6.39336, 22.8885, -151.354, -102.411, 82.2758
7.32008, 78, -1.32894, 6.3489, 22.8977, -151.357, -102.441, 81.6478
7.32847, 78, -1.23233, 6.28832, 22.9131, -151.363, -102.456, 81.0251
7.33592, 79, -1.1355, 6.21165, 22.9351, -151.373, -102.455, 80.4078
7.34567, 79, -1.03855, 6.11886, 22.964, -151.386, -102.436, 79.7972
7.35164, 79, -0.941462, 6.0099, 23.0004, -151.402, -102.399, 79.195
7.36065, 79, -0.844527, 5.88478, 23.0442, -151.421, -102.345, 78.6025
7.36768, 79, -0.74756, 5.74314, 23.0955, -151.442, -102.273, 78.0191
7.3758, 79, -0.650505, 5.58498, 23.1545, -151.467, -102.183, 77.4459
7.38801, 80, -0.504879, 5.31677, 23.2571, -151.507, -102.014, 76.6066
7.39251, 80, -0.456325, 5.21909, 23.2952, -151.521, -101.948, 76.3319
7.40072, 80, -0.359291, 5.01117, 23.3777, -151.55, -101.802, 75.7895
7.40802, 80, -0.262467, 4.78546, 23.4684, -151.581, -101.638, 75.2567
7.4165, 80, -0.165814, 4.54154, 23.5675, -151.614, -101.455, 74.7337
7.42484, 81, -0.117545, 4.28068, 23.6755, -151.647, -101.252, 74.2204
7.43207, 81, 0.0270777, 4.00288, 23.7926, -151.682, -101.031, 73.7157
7.44106, 81, 0.0751673, 3.85753, 23.8546, -151.717, -100.79, 73.2206
7.44858, 81, 0.219192, 3.39676, 24.0552, -151.755, -100.529, 72.7346
7.45551, 81, 0.267094, 3.23433, 24.1271, -151.773, -100.392, 72.4955
7.46516, 82, 0.362672, 2.8969, 24.2781, -151.81, -100.103, 72.0247
7.47161, 82, 0.458126, 2.54282, 24.4385, -151.848, -99.7947, 71.5627
7.48071, 82, 0.600721, 1.98176, 24.6967, -151.904, -99.2971, 70.8881
7.49003, 82, 0.695544, 1.5874, 24.8809, -151.941, -98.9433, 70.4503
7.49763, 82, 0.790325, 1.1766, 25.0743, -151.977, -98.5719, 70.0233
7.50489, 83, 0.88504, 0.750499, 25.2768, -152.013, -98.1843, 69.6063
7.51145, 83, 0.932379, 0.532094, 25.3819, -152.03, -97.9844, 69.4016
7.52718, 83, 1.12193, -0.377903, 25.8267, -152.098, -97.1458, 68.6093
7.52909, 83, 1.1694, -0.614495, 25.9433, -152.113, -96.9265, 68.4174
7.53546, 83, 1.21686, -0.854571, 26.0624, -152.128, -96.7034, 68.228
7.54348, 84, 1.31183, -1.34524, 26.3082, -152.159, -96.2461, 67.8566
7.55145, 84, 1.40707, -1.84944, 26.5635, -152.188, -95.7732, 67.4936
7.55946, 84, 1.50257, -2.36673, 26.8294, -152.215, -95.2856, 67.1382
7.57123, 84, 1.64644, -3.16824, 27.2472, -152.253, -94.5245, 66.6192
7.57728, 84, 1.69457, -3.44209, 27.5392, -152.276, -93.9984, 66.2815
7.58582, 85, 1.83962, -4.28381, 27.8413, -152.298, -93.4571, 65.9508
7.59151, 85, 1.88806, -4.57068, 27.996, -152.308, -93.1809, 65.7886
7.59944, 85, 1.98521, -5.15236, 28.3131, -152.327, -92.6174, 65.4699
7.60749, 85, 2.0828, -5.74433, 28.6391, -152.344, -92.0417, 65.159
7.61551, 85, 2.18081, -6.34575, 28.9747, -152.358, -91.4556, 64.8563
7.62368, 85, 2.27948, -6.95515, 29.3185, -152.369, -90.8592, 64.5632
7.63242, 86, 2.37873, -7.57181, 29.6703, -152.378, -90.2533, 64.2797
7.63943, 86, 2.479, -8.19458, 30.0291, -152.383, -89.6382, 64.0066
7.65096, 86, 2.63123, -9.14007, 30.5788, -152.387, -88.7017, 63.6176
7.65557, 86, 2.68231, -9.45777, 30.7649, -152.387, -88.3875, 63.4937
7.66343, 86, 2.78547, -10.0965, 31.1408, -152.385, -87.7556, 63.2545
7.67155, 87, 2.88963, -10.7387, 31.5224, -152.378, -87.1183, 63.0271
7.67943, 87, 2.99437, -11.3831, 31.9082, -152.368, -86.4757, 62.8117
7.68743, 87, 3.10025, -12.0302, 32.2986, -152.355, -85.8279, 62.6088
7.69552, 87, 3.20683, -12.6789, 32.6934, -152.337, -85.1767, 62.4189
7.7045, 87, 3.31408, -13.3294, 33.0929, -152.315, -84.5227, 62.2417
7.71244, 88, 3.42213, -13.9819, 33.497, -152.29, -83.8641, 62.0779
7.72044, 88, 3.53079, -14.6365, 33.9049, -152.261, -83.2016, 61.9278
7.72768, 88, 3.64024, -15.293, 34.3174, -152.228, -82.5352, 61.7915
7.73881, 88, 3.8056, -16.2799, 34.9441, -152.169, -81.5288, 61.6145
7.74351, 88, 3.86094, -16.6094, 35.1552, -152.147, -81.1922, 61.5629
7.75145, 89, 3.97187, -17.268, 35.5806, -152.1, -80.5166, 61.4722
7.75945, 89, 4.08296, -17.925, 36.0093, -152.047, -79.8375, 61.3989
7.76755, 89, 4.194, -18.5797, 36.441, -151.989, -79.1541, 61.3429
7.78087, 89, 4.36052, -19.5565, 37.0924, -151.892, -78.1242, 61.2948
7.78375, 89, 4.41592, -19.8797, 37.3097, -151.856, -77.7822, 61.2883
7.79195, 90, 4.52683, -20.5224, 37.7436, -151.783, -77.0997, 61.291
7.79955, 90, 4.6384, -21.1601, 38.1765, -151.702, -76.4193, 61.3179
7.80761, 90, 4.75042, -21.7929, 38.6073, -151.617, -75.7431, 61.3688
7.81543, 90, 4.86267, -22.4208, 39.0353, -151.526, -75.0727, 61.4438
7.82343, 90, 4.97498, -23.0434, 39.461, -151.429, -74.4096, 61.5454
7.83227, 91, 5.08725, -23.6613, 39.8845, -151.326, -73.7502, 61.6733
7.84155, 91, 5.19937, -24.2738, 40.3071, -151.218, -73.0919, 61.829
7.84755, 91, 5.31091, -24.8797, 40.7295, -151.102, -72.4341, 62.0133
7.86067, 91, 5.47634, -25.7764, 41.3618, -150.916, -71.4452, 62.3447
7.86377, 91, 5.53104, -26.0715, 41.5723, -150.851, -71.1157, 62.4703
7.87207, 92, 5.64015, -26.6566, 41.9926, -150.716, -70.4573, 62.7453
7.87975, 92, 5.74941, -27.2345, 42.4111, -150.574, -69.8001, 63.0518
7.88787, 92, 5.85919, -27.8044, 42.8258, -150.428, -69.1458, 63.3893
7.89691, 92, 5.96957, -28.3659, 43.2356, -150.276, -68.4942, 63.7582
7.90464, 92, 6.08082, -28.9177, 43.6401, -150.12, -67.8467, 64.1587
7.91637, 93, 6.2502, -29.7253, 44.2346, -149.881, -66.8886, 64.818
7.91999, 93, 6.30748, -29.9893, 44.4293, -149.8, -66.5718, 65.054
7.92802, 93, 6.42361, -30.5093, 44.8145, -149.636, -65.9407, 65.5494
7.93607, 93, 6.48251, -31.0203, 45.1939, -149.472, -65.313, 66.0778
7.94483, 93, 6.6019, -31.2734, 45.3818, -149.39, -64.9997, 66.6418
7.95147, 93, 6.72353, -31.7753, 45.7542, -149.225, -64.3738, 66.9383
7.95949, 94, 6.84739, -32.2718, 46.1233, -149.059, -63.7474, 67.5634
7.96742, 94, 6.97354, -32.7633, 46.4896, -148.892, -63.1158, 68.235
7.97547, 94, 7.10182, -33.2493, 46.8547, -148.725, -62.4775, 68.9595
7.98465, 94, 7.29843, -33.9639, 47.398, -148.477, -61.5083, 70.1442
7.99142, 94, 7.36561, -34.1984, 47.5772, -148.396, -61.1822, 70.5654
7.99942, 95, 7.50303, -34.6611, 47.9302, -148.239, -60.5296, 71.449
8.00749, 95, 7.64551, -35.1134, 48.2752, -148.091, -59.8799, 72.3789
8.01542, 95, 7.79395, -35.5548, 48.6089, -147.956, -59.2354, 73.3494
8.02342, 95, 7.94877, -35.9828, 48.9303, -147.835, -58.5983, 74.3592
8.03295, 95, 8.19386, -36.5901, 49.3835, -147.684, -57.659, 75.937
8.04157, 96, 8.3658, -36.9699, 49.6657, -147.607, -57.0481, 77.0286
8.0475, 96, 8.4543, -37.1515, 49.8003, -147.576, -56.7482, 77.5855
8.05543, 96, 8.63555, -37.4971, 50.0569, -147.53, -56.1586, 78.7205
8.06348, 96, 8.82186, -37.8178, 50.2964, -147.504, -55.5843, 79.8772
8.07146, 96, 9.01288, -38.1127, 50.5164, -147.498, -55.0275, 81.0507
8.08045, 96, 9.20728, -38.3829, 50.717, -147.513, -54.4909, 82.2354
8.08753, 97, 9.40316, -38.6274, 50.8982, -147.551, -53.9772, 83.4295
8.09645, 97, 9.59939, -38.8467, 51.0588, -147.609, -53.4884, 84.6279
8.10342, 97, 9.79492, -39.0414, 51.199, -147.688, -53.0264, 85.8204
8.11146, 97, 9.98895, -39.2113, 51.3197, -147.783, -52.5932, 86.9995
8.11946, 97, 10.1804, -39.3554, 51.4208, -147.894, -52.1899, 88.1581
8.12753, 97, 10.3682, -39.4741, 51.5027, -148.017, -51.8174, 89.2901
8.13542, 98, 10.5524, -39.5676, 51.5664, -148.151, -51.4756, 90.3878
8.14342, 98, 10.7342, -39.637, 51.6121, -148.295, -51.164, 91.4529
8.15146, 98, 10.9142, -39.6837, 51.6404, -148.448, -50.8804, 92.493
8.15946, 98, 11.0926, -39.7072, 51.6514, -148.612, -50.621, 93.5226
8.16742, 98, 11.2689, -39.7074, 51.6458, -148.789, -50.3824, 94.5554
8.17549, 98, 11.444, -39.6842, 51.6229, -148.979, -50.1627, 95.6022
8.18339, 98, 11.6195, -39.637, 51.5823, -149.182, -49.9619, 96.6711
8.19142, 99, 11.7947, -39.5666, 51.5239, -149.399, -49.7816, 97.7607
8.1995, 99, 11.9684, -39.4736, 51.4471, -149.627, -49.6244, 98.8666
8.20742, 99, 12.1392, -39.3579, 51.3517, -149.864, -49.4937, 99.978
8.21542, 99, 12.3064, -39.2199, 51.2384, -150.106, -49.3924, 101.085
8.2235, 99, 12.4682, -39.0598, 51.1076, -150.351, -49.322, 102.174
8.23195, 99, 12.6227, -38.8773, 50.9609, -150.593, -49.2824, 103.24
8.24049, 100, 12.7686, -38.6708, 50.7985, -150.833, -49.2743, 104.274
8.24742, 100, 12.9058, -38.4402, 50.6195, -151.068, -49.2983, 105.28
8.25552, 100, 13.0338, -38.1868, 50.4235, -151.297, -49.3536, 106.256
8.26346, 100, 13.1534, -37.9114, 50.211, -151.52, -49.4401, 107.21
8.2718, 100, 13.2649, -37.6152, 49.9808, -151.737, -49.5578, 108.139
8.28102, 100, 13.3681, -37.2961, 49.7324, -151.948, -49.7062, 109.047
8.28842, 101, 13.4632, -36.9528, 49.4675, -152.151, -49.8848, 109.934
8.29565, 101, 13.5503, -36.5834, 49.1849, -152.345, -50.0932, 110.796
8.30353, 101, 13.6295, -36.1875, 48.8854, -152.53, -50.3315, 111.637
8.31206, 101, 13.7005, -35.766, 48.5674, -152.706, -50.6003, 112.454
8.32042, 101, 13.7633, -35.3206, 48.231, -152.873, -50.9012, 113.251
8.3279, 101, 13.8179, -34.8514, 47.8759, -153.028, -51.2349, 114.028
8.34072, 102, 13.883, -34.1031, 47.3096, -153.24, -51.7994, 115.151
8.34348, 102, 13.9001, -33.8415, 47.1119, -153.305, -52.0044, 115.514
8.35232, 102, 13.9274, -33.3004, 46.7039, -153.424, -52.4395, 116.224
8.36055, 102, 13.946, -32.7368, 46.2809, -153.529, -52.9071, 116.906
8.36764, 102, 13.9562, -32.1513, 45.844, -153.62, -53.4044, 117.563
8.37605, 103, 13.9586, -31.5443, 45.3936, -153.697, -53.9287, 118.193
8.38461, 103, 13.9538, -30.9183, 44.9312, -153.761, -54.4771, 118.793
8.39182, 103, 13.9423, -30.2755, 44.4583, -153.811, -55.0471, 119.367
8.39995, 103, 13.9246, -29.6183, 43.9761, -153.847, -55.6353, 119.914
8.40902, 103, 13.9013, -28.9476, 43.4868, -153.871, -56.2405, 120.434
8.41652, 103, 13.8728, -28.2651, 42.9916, -153.884, -56.8604, 120.926
8.424, 104, 13.84, -27.5727, 42.4918, -153.887, -57.4925, 121.393
8.43289, 104, 13.8032, -26.8721, 41.9887, -153.879, -58.1377, 121.837
8.43995, 104, 13.7833, -26.5191, 41.7361, -153.871, -58.7973, 122.259
8.44802, 104, 13.7411, -25.8085, 41.229, -153.849, -59.469, 122.663
8.45542, 104, 13.6966, -25.094, 40.7202, -153.819, -59.8091, 122.859
8.46348, 104, 13.6503, -24.3766, 40.2105, -153.781, -60.4951, 123.239
8.47149, 104, 13.6023, -23.657, 39.7007, -153.736, -61.187, 123.607
8.47941, 104, 13.5526, -22.9355, 39.1917, -153.687, -61.8848, 123.968
8.48741, 104, 13.502, -22.2131, 38.6835, -153.631, -62.5865, 124.324
8.49548, 104, 13.4506, -21.4896, 38.1769, -153.571, -63.2902, 124.675
8.50341, 104, 13.3986, -20.7664, 37.6717, -153.507, -63.9942, 125.025
8.51144, 104, 13.3463, -20.0435, 37.1678, -153.438, -64.6988, 125.374
8.52082, 104, 13.2675, -18.9585, 36.4158, -153.328, -65.759, 125.893
8.52741, 104, 13.2412, -18.5967, 36.166, -153.289, -66.1128, 126.066
8.53541, 104, 13.1887, -17.8731, 35.6685, -153.209, -66.8211, 126.412
8.54497, 104, 13.1106, -16.7865, 34.9266, -153.081, -67.8841, 126.928
8.55143, 104, 13.0847, -16.4243, 34.68, -153.036, -68.238, 127.1
8.55941, 104, 13.0332, -15.6997, 34.1887, -152.944, -68.9474, 127.444
8.5675, 104, 12.982, -14.975, 33.6998, -152.848, -69.6585, 127.788
8.5754, 104, 12.931, -14.2498, 33.2132, -152.748, -70.3703, 128.131
8.58442, 104, 12.8804, -13.5246, 32.7294, -152.644, -71.0812, 128.475
8.5915, 104, 12.8302, -12.7991, 32.2482, -152.536, -71.7919, 128.819
8.60048, 104, 12.7802, -12.0734, 31.7696, -152.425, -72.5047, 129.163
8.6074, 104, 12.7306, -11.3484, 31.2934, -152.309, -73.2178, 129.508
8.61547, 104, 12.6815, -10.6233, 30.8196, -152.19, -73.9312, 129.853
8.6234, 104, 12.6326, -9.89784, 30.349, -152.067, -74.6447, 130.199
8.63149, 104, 12.5841, -9.17237, 29.8815, -151.94, -75.358, 130.546
8.63948, 104, 12.5362, -8.44646, 29.4169, -151.808, -76.0727, 130.894
8.6474, 104, 12.4887, -7.72027, 28.9557, -151.673, -76.7879, 131.243
8.6554, 104, 12.4416, -6.99463, 28.4978, -151.533, -77.5039, 131.593
8.66357, 104, 12.3953, -6.26924, 28.043, -151.389, -78.2196, 131.945
8.67143, 104, 12.3495, -5.54406, 27.5917, -151.241, -78.9339, 132.297
8.67942, 104, 12.3042, -4.81971, 27.1441, -151.089, -79.6494, 132.65
8.68748, 104, 12.2599, -4.09702, 26.7009, -150.933, -80.3654, 133.005
8.6954, 104, 12.2167, -3.3771, 26.2627, -150.773, -81.0809, 133.362
8.7034, 104, 12.1745, -2.66203, 25.8293, -150.608, -81.7925, 133.718
8.7115, 104, 12.1337, -1.9531, 25.4018, -150.441, -82.5002, 134.076
8.7194, 104, 12.0939, -1.25184, 24.9822, -150.27, -83.2039, 134.431
8.7274, 104, 12.0552, -0.559521, 24.5709, -150.097, -83.8998, 134.785
8.7355, 104, 12.0174, 0.122805, 24.1696, -149.922, -84.5853, 135.135
8.7434, 104, 11.9807, 0.794226, 23.7796, -149.746, -85.2573, 135.482
8.75142, 104, 11.945, 1.45299, 23.4023, -149.57, -85.9143, 135.822
8.75948, 104, 11.9106, 2.0983, 23.0376, -149.394, -86.5577, 136.158
8.76743, 104, 11.8774, 2.72816, 22.6852, -149.218, -87.185, 136.486
8.77555, 104, 11.845, 3.3417, 22.3456, -149.043, -87.7959, 136.808
8.7835, 104, 11.8142, 3.93877, 22.0194, -148.87, -88.3908, 137.123
8.79175, 104, 11.7846, 4.5188, 21.7056, -148.697, -88.9675, 137.432
8.79961, 104, 11.7562, 5.08228, 21.4042, -148.526, -89.5271, 137.733
8.80779, 104, 11.7293, 5.62847, 21.1139, -148.357, -90.0716, 138.028
8.81554, 104, 11.7034, 6.15725, 20.836, -148.19, -90.5997, 138.315
8.82389, 104, 11.6786, 6.66963, 20.5696, -148.025, -91.1115, 138.595
8.83143, 104, 11.6551, 7.16497, 20.3149, -147.863, -91.6066, 138.868
8.83947, 104, 11.6327, 7.64337, 20.0717, -147.703, -92.0842, 139.133
8.84752, 104, 11.6114, 8.10552, 19.839, -147.546, -92.5452, 139.39
8.85553, 104, 11.5912, 8.55076, 19.6176, -147.393, -92.9895, 139.64
8.86365, 104, 11.5723, 8.9785, 19.407, -147.243, -93.4175, 139.882
8.87169, 104, 11.5545, 9.38918, 19.2064, -147.097, -93.8283, 140.115
8.88037, 104, 11.5377, 9.78213, 19.0164, -146.955, -94.2222, 140.34
8.88783, 104, 11.522, 10.1571, 18.8374, -146.817, -94.5983, 140.556
8.8969, 104, 11.5074, 10.5129, 18.6686, -146.685, -94.9561, 140.763
8.9039, 104, 11.4938, 10.8496, 18.51, -146.558, -95.295, 140.959
8.9125, 104, 11.4812, 11.1668, 18.3625, -146.437, -95.6142, 141.145
8.91998, 104, 11.4697, 11.4634, 18.2257, -146.322, -95.9129, 141.32
8.92799, 104, 11.4593, 11.7394, 18.0993, -146.215, -96.1909, 141.483
8.93653, 104, 11.4499, 11.994, 17.9837, -146.114, -96.4471, 141.634
8.94404, 104, 11.4454, 12.1134, 17.8786, -146.022, -96.6818, 141.773
8.95238, 104, 11.433, 12.44, 17.7839, -145.938, -96.8945, 141.899
8.96002, 104, 11.4293, 12.5385, 17.7405, -145.899, -96.9925, 141.957
8.96748, 104, 11.4225, 12.7192, 17.6613, -145.826, -97.1721, 142.065
8.9764, 104, 11.4164, 12.879, 17.5923, -145.763, -97.3296, 142.201
8.98344, 104, 11.4109, 13.0188, 17.5331, -145.708, -97.4652, 142.24
8.99141, 104, 11.4059, 13.1395, 17.4833, -145.662, -97.5797, 142.308
8.99939, 104, 11.4013, 13.2417, 17.4423, -145.624, -97.6736, 142.364
9.00744, 104, 11.3972, 13.3265, 17.4094, -145.593, -97.749, 142.41
9.01541, 104, 11.3934, 13.396, 17.384, -145.569, -97.8067, 142.445
9.02339, 104, 11.3899, 13.452, 17.3652, -145.551, -97.8493, 142.471
9.03298, 104, 11.3857, 13.514, 17.3467, -145.533, -97.8913, 142.496
9.04104, 104, 11.3835, 13.5428, 17.3395, -145.527, -97.9083, 142.505
9.04739, 104, 11.3826, 13.5543, 17.3369, -145.524, -97.9142, 142.508
9.05545, 104, 11.3811, 13.5723, 17.3334, -145.521, -97.922, 142.513
9.065, 104, 11.3794, 13.5894, 17.3309, -145.519, -97.9273, 142.516
9.0736, 105, 11.3786, 13.5965, 17.3301, -145.518, -97.9287, 142.516
9.07945, 105, 11.3783, 13.599, 17.3299, -145.518, -97.9291, 142.516
9.08845, 105, 11.3779, 13.6027, 17.3297, -145.518, -97.9295, 142.517
9.09535, 105, 11.3775, 13.6053, 17.3296, -145.518, -97.9297, 142.517
9.10356, 105, 11.3772, 13.6074, 17.3295, -145.518, -97.9297, 142.517
9.11244, 105, 11.377, 13.6092, 17.3295, -145.518, -97.9298, 142.517
9.11939, 105, 11.3769, 13.6108, 17.3295, -145.518, -97.9298, 142.517
9.12745, 105, 11.3768, 13.6122, 17.3295, -145.518, -97.9298, 142.517
9.13544, 105, 11.3767, 13.6134, 17.3295, -145.518, -97.9297, 142.517
9.14338, 105, 11.3766, 13.6144, 17.3295, -145.518, -97.9296, 142.517
9.15148, 105, 11.3765, 13.6152, 17.3295, -145.518, -97.9295, 142.517
9.15938, 105, 11.3765, 13.6159, 17.3295, -145.518, -97.9293, 142.517
9.16739, 105, 11.3765, 13.6163, 17.3296, -145.518, -97.9292, 142.517
9.17542, 105, 11.3765, 13.6166, 17.3296, -145.518, -97.9291, 142.517
9.1834, 105, 11.3765, 13.6168, 17.3297, -145.518, -97.9289, 142.517
9.1914, 105, 11.3765, 13.6169, 17.3297, -145.518, -97.9289, 142.517
