hehonglu123/Motion-Primitive-Planning/ILC/recorded_data/realrobot/from_NX/iteration_28/run_1.csv
timestamp, cmd_num, J1, J2, J3, J4, J5, J6
0.000357, -1, 39.629, 32.447, 11.8316, 12.5437, 113.713, -48.8735
0.003073, -1, 39.629, 32.447, 11.8316, 12.5437, 113.713, -48.8735
0.007869, -1, 39.6291, 32.447, 11.8316, 12.5437, 113.713, -48.8735
0.028259, -1, 39.6291, 32.447, 11.8316, 12.5437, 113.713, -48.8735
0.030951, -1, 39.6291, 32.447, 11.8316, 12.5436, 113.713, -48.8735
0.032296, -1, 39.6291, 32.447, 11.8316, 12.5436, 113.713, -48.8735
0.039788, -1, 39.6291, 32.447, 11.8316, 12.5436, 113.713, -48.8736
0.179929, -1, 38.6664, 31.9616, 12.0093, 12.55, 113.23, -50.1132
0.181314, -1, 38.6664, 31.9616, 12.0093, 12.55, 113.23, -50.1132
0.182601, -1, 38.6664, 31.9616, 12.0093, 12.55, 113.23, -50.1132
0.184642, -1, 38.5878, 31.9203, 12.0276, 12.5511, 113.184, -50.2287
0.185891, -1, 38.5878, 31.9203, 12.0276, 12.5511, 113.184, -50.2287
0.188539, -1, 38.5067, 31.8777, 12.0464, 12.5522, 113.137, -50.3472
0.189786, -1, 38.5067, 31.8777, 12.0464, 12.5522, 113.137, -50.3472
0.197721, -1, 38.3382, 31.7894, 12.0847, 12.5546, 113.041, -50.5917
0.199984, -1, 38.2512, 31.7438, 12.1042, 12.5558, 112.991, -50.7166
0.201296, -1, 38.2512, 31.7438, 12.1042, 12.5558, 112.991, -50.7166
0.202569, -1, 38.2512, 31.7438, 12.1042, 12.5558, 112.991, -50.7166
0.204569, -1, 38.1627, 31.6975, 12.1237, 12.557, 112.941, -50.8428
0.205843, -1, 38.1627, 31.6975, 12.1237, 12.557, 112.941, -50.8428
0.207706, -1, 38.0727, 31.6506, 12.1432, 12.5582, 112.891, -50.97
0.209133, -1, 38.0727, 31.6506, 12.1432, 12.5582, 112.891, -50.97
0.213252, -1, 37.9815, 31.6031, 12.1627, 12.5595, 112.84, -51.098
0.214566, -1, 37.9815, 31.6031, 12.1627, 12.5595, 112.84, -51.098
0.216575, -1, 37.8891, 31.5552, 12.1821, 12.5607, 112.79, -51.2267
0.217861, -1, 37.8891, 31.5552, 12.1821, 12.5607, 112.79, -51.2267
0.219761, -1, 37.7958, 31.5069, 12.2015, 12.5619, 112.739, -51.3557
0.222492, -1, 37.7958, 31.5069, 12.2015, 12.5619, 112.739, -51.3557
0.2246, -1, 37.7016, 31.4583, 12.2209, 12.5631, 112.688, -51.485
0.22792, -1, 37.6067, 31.4095, 12.2403, 12.5643, 112.637, -51.6147
0.231885, -1, 37.5113, 31.3607, 12.2597, 12.5655, 112.585, -51.7444
0.240193, -1, 37.3197, 31.2627, 12.2984, 12.5681, 112.482, -52.0038
0.246737, -1, 37.2236, 31.2138, 12.3179, 12.5693, 112.431, -52.1336
0.256048, -1, 36.9353, 31.0671, 12.376, 12.5731, 112.277, -52.5235
0.262829, -1, 36.8392, 31.0182, 12.3954, 12.5744, 112.225, -52.6536
0.272203, -1, 36.5514, 30.8715, 12.4537, 12.5783, 112.071, -53.0442
0.280263, -1, 36.3597, 30.7738, 12.4926, 12.5809, 111.968, -53.3045
0.288332, -1, 36.1682, 30.676, 12.5314, 12.5835, 111.865, -53.565
0.296529, -1, 35.9767, 30.5781, 12.5703, 12.586, 111.762, -53.8255
0.304294, -1, 35.7851, 30.48, 12.6092, 12.5886, 111.659, -54.0862
0.31242, -1, 35.5932, 30.382, 12.6481, 12.5911, 111.556, -54.3463
0.320304, -1, 35.4972, 30.333, 12.6675, 12.5924, 111.505, -54.4765
0.327735, -1, 35.3051, 30.2347, 12.7063, 12.595, 111.401, -54.737
0.335771, -1, 35.1126, 30.1363, 12.7452, 12.5976, 111.298, -54.9977
0.34372, -1, 34.9202, 30.0379, 12.7842, 12.6002, 111.195, -55.2585
0.351715, -1, 34.7279, 29.9395, 12.823, 12.6027, 111.092, -55.5191
0.359763, -1, 34.5357, 29.841, 12.8618, 12.6053, 110.989, -55.7799
0.367725, -1, 34.3436, 29.7426, 12.9008, 12.6078, 110.886, -56.0408
0.375727, -1, 34.1516, 29.6443, 12.9397, 12.6104, 110.783, -56.3017
0.383764, -1, 33.9597, 29.546, 12.9787, 12.6131, 110.68, -56.5625
0.391711, -1, 33.768, 29.4477, 13.0176, 12.6158, 110.577, -56.8232
0.399718, -1, 33.5762, 29.3493, 13.0564, 12.6184, 110.474, -57.0842
0.407767, -1, 33.384, 29.2509, 13.0954, 12.621, 110.371, -57.3455
0.41573, -1, 33.1915, 29.1524, 13.1343, 12.6236, 110.268, -57.6063
0.42372, -1, 32.9987, 29.0537, 13.1731, 12.6262, 110.165, -57.8673
0.431832, -1, 32.8057, 28.9552, 13.2121, 12.6289, 110.062, -58.1285
0.439716, -1, 32.6124, 28.8565, 13.251, 12.6315, 109.959, -58.3899
0.447718, -1, 32.4189, 28.7579, 13.2898, 12.6342, 109.855, -58.651
0.456716, -1, 32.225, 28.6592, 13.3288, 12.6369, 109.753, -58.9119
0.463751, -1, 32.0308, 28.5604, 13.3677, 12.6396, 109.649, -59.173
0.472717, -1, 31.837, 28.4616, 13.4066, 12.6423, 109.546, -59.4343
0.479869, -1, 31.6434, 28.3629, 13.4456, 12.645, 109.443, -59.6956
0.488714, -1, 31.4499, 28.2642, 13.4846, 12.648, 109.34, -59.9567
0.495793, -1, 31.2569, 28.1657, 13.5235, 12.6506, 109.237, -60.2181
0.633577, -1, 27.9736, 26.4871, 14.1863, 12.6958, 107.482, -64.6654
0.63576, -1, 27.8772, 26.4377, 14.2059, 12.6971, 107.43, -64.7964
0.637053, -1, 27.8772, 26.4377, 14.2059, 12.6971, 107.43, -64.7964
0.639003, -1, 27.7808, 26.3882, 14.2254, 12.6984, 107.378, -64.9274
0.640531, -1, 27.7808, 26.3882, 14.2254, 12.6984, 107.378, -64.9274
0.641806, -1, 27.7808, 26.3882, 14.2254, 12.6984, 107.378, -64.9274
0.643848, -1, 27.6844, 26.3388, 14.2449, 12.6996, 107.327, -65.0583
0.647926, -1, 27.5882, 26.2894, 14.2643, 12.7008, 107.275, -65.1891
0.649289, -1, 27.5882, 26.2894, 14.2643, 12.7008, 107.275, -65.1891
0.652074, -1, 27.4921, 26.2399, 14.2838, 12.7019, 107.223, -65.3199
0.653322, -1, 27.4921, 26.2399, 14.2838, 12.7019, 107.223, -65.3199
0.655225, -1, 27.396, 26.1904, 14.3033, 12.7032, 107.172, -65.4506
0.657482, -1, 27.396, 26.1904, 14.3033, 12.7032, 107.172, -65.4506
0.659327, -1, 27.3, 26.1409, 14.3228, 12.7043, 107.12, -65.5814
0.660983, -1, 27.3, 26.1409, 14.3228, 12.7043, 107.12, -65.5814
0.664354, -1, 27.2039, 26.0914, 14.3423, 12.7055, 107.068, -65.7122
0.665579, -1, 27.2039, 26.0914, 14.3423, 12.7055, 107.068, -65.7122
0.667479, -1, 27.1077, 26.0419, 14.3618, 12.7067, 107.017, -65.8431
0.668823, -1, 27.1077, 26.0419, 14.3618, 12.7067, 107.017, -65.8431
0.670147, -1, 27.1077, 26.0419, 14.3618, 12.7067, 107.017, -65.8431
0.672134, -1, 27.0114, 25.9925, 14.3812, 12.7078, 106.965, -65.9739
0.67344, -1, 27.0114, 25.9925, 14.3812, 12.7078, 106.965, -65.9739
0.681861, -1, 26.8188, 25.8937, 14.4201, 12.7101, 106.862, -66.2359
0.687888, -1, 26.6258, 25.7948, 14.4592, 12.7124, 106.758, -66.4974
0.695716, -1, 26.4323, 25.6959, 14.498, 12.7147, 106.655, -66.7592
0.703742, -1, 26.2384, 25.5971, 14.5369, 12.717, 106.552, -67.0209
0.711917, -1, 26.0444, 25.4982, 14.5759, 12.7192, 106.449, -67.2829
0.719773, -1, 25.8501, 25.3993, 14.6149, 12.7215, 106.346, -67.5446
0.727893, -1, 25.6559, 25.3005, 14.6539, 12.7238, 106.243, -67.8061
0.73594, -1, 25.462, 25.2018, 14.6929, 12.726, 106.139, -68.0676
0.74396, -1, 25.2682, 25.1032, 14.7318, 12.7284, 106.036, -68.3295
0.750711, -1, 25.1715, 25.0538, 14.7513, 12.7295, 105.984, -68.4605
0.760051, -1, 24.8816, 24.9055, 14.8099, 12.7331, 105.829, -68.8528
0.768176, -1, 24.6887, 24.8067, 14.8488, 12.7355, 105.726, -69.1145
0.774743, -1, 24.5924, 24.7573, 14.8683, 12.7367, 105.675, -69.2454
0.784869, -1, 24.3038, 24.609, 14.9268, 12.7402, 105.52, -69.6382
0.792257, -1, 24.1112, 24.5101, 14.9658, 12.7426, 105.416, -69.8997
0.801265, -1, 23.9185, 24.4113, 15.0048, 12.7449, 105.313, -70.1611
0.808295, -1, 23.7256, 24.3125, 15.0437, 12.7474, 105.209, -70.4228
0.816245, -1, 23.6291, 24.263, 15.0631, 12.7486, 105.106, -70.6847
0.825259, -1, 23.4358, 24.1641, 15.1021, 12.7509, 105.003, -70.9462
0.830749, -1, 23.2421, 24.0653, 15.141, 12.7533, 104.951, -71.0771
0.839698, -1, 23.0483, 23.9663, 15.1799, 12.7558, 104.848, -71.3389
0.847819, -1, 22.8543, 23.8675, 15.2188, 12.7582, 104.744, -71.6008
0.855697, -1, 22.6603, 23.7688, 15.2578, 12.7606, 104.641, -71.8627
0.863684, -1, 22.4666, 23.6701, 15.2968, 12.7631, 104.538, -72.1241
0.871707, -1, 22.2732, 23.5714, 15.3358, 12.7656, 104.434, -72.3855
0.879786, -1, 22.08, 23.4727, 15.3747, 12.7683, 104.331, -72.647
0.887705, -1, 21.887, 23.374, 15.4137, 12.7708, 104.228, -72.9087
0.895699, -1, 21.6945, 23.2753, 15.4527, 12.7735, 104.124, -73.17
0.903754, -1, 21.5024, 23.1765, 15.4916, 12.7762, 104.021, -73.4314
0.911701, -1, 21.3101, 23.0777, 15.5305, 12.7788, 103.918, -73.693
0.919696, -1, 21.1177, 22.9791, 15.5695, 12.7814, 103.815, -73.9547
0.929334, -1, 20.8291, 22.8311, 15.6279, 12.7854, 103.66, -74.3464
0.935743, -1, 20.7328, 22.7818, 15.6474, 12.7868, 103.609, -74.477
0.943776, -1, 20.5401, 22.6832, 15.6863, 12.7895, 103.505, -74.7382
0.951695, -1, 20.347, 22.5845, 15.7251, 12.7922, 103.403, -74.9996
0.960755, -1, 20.1534, 22.4858, 15.7641, 12.7949, 103.3, -75.2608
0.967762, -1, 19.9598, 22.3871, 15.803, 12.7976, 103.196, -75.5218
0.975761, -1, 19.7662, 22.2884, 15.8417, 12.8004, 103.094, -75.783
0.984791, -1, 19.5726, 22.1898, 15.8806, 12.8031, 102.991, -76.0443
0.991775, -1, 19.3791, 22.0912, 15.9196, 12.8059, 102.887, -76.3056
0.999694, -1, 19.186, 21.9925, 15.9584, 12.8086, 102.785, -76.5664
1.0077, -1, 18.9933, 21.8939, 15.9974, 12.8113, 102.681, -76.8272
1.01576, -1, 18.8008, 21.7952, 16.0362, 12.814, 102.578, -77.0883
1.0237, -1, 18.6086, 21.6964, 16.0749, 12.8168, 102.476, -77.3493
1.03169, -1, 18.4168, 21.5979, 16.1138, 12.8195, 102.373, -77.61
1.03976, -1, 18.2249, 21.4993, 16.1527, 12.8221, 102.27, -77.8708
1.04773, -1, 18.033, 21.4008, 16.1915, 12.8247, 102.167, -78.1316
1.05569, -1, 17.8412, 21.3025, 16.2304, 12.8272, 102.064, -78.3924
1.06377, -1, 17.6492, 21.2041, 16.2693, 12.8298, 101.961, -78.653
1.07169, -1, 17.4568, 21.1058, 16.3081, 12.8323, 101.858, -78.9133
1.07969, -1, 17.2639, 21.0075, 16.347, 12.8349, 101.755, -79.1738
1.08775, -1, 17.0709, 20.9093, 16.3857, 12.8373, 101.652, -79.4345
1.09569, -1, 16.8779, 20.811, 16.4245, 12.8396, 101.549, -79.695
1.10375, -1, 16.6848, 20.7129, 16.4634, 12.842, 101.446, -79.9555
1.11176, -1, 16.4918, 20.6147, 16.502, 12.8443, 101.344, -80.216
1.11969, -1, 16.299, 20.5164, 16.5408, 12.8466, 101.241, -80.4767
1.12777, -1, 16.1068, 20.418, 16.5795, 12.849, 101.139, -80.7372
1.13571, -1, 15.9148, 20.3196, 16.6182, 12.8513, 101.036, -80.9973
1.14374, -1, 15.7231, 20.2211, 16.657, 12.8536, 100.933, -81.2573
1.15184, -1, 15.5318, 20.1227, 16.6956, 12.856, 100.831, -81.5174
1.1598, -1, 15.3405, 20.0244, 16.7342, 12.8583, 100.728, -81.7776
1.1678, -1, 15.1494, 19.9261, 16.773, 12.8606, 100.625, -82.0374
1.17585, -1, 14.9582, 19.8279, 16.8117, 12.8629, 100.523, -82.2972
1.18381, -1, 14.7668, 19.7298, 16.8504, 12.8652, 100.42, -82.5572
1.1918, -1, 14.5753, 19.6316, 16.8891, 12.8674, 100.318, -82.8174
1.19986, -1, 14.3835, 19.5335, 16.9278, 12.8698, 100.215, -83.0771
1.20772, -1, 14.1912, 19.4355, 16.9665, 12.872, 100.113, -83.3365
1.21592, -1, 13.999, 19.3375, 17.0052, 12.8743, 100.01, -83.5961
1.22384, -1, 13.8066, 19.2397, 17.0438, 12.8766, 99.9076, -83.8558
1.23181, -1, 13.6141, 19.1418, 17.0824, 12.8789, 99.8051, -84.1153
1.23995, -1, 13.4218, 19.0439, 17.1211, 12.8812, 99.7025, -84.3747
1.24668, -1, 13.3257, 18.9949, 17.1404, 12.8823, 99.6514, -84.5044
1.25597, -1, 13.0382, 18.8481, 17.1982, 12.8859, 99.4979, -84.8933
1.26444, -1, 12.847, 18.7501, 17.2368, 12.8882, 99.3953, -85.1526
1.2722, -1, 12.656, 18.6521, 17.2754, 12.8906, 99.2933, -85.4116
1.28017, -1, 12.4653, 18.5543, 17.3139, 12.8931, 99.1909, -85.6705
1.28863, -1, 12.2751, 18.4565, 17.3525, 12.8954, 99.0885, -85.9294
1.29628, -1, 12.0849, 18.3587, 17.3909, 12.8979, 98.9866, -86.1886
1.30502, -1, 11.8945, 18.2611, 17.4295, 12.9002, 98.8844, -86.4473
1.31243, -1, 11.7993, 18.1635, 17.4681, 12.9026, 98.7825, -86.7057
1.32032, -1, 11.6087, 18.1147, 17.4874, 12.9051, 98.6808, -86.9644
1.32771, -1, 11.4178, 18.017, 17.5259, 12.9063, 98.6298, -87.0938
1.33552, -1, 11.2266, 17.9195, 17.5645, 12.9087, 98.5278, -87.3524
1.34268, -1, 11.0352, 17.822, 17.603, 12.9111, 98.426, -87.6107
1.3517, -1, 10.8437, 17.7246, 17.6415, 12.9137, 98.324, -87.8688
1.35951, -1, 10.652, 17.6271, 17.6799, 12.9162, 98.2219, -88.1271
1.36773, -1, 10.4605, 17.5295, 17.7183, 12.9187, 98.1203, -88.3855
1.37567, -1, 10.2695, 17.432, 17.7567, 12.9212, 98.0183, -88.6435
1.38353, -1, 10.0786, 17.3345, 17.7951, 12.9238, 97.9164, -88.9016
1.3907, -1, 9.88819, 17.2369, 17.8335, 12.9265, 97.8147, -89.1597
1.39968, -1, 9.69802, 17.1393, 17.8718, 12.9291, 97.7126, -89.4179
1.40748, -1, 9.50836, 17.0419, 17.9101, 12.9319, 97.6107, -89.6759
1.41569, -1, 9.31905, 16.9446, 17.9485, 12.9346, 97.5089, -89.9335
1.42369, -1, 9.12968, 16.8472, 17.9869, 12.9373, 97.407, -90.191
1.43148, -1, 8.9403, 16.7501, 18.0252, 12.94, 97.3051, -90.4486
1.43968, -1, 8.75079, 16.6529, 18.0636, 12.9426, 97.2035, -90.7061
1.44768, -1, 8.56116, 16.5557, 18.102, 12.9452, 97.1018, -90.9633
1.45668, -1, 8.37136, 16.4586, 18.1404, 12.9479, 97.0004, -91.2205
1.46372, -1, 8.18114, 16.3616, 18.1787, 12.9506, 96.8989, -91.4776
1.47268, -1, 7.99066, 16.2648, 18.2171, 12.9532, 96.7972, -91.735
1.47954, -1, 7.80017, 16.1679, 18.2553, 12.9559, 96.6958, -91.9919
1.48768, -1, 7.6096, 16.0709, 18.2936, 12.9585, 96.5943, -92.2485
1.4957, -1, 7.41921, 15.974, 18.332, 12.9611, 96.4928, -92.5053
1.50375, -1, 7.2291, 15.8771, 18.3701, 12.9636, 96.3917, -92.7622
1.51168, -1, 7.03926, 15.7801, 18.4083, 12.9662, 96.2903, -93.0188
1.51974, -1, 6.84977, 15.6831, 18.4466, 12.9688, 96.189, -93.2754
1.5277, -1, 6.6608, 15.5862, 18.4847, 12.9714, 96.0884, -93.5317
1.53565, -1, 6.47231, 15.4894, 18.5227, 12.9739, 95.9872, -93.7881
1.54376, -1, 6.28408, 15.3927, 18.5609, 12.9764, 95.8861, -94.0446
1.55173, -1, 6.09594, 15.2959, 18.5991, 12.9789, 95.7854, -94.3006
1.55968, -1, 5.90768, 15.1993, 18.6372, 12.9813, 95.6842, -94.5565
1.56774, -1, 5.7193, 15.1026, 18.6754, 12.9836, 95.5832, -94.8124
1.57568, -1, 5.53079, 15.006, 18.7134, 12.9859, 95.4827, -95.0683
1.58369, -1, 5.34199, 14.9094, 18.7515, 12.9883, 95.3818, -95.324
1.59174, -1, 5.15285, 14.813, 18.7897, 12.9905, 95.2811, -95.5793
1.59969, -1, 4.96348, 14.7167, 18.8278, 12.9928, 95.1806, -95.8349
1.60768, -1, 4.77411, 14.6203, 18.8658, 12.9951, 95.0798, -96.0905
1.61574, -1, 4.5847, 14.5239, 18.9039, 12.9972, 94.979, -96.3457
1.62427, -1, 4.39551, 14.4276, 18.9419, 12.9994, 94.8783, -96.6006
1.63168, -1, 4.20658, 14.3312, 18.9799, 13.0016, 94.7774, -96.8554
1.63974, -1, 4.0179, 14.2347, 19.0178, 13.0039, 94.6766, -97.1106
1.6485, -1, 3.82985, 14.1385, 19.0557, 13.0062, 94.5759, -97.3656
1.65582, -1, 3.64228, 14.0423, 19.0937, 13.0084, 94.475, -97.6203
1.66405, -1, 3.45509, 13.9461, 19.1316, 13.0107, 94.3744, -97.875
1.67131, -1, 3.26809, 13.85, 19.1694, 13.0131, 94.2737, -98.1297
1.67984, -1, 3.08106, 13.754, 19.2073, 13.0153, 94.173, -98.3845
1.68817, -1, 2.89403, 13.6579, 19.2452, 13.0175, 94.0724, -98.6389
1.69615, -1, 2.80051, 13.6099, 19.2831, 13.0198, 93.9718, -98.893
1.70266, -1, 2.61336, 13.5139, 19.302, 13.0209, 93.9215, -99.02
1.71245, -1, 2.33222, 13.37, 19.3587, 13.0244, 93.771, -99.4014
1.72055, -1, 2.14443, 13.2743, 19.3965, 13.0266, 93.6706, -99.6554
1.7278, -1, 1.95639, 13.1785, 19.4344, 13.0288, 93.5705, -99.909
1.73674, -1, 1.76827, 13.0826, 19.4721, 13.0312, 93.4707, -100.163
1.74481, -1, 1.58002, 12.9868, 19.5098, 13.0333, 93.3705, -100.416
1.75202, -1, 1.39195, 12.891, 19.5477, 13.0356, 93.2704, -100.67
1.75866, -1, 1.29801, 12.843, 19.5665, 13.0368, 93.2205, -100.796
1.76673, -1, 1.1104, 12.7472, 19.6042, 13.0391, 93.1205, -101.05
1.77615, -1, 0.829945, 12.6038, 19.6609, 13.0427, 92.9704, -101.429
1.78506, -1, 0.643648, 12.5082, 19.6984, 13.0451, 92.8709, -101.682
1.79225, -1, 0.457709, 12.4127, 19.736, 13.0475, 92.771, -101.935
1.80031, -1, 0.272039, 12.3174, 19.7738, 13.0499, 92.6712, -102.188
1.80908, -1, 0.0865685, 12.222, 19.8113, 13.0524, 92.572, -102.44
1.81628, -1, -0.00611094, 12.1743, 19.8489, 13.0548, 92.4722, -102.693
1.82266, -1, -0.191662, 12.0791, 19.8677, 13.056, 92.4224, -102.819
1.83338, -1, -0.470386, 11.9363, 19.9241, 13.0598, 92.2734, -103.198
1.83972, -1, -0.563464, 11.8887, 19.9429, 13.061, 92.2235, -103.324
1.84772, -1, -0.749772, 11.7938, 19.9804, 13.0635, 92.1241, -103.576
1.85566, -1, -0.936314, 11.6987, 20.0179, 13.0659, 92.0248, -103.828
1.86282, -1, -1.12303, 11.6036, 20.0553, 13.0685, 91.9254, -104.08
1.87173, -1, -1.31003, 11.5085, 20.0929, 13.071, 91.8261, -104.331
1.87967, -1, -1.49688, 11.4134, 20.1305, 13.0735, 91.727, -104.583
1.88666, -1, -1.68342, 11.3183, 20.1678, 13.0761, 91.6277, -104.835
1.89567, -1, -1.86964, 11.2232, 20.2052, 13.0787, 91.5285, -105.086
1.90366, -1, -2.05549, 11.1283, 20.2427, 13.0813, 91.4295, -105.337
1.91066, -1, -2.2406, 11.0334, 20.28, 13.084, 91.3302, -105.588
1.91966, -1, -2.42537, 10.9385, 20.3174, 13.0866, 91.2309, -105.839
1.92768, -1, -2.60985, 10.8438, 20.3547, 13.0893, 91.132, -106.09
1.93466, -1, -2.79384, 10.749, 20.392, 13.092, 91.0329, -106.341
1.94367, -1, -2.97781, 10.6542, 20.4294, 13.0946, 90.9338, -106.592
1.95167, -1, -3.16185, 10.5595, 20.4668, 13.0972, 90.8351, -106.842
1.96065, -1, -3.34615, 10.465, 20.504, 13.0999, 90.736, -107.093
1.96667, -1, -3.53079, 10.3705, 20.5413, 13.1024, 90.6371, -107.344
1.97566, -1, -3.71551, 10.2762, 20.5785, 13.105, 90.5384, -107.594
1.98373, -1, -3.90053, 10.1818, 20.6158, 13.1074, 90.4395, -107.844
1.99168, -1, -4.08586, 10.0874, 20.6531, 13.1098, 90.3408, -108.093
1.99968, -1, -4.27139, 9.99313, 20.6903, 13.1123, 90.2423, -108.344
2.00772, -1, -4.45694, 9.89881, 20.7274, 13.1147, 90.1436, -108.593
2.01566, -1, -4.64219, 9.80448, 20.7648, 13.117, 90.0451, -108.843
2.02373, -1, -4.82711, 9.71027, 20.8019, 13.1194, 89.9468, -109.092
2.03166, -1, -5.01166, 9.61619, 20.8389, 13.1218, 89.8482, -109.342
2.03966, -1, -5.19546, 9.52214, 20.8761, 13.1241, 89.7498, -109.591
2.04774, -1, -5.37887, 9.42809, 20.9132, 13.1265, 89.6515, -109.84
2.0557, -1, -5.56188, 9.33417, 20.9503, 13.1288, 89.553, -110.089
2.06366, -1, -5.74447, 9.24025, 20.9874, 13.1311, 89.4548, -110.338
2.07173, -1, -5.92681, 9.14635, 21.0244, 13.1335, 89.3569, -110.586
2.07966, -1, -6.10919, 9.05248, 21.0614, 13.1357, 89.2586, -110.835
2.08767, -1, -6.29191, 8.95868, 21.0985, 13.1379, 89.1606, -111.083
2.09578, -1, -6.47485, 8.86501, 21.1354, 13.1401, 89.0629, -111.332
2.10366, -1, -6.65798, 8.77133, 21.1722, 13.1423, 88.9648, -111.58
2.11167, -1, -6.84155, 8.67769, 21.2091, 13.1444, 88.8668, -111.828
2.11973, -1, -7.02538, 8.58408, 21.246, 13.1465, 88.769, -112.076
2.12767, -1, -7.20956, 8.49053, 21.2829, 13.1487, 88.6711, -112.324
2.13576, -1, -7.3937, 8.39691, 21.3198, 13.1508, 88.5733, -112.571
2.14367, -1, -7.57751, 8.30329, 21.3567, 13.153, 88.4758, -112.819
2.1517, -1, -7.76101, 8.20988, 21.3934, 13.1551, 88.3781, -113.066
2.15981, -1, -7.94414, 8.11648, 21.4303, 13.1574, 88.2808, -113.313
2.16782, -1, -8.12679, 8.02311, 21.4671, 13.1596, 88.1835, -113.561
2.17581, -1, -8.30865, 7.92984, 21.5037, 13.1618, 88.086, -113.808
2.18384, -1, -8.49003, 7.83657, 21.5406, 13.1641, 87.9886, -114.055
2.19177, -1, -8.67105, 7.74339, 21.5774, 13.1664, 87.8913, -114.301
2.19972, -1, -8.85179, 7.65022, 21.6142, 13.1687, 87.7938, -114.548
2.20789, -1, -9.03251, 7.55714, 21.6509, 13.1709, 87.6964, -114.794
2.21569, -1, -9.21359, 7.46408, 21.6876, 13.1731, 87.5993, -115.041
2.22375, -1, -9.39482, 7.37128, 21.7243, 13.1753, 87.5022, -115.287
2.23198, -1, -9.5765, 7.27842, 21.761, 13.1775, 87.405, -115.533
2.23979, -1, -9.75844, 7.18557, 21.7977, 13.1798, 87.308, -115.779
2.24802, -1, -9.9408, 7.09283, 21.8341, 13.182, 87.2106, -116.025
2.25466, -1, -10.032, 7.04645, 21.8524, 13.1831, 87.1621, -116.148
2.26397, -1, -10.3059, 6.90731, 21.9073, 13.1864, 87.0164, -116.517
2.27215, -1, -10.4885, 6.81456, 21.9439, 13.1886, 86.9192, -116.762
2.28028, -1, -10.6707, 6.72187, 21.9805, 13.1909, 86.8221, -117.008
2.28815, -1, -10.8525, 6.6293, 22.017, 13.1933, 86.7254, -117.253
2.29628, -1, -11.0339, 6.53671, 22.0533, 13.1958, 86.6284, -117.499
2.30443, -1, -11.2144, 6.4442, 22.0899, 13.1981, 86.5318, -117.743
2.31222, -1, -11.3944, 6.35172, 22.1265, 13.2006, 86.4352, -117.988
2.32033, -1, -11.574, 6.2593, 22.1629, 13.2029, 86.3384, -118.233
2.32854, -1, -11.6636, 6.21309, 22.1811, 13.2041, 86.2901, -118.355
2.33568, -1, -11.8428, 6.12071, 22.2176, 13.2067, 86.1936, -118.6
2.34376, -1, -12.0221, 6.02843, 22.254, 13.2091, 86.0968, -118.844
2.35166, -1, -12.2014, 5.93625, 22.2904, 13.2116, 86.0003, -119.088
2.35966, -1, -12.3811, 5.84422, 22.3269, 13.2141, 85.9041, -119.333
2.36775, -1, -12.5612, 5.75217, 22.3631, 13.2166, 85.8077, -119.577
2.37565, -1, -12.7416, 5.66017, 22.3993, 13.2191, 85.7114, -119.821
2.38365, -1, -12.9224, 5.56823, 22.4357, 13.2215, 85.6155, -120.064
2.39169, -1, -13.1035, 5.47625, 22.472, 13.2239, 85.5194, -120.308
2.39967, -1, -13.2848, 5.38425, 22.5082, 13.2263, 85.4235, -120.552
2.4067, -1, -13.4658, 5.2923, 22.5445, 13.2288, 85.3278, -120.795
2.41565, -1, -13.6464, 5.2004, 22.5807, 13.2313, 85.2319, -121.038
2.42366, -1, -13.8267, 5.10856, 22.6168, 13.2339, 85.1361, -121.281
2.43173, -1, -14.0063, 5.01677, 22.653, 13.2365, 85.0405, -121.524
2.43967, -1, -14.185, 4.92508, 22.6892, 13.239, 84.9449, -121.767
2.44766, -1, -14.3633, 4.83339, 22.7252, 13.2416, 84.8492, -122.01
2.4547, -1, -14.5412, 4.74178, 22.7615, 13.2442, 84.7538, -122.252
2.46368, -1, -14.7189, 4.65016, 22.7978, 13.2467, 84.6581, -122.495
2.47265, -1, -14.8965, 4.55865, 22.8338, 13.2492, 84.5624, -122.737
2.47973, -1, -15.0742, 4.46721, 22.87, 13.2516, 84.4667, -122.98
2.48765, -1, -15.2522, 4.37591, 22.9061, 13.2541, 84.3711, -123.222
2.49567, -1, -15.4306, 4.28458, 22.9422, 13.2565, 84.2754, -123.463
2.50367, -1, -15.6095, 4.19328, 22.9782, 13.2588, 84.1799, -123.705
2.5117, -1, -15.7887, 4.10204, 23.0143, 13.2612, 84.0843, -123.947
2.51974, -1, -15.9679, 4.01081, 23.0502, 13.2635, 83.9888, -124.189
2.52766, -1, -16.1475, 3.91954, 23.0862, 13.2656, 83.8935, -124.43
2.53572, -1, -16.3272, 3.82827, 23.1223, 13.2677, 83.798, -124.671
2.54373, -1, -16.5067, 3.73707, 23.1581, 13.2699, 83.7026, -124.913
2.55165, -1, -16.6857, 3.64596, 23.1939, 13.2721, 83.6071, -125.154
2.5597, -1, -16.8641, 3.55486, 23.2298, 13.2745, 83.5118, -125.395
2.56818, -1, -17.0417, 3.46381, 23.2656, 13.2767, 83.4164, -125.636
2.57481, -1, -17.2186, 3.37288, 23.3015, 13.2789, 83.3211, -125.877
2.58364, -1, -17.395, 3.28205, 23.3373, 13.2811, 83.2262, -126.117
2.59243, -1, -17.5714, 3.19117, 23.3731, 13.2832, 83.131, -126.358
2.59966, -1, -17.7476, 3.10052, 23.409, 13.2854, 83.0362, -126.598
2.60765, -1, -17.9235, 3.00991, 23.4449, 13.2875, 82.9415, -126.838
2.61649, -1, -18.0997, 2.91944, 23.4806, 13.2896, 82.8466, -127.078
2.62365, -1, -18.2762, 2.82906, 23.5163, 13.2918, 82.7518, -127.319
2.63171, -1, -18.4532, 2.73861, 23.5521, 13.2938, 82.6573, -127.558
2.64046, -1, -18.6306, 2.64821, 23.5877, 13.2959, 82.5625, -127.798
2.64768, -1, -18.8083, 2.55788, 23.6234, 13.2979, 82.4679, -128.038
2.65578, -1, -18.9864, 2.46744, 23.6591, 13.2999, 82.3737, -128.277
2.66458, -1, -19.1647, 2.37696, 23.6947, 13.3019, 82.2792, -128.516
2.67176, -1, -19.3429, 2.28659, 23.7303, 13.3038, 82.1848, -128.756
2.67986, -1, -19.5205, 2.19619, 23.766, 13.306, 82.091, -128.995
2.68852, -1, -19.6975, 2.1058, 23.8014, 13.3082, 81.9966, -129.234
2.69575, -1, -19.8741, 2.0155, 23.8368, 13.3104, 81.9024, -129.473
2.70383, -1, -20.0498, 1.92524, 23.8724, 13.3126, 81.8085, -129.712
2.71255, -1, -20.225, 1.83502, 23.908, 13.3148, 81.7143, -129.95
2.71969, -1, -20.4, 1.74491, 23.9434, 13.317, 81.6202, -130.188
2.72779, -1, -20.5747, 1.65481, 23.979, 13.3191, 81.5265, -130.427
2.73663, -1, -20.7491, 1.56485, 24.0144, 13.3213, 81.4325, -130.665
2.74383, -1, -20.9237, 1.47498, 24.0498, 13.3235, 81.3387, -130.903
2.75192, -1, -21.0987, 1.38524, 24.0853, 13.3257, 81.2451, -131.141
2.75864, -1, -21.1863, 1.34036, 24.1031, 13.3268, 81.1982, -131.26
2.76809, -1, -21.4497, 1.20573, 24.1562, 13.33, 81.0573, -131.617
2.77464, -1, -21.5377, 1.16091, 24.1738, 13.3311, 81.0103, -131.736
2.78678, -1, -21.8019, 1.02647, 24.227, 13.3344, 80.8697, -132.092
2.79219, -1, -21.9783, 0.936817, 24.2624, 13.3366, 80.7759, -132.329
2.80022, -1, -22.1548, 0.847248, 24.2978, 13.3387, 80.6823, -132.566
2.80903, -1, -22.3313, 0.757727, 24.3331, 13.3409, 80.5886, -132.803
2.81464, -1, -22.4195, 0.712994, 24.3507, 13.3421, 80.5418, -132.922
2.82422, -1, -22.5953, 0.623455, 24.3859, 13.3456, 80.4015, -133.277
2.83309, -1, -22.7707, 0.534001, 24.4211, 13.3467, 80.3079, -133.514
2.83968, -1, -22.9452, 0.44459, 24.4564, 13.3492, 80.261, -133.632
2.84769, -1, -23.1189, 0.355167, 24.4915, 13.3515, 80.1674, -133.869
2.85568, -1, -23.2925, 0.265835, 24.5266, 13.354, 80.0742, -134.106
2.86263, -1, -23.4656, 0.176561, 24.5618, 13.3565, 79.9805, -134.342
2.87162, -1, -23.6387, 0.087412, 24.597, 13.3588, 79.8873, -134.578
2.87974, -1, -23.812, -0.00169983, 24.6321, 13.3612, 79.7942, -134.815
2.88663, -1, -23.9854, -0.0906356, 24.6673, 13.3637, 79.701, -135.051
2.89567, -1, -24.1591, -0.17964, 24.7023, 13.3661, 79.6079, -135.287
2.90374, -1, -24.333, -0.268606, 24.7374, 13.3685, 79.5149, -135.522
2.9107, -1, -24.5073, -0.35751, 24.7726, 13.371, 79.4218, -135.758
2.91964, -1, -24.6819, -0.446443, 24.8076, 13.3734, 79.3288, -135.993
2.9277, -1, -24.8569, -0.535339, 24.8426, 13.3758, 79.2357, -136.229
2.93463, -1, -25.032, -0.624198, 24.8777, 13.3782, 79.1428, -136.464
2.94363, -1, -25.2069, -0.713033, 24.9127, 13.3806, 79.0498, -136.699
2.9517, -1, -25.3815, -0.801777, 24.9477, 13.383, 78.9571, -136.934
2.95867, -1, -25.5556, -0.890564, 24.9828, 13.3854, 78.8644, -137.169
2.96765, -1, -25.7292, -0.979282, 25.0176, 13.3879, 78.7716, -137.404
2.97571, -1, -25.9021, -1.06798, 25.0525, 13.3903, 78.679, -137.639
2.98363, -1, -26.0746, -1.15667, 25.0876, 13.3928, 78.5868, -137.873
2.99163, -1, -26.2467, -1.24532, 25.1225, 13.3952, 78.494, -138.108
2.99971, -1, -26.4184, -1.33383, 25.1573, 13.3976, 78.4014, -138.342
3.00765, -1, -26.5902, -1.42224, 25.1923, 13.3999, 78.3092, -138.577
3.01569, -1, -26.7622, -1.51059, 25.2273, 13.4021, 78.2166, -138.811
3.0237, -1, -26.9344, -1.5988, 25.2621, 13.4044, 78.1242, -139.045
3.03164, -1, -27.1069, -1.68694, 25.297, 13.4066, 78.0321, -139.279
3.03964, -1, -27.2795, -1.77522, 25.3319, 13.4088, 77.9398, -139.513
3.0477, -1, -27.4524, -1.86331, 25.3666, 13.411, 77.8478, -139.746
3.05563, -1, -27.6255, -1.95143, 25.4014, 13.413, 77.7559, -139.98
3.06373, -1, -27.7987, -2.03963, 25.4364, 13.4152, 77.6638, -140.213
3.07165, -1, -27.972, -2.12767, 25.4711, 13.4173, 77.5718, -140.447
3.07966, -1, -28.1453, -2.21567, 25.5058, 13.4193, 77.4798, -140.68
3.08769, -1, -28.3184, -2.30369, 25.5407, 13.4214, 77.3878, -140.913
3.09563, -1, -28.4913, -2.39177, 25.5754, 13.4234, 77.2956, -141.146
3.10363, -1, -28.6637, -2.47966, 25.61, 13.4256, 77.2035, -141.379
3.11172, -1, -28.8354, -2.56763, 25.6448, 13.4277, 77.1116, -141.612
3.11963, -1, -29.0064, -2.65561, 25.6795, 13.4299, 77.0197, -141.845
3.12764, -1, -29.1771, -2.74347, 25.714, 13.4321, 76.9277, -142.077
3.13572, -1, -29.3476, -2.8313, 25.7487, 13.4341, 76.8361, -142.309
3.14364, -1, -29.5183, -2.919, 25.7834, 13.4362, 76.7441, -142.542
3.15169, -1, -29.6892, -3.00659, 25.8179, 13.4382, 76.6522, -142.774
3.15975, -1, -29.8602, -3.09414, 25.8525, 13.4403, 76.5606, -143.007
3.16773, -1, -30.0312, -3.18162, 25.8871, 13.4424, 76.4686, -143.239
3.17602, -1, -30.2021, -3.26914, 25.9216, 13.4444, 76.377, -143.471
3.18382, -1, -30.3733, -3.3566, 25.9562, 13.4465, 76.2855, -143.703
3.19174, -1, -30.5449, -3.44403, 25.9908, 13.4486, 76.1938, -143.935
3.20034, -1, -30.7166, -3.53154, 26.0252, 13.4506, 76.1025, -144.166
3.2078, -1, -30.8885, -3.61888, 26.0597, 13.4527, 76.0112, -144.397
3.21565, -1, -31.0603, -3.70626, 26.0943, 13.4546, 75.9198, -144.629
3.22446, -1, -31.2319, -3.79363, 26.1288, 13.4568, 75.8283, -144.86
3.23171, -1, -31.4033, -3.88096, 26.1632, 13.4588, 75.7371, -145.092
3.23972, -1, -31.5741, -3.96824, 26.1977, 13.461, 75.6458, -145.323
3.24879, -1, -31.7446, -4.05552, 26.2321, 13.4632, 75.5545, -145.554
3.25585, -1, -31.9146, -4.14285, 26.2665, 13.4653, 75.4634, -145.785
3.264, -1, -32.0843, -4.23006, 26.3009, 13.4675, 75.3725, -146.015
3.27069, -1, -32.169, -4.27362, 26.3181, 13.4686, 75.3268, -146.131
3.27867, -1, -32.3384, -4.36076, 26.3525, 13.4708, 75.2357, -146.362
3.28814, -1, -32.5928, -4.49127, 26.4039, 13.474, 75.0996, -146.707
3.29712, -1, -32.7625, -4.57819, 26.4384, 13.4761, 75.0085, -146.938
3.30267, -1, -32.8473, -4.62166, 26.4555, 13.4772, 74.9632, -147.053
3.31223, -1, -33.1018, -4.75205, 26.5068, 13.4804, 74.8272, -147.398
3.32103, -1, -33.1867, -4.83892, 26.5412, 13.4827, 74.7364, -147.628
3.32822, -1, -33.3566, -4.88232, 26.5583, 13.4838, 74.6458, -147.858
3.33638, -1, -33.5267, -4.96925, 26.5925, 13.4861, 74.5553, -148.088
3.34366, -1, -33.697, -5.05614, 26.6267, 13.4883, 74.5102, -148.203
3.35167, -1, -33.8673, -5.14288, 26.661, 13.4905, 74.4194, -148.433
3.35967, -1, -34.0375, -5.22962, 26.6951, 13.4927, 74.329, -148.662
3.36762, -1, -34.2077, -5.31635, 26.7292, 13.495, 74.2386, -148.892
3.37565, -1, -34.3778, -5.40302, 26.7635, 13.4973, 74.1479, -149.121
3.38365, -1, -34.5476, -5.48966, 26.7977, 13.4996, 74.0573, -149.351
3.39162, -1, -34.7169, -5.57635, 26.8317, 13.502, 73.9669, -149.58
3.39971, -1, -34.8855, -5.66297, 26.8659, 13.5044, 73.8763, -149.809
3.40762, -1, -35.054, -5.74952, 26.9, 13.5069, 73.7858, -150.038
3.41562, -1, -35.2222, -5.83601, 26.934, 13.5093, 73.6955, -150.267
3.42368, -1, -35.3906, -5.92236, 26.9681, 13.5118, 73.6052, -150.496
3.43162, -1, -35.5591, -6.00857, 27.0022, 13.5141, 73.5148, -150.725
3.43963, -1, -35.7276, -6.09483, 27.0362, 13.5165, 73.4244, -150.953
3.44661, -1, -35.8962, -6.181, 27.0703, 13.5188, 73.3342, -151.182
3.45562, -1, -36.0647, -6.26712, 27.1044, 13.5213, 73.2437, -151.41
3.46369, -1, -36.2332, -6.35323, 27.1383, 13.5237, 73.1533, -151.639
3.47261, -1, -36.4019, -6.43945, 27.1723, 13.526, 73.0631, -151.868
3.47961, -1, -36.5707, -6.52568, 27.2063, 13.5284, 72.9725, -152.096
3.48763, -1, -36.7396, -6.61183, 27.2402, 13.5307, 72.8823, -152.324
3.49562, -1, -36.9086, -6.698, 27.2741, 13.533, 72.7923, -152.552
3.50364, -1, -37.0777, -6.78417, 27.308, 13.5352, 72.7022, -152.78
3.51447, -1, -37.2464, -6.87028, 27.3419, 13.5375, 72.6122, -153.122
3.51968, -1, -37.415, -6.95631, 27.3757, 13.5398, 72.5225, -153.236
3.52769, -1, -37.5831, -7.0424, 27.4097, 13.542, 72.4325, -153.463
3.53562, -1, -37.7509, -7.12844, 27.4436, 13.5443, 72.3427, -153.691
3.54462, -1, -37.9184, -7.21442, 27.4774, 13.5466, 72.2529, -153.918
3.55168, -1, -38.0859, -7.30032, 27.5113, 13.5488, 72.1632, -154.146
3.55963, -1, -38.2533, -7.38619, 27.5452, 13.551, 72.0734, -154.373
3.56765, -1, -38.4206, -7.4719, 27.579, 13.5532, 71.9837, -154.6
3.57569, -1, -38.5879, -7.55761, 27.6128, 13.5552, 71.8943, -154.827
3.58373, -1, -38.7552, -7.64331, 27.6468, 13.5573, 71.8045, -155.055
3.59161, -1, -38.9225, -7.72899, 27.6805, 13.5594, 71.715, -155.282
3.59971, -1, -39.0898, -7.8146, 27.7142, 13.5614, 71.6259, -155.508
3.60762, -1, -39.2574, -7.90025, 27.7481, 13.5635, 71.5364, -155.735
3.61561, -1, -39.4249, -7.98594, 27.7819, 13.5654, 71.447, -155.962
3.6237, -1, -39.5924, -8.07153, 27.8155, 13.5674, 71.3577, -156.189
3.63162, -1, -39.7602, -8.15707, 27.8492, 13.5693, 71.2683, -156.415
3.63963, -1, -39.9277, -8.24254, 27.883, 13.5713, 71.1791, -156.642
3.64792, -1, -40.0953, -8.32799, 27.9166, 13.5733, 71.0896, -156.868
3.65565, -1, -40.2628, -8.41337, 27.9503, 13.5752, 71.0006, -157.094
3.66369, -1, -40.43, -8.49874, 27.9841, 13.5772, 70.9111, -157.32
3.67203, -1, -40.5971, -8.58411, 28.0177, 13.5792, 70.8219, -157.547
3.67975, -1, -40.764, -8.6695, 28.0512, 13.5812, 70.7329, -157.772
3.68775, -1, -40.9305, -8.75483, 28.0849, 13.5832, 70.6436, -157.998
3.69615, -1, -41.0969, -8.84016, 28.1186, 13.5852, 70.5545, -158.224
3.70322, -1, -41.1801, -8.88281, 28.1354, 13.5862, 70.4656, -158.45
3.7119, -1, -41.4293, -9.01058, 28.1857, 13.5893, 70.3762, -158.676
3.72038, -1, -41.5956, -9.09576, 28.2194, 13.5912, 70.287, -158.901
3.72766, -1, -41.7619, -9.18086, 28.2529, 13.5933, 70.1979, -159.127
3.73569, -1, -41.9283, -9.26589, 28.2864, 13.5953, 70.1089, -159.352
3.74467, -1, -42.0947, -9.35091, 28.3201, 13.5973, 70.0199, -159.578
3.75187, -1, -42.2609, -9.43596, 28.3536, 13.5993, 69.9309, -159.803
3.75991, -1, -42.4271, -9.52095, 28.3871, 13.6014, 69.8422, -160.028
3.76878, -1, -42.5935, -9.60593, 28.4207, 13.6033, 69.7531, -160.253
3.77604, -1, -42.7599, -9.69087, 28.4542, 13.6054, 69.6642, -160.478
3.7826, -1, -42.8431, -9.73336, 28.4709, 13.6064, 69.6198, -160.591
3.79215, -1, -43.0928, -9.86075, 28.5211, 13.6094, 69.4867, -160.929
3.80092, -1, -43.259, -9.94571, 28.5546, 13.6115, 69.398, -161.153
3.8082, -1, -43.4252, -10.0306, 28.588, 13.6136, 69.3094, -161.378
3.81616, -1, -43.5911, -10.1155, 28.6215, 13.6158, 69.2208, -161.603
3.825, -1, -43.6741, -10.1581, 28.655, 13.6179, 69.1322, -161.828
3.83229, -1, -43.9228, -10.2853, 28.6884, 13.62, 69.0437, -162.052
3.83962, -1, -44.0056, -10.3277, 28.7051, 13.6211, 68.9996, -162.164
3.84763, -1, -44.1711, -10.4125, 28.7386, 13.6232, 68.9109, -162.388
3.85571, -1, -44.3364, -10.4971, 28.7721, 13.6254, 68.8223, -162.613
3.86361, -1, -44.5015, -10.5817, 28.8054, 13.6276, 68.7337, -162.837
3.87166, -1, -44.6667, -10.6662, 28.8388, 13.6298, 68.6451, -163.061
3.87966, -1, -44.8319, -10.7507, 28.8723, 13.632, 68.5565, -163.285
3.8876, -1, -44.9972, -10.8351, 28.9057, 13.6342, 68.4681, -163.509
3.89562, -1, -45.1625, -10.9196, 28.9391, 13.6364, 68.3798, -163.734
3.90369, -1, -45.3278, -11.0041, 28.9725, 13.6386, 68.2913, -163.958
3.91165, -1, -45.4931, -11.0885, 29.0059, 13.6408, 68.2029, -164.182
3.91961, -1, -45.6584, -11.173, 29.0391, 13.6431, 68.1149, -164.405
3.92761, -1, -45.8237, -11.2574, 29.0724, 13.6454, 68.0263, -164.629
3.93562, -1, -45.9879, -11.3413, 29.1059, 13.6477, 67.938, -164.853
3.94367, -1, -46.1492, -11.4236, 29.1393, 13.65, 67.8499, -165.076
3.95166, -1, -46.3062, -11.503, 29.1729, 13.6524, 67.7624, -165.297
3.95961, -1, -46.4564, -11.578, 29.2064, 13.6548, 67.6772, -165.512
3.96863, -1, -46.5975, -11.6478, 29.2387, 13.6571, 67.5959, -165.718
3.97562, -1, -46.727, -11.7111, 29.2685, 13.6593, 67.5213, -165.907
3.9836, -1, -46.8419, -11.7672, 29.2949, 13.6613, 67.4544, -166.076
3.99172, -1, -46.9405, -11.8163, 29.317, 13.663, 67.3987, -166.218
3.99961, -1, -47.0228, -11.8592, 29.3335, 13.6643, 67.354, -166.33
4.00761, -1, -47.0899, -11.8959, 29.3447, 13.665, 67.3205, -166.415
4.0157, -1, -47.1421, -11.9253, 29.3519, 13.6655, 67.2973, -166.473
4.02365, -1, -47.1808, -11.9473, 29.3558, 13.6657, 67.2822, -166.511
4.03166, -1, -47.2084, -11.9627, 29.3576, 13.6658, 67.2736, -166.533
4.03967, -1, -47.2264, -11.9727, 29.3584, 13.6659, 67.2688, -166.545
4.04761, -1, -47.2373, -11.9785, 29.3588, 13.6659, 67.2665, -166.55
4.05562, 2, -47.2428, -11.9814, 29.359, 13.666, 67.2654, -166.553
4.06367, 2, -47.2448, -11.9827, 29.3591, 13.666, 67.2649, -166.554
4.0717, 2, -47.2449, -11.9832, 29.3592, 13.6661, 67.2646, -166.555
4.07959, 2, -47.2446, -11.9834, 29.3593, 13.6661, 67.2645, -166.555
4.08769, 2, -47.2446, -11.9835, 29.3593, 13.6661, 67.2645, -166.555
4.09562, 2, -47.245, -11.9836, 29.3594, 13.6661, 67.2645, -166.555
4.1036, 2, -47.2459, -11.9839, 29.3594, 13.6661, 67.2645, -166.555
4.11172, 2, -47.2472, -11.9844, 29.3594, 13.6661, 67.2645, -166.555
4.1196, 2, -47.249, -11.9852, 29.3594, 13.6661, 67.2644, -166.555
4.12761, 2, -47.2506, -11.9861, 29.3594, 13.6661, 67.2644, -166.555
4.1357, 2, -47.2519, -11.9869, 29.3594, 13.6661, 67.2645, -166.555
4.1436, 2, -47.2528, -11.9876, 29.3594, 13.6661, 67.2645, -166.555
4.15166, 2, -47.2533, -11.988, 29.3594, 13.6661, 67.2645, -166.555
4.1597, 2, -47.2535, -11.9882, 29.3594, 13.6661, 67.2645, -166.555
4.16769, 2, -47.2535, -11.9882, 29.3594, 13.6661, 67.2645, -166.555
4.17571, 2, -47.2532, -11.9882, 29.3594, 13.6661, 67.2645, -166.555
4.18378, 2, -47.2527, -11.9882, 29.3594, 13.6661, 67.2645, -166.555
4.19179, 2, -47.2523, -11.9882, 29.3594, 13.6661, 67.2645, -166.555
4.19971, 2, -47.252, -11.9882, 29.3594, 13.6661, 67.2645, -166.555
4.20777, 2, -47.2518, -11.9882, 29.3594, 13.6661, 67.2645, -166.555
4.21579, 2, -47.2518, -11.9882, 29.3594, 13.6661, 67.2645, -166.555
4.22364, 2, -47.2519, -11.9884, 29.3594, 13.6661, 67.2645, -166.555
4.23175, 2, -47.2521, -11.9888, 29.3594, 13.666, 67.2645, -166.555
4.23975, 2, -47.2528, -11.9891, 29.3594, 13.6661, 67.2645, -166.555
4.24772, 2, -47.2533, -11.9894, 29.3594, 13.6661, 67.2645, -166.555
4.25585, 2, -47.2536, -11.9896, 29.3594, 13.666, 67.2645, -166.555
4.26411, 2, -47.2537, -11.9897, 29.3594, 13.6661, 67.2645, -166.555
4.27195, 2, -47.2537, -11.9897, 29.3594, 13.6661, 67.2645, -166.555
4.28005, 2, -47.2537, -11.9897, 29.3594, 13.6661, 67.2645, -166.555
4.28658, 2, -47.2536, -11.9897, 29.3594, 13.6661, 67.2645, -166.555
4.2961, 2, -47.253, -11.9896, 29.3594, 13.666, 67.2645, -166.555
4.30415, 2, -47.2527, -11.9896, 29.3594, 13.666, 67.2645, -166.555
4.31259, 2, -47.2524, -11.9895, 29.3594, 13.666, 67.2645, -166.555
4.32015, 2, -47.2523, -11.9896, 29.3594, 13.666, 67.2645, -166.555
4.32819, 2, -47.2522, -11.9896, 29.3594, 13.6661, 67.2645, -166.555
4.33623, 2, -47.2521, -11.9896, 29.3594, 13.6661, 67.2645, -166.555
4.34359, 2, -47.2521, -11.9897, 29.3594, 13.666, 67.2645, -166.555
4.35225, 2, -47.2521, -11.9897, 29.3594, 13.666, 67.2645, -166.555
4.35965, 2, -47.2521, -11.9898, 29.3594, 13.666, 67.2645, -166.555
4.36759, 2, -47.2521, -11.9898, 29.3594, 13.666, 67.2645, -166.555
4.37565, 2, -47.2522, -11.9898, 29.3594, 13.6661, 67.2645, -166.555
4.3836, 2, -47.2522, -11.9898, 29.3594, 13.666, 67.2645, -166.555
4.39164, 2, -47.2521, -11.9897, 29.3594, 13.666, 67.2645, -166.555
4.39964, 2, -47.252, -11.9896, 29.3594, 13.666, 67.2645, -166.555
4.40763, 2, -47.2519, -11.9896, 29.3594, 13.666, 67.2645, -166.555
4.4156, 2, -47.2518, -11.9895, 29.3594, 13.666, 67.2645, -166.555
4.42364, 2, -47.2517, -11.9895, 29.3594, 13.666, 67.2645, -166.555
4.43165, 2, -47.2516, -11.9895, 29.3594, 13.666, 67.2645, -166.555
4.43959, 2, -47.2515, -11.9895, 29.3594, 13.666, 67.2645, -166.555
4.44658, 2, -47.2515, -11.9896, 29.3594, 13.666, 67.2645, -166.555
4.45561, 2, -47.2514, -11.9896, 29.3594, 13.666, 67.2645, -166.555
4.46362, 2, -47.2513, -11.9896, 29.3594, 13.6659, 67.2645, -166.555
4.47171, 2, -47.2513, -11.9896, 29.3594, 13.6659, 67.2645, -166.555
4.48064, 2, -47.2512, -11.9896, 29.3594, 13.666, 67.2646, -166.555
4.48759, 2, -47.2511, -11.9896, 29.3594, 13.666, 67.2646, -166.555
4.49567, 2, -47.2511, -11.9895, 29.3594, 13.666, 67.2646, -166.555
4.50359, 2, -47.2511, -11.9895, 29.3594, 13.6659, 67.2646, -166.555
4.51164, 2, -47.2509, -11.9894, 29.3594, 13.666, 67.2646, -166.555
4.51973, 2, -47.2508, -11.9893, 29.3594, 13.6659, 67.2646, -166.555
4.52764, 2, -47.2507, -11.9893, 29.3594, 13.6659, 67.2646, -166.555
4.5356, 2, -47.2506, -11.9893, 29.3594, 13.6659, 67.2647, -166.555
4.54365, 2, -47.2506, -11.9893, 29.3594, 13.6659, 67.2646, -166.555
4.55165, 2, -47.2505, -11.9893, 29.3594, 13.6659, 67.2646, -166.555
4.55959, 2, -47.2504, -11.9893, 29.3594, 13.6659, 67.2646, -166.555
4.56766, 2, -47.2503, -11.9893, 29.3594, 13.6659, 67.2646, -166.555
4.57564, 2, -47.2502, -11.9893, 29.3594, 13.6659, 67.2646, -166.555
4.58359, 2, -47.2501, -11.9893, 29.3594, 13.6659, 67.2646, -166.555
4.59172, 2, -47.2499, -11.9893, 29.3594, 13.6659, 67.2646, -166.555
4.59959, 2, -47.2498, -11.9892, 29.3594, 13.6659, 67.2646, -166.555
4.60759, 2, -47.2497, -11.9892, 29.3594, 13.6659, 67.2646, -166.555
4.61567, 2, -47.2496, -11.9891, 29.3594, 13.6659, 67.2647, -166.555
4.6236, 2, -47.2495, -11.989, 29.3594, 13.6659, 67.2647, -166.555
4.63164, 2, -47.2494, -11.989, 29.3594, 13.6659, 67.2646, -166.555
4.63965, 2, -47.2493, -11.989, 29.3594, 13.6659, 67.2646, -166.555
4.6476, 2, -47.2492, -11.989, 29.3594, 13.6659, 67.2646, -166.555
4.65561, 2, -47.2491, -11.989, 29.3594, 13.6659, 67.2647, -166.555
4.6637, 2, -47.249, -11.989, 29.3594, 13.6658, 67.2647, -166.555
4.67173, 2, -47.249, -11.989, 29.3594, 13.6658, 67.2647, -166.555
4.67968, 2, -47.2489, -11.989, 29.3594, 13.6658, 67.2647, -166.555
4.68776, 2, -47.2488, -11.9889, 29.3594, 13.6659, 67.2647, -166.555
4.69575, 2, -47.2488, -11.9889, 29.3594, 13.6658, 67.2648, -166.555
4.7037, 2, -47.2487, -11.9889, 29.3594, 13.6658, 67.2647, -166.555
4.71181, 2, -47.2486, -11.9888, 29.3594, 13.6658, 67.2647, -166.555
4.7196, 2, -47.2485, -11.9887, 29.3594, 13.6658, 67.2647, -166.555
4.72762, 2, -47.2484, -11.9887, 29.3594, 13.6658, 67.2647, -166.555
4.7357, 2, -47.2484, -11.9886, 29.3594, 13.6658, 67.2647, -166.555
4.74372, 2, -47.2483, -11.9886, 29.3594, 13.6658, 67.2647, -166.555
4.75177, 2, -47.2483, -11.9886, 29.3594, 13.6657, 67.2648, -166.555
4.75984, 2, -47.2483, -11.9886, 29.3594, 13.6657, 67.2648, -166.555
4.76818, 2, -47.2483, -11.9886, 29.3594, 13.6658, 67.2648, -166.555
4.77593, 2, -47.2482, -11.9886, 29.3594, 13.6657, 67.2648, -166.554
4.78416, 2, -47.2482, -11.9886, 29.3594, 13.6657, 67.2648, -166.554
4.79254, 2, -47.2482, -11.9886, 29.3594, 13.6657, 67.2648, -166.554
4.80007, 2, -47.2481, -11.9885, 29.3594, 13.6657, 67.2648, -166.554
4.80815, 2, -47.2481, -11.9885, 29.3594, 13.6657, 67.2648, -166.554
4.81658, 2, -47.2481, -11.9884, 29.3594, 13.6657, 67.2648, -166.554
4.82414, 2, -47.248, -11.9883, 29.3594, 13.6657, 67.2648, -166.554
4.83227, 2, -47.2479, -11.9883, 29.3594, 13.6657, 67.2648, -166.554
4.84048, 2, -47.2479, -11.9882, 29.3594, 13.6656, 67.2648, -166.554
4.84758, 2, -47.2479, -11.9882, 29.3594, 13.6657, 67.2648, -166.554
4.85566, 2, -47.2478, -11.9882, 29.3594, 13.6657, 67.2648, -166.554
4.86362, 2, -47.2478, -11.9882, 29.3594, 13.6656, 67.2648, -166.554
4.87162, 2, -47.2477, -11.9882, 29.3594, 13.6656, 67.2648, -166.554
4.87962, 2, -47.2477, -11.9882, 29.3594, 13.6656, 67.2649, -166.554
4.88758, 2, -47.2477, -11.9882, 29.3594, 13.6656, 67.2649, -166.554
4.89559, 2, -47.2476, -11.9882, 29.3594, 13.6656, 67.265, -166.554
4.90362, 2, -47.2476, -11.9881, 29.3594, 13.6655, 67.265, -166.554
4.91167, 2, -47.2476, -11.9881, 29.3594, 13.6655, 67.265, -166.554
4.91957, 2, -47.2476, -11.988, 29.3594, 13.6655, 67.265, -166.554
4.92763, 2, -47.2475, -11.9879, 29.3594, 13.6655, 67.265, -166.554
4.93559, 2, -47.2474, -11.9879, 29.3594, 13.6655, 67.2649, -166.554
4.94357, 2, -47.2473, -11.9879, 29.3594, 13.6655, 67.265, -166.554
4.95057, 2, -47.2473, -11.9878, 29.3594, 13.6655, 67.265, -166.554
4.95958, 2, -47.2472, -11.9878, 29.3594, 13.6655, 67.265, -166.554
4.96757, 2, -47.2471, -11.9878, 29.3594, 13.6655, 67.265, -166.554
4.97566, 2, -47.2471, -11.9878, 29.3594, 13.6655, 67.265, -166.554
4.98547, 2, -47.2471, -11.9878, 29.3594, 13.6654, 67.265, -166.554
4.99163, 2, -47.2471, -11.9878, 29.3594, 13.6654, 67.265, -166.554
4.99963, 2, -47.2471, -11.9878, 29.3594, 13.6654, 67.265, -166.554
5.00757, 2, -47.2471, -11.9877, 29.3594, 13.6654, 67.265, -166.554
5.01559, 2, -47.247, -11.9877, 29.3594, 13.6654, 67.2651, -166.554
5.02366, 2, -47.2469, -11.9877, 29.3594, 13.6653, 67.2651, -166.554
5.03172, 2, -47.2469, -11.9876, 29.3594, 13.6654, 67.2651, -166.554
5.03957, 2, -47.2468, -11.9875, 29.3594, 13.6654, 67.2651, -166.554
5.04764, 2, -47.2467, -11.9875, 29.3594, 13.6654, 67.2651, -166.554
5.05696, 2, -47.2466, -11.9874, 29.3594, 13.6654, 67.2651, -166.554
5.06357, 2, -47.2466, -11.9874, 29.3594, 13.6653, 67.2651, -166.554
5.07169, 2, -47.2465, -11.9874, 29.3594, 13.6653, 67.2651, -166.554
5.07961, 2, -47.2465, -11.9874, 29.3594, 13.6653, 67.2651, -166.554
5.08757, 2, -47.2464, -11.9874, 29.3594, 13.6652, 67.2651, -166.554
5.09564, 2, -47.2464, -11.9874, 29.3594, 13.6652, 67.2651, -166.554
5.10357, 2, -47.2464, -11.9874, 29.3594, 13.6652, 67.2651, -166.554
5.11166, 2, -47.2464, -11.9874, 29.3594, 13.6652, 67.2651, -166.554
5.11962, 4, -47.2464, -11.9873, 29.3594, 13.6652, 67.2652, -166.554
5.12758, 4, -47.2463, -11.9873, 29.3594, 13.6652, 67.2652, -166.554
5.13563, 4, -47.2462, -11.9872, 29.3594, 13.6652, 67.2652, -166.554
5.14363, 4, -47.2462, -11.9872, 29.3594, 13.6652, 67.2653, -166.554
5.15163, 4, -47.2461, -11.9872, 29.3594, 13.6651, 67.2652, -166.554
5.15961, 4, -47.2461, -11.9872, 29.3594, 13.6651, 67.2653, -166.554
5.16768, 4, -47.246, -11.9871, 29.3594, 13.6651, 67.2653, -166.554
5.17567, 4, -47.246, -11.9871, 29.3594, 13.6651, 67.2653, -166.554
5.18369, 4, -47.2459, -11.9871, 29.3594, 13.6651, 67.2653, -166.554
5.19179, 4, -47.2459, -11.9871, 29.3594, 13.6651, 67.2653, -166.554
5.19971, 4, -47.2459, -11.9871, 29.3594, 13.6651, 67.2653, -166.554
5.20769, 4, -47.2458, -11.9871, 29.3594, 13.665, 67.2653, -166.554
5.21594, 4, -47.2458, -11.987, 29.3594, 13.665, 67.2653, -166.554
5.23356, 4, -47.2458, -11.9869, 29.3594, 13.665, 67.2653, -166.554
5.23615, 4, -47.2457, -11.9869, 29.3594, 13.665, 67.2653, -166.554
5.23986, 4, -47.2457, -11.9869, 29.3594, 13.665, 67.2652, -166.554
5.24995, 4, -47.2456, -11.9869, 29.3594, 13.665, 67.2653, -166.554
5.25615, 4, -47.2456, -11.9869, 29.3594, 13.665, 67.2653, -166.554
5.26411, 4, -47.2455, -11.9868, 29.3594, 13.665, 67.2653, -166.553
5.27666, 4, -47.2455, -11.9868, 29.3594, 13.665, 67.2653, -166.553
5.28167, 4, -47.2454, -11.9868, 29.3594, 13.665, 67.2653, -166.553
5.28983, 4, -47.2454, -11.9868, 29.3594, 13.665, 67.2653, -166.553
5.29769, 4, -47.2454, -11.9868, 29.3594, 13.665, 67.2653, -166.553
5.3046, 4, -47.2453, -11.9868, 29.3594, 13.665, 67.2653, -166.553
5.31254, 4, -47.2453, -11.9867, 29.3594, 13.6649, 67.2653, -166.553
5.32038, 4, -47.2453, -11.9867, 29.3594, 13.6649, 67.2653, -166.553
5.32869, 4, -47.2453, -11.9867, 29.3594, 13.665, 67.2653, -166.553
5.3376, 4, -47.2452, -11.9867, 29.3594, 13.665, 67.2653, -166.553
5.34432, 4, -47.2452, -11.9867, 29.3594, 13.665, 67.2653, -166.553
5.35452, 4, -47.2452, -11.9866, 29.3594, 13.6649, 67.2654, -166.553
5.3604, 4, -47.2451, -11.9866, 29.3594, 13.6649, 67.2654, -166.553
5.36845, 4, -47.2451, -11.9865, 29.3594, 13.6649, 67.2653, -166.553
5.37749, 4, -47.245, -11.9865, 29.3594, 13.6648, 67.2653, -166.553
5.38576, 4, -47.2451, -11.9866, 29.3594, 13.6648, 67.2653, -166.553
5.39384, 4, -47.246, -11.9871, 29.3598, 13.665, 67.2654, -166.553
5.39981, 4, -47.2469, -11.9877, 29.3605, 13.6654, 67.2656, -166.553
5.4114, 4, -47.2525, -11.9933, 29.3672, 13.6765, 67.2683, -166.552
5.41595, 4, -47.2556, -11.9972, 29.3724, 13.6866, 67.2708, -166.55
5.42376, 4, -47.2648, -12.0089, 29.3903, 13.722, 67.2804, -166.543
5.43177, 5, -47.2793, -12.0283, 29.4231, 13.7884, 67.2989, -166.529
5.43987, 5, -47.3015, -12.0581, 29.4771, 13.9004, 67.3304, -166.503
5.45147, 5, -47.3333, -12.0997, 29.5584, 14.072, 67.3783, -166.438
5.45568, 5, -47.3765, -12.155, 29.673, 14.3169, 67.4458, -166.407
5.4654, 5, -47.4324, -12.2252, 29.8237, 14.6436, 67.5352, -166.332
5.47454, 5, -47.5399, -12.3589, 30.1219, 15.2908, 67.7093, -166.184
5.47982, 5, -47.5819, -12.4109, 30.2403, 15.5458, 67.7773, -166.126
5.48958, 5, -47.7245, -12.5872, 30.6447, 16.408, 68.0043, -165.931
5.49572, 5, -47.7768, -12.652, 30.7943, 16.7216, 68.0857, -165.86
5.50374, 5, -47.8872, -12.7892, 31.1108, 17.3773, 68.2536, -165.715
5.51413, 5, -48.0629, -13.0093, 31.6169, 18.4024, 68.5105, -165.492
5.51977, 5, -48.1231, -13.085, 31.7905, 18.7491, 68.5959, -165.418
5.53044, 5, -48.3044, -13.3132, 32.3186, 19.7872, 68.8471, -165.197
5.53798, 5, -48.4224, -13.4616, 32.6707, 20.4634, 69.0094, -165.049
5.54464, 5, -48.479, -13.5337, 32.8451, 20.7935, 69.0893, -164.972
5.55176, 6, -48.5846, -13.6719, 33.1859, 21.4302, 69.2479, -164.807
5.56009, 6, -48.6762, -13.7998, 33.5128, 22.0268, 69.4069, -164.614
5.57287, 7, -48.7785, -13.9742, 33.9677, 22.8349, 69.6522, -164.242
5.57738, 7, -48.802, -14.0285, 34.1093, 23.0796, 69.7369, -164.09
5.58743, 7, -48.8324, -14.131, 34.3773, 23.5342, 69.9115, -163.534
5.59266, 8, -48.8417, -14.224, 34.6265, 23.9483, 70.0947, -163.315
5.59974, 8, -48.8323, -14.3075, 34.8615, 24.3311, 70.2865, -162.831
5.60868, 9, -48.8074, -14.3831, 35.0854, 24.6925, 70.4874, -162.291
5.61962, 9, -48.7472, -14.4866, 35.4086, 25.2156, 70.8053, -161.406
5.62543, 10, -48.7221, -14.5194, 35.5152, 25.3885, 70.9155, -161.097
5.63357, 10, -48.6648, -14.5836, 35.7278, 25.7358, 71.1409, -160.468
5.63977, 11, -48.5991, -14.6466, 35.9401, 26.0867, 71.3719, -159.83
5.64802, 11, -48.5271, -14.7091, 36.153, 26.4429, 71.6062, -159.19
5.65669, 12, -48.4502, -14.7717, 36.3654, 26.8056, 71.8427, -158.551
5.66597, 12, -48.371, -14.8345, 36.5757, 27.175, 72.0807, -157.91
5.67186, 13, -48.2912, -14.896, 36.7845, 27.5518, 72.3202, -157.267
5.68034, 13, -48.2112, -14.955, 36.9918, 27.9364, 72.5615, -156.621
5.68787, 14, -48.1297, -15.013, 37.1969, 28.3282, 72.8053, -155.97
5.69583, 14, -48.0455, -15.0719, 37.4008, 28.7261, 73.0513, -155.316
5.70715, 15, -47.9578, -15.1319, 37.6042, 29.1288, 73.2993, -154.662
5.7163, 15, -47.819, -15.2209, 37.9058, 29.7361, 73.6707, -153.683
5.71981, 16, -47.7701, -15.2502, 38.0055, 29.9384, 73.7937, -153.359
5.72791, 16, -47.667, -15.3092, 38.2036, 30.3415, 74.0371, -152.713
5.73939, 17, -47.5569, -15.3699, 38.3988, 30.7415, 74.2763, -151.755
5.74394, 17, -47.4413, -15.4323, 38.5904, 31.1372, 74.5098, -151.438
5.75282, 18, -47.3209, -15.4956, 38.7791, 31.5279, 74.7368, -150.81
5.76079, 18, -47.1956, -15.5595, 38.9654, 31.9143, 74.9576, -150.189
5.76814, 19, -47.0649, -15.6255, 39.1485, 32.2974, 75.1725, -149.576
5.7769, 19, -46.9284, -15.6948, 39.3298, 32.6789, 75.3825, -148.97
5.78445, 19, -46.7865, -15.7668, 39.5101, 33.0592, 75.588, -148.37
5.79628, 20, -46.6394, -15.8403, 39.6887, 33.4385, 75.7893, -147.778
5.80039, 20, -46.4878, -15.9155, 39.8647, 33.8172, 75.9865, -147.192
5.81076, 21, -46.332, -15.9926, 40.0389, 34.195, 76.1796, -146.612
5.81651, 21, -46.1723, -16.0717, 40.2114, 34.5717, 76.3683, -146.039
5.82545, 22, -46.0084, -16.1522, 40.3812, 34.9465, 76.5527, -145.472
5.83253, 22, -45.8397, -16.2339, 40.5477, 35.3188, 76.7329, -144.911
5.84112, 23, -45.7532, -16.3173, 40.7117, 35.6878, 76.9082, -144.354
5.84858, 23, -45.575, -16.4032, 40.8724, 36.0527, 77.0787, -143.803
5.85752, 24, -45.2933, -16.4914, 41.0288, 36.4118, 77.2434, -143.258
5.86447, 24, -45.1958, -16.5361, 41.1053, 36.5886, 77.3234, -142.987
5.87173, 25, -44.9956, -16.6258, 41.2553, 36.9359, 77.4785, -142.448
5.88191, 26, -44.6831, -16.7612, 41.4719, 37.4405, 77.6987, -141.649
5.88774, 26, -44.5754, -16.807, 41.5417, 37.6044, 77.7691, -141.385
5.89577, 27, -44.3544, -16.8995, 41.6773, 37.9261, 77.9065, -140.859
5.90376, 27, -44.1266, -16.9922, 41.8073, 38.2397, 78.0391, -140.334
5.91178, 28, -43.8923, -17.0846, 41.9315, 38.5456, 78.1682, -139.811
5.9197, 28, -43.651, -17.1763, 42.0493, 38.8441, 78.2941, -139.288
5.92769, 29, -43.4023, -17.2668, 42.1604, 39.1346, 78.417, -138.766
5.93955, 29, -43.1467, -17.3556, 42.2647, 39.4171, 78.5377, -138.244
5.94375, 30, -42.8846, -17.4422, 42.3618, 39.6919, 78.6551, -137.722
5.95215, 30, -42.6155, -17.5263, 42.4515, 39.9585, 78.7701, -137.201
5.96136, 31, -42.1967, -17.6478, 42.5727, 40.3429, 78.9377, -136.419
5.9677, 31, -42.0531, -17.6871, 42.6095, 40.467, 78.9923, -136.159
5.97574, 32, -41.7604, -17.764, 42.6779, 40.7087, 79.0999, -135.639
5.98606, 32, -41.4608, -17.8383, 42.7396, 40.9419, 79.2046, -135.119
5.99383, 33, -40.9993, -17.9441, 42.8193, 41.2762, 79.3569, -134.341
5.99972, 33, -40.842, -17.9777, 42.8423, 41.3836, 79.4065, -134.083
6.0078, 34, -40.5224, -18.0429, 42.8829, 41.5921, 79.5031, -133.566
6.01878, 34, -40.0332, -18.1361, 42.9302, 41.8895, 79.6432, -132.793
6.02678, 35, -39.701, -18.1947, 42.9528, 42.078, 79.7337, -132.279
6.0328, 35, -39.5328, -18.2227, 42.9614, 42.1695, 79.7778, -132.023
6.04037, 36, -39.1913, -18.2763, 42.9734, 42.3467, 79.8647, -131.511
6.0477, 36, -38.8426, -18.3264, 42.9784, 42.516, 79.9491, -131
6.05845, 37, -38.3067, -18.3954, 42.9735, 42.7561, 80.072, -130.236
6.06834, 37, -38.1251, -18.4167, 42.9685, 42.8322, 80.1516, -129.729
6.0751, 38, -37.7578, -18.4563, 42.9532, 43.0497, 80.2287, -129.224
6.08296, 38, -37.3856, -18.5093, 42.9179, 43.1854, 80.3042, -128.72
6.09053, 39, -36.8189, -18.5404, 42.886, 43.3136, 80.3767, -128.217
6.09578, 39, -36.6277, -18.5546, 42.8675, 43.375, 80.4124, -127.967
6.10391, 40, -36.2414, -18.5801, 42.8254, 43.4923, 80.4828, -127.468
6.11645, 40, -35.6508, -18.6113, 42.7502, 43.6549, 80.5846, -126.722
6.11969, 41, -35.451, -18.6196, 42.7218, 43.7055, 80.6177, -126.475
6.12956, 41, -35.0471, -18.6336, 42.6602, 43.8008, 80.6815, -125.981
6.13582, 42, -34.6386, -18.6442, 42.5922, 43.8896, 80.7443, -125.49
6.14816, 42, -34.0197, -18.6538, 42.4781, 44.0091, 80.8337, -124.757
6.15172, 43, -33.8119, -18.6554, 42.437, 44.0453, 80.8631, -124.514
6.16105, 43, -33.3933, -18.6562, 42.3503, 44.1121, 80.9202, -124.03
6.16771, 44, -32.9691, -18.6535, 42.2578, 44.1726, 80.9748, -123.547
6.17581, 44, -32.5388, -18.6469, 42.1597, 44.2251, 81.029, -123.068
6.1886, 45, -31.8814, -18.6299, 42.0013, 44.2908, 81.1057, -122.353
6.19372, 45, -31.6597, -18.6224, 41.9456, 44.3092, 81.1308, -122.116
6.20632, 46, -31.2139, -18.6049, 41.8296, 44.3524, 81.2034, -121.407
6.20965, 46, -30.7663, -18.584, 41.7076, 44.3628, 81.2263, -121.173
6.21756, 47, -30.316, -18.5592, 41.5799, 44.378, 81.2713, -120.705
6.22454, 47, -29.8614, -18.5301, 41.4462, 44.386, 81.3161, -120.239
6.23183, 48, -29.4005, -18.4965, 41.3066, 44.3873, 81.359, -119.775
6.24053, 48, -28.933, -18.4586, 41.1608, 44.38, 81.4007, -119.312
6.25009, 49, -28.46, -18.4164, 41.0091, 44.364, 81.4426, -118.852
6.25671, 49, -27.9837, -18.3698, 40.8515, 44.3391, 81.4841, -118.394
6.26515, 50, -27.5052, -18.3187, 40.6876, 44.3043, 81.5245, -117.936
6.28095, 51, -26.5361, -18.2006, 40.3402, 44.2074, 81.608, -117.023
6.28476, 51, -26.2894, -18.1677, 40.2493, 44.1771, 81.6292, -116.796
6.2889, 51, -26.0408, -18.1333, 40.1568, 44.1441, 81.6503, -116.568
6.29796, 52, -25.5381, -18.0605, 39.9661, 44.0716, 81.6929, -116.114
6.3051, 52, -25.031, -17.9823, 39.7679, 43.9883, 81.7371, -115.661
6.3126, 53, -24.5218, -17.8989, 39.5638, 43.8948, 81.7819, -115.208
6.32109, 53, -24.0102, -17.8097, 39.353, 43.7915, 81.8268, -114.755
6.32948, 54, -23.4934, -17.7144, 39.1342, 43.6777, 81.8736, -114.304
6.33868, 54, -22.9687, -17.6127, 38.9085, 43.5533, 81.9227, -113.852
6.34481, 55, -22.4357, -17.5046, 38.6756, 43.4179, 81.9729, -113.4
6.3565, 55, -21.8976, -17.3903, 38.4348, 43.1927, 82.054, -112.722
6.36038, 56, -21.6276, -17.3309, 38.1877, 43.1117, 82.0818, -112.496
6.37079, 56, -20.8135, -17.1444, 37.9335, 42.9411, 82.1385, -112.045
6.37645, 57, -20.5397, -17.0794, 37.8037, 42.8514, 82.168, -111.819
6.3857, 57, -19.7039, -16.8759, 37.4049, 42.565, 82.2582, -111.143
6.39335, 58, -19.1361, -16.7325, 37.1302, 42.3586, 82.3208, -110.693
6.39966, 58, -18.8504, -16.6584, 36.9906, 42.2506, 82.353, -110.468
6.40773, 59, -18.2768, -16.5057, 36.7064, 42.0252, 82.418, -110.018
6.41781, 59, -17.4103, -16.2673, 36.2668, 41.6634, 82.5216, -109.343
6.42688, 60, -16.8228, -16.1029, 35.9656, 41.406, 82.5935, -108.894
6.43166, 60, -16.5251, -16.0187, 35.8127, 41.2725, 82.6306, -108.669
6.44502, 61, -15.6209, -15.758, 35.3469, 40.7056, 82.7818, -107.77
6.44767, 61, -15.3175, -15.6688, 35.1889, 40.7056, 82.7818, -107.77
6.45886, 62, -14.4031, -15.3952, 34.708, 40.2476, 82.8996, -107.097
6.46371, 62, -14.0952, -15.302, 34.5452, 40.0884, 82.94, -106.873
6.47202, 63, -13.4721, -15.1111, 34.2168, 39.7603, 83.022, -106.424
6.47968, 63, -12.8395, -14.9136, 33.8837, 39.4185, 83.1067, -105.975
6.48773, 64, -12.2005, -14.7107, 33.5457, 39.0629, 83.1945, -105.525
6.49574, 64, -11.5576, -14.5026, 33.2015, 38.6936, 83.2857, -105.074
6.50365, 65, -10.9082, -14.2876, 32.851, 38.3095, 83.3816, -104.621
6.5148, 65, -9.91333, -13.9508, 32.3127, 37.703, 83.5355, -103.939
6.52243, 66, -9.57666, -13.8352, 32.1307, 37.4918, 83.6455, -103.481
6.52777, 66, -8.89779, -13.5988, 31.7624, 37.0562, 83.703, -103.252
6.53571, 67, -8.21406, -13.3551, 31.3876, 36.6022, 83.823, -102.791
6.5447, 67, -7.52327, -13.1039, 31.0052, 36.1305, 83.9499, -102.329
6.55165, 68, -6.82339, -12.845, 30.6171, 35.6421, 84.0844, -101.865
6.55996, 68, -6.11603, -12.5796, 30.2254, 35.139, 84.2256, -101.399
6.56867, 69, -5.40387, -12.3091, 29.83, 34.6237, 84.3734, -100.932
6.57566, 69, -4.6879, -12.032, 29.4319, 34.0973, 84.526, -100.464
6.5885, 70, -3.60137, -11.6043, 28.8348, 33.2908, 84.763, -99.7588
6.59191, 70, -3.23514, -11.4578, 28.6362, 33.0165, 84.8441, -99.5231
6.60282, 71, -2.12521, -11.0057, 28.0407, 32.1758, 85.0949, -98.8141
6.60777, 71, -1.75153, -10.8516, 27.8413, 31.8887, 85.182, -98.5767
6.61858, 72, -0.618659, -10.3796, 27.239, 31.0024, 85.4571, -97.8594
6.62459, 72, -0.237411, -10.2195, 27.0367, 30.6976, 85.5536, -97.6186
6.63167, 73, 0.530037, -9.89406, 26.6294, 30.0765, 85.754, -97.1342
6.63967, 73, 1.30327, -9.56061, 26.22, 29.4416, 85.9635, -96.6479
6.65259, 74, 2.47147, -9.04826, 25.6046, 28.4677, 86.2945, -95.9139
6.65983, 74, 3.25369, -8.69991, 25.1972, 27.8078, 86.5248, -95.4222
6.66374, 75, 3.6455, -8.52326, 24.9955, 27.4754, 86.6424, -95.1758
6.67195, 75, 4.43095, -8.16457, 24.5957, 26.8076, 86.8817, -94.6825
6.67991, 76, 5.21827, -7.80008, 24.2014, 26.1394, 87.1268, -94.1887
6.68789, 76, 6.00603, -7.42963, 23.8127, 25.4705, 87.3772, -93.6934
6.69579, 76, 6.79348, -7.0536, 23.4301, 24.8028, 87.6336, -93.1971
6.71162, 77, 8.37227, -6.27728, 22.6777, 23.4678, 88.1711, -92.2012
6.71353, 78, 8.37227, -6.27728, 22.6777, 23.4678, 88.1711, -92.2012
6.72642, 78, 9.56001, -5.67166, 22.1236, 22.4558, 88.6031, -91.4479
6.72876, 79, 9.95612, -5.46592, 21.9405, 22.1152, 88.7539, -91.1948
6.73556, 79, 10.7483, -5.04979, 21.5768, 21.4298, 89.0654, -90.6847
6.74457, 80, 11.5389, -4.62533, 21.2159, 20.7415, 89.3895, -90.1691
6.75183, 80, 12.3256, -4.19066, 20.8601, 20.0521, 89.7237, -89.6478
6.76069, 81, 13.1057, -3.74608, 20.5094, 19.3692, 90.0669, -89.1199
6.76771, 81, 13.8797, -3.29468, 20.1655, 18.6974, 90.417, -88.5868
6.77588, 81, 14.6467, -2.83714, 19.8294, 18.0408, 90.773, -88.0497
6.78391, 82, 15.4059, -2.37147, 19.5038, 17.3997, 91.1333, -87.5105
6.79193, 82, 16.1556, -1.89795, 19.1876, 16.7758, 91.4979, -86.9687
6.80008, 83, 16.8935, -1.41804, 18.881, 16.1709, 91.8672, -86.4259
6.80802, 83, 17.6183, -0.932784, 18.5831, 15.5837, 92.2421, -85.883
6.81692, 84, 18.3278, -0.443304, 18.2938, 15.0148, 92.6233, -85.3417
6.82417, 84, 19.0206, 0.0499345, 18.012, 14.4655, 93.0118, -84.8016
6.83294, 85, 19.6951, 0.54854, 17.7361, 13.9353, 93.4083, -84.2633
6.84009, 85, 20.0255, 0.799906, 17.6007, 13.4248, 93.8125, -83.7269
6.84891, 86, 20.6733, 1.3064, 17.3344, 13.1774, 94.0168, -83.1929
6.8555, 86, 21.3049, 1.81678, 17.0743, 12.6972, 94.4296, -82.9259
6.86351, 86, 21.9228, 2.33356, 16.8211, 12.2372, 94.8479, -82.3908
6.8716, 87, 22.5284, 2.85997, 16.5731, 11.7967, 95.2726, -81.8528
6.87957, 87, 23.1235, 3.39676, 16.3293, 11.3746, 95.7044, -81.3104
6.8875, 88, 23.709, 3.9413, 16.0888, 10.9688, 96.1437, -80.7622
6.89557, 88, 24.2843, 4.49278, 15.8508, 10.5786, 96.5898, -80.205
6.90347, 89, 24.8484, 5.05382, 15.6177, 10.2035, 97.0428, -79.6382
6.91152, 89, 25.403, 5.62681, 15.3896, 9.84408, 97.5019, -79.0602
6.91953, 90, 25.9529, 6.21043, 15.165, 9.5007, 97.9656, -78.4705
6.92751, 90, 26.4984, 6.80328, 14.9454, 9.17307, 98.434, -77.8667
6.93553, 91, 27.034, 7.40505, 14.7317, 8.86269, 98.907, -77.2491
6.94357, 91, 27.5559, 8.0168, 14.5233, 8.57046, 99.3851, -76.6195
6.95148, 92, 28.0665, 8.63948, 14.3194, 8.298, 99.8685, -75.9774
6.95958, 92, 28.5694, 9.27215, 14.12, 8.0466, 100.357, -75.3245
6.96749, 93, 29.0654, 9.91383, 13.925, 7.81631, 100.85, -74.6633
6.9779, 93, 29.5506, 10.5629, 13.7354, 7.60841, 101.345, -73.9947
6.98357, 94, 30.0229, 11.2181, 13.5527, 7.42311, 101.841, -73.3181
6.99255, 94, 30.4806, 11.8771, 13.3767, 7.26091, 102.336, -72.6354
6.99947, 95, 30.9241, 12.5387, 13.207, 7.12209, 102.829, -71.9482
7.00758, 95, 31.354, 13.2028, 13.0448, 7.00677, 103.32, -71.2543
7.01546, 96, 31.7703, 13.8695, 12.8903, 6.91468, 103.807, -70.5548
7.0235, 96, 32.1711, 14.5371, 12.7422, 6.84665, 104.29, -69.8511
7.03246, 97, 32.555, 15.2047, 12.6003, 6.80213, 104.77, -69.1412
7.03952, 97, 32.9227, 15.8708, 12.4652, 6.77851, 105.243, -68.4259
7.04846, 98, 33.2745, 16.5334, 12.3382, 6.77617, 105.71, -67.7097
7.05557, 98, 33.6112, 17.1906, 12.2201, 6.79561, 106.168, -66.9919
7.06377, 99, 33.9333, 17.8405, 12.1114, 6.83425, 106.615, -66.2744
7.07152, 99, 34.2414, 18.482, 12.0129, 6.89248, 107.049, -65.5619
7.07959, 99, 34.5373, 19.1136, 11.9244, 6.96888, 107.468, -64.8548
7.0875, 100, 34.8217, 19.7349, 11.8455, 7.06171, 107.871, -64.1536
7.0955, 100, 35.0937, 20.3448, 11.7757, 7.17079, 108.257, -63.462
7.10358, 101, 35.3526, 20.9415, 11.7138, 7.29391, 108.627, -62.7803
7.11152, 101, 35.5983, 21.5247, 11.66, 7.4295, 108.98, -62.1085
7.1195, 102, 35.8299, 22.0928, 11.6138, 7.57505, 109.317, -61.449
7.12758, 102, 36.0478, 22.6461, 11.5748, 7.72853, 109.638, -60.8031
7.13552, 103, 36.2554, 23.1845, 11.5431, 7.88813, 109.944, -60.1704
7.14351, 103, 36.4561, 23.7076, 11.5191, 8.05299, 110.235, -59.5514
7.15159, 103, 36.6515, 24.2168, 11.5034, 8.22401, 110.511, -58.947
7.15955, 104, 36.8422, 24.7128, 11.4954, 8.4021, 110.77, -58.3544
7.1675, 104, 37.0282, 25.1959, 11.4938, 8.58909, 111.011, -57.771
7.17562, 104, 37.2095, 25.6665, 11.4982, 8.78516, 111.234, -57.1958
7.18361, 104, 37.3824, 26.1236, 11.5078, 8.98986, 111.439, -56.6283
7.19163, 104, 37.5447, 26.5672, 11.5211, 9.20268, 111.629, -56.0677
7.19967, 104, 37.6987, 26.9975, 11.5372, 9.42054, 111.805, -55.5163
7.20788, 104, 37.8487, 27.4157, 11.5557, 9.64107, 111.971, -54.9771
7.21566, 104, 37.9975, 27.8202, 11.5756, 9.86156, 112.127, -54.4547
7.224, 104, 38.1439, 28.2108, 11.5958, 10.079, 112.275, -53.951
7.23152, 104, 38.2862, 28.5873, 11.6156, 10.2926, 112.416, -53.468
7.23954, 104, 38.4229, 28.9496, 11.6345, 10.4998, 112.549, -53.0081
7.24761, 104, 38.5526, 29.2952, 11.6525, 10.7, 112.675, -52.5716
7.25562, 104, 38.6745, 29.6234, 11.6697, 10.8921, 112.793, -52.1605
7.26398, 104, 38.7885, 29.9325, 11.6855, 11.0755, 112.903, -51.7739
7.27179, 104, 38.8946, 30.2235, 11.7003, 11.2492, 113.006, -51.4119
7.27979, 104, 38.9933, 30.4956, 11.7141, 11.4132, 113.101, -51.0756
7.28793, 104, 39.084, 30.7477, 11.7266, 11.5666, 113.189, -50.7648
7.29593, 104, 39.1666, 30.9804, 11.7379, 11.7092, 113.269, -50.4788
7.30397, 104, 39.2407, 31.1934, 11.7482, 11.8402, 113.343, -50.2184
7.31242, 104, 39.3065, 31.3861, 11.7578, 11.9597, 113.408, -49.983
7.32008, 104, 39.3646, 31.5597, 11.7664, 12.0674, 113.467, -49.773
7.32809, 104, 39.4157, 31.7137, 11.7738, 12.1626, 113.519, -49.5879
7.33638, 104, 39.4604, 31.8487, 11.7805, 12.2461, 113.563, -49.4275
7.34409, 104, 39.4805, 31.9094, 11.7867, 12.3168, 113.601, -49.2915
7.35208, 104, 39.5162, 32.0179, 11.7895, 12.3481, 113.632, -49.1789
7.36055, 104, 39.5582, 32.1499, 11.7971, 12.4239, 113.657, -49.0881
7.36749, 104, 39.5697, 32.1863, 11.7993, 12.4434, 113.667, -49.0502
7.37551, 104, 39.5893, 32.249, 11.8034, 12.4758, 113.683, -48.9889
7.3836, 104, 39.6048, 32.2996, 11.8072, 12.5, 113.695, -48.9443
7.3915, 104, 39.617, 32.3395, 11.8106, 12.5172, 113.703, -48.9132
7.39949, 104, 39.6263, 32.3695, 11.8137, 12.5288, 113.708, -48.8927
7.40755, 104, 39.6329, 32.3919, 11.8165, 12.5363, 113.711, -48.8802
7.41549, 104, 39.6371, 32.4084, 11.8188, 12.5406, 113.713, -48.8734
7.42348, 104, 39.6397, 32.4197, 11.8205, 12.5429, 113.714, -48.8701
7.43336, 105, 39.6414, 32.4292, 11.8223, 12.5443, 113.714, -48.8683
7.43948, 105, 39.6415, 32.4312, 11.8228, 12.5446, 113.714, -48.8681
7.44749, 105, 39.641, 32.4342, 11.8237, 12.5448, 113.714, -48.8679
7.45555, 105, 39.6401, 32.4363, 11.8245, 12.5451, 113.714, -48.8681
7.46352, 105, 39.6389, 32.4379, 11.8252, 12.5452, 113.714, -48.8682
7.4715, 105, 39.6375, 32.4392, 11.8258, 12.5452, 113.714, -48.8685
7.47956, 105, 39.6363, 32.4405, 11.8263, 12.5452, 113.714, -48.8688
7.4891, 105, 39.6356, 32.4417, 11.8268, 12.5452, 113.714, -48.869
7.49552, 105, 39.6351, 32.4428, 11.8274, 12.5453, 113.714, -48.8693
7.50356, 105, 39.6348, 32.444, 11.828, 12.5453, 113.714, -48.8696
7.51254, 105, 39.6345, 32.445, 11.8286, 12.5452, 113.714, -48.8699
7.51949, 105, 39.6343, 32.4458, 11.829, 12.5452, 113.714, -48.8702
7.52757, 105, 39.634, 32.4464, 11.8293, 12.5452, 113.714, -48.8704
7.53548, 105, 39.6337, 32.4468, 11.8296, 12.5452, 113.714, -48.8705
7.5435, 105, 39.6334, 32.447, 11.8299, 12.5452, 113.714, -48.8707
7.55163, 105, 39.6332, 32.4471, 11.8301, 12.5452, 113.714, -48.871
